(Schild Gravieren)
(T2  D=3.175 CR=0 TAPER=30deg - ZMIN=-0.3 - NC-Anbohrer)
G90 G94
G17
G21
(When using Fusion 360 for Personal Use, the feedrate of)
(rapid moves is reduced to match the feedrate of cutting)
(moves, which can increase machining time. Unrestricted rapid)
(moves are available with a Fusion 360 Subscription.)
G28 G91 Z0
G90

(Gravieren2)
T2
S7000 M3
G54
G0 X-23.638 Y-45.538
Z15
G1 Z5 F1800
Z-0.001
X-23.558 Y-45.458 Z-0.3
X-23.557 Y-45.25
X-23.637 Y-45.17 Z-0.001
X-23.557 Y-45.25 Z-0.3
X-22.919 Y-45.251
X-22.889 Y-45.245
X-22.863 Y-45.228
X-22.845 Y-45.202
X-22.839 Y-45.171
X-22.837 Y-43.95
X-22.917 Y-43.87 Z-0.001
X-22.837 Y-43.95 Z-0.3
X-22.605
X-20.718 Y-45.284
Y-45.463
X-20.639 Y-45.543 Z-0.001
X-20.718 Y-45.463 Z-0.3
X-22.582 Y-45.46
X-22.613 Y-45.466
X-22.639 Y-45.483
X-22.657 Y-45.509
X-22.663 Y-45.54
Y-45.865
X-22.583 Y-45.945 Z-0.001
X-22.663 Y-45.865 Z-0.3
X-22.84 Y-45.864
X-22.92 Y-45.944 Z-0.001
X-22.84 Y-45.864 Z-0.3
Y-45.54
X-22.846 Y-45.509
X-22.863 Y-45.483
X-22.889 Y-45.465
X-22.92 Y-45.459
X-23.558 Y-45.458
Z5
X-22.659 Y-45.194
Z-0.3
X-22.662 Y-45.171
X-22.66 Y-44.232
X-22.653 Y-44.198
X-22.632 Y-44.171
X-22.601 Y-44.155
X-22.566 Y-44.153
X-22.534 Y-44.166
X-21.183 Y-45.108
X-21.16 Y-45.132
X-21.149 Y-45.164
X-21.152 Y-45.198
X-21.169 Y-45.227
X-21.196 Y-45.247
X-21.229 Y-45.254
X-22.582 Y-45.252
X-22.615 Y-45.245
X-22.642 Y-45.224
X-22.659 Y-45.194
Z5
X-23.634 Y-43.207
Z-0.001
X-23.554 Y-43.127 Z-0.3
X-22.916 Y-43.128
X-22.885 Y-43.134
X-22.859 Y-43.152
X-22.842 Y-43.178
X-22.836 Y-43.209
Y-43.533
X-22.916 Y-43.613 Z-0.001
X-22.836 Y-43.533 Z-0.3
X-22.659 Y-43.534
X-22.579 Y-43.614 Z-0.001
X-22.659 Y-43.534 Z-0.3
Y-43.209
X-22.653 Y-43.178
X-22.635 Y-43.152
X-22.609 Y-43.135
X-22.578 Y-43.129
X-20.715 Y-43.132
X-20.635 Y-43.212 Z-0.001
X-20.715 Y-43.132 Z-0.3
X-20.714 Y-42.953
X-22.601 Y-41.62
X-22.833 Y-41.619
X-22.913 Y-41.539 Z-0.001
X-22.833 Y-41.619 Z-0.3
X-22.835 Y-42.84
X-22.841 Y-42.871
X-22.859 Y-42.897
X-22.885 Y-42.915
X-22.916 Y-42.921
X-23.554 Y-42.92
Y-43.127
Y-42.92
X-23.633 Y-42.839 Z-0.001
Z5
X-22.658 Y-42.841
Z-0.3
X-22.657 Y-41.901
X-22.649 Y-41.867
X-22.628 Y-41.84
X-22.597 Y-41.824
X-22.562 Y-41.822
X-22.53 Y-41.836
X-21.179 Y-42.777
X-21.156 Y-42.802
X-21.145 Y-42.834
X-21.149 Y-42.867
X-21.165 Y-42.896
X-21.192 Y-42.916
X-21.225 Y-42.923
X-22.578 Y-42.921
X-22.609 Y-42.915
X-22.635 Y-42.898
X-22.652 Y-42.871
X-22.658 Y-42.841
Z5
X-22.836 Y-39.331
Z-0.002
X-22.905 Y-39.425 Z-0.3
X-22.908
X-22.935 Y-39.431
X-22.963 Y-39.437
X-22.989 Y-39.443
X-23.015 Y-39.45
X-23.041 Y-39.457
X-23.065 Y-39.465
X-23.089 Y-39.473
X-23.113 Y-39.483
X-23.135 Y-39.493
X-23.157 Y-39.504
X-23.179 Y-39.516
X-23.2 Y-39.53
X-23.221 Y-39.544
X-23.243 Y-39.56
X-23.264 Y-39.576
X-23.285 Y-39.593
X-23.306 Y-39.611
X-23.328 Y-39.629
X-23.349 Y-39.648
X-23.386 Y-39.682
X-23.399 Y-39.699
X-23.416 Y-39.723
X-23.433 Y-39.747
X-23.45 Y-39.771
X-23.466 Y-39.795
X-23.481 Y-39.818
X-23.495 Y-39.842
X-23.508 Y-39.865
X-23.521 Y-39.889
X-23.532 Y-39.912
X-23.542 Y-39.935
X-23.551 Y-39.959
X-23.559 Y-39.983
X-23.566 Y-40.008
X-23.573 Y-40.034
X-23.578 Y-40.06
X-23.583 Y-40.087
X-23.587 Y-40.114
X-23.59 Y-40.142
X-23.593 Y-40.171
X-23.596 Y-40.2
X-23.598 Y-40.229
X-23.6 Y-40.259
X-23.601 Y-40.269
X-23.602 Y-40.283
X-23.6 Y-40.311
X-23.598 Y-40.344
X-23.595 Y-40.377
X-23.592 Y-40.409
X-23.588 Y-40.441
X-23.584 Y-40.472
X-23.58 Y-40.503
X-23.574 Y-40.533
X-23.568 Y-40.562
X-23.561 Y-40.59
X-23.553 Y-40.618
X-23.544 Y-40.645
X-23.533 Y-40.671
X-23.521 Y-40.698
X-23.508 Y-40.724
X-23.494 Y-40.75
X-23.478 Y-40.776
X-23.462 Y-40.802
X-23.444 Y-40.828
X-23.426 Y-40.854
X-23.407 Y-40.88
X-23.387 Y-40.906
X-23.367 Y-40.932
X-23.352 Y-40.953
X-23.334 Y-40.968
X-23.311 Y-40.989
X-23.287 Y-41.008
X-23.264 Y-41.028
X-23.241 Y-41.047
X-23.217 Y-41.064
X-23.194 Y-41.081
X-23.171 Y-41.097
X-23.147 Y-41.112
X-23.124 Y-41.126
X-23.101 Y-41.138
X-23.077 Y-41.149
X-23.053 Y-41.159
X-23.027 Y-41.168
X-23.002 Y-41.175
X-22.975 Y-41.182
X-22.947 Y-41.188
X-22.919 Y-41.193
X-22.89 Y-41.198
X-22.86 Y-41.202
X-22.83 Y-41.206
X-22.8 Y-41.209
X-22.769 Y-41.212
X-22.743 Y-41.215
X-22.706 Y-41.213
X-22.685 Y-41.212
X-22.665 Y-41.21
X-22.644 Y-41.208
X-22.624 Y-41.206
X-22.605 Y-41.204
X-22.586 Y-41.201
X-22.567 Y-41.198
X-22.548 Y-41.194
X-22.531 Y-41.19
X-22.513 Y-41.185
X-22.496 Y-41.18
X-22.479 Y-41.174
X-22.462 Y-41.167
X-22.445 Y-41.16
X-22.428 Y-41.151
X-22.41 Y-41.143
X-22.393 Y-41.133
X-22.375 Y-41.123
X-22.357 Y-41.113
X-22.339 Y-41.102
X-22.321 Y-41.091
X-22.31 Y-41.085
X-22.301 Y-41.076
X-22.286 Y-41.062
X-22.271 Y-41.048
X-22.257 Y-41.034
X-22.243 Y-41.021
X-22.23 Y-41.007
X-22.217 Y-40.993
X-22.205 Y-40.979
X-22.194 Y-40.966
X-22.184 Y-40.952
X-22.174 Y-40.938
X-22.165 Y-40.924
X-22.156 Y-40.909
X-22.148 Y-40.894
X-22.14 Y-40.878
X-22.133 Y-40.862
X-22.126 Y-40.845
X-22.119 Y-40.827
X-22.113 Y-40.809
X-22.107 Y-40.79
X-22.1 Y-40.772
X-22.094 Y-40.752
X-22.088 Y-40.733
X-22.082 Y-40.713
X-22.068 Y-40.685
X-22.043 Y-40.665
X-22.013 Y-40.656
X-21.982 Y-40.659
X-21.954 Y-40.674
X-21.934 Y-40.699
X-21.911 Y-40.743
X-21.903 Y-40.758
X-21.895 Y-40.772
X-21.888 Y-40.785
X-21.88 Y-40.798
X-21.872 Y-40.811
X-21.864 Y-40.824
X-21.856 Y-40.836
X-21.847 Y-40.847
X-21.838 Y-40.858
X-21.83 Y-40.869
X-21.82 Y-40.879
X-21.81 Y-40.89
X-21.8 Y-40.9
X-21.789 Y-40.91
X-21.778 Y-40.92
X-21.766 Y-40.931
X-21.754 Y-40.941
X-21.741 Y-40.951
X-21.729 Y-40.962
X-21.716 Y-40.972
X-21.707 Y-40.978
X-21.699 Y-40.983
X-21.686 Y-40.99
X-21.673 Y-40.997
X-21.66 Y-41.004
X-21.647 Y-41.011
X-21.634 Y-41.018
X-21.621 Y-41.023
X-21.609 Y-41.029
X-21.596 Y-41.034
X-21.584 Y-41.039
X-21.572 Y-41.043
X-21.56 Y-41.047
X-21.548 Y-41.05
X-21.536 Y-41.053
X-21.523 Y-41.056
X-21.51 Y-41.059
X-21.496 Y-41.061
X-21.482 Y-41.062
X-21.468 Y-41.064
X-21.454 Y-41.065
X-21.439 Y-41.067
X-21.408 Y-41.069
X-21.398 Y-41.07
X-21.387 Y-41.069
X-21.37 Y-41.068
X-21.367 Y-41.067
X-21.354 Y-41.066
X-21.338 Y-41.065
X-21.322 Y-41.064
X-21.306 Y-41.062
X-21.291 Y-41.06
X-21.276 Y-41.058
X-21.261 Y-41.055
X-21.247 Y-41.052
X-21.233 Y-41.049
X-21.219 Y-41.045
X-21.206 Y-41.041
X-21.192 Y-41.037
X-21.178 Y-41.032
X-21.165 Y-41.026
X-21.151 Y-41.02
X-21.136 Y-41.014
X-21.122 Y-41.007
X-21.108 Y-41
X-21.093 Y-40.993
X-21.078 Y-40.986
X-21.063 Y-40.978
X-21.054 Y-40.973
X-21.043 Y-40.966
Y-40.965
X-21.029 Y-40.955
X-21.015 Y-40.945
X-21.001 Y-40.935
X-20.987 Y-40.924
X-20.974 Y-40.914
X-20.961 Y-40.904
X-20.949 Y-40.893
X-20.937 Y-40.883
X-20.926 Y-40.872
X-20.915 Y-40.861
X-20.905 Y-40.85
X-20.895 Y-40.839
X-20.885 Y-40.827
X-20.875 Y-40.814
X-20.866 Y-40.802
X-20.856 Y-40.788
X-20.847 Y-40.775
X-20.838 Y-40.761
X-20.829 Y-40.746
X-20.82 Y-40.731
X-20.811 Y-40.716
X-20.802 Y-40.701
X-20.795 Y-40.689
X-20.789 Y-40.676
X-20.782 Y-40.658
X-20.774 Y-40.641
X-20.767 Y-40.623
X-20.76 Y-40.606
X-20.753 Y-40.589
X-20.747 Y-40.571
X-20.741 Y-40.554
X-20.735 Y-40.538
X-20.73 Y-40.521
X-20.726 Y-40.504
X-20.721 Y-40.488
X-20.718 Y-40.471
X-20.715 Y-40.454
X-20.712 Y-40.437
X-20.709 Y-40.42
X-20.707 Y-40.401
X-20.705 Y-40.383
X-20.704 Y-40.365
X-20.702 Y-40.346
X-20.701 Y-40.327
X-20.7 Y-40.308
X-20.699 Y-40.289
X-20.698 Y-40.274
X-20.699 Y-40.252
X-20.701 Y-40.225
X-20.703 Y-40.199
X-20.705 Y-40.173
X-20.708 Y-40.147
X-20.711 Y-40.122
X-20.714 Y-40.097
X-20.718 Y-40.073
X-20.722 Y-40.05
X-20.728 Y-40.027
X-20.734 Y-40.004
X-20.74 Y-39.982
X-20.748 Y-39.961
X-20.757 Y-39.94
X-20.766 Y-39.919
X-20.777 Y-39.897
X-20.789 Y-39.876
X-20.801 Y-39.854
X-20.814 Y-39.833
X-20.827 Y-39.811
X-20.841 Y-39.79
X-20.856 Y-39.768
X-20.871 Y-39.745
X-20.881 Y-39.73
X-20.916 Y-39.698
X-20.935 Y-39.68
X-20.955 Y-39.662
X-20.975 Y-39.644
X-20.995 Y-39.628
X-21.015 Y-39.612
X-21.035 Y-39.596
X-21.055 Y-39.582
X-21.075 Y-39.568
X-21.096 Y-39.556
X-21.116 Y-39.545
X-21.138 Y-39.534
X-21.16 Y-39.524
X-21.183 Y-39.514
X-21.206 Y-39.506
X-21.23 Y-39.497
X-21.255 Y-39.49
X-21.28 Y-39.482
X-21.306 Y-39.475
X-21.329 Y-39.469
X-21.393 Y-39.37 Z-0.001
X-21.329 Y-39.469 Z-0.3
X-21.366 Y-39.675
X-21.459 Y-39.738 Z0
X-21.366 Y-39.675 Z-0.3
X-21.349 Y-39.679
X-21.347
X-21.329 Y-39.684
X-21.328
X-21.309 Y-39.689
X-21.307
X-21.289 Y-39.694
X-21.287 Y-39.695
X-21.269 Y-39.7
X-21.267 Y-39.701
X-21.25 Y-39.707
X-21.247 Y-39.708
X-21.23 Y-39.715
X-21.227
X-21.21 Y-39.723
X-21.207 Y-39.724
X-21.19 Y-39.732
X-21.187 Y-39.733
X-21.171 Y-39.742
X-21.168 Y-39.743
X-21.152 Y-39.752
X-21.149 Y-39.754
X-21.133 Y-39.764
X-21.132 Y-39.765
X-21.116 Y-39.775
X-21.114 Y-39.776
X-21.099 Y-39.787
X-21.097 Y-39.788
X-21.082 Y-39.799
X-21.081 Y-39.8
X-21.066 Y-39.811
X-21.065 Y-39.812
X-21.05 Y-39.824
X-21.049
X-21.034 Y-39.836
Y-39.837
X-21.019 Y-39.849
X-21.004 Y-39.861
X-20.991 Y-39.874
X-20.981 Y-39.887
X-20.98 Y-39.888
X-20.96 Y-39.915
Y-39.916
X-20.95 Y-39.929
X-20.949 Y-39.93
X-20.94 Y-39.944
X-20.939 Y-39.945
X-20.93 Y-39.959
X-20.929 Y-39.96
X-20.92 Y-39.974
X-20.919 Y-39.976
X-20.91 Y-39.99
X-20.909 Y-39.992
X-20.901 Y-40.006
X-20.9 Y-40.009
X-20.893 Y-40.023
X-20.891 Y-40.026
X-20.885 Y-40.041
X-20.883 Y-40.044
X-20.877 Y-40.059
X-20.876 Y-40.062
X-20.871 Y-40.077
X-20.87 Y-40.081
X-20.865 Y-40.097
X-20.864 Y-40.1
X-20.86 Y-40.115
Y-40.118
X-20.856 Y-40.133
Y-40.136
X-20.853 Y-40.152
Y-40.154
X-20.85 Y-40.17
Y-40.172
X-20.848 Y-40.189
Y-40.19
X-20.846 Y-40.206
Y-40.207
X-20.844 Y-40.224
Y-40.225
X-20.843 Y-40.241
X-20.842 Y-40.242
X-20.841 Y-40.259
X-20.84 Y-40.275
Y-40.287
X-20.841 Y-40.304
X-20.842 Y-40.32
Y-40.321
X-20.844 Y-40.337
Y-40.338
X-20.845 Y-40.354
X-20.846 Y-40.356
X-20.847 Y-40.372
Y-40.373
X-20.85 Y-40.39
Y-40.391
X-20.852 Y-40.407
X-20.853 Y-40.41
X-20.856 Y-40.426
Y-40.428
X-20.859 Y-40.443
X-20.86 Y-40.446
X-20.864 Y-40.461
X-20.865 Y-40.465
X-20.869 Y-40.48
X-20.87 Y-40.483
X-20.875 Y-40.498
X-20.877 Y-40.502
X-20.883 Y-40.517
X-20.884 Y-40.52
X-20.89 Y-40.534
X-20.892 Y-40.538
X-20.899 Y-40.552
X-20.901 Y-40.554
X-20.908 Y-40.568
X-20.91 Y-40.571
X-20.918 Y-40.584
X-20.919 Y-40.586
X-20.928 Y-40.6
X-20.929 Y-40.601
X-20.938 Y-40.615
X-20.939 Y-40.616
X-20.949 Y-40.63
Y-40.631
X-20.959 Y-40.644
X-20.96 Y-40.645
X-20.97 Y-40.658
X-20.99 Y-40.684
X-21.002 Y-40.697
X-21.014 Y-40.707
X-21.015 Y-40.708
X-21.039 Y-40.728
X-21.041 Y-40.729
X-21.053 Y-40.738
X-21.054 Y-40.739
X-21.066 Y-40.748
X-21.067 Y-40.749
X-21.08 Y-40.759
X-21.081 Y-40.76
X-21.094 Y-40.769
X-21.097 Y-40.77
X-21.11 Y-40.779
X-21.112 Y-40.78
X-21.125 Y-40.788
X-21.128 Y-40.789
X-21.141 Y-40.797
X-21.144 Y-40.798
X-21.158 Y-40.805
X-21.161 Y-40.807
X-21.175 Y-40.813
X-21.179 Y-40.814
X-21.193 Y-40.82
X-21.196 Y-40.821
X-21.211 Y-40.825
X-21.215 Y-40.826
X-21.229 Y-40.83
X-21.233 Y-40.831
X-21.247 Y-40.835
X-21.25
X-21.265 Y-40.838
X-21.267 Y-40.839
X-21.282 Y-40.841
X-21.284
X-21.3 Y-40.844
X-21.301
X-21.317 Y-40.846
X-21.318
X-21.334 Y-40.848
X-21.335
X-21.351 Y-40.849
X-21.367 Y-40.851
X-21.383 Y-40.852
X-21.396
X-21.415 Y-40.85
X-21.416
X-21.435 Y-40.848
X-21.454 Y-40.847
X-21.456 Y-40.846
X-21.474 Y-40.844
X-21.475
X-21.494 Y-40.842
X-21.496 Y-40.841
X-21.514 Y-40.838
X-21.517
X-21.535 Y-40.835
X-21.538 Y-40.834
X-21.555 Y-40.83
X-21.559 Y-40.829
X-21.576 Y-40.825
X-21.579 Y-40.824
X-21.596 Y-40.818
X-21.601 Y-40.817
X-21.617 Y-40.81
X-21.621 Y-40.809
X-21.638 Y-40.801
X-21.642 Y-40.799
X-21.658 Y-40.791
X-21.662 Y-40.788
X-21.677 Y-40.779
X-21.681 Y-40.776
X-21.696 Y-40.766
X-21.699 Y-40.764
X-21.713 Y-40.753
X-21.716 Y-40.751
X-21.73 Y-40.739
X-21.732 Y-40.737
X-21.746 Y-40.725
X-21.747 Y-40.723
X-21.761 Y-40.71
X-21.762 Y-40.708
X-21.775 Y-40.695
X-21.776 Y-40.694
X-21.789 Y-40.68
X-21.79 Y-40.679
X-21.803 Y-40.665
X-21.816 Y-40.651
Y-40.65
X-21.829 Y-40.636
X-21.838 Y-40.622
X-21.847 Y-40.605
X-21.848 Y-40.604
X-21.857 Y-40.588
X-21.865 Y-40.571
X-21.866
X-21.875 Y-40.554
Y-40.553
X-21.884 Y-40.536
Y-40.535
X-21.892 Y-40.518
X-21.893 Y-40.517
X-21.901 Y-40.5
Y-40.499
X-21.909 Y-40.482
X-21.91 Y-40.48
X-21.917 Y-40.463
Y-40.461
X-21.924 Y-40.444
X-21.925 Y-40.441
X-21.931 Y-40.424
X-21.932 Y-40.421
X-21.937 Y-40.403
X-21.938 Y-40.401
X-21.943 Y-40.383
Y-40.38
X-21.948 Y-40.362
Y-40.36
X-21.952 Y-40.342
Y-40.34
X-21.955 Y-40.322
X-21.956 Y-40.319
X-21.958 Y-40.301
Y-40.3
X-21.961 Y-40.282
Y-40.28
X-21.963 Y-40.261
Y-40.26
X-21.965 Y-40.241
X-21.966 Y-40.222
Y-40.221
X-21.968 Y-40.202
X-21.97 Y-40.17
X-21.928 Y-40.134 Z-0.146
X-21.886 Y-40.1 Z-0.001
X-21.928 Y-40.134 Z-0.146
X-21.97 Y-40.17 Z-0.3
X-22.105 Y-40.153
X-22.179 Y-40.085 Z-0.085
X-22.208 Y-40.059 Z-0.002
X-22.179 Y-40.085 Z-0.085
X-22.105 Y-40.153 Z-0.3
X-22.103 Y-40.162
Y-40.163
X-22.101 Y-40.174
Y-40.175
X-22.1 Y-40.185
X-22.099 Y-40.187
X-22.098 Y-40.198
X-22.096 Y-40.209
Y-40.211
X-22.095 Y-40.222
X-22.094 Y-40.234
Y-40.235
X-22.093 Y-40.246
X-22.092 Y-40.251
Y-40.257
Y-40.258
X-22.091 Y-40.268
Y-40.269
X-22.089 Y-40.302
Y-40.303
X-22.088 Y-40.314
Y-40.324
X-22.09 Y-40.344
Y-40.345
X-22.092 Y-40.365
X-22.093 Y-40.384
Y-40.385
X-22.095 Y-40.405
X-22.096 Y-40.406
X-22.098 Y-40.426
Y-40.427
X-22.101 Y-40.446
Y-40.448
X-22.104 Y-40.467
Y-40.469
X-22.108 Y-40.488
X-22.109 Y-40.491
X-22.113 Y-40.51
Y-40.512
X-22.118 Y-40.531
X-22.119 Y-40.534
X-22.125 Y-40.552
X-22.126 Y-40.556
X-22.132 Y-40.573
X-22.134 Y-40.577
X-22.141 Y-40.594
X-22.143 Y-40.598
X-22.151 Y-40.615
X-22.152 Y-40.618
X-22.161 Y-40.635
X-22.163 Y-40.638
X-22.172 Y-40.654
X-22.174 Y-40.657
X-22.184 Y-40.673
X-22.185 Y-40.675
X-22.196 Y-40.691
X-22.197 Y-40.692
X-22.208 Y-40.708
X-22.209 Y-40.71
X-22.221 Y-40.725
Y-40.726
X-22.233 Y-40.742
X-22.234 Y-40.743
X-22.246 Y-40.758
Y-40.759
X-22.271 Y-40.79
X-22.283 Y-40.802
X-22.299 Y-40.814
Y-40.815
X-22.314 Y-40.827
X-22.315
X-22.33 Y-40.839
X-22.331 Y-40.84
X-22.346 Y-40.852
X-22.348 Y-40.853
X-22.363 Y-40.864
X-22.364 Y-40.865
X-22.38 Y-40.876
X-22.382 Y-40.877
X-22.398 Y-40.888
X-22.4 Y-40.89
X-22.416 Y-40.9
X-22.418 Y-40.901
X-22.434 Y-40.911
X-22.438 Y-40.912
X-22.454 Y-40.921
X-22.457 Y-40.923
X-22.474 Y-40.931
X-22.478 Y-40.932
X-22.495 Y-40.94
X-22.499 Y-40.941
X-22.517 Y-40.947
X-22.52 Y-40.949
X-22.538 Y-40.954
X-22.541 Y-40.955
X-22.56 Y-40.96
X-22.562 Y-40.961
X-22.581 Y-40.965
X-22.584
X-22.602 Y-40.969
X-22.604
X-22.623 Y-40.972
X-22.625 Y-40.973
X-22.645 Y-40.975
X-22.646
X-22.665 Y-40.978
X-22.666
X-22.686 Y-40.98
X-22.687
X-22.707 Y-40.982
X-22.727 Y-40.983
X-22.747 Y-40.985
X-22.76
X-22.78 Y-40.983
X-22.781
X-22.802 Y-40.981
X-22.823 Y-40.979
X-22.824
X-22.845 Y-40.976
X-22.846
X-22.866 Y-40.974
X-22.868
X-22.889 Y-40.971
X-22.89 Y-40.97
X-22.91 Y-40.967
X-22.913
X-22.933 Y-40.963
X-22.936 Y-40.962
X-22.955 Y-40.957
X-22.958
X-22.977 Y-40.951
X-22.981 Y-40.95
X-23 Y-40.944
X-23.004 Y-40.943
X-23.022 Y-40.936
X-23.026 Y-40.934
X-23.044 Y-40.927
X-23.048 Y-40.925
X-23.066 Y-40.916
X-23.069 Y-40.915
X-23.087 Y-40.905
X-23.089 Y-40.903
X-23.107 Y-40.893
X-23.109 Y-40.892
X-23.126 Y-40.881
X-23.128 Y-40.879
X-23.145 Y-40.868
X-23.147 Y-40.867
X-23.164 Y-40.855
X-23.165 Y-40.854
X-23.181 Y-40.841
X-23.183 Y-40.84
X-23.199 Y-40.828
X-23.2 Y-40.827
X-23.216 Y-40.814
X-23.217
X-23.233 Y-40.8
X-23.249 Y-40.787
X-23.261 Y-40.776
X-23.274 Y-40.76
X-23.287 Y-40.744
Y-40.743
X-23.3 Y-40.727
X-23.301 Y-40.726
X-23.314 Y-40.71
Y-40.709
X-23.327 Y-40.693
X-23.328 Y-40.692
X-23.34 Y-40.675
X-23.341 Y-40.673
X-23.353 Y-40.657
X-23.354 Y-40.655
X-23.365 Y-40.638
X-23.366 Y-40.636
X-23.376 Y-40.619
X-23.378 Y-40.616
X-23.387 Y-40.599
X-23.389 Y-40.595
X-23.398 Y-40.578
X-23.4 Y-40.574
X-23.407 Y-40.556
X-23.409 Y-40.552
X-23.416 Y-40.534
X-23.417 Y-40.53
X-23.423 Y-40.511
X-23.424 Y-40.508
X-23.43 Y-40.489
X-23.431 Y-40.486
X-23.435 Y-40.466
X-23.436 Y-40.464
X-23.44 Y-40.444
Y-40.442
X-23.444 Y-40.422
Y-40.42
X-23.447 Y-40.4
Y-40.398
X-23.45 Y-40.378
Y-40.377
X-23.452 Y-40.356
Y-40.355
X-23.454 Y-40.335
Y-40.334
X-23.456 Y-40.314
Y-40.313
X-23.458 Y-40.293
Y-40.279
X-23.457 Y-40.262
X-23.455 Y-40.245
Y-40.244
X-23.454 Y-40.227
Y-40.226
X-23.452 Y-40.209
Y-40.208
X-23.45 Y-40.191
Y-40.189
X-23.447 Y-40.173
Y-40.171
X-23.444 Y-40.154
Y-40.152
X-23.441 Y-40.136
X-23.44 Y-40.134
X-23.437 Y-40.117
X-23.436 Y-40.114
X-23.432 Y-40.098
X-23.431 Y-40.095
X-23.427 Y-40.079
X-23.426 Y-40.076
X-23.42 Y-40.06
X-23.419 Y-40.057
X-23.413 Y-40.041
X-23.411 Y-40.038
X-23.405 Y-40.023
X-23.403 Y-40.02
X-23.396 Y-40.005
X-23.394 Y-40.003
X-23.386 Y-39.988
X-23.385 Y-39.986
X-23.377 Y-39.971
X-23.376 Y-39.969
X-23.367 Y-39.955
X-23.366 Y-39.954
X-23.356 Y-39.94
X-23.355 Y-39.938
X-23.346 Y-39.924
X-23.345 Y-39.923
X-23.335 Y-39.909
X-23.325 Y-39.895
X-23.324 Y-39.894
X-23.314 Y-39.88
X-23.303 Y-39.866
X-23.29 Y-39.852
X-23.274 Y-39.839
X-23.273 Y-39.838
X-23.24 Y-39.811
X-23.239
X-23.222 Y-39.798
Y-39.797
X-23.205 Y-39.784
X-23.203 Y-39.783
X-23.186 Y-39.771
X-23.185 Y-39.77
X-23.167 Y-39.758
X-23.166 Y-39.756
X-23.148 Y-39.745
X-23.147 Y-39.744
X-23.129 Y-39.733
X-23.126 Y-39.731
X-23.108 Y-39.721
X-23.105 Y-39.719
X-23.087 Y-39.71
X-23.084 Y-39.708
X-23.066 Y-39.699
X-23.063 Y-39.698
X-23.044 Y-39.69
X-23.041 Y-39.689
X-23.022 Y-39.681
X-23.02 Y-39.68
X-23 Y-39.673
X-22.998 Y-39.672
X-22.978 Y-39.666
X-22.977 Y-39.665
X-22.956 Y-39.659
X-22.955 Y-39.658
X-22.935 Y-39.652
X-22.933
X-22.912 Y-39.646
X-22.891 Y-39.641
X-22.89
X-22.877 Y-39.637
X-22.905 Y-39.425
X-22.877 Y-39.637
X-22.788 Y-39.699 Z-0.001
Z5
X-22.931 Y-37.053
Z-0.001
X-23.003 Y-37.149 Z-0.3
X-23.018 Y-37.152
X-23.042 Y-37.157
X-23.066 Y-37.163
X-23.089 Y-37.169
X-23.112 Y-37.176
X-23.134 Y-37.183
X-23.156 Y-37.19
X-23.176 Y-37.199
X-23.197 Y-37.208
X-23.216 Y-37.218
X-23.235 Y-37.228
X-23.254 Y-37.24
X-23.273 Y-37.253
X-23.292 Y-37.266
X-23.311 Y-37.281
X-23.33 Y-37.296
X-23.349 Y-37.312
X-23.369 Y-37.328
X-23.388 Y-37.345
X-23.407 Y-37.362
X-23.42 Y-37.374
X-23.429 Y-37.387
X-23.444 Y-37.409
X-23.458 Y-37.43
X-23.472 Y-37.451
X-23.485 Y-37.471
X-23.498 Y-37.492
X-23.51 Y-37.512
X-23.521 Y-37.533
X-23.531 Y-37.553
X-23.54 Y-37.574
X-23.549 Y-37.594
X-23.556 Y-37.614
X-23.562 Y-37.635
X-23.568 Y-37.657
X-23.573 Y-37.679
X-23.577 Y-37.701
X-23.581 Y-37.725
X-23.584 Y-37.748
X-23.587 Y-37.773
X-23.589 Y-37.797
X-23.591 Y-37.822
X-23.593 Y-37.848
X-23.595 Y-37.874
X-23.596 Y-37.895
X-23.595 Y-37.916
X-23.593 Y-37.941
X-23.591 Y-37.966
X-23.59 Y-37.991
X-23.587 Y-38.016
X-23.585 Y-38.04
X-23.581 Y-38.064
X-23.578 Y-38.087
X-23.574 Y-38.11
X-23.569 Y-38.132
X-23.564 Y-38.154
X-23.558 Y-38.175
X-23.551 Y-38.196
X-23.543 Y-38.217
X-23.535 Y-38.238
X-23.526 Y-38.259
X-23.515 Y-38.281
X-23.505 Y-38.302
X-23.493 Y-38.323
X-23.482 Y-38.345
X-23.469 Y-38.366
X-23.457 Y-38.388
X-23.434 Y-38.426
X-23.421 Y-38.441
X-23.404 Y-38.461
X-23.386 Y-38.481
X-23.368 Y-38.5
X-23.35 Y-38.519
X-23.333 Y-38.537
X-23.315 Y-38.555
X-23.297 Y-38.572
X-23.279 Y-38.589
X-23.26 Y-38.604
X-23.242 Y-38.619
X-23.223 Y-38.633
X-23.203 Y-38.646
X-23.183 Y-38.659
X-23.162 Y-38.672
X-23.14 Y-38.684
X-23.118 Y-38.695
X-23.095 Y-38.707
X-23.072 Y-38.718
X-23.048 Y-38.729
X-23.024 Y-38.74
X-23 Y-38.75
X-22.975 Y-38.761
X-22.955 Y-38.77
X-22.923 Y-38.778
X-22.886 Y-38.789
X-22.849 Y-38.799
X-22.812 Y-38.808
X-22.775 Y-38.818
X-22.738 Y-38.826
X-22.702 Y-38.835
X-22.665 Y-38.843
X-22.629 Y-38.85
X-22.592 Y-38.857
X-22.556 Y-38.863
X-22.519 Y-38.868
X-22.482 Y-38.872
X-22.445 Y-38.876
X-22.408 Y-38.879
X-22.371 Y-38.882
X-22.333 Y-38.884
X-22.295 Y-38.886
X-22.257 Y-38.887
X-22.219 Y-38.889
X-22.181 Y-38.89
X-22.142
X-22.103 Y-38.891
X-22.066 Y-38.892
X-22.031 Y-38.891
X-21.995
X-21.959 Y-38.89
X-21.924
X-21.889 Y-38.889
X-21.854 Y-38.888
X-21.819 Y-38.886
X-21.784 Y-38.884
X-21.75 Y-38.881
X-21.716 Y-38.878
X-21.682 Y-38.875
X-21.648 Y-38.871
X-21.615 Y-38.866
X-21.581 Y-38.86
X-21.548 Y-38.854
X-21.515 Y-38.846
X-21.482 Y-38.839
X-21.448 Y-38.83
X-21.415 Y-38.821
X-21.381 Y-38.811
X-21.347 Y-38.802
X-21.313 Y-38.791
X-21.28 Y-38.781
X-21.252 Y-38.773
X-21.236 Y-38.764
X-21.214 Y-38.753
X-21.192 Y-38.742
X-21.171 Y-38.731
X-21.15 Y-38.72
X-21.13 Y-38.709
X-21.11 Y-38.697
X-21.091 Y-38.685
X-21.072 Y-38.673
X-21.054 Y-38.661
X-21.036 Y-38.648
X-21.02 Y-38.635
X-21.003 Y-38.621
X-20.987 Y-38.607
X-20.972 Y-38.592
X-20.956 Y-38.576
X-20.941 Y-38.559
X-20.926 Y-38.542
X-20.911 Y-38.525
X-20.895 Y-38.507
X-20.881 Y-38.488
X-20.866 Y-38.469
X-20.85 Y-38.45
X-20.839 Y-38.435
X-20.831 Y-38.42
X-20.819 Y-38.4
X-20.808 Y-38.379
X-20.798 Y-38.359
X-20.787 Y-38.339
X-20.777 Y-38.319
X-20.768 Y-38.299
X-20.759 Y-38.279
X-20.751 Y-38.26
X-20.743 Y-38.24
X-20.736 Y-38.221
X-20.73 Y-38.201
X-20.725 Y-38.182
X-20.72 Y-38.162
X-20.716 Y-38.141
X-20.712 Y-38.12
X-20.708 Y-38.099
X-20.706 Y-38.077
X-20.703 Y-38.055
X-20.701 Y-38.032
X-20.699 Y-38.009
X-20.697 Y-37.986
X-20.694 Y-37.946
X-20.696 Y-37.92
X-20.699 Y-37.889
X-20.702 Y-37.858
X-20.705 Y-37.828
X-20.709 Y-37.798
X-20.713 Y-37.768
X-20.718 Y-37.74
X-20.724 Y-37.712
X-20.73 Y-37.685
X-20.737 Y-37.659
X-20.746 Y-37.633
X-20.755 Y-37.608
X-20.766 Y-37.584
X-20.778 Y-37.56
X-20.791 Y-37.536
X-20.805 Y-37.513
X-20.821 Y-37.489
X-20.837 Y-37.465
X-20.855 Y-37.442
X-20.873 Y-37.418
X-20.892 Y-37.394
X-20.912 Y-37.37
X-20.932 Y-37.346
X-20.946 Y-37.329
X-20.966 Y-37.314
X-20.993 Y-37.294
X-21.02 Y-37.274
X-21.046 Y-37.255
X-21.072 Y-37.236
X-21.099 Y-37.219
X-21.125 Y-37.202
X-21.151 Y-37.187
X-21.178 Y-37.172
X-21.204 Y-37.159
X-21.23 Y-37.148
X-21.257 Y-37.137
X-21.285 Y-37.128
X-21.313 Y-37.12
X-21.342 Y-37.113
X-21.372 Y-37.107
X-21.402 Y-37.102
X-21.433 Y-37.097
X-21.465 Y-37.093
X-21.497 Y-37.09
X-21.53 Y-37.087
X-21.563 Y-37.085
X-21.596 Y-37.082
X-21.625 Y-37.08
X-21.653 Y-37.082
X-21.685 Y-37.084
X-21.717 Y-37.087
X-21.749 Y-37.089
X-21.78 Y-37.092
X-21.811 Y-37.096
X-21.841 Y-37.1
X-21.87 Y-37.105
X-21.899 Y-37.111
X-21.927 Y-37.117
X-21.954 Y-37.125
X-21.981 Y-37.133
X-22.007 Y-37.143
X-22.032 Y-37.154
X-22.058 Y-37.167
X-22.083 Y-37.18
X-22.109 Y-37.195
X-22.134 Y-37.211
X-22.16 Y-37.228
X-22.186 Y-37.245
X-22.211 Y-37.263
X-22.237 Y-37.282
X-22.263 Y-37.301
X-22.282 Y-37.316
X-22.296 Y-37.332
X-22.316 Y-37.354
X-22.334 Y-37.376
X-22.353 Y-37.398
X-22.37 Y-37.42
X-22.387 Y-37.442
X-22.403 Y-37.464
X-22.418 Y-37.486
X-22.432 Y-37.508
X-22.445 Y-37.53
X-22.456 Y-37.552
X-22.467 Y-37.574
X-22.476 Y-37.597
X-22.484 Y-37.621
X-22.491 Y-37.645
X-22.497 Y-37.67
X-22.503 Y-37.696
X-22.508 Y-37.723
X-22.512 Y-37.75
X-22.516 Y-37.778
X-22.52 Y-37.806
X-22.523 Y-37.835
X-22.526 Y-37.865
X-22.528 Y-37.888
X-22.527 Y-37.9
X-22.526 Y-37.917
X-22.525 Y-37.935
X-22.524 Y-37.952
X-22.522 Y-37.969
X-22.52 Y-37.986
X-22.518 Y-38.003
X-22.516 Y-38.019
X-22.514 Y-38.035
X-22.511 Y-38.051
X-22.508 Y-38.066
X-22.504 Y-38.08
X-22.5 Y-38.095
X-22.495 Y-38.11
X-22.49 Y-38.125
X-22.484 Y-38.14
X-22.478 Y-38.155
X-22.472 Y-38.171
X-22.465 Y-38.186
X-22.458 Y-38.202
X-22.451 Y-38.217
X-22.443 Y-38.233
X-22.435 Y-38.249
Y-38.25
X-22.43 Y-38.262
X-22.423 Y-38.272
X-22.413 Y-38.287
X-22.404 Y-38.301
X-22.395 Y-38.315
X-22.385 Y-38.329
X-22.376 Y-38.342
X-22.366 Y-38.355
X-22.357 Y-38.368
X-22.347 Y-38.38
X-22.337 Y-38.392
X-22.328 Y-38.404
X-22.318 Y-38.415
X-22.307 Y-38.426
X-22.296 Y-38.436
X-22.285 Y-38.447
X-22.273 Y-38.457
X-22.261 Y-38.467
X-22.249 Y-38.477
X-22.236 Y-38.488
X-22.223 Y-38.498
X-22.209 Y-38.508
X-22.196 Y-38.518
X-22.182 Y-38.528
X-22.167 Y-38.538
X-22.145 Y-38.563
X-22.135 Y-38.594
X-22.138 Y-38.627
X-22.154 Y-38.656
X-22.18 Y-38.676
X-22.212 Y-38.684
X-22.215
X-22.217
X-22.219
X-22.221
X-22.224
X-22.227
X-22.231
X-22.234
X-22.237 Y-38.685
X-22.24
X-22.243
X-22.246
X-22.249
X-22.255
X-22.258
X-22.26
X-22.261
X-22.264
X-22.266
X-22.267
X-22.27
X-22.272
X-22.274
X-22.276
X-22.278
X-22.28 Y-38.686
X-22.282
X-22.288
X-22.291
X-22.31 Y-38.685
X-22.329 Y-38.684
X-22.348
X-22.367 Y-38.683
X-22.368
X-22.387 Y-38.682
X-22.406 Y-38.681
X-22.407
X-22.426 Y-38.68
X-22.445 Y-38.679
X-22.446
X-22.465 Y-38.677
X-22.466
X-22.485 Y-38.675
X-22.486
X-22.505 Y-38.673
X-22.506
X-22.525 Y-38.671
X-22.526
X-22.545 Y-38.668
X-22.564 Y-38.665
X-22.565
X-22.584 Y-38.662
X-22.585
X-22.604 Y-38.659
X-22.623 Y-38.655
X-22.642 Y-38.652
X-22.643
X-22.661 Y-38.648
X-22.662
X-22.681 Y-38.644
X-22.699 Y-38.64
X-22.7
X-22.718 Y-38.636
X-22.737 Y-38.632
X-22.756 Y-38.628
X-22.76 Y-38.627
X-22.775 Y-38.623
X-22.79 Y-38.619
X-22.806 Y-38.614
X-22.821 Y-38.61
X-22.837 Y-38.606
Y-38.605
X-22.852 Y-38.601
X-22.853
X-22.868 Y-38.596
X-22.869
X-22.884 Y-38.591
X-22.899 Y-38.586
X-22.901
X-22.916 Y-38.581
X-22.917 Y-38.58
X-22.932 Y-38.575
X-22.933
X-22.948 Y-38.569
X-22.949
X-22.964 Y-38.563
X-22.965 Y-38.562
X-22.979 Y-38.556
X-22.981
X-22.995 Y-38.549
X-22.996
X-23.011 Y-38.542
X-23.026 Y-38.535
X-23.027
X-23.041 Y-38.528
X-23.042 Y-38.527
X-23.056 Y-38.52
X-23.07 Y-38.513
X-23.071 Y-38.512
X-23.085 Y-38.505
X-23.099 Y-38.498
X-23.1 Y-38.497
X-23.127 Y-38.482
X-23.136 Y-38.477
X-23.146 Y-38.47
X-23.156 Y-38.463
Y-38.462
X-23.167 Y-38.455
X-23.168 Y-38.454
X-23.178 Y-38.447
X-23.188 Y-38.439
X-23.189
X-23.198 Y-38.431
X-23.199
X-23.209 Y-38.423
X-23.21 Y-38.422
X-23.22 Y-38.414
X-23.221 Y-38.413
X-23.23 Y-38.405
X-23.232 Y-38.404
X-23.241 Y-38.396
X-23.242 Y-38.394
X-23.251 Y-38.386
X-23.253 Y-38.385
X-23.262 Y-38.376
X-23.264 Y-38.374
X-23.272 Y-38.365
X-23.273 Y-38.364
X-23.282 Y-38.355
X-23.283 Y-38.353
X-23.291 Y-38.344
X-23.292 Y-38.343
X-23.3 Y-38.333
X-23.301 Y-38.332
X-23.309 Y-38.322
X-23.31 Y-38.321
X-23.317 Y-38.311
X-23.318
X-23.325 Y-38.301
X-23.326 Y-38.299
X-23.333 Y-38.289
X-23.334
X-23.341 Y-38.279
X-23.348 Y-38.268
X-23.349
X-23.356 Y-38.257
X-23.363 Y-38.247
X-23.369 Y-38.237
X-23.375 Y-38.225
X-23.38 Y-38.214
X-23.381 Y-38.213
X-23.386 Y-38.202
X-23.387 Y-38.201
X-23.392 Y-38.189
Y-38.188
X-23.398 Y-38.177
X-23.399 Y-38.175
X-23.404 Y-38.164
X-23.405 Y-38.162
X-23.41 Y-38.15
Y-38.149
X-23.415 Y-38.137
X-23.416 Y-38.135
X-23.42 Y-38.123
X-23.421 Y-38.121
X-23.425 Y-38.109
X-23.426 Y-38.107
X-23.429 Y-38.094
X-23.43 Y-38.092
X-23.434 Y-38.079
Y-38.076
X-23.437 Y-38.064
X-23.438 Y-38.062
X-23.44 Y-38.049
X-23.441 Y-38.047
X-23.443 Y-38.034
Y-38.032
X-23.445 Y-38.019
Y-38.018
X-23.447 Y-38.005
Y-38.003
X-23.449 Y-37.99
Y-37.989
X-23.451 Y-37.963
Y-37.961
X-23.452 Y-37.948
X-23.453 Y-37.935
Y-37.934
X-23.454 Y-37.921
Y-37.92
Y-37.907
Y-37.899
X-23.453 Y-37.884
Y-37.883
X-23.452 Y-37.868
X-23.451 Y-37.853
Y-37.852
X-23.45 Y-37.837
X-23.448 Y-37.822
Y-37.82
X-23.446 Y-37.806
Y-37.803
X-23.444 Y-37.789
Y-37.788
X-23.441 Y-37.773
Y-37.771
X-23.438 Y-37.756
Y-37.753
X-23.434 Y-37.739
Y-37.737
X-23.43 Y-37.723
X-23.429 Y-37.72
X-23.425 Y-37.706
X-23.424 Y-37.703
X-23.419 Y-37.689
X-23.417 Y-37.685
X-23.412 Y-37.672
X-23.41 Y-37.669
X-23.404 Y-37.656
X-23.403 Y-37.654
X-23.397 Y-37.641
X-23.395 Y-37.638
X-23.388 Y-37.625
X-23.387 Y-37.624
X-23.38 Y-37.611
X-23.379 Y-37.61
X-23.371 Y-37.597
X-23.37 Y-37.595
X-23.362 Y-37.583
X-23.361
X-23.353 Y-37.57
X-23.344 Y-37.557
Y-37.556
X-23.335 Y-37.544
X-23.327 Y-37.532
X-23.312 Y-37.517
X-23.286 Y-37.495
X-23.285 Y-37.494
X-23.272 Y-37.483
X-23.271 Y-37.482
X-23.258 Y-37.472
X-23.257
X-23.244 Y-37.461
X-23.242 Y-37.46
X-23.229 Y-37.45
X-23.227 Y-37.449
X-23.214 Y-37.439
X-23.212 Y-37.438
X-23.198 Y-37.428
X-23.196 Y-37.427
X-23.181 Y-37.418
X-23.179 Y-37.417
X-23.165 Y-37.408
X-23.162 Y-37.407
X-23.147 Y-37.399
X-23.144 Y-37.397
X-23.129 Y-37.39
X-23.126 Y-37.389
X-23.111 Y-37.382
X-23.108 Y-37.381
X-23.093 Y-37.375
X-23.091 Y-37.374
X-23.075 Y-37.369
X-23.072 Y-37.368
X-23.056 Y-37.363
X-23.054 Y-37.362
X-23.038 Y-37.357
X-23.037
X-23.021 Y-37.352
X-23.019
X-23.002 Y-37.348
X-23.001 Y-37.347
X-22.985 Y-37.344
X-23.003 Y-37.149
X-22.985 Y-37.344
X-22.899 Y-37.407 Z-0.001
Z5
X-22.303 Y-37.692
Z-0.3
X-22.304 Y-37.694
X-22.312 Y-37.711
X-22.314 Y-37.715
X-22.321 Y-37.733
X-22.322 Y-37.737
X-22.328 Y-37.756
X-22.329 Y-37.759
X-22.334 Y-37.777
X-22.335 Y-37.78
X-22.34 Y-37.799
X-22.341 Y-37.802
X-22.345 Y-37.821
Y-37.824
X-22.349 Y-37.843
Y-37.845
X-22.352 Y-37.864
Y-37.866
X-22.355 Y-37.886
Y-37.888
X-22.357 Y-37.908
X-22.359 Y-37.928
Y-37.929
X-22.361 Y-37.949
X-22.362 Y-37.95
X-22.363 Y-37.97
Y-37.984
X-22.362 Y-38.004
X-22.36 Y-38.024
Y-38.025
X-22.358 Y-38.044
Y-38.046
X-22.356 Y-38.065
X-22.355 Y-38.067
X-22.353 Y-38.086
Y-38.088
X-22.35 Y-38.108
X-22.349 Y-38.11
X-22.346 Y-38.129
Y-38.131
X-22.342 Y-38.15
X-22.341 Y-38.153
X-22.337 Y-38.172
X-22.336 Y-38.175
X-22.33 Y-38.193
X-22.329 Y-38.197
X-22.323 Y-38.215
X-22.322 Y-38.218
X-22.315 Y-38.236
X-22.314 Y-38.24
X-22.306 Y-38.257
X-22.304 Y-38.262
X-22.295 Y-38.279
X-22.293 Y-38.281
X-22.284 Y-38.298
X-22.282 Y-38.301
X-22.272 Y-38.317
X-22.27 Y-38.32
X-22.259 Y-38.336
X-22.258 Y-38.338
X-22.246 Y-38.354
X-22.245 Y-38.355
X-22.233 Y-38.371
X-22.232 Y-38.372
X-22.22 Y-38.388
X-22.219 Y-38.389
X-22.206 Y-38.404
X-22.205 Y-38.405
X-22.192 Y-38.42
X-22.179 Y-38.435
Y-38.436
X-22.165 Y-38.451
X-22.151 Y-38.464
X-22.132 Y-38.477
X-22.113 Y-38.49
X-22.095 Y-38.503
X-22.094
X-22.075 Y-38.516
X-22.074 Y-38.517
X-22.055 Y-38.529
X-22.053
X-22.034 Y-38.541
X-22.033 Y-38.542
X-22.014 Y-38.553
X-22.012 Y-38.554
X-21.992 Y-38.565
X-21.99 Y-38.566
X-21.97 Y-38.576
X-21.967 Y-38.577
X-21.947 Y-38.586
X-21.944 Y-38.587
X-21.924 Y-38.595
X-21.92 Y-38.597
X-21.9 Y-38.604
X-21.896 Y-38.605
X-21.875 Y-38.611
X-21.872 Y-38.612
X-21.851 Y-38.617
X-21.848 Y-38.618
X-21.827 Y-38.623
X-21.824
X-21.802 Y-38.627
X-21.8
X-21.778 Y-38.631
X-21.776
X-21.754 Y-38.634
X-21.752
X-21.73 Y-38.636
X-21.729
X-21.706 Y-38.638
X-21.705
X-21.683 Y-38.64
X-21.682
X-21.659 Y-38.641
X-21.636 Y-38.642
X-21.613 Y-38.644
X-21.605
X-21.559 Y-38.641
X-21.558
X-21.535 Y-38.64
X-21.534
X-21.511 Y-38.638
X-21.51
X-21.488 Y-38.636
X-21.486
X-21.464 Y-38.634
X-21.462 Y-38.633
X-21.439 Y-38.631
X-21.437 Y-38.63
X-21.415 Y-38.627
X-21.413
X-21.391 Y-38.623
X-21.388 Y-38.622
X-21.366 Y-38.617
X-21.363
X-21.342 Y-38.611
X-21.339 Y-38.61
X-21.318 Y-38.604
X-21.314 Y-38.603
X-21.294 Y-38.596
X-21.29 Y-38.595
X-21.269 Y-38.586
X-21.266 Y-38.585
X-21.246 Y-38.576
X-21.243 Y-38.575
X-21.223 Y-38.565
X-21.221 Y-38.563
X-21.201 Y-38.553
X-21.199 Y-38.552
X-21.18 Y-38.541
X-21.178 Y-38.54
X-21.159 Y-38.528
X-21.157 Y-38.527
X-21.138 Y-38.515
X-21.137 Y-38.514
X-21.118 Y-38.501
X-21.117
X-21.098 Y-38.488
X-21.079 Y-38.475
X-21.078
X-21.06 Y-38.461
X-21.046 Y-38.45
X-21.033 Y-38.436
X-21.02 Y-38.421
X-21.019 Y-38.42
X-21.006 Y-38.406
X-21.005
X-20.993 Y-38.391
X-20.991 Y-38.39
X-20.979 Y-38.375
X-20.978 Y-38.374
X-20.966 Y-38.359
X-20.964 Y-38.357
X-20.953 Y-38.342
X-20.951 Y-38.34
X-20.94 Y-38.325
X-20.938 Y-38.323
X-20.928 Y-38.307
X-20.926 Y-38.304
X-20.916 Y-38.288
X-20.914 Y-38.285
X-20.905 Y-38.269
X-20.903 Y-38.265
X-20.895 Y-38.249
X-20.893 Y-38.245
X-20.886 Y-38.228
X-20.884 Y-38.224
X-20.878 Y-38.206
X-20.877 Y-38.203
X-20.871 Y-38.185
X-20.87 Y-38.182
X-20.865 Y-38.164
X-20.864 Y-38.16
X-20.86 Y-38.142
X-20.859 Y-38.14
X-20.855 Y-38.121
Y-38.119
X-20.852 Y-38.1
X-20.851 Y-38.098
X-20.848 Y-38.079
Y-38.078
X-20.846 Y-38.059
X-20.845 Y-38.058
X-20.843 Y-38.038
Y-38.037
X-20.841 Y-38.018
X-20.839 Y-37.999
Y-37.98
X-20.841 Y-37.96
X-20.843 Y-37.939
Y-37.938
X-20.846 Y-37.918
Y-37.917
X-20.849 Y-37.896
Y-37.895
X-20.853 Y-37.875
Y-37.873
X-20.856 Y-37.853
X-20.857 Y-37.851
X-20.861 Y-37.831
X-20.862 Y-37.829
X-20.866 Y-37.809
X-20.867 Y-37.806
X-20.872 Y-37.787
X-20.873 Y-37.784
X-20.88 Y-37.765
X-20.881 Y-37.762
X-20.888 Y-37.743
X-20.889 Y-37.739
X-20.897 Y-37.721
X-20.899 Y-37.717
X-20.908 Y-37.7
X-20.91 Y-37.696
X-20.92 Y-37.679
X-20.922 Y-37.676
X-20.932 Y-37.659
X-20.934 Y-37.657
X-20.945 Y-37.64
X-20.947 Y-37.638
X-20.959 Y-37.622
X-20.96 Y-37.62
X-20.973 Y-37.604
X-20.974 Y-37.603
X-20.987 Y-37.587
X-20.988 Y-37.585
X-21.001 Y-37.57
X-21.002 Y-37.569
X-21.016 Y-37.554
X-21.017 Y-37.553
X-21.031 Y-37.537
X-21.045 Y-37.522
X-21.06 Y-37.507
X-21.071 Y-37.496
X-21.091 Y-37.482
X-21.11 Y-37.468
X-21.111
X-21.13 Y-37.454
X-21.131
X-21.151 Y-37.44
X-21.152
X-21.171 Y-37.427
X-21.173 Y-37.426
X-21.193 Y-37.413
X-21.194 Y-37.412
X-21.214 Y-37.4
X-21.216 Y-37.399
X-21.237 Y-37.388
X-21.239 Y-37.386
X-21.259 Y-37.376
X-21.262 Y-37.374
X-21.283 Y-37.364
X-21.286 Y-37.363
X-21.307 Y-37.354
X-21.311 Y-37.353
X-21.332 Y-37.345
X-21.336 Y-37.344
X-21.357 Y-37.337
X-21.361 Y-37.336
X-21.383 Y-37.33
X-21.386 Y-37.329
X-21.408 Y-37.324
X-21.411 Y-37.323
X-21.434 Y-37.319
X-21.436 Y-37.318
X-21.459 Y-37.314
X-21.461
X-21.484 Y-37.311
X-21.486
X-21.51 Y-37.308
X-21.511
X-21.534 Y-37.305
X-21.536
X-21.56 Y-37.303
X-21.561
X-21.584 Y-37.301
X-21.585
X-21.609 Y-37.3
X-21.633 Y-37.298
X-21.643
X-21.664 Y-37.3
X-21.665
X-21.686 Y-37.301
X-21.687
X-21.708 Y-37.303
X-21.71
X-21.731 Y-37.305
X-21.732
X-21.753 Y-37.307
X-21.755
X-21.776 Y-37.31
X-21.778
X-21.799 Y-37.313
X-21.801 Y-37.314
X-21.822 Y-37.317
X-21.824 Y-37.318
X-21.845 Y-37.322
X-21.848 Y-37.323
X-21.868 Y-37.328
X-21.871
X-21.891 Y-37.334
X-21.894 Y-37.335
X-21.914 Y-37.342
X-21.917 Y-37.343
X-21.937 Y-37.35
X-21.94 Y-37.352
X-21.959 Y-37.36
X-21.962 Y-37.362
X-21.981 Y-37.371
X-21.984 Y-37.373
X-22.002 Y-37.383
X-22.004 Y-37.384
X-22.023 Y-37.395
X-22.025 Y-37.396
X-22.042 Y-37.407
X-22.044 Y-37.408
X-22.062 Y-37.42
X-22.063 Y-37.421
X-22.081 Y-37.433
X-22.082 Y-37.434
X-22.099 Y-37.447
X-22.1
X-22.117 Y-37.46
X-22.118
X-22.135 Y-37.473
Y-37.474
X-22.152 Y-37.487
X-22.165 Y-37.499
X-22.191 Y-37.529
X-22.192 Y-37.53
X-22.204 Y-37.545
X-22.205 Y-37.546
X-22.218 Y-37.562
Y-37.563
X-22.231 Y-37.578
X-22.232 Y-37.58
X-22.244 Y-37.596
X-22.245 Y-37.597
X-22.257 Y-37.613
X-22.258 Y-37.615
X-22.269 Y-37.631
X-22.27 Y-37.634
X-22.281 Y-37.651
X-22.282 Y-37.654
X-22.292 Y-37.671
X-22.293 Y-37.673
X-22.302 Y-37.69
X-22.303 Y-37.692
Z5
X-23.623 Y-36.601
Z-0.001
X-23.543 Y-36.521 Z-0.3
X-23.35 Y-36.522
X-23.27 Y-36.602 Z-0.001
X-23.35 Y-36.522 Z-0.3
X-23.347 Y-35.131
X-23.34 Y-35.097
X-23.32 Y-35.07
X-23.289 Y-35.054
X-23.255 Y-35.051
X-23.223 Y-35.064
X-23.214 Y-35.069
X-23.213 Y-35.07
X-23.205 Y-35.076
X-23.196 Y-35.081
X-23.195 Y-35.082
X-23.187 Y-35.088
X-23.178 Y-35.094
X-23.169 Y-35.1
X-23.168 Y-35.101
X-23.159 Y-35.107
X-23.151 Y-35.113
X-23.15
X-23.142 Y-35.119
X-23.141 Y-35.12
X-23.132 Y-35.126
X-23.123 Y-35.133
X-23.122 Y-35.134
X-23.114 Y-35.14
X-23.113 Y-35.141
X-23.105 Y-35.147
Y-35.148
X-23.096 Y-35.154
X-23.095 Y-35.155
X-23.087 Y-35.162
X-23.079 Y-35.169
X-23.078 Y-35.17
X-23.062 Y-35.183
X-23.061 Y-35.184
X-23.054 Y-35.191
X-23.053 Y-35.192
X-23.045 Y-35.199
X-23.037 Y-35.206
X-23.014 Y-35.227
X-23.01 Y-35.231
X-22.993 Y-35.248
Y-35.249
X-22.977 Y-35.266
X-22.96 Y-35.283
X-22.944 Y-35.3
Y-35.301
X-22.911 Y-35.335
Y-35.336
X-22.895 Y-35.353
X-22.879 Y-35.371
X-22.863 Y-35.389
X-22.862
X-22.846 Y-35.407
X-22.83 Y-35.424
Y-35.425
X-22.799 Y-35.461
X-22.798
X-22.783 Y-35.479
X-22.767 Y-35.497
X-22.752 Y-35.516
X-22.751
X-22.706 Y-35.57
X-22.705
X-22.66 Y-35.625
X-22.659
X-22.644 Y-35.643
X-22.629 Y-35.661
X-22.609 Y-35.686
X-22.567 Y-35.735
X-22.525 Y-35.784
X-22.504 Y-35.808
X-22.483 Y-35.833
X-22.462 Y-35.857
X-22.441 Y-35.881
X-22.42 Y-35.904
X-22.399 Y-35.928
X-22.377 Y-35.952
X-22.356 Y-35.975
X-22.334 Y-35.998
X-22.29 Y-36.044
X-22.245 Y-36.089
X-22.223 Y-36.112
X-22.2 Y-36.134
X-22.177 Y-36.157
X-22.131 Y-36.202
X-22.11 Y-36.222
X-22.098 Y-36.233
X-22.097
X-22.084 Y-36.245
X-22.07 Y-36.256
X-22.056 Y-36.268
X-22.042 Y-36.279
X-22.029 Y-36.29
X-22.015 Y-36.301
X-22.001 Y-36.312
X-21.987 Y-36.323
X-21.973 Y-36.333
X-21.96 Y-36.343
X-21.946 Y-36.353
X-21.932 Y-36.362
X-21.917 Y-36.371
X-21.903 Y-36.38
X-21.888 Y-36.388
X-21.873 Y-36.397
X-21.858 Y-36.405
X-21.842 Y-36.414
X-21.827 Y-36.422
X-21.811 Y-36.43
X-21.794 Y-36.439
X-21.778 Y-36.447
X-21.766 Y-36.453
X-21.728 Y-36.467
X-21.714 Y-36.472
X-21.7 Y-36.477
X-21.687 Y-36.481
X-21.674 Y-36.486
X-21.66 Y-36.49
X-21.647 Y-36.494
X-21.634 Y-36.497
X-21.621 Y-36.5
X-21.608 Y-36.503
X-21.595 Y-36.506
X-21.582 Y-36.508
X-21.569 Y-36.51
X-21.555 Y-36.512
X-21.541 Y-36.514
X-21.528 Y-36.515
X-21.513 Y-36.516
X-21.499 Y-36.517
X-21.485 Y-36.518
X-21.445 Y-36.521
X-21.396 Y-36.516
X-21.369 Y-36.513
X-21.342 Y-36.51
X-21.316 Y-36.507
X-21.29 Y-36.503
X-21.265 Y-36.498
X-21.241 Y-36.493
X-21.217 Y-36.487
X-21.195 Y-36.481
X-21.173 Y-36.474
X-21.151 Y-36.465
X-21.131 Y-36.456
X-21.11 Y-36.445
X-21.089 Y-36.434
X-21.069 Y-36.421
X-21.048 Y-36.407
X-21.028 Y-36.392
X-21.007 Y-36.377
X-20.987 Y-36.36
X-20.966 Y-36.343
X-20.945 Y-36.326
X-20.924 Y-36.308
X-20.91 Y-36.295
X-20.897 Y-36.278
X-20.878 Y-36.253
X-20.861 Y-36.228
X-20.843 Y-36.203
X-20.827 Y-36.179
X-20.811 Y-36.154
X-20.796 Y-36.13
X-20.783 Y-36.105
X-20.77 Y-36.081
X-20.758 Y-36.057
X-20.748 Y-36.032
X-20.739 Y-36.007
X-20.731 Y-35.982
X-20.724 Y-35.956
X-20.718 Y-35.929
X-20.712 Y-35.902
X-20.708 Y-35.874
X-20.704 Y-35.845
X-20.701 Y-35.816
X-20.698 Y-35.786
X-20.696 Y-35.756
X-20.694 Y-35.725
X-20.692 Y-35.694
X-20.69 Y-35.667
X-20.691 Y-35.64
X-20.693 Y-35.61
X-20.695 Y-35.58
X-20.697 Y-35.55
X-20.699 Y-35.52
X-20.702 Y-35.491
X-20.706 Y-35.463
X-20.71 Y-35.435
X-20.715 Y-35.408
X-20.72 Y-35.381
X-20.727 Y-35.355
X-20.734 Y-35.329
X-20.742 Y-35.304
X-20.752 Y-35.28
X-20.763 Y-35.255
X-20.774 Y-35.23
X-20.787 Y-35.206
X-20.801 Y-35.181
X-20.816 Y-35.156
X-20.831 Y-35.131
X-20.847 Y-35.106
X-20.863 Y-35.081
X-20.88 Y-35.056
X-20.892 Y-35.039
X-20.907 Y-35.026
X-20.929 Y-35.006
X-20.952 Y-34.986
X-20.975 Y-34.967
X-20.997 Y-34.949
X-21.019 Y-34.932
X-21.042 Y-34.915
X-21.064 Y-34.9
X-21.087 Y-34.885
X-21.11 Y-34.872
X-21.133 Y-34.86
X-21.156 Y-34.849
X-21.18 Y-34.839
X-21.205 Y-34.83
X-21.23 Y-34.822
X-21.257 Y-34.814
X-21.283 Y-34.807
X-21.311 Y-34.801
X-21.339 Y-34.795
X-21.368 Y-34.79
X-21.397 Y-34.785
X-21.404 Y-34.784
X-21.475 Y-34.692 Z-0.002
X-21.404 Y-34.784 Z-0.3
X-21.427 Y-34.996
X-21.515 Y-35.07 Z-0.001
X-21.427 Y-34.996 Z-0.3
X-21.426
X-21.405 Y-34.998
X-21.404 Y-34.999
X-21.384 Y-35.001
X-21.382
X-21.362 Y-35.004
X-21.36
X-21.34 Y-35.008
X-21.338
X-21.318 Y-35.012
X-21.315 Y-35.013
X-21.296 Y-35.017
X-21.293 Y-35.018
X-21.274 Y-35.023
X-21.271 Y-35.025
X-21.252 Y-35.031
X-21.249 Y-35.032
X-21.23 Y-35.039
X-21.227 Y-35.04
X-21.209 Y-35.048
X-21.205 Y-35.05
X-21.188 Y-35.059
X-21.185 Y-35.06
X-21.168 Y-35.069
X-21.165 Y-35.071
X-21.148 Y-35.081
X-21.146 Y-35.082
X-21.129 Y-35.093
X-21.127 Y-35.094
X-21.111 Y-35.105
X-21.109 Y-35.106
X-21.093 Y-35.118
X-21.092 Y-35.119
X-21.075 Y-35.131
X-21.074
X-21.058 Y-35.144
X-21.057
X-21.041 Y-35.156
X-21.025 Y-35.169
X-21.01 Y-35.183
X-20.998 Y-35.199
X-20.986 Y-35.215
X-20.985
X-20.973 Y-35.231
Y-35.232
X-20.961 Y-35.248
X-20.96 Y-35.249
X-20.949 Y-35.265
X-20.948 Y-35.266
X-20.937 Y-35.282
X-20.936 Y-35.284
X-20.925 Y-35.3
X-20.924 Y-35.302
X-20.914 Y-35.319
X-20.912 Y-35.322
X-20.903 Y-35.338
X-20.902 Y-35.341
X-20.893 Y-35.358
X-20.892 Y-35.361
X-20.884 Y-35.378
X-20.882 Y-35.382
X-20.876 Y-35.4
X-20.874 Y-35.403
X-20.868 Y-35.421
X-20.867 Y-35.425
X-20.862 Y-35.443
X-20.861 Y-35.446
X-20.856 Y-35.465
Y-35.467
X-20.852 Y-35.486
X-20.851 Y-35.489
X-20.848 Y-35.508
Y-35.51
X-20.845 Y-35.529
Y-35.531
X-20.842 Y-35.551
Y-35.552
X-20.84 Y-35.571
Y-35.573
X-20.839 Y-35.592
X-20.838 Y-35.594
X-20.837 Y-35.613
X-20.836 Y-35.633
Y-35.634
X-20.834 Y-35.654
Y-35.664
X-20.837 Y-35.702
Y-35.703
X-20.839 Y-35.722
X-20.84 Y-35.741
Y-35.743
X-20.842 Y-35.761
X-20.843 Y-35.762
X-20.845 Y-35.781
Y-35.783
X-20.848 Y-35.801
Y-35.803
X-20.851 Y-35.822
X-20.852 Y-35.824
X-20.856 Y-35.842
Y-35.845
X-20.86 Y-35.862
X-20.861 Y-35.865
X-20.866 Y-35.883
X-20.867 Y-35.887
X-20.873 Y-35.904
X-20.875 Y-35.907
X-20.881 Y-35.924
X-20.883 Y-35.928
X-20.89 Y-35.944
X-20.891 Y-35.947
X-20.9 Y-35.964
X-20.901 Y-35.967
X-20.91 Y-35.983
X-20.911 Y-35.985
X-20.921 Y-36.001
X-20.922 Y-36.003
X-20.932 Y-36.018
X-20.933 Y-36.02
X-20.943 Y-36.035
X-20.944 Y-36.037
X-20.955 Y-36.052
Y-36.053
X-20.966 Y-36.069
X-20.967
X-20.978 Y-36.084
X-20.979 Y-36.085
X-20.99 Y-36.1
Y-36.101
X-21.002 Y-36.116
X-21.013 Y-36.127
X-21.026 Y-36.139
X-21.027
X-21.04 Y-36.151
X-21.041
X-21.054 Y-36.162
X-21.055 Y-36.163
X-21.069 Y-36.174
X-21.07 Y-36.175
X-21.083 Y-36.185
X-21.084 Y-36.186
X-21.098 Y-36.197
X-21.1 Y-36.198
X-21.114 Y-36.208
X-21.116 Y-36.209
X-21.13 Y-36.219
X-21.132 Y-36.221
X-21.147 Y-36.229
X-21.149 Y-36.231
X-21.164 Y-36.239
X-21.167 Y-36.241
X-21.182 Y-36.249
X-21.185 Y-36.25
X-21.201 Y-36.257
X-21.205 Y-36.259
X-21.22 Y-36.265
X-21.224 Y-36.266
X-21.24 Y-36.272
X-21.243 Y-36.273
X-21.259 Y-36.277
X-21.262 Y-36.278
X-21.279 Y-36.282
X-21.281 Y-36.283
X-21.298 Y-36.286
X-21.301 Y-36.287
X-21.317 Y-36.29
X-21.319
X-21.336 Y-36.293
X-21.338
X-21.356 Y-36.295
X-21.374 Y-36.297
X-21.375
X-21.392 Y-36.299
X-21.393
X-21.41 Y-36.301
X-21.428 Y-36.303
X-21.446 Y-36.302
X-21.466 Y-36.3
X-21.486 Y-36.297
X-21.487
X-21.507 Y-36.294
X-21.508
X-21.528 Y-36.291
X-21.529
X-21.549 Y-36.287
X-21.55
X-21.57 Y-36.284
X-21.571 Y-36.283
X-21.591 Y-36.279
X-21.594
X-21.613 Y-36.274
X-21.615
X-21.634 Y-36.269
X-21.637 Y-36.268
X-21.656 Y-36.262
X-21.658 Y-36.261
X-21.677 Y-36.255
X-21.68 Y-36.254
X-21.699 Y-36.247
X-21.701 Y-36.246
X-21.72 Y-36.238
X-21.722 Y-36.237
X-21.74 Y-36.229
X-21.742 Y-36.227
X-21.76 Y-36.218
X-21.762 Y-36.217
X-21.78 Y-36.208
X-21.781 Y-36.207
X-21.799 Y-36.197
X-21.8 Y-36.196
X-21.817 Y-36.186
X-21.819 Y-36.185
X-21.836 Y-36.175
X-21.837 Y-36.174
X-21.854 Y-36.163
X-21.871 Y-36.152
X-21.872 Y-36.151
X-21.889 Y-36.14
X-21.89 Y-36.139
X-21.906 Y-36.128
X-21.907
X-21.923 Y-36.116
X-21.931 Y-36.111
X-21.96 Y-36.085
X-21.989 Y-36.06
X-22.018 Y-36.035
Y-36.034
X-22.046 Y-36.009
X-22.047
X-22.075 Y-35.983
X-22.076
X-22.104 Y-35.957
X-22.105 Y-35.956
X-22.133 Y-35.93
X-22.161 Y-35.904
X-22.162 Y-35.903
X-22.189 Y-35.876
X-22.19
X-22.217 Y-35.849
X-22.218 Y-35.848
X-22.244 Y-35.821
X-22.245 Y-35.82
X-22.272 Y-35.792
X-22.298 Y-35.764
X-22.299 Y-35.763
X-22.325 Y-35.735
Y-35.734
X-22.351 Y-35.706
Y-35.705
X-22.376 Y-35.676
X-22.377
X-22.402 Y-35.647
X-22.427 Y-35.617
X-22.452 Y-35.588
Y-35.587
X-22.477 Y-35.558
X-22.501 Y-35.528
X-22.526 Y-35.498
X-22.574 Y-35.439
X-22.592 Y-35.418
X-22.61 Y-35.397
X-22.627 Y-35.376
X-22.662 Y-35.334
X-22.68 Y-35.313
X-22.698 Y-35.292
X-22.715 Y-35.272
X-22.733 Y-35.251
X-22.751 Y-35.231
X-22.769 Y-35.211
X-22.788 Y-35.191
X-22.806 Y-35.172
X-22.824 Y-35.153
X-22.843 Y-35.134
X-22.862 Y-35.114
X-22.881 Y-35.096
X-22.901 Y-35.077
X-22.92 Y-35.058
X-22.96 Y-35.02
X-22.98 Y-35.002
X-23 Y-34.983
X-23.018 Y-34.966
X-23.031 Y-34.956
X-23.047 Y-34.944
X-23.062 Y-34.932
X-23.077 Y-34.92
X-23.092 Y-34.908
X-23.107 Y-34.897
X-23.122 Y-34.886
X-23.137 Y-34.875
X-23.152 Y-34.864
X-23.166 Y-34.854
X-23.182 Y-34.844
X-23.197 Y-34.835
X-23.212 Y-34.826
X-23.228 Y-34.817
X-23.244 Y-34.808
X-23.26 Y-34.8
X-23.276 Y-34.791
X-23.292 Y-34.783
X-23.309 Y-34.775
X-23.327 Y-34.767
X-23.344 Y-34.759
X-23.379 Y-34.743
X-23.393 Y-34.737
X-23.41 Y-34.732
X-23.43 Y-34.725
X-23.44 Y-34.722
X-23.449 Y-34.72
X-23.458 Y-34.717
X-23.468 Y-34.715
X-23.477 Y-34.712
X-23.486 Y-34.71
X-23.495 Y-34.708
X-23.504 Y-34.707
X-23.512 Y-34.705
X-23.522 Y-34.704
X-23.531 Y-34.703
X-23.54 Y-34.702
X-23.61 Y-34.63 Z-0.04
X-23.62 Y-34.619 Z-0.001
X-23.61 Y-34.63 Z-0.04
X-23.54 Y-34.702 Z-0.3
X-23.543 Y-36.521
Z5
X-22.985 Y-34.198
Z-0.3
X-22.958 Y-34.204
X-22.931 Y-34.209
X-22.903 Y-34.213
X-22.874 Y-34.217
X-22.845 Y-34.22
X-22.815 Y-34.223
X-22.761 Y-34.228
X-22.725 Y-34.226
X-22.704 Y-34.225
X-22.683 Y-34.223
X-22.663 Y-34.222
X-22.644 Y-34.22
X-22.624 Y-34.217
X-22.605 Y-34.214
X-22.587 Y-34.211
X-22.569 Y-34.207
X-22.551 Y-34.203
X-22.534 Y-34.199
X-22.517 Y-34.193
X-22.5 Y-34.187
X-22.483 Y-34.18
X-22.466 Y-34.173
X-22.449 Y-34.165
X-22.431 Y-34.156
X-22.414 Y-34.147
X-22.396 Y-34.138
X-22.378 Y-34.128
X-22.36 Y-34.118
X-22.331 Y-34.1
X-22.304 Y-34.077
X-22.288 Y-34.062
X-22.273 Y-34.049
X-22.258 Y-34.034
X-22.243 Y-34.02
X-22.23 Y-34.006
X-22.216 Y-33.992
X-22.204 Y-33.978
X-22.192 Y-33.963
X-22.181 Y-33.949
X-22.17 Y-33.934
X-22.16 Y-33.919
X-22.15 Y-33.903
X-22.141 Y-33.886
X-22.132 Y-33.869
X-22.123 Y-33.852
X-22.115 Y-33.834
X-22.107 Y-33.815
X-22.098 Y-33.796
X-22.091 Y-33.777
X-22.083 Y-33.757
X-22.075 Y-33.737
X-22.067 Y-33.716
X-22.05 Y-33.69
X-22.024 Y-33.672
X-21.993 Y-33.665
X-21.962 Y-33.671
X-21.936 Y-33.688
X-21.918 Y-33.714
X-21.911 Y-33.73
X-21.904 Y-33.746
X-21.898 Y-33.761
X-21.891 Y-33.777
X-21.884 Y-33.791
X-21.877 Y-33.806
X-21.87 Y-33.82
X-21.863 Y-33.834
X-21.856 Y-33.847
X-21.848 Y-33.86
X-21.84 Y-33.872
X-21.832 Y-33.884
X-21.824 Y-33.895
X-21.815 Y-33.907
X-21.806 Y-33.918
X-21.796 Y-33.929
X-21.785 Y-33.94
X-21.775 Y-33.951
X-21.763 Y-33.962
X-21.751 Y-33.973
X-21.739 Y-33.984
X-21.714 Y-34.007
X-21.707 Y-34.013
X-21.7 Y-34.017
X-21.686 Y-34.025
X-21.672 Y-34.033
X-21.659 Y-34.04
X-21.646 Y-34.047
X-21.633 Y-34.054
X-21.62 Y-34.061
X-21.608 Y-34.067
X-21.595 Y-34.072
X-21.583 Y-34.077
X-21.571 Y-34.081
X-21.559 Y-34.085
X-21.546 Y-34.089
X-21.533 Y-34.092
X-21.52 Y-34.095
X-21.507 Y-34.097
X-21.493 Y-34.099
X-21.478 Y-34.101
X-21.464 Y-34.102
X-21.449 Y-34.104
X-21.434 Y-34.105
X-21.402 Y-34.107
X-21.392 Y-34.108
X-21.372 Y-34.106
X-21.347 Y-34.103
X-21.321 Y-34.101
X-21.296 Y-34.098
X-21.272 Y-34.094
X-21.248 Y-34.091
X-21.225 Y-34.086
X-21.202 Y-34.081
X-21.18 Y-34.076
X-21.159 Y-34.07
X-21.139 Y-34.063
X-21.119 Y-34.055
X-21.1 Y-34.046
X-21.081 Y-34.036
X-21.062 Y-34.025
X-21.043 Y-34.013
X-21.024 Y-34
X-21.005 Y-33.986
X-20.985 Y-33.972
X-20.966 Y-33.956
X-20.947 Y-33.94
X-20.927 Y-33.923
X-20.908 Y-33.907
X-20.894 Y-33.895
X-20.882 Y-33.879
X-20.865 Y-33.856
X-20.848 Y-33.833
X-20.832 Y-33.81
X-20.817 Y-33.787
X-20.802 Y-33.765
X-20.788 Y-33.743
X-20.775 Y-33.72
X-20.763 Y-33.698
X-20.752 Y-33.676
X-20.742 Y-33.653
X-20.734 Y-33.631
X-20.726 Y-33.607
X-20.719 Y-33.584
X-20.714 Y-33.559
X-20.709 Y-33.534
X-20.704 Y-33.508
X-20.7 Y-33.481
X-20.697 Y-33.455
X-20.694 Y-33.427
X-20.692 Y-33.399
X-20.69 Y-33.371
X-20.688 Y-33.342
X-20.686 Y-33.318
X-20.688 Y-33.294
X-20.69 Y-33.266
X-20.691 Y-33.238
X-20.694 Y-33.21
X-20.696 Y-33.183
X-20.699 Y-33.156
X-20.703 Y-33.13
X-20.707 Y-33.104
X-20.712 Y-33.08
X-20.718 Y-33.055
X-20.724 Y-33.031
X-20.731 Y-33.008
X-20.74 Y-32.986
X-20.749 Y-32.964
X-20.759 Y-32.942
X-20.771 Y-32.92
X-20.784 Y-32.897
X-20.797 Y-32.875
X-20.812 Y-32.853
X-20.827 Y-32.83
X-20.843 Y-32.808
X-20.859 Y-32.785
X-20.876 Y-32.762
X-20.887 Y-32.746
X-20.9 Y-32.735
X-20.92 Y-32.718
X-20.939 Y-32.702
X-20.958 Y-32.686
X-20.977 Y-32.671
X-20.996 Y-32.656
X-21.015 Y-32.642
X-21.034 Y-32.63
X-21.053 Y-32.618
X-21.071 Y-32.607
X-21.09 Y-32.597
X-21.109 Y-32.588
X-21.129 Y-32.58
X-21.149 Y-32.574
X-21.169 Y-32.567
X-21.191 Y-32.562
X-21.214 Y-32.557
X-21.237 Y-32.553
X-21.26 Y-32.549
X-21.284 Y-32.546
X-21.309 Y-32.543
X-21.334 Y-32.54
X-21.359 Y-32.538
X-21.38 Y-32.536
X-21.39
X-21.406 Y-32.537
X-21.422 Y-32.538
X-21.438 Y-32.54
X-21.453 Y-32.541
X-21.468 Y-32.542
X-21.483 Y-32.544
X-21.497 Y-32.546
X-21.511 Y-32.549
X-21.525 Y-32.551
X-21.538 Y-32.554
X-21.551 Y-32.558
X-21.563 Y-32.562
X-21.576 Y-32.566
X-21.589 Y-32.571
X-21.601 Y-32.577
X-21.614 Y-32.583
X-21.628 Y-32.589
X-21.641 Y-32.596
X-21.654 Y-32.603
X-21.668 Y-32.611
X-21.682 Y-32.619
X-21.696 Y-32.627
X-21.703 Y-32.631
X-21.71 Y-32.637
X-21.723 Y-32.649
X-21.736 Y-32.66
X-21.748 Y-32.671
X-21.761 Y-32.683
X-21.772 Y-32.694
X-21.783 Y-32.705
X-21.793 Y-32.716
X-21.803 Y-32.728
X-21.813 Y-32.739
X-21.822 Y-32.75
X-21.83 Y-32.762
X-21.838 Y-32.774
X-21.846 Y-32.787
X-21.854 Y-32.8
X-21.861 Y-32.813
X-21.868 Y-32.827
X-21.876 Y-32.842
X-21.882 Y-32.857
X-21.889 Y-32.872
X-21.896 Y-32.887
X-21.903 Y-32.903
X-21.91 Y-32.919
X-21.916 Y-32.935
X-21.934 Y-32.962
X-21.962 Y-32.98
X-21.994 Y-32.985
X-22.025 Y-32.977
X-22.051 Y-32.958
X-22.067 Y-32.929
X-22.074 Y-32.909
X-22.08 Y-32.889
X-22.087 Y-32.869
X-22.094 Y-32.85
X-22.101 Y-32.831
X-22.108 Y-32.812
X-22.115 Y-32.794
X-22.122 Y-32.777
X-22.13 Y-32.759
X-22.139 Y-32.743
X-22.147 Y-32.727
X-22.156 Y-32.712
X-22.166 Y-32.697
X-22.176 Y-32.683
X-22.187 Y-32.669
X-22.199 Y-32.654
X-22.212 Y-32.64
X-22.225 Y-32.626
X-22.239 Y-32.612
X-22.253 Y-32.598
X-22.267 Y-32.584
X-22.283 Y-32.569
X-22.298 Y-32.555
X-22.307 Y-32.546
X-22.319 Y-32.539
X-22.338 Y-32.528
X-22.356 Y-32.517
X-22.374 Y-32.507
X-22.392 Y-32.497
X-22.41 Y-32.487
X-22.427 Y-32.478
X-22.445 Y-32.47
X-22.462 Y-32.462
X-22.48 Y-32.455
X-22.497 Y-32.449
X-22.514 Y-32.443
X-22.532 Y-32.439
X-22.55 Y-32.434
X-22.569 Y-32.43
X-22.587 Y-32.427
X-22.607 Y-32.424
X-22.627 Y-32.422
X-22.647 Y-32.42
X-22.668 Y-32.418
X-22.689 Y-32.416
X-22.71 Y-32.415
X-22.731 Y-32.414
X-22.748 Y-32.413
X-22.773 Y-32.415
X-22.803 Y-32.418
X-22.833 Y-32.421
X-22.863 Y-32.424
X-22.892 Y-32.428
X-22.92 Y-32.432
X-22.948 Y-32.437
X-22.975 Y-32.442
X-23.001 Y-32.448
X-23.027 Y-32.455
X-23.051 Y-32.464
X-23.075 Y-32.473
X-23.099 Y-32.483
X-23.122 Y-32.495
X-23.145 Y-32.507
X-23.168 Y-32.521
X-23.191 Y-32.537
X-23.214 Y-32.553
X-23.237 Y-32.57
X-23.26 Y-32.588
X-23.283 Y-32.606
X-23.306 Y-32.625
X-23.33 Y-32.645
X-23.346 Y-32.659
X-23.361 Y-32.678
X-23.381 Y-32.704
X-23.4 Y-32.73
X-23.419 Y-32.756
X-23.437 Y-32.782
X-23.454 Y-32.807
X-23.47 Y-32.833
X-23.485 Y-32.858
X-23.499 Y-32.884
X-23.512 Y-32.91
X-23.523 Y-32.935
X-23.533 Y-32.961
X-23.542 Y-32.988
X-23.55 Y-33.016
X-23.557 Y-33.044
X-23.563 Y-33.073
X-23.568 Y-33.102
X-23.572 Y-33.133
X-23.576 Y-33.163
X-23.579 Y-33.195
X-23.582 Y-33.226
X-23.585 Y-33.259
X-23.587 Y-33.292
X-23.589 Y-33.319
X-23.587 Y-33.347
X-23.585 Y-33.38
X-23.582 Y-33.412
X-23.58 Y-33.444
X-23.577 Y-33.475
X-23.573 Y-33.506
X-23.569 Y-33.536
X-23.564 Y-33.566
X-23.558 Y-33.595
X-23.551 Y-33.623
X-23.543 Y-33.651
X-23.535 Y-33.677
X-23.525 Y-33.703
X-23.513 Y-33.729
X-23.501 Y-33.755
X-23.487 Y-33.781
X-23.472 Y-33.806
X-23.456 Y-33.832
X-23.439 Y-33.858
X-23.421 Y-33.883
X-23.403 Y-33.909
X-23.384 Y-33.935
X-23.364 Y-33.961
X-23.35 Y-33.98
X-23.333 Y-33.995
X-23.31 Y-34.014
X-23.287 Y-34.033
X-23.265 Y-34.052
X-23.242 Y-34.07
X-23.219 Y-34.087
X-23.197 Y-34.103
X-23.174 Y-34.118
X-23.152 Y-34.132
X-23.129 Y-34.145
X-23.106 Y-34.157
X-23.083 Y-34.167
X-23.06 Y-34.176
X-23.035 Y-34.184
X-23.01 Y-34.192
X-22.985 Y-34.198
Z5
X-22.941 Y-33.992
Z-0.3
X-22.94
X-22.921 Y-33.996
X-22.919
X-22.899 Y-33.999
X-22.897 Y-34
X-22.877 Y-34.002
X-22.876 Y-34.003
X-22.856 Y-34.005
X-22.855
X-22.835 Y-34.007
X-22.834
X-22.814 Y-34.009
X-22.813
X-22.793 Y-34.011
X-22.792
X-22.772 Y-34.013
X-22.76
X-22.739 Y-34.011
X-22.738
X-22.718 Y-34.009
X-22.717
X-22.697 Y-34.007
X-22.696
X-22.675 Y-34.005
X-22.674
X-22.654 Y-34.003
X-22.652 Y-34.002
X-22.631 Y-33.999
X-22.63
X-22.61 Y-33.996
X-22.607
X-22.588 Y-33.992
X-22.586 Y-33.991
X-22.566 Y-33.987
X-22.563 Y-33.986
X-22.543 Y-33.981
X-22.54 Y-33.98
X-22.521 Y-33.974
X-22.518 Y-33.973
X-22.499 Y-33.966
X-22.496 Y-33.964
X-22.477 Y-33.957
X-22.474 Y-33.955
X-22.456 Y-33.946
X-22.453 Y-33.945
X-22.435 Y-33.935
X-22.432 Y-33.934
X-22.415 Y-33.924
X-22.413 Y-33.922
X-22.396 Y-33.911
X-22.394 Y-33.91
X-22.377 Y-33.898
X-22.376 Y-33.897
X-22.359 Y-33.885
X-22.358
X-22.342 Y-33.872
X-22.34 Y-33.871
X-22.324 Y-33.859
X-22.323 Y-33.858
X-22.307 Y-33.845
X-22.291 Y-33.832
X-22.29 Y-33.831
X-22.274 Y-33.818
X-22.263 Y-33.806
X-22.25 Y-33.79
X-22.237 Y-33.774
X-22.236 Y-33.773
X-22.224 Y-33.757
X-22.223 Y-33.756
X-22.211 Y-33.74
X-22.21 Y-33.739
X-22.198 Y-33.722
X-22.197 Y-33.721
X-22.185 Y-33.704
X-22.184 Y-33.703
X-22.173 Y-33.686
X-22.171 Y-33.684
X-22.161 Y-33.667
X-22.159 Y-33.664
X-22.149 Y-33.647
X-22.148 Y-33.645
X-22.138 Y-33.627
X-22.137 Y-33.624
X-22.128 Y-33.606
X-22.127 Y-33.602
X-22.119 Y-33.584
X-22.117 Y-33.58
X-22.111 Y-33.561
X-22.11 Y-33.558
X-22.104 Y-33.539
X-22.103 Y-33.536
X-22.097 Y-33.516
Y-33.514
X-22.092 Y-33.494
Y-33.491
X-22.088 Y-33.472
Y-33.47
X-22.084 Y-33.45
Y-33.448
X-22.081 Y-33.427
Y-33.426
X-22.079 Y-33.406
X-22.078 Y-33.404
X-22.076 Y-33.384
Y-33.383
X-22.074 Y-33.362
X-22.072 Y-33.341
X-22.071 Y-33.32
Y-33.307
X-22.072 Y-33.287
X-22.074 Y-33.266
X-22.076 Y-33.246
Y-33.245
X-22.078 Y-33.225
Y-33.224
X-22.08 Y-33.204
X-22.081 Y-33.202
X-22.084 Y-33.182
Y-33.18
X-22.087 Y-33.161
Y-33.159
X-22.091 Y-33.139
X-22.092 Y-33.137
X-22.096 Y-33.118
X-22.097 Y-33.115
X-22.102 Y-33.096
X-22.103 Y-33.093
X-22.108 Y-33.074
X-22.11 Y-33.071
X-22.116 Y-33.053
X-22.118 Y-33.049
X-22.125 Y-33.031
X-22.127 Y-33.027
X-22.135 Y-33.01
X-22.137 Y-33.007
X-22.146 Y-32.99
X-22.148 Y-32.987
X-22.157 Y-32.97
X-22.159 Y-32.968
X-22.169 Y-32.951
X-22.171 Y-32.949
X-22.182 Y-32.933
X-22.183 Y-32.931
X-22.195 Y-32.915
Y-32.914
X-22.207 Y-32.898
X-22.208 Y-32.896
X-22.221 Y-32.881
Y-32.88
X-22.234 Y-32.864
X-22.247 Y-32.848
X-22.26 Y-32.832
X-22.272 Y-32.82
X-22.287 Y-32.807
X-22.303 Y-32.795
X-22.304 Y-32.794
X-22.319 Y-32.782
X-22.32 Y-32.781
X-22.336 Y-32.769
X-22.337 Y-32.768
X-22.353 Y-32.756
X-22.354 Y-32.755
X-22.37 Y-32.744
X-22.372 Y-32.742
X-22.388 Y-32.731
X-22.39 Y-32.73
X-22.407 Y-32.72
X-22.409 Y-32.718
X-22.426 Y-32.708
X-22.429 Y-32.707
X-22.446 Y-32.698
X-22.449 Y-32.696
X-22.466 Y-32.688
X-22.47 Y-32.686
X-22.488 Y-32.678
X-22.491 Y-32.677
X-22.509 Y-32.67
X-22.513 Y-32.669
X-22.531 Y-32.663
X-22.534 Y-32.662
X-22.553 Y-32.657
X-22.556 Y-32.656
X-22.575 Y-32.652
X-22.578
X-22.597 Y-32.648
X-22.599
X-22.618 Y-32.644
X-22.621
X-22.64 Y-32.641
X-22.642
X-22.662 Y-32.639
X-22.663 Y-32.638
X-22.683 Y-32.636
X-22.684
X-22.704 Y-32.634
X-22.724 Y-32.632
X-22.725
X-22.745 Y-32.631
X-22.756
X-22.77
X-22.783 Y-32.632
X-22.797 Y-32.633
X-22.81 Y-32.634
X-22.812
X-22.838 Y-32.637
X-22.84
X-22.853 Y-32.638
X-22.854 Y-32.639
X-22.867 Y-32.64
X-22.869 Y-32.641
X-22.882 Y-32.643
X-22.883
X-22.896 Y-32.645
X-22.899
X-22.912 Y-32.648
X-22.913
X-22.926 Y-32.651
X-22.929 Y-32.652
X-22.941 Y-32.655
X-22.944 Y-32.656
X-22.956 Y-32.66
X-22.958
X-22.97 Y-32.664
X-22.972
X-22.984 Y-32.669
X-22.986
X-22.998 Y-32.674
X-23
X-23.012 Y-32.679
X-23.013
X-23.025 Y-32.684
X-23.026
X-23.038 Y-32.689
X-23.039 Y-32.69
X-23.052 Y-32.695
X-23.076 Y-32.706
X-23.077
X-23.089 Y-32.712
X-23.098 Y-32.716
X-23.109 Y-32.723
X-23.11
X-23.121 Y-32.73
X-23.122 Y-32.731
X-23.134 Y-32.738
X-23.146 Y-32.745
X-23.147 Y-32.746
X-23.158 Y-32.753
X-23.159 Y-32.754
X-23.17 Y-32.762
X-23.171
X-23.182 Y-32.77
X-23.184 Y-32.771
X-23.195 Y-32.779
X-23.196 Y-32.78
X-23.207 Y-32.788
X-23.209 Y-32.79
X-23.219 Y-32.798
X-23.221 Y-32.8
X-23.231 Y-32.808
X-23.233 Y-32.81
X-23.243 Y-32.82
X-23.245 Y-32.822
X-23.254 Y-32.831
X-23.256 Y-32.833
X-23.265 Y-32.843
X-23.267 Y-32.845
X-23.276 Y-32.855
X-23.278 Y-32.857
X-23.286 Y-32.867
X-23.287 Y-32.868
X-23.295 Y-32.879
X-23.296 Y-32.881
X-23.304 Y-32.891
X-23.305 Y-32.892
X-23.313 Y-32.903
X-23.314 Y-32.905
X-23.321 Y-32.916
X-23.322
X-23.329 Y-32.927
X-23.33 Y-32.929
X-23.337 Y-32.94
X-23.345 Y-32.951
Y-32.952
X-23.353 Y-32.963
X-23.358 Y-32.972
X-23.364 Y-32.985
X-23.37 Y-32.997
Y-32.998
X-23.376 Y-33.011
X-23.382 Y-33.024
Y-33.025
X-23.388 Y-33.037
Y-33.038
X-23.393 Y-33.051
X-23.394 Y-33.052
X-23.399 Y-33.065
Y-33.066
X-23.404 Y-33.079
X-23.405 Y-33.081
X-23.41 Y-33.094
Y-33.095
X-23.415 Y-33.108
X-23.416 Y-33.111
X-23.419 Y-33.124
X-23.42 Y-33.126
X-23.424 Y-33.139
Y-33.141
X-23.427 Y-33.154
X-23.428 Y-33.157
X-23.431 Y-33.17
Y-33.172
X-23.434 Y-33.185
Y-33.188
X-23.436 Y-33.201
Y-33.203
X-23.438 Y-33.217
Y-33.218
X-23.44 Y-33.232
Y-33.233
X-23.441 Y-33.246
Y-33.248
X-23.443 Y-33.261
Y-33.262
X-23.444 Y-33.276
Y-33.277
X-23.445 Y-33.291
X-23.446 Y-33.305
X-23.447 Y-33.319
Y-33.33
X-23.445 Y-33.35
X-23.443 Y-33.371
X-23.442 Y-33.392
X-23.441 Y-33.393
X-23.439 Y-33.413
Y-33.414
X-23.437 Y-33.434
Y-33.436
X-23.434 Y-33.456
Y-33.457
X-23.431 Y-33.477
X-23.43 Y-33.479
X-23.427 Y-33.499
X-23.426 Y-33.501
X-23.422 Y-33.52
X-23.421 Y-33.524
X-23.416 Y-33.543
Y-33.545
X-23.41 Y-33.564
X-23.409 Y-33.568
X-23.402 Y-33.587
X-23.401 Y-33.59
X-23.393 Y-33.608
X-23.392 Y-33.612
X-23.383 Y-33.629
X-23.382 Y-33.632
X-23.373 Y-33.649
X-23.371 Y-33.652
X-23.362 Y-33.67
X-23.36 Y-33.672
X-23.35 Y-33.689
X-23.348 Y-33.691
X-23.337 Y-33.707
Y-33.709
X-23.325 Y-33.725
X-23.324 Y-33.727
X-23.312 Y-33.743
X-23.311 Y-33.744
X-23.299 Y-33.76
Y-33.761
X-23.286 Y-33.777
Y-33.778
X-23.273 Y-33.794
X-23.26 Y-33.81
X-23.248 Y-33.822
X-23.233 Y-33.835
X-23.232
X-23.216 Y-33.848
X-23.2 Y-33.861
X-23.184 Y-33.874
X-23.182 Y-33.875
X-23.166 Y-33.887
X-23.165 Y-33.888
X-23.149 Y-33.899
X-23.147 Y-33.9
X-23.131 Y-33.912
X-23.129 Y-33.913
X-23.112 Y-33.924
X-23.11 Y-33.925
X-23.093 Y-33.935
X-23.09 Y-33.937
X-23.073 Y-33.946
X-23.07 Y-33.947
X-23.053 Y-33.956
X-23.049 Y-33.958
X-23.031 Y-33.965
X-23.027 Y-33.967
X-23.009 Y-33.973
X-23.006 Y-33.975
X-22.987 Y-33.98
X-22.984 Y-33.981
X-22.965 Y-33.986
X-22.962 Y-33.987
X-22.943 Y-33.991
X-22.941 Y-33.992
Z5
X-21.887 Y-33.558
Z-0.3
X-21.886 Y-33.561
X-21.88 Y-33.575
X-21.878 Y-33.578
X-21.871 Y-33.592
X-21.869 Y-33.595
X-21.862 Y-33.608
X-21.86 Y-33.611
X-21.852 Y-33.625
X-21.851 Y-33.626
X-21.842 Y-33.639
X-21.841 Y-33.642
X-21.832 Y-33.655
X-21.831 Y-33.656
X-21.821 Y-33.669
X-21.82 Y-33.67
X-21.811 Y-33.683
X-21.81
X-21.801 Y-33.696
X-21.8 Y-33.697
X-21.78 Y-33.723
X-21.768 Y-33.735
X-21.756 Y-33.745
X-21.744 Y-33.755
X-21.732 Y-33.765
X-21.731 Y-33.766
X-21.719 Y-33.775
X-21.718 Y-33.776
X-21.706 Y-33.786
X-21.704 Y-33.787
X-21.692 Y-33.796
X-21.691 Y-33.797
X-21.679 Y-33.805
X-21.676 Y-33.807
X-21.664 Y-33.815
X-21.661 Y-33.817
X-21.648 Y-33.825
X-21.646 Y-33.826
X-21.633 Y-33.833
X-21.63 Y-33.835
X-21.616 Y-33.842
X-21.613 Y-33.843
X-21.599 Y-33.849
X-21.596 Y-33.851
X-21.582 Y-33.856
X-21.578 Y-33.858
X-21.564 Y-33.862
X-21.561 Y-33.863
X-21.547 Y-33.867
X-21.543 Y-33.868
X-21.529 Y-33.872
X-21.526
X-21.512 Y-33.875
X-21.509 Y-33.876
X-21.494 Y-33.879
X-21.492
X-21.477 Y-33.881
X-21.476
X-21.46 Y-33.883
X-21.459 Y-33.884
X-21.444 Y-33.885
X-21.443
X-21.428 Y-33.887
X-21.427
X-21.412 Y-33.889
X-21.411
X-21.396 Y-33.89
X-21.381
X-21.365 Y-33.889
X-21.349 Y-33.887
X-21.333 Y-33.886
X-21.331 Y-33.885
X-21.315 Y-33.884
X-21.314
X-21.299 Y-33.882
X-21.297 Y-33.881
X-21.281 Y-33.879
X-21.279
X-21.264 Y-33.876
X-21.262
X-21.246 Y-33.872
X-21.244
X-21.228 Y-33.868
X-21.226
X-21.211 Y-33.864
X-21.207 Y-33.862
X-21.192 Y-33.858
X-21.189 Y-33.856
X-21.175 Y-33.851
X-21.171 Y-33.849
X-21.157 Y-33.843
X-21.153 Y-33.842
X-21.14 Y-33.835
X-21.137 Y-33.833
X-21.123 Y-33.826
X-21.12 Y-33.824
X-21.107 Y-33.816
X-21.105 Y-33.815
X-21.092 Y-33.806
X-21.089 Y-33.805
X-21.077 Y-33.796
X-21.075 Y-33.795
X-21.062 Y-33.785
X-21.061 Y-33.784
X-21.048 Y-33.775
X-21.047 Y-33.774
X-21.035 Y-33.764
X-21.034 Y-33.763
X-21.021 Y-33.753
X-20.996 Y-33.732
X-20.985 Y-33.721
X-20.974 Y-33.708
X-20.964 Y-33.695
X-20.954 Y-33.682
X-20.953 Y-33.681
X-20.943 Y-33.668
X-20.942 Y-33.667
X-20.933 Y-33.654
X-20.932 Y-33.653
X-20.923 Y-33.64
X-20.921 Y-33.638
X-20.912 Y-33.625
X-20.911 Y-33.623
X-20.903 Y-33.609
X-20.901 Y-33.607
X-20.893 Y-33.593
X-20.892 Y-33.591
X-20.884 Y-33.577
X-20.883 Y-33.574
X-20.876 Y-33.559
X-20.874 Y-33.556
X-20.868 Y-33.542
X-20.867 Y-33.538
X-20.862 Y-33.523
X-20.86 Y-33.52
X-20.856 Y-33.505
X-20.855 Y-33.502
X-20.851 Y-33.486
X-20.85 Y-33.483
X-20.846 Y-33.468
Y-33.466
X-20.843 Y-33.45
X-20.842 Y-33.447
X-20.84 Y-33.432
X-20.839 Y-33.43
X-20.837 Y-33.414
Y-33.413
X-20.835 Y-33.397
Y-33.395
X-20.833 Y-33.379
Y-33.378
X-20.831 Y-33.362
X-20.83 Y-33.345
Y-33.344
X-20.829 Y-33.328
Y-33.316
X-20.83 Y-33.299
X-20.831 Y-33.283
Y-33.282
X-20.833 Y-33.266
Y-33.265
X-20.834 Y-33.249
Y-33.248
X-20.836 Y-33.232
Y-33.23
X-20.838 Y-33.214
X-20.839 Y-33.212
X-20.841 Y-33.196
X-20.842 Y-33.194
X-20.844 Y-33.179
X-20.845 Y-33.176
X-20.848 Y-33.161
X-20.849 Y-33.158
X-20.853 Y-33.143
X-20.854 Y-33.139
X-20.859 Y-33.124
X-20.86 Y-33.121
X-20.865 Y-33.106
X-20.866 Y-33.103
X-20.872 Y-33.088
X-20.874 Y-33.084
X-20.88 Y-33.07
X-20.882 Y-33.067
X-20.889 Y-33.053
X-20.89 Y-33.051
X-20.898 Y-33.037
X-20.899 Y-33.035
X-20.908 Y-33.021
X-20.909 Y-33.019
X-20.918 Y-33.005
X-20.919 Y-33.004
X-20.928 Y-32.991
X-20.929 Y-32.989
X-20.938 Y-32.976
X-20.939 Y-32.975
X-20.949 Y-32.962
X-20.959 Y-32.949
X-20.96 Y-32.948
X-20.97 Y-32.935
X-20.98 Y-32.922
X-20.99 Y-32.911
X-21.002 Y-32.901
X-21.003 Y-32.9
X-21.014 Y-32.89
X-21.015
X-21.026 Y-32.88
X-21.027 Y-32.879
X-21.039 Y-32.87
X-21.04 Y-32.869
X-21.051 Y-32.86
X-21.053 Y-32.858
X-21.065 Y-32.849
X-21.067 Y-32.848
X-21.079 Y-32.839
X-21.081 Y-32.838
X-21.093 Y-32.829
X-21.095 Y-32.828
X-21.108 Y-32.82
X-21.111 Y-32.818
X-21.123 Y-32.811
X-21.126 Y-32.809
X-21.139 Y-32.802
X-21.143 Y-32.801
X-21.156 Y-32.795
X-21.16 Y-32.793
X-21.173 Y-32.787
X-21.177 Y-32.786
X-21.191 Y-32.781
X-21.194 Y-32.78
X-21.208 Y-32.776
X-21.212 Y-32.775
X-21.226 Y-32.771
X-21.229
X-21.243 Y-32.767
X-21.246
X-21.26 Y-32.764
X-21.263
X-21.278 Y-32.761
X-21.279
X-21.294 Y-32.759
X-21.295
X-21.311 Y-32.757
X-21.312
X-21.327 Y-32.755
X-21.358 Y-32.752
X-21.372
X-21.389 Y-32.753
X-21.405 Y-32.754
X-21.406
X-21.422 Y-32.756
X-21.423
X-21.439 Y-32.757
X-21.44
X-21.456 Y-32.759
X-21.458
X-21.474 Y-32.761
X-21.476 Y-32.762
X-21.492 Y-32.764
X-21.494 Y-32.765
X-21.509 Y-32.768
X-21.512
X-21.528 Y-32.772
X-21.53
X-21.545 Y-32.776
X-21.549 Y-32.777
X-21.564 Y-32.782
X-21.567 Y-32.783
X-21.582 Y-32.788
X-21.586 Y-32.79
X-21.6 Y-32.796
X-21.604 Y-32.797
X-21.618 Y-32.804
X-21.621 Y-32.806
X-21.635 Y-32.813
X-21.637 Y-32.814
X-21.651 Y-32.822
X-21.653 Y-32.824
X-21.667 Y-32.832
X-21.669 Y-32.834
X-21.682 Y-32.842
X-21.684 Y-32.844
X-21.697 Y-32.853
X-21.698 Y-32.854
X-21.711 Y-32.864
X-21.713
X-21.725 Y-32.874
X-21.726 Y-32.875
X-21.738 Y-32.885
X-21.739
X-21.752 Y-32.895
Y-32.896
X-21.765 Y-32.906
X-21.778 Y-32.919
X-21.788 Y-32.932
X-21.798 Y-32.945
X-21.799 Y-32.946
X-21.809 Y-32.959
Y-32.96
X-21.819 Y-32.973
X-21.82 Y-32.974
X-21.829 Y-32.987
X-21.83 Y-32.989
X-21.84 Y-33.002
X-21.841 Y-33.003
X-21.85 Y-33.017
X-21.851 Y-33.019
X-21.859 Y-33.033
X-21.861 Y-33.035
X-21.868 Y-33.049
X-21.87 Y-33.052
X-21.877 Y-33.066
X-21.879 Y-33.07
X-21.886 Y-33.084
X-21.887 Y-33.088
X-21.893 Y-33.102
X-21.894 Y-33.106
X-21.9 Y-33.121
X-21.901 Y-33.125
X-21.905 Y-33.14
X-21.906 Y-33.142
X-21.91 Y-33.158
X-21.911 Y-33.161
X-21.914 Y-33.177
Y-33.179
X-21.917 Y-33.195
X-21.918 Y-33.197
X-21.92 Y-33.213
X-21.921 Y-33.215
X-21.923 Y-33.232
Y-33.233
X-21.925 Y-33.249
Y-33.251
X-21.926 Y-33.267
Y-33.268
X-21.928 Y-33.284
Y-33.285
X-21.929 Y-33.302
X-21.93 Y-33.318
Y-33.33
X-21.929 Y-33.346
Y-33.347
X-21.926 Y-33.379
Y-33.38
X-21.925 Y-33.396
Y-33.398
X-21.923 Y-33.414
Y-33.416
X-21.921 Y-33.431
X-21.92 Y-33.433
X-21.918 Y-33.449
Y-33.451
X-21.915 Y-33.466
X-21.914 Y-33.47
X-21.911 Y-33.485
X-21.91 Y-33.487
X-21.906 Y-33.502
X-21.905 Y-33.506
X-21.901 Y-33.521
X-21.9 Y-33.524
X-21.895 Y-33.539
X-21.893 Y-33.543
X-21.887 Y-33.557
Y-33.558
Z5
X-23.615 Y-31.391
Z-0.001
X-23.534 Y-31.311 Z-0.3
X-20.683 Y-31.316
X-20.603 Y-31.396 Z-0.001
X-20.683 Y-31.316 Z-0.3
Y-31.204
X-20.7 Y-31.194
X-20.719 Y-31.182
X-20.738 Y-31.17
X-20.739
X-20.757 Y-31.158
X-20.758 Y-31.157
X-20.776 Y-31.145
X-20.794 Y-31.133
X-20.796 Y-31.132
X-20.813 Y-31.119
X-20.815 Y-31.118
X-20.832 Y-31.106
X-20.833 Y-31.105
X-20.85 Y-31.091
X-20.852 Y-31.09
X-20.869 Y-31.076
X-20.87 Y-31.075
X-20.886 Y-31.061
X-20.887 Y-31.06
X-20.904 Y-31.046
X-20.905 Y-31.045
X-20.921 Y-31.031
X-20.922 Y-31.03
X-20.937 Y-31.015
X-20.938 Y-31.014
X-20.954 Y-30.999
X-20.955 Y-30.998
X-20.97 Y-30.982
X-20.985 Y-30.967
X-20.986 Y-30.966
X-21.001 Y-30.95
X-21.016 Y-30.934
X-21.017
X-21.032 Y-30.918
X-21.047 Y-30.902
X-21.062 Y-30.886
X-21.065 Y-30.882
X-21.082 Y-30.861
X-21.099 Y-30.84
X-21.116 Y-30.819
X-21.117 Y-30.818
X-21.134 Y-30.797
X-21.151 Y-30.776
Y-30.775
X-21.168 Y-30.754
X-21.184 Y-30.732
X-21.185 Y-30.731
X-21.201 Y-30.71
X-21.202 Y-30.709
X-21.218 Y-30.687
X-21.234 Y-30.665
X-21.235 Y-30.663
X-21.25 Y-30.641
Y-30.64
X-21.265 Y-30.618
X-21.266 Y-30.617
X-21.28 Y-30.594
X-21.281 Y-30.593
X-21.295 Y-30.57
X-21.296 Y-30.569
X-21.309 Y-30.546
X-21.31 Y-30.545
X-21.323 Y-30.521
X-21.324
X-21.337 Y-30.497
Y-30.496
X-21.35 Y-30.473
X-21.351 Y-30.472
X-21.363 Y-30.448
X-21.364
X-21.376 Y-30.424
Y-30.423
X-21.389 Y-30.399
X-21.401 Y-30.375
X-21.403 Y-30.371
X-21.354 Y-30.29 Z-0.001
X-21.403 Y-30.371 Z-0.3
X-21.589 Y-30.37
X-21.709 Y-30.29 Z-0.001
X-21.589 Y-30.37 Z-0.3
X-21.588 Y-30.374
X-21.581 Y-30.39
X-21.574 Y-30.406
X-21.566 Y-30.421
X-21.559 Y-30.437
X-21.551 Y-30.452
X-21.544 Y-30.468
X-21.536 Y-30.483
X-21.528 Y-30.498
X-21.511 Y-30.529
X-21.494 Y-30.56
X-21.477 Y-30.591
X-21.468 Y-30.607
X-21.459 Y-30.622
X-21.451 Y-30.637
X-21.442 Y-30.651
X-21.414 Y-30.697
X-21.405 Y-30.712
X-21.396 Y-30.727
X-21.386 Y-30.742
X-21.377 Y-30.756
X-21.367 Y-30.771
X-21.358 Y-30.785
X-21.348 Y-30.799
X-21.338 Y-30.813
X-21.328 Y-30.826
X-21.318 Y-30.84
X-21.308 Y-30.853
X-21.297 Y-30.867
X-21.286 Y-30.88
X-21.275 Y-30.894
X-21.264 Y-30.907
X-21.253 Y-30.92
X-21.241 Y-30.934
X-21.218 Y-30.961
X-21.206 Y-30.974
X-21.191 Y-31.001
X-21.187 Y-31.031
X-21.194 Y-31.061
X-21.212 Y-31.085
X-21.237 Y-31.102
X-21.267 Y-31.107
X-23.534 Y-31.104
Y-31.311
Y-31.104
X-23.614 Y-31.024 Z-0.001
Z5
X-23.612 Y-29.609
Z-0.001
X-23.531 Y-29.529 Z-0.3
X-23.528 Y-27.71
X-23.577 Y-27.659 Z-0.119
X-23.608 Y-27.627 Z-0.002
X-23.577 Y-27.659 Z-0.119
X-23.528 Y-27.71 Z-0.3
X-23.519 Y-27.711
X-23.51 Y-27.712
X-23.501 Y-27.713
X-23.492 Y-27.714
X-23.483 Y-27.716
X-23.475 Y-27.718
X-23.465 Y-27.72
X-23.456 Y-27.722
X-23.447 Y-27.725
X-23.438 Y-27.727
X-23.428 Y-27.73
X-23.419 Y-27.733
X-23.398 Y-27.739
X-23.382 Y-27.745
X-23.368 Y-27.751
X-23.35 Y-27.759
X-23.315 Y-27.775
X-23.298 Y-27.783
X-23.281 Y-27.791
X-23.264 Y-27.799
X-23.248 Y-27.807
X-23.232 Y-27.816
X-23.216 Y-27.824
X-23.201 Y-27.833
X-23.185 Y-27.842
X-23.17 Y-27.852
X-23.155 Y-27.862
X-23.14 Y-27.872
X-23.125 Y-27.883
X-23.11 Y-27.893
X-23.095 Y-27.904
X-23.08 Y-27.916
X-23.065 Y-27.927
X-23.05 Y-27.939
X-23.035 Y-27.951
X-23.02 Y-27.963
X-23.007 Y-27.974
X-22.989 Y-27.991
X-22.969 Y-28.009
X-22.949 Y-28.028
X-22.909 Y-28.066
X-22.889 Y-28.084
X-22.87 Y-28.103
X-22.851 Y-28.122
X-22.832 Y-28.141
X-22.813 Y-28.16
X-22.794 Y-28.179
X-22.776 Y-28.199
X-22.758 Y-28.219
X-22.74 Y-28.239
X-22.704 Y-28.279
X-22.686 Y-28.3
X-22.651 Y-28.341
X-22.616 Y-28.383
X-22.598 Y-28.404
X-22.58 Y-28.425
X-22.563 Y-28.446
X-22.515 Y-28.506
X-22.514
X-22.466 Y-28.565
X-22.465
X-22.441 Y-28.595
X-22.44
X-22.416 Y-28.625
X-22.415
X-22.39 Y-28.654
X-22.365 Y-28.683
Y-28.684
X-22.34 Y-28.713
X-22.339
X-22.314 Y-28.742
X-22.313
X-22.287 Y-28.77
Y-28.771
X-22.261 Y-28.799
X-22.26 Y-28.8
X-22.234 Y-28.827
X-22.233 Y-28.828
X-22.206 Y-28.855
X-22.205 Y-28.856
X-22.178 Y-28.883
Y-28.884
X-22.15 Y-28.91
X-22.149 Y-28.911
X-22.122 Y-28.937
X-22.121 Y-28.938
X-22.093 Y-28.964
X-22.092 Y-28.965
X-22.064 Y-28.99
Y-28.991
X-22.035 Y-29.016
X-22.006 Y-29.042
X-21.977 Y-29.067
X-21.948 Y-29.093
X-21.919 Y-29.118
X-21.912 Y-29.124
X-21.895 Y-29.135
Y-29.136
X-21.878 Y-29.147
X-21.861 Y-29.158
X-21.86 Y-29.159
X-21.843 Y-29.17
X-21.842 Y-29.171
X-21.825 Y-29.182
X-21.824
X-21.807 Y-29.193
X-21.806 Y-29.194
X-21.789 Y-29.204
X-21.788
X-21.77 Y-29.214
X-21.768 Y-29.216
X-21.75 Y-29.225
X-21.749 Y-29.226
X-21.731 Y-29.235
X-21.728 Y-29.236
X-21.71 Y-29.244
X-21.708 Y-29.245
X-21.69 Y-29.253
X-21.687 Y-29.254
X-21.669 Y-29.261
X-21.666 Y-29.263
X-21.647 Y-29.269
X-21.644 Y-29.27
X-21.625 Y-29.275
X-21.623 Y-29.276
X-21.603 Y-29.281
X-21.601 Y-29.282
X-21.582 Y-29.286
X-21.579 Y-29.287
X-21.56 Y-29.291
X-21.559
X-21.539 Y-29.295
X-21.537
X-21.517 Y-29.298
X-21.497 Y-29.301
X-21.495 Y-29.302
X-21.475 Y-29.304
X-21.455 Y-29.307
X-21.454
X-21.434 Y-29.31
X-21.416
X-21.399 Y-29.309
X-21.398
X-21.381 Y-29.307
X-21.363 Y-29.305
X-21.362
X-21.345 Y-29.303
X-21.344
X-21.327 Y-29.301
X-21.325 Y-29.3
X-21.308 Y-29.298
X-21.305 Y-29.297
X-21.289 Y-29.294
X-21.287
X-21.27 Y-29.29
X-21.267
X-21.251 Y-29.286
X-21.248 Y-29.285
X-21.231 Y-29.28
X-21.228 Y-29.279
X-21.212 Y-29.274
X-21.209 Y-29.272
X-21.193 Y-29.266
X-21.189 Y-29.265
X-21.174 Y-29.258
X-21.17 Y-29.256
X-21.155 Y-29.248
X-21.152 Y-29.247
X-21.138 Y-29.238
X-21.135 Y-29.237
X-21.121 Y-29.228
X-21.118 Y-29.226
X-21.104 Y-29.217
X-21.102 Y-29.216
X-21.088 Y-29.206
X-21.086 Y-29.204
X-21.073 Y-29.194
X-21.072 Y-29.193
X-21.058 Y-29.182
X-21.057 Y-29.181
X-21.044 Y-29.17
X-21.043
X-21.029 Y-29.159
Y-29.158
X-21.015 Y-29.147
X-21.002 Y-29.135
X-20.99 Y-29.123
X-20.979 Y-29.108
X-20.967 Y-29.092
X-20.956 Y-29.077
X-20.955 Y-29.076
X-20.944 Y-29.061
X-20.943 Y-29.06
X-20.933 Y-29.044
X-20.931 Y-29.043
X-20.921 Y-29.027
X-20.92 Y-29.026
X-20.91 Y-29.01
X-20.909 Y-29.008
X-20.9 Y-28.992
X-20.898 Y-28.99
X-20.89 Y-28.974
X-20.888 Y-28.971
X-20.88 Y-28.955
X-20.878 Y-28.952
X-20.871 Y-28.935
X-20.87 Y-28.932
X-20.863 Y-28.915
X-20.862 Y-28.911
X-20.856 Y-28.894
X-20.855 Y-28.89
X-20.85 Y-28.873
X-20.849 Y-28.87
X-20.845 Y-28.852
X-20.844 Y-28.85
X-20.84 Y-28.832
Y-28.829
X-20.837 Y-28.81
X-20.836 Y-28.809
X-20.834 Y-28.79
X-20.833 Y-28.789
X-20.831 Y-28.77
Y-28.769
X-20.829 Y-28.75
Y-28.749
X-20.827 Y-28.73
Y-28.729
X-20.826 Y-28.71
Y-28.709
X-20.824 Y-28.691
X-20.823 Y-28.672
Y-28.661
X-20.824 Y-28.641
X-20.826 Y-28.621
X-20.827 Y-28.601
Y-28.6
X-20.829 Y-28.58
Y-28.579
X-20.831 Y-28.559
Y-28.558
X-20.833 Y-28.539
X-20.834 Y-28.537
X-20.836 Y-28.517
X-20.837 Y-28.515
X-20.84 Y-28.496
Y-28.494
X-20.844 Y-28.475
X-20.845 Y-28.472
X-20.849 Y-28.454
X-20.85 Y-28.451
X-20.855 Y-28.432
X-20.857 Y-28.429
X-20.863 Y-28.411
X-20.864 Y-28.407
X-20.871 Y-28.389
X-20.873 Y-28.386
X-20.88 Y-28.368
X-20.882 Y-28.365
X-20.89 Y-28.348
X-20.892 Y-28.346
X-20.901 Y-28.329
X-20.903 Y-28.326
X-20.913 Y-28.31
X-20.914 Y-28.308
X-20.924 Y-28.291
X-20.925 Y-28.29
X-20.936 Y-28.274
X-20.937 Y-28.272
X-20.949 Y-28.256
X-20.95 Y-28.255
X-20.961 Y-28.239
X-20.962
X-20.974 Y-28.223
Y-28.222
X-20.986 Y-28.207
X-20.999 Y-28.191
X-21.013 Y-28.176
X-21.029 Y-28.164
X-21.03
X-21.046 Y-28.151
X-21.063 Y-28.139
X-21.064 Y-28.138
X-21.08 Y-28.126
X-21.081
X-21.098 Y-28.114
X-21.099 Y-28.113
X-21.116 Y-28.102
X-21.118 Y-28.101
X-21.134 Y-28.09
X-21.136 Y-28.089
X-21.153 Y-28.079
X-21.156 Y-28.077
X-21.174 Y-28.067
X-21.176 Y-28.066
X-21.194 Y-28.057
X-21.197 Y-28.056
X-21.215 Y-28.048
X-21.219 Y-28.046
X-21.237 Y-28.039
X-21.241 Y-28.038
X-21.259 Y-28.032
X-21.263 Y-28.031
X-21.282 Y-28.026
X-21.285 Y-28.025
X-21.304 Y-28.02
X-21.307
X-21.326 Y-28.016
X-21.329 Y-28.015
X-21.349 Y-28.012
X-21.35
X-21.37 Y-28.009
X-21.372 Y-28.008
X-21.392 Y-28.006
X-21.394
X-21.414 Y-28.004
X-21.415
X-21.503 Y-28.077 Z-0.001
X-21.415 Y-28.004 Z-0.3
X-21.393 Y-27.791
X-21.464 Y-27.7 Z-0.002
X-21.393 Y-27.791 Z-0.3
X-21.386 Y-27.793
X-21.357 Y-27.798
X-21.328 Y-27.803
X-21.3 Y-27.809
X-21.272 Y-27.815
X-21.245 Y-27.822
X-21.219 Y-27.829
X-21.193 Y-27.837
X-21.168 Y-27.847
X-21.144 Y-27.856
X-21.121 Y-27.867
X-21.098 Y-27.88
X-21.075 Y-27.893
X-21.053 Y-27.907
X-21.03 Y-27.923
X-21.008 Y-27.94
X-20.986 Y-27.957
X-20.963 Y-27.975
X-20.941 Y-27.994
X-20.918 Y-28.013
X-20.895 Y-28.033
X-20.88 Y-28.046
X-20.869 Y-28.063
X-20.852 Y-28.089
X-20.835 Y-28.114
X-20.819 Y-28.139
X-20.804 Y-28.164
X-20.79 Y-28.189
X-20.776 Y-28.213
X-20.763 Y-28.238
X-20.751 Y-28.263
X-20.74 Y-28.287
X-20.731 Y-28.312
X-20.722 Y-28.337
X-20.715 Y-28.362
X-20.709 Y-28.388
X-20.703 Y-28.415
X-20.698 Y-28.442
X-20.694 Y-28.47
X-20.691 Y-28.499
X-20.688 Y-28.528
X-20.685 Y-28.557
X-20.683 Y-28.587
X-20.682 Y-28.617
X-20.68 Y-28.648
X-20.679 Y-28.674
X-20.68 Y-28.702
X-20.682 Y-28.733
X-20.684 Y-28.763
X-20.687 Y-28.793
X-20.689 Y-28.823
X-20.693 Y-28.852
X-20.696 Y-28.881
X-20.701 Y-28.909
X-20.706 Y-28.937
X-20.712 Y-28.964
X-20.719 Y-28.99
X-20.727 Y-29.015
X-20.737 Y-29.04
X-20.747 Y-29.064
X-20.758 Y-29.089
X-20.771 Y-29.113
X-20.785 Y-29.137
X-20.8 Y-29.162
X-20.816 Y-29.186
X-20.832 Y-29.211
X-20.849 Y-29.235
X-20.867 Y-29.26
X-20.885 Y-29.285
X-20.898 Y-29.303
X-20.912 Y-29.315
X-20.934 Y-29.333
X-20.954 Y-29.351
X-20.975 Y-29.368
X-20.996 Y-29.384
X-21.016 Y-29.4
X-21.037 Y-29.415
X-21.057 Y-29.428
X-21.078 Y-29.441
X-21.099 Y-29.453
X-21.119 Y-29.463
X-21.14 Y-29.473
X-21.161 Y-29.481
X-21.183 Y-29.489
X-21.206 Y-29.495
X-21.229 Y-29.501
X-21.254 Y-29.506
X-21.279 Y-29.51
X-21.304 Y-29.514
X-21.331 Y-29.518
X-21.357 Y-29.521
X-21.384 Y-29.523
X-21.434 Y-29.528
X-21.473 Y-29.526
X-21.488 Y-29.525
X-21.502 Y-29.524
X-21.516 Y-29.522
X-21.53 Y-29.521
X-21.544 Y-29.52
X-21.557 Y-29.518
X-21.571 Y-29.516
X-21.584 Y-29.513
X-21.597 Y-29.511
X-21.61 Y-29.508
X-21.622 Y-29.505
X-21.635 Y-29.501
X-21.649 Y-29.497
X-21.662 Y-29.493
X-21.675 Y-29.489
X-21.689 Y-29.484
X-21.703 Y-29.48
X-21.716 Y-29.475
X-21.754 Y-29.461
X-21.767 Y-29.454
X-21.783 Y-29.446
X-21.815 Y-29.43
X-21.831 Y-29.421
X-21.846 Y-29.413
X-21.862 Y-29.404
X-21.877 Y-29.396
X-21.891 Y-29.387
X-21.906 Y-29.378
X-21.92 Y-29.369
X-21.934 Y-29.36
X-21.948 Y-29.35
X-21.962 Y-29.341
X-21.976 Y-29.33
X-21.989 Y-29.32
X-22.003 Y-29.309
X-22.017 Y-29.298
X-22.031 Y-29.287
X-22.044 Y-29.275
X-22.058 Y-29.264
X-22.072 Y-29.252
X-22.086 Y-29.24
X-22.098 Y-29.23
X-22.119 Y-29.209
X-22.166 Y-29.164
X-22.188 Y-29.142
X-22.211 Y-29.119
X-22.234 Y-29.097
X-22.279 Y-29.051
X-22.301 Y-29.028
X-22.323 Y-29.005
X-22.344 Y-28.982
X-22.366 Y-28.959
X-22.387 Y-28.936
X-22.408 Y-28.912
X-22.43 Y-28.888
X-22.451 Y-28.864
X-22.493 Y-28.816
X-22.514 Y-28.791
X-22.535 Y-28.767
X-22.555 Y-28.743
X-22.597 Y-28.693
X-22.618 Y-28.669
X-22.648 Y-28.633
X-22.663 Y-28.614
X-22.694 Y-28.578
X-22.74 Y-28.523
X-22.756 Y-28.505
X-22.771 Y-28.487
Y-28.486
X-22.787 Y-28.469
Y-28.468
X-22.803 Y-28.45
X-22.818 Y-28.433
X-22.819 Y-28.432
X-22.835 Y-28.414
X-22.867 Y-28.379
Y-28.378
X-22.883 Y-28.361
X-22.9 Y-28.343
X-22.932 Y-28.308
X-22.933
X-22.949 Y-28.291
X-22.965 Y-28.273
X-22.982 Y-28.256
X-22.998 Y-28.239
X-23.002 Y-28.235
X-23.01 Y-28.228
X-23.026 Y-28.213
X-23.034 Y-28.206
X-23.041 Y-28.199
X-23.042
X-23.05 Y-28.192
X-23.051 Y-28.191
X-23.067 Y-28.177
X-23.075 Y-28.17
X-23.076
X-23.084 Y-28.163
X-23.085 Y-28.162
X-23.093 Y-28.155
X-23.094
X-23.102 Y-28.148
X-23.103 Y-28.147
X-23.111 Y-28.141
X-23.12 Y-28.134
X-23.121
X-23.129 Y-28.127
X-23.13
X-23.139 Y-28.121
Y-28.12
X-23.148 Y-28.114
X-23.157 Y-28.108
X-23.158 Y-28.107
X-23.166 Y-28.101
X-23.175 Y-28.095
X-23.184 Y-28.089
X-23.185
X-23.193 Y-28.083
X-23.202 Y-28.077
X-23.203
X-23.212 Y-28.071
X-23.244 Y-28.059
X-23.278 Y-28.061
X-23.308 Y-28.077
X-23.329 Y-28.105
X-23.336 Y-28.138
X-23.338 Y-29.529
X-23.531
X-23.338
X-23.258 Y-29.609 Z-0.001
Z5
X-21.368 Y-25.727
Z-0.002
X-21.284 Y-25.788 Z-0.3
X-21.268 Y-25.997
X-21.341 Y-26.093 Z-0.002
X-21.268 Y-25.997 Z-0.3
X-21.254 Y-25.994
X-21.23 Y-25.988
X-21.206 Y-25.983
X-21.183 Y-25.976
X-21.16 Y-25.97
X-21.138 Y-25.962
X-21.116 Y-25.954
X-21.096 Y-25.946
X-21.076 Y-25.937
X-21.056 Y-25.927
X-21.037 Y-25.916
X-21.018 Y-25.904
X-20.999 Y-25.891
X-20.98 Y-25.878
X-20.961 Y-25.863
X-20.942 Y-25.848
X-20.923 Y-25.832
X-20.904 Y-25.815
X-20.885 Y-25.798
X-20.853 Y-25.769
X-20.843 Y-25.755
X-20.828 Y-25.734
X-20.814 Y-25.713
X-20.8 Y-25.692
X-20.786 Y-25.671
X-20.774 Y-25.65
X-20.761 Y-25.629
X-20.75 Y-25.609
X-20.74 Y-25.588
X-20.73 Y-25.568
X-20.722 Y-25.547
X-20.714 Y-25.527
X-20.708 Y-25.505
X-20.702 Y-25.484
X-20.697 Y-25.461
X-20.693 Y-25.438
X-20.689 Y-25.415
X-20.685 Y-25.391
X-20.683 Y-25.367
X-20.68 Y-25.342
X-20.678 Y-25.316
X-20.676 Y-25.29
X-20.674 Y-25.264
X-20.673 Y-25.244
X-20.676 Y-25.214
X-20.679 Y-25.178
X-20.683 Y-25.142
X-20.687 Y-25.107
X-20.691 Y-25.073
X-20.696 Y-25.039
X-20.702 Y-25.007
X-20.709 Y-24.975
X-20.717 Y-24.944
X-20.726 Y-24.914
X-20.736 Y-24.885
X-20.748 Y-24.857
X-20.761 Y-24.83
X-20.776 Y-24.803
X-20.792 Y-24.777
X-20.81 Y-24.751
X-20.829 Y-24.725
X-20.85 Y-24.699
X-20.872 Y-24.673
X-20.894 Y-24.647
X-20.918 Y-24.621
X-20.942 Y-24.595
X-20.967 Y-24.57
X-20.985 Y-24.552
X-21.023 Y-24.53
X-21.071 Y-24.504
X-21.12 Y-24.477
X-21.168 Y-24.452
X-21.216 Y-24.428
X-21.264 Y-24.404
X-21.312 Y-24.382
X-21.361 Y-24.362
X-21.409 Y-24.344
X-21.458 Y-24.327
X-21.507 Y-24.312
X-21.556 Y-24.3
X-21.607 Y-24.289
X-21.658 Y-24.279
X-21.71 Y-24.272
X-21.762 Y-24.265
X-21.816 Y-24.26
X-21.869 Y-24.256
X-21.923 Y-24.252
X-21.978 Y-24.25
X-22.033 Y-24.248
X-22.089 Y-24.246
X-22.145 Y-24.245
X-22.199 Y-24.244
X-22.248 Y-24.245
X-22.297 Y-24.246
X-22.346 Y-24.247
X-22.395 Y-24.248
X-22.443 Y-24.25
X-22.491 Y-24.253
X-22.539 Y-24.257
X-22.585 Y-24.261
X-22.632 Y-24.267
X-22.677 Y-24.274
X-22.722 Y-24.282
X-22.766 Y-24.291
X-22.81 Y-24.302
X-22.853 Y-24.315
X-22.895 Y-24.33
X-22.937 Y-24.347
X-22.98 Y-24.365
X-23.022 Y-24.384
X-23.064 Y-24.405
X-23.106 Y-24.427
X-23.148 Y-24.45
X-23.191 Y-24.474
X-23.233 Y-24.498
X-23.266 Y-24.517
X-23.282 Y-24.534
X-23.307 Y-24.56
X-23.331 Y-24.586
X-23.354 Y-24.612
X-23.376 Y-24.638
X-23.398 Y-24.664
X-23.418 Y-24.69
X-23.437 Y-24.716
X-23.455 Y-24.742
X-23.471 Y-24.768
X-23.486 Y-24.795
X-23.499 Y-24.822
X-23.51 Y-24.85
X-23.521 Y-24.878
X-23.53 Y-24.908
X-23.538 Y-24.939
X-23.545 Y-24.97
X-23.551 Y-25.003
X-23.556 Y-25.036
X-23.561 Y-25.07
X-23.565 Y-25.104
X-23.569 Y-25.139
X-23.572 Y-25.175
X-23.575 Y-25.205
X-23.574 Y-25.22
X-23.573 Y-25.241
X-23.572 Y-25.262
X-23.571 Y-25.282
X-23.569 Y-25.302
X-23.567 Y-25.322
X-23.565 Y-25.341
X-23.562 Y-25.36
X-23.559 Y-25.379
X-23.556 Y-25.398
X-23.552 Y-25.416
X-23.548 Y-25.434
X-23.543 Y-25.451
X-23.537 Y-25.468
X-23.531 Y-25.486
X-23.524 Y-25.504
X-23.517 Y-25.521
X-23.51 Y-25.539
X-23.501 Y-25.558
X-23.493 Y-25.576
X-23.475 Y-25.613
X-23.466 Y-25.631
X-23.459 Y-25.645
X-23.45 Y-25.657
X-23.438 Y-25.674
X-23.426 Y-25.69
X-23.413 Y-25.707
X-23.401 Y-25.723
X-23.389 Y-25.738
X-23.377 Y-25.753
X-23.364 Y-25.768
X-23.352 Y-25.782
X-23.339 Y-25.796
X-23.326 Y-25.808
X-23.313 Y-25.821
X-23.299 Y-25.833
X-23.285 Y-25.844
X-23.27 Y-25.856
X-23.255 Y-25.867
X-23.239 Y-25.878
X-23.222 Y-25.888
X-23.206 Y-25.899
X-23.188 Y-25.91
X-23.171 Y-25.92
X-23.153 Y-25.931
X-23.135 Y-25.941
X-23.121 Y-25.95
X-23.104 Y-25.957
X-23.063 Y-25.974
X-23.043 Y-25.983
X-23.022 Y-25.991
X-23.002 Y-25.999
X-22.982 Y-26.006
X-22.962 Y-26.013
X-22.943 Y-26.019
X-22.923 Y-26.025
X-22.903 Y-26.031
X-22.884 Y-26.036
X-22.864 Y-26.04
X-22.844 Y-26.044
X-22.823 Y-26.047
X-22.803 Y-26.05
X-22.782 Y-26.053
X-22.761 Y-26.055
X-22.739 Y-26.057
X-22.717 Y-26.059
X-22.695 Y-26.06
X-22.673 Y-26.061
X-22.651 Y-26.063
X-22.633 Y-26.064
X-22.605 Y-26.062
X-22.573 Y-26.06
X-22.542 Y-26.057
X-22.511 Y-26.054
X-22.48 Y-26.051
X-22.45 Y-26.048
X-22.42 Y-26.043
X-22.391 Y-26.038
X-22.363 Y-26.032
X-22.335 Y-26.026
X-22.309 Y-26.018
X-22.283 Y-26.009
X-22.257 Y-26
X-22.232 Y-25.988
X-22.207 Y-25.976
X-22.182 Y-25.962
X-22.157 Y-25.948
X-22.132 Y-25.932
X-22.107 Y-25.915
X-22.081 Y-25.898
X-22.056 Y-25.88
X-22.031 Y-25.861
X-22.005 Y-25.842
X-21.986 Y-25.827
X-21.972 Y-25.811
X-21.953 Y-25.789
X-21.934 Y-25.767
X-21.916 Y-25.745
X-21.898 Y-25.723
X-21.881 Y-25.701
X-21.865 Y-25.68
X-21.85 Y-25.658
X-21.836 Y-25.636
X-21.823 Y-25.614
X-21.812 Y-25.592
X-21.802 Y-25.57
X-21.792 Y-25.547
X-21.784 Y-25.524
X-21.777 Y-25.5
X-21.771 Y-25.475
X-21.765 Y-25.449
X-21.76 Y-25.423
X-21.755 Y-25.395
X-21.751 Y-25.368
X-21.748 Y-25.339
X-21.745 Y-25.311
X-21.742 Y-25.281
X-21.739 Y-25.258
X-21.74 Y-25.247
X-21.741 Y-25.23
X-21.742 Y-25.213
X-21.743 Y-25.196
X-21.745 Y-25.179
X-21.746 Y-25.163
X-21.748 Y-25.147
X-21.75 Y-25.131
X-21.752 Y-25.116
X-21.755 Y-25.101
X-21.758 Y-25.086
X-21.761 Y-25.071
X-21.765 Y-25.057
X-21.769 Y-25.042
X-21.774 Y-25.027
X-21.779 Y-25.012
X-21.784 Y-24.998
X-21.79 Y-24.982
X-21.796 Y-24.967
X-21.803 Y-24.952
X-21.809 Y-24.936
X-21.823 Y-24.905
X-21.828 Y-24.894
X-21.835 Y-24.882
X-21.844 Y-24.866
X-21.854 Y-24.851
X-21.864 Y-24.836
X-21.873 Y-24.821
X-21.883 Y-24.806
X-21.893 Y-24.792
X-21.902 Y-24.779
X-21.913 Y-24.765
X-21.923 Y-24.753
X-21.933 Y-24.74
X-21.944 Y-24.728
X-21.955 Y-24.717
X-21.966 Y-24.705
X-21.978 Y-24.694
X-21.991 Y-24.683
X-22.004 Y-24.672
X-22.017 Y-24.661
X-22.031 Y-24.65
X-22.045 Y-24.639
X-22.059 Y-24.628
X-22.089 Y-24.606
X-22.104 Y-24.596
X-22.126 Y-24.57
X-22.137 Y-24.538
X-22.133 Y-24.505
X-22.116 Y-24.476
X-22.088 Y-24.457
X-22.055 Y-24.45
X-22.025 Y-24.451
X-21.996 Y-24.452
X-21.966
X-21.936 Y-24.453
X-21.935
X-21.906 Y-24.454
X-21.876 Y-24.456
X-21.875
X-21.846 Y-24.457
X-21.845
X-21.816 Y-24.459
X-21.815
X-21.785 Y-24.462
X-21.784
X-21.755 Y-24.465
X-21.754
X-21.725 Y-24.468
X-21.723
X-21.694 Y-24.472
X-21.693
X-21.664 Y-24.477
X-21.662
X-21.633 Y-24.482
X-21.631 Y-24.483
X-21.603 Y-24.488
X-21.601
X-21.572 Y-24.495
X-21.571
X-21.543 Y-24.502
X-21.541
X-21.513 Y-24.509
X-21.512 Y-24.51
X-21.484 Y-24.517
X-21.483
X-21.455 Y-24.525
X-21.454
X-21.425 Y-24.534
X-21.397 Y-24.542
X-21.368 Y-24.55
Y-24.551
X-21.34 Y-24.559
X-21.329 Y-24.563
X-21.311 Y-24.572
X-21.293 Y-24.58
X-21.275 Y-24.588
Y-24.589
X-21.257 Y-24.597
X-21.256 Y-24.598
X-21.239 Y-24.606
X-21.238 Y-24.607
X-21.221 Y-24.616
X-21.219 Y-24.617
X-21.202 Y-24.626
X-21.201
X-21.184 Y-24.636
X-21.183 Y-24.637
X-21.166 Y-24.646
X-21.164 Y-24.648
X-21.148 Y-24.658
X-21.146 Y-24.659
X-21.13 Y-24.67
X-21.128 Y-24.671
X-21.112 Y-24.682
X-21.11 Y-24.684
X-21.095 Y-24.695
X-21.093 Y-24.697
X-21.078 Y-24.709
X-21.076 Y-24.711
X-21.061 Y-24.723
X-21.06 Y-24.725
X-21.045 Y-24.738
X-21.044 Y-24.739
X-21.03 Y-24.752
X-21.029 Y-24.754
X-21.015 Y-24.767
X-21.014 Y-24.768
X-21.001 Y-24.782
X-21 Y-24.783
X-20.986 Y-24.798
X-20.973 Y-24.813
X-20.972
X-20.959 Y-24.828
X-20.946 Y-24.843
X-20.933 Y-24.858
X-20.925 Y-24.869
X-20.917 Y-24.88
Y-24.881
X-20.91 Y-24.893
X-20.902 Y-24.905
Y-24.906
X-20.895 Y-24.918
Y-24.919
X-20.888 Y-24.931
X-20.887 Y-24.932
X-20.881 Y-24.944
X-20.88 Y-24.945
X-20.874 Y-24.958
X-20.873 Y-24.959
X-20.867 Y-24.972
X-20.866 Y-24.973
X-20.86 Y-24.986
X-20.859 Y-24.989
X-20.854 Y-25.001
X-20.853 Y-25.003
X-20.848 Y-25.016
X-20.847 Y-25.019
X-20.843 Y-25.032
X-20.842 Y-25.035
X-20.838 Y-25.048
X-20.837 Y-25.051
X-20.834 Y-25.064
X-20.833 Y-25.067
X-20.83 Y-25.08
Y-25.082
X-20.827 Y-25.095
Y-25.097
X-20.825 Y-25.111
Y-25.113
X-20.823 Y-25.127
Y-25.128
X-20.821 Y-25.142
Y-25.143
X-20.819 Y-25.157
Y-25.158
X-20.818 Y-25.171
Y-25.172
X-20.817 Y-25.186
Y-25.187
X-20.816 Y-25.201
X-20.815 Y-25.215
Y-25.227
X-20.817 Y-25.245
Y-25.246
X-20.821 Y-25.281
Y-25.282
X-20.823 Y-25.299
Y-25.3
X-20.825 Y-25.317
X-20.826 Y-25.319
X-20.828 Y-25.336
X-20.829 Y-25.338
X-20.832 Y-25.355
Y-25.358
X-20.836 Y-25.374
Y-25.377
X-20.841 Y-25.393
Y-25.396
X-20.846 Y-25.413
X-20.847 Y-25.416
X-20.853 Y-25.432
X-20.854 Y-25.435
X-20.86 Y-25.451
X-20.862 Y-25.455
X-20.869 Y-25.47
X-20.871 Y-25.473
X-20.878 Y-25.488
X-20.88 Y-25.492
X-20.889 Y-25.506
X-20.89 Y-25.509
X-20.899 Y-25.523
X-20.901 Y-25.525
X-20.91 Y-25.539
X-20.912 Y-25.541
X-20.922 Y-25.555
X-20.923 Y-25.557
X-20.933 Y-25.57
X-20.935 Y-25.572
X-20.945 Y-25.585
X-20.946 Y-25.586
X-20.957 Y-25.6
X-20.958 Y-25.601
X-20.97 Y-25.614
X-20.981 Y-25.627
Y-25.628
X-20.993 Y-25.641
X-21.007 Y-25.654
X-21.019 Y-25.662
X-21.02 Y-25.663
X-21.032 Y-25.671
X-21.044 Y-25.679
X-21.045 Y-25.68
X-21.057 Y-25.688
X-21.069 Y-25.696
X-21.071 Y-25.697
X-21.083 Y-25.705
X-21.084 Y-25.706
X-21.097 Y-25.713
X-21.098 Y-25.714
X-21.11 Y-25.721
X-21.112 Y-25.722
X-21.125 Y-25.729
X-21.126 Y-25.73
X-21.139 Y-25.736
X-21.141 Y-25.738
X-21.154 Y-25.744
X-21.157 Y-25.745
X-21.17 Y-25.751
X-21.171
X-21.185 Y-25.757
X-21.187 Y-25.758
X-21.201 Y-25.763
X-21.203 Y-25.764
X-21.216 Y-25.768
X-21.217 Y-25.769
X-21.231 Y-25.773
X-21.233 Y-25.774
X-21.247 Y-25.778
X-21.248
X-21.262 Y-25.782
X-21.263 Y-25.783
X-21.277 Y-25.787
X-21.278
X-21.284 Y-25.788
Z5
X-21.964 Y-25.465
Z-0.3
X-21.965 Y-25.468
X-21.974 Y-25.485
X-21.976 Y-25.488
X-21.985 Y-25.505
X-21.987 Y-25.508
X-21.997 Y-25.524
X-21.999 Y-25.526
X-22.01 Y-25.542
X-22.011 Y-25.544
X-22.023 Y-25.56
X-22.024 Y-25.561
X-22.036 Y-25.577
X-22.037 Y-25.578
X-22.049 Y-25.593
X-22.05 Y-25.594
X-22.063 Y-25.61
X-22.064
X-22.076 Y-25.625
X-22.077 Y-25.626
X-22.09 Y-25.641
X-22.104 Y-25.656
X-22.117 Y-25.668
X-22.136 Y-25.681
Y-25.682
X-22.154 Y-25.694
X-22.155 Y-25.695
X-22.173 Y-25.707
X-22.174 Y-25.708
X-22.193 Y-25.72
X-22.194 Y-25.721
X-22.212 Y-25.733
X-22.214 Y-25.734
X-22.232 Y-25.745
X-22.234 Y-25.747
X-22.253 Y-25.758
X-22.255 Y-25.759
X-22.274 Y-25.769
X-22.277 Y-25.77
X-22.296 Y-25.78
X-22.299 Y-25.781
X-22.319 Y-25.79
X-22.322 Y-25.792
X-22.342 Y-25.8
X-22.346 Y-25.801
X-22.366 Y-25.808
X-22.369 Y-25.809
X-22.39 Y-25.816
X-22.393
X-22.414 Y-25.822
X-22.417
X-22.438 Y-25.827
X-22.441
X-22.462 Y-25.831
X-22.465 Y-25.832
X-22.487 Y-25.835
X-22.488
X-22.51 Y-25.838
X-22.512
X-22.534 Y-25.84
X-22.536 Y-25.841
X-22.558 Y-25.842
X-22.559 Y-25.843
X-22.581 Y-25.844
X-22.582
X-22.605 Y-25.846
X-22.627 Y-25.847
X-22.628
X-22.65 Y-25.848
X-22.658
X-22.705 Y-25.845
X-22.706
X-22.729 Y-25.844
X-22.753 Y-25.842
X-22.754
X-22.777 Y-25.84
X-22.778
X-22.801 Y-25.838
X-22.803
X-22.826 Y-25.835
X-22.827 Y-25.834
X-22.85 Y-25.831
X-22.853
X-22.875 Y-25.827
X-22.877 Y-25.826
X-22.9 Y-25.822
X-22.902 Y-25.821
X-22.924 Y-25.815
X-22.927
X-22.949 Y-25.808
X-22.952 Y-25.807
X-22.974 Y-25.8
X-22.977 Y-25.799
X-22.998 Y-25.79
X-23.001 Y-25.789
X-23.021 Y-25.78
X-23.024 Y-25.779
X-23.044 Y-25.769
X-23.047 Y-25.768
X-23.067 Y-25.757
X-23.069 Y-25.756
X-23.089 Y-25.745
X-23.09 Y-25.744
X-23.11 Y-25.732
X-23.112 Y-25.731
X-23.131 Y-25.719
X-23.132 Y-25.718
X-23.151 Y-25.705
X-23.152
X-23.171 Y-25.692
X-23.172
X-23.211 Y-25.665
X-23.224 Y-25.654
X-23.237 Y-25.64
X-23.251 Y-25.626
Y-25.625
X-23.264 Y-25.611
X-23.265 Y-25.61
X-23.278 Y-25.596
X-23.279 Y-25.595
X-23.291 Y-25.58
X-23.293 Y-25.579
X-23.305 Y-25.564
X-23.306 Y-25.563
X-23.318 Y-25.548
X-23.319 Y-25.546
X-23.331 Y-25.531
X-23.332 Y-25.529
X-23.343 Y-25.513
X-23.345 Y-25.51
X-23.355 Y-25.494
X-23.356 Y-25.491
X-23.366 Y-25.475
X-23.368 Y-25.472
X-23.376 Y-25.455
X-23.378 Y-25.452
X-23.385 Y-25.435
X-23.387 Y-25.43
X-23.394 Y-25.413
X-23.395 Y-25.41
X-23.4 Y-25.392
X-23.401 Y-25.389
X-23.406 Y-25.371
X-23.407 Y-25.368
X-23.412 Y-25.35
Y-25.347
X-23.416 Y-25.329
Y-25.326
X-23.42 Y-25.307
Y-25.306
X-23.423 Y-25.287
Y-25.285
X-23.426 Y-25.266
Y-25.265
X-23.428 Y-25.246
X-23.431 Y-25.226
X-23.433 Y-25.206
Y-25.192
X-23.432 Y-25.178
X-23.431 Y-25.164
Y-25.163
X-23.43 Y-25.15
Y-25.149
X-23.428 Y-25.136
Y-25.135
X-23.427 Y-25.121
X-23.425 Y-25.107
Y-25.106
X-23.423 Y-25.092
Y-25.09
X-23.42 Y-25.077
Y-25.076
X-23.418 Y-25.063
X-23.417 Y-25.06
X-23.415 Y-25.047
X-23.414 Y-25.045
X-23.411 Y-25.032
X-23.41 Y-25.029
X-23.406 Y-25.016
Y-25.014
X-23.402 Y-25.002
X-23.401 Y-24.999
X-23.396 Y-24.986
Y-24.985
X-23.391 Y-24.972
X-23.39 Y-24.97
X-23.385 Y-24.958
X-23.384 Y-24.956
X-23.378 Y-24.944
Y-24.942
X-23.372 Y-24.93
Y-24.929
X-23.366 Y-24.917
X-23.365 Y-24.916
X-23.359 Y-24.904
X-23.358 Y-24.903
X-23.352 Y-24.891
Y-24.89
X-23.345 Y-24.879
Y-24.878
X-23.332 Y-24.854
X-23.325 Y-24.844
X-23.317 Y-24.832
X-23.308 Y-24.821
X-23.307 Y-24.82
X-23.298 Y-24.808
X-23.289 Y-24.796
X-23.288 Y-24.795
X-23.279 Y-24.784
X-23.278 Y-24.783
X-23.268 Y-24.771
X-23.259 Y-24.76
X-23.257 Y-24.758
X-23.247 Y-24.747
X-23.246 Y-24.745
X-23.235 Y-24.735
X-23.234 Y-24.734
X-23.224 Y-24.723
X-23.222 Y-24.722
X-23.212 Y-24.712
X-23.209 Y-24.709
X-23.198 Y-24.7
X-23.197 Y-24.698
X-23.185 Y-24.689
X-23.183 Y-24.687
X-23.171 Y-24.678
X-23.169 Y-24.677
X-23.158 Y-24.669
X-23.156 Y-24.667
X-23.144 Y-24.659
X-23.142 Y-24.658
X-23.13 Y-24.65
X-23.129 Y-24.649
X-23.116 Y-24.642
X-23.114 Y-24.641
X-23.102 Y-24.633
X-23.101
X-23.088 Y-24.626
X-23.087 Y-24.625
X-23.075 Y-24.618
X-23.073 Y-24.617
X-23.06 Y-24.61
X-23.048 Y-24.603
X-23.047
X-23.034 Y-24.596
X-23.026 Y-24.592
X-23.011 Y-24.587
X-22.996 Y-24.581
X-22.982 Y-24.575
X-22.981
X-22.966 Y-24.569
X-22.951 Y-24.563
X-22.95
X-22.936 Y-24.558
X-22.934 Y-24.557
X-22.919 Y-24.552
X-22.918
X-22.904 Y-24.547
X-22.902 Y-24.546
X-22.887 Y-24.542
X-22.886 Y-24.541
X-22.871 Y-24.537
X-22.869
X-22.854 Y-24.533
X-22.852 Y-24.532
X-22.836 Y-24.529
X-22.835 Y-24.528
X-22.82 Y-24.525
X-22.817
X-22.802 Y-24.522
X-22.8
X-22.785 Y-24.519
X-22.783
X-22.768 Y-24.517
X-22.766
X-22.751 Y-24.515
X-22.75
X-22.734 Y-24.513
X-22.732
X-22.717 Y-24.512
X-22.716
X-22.701 Y-24.51
X-22.7
X-22.685 Y-24.509
X-22.684
X-22.668 Y-24.508
X-22.652 Y-24.507
X-22.651
X-22.636
X-22.626
X-22.604 Y-24.508
X-22.583 Y-24.51
X-22.582
X-22.56 Y-24.511
X-22.559 Y-24.512
X-22.537 Y-24.514
X-22.515 Y-24.516
X-22.513
X-22.492 Y-24.519
X-22.49
X-22.469 Y-24.522
X-22.467
X-22.446 Y-24.526
X-22.444 Y-24.527
X-22.423 Y-24.531
X-22.42 Y-24.532
X-22.4 Y-24.537
X-22.397
X-22.377 Y-24.543
X-22.373 Y-24.544
X-22.353 Y-24.551
X-22.35 Y-24.552
X-22.33 Y-24.56
X-22.327 Y-24.561
X-22.308 Y-24.57
X-22.305 Y-24.571
X-22.286 Y-24.581
X-22.283 Y-24.582
X-22.264 Y-24.592
X-22.262 Y-24.594
X-22.244 Y-24.604
X-22.242 Y-24.606
X-22.224 Y-24.617
X-22.222 Y-24.619
X-22.204 Y-24.631
X-22.203
X-22.186 Y-24.644
X-22.185
X-22.167 Y-24.657
X-22.166 Y-24.658
X-22.149 Y-24.671
X-22.148
X-22.114 Y-24.698
X-22.101 Y-24.71
X-22.088 Y-24.725
X-22.075 Y-24.741
X-22.062 Y-24.756
X-22.061 Y-24.757
X-22.049 Y-24.772
X-22.048 Y-24.774
X-22.035 Y-24.789
X-22.034 Y-24.791
X-22.023 Y-24.806
X-22.022 Y-24.808
X-22.01 Y-24.824
X-22.009 Y-24.826
X-21.998 Y-24.842
X-21.996 Y-24.844
X-21.986 Y-24.861
X-21.985 Y-24.864
X-21.975 Y-24.881
X-21.973 Y-24.884
X-21.965 Y-24.901
X-21.963 Y-24.904
X-21.955 Y-24.922
X-21.954 Y-24.925
X-21.947 Y-24.943
X-21.945 Y-24.947
X-21.939 Y-24.965
X-21.938 Y-24.968
X-21.933 Y-24.987
X-21.932 Y-24.99
X-21.927 Y-25.009
Y-25.012
X-21.923 Y-25.031
X-21.922 Y-25.033
X-21.919 Y-25.052
X-21.918 Y-25.054
X-21.915 Y-25.074
Y-25.075
X-21.912 Y-25.095
Y-25.097
X-21.91 Y-25.116
Y-25.118
X-21.908 Y-25.137
X-21.906 Y-25.158
X-21.904 Y-25.178
Y-25.193
X-21.906 Y-25.213
X-21.908 Y-25.233
Y-25.234
X-21.91 Y-25.253
Y-25.254
X-21.912 Y-25.274
Y-25.275
X-21.915 Y-25.295
Y-25.296
X-21.918 Y-25.316
X-21.919 Y-25.318
X-21.922 Y-25.337
X-21.923 Y-25.339
X-21.927 Y-25.358
Y-25.361
X-21.932 Y-25.379
X-21.933 Y-25.383
X-21.938 Y-25.401
X-21.939 Y-25.404
X-21.945 Y-25.422
X-21.947 Y-25.426
X-21.954 Y-25.444
X-21.955 Y-25.448
X-21.963 Y-25.465
X-21.964
Z5
X-23.6 Y-22.67
Z-0.001
X-23.52 Y-22.597 Z-0.3
Y-22.378
X-23.6 Y-22.292 Z-0.001
X-23.52 Y-22.378 Z-0.3
X-23.498 Y-22.379
X-23.462 Y-22.382
X-23.427 Y-22.385
X-23.391 Y-22.389
X-23.356 Y-22.392
X-23.321 Y-22.396
X-23.286 Y-22.4
X-23.251 Y-22.405
X-23.216 Y-22.41
X-23.182 Y-22.416
X-23.147 Y-22.422
X-23.113 Y-22.428
X-23.078 Y-22.435
X-23.043 Y-22.442
X-23.009 Y-22.45
X-22.974 Y-22.458
X-22.939 Y-22.466
X-22.905 Y-22.475
X-22.87 Y-22.483
X-22.835 Y-22.492
X-22.8 Y-22.501
X-22.766 Y-22.509
X-22.726 Y-22.521
X-22.685 Y-22.534
X-22.643 Y-22.546
X-22.602 Y-22.559
X-22.561 Y-22.572
X-22.52 Y-22.585
X-22.48 Y-22.598
X-22.439 Y-22.612
X-22.399 Y-22.626
X-22.359 Y-22.64
X-22.319 Y-22.655
X-22.28 Y-22.67
X-22.241 Y-22.686
X-22.202 Y-22.702
X-22.163 Y-22.719
X-22.124 Y-22.737
X-22.086 Y-22.755
X-22.047 Y-22.773
X-22.008 Y-22.791
X-21.969 Y-22.81
X-21.931 Y-22.829
X-21.892 Y-22.848
X-21.853 Y-22.867
X-21.816 Y-22.886
X-21.715 Y-22.943
X-21.681 Y-22.963
X-21.647 Y-22.982
X-21.613 Y-23.002
X-21.579 Y-23.022
X-21.546 Y-23.042
X-21.513 Y-23.062
X-21.481 Y-23.082
X-21.448 Y-23.103
X-21.416 Y-23.125
X-21.385 Y-23.146
X-21.353 Y-23.168
X-21.322 Y-23.191
X-21.291 Y-23.214
X-21.26 Y-23.237
X-21.229 Y-23.261
X-21.198 Y-23.285
X-21.168 Y-23.309
X-21.137 Y-23.333
X-21.076 Y-23.383
X-21.045 Y-23.408
X-21.019 Y-23.422
X-20.989 Y-23.426
X-20.96 Y-23.418
X-20.936 Y-23.4
X-20.92 Y-23.375
X-20.914 Y-23.346
X-20.912 Y-21.957
X-20.992 Y-21.876 Z-0.001
X-20.912 Y-21.957 Z-0.3
X-20.719
X-20.639 Y-21.877 Z-0.001
X-20.719 Y-21.957 Z-0.3
X-20.722 Y-23.738
X-20.642 Y-23.818 Z-0.001
X-20.722 Y-23.738 Z-0.3
X-20.898
X-20.907 Y-23.73
X-20.939 Y-23.703
X-20.971 Y-23.676
X-21.003 Y-23.65
Y-23.649
X-21.035 Y-23.623
X-21.067 Y-23.597
X-21.068 Y-23.596
X-21.1 Y-23.57
X-21.133 Y-23.544
X-21.134
X-21.166 Y-23.518
X-21.167
X-21.2 Y-23.493
X-21.201 Y-23.492
X-21.234 Y-23.468
X-21.235 Y-23.467
X-21.269 Y-23.444
X-21.27 Y-23.443
X-21.304 Y-23.42
X-21.305 Y-23.419
X-21.339 Y-23.396
X-21.34
X-21.374 Y-23.373
X-21.375
X-21.41 Y-23.351
Y-23.35
X-21.445 Y-23.328
X-21.446
X-21.481 Y-23.306
X-21.482
X-21.517 Y-23.285
X-21.518 Y-23.284
X-21.553 Y-23.263
X-21.589 Y-23.242
X-21.625 Y-23.221
X-21.661 Y-23.2
X-21.697 Y-23.179
X-21.7 Y-23.178
X-21.742 Y-23.156
X-21.784 Y-23.134
X-21.826 Y-23.112
X-21.867 Y-23.091
X-21.868 Y-23.09
X-21.91 Y-23.069
X-21.952 Y-23.048
X-21.953 Y-23.047
X-21.995 Y-23.027
X-21.996 Y-23.026
X-22.038 Y-23.006
X-22.039 Y-23.005
X-22.081 Y-22.985
X-22.082
X-22.125 Y-22.966
X-22.126 Y-22.965
X-22.168 Y-22.946
X-22.169
X-22.212 Y-22.927
X-22.214
X-22.257 Y-22.909
X-22.258 Y-22.908
X-22.302 Y-22.891
X-22.303
X-22.346 Y-22.874
X-22.347
X-22.391 Y-22.857
X-22.392
X-22.436 Y-22.841
X-22.437
X-22.481 Y-22.825
X-22.482
X-22.526 Y-22.81
X-22.527
X-22.571 Y-22.795
X-22.572 Y-22.794
X-22.617 Y-22.78
X-22.661 Y-22.765
X-22.662
X-22.751 Y-22.736
X-22.756 Y-22.735
X-22.79 Y-22.726
X-22.824 Y-22.717
X-22.858 Y-22.708
X-22.892 Y-22.7
X-22.926 Y-22.691
X-22.927
X-22.961 Y-22.683
X-22.995 Y-22.675
X-22.996
X-23.03 Y-22.667
X-23.031
X-23.065 Y-22.66
X-23.066
X-23.1 Y-22.653
X-23.101
X-23.135 Y-22.646
X-23.136
X-23.17 Y-22.64
X-23.171 Y-22.639
X-23.206 Y-22.634
X-23.207
X-23.241 Y-22.628
X-23.242
X-23.277 Y-22.623
X-23.278
X-23.312 Y-22.619
X-23.313
X-23.347 Y-22.615
X-23.348 Y-22.614
X-23.383 Y-22.61
X-23.418 Y-22.607
X-23.453 Y-22.603
X-23.488 Y-22.6
X-23.489
X-23.52 Y-22.597
Z5
X-23.597 Y-20.904
Z-0.001
X-23.517 Y-20.824 Z-0.3
Y-20.616
X-23.597 Y-20.536 Z-0.001
X-23.517 Y-20.616 Z-0.3
X-21.25 Y-20.62
X-21.22 Y-20.614
X-21.195 Y-20.598
X-21.177 Y-20.573
X-21.17 Y-20.543
X-21.174 Y-20.513
X-21.189 Y-20.487
X-21.201 Y-20.473
X-21.213 Y-20.46
X-21.247 Y-20.419
X-21.258 Y-20.406
X-21.269 Y-20.392
X-21.28 Y-20.379
X-21.291 Y-20.366
X-21.301 Y-20.352
X-21.311 Y-20.339
X-21.321 Y-20.325
X-21.331 Y-20.311
X-21.341 Y-20.297
X-21.35 Y-20.283
X-21.36 Y-20.269
X-21.369 Y-20.254
X-21.379 Y-20.239
X-21.388 Y-20.224
X-21.397 Y-20.21
X-21.434 Y-20.149
X-21.469 Y-20.088
X-21.477 Y-20.073
X-21.486 Y-20.057
X-21.494 Y-20.042
X-21.503 Y-20.026
X-21.519 Y-19.995
X-21.534 Y-19.965
X-21.542 Y-19.949
X-21.549 Y-19.933
X-21.556 Y-19.918
X-21.563 Y-19.902
X-21.572 Y-19.882
X-21.692 Y-19.802 Z-0.001
X-21.572 Y-19.882 Z-0.3
X-21.386 Y-19.883
X-21.337 Y-19.803 Z-0.001
X-21.386 Y-19.883 Z-0.3
X-21.384 Y-19.887
X-21.371 Y-19.911
Y-19.912
X-21.359 Y-19.936
X-21.346 Y-19.96
Y-19.961
X-21.333 Y-19.984
Y-19.985
X-21.32 Y-20.009
X-21.307 Y-20.033
X-21.306 Y-20.034
X-21.293 Y-20.057
X-21.292 Y-20.058
X-21.278 Y-20.081
Y-20.082
X-21.264 Y-20.105
X-21.263 Y-20.106
X-21.249 Y-20.129
X-21.248 Y-20.13
X-21.233 Y-20.153
X-21.232 Y-20.154
X-21.217 Y-20.176
X-21.216 Y-20.177
X-21.201 Y-20.199
X-21.2 Y-20.2
X-21.184 Y-20.221
Y-20.222
X-21.168 Y-20.244
X-21.167
X-21.151 Y-20.266
X-21.15
X-21.134 Y-20.288
X-21.133
X-21.116 Y-20.309
Y-20.31
X-21.099 Y-20.331
X-21.082 Y-20.352
X-21.065 Y-20.373
X-21.048 Y-20.394
X-21.044 Y-20.398
X-21.03 Y-20.414
X-21.015 Y-20.43
X-21.014
X-20.999 Y-20.446
X-20.984 Y-20.462
Y-20.463
X-20.969 Y-20.478
X-20.968 Y-20.479
X-20.953 Y-20.494
Y-20.495
X-20.937 Y-20.51
X-20.936 Y-20.511
X-20.921 Y-20.526
X-20.92 Y-20.527
X-20.904 Y-20.542
X-20.903 Y-20.543
X-20.888 Y-20.557
X-20.886 Y-20.558
X-20.87 Y-20.573
X-20.869 Y-20.574
X-20.852 Y-20.588
X-20.851
X-20.835 Y-20.602
X-20.833 Y-20.603
X-20.816 Y-20.617
X-20.814 Y-20.618
X-20.797 Y-20.631
X-20.796
X-20.779 Y-20.644
X-20.777 Y-20.645
X-20.759 Y-20.657
X-20.758 Y-20.658
X-20.74 Y-20.67
X-20.721 Y-20.682
Y-20.683
X-20.702 Y-20.694
Y-20.695
X-20.683 Y-20.706
X-20.665 Y-20.717
X-20.666 Y-20.828
X-20.586 Y-20.908 Z-0.001
X-20.666 Y-20.828 Z-0.3
X-23.517 Y-20.824
Z5
X-22.896 Y-16.078
Z-0.001
X-22.968 Y-16.173 Z-0.3
X-22.95 Y-16.368
X-22.864 Y-16.431 Z-0.001
X-22.95 Y-16.368 Z-0.3
X-22.967 Y-16.372
X-22.968
X-22.984 Y-16.376
X-22.986 Y-16.377
X-23.002 Y-16.381
X-23.004 Y-16.382
X-23.02 Y-16.387
X-23.022
X-23.038 Y-16.393
X-23.04
X-23.056 Y-16.399
X-23.058 Y-16.4
X-23.074 Y-16.406
X-23.077 Y-16.407
X-23.092 Y-16.414
X-23.094 Y-16.415
X-23.11 Y-16.422
X-23.112 Y-16.423
X-23.127 Y-16.431
X-23.13 Y-16.433
X-23.145 Y-16.441
X-23.147 Y-16.443
X-23.161 Y-16.451
X-23.163 Y-16.453
X-23.177 Y-16.462
X-23.179 Y-16.464
X-23.193 Y-16.473
X-23.194 Y-16.474
X-23.208 Y-16.484
X-23.209 Y-16.486
X-23.223 Y-16.496
X-23.237 Y-16.507
X-23.238 Y-16.508
X-23.251 Y-16.519
X-23.264 Y-16.53
X-23.265 Y-16.531
X-23.278 Y-16.542
X-23.292 Y-16.556
X-23.3 Y-16.569
X-23.301
X-23.309 Y-16.581
X-23.31 Y-16.582
X-23.318 Y-16.594
X-23.319 Y-16.595
X-23.327 Y-16.607
Y-16.608
X-23.335 Y-16.62
X-23.337 Y-16.622
X-23.344 Y-16.635
X-23.345 Y-16.636
X-23.352 Y-16.648
X-23.354 Y-16.65
X-23.361 Y-16.663
X-23.362 Y-16.666
X-23.369 Y-16.679
X-23.37 Y-16.681
X-23.376 Y-16.694
X-23.377 Y-16.697
X-23.383 Y-16.71
X-23.384 Y-16.714
X-23.389 Y-16.727
X-23.39 Y-16.731
X-23.394 Y-16.744
X-23.395 Y-16.748
X-23.399 Y-16.762
X-23.4 Y-16.764
X-23.403 Y-16.778
X-23.404 Y-16.781
X-23.406 Y-16.795
X-23.407 Y-16.798
X-23.409 Y-16.812
Y-16.813
X-23.412 Y-16.828
Y-16.83
X-23.414 Y-16.845
Y-16.846
X-23.415 Y-16.861
Y-16.862
X-23.416 Y-16.877
X-23.417 Y-16.878
X-23.418 Y-16.892
Y-16.893
X-23.419 Y-16.908
X-23.42 Y-16.923
Y-16.932
X-23.419 Y-16.945
X-23.418 Y-16.959
Y-16.972
X-23.417 Y-16.985
Y-16.987
X-23.414 Y-17.013
Y-17.015
X-23.413 Y-17.028
Y-17.03
X-23.411 Y-17.043
Y-17.044
X-23.409 Y-17.057
Y-17.059
X-23.406 Y-17.071
Y-17.074
X-23.403 Y-17.086
Y-17.088
X-23.4 Y-17.101
X-23.399 Y-17.104
X-23.396 Y-17.116
X-23.395 Y-17.119
X-23.391 Y-17.131
X-23.39 Y-17.133
X-23.386 Y-17.146
Y-17.147
X-23.381 Y-17.16
X-23.38 Y-17.162
X-23.375 Y-17.173
Y-17.174
X-23.37 Y-17.186
X-23.369 Y-17.188
X-23.364 Y-17.2
Y-17.201
X-23.358 Y-17.213
Y-17.214
X-23.352 Y-17.226
X-23.346 Y-17.238
X-23.334 Y-17.262
X-23.328 Y-17.272
X-23.314 Y-17.292
Y-17.293
X-23.306 Y-17.303
X-23.299 Y-17.314
X-23.291 Y-17.324
Y-17.325
X-23.283 Y-17.335
Y-17.336
X-23.275 Y-17.346
X-23.274 Y-17.347
X-23.267 Y-17.356
X-23.265 Y-17.358
X-23.258 Y-17.367
X-23.257 Y-17.368
X-23.249 Y-17.378
X-23.247 Y-17.379
X-23.239 Y-17.389
X-23.238 Y-17.39
X-23.229 Y-17.399
X-23.227 Y-17.401
X-23.218 Y-17.409
X-23.217 Y-17.411
X-23.208 Y-17.419
X-23.207 Y-17.42
X-23.197 Y-17.429
X-23.196 Y-17.43
X-23.186 Y-17.438
X-23.185 Y-17.439
X-23.176 Y-17.446
X-23.175 Y-17.448
X-23.165 Y-17.455
X-23.164 Y-17.456
X-23.154 Y-17.463
Y-17.464
X-23.144 Y-17.471
X-23.143 Y-17.472
X-23.133 Y-17.479
X-23.132 Y-17.48
X-23.122 Y-17.487
X-23.112 Y-17.494
X-23.111 Y-17.495
X-23.101 Y-17.502
X-23.093 Y-17.507
X-23.065 Y-17.522
X-23.051 Y-17.53
X-23.05
X-23.036 Y-17.537
X-23.022 Y-17.544
X-23.021 Y-17.545
X-23.007 Y-17.552
X-22.992 Y-17.559
X-22.991 Y-17.56
X-22.977 Y-17.566
X-22.976 Y-17.567
X-22.962 Y-17.573
X-22.961 Y-17.574
X-22.946 Y-17.58
X-22.945 Y-17.581
X-22.93 Y-17.587
X-22.929
X-22.915 Y-17.593
X-22.913 Y-17.594
X-22.898 Y-17.599
X-22.897 Y-17.6
X-22.883 Y-17.605
X-22.881 Y-17.606
X-22.866 Y-17.611
X-22.865
X-22.85 Y-17.616
X-22.835 Y-17.621
X-22.834
X-22.819 Y-17.625
X-22.818 Y-17.626
X-22.803 Y-17.63
X-22.802
X-22.787 Y-17.635
X-22.786
X-22.771 Y-17.639
X-22.756 Y-17.643
X-22.755
X-22.74 Y-17.647
X-22.725 Y-17.651
X-22.721 Y-17.652
X-22.703 Y-17.656
X-22.702
X-22.684 Y-17.66
X-22.665 Y-17.664
Y-17.665
X-22.646 Y-17.668
Y-17.669
X-22.627 Y-17.672
X-22.608 Y-17.676
X-22.589 Y-17.68
X-22.57 Y-17.683
X-22.569 Y-17.684
X-22.551 Y-17.687
X-22.55
X-22.531 Y-17.69
X-22.53
X-22.511 Y-17.693
X-22.51
X-22.491 Y-17.695
X-22.49 Y-17.696
X-22.471 Y-17.698
X-22.47
X-22.451 Y-17.7
X-22.45
X-22.432 Y-17.702
X-22.43
X-22.411 Y-17.703
X-22.392 Y-17.704
X-22.391
X-22.372 Y-17.706
X-22.353 Y-17.707
X-22.352
X-22.314 Y-17.708
X-22.295 Y-17.709
X-22.294
X-22.275 Y-17.71
X-22.257
X-22.254
X-22.251
X-22.248
X-22.247
X-22.242
X-22.239
X-22.237
X-22.236
X-22.233
X-22.231
X-22.229
X-22.227
X-22.224
X-22.222
X-22.22
X-22.218
X-22.215
X-22.211 Y-17.709
X-22.208
X-22.205
X-22.202
X-22.199
X-22.196
X-22.193
X-22.19
X-22.187
X-22.186
X-22.184 Y-17.708
X-22.181
X-22.178
X-22.146 Y-17.7
X-22.119 Y-17.68
X-22.104 Y-17.652
X-22.1 Y-17.619
X-22.111 Y-17.588
X-22.133 Y-17.563
X-22.175 Y-17.532
X-22.188 Y-17.522
X-22.202 Y-17.512
X-22.214 Y-17.502
X-22.227 Y-17.492
X-22.239 Y-17.482
X-22.251 Y-17.471
X-22.262 Y-17.461
X-22.273 Y-17.45
X-22.283 Y-17.44
X-22.293 Y-17.429
X-22.303 Y-17.417
X-22.313 Y-17.405
