(1001)
G90 G94
G17
G21
(When using Fusion 360 for Personal Use, the feedrate of)
(rapid moves is reduced to match the feedrate of cutting)
(moves, which can increase machining time. Unrestricted rapid)
(moves are available with a Fusion 360 Subscription.)

(2D-Kontur4)
S6000 M3
G54
G0 X-97.54 Y-61.406
Z15
G1 Z5 F1000
Z2 F333.3
Z-0.683
G18 G2 X-97.223 Z-1 I0.317 K0 F1000
G1 X-96.905
G17 G3 X-96.588 Y-61.088 I0 J0.318
G1 Y-45
G3 X-99.151 Y-41.695 I-3.412 J0
G2 X-142.607 Y-13.578 I20.304 J79.021
G3 X-148.331 Y-14.19 I-2.667 J-2.129
G1 X-160.115 Y-37.942
G3 X-160.185 Y-40.824 I3.057 J-1.516
G1 X-138.128 Y-91.365
G3 X-135 Y-93.412 I3.128 J1.365
G1 X-100
G3 X-96.588 Y-90 I0 J3.412
G1 Y-61.088
G3 X-96.905 Y-60.771 I-0.317 J0
G1 X-97.223
G18 G3 X-97.54 Z-0.683 I0 K0.317
G1 Z5
Y-61.406
Z1 F333.3
Z-1.683
G2 X-97.223 Z-2 I0.317 K0 F1000
G1 X-96.905
G17 G3 X-96.588 Y-61.088 I0 J0.318
G1 Y-45
G3 X-99.151 Y-41.695 I-3.412 J0
G2 X-142.607 Y-13.578 I20.304 J79.021
G3 X-148.331 Y-14.19 I-2.667 J-2.129
G1 X-160.115 Y-37.942
G3 X-160.185 Y-40.824 I3.057 J-1.516
G1 X-138.128 Y-91.365
G3 X-135 Y-93.412 I3.128 J1.365
G1 X-100
G3 X-96.588 Y-90 I0 J3.412
G1 Y-61.088
G3 X-96.905 Y-60.771 I-0.317 J0
G1 X-97.223
G18 G3 X-97.54 Z-1.683 I0 K0.317
G1 Z5
Y-61.406
Z0 F333.3
Z-2.683
G2 X-97.223 Z-3 I0.317 K0 F1000
G1 X-96.905
G17 G3 X-96.588 Y-61.088 I0 J0.318
G1 Y-45
G3 X-99.151 Y-41.695 I-3.412 J0
G2 X-142.607 Y-13.578 I20.304 J79.021
G3 X-148.331 Y-14.19 I-2.667 J-2.129
G1 X-160.115 Y-37.942
G3 X-160.185 Y-40.824 I3.057 J-1.516
G1 X-138.128 Y-91.365
G3 X-135 Y-93.412 I3.128 J1.365
G1 X-100
G3 X-96.588 Y-90 I0 J3.412
G1 Y-61.088
G3 X-96.905 Y-60.771 I-0.317 J0
G1 X-97.223
G18 G3 X-97.54 Z-2.683 I0 K0.318
G1 Z15
G17
(When using Fusion 360 for Personal Use, the feedrate of)
(rapid moves is reduced to match the feedrate of cutting)
(moves, which can increase machining time. Unrestricted rapid)
(moves are available with a Fusion 360 Subscription.)

(2D-Kontur5)
G0 X-128.211 Y-93.54
G1 Z15 F1000
Z5
Z2 F333.3
Z-0.683
G19 G3 Y-93.223 Z-1 J0.317 K0 F1000
G1 Y-92.905
G17 G3 X-128.529 Y-92.588 I-0.317 J0
G1 X-135
G2 X-137.372 Y-91.035 I-0.001 J2.588
G1 X-159.429 Y-40.495
G2 X-159.377 Y-38.31 I2.371 J1.036
G1 X-159.376 Y-38.309
X-147.591 Y-14.557
G2 X-147.03 Y-13.807 I2.318 J-1.15
X-143.251 Y-14.093 I1.757 J-1.9
G3 X-99.356 Y-42.494 I64.405 J51.418
G2 X-97.412 Y-45 I-0.644 J-2.506
G1 Y-90
G2 X-100 Y-92.588 I-2.588 J0
G1 X-128.529
G3 X-128.846 Y-92.905 I0 J-0.317
G1 Y-93.223
G19 G2 Y-93.54 Z-0.683 J0 K0.317
G1 Z5
X-128.211
Z1 F333.3
Z-1.683
G3 Y-93.223 Z-2 J0.317 K0 F1000
G1 Y-92.905
G17 G3 X-128.529 Y-92.588 I-0.317 J0
G1 X-135
G2 X-137.372 Y-91.035 I-0.001 J2.588
G1 X-159.429 Y-40.495
G2 X-159.377 Y-38.31 I2.371 J1.036
G1 X-159.376 Y-38.309
X-147.591 Y-14.557
G2 X-147.03 Y-13.807 I2.318 J-1.15
X-143.251 Y-14.093 I1.757 J-1.9
G3 X-99.356 Y-42.494 I64.405 J51.418
G2 X-97.412 Y-45 I-0.644 J-2.506
G1 Y-90
G2 X-100 Y-92.588 I-2.588 J0
G1 X-128.529
G3 X-128.846 Y-92.905 I0 J-0.317
G1 Y-93.223
G19 G2 Y-93.54 Z-1.683 J0 K0.317
G1 Z5
X-128.211
Z0 F333.3
Z-2.683
G3 Y-93.223 Z-3 J0.317 K0 F1000
G1 Y-92.905
G17 G3 X-128.529 Y-92.588 I-0.317 J0
G1 X-135
G2 X-137.372 Y-91.035 I-0.001 J2.588
G1 X-159.429 Y-40.495
G2 X-159.377 Y-38.31 I2.371 J1.036
G1 X-159.376 Y-38.309
X-147.591 Y-14.557
G2 X-147.03 Y-13.807 I2.318 J-1.15
X-143.251 Y-14.093 I1.757 J-1.9
G3 X-99.356 Y-42.494 I64.405 J51.418
G2 X-97.412 Y-45 I-0.644 J-2.506
G1 Y-90
G2 X-100 Y-92.588 I-2.588 J0
G1 X-128.529
G3 X-128.846 Y-92.905 I0 J-0.317
G1 Y-93.223
G19 G2 Y-93.54 Z-2.683 J0 K0.318
G1 Z15
G17
(When using Fusion 360 for Personal Use, the feedrate of)
(rapid moves is reduced to match the feedrate of cutting)
(moves, which can increase machining time. Unrestricted rapid)
(moves are available with a Fusion 360 Subscription.)

(2D-Kontur7)
G0 X2.301 Y-41.366
G1 Z15 F1000
Z5
Z2 F333.3
Z-0.683
X2.306 Y-41.359 Z-0.753 F1000
X2.319 Y-41.34 Z-0.82
X2.34 Y-41.308 Z-0.88
X2.367 Y-41.266 Z-0.931
X2.401 Y-41.216 Z-0.969
X2.438 Y-41.16 Z-0.992
X2.477 Y-41.102 Z-1
X2.653 Y-40.837
G3 X2.565 Y-40.397 I-0.264 J0.176
G1 X2.272 Y-40.201
X-15.382 Y-66.682
X-14.695 Y-67.139
X2.958 Y-40.659
X2.565 Y-40.397
G3 X2.125 Y-40.485 I-0.176 J-0.264
G1 X1.949 Y-40.749
X1.91 Y-40.808 Z-0.992
X1.872 Y-40.864 Z-0.969
X1.839 Y-40.914 Z-0.931
X1.811 Y-40.956 Z-0.88
X1.79 Y-40.987 Z-0.82
X1.777 Y-41.007 Z-0.753
X1.773 Y-41.014 Z-0.683
Z5
X2.301 Y-41.366
Z1 F333.3
Z-1.683
X2.306 Y-41.359 Z-1.753 F1000
X2.319 Y-41.34 Z-1.82
X2.34 Y-41.308 Z-1.88
X2.367 Y-41.266 Z-1.931
X2.401 Y-41.216 Z-1.969
X2.438 Y-41.16 Z-1.992
X2.477 Y-41.102 Z-2
X2.653 Y-40.837
G3 X2.565 Y-40.397 I-0.264 J0.176
G1 X2.272 Y-40.201
X-15.382 Y-66.682
X-14.695 Y-67.139
X2.958 Y-40.659
X2.565 Y-40.397
G3 X2.125 Y-40.485 I-0.176 J-0.264
G1 X1.949 Y-40.749
X1.91 Y-40.808 Z-1.992
X1.872 Y-40.864 Z-1.969
X1.839 Y-40.914 Z-1.931
X1.811 Y-40.956 Z-1.88
X1.79 Y-40.987 Z-1.82
X1.777 Y-41.007 Z-1.753
X1.773 Y-41.014 Z-1.683
Z5
X2.301 Y-41.366
Z0 F333.3
Z-2.683
X2.306 Y-41.359 Z-2.753 F1000
X2.319 Y-41.34 Z-2.82
X2.34 Y-41.308 Z-2.88
X2.367 Y-41.266 Z-2.931
X2.401 Y-41.216 Z-2.969
X2.438 Y-41.16 Z-2.992
X2.477 Y-41.102 Z-3
X2.653 Y-40.837
G3 X2.565 Y-40.397 I-0.264 J0.176
G1 X2.272 Y-40.201
X-15.382 Y-66.682
X-14.695 Y-67.139
X2.958 Y-40.659
X2.565 Y-40.397
G3 X2.125 Y-40.485 I-0.176 J-0.264
G1 X1.949 Y-40.749
X1.91 Y-40.808 Z-2.992
X1.872 Y-40.864 Z-2.969
X1.839 Y-40.914 Z-2.931
X1.811 Y-40.956 Z-2.88
X1.79 Y-40.987 Z-2.82
X1.777 Y-41.007 Z-2.753
X1.773 Y-41.014 Z-2.683
Z5
X28.968 Y-41.366
Z2 F333.3
Z-0.683
X28.972 Y-41.359 Z-0.753 F1000
X28.985 Y-41.34 Z-0.82
X29.006 Y-41.308 Z-0.88
X29.034 Y-41.266 Z-0.931
X29.067 Y-41.216 Z-0.969
X29.105 Y-41.16 Z-0.992
X29.144 Y-41.102 Z-1
X29.32 Y-40.837
G3 X29.232 Y-40.397 I-0.264 J0.176
G1 X28.938 Y-40.201
X11.285 Y-66.682
X11.972 Y-67.139
X29.625 Y-40.659
X29.232 Y-40.397
G3 X28.792 Y-40.485 I-0.176 J-0.264
G1 X28.616 Y-40.749
X28.576 Y-40.808 Z-0.992
X28.539 Y-40.864 Z-0.969
X28.506 Y-40.914 Z-0.931
X28.478 Y-40.956 Z-0.88
X28.457 Y-40.987 Z-0.82
X28.444 Y-41.007 Z-0.753
X28.439 Y-41.014 Z-0.683
Z5
X28.968 Y-41.366
Z1 F333.3
Z-1.683
X28.972 Y-41.359 Z-1.753 F1000
X28.985 Y-41.34 Z-1.82
X29.006 Y-41.308 Z-1.88
X29.034 Y-41.266 Z-1.931
X29.067 Y-41.216 Z-1.969
X29.105 Y-41.16 Z-1.992
X29.144 Y-41.102 Z-2
X29.32 Y-40.837
G3 X29.232 Y-40.397 I-0.264 J0.176
G1 X28.938 Y-40.201
X11.285 Y-66.682
X11.972 Y-67.139
X29.625 Y-40.659
X29.232 Y-40.397
G3 X28.792 Y-40.485 I-0.176 J-0.264
G1 X28.616 Y-40.749
X28.576 Y-40.808 Z-1.992
X28.539 Y-40.864 Z-1.969
X28.506 Y-40.914 Z-1.931
X28.478 Y-40.956 Z-1.88
X28.457 Y-40.987 Z-1.82
X28.444 Y-41.007 Z-1.753
X28.439 Y-41.014 Z-1.683
Z5
X28.968 Y-41.366
Z0 F333.3
Z-2.683
X28.972 Y-41.359 Z-2.753 F1000
X28.985 Y-41.34 Z-2.82
X29.006 Y-41.308 Z-2.88
X29.034 Y-41.266 Z-2.931
X29.067 Y-41.216 Z-2.969
X29.105 Y-41.16 Z-2.992
X29.144 Y-41.102 Z-3
X29.32 Y-40.837
G3 X29.232 Y-40.397 I-0.264 J0.176
G1 X28.938 Y-40.201
X11.285 Y-66.682
X11.972 Y-67.139
X29.625 Y-40.659
X29.232 Y-40.397
G3 X28.792 Y-40.485 I-0.176 J-0.264
G1 X28.616 Y-40.749
X28.576 Y-40.808 Z-2.992
X28.539 Y-40.864 Z-2.969
X28.506 Y-40.914 Z-2.931
X28.478 Y-40.956 Z-2.88
X28.457 Y-40.987 Z-2.82
X28.444 Y-41.007 Z-2.753
X28.439 Y-41.014 Z-2.683
Z5
X55.634 Y-41.366
Z2 F333.3
Z-0.683
X55.639 Y-41.359 Z-0.753 F1000
X55.652 Y-41.34 Z-0.82
X55.673 Y-41.308 Z-0.88
X55.701 Y-41.266 Z-0.931
X55.734 Y-41.216 Z-0.969
X55.771 Y-41.16 Z-0.992
X55.811 Y-41.102 Z-1
X55.987 Y-40.837
G3 X55.899 Y-40.397 I-0.264 J0.176
G1 X55.605 Y-40.201
X37.952 Y-66.682
X38.638 Y-67.139
X56.292 Y-40.659
X55.899 Y-40.397
G3 X55.458 Y-40.485 I-0.176 J-0.264
G1 X55.282 Y-40.749
X55.243 Y-40.808 Z-0.992
X55.206 Y-40.864 Z-0.969
X55.172 Y-40.914 Z-0.931
X55.144 Y-40.956 Z-0.88
X55.124 Y-40.987 Z-0.82
X55.11 Y-41.007 Z-0.753
X55.106 Y-41.014 Z-0.683
Z5
X55.634 Y-41.366
Z1 F333.3
Z-1.683
X55.639 Y-41.359 Z-1.753 F1000
X55.652 Y-41.34 Z-1.82
X55.673 Y-41.308 Z-1.88
X55.701 Y-41.266 Z-1.931
X55.734 Y-41.216 Z-1.969
X55.771 Y-41.16 Z-1.992
X55.811 Y-41.102 Z-2
X55.987 Y-40.837
G3 X55.899 Y-40.397 I-0.264 J0.176
G1 X55.605 Y-40.201
X37.952 Y-66.682
X38.638 Y-67.139
X56.292 Y-40.659
X55.899 Y-40.397
G3 X55.458 Y-40.485 I-0.176 J-0.264
G1 X55.282 Y-40.749
X55.243 Y-40.808 Z-1.992
X55.206 Y-40.864 Z-1.969
X55.172 Y-40.914 Z-1.931
X55.144 Y-40.956 Z-1.88
X55.124 Y-40.987 Z-1.82
X55.11 Y-41.007 Z-1.753
X55.106 Y-41.014 Z-1.683
Z5
X55.634 Y-41.366
Z0 F333.3
Z-2.683
X55.639 Y-41.359 Z-2.753 F1000
X55.652 Y-41.34 Z-2.82
X55.673 Y-41.308 Z-2.88
X55.701 Y-41.266 Z-2.931
X55.734 Y-41.216 Z-2.969
X55.771 Y-41.16 Z-2.992
X55.811 Y-41.102 Z-3
X55.987 Y-40.837
G3 X55.899 Y-40.397 I-0.264 J0.176
G1 X55.605 Y-40.201
X37.952 Y-66.682
X38.638 Y-67.139
X56.292 Y-40.659
X55.899 Y-40.397
G3 X55.458 Y-40.485 I-0.176 J-0.264
G1 X55.282 Y-40.749
X55.243 Y-40.808 Z-2.992
X55.206 Y-40.864 Z-2.969
X55.172 Y-40.914 Z-2.931
X55.144 Y-40.956 Z-2.88
X55.124 Y-40.987 Z-2.82
X55.11 Y-41.007 Z-2.753
X55.106 Y-41.014 Z-2.683
Z5
X-24.266 Y-41.432
Z2 F333.3
Z-0.683
X-24.262 Y-41.425 Z-0.753 F1000
X-24.249 Y-41.406 Z-0.82
X-24.228 Y-41.374 Z-0.88
X-24.2 Y-41.333 Z-0.931
X-24.166 Y-41.283 Z-0.969
X-24.129 Y-41.227 Z-0.992
X-24.09 Y-41.168 Z-1
X-23.914 Y-40.904
G3 X-24.002 Y-40.463 I-0.264 J0.176
G1 X-24.395 Y-40.201
X-42.048 Y-66.682
X-41.362 Y-67.139
X-23.708 Y-40.659
X-24.002 Y-40.463
G3 X-24.442 Y-40.551 I-0.176 J-0.264
G1 X-24.618 Y-40.816
X-24.658 Y-40.874 Z-0.992
X-24.695 Y-40.93 Z-0.969
X-24.728 Y-40.98 Z-0.931
X-24.756 Y-41.022 Z-0.88
X-24.777 Y-41.054 Z-0.82
X-24.79 Y-41.073 Z-0.753
X-24.794 Y-41.08 Z-0.683
Z5
X-24.266 Y-41.432
Z1 F333.3
Z-1.683
X-24.262 Y-41.425 Z-1.753 F1000
X-24.249 Y-41.406 Z-1.82
X-24.228 Y-41.374 Z-1.88
X-24.2 Y-41.333 Z-1.931
X-24.166 Y-41.283 Z-1.969
X-24.129 Y-41.227 Z-1.992
X-24.09 Y-41.168 Z-2
X-23.914 Y-40.904
G3 X-24.002 Y-40.463 I-0.264 J0.176
G1 X-24.395 Y-40.201
X-42.048 Y-66.682
X-41.362 Y-67.139
X-23.708 Y-40.659
X-24.002 Y-40.463
G3 X-24.442 Y-40.551 I-0.176 J-0.264
G1 X-24.618 Y-40.816
X-24.658 Y-40.874 Z-1.992
X-24.695 Y-40.93 Z-1.969
X-24.728 Y-40.98 Z-1.931
X-24.756 Y-41.022 Z-1.88
X-24.777 Y-41.054 Z-1.82
X-24.79 Y-41.073 Z-1.753
X-24.794 Y-41.08 Z-1.683
Z5
X-24.266 Y-41.432
Z0 F333.3
Z-2.683
X-24.262 Y-41.425 Z-2.753 F1000
X-24.249 Y-41.406 Z-2.82
X-24.228 Y-41.374 Z-2.88
X-24.2 Y-41.333 Z-2.931
X-24.166 Y-41.283 Z-2.969
X-24.129 Y-41.227 Z-2.992
X-24.09 Y-41.168 Z-3
X-23.914 Y-40.904
G3 X-24.002 Y-40.463 I-0.264 J0.176
G1 X-24.395 Y-40.201
X-42.048 Y-66.682
X-41.362 Y-67.139
X-23.708 Y-40.659
X-24.002 Y-40.463
G3 X-24.442 Y-40.551 I-0.176 J-0.264
G1 X-24.618 Y-40.816
X-24.658 Y-40.874 Z-2.992
X-24.695 Y-40.93 Z-2.969
X-24.728 Y-40.98 Z-2.931
X-24.756 Y-41.022 Z-2.88
X-24.777 Y-41.054 Z-2.82
X-24.79 Y-41.073 Z-2.753
X-24.794 Y-41.08 Z-2.683
Z15
(When using Fusion 360 for Personal Use, the feedrate of)
(rapid moves is reduced to match the feedrate of cutting)
(moves, which can increase machining time. Unrestricted rapid)
(moves are available with a Fusion 360 Subscription.)

(2D-Kontur19)
G0 X40.041 Y-27.587
G1 Z15 F1000
Z5
Z2.5 F333.3
S5000
X-35.456 Z-0.136
G3 X-55.465 Y-39.901 Z-1 I0 J-22.413
S6000
X-55.813 Y-40.624 I20.008 J-10.099 F1000
G1 X-68.261 Y-67.649
X-67.511 Y-67.994
X-55.064 Y-40.969
G2 X-35.456 Y-28.413 I19.608 J-9.031
G1 X48.412
Y-27.587
X-35.456
G3 X-55.465 Y-39.901 I0 J-22.413
S5000
X-55.813 Y-40.624 Z-1.028 I20.008 J-10.099 F333.3
G1 X-67.457 Y-65.905 Z-2
S6000
X-68.261 Y-67.649 F1000
X-67.511 Y-67.994
X-55.064 Y-40.969
G2 X-35.456 Y-28.413 I19.608 J-9.031
G1 X48.412
Y-27.587
X-35.456
G3 X-55.813 Y-40.624 I0 J-22.413
G1 X-67.457 Y-65.905
S5000
X-68.261 Y-67.649 Z-2.067 F333.3
X-67.511 Y-67.994 Z-2.096
X-56.68 Y-44.478 Z-3
S6000
X-55.064 Y-40.969 F1000
G2 X-35.456 Y-28.413 I19.608 J-9.031
G1 X48.412
Y-27.587
X-35.456
G3 X-55.813 Y-40.624 I0 J-22.413
G1 X-67.457 Y-65.905
X-68.261 Y-67.649
X-67.511 Y-67.994
X-56.68 Y-44.478
Z15
M5
M30
