(1001)
(Bearbeiten)
(  Hersteller: ChinaCnc)
(  model: 3040T)
(  description: Generic 3-axis)
(T5  D=3.175 CR=0 - ZMIN=-21.3 - Schaftfraser)
G90 G94
G17
G21
G28 G91 Z0
G90

(Bohrfrasen1)
T5
S6000 M3
G54
G0 X41.381 Y0.317
Z15
Z2
G1 Z0.317 F1000
G18 G3 X41.064 Z0 I-0.317 K0
G1 X40.905
G17 G3 X40.588 Y0 I0 J-0.317
X49.412 Y0 Z-0.5 I4.412 J0
X40.588 Y0 Z-1 I-4.412 J0
X49.412 Y0 Z-1.5 I4.412 J0
X40.588 Y0 Z-2 I-4.412 J0
X49.412 Y0 Z-2.5 I4.412 J0
X40.588 Y0 Z-3 I-4.412 J0
X49.412 Y0 Z-3.5 I4.412 J0
X40.588 Y0 Z-4 I-4.412 J0
X49.412 Y0 Z-4.5 I4.412 J0
X40.588 Y0 Z-5 I-4.412 J0
X49.412 Y0 Z-5.5 I4.412 J0
X40.588 Y0 Z-6 I-4.412 J0
X49.412 Y0 Z-6.5 I4.412 J0
X40.588 Y0 Z-7 I-4.412 J0
X49.412 Y0 Z-7.5 I4.412 J0
X40.588 Y0 Z-8 I-4.412 J0
X49.412 Y0 Z-8.5 I4.412 J0
X40.588 Y0 Z-9 I-4.412 J0
X49.412 Y0 Z-9.5 I4.412 J0
X40.588 Y0 Z-10 I-4.412 J0
X49.412 Y0 Z-10.5 I4.412 J0
X40.588 Y0 Z-11 I-4.412 J0
X49.412 Y0 Z-11.5 I4.412 J0
X40.588 Y0 Z-12 I-4.412 J0
X49.412 Y0 Z-12.5 I4.412 J0
X40.588 Y0 Z-13 I-4.412 J0
X49.412 Y0 Z-13.5 I4.412 J0
X40.588 Y0 Z-14 I-4.412 J0
X49.412 Y0 Z-14.5 I4.412 J0
X40.588 Y0 Z-15 I-4.412 J0
X49.412 Y0 Z-15.5 I4.412 J0
X40.588 Y0 Z-16 I-4.412 J0
X49.412 Y0 Z-16.5 I4.412 J0
X40.588 Y0 Z-17 I-4.412 J0
X49.412 Y0 Z-17.5 I4.412 J0
X40.588 Y0 Z-18 I-4.412 J0
X49.412 Y0 Z-18.5 I4.412 J0
X40.588 Y0 Z-19 I-4.412 J0
X49.412 Y0 Z-19.5 I4.412 J0
X40.588 Y0 Z-20 I-4.412 J0
X49.412 Y0 Z-20.5 I4.412 J0
X40.588 Y0 Z-21 I-4.412 J0
X46.364 Y-4.197 Z-21.3 I4.412 J0
X43.636 Y4.197 I-1.364 J4.197
X46.364 Y-4.197 I1.364 J-4.197
X46.567 Y-3.796 I-0.098 J0.302
G1 X46.518 Y-3.645
X46.496 Y-3.578 Z-21.292
X46.476 Y-3.514 Z-21.269
X46.457 Y-3.457 Z-21.231
X46.442 Y-3.409 Z-21.18
X46.43 Y-3.373 Z-21.12
X46.423 Y-3.351 Z-21.053
X46.42 Y-3.344 Z-20.983
G0 Z5
X-0.078 Y-0.081
Z1.683
G1 Z0 F1000
X0.081
X0.112 Y-0.075
X0.139 Y-0.057
X0.156 Y-0.031
X0.162 Y0
G3 X-0.162 Y0 Z-0.5 I-0.162 J0
X0.162 Y0 Z-1 I0.162 J0
X-0.162 Y0 Z-1.5 I-0.162 J0
X0.162 Y0 Z-2 I0.162 J0
X-0.162 Y0 Z-2.5 I-0.162 J0
X0.162 Y0 Z-3 I0.162 J0
X-0.162 Y0 Z-3.5 I-0.162 J0
X0.162 Y0 Z-4 I0.162 J0
X-0.162 Y0 Z-4.5 I-0.162 J0
X0.162 Y0 Z-5 I0.162 J0
X-0.162 Y0 Z-5.5 I-0.162 J0
X0.162 Y0 Z-6 I0.162 J0
X-0.162 Y0 Z-6.5 I-0.162 J0
X0.162 Y0 Z-7 I0.162 J0
X-0.162 Y0 Z-7.5 I-0.162 J0
X0.162 Y0 Z-8 I0.162 J0
X-0.162 Y0 Z-8.5 I-0.162 J0
X0.162 Y0 Z-9 I0.162 J0
X-0.162 Y0 Z-9.5 I-0.162 J0
X0.162 Y0 Z-10 I0.162 J0
X-0.162 Y0 Z-10.5 I-0.162 J0
X0.162 Y0 Z-11 I0.162 J0
X-0.162 Y0 Z-11.5 I-0.162 J0
X0.162 Y0 Z-12 I0.162 J0
X-0.162 Y0 Z-12.5 I-0.162 J0
X0.162 Y0 Z-13 I0.162 J0
X-0.162 Y0 Z-13.5 I-0.162 J0
X0.162 Y0 Z-14 I0.162 J0
X-0.162 Y0 Z-14.5 I-0.162 J0
X0.162 Y0 Z-15 I0.162 J0
X-0.162 Y0 Z-15.5 I-0.162 J0
X0.162 Y0 Z-16 I0.162 J0
X-0.162 Y0 Z-16.5 I-0.162 J0
X0.162 Y0 Z-17 I0.162 J0
X-0.162 Y0 Z-17.5 I-0.162 J0
X0.162 Y0 Z-18 I0.162 J0
X-0.162 Y0 Z-18.5 I-0.162 J0
X0.162 Y0 Z-19 I0.162 J0
X-0.162 Y0 Z-19.5 I-0.162 J0
X0.162 Y0 Z-20 I0.162 J0
X-0.162 Y0 Z-20.5 I-0.162 J0
X0.162 Y0 Z-21 I0.162 J0
X-0.05 Y0.155 Z-21.3 I-0.162 J0
X0.05 Y-0.155 I0.05 J-0.155
X-0.05 Y0.155 I-0.05 J0.155
G1 X-0.078 Y0.139
X-0.098 Y0.114
X-0.106 Y0.084
X-0.102 Y0.052
X-0.053 Y-0.099
G0 Z5
X-85.077 Y-0.081
Z1.683
G1 Z0 F1000
X-84.919
X-84.888 Y-0.075
X-84.861 Y-0.057
X-84.844 Y-0.031
X-84.838 Y0
G3 X-85.162 Y0 Z-0.5 I-0.162 J0
X-84.838 Y0 Z-1 I0.162 J0
X-85.162 Y0 Z-1.5 I-0.162 J0
X-84.838 Y0 Z-2 I0.162 J0
X-85.162 Y0 Z-2.5 I-0.162 J0
X-84.838 Y0 Z-3 I0.162 J0
X-85.162 Y0 Z-3.5 I-0.162 J0
X-84.838 Y0 Z-4 I0.162 J0
X-85.162 Y0 Z-4.5 I-0.162 J0
X-84.838 Y0 Z-5 I0.162 J0
X-85.162 Y0 Z-5.5 I-0.162 J0
X-84.838 Y0 Z-6 I0.162 J0
X-85.162 Y0 Z-6.5 I-0.162 J0
X-84.838 Y0 Z-7 I0.162 J0
X-85.162 Y0 Z-7.5 I-0.162 J0
X-84.838 Y0 Z-8 I0.162 J0
X-85.162 Y0 Z-8.5 I-0.162 J0
X-84.838 Y0 Z-9 I0.162 J0
X-85.162 Y0 Z-9.5 I-0.162 J0
X-84.838 Y0 Z-10 I0.162 J0
X-85.162 Y0 Z-10.5 I-0.162 J0
X-84.838 Y0 Z-11 I0.162 J0
X-85.162 Y0 Z-11.5 I-0.162 J0
X-84.838 Y0 Z-12 I0.162 J0
X-85.162 Y0 Z-12.5 I-0.162 J0
X-84.838 Y0 Z-13 I0.162 J0
X-85.162 Y0 Z-13.5 I-0.162 J0
X-84.838 Y0 Z-14 I0.162 J0
X-85.162 Y0 Z-14.5 I-0.162 J0
X-84.838 Y0 Z-15 I0.162 J0
X-85.162 Y0 Z-15.5 I-0.162 J0
X-84.838 Y0 Z-16 I0.162 J0
X-85.162 Y0 Z-16.5 I-0.162 J0
X-84.837 Y0 Z-17 I0.162 J0
X-85.163 Y0 Z-17.5 I-0.163 J0
X-84.837 Y0 Z-18 I0.163 J0
X-85.163 Y0 Z-18.5 I-0.163 J0
X-84.837 Y0 Z-19 I0.163 J0
X-85.163 Y0 Z-19.5 I-0.163 J0
X-84.837 Y0 Z-20 I0.163 J0
X-85.163 Y0 Z-20.5 I-0.163 J0
X-84.837 Y0 Z-21 I0.163 J0
X-85.05 Y0.155 Z-21.3 I-0.163 J0
X-84.95 Y-0.155 I0.05 J-0.155
X-85.05 Y0.155 I-0.05 J0.155
G1 X-85.078 Y0.139
X-85.098 Y0.114
X-85.106 Y0.084
X-85.102 Y0.052
X-85.053 Y-0.099
G0 Z5
X-108.619 Y0.317
Z2
G1 Z0.317 F1000
G18 G3 X-108.936 Z0 I-0.317 K0
G1 X-109.095
G17 G3 X-109.412 Y0 I0 J-0.317
X-100.588 Y0 Z-0.5 I4.412 J0
X-109.412 Y0 Z-1 I-4.412 J0
X-100.588 Y0 Z-1.5 I4.412 J0
X-109.412 Y0 Z-2 I-4.412 J0
X-100.588 Y0 Z-2.5 I4.412 J0
X-109.412 Y0 Z-3 I-4.412 J0
X-100.588 Y0 Z-3.5 I4.412 J0
X-109.412 Y0 Z-4 I-4.412 J0
X-100.588 Y0 Z-4.5 I4.412 J0
X-109.412 Y0 Z-5 I-4.412 J0
X-100.588 Y0 Z-5.5 I4.412 J0
X-109.412 Y0 Z-6 I-4.412 J0
X-100.588 Y0 Z-6.5 I4.412 J0
X-109.412 Y0 Z-7 I-4.412 J0
X-100.588 Y0 Z-7.5 I4.412 J0
X-109.412 Y0 Z-8 I-4.412 J0
X-100.588 Y0 Z-8.5 I4.412 J0
X-109.412 Y0 Z-9 I-4.412 J0
X-100.588 Y0 Z-9.5 I4.412 J0
X-109.412 Y0 Z-10 I-4.412 J0
X-100.588 Y0 Z-10.5 I4.412 J0
X-109.412 Y0 Z-11 I-4.412 J0
X-100.588 Y0 Z-11.5 I4.412 J0
X-109.412 Y0 Z-12 I-4.412 J0
X-100.587 Y0 Z-12.5 I4.412 J0
X-109.413 Y0 Z-13 I-4.413 J0
X-100.587 Y0 Z-13.5 I4.413 J0
X-109.413 Y0 Z-14 I-4.413 J0
X-100.587 Y0 Z-14.5 I4.413 J0
X-109.413 Y0 Z-15 I-4.413 J0
X-100.587 Y0 Z-15.5 I4.413 J0
X-109.413 Y0 Z-16 I-4.413 J0
X-100.587 Y0 Z-16.5 I4.413 J0
X-109.413 Y0 Z-17 I-4.413 J0
X-100.587 Y0 Z-17.5 I4.413 J0
X-109.413 Y0 Z-18 I-4.413 J0
X-100.587 Y0 Z-18.5 I4.413 J0
X-109.413 Y0 Z-19 I-4.413 J0
X-100.587 Y0 Z-19.5 I4.413 J0
X-109.413 Y0 Z-20 I-4.413 J0
X-100.587 Y0 Z-20.5 I4.413 J0
X-109.413 Y0 Z-21 I-4.413 J0
X-103.636 Y-4.197 Z-21.3 I4.413 J0
X-106.364 Y4.197 I-1.364 J4.197
X-103.636 Y-4.197 I1.364 J-4.197
X-103.433 Y-3.796 I-0.098 J0.302
G1 X-103.482 Y-3.645
X-103.504 Y-3.578 Z-21.292
X-103.524 Y-3.514 Z-21.269
X-103.543 Y-3.457 Z-21.231
X-103.558 Y-3.409 Z-21.18
X-103.57 Y-3.373 Z-21.12
X-103.577 Y-3.351 Z-21.053
X-103.58 Y-3.344 Z-20.983
G0 Z15

(2D-Kontur4)
X-97.54 Y-83.139
Z15
Z5
G1 Z2 F333.3
Z-0.683
G18 G2 X-97.223 Z-1 I0.317 K0 F1000
G1 X-96.905
G17 G3 X-96.588 Y-82.821 I0 J0.317
G1 Y-65
G3 X-99.766 Y-61.596 I-3.412 J0
G2 X-153.893 Y-35.79 I5.591 J81.396
G3 X-159.448 Y-36.599 I-2.498 J-2.325
G1 X-159.454 Y-36.611
X-159.477 Y-36.656
G3 X-159.687 Y-39.141 I3.06 J-1.51
G1 X-138.271 Y-110.975
G3 X-135 Y-113.412 I3.27 J0.976
G1 X-100
G3 X-96.588 Y-110 I0 J3.412
G1 Y-82.821
G3 X-96.905 Y-82.504 I-0.317 J0
G1 X-97.223
G18 G3 X-97.54 Z-0.683 I0 K0.317
G0 Z5
Y-83.139
G1 Z1 F333.3
Z-1.683
G2 X-97.223 Z-2 I0.317 K0 F1000
G1 X-96.905
G17 G3 X-96.588 Y-82.821 I0 J0.317
G1 Y-65
G3 X-99.766 Y-61.596 I-3.412 J0
G2 X-153.893 Y-35.79 I5.591 J81.396
G3 X-159.448 Y-36.599 I-2.498 J-2.325
G1 X-159.454 Y-36.611
X-159.477 Y-36.656
G3 X-159.687 Y-39.141 I3.06 J-1.51
G1 X-138.271 Y-110.975
G3 X-135 Y-113.412 I3.27 J0.976
G1 X-100
G3 X-96.588 Y-110 I0 J3.412
G1 Y-82.821
G3 X-96.905 Y-82.504 I-0.317 J0
G1 X-97.223
G18 G3 X-97.54 Z-1.683 I0 K0.317
G0 Z5
Y-83.139
G1 Z0 F333.3
Z-2.683
G2 X-97.223 Z-3 I0.317 K0 F1000
G1 X-96.905
G17 G3 X-96.588 Y-82.821 I0 J0.317
G1 Y-65
G3 X-99.766 Y-61.596 I-3.412 J0
G2 X-153.893 Y-35.79 I5.591 J81.396
G3 X-159.448 Y-36.599 I-2.498 J-2.325
G1 X-159.454 Y-36.611
X-159.477 Y-36.656
G3 X-159.687 Y-39.141 I3.06 J-1.51
G1 X-138.271 Y-110.975
G3 X-135 Y-113.412 I3.27 J0.976
G1 X-100
G3 X-96.588 Y-110 I0 J3.412
G1 Y-82.821
G3 X-96.905 Y-82.504 I-0.317 J0
G1 X-97.223
G18 G3 X-97.54 Z-2.683 I0 K0.318
G0 Z15
G17

(2D-Kontur5)
G0 X-127.891 Y-113.54
Z15
Z5
G1 Z2 F333.3
Z-0.683
G19 G3 Y-113.223 Z-1 J0.317 K0 F1000
G1 Y-112.905
G17 G3 X-128.208 Y-112.588 I-0.317 J0
G1 X-135
G2 X-137.479 Y-110.74 I0 J2.587
G1 X-158.896 Y-38.906
G2 X-158.736 Y-37.021 I2.479 J0.739
G1 X-158.714 Y-36.975
X-158.709 Y-36.965
G2 X-154.497 Y-36.352 I2.318 J-1.15
G3 X-99.823 Y-62.419 I60.322 J56.152
G2 X-97.412 Y-65 I-0.177 J-2.581
G1 Y-110
G2 X-100 Y-112.588 I-2.588 J0
G1 X-128.208
G3 X-128.526 Y-112.905 I0 J-0.317
G1 Y-113.223
G19 G2 Y-113.54 Z-0.683 J0 K0.317
G0 Z5
X-127.891
G1 Z1 F333.3
Z-1.683
G3 Y-113.223 Z-2 J0.317 K0 F1000
G1 Y-112.905
G17 G3 X-128.208 Y-112.588 I-0.317 J0
G1 X-135
G2 X-137.479 Y-110.74 I0 J2.587
G1 X-158.896 Y-38.906
G2 X-158.736 Y-37.021 I2.479 J0.739
G1 X-158.714 Y-36.975
X-158.709 Y-36.965
G2 X-154.497 Y-36.352 I2.318 J-1.15
G3 X-99.823 Y-62.419 I60.322 J56.152
G2 X-97.412 Y-65 I-0.177 J-2.581
G1 Y-110
G2 X-100 Y-112.588 I-2.588 J0
G1 X-128.208
G3 X-128.526 Y-112.905 I0 J-0.317
G1 Y-113.223
G19 G2 Y-113.54 Z-1.683 J0 K0.317
G0 Z5
X-127.891
G1 Z0 F333.3
Z-2.683
G3 Y-113.223 Z-3 J0.317 K0 F1000
G1 Y-112.905
G17 G3 X-128.208 Y-112.588 I-0.317 J0
G1 X-135
G2 X-137.479 Y-110.74 I0 J2.587
G1 X-158.896 Y-38.906
G2 X-158.736 Y-37.021 I2.479 J0.739
G1 X-158.714 Y-36.975
X-158.709 Y-36.965
G2 X-154.497 Y-36.352 I2.318 J-1.15
G3 X-99.823 Y-62.419 I60.322 J56.152
G2 X-97.412 Y-65 I-0.177 J-2.581
G1 Y-110
G2 X-100 Y-112.588 I-2.588 J0
G1 X-128.208
G3 X-128.526 Y-112.905 I0 J-0.317
G1 Y-113.223
G19 G2 Y-113.54 Z-2.683 J0 K0.318
G0 Z15
G17

(2D-Kontur7)
G0 X61.581 Y-51.335
Z15
Z5
G1 Z2 F333.3
Z-0.683
X61.585 Y-51.328 Z-0.753 F1000
X61.595 Y-51.307 Z-0.82
X61.612 Y-51.273 Z-0.88
X61.635 Y-51.228 Z-0.931
X61.661 Y-51.174 Z-0.969
X61.691 Y-51.114 Z-0.992
X61.723 Y-51.051 Z-1
X61.865 Y-50.767
G3 X61.723 Y-50.341 I-0.284 J0.142
G1 X61.301 Y-50.13
X47.068 Y-78.595
X47.806 Y-78.964
X62.039 Y-50.499
X61.723 Y-50.341
G3 X61.297 Y-50.483 I-0.142 J-0.284
G1 X61.155 Y-50.767
X61.123 Y-50.83 Z-0.992
X61.093 Y-50.89 Z-0.969
X61.067 Y-50.944 Z-0.931
X61.044 Y-50.989 Z-0.88
X61.027 Y-51.023 Z-0.82
X61.017 Y-51.044 Z-0.753
X61.013 Y-51.051 Z-0.683
G0 Z5
X61.581 Y-51.335
G1 Z1 F333.3
Z-1.683
X61.585 Y-51.328 Z-1.753 F1000
X61.595 Y-51.307 Z-1.82
X61.612 Y-51.273 Z-1.88
X61.635 Y-51.228 Z-1.931
X61.661 Y-51.174 Z-1.969
X61.691 Y-51.114 Z-1.992
X61.723 Y-51.051 Z-2
X61.865 Y-50.767
G3 X61.723 Y-50.341 I-0.284 J0.142
G1 X61.301 Y-50.13
X47.068 Y-78.595
X47.806 Y-78.964
X62.039 Y-50.499
X61.723 Y-50.341
G3 X61.297 Y-50.483 I-0.142 J-0.284
G1 X61.155 Y-50.767
X61.123 Y-50.83 Z-1.992
X61.093 Y-50.89 Z-1.969
X61.067 Y-50.944 Z-1.931
X61.044 Y-50.989 Z-1.88
X61.027 Y-51.023 Z-1.82
X61.017 Y-51.044 Z-1.753
X61.013 Y-51.051 Z-1.683
G0 Z5
X61.581 Y-51.335
G1 Z0 F333.3
Z-2.683
X61.585 Y-51.328 Z-2.753 F1000
X61.595 Y-51.307 Z-2.82
X61.612 Y-51.273 Z-2.88
X61.635 Y-51.228 Z-2.931
X61.661 Y-51.174 Z-2.969
X61.691 Y-51.114 Z-2.992
X61.723 Y-51.051 Z-3
X61.865 Y-50.767
G3 X61.723 Y-50.341 I-0.284 J0.142
G1 X61.301 Y-50.13
X47.068 Y-78.595
X47.806 Y-78.964
X62.039 Y-50.499
X61.723 Y-50.341
G3 X61.297 Y-50.483 I-0.142 J-0.284
G1 X61.155 Y-50.767
X61.123 Y-50.83 Z-2.992
X61.093 Y-50.89 Z-2.969
X61.067 Y-50.944 Z-2.931
X61.044 Y-50.989 Z-2.88
X61.027 Y-51.023 Z-2.82
X61.017 Y-51.044 Z-2.753
X61.013 Y-51.051 Z-2.683
G0 Z5
X88.248 Y-51.335
G1 Z2 F333.3
Z-0.683
X88.251 Y-51.328 Z-0.753 F1000
X88.262 Y-51.307 Z-0.82
X88.279 Y-51.273 Z-0.88
X88.301 Y-51.228 Z-0.931
X88.328 Y-51.174 Z-0.969
X88.358 Y-51.114 Z-0.992
X88.39 Y-51.051 Z-1
X88.532 Y-50.767
G3 X88.39 Y-50.341 I-0.284 J0.142
G1 X87.967 Y-50.13
X73.735 Y-78.595
X74.473 Y-78.964
X88.705 Y-50.499
X88.39 Y-50.341
G3 X87.964 Y-50.483 I-0.142 J-0.284
G1 X87.822 Y-50.767
X87.79 Y-50.83 Z-0.992
X87.76 Y-50.89 Z-0.969
X87.733 Y-50.944 Z-0.931
X87.711 Y-50.989 Z-0.88
X87.694 Y-51.023 Z-0.82
X87.683 Y-51.044 Z-0.753
X87.68 Y-51.051 Z-0.683
G0 Z5
X88.248 Y-51.335
G1 Z1 F333.3
Z-1.683
X88.251 Y-51.328 Z-1.753 F1000
X88.262 Y-51.307 Z-1.82
X88.279 Y-51.273 Z-1.88
X88.301 Y-51.228 Z-1.931
X88.328 Y-51.174 Z-1.969
X88.358 Y-51.114 Z-1.992
X88.39 Y-51.051 Z-2
X88.532 Y-50.767
G3 X88.39 Y-50.341 I-0.284 J0.142
G1 X87.967 Y-50.13
X73.735 Y-78.595
X74.473 Y-78.964
X88.705 Y-50.499
X88.39 Y-50.341
G3 X87.964 Y-50.483 I-0.142 J-0.284
G1 X87.822 Y-50.767
X87.79 Y-50.83 Z-1.992
X87.76 Y-50.89 Z-1.969
X87.733 Y-50.944 Z-1.931
X87.711 Y-50.989 Z-1.88
X87.694 Y-51.023 Z-1.82
X87.683 Y-51.044 Z-1.753
X87.68 Y-51.051 Z-1.683
G0 Z5
X88.248 Y-51.335
G1 Z0 F333.3
Z-2.683
X88.251 Y-51.328 Z-2.753 F1000
X88.262 Y-51.307 Z-2.82
X88.279 Y-51.273 Z-2.88
X88.301 Y-51.228 Z-2.931
X88.328 Y-51.174 Z-2.969
X88.358 Y-51.114 Z-2.992
X88.39 Y-51.051 Z-3
X88.532 Y-50.767
G3 X88.39 Y-50.341 I-0.284 J0.142
G1 X87.967 Y-50.13
X73.735 Y-78.595
X74.473 Y-78.964
X88.705 Y-50.499
X88.39 Y-50.341
G3 X87.964 Y-50.483 I-0.142 J-0.284
G1 X87.822 Y-50.767
X87.79 Y-50.83 Z-2.992
X87.76 Y-50.89 Z-2.969
X87.733 Y-50.944 Z-2.931
X87.711 Y-50.989 Z-2.88
X87.694 Y-51.023 Z-2.82
X87.683 Y-51.044 Z-2.753
X87.68 Y-51.051 Z-2.683
G0 Z5
X34.807 Y-51.282
G1 Z2 F333.3
Z-0.683
X34.811 Y-51.274 Z-0.753 F1000
X34.821 Y-51.253 Z-0.82
X34.838 Y-51.22 Z-0.88
X34.861 Y-51.175 Z-0.931
X34.888 Y-51.121 Z-0.969
X34.918 Y-51.061 Z-0.992
X34.949 Y-50.998 Z-1
X35.091 Y-50.714
G3 X34.949 Y-50.288 I-0.284 J0.142
G1 X34.634 Y-50.13
X20.401 Y-78.595
X21.139 Y-78.964
X35.372 Y-50.499
X34.949 Y-50.288
G3 X34.523 Y-50.43 I-0.142 J-0.284
G1 X34.381 Y-50.714
X34.35 Y-50.777 Z-0.992
X34.32 Y-50.837 Z-0.969
X34.293 Y-50.891 Z-0.931
X34.27 Y-50.936 Z-0.88
X34.253 Y-50.969 Z-0.82
X34.243 Y-50.99 Z-0.753
X34.239 Y-50.998 Z-0.683
G0 Z5
X34.807 Y-51.282
G1 Z1 F333.3
Z-1.683
X34.811 Y-51.274 Z-1.753 F1000
X34.821 Y-51.253 Z-1.82
X34.838 Y-51.22 Z-1.88
X34.861 Y-51.175 Z-1.931
X34.888 Y-51.121 Z-1.969
X34.918 Y-51.061 Z-1.992
X34.949 Y-50.998 Z-2
X35.091 Y-50.714
G3 X34.949 Y-50.288 I-0.284 J0.142
G1 X34.634 Y-50.13
X20.401 Y-78.595
X21.139 Y-78.964
X35.372 Y-50.499
X34.949 Y-50.288
G3 X34.523 Y-50.43 I-0.142 J-0.284
G1 X34.381 Y-50.714
X34.35 Y-50.777 Z-1.992
X34.32 Y-50.837 Z-1.969
X34.293 Y-50.891 Z-1.931
X34.27 Y-50.936 Z-1.88
X34.253 Y-50.969 Z-1.82
X34.243 Y-50.99 Z-1.753
X34.239 Y-50.998 Z-1.683
G0 Z5
X34.807 Y-51.282
G1 Z0 F333.3
Z-2.683
X34.811 Y-51.274 Z-2.753 F1000
X34.821 Y-51.253 Z-2.82
X34.838 Y-51.22 Z-2.88
X34.861 Y-51.175 Z-2.931
X34.888 Y-51.121 Z-2.969
X34.918 Y-51.061 Z-2.992
X34.949 Y-50.998 Z-3
X35.091 Y-50.714
G3 X34.949 Y-50.288 I-0.284 J0.142
G1 X34.634 Y-50.13
X20.401 Y-78.595
X21.139 Y-78.964
X35.372 Y-50.499
X34.949 Y-50.288
G3 X34.523 Y-50.43 I-0.142 J-0.284
G1 X34.381 Y-50.714
X34.35 Y-50.777 Z-2.992
X34.32 Y-50.837 Z-2.969
X34.293 Y-50.891 Z-2.931
X34.27 Y-50.936 Z-2.88
X34.253 Y-50.969 Z-2.82
X34.243 Y-50.99 Z-2.753
X34.239 Y-50.998 Z-2.683
G0 Z5
X8.248 Y-51.335
G1 Z2 F333.3
Z-0.683
X8.251 Y-51.328 Z-0.753 F1000
X8.262 Y-51.307 Z-0.82
X8.279 Y-51.273 Z-0.88
X8.301 Y-51.228 Z-0.931
X8.328 Y-51.174 Z-0.969
X8.358 Y-51.114 Z-0.992
X8.39 Y-51.051 Z-1
X8.532 Y-50.767
G3 X8.39 Y-50.341 I-0.284 J0.142
G1 X7.967 Y-50.13
X-6.265 Y-78.595
X-5.527 Y-78.964
X8.705 Y-50.499
X8.39 Y-50.341
G3 X7.964 Y-50.483 I-0.142 J-0.284
G1 X7.822 Y-50.767
X7.79 Y-50.83 Z-0.992
X7.76 Y-50.89 Z-0.969
X7.733 Y-50.944 Z-0.931
X7.711 Y-50.989 Z-0.88
X7.694 Y-51.023 Z-0.82
X7.683 Y-51.044 Z-0.753
X7.68 Y-51.051 Z-0.683
G0 Z5
X8.248 Y-51.335
G1 Z1 F333.3
Z-1.683
X8.251 Y-51.328 Z-1.753 F1000
X8.262 Y-51.307 Z-1.82
X8.279 Y-51.273 Z-1.88
X8.301 Y-51.228 Z-1.931
X8.328 Y-51.174 Z-1.969
X8.358 Y-51.114 Z-1.992
X8.39 Y-51.051 Z-2
X8.532 Y-50.767
G3 X8.39 Y-50.341 I-0.284 J0.142
G1 X7.967 Y-50.13
X-6.265 Y-78.595
X-5.527 Y-78.964
X8.705 Y-50.499
X8.39 Y-50.341
G3 X7.964 Y-50.483 I-0.142 J-0.284
G1 X7.822 Y-50.767
X7.79 Y-50.83 Z-1.992
X7.76 Y-50.89 Z-1.969
X7.733 Y-50.944 Z-1.931
X7.711 Y-50.989 Z-1.88
X7.694 Y-51.023 Z-1.82
X7.683 Y-51.044 Z-1.753
X7.68 Y-51.051 Z-1.683
G0 Z5
X8.248 Y-51.335
G1 Z0 F333.3
Z-2.683
X8.251 Y-51.328 Z-2.753 F1000
X8.262 Y-51.307 Z-2.82
X8.279 Y-51.273 Z-2.88
X8.301 Y-51.228 Z-2.931
X8.328 Y-51.174 Z-2.969
X8.358 Y-51.114 Z-2.992
X8.39 Y-51.051 Z-3
X8.532 Y-50.767
G3 X8.39 Y-50.341 I-0.284 J0.142
G1 X7.967 Y-50.13
X-6.265 Y-78.595
X-5.527 Y-78.964
X8.705 Y-50.499
X8.39 Y-50.341
G3 X7.964 Y-50.483 I-0.142 J-0.284
G1 X7.822 Y-50.767
X7.79 Y-50.83 Z-2.992
X7.76 Y-50.89 Z-2.969
X7.733 Y-50.944 Z-2.931
X7.711 Y-50.989 Z-2.88
X7.694 Y-51.023 Z-2.82
X7.683 Y-51.044 Z-2.753
X7.68 Y-51.051 Z-2.683
G0 Z15

(2D-Kontur19)
X68.244 Y-37.588
Z15
Z5
G1 Z2.5 F333.3
S5000
X-30.851 Z-0.96
G3 X-31.982 Y-37.616 Z-1 I0 J-22.412
S6000
X-51.207 Y-50.624 I1.132 J-22.384 F1000
G1 X-68.261 Y-87.649
X-67.511 Y-87.994
X-50.458 Y-50.969
G2 X-30.851 Y-38.412 I19.608 J-9.031
G1 X78.412
Y-37.588
X-30.851
G3 X-31.982 Y-37.616 I0 J-22.412
S5000
X-51.207 Y-50.624 Z-1.852 I1.132 J-22.384 F333.3
G1 X-52.98 Y-54.472 Z-2
S6000
X-68.261 Y-87.649 F1000
X-67.511 Y-87.994
X-50.458 Y-50.969
G2 X-30.851 Y-38.412 I19.608 J-9.031
G1 X78.412
Y-37.588
X-30.851
G3 X-51.207 Y-50.624 I0 J-22.412
G1 X-52.98 Y-54.472
S5000
X-64.96 Y-80.482 Z-3 F333.3
S6000
X-68.261 Y-87.649 F1000
X-67.511 Y-87.994
X-50.458 Y-50.969
G2 X-30.851 Y-38.412 I19.608 J-9.031
G1 X78.412
Y-37.588
X-30.851
G3 X-51.207 Y-50.624 I0 J-22.412
G1 X-64.96 Y-80.482
G0 Z15
G28 G91 Z0
G90
G28 G91 X0 Y0
G90
M5
M30
