(1001)
G90 G94
G17
G21
(When using Fusion 360 for Personal Use, the feedrate of)
(rapid moves is reduced to match the feedrate of cutting)
(moves, which can increase machining time. Unrestricted rapid)
(moves are available with a Fusion 360 Subscription.)

(Bohrfrasen2)
S6000 M3
G54
G0 X-11.381 Y-0.317
Z15
G1 Z2 F1000
Z0.317
G18 G2 X-11.064 Z0 I0.318 K0
G1 X-10.905
G17 G3 X-10.587 Y0 I0 J0.317
X-19.413 Y0 Z-0.5 I-4.413 J0
X-10.587 Y0 Z-1 I4.413 J0
X-19.413 Y0 Z-1.5 I-4.413 J0
X-10.587 Y0 Z-2 I4.413 J0
X-19.413 Y0 Z-2.5 I-4.413 J0
X-10.587 Y0 Z-3 I4.413 J0
X-19.413 Y0 Z-3.5 I-4.413 J0
X-10.587 Y0 Z-4 I4.413 J0
X-19.413 Y0 Z-4.5 I-4.413 J0
X-10.587 Y0 Z-5 I4.413 J0
X-19.413 Y0 Z-5.5 I-4.413 J0
X-10.587 Y0 Z-6 I4.413 J0
X-19.413 Y0 Z-6.5 I-4.413 J0
X-10.587 Y0 Z-7 I4.413 J0
X-19.413 Y0 Z-7.5 I-4.413 J0
X-10.587 Y0 Z-8 I4.413 J0
X-19.413 Y0 Z-8.5 I-4.413 J0
X-10.587 Y0 Z-9 I4.413 J0
X-19.413 Y0 Z-9.5 I-4.413 J0
X-10.587 Y0 Z-10 I4.413 J0
X-19.413 Y0 Z-10.5 I-4.413 J0
X-10.587 Y0 Z-11 I4.413 J0
X-19.413 Y0 Z-11.5 I-4.413 J0
X-10.587 Y0 Z-12 I4.413 J0
X-19.413 Y0 Z-12.5 I-4.413 J0
X-10.587 Y0 Z-13 I4.413 J0
X-19.413 Y0 Z-13.5 I-4.413 J0
X-10.587 Y0 Z-14 I4.413 J0
X-19.413 Y0 Z-14.5 I-4.413 J0
X-10.587 Y0 Z-15 I4.413 J0
X-19.413 Y0 Z-15.5 I-4.413 J0
X-10.587 Y0 Z-16 I4.413 J0
X-19.413 Y0 Z-16.5 I-4.413 J0
X-10.587 Y0 Z-17 I4.413 J0
X-19.413 Y0 Z-17.5 I-4.413 J0
X-10.587 Y0 Z-18 I4.413 J0
X-19.413 Y0 Z-18.5 I-4.413 J0
X-10.587 Y0 Z-19 I4.413 J0
X-19.413 Y0 Z-19.5 I-4.413 J0
X-10.587 Y0 Z-20 I4.413 J0
X-19.413 Y0 Z-20.5 I-4.413 J0
X-10.587 Y0 Z-21 I4.413 J0
X-19.413 Y0 I-4.413 J0
X-10.587 Y0 I4.413 J0
X-10.905 Y0.317 I-0.318 J0
G1 X-11.064
G18 G3 X-11.381 Z-20.683 I0 K0.317
G1 Z5
X0.078 Y0.081
Z1.683
Z0
X-0.081
X-0.112 Y0.075
X-0.139 Y0.057
X-0.156 Y0.031
X-0.162 Y0
G17 G3 X0.162 Y0 Z-0.5 I0.162 J0
X-0.162 Y0 Z-1 I-0.162 J0
X0.162 Y0 Z-1.5 I0.162 J0
X-0.162 Y0 Z-2 I-0.162 J0
X0.162 Y0 Z-2.5 I0.162 J0
X-0.162 Y0 Z-3 I-0.162 J0
X0.162 Y0 Z-3.5 I0.162 J0
X-0.162 Y0 Z-4 I-0.162 J0
X0.162 Y0 Z-4.5 I0.162 J0
X-0.162 Y0 Z-5 I-0.162 J0
X0.162 Y0 Z-5.5 I0.162 J0
X-0.162 Y0 Z-6 I-0.162 J0
X0.162 Y0 Z-6.5 I0.162 J0
X-0.162 Y0 Z-7 I-0.162 J0
X0.162 Y0 Z-7.5 I0.162 J0
X-0.162 Y0 Z-8 I-0.162 J0
X0.162 Y0 Z-8.5 I0.162 J0
X-0.162 Y0 Z-9 I-0.162 J0
X0.162 Y0 Z-9.5 I0.162 J0
X-0.162 Y0 Z-10 I-0.162 J0
X0.162 Y0 Z-10.5 I0.162 J0
X-0.162 Y0 Z-11 I-0.162 J0
X0.162 Y0 Z-11.5 I0.162 J0
X-0.162 Y0 Z-12 I-0.162 J0
X0.162 Y0 Z-12.5 I0.162 J0
X-0.162 Y0 Z-13 I-0.162 J0
X0.162 Y0 Z-13.5 I0.162 J0
X-0.162 Y0 Z-14 I-0.162 J0
X0.162 Y0 Z-14.5 I0.162 J0
X-0.162 Y0 Z-15 I-0.162 J0
X0.162 Y0 Z-15.5 I0.162 J0
X-0.162 Y0 Z-16 I-0.162 J0
X0.162 Y0 Z-16.5 I0.162 J0
X-0.162 Y0 Z-17 I-0.162 J0
X0.162 Y0 Z-17.5 I0.162 J0
X-0.162 Y0 Z-18 I-0.162 J0
X0.162 Y0 Z-18.5 I0.162 J0
X-0.162 Y0 Z-19 I-0.162 J0
X0.162 Y0 Z-19.5 I0.162 J0
X-0.162 Y0 Z-20 I-0.162 J0
X0.162 Y0 Z-20.5 I0.162 J0
X-0.162 Y0 Z-21 I-0.162 J0
X0.162 Y0 I0.162 J0
X-0.162 Y0 I-0.162 J0
G1 X-0.156 Y-0.031
X-0.139 Y-0.057
X-0.112 Y-0.075
X-0.081 Y-0.081
X0.078
Z5
X85.077 Y0.081
Z1.683
Z0
X84.919
X84.888 Y0.075
X84.861 Y0.057
X84.844 Y0.031
X84.838 Y0
G3 X85.162 Y0 Z-0.5 I0.162 J0
X84.838 Y0 Z-1 I-0.162 J0
X85.162 Y0 Z-1.5 I0.162 J0
X84.838 Y0 Z-2 I-0.162 J0
X85.162 Y0 Z-2.5 I0.162 J0
X84.838 Y0 Z-3 I-0.162 J0
X85.162 Y0 Z-3.5 I0.162 J0
X84.838 Y0 Z-4 I-0.162 J0
X85.162 Y0 Z-4.5 I0.162 J0
X84.838 Y0 Z-5 I-0.162 J0
X85.162 Y0 Z-5.5 I0.162 J0
X84.838 Y0 Z-6 I-0.162 J0
X85.162 Y0 Z-6.5 I0.162 J0
X84.838 Y0 Z-7 I-0.162 J0
X85.162 Y0 Z-7.5 I0.162 J0
X84.838 Y0 Z-8 I-0.162 J0
X85.162 Y0 Z-8.5 I0.162 J0
X84.838 Y0 Z-9 I-0.162 J0
X85.162 Y0 Z-9.5 I0.162 J0
X84.838 Y0 Z-10 I-0.162 J0
X85.162 Y0 Z-10.5 I0.162 J0
X84.838 Y0 Z-11 I-0.162 J0
X85.162 Y0 Z-11.5 I0.162 J0
X84.838 Y0 Z-12 I-0.162 J0
X85.162 Y0 Z-12.5 I0.162 J0
X84.838 Y0 Z-13 I-0.162 J0
X85.162 Y0 Z-13.5 I0.162 J0
X84.838 Y0 Z-14 I-0.162 J0
X85.162 Y0 Z-14.5 I0.162 J0
X84.838 Y0 Z-15 I-0.162 J0
X85.162 Y0 Z-15.5 I0.162 J0
X84.838 Y0 Z-16 I-0.162 J0
X85.162 Y0 Z-16.5 I0.162 J0
X84.838 Y0 Z-17 I-0.162 J0
X85.162 Y0 Z-17.5 I0.162 J0
X84.838 Y0 Z-18 I-0.162 J0
X85.162 Y0 Z-18.5 I0.162 J0
X84.838 Y0 Z-19 I-0.162 J0
X85.162 Y0 Z-19.5 I0.162 J0
X84.838 Y0 Z-20 I-0.162 J0
X85.162 Y0 Z-20.5 I0.162 J0
X84.838 Y0 Z-21 I-0.162 J0
X85.162 Y0 I0.162 J0
X84.838 Y0 I-0.162 J0
G1 X84.844 Y-0.031
X84.861 Y-0.057
X84.888 Y-0.075
X84.919 Y-0.081
X85.077
Z5
X108.619 Y-0.317
Z2
Z0.317
G18 G2 X108.936 Z0 I0.317 K0
G1 X109.095
G17 G3 X109.412 Y0 I0 J0.317
X100.588 Y0 Z-0.5 I-4.412 J0
X109.412 Y0 Z-1 I4.412 J0
X100.588 Y0 Z-1.5 I-4.412 J0
X109.412 Y0 Z-2 I4.412 J0
X100.588 Y0 Z-2.5 I-4.412 J0
X109.412 Y0 Z-3 I4.412 J0
X100.588 Y0 Z-3.5 I-4.412 J0
X109.412 Y0 Z-4 I4.412 J0
X100.588 Y0 Z-4.5 I-4.412 J0
X109.412 Y0 Z-5 I4.412 J0
X100.588 Y0 Z-5.5 I-4.412 J0
X109.412 Y0 Z-6 I4.412 J0
X100.588 Y0 Z-6.5 I-4.412 J0
X109.412 Y0 Z-7 I4.412 J0
X100.588 Y0 Z-7.5 I-4.412 J0
X109.412 Y0 Z-8 I4.412 J0
X100.588 Y0 Z-8.5 I-4.412 J0
X109.412 Y0 Z-9 I4.412 J0
X100.588 Y0 Z-9.5 I-4.412 J0
X109.412 Y0 Z-10 I4.412 J0
X100.588 Y0 Z-10.5 I-4.412 J0
X109.412 Y0 Z-11 I4.412 J0
X100.588 Y0 Z-11.5 I-4.412 J0
X109.412 Y0 Z-12 I4.412 J0
X100.588 Y0 Z-12.5 I-4.412 J0
X109.412 Y0 Z-13 I4.412 J0
X100.588 Y0 Z-13.5 I-4.412 J0
X109.412 Y0 Z-14 I4.412 J0
X100.588 Y0 Z-14.5 I-4.412 J0
X109.412 Y0 Z-15 I4.412 J0
X100.588 Y0 Z-15.5 I-4.412 J0
X109.412 Y0 Z-16 I4.412 J0
X100.588 Y0 Z-16.5 I-4.412 J0
X109.412 Y0 Z-17 I4.412 J0
X100.588 Y0 Z-17.5 I-4.412 J0
X109.412 Y0 Z-18 I4.412 J0
X100.588 Y0 Z-18.5 I-4.412 J0
X109.412 Y0 Z-19 I4.412 J0
X100.588 Y0 Z-19.5 I-4.412 J0
X109.412 Y0 Z-20 I4.412 J0
X100.588 Y0 Z-20.5 I-4.412 J0
X109.412 Y0 Z-21 I4.412 J0
X100.588 Y0 I-4.412 J0
X109.412 Y0 I4.412 J0
X109.095 Y0.317 I-0.317 J0
G1 X108.936
G18 G3 X108.619 Z-20.683 I0 K0.317
G1 Z15
G17
(When using Fusion 360 for Personal Use, the feedrate of)
(rapid moves is reduced to match the feedrate of cutting)
(moves, which can increase machining time. Unrestricted rapid)
(moves are available with a Fusion 360 Subscription.)

(2D-Kontur8)
G0 X145.771 Y-71.472
G1 Z15 F1000
Z5
Z2 F333.3
Z-0.683
X145.778 Y-71.475 Z-0.753 F1000
X145.799 Y-71.484 Z-0.82
X145.834 Y-71.5 Z-0.88
X145.88 Y-71.52 Z-0.931
X145.935 Y-71.544 Z-0.969
X145.997 Y-71.571 Z-0.992
X146.062 Y-71.599 Z-1
X146.352 Y-71.726
G3 X146.77 Y-71.562 I0.127 J0.291
G1 X160.185 Y-40.824
G3 X160.115 Y-37.942 I-3.127 J1.366
G1 X148.331 Y-14.19
G3 X142.607 Y-13.578 I-3.057 J-1.517
G2 X99.151 Y-41.695 I-63.76 J50.904
G3 X96.588 Y-45 I0.849 J-3.305
G1 Y-90
G3 X100 Y-93.412 I3.412 J0
G1 X135
G3 X138.128 Y-91.365 I0 J3.413
G1 X146.77 Y-71.562
G3 X146.606 Y-71.144 I-0.291 J0.127
G1 X146.315 Y-71.017
X146.251 Y-70.989 Z-0.992
X146.189 Y-70.962 Z-0.969
X146.134 Y-70.938 Z-0.931
X146.088 Y-70.918 Z-0.88
X146.053 Y-70.902 Z-0.82
X146.032 Y-70.893 Z-0.753
X146.025 Y-70.89 Z-0.683
Z5
X145.771 Y-71.472
Z1 F333.3
Z-1.683
X145.778 Y-71.475 Z-1.753 F1000
X145.799 Y-71.484 Z-1.82
X145.834 Y-71.5 Z-1.88
X145.88 Y-71.52 Z-1.931
X145.935 Y-71.544 Z-1.969
X145.997 Y-71.571 Z-1.992
X146.062 Y-71.599 Z-2
X146.352 Y-71.726
G3 X146.77 Y-71.562 I0.127 J0.291
G1 X160.185 Y-40.824
G3 X160.115 Y-37.942 I-3.127 J1.366
G1 X148.331 Y-14.19
G3 X142.607 Y-13.578 I-3.057 J-1.517
G2 X99.151 Y-41.695 I-63.76 J50.904
G3 X96.588 Y-45 I0.849 J-3.305
G1 Y-90
G3 X100 Y-93.412 I3.412 J0
G1 X135
G3 X138.128 Y-91.365 I0 J3.413
G1 X146.77 Y-71.562
G3 X146.606 Y-71.144 I-0.291 J0.127
G1 X146.315 Y-71.017
X146.251 Y-70.989 Z-1.992
X146.189 Y-70.962 Z-1.969
X146.134 Y-70.938 Z-1.931
X146.088 Y-70.918 Z-1.88
X146.053 Y-70.902 Z-1.82
X146.032 Y-70.893 Z-1.753
X146.025 Y-70.89 Z-1.683
Z5
X145.771 Y-71.472
Z0 F333.3
Z-2.683
X145.778 Y-71.475 Z-2.753 F1000
X145.799 Y-71.484 Z-2.82
X145.834 Y-71.5 Z-2.88
X145.88 Y-71.52 Z-2.931
X145.935 Y-71.544 Z-2.969
X145.997 Y-71.571 Z-2.992
X146.062 Y-71.599 Z-3
X146.352 Y-71.726
G3 X146.77 Y-71.562 I0.127 J0.291
G1 X160.185 Y-40.824
G3 X160.115 Y-37.942 I-3.127 J1.366
G1 X148.331 Y-14.19
G3 X142.607 Y-13.578 I-3.057 J-1.517
G2 X99.151 Y-41.695 I-63.76 J50.904
G3 X96.588 Y-45 I0.849 J-3.305
G1 Y-90
G3 X100 Y-93.412 I3.412 J0
G1 X135
G3 X138.128 Y-91.365 I0 J3.413
G1 X146.77 Y-71.562
G3 X146.606 Y-71.144 I-0.291 J0.127
G1 X146.315 Y-71.017
X146.251 Y-70.989 Z-2.992
X146.189 Y-70.962 Z-2.969
X146.134 Y-70.938 Z-2.931
X146.088 Y-70.918 Z-2.88
X146.053 Y-70.902 Z-2.82
X146.032 Y-70.893 Z-2.753
X146.025 Y-70.89 Z-2.683
Z15
(When using Fusion 360 for Personal Use, the feedrate of)
(rapid moves is reduced to match the feedrate of cutting)
(moves, which can increase machining time. Unrestricted rapid)
(moves are available with a Fusion 360 Subscription.)

(2D-Kontur9)
G0 X144.309 Y-12.286
G1 Z15 F1000
Z5
Z1 F333.3
Z-2.683
X144.311 Y-12.294 Z-2.753 F1000
X144.315 Y-12.317 Z-2.82
X144.322 Y-12.354 Z-2.88
X144.331 Y-12.404 Z-2.931
X144.342 Y-12.463 Z-2.969
X144.355 Y-12.529 Z-2.992
X144.368 Y-12.598 Z-3
X144.426 Y-12.91
G3 X144.797 Y-13.164 I0.312 J0.058
G2 X147.591 Y-14.557 I0.477 J-2.543
G1 X159.376 Y-38.309
X159.377 Y-38.31
G2 X159.429 Y-40.495 I-2.319 J-1.148
G1 X137.372 Y-91.035
G2 X135 Y-92.588 I-2.372 J1.035
G1 X100
G2 X97.412 Y-90 I0 J2.588
G1 Y-45
G2 X99.356 Y-42.494 I2.587 J0
G3 X143.251 Y-14.093 I-20.509 J79.82
G2 X144.797 Y-13.164 I2.022 J-1.614
G3 X145.05 Y-12.793 I-0.059 J0.312
G1 X144.992 Y-12.481
X144.979 Y-12.412 Z-2.992
X144.966 Y-12.346 Z-2.969
X144.955 Y-12.287 Z-2.931
X144.946 Y-12.237 Z-2.88
X144.939 Y-12.2 Z-2.82
X144.935 Y-12.177 Z-2.753
X144.933 Y-12.169 Z-2.683
Z15
(When using Fusion 360 for Personal Use, the feedrate of)
(rapid moves is reduced to match the feedrate of cutting)
(moves, which can increase machining time. Unrestricted rapid)
(moves are available with a Fusion 360 Subscription.)

(2D-Kontur11)
G0 X-1.872 Y-41.08
G1 Z15 F1000
Z5
Z2 F333.3
Z-0.683
X-1.877 Y-41.073 Z-0.753 F1000
X-1.89 Y-41.054 Z-0.82
X-1.911 Y-41.022 Z-0.88
X-1.939 Y-40.98 Z-0.931
X-1.972 Y-40.93 Z-0.969
X-2.009 Y-40.874 Z-0.992
X-2.048 Y-40.816 Z-1
X-2.224 Y-40.551
G3 X-2.665 Y-40.463 I-0.264 J-0.176
G1 X-2.958 Y-40.659
X14.695 Y-67.139
X15.382 Y-66.682
X-2.272 Y-40.201
X-2.665 Y-40.463
G3 X-2.753 Y-40.904 I0.176 J-0.264
G1 X-2.577 Y-41.168
X-2.538 Y-41.227 Z-0.992
X-2.5 Y-41.283 Z-0.969
X-2.467 Y-41.333 Z-0.931
X-2.439 Y-41.374 Z-0.88
X-2.418 Y-41.406 Z-0.82
X-2.405 Y-41.425 Z-0.753
X-2.401 Y-41.432 Z-0.683
Z5
X-1.872 Y-41.08
Z1 F333.3
Z-1.683
X-1.877 Y-41.073 Z-1.753 F1000
X-1.89 Y-41.054 Z-1.82
X-1.911 Y-41.022 Z-1.88
X-1.939 Y-40.98 Z-1.931
X-1.972 Y-40.93 Z-1.969
X-2.009 Y-40.874 Z-1.992
X-2.048 Y-40.816 Z-2
X-2.224 Y-40.551
G3 X-2.665 Y-40.463 I-0.264 J-0.176
G1 X-2.958 Y-40.659
X14.695 Y-67.139
X15.382 Y-66.682
X-2.272 Y-40.201
X-2.665 Y-40.463
G3 X-2.753 Y-40.904 I0.176 J-0.264
G1 X-2.577 Y-41.168
X-2.538 Y-41.227 Z-1.992
X-2.5 Y-41.283 Z-1.969
X-2.467 Y-41.333 Z-1.931
X-2.439 Y-41.374 Z-1.88
X-2.418 Y-41.406 Z-1.82
X-2.405 Y-41.425 Z-1.753
X-2.401 Y-41.432 Z-1.683
Z5
X-1.872 Y-41.08
Z0 F333.3
Z-2.683
X-1.877 Y-41.073 Z-2.753 F1000
X-1.89 Y-41.054 Z-2.82
X-1.911 Y-41.022 Z-2.88
X-1.939 Y-40.98 Z-2.931
X-1.972 Y-40.93 Z-2.969
X-2.009 Y-40.874 Z-2.992
X-2.048 Y-40.816 Z-3
X-2.224 Y-40.551
G3 X-2.665 Y-40.463 I-0.264 J-0.176
G1 X-2.958 Y-40.659
X14.695 Y-67.139
X15.382 Y-66.682
X-2.272 Y-40.201
X-2.665 Y-40.463
G3 X-2.753 Y-40.904 I0.176 J-0.264
G1 X-2.577 Y-41.168
X-2.538 Y-41.227 Z-2.992
X-2.5 Y-41.283 Z-2.969
X-2.467 Y-41.333 Z-2.931
X-2.439 Y-41.374 Z-2.88
X-2.418 Y-41.406 Z-2.82
X-2.405 Y-41.425 Z-2.753
X-2.401 Y-41.432 Z-2.683
Z5
X-28.539 Y-41.08
Z2 F333.3
Z-0.683
X-28.543 Y-41.073 Z-0.753 F1000
X-28.556 Y-41.054 Z-0.82
X-28.577 Y-41.022 Z-0.88
X-28.605 Y-40.98 Z-0.931
X-28.639 Y-40.93 Z-0.969
X-28.676 Y-40.874 Z-0.992
X-28.715 Y-40.816 Z-1
X-28.891 Y-40.552
G3 X-29.331 Y-40.463 I-0.264 J-0.176
G1 X-29.625 Y-40.659
X-11.972 Y-67.139
X-11.285 Y-66.682
X-28.938 Y-40.201
X-29.331 Y-40.463
G3 X-29.42 Y-40.904 I0.176 J-0.264
G1 X-29.243 Y-41.168
X-29.204 Y-41.227 Z-0.992
X-29.167 Y-41.283 Z-0.969
X-29.134 Y-41.333 Z-0.931
X-29.106 Y-41.374 Z-0.88
X-29.085 Y-41.406 Z-0.82
X-29.072 Y-41.425 Z-0.753
X-29.067 Y-41.432 Z-0.683
Z5
X-28.539 Y-41.08
Z1 F333.3
Z-1.683
X-28.543 Y-41.073 Z-1.753 F1000
X-28.556 Y-41.054 Z-1.82
X-28.577 Y-41.022 Z-1.88
X-28.605 Y-40.98 Z-1.931
X-28.639 Y-40.93 Z-1.969
X-28.676 Y-40.874 Z-1.992
X-28.715 Y-40.816 Z-2
X-28.891 Y-40.552
G3 X-29.331 Y-40.463 I-0.264 J-0.176
G1 X-29.625 Y-40.659
X-11.972 Y-67.139
X-11.285 Y-66.682
X-28.938 Y-40.201
X-29.331 Y-40.463
G3 X-29.42 Y-40.904 I0.176 J-0.264
G1 X-29.243 Y-41.168
X-29.204 Y-41.227 Z-1.992
X-29.167 Y-41.283 Z-1.969
X-29.134 Y-41.333 Z-1.931
X-29.106 Y-41.374 Z-1.88
X-29.085 Y-41.406 Z-1.82
X-29.072 Y-41.425 Z-1.753
X-29.067 Y-41.432 Z-1.683
Z5
X-28.539 Y-41.08
Z0 F333.3
Z-2.683
X-28.543 Y-41.073 Z-2.753 F1000
X-28.556 Y-41.054 Z-2.82
X-28.577 Y-41.022 Z-2.88
X-28.605 Y-40.98 Z-2.931
X-28.639 Y-40.93 Z-2.969
X-28.676 Y-40.874 Z-2.992
X-28.715 Y-40.816 Z-3
X-28.891 Y-40.552
G3 X-29.331 Y-40.463 I-0.264 J-0.176
G1 X-29.625 Y-40.659
X-11.972 Y-67.139
X-11.285 Y-66.682
X-28.938 Y-40.201
X-29.331 Y-40.463
G3 X-29.42 Y-40.904 I0.176 J-0.264
G1 X-29.243 Y-41.168
X-29.204 Y-41.227 Z-2.992
X-29.167 Y-41.283 Z-2.969
X-29.134 Y-41.333 Z-2.931
X-29.106 Y-41.374 Z-2.88
X-29.085 Y-41.406 Z-2.82
X-29.072 Y-41.425 Z-2.753
X-29.067 Y-41.432 Z-2.683
Z5
X-55.106 Y-41.014
Z2 F333.3
Z-0.683
X-55.11 Y-41.007 Z-0.753 F1000
X-55.124 Y-40.987 Z-0.82
X-55.144 Y-40.956 Z-0.88
X-55.172 Y-40.914 Z-0.931
X-55.206 Y-40.864 Z-0.969
X-55.243 Y-40.808 Z-0.992
X-55.282 Y-40.749 Z-1
X-55.458 Y-40.485
G3 X-55.899 Y-40.397 I-0.264 J-0.176
G1 X-56.292 Y-40.659
X-38.638 Y-67.139
X-37.952 Y-66.682
X-55.605 Y-40.201
X-55.899 Y-40.397
G3 X-55.987 Y-40.837 I0.176 J-0.264
G1 X-55.811 Y-41.102
X-55.771 Y-41.16 Z-0.992
X-55.734 Y-41.216 Z-0.969
X-55.701 Y-41.266 Z-0.931
X-55.673 Y-41.308 Z-0.88
X-55.652 Y-41.34 Z-0.82
X-55.639 Y-41.359 Z-0.753
X-55.634 Y-41.366 Z-0.683
Z5
X-55.106 Y-41.014
Z1 F333.3
Z-1.683
X-55.11 Y-41.007 Z-1.753 F1000
X-55.124 Y-40.987 Z-1.82
X-55.144 Y-40.956 Z-1.88
X-55.172 Y-40.914 Z-1.931
X-55.206 Y-40.864 Z-1.969
X-55.243 Y-40.808 Z-1.992
X-55.282 Y-40.749 Z-2
X-55.458 Y-40.485
G3 X-55.899 Y-40.397 I-0.264 J-0.176
G1 X-56.292 Y-40.659
X-38.638 Y-67.139
X-37.952 Y-66.682
X-55.605 Y-40.201
X-55.899 Y-40.397
G3 X-55.987 Y-40.837 I0.176 J-0.264
G1 X-55.811 Y-41.102
X-55.771 Y-41.16 Z-1.992
X-55.734 Y-41.216 Z-1.969
X-55.701 Y-41.266 Z-1.931
X-55.673 Y-41.308 Z-1.88
X-55.652 Y-41.34 Z-1.82
X-55.639 Y-41.359 Z-1.753
X-55.634 Y-41.366 Z-1.683
Z5
X-55.106 Y-41.014
Z0 F333.3
Z-2.683
X-55.11 Y-41.007 Z-2.753 F1000
X-55.124 Y-40.987 Z-2.82
X-55.144 Y-40.956 Z-2.88
X-55.172 Y-40.914 Z-2.931
X-55.206 Y-40.864 Z-2.969
X-55.243 Y-40.808 Z-2.992
X-55.282 Y-40.749 Z-3
X-55.458 Y-40.485
G3 X-55.899 Y-40.397 I-0.264 J-0.176
G1 X-56.292 Y-40.659
X-38.638 Y-67.139
X-37.952 Y-66.682
X-55.605 Y-40.201
X-55.899 Y-40.397
G3 X-55.987 Y-40.837 I0.176 J-0.264
G1 X-55.811 Y-41.102
X-55.771 Y-41.16 Z-2.992
X-55.734 Y-41.216 Z-2.969
X-55.701 Y-41.266 Z-2.931
X-55.673 Y-41.308 Z-2.88
X-55.652 Y-41.34 Z-2.82
X-55.639 Y-41.359 Z-2.753
X-55.634 Y-41.366 Z-2.683
Z5
X24.794 Y-41.08
Z2 F333.3
Z-0.683
X24.79 Y-41.073 Z-0.753 F1000
X24.777 Y-41.054 Z-0.82
X24.756 Y-41.022 Z-0.88
X24.728 Y-40.98 Z-0.931
X24.695 Y-40.93 Z-0.969
X24.658 Y-40.874 Z-0.992
X24.618 Y-40.816 Z-1
X24.442 Y-40.551
G3 X24.002 Y-40.463 I-0.264 J-0.176
G1 X23.708 Y-40.659
X41.362 Y-67.139
X42.048 Y-66.682
X24.395 Y-40.201
X24.002 Y-40.463
G3 X23.914 Y-40.904 I0.176 J-0.264
G1 X24.09 Y-41.168
X24.129 Y-41.227 Z-0.992
X24.166 Y-41.283 Z-0.969
X24.2 Y-41.333 Z-0.931
X24.228 Y-41.374 Z-0.88
X24.249 Y-41.406 Z-0.82
X24.262 Y-41.425 Z-0.753
X24.266 Y-41.432 Z-0.683
Z5
X24.794 Y-41.08
Z1 F333.3
Z-1.683
X24.79 Y-41.073 Z-1.753 F1000
X24.777 Y-41.054 Z-1.82
X24.756 Y-41.022 Z-1.88
X24.728 Y-40.98 Z-1.931
X24.695 Y-40.93 Z-1.969
X24.658 Y-40.874 Z-1.992
X24.618 Y-40.816 Z-2
X24.442 Y-40.551
G3 X24.002 Y-40.463 I-0.264 J-0.176
G1 X23.708 Y-40.659
X41.362 Y-67.139
X42.048 Y-66.682
X24.395 Y-40.201
X24.002 Y-40.463
G3 X23.914 Y-40.904 I0.176 J-0.264
G1 X24.09 Y-41.168
X24.129 Y-41.227 Z-1.992
X24.166 Y-41.283 Z-1.969
X24.2 Y-41.333 Z-1.931
X24.228 Y-41.374 Z-1.88
X24.249 Y-41.406 Z-1.82
X24.262 Y-41.425 Z-1.753
X24.266 Y-41.432 Z-1.683
Z5
X24.794 Y-41.08
Z0 F333.3
Z-2.683
X24.79 Y-41.073 Z-2.753 F1000
X24.777 Y-41.054 Z-2.82
X24.756 Y-41.022 Z-2.88
X24.728 Y-40.98 Z-2.931
X24.695 Y-40.93 Z-2.969
X24.658 Y-40.874 Z-2.992
X24.618 Y-40.816 Z-3
X24.442 Y-40.551
G3 X24.002 Y-40.463 I-0.264 J-0.176
G1 X23.708 Y-40.659
X41.362 Y-67.139
X42.048 Y-66.682
X24.395 Y-40.201
X24.002 Y-40.463
G3 X23.914 Y-40.904 I0.176 J-0.264
G1 X24.09 Y-41.168
X24.129 Y-41.227 Z-2.992
X24.166 Y-41.283 Z-2.969
X24.2 Y-41.333 Z-2.931
X24.228 Y-41.374 Z-2.88
X24.249 Y-41.406 Z-2.82
X24.262 Y-41.425 Z-2.753
X24.266 Y-41.432 Z-2.683
Z15
(When using Fusion 360 for Personal Use, the feedrate of)
(rapid moves is reduced to match the feedrate of cutting)
(moves, which can increase machining time. Unrestricted rapid)
(moves are available with a Fusion 360 Subscription.)

(2D-Kontur18)
G0 X20.957 Y-28.413
G1 Z15 F1000
Z5
Z2.5 F333.3
S5000
X35.456 Z1.994
G2 X55.064 Y-40.969 Z1.135 I0 J-21.587
G1 X67.511 Y-67.994 Z0.096
X68.261 Y-67.649 Z0.067
X55.813 Y-40.624 Z-0.972
G3 X55.465 Y-39.901 Z-1 I-20.357 J-9.376
S6000
X35.456 Y-27.587 I-20.008 J-10.099 F1000
G1 X-48.412
Y-28.413
X35.456
G2 X55.064 Y-40.969 I0 J-21.587
G1 X67.511 Y-67.994
X68.261 Y-67.649
X55.813 Y-40.624
G3 X55.465 Y-39.901 I-20.357 J-9.376
S5000
X35.456 Y-27.587 Z-1.864 I-20.008 J-10.099 F333.3
G1 X31.549 Z-2
S6000
X-48.412 F1000
Y-28.413
X35.456
G2 X55.064 Y-40.969 I0 J-21.587
G1 X67.511 Y-67.994
X68.261 Y-67.649
X55.813 Y-40.624
G3 X35.456 Y-27.587 I-20.357 J-9.376
G1 X31.549
S5000
X2.913 Z-3 F333.3
S6000
X-48.412 F1000
Y-28.413
X35.456
G2 X55.064 Y-40.969 I0 J-21.587
G1 X67.511 Y-67.994
X68.261 Y-67.649
X55.813 Y-40.624
G3 X35.456 Y-27.587 I-20.357 J-9.376
G1 X2.913
Z15
M5
M30
