(1001)
G90 G94
G17
G21
(When using Fusion 360 for Personal Use, the feedrate of)
(rapid moves is reduced to match the feedrate of cutting)
(moves, which can increase machining time. Unrestricted rapid)
(moves are available with a Fusion 360 Subscription.)

(2D-Kontur14)
S6000 M3
G54
G0 X-154.712 Y-8.66
Z15
G1 Z5 F1000
Z3 F333.3
Z2.5
S5000
X-145.38 Y10.15 Z1.767
G2 X-135 Y16.587 Z1.317 I10.38 J-5.15
G1 X-40 Z-2
S6000
X60 F1000
G2 X70.035 Y-0.794 I0 J-11.588
G1 X57.045 Y-23.294
G3 X60 Y-28.413 I2.955 J-1.706
G1 X80
G2 X85.481 Y-38.654 I0 J-6.588
G1 X65.481 Y-68.654
G2 X61.653 Y-71.377 I-5.481 J3.654
G1 X-73.347 Y-106.377
G2 X-80.983 Y-97.244 I-1.653 J6.377
G1 X-72.359 Y-78.519
G3 X-87.641 Y-71.481 I-7.641 J3.519
X-88.412 Y-75 I7.641 J-3.519
G1 Y-95
G2 X-95 Y-101.588 I-6.588 J0
G1 X-135
G2 X-145.62 Y-94.635 I0 J11.587
G1 X-163.95 Y-52.635
G2 X-163.296 Y-25.961 I28.95 J12.635
G1 X-145.38 Y10.15
G2 X-135 Y16.587 I10.38 J-5.15
G1 X-40
S5000
X52.851 Z-4 F333.3
S6000
X60 F1000
G2 X70.035 Y-0.794 I0 J-11.588
G1 X57.045 Y-23.294
G3 X60 Y-28.413 I2.955 J-1.706
G1 X80
G2 X85.481 Y-38.654 I0 J-6.588
G1 X65.481 Y-68.654
G2 X61.653 Y-71.377 I-5.481 J3.654
G1 X-73.347 Y-106.377
G2 X-80.983 Y-97.244 I-1.653 J6.377
G1 X-72.359 Y-78.519
G3 X-87.641 Y-71.481 I-7.641 J3.519
X-88.412 Y-75 I7.641 J-3.519
G1 Y-95
G2 X-95 Y-101.588 I-6.588 J0
G1 X-135
G2 X-145.62 Y-94.635 I0 J11.587
G1 X-163.95 Y-52.635
G2 X-163.296 Y-25.961 I28.95 J12.635
G1 X-145.38 Y10.15
G2 X-135 Y16.587 I10.38 J-5.15
G1 X-40
X52.851
S5000
X60 Z-4.154 F333.3
G2 X70.035 Y-0.794 Z-4.677 I0 J-11.588
G1 X57.045 Y-23.294 Z-5.236
G3 X60 Y-28.413 Z-5.39 I2.955 J-1.706
G1 X80 Z-5.821
G2 X86.273 Y-32.99 Z-6 I0 J-6.588
S6000
X85.481 Y-38.654 I-6.273 J-2.01 F1000
G1 X65.481 Y-68.654
G2 X61.653 Y-71.377 I-5.481 J3.654
G1 X-73.347 Y-106.377
G2 X-80.983 Y-97.244 I-1.653 J6.377
G1 X-72.359 Y-78.519
G3 X-87.641 Y-71.481 I-7.641 J3.519
X-88.412 Y-75 I7.641 J-3.519
G1 Y-95
G2 X-95 Y-101.588 I-6.588 J0
G1 X-135
G2 X-145.62 Y-94.635 I0 J11.587
G1 X-163.95 Y-52.635
G2 X-163.296 Y-25.961 I28.95 J12.635
G1 X-145.38 Y10.15
G2 X-135 Y16.587 I10.38 J-5.15
G1 X52.851
X60
G2 X70.035 Y-0.794 I0 J-11.588
G1 X57.045 Y-23.294
G3 X60 Y-28.413 I2.955 J-1.706
G1 X80
G2 X86.273 Y-32.99 I0 J-6.588
S5000
X85.481 Y-38.654 Z-6.127 I-6.273 J-2.01 F333.3
G1 X65.481 Y-68.654 Z-6.904
G2 X61.653 Y-71.377 Z-7.008 I-5.481 J3.654
G1 X17.052 Y-82.94 Z-8
S6000
X-73.347 Y-106.377 F1000
G2 X-80.983 Y-97.244 I-1.653 J6.377
G1 X-72.359 Y-78.519
G3 X-87.641 Y-71.481 I-7.641 J3.519
X-88.412 Y-75 I7.641 J-3.519
G1 Y-95
G2 X-95 Y-101.588 I-6.588 J0
G1 X-135
G2 X-145.62 Y-94.635 I0 J11.587
G1 X-163.95 Y-52.635
G2 X-163.296 Y-25.961 I28.95 J12.635
G1 X-145.38 Y10.15
G2 X-135 Y16.587 I10.38 J-5.15
G1 X60
G2 X70.035 Y-0.794 I0 J-11.588
G1 X57.045 Y-23.294
G3 X60 Y-28.413 I2.955 J-1.706
G1 X80
G2 X85.481 Y-38.654 I0 J-6.588
G1 X65.481 Y-68.654
G2 X61.653 Y-71.377 I-5.481 J3.654
G1 X17.052 Y-82.94
S5000
X-72.827 Y-106.242 Z-10 F333.3
S6000
X-73.347 Y-106.377 F1000
G2 X-80.983 Y-97.244 I-1.653 J6.377
G1 X-72.359 Y-78.519
G3 X-87.641 Y-71.481 I-7.641 J3.519
X-88.412 Y-75 I7.641 J-3.519
G1 Y-95
G2 X-95 Y-101.588 I-6.588 J0
G1 X-135
G2 X-145.62 Y-94.635 I0 J11.587
G1 X-163.95 Y-52.635
G2 X-163.296 Y-25.961 I28.95 J12.635
G1 X-145.38 Y10.15
G2 X-135 Y16.587 I10.38 J-5.15
G1 X60
G2 X70.035 Y-0.794 I0 J-11.588
G1 X57.045 Y-23.294
G3 X60 Y-28.413 I2.955 J-1.706
G1 X80
G2 X85.481 Y-38.654 I0 J-6.588
G1 X65.481 Y-68.654
G2 X61.653 Y-71.377 I-5.481 J3.654
G1 X-72.827 Y-106.242
S5000
X-73.347 Y-106.377 Z-10.012 F333.3
G2 X-80.983 Y-97.244 Z-10.332 I-1.653 J6.377
G1 X-72.359 Y-78.519 Z-10.776
G3 X-87.641 Y-71.481 Z-11.345 I-7.641 J3.519
X-88.412 Y-75 Z-11.423 I7.641 J-3.519
G1 Y-95 Z-11.854
G2 X-91.602 Y-100.643 Z-12 I-6.588 J0
S6000
X-95 Y-101.588 I-3.398 J5.643 F1000
G1 X-135
G2 X-145.62 Y-94.635 I0 J11.587
G1 X-163.95 Y-52.635
G2 X-163.296 Y-25.961 I28.95 J12.635
G1 X-145.38 Y10.15
G2 X-135 Y16.587 I10.38 J-5.15
G1 X60
G2 X70.035 Y-0.794 I0 J-11.588
G1 X57.045 Y-23.294
G3 X60 Y-28.413 I2.955 J-1.706
G1 X80
G2 X85.481 Y-38.654 I0 J-6.588
G1 X65.481 Y-68.654
G2 X61.653 Y-71.377 I-5.481 J3.654
G1 X-72.827 Y-106.242
X-73.347 Y-106.377
G2 X-80.983 Y-97.244 I-1.653 J6.377
G1 X-72.359 Y-78.519
G3 X-87.641 Y-71.481 I-7.641 J3.519
X-88.412 Y-75 I7.641 J-3.519
G1 Y-95
G2 X-91.602 Y-100.643 I-6.588 J0
S5000
X-95 Y-101.588 Z-12.077 I-3.398 J5.643 F333.3
G1 X-135 Z-12.939
G2 X-145.62 Y-94.635 Z-13.228 I0 J11.587
G1 X-159.959 Y-61.781 Z-14
S6000
X-163.95 Y-52.635 F1000
G2 X-163.296 Y-25.961 I28.95 J12.635
G1 X-145.38 Y10.15
G2 X-135 Y16.587 I10.38 J-5.15
G1 X60
G2 X70.035 Y-0.794 I0 J-11.588
G1 X57.045 Y-23.294
G3 X60 Y-28.413 I2.955 J-1.706
G1 X80
G2 X85.481 Y-38.654 I0 J-6.588
G1 X65.481 Y-68.654
G2 X61.653 Y-71.377 I-5.481 J3.654
G1 X-73.347 Y-106.377
G2 X-80.983 Y-97.244 I-1.653 J6.377
G1 X-72.359 Y-78.519
G3 X-87.641 Y-71.481 I-7.641 J3.519
X-88.412 Y-75 I7.641 J-3.519
G1 Y-95
G2 X-95 Y-101.588 I-6.588 J0
G1 X-135
G2 X-145.62 Y-94.635 I0 J11.587
G1 X-159.959 Y-61.781
S5000
X-163.95 Y-52.635 Z-14.215 F333.3
G2 X-163.296 Y-25.961 Z-14.808 I28.95 J12.635
G1 X-145.38 Y10.15 Z-15.677
G2 X-135 Y16.587 Z-15.954 I10.38 J-5.15
G1 X-132.85 Z-16
S6000
X60 F1000
G2 X70.035 Y-0.794 I0 J-11.588
G1 X57.045 Y-23.294
G3 X60 Y-28.413 I2.955 J-1.706
G1 X80
G2 X85.481 Y-38.654 I0 J-6.588
G1 X65.481 Y-68.654
G2 X61.653 Y-71.377 I-5.481 J3.654
G1 X-73.347 Y-106.377
G2 X-80.983 Y-97.244 I-1.653 J6.377
G1 X-72.359 Y-78.519
G3 X-87.641 Y-71.481 I-7.641 J3.519
X-88.412 Y-75 I7.641 J-3.519
G1 Y-95
G2 X-95 Y-101.588 I-6.588 J0
G1 X-135
G2 X-145.62 Y-94.635 I0 J11.587
G1 X-159.959 Y-61.781
X-163.95 Y-52.635
G2 X-163.296 Y-25.961 I28.95 J12.635
G1 X-145.38 Y10.15
G2 X-135 Y16.587 I10.38 J-5.15
G1 X-132.85
S5000
X-40 Z-18 F333.3
S6000
X60 F1000
G2 X70.035 Y-0.794 I0 J-11.588
G1 X57.045 Y-23.294
G3 X60 Y-28.413 I2.955 J-1.706
G1 X80
G2 X85.481 Y-38.654 I0 J-6.588
G1 X65.481 Y-68.654
G2 X61.653 Y-71.377 I-5.481 J3.654
G1 X-73.347 Y-106.377
G2 X-80.983 Y-97.244 I-1.653 J6.377
G1 X-72.359 Y-78.519
G3 X-87.641 Y-71.481 I-7.641 J3.519
X-88.412 Y-75 I7.641 J-3.519
G1 Y-95
G2 X-95 Y-101.588 I-6.588 J0
G1 X-135
G2 X-145.62 Y-94.635 I0 J11.587
G1 X-163.95 Y-52.635
G2 X-163.296 Y-25.961 I28.95 J12.635
G1 X-145.38 Y10.15
G2 X-135 Y16.587 I10.38 J-5.15
G1 X-40
S5000
X20.913 Z-19.312 F333.3
Z-18.2
X34.088
S6000
Z-19.596
S5000
X52.851 Z-20
S6000
X60 F1000
G2 X70.035 Y-0.794 I0 J-11.588
G1 X57.045 Y-23.294
G3 X60 Y-28.413 I2.955 J-1.706
G1 X80
G2 X85.481 Y-38.654 I0 J-6.588
G1 X65.481 Y-68.654
G2 X61.653 Y-71.377 I-5.481 J3.654
G1 X34.28 Y-78.473
Z-18.2
X21.527 Y-81.78
Z-20 F333.3
X-33.22 Y-95.973 F1000
Z-18.2
X-45.973 Y-99.28
Z-20 F333.3
X-73.347 Y-106.377 F1000
G2 X-80.983 Y-97.244 I-1.653 J6.377
G1 X-72.359 Y-78.519
G3 X-87.641 Y-71.481 I-7.641 J3.519
X-88.412 Y-75 I7.641 J-3.519
G1 Y-95
G2 X-95 Y-101.588 I-6.588 J0
G1 X-135
G2 X-145.62 Y-94.635 I0 J11.587
G1 X-163.95 Y-52.635
G2 X-163.296 Y-25.961 I28.95 J12.635
G1 X-145.38 Y10.15
G2 X-135 Y16.587 I10.38 J-5.15
G1 X-109.088
Z-18.2
X-95.912
Z-20 F333.3
X-44.088 F1000
Z-18.2
X-30.913
Z-20 F333.3
X20.913 F1000
Z-18.2
X34.088
Z-20 F333.3
X52.851 F1000
S5000
X60 Z-20.154 F333.3
G2 X70.035 Y-0.794 Z-20.677 I0 J-11.588
G1 X57.889 Y-21.832 Z-21.2
S6000
X57.045 Y-23.294 F1000
G3 X60 Y-28.413 I2.955 J-1.706
G1 X80
G2 X85.481 Y-38.654 I0 J-6.588
G1 X65.481 Y-68.654
G2 X61.653 Y-71.377 I-5.481 J3.654
G1 X34.28 Y-78.473
Z-18.2
X21.527 Y-81.78
Z-21.2 F333.3
X-33.22 Y-95.973 F1000
Z-18.2
X-45.973 Y-99.28
Z-21.2 F333.3
X-73.347 Y-106.377 F1000
G2 X-80.983 Y-97.244 I-1.653 J6.377
G1 X-72.359 Y-78.519
G3 X-87.641 Y-71.481 I-7.641 J3.519
X-88.412 Y-75 I7.641 J-3.519
G1 Y-95
G2 X-95 Y-101.588 I-6.588 J0
G1 X-135
G2 X-145.62 Y-94.635 I0 J11.587
G1 X-163.95 Y-52.635
G2 X-163.296 Y-25.961 I28.95 J12.635
G1 X-145.38 Y10.15
G2 X-135 Y16.587 I10.38 J-5.15
G1 X-109.088
Z-18.2
X-95.912
Z-21.2 F333.3
X-44.088 F1000
Z-18.2
X-30.913
Z-21.2 F333.3
X20.913 F1000
Z-18.2
X34.088
Z-21.2 F333.3
X60 F1000
G2 X70.035 Y-0.794 I0 J-11.588
G1 X57.889 Y-21.832
Z15
M5
M30
