(1001)
(Bearbeiten)
(  Hersteller: ChinaCnc)
(  model: 3040T)
(  description: Generic 3-axis)
(T5  D=3.175 CR=0 - ZMIN=-21 - Schaftfraser)
G90 G94
G17
G21
G28 G91 Z0
G90

(2D-Kontur8)
T5
S6000 M3
G54
G0 X143.574 Y-89.855
Z15
Z5
G1 Z2 F333.3
Z-0.683
X143.581 Y-89.857 Z-0.753 F1000
X143.604 Y-89.864 Z-0.82
X143.64 Y-89.875 Z-0.88
X143.688 Y-89.889 Z-0.931
X143.746 Y-89.906 Z-0.969
X143.81 Y-89.925 Z-0.992
X143.878 Y-89.945 Z-1
X144.182 Y-90.036
G3 X144.577 Y-89.823 I0.091 J0.304
G1 X159.687 Y-39.142
G3 X159.477 Y-36.656 I-3.27 J0.976
G1 X159.454 Y-36.611
X159.448 Y-36.599
G3 X153.893 Y-35.79 I-3.057 J-1.517
G2 X99.766 Y-61.596 I-59.718 J55.59
G3 X96.588 Y-65 I0.234 J-3.404
G1 Y-110
G3 X100 Y-113.412 I3.412 J0
G1 X135
G3 X138.271 Y-110.975 I0 J3.413
G1 X144.577 Y-89.823
G3 X144.363 Y-89.428 I-0.304 J0.091
G1 X144.059 Y-89.337
X143.991 Y-89.317 Z-0.992
X143.927 Y-89.298 Z-0.969
X143.869 Y-89.28 Z-0.931
X143.821 Y-89.266 Z-0.88
X143.785 Y-89.255 Z-0.82
X143.763 Y-89.248 Z-0.753
X143.755 Y-89.246 Z-0.683
G0 Z5
X143.574 Y-89.855
G1 Z1 F333.3
Z-1.683
X143.581 Y-89.857 Z-1.753 F1000
X143.604 Y-89.864 Z-1.82
X143.64 Y-89.875 Z-1.88
X143.688 Y-89.889 Z-1.931
X143.746 Y-89.906 Z-1.969
X143.81 Y-89.925 Z-1.992
X143.878 Y-89.945 Z-2
X144.182 Y-90.036
G3 X144.577 Y-89.823 I0.091 J0.304
G1 X159.687 Y-39.142
G3 X159.477 Y-36.656 I-3.27 J0.976
G1 X159.454 Y-36.611
X159.448 Y-36.599
G3 X153.893 Y-35.79 I-3.057 J-1.517
G2 X99.766 Y-61.596 I-59.718 J55.59
G3 X96.588 Y-65 I0.234 J-3.404
G1 Y-110
G3 X100 Y-113.412 I3.412 J0
G1 X135
G3 X138.271 Y-110.975 I0 J3.413
G1 X144.577 Y-89.823
G3 X144.363 Y-89.428 I-0.304 J0.091
G1 X144.059 Y-89.337
X143.991 Y-89.317 Z-1.992
X143.927 Y-89.298 Z-1.969
X143.869 Y-89.28 Z-1.931
X143.821 Y-89.266 Z-1.88
X143.785 Y-89.255 Z-1.82
X143.763 Y-89.248 Z-1.753
X143.755 Y-89.246 Z-1.683
G0 Z5
X143.574 Y-89.855
G1 Z0 F333.3
Z-2.683
X143.581 Y-89.857 Z-2.753 F1000
X143.604 Y-89.864 Z-2.82
X143.64 Y-89.875 Z-2.88
X143.688 Y-89.889 Z-2.931
X143.746 Y-89.906 Z-2.969
X143.81 Y-89.925 Z-2.992
X143.878 Y-89.945 Z-3
X144.182 Y-90.036
G3 X144.577 Y-89.823 I0.091 J0.304
G1 X159.687 Y-39.142
G3 X159.477 Y-36.656 I-3.27 J0.976
G1 X159.454 Y-36.611
X159.448 Y-36.599
G3 X153.893 Y-35.79 I-3.057 J-1.517
G2 X99.766 Y-61.596 I-59.718 J55.59
G3 X96.588 Y-65 I0.234 J-3.404
G1 Y-110
G3 X100 Y-113.412 I3.412 J0
G1 X135
G3 X138.271 Y-110.975 I0 J3.413
G1 X144.577 Y-89.823
G3 X144.363 Y-89.428 I-0.304 J0.091
G1 X144.059 Y-89.337
X143.991 Y-89.317 Z-2.992
X143.927 Y-89.298 Z-2.969
X143.869 Y-89.28 Z-2.931
X143.821 Y-89.266 Z-2.88
X143.785 Y-89.255 Z-2.82
X143.763 Y-89.248 Z-2.753
X143.755 Y-89.246 Z-2.683
G0 Z15

(2D-Kontur9)
X154.978 Y-34.854
Z15
Z5
G1 Z1 F333.3
Z-2.683
X154.98 Y-34.862 Z-2.753 F1000
X154.988 Y-34.884 Z-2.82
X154.999 Y-34.92 Z-2.88
X155.015 Y-34.968 Z-2.931
X155.034 Y-35.025 Z-2.969
X155.055 Y-35.088 Z-2.992
X155.077 Y-35.155 Z-3
X155.177 Y-35.457
G3 X155.578 Y-35.659 I0.301 J0.1
G2 X158.709 Y-36.965 I0.813 J-2.457
G1 X158.714 Y-36.975
X158.736 Y-37.021
G2 X158.897 Y-38.905 I-2.319 J-1.146
G1 X137.479 Y-110.74
G2 X135 Y-112.588 I-2.479 J0.739
G1 X100
G2 X97.412 Y-110 I0 J2.588
G1 Y-65
G2 X99.823 Y-62.419 I2.587 J0
G3 X154.497 Y-36.352 I-5.648 J82.219
G2 X155.578 Y-35.659 I1.894 J-1.763
G3 X155.78 Y-35.257 I-0.1 J0.301
G1 X155.68 Y-34.956
X155.658 Y-34.889 Z-2.992
X155.637 Y-34.825 Z-2.969
X155.618 Y-34.768 Z-2.931
X155.602 Y-34.72 Z-2.88
X155.59 Y-34.684 Z-2.82
X155.583 Y-34.662 Z-2.753
X155.581 Y-34.655 Z-2.683
G0 Z15

(2D-Kontur11)
X-30.906 Y-50.998
Z15
Z5
G1 Z2 F333.3
Z-0.683
X-30.91 Y-50.99 Z-0.753 F1000
X-30.92 Y-50.969 Z-0.82
X-30.937 Y-50.936 Z-0.88
X-30.96 Y-50.891 Z-0.931
X-30.987 Y-50.837 Z-0.969
X-31.017 Y-50.777 Z-0.992
X-31.048 Y-50.714 Z-1
X-31.19 Y-50.43
G3 X-31.616 Y-50.288 I-0.284 J-0.142
G1 X-32.039 Y-50.499
X-17.806 Y-78.964
X-17.068 Y-78.595
X-31.301 Y-50.13
X-31.616 Y-50.288
G3 X-31.758 Y-50.714 I0.142 J-0.284
G1 X-31.616 Y-50.998
X-31.585 Y-51.061 Z-0.992
X-31.555 Y-51.121 Z-0.969
X-31.528 Y-51.175 Z-0.931
X-31.505 Y-51.22 Z-0.88
X-31.488 Y-51.253 Z-0.82
X-31.478 Y-51.274 Z-0.753
X-31.474 Y-51.282 Z-0.683
G0 Z5
X-30.906 Y-50.998
G1 Z1 F333.3
Z-1.683
X-30.91 Y-50.99 Z-1.753 F1000
X-30.92 Y-50.969 Z-1.82
X-30.937 Y-50.936 Z-1.88
X-30.96 Y-50.891 Z-1.931
X-30.987 Y-50.837 Z-1.969
X-31.017 Y-50.777 Z-1.992
X-31.048 Y-50.714 Z-2
X-31.19 Y-50.43
G3 X-31.616 Y-50.288 I-0.284 J-0.142
G1 X-32.039 Y-50.499
X-17.806 Y-78.964
X-17.068 Y-78.595
X-31.301 Y-50.13
X-31.616 Y-50.288
G3 X-31.758 Y-50.714 I0.142 J-0.284
G1 X-31.616 Y-50.998
X-31.585 Y-51.061 Z-1.992
X-31.555 Y-51.121 Z-1.969
X-31.528 Y-51.175 Z-1.931
X-31.505 Y-51.22 Z-1.88
X-31.488 Y-51.253 Z-1.82
X-31.478 Y-51.274 Z-1.753
X-31.474 Y-51.282 Z-1.683
G0 Z5
X-30.906 Y-50.998
G1 Z0 F333.3
Z-2.683
X-30.91 Y-50.99 Z-2.753 F1000
X-30.92 Y-50.969 Z-2.82
X-30.937 Y-50.936 Z-2.88
X-30.96 Y-50.891 Z-2.931
X-30.987 Y-50.837 Z-2.969
X-31.017 Y-50.777 Z-2.992
X-31.048 Y-50.714 Z-3
X-31.19 Y-50.43
G3 X-31.616 Y-50.288 I-0.284 J-0.142
G1 X-32.039 Y-50.499
X-17.806 Y-78.964
X-17.068 Y-78.595
X-31.301 Y-50.13
X-31.616 Y-50.288
G3 X-31.758 Y-50.714 I0.142 J-0.284
G1 X-31.616 Y-50.998
X-31.585 Y-51.061 Z-2.992
X-31.555 Y-51.121 Z-2.969
X-31.528 Y-51.175 Z-2.931
X-31.505 Y-51.22 Z-2.88
X-31.488 Y-51.253 Z-2.82
X-31.478 Y-51.274 Z-2.753
X-31.474 Y-51.282 Z-2.683
G0 Z5
X-57.573 Y-50.998
G1 Z2 F333.3
Z-0.683
X-57.576 Y-50.99 Z-0.753 F1000
X-57.587 Y-50.969 Z-0.82
X-57.604 Y-50.936 Z-0.88
X-57.626 Y-50.891 Z-0.931
X-57.653 Y-50.837 Z-0.969
X-57.683 Y-50.777 Z-0.992
X-57.715 Y-50.714 Z-1
X-57.857 Y-50.43
G3 X-58.283 Y-50.288 I-0.284 J-0.142
G1 X-58.705 Y-50.499
X-44.473 Y-78.964
X-43.735 Y-78.595
X-57.967 Y-50.13
X-58.283 Y-50.288
G3 X-58.425 Y-50.714 I0.142 J-0.284
G1 X-58.283 Y-50.998
X-58.251 Y-51.061 Z-0.992
X-58.221 Y-51.121 Z-0.969
X-58.194 Y-51.175 Z-0.931
X-58.172 Y-51.22 Z-0.88
X-58.155 Y-51.253 Z-0.82
X-58.144 Y-51.274 Z-0.753
X-58.141 Y-51.282 Z-0.683
G0 Z5
X-57.573 Y-50.998
G1 Z1 F333.3
Z-1.683
X-57.576 Y-50.99 Z-1.753 F1000
X-57.587 Y-50.969 Z-1.82
X-57.604 Y-50.936 Z-1.88
X-57.626 Y-50.891 Z-1.931
X-57.653 Y-50.837 Z-1.969
X-57.683 Y-50.777 Z-1.992
X-57.715 Y-50.714 Z-2
X-57.857 Y-50.43
G3 X-58.283 Y-50.288 I-0.284 J-0.142
G1 X-58.705 Y-50.499
X-44.473 Y-78.964
X-43.735 Y-78.595
X-57.967 Y-50.13
X-58.283 Y-50.288
G3 X-58.425 Y-50.714 I0.142 J-0.284
G1 X-58.283 Y-50.998
X-58.251 Y-51.061 Z-1.992
X-58.221 Y-51.121 Z-1.969
X-58.194 Y-51.175 Z-1.931
X-58.172 Y-51.22 Z-1.88
X-58.155 Y-51.253 Z-1.82
X-58.144 Y-51.274 Z-1.753
X-58.141 Y-51.282 Z-1.683
G0 Z5
X-57.573 Y-50.998
G1 Z0 F333.3
Z-2.683
X-57.576 Y-50.99 Z-2.753 F1000
X-57.587 Y-50.969 Z-2.82
X-57.604 Y-50.936 Z-2.88
X-57.626 Y-50.891 Z-2.931
X-57.653 Y-50.837 Z-2.969
X-57.683 Y-50.777 Z-2.992
X-57.715 Y-50.714 Z-3
X-57.857 Y-50.43
G3 X-58.283 Y-50.288 I-0.284 J-0.142
G1 X-58.705 Y-50.499
X-44.473 Y-78.964
X-43.735 Y-78.595
X-57.967 Y-50.13
X-58.283 Y-50.288
G3 X-58.425 Y-50.714 I0.142 J-0.284
G1 X-58.283 Y-50.998
X-58.251 Y-51.061 Z-2.992
X-58.221 Y-51.121 Z-2.969
X-58.194 Y-51.175 Z-2.931
X-58.172 Y-51.22 Z-2.88
X-58.155 Y-51.253 Z-2.82
X-58.144 Y-51.274 Z-2.753
X-58.141 Y-51.282 Z-2.683
G0 Z5
X-4.239 Y-50.998
G1 Z2 F333.3
Z-0.683
X-4.243 Y-50.99 Z-0.753 F1000
X-4.254 Y-50.969 Z-0.82
X-4.27 Y-50.936 Z-0.88
X-4.293 Y-50.891 Z-0.931
X-4.32 Y-50.837 Z-0.969
X-4.35 Y-50.777 Z-0.992
X-4.381 Y-50.714 Z-1
X-4.523 Y-50.43
G3 X-4.949 Y-50.288 I-0.284 J-0.142
G1 X-5.372 Y-50.499
X8.861 Y-78.964
X9.599 Y-78.595
X-4.634 Y-50.13
X-4.949 Y-50.288
G3 X-5.091 Y-50.714 I0.142 J-0.284
G1 X-4.949 Y-50.998
X-4.918 Y-51.061 Z-0.992
X-4.888 Y-51.121 Z-0.969
X-4.861 Y-51.175 Z-0.931
X-4.838 Y-51.22 Z-0.88
X-4.822 Y-51.253 Z-0.82
X-4.811 Y-51.274 Z-0.753
X-4.807 Y-51.282 Z-0.683
G0 Z5
X-4.239 Y-50.998
G1 Z1 F333.3
Z-1.683
X-4.243 Y-50.99 Z-1.753 F1000
X-4.254 Y-50.969 Z-1.82
X-4.27 Y-50.936 Z-1.88
X-4.293 Y-50.891 Z-1.931
X-4.32 Y-50.837 Z-1.969
X-4.35 Y-50.777 Z-1.992
X-4.381 Y-50.714 Z-2
X-4.523 Y-50.43
G3 X-4.949 Y-50.288 I-0.284 J-0.142
G1 X-5.372 Y-50.499
X8.861 Y-78.964
X9.599 Y-78.595
X-4.634 Y-50.13
X-4.949 Y-50.288
G3 X-5.091 Y-50.714 I0.142 J-0.284
G1 X-4.949 Y-50.998
X-4.918 Y-51.061 Z-1.992
X-4.888 Y-51.121 Z-1.969
X-4.861 Y-51.175 Z-1.931
X-4.838 Y-51.22 Z-1.88
X-4.822 Y-51.253 Z-1.82
X-4.811 Y-51.274 Z-1.753
X-4.807 Y-51.282 Z-1.683
G0 Z5
X-4.239 Y-50.998
G1 Z0 F333.3
Z-2.683
X-4.243 Y-50.99 Z-2.753 F1000
X-4.254 Y-50.969 Z-2.82
X-4.27 Y-50.936 Z-2.88
X-4.293 Y-50.891 Z-2.931
X-4.32 Y-50.837 Z-2.969
X-4.35 Y-50.777 Z-2.992
X-4.381 Y-50.714 Z-3
X-4.523 Y-50.43
G3 X-4.949 Y-50.288 I-0.284 J-0.142
G1 X-5.372 Y-50.499
X8.861 Y-78.964
X9.599 Y-78.595
X-4.634 Y-50.13
X-4.949 Y-50.288
G3 X-5.091 Y-50.714 I0.142 J-0.284
G1 X-4.949 Y-50.998
X-4.918 Y-51.061 Z-2.992
X-4.888 Y-51.121 Z-2.969
X-4.861 Y-51.175 Z-2.931
X-4.838 Y-51.22 Z-2.88
X-4.822 Y-51.253 Z-2.82
X-4.811 Y-51.274 Z-2.753
X-4.807 Y-51.282 Z-2.683
G0 Z5
X22.427 Y-50.998
G1 Z2 F333.3
Z-0.683
X22.424 Y-50.99 Z-0.753 F1000
X22.413 Y-50.969 Z-0.82
X22.396 Y-50.936 Z-0.88
X22.374 Y-50.891 Z-0.931
X22.347 Y-50.837 Z-0.969
X22.317 Y-50.777 Z-0.992
X22.285 Y-50.714 Z-1
X22.143 Y-50.43
G3 X21.717 Y-50.288 I-0.284 J-0.142
G1 X21.295 Y-50.499
X35.527 Y-78.964
X36.265 Y-78.595
X22.033 Y-50.13
X21.717 Y-50.288
G3 X21.575 Y-50.714 I0.142 J-0.284
G1 X21.717 Y-50.998
X21.749 Y-51.061 Z-0.992
X21.779 Y-51.121 Z-0.969
X21.806 Y-51.175 Z-0.931
X21.828 Y-51.22 Z-0.88
X21.845 Y-51.253 Z-0.82
X21.856 Y-51.274 Z-0.753
X21.859 Y-51.282 Z-0.683
G0 Z5
X22.427 Y-50.998
G1 Z1 F333.3
Z-1.683
X22.424 Y-50.99 Z-1.753 F1000
X22.413 Y-50.969 Z-1.82
X22.396 Y-50.936 Z-1.88
X22.374 Y-50.891 Z-1.931
X22.347 Y-50.837 Z-1.969
X22.317 Y-50.777 Z-1.992
X22.285 Y-50.714 Z-2
X22.143 Y-50.43
G3 X21.717 Y-50.288 I-0.284 J-0.142
G1 X21.295 Y-50.499
X35.527 Y-78.964
X36.265 Y-78.595
X22.033 Y-50.13
X21.717 Y-50.288
G3 X21.575 Y-50.714 I0.142 J-0.284
G1 X21.717 Y-50.998
X21.749 Y-51.061 Z-1.992
X21.779 Y-51.121 Z-1.969
X21.806 Y-51.175 Z-1.931
X21.828 Y-51.22 Z-1.88
X21.845 Y-51.253 Z-1.82
X21.856 Y-51.274 Z-1.753
X21.859 Y-51.282 Z-1.683
G0 Z5
X22.427 Y-50.998
G1 Z0 F333.3
Z-2.683
X22.424 Y-50.99 Z-2.753 F1000
X22.413 Y-50.969 Z-2.82
X22.396 Y-50.936 Z-2.88
X22.374 Y-50.891 Z-2.931
X22.347 Y-50.837 Z-2.969
X22.317 Y-50.777 Z-2.992
X22.285 Y-50.714 Z-3
X22.143 Y-50.43
G3 X21.717 Y-50.288 I-0.284 J-0.142
G1 X21.295 Y-50.499
X35.527 Y-78.964
X36.265 Y-78.595
X22.033 Y-50.13
X21.717 Y-50.288
G3 X21.575 Y-50.714 I0.142 J-0.284
G1 X21.717 Y-50.998
X21.749 Y-51.061 Z-2.992
X21.779 Y-51.121 Z-2.969
X21.806 Y-51.175 Z-2.931
X21.828 Y-51.22 Z-2.88
X21.845 Y-51.253 Z-2.82
X21.856 Y-51.274 Z-2.753
X21.859 Y-51.282 Z-2.683
G0 Z15

(2D-Kontur18)
X53.326 Y-57.196
Z15
Z5
G1 Z2.5 F333.3
S5000
X67.511 Y-87.994 Z1.316
X68.261 Y-87.649 Z1.287
X51.207 Y-50.624 Z-0.136
G3 X31.653 Y-37.602 Z-1 I-20.357 J-9.376
S6000
X30.85 Y-37.588 I-0.802 J-22.398 F1000
G1 X-48.412
Y-38.412
X30.851
G2 X50.458 Y-50.969 I0 J-21.587
G1 X67.511 Y-87.994
X68.261 Y-87.649
X51.207 Y-50.624
G3 X31.653 Y-37.602 I-20.357 J-9.376
S5000
X30.85 Y-37.588 Z-1.028 I-0.802 J-22.398 F333.3
G1 X3.017 Z-2
S6000
X-48.412 F1000
Y-38.412
X30.851
G2 X50.458 Y-50.969 I0 J-21.587
G1 X67.511 Y-87.994
X68.261 Y-87.649
X51.207 Y-50.624
G3 X30.85 Y-37.588 I-20.357 J-9.376
G1 X3.017
S5000
X-25.62 Z-3 F333.3
S6000
X-48.412 F1000
Y-38.412
X30.851
G2 X50.458 Y-50.969 I0 J-21.587
G1 X67.511 Y-87.994
X68.261 Y-87.649
X51.207 Y-50.624
G3 X30.85 Y-37.588 I-20.357 J-9.376
G1 X-25.62
G0 Z15

(2D-Kontur15)
X135.318 Y-122.54
Z15
Z5
G1 Z2 F333.3
Z-0.683
G19 G3 Y-122.223 Z-1 J0.317 K0 F1000
G1 Y-121.905
G17 G3 X135 Y-121.588 I-0.318 J0
G1 X95
G2 X88.412 Y-115 I0 J6.588
G1 Y-95
G3 X71.588 Y-95 I-8.412 J0
X72.359 Y-98.519 I8.412 J0
G1 X80.983 Y-117.244
G2 X73.347 Y-126.377 I-5.983 J-2.756
G1 X-61.653 Y-91.377
G2 X-65.892 Y-87.946 I1.653 J6.377
G1 X-85.892 Y-47.946
G2 X-80 Y-38.412 I5.892 J2.946
G1 X-60
G3 X-56.837 Y-33.72 I0 J3.412
G1 X-70.742 Y0.655
G2 X-60 Y16.587 I10.742 J4.345
G1 X135
G2 X145.38 Y10.15 I0 J-11.587
G1 X163.296 Y-25.961
G2 X165.27 Y-49.025 I-28.296 J-14.039
G1 X146.104 Y-113.311
G2 X135 Y-121.588 I-11.104 J3.31
G3 X134.683 Y-121.905 I0 J-0.317
G1 Y-122.223
G19 G2 Y-122.54 Z-0.683 J0 K0.317
G0 Z5
X135.318
G1 Z1 F333.3
Z-1.683
G3 Y-122.223 Z-2 J0.317 K0 F1000
G1 Y-121.905
G17 G3 X135 Y-121.588 I-0.318 J0
G1 X95
G2 X88.412 Y-115 I0 J6.588
G1 Y-95
G3 X71.588 Y-95 I-8.412 J0
X72.359 Y-98.519 I8.412 J0
G1 X80.983 Y-117.244
G2 X73.347 Y-126.377 I-5.983 J-2.756
G1 X-61.653 Y-91.377
G2 X-65.892 Y-87.946 I1.653 J6.377
G1 X-85.892 Y-47.946
G2 X-80 Y-38.412 I5.892 J2.946
G1 X-60
G3 X-56.837 Y-33.72 I0 J3.412
G1 X-70.742 Y0.655
G2 X-60 Y16.587 I10.742 J4.345
G1 X135
G2 X145.38 Y10.15 I0 J-11.587
G1 X163.296 Y-25.961
G2 X165.27 Y-49.025 I-28.296 J-14.039
G1 X146.104 Y-113.311
G2 X135 Y-121.588 I-11.104 J3.31
G3 X134.683 Y-121.905 I0 J-0.317
G1 Y-122.223
G19 G2 Y-122.54 Z-1.683 J0 K0.317
G0 Z5
X135.318
G1 Z0 F333.3
Z-2.683
G3 Y-122.223 Z-3 J0.317 K0 F1000
G1 Y-121.905
G17 G3 X135 Y-121.588 I-0.318 J0
G1 X95
G2 X88.412 Y-115 I0 J6.588
G1 Y-95
G3 X71.588 Y-95 I-8.412 J0
X72.359 Y-98.519 I8.412 J0
G1 X80.983 Y-117.244
G2 X73.347 Y-126.377 I-5.983 J-2.756
G1 X-61.653 Y-91.377
G2 X-65.892 Y-87.946 I1.653 J6.377
G1 X-85.892 Y-47.946
G2 X-80 Y-38.412 I5.892 J2.946
G1 X-60
G3 X-56.837 Y-33.72 I0 J3.412
G1 X-70.742 Y0.655
G2 X-60 Y16.587 I10.742 J4.345
G1 X135
G2 X145.38 Y10.15 I0 J-11.587
G1 X163.296 Y-25.961
G2 X165.27 Y-49.025 I-28.296 J-14.039
G1 X146.104 Y-113.311
G2 X135 Y-121.588 I-11.104 J3.31
G3 X134.683 Y-121.905 I0 J-0.317
G1 Y-122.223
G19 G2 Y-122.54 Z-2.683 J0 K0.318
G0 Z5
X135.318
G1 Z-1 F333.3
Z-3.683
G3 Y-122.223 Z-4 J0.317 K0 F1000
G1 Y-121.905
G17 G3 X135 Y-121.588 I-0.318 J0
G1 X95
G2 X88.412 Y-115 I0 J6.588
G1 Y-95
G3 X71.588 Y-95 I-8.412 J0
X72.359 Y-98.519 I8.412 J0
G1 X80.983 Y-117.244
G2 X73.347 Y-126.377 I-5.983 J-2.756
G1 X-61.653 Y-91.377
G2 X-65.892 Y-87.946 I1.653 J6.377
G1 X-85.892 Y-47.946
G2 X-80 Y-38.412 I5.892 J2.946
G1 X-60
G3 X-56.837 Y-33.72 I0 J3.412
G1 X-70.742 Y0.655
G2 X-60 Y16.587 I10.742 J4.345
G1 X135
G2 X145.38 Y10.15 I0 J-11.587
G1 X163.296 Y-25.961
G2 X165.27 Y-49.025 I-28.296 J-14.039
G1 X146.104 Y-113.311
G2 X135 Y-121.588 I-11.104 J3.31
G3 X134.683 Y-121.905 I0 J-0.317
G1 Y-122.223
G19 G2 Y-122.54 Z-3.683 J0 K0.318
G0 Z5
X135.318
G1 Z-2 F333.3
Z-4.683
G3 Y-122.223 Z-5 J0.317 K0 F1000
G1 Y-121.905
G17 G3 X135 Y-121.588 I-0.318 J0
G1 X95
G2 X88.412 Y-115 I0 J6.588
G1 Y-95
G3 X71.588 Y-95 I-8.412 J0
X72.359 Y-98.519 I8.412 J0
G1 X80.983 Y-117.244
G2 X73.347 Y-126.377 I-5.983 J-2.756
G1 X-61.653 Y-91.377
G2 X-65.892 Y-87.946 I1.653 J6.377
G1 X-85.892 Y-47.946
G2 X-80 Y-38.412 I5.892 J2.946
G1 X-60
G3 X-56.837 Y-33.72 I0 J3.412
G1 X-70.742 Y0.655
G2 X-60 Y16.587 I10.742 J4.345
G1 X135
G2 X145.38 Y10.15 I0 J-11.587
G1 X163.296 Y-25.961
G2 X165.27 Y-49.025 I-28.296 J-14.039
G1 X146.104 Y-113.311
G2 X135 Y-121.588 I-11.104 J3.31
G3 X134.683 Y-121.905 I0 J-0.317
G1 Y-122.223
G19 G2 Y-122.54 Z-4.683 J0 K0.318
G0 Z5
X135.318
G1 Z-3 F333.3
Z-5.683
G3 Y-122.223 Z-6 J0.317 K0 F1000
G1 Y-121.905
G17 G3 X135 Y-121.588 I-0.318 J0
G1 X95
G2 X88.412 Y-115 I0 J6.588
G1 Y-95
G3 X71.588 Y-95 I-8.412 J0
X72.359 Y-98.519 I8.412 J0
G1 X80.983 Y-117.244
G2 X73.347 Y-126.377 I-5.983 J-2.756
G1 X-61.653 Y-91.377
G2 X-65.892 Y-87.946 I1.653 J6.377
G1 X-85.892 Y-47.946
G2 X-80 Y-38.412 I5.892 J2.946
G1 X-60
G3 X-56.837 Y-33.72 I0 J3.412
G1 X-70.742 Y0.655
G2 X-60 Y16.587 I10.742 J4.345
G1 X135
G2 X145.38 Y10.15 I0 J-11.587
G1 X163.296 Y-25.961
G2 X165.27 Y-49.025 I-28.296 J-14.039
G1 X146.104 Y-113.311
G2 X135 Y-121.588 I-11.104 J3.31
G3 X134.683 Y-121.905 I0 J-0.317
G1 Y-122.223
G19 G2 Y-122.54 Z-5.683 J0 K0.318
G0 Z5
X135.318
G1 Z-4 F333.3
Z-6.683
G3 Y-122.223 Z-7 J0.317 K0 F1000
G1 Y-121.905
G17 G3 X135 Y-121.588 I-0.318 J0
G1 X95
G2 X88.412 Y-115 I0 J6.588
G1 Y-95
G3 X71.588 Y-95 I-8.412 J0
X72.359 Y-98.519 I8.412 J0
G1 X80.983 Y-117.244
G2 X73.347 Y-126.377 I-5.983 J-2.756
G1 X-61.653 Y-91.377
G2 X-65.892 Y-87.946 I1.653 J6.377
G1 X-85.892 Y-47.946
G2 X-80 Y-38.412 I5.892 J2.946
G1 X-60
G3 X-56.837 Y-33.72 I0 J3.412
G1 X-70.742 Y0.655
G2 X-60 Y16.587 I10.742 J4.345
G1 X135
G2 X145.38 Y10.15 I0 J-11.587
G1 X163.296 Y-25.961
G2 X165.27 Y-49.025 I-28.296 J-14.039
G1 X146.104 Y-113.311
G2 X135 Y-121.588 I-11.104 J3.31
G3 X134.683 Y-121.905 I0 J-0.317
G1 Y-122.223
G19 G2 Y-122.54 Z-6.683 J0 K0.318
G0 Z5
X135.318
G1 Z-5 F333.3
Z-7.683
G3 Y-122.223 Z-8 J0.317 K0 F1000
G1 Y-121.905
G17 G3 X135 Y-121.588 I-0.318 J0
G1 X95
G2 X88.412 Y-115 I0 J6.588
G1 Y-95
G3 X71.588 Y-95 I-8.412 J0
X72.359 Y-98.519 I8.412 J0
G1 X80.983 Y-117.244
G2 X73.347 Y-126.377 I-5.983 J-2.756
G1 X-61.653 Y-91.377
G2 X-65.892 Y-87.946 I1.653 J6.377
G1 X-85.892 Y-47.946
G2 X-80 Y-38.412 I5.892 J2.946
G1 X-60
G3 X-56.837 Y-33.72 I0 J3.412
G1 X-70.742 Y0.655
G2 X-60 Y16.587 I10.742 J4.345
G1 X135
G2 X145.38 Y10.15 I0 J-11.587
G1 X163.296 Y-25.961
G2 X165.27 Y-49.025 I-28.296 J-14.039
G1 X146.104 Y-113.311
G2 X135 Y-121.588 I-11.104 J3.31
G3 X134.683 Y-121.905 I0 J-0.317
G1 Y-122.223
G19 G2 Y-122.54 Z-7.683 J0 K0.318
G0 Z5
X135.318
G1 Z-6 F333.3
Z-8.683
G3 Y-122.223 Z-9 J0.317 K0 F1000
G1 Y-121.905
G17 G3 X135 Y-121.588 I-0.318 J0
G1 X95
G2 X88.412 Y-115 I0 J6.588
G1 Y-95
G3 X71.588 Y-95 I-8.412 J0
X72.359 Y-98.519 I8.412 J0
G1 X80.983 Y-117.244
G2 X73.347 Y-126.377 I-5.983 J-2.756
G1 X-61.653 Y-91.377
G2 X-65.892 Y-87.946 I1.653 J6.377
G1 X-85.892 Y-47.946
G2 X-80 Y-38.412 I5.892 J2.946
G1 X-60
G3 X-56.837 Y-33.72 I0 J3.412
G1 X-70.742 Y0.655
G2 X-60 Y16.587 I10.742 J4.345
G1 X135
G2 X145.38 Y10.15 I0 J-11.587
G1 X163.296 Y-25.961
G2 X165.27 Y-49.025 I-28.296 J-14.039
G1 X146.104 Y-113.311
G2 X135 Y-121.588 I-11.104 J3.31
G3 X134.683 Y-121.905 I0 J-0.317
G1 Y-122.223
G19 G2 Y-122.54 Z-8.683 J0 K0.318
G0 Z5
X135.318
G1 Z-7 F333.3
Z-9.683
G3 Y-122.223 Z-10 J0.317 K0 F1000
G1 Y-121.905
G17 G3 X135 Y-121.588 I-0.318 J0
G1 X95
G2 X88.412 Y-115 I0 J6.588
G1 Y-95
G3 X71.588 Y-95 I-8.412 J0
X72.359 Y-98.519 I8.412 J0
G1 X80.983 Y-117.244
G2 X73.347 Y-126.377 I-5.983 J-2.756
G1 X-61.653 Y-91.377
G2 X-65.892 Y-87.946 I1.653 J6.377
G1 X-85.892 Y-47.946
G2 X-80 Y-38.412 I5.892 J2.946
G1 X-60
G3 X-56.837 Y-33.72 I0 J3.412
G1 X-70.742 Y0.655
G2 X-60 Y16.587 I10.742 J4.345
G1 X135
G2 X145.38 Y10.15 I0 J-11.587
G1 X163.296 Y-25.961
G2 X165.27 Y-49.025 I-28.296 J-14.039
G1 X146.104 Y-113.311
G2 X135 Y-121.588 I-11.104 J3.31
G3 X134.683 Y-121.905 I0 J-0.317
G1 Y-122.223
G19 G2 Y-122.54 Z-9.683 J0 K0.318
G0 Z5
X135.318
G1 Z-8 F333.3
Z-10.683
G3 Y-122.223 Z-11 J0.317 K0 F1000
G1 Y-121.905
G17 G3 X135 Y-121.588 I-0.318 J0
G1 X95
G2 X88.412 Y-115 I0 J6.588
G1 Y-95
G3 X71.588 Y-95 I-8.412 J0
X72.359 Y-98.519 I8.412 J0
G1 X80.983 Y-117.244
G2 X73.347 Y-126.377 I-5.983 J-2.756
G1 X-61.653 Y-91.377
G2 X-65.892 Y-87.946 I1.653 J6.377
G1 X-85.892 Y-47.946
G2 X-80 Y-38.412 I5.892 J2.946
G1 X-60
G3 X-56.837 Y-33.72 I0 J3.412
G1 X-70.742 Y0.655
G2 X-60 Y16.587 I10.742 J4.345
G1 X135
G2 X145.38 Y10.15 I0 J-11.587
G1 X163.296 Y-25.961
G2 X165.27 Y-49.025 I-28.296 J-14.039
G1 X146.104 Y-113.311
G2 X135 Y-121.588 I-11.104 J3.31
G3 X134.683 Y-121.905 I0 J-0.317
G1 Y-122.223
G19 G2 Y-122.54 Z-10.683 J0 K0.318
G0 Z5
X135.318
G1 Z-9 F333.3
Z-11.683
G3 Y-122.223 Z-12 J0.317 K0 F1000
G1 Y-121.905
G17 G3 X135 Y-121.588 I-0.318 J0
G1 X95
G2 X88.412 Y-115 I0 J6.588
G1 Y-95
G3 X71.588 Y-95 I-8.412 J0
X72.359 Y-98.519 I8.412 J0
G1 X80.983 Y-117.244
G2 X73.347 Y-126.377 I-5.983 J-2.756
G1 X-61.653 Y-91.377
G2 X-65.892 Y-87.946 I1.653 J6.377
G1 X-85.892 Y-47.946
G2 X-80 Y-38.412 I5.892 J2.946
G1 X-60
G3 X-56.837 Y-33.72 I0 J3.412
G1 X-70.742 Y0.655
G2 X-60 Y16.587 I10.742 J4.345
G1 X135
G2 X145.38 Y10.15 I0 J-11.587
G1 X163.296 Y-25.961
G2 X165.27 Y-49.025 I-28.296 J-14.039
G1 X146.104 Y-113.311
G2 X135 Y-121.588 I-11.104 J3.31
G3 X134.683 Y-121.905 I0 J-0.317
G1 Y-122.223
G19 G2 Y-122.54 Z-11.683 J0 K0.318
G0 Z5
X135.318
G1 Z-10 F333.3
Z-12.683
G3 Y-122.223 Z-13 J0.317 K0 F1000
G1 Y-121.905
G17 G3 X135 Y-121.588 I-0.318 J0
G1 X95
G2 X88.412 Y-115 I0 J6.588
G1 Y-95
G3 X71.588 Y-95 I-8.412 J0
X72.359 Y-98.519 I8.412 J0
G1 X80.983 Y-117.244
G2 X73.347 Y-126.377 I-5.983 J-2.756
G1 X-61.653 Y-91.377
G2 X-65.892 Y-87.946 I1.653 J6.377
G1 X-85.892 Y-47.946
G2 X-80 Y-38.412 I5.892 J2.946
G1 X-60
G3 X-56.837 Y-33.72 I0 J3.412
G1 X-70.742 Y0.655
G2 X-60 Y16.587 I10.742 J4.345
G1 X135
G2 X145.38 Y10.15 I0 J-11.587
G1 X163.296 Y-25.961
G2 X165.27 Y-49.025 I-28.296 J-14.039
G1 X146.104 Y-113.311
G2 X135 Y-121.588 I-11.104 J3.31
G3 X134.683 Y-121.905 I0 J-0.317
G1 Y-122.223
G19 G2 Y-122.54 Z-12.683 J0 K0.318
G0 Z5
X135.318
G1 Z-11 F333.3
Z-13.683
G3 Y-122.223 Z-14 J0.317 K0 F1000
G1 Y-121.905
G17 G3 X135 Y-121.588 I-0.318 J0
G1 X95
G2 X88.412 Y-115 I0 J6.588
G1 Y-95
G3 X71.588 Y-95 I-8.412 J0
X72.359 Y-98.519 I8.412 J0
G1 X80.983 Y-117.244
G2 X73.347 Y-126.377 I-5.983 J-2.756
G1 X-61.653 Y-91.377
G2 X-65.892 Y-87.946 I1.653 J6.377
G1 X-85.892 Y-47.946
G2 X-80 Y-38.412 I5.892 J2.946
G1 X-60
G3 X-56.837 Y-33.72 I0 J3.412
G1 X-70.742 Y0.655
G2 X-60 Y16.587 I10.742 J4.345
G1 X135
G2 X145.38 Y10.15 I0 J-11.587
G1 X163.296 Y-25.961
G2 X165.27 Y-49.025 I-28.296 J-14.039
G1 X146.104 Y-113.311
G2 X135 Y-121.588 I-11.104 J3.31
G3 X134.683 Y-121.905 I0 J-0.317
G1 Y-122.223
G19 G2 Y-122.54 Z-13.683 J0 K0.318
G0 Z5
X135.318
G1 Z-12 F333.3
Z-14.683
G3 Y-122.223 Z-15 J0.317 K0 F1000
G1 Y-121.905
G17 G3 X135 Y-121.588 I-0.318 J0
G1 X95
G2 X88.412 Y-115 I0 J6.588
G1 Y-95
G3 X71.588 Y-95 I-8.412 J0
X72.359 Y-98.519 I8.412 J0
G1 X80.983 Y-117.244
G2 X73.347 Y-126.377 I-5.983 J-2.756
G1 X-61.653 Y-91.377
G2 X-65.892 Y-87.946 I1.653 J6.377
G1 X-85.892 Y-47.946
G2 X-80 Y-38.412 I5.892 J2.946
G1 X-60
G3 X-56.837 Y-33.72 I0 J3.412
G1 X-70.742 Y0.655
G2 X-60 Y16.587 I10.742 J4.345
G1 X135
G2 X145.38 Y10.15 I0 J-11.587
G1 X163.296 Y-25.961
G2 X165.27 Y-49.025 I-28.296 J-14.039
G1 X146.104 Y-113.311
G2 X135 Y-121.588 I-11.104 J3.31
G3 X134.683 Y-121.905 I0 J-0.317
G1 Y-122.223
G19 G2 Y-122.54 Z-14.683 J0 K0.318
G0 Z5
X135.318
G1 Z-13 F333.3
Z-15.683
G3 Y-122.223 Z-16 J0.317 K0 F1000
G1 Y-121.905
G17 G3 X135 Y-121.588 I-0.318 J0
G1 X95
G2 X88.412 Y-115 I0 J6.588
G1 Y-95
G3 X71.588 Y-95 I-8.412 J0
X72.359 Y-98.519 I8.412 J0
G1 X80.983 Y-117.244
G2 X73.347 Y-126.377 I-5.983 J-2.756
G1 X-61.653 Y-91.377
G2 X-65.892 Y-87.946 I1.653 J6.377
G1 X-85.892 Y-47.946
G2 X-80 Y-38.412 I5.892 J2.946
G1 X-60
G3 X-56.837 Y-33.72 I0 J3.412
G1 X-70.742 Y0.655
G2 X-60 Y16.587 I10.742 J4.345
G1 X135
G2 X145.38 Y10.15 I0 J-11.587
G1 X163.296 Y-25.961
G2 X165.27 Y-49.025 I-28.296 J-14.039
G1 X146.104 Y-113.311
G2 X135 Y-121.588 I-11.104 J3.31
G3 X134.683 Y-121.905 I0 J-0.317
G1 Y-122.223
G19 G2 Y-122.54 Z-15.683 J0 K0.318
G0 Z5
X135.318
G1 Z-14 F333.3
Z-16.683
G3 Y-122.223 Z-17 J0.317 K0 F1000
G1 Y-121.905
G17 G3 X135 Y-121.588 I-0.318 J0
G1 X95
G2 X88.412 Y-115 I0 J6.588
G1 Y-95
G3 X71.588 Y-95 I-8.412 J0
X72.359 Y-98.519 I8.412 J0
G1 X80.983 Y-117.244
G2 X73.347 Y-126.377 I-5.983 J-2.756
G1 X-61.653 Y-91.377
G2 X-65.892 Y-87.946 I1.653 J6.377
G1 X-85.892 Y-47.946
G2 X-80 Y-38.412 I5.892 J2.946
G1 X-60
G3 X-56.837 Y-33.72 I0 J3.412
G1 X-70.742 Y0.655
G2 X-60 Y16.587 I10.742 J4.345
G1 X135
G2 X145.38 Y10.15 I0 J-11.587
G1 X163.296 Y-25.961
G2 X165.27 Y-49.025 I-28.296 J-14.039
G1 X146.104 Y-113.311
G2 X135 Y-121.588 I-11.104 J3.31
G3 X134.683 Y-121.905 I0 J-0.317
G1 Y-122.223
G19 G2 Y-122.54 Z-16.683 J0 K0.317
G0 Z5
X135.318
G1 Z-15 F333.3
Z-17.683
G3 Y-122.223 Z-18 J0.317 K0 F1000
G1 Y-121.905
G17 G3 X135 Y-121.588 I-0.318 J0
G1 X95
G2 X88.412 Y-115 I0 J6.588
G1 Y-95
G3 X71.588 Y-95 I-8.412 J0
X72.359 Y-98.519 I8.412 J0
G1 X80.983 Y-117.244
G2 X73.347 Y-126.377 I-5.983 J-2.756
G1 X-61.653 Y-91.377
G2 X-65.892 Y-87.946 I1.653 J6.377
G1 X-85.892 Y-47.946
G2 X-80 Y-38.412 I5.892 J2.946
G1 X-60
G3 X-56.837 Y-33.72 I0 J3.412
G1 X-70.742 Y0.655
G2 X-60 Y16.587 I10.742 J4.345
G1 X135
G2 X145.38 Y10.15 I0 J-11.587
G1 X163.296 Y-25.961
G2 X165.27 Y-49.025 I-28.296 J-14.039
G1 X146.104 Y-113.311
G2 X135 Y-121.588 I-11.104 J3.31
G3 X134.683 Y-121.905 I0 J-0.317
G1 Y-122.223
G19 G2 Y-122.54 Z-17.683 J0 K0.317
G0 Z5
X135.318
G1 Z-16 F333.3
Z-18.683
G3 Y-122.223 Z-19 J0.317 K0 F1000
G1 Y-121.905
G17 G3 X135 Y-121.588 I-0.318 J0
G1 X95
G2 X88.412 Y-115 I0 J6.588
G1 Y-95
G3 X71.588 Y-95 I-8.412 J0
X72.359 Y-98.519 I8.412 J0
G1 X80.983 Y-117.244
G2 X73.347 Y-126.377 I-5.983 J-2.756
G1 X-61.653 Y-91.377
G2 X-65.892 Y-87.946 I1.653 J6.377
G1 X-85.892 Y-47.946
G2 X-80 Y-38.412 I5.892 J2.946
G1 X-60
G3 X-56.837 Y-33.72 I0 J3.412
G1 X-70.742 Y0.655
G2 X-60 Y16.587 I10.742 J4.345
G1 X135
G2 X145.38 Y10.15 I0 J-11.587
G1 X163.296 Y-25.961
G2 X165.27 Y-49.025 I-28.296 J-14.039
G1 X146.104 Y-113.311
G2 X135 Y-121.588 I-11.104 J3.31
G3 X134.683 Y-121.905 I0 J-0.317
G1 Y-122.223
G19 G2 Y-122.54 Z-18.683 J0 K0.317
G0 Z5
X135.318
G1 Z-17 F333.3
Z-19.683
G3 Y-122.223 Z-20 J0.317 K0 F1000
G1 Y-121.905
G17 G3 X135 Y-121.588 I-0.318 J0
G1 X95
G2 X88.412 Y-115 I0 J6.588
G1 Y-95
G3 X71.588 Y-95 I-8.412 J0
X72.359 Y-98.519 I8.412 J0
G1 X80.983 Y-117.244
G2 X73.347 Y-126.377 I-5.983 J-2.756
G1 X-61.653 Y-91.377
G2 X-65.892 Y-87.946 I1.653 J6.377
G1 X-85.892 Y-47.946
G2 X-80 Y-38.412 I5.892 J2.946
G1 X-60
G3 X-56.837 Y-33.72 I0 J3.412
G1 X-70.742 Y0.655
G2 X-60 Y16.587 I10.742 J4.345
G1 X135
G2 X145.38 Y10.15 I0 J-11.587
G1 X163.296 Y-25.961
G2 X165.27 Y-49.025 I-28.296 J-14.039
G1 X146.104 Y-113.311
G2 X135 Y-121.588 I-11.104 J3.31
G3 X134.683 Y-121.905 I0 J-0.317
G1 Y-122.223
G19 G2 Y-122.54 Z-19.683 J0 K0.317
G0 Z5
X135.318
G1 Z-18 F333.3
Z-20.683
G3 Y-122.223 Z-21 J0.317 K0 F1000
G1 Y-121.905
G17 G3 X135 Y-121.588 I-0.318 J0
G1 X95
G2 X88.412 Y-115 I0 J6.588
G1 Y-95
G3 X71.588 Y-95 I-8.412 J0
X72.359 Y-98.519 I8.412 J0
G1 X80.983 Y-117.244
G2 X73.347 Y-126.377 I-5.983 J-2.756
G1 X-61.653 Y-91.377
G2 X-65.892 Y-87.946 I1.653 J6.377
G1 X-85.892 Y-47.946
G2 X-80 Y-38.412 I5.892 J2.946
G1 X-60
G3 X-56.837 Y-33.72 I0 J3.412
G1 X-70.742 Y0.655
G2 X-60 Y16.587 I10.742 J4.345
G1 X135
G2 X145.38 Y10.15 I0 J-11.587
G1 X163.296 Y-25.961
G2 X165.27 Y-49.025 I-28.296 J-14.039
G1 X146.104 Y-113.311
G2 X135 Y-121.588 I-11.104 J3.31
G3 X134.683 Y-121.905 I0 J-0.317
G1 Y-122.223
G19 G2 Y-122.54 Z-20.683 J0 K0.317
G0 Z15
G17
G28 G91 Z0
G90
G28 G91 X0 Y0
G90
M5
M30
