(1001)
(Bearbeiten)
(  Hersteller: ChinaCnc)
(  model: 3040T)
(  description: Generic 3-axis)
(T5  D=3.175 CR=0 - ZMIN=-21.3 - Schaftfraser)
G90 G94
G17
G21
G28 G91 Z0
G90

(Bohrfrasen1)
T5
S6000 M3
G54
G0 X11.381 Y0.317
Z15
Z2
G1 Z0.317 F1000
G18 G3 X11.064 Z0 I-0.318 K0
G1 X10.905
G17 G3 X10.587 Y0 I0 J-0.317
X19.413 Y0 Z-0.5 I4.413 J0
X10.587 Y0 Z-1 I-4.413 J0
X19.413 Y0 Z-1.5 I4.413 J0
X10.587 Y0 Z-2 I-4.413 J0
X19.413 Y0 Z-2.5 I4.413 J0
X10.587 Y0 Z-3 I-4.413 J0
X19.413 Y0 Z-3.5 I4.413 J0
X10.587 Y0 Z-4 I-4.413 J0
X19.413 Y0 Z-4.5 I4.413 J0
X10.587 Y0 Z-5 I-4.413 J0
X19.413 Y0 Z-5.5 I4.413 J0
X10.587 Y0 Z-6 I-4.413 J0
X19.413 Y0 Z-6.5 I4.413 J0
X10.587 Y0 Z-7 I-4.413 J0
X19.413 Y0 Z-7.5 I4.413 J0
X10.587 Y0 Z-8 I-4.413 J0
X19.413 Y0 Z-8.5 I4.413 J0
X10.587 Y0 Z-9 I-4.413 J0
X19.413 Y0 Z-9.5 I4.413 J0
X10.587 Y0 Z-10 I-4.413 J0
X19.413 Y0 Z-10.5 I4.413 J0
X10.587 Y0 Z-11 I-4.413 J0
X19.413 Y0 Z-11.5 I4.413 J0
X10.587 Y0 Z-12 I-4.413 J0
X19.413 Y0 Z-12.5 I4.413 J0
X10.587 Y0 Z-13 I-4.413 J0
X19.413 Y0 Z-13.5 I4.413 J0
X10.587 Y0 Z-14 I-4.413 J0
X19.413 Y0 Z-14.5 I4.413 J0
X10.587 Y0 Z-15 I-4.413 J0
X19.413 Y0 Z-15.5 I4.413 J0
X10.587 Y0 Z-16 I-4.413 J0
X19.413 Y0 Z-16.5 I4.413 J0
X10.587 Y0 Z-17 I-4.413 J0
X19.413 Y0 Z-17.5 I4.413 J0
X10.587 Y0 Z-18 I-4.413 J0
X19.412 Y0 Z-18.5 I4.413 J0
X10.588 Y0 Z-19 I-4.412 J0
X19.412 Y0 Z-19.5 I4.412 J0
X10.588 Y0 Z-20 I-4.412 J0
X19.412 Y0 Z-20.5 I4.412 J0
X10.588 Y0 Z-21 I-4.412 J0
X16.364 Y-4.197 Z-21.3 I4.412 J0
X13.636 Y4.197 I-1.364 J4.197
X16.364 Y-4.197 I1.364 J-4.197
X16.567 Y-3.796 I-0.098 J0.302
G1 X16.518 Y-3.645
X16.496 Y-3.578 Z-21.292
X16.476 Y-3.514 Z-21.269
X16.457 Y-3.457 Z-21.231
X16.442 Y-3.409 Z-21.18
X16.43 Y-3.373 Z-21.12
X16.423 Y-3.351 Z-21.053
X16.42 Y-3.344 Z-20.983
G0 Z5
X-0.078 Y-0.081
Z1.683
G1 Z0 F1000
X0.081
X0.112 Y-0.075
X0.139 Y-0.057
X0.156 Y-0.031
X0.162 Y0
G3 X-0.162 Y0 Z-0.5 I-0.162 J0
X0.162 Y0 Z-1 I0.162 J0
X-0.162 Y0 Z-1.5 I-0.162 J0
X0.162 Y0 Z-2 I0.162 J0
X-0.162 Y0 Z-2.5 I-0.162 J0
X0.162 Y0 Z-3 I0.162 J0
X-0.162 Y0 Z-3.5 I-0.162 J0
X0.162 Y0 Z-4 I0.162 J0
X-0.162 Y0 Z-4.5 I-0.162 J0
X0.162 Y0 Z-5 I0.162 J0
X-0.162 Y0 Z-5.5 I-0.162 J0
X0.162 Y0 Z-6 I0.162 J0
X-0.162 Y0 Z-6.5 I-0.162 J0
X0.162 Y0 Z-7 I0.162 J0
X-0.162 Y0 Z-7.5 I-0.162 J0
X0.162 Y0 Z-8 I0.162 J0
X-0.162 Y0 Z-8.5 I-0.162 J0
X0.162 Y0 Z-9 I0.162 J0
X-0.162 Y0 Z-9.5 I-0.162 J0
X0.162 Y0 Z-10 I0.162 J0
X-0.162 Y0 Z-10.5 I-0.162 J0
X0.162 Y0 Z-11 I0.162 J0
X-0.162 Y0 Z-11.5 I-0.162 J0
X0.162 Y0 Z-12 I0.162 J0
X-0.162 Y0 Z-12.5 I-0.162 J0
X0.162 Y0 Z-13 I0.162 J0
X-0.162 Y0 Z-13.5 I-0.162 J0
X0.162 Y0 Z-14 I0.162 J0
X-0.162 Y0 Z-14.5 I-0.162 J0
X0.162 Y0 Z-15 I0.162 J0
X-0.162 Y0 Z-15.5 I-0.162 J0
X0.162 Y0 Z-16 I0.162 J0
X-0.162 Y0 Z-16.5 I-0.162 J0
X0.162 Y0 Z-17 I0.162 J0
X-0.162 Y0 Z-17.5 I-0.162 J0
X0.162 Y0 Z-18 I0.162 J0
X-0.162 Y0 Z-18.5 I-0.162 J0
X0.162 Y0 Z-19 I0.162 J0
X-0.162 Y0 Z-19.5 I-0.162 J0
X0.162 Y0 Z-20 I0.162 J0
X-0.162 Y0 Z-20.5 I-0.162 J0
X0.162 Y0 Z-21 I0.162 J0
X-0.05 Y0.155 Z-21.3 I-0.162 J0
X0.05 Y-0.155 I0.05 J-0.155
X-0.05 Y0.155 I-0.05 J0.155
G1 X-0.078 Y0.139
X-0.098 Y0.114
X-0.106 Y0.084
X-0.102 Y0.052
X-0.053 Y-0.099
G0 Z5
X-85.077 Y-0.081
Z1.683
G1 Z0 F1000
X-84.919
X-84.888 Y-0.075
X-84.861 Y-0.057
X-84.844 Y-0.031
X-84.838 Y0
G3 X-85.162 Y0 Z-0.5 I-0.162 J0
X-84.838 Y0 Z-1 I0.162 J0
X-85.162 Y0 Z-1.5 I-0.162 J0
X-84.838 Y0 Z-2 I0.162 J0
X-85.162 Y0 Z-2.5 I-0.162 J0
X-84.838 Y0 Z-3 I0.162 J0
X-85.162 Y0 Z-3.5 I-0.162 J0
X-84.838 Y0 Z-4 I0.162 J0
X-85.162 Y0 Z-4.5 I-0.162 J0
X-84.838 Y0 Z-5 I0.162 J0
X-85.162 Y0 Z-5.5 I-0.162 J0
X-84.838 Y0 Z-6 I0.162 J0
X-85.162 Y0 Z-6.5 I-0.162 J0
X-84.838 Y0 Z-7 I0.162 J0
X-85.162 Y0 Z-7.5 I-0.162 J0
X-84.838 Y0 Z-8 I0.162 J0
X-85.162 Y0 Z-8.5 I-0.162 J0
X-84.838 Y0 Z-9 I0.162 J0
X-85.162 Y0 Z-9.5 I-0.162 J0
X-84.838 Y0 Z-10 I0.162 J0
X-85.162 Y0 Z-10.5 I-0.162 J0
X-84.838 Y0 Z-11 I0.162 J0
X-85.162 Y0 Z-11.5 I-0.162 J0
X-84.838 Y0 Z-12 I0.162 J0
X-85.162 Y0 Z-12.5 I-0.162 J0
X-84.838 Y0 Z-13 I0.162 J0
X-85.162 Y0 Z-13.5 I-0.162 J0
X-84.838 Y0 Z-14 I0.162 J0
X-85.162 Y0 Z-14.5 I-0.162 J0
X-84.838 Y0 Z-15 I0.162 J0
X-85.162 Y0 Z-15.5 I-0.162 J0
X-84.838 Y0 Z-16 I0.162 J0
X-85.162 Y0 Z-16.5 I-0.162 J0
X-84.837 Y0 Z-17 I0.162 J0
X-85.163 Y0 Z-17.5 I-0.163 J0
X-84.837 Y0 Z-18 I0.163 J0
X-85.163 Y0 Z-18.5 I-0.163 J0
X-84.837 Y0 Z-19 I0.163 J0
X-85.163 Y0 Z-19.5 I-0.163 J0
X-84.837 Y0 Z-20 I0.163 J0
X-85.163 Y0 Z-20.5 I-0.163 J0
X-84.837 Y0 Z-21 I0.163 J0
X-85.05 Y0.155 Z-21.3 I-0.163 J0
X-84.95 Y-0.155 I0.05 J-0.155
X-85.05 Y0.155 I-0.05 J0.155
G1 X-85.078 Y0.139
X-85.098 Y0.114
X-85.106 Y0.084
X-85.102 Y0.052
X-85.053 Y-0.099
G0 Z5
X-108.619 Y0.317
Z2
G1 Z0.317 F1000
G18 G3 X-108.936 Z0 I-0.317 K0
G1 X-109.095
G17 G3 X-109.412 Y0 I0 J-0.317
X-100.588 Y0 Z-0.5 I4.412 J0
X-109.412 Y0 Z-1 I-4.412 J0
X-100.588 Y0 Z-1.5 I4.412 J0
X-109.412 Y0 Z-2 I-4.412 J0
X-100.588 Y0 Z-2.5 I4.412 J0
X-109.412 Y0 Z-3 I-4.412 J0
X-100.588 Y0 Z-3.5 I4.412 J0
X-109.412 Y0 Z-4 I-4.412 J0
X-100.588 Y0 Z-4.5 I4.412 J0
X-109.412 Y0 Z-5 I-4.412 J0
X-100.588 Y0 Z-5.5 I4.412 J0
X-109.412 Y0 Z-6 I-4.412 J0
X-100.588 Y0 Z-6.5 I4.412 J0
X-109.412 Y0 Z-7 I-4.412 J0
X-100.588 Y0 Z-7.5 I4.412 J0
X-109.412 Y0 Z-8 I-4.412 J0
X-100.588 Y0 Z-8.5 I4.412 J0
X-109.412 Y0 Z-9 I-4.412 J0
X-100.588 Y0 Z-9.5 I4.412 J0
X-109.412 Y0 Z-10 I-4.412 J0
X-100.588 Y0 Z-10.5 I4.412 J0
X-109.412 Y0 Z-11 I-4.412 J0
X-100.588 Y0 Z-11.5 I4.412 J0
X-109.412 Y0 Z-12 I-4.412 J0
X-100.587 Y0 Z-12.5 I4.412 J0
X-109.413 Y0 Z-13 I-4.413 J0
X-100.587 Y0 Z-13.5 I4.413 J0
X-109.413 Y0 Z-14 I-4.413 J0
X-100.587 Y0 Z-14.5 I4.413 J0
X-109.413 Y0 Z-15 I-4.413 J0
X-100.587 Y0 Z-15.5 I4.413 J0
X-109.413 Y0 Z-16 I-4.413 J0
X-100.587 Y0 Z-16.5 I4.413 J0
X-109.413 Y0 Z-17 I-4.413 J0
X-100.587 Y0 Z-17.5 I4.413 J0
X-109.413 Y0 Z-18 I-4.413 J0
X-100.587 Y0 Z-18.5 I4.413 J0
X-109.413 Y0 Z-19 I-4.413 J0
X-100.587 Y0 Z-19.5 I4.413 J0
X-109.413 Y0 Z-20 I-4.413 J0
X-100.587 Y0 Z-20.5 I4.413 J0
X-109.413 Y0 Z-21 I-4.413 J0
X-103.636 Y-4.197 Z-21.3 I4.413 J0
X-106.364 Y4.197 I-1.364 J4.197
X-103.636 Y-4.197 I1.364 J-4.197
X-103.433 Y-3.796 I-0.098 J0.302
G1 X-103.482 Y-3.645
X-103.504 Y-3.578 Z-21.292
X-103.524 Y-3.514 Z-21.269
X-103.543 Y-3.457 Z-21.231
X-103.558 Y-3.409 Z-21.18
X-103.57 Y-3.373 Z-21.12
X-103.577 Y-3.351 Z-21.053
X-103.58 Y-3.344 Z-20.983
G0 Z15

(2D-Kontur4)
X-97.54 Y-83.139
Z15
Z5
G1 Z2 F333.3
Z-0.683
G18 G2 X-97.223 Z-1 I0.317 K0 F1000
G1 X-96.905
G17 G3 X-96.588 Y-82.821 I0 J0.317
G1 Y-65
G3 X-99.766 Y-61.596 I-3.412 J0
G2 X-153.893 Y-35.79 I5.591 J81.396
G3 X-159.448 Y-36.599 I-2.498 J-2.325
G1 X-159.454 Y-36.611
X-159.477 Y-36.656
G3 X-159.687 Y-39.141 I3.06 J-1.51
G1 X-138.271 Y-110.975
G3 X-135 Y-113.412 I3.27 J0.976
G1 X-100
G3 X-96.588 Y-110 I0 J3.412
G1 Y-82.821
G3 X-96.905 Y-82.504 I-0.317 J0
G1 X-97.223
G18 G3 X-97.54 Z-0.683 I0 K0.317
G0 Z5
Y-83.139
G1 Z1 F333.3
Z-1.683
G2 X-97.223 Z-2 I0.317 K0 F1000
G1 X-96.905
G17 G3 X-96.588 Y-82.821 I0 J0.317
G1 Y-65
G3 X-99.766 Y-61.596 I-3.412 J0
G2 X-153.893 Y-35.79 I5.591 J81.396
G3 X-159.448 Y-36.599 I-2.498 J-2.325
G1 X-159.454 Y-36.611
X-159.477 Y-36.656
G3 X-159.687 Y-39.141 I3.06 J-1.51
G1 X-138.271 Y-110.975
G3 X-135 Y-113.412 I3.27 J0.976
G1 X-100
G3 X-96.588 Y-110 I0 J3.412
G1 Y-82.821
G3 X-96.905 Y-82.504 I-0.317 J0
G1 X-97.223
G18 G3 X-97.54 Z-1.683 I0 K0.317
G0 Z5
Y-83.139
G1 Z0 F333.3
Z-2.683
G2 X-97.223 Z-3 I0.317 K0 F1000
G1 X-96.905
G17 G3 X-96.588 Y-82.821 I0 J0.317
G1 Y-65
G3 X-99.766 Y-61.596 I-3.412 J0
G2 X-153.893 Y-35.79 I5.591 J81.396
G3 X-159.448 Y-36.599 I-2.498 J-2.325
G1 X-159.454 Y-36.611
X-159.477 Y-36.656
G3 X-159.687 Y-39.141 I3.06 J-1.51
G1 X-138.271 Y-110.975
G3 X-135 Y-113.412 I3.27 J0.976
G1 X-100
G3 X-96.588 Y-110 I0 J3.412
G1 Y-82.821
G3 X-96.905 Y-82.504 I-0.317 J0
G1 X-97.223
G18 G3 X-97.54 Z-2.683 I0 K0.318
G0 Z15
G17

(2D-Kontur5)
G0 X-127.891 Y-113.54
Z15
Z5
G1 Z2 F333.3
Z-0.683
G19 G3 Y-113.223 Z-1 J0.317 K0 F1000
G1 Y-112.905
G17 G3 X-128.208 Y-112.588 I-0.317 J0
G1 X-135
G2 X-137.479 Y-110.74 I0 J2.587
G1 X-158.896 Y-38.906
G2 X-158.736 Y-37.021 I2.479 J0.739
G1 X-158.714 Y-36.975
X-158.709 Y-36.965
G2 X-154.497 Y-36.352 I2.318 J-1.15
G3 X-99.823 Y-62.419 I60.322 J56.152
G2 X-97.412 Y-65 I-0.177 J-2.581
G1 Y-110
G2 X-100 Y-112.588 I-2.588 J0
G1 X-128.208
G3 X-128.526 Y-112.905 I0 J-0.317
G1 Y-113.223
G19 G2 Y-113.54 Z-0.683 J0 K0.317
G0 Z5
X-127.891
G1 Z1 F333.3
Z-1.683
G3 Y-113.223 Z-2 J0.317 K0 F1000
G1 Y-112.905
G17 G3 X-128.208 Y-112.588 I-0.317 J0
G1 X-135
G2 X-137.479 Y-110.74 I0 J2.587
G1 X-158.896 Y-38.906
G2 X-158.736 Y-37.021 I2.479 J0.739
G1 X-158.714 Y-36.975
X-158.709 Y-36.965
G2 X-154.497 Y-36.352 I2.318 J-1.15
G3 X-99.823 Y-62.419 I60.322 J56.152
G2 X-97.412 Y-65 I-0.177 J-2.581
G1 Y-110
G2 X-100 Y-112.588 I-2.588 J0
G1 X-128.208
G3 X-128.526 Y-112.905 I0 J-0.317
G1 Y-113.223
G19 G2 Y-113.54 Z-1.683 J0 K0.317
G0 Z5
X-127.891
G1 Z0 F333.3
Z-2.683
G3 Y-113.223 Z-3 J0.317 K0 F1000
G1 Y-112.905
G17 G3 X-128.208 Y-112.588 I-0.317 J0
G1 X-135
G2 X-137.479 Y-110.74 I0 J2.587
G1 X-158.896 Y-38.906
G2 X-158.736 Y-37.021 I2.479 J0.739
G1 X-158.714 Y-36.975
X-158.709 Y-36.965
G2 X-154.497 Y-36.352 I2.318 J-1.15
G3 X-99.823 Y-62.419 I60.322 J56.152
G2 X-97.412 Y-65 I-0.177 J-2.581
G1 Y-110
G2 X-100 Y-112.588 I-2.588 J0
G1 X-128.208
G3 X-128.526 Y-112.905 I0 J-0.317
G1 Y-113.223
G19 G2 Y-113.54 Z-2.683 J0 K0.318
G0 Z15
G17

(2D-Kontur7)
G0 X31.581 Y-51.335
Z15
Z5
G1 Z2 F333.3
Z-0.683
X31.585 Y-51.328 Z-0.753 F1000
X31.595 Y-51.307 Z-0.82
X31.612 Y-51.273 Z-0.88
X31.635 Y-51.228 Z-0.931
X31.661 Y-51.174 Z-0.969
X31.691 Y-51.114 Z-0.992
X31.723 Y-51.051 Z-1
X31.865 Y-50.767
G3 X31.723 Y-50.341 I-0.284 J0.142
G1 X31.301 Y-50.13
X17.068 Y-78.595
X17.806 Y-78.964
X32.039 Y-50.499
X31.723 Y-50.341
G3 X31.297 Y-50.483 I-0.142 J-0.284
G1 X31.155 Y-50.767
X31.123 Y-50.83 Z-0.992
X31.093 Y-50.89 Z-0.969
X31.067 Y-50.944 Z-0.931
X31.044 Y-50.989 Z-0.88
X31.027 Y-51.023 Z-0.82
X31.017 Y-51.044 Z-0.753
X31.013 Y-51.051 Z-0.683
G0 Z5
X31.581 Y-51.335
G1 Z1 F333.3
Z-1.683
X31.585 Y-51.328 Z-1.753 F1000
X31.595 Y-51.307 Z-1.82
X31.612 Y-51.273 Z-1.88
X31.635 Y-51.228 Z-1.931
X31.661 Y-51.174 Z-1.969
X31.691 Y-51.114 Z-1.992
X31.723 Y-51.051 Z-2
X31.865 Y-50.767
G3 X31.723 Y-50.341 I-0.284 J0.142
G1 X31.301 Y-50.13
X17.068 Y-78.595
X17.806 Y-78.964
X32.039 Y-50.499
X31.723 Y-50.341
G3 X31.297 Y-50.483 I-0.142 J-0.284
G1 X31.155 Y-50.767
X31.123 Y-50.83 Z-1.992
X31.093 Y-50.89 Z-1.969
X31.067 Y-50.944 Z-1.931
X31.044 Y-50.989 Z-1.88
X31.027 Y-51.023 Z-1.82
X31.017 Y-51.044 Z-1.753
X31.013 Y-51.051 Z-1.683
G0 Z5
X31.581 Y-51.335
G1 Z0 F333.3
Z-2.683
X31.585 Y-51.328 Z-2.753 F1000
X31.595 Y-51.307 Z-2.82
X31.612 Y-51.273 Z-2.88
X31.635 Y-51.228 Z-2.931
X31.661 Y-51.174 Z-2.969
X31.691 Y-51.114 Z-2.992
X31.723 Y-51.051 Z-3
X31.865 Y-50.767
G3 X31.723 Y-50.341 I-0.284 J0.142
G1 X31.301 Y-50.13
X17.068 Y-78.595
X17.806 Y-78.964
X32.039 Y-50.499
X31.723 Y-50.341
G3 X31.297 Y-50.483 I-0.142 J-0.284
G1 X31.155 Y-50.767
X31.123 Y-50.83 Z-2.992
X31.093 Y-50.89 Z-2.969
X31.067 Y-50.944 Z-2.931
X31.044 Y-50.989 Z-2.88
X31.027 Y-51.023 Z-2.82
X31.017 Y-51.044 Z-2.753
X31.013 Y-51.051 Z-2.683
G0 Z5
X58.248 Y-51.335
G1 Z2 F333.3
Z-0.683
X58.251 Y-51.328 Z-0.753 F1000
X58.262 Y-51.307 Z-0.82
X58.279 Y-51.273 Z-0.88
X58.301 Y-51.228 Z-0.931
X58.328 Y-51.174 Z-0.969
X58.358 Y-51.114 Z-0.992
X58.39 Y-51.051 Z-1
X58.532 Y-50.767
G3 X58.39 Y-50.341 I-0.284 J0.142
G1 X57.967 Y-50.13
X43.735 Y-78.595
X44.473 Y-78.964
X58.705 Y-50.499
X58.39 Y-50.341
G3 X57.964 Y-50.483 I-0.142 J-0.284
G1 X57.822 Y-50.767
X57.79 Y-50.83 Z-0.992
X57.76 Y-50.89 Z-0.969
X57.733 Y-50.944 Z-0.931
X57.711 Y-50.989 Z-0.88
X57.694 Y-51.023 Z-0.82
X57.683 Y-51.044 Z-0.753
X57.68 Y-51.051 Z-0.683
G0 Z5
X58.248 Y-51.335
G1 Z1 F333.3
Z-1.683
X58.251 Y-51.328 Z-1.753 F1000
X58.262 Y-51.307 Z-1.82
X58.279 Y-51.273 Z-1.88
X58.301 Y-51.228 Z-1.931
X58.328 Y-51.174 Z-1.969
X58.358 Y-51.114 Z-1.992
X58.39 Y-51.051 Z-2
X58.532 Y-50.767
G3 X58.39 Y-50.341 I-0.284 J0.142
G1 X57.967 Y-50.13
X43.735 Y-78.595
X44.473 Y-78.964
X58.705 Y-50.499
X58.39 Y-50.341
G3 X57.964 Y-50.483 I-0.142 J-0.284
G1 X57.822 Y-50.767
X57.79 Y-50.83 Z-1.992
X57.76 Y-50.89 Z-1.969
X57.733 Y-50.944 Z-1.931
X57.711 Y-50.989 Z-1.88
X57.694 Y-51.023 Z-1.82
X57.683 Y-51.044 Z-1.753
X57.68 Y-51.051 Z-1.683
G0 Z5
X58.248 Y-51.335
G1 Z0 F333.3
Z-2.683
X58.251 Y-51.328 Z-2.753 F1000
X58.262 Y-51.307 Z-2.82
X58.279 Y-51.273 Z-2.88
X58.301 Y-51.228 Z-2.931
X58.328 Y-51.174 Z-2.969
X58.358 Y-51.114 Z-2.992
X58.39 Y-51.051 Z-3
X58.532 Y-50.767
G3 X58.39 Y-50.341 I-0.284 J0.142
G1 X57.967 Y-50.13
X43.735 Y-78.595
X44.473 Y-78.964
X58.705 Y-50.499
X58.39 Y-50.341
G3 X57.964 Y-50.483 I-0.142 J-0.284
G1 X57.822 Y-50.767
X57.79 Y-50.83 Z-2.992
X57.76 Y-50.89 Z-2.969
X57.733 Y-50.944 Z-2.931
X57.711 Y-50.989 Z-2.88
X57.694 Y-51.023 Z-2.82
X57.683 Y-51.044 Z-2.753
X57.68 Y-51.051 Z-2.683
G0 Z5
X4.914 Y-51.335
G1 Z2 F333.3
Z-0.683
X4.918 Y-51.328 Z-0.753 F1000
X4.928 Y-51.307 Z-0.82
X4.945 Y-51.273 Z-0.88
X4.968 Y-51.228 Z-0.931
X4.995 Y-51.174 Z-0.969
X5.025 Y-51.114 Z-0.992
X5.056 Y-51.051 Z-1
X5.198 Y-50.767
G3 X5.056 Y-50.341 I-0.284 J0.142
G1 X4.634 Y-50.13
X-9.599 Y-78.595
X-8.861 Y-78.964
X5.372 Y-50.499
X5.056 Y-50.341
G3 X4.63 Y-50.483 I-0.142 J-0.284
G1 X4.488 Y-50.767
X4.457 Y-50.83 Z-0.992
X4.427 Y-50.89 Z-0.969
X4.4 Y-50.944 Z-0.931
X4.377 Y-50.989 Z-0.88
X4.36 Y-51.023 Z-0.82
X4.35 Y-51.044 Z-0.753
X4.346 Y-51.051 Z-0.683
G0 Z5
X4.914 Y-51.335
G1 Z1 F333.3
Z-1.683
X4.918 Y-51.328 Z-1.753 F1000
X4.928 Y-51.307 Z-1.82
X4.945 Y-51.273 Z-1.88
X4.968 Y-51.228 Z-1.931
X4.995 Y-51.174 Z-1.969
X5.025 Y-51.114 Z-1.992
X5.056 Y-51.051 Z-2
X5.198 Y-50.767
G3 X5.056 Y-50.341 I-0.284 J0.142
G1 X4.634 Y-50.13
X-9.599 Y-78.595
X-8.861 Y-78.964
X5.372 Y-50.499
X5.056 Y-50.341
G3 X4.63 Y-50.483 I-0.142 J-0.284
G1 X4.488 Y-50.767
X4.457 Y-50.83 Z-1.992
X4.427 Y-50.89 Z-1.969
X4.4 Y-50.944 Z-1.931
X4.377 Y-50.989 Z-1.88
X4.36 Y-51.023 Z-1.82
X4.35 Y-51.044 Z-1.753
X4.346 Y-51.051 Z-1.683
G0 Z5
X4.914 Y-51.335
G1 Z0 F333.3
Z-2.683
X4.918 Y-51.328 Z-2.753 F1000
X4.928 Y-51.307 Z-2.82
X4.945 Y-51.273 Z-2.88
X4.968 Y-51.228 Z-2.931
X4.995 Y-51.174 Z-2.969
X5.025 Y-51.114 Z-2.992
X5.056 Y-51.051 Z-3
X5.198 Y-50.767
G3 X5.056 Y-50.341 I-0.284 J0.142
G1 X4.634 Y-50.13
X-9.599 Y-78.595
X-8.861 Y-78.964
X5.372 Y-50.499
X5.056 Y-50.341
G3 X4.63 Y-50.483 I-0.142 J-0.284
G1 X4.488 Y-50.767
X4.457 Y-50.83 Z-2.992
X4.427 Y-50.89 Z-2.969
X4.4 Y-50.944 Z-2.931
X4.377 Y-50.989 Z-2.88
X4.36 Y-51.023 Z-2.82
X4.35 Y-51.044 Z-2.753
X4.346 Y-51.051 Z-2.683
G0 Z5
X-21.752 Y-51.335
G1 Z2 F333.3
Z-0.683
X-21.749 Y-51.328 Z-0.753 F1000
X-21.738 Y-51.307 Z-0.82
X-21.721 Y-51.273 Z-0.88
X-21.699 Y-51.228 Z-0.931
X-21.672 Y-51.174 Z-0.969
X-21.642 Y-51.114 Z-0.992
X-21.61 Y-51.051 Z-1
X-21.468 Y-50.767
G3 X-21.61 Y-50.341 I-0.284 J0.142
G1 X-22.033 Y-50.13
X-36.265 Y-78.595
X-35.527 Y-78.964
X-21.295 Y-50.499
X-21.61 Y-50.341
G3 X-22.036 Y-50.483 I-0.142 J-0.284
G1 X-22.178 Y-50.767
X-22.21 Y-50.83 Z-0.992
X-22.24 Y-50.89 Z-0.969
X-22.267 Y-50.944 Z-0.931
X-22.289 Y-50.989 Z-0.88
X-22.306 Y-51.023 Z-0.82
X-22.317 Y-51.044 Z-0.753
X-22.32 Y-51.051 Z-0.683
G0 Z5
X-21.752 Y-51.335
G1 Z1 F333.3
Z-1.683
X-21.749 Y-51.328 Z-1.753 F1000
X-21.738 Y-51.307 Z-1.82
X-21.721 Y-51.273 Z-1.88
X-21.699 Y-51.228 Z-1.931
X-21.672 Y-51.174 Z-1.969
X-21.642 Y-51.114 Z-1.992
X-21.61 Y-51.051 Z-2
X-21.468 Y-50.767
G3 X-21.61 Y-50.341 I-0.284 J0.142
G1 X-22.033 Y-50.13
X-36.265 Y-78.595
X-35.527 Y-78.964
X-21.295 Y-50.499
X-21.61 Y-50.341
G3 X-22.036 Y-50.483 I-0.142 J-0.284
G1 X-22.178 Y-50.767
X-22.21 Y-50.83 Z-1.992
X-22.24 Y-50.89 Z-1.969
X-22.267 Y-50.944 Z-1.931
X-22.289 Y-50.989 Z-1.88
X-22.306 Y-51.023 Z-1.82
X-22.317 Y-51.044 Z-1.753
X-22.32 Y-51.051 Z-1.683
G0 Z5
X-21.752 Y-51.335
G1 Z0 F333.3
Z-2.683
X-21.749 Y-51.328 Z-2.753 F1000
X-21.738 Y-51.307 Z-2.82
X-21.721 Y-51.273 Z-2.88
X-21.699 Y-51.228 Z-2.931
X-21.672 Y-51.174 Z-2.969
X-21.642 Y-51.114 Z-2.992
X-21.61 Y-51.051 Z-3
X-21.468 Y-50.767
G3 X-21.61 Y-50.341 I-0.284 J0.142
G1 X-22.033 Y-50.13
X-36.265 Y-78.595
X-35.527 Y-78.964
X-21.295 Y-50.499
X-21.61 Y-50.341
G3 X-22.036 Y-50.483 I-0.142 J-0.284
G1 X-22.178 Y-50.767
X-22.21 Y-50.83 Z-2.992
X-22.24 Y-50.89 Z-2.969
X-22.267 Y-50.944 Z-2.931
X-22.289 Y-50.989 Z-2.88
X-22.306 Y-51.023 Z-2.82
X-22.317 Y-51.044 Z-2.753
X-22.32 Y-51.051 Z-2.683
G0 Z15

(2D-Kontur19)
X29.076 Y-38.412
Z15
Z5
G1 Z2.5 F333.3
S5000
X48.412 Z1.825
Y-37.588 Z1.796
X-30.85 Z-0.972
G3 X-31.653 Y-37.602 Z-1 I0 J-22.412
S6000
X-51.207 Y-50.624 I0.802 J-22.398 F1000
G1 X-68.261 Y-87.649
X-67.511 Y-87.994
X-50.458 Y-50.969
G2 X-30.851 Y-38.412 I19.608 J-9.031
G1 X48.412
Y-37.588
X-30.85
G3 X-31.653 Y-37.602 I0 J-22.412
S5000
X-51.207 Y-50.624 Z-1.864 I0.802 J-22.398 F333.3
G1 X-52.842 Y-54.173 Z-2
S6000
X-68.261 Y-87.649 F1000
X-67.511 Y-87.994
X-50.458 Y-50.969
G2 X-30.851 Y-38.412 I19.608 J-9.031
G1 X48.412
Y-37.588
X-30.85
G3 X-51.207 Y-50.624 I0 J-22.412
G1 X-52.842 Y-54.173
S5000
X-64.822 Y-80.183 Z-3 F333.3
S6000
X-68.261 Y-87.649 F1000
X-67.511 Y-87.994
X-50.458 Y-50.969
G2 X-30.851 Y-38.412 I19.608 J-9.031
G1 X48.412
Y-37.588
X-30.85
G3 X-51.207 Y-50.624 I0 J-22.412
G1 X-64.822 Y-80.183
G0 Z15
G28 G91 Z0
G90
G28 G91 X0 Y0
G90
M5
M30
