(1001)
(Bearbeiten)
(  Hersteller: ChinaCnc)
(  model: 3040T)
(  description: Generic 3-axis)
(T5  D=3.175 CR=0 - ZMIN=-21 - Schaftfraser)
G90 G94
G17
G21
G28 G91 Z0
G90

(2D-Kontur8)
T5
S6000 M3
G54
G0 X143.574 Y-89.855
Z15
Z5
G1 Z2 F333.3
Z-0.683
X143.581 Y-89.857 Z-0.753 F1000
X143.604 Y-89.864 Z-0.82
X143.64 Y-89.875 Z-0.88
X143.688 Y-89.889 Z-0.931
X143.746 Y-89.906 Z-0.969
X143.81 Y-89.925 Z-0.992
X143.878 Y-89.945 Z-1
X144.182 Y-90.036
G3 X144.577 Y-89.823 I0.091 J0.304
G1 X159.687 Y-39.142
G3 X159.477 Y-36.656 I-3.27 J0.976
G1 X159.454 Y-36.611
X159.448 Y-36.599
G3 X153.893 Y-35.79 I-3.057 J-1.517
G2 X99.766 Y-61.596 I-59.718 J55.59
G3 X96.588 Y-65 I0.234 J-3.404
G1 Y-110
G3 X100 Y-113.412 I3.412 J0
G1 X135
G3 X138.271 Y-110.975 I0 J3.413
G1 X144.577 Y-89.823
G3 X144.363 Y-89.428 I-0.304 J0.091
G1 X144.059 Y-89.337
X143.991 Y-89.317 Z-0.992
X143.927 Y-89.298 Z-0.969
X143.869 Y-89.28 Z-0.931
X143.821 Y-89.266 Z-0.88
X143.785 Y-89.255 Z-0.82
X143.763 Y-89.248 Z-0.753
X143.755 Y-89.246 Z-0.683
G0 Z5
X143.574 Y-89.855
G1 Z1 F333.3
Z-1.683
X143.581 Y-89.857 Z-1.753 F1000
X143.604 Y-89.864 Z-1.82
X143.64 Y-89.875 Z-1.88
X143.688 Y-89.889 Z-1.931
X143.746 Y-89.906 Z-1.969
X143.81 Y-89.925 Z-1.992
X143.878 Y-89.945 Z-2
X144.182 Y-90.036
G3 X144.577 Y-89.823 I0.091 J0.304
G1 X159.687 Y-39.142
G3 X159.477 Y-36.656 I-3.27 J0.976
G1 X159.454 Y-36.611
X159.448 Y-36.599
G3 X153.893 Y-35.79 I-3.057 J-1.517
G2 X99.766 Y-61.596 I-59.718 J55.59
G3 X96.588 Y-65 I0.234 J-3.404
G1 Y-110
G3 X100 Y-113.412 I3.412 J0
G1 X135
G3 X138.271 Y-110.975 I0 J3.413
G1 X144.577 Y-89.823
G3 X144.363 Y-89.428 I-0.304 J0.091
G1 X144.059 Y-89.337
X143.991 Y-89.317 Z-1.992
X143.927 Y-89.298 Z-1.969
X143.869 Y-89.28 Z-1.931
X143.821 Y-89.266 Z-1.88
X143.785 Y-89.255 Z-1.82
X143.763 Y-89.248 Z-1.753
X143.755 Y-89.246 Z-1.683
G0 Z5
X143.574 Y-89.855
G1 Z0 F333.3
Z-2.683
X143.581 Y-89.857 Z-2.753 F1000
X143.604 Y-89.864 Z-2.82
X143.64 Y-89.875 Z-2.88
X143.688 Y-89.889 Z-2.931
X143.746 Y-89.906 Z-2.969
X143.81 Y-89.925 Z-2.992
X143.878 Y-89.945 Z-3
X144.182 Y-90.036
G3 X144.577 Y-89.823 I0.091 J0.304
G1 X159.687 Y-39.142
G3 X159.477 Y-36.656 I-3.27 J0.976
G1 X159.454 Y-36.611
X159.448 Y-36.599
G3 X153.893 Y-35.79 I-3.057 J-1.517
G2 X99.766 Y-61.596 I-59.718 J55.59
G3 X96.588 Y-65 I0.234 J-3.404
G1 Y-110
G3 X100 Y-113.412 I3.412 J0
G1 X135
G3 X138.271 Y-110.975 I0 J3.413
G1 X144.577 Y-89.823
G3 X144.363 Y-89.428 I-0.304 J0.091
G1 X144.059 Y-89.337
X143.991 Y-89.317 Z-2.992
X143.927 Y-89.298 Z-2.969
X143.869 Y-89.28 Z-2.931
X143.821 Y-89.266 Z-2.88
X143.785 Y-89.255 Z-2.82
X143.763 Y-89.248 Z-2.753
X143.755 Y-89.246 Z-2.683
G0 Z15

(2D-Kontur9)
X154.978 Y-34.854
Z15
Z5
G1 Z1 F333.3
Z-2.683
X154.98 Y-34.862 Z-2.753 F1000
X154.988 Y-34.884 Z-2.82
X154.999 Y-34.92 Z-2.88
X155.015 Y-34.968 Z-2.931
X155.034 Y-35.025 Z-2.969
X155.055 Y-35.088 Z-2.992
X155.077 Y-35.155 Z-3
X155.177 Y-35.457
G3 X155.578 Y-35.659 I0.301 J0.1
G2 X158.709 Y-36.965 I0.813 J-2.457
G1 X158.714 Y-36.975
X158.736 Y-37.021
G2 X158.897 Y-38.905 I-2.319 J-1.146
G1 X137.479 Y-110.74
G2 X135 Y-112.588 I-2.479 J0.739
G1 X100
G2 X97.412 Y-110 I0 J2.588
G1 Y-65
G2 X99.823 Y-62.419 I2.587 J0
G3 X154.497 Y-36.352 I-5.648 J82.219
G2 X155.578 Y-35.659 I1.894 J-1.763
G3 X155.78 Y-35.257 I-0.1 J0.301
G1 X155.68 Y-34.956
X155.658 Y-34.889 Z-2.992
X155.637 Y-34.825 Z-2.969
X155.618 Y-34.768 Z-2.931
X155.602 Y-34.72 Z-2.88
X155.59 Y-34.684 Z-2.82
X155.583 Y-34.662 Z-2.753
X155.581 Y-34.655 Z-2.683
G0 Z15

(2D-Kontur11)
X-60.906 Y-50.998
Z15
Z5
G1 Z2 F333.3
Z-0.683
X-60.91 Y-50.99 Z-0.753 F1000
X-60.92 Y-50.969 Z-0.82
X-60.937 Y-50.936 Z-0.88
X-60.96 Y-50.891 Z-0.931
X-60.987 Y-50.837 Z-0.969
X-61.017 Y-50.777 Z-0.992
X-61.048 Y-50.714 Z-1
X-61.19 Y-50.43
G3 X-61.616 Y-50.288 I-0.284 J-0.142
G1 X-62.039 Y-50.499
X-47.806 Y-78.964
X-47.068 Y-78.595
X-61.301 Y-50.13
X-61.616 Y-50.288
G3 X-61.758 Y-50.714 I0.142 J-0.284
G1 X-61.616 Y-50.998
X-61.585 Y-51.061 Z-0.992
X-61.555 Y-51.121 Z-0.969
X-61.528 Y-51.175 Z-0.931
X-61.505 Y-51.22 Z-0.88
X-61.488 Y-51.253 Z-0.82
X-61.478 Y-51.274 Z-0.753
X-61.474 Y-51.282 Z-0.683
G0 Z5
X-60.906 Y-50.998
G1 Z1 F333.3
Z-1.683
X-60.91 Y-50.99 Z-1.753 F1000
X-60.92 Y-50.969 Z-1.82
X-60.937 Y-50.936 Z-1.88
X-60.96 Y-50.891 Z-1.931
X-60.987 Y-50.837 Z-1.969
X-61.017 Y-50.777 Z-1.992
X-61.048 Y-50.714 Z-2
X-61.19 Y-50.43
G3 X-61.616 Y-50.288 I-0.284 J-0.142
G1 X-62.039 Y-50.499
X-47.806 Y-78.964
X-47.068 Y-78.595
X-61.301 Y-50.13
X-61.616 Y-50.288
G3 X-61.758 Y-50.714 I0.142 J-0.284
G1 X-61.616 Y-50.998
X-61.585 Y-51.061 Z-1.992
X-61.555 Y-51.121 Z-1.969
X-61.528 Y-51.175 Z-1.931
X-61.505 Y-51.22 Z-1.88
X-61.488 Y-51.253 Z-1.82
X-61.478 Y-51.274 Z-1.753
X-61.474 Y-51.282 Z-1.683
G0 Z5
X-60.906 Y-50.998
G1 Z0 F333.3
Z-2.683
X-60.91 Y-50.99 Z-2.753 F1000
X-60.92 Y-50.969 Z-2.82
X-60.937 Y-50.936 Z-2.88
X-60.96 Y-50.891 Z-2.931
X-60.987 Y-50.837 Z-2.969
X-61.017 Y-50.777 Z-2.992
X-61.048 Y-50.714 Z-3
X-61.19 Y-50.43
G3 X-61.616 Y-50.288 I-0.284 J-0.142
G1 X-62.039 Y-50.499
X-47.806 Y-78.964
X-47.068 Y-78.595
X-61.301 Y-50.13
X-61.616 Y-50.288
G3 X-61.758 Y-50.714 I0.142 J-0.284
G1 X-61.616 Y-50.998
X-61.585 Y-51.061 Z-2.992
X-61.555 Y-51.121 Z-2.969
X-61.528 Y-51.175 Z-2.931
X-61.505 Y-51.22 Z-2.88
X-61.488 Y-51.253 Z-2.82
X-61.478 Y-51.274 Z-2.753
X-61.474 Y-51.282 Z-2.683
G0 Z5
X-87.573 Y-50.998
G1 Z2 F333.3
Z-0.683
X-87.576 Y-50.99 Z-0.753 F1000
X-87.587 Y-50.969 Z-0.82
X-87.604 Y-50.936 Z-0.88
X-87.626 Y-50.891 Z-0.931
X-87.653 Y-50.837 Z-0.969
X-87.683 Y-50.777 Z-0.992
X-87.715 Y-50.714 Z-1
X-87.857 Y-50.43
G3 X-88.283 Y-50.288 I-0.284 J-0.142
G1 X-88.705 Y-50.499
X-74.473 Y-78.964
X-73.735 Y-78.595
X-87.967 Y-50.13
X-88.283 Y-50.288
G3 X-88.425 Y-50.714 I0.142 J-0.284
G1 X-88.283 Y-50.998
X-88.251 Y-51.061 Z-0.992
X-88.221 Y-51.121 Z-0.969
X-88.194 Y-51.175 Z-0.931
X-88.172 Y-51.22 Z-0.88
X-88.155 Y-51.253 Z-0.82
X-88.144 Y-51.274 Z-0.753
X-88.141 Y-51.282 Z-0.683
G0 Z5
X-87.573 Y-50.998
G1 Z1 F333.3
Z-1.683
X-87.576 Y-50.99 Z-1.753 F1000
X-87.587 Y-50.969 Z-1.82
X-87.604 Y-50.936 Z-1.88
X-87.626 Y-50.891 Z-1.931
X-87.653 Y-50.837 Z-1.969
X-87.683 Y-50.777 Z-1.992
X-87.715 Y-50.714 Z-2
X-87.857 Y-50.43
G3 X-88.283 Y-50.288 I-0.284 J-0.142
G1 X-88.705 Y-50.499
X-74.473 Y-78.964
X-73.735 Y-78.595
X-87.967 Y-50.13
X-88.283 Y-50.288
G3 X-88.425 Y-50.714 I0.142 J-0.284
G1 X-88.283 Y-50.998
X-88.251 Y-51.061 Z-1.992
X-88.221 Y-51.121 Z-1.969
X-88.194 Y-51.175 Z-1.931
X-88.172 Y-51.22 Z-1.88
X-88.155 Y-51.253 Z-1.82
X-88.144 Y-51.274 Z-1.753
X-88.141 Y-51.282 Z-1.683
G0 Z5
X-87.573 Y-50.998
G1 Z0 F333.3
Z-2.683
X-87.576 Y-50.99 Z-2.753 F1000
X-87.587 Y-50.969 Z-2.82
X-87.604 Y-50.936 Z-2.88
X-87.626 Y-50.891 Z-2.931
X-87.653 Y-50.837 Z-2.969
X-87.683 Y-50.777 Z-2.992
X-87.715 Y-50.714 Z-3
X-87.857 Y-50.43
G3 X-88.283 Y-50.288 I-0.284 J-0.142
G1 X-88.705 Y-50.499
X-74.473 Y-78.964
X-73.735 Y-78.595
X-87.967 Y-50.13
X-88.283 Y-50.288
G3 X-88.425 Y-50.714 I0.142 J-0.284
G1 X-88.283 Y-50.998
X-88.251 Y-51.061 Z-2.992
X-88.221 Y-51.121 Z-2.969
X-88.194 Y-51.175 Z-2.931
X-88.172 Y-51.22 Z-2.88
X-88.155 Y-51.253 Z-2.82
X-88.144 Y-51.274 Z-2.753
X-88.141 Y-51.282 Z-2.683
G0 Z5
X-34.346 Y-51.051
G1 Z2 F333.3
Z-0.683
X-34.35 Y-51.044 Z-0.753 F1000
X-34.361 Y-51.023 Z-0.82
X-34.377 Y-50.989 Z-0.88
X-34.4 Y-50.944 Z-0.931
X-34.427 Y-50.89 Z-0.969
X-34.457 Y-50.83 Z-0.992
X-34.488 Y-50.767 Z-1
X-34.63 Y-50.483
G3 X-35.056 Y-50.341 I-0.284 J-0.142
G1 X-35.372 Y-50.499
X-21.139 Y-78.964
X-20.401 Y-78.595
X-34.634 Y-50.13
X-35.056 Y-50.341
G3 X-35.198 Y-50.767 I0.142 J-0.284
G1 X-35.056 Y-51.051
X-35.025 Y-51.114 Z-0.992
X-34.995 Y-51.174 Z-0.969
X-34.968 Y-51.228 Z-0.931
X-34.945 Y-51.273 Z-0.88
X-34.928 Y-51.307 Z-0.82
X-34.918 Y-51.328 Z-0.753
X-34.914 Y-51.335 Z-0.683
G0 Z5
X-34.346 Y-51.051
G1 Z1 F333.3
Z-1.683
X-34.35 Y-51.044 Z-1.753 F1000
X-34.361 Y-51.023 Z-1.82
X-34.377 Y-50.989 Z-1.88
X-34.4 Y-50.944 Z-1.931
X-34.427 Y-50.89 Z-1.969
X-34.457 Y-50.83 Z-1.992
X-34.488 Y-50.767 Z-2
X-34.63 Y-50.483
G3 X-35.056 Y-50.341 I-0.284 J-0.142
G1 X-35.372 Y-50.499
X-21.139 Y-78.964
X-20.401 Y-78.595
X-34.634 Y-50.13
X-35.056 Y-50.341
G3 X-35.198 Y-50.767 I0.142 J-0.284
G1 X-35.056 Y-51.051
X-35.025 Y-51.114 Z-1.992
X-34.995 Y-51.174 Z-1.969
X-34.968 Y-51.228 Z-1.931
X-34.945 Y-51.273 Z-1.88
X-34.928 Y-51.307 Z-1.82
X-34.918 Y-51.328 Z-1.753
X-34.914 Y-51.335 Z-1.683
G0 Z5
X-34.346 Y-51.051
G1 Z0 F333.3
Z-2.683
X-34.35 Y-51.044 Z-2.753 F1000
X-34.361 Y-51.023 Z-2.82
X-34.377 Y-50.989 Z-2.88
X-34.4 Y-50.944 Z-2.931
X-34.427 Y-50.89 Z-2.969
X-34.457 Y-50.83 Z-2.992
X-34.488 Y-50.767 Z-3
X-34.63 Y-50.483
G3 X-35.056 Y-50.341 I-0.284 J-0.142
G1 X-35.372 Y-50.499
X-21.139 Y-78.964
X-20.401 Y-78.595
X-34.634 Y-50.13
X-35.056 Y-50.341
G3 X-35.198 Y-50.767 I0.142 J-0.284
G1 X-35.056 Y-51.051
X-35.025 Y-51.114 Z-2.992
X-34.995 Y-51.174 Z-2.969
X-34.968 Y-51.228 Z-2.931
X-34.945 Y-51.273 Z-2.88
X-34.928 Y-51.307 Z-2.82
X-34.918 Y-51.328 Z-2.753
X-34.914 Y-51.335 Z-2.683
G0 Z5
X-7.573 Y-50.998
G1 Z2 F333.3
Z-0.683
X-7.576 Y-50.99 Z-0.753 F1000
X-7.587 Y-50.969 Z-0.82
X-7.604 Y-50.936 Z-0.88
X-7.626 Y-50.891 Z-0.931
X-7.653 Y-50.837 Z-0.969
X-7.683 Y-50.777 Z-0.992
X-7.715 Y-50.714 Z-1
X-7.857 Y-50.43
G3 X-8.283 Y-50.288 I-0.284 J-0.142
G1 X-8.705 Y-50.499
X5.527 Y-78.964
X6.265 Y-78.595
X-7.967 Y-50.13
X-8.283 Y-50.288
G3 X-8.425 Y-50.714 I0.142 J-0.284
G1 X-8.283 Y-50.998
X-8.251 Y-51.061 Z-0.992
X-8.221 Y-51.121 Z-0.969
X-8.194 Y-51.175 Z-0.931
X-8.172 Y-51.22 Z-0.88
X-8.155 Y-51.253 Z-0.82
X-8.144 Y-51.274 Z-0.753
X-8.141 Y-51.282 Z-0.683
G0 Z5
X-7.573 Y-50.998
G1 Z1 F333.3
Z-1.683
X-7.576 Y-50.99 Z-1.753 F1000
X-7.587 Y-50.969 Z-1.82
X-7.604 Y-50.936 Z-1.88
X-7.626 Y-50.891 Z-1.931
X-7.653 Y-50.837 Z-1.969
X-7.683 Y-50.777 Z-1.992
X-7.715 Y-50.714 Z-2
X-7.857 Y-50.43
G3 X-8.283 Y-50.288 I-0.284 J-0.142
G1 X-8.705 Y-50.499
X5.527 Y-78.964
X6.265 Y-78.595
X-7.967 Y-50.13
X-8.283 Y-50.288
G3 X-8.425 Y-50.714 I0.142 J-0.284
G1 X-8.283 Y-50.998
X-8.251 Y-51.061 Z-1.992
X-8.221 Y-51.121 Z-1.969
X-8.194 Y-51.175 Z-1.931
X-8.172 Y-51.22 Z-1.88
X-8.155 Y-51.253 Z-1.82
X-8.144 Y-51.274 Z-1.753
X-8.141 Y-51.282 Z-1.683
G0 Z5
X-7.573 Y-50.998
G1 Z0 F333.3
Z-2.683
X-7.576 Y-50.99 Z-2.753 F1000
X-7.587 Y-50.969 Z-2.82
X-7.604 Y-50.936 Z-2.88
X-7.626 Y-50.891 Z-2.931
X-7.653 Y-50.837 Z-2.969
X-7.683 Y-50.777 Z-2.992
X-7.715 Y-50.714 Z-3
X-7.857 Y-50.43
G3 X-8.283 Y-50.288 I-0.284 J-0.142
G1 X-8.705 Y-50.499
X5.527 Y-78.964
X6.265 Y-78.595
X-7.967 Y-50.13
X-8.283 Y-50.288
G3 X-8.425 Y-50.714 I0.142 J-0.284
G1 X-8.283 Y-50.998
X-8.251 Y-51.061 Z-2.992
X-8.221 Y-51.121 Z-2.969
X-8.194 Y-51.175 Z-2.931
X-8.172 Y-51.22 Z-2.88
X-8.155 Y-51.253 Z-2.82
X-8.144 Y-51.274 Z-2.753
X-8.141 Y-51.282 Z-2.683
G0 Z15

(2D-Kontur18)
X53.188 Y-56.896
Z15
Z5
G1 Z2.5 F333.3
S5000
X67.511 Y-87.994 Z1.304
X68.261 Y-87.649 Z1.276
X51.207 Y-50.624 Z-0.148
G3 X31.982 Y-37.616 Z-1 I-20.357 J-9.376
S6000
X30.85 Y-37.588 I-1.132 J-22.384 F1000
G1 X-78.412
Y-38.412
X30.851
G2 X50.458 Y-50.969 I0 J-21.587
G1 X67.511 Y-87.994
X68.261 Y-87.649
X51.207 Y-50.624
G3 X31.982 Y-37.616 I-20.357 J-9.376
S5000
X30.85 Y-37.588 Z-1.04 I-1.132 J-22.384 F333.3
G1 X3.347 Z-2
S6000
X-78.412 F1000
Y-38.412
X30.851
G2 X50.458 Y-50.969 I0 J-21.587
G1 X67.511 Y-87.994
X68.261 Y-87.649
X51.207 Y-50.624
G3 X30.85 Y-37.588 I-20.357 J-9.376
G1 X3.347
S5000
X-25.29 Z-3 F333.3
S6000
X-78.412 F1000
Y-38.412
X30.851
G2 X50.458 Y-50.969 I0 J-21.587
G1 X67.511 Y-87.994
X68.261 Y-87.649
X51.207 Y-50.624
G3 X30.85 Y-37.588 I-20.357 J-9.376
G1 X-25.29
G0 Z15

(2D-Kontur15)
X76.497 Y-127.397
Z15
Z5
G1 Z2 F333.3
Z-0.683
X76.495 Y-127.389 Z-0.753 F1000
X76.492 Y-127.366 Z-0.82
X76.486 Y-127.328 Z-0.88
X76.478 Y-127.279 Z-0.931
X76.469 Y-127.219 Z-0.969
X76.458 Y-127.153 Z-0.992
X76.447 Y-127.083 Z-1
X76.397 Y-126.77
G3 X76.034 Y-126.506 I-0.314 J-0.05
G2 X73.633 Y-126.444 I-1.034 J6.506
G1 X-91.367 Y-91.444
G2 X-95.892 Y-87.946 I1.367 J6.444
G1 X-115.892 Y-47.946
G2 X-110 Y-38.412 I5.892 J2.946
G1 X-90
G3 X-86.837 Y-33.72 I0 J3.412
G1 X-100.742 Y0.655
G2 X-90 Y16.587 I10.742 J4.345
G1 X135
G2 X145.38 Y10.15 I0 J-11.587
G1 X163.296 Y-25.961
G2 X165.27 Y-49.025 I-28.296 J-14.039
G1 X146.104 Y-113.311
G2 X135 Y-121.588 I-11.104 J3.31
G1 X95
G2 X88.412 Y-115 I0 J6.588
G1 Y-95
G3 X71.588 Y-95 I-8.412 J0
X72.359 Y-98.519 I8.412 J0
G1 X80.983 Y-117.244
G2 X76.034 Y-126.506 I-5.983 J-2.756
G3 X75.77 Y-126.869 I0.05 J-0.314
G1 X75.82 Y-127.183
X75.831 Y-127.252 Z-0.992
X75.841 Y-127.319 Z-0.969
X75.851 Y-127.378 Z-0.931
X75.859 Y-127.428 Z-0.88
X75.865 Y-127.465 Z-0.82
X75.868 Y-127.488 Z-0.753
X75.87 Y-127.496 Z-0.683
G0 Z5
X76.497 Y-127.397
G1 Z1 F333.3
Z-1.683
X76.495 Y-127.389 Z-1.753 F1000
X76.492 Y-127.366 Z-1.82
X76.486 Y-127.328 Z-1.88
X76.478 Y-127.279 Z-1.931
X76.469 Y-127.219 Z-1.969
X76.458 Y-127.153 Z-1.992
X76.447 Y-127.083 Z-2
X76.397 Y-126.77
G3 X76.034 Y-126.506 I-0.314 J-0.05
G2 X73.633 Y-126.444 I-1.034 J6.506
G1 X-91.367 Y-91.444
G2 X-95.892 Y-87.946 I1.367 J6.444
G1 X-115.892 Y-47.946
G2 X-110 Y-38.412 I5.892 J2.946
G1 X-90
G3 X-86.837 Y-33.72 I0 J3.412
G1 X-100.742 Y0.655
G2 X-90 Y16.587 I10.742 J4.345
G1 X135
G2 X145.38 Y10.15 I0 J-11.587
G1 X163.296 Y-25.961
G2 X165.27 Y-49.025 I-28.296 J-14.039
G1 X146.104 Y-113.311
G2 X135 Y-121.588 I-11.104 J3.31
G1 X95
G2 X88.412 Y-115 I0 J6.588
G1 Y-95
G3 X71.588 Y-95 I-8.412 J0
X72.359 Y-98.519 I8.412 J0
G1 X80.983 Y-117.244
G2 X76.034 Y-126.506 I-5.983 J-2.756
G3 X75.77 Y-126.869 I0.05 J-0.314
G1 X75.82 Y-127.183
X75.831 Y-127.252 Z-1.992
X75.841 Y-127.319 Z-1.969
X75.851 Y-127.378 Z-1.931
X75.859 Y-127.428 Z-1.88
X75.865 Y-127.465 Z-1.82
X75.868 Y-127.488 Z-1.753
X75.87 Y-127.496 Z-1.683
G0 Z5
X76.497 Y-127.397
G1 Z0 F333.3
Z-2.683
X76.495 Y-127.389 Z-2.753 F1000
X76.492 Y-127.366 Z-2.82
X76.486 Y-127.328 Z-2.88
X76.478 Y-127.279 Z-2.931
X76.469 Y-127.219 Z-2.969
X76.458 Y-127.153 Z-2.992
X76.447 Y-127.083 Z-3
X76.397 Y-126.77
G3 X76.034 Y-126.506 I-0.314 J-0.05
G2 X73.633 Y-126.444 I-1.034 J6.506
G1 X-91.367 Y-91.444
G2 X-95.892 Y-87.946 I1.367 J6.444
G1 X-115.892 Y-47.946
G2 X-110 Y-38.412 I5.892 J2.946
G1 X-90
G3 X-86.837 Y-33.72 I0 J3.412
G1 X-100.742 Y0.655
G2 X-90 Y16.587 I10.742 J4.345
G1 X135
G2 X145.38 Y10.15 I0 J-11.587
G1 X163.296 Y-25.961
G2 X165.27 Y-49.025 I-28.296 J-14.039
G1 X146.104 Y-113.311
G2 X135 Y-121.588 I-11.104 J3.31
G1 X95
G2 X88.412 Y-115 I0 J6.588
G1 Y-95
G3 X71.588 Y-95 I-8.412 J0
X72.359 Y-98.519 I8.412 J0
G1 X80.983 Y-117.244
G2 X76.034 Y-126.506 I-5.983 J-2.756
G3 X75.77 Y-126.869 I0.05 J-0.314
G1 X75.82 Y-127.183
X75.831 Y-127.252 Z-2.992
X75.841 Y-127.319 Z-2.969
X75.851 Y-127.378 Z-2.931
X75.859 Y-127.428 Z-2.88
X75.865 Y-127.465 Z-2.82
X75.868 Y-127.488 Z-2.753
X75.87 Y-127.496 Z-2.683
G0 Z5
X76.497 Y-127.397
G1 Z-1 F333.3
Z-3.683
X76.495 Y-127.389 Z-3.753 F1000
X76.492 Y-127.366 Z-3.82
X76.486 Y-127.328 Z-3.88
X76.478 Y-127.279 Z-3.931
X76.469 Y-127.219 Z-3.969
X76.458 Y-127.153 Z-3.992
X76.447 Y-127.083 Z-4
X76.397 Y-126.77
G3 X76.034 Y-126.506 I-0.314 J-0.05
G2 X73.633 Y-126.444 I-1.034 J6.506
G1 X-91.367 Y-91.444
G2 X-95.892 Y-87.946 I1.367 J6.444
G1 X-115.892 Y-47.946
G2 X-110 Y-38.412 I5.892 J2.946
G1 X-90
G3 X-86.837 Y-33.72 I0 J3.412
G1 X-100.742 Y0.655
G2 X-90 Y16.587 I10.742 J4.345
G1 X135
G2 X145.38 Y10.15 I0 J-11.587
G1 X163.296 Y-25.961
G2 X165.27 Y-49.025 I-28.296 J-14.039
G1 X146.104 Y-113.311
G2 X135 Y-121.588 I-11.104 J3.31
G1 X95
G2 X88.412 Y-115 I0 J6.588
G1 Y-95
G3 X71.588 Y-95 I-8.412 J0
X72.359 Y-98.519 I8.412 J0
G1 X80.983 Y-117.244
G2 X76.034 Y-126.506 I-5.983 J-2.756
G3 X75.77 Y-126.869 I0.05 J-0.314
G1 X75.82 Y-127.183
X75.831 Y-127.252 Z-3.992
X75.841 Y-127.319 Z-3.969
X75.851 Y-127.378 Z-3.931
X75.859 Y-127.428 Z-3.88
X75.865 Y-127.465 Z-3.82
X75.868 Y-127.488 Z-3.753
X75.87 Y-127.496 Z-3.683
G0 Z5
X76.497 Y-127.397
G1 Z-2 F333.3
Z-4.683
X76.495 Y-127.389 Z-4.753 F1000
X76.492 Y-127.366 Z-4.82
X76.486 Y-127.328 Z-4.88
X76.478 Y-127.279 Z-4.931
X76.469 Y-127.219 Z-4.969
X76.458 Y-127.153 Z-4.992
X76.447 Y-127.083 Z-5
X76.397 Y-126.77
G3 X76.034 Y-126.506 I-0.314 J-0.05
G2 X73.633 Y-126.444 I-1.034 J6.506
G1 X-91.367 Y-91.444
G2 X-95.892 Y-87.946 I1.367 J6.444
G1 X-115.892 Y-47.946
G2 X-110 Y-38.412 I5.892 J2.946
G1 X-90
G3 X-86.837 Y-33.72 I0 J3.412
G1 X-100.742 Y0.655
G2 X-90 Y16.587 I10.742 J4.345
G1 X135
G2 X145.38 Y10.15 I0 J-11.587
G1 X163.296 Y-25.961
G2 X165.27 Y-49.025 I-28.296 J-14.039
G1 X146.104 Y-113.311
G2 X135 Y-121.588 I-11.104 J3.31
G1 X95
G2 X88.412 Y-115 I0 J6.588
G1 Y-95
G3 X71.588 Y-95 I-8.412 J0
X72.359 Y-98.519 I8.412 J0
G1 X80.983 Y-117.244
G2 X76.034 Y-126.506 I-5.983 J-2.756
G3 X75.77 Y-126.869 I0.05 J-0.314
G1 X75.82 Y-127.183
X75.831 Y-127.252 Z-4.992
X75.841 Y-127.319 Z-4.969
X75.851 Y-127.378 Z-4.931
X75.859 Y-127.428 Z-4.88
X75.865 Y-127.465 Z-4.82
X75.868 Y-127.488 Z-4.753
X75.87 Y-127.496 Z-4.683
G0 Z5
X76.497 Y-127.397
G1 Z-3 F333.3
Z-5.683
X76.495 Y-127.389 Z-5.753 F1000
X76.492 Y-127.366 Z-5.82
X76.486 Y-127.328 Z-5.88
X76.478 Y-127.279 Z-5.931
X76.469 Y-127.219 Z-5.969
X76.458 Y-127.153 Z-5.992
X76.447 Y-127.083 Z-6
X76.397 Y-126.77
G3 X76.034 Y-126.506 I-0.314 J-0.05
G2 X73.633 Y-126.444 I-1.034 J6.506
G1 X-91.367 Y-91.444
G2 X-95.892 Y-87.946 I1.367 J6.444
G1 X-115.892 Y-47.946
G2 X-110 Y-38.412 I5.892 J2.946
G1 X-90
G3 X-86.837 Y-33.72 I0 J3.412
G1 X-100.742 Y0.655
G2 X-90 Y16.587 I10.742 J4.345
G1 X135
G2 X145.38 Y10.15 I0 J-11.587
G1 X163.296 Y-25.961
G2 X165.27 Y-49.025 I-28.296 J-14.039
G1 X146.104 Y-113.311
G2 X135 Y-121.588 I-11.104 J3.31
G1 X95
G2 X88.412 Y-115 I0 J6.588
G1 Y-95
G3 X71.588 Y-95 I-8.412 J0
X72.359 Y-98.519 I8.412 J0
G1 X80.983 Y-117.244
G2 X76.034 Y-126.506 I-5.983 J-2.756
G3 X75.77 Y-126.869 I0.05 J-0.314
G1 X75.82 Y-127.183
X75.831 Y-127.252 Z-5.992
X75.841 Y-127.319 Z-5.969
X75.851 Y-127.378 Z-5.931
X75.859 Y-127.428 Z-5.88
X75.865 Y-127.465 Z-5.82
X75.868 Y-127.488 Z-5.753
X75.87 Y-127.496 Z-5.683
G0 Z5
X76.497 Y-127.397
G1 Z-4 F333.3
Z-6.683
X76.495 Y-127.389 Z-6.753 F1000
X76.492 Y-127.366 Z-6.82
X76.486 Y-127.328 Z-6.88
X76.478 Y-127.279 Z-6.931
X76.469 Y-127.219 Z-6.969
X76.458 Y-127.153 Z-6.992
X76.447 Y-127.083 Z-7
X76.397 Y-126.77
G3 X76.034 Y-126.506 I-0.314 J-0.05
G2 X73.633 Y-126.444 I-1.034 J6.506
G1 X-91.367 Y-91.444
G2 X-95.892 Y-87.946 I1.367 J6.444
G1 X-115.892 Y-47.946
G2 X-110 Y-38.412 I5.892 J2.946
G1 X-90
G3 X-86.837 Y-33.72 I0 J3.412
G1 X-100.742 Y0.655
G2 X-90 Y16.587 I10.742 J4.345
G1 X135
G2 X145.38 Y10.15 I0 J-11.587
G1 X163.296 Y-25.961
G2 X165.27 Y-49.025 I-28.296 J-14.039
G1 X146.104 Y-113.311
G2 X135 Y-121.588 I-11.104 J3.31
G1 X95
G2 X88.412 Y-115 I0 J6.588
G1 Y-95
G3 X71.588 Y-95 I-8.412 J0
X72.359 Y-98.519 I8.412 J0
G1 X80.983 Y-117.244
G2 X76.034 Y-126.506 I-5.983 J-2.756
G3 X75.77 Y-126.869 I0.05 J-0.314
G1 X75.82 Y-127.183
X75.831 Y-127.252 Z-6.992
X75.841 Y-127.319 Z-6.969
X75.851 Y-127.378 Z-6.931
X75.859 Y-127.428 Z-6.88
X75.865 Y-127.465 Z-6.82
X75.868 Y-127.488 Z-6.753
X75.87 Y-127.496 Z-6.683
G0 Z5
X76.497 Y-127.397
G1 Z-5 F333.3
Z-7.683
X76.495 Y-127.389 Z-7.753 F1000
X76.492 Y-127.366 Z-7.82
X76.486 Y-127.328 Z-7.88
X76.478 Y-127.279 Z-7.931
X76.469 Y-127.219 Z-7.969
X76.458 Y-127.153 Z-7.992
X76.447 Y-127.083 Z-8
X76.397 Y-126.77
G3 X76.034 Y-126.506 I-0.314 J-0.05
G2 X73.633 Y-126.444 I-1.034 J6.506
G1 X-91.367 Y-91.444
G2 X-95.892 Y-87.946 I1.367 J6.444
G1 X-115.892 Y-47.946
G2 X-110 Y-38.412 I5.892 J2.946
G1 X-90
G3 X-86.837 Y-33.72 I0 J3.412
G1 X-100.742 Y0.655
G2 X-90 Y16.587 I10.742 J4.345
G1 X135
G2 X145.38 Y10.15 I0 J-11.587
G1 X163.296 Y-25.961
G2 X165.27 Y-49.025 I-28.296 J-14.039
G1 X146.104 Y-113.311
G2 X135 Y-121.588 I-11.104 J3.31
G1 X95
G2 X88.412 Y-115 I0 J6.588
G1 Y-95
G3 X71.588 Y-95 I-8.412 J0
X72.359 Y-98.519 I8.412 J0
G1 X80.983 Y-117.244
G2 X76.034 Y-126.506 I-5.983 J-2.756
G3 X75.77 Y-126.869 I0.05 J-0.314
G1 X75.82 Y-127.183
X75.831 Y-127.252 Z-7.992
X75.841 Y-127.319 Z-7.969
X75.851 Y-127.378 Z-7.931
X75.859 Y-127.428 Z-7.88
X75.865 Y-127.465 Z-7.82
X75.868 Y-127.488 Z-7.753
X75.87 Y-127.496 Z-7.683
G0 Z5
X76.497 Y-127.397
G1 Z-6 F333.3
Z-8.683
X76.495 Y-127.389 Z-8.753 F1000
X76.492 Y-127.366 Z-8.82
X76.486 Y-127.328 Z-8.88
X76.478 Y-127.279 Z-8.931
X76.469 Y-127.219 Z-8.969
X76.458 Y-127.153 Z-8.992
X76.447 Y-127.083 Z-9
X76.397 Y-126.77
G3 X76.034 Y-126.506 I-0.314 J-0.05
G2 X73.633 Y-126.444 I-1.034 J6.506
G1 X-91.367 Y-91.444
G2 X-95.892 Y-87.946 I1.367 J6.444
G1 X-115.892 Y-47.946
G2 X-110 Y-38.412 I5.892 J2.946
G1 X-90
G3 X-86.837 Y-33.72 I0 J3.412
G1 X-100.742 Y0.655
G2 X-90 Y16.587 I10.742 J4.345
G1 X135
G2 X145.38 Y10.15 I0 J-11.587
G1 X163.296 Y-25.961
G2 X165.27 Y-49.025 I-28.296 J-14.039
G1 X146.104 Y-113.311
G2 X135 Y-121.588 I-11.104 J3.31
G1 X95
G2 X88.412 Y-115 I0 J6.588
G1 Y-95
G3 X71.588 Y-95 I-8.412 J0
X72.359 Y-98.519 I8.412 J0
G1 X80.983 Y-117.244
G2 X76.034 Y-126.506 I-5.983 J-2.756
G3 X75.77 Y-126.869 I0.05 J-0.314
G1 X75.82 Y-127.183
X75.831 Y-127.252 Z-8.992
X75.841 Y-127.319 Z-8.969
X75.851 Y-127.378 Z-8.931
X75.859 Y-127.428 Z-8.88
X75.865 Y-127.465 Z-8.82
X75.868 Y-127.488 Z-8.753
X75.87 Y-127.496 Z-8.683
G0 Z5
X76.497 Y-127.397
G1 Z-7 F333.3
Z-9.683
X76.495 Y-127.389 Z-9.753 F1000
X76.492 Y-127.366 Z-9.82
X76.486 Y-127.328 Z-9.88
X76.478 Y-127.279 Z-9.931
X76.469 Y-127.219 Z-9.969
X76.458 Y-127.153 Z-9.992
X76.447 Y-127.083 Z-10
X76.397 Y-126.77
G3 X76.034 Y-126.506 I-0.314 J-0.05
G2 X73.633 Y-126.444 I-1.034 J6.506
G1 X-91.367 Y-91.444
G2 X-95.892 Y-87.946 I1.367 J6.444
G1 X-115.892 Y-47.946
G2 X-110 Y-38.412 I5.892 J2.946
G1 X-90
G3 X-86.837 Y-33.72 I0 J3.412
G1 X-100.742 Y0.655
G2 X-90 Y16.587 I10.742 J4.345
G1 X135
G2 X145.38 Y10.15 I0 J-11.587
G1 X163.296 Y-25.961
G2 X165.27 Y-49.025 I-28.296 J-14.039
G1 X146.104 Y-113.311
G2 X135 Y-121.588 I-11.104 J3.31
G1 X95
G2 X88.412 Y-115 I0 J6.588
G1 Y-95
G3 X71.588 Y-95 I-8.412 J0
X72.359 Y-98.519 I8.412 J0
G1 X80.983 Y-117.244
G2 X76.034 Y-126.506 I-5.983 J-2.756
G3 X75.77 Y-126.869 I0.05 J-0.314
G1 X75.82 Y-127.183
X75.831 Y-127.252 Z-9.992
X75.841 Y-127.319 Z-9.969
X75.851 Y-127.378 Z-9.931
X75.859 Y-127.428 Z-9.88
X75.865 Y-127.465 Z-9.82
X75.868 Y-127.488 Z-9.753
X75.87 Y-127.496 Z-9.683
G0 Z5
X76.497 Y-127.397
G1 Z-8 F333.3
Z-10.683
X76.495 Y-127.389 Z-10.753 F1000
X76.492 Y-127.366 Z-10.82
X76.486 Y-127.328 Z-10.88
X76.478 Y-127.279 Z-10.931
X76.469 Y-127.219 Z-10.969
X76.458 Y-127.153 Z-10.992
X76.447 Y-127.083 Z-11
X76.397 Y-126.77
G3 X76.034 Y-126.506 I-0.314 J-0.05
G2 X73.633 Y-126.444 I-1.034 J6.506
G1 X-91.367 Y-91.444
G2 X-95.892 Y-87.946 I1.367 J6.444
G1 X-115.892 Y-47.946
G2 X-110 Y-38.412 I5.892 J2.946
G1 X-90
G3 X-86.837 Y-33.72 I0 J3.412
G1 X-100.742 Y0.655
G2 X-90 Y16.587 I10.742 J4.345
G1 X135
G2 X145.38 Y10.15 I0 J-11.587
G1 X163.296 Y-25.961
G2 X165.27 Y-49.025 I-28.296 J-14.039
G1 X146.104 Y-113.311
G2 X135 Y-121.588 I-11.104 J3.31
G1 X95
G2 X88.412 Y-115 I0 J6.588
G1 Y-95
G3 X71.588 Y-95 I-8.412 J0
X72.359 Y-98.519 I8.412 J0
G1 X80.983 Y-117.244
G2 X76.034 Y-126.506 I-5.983 J-2.756
G3 X75.77 Y-126.869 I0.05 J-0.314
G1 X75.82 Y-127.183
X75.831 Y-127.252 Z-10.992
X75.841 Y-127.319 Z-10.969
X75.851 Y-127.378 Z-10.931
X75.859 Y-127.428 Z-10.88
X75.865 Y-127.465 Z-10.82
X75.868 Y-127.488 Z-10.753
X75.87 Y-127.496 Z-10.683
G0 Z5
X76.497 Y-127.397
G1 Z-9 F333.3
Z-11.683
X76.495 Y-127.389 Z-11.753 F1000
X76.492 Y-127.366 Z-11.82
X76.486 Y-127.328 Z-11.88
X76.478 Y-127.279 Z-11.931
X76.469 Y-127.219 Z-11.969
X76.458 Y-127.153 Z-11.992
X76.447 Y-127.083 Z-12
X76.397 Y-126.77
G3 X76.034 Y-126.506 I-0.314 J-0.05
G2 X73.633 Y-126.444 I-1.034 J6.506
G1 X-91.367 Y-91.444
G2 X-95.892 Y-87.946 I1.367 J6.444
G1 X-115.892 Y-47.946
G2 X-110 Y-38.412 I5.892 J2.946
G1 X-90
G3 X-86.837 Y-33.72 I0 J3.412
G1 X-100.742 Y0.655
G2 X-90 Y16.587 I10.742 J4.345
G1 X135
G2 X145.38 Y10.15 I0 J-11.587
G1 X163.296 Y-25.961
G2 X165.27 Y-49.025 I-28.296 J-14.039
G1 X146.104 Y-113.311
G2 X135 Y-121.588 I-11.104 J3.31
G1 X95
G2 X88.412 Y-115 I0 J6.588
G1 Y-95
G3 X71.588 Y-95 I-8.412 J0
X72.359 Y-98.519 I8.412 J0
G1 X80.983 Y-117.244
G2 X76.034 Y-126.506 I-5.983 J-2.756
G3 X75.77 Y-126.869 I0.05 J-0.314
G1 X75.82 Y-127.183
X75.831 Y-127.252 Z-11.992
X75.841 Y-127.319 Z-11.969
X75.851 Y-127.378 Z-11.931
X75.859 Y-127.428 Z-11.88
X75.865 Y-127.465 Z-11.82
X75.868 Y-127.488 Z-11.753
X75.87 Y-127.496 Z-11.683
G0 Z5
X76.497 Y-127.397
G1 Z-10 F333.3
Z-12.683
X76.495 Y-127.389 Z-12.753 F1000
X76.492 Y-127.366 Z-12.82
X76.486 Y-127.328 Z-12.88
X76.478 Y-127.279 Z-12.931
X76.469 Y-127.219 Z-12.969
X76.458 Y-127.153 Z-12.992
X76.447 Y-127.083 Z-13
X76.397 Y-126.77
G3 X76.034 Y-126.506 I-0.314 J-0.05
G2 X73.633 Y-126.444 I-1.034 J6.506
G1 X-91.367 Y-91.444
G2 X-95.892 Y-87.946 I1.367 J6.444
G1 X-115.892 Y-47.946
G2 X-110 Y-38.412 I5.892 J2.946
G1 X-90
G3 X-86.837 Y-33.72 I0 J3.412
G1 X-100.742 Y0.655
G2 X-90 Y16.587 I10.742 J4.345
G1 X135
G2 X145.38 Y10.15 I0 J-11.587
G1 X163.296 Y-25.961
G2 X165.27 Y-49.025 I-28.296 J-14.039
G1 X146.104 Y-113.311
G2 X135 Y-121.588 I-11.104 J3.31
G1 X95
G2 X88.412 Y-115 I0 J6.588
G1 Y-95
G3 X71.588 Y-95 I-8.412 J0
X72.359 Y-98.519 I8.412 J0
G1 X80.983 Y-117.244
G2 X76.034 Y-126.506 I-5.983 J-2.756
G3 X75.77 Y-126.869 I0.05 J-0.314
G1 X75.82 Y-127.183
X75.831 Y-127.252 Z-12.992
X75.841 Y-127.319 Z-12.969
X75.851 Y-127.378 Z-12.931
X75.859 Y-127.428 Z-12.88
X75.865 Y-127.465 Z-12.82
X75.868 Y-127.488 Z-12.753
X75.87 Y-127.496 Z-12.683
G0 Z5
X76.497 Y-127.397
G1 Z-11 F333.3
Z-13.683
X76.495 Y-127.389 Z-13.753 F1000
X76.492 Y-127.366 Z-13.82
X76.486 Y-127.328 Z-13.88
X76.478 Y-127.279 Z-13.931
X76.469 Y-127.219 Z-13.969
X76.458 Y-127.153 Z-13.992
X76.447 Y-127.083 Z-14
X76.397 Y-126.77
G3 X76.034 Y-126.506 I-0.314 J-0.05
G2 X73.633 Y-126.444 I-1.034 J6.506
G1 X-91.367 Y-91.444
G2 X-95.892 Y-87.946 I1.367 J6.444
G1 X-115.892 Y-47.946
G2 X-110 Y-38.412 I5.892 J2.946
G1 X-90
G3 X-86.837 Y-33.72 I0 J3.412
G1 X-100.742 Y0.655
G2 X-90 Y16.587 I10.742 J4.345
G1 X135
G2 X145.38 Y10.15 I0 J-11.587
G1 X163.296 Y-25.961
G2 X165.27 Y-49.025 I-28.296 J-14.039
G1 X146.104 Y-113.311
G2 X135 Y-121.588 I-11.104 J3.31
G1 X95
G2 X88.412 Y-115 I0 J6.588
G1 Y-95
G3 X71.588 Y-95 I-8.412 J0
X72.359 Y-98.519 I8.412 J0
G1 X80.983 Y-117.244
G2 X76.034 Y-126.506 I-5.983 J-2.756
G3 X75.77 Y-126.869 I0.05 J-0.314
G1 X75.82 Y-127.183
X75.831 Y-127.252 Z-13.992
X75.841 Y-127.319 Z-13.969
X75.851 Y-127.378 Z-13.931
X75.859 Y-127.428 Z-13.88
X75.865 Y-127.465 Z-13.82
X75.868 Y-127.488 Z-13.753
X75.87 Y-127.496 Z-13.683
G0 Z5
X76.497 Y-127.397
G1 Z-12 F333.3
Z-14.683
X76.495 Y-127.389 Z-14.753 F1000
X76.492 Y-127.366 Z-14.82
X76.486 Y-127.328 Z-14.88
X76.478 Y-127.279 Z-14.931
X76.469 Y-127.219 Z-14.969
X76.458 Y-127.153 Z-14.992
X76.447 Y-127.083 Z-15
X76.397 Y-126.77
G3 X76.034 Y-126.506 I-0.314 J-0.05
G2 X73.633 Y-126.444 I-1.034 J6.506
G1 X-91.367 Y-91.444
G2 X-95.892 Y-87.946 I1.367 J6.444
G1 X-115.892 Y-47.946
G2 X-110 Y-38.412 I5.892 J2.946
G1 X-90
G3 X-86.837 Y-33.72 I0 J3.412
G1 X-100.742 Y0.655
G2 X-90 Y16.587 I10.742 J4.345
G1 X135
G2 X145.38 Y10.15 I0 J-11.587
G1 X163.296 Y-25.961
G2 X165.27 Y-49.025 I-28.296 J-14.039
G1 X146.104 Y-113.311
G2 X135 Y-121.588 I-11.104 J3.31
G1 X95
G2 X88.412 Y-115 I0 J6.588
G1 Y-95
G3 X71.588 Y-95 I-8.412 J0
X72.359 Y-98.519 I8.412 J0
G1 X80.983 Y-117.244
G2 X76.034 Y-126.506 I-5.983 J-2.756
G3 X75.77 Y-126.869 I0.05 J-0.314
G1 X75.82 Y-127.183
X75.831 Y-127.252 Z-14.992
X75.841 Y-127.319 Z-14.969
X75.851 Y-127.378 Z-14.931
X75.859 Y-127.428 Z-14.88
X75.865 Y-127.465 Z-14.82
X75.868 Y-127.488 Z-14.753
X75.87 Y-127.496 Z-14.683
G0 Z5
X76.497 Y-127.397
G1 Z-13 F333.3
Z-15.683
X76.495 Y-127.389 Z-15.753 F1000
X76.492 Y-127.366 Z-15.82
X76.486 Y-127.328 Z-15.88
X76.478 Y-127.279 Z-15.931
X76.469 Y-127.219 Z-15.969
X76.458 Y-127.153 Z-15.992
X76.447 Y-127.083 Z-16
X76.397 Y-126.77
G3 X76.034 Y-126.506 I-0.314 J-0.05
G2 X73.633 Y-126.444 I-1.034 J6.506
G1 X-91.367 Y-91.444
G2 X-95.892 Y-87.946 I1.367 J6.444
G1 X-115.892 Y-47.946
G2 X-110 Y-38.412 I5.892 J2.946
G1 X-90
G3 X-86.837 Y-33.72 I0 J3.412
G1 X-100.742 Y0.655
G2 X-90 Y16.587 I10.742 J4.345
G1 X135
G2 X145.38 Y10.15 I0 J-11.587
G1 X163.296 Y-25.961
G2 X165.27 Y-49.025 I-28.296 J-14.039
G1 X146.104 Y-113.311
G2 X135 Y-121.588 I-11.104 J3.31
G1 X95
G2 X88.412 Y-115 I0 J6.588
G1 Y-95
G3 X71.588 Y-95 I-8.412 J0
X72.359 Y-98.519 I8.412 J0
G1 X80.983 Y-117.244
G2 X76.034 Y-126.506 I-5.983 J-2.756
G3 X75.77 Y-126.869 I0.05 J-0.314
G1 X75.82 Y-127.183
X75.831 Y-127.252 Z-15.992
X75.841 Y-127.319 Z-15.969
X75.851 Y-127.378 Z-15.931
X75.859 Y-127.428 Z-15.88
X75.865 Y-127.465 Z-15.82
X75.868 Y-127.488 Z-15.753
X75.87 Y-127.496 Z-15.683
G0 Z5
X76.497 Y-127.397
G1 Z-14 F333.3
Z-16.683
X76.495 Y-127.389 Z-16.753 F1000
X76.492 Y-127.366 Z-16.82
X76.486 Y-127.328 Z-16.88
X76.478 Y-127.279 Z-16.931
X76.469 Y-127.219 Z-16.969
X76.458 Y-127.153 Z-16.992
X76.447 Y-127.083 Z-17
X76.397 Y-126.77
G3 X76.034 Y-126.506 I-0.314 J-0.05
G2 X73.633 Y-126.444 I-1.034 J6.506
G1 X-91.367 Y-91.444
G2 X-95.892 Y-87.946 I1.367 J6.444
G1 X-115.892 Y-47.946
G2 X-110 Y-38.412 I5.892 J2.946
G1 X-90
G3 X-86.837 Y-33.72 I0 J3.412
G1 X-100.742 Y0.655
G2 X-90 Y16.587 I10.742 J4.345
G1 X135
G2 X145.38 Y10.15 I0 J-11.587
G1 X163.296 Y-25.961
G2 X165.27 Y-49.025 I-28.296 J-14.039
G1 X146.104 Y-113.311
G2 X135 Y-121.588 I-11.104 J3.31
G1 X95
G2 X88.412 Y-115 I0 J6.588
G1 Y-95
G3 X71.588 Y-95 I-8.412 J0
X72.359 Y-98.519 I8.412 J0
G1 X80.983 Y-117.244
G2 X76.034 Y-126.506 I-5.983 J-2.756
G3 X75.77 Y-126.869 I0.05 J-0.314
G1 X75.82 Y-127.183
X75.831 Y-127.252 Z-16.992
X75.841 Y-127.319 Z-16.969
X75.851 Y-127.378 Z-16.931
X75.859 Y-127.428 Z-16.88
X75.865 Y-127.465 Z-16.82
X75.868 Y-127.488 Z-16.753
X75.87 Y-127.496 Z-16.683
G0 Z5
X76.497 Y-127.397
G1 Z-15 F333.3
Z-17.683
X76.495 Y-127.389 Z-17.753 F1000
X76.492 Y-127.366 Z-17.82
X76.486 Y-127.328 Z-17.88
X76.478 Y-127.279 Z-17.931
X76.469 Y-127.219 Z-17.969
X76.458 Y-127.153 Z-17.992
X76.447 Y-127.083 Z-18
X76.397 Y-126.77
G3 X76.034 Y-126.506 I-0.314 J-0.05
G2 X73.633 Y-126.444 I-1.034 J6.506
G1 X-91.367 Y-91.444
G2 X-95.892 Y-87.946 I1.367 J6.444
G1 X-115.892 Y-47.946
G2 X-110 Y-38.412 I5.892 J2.946
G1 X-90
G3 X-86.837 Y-33.72 I0 J3.412
G1 X-100.742 Y0.655
G2 X-90 Y16.587 I10.742 J4.345
G1 X135
G2 X145.38 Y10.15 I0 J-11.587
G1 X163.296 Y-25.961
G2 X165.27 Y-49.025 I-28.296 J-14.039
G1 X146.104 Y-113.311
G2 X135 Y-121.588 I-11.104 J3.31
G1 X95
G2 X88.412 Y-115 I0 J6.588
G1 Y-95
G3 X71.588 Y-95 I-8.412 J0
X72.359 Y-98.519 I8.412 J0
G1 X80.983 Y-117.244
G2 X76.034 Y-126.506 I-5.983 J-2.756
G3 X75.77 Y-126.869 I0.05 J-0.314
G1 X75.82 Y-127.183
X75.831 Y-127.252 Z-17.992
X75.841 Y-127.319 Z-17.969
X75.851 Y-127.378 Z-17.931
X75.859 Y-127.428 Z-17.88
X75.865 Y-127.465 Z-17.82
X75.868 Y-127.488 Z-17.753
X75.87 Y-127.496 Z-17.683
G0 Z5
X76.497 Y-127.397
G1 Z-16 F333.3
Z-18.683
X76.495 Y-127.389 Z-18.753 F1000
X76.492 Y-127.366 Z-18.82
X76.486 Y-127.328 Z-18.88
X76.478 Y-127.279 Z-18.931
X76.469 Y-127.219 Z-18.969
X76.458 Y-127.153 Z-18.992
X76.447 Y-127.083 Z-19
X76.397 Y-126.77
G3 X76.034 Y-126.506 I-0.314 J-0.05
G2 X73.633 Y-126.444 I-1.034 J6.506
G1 X-91.367 Y-91.444
G2 X-95.892 Y-87.946 I1.367 J6.444
G1 X-115.892 Y-47.946
G2 X-110 Y-38.412 I5.892 J2.946
G1 X-90
G3 X-86.837 Y-33.72 I0 J3.412
G1 X-100.742 Y0.655
G2 X-90 Y16.587 I10.742 J4.345
G1 X135
G2 X145.38 Y10.15 I0 J-11.587
G1 X163.296 Y-25.961
G2 X165.27 Y-49.025 I-28.296 J-14.039
G1 X146.104 Y-113.311
G2 X135 Y-121.588 I-11.104 J3.31
G1 X95
G2 X88.412 Y-115 I0 J6.588
G1 Y-95
G3 X71.588 Y-95 I-8.412 J0
X72.359 Y-98.519 I8.412 J0
G1 X80.983 Y-117.244
G2 X76.034 Y-126.506 I-5.983 J-2.756
G3 X75.77 Y-126.869 I0.05 J-0.314
G1 X75.82 Y-127.183
X75.831 Y-127.252 Z-18.992
X75.841 Y-127.319 Z-18.969
X75.851 Y-127.378 Z-18.931
X75.859 Y-127.428 Z-18.88
X75.865 Y-127.465 Z-18.82
X75.868 Y-127.488 Z-18.753
X75.87 Y-127.496 Z-18.683
G0 Z5
X76.497 Y-127.397
G1 Z-17 F333.3
Z-19.683
X76.495 Y-127.389 Z-19.753 F1000
X76.492 Y-127.366 Z-19.82
X76.486 Y-127.328 Z-19.88
X76.478 Y-127.279 Z-19.931
X76.469 Y-127.219 Z-19.969
X76.458 Y-127.153 Z-19.992
X76.447 Y-127.083 Z-20
X76.397 Y-126.77
G3 X76.034 Y-126.506 I-0.314 J-0.05
G2 X73.633 Y-126.444 I-1.034 J6.506
G1 X-91.367 Y-91.444
G2 X-95.892 Y-87.946 I1.367 J6.444
G1 X-115.892 Y-47.946
G2 X-110 Y-38.412 I5.892 J2.946
G1 X-90
G3 X-86.837 Y-33.72 I0 J3.412
G1 X-100.742 Y0.655
G2 X-90 Y16.587 I10.742 J4.345
G1 X135
G2 X145.38 Y10.15 I0 J-11.587
G1 X163.296 Y-25.961
G2 X165.27 Y-49.025 I-28.296 J-14.039
G1 X146.104 Y-113.311
G2 X135 Y-121.588 I-11.104 J3.31
G1 X95
G2 X88.412 Y-115 I0 J6.588
G1 Y-95
G3 X71.588 Y-95 I-8.412 J0
X72.359 Y-98.519 I8.412 J0
G1 X80.983 Y-117.244
G2 X76.034 Y-126.506 I-5.983 J-2.756
G3 X75.77 Y-126.869 I0.05 J-0.314
G1 X75.82 Y-127.183
X75.831 Y-127.252 Z-19.992
X75.841 Y-127.319 Z-19.969
X75.851 Y-127.378 Z-19.931
X75.859 Y-127.428 Z-19.88
X75.865 Y-127.465 Z-19.82
X75.868 Y-127.488 Z-19.753
X75.87 Y-127.496 Z-19.683
G0 Z5
X76.497 Y-127.397
G1 Z-18 F333.3
Z-20.683
X76.495 Y-127.389 Z-20.753 F1000
X76.492 Y-127.366 Z-20.82
X76.486 Y-127.328 Z-20.88
X76.478 Y-127.279 Z-20.931
X76.469 Y-127.219 Z-20.969
X76.458 Y-127.153 Z-20.992
X76.447 Y-127.083 Z-21
X76.397 Y-126.77
G3 X76.034 Y-126.506 I-0.314 J-0.05
G2 X73.633 Y-126.444 I-1.034 J6.506
G1 X-91.367 Y-91.444
G2 X-95.892 Y-87.946 I1.367 J6.444
G1 X-115.892 Y-47.946
G2 X-110 Y-38.412 I5.892 J2.946
G1 X-90
G3 X-86.837 Y-33.72 I0 J3.412
G1 X-100.742 Y0.655
G2 X-90 Y16.587 I10.742 J4.345
G1 X135
G2 X145.38 Y10.15 I0 J-11.587
G1 X163.296 Y-25.961
G2 X165.27 Y-49.025 I-28.296 J-14.039
G1 X146.104 Y-113.311
G2 X135 Y-121.588 I-11.104 J3.31
G1 X95
G2 X88.412 Y-115 I0 J6.588
G1 Y-95
G3 X71.588 Y-95 I-8.412 J0
X72.359 Y-98.519 I8.412 J0
G1 X80.983 Y-117.244
G2 X76.034 Y-126.506 I-5.983 J-2.756
G3 X75.77 Y-126.869 I0.05 J-0.314
G1 X75.82 Y-127.183
X75.831 Y-127.252 Z-20.992
X75.841 Y-127.319 Z-20.969
X75.851 Y-127.378 Z-20.931
X75.859 Y-127.428 Z-20.88
X75.865 Y-127.465 Z-20.82
X75.868 Y-127.488 Z-20.753
X75.87 Y-127.496 Z-20.683
G0 Z15
G28 G91 Z0
G90
G28 G91 X0 Y0
G90
M5
M30
