(seite)
(Bearbeiten)
(  Hersteller: ChinaCnc)
(  model: 3040T)
(  description: Generic 3-axis)
(T14 D=1.5 CR=0 - ZMIN=-4.3 - Schaftfrser)
G90 G94
G17
G21
(-Attention- Property Safe Retracts is set to Clearance Height.)
(Ensure the clearance height will clear the part and or fixtures.)
(Raise the Z-axis to a safe height before starting the program.)
(When using Fusion 360 for Personal Use, the feedrate of)
(rapid moves is reduced to match the feedrate of cutting)
(moves, which can increase machining time. Unrestricted rapid)
(moves are available with a Fusion 360 Subscription.)

(2D-Kontur4)
M0
(MANUAL TOOL CHANGE TO T14)
S6000 M3
G17 G90 G94
G54
G0 X-272.672 Y-2.867
Z15
G1 Z5 F600
Z0.3 F300
Z-1.85
X-272.67 Y-2.874 Z-1.896 F400
X-272.665 Y-2.895 Z-1.938
X-272.658 Y-2.927 Z-1.971
X-272.648 Y-2.968 Z-1.993
X-272.637 Y-3.013 Z-2
X-272.603 Y-3.159
X-272.585 Y-3.202
X-272.555 Y-3.238
X-272.515 Y-3.263
X-272.469 Y-3.274
X-272.423 Y-3.27
X-272.337 Y-3.255 F600
X-272.25 Y-3.25
X-232.25
G2 X-231.5 Y-4 I0 J-0.75
G1 Y-7.25
X-193
Y-4
G2 X-192.25 Y-3.25 I0.75 J0
G1 X-152.25
G2 X-151.5 Y-4 I0 J-0.75
G1 Y-7.25
X-113
Y-4
G2 X-112.25 Y-3.25 I0.75 J0
G1 X-72.25
G2 X-71.5 Y-4 I0 J-0.75
G1 Y-7.25
X-42.5
G2 X-41.75 Y-8 I0 J-0.75
G1 Y-17.25
X-2.5
G2 X-1.75 Y-18 I0 J-0.75
G1 Y-28
G2 X-2.5 Y-28.75 I-0.75 J0
G1 X-292.5
G2 X-293.25 Y-28 I0 J0.75
G1 Y-8
G2 X-292.5 Y-7.25 I0.75 J0
G1 X-273
Y-4
G2 X-272.423 Y-3.27 I0.75 J0
G1 X-272.379 Y-3.252
X-272.343 Y-3.222
X-272.319 Y-3.182
X-272.308 Y-3.136
X-272.311 Y-3.09
X-272.346 Y-2.944
X-272.356 Y-2.899 Z-1.993
X-272.366 Y-2.858 Z-1.971
X-272.373 Y-2.826 Z-1.938
X-272.378 Y-2.805 Z-1.896
X-272.38 Y-2.798 Z-1.85
Z5
X-272.672 Y-2.867
Z-1.7 F300
Z-3
X-272.67 Y-2.874 Z-3.046 F400
X-272.665 Y-2.895 Z-3.088
X-272.658 Y-2.927 Z-3.121
X-272.648 Y-2.968 Z-3.143
X-272.637 Y-3.013 Z-3.15
X-272.603 Y-3.159
X-272.585 Y-3.202
X-272.555 Y-3.238
X-272.515 Y-3.263
X-272.469 Y-3.274
X-272.423 Y-3.27
X-272.337 Y-3.255 F600
X-272.25 Y-3.25
X-232.25
G2 X-231.5 Y-4 I0 J-0.75
G1 Y-7.25
X-193
Y-4
G2 X-192.25 Y-3.25 I0.75 J0
G1 X-152.25
G2 X-151.5 Y-4 I0 J-0.75
G1 Y-7.25
X-113
Y-4
G2 X-112.25 Y-3.25 I0.75 J0
G1 X-72.25
G2 X-71.5 Y-4 I0 J-0.75
G1 Y-7.25
X-42.5
G2 X-41.75 Y-8 I0 J-0.75
G1 Y-17.25
X-2.5
G2 X-1.75 Y-18 I0 J-0.75
G1 Y-28
G2 X-2.5 Y-28.75 I-0.75 J0
G1 X-292.5
G2 X-293.25 Y-28 I0 J0.75
G1 Y-8
G2 X-292.5 Y-7.25 I0.75 J0
G1 X-273
Y-4
G2 X-272.423 Y-3.27 I0.75 J0
G1 X-272.379 Y-3.252
X-272.343 Y-3.222
X-272.319 Y-3.182
X-272.308 Y-3.136
X-272.311 Y-3.09
X-272.346 Y-2.944
X-272.356 Y-2.899 Z-3.143
X-272.366 Y-2.858 Z-3.121
X-272.373 Y-2.826 Z-3.088
X-272.378 Y-2.805 Z-3.046
X-272.38 Y-2.798 Z-3
Z5
X-272.672 Y-2.867
Z-2.85 F300
Z-4.15
X-272.67 Y-2.874 Z-4.196 F400
X-272.665 Y-2.895 Z-4.238
X-272.658 Y-2.927 Z-4.271
X-272.648 Y-2.968 Z-4.293
X-272.637 Y-3.013 Z-4.3
X-272.603 Y-3.159
X-272.585 Y-3.202
X-272.555 Y-3.238
X-272.515 Y-3.263
X-272.469 Y-3.274
X-272.423 Y-3.27
X-272.337 Y-3.255 F600
X-272.25 Y-3.25
X-232.25
G2 X-231.5 Y-4 I0 J-0.75
G1 Y-7.25
X-193
Y-4
G2 X-192.25 Y-3.25 I0.75 J0
G1 X-152.25
G2 X-151.5 Y-4 I0 J-0.75
G1 Y-7.25
X-113
Y-4
G2 X-112.25 Y-3.25 I0.75 J0
G1 X-72.25
G2 X-71.5 Y-4 I0 J-0.75
G1 Y-7.25
X-42.5
G2 X-41.75 Y-8 I0 J-0.75
G1 Y-17.25
X-2.5
G2 X-1.75 Y-18 I0 J-0.75
G1 Y-28
G2 X-2.5 Y-28.75 I-0.75 J0
G1 X-292.5
G2 X-293.25 Y-28 I0 J0.75
G1 Y-8
G2 X-292.5 Y-7.25 I0.75 J0
G1 X-273
Y-4
G2 X-272.423 Y-3.27 I0.75 J0
G1 X-272.379 Y-3.252
X-272.343 Y-3.222
X-272.319 Y-3.182
X-272.308 Y-3.136
X-272.311 Y-3.09
X-272.346 Y-2.944
X-272.356 Y-2.899 Z-4.293
X-272.366 Y-2.858 Z-4.271
X-272.373 Y-2.826 Z-4.238
X-272.378 Y-2.805 Z-4.196
X-272.38 Y-2.798 Z-4.15
Z15
(When using Fusion 360 for Personal Use, the feedrate of)
(rapid moves is reduced to match the feedrate of cutting)
(moves, which can increase machining time. Unrestricted rapid)
(moves are available with a Fusion 360 Subscription.)

(2D-Kontur4)
G0 X-272.672 Y-32.867
G1 Z15 F600
Z5
Z0.3 F300
Z-1.85
X-272.67 Y-32.874 Z-1.896 F400
X-272.665 Y-32.895 Z-1.938
X-272.658 Y-32.927 Z-1.971
X-272.648 Y-32.968 Z-1.993
X-272.637 Y-33.013 Z-2
X-272.603 Y-33.159
X-272.585 Y-33.202
X-272.555 Y-33.238
X-272.515 Y-33.263
X-272.469 Y-33.274
X-272.423 Y-33.27
X-272.337 Y-33.255 F600
X-272.25 Y-33.25
X-232.25
G2 X-231.5 Y-34 I0 J-0.75
G1 Y-37.25
X-193
Y-34
G2 X-192.25 Y-33.25 I0.75 J0
G1 X-152.25
G2 X-151.5 Y-34 I0 J-0.75
G1 Y-37.25
X-113
Y-34
G2 X-112.25 Y-33.25 I0.75 J0
G1 X-72.25
G2 X-71.5 Y-34 I0 J-0.75
G1 Y-37.25
X-42.5
G2 X-41.75 Y-38 I0 J-0.75
G1 Y-47.25
X-2.5
G2 X-1.75 Y-48 I0 J-0.75
G1 Y-58
G2 X-2.5 Y-58.75 I-0.75 J0
G1 X-292.5
G2 X-293.25 Y-58 I0 J0.75
G1 Y-38
G2 X-292.5 Y-37.25 I0.75 J0
G1 X-273
Y-34
G2 X-272.423 Y-33.27 I0.75 J0
G1 X-272.379 Y-33.252
X-272.343 Y-33.222
X-272.319 Y-33.182
X-272.308 Y-33.136
X-272.311 Y-33.09
X-272.346 Y-32.944
X-272.356 Y-32.899 Z-1.993
X-272.366 Y-32.858 Z-1.971
X-272.373 Y-32.826 Z-1.938
X-272.378 Y-32.805 Z-1.896
X-272.38 Y-32.798 Z-1.85
Z5
X-272.672 Y-32.867
Z-1.7 F300
Z-3
X-272.67 Y-32.874 Z-3.046 F400
X-272.665 Y-32.895 Z-3.088
X-272.658 Y-32.927 Z-3.121
X-272.648 Y-32.968 Z-3.143
X-272.637 Y-33.013 Z-3.15
X-272.603 Y-33.159
X-272.585 Y-33.202
X-272.555 Y-33.238
X-272.515 Y-33.263
X-272.469 Y-33.274
X-272.423 Y-33.27
X-272.337 Y-33.255 F600
X-272.25 Y-33.25
X-232.25
G2 X-231.5 Y-34 I0 J-0.75
G1 Y-37.25
X-193
Y-34
G2 X-192.25 Y-33.25 I0.75 J0
G1 X-152.25
G2 X-151.5 Y-34 I0 J-0.75
G1 Y-37.25
X-113
Y-34
G2 X-112.25 Y-33.25 I0.75 J0
G1 X-72.25
G2 X-71.5 Y-34 I0 J-0.75
G1 Y-37.25
X-42.5
G2 X-41.75 Y-38 I0 J-0.75
G1 Y-47.25
X-2.5
G2 X-1.75 Y-48 I0 J-0.75
G1 Y-58
G2 X-2.5 Y-58.75 I-0.75 J0
G1 X-292.5
G2 X-293.25 Y-58 I0 J0.75
G1 Y-38
G2 X-292.5 Y-37.25 I0.75 J0
G1 X-273
Y-34
G2 X-272.423 Y-33.27 I0.75 J0
G1 X-272.379 Y-33.252
X-272.343 Y-33.222
X-272.319 Y-33.182
X-272.308 Y-33.136
X-272.311 Y-33.09
X-272.346 Y-32.944
X-272.356 Y-32.899 Z-3.143
X-272.366 Y-32.858 Z-3.121
X-272.373 Y-32.826 Z-3.088
X-272.378 Y-32.805 Z-3.046
X-272.38 Y-32.798 Z-3
Z5
X-272.672 Y-32.867
Z-2.85 F300
Z-4.15
X-272.67 Y-32.874 Z-4.196 F400
X-272.665 Y-32.895 Z-4.238
X-272.658 Y-32.927 Z-4.271
X-272.648 Y-32.968 Z-4.293
X-272.637 Y-33.013 Z-4.3
X-272.603 Y-33.159
X-272.585 Y-33.202
X-272.555 Y-33.238
X-272.515 Y-33.263
X-272.469 Y-33.274
X-272.423 Y-33.27
X-272.337 Y-33.255 F600
X-272.25 Y-33.25
X-232.25
G2 X-231.5 Y-34 I0 J-0.75
G1 Y-37.25
X-193
Y-34
G2 X-192.25 Y-33.25 I0.75 J0
G1 X-152.25
G2 X-151.5 Y-34 I0 J-0.75
G1 Y-37.25
X-113
Y-34
G2 X-112.25 Y-33.25 I0.75 J0
G1 X-72.25
G2 X-71.5 Y-34 I0 J-0.75
G1 Y-37.25
X-42.5
G2 X-41.75 Y-38 I0 J-0.75
G1 Y-47.25
X-2.5
G2 X-1.75 Y-48 I0 J-0.75
G1 Y-58
G2 X-2.5 Y-58.75 I-0.75 J0
G1 X-292.5
G2 X-293.25 Y-58 I0 J0.75
G1 Y-38
G2 X-292.5 Y-37.25 I0.75 J0
G1 X-273
Y-34
G2 X-272.423 Y-33.27 I0.75 J0
G1 X-272.379 Y-33.252
X-272.343 Y-33.222
X-272.319 Y-33.182
X-272.308 Y-33.136
X-272.311 Y-33.09
X-272.346 Y-32.944
X-272.356 Y-32.899 Z-4.293
X-272.366 Y-32.858 Z-4.271
X-272.373 Y-32.826 Z-4.238
X-272.378 Y-32.805 Z-4.196
X-272.38 Y-32.798 Z-4.15
Z15
M5
M30
