(Shopingcart_key)
(Bearbeiten)
(  Hersteller: ChinaCnc)
(  model: 3040T)
(  description: Generic 3-axis)
(T14  D=1.95 CR=0 - ZMIN=-2.3 - Schaftfraser)
G90 G94
G17
G21
(When using Fusion 360 for Personal Use, the feedrate of)
(rapid moves is reduced to match the feedrate of cutting)
(moves, which can increase machining time. Unrestricted rapid)
(moves are available with a Fusion 360 Subscription.)

(2D-Kontur1)
T14
S3000 M3
G54
G0 X-29.815 Y-17.197
Z15
G1 Z5 F1200
Z1.7 F400
Z-0.505
X-29.814 Y-17.203 Z-0.555 F1016
X-29.81 Y-17.222 Z-0.603
X-29.805 Y-17.253 Z-0.643
X-29.799 Y-17.293 Z-0.674
X-29.791 Y-17.339 Z-0.693
X-29.783 Y-17.389 Z-0.7
X-29.751 Y-17.581
G3 X-29.527 Y-17.742 I0.192 J0.032
G1 X-12.787 Y-14.985 F1200
G2 X-12.787 Y-12.015 I5.787 J1.485
G1 X-35.686 Y-8.244
G2 X-35.686 Y-18.756 I-11.314 J-5.256
G1 X-29.527 Y-17.742
G3 X-29.366 Y-17.518 I-0.032 J0.192 F1016
G1 X-29.398 Y-17.326
X-29.406 Y-17.276 Z-0.693
X-29.414 Y-17.229 Z-0.674
X-29.421 Y-17.189 Z-0.643
X-29.426 Y-17.159 Z-0.603
X-29.429 Y-17.14 Z-0.555
X-29.43 Y-17.133 Z-0.505
Z5 F1200
X-29.815 Y-17.197
Z1 F400
Z-1.205
X-29.814 Y-17.203 Z-1.255 F1016
X-29.81 Y-17.222 Z-1.303
X-29.805 Y-17.253 Z-1.343
X-29.799 Y-17.293 Z-1.374
X-29.791 Y-17.339 Z-1.393
X-29.783 Y-17.389 Z-1.4
X-29.751 Y-17.581
G3 X-29.527 Y-17.742 I0.192 J0.032
G1 X-12.787 Y-14.985 F1200
G2 X-12.787 Y-12.015 I5.787 J1.485
G1 X-35.686 Y-8.244
G2 X-35.686 Y-18.756 I-11.314 J-5.256
G1 X-29.527 Y-17.742
G3 X-29.366 Y-17.518 I-0.032 J0.192 F1016
G1 X-29.398 Y-17.326
X-29.406 Y-17.276 Z-1.393
X-29.414 Y-17.229 Z-1.374
X-29.421 Y-17.189 Z-1.343
X-29.426 Y-17.159 Z-1.303
X-29.429 Y-17.14 Z-1.255
X-29.43 Y-17.133 Z-1.205
Z5 F1200
X-29.815 Y-17.197
Z0.3 F400
Z-1.905
X-29.814 Y-17.203 Z-1.955 F1016
X-29.81 Y-17.222 Z-2.003
X-29.805 Y-17.253 Z-2.043
X-29.799 Y-17.293 Z-2.074
X-29.791 Y-17.339 Z-2.093
X-29.783 Y-17.389 Z-2.1
X-29.751 Y-17.581
G3 X-29.527 Y-17.742 I0.192 J0.032
G1 X-12.787 Y-14.985 F1200
G2 X-12.787 Y-12.015 I5.787 J1.485
G1 X-35.686 Y-8.244
G2 X-35.686 Y-18.756 I-11.314 J-5.256
G1 X-29.527 Y-17.742
G3 X-29.366 Y-17.518 I-0.032 J0.192 F1016
G1 X-29.398 Y-17.326
X-29.406 Y-17.276 Z-2.093
X-29.414 Y-17.229 Z-2.074
X-29.421 Y-17.189 Z-2.043
X-29.426 Y-17.159 Z-2.003
X-29.429 Y-17.14 Z-1.955
X-29.43 Y-17.133 Z-1.905
Z5 F1200
X-29.815 Y-17.197
Z-0.4 F400
Z-2.105
X-29.814 Y-17.203 Z-2.155 F1016
X-29.81 Y-17.222 Z-2.203
X-29.805 Y-17.253 Z-2.243
X-29.799 Y-17.293 Z-2.274
X-29.791 Y-17.339 Z-2.293
X-29.783 Y-17.389 Z-2.3
X-29.751 Y-17.581
G3 X-29.527 Y-17.742 I0.192 J0.032
G1 X-12.787 Y-14.985 F1200
G2 X-12.787 Y-12.015 I5.787 J1.485
G1 X-35.686 Y-8.244
G2 X-35.686 Y-18.756 I-11.314 J-5.256
G1 X-29.527 Y-17.742
G3 X-29.366 Y-17.518 I-0.032 J0.192 F1016
G1 X-29.398 Y-17.326
X-29.406 Y-17.276 Z-2.293
X-29.414 Y-17.229 Z-2.274
X-29.421 Y-17.189 Z-2.243
X-29.426 Y-17.159 Z-2.203
X-29.429 Y-17.14 Z-2.155
X-29.43 Y-17.133 Z-2.105
Z5 F1200
X-40.56 Y-13.695
Z1.7 F400
Z-0.505
G18 G2 X-40.365 Z-0.7 I0.195 K0 F1016
G1 X-40.17
G17 G3 X-39.975 Y-13.5 I0 J0.195
X-54.025 Y-13.5 I-7.025 J0 F1200
X-39.975 Y-13.5 I7.025 J0
X-40.17 Y-13.305 I-0.195 J0 F1016
G1 X-40.365
G18 G3 X-40.56 Z-0.505 I0 K0.195
G1 Z5 F1200
Y-13.695
Z1 F400
Z-1.205
G2 X-40.365 Z-1.4 I0.195 K0 F1016
G1 X-40.17
G17 G3 X-39.975 Y-13.5 I0 J0.195
X-54.025 Y-13.5 I-7.025 J0 F1200
X-39.975 Y-13.5 I7.025 J0
X-40.17 Y-13.305 I-0.195 J0 F1016
G1 X-40.365
G18 G3 X-40.56 Z-1.205 I0 K0.195
G1 Z5 F1200
Y-13.695
Z0.3 F400
Z-1.905
G2 X-40.365 Z-2.1 I0.195 K0 F1016
G1 X-40.17
G17 G3 X-39.975 Y-13.5 I0 J0.195
X-54.025 Y-13.5 I-7.025 J0 F1200
X-39.975 Y-13.5 I7.025 J0
X-40.17 Y-13.305 I-0.195 J0 F1016
G1 X-40.365
G18 G3 X-40.56 Z-1.905 I0 K0.195
G1 Z5 F1200
Y-13.695
Z-0.4 F400
Z-2.105
G2 X-40.365 Z-2.3 I0.195 K0 F1016
G1 X-40.17
G17 G3 X-39.975 Y-13.5 I0 J0.195
X-54.025 Y-13.5 I-7.025 J0 F1200
X-39.975 Y-13.5 I7.025 J0
X-40.17 Y-13.305 I-0.195 J0 F1016
G1 X-40.365
G18 G3 X-40.56 Z-2.105 I0 K0.195
G1 Z5 F1200
X-5.745 Y-13.508
Z1.7 F400
Z-0.505
X-5.738 Y-13.507 Z-0.555 F1016
X-5.719 Y-13.504 Z-0.603
X-5.688 Y-13.499 Z-0.643
X-5.648 Y-13.493 Z-0.674
X-5.602 Y-13.486 Z-0.693
X-5.552 Y-13.479 Z-0.7
X-5.359 Y-13.45
G17 G3 X-5.195 Y-13.228 I-0.029 J0.193
X-8.805 Y-13.772 I-1.805 J-0.272 F1200
X-5.195 Y-13.228 I1.805 J0.272
X-5.417 Y-13.064 I-0.193 J-0.029 F1016
G1 X-5.61 Y-13.093
X-5.66 Y-13.101 Z-0.693
X-5.707 Y-13.108 Z-0.674
X-5.746 Y-13.114 Z-0.643
X-5.777 Y-13.118 Z-0.603
X-5.796 Y-13.121 Z-0.555
X-5.803 Y-13.122 Z-0.505
Z5 F1200
X-5.745 Y-13.508
Z1 F400
Z-1.205
X-5.738 Y-13.507 Z-1.255 F1016
X-5.719 Y-13.504 Z-1.303
X-5.688 Y-13.499 Z-1.343
X-5.648 Y-13.493 Z-1.374
X-5.602 Y-13.486 Z-1.393
X-5.552 Y-13.479 Z-1.4
X-5.359 Y-13.45
G3 X-5.195 Y-13.228 I-0.029 J0.193
X-8.805 Y-13.772 I-1.805 J-0.272 F1200
X-5.195 Y-13.228 I1.805 J0.272
X-5.417 Y-13.064 I-0.193 J-0.029 F1016
G1 X-5.61 Y-13.093
X-5.66 Y-13.101 Z-1.393
X-5.707 Y-13.108 Z-1.374
X-5.746 Y-13.114 Z-1.343
X-5.777 Y-13.118 Z-1.303
X-5.796 Y-13.121 Z-1.255
X-5.803 Y-13.122 Z-1.205
Z5 F1200
X-5.745 Y-13.508
Z0.3 F400
Z-1.905
X-5.738 Y-13.507 Z-1.955 F1016
X-5.719 Y-13.504 Z-2.003
X-5.688 Y-13.499 Z-2.043
X-5.648 Y-13.493 Z-2.074
X-5.602 Y-13.486 Z-2.093
X-5.552 Y-13.479 Z-2.1
X-5.359 Y-13.45
G3 X-5.195 Y-13.228 I-0.029 J0.193
X-8.805 Y-13.772 I-1.805 J-0.272 F1200
X-5.195 Y-13.228 I1.805 J0.272
X-5.417 Y-13.064 I-0.193 J-0.029 F1016
G1 X-5.61 Y-13.093
X-5.66 Y-13.101 Z-2.093
X-5.707 Y-13.108 Z-2.074
X-5.746 Y-13.114 Z-2.043
X-5.777 Y-13.118 Z-2.003
X-5.796 Y-13.121 Z-1.955
X-5.803 Y-13.122 Z-1.905
Z5 F1200
X-5.745 Y-13.508
Z-0.4 F400
Z-2.105
X-5.738 Y-13.507 Z-2.155 F1016
X-5.719 Y-13.504 Z-2.203
X-5.688 Y-13.499 Z-2.243
X-5.648 Y-13.493 Z-2.274
X-5.602 Y-13.486 Z-2.293
X-5.552 Y-13.479 Z-2.3
X-5.359 Y-13.45
G3 X-5.195 Y-13.228 I-0.029 J0.193
X-8.805 Y-13.772 I-1.805 J-0.272 F1200
X-5.195 Y-13.228 I1.805 J0.272
X-5.417 Y-13.064 I-0.193 J-0.029 F1016
G1 X-5.61 Y-13.093
X-5.66 Y-13.101 Z-2.293
X-5.707 Y-13.108 Z-2.274
X-5.746 Y-13.114 Z-2.243
X-5.777 Y-13.118 Z-2.203
X-5.796 Y-13.121 Z-2.155
X-5.803 Y-13.122 Z-2.105
Z15 F1200
(When using Fusion 360 for Personal Use, the feedrate of)
(rapid moves is reduced to match the feedrate of cutting)
(moves, which can increase machining time. Unrestricted rapid)
(moves are available with a Fusion 360 Subscription.)

(2D-Kontur3)
G0 X-27.956 Y-23.6
G1 Z15 F1200
Z5
Z1.7 F400
Z1.195
X-27.957 Y-23.593 Z1.145 F1016
X-27.961 Y-23.574 Z1.098
X-27.966 Y-23.543 Z1.057
X-27.972 Y-23.503 Z1.026
X-27.98 Y-23.457 Z1.007
X-27.988 Y-23.407 Z1
X-28.02 Y-23.215
G3 X-28.244 Y-23.054 I-0.192 J-0.032
G1 X-44.973 Y-25.809 Z0.915
G2 X-49.027 Y-1.191 Z0.717 I-2.027 J12.309
X-44.973 Y-1.191 Z0.697 I2.027 J-12.309
G1 X-6.029 Y-7.604 Z0.498
G2 X-6.029 Y-19.396 Z0.413 I-0.971 J-5.896
G1 X-44.973 Y-25.809 Z0.215
G2 X-49.027 Y-1.191 Z0.017 I-2.027 J12.309
X-44.973 Y-1.191 Z-0.003 I2.027 J-12.309
G1 X-6.029 Y-7.604 Z-0.202
G2 X-6.029 Y-19.396 Z-0.287 I-0.971 J-5.896
G1 X-44.973 Y-25.809 Z-0.485
G2 X-59.471 Y-13.819 Z-0.593 I-2.027 J12.309
X-45.604 Y-1.103 Z-0.7 I12.471 J0.319
X-44.973 Y-1.191 I-1.396 J-12.397 F1200
G1 X-6.029 Y-7.604
G2 X-6.029 Y-19.396 I-0.971 J-5.896
G1 X-44.973 Y-25.809
G2 X-59.471 Y-13.819 I-2.027 J12.309
X-45.604 Y-1.103 I12.471 J0.319
X-44.973 Y-1.191 Z-0.703 I-1.396 J-12.397 F1016
G1 X-6.029 Y-7.604 Z-0.902
G2 X-6.029 Y-19.396 Z-0.987 I-0.971 J-5.896
G1 X-44.973 Y-25.809 Z-1.185
G2 X-59.471 Y-13.819 Z-1.293 I-2.027 J12.309
X-45.604 Y-1.103 Z-1.4 I12.471 J0.319
X-44.973 Y-1.191 I-1.396 J-12.397 F1200
G1 X-6.029 Y-7.604
G2 X-6.029 Y-19.396 I-0.971 J-5.896
G1 X-44.973 Y-25.809
G2 X-59.471 Y-13.819 I-2.027 J12.309
X-45.604 Y-1.103 I12.471 J0.319
X-44.973 Y-1.191 Z-1.403 I-1.396 J-12.397 F1016
G1 X-6.029 Y-7.604 Z-1.602
G2 X-6.029 Y-19.396 Z-1.687 I-0.971 J-5.896
G1 X-8.648 Y-19.827 Z-1.7
X-8.965 Y-19.879
Z-1.702 F400
X-44.973 Y-25.809 Z-1.885 F1016
G2 X-59.385 Y-14.998 Z-1.987 I-2.027 J12.309
X-47.967 Y-1.063 Z-2.088 I12.385 J1.498
G1 Z-1.7
G2 X-45.604 Y-1.103 I0.967 J-12.437
X-44.973 Y-1.191 I-1.396 J-12.397 F1200
G1 X-42.037 Y-1.674
Z-2.1 F400
X-6.029 Y-7.604 F1200
G2 X-3.223 Y-18.129 I-0.971 J-5.896
G1 Z-1.7
G2 X-6.029 Y-19.396 I-3.777 J4.629
G1 X-8.965 Y-19.879
Z-2.1 F400
X-44.973 Y-25.809 F1200
G2 X-59.385 Y-14.998 I-2.027 J12.309
X-47.967 Y-1.063 I12.385 J1.498
G1 Z-1.7
G2 X-45.604 Y-1.103 I0.967 J-12.437
X-44.973 Y-1.191 I-1.396 J-12.397 F1016
G1 X-42.037 Y-1.674
Z-2.118 F400
X-6.41 Y-7.542 Z-2.3 F1016
X-6.029 Y-7.604 F1200
G2 X-3.223 Y-18.129 I-0.971 J-5.896
G1 Z-1.7
G2 X-6.029 Y-19.396 I-3.777 J4.629
G1 X-8.965 Y-19.879
Z-2.3 F400
X-44.973 Y-25.809 F1200
G2 X-59.385 Y-14.998 I-2.027 J12.309
X-47.967 Y-1.063 I12.385 J1.498
G1 Z-1.7
G2 X-44.973 Y-1.191 I0.967 J-12.437
G1 X-42.037 Y-1.674
Z-2.3 F400
X-6.41 Y-7.542 F1200
G3 X-6.186 Y-7.381 I0.032 J0.192 F1016
G1 X-6.154 Y-7.189
X-6.146 Y-7.139 Z-2.293
X-6.138 Y-7.092 Z-2.274
X-6.131 Y-7.053 Z-2.243
X-6.126 Y-7.022 Z-2.203
X-6.123 Y-7.003 Z-2.155
X-6.122 Y-6.996 Z-2.105
Z15 F1200
M5
M30
