(Source1_6inch)
(Bearbeiten)
(  Hersteller: ChinaCnc)
(  model: 3040T)
(  description: Generic 3-axis)
(T5  D=3.175 CR=0 - ZMIN=-4.3 - Schaftfraser)
G90 G94
G17
G21
(When using Fusion 360 for Personal Use, the feedrate of)
(rapid moves is reduced to match the feedrate of cutting)
(moves, which can increase machining time. Unrestricted rapid)
(moves are available with a Fusion 360 Subscription.)

(2D-Kontur1)
T5
S3000 M3
G54
G0 X-24.405 Y-23.966
Z15
G1 Z2 F1000
S5000
X-25.377 Y-24.938 Z1.952 F333.3
G3 X-25.077 Y-25.238 Z1.929 I0.15 J-0.15
G1 X-24.016 Y-24.178 Z1.876
G3 X-24.316 Y-23.877 Z1.853 I-0.15 J0.15
G1 X-25.377 Y-24.938 Z1.801
G3 X-25.077 Y-25.238 Z1.777 I0.15 J-0.15
G1 X-24.016 Y-24.178 Z1.725
G3 X-24.316 Y-23.877 Z1.702 I-0.15 J0.15
G1 X-25.377 Y-24.938 Z1.649
G3 X-25.077 Y-25.238 Z1.626 I0.15 J-0.15
G1 X-24.016 Y-24.178 Z1.574
G3 X-24.316 Y-23.877 Z1.55 I-0.15 J0.15
G1 X-25.377 Y-24.938 Z1.498
G3 X-25.077 Y-25.238 Z1.475 I0.15 J-0.15
G1 X-24.016 Y-24.178 Z1.422
G3 X-24.316 Y-23.877 Z1.399 I-0.15 J0.15
G1 X-25.377 Y-24.938 Z1.346
G3 X-25.077 Y-25.238 Z1.323 I0.15 J-0.15
G1 X-24.016 Y-24.178 Z1.271
G3 X-24.316 Y-23.877 Z1.247 I-0.15 J0.15
G1 X-25.377 Y-24.938 Z1.195
G3 X-25.077 Y-25.238 Z1.172 I0.15 J-0.15
G1 X-24.016 Y-24.178 Z1.119
G3 X-24.316 Y-23.877 Z1.096 I-0.15 J0.15
G1 X-25.377 Y-24.938 Z1.044
G3 X-25.077 Y-25.238 Z1.02 I0.15 J-0.15
G1 X-24.016 Y-24.178 Z0.968
G3 X-24.316 Y-23.877 Z0.945 I-0.15 J0.15
G1 X-25.377 Y-24.938 Z0.892
G3 X-25.077 Y-25.238 Z0.869 I0.15 J-0.15
G1 X-24.016 Y-24.178 Z0.817
G3 X-24.316 Y-23.877 Z0.793 I-0.15 J0.15
G1 X-25.377 Y-24.938 Z0.741
G3 X-25.077 Y-25.238 Z0.718 I0.15 J-0.15
G1 X-24.016 Y-24.178 Z0.665
G3 X-24.316 Y-23.877 Z0.642 I-0.15 J0.15
G1 X-25.377 Y-24.938 Z0.59
G3 X-25.077 Y-25.238 Z0.566 I0.15 J-0.15
G1 X-24.016 Y-24.178 Z0.514
G3 X-24.316 Y-23.877 Z0.491 I-0.15 J0.15
G1 X-25.377 Y-24.938 Z0.438
G3 X-25.077 Y-25.238 Z0.415 I0.15 J-0.15
G1 X-24.016 Y-24.178 Z0.362
G3 X-24.316 Y-23.877 Z0.339 I-0.15 J0.15
G1 X-25.377 Y-24.938 Z0.287
G3 X-25.077 Y-25.238 Z0.263 I0.15 J-0.15
G1 X-24.016 Y-24.178 Z0.211
G3 X-24.316 Y-23.877 Z0.188 I-0.15 J0.15
G1 X-25.377 Y-24.938 Z0.135
G3 X-25.077 Y-25.238 Z0.112 I0.15 J-0.15
G1 X-24.016 Y-24.178 Z0.06
G3 X-24.316 Y-23.877 Z0.036 I-0.15 J0.15
G1 X-25.377 Y-24.938 Z-0.016
G3 X-25.077 Y-25.238 Z-0.039 I0.15 J-0.15
G1 X-24.016 Y-24.178 Z-0.092
G3 X-24.316 Y-23.877 Z-0.115 I-0.15 J0.15
G1 X-25.377 Y-24.938 Z-0.167
G3 X-25.077 Y-25.238 Z-0.191 I0.15 J-0.15
G1 X-24.016 Y-24.178 Z-0.243
G3 X-24.316 Y-23.877 Z-0.266 I-0.15 J0.15
G1 X-25.377 Y-24.938 Z-0.319
G3 X-25.077 Y-25.238 Z-0.342 I0.15 J-0.15
G1 X-24.016 Y-24.178 Z-0.394
G3 X-24.316 Y-23.877 Z-0.418 I-0.15 J0.15
G1 X-25.377 Y-24.938 Z-0.47
G3 X-25.077 Y-25.238 Z-0.493 I0.15 J-0.15
G1 X-24.016 Y-24.178 Z-0.546
G3 X-24.316 Y-23.877 Z-0.569 I-0.15 J0.15
G1 X-25.377 Y-24.938 Z-0.622
G3 X-25.077 Y-25.238 Z-0.645 I0.15 J-0.15
G1 X-24.016 Y-24.178 Z-0.697
G3 X-24.316 Y-23.877 Z-0.721 I-0.15 J0.15
G1 X-25.377 Y-24.938 Z-0.773
G3 X-25.077 Y-25.238 Z-0.796 I0.15 J-0.15
G1 X-24.016 Y-24.178 Z-0.849
G3 X-24.316 Y-23.877 Z-0.872 I-0.15 J0.15
G1 X-25.377 Y-24.938 Z-0.924
G3 X-25.077 Y-25.238 Z-0.948 I0.15 J-0.15
G1 X-24.016 Y-24.178 Z-1
S3000
G3 X-24.316 Y-23.877 I-0.15 J0.15 F1000
G1 X-25.377 Y-24.938
G3 X-25.077 Y-25.238 I0.15 J-0.15
G1 X-24.016 Y-24.178
S5000
G3 X-24.316 Y-23.877 Z-1.023 I-0.15 J0.15 F333.3
G1 X-25.377 Y-24.938 Z-1.076
G3 X-25.077 Y-25.238 Z-1.099 I0.15 J-0.15
G1 X-24.016 Y-24.178 Z-1.151
G3 X-24.316 Y-23.877 Z-1.175 I-0.15 J0.15
G1 X-25.377 Y-24.938 Z-1.227
G3 X-25.077 Y-25.238 Z-1.25 I0.15 J-0.15
G1 X-24.016 Y-24.178 Z-1.303
G3 X-24.316 Y-23.877 Z-1.326 I-0.15 J0.15
G1 X-25.377 Y-24.938 Z-1.378
G3 X-25.077 Y-25.238 Z-1.402 I0.15 J-0.15
G1 X-24.016 Y-24.178 Z-1.454
G3 X-24.316 Y-23.877 Z-1.477 I-0.15 J0.15
G1 X-25.377 Y-24.938 Z-1.53
G3 X-25.077 Y-25.238 Z-1.553 I0.15 J-0.15
G1 X-24.016 Y-24.178 Z-1.606
G3 X-24.316 Y-23.877 Z-1.629 I-0.15 J0.15
G1 X-25.377 Y-24.938 Z-1.681
G3 X-25.077 Y-25.238 Z-1.705 I0.15 J-0.15
G1 X-24.016 Y-24.178 Z-1.757
G3 X-24.316 Y-23.877 Z-1.78 I-0.15 J0.15
G1 X-25.377 Y-24.938 Z-1.833
G3 X-25.077 Y-25.238 Z-1.856 I0.15 J-0.15
G1 X-24.016 Y-24.178 Z-1.908
G3 X-24.316 Y-23.877 Z-1.932 I-0.15 J0.15
G1 X-25.377 Y-24.938 Z-1.984
G3 X-25.269 Y-25.296 Z-2 I0.15 J-0.15
S3000
G1 X-25.217 Y-25.3 F1000
X-25.165 Y-25.291
X-25.118 Y-25.27
X-25.077 Y-25.238
X-24.016 Y-24.178
G3 X-24.316 Y-23.877 I-0.15 J0.15
G1 X-25.377 Y-24.938
G3 X-25.269 Y-25.296 I0.15 J-0.15
S5000
G1 X-25.217 Y-25.3 Z-2.002 F333.3
X-25.165 Y-25.291 Z-2.004
X-25.118 Y-25.27 Z-2.005
X-25.077 Y-25.238 Z-2.007
X-24.016 Y-24.178 Z-2.06
G3 X-24.316 Y-23.877 Z-2.083 I-0.15 J0.15
G1 X-25.377 Y-24.938 Z-2.135
G3 X-25.077 Y-25.238 Z-2.159 I0.15 J-0.15
G1 X-24.016 Y-24.178 Z-2.211
G3 X-24.316 Y-23.877 Z-2.234 I-0.15 J0.15
G1 X-25.377 Y-24.938 Z-2.287
G3 X-25.077 Y-25.238 Z-2.31 I0.15 J-0.15
G1 X-24.016 Y-24.178 Z-2.362
G3 X-24.316 Y-23.877 Z-2.386 I-0.15 J0.15
G1 X-25.377 Y-24.938 Z-2.438
G3 X-25.077 Y-25.238 Z-2.461 I0.15 J-0.15
G1 X-24.016 Y-24.178 Z-2.514
G3 X-24.316 Y-23.877 Z-2.537 I-0.15 J0.15
G1 X-25.377 Y-24.938 Z-2.59
G3 X-25.077 Y-25.238 Z-2.613 I0.15 J-0.15
G1 X-24.016 Y-24.178 Z-2.665
G3 X-24.316 Y-23.877 Z-2.689 I-0.15 J0.15
G1 X-25.377 Y-24.938 Z-2.741
G3 X-25.077 Y-25.238 Z-2.764 I0.15 J-0.15
G1 X-24.016 Y-24.178 Z-2.817
G3 X-24.316 Y-23.877 Z-2.84 I-0.15 J0.15
G1 X-25.377 Y-24.938 Z-2.892
G3 X-25.077 Y-25.238 Z-2.916 I0.15 J-0.15
G1 X-24.016 Y-24.178 Z-2.968
G3 X-24.316 Y-23.877 Z-2.991 I-0.15 J0.15
G1 X-24.492 Y-24.053 Z-3
S3000
X-25.377 Y-24.938 F1000
G3 X-25.077 Y-25.238 I0.15 J-0.15
G1 X-24.016 Y-24.178
G3 X-24.316 Y-23.877 I-0.15 J0.15
G1 X-24.492 Y-24.053
S5000
X-25.377 Y-24.938 Z-3.044 F333.3
G3 X-25.077 Y-25.238 Z-3.067 I0.15 J-0.15
G1 X-24.016 Y-24.178 Z-3.119
G3 X-24.316 Y-23.877 Z-3.143 I-0.15 J0.15
G1 X-25.377 Y-24.938 Z-3.195
G3 X-25.077 Y-25.238 Z-3.218 I0.15 J-0.15
G1 X-24.016 Y-24.178 Z-3.271
G3 X-24.316 Y-23.877 Z-3.294 I-0.15 J0.15
G1 X-25.377 Y-24.938 Z-3.346
G3 X-25.077 Y-25.238 Z-3.37 I0.15 J-0.15
G1 X-24.016 Y-24.178 Z-3.422
G3 X-24.316 Y-23.877 Z-3.445 I-0.15 J0.15
G1 X-25.377 Y-24.938 Z-3.498
G3 X-25.077 Y-25.238 Z-3.521 I0.15 J-0.15
G1 X-24.016 Y-24.178 Z-3.574
G3 X-24.316 Y-23.877 Z-3.597 I-0.15 J0.15
G1 X-25.377 Y-24.938 Z-3.649
G3 X-25.077 Y-25.238 Z-3.673 I0.15 J-0.15
G1 X-24.016 Y-24.178 Z-3.725
G3 X-24.316 Y-23.877 Z-3.748 I-0.15 J0.15
G1 X-25.377 Y-24.938 Z-3.801
G3 X-25.077 Y-25.238 Z-3.824 I0.15 J-0.15
G1 X-24.016 Y-24.178 Z-3.876
G3 X-24.316 Y-23.877 Z-3.9 I-0.15 J0.15
G1 X-25.377 Y-24.938 Z-3.952
G3 X-25.077 Y-25.238 Z-3.975 I0.15 J-0.15
G1 X-24.576 Y-24.738 Z-4
S3000
X-24.016 Y-24.178 F1000
G3 X-24.316 Y-23.877 I-0.15 J0.15
G1 X-25.377 Y-24.938
G3 X-25.077 Y-25.238 I0.15 J-0.15
G1 X-24.576 Y-24.738
S5000
X-24.016 Y-24.178 Z-4.028 F333.3
G3 X-24.316 Y-23.877 Z-4.051 I-0.15 J0.15
G1 X-25.377 Y-24.938 Z-4.103
G3 X-25.077 Y-25.238 Z-4.127 I0.15 J-0.15
G1 X-24.016 Y-24.178 Z-4.179
G3 X-24.316 Y-23.877 Z-4.202 I-0.15 J0.15
G1 X-25.377 Y-24.938 Z-4.255
G3 X-25.077 Y-25.238 Z-4.278 I0.15 J-0.15
G1 X-24.633 Y-24.794 Z-4.3
S3000
X-24.016 Y-24.178 F1000
G3 X-24.316 Y-23.877 I-0.15 J0.15
G1 X-25.377 Y-24.938
G3 X-25.077 Y-25.238 I0.15 J-0.15
G1 X-24.633 Y-24.794
Z5
X-17.468 Y-15.398
Z2
S5000
G3 X-17.43 Y-19.222 Z1.79 I0.019 J-1.912 F333.3
X-17.468 Y-15.398 Z1.58 I-0.019 J1.912
X-17.43 Y-19.222 Z1.371 I0.019 J-1.912
X-17.468 Y-15.398 Z1.161 I-0.019 J1.912
X-17.43 Y-19.222 Z0.951 I0.019 J-1.912
X-17.468 Y-15.398 Z0.741 I-0.019 J1.912
X-17.43 Y-19.222 Z0.531 I0.019 J-1.912
X-17.468 Y-15.398 Z0.322 I-0.019 J1.912
X-17.43 Y-19.222 Z0.112 I0.019 J-1.912
X-17.468 Y-15.398 Z-0.098 I-0.019 J1.912
X-17.43 Y-19.222 Z-0.308 I0.019 J-1.912
X-17.468 Y-15.398 Z-0.518 I-0.019 J1.912
X-17.43 Y-19.222 Z-0.728 I0.019 J-1.912
X-17.468 Y-15.398 Z-0.937 I-0.019 J1.912
X-19.002 Y-16.194 Z-1 I0.019 J-1.912
S3000
X-15.895 Y-18.426 I1.553 J-1.116 F1000
X-19.002 Y-16.194 I-1.553 J1.116
S5000
X-15.895 Y-18.426 Z-1.21 I1.553 J-1.116 F333.3
X-19.002 Y-16.194 Z-1.42 I-1.553 J1.116
X-15.895 Y-18.426 Z-1.629 I1.553 J-1.116
X-19.002 Y-16.194 Z-1.839 I-1.553 J1.116
X-17.044 Y-19.179 Z-2 I1.553 J-1.116
S3000
X-17.853 Y-15.441 I-0.405 J1.869 F1000
X-17.044 Y-19.179 I0.405 J-1.869
S5000
X-17.853 Y-15.441 Z-2.21 I-0.405 J1.869 F333.3
X-17.044 Y-19.179 Z-2.42 I0.405 J-1.869
X-17.853 Y-15.441 Z-2.629 I-0.405 J1.869
X-17.044 Y-19.179 Z-2.839 I0.405 J-1.869
X-16.496 Y-15.652 Z-3 I-0.405 J1.869
S3000
X-18.401 Y-18.968 I-0.953 J-1.658 F1000
X-16.496 Y-15.652 I0.953 J1.658
S5000
X-18.401 Y-18.968 Z-3.21 I-0.953 J-1.658 F333.3
X-16.496 Y-15.652 Z-3.42 I0.953 J1.658
X-18.401 Y-18.968 Z-3.629 I-0.953 J-1.658
X-16.496 Y-15.652 Z-3.839 I0.953 J1.658
X-19.267 Y-17.902 Z-4 I-0.953 J-1.658
S3000
X-15.63 Y-16.718 I1.819 J0.592 F1000
X-19.267 Y-17.902 I-1.819 J-0.592
S5000
X-15.63 Y-16.718 Z-4.21 I1.819 J0.592 F333.3
X-17.629 Y-15.406 Z-4.3 I-1.819 J-0.592
S3000
X-17.268 Y-19.214 I0.18 J-1.904 F1000
X-17.629 Y-15.406 I-0.18 J1.904
G1 Z5
X-24.342 Y-10.116
Z2
S5000
X-25.077 Y-9.381 Z1.964 F333.3
G3 X-25.377 Y-9.682 Z1.94 I-0.15 J-0.15
G1 X-24.316 Y-10.743 Z1.888
G3 X-24.016 Y-10.743 Z1.876 I0.15 J0.15
X-24.016 Y-10.442 Z1.865 I-0.15 J0.15
G1 X-25.077 Y-9.381 Z1.812
G3 X-25.377 Y-9.682 Z1.789 I-0.15 J-0.15
G1 X-24.316 Y-10.743 Z1.737
G3 X-24.016 Y-10.743 Z1.725 I0.15 J0.15
X-24.016 Y-10.442 Z1.713 I-0.15 J0.15
G1 X-25.077 Y-9.381 Z1.661
G3 X-25.377 Y-9.682 Z1.638 I-0.15 J-0.15
G1 X-24.316 Y-10.743 Z1.585
G3 X-24.016 Y-10.743 Z1.574 I0.15 J0.15
X-24.016 Y-10.442 Z1.562 I-0.15 J0.15
G1 X-25.077 Y-9.381 Z1.51
G3 X-25.377 Y-9.682 Z1.486 I-0.15 J-0.15
G1 X-24.316 Y-10.743 Z1.434
G3 X-24.016 Y-10.743 Z1.422 I0.15 J0.15
X-24.016 Y-10.442 Z1.411 I-0.15 J0.15
G1 X-25.077 Y-9.381 Z1.358
G3 X-25.377 Y-9.682 Z1.335 I-0.15 J-0.15
G1 X-24.316 Y-10.743 Z1.282
G3 X-24.016 Y-10.743 Z1.271 I0.15 J0.15
X-24.016 Y-10.442 Z1.259 I-0.15 J0.15
G1 X-25.077 Y-9.381 Z1.207
G3 X-25.377 Y-9.682 Z1.183 I-0.15 J-0.15
G1 X-24.316 Y-10.743 Z1.131
G3 X-24.016 Y-10.743 Z1.119 I0.15 J0.15
X-24.016 Y-10.442 Z1.108 I-0.15 J0.15
G1 X-25.077 Y-9.381 Z1.055
G3 X-25.377 Y-9.682 Z1.032 I-0.15 J-0.15
G1 X-24.316 Y-10.743 Z0.98
G3 X-24.016 Y-10.743 Z0.968 I0.15 J0.15
X-24.016 Y-10.442 Z0.956 I-0.15 J0.15
G1 X-25.077 Y-9.381 Z0.904
G3 X-25.377 Y-9.682 Z0.881 I-0.15 J-0.15
G1 X-24.316 Y-10.743 Z0.828
G3 X-24.016 Y-10.743 Z0.817 I0.15 J0.15
X-24.016 Y-10.442 Z0.805 I-0.15 J0.15
G1 X-25.077 Y-9.381 Z0.753
G3 X-25.377 Y-9.682 Z0.729 I-0.15 J-0.15
G1 X-24.316 Y-10.743 Z0.677
G3 X-24.016 Y-10.743 Z0.665 I0.15 J0.15
X-24.016 Y-10.442 Z0.654 I-0.15 J0.15
G1 X-25.077 Y-9.381 Z0.601
G3 X-25.377 Y-9.682 Z0.578 I-0.15 J-0.15
G1 X-24.316 Y-10.743 Z0.526
G3 X-24.016 Y-10.743 Z0.514 I0.15 J0.15
X-24.016 Y-10.442 Z0.502 I-0.15 J0.15
G1 X-25.077 Y-9.381 Z0.45
G3 X-25.377 Y-9.682 Z0.427 I-0.15 J-0.15
G1 X-24.316 Y-10.743 Z0.374
G3 X-24.016 Y-10.743 Z0.363 I0.15 J0.15
X-24.016 Y-10.442 Z0.351 I-0.15 J0.15
G1 X-25.077 Y-9.381 Z0.298
G3 X-25.377 Y-9.682 Z0.275 I-0.15 J-0.15
G1 X-24.316 Y-10.743 Z0.223
G3 X-24.016 Y-10.743 Z0.211 I0.15 J0.15
X-24.016 Y-10.442 Z0.199 I-0.15 J0.15
G1 X-25.077 Y-9.381 Z0.147
G3 X-25.377 Y-9.682 Z0.124 I-0.15 J-0.15
G1 X-24.316 Y-10.743 Z0.071
G3 X-24.016 Y-10.743 Z0.06 I0.15 J0.15
X-24.016 Y-10.442 Z0.048 I-0.15 J0.15
G1 X-25.077 Y-9.381 Z-0.004
G3 X-25.377 Y-9.682 Z-0.028 I-0.15 J-0.15
G1 X-24.316 Y-10.743 Z-0.08
G3 X-24.016 Y-10.743 Z-0.092 I0.15 J0.15
X-24.016 Y-10.442 Z-0.103 I-0.15 J0.15
G1 X-25.077 Y-9.381 Z-0.156
G3 X-25.377 Y-9.682 Z-0.179 I-0.15 J-0.15
G1 X-24.316 Y-10.743 Z-0.231
G3 X-24.016 Y-10.743 Z-0.243 I0.15 J0.15
X-24.016 Y-10.442 Z-0.255 I-0.15 J0.15
G1 X-25.077 Y-9.381 Z-0.307
G3 X-25.377 Y-9.682 Z-0.33 I-0.15 J-0.15
G1 X-24.316 Y-10.743 Z-0.383
G3 X-24.016 Y-10.743 Z-0.394 I0.15 J0.15
X-24.016 Y-10.442 Z-0.406 I-0.15 J0.15
G1 X-25.077 Y-9.381 Z-0.458
G3 X-25.377 Y-9.682 Z-0.482 I-0.15 J-0.15
G1 X-24.316 Y-10.743 Z-0.534
G3 X-24.016 Y-10.743 Z-0.546 I0.15 J0.15
X-24.016 Y-10.442 Z-0.557 I-0.15 J0.15
G1 X-25.077 Y-9.381 Z-0.61
G3 X-25.377 Y-9.682 Z-0.633 I-0.15 J-0.15
G1 X-24.316 Y-10.743 Z-0.686
G3 X-24.016 Y-10.743 Z-0.697 I0.15 J0.15
X-24.016 Y-10.442 Z-0.709 I-0.15 J0.15
G1 X-25.077 Y-9.381 Z-0.761
G3 X-25.377 Y-9.682 Z-0.785 I-0.15 J-0.15
G1 X-24.316 Y-10.743 Z-0.837
G3 X-24.016 Y-10.743 Z-0.849 I0.15 J0.15
X-24.016 Y-10.442 Z-0.86 I-0.15 J0.15
G1 X-25.077 Y-9.381 Z-0.913
G3 X-25.377 Y-9.682 Z-0.936 I-0.15 J-0.15
G1 X-24.316 Y-10.743 Z-0.988
G3 X-24.016 Y-10.743 Z-1 I0.15 J0.15
S3000
X-24.016 Y-10.442 I-0.15 J0.15 F1000
G1 X-25.077 Y-9.381
G3 X-25.377 Y-9.682 I-0.15 J-0.15
G1 X-24.316 Y-10.743
G3 X-24.016 Y-10.743 I0.15 J0.15
S5000
X-24.016 Y-10.442 Z-1.012 I-0.15 J0.15 F333.3
G1 X-25.077 Y-9.381 Z-1.064
G3 X-25.377 Y-9.682 Z-1.087 I-0.15 J-0.15
G1 X-24.316 Y-10.743 Z-1.14
G3 X-24.016 Y-10.743 Z-1.151 I0.15 J0.15
X-24.016 Y-10.442 Z-1.163 I-0.15 J0.15
G1 X-25.077 Y-9.381 Z-1.215
G3 X-25.377 Y-9.682 Z-1.239 I-0.15 J-0.15
G1 X-24.316 Y-10.743 Z-1.291
G3 X-24.016 Y-10.743 Z-1.303 I0.15 J0.15
X-24.016 Y-10.442 Z-1.314 I-0.15 J0.15
G1 X-25.077 Y-9.381 Z-1.367
G3 X-25.377 Y-9.682 Z-1.39 I-0.15 J-0.15
G1 X-24.316 Y-10.743 Z-1.443
G3 X-24.016 Y-10.743 Z-1.454 I0.15 J0.15
X-24.016 Y-10.442 Z-1.466 I-0.15 J0.15
G1 X-25.077 Y-9.381 Z-1.518
G3 X-25.377 Y-9.682 Z-1.542 I-0.15 J-0.15
G1 X-24.316 Y-10.743 Z-1.594
G3 X-24.016 Y-10.743 Z-1.606 I0.15 J0.15
X-24.016 Y-10.442 Z-1.617 I-0.15 J0.15
G1 X-25.077 Y-9.381 Z-1.67
G3 X-25.377 Y-9.682 Z-1.693 I-0.15 J-0.15
G1 X-24.316 Y-10.743 Z-1.745
G3 X-24.016 Y-10.743 Z-1.757 I0.15 J0.15
X-24.016 Y-10.442 Z-1.769 I-0.15 J0.15
G1 X-25.077 Y-9.381 Z-1.821
G3 X-25.377 Y-9.682 Z-1.844 I-0.15 J-0.15
G1 X-24.316 Y-10.743 Z-1.897
G3 X-24.016 Y-10.743 Z-1.908 I0.15 J0.15
X-24.016 Y-10.442 Z-1.92 I-0.15 J0.15
G1 X-25.077 Y-9.381 Z-1.972
G3 X-25.377 Y-9.682 Z-1.996 I-0.15 J-0.15
G1 X-25.29 Y-9.769 Z-2
S3000
X-24.316 Y-10.743 F1000
G3 X-24.016 Y-10.743 I0.15 J0.15
X-24.016 Y-10.442 I-0.15 J0.15
G1 X-25.077 Y-9.381
G3 X-25.377 Y-9.682 I-0.15 J-0.15
G1 X-25.29 Y-9.769
S5000
X-24.316 Y-10.743 Z-2.048 F333.3
G3 X-24.016 Y-10.743 Z-2.06 I0.15 J0.15
X-24.016 Y-10.442 Z-2.071 I-0.15 J0.15
G1 X-25.077 Y-9.381 Z-2.124
G3 X-25.377 Y-9.682 Z-2.147 I-0.15 J-0.15
G1 X-24.316 Y-10.743 Z-2.199
G3 X-24.016 Y-10.743 Z-2.211 I0.15 J0.15
X-24.016 Y-10.442 Z-2.223 I-0.15 J0.15
G1 X-25.077 Y-9.381 Z-2.275
G3 X-25.377 Y-9.682 Z-2.298 I-0.15 J-0.15
G1 X-24.316 Y-10.743 Z-2.351
G3 X-24.016 Y-10.743 Z-2.362 I0.15 J0.15
X-24.016 Y-10.442 Z-2.374 I-0.15 J0.15
G1 X-25.077 Y-9.381 Z-2.427
G3 X-25.377 Y-9.682 Z-2.45 I-0.15 J-0.15
G1 X-24.316 Y-10.743 Z-2.502
G3 X-24.016 Y-10.743 Z-2.514 I0.15 J0.15
X-24.016 Y-10.442 Z-2.526 I-0.15 J0.15
G1 X-25.077 Y-9.381 Z-2.578
G3 X-25.377 Y-9.682 Z-2.601 I-0.15 J-0.15
G1 X-24.316 Y-10.743 Z-2.654
G3 X-24.016 Y-10.743 Z-2.665 I0.15 J0.15
X-24.016 Y-10.442 Z-2.677 I-0.15 J0.15
G1 X-25.077 Y-9.381 Z-2.729
G3 X-25.377 Y-9.682 Z-2.753 I-0.15 J-0.15
G1 X-24.316 Y-10.743 Z-2.805
G3 X-24.016 Y-10.743 Z-2.817 I0.15 J0.15
X-24.016 Y-10.442 Z-2.828 I-0.15 J0.15
G1 X-25.077 Y-9.381 Z-2.881
G3 X-25.377 Y-9.682 Z-2.904 I-0.15 J-0.15
G1 X-24.316 Y-10.743 Z-2.956
G3 X-24.016 Y-10.743 Z-2.968 I0.15 J0.15
X-24.016 Y-10.442 Z-2.98 I-0.15 J0.15
G1 X-24.427 Y-10.031 Z-3
S3000
X-25.077 Y-9.381 F1000
G3 X-25.377 Y-9.682 I-0.15 J-0.15
G1 X-24.316 Y-10.743
G3 X-24.016 Y-10.743 I0.15 J0.15
X-24.016 Y-10.442 I-0.15 J0.15
G1 X-24.427 Y-10.031
S5000
X-25.077 Y-9.381 Z-3.032 F333.3
G3 X-25.377 Y-9.682 Z-3.055 I-0.15 J-0.15
G1 X-24.316 Y-10.743 Z-3.108
G3 X-24.016 Y-10.743 Z-3.119 I0.15 J0.15
X-24.016 Y-10.442 Z-3.131 I-0.15 J0.15
G1 X-25.077 Y-9.381 Z-3.183
G3 X-25.377 Y-9.682 Z-3.207 I-0.15 J-0.15
G1 X-24.316 Y-10.743 Z-3.259
G3 X-24.016 Y-10.743 Z-3.271 I0.15 J0.15
X-24.016 Y-10.442 Z-3.282 I-0.15 J0.15
G1 X-25.077 Y-9.381 Z-3.335
G3 X-25.377 Y-9.682 Z-3.358 I-0.15 J-0.15
G1 X-24.316 Y-10.743 Z-3.411
G3 X-24.016 Y-10.743 Z-3.422 I0.15 J0.15
X-24.016 Y-10.442 Z-3.434 I-0.15 J0.15
G1 X-25.077 Y-9.381 Z-3.486
G3 X-25.377 Y-9.682 Z-3.51 I-0.15 J-0.15
G1 X-24.316 Y-10.743 Z-3.562
G3 X-24.016 Y-10.743 Z-3.574 I0.15 J0.15
X-24.016 Y-10.442 Z-3.585 I-0.15 J0.15
G1 X-25.077 Y-9.381 Z-3.638
G3 X-25.377 Y-9.682 Z-3.661 I-0.15 J-0.15
G1 X-24.316 Y-10.743 Z-3.713
G3 X-24.016 Y-10.743 Z-3.725 I0.15 J0.15
X-24.016 Y-10.442 Z-3.737 I-0.15 J0.15
G1 X-25.077 Y-9.381 Z-3.789
G3 X-25.377 Y-9.682 Z-3.812 I-0.15 J-0.15
G1 X-24.316 Y-10.743 Z-3.865
G3 X-24.016 Y-10.743 Z-3.876 I0.15 J0.15
X-24.016 Y-10.442 Z-3.888 I-0.15 J0.15
G1 X-25.077 Y-9.381 Z-3.94
G3 X-25.377 Y-9.682 Z-3.964 I-0.15 J-0.15
G1 X-24.643 Y-10.416 Z-4
S3000
X-24.316 Y-10.743 F1000
G3 X-24.016 Y-10.743 I0.15 J0.15
X-24.016 Y-10.442 I-0.15 J0.15
G1 X-25.077 Y-9.381
G3 X-25.377 Y-9.682 I-0.15 J-0.15
G1 X-24.643 Y-10.416
S5000
X-24.316 Y-10.743 Z-4.016 F333.3
G3 X-24.016 Y-10.743 Z-4.028 I0.15 J0.15
X-24.016 Y-10.442 Z-4.039 I-0.15 J0.15
G1 X-25.077 Y-9.381 Z-4.092
G3 X-25.377 Y-9.682 Z-4.115 I-0.15 J-0.15
G1 X-24.316 Y-10.743 Z-4.168
G3 X-24.016 Y-10.743 Z-4.179 I0.15 J0.15
X-24.016 Y-10.442 Z-4.191 I-0.15 J0.15
G1 X-25.077 Y-9.381 Z-4.243
G3 X-25.377 Y-9.682 Z-4.267 I-0.15 J-0.15
G1 X-24.699 Y-10.36 Z-4.3
S3000
X-24.316 Y-10.743 F1000
G3 X-24.016 Y-10.743 I0.15 J0.15
X-24.016 Y-10.442 I-0.15 J0.15
G1 X-25.077 Y-9.381
G3 X-25.377 Y-9.682 I-0.15 J-0.15
G1 X-24.699 Y-10.36
Z5
X-10.018 Y-10.179
Z2
S5000
X-9.52 Y-9.682 Z1.975 F333.3
G3 X-9.821 Y-9.381 Z1.952 I-0.15 J0.15
G1 X-10.881 Y-10.442 Z1.9
G3 X-10.881 Y-10.743 Z1.888 I0.15 J-0.15
X-10.581 Y-10.743 Z1.876 I0.15 J0.15
G1 X-9.52 Y-9.682 Z1.824
G3 X-9.821 Y-9.381 Z1.801 I-0.15 J0.15
G1 X-10.881 Y-10.442 Z1.748
G3 X-10.881 Y-10.743 Z1.737 I0.15 J-0.15
X-10.581 Y-10.743 Z1.725 I0.15 J0.15
G1 X-9.52 Y-9.682 Z1.673
G3 X-9.821 Y-9.381 Z1.649 I-0.15 J0.15
G1 X-10.881 Y-10.442 Z1.597
G3 X-10.881 Y-10.743 Z1.585 I0.15 J-0.15
X-10.581 Y-10.743 Z1.574 I0.15 J0.15
G1 X-9.52 Y-9.682 Z1.521
G3 X-9.821 Y-9.381 Z1.498 I-0.15 J0.15
G1 X-10.881 Y-10.442 Z1.446
G3 X-10.881 Y-10.743 Z1.434 I0.15 J-0.15
X-10.581 Y-10.743 Z1.422 I0.15 J0.15
G1 X-9.52 Y-9.682 Z1.37
G3 X-9.821 Y-9.381 Z1.347 I-0.15 J0.15
G1 X-10.881 Y-10.442 Z1.294
G3 X-10.881 Y-10.743 Z1.283 I0.15 J-0.15
X-10.581 Y-10.743 Z1.271 I0.15 J0.15
G1 X-9.52 Y-9.682 Z1.218
G3 X-9.821 Y-9.381 Z1.195 I-0.15 J0.15
G1 X-10.881 Y-10.442 Z1.143
G3 X-10.881 Y-10.743 Z1.131 I0.15 J-0.15
X-10.581 Y-10.743 Z1.119 I0.15 J0.15
G1 X-9.52 Y-9.682 Z1.067
G3 X-9.821 Y-9.381 Z1.044 I-0.15 J0.15
G1 X-10.881 Y-10.442 Z0.991
G3 X-10.881 Y-10.743 Z0.98 I0.15 J-0.15
X-10.581 Y-10.743 Z0.968 I0.15 J0.15
G1 X-9.52 Y-9.682 Z0.916
G3 X-9.821 Y-9.381 Z0.892 I-0.15 J0.15
G1 X-10.881 Y-10.442 Z0.84
G3 X-10.881 Y-10.743 Z0.828 I0.15 J-0.15
X-10.581 Y-10.743 Z0.817 I0.15 J0.15
G1 X-9.52 Y-9.682 Z0.764
G3 X-9.821 Y-9.381 Z0.741 I-0.15 J0.15
G1 X-10.881 Y-10.442 Z0.689
G3 X-10.881 Y-10.743 Z0.677 I0.15 J-0.15
X-10.581 Y-10.743 Z0.665 I0.15 J0.15
G1 X-9.52 Y-9.682 Z0.613
G3 X-9.821 Y-9.381 Z0.59 I-0.15 J0.15
G1 X-10.881 Y-10.442 Z0.537
G3 X-10.881 Y-10.743 Z0.526 I0.15 J-0.15
X-10.581 Y-10.743 Z0.514 I0.15 J0.15
G1 X-9.52 Y-9.682 Z0.462
G3 X-9.821 Y-9.381 Z0.438 I-0.15 J0.15
G1 X-10.881 Y-10.442 Z0.386
G3 X-10.881 Y-10.743 Z0.374 I0.15 J-0.15
X-10.581 Y-10.743 Z0.363 I0.15 J0.15
G1 X-9.52 Y-9.682 Z0.31
G3 X-9.821 Y-9.381 Z0.287 I-0.15 J0.15
G1 X-10.881 Y-10.442 Z0.234
G3 X-10.881 Y-10.743 Z0.223 I0.15 J-0.15
X-10.581 Y-10.743 Z0.211 I0.15 J0.15
G1 X-9.52 Y-9.682 Z0.159
G3 X-9.821 Y-9.381 Z0.135 I-0.15 J0.15
G1 X-10.881 Y-10.442 Z0.083
G3 X-10.881 Y-10.743 Z0.071 I0.15 J-0.15
X-10.581 Y-10.743 Z0.06 I0.15 J0.15
G1 X-9.52 Y-9.682 Z0.007
G3 X-9.821 Y-9.381 Z-0.016 I-0.15 J0.15
G1 X-10.881 Y-10.442 Z-0.068
G3 X-10.881 Y-10.743 Z-0.08 I0.15 J-0.15
X-10.581 Y-10.743 Z-0.092 I0.15 J0.15
G1 X-9.52 Y-9.682 Z-0.144
G3 X-9.821 Y-9.381 Z-0.167 I-0.15 J0.15
G1 X-10.881 Y-10.442 Z-0.22
G3 X-10.881 Y-10.743 Z-0.231 I0.15 J-0.15
X-10.581 Y-10.743 Z-0.243 I0.15 J0.15
G1 X-9.52 Y-9.682 Z-0.295
G3 X-9.821 Y-9.381 Z-0.319 I-0.15 J0.15
G1 X-10.881 Y-10.442 Z-0.371
G3 X-10.881 Y-10.743 Z-0.383 I0.15 J-0.15
X-10.581 Y-10.743 Z-0.394 I0.15 J0.15
G1 X-9.52 Y-9.682 Z-0.447
G3 X-9.821 Y-9.381 Z-0.47 I-0.15 J0.15
G1 X-10.881 Y-10.442 Z-0.523
G3 X-10.881 Y-10.743 Z-0.534 I0.15 J-0.15
X-10.581 Y-10.743 Z-0.546 I0.15 J0.15
G1 X-9.52 Y-9.682 Z-0.598
G3 X-9.821 Y-9.381 Z-0.622 I-0.15 J0.15
G1 X-10.881 Y-10.442 Z-0.674
G3 X-10.881 Y-10.743 Z-0.686 I0.15 J-0.15
X-10.581 Y-10.743 Z-0.697 I0.15 J0.15
G1 X-9.52 Y-9.682 Z-0.75
G3 X-9.821 Y-9.381 Z-0.773 I-0.15 J0.15
G1 X-10.881 Y-10.442 Z-0.825
G3 X-10.881 Y-10.743 Z-0.837 I0.15 J-0.15
X-10.581 Y-10.743 Z-0.849 I0.15 J0.15
G1 X-9.52 Y-9.682 Z-0.901
G3 X-9.821 Y-9.381 Z-0.924 I-0.15 J0.15
G1 X-10.881 Y-10.442 Z-0.977
G3 X-10.881 Y-10.743 Z-0.988 I0.15 J-0.15
X-10.581 Y-10.743 Z-1 I0.15 J0.15
S3000
G1 X-9.52 Y-9.682 F1000
G3 X-9.821 Y-9.381 I-0.15 J0.15
G1 X-10.881 Y-10.442
G3 X-10.881 Y-10.743 I0.15 J-0.15
X-10.581 Y-10.743 I0.15 J0.15
S5000
G1 X-9.52 Y-9.682 Z-1.052 F333.3
G3 X-9.821 Y-9.381 Z-1.076 I-0.15 J0.15
G1 X-10.881 Y-10.442 Z-1.128
G3 X-10.881 Y-10.743 Z-1.14 I0.15 J-0.15
X-10.581 Y-10.743 Z-1.151 I0.15 J0.15
G1 X-9.52 Y-9.682 Z-1.204
G3 X-9.821 Y-9.381 Z-1.227 I-0.15 J0.15
G1 X-10.881 Y-10.442 Z-1.279
G3 X-10.881 Y-10.743 Z-1.291 I0.15 J-0.15
X-10.581 Y-10.743 Z-1.303 I0.15 J0.15
G1 X-9.52 Y-9.682 Z-1.355
G3 X-9.821 Y-9.381 Z-1.378 I-0.15 J0.15
G1 X-10.881 Y-10.442 Z-1.431
G3 X-10.881 Y-10.743 Z-1.443 I0.15 J-0.15
X-10.581 Y-10.743 Z-1.454 I0.15 J0.15
G1 X-9.52 Y-9.682 Z-1.507
G3 X-9.821 Y-9.381 Z-1.53 I-0.15 J0.15
G1 X-10.881 Y-10.442 Z-1.582
G3 X-10.881 Y-10.743 Z-1.594 I0.15 J-0.15
X-10.581 Y-10.743 Z-1.606 I0.15 J0.15
G1 X-9.52 Y-9.682 Z-1.658
G3 X-9.821 Y-9.381 Z-1.681 I-0.15 J0.15
G1 X-10.881 Y-10.442 Z-1.734
G3 X-10.881 Y-10.743 Z-1.745 I0.15 J-0.15
X-10.581 Y-10.743 Z-1.757 I0.15 J0.15
G1 X-9.52 Y-9.682 Z-1.809
G3 X-9.821 Y-9.381 Z-1.833 I-0.15 J0.15
G1 X-10.881 Y-10.442 Z-1.885
G3 X-10.881 Y-10.743 Z-1.897 I0.15 J-0.15
X-10.581 Y-10.743 Z-1.908 I0.15 J0.15
G1 X-9.52 Y-9.682 Z-1.961
G3 X-9.821 Y-9.381 Z-1.984 I-0.15 J0.15
G1 X-10.144 Y-9.705 Z-2
S3000
X-10.881 Y-10.442 F1000
G3 X-10.881 Y-10.743 I0.15 J-0.15
X-10.581 Y-10.743 I0.15 J0.15
G1 X-9.52 Y-9.682
G3 X-9.821 Y-9.381 I-0.15 J0.15
G1 X-10.144 Y-9.705
S5000
X-10.881 Y-10.442 Z-2.036 F333.3
G3 X-10.881 Y-10.743 Z-2.048 I0.15 J-0.15
X-10.581 Y-10.743 Z-2.06 I0.15 J0.15
G1 X-9.52 Y-9.682 Z-2.112
G3 X-9.821 Y-9.381 Z-2.135 I-0.15 J0.15
G1 X-10.881 Y-10.442 Z-2.188
G3 X-10.881 Y-10.743 Z-2.199 I0.15 J-0.15
X-10.581 Y-10.743 Z-2.211 I0.15 J0.15
G1 X-9.52 Y-9.682 Z-2.264
G3 X-9.821 Y-9.381 Z-2.287 I-0.15 J0.15
G1 X-10.881 Y-10.442 Z-2.339
G3 X-10.881 Y-10.743 Z-2.351 I0.15 J-0.15
X-10.581 Y-10.743 Z-2.363 I0.15 J0.15
G1 X-9.52 Y-9.682 Z-2.415
G3 X-9.821 Y-9.381 Z-2.438 I-0.15 J0.15
G1 X-10.881 Y-10.442 Z-2.491
G3 X-10.881 Y-10.743 Z-2.502 I0.15 J-0.15
X-10.581 Y-10.743 Z-2.514 I0.15 J0.15
G1 X-9.52 Y-9.682 Z-2.566
G3 X-9.821 Y-9.381 Z-2.59 I-0.15 J0.15
G1 X-10.881 Y-10.442 Z-2.642
G3 X-10.881 Y-10.743 Z-2.654 I0.15 J-0.15
X-10.581 Y-10.743 Z-2.665 I0.15 J0.15
G1 X-9.52 Y-9.682 Z-2.718
G3 X-9.821 Y-9.381 Z-2.741 I-0.15 J0.15
G1 X-10.881 Y-10.442 Z-2.793
G3 X-10.881 Y-10.743 Z-2.805 I0.15 J-0.15
X-10.581 Y-10.743 Z-2.817 I0.15 J0.15
G1 X-9.52 Y-9.682 Z-2.869
G3 X-9.821 Y-9.381 Z-2.892 I-0.15 J0.15
G1 X-10.881 Y-10.442 Z-2.945
G3 X-10.881 Y-10.743 Z-2.956 I0.15 J-0.15
X-10.581 Y-10.743 Z-2.968 I0.15 J0.15
G1 X-9.935 Y-10.096 Z-3
S3000
X-9.52 Y-9.682 F1000
G3 X-9.821 Y-9.381 I-0.15 J0.15
G1 X-10.881 Y-10.442
G3 X-10.881 Y-10.743 I0.15 J-0.15
X-10.581 Y-10.743 I0.15 J0.15
G1 X-9.935 Y-10.096
S5000
X-9.52 Y-9.682 Z-3.02 F333.3
G3 X-9.821 Y-9.381 Z-3.044 I-0.15 J0.15
G1 X-10.881 Y-10.442 Z-3.096
G3 X-10.881 Y-10.743 Z-3.108 I0.15 J-0.15
X-10.581 Y-10.743 Z-3.119 I0.15 J0.15
G1 X-9.52 Y-9.682 Z-3.172
G3 X-9.821 Y-9.381 Z-3.195 I-0.15 J0.15
G1 X-10.881 Y-10.442 Z-3.248
G3 X-10.881 Y-10.743 Z-3.259 I0.15 J-0.15
X-10.581 Y-10.743 Z-3.271 I0.15 J0.15
G1 X-9.52 Y-9.682 Z-3.323
G3 X-9.821 Y-9.381 Z-3.347 I-0.15 J0.15
G1 X-10.881 Y-10.442 Z-3.399
G3 X-10.881 Y-10.743 Z-3.411 I0.15 J-0.15
X-10.581 Y-10.743 Z-3.422 I0.15 J0.15
G1 X-9.52 Y-9.682 Z-3.475
G3 X-9.821 Y-9.381 Z-3.498 I-0.15 J0.15
G1 X-10.881 Y-10.442 Z-3.55
G3 X-10.881 Y-10.743 Z-3.562 I0.15 J-0.15
X-10.581 Y-10.743 Z-3.574 I0.15 J0.15
G1 X-9.52 Y-9.682 Z-3.626
G3 X-9.821 Y-9.381 Z-3.649 I-0.15 J0.15
G1 X-10.881 Y-10.442 Z-3.702
G3 X-10.881 Y-10.743 Z-3.713 I0.15 J-0.15
X-10.581 Y-10.743 Z-3.725 I0.15 J0.15
G1 X-9.52 Y-9.682 Z-3.777
G3 X-9.821 Y-9.381 Z-3.801 I-0.15 J0.15
G1 X-10.881 Y-10.442 Z-3.853
G3 X-10.881 Y-10.743 Z-3.865 I0.15 J-0.15
X-10.581 Y-10.743 Z-3.876 I0.15 J0.15
G1 X-9.52 Y-9.682 Z-3.929
G3 X-9.821 Y-9.381 Z-3.952 I-0.15 J0.15
G1 X-10.79 Y-10.351 Z-4
S3000
X-10.881 Y-10.442 F1000
G3 X-10.881 Y-10.743 I0.15 J-0.15
X-10.581 Y-10.743 I0.15 J0.15
G1 X-9.935 Y-10.096
X-9.52 Y-9.682
G3 X-9.821 Y-9.381 I-0.15 J0.15
G1 X-10.79 Y-10.351
S5000
X-10.881 Y-10.442 Z-4.004 F333.3
G3 X-10.881 Y-10.743 Z-4.016 I0.15 J-0.15
X-10.581 Y-10.743 Z-4.028 I0.15 J0.15
G1 X-9.52 Y-9.682 Z-4.08
G3 X-9.821 Y-9.381 Z-4.104 I-0.15 J0.15
G1 X-10.881 Y-10.442 Z-4.156
G3 X-10.881 Y-10.743 Z-4.168 I0.15 J-0.15
X-10.581 Y-10.743 Z-4.179 I0.15 J0.15
G1 X-9.52 Y-9.682 Z-4.232
G3 X-9.821 Y-9.381 Z-4.255 I-0.15 J0.15
G1 X-10.734 Y-10.295 Z-4.3
S3000
X-10.881 Y-10.442 F1000
G3 X-10.881 Y-10.743 I0.15 J-0.15
X-10.581 Y-10.743 I0.15 J0.15
G1 X-9.52 Y-9.682
G3 X-9.821 Y-9.381 I-0.15 J0.15
G1 X-10.734 Y-10.295
Z5
X-10.795 Y-24.264
Z2
S5000
X-9.821 Y-25.238 Z1.952 F333.3
G3 X-9.52 Y-24.938 Z1.929 I0.15 J0.15
G1 X-10.581 Y-23.877 Z1.876
G3 X-10.881 Y-24.178 Z1.853 I-0.15 J-0.15
G1 X-9.821 Y-25.238 Z1.8
G3 X-9.52 Y-24.938 Z1.777 I0.15 J0.15
G1 X-10.581 Y-23.877 Z1.725
G3 X-10.881 Y-24.178 Z1.701 I-0.15 J-0.15
G1 X-9.821 Y-25.238 Z1.649
G3 X-9.52 Y-24.938 Z1.626 I0.15 J0.15
G1 X-10.581 Y-23.877 Z1.573
G3 X-10.881 Y-24.178 Z1.55 I-0.15 J-0.15
G1 X-9.821 Y-25.238 Z1.498
G3 X-9.52 Y-24.938 Z1.474 I0.15 J0.15
G1 X-10.581 Y-23.877 Z1.422
G3 X-10.881 Y-24.178 Z1.399 I-0.15 J-0.15
G1 X-9.821 Y-25.238 Z1.346
G3 X-9.52 Y-24.938 Z1.323 I0.15 J0.15
G1 X-10.581 Y-23.877 Z1.271
G3 X-10.881 Y-24.178 Z1.247 I-0.15 J-0.15
G1 X-9.821 Y-25.238 Z1.195
G3 X-9.52 Y-24.938 Z1.172 I0.15 J0.15
G1 X-10.581 Y-23.877 Z1.119
G3 X-10.881 Y-24.178 Z1.096 I-0.15 J-0.15
G1 X-9.821 Y-25.238 Z1.044
G3 X-9.52 Y-24.938 Z1.02 I0.15 J0.15
G1 X-10.581 Y-23.877 Z0.968
G3 X-10.881 Y-24.178 Z0.945 I-0.15 J-0.15
G1 X-9.821 Y-25.238 Z0.892
G3 X-9.52 Y-24.938 Z0.869 I0.15 J0.15
G1 X-10.581 Y-23.877 Z0.817
G3 X-10.881 Y-24.178 Z0.793 I-0.15 J-0.15
G1 X-9.821 Y-25.238 Z0.741
G3 X-9.52 Y-24.938 Z0.718 I0.15 J0.15
G1 X-10.581 Y-23.877 Z0.665
G3 X-10.881 Y-24.178 Z0.642 I-0.15 J-0.15
G1 X-9.821 Y-25.238 Z0.589
G3 X-9.52 Y-24.938 Z0.566 I0.15 J0.15
G1 X-10.581 Y-23.877 Z0.514
G3 X-10.881 Y-24.178 Z0.49 I-0.15 J-0.15
G1 X-9.821 Y-25.238 Z0.438
G3 X-9.52 Y-24.938 Z0.415 I0.15 J0.15
G1 X-10.581 Y-23.877 Z0.362
G3 X-10.881 Y-24.178 Z0.339 I-0.15 J-0.15
G1 X-9.821 Y-25.238 Z0.287
G3 X-9.52 Y-24.938 Z0.263 I0.15 J0.15
G1 X-10.581 Y-23.877 Z0.211
G3 X-10.881 Y-24.178 Z0.188 I-0.15 J-0.15
G1 X-9.821 Y-25.238 Z0.135
G3 X-9.52 Y-24.938 Z0.112 I0.15 J0.15
G1 X-10.581 Y-23.877 Z0.06
G3 X-10.881 Y-24.178 Z0.036 I-0.15 J-0.15
G1 X-9.821 Y-25.238 Z-0.016
G3 X-9.52 Y-24.938 Z-0.039 I0.15 J0.15
G1 X-10.581 Y-23.877 Z-0.092
G3 X-10.881 Y-24.178 Z-0.115 I-0.15 J-0.15
G1 X-9.821 Y-25.238 Z-0.167
G3 X-9.52 Y-24.938 Z-0.191 I0.15 J0.15
G1 X-10.581 Y-23.877 Z-0.243
G3 X-10.881 Y-24.178 Z-0.266 I-0.15 J-0.15
G1 X-9.821 Y-25.238 Z-0.319
G3 X-9.52 Y-24.938 Z-0.342 I0.15 J0.15
G1 X-10.581 Y-23.877 Z-0.394
G3 X-10.881 Y-24.178 Z-0.418 I-0.15 J-0.15
G1 X-9.821 Y-25.238 Z-0.47
G3 X-9.52 Y-24.938 Z-0.493 I0.15 J0.15
G1 X-10.581 Y-23.877 Z-0.546
G3 X-10.881 Y-24.178 Z-0.569 I-0.15 J-0.15
G1 X-9.821 Y-25.238 Z-0.622
G3 X-9.52 Y-24.938 Z-0.645 I0.15 J0.15
G1 X-10.581 Y-23.877 Z-0.697
G3 X-10.881 Y-24.178 Z-0.721 I-0.15 J-0.15
G1 X-9.821 Y-25.238 Z-0.773
G3 X-9.52 Y-24.938 Z-0.796 I0.15 J0.15
G1 X-10.581 Y-23.877 Z-0.849
G3 X-10.881 Y-24.178 Z-0.872 I-0.15 J-0.15
G1 X-9.821 Y-25.238 Z-0.924
G3 X-9.52 Y-24.938 Z-0.948 I0.15 J0.15
G1 X-10.581 Y-23.877 Z-1
S3000
G3 X-10.881 Y-24.178 I-0.15 J-0.15 F1000
G1 X-9.821 Y-25.238
G3 X-9.52 Y-24.938 I0.15 J0.15
G1 X-10.581 Y-23.877
S5000
G3 X-10.881 Y-24.178 Z-1.023 I-0.15 J-0.15 F333.3
G1 X-9.821 Y-25.238 Z-1.076
G3 X-9.52 Y-24.938 Z-1.099 I0.15 J0.15
G1 X-10.581 Y-23.877 Z-1.151
G3 X-10.881 Y-24.178 Z-1.175 I-0.15 J-0.15
G1 X-9.821 Y-25.238 Z-1.227
G3 X-9.52 Y-24.938 Z-1.25 I0.15 J0.15
G1 X-10.581 Y-23.877 Z-1.303
G3 X-10.881 Y-24.178 Z-1.326 I-0.15 J-0.15
G1 X-9.821 Y-25.238 Z-1.378
G3 X-9.52 Y-24.938 Z-1.402 I0.15 J0.15
G1 X-10.581 Y-23.877 Z-1.454
G3 X-10.881 Y-24.178 Z-1.477 I-0.15 J-0.15
G1 X-9.821 Y-25.238 Z-1.53
G3 X-9.52 Y-24.938 Z-1.553 I0.15 J0.15
G1 X-10.581 Y-23.877 Z-1.606
G3 X-10.881 Y-24.178 Z-1.629 I-0.15 J-0.15
G1 X-9.821 Y-25.238 Z-1.681
G3 X-9.52 Y-24.938 Z-1.705 I0.15 J0.15
G1 X-10.581 Y-23.877 Z-1.757
G3 X-10.881 Y-24.178 Z-1.78 I-0.15 J-0.15
G1 X-9.821 Y-25.238 Z-1.833
G3 X-9.52 Y-24.938 Z-1.856 I0.15 J0.15
G1 X-10.581 Y-23.877 Z-1.908
G3 X-10.881 Y-24.178 Z-1.932 I-0.15 J-0.15
G1 X-9.821 Y-25.238 Z-1.984
G3 X-9.462 Y-25.129 Z-2 I0.15 J0.15
S3000
G1 X-9.458 Y-25.077 F1000
X-9.467 Y-25.026
X-9.488 Y-24.979
X-9.52 Y-24.938
X-10.581 Y-23.877
G3 X-10.881 Y-24.178 I-0.15 J-0.15
G1 X-9.821 Y-25.238
G3 X-9.462 Y-25.129 I0.15 J0.15
S5000
G1 X-9.458 Y-25.077 Z-2.002 F333.3
X-9.467 Y-25.026 Z-2.004
X-9.488 Y-24.979 Z-2.005
X-9.52 Y-24.938 Z-2.007
X-10.581 Y-23.877 Z-2.06
G3 X-10.881 Y-24.178 Z-2.083 I-0.15 J-0.15
G1 X-9.821 Y-25.238 Z-2.135
G3 X-9.52 Y-24.938 Z-2.159 I0.15 J0.15
G1 X-10.581 Y-23.877 Z-2.211
G3 X-10.881 Y-24.178 Z-2.234 I-0.15 J-0.15
G1 X-9.821 Y-25.238 Z-2.287
G3 X-9.52 Y-24.938 Z-2.31 I0.15 J0.15
G1 X-10.581 Y-23.877 Z-2.362
G3 X-10.881 Y-24.178 Z-2.386 I-0.15 J-0.15
G1 X-9.821 Y-25.238 Z-2.438
G3 X-9.52 Y-24.938 Z-2.461 I0.15 J0.15
G1 X-10.581 Y-23.877 Z-2.514
G3 X-10.881 Y-24.178 Z-2.537 I-0.15 J-0.15
G1 X-9.821 Y-25.238 Z-2.589
G3 X-9.52 Y-24.938 Z-2.613 I0.15 J0.15
G1 X-10.581 Y-23.877 Z-2.665
G3 X-10.881 Y-24.178 Z-2.688 I-0.15 J-0.15
G1 X-9.821 Y-25.238 Z-2.741
G3 X-9.52 Y-24.938 Z-2.764 I0.15 J0.15
G1 X-10.581 Y-23.877 Z-2.817
G3 X-10.881 Y-24.178 Z-2.84 I-0.15 J-0.15
G1 X-9.821 Y-25.238 Z-2.892
G3 X-9.52 Y-24.938 Z-2.916 I0.15 J0.15
G1 X-10.581 Y-23.877 Z-2.968
G3 X-10.881 Y-24.178 Z-2.991 I-0.15 J-0.15
G1 X-10.704 Y-24.355 Z-3
S3000
X-9.821 Y-25.238 F1000
G3 X-9.52 Y-24.938 I0.15 J0.15
G1 X-10.581 Y-23.877
G3 X-10.881 Y-24.178 I-0.15 J-0.15
G1 X-10.704 Y-24.355
S5000
X-9.821 Y-25.238 Z-3.044 F333.3
G3 X-9.52 Y-24.938 Z-3.067 I0.15 J0.15
G1 X-10.581 Y-23.877 Z-3.119
G3 X-10.881 Y-24.178 Z-3.143 I-0.15 J-0.15
G1 X-9.821 Y-25.238 Z-3.195
G3 X-9.52 Y-24.938 Z-3.218 I0.15 J0.15
G1 X-10.581 Y-23.877 Z-3.271
G3 X-10.881 Y-24.178 Z-3.294 I-0.15 J-0.15
G1 X-9.821 Y-25.238 Z-3.346
G3 X-9.52 Y-24.938 Z-3.37 I0.15 J0.15
G1 X-10.581 Y-23.877 Z-3.422
G3 X-10.881 Y-24.178 Z-3.445 I-0.15 J-0.15
G1 X-9.821 Y-25.238 Z-3.498
G3 X-9.52 Y-24.938 Z-3.521 I0.15 J0.15
G1 X-10.581 Y-23.877 Z-3.573
G3 X-10.881 Y-24.178 Z-3.597 I-0.15 J-0.15
G1 X-9.821 Y-25.238 Z-3.649
G3 X-9.52 Y-24.938 Z-3.672 I0.15 J0.15
G1 X-10.581 Y-23.877 Z-3.725
G3 X-10.881 Y-24.178 Z-3.748 I-0.15 J-0.15
G1 X-9.821 Y-25.238 Z-3.801
G3 X-9.52 Y-24.938 Z-3.824 I0.15 J0.15
G1 X-10.581 Y-23.877 Z-3.876
G3 X-10.881 Y-24.178 Z-3.9 I-0.15 J-0.15
G1 X-9.821 Y-25.238 Z-3.952
G3 X-9.52 Y-24.938 Z-3.975 I0.15 J0.15
G1 X-10.023 Y-24.435 Z-4
S3000
X-10.581 Y-23.877 F1000
G3 X-10.881 Y-24.178 I-0.15 J-0.15
G1 X-9.821 Y-25.238
G3 X-9.52 Y-24.938 I0.15 J0.15
G1 X-10.023 Y-24.435
S5000
X-10.581 Y-23.877 Z-4.028 F333.3
G3 X-10.881 Y-24.178 Z-4.051 I-0.15 J-0.15
G1 X-9.821 Y-25.238 Z-4.103
G3 X-9.52 Y-24.938 Z-4.127 I0.15 J0.15
G1 X-10.581 Y-23.877 Z-4.179
G3 X-10.881 Y-24.178 Z-4.202 I-0.15 J-0.15
G1 X-9.821 Y-25.238 Z-4.255
G3 X-9.52 Y-24.938 Z-4.278 I0.15 J0.15
G1 X-9.967 Y-24.491 Z-4.3
S3000
X-10.581 Y-23.877 F1000
G3 X-10.881 Y-24.178 I-0.15 J-0.15
G1 X-9.821 Y-25.238
G3 X-9.52 Y-24.938 I0.15 J0.15
G1 X-9.967 Y-24.491
Z5
X-17.289 Y-130.832
Z2
S5000
G3 X-17.608 Y-131.114 Z1.977 I-0.159 J-0.141 F333.3
X-17.289 Y-130.832 Z1.953 I0.159 J0.141
X-17.608 Y-131.114 Z1.93 I-0.159 J-0.141
X-17.289 Y-130.832 Z1.907 I0.159 J0.141
X-17.608 Y-131.114 Z1.883 I-0.159 J-0.141
X-17.289 Y-130.832 Z1.86 I0.159 J0.141
X-17.608 Y-131.114 Z1.837 I-0.159 J-0.141
X-17.289 Y-130.832 Z1.813 I0.159 J0.141
X-17.608 Y-131.114 Z1.79 I-0.159 J-0.141
X-17.289 Y-130.832 Z1.767 I0.159 J0.141
X-17.608 Y-131.114 Z1.743 I-0.159 J-0.141
X-17.289 Y-130.832 Z1.72 I0.159 J0.141
X-17.608 Y-131.114 Z1.697 I-0.159 J-0.141
X-17.289 Y-130.832 Z1.673 I0.159 J0.141
X-17.608 Y-131.114 Z1.65 I-0.159 J-0.141
X-17.289 Y-130.832 Z1.627 I0.159 J0.141
X-17.608 Y-131.114 Z1.603 I-0.159 J-0.141
X-17.289 Y-130.832 Z1.58 I0.159 J0.141
X-17.608 Y-131.114 Z1.557 I-0.159 J-0.141
X-17.289 Y-130.832 Z1.533 I0.159 J0.141
X-17.608 Y-131.114 Z1.51 I-0.159 J-0.141
X-17.289 Y-130.832 Z1.487 I0.159 J0.141
X-17.608 Y-131.114 Z1.463 I-0.159 J-0.141
X-17.289 Y-130.832 Z1.44 I0.159 J0.141
X-17.608 Y-131.114 Z1.417 I-0.159 J-0.141
X-17.289 Y-130.832 Z1.393 I0.159 J0.141
X-17.608 Y-131.114 Z1.37 I-0.159 J-0.141
X-17.289 Y-130.832 Z1.347 I0.159 J0.141
X-17.608 Y-131.114 Z1.323 I-0.159 J-0.141
X-17.289 Y-130.832 Z1.3 I0.159 J0.141
X-17.608 Y-131.114 Z1.277 I-0.159 J-0.141
X-17.289 Y-130.832 Z1.253 I0.159 J0.141
X-17.608 Y-131.114 Z1.23 I-0.159 J-0.141
X-17.289 Y-130.832 Z1.207 I0.159 J0.141
X-17.608 Y-131.114 Z1.183 I-0.159 J-0.141
X-17.289 Y-130.832 Z1.16 I0.159 J0.141
X-17.608 Y-131.114 Z1.137 I-0.159 J-0.141
X-17.289 Y-130.832 Z1.113 I0.159 J0.141
X-17.608 Y-131.114 Z1.09 I-0.159 J-0.141
X-17.289 Y-130.832 Z1.067 I0.159 J0.141
X-17.608 Y-131.114 Z1.043 I-0.159 J-0.141
X-17.289 Y-130.832 Z1.02 I0.159 J0.141
X-17.608 Y-131.114 Z0.997 I-0.159 J-0.141
X-17.289 Y-130.832 Z0.973 I0.159 J0.141
X-17.608 Y-131.114 Z0.95 I-0.159 J-0.141
X-17.289 Y-130.832 Z0.927 I0.159 J0.141
X-17.608 Y-131.114 Z0.903 I-0.159 J-0.141
X-17.289 Y-130.832 Z0.88 I0.159 J0.141
X-17.608 Y-131.114 Z0.857 I-0.159 J-0.141
X-17.289 Y-130.832 Z0.833 I0.159 J0.141
X-17.608 Y-131.114 Z0.81 I-0.159 J-0.141
X-17.289 Y-130.832 Z0.787 I0.159 J0.141
X-17.608 Y-131.114 Z0.763 I-0.159 J-0.141
X-17.289 Y-130.832 Z0.74 I0.159 J0.141
X-17.608 Y-131.114 Z0.717 I-0.159 J-0.141
X-17.289 Y-130.832 Z0.693 I0.159 J0.141
X-17.608 Y-131.114 Z0.67 I-0.159 J-0.141
X-17.289 Y-130.832 Z0.647 I0.159 J0.141
X-17.608 Y-131.114 Z0.623 I-0.159 J-0.141
X-17.289 Y-130.832 Z0.6 I0.159 J0.141
X-17.608 Y-131.114 Z0.577 I-0.159 J-0.141
X-17.289 Y-130.832 Z0.553 I0.159 J0.141
X-17.608 Y-131.114 Z0.53 I-0.159 J-0.141
X-17.289 Y-130.832 Z0.507 I0.159 J0.141
X-17.608 Y-131.114 Z0.483 I-0.159 J-0.141
X-17.289 Y-130.832 Z0.46 I0.159 J0.141
X-17.608 Y-131.114 Z0.437 I-0.159 J-0.141
X-17.289 Y-130.832 Z0.413 I0.159 J0.141
X-17.608 Y-131.114 Z0.39 I-0.159 J-0.141
X-17.289 Y-130.832 Z0.367 I0.159 J0.141
X-17.608 Y-131.114 Z0.343 I-0.159 J-0.141
X-17.289 Y-130.832 Z0.32 I0.159 J0.141
X-17.608 Y-131.114 Z0.297 I-0.159 J-0.141
X-17.289 Y-130.832 Z0.273 I0.159 J0.141
X-17.608 Y-131.114 Z0.25 I-0.159 J-0.141
X-17.289 Y-130.832 Z0.227 I0.159 J0.141
X-17.608 Y-131.114 Z0.203 I-0.159 J-0.141
X-17.289 Y-130.832 Z0.18 I0.159 J0.141
X-17.608 Y-131.114 Z0.157 I-0.159 J-0.141
X-17.289 Y-130.832 Z0.133 I0.159 J0.141
X-17.608 Y-131.114 Z0.11 I-0.159 J-0.141
X-17.289 Y-130.832 Z0.087 I0.159 J0.141
X-17.608 Y-131.114 Z0.063 I-0.159 J-0.141
X-17.289 Y-130.832 Z0.04 I0.159 J0.141
X-17.608 Y-131.114 Z0.017 I-0.159 J-0.141
X-17.289 Y-130.832 Z-0.007 I0.159 J0.141
X-17.608 Y-131.114 Z-0.03 I-0.159 J-0.141
X-17.289 Y-130.832 Z-0.053 I0.159 J0.141
X-17.608 Y-131.114 Z-0.077 I-0.159 J-0.141
X-17.289 Y-130.832 Z-0.1 I0.159 J0.141
X-17.608 Y-131.114 Z-0.123 I-0.159 J-0.141
X-17.289 Y-130.832 Z-0.147 I0.159 J0.141
X-17.608 Y-131.114 Z-0.17 I-0.159 J-0.141
X-17.289 Y-130.832 Z-0.193 I0.159 J0.141
X-17.608 Y-131.114 Z-0.217 I-0.159 J-0.141
X-17.289 Y-130.832 Z-0.24 I0.159 J0.141
X-17.608 Y-131.114 Z-0.263 I-0.159 J-0.141
X-17.289 Y-130.832 Z-0.287 I0.159 J0.141
X-17.608 Y-131.114 Z-0.31 I-0.159 J-0.141
X-17.289 Y-130.832 Z-0.333 I0.159 J0.141
X-17.608 Y-131.114 Z-0.357 I-0.159 J-0.141
X-17.289 Y-130.832 Z-0.38 I0.159 J0.141
X-17.608 Y-131.114 Z-0.403 I-0.159 J-0.141
X-17.289 Y-130.832 Z-0.427 I0.159 J0.141
X-17.608 Y-131.114 Z-0.45 I-0.159 J-0.141
X-17.289 Y-130.832 Z-0.473 I0.159 J0.141
X-17.608 Y-131.114 Z-0.497 I-0.159 J-0.141
X-17.289 Y-130.832 Z-0.52 I0.159 J0.141
X-17.608 Y-131.114 Z-0.543 I-0.159 J-0.141
X-17.289 Y-130.832 Z-0.567 I0.159 J0.141
X-17.608 Y-131.114 Z-0.59 I-0.159 J-0.141
X-17.289 Y-130.832 Z-0.613 I0.159 J0.141
X-17.608 Y-131.114 Z-0.637 I-0.159 J-0.141
X-17.289 Y-130.832 Z-0.66 I0.159 J0.141
X-17.608 Y-131.114 Z-0.683 I-0.159 J-0.141
X-17.289 Y-130.832 Z-0.707 I0.159 J0.141
X-17.608 Y-131.114 Z-0.73 I-0.159 J-0.141
X-17.289 Y-130.832 Z-0.753 I0.159 J0.141
X-17.608 Y-131.114 Z-0.777 I-0.159 J-0.141
X-17.289 Y-130.832 Z-0.8 I0.159 J0.141
X-17.608 Y-131.114 Z-0.823 I-0.159 J-0.141
X-17.289 Y-130.832 Z-0.847 I0.159 J0.141
X-17.608 Y-131.114 Z-0.87 I-0.159 J-0.141
X-17.289 Y-130.832 Z-0.893 I0.159 J0.141
X-17.608 Y-131.114 Z-0.917 I-0.159 J-0.141
X-17.289 Y-130.832 Z-0.94 I0.159 J0.141
X-17.608 Y-131.114 Z-0.963 I-0.159 J-0.141
X-17.289 Y-130.832 Z-0.987 I0.159 J0.141
X-17.621 Y-130.849 Z-1 I-0.159 J-0.141
S3000
X-17.276 Y-131.097 I0.173 J-0.124 F1000
X-17.621 Y-130.849 I-0.173 J0.124
S5000
X-17.276 Y-131.097 Z-1.023 I0.173 J-0.124 F333.3
X-17.621 Y-130.849 Z-1.047 I-0.173 J0.124
X-17.276 Y-131.097 Z-1.07 I0.173 J-0.124
X-17.621 Y-130.849 Z-1.093 I-0.173 J0.124
X-17.276 Y-131.097 Z-1.117 I0.173 J-0.124
X-17.621 Y-130.849 Z-1.14 I-0.173 J0.124
X-17.276 Y-131.097 Z-1.163 I0.173 J-0.124
X-17.621 Y-130.849 Z-1.187 I-0.173 J0.124
X-17.276 Y-131.097 Z-1.21 I0.173 J-0.124
X-17.621 Y-130.849 Z-1.233 I-0.173 J0.124
X-17.276 Y-131.097 Z-1.257 I0.173 J-0.124
X-17.621 Y-130.849 Z-1.28 I-0.173 J0.124
X-17.276 Y-131.097 Z-1.303 I0.173 J-0.124
X-17.621 Y-130.849 Z-1.327 I-0.173 J0.124
X-17.276 Y-131.097 Z-1.35 I0.173 J-0.124
X-17.621 Y-130.849 Z-1.373 I-0.173 J0.124
X-17.276 Y-131.097 Z-1.397 I0.173 J-0.124
X-17.621 Y-130.849 Z-1.42 I-0.173 J0.124
X-17.276 Y-131.097 Z-1.443 I0.173 J-0.124
X-17.621 Y-130.849 Z-1.467 I-0.173 J0.124
X-17.276 Y-131.097 Z-1.49 I0.173 J-0.124
X-17.621 Y-130.849 Z-1.513 I-0.173 J0.124
X-17.276 Y-131.097 Z-1.537 I0.173 J-0.124
X-17.621 Y-130.849 Z-1.56 I-0.173 J0.124
X-17.276 Y-131.097 Z-1.583 I0.173 J-0.124
X-17.621 Y-130.849 Z-1.607 I-0.173 J0.124
X-17.276 Y-131.097 Z-1.63 I0.173 J-0.124
X-17.621 Y-130.849 Z-1.653 I-0.173 J0.124
X-17.276 Y-131.097 Z-1.677 I0.173 J-0.124
X-17.621 Y-130.849 Z-1.7 I-0.173 J0.124
X-17.276 Y-131.097 Z-1.723 I0.173 J-0.124
X-17.621 Y-130.849 Z-1.747 I-0.173 J0.124
X-17.276 Y-131.097 Z-1.77 I0.173 J-0.124
X-17.621 Y-130.849 Z-1.793 I-0.173 J0.124
X-17.276 Y-131.097 Z-1.817 I0.173 J-0.124
X-17.621 Y-130.849 Z-1.84 I-0.173 J0.124
X-17.276 Y-131.097 Z-1.863 I0.173 J-0.124
X-17.621 Y-130.849 Z-1.887 I-0.173 J0.124
X-17.276 Y-131.097 Z-1.91 I0.173 J-0.124
X-17.621 Y-130.849 Z-1.933 I-0.173 J0.124
X-17.276 Y-131.097 Z-1.957 I0.173 J-0.124
X-17.621 Y-130.849 Z-1.98 I-0.173 J0.124
X-17.347 Y-131.16 Z-2 I0.173 J-0.124
S3000
X-17.55 Y-130.786 I-0.102 J0.187 F1000
X-17.347 Y-131.16 I0.102 J-0.187
S5000
X-17.55 Y-130.786 Z-2.023 I-0.102 J0.187 F333.3
X-17.347 Y-131.16 Z-2.047 I0.102 J-0.187
X-17.55 Y-130.786 Z-2.07 I-0.102 J0.187
X-17.347 Y-131.16 Z-2.093 I0.102 J-0.187
X-17.55 Y-130.786 Z-2.117 I-0.102 J0.187
X-17.347 Y-131.16 Z-2.14 I0.102 J-0.187
X-17.55 Y-130.786 Z-2.163 I-0.102 J0.187
X-17.347 Y-131.16 Z-2.187 I0.102 J-0.187
X-17.55 Y-130.786 Z-2.21 I-0.102 J0.187
X-17.347 Y-131.16 Z-2.233 I0.102 J-0.187
X-17.55 Y-130.786 Z-2.257 I-0.102 J0.187
X-17.347 Y-131.16 Z-2.28 I0.102 J-0.187
X-17.55 Y-130.786 Z-2.303 I-0.102 J0.187
X-17.347 Y-131.16 Z-2.327 I0.102 J-0.187
X-17.55 Y-130.786 Z-2.35 I-0.102 J0.187
X-17.347 Y-131.16 Z-2.373 I0.102 J-0.187
X-17.55 Y-130.786 Z-2.397 I-0.102 J0.187
X-17.347 Y-131.16 Z-2.42 I0.102 J-0.187
X-17.55 Y-130.786 Z-2.443 I-0.102 J0.187
X-17.347 Y-131.16 Z-2.467 I0.102 J-0.187
X-17.55 Y-130.786 Z-2.49 I-0.102 J0.187
X-17.347 Y-131.16 Z-2.513 I0.102 J-0.187
X-17.55 Y-130.786 Z-2.537 I-0.102 J0.187
X-17.347 Y-131.16 Z-2.56 I0.102 J-0.187
X-17.55 Y-130.786 Z-2.583 I-0.102 J0.187
X-17.347 Y-131.16 Z-2.607 I0.102 J-0.187
X-17.55 Y-130.786 Z-2.63 I-0.102 J0.187
X-17.347 Y-131.16 Z-2.653 I0.102 J-0.187
X-17.55 Y-130.786 Z-2.677 I-0.102 J0.187
X-17.347 Y-131.16 Z-2.7 I0.102 J-0.187
X-17.55 Y-130.786 Z-2.723 I-0.102 J0.187
X-17.347 Y-131.16 Z-2.747 I0.102 J-0.187
X-17.55 Y-130.786 Z-2.77 I-0.102 J0.187
X-17.347 Y-131.16 Z-2.793 I0.102 J-0.187
X-17.55 Y-130.786 Z-2.817 I-0.102 J0.187
X-17.347 Y-131.16 Z-2.84 I0.102 J-0.187
X-17.55 Y-130.786 Z-2.863 I-0.102 J0.187
X-17.347 Y-131.16 Z-2.887 I0.102 J-0.187
X-17.55 Y-130.786 Z-2.91 I-0.102 J0.187
X-17.347 Y-131.16 Z-2.933 I0.102 J-0.187
X-17.55 Y-130.786 Z-2.957 I-0.102 J0.187
X-17.347 Y-131.16 Z-2.98 I0.102 J-0.187
X-17.459 Y-130.761 Z-3 I-0.102 J0.187
S3000
X-17.438 Y-131.185 I0.011 J-0.212 F1000
X-17.459 Y-130.761 I-0.011 J0.212
S5000
X-17.438 Y-131.185 Z-3.023 I0.011 J-0.212 F333.3
X-17.459 Y-130.761 Z-3.047 I-0.011 J0.212
X-17.438 Y-131.185 Z-3.07 I0.011 J-0.212
X-17.459 Y-130.761 Z-3.093 I-0.011 J0.212
X-17.438 Y-131.185 Z-3.117 I0.011 J-0.212
X-17.459 Y-130.761 Z-3.14 I-0.011 J0.212
X-17.438 Y-131.185 Z-3.163 I0.011 J-0.212
X-17.459 Y-130.761 Z-3.187 I-0.011 J0.212
X-17.438 Y-131.185 Z-3.21 I0.011 J-0.212
X-17.459 Y-130.761 Z-3.233 I-0.011 J0.212
X-17.438 Y-131.185 Z-3.257 I0.011 J-0.212
X-17.459 Y-130.761 Z-3.28 I-0.011 J0.212
X-17.438 Y-131.185 Z-3.303 I0.011 J-0.212
X-17.459 Y-130.761 Z-3.327 I-0.011 J0.212
X-17.438 Y-131.185 Z-3.35 I0.011 J-0.212
X-17.459 Y-130.761 Z-3.373 I-0.011 J0.212
X-17.438 Y-131.185 Z-3.397 I0.011 J-0.212
X-17.459 Y-130.761 Z-3.42 I-0.011 J0.212
X-17.438 Y-131.185 Z-3.443 I0.011 J-0.212
X-17.459 Y-130.761 Z-3.467 I-0.011 J0.212
X-17.438 Y-131.185 Z-3.49 I0.011 J-0.212
X-17.459 Y-130.761 Z-3.513 I-0.011 J0.212
X-17.438 Y-131.185 Z-3.537 I0.011 J-0.212
X-17.459 Y-130.761 Z-3.56 I-0.011 J0.212
X-17.438 Y-131.185 Z-3.583 I0.011 J-0.212
X-17.459 Y-130.761 Z-3.607 I-0.011 J0.212
X-17.438 Y-131.185 Z-3.63 I0.011 J-0.212
X-17.459 Y-130.761 Z-3.653 I-0.011 J0.212
X-17.438 Y-131.185 Z-3.677 I0.011 J-0.212
X-17.459 Y-130.761 Z-3.7 I-0.011 J0.212
X-17.438 Y-131.185 Z-3.723 I0.011 J-0.212
X-17.459 Y-130.761 Z-3.747 I-0.011 J0.212
X-17.438 Y-131.185 Z-3.77 I0.011 J-0.212
X-17.459 Y-130.761 Z-3.793 I-0.011 J0.212
X-17.438 Y-131.185 Z-3.817 I0.011 J-0.212
X-17.459 Y-130.761 Z-3.84 I-0.011 J0.212
X-17.438 Y-131.185 Z-3.863 I0.011 J-0.212
X-17.459 Y-130.761 Z-3.887 I-0.011 J0.212
X-17.438 Y-131.185 Z-3.91 I0.011 J-0.212
X-17.459 Y-130.761 Z-3.933 I-0.011 J0.212
X-17.438 Y-131.185 Z-3.957 I0.011 J-0.212
X-17.459 Y-130.761 Z-3.98 I-0.011 J0.212
X-17.531 Y-131.169 Z-4 I0.011 J-0.212
S3000
X-17.366 Y-130.777 I0.083 J0.196 F1000
X-17.531 Y-131.169 I-0.083 J-0.196
S5000
X-17.366 Y-130.777 Z-4.023 I0.083 J0.196 F333.3
X-17.531 Y-131.169 Z-4.047 I-0.083 J-0.196
X-17.366 Y-130.777 Z-4.07 I0.083 J0.196
X-17.531 Y-131.169 Z-4.093 I-0.083 J-0.196
X-17.366 Y-130.777 Z-4.117 I0.083 J0.196
X-17.531 Y-131.169 Z-4.14 I-0.083 J-0.196
X-17.366 Y-130.777 Z-4.163 I0.083 J0.196
X-17.531 Y-131.169 Z-4.187 I-0.083 J-0.196
X-17.366 Y-130.777 Z-4.21 I0.083 J0.196
X-17.531 Y-131.169 Z-4.233 I-0.083 J-0.196
X-17.366 Y-130.777 Z-4.257 I0.083 J0.196
X-17.531 Y-131.169 Z-4.28 I-0.083 J-0.196
X-17.289 Y-130.832 Z-4.3 I0.083 J0.196
S3000
X-17.608 Y-131.114 I-0.16 J-0.141 F1000
X-17.289 Y-130.832 I0.16 J0.141
G1 Z5
X-16.239 Y-138.087
Z2
S5000
G3 X-16.259 Y-138.511 Z1.977 I-0.01 J-0.212 F333.3
X-16.239 Y-138.087 Z1.953 I0.01 J0.212
X-16.259 Y-138.511 Z1.93 I-0.01 J-0.212
X-16.239 Y-138.087 Z1.907 I0.01 J0.212
X-16.259 Y-138.511 Z1.884 I-0.01 J-0.212
X-16.239 Y-138.087 Z1.86 I0.01 J0.212
X-16.259 Y-138.511 Z1.837 I-0.01 J-0.212
X-16.239 Y-138.087 Z1.814 I0.01 J0.212
X-16.259 Y-138.511 Z1.79 I-0.01 J-0.212
X-16.239 Y-138.087 Z1.767 I0.01 J0.212
X-16.259 Y-138.511 Z1.744 I-0.01 J-0.212
X-16.239 Y-138.087 Z1.721 I0.01 J0.212
X-16.259 Y-138.511 Z1.697 I-0.01 J-0.212
X-16.239 Y-138.087 Z1.674 I0.01 J0.212
X-16.259 Y-138.511 Z1.651 I-0.01 J-0.212
X-16.239 Y-138.087 Z1.627 I0.01 J0.212
X-16.259 Y-138.511 Z1.604 I-0.01 J-0.212
X-16.239 Y-138.087 Z1.581 I0.01 J0.212
X-16.259 Y-138.511 Z1.558 I-0.01 J-0.212
X-16.239 Y-138.087 Z1.534 I0.01 J0.212
X-16.259 Y-138.511 Z1.511 I-0.01 J-0.212
X-16.239 Y-138.087 Z1.488 I0.01 J0.212
X-16.259 Y-138.511 Z1.464 I-0.01 J-0.212
X-16.239 Y-138.087 Z1.441 I0.01 J0.212
X-16.259 Y-138.511 Z1.418 I-0.01 J-0.212
X-16.239 Y-138.087 Z1.394 I0.01 J0.212
X-16.259 Y-138.511 Z1.371 I-0.01 J-0.212
X-16.239 Y-138.087 Z1.348 I0.01 J0.212
X-16.259 Y-138.511 Z1.325 I-0.01 J-0.212
X-16.239 Y-138.087 Z1.301 I0.01 J0.212
X-16.259 Y-138.511 Z1.278 I-0.01 J-0.212
X-16.239 Y-138.087 Z1.255 I0.01 J0.212
X-16.259 Y-138.511 Z1.231 I-0.01 J-0.212
X-16.239 Y-138.087 Z1.208 I0.01 J0.212
X-16.259 Y-138.511 Z1.185 I-0.01 J-0.212
X-16.239 Y-138.087 Z1.162 I0.01 J0.212
X-16.259 Y-138.511 Z1.138 I-0.01 J-0.212
X-16.239 Y-138.087 Z1.115 I0.01 J0.212
X-16.259 Y-138.511 Z1.092 I-0.01 J-0.212
X-16.239 Y-138.087 Z1.068 I0.01 J0.212
X-16.259 Y-138.511 Z1.045 I-0.01 J-0.212
X-16.239 Y-138.087 Z1.022 I0.01 J0.212
X-16.259 Y-138.511 Z0.999 I-0.01 J-0.212
X-16.239 Y-138.087 Z0.975 I0.01 J0.212
X-16.259 Y-138.511 Z0.952 I-0.01 J-0.212
X-16.239 Y-138.087 Z0.929 I0.01 J0.212
X-16.259 Y-138.511 Z0.905 I-0.01 J-0.212
X-16.239 Y-138.087 Z0.882 I0.01 J0.212
X-16.259 Y-138.511 Z0.859 I-0.01 J-0.212
X-16.239 Y-138.087 Z0.836 I0.01 J0.212
X-16.259 Y-138.511 Z0.812 I-0.01 J-0.212
X-16.239 Y-138.087 Z0.789 I0.01 J0.212
X-16.259 Y-138.511 Z0.766 I-0.01 J-0.212
X-16.239 Y-138.087 Z0.742 I0.01 J0.212
X-16.259 Y-138.511 Z0.719 I-0.01 J-0.212
X-16.239 Y-138.087 Z0.696 I0.01 J0.212
X-16.259 Y-138.511 Z0.673 I-0.01 J-0.212
X-16.239 Y-138.087 Z0.649 I0.01 J0.212
X-16.259 Y-138.511 Z0.626 I-0.01 J-0.212
X-16.239 Y-138.087 Z0.603 I0.01 J0.212
X-16.259 Y-138.511 Z0.579 I-0.01 J-0.212
X-16.239 Y-138.087 Z0.556 I0.01 J0.212
X-16.259 Y-138.511 Z0.533 I-0.01 J-0.212
X-16.239 Y-138.087 Z0.51 I0.01 J0.212
X-16.259 Y-138.511 Z0.486 I-0.01 J-0.212
X-16.239 Y-138.087 Z0.463 I0.01 J0.212
X-16.259 Y-138.511 Z0.44 I-0.01 J-0.212
X-16.239 Y-138.087 Z0.416 I0.01 J0.212
X-16.259 Y-138.511 Z0.393 I-0.01 J-0.212
X-16.239 Y-138.087 Z0.37 I0.01 J0.212
X-16.259 Y-138.511 Z0.346 I-0.01 J-0.212
X-16.239 Y-138.087 Z0.323 I0.01 J0.212
X-16.259 Y-138.511 Z0.3 I-0.01 J-0.212
X-16.239 Y-138.087 Z0.277 I0.01 J0.212
X-16.259 Y-138.511 Z0.253 I-0.01 J-0.212
X-16.239 Y-138.087 Z0.23 I0.01 J0.212
X-16.259 Y-138.511 Z0.207 I-0.01 J-0.212
X-16.239 Y-138.087 Z0.183 I0.01 J0.212
X-16.259 Y-138.511 Z0.16 I-0.01 J-0.212
X-16.239 Y-138.087 Z0.137 I0.01 J0.212
X-16.259 Y-138.511 Z0.114 I-0.01 J-0.212
X-16.239 Y-138.087 Z0.09 I0.01 J0.212
X-16.259 Y-138.511 Z0.067 I-0.01 J-0.212
X-16.239 Y-138.087 Z0.044 I0.01 J0.212
X-16.259 Y-138.511 Z0.02 I-0.01 J-0.212
X-16.239 Y-138.087 Z-0.003 I0.01 J0.212
X-16.259 Y-138.511 Z-0.026 I-0.01 J-0.212
X-16.239 Y-138.087 Z-0.049 I0.01 J0.212
X-16.259 Y-138.511 Z-0.073 I-0.01 J-0.212
X-16.239 Y-138.087 Z-0.096 I0.01 J0.212
X-16.259 Y-138.511 Z-0.119 I-0.01 J-0.212
X-16.239 Y-138.087 Z-0.143 I0.01 J0.212
X-16.259 Y-138.511 Z-0.166 I-0.01 J-0.212
X-16.239 Y-138.087 Z-0.189 I0.01 J0.212
X-16.259 Y-138.511 Z-0.212 I-0.01 J-0.212
X-16.239 Y-138.087 Z-0.236 I0.01 J0.212
X-16.259 Y-138.511 Z-0.259 I-0.01 J-0.212
X-16.239 Y-138.087 Z-0.282 I0.01 J0.212
X-16.259 Y-138.511 Z-0.306 I-0.01 J-0.212
X-16.239 Y-138.087 Z-0.329 I0.01 J0.212
X-16.259 Y-138.511 Z-0.352 I-0.01 J-0.212
X-16.239 Y-138.087 Z-0.375 I0.01 J0.212
X-16.259 Y-138.511 Z-0.399 I-0.01 J-0.212
X-16.239 Y-138.087 Z-0.422 I0.01 J0.212
X-16.259 Y-138.511 Z-0.445 I-0.01 J-0.212
X-16.239 Y-138.087 Z-0.469 I0.01 J0.212
X-16.259 Y-138.511 Z-0.492 I-0.01 J-0.212
X-16.239 Y-138.087 Z-0.515 I0.01 J0.212
X-16.259 Y-138.511 Z-0.538 I-0.01 J-0.212
X-16.239 Y-138.087 Z-0.562 I0.01 J0.212
X-16.259 Y-138.511 Z-0.585 I-0.01 J-0.212
X-16.239 Y-138.087 Z-0.608 I0.01 J0.212
X-16.259 Y-138.511 Z-0.632 I-0.01 J-0.212
X-16.239 Y-138.087 Z-0.655 I0.01 J0.212
X-16.259 Y-138.511 Z-0.678 I-0.01 J-0.212
X-16.239 Y-138.087 Z-0.702 I0.01 J0.212
X-16.259 Y-138.511 Z-0.725 I-0.01 J-0.212
X-16.239 Y-138.087 Z-0.748 I0.01 J0.212
X-16.259 Y-138.511 Z-0.771 I-0.01 J-0.212
X-16.239 Y-138.087 Z-0.795 I0.01 J0.212
X-16.259 Y-138.511 Z-0.818 I-0.01 J-0.212
X-16.239 Y-138.087 Z-0.841 I0.01 J0.212
X-16.259 Y-138.511 Z-0.865 I-0.01 J-0.212
X-16.239 Y-138.087 Z-0.888 I0.01 J0.212
X-16.259 Y-138.511 Z-0.911 I-0.01 J-0.212
X-16.239 Y-138.087 Z-0.934 I0.01 J0.212
X-16.259 Y-138.511 Z-0.958 I-0.01 J-0.212
X-16.239 Y-138.087 Z-0.981 I0.01 J0.212
X-16.373 Y-138.472 Z-1 I-0.01 J-0.212
S3000
X-16.125 Y-138.127 I0.124 J0.172 F1000
X-16.373 Y-138.472 I-0.124 J-0.172
S5000
X-16.125 Y-138.127 Z-1.023 I0.124 J0.172 F333.3
X-16.373 Y-138.472 Z-1.047 I-0.124 J-0.172
X-16.125 Y-138.127 Z-1.07 I0.124 J0.172
X-16.373 Y-138.472 Z-1.093 I-0.124 J-0.172
X-16.125 Y-138.127 Z-1.116 I0.124 J0.172
X-16.373 Y-138.472 Z-1.14 I-0.124 J-0.172
X-16.125 Y-138.127 Z-1.163 I0.124 J0.172
X-16.373 Y-138.472 Z-1.186 I-0.124 J-0.172
X-16.125 Y-138.127 Z-1.21 I0.124 J0.172
X-16.373 Y-138.472 Z-1.233 I-0.124 J-0.172
X-16.125 Y-138.127 Z-1.256 I0.124 J0.172
X-16.373 Y-138.472 Z-1.279 I-0.124 J-0.172
X-16.125 Y-138.127 Z-1.303 I0.124 J0.172
X-16.373 Y-138.472 Z-1.326 I-0.124 J-0.172
X-16.125 Y-138.127 Z-1.349 I0.124 J0.172
X-16.373 Y-138.472 Z-1.373 I-0.124 J-0.172
X-16.125 Y-138.127 Z-1.396 I0.124 J0.172
X-16.373 Y-138.472 Z-1.419 I-0.124 J-0.172
X-16.125 Y-138.127 Z-1.442 I0.124 J0.172
X-16.373 Y-138.472 Z-1.466 I-0.124 J-0.172
X-16.125 Y-138.127 Z-1.489 I0.124 J0.172
X-16.373 Y-138.472 Z-1.512 I-0.124 J-0.172
X-16.125 Y-138.127 Z-1.536 I0.124 J0.172
X-16.373 Y-138.472 Z-1.559 I-0.124 J-0.172
X-16.125 Y-138.127 Z-1.582 I0.124 J0.172
X-16.373 Y-138.472 Z-1.606 I-0.124 J-0.172
X-16.125 Y-138.127 Z-1.629 I0.124 J0.172
X-16.373 Y-138.472 Z-1.652 I-0.124 J-0.172
X-16.125 Y-138.127 Z-1.675 I0.124 J0.172
X-16.373 Y-138.472 Z-1.699 I-0.124 J-0.172
X-16.125 Y-138.127 Z-1.722 I0.124 J0.172
X-16.373 Y-138.472 Z-1.745 I-0.124 J-0.172
X-16.125 Y-138.127 Z-1.769 I0.124 J0.172
X-16.373 Y-138.472 Z-1.792 I-0.124 J-0.172
X-16.125 Y-138.127 Z-1.815 I0.124 J0.172
X-16.373 Y-138.472 Z-1.838 I-0.124 J-0.172
X-16.125 Y-138.127 Z-1.862 I0.124 J0.172
X-16.373 Y-138.472 Z-1.885 I-0.124 J-0.172
X-16.125 Y-138.127 Z-1.908 I0.124 J0.172
X-16.373 Y-138.472 Z-1.932 I-0.124 J-0.172
X-16.125 Y-138.127 Z-1.955 I0.124 J0.172
X-16.373 Y-138.472 Z-1.978 I-0.124 J-0.172
X-16.095 Y-138.154 Z-2 I0.124 J0.172
S3000
X-16.404 Y-138.445 I-0.154 J-0.146 F1000
X-16.095 Y-138.154 I0.154 J0.146
S5000
X-16.404 Y-138.445 Z-2.023 I-0.154 J-0.146 F333.3
X-16.095 Y-138.154 Z-2.047 I0.154 J0.146
X-16.404 Y-138.445 Z-2.07 I-0.154 J-0.146
X-16.095 Y-138.154 Z-2.093 I0.154 J0.146
X-16.404 Y-138.445 Z-2.116 I-0.154 J-0.146
X-16.095 Y-138.154 Z-2.14 I0.154 J0.146
X-16.404 Y-138.445 Z-2.163 I-0.154 J-0.146
X-16.095 Y-138.154 Z-2.186 I0.154 J0.146
X-16.404 Y-138.445 Z-2.21 I-0.154 J-0.146
X-16.095 Y-138.154 Z-2.233 I0.154 J0.146
X-16.404 Y-138.445 Z-2.256 I-0.154 J-0.146
X-16.095 Y-138.154 Z-2.279 I0.154 J0.146
X-16.404 Y-138.445 Z-2.303 I-0.154 J-0.146
X-16.095 Y-138.154 Z-2.326 I0.154 J0.146
X-16.404 Y-138.445 Z-2.349 I-0.154 J-0.146
X-16.095 Y-138.154 Z-2.373 I0.154 J0.146
X-16.404 Y-138.445 Z-2.396 I-0.154 J-0.146
X-16.095 Y-138.154 Z-2.419 I0.154 J0.146
X-16.404 Y-138.445 Z-2.442 I-0.154 J-0.146
X-16.095 Y-138.154 Z-2.466 I0.154 J0.146
X-16.404 Y-138.445 Z-2.489 I-0.154 J-0.146
X-16.095 Y-138.154 Z-2.512 I0.154 J0.146
X-16.404 Y-138.445 Z-2.536 I-0.154 J-0.146
X-16.095 Y-138.154 Z-2.559 I0.154 J0.146
X-16.404 Y-138.445 Z-2.582 I-0.154 J-0.146
X-16.095 Y-138.154 Z-2.606 I0.154 J0.146
X-16.404 Y-138.445 Z-2.629 I-0.154 J-0.146
X-16.095 Y-138.154 Z-2.652 I0.154 J0.146
X-16.404 Y-138.445 Z-2.675 I-0.154 J-0.146
X-16.095 Y-138.154 Z-2.699 I0.154 J0.146
X-16.404 Y-138.445 Z-2.722 I-0.154 J-0.146
X-16.095 Y-138.154 Z-2.745 I0.154 J0.146
X-16.404 Y-138.445 Z-2.769 I-0.154 J-0.146
X-16.095 Y-138.154 Z-2.792 I0.154 J0.146
X-16.404 Y-138.445 Z-2.815 I-0.154 J-0.146
X-16.095 Y-138.154 Z-2.838 I0.154 J0.146
X-16.404 Y-138.445 Z-2.862 I-0.154 J-0.146
X-16.095 Y-138.154 Z-2.885 I0.154 J0.146
X-16.404 Y-138.445 Z-2.908 I-0.154 J-0.146
X-16.095 Y-138.154 Z-2.932 I0.154 J0.146
X-16.404 Y-138.445 Z-2.955 I-0.154 J-0.146
X-16.095 Y-138.154 Z-2.978 I0.154 J0.146
X-16.429 Y-138.413 Z-3 I-0.154 J-0.146
S3000
X-16.07 Y-138.186 I0.179 J0.114 F1000
X-16.429 Y-138.413 I-0.179 J-0.114
S5000
X-16.07 Y-138.186 Z-3.023 I0.179 J0.114 F333.3
X-16.429 Y-138.413 Z-3.047 I-0.179 J-0.114
X-16.07 Y-138.186 Z-3.07 I0.179 J0.114
X-16.429 Y-138.413 Z-3.093 I-0.179 J-0.114
X-16.07 Y-138.186 Z-3.116 I0.179 J0.114
X-16.429 Y-138.413 Z-3.14 I-0.179 J-0.114
X-16.07 Y-138.186 Z-3.163 I0.179 J0.114
X-16.429 Y-138.413 Z-3.186 I-0.179 J-0.114
X-16.07 Y-138.186 Z-3.21 I0.179 J0.114
X-16.429 Y-138.413 Z-3.233 I-0.179 J-0.114
X-16.07 Y-138.186 Z-3.256 I0.179 J0.114
X-16.429 Y-138.413 Z-3.279 I-0.179 J-0.114
X-16.07 Y-138.186 Z-3.303 I0.179 J0.114
X-16.429 Y-138.413 Z-3.326 I-0.179 J-0.114
X-16.07 Y-138.186 Z-3.349 I0.179 J0.114
X-16.429 Y-138.413 Z-3.373 I-0.179 J-0.114
X-16.07 Y-138.186 Z-3.396 I0.179 J0.114
X-16.429 Y-138.413 Z-3.419 I-0.179 J-0.114
X-16.07 Y-138.186 Z-3.442 I0.179 J0.114
X-16.429 Y-138.413 Z-3.466 I-0.179 J-0.114
X-16.07 Y-138.186 Z-3.489 I0.179 J0.114
X-16.429 Y-138.413 Z-3.512 I-0.179 J-0.114
X-16.07 Y-138.186 Z-3.536 I0.179 J0.114
X-16.429 Y-138.413 Z-3.559 I-0.179 J-0.114
X-16.07 Y-138.186 Z-3.582 I0.179 J0.114
X-16.429 Y-138.413 Z-3.606 I-0.179 J-0.114
X-16.07 Y-138.186 Z-3.629 I0.179 J0.114
X-16.429 Y-138.413 Z-3.652 I-0.179 J-0.114
X-16.07 Y-138.186 Z-3.675 I0.179 J0.114
X-16.429 Y-138.413 Z-3.699 I-0.179 J-0.114
X-16.07 Y-138.186 Z-3.722 I0.179 J0.114
X-16.429 Y-138.413 Z-3.745 I-0.179 J-0.114
X-16.07 Y-138.186 Z-3.769 I0.179 J0.114
X-16.429 Y-138.413 Z-3.792 I-0.179 J-0.114
X-16.07 Y-138.186 Z-3.815 I0.179 J0.114
X-16.429 Y-138.413 Z-3.838 I-0.179 J-0.114
X-16.07 Y-138.186 Z-3.862 I0.179 J0.114
X-16.429 Y-138.413 Z-3.885 I-0.179 J-0.114
X-16.07 Y-138.186 Z-3.908 I0.179 J0.114
X-16.429 Y-138.413 Z-3.932 I-0.179 J-0.114
X-16.07 Y-138.186 Z-3.955 I0.179 J0.114
X-16.429 Y-138.413 Z-3.978 I-0.179 J-0.114
X-16.052 Y-138.222 Z-4 I0.179 J0.114
S3000
X-16.447 Y-138.377 I-0.198 J-0.077 F1000
X-16.052 Y-138.222 I0.198 J0.077
S5000
X-16.447 Y-138.377 Z-4.023 I-0.198 J-0.077 F333.3
X-16.052 Y-138.222 Z-4.047 I0.198 J0.077
X-16.447 Y-138.377 Z-4.07 I-0.198 J-0.077
X-16.052 Y-138.222 Z-4.093 I0.198 J0.077
X-16.447 Y-138.377 Z-4.116 I-0.198 J-0.077
X-16.052 Y-138.222 Z-4.14 I0.198 J0.077
X-16.447 Y-138.377 Z-4.163 I-0.198 J-0.077
X-16.052 Y-138.222 Z-4.186 I0.198 J0.077
X-16.447 Y-138.377 Z-4.21 I-0.198 J-0.077
X-16.052 Y-138.222 Z-4.233 I0.198 J0.077
X-16.447 Y-138.377 Z-4.256 I-0.198 J-0.077
X-16.052 Y-138.222 Z-4.279 I0.198 J0.077
X-16.462 Y-138.299 Z-4.3 I-0.198 J-0.077
S3000
X-16.037 Y-138.299 I0.212 J0 F1000
X-16.462 Y-138.299 I-0.212 J0
G1 Z15
(When using Fusion 360 for Personal Use, the feedrate of)
(rapid moves is reduced to match the feedrate of cutting)
(moves, which can increase machining time. Unrestricted rapid)
(moves are available with a Fusion 360 Subscription.)

(2D-Kontur2)
G0 X-32.617 Y-28.5
G1 Z15 F1000
Z5
Z2 F333.3
S5000
X-32.626 Y-28.416
X-32.644 Y-28.203 Z1.999
X-32.649 Y-28.112
X-32.655 Y-27.891 Z1.998
Y-27.805
X-32.649 Y-27.576 Z1.997
X-32.645 Y-27.499
X-32.627 Y-27.262 Z1.996
X-32.62 Y-27.191
X-32.59 Y-26.946
X-32.581 Y-26.883 Z1.995
X-32.54 Y-26.63
X-32.529 Y-26.573
X-32.477 Y-26.314 Z1.994
X-32.466 Y-26.262
X-32.403 Y-25.997 Z1.993
X-32.391 Y-25.951
X-32.319 Y-25.68 Z1.992
X-32.306 Y-25.637
X-32.224 Y-25.36 Z1.991
X-32.212 Y-25.323
X-32.121 Y-25.042 Z1.99
X-32.104 Y-24.992
X-31.896 Y-24.419 Z1.988
X-31.874 Y-24.363
X-31.637 Y-23.779 Z1.986
X-31.618 Y-23.734
X-31.357 Y-23.144 Z1.984
X-31.34 Y-23.107
X-31.06 Y-22.517 Z1.982
X-31.045 Y-22.487
X-30.753 Y-21.901 Z1.98
X-30.741 Y-21.879
X-30.442 Y-21.302 Z1.978
X-30.433 Y-21.286
X-30.133 Y-20.722 Z1.976
X-30.128 Y-20.714
X-29.832 Y-20.168 Z1.975
Y-20.167
X-29.55 Y-19.647 Z1.973
X-29.29 Y-19.162 Z1.971
X-29.058 Y-18.713 Z1.97
X-28.958 Y-18.512 Z1.969
X-28.867 Y-18.32
X-28.787 Y-18.142 Z1.968
X-28.718 Y-17.978
X-28.661 Y-17.83 Z1.967
X-28.616 Y-17.7
X-28.583 Y-17.587
X-28.56 Y-17.493 Z1.966
X-28.546 Y-17.417
X-28.539 Y-17.358
X-28.537 Y-17.312
X-28.539 Y-17.276
X-28.542 Y-17.245
X-28.549 Y-17.213 Z1.965
X-28.56 Y-17.172
X-28.579 Y-17.121
X-28.608 Y-17.057
X-28.65 Y-16.976
X-28.706 Y-16.881 Z1.964
X-28.778 Y-16.771
X-28.866 Y-16.647
X-28.969 Y-16.509 Z1.963
X-29.087 Y-16.36
X-29.217 Y-16.202 Z1.962
X-29.521 Y-15.843 Z1.961
X-29.859 Y-15.451 Z1.959
X-29.864 Y-15.446
X-30.223 Y-15.027 Z1.958
X-30.24 Y-15.007
X-30.608 Y-14.564 Z1.956
X-30.634 Y-14.531
X-31.001 Y-14.064 Z1.954
X-31.034 Y-14.02
X-31.393 Y-13.53 Z1.952
X-31.433 Y-13.472
X-31.773 Y-12.96 Z1.95
X-31.818 Y-12.889
X-32.133 Y-12.356 Z1.948
X-32.168 Y-12.293
X-32.313 Y-12.02 Z1.947
X-32.338 Y-11.972
X-32.474 Y-11.694 Z1.946
X-32.497 Y-11.643
X-32.623 Y-11.362 Z1.945
X-32.647 Y-11.305
X-32.761 Y-11.02 Z1.944
X-32.784 Y-10.959
X-32.886 Y-10.67 Z1.943
X-32.908 Y-10.604
X-32.996 Y-10.313 Z1.942
X-33.016 Y-10.242
X-33.091 Y-9.948 Z1.941
X-33.108 Y-9.872
X-33.168 Y-9.576 Z1.94
X-33.182 Y-9.496
X-33.226 Y-9.199 Z1.939
X-33.237 Y-9.115
X-33.265 Y-8.817 Z1.938
X-33.271 Y-8.729 Z1.937
X-33.283 Y-8.431
X-33.284 Y-8.34 Z1.936
X-33.278 Y-8.042 Z1.935
X-33.274 Y-7.95
X-33.251 Y-7.653 Z1.934
X-33.241 Y-7.56
X-33.201 Y-7.264 Z1.933
X-33.186 Y-7.172
X-33.128 Y-6.879 Z1.932
X-33.108 Y-6.789
X-33.033 Y-6.498 Z1.931
X-33.007 Y-6.41
X-32.915 Y-6.124 Z1.93
X-32.886 Y-6.039
X-32.777 Y-5.758 Z1.929
X-32.744 Y-5.677
X-32.62 Y-5.401 Z1.928
X-32.583 Y-5.325 Z1.927
X-32.444 Y-5.056
X-32.404 Y-4.982 Z1.926
X-32.252 Y-4.721 Z1.925
X-32.21 Y-4.653
X-32.044 Y-4.4 Z1.924
X-32 Y-4.335
X-31.823 Y-4.092 Z1.923
X-31.776 Y-4.03
X-31.589 Y-3.797 Z1.922
X-31.54 Y-3.739
X-31.344 Y-3.517 Z1.921
X-31.292 Y-3.461
X-31.088 Y-3.252 Z1.92
X-31.034 Y-3.199
X-30.823 Y-3.002 Z1.919
X-30.766 Y-2.951
X-30.55 Y-2.768 Z1.918
X-30.489 Y-2.719
X-30.269 Y-2.55 Z1.917
X-30.204 Y-2.503
X-29.981 Y-2.349 Z1.916
X-29.911 Y-2.304
X-29.686 Y-2.165 Z1.915
X-29.61 Y-2.122
X-29.384 Y-2 Z1.914
X-29.303 Y-1.959
X-29.076 Y-1.852 Z1.913
X-28.988 Y-1.814
X-28.762 Y-1.725 Z1.912
X-28.668 Y-1.691
X-28.443 Y-1.617 Z1.911
X-28.342 Y-1.588
X-28.119 Y-1.532 Z1.91
X-28.011 Y-1.508
X-27.791 Y-1.468 Z1.909
X-27.678 Y-1.452
X-27.46 Y-1.429 Z1.908
X-27.343 Y-1.421
X-27.128 Y-1.413 Z1.907
X-27.009 Y-1.414
X-26.797 Y-1.423
X-26.678 Y-1.432 Z1.906
X-26.469 Y-1.457
X-26.352 Y-1.475 Z1.905
X-26.147 Y-1.515
X-26.035 Y-1.541 Z1.904
X-25.834 Y-1.596
X-25.728 Y-1.628 Z1.903
X-25.53 Y-1.697
X-25.434 Y-1.734
X-25.238 Y-1.816 Z1.902
X-25.151 Y-1.856
X-24.959 Y-1.952 Z1.901
X-24.882 Y-1.992
X-24.692 Y-2.1 Z1.9
X-24.625 Y-2.14
X-24.437 Y-2.258 Z1.899
X-24.356 Y-2.313
X-23.984 Y-2.581 Z1.898
X-23.906 Y-2.641 Z1.897
X-23.537 Y-2.944 Z1.896
X-23.49 Y-2.984
X-23.117 Y-3.314 Z1.895
X-23.096 Y-3.334 Z1.894
X-22.717 Y-3.683 Z1.893
X-22.335 Y-4.033 Z1.892
X-21.955 Y-4.369 Z1.89
X-21.57 Y-4.687 Z1.889
X-21.177 Y-4.983 Z1.887
X-20.758 Y-5.262 Z1.886
X-20.559 Y-5.38 Z1.885
X-20.345 Y-5.498 Z1.884
X-20.126 Y-5.608
X-19.902 Y-5.711 Z1.883
X-19.673 Y-5.804 Z1.882
X-19.44 Y-5.89
X-19.202 Y-5.966 Z1.881
X-18.96 Y-6.033 Z1.88
X-18.715 Y-6.09
X-18.466 Y-6.137 Z1.879
X-18.214 Y-6.174 Z1.878
X-17.96 Y-6.201 Z1.877
X-17.705 Y-6.217
X-17.449 Y-6.222 Z1.876
X-17.192 Y-6.217 Z1.875
X-16.935 Y-6.201 Z1.874
X-16.68 Y-6.174
X-16.425 Y-6.137 Z1.873
X-16.173 Y-6.09 Z1.872
X-15.924 Y-6.033
X-15.678 Y-5.967 Z1.871
X-15.435 Y-5.891 Z1.87
X-15.196 Y-5.806 Z1.869
X-14.962 Y-5.713
X-14.733 Y-5.612 Z1.868
X-14.508 Y-5.503 Z1.867
X-14.288 Y-5.386
X-14.082 Y-5.269 Z1.866
X-13.651 Y-4.997 Z1.864
X-13.245 Y-4.708 Z1.863
X-12.849 Y-4.4 Z1.862
X-12.457 Y-4.075 Z1.86
X-12.063 Y-3.739 Z1.859
X-12.062 Y-3.738
X-11.672 Y-3.406 Z1.857
X-11.649 Y-3.386
X-11.266 Y-3.073 Z1.856
X-11.217 Y-3.034
X-10.837 Y-2.747 Z1.854
X-10.758 Y-2.691
X-10.376 Y-2.438 Z1.853
X-10.295 Y-2.388 Z1.852
X-10.102 Y-2.276
X-10.036 Y-2.24 Z1.851
X-9.842 Y-2.139
X-9.766 Y-2.103
X-9.569 Y-2.014 Z1.85
X-9.485 Y-1.978
X-9.285 Y-1.902 Z1.849
X-9.192 Y-1.869
X-8.989 Y-1.806 Z1.848
X-8.889 Y-1.778
X-8.683 Y-1.728 Z1.847
X-8.577 Y-1.706
X-8.368 Y-1.67 Z1.846
X-8.257 Y-1.655
X-8.046 Y-1.634
X-7.933 Y-1.627 Z1.845
X-7.718 Y-1.621
X-7.605 Y-1.622 Z1.844
X-7.387 Y-1.631
X-7.277 Y-1.639 Z1.843
X-7.056 Y-1.664
X-6.949 Y-1.68 Z1.842
X-6.726 Y-1.721
X-6.624 Y-1.743 Z1.841
X-6.398 Y-1.8
X-6.301 Y-1.827
X-6.074 Y-1.9 Z1.84
X-5.983 Y-1.932
X-5.755 Y-2.02 Z1.839
X-5.67 Y-2.056
X-5.441 Y-2.16 Z1.838
X-5.362 Y-2.199
X-5.133 Y-2.319 Z1.837
X-5.059 Y-2.36
X-4.831 Y-2.496 Z1.836
X-4.762 Y-2.539
X-4.536 Y-2.689 Z1.835
X-4.472 Y-2.735
X-4.249 Y-2.9 Z1.834
X-4.188 Y-2.947
X-3.969 Y-3.126 Z1.833
X-3.911 Y-3.175
X-3.698 Y-3.367 Z1.832
X-3.643 Y-3.419
X-3.436 Y-3.624 Z1.831
X-3.384 Y-3.678
X-3.185 Y-3.895 Z1.83
X-3.134 Y-3.952
X-2.944 Y-4.18 Z1.829
X-2.896 Y-4.241 Z1.828
X-2.717 Y-4.479
X-2.67 Y-4.544 Z1.827
X-2.503 Y-4.791
X-2.458 Y-4.861 Z1.826
X-2.304 Y-5.116 Z1.825
X-2.262 Y-5.19
X-2.122 Y-5.453 Z1.824
X-2.082 Y-5.532
X-1.957 Y-5.802 Z1.823
X-1.921 Y-5.885
X-1.812 Y-6.16 Z1.822
X-1.781 Y-6.249
X-1.688 Y-6.529 Z1.821
X-1.661 Y-6.621
X-1.586 Y-6.905 Z1.82
X-1.564 Y-7
X-1.507 Y-7.287 Z1.819
X-1.491 Y-7.384
X-1.452 Y-7.673 Z1.818
X-1.442 Y-7.771
X-1.421 Y-8.062 Z1.817
X-1.417 Y-8.159 Z1.816
X-1.413 Y-8.451
X-1.415 Y-8.547 Z1.815
X-1.43 Y-8.839 Z1.814
X-1.437 Y-8.931
X-1.468 Y-9.224 Z1.813
X-1.48 Y-9.312
X-1.528 Y-9.604 Z1.812
X-1.544 Y-9.688
X-1.608 Y-9.978 Z1.811
X-1.628 Y-10.057
X-1.707 Y-10.346 Z1.81
X-1.729 Y-10.419
X-1.822 Y-10.705 Z1.809
X-1.846 Y-10.773
X-1.954 Y-11.057 Z1.808
X-1.979 Y-11.119
X-2.098 Y-11.4 Z1.807
X-2.124 Y-11.457
X-2.256 Y-11.735 Z1.806
X-2.282 Y-11.787
X-2.424 Y-12.06 Z1.805
X-2.45 Y-12.108
X-2.602 Y-12.377 Z1.804
X-2.639 Y-12.44
X-2.968 Y-12.966 Z1.802
X-3.015 Y-13.036
X-3.37 Y-13.542 Z1.8
X-3.412 Y-13.598
X-3.785 Y-14.082 Z1.798
X-3.819 Y-14.125
X-4.202 Y-14.587 Z1.796
X-4.228 Y-14.618
X-4.61 Y-15.057 Z1.794
X-4.626 Y-15.075
X-5 Y-15.49 Z1.793
X-5.004 Y-15.495
X-5.354 Y-15.882 Z1.791
X-5.668 Y-16.237 Z1.79
X-5.802 Y-16.393 Z1.789
X-5.924 Y-16.541
X-6.03 Y-16.677 Z1.788
X-6.12 Y-16.799
X-6.193 Y-16.908 Z1.787
X-6.25 Y-17.001
X-6.292 Y-17.079
X-6.321 Y-17.141
X-6.339 Y-17.188 Z1.786
X-6.349 Y-17.224
X-6.355 Y-17.253
X-6.359 Y-17.28
X-6.36 Y-17.312
X-6.358 Y-17.354
X-6.351 Y-17.411
X-6.338 Y-17.486
X-6.315 Y-17.579 Z1.785
X-6.281 Y-17.691
X-6.235 Y-17.821
X-6.177 Y-17.968 Z1.784
X-6.107 Y-18.132
X-6.026 Y-18.311 Z1.783
X-5.933 Y-18.503 Z1.782
X-5.832 Y-18.705
X-5.598 Y-19.155 Z1.78
X-5.336 Y-19.641 Z1.779
X-5.052 Y-20.162 Z1.777
X-5.05 Y-20.164
X-4.754 Y-20.709 Z1.775
X-4.748 Y-20.719
X-4.447 Y-21.283 Z1.774
X-4.438 Y-21.299 Z1.773
X-4.138 Y-21.877 Z1.772
X-4.126 Y-21.9
X-3.834 Y-22.486 Z1.77
X-3.819 Y-22.517
X-3.54 Y-23.107 Z1.768
X-3.523 Y-23.145
X-3.262 Y-23.735 Z1.766
X-3.243 Y-23.781
X-3.007 Y-24.365 Z1.764
X-2.985 Y-24.422
X-2.779 Y-24.995 Z1.762
X-2.762 Y-25.045
X-2.671 Y-25.326 Z1.761
X-2.659 Y-25.365
X-2.578 Y-25.641 Z1.76
X-2.566 Y-25.683
X-2.494 Y-25.954 Z1.759
X-2.482 Y-26.001
X-2.421 Y-26.267 Z1.758
X-2.409 Y-26.319
X-2.358 Y-26.578 Z1.757
X-2.348 Y-26.636
X-2.308 Y-26.888 Z1.756
X-2.299 Y-26.952
X-2.27 Y-27.196
X-2.263 Y-27.267 Z1.755
X-2.246 Y-27.504
X-2.242 Y-27.582 Z1.754
X-2.237 Y-27.811
Y-27.896
X-2.244 Y-28.117 Z1.753
X-2.249 Y-28.208
X-2.268 Y-28.421 Z1.752
X-2.279 Y-28.519
X-2.31 Y-28.723 Z1.751
X-2.329 Y-28.825
X-2.371 Y-29.021 Z1.75
X-2.398 Y-29.126
X-2.453 Y-29.313 Z1.749
X-2.487 Y-29.419
X-2.554 Y-29.598
X-2.596 Y-29.702 Z1.748
X-2.673 Y-29.873
X-2.722 Y-29.972 Z1.747
X-2.81 Y-30.137
X-2.865 Y-30.23
X-2.963 Y-30.387 Z1.746
X-3.02 Y-30.471
X-3.129 Y-30.622 Z1.745
X-3.186 Y-30.697
X-3.305 Y-30.842 Z1.744
X-3.388 Y-30.936
X-3.65 Y-31.21 Z1.743
X-3.749 Y-31.305
X-4.043 Y-31.563 Z1.742
X-4.119 Y-31.626 Z1.741
X-4.439 Y-31.873 Z1.74
X-4.491 Y-31.912
X-4.832 Y-32.154 Z1.739
X-4.86 Y-32.174
X-5.217 Y-32.416 Z1.737
X-5.224 Y-32.421
X-5.586 Y-32.664 Z1.736
X-5.941 Y-32.907 Z1.735
X-6.285 Y-33.154 Z1.734
X-6.617 Y-33.409 Z1.733
X-6.938 Y-33.678 Z1.731
X-7.248 Y-33.964 Z1.73
X-7.548 Y-34.272 Z1.729
X-7.839 Y-34.605 Z1.728
X-8.12 Y-34.967 Z1.726
X-8.392 Y-35.361 Z1.725
X-8.66 Y-35.798 Z1.724
X-8.782 Y-36.017 Z1.723
X-8.906 Y-36.255 Z1.722
X-9.028 Y-36.503 Z1.721
X-9.147 Y-36.761
X-9.263 Y-37.029 Z1.72
X-9.376 Y-37.308 Z1.719
X-9.486 Y-37.598 Z1.718
X-9.592 Y-37.898 Z1.717
X-9.695 Y-38.209 Z1.716
X-9.794 Y-38.532 Z1.715
X-9.89 Y-38.864 Z1.714
X-9.983 Y-39.209 Z1.713
X-10.071 Y-39.564 Z1.712
X-10.156 Y-39.93 Z1.711
X-10.238 Y-40.307 Z1.71
X-10.315 Y-40.695 Z1.709
X-10.389 Y-41.093 Z1.708
X-10.459 Y-41.502 Z1.707
X-10.526 Y-41.922 Z1.705
X-10.589 Y-42.348 Z1.704
X-10.705 Y-43.243 Z1.702
X-10.807 Y-44.174 Z1.699
X-10.896 Y-45.143 Z1.696
X-10.974 Y-46.149 Z1.693
X-11.04 Y-47.191 Z1.69
X-11.096 Y-48.267 Z1.687
X-11.144 Y-49.376 Z1.684
X-11.183 Y-50.516 Z1.681
X-11.216 Y-51.686 Z1.678
X-11.243 Y-52.885 Z1.674
X-11.265 Y-54.11 Z1.671
X-11.285 Y-55.361 Z1.667
X-11.302 Y-56.636 Z1.663
X-11.318 Y-57.934 Z1.66
X-11.333 Y-59.254 Z1.656
X-11.349 Y-60.594 Z1.652
Y-60.595
X-11.366 Y-61.954 Z1.648
Y-61.956
X-11.386 Y-63.332 Z1.644
Y-63.335
X-11.408 Y-64.729 Z1.64
Y-64.732
X-11.433 Y-66.142 Z1.636
Y-66.146
X-11.461 Y-67.573 Z1.632
Y-67.575
G3 X-9.479 Y-130.438 Z1.454 I600.837 J-12.518
G1 X-9.477 Y-130.471
G2 X-9.476 Y-131.462 Z1.451 I-7.972 J-0.503
G3 X-9.235 Y-137.281 Z1.434 I28.359 J-1.739
G2 X-9.62 Y-140.807 Z1.424 I-7.014 J-1.018
G1 X-9.691 Y-140.995
X-9.762 Y-141.185 Z1.423
X-9.833 Y-141.386 Z1.422
X-9.906 Y-141.599
X-9.979 Y-141.827 Z1.421
X-10.053 Y-142.072 Z1.42
X-10.126 Y-142.335
X-10.203 Y-142.632 Z1.419
X-10.205 Y-142.637
G3 X-10.641 Y-149.614 Z1.399 I17.552 J-4.6
G2 X-10.925 Y-150.748 Z1.395 I-1.574 J-0.208
G1 X-12.674 Y-153.182 Z1.387
G2 X-14.89 Y-153.545 Z1.38 I-1.289 J0.926
G1 X-16.875 Y-152.118 Z1.373
G2 X-17.536 Y-150.829 Z1.369 I0.927 J1.289
G1 Y-149.99 Z1.366
G2 X-19.593 Y-150.165 Z1.36 I-1.131 J1.114
G1 X-22.895 Y-147.792 Z1.348
G2 X-23.544 Y-146.698 Z1.345 I0.927 J1.289
G1 X-25.324 Y-132.306 Z1.303
G2 X-25.42 Y-130.471 Z1.298 I7.875 J1.334
G1 X-25.418 Y-130.438
G3 X-23.436 Y-67.575 Z1.119 I-598.855 J50.346
G1 Y-67.573
X-23.464 Y-66.146 Z1.115
Y-66.142
X-23.489 Y-64.731 Z1.111
Y-64.728
X-23.511 Y-63.335 Z1.107
Y-63.332
X-23.53 Y-61.955 Z1.104
Y-61.953
X-23.547 Y-60.595 Z1.1
Y-60.593
X-23.563 Y-59.254 Z1.096
X-23.578 Y-57.934 Z1.092
X-23.593 Y-56.636 Z1.088
X-23.609 Y-55.36 Z1.085
X-23.628 Y-54.109 Z1.081
X-23.65 Y-52.884 Z1.078
X-23.676 Y-51.685 Z1.074
X-23.708 Y-50.515 Z1.071
X-23.747 Y-49.375 Z1.068
X-23.793 Y-48.266 Z1.065
X-23.849 Y-47.19 Z1.062
X-23.915 Y-46.148 Z1.059
X-23.991 Y-45.142 Z1.056
X-24.08 Y-44.173 Z1.053
X-24.182 Y-43.243 Z1.05
X-24.297 Y-42.348 Z1.048
X-24.36 Y-41.922 Z1.047
X-24.426 Y-41.502 Z1.045
X-24.496 Y-41.093 Z1.044
X-24.57 Y-40.695 Z1.043
X-24.647 Y-40.307 Z1.042
X-24.729 Y-39.93 Z1.041
X-24.814 Y-39.564 Z1.04
X-24.902 Y-39.209 Z1.039
X-24.994 Y-38.865 Z1.038
X-25.09 Y-38.532 Z1.037
X-25.19 Y-38.21 Z1.036
X-25.293 Y-37.899 Z1.035
X-25.399 Y-37.599 Z1.034
X-25.509 Y-37.309 Z1.033
X-25.622 Y-37.03 Z1.032
X-25.738 Y-36.762 Z1.031
X-25.857 Y-36.504
X-25.979 Y-36.256 Z1.03
X-26.103 Y-36.019 Z1.029
X-26.226 Y-35.8 Z1.028
X-26.494 Y-35.362 Z1.027
X-26.766 Y-34.968 Z1.025
X-27.048 Y-34.607 Z1.024
X-27.34 Y-34.274 Z1.023
X-27.64 Y-33.966 Z1.022
X-27.951 Y-33.68 Z1.02
X-28.273 Y-33.411 Z1.019
X-28.606 Y-33.155 Z1.018
X-28.951 Y-32.908 Z1.017
X-29.307 Y-32.665 Z1.016
X-29.67 Y-32.422 Z1.014
X-29.677 Y-32.417
X-30.035 Y-32.175 Z1.013
X-30.063 Y-32.155
X-30.404 Y-31.913 Z1.012
X-30.457 Y-31.874
X-30.777 Y-31.626 Z1.011
X-30.854 Y-31.563 Z1.01
X-31.148 Y-31.305 Z1.009
X-31.247 Y-31.21
X-31.509 Y-30.936 Z1.008
X-31.593 Y-30.841 Z1.007
X-31.711 Y-30.696
X-31.769 Y-30.621
X-31.878 Y-30.47 Z1.006
X-31.935 Y-30.385
X-32.033 Y-30.228 Z1.005
X-32.087 Y-30.135
X-32.175 Y-29.971 Z1.004
X-32.224 Y-29.871
X-32.301 Y-29.699
X-32.344 Y-29.594 Z1.003
X-32.409 Y-29.415
X-32.444 Y-29.309 Z1.002
X-32.498 Y-29.122
X-32.525 Y-29.016 Z1.001
X-32.567 Y-28.82
X-32.585 Y-28.718
X-32.615 Y-28.514 Z1
X-32.626 Y-28.416
X-32.644 Y-28.203 Z0.999
X-32.649 Y-28.112
X-32.655 Y-27.891 Z0.998
Y-27.805
X-32.649 Y-27.576 Z0.997
X-32.645 Y-27.499
X-32.627 Y-27.262 Z0.996
X-32.62 Y-27.191
X-32.59 Y-26.946
X-32.581 Y-26.883 Z0.995
X-32.54 Y-26.63
X-32.529 Y-26.573
X-32.477 Y-26.314 Z0.994
X-32.466 Y-26.262
X-32.403 Y-25.997 Z0.993
X-32.391 Y-25.951
X-32.319 Y-25.68 Z0.992
X-32.306 Y-25.637
X-32.224 Y-25.36 Z0.991
X-32.212 Y-25.323
X-32.121 Y-25.042 Z0.99
X-32.104 Y-24.992
X-31.896 Y-24.419 Z0.988
X-31.874 Y-24.363
X-31.637 Y-23.779 Z0.986
X-31.618 Y-23.734
X-31.357 Y-23.144 Z0.984
X-31.34 Y-23.107
X-31.06 Y-22.517 Z0.982
X-31.045 Y-22.487
X-30.753 Y-21.901 Z0.98
X-30.741 Y-21.879
X-30.442 Y-21.302 Z0.978
X-30.433 Y-21.286
X-30.133 Y-20.722 Z0.976
X-30.128 Y-20.714
X-29.832 Y-20.168 Z0.975
Y-20.167
X-29.55 Y-19.647 Z0.973
X-29.29 Y-19.162 Z0.971
X-29.058 Y-18.713 Z0.97
X-28.958 Y-18.512 Z0.969
X-28.867 Y-18.32
X-28.787 Y-18.142 Z0.968
X-28.718 Y-17.978
X-28.661 Y-17.83 Z0.967
X-28.616 Y-17.7
X-28.583 Y-17.587
X-28.56 Y-17.493 Z0.966
X-28.546 Y-17.417
X-28.539 Y-17.358
X-28.537 Y-17.312
X-28.539 Y-17.276
X-28.542 Y-17.245
X-28.549 Y-17.213 Z0.965
X-28.56 Y-17.172
X-28.579 Y-17.121
X-28.608 Y-17.057
X-28.65 Y-16.976
X-28.706 Y-16.881 Z0.964
X-28.778 Y-16.771
X-28.866 Y-16.647
X-28.969 Y-16.509 Z0.963
X-29.087 Y-16.36
X-29.217 Y-16.202 Z0.962
X-29.521 Y-15.843 Z0.961
X-29.859 Y-15.451 Z0.959
X-29.864 Y-15.446
X-30.223 Y-15.027 Z0.958
X-30.24 Y-15.007
X-30.608 Y-14.564 Z0.956
X-30.634 Y-14.531
X-31.001 Y-14.064 Z0.954
X-31.034 Y-14.02
X-31.393 Y-13.53 Z0.952
X-31.433 Y-13.472
X-31.773 Y-12.96 Z0.95
X-31.818 Y-12.889
X-32.133 Y-12.356 Z0.948
X-32.168 Y-12.293
X-32.313 Y-12.02 Z0.947
X-32.338 Y-11.972
X-32.474 Y-11.694 Z0.946
X-32.497 Y-11.643
X-32.623 Y-11.362 Z0.945
X-32.647 Y-11.305
X-32.761 Y-11.02 Z0.944
X-32.784 Y-10.959
X-32.886 Y-10.67 Z0.943
X-32.908 Y-10.604
X-32.996 Y-10.313 Z0.942
X-33.016 Y-10.242
X-33.091 Y-9.948 Z0.941
X-33.108 Y-9.872
X-33.168 Y-9.576 Z0.94
X-33.182 Y-9.496
X-33.226 Y-9.199 Z0.939
X-33.237 Y-9.115
X-33.265 Y-8.817 Z0.938
X-33.271 Y-8.729 Z0.937
X-33.283 Y-8.431
X-33.284 Y-8.34 Z0.936
X-33.278 Y-8.042 Z0.935
X-33.274 Y-7.95
X-33.251 Y-7.653 Z0.934
X-33.241 Y-7.56
X-33.201 Y-7.264 Z0.933
X-33.186 Y-7.172
X-33.128 Y-6.879 Z0.932
X-33.108 Y-6.789
X-33.033 Y-6.498 Z0.931
X-33.007 Y-6.41
X-32.915 Y-6.124 Z0.93
X-32.886 Y-6.039
X-32.777 Y-5.758 Z0.929
X-32.744 Y-5.677
X-32.62 Y-5.401 Z0.928
X-32.583 Y-5.325 Z0.927
X-32.444 Y-5.056
X-32.404 Y-4.982 Z0.926
X-32.252 Y-4.721 Z0.925
X-32.21 Y-4.653
X-32.044 Y-4.4 Z0.924
X-32 Y-4.335
X-31.823 Y-4.092 Z0.923
X-31.776 Y-4.03
X-31.589 Y-3.797 Z0.922
X-31.54 Y-3.739
X-31.344 Y-3.517 Z0.921
X-31.292 Y-3.461
X-31.088 Y-3.252 Z0.92
X-31.034 Y-3.199
X-30.823 Y-3.002 Z0.919
X-30.766 Y-2.951
X-30.55 Y-2.768 Z0.918
X-30.489 Y-2.719
X-30.269 Y-2.55 Z0.917
X-30.204 Y-2.503
X-29.981 Y-2.349 Z0.916
X-29.911 Y-2.304
X-29.686 Y-2.165 Z0.915
X-29.61 Y-2.122
X-29.384 Y-2 Z0.914
X-29.303 Y-1.959
X-29.076 Y-1.852 Z0.913
X-28.988 Y-1.814
X-28.762 Y-1.725 Z0.912
X-28.668 Y-1.691
X-28.443 Y-1.617 Z0.911
X-28.342 Y-1.588
X-28.119 Y-1.532 Z0.91
X-28.011 Y-1.508
X-27.791 Y-1.468 Z0.909
X-27.678 Y-1.452
X-27.46 Y-1.429 Z0.908
X-27.343 Y-1.421
X-27.128 Y-1.413 Z0.907
X-27.009 Y-1.414
X-26.797 Y-1.423
X-26.678 Y-1.432 Z0.906
X-26.469 Y-1.457
X-26.352 Y-1.475 Z0.905
X-26.147 Y-1.515
X-26.035 Y-1.541 Z0.904
X-25.834 Y-1.596
X-25.728 Y-1.628 Z0.903
X-25.53 Y-1.697
X-25.434 Y-1.734
X-25.238 Y-1.816 Z0.902
X-25.151 Y-1.856
X-24.959 Y-1.952 Z0.901
X-24.882 Y-1.992
X-24.692 Y-2.1 Z0.9
X-24.625 Y-2.14
X-24.437 Y-2.258 Z0.899
X-24.356 Y-2.313
X-23.984 Y-2.581 Z0.898
X-23.906 Y-2.641 Z0.897
X-23.537 Y-2.944 Z0.896
X-23.49 Y-2.984
X-23.117 Y-3.314 Z0.895
X-23.096 Y-3.334 Z0.894
X-22.717 Y-3.683 Z0.893
X-22.335 Y-4.033 Z0.892
X-21.955 Y-4.369 Z0.89
X-21.57 Y-4.687 Z0.889
X-21.177 Y-4.983 Z0.887
X-20.758 Y-5.262 Z0.886
X-20.559 Y-5.38 Z0.885
X-20.345 Y-5.498 Z0.884
X-20.126 Y-5.608
X-19.902 Y-5.711 Z0.883
X-19.673 Y-5.804 Z0.882
X-19.44 Y-5.89
X-19.202 Y-5.966 Z0.881
X-18.96 Y-6.033 Z0.88
X-18.715 Y-6.09
X-18.466 Y-6.137 Z0.879
X-18.214 Y-6.174 Z0.878
X-17.96 Y-6.201 Z0.877
X-17.705 Y-6.217
X-17.449 Y-6.222 Z0.876
X-17.192 Y-6.217 Z0.875
X-16.935 Y-6.201 Z0.874
X-16.68 Y-6.174
X-16.425 Y-6.137 Z0.873
X-16.173 Y-6.09 Z0.872
X-15.924 Y-6.033
X-15.678 Y-5.967 Z0.871
X-15.435 Y-5.891 Z0.87
X-15.196 Y-5.806 Z0.869
X-14.962 Y-5.713
X-14.733 Y-5.612 Z0.868
X-14.508 Y-5.503 Z0.867
X-14.288 Y-5.386
X-14.082 Y-5.269 Z0.866
X-13.651 Y-4.997 Z0.864
X-13.245 Y-4.708 Z0.863
X-12.849 Y-4.4 Z0.862
X-12.457 Y-4.075 Z0.86
X-12.063 Y-3.739 Z0.859
X-12.062 Y-3.738
X-11.672 Y-3.406 Z0.857
X-11.649 Y-3.386
X-11.266 Y-3.073 Z0.856
X-11.217 Y-3.034
X-10.837 Y-2.747 Z0.854
X-10.758 Y-2.691
X-10.376 Y-2.438 Z0.853
X-10.295 Y-2.388 Z0.852
X-10.102 Y-2.276
X-10.036 Y-2.24 Z0.851
X-9.842 Y-2.139
X-9.766 Y-2.103
X-9.569 Y-2.014 Z0.85
X-9.485 Y-1.978
X-9.285 Y-1.902 Z0.849
X-9.192 Y-1.869
X-8.989 Y-1.806 Z0.848
X-8.889 Y-1.778
X-8.683 Y-1.728 Z0.847
X-8.577 Y-1.706
X-8.368 Y-1.67 Z0.846
X-8.257 Y-1.655
X-8.046 Y-1.634
X-7.933 Y-1.627 Z0.845
X-7.718 Y-1.621
X-7.605 Y-1.622 Z0.844
X-7.387 Y-1.631
X-7.277 Y-1.639 Z0.843
X-7.056 Y-1.664
X-6.949 Y-1.68 Z0.842
X-6.726 Y-1.721
X-6.624 Y-1.743 Z0.841
X-6.398 Y-1.8
X-6.301 Y-1.827
X-6.074 Y-1.9 Z0.84
X-5.983 Y-1.932
X-5.755 Y-2.02 Z0.839
X-5.67 Y-2.056
X-5.441 Y-2.16 Z0.838
X-5.362 Y-2.199
X-5.133 Y-2.319 Z0.837
X-5.059 Y-2.36
X-4.831 Y-2.496 Z0.836
X-4.762 Y-2.539
X-4.536 Y-2.689 Z0.835
X-4.472 Y-2.735
X-4.249 Y-2.9 Z0.834
X-4.188 Y-2.947
X-3.969 Y-3.126 Z0.833
X-3.911 Y-3.175
X-3.698 Y-3.367 Z0.832
X-3.643 Y-3.419
X-3.436 Y-3.624 Z0.831
X-3.384 Y-3.678
X-3.185 Y-3.895 Z0.83
X-3.134 Y-3.952
X-2.944 Y-4.18 Z0.829
X-2.896 Y-4.241 Z0.828
X-2.717 Y-4.479
X-2.67 Y-4.544 Z0.827
X-2.503 Y-4.791
X-2.458 Y-4.861 Z0.826
X-2.304 Y-5.116 Z0.825
X-2.262 Y-5.19
X-2.122 Y-5.453 Z0.824
X-2.082 Y-5.532
X-1.957 Y-5.802 Z0.823
X-1.921 Y-5.885
X-1.812 Y-6.16 Z0.822
X-1.781 Y-6.249
X-1.688 Y-6.529 Z0.821
X-1.661 Y-6.621
X-1.586 Y-6.905 Z0.82
X-1.564 Y-7
X-1.507 Y-7.287 Z0.819
X-1.491 Y-7.384
X-1.452 Y-7.673 Z0.818
X-1.442 Y-7.771
X-1.421 Y-8.062 Z0.817
X-1.417 Y-8.159 Z0.816
X-1.413 Y-8.451
X-1.415 Y-8.547 Z0.815
X-1.43 Y-8.839 Z0.814
X-1.437 Y-8.931
X-1.468 Y-9.224 Z0.813
X-1.48 Y-9.312
X-1.528 Y-9.604 Z0.812
X-1.544 Y-9.688
X-1.608 Y-9.978 Z0.811
X-1.628 Y-10.057
X-1.707 Y-10.346 Z0.81
X-1.729 Y-10.419
X-1.822 Y-10.705 Z0.809
X-1.846 Y-10.773
X-1.954 Y-11.057 Z0.808
X-1.979 Y-11.119
X-2.098 Y-11.4 Z0.807
X-2.124 Y-11.457
X-2.256 Y-11.735 Z0.806
X-2.282 Y-11.787
X-2.424 Y-12.06 Z0.805
X-2.45 Y-12.108
X-2.602 Y-12.377 Z0.804
X-2.639 Y-12.44
X-2.968 Y-12.966 Z0.802
X-3.015 Y-13.036
X-3.37 Y-13.542 Z0.8
X-3.412 Y-13.598
X-3.785 Y-14.082 Z0.798
X-3.819 Y-14.125
X-4.202 Y-14.587 Z0.796
X-4.228 Y-14.618
X-4.61 Y-15.057 Z0.794
X-4.626 Y-15.075
X-5 Y-15.49 Z0.793
X-5.004 Y-15.495
X-5.354 Y-15.882 Z0.791
X-5.668 Y-16.237 Z0.79
X-5.802 Y-16.393 Z0.789
X-5.924 Y-16.541
X-6.03 Y-16.677 Z0.788
X-6.12 Y-16.799
X-6.193 Y-16.908 Z0.787
X-6.25 Y-17.001
X-6.292 Y-17.079
X-6.321 Y-17.141
X-6.339 Y-17.188 Z0.786
X-6.349 Y-17.224
X-6.355 Y-17.253
X-6.359 Y-17.28
X-6.36 Y-17.312
X-6.358 Y-17.354
X-6.351 Y-17.411
X-6.338 Y-17.486
X-6.315 Y-17.579 Z0.785
X-6.281 Y-17.691
X-6.235 Y-17.821
X-6.177 Y-17.968 Z0.784
X-6.107 Y-18.132
X-6.026 Y-18.311 Z0.783
X-5.933 Y-18.503 Z0.782
X-5.832 Y-18.705
X-5.598 Y-19.155 Z0.78
X-5.336 Y-19.641 Z0.779
X-5.052 Y-20.162 Z0.777
X-5.05 Y-20.164
X-4.754 Y-20.709 Z0.775
X-4.748 Y-20.719
X-4.447 Y-21.283 Z0.774
X-4.438 Y-21.299 Z0.773
X-4.138 Y-21.877 Z0.772
X-4.126 Y-21.9
X-3.834 Y-22.486 Z0.77
X-3.819 Y-22.517
X-3.54 Y-23.107 Z0.768
X-3.523 Y-23.145
X-3.262 Y-23.735 Z0.766
X-3.243 Y-23.781
X-3.007 Y-24.365 Z0.764
X-2.985 Y-24.422
X-2.779 Y-24.995 Z0.762
X-2.762 Y-25.045
X-2.671 Y-25.326 Z0.761
X-2.659 Y-25.365
X-2.578 Y-25.641 Z0.76
X-2.566 Y-25.683
X-2.494 Y-25.954 Z0.759
X-2.482 Y-26.001
X-2.421 Y-26.267 Z0.758
X-2.409 Y-26.319
X-2.358 Y-26.578 Z0.757
X-2.348 Y-26.636
X-2.308 Y-26.888 Z0.756
X-2.299 Y-26.952
X-2.27 Y-27.196
X-2.263 Y-27.267 Z0.755
X-2.246 Y-27.504
X-2.242 Y-27.582 Z0.754
X-2.237 Y-27.811
Y-27.896
X-2.244 Y-28.117 Z0.753
X-2.249 Y-28.208
X-2.268 Y-28.421 Z0.752
X-2.279 Y-28.519
X-2.31 Y-28.723 Z0.751
X-2.329 Y-28.825
X-2.371 Y-29.021 Z0.75
X-2.398 Y-29.126
X-2.453 Y-29.313 Z0.749
X-2.487 Y-29.419
X-2.554 Y-29.598
X-2.596 Y-29.702 Z0.748
X-2.673 Y-29.873
X-2.722 Y-29.972 Z0.747
X-2.81 Y-30.137
X-2.865 Y-30.23
X-2.963 Y-30.387 Z0.746
X-3.02 Y-30.471
X-3.129 Y-30.622 Z0.745
X-3.186 Y-30.697
X-3.305 Y-30.842 Z0.744
X-3.388 Y-30.936
X-3.65 Y-31.21 Z0.743
X-3.749 Y-31.305
X-4.043 Y-31.563 Z0.742
X-4.119 Y-31.626 Z0.741
X-4.439 Y-31.873 Z0.74
X-4.491 Y-31.912
X-4.832 Y-32.154 Z0.739
X-4.86 Y-32.174
X-5.217 Y-32.416 Z0.737
X-5.224 Y-32.421
X-5.586 Y-32.664 Z0.736
X-5.941 Y-32.907 Z0.735
X-6.285 Y-33.154 Z0.734
X-6.617 Y-33.409 Z0.733
X-6.938 Y-33.678 Z0.731
X-7.248 Y-33.964 Z0.73
X-7.548 Y-34.272 Z0.729
X-7.839 Y-34.605 Z0.728
X-8.12 Y-34.967 Z0.726
X-8.392 Y-35.361 Z0.725
X-8.66 Y-35.798 Z0.724
X-8.782 Y-36.017 Z0.723
X-8.906 Y-36.255 Z0.722
X-9.028 Y-36.503 Z0.721
X-9.147 Y-36.761
X-9.263 Y-37.029 Z0.72
X-9.376 Y-37.308 Z0.719
X-9.486 Y-37.598 Z0.718
X-9.592 Y-37.898 Z0.717
X-9.695 Y-38.209 Z0.716
X-9.794 Y-38.532 Z0.715
X-9.89 Y-38.864 Z0.714
X-9.983 Y-39.209 Z0.713
X-10.071 Y-39.564 Z0.712
X-10.156 Y-39.93 Z0.711
X-10.238 Y-40.307 Z0.71
X-10.315 Y-40.695 Z0.709
X-10.389 Y-41.093 Z0.708
X-10.459 Y-41.502 Z0.707
X-10.526 Y-41.922 Z0.705
X-10.589 Y-42.348 Z0.704
X-10.705 Y-43.243 Z0.702
X-10.807 Y-44.174 Z0.699
X-10.896 Y-45.143 Z0.696
X-10.974 Y-46.149 Z0.693
X-11.04 Y-47.191 Z0.69
X-11.096 Y-48.267 Z0.687
X-11.144 Y-49.376 Z0.684
X-11.183 Y-50.516 Z0.681
X-11.216 Y-51.686 Z0.678
X-11.243 Y-52.885 Z0.674
X-11.265 Y-54.11 Z0.671
X-11.285 Y-55.361 Z0.667
X-11.302 Y-56.636 Z0.663
X-11.318 Y-57.934 Z0.66
X-11.333 Y-59.254 Z0.656
X-11.349 Y-60.594 Z0.652
Y-60.595
X-11.366 Y-61.954 Z0.648
Y-61.956
X-11.386 Y-63.332 Z0.644
Y-63.335
X-11.408 Y-64.729 Z0.64
Y-64.732
X-11.433 Y-66.142 Z0.636
Y-66.146
X-11.461 Y-67.573 Z0.632
Y-67.575
G3 X-9.479 Y-130.438 Z0.454 I600.837 J-12.518
G1 X-9.477 Y-130.471
G2 X-9.476 Y-131.462 Z0.451 I-7.972 J-0.503
G3 X-9.235 Y-137.281 Z0.434 I28.359 J-1.739
G2 X-9.62 Y-140.807 Z0.424 I-7.014 J-1.018
G1 X-9.691 Y-140.995
X-9.762 Y-141.185 Z0.423
X-9.833 Y-141.386 Z0.422
X-9.906 Y-141.599
X-9.979 Y-141.827 Z0.421
X-10.053 Y-142.072 Z0.42
X-10.126 Y-142.335
X-10.203 Y-142.632 Z0.419
X-10.205 Y-142.637
G3 X-10.641 Y-149.614 Z0.399 I17.552 J-4.6
G2 X-10.925 Y-150.748 Z0.395 I-1.574 J-0.208
G1 X-12.674 Y-153.182 Z0.387
G2 X-14.89 Y-153.545 Z0.38 I-1.289 J0.926
G1 X-16.875 Y-152.118 Z0.373
G2 X-17.536 Y-150.829 Z0.369 I0.927 J1.289
G1 Y-149.99 Z0.366
G2 X-19.593 Y-150.165 Z0.36 I-1.131 J1.114
G1 X-22.895 Y-147.792 Z0.348
G2 X-23.544 Y-146.698 Z0.345 I0.927 J1.289
G1 X-25.324 Y-132.306 Z0.303
G2 X-25.42 Y-130.471 Z0.298 I7.875 J1.334
G1 X-25.418 Y-130.438
G3 X-23.436 Y-67.575 Z0.119 I-598.855 J50.346
G1 Y-67.573
X-23.464 Y-66.146 Z0.115
Y-66.142
X-23.489 Y-64.731 Z0.111
Y-64.728
X-23.511 Y-63.335 Z0.107
Y-63.332
X-23.53 Y-61.955 Z0.104
Y-61.953
X-23.547 Y-60.595 Z0.1
Y-60.593
X-23.563 Y-59.254 Z0.096
X-23.578 Y-57.934 Z0.092
X-23.593 Y-56.636 Z0.088
X-23.609 Y-55.36 Z0.085
X-23.628 Y-54.109 Z0.081
X-23.65 Y-52.884 Z0.078
X-23.676 Y-51.685 Z0.074
X-23.708 Y-50.515 Z0.071
X-23.747 Y-49.375 Z0.068
X-23.793 Y-48.266 Z0.065
X-23.849 Y-47.19 Z0.062
X-23.915 Y-46.148 Z0.059
X-23.991 Y-45.142 Z0.056
X-24.08 Y-44.173 Z0.053
X-24.182 Y-43.243 Z0.05
X-24.297 Y-42.348 Z0.048
X-24.36 Y-41.922 Z0.047
X-24.426 Y-41.502 Z0.045
X-24.496 Y-41.093 Z0.044
X-24.57 Y-40.695 Z0.043
X-24.647 Y-40.307 Z0.042
X-24.729 Y-39.93 Z0.041
X-24.814 Y-39.564 Z0.04
X-24.902 Y-39.209 Z0.039
X-24.994 Y-38.865 Z0.038
X-25.09 Y-38.532 Z0.037
X-25.19 Y-38.21 Z0.036
X-25.293 Y-37.899 Z0.035
X-25.399 Y-37.599 Z0.034
X-25.509 Y-37.309 Z0.033
X-25.622 Y-37.03 Z0.032
X-25.738 Y-36.762 Z0.031
X-25.857 Y-36.504
X-25.979 Y-36.256 Z0.03
X-26.103 Y-36.019 Z0.029
X-26.226 Y-35.8 Z0.028
X-26.494 Y-35.362 Z0.027
X-26.766 Y-34.968 Z0.025
X-27.048 Y-34.607 Z0.024
X-27.34 Y-34.274 Z0.023
X-27.64 Y-33.966 Z0.022
X-27.951 Y-33.68 Z0.02
X-28.273 Y-33.411 Z0.019
X-28.606 Y-33.155 Z0.018
X-28.951 Y-32.908 Z0.017
X-29.307 Y-32.665 Z0.016
X-29.67 Y-32.422 Z0.014
X-29.677 Y-32.417
X-30.035 Y-32.175 Z0.013
X-30.063 Y-32.155
X-30.404 Y-31.913 Z0.012
X-30.457 Y-31.874
X-30.777 Y-31.626 Z0.011
X-30.854 Y-31.563 Z0.01
X-31.148 Y-31.305 Z0.009
X-31.247 Y-31.21
X-31.509 Y-30.936 Z0.008
X-31.593 Y-30.841 Z0.007
X-31.711 Y-30.696
X-31.769 Y-30.621
X-31.878 Y-30.47 Z0.006
X-31.935 Y-30.385
X-32.033 Y-30.228 Z0.005
X-32.087 Y-30.135
X-32.175 Y-29.971 Z0.004
X-32.224 Y-29.871
X-32.301 Y-29.699
X-32.344 Y-29.594 Z0.003
X-32.409 Y-29.415
X-32.444 Y-29.309 Z0.002
X-32.498 Y-29.122
X-32.525 Y-29.016 Z0.001
X-32.567 Y-28.82
X-32.585 Y-28.718
X-32.615 Y-28.514 Z0
X-32.626 Y-28.416
X-32.644 Y-28.203 Z-0.001
X-32.649 Y-28.112
X-32.655 Y-27.891 Z-0.002
Y-27.805
X-32.649 Y-27.576 Z-0.003
X-32.645 Y-27.499
X-32.627 Y-27.262 Z-0.004
X-32.62 Y-27.191
X-32.59 Y-26.946
X-32.581 Y-26.883 Z-0.005
X-32.54 Y-26.63
X-32.529 Y-26.573
X-32.477 Y-26.314 Z-0.006
X-32.466 Y-26.262
X-32.403 Y-25.997 Z-0.007
X-32.391 Y-25.951
X-32.319 Y-25.68 Z-0.008
X-32.306 Y-25.637
X-32.224 Y-25.36 Z-0.009
X-32.212 Y-25.323
X-32.121 Y-25.042 Z-0.01
X-32.104 Y-24.992
X-31.896 Y-24.419 Z-0.012
X-31.874 Y-24.363
X-31.637 Y-23.779 Z-0.014
X-31.618 Y-23.734
X-31.357 Y-23.144 Z-0.016
X-31.34 Y-23.107
X-31.06 Y-22.517 Z-0.018
X-31.045 Y-22.487
X-30.753 Y-21.901 Z-0.02
X-30.741 Y-21.879
X-30.442 Y-21.302 Z-0.022
X-30.433 Y-21.286
X-30.133 Y-20.722 Z-0.024
X-30.128 Y-20.714
X-29.832 Y-20.168 Z-0.025
Y-20.167
X-29.55 Y-19.647 Z-0.027
X-29.29 Y-19.162 Z-0.029
X-29.058 Y-18.713 Z-0.03
X-28.958 Y-18.512 Z-0.031
X-28.867 Y-18.32
X-28.787 Y-18.142 Z-0.032
X-28.718 Y-17.978
X-28.661 Y-17.83 Z-0.033
X-28.616 Y-17.7
X-28.583 Y-17.587
X-28.56 Y-17.493 Z-0.034
X-28.546 Y-17.417
X-28.539 Y-17.358
X-28.537 Y-17.312
X-28.539 Y-17.276
X-28.542 Y-17.245
X-28.549 Y-17.213 Z-0.035
X-28.56 Y-17.172
X-28.579 Y-17.121
X-28.608 Y-17.057
X-28.65 Y-16.976
X-28.706 Y-16.881 Z-0.036
X-28.778 Y-16.771
X-28.866 Y-16.647
X-28.969 Y-16.509 Z-0.037
X-29.087 Y-16.36
X-29.217 Y-16.202 Z-0.038
X-29.521 Y-15.843 Z-0.039
X-29.859 Y-15.451 Z-0.041
X-29.864 Y-15.446
X-30.223 Y-15.027 Z-0.042
X-30.24 Y-15.007
X-30.608 Y-14.564 Z-0.044
X-30.634 Y-14.531
X-31.001 Y-14.064 Z-0.046
X-31.034 Y-14.02
X-31.393 Y-13.53 Z-0.048
X-31.433 Y-13.472
X-31.773 Y-12.96 Z-0.05
X-31.818 Y-12.889
X-32.133 Y-12.356 Z-0.052
X-32.168 Y-12.293
X-32.313 Y-12.02 Z-0.053
X-32.338 Y-11.972
X-32.474 Y-11.694 Z-0.054
X-32.497 Y-11.643
X-32.623 Y-11.362 Z-0.055
X-32.647 Y-11.305
X-32.761 Y-11.02 Z-0.056
X-32.784 Y-10.959
X-32.886 Y-10.67 Z-0.057
X-32.908 Y-10.604
X-32.996 Y-10.313 Z-0.058
X-33.016 Y-10.242
X-33.091 Y-9.948 Z-0.059
X-33.108 Y-9.872
X-33.168 Y-9.576 Z-0.06
X-33.182 Y-9.496
X-33.226 Y-9.199 Z-0.061
X-33.237 Y-9.115
X-33.265 Y-8.817 Z-0.062
X-33.271 Y-8.729 Z-0.063
X-33.283 Y-8.431
X-33.284 Y-8.34 Z-0.064
X-33.278 Y-8.042 Z-0.065
X-33.274 Y-7.95
X-33.251 Y-7.653 Z-0.066
X-33.241 Y-7.56
X-33.201 Y-7.264 Z-0.067
X-33.186 Y-7.172
X-33.128 Y-6.879 Z-0.068
X-33.108 Y-6.789
X-33.033 Y-6.498 Z-0.069
X-33.007 Y-6.41
X-32.915 Y-6.124 Z-0.07
X-32.886 Y-6.039
X-32.777 Y-5.758 Z-0.071
X-32.744 Y-5.677
X-32.62 Y-5.401 Z-0.072
X-32.583 Y-5.325 Z-0.073
X-32.444 Y-5.056
X-32.404 Y-4.982 Z-0.074
X-32.252 Y-4.721 Z-0.075
X-32.21 Y-4.653
X-32.044 Y-4.4 Z-0.076
X-32 Y-4.335
X-31.823 Y-4.092 Z-0.077
X-31.776 Y-4.03
X-31.589 Y-3.797 Z-0.078
X-31.54 Y-3.739
X-31.344 Y-3.517 Z-0.079
X-31.292 Y-3.461
X-31.088 Y-3.252 Z-0.08
X-31.034 Y-3.199
X-30.823 Y-3.002 Z-0.081
X-30.766 Y-2.951
X-30.55 Y-2.768 Z-0.082
X-30.489 Y-2.719
X-30.269 Y-2.55 Z-0.083
X-30.204 Y-2.503
X-29.981 Y-2.349 Z-0.084
X-29.911 Y-2.304
X-29.686 Y-2.165 Z-0.085
X-29.61 Y-2.122
X-29.384 Y-2 Z-0.086
X-29.303 Y-1.959
X-29.076 Y-1.852 Z-0.087
X-28.988 Y-1.814
X-28.762 Y-1.725 Z-0.088
X-28.668 Y-1.691
X-28.443 Y-1.617 Z-0.089
X-28.342 Y-1.588
X-28.119 Y-1.532 Z-0.09
X-28.011 Y-1.508
X-27.791 Y-1.468 Z-0.091
X-27.678 Y-1.452
X-27.46 Y-1.429 Z-0.092
X-27.343 Y-1.421
X-27.128 Y-1.413 Z-0.093
X-27.009 Y-1.414
X-26.797 Y-1.423
X-26.678 Y-1.432 Z-0.094
X-26.469 Y-1.457
X-26.352 Y-1.475 Z-0.095
X-26.147 Y-1.515
X-26.035 Y-1.541 Z-0.096
X-25.834 Y-1.596
X-25.728 Y-1.628 Z-0.097
X-25.53 Y-1.697
X-25.434 Y-1.734
X-25.238 Y-1.816 Z-0.098
X-25.151 Y-1.856
X-24.959 Y-1.952 Z-0.099
X-24.882 Y-1.992
X-24.692 Y-2.1 Z-0.1
X-24.625 Y-2.14
X-24.437 Y-2.258 Z-0.101
X-24.356 Y-2.313
X-23.984 Y-2.581 Z-0.102
X-23.906 Y-2.641 Z-0.103
X-23.537 Y-2.944 Z-0.104
X-23.49 Y-2.984
X-23.117 Y-3.314 Z-0.105
X-23.096 Y-3.334 Z-0.106
X-22.717 Y-3.683 Z-0.107
X-22.335 Y-4.033 Z-0.108
X-21.955 Y-4.369 Z-0.11
X-21.57 Y-4.687 Z-0.111
X-21.177 Y-4.983 Z-0.113
X-20.758 Y-5.262 Z-0.114
X-20.559 Y-5.38 Z-0.115
X-20.345 Y-5.498 Z-0.116
X-20.126 Y-5.608
X-19.902 Y-5.711 Z-0.117
X-19.673 Y-5.804 Z-0.118
X-19.44 Y-5.89
X-19.202 Y-5.966 Z-0.119
X-18.96 Y-6.033 Z-0.12
X-18.715 Y-6.09
X-18.466 Y-6.137 Z-0.121
X-18.214 Y-6.174 Z-0.122
X-17.96 Y-6.201 Z-0.123
X-17.705 Y-6.217
X-17.449 Y-6.222 Z-0.124
X-17.192 Y-6.217 Z-0.125
X-16.935 Y-6.201 Z-0.126
X-16.68 Y-6.174
X-16.425 Y-6.137 Z-0.127
X-16.173 Y-6.09 Z-0.128
X-15.924 Y-6.033
X-15.678 Y-5.967 Z-0.129
X-15.435 Y-5.891 Z-0.13
X-15.196 Y-5.806 Z-0.131
X-14.962 Y-5.713
X-14.733 Y-5.612 Z-0.132
X-14.508 Y-5.503 Z-0.133
X-14.288 Y-5.386
X-14.082 Y-5.269 Z-0.134
X-13.651 Y-4.997 Z-0.136
X-13.245 Y-4.708 Z-0.137
X-12.849 Y-4.4 Z-0.138
X-12.457 Y-4.075 Z-0.14
X-12.063 Y-3.739 Z-0.141
X-12.062 Y-3.738
X-11.672 Y-3.406 Z-0.143
X-11.649 Y-3.386
X-11.266 Y-3.073 Z-0.144
X-11.217 Y-3.034
X-10.837 Y-2.747 Z-0.146
X-10.758 Y-2.691
X-10.376 Y-2.438 Z-0.147
X-10.295 Y-2.388 Z-0.148
X-10.102 Y-2.276
X-10.036 Y-2.24 Z-0.149
X-9.842 Y-2.139
X-9.766 Y-2.103
X-9.569 Y-2.014 Z-0.15
X-9.485 Y-1.978
X-9.285 Y-1.902 Z-0.151
X-9.192 Y-1.869
X-8.989 Y-1.806 Z-0.152
X-8.889 Y-1.778
X-8.683 Y-1.728 Z-0.153
X-8.577 Y-1.706
X-8.368 Y-1.67 Z-0.154
X-8.257 Y-1.655
X-8.046 Y-1.634
X-7.933 Y-1.627 Z-0.155
X-7.718 Y-1.621
X-7.605 Y-1.622 Z-0.156
X-7.387 Y-1.631
X-7.277 Y-1.639 Z-0.157
X-7.056 Y-1.664
X-6.949 Y-1.68 Z-0.158
X-6.726 Y-1.721
X-6.624 Y-1.743 Z-0.159
X-6.398 Y-1.8
X-6.301 Y-1.827
X-6.074 Y-1.9 Z-0.16
X-5.983 Y-1.932
X-5.755 Y-2.02 Z-0.161
X-5.67 Y-2.056
X-5.441 Y-2.16 Z-0.162
X-5.362 Y-2.199
X-5.133 Y-2.319 Z-0.163
X-5.059 Y-2.36
X-4.831 Y-2.496 Z-0.164
X-4.762 Y-2.539
X-4.536 Y-2.689 Z-0.165
X-4.472 Y-2.735
X-4.249 Y-2.9 Z-0.166
X-4.188 Y-2.947
X-3.969 Y-3.126 Z-0.167
X-3.911 Y-3.175
X-3.698 Y-3.367 Z-0.168
X-3.643 Y-3.419
X-3.436 Y-3.624 Z-0.169
X-3.384 Y-3.678
X-3.185 Y-3.895 Z-0.17
X-3.134 Y-3.952
X-2.944 Y-4.18 Z-0.171
X-2.896 Y-4.241 Z-0.172
X-2.717 Y-4.479
X-2.67 Y-4.544 Z-0.173
X-2.503 Y-4.791
X-2.458 Y-4.861 Z-0.174
X-2.304 Y-5.116 Z-0.175
X-2.262 Y-5.19
X-2.122 Y-5.453 Z-0.176
X-2.082 Y-5.532
X-1.957 Y-5.802 Z-0.177
X-1.921 Y-5.885
X-1.812 Y-6.16 Z-0.178
X-1.781 Y-6.249
X-1.688 Y-6.529 Z-0.179
X-1.661 Y-6.621
X-1.586 Y-6.905 Z-0.18
X-1.564 Y-7
X-1.507 Y-7.287 Z-0.181
X-1.491 Y-7.384
X-1.452 Y-7.673 Z-0.182
X-1.442 Y-7.771
X-1.421 Y-8.062 Z-0.183
X-1.417 Y-8.159 Z-0.184
X-1.413 Y-8.451
X-1.415 Y-8.547 Z-0.185
X-1.43 Y-8.839 Z-0.186
X-1.437 Y-8.931
X-1.468 Y-9.224 Z-0.187
X-1.48 Y-9.312
X-1.528 Y-9.604 Z-0.188
X-1.544 Y-9.688
X-1.608 Y-9.978 Z-0.189
X-1.628 Y-10.057
X-1.707 Y-10.346 Z-0.19
X-1.729 Y-10.419
X-1.822 Y-10.705 Z-0.191
X-1.846 Y-10.773
X-1.954 Y-11.057 Z-0.192
X-1.979 Y-11.119
X-2.098 Y-11.4 Z-0.193
X-2.124 Y-11.457
X-2.256 Y-11.735 Z-0.194
X-2.282 Y-11.787
X-2.424 Y-12.06 Z-0.195
X-2.45 Y-12.108
X-2.602 Y-12.377 Z-0.196
X-2.639 Y-12.44
X-2.968 Y-12.966 Z-0.198
X-3.015 Y-13.036
X-3.37 Y-13.542 Z-0.2
X-3.412 Y-13.598
X-3.785 Y-14.082 Z-0.202
X-3.819 Y-14.125
X-4.202 Y-14.587 Z-0.204
X-4.228 Y-14.618
X-4.61 Y-15.057 Z-0.206
X-4.626 Y-15.075
X-5 Y-15.49 Z-0.207
X-5.004 Y-15.495
X-5.354 Y-15.882 Z-0.209
X-5.668 Y-16.237 Z-0.21
X-5.802 Y-16.393 Z-0.211
X-5.924 Y-16.541
X-6.03 Y-16.677 Z-0.212
X-6.12 Y-16.799
X-6.193 Y-16.908 Z-0.213
X-6.25 Y-17.001
X-6.292 Y-17.079
X-6.321 Y-17.141
X-6.339 Y-17.188 Z-0.214
X-6.349 Y-17.224
X-6.355 Y-17.253
X-6.359 Y-17.28
X-6.36 Y-17.312
X-6.358 Y-17.354
X-6.351 Y-17.411
X-6.338 Y-17.486
X-6.315 Y-17.579 Z-0.215
X-6.281 Y-17.691
X-6.235 Y-17.821
X-6.177 Y-17.968 Z-0.216
X-6.107 Y-18.132
X-6.026 Y-18.311 Z-0.217
X-5.933 Y-18.503 Z-0.218
X-5.832 Y-18.705
X-5.598 Y-19.155 Z-0.22
X-5.336 Y-19.641 Z-0.221
X-5.052 Y-20.162 Z-0.223
X-5.05 Y-20.164
X-4.754 Y-20.709 Z-0.225
X-4.748 Y-20.719
X-4.447 Y-21.283 Z-0.226
X-4.438 Y-21.299 Z-0.227
X-4.138 Y-21.877 Z-0.228
X-4.126 Y-21.9
X-3.834 Y-22.486 Z-0.23
X-3.819 Y-22.517
X-3.54 Y-23.107 Z-0.232
X-3.523 Y-23.145
X-3.262 Y-23.735 Z-0.234
X-3.243 Y-23.781
X-3.007 Y-24.365 Z-0.236
X-2.985 Y-24.422
X-2.779 Y-24.995 Z-0.238
X-2.762 Y-25.045
X-2.671 Y-25.326 Z-0.239
X-2.659 Y-25.365
X-2.578 Y-25.641 Z-0.24
X-2.566 Y-25.683
X-2.494 Y-25.954 Z-0.241
X-2.482 Y-26.001
X-2.421 Y-26.267 Z-0.242
X-2.409 Y-26.319
X-2.358 Y-26.578 Z-0.243
X-2.348 Y-26.636
X-2.308 Y-26.888 Z-0.244
X-2.299 Y-26.952
X-2.27 Y-27.196
X-2.263 Y-27.267 Z-0.245
X-2.246 Y-27.504
X-2.242 Y-27.582 Z-0.246
X-2.237 Y-27.811
Y-27.896
X-2.244 Y-28.117 Z-0.247
X-2.249 Y-28.208
X-2.268 Y-28.421 Z-0.248
X-2.279 Y-28.519
X-2.31 Y-28.723 Z-0.249
X-2.329 Y-28.825
X-2.371 Y-29.021 Z-0.25
X-2.398 Y-29.126
X-2.453 Y-29.313 Z-0.251
X-2.487 Y-29.419
X-2.554 Y-29.598
X-2.596 Y-29.702 Z-0.252
X-2.673 Y-29.873
X-2.722 Y-29.972 Z-0.253
X-2.81 Y-30.137
X-2.865 Y-30.23
X-2.963 Y-30.387 Z-0.254
X-3.02 Y-30.471
X-3.129 Y-30.622 Z-0.255
X-3.186 Y-30.697
X-3.305 Y-30.842 Z-0.256
X-3.388 Y-30.936
X-3.65 Y-31.21 Z-0.257
X-3.749 Y-31.305
X-4.043 Y-31.563 Z-0.258
X-4.119 Y-31.626 Z-0.259
X-4.439 Y-31.873 Z-0.26
X-4.491 Y-31.912
X-4.832 Y-32.154 Z-0.261
X-4.86 Y-32.174
X-5.217 Y-32.416 Z-0.263
X-5.224 Y-32.421
X-5.586 Y-32.664 Z-0.264
X-5.941 Y-32.907 Z-0.265
X-6.285 Y-33.154 Z-0.266
X-6.617 Y-33.409 Z-0.267
X-6.938 Y-33.678 Z-0.269
X-7.248 Y-33.964 Z-0.27
X-7.548 Y-34.272 Z-0.271
X-7.839 Y-34.605 Z-0.272
X-8.12 Y-34.967 Z-0.274
X-8.392 Y-35.361 Z-0.275
X-8.66 Y-35.798 Z-0.276
X-8.782 Y-36.017 Z-0.277
X-8.906 Y-36.255 Z-0.278
X-9.028 Y-36.503 Z-0.279
X-9.147 Y-36.761
X-9.263 Y-37.029 Z-0.28
X-9.376 Y-37.308 Z-0.281
X-9.486 Y-37.598 Z-0.282
X-9.592 Y-37.898 Z-0.283
X-9.695 Y-38.209 Z-0.284
X-9.794 Y-38.532 Z-0.285
X-9.89 Y-38.864 Z-0.286
X-9.983 Y-39.209 Z-0.287
X-10.071 Y-39.564 Z-0.288
X-10.156 Y-39.93 Z-0.289
X-10.238 Y-40.307 Z-0.29
X-10.315 Y-40.695 Z-0.291
X-10.389 Y-41.093 Z-0.292
X-10.459 Y-41.502 Z-0.293
X-10.526 Y-41.922 Z-0.295
X-10.589 Y-42.348 Z-0.296
X-10.705 Y-43.243 Z-0.298
X-10.807 Y-44.174 Z-0.301
X-10.896 Y-45.143 Z-0.304
X-10.974 Y-46.149 Z-0.307
X-11.04 Y-47.191 Z-0.31
X-11.096 Y-48.267 Z-0.313
X-11.144 Y-49.376 Z-0.316
X-11.183 Y-50.516 Z-0.319
X-11.216 Y-51.686 Z-0.322
X-11.243 Y-52.885 Z-0.326
X-11.265 Y-54.11 Z-0.329
X-11.285 Y-55.361 Z-0.333
X-11.302 Y-56.636 Z-0.337
X-11.318 Y-57.934 Z-0.34
X-11.333 Y-59.254 Z-0.344
X-11.349 Y-60.594 Z-0.348
Y-60.595
X-11.366 Y-61.954 Z-0.352
Y-61.956
X-11.386 Y-63.332 Z-0.356
Y-63.335
X-11.408 Y-64.729 Z-0.36
Y-64.732
X-11.433 Y-66.142 Z-0.364
Y-66.146
X-11.461 Y-67.573 Z-0.368
Y-67.575
G3 X-9.479 Y-130.438 Z-0.546 I600.837 J-12.518
G1 X-9.477 Y-130.471
G2 X-9.476 Y-131.462 Z-0.549 I-7.972 J-0.503
G3 X-9.235 Y-137.281 Z-0.566 I28.359 J-1.739
G2 X-9.62 Y-140.807 Z-0.576 I-7.014 J-1.018
G1 X-9.691 Y-140.995
X-9.762 Y-141.185 Z-0.577
X-9.833 Y-141.386 Z-0.578
X-9.906 Y-141.599
X-9.979 Y-141.827 Z-0.579
X-10.053 Y-142.072 Z-0.58
X-10.126 Y-142.335
X-10.203 Y-142.632 Z-0.581
X-10.205 Y-142.637
G3 X-10.641 Y-149.614 Z-0.601 I17.552 J-4.6
G2 X-10.925 Y-150.748 Z-0.605 I-1.574 J-0.208
G1 X-12.674 Y-153.182 Z-0.613
G2 X-14.89 Y-153.545 Z-0.62 I-1.289 J0.926
G1 X-16.875 Y-152.118 Z-0.627
G2 X-17.536 Y-150.829 Z-0.631 I0.927 J1.289
G1 Y-149.99 Z-0.634
G2 X-19.593 Y-150.165 Z-0.64 I-1.131 J1.114
G1 X-22.895 Y-147.792 Z-0.652
G2 X-23.544 Y-146.698 Z-0.655 I0.927 J1.289
G1 X-25.324 Y-132.306 Z-0.697
G2 X-25.42 Y-130.471 Z-0.702 I7.875 J1.334
G1 X-25.418 Y-130.438
G3 X-23.436 Y-67.575 Z-0.881 I-598.855 J50.346
G1 Y-67.573
X-23.464 Y-66.146 Z-0.885
Y-66.142
X-23.489 Y-64.731 Z-0.889
Y-64.728
X-23.511 Y-63.335 Z-0.893
Y-63.332
X-23.53 Y-61.955 Z-0.896
Y-61.953
X-23.547 Y-60.595 Z-0.9
Y-60.593
X-23.563 Y-59.254 Z-0.904
X-23.578 Y-57.934 Z-0.908
X-23.593 Y-56.636 Z-0.912
X-23.609 Y-55.36 Z-0.915
X-23.628 Y-54.109 Z-0.919
X-23.65 Y-52.884 Z-0.922
X-23.676 Y-51.685 Z-0.926
X-23.708 Y-50.515 Z-0.929
X-23.747 Y-49.375 Z-0.932
X-23.793 Y-48.266 Z-0.935
X-23.849 Y-47.19 Z-0.938
X-23.915 Y-46.148 Z-0.941
X-23.991 Y-45.142 Z-0.944
X-24.08 Y-44.173 Z-0.947
X-24.182 Y-43.243 Z-0.95
X-24.297 Y-42.348 Z-0.952
X-24.36 Y-41.922 Z-0.953
X-24.426 Y-41.502 Z-0.955
X-24.496 Y-41.093 Z-0.956
X-24.57 Y-40.695 Z-0.957
X-24.647 Y-40.307 Z-0.958
X-24.729 Y-39.93 Z-0.959
X-24.814 Y-39.564 Z-0.96
X-24.902 Y-39.209 Z-0.961
X-24.994 Y-38.865 Z-0.962
X-25.09 Y-38.532 Z-0.963
X-25.19 Y-38.21 Z-0.964
X-25.293 Y-37.899 Z-0.965
X-25.399 Y-37.599 Z-0.966
X-25.509 Y-37.309 Z-0.967
X-25.622 Y-37.03 Z-0.968
X-25.738 Y-36.762 Z-0.969
X-25.857 Y-36.504
X-25.979 Y-36.256 Z-0.97
X-26.103 Y-36.019 Z-0.971
X-26.226 Y-35.8 Z-0.972
X-26.494 Y-35.362 Z-0.973
X-26.766 Y-34.968 Z-0.975
X-27.048 Y-34.607 Z-0.976
X-27.34 Y-34.274 Z-0.977
X-27.64 Y-33.966 Z-0.978
X-27.951 Y-33.68 Z-0.98
X-28.273 Y-33.411 Z-0.981
X-28.606 Y-33.155 Z-0.982
X-28.951 Y-32.908 Z-0.983
X-29.307 Y-32.665 Z-0.984
X-29.67 Y-32.422 Z-0.986
X-29.677 Y-32.417
X-30.035 Y-32.175 Z-0.987
X-30.063 Y-32.155
X-30.404 Y-31.913 Z-0.988
X-30.457 Y-31.874
X-30.777 Y-31.626 Z-0.989
X-30.854 Y-31.563 Z-0.99
X-31.148 Y-31.305 Z-0.991
X-31.247 Y-31.21
X-31.509 Y-30.936 Z-0.992
X-31.593 Y-30.841 Z-0.993
X-31.711 Y-30.696
X-31.769 Y-30.621
X-31.878 Y-30.47 Z-0.994
X-31.935 Y-30.385
X-32.033 Y-30.228 Z-0.995
X-32.087 Y-30.135
X-32.175 Y-29.971 Z-0.996
X-32.224 Y-29.871
X-32.301 Y-29.699
X-32.344 Y-29.594 Z-0.997
X-32.409 Y-29.415
X-32.444 Y-29.309 Z-0.998
X-32.498 Y-29.122
X-32.525 Y-29.016 Z-0.999
X-32.567 Y-28.82
X-32.585 Y-28.718
X-32.615 Y-28.514 Z-1
X-32.617 Y-28.5
S3000
X-32.626 Y-28.416 F1000
X-32.644 Y-28.203
X-32.649 Y-28.112
X-32.655 Y-27.891
Y-27.805
X-32.649 Y-27.576
X-32.645 Y-27.499
X-32.627 Y-27.262
X-32.62 Y-27.191
X-32.59 Y-26.946
X-32.581 Y-26.883
X-32.54 Y-26.63
X-32.529 Y-26.573
X-32.477 Y-26.314
X-32.466 Y-26.262
X-32.403 Y-25.997
X-32.391 Y-25.951
X-32.319 Y-25.68
X-32.306 Y-25.637
X-32.224 Y-25.36
X-32.212 Y-25.323
X-32.121 Y-25.042
X-32.104 Y-24.992
X-31.896 Y-24.419
X-31.874 Y-24.363
X-31.637 Y-23.779
X-31.618 Y-23.734
X-31.357 Y-23.144
X-31.34 Y-23.107
X-31.06 Y-22.517
X-31.045 Y-22.487
X-30.753 Y-21.901
X-30.741 Y-21.879
X-30.442 Y-21.302
X-30.433 Y-21.286
X-30.133 Y-20.722
X-30.128 Y-20.714
X-29.832 Y-20.168
Y-20.167
X-29.55 Y-19.647
X-29.29 Y-19.162
X-29.058 Y-18.713
X-28.958 Y-18.512
X-28.867 Y-18.32
X-28.787 Y-18.142
X-28.718 Y-17.978
X-28.661 Y-17.83
X-28.616 Y-17.7
X-28.583 Y-17.587
X-28.56 Y-17.493
X-28.546 Y-17.417
X-28.539 Y-17.358
X-28.537 Y-17.312
X-28.539 Y-17.276
X-28.542 Y-17.245
X-28.549 Y-17.213
X-28.56 Y-17.172
X-28.579 Y-17.121
X-28.608 Y-17.057
X-28.65 Y-16.976
X-28.706 Y-16.881
X-28.778 Y-16.771
X-28.866 Y-16.647
X-28.969 Y-16.509
X-29.087 Y-16.36
X-29.217 Y-16.202
X-29.521 Y-15.843
X-29.859 Y-15.451
X-29.864 Y-15.446
X-30.223 Y-15.027
X-30.24 Y-15.007
X-30.608 Y-14.564
X-30.634 Y-14.531
X-31.001 Y-14.064
X-31.034 Y-14.02
X-31.393 Y-13.53
X-31.433 Y-13.472
X-31.773 Y-12.96
X-31.818 Y-12.889
X-32.133 Y-12.356
X-32.168 Y-12.293
X-32.313 Y-12.02
X-32.338 Y-11.972
X-32.474 Y-11.694
X-32.497 Y-11.643
X-32.623 Y-11.362
X-32.647 Y-11.305
X-32.761 Y-11.02
X-32.784 Y-10.959
X-32.886 Y-10.67
X-32.908 Y-10.604
X-32.996 Y-10.313
X-33.016 Y-10.242
X-33.091 Y-9.948
X-33.108 Y-9.872
X-33.168 Y-9.576
X-33.182 Y-9.496
X-33.226 Y-9.199
X-33.237 Y-9.115
X-33.265 Y-8.817
X-33.271 Y-8.729
X-33.283 Y-8.431
X-33.284 Y-8.34
X-33.278 Y-8.042
X-33.274 Y-7.95
X-33.251 Y-7.653
X-33.241 Y-7.56
X-33.201 Y-7.264
X-33.186 Y-7.172
X-33.128 Y-6.879
X-33.108 Y-6.789
X-33.033 Y-6.498
X-33.007 Y-6.41
X-32.915 Y-6.124
X-32.886 Y-6.039
X-32.777 Y-5.758
X-32.744 Y-5.677
X-32.62 Y-5.401
X-32.583 Y-5.325
X-32.444 Y-5.056
X-32.404 Y-4.982
X-32.252 Y-4.721
X-32.21 Y-4.653
X-32.044 Y-4.4
X-32 Y-4.335
X-31.823 Y-4.092
X-31.776 Y-4.03
X-31.589 Y-3.797
X-31.54 Y-3.739
X-31.344 Y-3.517
X-31.292 Y-3.461
X-31.088 Y-3.252
X-31.034 Y-3.199
X-30.823 Y-3.002
X-30.766 Y-2.951
X-30.55 Y-2.768
X-30.489 Y-2.719
X-30.269 Y-2.55
X-30.204 Y-2.503
X-29.981 Y-2.349
X-29.911 Y-2.304
X-29.686 Y-2.165
X-29.61 Y-2.122
X-29.384 Y-2
X-29.303 Y-1.959
X-29.076 Y-1.852
X-28.988 Y-1.814
X-28.762 Y-1.725
X-28.668 Y-1.691
X-28.443 Y-1.617
X-28.342 Y-1.588
X-28.119 Y-1.532
X-28.011 Y-1.508
X-27.791 Y-1.468
X-27.678 Y-1.452
X-27.46 Y-1.429
X-27.343 Y-1.421
X-27.128 Y-1.413
X-27.009 Y-1.414
X-26.797 Y-1.423
X-26.678 Y-1.432
X-26.469 Y-1.457
X-26.352 Y-1.475
X-26.147 Y-1.515
X-26.035 Y-1.541
X-25.834 Y-1.596
X-25.728 Y-1.628
X-25.53 Y-1.697
X-25.434 Y-1.734
X-25.238 Y-1.816
X-25.151 Y-1.856
X-24.959 Y-1.952
X-24.882 Y-1.992
X-24.692 Y-2.1
X-24.625 Y-2.14
X-24.437 Y-2.258
X-24.356 Y-2.313
X-23.984 Y-2.581
X-23.906 Y-2.641
X-23.537 Y-2.944
X-23.49 Y-2.984
X-23.117 Y-3.314
X-23.096 Y-3.334
X-22.717 Y-3.683
X-22.335 Y-4.033
X-21.955 Y-4.369
X-21.57 Y-4.687
X-21.177 Y-4.983
X-20.758 Y-5.262
X-20.559 Y-5.38
X-20.345 Y-5.498
X-20.126 Y-5.608
X-19.902 Y-5.711
X-19.673 Y-5.804
X-19.44 Y-5.89
X-19.202 Y-5.966
X-18.96 Y-6.033
X-18.715 Y-6.09
X-18.466 Y-6.137
X-18.214 Y-6.174
X-17.96 Y-6.201
X-17.705 Y-6.217
X-17.449 Y-6.222
X-17.192 Y-6.217
X-16.935 Y-6.201
X-16.68 Y-6.174
X-16.425 Y-6.137
X-16.173 Y-6.09
X-15.924 Y-6.033
X-15.678 Y-5.967
X-15.435 Y-5.891
X-15.196 Y-5.806
X-14.962 Y-5.713
X-14.733 Y-5.612
X-14.508 Y-5.503
X-14.288 Y-5.386
X-14.082 Y-5.269
X-13.651 Y-4.997
X-13.245 Y-4.708
X-12.849 Y-4.4
X-12.457 Y-4.075
X-12.063 Y-3.739
X-12.062 Y-3.738
X-11.672 Y-3.406
X-11.649 Y-3.386
X-11.266 Y-3.073
X-11.217 Y-3.034
X-10.837 Y-2.747
X-10.758 Y-2.691
X-10.376 Y-2.438
X-10.295 Y-2.388
X-10.102 Y-2.276
X-10.036 Y-2.24
X-9.842 Y-2.139
X-9.766 Y-2.103
X-9.569 Y-2.014
X-9.485 Y-1.978
X-9.285 Y-1.902
X-9.192 Y-1.869
X-8.989 Y-1.806
X-8.889 Y-1.778
X-8.683 Y-1.728
X-8.577 Y-1.706
X-8.368 Y-1.67
X-8.257 Y-1.655
X-8.046 Y-1.634
X-7.933 Y-1.627
X-7.718 Y-1.621
X-7.605 Y-1.622
X-7.387 Y-1.631
X-7.277 Y-1.639
X-7.056 Y-1.664
X-6.949 Y-1.68
X-6.726 Y-1.721
X-6.624 Y-1.743
X-6.398 Y-1.8
X-6.301 Y-1.827
X-6.074 Y-1.9
X-5.983 Y-1.932
X-5.755 Y-2.02
X-5.67 Y-2.056
X-5.441 Y-2.16
X-5.362 Y-2.199
X-5.133 Y-2.319
X-5.059 Y-2.36
X-4.831 Y-2.496
X-4.762 Y-2.539
X-4.536 Y-2.689
X-4.472 Y-2.735
X-4.249 Y-2.9
X-4.188 Y-2.947
X-3.969 Y-3.126
X-3.911 Y-3.175
X-3.698 Y-3.367
X-3.643 Y-3.419
X-3.436 Y-3.624
X-3.384 Y-3.678
X-3.185 Y-3.895
X-3.134 Y-3.952
X-2.944 Y-4.18
X-2.896 Y-4.241
X-2.717 Y-4.479
X-2.67 Y-4.544
X-2.503 Y-4.791
X-2.458 Y-4.861
X-2.304 Y-5.116
X-2.262 Y-5.19
X-2.122 Y-5.453
X-2.082 Y-5.532
X-1.957 Y-5.802
X-1.921 Y-5.885
X-1.812 Y-6.16
X-1.781 Y-6.249
X-1.688 Y-6.529
X-1.661 Y-6.621
X-1.586 Y-6.905
X-1.564 Y-7
X-1.507 Y-7.287
X-1.491 Y-7.384
X-1.452 Y-7.673
X-1.442 Y-7.771
