(Stabikreuz)
(Bearbeiten)
(  Hersteller: ChinaCnc)
(  model: 3040T)
(  description: Generic 3-axis)
(T5 D=3.175 CR=0 - ZMIN=-4.3 - Schaftfrser)
G90 G94
G17
G21
(-Attention- Property Safe Retracts is set to Clearance Height.)
(Ensure the clearance height will clear the part and or fixtures.)
(Raise the Z-axis to a safe height before starting the program.)
(When using Fusion for Personal Use, the feedrate of rapid)
(moves is reduced to match the feedrate of cutting moves,)
(which can increase machining time. Unrestricted rapid moves)
(are available with a Fusion Subscription.)

(Bohrfrsen10)
M0
(MANUAL TOOL CHANGE TO T5)
S6000 M3
G17 G90 G94
G54
G0 X-10.078 Y-14.005
Z15
G1 Z2.682 F1000
Z1
X-9.919
X-9.888 Y-13.999
X-9.861 Y-13.981
X-9.844 Y-13.955
X-9.837 Y-13.924
G3 X-10.163 Y-13.924 Z0.939 I-0.163 J0
X-9.837 Y-13.924 Z0.878 I0.163 J0
X-10.163 Y-13.924 Z0.817 I-0.163 J0
X-9.837 Y-13.924 Z0.756 I0.163 J0
X-10.163 Y-13.924 Z0.694 I-0.163 J0
X-9.837 Y-13.924 Z0.633 I0.163 J0
X-10.163 Y-13.924 Z0.572 I-0.163 J0
X-9.837 Y-13.924 Z0.511 I0.163 J0
X-10.163 Y-13.924 Z0.45 I-0.163 J0
X-9.837 Y-13.924 Z0.389 I0.163 J0
X-10.163 Y-13.924 Z0.328 I-0.163 J0
X-9.837 Y-13.924 Z0.267 I0.163 J0
X-10.163 Y-13.924 Z0.206 I-0.163 J0
X-9.837 Y-13.924 Z0.144 I0.163 J0
X-10.163 Y-13.924 Z0.083 I-0.163 J0
X-9.837 Y-13.924 Z0.022 I0.163 J0
X-10.163 Y-13.924 Z-0.039 I-0.163 J0
X-9.837 Y-13.924 Z-0.1 I0.163 J0
X-10.163 Y-13.924 Z-0.161 I-0.163 J0
X-9.837 Y-13.924 Z-0.222 I0.163 J0
X-10.163 Y-13.924 Z-0.283 I-0.163 J0
X-9.837 Y-13.924 Z-0.344 I0.163 J0
X-10.163 Y-13.924 Z-0.406 I-0.163 J0
X-9.837 Y-13.924 Z-0.467 I0.163 J0
X-10.163 Y-13.924 Z-0.528 I-0.163 J0
X-9.837 Y-13.924 Z-0.589 I0.163 J0
X-10.163 Y-13.924 Z-0.65 I-0.163 J0
X-9.837 Y-13.924 Z-0.711 I0.163 J0
X-10.163 Y-13.924 Z-0.772 I-0.163 J0
X-9.837 Y-13.924 Z-0.833 I0.163 J0
X-10.163 Y-13.924 Z-0.894 I-0.163 J0
X-9.837 Y-13.924 Z-0.956 I0.163 J0
X-10.163 Y-13.924 Z-1.017 I-0.163 J0
X-9.837 Y-13.924 Z-1.078 I0.163 J0
X-10.163 Y-13.924 Z-1.139 I-0.163 J0
X-9.837 Y-13.924 Z-1.2 I0.163 J0
X-10.163 Y-13.924 Z-1.261 I-0.163 J0
X-9.837 Y-13.924 Z-1.322 I0.163 J0
X-10.163 Y-13.924 Z-1.383 I-0.163 J0
X-9.837 Y-13.924 Z-1.444 I0.163 J0
X-10.163 Y-13.924 Z-1.506 I-0.163 J0
X-9.837 Y-13.924 Z-1.567 I0.163 J0
X-10.163 Y-13.924 Z-1.628 I-0.163 J0
X-9.837 Y-13.924 Z-1.689 I0.163 J0
X-10.163 Y-13.924 Z-1.75 I-0.163 J0
X-9.837 Y-13.924 Z-1.811 I0.163 J0
X-10.163 Y-13.924 Z-1.872 I-0.163 J0
X-9.837 Y-13.924 Z-1.933 I0.163 J0
X-10.163 Y-13.924 Z-1.994 I-0.163 J0
X-9.837 Y-13.924 Z-2.056 I0.163 J0
X-10.163 Y-13.924 Z-2.117 I-0.163 J0
X-9.837 Y-13.924 Z-2.178 I0.163 J0
X-10.163 Y-13.924 Z-2.239 I-0.163 J0
X-9.837 Y-13.924 Z-2.3 I0.163 J0
X-10.163 Y-13.924 Z-2.361 I-0.163 J0
X-9.837 Y-13.924 Z-2.422 I0.163 J0
X-10.163 Y-13.924 Z-2.483 I-0.163 J0
X-9.837 Y-13.924 Z-2.544 I0.163 J0
X-10.163 Y-13.924 Z-2.606 I-0.163 J0
X-9.837 Y-13.924 Z-2.667 I0.163 J0
X-10.163 Y-13.924 Z-2.728 I-0.163 J0
X-9.837 Y-13.924 Z-2.789 I0.163 J0
X-10.163 Y-13.924 Z-2.85 I-0.163 J0
X-9.837 Y-13.924 Z-2.911 I0.163 J0
X-10.163 Y-13.924 Z-2.972 I-0.163 J0
X-9.837 Y-13.924 Z-3.033 I0.163 J0
X-10.163 Y-13.924 Z-3.094 I-0.163 J0
X-9.837 Y-13.924 Z-3.156 I0.163 J0
X-10.163 Y-13.924 Z-3.217 I-0.163 J0
X-9.837 Y-13.924 Z-3.278 I0.163 J0
X-10.163 Y-13.924 Z-3.339 I-0.163 J0
X-9.837 Y-13.924 Z-3.4 I0.163 J0
X-10.163 Y-13.924 Z-3.461 I-0.163 J0
X-9.837 Y-13.924 Z-3.522 I0.163 J0
X-10.163 Y-13.924 Z-3.583 I-0.163 J0
X-9.837 Y-13.924 Z-3.644 I0.163 J0
X-10.163 Y-13.924 Z-3.706 I-0.163 J0
X-9.837 Y-13.924 Z-3.767 I0.163 J0
X-10.163 Y-13.924 Z-3.828 I-0.163 J0
X-9.837 Y-13.924 Z-3.889 I0.163 J0
X-10.163 Y-13.924 Z-3.95 I-0.163 J0
X-9.837 Y-13.924 Z-4.011 I0.163 J0
X-10.163 Y-13.924 Z-4.072 I-0.163 J0
X-9.837 Y-13.924 Z-4.133 I0.163 J0
X-10.163 Y-13.924 Z-4.194 I-0.163 J0
X-9.837 Y-13.924 Z-4.256 I0.163 J0
X-10.106 Y-13.801 Z-4.3 I-0.163 J0
X-9.894 Y-14.047 I0.106 J-0.123
X-10.106 Y-13.801 I-0.106 J0.123
G1 X-10.126 Y-13.826
X-10.134 Y-13.856
X-10.13 Y-13.888
X-10.115 Y-13.915
X-10.011 Y-14.035
Z5
X-34.827 Y-29.831
Z2.682
Z1
X-34.669
X-34.638 Y-29.825
X-34.611 Y-29.807
X-34.594 Y-29.781
X-34.588 Y-29.75
G3 X-34.912 Y-29.75 Z0.939 I-0.162 J0
X-34.588 Y-29.75 Z0.878 I0.162 J0
X-34.912 Y-29.75 Z0.817 I-0.162 J0
X-34.588 Y-29.75 Z0.756 I0.162 J0
X-34.912 Y-29.75 Z0.694 I-0.162 J0
X-34.588 Y-29.75 Z0.633 I0.162 J0
X-34.912 Y-29.75 Z0.572 I-0.162 J0
X-34.588 Y-29.75 Z0.511 I0.162 J0
X-34.912 Y-29.75 Z0.45 I-0.162 J0
X-34.588 Y-29.75 Z0.389 I0.162 J0
X-34.912 Y-29.75 Z0.328 I-0.162 J0
X-34.588 Y-29.75 Z0.267 I0.162 J0
X-34.912 Y-29.75 Z0.206 I-0.162 J0
X-34.588 Y-29.75 Z0.144 I0.162 J0
X-34.912 Y-29.75 Z0.083 I-0.162 J0
X-34.588 Y-29.75 Z0.022 I0.162 J0
X-34.912 Y-29.75 Z-0.039 I-0.162 J0
X-34.588 Y-29.75 Z-0.1 I0.162 J0
X-34.912 Y-29.75 Z-0.161 I-0.162 J0
X-34.588 Y-29.75 Z-0.222 I0.162 J0
X-34.912 Y-29.75 Z-0.283 I-0.162 J0
X-34.588 Y-29.75 Z-0.344 I0.162 J0
X-34.912 Y-29.75 Z-0.406 I-0.162 J0
X-34.588 Y-29.75 Z-0.467 I0.162 J0
X-34.912 Y-29.75 Z-0.528 I-0.162 J0
X-34.588 Y-29.75 Z-0.589 I0.162 J0
X-34.912 Y-29.75 Z-0.65 I-0.162 J0
X-34.588 Y-29.75 Z-0.711 I0.162 J0
X-34.912 Y-29.75 Z-0.772 I-0.162 J0
X-34.588 Y-29.75 Z-0.833 I0.162 J0
X-34.912 Y-29.75 Z-0.894 I-0.162 J0
X-34.588 Y-29.75 Z-0.956 I0.162 J0
X-34.912 Y-29.75 Z-1.017 I-0.162 J0
X-34.588 Y-29.75 Z-1.078 I0.162 J0
X-34.912 Y-29.75 Z-1.139 I-0.162 J0
X-34.588 Y-29.75 Z-1.2 I0.162 J0
X-34.912 Y-29.75 Z-1.261 I-0.162 J0
X-34.588 Y-29.75 Z-1.322 I0.162 J0
X-34.912 Y-29.75 Z-1.383 I-0.162 J0
X-34.588 Y-29.75 Z-1.444 I0.162 J0
X-34.912 Y-29.75 Z-1.506 I-0.162 J0
X-34.588 Y-29.75 Z-1.567 I0.162 J0
X-34.912 Y-29.75 Z-1.628 I-0.162 J0
X-34.588 Y-29.75 Z-1.689 I0.162 J0
X-34.912 Y-29.75 Z-1.75 I-0.162 J0
X-34.588 Y-29.75 Z-1.811 I0.162 J0
X-34.912 Y-29.75 Z-1.872 I-0.162 J0
X-34.588 Y-29.75 Z-1.933 I0.162 J0
X-34.912 Y-29.75 Z-1.994 I-0.162 J0
X-34.588 Y-29.75 Z-2.056 I0.162 J0
X-34.912 Y-29.75 Z-2.117 I-0.162 J0
X-34.588 Y-29.75 Z-2.178 I0.162 J0
X-34.912 Y-29.75 Z-2.239 I-0.162 J0
X-34.588 Y-29.75 Z-2.3 I0.162 J0
X-34.912 Y-29.75 Z-2.361 I-0.162 J0
X-34.588 Y-29.75 Z-2.422 I0.162 J0
X-34.912 Y-29.75 Z-2.483 I-0.162 J0
X-34.588 Y-29.75 Z-2.544 I0.162 J0
X-34.912 Y-29.75 Z-2.606 I-0.162 J0
X-34.588 Y-29.75 Z-2.667 I0.162 J0
X-34.912 Y-29.75 Z-2.728 I-0.162 J0
X-34.588 Y-29.75 Z-2.789 I0.162 J0
X-34.912 Y-29.75 Z-2.85 I-0.162 J0
X-34.588 Y-29.75 Z-2.911 I0.162 J0
X-34.912 Y-29.75 Z-2.972 I-0.162 J0
X-34.588 Y-29.75 Z-3.033 I0.162 J0
X-34.912 Y-29.75 Z-3.094 I-0.162 J0
X-34.588 Y-29.75 Z-3.156 I0.162 J0
X-34.912 Y-29.75 Z-3.217 I-0.162 J0
X-34.588 Y-29.75 Z-3.278 I0.162 J0
X-34.912 Y-29.75 Z-3.339 I-0.162 J0
X-34.588 Y-29.75 Z-3.4 I0.162 J0
X-34.912 Y-29.75 Z-3.461 I-0.162 J0
X-34.588 Y-29.75 Z-3.522 I0.162 J0
X-34.912 Y-29.75 Z-3.583 I-0.162 J0
X-34.588 Y-29.75 Z-3.644 I0.162 J0
X-34.912 Y-29.75 Z-3.706 I-0.162 J0
X-34.588 Y-29.75 Z-3.767 I0.162 J0
X-34.912 Y-29.75 Z-3.828 I-0.162 J0
X-34.588 Y-29.75 Z-3.889 I0.162 J0
X-34.912 Y-29.75 Z-3.95 I-0.162 J0
X-34.588 Y-29.75 Z-4.011 I0.162 J0
X-34.912 Y-29.75 Z-4.072 I-0.162 J0
X-34.588 Y-29.75 Z-4.133 I0.162 J0
X-34.912 Y-29.75 Z-4.194 I-0.162 J0
X-34.588 Y-29.75 Z-4.256 I0.162 J0
X-34.856 Y-29.627 Z-4.3 I-0.162 J0
X-34.644 Y-29.873 I0.106 J-0.123
X-34.856 Y-29.627 I-0.106 J0.123
G1 X-34.876 Y-29.652
X-34.884 Y-29.683
X-34.88 Y-29.714
X-34.865 Y-29.742
X-34.761 Y-29.862
Z5
X-65.327 Y-29.831
Z2.682
Z1
X-65.169
X-65.138 Y-29.825
X-65.111 Y-29.807
X-65.094 Y-29.781
X-65.088 Y-29.75
G3 X-65.412 Y-29.75 Z0.939 I-0.162 J0
X-65.088 Y-29.75 Z0.878 I0.162 J0
X-65.412 Y-29.75 Z0.817 I-0.162 J0
X-65.088 Y-29.75 Z0.756 I0.162 J0
X-65.412 Y-29.75 Z0.694 I-0.162 J0
X-65.088 Y-29.75 Z0.633 I0.162 J0
X-65.412 Y-29.75 Z0.572 I-0.162 J0
X-65.088 Y-29.75 Z0.511 I0.162 J0
X-65.412 Y-29.75 Z0.45 I-0.162 J0
X-65.088 Y-29.75 Z0.389 I0.162 J0
X-65.412 Y-29.75 Z0.328 I-0.162 J0
X-65.088 Y-29.75 Z0.267 I0.162 J0
X-65.412 Y-29.75 Z0.206 I-0.162 J0
X-65.088 Y-29.75 Z0.144 I0.162 J0
X-65.412 Y-29.75 Z0.083 I-0.162 J0
X-65.088 Y-29.75 Z0.022 I0.162 J0
X-65.412 Y-29.75 Z-0.039 I-0.162 J0
X-65.088 Y-29.75 Z-0.1 I0.162 J0
X-65.412 Y-29.75 Z-0.161 I-0.162 J0
X-65.088 Y-29.75 Z-0.222 I0.162 J0
X-65.412 Y-29.75 Z-0.283 I-0.162 J0
X-65.088 Y-29.75 Z-0.344 I0.162 J0
X-65.412 Y-29.75 Z-0.406 I-0.162 J0
X-65.088 Y-29.75 Z-0.467 I0.162 J0
X-65.412 Y-29.75 Z-0.528 I-0.162 J0
X-65.088 Y-29.75 Z-0.589 I0.162 J0
X-65.412 Y-29.75 Z-0.65 I-0.162 J0
X-65.088 Y-29.75 Z-0.711 I0.162 J0
X-65.412 Y-29.75 Z-0.772 I-0.162 J0
X-65.088 Y-29.75 Z-0.833 I0.162 J0
X-65.412 Y-29.75 Z-0.894 I-0.162 J0
X-65.088 Y-29.75 Z-0.956 I0.162 J0
X-65.412 Y-29.75 Z-1.017 I-0.162 J0
X-65.088 Y-29.75 Z-1.078 I0.162 J0
X-65.412 Y-29.75 Z-1.139 I-0.162 J0
X-65.088 Y-29.75 Z-1.2 I0.162 J0
X-65.412 Y-29.75 Z-1.261 I-0.162 J0
X-65.088 Y-29.75 Z-1.322 I0.162 J0
X-65.412 Y-29.75 Z-1.383 I-0.162 J0
X-65.088 Y-29.75 Z-1.444 I0.162 J0
X-65.412 Y-29.75 Z-1.506 I-0.162 J0
X-65.088 Y-29.75 Z-1.567 I0.162 J0
X-65.412 Y-29.75 Z-1.628 I-0.162 J0
X-65.088 Y-29.75 Z-1.689 I0.162 J0
X-65.412 Y-29.75 Z-1.75 I-0.162 J0
X-65.088 Y-29.75 Z-1.811 I0.162 J0
X-65.412 Y-29.75 Z-1.872 I-0.162 J0
X-65.088 Y-29.75 Z-1.933 I0.162 J0
X-65.412 Y-29.75 Z-1.994 I-0.162 J0
X-65.088 Y-29.75 Z-2.056 I0.162 J0
X-65.412 Y-29.75 Z-2.117 I-0.162 J0
X-65.088 Y-29.75 Z-2.178 I0.162 J0
X-65.412 Y-29.75 Z-2.239 I-0.162 J0
X-65.088 Y-29.75 Z-2.3 I0.162 J0
X-65.412 Y-29.75 Z-2.361 I-0.162 J0
X-65.088 Y-29.75 Z-2.422 I0.162 J0
X-65.412 Y-29.75 Z-2.483 I-0.162 J0
X-65.088 Y-29.75 Z-2.544 I0.162 J0
X-65.412 Y-29.75 Z-2.606 I-0.162 J0
X-65.088 Y-29.75 Z-2.667 I0.162 J0
X-65.412 Y-29.75 Z-2.728 I-0.162 J0
X-65.088 Y-29.75 Z-2.789 I0.162 J0
X-65.412 Y-29.75 Z-2.85 I-0.162 J0
X-65.088 Y-29.75 Z-2.911 I0.162 J0
X-65.412 Y-29.75 Z-2.972 I-0.162 J0
X-65.088 Y-29.75 Z-3.033 I0.162 J0
X-65.412 Y-29.75 Z-3.094 I-0.162 J0
X-65.088 Y-29.75 Z-3.156 I0.162 J0
X-65.412 Y-29.75 Z-3.217 I-0.162 J0
X-65.088 Y-29.75 Z-3.278 I0.162 J0
X-65.412 Y-29.75 Z-3.339 I-0.162 J0
X-65.088 Y-29.75 Z-3.4 I0.162 J0
X-65.412 Y-29.75 Z-3.461 I-0.162 J0
X-65.088 Y-29.75 Z-3.522 I0.162 J0
X-65.412 Y-29.75 Z-3.583 I-0.162 J0
X-65.088 Y-29.75 Z-3.644 I0.162 J0
X-65.412 Y-29.75 Z-3.706 I-0.162 J0
X-65.088 Y-29.75 Z-3.767 I0.162 J0
X-65.412 Y-29.75 Z-3.828 I-0.162 J0
X-65.088 Y-29.75 Z-3.889 I0.162 J0
X-65.412 Y-29.75 Z-3.95 I-0.162 J0
X-65.088 Y-29.75 Z-4.011 I0.162 J0
X-65.412 Y-29.75 Z-4.072 I-0.162 J0
X-65.088 Y-29.75 Z-4.133 I0.162 J0
X-65.412 Y-29.75 Z-4.194 I-0.162 J0
X-65.088 Y-29.75 Z-4.256 I0.162 J0
X-65.356 Y-29.627 Z-4.3 I-0.162 J0
X-65.144 Y-29.873 I0.106 J-0.123
X-65.356 Y-29.627 I-0.106 J0.123
G1 X-65.376 Y-29.652
X-65.384 Y-29.683
X-65.38 Y-29.714
X-65.365 Y-29.742
X-65.261 Y-29.862
Z5
X-90.077 Y-14.005
Z2.682
Z1
X-89.919
X-89.888 Y-13.999
X-89.861 Y-13.981
X-89.844 Y-13.955
X-89.838 Y-13.924
G3 X-90.162 Y-13.924 Z0.939 I-0.162 J0
X-89.838 Y-13.924 Z0.878 I0.162 J0
X-90.162 Y-13.924 Z0.817 I-0.162 J0
X-89.838 Y-13.924 Z0.756 I0.162 J0
X-90.162 Y-13.924 Z0.694 I-0.162 J0
X-89.838 Y-13.924 Z0.633 I0.162 J0
X-90.162 Y-13.924 Z0.572 I-0.162 J0
X-89.838 Y-13.924 Z0.511 I0.162 J0
X-90.162 Y-13.924 Z0.45 I-0.162 J0
X-89.838 Y-13.924 Z0.389 I0.162 J0
X-90.162 Y-13.924 Z0.328 I-0.162 J0
X-89.838 Y-13.924 Z0.267 I0.162 J0
X-90.162 Y-13.924 Z0.206 I-0.162 J0
X-89.838 Y-13.924 Z0.144 I0.162 J0
X-90.162 Y-13.924 Z0.083 I-0.162 J0
X-89.838 Y-13.924 Z0.022 I0.162 J0
X-90.162 Y-13.924 Z-0.039 I-0.162 J0
X-89.838 Y-13.924 Z-0.1 I0.162 J0
X-90.162 Y-13.924 Z-0.161 I-0.162 J0
X-89.838 Y-13.924 Z-0.222 I0.162 J0
X-90.162 Y-13.924 Z-0.283 I-0.162 J0
X-89.838 Y-13.924 Z-0.344 I0.162 J0
X-90.162 Y-13.924 Z-0.406 I-0.162 J0
X-89.838 Y-13.924 Z-0.467 I0.162 J0
X-90.162 Y-13.924 Z-0.528 I-0.162 J0
X-89.838 Y-13.924 Z-0.589 I0.162 J0
X-90.162 Y-13.924 Z-0.65 I-0.162 J0
X-89.838 Y-13.924 Z-0.711 I0.162 J0
X-90.162 Y-13.924 Z-0.772 I-0.162 J0
X-89.838 Y-13.924 Z-0.833 I0.162 J0
X-90.162 Y-13.924 Z-0.894 I-0.162 J0
X-89.838 Y-13.924 Z-0.956 I0.162 J0
X-90.162 Y-13.924 Z-1.017 I-0.162 J0
X-89.838 Y-13.924 Z-1.078 I0.162 J0
X-90.162 Y-13.924 Z-1.139 I-0.162 J0
X-89.838 Y-13.924 Z-1.2 I0.162 J0
X-90.162 Y-13.924 Z-1.261 I-0.162 J0
X-89.838 Y-13.924 Z-1.322 I0.162 J0
X-90.162 Y-13.924 Z-1.383 I-0.162 J0
X-89.838 Y-13.924 Z-1.444 I0.162 J0
X-90.162 Y-13.924 Z-1.506 I-0.162 J0
X-89.838 Y-13.924 Z-1.567 I0.162 J0
X-90.162 Y-13.924 Z-1.628 I-0.162 J0
X-89.838 Y-13.924 Z-1.689 I0.162 J0
X-90.162 Y-13.924 Z-1.75 I-0.162 J0
X-89.838 Y-13.924 Z-1.811 I0.162 J0
X-90.162 Y-13.924 Z-1.872 I-0.162 J0
X-89.838 Y-13.924 Z-1.933 I0.162 J0
X-90.162 Y-13.924 Z-1.994 I-0.162 J0
X-89.838 Y-13.924 Z-2.056 I0.162 J0
X-90.162 Y-13.924 Z-2.117 I-0.162 J0
X-89.838 Y-13.924 Z-2.178 I0.162 J0
X-90.162 Y-13.924 Z-2.239 I-0.162 J0
X-89.838 Y-13.924 Z-2.3 I0.162 J0
X-90.162 Y-13.924 Z-2.361 I-0.162 J0
X-89.838 Y-13.924 Z-2.422 I0.162 J0
X-90.162 Y-13.924 Z-2.483 I-0.162 J0
X-89.838 Y-13.924 Z-2.544 I0.162 J0
X-90.162 Y-13.924 Z-2.606 I-0.162 J0
X-89.838 Y-13.924 Z-2.667 I0.162 J0
X-90.162 Y-13.924 Z-2.728 I-0.162 J0
X-89.838 Y-13.924 Z-2.789 I0.162 J0
X-90.162 Y-13.924 Z-2.85 I-0.162 J0
X-89.838 Y-13.924 Z-2.911 I0.162 J0
X-90.162 Y-13.924 Z-2.972 I-0.162 J0
X-89.838 Y-13.924 Z-3.033 I0.162 J0
X-90.162 Y-13.924 Z-3.094 I-0.162 J0
X-89.838 Y-13.924 Z-3.156 I0.162 J0
X-90.162 Y-13.924 Z-3.217 I-0.162 J0
X-89.838 Y-13.924 Z-3.278 I0.162 J0
X-90.162 Y-13.924 Z-3.339 I-0.162 J0
X-89.838 Y-13.924 Z-3.4 I0.162 J0
X-90.162 Y-13.924 Z-3.461 I-0.162 J0
X-89.838 Y-13.924 Z-3.522 I0.162 J0
X-90.162 Y-13.924 Z-3.583 I-0.162 J0
X-89.838 Y-13.924 Z-3.644 I0.162 J0
X-90.162 Y-13.924 Z-3.706 I-0.162 J0
X-89.838 Y-13.924 Z-3.767 I0.162 J0
X-90.162 Y-13.924 Z-3.828 I-0.162 J0
X-89.838 Y-13.924 Z-3.889 I0.162 J0
X-90.162 Y-13.924 Z-3.95 I-0.162 J0
X-89.838 Y-13.924 Z-4.011 I0.162 J0
X-90.162 Y-13.924 Z-4.072 I-0.162 J0
X-89.838 Y-13.924 Z-4.133 I0.162 J0
X-90.162 Y-13.924 Z-4.194 I-0.162 J0
X-89.838 Y-13.924 Z-4.256 I0.162 J0
X-90.106 Y-13.801 Z-4.3 I-0.162 J0
X-89.894 Y-14.047 I0.106 J-0.123
X-90.106 Y-13.801 I-0.106 J0.123
G1 X-90.126 Y-13.826
X-90.134 Y-13.856
X-90.13 Y-13.888
X-90.115 Y-13.915
X-90.011 Y-14.035
Z5
X-90.077 Y-76.158
Z2.682
Z1
X-89.919
X-89.888 Y-76.151
X-89.861 Y-76.134
X-89.844 Y-76.108
X-89.838 Y-76.076
G3 X-90.162 Y-76.076 Z0.939 I-0.162 J0
X-89.838 Y-76.076 Z0.878 I0.162 J0
X-90.162 Y-76.076 Z0.817 I-0.162 J0
X-89.838 Y-76.076 Z0.756 I0.162 J0
X-90.162 Y-76.076 Z0.694 I-0.162 J0
X-89.838 Y-76.076 Z0.633 I0.162 J0
X-90.162 Y-76.076 Z0.572 I-0.162 J0
X-89.838 Y-76.076 Z0.511 I0.162 J0
X-90.162 Y-76.076 Z0.45 I-0.162 J0
X-89.838 Y-76.076 Z0.389 I0.162 J0
X-90.162 Y-76.076 Z0.328 I-0.162 J0
X-89.838 Y-76.076 Z0.267 I0.162 J0
X-90.162 Y-76.076 Z0.206 I-0.162 J0
X-89.838 Y-76.076 Z0.144 I0.162 J0
X-90.162 Y-76.076 Z0.083 I-0.162 J0
X-89.838 Y-76.076 Z0.022 I0.162 J0
X-90.162 Y-76.076 Z-0.039 I-0.162 J0
X-89.838 Y-76.076 Z-0.1 I0.162 J0
X-90.162 Y-76.076 Z-0.161 I-0.162 J0
X-89.838 Y-76.076 Z-0.222 I0.162 J0
X-90.162 Y-76.076 Z-0.283 I-0.162 J0
X-89.838 Y-76.076 Z-0.344 I0.162 J0
X-90.162 Y-76.076 Z-0.406 I-0.162 J0
X-89.838 Y-76.076 Z-0.467 I0.162 J0
X-90.162 Y-76.076 Z-0.528 I-0.162 J0
X-89.838 Y-76.076 Z-0.589 I0.162 J0
X-90.162 Y-76.076 Z-0.65 I-0.162 J0
X-89.838 Y-76.076 Z-0.711 I0.162 J0
X-90.162 Y-76.076 Z-0.772 I-0.162 J0
X-89.838 Y-76.076 Z-0.833 I0.162 J0
X-90.162 Y-76.076 Z-0.894 I-0.162 J0
X-89.838 Y-76.076 Z-0.956 I0.162 J0
X-90.162 Y-76.076 Z-1.017 I-0.162 J0
X-89.837 Y-76.076 Z-1.078 I0.162 J0
X-90.163 Y-76.076 Z-1.139 I-0.163 J0
X-89.837 Y-76.076 Z-1.2 I0.163 J0
X-90.163 Y-76.076 Z-1.261 I-0.163 J0
X-89.837 Y-76.076 Z-1.322 I0.163 J0
X-90.163 Y-76.076 Z-1.383 I-0.163 J0
X-89.837 Y-76.076 Z-1.444 I0.163 J0
X-90.163 Y-76.076 Z-1.506 I-0.163 J0
X-89.837 Y-76.076 Z-1.567 I0.163 J0
X-90.163 Y-76.076 Z-1.628 I-0.163 J0
X-89.837 Y-76.076 Z-1.689 I0.163 J0
X-90.163 Y-76.076 Z-1.75 I-0.163 J0
X-89.837 Y-76.076 Z-1.811 I0.163 J0
X-90.163 Y-76.076 Z-1.872 I-0.163 J0
X-89.837 Y-76.076 Z-1.933 I0.163 J0
X-90.163 Y-76.076 Z-1.994 I-0.163 J0
X-89.837 Y-76.076 Z-2.056 I0.163 J0
X-90.163 Y-76.076 Z-2.117 I-0.163 J0
X-89.837 Y-76.076 Z-2.178 I0.163 J0
X-90.163 Y-76.076 Z-2.239 I-0.163 J0
X-89.837 Y-76.076 Z-2.3 I0.163 J0
X-90.163 Y-76.076 Z-2.361 I-0.163 J0
X-89.837 Y-76.076 Z-2.422 I0.163 J0
X-90.163 Y-76.076 Z-2.483 I-0.163 J0
X-89.837 Y-76.076 Z-2.544 I0.163 J0
X-90.163 Y-76.076 Z-2.606 I-0.163 J0
X-89.837 Y-76.076 Z-2.667 I0.163 J0
X-90.163 Y-76.076 Z-2.728 I-0.163 J0
X-89.837 Y-76.076 Z-2.789 I0.163 J0
X-90.163 Y-76.076 Z-2.85 I-0.163 J0
X-89.837 Y-76.076 Z-2.911 I0.163 J0
X-90.163 Y-76.076 Z-2.972 I-0.163 J0
X-89.837 Y-76.076 Z-3.033 I0.163 J0
X-90.163 Y-76.076 Z-3.094 I-0.163 J0
X-89.837 Y-76.076 Z-3.156 I0.163 J0
X-90.163 Y-76.076 Z-3.217 I-0.163 J0
X-89.837 Y-76.076 Z-3.278 I0.163 J0
X-90.163 Y-76.076 Z-3.339 I-0.163 J0
X-89.837 Y-76.076 Z-3.4 I0.163 J0
X-90.163 Y-76.076 Z-3.461 I-0.163 J0
X-89.837 Y-76.076 Z-3.522 I0.163 J0
X-90.163 Y-76.076 Z-3.583 I-0.163 J0
X-89.837 Y-76.076 Z-3.644 I0.163 J0
X-90.163 Y-76.076 Z-3.706 I-0.163 J0
X-89.837 Y-76.076 Z-3.767 I0.163 J0
X-90.163 Y-76.076 Z-3.828 I-0.163 J0
X-89.837 Y-76.076 Z-3.889 I0.163 J0
X-90.163 Y-76.076 Z-3.95 I-0.163 J0
X-89.837 Y-76.076 Z-4.011 I0.163 J0
X-90.163 Y-76.076 Z-4.072 I-0.163 J0
X-89.837 Y-76.076 Z-4.133 I0.163 J0
X-90.163 Y-76.076 Z-4.194 I-0.163 J0
X-89.837 Y-76.076 Z-4.256 I0.163 J0
X-90.106 Y-75.953 Z-4.3 I-0.163 J0
X-89.894 Y-76.199 I0.106 J-0.123
X-90.106 Y-75.953 I-0.106 J0.123
G1 X-90.126 Y-75.978
X-90.134 Y-76.009
X-90.13 Y-76.041
X-90.115 Y-76.068
X-90.011 Y-76.188
Z5
X-65.327 Y-60.331
Z2.682
Z1
X-65.169
X-65.138 Y-60.325
X-65.111 Y-60.307
X-65.094 Y-60.281
X-65.088 Y-60.25
G3 X-65.412 Y-60.25 Z0.939 I-0.162 J0
X-65.088 Y-60.25 Z0.878 I0.162 J0
X-65.412 Y-60.25 Z0.817 I-0.162 J0
X-65.088 Y-60.25 Z0.756 I0.162 J0
X-65.412 Y-60.25 Z0.694 I-0.162 J0
X-65.088 Y-60.25 Z0.633 I0.162 J0
X-65.412 Y-60.25 Z0.572 I-0.162 J0
X-65.088 Y-60.25 Z0.511 I0.162 J0
X-65.412 Y-60.25 Z0.45 I-0.162 J0
X-65.088 Y-60.25 Z0.389 I0.162 J0
X-65.412 Y-60.25 Z0.328 I-0.162 J0
X-65.088 Y-60.25 Z0.267 I0.162 J0
X-65.412 Y-60.25 Z0.206 I-0.162 J0
X-65.088 Y-60.25 Z0.144 I0.162 J0
X-65.412 Y-60.25 Z0.083 I-0.162 J0
X-65.088 Y-60.25 Z0.022 I0.162 J0
X-65.412 Y-60.25 Z-0.039 I-0.162 J0
X-65.088 Y-60.25 Z-0.1 I0.162 J0
X-65.412 Y-60.25 Z-0.161 I-0.162 J0
X-65.088 Y-60.25 Z-0.222 I0.162 J0
X-65.412 Y-60.25 Z-0.283 I-0.162 J0
X-65.088 Y-60.25 Z-0.344 I0.162 J0
X-65.412 Y-60.25 Z-0.406 I-0.162 J0
X-65.088 Y-60.25 Z-0.467 I0.162 J0
X-65.412 Y-60.25 Z-0.528 I-0.162 J0
X-65.088 Y-60.25 Z-0.589 I0.162 J0
X-65.412 Y-60.25 Z-0.65 I-0.162 J0
X-65.088 Y-60.25 Z-0.711 I0.162 J0
X-65.412 Y-60.25 Z-0.772 I-0.162 J0
X-65.088 Y-60.25 Z-0.833 I0.162 J0
X-65.412 Y-60.25 Z-0.894 I-0.162 J0
X-65.088 Y-60.25 Z-0.956 I0.162 J0
X-65.412 Y-60.25 Z-1.017 I-0.162 J0
X-65.088 Y-60.25 Z-1.078 I0.162 J0
X-65.412 Y-60.25 Z-1.139 I-0.162 J0
X-65.088 Y-60.25 Z-1.2 I0.162 J0
X-65.412 Y-60.25 Z-1.261 I-0.162 J0
X-65.088 Y-60.25 Z-1.322 I0.162 J0
X-65.412 Y-60.25 Z-1.383 I-0.162 J0
X-65.088 Y-60.25 Z-1.444 I0.162 J0
X-65.412 Y-60.25 Z-1.506 I-0.162 J0
X-65.088 Y-60.25 Z-1.567 I0.162 J0
X-65.412 Y-60.25 Z-1.628 I-0.162 J0
X-65.088 Y-60.25 Z-1.689 I0.162 J0
X-65.412 Y-60.25 Z-1.75 I-0.162 J0
X-65.088 Y-60.25 Z-1.811 I0.162 J0
X-65.412 Y-60.25 Z-1.872 I-0.162 J0
X-65.088 Y-60.25 Z-1.933 I0.162 J0
X-65.412 Y-60.25 Z-1.994 I-0.162 J0
X-65.088 Y-60.25 Z-2.056 I0.162 J0
X-65.412 Y-60.25 Z-2.117 I-0.162 J0
X-65.088 Y-60.25 Z-2.178 I0.162 J0
X-65.412 Y-60.25 Z-2.239 I-0.162 J0
X-65.088 Y-60.25 Z-2.3 I0.162 J0
X-65.412 Y-60.25 Z-2.361 I-0.162 J0
X-65.088 Y-60.25 Z-2.422 I0.162 J0
X-65.412 Y-60.25 Z-2.483 I-0.162 J0
X-65.088 Y-60.25 Z-2.544 I0.162 J0
X-65.412 Y-60.25 Z-2.606 I-0.162 J0
X-65.088 Y-60.25 Z-2.667 I0.162 J0
X-65.412 Y-60.25 Z-2.728 I-0.162 J0
X-65.088 Y-60.25 Z-2.789 I0.162 J0
X-65.412 Y-60.25 Z-2.85 I-0.162 J0
X-65.088 Y-60.25 Z-2.911 I0.162 J0
X-65.412 Y-60.25 Z-2.972 I-0.162 J0
X-65.088 Y-60.25 Z-3.033 I0.162 J0
X-65.412 Y-60.25 Z-3.094 I-0.162 J0
X-65.088 Y-60.25 Z-3.156 I0.162 J0
X-65.412 Y-60.25 Z-3.217 I-0.162 J0
X-65.088 Y-60.25 Z-3.278 I0.162 J0
X-65.412 Y-60.25 Z-3.339 I-0.162 J0
X-65.088 Y-60.25 Z-3.4 I0.162 J0
X-65.412 Y-60.25 Z-3.461 I-0.162 J0
X-65.088 Y-60.25 Z-3.522 I0.162 J0
X-65.412 Y-60.25 Z-3.583 I-0.162 J0
X-65.088 Y-60.25 Z-3.644 I0.162 J0
X-65.412 Y-60.25 Z-3.706 I-0.162 J0
X-65.088 Y-60.25 Z-3.767 I0.162 J0
X-65.412 Y-60.25 Z-3.828 I-0.162 J0
X-65.088 Y-60.25 Z-3.889 I0.162 J0
X-65.412 Y-60.25 Z-3.95 I-0.162 J0
X-65.088 Y-60.25 Z-4.011 I0.162 J0
X-65.412 Y-60.25 Z-4.072 I-0.162 J0
X-65.088 Y-60.25 Z-4.133 I0.162 J0
X-65.412 Y-60.25 Z-4.194 I-0.162 J0
X-65.088 Y-60.25 Z-4.256 I0.162 J0
X-65.356 Y-60.127 Z-4.3 I-0.162 J0
X-65.144 Y-60.373 I0.106 J-0.123
X-65.356 Y-60.127 I-0.106 J0.123
G1 X-65.376 Y-60.152
X-65.384 Y-60.183
X-65.38 Y-60.214
X-65.365 Y-60.242
X-65.261 Y-60.362
Z5
X-34.827 Y-60.331
Z2.682
Z1
X-34.669
X-34.638 Y-60.325
X-34.611 Y-60.307
X-34.594 Y-60.281
X-34.588 Y-60.25
G3 X-34.912 Y-60.25 Z0.939 I-0.162 J0
X-34.588 Y-60.25 Z0.878 I0.162 J0
X-34.912 Y-60.25 Z0.817 I-0.162 J0
X-34.588 Y-60.25 Z0.756 I0.162 J0
X-34.912 Y-60.25 Z0.694 I-0.162 J0
X-34.588 Y-60.25 Z0.633 I0.162 J0
X-34.912 Y-60.25 Z0.572 I-0.162 J0
X-34.588 Y-60.25 Z0.511 I0.162 J0
X-34.912 Y-60.25 Z0.45 I-0.162 J0
X-34.588 Y-60.25 Z0.389 I0.162 J0
X-34.912 Y-60.25 Z0.328 I-0.162 J0
X-34.588 Y-60.25 Z0.267 I0.162 J0
X-34.912 Y-60.25 Z0.206 I-0.162 J0
X-34.588 Y-60.25 Z0.144 I0.162 J0
X-34.912 Y-60.25 Z0.083 I-0.162 J0
X-34.588 Y-60.25 Z0.022 I0.162 J0
X-34.912 Y-60.25 Z-0.039 I-0.162 J0
X-34.588 Y-60.25 Z-0.1 I0.162 J0
X-34.912 Y-60.25 Z-0.161 I-0.162 J0
X-34.588 Y-60.25 Z-0.222 I0.162 J0
X-34.912 Y-60.25 Z-0.283 I-0.162 J0
X-34.588 Y-60.25 Z-0.344 I0.162 J0
X-34.912 Y-60.25 Z-0.406 I-0.162 J0
X-34.588 Y-60.25 Z-0.467 I0.162 J0
X-34.912 Y-60.25 Z-0.528 I-0.162 J0
X-34.588 Y-60.25 Z-0.589 I0.162 J0
X-34.912 Y-60.25 Z-0.65 I-0.162 J0
X-34.588 Y-60.25 Z-0.711 I0.162 J0
X-34.912 Y-60.25 Z-0.772 I-0.162 J0
X-34.588 Y-60.25 Z-0.833 I0.162 J0
X-34.912 Y-60.25 Z-0.894 I-0.162 J0
X-34.588 Y-60.25 Z-0.956 I0.162 J0
X-34.912 Y-60.25 Z-1.017 I-0.162 J0
X-34.588 Y-60.25 Z-1.078 I0.162 J0
X-34.912 Y-60.25 Z-1.139 I-0.162 J0
X-34.588 Y-60.25 Z-1.2 I0.162 J0
X-34.912 Y-60.25 Z-1.261 I-0.162 J0
X-34.588 Y-60.25 Z-1.322 I0.162 J0
X-34.912 Y-60.25 Z-1.383 I-0.162 J0
X-34.588 Y-60.25 Z-1.444 I0.162 J0
X-34.912 Y-60.25 Z-1.506 I-0.162 J0
X-34.588 Y-60.25 Z-1.567 I0.162 J0
X-34.912 Y-60.25 Z-1.628 I-0.162 J0
X-34.588 Y-60.25 Z-1.689 I0.162 J0
X-34.912 Y-60.25 Z-1.75 I-0.162 J0
X-34.588 Y-60.25 Z-1.811 I0.162 J0
X-34.912 Y-60.25 Z-1.872 I-0.162 J0
X-34.588 Y-60.25 Z-1.933 I0.162 J0
X-34.912 Y-60.25 Z-1.994 I-0.162 J0
X-34.588 Y-60.25 Z-2.056 I0.162 J0
X-34.912 Y-60.25 Z-2.117 I-0.162 J0
X-34.588 Y-60.25 Z-2.178 I0.162 J0
X-34.912 Y-60.25 Z-2.239 I-0.162 J0
X-34.588 Y-60.25 Z-2.3 I0.162 J0
X-34.912 Y-60.25 Z-2.361 I-0.162 J0
X-34.588 Y-60.25 Z-2.422 I0.162 J0
X-34.912 Y-60.25 Z-2.483 I-0.162 J0
X-34.588 Y-60.25 Z-2.544 I0.162 J0
X-34.912 Y-60.25 Z-2.606 I-0.162 J0
X-34.588 Y-60.25 Z-2.667 I0.162 J0
X-34.912 Y-60.25 Z-2.728 I-0.162 J0
X-34.588 Y-60.25 Z-2.789 I0.162 J0
X-34.912 Y-60.25 Z-2.85 I-0.162 J0
X-34.588 Y-60.25 Z-2.911 I0.162 J0
X-34.912 Y-60.25 Z-2.972 I-0.162 J0
X-34.588 Y-60.25 Z-3.033 I0.162 J0
X-34.912 Y-60.25 Z-3.094 I-0.162 J0
X-34.588 Y-60.25 Z-3.156 I0.162 J0
X-34.912 Y-60.25 Z-3.217 I-0.162 J0
X-34.588 Y-60.25 Z-3.278 I0.162 J0
X-34.912 Y-60.25 Z-3.339 I-0.162 J0
X-34.588 Y-60.25 Z-3.4 I0.162 J0
X-34.912 Y-60.25 Z-3.461 I-0.162 J0
X-34.588 Y-60.25 Z-3.522 I0.162 J0
X-34.912 Y-60.25 Z-3.583 I-0.162 J0
X-34.588 Y-60.25 Z-3.644 I0.162 J0
X-34.912 Y-60.25 Z-3.706 I-0.162 J0
X-34.588 Y-60.25 Z-3.767 I0.162 J0
X-34.912 Y-60.25 Z-3.828 I-0.162 J0
X-34.588 Y-60.25 Z-3.889 I0.162 J0
X-34.912 Y-60.25 Z-3.95 I-0.162 J0
X-34.588 Y-60.25 Z-4.011 I0.162 J0
X-34.912 Y-60.25 Z-4.072 I-0.162 J0
X-34.588 Y-60.25 Z-4.133 I0.162 J0
X-34.912 Y-60.25 Z-4.194 I-0.162 J0
X-34.588 Y-60.25 Z-4.256 I0.162 J0
X-34.856 Y-60.127 Z-4.3 I-0.162 J0
X-34.644 Y-60.373 I0.106 J-0.123
X-34.856 Y-60.127 I-0.106 J0.123
G1 X-34.876 Y-60.152
X-34.884 Y-60.183
X-34.88 Y-60.214
X-34.865 Y-60.242
X-34.761 Y-60.362
Z5
X-10.078 Y-76.158
Z2.682
Z1
X-9.919
X-9.888 Y-76.151
X-9.861 Y-76.134
X-9.844 Y-76.108
X-9.837 Y-76.076
G3 X-10.163 Y-76.076 Z0.939 I-0.163 J0
X-9.837 Y-76.076 Z0.878 I0.163 J0
X-10.163 Y-76.076 Z0.817 I-0.163 J0
X-9.837 Y-76.076 Z0.756 I0.163 J0
X-10.163 Y-76.076 Z0.694 I-0.163 J0
X-9.837 Y-76.076 Z0.633 I0.163 J0
X-10.163 Y-76.076 Z0.572 I-0.163 J0
X-9.837 Y-76.076 Z0.511 I0.163 J0
X-10.163 Y-76.076 Z0.45 I-0.163 J0
X-9.837 Y-76.076 Z0.389 I0.163 J0
X-10.163 Y-76.076 Z0.328 I-0.163 J0
X-9.837 Y-76.076 Z0.267 I0.163 J0
X-10.163 Y-76.076 Z0.206 I-0.163 J0
X-9.837 Y-76.076 Z0.144 I0.163 J0
X-10.163 Y-76.076 Z0.083 I-0.163 J0
X-9.837 Y-76.076 Z0.022 I0.163 J0
X-10.163 Y-76.076 Z-0.039 I-0.163 J0
X-9.837 Y-76.076 Z-0.1 I0.163 J0
X-10.163 Y-76.076 Z-0.161 I-0.163 J0
X-9.837 Y-76.076 Z-0.222 I0.163 J0
X-10.163 Y-76.076 Z-0.283 I-0.163 J0
X-9.837 Y-76.076 Z-0.344 I0.163 J0
X-10.163 Y-76.076 Z-0.406 I-0.163 J0
X-9.837 Y-76.076 Z-0.467 I0.163 J0
X-10.163 Y-76.076 Z-0.528 I-0.163 J0
X-9.837 Y-76.076 Z-0.589 I0.163 J0
X-10.163 Y-76.076 Z-0.65 I-0.163 J0
X-9.837 Y-76.076 Z-0.711 I0.163 J0
X-10.163 Y-76.076 Z-0.772 I-0.163 J0
X-9.837 Y-76.076 Z-0.833 I0.163 J0
X-10.163 Y-76.076 Z-0.894 I-0.163 J0
X-9.837 Y-76.076 Z-0.956 I0.163 J0
X-10.163 Y-76.076 Z-1.017 I-0.163 J0
X-9.837 Y-76.076 Z-1.078 I0.163 J0
X-10.163 Y-76.076 Z-1.139 I-0.163 J0
X-9.837 Y-76.076 Z-1.2 I0.163 J0
X-10.163 Y-76.076 Z-1.261 I-0.163 J0
X-9.837 Y-76.076 Z-1.322 I0.163 J0
X-10.163 Y-76.076 Z-1.383 I-0.163 J0
X-9.837 Y-76.076 Z-1.444 I0.163 J0
X-10.163 Y-76.076 Z-1.506 I-0.163 J0
X-9.837 Y-76.076 Z-1.567 I0.163 J0
X-10.163 Y-76.076 Z-1.628 I-0.163 J0
X-9.837 Y-76.076 Z-1.689 I0.163 J0
X-10.163 Y-76.076 Z-1.75 I-0.163 J0
X-9.837 Y-76.076 Z-1.811 I0.163 J0
X-10.163 Y-76.076 Z-1.872 I-0.163 J0
X-9.837 Y-76.076 Z-1.933 I0.163 J0
X-10.163 Y-76.076 Z-1.994 I-0.163 J0
X-9.837 Y-76.076 Z-2.056 I0.163 J0
X-10.163 Y-76.076 Z-2.117 I-0.163 J0
X-9.837 Y-76.076 Z-2.178 I0.163 J0
X-10.163 Y-76.076 Z-2.239 I-0.163 J0
X-9.837 Y-76.076 Z-2.3 I0.163 J0
X-10.163 Y-76.076 Z-2.361 I-0.163 J0
X-9.837 Y-76.076 Z-2.422 I0.163 J0
X-10.163 Y-76.076 Z-2.483 I-0.163 J0
X-9.837 Y-76.076 Z-2.544 I0.163 J0
X-10.163 Y-76.076 Z-2.606 I-0.163 J0
X-9.837 Y-76.076 Z-2.667 I0.163 J0
X-10.163 Y-76.076 Z-2.728 I-0.163 J0
X-9.837 Y-76.076 Z-2.789 I0.163 J0
X-10.163 Y-76.076 Z-2.85 I-0.163 J0
X-9.837 Y-76.076 Z-2.911 I0.163 J0
X-10.163 Y-76.076 Z-2.972 I-0.163 J0
X-9.837 Y-76.076 Z-3.033 I0.163 J0
X-10.163 Y-76.076 Z-3.094 I-0.163 J0
X-9.837 Y-76.076 Z-3.156 I0.163 J0
X-10.163 Y-76.076 Z-3.217 I-0.163 J0
X-9.837 Y-76.076 Z-3.278 I0.163 J0
X-10.163 Y-76.076 Z-3.339 I-0.163 J0
X-9.837 Y-76.076 Z-3.4 I0.163 J0
X-10.163 Y-76.076 Z-3.461 I-0.163 J0
X-9.837 Y-76.076 Z-3.522 I0.163 J0
X-10.163 Y-76.076 Z-3.583 I-0.163 J0
X-9.837 Y-76.076 Z-3.644 I0.163 J0
X-10.163 Y-76.076 Z-3.706 I-0.163 J0
X-9.837 Y-76.076 Z-3.767 I0.163 J0
X-10.163 Y-76.076 Z-3.828 I-0.163 J0
X-9.837 Y-76.076 Z-3.889 I0.163 J0
X-10.163 Y-76.076 Z-3.95 I-0.163 J0
X-9.837 Y-76.076 Z-4.011 I0.163 J0
X-10.163 Y-76.076 Z-4.072 I-0.163 J0
X-9.837 Y-76.076 Z-4.133 I0.163 J0
X-10.163 Y-76.076 Z-4.194 I-0.163 J0
X-9.837 Y-76.076 Z-4.256 I0.163 J0
X-10.106 Y-75.953 Z-4.3 I-0.163 J0
X-9.894 Y-76.199 I0.106 J-0.123
X-10.106 Y-75.953 I-0.106 J0.123
G1 X-10.126 Y-75.978
X-10.134 Y-76.009
X-10.13 Y-76.041
X-10.115 Y-76.068
X-10.011 Y-76.188
Z15
(When using Fusion for Personal Use, the feedrate of rapid)
(moves is reduced to match the feedrate of cutting moves,)
(which can increase machining time. Unrestricted rapid moves)
(are available with a Fusion Subscription.)

(2D Adaptive1)
G0 X-97.135 Y-87.075
G1 Z15 F1000
Z5
Z-0.865
Z-1.183
X-97.127 Y-87.074 Z-1.253
X-97.104 Y-87.071 Z-1.32
X-97.066 Y-87.067 Z-1.38
X-97.017 Y-87.061 Z-1.431
X-96.957 Y-87.053 Z-1.469
X-96.89 Y-87.045 Z-1.492
X-96.82 Y-87.036 Z-1.5
G3 X-95.195 Y-86.397 I-0.435 J3.492
G1 X-95.024 Y-86.264
X-94.995 Y-86.239
X-95.036 Y-86.095
X-95.106 Y-85.921
X-95.209 Y-85.715
X-95.359 Y-85.467
X-95.582 Y-85.158
X-95.997 Y-84.669
X-96.445 Y-84.208
X-96.888 Y-83.743
X-97.33 Y-83.277
X-97.748 Y-82.79
X-98.139 Y-82.28
X-98.512 Y-81.758
X-98.845 Y-81.208
X-99.143 Y-80.64
X-99.421 Y-80.061
X-99.645 Y-79.459
X-99.835 Y-78.845
X-99.858 Y-78.757
X-99.939 Y-78.565
X-100.07 Y-78.403
X-100.241 Y-78.284
X-100.438 Y-78.218
X-100.646 Y-78.208
X-100.848 Y-78.257
X-101.029 Y-78.361
G3 X-100.817 Y-78.922 I0.203 J-0.244
G1 X-100.746 Y-78.92 Z-1.492
X-100.679 Y-78.918 Z-1.469
X-100.619 Y-78.916 Z-1.431
X-100.569 Y-78.915 Z-1.38
X-100.531 Y-78.914 Z-1.32
X-100.507 Y-78.913 Z-1.253
X-100.5 Z-1.183
Z5
X-96.07 Y-86.59
Z-0.865
Z-1.183
X-96.062 Y-86.589 Z-1.253
X-96.039 Y-86.587 Z-1.32
X-96.001 Y-86.582 Z-1.38
X-95.951 Y-86.576 Z-1.431
X-95.891 Y-86.568 Z-1.469
X-95.825 Y-86.56 Z-1.492
X-95.755 Y-86.551 Z-1.5
G3 X-95.024 Y-86.264 I-0.196 J1.57
G1 X-94.688 Y-86.002
X-94.659 Y-85.978
X-94.636 Y-85.83
X-94.63 Y-85.68
X-94.637 Y-85.53
X-94.66 Y-85.357
X-94.704 Y-85.152
X-94.769 Y-84.939
X-94.871 Y-84.679
X-95.034 Y-84.344
X-95.303 Y-83.889
X-95.674 Y-83.364
X-96.07 Y-82.858
X-96.467 Y-82.354
X-96.856 Y-81.843
X-97.223 Y-81.316
X-97.561 Y-80.77
X-97.869 Y-80.206
X-98.137 Y-79.623
X-98.379 Y-79.028
X-98.544 Y-78.686
X-98.678 Y-78.457
X-98.823 Y-78.248
X-98.951 Y-78.093
X-99.234 Y-77.802
X-99.405 Y-77.67
X-99.607 Y-77.594
X-99.822 Y-77.579
X-100.032 Y-77.626
X-100.22 Y-77.732
G3 X-100.008 Y-78.294 I0.203 J-0.244
G1 X-99.937 Y-78.292 Z-1.492
X-99.87 Y-78.29 Z-1.469
X-99.81 Y-78.288 Z-1.431
X-99.76 Y-78.287 Z-1.38
X-99.722 Y-78.286 Z-1.32
X-99.699 Y-78.285 Z-1.253
X-99.691 Z-1.183
Z5
X-95.734 Y-86.329
Z-0.865
Z-1.183
X-95.726 Y-86.328 Z-1.253
X-95.702 Y-86.325 Z-1.32
X-95.665 Y-86.321 Z-1.38
X-95.615 Y-86.315 Z-1.431
X-95.555 Y-86.307 Z-1.469
X-95.489 Y-86.299 Z-1.492
X-95.419 Y-86.29 Z-1.5
G3 X-94.688 Y-86.002 I-0.196 J1.57
G1 X-94.256 Y-85.667
X-94.2 Y-85.618
X-94.142 Y-85.48
X-94.1 Y-85.336
X-94.073 Y-85.188
X-94.056 Y-85.028
X-94.051 Y-84.847
X-94.064 Y-84.626
X-94.095 Y-84.401
X-94.154 Y-84.129
X-94.251 Y-83.814
X-94.4 Y-83.437
X-94.653 Y-82.924
X-94.982 Y-82.373
X-95.337 Y-81.838
X-95.695 Y-81.305
X-96.043 Y-80.764
X-96.368 Y-80.211
X-96.664 Y-79.641
X-96.946 Y-79.064
X-97.243 Y-78.494
X-97.524 Y-78.042
X-97.766 Y-77.715
X-97.954 Y-77.499
X-98.141 Y-77.316
X-98.312 Y-77.174
X-98.471 Y-77.063
X-98.542 Y-77.021
X-98.746 Y-76.938
X-98.965 Y-76.92
X-99.181 Y-76.966
X-99.373 Y-77.074
G3 X-99.16 Y-77.635 I0.203 J-0.244
G1 X-99.09 Y-77.633 Z-1.492
X-99.023 Y-77.631 Z-1.469
X-98.963 Y-77.63 Z-1.431
X-98.912 Y-77.628 Z-1.38
X-98.874 Y-77.627 Z-1.32
X-98.851 Z-1.253
X-98.843 Y-77.626 Z-1.183
Z5
X-95.302 Y-85.994
Z-0.865
Z-1.183
X-95.294 Y-85.993 Z-1.253
X-95.271 Y-85.99 Z-1.32
X-95.234 Y-85.986 Z-1.38
X-95.184 Y-85.979 Z-1.431
X-95.124 Y-85.972 Z-1.469
X-95.057 Y-85.964 Z-1.492
X-94.987 Y-85.955 Z-1.5
G3 X-94.256 Y-85.667 I-0.196 J1.57
G1 X-93.748 Y-85.272
X-93.634 Y-85.175
X-93.556 Y-85.046
X-93.493 Y-84.911
X-93.442 Y-84.769
X-93.401 Y-84.617
X-93.369 Y-84.439
X-93.348 Y-84.238
X-93.344 Y-84.016
X-93.36 Y-83.742
X-93.399 Y-83.463
X-93.478 Y-83.111
X-93.6 Y-82.718
X-93.813 Y-82.186
X-94.099 Y-81.611
X-94.414 Y-81.051
X-94.735 Y-80.495
X-95.049 Y-79.934
X-95.35 Y-79.367
X-95.649 Y-78.799
X-95.96 Y-78.237
X-96.298 Y-77.691
X-96.607 Y-77.27
X-96.882 Y-76.951
X-97.107 Y-76.73
X-97.33 Y-76.544
X-97.508 Y-76.418
X-97.652 Y-76.332
X-97.856 Y-76.249
X-98.076 Y-76.23
X-98.292 Y-76.276
X-98.485 Y-76.384
X-99.373 Y-77.074
G3 X-99.432 Y-77.496 Z-1.312 I0.203 J-0.244
G1 X-99.414 Y-77.522 Z-1.3
X-99.275 Y-77.727
X-94.331 Y-84.996
X-94.196 Y-85.194
X-94.191 Y-85.201
G3 X-93.748 Y-85.272 Z-1.5 I0.257 J0.186
G1 X-93.127 Y-84.79
X-93.013 Y-84.692
X-92.917 Y-84.577
X-92.834 Y-84.451
X-92.765 Y-84.318
X-92.704 Y-84.172
X-92.652 Y-84.009
X-92.607 Y-83.822
X-92.574 Y-83.607
X-92.557 Y-83.37
X-92.56 Y-83.077
X-92.587 Y-82.776
X-92.652 Y-82.395
X-92.763 Y-81.959
X-92.967 Y-81.365
X-93.223 Y-80.776
X-93.504 Y-80.199
X-93.794 Y-79.626
X-94.088 Y-79.055
X-94.389 Y-78.487
X-94.703 Y-77.928
X-95.04 Y-77.381
X-95.402 Y-76.864
X-95.74 Y-76.455
X-96.037 Y-76.149
X-96.291 Y-75.927
X-96.505 Y-75.768
X-96.699 Y-75.646
X-96.78 Y-75.605
X-96.978 Y-75.535
X-97.188 Y-75.525
X-97.392 Y-75.573
X-97.575 Y-75.677
X-98.485 Y-76.384
G3 X-98.55 Y-76.797 Z-1.317 I0.203 J-0.244
G1 X-98.528 Y-76.833 Z-1.3
X-98.395 Y-77.043
X-93.702 Y-84.508
X-93.581 Y-84.701
X-93.57 Y-84.718
G3 X-93.127 Y-84.79 Z-1.5 I0.257 J0.186
G1 X-92.397 Y-84.223
X-92.283 Y-84.125
X-92.178 Y-84.017
X-92.087 Y-83.899
X-92.007 Y-83.771
X-91.939 Y-83.638
X-91.871 Y-83.472
X-91.815 Y-83.296
X-91.764 Y-83.08
X-91.729 Y-82.846
X-91.71 Y-82.568
X-91.714 Y-82.242
X-91.747 Y-81.882
X-91.823 Y-81.442
X-91.969 Y-80.879
X-92.179 Y-80.273
X-92.424 Y-79.679
X-92.69 Y-79.095
X-92.973 Y-78.518
X-93.271 Y-77.949
X-93.588 Y-77.391
X-93.927 Y-76.845
X-94.296 Y-76.32
X-94.673 Y-75.86
X-95.016 Y-75.504
X-95.288 Y-75.263
X-95.541 Y-75.074
X-95.737 Y-74.95
X-95.853 Y-74.889
X-96.052 Y-74.819
X-96.263 Y-74.807
X-96.468 Y-74.856
X-96.652 Y-74.96
X-97.575 Y-75.677
G3 X-97.644 Y-76.084 Z-1.32 I0.203 J-0.244
G1 X-97.619 Y-76.127 Z-1.3
X-97.492 Y-76.34
X-92.968 Y-83.939
X-92.856 Y-84.128
X-92.84 Y-84.151
G3 X-92.397 Y-84.223 Z-1.5 I0.257 J0.186
G1 X-91.542 Y-83.559
X-91.429 Y-83.461
X-91.325 Y-83.353
X-91.233 Y-83.234
X-91.153 Y-83.107
X-91.075 Y-82.956
X-91.006 Y-82.794
X-90.939 Y-82.59
X-90.886 Y-82.374
X-90.844 Y-82.109
X-90.82 Y-81.808
X-90.821 Y-81.462
X-90.855 Y-81.054
X-90.937 Y-80.554
X-91.091 Y-79.931
X-91.295 Y-79.322
X-91.355 Y-79.173
X-91.416 Y-79.025
X-91.667 Y-78.434
X-91.942 Y-77.853
X-92.239 Y-77.284
X-92.558 Y-76.727
X-92.903 Y-76.185
X-93.277 Y-75.663
X-93.673 Y-75.184
X-94.04 Y-74.807
X-94.333 Y-74.551
X-94.597 Y-74.354
X-94.8 Y-74.227
X-94.924 Y-74.163
X-95.123 Y-74.094
X-95.332 Y-74.083
X-95.537 Y-74.132
X-95.719 Y-74.236
X-96.652 Y-74.96
G3 X-96.723 Y-75.364 Z-1.321 I0.203 J-0.244
G1 X-96.696 Y-75.41 Z-1.3
X-96.571 Y-75.624
X-92.112 Y-83.274
X-92.003 Y-83.461
X-91.986 Y-83.488
G3 X-91.542 Y-83.559 Z-1.5 I0.257 J0.186
G1 X-90.645 Y-82.862
X-90.532 Y-82.764
X-90.429 Y-82.655
X-90.338 Y-82.536
X-90.257 Y-82.409
X-90.175 Y-82.253
X-90.1 Y-82.078
X-90.031 Y-81.872
X-89.97 Y-81.627
X-89.925 Y-81.359
X-89.897 Y-81.017
X-89.896 Y-80.664
X-89.93 Y-80.22
X-90.008 Y-79.729
X-90.084 Y-79.417
X-90.127 Y-79.262
X-90.136 Y-79.102
X-90.085 Y-78.785
X-89.796 Y-78.211
X-89.429 Y-77.684
X-89.243 Y-77.378
X-89.167 Y-77.226
X-89.107 Y-77.078
X-89.049 Y-76.892
X-89.015 Y-76.742
X-88.993 Y-76.594
X-88.99 Y-76.444
X-89 Y-76.29
X-89.023 Y-76.141
X-89.07 Y-75.999
X-89.133 Y-75.863
X-89.211 Y-75.735
X-89.312 Y-75.624
X-89.426 Y-75.526
X-89.556 Y-75.452
X-89.697 Y-75.401
X-89.845 Y-75.373
X-89.995 Y-75.378
X-90.312 Y-75.428
X-90.951 Y-75.365
X-91.535 Y-75.099
X-92.067 Y-74.739
X-92.571 Y-74.342
X-93.074 Y-73.942
X-93.467 Y-73.659
X-93.747 Y-73.49
X-93.985 Y-73.371
X-93.999 Y-73.365
X-94.186 Y-73.317
X-94.379 Y-73.319
X-94.564 Y-73.37
X-94.731 Y-73.467
X-95.719 Y-74.236
G3 X-95.791 Y-74.638 Z-1.322 I0.203 J-0.244
G1 X-95.764 Y-74.685 Z-1.3
X-95.64 Y-74.9
X-91.214 Y-82.577
X-91.106 Y-82.763
X-91.089 Y-82.791
G3 X-90.645 Y-82.862 Z-1.5 I0.257 J0.186
G1 X-89.713 Y-82.137
X-89.599 Y-82.039
X-89.497 Y-81.929
X-89.407 Y-81.809
X-89.324 Y-81.677
X-89.24 Y-81.518
X-89.159 Y-81.327
X-89.089 Y-81.117
X-89.025 Y-80.857
X-88.921 Y-80.223
X-88.775 Y-79.598
X-88.545 Y-78.998
X-88.293 Y-78.408
X-88.128 Y-77.957
X-88.028 Y-77.6
X-87.967 Y-77.283
X-87.937 Y-77.017
X-87.93 Y-76.771
X-87.941 Y-76.537
X-87.97 Y-76.315
X-88.012 Y-76.12
X-88.067 Y-75.935
X-88.138 Y-75.754
X-88.213 Y-75.599
X-88.302 Y-75.446
X-88.396 Y-75.312
X-88.502 Y-75.185
X-88.613 Y-75.071
X-88.731 Y-74.968
X-88.852 Y-74.878
X-88.981 Y-74.799
X-89.162 Y-74.706
X-89.756 Y-74.46
X-90.339 Y-74.191
X-90.896 Y-73.871
X-91.432 Y-73.518
X-91.961 Y-73.154
X-92.471 Y-72.824
X-92.794 Y-72.65
X-92.954 Y-72.579
X-93.145 Y-72.524
X-93.343 Y-72.522
X-93.535 Y-72.572
X-93.707 Y-72.672
X-94.731 Y-73.467
G3 X-94.803 Y-73.868 Z-1.323 I0.203 J-0.244
G1 X-94.775 Y-73.917 Z-1.3
X-94.653 Y-74.133
X-90.28 Y-81.851
X-90.175 Y-82.036
X-90.156 Y-82.066
G3 X-89.713 Y-82.137 Z-1.5 I0.257 J0.186
G1 X-88.748 Y-81.388
X-88.635 Y-81.29
X-88.502 Y-81.151
X-88.295 Y-80.898
X-87.978 Y-80.437
X-87.657 Y-79.881
X-87.372 Y-79.305
X-87.157 Y-78.78
X-87.006 Y-78.305
X-86.905 Y-77.872
X-86.847 Y-77.481
X-86.822 Y-77.114
X-86.826 Y-76.766
X-86.857 Y-76.438
X-86.91 Y-76.134
X-86.984 Y-75.849
X-87.077 Y-75.58
X-87.189 Y-75.326
X-87.317 Y-75.089
X-87.459 Y-74.87
X-87.615 Y-74.667
X-87.789 Y-74.474
X-88.017 Y-74.26
X-88.386 Y-73.965
X-88.918 Y-73.605
X-89.464 Y-73.266
X-90.005 Y-72.92
X-90.542 Y-72.568
X-91.08 Y-72.217
X-91.546 Y-71.941
X-91.836 Y-71.8
X-91.941 Y-71.759
X-92.126 Y-71.712
X-92.317 Y-71.715
X-92.501 Y-71.766
X-92.666 Y-71.863
X-93.707 Y-72.672
G3 X-93.781 Y-73.07 Z-1.324 I0.203 J-0.244
G1 X-93.752 Y-73.122 Z-1.3
X-93.631 Y-73.339
X-89.314 Y-81.101
X-89.212 Y-81.285
X-89.191 Y-81.317
G3 X-88.748 Y-81.388 Z-1.5 I0.257 J0.186
G1 X-87.039 Y-80.06
X-86.899 Y-79.939
X-86.739 Y-79.778
X-86.585 Y-79.595
X-86.421 Y-79.364
X-86.271 Y-79.114
X-86.126 Y-78.819
X-85.994 Y-78.489
X-85.886 Y-78.137
X-85.805 Y-77.77
X-85.753 Y-77.389
X-85.731 Y-77.003
X-85.74 Y-76.618
X-85.779 Y-76.238
X-85.848 Y-75.868
X-85.945 Y-75.511
X-86.068 Y-75.169
X-86.216 Y-74.842
X-86.393 Y-74.522
X-86.6 Y-74.21
X-86.857 Y-73.883
X-87.199 Y-73.514
X-87.671 Y-73.079
X-88.177 Y-72.683
X-88.697 Y-72.307
X-89.225 Y-71.941
X-89.758 Y-71.583
X-90.302 Y-71.242
X-90.666 Y-71.046
X-90.87 Y-70.957
X-91.06 Y-70.903
X-91.258 Y-70.901
X-91.449 Y-70.952
X-91.621 Y-71.051
X-92.666 Y-71.863
G3 X-92.725 Y-72.286 Z-1.312 I0.203 J-0.244
G1 X-92.707 Y-72.311 Z-1.3
X-92.568 Y-72.516
X-87.622 Y-79.784
X-87.487 Y-79.981
X-87.482 Y-79.989
G3 X-87.039 Y-80.06 Z-1.5 I0.257 J0.186
G1 X-85.726 Y-79.04
X-85.556 Y-78.893
X-85.45 Y-78.787
X-85.335 Y-78.65
X-85.228 Y-78.5
X-85.116 Y-78.311
X-85.016 Y-78.108
X-84.918 Y-77.861
X-84.837 Y-77.596
X-84.772 Y-77.299
X-84.726 Y-76.965
X-84.706 Y-76.609
X-84.715 Y-76.245
X-84.755 Y-75.863
X-84.829 Y-75.47
X-84.938 Y-75.07
X-85.082 Y-74.669
X-85.267 Y-74.263
X-85.501 Y-73.841
X-85.775 Y-73.428
X-86.126 Y-72.983
X-86.562 Y-72.512
X-87.034 Y-72.076
X-87.528 Y-71.666
X-88.038 Y-71.276
X-88.56 Y-70.902
X-89.094 Y-70.545
X-89.505 Y-70.305
X-89.779 Y-70.173
X-89.862 Y-70.14
X-90.047 Y-70.095
X-90.237 Y-70.098
X-90.42 Y-70.15
X-90.584 Y-70.246
X-91.621 Y-71.051
G3 X-91.673 Y-71.483 Z-1.308 I0.203 J-0.244
G1 X-91.662 Y-71.499 Z-1.3
X-91.515 Y-71.699
X-86.316 Y-78.768
X-86.169 Y-78.968
X-86.167 Y-78.97 Z-1.301
G3 X-85.726 Y-79.04 Z-1.5 I0.256 J0.188
G1 X-84.6 Y-78.165
X-84.471 Y-78.055
X-84.366 Y-77.948
X-84.27 Y-77.83
X-84.175 Y-77.694
X-84.083 Y-77.535
X-83.995 Y-77.35
X-83.914 Y-77.138
X-83.845 Y-76.902
X-83.787 Y-76.625
X-83.752 Y-76.337
X-83.737 Y-76.006
X-83.751 Y-75.639
X-83.795 Y-75.266
X-83.875 Y-74.862
X-84 Y-74.426
X-84.171 Y-73.969
X-84.392 Y-73.498
X-84.659 Y-73.031
X-85.005 Y-72.524
X-85.409 Y-72.024
X-85.848 Y-71.555
X-86.314 Y-71.114
X-86.802 Y-70.696
X-87.306 Y-70.298
X-87.825 Y-69.92
X-88.306 Y-69.608
X-88.635 Y-69.43
X-88.804 Y-69.355
X-88.995 Y-69.3
X-89.193 Y-69.298
X-89.385 Y-69.349
X-89.557 Y-69.448
X-90.584 Y-70.246
G3 X-90.634 Y-70.681 Z-1.306 I0.203 J-0.244
G1 X-90.625 Y-70.693 Z-1.3
X-90.476 Y-70.892
X-85.192 Y-77.896
X-85.043 Y-78.094
X-85.039 Y-78.099 Z-1.303
G3 X-84.6 Y-78.165 Z-1.5 I0.253 J0.191
G1 X-83.56 Y-77.357
X-83.446 Y-77.259
X-83.345 Y-77.149
X-83.254 Y-77.029
X-83.167 Y-76.892
X-83.082 Y-76.729
X-83.004 Y-76.547
X-82.932 Y-76.335
X-82.873 Y-76.096
X-82.829 Y-75.83
X-82.803 Y-75.519
X-82.802 Y-75.197
X-82.831 Y-74.82
X-82.897 Y-74.41
X-82.999 Y-73.988
X-83.153 Y-73.522
X-83.367 Y-73.013
X-83.642 Y-72.483
X-83.978 Y-71.947
X-84.362 Y-71.432
X-84.78 Y-70.945
X-85.227 Y-70.483
X-85.696 Y-70.045
X-86.185 Y-69.628
X-86.692 Y-69.234
X-87.193 Y-68.885
X-87.536 Y-68.685
X-87.782 Y-68.566
X-87.82 Y-68.552
X-88.004 Y-68.507
X-88.194 Y-68.51
X-88.377 Y-68.562
X-88.54 Y-68.658
X-89.557 Y-69.448
G3 X-89.607 Y-69.884 Z-1.306 I0.203 J-0.244
G1 X-89.598 Y-69.896 Z-1.3
X-89.448 Y-70.093
X-84.153 Y-77.088
X-84.003 Y-77.286
X-83.999 Y-77.291 Z-1.303
G3 X-83.56 Y-77.357 Z-1.5 I0.253 J0.192
G1 X-82.619 Y-76.626
X-82.505 Y-76.528
X-82.403 Y-76.418
X-82.313 Y-76.298
X-82.232 Y-76.169
X-82.149 Y-76.009
X-82.074 Y-75.834
X-82.004 Y-75.623
X-81.947 Y-75.392
X-81.903 Y-75.118
X-81.88 Y-74.831
Y-74.485
X-81.909 Y-74.125
X-81.975 Y-73.713
X-82.091 Y-73.242
X-82.249 Y-72.768
X-82.469 Y-72.25
X-82.763 Y-71.689
X-83.105 Y-71.146
X-83.486 Y-70.628
X-83.898 Y-70.136
X-84.337 Y-69.667
X-84.798 Y-69.22
X-85.28 Y-68.795
X-85.781 Y-68.394
X-86.232 Y-68.078
X-86.546 Y-67.894
X-86.783 Y-67.779
X-86.81 Y-67.769
X-86.994 Y-67.724
X-87.185 Y-67.727
X-87.368 Y-67.778
X-87.532 Y-67.875
X-88.54 Y-68.658
G3 X-88.592 Y-69.091 Z-1.307 I0.203 J-0.244
G1 X-88.581 Y-69.105 Z-1.3
X-88.433 Y-69.305
X-83.21 Y-76.355
X-83.062 Y-76.555
X-83.06 Y-76.557 Z-1.301
G3 X-82.619 Y-76.626 Z-1.5 I0.255 J0.189
G1 X-81.743 Y-75.946
X-81.616 Y-75.837
X-81.511 Y-75.73
X-81.417 Y-75.613
X-81.334 Y-75.488
X-81.252 Y-75.34
X-81.175 Y-75.17
X-81.105 Y-74.975
X-81.044 Y-74.749
X-80.997 Y-74.496
X-80.967 Y-74.204
X-80.959 Y-73.874
X-80.979 Y-73.52
X-81.037 Y-73.1
X-81.133 Y-72.666
X-81.283 Y-72.178
X-81.499 Y-71.636
X-81.783 Y-71.061
X-82.112 Y-70.509
X-82.479 Y-69.982
X-82.877 Y-69.478
X-83.303 Y-68.997
X-83.752 Y-68.538
X-84.222 Y-68.101
X-84.713 Y-67.688
X-85.168 Y-67.351
X-85.479 Y-67.157
X-85.724 Y-67.03
X-85.794 Y-67.001
X-85.982 Y-66.95
X-86.177
X-86.366 Y-67.001
X-86.534 Y-67.1
X-87.532 Y-67.875
G3 X-87.587 Y-68.303 Z-1.31 I0.203 J-0.244
G1 X-87.573 Y-68.322 Z-1.3
X-87.429 Y-68.524
X-82.33 Y-75.672
X-82.187 Y-75.873
X-82.186 Y-75.874
G3 X-81.743 Y-75.946 Z-1.5 I0.257 J0.186
G1 X-80.778 Y-75.196
X-80.664 Y-75.098
X-80.563 Y-74.987
X-80.472 Y-74.868
X-80.389 Y-74.734
X-80.308 Y-74.578
X-80.234 Y-74.402
X-80.163 Y-74.189
X-80.108 Y-73.959
X-80.064 Y-73.687
X-80.041 Y-73.389
X-80.042 Y-73.048
X-80.075 Y-72.656
X-80.143 Y-72.244
X-80.265 Y-71.755
X-80.443 Y-71.226
X-80.681 Y-70.672
X-80.98 Y-70.104
X-81.32 Y-69.559
X-81.694 Y-69.037
X-82.097 Y-68.537
X-82.525 Y-68.058
X-82.976 Y-67.6
X-83.447 Y-67.165
X-83.943 Y-66.756
X-84.299 Y-66.506
X-84.591 Y-66.334
X-84.818 Y-66.223
X-85.003 Y-66.178
X-85.194 Y-66.18
X-85.377 Y-66.232
X-85.542 Y-66.329
X-86.534 Y-67.1
G3 X-86.59 Y-67.527 Z-1.31 I0.203 J-0.244
G1 X-86.575 Y-67.547 Z-1.3
X-86.432 Y-67.75
X-81.364 Y-74.922
X-81.223 Y-75.122
X-81.221 Y-75.124
G3 X-80.778 Y-75.196 Z-1.5 I0.257 J0.186
G1 X-79.846 Y-74.472
X-79.732 Y-74.374
X-79.632 Y-74.262
X-79.543 Y-74.141
X-79.463 Y-74.012
X-79.38 Y-73.849
X-79.306 Y-73.67
X-79.237 Y-73.457
X-79.182 Y-73.223
X-79.14 Y-72.944
X-79.118 Y-72.641
X-79.122 Y-72.275
X-79.156 Y-71.899
X-79.234 Y-71.447
X-79.36 Y-70.956
X-79.539 Y-70.436
X-79.796 Y-69.847
X-80.099 Y-69.281
X-80.441 Y-68.737
X-80.814 Y-68.214
X-81.214 Y-67.712
X-81.639 Y-67.23
X-82.086 Y-66.77
X-82.555 Y-66.331
X-83.036 Y-65.937
X-83.367 Y-65.708
X-83.642 Y-65.549
X-83.785 Y-65.481
X-83.979 Y-65.419
X-84.183 Y-65.413
X-84.381 Y-65.463
X-84.558 Y-65.564
X-85.542 Y-66.329
G3 X-85.599 Y-66.753 Z-1.311 I0.203 J-0.244
G1 X-85.583 Y-66.776 Z-1.3
X-85.442 Y-66.98
X-80.43 Y-74.196
X-80.292 Y-74.395
X-80.289 Y-74.4
G3 X-79.846 Y-74.472 Z-1.5 I0.257 J0.186
G1 X-78.97 Y-73.792
X-78.857 Y-73.694
X-78.751 Y-73.587
X-78.658 Y-73.47
X-78.571 Y-73.339
X-78.491 Y-73.195
X-78.411 Y-73.016
X-78.342 Y-72.826
X-78.278 Y-72.587
X-78.231 Y-72.337
X-78.199 Y-72.026
X-78.192 Y-71.705
X-78.214 Y-71.318
X-78.273 Y-70.895
X-78.376 Y-70.428
X-78.541 Y-69.894
X-78.775 Y-69.306
X-79.06 Y-68.73
X-79.384 Y-68.176
X-79.741 Y-67.642
X-80.127 Y-67.129
X-80.539 Y-66.636
X-80.974 Y-66.164
X-81.432 Y-65.714
X-81.915 Y-65.291
X-82.276 Y-65.023
X-82.57 Y-64.839
X-82.794 Y-64.723
X-82.836 Y-64.705
X-83.025 Y-64.654
X-83.22
X-83.409 Y-64.704
X-83.578 Y-64.803
X-84.558 Y-65.564
G3 X-84.618 Y-65.985 Z-1.313 I0.203 J-0.244
G1 X-84.6 Y-66.012 Z-1.3
X-84.461 Y-66.218
X-79.552 Y-73.514
X-79.42 Y-73.711
X-79.414 Y-73.72
G3 X-78.97 Y-73.792 Z-1.5 I0.257 J0.186
G1 X-78.032 Y-73.063
X-77.919 Y-72.965
X-77.815 Y-72.857
X-77.722 Y-72.738
X-77.64 Y-72.612
X-77.554 Y-72.454
X-77.479 Y-72.285
X-77.405 Y-72.073
X-77.347 Y-71.849
X-77.298 Y-71.572
X-77.27 Y-71.283
X-77.265 Y-70.922
X-77.289 Y-70.553
X-77.355 Y-70.104
X-77.469 Y-69.607
X-77.636 Y-69.079
X-77.878 Y-68.484
X-78.167 Y-67.91
X-78.493 Y-67.357
X-78.85 Y-66.824
X-79.236 Y-66.31
X-79.646 Y-65.816
X-80.079 Y-65.342
X-80.536 Y-64.89
X-81.005 Y-64.485
X-81.342 Y-64.237
X-81.624 Y-64.064
X-81.842 Y-63.953
X-81.864 Y-63.944
X-82.051 Y-63.894
X-82.246 Y-63.895
X-82.433 Y-63.946
X-82.601 Y-64.044
X-83.578 Y-64.803
G3 X-83.639 Y-65.223 Z-1.314 I0.203 J-0.244
G1 X-83.62 Y-65.251 Z-1.3
X-83.483 Y-65.458
X-78.613 Y-72.785
X-78.483 Y-72.981
X-78.475 Y-72.991
G3 X-78.032 Y-73.063 Z-1.5 I0.257 J0.186
G1 X-77.094 Y-72.334
X-76.98 Y-72.236
X-76.878 Y-72.127
X-76.786 Y-72.008
X-76.705 Y-71.88
X-76.619 Y-71.721
X-76.544 Y-71.548
X-76.471 Y-71.337
X-76.412 Y-71.103
X-76.364 Y-70.827
X-76.337 Y-70.522
X-76.334 Y-70.157
X-76.361 Y-69.781
X-76.432 Y-69.318
X-76.549 Y-68.823
X-76.725 Y-68.275
X-76.971 Y-67.682
X-77.261 Y-67.109
X-77.587 Y-66.556
X-77.944 Y-66.022
X-78.328 Y-65.507
X-78.736 Y-65.012
X-79.168 Y-64.536
X-79.624 Y-64.085
X-80.079 Y-63.695
X-80.397 Y-63.464
X-80.67 Y-63.297
X-80.885 Y-63.189
X-80.892 Y-63.186
X-81.079 Y-63.137
X-81.273 Y-63.138
X-81.459 Y-63.189
X-81.626 Y-63.287
X-82.601 Y-64.044
G3 X-82.663 Y-64.462 Z-1.314 I0.203 J-0.244
G1 X-82.643 Y-64.492 Z-1.3
X-82.507 Y-64.699
X-77.674 Y-72.055
X-77.545 Y-72.251
X-77.537 Y-72.263
G3 X-77.094 Y-72.334 Z-1.5 I0.257 J0.186
G1 X-76.197 Y-71.637
X-76.074 Y-71.531
X-75.969 Y-71.425
X-75.875 Y-71.308
X-75.79 Y-71.181
X-75.707 Y-71.031
X-75.627 Y-70.856
X-75.555 Y-70.658
X-75.489 Y-70.419
X-75.44 Y-70.162
X-75.407 Y-69.85
X-75.398 Y-69.514
X-75.419 Y-69.124
X-75.48 Y-68.673
X-75.583 Y-68.199
X-75.751 Y-67.643
X-75.986 Y-67.046
X-76.266 Y-66.468
X-76.583 Y-65.909
X-76.931 Y-65.369
X-77.306 Y-64.848
X-77.706 Y-64.346
X-78.13 Y-63.864
X-78.581 Y-63.406
X-79.02 Y-63.015
X-79.372 Y-62.748
X-79.649 Y-62.571
X-79.865 Y-62.457
X-79.909 Y-62.438
X-80.099 Y-62.385
X-80.296 Y-62.383
X-80.486 Y-62.434
X-80.657 Y-62.533
X-81.626 Y-63.287
G3 X-81.69 Y-63.702 Z-1.316 I0.203 J-0.244
G1 X-81.669 Y-63.735 Z-1.3
X-81.535 Y-63.944
X-76.775 Y-71.357
X-76.65 Y-71.551
X-76.64 Y-71.566
G3 X-76.197 Y-71.637 Z-1.5 I0.257 J0.186
G1 X-75.218 Y-70.876
X-75.104 Y-70.778
X-75.003 Y-70.668
X-74.912 Y-70.548
X-74.828 Y-70.415
X-74.742 Y-70.25
X-74.667 Y-70.073
X-74.593 Y-69.85
X-74.535 Y-69.616
X-74.488 Y-69.324
X-74.463 Y-69.022
Y-68.643
X-74.495 Y-68.25
X-74.571 Y-67.783
X-74.702 Y-67.249
X-74.897 Y-66.663
X-75.148 Y-66.072
X-75.441 Y-65.501
X-75.768 Y-64.948
X-76.125 Y-64.414
X-76.507 Y-63.898
X-76.915 Y-63.402
X-77.348 Y-62.928
X-77.808 Y-62.479
X-78.218 Y-62.134
X-78.513 Y-61.923
X-78.764 Y-61.773
X-78.907 Y-61.703
X-79.103 Y-61.638
X-79.309 Y-61.63
X-79.51 Y-61.679
X-79.689 Y-61.782
X-80.657 Y-62.533
G3 X-80.72 Y-62.949 Z-1.316 I0.203 J-0.244
G1 X-80.699 Y-62.982 Z-1.3
X-80.565 Y-63.19
X-75.796 Y-70.596
X-75.67 Y-70.79
X-75.661 Y-70.805
G3 X-75.218 Y-70.876 Z-1.5 I0.257 J0.186
G1 X-74.3 Y-70.163
X-74.186 Y-70.065
X-74.082 Y-69.957
X-73.99 Y-69.838
X-73.903 Y-69.705
X-73.821 Y-69.553
X-73.739 Y-69.367
X-73.669 Y-69.167
X-73.604 Y-68.918
X-73.558 Y-68.656
X-73.526 Y-68.327
X-73.522 Y-67.985
X-73.549 Y-67.566
X-73.617 Y-67.11
X-73.733 Y-66.605
X-73.918 Y-66.022
X-74.16 Y-65.427
X-74.445 Y-64.851
X-74.764 Y-64.294
X-75.113 Y-63.755
X-75.488 Y-63.234
X-75.889 Y-62.732
X-76.315 Y-62.252
X-76.768 Y-61.797
X-77.189 Y-61.432
X-77.504 Y-61.201
X-77.756 Y-61.045
X-77.982 Y-60.93
X-78.17 Y-60.879
X-78.365 Y-60.88
X-78.552 Y-60.931
X-78.72 Y-61.029
X-79.689 Y-61.782
G3 X-79.754 Y-62.196 Z-1.316 I0.203 J-0.244
G1 X-79.732 Y-62.23 Z-1.3
X-79.599 Y-62.44
X-74.876 Y-69.882
X-74.754 Y-70.076
X-74.743 Y-70.092
G3 X-74.3 Y-70.163 Z-1.5 I0.257 J0.186
G1 X-73.341 Y-69.418
X-73.227 Y-69.32
X-73.126 Y-69.21
X-73.036 Y-69.09
X-72.953 Y-68.96
X-72.867 Y-68.797
X-72.789 Y-68.614
X-72.717 Y-68.399
X-72.655 Y-68.152
X-72.609 Y-67.87
X-72.582 Y-67.551
X-72.581 Y-67.178
X-72.613 Y-66.773
X-72.69 Y-66.287
X-72.818 Y-65.761
X-73.013 Y-65.169
X-73.263 Y-64.577
X-73.552 Y-64.004
X-73.875 Y-63.449
X-74.228 Y-62.912
X-74.606 Y-62.393
X-75.01 Y-61.894
X-75.439 Y-61.416
X-75.896 Y-60.965
X-76.305 Y-60.621
X-76.589 Y-60.418
X-76.838 Y-60.268
X-76.974 Y-60.201
X-77.17 Y-60.136
X-77.376 Y-60.128
X-77.577 Y-60.177
X-77.757 Y-60.28
X-78.72 Y-61.029
G3 X-78.785 Y-61.442 Z-1.317 I0.203 J-0.244
G1 X-78.763 Y-61.478 Z-1.3
X-78.63 Y-61.687
X-73.918 Y-69.137
X-73.795 Y-69.331
X-73.784 Y-69.347
G3 X-73.341 Y-69.418 Z-1.5 I0.257 J0.186
G1 X-72.403 Y-68.689
X-72.289 Y-68.591
X-72.187 Y-68.481
X-72.097 Y-68.362
X-72.01 Y-68.226
X-71.927 Y-68.069
X-71.846 Y-67.88
X-71.776 Y-67.672
X-71.711 Y-67.415
X-71.666 Y-67.143
X-71.638 Y-66.808
X-71.636 Y-66.452
X-71.669 Y-66.027
X-71.745 Y-65.545
X-71.869 Y-65.029
X-72.067 Y-64.426
X-72.316 Y-63.834
X-72.604 Y-63.26
X-72.925 Y-62.704
X-73.275 Y-62.166
X-73.652 Y-61.645
X-74.054 Y-61.144
X-74.481 Y-60.664
X-74.934 Y-60.214
X-75.332 Y-59.879
X-75.633 Y-59.664
X-75.865 Y-59.524
X-76.01 Y-59.453
X-76.206 Y-59.388
X-76.413 Y-59.38
X-76.614 Y-59.429
X-76.793 Y-59.532
X-77.757 Y-60.28
G3 X-77.822 Y-60.693 Z-1.317 I0.203 J-0.244
G1 X-77.8 Y-60.729 Z-1.3
X-77.668 Y-60.939
X-72.979 Y-68.408
X-72.858 Y-68.601
X-72.846 Y-68.618
G3 X-72.403 Y-68.689 Z-1.5 I0.257 J0.186
G1 X-71.465 Y-67.96
X-71.351 Y-67.863
X-71.249 Y-67.753
X-71.157 Y-67.634
X-71.071 Y-67.5
X-70.987 Y-67.344
X-70.905 Y-67.154
X-70.834 Y-66.948
X-70.768 Y-66.691
X-70.722 Y-66.422
X-70.692 Y-66.087
X-70.689 Y-65.736
X-70.719 Y-65.308
X-70.792 Y-64.833
X-70.915 Y-64.314
X-71.11 Y-63.708
X-71.356 Y-63.115
X-71.641 Y-62.539
X-71.96 Y-61.982
X-72.307 Y-61.442
X-72.681 Y-60.919
X-73.08 Y-60.416
X-73.504 Y-59.934
X-73.956 Y-59.481
X-74.355 Y-59.142
X-74.656 Y-58.925
X-74.892 Y-58.782
X-75.044 Y-58.706
X-75.241 Y-58.64
X-75.448 Y-58.631
X-75.65 Y-58.68
X-75.83 Y-58.783
X-76.793 Y-59.532
G3 X-76.859 Y-59.943 Z-1.318 I0.203 J-0.244
G1 X-76.836 Y-59.98 Z-1.3
X-76.705 Y-60.191
X-72.04 Y-67.679
X-71.92 Y-67.871
X-71.908 Y-67.889
G3 X-71.465 Y-67.96 Z-1.5 I0.257 J0.186
G1 X-70.527 Y-67.231
X-70.413 Y-67.134
X-70.309 Y-67.025
X-70.217 Y-66.907
X-70.131 Y-66.775
X-70.047 Y-66.62
X-69.964 Y-66.432
X-69.892 Y-66.228
X-69.826 Y-65.973
X-69.778 Y-65.706
X-69.746 Y-65.374
X-69.741 Y-65.025
X-69.768 Y-64.599
X-69.838 Y-64.126
X-69.956 Y-63.608
X-70.147 Y-63.003
X-70.389 Y-62.408
X-70.671 Y-61.831
X-70.986 Y-61.272
X-71.33 Y-60.729
X-71.701 Y-60.205
X-72.096 Y-59.699
X-72.518 Y-59.214
X-72.969 Y-58.758
X-73.372 Y-58.411
X-73.676 Y-58.189
X-73.916 Y-58.042
X-74.077 Y-57.96
X-74.275 Y-57.892
X-74.483 Y-57.883
X-74.686 Y-57.932
X-74.867 Y-58.035
X-75.83 Y-58.783
G3 X-75.897 Y-59.194 Z-1.318 I0.203 J-0.244
G1 X-75.873 Y-59.232 Z-1.3
X-75.742 Y-59.443
X-71.101 Y-66.949
X-70.983 Y-67.141
X-70.97 Y-67.16
G3 X-70.527 Y-67.231 Z-1.5 I0.257 J0.186
G1 X-69.588 Y-66.503
X-69.475 Y-66.405
X-69.37 Y-66.297
X-69.277 Y-66.179
X-69.192 Y-66.05
X-69.107 Y-65.896
X-69.023 Y-65.712
X-68.951 Y-65.508
X-68.883 Y-65.257
X-68.833 Y-64.992
X-68.8 Y-64.664
X-68.792 Y-64.316
X-68.816 Y-63.895
X-68.881 Y-63.423
X-68.996 Y-62.909
X-69.181 Y-62.306
X-69.419 Y-61.709
X-69.697 Y-61.13
X-70.008 Y-60.569
X-70.349 Y-60.024
X-70.716 Y-59.497
X-71.108 Y-58.989
X-71.526 Y-58.502
X-71.975 Y-58.042
X-72.383 Y-57.686
X-72.691 Y-57.457
X-72.936 Y-57.305
X-73.162 Y-57.188
X-73.35 Y-57.137
X-73.546
X-73.734 Y-57.188
X-73.903 Y-57.286
X-74.867 Y-58.035
G3 X-74.934 Y-58.445 Z-1.318 I0.203 J-0.244
G1 X-74.91 Y-58.484 Z-1.3
X-74.78 Y-58.696
X-70.162 Y-66.22
X-70.045 Y-66.411
X-70.032 Y-66.431
G3 X-69.588 Y-66.503 Z-1.5 I0.257 J0.186
G1 X-68.65 Y-65.774
X-68.536 Y-65.676
X-68.431 Y-65.569
X-68.337 Y-65.452
X-68.252 Y-65.326
X-68.166 Y-65.173
X-68.083 Y-64.993
X-68.008 Y-64.791
X-67.94 Y-64.544
X-67.888 Y-64.28
X-67.853 Y-63.957
X-67.842 Y-63.61
X-67.862 Y-63.194
X-67.924 Y-62.724
X-68.033 Y-62.215
X-68.077 Y-62.065
X-68.125 Y-61.915
X-68.151 Y-61.839
X-68.361 Y-61.232
X-68.618 Y-60.643
X-68.912 Y-60.072
X-69.237 Y-59.519
X-69.592 Y-58.983
X-69.972 Y-58.466
X-70.38 Y-57.969
X-70.815 Y-57.497
X-71.241 Y-57.094
X-71.598 Y-56.806
X-71.87 Y-56.621
X-72.09 Y-56.496
X-72.176 Y-56.455
X-72.37 Y-56.395
X-72.572 Y-56.39
X-72.769 Y-56.44
X-72.944 Y-56.541
X-73.903 Y-57.286
G3 X-73.971 Y-57.695 Z-1.319 I0.203 J-0.244
G1 X-73.946 Y-57.735 Z-1.3
X-73.817 Y-57.947
X-69.223 Y-65.491
X-69.107 Y-65.681
X-69.093 Y-65.702
G3 X-68.65 Y-65.774 Z-1.5 I0.257 J0.186
G1 X-67.712 Y-65.045
X-67.588 Y-64.938
X-67.482 Y-64.831
X-67.388 Y-64.714
X-67.304 Y-64.59
X-67.216 Y-64.434
X-67.135 Y-64.258
X-67.059 Y-64.052
X-66.991 Y-63.809
X-66.938 Y-63.54
X-66.903 Y-63.223
X-66.9 Y-63.139
X-66.899 Y-63.053
X-66.9 Y-62.892
X-66.907 Y-62.732
X-66.879 Y-62.574
X-66.818 Y-62.426
X-66.726 Y-62.294
X-66.608 Y-62.185
X-66.053 Y-61.862
X-65.666 Y-61.759
X-65.494 Y-61.698
X-65.29 Y-61.606
X-65.128 Y-61.517
X-65.003 Y-61.434
X-64.887 Y-61.339
X-64.762 Y-61.217
X-64.663 Y-61.104
X-64.584 Y-60.977
X-64.519 Y-60.842
X-64.465 Y-60.701
X-64.44 Y-60.554
X-64.433 Y-60.404
X-64.449 Y-60.255
X-64.492 Y-60.111
X-64.552 Y-59.974
X-64.643 Y-59.854
X-64.751 Y-59.75
X-64.88 Y-59.673
X-65.02 Y-59.62
X-65.169 Y-59.601
X-65.319 Y-59.611
X-65.461 Y-59.657
X-65.592 Y-59.731
X-65.74 Y-59.793
X-66.056 Y-59.85
X-66.373 Y-59.797
X-66.976 Y-59.575
X-67.5 Y-59.204
X-67.967 Y-58.764
X-68.403 Y-58.292
X-68.827 Y-57.81
X-69.256 Y-57.332
X-69.699 Y-56.867
X-70.165 Y-56.425
X-70.561 Y-56.101
X-70.856 Y-55.897
X-71.085 Y-55.764
X-71.204 Y-55.707
X-71.399 Y-55.645
X-71.603 Y-55.639
X-71.801 Y-55.689
X-71.978 Y-55.79
X-72.944 Y-56.541
G3 X-73.012 Y-56.95 Z-1.319 I0.203 J-0.244
G1 X-72.988 Y-56.99 Z-1.3
X-72.859 Y-57.203
X-68.285 Y-64.762
X-68.17 Y-64.952
X-68.155 Y-64.974
G3 X-67.712 Y-65.045 Z-1.5 I0.257 J0.186
G1 X-66.711 Y-64.267
X-66.597 Y-64.169
X-66.142 Y-63.716
X-65.618 Y-63.345
X-65.079 Y-62.996
X-65.007 Y-62.943
G3 X-64.966 Y-62.496 Z-1.3 I-0.203 J0.244
X-65.405 Y-62.449 I-0.244 J-0.203
G1 X-67.091 Y-63.759
G3 X-67.154 Y-64.196 I0.195 J-0.251
X-66.711 Y-64.267 Z-1.5 I0.257 J0.186
G1 X-64.814 Y-62.793
X-64.433 Y-62.466
X-64.229 Y-62.259
X-64.064 Y-62.063
X-63.93 Y-61.875
X-63.819 Y-61.69
X-63.73 Y-61.509
X-63.655 Y-61.321
X-63.603 Y-61.151
X-63.564 Y-60.974
X-63.539 Y-60.796
X-63.53 Y-60.63
X-63.534 Y-60.474
X-63.55 Y-60.317
X-63.579 Y-60.164
X-63.618 Y-60.017
X-63.669 Y-59.876
X-63.732 Y-59.74
X-63.805 Y-59.609
X-63.89 Y-59.486
X-63.985 Y-59.37
X-64.091 Y-59.263
X-64.205 Y-59.166
X-64.329 Y-59.081
X-64.459 Y-59.007
X-64.596 Y-58.946
X-65.206 Y-58.743
X-65.809 Y-58.523
X-66.365 Y-58.203
X-66.878 Y-57.815
X-67.358 Y-57.389
X-67.82 Y-56.943
X-68.277 Y-56.492
X-68.739 Y-56.046
X-69.218 Y-55.618
X-69.619 Y-55.306
X-69.926 Y-55.104
X-70.153 Y-54.98
X-70.243 Y-54.94
X-70.435 Y-54.884
X-70.635 Y-54.881
X-70.828 Y-54.931
X-71 Y-55.031
X-71.978 Y-55.79
G3 X-72.018 Y-56.237 Z-1.3 I0.203 J-0.244
G1 X-71.994 Y-56.263
X-71.84 Y-56.411
X-65.44 Y-62.553
X-65.26 Y-62.725
X-65.219 Y-62.765 Z-1.323
G3 X-64.814 Y-62.793 Z-1.5 I0.22 J0.229
G1 X-63.354 Y-61.659
X-63.24 Y-61.561
X-63.137 Y-61.452
X-63.047 Y-61.332
X-62.969 Y-61.204
X-62.904 Y-61.069
X-62.85 Y-60.929
X-62.807 Y-60.782
X-62.775 Y-60.627
X-62.755 Y-60.463
X-62.747 Y-60.291
X-62.754 Y-60.115
X-62.775 Y-59.938
X-62.81 Y-59.761
X-62.861 Y-59.583
X-62.927 Y-59.405
X-63.008 Y-59.233
X-63.103 Y-59.066
X-63.211 Y-58.909
X-63.331 Y-58.76
X-63.479 Y-58.604
X-63.682 Y-58.422
X-63.99 Y-58.188
X-64.531 Y-57.842
X-65.072 Y-57.496
X-65.595 Y-57.123
X-66.096 Y-56.722
X-66.581 Y-56.3
X-67.53 Y-55.435
X-68.013 Y-55.013
X-68.515 Y-54.612
X-68.849 Y-54.386
X-69.109 Y-54.239
X-69.246 Y-54.176
X-69.439 Y-54.117
X-69.641 Y-54.112
X-69.837 Y-54.162
X-70.011 Y-54.263
X-71 Y-55.031
G3 X-71.041 Y-55.478 Z-1.3 I0.203 J-0.244
G1 X-71.002 Y-55.518
X-70.854 Y-55.642
X-63.994 Y-61.434
X-63.804 Y-61.594
X-63.745 Y-61.644 Z-1.331
G3 X-63.354 Y-61.659 Z-1.5 I0.205 J0.243
G1 X-62.544 Y-61.03
X-62.43 Y-60.932
X-62.332 Y-60.818
X-62.249 Y-60.694
X-62.18 Y-60.56
X-62.125 Y-60.421
X-62.082 Y-60.277
X-62.051 Y-60.129
X-62.03 Y-59.965
X-62.022 Y-59.79
X-62.028 Y-59.609
X-62.049 Y-59.42
X-62.088 Y-59.223
X-62.146 Y-59.018
X-62.223 Y-58.812
X-62.323 Y-58.597
X-62.457 Y-58.361
X-62.613 Y-58.13
X-62.835 Y-57.854
X-63.166 Y-57.505
X-63.643 Y-57.075
X-64.64 Y-56.265
X-65.131 Y-55.852
X-65.617 Y-55.431
X-66.098 Y-55.006
X-66.581 Y-54.583
X-67.073 Y-54.17
X-67.577 Y-53.786
X-67.915 Y-53.569
X-68.161 Y-53.438
X-68.265 Y-53.393
X-68.455 Y-53.34
X-68.652 Y-53.338
X-68.843 Y-53.389
X-69.014 Y-53.488
X-70.011 Y-54.263
G3 X-70.052 Y-54.71 Z-1.3 I0.203 J-0.244
G1 X-70.018 Y-54.744
X-69.869 Y-54.877
X-63.179 Y-60.799
X-62.993 Y-60.964
X-62.94 Y-61.01 Z-1.328
G3 X-62.544 Y-61.03 Z-1.5 I0.21 J0.238
G1 X-61.814 Y-60.463
X-61.701 Y-60.365
X-61.604 Y-60.25
X-61.522 Y-60.124
X-61.455 Y-59.99
X-61.401 Y-59.85
X-61.36 Y-59.706
X-61.328 Y-59.552
X-61.308 Y-59.377
X-61.3 Y-59.195
X-61.309 Y-58.994
X-61.336 Y-58.774
X-61.381 Y-58.551
X-61.454 Y-58.301
X-61.554 Y-58.037
X-61.691 Y-57.749
X-61.875 Y-57.431
X-62.123 Y-57.071
X-62.495 Y-56.615
X-62.94 Y-56.152
X-63.407 Y-55.711
X-63.883 Y-55.28
X-64.362 Y-54.852
X-64.842 Y-54.426
X-65.325 Y-54.003
X-65.816 Y-53.588
X-66.319 Y-53.19
X-66.729 Y-52.904
X-67.041 Y-52.721
X-67.275 Y-52.608
X-67.289 Y-52.603
X-67.474 Y-52.557
X-67.664 Y-52.561
X-67.847 Y-52.612
X-68.011 Y-52.708
X-69.014 Y-53.488
G3 X-69.054 Y-53.935 Z-1.3 I0.203 J-0.244
G1 X-69.029 Y-53.962
X-68.876 Y-54.108
X-62.441 Y-60.224
X-62.261 Y-60.395
X-62.219 Y-60.436 Z-1.323
G3 X-61.814 Y-60.463 Z-1.5 I0.219 J0.23
G1 X-61.107 Y-59.913
X-60.993 Y-59.815
X-60.894 Y-59.702
X-60.81 Y-59.578
X-60.74 Y-59.446
X-60.682 Y-59.307
X-60.635 Y-59.159
X-60.598 Y-58.995
X-60.572 Y-58.815
X-60.558 Y-58.61
X-60.562 Y-58.396
X-60.586 Y-58.148
X-60.631 Y-57.895
X-60.708 Y-57.603
X-60.816 Y-57.294
X-60.972 Y-56.944
X-61.183 Y-56.556
X-61.467 Y-56.12
X-61.86 Y-55.613
X-62.289 Y-55.135
X-62.739 Y-54.677
X-63.202 Y-54.231
X-63.673 Y-53.795
X-64.152 Y-53.366
X-64.638 Y-52.948
X-65.138 Y-52.544
X-65.64 Y-52.177
X-65.959 Y-51.981
X-66.206 Y-51.855
X-66.271 Y-51.829
X-66.459 Y-51.779
X-66.653 Y-51.78
X-66.84 Y-51.831
X-67.007 Y-51.929
X-68.011 Y-52.708
G3 X-68.051 Y-53.155 Z-1.3 I0.203 J-0.244
G1 X-68.035 Y-53.174
X-67.879 Y-53.334
X-61.725 Y-59.666
X-61.552 Y-59.844
X-61.52 Y-59.877 Z-1.318
G3 X-61.107 Y-59.913 Z-1.5 I0.228 J0.221
G1 X-60.394 Y-59.359
X-60.28 Y-59.261
X-60.176 Y-59.153
X-60.087 Y-59.033
X-60.011 Y-58.903
X-59.948 Y-58.767
X-59.893 Y-58.617
X-59.848 Y-58.453
X-59.811 Y-58.261
X-59.789 Y-58.059
X-59.782 Y-57.819
X-59.794 Y-57.574
X-59.833 Y-57.282
X-59.897 Y-56.981
X-60.001 Y-56.635
X-60.15 Y-56.256
X-60.352 Y-55.841
X-60.637 Y-55.358
X-61.007 Y-54.833
X-61.413 Y-54.337
X-61.846 Y-53.862
X-62.295 Y-53.403
X-62.758 Y-52.957
X-63.231 Y-52.524
X-63.716 Y-52.103
X-64.216 Y-51.699
X-64.675 Y-51.371
X-64.993 Y-51.18
X-65.231 Y-51.063
X-65.274 Y-51.045
X-65.46 Y-50.998
X-65.652 Y-51
X-65.837 Y-51.051
X-66.003 Y-51.149
X-67.007 Y-51.929
G3 X-67.048 Y-52.376 Z-1.3 I0.203 J-0.244
G1 X-67.04 Y-52.385
X-66.882 Y-52.561
X-61.004 Y-59.104
X-60.838 Y-59.289
X-60.816 Y-59.314 Z-1.313
G3 X-60.394 Y-59.359 Z-1.5 I0.236 J0.212
G1 X-59.56 Y-58.711
X-59.446 Y-58.613
X-59.349 Y-58.498
X-59.266 Y-58.374
X-59.194 Y-58.242
X-59.133 Y-58.1
X-59.076 Y-57.934
X-59.029 Y-57.752
X-58.993 Y-57.541
X-58.972 Y-57.31
X-58.97 Y-57.051
X-58.99 Y-56.759
X-59.038 Y-56.45
X-59.125 Y-56.08
X-59.244 Y-55.709
X-59.428 Y-55.265
X-59.68 Y-54.772
X-60.018 Y-54.226
X-60.397 Y-53.708
X-60.807 Y-53.213
X-61.239 Y-52.739
X-61.689 Y-52.28
X-62.153 Y-51.836
X-62.631 Y-51.407
X-63.125 Y-50.997
X-63.609 Y-50.638
X-63.931 Y-50.436
X-64.181 Y-50.307
X-64.26 Y-50.273
X-64.449 Y-50.222
X-64.644
X-64.833 Y-50.273
X-65.002 Y-50.371
X-66.003 Y-51.149
G3 X-66.043 Y-51.596 Z-1.3 I0.203 J-0.244
G1 X-66.041 Y-51.599
X-65.882 Y-51.784
X-60.165 Y-58.452
X-60.004 Y-58.64
X-59.987 Y-58.66 Z-1.31
G3 X-59.56 Y-58.711 Z-1.5 I0.241 J0.207
G1 X-58.761 Y-58.091
X-58.648 Y-57.993
X-58.549 Y-57.88
X-58.463 Y-57.757
X-58.388 Y-57.627
X-58.319 Y-57.477
X-58.26 Y-57.317
X-58.204 Y-57.119
X-58.164 Y-56.913
X-58.136 Y-56.665
X-58.128 Y-56.406
X-58.143 Y-56.097
X-58.186 Y-55.769
X-58.266 Y-55.395
X-58.394 Y-54.967
X-58.564 Y-54.527
X-58.813 Y-54.014
X-59.138 Y-53.46
X-59.504 Y-52.932
X-59.901 Y-52.428
X-60.323 Y-51.943
X-60.764 Y-51.476
X-61.221 Y-51.026
X-61.695 Y-50.592
X-62.187 Y-50.179
X-62.641 Y-49.844
X-62.959 Y-49.647
X-63.198 Y-49.525
X-63.265 Y-49.497
X-63.453 Y-49.446
X-63.648 Y-49.447
X-63.836 Y-49.498
X-64.004 Y-49.596
X-65.002 Y-50.371
G3 X-65.045 Y-50.815 Z-1.302 I0.203 J-0.244
G1 X-65.043 Y-50.818 Z-1.3
X-64.886 Y-51.011
X-59.361 Y-57.827
X-59.205 Y-58.02
X-59.194 Y-58.033 Z-1.307
G3 X-58.761 Y-58.091 Z-1.5 I0.247 J0.2
G1 X-57.955 Y-57.464
X-57.841 Y-57.366
X-57.738 Y-57.257
X-57.648 Y-57.138
X-57.569 Y-57.01
X-57.495 Y-56.863
X-57.43 Y-56.704
X-57.369 Y-56.511
X-57.322 Y-56.304
X-57.286 Y-56.056
X-57.269 Y-55.792
X-57.274 Y-55.476
X-57.305 Y-55.153
X-57.375 Y-54.762
X-57.483 Y-54.349
X-57.646 Y-53.885
X-57.88 Y-53.358
X-58.186 Y-52.794
X-58.535 Y-52.255
X-58.917 Y-51.738
X-59.325 Y-51.242
X-59.754 Y-50.765
X-60.203 Y-50.305
X-60.67 Y-49.864
X-61.156 Y-49.445
X-61.608 Y-49.102
X-61.925 Y-48.899
X-62.171 Y-48.768
X-62.262 Y-48.729
X-62.452 Y-48.675
X-62.649 Y-48.674
X-62.84 Y-48.725
X-63.011 Y-48.824
X-64.004 Y-49.596
G3 X-64.052 Y-50.033 Z-1.305 I0.203 J-0.244
G1 X-64.045 Y-50.043 Z-1.3
X-63.894 Y-50.24
X-58.549 Y-57.196
X-58.398 Y-57.393
X-58.392 Y-57.4 Z-1.304
G3 X-57.955 Y-57.464 Z-1.5 I0.252 J0.193
G1 X-57.079 Y-56.784
X-56.965 Y-56.686
X-56.864 Y-56.575
X-56.775 Y-56.454
X-56.697 Y-56.326
X-56.622 Y-56.176
X-56.555 Y-56.009
X-56.492 Y-55.808
X-56.443 Y-55.592
X-56.406 Y-55.334
X-56.389 Y-55.057
X-56.395 Y-54.736
X-56.43 Y-54.377
X-56.501 Y-53.985
X-56.625 Y-53.518
X-56.794 Y-53.04
X-57.039 Y-52.492
X-57.347 Y-51.929
X-57.695 Y-51.389
X-58.074 Y-50.87
X-58.478 Y-50.372
X-58.905 Y-49.892
X-59.352 Y-49.43
X-59.818 Y-48.989
X-60.307 Y-48.572
X-60.703 Y-48.28
X-61.008 Y-48.092
X-61.236 Y-47.976
X-61.283 Y-47.956
X-61.471 Y-47.906
X-61.666
X-61.854 Y-47.957
X-62.021 Y-48.055
X-63.011 Y-48.824
G3 X-63.062 Y-49.257 Z-1.307 I0.203 J-0.244
G1 X-63.051 Y-49.271 Z-1.3
X-62.903 Y-49.47
X-57.67 Y-56.513
X-57.522 Y-56.712
X-57.519 Y-56.716 Z-1.302
G3 X-57.079 Y-56.784 Z-1.5 I0.255 J0.189
G1 X-56.203 Y-56.103
X-56.089 Y-56.005
X-55.987 Y-55.895
X-55.898 Y-55.775
X-55.819 Y-55.647
X-55.74 Y-55.491
X-55.672 Y-55.324
X-55.606 Y-55.118
X-55.555 Y-54.9
X-55.515 Y-54.632
X-55.496 Y-54.351
X-55.501 Y-54.008
X-55.533 Y-53.658
X-55.607 Y-53.236
X-55.727 Y-52.773
X-55.9 Y-52.275
X-56.152 Y-51.701
X-56.457 Y-51.135
X-56.8 Y-50.592
X-57.174 Y-50.07
X-57.573 Y-49.567
X-57.995 Y-49.084
X-58.438 Y-48.618
X-58.902 Y-48.174
X-59.39 Y-47.757
X-59.762 Y-47.488
X-60.054 Y-47.31
X-60.277 Y-47.198
X-60.302 Y-47.188
X-60.489 Y-47.139
X-60.682 Y-47.14
X-60.869 Y-47.192
X-61.035 Y-47.289
X-62.021 Y-48.055
G3 X-62.076 Y-48.485 Z-1.309 I0.203 J-0.244
G1 X-62.063 Y-48.503 Z-1.3
X-61.918 Y-48.704
X-56.791 Y-55.83
X-56.646 Y-56.031
Y-56.032
G3 X-56.203 Y-56.103 Z-1.5 I0.257 J0.186
G1 X-55.328 Y-55.423
X-55.214 Y-55.325
X-55.11 Y-55.217
X-55.019 Y-55.098
X-54.938 Y-54.972
X-54.858 Y-54.819
X-54.786 Y-54.652
X-54.719 Y-54.453
X-54.662 Y-54.228
X-54.619 Y-53.969
X-54.595 Y-53.68
X-54.594 Y-53.343
X-54.621 Y-52.987
X-54.69 Y-52.55
X-54.797 Y-52.105
X-54.967 Y-51.589
X-55.212 Y-51.004
X-55.508 Y-50.434
X-55.841 Y-49.885
X-56.206 Y-49.357
X-56.597 Y-48.848
X-57.012 Y-48.357
X-57.447 Y-47.885
X-57.906 Y-47.436
X-58.386 Y-47.018
X-58.764 Y-46.738
X-59.053 Y-46.559
X-59.275 Y-46.444
X-59.507 Y-46.348
X-59.738 Y-46.312
X-59.969 Y-46.349
X-60.177 Y-46.456
X-60.341 Y-46.623
X-60.435 Y-46.756
X-60.493 Y-46.822
X-60.581 Y-46.918
X-60.633 Y-46.968
X-60.873 Y-47.163
X-61.035 Y-47.289
G3 X-61.092 Y-47.715 Z-1.311 I0.203 J-0.244
G1 X-61.077 Y-47.737 Z-1.3
X-60.935 Y-47.941
X-55.913 Y-55.148
X-55.774 Y-55.347
X-55.771 Y-55.352
G3 X-55.328 Y-55.423 Z-1.5 I0.257 J0.186
G1 X-54.452 Y-54.743
X-54.329 Y-54.637
X-54.223 Y-54.53
X-54.13 Y-54.413
X-54.047 Y-54.288
X-53.964 Y-54.136
X-53.891 Y-53.972
X-53.82 Y-53.773
X-53.761 Y-53.55
X-53.714 Y-53.29
X-53.686 Y-53.006
X-53.679 Y-52.666
X-53.701 Y-52.312
X-53.764 Y-51.872
X-53.866 Y-51.422
X-54.028 Y-50.901
X-54.267 Y-50.309
X-54.554 Y-49.735
X-54.879 Y-49.181
X-55.236 Y-48.647
X-55.619 Y-48.132
X-56.027 Y-47.635
X-56.456 Y-47.158
X-56.91 Y-46.703
X-57.383 Y-46.283
X-57.804 Y-45.965
X-58.101 Y-45.776
X-58.377 Y-45.63
X-58.592 Y-45.538
X-58.799 Y-45.468
X-59.006 Y-45.417
X-59.065 Y-45.407
X-59.264 Y-45.401
X-59.458 Y-45.449
X-59.632 Y-45.546
X-59.774 Y-45.687
X-59.873 Y-45.861
X-59.908 Y-45.948
X-59.978 Y-46.093
X-59.997 Y-46.124
X-60.275 Y-46.531
X-60.341 Y-46.623
G3 X-60.335 Y-46.981 Z-1.347 I0.265 J-0.175
G1 X-60.267 Y-47.078 Z-1.3
X-60.123 Y-47.28
X-55.038 Y-54.469
X-54.897 Y-54.669
X-54.895 Y-54.671
G3 X-54.452 Y-54.743 Z-1.5 I0.257 J0.186
G1 X-53.507 Y-54.009
X-53.394 Y-53.911
X-53.291 Y-53.802
X-53.2 Y-53.683
X-53.118 Y-53.554
X-53.035 Y-53.398
X-52.962 Y-53.227
X-52.889 Y-53.013
X-52.833 Y-52.789
X-52.787 Y-52.511
X-52.762 Y-52.223
X-52.761 Y-51.868
X-52.789 Y-51.493
X-52.859 Y-51.05
X-52.98 Y-50.546
X-53.155 Y-50.013
X-53.404 Y-49.42
X-53.697 Y-48.849
X-54.026 Y-48.298
X-54.385 Y-47.765
X-54.771 Y-47.252
X-55.18 Y-46.757
X-55.613 Y-46.282
X-56.07 Y-45.831
X-56.547 Y-45.417
X-56.963 Y-45.111
X-57.336 Y-44.88
X-57.666 Y-44.711
X-57.943 Y-44.596
X-58.176 Y-44.521
X-58.394 Y-44.469
X-58.598 Y-44.437
X-58.776 Y-44.425
X-58.968 Y-44.426
X-59.133 Y-44.441
X-59.148 Y-44.444
X-59.345 Y-44.507
X-59.517 Y-44.622
X-59.651 Y-44.78
X-59.735 Y-44.969
X-59.764 Y-45.174
Y-45.219
X-59.769 Y-45.364
X-59.782 Y-45.51
X-59.806 Y-45.656
X-59.851 Y-45.807
X-59.873 Y-45.861
G3 X-59.828 Y-46.16 Z-1.373 I0.298 J-0.108
G1 X-59.718 Y-46.306 Z-1.3
X-59.568 Y-46.504
X-54.1 Y-53.74
X-53.951 Y-53.938
X-53.947 Y-53.943 Z-1.303
G3 X-53.507 Y-54.009 Z-1.5 I0.253 J0.191
G1 X-52.554 Y-53.269
X-52.441 Y-53.171
X-52.341 Y-53.058
X-52.254 Y-52.937
X-52.173 Y-52.803
X-52.089 Y-52.636
X-52.017 Y-52.457
X-51.947 Y-52.235
X-51.894 Y-51.998
X-51.851 Y-51.706
X-51.832 Y-51.398
X-51.839 Y-51.017
X-51.877 Y-50.63
X-51.962 Y-50.161
X-52.102 Y-49.632
X-52.303 Y-49.062
X-52.329 Y-49.003
X-52.384 Y-48.901
X-52.455 Y-48.809
X-52.539 Y-48.729
X-52.733 Y-48.572
X-53.138 Y-48.232
X-53.247 Y-48.134
X-53.445 Y-47.948
X-53.46 Y-47.932
X-53.576 Y-47.775
X-53.63 Y-47.697
X-54.051 Y-46.968
X-54.13 Y-46.822
X-54.203 Y-46.676
X-54.268 Y-46.531
X-54.339 Y-46.37
X-54.513 Y-46.05
X-54.742 Y-45.699
X-55.025 Y-45.332
X-55.366 Y-44.958
X-55.74 Y-44.608
X-56.13 Y-44.298
X-56.517 Y-44.038
X-56.875 Y-43.837
X-57.217 Y-43.68
X-57.547 Y-43.56
X-57.866 Y-43.471
X-58.131 Y-43.42
X-58.383 Y-43.393
X-58.599 Y-43.386
X-58.792 Y-43.396
X-58.989 Y-43.422
X-59.153 Y-43.458
X-59.276 Y-43.495
X-59.473 Y-43.587
X-59.637 Y-43.731
X-59.752 Y-43.916
X-59.81 Y-44.126
X-59.806 Y-44.344
X-59.782 Y-44.49
X-59.769 Y-44.636
X-59.764 Y-44.781
Y-45.174
G3 X-59.538 Y-45.467 Z-1.341 I0.317 J0.011
G1 X-59.439 Y-45.496 Z-1.3
X-59.201 Y-45.567
X-54.733 Y-46.898
X-54.665 Y-46.919
X-54.607 Y-46.93
X-54.548 Y-46.931
X-54.49 Y-46.921
G3 X-54.268 Y-46.531 Z-1.5 I-0.084 J0.306
G1 X-54.313 Y-46.385
X-54.342 Y-46.239
X-54.369 Y-46.093
X-54.471 Y-45.51
X-54.521 Y-45.219
X-54.525 Y-45.175
X-54.543 Y-45.026
X-54.587 Y-44.869
X-54.653 Y-44.693
X-54.747 Y-44.492
X-54.862 Y-44.29
X-55.018 Y-44.061
X-55.202 Y-43.833
X-55.422 Y-43.6
X-55.684 Y-43.365
X-55.977 Y-43.141
X-56.295 Y-42.936
X-56.628 Y-42.758
X-56.966 Y-42.611
X-57.301 Y-42.496
X-57.628 Y-42.413
X-57.95 Y-42.357
X-58.254 Y-42.33
X-58.514 Y-42.328
X-58.77 Y-42.346
X-58.969 Y-42.376
X-59.173 Y-42.424
X-59.352 Y-42.482
X-59.504 Y-42.545
X-59.666 Y-42.628
X-59.804 Y-42.713
X-59.925 Y-42.802
X-59.933 Y-42.809
X-60.073 Y-42.972
X-60.16 Y-43.168
X-60.188 Y-43.381
X-60.153 Y-43.592
X-60.06 Y-43.785
X-60.015 Y-43.834 Z-1.473
X-59.961 Y-43.873 Z-1.447
X-59.9 Y-43.9 Z-1.42
X-59.616 Y-43.991 Z-1.3
X-59.379 Y-44.067
X-55.07 Y-45.447
X-54.939 Y-45.489
X-54.885 Y-45.501
X-54.829 Y-45.504
G3 X-54.525 Y-45.175 Z-1.5 I-0.013 J0.317
G1 X-54.532 Y-45.073
Y-44.927
X-54.521 Y-44.781
X-54.452 Y-44.375
X-54.434 Y-44.226
Y-44.076
X-54.449 Y-43.927
X-54.479 Y-43.78
X-54.524 Y-43.625
X-54.589 Y-43.455
X-54.675 Y-43.274
X-54.786 Y-43.08
X-54.923 Y-42.882
X-55.098 Y-42.668
X-55.294 Y-42.463
X-55.528 Y-42.255
X-55.8 Y-42.051
X-56.1 Y-41.86
X-56.422 Y-41.69
X-56.764 Y-41.544
X-57.118 Y-41.425
X-57.473 Y-41.336
X-57.818 Y-41.279
X-58.153 Y-41.251
X-58.476 Y-41.25
X-58.783 Y-41.274
X-59.077 Y-41.321
X-59.353 Y-41.387
X-59.579 Y-41.462
X-59.791 Y-41.551
X-59.975 Y-41.647
X-60.125 Y-41.741
X-60.28 Y-41.856
X-60.407 Y-41.968
X-60.514 Y-42.078
X-60.571 Y-42.147
X-60.681 Y-42.328
X-60.736 Y-42.533
X-60.73 Y-42.745
X-60.665 Y-42.946
X-60.545 Y-43.121
X-60.493 Y-43.178
X-60.435 Y-43.244
X-60.275 Y-43.469
X-60.06 Y-43.785
X-60.017 Y-43.832 Z-1.475
X-59.967 Y-43.87 Z-1.449
X-59.909 Y-43.897 Z-1.424
X-59.848 Y-43.912 Z-1.398
X-59.605 Y-43.946 Z-1.3
X-59.359 Y-43.981
X-55.073 Y-44.587
X-54.827 Y-44.622
X-54.807 Y-44.624 Z-1.308
G3 X-54.452 Y-44.375 Z-1.5 I0.044 J0.314
G1 X-54.369 Y-43.907
X-54.342 Y-43.761
X-54.313 Y-43.615
X-54.268 Y-43.469
X-54.223 Y-43.326
X-54.208 Y-43.177
X-54.209 Y-43.027
X-54.226 Y-42.878
X-54.256 Y-42.731
X-54.304 Y-42.566
X-54.367 Y-42.398
X-54.456 Y-42.211
X-54.566 Y-42.021
X-54.704 Y-41.82
X-54.877 Y-41.608
X-55.071 Y-41.405
X-55.306 Y-41.196
X-55.58 Y-40.989
X-55.881 Y-40.798
X-56.207 Y-40.626
X-56.561 Y-40.474
X-56.935 Y-40.348
X-57.323 Y-40.251
X-57.716 Y-40.186
X-58.11 Y-40.153
X-58.499 Y-40.151
X-58.869 Y-40.18
X-59.215 Y-40.235
X-59.535 Y-40.312
X-59.837 Y-40.411
X-60.118 Y-40.529
X-60.369 Y-40.66
X-60.574 Y-40.788
X-60.768 Y-40.932
X-60.913 Y-41.059
X-61.052 Y-41.202
X-61.169 Y-41.343
X-61.26 Y-41.474
X-61.349 Y-41.626
X-61.384 Y-41.698
X-61.446 Y-41.889
X-61.454 Y-42.09
X-61.408 Y-42.285
X-61.312 Y-42.461
X-61.171 Y-42.605
X-60.873 Y-42.837
X-60.633 Y-43.032
X-60.581 Y-43.082
X-60.545 Y-43.121
X-60.502 Y-43.157 Z-1.477
X-60.453 Y-43.186 Z-1.454
X-60.399 Y-43.205 Z-1.431
X-60.343 Y-43.214 Z-1.409
X-60.073 Y-43.235 Z-1.3
X-59.825 Y-43.253
X-54.944 Y-43.62
X-54.696 Y-43.638
X-54.577 Y-43.647 Z-1.348
G3 X-54.268 Y-43.469 Z-1.5 I0.024 J0.317
G1 X-54.203 Y-43.324
X-54.13 Y-43.178
X-54.051 Y-43.032
X-53.967 Y-42.886
X-53.899 Y-42.753
X-53.851 Y-42.61
X-53.822 Y-42.463
X-53.811 Y-42.314
X-53.814 Y-42.164
X-53.83 Y-42.015
X-53.862 Y-41.846
X-53.909 Y-41.677
X-53.979 Y-41.485
X-54.067 Y-41.291
X-54.184 Y-41.082
X-54.331 Y-40.862
X-54.501 Y-40.647
X-54.712 Y-40.422
X-54.961 Y-40.194
X-55.234 Y-39.983
X-55.548 Y-39.778
X-55.901 Y-39.586
X-56.287 Y-39.414
X-56.7 Y-39.269
X-57.133 Y-39.154
X-57.577 Y-39.075
X-58.024 Y-39.031
X-58.465 Y-39.024
X-58.898 Y-39.052
X-59.317 Y-39.112
X-59.718 Y-39.204
X-60.092 Y-39.321
X-60.44 Y-39.463
X-60.75 Y-39.618
X-61.029 Y-39.788
X-61.278 Y-39.968
X-61.505 Y-40.161
X-61.681 Y-40.338
X-61.842 Y-40.528
X-61.958 Y-40.689
X-62.063 Y-40.863
X-62.145 Y-41.027
X-62.206 Y-41.18
X-62.209 Y-41.19
X-62.243 Y-41.411
X-62.209 Y-41.632
X-62.111 Y-41.833
X-61.957 Y-41.995
X-61.171 Y-42.605
X-61.119 Y-42.636 Z-1.476
X-61.062 Y-42.656 Z-1.452
X-61.003 Y-42.665 Z-1.427
X-60.686 Y-42.682 Z-1.3
X-60.438 Y-42.696
X-54.661 Y-43.013
X-54.413 Y-43.026
X-54.254 Y-43.035 Z-1.364
G3 X-53.967 Y-42.886 Z-1.5 I0.017 J0.317
G1 X-53.63 Y-42.303
X-53.576 Y-42.225
X-53.548 Y-42.188
X-53.466 Y-42.063
X-53.407 Y-41.925
X-53.367 Y-41.78
X-53.343 Y-41.632
X-53.334 Y-41.482
X-53.338 Y-41.332
X-53.356 Y-41.163
X-53.388 Y-40.988
X-53.441 Y-40.794
X-53.515 Y-40.588
X-53.612 Y-40.375
X-53.742 Y-40.142
X-53.894 Y-39.914
X-54.082 Y-39.675
X-54.314 Y-39.425
X-54.575 Y-39.185
X-54.875 Y-38.952
X-55.223 Y-38.723
X-55.615 Y-38.508
X-56.044 Y-38.316
X-56.5 Y-38.154
X-56.976 Y-38.027
X-57.472 Y-37.937
X-57.98 Y-37.886
X-58.492 Y-37.877
X-59.001 Y-37.908
X-59.494 Y-37.978
X-59.965 Y-38.084
X-60.407 Y-38.222
X-60.82 Y-38.388
X-61.205 Y-38.58
X-61.554 Y-38.791
X-61.87 Y-39.018
X-62.142 Y-39.249
X-62.377 Y-39.484
X-62.578 Y-39.719
X-62.72 Y-39.915
X-62.848 Y-40.127
X-62.937 Y-40.304
X-63.009 Y-40.481
X-63.031 Y-40.549
X-63.065 Y-40.771
X-63.031 Y-40.992
X-62.933 Y-41.194
X-62.778 Y-41.357
X-61.957 Y-41.995
X-61.902 Y-42.026 Z-1.475
X-61.843 Y-42.047 Z-1.45
X-61.781 Y-42.055 Z-1.424
X-61.471 Y-42.065 Z-1.3
X-61.223 Y-42.073
X-54.258 Y-42.294
X-54.009 Y-42.302
X-53.808 Y-42.309 Z-1.381
G3 X-53.548 Y-42.188 Z-1.5 I0.01 J0.317
G1 X-53.46 Y-42.067
X-53.445 Y-42.052
X-53.247 Y-41.866
X-53.138 Y-41.768
X-53.028 Y-41.666
X-52.939 Y-41.546
X-52.868 Y-41.414
X-52.814 Y-41.274
X-52.775 Y-41.129
X-52.75 Y-40.981
X-52.737 Y-40.822
Y-40.654
X-52.751 Y-40.47
X-52.784 Y-40.267
X-52.835 Y-40.059
X-52.912 Y-39.825
X-53.012 Y-39.59
X-53.142 Y-39.34
X-53.31 Y-39.073
X-53.506 Y-38.811
X-53.742 Y-38.542
X-54.028 Y-38.265
X-54.363 Y-37.99
X-54.726 Y-37.737
X-55.139 Y-37.496
X-55.598 Y-37.276
X-56.098 Y-37.084
X-56.632 Y-36.926
X-57.191 Y-36.809
X-57.767 Y-36.736
X-58.351 Y-36.709
X-58.932 Y-36.729
X-59.503 Y-36.795
X-60.055 Y-36.905
X-60.586 Y-37.055
X-61.088 Y-37.241
X-61.559 Y-37.461
X-61.993 Y-37.707
X-62.386 Y-37.974
X-62.725 Y-38.247
X-63.017 Y-38.523
X-63.268 Y-38.802
X-63.471 Y-39.068
X-63.617 Y-39.295
X-63.738 Y-39.521
X-63.819 Y-39.705
X-63.888 Y-39.906
X-63.893 Y-39.926
X-63.916 Y-40.139
X-63.876 Y-40.35
X-63.778 Y-40.541
X-63.63 Y-40.695
X-62.778 Y-41.357
X-62.725 Y-41.387 Z-1.475
X-62.668 Y-41.408 Z-1.451
X-62.607 Y-41.416 Z-1.426
X-62.293 Y-41.431 Z-1.3
X-62.045 Y-41.442
X-53.869 Y-41.812
X-53.621 Y-41.823
X-53.348 Y-41.835 Z-1.41
X-53.292 Y-41.833 Z-1.432
X-53.237 Y-41.821 Z-1.455
X-53.185 Y-41.799 Z-1.477
X-53.138 Y-41.768 Z-1.5
X-52.7 Y-41.401
X-52.554 Y-41.283
X-52.443 Y-41.183
X-52.344 Y-41.069
X-52.263 Y-40.944
X-52.196 Y-40.809
X-52.145 Y-40.668
X-52.106 Y-40.524
X-52.077 Y-40.365
X-52.06 Y-40.193
X-52.057 Y-40.006
X-52.07 Y-39.796
X-52.101 Y-39.58
X-52.156 Y-39.337
X-52.234 Y-39.086
X-52.341 Y-38.823
X-52.485 Y-38.535
X-52.66 Y-38.246
X-52.874 Y-37.949
X-53.138 Y-37.639
X-53.452 Y-37.325
X-53.801 Y-37.028
X-54.198 Y-36.742
X-54.654 Y-36.466
X-55.163 Y-36.211
X-55.719 Y-35.987
X-56.314 Y-35.801
X-56.939 Y-35.659
X-57.575 Y-35.568
X-58.216 Y-35.527
X-58.858 Y-35.536
X-59.497 Y-35.595
X-60.13 Y-35.705
X-60.747 Y-35.863
X-61.335 Y-36.065
X-61.89 Y-36.307
X-62.404 Y-36.582
X-62.871 Y-36.883
X-63.291 Y-37.204
X-63.661 Y-37.537
X-63.965 Y-37.858
X-64.212 Y-38.166
X-64.413 Y-38.462
X-64.55 Y-38.702
X-64.657 Y-38.933
X-64.728 Y-39.123
X-64.759 Y-39.232
X-64.787 Y-39.449
X-64.75 Y-39.665
X-64.652 Y-39.86
X-64.5 Y-40.019
X-63.63 Y-40.695
X-63.578 Y-40.726 Z-1.476
X-63.521 Y-40.746 Z-1.452
X-63.461 Y-40.755 Z-1.427
X-63.144 Y-40.772 Z-1.3
X-62.897 Y-40.786
X-53.286 Y-41.318
X-53.038 Y-41.331
X-52.763 Y-41.347 Z-1.411
X-52.707 Y-41.345 Z-1.433
X-52.653 Y-41.333 Z-1.455
X-52.601 Y-41.313 Z-1.478
X-52.554 Y-41.283 Z-1.5
X-52.373 Y-41.137
X-52.262 Y-41.068
X-52.104 Y-40.991
X-52.064 Y-40.975
X-51.928 Y-40.911
X-51.805 Y-40.825
X-51.698 Y-40.72
X-51.605 Y-40.602
X-51.526 Y-40.475
X-51.46 Y-40.34
X-51.406 Y-40.2
X-51.359 Y-40.04
X-51.323 Y-39.871
X-51.298 Y-39.675
X-51.289 Y-39.47
X-51.297 Y-39.24
X-51.326 Y-38.988
X-51.377 Y-38.731
X-51.457 Y-38.445
X-51.571 Y-38.141
X-51.713 Y-37.836
X-51.901 Y-37.505
X-52.137 Y-37.157
X-52.301 Y-36.954
X-52.339 Y-36.91
X-52.38 Y-36.87
X-52.424 Y-36.833
X-53.639 Y-35.889
X-54.165 Y-35.521
X-54.587 Y-35.266
X-55.049 Y-35.035
X-55.595 Y-34.815
X-56.206 Y-34.624
X-56.832 Y-34.483
X-57.468 Y-34.389
X-58.108 Y-34.34
X-58.75 Y-34.337
X-59.391 Y-34.381
X-60.027 Y-34.47
X-60.655 Y-34.603
X-61.272 Y-34.78
X-61.876 Y-35.001
X-62.461 Y-35.265
X-63.025 Y-35.573
X-63.553 Y-35.917
X-64.026 Y-36.284
X-64.44 Y-36.661
X-64.779 Y-37.024
X-65.055 Y-37.372
X-65.275 Y-37.699
X-65.424 Y-37.966
X-65.539 Y-38.215
X-65.612 Y-38.417
X-65.648 Y-38.547
X-65.674 Y-38.763
X-65.637 Y-38.977
X-65.539 Y-39.172
X-65.388 Y-39.329
X-64.5 Y-40.019
G3 X-64.211 Y-40.061 Z-1.378 I0.186 J0.257
G1 X-64.027 Y-39.998 Z-1.3
X-63.793 Y-39.916
X-53.81 Y-36.457
X-53.738 Y-36.433
X-53.686 Y-36.409
X-53.639 Y-36.376
X-53.598 Y-36.336
G3 X-53.639 Y-35.889 Z-1.5 I-0.244 J0.203
G1 X-56.057 Y-34.01
X-56.275 Y-33.858
X-56.479 Y-33.738
X-56.743 Y-33.611
X-57.031 Y-33.499
X-57.408 Y-33.387
X-57.821 Y-33.299
X-58.318 Y-33.235
X-58.899 Y-33.207
X-59.541 Y-33.228
X-60.179 Y-33.3
X-60.811 Y-33.417
X-61.432 Y-33.578
X-62.041 Y-33.782
X-62.635 Y-34.026
X-63.212 Y-34.308
X-63.768 Y-34.63
X-64.3 Y-34.989
X-64.804 Y-35.387
X-65.252 Y-35.801
X-65.632 Y-36.215
X-65.926 Y-36.592
X-66.161 Y-36.949
X-66.318 Y-37.236
X-66.439 Y-37.505
X-66.513 Y-37.713
X-66.55 Y-37.853
X-66.575 Y-38.068
X-66.537 Y-38.28
X-66.438 Y-38.473
X-66.289 Y-38.629
X-65.388 Y-39.329
G3 X-65.052 Y-39.351 Z-1.357 I0.186 J0.257
G1 X-64.926 Y-39.283 Z-1.3
X-64.707 Y-39.166
X-56.222 Y-34.594
X-56.11 Y-34.533
X-56.059 Y-34.5
X-56.016 Y-34.457
G3 X-56.057 Y-34.01 Z-1.5 I-0.244 J0.203
G1 X-57.579 Y-32.827
X-57.788 Y-32.682
X-57.942 Y-32.591
X-58.14 Y-32.495
X-58.375 Y-32.405
X-58.64 Y-32.326
X-58.976 Y-32.255
X-59.343 Y-32.207
X-59.791 Y-32.186
X-60.321 Y-32.203
X-60.889 Y-32.267
X-61.52 Y-32.39
X-62.138 Y-32.562
X-62.743 Y-32.778
X-63.333 Y-33.032
X-63.905 Y-33.323
X-64.459 Y-33.649
X-64.99 Y-34.01
X-65.496 Y-34.405
X-65.972 Y-34.836
X-66.389 Y-35.278
X-66.733 Y-35.705
X-67.002 Y-36.101
X-67.187 Y-36.428
X-67.324 Y-36.722
X-67.408 Y-36.949
X-67.471 Y-37.173
X-67.475 Y-37.191
X-67.486 Y-37.395
X-67.442 Y-37.594
X-67.345 Y-37.773
X-67.202 Y-37.92
X-66.289 Y-38.629
G3 X-65.932 Y-38.64 Z-1.348 I0.186 J0.257
G1 X-65.831 Y-38.575 Z-1.3
X-65.622 Y-38.442
X-57.739 Y-33.42
X-57.612 Y-33.339
X-57.573 Y-33.309
X-57.539 Y-33.274
G3 X-57.579 Y-32.827 Z-1.5 I-0.244 J0.203
G1 X-58.976 Y-31.742
X-59.099 Y-31.656
X-59.248 Y-31.572
X-59.417 Y-31.493
X-59.632 Y-31.414
X-59.867 Y-31.348
X-60.15 Y-31.292
X-60.486 Y-31.254
X-60.865 Y-31.241
X-61.305 Y-31.262
X-61.828 Y-31.329
X-62.121 Y-31.39
X-62.274 Y-31.429
X-62.426 Y-31.471
X-63.038 Y-31.647
X-63.639 Y-31.873
X-64.222 Y-32.141
X-64.787 Y-32.447
X-65.332 Y-32.786
X-65.856 Y-33.159
X-66.354 Y-33.563
X-66.825 Y-34
X-67.263 Y-34.469
X-67.628 Y-34.928
X-67.906 Y-35.342
X-68.112 Y-35.71
X-68.241 Y-35.991
X-68.332 Y-36.24
X-68.391 Y-36.453
X-68.396 Y-36.48
X-68.406 Y-36.683
X-68.362 Y-36.881
X-68.265 Y-37.059
X-68.123 Y-37.204
X-67.202 Y-37.92
G3 X-66.83 Y-37.919 Z-1.34 I0.186 J0.257
G1 X-66.748 Y-37.86 Z-1.3
X-66.547 Y-37.715
X-59.13 Y-32.343
X-58.993 Y-32.243
X-58.962 Y-32.218
X-58.935 Y-32.189
G3 X-58.976 Y-31.742 Z-1.5 I-0.244 J0.203
G1 X-60.143 Y-30.835
X-60.277 Y-30.742
X-60.406 Y-30.666
X-60.563 Y-30.591
X-60.753 Y-30.518
X-60.958 Y-30.458
X-61.195 Y-30.409
X-61.471 Y-30.374
X-61.824 Y-30.358
X-62.145 Y-30.37
X-62.451 Y-30.273
X-63.003 Y-29.944
X-63.477 Y-29.511
X-63.802 Y-29.226
X-63.922 Y-29.137
X-64.076 Y-29.041
X-64.274 Y-28.939
X-64.412 Y-28.881
X-64.556 Y-28.837
X-64.703 Y-28.808
X-64.852 Y-28.792
X-65.002 Y-28.791
X-65.151 Y-28.811
X-65.296 Y-28.847
X-65.436 Y-28.903
X-65.564 Y-28.981
X-65.682 Y-29.073
X-65.779 Y-29.187
X-65.858 Y-29.315
X-65.911 Y-29.455
X-65.937 Y-29.603
Y-29.753
X-65.888 Y-30.07
X-65.959 Y-30.709
X-66.236 Y-31.288
X-66.61 Y-31.81
X-67.025 Y-32.3
X-67.452 Y-32.78
X-67.874 Y-33.263
X-68.279 Y-33.763
X-68.653 Y-34.284
X-68.923 Y-34.727
X-69.103 Y-35.084
X-69.222 Y-35.377
X-69.294 Y-35.607
X-69.322 Y-35.73
X-69.339 Y-35.939
X-69.298 Y-36.144
X-69.2 Y-36.33
X-69.054 Y-36.481
X-68.123 Y-37.204
G3 X-67.743 Y-37.198 Z-1.336 I0.186 J0.257
G1 X-67.671 Y-37.143 Z-1.3
X-67.474 Y-36.991
X-60.294 Y-31.44
X-60.153 Y-31.33
X-60.103 Y-31.282
X-60.071 Y-31.237 Z-1.322
X-60.048 Y-31.187 Z-1.344
X-60.034 Y-31.134 Z-1.366
X-60.029 Y-31.08 Z-1.388
Y-31.079
G3 X-60.143 Y-30.835 Z-1.5 I-0.317 J0
G1 X-63.208 Y-28.454
X-63.46 Y-28.278
X-63.652 Y-28.166
X-63.848 Y-28.071
X-64.038 Y-27.998
X-64.228 Y-27.941
X-64.417 Y-27.901
X-64.609 Y-27.876
X-64.784 Y-27.868
X-64.963 Y-27.873
X-65.142 Y-27.894
X-65.303 Y-27.925
X-65.461 Y-27.969
X-65.607 Y-28.023
X-65.754 Y-28.091
X-65.885 Y-28.165
X-66.013 Y-28.252
X-66.13 Y-28.346
X-66.239 Y-28.449
X-66.339 Y-28.561
X-66.429 Y-28.682
X-66.508 Y-28.809
X-66.8 Y-29.381
X-67.069 Y-29.964
X-67.393 Y-30.518
X-67.759 Y-31.046
X-68.149 Y-31.556
X-68.548 Y-32.06
X-68.942 Y-32.567
X-69.321 Y-33.085
X-69.673 Y-33.622
X-69.93 Y-34.081
X-70.089 Y-34.427
X-70.196 Y-34.721
X-70.259 Y-34.95
X-70.273 Y-35.023
X-70.283 Y-35.225
X-70.238 Y-35.423
X-70.141 Y-35.601
X-69.999 Y-35.746
X-69.054 Y-36.481
G3 X-68.611 Y-36.41 Z-1.3 I0.186 J0.257
G1 Y-36.409
X-68.466 Y-36.208
X-63.313 Y-29.103
X-63.167 Y-28.902
X-63.155 Y-28.884 Z-1.309
G3 X-63.208 Y-28.454 Z-1.5 I-0.257 J0.186
G1 X-64.456 Y-27.485
X-64.579 Y-27.399
X-64.713 Y-27.332
X-64.854 Y-27.281
X-64.999 Y-27.244
X-65.148 Y-27.22
X-65.297 Y-27.209
X-65.452 Y-27.21
X-65.615 Y-27.225
X-65.779 Y-27.253
X-65.945 Y-27.295
X-66.111 Y-27.352
X-66.277 Y-27.425
X-66.442 Y-27.513
X-66.607 Y-27.619
X-66.799 Y-27.765
X-67.011 Y-27.956
X-67.253 Y-28.211
X-67.655 Y-28.711
X-68.404 Y-29.754
X-68.787 Y-30.27
X-69.564 Y-31.293
X-69.945 Y-31.81
X-70.311 Y-32.338
X-70.651 Y-32.882
X-70.915 Y-33.378
X-71.065 Y-33.725
X-71.166 Y-34.021
X-71.224 Y-34.252
X-71.231 Y-34.296
X-71.238 Y-34.495
X-71.191 Y-34.688
X-71.094 Y-34.862
X-70.955 Y-35.004
X-69.999 Y-35.746
G3 X-69.556 Y-35.675 Z-1.3 I0.186 J0.257
G1 X-69.549 Y-35.665
X-69.419 Y-35.468
X-64.551 Y-28.14
X-64.414 Y-27.933
X-64.395 Y-27.904 Z-1.314
G3 X-64.456 Y-27.485 Z-1.5 I-0.264 J0.176
G1 X-65.186 Y-26.918
X-65.309 Y-26.832
X-65.441 Y-26.761
X-65.581 Y-26.708
X-65.726 Y-26.671
X-65.875 Y-26.649
X-66.025 Y-26.641
X-66.18 Y-26.646
X-66.343 Y-26.664
X-66.527 Y-26.699
X-66.713 Y-26.751
X-66.925 Y-26.829
X-67.138 Y-26.927
X-67.394 Y-27.072
X-67.671 Y-27.258
X-68.004 Y-27.524
X-68.462 Y-27.954
X-68.893 Y-28.43
X-69.305 Y-28.922
X-69.707 Y-29.423
X-70.103 Y-29.929
X-70.492 Y-30.44
X-70.87 Y-30.959
X-71.233 Y-31.489
X-71.571 Y-32.035
X-71.853 Y-32.564
X-72.017 Y-32.942
X-72.124 Y-33.254
X-72.183 Y-33.488
X-72.193 Y-33.548
X-72.2 Y-33.747
X-72.153 Y-33.94
X-72.057 Y-34.114
X-71.917 Y-34.256
X-70.955 Y-35.004
G3 X-70.512 Y-34.933 Z-1.3 I0.186 J0.257
G1 X-70.51 Y-34.93
X-70.368 Y-34.73
X-65.288 Y-27.568
X-65.144 Y-27.366
X-65.13 Y-27.345 Z-1.31
G3 X-65.186 Y-26.918 Z-1.5 I-0.259 J0.184
G1 X-65.916 Y-26.351
X-66.038 Y-26.265
X-66.172 Y-26.196
X-66.312 Y-26.143
X-66.458 Y-26.107
X-66.606 Y-26.085
X-66.762 Y-26.075
X-66.935 Y-26.078
X-67.124 Y-26.096
X-67.333 Y-26.133
X-67.564 Y-26.194
X-67.814 Y-26.282
X-68.113 Y-26.415
X-68.412 Y-26.578
X-68.775 Y-26.815
X-69.21 Y-27.152
X-69.684 Y-27.585
X-70.129 Y-28.048
X-70.553 Y-28.53
X-70.963 Y-29.024
X-71.359 Y-29.529
X-71.742 Y-30.045
X-72.107 Y-30.573
X-72.449 Y-31.117
X-72.756 Y-31.672
X-72.954 Y-32.11
X-73.071 Y-32.435
X-73.138 Y-32.683
X-73.157 Y-32.785
X-73.166 Y-32.987
X-73.121 Y-33.184
X-73.024 Y-33.361
X-72.883 Y-33.506
X-71.917 Y-34.256
G3 X-71.478 Y-34.191 Z-1.303 I0.186 J0.257
G1 X-71.474 Y-34.185 Z-1.3
X-71.324 Y-33.987
X-66.025 Y-26.996
X-65.875 Y-26.798
X-65.866 Y-26.786 Z-1.306
G3 X-65.916 Y-26.351 Z-1.5 I-0.253 J0.192
G1 X-66.655 Y-25.777
X-66.778 Y-25.691
X-66.909 Y-25.619
X-67.048 Y-25.563
X-67.193 Y-25.522
X-67.345 Y-25.493
X-67.506 Y-25.476
X-67.695 Y-25.471
X-67.893 Y-25.482
X-68.129 Y-25.514
X-68.369 Y-25.567
X-68.663 Y-25.657
X-68.956 Y-25.772
X-69.319 Y-25.95
X-69.694 Y-26.174
X-70.146 Y-26.495
X-70.638 Y-26.907
X-71.1 Y-27.354
X-71.538 Y-27.823
X-71.956 Y-28.31
X-72.357 Y-28.812
X-72.741 Y-29.327
X-73.104 Y-29.857
X-73.444 Y-30.401
X-73.749 Y-30.963
X-73.932 Y-31.379
X-74.047 Y-31.709
X-74.111 Y-31.952
X-74.126 Y-32.04
X-74.134 Y-32.24
X-74.088 Y-32.435
X-73.991 Y-32.611
X-73.851 Y-32.754
X-72.883 Y-33.506
G3 X-72.45 Y-33.448 Z-1.307 I0.186 J0.257
G1 X-72.44 Y-33.435 Z-1.3
X-72.284 Y-33.242
X-66.77 Y-26.417
X-66.614 Y-26.224
X-66.611 Y-26.22 Z-1.302
G3 X-66.655 Y-25.777 Z-1.5 I-0.247 J0.2
G1 X-67.44 Y-25.166
X-67.563 Y-25.08
X-67.693 Y-25.005
X-67.831 Y-24.946
X-67.974 Y-24.9
X-68.13 Y-24.865
X-68.293 Y-24.842
X-68.493 Y-24.83
X-68.699 Y-24.834
X-68.946 Y-24.859
X-69.198 Y-24.905
X-69.505 Y-24.987
X-69.815 Y-25.097
X-70.197 Y-25.268
X-70.585 Y-25.482
X-71.046 Y-25.785
X-71.552 Y-26.18
X-72.027 Y-26.612
X-72.476 Y-27.071
X-72.903 Y-27.551
X-73.31 Y-28.048
X-73.698 Y-28.56
X-74.064 Y-29.087
X-74.405 Y-29.631
X-74.706 Y-30.184
X-74.898 Y-30.616
X-75.014 Y-30.946
X-75.078 Y-31.192
X-75.095 Y-31.286
X-75.103 Y-31.486
X-75.057 Y-31.682
X-74.961 Y-31.858
X-74.82 Y-32.001
X-73.851 Y-32.754
G3 X-73.423 Y-32.702 Z-1.31 I0.186 J0.257
G1 X-73.407 Y-32.683 Z-1.3
X-73.247 Y-32.494
X-67.561 Y-25.802
X-67.402 Y-25.616
X-67.4 Y-25.613
G3 X-67.44 Y-25.166 Z-1.5 I-0.244 J0.203
G1 X-68.316 Y-24.486
X-68.439 Y-24.4
X-68.571 Y-24.329
X-68.71 Y-24.272
X-68.854 Y-24.229
X-69.014 Y-24.194
X-69.194 Y-24.169
X-69.405 Y-24.158
X-69.628 Y-24.163
X-69.89 Y-24.191
X-70.166 Y-24.244
X-70.49 Y-24.332
X-70.833 Y-24.457
X-71.227 Y-24.636
X-71.674 Y-24.885
X-72.155 Y-25.206
X-72.659 Y-25.604
X-73.133 Y-26.037
X-73.581 Y-26.497
X-74.007 Y-26.978
X-74.411 Y-27.477
X-74.794 Y-27.993
X-75.153 Y-28.525
X-75.483 Y-29.076
X-75.753 Y-29.603
X-75.906 Y-29.973
X-76.006 Y-30.282
X-76.062 Y-30.519
X-76.067 Y-30.551
X-76.071 Y-30.747
X-76.023 Y-30.937
X-75.927 Y-31.108
X-75.789 Y-31.248
X-74.82 Y-32.001
G3 X-74.395 Y-31.952 Z-1.312 I0.186 J0.257
G1 X-74.376 Y-31.931 Z-1.3
X-74.213 Y-31.743
X-68.439 Y-25.12
X-68.28 Y-24.938
X-68.276 Y-24.933
G3 X-68.316 Y-24.486 Z-1.5 I-0.244 J0.203
G1 X-69.192 Y-23.806
X-69.315 Y-23.72
X-69.447 Y-23.648
X-69.585 Y-23.591
X-69.728 Y-23.546
X-69.899 Y-23.507
X-70.08 Y-23.481
X-70.295 Y-23.467
X-70.527 Y-23.472
X-70.795 Y-23.498
X-71.087 Y-23.551
X-71.423 Y-23.64
X-71.777 Y-23.765
X-72.2 Y-23.953
X-72.633 Y-24.19
X-73.131 Y-24.517
X-73.638 Y-24.911
X-74.116 Y-25.34
X-74.568 Y-25.796
X-74.997 Y-26.274
X-75.403 Y-26.772
X-75.786 Y-27.287
X-76.146 Y-27.819
X-76.476 Y-28.37
X-76.74 Y-28.894
X-76.885 Y-29.25
X-76.981 Y-29.553
X-77.034 Y-29.786
X-77.037 Y-29.803
X-77.039 Y-29.998
X-76.991 Y-30.187
X-76.895 Y-30.356
X-76.758 Y-30.495
X-75.789 Y-31.248
G3 X-75.367 Y-31.202 Z-1.313 I0.186 J0.257
G1 X-75.345 Y-31.178 Z-1.3
X-75.179 Y-30.993
X-69.317 Y-24.438
X-69.159 Y-24.261
X-69.151 Y-24.253
X-69.12 Y-24.207 Z-1.322
X-69.097 Y-24.157 Z-1.344
X-69.083 Y-24.104 Z-1.366
X-69.078 Y-24.049 Z-1.388
G3 X-69.192 Y-23.806 Z-1.5 I-0.318 J0
G1 X-70.067 Y-23.125
X-70.19 Y-23.039
X-70.321 Y-22.965
X-70.458 Y-22.904
X-70.6 Y-22.856
X-70.765 Y-22.815
X-70.951 Y-22.784
X-71.158 Y-22.767
X-71.401 Y-22.766
X-71.659 Y-22.786
X-71.959 Y-22.833
X-72.282 Y-22.911
X-72.65 Y-23.033
X-73.063 Y-23.206
X-73.498 Y-23.432
X-73.999 Y-23.745
X-74.515 Y-24.128
X-75.001 Y-24.548
X-75.461 Y-24.996
X-75.897 Y-25.467
X-76.31 Y-25.959
X-76.7 Y-26.469
X-77.065 Y-26.997
X-77.4 Y-27.545
X-77.669 Y-28.062
X-77.834 Y-28.452
X-77.937 Y-28.762
X-77.994 Y-28.996
X-78.002 Y-29.042
X-78.007 Y-29.24
X-77.959 Y-29.431
X-77.863 Y-29.604
X-77.725 Y-29.745
X-76.758 Y-30.495
G3 X-76.338 Y-30.453 Z-1.315 I0.186 J0.257
G1 X-76.314 Y-30.425 Z-1.3
X-76.146 Y-30.242
X-70.195 Y-23.755
X-70.037 Y-23.584
X-70.027 Y-23.572
G3 X-70.067 Y-23.125 Z-1.5 I-0.244 J0.203
G1 X-71.023 Y-22.383
X-71.146 Y-22.297
X-71.28 Y-22.228
X-71.419 Y-22.172
X-71.571 Y-22.126
X-71.752 Y-22.087
X-71.943 Y-22.061
X-72.177 Y-22.048
X-72.418 Y-22.054
X-72.713 Y-22.085
X-73.011 Y-22.142
X-73.378 Y-22.242
X-73.752 Y-22.377
X-74.187 Y-22.575
X-74.675 Y-22.847
X-75.209 Y-23.203
X-75.713 Y-23.601
X-76.189 Y-24.032
X-76.64 Y-24.489
X-77.067 Y-24.969
X-77.471 Y-25.468
X-77.849 Y-25.987
X-78.201 Y-26.525
X-78.519 Y-27.082
X-78.734 Y-27.537
X-78.858 Y-27.864
X-78.934 Y-28.129
X-78.961 Y-28.262
X-78.974 Y-28.467
X-78.93 Y-28.667
X-78.833 Y-28.848
X-78.69 Y-28.995
X-77.725 Y-29.745
G3 X-77.305 Y-29.702 Z-1.315 I0.186 J0.257
G1 X-77.28 Y-29.675 Z-1.3
X-77.112 Y-29.492
X-71.151 Y-23.013
X-70.993 Y-22.841
X-70.983 Y-22.83
G3 X-71.023 Y-22.383 Z-1.5 I-0.244 J0.203
G1 X-71.909 Y-21.695
X-72.032 Y-21.609
X-72.162 Y-21.535
X-72.299 Y-21.475
X-72.453 Y-21.423
X-72.615 Y-21.382
X-72.814 Y-21.349
X-73.021 Y-21.332
X-73.274 Y-21.331
X-73.537 Y-21.351
X-73.857 Y-21.401
X-74.186 Y-21.481
X-74.592 Y-21.614
X-74.994 Y-21.783
X-75.466 Y-22.027
X-75.99 Y-22.355
X-76.506 Y-22.738
X-76.993 Y-23.156
X-77.455 Y-23.602
X-77.892 Y-24.072
X-78.306 Y-24.564
X-78.694 Y-25.075
X-79.056 Y-25.606
X-79.387 Y-26.156
X-79.634 Y-26.642
X-79.783 Y-27.002
X-79.875 Y-27.292
X-79.932 Y-27.533
X-79.934 Y-27.549
X-79.937 Y-27.745
X-79.889 Y-27.934
X-79.793 Y-28.105
X-79.656 Y-28.244
X-78.69 Y-28.995
G3 X-78.272 Y-28.955 Z-1.316 I0.186 J0.257
G1 X-78.245 Y-28.925 Z-1.3
X-78.075 Y-28.744
X-72.038 Y-22.323
X-71.881 Y-22.156
X-71.868 Y-22.142
G3 X-71.909 Y-21.695 Z-1.5 I-0.244 J0.203
G1 X-72.84 Y-20.971
X-72.963 Y-20.885
X-73.094 Y-20.811
X-73.231 Y-20.751
X-73.373 Y-20.703
X-73.546 Y-20.659
X-73.74 Y-20.626
X-73.957 Y-20.607
X-74.205 Y-20.605
X-74.477 Y-20.625
X-74.79 Y-20.673
X-75.134 Y-20.755
X-75.519 Y-20.88
X-75.963 Y-21.065
X-76.419 Y-21.299
X-76.944 Y-21.624
X-77.46 Y-22.006
X-77.949 Y-22.422
X-78.413 Y-22.866
X-78.852 Y-23.335
X-79.267 Y-23.825
X-79.657 Y-24.335
X-80.022 Y-24.864
X-80.354 Y-25.413
X-80.61 Y-25.919
X-80.75 Y-26.263
X-80.844 Y-26.559
X-80.898 Y-26.79
X-80.899 Y-26.801
X-80.902 Y-26.996
X-80.854 Y-27.186
X-80.758 Y-27.355
X-80.621 Y-27.494
X-79.656 Y-28.244
G3 X-79.24 Y-28.205 Z-1.317 I0.186 J0.257
G1 X-79.211 Y-28.175 Z-1.3
X-79.04 Y-27.995
X-72.97 Y-21.598
X-72.814 Y-21.433
X-72.8 Y-21.418
G3 X-72.84 Y-20.971 Z-1.5 I-0.244 J0.203
G1 X-73.797 Y-20.228
X-73.919 Y-20.142
X-74.051 Y-20.071
X-74.19 Y-20.013
X-74.336 Y-19.965
X-74.516 Y-19.922
X-74.71 Y-19.892
X-74.937 Y-19.875
X-75.192 Y-19.876
X-75.478 Y-19.901
X-75.793 Y-19.954
X-76.157 Y-20.046
X-76.542 Y-20.177
X-76.996 Y-20.373
X-77.482 Y-20.631
X-78.015 Y-20.971
X-78.527 Y-21.359
X-79.011 Y-21.781
X-79.47 Y-22.23
X-79.905 Y-22.702
X-80.316 Y-23.196
X-80.702 Y-23.709
X-81.061 Y-24.242
X-81.386 Y-24.795
X-81.614 Y-25.265
X-81.739 Y-25.588
X-81.821 Y-25.862
X-81.852 Y-26.007
X-81.867 Y-26.214
X-81.824 Y-26.416
X-81.727 Y-26.599
X-81.582 Y-26.747
X-80.621 Y-27.494
G3 X-80.205 Y-27.456 Z-1.317 I0.186 J0.257
G1 X-80.176 Y-27.425 Z-1.3
X-80.005 Y-27.245
X-73.927 Y-20.855
X-73.77 Y-20.691
X-73.756 Y-20.675
G3 X-73.797 Y-20.228 Z-1.5 I-0.244 J0.203
G1 X-74.738 Y-19.497
X-74.861 Y-19.411
X-74.993 Y-19.34
X-75.131 Y-19.282
X-75.284 Y-19.232
X-75.459 Y-19.19
X-75.662 Y-19.159
X-75.882 Y-19.142
X-76.148 Y-19.144
X-76.424 Y-19.168
X-76.759 Y-19.225
X-77.106 Y-19.312
X-77.514 Y-19.451
X-77.967 Y-19.647
X-78.441 Y-19.899
X-78.982 Y-20.245
X-79.494 Y-20.633
X-79.979 Y-21.054
X-80.438 Y-21.503
X-80.874 Y-21.975
X-81.286 Y-22.468
X-81.673 Y-22.98
X-82.033 Y-23.512
X-82.352 Y-24.056
X-82.573 Y-24.512
X-82.705 Y-24.853
X-82.781 Y-25.108
X-82.814 Y-25.261
X-82.828 Y-25.468
X-82.785 Y-25.67
X-82.688 Y-25.852
X-82.544 Y-26
X-81.582 Y-26.747
G3 X-81.167 Y-26.709 Z-1.317 I0.186 J0.257
G1 X-81.137 Y-26.678 Z-1.3
X-80.965 Y-26.499
X-74.868 Y-20.124
X-74.712 Y-19.96
X-74.697 Y-19.944
G3 X-74.738 Y-19.497 Z-1.5 I-0.244 J0.203
G1 X-75.694 Y-18.754
X-75.816 Y-18.668
X-75.949 Y-18.598
X-76.088 Y-18.542
X-76.242 Y-18.493
X-76.42 Y-18.452
X-76.628 Y-18.421
X-76.852 Y-18.406
X-77.123 Y-18.41
X-77.404 Y-18.436
X-77.74 Y-18.495
X-78.095 Y-18.588
X-78.507 Y-18.731
X-78.97 Y-18.935
X-79.452 Y-19.196
X-79.991 Y-19.546
X-80.5 Y-19.937
X-80.983 Y-20.36
X-81.441 Y-20.811
X-81.875 Y-21.284
X-82.286 Y-21.778
X-82.672 Y-22.291
X-83.029 Y-22.825
X-83.344 Y-23.369
X-83.548 Y-23.799
X-83.675 Y-24.135
X-83.748 Y-24.384
X-83.776 Y-24.52
X-83.789 Y-24.725
X-83.745 Y-24.926
X-83.648 Y-25.107
X-83.504 Y-25.254
X-82.544 Y-26
G3 X-82.129 Y-25.963 Z-1.318 I0.186 J0.257
G1 X-82.098 Y-25.931 Z-1.3
X-81.927 Y-25.752
X-75.824 Y-19.381
X-75.668 Y-19.218
X-75.653 Y-19.201
G3 X-75.694 Y-18.754 Z-1.5 I-0.244 J0.203
G1 X-76.635 Y-18.023
X-76.758 Y-17.937
X-76.89 Y-17.866
X-77.029 Y-17.809
X-77.187 Y-17.758
X-77.36 Y-17.717
X-77.571 Y-17.685
X-77.79 Y-17.67
X-78.062 Y-17.672
X-78.341 Y-17.697
X-78.683 Y-17.757
X-79.028 Y-17.845
X-79.449 Y-17.99
X-79.896 Y-18.185
X-80.386 Y-18.447
X-80.925 Y-18.795
X-81.437 Y-19.183
X-81.921 Y-19.605
X-82.381 Y-20.053
X-82.818 Y-20.524
X-83.23 Y-21.016
X-83.618 Y-21.528
X-83.978 Y-22.06
X-84.291 Y-22.596
X-84.503 Y-23.039
X-84.632 Y-23.374
X-84.706 Y-23.628
X-84.736 Y-23.771
X-84.75 Y-23.977
X-84.706 Y-24.178
X-84.609 Y-24.36
X-84.465 Y-24.508
X-83.504 Y-25.254
G3 X-83.09 Y-25.217 Z-1.318 I0.186 J0.257
G1 X-83.059 Y-25.185 Z-1.3
X-82.887 Y-25.006
X-76.766 Y-18.649
X-76.61 Y-18.487
X-76.594 Y-18.47
G3 X-76.635 Y-18.023 Z-1.5 I-0.244 J0.203
G1 X-77.591 Y-17.28
X-77.714 Y-17.194
X-77.847 Y-17.125
X-77.985 Y-17.068
X-78.142 Y-17.018
X-78.319 Y-16.977
X-78.531 Y-16.946
X-78.753 Y-16.931
X-79.027 Y-16.935
X-79.306 Y-16.961
X-79.65 Y-17.021
X-80.001 Y-17.113
X-80.421 Y-17.259
X-80.883 Y-17.463
X-81.373 Y-17.728
X-81.912 Y-18.078
X-82.422 Y-18.468
X-82.906 Y-18.89
X-83.365 Y-19.339
X-83.801 Y-19.811
X-84.213 Y-20.303
X-84.6 Y-20.816
X-84.958 Y-21.349
X-85.268 Y-21.886
X-85.471 Y-22.313
X-85.597 Y-22.646
X-85.669 Y-22.894
X-85.697 Y-23.028
X-85.71 Y-23.233
X-85.666 Y-23.434
X-85.568 Y-23.615
X-85.425 Y-23.762
X-84.465 Y-24.508
G3 X-84.051 Y-24.471 Z-1.318 I0.186 J0.257
G1 X-84.02 Y-24.438 Z-1.3
X-83.848 Y-24.26
X-77.722 Y-17.907
X-77.566 Y-17.744
X-77.55 Y-17.727
G3 X-77.591 Y-17.28 Z-1.5 I-0.244 J0.203
G1 X-78.532 Y-16.549
X-78.655 Y-16.463
X-78.787 Y-16.392
X-78.926 Y-16.334
X-79.084 Y-16.283
X-79.256 Y-16.242
X-79.468 Y-16.209
X-79.687 Y-16.193
X-79.958 Y-16.195
X-80.238 Y-16.22
X-80.581 Y-16.278
X-80.927 Y-16.366
X-81.351 Y-16.511
X-81.797 Y-16.704
X-82.292 Y-16.968
X-82.833 Y-17.315
X-83.345 Y-17.702
X-83.832 Y-18.121
X-84.293 Y-18.568
X-84.732 Y-19.037
X-85.146 Y-19.528
X-85.536 Y-20.038
X-85.897 Y-20.569
X-86.208 Y-21.102
X-86.421 Y-21.544
X-86.55 Y-21.879
X-86.625 Y-22.133
X-86.656 Y-22.278
X-86.67 Y-22.484
X-86.627 Y-22.686
X-86.529 Y-22.868
X-86.386 Y-23.016
X-85.425 Y-23.762
G3 X-85.011 Y-23.725 Z-1.318 I0.186 J0.257
G1 X-84.98 Y-23.693 Z-1.3
X-84.807 Y-23.514
X-78.664 Y-17.175
X-78.508 Y-17.014
X-78.492 Y-16.996
G3 X-78.532 Y-16.549 Z-1.5 I-0.244 J0.203
G1 X-79.477 Y-15.815
X-79.6 Y-15.729
X-79.732 Y-15.657
X-79.87 Y-15.599
X-80.025 Y-15.547
X-80.197 Y-15.505
X-80.408 Y-15.472
X-80.626 Y-15.455
X-80.896
X-81.172 Y-15.478
X-81.513 Y-15.534
X-81.857 Y-15.62
X-82.278 Y-15.761
X-82.726 Y-15.952
X-83.219 Y-16.212
X-83.761 Y-16.555
X-84.275 Y-16.94
X-84.764 Y-17.357
X-85.227 Y-17.802
X-85.667 Y-18.269
X-86.084 Y-18.758
X-86.476 Y-19.267
X-86.839 Y-19.797
X-87.154 Y-20.331
X-87.373 Y-20.78
X-87.505 Y-21.118
X-87.582 Y-21.375
X-87.615 Y-21.529
X-87.63 Y-21.736
X-87.587 Y-21.938
X-87.49 Y-22.121
X-87.346 Y-22.27
X-86.386 Y-23.016
G3 X-85.972 Y-22.98 Z-1.319 I0.186 J0.257
G1 X-85.94 Y-22.947 Z-1.3
X-85.767 Y-22.769
X-79.609 Y-16.441
X-79.453 Y-16.28
X-79.436 Y-16.262
G3 X-79.477 Y-15.815 Z-1.5 I-0.244 J0.203
G1 X-80.429 Y-15.075
X-80.552 Y-14.989
X-80.684 Y-14.917
X-80.822 Y-14.859
X-80.976 Y-14.808
X-81.15 Y-14.766
X-81.359 Y-14.732
X-81.578 Y-14.715
X-81.849
X-82.125 Y-14.738
X-82.466 Y-14.794
X-82.813 Y-14.88
X-83.231 Y-15.021
X-83.688 Y-15.216
X-84.179 Y-15.474
X-84.722 Y-15.817
X-85.236 Y-16.202
X-85.724 Y-16.619
X-86.188 Y-17.063
X-86.629 Y-17.53
X-87.045 Y-18.019
X-87.437 Y-18.528
X-87.801 Y-19.057
X-88.117 Y-19.594
X-88.333 Y-20.038
X-88.465 Y-20.376
X-88.542 Y-20.63
X-88.575 Y-20.784
X-88.59 Y-20.99
X-88.547 Y-21.193
X-88.449 Y-21.376
X-88.305 Y-21.525
X-87.346 Y-22.27
G3 X-86.932 Y-22.234 Z-1.319 I0.186 J0.257
G1 X-86.9 Y-22.201 Z-1.3
X-86.727 Y-22.023
X-80.562 Y-15.7
X-80.406 Y-15.54
X-80.389 Y-15.522
G3 X-80.429 Y-15.075 Z-1.5 I-0.244 J0.203
G1 X-81.363 Y-14.35
X-81.486 Y-14.264
X-81.616 Y-14.19
X-81.753 Y-14.129
X-81.906 Y-14.076
X-82.074 Y-14.033
X-82.28 Y-13.997
X-82.494 Y-13.977
X-82.758 Y-13.974
X-83.031 Y-13.993
X-83.367 Y-14.044
X-83.706 Y-14.123
X-84.125 Y-14.257
X-84.559 Y-14.435
X-85.049 Y-14.685
X-85.597 Y-15.021
X-86.115 Y-15.4
X-86.608 Y-15.811
X-87.076 Y-16.251
X-87.521 Y-16.714
X-87.942 Y-17.199
X-88.339 Y-17.704
X-88.707 Y-18.23
X-89.034 Y-18.77
X-89.269 Y-19.237
X-89.408 Y-19.582
X-89.492 Y-19.851
X-89.533 Y-20.029
X-89.55 Y-20.238
X-89.508 Y-20.443
X-89.411 Y-20.628
X-89.265 Y-20.779
X-88.305 Y-21.525
G3 X-87.893 Y-21.49 Z-1.319 I0.186 J0.257
G1 X-87.859 Y-21.456 Z-1.3
X-87.685 Y-21.279
X-81.495 Y-14.975
X-81.34 Y-14.816
X-81.322 Y-14.797
G3 X-81.363 Y-14.35 Z-1.5 I-0.244 J0.203
G1 X-82.327 Y-13.601
X-82.45 Y-13.515
X-82.581 Y-13.442
X-82.718 Y-13.383
X-82.866 Y-13.333
X-83.042 Y-13.288
X-83.244 Y-13.254
X-83.467 Y-13.235
X-83.729 Y-13.234
X-84.009 Y-13.255
X-84.339 Y-13.306
X-84.694 Y-13.392
X-85.103 Y-13.525
X-85.567 Y-13.719
X-86.053 Y-13.97
X-86.598 Y-14.309
X-86.727 Y-14.404
X-87.301 Y-14.844
X-87.784 Y-15.267
X-88.242 Y-15.717
X-88.677 Y-16.19
X-89.086 Y-16.684
X-89.469 Y-17.2
X-89.821 Y-17.737
X-90.108 Y-18.248
X-90.29 Y-18.642
X-90.409 Y-18.968
X-90.475 Y-19.206
X-90.495 Y-19.31
X-90.506 Y-19.513
X-90.461 Y-19.711
X-90.364 Y-19.889
X-90.222 Y-20.035
X-89.265 Y-20.779
G3 X-88.853 Y-20.744 Z-1.319 I0.186 J0.257
G1 X-88.819 Y-20.71 Z-1.3
X-88.646 Y-20.532
X-82.459 Y-14.226
X-82.303 Y-14.067
X-82.286 Y-14.048
G3 X-82.327 Y-13.601 Z-1.5 I-0.244 J0.203
G1 X-83.286 Y-12.855
X-83.409 Y-12.769
X-83.541 Y-12.697
X-83.679 Y-12.639
X-83.83 Y-12.588
X-84.006 Y-12.545
X-84.211 Y-12.511
X-84.434 Y-12.493
X-84.704
X-84.983 Y-12.515
X-85.321 Y-12.57
X-85.675 Y-12.657
X-86.09 Y-12.795
X-86.523 Y-12.978
X-86.666 Y-13.053
X-86.876 Y-13.169
X-87.03 Y-13.215
X-87.35 Y-13.239
X-87.983 Y-13.128
X-88.592 Y-12.926
X-88.903 Y-12.843
X-89.063 Y-12.81
X-89.237 Y-12.789
X-89.451 Y-12.779
X-89.601 Y-12.785
X-89.75 Y-12.804
X-89.895 Y-12.84
X-90.038 Y-12.887
X-90.175 Y-12.948
X-90.301 Y-13.028
X-90.418 Y-13.122
X-90.523 Y-13.23
X-90.606 Y-13.355
X-90.675 Y-13.488
X-90.716 Y-13.632
X-90.733 Y-13.781
X-90.725 Y-13.931
X-90.686 Y-14.076
X-90.558 Y-14.371
X-90.416 Y-14.997
X-90.491 Y-15.635
X-90.677 Y-16.249
X-90.915 Y-16.846
X-91.161 Y-17.439
X-91.354 Y-17.952
X-91.455 Y-18.304
X-91.507 Y-18.566
X-91.509 Y-18.581
X-91.507 Y-18.771
X-91.457 Y-18.954
X-91.362 Y-19.119
X-91.228 Y-19.254
X-90.222 Y-20.035
G3 X-89.81 Y-20 Z-1.319 I0.186 J0.257
G1 X-89.777 Y-19.966 Z-1.3
X-89.603 Y-19.789
X-83.419 Y-13.48
X-83.263 Y-13.322
X-83.246 Y-13.302
G3 X-83.286 Y-12.855 Z-1.5 I-0.244 J0.203
G1 X-84.224 Y-12.127
X-84.347 Y-12.041
X-84.477 Y-11.967
X-84.614 Y-11.906
X-84.767 Y-11.853
X-84.936 Y-11.809
X-85.143 Y-11.773
X-85.357 Y-11.754
X-85.621 Y-11.75
X-86.262 Y-11.794
X-86.904 Y-11.807
X-87.543 Y-11.741
X-88.179 Y-11.653
X-88.656 Y-11.611
X-89.032 Y-11.608
X-89.353 Y-11.632
X-89.621 Y-11.673
X-89.866 Y-11.732
X-90.089 Y-11.804
X-90.294 Y-11.889
X-90.476 Y-11.983
X-90.642 Y-12.086
X-90.797 Y-12.201
X-90.93 Y-12.316
X-91.051 Y-12.44
X-91.16 Y-12.571
X-91.253 Y-12.703
X-91.337 Y-12.844
X-91.403 Y-12.981
X-91.458 Y-13.121
X-91.501 Y-13.265
X-91.539 Y-13.442
X-91.623 Y-14.078
X-91.704 Y-14.716
X-91.843 Y-15.342
X-92.026 Y-15.958
X-92.228 Y-16.567
X-92.423 Y-17.179
X-92.515 Y-17.56
X-92.544 Y-17.746
X-92.549 Y-17.943
X-92.501 Y-18.134
X-92.405 Y-18.306
X-92.267 Y-18.446
X-91.228 Y-19.254
G3 X-90.817 Y-19.221 Z-1.32 I0.186 J0.257
G1 X-90.782 Y-19.185 Z-1.3
X-90.607 Y-19.009
X-84.358 Y-12.75
X-84.203 Y-12.595
X-84.183 Y-12.574
G3 X-84.224 Y-12.127 Z-1.5 I-0.244 J0.203
G1 X-85.163 Y-11.398
X-85.342 Y-11.272
X-85.501 Y-11.179
X-85.773 Y-11.048
X-86.218 Y-10.875
X-86.833 Y-10.692
X-87.461 Y-10.555
X-88.043 Y-10.472
X-88.534 Y-10.442
X-88.984 Y-10.451
X-89.391 Y-10.491
X-89.754 Y-10.557
X-90.091 Y-10.647
X-90.406 Y-10.758
X-90.695 Y-10.888
X-90.958 Y-11.032
X-91.197 Y-11.189
X-91.417 Y-11.36
X-91.616 Y-11.542
