(Stopfen)
(Bearbeiten)
(  Hersteller: ChinaCnc)
(  model: 3040T)
(  description: Generic 3-axis)
(T5  D=3.175 CR=0 - ZMIN=-30.2 - Schaftfraser)
G90 G94
G17
G21
G28 G91 Z0
G90

(2D-Kontur29)
T5
S6000 M3
G54
G0 X-153.929 Y-16.032
Z15
Z5
G1 Z-7.683 F333.3
X-153.927 Y-16.04 Z-7.753 F1000
X-153.922 Y-16.063 Z-7.82
X-153.913 Y-16.1 Z-7.88
X-153.902 Y-16.149 Z-7.931
X-153.889 Y-16.208 Z-7.969
X-153.874 Y-16.273 Z-7.992
X-153.859 Y-16.342 Z-8
X-153.789 Y-16.652
G3 X-153.409 Y-16.891 I0.31 J0.07
G1 X-150.856 Y-16.313
X-150.843 Y-16.31
X-148.287 Y-15.754
X-148.274 Y-15.751
X-145.715 Y-15.216
X-145.701 Y-15.214
X-143.138 Y-14.701
X-143.128 Y-14.699
X-141.359 Y-14.358
X-141.35 Y-14.356
X-139.579 Y-14.025
X-139.57 Y-14.023
X-137.797 Y-13.702
X-137.788 Y-13.701
X-136.014 Y-13.39
X-136.001 Y-13.388
X-132.448 Y-12.795
X-132.431 Y-12.792
X-128.871 Y-12.239
X-128.854 Y-12.236
X-125.289 Y-11.722
X-125.272 Y-11.719
X-121.7 Y-11.242
X-121.684 Y-11.24
X-118.106 Y-10.8
X-118.089 Y-10.798
X-114.505 Y-10.395
X-114.489 Y-10.393
X-110.899 Y-10.026
X-110.884 Y-10.025
X-107.287 Y-9.693
X-107.271 Y-9.692
X-103.668 Y-9.396
X-103.653 Y-9.395
X-100.044 Y-9.132
X-100.029 Y-9.131
X-96.413 Y-8.903
X-96.398 Y-8.902
X-92.776 Y-8.707
X-92.762
X-89.133 Y-8.544
X-89.119
X-85.484 Y-8.414
X-85.428 Y-8.413
X-57.391
X-57.34
X-54.377 Y-8.509
X-54.368
X-51.403 Y-8.622
X-51.394
X-48.427 Y-8.752
X-48.419
X-45.451 Y-8.898
X-45.442
X-42.474 Y-9.059
X-42.466 Y-9.06
X-39.497 Y-9.237
X-39.489
X-36.521 Y-9.429
X-36.513
X-33.545 Y-9.636
X-33.537 Y-9.637
X-30.571 Y-9.858
X-30.563
X-27.599 Y-10.093
X-27.591 Y-10.094
X-24.629 Y-10.342
X-24.622 Y-10.343
X-21.662 Y-10.605
X-21.655 Y-10.606
X-18.699 Y-10.881
X-18.692
X-15.739 Y-11.169
X-15.732
X-12.784 Y-11.469
X-12.777 Y-11.47
X-9.833 Y-11.781
G2 X-8.413 Y-13.36 I-0.167 J-1.579
G1 Y-18.219
G2 X-10 Y-19.807 I-1.587 J0
G1 X-13.84
Y-26.317
G2 X-15.428 Y-27.904 I-1.587 J0
G3 X-15.84 Y-28.317 I0 J-0.413
G1 Y-46.317
G2 X-17.428 Y-47.904 I-1.588 J0
G1 X-47.428
G2 X-49.015 Y-46.317 I0 J1.588
G1 Y-32.904
X-125.84
Y-46.317
G2 X-127.428 Y-47.904 I-1.588 J0
G1 X-145.058
G2 X-146.645 Y-46.317 I0 J1.588
G1 Y-28.317
G3 X-147.058 Y-27.904 I-0.413 J0
G2 X-148.645 Y-26.317 I0 J1.587
G1 Y-22.704
X-153.058
G2 X-154.645 Y-21.116 I0 J1.587
G1 Y-18.439
G2 X-153.409 Y-16.891 I1.587 J0
G3 X-153.169 Y-16.511 I-0.07 J0.31
G1 X-153.239 Y-16.202
X-153.255 Y-16.133 Z-7.992
X-153.27 Y-16.067 Z-7.969
X-153.283 Y-16.009 Z-7.931
X-153.294 Y-15.959 Z-7.88
X-153.303 Y-15.923 Z-7.82
X-153.308 Y-15.9 Z-7.753
X-153.309 Y-15.892 Z-7.683
G0 Z5
X-153.929 Y-16.032
G1 Z-3 F333.3
Z-15.683
X-153.927 Y-16.04 Z-15.753 F1000
X-153.922 Y-16.063 Z-15.82
X-153.913 Y-16.1 Z-15.88
X-153.902 Y-16.149 Z-15.931
X-153.889 Y-16.208 Z-15.969
X-153.874 Y-16.273 Z-15.992
X-153.859 Y-16.342 Z-16
X-153.789 Y-16.652
G3 X-153.409 Y-16.891 I0.31 J0.07
G1 X-150.856 Y-16.313
X-150.843 Y-16.31
X-148.287 Y-15.754
X-148.274 Y-15.751
X-145.715 Y-15.216
X-145.701 Y-15.214
X-143.138 Y-14.701
X-143.128 Y-14.699
X-141.359 Y-14.358
X-141.35 Y-14.356
X-139.579 Y-14.025
X-139.57 Y-14.023
X-137.797 Y-13.702
X-137.788 Y-13.701
X-136.014 Y-13.39
X-136.001 Y-13.388
X-132.448 Y-12.795
X-132.431 Y-12.792
X-128.871 Y-12.239
X-128.854 Y-12.236
X-125.289 Y-11.722
X-125.272 Y-11.719
X-121.7 Y-11.242
X-121.684 Y-11.24
X-118.106 Y-10.8
X-118.089 Y-10.798
X-114.505 Y-10.395
X-114.489 Y-10.393
X-110.899 Y-10.026
X-110.884 Y-10.025
X-107.287 Y-9.693
X-107.271 Y-9.692
X-103.668 Y-9.396
X-103.653 Y-9.395
X-100.044 Y-9.132
X-100.029 Y-9.131
X-96.413 Y-8.903
X-96.398 Y-8.902
X-92.776 Y-8.707
X-92.762
X-89.133 Y-8.544
X-89.119
X-85.484 Y-8.414
X-85.428 Y-8.413
X-57.391
X-57.34
X-54.377 Y-8.509
X-54.368
X-51.403 Y-8.622
X-51.394
X-48.427 Y-8.752
X-48.419
X-45.451 Y-8.898
X-45.442
X-42.474 Y-9.059
X-42.466 Y-9.06
X-39.497 Y-9.237
X-39.489
X-36.521 Y-9.429
X-36.513
X-33.545 Y-9.636
X-33.537 Y-9.637
X-30.571 Y-9.858
X-30.563
X-27.599 Y-10.093
X-27.591 Y-10.094
X-24.629 Y-10.342
X-24.622 Y-10.343
X-21.662 Y-10.605
X-21.655 Y-10.606
X-18.699 Y-10.881
X-18.692
X-15.739 Y-11.169
X-15.732
X-12.784 Y-11.469
X-12.777 Y-11.47
X-9.833 Y-11.781
G2 X-8.413 Y-13.36 I-0.167 J-1.579
G1 Y-18.219
G2 X-10 Y-19.807 I-1.587 J0
G1 X-13.84
Y-26.317
G2 X-15.428 Y-27.904 I-1.587 J0
G3 X-15.84 Y-28.317 I0 J-0.413
G1 Y-46.317
G2 X-17.428 Y-47.904 I-1.588 J0
G1 X-47.428
G2 X-49.015 Y-46.317 I0 J1.588
G1 Y-32.904
X-125.84
Y-46.317
G2 X-127.428 Y-47.904 I-1.588 J0
G1 X-145.058
G2 X-146.645 Y-46.317 I0 J1.588
G1 Y-28.317
G3 X-147.058 Y-27.904 I-0.413 J0
G2 X-148.645 Y-26.317 I0 J1.587
G1 Y-22.704
X-153.058
G2 X-154.645 Y-21.116 I0 J1.587
G1 Y-18.439
G2 X-153.409 Y-16.891 I1.587 J0
G3 X-153.169 Y-16.511 I-0.07 J0.31
G1 X-153.239 Y-16.202
X-153.255 Y-16.133 Z-15.992
X-153.27 Y-16.067 Z-15.969
X-153.283 Y-16.009 Z-15.931
X-153.294 Y-15.959 Z-15.88
X-153.303 Y-15.923 Z-15.82
X-153.308 Y-15.9 Z-15.753
X-153.309 Y-15.892 Z-15.683
G0 Z5
X-153.929 Y-16.032
G1 Z-11 F333.3
Z-23.683
X-153.927 Y-16.04 Z-23.753 F1000
X-153.922 Y-16.063 Z-23.82
X-153.913 Y-16.1 Z-23.88
X-153.902 Y-16.149 Z-23.931
X-153.889 Y-16.208 Z-23.969
X-153.874 Y-16.273 Z-23.992
X-153.859 Y-16.342 Z-24
X-153.789 Y-16.652
G3 X-153.409 Y-16.891 I0.31 J0.07
G1 X-150.856 Y-16.313
X-150.843 Y-16.31
X-148.287 Y-15.754
X-148.274 Y-15.751
X-145.715 Y-15.216
X-145.701 Y-15.214
X-143.138 Y-14.701
X-143.128 Y-14.699
X-141.359 Y-14.358
X-141.35 Y-14.356
X-139.579 Y-14.025
X-139.57 Y-14.023
X-137.797 Y-13.702
X-137.788 Y-13.701
X-136.014 Y-13.39
X-136.001 Y-13.388
X-132.448 Y-12.795
X-132.431 Y-12.792
X-128.871 Y-12.239
X-128.854 Y-12.236
X-125.289 Y-11.722
X-125.272 Y-11.719
X-121.7 Y-11.242
X-121.684 Y-11.24
X-118.106 Y-10.8
X-118.089 Y-10.798
X-114.505 Y-10.395
X-114.489 Y-10.393
X-110.899 Y-10.026
X-110.884 Y-10.025
X-107.287 Y-9.693
X-107.271 Y-9.692
X-103.668 Y-9.396
X-103.653 Y-9.395
X-100.044 Y-9.132
X-100.029 Y-9.131
X-96.413 Y-8.903
X-96.398 Y-8.902
X-92.776 Y-8.707
X-92.762
X-89.133 Y-8.544
X-89.119
X-85.484 Y-8.414
X-85.428 Y-8.413
X-57.391
X-57.34
X-54.377 Y-8.509
X-54.368
X-51.403 Y-8.622
X-51.394
X-48.427 Y-8.752
X-48.419
X-45.451 Y-8.898
X-45.442
X-42.474 Y-9.059
X-42.466 Y-9.06
X-39.497 Y-9.237
X-39.489
X-36.521 Y-9.429
X-36.513
X-33.545 Y-9.636
X-33.537 Y-9.637
X-30.571 Y-9.858
X-30.563
X-27.599 Y-10.093
X-27.591 Y-10.094
X-24.629 Y-10.342
X-24.622 Y-10.343
X-21.662 Y-10.605
X-21.655 Y-10.606
X-18.699 Y-10.881
X-18.692
X-15.739 Y-11.169
X-15.732
X-12.784 Y-11.469
X-12.777 Y-11.47
X-9.833 Y-11.781
G2 X-8.413 Y-13.36 I-0.167 J-1.579
G1 Y-18.219
G2 X-10 Y-19.807 I-1.587 J0
G1 X-13.84
Y-26.317
G2 X-15.428 Y-27.904 I-1.587 J0
G3 X-15.84 Y-28.317 I0 J-0.413
G1 Y-46.317
G2 X-17.428 Y-47.904 I-1.588 J0
G1 X-47.428
G2 X-49.015 Y-46.317 I0 J1.588
G1 Y-32.904
X-125.84
Y-46.317
G2 X-127.428 Y-47.904 I-1.588 J0
G1 X-145.058
G2 X-146.645 Y-46.317 I0 J1.588
G1 Y-28.317
G3 X-147.058 Y-27.904 I-0.413 J0
G2 X-148.645 Y-26.317 I0 J1.587
G1 Y-22.704
X-153.058
G2 X-154.645 Y-21.116 I0 J1.587
G1 Y-18.439
G2 X-153.409 Y-16.891 I1.587 J0
G3 X-153.169 Y-16.511 I-0.07 J0.31
G1 X-153.239 Y-16.202
X-153.255 Y-16.133 Z-23.992
X-153.27 Y-16.067 Z-23.969
X-153.283 Y-16.009 Z-23.931
X-153.294 Y-15.959 Z-23.88
X-153.303 Y-15.923 Z-23.82
X-153.308 Y-15.9 Z-23.753
X-153.309 Y-15.892 Z-23.683
G0 Z5
X-153.929 Y-16.032
G1 Z-19 F333.3
Z-29.883
X-153.927 Y-16.04 Z-29.953 F1000
X-153.922 Y-16.063 Z-30.02
X-153.913 Y-16.1 Z-30.08
X-153.902 Y-16.149 Z-30.131
X-153.889 Y-16.208 Z-30.169
X-153.874 Y-16.273 Z-30.192
X-153.859 Y-16.342 Z-30.2
X-153.789 Y-16.652
G3 X-153.409 Y-16.891 I0.31 J0.07
G1 X-150.856 Y-16.313
X-150.843 Y-16.31
X-148.287 Y-15.754
X-148.274 Y-15.751
X-145.715 Y-15.216
X-145.701 Y-15.214
X-143.138 Y-14.701
X-143.128 Y-14.699
X-141.359 Y-14.358
X-141.35 Y-14.356
X-139.579 Y-14.025
X-139.57 Y-14.023
X-137.797 Y-13.702
X-137.788 Y-13.701
X-136.014 Y-13.39
X-136.001 Y-13.388
X-132.448 Y-12.795
X-132.431 Y-12.792
X-128.871 Y-12.239
X-128.854 Y-12.236
X-125.998 Y-11.824
Z-29.2
X-125.289 Y-11.722
X-125.272 Y-11.719
X-121.7 Y-11.242
X-121.684 Y-11.24
X-118.106 Y-10.8
X-118.089 Y-10.798
X-114.505 Y-10.395
X-114.489 Y-10.393
X-110.899 Y-10.026
X-110.884 Y-10.025
X-107.287 Y-9.693
X-107.271 Y-9.692
X-103.668 Y-9.396
X-103.653 Y-9.395
X-102.956 Y-9.344
Z-30.2 F333.3
X-100.044 Y-9.132 F1000
X-100.029 Y-9.131
X-96.413 Y-8.903
X-96.398 Y-8.902
X-92.776 Y-8.707
X-92.762
X-89.133 Y-8.544
X-89.119
X-85.484 Y-8.414
X-85.428 Y-8.413
X-57.391
X-57.34
X-54.377 Y-8.509
X-54.368
X-51.403 Y-8.622
X-51.394
X-48.427 Y-8.752
X-48.419
X-45.451 Y-8.898
X-45.442
X-42.474 Y-9.059
X-42.466 Y-9.06
X-39.497 Y-9.237
X-39.489
X-36.521 Y-9.429
X-36.513
X-33.545 Y-9.636
X-33.537 Y-9.637
X-30.571 Y-9.858
X-30.563
X-27.599 Y-10.093
X-27.591 Y-10.094
X-24.629 Y-10.342
X-24.622 Y-10.343
X-21.662 Y-10.605
X-21.655 Y-10.606
X-18.699 Y-10.881
X-18.692
X-15.739 Y-11.169
X-15.732
X-12.784 Y-11.469
X-12.777 Y-11.47
X-9.833 Y-11.781
G2 X-8.413 Y-13.36 I-0.167 J-1.579
G1 Y-18.219
G2 X-10 Y-19.807 I-1.587 J0
G1 X-13.84
Y-26.317
G2 X-15.428 Y-27.904 I-1.587 J0
G3 X-15.84 Y-28.317 I0 J-0.413
G1 Y-46.317
G2 X-17.428 Y-47.904 I-1.588 J0
G1 X-47.428
G2 X-49.015 Y-46.317 I0 J1.588
G1 Y-32.904
X-75.84
Z-29.2
X-99.015
Z-30.2 F333.3
X-125.84 F1000
Y-46.317
G2 X-127.428 Y-47.904 I-1.588 J0
G1 X-145.058
G2 X-146.645 Y-46.317 I0 J1.588
G1 Y-28.317
G3 X-147.058 Y-27.904 I-0.413 J0
G2 X-148.645 Y-26.317 I0 J1.587
G1 Y-22.704
X-153.058
G2 X-154.645 Y-21.116 I0 J1.587
G1 Y-18.439
G2 X-153.409 Y-16.891 I1.587 J0
G3 X-153.169 Y-16.511 I-0.07 J0.31
G1 X-153.239 Y-16.202
X-153.255 Y-16.133 Z-30.192
X-153.27 Y-16.067 Z-30.169
X-153.283 Y-16.009 Z-30.131
X-153.294 Y-15.959 Z-30.08
X-153.303 Y-15.923 Z-30.02
X-153.308 Y-15.9 Z-29.953
X-153.309 Y-15.892 Z-29.883
G0 Z15

(2D-Kontur29)
X-153.929 Y-76.032
Z15
Z5
G1 Z-7.683 F333.3
X-153.927 Y-76.04 Z-7.753 F1000
X-153.922 Y-76.063 Z-7.82
X-153.913 Y-76.1 Z-7.88
X-153.902 Y-76.149 Z-7.931
X-153.889 Y-76.208 Z-7.969
X-153.874 Y-76.273 Z-7.992
X-153.859 Y-76.342 Z-8
X-153.789 Y-76.652
G3 X-153.409 Y-76.891 I0.31 J0.07
G1 X-150.856 Y-76.313
X-150.843 Y-76.31
X-148.287 Y-75.754
X-148.274 Y-75.751
X-145.715 Y-75.216
X-145.701 Y-75.214
X-143.138 Y-74.701
X-143.128 Y-74.699
X-141.359 Y-74.358
X-141.35 Y-74.356
X-139.579 Y-74.025
X-139.57 Y-74.023
X-137.797 Y-73.702
X-137.788 Y-73.701
X-136.014 Y-73.39
X-136.001 Y-73.388
X-132.448 Y-72.795
X-132.431 Y-72.792
X-128.871 Y-72.239
X-128.854 Y-72.236
X-125.289 Y-71.722
X-125.272 Y-71.719
X-121.7 Y-71.242
X-121.684 Y-71.24
X-118.106 Y-70.8
X-118.089 Y-70.798
X-114.505 Y-70.395
X-114.489 Y-70.393
X-110.899 Y-70.026
X-110.884 Y-70.025
X-107.287 Y-69.693
X-107.271 Y-69.692
X-103.668 Y-69.396
X-103.653 Y-69.395
X-100.044 Y-69.132
X-100.029 Y-69.131
X-96.413 Y-68.903
X-96.398 Y-68.902
X-92.776 Y-68.707
X-92.762
X-89.133 Y-68.544
X-89.119
X-85.484 Y-68.414
X-85.428 Y-68.413
X-57.391
X-57.34
X-54.377 Y-68.509
X-54.368
X-51.403 Y-68.622
X-51.394
X-48.427 Y-68.752
X-48.419
X-45.451 Y-68.898
X-45.442
X-42.474 Y-69.059
X-42.466 Y-69.06
X-39.497 Y-69.237
X-39.489
X-36.521 Y-69.429
X-36.513
X-33.545 Y-69.636
X-33.537 Y-69.637
X-30.571 Y-69.858
X-30.563
X-27.599 Y-70.093
X-27.591 Y-70.094
X-24.629 Y-70.342
X-24.622 Y-70.343
X-21.662 Y-70.605
X-21.655 Y-70.606
X-18.699 Y-70.881
X-18.692
X-15.739 Y-71.169
X-15.732
X-12.784 Y-71.469
X-12.777 Y-71.47
X-9.833 Y-71.781
G2 X-8.413 Y-73.36 I-0.167 J-1.579
G1 Y-78.219
G2 X-10 Y-79.807 I-1.587 J0
G1 X-13.84
Y-86.317
G2 X-15.428 Y-87.904 I-1.587 J0
G3 X-15.84 Y-88.317 I0 J-0.413
G1 Y-106.317
G2 X-17.428 Y-107.904 I-1.588 J0
G1 X-47.428
G2 X-49.015 Y-106.317 I0 J1.588
G1 Y-92.904
X-125.84
Y-106.317
G2 X-127.428 Y-107.904 I-1.588 J0
G1 X-145.058
G2 X-146.645 Y-106.317 I0 J1.588
G1 Y-88.317
G3 X-147.058 Y-87.904 I-0.413 J0
G2 X-148.645 Y-86.317 I0 J1.587
G1 Y-82.704
X-153.058
G2 X-154.645 Y-81.116 I0 J1.587
G1 Y-78.439
G2 X-153.409 Y-76.891 I1.587 J0
G3 X-153.169 Y-76.511 I-0.07 J0.31
G1 X-153.239 Y-76.202
X-153.255 Y-76.133 Z-7.992
X-153.27 Y-76.067 Z-7.969
X-153.283 Y-76.009 Z-7.931
X-153.294 Y-75.959 Z-7.88
X-153.303 Y-75.923 Z-7.82
X-153.308 Y-75.9 Z-7.753
X-153.309 Y-75.892 Z-7.683
G0 Z5
X-153.929 Y-76.032
G1 Z-3 F333.3
Z-15.683
X-153.927 Y-76.04 Z-15.753 F1000
X-153.922 Y-76.063 Z-15.82
X-153.913 Y-76.1 Z-15.88
X-153.902 Y-76.149 Z-15.931
X-153.889 Y-76.208 Z-15.969
X-153.874 Y-76.273 Z-15.992
X-153.859 Y-76.342 Z-16
X-153.789 Y-76.652
G3 X-153.409 Y-76.891 I0.31 J0.07
G1 X-150.856 Y-76.313
X-150.843 Y-76.31
X-148.287 Y-75.754
X-148.274 Y-75.751
X-145.715 Y-75.216
X-145.701 Y-75.214
X-143.138 Y-74.701
X-143.128 Y-74.699
X-141.359 Y-74.358
X-141.35 Y-74.356
X-139.579 Y-74.025
X-139.57 Y-74.023
X-137.797 Y-73.702
X-137.788 Y-73.701
X-136.014 Y-73.39
X-136.001 Y-73.388
X-132.448 Y-72.795
X-132.431 Y-72.792
X-128.871 Y-72.239
X-128.854 Y-72.236
X-125.289 Y-71.722
X-125.272 Y-71.719
X-121.7 Y-71.242
X-121.684 Y-71.24
X-118.106 Y-70.8
X-118.089 Y-70.798
X-114.505 Y-70.395
X-114.489 Y-70.393
X-110.899 Y-70.026
X-110.884 Y-70.025
X-107.287 Y-69.693
X-107.271 Y-69.692
X-103.668 Y-69.396
X-103.653 Y-69.395
X-100.044 Y-69.132
X-100.029 Y-69.131
X-96.413 Y-68.903
X-96.398 Y-68.902
X-92.776 Y-68.707
X-92.762
X-89.133 Y-68.544
X-89.119
X-85.484 Y-68.414
X-85.428 Y-68.413
X-57.391
X-57.34
X-54.377 Y-68.509
X-54.368
X-51.403 Y-68.622
X-51.394
X-48.427 Y-68.752
X-48.419
X-45.451 Y-68.898
X-45.442
X-42.474 Y-69.059
X-42.466 Y-69.06
X-39.497 Y-69.237
X-39.489
X-36.521 Y-69.429
X-36.513
X-33.545 Y-69.636
X-33.537 Y-69.637
X-30.571 Y-69.858
X-30.563
X-27.599 Y-70.093
X-27.591 Y-70.094
X-24.629 Y-70.342
X-24.622 Y-70.343
X-21.662 Y-70.605
X-21.655 Y-70.606
X-18.699 Y-70.881
X-18.692
X-15.739 Y-71.169
X-15.732
X-12.784 Y-71.469
X-12.777 Y-71.47
X-9.833 Y-71.781
G2 X-8.413 Y-73.36 I-0.167 J-1.579
G1 Y-78.219
G2 X-10 Y-79.807 I-1.587 J0
G1 X-13.84
Y-86.317
G2 X-15.428 Y-87.904 I-1.587 J0
G3 X-15.84 Y-88.317 I0 J-0.413
G1 Y-106.317
G2 X-17.428 Y-107.904 I-1.588 J0
G1 X-47.428
G2 X-49.015 Y-106.317 I0 J1.588
G1 Y-92.904
X-125.84
Y-106.317
G2 X-127.428 Y-107.904 I-1.588 J0
G1 X-145.058
G2 X-146.645 Y-106.317 I0 J1.588
G1 Y-88.317
G3 X-147.058 Y-87.904 I-0.413 J0
G2 X-148.645 Y-86.317 I0 J1.587
G1 Y-82.704
X-153.058
G2 X-154.645 Y-81.116 I0 J1.587
G1 Y-78.439
G2 X-153.409 Y-76.891 I1.587 J0
G3 X-153.169 Y-76.511 I-0.07 J0.31
G1 X-153.239 Y-76.202
X-153.255 Y-76.133 Z-15.992
X-153.27 Y-76.067 Z-15.969
X-153.283 Y-76.009 Z-15.931
X-153.294 Y-75.959 Z-15.88
X-153.303 Y-75.923 Z-15.82
X-153.308 Y-75.9 Z-15.753
X-153.309 Y-75.892 Z-15.683
G0 Z5
X-153.929 Y-76.032
G1 Z-11 F333.3
Z-23.683
X-153.927 Y-76.04 Z-23.753 F1000
X-153.922 Y-76.063 Z-23.82
X-153.913 Y-76.1 Z-23.88
X-153.902 Y-76.149 Z-23.931
X-153.889 Y-76.208 Z-23.969
X-153.874 Y-76.273 Z-23.992
X-153.859 Y-76.342 Z-24
X-153.789 Y-76.652
G3 X-153.409 Y-76.891 I0.31 J0.07
G1 X-150.856 Y-76.313
X-150.843 Y-76.31
X-148.287 Y-75.754
X-148.274 Y-75.751
X-145.715 Y-75.216
X-145.701 Y-75.214
X-143.138 Y-74.701
X-143.128 Y-74.699
X-141.359 Y-74.358
X-141.35 Y-74.356
X-139.579 Y-74.025
X-139.57 Y-74.023
X-137.797 Y-73.702
X-137.788 Y-73.701
X-136.014 Y-73.39
X-136.001 Y-73.388
X-132.448 Y-72.795
X-132.431 Y-72.792
X-128.871 Y-72.239
X-128.854 Y-72.236
X-125.289 Y-71.722
X-125.272 Y-71.719
X-121.7 Y-71.242
X-121.684 Y-71.24
X-118.106 Y-70.8
X-118.089 Y-70.798
X-114.505 Y-70.395
X-114.489 Y-70.393
X-110.899 Y-70.026
X-110.884 Y-70.025
X-107.287 Y-69.693
X-107.271 Y-69.692
X-103.668 Y-69.396
X-103.653 Y-69.395
X-100.044 Y-69.132
X-100.029 Y-69.131
X-96.413 Y-68.903
X-96.398 Y-68.902
X-92.776 Y-68.707
X-92.762
X-89.133 Y-68.544
X-89.119
X-85.484 Y-68.414
X-85.428 Y-68.413
X-57.391
X-57.34
X-54.377 Y-68.509
X-54.368
X-51.403 Y-68.622
X-51.394
X-48.427 Y-68.752
X-48.419
X-45.451 Y-68.898
X-45.442
X-42.474 Y-69.059
X-42.466 Y-69.06
X-39.497 Y-69.237
X-39.489
X-36.521 Y-69.429
X-36.513
X-33.545 Y-69.636
X-33.537 Y-69.637
X-30.571 Y-69.858
X-30.563
X-27.599 Y-70.093
X-27.591 Y-70.094
X-24.629 Y-70.342
X-24.622 Y-70.343
X-21.662 Y-70.605
X-21.655 Y-70.606
X-18.699 Y-70.881
X-18.692
X-15.739 Y-71.169
X-15.732
X-12.784 Y-71.469
X-12.777 Y-71.47
X-9.833 Y-71.781
G2 X-8.413 Y-73.36 I-0.167 J-1.579
G1 Y-78.219
G2 X-10 Y-79.807 I-1.587 J0
G1 X-13.84
Y-86.317
G2 X-15.428 Y-87.904 I-1.587 J0
G3 X-15.84 Y-88.317 I0 J-0.413
G1 Y-106.317
G2 X-17.428 Y-107.904 I-1.588 J0
G1 X-47.428
G2 X-49.015 Y-106.317 I0 J1.588
G1 Y-92.904
X-125.84
Y-106.317
G2 X-127.428 Y-107.904 I-1.588 J0
G1 X-145.058
G2 X-146.645 Y-106.317 I0 J1.588
G1 Y-88.317
G3 X-147.058 Y-87.904 I-0.413 J0
G2 X-148.645 Y-86.317 I0 J1.587
G1 Y-82.704
X-153.058
G2 X-154.645 Y-81.116 I0 J1.587
G1 Y-78.439
G2 X-153.409 Y-76.891 I1.587 J0
G3 X-153.169 Y-76.511 I-0.07 J0.31
G1 X-153.239 Y-76.202
X-153.255 Y-76.133 Z-23.992
X-153.27 Y-76.067 Z-23.969
X-153.283 Y-76.009 Z-23.931
X-153.294 Y-75.959 Z-23.88
X-153.303 Y-75.923 Z-23.82
X-153.308 Y-75.9 Z-23.753
X-153.309 Y-75.892 Z-23.683
G0 Z5
X-153.929 Y-76.032
G1 Z-19 F333.3
Z-29.883
X-153.927 Y-76.04 Z-29.953 F1000
X-153.922 Y-76.063 Z-30.02
X-153.913 Y-76.1 Z-30.08
X-153.902 Y-76.149 Z-30.131
X-153.889 Y-76.208 Z-30.169
X-153.874 Y-76.273 Z-30.192
X-153.859 Y-76.342 Z-30.2
X-153.789 Y-76.652
G3 X-153.409 Y-76.891 I0.31 J0.07
G1 X-150.856 Y-76.313
X-150.843 Y-76.31
X-148.287 Y-75.754
X-148.274 Y-75.751
X-145.715 Y-75.216
X-145.701 Y-75.214
X-143.138 Y-74.701
X-143.128 Y-74.699
X-141.359 Y-74.358
X-141.35 Y-74.356
X-139.579 Y-74.025
X-139.57 Y-74.023
X-137.797 Y-73.702
X-137.788 Y-73.701
X-136.014 Y-73.39
X-136.001 Y-73.388
X-132.448 Y-72.795
X-132.431 Y-72.792
X-128.871 Y-72.239
X-128.854 Y-72.236
X-125.998 Y-71.824
Z-29.2
X-125.289 Y-71.722
X-125.272 Y-71.719
X-121.7 Y-71.242
X-121.684 Y-71.24
X-118.106 Y-70.8
X-118.089 Y-70.798
X-114.505 Y-70.395
X-114.489 Y-70.393
X-110.899 Y-70.026
X-110.884 Y-70.025
X-107.287 Y-69.693
X-107.271 Y-69.692
X-103.668 Y-69.396
X-103.653 Y-69.395
X-102.956 Y-69.344
Z-30.2 F333.3
X-100.044 Y-69.132 F1000
X-100.029 Y-69.131
X-96.413 Y-68.903
X-96.398 Y-68.902
X-92.776 Y-68.707
X-92.762
X-89.133 Y-68.544
X-89.119
X-85.484 Y-68.414
X-85.428 Y-68.413
X-57.391
X-57.34
X-54.377 Y-68.509
X-54.368
X-51.403 Y-68.622
X-51.394
X-48.427 Y-68.752
X-48.419
X-45.451 Y-68.898
X-45.442
X-42.474 Y-69.059
X-42.466 Y-69.06
X-39.497 Y-69.237
X-39.489
X-36.521 Y-69.429
X-36.513
X-33.545 Y-69.636
X-33.537 Y-69.637
X-30.571 Y-69.858
X-30.563
X-27.599 Y-70.093
X-27.591 Y-70.094
X-24.629 Y-70.342
X-24.622 Y-70.343
X-21.662 Y-70.605
X-21.655 Y-70.606
X-18.699 Y-70.881
X-18.692
X-15.739 Y-71.169
X-15.732
X-12.784 Y-71.469
X-12.777 Y-71.47
X-9.833 Y-71.781
G2 X-8.413 Y-73.36 I-0.167 J-1.579
G1 Y-78.219
G2 X-10 Y-79.807 I-1.587 J0
G1 X-13.84
Y-86.317
G2 X-15.428 Y-87.904 I-1.587 J0
G3 X-15.84 Y-88.317 I0 J-0.413
G1 Y-106.317
G2 X-17.428 Y-107.904 I-1.588 J0
G1 X-47.428
G2 X-49.015 Y-106.317 I0 J1.588
G1 Y-92.904
X-75.84
Z-29.2
X-99.015
Z-30.2 F333.3
X-125.84 F1000
Y-106.317
G2 X-127.428 Y-107.904 I-1.588 J0
G1 X-145.058
G2 X-146.645 Y-106.317 I0 J1.588
G1 Y-88.317
G3 X-147.058 Y-87.904 I-0.413 J0
G2 X-148.645 Y-86.317 I0 J1.587
G1 Y-82.704
X-153.058
G2 X-154.645 Y-81.116 I0 J1.587
G1 Y-78.439
G2 X-153.409 Y-76.891 I1.587 J0
G3 X-153.169 Y-76.511 I-0.07 J0.31
G1 X-153.239 Y-76.202
X-153.255 Y-76.133 Z-30.192
X-153.27 Y-76.067 Z-30.169
X-153.283 Y-76.009 Z-30.131
X-153.294 Y-75.959 Z-30.08
X-153.303 Y-75.923 Z-30.02
X-153.308 Y-75.9 Z-29.953
X-153.309 Y-75.892 Z-29.883
G0 Z15
G28 G91 Z0
G90
G28 G91 X0 Y0
G90
M5
M30
