(1001)
(Bearbeiten)
(  Hersteller: ChinaCnc)
(  model: 3040T)
(  description: Generic 3-axis)
(T16  D=6 CR=0 - ZMIN=-30.2 - Schaftfraser)
G90 G94
G17
G21
(When using Fusion 360 for Personal Use, the feedrate of)
(rapid moves is reduced to match the feedrate of cutting)
(moves, which can increase machining time. Unrestricted rapid)
(moves are available with a Fusion 360 Subscription.)
G28 G91 Z0
G90

(2D-Kontur29)
T16
S4000 M3
G54
G0 X-36.047 Y-8.046
Z5
G1 Z2 F1000
Z1 F333.3
X-33.447 Y-8.227 Z0.909
X-33.432 Y-8.228 Z0.908
X-30.466 Y-8.449 Z0.805
X-30.452 Y-8.45 Z0.804
X-27.487 Y-8.685 Z0.7
X-27.473 Y-8.686
X-24.511 Y-8.935 Z0.596
X-24.497 Y-8.936 Z0.595
X-21.538 Y-9.198 Z0.492
X-21.524 Y-9.199 Z0.491
X-18.568 Y-9.474 Z0.388
X-18.555 Y-9.475 Z0.387
X-15.602 Y-9.763 Z0.283
X-15.589 Y-9.764
X-12.641 Y-10.064 Z0.18
X-12.628 Y-10.065 Z0.179
X-9.684 Y-10.376 Z0.076
G2 X-7 Y-13.36 Z-0.078 I-0.316 J-2.983
G1 Y-18.219 Z-0.247
G2 X-10 Y-21.219 Z-0.412 I-3 J0
G1 X-12.428 Z-0.497
Y-26.317 Z-0.675
G2 X-14.428 Y-29.145 Z-0.804 I-3 J0
G1 Y-46.317 Z-1.403
G2 X-17.428 Y-49.317 Z-1.568 I-3 J0
G1 X-47.428 Z-2.616
G2 X-50.428 Y-46.317 Z-2.78 I0 J3
G1 Y-34.317 Z-3.199
X-124.428 Z-5.783
Y-46.317 Z-6.202
G2 X-127.428 Y-49.317 Z-6.367 I-3 J0
G1 X-145.058 Z-6.983
G2 X-148.058 Y-46.317 Z-7.147 I0 J3
G1 Y-29.145 Z-7.747
G2 X-150.058 Y-26.317 Z-7.876 I1 J2.828
G1 Y-24.116 Z-7.953
X-153.058 Z-8.057
G2 X-156.058 Y-21.116 Z-8.222 I0 J3
G1 Y-18.439 Z-8.315
G2 X-153.721 Y-15.513 Z-8.457 I3 J0
G1 X-151.168 Y-14.935 Z-8.548
X-151.143 Y-14.93 Z-8.549
X-148.587 Y-14.373 Z-8.64
X-148.562 Y-14.368 Z-8.641
X-146.003 Y-13.834 Z-8.733
X-145.978 Y-13.829
X-143.415 Y-13.316 Z-8.825
X-143.395 Y-13.312
X-141.626 Y-12.971 Z-8.888
X-141.609 Y-12.968 Z-8.889
X-139.838 Y-12.637 Z-8.952
X-139.821 Y-12.633
X-138.048 Y-12.312 Z-9.015
X-138.032 Y-12.31 Z-9.016
X-136.258 Y-11.999 Z-9.079
X-136.233 Y-11.994 Z-9.08
X-132.68 Y-11.402 Z-9.205
X-132.648 Y-11.397 Z-9.207
X-129.088 Y-10.843 Z-9.332
X-129.056 Y-10.838 Z-9.334
X-125.491 Y-10.324 Z-9.459
X-125.459 Y-10.319 Z-9.46
X-121.887 Y-9.842 Z-9.586
X-121.856 Y-9.838 Z-9.587
X-118.278 Y-9.398 Z-9.713
X-118.247 Y-9.395 Z-9.714
X-114.663 Y-8.991 Z-9.84
X-114.633 Y-8.988 Z-9.841
X-111.043 Y-8.621 Z-9.967
X-111.013 Y-8.618 Z-9.968
X-107.416 Y-8.287 Z-10.095
X-107.387 Y-8.284 Z-10.096
X-103.784 Y-7.988 Z-10.222
X-103.755 Y-7.986 Z-10.223
X-100.146 Y-7.724 Z-10.349
X-100.118 Y-7.722 Z-10.35
X-96.502 Y-7.494 Z-10.477
X-96.474 Y-7.492 Z-10.478
X-92.852 Y-7.297 Z-10.604
X-92.825 Y-7.296 Z-10.605
X-89.196 Y-7.133 Z-10.732
X-89.17 Y-7.132 Z-10.733
X-85.535 Y-7.002 Z-10.86
X-85.428 Y-7 Z-10.864
X-81.529 Z-11
X-57.391 F1000
X-57.294 Y-7.002
X-54.331 Y-7.097
X-54.314 Y-7.098
X-51.349 Y-7.211
X-51.332
X-48.366 Y-7.341
X-48.35
X-45.382 Y-7.487
X-45.366 Y-7.488
X-42.397 Y-7.649
X-42.382 Y-7.65
X-39.413 Y-7.827
X-39.398
X-36.429 Y-8.019
X-36.415 Y-8.02
X-33.447 Y-8.227
X-33.432 Y-8.228
X-30.466 Y-8.449
X-30.452 Y-8.45
X-27.487 Y-8.685
X-27.473 Y-8.686
X-24.511 Y-8.935
X-24.497 Y-8.936
X-21.538 Y-9.198
X-21.524 Y-9.199
X-18.568 Y-9.474
X-18.555 Y-9.475
X-15.602 Y-9.763
X-15.589 Y-9.764
X-12.641 Y-10.064
X-12.628 Y-10.065
X-9.684 Y-10.376
G2 X-7 Y-13.36 I-0.316 J-2.983
G1 Y-18.219
G2 X-10 Y-21.219 I-3 J0
G1 X-12.428
Y-26.317
G2 X-14.428 Y-29.145 I-3 J0
G1 Y-46.317
G2 X-17.428 Y-49.317 I-3 J0
G1 X-47.428
G2 X-50.428 Y-46.317 I0 J3
G1 Y-34.317
X-124.428
Y-46.317
G2 X-127.428 Y-49.317 I-3 J0
G1 X-145.058
G2 X-148.058 Y-46.317 I0 J3
G1 Y-29.145
G2 X-150.058 Y-26.317 I1 J2.828
G1 Y-24.116
X-153.058
G2 X-156.058 Y-21.116 I0 J3
G1 Y-18.439
G2 X-153.721 Y-15.513 I3 J0
G1 X-151.168 Y-14.935
X-151.143 Y-14.93
X-148.587 Y-14.373
X-148.562 Y-14.368
X-146.003 Y-13.834
X-145.978 Y-13.829
X-143.415 Y-13.316
X-143.395 Y-13.312
X-141.626 Y-12.971
X-141.609 Y-12.968
X-139.838 Y-12.637
X-139.821 Y-12.633
X-138.048 Y-12.312
X-138.032 Y-12.31
X-136.258 Y-11.999
X-136.233 Y-11.994
X-132.68 Y-11.402
X-132.648 Y-11.397
X-129.088 Y-10.843
X-129.056 Y-10.838
X-125.491 Y-10.324
X-125.459 Y-10.319
X-121.887 Y-9.842
X-121.856 Y-9.838
X-118.278 Y-9.398
X-118.247 Y-9.395
X-114.663 Y-8.991
X-114.633 Y-8.988
X-111.043 Y-8.621
X-111.013 Y-8.618
X-107.416 Y-8.287
X-107.387 Y-8.284
X-103.784 Y-7.988
X-103.755 Y-7.986
X-100.146 Y-7.724
X-100.118 Y-7.722
X-96.502 Y-7.494
X-96.474 Y-7.492
X-92.852 Y-7.297
X-92.825 Y-7.296
X-89.196 Y-7.133
X-89.17 Y-7.132
X-85.535 Y-7.002
X-85.428 Y-7
X-81.529
X-57.391 Z-11.806 F333.3
X-57.294 Y-7.002 Z-11.81
X-54.331 Y-7.097 Z-11.909
X-54.314 Y-7.098
X-51.349 Y-7.211 Z-12.008
X-51.332 Z-12.009
X-48.366 Y-7.341 Z-12.108
X-48.35 Z-12.109
X-45.382 Y-7.487 Z-12.208
X-45.366 Y-7.488
X-42.397 Y-7.649 Z-12.308
X-42.382 Y-7.65
X-39.413 Y-7.827 Z-12.408
X-39.398
X-36.429 Y-8.019 Z-12.507
X-36.415 Y-8.02 Z-12.508
X-33.447 Y-8.227 Z-12.607
X-33.432 Y-8.228 Z-12.608
X-30.466 Y-8.449 Z-12.707
X-30.452 Y-8.45 Z-12.708
X-27.487 Y-8.685 Z-12.807
X-27.473 Y-8.686 Z-12.808
X-24.511 Y-8.935 Z-12.907
X-24.497 Y-8.936
X-21.538 Y-9.198 Z-13.007
X-21.524 Y-9.199
X-18.568 Y-9.474 Z-13.106
X-18.555 Y-9.475 Z-13.107
X-15.602 Y-9.763 Z-13.206
X-15.589 Y-9.764
X-12.641 Y-10.064 Z-13.305
X-12.628 Y-10.065 Z-13.306
X-9.684 Y-10.376 Z-13.404
G2 X-7 Y-13.36 Z-13.551 I-0.316 J-2.983
G1 Y-18.219 Z-13.714
G2 X-10 Y-21.219 Z-13.871 I-3 J0
G1 X-12.428 Z-13.952
Y-26.317 Z-14.123
G2 X-14.428 Y-29.145 Z-14.246 I-3 J0
G1 Y-46.317 Z-14.82
G2 X-17.428 Y-49.317 Z-14.977 I-3 J0
G1 X-47.428 Z-15.979
G2 X-50.428 Y-46.317 Z-16.137 I0 J3
G1 Y-34.317 Z-16.537
X-124.428 Z-19.01
Y-46.317 Z-19.41
G2 X-127.428 Y-49.317 Z-19.568 I-3 J0
G1 X-145.058 Z-20.157
G2 X-148.058 Y-46.317 Z-20.314 I0 J3
G1 Y-29.145 Z-20.888
G2 X-150.058 Y-26.317 Z-21.011 I1 J2.828
G1 Y-24.116 Z-21.085
X-153.058 Z-21.185
G2 X-156.058 Y-21.116 Z-21.342 I0 J3
G1 Y-18.439 Z-21.432
G2 X-153.721 Y-15.513 Z-21.567 I3 J0
G1 X-151.168 Y-14.935 Z-21.654
X-151.143 Y-14.93 Z-21.655
X-148.587 Y-14.373 Z-21.743
X-148.562 Y-14.368
X-146.003 Y-13.834 Z-21.831
X-145.978 Y-13.829 Z-21.832
X-143.415 Y-13.316 Z-21.919
X-143.395 Y-13.312 Z-21.92
X-141.626 Y-12.971 Z-21.98
X-141.609 Y-12.968
X-141.033 Y-12.86 Z-22
X-139.838 Y-12.637 F1000
X-139.821 Y-12.633
X-138.048 Y-12.312
X-138.032 Y-12.31
X-136.258 Y-11.999
X-136.233 Y-11.994
X-132.68 Y-11.402
X-132.648 Y-11.397
X-129.088 Y-10.843
X-129.056 Y-10.838
X-125.491 Y-10.324
X-125.459 Y-10.319
X-121.887 Y-9.842
X-121.856 Y-9.838
X-118.278 Y-9.398
X-118.247 Y-9.395
X-114.663 Y-8.991
X-114.633 Y-8.988
X-111.043 Y-8.621
X-111.013 Y-8.618
X-107.416 Y-8.287
X-107.387 Y-8.284
X-103.784 Y-7.988
X-103.755 Y-7.986
X-100.146 Y-7.724
X-100.118 Y-7.722
X-96.502 Y-7.494
X-96.474 Y-7.492
X-92.852 Y-7.297
X-92.825 Y-7.296
X-89.196 Y-7.133
X-89.17 Y-7.132
X-85.535 Y-7.002
X-85.428 Y-7
X-57.391
X-57.294 Y-7.002
X-54.331 Y-7.097
X-54.314 Y-7.098
X-51.349 Y-7.211
X-51.332
X-48.366 Y-7.341
X-48.35
X-45.382 Y-7.487
X-45.366 Y-7.488
X-42.397 Y-7.649
X-42.382 Y-7.65
X-39.413 Y-7.827
X-39.398
X-36.429 Y-8.019
X-36.415 Y-8.02
X-33.447 Y-8.227
X-33.432 Y-8.228
X-30.466 Y-8.449
X-30.452 Y-8.45
X-27.487 Y-8.685
X-27.473 Y-8.686
X-24.511 Y-8.935
X-24.497 Y-8.936
X-21.538 Y-9.198
X-21.524 Y-9.199
X-18.568 Y-9.474
X-18.555 Y-9.475
X-15.602 Y-9.763
X-15.589 Y-9.764
X-12.641 Y-10.064
X-12.628 Y-10.065
X-9.684 Y-10.376
G2 X-7 Y-13.36 I-0.316 J-2.983
G1 Y-18.219
G2 X-10 Y-21.219 I-3 J0
G1 X-12.428
Y-26.317
G2 X-14.428 Y-29.145 I-3 J0
G1 Y-46.317
G2 X-17.428 Y-49.317 I-3 J0
G1 X-47.428
G2 X-50.428 Y-46.317 I0 J3
G1 Y-34.317
X-124.428
Y-46.317
G2 X-127.428 Y-49.317 I-3 J0
G1 X-145.058
G2 X-148.058 Y-46.317 I0 J3
G1 Y-29.145
G2 X-150.058 Y-26.317 I1 J2.828
G1 Y-24.116
X-153.058
G2 X-156.058 Y-21.116 I0 J3
G1 Y-18.439
G2 X-153.721 Y-15.513 I3 J0
G1 X-151.168 Y-14.935
X-151.143 Y-14.93
X-148.587 Y-14.373
X-148.562 Y-14.368
X-146.003 Y-13.834
X-145.978 Y-13.829
X-143.415 Y-13.316
X-143.395 Y-13.312
X-141.626 Y-12.971
X-141.609 Y-12.968
X-141.033 Y-12.86
X-139.838 Y-12.637 Z-22.041 F333.3
X-139.821 Y-12.633
X-138.048 Y-12.312 Z-22.101
X-138.032 Y-12.31 Z-22.102
X-136.258 Y-11.999 Z-22.162
X-136.233 Y-11.994 Z-22.163
X-132.68 Y-11.402 Z-22.283
X-132.648 Y-11.397 Z-22.284
X-129.088 Y-10.843 Z-22.405
X-129.056 Y-10.838 Z-22.406
X-125.491 Y-10.324 Z-22.526
X-125.459 Y-10.319 Z-22.527
X-121.887 Y-9.842 Z-22.648
X-121.856 Y-9.838 Z-22.649
X-118.278 Y-9.398 Z-22.769
X-118.247 Y-9.395 Z-22.77
X-114.663 Y-8.991 Z-22.891
X-114.633 Y-8.988 Z-22.892
X-111.043 Y-8.621 Z-23.012
X-111.013 Y-8.618 Z-23.013
X-107.416 Y-8.287 Z-23.134
X-107.387 Y-8.284 Z-23.135
X-103.784 Y-7.988 Z-23.256
X-103.755 Y-7.986 Z-23.257
X-100.146 Y-7.724 Z-23.377
X-100.118 Y-7.722 Z-23.378
X-96.502 Y-7.494 Z-23.499
X-96.474 Y-7.492 Z-23.5
X-92.852 Y-7.297 Z-23.622
X-92.825 Y-7.296
X-89.196 Y-7.133 Z-23.744
X-89.17 Y-7.132 Z-23.745
X-85.535 Y-7.002 Z-23.866
X-85.428 Y-7 Z-23.87
X-57.391 Z-24.806
X-57.294 Y-7.002 Z-24.81
X-54.331 Y-7.097 Z-24.909
X-54.314 Y-7.098
X-51.349 Y-7.211 Z-25.008
X-51.332 Z-25.009
X-48.366 Y-7.341 Z-25.108
X-48.35 Z-25.109
X-45.382 Y-7.487 Z-25.208
X-45.366 Y-7.488
X-42.397 Y-7.649 Z-25.308
X-42.382 Y-7.65
X-39.413 Y-7.827 Z-25.408
X-39.398
X-36.429 Y-8.019 Z-25.507
X-36.415 Y-8.02 Z-25.508
X-33.447 Y-8.227 Z-25.607
X-33.432 Y-8.228 Z-25.608
X-30.466 Y-8.449 Z-25.707
X-30.452 Y-8.45 Z-25.708
X-27.487 Y-8.685 Z-25.807
X-27.473 Y-8.686 Z-25.808
X-24.511 Y-8.935 Z-25.907
X-24.497 Y-8.936
X-21.538 Y-9.198 Z-26.007
X-21.524 Y-9.199
X-18.568 Y-9.474 Z-26.106
X-18.555 Y-9.475 Z-26.107
X-15.602 Y-9.763 Z-26.206
X-15.589 Y-9.764
X-12.641 Y-10.064 Z-26.305
X-12.628 Y-10.065 Z-26.306
X-9.684 Y-10.376 Z-26.404
G2 X-7 Y-13.36 Z-26.551 I-0.316 J-2.983
G1 Y-18.219 Z-26.714
G2 X-10 Y-21.219 Z-26.871 I-3 J0
G1 X-12.428 Z-26.952
Y-26.317 Z-27.123
G2 X-14.428 Y-29.145 Z-27.246 I-3 J0
G1 Y-46.317 Z-27.82
G2 X-17.428 Y-49.317 Z-27.977 I-3 J0
G1 X-47.428 Z-28.979
G2 X-50.428 Y-46.317 Z-29.137 I0 J3
G1 Y-34.317 Z-29.537
X-70.26 Z-30.2
X-74.428 F1000
Z-25.2
X-100.428
Z-30.2 F333.3
X-124.428 F1000
Y-46.317
G2 X-127.428 Y-49.317 I-3 J0
G1 X-145.058
G2 X-148.058 Y-46.317 I0 J3
G1 Y-29.145
G2 X-150.058 Y-26.317 I1 J2.828
G1 Y-24.116
X-153.058
G2 X-156.058 Y-21.116 I0 J3
G1 Y-18.439
G2 X-153.721 Y-15.513 I3 J0
G1 X-151.168 Y-14.935
X-151.143 Y-14.93
X-148.587 Y-14.373
X-148.562 Y-14.368
X-146.003 Y-13.834
X-145.978 Y-13.829
X-143.415 Y-13.316
X-143.395 Y-13.312
X-141.626 Y-12.971
X-141.609 Y-12.968
X-139.838 Y-12.637
X-139.821 Y-12.633
X-138.048 Y-12.312
X-138.032 Y-12.31
X-136.258 Y-11.999
X-136.233 Y-11.994
X-132.68 Y-11.402
X-132.648 Y-11.397
X-129.088 Y-10.843
X-129.056 Y-10.838
X-127.548 Y-10.621
Z-25.2
X-125.491 Y-10.324
X-125.459 Y-10.319
X-121.887 Y-9.842
X-121.856 Y-9.838
X-118.278 Y-9.398
X-118.247 Y-9.395
X-114.663 Y-8.991
X-114.633 Y-8.988
X-111.043 Y-8.621
X-111.013 Y-8.618
X-107.416 Y-8.287
X-107.387 Y-8.284
X-103.784 Y-7.988
X-103.755 Y-7.986
X-101.697 Y-7.836
Z-30.2 F333.3
X-100.146 Y-7.724 F1000
X-100.118 Y-7.722
X-96.502 Y-7.494
X-96.474 Y-7.492
X-92.852 Y-7.297
X-92.825 Y-7.296
X-89.196 Y-7.133
X-89.17 Y-7.132
X-85.535 Y-7.002
X-85.428 Y-7
X-57.391
X-57.294 Y-7.002
X-54.331 Y-7.097
X-54.314 Y-7.098
X-51.349 Y-7.211
X-51.332
X-48.366 Y-7.341
X-48.35
X-45.382 Y-7.487
X-45.366 Y-7.488
X-42.397 Y-7.649
X-42.382 Y-7.65
X-39.413 Y-7.827
X-39.398
X-36.429 Y-8.019
X-36.415 Y-8.02
X-33.447 Y-8.227
X-33.432 Y-8.228
X-30.466 Y-8.449
X-30.452 Y-8.45
X-27.487 Y-8.685
X-27.473 Y-8.686
X-24.511 Y-8.935
X-24.497 Y-8.936
X-21.538 Y-9.198
X-21.524 Y-9.199
X-18.568 Y-9.474
X-18.555 Y-9.475
X-15.602 Y-9.763
X-15.589 Y-9.764
X-12.641 Y-10.064
X-12.628 Y-10.065
X-9.684 Y-10.376
G2 X-7 Y-13.36 I-0.316 J-2.983
G1 Y-18.219
G2 X-10 Y-21.219 I-3 J0
G1 X-12.428
Y-26.317
G2 X-14.428 Y-29.145 I-3 J0
G1 Y-46.317
G2 X-17.428 Y-49.317 I-3 J0
G1 X-47.428
G2 X-50.428 Y-46.317 I0 J3
G1 Y-34.317
X-70.26
Z2
Z5
(When using Fusion 360 for Personal Use, the feedrate of)
(rapid moves is reduced to match the feedrate of cutting)
(moves, which can increase machining time. Unrestricted rapid)
(moves are available with a Fusion 360 Subscription.)

(2D-Kontur29)
G0 X-36.047 Y-68.046
G1 Z5 F1000
Z2
Z1 F333.3
X-33.447 Y-68.227 Z0.909
X-33.432 Y-68.228 Z0.908
X-30.466 Y-68.449 Z0.805
X-30.452 Y-68.45 Z0.804
X-27.487 Y-68.685 Z0.7
X-27.473 Y-68.686
X-24.511 Y-68.935 Z0.596
X-24.497 Y-68.936 Z0.595
X-21.538 Y-69.198 Z0.492
X-21.524 Y-69.199 Z0.491
X-18.568 Y-69.474 Z0.388
X-18.555 Y-69.475 Z0.387
X-15.602 Y-69.763 Z0.283
X-15.589 Y-69.764
X-12.641 Y-70.064 Z0.18
X-12.628 Y-70.065 Z0.179
X-9.684 Y-70.376 Z0.076
G2 X-7 Y-73.36 Z-0.078 I-0.316 J-2.983
G1 Y-78.219 Z-0.247
G2 X-10 Y-81.219 Z-0.412 I-3 J0
G1 X-12.428 Z-0.497
Y-86.317 Z-0.675
G2 X-14.428 Y-89.145 Z-0.804 I-3 J0
G1 Y-106.317 Z-1.403
G2 X-17.428 Y-109.317 Z-1.568 I-3 J0
G1 X-47.428 Z-2.616
G2 X-50.428 Y-106.317 Z-2.78 I0 J3
G1 Y-94.317 Z-3.199
X-124.428 Z-5.783
Y-106.317 Z-6.202
G2 X-127.428 Y-109.317 Z-6.367 I-3 J0
G1 X-145.058 Z-6.983
G2 X-148.058 Y-106.317 Z-7.147 I0 J3
G1 Y-89.145 Z-7.747
G2 X-150.058 Y-86.317 Z-7.876 I1 J2.828
G1 Y-84.116 Z-7.953
X-153.058 Z-8.057
G2 X-156.058 Y-81.116 Z-8.222 I0 J3
G1 Y-78.439 Z-8.315
G2 X-153.721 Y-75.513 Z-8.457 I3 J0
G1 X-151.168 Y-74.935 Z-8.548
X-151.143 Y-74.93 Z-8.549
X-148.587 Y-74.373 Z-8.64
X-148.562 Y-74.368 Z-8.641
X-146.003 Y-73.834 Z-8.733
X-145.978 Y-73.829
X-143.415 Y-73.316 Z-8.825
X-143.395 Y-73.312
X-141.626 Y-72.971 Z-8.888
X-141.609 Y-72.968 Z-8.889
X-139.838 Y-72.637 Z-8.952
X-139.821 Y-72.633
X-138.048 Y-72.312 Z-9.015
X-138.032 Y-72.31 Z-9.016
X-136.258 Y-71.999 Z-9.079
X-136.233 Y-71.994 Z-9.08
X-132.68 Y-71.402 Z-9.205
X-132.648 Y-71.397 Z-9.207
X-129.088 Y-70.843 Z-9.332
X-129.056 Y-70.838 Z-9.334
X-125.491 Y-70.324 Z-9.459
X-125.459 Y-70.319 Z-9.46
X-121.887 Y-69.842 Z-9.586
X-121.856 Y-69.838 Z-9.587
X-118.278 Y-69.398 Z-9.713
X-118.247 Y-69.395 Z-9.714
X-114.663 Y-68.991 Z-9.84
X-114.633 Y-68.988 Z-9.841
X-111.043 Y-68.621 Z-9.967
X-111.013 Y-68.618 Z-9.968
X-107.416 Y-68.287 Z-10.095
X-107.387 Y-68.284 Z-10.096
X-103.784 Y-67.988 Z-10.222
X-103.755 Y-67.986 Z-10.223
X-100.146 Y-67.724 Z-10.349
X-100.118 Y-67.722 Z-10.35
X-96.502 Y-67.494 Z-10.477
X-96.474 Y-67.492 Z-10.478
X-92.852 Y-67.297 Z-10.604
X-92.825 Y-67.296 Z-10.605
X-89.196 Y-67.133 Z-10.732
X-89.17 Y-67.132 Z-10.733
X-85.535 Y-67.002 Z-10.86
X-85.428 Y-67 Z-10.864
X-81.529 Z-11
X-57.391 F1000
X-57.294 Y-67.002
X-54.331 Y-67.097
X-54.314 Y-67.098
X-51.349 Y-67.211
X-51.332
X-48.366 Y-67.341
X-48.35
X-45.382 Y-67.487
X-45.366 Y-67.488
X-42.397 Y-67.649
X-42.382 Y-67.65
X-39.413 Y-67.827
X-39.398
X-36.429 Y-68.019
X-36.415 Y-68.02
X-33.447 Y-68.227
X-33.432 Y-68.228
X-30.466 Y-68.449
X-30.452 Y-68.45
X-27.487 Y-68.685
X-27.473 Y-68.686
X-24.511 Y-68.935
X-24.497 Y-68.936
X-21.538 Y-69.198
X-21.524 Y-69.199
X-18.568 Y-69.474
X-18.555 Y-69.475
X-15.602 Y-69.763
X-15.589 Y-69.764
X-12.641 Y-70.064
X-12.628 Y-70.065
X-9.684 Y-70.376
G2 X-7 Y-73.36 I-0.316 J-2.983
G1 Y-78.219
G2 X-10 Y-81.219 I-3 J0
G1 X-12.428
Y-86.317
G2 X-14.428 Y-89.145 I-3 J0
G1 Y-106.317
G2 X-17.428 Y-109.317 I-3 J0
G1 X-47.428
G2 X-50.428 Y-106.317 I0 J3
G1 Y-94.317
X-124.428
Y-106.317
G2 X-127.428 Y-109.317 I-3 J0
G1 X-145.058
G2 X-148.058 Y-106.317 I0 J3
G1 Y-89.145
G2 X-150.058 Y-86.317 I1 J2.828
G1 Y-84.116
X-153.058
G2 X-156.058 Y-81.116 I0 J3
G1 Y-78.439
G2 X-153.721 Y-75.513 I3 J0
G1 X-151.168 Y-74.935
X-151.143 Y-74.93
X-148.587 Y-74.373
X-148.562 Y-74.368
X-146.003 Y-73.834
X-145.978 Y-73.829
X-143.415 Y-73.316
X-143.395 Y-73.312
X-141.626 Y-72.971
X-141.609 Y-72.968
X-139.838 Y-72.637
X-139.821 Y-72.633
X-138.048 Y-72.312
X-138.032 Y-72.31
X-136.258 Y-71.999
X-136.233 Y-71.994
X-132.68 Y-71.402
X-132.648 Y-71.397
X-129.088 Y-70.843
X-129.056 Y-70.838
X-125.491 Y-70.324
X-125.459 Y-70.319
X-121.887 Y-69.842
X-121.856 Y-69.838
X-118.278 Y-69.398
X-118.247 Y-69.395
X-114.663 Y-68.991
X-114.633 Y-68.988
X-111.043 Y-68.621
X-111.013 Y-68.618
X-107.416 Y-68.287
X-107.387 Y-68.284
X-103.784 Y-67.988
X-103.755 Y-67.986
X-100.146 Y-67.724
X-100.118 Y-67.722
X-96.502 Y-67.494
X-96.474 Y-67.492
X-92.852 Y-67.297
X-92.825 Y-67.296
X-89.196 Y-67.133
X-89.17 Y-67.132
X-85.535 Y-67.002
X-85.428 Y-67
X-81.529
X-57.391 Z-11.806 F333.3
X-57.294 Y-67.002 Z-11.81
X-54.331 Y-67.097 Z-11.909
X-54.314 Y-67.098
X-51.349 Y-67.211 Z-12.008
X-51.332 Z-12.009
X-48.366 Y-67.341 Z-12.108
X-48.35 Z-12.109
X-45.382 Y-67.487 Z-12.208
X-45.366 Y-67.488
X-42.397 Y-67.649 Z-12.308
X-42.382 Y-67.65
X-39.413 Y-67.827 Z-12.408
X-39.398
X-36.429 Y-68.019 Z-12.507
X-36.415 Y-68.02 Z-12.508
X-33.447 Y-68.227 Z-12.607
X-33.432 Y-68.228 Z-12.608
X-30.466 Y-68.449 Z-12.707
X-30.452 Y-68.45 Z-12.708
X-27.487 Y-68.685 Z-12.807
X-27.473 Y-68.686 Z-12.808
X-24.511 Y-68.935 Z-12.907
X-24.497 Y-68.936
X-21.538 Y-69.198 Z-13.007
X-21.524 Y-69.199
X-18.568 Y-69.474 Z-13.106
X-18.555 Y-69.475 Z-13.107
X-15.602 Y-69.763 Z-13.206
X-15.589 Y-69.764
X-12.641 Y-70.064 Z-13.305
X-12.628 Y-70.065 Z-13.306
X-9.684 Y-70.376 Z-13.404
G2 X-7 Y-73.36 Z-13.551 I-0.316 J-2.983
G1 Y-78.219 Z-13.714
G2 X-10 Y-81.219 Z-13.871 I-3 J0
G1 X-12.428 Z-13.952
Y-86.317 Z-14.123
G2 X-14.428 Y-89.145 Z-14.246 I-3 J0
G1 Y-106.317 Z-14.82
G2 X-17.428 Y-109.317 Z-14.977 I-3 J0
G1 X-47.428 Z-15.979
G2 X-50.428 Y-106.317 Z-16.137 I0 J3
G1 Y-94.317 Z-16.537
X-124.428 Z-19.01
Y-106.317 Z-19.41
G2 X-127.428 Y-109.317 Z-19.568 I-3 J0
G1 X-145.058 Z-20.157
G2 X-148.058 Y-106.317 Z-20.314 I0 J3
G1 Y-89.145 Z-20.888
G2 X-150.058 Y-86.317 Z-21.011 I1 J2.828
G1 Y-84.116 Z-21.085
X-153.058 Z-21.185
G2 X-156.058 Y-81.116 Z-21.342 I0 J3
G1 Y-78.439 Z-21.432
G2 X-153.721 Y-75.513 Z-21.567 I3 J0
G1 X-151.168 Y-74.935 Z-21.654
X-151.143 Y-74.93 Z-21.655
X-148.587 Y-74.373 Z-21.743
X-148.562 Y-74.368
X-146.003 Y-73.834 Z-21.831
X-145.978 Y-73.829 Z-21.832
X-143.415 Y-73.316 Z-21.919
X-143.395 Y-73.312 Z-21.92
X-141.626 Y-72.971 Z-21.98
X-141.609 Y-72.968
X-141.033 Y-72.86 Z-22
X-139.838 Y-72.637 F1000
X-139.821 Y-72.633
X-138.048 Y-72.312
X-138.032 Y-72.31
X-136.258 Y-71.999
X-136.233 Y-71.994
X-132.68 Y-71.402
X-132.648 Y-71.397
X-129.088 Y-70.843
X-129.056 Y-70.838
X-125.491 Y-70.324
X-125.459 Y-70.319
X-121.887 Y-69.842
X-121.856 Y-69.838
X-118.278 Y-69.398
X-118.247 Y-69.395
X-114.663 Y-68.991
X-114.633 Y-68.988
X-111.043 Y-68.621
X-111.013 Y-68.618
X-107.416 Y-68.287
X-107.387 Y-68.284
X-103.784 Y-67.988
X-103.755 Y-67.986
X-100.146 Y-67.724
X-100.118 Y-67.722
X-96.502 Y-67.494
X-96.474 Y-67.492
X-92.852 Y-67.297
X-92.825 Y-67.296
X-89.196 Y-67.133
X-89.17 Y-67.132
X-85.535 Y-67.002
X-85.428 Y-67
X-57.391
X-57.294 Y-67.002
X-54.331 Y-67.097
X-54.314 Y-67.098
X-51.349 Y-67.211
X-51.332
X-48.366 Y-67.341
X-48.35
X-45.382 Y-67.487
X-45.366 Y-67.488
X-42.397 Y-67.649
X-42.382 Y-67.65
X-39.413 Y-67.827
X-39.398
X-36.429 Y-68.019
X-36.415 Y-68.02
X-33.447 Y-68.227
X-33.432 Y-68.228
X-30.466 Y-68.449
X-30.452 Y-68.45
X-27.487 Y-68.685
X-27.473 Y-68.686
X-24.511 Y-68.935
X-24.497 Y-68.936
X-21.538 Y-69.198
X-21.524 Y-69.199
X-18.568 Y-69.474
X-18.555 Y-69.475
X-15.602 Y-69.763
X-15.589 Y-69.764
X-12.641 Y-70.064
X-12.628 Y-70.065
X-9.684 Y-70.376
G2 X-7 Y-73.36 I-0.316 J-2.983
G1 Y-78.219
G2 X-10 Y-81.219 I-3 J0
G1 X-12.428
Y-86.317
G2 X-14.428 Y-89.145 I-3 J0
G1 Y-106.317
G2 X-17.428 Y-109.317 I-3 J0
G1 X-47.428
G2 X-50.428 Y-106.317 I0 J3
G1 Y-94.317
X-124.428
Y-106.317
G2 X-127.428 Y-109.317 I-3 J0
G1 X-145.058
G2 X-148.058 Y-106.317 I0 J3
G1 Y-89.145
G2 X-150.058 Y-86.317 I1 J2.828
G1 Y-84.116
X-153.058
G2 X-156.058 Y-81.116 I0 J3
G1 Y-78.439
G2 X-153.721 Y-75.513 I3 J0
G1 X-151.168 Y-74.935
X-151.143 Y-74.93
X-148.587 Y-74.373
X-148.562 Y-74.368
X-146.003 Y-73.834
X-145.978 Y-73.829
X-143.415 Y-73.316
X-143.395 Y-73.312
X-141.626 Y-72.971
X-141.609 Y-72.968
X-141.033 Y-72.86
X-139.838 Y-72.637 Z-22.041 F333.3
X-139.821 Y-72.633
X-138.048 Y-72.312 Z-22.101
X-138.032 Y-72.31 Z-22.102
X-136.258 Y-71.999 Z-22.162
X-136.233 Y-71.994 Z-22.163
X-132.68 Y-71.402 Z-22.283
X-132.648 Y-71.397 Z-22.284
X-129.088 Y-70.843 Z-22.405
X-129.056 Y-70.838 Z-22.406
X-125.491 Y-70.324 Z-22.526
X-125.459 Y-70.319 Z-22.527
X-121.887 Y-69.842 Z-22.648
X-121.856 Y-69.838 Z-22.649
X-118.278 Y-69.398 Z-22.769
X-118.247 Y-69.395 Z-22.77
X-114.663 Y-68.991 Z-22.891
X-114.633 Y-68.988 Z-22.892
X-111.043 Y-68.621 Z-23.012
X-111.013 Y-68.618 Z-23.013
X-107.416 Y-68.287 Z-23.134
X-107.387 Y-68.284 Z-23.135
X-103.784 Y-67.988 Z-23.256
X-103.755 Y-67.986 Z-23.257
X-100.146 Y-67.724 Z-23.377
X-100.118 Y-67.722 Z-23.378
X-96.502 Y-67.494 Z-23.499
X-96.474 Y-67.492 Z-23.5
X-92.852 Y-67.297 Z-23.622
X-92.825 Y-67.296
X-89.196 Y-67.133 Z-23.744
X-89.17 Y-67.132 Z-23.745
X-85.535 Y-67.002 Z-23.866
X-85.428 Y-67 Z-23.87
X-57.391 Z-24.806
X-57.294 Y-67.002 Z-24.81
X-54.331 Y-67.097 Z-24.909
X-54.314 Y-67.098
X-51.349 Y-67.211 Z-25.008
X-51.332 Z-25.009
X-48.366 Y-67.341 Z-25.108
X-48.35 Z-25.109
X-45.382 Y-67.487 Z-25.208
X-45.366 Y-67.488
X-42.397 Y-67.649 Z-25.308
X-42.382 Y-67.65
X-39.413 Y-67.827 Z-25.408
X-39.398
X-36.429 Y-68.019 Z-25.507
X-36.415 Y-68.02 Z-25.508
X-33.447 Y-68.227 Z-25.607
X-33.432 Y-68.228 Z-25.608
X-30.466 Y-68.449 Z-25.707
X-30.452 Y-68.45 Z-25.708
X-27.487 Y-68.685 Z-25.807
X-27.473 Y-68.686 Z-25.808
X-24.511 Y-68.935 Z-25.907
X-24.497 Y-68.936
X-21.538 Y-69.198 Z-26.007
X-21.524 Y-69.199
X-18.568 Y-69.474 Z-26.106
X-18.555 Y-69.475 Z-26.107
X-15.602 Y-69.763 Z-26.206
X-15.589 Y-69.764
X-12.641 Y-70.064 Z-26.305
X-12.628 Y-70.065 Z-26.306
X-9.684 Y-70.376 Z-26.404
G2 X-7 Y-73.36 Z-26.551 I-0.316 J-2.983
G1 Y-78.219 Z-26.714
G2 X-10 Y-81.219 Z-26.871 I-3 J0
G1 X-12.428 Z-26.952
Y-86.317 Z-27.123
G2 X-14.428 Y-89.145 Z-27.246 I-3 J0
G1 Y-106.317 Z-27.82
G2 X-17.428 Y-109.317 Z-27.977 I-3 J0
G1 X-47.428 Z-28.979
G2 X-50.428 Y-106.317 Z-29.137 I0 J3
G1 Y-94.317 Z-29.537
X-70.26 Z-30.2
X-74.428 F1000
Z-25.2
X-100.428
Z-30.2 F333.3
X-124.428 F1000
Y-106.317
G2 X-127.428 Y-109.317 I-3 J0
G1 X-145.058
G2 X-148.058 Y-106.317 I0 J3
G1 Y-89.145
G2 X-150.058 Y-86.317 I1 J2.828
G1 Y-84.116
X-153.058
G2 X-156.058 Y-81.116 I0 J3
G1 Y-78.439
G2 X-153.721 Y-75.513 I3 J0
G1 X-151.168 Y-74.935
X-151.143 Y-74.93
X-148.587 Y-74.373
X-148.562 Y-74.368
X-146.003 Y-73.834
X-145.978 Y-73.829
X-143.415 Y-73.316
X-143.395 Y-73.312
X-141.626 Y-72.971
X-141.609 Y-72.968
X-139.838 Y-72.637
X-139.821 Y-72.633
X-138.048 Y-72.312
X-138.032 Y-72.31
X-136.258 Y-71.999
X-136.233 Y-71.994
X-132.68 Y-71.402
X-132.648 Y-71.397
X-129.088 Y-70.843
X-129.056 Y-70.838
X-127.548 Y-70.621
Z-25.2
X-125.491 Y-70.324
X-125.459 Y-70.319
X-121.887 Y-69.842
X-121.856 Y-69.838
X-118.278 Y-69.398
X-118.247 Y-69.395
X-114.663 Y-68.991
X-114.633 Y-68.988
X-111.043 Y-68.621
X-111.013 Y-68.618
X-107.416 Y-68.287
X-107.387 Y-68.284
X-103.784 Y-67.988
X-103.755 Y-67.986
X-101.697 Y-67.836
Z-30.2 F333.3
X-100.146 Y-67.724 F1000
X-100.118 Y-67.722
X-96.502 Y-67.494
X-96.474 Y-67.492
X-92.852 Y-67.297
X-92.825 Y-67.296
X-89.196 Y-67.133
X-89.17 Y-67.132
X-85.535 Y-67.002
X-85.428 Y-67
X-57.391
X-57.294 Y-67.002
X-54.331 Y-67.097
X-54.314 Y-67.098
X-51.349 Y-67.211
X-51.332
X-48.366 Y-67.341
X-48.35
X-45.382 Y-67.487
X-45.366 Y-67.488
X-42.397 Y-67.649
X-42.382 Y-67.65
X-39.413 Y-67.827
X-39.398
X-36.429 Y-68.019
X-36.415 Y-68.02
X-33.447 Y-68.227
X-33.432 Y-68.228
X-30.466 Y-68.449
X-30.452 Y-68.45
X-27.487 Y-68.685
X-27.473 Y-68.686
X-24.511 Y-68.935
X-24.497 Y-68.936
X-21.538 Y-69.198
X-21.524 Y-69.199
X-18.568 Y-69.474
X-18.555 Y-69.475
X-15.602 Y-69.763
X-15.589 Y-69.764
X-12.641 Y-70.064
X-12.628 Y-70.065
X-9.684 Y-70.376
G2 X-7 Y-73.36 I-0.316 J-2.983
G1 Y-78.219
G2 X-10 Y-81.219 I-3 J0
G1 X-12.428
Y-86.317
G2 X-14.428 Y-89.145 I-3 J0
G1 Y-106.317
G2 X-17.428 Y-109.317 I-3 J0
G1 X-47.428
G2 X-50.428 Y-106.317 I0 J3
G1 Y-94.317
X-70.26
Z2
Z5
G28 G91 Z0
G90
G28 G91 X0 Y0
G90
M5
M30
