(1001)
G90 G94
G17
G21
(When using Fusion 360 for Personal Use, the feedrate of)
(rapid moves is reduced to match the feedrate of cutting)
(moves, which can increase machining time. Unrestricted rapid)
(moves are available with a Fusion 360 Subscription.)

(Planen1)
S6000 M3
G54
G0 X-13.528 Y-43.983
Z5
G1 Z3 F1000
Z-9.9
G18 G3 X-14.128 Z-10.5 I-0.6 K0
G1 X-17.428
X-47.428
G17 G2 X-47.428 Y-38.804 I0 J2.59
G1 X-17.428
G18 G2 X-16.828 Z-9.9 I0 K0.6
G1 Z3
X-123.528 Y-43.983
Z-9.9
G3 X-124.128 Z-10.5 I-0.6 K0
G1 X-127.428
X-145.058
G17 G2 X-145.058 Y-38.804 I0 J2.59
G1 X-127.428
G18 G2 X-126.828 Z-9.9 I0 K0.6
G1 Z3
X-148.958 Y-33.624
Z-9.9
G2 X-148.358 Z-10.5 I0.6 K0
G1 X-145.058
X-17.428
X-15.428
G17 G3 X-15.428 Y-28.445 I0 J2.59
G1 X-147.058
X-152.165
G2 X-152.165 Y-23.266 I0 J2.59
G1 X-15.428
X-10
G3 X-10 Y-18.086 I0 J2.59
G1 X-153.058
G2 X-153.058 Y-12.907 I0 J2.59
G1 X-140.999
X-10
G18 G2 X-9.4 Z-9.9 I0 K0.6
G1 Z3
Z5
G17
(When using Fusion 360 for Personal Use, the feedrate of)
(rapid moves is reduced to match the feedrate of cutting)
(moves, which can increase machining time. Unrestricted rapid)
(moves are available with a Fusion 360 Subscription.)

(2D-Kontur29)
G0 X-110.918 Y-8.612
G1 Z5 F1000
Z2
Z1 F333.3
X-107.851 Y-8.325 Z-0.779
X-107.821 Y-8.322 Z-0.796
X-104.144 Y-8.016 Z-2.926
X-104.115 Y-8.014 Z-2.943
X-100.433 Y-7.743 Z-5.075
X-100.404 Y-7.741 Z-5.092
X-96.715 Y-7.506 Z-7.225
X-96.687 Y-7.504 Z-7.242
X-92.994 Y-7.304 Z-9.377
X-92.966 Y-7.303 Z-9.393
X-89.267 Y-7.136 Z-11.531
X-89.24 Y-7.135 Z-11.547
X-85.535 Y-7.002 Z-13.687
X-85.428 Y-7 Z-13.749
X-81.529 Z-16
X-57.391 F1000
X-57.295 Y-7.002
X-54.671 Y-7.085
X-54.656 Y-7.086
X-52.031 Y-7.183
X-52.016 Y-7.184
X-49.39 Y-7.294
X-49.375 Y-7.295
X-46.748 Y-7.418
X-46.734
X-44.107 Y-7.554
X-44.092 Y-7.555
X-41.465 Y-7.703
X-41.451
X-38.824 Y-7.863
X-38.811 Y-7.864
X-36.184 Y-8.036
X-36.171 Y-8.037
X-33.546 Y-8.22
X-33.533 Y-8.221
X-30.908 Y-8.415
X-30.895 Y-8.416
X-28.273 Y-8.621
X-28.26 Y-8.622
X-25.639 Y-8.839
X-25.627 Y-8.84
X-23.008 Y-9.066
X-22.997 Y-9.067
X-20.38 Y-9.304
X-20.369 Y-9.305
X-17.756 Y-9.552
X-17.744 Y-9.553
X-15.134 Y-9.809
X-15.123 Y-9.811
X-12.407 Y-10.088
X-12.396 Y-10.089
X-9.684 Y-10.376
G2 X-7 Y-13.36 I-0.316 J-2.983
G1 Y-15.219
G2 X-12.428 Y-21.192 I-6 J0
G1 Y-26.219
G2 X-14.428 Y-29.048 I-3 J0
G1 Y-46.219
G2 X-17.428 Y-49.219 I-3 J0
G1 X-47.428
G2 X-50.428 Y-46.219 I0 J3
G1 Y-34.219
X-124.428
Y-46.219
G2 X-127.428 Y-49.219 I-3 J0
G1 X-145.058
G2 X-148.058 Y-46.219 I0 J3
G1 Y-29.048
G2 X-150.058 Y-26.219 I1 J2.828
G1 Y-24.116
X-150.076
G2 X-156.041 Y-18.762 I0 J6
X-153.719 Y-15.513 I2.983 J0.323
G1 X-150.721 Y-14.836
X-150.691 Y-14.83
X-147.689 Y-14.184
X-147.66 Y-14.177
X-144.66 Y-13.563
X-144.637 Y-13.558
X-142.825 Y-13.201
X-142.808 Y-13.198
X-140.994 Y-12.852
X-140.977 Y-12.849
X-139.163 Y-12.513
X-139.146 Y-12.51
X-137.33 Y-12.185
X-137.313 Y-12.182
X-135.495 Y-11.868
X-135.479 Y-11.865
X-133.661 Y-11.561
X-133.644 Y-11.559
X-131.824 Y-11.265
X-131.807 Y-11.263
X-129.986 Y-10.979
X-129.97 Y-10.977
X-128.148 Y-10.703
X-128.131 Y-10.701
X-126.307 Y-10.438
X-126.283 Y-10.435
X-122.632 Y-9.938
X-122.6 Y-9.934
X-118.944 Y-9.477
X-118.913 Y-9.473
X-115.252 Y-9.055
X-115.221 Y-9.051
X-111.554 Y-8.671
X-111.523 Y-8.668
X-107.851 Y-8.325
X-107.821 Y-8.322
X-104.144 Y-8.016
X-104.115 Y-8.014
X-100.433 Y-7.743
X-100.404 Y-7.741
X-96.715 Y-7.506
X-96.687 Y-7.504
X-92.994 Y-7.304
X-92.966 Y-7.303
X-89.267 Y-7.136
X-89.24 Y-7.135
X-85.535 Y-7.002
X-85.428 Y-7
X-81.529
X-57.391 Z-17.374 F333.3
X-57.295 Y-7.002 Z-17.38
X-54.671 Y-7.085 Z-17.529
X-54.656 Y-7.086 Z-17.53
X-52.031 Y-7.183 Z-17.68
X-52.016 Y-7.184
X-49.39 Y-7.294 Z-17.83
X-49.375 Y-7.295 Z-17.831
X-46.748 Y-7.418 Z-17.981
X-46.734
X-44.107 Y-7.554 Z-18.131
X-44.092 Y-7.555 Z-18.132
X-41.465 Y-7.703 Z-18.282
X-41.451 Z-18.283
X-38.824 Y-7.863 Z-18.433
X-38.811 Y-7.864
X-36.184 Y-8.036 Z-18.583
X-36.171 Y-8.037 Z-18.584
X-33.546 Y-8.22 Z-18.734
X-33.533 Y-8.221
X-30.908 Y-8.415 Z-18.884
X-30.895 Y-8.416 Z-18.885
X-28.273 Y-8.621 Z-19.035
X-28.26 Y-8.622 Z-19.036
X-25.639 Y-8.839 Z-19.185
X-25.627 Y-8.84 Z-19.186
X-23.008 Y-9.066 Z-19.336
X-22.997 Y-9.067
X-20.38 Y-9.304 Z-19.486
X-20.369 Y-9.305
X-17.756 Y-9.552 Z-19.636
X-17.744 Y-9.553 Z-19.637
X-15.134 Y-9.809 Z-19.786
X-15.123 Y-9.811 Z-19.787
X-12.407 Y-10.088 Z-19.942
X-12.396 Y-10.089 Z-19.943
X-9.684 Y-10.376 Z-20.098
G2 X-7 Y-13.36 Z-20.348 I-0.316 J-2.983
G1 Y-15.219 Z-20.454
G2 X-12.428 Y-21.192 Z-20.958 I-6 J0
G1 Y-26.219 Z-21.244
G2 X-14.428 Y-29.048 Z-21.454 I-3 J0
G1 Y-46.219 Z-22.432
G2 X-17.428 Y-49.219 Z-22.7 I-3 J0
G1 X-47.428 Z-24.408
G2 X-50.428 Y-46.219 Z-24.677 I0 J3
G1 Y-34.219 Z-25.36
X-74.428 Z-26.726
Z-25.2
X-100.428
Z-28.207
X-124.428 Z-29.573
Y-45.233 Z-30.2
Y-46.219 F1000
G2 X-127.428 Y-49.219 I-3 J0
G1 X-145.058
G2 X-148.058 Y-46.219 I0 J3
G1 Y-29.048
G2 X-150.058 Y-26.219 I1 J2.828
G1 Y-24.116
X-150.076
G2 X-156.041 Y-18.762 I0 J6
X-153.719 Y-15.513 I2.983 J0.323
G1 X-150.721 Y-14.836
X-150.691 Y-14.83
X-147.689 Y-14.184
X-147.66 Y-14.177
X-144.66 Y-13.563
X-144.637 Y-13.558
X-142.825 Y-13.201
X-142.808 Y-13.198
X-140.994 Y-12.852
X-140.977 Y-12.849
X-139.163 Y-12.513
X-139.146 Y-12.51
X-137.33 Y-12.185
X-137.313 Y-12.182
X-135.495 Y-11.868
X-135.479 Y-11.865
X-133.661 Y-11.561
X-133.644 Y-11.559
X-131.824 Y-11.265
X-131.807 Y-11.263
X-129.986 Y-10.979
X-129.97 Y-10.977
X-128.148 Y-10.703
X-128.133 Y-10.701
Z-25.2
X-128.131
X-126.307 Y-10.438
X-126.283 Y-10.435
X-122.632 Y-9.938
X-122.6 Y-9.934
X-118.944 Y-9.477
X-118.913 Y-9.473
X-115.252 Y-9.055
X-115.221 Y-9.051
X-111.554 Y-8.671
X-111.523 Y-8.668
X-107.851 Y-8.325
X-107.821 Y-8.322
X-104.144 Y-8.016
X-104.115 Y-8.014
X-102.287 Y-7.879
Z-30.2 F333.3
X-100.433 Y-7.743 F1000
X-100.404 Y-7.741
X-96.715 Y-7.506
X-96.687 Y-7.504
X-92.994 Y-7.304
X-92.966 Y-7.303
X-89.267 Y-7.136
X-89.24 Y-7.135
X-85.535 Y-7.002
X-85.428 Y-7
X-57.391
X-57.295 Y-7.002
X-54.671 Y-7.085
X-54.656 Y-7.086
X-52.031 Y-7.183
X-52.016 Y-7.184
X-49.39 Y-7.294
X-49.375 Y-7.295
X-46.748 Y-7.418
X-46.734
X-44.107 Y-7.554
X-44.092 Y-7.555
X-41.465 Y-7.703
X-41.451
X-38.824 Y-7.863
X-38.811 Y-7.864
X-36.184 Y-8.036
X-36.171 Y-8.037
X-33.546 Y-8.22
X-33.533 Y-8.221
X-30.908 Y-8.415
X-30.895 Y-8.416
X-28.273 Y-8.621
X-28.26 Y-8.622
X-25.639 Y-8.839
X-25.627 Y-8.84
X-23.008 Y-9.066
X-22.997 Y-9.067
X-20.38 Y-9.304
X-20.369 Y-9.305
X-17.756 Y-9.552
X-17.744 Y-9.553
X-15.134 Y-9.809
X-15.123 Y-9.811
X-12.407 Y-10.088
X-12.396 Y-10.089
X-9.684 Y-10.376
G2 X-7 Y-13.36 I-0.316 J-2.983
G1 Y-15.219
G2 X-12.428 Y-21.192 I-6 J0
G1 Y-26.219
G2 X-14.428 Y-29.048 I-3 J0
G1 Y-46.219
G2 X-17.428 Y-49.219 I-3 J0
G1 X-47.428
G2 X-50.428 Y-46.219 I0 J3
G1 Y-34.219
X-74.428
Z-25.2
X-100.428
Z-30.2 F333.3
X-124.428 F1000
Y-45.233
Z2
Z5
(When using Fusion 360 for Personal Use, the feedrate of)
(rapid moves is reduced to match the feedrate of cutting)
(moves, which can increase machining time. Unrestricted rapid)
(moves are available with a Fusion 360 Subscription.)

(Planen1)
G0 X-13.528 Y-103.983
G1 Z5 F1000
Z3
Z-9.9
G18 G3 X-14.128 Z-10.5 I-0.6 K0
G1 X-17.428
X-47.428
G17 G2 X-47.428 Y-98.804 I0 J2.59
G1 X-17.428
G18 G2 X-16.828 Z-9.9 I0 K0.6
G1 Z3
X-123.528 Y-103.983
Z-9.9
G3 X-124.128 Z-10.5 I-0.6 K0
G1 X-127.428
X-145.058
G17 G2 X-145.058 Y-98.804 I0 J2.59
G1 X-127.428
G18 G2 X-126.828 Z-9.9 I0 K0.6
G1 Z3
X-148.958 Y-93.624
Z-9.9
G2 X-148.358 Z-10.5 I0.6 K0
G1 X-145.058
X-17.428
X-15.428
G17 G3 X-15.428 Y-88.445 I0 J2.59
G1 X-147.058
X-152.165
G2 X-152.165 Y-83.266 I0 J2.59
G1 X-15.428
X-10
G3 X-10 Y-78.086 I0 J2.59
G1 X-153.058
G2 X-153.058 Y-72.907 I0 J2.59
G1 X-140.999
X-10
G18 G2 X-9.4 Z-9.9 I0 K0.6
G1 Z3
Z5
G17
(When using Fusion 360 for Personal Use, the feedrate of)
(rapid moves is reduced to match the feedrate of cutting)
(moves, which can increase machining time. Unrestricted rapid)
(moves are available with a Fusion 360 Subscription.)

(2D-Kontur29)
G0 X-110.918 Y-68.612
G1 Z5 F1000
Z2
Z1 F333.3
X-107.851 Y-68.325 Z-0.779
X-107.821 Y-68.322 Z-0.796
X-104.144 Y-68.016 Z-2.926
X-104.115 Y-68.014 Z-2.943
X-100.433 Y-67.743 Z-5.075
X-100.404 Y-67.741 Z-5.092
X-96.715 Y-67.506 Z-7.225
X-96.687 Y-67.504 Z-7.242
X-92.994 Y-67.304 Z-9.377
X-92.966 Y-67.303 Z-9.393
X-89.267 Y-67.136 Z-11.531
X-89.24 Y-67.135 Z-11.547
X-85.535 Y-67.002 Z-13.687
X-85.428 Y-67 Z-13.749
X-81.529 Z-16
X-57.391 F1000
X-57.295 Y-67.002
X-54.671 Y-67.085
X-54.656 Y-67.086
X-52.031 Y-67.183
X-52.016 Y-67.184
X-49.39 Y-67.294
X-49.375 Y-67.295
X-46.748 Y-67.418
X-46.734
X-44.107 Y-67.554
X-44.092 Y-67.555
X-41.465 Y-67.703
X-41.451
X-38.824 Y-67.863
X-38.811 Y-67.864
X-36.184 Y-68.036
X-36.171 Y-68.037
X-33.546 Y-68.22
X-33.533 Y-68.221
X-30.908 Y-68.415
X-30.895 Y-68.416
X-28.273 Y-68.621
X-28.26 Y-68.622
X-25.639 Y-68.839
X-25.627 Y-68.84
X-23.008 Y-69.066
X-22.997 Y-69.067
X-20.38 Y-69.304
X-20.369 Y-69.305
X-17.756 Y-69.552
X-17.744 Y-69.553
X-15.134 Y-69.809
X-15.123 Y-69.811
X-12.407 Y-70.088
X-12.396 Y-70.089
X-9.684 Y-70.376
G2 X-7 Y-73.36 I-0.316 J-2.983
G1 Y-75.219
G2 X-12.428 Y-81.192 I-6 J0
G1 Y-86.219
G2 X-14.428 Y-89.048 I-3 J0
G1 Y-106.219
G2 X-17.428 Y-109.219 I-3 J0
G1 X-47.428
G2 X-50.428 Y-106.219 I0 J3
G1 Y-94.219
X-124.428
Y-106.219
G2 X-127.428 Y-109.219 I-3 J0
G1 X-145.058
G2 X-148.058 Y-106.219 I0 J3
G1 Y-89.048
G2 X-150.058 Y-86.219 I1 J2.828
G1 Y-84.116
X-150.076
G2 X-156.041 Y-78.762 I0 J6
X-153.719 Y-75.513 I2.983 J0.323
G1 X-150.721 Y-74.836
X-150.691 Y-74.83
X-147.689 Y-74.184
X-147.66 Y-74.177
X-144.66 Y-73.563
X-144.637 Y-73.558
X-142.825 Y-73.201
X-142.808 Y-73.198
X-140.994 Y-72.852
X-140.977 Y-72.849
X-139.163 Y-72.513
X-139.146 Y-72.51
X-137.33 Y-72.185
X-137.313 Y-72.182
X-135.495 Y-71.868
X-135.479 Y-71.865
X-133.661 Y-71.561
X-133.644 Y-71.559
X-131.824 Y-71.265
X-131.807 Y-71.263
X-129.986 Y-70.979
X-129.97 Y-70.977
X-128.148 Y-70.703
X-128.131 Y-70.701
X-126.307 Y-70.438
X-126.283 Y-70.435
X-122.632 Y-69.938
X-122.6 Y-69.934
X-118.944 Y-69.477
X-118.913 Y-69.473
X-115.252 Y-69.055
X-115.221 Y-69.051
X-111.554 Y-68.671
X-111.523 Y-68.668
X-107.851 Y-68.325
X-107.821 Y-68.322
X-104.144 Y-68.016
X-104.115 Y-68.014
X-100.433 Y-67.743
X-100.404 Y-67.741
X-96.715 Y-67.506
X-96.687 Y-67.504
X-92.994 Y-67.304
X-92.966 Y-67.303
X-89.267 Y-67.136
X-89.24 Y-67.135
X-85.535 Y-67.002
X-85.428 Y-67
X-81.529
X-57.391 Z-17.374 F333.3
X-57.295 Y-67.002 Z-17.38
X-54.671 Y-67.085 Z-17.529
X-54.656 Y-67.086 Z-17.53
X-52.031 Y-67.183 Z-17.68
X-52.016 Y-67.184
X-49.39 Y-67.294 Z-17.83
X-49.375 Y-67.295 Z-17.831
X-46.748 Y-67.418 Z-17.981
X-46.734
X-44.107 Y-67.554 Z-18.131
X-44.092 Y-67.555 Z-18.132
X-41.465 Y-67.703 Z-18.282
X-41.451 Z-18.283
X-38.824 Y-67.863 Z-18.433
X-38.811 Y-67.864
X-36.184 Y-68.036 Z-18.583
X-36.171 Y-68.037 Z-18.584
X-33.546 Y-68.22 Z-18.734
X-33.533 Y-68.221
X-30.908 Y-68.415 Z-18.884
X-30.895 Y-68.416 Z-18.885
X-28.273 Y-68.621 Z-19.035
X-28.26 Y-68.622 Z-19.036
X-25.639 Y-68.839 Z-19.185
X-25.627 Y-68.84 Z-19.186
X-23.008 Y-69.066 Z-19.336
X-22.997 Y-69.067
X-20.38 Y-69.304 Z-19.486
X-20.369 Y-69.305
X-17.756 Y-69.552 Z-19.636
X-17.744 Y-69.553 Z-19.637
X-15.134 Y-69.809 Z-19.786
X-15.123 Y-69.811 Z-19.787
X-12.407 Y-70.088 Z-19.942
X-12.396 Y-70.089 Z-19.943
X-9.684 Y-70.376 Z-20.098
G2 X-7 Y-73.36 Z-20.348 I-0.316 J-2.983
G1 Y-75.219 Z-20.454
G2 X-12.428 Y-81.192 Z-20.958 I-6 J0
G1 Y-86.219 Z-21.244
G2 X-14.428 Y-89.048 Z-21.454 I-3 J0
G1 Y-106.219 Z-22.432
G2 X-17.428 Y-109.219 Z-22.7 I-3 J0
G1 X-47.428 Z-24.408
G2 X-50.428 Y-106.219 Z-24.677 I0 J3
G1 Y-94.219 Z-25.36
X-74.428 Z-26.726
Z-25.2
X-100.428
Z-28.207
X-124.428 Z-29.573
Y-105.233 Z-30.2
Y-106.219 F1000
G2 X-127.428 Y-109.219 I-3 J0
G1 X-145.058
G2 X-148.058 Y-106.219 I0 J3
G1 Y-89.048
G2 X-150.058 Y-86.219 I1 J2.828
G1 Y-84.116
X-150.076
G2 X-156.041 Y-78.762 I0 J6
X-153.719 Y-75.513 I2.983 J0.323
G1 X-150.721 Y-74.836
X-150.691 Y-74.83
X-147.689 Y-74.184
X-147.66 Y-74.177
X-144.66 Y-73.563
X-144.637 Y-73.558
X-142.825 Y-73.201
X-142.808 Y-73.198
X-140.994 Y-72.852
X-140.977 Y-72.849
X-139.163 Y-72.513
X-139.146 Y-72.51
X-137.33 Y-72.185
X-137.313 Y-72.182
X-135.495 Y-71.868
X-135.479 Y-71.865
X-133.661 Y-71.561
X-133.644 Y-71.559
X-131.824 Y-71.265
X-131.807 Y-71.263
X-129.986 Y-70.979
X-129.97 Y-70.977
X-128.148 Y-70.703
X-128.133 Y-70.701
Z-25.2
X-128.131
X-126.307 Y-70.438
X-126.283 Y-70.435
X-122.632 Y-69.938
X-122.6 Y-69.934
X-118.944 Y-69.477
X-118.913 Y-69.473
X-115.252 Y-69.055
X-115.221 Y-69.051
X-111.554 Y-68.671
X-111.523 Y-68.668
X-107.851 Y-68.325
X-107.821 Y-68.322
X-104.144 Y-68.016
X-104.115 Y-68.014
X-102.287 Y-67.879
Z-30.2 F333.3
X-100.433 Y-67.743 F1000
X-100.404 Y-67.741
X-96.715 Y-67.506
X-96.687 Y-67.504
X-92.994 Y-67.304
X-92.966 Y-67.303
X-89.267 Y-67.136
X-89.24 Y-67.135
X-85.535 Y-67.002
X-85.428 Y-67
X-57.391
X-57.295 Y-67.002
X-54.671 Y-67.085
X-54.656 Y-67.086
X-52.031 Y-67.183
X-52.016 Y-67.184
X-49.39 Y-67.294
X-49.375 Y-67.295
X-46.748 Y-67.418
X-46.734
X-44.107 Y-67.554
X-44.092 Y-67.555
X-41.465 Y-67.703
X-41.451
X-38.824 Y-67.863
X-38.811 Y-67.864
X-36.184 Y-68.036
X-36.171 Y-68.037
X-33.546 Y-68.22
X-33.533 Y-68.221
X-30.908 Y-68.415
X-30.895 Y-68.416
X-28.273 Y-68.621
X-28.26 Y-68.622
X-25.639 Y-68.839
X-25.627 Y-68.84
X-23.008 Y-69.066
X-22.997 Y-69.067
X-20.38 Y-69.304
X-20.369 Y-69.305
X-17.756 Y-69.552
X-17.744 Y-69.553
X-15.134 Y-69.809
X-15.123 Y-69.811
X-12.407 Y-70.088
X-12.396 Y-70.089
X-9.684 Y-70.376
G2 X-7 Y-73.36 I-0.316 J-2.983
G1 Y-75.219
G2 X-12.428 Y-81.192 I-6 J0
G1 Y-86.219
G2 X-14.428 Y-89.048 I-3 J0
G1 Y-106.219
G2 X-17.428 Y-109.219 I-3 J0
G1 X-47.428
G2 X-50.428 Y-106.219 I0 J3
G1 Y-94.219
X-74.428
Z-25.2
X-100.428
Z-30.2 F333.3
X-124.428 F1000
Y-105.233
Z2
Z5
M5
M30
