(1001)
(Bearbeiten)
(  Hersteller: ChinaCnc)
(  model: 3040T)
(  description: Generic 3-axis)
(T5  D=3.175 CR=0 - ZMIN=-4.2 - Schaftfraser)
G90 G94
G17
G21
(When using Fusion 360 for Personal Use, the feedrate of)
(rapid moves is reduced to match the feedrate of cutting)
(moves, which can increase machining time. Unrestricted rapid)
(moves are available with a Fusion 360 Subscription.)
G28 G91 Z0
G90

(2D-Kontur15)
T5
S6000 M3
G54
G0 X-148.929 Y-26.032
Z15
G1 Z5 F1000
Z2 F333.3
Z-0.683
X-148.927 Y-26.04 Z-0.753 F1000
X-148.922 Y-26.063 Z-0.82
X-148.913 Y-26.1 Z-0.88
X-148.902 Y-26.149 Z-0.931
X-148.889 Y-26.208 Z-0.969
X-148.874 Y-26.273 Z-0.992
X-148.859 Y-26.342 Z-1
X-148.789 Y-26.652
G3 X-148.409 Y-26.891 I0.31 J0.07
G1 X-145.856 Y-26.313
X-145.843 Y-26.31
X-143.287 Y-25.754
X-143.274 Y-25.751
X-140.715 Y-25.216
X-140.701 Y-25.214
X-138.138 Y-24.701
X-138.126 Y-24.699
X-135.628 Y-24.22
X-135.615 Y-24.218
X-133.114 Y-23.759
X-133.102 Y-23.757
X-130.598 Y-23.318
X-130.586 Y-23.316
X-128.078 Y-22.897
X-128.066 Y-22.895
X-125.556 Y-22.496
X-125.543 Y-22.494
X-123.029 Y-22.114
X-123.018 Y-22.112
X-120.502 Y-21.751
X-120.49 Y-21.749
X-117.97 Y-21.407
X-117.958 Y-21.406
X-115.435 Y-21.082
X-115.423 Y-21.081
X-112.897 Y-20.776
X-112.886 Y-20.774
X-110.357 Y-20.488
X-110.346 Y-20.486
X-107.814 Y-20.218
X-107.802 Y-20.216
X-105.266 Y-19.966
X-105.255 Y-19.964
X-102.717 Y-19.731
X-102.706 Y-19.73
X-100.164 Y-19.515
X-100.153 Y-19.514
X-97.625 Y-19.316
X-97.435 Y-19.298
X-97.274 Y-19.274
X-97.119 Y-19.243
X-96.97 Y-19.206
X-96.825 Y-19.161
X-96.685 Y-19.11
X-96.548 Y-19.052
X-96.412 Y-18.986
X-96.278 Y-18.912
X-96.146 Y-18.831
X-96.013 Y-18.74
X-95.88 Y-18.641
X-95.748 Y-18.532
X-95.625 Y-18.423
X-95.346 Y-18.143
X-95.076 Y-17.834
X-94.805 Y-17.484
X-94.533 Y-17.095
X-94.26 Y-16.669
X-93.985 Y-16.208
X-93.708 Y-15.717
X-93.428 Y-15.198
X-93.144 Y-14.656
X-92.555 Y-13.519
X-92.548 Y-13.505
X-91.931 Y-12.341
X-91.916 Y-12.314
X-91.593 Y-11.731
X-91.578 Y-11.705
X-91.243 Y-11.126
X-91.224 Y-11.094
X-90.874 Y-10.522
X-90.85 Y-10.484
X-90.484 Y-9.922
X-90.455 Y-9.879
X-90.072 Y-9.33
X-90.037 Y-9.282
X-89.634 Y-8.75
X-89.593 Y-8.698
X-89.169 Y-8.184
X-89.121 Y-8.128
X-88.676 Y-7.636
X-88.621 Y-7.578
X-88.152 Y-7.11
X-88.089 Y-7.051
X-87.596 Y-6.61
X-87.527 Y-6.551
X-87.009 Y-6.138
X-86.952 Y-6.095
X-86.684 Y-5.9
X-86.644 Y-5.873
X-86.369 Y-5.685
X-86.329 Y-5.658
X-86.047 Y-5.479
X-86.006 Y-5.454
X-85.718 Y-5.283
X-85.675 Y-5.258
X-85.381 Y-5.095
X-85.338 Y-5.072
X-85.038 Y-4.918
X-84.994 Y-4.896
X-84.687 Y-4.75
X-84.643 Y-4.73
X-84.331 Y-4.593
X-84.287 Y-4.575
X-83.968 Y-4.446
X-83.924 Y-4.429
X-83.6 Y-4.31
X-83.557 Y-4.294
X-83.227 Y-4.183
X-83.185 Y-4.169
X-82.85 Y-4.067
X-82.787 Y-4.049
X-82.103 Y-3.871
X-82.022 Y-3.852
X-81.32 Y-3.707
X-81.243 Y-3.693
X-80.526 Y-3.582
X-80.455 Y-3.572
X-79.725 Y-3.493
X-79.658 Y-3.487
X-78.92 Y-3.438
X-78.858 Y-3.435
X-78.113 Y-3.414
X-78.057 Y-3.413
X-77.309 Y-3.419
X-77.258 Y-3.421
X-76.51 Y-3.451
X-76.464 Y-3.453
X-75.72 Y-3.505
X-75.679 Y-3.508
X-74.941 Y-3.579
X-74.904 Y-3.583
X-74.176 Y-3.67
X-74.144 Y-3.674
X-73.427 Y-3.774
X-73.399 Y-3.778
X-72.696 Y-3.889
X-72.673 Y-3.893
X-71.985 Y-4.012
X-71.966 Y-4.016
X-71.295 Y-4.14
X-71.28 Y-4.143
X-70.628 Y-4.271
X-70.617 Y-4.273
X-69.982 Y-4.402
X-69.975 Y-4.403
X-69.358 Y-4.531
X-69.356 Y-4.532
X-68.757 Y-4.657
X-68.178 Y-4.777
X-67.618 Y-4.891
X-67.077 Y-4.996
X-66.552 Y-5.092
X-66.042 Y-5.178
X-65.545 Y-5.254
X-65.059 Y-5.317
X-64.58 Y-5.368
X-64.106 Y-5.407
X-63.635 Y-5.433
X-63.163 Y-5.446
X-62.686 Y-5.445
X-62.203 Y-5.431
X-61.71 Y-5.403
X-61.205 Y-5.361
X-60.685 Y-5.306
X-60.148 Y-5.238
X-59.593 Y-5.157
X-59.018 Y-5.064
X-58.423 Y-4.961
X-57.807 Y-4.847
X-57.169 Y-4.725
X-56.509 Y-4.596
X-55.829 Y-4.463
X-55.827 Y-4.462
X-55.128 Y-4.326
X-55.122 Y-4.325
X-54.408 Y-4.188
X-54.397 Y-4.186
X-53.668 Y-4.051
X-53.653 Y-4.049
X-52.911 Y-3.919
X-52.891 Y-3.916
X-52.139 Y-3.794
X-52.114 Y-3.79
X-51.355 Y-3.68
X-51.323 Y-3.676
X-50.561 Y-3.581
X-50.522 Y-3.576
X-49.761 Y-3.5
X-49.714 Y-3.496
X-48.96 Y-3.443
X-48.903 Y-3.441
X-48.161 Y-3.415
X-48.093 Y-3.414
X-47.368 Y-3.42
X-47.31 Y-3.422
X-46.956 Y-3.438
X-46.912 Y-3.44
X-46.564 Y-3.466
X-46.517 Y-3.47
X-46.176 Y-3.505
X-46.126 Y-3.511
X-45.792 Y-3.556
X-45.738 Y-3.564
X-45.412 Y-3.619
X-45.355 Y-3.63
X-45.038 Y-3.696
X-44.977 Y-3.71
X-44.668 Y-3.787
X-44.604 Y-3.805
X-44.305 Y-3.893
X-44.238 Y-3.914
X-43.949 Y-4.013
X-43.879 Y-4.039
X-43.6 Y-4.15
X-43.529 Y-4.18
X-43.26 Y-4.302
X-43.187 Y-4.337
X-42.929 Y-4.471
X-42.856 Y-4.511
X-42.608 Y-4.656
X-42.536 Y-4.701
X-42.298 Y-4.857
X-42.228 Y-4.906
X-42.001 Y-5.074
X-41.932 Y-5.128
X-41.716 Y-5.307
X-41.651 Y-5.364
X-41.446 Y-5.554
X-41.384 Y-5.614
X-41.19 Y-5.814
X-41.132 Y-5.877
X-40.948 Y-6.088
X-40.896 Y-6.151
X-40.722 Y-6.372
X-40.674 Y-6.437
X-40.511 Y-6.668
X-40.469 Y-6.731
X-40.316 Y-6.972
X-40.278 Y-7.035
X-40.135 Y-7.285
X-40.101 Y-7.346
X-39.968 Y-7.605
X-39.939 Y-7.664
X-39.815 Y-7.931
X-39.79 Y-7.988
X-39.675 Y-8.263
X-39.654 Y-8.317
X-39.547 Y-8.6
X-39.53 Y-8.65
X-39.432 Y-8.94
X-39.41 Y-9.01
X-39.238 Y-9.609
X-39.217 Y-9.691
X-39.074 Y-10.312
X-39.06 Y-10.381
X-38.943 Y-11.02
X-38.933 Y-11.077
X-38.838 Y-11.729
X-38.832 Y-11.773
X-38.754 Y-12.435
X-38.749 Y-12.478
X-38.629 Y-13.807
X-38.627 Y-13.828
X-38.576 Y-14.485
X-38.527 Y-15.125
X-38.474 Y-15.735
X-38.414 Y-16.311
X-38.345 Y-16.845
X-38.261 Y-17.341
X-38.217 Y-17.555
X-38.168 Y-17.761
X-38.116 Y-17.952
X-38.062 Y-18.127
X-38.006 Y-18.284
X-37.949 Y-18.422
X-37.891 Y-18.542
X-37.835 Y-18.644
X-37.78 Y-18.729
X-37.729 Y-18.798
X-37.68 Y-18.853
X-37.636 Y-18.896
X-37.592 Y-18.931
X-37.548 Y-18.961
X-37.5 Y-18.987
X-37.445 Y-19.011
X-37.379 Y-19.034
X-37.297 Y-19.054
X-37.198 Y-19.07
X-37.052 Y-19.084
X-33.043 Y-19.329
X-33.032
X-29 Y-19.603
X-28.989 Y-19.604
X-24.959 Y-19.905
X-24.949 Y-19.906
X-20.921 Y-20.232
X-20.912 Y-20.233
X-16.889 Y-20.584
X-16.88 Y-20.585
X-12.863 Y-20.96
X-12.854 Y-20.961
X-8.844 Y-21.36
X-8.835
X-4.834 Y-21.781
G2 X-3.412 Y-23.36 I-0.166 J-1.579
G1 Y-28.219
G2 X-5 Y-29.807 I-1.588 J0
G1 X-8.84
Y-36.317
G2 X-10.428 Y-37.904 I-1.587 J0
G3 X-10.84 Y-38.317 I0 J-0.412
G1 Y-56.317
G2 X-12.428 Y-57.904 I-1.587 J0
G1 X-42.428
G2 X-44.015 Y-56.317 I0 J1.588
G1 Y-42.904
X-120.84
Y-56.317
G2 X-122.428 Y-57.904 I-1.588 J0
G1 X-140.058
G2 X-141.645 Y-56.317 I0 J1.588
G1 Y-38.317
G3 X-142.058 Y-37.904 I-0.413 J0
G2 X-143.645 Y-36.317 I0 J1.588
G1 Y-32.704
X-148.058
G2 X-149.645 Y-31.116 I0 J1.587
G1 Y-28.439
G2 X-148.409 Y-26.891 I1.587 J0
G3 X-148.169 Y-26.511 I-0.07 J0.31
G1 X-148.239 Y-26.202
X-148.255 Y-26.133 Z-0.992
X-148.27 Y-26.067 Z-0.969
X-148.283 Y-26.009 Z-0.931
X-148.294 Y-25.959 Z-0.88
X-148.303 Y-25.923 Z-0.82
X-148.308 Y-25.9 Z-0.753
X-148.309 Y-25.892 Z-0.683
Z5
X-148.929 Y-26.032
Z1 F333.3
Z-1.683
X-148.927 Y-26.04 Z-1.753 F1000
X-148.922 Y-26.063 Z-1.82
X-148.913 Y-26.1 Z-1.88
X-148.902 Y-26.149 Z-1.931
X-148.889 Y-26.208 Z-1.969
X-148.874 Y-26.273 Z-1.992
X-148.859 Y-26.342 Z-2
X-148.789 Y-26.652
G3 X-148.409 Y-26.891 I0.31 J0.07
G1 X-145.856 Y-26.313
X-145.843 Y-26.31
X-143.287 Y-25.754
X-143.274 Y-25.751
X-140.715 Y-25.216
X-140.701 Y-25.214
X-138.138 Y-24.701
X-138.126 Y-24.699
X-135.628 Y-24.22
X-135.615 Y-24.218
X-133.114 Y-23.759
X-133.102 Y-23.757
X-130.598 Y-23.318
X-130.586 Y-23.316
X-128.078 Y-22.897
X-128.066 Y-22.895
X-125.556 Y-22.496
X-125.543 Y-22.494
X-123.029 Y-22.114
X-123.018 Y-22.112
X-120.502 Y-21.751
X-120.49 Y-21.749
X-117.97 Y-21.407
X-117.958 Y-21.406
X-115.435 Y-21.082
X-115.423 Y-21.081
X-112.897 Y-20.776
X-112.886 Y-20.774
X-110.357 Y-20.488
X-110.346 Y-20.486
X-107.814 Y-20.218
X-107.802 Y-20.216
X-105.266 Y-19.966
X-105.255 Y-19.964
X-102.717 Y-19.731
X-102.706 Y-19.73
X-100.164 Y-19.515
X-100.153 Y-19.514
X-97.625 Y-19.316
X-97.435 Y-19.298
X-97.274 Y-19.274
X-97.119 Y-19.243
X-96.97 Y-19.206
X-96.825 Y-19.161
X-96.685 Y-19.11
X-96.548 Y-19.052
X-96.412 Y-18.986
X-96.278 Y-18.912
X-96.146 Y-18.831
X-96.013 Y-18.74
X-95.88 Y-18.641
X-95.748 Y-18.532
X-95.625 Y-18.423
X-95.346 Y-18.143
X-95.076 Y-17.834
X-94.805 Y-17.484
X-94.533 Y-17.095
X-94.26 Y-16.669
X-93.985 Y-16.208
X-93.708 Y-15.717
X-93.428 Y-15.198
X-93.144 Y-14.656
X-92.555 Y-13.519
X-92.548 Y-13.505
X-91.931 Y-12.341
X-91.916 Y-12.314
X-91.593 Y-11.731
X-91.578 Y-11.705
X-91.243 Y-11.126
X-91.224 Y-11.094
X-90.874 Y-10.522
X-90.85 Y-10.484
X-90.484 Y-9.922
X-90.455 Y-9.879
X-90.072 Y-9.33
X-90.037 Y-9.282
X-89.634 Y-8.75
X-89.593 Y-8.698
X-89.169 Y-8.184
X-89.121 Y-8.128
X-88.676 Y-7.636
X-88.621 Y-7.578
X-88.152 Y-7.11
X-88.089 Y-7.051
X-87.596 Y-6.61
X-87.527 Y-6.551
X-87.009 Y-6.138
X-86.952 Y-6.095
X-86.684 Y-5.9
X-86.644 Y-5.873
X-86.369 Y-5.685
X-86.329 Y-5.658
X-86.047 Y-5.479
X-86.006 Y-5.454
X-85.718 Y-5.283
X-85.675 Y-5.258
X-85.381 Y-5.095
X-85.338 Y-5.072
X-85.038 Y-4.918
X-84.994 Y-4.896
X-84.687 Y-4.75
X-84.643 Y-4.73
X-84.331 Y-4.593
X-84.287 Y-4.575
X-83.968 Y-4.446
X-83.924 Y-4.429
X-83.6 Y-4.31
X-83.557 Y-4.294
X-83.227 Y-4.183
X-83.185 Y-4.169
X-82.85 Y-4.067
X-82.787 Y-4.049
X-82.103 Y-3.871
X-82.022 Y-3.852
X-81.32 Y-3.707
X-81.243 Y-3.693
X-80.526 Y-3.582
X-80.455 Y-3.572
X-79.725 Y-3.493
X-79.658 Y-3.487
X-78.92 Y-3.438
X-78.858 Y-3.435
X-78.113 Y-3.414
X-78.057 Y-3.413
X-77.309 Y-3.419
X-77.258 Y-3.421
X-76.51 Y-3.451
X-76.464 Y-3.453
X-75.72 Y-3.505
X-75.679 Y-3.508
X-74.941 Y-3.579
X-74.904 Y-3.583
X-74.176 Y-3.67
X-74.144 Y-3.674
X-73.427 Y-3.774
X-73.399 Y-3.778
X-72.696 Y-3.889
X-72.673 Y-3.893
X-71.985 Y-4.012
X-71.966 Y-4.016
X-71.295 Y-4.14
X-71.28 Y-4.143
X-70.628 Y-4.271
X-70.617 Y-4.273
X-69.982 Y-4.402
X-69.975 Y-4.403
X-69.358 Y-4.531
X-69.356 Y-4.532
X-68.757 Y-4.657
X-68.178 Y-4.777
X-67.618 Y-4.891
X-67.077 Y-4.996
X-66.552 Y-5.092
X-66.042 Y-5.178
X-65.545 Y-5.254
X-65.059 Y-5.317
X-64.58 Y-5.368
X-64.106 Y-5.407
X-63.635 Y-5.433
X-63.163 Y-5.446
X-62.686 Y-5.445
X-62.203 Y-5.431
X-61.71 Y-5.403
X-61.205 Y-5.361
X-60.685 Y-5.306
X-60.148 Y-5.238
X-59.593 Y-5.157
X-59.018 Y-5.064
X-58.423 Y-4.961
X-57.807 Y-4.847
X-57.169 Y-4.725
X-56.509 Y-4.596
X-55.829 Y-4.463
X-55.827 Y-4.462
X-55.128 Y-4.326
X-55.122 Y-4.325
X-54.408 Y-4.188
X-54.397 Y-4.186
X-53.668 Y-4.051
X-53.653 Y-4.049
X-52.911 Y-3.919
X-52.891 Y-3.916
X-52.139 Y-3.794
X-52.114 Y-3.79
X-51.355 Y-3.68
X-51.323 Y-3.676
X-50.561 Y-3.581
X-50.522 Y-3.576
X-49.761 Y-3.5
X-49.714 Y-3.496
X-48.96 Y-3.443
X-48.903 Y-3.441
X-48.161 Y-3.415
X-48.093 Y-3.414
X-47.368 Y-3.42
X-47.31 Y-3.422
X-46.956 Y-3.438
X-46.912 Y-3.44
X-46.564 Y-3.466
X-46.517 Y-3.47
X-46.176 Y-3.505
X-46.126 Y-3.511
X-45.792 Y-3.556
X-45.738 Y-3.564
X-45.412 Y-3.619
X-45.355 Y-3.63
X-45.038 Y-3.696
X-44.977 Y-3.71
X-44.668 Y-3.787
X-44.604 Y-3.805
X-44.305 Y-3.893
X-44.238 Y-3.914
X-43.949 Y-4.013
X-43.879 Y-4.039
X-43.6 Y-4.15
X-43.529 Y-4.18
X-43.26 Y-4.302
X-43.187 Y-4.337
X-42.929 Y-4.471
X-42.856 Y-4.511
X-42.608 Y-4.656
X-42.536 Y-4.701
X-42.298 Y-4.857
X-42.228 Y-4.906
X-42.001 Y-5.074
X-41.932 Y-5.128
X-41.716 Y-5.307
X-41.651 Y-5.364
X-41.446 Y-5.554
X-41.384 Y-5.614
X-41.19 Y-5.814
X-41.132 Y-5.877
X-40.948 Y-6.088
X-40.896 Y-6.151
X-40.722 Y-6.372
X-40.674 Y-6.437
X-40.511 Y-6.668
X-40.469 Y-6.731
X-40.316 Y-6.972
X-40.278 Y-7.035
X-40.135 Y-7.285
X-40.101 Y-7.346
X-39.968 Y-7.605
X-39.939 Y-7.664
X-39.815 Y-7.931
X-39.79 Y-7.988
X-39.675 Y-8.263
X-39.654 Y-8.317
X-39.547 Y-8.6
X-39.53 Y-8.65
X-39.432 Y-8.94
X-39.41 Y-9.01
X-39.238 Y-9.609
X-39.217 Y-9.691
X-39.074 Y-10.312
X-39.06 Y-10.381
X-38.943 Y-11.02
X-38.933 Y-11.077
X-38.838 Y-11.729
X-38.832 Y-11.773
X-38.754 Y-12.435
X-38.749 Y-12.478
X-38.629 Y-13.807
X-38.627 Y-13.828
X-38.576 Y-14.485
X-38.527 Y-15.125
X-38.474 Y-15.735
X-38.414 Y-16.311
X-38.345 Y-16.845
X-38.261 Y-17.341
X-38.217 Y-17.555
X-38.168 Y-17.761
X-38.116 Y-17.952
X-38.062 Y-18.127
X-38.006 Y-18.284
X-37.949 Y-18.422
X-37.891 Y-18.542
X-37.835 Y-18.644
X-37.78 Y-18.729
X-37.729 Y-18.798
X-37.68 Y-18.853
X-37.636 Y-18.896
X-37.592 Y-18.931
X-37.548 Y-18.961
X-37.5 Y-18.987
X-37.445 Y-19.011
X-37.379 Y-19.034
X-37.297 Y-19.054
X-37.198 Y-19.07
X-37.052 Y-19.084
X-33.043 Y-19.329
X-33.032
X-29 Y-19.603
X-28.989 Y-19.604
X-24.959 Y-19.905
X-24.949 Y-19.906
X-20.921 Y-20.232
X-20.912 Y-20.233
X-16.889 Y-20.584
X-16.88 Y-20.585
X-12.863 Y-20.96
X-12.854 Y-20.961
X-8.844 Y-21.36
X-8.835
X-4.834 Y-21.781
G2 X-3.412 Y-23.36 I-0.166 J-1.579
G1 Y-28.219
G2 X-5 Y-29.807 I-1.588 J0
G1 X-8.84
Y-36.317
G2 X-10.428 Y-37.904 I-1.587 J0
G3 X-10.84 Y-38.317 I0 J-0.412
G1 Y-56.317
G2 X-12.428 Y-57.904 I-1.587 J0
G1 X-42.428
G2 X-44.015 Y-56.317 I0 J1.588
G1 Y-42.904
X-120.84
Y-56.317
G2 X-122.428 Y-57.904 I-1.588 J0
G1 X-140.058
G2 X-141.645 Y-56.317 I0 J1.588
G1 Y-38.317
G3 X-142.058 Y-37.904 I-0.413 J0
G2 X-143.645 Y-36.317 I0 J1.588
G1 Y-32.704
X-148.058
G2 X-149.645 Y-31.116 I0 J1.587
G1 Y-28.439
G2 X-148.409 Y-26.891 I1.587 J0
G3 X-148.169 Y-26.511 I-0.07 J0.31
G1 X-148.239 Y-26.202
X-148.255 Y-26.133 Z-1.992
X-148.27 Y-26.067 Z-1.969
X-148.283 Y-26.009 Z-1.931
X-148.294 Y-25.959 Z-1.88
X-148.303 Y-25.923 Z-1.82
X-148.308 Y-25.9 Z-1.753
X-148.309 Y-25.892 Z-1.683
Z5
X-148.929 Y-26.032
Z0 F333.3
Z-2.683
X-148.927 Y-26.04 Z-2.753 F1000
X-148.922 Y-26.063 Z-2.82
X-148.913 Y-26.1 Z-2.88
X-148.902 Y-26.149 Z-2.931
X-148.889 Y-26.208 Z-2.969
X-148.874 Y-26.273 Z-2.992
X-148.859 Y-26.342 Z-3
X-148.789 Y-26.652
G3 X-148.409 Y-26.891 I0.31 J0.07
G1 X-145.856 Y-26.313
X-145.843 Y-26.31
X-143.287 Y-25.754
X-143.274 Y-25.751
X-140.715 Y-25.216
X-140.701 Y-25.214
X-138.138 Y-24.701
X-138.126 Y-24.699
X-135.628 Y-24.22
X-135.615 Y-24.218
X-133.114 Y-23.759
X-133.102 Y-23.757
X-130.598 Y-23.318
X-130.586 Y-23.316
X-128.078 Y-22.897
X-128.066 Y-22.895
X-125.556 Y-22.496
X-125.543 Y-22.494
X-123.029 Y-22.114
X-123.018 Y-22.112
X-120.502 Y-21.751
X-120.49 Y-21.749
X-117.97 Y-21.407
X-117.958 Y-21.406
X-115.435 Y-21.082
X-115.423 Y-21.081
X-112.897 Y-20.776
X-112.886 Y-20.774
X-110.357 Y-20.488
X-110.346 Y-20.486
X-107.814 Y-20.218
X-107.802 Y-20.216
X-105.266 Y-19.966
X-105.255 Y-19.964
X-102.717 Y-19.731
X-102.706 Y-19.73
X-100.164 Y-19.515
X-100.153 Y-19.514
X-97.625 Y-19.316
X-97.435 Y-19.298
X-97.274 Y-19.274
X-97.119 Y-19.243
X-96.97 Y-19.206
X-96.825 Y-19.161
X-96.685 Y-19.11
X-96.548 Y-19.052
X-96.412 Y-18.986
X-96.278 Y-18.912
X-96.146 Y-18.831
X-96.013 Y-18.74
X-95.88 Y-18.641
X-95.748 Y-18.532
X-95.625 Y-18.423
X-95.346 Y-18.143
X-95.076 Y-17.834
X-94.805 Y-17.484
X-94.533 Y-17.095
X-94.26 Y-16.669
X-93.985 Y-16.208
X-93.708 Y-15.717
X-93.428 Y-15.198
X-93.144 Y-14.656
X-92.555 Y-13.519
X-92.548 Y-13.505
X-91.931 Y-12.341
X-91.916 Y-12.314
X-91.593 Y-11.731
X-91.578 Y-11.705
X-91.243 Y-11.126
X-91.224 Y-11.094
X-90.874 Y-10.522
X-90.85 Y-10.484
X-90.484 Y-9.922
X-90.455 Y-9.879
X-90.072 Y-9.33
X-90.037 Y-9.282
X-89.634 Y-8.75
X-89.593 Y-8.698
X-89.169 Y-8.184
X-89.121 Y-8.128
X-88.676 Y-7.636
X-88.621 Y-7.578
X-88.152 Y-7.11
X-88.089 Y-7.051
X-87.596 Y-6.61
X-87.527 Y-6.551
X-87.009 Y-6.138
X-86.952 Y-6.095
X-86.684 Y-5.9
X-86.644 Y-5.873
X-86.369 Y-5.685
X-86.329 Y-5.658
X-86.047 Y-5.479
X-86.006 Y-5.454
X-85.718 Y-5.283
X-85.675 Y-5.258
X-85.381 Y-5.095
X-85.338 Y-5.072
X-85.038 Y-4.918
X-84.994 Y-4.896
X-84.687 Y-4.75
X-84.643 Y-4.73
X-84.331 Y-4.593
X-84.287 Y-4.575
X-83.968 Y-4.446
X-83.924 Y-4.429
X-83.6 Y-4.31
X-83.557 Y-4.294
X-83.227 Y-4.183
X-83.185 Y-4.169
X-82.85 Y-4.067
X-82.787 Y-4.049
X-82.103 Y-3.871
X-82.022 Y-3.852
X-81.32 Y-3.707
X-81.243 Y-3.693
X-80.526 Y-3.582
X-80.455 Y-3.572
X-79.725 Y-3.493
X-79.658 Y-3.487
X-78.92 Y-3.438
X-78.858 Y-3.435
X-78.113 Y-3.414
X-78.057 Y-3.413
X-77.309 Y-3.419
X-77.258 Y-3.421
X-76.51 Y-3.451
X-76.464 Y-3.453
X-75.72 Y-3.505
X-75.679 Y-3.508
X-74.941 Y-3.579
X-74.904 Y-3.583
X-74.176 Y-3.67
X-74.144 Y-3.674
X-73.427 Y-3.774
X-73.399 Y-3.778
X-72.696 Y-3.889
X-72.673 Y-3.893
X-71.985 Y-4.012
X-71.966 Y-4.016
X-71.295 Y-4.14
X-71.28 Y-4.143
X-70.628 Y-4.271
X-70.617 Y-4.273
X-69.982 Y-4.402
X-69.975 Y-4.403
X-69.358 Y-4.531
X-69.356 Y-4.532
X-68.757 Y-4.657
X-68.178 Y-4.777
X-67.618 Y-4.891
X-67.077 Y-4.996
X-66.552 Y-5.092
X-66.042 Y-5.178
X-65.545 Y-5.254
X-65.059 Y-5.317
X-64.58 Y-5.368
X-64.106 Y-5.407
X-63.635 Y-5.433
X-63.163 Y-5.446
X-62.686 Y-5.445
X-62.203 Y-5.431
X-61.71 Y-5.403
X-61.205 Y-5.361
X-60.685 Y-5.306
X-60.148 Y-5.238
X-59.593 Y-5.157
X-59.018 Y-5.064
X-58.423 Y-4.961
X-57.807 Y-4.847
X-57.169 Y-4.725
X-56.509 Y-4.596
X-55.829 Y-4.463
X-55.827 Y-4.462
X-55.128 Y-4.326
X-55.122 Y-4.325
X-54.408 Y-4.188
X-54.397 Y-4.186
X-53.668 Y-4.051
X-53.653 Y-4.049
X-52.911 Y-3.919
X-52.891 Y-3.916
X-52.139 Y-3.794
X-52.114 Y-3.79
X-51.355 Y-3.68
X-51.323 Y-3.676
X-50.561 Y-3.581
X-50.522 Y-3.576
X-49.761 Y-3.5
X-49.714 Y-3.496
X-48.96 Y-3.443
X-48.903 Y-3.441
X-48.161 Y-3.415
X-48.093 Y-3.414
X-47.368 Y-3.42
X-47.31 Y-3.422
X-46.956 Y-3.438
X-46.912 Y-3.44
X-46.564 Y-3.466
X-46.517 Y-3.47
X-46.176 Y-3.505
X-46.126 Y-3.511
X-45.792 Y-3.556
X-45.738 Y-3.564
X-45.412 Y-3.619
X-45.355 Y-3.63
X-45.038 Y-3.696
X-44.977 Y-3.71
X-44.668 Y-3.787
X-44.604 Y-3.805
X-44.305 Y-3.893
X-44.238 Y-3.914
X-43.949 Y-4.013
X-43.879 Y-4.039
X-43.6 Y-4.15
X-43.529 Y-4.18
X-43.26 Y-4.302
X-43.187 Y-4.337
X-42.929 Y-4.471
X-42.856 Y-4.511
X-42.608 Y-4.656
X-42.536 Y-4.701
X-42.298 Y-4.857
X-42.228 Y-4.906
X-42.001 Y-5.074
X-41.932 Y-5.128
X-41.716 Y-5.307
X-41.651 Y-5.364
X-41.446 Y-5.554
X-41.384 Y-5.614
X-41.19 Y-5.814
X-41.132 Y-5.877
X-40.948 Y-6.088
X-40.896 Y-6.151
X-40.722 Y-6.372
X-40.674 Y-6.437
X-40.511 Y-6.668
X-40.469 Y-6.731
X-40.316 Y-6.972
X-40.278 Y-7.035
X-40.135 Y-7.285
X-40.101 Y-7.346
X-39.968 Y-7.605
X-39.939 Y-7.664
X-39.815 Y-7.931
X-39.79 Y-7.988
X-39.675 Y-8.263
X-39.654 Y-8.317
X-39.547 Y-8.6
X-39.53 Y-8.65
X-39.432 Y-8.94
X-39.41 Y-9.01
X-39.238 Y-9.609
X-39.217 Y-9.691
X-39.074 Y-10.312
X-39.06 Y-10.381
X-38.943 Y-11.02
X-38.933 Y-11.077
X-38.838 Y-11.729
X-38.832 Y-11.773
X-38.754 Y-12.435
X-38.749 Y-12.478
X-38.629 Y-13.807
X-38.627 Y-13.828
X-38.576 Y-14.485
X-38.527 Y-15.125
X-38.474 Y-15.735
X-38.414 Y-16.311
X-38.345 Y-16.845
X-38.261 Y-17.341
X-38.217 Y-17.555
X-38.168 Y-17.761
X-38.116 Y-17.952
X-38.062 Y-18.127
X-38.006 Y-18.284
X-37.949 Y-18.422
X-37.891 Y-18.542
X-37.835 Y-18.644
X-37.78 Y-18.729
X-37.729 Y-18.798
X-37.68 Y-18.853
X-37.636 Y-18.896
X-37.592 Y-18.931
X-37.548 Y-18.961
X-37.5 Y-18.987
X-37.445 Y-19.011
X-37.379 Y-19.034
X-37.297 Y-19.054
X-37.198 Y-19.07
X-37.052 Y-19.084
X-33.043 Y-19.329
X-33.032
X-29 Y-19.603
X-28.989 Y-19.604
X-24.959 Y-19.905
X-24.949 Y-19.906
X-20.921 Y-20.232
X-20.912 Y-20.233
X-16.889 Y-20.584
X-16.88 Y-20.585
X-12.863 Y-20.96
X-12.854 Y-20.961
X-8.844 Y-21.36
X-8.835
X-4.834 Y-21.781
G2 X-3.412 Y-23.36 I-0.166 J-1.579
G1 Y-28.219
G2 X-5 Y-29.807 I-1.588 J0
G1 X-8.84
Y-36.317
G2 X-10.428 Y-37.904 I-1.587 J0
G3 X-10.84 Y-38.317 I0 J-0.412
G1 Y-56.317
G2 X-12.428 Y-57.904 I-1.587 J0
G1 X-42.428
G2 X-44.015 Y-56.317 I0 J1.588
G1 Y-42.904
X-120.84
Y-56.317
G2 X-122.428 Y-57.904 I-1.588 J0
G1 X-140.058
G2 X-141.645 Y-56.317 I0 J1.588
G1 Y-38.317
G3 X-142.058 Y-37.904 I-0.413 J0
G2 X-143.645 Y-36.317 I0 J1.588
G1 Y-32.704
X-148.058
G2 X-149.645 Y-31.116 I0 J1.587
G1 Y-28.439
G2 X-148.409 Y-26.891 I1.587 J0
G3 X-148.169 Y-26.511 I-0.07 J0.31
G1 X-148.239 Y-26.202
X-148.255 Y-26.133 Z-2.992
X-148.27 Y-26.067 Z-2.969
X-148.283 Y-26.009 Z-2.931
X-148.294 Y-25.959 Z-2.88
X-148.303 Y-25.923 Z-2.82
X-148.308 Y-25.9 Z-2.753
X-148.309 Y-25.892 Z-2.683
Z5
X-148.929 Y-26.032
Z-1 F333.3
Z-3.283
X-148.927 Y-26.04 Z-3.353 F1000
X-148.922 Y-26.063 Z-3.42
X-148.913 Y-26.1 Z-3.48
X-148.902 Y-26.149 Z-3.531
X-148.889 Y-26.208 Z-3.569
X-148.874 Y-26.273 Z-3.592
X-148.859 Y-26.342 Z-3.6
X-148.789 Y-26.652
G3 X-148.409 Y-26.891 I0.31 J0.07
G1 X-145.856 Y-26.313
X-145.843 Y-26.31
X-143.287 Y-25.754
X-143.274 Y-25.751
X-140.715 Y-25.216
X-140.701 Y-25.214
X-138.138 Y-24.701
X-138.126 Y-24.699
X-135.628 Y-24.22
X-135.615 Y-24.218
X-133.114 Y-23.759
X-133.102 Y-23.757
X-130.598 Y-23.318
X-130.586 Y-23.316
X-128.078 Y-22.897
X-128.066 Y-22.895
X-125.556 Y-22.496
X-125.543 Y-22.494
X-123.029 Y-22.114
X-123.018 Y-22.112
X-122.013 Y-21.968
Z-3
X-120.502 Y-21.751
X-120.49 Y-21.749
X-117.97 Y-21.407
X-117.958 Y-21.406
X-115.435 Y-21.082
X-115.423 Y-21.081
X-113.908 Y-20.898
Z-3.6 F333.3
X-112.897 Y-20.776 F1000
X-112.886 Y-20.774
X-110.357 Y-20.488
X-110.346 Y-20.486
X-107.814 Y-20.218
X-107.802 Y-20.216
X-105.266 Y-19.966
X-105.255 Y-19.964
X-102.717 Y-19.731
X-102.706 Y-19.73
X-100.164 Y-19.515
X-100.153 Y-19.514
X-97.625 Y-19.316
X-97.435 Y-19.298
X-97.274 Y-19.274
X-97.119 Y-19.243
X-96.97 Y-19.206
X-96.825 Y-19.161
X-96.685 Y-19.11
X-96.548 Y-19.052
X-96.412 Y-18.986
X-96.278 Y-18.912
X-96.146 Y-18.831
X-96.013 Y-18.74
X-95.88 Y-18.641
X-95.748 Y-18.532
X-95.625 Y-18.423
X-95.346 Y-18.143
X-95.076 Y-17.834
X-94.805 Y-17.484
X-94.533 Y-17.095
X-94.26 Y-16.669
X-93.985 Y-16.208
X-93.708 Y-15.717
X-93.428 Y-15.198
X-93.144 Y-14.656
X-92.555 Y-13.519
X-92.548 Y-13.505
X-91.931 Y-12.341
X-91.916 Y-12.314
X-91.593 Y-11.731
X-91.578 Y-11.705
X-91.243 Y-11.126
X-91.224 Y-11.094
X-90.874 Y-10.522
X-90.85 Y-10.484
X-90.484 Y-9.922
X-90.455 Y-9.879
X-90.072 Y-9.33
X-90.037 Y-9.282
X-89.634 Y-8.75
X-89.593 Y-8.698
X-89.403 Y-8.467
Z-3
X-89.169 Y-8.184
X-89.121 Y-8.128
X-88.676 Y-7.636
X-88.621 Y-7.578
X-88.152 Y-7.11
X-88.089 Y-7.051
X-87.596 Y-6.61
X-87.527 Y-6.551
X-87.009 Y-6.138
X-86.952 Y-6.095
X-86.684 Y-5.9
X-86.644 Y-5.873
X-86.369 Y-5.685
X-86.329 Y-5.658
X-86.047 Y-5.479
X-86.006 Y-5.454
X-85.718 Y-5.283
X-85.675 Y-5.258
X-85.381 Y-5.095
X-85.338 Y-5.072
X-85.038 Y-4.918
X-84.994 Y-4.896
X-84.687 Y-4.75
X-84.643 Y-4.73
X-84.331 Y-4.593
X-84.287 Y-4.575
X-83.968 Y-4.446
X-83.924 Y-4.429
X-83.6 Y-4.31
X-83.557 Y-4.294
X-83.227 Y-4.183
X-83.185 Y-4.169
X-82.85 Y-4.067
X-82.787 Y-4.049
X-82.562 Y-3.99
Z-3.6 F333.3
X-82.103 Y-3.871 F1000
X-82.022 Y-3.852
X-81.32 Y-3.707
X-81.243 Y-3.693
X-80.526 Y-3.582
X-80.455 Y-3.572
X-79.725 Y-3.493
X-79.658 Y-3.487
X-78.92 Y-3.438
X-78.858 Y-3.435
X-78.113 Y-3.414
X-78.057 Y-3.413
X-77.309 Y-3.419
X-77.258 Y-3.421
X-76.51 Y-3.451
X-76.464 Y-3.453
X-75.72 Y-3.505
X-75.679 Y-3.508
X-74.941 Y-3.579
X-74.904 Y-3.583
X-74.176 Y-3.67
X-74.144 Y-3.674
X-73.427 Y-3.774
X-73.399 Y-3.778
X-72.696 Y-3.889
X-72.673 Y-3.893
X-71.985 Y-4.012
X-71.966 Y-4.016
X-71.295 Y-4.14
X-71.28 Y-4.143
X-70.628 Y-4.271
X-70.617 Y-4.273
X-69.982 Y-4.402
X-69.975 Y-4.403
X-69.358 Y-4.531
X-69.356 Y-4.532
X-68.757 Y-4.657
X-68.178 Y-4.777
X-67.618 Y-4.891
X-67.077 Y-4.996
X-66.552 Y-5.092
X-66.042 Y-5.178
X-65.545 Y-5.254
X-65.059 Y-5.317
X-64.58 Y-5.368
X-64.106 Y-5.407
X-63.635 Y-5.433
X-63.163 Y-5.446
X-62.686 Y-5.445
X-62.203 Y-5.431
X-61.71 Y-5.403
X-61.205 Y-5.361
X-60.685 Y-5.306
X-60.148 Y-5.238
X-59.593 Y-5.157
X-59.018 Y-5.064
X-58.423 Y-4.961
X-57.807 Y-4.847
X-57.169 Y-4.725
X-56.509 Y-4.596
X-55.829 Y-4.463
X-55.827 Y-4.462
X-55.128 Y-4.326
X-55.122 Y-4.325
X-54.408 Y-4.188
X-54.397 Y-4.186
X-53.668 Y-4.051
X-53.653 Y-4.049
X-52.911 Y-3.919
X-52.891 Y-3.916
X-52.139 Y-3.794
X-52.114 Y-3.79
X-51.355 Y-3.68
X-51.323 Y-3.676
X-50.561 Y-3.581
X-50.522 Y-3.576
X-49.761 Y-3.5
X-49.714 Y-3.496
X-48.96 Y-3.443
X-48.903 Y-3.441
X-48.161 Y-3.415
X-48.093 Y-3.414
X-47.688 Y-3.418
Z-3
X-47.368 Y-3.42
X-47.31 Y-3.422
X-46.956 Y-3.438
X-46.912 Y-3.44
X-46.564 Y-3.466
X-46.517 Y-3.47
X-46.176 Y-3.505
X-46.126 Y-3.511
X-45.792 Y-3.556
X-45.738 Y-3.564
X-45.412 Y-3.619
X-45.355 Y-3.63
X-45.038 Y-3.696
X-44.977 Y-3.71
X-44.668 Y-3.787
X-44.604 Y-3.805
X-44.305 Y-3.893
X-44.238 Y-3.914
X-43.949 Y-4.013
X-43.879 Y-4.039
X-43.6 Y-4.15
X-43.529 Y-4.18
X-43.26 Y-4.302
X-43.187 Y-4.337
X-42.929 Y-4.471
X-42.856 Y-4.511
X-42.608 Y-4.656
X-42.536 Y-4.701
X-42.298 Y-4.857
X-42.228 Y-4.906
X-42.001 Y-5.074
X-41.932 Y-5.128
X-41.716 Y-5.307
X-41.651 Y-5.364
X-41.446 Y-5.554
X-41.384 Y-5.614
X-41.19 Y-5.814
X-41.132 Y-5.877
X-40.948 Y-6.088
X-40.896 Y-6.151
X-40.722 Y-6.372
X-40.674 Y-6.437
X-40.511 Y-6.668
X-40.469 Y-6.731
X-40.316 Y-6.972
Z-3.6 F333.3
X-40.278 Y-7.035 F1000
X-40.135 Y-7.285
X-40.101 Y-7.346
X-39.968 Y-7.605
X-39.939 Y-7.664
X-39.815 Y-7.931
X-39.79 Y-7.988
X-39.675 Y-8.263
X-39.654 Y-8.317
X-39.547 Y-8.6
X-39.53 Y-8.65
X-39.432 Y-8.94
X-39.41 Y-9.01
X-39.238 Y-9.609
X-39.217 Y-9.691
X-39.074 Y-10.312
X-39.06 Y-10.381
X-38.943 Y-11.02
X-38.933 Y-11.077
X-38.838 Y-11.729
X-38.832 Y-11.773
X-38.754 Y-12.435
X-38.749 Y-12.478
X-38.629 Y-13.807
X-38.627 Y-13.828
X-38.576 Y-14.485
X-38.527 Y-15.125
X-38.474 Y-15.735
X-38.414 Y-16.311
X-38.345 Y-16.845
X-38.261 Y-17.341
X-38.217 Y-17.555
X-38.168 Y-17.761
X-38.116 Y-17.952
X-38.062 Y-18.127
X-38.006 Y-18.284
X-37.949 Y-18.422
X-37.891 Y-18.542
X-37.835 Y-18.644
X-37.78 Y-18.729
X-37.729 Y-18.798
X-37.68 Y-18.853
X-37.636 Y-18.896
X-37.592 Y-18.931
X-37.548 Y-18.961
X-37.5 Y-18.987
X-37.445 Y-19.011
X-37.379 Y-19.034
X-37.297 Y-19.054
X-37.198 Y-19.07
X-37.052 Y-19.084
X-33.043 Y-19.329
X-33.032
X-29 Y-19.603
X-28.989 Y-19.604
X-24.959 Y-19.905
X-24.949 Y-19.906
X-20.921 Y-20.232
X-20.912 Y-20.233
X-16.889 Y-20.584
X-16.88 Y-20.585
X-12.863 Y-20.96
X-12.854 Y-20.961
X-8.844 Y-21.36
X-8.835
X-4.834 Y-21.781
G2 X-3.412 Y-23.36 I-0.166 J-1.579
G1 Y-28.219
G2 X-5 Y-29.807 I-1.588 J0
G1 X-8.84
Y-36.317
G2 X-10.428 Y-37.904 I-1.587 J0
G3 X-10.84 Y-38.317 I0 J-0.412
G1 Y-56.317
G2 X-12.428 Y-57.904 I-1.587 J0
G1 X-42.428
G2 X-44.015 Y-56.317 I0 J1.588
G1 Y-42.904
X-58.34
Z-3
X-66.515
Z-3.6 F333.3
X-98.34 F1000
Z-3
X-106.516
Z-3.6 F333.3
X-120.84 F1000
Y-56.317
G2 X-122.428 Y-57.904 I-1.588 J0
G1 X-140.058
G2 X-141.645 Y-56.317 I0 J1.588
G1 Y-38.317
G3 X-142.058 Y-37.904 I-0.413 J0
G2 X-143.645 Y-36.317 I0 J1.588
G1 Y-32.704
X-148.058
G2 X-149.645 Y-31.116 I0 J1.587
G1 Y-28.439
G2 X-148.409 Y-26.891 I1.587 J0
G3 X-148.169 Y-26.511 I-0.07 J0.31
G1 X-148.239 Y-26.202
X-148.255 Y-26.133 Z-3.592
X-148.27 Y-26.067 Z-3.569
X-148.283 Y-26.009 Z-3.531
X-148.294 Y-25.959 Z-3.48
X-148.303 Y-25.923 Z-3.42
X-148.308 Y-25.9 Z-3.353
X-148.309 Y-25.892 Z-3.283
Z5
X-148.929 Y-26.032
Z-1.6 F333.3
Z-3.883
X-148.927 Y-26.04 Z-3.953 F1000
X-148.922 Y-26.063 Z-4.02
X-148.913 Y-26.1 Z-4.08
X-148.902 Y-26.149 Z-4.131
X-148.889 Y-26.208 Z-4.169
X-148.874 Y-26.273 Z-4.192
X-148.859 Y-26.342 Z-4.2
X-148.789 Y-26.652
G3 X-148.409 Y-26.891 I0.31 J0.07
G1 X-145.856 Y-26.313
X-145.843 Y-26.31
X-143.287 Y-25.754
X-143.274 Y-25.751
X-140.715 Y-25.216
X-140.701 Y-25.214
X-138.138 Y-24.701
X-138.126 Y-24.699
X-135.628 Y-24.22
X-135.615 Y-24.218
X-133.114 Y-23.759
X-133.102 Y-23.757
X-130.598 Y-23.318
X-130.586 Y-23.316
X-128.078 Y-22.897
X-128.066 Y-22.895
X-125.556 Y-22.496
X-125.543 Y-22.494
X-123.029 Y-22.114
X-123.018 Y-22.112
X-122.013 Y-21.968
Z-3
X-120.502 Y-21.751
X-120.49 Y-21.749
X-117.97 Y-21.407
X-117.958 Y-21.406
X-115.435 Y-21.082
X-115.423 Y-21.081
X-113.908 Y-20.898
Z-4.2 F333.3
X-112.897 Y-20.776 F1000
X-112.886 Y-20.774
X-110.357 Y-20.488
X-110.346 Y-20.486
X-107.814 Y-20.218
X-107.802 Y-20.216
X-105.266 Y-19.966
X-105.255 Y-19.964
X-102.717 Y-19.731
X-102.706 Y-19.73
X-100.164 Y-19.515
X-100.153 Y-19.514
X-97.625 Y-19.316
X-97.435 Y-19.298
X-97.274 Y-19.274
X-97.119 Y-19.243
X-96.97 Y-19.206
X-96.825 Y-19.161
X-96.685 Y-19.11
X-96.548 Y-19.052
X-96.412 Y-18.986
X-96.278 Y-18.912
X-96.146 Y-18.831
X-96.013 Y-18.74
X-95.88 Y-18.641
X-95.748 Y-18.532
X-95.625 Y-18.423
X-95.346 Y-18.143
X-95.076 Y-17.834
X-94.805 Y-17.484
X-94.533 Y-17.095
X-94.26 Y-16.669
X-93.985 Y-16.208
X-93.708 Y-15.717
X-93.428 Y-15.198
X-93.144 Y-14.656
X-92.555 Y-13.519
X-92.548 Y-13.505
X-91.931 Y-12.341
X-91.916 Y-12.314
X-91.593 Y-11.731
X-91.578 Y-11.705
X-91.243 Y-11.126
X-91.224 Y-11.094
X-90.874 Y-10.522
X-90.85 Y-10.484
X-90.484 Y-9.922
X-90.455 Y-9.879
X-90.072 Y-9.33
X-90.037 Y-9.282
X-89.634 Y-8.75
X-89.593 Y-8.698
X-89.403 Y-8.467
Z-3
X-89.169 Y-8.184
X-89.121 Y-8.128
X-88.676 Y-7.636
X-88.621 Y-7.578
X-88.152 Y-7.11
X-88.089 Y-7.051
X-87.596 Y-6.61
X-87.527 Y-6.551
X-87.009 Y-6.138
X-86.952 Y-6.095
X-86.684 Y-5.9
X-86.644 Y-5.873
X-86.369 Y-5.685
X-86.329 Y-5.658
X-86.047 Y-5.479
X-86.006 Y-5.454
X-85.718 Y-5.283
X-85.675 Y-5.258
X-85.381 Y-5.095
X-85.338 Y-5.072
X-85.038 Y-4.918
X-84.994 Y-4.896
X-84.687 Y-4.75
X-84.643 Y-4.73
X-84.331 Y-4.593
X-84.287 Y-4.575
X-83.968 Y-4.446
X-83.924 Y-4.429
X-83.6 Y-4.31
X-83.557 Y-4.294
X-83.227 Y-4.183
X-83.185 Y-4.169
X-82.85 Y-4.067
X-82.787 Y-4.049
X-82.562 Y-3.99
Z-4.2 F333.3
X-82.103 Y-3.871 F1000
X-82.022 Y-3.852
X-81.32 Y-3.707
X-81.243 Y-3.693
X-80.526 Y-3.582
X-80.455 Y-3.572
X-79.725 Y-3.493
X-79.658 Y-3.487
X-78.92 Y-3.438
X-78.858 Y-3.435
X-78.113 Y-3.414
X-78.057 Y-3.413
X-77.309 Y-3.419
X-77.258 Y-3.421
X-76.51 Y-3.451
X-76.464 Y-3.453
X-75.72 Y-3.505
X-75.679 Y-3.508
X-74.941 Y-3.579
X-74.904 Y-3.583
X-74.176 Y-3.67
X-74.144 Y-3.674
X-73.427 Y-3.774
X-73.399 Y-3.778
X-72.696 Y-3.889
X-72.673 Y-3.893
X-71.985 Y-4.012
X-71.966 Y-4.016
X-71.295 Y-4.14
X-71.28 Y-4.143
X-70.628 Y-4.271
X-70.617 Y-4.273
X-69.982 Y-4.402
X-69.975 Y-4.403
X-69.358 Y-4.531
X-69.356 Y-4.532
X-68.757 Y-4.657
X-68.178 Y-4.777
X-67.618 Y-4.891
X-67.077 Y-4.996
X-66.552 Y-5.092
X-66.042 Y-5.178
X-65.545 Y-5.254
X-65.059 Y-5.317
X-64.58 Y-5.368
X-64.106 Y-5.407
X-63.635 Y-5.433
X-63.163 Y-5.446
X-62.686 Y-5.445
X-62.203 Y-5.431
X-61.71 Y-5.403
X-61.205 Y-5.361
X-60.685 Y-5.306
X-60.148 Y-5.238
X-59.593 Y-5.157
X-59.018 Y-5.064
X-58.423 Y-4.961
X-57.807 Y-4.847
X-57.169 Y-4.725
X-56.509 Y-4.596
X-55.829 Y-4.463
X-55.827 Y-4.462
X-55.128 Y-4.326
X-55.122 Y-4.325
X-54.408 Y-4.188
X-54.397 Y-4.186
X-53.668 Y-4.051
X-53.653 Y-4.049
X-52.911 Y-3.919
X-52.891 Y-3.916
X-52.139 Y-3.794
X-52.114 Y-3.79
X-51.355 Y-3.68
X-51.323 Y-3.676
X-50.561 Y-3.581
X-50.522 Y-3.576
X-49.761 Y-3.5
X-49.714 Y-3.496
X-48.96 Y-3.443
X-48.903 Y-3.441
X-48.161 Y-3.415
X-48.093 Y-3.414
X-47.688 Y-3.418
Z-3
X-47.368 Y-3.42
X-47.31 Y-3.422
X-46.956 Y-3.438
X-46.912 Y-3.44
X-46.564 Y-3.466
X-46.517 Y-3.47
X-46.176 Y-3.505
X-46.126 Y-3.511
X-45.792 Y-3.556
X-45.738 Y-3.564
X-45.412 Y-3.619
X-45.355 Y-3.63
X-45.038 Y-3.696
X-44.977 Y-3.71
X-44.668 Y-3.787
X-44.604 Y-3.805
X-44.305 Y-3.893
X-44.238 Y-3.914
X-43.949 Y-4.013
X-43.879 Y-4.039
X-43.6 Y-4.15
X-43.529 Y-4.18
X-43.26 Y-4.302
X-43.187 Y-4.337
X-42.929 Y-4.471
X-42.856 Y-4.511
X-42.608 Y-4.656
X-42.536 Y-4.701
X-42.298 Y-4.857
X-42.228 Y-4.906
X-42.001 Y-5.074
X-41.932 Y-5.128
X-41.716 Y-5.307
X-41.651 Y-5.364
X-41.446 Y-5.554
X-41.384 Y-5.614
X-41.19 Y-5.814
X-41.132 Y-5.877
X-40.948 Y-6.088
X-40.896 Y-6.151
X-40.722 Y-6.372
X-40.674 Y-6.437
X-40.511 Y-6.668
X-40.469 Y-6.731
X-40.316 Y-6.972
Z-4.2 F333.3
X-40.278 Y-7.035 F1000
X-40.135 Y-7.285
X-40.101 Y-7.346
X-39.968 Y-7.605
X-39.939 Y-7.664
X-39.815 Y-7.931
X-39.79 Y-7.988
X-39.675 Y-8.263
X-39.654 Y-8.317
X-39.547 Y-8.6
X-39.53 Y-8.65
X-39.432 Y-8.94
X-39.41 Y-9.01
X-39.238 Y-9.609
X-39.217 Y-9.691
X-39.074 Y-10.312
X-39.06 Y-10.381
X-38.943 Y-11.02
X-38.933 Y-11.077
X-38.838 Y-11.729
X-38.832 Y-11.773
X-38.754 Y-12.435
X-38.749 Y-12.478
X-38.629 Y-13.807
X-38.627 Y-13.828
X-38.576 Y-14.485
X-38.527 Y-15.125
X-38.474 Y-15.735
X-38.414 Y-16.311
X-38.345 Y-16.845
X-38.261 Y-17.341
X-38.217 Y-17.555
X-38.168 Y-17.761
X-38.116 Y-17.952
X-38.062 Y-18.127
X-38.006 Y-18.284
X-37.949 Y-18.422
X-37.891 Y-18.542
X-37.835 Y-18.644
X-37.78 Y-18.729
X-37.729 Y-18.798
X-37.68 Y-18.853
X-37.636 Y-18.896
X-37.592 Y-18.931
X-37.548 Y-18.961
X-37.5 Y-18.987
X-37.445 Y-19.011
X-37.379 Y-19.034
X-37.297 Y-19.054
X-37.198 Y-19.07
X-37.052 Y-19.084
X-33.043 Y-19.329
X-33.032
X-29 Y-19.603
X-28.989 Y-19.604
X-24.959 Y-19.905
X-24.949 Y-19.906
X-20.921 Y-20.232
X-20.912 Y-20.233
X-16.889 Y-20.584
X-16.88 Y-20.585
X-12.863 Y-20.96
X-12.854 Y-20.961
X-8.844 Y-21.36
X-8.835
X-4.834 Y-21.781
G2 X-3.412 Y-23.36 I-0.166 J-1.579
G1 Y-28.219
G2 X-5 Y-29.807 I-1.588 J0
G1 X-8.84
Y-36.317
G2 X-10.428 Y-37.904 I-1.587 J0
G3 X-10.84 Y-38.317 I0 J-0.412
G1 Y-56.317
G2 X-12.428 Y-57.904 I-1.587 J0
G1 X-42.428
G2 X-44.015 Y-56.317 I0 J1.588
G1 Y-42.904
X-58.34
Z-3
X-66.515
Z-4.2 F333.3
X-98.34 F1000
Z-3
X-106.516
Z-4.2 F333.3
X-120.84 F1000
Y-56.317
G2 X-122.428 Y-57.904 I-1.588 J0
G1 X-140.058
G2 X-141.645 Y-56.317 I0 J1.588
G1 Y-38.317
G3 X-142.058 Y-37.904 I-0.413 J0
G2 X-143.645 Y-36.317 I0 J1.588
G1 Y-32.704
X-148.058
G2 X-149.645 Y-31.116 I0 J1.587
G1 Y-28.439
G2 X-148.409 Y-26.891 I1.587 J0
G3 X-148.169 Y-26.511 I-0.07 J0.31
G1 X-148.239 Y-26.202
X-148.255 Y-26.133 Z-4.192
X-148.27 Y-26.067 Z-4.169
X-148.283 Y-26.009 Z-4.131
X-148.294 Y-25.959 Z-4.08
X-148.303 Y-25.923 Z-4.02
X-148.308 Y-25.9 Z-3.953
X-148.309 Y-25.892 Z-3.883
Z15
G28 G91 Z0
G90
G28 G91 X0 Y0
G90
M5
M30
