(1001)
(Bearbeiten)
(  Hersteller: ChinaCnc)
(  model: 3040T)
(  description: Generic 3-axis)
(T5  D=3.175 CR=0 - ZMIN=-4.2 - Schaftfraser)
G90 G94
G17
G21
(When using Fusion 360 for Personal Use, the feedrate of)
(rapid moves is reduced to match the feedrate of cutting)
(moves, which can increase machining time. Unrestricted rapid)
(moves are available with a Fusion 360 Subscription.)

(2D-Kontur15)
T5
S6000 M3
G54
G0 X-148.927 Y-26.032
Z15
G1 Z5 F1000
Z2 F333.3
Z-0.683
X-148.925 Y-26.039 Z-0.753 F1000
X-148.92 Y-26.062 Z-0.82
X-148.912 Y-26.099 Z-0.88
X-148.901 Y-26.148 Z-0.931
X-148.887 Y-26.207 Z-0.969
X-148.873 Y-26.272 Z-0.992
X-148.857 Y-26.341 Z-1
X-148.787 Y-26.651
G3 X-148.408 Y-26.891 I0.31 J0.07
G1 X-145.41 Y-26.214
X-145.394 Y-26.211
X-142.392 Y-25.564
X-142.377 Y-25.561
X-139.377 Y-24.946
X-139.363 Y-24.944
X-136.781 Y-24.439
X-136.768 Y-24.436
X-134.184 Y-23.953
X-134.171 Y-23.951
X-131.584 Y-23.489
X-131.571 Y-23.487
X-128.982 Y-23.046
X-128.97 Y-23.044
X-126.378 Y-22.625
X-126.365 Y-22.623
X-123.77 Y-22.224
X-123.758 Y-22.222
X-121.161 Y-21.844
X-121.149 Y-21.842
X-118.549 Y-21.484
X-118.536 Y-21.482
X-115.934 Y-21.145
X-115.922 Y-21.143
X-113.317 Y-20.825
X-113.306 Y-20.824
X-110.698 Y-20.525
X-110.686 Y-20.524
X-108.076 Y-20.244
X-108.064 Y-20.243
X-105.451 Y-19.983
X-105.44 Y-19.982
X-102.825 Y-19.741
X-102.814 Y-19.74
X-100.196 Y-19.517
X-100.184 Y-19.516
X-97.586 Y-19.313
X-97.405 Y-19.294
X-97.245 Y-19.269
X-97.091 Y-19.237
X-96.943 Y-19.198
X-96.799 Y-19.152
X-96.66 Y-19.1
X-96.523 Y-19.04
X-96.388 Y-18.973
X-96.255 Y-18.898
X-96.122 Y-18.815
X-95.989 Y-18.723
X-95.857 Y-18.622
X-95.724 Y-18.511
X-95.602 Y-18.401
X-95.323 Y-18.118
X-95.053 Y-17.805
X-94.782 Y-17.452
X-94.51 Y-17.06
X-94.237 Y-16.631
X-93.962 Y-16.168
X-93.685 Y-15.675
X-93.405 Y-15.155
X-93.12 Y-14.611
X-92.531 Y-13.472
X-92.523 Y-13.458
X-91.905 Y-12.293
X-91.89 Y-12.266
X-91.567 Y-11.684
X-91.551 Y-11.657
X-91.215 Y-11.079
X-91.196 Y-11.046
X-90.845 Y-10.476
X-90.821 Y-10.437
X-90.454 Y-9.877
X-90.424 Y-9.833
X-90.04 Y-9.286
X-90.004 Y-9.238
X-89.6 Y-8.707
X-89.559 Y-8.655
X-89.134 Y-8.143
X-89.086 Y-8.087
X-88.639 Y-7.597
X-88.583 Y-7.539
X-88.113 Y-7.073
X-88.05 Y-7.014
X-87.555 Y-6.575
X-87.485 Y-6.517
X-86.966 Y-6.106
X-86.909 Y-6.063
X-86.64 Y-5.869
X-86.6 Y-5.842
X-86.325 Y-5.656
X-86.284 Y-5.629
X-86.002 Y-5.451
X-85.96 Y-5.426
X-85.671 Y-5.256
X-85.629 Y-5.232
X-85.334 Y-5.07
X-85.291 Y-5.047
X-84.99 Y-4.894
X-84.946 Y-4.873
X-84.639 Y-4.728
X-84.595 Y-4.708
X-84.282 Y-4.573
X-84.238 Y-4.554
X-83.919 Y-4.427
X-83.875 Y-4.411
X-83.551 Y-4.292
X-83.507 Y-4.277
X-83.177 Y-4.167
X-83.135 Y-4.154
X-82.799 Y-4.052
X-82.737 Y-4.035
X-82.051 Y-3.859
X-81.971 Y-3.84
X-81.269 Y-3.698
X-81.193 Y-3.684
X-80.475 Y-3.575
X-80.404 Y-3.566
X-79.674 Y-3.488
X-79.608 Y-3.482
X-78.869 Y-3.435
X-78.808 Y-3.432
X-78.064 Y-3.414
X-78.008 Y-3.413
X-77.26 Y-3.421
X-77.209 Y-3.422
X-76.462 Y-3.453
X-76.417 Y-3.456
X-75.673 Y-3.509
X-75.632 Y-3.512
X-74.895 Y-3.584
X-74.859 Y-3.588
X-74.131 Y-3.676
X-74.1 Y-3.68
X-73.384 Y-3.781
X-73.357 Y-3.785
X-72.655 Y-3.896
X-72.632 Y-3.9
X-71.946 Y-4.019
X-71.927 Y-4.023
X-71.258 Y-4.147
X-71.243 Y-4.15
X-70.592 Y-4.278
X-70.581 Y-4.28
X-69.948 Y-4.409
X-69.941 Y-4.41
X-69.326 Y-4.538
X-69.324 Y-4.539
X-68.726 Y-4.663
X-68.149 Y-4.783
X-67.59 Y-4.896
X-67.05 Y-5.001
X-66.527 Y-5.097
X-66.018 Y-5.182
X-65.522 Y-5.257
X-65.036 Y-5.32
X-64.558 Y-5.371
X-64.085 Y-5.409
X-63.614 Y-5.434
X-63.142 Y-5.446
X-62.666 Y-5.445
X-62.182 Y-5.43
X-61.689 Y-5.401
X-61.184 Y-5.359
X-60.663 Y-5.304
X-60.126 Y-5.235
X-59.571 Y-5.154
X-58.996 Y-5.06
X-58.4 Y-4.956
X-57.783 Y-4.843
X-57.145 Y-4.721
X-56.485 Y-4.592
X-55.805 Y-4.458
X-55.802 Y-4.457
X-55.104 Y-4.321
X-55.098 Y-4.32
X-54.383 Y-4.183
X-54.373 Y-4.181
X-53.644 Y-4.047
X-53.629 Y-4.044
X-52.887 Y-3.915
X-52.867 Y-3.912
X-52.115 Y-3.791
X-52.089 Y-3.787
X-51.33 Y-3.677
X-51.299 Y-3.673
X-50.537 Y-3.578
X-50.498 Y-3.574
X-49.738 Y-3.498
X-49.691 Y-3.494
X-48.937 Y-3.442
X-48.88 Y-3.439
X-48.139 Y-3.415
X-48.071 Y-3.414
X-47.347 Y-3.421
X-47.288 Y-3.423
X-46.935 Y-3.439
X-46.891 Y-3.442
X-46.544 Y-3.467
X-46.497 Y-3.472
X-46.156 Y-3.507
X-46.106 Y-3.513
X-45.773 Y-3.559
X-45.719 Y-3.567
X-45.393 Y-3.623
X-45.336 Y-3.634
X-45.019 Y-3.7
X-44.958 Y-3.714
X-44.65 Y-3.792
X-44.586 Y-3.81
X-44.288 Y-3.898
X-44.221 Y-3.92
X-43.932 Y-4.02
X-43.863 Y-4.045
X-43.584 Y-4.157
X-43.513 Y-4.187
X-43.244 Y-4.31
X-43.172 Y-4.345
X-42.914 Y-4.479
X-42.841 Y-4.519
X-42.594 Y-4.665
X-42.522 Y-4.71
X-42.285 Y-4.866
X-42.215 Y-4.916
X-41.988 Y-5.084
X-41.92 Y-5.138
X-41.704 Y-5.317
X-41.64 Y-5.374
X-41.435 Y-5.564
X-41.374 Y-5.624
X-41.18 Y-5.825
X-41.122 Y-5.887
X-40.939 Y-6.099
X-40.887 Y-6.162
X-40.714 Y-6.384
X-40.666 Y-6.448
X-40.504 Y-6.679
X-40.461 Y-6.743
X-40.308 Y-6.984
X-40.271 Y-7.047
X-40.128 Y-7.297
X-40.095 Y-7.358
X-39.962 Y-7.617
X-39.933 Y-7.676
X-39.81 Y-7.943
X-39.785 Y-8
X-39.67 Y-8.275
X-39.649 Y-8.328
X-39.543 Y-8.611
X-39.525 Y-8.662
X-39.428 Y-8.952
X-39.406 Y-9.021
X-39.235 Y-9.62
X-39.214 Y-9.702
X-39.072 Y-10.323
X-39.058 Y-10.392
X-38.941 Y-11.031
X-38.932 Y-11.087
X-38.836 Y-11.739
X-38.831 Y-11.783
X-38.753 Y-12.444
X-38.748 Y-12.487
X-38.628 Y-13.815
X-38.626 Y-13.836
X-38.576 Y-14.492
X-38.526 Y-15.131
X-38.473 Y-15.741
X-38.414 Y-16.316
X-38.344 Y-16.849
X-38.26 Y-17.344
X-38.216 Y-17.557
X-38.168 Y-17.764
X-38.116 Y-17.955
X-38.061 Y-18.129
X-38.005 Y-18.285
X-37.948 Y-18.423
X-37.891 Y-18.543
X-37.834 Y-18.645
X-37.78 Y-18.73
X-37.728 Y-18.798
X-37.68 Y-18.853
X-37.635 Y-18.896
X-37.592 Y-18.931
X-37.548 Y-18.961
X-37.5 Y-18.987
X-37.445 Y-19.011
X-37.378 Y-19.034
X-37.297 Y-19.054
X-37.199 Y-19.07
X-37.053 Y-19.083
X-33.726 Y-19.285
X-33.717
X-30.366 Y-19.507
X-30.358 Y-19.508
X-27.009 Y-19.749
X-27
X-23.654 Y-20.008
X-23.645 Y-20.009
X-20.302 Y-20.285
X-20.294
X-16.954 Y-20.579
X-16.946
X-13.611 Y-20.889
X-13.603 Y-20.89
X-10.273 Y-21.215
X-10.266 Y-21.216
X-7.551 Y-21.493
X-7.545 Y-21.494
X-4.833 Y-21.781
G2 X-3.412 Y-23.36 I-0.167 J-1.579
G1 Y-28.219
G2 X-5 Y-29.807 I-1.588 J0
G1 X-8.84
Y-36.219
G2 X-10.428 Y-37.807 I-1.587 J0
G3 X-10.84 Y-38.219 I0 J-0.413
G1 Y-56.219
G2 X-12.428 Y-57.807 I-1.587 J0
G1 X-42.428
G2 X-44.015 Y-56.219 I0 J1.587
G1 Y-42.807
X-120.84
Y-56.219
G2 X-122.428 Y-57.807 I-1.588 J0
G1 X-140.058
G2 X-141.645 Y-56.219 I0 J1.587
G1 Y-38.219
G3 X-142.058 Y-37.807 I-0.413 J0
G2 X-143.645 Y-36.219 I0 J1.587
G1 Y-32.704
X-148.058
G2 X-149.645 Y-31.116 I0 J1.587
G1 Y-28.439
G2 X-148.408 Y-26.891 I1.587 J0
G3 X-148.168 Y-26.511 I-0.07 J0.31
G1 X-148.238 Y-26.201
X-148.253 Y-26.133 Z-0.992
X-148.268 Y-26.067 Z-0.969
X-148.281 Y-26.008 Z-0.931
X-148.292 Y-25.959 Z-0.88
X-148.301 Y-25.922 Z-0.82
X-148.306 Y-25.899 Z-0.753
X-148.308 Y-25.892 Z-0.683
Z5
X-148.927 Y-26.032
Z1 F333.3
Z-1.683
X-148.925 Y-26.039 Z-1.753 F1000
X-148.92 Y-26.062 Z-1.82
X-148.912 Y-26.099 Z-1.88
X-148.901 Y-26.148 Z-1.931
X-148.887 Y-26.207 Z-1.969
X-148.873 Y-26.272 Z-1.992
X-148.857 Y-26.341 Z-2
X-148.787 Y-26.651
G3 X-148.408 Y-26.891 I0.31 J0.07
G1 X-145.41 Y-26.214
X-145.394 Y-26.211
X-142.392 Y-25.564
X-142.377 Y-25.561
X-139.377 Y-24.946
X-139.363 Y-24.944
X-136.781 Y-24.439
X-136.768 Y-24.436
X-134.184 Y-23.953
X-134.171 Y-23.951
X-131.584 Y-23.489
X-131.571 Y-23.487
X-128.982 Y-23.046
X-128.97 Y-23.044
X-126.378 Y-22.625
X-126.365 Y-22.623
X-123.77 Y-22.224
X-123.758 Y-22.222
X-121.161 Y-21.844
X-121.149 Y-21.842
X-118.549 Y-21.484
X-118.536 Y-21.482
X-115.934 Y-21.145
X-115.922 Y-21.143
X-113.317 Y-20.825
X-113.306 Y-20.824
X-110.698 Y-20.525
X-110.686 Y-20.524
X-108.076 Y-20.244
X-108.064 Y-20.243
X-105.451 Y-19.983
X-105.44 Y-19.982
X-102.825 Y-19.741
X-102.814 Y-19.74
X-100.196 Y-19.517
X-100.184 Y-19.516
X-97.586 Y-19.313
X-97.405 Y-19.294
X-97.245 Y-19.269
X-97.091 Y-19.237
X-96.943 Y-19.198
X-96.799 Y-19.152
X-96.66 Y-19.1
X-96.523 Y-19.04
X-96.388 Y-18.973
X-96.255 Y-18.898
X-96.122 Y-18.815
X-95.989 Y-18.723
X-95.857 Y-18.622
X-95.724 Y-18.511
X-95.602 Y-18.401
X-95.323 Y-18.118
X-95.053 Y-17.805
X-94.782 Y-17.452
X-94.51 Y-17.06
X-94.237 Y-16.631
X-93.962 Y-16.168
X-93.685 Y-15.675
X-93.405 Y-15.155
X-93.12 Y-14.611
X-92.531 Y-13.472
X-92.523 Y-13.458
X-91.905 Y-12.293
X-91.89 Y-12.266
X-91.567 Y-11.684
X-91.551 Y-11.657
X-91.215 Y-11.079
X-91.196 Y-11.046
X-90.845 Y-10.476
X-90.821 Y-10.437
X-90.454 Y-9.877
X-90.424 Y-9.833
X-90.04 Y-9.286
X-90.004 Y-9.238
X-89.6 Y-8.707
X-89.559 Y-8.655
X-89.134 Y-8.143
X-89.086 Y-8.087
X-88.639 Y-7.597
X-88.583 Y-7.539
X-88.113 Y-7.073
X-88.05 Y-7.014
X-87.555 Y-6.575
X-87.485 Y-6.517
X-86.966 Y-6.106
X-86.909 Y-6.063
X-86.64 Y-5.869
X-86.6 Y-5.842
X-86.325 Y-5.656
X-86.284 Y-5.629
X-86.002 Y-5.451
X-85.96 Y-5.426
X-85.671 Y-5.256
X-85.629 Y-5.232
X-85.334 Y-5.07
X-85.291 Y-5.047
X-84.99 Y-4.894
X-84.946 Y-4.873
X-84.639 Y-4.728
X-84.595 Y-4.708
X-84.282 Y-4.573
X-84.238 Y-4.554
X-83.919 Y-4.427
X-83.875 Y-4.411
X-83.551 Y-4.292
X-83.507 Y-4.277
X-83.177 Y-4.167
X-83.135 Y-4.154
X-82.799 Y-4.052
X-82.737 Y-4.035
X-82.051 Y-3.859
X-81.971 Y-3.84
X-81.269 Y-3.698
X-81.193 Y-3.684
X-80.475 Y-3.575
X-80.404 Y-3.566
X-79.674 Y-3.488
X-79.608 Y-3.482
X-78.869 Y-3.435
X-78.808 Y-3.432
X-78.064 Y-3.414
X-78.008 Y-3.413
X-77.26 Y-3.421
X-77.209 Y-3.422
X-76.462 Y-3.453
X-76.417 Y-3.456
X-75.673 Y-3.509
X-75.632 Y-3.512
X-74.895 Y-3.584
X-74.859 Y-3.588
X-74.131 Y-3.676
X-74.1 Y-3.68
X-73.384 Y-3.781
X-73.357 Y-3.785
X-72.655 Y-3.896
X-72.632 Y-3.9
X-71.946 Y-4.019
X-71.927 Y-4.023
X-71.258 Y-4.147
X-71.243 Y-4.15
X-70.592 Y-4.278
X-70.581 Y-4.28
X-69.948 Y-4.409
X-69.941 Y-4.41
X-69.326 Y-4.538
X-69.324 Y-4.539
X-68.726 Y-4.663
X-68.149 Y-4.783
X-67.59 Y-4.896
X-67.05 Y-5.001
X-66.527 Y-5.097
X-66.018 Y-5.182
X-65.522 Y-5.257
X-65.036 Y-5.32
X-64.558 Y-5.371
X-64.085 Y-5.409
X-63.614 Y-5.434
X-63.142 Y-5.446
X-62.666 Y-5.445
X-62.182 Y-5.43
X-61.689 Y-5.401
X-61.184 Y-5.359
X-60.663 Y-5.304
X-60.126 Y-5.235
X-59.571 Y-5.154
X-58.996 Y-5.06
X-58.4 Y-4.956
X-57.783 Y-4.843
X-57.145 Y-4.721
X-56.485 Y-4.592
X-55.805 Y-4.458
X-55.802 Y-4.457
X-55.104 Y-4.321
X-55.098 Y-4.32
X-54.383 Y-4.183
X-54.373 Y-4.181
X-53.644 Y-4.047
X-53.629 Y-4.044
X-52.887 Y-3.915
X-52.867 Y-3.912
X-52.115 Y-3.791
X-52.089 Y-3.787
X-51.33 Y-3.677
X-51.299 Y-3.673
X-50.537 Y-3.578
X-50.498 Y-3.574
X-49.738 Y-3.498
X-49.691 Y-3.494
X-48.937 Y-3.442
X-48.88 Y-3.439
X-48.139 Y-3.415
X-48.071 Y-3.414
X-47.347 Y-3.421
X-47.288 Y-3.423
X-46.935 Y-3.439
X-46.891 Y-3.442
X-46.544 Y-3.467
X-46.497 Y-3.472
X-46.156 Y-3.507
X-46.106 Y-3.513
X-45.773 Y-3.559
X-45.719 Y-3.567
X-45.393 Y-3.623
X-45.336 Y-3.634
X-45.019 Y-3.7
X-44.958 Y-3.714
X-44.65 Y-3.792
X-44.586 Y-3.81
X-44.288 Y-3.898
X-44.221 Y-3.92
X-43.932 Y-4.02
X-43.863 Y-4.045
X-43.584 Y-4.157
X-43.513 Y-4.187
X-43.244 Y-4.31
X-43.172 Y-4.345
X-42.914 Y-4.479
X-42.841 Y-4.519
X-42.594 Y-4.665
X-42.522 Y-4.71
X-42.285 Y-4.866
X-42.215 Y-4.916
X-41.988 Y-5.084
X-41.92 Y-5.138
X-41.704 Y-5.317
X-41.64 Y-5.374
X-41.435 Y-5.564
X-41.374 Y-5.624
X-41.18 Y-5.825
X-41.122 Y-5.887
X-40.939 Y-6.099
X-40.887 Y-6.162
X-40.714 Y-6.384
X-40.666 Y-6.448
X-40.504 Y-6.679
X-40.461 Y-6.743
X-40.308 Y-6.984
X-40.271 Y-7.047
X-40.128 Y-7.297
X-40.095 Y-7.358
X-39.962 Y-7.617
X-39.933 Y-7.676
X-39.81 Y-7.943
X-39.785 Y-8
X-39.67 Y-8.275
X-39.649 Y-8.328
X-39.543 Y-8.611
X-39.525 Y-8.662
X-39.428 Y-8.952
X-39.406 Y-9.021
X-39.235 Y-9.62
X-39.214 Y-9.702
X-39.072 Y-10.323
X-39.058 Y-10.392
X-38.941 Y-11.031
X-38.932 Y-11.087
X-38.836 Y-11.739
X-38.831 Y-11.783
X-38.753 Y-12.444
X-38.748 Y-12.487
X-38.628 Y-13.815
X-38.626 Y-13.836
X-38.576 Y-14.492
X-38.526 Y-15.131
X-38.473 Y-15.741
X-38.414 Y-16.316
X-38.344 Y-16.849
X-38.26 Y-17.344
X-38.216 Y-17.557
X-38.168 Y-17.764
X-38.116 Y-17.955
X-38.061 Y-18.129
X-38.005 Y-18.285
X-37.948 Y-18.423
X-37.891 Y-18.543
X-37.834 Y-18.645
X-37.78 Y-18.73
X-37.728 Y-18.798
X-37.68 Y-18.853
X-37.635 Y-18.896
X-37.592 Y-18.931
X-37.548 Y-18.961
X-37.5 Y-18.987
X-37.445 Y-19.011
X-37.378 Y-19.034
X-37.297 Y-19.054
X-37.199 Y-19.07
X-37.053 Y-19.083
X-33.726 Y-19.285
X-33.717
X-30.366 Y-19.507
X-30.358 Y-19.508
X-27.009 Y-19.749
X-27
X-23.654 Y-20.008
X-23.645 Y-20.009
X-20.302 Y-20.285
X-20.294
X-16.954 Y-20.579
X-16.946
X-13.611 Y-20.889
X-13.603 Y-20.89
X-10.273 Y-21.215
X-10.266 Y-21.216
X-7.551 Y-21.493
X-7.545 Y-21.494
X-4.833 Y-21.781
G2 X-3.412 Y-23.36 I-0.167 J-1.579
G1 Y-28.219
G2 X-5 Y-29.807 I-1.588 J0
G1 X-8.84
Y-36.219
G2 X-10.428 Y-37.807 I-1.587 J0
G3 X-10.84 Y-38.219 I0 J-0.413
G1 Y-56.219
G2 X-12.428 Y-57.807 I-1.587 J0
G1 X-42.428
G2 X-44.015 Y-56.219 I0 J1.587
G1 Y-42.807
X-120.84
Y-56.219
G2 X-122.428 Y-57.807 I-1.588 J0
G1 X-140.058
G2 X-141.645 Y-56.219 I0 J1.587
G1 Y-38.219
G3 X-142.058 Y-37.807 I-0.413 J0
G2 X-143.645 Y-36.219 I0 J1.587
G1 Y-32.704
X-148.058
G2 X-149.645 Y-31.116 I0 J1.587
G1 Y-28.439
G2 X-148.408 Y-26.891 I1.587 J0
G3 X-148.168 Y-26.511 I-0.07 J0.31
G1 X-148.238 Y-26.201
X-148.253 Y-26.133 Z-1.992
X-148.268 Y-26.067 Z-1.969
X-148.281 Y-26.008 Z-1.931
X-148.292 Y-25.959 Z-1.88
X-148.301 Y-25.922 Z-1.82
X-148.306 Y-25.899 Z-1.753
X-148.308 Y-25.892 Z-1.683
Z5
X-148.927 Y-26.032
Z0 F333.3
Z-2.683
X-148.925 Y-26.039 Z-2.753 F1000
X-148.92 Y-26.062 Z-2.82
X-148.912 Y-26.099 Z-2.88
X-148.901 Y-26.148 Z-2.931
X-148.887 Y-26.207 Z-2.969
X-148.873 Y-26.272 Z-2.992
X-148.857 Y-26.341 Z-3
X-148.787 Y-26.651
G3 X-148.408 Y-26.891 I0.31 J0.07
G1 X-145.41 Y-26.214
X-145.394 Y-26.211
X-142.392 Y-25.564
X-142.377 Y-25.561
X-139.377 Y-24.946
X-139.363 Y-24.944
X-136.781 Y-24.439
X-136.768 Y-24.436
X-134.184 Y-23.953
X-134.171 Y-23.951
X-131.584 Y-23.489
X-131.571 Y-23.487
X-128.982 Y-23.046
X-128.97 Y-23.044
X-126.378 Y-22.625
X-126.365 Y-22.623
X-123.77 Y-22.224
X-123.758 Y-22.222
X-121.161 Y-21.844
X-121.149 Y-21.842
X-118.549 Y-21.484
X-118.536 Y-21.482
X-115.934 Y-21.145
X-115.922 Y-21.143
X-113.317 Y-20.825
X-113.306 Y-20.824
X-110.698 Y-20.525
X-110.686 Y-20.524
X-108.076 Y-20.244
X-108.064 Y-20.243
X-105.451 Y-19.983
X-105.44 Y-19.982
X-102.825 Y-19.741
X-102.814 Y-19.74
X-100.196 Y-19.517
X-100.184 Y-19.516
X-97.586 Y-19.313
X-97.405 Y-19.294
X-97.245 Y-19.269
X-97.091 Y-19.237
X-96.943 Y-19.198
X-96.799 Y-19.152
X-96.66 Y-19.1
X-96.523 Y-19.04
X-96.388 Y-18.973
X-96.255 Y-18.898
X-96.122 Y-18.815
X-95.989 Y-18.723
X-95.857 Y-18.622
X-95.724 Y-18.511
X-95.602 Y-18.401
X-95.323 Y-18.118
X-95.053 Y-17.805
X-94.782 Y-17.452
X-94.51 Y-17.06
X-94.237 Y-16.631
X-93.962 Y-16.168
X-93.685 Y-15.675
X-93.405 Y-15.155
X-93.12 Y-14.611
X-92.531 Y-13.472
X-92.523 Y-13.458
X-91.905 Y-12.293
X-91.89 Y-12.266
X-91.567 Y-11.684
X-91.551 Y-11.657
X-91.215 Y-11.079
X-91.196 Y-11.046
X-90.845 Y-10.476
X-90.821 Y-10.437
X-90.454 Y-9.877
X-90.424 Y-9.833
X-90.04 Y-9.286
X-90.004 Y-9.238
X-89.6 Y-8.707
X-89.559 Y-8.655
X-89.134 Y-8.143
X-89.086 Y-8.087
X-88.639 Y-7.597
X-88.583 Y-7.539
X-88.113 Y-7.073
X-88.05 Y-7.014
X-87.555 Y-6.575
X-87.485 Y-6.517
X-86.966 Y-6.106
X-86.909 Y-6.063
X-86.64 Y-5.869
X-86.6 Y-5.842
X-86.325 Y-5.656
X-86.284 Y-5.629
X-86.002 Y-5.451
X-85.96 Y-5.426
X-85.671 Y-5.256
X-85.629 Y-5.232
X-85.334 Y-5.07
X-85.291 Y-5.047
X-84.99 Y-4.894
X-84.946 Y-4.873
X-84.639 Y-4.728
X-84.595 Y-4.708
X-84.282 Y-4.573
X-84.238 Y-4.554
X-83.919 Y-4.427
X-83.875 Y-4.411
X-83.551 Y-4.292
X-83.507 Y-4.277
X-83.177 Y-4.167
X-83.135 Y-4.154
X-82.799 Y-4.052
X-82.737 Y-4.035
X-82.051 Y-3.859
X-81.971 Y-3.84
X-81.269 Y-3.698
X-81.193 Y-3.684
X-80.475 Y-3.575
X-80.404 Y-3.566
X-79.674 Y-3.488
X-79.608 Y-3.482
X-78.869 Y-3.435
X-78.808 Y-3.432
X-78.064 Y-3.414
X-78.008 Y-3.413
X-77.26 Y-3.421
X-77.209 Y-3.422
X-76.462 Y-3.453
X-76.417 Y-3.456
X-75.673 Y-3.509
X-75.632 Y-3.512
X-74.895 Y-3.584
X-74.859 Y-3.588
X-74.131 Y-3.676
X-74.1 Y-3.68
X-73.384 Y-3.781
X-73.357 Y-3.785
X-72.655 Y-3.896
X-72.632 Y-3.9
X-71.946 Y-4.019
X-71.927 Y-4.023
X-71.258 Y-4.147
X-71.243 Y-4.15
X-70.592 Y-4.278
X-70.581 Y-4.28
X-69.948 Y-4.409
X-69.941 Y-4.41
X-69.326 Y-4.538
X-69.324 Y-4.539
X-68.726 Y-4.663
X-68.149 Y-4.783
X-67.59 Y-4.896
X-67.05 Y-5.001
X-66.527 Y-5.097
X-66.018 Y-5.182
X-65.522 Y-5.257
X-65.036 Y-5.32
X-64.558 Y-5.371
X-64.085 Y-5.409
X-63.614 Y-5.434
X-63.142 Y-5.446
X-62.666 Y-5.445
X-62.182 Y-5.43
X-61.689 Y-5.401
X-61.184 Y-5.359
X-60.663 Y-5.304
X-60.126 Y-5.235
X-59.571 Y-5.154
X-58.996 Y-5.06
X-58.4 Y-4.956
X-57.783 Y-4.843
X-57.145 Y-4.721
X-56.485 Y-4.592
X-55.805 Y-4.458
X-55.802 Y-4.457
X-55.104 Y-4.321
X-55.098 Y-4.32
X-54.383 Y-4.183
X-54.373 Y-4.181
X-53.644 Y-4.047
X-53.629 Y-4.044
X-52.887 Y-3.915
X-52.867 Y-3.912
X-52.115 Y-3.791
X-52.089 Y-3.787
X-51.33 Y-3.677
X-51.299 Y-3.673
X-50.537 Y-3.578
X-50.498 Y-3.574
X-49.738 Y-3.498
X-49.691 Y-3.494
X-48.937 Y-3.442
X-48.88 Y-3.439
X-48.139 Y-3.415
X-48.071 Y-3.414
X-47.347 Y-3.421
X-47.288 Y-3.423
X-46.935 Y-3.439
X-46.891 Y-3.442
X-46.544 Y-3.467
X-46.497 Y-3.472
X-46.156 Y-3.507
X-46.106 Y-3.513
X-45.773 Y-3.559
X-45.719 Y-3.567
X-45.393 Y-3.623
X-45.336 Y-3.634
X-45.019 Y-3.7
X-44.958 Y-3.714
X-44.65 Y-3.792
X-44.586 Y-3.81
X-44.288 Y-3.898
X-44.221 Y-3.92
X-43.932 Y-4.02
X-43.863 Y-4.045
X-43.584 Y-4.157
X-43.513 Y-4.187
X-43.244 Y-4.31
X-43.172 Y-4.345
X-42.914 Y-4.479
X-42.841 Y-4.519
X-42.594 Y-4.665
X-42.522 Y-4.71
X-42.285 Y-4.866
X-42.215 Y-4.916
X-41.988 Y-5.084
X-41.92 Y-5.138
X-41.704 Y-5.317
X-41.64 Y-5.374
X-41.435 Y-5.564
X-41.374 Y-5.624
X-41.18 Y-5.825
X-41.122 Y-5.887
X-40.939 Y-6.099
X-40.887 Y-6.162
X-40.714 Y-6.384
X-40.666 Y-6.448
X-40.504 Y-6.679
X-40.461 Y-6.743
X-40.308 Y-6.984
X-40.271 Y-7.047
X-40.128 Y-7.297
X-40.095 Y-7.358
X-39.962 Y-7.617
X-39.933 Y-7.676
X-39.81 Y-7.943
X-39.785 Y-8
X-39.67 Y-8.275
X-39.649 Y-8.328
X-39.543 Y-8.611
X-39.525 Y-8.662
X-39.428 Y-8.952
X-39.406 Y-9.021
X-39.235 Y-9.62
X-39.214 Y-9.702
X-39.072 Y-10.323
X-39.058 Y-10.392
X-38.941 Y-11.031
X-38.932 Y-11.087
X-38.836 Y-11.739
X-38.831 Y-11.783
X-38.753 Y-12.444
X-38.748 Y-12.487
X-38.628 Y-13.815
X-38.626 Y-13.836
X-38.576 Y-14.492
X-38.526 Y-15.131
X-38.473 Y-15.741
X-38.414 Y-16.316
X-38.344 Y-16.849
X-38.26 Y-17.344
X-38.216 Y-17.557
X-38.168 Y-17.764
X-38.116 Y-17.955
X-38.061 Y-18.129
X-38.005 Y-18.285
X-37.948 Y-18.423
X-37.891 Y-18.543
X-37.834 Y-18.645
X-37.78 Y-18.73
X-37.728 Y-18.798
X-37.68 Y-18.853
X-37.635 Y-18.896
X-37.592 Y-18.931
X-37.548 Y-18.961
X-37.5 Y-18.987
X-37.445 Y-19.011
X-37.378 Y-19.034
X-37.297 Y-19.054
X-37.199 Y-19.07
X-37.053 Y-19.083
X-33.726 Y-19.285
X-33.717
X-30.366 Y-19.507
X-30.358 Y-19.508
X-27.009 Y-19.749
X-27
X-23.654 Y-20.008
X-23.645 Y-20.009
X-20.302 Y-20.285
X-20.294
X-16.954 Y-20.579
X-16.946
X-13.611 Y-20.889
X-13.603 Y-20.89
X-10.273 Y-21.215
X-10.266 Y-21.216
X-7.551 Y-21.493
X-7.545 Y-21.494
X-4.833 Y-21.781
G2 X-3.412 Y-23.36 I-0.167 J-1.579
G1 Y-28.219
G2 X-5 Y-29.807 I-1.588 J0
G1 X-8.84
Y-36.219
G2 X-10.428 Y-37.807 I-1.587 J0
G3 X-10.84 Y-38.219 I0 J-0.413
G1 Y-56.219
G2 X-12.428 Y-57.807 I-1.587 J0
G1 X-42.428
G2 X-44.015 Y-56.219 I0 J1.587
G1 Y-42.807
X-120.84
Y-56.219
G2 X-122.428 Y-57.807 I-1.588 J0
G1 X-140.058
G2 X-141.645 Y-56.219 I0 J1.587
G1 Y-38.219
G3 X-142.058 Y-37.807 I-0.413 J0
G2 X-143.645 Y-36.219 I0 J1.587
G1 Y-32.704
X-148.058
G2 X-149.645 Y-31.116 I0 J1.587
G1 Y-28.439
G2 X-148.408 Y-26.891 I1.587 J0
G3 X-148.168 Y-26.511 I-0.07 J0.31
G1 X-148.238 Y-26.201
X-148.253 Y-26.133 Z-2.992
X-148.268 Y-26.067 Z-2.969
X-148.281 Y-26.008 Z-2.931
X-148.292 Y-25.959 Z-2.88
X-148.301 Y-25.922 Z-2.82
X-148.306 Y-25.899 Z-2.753
X-148.308 Y-25.892 Z-2.683
Z5
X-148.927 Y-26.032
Z-1 F333.3
Z-3.283
X-148.925 Y-26.039 Z-3.353 F1000
X-148.92 Y-26.062 Z-3.42
X-148.912 Y-26.099 Z-3.48
X-148.901 Y-26.148 Z-3.531
X-148.887 Y-26.207 Z-3.569
X-148.873 Y-26.272 Z-3.592
X-148.857 Y-26.341 Z-3.6
X-148.787 Y-26.651
G3 X-148.408 Y-26.891 I0.31 J0.07
G1 X-145.41 Y-26.214
X-145.394 Y-26.211
X-142.392 Y-25.564
X-142.377 Y-25.561
X-139.377 Y-24.946
X-139.363 Y-24.944
X-136.781 Y-24.439
X-136.768 Y-24.436
X-134.184 Y-23.953
X-134.171 Y-23.951
X-131.584 Y-23.489
X-131.571 Y-23.487
X-128.982 Y-23.046
X-128.97 Y-23.044
X-126.378 Y-22.625
X-126.365 Y-22.623
X-123.77 Y-22.224
X-123.758 Y-22.222
X-122.59 Y-22.052
Z-3
X-121.161 Y-21.844
X-121.149 Y-21.842
X-118.549 Y-21.484
X-118.536 Y-21.482
X-115.934 Y-21.145
X-115.922 Y-21.143
X-114.488 Y-20.968
Z-3.6 F333.3
X-113.317 Y-20.825 F1000
X-113.306 Y-20.824
X-110.698 Y-20.525
X-110.686 Y-20.524
X-108.076 Y-20.244
X-108.064 Y-20.243
X-105.451 Y-19.983
X-105.44 Y-19.982
X-102.825 Y-19.741
X-102.814 Y-19.74
X-100.196 Y-19.517
X-100.184 Y-19.516
X-97.586 Y-19.313
X-97.405 Y-19.294
X-97.245 Y-19.269
X-97.091 Y-19.237
X-96.943 Y-19.198
X-96.799 Y-19.152
X-96.66 Y-19.1
X-96.523 Y-19.04
X-96.388 Y-18.973
X-96.255 Y-18.898
X-96.122 Y-18.815
X-95.989 Y-18.723
X-95.857 Y-18.622
X-95.724 Y-18.511
X-95.602 Y-18.401
X-95.323 Y-18.118
X-95.053 Y-17.805
X-94.782 Y-17.452
X-94.51 Y-17.06
X-94.237 Y-16.631
X-93.962 Y-16.168
X-93.685 Y-15.675
X-93.405 Y-15.155
X-93.12 Y-14.611
X-92.531 Y-13.472
X-92.523 Y-13.458
X-91.905 Y-12.293
X-91.89 Y-12.266
X-91.567 Y-11.684
X-91.551 Y-11.657
X-91.215 Y-11.079
X-91.196 Y-11.046
X-90.845 Y-10.476
X-90.821 Y-10.437
X-90.454 Y-9.877
X-90.424 Y-9.833
X-90.04 Y-9.286
X-90.004 Y-9.238
X-89.6 Y-8.707
X-89.559 Y-8.655
X-89.369 Y-8.426
Z-3
X-89.134 Y-8.143
X-89.086 Y-8.087
X-88.639 Y-7.597
X-88.583 Y-7.539
X-88.113 Y-7.073
X-88.05 Y-7.014
X-87.555 Y-6.575
X-87.485 Y-6.517
X-86.966 Y-6.106
X-86.909 Y-6.063
X-86.64 Y-5.869
X-86.6 Y-5.842
X-86.325 Y-5.656
X-86.284 Y-5.629
X-86.002 Y-5.451
X-85.96 Y-5.426
X-85.671 Y-5.256
X-85.629 Y-5.232
X-85.334 Y-5.07
X-85.291 Y-5.047
X-84.99 Y-4.894
X-84.946 Y-4.873
X-84.639 Y-4.728
X-84.595 Y-4.708
X-84.282 Y-4.573
X-84.238 Y-4.554
X-83.919 Y-4.427
X-83.875 Y-4.411
X-83.551 Y-4.292
X-83.507 Y-4.277
X-83.177 Y-4.167
X-83.135 Y-4.154
X-82.799 Y-4.052
X-82.737 Y-4.035
X-82.51 Y-3.977
Z-3.6 F333.3
X-82.051 Y-3.859 F1000
X-81.971 Y-3.84
X-81.269 Y-3.698
X-81.193 Y-3.684
X-80.475 Y-3.575
X-80.404 Y-3.566
X-79.674 Y-3.488
X-79.608 Y-3.482
X-78.869 Y-3.435
X-78.808 Y-3.432
X-78.064 Y-3.414
X-78.008 Y-3.413
X-77.26 Y-3.421
X-77.209 Y-3.422
X-76.462 Y-3.453
X-76.417 Y-3.456
X-75.673 Y-3.509
X-75.632 Y-3.512
X-74.895 Y-3.584
X-74.859 Y-3.588
X-74.131 Y-3.676
X-74.1 Y-3.68
X-73.384 Y-3.781
X-73.357 Y-3.785
X-72.655 Y-3.896
X-72.632 Y-3.9
X-71.946 Y-4.019
X-71.927 Y-4.023
X-71.258 Y-4.147
X-71.243 Y-4.15
X-70.592 Y-4.278
X-70.581 Y-4.28
X-69.948 Y-4.409
X-69.941 Y-4.41
X-69.326 Y-4.538
X-69.324 Y-4.539
X-68.726 Y-4.663
X-68.149 Y-4.783
X-67.59 Y-4.896
X-67.05 Y-5.001
X-66.527 Y-5.097
X-66.018 Y-5.182
X-65.522 Y-5.257
X-65.036 Y-5.32
X-64.558 Y-5.371
X-64.085 Y-5.409
X-63.614 Y-5.434
X-63.142 Y-5.446
X-62.666 Y-5.445
X-62.182 Y-5.43
X-61.689 Y-5.401
X-61.184 Y-5.359
X-60.663 Y-5.304
X-60.126 Y-5.235
X-59.571 Y-5.154
X-58.996 Y-5.06
X-58.4 Y-4.956
X-57.783 Y-4.843
X-57.145 Y-4.721
X-56.485 Y-4.592
X-55.805 Y-4.458
X-55.802 Y-4.457
X-55.104 Y-4.321
X-55.098 Y-4.32
X-54.383 Y-4.183
X-54.373 Y-4.181
X-53.644 Y-4.047
X-53.629 Y-4.044
X-52.887 Y-3.915
X-52.867 Y-3.912
X-52.115 Y-3.791
X-52.089 Y-3.787
X-51.33 Y-3.677
X-51.299 Y-3.673
X-50.537 Y-3.578
X-50.498 Y-3.574
X-49.738 Y-3.498
X-49.691 Y-3.494
X-48.937 Y-3.442
X-48.88 Y-3.439
X-48.139 Y-3.415
X-48.071 Y-3.414
X-47.672 Y-3.418
Z-3
X-47.347 Y-3.421
X-47.288 Y-3.423
X-46.935 Y-3.439
X-46.891 Y-3.442
X-46.544 Y-3.467
X-46.497 Y-3.472
X-46.156 Y-3.507
X-46.106 Y-3.513
X-45.773 Y-3.559
X-45.719 Y-3.567
X-45.393 Y-3.623
X-45.336 Y-3.634
X-45.019 Y-3.7
X-44.958 Y-3.714
X-44.65 Y-3.792
X-44.586 Y-3.81
X-44.288 Y-3.898
X-44.221 Y-3.92
X-43.932 Y-4.02
X-43.863 Y-4.045
X-43.584 Y-4.157
X-43.513 Y-4.187
X-43.244 Y-4.31
X-43.172 Y-4.345
X-42.914 Y-4.479
X-42.841 Y-4.519
X-42.594 Y-4.665
X-42.522 Y-4.71
X-42.285 Y-4.866
X-42.215 Y-4.916
X-41.988 Y-5.084
X-41.92 Y-5.138
X-41.704 Y-5.317
X-41.64 Y-5.374
X-41.435 Y-5.564
X-41.374 Y-5.624
X-41.18 Y-5.825
X-41.122 Y-5.887
X-40.939 Y-6.099
X-40.887 Y-6.162
X-40.714 Y-6.384
X-40.666 Y-6.448
X-40.504 Y-6.679
X-40.461 Y-6.743
X-40.308 Y-6.984
X-40.307 Y-6.987
Z-3.6 F333.3
X-40.271 Y-7.047 F1000
X-40.128 Y-7.297
X-40.095 Y-7.358
X-39.962 Y-7.617
X-39.933 Y-7.676
X-39.81 Y-7.943
X-39.785 Y-8
X-39.67 Y-8.275
X-39.649 Y-8.328
X-39.543 Y-8.611
X-39.525 Y-8.662
X-39.428 Y-8.952
X-39.406 Y-9.021
X-39.235 Y-9.62
X-39.214 Y-9.702
X-39.072 Y-10.323
X-39.058 Y-10.392
X-38.941 Y-11.031
X-38.932 Y-11.087
X-38.836 Y-11.739
X-38.831 Y-11.783
X-38.753 Y-12.444
X-38.748 Y-12.487
X-38.628 Y-13.815
X-38.626 Y-13.836
X-38.576 Y-14.492
X-38.526 Y-15.131
X-38.473 Y-15.741
X-38.414 Y-16.316
X-38.344 Y-16.849
X-38.26 Y-17.344
X-38.216 Y-17.557
X-38.168 Y-17.764
X-38.116 Y-17.955
X-38.061 Y-18.129
X-38.005 Y-18.285
X-37.948 Y-18.423
X-37.891 Y-18.543
X-37.834 Y-18.645
X-37.78 Y-18.73
X-37.728 Y-18.798
X-37.68 Y-18.853
X-37.635 Y-18.896
X-37.592 Y-18.931
X-37.548 Y-18.961
X-37.5 Y-18.987
X-37.445 Y-19.011
X-37.378 Y-19.034
X-37.297 Y-19.054
X-37.199 Y-19.07
X-37.053 Y-19.083
X-33.726 Y-19.285
X-33.717
X-30.366 Y-19.507
X-30.358 Y-19.508
X-27.009 Y-19.749
X-27
X-23.654 Y-20.008
X-23.645 Y-20.009
X-20.302 Y-20.285
X-20.294
X-16.954 Y-20.579
X-16.946
X-13.611 Y-20.889
X-13.603 Y-20.89
X-10.273 Y-21.215
X-10.266 Y-21.216
X-7.551 Y-21.493
X-7.545 Y-21.494
X-4.833 Y-21.781
G2 X-3.412 Y-23.36 I-0.167 J-1.579
G1 Y-28.219
G2 X-5 Y-29.807 I-1.588 J0
G1 X-8.84
Y-36.219
G2 X-10.428 Y-37.807 I-1.587 J0
G3 X-10.84 Y-38.219 I0 J-0.413
G1 Y-56.219
G2 X-12.428 Y-57.807 I-1.587 J0
G1 X-42.428
G2 X-44.015 Y-56.219 I0 J1.587
G1 Y-42.807
X-58.34
Z-3
X-66.515
Z-3.6 F333.3
X-98.34 F1000
Z-3
X-106.516
Z-3.6 F333.3
X-120.84 F1000
Y-56.219
G2 X-122.428 Y-57.807 I-1.588 J0
G1 X-140.058
G2 X-141.645 Y-56.219 I0 J1.587
G1 Y-38.219
G3 X-142.058 Y-37.807 I-0.413 J0
G2 X-143.645 Y-36.219 I0 J1.587
G1 Y-32.704
X-148.058
G2 X-149.645 Y-31.116 I0 J1.587
G1 Y-28.439
G2 X-148.408 Y-26.891 I1.587 J0
G3 X-148.168 Y-26.511 I-0.07 J0.31
G1 X-148.238 Y-26.201
X-148.253 Y-26.133 Z-3.592
X-148.268 Y-26.067 Z-3.569
X-148.281 Y-26.008 Z-3.531
X-148.292 Y-25.959 Z-3.48
X-148.301 Y-25.922 Z-3.42
X-148.306 Y-25.899 Z-3.353
X-148.308 Y-25.892 Z-3.283
Z5
X-148.927 Y-26.032
Z-1.6 F333.3
Z-3.883
X-148.925 Y-26.039 Z-3.953 F1000
X-148.92 Y-26.062 Z-4.02
X-148.912 Y-26.099 Z-4.08
X-148.901 Y-26.148 Z-4.131
X-148.887 Y-26.207 Z-4.169
X-148.873 Y-26.272 Z-4.192
X-148.857 Y-26.341 Z-4.2
X-148.787 Y-26.651
G3 X-148.408 Y-26.891 I0.31 J0.07
G1 X-145.41 Y-26.214
X-145.394 Y-26.211
X-142.392 Y-25.564
X-142.377 Y-25.561
X-139.377 Y-24.946
X-139.363 Y-24.944
X-136.781 Y-24.439
X-136.768 Y-24.436
X-134.184 Y-23.953
X-134.171 Y-23.951
X-131.584 Y-23.489
X-131.571 Y-23.487
X-128.982 Y-23.046
X-128.97 Y-23.044
X-126.378 Y-22.625
X-126.365 Y-22.623
X-123.77 Y-22.224
X-123.758 Y-22.222
X-122.59 Y-22.052
Z-3
X-121.161 Y-21.844
X-121.149 Y-21.842
X-118.549 Y-21.484
X-118.536 Y-21.482
X-115.934 Y-21.145
X-115.922 Y-21.143
X-114.488 Y-20.968
Z-4.2 F333.3
X-113.317 Y-20.825 F1000
X-113.306 Y-20.824
X-110.698 Y-20.525
X-110.686 Y-20.524
X-108.076 Y-20.244
X-108.064 Y-20.243
X-105.451 Y-19.983
X-105.44 Y-19.982
X-102.825 Y-19.741
X-102.814 Y-19.74
X-100.196 Y-19.517
X-100.184 Y-19.516
X-97.586 Y-19.313
X-97.405 Y-19.294
X-97.245 Y-19.269
X-97.091 Y-19.237
X-96.943 Y-19.198
X-96.799 Y-19.152
X-96.66 Y-19.1
X-96.523 Y-19.04
X-96.388 Y-18.973
X-96.255 Y-18.898
X-96.122 Y-18.815
X-95.989 Y-18.723
X-95.857 Y-18.622
X-95.724 Y-18.511
X-95.602 Y-18.401
X-95.323 Y-18.118
X-95.053 Y-17.805
X-94.782 Y-17.452
X-94.51 Y-17.06
X-94.237 Y-16.631
X-93.962 Y-16.168
X-93.685 Y-15.675
X-93.405 Y-15.155
X-93.12 Y-14.611
X-92.531 Y-13.472
X-92.523 Y-13.458
X-91.905 Y-12.293
X-91.89 Y-12.266
X-91.567 Y-11.684
X-91.551 Y-11.657
X-91.215 Y-11.079
X-91.196 Y-11.046
X-90.845 Y-10.476
X-90.821 Y-10.437
X-90.454 Y-9.877
X-90.424 Y-9.833
X-90.04 Y-9.286
X-90.004 Y-9.238
X-89.6 Y-8.707
X-89.559 Y-8.655
X-89.369 Y-8.426
Z-3
X-89.134 Y-8.143
X-89.086 Y-8.087
X-88.639 Y-7.597
X-88.583 Y-7.539
X-88.113 Y-7.073
X-88.05 Y-7.014
X-87.555 Y-6.575
X-87.485 Y-6.517
X-86.966 Y-6.106
X-86.909 Y-6.063
X-86.64 Y-5.869
X-86.6 Y-5.842
X-86.325 Y-5.656
X-86.284 Y-5.629
X-86.002 Y-5.451
X-85.96 Y-5.426
X-85.671 Y-5.256
X-85.629 Y-5.232
X-85.334 Y-5.07
X-85.291 Y-5.047
X-84.99 Y-4.894
X-84.946 Y-4.873
X-84.639 Y-4.728
X-84.595 Y-4.708
X-84.282 Y-4.573
X-84.238 Y-4.554
X-83.919 Y-4.427
X-83.875 Y-4.411
X-83.551 Y-4.292
X-83.507 Y-4.277
X-83.177 Y-4.167
X-83.135 Y-4.154
X-82.799 Y-4.052
X-82.737 Y-4.035
X-82.51 Y-3.977
Z-4.2 F333.3
X-82.051 Y-3.859 F1000
X-81.971 Y-3.84
X-81.269 Y-3.698
X-81.193 Y-3.684
X-80.475 Y-3.575
X-80.404 Y-3.566
X-79.674 Y-3.488
X-79.608 Y-3.482
X-78.869 Y-3.435
X-78.808 Y-3.432
X-78.064 Y-3.414
X-78.008 Y-3.413
X-77.26 Y-3.421
X-77.209 Y-3.422
X-76.462 Y-3.453
X-76.417 Y-3.456
X-75.673 Y-3.509
X-75.632 Y-3.512
X-74.895 Y-3.584
X-74.859 Y-3.588
X-74.131 Y-3.676
X-74.1 Y-3.68
X-73.384 Y-3.781
X-73.357 Y-3.785
X-72.655 Y-3.896
X-72.632 Y-3.9
X-71.946 Y-4.019
X-71.927 Y-4.023
X-71.258 Y-4.147
X-71.243 Y-4.15
X-70.592 Y-4.278
X-70.581 Y-4.28
X-69.948 Y-4.409
X-69.941 Y-4.41
X-69.326 Y-4.538
X-69.324 Y-4.539
X-68.726 Y-4.663
X-68.149 Y-4.783
X-67.59 Y-4.896
X-67.05 Y-5.001
X-66.527 Y-5.097
X-66.018 Y-5.182
X-65.522 Y-5.257
X-65.036 Y-5.32
X-64.558 Y-5.371
X-64.085 Y-5.409
X-63.614 Y-5.434
X-63.142 Y-5.446
X-62.666 Y-5.445
X-62.182 Y-5.43
X-61.689 Y-5.401
X-61.184 Y-5.359
X-60.663 Y-5.304
X-60.126 Y-5.235
X-59.571 Y-5.154
X-58.996 Y-5.06
X-58.4 Y-4.956
X-57.783 Y-4.843
X-57.145 Y-4.721
X-56.485 Y-4.592
X-55.805 Y-4.458
X-55.802 Y-4.457
X-55.104 Y-4.321
X-55.098 Y-4.32
X-54.383 Y-4.183
X-54.373 Y-4.181
X-53.644 Y-4.047
X-53.629 Y-4.044
X-52.887 Y-3.915
X-52.867 Y-3.912
X-52.115 Y-3.791
X-52.089 Y-3.787
X-51.33 Y-3.677
X-51.299 Y-3.673
X-50.537 Y-3.578
X-50.498 Y-3.574
X-49.738 Y-3.498
X-49.691 Y-3.494
X-48.937 Y-3.442
X-48.88 Y-3.439
X-48.139 Y-3.415
X-48.071 Y-3.414
X-47.672 Y-3.418
Z-3
X-47.347 Y-3.421
X-47.288 Y-3.423
X-46.935 Y-3.439
X-46.891 Y-3.442
X-46.544 Y-3.467
X-46.497 Y-3.472
X-46.156 Y-3.507
X-46.106 Y-3.513
X-45.773 Y-3.559
X-45.719 Y-3.567
X-45.393 Y-3.623
X-45.336 Y-3.634
X-45.019 Y-3.7
X-44.958 Y-3.714
X-44.65 Y-3.792
X-44.586 Y-3.81
X-44.288 Y-3.898
X-44.221 Y-3.92
X-43.932 Y-4.02
X-43.863 Y-4.045
X-43.584 Y-4.157
X-43.513 Y-4.187
X-43.244 Y-4.31
X-43.172 Y-4.345
X-42.914 Y-4.479
X-42.841 Y-4.519
X-42.594 Y-4.665
X-42.522 Y-4.71
X-42.285 Y-4.866
X-42.215 Y-4.916
X-41.988 Y-5.084
X-41.92 Y-5.138
X-41.704 Y-5.317
X-41.64 Y-5.374
X-41.435 Y-5.564
X-41.374 Y-5.624
X-41.18 Y-5.825
X-41.122 Y-5.887
X-40.939 Y-6.099
X-40.887 Y-6.162
X-40.714 Y-6.384
X-40.666 Y-6.448
X-40.504 Y-6.679
X-40.461 Y-6.743
X-40.308 Y-6.984
X-40.307 Y-6.987
Z-4.2 F333.3
X-40.271 Y-7.047 F1000
X-40.128 Y-7.297
X-40.095 Y-7.358
X-39.962 Y-7.617
X-39.933 Y-7.676
X-39.81 Y-7.943
X-39.785 Y-8
X-39.67 Y-8.275
X-39.649 Y-8.328
X-39.543 Y-8.611
X-39.525 Y-8.662
X-39.428 Y-8.952
X-39.406 Y-9.021
X-39.235 Y-9.62
X-39.214 Y-9.702
X-39.072 Y-10.323
X-39.058 Y-10.392
X-38.941 Y-11.031
X-38.932 Y-11.087
X-38.836 Y-11.739
X-38.831 Y-11.783
X-38.753 Y-12.444
X-38.748 Y-12.487
X-38.628 Y-13.815
X-38.626 Y-13.836
X-38.576 Y-14.492
X-38.526 Y-15.131
X-38.473 Y-15.741
X-38.414 Y-16.316
X-38.344 Y-16.849
X-38.26 Y-17.344
X-38.216 Y-17.557
X-38.168 Y-17.764
X-38.116 Y-17.955
X-38.061 Y-18.129
X-38.005 Y-18.285
X-37.948 Y-18.423
X-37.891 Y-18.543
X-37.834 Y-18.645
X-37.78 Y-18.73
X-37.728 Y-18.798
X-37.68 Y-18.853
X-37.635 Y-18.896
X-37.592 Y-18.931
X-37.548 Y-18.961
X-37.5 Y-18.987
X-37.445 Y-19.011
X-37.378 Y-19.034
X-37.297 Y-19.054
X-37.199 Y-19.07
X-37.053 Y-19.083
X-33.726 Y-19.285
X-33.717
X-30.366 Y-19.507
X-30.358 Y-19.508
X-27.009 Y-19.749
X-27
X-23.654 Y-20.008
X-23.645 Y-20.009
X-20.302 Y-20.285
X-20.294
X-16.954 Y-20.579
X-16.946
X-13.611 Y-20.889
X-13.603 Y-20.89
X-10.273 Y-21.215
X-10.266 Y-21.216
X-7.551 Y-21.493
X-7.545 Y-21.494
X-4.833 Y-21.781
G2 X-3.412 Y-23.36 I-0.167 J-1.579
G1 Y-28.219
G2 X-5 Y-29.807 I-1.588 J0
G1 X-8.84
Y-36.219
G2 X-10.428 Y-37.807 I-1.587 J0
G3 X-10.84 Y-38.219 I0 J-0.413
G1 Y-56.219
G2 X-12.428 Y-57.807 I-1.587 J0
G1 X-42.428
G2 X-44.015 Y-56.219 I0 J1.587
G1 Y-42.807
X-58.34
Z-3
X-66.515
Z-4.2 F333.3
X-98.34 F1000
Z-3
X-106.516
Z-4.2 F333.3
X-120.84 F1000
Y-56.219
G2 X-122.428 Y-57.807 I-1.588 J0
G1 X-140.058
G2 X-141.645 Y-56.219 I0 J1.587
G1 Y-38.219
G3 X-142.058 Y-37.807 I-0.413 J0
G2 X-143.645 Y-36.219 I0 J1.587
G1 Y-32.704
X-148.058
G2 X-149.645 Y-31.116 I0 J1.587
G1 Y-28.439
G2 X-148.408 Y-26.891 I1.587 J0
G3 X-148.168 Y-26.511 I-0.07 J0.31
G1 X-148.238 Y-26.201
X-148.253 Y-26.133 Z-4.192
X-148.268 Y-26.067 Z-4.169
X-148.281 Y-26.008 Z-4.131
X-148.292 Y-25.959 Z-4.08
X-148.301 Y-25.922 Z-4.02
X-148.306 Y-25.899 Z-3.953
X-148.308 Y-25.892 Z-3.883
Z15
M5
M30
