(Stnder)
(Maschine)
(  Hersteller: ChinaCnc)
(  model: 3040T)
(  description: Generic 3-axis)
(T14 D=3.175 CR=0 - ZMIN=-4.3 - Schaftfrser)
G90 G94
G17
G21
(-Attention- Property Safe Retracts is set to Clearance Height.)
(Ensure the clearance height will clear the part and or fixtures.)
(Raise the Z-axis to a safe height before starting the program.)
(When using Fusion for Personal Use, the feedrate of rapid)
(moves is reduced to match the feedrate of cutting moves,)
(which can increase machining time. Unrestricted rapid moves)
(are available with a Fusion Subscription.)

(2D-Kontur1)
M0
(MANUAL TOOL CHANGE TO T14)
S6000 M3
G17 G90 G94
G54
G0 X94.854 Y1.071
Z15
G1 Z5 F1500
Z0.635 F300
Z-1.683
X94.846 Z-1.753 F1016
X94.823 Y1.072 Z-1.82
X94.785 Z-1.88
X94.735 Z-1.931
X94.675 Z-1.969
X94.607 Y1.073 Z-1.992
X94.537 Z-2
X94.219 Y1.075
G3 X93.9 Y0.759 I-0.002 J-0.317
G2 X93.52 Y-0.576 I-2.587 J0.015 F1500
G1 X72.994 Y-34.13
G2 X70.392 Y-35.337 I-2.207 J1.35
G1 X-91.707 Y-10.354
G2 X-93.9 Y-7.797 I0.394 J2.557
G1 Y22.422
G2 X-91.518 Y25.001 I2.588 J0
G1 X38.787 Y35.36
G2 X40.342 Y34.987 I0.205 J-2.579
G1 X92.663 Y2.981
G2 X93.9 Y0.759 I-1.35 J-2.207
G3 X94.216 Y0.44 I0.317 J-0.002 F1016
G1 X94.533 Y0.438
X94.604 Z-1.992
X94.671 Y0.437 Z-1.969
X94.731 Z-1.931
X94.781 Z-1.88
X94.819 Z-1.82
X94.843 Y0.436 Z-1.753
X94.851 Z-1.683
Z5 F1500
X94.854 Y1.071
Z-1.365 F300
Z-2.833
X94.846 Z-2.903 F1016
X94.823 Y1.072 Z-2.97
X94.785 Z-3.03
X94.735 Z-3.081
X94.675 Z-3.119
X94.607 Y1.073 Z-3.142
X94.537 Z-3.15
X94.219 Y1.075
G3 X93.9 Y0.759 I-0.002 J-0.317
G2 X93.52 Y-0.576 I-2.587 J0.015 F1500
G1 X72.994 Y-34.13
G2 X70.392 Y-35.337 I-2.207 J1.35
G1 X-91.707 Y-10.354
G2 X-93.9 Y-7.797 I0.394 J2.557
G1 Y22.422
G2 X-91.518 Y25.001 I2.588 J0
G1 X38.787 Y35.36
G2 X40.342 Y34.987 I0.205 J-2.579
G1 X92.663 Y2.981
G2 X93.9 Y0.759 I-1.35 J-2.207
G3 X94.216 Y0.44 I0.317 J-0.002 F1016
G1 X94.533 Y0.438
X94.604 Z-3.142
X94.671 Y0.437 Z-3.119
X94.731 Z-3.081
X94.781 Z-3.03
X94.819 Z-2.97
X94.843 Y0.436 Z-2.903
X94.851 Z-2.833
Z5 F1500
X94.854 Y1.071
Z-2.515 F300
Z-3.983
X94.846 Z-4.053 F1016
X94.823 Y1.072 Z-4.12
X94.785 Z-4.18
X94.735 Z-4.231
X94.675 Z-4.269
X94.607 Y1.073 Z-4.292
X94.537 Z-4.3
X94.219 Y1.075
G3 X93.9 Y0.759 I-0.002 J-0.317
G2 X93.52 Y-0.576 I-2.587 J0.015 F1500
G1 X86.155 Y-12.616
Z-3.3
X78.236 Y-25.561
Z-4.3 F300
X72.994 Y-34.13 F1500
G2 X70.392 Y-35.337 I-2.207 J1.35
G1 X-45.806 Y-17.429
Z-3.3
X-60.804 Y-15.117
Z-4.3 F300
X-91.707 Y-10.354 F1500
G2 X-93.9 Y-7.797 I0.394 J2.557
G1 Y22.422
G2 X-91.518 Y25.001 I2.588 J0
G1 X-27.325 Y30.104
Z-3.3
X-12.197 Y31.307
Z-4.3 F300
X38.787 Y35.36 F1500
G2 X40.342 Y34.987 I0.205 J-2.579
G1 X92.663 Y2.981
G2 X93.9 Y0.759 I-1.35 J-2.207
G3 X94.216 Y0.44 I0.317 J-0.002 F1016
G1 X94.533 Y0.438
X94.604 Z-4.292
X94.671 Y0.437 Z-4.269
X94.731 Z-4.231
X94.781 Z-4.18
X94.819 Z-4.12
X94.843 Y0.436 Z-4.053
X94.851 Z-3.983
Z15 F1500

M5
M30
