(Support_4mm)
(Bearbeiten)
(  Hersteller: ChinaCnc)
(  model: 3040T)
(  description: Generic 3-axis)
(T14 D=3.175 CR=0 - ZMIN=-4.3 - Schaftfrser)
G90 G94
G17
G21
(-Attention- Property Safe Retracts is set to Clearance Height.)
(Ensure the clearance height will clear the part and or fixtures.)
(Raise the Z-axis to a safe height before starting the program.)
(When using Fusion 360 for Personal Use, the feedrate of)
(rapid moves is reduced to match the feedrate of cutting)
(moves, which can increase machining time. Unrestricted rapid)
(moves are available with a Fusion 360 Subscription.)

(Bohrfrsen1)
M0
(MANUAL TOOL CHANGE TO T14)
S6000 M3
G17 G90 G94
G54
G0 X-13.243 Y-9.341
Z15
G1 Z2.682 F1500
Z1 F1016
Y-9.182
X-13.249 Y-9.151
X-13.267 Y-9.125
X-13.293 Y-9.107
X-13.324 Y-9.101
G3 X-13.324 Y-9.426 Z0.939 I0 J-0.163 F1500
X-13.324 Y-9.101 Z0.878 I0 J0.163
X-13.324 Y-9.426 Z0.817 I0 J-0.163
X-13.324 Y-9.101 Z0.756 I0 J0.163
X-13.324 Y-9.426 Z0.694 I0 J-0.163
X-13.324 Y-9.101 Z0.633 I0 J0.163
X-13.324 Y-9.426 Z0.572 I0 J-0.163
X-13.324 Y-9.101 Z0.511 I0 J0.163
X-13.324 Y-9.426 Z0.45 I0 J-0.163
X-13.324 Y-9.101 Z0.389 I0 J0.163
X-13.324 Y-9.426 Z0.328 I0 J-0.163
X-13.324 Y-9.101 Z0.267 I0 J0.163
X-13.324 Y-9.426 Z0.206 I0 J-0.163
X-13.324 Y-9.101 Z0.144 I0 J0.163
X-13.324 Y-9.426 Z0.083 I0 J-0.163
X-13.324 Y-9.101 Z0.022 I0 J0.163
X-13.324 Y-9.426 Z-0.039 I0 J-0.163
X-13.324 Y-9.101 Z-0.1 I0 J0.163
X-13.324 Y-9.426 Z-0.161 I0 J-0.163
X-13.324 Y-9.101 Z-0.222 I0 J0.163
X-13.324 Y-9.426 Z-0.283 I0 J-0.163
X-13.324 Y-9.101 Z-0.344 I0 J0.163
X-13.324 Y-9.426 Z-0.406 I0 J-0.163
X-13.324 Y-9.101 Z-0.467 I0 J0.163
X-13.324 Y-9.426 Z-0.528 I0 J-0.163
X-13.324 Y-9.101 Z-0.589 I0 J0.163
X-13.324 Y-9.426 Z-0.65 I0 J-0.163
X-13.324 Y-9.101 Z-0.711 I0 J0.163
X-13.324 Y-9.426 Z-0.772 I0 J-0.163
X-13.324 Y-9.101 Z-0.833 I0 J0.163
X-13.324 Y-9.426 Z-0.894 I0 J-0.163
X-13.324 Y-9.101 Z-0.956 I0 J0.163
X-13.324 Y-9.426 Z-1.017 I0 J-0.163
X-13.324 Y-9.101 Z-1.078 I0 J0.163
X-13.324 Y-9.426 Z-1.139 I0 J-0.163
X-13.324 Y-9.101 Z-1.2 I0 J0.163
X-13.324 Y-9.426 Z-1.261 I0 J-0.163
X-13.324 Y-9.101 Z-1.322 I0 J0.163
X-13.324 Y-9.426 Z-1.383 I0 J-0.163
X-13.324 Y-9.101 Z-1.444 I0 J0.162
X-13.324 Y-9.426 Z-1.506 I0 J-0.162
X-13.324 Y-9.101 Z-1.567 I0 J0.162
X-13.324 Y-9.426 Z-1.628 I0 J-0.162
X-13.324 Y-9.101 Z-1.689 I0 J0.162
X-13.324 Y-9.426 Z-1.75 I0 J-0.162
X-13.324 Y-9.101 Z-1.811 I0 J0.162
X-13.324 Y-9.426 Z-1.872 I0 J-0.162
X-13.324 Y-9.101 Z-1.933 I0 J0.162
X-13.324 Y-9.426 Z-1.994 I0 J-0.162
X-13.324 Y-9.101 Z-2.056 I0 J0.162
X-13.324 Y-9.426 Z-2.117 I0 J-0.162
X-13.324 Y-9.101 Z-2.178 I0 J0.162
X-13.324 Y-9.426 Z-2.239 I0 J-0.162
X-13.324 Y-9.101 Z-2.3 I0 J0.162
X-13.324 Y-9.426 Z-2.361 I0 J-0.162
X-13.324 Y-9.101 Z-2.422 I0 J0.162
X-13.324 Y-9.426 Z-2.483 I0 J-0.162
X-13.324 Y-9.101 Z-2.544 I0 J0.162
X-13.324 Y-9.426 Z-2.606 I0 J-0.162
X-13.324 Y-9.101 Z-2.667 I0 J0.162
X-13.324 Y-9.426 Z-2.728 I0 J-0.162
X-13.324 Y-9.101 Z-2.789 I0 J0.162
X-13.324 Y-9.426 Z-2.85 I0 J-0.162
X-13.324 Y-9.101 Z-2.911 I0 J0.162
X-13.324 Y-9.426 Z-2.972 I0 J-0.162
X-13.324 Y-9.101 Z-3.033 I0 J0.162
X-13.324 Y-9.426 Z-3.094 I0 J-0.162
X-13.324 Y-9.101 Z-3.156 I0 J0.162
X-13.324 Y-9.426 Z-3.217 I0 J-0.162
X-13.324 Y-9.101 Z-3.278 I0 J0.162
X-13.324 Y-9.426 Z-3.339 I0 J-0.162
X-13.324 Y-9.101 Z-3.4 I0 J0.162
X-13.324 Y-9.426 Z-3.461 I0 J-0.162
X-13.324 Y-9.101 Z-3.522 I0 J0.162
X-13.324 Y-9.426 Z-3.583 I0 J-0.162
X-13.324 Y-9.101 Z-3.644 I0 J0.162
X-13.324 Y-9.426 Z-3.706 I0 J-0.162
X-13.324 Y-9.101 Z-3.767 I0 J0.162
X-13.324 Y-9.426 Z-3.828 I0 J-0.162
X-13.324 Y-9.101 Z-3.889 I0 J0.162
X-13.324 Y-9.426 Z-3.95 I0 J-0.162
X-13.324 Y-9.101 Z-4.011 I0 J0.162
X-13.324 Y-9.426 Z-4.072 I0 J-0.162
X-13.324 Y-9.101 Z-4.133 I0 J0.162
X-13.324 Y-9.426 Z-4.194 I0 J-0.162
X-13.324 Y-9.101 Z-4.256 I0 J0.162
X-13.447 Y-9.37 Z-4.3 I0 J-0.162
X-13.201 Y-9.157 I0.123 J0.106
X-13.447 Y-9.37 I-0.123 J-0.106
G1 X-13.422 Y-9.389 F1016
X-13.391 Y-9.398
X-13.36 Y-9.394
X-13.332 Y-9.378
X-13.212 Y-9.274
Z5 F1500
X-20.437 Y-25.841
Z2.682
Z1 F1016
Y-25.682
X-20.443 Y-25.651
X-20.461 Y-25.625
X-20.487 Y-25.607
X-20.518 Y-25.601
G3 X-20.518 Y-25.926 Z0.939 I0 J-0.163 F1500
X-20.518 Y-25.601 Z0.878 I0 J0.163
X-20.518 Y-25.926 Z0.817 I0 J-0.163
X-20.518 Y-25.601 Z0.756 I0 J0.163
X-20.518 Y-25.926 Z0.694 I0 J-0.163
X-20.518 Y-25.601 Z0.633 I0 J0.163
X-20.518 Y-25.926 Z0.572 I0 J-0.163
X-20.518 Y-25.601 Z0.511 I0 J0.163
X-20.518 Y-25.926 Z0.45 I0 J-0.163
X-20.518 Y-25.601 Z0.389 I0 J0.163
X-20.518 Y-25.926 Z0.328 I0 J-0.163
X-20.518 Y-25.601 Z0.267 I0 J0.163
X-20.518 Y-25.926 Z0.206 I0 J-0.163
X-20.518 Y-25.601 Z0.144 I0 J0.163
X-20.518 Y-25.926 Z0.083 I0 J-0.163
X-20.518 Y-25.601 Z0.022 I0 J0.163
X-20.518 Y-25.926 Z-0.039 I0 J-0.163
X-20.518 Y-25.601 Z-0.1 I0 J0.163
X-20.518 Y-25.926 Z-0.161 I0 J-0.163
X-20.518 Y-25.601 Z-0.222 I0 J0.163
X-20.518 Y-25.926 Z-0.283 I0 J-0.163
X-20.518 Y-25.601 Z-0.344 I0 J0.163
X-20.518 Y-25.926 Z-0.406 I0 J-0.163
X-20.518 Y-25.601 Z-0.467 I0 J0.163
X-20.518 Y-25.926 Z-0.528 I0 J-0.163
X-20.518 Y-25.601 Z-0.589 I0 J0.163
X-20.518 Y-25.926 Z-0.65 I0 J-0.163
X-20.518 Y-25.601 Z-0.711 I0 J0.163
X-20.518 Y-25.926 Z-0.772 I0 J-0.163
X-20.518 Y-25.601 Z-0.833 I0 J0.163
X-20.518 Y-25.926 Z-0.894 I0 J-0.163
X-20.518 Y-25.601 Z-0.956 I0 J0.163
X-20.518 Y-25.926 Z-1.017 I0 J-0.163
X-20.518 Y-25.601 Z-1.078 I0 J0.163
X-20.518 Y-25.926 Z-1.139 I0 J-0.163
X-20.518 Y-25.601 Z-1.2 I0 J0.163
X-20.518 Y-25.926 Z-1.261 I0 J-0.163
X-20.518 Y-25.601 Z-1.322 I0 J0.163
X-20.518 Y-25.926 Z-1.383 I0 J-0.163
X-20.518 Y-25.601 Z-1.444 I0 J0.163
X-20.518 Y-25.926 Z-1.506 I0 J-0.163
X-20.518 Y-25.601 Z-1.567 I0 J0.163
X-20.518 Y-25.926 Z-1.628 I0 J-0.163
X-20.518 Y-25.601 Z-1.689 I0 J0.163
X-20.518 Y-25.926 Z-1.75 I0 J-0.163
X-20.518 Y-25.601 Z-1.811 I0 J0.163
X-20.518 Y-25.926 Z-1.872 I0 J-0.163
X-20.518 Y-25.601 Z-1.933 I0 J0.163
X-20.518 Y-25.926 Z-1.994 I0 J-0.163
X-20.518 Y-25.601 Z-2.056 I0 J0.163
X-20.518 Y-25.926 Z-2.117 I0 J-0.163
X-20.518 Y-25.601 Z-2.178 I0 J0.163
X-20.518 Y-25.926 Z-2.239 I0 J-0.163
X-20.518 Y-25.601 Z-2.3 I0 J0.163
X-20.518 Y-25.926 Z-2.361 I0 J-0.163
X-20.518 Y-25.601 Z-2.422 I0 J0.163
X-20.518 Y-25.926 Z-2.483 I0 J-0.163
X-20.518 Y-25.601 Z-2.544 I0 J0.163
X-20.518 Y-25.926 Z-2.606 I0 J-0.163
X-20.518 Y-25.601 Z-2.667 I0 J0.163
X-20.518 Y-25.926 Z-2.728 I0 J-0.163
X-20.518 Y-25.601 Z-2.789 I0 J0.163
X-20.518 Y-25.926 Z-2.85 I0 J-0.163
X-20.518 Y-25.601 Z-2.911 I0 J0.163
X-20.518 Y-25.926 Z-2.972 I0 J-0.163
X-20.518 Y-25.601 Z-3.033 I0 J0.163
X-20.518 Y-25.926 Z-3.094 I0 J-0.163
X-20.518 Y-25.601 Z-3.156 I0 J0.163
X-20.518 Y-25.926 Z-3.217 I0 J-0.163
X-20.518 Y-25.601 Z-3.278 I0 J0.163
X-20.518 Y-25.926 Z-3.339 I0 J-0.163
X-20.518 Y-25.601 Z-3.4 I0 J0.163
X-20.518 Y-25.926 Z-3.461 I0 J-0.163
X-20.518 Y-25.601 Z-3.522 I0 J0.163
X-20.518 Y-25.926 Z-3.583 I0 J-0.163
X-20.518 Y-25.601 Z-3.644 I0 J0.163
X-20.518 Y-25.926 Z-3.706 I0 J-0.163
X-20.518 Y-25.601 Z-3.767 I0 J0.163
X-20.518 Y-25.926 Z-3.828 I0 J-0.163
X-20.518 Y-25.601 Z-3.889 I0 J0.163
X-20.518 Y-25.926 Z-3.95 I0 J-0.163
X-20.518 Y-25.601 Z-4.011 I0 J0.163
X-20.518 Y-25.926 Z-4.072 I0 J-0.163
X-20.518 Y-25.601 Z-4.133 I0 J0.163
X-20.518 Y-25.926 Z-4.194 I0 J-0.163
X-20.518 Y-25.601 Z-4.256 I0 J0.163
X-20.641 Y-25.87 Z-4.3 I0 J-0.163
X-20.396 Y-25.657 I0.123 J0.106
X-20.641 Y-25.87 I-0.123 J-0.106
G1 X-20.616 Y-25.889 F1016
X-20.586 Y-25.898
X-20.554 Y-25.894
X-20.527 Y-25.878
X-20.407 Y-25.774
Z5 F1500
X-20.437 Y-39.314
Z2.682
Z1 F1016
Y-39.155
X-20.443 Y-39.124
X-20.461 Y-39.098
X-20.487 Y-39.08
X-20.518 Y-39.074
G3 X-20.518 Y-39.399 Z0.939 I0 J-0.162 F1500
X-20.518 Y-39.074 Z0.878 I0 J0.162
X-20.518 Y-39.399 Z0.817 I0 J-0.162
X-20.518 Y-39.074 Z0.756 I0 J0.162
X-20.518 Y-39.399 Z0.694 I0 J-0.162
X-20.518 Y-39.074 Z0.633 I0 J0.162
X-20.518 Y-39.399 Z0.572 I0 J-0.162
X-20.518 Y-39.074 Z0.511 I0 J0.162
X-20.518 Y-39.399 Z0.45 I0 J-0.162
X-20.518 Y-39.074 Z0.389 I0 J0.162
X-20.518 Y-39.399 Z0.328 I0 J-0.162
X-20.518 Y-39.074 Z0.267 I0 J0.162
X-20.518 Y-39.399 Z0.206 I0 J-0.162
X-20.518 Y-39.074 Z0.144 I0 J0.162
X-20.518 Y-39.399 Z0.083 I0 J-0.162
X-20.518 Y-39.074 Z0.022 I0 J0.162
X-20.518 Y-39.399 Z-0.039 I0 J-0.162
X-20.518 Y-39.074 Z-0.1 I0 J0.162
X-20.518 Y-39.399 Z-0.161 I0 J-0.162
X-20.518 Y-39.074 Z-0.222 I0 J0.162
X-20.518 Y-39.399 Z-0.283 I0 J-0.162
X-20.518 Y-39.074 Z-0.344 I0 J0.162
X-20.518 Y-39.399 Z-0.406 I0 J-0.162
X-20.518 Y-39.074 Z-0.467 I0 J0.162
X-20.518 Y-39.399 Z-0.528 I0 J-0.162
X-20.518 Y-39.074 Z-0.589 I0 J0.162
X-20.518 Y-39.399 Z-0.65 I0 J-0.162
X-20.518 Y-39.074 Z-0.711 I0 J0.162
X-20.518 Y-39.399 Z-0.772 I0 J-0.162
X-20.518 Y-39.074 Z-0.833 I0 J0.162
X-20.518 Y-39.399 Z-0.894 I0 J-0.162
X-20.518 Y-39.074 Z-0.956 I0 J0.162
X-20.518 Y-39.399 Z-1.017 I0 J-0.162
X-20.518 Y-39.074 Z-1.078 I0 J0.162
X-20.518 Y-39.399 Z-1.139 I0 J-0.162
X-20.518 Y-39.074 Z-1.2 I0 J0.162
X-20.518 Y-39.399 Z-1.261 I0 J-0.162
X-20.518 Y-39.074 Z-1.322 I0 J0.162
X-20.518 Y-39.399 Z-1.383 I0 J-0.163
X-20.518 Y-39.074 Z-1.444 I0 J0.163
X-20.518 Y-39.399 Z-1.506 I0 J-0.163
X-20.518 Y-39.074 Z-1.567 I0 J0.163
X-20.518 Y-39.399 Z-1.628 I0 J-0.163
X-20.518 Y-39.074 Z-1.689 I0 J0.163
X-20.518 Y-39.399 Z-1.75 I0 J-0.163
X-20.518 Y-39.074 Z-1.811 I0 J0.163
X-20.518 Y-39.399 Z-1.872 I0 J-0.163
X-20.518 Y-39.074 Z-1.933 I0 J0.163
X-20.518 Y-39.399 Z-1.994 I0 J-0.163
X-20.518 Y-39.074 Z-2.056 I0 J0.163
X-20.518 Y-39.399 Z-2.117 I0 J-0.163
X-20.518 Y-39.074 Z-2.178 I0 J0.163
X-20.518 Y-39.399 Z-2.239 I0 J-0.163
X-20.518 Y-39.074 Z-2.3 I0 J0.163
X-20.518 Y-39.399 Z-2.361 I0 J-0.163
X-20.518 Y-39.074 Z-2.422 I0 J0.163
X-20.518 Y-39.399 Z-2.483 I0 J-0.163
X-20.518 Y-39.074 Z-2.544 I0 J0.163
X-20.518 Y-39.399 Z-2.606 I0 J-0.163
X-20.518 Y-39.074 Z-2.667 I0 J0.163
X-20.518 Y-39.399 Z-2.728 I0 J-0.163
X-20.518 Y-39.074 Z-2.789 I0 J0.163
X-20.518 Y-39.399 Z-2.85 I0 J-0.163
X-20.518 Y-39.074 Z-2.911 I0 J0.163
X-20.518 Y-39.399 Z-2.972 I0 J-0.163
X-20.518 Y-39.074 Z-3.033 I0 J0.163
X-20.518 Y-39.399 Z-3.094 I0 J-0.163
X-20.518 Y-39.074 Z-3.156 I0 J0.163
X-20.518 Y-39.399 Z-3.217 I0 J-0.163
X-20.518 Y-39.074 Z-3.278 I0 J0.163
X-20.518 Y-39.399 Z-3.339 I0 J-0.163
X-20.518 Y-39.074 Z-3.4 I0 J0.163
X-20.518 Y-39.399 Z-3.461 I0 J-0.163
X-20.518 Y-39.074 Z-3.522 I0 J0.163
X-20.518 Y-39.399 Z-3.583 I0 J-0.163
X-20.518 Y-39.074 Z-3.644 I0 J0.163
X-20.518 Y-39.399 Z-3.706 I0 J-0.163
X-20.518 Y-39.074 Z-3.767 I0 J0.163
X-20.518 Y-39.399 Z-3.828 I0 J-0.163
X-20.518 Y-39.074 Z-3.889 I0 J0.163
X-20.518 Y-39.399 Z-3.95 I0 J-0.163
X-20.518 Y-39.074 Z-4.011 I0 J0.163
X-20.518 Y-39.399 Z-4.072 I0 J-0.163
X-20.518 Y-39.074 Z-4.133 I0 J0.163
X-20.518 Y-39.399 Z-4.194 I0 J-0.163
X-20.518 Y-39.074 Z-4.256 I0 J0.163
X-20.641 Y-39.343 Z-4.3 I0 J-0.163
X-20.396 Y-39.13 I0.123 J0.106
X-20.641 Y-39.343 I-0.123 J-0.106
G1 X-20.616 Y-39.362 F1016
X-20.586 Y-39.371
X-20.554 Y-39.367
X-20.527 Y-39.351
X-20.407 Y-39.247
Z5 F1500
X-13.243 Y-55.814
Z2.682
Z1 F1016
Y-55.655
X-13.249 Y-55.624
X-13.267 Y-55.598
X-13.293 Y-55.58
X-13.324 Y-55.574
G3 X-13.324 Y-55.899 Z0.939 I0 J-0.163 F1500
X-13.324 Y-55.574 Z0.878 I0 J0.163
X-13.324 Y-55.899 Z0.817 I0 J-0.163
X-13.324 Y-55.574 Z0.756 I0 J0.163
X-13.324 Y-55.899 Z0.694 I0 J-0.163
X-13.324 Y-55.574 Z0.633 I0 J0.163
X-13.324 Y-55.899 Z0.572 I0 J-0.163
X-13.324 Y-55.574 Z0.511 I0 J0.163
X-13.324 Y-55.899 Z0.45 I0 J-0.163
X-13.324 Y-55.574 Z0.389 I0 J0.163
X-13.324 Y-55.899 Z0.328 I0 J-0.163
X-13.324 Y-55.574 Z0.267 I0 J0.163
X-13.324 Y-55.899 Z0.206 I0 J-0.163
X-13.324 Y-55.574 Z0.144 I0 J0.163
X-13.324 Y-55.899 Z0.083 I0 J-0.163
X-13.324 Y-55.574 Z0.022 I0 J0.163
X-13.324 Y-55.899 Z-0.039 I0 J-0.163
X-13.324 Y-55.574 Z-0.1 I0 J0.163
X-13.324 Y-55.899 Z-0.161 I0 J-0.163
X-13.324 Y-55.574 Z-0.222 I0 J0.163
X-13.324 Y-55.899 Z-0.283 I0 J-0.163
X-13.324 Y-55.574 Z-0.344 I0 J0.163
X-13.324 Y-55.899 Z-0.406 I0 J-0.163
X-13.324 Y-55.574 Z-0.467 I0 J0.163
X-13.324 Y-55.899 Z-0.528 I0 J-0.163
X-13.324 Y-55.574 Z-0.589 I0 J0.163
X-13.324 Y-55.899 Z-0.65 I0 J-0.163
X-13.324 Y-55.574 Z-0.711 I0 J0.163
X-13.324 Y-55.899 Z-0.772 I0 J-0.163
X-13.324 Y-55.574 Z-0.833 I0 J0.163
X-13.324 Y-55.899 Z-0.894 I0 J-0.163
X-13.324 Y-55.574 Z-0.956 I0 J0.163
X-13.324 Y-55.899 Z-1.017 I0 J-0.163
X-13.324 Y-55.574 Z-1.078 I0 J0.163
X-13.324 Y-55.899 Z-1.139 I0 J-0.163
X-13.324 Y-55.574 Z-1.2 I0 J0.163
X-13.324 Y-55.899 Z-1.261 I0 J-0.163
X-13.324 Y-55.574 Z-1.322 I0 J0.163
X-13.324 Y-55.899 Z-1.383 I0 J-0.163
X-13.324 Y-55.574 Z-1.444 I0 J0.163
X-13.324 Y-55.899 Z-1.506 I0 J-0.163
X-13.324 Y-55.574 Z-1.567 I0 J0.163
X-13.324 Y-55.899 Z-1.628 I0 J-0.163
X-13.324 Y-55.574 Z-1.689 I0 J0.163
X-13.324 Y-55.899 Z-1.75 I0 J-0.163
X-13.324 Y-55.574 Z-1.811 I0 J0.163
X-13.324 Y-55.899 Z-1.872 I0 J-0.163
X-13.324 Y-55.574 Z-1.933 I0 J0.163
X-13.324 Y-55.899 Z-1.994 I0 J-0.163
X-13.324 Y-55.574 Z-2.056 I0 J0.163
X-13.324 Y-55.899 Z-2.117 I0 J-0.163
X-13.324 Y-55.574 Z-2.178 I0 J0.163
X-13.324 Y-55.899 Z-2.239 I0 J-0.163
X-13.324 Y-55.574 Z-2.3 I0 J0.163
X-13.324 Y-55.899 Z-2.361 I0 J-0.163
X-13.324 Y-55.574 Z-2.422 I0 J0.163
X-13.324 Y-55.899 Z-2.483 I0 J-0.163
X-13.324 Y-55.574 Z-2.544 I0 J0.163
X-13.324 Y-55.899 Z-2.606 I0 J-0.163
X-13.324 Y-55.574 Z-2.667 I0 J0.163
X-13.324 Y-55.899 Z-2.728 I0 J-0.163
X-13.324 Y-55.574 Z-2.789 I0 J0.163
X-13.324 Y-55.899 Z-2.85 I0 J-0.163
X-13.324 Y-55.574 Z-2.911 I0 J0.163
X-13.324 Y-55.899 Z-2.972 I0 J-0.163
X-13.324 Y-55.574 Z-3.033 I0 J0.163
X-13.324 Y-55.899 Z-3.094 I0 J-0.163
X-13.324 Y-55.574 Z-3.156 I0 J0.163
X-13.324 Y-55.899 Z-3.217 I0 J-0.163
X-13.324 Y-55.574 Z-3.278 I0 J0.163
X-13.324 Y-55.899 Z-3.339 I0 J-0.163
X-13.324 Y-55.574 Z-3.4 I0 J0.163
X-13.324 Y-55.899 Z-3.461 I0 J-0.162
X-13.324 Y-55.574 Z-3.522 I0 J0.162
X-13.324 Y-55.899 Z-3.583 I0 J-0.162
X-13.324 Y-55.574 Z-3.644 I0 J0.162
X-13.324 Y-55.899 Z-3.706 I0 J-0.162
X-13.324 Y-55.574 Z-3.767 I0 J0.162
X-13.324 Y-55.899 Z-3.828 I0 J-0.162
X-13.324 Y-55.574 Z-3.889 I0 J0.162
X-13.324 Y-55.899 Z-3.95 I0 J-0.162
X-13.324 Y-55.574 Z-4.011 I0 J0.162
X-13.324 Y-55.899 Z-4.072 I0 J-0.162
X-13.324 Y-55.574 Z-4.133 I0 J0.162
X-13.324 Y-55.899 Z-4.194 I0 J-0.162
X-13.324 Y-55.574 Z-4.256 I0 J0.162
X-13.447 Y-55.843 Z-4.3 I0 J-0.162
X-13.201 Y-55.63 I0.123 J0.106
X-13.447 Y-55.843 I-0.123 J-0.106
G1 X-13.422 Y-55.862 F1016
X-13.391 Y-55.87
X-13.36 Y-55.867
X-13.332 Y-55.851
X-13.212 Y-55.747
Z5 F1500
X-76.919 Y-55.162
Z2.682
Z1 F1016
Y-55.003
X-76.925 Y-54.972
X-76.943 Y-54.946
X-76.969 Y-54.928
X-77 Y-54.922
G3 X-77 Y-55.247 Z0.939 I0 J-0.163 F1500
X-77 Y-54.922 Z0.878 I0 J0.163
X-77 Y-55.247 Z0.817 I0 J-0.163
X-77 Y-54.922 Z0.756 I0 J0.163
X-77 Y-55.247 Z0.694 I0 J-0.163
X-77 Y-54.922 Z0.633 I0 J0.163
X-77 Y-55.247 Z0.572 I0 J-0.163
X-77 Y-54.922 Z0.511 I0 J0.163
X-77 Y-55.247 Z0.45 I0 J-0.163
X-77 Y-54.922 Z0.389 I0 J0.163
X-77 Y-55.247 Z0.328 I0 J-0.163
X-77 Y-54.922 Z0.267 I0 J0.163
X-77 Y-55.247 Z0.206 I0 J-0.163
X-77 Y-54.922 Z0.144 I0 J0.163
X-77 Y-55.247 Z0.083 I0 J-0.163
X-77 Y-54.922 Z0.022 I0 J0.163
X-77 Y-55.247 Z-0.039 I0 J-0.163
X-77 Y-54.922 Z-0.1 I0 J0.163
X-77 Y-55.247 Z-0.161 I0 J-0.163
X-77 Y-54.922 Z-0.222 I0 J0.163
X-77 Y-55.247 Z-0.283 I0 J-0.163
X-77 Y-54.922 Z-0.344 I0 J0.163
X-77 Y-55.247 Z-0.406 I0 J-0.163
X-77 Y-54.922 Z-0.467 I0 J0.163
X-77 Y-55.247 Z-0.528 I0 J-0.163
X-77 Y-54.922 Z-0.589 I0 J0.163
X-77 Y-55.247 Z-0.65 I0 J-0.163
X-77 Y-54.922 Z-0.711 I0 J0.163
X-77 Y-55.247 Z-0.772 I0 J-0.163
X-77 Y-54.922 Z-0.833 I0 J0.163
X-77 Y-55.247 Z-0.894 I0 J-0.163
X-77 Y-54.922 Z-0.956 I0 J0.163
X-77 Y-55.247 Z-1.017 I0 J-0.163
X-77 Y-54.922 Z-1.078 I0 J0.163
X-77 Y-55.247 Z-1.139 I0 J-0.163
X-77 Y-54.922 Z-1.2 I0 J0.163
X-77 Y-55.247 Z-1.261 I0 J-0.163
X-77 Y-54.922 Z-1.322 I0 J0.163
X-77 Y-55.247 Z-1.383 I0 J-0.163
X-77 Y-54.922 Z-1.444 I0 J0.163
X-77 Y-55.247 Z-1.506 I0 J-0.163
X-77 Y-54.922 Z-1.567 I0 J0.163
X-77 Y-55.247 Z-1.628 I0 J-0.163
X-77 Y-54.922 Z-1.689 I0 J0.163
X-77 Y-55.247 Z-1.75 I0 J-0.163
X-77 Y-54.922 Z-1.811 I0 J0.163
X-77 Y-55.247 Z-1.872 I0 J-0.163
X-77 Y-54.922 Z-1.933 I0 J0.163
X-77 Y-55.247 Z-1.994 I0 J-0.163
X-77 Y-54.922 Z-2.056 I0 J0.163
X-77 Y-55.247 Z-2.117 I0 J-0.163
X-77 Y-54.922 Z-2.178 I0 J0.163
X-77 Y-55.247 Z-2.239 I0 J-0.163
X-77 Y-54.922 Z-2.3 I0 J0.163
X-77 Y-55.247 Z-2.361 I0 J-0.163
X-77 Y-54.922 Z-2.422 I0 J0.163
X-77 Y-55.247 Z-2.483 I0 J-0.163
X-77 Y-54.922 Z-2.544 I0 J0.163
X-77 Y-55.247 Z-2.606 I0 J-0.163
X-77 Y-54.922 Z-2.667 I0 J0.163
X-77 Y-55.247 Z-2.728 I0 J-0.163
X-77 Y-54.922 Z-2.789 I0 J0.163
X-77 Y-55.247 Z-2.85 I0 J-0.163
X-77 Y-54.922 Z-2.911 I0 J0.163
X-77 Y-55.247 Z-2.972 I0 J-0.163
X-77 Y-54.922 Z-3.033 I0 J0.163
X-77 Y-55.247 Z-3.094 I0 J-0.163
X-77 Y-54.922 Z-3.156 I0 J0.163
X-77 Y-55.247 Z-3.217 I0 J-0.163
X-77 Y-54.922 Z-3.278 I0 J0.163
X-77 Y-55.247 Z-3.339 I0 J-0.163
X-77 Y-54.922 Z-3.4 I0 J0.163
X-77 Y-55.247 Z-3.461 I0 J-0.163
X-77 Y-54.922 Z-3.522 I0 J0.163
X-77 Y-55.247 Z-3.583 I0 J-0.163
X-77 Y-54.922 Z-3.644 I0 J0.163
X-77 Y-55.247 Z-3.706 I0 J-0.163
X-77 Y-54.922 Z-3.767 I0 J0.163
X-77 Y-55.247 Z-3.828 I0 J-0.163
X-77 Y-54.922 Z-3.889 I0 J0.163
X-77 Y-55.247 Z-3.95 I0 J-0.163
X-77 Y-54.922 Z-4.011 I0 J0.163
X-77 Y-55.247 Z-4.072 I0 J-0.163
X-77 Y-54.922 Z-4.133 I0 J0.163
X-77 Y-55.247 Z-4.194 I0 J-0.163
X-77 Y-54.922 Z-4.256 I0 J0.163
X-77.123 Y-55.191 Z-4.3 I0 J-0.163
X-76.877 Y-54.978 I0.123 J0.106
X-77.123 Y-55.191 I-0.123 J-0.106
G1 X-77.098 Y-55.21 F1016
X-77.068 Y-55.219
X-77.036 Y-55.215
X-77.009 Y-55.199
X-76.888 Y-55.095
Z5 F1500
X-65.919 Y-40.914
Z2.682
Z1 F1016
Y-40.755
X-65.925 Y-40.724
X-65.943 Y-40.698
X-65.969 Y-40.68
X-66 Y-40.674
G3 X-66 Y-40.999 Z0.939 I0 J-0.163 F1500
X-66 Y-40.674 Z0.878 I0 J0.163
X-66 Y-40.999 Z0.817 I0 J-0.163
X-66 Y-40.674 Z0.756 I0 J0.163
X-66 Y-40.999 Z0.694 I0 J-0.163
X-66 Y-40.674 Z0.633 I0 J0.163
X-66 Y-40.999 Z0.572 I0 J-0.163
X-66 Y-40.674 Z0.511 I0 J0.163
X-66 Y-40.999 Z0.45 I0 J-0.163
X-66 Y-40.674 Z0.389 I0 J0.163
X-66 Y-40.999 Z0.328 I0 J-0.163
X-66 Y-40.674 Z0.267 I0 J0.163
X-66 Y-40.999 Z0.206 I0 J-0.163
X-66 Y-40.674 Z0.144 I0 J0.163
X-66 Y-40.999 Z0.083 I0 J-0.163
X-66 Y-40.674 Z0.022 I0 J0.163
X-66 Y-40.999 Z-0.039 I0 J-0.163
X-66 Y-40.674 Z-0.1 I0 J0.163
X-66 Y-40.999 Z-0.161 I0 J-0.163
X-66 Y-40.674 Z-0.222 I0 J0.163
X-66 Y-40.999 Z-0.283 I0 J-0.163
X-66 Y-40.674 Z-0.344 I0 J0.163
X-66 Y-40.999 Z-0.406 I0 J-0.163
X-66 Y-40.674 Z-0.467 I0 J0.163
X-66 Y-40.999 Z-0.528 I0 J-0.163
X-66 Y-40.674 Z-0.589 I0 J0.163
X-66 Y-40.999 Z-0.65 I0 J-0.163
X-66 Y-40.674 Z-0.711 I0 J0.163
X-66 Y-40.999 Z-0.772 I0 J-0.163
X-66 Y-40.674 Z-0.833 I0 J0.163
X-66 Y-40.999 Z-0.894 I0 J-0.163
X-66 Y-40.674 Z-0.956 I0 J0.163
X-66 Y-40.999 Z-1.017 I0 J-0.163
X-66 Y-40.674 Z-1.078 I0 J0.163
X-66 Y-40.999 Z-1.139 I0 J-0.163
X-66 Y-40.674 Z-1.2 I0 J0.163
X-66 Y-40.999 Z-1.261 I0 J-0.163
X-66 Y-40.674 Z-1.322 I0 J0.163
X-66 Y-40.999 Z-1.383 I0 J-0.163
X-66 Y-40.674 Z-1.444 I0 J0.163
X-66 Y-40.999 Z-1.506 I0 J-0.163
X-66 Y-40.674 Z-1.567 I0 J0.163
X-66 Y-40.999 Z-1.628 I0 J-0.163
X-66 Y-40.674 Z-1.689 I0 J0.163
X-66 Y-40.999 Z-1.75 I0 J-0.163
X-66 Y-40.674 Z-1.811 I0 J0.163
X-66 Y-40.999 Z-1.872 I0 J-0.163
X-66 Y-40.674 Z-1.933 I0 J0.163
X-66 Y-40.999 Z-1.994 I0 J-0.163
X-66 Y-40.674 Z-2.056 I0 J0.163
X-66 Y-40.999 Z-2.117 I0 J-0.163
X-66 Y-40.674 Z-2.178 I0 J0.163
X-66 Y-40.999 Z-2.239 I0 J-0.163
X-66 Y-40.674 Z-2.3 I0 J0.163
X-66 Y-40.999 Z-2.361 I0 J-0.163
X-66 Y-40.674 Z-2.422 I0 J0.163
X-66 Y-40.999 Z-2.483 I0 J-0.163
X-66 Y-40.674 Z-2.544 I0 J0.163
X-66 Y-40.999 Z-2.606 I0 J-0.163
X-66 Y-40.674 Z-2.667 I0 J0.163
X-66 Y-40.999 Z-2.728 I0 J-0.163
X-66 Y-40.674 Z-2.789 I0 J0.163
X-66 Y-40.999 Z-2.85 I0 J-0.163
X-66 Y-40.674 Z-2.911 I0 J0.163
X-66 Y-40.999 Z-2.972 I0 J-0.163
X-66 Y-40.674 Z-3.033 I0 J0.163
X-66 Y-40.999 Z-3.094 I0 J-0.163
X-66 Y-40.674 Z-3.156 I0 J0.163
X-66 Y-40.999 Z-3.217 I0 J-0.163
X-66 Y-40.674 Z-3.278 I0 J0.163
X-66 Y-40.999 Z-3.339 I0 J-0.163
X-66 Y-40.674 Z-3.4 I0 J0.163
X-66 Y-40.999 Z-3.461 I0 J-0.163
X-66 Y-40.674 Z-3.522 I0 J0.163
X-66 Y-40.999 Z-3.583 I0 J-0.163
X-66 Y-40.674 Z-3.644 I0 J0.163
X-66 Y-40.999 Z-3.706 I0 J-0.163
X-66 Y-40.674 Z-3.767 I0 J0.163
X-66 Y-40.999 Z-3.828 I0 J-0.163
X-66 Y-40.674 Z-3.889 I0 J0.163
X-66 Y-40.999 Z-3.95 I0 J-0.163
X-66 Y-40.674 Z-4.011 I0 J0.163
X-66 Y-40.999 Z-4.072 I0 J-0.163
X-66 Y-40.674 Z-4.133 I0 J0.163
X-66 Y-40.999 Z-4.194 I0 J-0.163
X-66 Y-40.674 Z-4.256 I0 J0.163
X-66.123 Y-40.943 Z-4.3 I0 J-0.163
X-65.877 Y-40.73 I0.123 J0.106
X-66.123 Y-40.943 I-0.123 J-0.106
G1 X-66.098 Y-40.963 F1016
X-66.068 Y-40.971
X-66.036 Y-40.967
X-66.009 Y-40.951
X-65.888 Y-40.848
Z5 F1500
X-65.919 Y-24.241
Z2.682
Z1 F1016
Y-24.082
X-65.925 Y-24.051
X-65.943 Y-24.025
X-65.969 Y-24.007
X-66 Y-24.001
G3 X-66 Y-24.326 Z0.939 I0 J-0.163 F1500
X-66 Y-24.001 Z0.878 I0 J0.163
X-66 Y-24.326 Z0.817 I0 J-0.163
X-66 Y-24.001 Z0.756 I0 J0.163
X-66 Y-24.326 Z0.694 I0 J-0.163
X-66 Y-24.001 Z0.633 I0 J0.163
X-66 Y-24.326 Z0.572 I0 J-0.163
X-66 Y-24.001 Z0.511 I0 J0.163
X-66 Y-24.326 Z0.45 I0 J-0.163
X-66 Y-24.001 Z0.389 I0 J0.163
X-66 Y-24.326 Z0.328 I0 J-0.163
X-66 Y-24.001 Z0.267 I0 J0.163
X-66 Y-24.326 Z0.206 I0 J-0.163
X-66 Y-24.001 Z0.144 I0 J0.163
X-66 Y-24.326 Z0.083 I0 J-0.163
X-66 Y-24.001 Z0.022 I0 J0.163
X-66 Y-24.326 Z-0.039 I0 J-0.163
X-66 Y-24.001 Z-0.1 I0 J0.163
X-66 Y-24.326 Z-0.161 I0 J-0.163
X-66 Y-24.001 Z-0.222 I0 J0.163
X-66 Y-24.326 Z-0.283 I0 J-0.163
X-66 Y-24.001 Z-0.344 I0 J0.163
X-66 Y-24.326 Z-0.406 I0 J-0.163
X-66 Y-24.001 Z-0.467 I0 J0.163
X-66 Y-24.326 Z-0.528 I0 J-0.163
X-66 Y-24.001 Z-0.589 I0 J0.163
X-66 Y-24.326 Z-0.65 I0 J-0.163
X-66 Y-24.001 Z-0.711 I0 J0.163
X-66 Y-24.326 Z-0.772 I0 J-0.163
X-66 Y-24.001 Z-0.833 I0 J0.163
X-66 Y-24.326 Z-0.894 I0 J-0.163
X-66 Y-24.001 Z-0.956 I0 J0.163
X-66 Y-24.326 Z-1.017 I0 J-0.163
X-66 Y-24.001 Z-1.078 I0 J0.163
X-66 Y-24.326 Z-1.139 I0 J-0.163
X-66 Y-24.001 Z-1.2 I0 J0.163
X-66 Y-24.326 Z-1.261 I0 J-0.163
X-66 Y-24.001 Z-1.322 I0 J0.163
X-66 Y-24.326 Z-1.383 I0 J-0.163
X-66 Y-24.001 Z-1.444 I0 J0.163
X-66 Y-24.326 Z-1.506 I0 J-0.163
X-66 Y-24.001 Z-1.567 I0 J0.163
X-66 Y-24.326 Z-1.628 I0 J-0.163
X-66 Y-24.001 Z-1.689 I0 J0.163
X-66 Y-24.326 Z-1.75 I0 J-0.163
X-66 Y-24.001 Z-1.811 I0 J0.163
X-66 Y-24.326 Z-1.872 I0 J-0.163
X-66 Y-24.001 Z-1.933 I0 J0.163
X-66 Y-24.326 Z-1.994 I0 J-0.163
X-66 Y-24.001 Z-2.056 I0 J0.163
X-66 Y-24.326 Z-2.117 I0 J-0.163
X-66 Y-24.001 Z-2.178 I0 J0.163
X-66 Y-24.326 Z-2.239 I0 J-0.163
X-66 Y-24.001 Z-2.3 I0 J0.163
X-66 Y-24.326 Z-2.361 I0 J-0.163
X-66 Y-24.001 Z-2.422 I0 J0.163
X-66 Y-24.326 Z-2.483 I0 J-0.163
X-66 Y-24.001 Z-2.544 I0 J0.163
X-66 Y-24.326 Z-2.606 I0 J-0.163
X-66 Y-24.001 Z-2.667 I0 J0.163
X-66 Y-24.326 Z-2.728 I0 J-0.163
X-66 Y-24.001 Z-2.789 I0 J0.163
X-66 Y-24.326 Z-2.85 I0 J-0.163
X-66 Y-24.001 Z-2.911 I0 J0.163
X-66 Y-24.326 Z-2.972 I0 J-0.163
X-66 Y-24.001 Z-3.033 I0 J0.163
X-66 Y-24.326 Z-3.094 I0 J-0.163
X-66 Y-24.001 Z-3.156 I0 J0.163
X-66 Y-24.326 Z-3.217 I0 J-0.163
X-66 Y-24.001 Z-3.278 I0 J0.163
X-66 Y-24.326 Z-3.339 I0 J-0.163
X-66 Y-24.001 Z-3.4 I0 J0.163
X-66 Y-24.326 Z-3.461 I0 J-0.163
X-66 Y-24.001 Z-3.522 I0 J0.163
X-66 Y-24.326 Z-3.583 I0 J-0.163
X-66 Y-24.001 Z-3.644 I0 J0.163
X-66 Y-24.326 Z-3.706 I0 J-0.163
X-66 Y-24.001 Z-3.767 I0 J0.163
X-66 Y-24.326 Z-3.828 I0 J-0.163
X-66 Y-24.001 Z-3.889 I0 J0.163
X-66 Y-24.326 Z-3.95 I0 J-0.163
X-66 Y-24.001 Z-4.011 I0 J0.163
X-66 Y-24.326 Z-4.072 I0 J-0.163
X-66 Y-24.001 Z-4.133 I0 J0.163
X-66 Y-24.326 Z-4.194 I0 J-0.163
X-66 Y-24.001 Z-4.256 I0 J0.163
X-66.123 Y-24.27 Z-4.3 I0 J-0.163
X-65.877 Y-24.057 I0.123 J0.106
X-66.123 Y-24.27 I-0.123 J-0.106
G1 X-66.098 Y-24.289 F1016
X-66.068 Y-24.297
X-66.036 Y-24.294
X-66.009 Y-24.278
X-65.888 Y-24.174
Z5 F1500
X-76.919 Y-9.993
Z2.682
Z1 F1016
Y-9.834
X-76.925 Y-9.803
X-76.943 Y-9.777
X-76.969 Y-9.759
X-77 Y-9.753
G3 X-77 Y-10.078 Z0.939 I0 J-0.163 F1500
X-77 Y-9.753 Z0.878 I0 J0.163
X-77 Y-10.078 Z0.817 I0 J-0.163
X-77 Y-9.753 Z0.756 I0 J0.163
X-77 Y-10.078 Z0.694 I0 J-0.163
X-77 Y-9.753 Z0.633 I0 J0.163
X-77 Y-10.078 Z0.572 I0 J-0.163
X-77 Y-9.753 Z0.511 I0 J0.163
X-77 Y-10.078 Z0.45 I0 J-0.163
X-77 Y-9.753 Z0.389 I0 J0.163
X-77 Y-10.078 Z0.328 I0 J-0.163
X-77 Y-9.753 Z0.267 I0 J0.163
X-77 Y-10.078 Z0.206 I0 J-0.163
X-77 Y-9.753 Z0.144 I0 J0.163
X-77 Y-10.078 Z0.083 I0 J-0.163
X-77 Y-9.753 Z0.022 I0 J0.163
X-77 Y-10.078 Z-0.039 I0 J-0.163
X-77 Y-9.753 Z-0.1 I0 J0.163
X-77 Y-10.078 Z-0.161 I0 J-0.163
X-77 Y-9.753 Z-0.222 I0 J0.163
X-77 Y-10.078 Z-0.283 I0 J-0.163
X-77 Y-9.753 Z-0.344 I0 J0.163
X-77 Y-10.078 Z-0.406 I0 J-0.163
X-77 Y-9.753 Z-0.467 I0 J0.163
X-77 Y-10.078 Z-0.528 I0 J-0.163
X-77 Y-9.753 Z-0.589 I0 J0.163
X-77 Y-10.078 Z-0.65 I0 J-0.163
X-77 Y-9.753 Z-0.711 I0 J0.163
X-77 Y-10.078 Z-0.772 I0 J-0.163
X-77 Y-9.753 Z-0.833 I0 J0.163
X-77 Y-10.078 Z-0.894 I0 J-0.163
X-77 Y-9.753 Z-0.956 I0 J0.163
X-77 Y-10.078 Z-1.017 I0 J-0.163
X-77 Y-9.753 Z-1.078 I0 J0.163
X-77 Y-10.078 Z-1.139 I0 J-0.163
X-77 Y-9.753 Z-1.2 I0 J0.163
X-77 Y-10.078 Z-1.261 I0 J-0.163
X-77 Y-9.753 Z-1.322 I0 J0.163
X-77 Y-10.078 Z-1.383 I0 J-0.163
X-77 Y-9.753 Z-1.444 I0 J0.163
X-77 Y-10.078 Z-1.506 I0 J-0.163
X-77 Y-9.753 Z-1.567 I0 J0.163
X-77 Y-10.078 Z-1.628 I0 J-0.163
X-77 Y-9.753 Z-1.689 I0 J0.163
X-77 Y-10.078 Z-1.75 I0 J-0.163
X-77 Y-9.753 Z-1.811 I0 J0.163
X-77 Y-10.078 Z-1.872 I0 J-0.163
X-77 Y-9.753 Z-1.933 I0 J0.163
X-77 Y-10.078 Z-1.994 I0 J-0.163
X-77 Y-9.753 Z-2.056 I0 J0.163
X-77 Y-10.078 Z-2.117 I0 J-0.163
X-77 Y-9.753 Z-2.178 I0 J0.163
X-77 Y-10.078 Z-2.239 I0 J-0.163
X-77 Y-9.753 Z-2.3 I0 J0.163
X-77 Y-10.078 Z-2.361 I0 J-0.163
X-77 Y-9.753 Z-2.422 I0 J0.163
X-77 Y-10.078 Z-2.483 I0 J-0.163
X-77 Y-9.753 Z-2.544 I0 J0.163
X-77 Y-10.078 Z-2.606 I0 J-0.163
X-77 Y-9.753 Z-2.667 I0 J0.163
X-77 Y-10.078 Z-2.728 I0 J-0.163
X-77 Y-9.753 Z-2.789 I0 J0.163
X-77 Y-10.078 Z-2.85 I0 J-0.163
X-77 Y-9.753 Z-2.911 I0 J0.163
X-77 Y-10.078 Z-2.972 I0 J-0.163
X-77 Y-9.753 Z-3.033 I0 J0.163
X-77 Y-10.078 Z-3.094 I0 J-0.163
X-77 Y-9.753 Z-3.156 I0 J0.163
X-77 Y-10.078 Z-3.217 I0 J-0.163
X-77 Y-9.753 Z-3.278 I0 J0.163
X-77 Y-10.078 Z-3.339 I0 J-0.163
X-77 Y-9.753 Z-3.4 I0 J0.163
X-77 Y-10.078 Z-3.461 I0 J-0.163
X-77 Y-9.753 Z-3.522 I0 J0.163
X-77 Y-10.078 Z-3.583 I0 J-0.163
X-77 Y-9.753 Z-3.644 I0 J0.163
X-77 Y-10.078 Z-3.706 I0 J-0.163
X-77 Y-9.753 Z-3.767 I0 J0.163
X-77 Y-10.078 Z-3.828 I0 J-0.163
X-77 Y-9.753 Z-3.889 I0 J0.163
X-77 Y-10.078 Z-3.95 I0 J-0.163
X-77 Y-9.753 Z-4.011 I0 J0.163
X-77 Y-10.078 Z-4.072 I0 J-0.163
X-77 Y-9.753 Z-4.133 I0 J0.163
X-77 Y-10.078 Z-4.194 I0 J-0.163
X-77 Y-9.753 Z-4.256 I0 J0.163
X-77.123 Y-10.022 Z-4.3 I0 J-0.163
X-76.877 Y-9.809 I0.123 J0.106
X-77.123 Y-10.022 I-0.123 J-0.106
G1 X-77.098 Y-10.041 F1016
X-77.068 Y-10.05
X-77.036 Y-10.046
X-77.009 Y-10.03
X-76.888 Y-9.926
Z15 F1500
(When using Fusion 360 for Personal Use, the feedrate of)
(rapid moves is reduced to match the feedrate of cutting)
(moves, which can increase machining time. Unrestricted rapid)
(moves are available with a Fusion 360 Subscription.)

(2D-Kontur2)
G0 X-43.688 Y-22.091
G1 Z15 F1500
Z5
Z2 F300
Z1
S8000
X-43.892 Y-22.089 Z0.998 F1016
X-44.829 Y-22.119 Z0.986
X-45.76 Y-22.185 Z0.975
X-46.68 Y-22.287 Z0.964
X-47.585 Y-22.424 Z0.953
X-48.471 Y-22.594 Z0.942
X-49.332 Y-22.795 Z0.932
X-50.167 Y-23.027 Z0.921
X-50.972 Y-23.287 Z0.911
X-51.745 Y-23.573 Z0.901
X-52.485 Y-23.883 Z0.892
X-53.189 Y-24.215 Z0.882
X-53.856 Y-24.566 Z0.873
X-54.486 Y-24.935 Z0.865
X-55.079 Y-25.321 Z0.856
X-55.632 Y-25.72 Z0.848
X-56.148 Y-26.132 Z0.84
X-56.625 Y-26.554 Z0.832
X-57.063 Y-26.985 Z0.825
X-57.464 Y-27.424 Z0.818
X-57.827 Y-27.869 Z0.811
X-58.153 Y-28.318 Z0.804
X-58.442 Y-28.772 Z0.798
X-58.695 Y-29.227 Z0.792
X-58.913 Y-29.685 Z0.786
X-59.097 Y-30.144 Z0.78
X-59.246 Y-30.602 Z0.774
X-59.363 Y-31.061 Z0.768
X-59.447 Y-31.52 Z0.763
X-59.499 Y-31.979 Z0.757
X-59.52 Y-32.461 Z0.751
Y-32.476
X-59.503 Y-32.958 Z0.745
X-59.456 Y-33.417 Z0.74
X-59.376 Y-33.875 Z0.734
X-59.265 Y-34.333 Z0.729
X-59.12 Y-34.791 Z0.723
X-58.942 Y-35.248 Z0.717
X-58.73 Y-35.704 Z0.711
X-58.483 Y-36.158 Z0.705
X-58.201 Y-36.609 Z0.699
X-57.883 Y-37.057 Z0.692
X-57.529 Y-37.5 Z0.685
X-57.138 Y-37.937 Z0.678
X-56.709 Y-38.367 Z0.671
X-56.243 Y-38.787 Z0.663
X-55.74 Y-39.198 Z0.656
X-55.199 Y-39.596 Z0.648
X-54.62 Y-39.981 Z0.639
X-54.005 Y-40.351 Z0.631
X-53.352 Y-40.703 Z0.622
X-52.664 Y-41.036 Z0.613
X-51.941 Y-41.349 Z0.603
X-51.185 Y-41.638 Z0.593
X-50.396 Y-41.903 Z0.583
X-49.577 Y-42.14 Z0.573
X-48.73 Y-42.349 Z0.563
X-47.859 Y-42.528 Z0.552
X-46.966 Y-42.674 Z0.541
X-46.055 Y-42.786 Z0.53
X-45.13 Y-42.864 Z0.519
X-44.197 Y-42.905 Z0.508
X-43.259 Y-42.91 Z0.497
X-42.323 Y-42.878 Z0.486
X-41.392 Y-42.809 Z0.474
X-40.473 Y-42.705 Z0.463
X-39.569 Y-42.566 Z0.452
X-38.686 Y-42.394 Z0.442
X-37.826 Y-42.19 Z0.431
X-36.993 Y-41.956 Z0.421
X-36.19 Y-41.694 Z0.411
X-35.419 Y-41.407 Z0.401
X-34.682 Y-41.095 Z0.391
X-33.98 Y-40.762 Z0.382
X-33.315 Y-40.409 Z0.373
X-32.688 Y-40.039 Z0.364
X-32.098 Y-39.653 Z0.356
X-31.547 Y-39.252 Z0.347
X-31.034 Y-38.84 Z0.34
X-30.56 Y-38.417 Z0.332
X-30.124 Y-37.985 Z0.325
X-29.726 Y-37.546 Z0.317
X-29.365 Y-37.101 Z0.311
X-29.042 Y-36.651 Z0.304
X-28.755 Y-36.197 Z0.298
X-28.505 Y-35.741 Z0.291
X-28.289 Y-35.284 Z0.285
X-28.108 Y-34.825 Z0.279
X-27.96 Y-34.366 Z0.274
X-27.846 Y-33.907 Z0.268
X-27.764 Y-33.448 Z0.262
X-27.714 Y-32.99 Z0.257
X-27.696 Y-32.531 Z0.251
X-27.71 Y-32.073 Z0.246
X-27.755 Y-31.614 Z0.24
X-27.833 Y-31.156 Z0.235
X-27.942 Y-30.698 Z0.229
X-28.084 Y-30.24 Z0.223
X-28.26 Y-29.783 Z0.218
X-28.47 Y-29.327 Z0.212
X-28.714 Y-28.873 Z0.205
X-28.994 Y-28.421 Z0.199
X-29.309 Y-27.973 Z0.192
X-29.661 Y-27.53 Z0.186
X-30.05 Y-27.093 Z0.179
X-30.476 Y-26.662 Z0.171
X-30.939 Y-26.241 Z0.164
X-31.44 Y-25.83 Z0.156
X-31.979 Y-25.43 Z0.148
X-32.555 Y-25.045 Z0.14
X-33.168 Y-24.674 Z0.131
X-33.818 Y-24.32 Z0.122
X-34.503 Y-23.986 Z0.113
X-35.224 Y-23.672 Z0.104
X-35.978 Y-23.381 Z0.094
X-36.765 Y-23.115 Z0.084
X-37.582 Y-22.875 Z0.074
X-38.427 Y-22.664 Z0.064
X-39.297 Y-22.483 Z0.053
X-40.188 Y-22.335 Z0.042
X-41.098 Y-22.22 Z0.031
X-42.022 Y-22.14 Z0.02
X-42.955 Y-22.097 Z0.009
X-43.892 Y-22.089 Z-0.002
X-44.829 Y-22.119 Z-0.014
X-45.76 Y-22.185 Z-0.025
X-46.68 Y-22.287 Z-0.036
X-47.585 Y-22.424 Z-0.047
X-48.471 Y-22.594 Z-0.058
X-49.332 Y-22.795 Z-0.068
X-50.167 Y-23.027 Z-0.079
X-50.972 Y-23.287 Z-0.089
X-51.745 Y-23.573 Z-0.099
X-52.485 Y-23.883 Z-0.108
X-53.189 Y-24.215 Z-0.118
X-53.856 Y-24.566 Z-0.127
X-54.486 Y-24.935 Z-0.135
X-55.079 Y-25.321 Z-0.144
X-55.632 Y-25.72 Z-0.152
X-56.148 Y-26.132 Z-0.16
X-56.625 Y-26.554 Z-0.168
X-57.063 Y-26.985 Z-0.175
X-57.464 Y-27.424 Z-0.182
X-57.827 Y-27.869 Z-0.189
X-58.153 Y-28.318 Z-0.196
X-58.442 Y-28.772 Z-0.202
X-58.695 Y-29.227 Z-0.208
X-58.913 Y-29.685 Z-0.214
X-59.097 Y-30.144 Z-0.22
X-59.246 Y-30.602 Z-0.226
X-59.363 Y-31.061 Z-0.232
X-59.447 Y-31.52 Z-0.237
X-59.499 Y-31.979 Z-0.243
X-59.52 Y-32.461 Z-0.249
Y-32.476
X-59.503 Y-32.958 Z-0.255
X-59.456 Y-33.417 Z-0.26
X-59.376 Y-33.875 Z-0.266
X-59.265 Y-34.333 Z-0.271
X-59.12 Y-34.791 Z-0.277
X-58.942 Y-35.248 Z-0.283
X-58.73 Y-35.704 Z-0.289
X-58.483 Y-36.158 Z-0.295
X-58.201 Y-36.609 Z-0.301
X-57.883 Y-37.057 Z-0.308
X-57.529 Y-37.5 Z-0.315
X-57.138 Y-37.937 Z-0.322
X-56.709 Y-38.367 Z-0.329
X-56.243 Y-38.787 Z-0.337
X-55.74 Y-39.198 Z-0.344
X-55.199 Y-39.596 Z-0.352
X-54.62 Y-39.981 Z-0.361
X-54.005 Y-40.351 Z-0.369
X-53.352 Y-40.703 Z-0.378
X-52.664 Y-41.036 Z-0.387
X-51.941 Y-41.349 Z-0.397
X-51.185 Y-41.638 Z-0.407
X-50.396 Y-41.903 Z-0.417
X-49.577 Y-42.14 Z-0.427
X-48.73 Y-42.349 Z-0.437
X-47.859 Y-42.528 Z-0.448
X-46.966 Y-42.674 Z-0.459
X-46.055 Y-42.786 Z-0.47
X-45.13 Y-42.864 Z-0.481
X-44.197 Y-42.905 Z-0.492
X-43.259 Y-42.91 Z-0.503
X-42.323 Y-42.878 Z-0.514
X-41.392 Y-42.809 Z-0.526
X-40.473 Y-42.705 Z-0.537
X-39.569 Y-42.566 Z-0.548
X-38.686 Y-42.394 Z-0.558
X-37.826 Y-42.19 Z-0.569
X-36.993 Y-41.956 Z-0.579
X-36.19 Y-41.694 Z-0.589
X-35.419 Y-41.407 Z-0.599
X-34.682 Y-41.095 Z-0.609
X-33.98 Y-40.762 Z-0.618
X-33.315 Y-40.409 Z-0.627
X-32.688 Y-40.039 Z-0.636
X-32.098 Y-39.653 Z-0.644
X-31.547 Y-39.252 Z-0.653
X-31.034 Y-38.84 Z-0.66
X-30.56 Y-38.417 Z-0.668
X-30.124 Y-37.985 Z-0.675
X-29.726 Y-37.546 Z-0.683
X-29.365 Y-37.101 Z-0.689
X-29.042 Y-36.651 Z-0.696
X-28.755 Y-36.197 Z-0.702
X-28.505 Y-35.741 Z-0.709
X-28.289 Y-35.284 Z-0.715
X-28.108 Y-34.825 Z-0.721
X-27.96 Y-34.366 Z-0.726
X-27.846 Y-33.907 Z-0.732
X-27.764 Y-33.448 Z-0.738
X-27.714 Y-32.99 Z-0.743
X-27.696 Y-32.531 Z-0.749
X-27.71 Y-32.073 Z-0.754
X-27.755 Y-31.614 Z-0.76
X-27.833 Y-31.156 Z-0.765
X-27.942 Y-30.698 Z-0.771
X-28.084 Y-30.24 Z-0.777
X-28.26 Y-29.783 Z-0.782
X-28.47 Y-29.327 Z-0.788
X-28.714 Y-28.873 Z-0.795
X-28.994 Y-28.421 Z-0.801
X-29.309 Y-27.973 Z-0.808
X-29.661 Y-27.53 Z-0.814
X-30.05 Y-27.093 Z-0.821
X-30.476 Y-26.662 Z-0.829
X-30.939 Y-26.241 Z-0.836
X-31.44 Y-25.83 Z-0.844
X-31.979 Y-25.43 Z-0.852
X-32.555 Y-25.045 Z-0.86
X-33.168 Y-24.674 Z-0.869
X-33.818 Y-24.32 Z-0.878
X-34.503 Y-23.986 Z-0.887
X-35.224 Y-23.672 Z-0.896
X-35.978 Y-23.381 Z-0.906
X-36.765 Y-23.115 Z-0.916
X-37.582 Y-22.875 Z-0.926
X-38.427 Y-22.664 Z-0.936
X-39.297 Y-22.483 Z-0.947
X-40.188 Y-22.335 Z-0.958
X-41.098 Y-22.22 Z-0.969
X-42.022 Y-22.14 Z-0.98
X-42.955 Y-22.097 Z-0.991
X-43.688 Y-22.091 Z-1
S6000
X-43.892 Y-22.089 F1500
X-44.829 Y-22.119
X-45.76 Y-22.185
X-46.68 Y-22.287
X-47.585 Y-22.424
X-48.471 Y-22.594
X-49.332 Y-22.795
X-50.167 Y-23.027
X-50.972 Y-23.287
X-51.745 Y-23.573
X-52.485 Y-23.883
X-53.189 Y-24.215
X-53.856 Y-24.566
X-54.486 Y-24.935
X-55.079 Y-25.321
X-55.632 Y-25.72
X-56.148 Y-26.132
X-56.625 Y-26.554
X-57.063 Y-26.985
X-57.464 Y-27.424
X-57.827 Y-27.869
X-58.153 Y-28.318
X-58.442 Y-28.772
X-58.695 Y-29.227
X-58.913 Y-29.685
X-59.097 Y-30.144
X-59.246 Y-30.602
X-59.363 Y-31.061
X-59.447 Y-31.52
X-59.499 Y-31.979
X-59.52 Y-32.461
Y-32.476
X-59.503 Y-32.958
X-59.456 Y-33.417
X-59.376 Y-33.875
X-59.265 Y-34.333
X-59.12 Y-34.791
X-58.942 Y-35.248
X-58.73 Y-35.704
X-58.483 Y-36.158
X-58.201 Y-36.609
X-57.883 Y-37.057
X-57.529 Y-37.5
X-57.138 Y-37.937
X-56.709 Y-38.367
X-56.243 Y-38.787
X-55.74 Y-39.198
X-55.199 Y-39.596
X-54.62 Y-39.981
X-54.005 Y-40.351
X-53.352 Y-40.703
X-52.664 Y-41.036
X-51.941 Y-41.349
X-51.185 Y-41.638
X-50.396 Y-41.903
X-49.577 Y-42.14
X-48.73 Y-42.349
X-47.859 Y-42.528
X-46.966 Y-42.674
X-46.055 Y-42.786
X-45.13 Y-42.864
X-44.197 Y-42.905
X-43.259 Y-42.91
X-42.323 Y-42.878
X-41.392 Y-42.809
X-40.473 Y-42.705
X-39.569 Y-42.566
X-38.686 Y-42.394
X-37.826 Y-42.19
X-36.993 Y-41.956
X-36.19 Y-41.694
X-35.419 Y-41.407
X-34.682 Y-41.095
X-33.98 Y-40.762
X-33.315 Y-40.409
X-32.688 Y-40.039
X-32.098 Y-39.653
X-31.547 Y-39.252
X-31.034 Y-38.84
X-30.56 Y-38.417
X-30.124 Y-37.985
X-29.726 Y-37.546
X-29.365 Y-37.101
X-29.042 Y-36.651
X-28.755 Y-36.197
X-28.505 Y-35.741
X-28.289 Y-35.284
X-28.108 Y-34.825
X-27.96 Y-34.366
X-27.846 Y-33.907
X-27.764 Y-33.448
X-27.714 Y-32.99
X-27.696 Y-32.531
X-27.71 Y-32.073
X-27.755 Y-31.614
X-27.833 Y-31.156
X-27.942 Y-30.698
X-28.084 Y-30.24
X-28.26 Y-29.783
X-28.47 Y-29.327
X-28.714 Y-28.873
X-28.994 Y-28.421
X-29.309 Y-27.973
X-29.661 Y-27.53
X-30.05 Y-27.093
X-30.476 Y-26.662
X-30.939 Y-26.241
X-31.44 Y-25.83
X-31.979 Y-25.43
X-32.555 Y-25.045
X-33.168 Y-24.674
X-33.818 Y-24.32
X-34.503 Y-23.986
X-35.224 Y-23.672
X-35.978 Y-23.381
X-36.765 Y-23.115
X-37.582 Y-22.875
X-38.427 Y-22.664
X-39.297 Y-22.483
X-40.188 Y-22.335
X-41.098 Y-22.22
X-42.022 Y-22.14
X-42.955 Y-22.097
X-43.688 Y-22.091
S8000
X-43.892 Y-22.089 Z-1.002 F1016
X-44.829 Y-22.119 Z-1.014
X-45.76 Y-22.185 Z-1.025
X-46.68 Y-22.287 Z-1.036
X-47.585 Y-22.424 Z-1.047
X-48.471 Y-22.594 Z-1.058
X-49.332 Y-22.795 Z-1.068
X-50.167 Y-23.027 Z-1.079
X-50.972 Y-23.287 Z-1.089
X-51.745 Y-23.573 Z-1.099
X-52.485 Y-23.883 Z-1.108
X-53.189 Y-24.215 Z-1.118
X-53.856 Y-24.566 Z-1.127
X-54.486 Y-24.935 Z-1.135
X-55.079 Y-25.321 Z-1.144
X-55.632 Y-25.72 Z-1.152
X-56.148 Y-26.132 Z-1.16
X-56.625 Y-26.554 Z-1.168
X-57.063 Y-26.985 Z-1.175
X-57.464 Y-27.424 Z-1.182
X-57.827 Y-27.869 Z-1.189
X-58.153 Y-28.318 Z-1.196
X-58.442 Y-28.772 Z-1.202
X-58.695 Y-29.227 Z-1.208
X-58.913 Y-29.685 Z-1.214
X-59.097 Y-30.144 Z-1.22
X-59.246 Y-30.602 Z-1.226
X-59.363 Y-31.061 Z-1.232
X-59.447 Y-31.52 Z-1.237
X-59.499 Y-31.979 Z-1.243
X-59.52 Y-32.461 Z-1.249
Y-32.476
X-59.503 Y-32.958 Z-1.255
X-59.456 Y-33.417 Z-1.26
X-59.376 Y-33.875 Z-1.266
X-59.265 Y-34.333 Z-1.271
X-59.12 Y-34.791 Z-1.277
X-58.942 Y-35.248 Z-1.283
X-58.73 Y-35.704 Z-1.289
X-58.483 Y-36.158 Z-1.295
X-58.201 Y-36.609 Z-1.301
X-57.883 Y-37.057 Z-1.308
X-57.529 Y-37.5 Z-1.315
X-57.138 Y-37.937 Z-1.322
X-56.709 Y-38.367 Z-1.329
X-56.243 Y-38.787 Z-1.337
X-55.74 Y-39.198 Z-1.344
X-55.199 Y-39.596 Z-1.352
X-54.62 Y-39.981 Z-1.361
X-54.005 Y-40.351 Z-1.369
X-53.352 Y-40.703 Z-1.378
X-52.664 Y-41.036 Z-1.387
X-51.941 Y-41.349 Z-1.397
X-51.185 Y-41.638 Z-1.407
X-50.396 Y-41.903 Z-1.417
X-49.577 Y-42.14 Z-1.427
X-48.73 Y-42.349 Z-1.437
X-47.859 Y-42.528 Z-1.448
X-46.966 Y-42.674 Z-1.459
X-46.055 Y-42.786 Z-1.47
X-45.13 Y-42.864 Z-1.481
X-44.197 Y-42.905 Z-1.492
X-43.259 Y-42.91 Z-1.503
X-42.323 Y-42.878 Z-1.514
X-41.392 Y-42.809 Z-1.526
X-40.473 Y-42.705 Z-1.537
X-39.569 Y-42.566 Z-1.548
X-38.686 Y-42.394 Z-1.558
X-37.826 Y-42.19 Z-1.569
X-36.993 Y-41.956 Z-1.579
X-36.19 Y-41.694 Z-1.589
X-35.419 Y-41.407 Z-1.599
X-34.682 Y-41.095 Z-1.609
X-33.98 Y-40.762 Z-1.618
X-33.315 Y-40.409 Z-1.627
X-32.688 Y-40.039 Z-1.636
X-32.098 Y-39.653 Z-1.644
X-31.547 Y-39.252 Z-1.653
X-31.034 Y-38.84 Z-1.66
X-30.56 Y-38.417 Z-1.668
X-30.124 Y-37.985 Z-1.675
X-29.726 Y-37.546 Z-1.683
X-29.365 Y-37.101 Z-1.689
X-29.042 Y-36.651 Z-1.696
X-28.755 Y-36.197 Z-1.702
X-28.505 Y-35.741 Z-1.709
X-28.289 Y-35.284 Z-1.715
X-28.108 Y-34.825 Z-1.721
X-27.96 Y-34.366 Z-1.726
X-27.846 Y-33.907 Z-1.732
X-27.764 Y-33.448 Z-1.738
X-27.714 Y-32.99 Z-1.743
X-27.696 Y-32.531 Z-1.749
X-27.71 Y-32.073 Z-1.754
X-27.755 Y-31.614 Z-1.76
X-27.833 Y-31.156 Z-1.765
X-27.942 Y-30.698 Z-1.771
X-28.084 Y-30.24 Z-1.777
X-28.26 Y-29.783 Z-1.782
X-28.47 Y-29.327 Z-1.788
X-28.714 Y-28.873 Z-1.795
X-28.994 Y-28.421 Z-1.801
X-29.309 Y-27.973 Z-1.808
X-29.661 Y-27.53 Z-1.814
X-30.05 Y-27.093 Z-1.821
X-30.476 Y-26.662 Z-1.829
X-30.939 Y-26.241 Z-1.836
X-31.44 Y-25.83 Z-1.844
X-31.979 Y-25.43 Z-1.852
X-32.555 Y-25.045 Z-1.86
X-33.168 Y-24.674 Z-1.869
X-33.818 Y-24.32 Z-1.878
X-34.503 Y-23.986 Z-1.887
X-35.224 Y-23.672 Z-1.896
X-35.978 Y-23.381 Z-1.906
X-36.765 Y-23.115 Z-1.916
X-37.582 Y-22.875 Z-1.926
X-38.427 Y-22.664 Z-1.936
X-39.297 Y-22.483 Z-1.947
X-40.188 Y-22.335 Z-1.958
X-41.098 Y-22.22 Z-1.969
X-42.022 Y-22.14 Z-1.98
X-42.955 Y-22.097 Z-1.991
X-43.688 Y-22.091 Z-2
S6000
X-43.892 Y-22.089 F1500
X-44.829 Y-22.119
X-45.76 Y-22.185
X-46.68 Y-22.287
X-47.585 Y-22.424
X-48.471 Y-22.594
X-49.332 Y-22.795
X-50.167 Y-23.027
X-50.972 Y-23.287
X-51.745 Y-23.573
X-52.485 Y-23.883
X-53.189 Y-24.215
X-53.856 Y-24.566
X-54.486 Y-24.935
X-55.079 Y-25.321
X-55.632 Y-25.72
X-56.148 Y-26.132
X-56.625 Y-26.554
X-57.063 Y-26.985
X-57.464 Y-27.424
X-57.827 Y-27.869
X-58.153 Y-28.318
X-58.442 Y-28.772
X-58.695 Y-29.227
X-58.913 Y-29.685
X-59.097 Y-30.144
X-59.246 Y-30.602
X-59.363 Y-31.061
X-59.447 Y-31.52
X-59.499 Y-31.979
X-59.52 Y-32.461
Y-32.476
X-59.503 Y-32.958
X-59.456 Y-33.417
X-59.376 Y-33.875
X-59.265 Y-34.333
X-59.12 Y-34.791
X-58.942 Y-35.248
X-58.73 Y-35.704
X-58.483 Y-36.158
X-58.201 Y-36.609
X-57.883 Y-37.057
X-57.529 Y-37.5
X-57.138 Y-37.937
X-56.709 Y-38.367
X-56.243 Y-38.787
X-55.74 Y-39.198
X-55.199 Y-39.596
X-54.62 Y-39.981
X-54.005 Y-40.351
X-53.352 Y-40.703
X-52.664 Y-41.036
X-51.941 Y-41.349
X-51.185 Y-41.638
X-50.396 Y-41.903
X-49.577 Y-42.14
X-48.73 Y-42.349
X-47.859 Y-42.528
X-46.966 Y-42.674
X-46.055 Y-42.786
X-45.13 Y-42.864
X-44.197 Y-42.905
X-43.259 Y-42.91
X-42.323 Y-42.878
X-41.392 Y-42.809
X-40.473 Y-42.705
X-39.569 Y-42.566
X-38.686 Y-42.394
X-37.826 Y-42.19
X-36.993 Y-41.956
X-36.19 Y-41.694
X-35.419 Y-41.407
X-34.682 Y-41.095
X-33.98 Y-40.762
X-33.315 Y-40.409
X-32.688 Y-40.039
X-32.098 Y-39.653
X-31.547 Y-39.252
X-31.034 Y-38.84
X-30.56 Y-38.417
X-30.124 Y-37.985
X-29.726 Y-37.546
X-29.365 Y-37.101
X-29.042 Y-36.651
X-28.755 Y-36.197
X-28.505 Y-35.741
X-28.289 Y-35.284
X-28.108 Y-34.825
X-27.96 Y-34.366
X-27.846 Y-33.907
X-27.764 Y-33.448
X-27.714 Y-32.99
X-27.696 Y-32.531
X-27.71 Y-32.073
X-27.755 Y-31.614
X-27.833 Y-31.156
X-27.942 Y-30.698
X-28.084 Y-30.24
X-28.26 Y-29.783
X-28.47 Y-29.327
X-28.714 Y-28.873
X-28.994 Y-28.421
X-29.309 Y-27.973
X-29.661 Y-27.53
X-30.05 Y-27.093
X-30.476 Y-26.662
X-30.939 Y-26.241
X-31.44 Y-25.83
X-31.979 Y-25.43
X-32.555 Y-25.045
X-33.168 Y-24.674
X-33.818 Y-24.32
X-34.503 Y-23.986
X-35.224 Y-23.672
X-35.978 Y-23.381
X-36.765 Y-23.115
X-37.582 Y-22.875
X-38.427 Y-22.664
X-39.297 Y-22.483
X-40.188 Y-22.335
X-41.098 Y-22.22
X-42.022 Y-22.14
X-42.955 Y-22.097
X-43.688 Y-22.091
S8000
X-43.892 Y-22.089 Z-2.002 F1016
X-44.829 Y-22.119 Z-2.014
X-45.76 Y-22.185 Z-2.025
X-46.68 Y-22.287 Z-2.036
X-47.585 Y-22.424 Z-2.047
X-48.471 Y-22.594 Z-2.058
X-49.332 Y-22.795 Z-2.068
X-50.167 Y-23.027 Z-2.079
X-50.972 Y-23.287 Z-2.089
X-51.745 Y-23.573 Z-2.099
X-52.485 Y-23.883 Z-2.108
X-53.189 Y-24.215 Z-2.118
X-53.856 Y-24.566 Z-2.127
X-54.486 Y-24.935 Z-2.135
X-55.079 Y-25.321 Z-2.144
X-55.632 Y-25.72 Z-2.152
X-56.148 Y-26.132 Z-2.16
X-56.625 Y-26.554 Z-2.168
X-57.063 Y-26.985 Z-2.175
X-57.464 Y-27.424 Z-2.182
X-57.827 Y-27.869 Z-2.189
X-58.153 Y-28.318 Z-2.196
X-58.442 Y-28.772 Z-2.202
X-58.695 Y-29.227 Z-2.208
X-58.913 Y-29.685 Z-2.214
X-59.097 Y-30.144 Z-2.22
X-59.246 Y-30.602 Z-2.226
X-59.363 Y-31.061 Z-2.232
X-59.447 Y-31.52 Z-2.237
X-59.499 Y-31.979 Z-2.243
X-59.52 Y-32.461 Z-2.249
Y-32.476
X-59.503 Y-32.958 Z-2.255
X-59.456 Y-33.417 Z-2.26
X-59.376 Y-33.875 Z-2.266
X-59.265 Y-34.333 Z-2.271
X-59.12 Y-34.791 Z-2.277
X-58.942 Y-35.248 Z-2.283
X-58.73 Y-35.704 Z-2.289
X-58.483 Y-36.158 Z-2.295
X-58.201 Y-36.609 Z-2.301
X-57.883 Y-37.057 Z-2.308
X-57.529 Y-37.5 Z-2.315
X-57.138 Y-37.937 Z-2.322
X-56.709 Y-38.367 Z-2.329
X-56.243 Y-38.787 Z-2.337
X-55.74 Y-39.198 Z-2.344
X-55.199 Y-39.596 Z-2.352
X-54.62 Y-39.981 Z-2.361
X-54.005 Y-40.351 Z-2.369
X-53.352 Y-40.703 Z-2.378
X-52.664 Y-41.036 Z-2.387
X-51.941 Y-41.349 Z-2.397
X-51.185 Y-41.638 Z-2.407
X-50.396 Y-41.903 Z-2.417
X-49.577 Y-42.14 Z-2.427
X-48.73 Y-42.349 Z-2.437
X-47.859 Y-42.528 Z-2.448
X-46.966 Y-42.674 Z-2.459
X-46.055 Y-42.786 Z-2.47
X-45.13 Y-42.864 Z-2.481
X-44.197 Y-42.905 Z-2.492
X-43.259 Y-42.91 Z-2.503
X-42.323 Y-42.878 Z-2.514
X-41.392 Y-42.809 Z-2.526
X-40.473 Y-42.705 Z-2.537
X-39.569 Y-42.566 Z-2.548
X-38.686 Y-42.394 Z-2.558
X-37.826 Y-42.19 Z-2.569
X-36.993 Y-41.956 Z-2.579
X-36.19 Y-41.694 Z-2.589
X-35.419 Y-41.407 Z-2.599
X-34.682 Y-41.095 Z-2.609
X-33.98 Y-40.762 Z-2.618
X-33.315 Y-40.409 Z-2.627
X-32.688 Y-40.039 Z-2.636
X-32.098 Y-39.653 Z-2.644
X-31.547 Y-39.252 Z-2.653
X-31.034 Y-38.84 Z-2.66
X-30.56 Y-38.417 Z-2.668
X-30.124 Y-37.985 Z-2.675
X-29.726 Y-37.546 Z-2.683
X-29.365 Y-37.101 Z-2.689
X-29.042 Y-36.651 Z-2.696
X-28.755 Y-36.197 Z-2.702
X-28.505 Y-35.741 Z-2.709
X-28.289 Y-35.284 Z-2.715
X-28.108 Y-34.825 Z-2.721
X-27.96 Y-34.366 Z-2.726
X-27.846 Y-33.907 Z-2.732
X-27.764 Y-33.448 Z-2.738
X-27.714 Y-32.99 Z-2.743
X-27.696 Y-32.531 Z-2.749
X-27.71 Y-32.073 Z-2.754
X-27.755 Y-31.614 Z-2.76
X-27.833 Y-31.156 Z-2.765
X-27.942 Y-30.698 Z-2.771
X-28.084 Y-30.24 Z-2.777
X-28.26 Y-29.783 Z-2.782
X-28.47 Y-29.327 Z-2.788
X-28.714 Y-28.873 Z-2.795
X-28.994 Y-28.421 Z-2.801
X-29.309 Y-27.973 Z-2.808
X-29.661 Y-27.53 Z-2.814
X-30.05 Y-27.093 Z-2.821
X-30.476 Y-26.662 Z-2.829
X-30.939 Y-26.241 Z-2.836
X-31.44 Y-25.83 Z-2.844
X-31.979 Y-25.43 Z-2.852
X-32.555 Y-25.045 Z-2.86
X-33.168 Y-24.674 Z-2.869
X-33.818 Y-24.32 Z-2.878
X-34.503 Y-23.986 Z-2.887
X-35.224 Y-23.672 Z-2.896
X-35.978 Y-23.381 Z-2.906
X-36.765 Y-23.115 Z-2.916
X-37.582 Y-22.875 Z-2.926
X-38.427 Y-22.664 Z-2.936
X-39.297 Y-22.483 Z-2.947
X-40.188 Y-22.335 Z-2.958
X-41.098 Y-22.22 Z-2.969
X-42.022 Y-22.14 Z-2.98
X-42.955 Y-22.097 Z-2.991
X-43.688 Y-22.091 Z-3
S6000
X-43.892 Y-22.089 F1500
X-44.829 Y-22.119
X-45.76 Y-22.185
X-46.68 Y-22.287
X-47.585 Y-22.424
X-48.471 Y-22.594
X-49.332 Y-22.795
X-50.167 Y-23.027
X-50.972 Y-23.287
X-51.745 Y-23.573
X-52.485 Y-23.883
X-53.189 Y-24.215
X-53.856 Y-24.566
X-54.486 Y-24.935
X-55.079 Y-25.321
X-55.632 Y-25.72
X-56.148 Y-26.132
X-56.625 Y-26.554
X-57.063 Y-26.985
X-57.464 Y-27.424
X-57.827 Y-27.869
X-58.153 Y-28.318
X-58.442 Y-28.772
X-58.695 Y-29.227
X-58.913 Y-29.685
X-59.097 Y-30.144
X-59.246 Y-30.602
X-59.363 Y-31.061
X-59.447 Y-31.52
X-59.499 Y-31.979
X-59.52 Y-32.461
Y-32.476
X-59.503 Y-32.958
X-59.456 Y-33.417
X-59.376 Y-33.875
X-59.265 Y-34.333
X-59.12 Y-34.791
X-58.942 Y-35.248
X-58.73 Y-35.704
X-58.483 Y-36.158
X-58.201 Y-36.609
X-57.883 Y-37.057
X-57.529 Y-37.5
X-57.138 Y-37.937
X-56.709 Y-38.367
X-56.243 Y-38.787
X-55.74 Y-39.198
X-55.199 Y-39.596
X-54.62 Y-39.981
X-54.005 Y-40.351
X-53.352 Y-40.703
X-52.664 Y-41.036
X-51.941 Y-41.349
X-51.185 Y-41.638
X-50.396 Y-41.903
X-49.577 Y-42.14
X-48.73 Y-42.349
X-47.859 Y-42.528
X-46.966 Y-42.674
X-46.055 Y-42.786
X-45.13 Y-42.864
X-44.197 Y-42.905
X-43.259 Y-42.91
X-42.323 Y-42.878
X-41.392 Y-42.809
X-40.473 Y-42.705
X-39.569 Y-42.566
X-38.686 Y-42.394
X-37.826 Y-42.19
X-36.993 Y-41.956
X-36.19 Y-41.694
X-35.419 Y-41.407
X-34.682 Y-41.095
X-33.98 Y-40.762
X-33.315 Y-40.409
X-32.688 Y-40.039
X-32.098 Y-39.653
X-31.547 Y-39.252
X-31.034 Y-38.84
X-30.56 Y-38.417
X-30.124 Y-37.985
X-29.726 Y-37.546
X-29.365 Y-37.101
X-29.042 Y-36.651
X-28.755 Y-36.197
X-28.505 Y-35.741
X-28.289 Y-35.284
X-28.108 Y-34.825
X-27.96 Y-34.366
X-27.846 Y-33.907
X-27.764 Y-33.448
X-27.714 Y-32.99
X-27.696 Y-32.531
X-27.71 Y-32.073
X-27.755 Y-31.614
X-27.833 Y-31.156
X-27.942 Y-30.698
X-28.084 Y-30.24
X-28.26 Y-29.783
X-28.47 Y-29.327
X-28.714 Y-28.873
X-28.994 Y-28.421
X-29.309 Y-27.973
X-29.661 Y-27.53
X-30.05 Y-27.093
X-30.476 Y-26.662
X-30.939 Y-26.241
X-31.44 Y-25.83
X-31.979 Y-25.43
X-32.555 Y-25.045
X-33.168 Y-24.674
X-33.818 Y-24.32
X-34.503 Y-23.986
X-35.224 Y-23.672
X-35.978 Y-23.381
X-36.765 Y-23.115
X-37.582 Y-22.875
X-38.427 Y-22.664
X-39.297 Y-22.483
X-40.188 Y-22.335
X-41.098 Y-22.22
X-42.022 Y-22.14
X-42.955 Y-22.097
X-43.688 Y-22.091
S8000
X-43.892 Y-22.089 Z-3.002 F1016
X-44.829 Y-22.119 Z-3.014
X-45.76 Y-22.185 Z-3.025
X-46.68 Y-22.287 Z-3.036
X-47.585 Y-22.424 Z-3.047
X-48.471 Y-22.594 Z-3.058
X-49.332 Y-22.795 Z-3.068
X-50.167 Y-23.027 Z-3.079
X-50.972 Y-23.287 Z-3.089
X-51.745 Y-23.573 Z-3.099
X-52.485 Y-23.883 Z-3.108
X-53.189 Y-24.215 Z-3.118
X-53.856 Y-24.566 Z-3.127
X-54.486 Y-24.935 Z-3.135
X-55.079 Y-25.321 Z-3.144
X-55.632 Y-25.72 Z-3.152
X-56.148 Y-26.132 Z-3.16
X-56.625 Y-26.554 Z-3.168
X-57.063 Y-26.985 Z-3.175
X-57.464 Y-27.424 Z-3.182
X-57.827 Y-27.869 Z-3.189
X-58.153 Y-28.318 Z-3.196
X-58.442 Y-28.772 Z-3.202
X-58.695 Y-29.227 Z-3.208
X-58.913 Y-29.685 Z-3.214
X-59.097 Y-30.144 Z-3.22
X-59.246 Y-30.602 Z-3.226
X-59.363 Y-31.061 Z-3.232
X-59.447 Y-31.52 Z-3.237
X-59.499 Y-31.979 Z-3.243
X-59.52 Y-32.461 Z-3.249
Y-32.476
X-59.503 Y-32.958 Z-3.255
X-59.456 Y-33.417 Z-3.26
X-59.376 Y-33.875 Z-3.266
X-59.265 Y-34.333 Z-3.271
X-59.12 Y-34.791 Z-3.277
X-58.942 Y-35.248 Z-3.283
X-58.73 Y-35.704 Z-3.289
X-58.483 Y-36.158 Z-3.295
X-58.201 Y-36.609 Z-3.301
X-57.883 Y-37.057 Z-3.308
X-57.529 Y-37.5 Z-3.315
X-57.138 Y-37.937 Z-3.322
X-56.709 Y-38.367 Z-3.329
X-56.243 Y-38.787 Z-3.337
X-55.74 Y-39.198 Z-3.344
X-55.199 Y-39.596 Z-3.352
X-54.62 Y-39.981 Z-3.361
X-54.005 Y-40.351 Z-3.369
X-53.352 Y-40.703 Z-3.378
X-52.664 Y-41.036 Z-3.387
X-51.941 Y-41.349 Z-3.397
X-51.185 Y-41.638 Z-3.407
X-50.396 Y-41.903 Z-3.417
X-49.577 Y-42.14 Z-3.427
X-48.73 Y-42.349 Z-3.437
X-47.859 Y-42.528 Z-3.448
X-46.966 Y-42.674 Z-3.459
X-46.055 Y-42.786 Z-3.47
X-45.13 Y-42.864 Z-3.481
X-44.197 Y-42.905 Z-3.492
X-43.259 Y-42.91 Z-3.503
X-42.323 Y-42.878 Z-3.514
X-41.392 Y-42.809 Z-3.526
X-40.473 Y-42.705 Z-3.537
X-39.569 Y-42.566 Z-3.548
X-38.686 Y-42.394 Z-3.558
X-37.826 Y-42.19 Z-3.569
X-36.993 Y-41.956 Z-3.579
X-36.19 Y-41.694 Z-3.589
X-35.419 Y-41.407 Z-3.599
X-34.682 Y-41.095 Z-3.609
X-33.98 Y-40.762 Z-3.618
X-33.315 Y-40.409 Z-3.627
X-32.688 Y-40.039 Z-3.636
X-32.098 Y-39.653 Z-3.644
X-31.547 Y-39.252 Z-3.653
X-31.034 Y-38.84 Z-3.66
X-30.56 Y-38.417 Z-3.668
X-30.124 Y-37.985 Z-3.675
X-29.726 Y-37.546 Z-3.683
X-29.365 Y-37.101 Z-3.689
X-29.042 Y-36.651 Z-3.696
X-28.755 Y-36.197 Z-3.702
X-28.505 Y-35.741 Z-3.709
X-28.289 Y-35.284 Z-3.715
X-28.108 Y-34.825 Z-3.721
X-27.96 Y-34.366 Z-3.726
X-27.846 Y-33.907 Z-3.732
X-27.764 Y-33.448 Z-3.738
X-27.714 Y-32.99 Z-3.743
X-27.696 Y-32.531 Z-3.749
X-27.71 Y-32.073 Z-3.754
X-27.755 Y-31.614 Z-3.76
X-27.833 Y-31.156 Z-3.765
X-27.942 Y-30.698 Z-3.771
X-28.084 Y-30.24 Z-3.777
X-28.26 Y-29.783 Z-3.782
X-28.47 Y-29.327 Z-3.788
X-28.714 Y-28.873 Z-3.795
X-28.994 Y-28.421 Z-3.801
X-29.309 Y-27.973 Z-3.808
X-29.661 Y-27.53 Z-3.814
X-30.05 Y-27.093 Z-3.821
X-30.476 Y-26.662 Z-3.829
X-30.939 Y-26.241 Z-3.836
X-31.44 Y-25.83 Z-3.844
X-31.979 Y-25.43 Z-3.852
X-32.555 Y-25.045 Z-3.86
X-33.168 Y-24.674 Z-3.869
X-33.818 Y-24.32 Z-3.878
X-34.503 Y-23.986 Z-3.887
X-35.224 Y-23.672 Z-3.896
X-35.978 Y-23.381 Z-3.906
X-36.765 Y-23.115 Z-3.916
X-37.582 Y-22.875 Z-3.926
X-38.427 Y-22.664 Z-3.936
X-39.297 Y-22.483 Z-3.947
X-40.188 Y-22.335 Z-3.958
X-41.098 Y-22.22 Z-3.969
X-42.022 Y-22.14 Z-3.98
X-42.955 Y-22.097 Z-3.991
X-43.688 Y-22.091 Z-4
S6000
X-43.892 Y-22.089 F1500
X-44.829 Y-22.119
X-45.76 Y-22.185
X-46.68 Y-22.287
X-47.585 Y-22.424
X-48.471 Y-22.594
X-49.332 Y-22.795
X-50.167 Y-23.027
X-50.972 Y-23.287
X-51.745 Y-23.573
X-52.485 Y-23.883
X-53.189 Y-24.215
X-53.856 Y-24.566
X-54.486 Y-24.935
X-55.079 Y-25.321
X-55.632 Y-25.72
X-56.148 Y-26.132
X-56.625 Y-26.554
X-57.063 Y-26.985
X-57.464 Y-27.424
X-57.827 Y-27.869
X-58.153 Y-28.318
X-58.442 Y-28.772
X-58.695 Y-29.227
X-58.913 Y-29.685
X-59.097 Y-30.144
X-59.246 Y-30.602
X-59.363 Y-31.061
X-59.447 Y-31.52
X-59.499 Y-31.979
X-59.52 Y-32.461
Y-32.476
X-59.503 Y-32.958
X-59.456 Y-33.417
X-59.376 Y-33.875
X-59.265 Y-34.333
X-59.12 Y-34.791
X-58.942 Y-35.248
X-58.73 Y-35.704
X-58.483 Y-36.158
X-58.201 Y-36.609
X-57.883 Y-37.057
X-57.529 Y-37.5
X-57.138 Y-37.937
X-56.709 Y-38.367
X-56.243 Y-38.787
X-55.74 Y-39.198
X-55.199 Y-39.596
X-54.62 Y-39.981
X-54.005 Y-40.351
X-53.352 Y-40.703
X-52.664 Y-41.036
X-51.941 Y-41.349
X-51.185 Y-41.638
X-50.396 Y-41.903
X-49.577 Y-42.14
X-48.73 Y-42.349
X-47.859 Y-42.528
X-46.966 Y-42.674
X-46.055 Y-42.786
X-45.13 Y-42.864
X-44.197 Y-42.905
X-43.259 Y-42.91
X-42.323 Y-42.878
X-41.392 Y-42.809
X-40.473 Y-42.705
X-39.569 Y-42.566
X-38.686 Y-42.394
X-37.826 Y-42.19
X-36.993 Y-41.956
X-36.19 Y-41.694
X-35.419 Y-41.407
X-34.682 Y-41.095
X-33.98 Y-40.762
X-33.315 Y-40.409
X-32.688 Y-40.039
X-32.098 Y-39.653
X-31.547 Y-39.252
X-31.034 Y-38.84
X-30.56 Y-38.417
X-30.124 Y-37.985
X-29.726 Y-37.546
X-29.365 Y-37.101
X-29.042 Y-36.651
X-28.755 Y-36.197
X-28.505 Y-35.741
X-28.289 Y-35.284
X-28.108 Y-34.825
X-27.96 Y-34.366
X-27.846 Y-33.907
X-27.764 Y-33.448
X-27.714 Y-32.99
X-27.696 Y-32.531
X-27.71 Y-32.073
X-27.755 Y-31.614
X-27.833 Y-31.156
X-27.942 Y-30.698
X-28.084 Y-30.24
X-28.26 Y-29.783
X-28.47 Y-29.327
X-28.714 Y-28.873
X-28.994 Y-28.421
X-29.309 Y-27.973
X-29.661 Y-27.53
X-30.05 Y-27.093
X-30.476 Y-26.662
X-30.939 Y-26.241
X-31.44 Y-25.83
X-31.979 Y-25.43
X-32.555 Y-25.045
X-33.168 Y-24.674
X-33.818 Y-24.32
X-34.503 Y-23.986
X-35.224 Y-23.672
X-35.978 Y-23.381
X-36.765 Y-23.115
X-37.582 Y-22.875
X-38.427 Y-22.664
X-39.297 Y-22.483
X-40.188 Y-22.335
X-41.098 Y-22.22
X-42.022 Y-22.14
X-42.955 Y-22.097
X-43.688 Y-22.091
S8000
X-43.892 Y-22.089 Z-4.002 F1016
X-44.829 Y-22.119 Z-4.014
X-45.76 Y-22.185 Z-4.025
X-46.68 Y-22.287 Z-4.036
X-47.585 Y-22.424 Z-4.047
X-48.471 Y-22.594 Z-4.058
X-49.332 Y-22.795 Z-4.068
X-50.167 Y-23.027 Z-4.079
X-50.972 Y-23.287 Z-4.089
X-51.745 Y-23.573 Z-4.099
X-52.485 Y-23.883 Z-4.108
X-53.189 Y-24.215 Z-4.118
X-53.856 Y-24.566 Z-4.127
X-54.486 Y-24.935 Z-4.135
X-55.079 Y-25.321 Z-4.144
X-55.632 Y-25.72 Z-4.152
X-56.148 Y-26.132 Z-4.16
X-56.625 Y-26.554 Z-4.168
X-57.063 Y-26.985 Z-4.175
X-57.464 Y-27.424 Z-4.182
X-57.827 Y-27.869 Z-4.189
X-58.153 Y-28.318 Z-4.196
X-58.442 Y-28.772 Z-4.202
X-58.695 Y-29.227 Z-4.208
X-58.913 Y-29.685 Z-4.214
X-59.097 Y-30.144 Z-4.22
X-59.246 Y-30.602 Z-4.226
X-59.363 Y-31.061 Z-4.232
X-59.447 Y-31.52 Z-4.237
X-59.499 Y-31.979 Z-4.243
X-59.52 Y-32.461 Z-4.249
Y-32.476
X-59.503 Y-32.958 Z-4.255
X-59.456 Y-33.417 Z-4.26
X-59.376 Y-33.875 Z-4.266
X-59.265 Y-34.333 Z-4.271
X-59.12 Y-34.791 Z-4.277
X-58.942 Y-35.248 Z-4.283
X-58.73 Y-35.704 Z-4.289
X-58.483 Y-36.158 Z-4.295
X-58.266 Y-36.505 Z-4.3
S6000
X-58.201 Y-36.609 F1500
X-57.883 Y-37.057
X-57.529 Y-37.5
X-57.138 Y-37.937
X-56.709 Y-38.367
X-56.243 Y-38.787
X-55.74 Y-39.198
X-55.199 Y-39.596
X-54.62 Y-39.981
X-54.005 Y-40.351
X-53.352 Y-40.703
X-52.664 Y-41.036
X-51.941 Y-41.349
X-51.185 Y-41.638
X-50.396 Y-41.903
X-49.577 Y-42.14
X-48.73 Y-42.349
X-47.859 Y-42.528
X-46.966 Y-42.674
X-46.055 Y-42.786
X-45.13 Y-42.864
X-44.197 Y-42.905
X-43.259 Y-42.91
X-42.323 Y-42.878
X-41.392 Y-42.809
X-40.473 Y-42.705
X-39.569 Y-42.566
X-38.686 Y-42.394
X-37.826 Y-42.19
X-36.993 Y-41.956
X-36.19 Y-41.694
X-35.419 Y-41.407
X-34.682 Y-41.095
X-33.98 Y-40.762
X-33.315 Y-40.409
X-32.688 Y-40.039
X-32.098 Y-39.653
X-31.547 Y-39.252
X-31.034 Y-38.84
X-30.56 Y-38.417
X-30.124 Y-37.985
X-29.726 Y-37.546
X-29.365 Y-37.101
X-29.042 Y-36.651
X-28.755 Y-36.197
X-28.505 Y-35.741
X-28.289 Y-35.284
X-28.108 Y-34.825
X-27.96 Y-34.366
X-27.846 Y-33.907
X-27.764 Y-33.448
X-27.714 Y-32.99
X-27.696 Y-32.531
X-27.71 Y-32.073
X-27.755 Y-31.614
X-27.833 Y-31.156
X-27.942 Y-30.698
X-28.084 Y-30.24
X-28.26 Y-29.783
X-28.47 Y-29.327
X-28.714 Y-28.873
X-28.994 Y-28.421
X-29.309 Y-27.973
X-29.661 Y-27.53
X-30.05 Y-27.093
X-30.476 Y-26.662
X-30.939 Y-26.241
X-31.44 Y-25.83
X-31.979 Y-25.43
X-32.555 Y-25.045
X-33.168 Y-24.674
X-33.818 Y-24.32
X-34.503 Y-23.986
X-35.224 Y-23.672
X-35.978 Y-23.381
X-36.765 Y-23.115
X-37.582 Y-22.875
X-38.427 Y-22.664
X-39.297 Y-22.483
X-40.188 Y-22.335
X-41.098 Y-22.22
X-42.022 Y-22.14
X-42.955 Y-22.097
X-43.688 Y-22.091
X-43.892 Y-22.089
X-44.829 Y-22.119
X-45.76 Y-22.185
X-46.68 Y-22.287
X-47.585 Y-22.424
X-48.471 Y-22.594
X-49.332 Y-22.795
X-50.167 Y-23.027
X-50.972 Y-23.287
X-51.745 Y-23.573
X-52.485 Y-23.883
X-53.189 Y-24.215
X-53.856 Y-24.566
X-54.486 Y-24.935
X-55.079 Y-25.321
X-55.632 Y-25.72
X-56.148 Y-26.132
X-56.625 Y-26.554
X-57.063 Y-26.985
X-57.464 Y-27.424
X-57.827 Y-27.869
X-58.153 Y-28.318
X-58.442 Y-28.772
X-58.695 Y-29.227
X-58.913 Y-29.685
X-59.097 Y-30.144
X-59.246 Y-30.602
X-59.363 Y-31.061
X-59.447 Y-31.52
X-59.499 Y-31.979
X-59.52 Y-32.461
Y-32.476
X-59.503 Y-32.958
X-59.456 Y-33.417
X-59.376 Y-33.875
X-59.265 Y-34.333
X-59.12 Y-34.791
X-58.942 Y-35.248
X-58.73 Y-35.704
X-58.483 Y-36.158
X-58.266 Y-36.505
Z15
(When using Fusion 360 for Personal Use, the feedrate of)
(rapid moves is reduced to match the feedrate of cutting)
(moves, which can increase machining time. Unrestricted rapid)
(moves are available with a Fusion 360 Subscription.)

(2D Adaptive1)
G0 X-5.04 Y-62.547
G1 Z15 F1500
Z5
Z-0.365
Z-0.683 F1016
X-5.039 Y-62.539 Z-0.753
X-5.036 Y-62.515 Z-0.82
X-5.032 Y-62.478 Z-0.88
X-5.026 Y-62.428 Z-0.931
X-5.019 Y-62.368 Z-0.969
X-5.011 Y-62.302 Z-0.992
X-5.003 Y-62.231 Z-1
G3 X-5.235 Y-60.501 I-3.495 J0.411
G1 X-5.283 Y-60.393 F1500
X-5.3 Y-60.36
X-5.441 Y-60.308
X-5.587 Y-60.276
X-5.736 Y-60.258
X-5.902 Y-60.25
X-6.108 Y-60.255
X-6.366 Y-60.277
X-6.703 Y-60.33
X-7.169 Y-60.434
X-7.785 Y-60.615
X-8.39 Y-60.832
X-8.988 Y-61.066
X-9.582 Y-61.31
X-10.173 Y-61.56
X-10.764 Y-61.812
X-11.353 Y-62.067
X-12.532 Y-62.578
X-14.897 Y-63.609
X-15.102 Y-63.732
X-15.268 Y-63.904
X-15.385 Y-64.113
X-15.444 Y-64.345
X-15.441 Y-64.584
X-15.376 Y-64.814
G3 X-14.78 Y-64.752 I0.288 J0.135 F1016
G1 X-14.763 Y-64.683 Z-0.992
X-14.748 Y-64.618 Z-0.969
X-14.734 Y-64.559 Z-0.931
X-14.723 Y-64.51 Z-0.88
X-14.714 Y-64.473 Z-0.82
X-14.709 Y-64.45 Z-0.753
X-14.707 Y-64.443 Z-0.683
Z5 F1500
X-5.216 Y-61.487
Z-0.365
Z-0.683 F1016
X-5.215 Y-61.479 Z-0.753
X-5.212 Y-61.456 Z-0.82
X-5.208 Y-61.418 Z-0.88
X-5.202 Y-61.368 Z-0.931
X-5.195 Y-61.308 Z-0.969
X-5.187 Y-61.242 Z-0.992
X-5.179 Y-61.172 Z-1
G3 X-5.283 Y-60.393 I-1.572 J0.185
G1 X-5.416 Y-60.095 F1500
X-5.45 Y-60.028
X-5.571 Y-59.938
X-5.701 Y-59.865
X-5.839 Y-59.805
X-5.981 Y-59.758
X-6.138 Y-59.719
X-6.309 Y-59.688
X-6.507 Y-59.665
X-6.757 Y-59.654
X-7.023 Y-59.659
X-7.363 Y-59.688
X-7.77 Y-59.751
X-8.319 Y-59.873
X-8.935 Y-60.054
X-9.542 Y-60.265
X-10.142 Y-60.494
X-10.738 Y-60.734
X-11.33 Y-60.98
X-11.922 Y-61.231
X-12.512 Y-61.484
X-13.691 Y-61.994
X-14.28 Y-62.25
X-14.658 Y-62.426
X-14.902 Y-62.559
X-15.088 Y-62.678
X-15.236 Y-62.787
X-15.384 Y-62.912
X-15.495 Y-63.018
X-15.538 Y-63.066
X-15.685 Y-63.282
X-15.765 Y-63.532
X-15.771 Y-63.793
X-15.704 Y-64.046
G3 X-15.107 Y-63.984 I0.288 J0.135 F1016
G1 X-15.091 Y-63.915 Z-0.992
X-15.076 Y-63.85 Z-0.969
X-15.062 Y-63.791 Z-0.931
X-15.051 Y-63.742 Z-0.88
X-15.042 Y-63.705 Z-0.82
X-15.037 Y-63.682 Z-0.753
X-15.035 Y-63.675 Z-0.683
Z5 F1500
X-5.349 Y-61.189
Z-0.365
Z-0.683 F1016
X-5.348 Y-61.181 Z-0.753
X-5.345 Y-61.157 Z-0.82
X-5.341 Y-61.12 Z-0.88
X-5.335 Y-61.07 Z-0.931
X-5.328 Y-61.01 Z-0.969
X-5.32 Y-60.943 Z-0.992
X-5.312 Y-60.873 Z-1
G3 X-5.416 Y-60.095 I-1.572 J0.185
G1 X-5.59 Y-59.704 F1500
X-5.658 Y-59.571
X-5.761 Y-59.462
X-5.878 Y-59.367
X-6.003 Y-59.285
X-6.135 Y-59.214
X-6.273 Y-59.154
X-6.423 Y-59.1
X-6.596 Y-59.051
X-6.796 Y-59.008
X-7.018 Y-58.975
X-7.294 Y-58.954
X-7.581 Y-58.95
X-7.951 Y-58.97
X-8.368 Y-59.021
X-8.902 Y-59.122
X-9.524 Y-59.283
X-10.136 Y-59.478
X-10.74 Y-59.695
X-11.339 Y-59.927
X-11.934 Y-60.167
X-12.527 Y-60.414
X-13.119 Y-60.664
X-13.709 Y-60.917
X-14.297 Y-61.175
X-14.759 Y-61.402
X-15.104 Y-61.602
X-15.34 Y-61.76
X-15.545 Y-61.918
X-15.703 Y-62.058
X-15.821 Y-62.177
X-15.899 Y-62.267
X-16.038 Y-62.482
X-16.113 Y-62.726
X-16.118 Y-62.982
X-16.052 Y-63.229
X-16 Y-63.352
G3 X-15.622 Y-63.533 Z-0.816 I0.292 J0.124 F1016
G1 X-15.583 Y-63.523 Z-0.8
X-15.344 Y-63.455
X-5.715 Y-60.751 F1500
G3 X-5.486 Y-60.483 I-0.086 J0.306
G1 X-5.481 Y-60.436
X-5.475 Y-60.312 F1016
X-5.479 Y-60.188
G3 X-5.59 Y-59.704 Z-1 I-1.579 J-0.11
G1 X-5.834 Y-59.157 F1500
X-5.902 Y-59.023
X-5.992 Y-58.902
X-6.096 Y-58.795
X-6.211 Y-58.698
X-6.334 Y-58.613
X-6.464 Y-58.538
X-6.602 Y-58.471
X-6.763 Y-58.405
X-6.945 Y-58.344
X-7.154 Y-58.29
X-7.387 Y-58.246
X-7.659 Y-58.212
X-7.967 Y-58.195
X-8.332 Y-58.199
X-8.744 Y-58.231
X-9.255 Y-58.305
X-9.883 Y-58.438
X-10.501 Y-58.612
X-11.111 Y-58.813
X-11.715 Y-59.033
X-12.314 Y-59.265
X-12.909 Y-59.505
X-13.502 Y-59.752
X-14.092 Y-60.006
X-14.674 Y-60.278
X-15.121 Y-60.519
X-15.475 Y-60.741
X-15.729 Y-60.925
X-15.94 Y-61.1
X-16.097 Y-61.249
X-16.216 Y-61.378
X-16.276 Y-61.452
X-16.404 Y-61.664
X-16.471 Y-61.903
X-16.472 Y-62.15
X-16.407 Y-62.389
X-16.052 Y-63.229
G3 X-15.647 Y-63.391 Z-0.807 I0.288 J0.134 F1016
G1 X-15.63 Y-63.384 Z-0.8
X-15.399 Y-63.293
X-6.24 Y-59.662 F1500
X-6.012 Y-59.571 F1016
X-6.009 Y-59.57
G3 X-5.834 Y-59.157 Z-1 I-0.12 J0.294
G1 X-6.147 Y-58.459 F1500
X-6.215 Y-58.325
X-6.304 Y-58.205
X-6.407 Y-58.095
X-6.519 Y-57.996
X-6.64 Y-57.907
X-6.767 Y-57.827
X-6.913 Y-57.75
X-7.075 Y-57.677
X-7.263 Y-57.606
X-7.475 Y-57.543
X-7.716 Y-57.488
X-7.995 Y-57.443
X-8.304 Y-57.415
X-8.681 Y-57.405
X-9.086 Y-57.422
X-9.585 Y-57.475
X-10.189 Y-57.581
X-10.501 Y-57.657
X-10.656 Y-57.7
X-11.274 Y-57.873
X-11.885 Y-58.073
X-12.489 Y-58.291
X-13.088 Y-58.521
X-13.684 Y-58.761
X-14.274 Y-59.015
X-14.854 Y-59.289
X-15.358 Y-59.561
X-15.749 Y-59.808
X-16.051 Y-60.026
X-16.257 Y-60.199
X-16.442 Y-60.375
X-16.566 Y-60.509
X-16.638 Y-60.599
X-16.766 Y-60.811
X-16.833 Y-61.049
X-16.834 Y-61.296
X-16.769 Y-61.535
X-16.407 Y-62.389
G3 X-16.006 Y-62.552 Z-0.809 I0.288 J0.134 F1016
G1 X-15.985 Y-62.544 Z-0.8
X-15.753 Y-62.456
X-6.553 Y-58.961 F1500
X-6.328 Y-58.876 F1016
X-6.321 Y-58.873
G3 X-6.147 Y-58.459 Z-1 I-0.12 J0.294
G1 X-6.475 Y-57.73 F1500
X-6.543 Y-57.596
X-6.63 Y-57.474
X-6.73 Y-57.362
X-6.84 Y-57.26
X-6.958 Y-57.168
X-7.083 Y-57.085
X-7.229 Y-57.002
X-7.392 Y-56.922
X-7.583 Y-56.844
X-7.797 Y-56.773
X-8.039 Y-56.71
X-8.324 Y-56.655
X-8.632 Y-56.618
X-9.019 Y-56.596
X-9.411 Y-56.6
X-9.877 Y-56.636
X-10.195 Y-56.682
X-10.515 Y-56.656
X-11.1 Y-56.393
X-11.577 Y-55.962
X-11.93 Y-55.586
X-12.039 Y-55.483
X-12.17 Y-55.378
X-12.34 Y-55.259
X-12.469 Y-55.181
X-12.606 Y-55.12
X-12.748 Y-55.073
X-12.894 Y-55.037
X-13.043 Y-55.027
X-13.193 Y-55.037
X-13.34 Y-55.07
X-13.477 Y-55.13
X-13.602 Y-55.213
X-13.703 Y-55.324
X-13.776 Y-55.455
X-13.817 Y-55.599
X-13.813 Y-55.749
X-13.78 Y-56.069
X-13.833 Y-56.386
X-14.059 Y-56.986
X-14.449 Y-57.497
X-14.921 Y-57.933
X-15.429 Y-58.326
X-15.945 Y-58.707
X-16.392 Y-59.059
X-16.642 Y-59.285
X-16.843 Y-59.492
X-16.971 Y-59.643
X-17.036 Y-59.73
X-17.152 Y-59.937
X-17.21 Y-60.167
X-17.209 Y-60.404
X-17.147 Y-60.632
X-16.898 Y-61.23
X-16.769 Y-61.535
G3 X-16.372 Y-61.699 Z-0.811 I0.288 J0.134 F1016
G1 X-16.347 Y-61.69 Z-0.8
X-16.113 Y-61.605
X-6.882 Y-58.229 F1500
X-6.66 Y-58.148 F1016
X-6.648 Y-58.143
G3 X-6.475 Y-57.73 Z-1 I-0.12 J0.294
G1 X-6.802 Y-57 F1500
X-6.871 Y-56.867
X-6.951 Y-56.741
X-7.047 Y-56.625
X-7.152 Y-56.518
X-7.267 Y-56.422
X-7.389 Y-56.334
X-7.531 Y-56.245
X-7.687 Y-56.162
X-7.877 Y-56.076
X-8.084 Y-55.999
X-8.322 Y-55.927
X-8.597 Y-55.864
X-9.231 Y-55.762
X-9.849 Y-55.589
X-10.419 Y-55.293
X-10.963 Y-54.951
X-11.332 Y-54.729
X-11.611 Y-54.585
X-11.83 Y-54.49
X-12.024 Y-54.42
X-12.208 Y-54.368
X-12.38 Y-54.331
X-12.535 Y-54.309
X-12.684 Y-54.297
X-12.834 Y-54.295
X-12.984 Y-54.305
X-13.132 Y-54.325
X-13.279 Y-54.357
X-13.422 Y-54.402
X-13.561 Y-54.459
X-13.693 Y-54.53
X-13.818 Y-54.613
X-13.933 Y-54.709
X-14.038 Y-54.816
X-14.13 Y-54.935
X-14.258 Y-55.148
X-14.552 Y-55.719
X-14.904 Y-56.256
X-15.32 Y-56.745
X-15.78 Y-57.193
X-16.26 Y-57.619
X-16.742 Y-58.044
X-17.044 Y-58.337
X-17.261 Y-58.577
X-17.393 Y-58.744
X-17.446 Y-58.821
X-17.55 Y-59.024
X-17.602 Y-59.247
X-17.597 Y-59.476
X-17.536 Y-59.696
X-17.147 Y-60.632
G3 X-16.754 Y-60.8 Z-0.812 I0.289 J0.132 F1016
G1 X-16.726 Y-60.79 Z-0.8
X-16.491 Y-60.709
X-7.21 Y-57.496 F1500
X-6.992 Y-57.421 F1016
X-6.976 Y-57.414
G3 X-6.802 Y-57 Z-1 I-0.12 J0.294
G1 X-6.934 Y-56.709 F1500
X-7.18 Y-56.17
X-7.249 Y-56.036
X-7.333 Y-55.913
X-7.431 Y-55.799
X-7.539 Y-55.695
X-7.655 Y-55.599
X-7.791 Y-55.503
X-8.006 Y-55.372
X-8.575 Y-55.074
X-9.153 Y-54.794
X-9.718 Y-54.488
X-10.279 Y-54.176
X-10.751 Y-53.936
X-11.115 Y-53.78
X-11.426 Y-53.671
X-11.706 Y-53.593
X-11.969 Y-53.538
X-12.212 Y-53.504
X-12.438 Y-53.488
X-12.651 Y-53.486
X-12.851 Y-53.498
X-13.043 Y-53.523
X-13.228 Y-53.559
X-13.399 Y-53.604
X-13.559 Y-53.658
X-13.714 Y-53.722
X-13.86 Y-53.794
X-13.991 Y-53.87
X-14.133 Y-53.966
X-14.273 Y-54.074
X-14.437 Y-54.218
X-14.727 Y-54.512
X-15.148 Y-54.997
X-15.566 Y-55.484
X-16.006 Y-55.952
X-16.463 Y-56.403
X-16.929 Y-56.845
X-17.387 Y-57.295
X-17.623 Y-57.561
X-17.78 Y-57.761
X-17.847 Y-57.86
X-17.95 Y-58.061
X-18 Y-58.281
X-17.996 Y-58.507
X-17.937 Y-58.725
X-17.747 Y-59.188
X-17.536 Y-59.696
G3 X-17.147 Y-59.865 Z-0.813 I0.289 J0.132 F1016
G1 X-17.115 Y-59.854 Z-0.8
X-16.88 Y-59.775
X-7.586 Y-56.664 F1500
X-7.372 Y-56.592 F1016
X-7.351 Y-56.584
G3 X-7.18 Y-56.17 Z-1 I-0.122 J0.293
G1 X-7.569 Y-55.316 F1500
X-7.638 Y-55.183
X-7.719 Y-55.056
X-7.812 Y-54.931
X-7.949 Y-54.772
X-8.15 Y-54.567
X-8.45 Y-54.3
X-8.876 Y-53.968
X-9.372 Y-53.632
X-9.846 Y-53.355
X-10.266 Y-53.146
X-10.654 Y-52.984
X-11.023 Y-52.858
X-11.369 Y-52.764
X-11.687 Y-52.701
X-11.991 Y-52.661
X-12.284 Y-52.642
X-12.565 Y-52.643
X-12.83 Y-52.661
X-13.081 Y-52.695
X-13.32 Y-52.744
X-13.551 Y-52.807
X-13.776 Y-52.885
X-14 Y-52.98
X-14.232 Y-53.097
X-14.479 Y-53.243
X-14.761 Y-53.435
X-15.13 Y-53.725
X-15.608 Y-54.154
X-16.066 Y-54.604
X-16.523 Y-55.055
X-16.983 Y-55.503
X-17.442 Y-55.952
X-17.849 Y-56.372
X-18.079 Y-56.643
X-18.219 Y-56.833
X-18.261 Y-56.898
X-18.356 Y-57.096
X-18.402 Y-57.311
X-18.396 Y-57.531
X-18.338 Y-57.743
X-17.937 Y-58.725
G3 X-17.55 Y-58.897 Z-0.814 I0.29 J0.13 F1016
G1 X-17.517 Y-58.886 Z-0.8
X-17.281 Y-58.81
X-7.977 Y-55.808 F1500
X-7.765 Y-55.74 F1016
X-7.741 Y-55.731
G3 X-7.569 Y-55.316 Z-1 I-0.122 J0.293
G1 X-7.799 Y-54.813 F1500
X-8.172 Y-54.008
X-8.254 Y-53.853
X-8.334 Y-53.724
X-8.44 Y-53.574
X-8.577 Y-53.406
X-8.733 Y-53.239
X-8.931 Y-53.053
X-9.158 Y-52.866
X-9.413 Y-52.684
X-9.705 Y-52.503
X-10.023 Y-52.334
X-10.356 Y-52.184
X-10.698 Y-52.057
X-11.045 Y-51.954
X-11.393 Y-51.875
X-11.737 Y-51.821
X-12.075 Y-51.79
X-12.406 Y-51.782
X-12.728 Y-51.796
X-13.042 Y-51.83
X-13.35 Y-51.885
X-13.654 Y-51.959
X-13.959 Y-52.056
X-14.273 Y-52.18
X-14.617 Y-52.342
X-14.965 Y-52.535
X-15.382 Y-52.805
X-15.897 Y-53.188
X-16.387 Y-53.603
X-16.864 Y-54.034
X-17.333 Y-54.472
X-17.795 Y-54.918
X-18.234 Y-55.369
X-18.462 Y-55.636
X-18.614 Y-55.84
X-18.658 Y-55.908
X-18.754 Y-56.105
X-18.801 Y-56.319
X-18.796 Y-56.538
X-18.74 Y-56.749
X-18.559 Y-57.2
X-18.338 Y-57.743
G3 X-17.94 Y-57.911 Z-0.809 I0.29 J0.13 F1016
G1 X-17.918 Y-57.903 Z-0.8
X-17.685 Y-57.819
X-8.574 Y-54.509 F1500
X-8.356 Y-54.43 F1016
X-8.341 Y-54.424
G3 X-8.172 Y-54.008 Z-1 I-0.124 J0.292
G1 X-8.679 Y-52.917 F1500
X-8.784 Y-52.694
X-8.855 Y-52.562
X-8.936 Y-52.435
X-9.025 Y-52.314
X-9.137 Y-52.183
X-9.261 Y-52.057
X-9.418 Y-51.916
X-9.589 Y-51.782
X-9.794 Y-51.643
X-10.03 Y-51.504
X-10.279 Y-51.379
X-10.56 Y-51.261
X-10.867 Y-51.155
X-11.193 Y-51.066
X-11.533 Y-50.997
X-11.882 Y-50.951
X-12.237 Y-50.927
X-12.596
X-12.958 Y-50.951
X-13.322 Y-50.999
X-13.687 Y-51.073
X-14.064 Y-51.175
X-14.449 Y-51.308
X-14.863 Y-51.482
X-15.325 Y-51.713
X-15.788 Y-51.985
X-16.319 Y-52.346
X-16.828 Y-52.738
X-17.32 Y-53.151
X-17.799 Y-53.578
X-18.266 Y-54.019
X-18.647 Y-54.409
X-18.869 Y-54.669
X-19.014 Y-54.863
X-19.052 Y-54.921
X-19.148 Y-55.118
X-19.195 Y-55.332
X-19.19 Y-55.551
X-19.134 Y-55.763
X-18.74 Y-56.749
G3 X-18.33 Y-56.916 Z-0.804 I0.291 J0.128 F1016
G1 X-18.321 Y-56.912 Z-0.8
X-18.091 Y-56.819
X-9.18 Y-53.204 F1500
X-8.957 Y-53.114 F1016
X-8.95 Y-53.111
G3 X-8.784 Y-52.694 Z-1 I-0.126 J0.291
G1 X-9.301 Y-51.604 F1500
X-9.372 Y-51.472
X-9.452 Y-51.346
X-9.544 Y-51.227
X-9.645 Y-51.116
X-9.76 Y-51.005
X-9.897 Y-50.89
X-10.053 Y-50.776
X-10.239 Y-50.657
X-10.438 Y-50.549
X-10.673 Y-50.44
X-10.936 Y-50.339
X-11.212 Y-50.253
X-11.518 Y-50.18
X-11.852 Y-50.124
X-12.207 Y-50.087
X-12.58 Y-50.074
X-12.96 Y-50.086
X-13.352 Y-50.124
X-13.76 Y-50.192
X-14.189 Y-50.292
X-14.647 Y-50.432
X-15.127 Y-50.614
X-15.626 Y-50.843
X-16.149 Y-51.125
X-16.692 Y-51.467
X-17.215 Y-51.84
X-17.72 Y-52.237
X-18.21 Y-52.652
X-18.685 Y-53.084
X-19.041 Y-53.444
X-19.257 Y-53.692
X-19.4 Y-53.881
X-19.435 Y-53.933
X-19.532 Y-54.129
X-19.581 Y-54.343
X-19.578 Y-54.562
X-19.523 Y-54.774
X-19.338 Y-55.25
X-19.134 Y-55.763
G3 X-18.72 Y-55.927 Z-0.802 I0.291 J0.128 F1016
G1 X-18.715 Y-55.925 Z-0.8
X-18.487 Y-55.829
X-9.695 Y-52.118 F1500
X-9.469 Y-52.023 F1016
X-9.466 Y-52.021
G3 X-9.301 Y-51.604 Z-1 I-0.126 J0.291
G1 X-9.578 Y-51.021 F1500
X-9.789 Y-50.583
X-9.861 Y-50.452
X-9.948 Y-50.329
X-10.045 Y-50.215
X-10.151 Y-50.109
X-10.269 Y-50.008
X-10.406 Y-49.904
X-10.565 Y-49.8
X-10.743 Y-49.699
X-10.955 Y-49.597
X-11.179 Y-49.508
X-11.439 Y-49.423
X-11.734 Y-49.348
X-12.04 Y-49.292
X-12.376 Y-49.252
X-12.746 Y-49.234
X-13.147 Y-49.241
X-13.567 Y-49.276
X-14 Y-49.341
X-14.469 Y-49.444
X-14.968 Y-49.589
X-15.497 Y-49.781
X-16.053 Y-50.025
X-16.622 Y-50.323
X-17.171 Y-50.656
X-17.701 Y-51.018
X-18.214 Y-51.405
X-18.71 Y-51.812
X-19.183 Y-52.236
X-19.475 Y-52.535
X-19.677 Y-52.771
X-19.805 Y-52.943
X-19.818 Y-52.963
X-19.914 Y-53.158
X-19.961 Y-53.37
X-19.958 Y-53.587
X-19.903 Y-53.798
X-19.523 Y-54.774
G3 X-19.106 Y-54.94 Z-0.8 I0.292 J0.125 F1016
G1 X-18.878 Y-54.842
X-10.179 Y-51.1 F1500
X-9.954 Y-51.003 F1016
X-9.951 Y-51.002
G3 X-9.789 Y-50.583 Z-1 I-0.129 J0.29
G1 X-10.213 Y-49.708 F1500
X-10.285 Y-49.577
X-10.369 Y-49.452
X-10.464 Y-49.337
X-10.57 Y-49.23
X-10.683 Y-49.132
X-10.813 Y-49.034
X-10.959 Y-48.938
X-11.134 Y-48.84
X-11.321 Y-48.751
X-11.547 Y-48.66
X-11.788 Y-48.582
X-12.064 Y-48.513
X-12.382 Y-48.455
X-12.711 Y-48.417
X-13.076 Y-48.399
X-13.485 Y-48.407
X-13.934 Y-48.445
X-14.39 Y-48.514
X-14.885 Y-48.623
X-15.423 Y-48.781
X-15.997 Y-48.99
X-16.585 Y-49.25
X-17.154 Y-49.547
X-17.705 Y-49.877
X-18.239 Y-50.234
X-18.756 Y-50.614
X-19.256 Y-51.017
X-19.671 Y-51.394
X-19.903 Y-51.635
X-20.084 Y-51.85
X-20.157 Y-51.949
X-20.268 Y-52.148
X-20.327 Y-52.369
X-20.33 Y-52.598
X-20.276 Y-52.82
X-20.017 Y-53.502
X-19.903 Y-53.798
G3 X-19.488 Y-53.965 Z-0.801 I0.292 J0.125 F1016
G1 X-19.486 Y-53.964 Z-0.8
X-19.258 Y-53.868
X-10.604 Y-50.223 F1500
X-10.38 Y-50.129 F1016
X-10.375 Y-50.127
G3 X-10.213 Y-49.708 Z-1 I-0.129 J0.29
G1 X-10.389 Y-49.347 F1500
X-10.643 Y-48.833
X-10.717 Y-48.702
X-10.801 Y-48.578
X-10.897 Y-48.463
X-11.004 Y-48.358
X-11.118 Y-48.261
X-11.251 Y-48.164
X-11.394 Y-48.073
X-11.567 Y-47.98
X-11.758 Y-47.892
X-11.975 Y-47.809
X-12.23 Y-47.731
X-12.497 Y-47.667
X-12.816 Y-47.614
X-13.166 Y-47.579
X-13.534 Y-47.567
X-13.954 Y-47.581
X-14.426 Y-47.628
X-14.916 Y-47.711
X-15.439 Y-47.834
X-16.013 Y-48.011
X-16.612 Y-48.241
X-17.196 Y-48.508
X-17.763 Y-48.81
X-18.314 Y-49.14
X-18.848 Y-49.497
X-19.365 Y-49.877
X-19.834 Y-50.262
X-20.132 Y-50.542
X-20.35 Y-50.775
X-20.486 Y-50.942
X-20.527 Y-51
X-20.633 Y-51.196
X-20.689 Y-51.413
X-20.691 Y-51.637
X-20.639 Y-51.854
X-20.455 Y-52.346
X-20.276 Y-52.82
G3 X-19.862 Y-52.991 Z-0.801 I0.293 J0.123 F1016
G1 X-19.861 Y-52.99 Z-0.8
X-19.631 Y-52.895
X-11.03 Y-49.348 F1500
X-10.811 Y-49.258 F1016
X-10.801 Y-49.253
G3 X-10.643 Y-48.833 Z-1 I-0.131 J0.289
G1 X-11.078 Y-47.958 F1500
X-11.152 Y-47.828
X-11.239 Y-47.705
X-11.338 Y-47.593
X-11.447 Y-47.49
X-11.564 Y-47.395
X-11.698 Y-47.301
X-11.846 Y-47.212
X-12.023 Y-47.12
X-12.218 Y-47.035
X-12.441 Y-46.955
X-12.701 Y-46.88
X-12.975 Y-46.821
X-13.306 Y-46.773
X-13.664 Y-46.744
X-14.051 Y-46.739
X-14.494 Y-46.762
X-14.991 Y-46.822
X-15.495 Y-46.917
X-16.054 Y-47.061
X-16.663 Y-47.262
X-17.258 Y-47.503
X-17.838 Y-47.779
X-18.402 Y-48.085
X-18.951 Y-48.419
X-19.483 Y-48.778
X-19.997 Y-49.163
X-20.369 Y-49.483
X-20.596 Y-49.706
X-20.774 Y-49.906
X-20.854 Y-50.009
X-20.973 Y-50.209
X-21.038 Y-50.432
X-21.044 Y-50.664
X-20.993 Y-50.891
X-20.732 Y-51.604
X-20.639 Y-51.854
G3 X-20.226 Y-52.027 Z-0.801 I0.294 J0.121 F1016
G1 X-20.225 Z-0.8
X-19.995 Y-51.934
X-11.465 Y-48.472 F1500
X-11.248 Y-48.384 F1016
X-11.235 Y-48.379
G3 X-11.078 Y-47.958 Z-1 I-0.132 J0.289
G1 X-11.298 Y-47.521 F1500
X-11.522 Y-47.083
X-11.596 Y-46.953
X-11.687 Y-46.834
X-11.79 Y-46.724
X-11.901 Y-46.624
X-12.02 Y-46.532
X-12.161 Y-46.438
X-12.312 Y-46.351
X-12.497 Y-46.26
X-12.697 Y-46.178
X-12.93 Y-46.1
X-13.196 Y-46.03
X-13.486 Y-45.975
X-13.835 Y-45.931
X-14.198 Y-45.91
X-14.607 Y-45.914
X-15.077 Y-45.949
X-15.591 Y-46.022
X-16.119 Y-46.134
X-16.714 Y-46.302
X-17.319 Y-46.516
X-17.91 Y-46.767
X-18.487 Y-47.051
X-19.048 Y-47.362
X-19.594 Y-47.701
X-20.123 Y-48.065
X-20.548 Y-48.399
X-20.823 Y-48.645
X-21.035 Y-48.862
X-21.169 Y-49.019
X-21.209 Y-49.072
X-21.32 Y-49.267
X-21.381 Y-49.484
X-21.387 Y-49.708
X-21.339 Y-49.928
X-21.263 Y-50.146
X-21.039 Y-50.766
X-20.993 Y-50.891
G3 X-20.581 Y-51.066 Z-0.801 I0.294 J0.119 F1016
G1 X-20.58 Z-0.8
X-20.349 Y-50.974
X-11.905 Y-47.598 F1500
X-11.691 Y-47.512 F1016
X-11.675 Y-47.505
G3 X-11.522 Y-47.083 Z-1 I-0.135 J0.288
G1 X-11.936 Y-46.274 F1500
X-12.011 Y-46.144
X-12.099 Y-46.022
X-12.199 Y-45.911
X-12.309 Y-45.808
X-12.426 Y-45.715
X-12.555 Y-45.627
X-12.71 Y-45.535
X-12.881 Y-45.449
X-13.081 Y-45.364
X-13.307 Y-45.285
X-13.558 Y-45.215
X-13.861 Y-45.153
X-14.173 Y-45.11
X-14.548 Y-45.084
X-14.971 Y-45.082
X-15.403 Y-45.109
X-15.907 Y-45.175
X-16.468 Y-45.286
X-17.074 Y-45.448
X-17.682 Y-45.655
X-18.277 Y-45.898
X-18.857 Y-46.173
X-19.423 Y-46.477
X-19.973 Y-46.808
X-20.501 Y-47.164
X-20.916 Y-47.487
X-21.173 Y-47.715
X-21.377 Y-47.922
X-21.51 Y-48.076
X-21.54 Y-48.116
X-21.652 Y-48.311
X-21.714 Y-48.528
X-21.721 Y-48.753
X-21.674 Y-48.973
X-21.351 Y-49.895
X-21.339 Y-49.928
G3 X-20.929 Y-50.108 Z-0.8 I0.296 J0.116 F1016
G1 X-20.928
X-20.697 Y-50.019
X-12.319 Y-46.786 F1500
X-12.109 Y-46.705 F1016
X-12.088 Y-46.696
G3 X-11.936 Y-46.274 Z-1 I-0.135 J0.287
G1 X-12.046 Y-46.062 F1500
X-12.395 Y-45.399
X-12.472 Y-45.27
X-12.564 Y-45.151
X-12.668 Y-45.043
X-12.781 Y-44.944
X-12.9 Y-44.854
X-13.042 Y-44.761
X-13.195 Y-44.676
X-13.383 Y-44.586
X-13.584 Y-44.506
X-13.827 Y-44.428
X-14.095 Y-44.361
X-14.391 Y-44.308
X-14.747 Y-44.268
X-15.115 Y-44.251
X-15.546 Y-44.26
X-16.046 Y-44.303
X-16.566 Y-44.383
X-17.137 Y-44.511
X-17.753 Y-44.692
X-18.357 Y-44.912
X-18.947 Y-45.166
X-19.523 Y-45.449
X-20.084 Y-45.761
X-20.629 Y-46.101
X-21.077 Y-46.42
X-21.399 Y-46.684
X-21.612 Y-46.883
X-21.774 Y-47.056
X-21.838 Y-47.134
X-21.961 Y-47.33
X-22.032 Y-47.551
X-22.045 Y-47.783
X-21.999 Y-48.01
X-21.768 Y-48.7
X-21.674 Y-48.973
G3 X-21.265 Y-49.155 Z-0.801 I0.296 J0.115 F1016
G1 X-21.263 Y-49.154 Z-0.8
X-21.031 Y-49.066
X-12.775 Y-45.912 F1500
X-12.568 Y-45.833 F1016
X-12.543 Y-45.822
G3 X-12.395 Y-45.399 Z-1 I-0.138 J0.286
G1 X-12.584 Y-45.041 F1500
X-12.819 Y-44.604
X-12.898 Y-44.476
X-12.985 Y-44.354
X-13.086 Y-44.243
X-13.196 Y-44.14
X-13.313 Y-44.048
X-13.439 Y-43.962
X-13.596 Y-43.87
X-13.763 Y-43.786
X-13.965 Y-43.701
X-14.185 Y-43.625
X-14.443 Y-43.555
X-14.737 Y-43.495
X-15.062 Y-43.451
X-15.448 Y-43.425
X-15.855
X-16.313 Y-43.455
X-16.843 Y-43.525
X-17.422 Y-43.642
X-18.042 Y-43.81
X-18.65 Y-44.018
X-19.244 Y-44.261
X-19.825 Y-44.535
X-20.391 Y-44.838
X-20.941 Y-45.17
X-21.378 Y-45.474
X-21.693 Y-45.725
X-21.919 Y-45.93
X-22.073 Y-46.091
X-22.142 Y-46.173
X-22.267 Y-46.367
X-22.34 Y-46.586
X-22.356 Y-46.816
X-22.315 Y-47.043
X-22.206 Y-47.385
X-22.06 Y-47.829
X-21.999 Y-48.01
G3 X-21.592 Y-48.197 Z-0.801 I0.297 J0.111 F1016
G1 X-21.591 Y-48.196 Z-0.8
X-21.358 Y-48.111
X-13.196 Y-45.116 F1500
X-12.995 Y-45.042 F1016
X-12.963 Y-45.029
G3 X-12.819 Y-44.604 Z-1 I-0.141 J0.285
G1 X-13.296 Y-43.729 F1500
X-13.375 Y-43.601
X-13.467 Y-43.483
X-13.571 Y-43.375
X-13.684 Y-43.276
X-13.805 Y-43.186
X-13.946 Y-43.096
X-14.1 Y-43.01
X-14.289 Y-42.922
X-14.492 Y-42.842
X-14.733 Y-42.766
X-15.003 Y-42.7
X-15.303 Y-42.648
X-15.666 Y-42.608
X-16.039 Y-42.593
X-16.484 Y-42.605
X-16.998 Y-42.652
X-17.528 Y-42.737
X-18.121 Y-42.872
X-18.736 Y-43.057
X-19.338 Y-43.278
X-19.928 Y-43.533
X-20.504 Y-43.817
X-21.064 Y-44.132
X-21.544 Y-44.44
X-21.901 Y-44.705
X-22.136 Y-44.905
X-22.32 Y-45.083
X-22.452 Y-45.229
X-22.457 Y-45.236
X-22.571 Y-45.422
X-22.638 Y-45.629
X-22.654 Y-45.847
X-22.619 Y-46.062
X-22.577 Y-46.208
X-22.533 Y-46.354
X-22.315 Y-47.043
G3 X-21.909 Y-47.236 Z-0.8 I0.299 J0.106 F1016
G1 X-21.907 Y-47.235
X-21.676 Y-47.151
X-13.67 Y-44.241 F1500
X-13.472 Y-44.169 F1016
X-13.438 Y-44.155
G3 X-13.296 Y-43.729 Z-1 I-0.142 J0.284
G1 X-13.377 Y-43.583 F1500
X-13.79 Y-42.854
X-13.871 Y-42.727
X-13.967 Y-42.612
X-14.074 Y-42.507
X-14.19 Y-42.412
X-14.313 Y-42.325
X-14.461 Y-42.235
X-14.623 Y-42.15
X-14.82 Y-42.063
X-15.027 Y-41.987
X-15.285 Y-41.912
X-15.555 Y-41.853
X-15.886 Y-41.803
X-16.249 Y-41.772
X-16.647 Y-41.765
X-17.118 Y-41.788
X-17.636 Y-41.848
X-18.183 Y-41.948
X-18.805 Y-42.106
X-19.491 Y-42.332
X-20.088 Y-42.569
X-20.671 Y-42.838
X-21.239 Y-43.138
X-21.734 Y-43.437
X-22.12 Y-43.707
X-22.368 Y-43.906
X-22.569 Y-44.091
X-22.705 Y-44.234
X-22.718 Y-44.25
X-22.839 Y-44.438
X-22.911 Y-44.649
X-22.931 Y-44.871
X-22.896 Y-45.092
X-22.643 Y-45.977
X-22.619 Y-46.062
G3 X-22.219 Y-46.265 Z-0.8 I0.302 J0.099 F1016
G1 X-22.21 Y-46.262
X-21.985 Y-46.181
X-14.157 Y-43.369 F1500
X-13.964 Y-43.299 F1016
X-13.925 Y-43.282
G3 X-13.79 Y-42.854 Z-1 I-0.147 J0.281
G1 X-13.89 Y-42.677 F1500
X-13.957 Y-42.562
X-14.182 Y-42.183
X-14.266 Y-42.044
X-14.35 Y-41.92
X-14.436 Y-41.797
X-14.535 Y-41.684
X-14.644 Y-41.581
X-14.762 Y-41.488
X-14.885 Y-41.403
X-15.014 Y-41.326
X-15.147 Y-41.257
X-15.284 Y-41.196
X-15.424 Y-41.141
X-15.565 Y-41.092
X-15.709 Y-41.049
X-15.855 Y-41.012
X-16.001 Y-40.98
X-16.149 Y-40.953
X-16.297 Y-40.932
X-16.446 Y-40.914
X-16.596 Y-40.901
X-16.745 Y-40.892
X-16.895 Y-40.887
X-17.045 Y-40.885
X-17.195 Y-40.887
X-17.345 Y-40.893
X-17.495 Y-40.902
X-17.644 Y-40.914
X-17.794 Y-40.928
X-17.943 Y-40.946
X-18.091 Y-40.967
X-18.252 Y-40.964
X-18.409 Y-40.932
X-18.559 Y-40.874
X-18.627 Y-40.832
X-19.145 Y-40.452
X-19.629 Y-40.874
X-20.159 Y-41.236
X-20.709 Y-41.568
X-21.085 Y-41.788
X-21.214 Y-41.865
X-21.342 Y-41.942
X-21.598 Y-42.1
X-21.724 Y-42.181
X-21.85 Y-42.262
X-21.975 Y-42.346
X-22.098 Y-42.431
X-22.221 Y-42.517
X-22.342 Y-42.606
X-22.461 Y-42.697
X-22.578 Y-42.791
X-22.692 Y-42.888
X-22.804 Y-42.988
X-22.911 Y-43.093
X-22.975 Y-43.16
X-23.116 Y-43.352
X-23.202 Y-43.574
X-23.229 Y-43.81
X-23.194 Y-44.045
X-22.896 Y-45.092
G3 X-22.497 Y-45.297 Z-0.8 I0.302 J0.098 F1016
G1 X-22.49 Y-45.294
X-22.262 Y-45.215
X-14.621 Y-42.562 F1500
X-14.439 Y-42.499 F1016
X-14.388 Y-42.476
G3 X-14.266 Y-42.044 Z-1 I-0.155 J0.277
G1 X-14.836 Y-41.103 F1500
X-14.92 Y-40.979
X-15.018 Y-40.866
X-15.127 Y-40.763
X-15.244 Y-40.669
X-15.369 Y-40.584
X-15.513 Y-40.499
X-15.679 Y-40.416
X-15.87 Y-40.335
X-16.088 Y-40.26
X-16.336 Y-40.192
X-16.965 Y-40.064
X-17.588 Y-39.909
X-18.2 Y-39.712
X-18.718 Y-39.333
X-18.959 Y-39.121
X-19.134 Y-38.97
X-19.282 Y-38.859
X-19.477 Y-38.732
X-19.607 Y-38.658
X-19.745 Y-38.599
X-19.888 Y-38.553
X-20.034 Y-38.518
X-20.183 Y-38.504
X-20.333 Y-38.511
X-20.482 Y-38.532
X-20.621 Y-38.587
X-20.752 Y-38.659
X-20.861 Y-38.763
X-20.952 Y-38.882
X-21.004 Y-39.023
X-21.109 Y-39.656
X-21.411 Y-40.223
X-21.819 Y-40.719
X-22.279 Y-41.168
X-22.755 Y-41.598
X-23.074 Y-41.9
X-23.247 Y-42.088
X-23.281 Y-42.13
X-23.393 Y-42.306
X-23.462 Y-42.503
X-23.485 Y-42.71
X-23.461 Y-42.917
X-23.238 Y-43.875
X-23.201 Y-44.02
X-23.194 Y-44.045
G3 X-22.795 Y-44.251 Z-0.8 I0.302 J0.097 F1016
G1 X-22.788 Y-44.248
X-22.56 Y-44.17
X-15.191 Y-41.621 F1500
X-15.01 Y-41.559 F1016
X-14.958 Y-41.535
G3 X-14.836 Y-41.103 Z-1 I-0.155 J0.277
G1 X-15.057 Y-40.738 F1500
X-15.349 Y-40.281
X-15.437 Y-40.159
X-15.534 Y-40.044
X-15.642 Y-39.941
X-15.763 Y-39.843
X-15.942 Y-39.716
X-16.195 Y-39.561
X-16.764 Y-39.263
X-17.329 Y-38.957
X-18.319 Y-38.307
X-18.623 Y-38.135
X-18.862 Y-38.02
X-19.072 Y-37.936
X-19.269 Y-37.872
X-19.46 Y-37.823
X-19.623 Y-37.793
X-19.773 Y-37.775
X-19.923 Y-37.768
X-20.073 Y-37.771
X-20.222 Y-37.784
X-20.37 Y-37.808
X-20.516 Y-37.845
X-20.657 Y-37.894
X-20.794 Y-37.955
X-20.925 Y-38.029
X-21.047 Y-38.115
X-21.16 Y-38.214
X-21.262 Y-38.324
X-21.656 Y-38.831
X-22.04 Y-39.346
X-22.458 Y-39.834
X-22.901 Y-40.299
X-23.35 Y-40.758
X-23.552 Y-40.994
X-23.672 Y-41.21
X-23.731 Y-41.451
X-23.724 Y-41.698
X-23.701 Y-41.833
X-23.674 Y-41.979
X-23.578 Y-42.416
X-23.461 Y-42.917
G3 X-23.072 Y-43.141 Z-0.8 I0.307 J0.083 F1016
G1 X-23.059 Y-43.137
X-22.836 Y-43.066
X-15.695 Y-40.798 F1500
X-15.527 Y-40.745 F1016
X-15.493 Y-40.732
X-15.461 Y-40.715
G3 X-15.349 Y-40.281 Z-1 I-0.162 J0.273
G1 X-15.383 Y-40.228 F1500
X-16.079 Y-39.198
X-16.171 Y-39.062
X-16.301 Y-38.89
X-16.506 Y-38.653
X-16.801 Y-38.355
X-17.114 Y-38.078
X-17.427 Y-37.836
X-17.732 Y-37.631
X-18.028 Y-37.46
X-18.304 Y-37.323
X-18.564 Y-37.215
X-18.816 Y-37.13
X-19.059 Y-37.066
X-19.289 Y-37.02
X-19.507 Y-36.992
X-19.717 Y-36.98
X-19.917 Y-36.981
X-20.11 Y-36.995
X-20.296 Y-37.021
X-20.474 Y-37.057
X-20.64 Y-37.104
X-20.795 Y-37.158
X-20.949 Y-37.224
X-21.104 Y-37.303
X-21.291 Y-37.414
X-21.509 Y-37.564
X-21.772 Y-37.772
X-22.248 Y-38.203
X-22.7 Y-38.66
X-23.148 Y-39.119
X-23.594 Y-39.581
X-23.719 Y-39.728
X-23.855 Y-39.943
X-23.927 Y-40.186
X-23.93 Y-40.44
X-23.92 Y-40.52
X-23.724 Y-41.698
G3 X-23.35 Y-41.946 Z-0.8 I0.311 J0.063 F1016
G1 X-23.309 Y-41.935
X-23.114 Y-41.868
X-16.502 Y-39.588 F1500
X-16.337 Y-39.531 F1016
X-16.303 Y-39.517
X-16.271 Y-39.499
G3 X-16.171 Y-39.062 Z-1 I-0.169 J0.268
G1 X-16.271 Y-38.916 F1500
X-16.372 Y-38.77
X-17.273 Y-37.603
X-17.394 Y-37.457
X-17.683 Y-37.14
X-17.744 Y-37.074
X-17.863 Y-36.956
X-17.978 Y-36.857
X-18.111 Y-36.756
X-18.253 Y-36.663
X-18.414 Y-36.572
X-18.59 Y-36.487
X-18.778 Y-36.411
X-18.975 Y-36.347
X-19.18 Y-36.295
X-19.391 Y-36.256
X-19.608 Y-36.231
X-19.826 Y-36.22
X-20.045 Y-36.223
X-20.262 Y-36.241
X-20.479 Y-36.274
X-20.702 Y-36.323
X-20.936 Y-36.39
X-21.182 Y-36.48
X-21.43 Y-36.589
X-21.736 Y-36.748
X-22.057 Y-36.945
X-22.473 Y-37.237
X-22.972 Y-37.641
X-23.449 Y-38.071
X-23.782 Y-38.397
X-23.808 Y-38.427
X-23.945 Y-38.627
X-24.024 Y-38.857
X-24.041 Y-39.099
G3 X-23.694 Y-39.384 Z-0.8 I0.316 J0.031 F1016
G1 X-23.631 Y-39.371
X-23.456 Y-39.316
X-18.005 Y-37.619 F1500
X-17.891 Y-37.583 F1016
X-17.832 Y-37.558
X-17.779 Y-37.521
G3 X-17.744 Y-37.074 Z-1 I-0.206 J0.241
G1 X-17.975 Y-36.821 F1500
X-18.267 Y-36.515
X-18.345 Y-36.436
X-18.78 Y-36.053
X-18.902 Y-35.956
X-19.025 Y-35.87
X-19.156 Y-35.797
X-19.292 Y-35.734
X-19.433 Y-35.682
X-19.583 Y-35.637
X-19.75 Y-35.599
X-19.925 Y-35.572
X-20.114 Y-35.555
X-20.323 Y-35.55
X-20.542 Y-35.56
X-20.768 Y-35.585
X-21.023 Y-35.63
X-21.294 Y-35.697
X-21.572 Y-35.786
X-21.9 Y-35.915
X-22.236 Y-36.074
X-22.633 Y-36.295
X-23.092 Y-36.591
X-23.555 Y-36.936
X-23.648 Y-37.016
X-23.794 Y-37.174
X-23.9 Y-37.362
X-23.959 Y-37.57
G3 X-23.684 Y-37.924 Z-0.8 I0.315 J-0.039 F1016
G1 X-23.62 Y-37.926
X-23.557 Y-37.915
X-23.441 Y-37.882
X-18.986 Y-36.611 F1500
X-18.911 Y-36.589 F1016
X-18.858 Y-36.569
X-18.809 Y-36.539
X-18.767 Y-36.502
G3 X-18.78 Y-36.053 Z-1 I-0.231 J0.218
G1 X-19.008 Y-35.853 F1500
X-19.142 Y-35.752
X-19.288 Y-35.655
X-19.434 Y-35.561
X-19.726 Y-35.376
X-19.872 Y-35.288
X-20.163 Y-35.155
X-20.303 Y-35.1
X-20.447 Y-35.058
X-20.594 Y-35.028
X-20.752 Y-35.006
X-20.925 Y-34.995
X-21.12 Y-34.994
X-21.335 Y-35.008
X-21.566 Y-35.039
X-21.834 Y-35.093
X-22.108 Y-35.167
X-22.441 Y-35.281
X-22.776 Y-35.421
X-22.865 Y-35.466
X-22.928 Y-35.501
X-22.989 Y-35.54
X-23.046 Y-35.585
G3 X-23.069 Y-36.033 Z-0.8 I0.213 J-0.236 F1016
G1 X-23.023 Y-36.075
X-22.97 Y-36.107
X-22.912 Y-36.128
X-22.851 Y-36.137
X-22.786 Y-36.134 F1500
X-20.258 Y-35.753
X-20.203 Y-35.74
X-20.147 Y-35.714 F1016
X-20.096 Y-35.678
X-20.054 Y-35.633
X-20.021 Y-35.581
G3 X-20.163 Y-35.155 Z-1 I-0.284 J0.142
G1 X-20.309 Y-35.089 F1500
X-20.382 Y-35.056
X-20.455 Y-35.036
X-20.893 Y-34.926
X-20.966 Y-34.915
X-21.33 Y-34.896
X-21.403 Y-34.892
X-21.476 Y-34.899
X-21.841 Y-34.952
X-21.914 Y-34.969
X-22.06 Y-35.02
X-22.497 Y-35.207
X-22.623 Y-35.27
X-22.716 Y-35.321
X-22.789 Y-35.375
X-23.018 Y-35.561
X-23.081 Y-35.614
X-23.163 Y-35.707
X-23.373 Y-35.96
X-23.403 Y-35.999
X-23.485 Y-36.145
X-23.664 Y-36.473
X-23.705 Y-36.582
X-23.81 Y-36.9
X-23.842 Y-37.02
X-23.941 Y-37.457
X-24.011 Y-37.895
X-24.025 Y-38.041
X-24.041 Y-38.624
X-24.048 Y-38.916
X-24.043 Y-39.062
X-24.015 Y-39.499
X-23.979 Y-39.937
X-23.939 Y-40.374
X-23.93 Y-40.44
G3 X-23.339 Y-40.543 I0.313 J0.051 F1016
G1 X-23.305 Y-40.481 Z-0.992
X-23.272 Y-40.423 Z-0.969
X-23.243 Y-40.37 Z-0.931
X-23.219 Y-40.326 Z-0.88
X-23.201 Y-40.293 Z-0.82
X-23.189 Y-40.272 Z-0.753
X-23.185 Y-40.265 Z-0.683
Z15 F1500
X-13.971 Y1.442
Z5
Z-0.365
Z-0.683 F1016
X-13.977 Y1.437 Z-0.753
X-13.996 Y1.423 Z-0.82
X-14.027 Y1.401 Z-0.88
X-14.067 Y1.371 Z-0.931
X-14.116 Y1.336 Z-0.969
X-14.17 Y1.296 Z-0.992
X-14.227 Y1.254 Z-1
G3 X-15.337 Y-0.094 I2.077 J-2.841
G1 X-15.382 Y-0.199 F1500
X-15.395 Y-0.234
X-15.338 Y-0.373
X-15.262 Y-0.502
X-15.175 Y-0.624
X-15.068 Y-0.75
X-14.927 Y-0.897
X-14.736 Y-1.07
X-14.472 Y-1.279
X-14.085 Y-1.547
X-13.534 Y-1.876
X-12.964 Y-2.173
X-12.386 Y-2.452
X-11.803 Y-2.721
X-11.217 Y-2.985
X-10.631 Y-3.246
X-10.043 Y-3.504
X-8.866 Y-4.02
X-6.485 Y-5.059
X-6.255 Y-5.126
X-6.016 Y-5.13
X-5.784 Y-5.074
X-5.574 Y-4.959
X-5.401 Y-4.794
X-5.276 Y-4.59
Z5
X-14.626 Y0.595
Z-0.365
Z-0.683 F1016
X-14.633 Y0.59 Z-0.753
X-14.652 Y0.576 Z-0.82
X-14.682 Y0.554 Z-0.88
X-14.723 Y0.524 Z-0.931
X-14.771 Y0.489 Z-0.969
X-14.826 Y0.449 Z-0.992
X-14.883 Y0.407 Z-1
G3 X-15.382 Y-0.199 I0.934 J-1.278
G1 X-15.508 Y-0.494 F1500
X-15.534 Y-0.565
X-15.519 Y-0.714
X-15.485 Y-0.86
X-15.436 Y-1.002
X-15.375 Y-1.139
X-15.298 Y-1.279
X-15.207 Y-1.424
X-15.091 Y-1.583
X-14.931 Y-1.774
X-14.75 Y-1.963
X-14.502 Y-2.19
X-14.187 Y-2.442
X-13.737 Y-2.756
X-13.187 Y-3.087
X-12.62 Y-3.39
X-12.045 Y-3.674
X-11.464 Y-3.948
X-10.88 Y-4.215
X-10.294 Y-4.478
X-9.707 Y-4.739
X-8.531 Y-5.256
X-7.943 Y-5.513
X-7.531 Y-5.683
X-7.268 Y-5.772
X-7.05 Y-5.83
X-6.87 Y-5.865
X-6.676 Y-5.89
X-6.521 Y-5.899
X-6.451
X-6.191 Y-5.859
X-5.953 Y-5.749
X-5.756 Y-5.575
X-5.616 Y-5.353
Z5
X-14.752 Y0.299
Z-0.365
Z-0.683 F1016
X-14.759 Y0.295 Z-0.753
X-14.778 Y0.281 Z-0.82
X-14.808 Y0.259 Z-0.88
X-14.849 Y0.229 Z-0.931
X-14.897 Y0.193 Z-0.969
X-14.952 Y0.154 Z-0.992
X-15.009 Y0.112 Z-1
G3 X-15.508 Y-0.494 I0.934 J-1.278
G1 X-15.68 Y-0.897 F1500
X-15.732 Y-1.038
X-15.74 Y-1.188
X-15.73 Y-1.337
X-15.705 Y-1.485
X-15.667 Y-1.63
X-15.617 Y-1.772
X-15.555 Y-1.917
X-15.472 Y-2.08
X-15.369 Y-2.252
X-15.24 Y-2.44
X-15.071 Y-2.652
X-14.874 Y-2.87
X-14.61 Y-3.125
X-14.284 Y-3.4
X-13.848 Y-3.722
X-13.307 Y-4.068
X-12.748 Y-4.383
X-12.177 Y-4.678
X-11.6 Y-4.96
X-11.019 Y-5.232
X-10.434 Y-5.499
X-9.849 Y-5.762
X-9.262 Y-6.023
X-8.672 Y-6.278
X-8.194 Y-6.46
X-7.814 Y-6.577
X-7.538 Y-6.642
X-7.28 Y-6.685
X-7.072 Y-6.705
X-6.904 Y-6.711
X-6.786 Y-6.706
X-6.534 Y-6.662
X-6.304 Y-6.55
X-6.113 Y-6.379
X-5.977 Y-6.163
X-5.931 Y-6.059
G3 X-6.055 Y-5.659 Z-0.816 I-0.29 J0.13 F1016
G1 X-6.09 Y-5.638 Z-0.8
X-6.301 Y-5.508
X-14.827 Y-0.277 F1500
G3 X-15.18 Y-0.291 I-0.166 J-0.271
G1 X-15.218 Y-0.319
X-15.313 Y-0.399 F1016
X-15.401 Y-0.486
G3 X-15.68 Y-0.897 Z-1 I1.155 J-1.082
G1 X-15.91 Y-1.437 F1500
X-15.962 Y-1.577
X-15.991 Y-1.724
X-16.001 Y-1.874
X-15.994 Y-2.024
X-15.974 Y-2.173
X-15.941 Y-2.319
X-15.897 Y-2.466
X-15.838 Y-2.627
X-15.759 Y-2.801
X-15.66 Y-2.989
X-15.534 Y-3.191
X-15.377 Y-3.41
X-15.181 Y-3.649
X-14.937 Y-3.908
X-14.636 Y-4.19
X-14.24 Y-4.512
X-13.717 Y-4.883
X-13.17 Y-5.22
X-12.608 Y-5.531
X-12.037 Y-5.825
X-11.46 Y-6.106
X-10.878 Y-6.379
X-10.295 Y-6.647
X-9.708 Y-6.907
X-9.113 Y-7.149
X-8.62 Y-7.319
X-8.211 Y-7.43
X-7.899 Y-7.493
X-7.628 Y-7.529
X-7.408 Y-7.544
X-7.232
X-7.13 Y-7.537
X-6.887 Y-7.487
X-6.666 Y-7.374
X-6.483 Y-7.206
X-6.351 Y-6.996
X-5.977 Y-6.163
G3 X-6.134 Y-5.757 Z-0.808 I-0.294 J0.12 F1016
G1 X-6.151 Y-5.748 Z-0.8
X-6.375 Y-5.641
X-15.264 Y-1.391 F1500
X-15.485 Y-1.285 F1016
X-15.488 Y-1.284
G3 X-15.91 Y-1.437 Z-1 I-0.134 J-0.288
G1 X-16.191 Y-2.1 F1500
X-16.243 Y-2.241
X-16.279 Y-2.387
X-16.296 Y-2.536
X-16.298 Y-2.686
X-16.285 Y-2.835
X-16.261 Y-2.983
X-16.224 Y-3.14
X-16.175 Y-3.3
X-16.104 Y-3.484
X-16.017 Y-3.672
X-15.902 Y-3.885
X-15.762 Y-4.106
X-15.581 Y-4.352
X-15.36 Y-4.616
X-15.084 Y-4.904
X-14.733 Y-5.224
X-14.304 Y-5.567
X-13.777 Y-5.933
X-13.159 Y-6.308
X-12.597 Y-6.618
X-12.026 Y-6.912
X-11.449 Y-7.194
X-10.868 Y-7.467
X-10.28 Y-7.727
X-9.685 Y-7.966
X-9.136 Y-8.152
X-8.692 Y-8.271
X-8.326 Y-8.343
X-8.058 Y-8.377
X-7.804 Y-8.393
X-7.621 Y-8.392
X-7.506 Y-8.383
X-7.264 Y-8.333
X-7.044 Y-8.22
X-6.862 Y-8.052
X-6.732 Y-7.842
X-6.351 Y-6.996
G3 X-6.503 Y-6.592 Z-0.81 I-0.294 J0.12 F1016
G1 X-6.525 Y-6.581 Z-0.8
X-6.747 Y-6.47
X-15.548 Y-2.057 F1500
X-15.761 Y-1.95 F1016
X-15.77 Y-1.946
G3 X-16.191 Y-2.1 Z-1 I-0.134 J-0.288
G1 X-16.517 Y-2.869 F1500
X-16.568 Y-3.01
X-16.601 Y-3.156
X-16.617 Y-3.305
X-16.618 Y-3.455
X-16.607 Y-3.605
X-16.584 Y-3.757
X-16.549 Y-3.911
X-16.496 Y-4.092
X-16.43 Y-4.273
X-16.335 Y-4.485
X-16.224 Y-4.697
X-16.072 Y-4.943
X-15.893 Y-5.196
X-15.666 Y-5.475
X-15.378 Y-5.783
X-15.046 Y-6.095
X-14.922 Y-6.197
X-14.733 Y-6.346
X-14.625 Y-6.465
X-14.541 Y-6.602
X-14.421 Y-6.899
X-14.34 Y-7.537
X-14.386 Y-8.177
X-14.392 Y-8.351
X-14.387 Y-8.537
X-14.366 Y-8.767
X-14.342 Y-8.915
X-14.302 Y-9.06
X-14.249 Y-9.2
X-14.185 Y-9.336
X-14.102 Y-9.461
X-14.003 Y-9.574
X-13.894 Y-9.677
X-13.764 Y-9.751
X-13.625 Y-9.808
X-13.476 Y-9.827
X-13.326 Y-9.824
X-13.184 Y-9.776
X-13.056 Y-9.698
X-12.733 Y-9.355
X-12.461 Y-9.184
X-11.862 Y-8.952
X-11.222 Y-8.898
X-10.582 Y-8.95
X-9.949 Y-9.056
X-9.318 Y-9.174
X-8.773 Y-9.256
X-8.444 Y-9.283
X-8.163 Y-9.288
X-7.966 Y-9.278
X-7.867 Y-9.267
X-7.638 Y-9.209
X-7.431 Y-9.096
X-7.26 Y-8.934
X-7.136 Y-8.734
X-6.888 Y-8.19
X-6.732 Y-7.842
G3 X-6.881 Y-7.44 Z-0.811 I-0.294 J0.12 F1016
G1 X-6.905 Y-7.428 Z-0.8
X-7.126 Y-7.314
X-15.874 Y-2.828 F1500
X-16.084 Y-2.72 F1016
X-16.095 Y-2.715
G3 X-16.517 Y-2.869 Z-1 I-0.134 J-0.288
G1 X-16.836 Y-3.624 F1500
X-16.888 Y-3.765
X-16.925 Y-3.91
X-16.945 Y-4.059
X-16.95 Y-4.209
X-16.943 Y-4.359
X-16.924 Y-4.508
X-16.893 Y-4.669
X-16.847 Y-4.845
X-16.783 Y-5.035
X-16.697 Y-5.246
X-16.588 Y-5.467
X-16.443 Y-5.719
X-16.086 Y-6.253
X-15.799 Y-6.828
X-15.63 Y-7.448
X-15.512 Y-8.079
X-15.42 Y-8.51
X-15.339 Y-8.794
X-15.259 Y-9.017
X-15.173 Y-9.217
X-15.079 Y-9.398
X-14.997 Y-9.535
X-14.905 Y-9.668
X-14.811 Y-9.785
X-14.71 Y-9.895
X-14.601 Y-9.999
X-14.484 Y-10.093
X-14.36 Y-10.178
X-14.23 Y-10.251
X-14.093 Y-10.314
X-13.951 Y-10.363
X-13.805 Y-10.397
X-13.657 Y-10.416
X-13.507 Y-10.418
X-13.357 Y-10.405
X-12.729 Y-10.271
X-12.105 Y-10.12
X-11.466 Y-10.057
X-10.824 Y-10.064
X-10.184 Y-10.115
X-9.545 Y-10.18
X-9.003 Y-10.22
X-8.664 Y-10.223
X-8.422 Y-10.208
X-8.281 Y-10.191
X-8.054 Y-10.132
X-7.85 Y-10.019
X-7.681 Y-9.858
X-7.558 Y-9.659
X-7.136 Y-8.734
G3 X-7.28 Y-8.332 Z-0.812 I-0.293 J0.122 F1016
G1 X-7.307 Y-8.318 Z-0.8
X-7.526 Y-8.201
X-16.195 Y-3.586 F1500
X-16.399 Y-3.478 F1016
X-16.415 Y-3.47
G3 X-16.836 Y-3.624 Z-1 I-0.134 J-0.288
G1 X-16.959 Y-3.916 F1500
X-17.174 Y-4.434
X-17.225 Y-4.575
X-17.262 Y-4.72
X-17.283 Y-4.869
X-17.289 Y-5.019
X-17.283 Y-5.169
X-17.264 Y-5.325
X-17.225 Y-5.537
X-17.067 Y-6.159
X-16.879 Y-6.773
X-16.717 Y-7.395
X-16.566 Y-8.019
X-16.418 Y-8.551
X-16.284 Y-8.934
X-16.149 Y-9.251
X-16.015 Y-9.513
X-15.877 Y-9.745
X-15.737 Y-9.949
X-15.595 Y-10.128
X-15.45 Y-10.289
X-15.302 Y-10.432
X-15.152 Y-10.559
X-15.001 Y-10.671
X-14.852 Y-10.766
X-14.704 Y-10.847
X-14.55 Y-10.92
X-14.398 Y-10.978
X-14.253 Y-11.024
X-14.087 Y-11.064
X-13.879 Y-11.1
X-13.63 Y-11.127
X-13.302 Y-11.14
X-12.66 Y-11.122
X-12.018 Y-11.096
X-11.376 Y-11.094
X-10.734 Y-11.118
X-10.093 Y-11.156
X-9.452 Y-11.185
X-9.078 Y-11.179
X-8.825 Y-11.157
X-8.695 Y-11.138
X-8.477 Y-11.076
X-8.28 Y-10.964
X-8.117 Y-10.807
X-7.997 Y-10.615
X-7.763 Y-10.109
X-7.558 Y-9.659
G3 X-7.698 Y-9.259 Z-0.814 I-0.293 J0.122 F1016
G1 X-7.729 Y-9.243 Z-0.8
X-7.946 Y-9.123
X-16.536 Y-4.396 F1500
X-16.732 Y-4.288 F1016
X-16.754 Y-4.277
G3 X-17.174 Y-4.434 Z-1 I-0.132 J-0.289
G1 X-17.538 Y-5.308 F1500
X-17.59 Y-5.452
X-17.631 Y-5.597
X-17.66 Y-5.744
X-17.685 Y-5.945
X-17.702 Y-6.213
X-17.699 Y-6.589
X-17.663 Y-7.098
X-17.581 Y-7.684
X-17.469 Y-8.222
X-17.336 Y-8.699
X-17.196 Y-9.1
X-17.042 Y-9.461
X-16.876 Y-9.787
X-16.704 Y-10.075
X-16.528 Y-10.331
X-16.344 Y-10.563
X-16.155 Y-10.772
X-15.96 Y-10.96
X-15.763 Y-11.127
X-15.564 Y-11.274
X-15.362 Y-11.404
X-15.148 Y-11.521
X-14.92 Y-11.628
X-14.681 Y-11.72
X-14.414 Y-11.804
X-14.093 Y-11.882
X-13.667 Y-11.956
X-13.029 Y-12.023
X-12.387 Y-12.054
X-11.746 Y-12.08
X-10.463 Y-12.139
X-9.827 Y-12.155
X-9.46 Y-12.14
X-9.215 Y-12.114
X-9.121 Y-12.098
X-8.91 Y-12.034
X-8.72 Y-11.921
X-8.562 Y-11.767
X-8.445 Y-11.579
X-7.997 Y-10.615
G3 X-8.134 Y-10.215 Z-0.814 I-0.292 J0.124 F1016
G1 X-8.165 Y-10.197 Z-0.8
X-8.381 Y-10.075
X-16.9 Y-5.272 F1500
X-17.093 Y-5.163 F1016
X-17.117 Y-5.151
G3 X-17.538 Y-5.308 Z-1 I-0.132 J-0.289
G1 X-17.829 Y-6.012 F1500
X-18.105 Y-6.687
X-18.156 Y-6.832
X-18.198 Y-6.982
X-18.237 Y-7.171
X-18.265 Y-7.369
X-18.282 Y-7.61
X-18.283 Y-7.871
X-18.265 Y-8.174
X-18.225 Y-8.485
X-18.161 Y-8.815
X-18.069 Y-9.16
X-17.952 Y-9.507
X-17.811 Y-9.845
X-17.65 Y-10.171
X-17.471 Y-10.48
X-17.276 Y-10.771
X-17.067 Y-11.041
X-16.846 Y-11.29
X-16.617 Y-11.517
X-16.377 Y-11.725
X-16.125 Y-11.915
X-15.86 Y-12.089
X-15.581 Y-12.247
X-15.279 Y-12.392
X-14.933 Y-12.531
X-14.525 Y-12.664
X-14.062 Y-12.782
X-13.43 Y-12.899
X-12.792 Y-12.975
X-12.153 Y-13.03
X-11.512 Y-13.073
X-10.871 Y-13.107
X-10.255 Y-13.121
X-9.9 Y-13.105
X-9.65 Y-13.077
X-9.571 Y-13.063
X-9.361 Y-12.999
X-9.173 Y-12.888
X-9.017 Y-12.736
X-8.9 Y-12.551
X-8.679 Y-12.083
X-8.445 Y-11.579
G3 X-8.593 Y-11.172 Z-0.809 I-0.292 J0.124 F1016
G1 X-8.613 Y-11.162 Z-0.8
X-8.834 Y-11.049
X-17.464 Y-6.64 F1500
X-17.671 Y-6.534 F1016
X-17.686 Y-6.527
G3 X-18.105 Y-6.687 Z-1 I-0.13 J-0.29
G1 X-18.521 Y-7.708 F1500
X-18.639 Y-8
X-18.69 Y-8.148
X-18.73 Y-8.293
X-18.758 Y-8.44
X-18.778 Y-8.61
X-18.787 Y-8.785
X-18.785 Y-8.994
X-18.767 Y-9.208
X-18.731 Y-9.452
X-18.674 Y-9.716
X-18.598 Y-9.983
X-18.495 Y-10.27
X-18.365 Y-10.567
X-18.209 Y-10.868
X-18.029 Y-11.165
X-17.827 Y-11.453
X-17.604 Y-11.731
X-17.361 Y-11.995
X-17.098 Y-12.246
X-16.816 Y-12.481
X-16.514 Y-12.7
X-16.185 Y-12.907
X-15.819 Y-13.104
X-15.411 Y-13.291
X-14.936 Y-13.471
X-14.43 Y-13.625
X-13.805 Y-13.772
X-13.172 Y-13.879
X-12.535 Y-13.959
X-11.896 Y-14.02
X-11.255 Y-14.062
X-10.694 Y-14.077
X-10.349 Y-14.064
X-10.103 Y-14.038
X-10.03 Y-14.025
X-9.82 Y-13.962
X-9.63 Y-13.851
X-9.473 Y-13.698
X-9.356 Y-13.512
X-8.9 Y-12.551
G3 X-9.057 Y-12.137 Z-0.804 I-0.292 J0.126 F1016
G1 X-9.066 Y-12.133 Z-0.8
X-9.29 Y-12.028
X-17.995 Y-7.944 F1500
X-18.215 Y-7.841 F1016
X-18.22 Y-7.839
G3 X-18.639 Y-8 Z-1 I-0.129 J-0.29
G1 X-19.105 Y-9.166 F1500
X-19.154 Y-9.308
X-19.188 Y-9.454
X-19.209 Y-9.603
X-19.219 Y-9.757
Y-9.917
X-19.207 Y-10.106
X-19.181 Y-10.297
X-19.136 Y-10.518
X-19.073 Y-10.749
X-18.989 Y-10.992
X-18.878 Y-11.257
X-18.74 Y-11.533
X-18.58 Y-11.804
X-18.39 Y-12.084
X-18.169 Y-12.366
X-17.918 Y-12.646
X-17.637 Y-12.92
X-17.324 Y-13.188
X-16.984 Y-13.442
X-16.616 Y-13.681
X-16.198 Y-13.914
X-15.733 Y-14.134
X-15.198 Y-14.345
X-14.598 Y-14.537
X-13.975 Y-14.691
X-13.344 Y-14.811
X-12.708 Y-14.904
X-12.07 Y-14.974
X-11.429 Y-15.019
X-11.007 Y-15.023
X-10.693 Y-15.004
X-10.48 Y-14.978
X-10.47 Y-14.976
X-10.267 Y-14.911
X-10.084 Y-14.802
X-9.931 Y-14.653
X-9.817 Y-14.473
X-9.578 Y-13.979
X-9.356 Y-13.512
G3 X-9.518 Y-13.096 Z-0.801 I-0.291 J0.126 F1016
G1 X-9.521 Y-13.095 Z-0.8
X-9.748 Y-12.994
X-18.46 Y-9.105 F1500
X-18.685 Y-9.004 F1016
X-18.687
G3 X-19.105 Y-9.166 Z-1 I-0.128 J-0.291
G1 X-19.338 Y-9.75 F1500
X-19.508 Y-10.187
X-19.555 Y-10.33
X-19.586 Y-10.476
X-19.604 Y-10.625
X-19.609 Y-10.775
X-19.604 Y-10.926
X-19.586 Y-11.103
X-19.556 Y-11.282
X-19.507 Y-11.488
X-19.441 Y-11.702
X-19.353 Y-11.932
X-19.236 Y-12.187
X-19.098 Y-12.439
X-18.929 Y-12.706
X-18.722 Y-12.99
X-18.479 Y-13.28
X-18.211 Y-13.559
X-17.907 Y-13.837
X-17.556 Y-14.117
X-17.158 Y-14.394
X-16.706 Y-14.666
X-16.21 Y-14.921
X-15.676 Y-15.152
X-15.071 Y-15.368
X-14.453 Y-15.544
X-13.827 Y-15.687
X-13.195 Y-15.801
X-12.559 Y-15.888
X-11.919 Y-15.947
X-11.487 Y-15.959
X-11.186 Y-15.948
X-10.969 Y-15.925
X-10.944 Y-15.921
X-10.736 Y-15.858
X-10.548 Y-15.749
X-10.39 Y-15.598
X-10.273 Y-15.415
X-9.817 Y-14.473
G3 X-9.978 Y-14.055 Z-0.8 I-0.29 J0.128 F1016
G1 X-9.979
X-10.206 Y-13.954
X-18.864 Y-10.121 F1500
X-19.088 Y-10.022 F1016
X-19.091 Y-10.021
G3 X-19.508 Y-10.187 Z-1 I-0.125 J-0.292
G1 X-19.872 Y-11.122 F1500
X-19.919 Y-11.264
X-19.95 Y-11.411
X-19.967 Y-11.56
X-19.97 Y-11.71
X-19.963 Y-11.86
X-19.943 Y-12.029
X-19.911 Y-12.2
X-19.859 Y-12.401
X-19.793 Y-12.604
X-19.701 Y-12.832
X-19.584 Y-13.075
X-19.444 Y-13.321
X-19.266 Y-13.591
X-19.051 Y-13.874
X-18.812 Y-14.149
X-18.522 Y-14.441
X-18.178 Y-14.745
X-17.783 Y-15.05
X-17.36 Y-15.333
X-16.882 Y-15.609
X-16.333 Y-15.879
X-15.739 Y-16.124
X-15.131 Y-16.33
X-14.512 Y-16.503
X-13.886 Y-16.645
X-13.254 Y-16.759
X-12.617 Y-16.844
X-12.105 Y-16.881
X-11.792 Y-16.883
X-11.535 Y-16.867
X-11.443 Y-16.856
X-11.225 Y-16.8
X-11.026 Y-16.693
X-10.86 Y-16.54
X-10.735 Y-16.352
X-10.499 Y-15.875
X-10.284 Y-15.438
X-10.273 Y-15.415
G3 X-10.433 Y-14.997 Z-0.801 I-0.29 J0.128 F1016
G1 X-10.435 Y-14.996 Z-0.8
X-10.661 Y-14.895
X-19.228 Y-11.057 F1500
X-19.45 Y-10.958 F1016
X-19.455 Y-10.956
G3 X-19.872 Y-11.122 Z-1 I-0.125 J-0.292
G1 X-20.018 Y-11.5 F1500
X-20.214 Y-12.018
X-20.26 Y-12.16
X-20.293 Y-12.307
X-20.31 Y-12.456
X-20.313 Y-12.606
X-20.305 Y-12.756
X-20.285 Y-12.919
X-20.252 Y-13.087
X-20.201 Y-13.283
X-20.135 Y-13.479
X-20.043 Y-13.703
X-19.93 Y-13.934
X-19.788 Y-14.181
X-19.604 Y-14.456
X-19.397 Y-14.725
X-19.141 Y-15.017
X-18.833 Y-15.323
X-18.478 Y-15.632
X-18.092 Y-15.925
X-17.635 Y-16.228
X-17.108 Y-16.527
X-16.53 Y-16.807
X-15.935 Y-17.049
X-15.328 Y-17.257
X-14.71 Y-17.432
X-14.085 Y-17.578
X-13.453 Y-17.696
X-12.866 Y-17.772
X-12.472 Y-17.797
X-12.161 Y-17.796
X-11.949 Y-17.781
X-11.893 Y-17.774
X-11.678 Y-17.717
X-11.483 Y-17.611
X-11.319 Y-17.46
X-11.195 Y-17.275
X-10.973 Y-16.831
X-10.735 Y-16.352
G3 X-10.892 Y-15.932 Z-0.8 I-0.289 J0.131 F1016
G1 X-10.893
X-11.118 Y-15.828
X-19.573 Y-11.951 F1500
X-19.789 Y-11.852 F1016
X-19.799 Y-11.847
G3 X-20.214 Y-12.018 Z-1 I-0.122 J-0.293
G1 X-20.545 Y-12.893 F1500
X-20.59 Y-13.036
X-20.625 Y-13.182
X-20.642 Y-13.331
X-20.646 Y-13.481
X-20.639 Y-13.63
X-20.619 Y-13.791
X-20.587 Y-13.956
X-20.536 Y-14.148
X-20.472 Y-14.34
X-20.38 Y-14.562
X-20.269 Y-14.789
X-20.125 Y-15.039
X-19.942 Y-15.312
X-19.735 Y-15.581
X-19.477 Y-15.874
X-19.162 Y-16.187
X-18.817 Y-16.487
X-18.407 Y-16.799
X-17.923 Y-17.118
X-17.374 Y-17.43
X-16.796 Y-17.71
X-16.202 Y-17.954
X-15.596 Y-18.165
X-14.98 Y-18.346
X-14.356 Y-18.498
X-13.725 Y-18.619
X-13.192 Y-18.685
X-12.856 Y-18.705
X-12.57 Y-18.702
X-12.369 Y-18.687
X-12.352 Y-18.685
X-12.14 Y-18.628
X-11.947 Y-18.523
X-11.784 Y-18.374
X-11.662 Y-18.192
X-11.265 Y-17.413
X-11.195 Y-17.275
G3 X-11.349 Y-16.855 Z-0.801 I-0.288 J0.133 F1016
G1 X-11.351 Y-16.854 Z-0.8
X-11.576 Y-16.748
X-19.905 Y-12.826 F1500
X-20.116 Y-12.727 F1016
X-20.13 Y-12.721
G3 X-20.545 Y-12.893 Z-1 I-0.121 J-0.293
G1 X-20.747 Y-13.437 F1500
X-20.892 Y-13.833
X-20.936 Y-13.977
X-20.963 Y-14.124
X-20.974 Y-14.274
X-20.973 Y-14.424
X-20.959 Y-14.573
X-20.934 Y-14.737
X-20.894 Y-14.911
X-20.838 Y-15.101
X-20.761 Y-15.309
X-20.663 Y-15.527
X-20.531 Y-15.777
X-20.379 Y-16.022
X-20.182 Y-16.297
X-19.942 Y-16.59
X-19.673 Y-16.876
X-19.335 Y-17.192
X-18.926 Y-17.526
X-18.478 Y-17.845
X-17.962 Y-18.163
X-17.394 Y-18.462
X-16.809 Y-18.726
X-16.21 Y-18.958
X-15.6 Y-19.158
X-14.981 Y-19.33
X-14.354 Y-19.47
X-13.819 Y-19.557
X-13.423 Y-19.595
X-13.135 Y-19.603
X-12.915 Y-19.595
X-12.851 Y-19.588
X-12.631 Y-19.538
X-12.431 Y-19.435
X-12.261 Y-19.287
X-12.132 Y-19.102
X-11.969 Y-18.792
X-11.662 Y-18.192
G3 X-11.813 Y-17.771 Z-0.801 I-0.288 J0.134 F1016
G1 X-11.815 Y-17.77 Z-0.8
X-12.039 Y-17.663
X-20.254 Y-13.764 F1500
X-20.462 Y-13.666 F1016
X-20.479 Y-13.658
G3 X-20.892 Y-13.833 Z-1 I-0.119 J-0.294
G1 X-21.105 Y-14.417 F1500
X-21.21 Y-14.708
X-21.254 Y-14.852
X-21.282 Y-14.999
X-21.294 Y-15.149
X-21.293 Y-15.299
X-21.28 Y-15.448
X-21.255 Y-15.608
X-21.216 Y-15.78
X-21.16 Y-15.971
X-21.085 Y-16.174
X-20.984 Y-16.402
X-20.864 Y-16.628
X-20.702 Y-16.891
X-20.513 Y-17.157
X-20.277 Y-17.446
X-19.982 Y-17.761
X-19.653 Y-18.07
X-19.263 Y-18.389
X-18.796 Y-18.722
X-18.257 Y-19.056
X-17.69 Y-19.356
X-17.106 Y-19.623
X-16.508 Y-19.858
X-15.899 Y-20.063
X-15.282 Y-20.239
X-14.673 Y-20.377
X-14.167 Y-20.456
X-13.838 Y-20.486
X-13.553 Y-20.493
X-13.354 Y-20.484
X-13.318 Y-20.48
X-13.101 Y-20.43
X-12.903 Y-20.328
X-12.735 Y-20.183
X-12.607 Y-20.001
X-12.43 Y-19.667
X-12.132 Y-19.102
G3 X-12.279 Y-18.678 Z-0.8 I-0.286 J0.138 F1016
G1 X-12.28
X-12.503 Y-18.569
X-20.574 Y-14.64 F1500
X-20.777 Y-14.541 F1016
X-20.798 Y-14.532
G3 X-21.21 Y-14.708 Z-1 I-0.118 J-0.295
G1 X-21.263 Y-14.854 F1500
X-21.519 Y-15.583
X-21.561 Y-15.727
X-21.591 Y-15.874
X-21.605 Y-16.024
Y-16.174
X-21.593 Y-16.323
X-21.569 Y-16.481
X-21.532 Y-16.65
X-21.477 Y-16.839
X-21.405 Y-17.037
X-21.306 Y-17.264
X-21.186 Y-17.493
X-21.025 Y-17.756
X-20.84 Y-18.019
X-20.609 Y-18.305
X-20.315 Y-18.622
X-19.993 Y-18.927
X-19.596 Y-19.255
X-19.124 Y-19.596
X-18.58 Y-19.936
X-18.014 Y-20.24
X-17.431 Y-20.51
X-16.835 Y-20.749
X-16.228 Y-20.959
X-15.612 Y-21.138
X-15.046 Y-21.267
X-14.575 Y-21.341
X-14.271 Y-21.369
X-14.002 Y-21.376
X-13.808 Y-21.367
X-13.798 Y-21.366
X-13.583 Y-21.316
X-13.386 Y-21.216
X-13.218 Y-21.072
X-13.09 Y-20.892
X-12.819 Y-20.396
X-12.607 Y-20.001
