(Top_platte)
(Bearbeiten)
(  Hersteller: ChinaCnc)
(  model: 3040T)
(  description: Generic 3-axis)
(T5 D=3.175 CR=0 - ZMIN=-1.8 - Schaftfrser)
G90 G94
G17
G21
(-Attention- Property Safe Retracts is set to Clearance Height.)
(Ensure the clearance height will clear the part and or fixtures.)
(Raise the Z-axis to a safe height before starting the program.)
(When using Fusion 360 for Personal Use, the feedrate of)
(rapid moves is reduced to match the feedrate of cutting)
(moves, which can increase machining time. Unrestricted rapid)
(moves are available with a Fusion 360 Subscription.)

(Bohrfrsen2)
M0
(MANUAL TOOL CHANGE TO T5)
S4000 M3
G17 G90 G94
G54
G0 X-278.919 Y-11.078
Z15
G1 Z1.683 F1000
Z0
Y-10.919
X-278.925 Y-10.888
X-278.943 Y-10.861
X-278.969 Y-10.844
X-279 Y-10.837
G3 X-279 Y-11.163 Z-0.061 I0 J-0.163
X-279 Y-10.838 Z-0.122 I0 J0.163
X-279 Y-11.162 Z-0.183 I0 J-0.162
X-279 Y-10.838 Z-0.244 I0 J0.162
X-279 Y-11.162 Z-0.306 I0 J-0.162
X-279 Y-10.838 Z-0.367 I0 J0.162
X-279 Y-11.162 Z-0.428 I0 J-0.162
X-279 Y-10.838 Z-0.489 I0 J0.162
X-279 Y-11.162 Z-0.55 I0 J-0.162
X-279 Y-10.838 Z-0.611 I0 J0.162
X-279 Y-11.162 Z-0.672 I0 J-0.162
X-279 Y-10.838 Z-0.733 I0 J0.162
X-279 Y-11.162 Z-0.794 I0 J-0.162
X-279 Y-10.838 Z-0.856 I0 J0.162
X-279 Y-11.162 Z-0.917 I0 J-0.162
X-279 Y-10.838 Z-0.978 I0 J0.162
X-279 Y-11.162 Z-1.039 I0 J-0.162
X-279 Y-10.838 Z-1.1 I0 J0.162
X-279 Y-11.162 Z-1.161 I0 J-0.162
X-279 Y-10.838 Z-1.222 I0 J0.162
X-279 Y-11.162 Z-1.283 I0 J-0.162
X-279 Y-10.838 Z-1.344 I0 J0.162
X-279 Y-11.162 Z-1.406 I0 J-0.162
X-279 Y-10.838 Z-1.467 I0 J0.162
X-279 Y-11.162 Z-1.528 I0 J-0.162
X-279 Y-10.838 Z-1.589 I0 J0.162
X-279 Y-11.162 Z-1.65 I0 J-0.162
X-279 Y-10.838 Z-1.711 I0 J0.162
X-279 Y-11.162 Z-1.772 I0 J-0.162
X-278.839 Y-11.023 Z-1.8 I0 J0.162
X-279.161 Y-10.977 I-0.161 J0.023
X-278.839 Y-11.023 I0.161 J-0.023
G1 X-278.841 Y-10.992
X-278.855 Y-10.963
X-278.878 Y-10.942
X-278.908 Y-10.931
X-279.065 Y-10.909
Z5
X-278.919 Y-49.077
Z1.683
Z0
Y-48.919
X-278.925 Y-48.888
X-278.943 Y-48.861
X-278.969 Y-48.844
X-279 Y-48.838
G3 X-279 Y-49.162 Z-0.061 I0 J-0.162
X-279 Y-48.838 Z-0.122 I0 J0.162
X-279 Y-49.162 Z-0.183 I0 J-0.162
X-279 Y-48.838 Z-0.244 I0 J0.162
X-279 Y-49.162 Z-0.306 I0 J-0.162
X-279 Y-48.838 Z-0.367 I0 J0.162
X-279 Y-49.162 Z-0.428 I0 J-0.162
X-279 Y-48.838 Z-0.489 I0 J0.162
X-279 Y-49.162 Z-0.55 I0 J-0.162
X-279 Y-48.838 Z-0.611 I0 J0.162
X-279 Y-49.162 Z-0.672 I0 J-0.162
X-279 Y-48.838 Z-0.733 I0 J0.162
X-279 Y-49.162 Z-0.794 I0 J-0.162
X-279 Y-48.838 Z-0.856 I0 J0.162
X-279 Y-49.162 Z-0.917 I0 J-0.162
X-279 Y-48.838 Z-0.978 I0 J0.162
X-279 Y-49.162 Z-1.039 I0 J-0.162
X-279 Y-48.838 Z-1.1 I0 J0.162
X-279 Y-49.162 Z-1.161 I0 J-0.162
X-279 Y-48.838 Z-1.222 I0 J0.162
X-279 Y-49.162 Z-1.283 I0 J-0.162
X-279 Y-48.838 Z-1.344 I0 J0.162
X-279 Y-49.162 Z-1.406 I0 J-0.162
X-279 Y-48.838 Z-1.467 I0 J0.162
X-279 Y-49.162 Z-1.528 I0 J-0.162
X-279 Y-48.838 Z-1.589 I0 J0.162
X-279 Y-49.162 Z-1.65 I0 J-0.162
X-279 Y-48.838 Z-1.711 I0 J0.162
X-279 Y-49.162 Z-1.772 I0 J-0.162
X-278.839 Y-49.023 Z-1.8 I0 J0.162
X-279.161 Y-48.977 I-0.161 J0.023
X-278.839 Y-49.023 I0.161 J-0.023
G1 X-278.841 Y-48.992
X-278.855 Y-48.963
X-278.878 Y-48.942
X-278.908 Y-48.931
X-279.065 Y-48.909
Z5
X-149.919 Y-49.077
Z1.683
Z0
Y-48.919
X-149.925 Y-48.888
X-149.943 Y-48.861
X-149.969 Y-48.844
X-150 Y-48.838
G3 X-150 Y-49.162 Z-0.061 I0 J-0.162
X-150 Y-48.838 Z-0.122 I0 J0.162
X-150 Y-49.162 Z-0.183 I0 J-0.162
X-150 Y-48.838 Z-0.244 I0 J0.162
X-150 Y-49.162 Z-0.306 I0 J-0.162
X-150 Y-48.838 Z-0.367 I0 J0.162
X-150 Y-49.162 Z-0.428 I0 J-0.162
X-150 Y-48.837 Z-0.489 I0 J0.162
X-150 Y-49.163 Z-0.55 I0 J-0.163
X-150 Y-48.837 Z-0.611 I0 J0.163
X-150 Y-49.163 Z-0.672 I0 J-0.163
X-150 Y-48.837 Z-0.733 I0 J0.163
X-150 Y-49.163 Z-0.794 I0 J-0.163
X-150 Y-48.837 Z-0.856 I0 J0.163
X-150 Y-49.163 Z-0.917 I0 J-0.163
X-150 Y-48.837 Z-0.978 I0 J0.163
X-150 Y-49.163 Z-1.039 I0 J-0.163
X-150 Y-48.837 Z-1.1 I0 J0.163
X-150 Y-49.163 Z-1.161 I0 J-0.163
X-150 Y-48.837 Z-1.222 I0 J0.163
X-150 Y-49.163 Z-1.283 I0 J-0.163
X-150 Y-48.837 Z-1.344 I0 J0.163
X-150 Y-49.163 Z-1.406 I0 J-0.163
X-150 Y-48.837 Z-1.467 I0 J0.163
X-150 Y-49.163 Z-1.528 I0 J-0.163
X-150 Y-48.837 Z-1.589 I0 J0.163
X-150 Y-49.163 Z-1.65 I0 J-0.163
X-150 Y-48.837 Z-1.711 I0 J0.163
X-150 Y-49.163 Z-1.772 I0 J-0.163
X-149.839 Y-49.023 Z-1.8 I0 J0.163
X-150.161 Y-48.977 I-0.161 J0.023
X-149.839 Y-49.023 I0.161 J-0.023
G1 X-149.841 Y-48.992
X-149.855 Y-48.963
X-149.878 Y-48.942
X-149.908 Y-48.931
X-150.065 Y-48.909
Z5
X-149.919 Y-11.078
Z1.683
Z0
Y-10.919
X-149.925 Y-10.888
X-149.943 Y-10.861
X-149.969 Y-10.844
X-150 Y-10.837
G3 X-150 Y-11.163 Z-0.061 I0 J-0.163
X-150 Y-10.837 Z-0.122 I0 J0.163
X-150 Y-11.163 Z-0.183 I0 J-0.163
X-150 Y-10.837 Z-0.244 I0 J0.163
X-150 Y-11.163 Z-0.306 I0 J-0.163
X-150 Y-10.837 Z-0.367 I0 J0.163
X-150 Y-11.163 Z-0.428 I0 J-0.163
X-150 Y-10.837 Z-0.489 I0 J0.163
X-150 Y-11.163 Z-0.55 I0 J-0.163
X-150 Y-10.837 Z-0.611 I0 J0.163
X-150 Y-11.163 Z-0.672 I0 J-0.163
X-150 Y-10.837 Z-0.733 I0 J0.163
X-150 Y-11.163 Z-0.794 I0 J-0.163
X-150 Y-10.837 Z-0.856 I0 J0.163
X-150 Y-11.163 Z-0.917 I0 J-0.163
X-150 Y-10.837 Z-0.978 I0 J0.163
X-150 Y-11.163 Z-1.039 I0 J-0.163
X-150 Y-10.837 Z-1.1 I0 J0.163
X-150 Y-11.163 Z-1.161 I0 J-0.163
X-150 Y-10.837 Z-1.222 I0 J0.163
X-150 Y-11.163 Z-1.283 I0 J-0.163
X-150 Y-10.837 Z-1.344 I0 J0.163
X-150 Y-11.163 Z-1.406 I0 J-0.163
X-150 Y-10.837 Z-1.467 I0 J0.163
X-150 Y-11.163 Z-1.528 I0 J-0.163
X-150 Y-10.837 Z-1.589 I0 J0.163
X-150 Y-11.163 Z-1.65 I0 J-0.163
X-150 Y-10.837 Z-1.711 I0 J0.163
X-150 Y-11.163 Z-1.772 I0 J-0.163
X-149.839 Y-11.023 Z-1.8 I0 J0.163
X-150.161 Y-10.977 I-0.161 J0.023
X-149.839 Y-11.023 I0.161 J-0.023
G1 X-149.841 Y-10.992
X-149.855 Y-10.963
X-149.878 Y-10.942
X-149.908 Y-10.931
X-150.065 Y-10.909
Z5
X-85.919 Y-11.078
Z1.683
Z0
Y-10.919
X-85.925 Y-10.888
X-85.943 Y-10.861
X-85.969 Y-10.844
X-86 Y-10.837
G3 X-86 Y-11.163 Z-0.061 I0 J-0.163
X-86 Y-10.837 Z-0.122 I0 J0.163
X-86 Y-11.163 Z-0.183 I0 J-0.163
X-86 Y-10.837 Z-0.244 I0 J0.163
X-86 Y-11.162 Z-0.306 I0 J-0.163
X-86 Y-10.838 Z-0.367 I0 J0.162
X-86 Y-11.162 Z-0.428 I0 J-0.162
X-86 Y-10.838 Z-0.489 I0 J0.162
X-86 Y-11.162 Z-0.55 I0 J-0.162
X-86 Y-10.838 Z-0.611 I0 J0.162
X-86 Y-11.162 Z-0.672 I0 J-0.162
X-86 Y-10.838 Z-0.733 I0 J0.162
X-86 Y-11.162 Z-0.794 I0 J-0.162
X-86 Y-10.838 Z-0.856 I0 J0.162
X-86 Y-11.162 Z-0.917 I0 J-0.162
X-86 Y-10.838 Z-0.978 I0 J0.162
X-86 Y-11.162 Z-1.039 I0 J-0.162
X-86 Y-10.838 Z-1.1 I0 J0.162
X-86 Y-11.162 Z-1.161 I0 J-0.162
X-86 Y-10.838 Z-1.222 I0 J0.162
X-86 Y-11.162 Z-1.283 I0 J-0.162
X-86 Y-10.838 Z-1.344 I0 J0.162
X-86 Y-11.162 Z-1.406 I0 J-0.162
X-86 Y-10.838 Z-1.467 I0 J0.162
X-86 Y-11.162 Z-1.528 I0 J-0.162
X-86 Y-10.838 Z-1.589 I0 J0.162
X-86 Y-11.162 Z-1.65 I0 J-0.162
X-86 Y-10.838 Z-1.711 I0 J0.162
X-86 Y-11.162 Z-1.772 I0 J-0.162
X-85.839 Y-11.023 Z-1.8 I0 J0.162
X-86.161 Y-10.977 I-0.161 J0.023
X-85.839 Y-11.023 I0.161 J-0.023
G1 X-85.841 Y-10.992
X-85.855 Y-10.963
X-85.878 Y-10.942
X-85.908 Y-10.931
X-86.065 Y-10.909
Z5
X-85.919 Y-49.077
Z1.683
Z0
Y-48.919
X-85.925 Y-48.888
X-85.943 Y-48.861
X-85.969 Y-48.844
X-86 Y-48.838
G3 X-86 Y-49.162 Z-0.061 I0 J-0.162
X-86 Y-48.838 Z-0.122 I0 J0.162
X-86 Y-49.162 Z-0.183 I0 J-0.162
X-86 Y-48.838 Z-0.244 I0 J0.162
X-86 Y-49.162 Z-0.306 I0 J-0.162
X-86 Y-48.838 Z-0.367 I0 J0.162
X-86 Y-49.162 Z-0.428 I0 J-0.162
X-86 Y-48.838 Z-0.489 I0 J0.162
X-86 Y-49.162 Z-0.55 I0 J-0.162
X-86 Y-48.838 Z-0.611 I0 J0.162
X-86 Y-49.162 Z-0.672 I0 J-0.162
X-86 Y-48.838 Z-0.733 I0 J0.162
X-86 Y-49.162 Z-0.794 I0 J-0.162
X-86 Y-48.838 Z-0.856 I0 J0.162
X-86 Y-49.162 Z-0.917 I0 J-0.162
X-86 Y-48.838 Z-0.978 I0 J0.162
X-86 Y-49.162 Z-1.039 I0 J-0.162
X-86 Y-48.838 Z-1.1 I0 J0.162
X-86 Y-49.162 Z-1.161 I0 J-0.162
X-86 Y-48.838 Z-1.222 I0 J0.162
X-86 Y-49.162 Z-1.283 I0 J-0.162
X-86 Y-48.838 Z-1.344 I0 J0.162
X-86 Y-49.162 Z-1.406 I0 J-0.162
X-86 Y-48.838 Z-1.467 I0 J0.162
X-86 Y-49.162 Z-1.528 I0 J-0.162
X-86 Y-48.838 Z-1.589 I0 J0.162
X-86 Y-49.162 Z-1.65 I0 J-0.162
X-86 Y-48.838 Z-1.711 I0 J0.162
X-86 Y-49.162 Z-1.772 I0 J-0.162
X-85.839 Y-49.023 Z-1.8 I0 J0.162
X-86.161 Y-48.977 I-0.161 J0.023
X-85.839 Y-49.023 I0.161 J-0.023
G1 X-85.841 Y-48.992
X-85.855 Y-48.963
X-85.878 Y-48.942
X-85.908 Y-48.931
X-86.065 Y-48.909
Z5
X-40.919 Y-49.077
Z1.683
Z0
Y-48.919
X-40.925 Y-48.888
X-40.943 Y-48.861
X-40.969 Y-48.844
X-41 Y-48.838
G3 X-41 Y-49.162 Z-0.061 I0 J-0.162
X-41 Y-48.838 Z-0.122 I0 J0.162
X-41 Y-49.162 Z-0.183 I0 J-0.162
X-41 Y-48.838 Z-0.244 I0 J0.162
X-41 Y-49.162 Z-0.306 I0 J-0.162
X-41 Y-48.838 Z-0.367 I0 J0.162
X-41 Y-49.162 Z-0.428 I0 J-0.162
X-41 Y-48.838 Z-0.489 I0 J0.162
X-41 Y-49.162 Z-0.55 I0 J-0.162
X-41 Y-48.838 Z-0.611 I0 J0.162
X-41 Y-49.162 Z-0.672 I0 J-0.162
X-41 Y-48.838 Z-0.733 I0 J0.162
X-41 Y-49.162 Z-0.794 I0 J-0.162
X-41 Y-48.838 Z-0.856 I0 J0.162
X-41 Y-49.162 Z-0.917 I0 J-0.162
X-41 Y-48.838 Z-0.978 I0 J0.162
X-41 Y-49.162 Z-1.039 I0 J-0.162
X-41 Y-48.837 Z-1.1 I0 J0.162
X-41 Y-49.163 Z-1.161 I0 J-0.163
X-41 Y-48.837 Z-1.222 I0 J0.163
X-41 Y-49.163 Z-1.283 I0 J-0.163
X-41 Y-48.837 Z-1.344 I0 J0.163
X-41 Y-49.163 Z-1.406 I0 J-0.163
X-41 Y-48.837 Z-1.467 I0 J0.163
X-41 Y-49.163 Z-1.528 I0 J-0.163
X-41 Y-48.837 Z-1.589 I0 J0.163
X-41 Y-49.163 Z-1.65 I0 J-0.163
X-41 Y-48.837 Z-1.711 I0 J0.163
X-41 Y-49.163 Z-1.772 I0 J-0.163
X-40.839 Y-49.023 Z-1.8 I0 J0.163
X-41.161 Y-48.977 I-0.161 J0.023
X-40.839 Y-49.023 I0.161 J-0.023
G1 X-40.841 Y-48.992
X-40.855 Y-48.963
X-40.878 Y-48.942
X-40.908 Y-48.931
X-41.065 Y-48.909
Z5
X-10.919 Y-49.077
Z1.683
Z0
Y-48.919
X-10.925 Y-48.888
X-10.943 Y-48.861
X-10.969 Y-48.844
X-11 Y-48.838
G3 X-11 Y-49.162 Z-0.061 I0 J-0.162
X-11 Y-48.838 Z-0.122 I0 J0.162
X-11 Y-49.162 Z-0.183 I0 J-0.162
X-11 Y-48.838 Z-0.244 I0 J0.162
X-11 Y-49.162 Z-0.306 I0 J-0.162
X-11 Y-48.838 Z-0.367 I0 J0.162
X-11 Y-49.162 Z-0.428 I0 J-0.162
X-11 Y-48.838 Z-0.489 I0 J0.162
X-11 Y-49.162 Z-0.55 I0 J-0.162
X-11 Y-48.838 Z-0.611 I0 J0.162
X-11 Y-49.162 Z-0.672 I0 J-0.162
X-11 Y-48.838 Z-0.733 I0 J0.162
X-11 Y-49.162 Z-0.794 I0 J-0.162
X-11 Y-48.838 Z-0.856 I0 J0.162
X-11 Y-49.162 Z-0.917 I0 J-0.162
X-11 Y-48.838 Z-0.978 I0 J0.162
X-11 Y-49.162 Z-1.039 I0 J-0.162
X-11 Y-48.838 Z-1.1 I0 J0.162
X-11 Y-49.162 Z-1.161 I0 J-0.162
X-11 Y-48.838 Z-1.222 I0 J0.162
X-11 Y-49.162 Z-1.283 I0 J-0.162
X-11 Y-48.838 Z-1.344 I0 J0.162
X-11 Y-49.162 Z-1.406 I0 J-0.162
X-11 Y-48.838 Z-1.467 I0 J0.162
X-11 Y-49.162 Z-1.528 I0 J-0.162
X-11 Y-48.838 Z-1.589 I0 J0.162
X-11 Y-49.163 Z-1.65 I0 J-0.162
X-11 Y-48.837 Z-1.711 I0 J0.163
X-11 Y-49.163 Z-1.772 I0 J-0.163
X-10.839 Y-49.023 Z-1.8 I0 J0.163
X-11.161 Y-48.977 I-0.161 J0.023
X-10.839 Y-49.023 I0.161 J-0.023
G1 X-10.841 Y-48.992
X-10.855 Y-48.963
X-10.878 Y-48.942
X-10.908 Y-48.931
X-11.065 Y-48.909
Z5
X-10.919 Y-11.078
Z1.683
Z0
Y-10.919
X-10.925 Y-10.888
X-10.943 Y-10.861
X-10.969 Y-10.844
X-11 Y-10.837
G3 X-11 Y-11.163 Z-0.061 I0 J-0.163
X-11 Y-10.837 Z-0.122 I0 J0.163
X-11 Y-11.163 Z-0.183 I0 J-0.163
X-11 Y-10.837 Z-0.244 I0 J0.163
X-11 Y-11.163 Z-0.306 I0 J-0.163
X-11 Y-10.837 Z-0.367 I0 J0.163
X-11 Y-11.163 Z-0.428 I0 J-0.163
X-11 Y-10.837 Z-0.489 I0 J0.163
X-11 Y-11.163 Z-0.55 I0 J-0.163
X-11 Y-10.837 Z-0.611 I0 J0.163
X-11 Y-11.163 Z-0.672 I0 J-0.163
X-11 Y-10.837 Z-0.733 I0 J0.163
X-11 Y-11.163 Z-0.794 I0 J-0.163
X-11 Y-10.837 Z-0.856 I0 J0.163
X-11 Y-11.163 Z-0.917 I0 J-0.163
X-11 Y-10.837 Z-0.978 I0 J0.163
X-11 Y-11.163 Z-1.039 I0 J-0.163
X-11 Y-10.837 Z-1.1 I0 J0.163
X-11 Y-11.163 Z-1.161 I0 J-0.163
X-11 Y-10.837 Z-1.222 I0 J0.163
X-11 Y-11.163 Z-1.283 I0 J-0.163
X-11 Y-10.837 Z-1.344 I0 J0.163
X-11 Y-11.163 Z-1.406 I0 J-0.163
X-11 Y-10.837 Z-1.467 I0 J0.163
X-11 Y-11.163 Z-1.528 I0 J-0.163
X-11 Y-10.837 Z-1.589 I0 J0.163
X-11 Y-11.163 Z-1.65 I0 J-0.163
X-11 Y-10.837 Z-1.711 I0 J0.163
X-11 Y-11.163 Z-1.772 I0 J-0.163
X-10.839 Y-11.023 Z-1.8 I0 J0.163
X-11.161 Y-10.977 I-0.161 J0.023
X-10.839 Y-11.023 I0.161 J-0.023
G1 X-10.841 Y-10.992
X-10.855 Y-10.963
X-10.878 Y-10.942
X-10.908 Y-10.931
X-11.065 Y-10.909
Z5
X-40.919 Y-11.078
Z1.683
Z0
Y-10.919
X-40.925 Y-10.888
X-40.943 Y-10.861
X-40.969 Y-10.844
X-41 Y-10.837
G3 X-41 Y-11.163 Z-0.061 I0 J-0.163
X-41 Y-10.837 Z-0.122 I0 J0.163
X-41 Y-11.163 Z-0.183 I0 J-0.163
X-41 Y-10.837 Z-0.244 I0 J0.163
X-41 Y-11.163 Z-0.306 I0 J-0.163
X-41 Y-10.837 Z-0.367 I0 J0.163
X-41 Y-11.163 Z-0.428 I0 J-0.163
X-41 Y-10.837 Z-0.489 I0 J0.163
X-41 Y-11.163 Z-0.55 I0 J-0.163
X-41 Y-10.837 Z-0.611 I0 J0.163
X-41 Y-11.163 Z-0.672 I0 J-0.163
X-41 Y-10.837 Z-0.733 I0 J0.163
X-41 Y-11.163 Z-0.794 I0 J-0.163
X-41 Y-10.837 Z-0.856 I0 J0.163
X-41 Y-11.163 Z-0.917 I0 J-0.163
X-41 Y-10.837 Z-0.978 I0 J0.163
X-41 Y-11.163 Z-1.039 I0 J-0.163
X-41 Y-10.837 Z-1.1 I0 J0.163
X-41 Y-11.163 Z-1.161 I0 J-0.163
X-41 Y-10.837 Z-1.222 I0 J0.163
X-41 Y-11.163 Z-1.283 I0 J-0.163
X-41 Y-10.837 Z-1.344 I0 J0.163
X-41 Y-11.163 Z-1.406 I0 J-0.163
X-41 Y-10.837 Z-1.467 I0 J0.163
X-41 Y-11.163 Z-1.528 I0 J-0.163
X-41 Y-10.837 Z-1.589 I0 J0.163
X-41 Y-11.163 Z-1.65 I0 J-0.163
X-41 Y-10.837 Z-1.711 I0 J0.163
X-41 Y-11.163 Z-1.772 I0 J-0.163
X-40.839 Y-11.023 Z-1.8 I0 J0.163
X-41.161 Y-10.977 I-0.161 J0.023
X-40.839 Y-11.023 I0.161 J-0.023
G1 X-40.841 Y-10.992
X-40.855 Y-10.963
X-40.878 Y-10.942
X-40.908 Y-10.931
X-41.065 Y-10.909
Z15
(When using Fusion 360 for Personal Use, the feedrate of)
(rapid moves is reduced to match the feedrate of cutting)
(moves, which can increase machining time. Unrestricted rapid)
(moves are available with a Fusion 360 Subscription.)

(2D-Kontur3)
G0 X-163.14 Y-43.318
G1 Z15 F1000
Z5
Z0.635 F333.3
Z-0.483
G18 G2 X-162.822 Z-0.8 I0.318 K0 F1000
G1 X-162.505
G17 G3 X-162.188 Y-43 I0 J0.318
G1 Y-17
G3 X-171.012 Y-17 I-4.413 J0
G1 Y-43
G3 X-162.188 Y-43 I4.412 J0
X-162.505 Y-42.682 I-0.318 J0
G1 X-162.822
G18 G3 X-163.14 Z-0.483 I0 K0.318
G1 Z5
Y-43.318
Z-0.165 F333.3
Z-1.283
G2 X-162.822 Z-1.6 I0.318 K0 F1000
G1 X-162.505
G17 G3 X-162.188 Y-43 I0 J0.318
G1 Y-17
G3 X-171.012 Y-17 I-4.413 J0
G1 Y-43
G3 X-162.188 Y-43 I4.412 J0
X-162.505 Y-42.682 I-0.318 J0
G1 X-162.822
G18 G3 X-163.14 Z-1.283 I0 K0.317
G1 Z5
Y-43.318
Z-0.965 F333.3
Z-1.483
G2 X-162.822 Z-1.8 I0.318 K0 F1000
G1 X-162.505
G17 G3 X-162.188 Y-43 I0 J0.318
G1 Y-17
G3 X-171.012 Y-17 I-4.413 J0
G1 Y-43
G3 X-162.188 Y-43 I4.412 J0
X-162.505 Y-42.682 I-0.318 J0
G1 X-162.822
G18 G3 X-163.14 Z-1.483 I0 K0.317
G1 Z5
X-139.74 Y-17.317
Z0.635 F333.3
Z-0.483
G2 X-139.423 Z-0.8 I0.318 K0 F1000
G1 X-139.105
G17 G3 X-138.788 Y-17 I0 J0.317
X-147.613 Y-17 I-4.412 J0
G1 Y-43
G3 X-138.788 Y-43 I4.413 J0
G1 Y-17
G3 X-139.105 Y-16.683 I-0.317 J0
G1 X-139.423
G18 G3 X-139.74 Z-0.483 I0 K0.318
G1 Z5
Y-17.317
Z-0.165 F333.3
Z-1.283
G2 X-139.423 Z-1.6 I0.318 K0 F1000
G1 X-139.105
G17 G3 X-138.788 Y-17 I0 J0.317
X-147.613 Y-17 I-4.412 J0
G1 Y-43
G3 X-138.788 Y-43 I4.413 J0
G1 Y-17
G3 X-139.105 Y-16.683 I-0.317 J0
G1 X-139.423
G18 G3 X-139.74 Z-1.283 I0 K0.317
G1 Z5
Y-17.317
Z-0.965 F333.3
Z-1.483
G2 X-139.423 Z-1.8 I0.318 K0 F1000
G1 X-139.105
G17 G3 X-138.788 Y-17 I0 J0.317
X-147.613 Y-17 I-4.412 J0
G1 Y-43
G3 X-138.788 Y-43 I4.413 J0
G1 Y-17
G3 X-139.105 Y-16.683 I-0.317 J0
G1 X-139.423
G18 G3 X-139.74 Z-1.483 I0 K0.317
G1 Z5
X-116.34 Y-17.317
Z0.635 F333.3
Z-0.483
G2 X-116.022 Z-0.8 I0.317 K0 F1000
G1 X-115.705
G17 G3 X-115.387 Y-17 I0 J0.317
X-124.213 Y-17 I-4.413 J0
G1 Y-43
G3 X-115.387 Y-43 I4.412 J0
G1 Y-17
G3 X-115.705 Y-16.683 I-0.318 J0
G1 X-116.022
G18 G3 X-116.34 Z-0.483 I0 K0.318
G1 Z5
Y-17.317
Z-0.165 F333.3
Z-1.283
G2 X-116.022 Z-1.6 I0.317 K0 F1000
G1 X-115.705
G17 G3 X-115.387 Y-17 I0 J0.317
X-124.213 Y-17 I-4.413 J0
G1 Y-43
G3 X-115.387 Y-43 I4.412 J0
G1 Y-17
G3 X-115.705 Y-16.683 I-0.318 J0
G1 X-116.022
G18 G3 X-116.34 Z-1.283 I0 K0.317
G1 Z5
Y-17.317
Z-0.965 F333.3
Z-1.483
G2 X-116.022 Z-1.8 I0.317 K0 F1000
G1 X-115.705
G17 G3 X-115.387 Y-17 I0 J0.317
X-124.213 Y-17 I-4.413 J0
G1 Y-43
G3 X-115.387 Y-43 I4.412 J0
G1 Y-17
G3 X-115.705 Y-16.683 I-0.318 J0
G1 X-116.022
G18 G3 X-116.34 Z-1.483 I0 K0.317
G1 Z5
X-92.94 Y-43.318
Z0.635 F333.3
Z-0.483
G2 X-92.622 Z-0.8 I0.318 K0 F1000
G1 X-92.305
G17 G3 X-91.988 Y-43 I0 J0.318
G1 Y-17
G3 X-100.813 Y-17 I-4.412 J0
G1 Y-43
G3 X-91.988 Y-43 I4.412 J0
X-92.305 Y-42.682 I-0.317 J0
G1 X-92.622
G18 G3 X-92.94 Z-0.483 I0 K0.318
G1 Z5
Y-43.318
Z-0.165 F333.3
Z-1.283
G2 X-92.622 Z-1.6 I0.318 K0 F1000
G1 X-92.305
G17 G3 X-91.988 Y-43 I0 J0.318
G1 Y-17
G3 X-100.813 Y-17 I-4.412 J0
G1 Y-43
G3 X-91.988 Y-43 I4.412 J0
X-92.305 Y-42.682 I-0.317 J0
G1 X-92.622
G18 G3 X-92.94 Z-1.283 I0 K0.317
G1 Z5
Y-43.318
Z-0.965 F333.3
Z-1.483
G2 X-92.622 Z-1.8 I0.318 K0 F1000
G1 X-92.305
G17 G3 X-91.988 Y-43 I0 J0.318
G1 Y-17
G3 X-100.813 Y-17 I-4.412 J0
G1 Y-43
G3 X-91.988 Y-43 I4.412 J0
X-92.305 Y-42.682 I-0.317 J0
G1 X-92.622
G18 G3 X-92.94 Z-1.483 I0 K0.317
G1 Z5
X-69.54 Y-43.318
Z0.635 F333.3
Z-0.483
G2 X-69.223 Z-0.8 I0.317 K0 F1000
G1 X-68.905
G17 G3 X-68.588 Y-43 I0 J0.318
G1 Y-17
G3 X-77.412 Y-17 I-4.412 J0
G1 Y-43
G3 X-68.588 Y-43 I4.412 J0
X-68.905 Y-42.682 I-0.317 J0
G1 X-69.223
G18 G3 X-69.54 Z-0.483 I0 K0.318
G1 Z5
Y-43.318
Z-0.165 F333.3
Z-1.283
G2 X-69.223 Z-1.6 I0.317 K0 F1000
G1 X-68.905
G17 G3 X-68.588 Y-43 I0 J0.318
G1 Y-17
G3 X-77.412 Y-17 I-4.412 J0
G1 Y-43
G3 X-68.588 Y-43 I4.412 J0
X-68.905 Y-42.682 I-0.317 J0
G1 X-69.223
G18 G3 X-69.54 Z-1.283 I0 K0.317
G1 Z5
Y-43.318
Z-0.965 F333.3
Z-1.483
G2 X-69.223 Z-1.8 I0.317 K0 F1000
G1 X-68.905
G17 G3 X-68.588 Y-43 I0 J0.318
G1 Y-17
G3 X-77.412 Y-17 I-4.412 J0
G1 Y-43
G3 X-68.588 Y-43 I4.412 J0
X-68.905 Y-42.682 I-0.317 J0
G1 X-69.223
G18 G3 X-69.54 Z-1.483 I0 K0.317
G1 Z5
X-46.14 Y-17.317
Z0.635 F333.3
Z-0.483
G2 X-45.822 Z-0.8 I0.318 K0 F1000
G1 X-45.505
G17 G3 X-45.188 Y-17 I0 J0.317
X-54.013 Y-17 I-4.412 J0
G1 Y-43
G3 X-45.188 Y-43 I4.413 J0
G1 Y-17
G3 X-45.505 Y-16.683 I-0.318 J0
G1 X-45.822
G18 G3 X-46.14 Z-0.483 I0 K0.318
G1 Z5
Y-17.317
Z-0.165 F333.3
Z-1.283
G2 X-45.822 Z-1.6 I0.318 K0 F1000
G1 X-45.505
G17 G3 X-45.188 Y-17 I0 J0.317
X-54.013 Y-17 I-4.412 J0
G1 Y-43
G3 X-45.188 Y-43 I4.413 J0
G1 Y-17
G3 X-45.505 Y-16.683 I-0.318 J0
G1 X-45.822
G18 G3 X-46.14 Z-1.283 I0 K0.317
G1 Z5
Y-17.317
Z-0.965 F333.3
Z-1.483
G2 X-45.822 Z-1.8 I0.318 K0 F1000
G1 X-45.505
G17 G3 X-45.188 Y-17 I0 J0.317
X-54.013 Y-17 I-4.412 J0
G1 Y-43
G3 X-45.188 Y-43 I4.413 J0
G1 Y-17
G3 X-45.505 Y-16.683 I-0.318 J0
G1 X-45.822
G18 G3 X-46.14 Z-1.483 I0 K0.317
G1 Z5
X-186.54 Y-17.317
Z0.635 F333.3
Z-0.483
G2 X-186.223 Z-0.8 I0.317 K0 F1000
G1 X-185.905
G17 G3 X-185.587 Y-17 I0 J0.317
X-194.413 Y-17 I-4.413 J0
G1 Y-43
G3 X-185.587 Y-43 I4.413 J0
G1 Y-17
G3 X-185.905 Y-16.683 I-0.318 J0
G1 X-186.223
G18 G3 X-186.54 Z-0.483 I0 K0.318
G1 Z5
Y-17.317
Z-0.165 F333.3
Z-1.283
G2 X-186.223 Z-1.6 I0.317 K0 F1000
G1 X-185.905
G17 G3 X-185.587 Y-17 I0 J0.317
X-194.413 Y-17 I-4.413 J0
G1 Y-43
G3 X-185.587 Y-43 I4.413 J0
G1 Y-17
G3 X-185.905 Y-16.683 I-0.318 J0
G1 X-186.223
G18 G3 X-186.54 Z-1.283 I0 K0.317
G1 Z5
Y-17.317
Z-0.965 F333.3
Z-1.483
G2 X-186.223 Z-1.8 I0.317 K0 F1000
G1 X-185.905
G17 G3 X-185.587 Y-17 I0 J0.317
X-194.413 Y-17 I-4.413 J0
G1 Y-43
G3 X-185.587 Y-43 I4.413 J0
G1 Y-17
G3 X-185.905 Y-16.683 I-0.318 J0
G1 X-186.223
G18 G3 X-186.54 Z-1.483 I0 K0.317
G1 Z5
X-209.94 Y-43.318
Z0.635 F333.3
Z-0.483
G2 X-209.622 Z-0.8 I0.318 K0 F1000
G1 X-209.305
G17 G3 X-208.988 Y-43 I0 J0.318
G1 Y-17
G3 X-217.813 Y-17 I-4.412 J0
G1 Y-43
G3 X-208.988 Y-43 I4.413 J0
X-209.305 Y-42.682 I-0.317 J0
G1 X-209.622
G18 G3 X-209.94 Z-0.483 I0 K0.318
G1 Z5
Y-43.318
Z-0.165 F333.3
Z-1.283
G2 X-209.622 Z-1.6 I0.318 K0 F1000
G1 X-209.305
G17 G3 X-208.988 Y-43 I0 J0.318
G1 Y-17
G3 X-217.813 Y-17 I-4.412 J0
G1 Y-43
G3 X-208.988 Y-43 I4.413 J0
X-209.305 Y-42.682 I-0.317 J0
G1 X-209.622
G18 G3 X-209.94 Z-1.283 I0 K0.317
G1 Z5
Y-43.318
Z-0.965 F333.3
Z-1.483
G2 X-209.622 Z-1.8 I0.318 K0 F1000
G1 X-209.305
G17 G3 X-208.988 Y-43 I0 J0.318
G1 Y-17
G3 X-217.813 Y-17 I-4.412 J0
G1 Y-43
G3 X-208.988 Y-43 I4.413 J0
X-209.305 Y-42.682 I-0.317 J0
G1 X-209.622
G18 G3 X-209.94 Z-1.483 I0 K0.317
G1 Z5
X-233.34 Y-17.317
Z0.635 F333.3
Z-0.483
G2 X-233.023 Z-0.8 I0.317 K0 F1000
G1 X-232.705
G17 G3 X-232.387 Y-17 I0 J0.317
X-241.212 Y-17 I-4.413 J0
G1 Y-43
G3 X-232.387 Y-43 I4.412 J0
G1 Y-17
G3 X-232.705 Y-16.683 I-0.318 J0
G1 X-233.023
G18 G3 X-233.34 Z-0.483 I0 K0.318
G1 Z5
Y-17.317
Z-0.165 F333.3
Z-1.283
G2 X-233.023 Z-1.6 I0.317 K0 F1000
G1 X-232.705
G17 G3 X-232.387 Y-17 I0 J0.317
X-241.212 Y-17 I-4.413 J0
G1 Y-43
G3 X-232.387 Y-43 I4.412 J0
G1 Y-17
G3 X-232.705 Y-16.683 I-0.318 J0
G1 X-233.023
G18 G3 X-233.34 Z-1.283 I0 K0.317
G1 Z5
Y-17.317
Z-0.965 F333.3
Z-1.483
G2 X-233.023 Z-1.8 I0.317 K0 F1000
G1 X-232.705
G17 G3 X-232.387 Y-17 I0 J0.317
X-241.212 Y-17 I-4.413 J0
G1 Y-43
G3 X-232.387 Y-43 I4.412 J0
G1 Y-17
G3 X-232.705 Y-16.683 I-0.318 J0
G1 X-233.023
G18 G3 X-233.34 Z-1.483 I0 K0.317
G1 Z5
X-256.74 Y-43.318
Z0.635 F333.3
Z-0.483
G2 X-256.422 Z-0.8 I0.318 K0 F1000
G1 X-256.105
G17 G3 X-255.788 Y-43 I0 J0.318
G1 Y-17
G3 X-264.612 Y-17 I-4.413 J0
G1 Y-43
G3 X-255.788 Y-43 I4.412 J0
X-256.105 Y-42.682 I-0.318 J0
G1 X-256.422
G18 G3 X-256.74 Z-0.483 I0 K0.318
G1 Z5
Y-43.318
Z-0.165 F333.3
Z-1.283
G2 X-256.422 Z-1.6 I0.318 K0 F1000
G1 X-256.105
G17 G3 X-255.788 Y-43 I0 J0.318
G1 Y-17
G3 X-264.612 Y-17 I-4.413 J0
G1 Y-43
G3 X-255.788 Y-43 I4.412 J0
X-256.105 Y-42.682 I-0.318 J0
G1 X-256.422
G18 G3 X-256.74 Z-1.283 I0 K0.317
G1 Z5
Y-43.318
Z-0.965 F333.3
Z-1.483
G2 X-256.422 Z-1.8 I0.318 K0 F1000
G1 X-256.105
G17 G3 X-255.788 Y-43 I0 J0.318
G1 Y-17
G3 X-264.612 Y-17 I-4.413 J0
G1 Y-43
G3 X-255.788 Y-43 I4.412 J0
X-256.105 Y-42.682 I-0.318 J0
G1 X-256.422
G18 G3 X-256.74 Z-1.483 I0 K0.317
G1 Z15
G17
(When using Fusion 360 for Personal Use, the feedrate of)
(rapid moves is reduced to match the feedrate of cutting)
(moves, which can increase machining time. Unrestricted rapid)
(moves are available with a Fusion 360 Subscription.)

(2D-Kontur4)
G0 X-9.682 Y-20.04
G1 Z15 F1000
Z5
Z0.635 F333.3
Z-0.483
G19 G3 Y-19.722 Z-0.8 J0.318 K0 F1000
G1 Y-19.405
G17 G3 X-10 Y-19.087 I-0.318 J0
G1 X-25
G3 X-28.413 Y-22.5 I0 J-3.413
G1 Y-37.5
G3 X-25 Y-40.912 I3.413 J0
G1 X-10
G2 X-3.412 Y-47.5 I0 J-6.588
G1 Y-50
G2 X-10 Y-56.588 I-6.588 J0
G1 X-280
G2 X-286.587 Y-50 I0 J6.588
G1 Y-10
G2 X-280 Y-3.412 I6.587 J0
G1 X-10
G2 X-3.412 Y-10 I0 J-6.588
G1 Y-12.5
G2 X-10 Y-19.087 I-6.588 J0
G3 X-10.318 Y-19.405 I0 J-0.318
G1 Y-19.722
G19 G2 Y-20.04 Z-0.483 J0 K0.318
G1 Z5
X-9.682
Z-0.165 F333.3
Z-1.283
G3 Y-19.722 Z-1.6 J0.318 K0 F1000
G1 Y-19.405
G17 G3 X-10 Y-19.087 I-0.318 J0
G1 X-25
G3 X-28.413 Y-22.5 I0 J-3.413
G1 Y-37.5
G3 X-25 Y-40.912 I3.413 J0
G1 X-10
G2 X-3.412 Y-47.5 I0 J-6.588
G1 Y-50
G2 X-10 Y-56.588 I-6.588 J0
G1 X-50.412
Z-0.8
X-59.588
Z-1.6 F333.3
X-140.413 F1000
Z-0.8
X-149.587
Z-1.6 F333.3
X-230.413 F1000
Z-0.8
X-239.587
Z-1.6 F333.3
X-280 F1000
G2 X-286.587 Y-50 I0 J6.588
G1 Y-10
G2 X-280 Y-3.412 I6.587 J0
G1 X-239.587
Z-0.8
X-230.413
Z-1.6 F333.3
X-149.587 F1000
Z-0.8
X-140.413
Z-1.6 F333.3
X-59.588 F1000
Z-0.8
X-50.412
Z-1.6 F333.3
X-10 F1000
G2 X-3.412 Y-10 I0 J-6.588
G1 Y-12.5
G2 X-10 Y-19.087 I-6.588 J0
G3 X-10.318 Y-19.405 I0 J-0.318
G1 Y-19.722
G19 G2 Y-20.04 Z-1.283 J0 K0.317
G1 Z5
X-9.682
Z-0.965 F333.3
Z-1.483
G3 Y-19.722 Z-1.8 J0.318 K0 F1000
G1 Y-19.405
G17 G3 X-10 Y-19.087 I-0.318 J0
G1 X-25
G3 X-28.413 Y-22.5 I0 J-3.413
G1 Y-37.5
G3 X-25 Y-40.912 I3.413 J0
G1 X-10
G2 X-3.412 Y-47.5 I0 J-6.588
G1 Y-50
G2 X-10 Y-56.588 I-6.588 J0
G1 X-50.412
Z-0.8
X-59.588
Z-1.8 F333.3
X-140.413 F1000
Z-0.8
X-149.587
Z-1.8 F333.3
X-230.413 F1000
Z-0.8
X-239.587
Z-1.8 F333.3
X-280 F1000
G2 X-286.587 Y-50 I0 J6.588
G1 Y-10
G2 X-280 Y-3.412 I6.587 J0
G1 X-239.587
Z-0.8
X-230.413
Z-1.8 F333.3
X-149.587 F1000
Z-0.8
X-140.413
Z-1.8 F333.3
X-59.588 F1000
Z-0.8
X-50.412
Z-1.8 F333.3
X-10 F1000
G2 X-3.412 Y-10 I0 J-6.588
G1 Y-12.5
G2 X-10 Y-19.087 I-6.588 J0
G3 X-10.318 Y-19.405 I0 J-0.318
G1 Y-19.722
G19 G2 Y-20.04 Z-1.483 J0 K0.317
G1 Z15
G17

M5
M30
