(1001)
(Bearbeiten)
(  Hersteller: ChinaCnc)
(  model: 3040T)
(  description: Generic 3-axis)
(T14  D=1.5 CR=0 - ZMIN=-1.3 - Schaftfraser)
G90 G94
G17
G21
(When using Fusion 360 for Personal Use, the feedrate of)
(rapid moves is reduced to match the feedrate of cutting)
(moves, which can increase machining time. Unrestricted rapid)
(moves are available with a Fusion 360 Subscription.)

(Bohrfrasen4)
T14
S1000 M3
G54
G0 X-19.375 Y-17.15
Z15
G1 Z2 F600
Z0.15 F400
X-19.368 Z0.104
X-19.346 Z0.062
X-19.313 Z0.029
X-19.271 Z0.007
X-19.225 Z0
X-19.15
X-19.104 Y-17.143
X-19.062 Y-17.121
X-19.029 Y-17.088
X-19.007 Y-17.046
X-19 Y-17
G3 X-20 Y-17 Z-0.044 I-0.5 J0 F600
X-19 Y-17 Z-0.087 I0.5 J0
X-20 Y-17 Z-0.131 I-0.5 J0
X-19 Y-17 Z-0.175 I0.5 J0
X-20 Y-17 Z-0.218 I-0.5 J0
X-19 Y-17 Z-0.262 I0.5 J0
X-20 Y-17 Z-0.306 I-0.5 J0
X-19 Y-17 Z-0.349 I0.5 J0
X-20 Y-17 Z-0.393 I-0.5 J0
X-19 Y-17 Z-0.437 I0.5 J0
X-20 Y-17 Z-0.48 I-0.5 J0
X-19 Y-17 Z-0.524 I0.5 J0
X-20 Y-17 Z-0.567 I-0.5 J0
X-19 Y-17 Z-0.611 I0.5 J0
X-20 Y-17 Z-0.655 I-0.5 J0
X-19 Y-17 Z-0.698 I0.5 J0
X-20 Y-17 Z-0.742 I-0.5 J0
X-19 Y-17 Z-0.786 I0.5 J0
X-20 Y-17 Z-0.829 I-0.5 J0
X-19 Y-17 Z-0.873 I0.5 J0
X-20 Y-17 Z-0.917 I-0.5 J0
X-19 Y-17 Z-0.96 I0.5 J0
X-20 Y-17 Z-1.004 I-0.5 J0
X-19 Y-17 Z-1.048 I0.5 J0
X-20 Y-17 Z-1.091 I-0.5 J0
X-19 Y-17 Z-1.135 I0.5 J0
X-20 Y-17 Z-1.179 I-0.5 J0
X-19 Y-17 Z-1.222 I0.5 J0
X-20 Y-17 Z-1.266 I-0.5 J0
X-19.113 Y-17.317 Z-1.3 I0.5 J0
X-19.887 Y-16.683 I-0.387 J0.317
X-19.113 Y-17.317 I0.387 J-0.317
G1 X-19.089 Y-17.276
X-19.079 Y-17.23
X-19.084 Y-17.184
X-19.103 Y-17.141
X-19.134 Y-17.106
X-19.192 Y-17.058
X-19.228 Y-17.029 Z-1.293
X-19.26 Y-17.002 Z-1.271
X-19.286 Y-16.981 Z-1.238
X-19.303 Y-16.968 Z-1.196
X-19.308 Y-16.963 Z-1.15
Z5
X-39.375 Y-17.15
Z2
Z0.15 F400
X-39.368 Z0.104
X-39.346 Z0.062
X-39.313 Z0.029
X-39.271 Z0.007
X-39.225 Z0
X-39.15
X-39.104 Y-17.143
X-39.062 Y-17.121
X-39.029 Y-17.088
X-39.007 Y-17.046
X-39 Y-17
G3 X-40 Y-17 Z-0.044 I-0.5 J0 F600
X-39 Y-17 Z-0.087 I0.5 J0
X-40 Y-17 Z-0.131 I-0.5 J0
X-39 Y-17 Z-0.175 I0.5 J0
X-40 Y-17 Z-0.218 I-0.5 J0
X-39 Y-17 Z-0.262 I0.5 J0
X-40 Y-17 Z-0.306 I-0.5 J0
X-39 Y-17 Z-0.349 I0.5 J0
X-40 Y-17 Z-0.393 I-0.5 J0
X-39 Y-17 Z-0.437 I0.5 J0
X-40 Y-17 Z-0.48 I-0.5 J0
X-39 Y-17 Z-0.524 I0.5 J0
X-40 Y-17 Z-0.567 I-0.5 J0
X-39 Y-17 Z-0.611 I0.5 J0
X-40 Y-17 Z-0.655 I-0.5 J0
X-39 Y-17 Z-0.698 I0.5 J0
X-40 Y-17 Z-0.742 I-0.5 J0
X-39 Y-17 Z-0.786 I0.5 J0
X-40 Y-17 Z-0.829 I-0.5 J0
X-39 Y-17 Z-0.873 I0.5 J0
X-40 Y-17 Z-0.917 I-0.5 J0
X-39 Y-17 Z-0.96 I0.5 J0
X-40 Y-17 Z-1.004 I-0.5 J0
X-39 Y-17 Z-1.048 I0.5 J0
X-40 Y-17 Z-1.091 I-0.5 J0
X-39 Y-17 Z-1.135 I0.5 J0
X-40 Y-17 Z-1.179 I-0.5 J0
X-39 Y-17 Z-1.222 I0.5 J0
X-40 Y-17 Z-1.266 I-0.5 J0
X-39.113 Y-17.317 Z-1.3 I0.5 J0
X-39.887 Y-16.683 I-0.387 J0.317
X-39.113 Y-17.317 I0.387 J-0.317
G1 X-39.089 Y-17.276
X-39.079 Y-17.23
X-39.084 Y-17.184
X-39.103 Y-17.141
X-39.134 Y-17.106
X-39.192 Y-17.058
X-39.228 Y-17.029 Z-1.293
X-39.26 Y-17.002 Z-1.271
X-39.286 Y-16.981 Z-1.238
X-39.303 Y-16.968 Z-1.196
X-39.308 Y-16.963 Z-1.15
Z5
X-39.375 Y-37.15
Z2
Z0.15 F400
X-39.368 Z0.104
X-39.346 Z0.062
X-39.313 Z0.029
X-39.271 Z0.007
X-39.225 Z0
X-39.15
X-39.104 Y-37.143
X-39.062 Y-37.121
X-39.029 Y-37.088
X-39.007 Y-37.046
X-39 Y-37
G3 X-40 Y-37 Z-0.044 I-0.5 J0 F600
X-39 Y-37 Z-0.087 I0.5 J0
X-40 Y-37 Z-0.131 I-0.5 J0
X-39 Y-37 Z-0.175 I0.5 J0
X-40 Y-37 Z-0.218 I-0.5 J0
X-39 Y-37 Z-0.262 I0.5 J0
X-40 Y-37 Z-0.306 I-0.5 J0
X-39 Y-37 Z-0.349 I0.5 J0
X-40 Y-37 Z-0.393 I-0.5 J0
X-39 Y-37 Z-0.437 I0.5 J0
X-40 Y-37 Z-0.48 I-0.5 J0
X-39 Y-37 Z-0.524 I0.5 J0
X-40 Y-37 Z-0.567 I-0.5 J0
X-39 Y-37 Z-0.611 I0.5 J0
X-40 Y-37 Z-0.655 I-0.5 J0
X-39 Y-37 Z-0.698 I0.5 J0
X-40 Y-37 Z-0.742 I-0.5 J0
X-39 Y-37 Z-0.786 I0.5 J0
X-40 Y-37 Z-0.829 I-0.5 J0
X-39 Y-37 Z-0.873 I0.5 J0
X-40 Y-37 Z-0.917 I-0.5 J0
X-39 Y-37 Z-0.96 I0.5 J0
X-40 Y-37 Z-1.004 I-0.5 J0
X-39 Y-37 Z-1.048 I0.5 J0
X-40 Y-37 Z-1.091 I-0.5 J0
X-39 Y-37 Z-1.135 I0.5 J0
X-40 Y-37 Z-1.179 I-0.5 J0
X-39 Y-37 Z-1.222 I0.5 J0
X-40 Y-37 Z-1.266 I-0.5 J0
X-39.113 Y-37.317 Z-1.3 I0.5 J0
X-39.887 Y-36.683 I-0.387 J0.317
X-39.113 Y-37.317 I0.387 J-0.317
G1 X-39.089 Y-37.276
X-39.079 Y-37.23
X-39.084 Y-37.184
X-39.103 Y-37.141
X-39.134 Y-37.106
X-39.192 Y-37.058
X-39.228 Y-37.029 Z-1.293
X-39.26 Y-37.002 Z-1.271
X-39.286 Y-36.981 Z-1.238
X-39.303 Y-36.968 Z-1.196
X-39.308 Y-36.963 Z-1.15
Z5
X-19.375 Y-37.15
Z2
Z0.15 F400
X-19.368 Z0.104
X-19.346 Z0.062
X-19.313 Z0.029
X-19.271 Z0.007
X-19.225 Z0
X-19.15
X-19.104 Y-37.143
X-19.062 Y-37.121
X-19.029 Y-37.088
X-19.007 Y-37.046
X-19 Y-37
G3 X-20 Y-37 Z-0.044 I-0.5 J0 F600
X-19 Y-37 Z-0.087 I0.5 J0
X-20 Y-37 Z-0.131 I-0.5 J0
X-19 Y-37 Z-0.175 I0.5 J0
X-20 Y-37 Z-0.218 I-0.5 J0
X-19 Y-37 Z-0.262 I0.5 J0
X-20 Y-37 Z-0.306 I-0.5 J0
X-19 Y-37 Z-0.349 I0.5 J0
X-20 Y-37 Z-0.393 I-0.5 J0
X-19 Y-37 Z-0.437 I0.5 J0
X-20 Y-37 Z-0.48 I-0.5 J0
X-19 Y-37 Z-0.524 I0.5 J0
X-20 Y-37 Z-0.567 I-0.5 J0
X-19 Y-37 Z-0.611 I0.5 J0
X-20 Y-37 Z-0.655 I-0.5 J0
X-19 Y-37 Z-0.698 I0.5 J0
X-20 Y-37 Z-0.742 I-0.5 J0
X-19 Y-37 Z-0.786 I0.5 J0
X-20 Y-37 Z-0.829 I-0.5 J0
X-19 Y-37 Z-0.873 I0.5 J0
X-20 Y-37 Z-0.917 I-0.5 J0
X-19 Y-37 Z-0.96 I0.5 J0
X-20 Y-37 Z-1.004 I-0.5 J0
X-19 Y-37 Z-1.048 I0.5 J0
X-20 Y-37 Z-1.091 I-0.5 J0
X-19 Y-37 Z-1.135 I0.5 J0
X-20 Y-37 Z-1.179 I-0.5 J0
X-19 Y-37 Z-1.222 I0.5 J0
X-20 Y-37 Z-1.266 I-0.5 J0
X-19.113 Y-37.317 Z-1.3 I0.5 J0
X-19.887 Y-36.683 I-0.387 J0.317
X-19.113 Y-37.317 I0.387 J-0.317
G1 X-19.089 Y-37.276
X-19.079 Y-37.23
X-19.084 Y-37.184
X-19.103 Y-37.141
X-19.134 Y-37.106
X-19.192 Y-37.058
X-19.228 Y-37.029 Z-1.293
X-19.26 Y-37.002 Z-1.271
X-19.286 Y-36.981 Z-1.238
X-19.303 Y-36.968 Z-1.196
X-19.308 Y-36.963 Z-1.15
Z15
M5
M30
