(1001)
(Bearbeiten)
(  Hersteller: ChinaCnc)
(  model: 3040T)
(  description: Generic 3-axis)
(T5  D=3.175 CR=0 - ZMIN=-1.3 - Schaftfraser)
G90 G94
G17
G21
(When using Fusion 360 for Personal Use, the feedrate of)
(rapid moves is reduced to match the feedrate of cutting)
(moves, which can increase machining time. Unrestricted rapid)
(moves are available with a Fusion 360 Subscription.)

(Bohrfrasen5)
T5
S6000 M3
G54
G0 X-16.577 Y-157.081
Z15
G1 Z1.683 F1000
Z0
X-16.419
X-16.388 Y-157.075
X-16.361 Y-157.057
X-16.344 Y-157.031
X-16.337 Y-157
G3 X-16.663 Y-157 Z-0.061 I-0.163 J0
X-16.337 Y-157 Z-0.122 I0.163 J0
X-16.663 Y-157 Z-0.183 I-0.163 J0
X-16.337 Y-157 Z-0.244 I0.163 J0
X-16.663 Y-157 Z-0.306 I-0.163 J0
X-16.337 Y-157 Z-0.367 I0.163 J0
X-16.663 Y-157 Z-0.428 I-0.163 J0
X-16.337 Y-157 Z-0.489 I0.163 J0
X-16.663 Y-157 Z-0.55 I-0.163 J0
X-16.337 Y-157 Z-0.611 I0.163 J0
X-16.663 Y-157 Z-0.672 I-0.163 J0
X-16.337 Y-157 Z-0.733 I0.163 J0
X-16.663 Y-157 Z-0.794 I-0.163 J0
X-16.337 Y-157 Z-0.856 I0.163 J0
X-16.663 Y-157 Z-0.917 I-0.163 J0
X-16.337 Y-157 Z-0.978 I0.163 J0
X-16.663 Y-157 Z-1.039 I-0.163 J0
X-16.337 Y-157 Z-1.1 I0.163 J0
X-16.663 Y-157 Z-1.161 I-0.163 J0
X-16.337 Y-157 Z-1.222 I0.163 J0
X-16.663 Y-157 Z-1.283 I-0.163 J0
X-16.606 Y-157.123 Z-1.3 I0.163 J0
X-16.394 Y-156.877 I0.106 J0.123
X-16.606 Y-157.123 I-0.106 J-0.123
G1 X-16.579 Y-157.138
X-16.547 Y-157.142
X-16.517 Y-157.134
X-16.492 Y-157.115
X-16.388 Y-156.995
Z5
X-42.577 Y-157.081
Z1.683
Z0
X-42.419
X-42.388 Y-157.075
X-42.361 Y-157.057
X-42.344 Y-157.031
X-42.338 Y-157
G3 X-42.662 Y-157 Z-0.061 I-0.162 J0
X-42.338 Y-157 Z-0.122 I0.162 J0
X-42.662 Y-157 Z-0.183 I-0.162 J0
X-42.338 Y-157 Z-0.244 I0.162 J0
X-42.662 Y-157 Z-0.306 I-0.162 J0
X-42.338 Y-157 Z-0.367 I0.162 J0
X-42.663 Y-157 Z-0.428 I-0.162 J0
X-42.337 Y-157 Z-0.489 I0.163 J0
X-42.663 Y-157 Z-0.55 I-0.163 J0
X-42.337 Y-157 Z-0.611 I0.163 J0
X-42.663 Y-157 Z-0.672 I-0.163 J0
X-42.337 Y-157 Z-0.733 I0.163 J0
X-42.663 Y-157 Z-0.794 I-0.163 J0
X-42.337 Y-157 Z-0.856 I0.163 J0
X-42.663 Y-157 Z-0.917 I-0.163 J0
X-42.337 Y-157 Z-0.978 I0.163 J0
X-42.663 Y-157 Z-1.039 I-0.163 J0
X-42.337 Y-157 Z-1.1 I0.163 J0
X-42.663 Y-157 Z-1.161 I-0.163 J0
X-42.337 Y-157 Z-1.222 I0.163 J0
X-42.663 Y-157 Z-1.283 I-0.163 J0
X-42.606 Y-157.123 Z-1.3 I0.163 J0
X-42.394 Y-156.877 I0.106 J0.123
X-42.606 Y-157.123 I-0.106 J-0.123
G1 X-42.579 Y-157.138
X-42.547 Y-157.142
X-42.517 Y-157.134
X-42.492 Y-157.115
X-42.388 Y-156.995
Z5
X-52.077 Y-108.081
Z1.683
Z0
X-51.919
X-51.888 Y-108.075
X-51.861 Y-108.057
X-51.844 Y-108.031
X-51.838 Y-108
G3 X-52.162 Y-108 Z-0.061 I-0.162 J0
X-51.838 Y-108 Z-0.122 I0.162 J0
X-52.162 Y-108 Z-0.183 I-0.162 J0
X-51.838 Y-108 Z-0.244 I0.162 J0
X-52.162 Y-108 Z-0.306 I-0.162 J0
X-51.838 Y-108 Z-0.367 I0.162 J0
X-52.162 Y-108 Z-0.428 I-0.162 J0
X-51.838 Y-108 Z-0.489 I0.162 J0
X-52.162 Y-108 Z-0.55 I-0.162 J0
X-51.838 Y-108 Z-0.611 I0.162 J0
X-52.162 Y-108 Z-0.672 I-0.162 J0
X-51.838 Y-108 Z-0.733 I0.162 J0
X-52.162 Y-108 Z-0.794 I-0.162 J0
X-51.838 Y-108 Z-0.856 I0.162 J0
X-52.162 Y-108 Z-0.917 I-0.162 J0
X-51.838 Y-108 Z-0.978 I0.162 J0
X-52.162 Y-108 Z-1.039 I-0.162 J0
X-51.838 Y-108 Z-1.1 I0.162 J0
X-52.162 Y-108 Z-1.161 I-0.162 J0
X-51.838 Y-108 Z-1.222 I0.162 J0
X-52.162 Y-108 Z-1.283 I-0.162 J0
X-52.106 Y-108.123 Z-1.3 I0.162 J0
X-51.894 Y-107.877 I0.106 J0.123
X-52.106 Y-108.123 I-0.106 J-0.123
G1 X-52.079 Y-108.138
X-52.047 Y-108.142
X-52.017 Y-108.134
X-51.992 Y-108.115
X-51.888 Y-107.995
Z5
X-7.077 Y-108.081
Z1.683
Z0
X-6.919
X-6.888 Y-108.075
X-6.861 Y-108.057
X-6.844 Y-108.031
X-6.838 Y-108
G3 X-7.162 Y-108 Z-0.061 I-0.162 J0
X-6.838 Y-108 Z-0.122 I0.162 J0
X-7.162 Y-108 Z-0.183 I-0.162 J0
X-6.838 Y-108 Z-0.244 I0.162 J0
X-7.162 Y-108 Z-0.306 I-0.162 J0
X-6.838 Y-108 Z-0.367 I0.162 J0
X-7.162 Y-108 Z-0.428 I-0.162 J0
X-6.838 Y-108 Z-0.489 I0.162 J0
X-7.162 Y-108 Z-0.55 I-0.162 J0
X-6.838 Y-108 Z-0.611 I0.162 J0
X-7.162 Y-108 Z-0.672 I-0.162 J0
X-6.838 Y-108 Z-0.733 I0.162 J0
X-7.162 Y-108 Z-0.794 I-0.162 J0
X-6.838 Y-108 Z-0.856 I0.162 J0
X-7.162 Y-108 Z-0.917 I-0.162 J0
X-6.838 Y-108 Z-0.978 I0.162 J0
X-7.162 Y-108 Z-1.039 I-0.162 J0
X-6.838 Y-108 Z-1.1 I0.162 J0
X-7.162 Y-108 Z-1.161 I-0.162 J0
X-6.838 Y-108 Z-1.222 I0.162 J0
X-7.162 Y-108 Z-1.283 I-0.162 J0
X-7.106 Y-108.123 Z-1.3 I0.162 J0
X-6.894 Y-107.877 I0.106 J0.123
X-7.106 Y-108.123 I-0.106 J-0.123
G1 X-7.079 Y-108.138
X-7.047 Y-108.142
X-7.017 Y-108.134
X-6.992 Y-108.115
X-6.888 Y-107.995
Z5
X-52.077 Y-56.081
Z1.683
Z0
X-51.919
X-51.888 Y-56.075
X-51.861 Y-56.057
X-51.844 Y-56.031
X-51.838 Y-56
G3 X-52.162 Y-56 Z-0.061 I-0.162 J0
X-51.838 Y-56 Z-0.122 I0.162 J0
X-52.162 Y-56 Z-0.183 I-0.162 J0
X-51.838 Y-56 Z-0.244 I0.162 J0
X-52.162 Y-56 Z-0.306 I-0.162 J0
X-51.838 Y-56 Z-0.367 I0.162 J0
X-52.162 Y-56 Z-0.428 I-0.162 J0
X-51.838 Y-56 Z-0.489 I0.162 J0
X-52.162 Y-56 Z-0.55 I-0.162 J0
X-51.838 Y-56 Z-0.611 I0.162 J0
X-52.162 Y-56 Z-0.672 I-0.162 J0
X-51.838 Y-56 Z-0.733 I0.162 J0
X-52.162 Y-56 Z-0.794 I-0.162 J0
X-51.838 Y-56 Z-0.856 I0.162 J0
X-52.162 Y-56 Z-0.917 I-0.162 J0
X-51.837 Y-56 Z-0.978 I0.162 J0
X-52.163 Y-56 Z-1.039 I-0.163 J0
X-51.837 Y-56 Z-1.1 I0.163 J0
X-52.163 Y-56 Z-1.161 I-0.163 J0
X-51.837 Y-56 Z-1.222 I0.163 J0
X-52.163 Y-56 Z-1.283 I-0.163 J0
X-52.106 Y-56.123 Z-1.3 I0.163 J0
X-51.894 Y-55.877 I0.106 J0.123
X-52.106 Y-56.123 I-0.106 J-0.123
G1 X-52.079 Y-56.138
X-52.047 Y-56.142
X-52.017 Y-56.134
X-51.992 Y-56.115
X-51.888 Y-55.995
Z5
X-7.077 Y-56.081
Z1.683
Z0
X-6.919
X-6.888 Y-56.075
X-6.861 Y-56.057
X-6.844 Y-56.031
X-6.838 Y-56
G3 X-7.162 Y-56 Z-0.061 I-0.162 J0
X-6.837 Y-56 Z-0.122 I0.162 J0
X-7.163 Y-56 Z-0.183 I-0.163 J0
X-6.837 Y-56 Z-0.244 I0.163 J0
X-7.163 Y-56 Z-0.306 I-0.163 J0
X-6.837 Y-56 Z-0.367 I0.163 J0
X-7.163 Y-56 Z-0.428 I-0.163 J0
X-6.837 Y-56 Z-0.489 I0.163 J0
X-7.163 Y-56 Z-0.55 I-0.163 J0
X-6.837 Y-56 Z-0.611 I0.163 J0
X-7.163 Y-56 Z-0.672 I-0.163 J0
X-6.837 Y-56 Z-0.733 I0.163 J0
X-7.163 Y-56 Z-0.794 I-0.163 J0
X-6.837 Y-56 Z-0.856 I0.163 J0
X-7.163 Y-56 Z-0.917 I-0.163 J0
X-6.837 Y-56 Z-0.978 I0.163 J0
X-7.163 Y-56 Z-1.039 I-0.163 J0
X-6.837 Y-56 Z-1.1 I0.163 J0
X-7.163 Y-56 Z-1.161 I-0.163 J0
X-6.837 Y-56 Z-1.222 I0.163 J0
X-7.163 Y-56 Z-1.283 I-0.163 J0
X-7.106 Y-56.123 Z-1.3 I0.163 J0
X-6.894 Y-55.877 I0.106 J0.123
X-7.106 Y-56.123 I-0.106 J-0.123
G1 X-7.079 Y-56.138
X-7.047 Y-56.142
X-7.017 Y-56.134
X-6.992 Y-56.115
X-6.888 Y-55.995
Z5
X-16.577 Y-7.081
Z1.683
Z0
X-16.419
X-16.388 Y-7.075
X-16.361 Y-7.057
X-16.344 Y-7.031
X-16.337 Y-7
G3 X-16.663 Y-7 Z-0.061 I-0.163 J0
X-16.337 Y-7 Z-0.122 I0.163 J0
X-16.663 Y-7 Z-0.183 I-0.163 J0
X-16.337 Y-7 Z-0.244 I0.163 J0
X-16.663 Y-7 Z-0.306 I-0.163 J0
X-16.337 Y-7 Z-0.367 I0.163 J0
X-16.663 Y-7 Z-0.428 I-0.163 J0
X-16.337 Y-7 Z-0.489 I0.163 J0
X-16.663 Y-7 Z-0.55 I-0.163 J0
X-16.337 Y-7 Z-0.611 I0.163 J0
X-16.663 Y-7 Z-0.672 I-0.163 J0
X-16.337 Y-7 Z-0.733 I0.163 J0
X-16.663 Y-7 Z-0.794 I-0.163 J0
X-16.337 Y-7 Z-0.856 I0.163 J0
X-16.663 Y-7 Z-0.917 I-0.163 J0
X-16.337 Y-7 Z-0.978 I0.163 J0
X-16.663 Y-7 Z-1.039 I-0.163 J0
X-16.337 Y-7 Z-1.1 I0.163 J0
X-16.663 Y-7 Z-1.161 I-0.163 J0
X-16.337 Y-7 Z-1.222 I0.163 J0
X-16.663 Y-7 Z-1.283 I-0.163 J0
X-16.606 Y-7.123 Z-1.3 I0.163 J0
X-16.394 Y-6.877 I0.106 J0.123
X-16.606 Y-7.123 I-0.106 J-0.123
G1 X-16.579 Y-7.138
X-16.547 Y-7.142
X-16.517 Y-7.134
X-16.492 Y-7.115
X-16.388 Y-6.995
Z5
X-42.577 Y-7.081
Z1.683
Z0
X-42.419
X-42.388 Y-7.075
X-42.361 Y-7.057
X-42.344 Y-7.031
X-42.338 Y-7
G3 X-42.662 Y-7 Z-0.061 I-0.162 J0
X-42.338 Y-7 Z-0.122 I0.162 J0
X-42.662 Y-7 Z-0.183 I-0.162 J0
X-42.338 Y-7 Z-0.244 I0.162 J0
X-42.662 Y-7 Z-0.306 I-0.162 J0
X-42.338 Y-7 Z-0.367 I0.162 J0
X-42.662 Y-7 Z-0.428 I-0.162 J0
X-42.338 Y-7 Z-0.489 I0.162 J0
X-42.662 Y-7 Z-0.55 I-0.162 J0
X-42.338 Y-7 Z-0.611 I0.162 J0
X-42.662 Y-7 Z-0.672 I-0.162 J0
X-42.338 Y-7 Z-0.733 I0.162 J0
X-42.662 Y-7 Z-0.794 I-0.162 J0
X-42.338 Y-7 Z-0.856 I0.162 J0
X-42.662 Y-7 Z-0.917 I-0.162 J0
X-42.338 Y-7 Z-0.978 I0.162 J0
X-42.662 Y-7 Z-1.039 I-0.162 J0
X-42.338 Y-7 Z-1.1 I0.162 J0
X-42.662 Y-7 Z-1.161 I-0.162 J0
X-42.338 Y-7 Z-1.222 I0.162 J0
X-42.662 Y-7 Z-1.283 I-0.162 J0
X-42.606 Y-7.123 Z-1.3 I0.162 J0
X-42.394 Y-6.877 I0.106 J0.123
X-42.606 Y-7.123 I-0.106 J-0.123
G1 X-42.579 Y-7.138
X-42.547 Y-7.142
X-42.517 Y-7.134
X-42.492 Y-7.115
X-42.388 Y-6.995
Z15
(When using Fusion 360 for Personal Use, the feedrate of)
(rapid moves is reduced to match the feedrate of cutting)
(moves, which can increase machining time. Unrestricted rapid)
(moves are available with a Fusion 360 Subscription.)

(2D-Kontur3)
G0 X-15.04 Y-66.891
G1 Z15 F1000
Z5
Z-0.983 F333.3
G18 G2 X-14.722 Z-1.3 I0.318 K0 F1000
G1 X-14.405
G17 G3 X-14.087 Y-66.574 I0 J0.317
G1 Y-63.164
X-25.913 Y-74.989
Y-78.984
X-14.087 Y-67.159
Y-66.574
G3 X-14.405 Y-66.256 I-0.318 J0
G1 X-14.722
G18 G3 X-15.04 Z-0.983 I0 K0.317
G1 Z5
X-24.399 Y-63.395
Z-0.983 F333.3
X-24.394 Y-63.401 Z-1.053 F1000
X-24.377 Y-63.418 Z-1.12
X-24.35 Y-63.444 Z-1.18
X-24.315 Y-63.48 Z-1.231
X-24.272 Y-63.523 Z-1.269
X-24.225 Y-63.57 Z-1.292
X-24.175 Y-63.62 Z-1.3
X-23.95 Y-63.844
G17 G3 X-23.501 Y-63.844 I0.225 J0.225
G1 X-14.087 Y-54.431
Y-50.436
X-25.913 Y-62.261
Y-66.256
X-23.501 Y-63.844
G3 X-23.501 Y-63.395 I-0.225 J0.225
G1 X-23.726 Y-63.171
X-23.776 Y-63.121 Z-1.292
X-23.823 Y-63.074 Z-1.269
X-23.866 Y-63.031 Z-1.231
X-23.901 Y-62.995 Z-1.18
X-23.928 Y-62.969 Z-1.12
X-23.945 Y-62.952 Z-1.053
X-23.95 Y-62.946 Z-0.983
Z5
X-34.04 Y-63.163
Z-0.983 F333.3
G18 G2 X-33.722 Z-1.3 I0.318 K0 F1000
G1 X-33.405
G17 G3 X-33.088 Y-62.846 I0 J0.318
G1 Y-62.261
X-44.912 Y-50.436
Y-54.431
X-33.088 Y-66.256
Y-62.846
G3 X-33.405 Y-62.528 I-0.317 J0
G1 X-33.722
G18 G3 X-34.04 Z-0.983 I0 K0.317
G1 Z5
Y-75.891
Z-0.983 F333.3
G2 X-33.722 Z-1.3 I0.318 K0 F1000
G1 X-33.405
G17 G3 X-33.088 Y-75.574 I0 J0.317
G1 Y-74.989
X-44.912 Y-63.164
Y-67.159
X-33.088 Y-78.984
Y-75.574
G3 X-33.405 Y-75.256 I-0.317 J0
G1 X-33.722
G18 G3 X-34.04 Z-0.983 I0 K0.317
G1 Z5
X-42.95 Y-79.201
Z-0.983 F333.3
X-42.945 Y-79.195 Z-1.053 F1000
X-42.928 Y-79.179 Z-1.12
X-42.901 Y-79.152 Z-1.18
X-42.866 Y-79.116 Z-1.231
X-42.823 Y-79.074 Z-1.269
X-42.776 Y-79.026 Z-1.292
X-42.726 Y-78.976 Z-1.3
X-42.501 Y-78.752
G17 G3 X-42.501 Y-78.303 I-0.225 J0.225
G1 X-44.912 Y-75.891
Y-79.887
X-33.088 Y-91.712
Y-87.716
X-42.501 Y-78.303
G3 X-42.95 Y-78.303 I-0.225 J-0.225
G1 X-43.175 Y-78.527
X-43.225 Y-78.577 Z-1.292
X-43.272 Y-78.625 Z-1.269
X-43.315 Y-78.667 Z-1.231
X-43.35 Y-78.703 Z-1.18
X-43.377 Y-78.73 Z-1.12
X-43.394 Y-78.746 Z-1.053
X-43.399 Y-78.752 Z-0.983
Z5
X-42.95 Y-91.929
Z-0.983 F333.3
X-42.945 Y-91.923 Z-1.053 F1000
X-42.928 Y-91.906 Z-1.12
X-42.901 Y-91.88 Z-1.18
X-42.866 Y-91.844 Z-1.231
X-42.823 Y-91.802 Z-1.269
X-42.776 Y-91.754 Z-1.292
X-42.726 Y-91.704 Z-1.3
X-42.501 Y-91.48
G3 X-42.501 Y-91.031 I-0.225 J0.225
G1 X-44.912 Y-88.619
Y-92.615
X-33.088 Y-104.439
Y-100.444
X-42.501 Y-91.031
G3 X-42.95 Y-91.031 I-0.225 J-0.225
G1 X-43.175 Y-91.255
X-43.225 Y-91.305 Z-1.292
X-43.272 Y-91.353 Z-1.269
X-43.315 Y-91.395 Z-1.231
X-43.35 Y-91.431 Z-1.18
X-43.377 Y-91.457 Z-1.12
X-43.394 Y-91.474 Z-1.053
X-43.399 Y-91.48 Z-0.983
Z5
X-42.95 Y-104.657
Z-0.983 F333.3
X-42.945 Y-104.651 Z-1.053 F1000
X-42.928 Y-104.634 Z-1.12
X-42.901 Y-104.608 Z-1.18
X-42.866 Y-104.572 Z-1.231
X-42.823 Y-104.53 Z-1.269
X-42.776 Y-104.482 Z-1.292
X-42.726 Y-104.432 Z-1.3
X-42.501 Y-104.208
G3 X-42.501 Y-103.759 I-0.225 J0.225
G1 X-44.912 Y-101.347
Y-105.342
X-33.088 Y-117.167
Y-113.173
X-42.501 Y-103.759
G3 X-42.95 Y-103.759 I-0.225 J-0.225
G1 X-43.175 Y-103.983
X-43.225 Y-104.033 Z-1.292
X-43.272 Y-104.081 Z-1.269
X-43.315 Y-104.123 Z-1.231
X-43.35 Y-104.159 Z-1.18
X-43.377 Y-104.185 Z-1.12
X-43.394 Y-104.202 Z-1.053
X-43.399 Y-104.208 Z-0.983
Z5
X-15.04 Y-92.347
Z-0.983 F333.3
G18 G2 X-14.722 Z-1.3 I0.318 K0 F1000
G1 X-14.405
G17 G3 X-14.087 Y-92.029 I0 J0.318
G1 Y-88.619
X-25.913 Y-100.444
Y-104.439
X-14.087 Y-92.615
Y-92.029
G3 X-14.405 Y-91.712 I-0.318 J0
G1 X-14.722
G18 G3 X-15.04 Z-0.983 I0 K0.317
G1 Z5
X-24.399 Y-88.851
Z-0.983 F333.3
X-24.394 Y-88.857 Z-1.053 F1000
X-24.377 Y-88.874 Z-1.12
X-24.35 Y-88.9 Z-1.18
X-24.315 Y-88.936 Z-1.231
X-24.272 Y-88.978 Z-1.269
X-24.225 Y-89.026 Z-1.292
X-24.175 Y-89.076 Z-1.3
X-23.95 Y-89.3
G17 G3 X-23.501 Y-89.3 I0.225 J0.225
G1 X-14.087 Y-79.887
Y-75.891
X-25.913 Y-87.716
Y-91.712
X-23.501 Y-89.3
G3 X-23.501 Y-88.851 I-0.225 J0.225
G1 X-23.726 Y-88.627
X-23.776 Y-88.577 Z-1.292
X-23.823 Y-88.529 Z-1.269
X-23.866 Y-88.487 Z-1.231
X-23.901 Y-88.451 Z-1.18
X-23.928 Y-88.425 Z-1.12
X-23.945 Y-88.408 Z-1.053
X-23.95 Y-88.402 Z-0.983
Z5
X-15.04 Y-105.075
Z-0.983 F333.3
G18 G2 X-14.722 Z-1.3 I0.318 K0 F1000
G1 X-14.405
G17 G3 X-14.087 Y-104.757 I0 J0.318
G1 Y-101.347
X-25.913 Y-113.173
Y-117.167
X-14.087 Y-105.342
Y-104.757
G3 X-14.405 Y-104.44 I-0.318 J0
G1 X-14.722
G18 G3 X-15.04 Z-0.983 I0 K0.317
G1 Z5
X-24.399 Y-50.668
Z-0.983 F333.3
X-24.394 Y-50.673 Z-1.053 F1000
X-24.377 Y-50.69 Z-1.12
X-24.35 Y-50.717 Z-1.18
X-24.315 Y-50.752 Z-1.231
X-24.272 Y-50.795 Z-1.269
X-24.225 Y-50.842 Z-1.292
X-24.175 Y-50.892 Z-1.3
X-23.95 Y-51.117
G17 G3 X-23.501 Y-51.117 I0.225 J0.225
G1 X-16.972 Y-44.588
X-20.967
X-25.913 Y-49.533
Y-53.528
X-23.501 Y-51.117
G3 X-23.501 Y-50.668 I-0.225 J0.225
G1 X-23.726 Y-50.443
X-23.776 Y-50.393 Z-1.292
X-23.823 Y-50.346 Z-1.269
X-23.866 Y-50.303 Z-1.231
X-23.901 Y-50.267 Z-1.18
X-23.928 Y-50.241 Z-1.12
X-23.945 Y-50.224 Z-1.053
X-23.95 Y-50.219 Z-0.983
Z5
X-34.04 Y-50.435
Z-0.983 F333.3
G18 G2 X-33.722 Z-1.3 I0.318 K0 F1000
G1 X-33.405
G17 G3 X-33.088 Y-50.118 I0 J0.317
G1 Y-49.533
X-38.033 Y-44.588
X-42.028
X-33.088 Y-53.528
Y-50.118
G3 X-33.405 Y-49.8 I-0.317 J0
G1 X-33.722
G18 G3 X-34.04 Z-0.983 I0 K0.317
G1 Z15
G17
(When using Fusion 360 for Personal Use, the feedrate of)
(rapid moves is reduced to match the feedrate of cutting)
(moves, which can increase machining time. Unrestricted rapid)
(moves are available with a Fusion 360 Subscription.)

(2D-Kontur4)
G0 X-20.04 Y-139.141
G1 Z15 F1000
Z5
Z1 F333.3
Z-0.983
G18 G2 X-19.722 Z-1.3 I0.318 K0 F1000
G1 X-19.405
G17 G3 X-19.087 Y-138.823 I0 J0.318
G1 Y-129
G3 X-20.5 Y-127.588 I-1.413 J0
G1 X-38.5
G3 X-39.912 Y-129 I0 J-1.412
G1 Y-143
G3 X-39.089 Y-144.284 I1.412 J0
G2 X-36.412 Y-148.454 I-1.911 J-4.17
G1 Y-159
G2 X-41 Y-163.587 I-4.588 J0
G1 X-44.5
G2 X-49.088 Y-159 I0 J4.587
G1 Y-146.376
Z-0.506
Y-138.202
Z-1.3 F333.3
Y-129.022 F1000
G3 X-56.084 Y-114.576 I-18.412 J0
G2 X-58.588 Y-109.407 I4.084 J5.169
G1 Y-54.593
G2 X-56.084 Y-49.424 I6.587 J0
G3 X-49.088 Y-34.978 I-11.416 J14.446
G1 Y-23.874
Z-0.506
Y-15.699
Z-1.3 F333.3
Y-5 F1000
G2 X-44.5 Y-0.412 I4.588 J0
G1 X-14.5
G2 X-9.913 Y-5 I0 J-4.588
G1 Y-17.468
Z-0.506
Y-25.643
Z-1.3 F333.3
Y-34.978 F1000
G3 X-2.916 Y-49.424 I18.412 J0
G2 X-0.412 Y-54.593 I-4.084 J-5.169
G1 Y-109.407
G2 X-2.916 Y-114.576 I-6.587 J0
G3 X-9.913 Y-129.022 I11.416 J-14.446
G1 Y-136.572
Z-0.506
Y-144.747
Z-1.3 F333.3
Y-159 F1000
G2 X-14.5 Y-163.587 I-4.587 J0
G1 X-18
G2 X-22.587 Y-159 I0 J4.587
G1 Y-148.454
G2 X-19.911 Y-144.284 I4.587 J0
G3 X-19.087 Y-143 I-0.588 J1.284
G1 Y-138.823
G3 X-19.405 Y-138.506 I-0.318 J0
G1 X-19.722
G18 G3 X-20.04 Z-0.983 I0 K0.317
G1 Z15
G17
M5
M30
