(Topplate_1mm)
(Bearbeiten)
(  Hersteller: ChinaCnc)
(  model: 3040T)
(  description: Generic 3-axis)
(T14  D=1.5 CR=0 - ZMIN=-1.2 - Schaftfraser)
G90 G94
G17
G21
(When using Fusion 360 for Personal Use, the feedrate of)
(rapid moves is reduced to match the feedrate of cutting)
(moves, which can increase machining time. Unrestricted rapid)
(moves are available with a Fusion 360 Subscription.)
G28 G91 Z0
G90

(Bohrfrasen9)
T14
S6000 M3
G54
G0 X-177.293 Y-159.496
Z15
G1 Z2 F600
Z0.15 F400
X-177.286 Z0.104
X-177.264 Z0.062
X-177.231 Z0.029
X-177.189 Z0.007
X-177.143 Z0
X-177.068
X-177.022 Y-159.488
X-176.98 Y-159.467
X-176.947 Y-159.434
X-176.925 Y-159.392
X-176.918 Y-159.346
G3 X-178.918 Y-159.346 Z-0.5 I-1 J0 F600
X-176.918 Y-159.346 Z-1 I1 J0
X-177.609 Y-158.395 Z-1.2 I-1 J0
X-178.227 Y-160.297 I-0.309 J-0.951
X-177.609 Y-158.395 I0.309 J0.951
G1 X-177.655 Y-158.387
X-177.702 Y-158.395
X-177.743 Y-158.416
X-177.777 Y-158.449
X-177.798 Y-158.491
X-177.821 Y-158.562
X-177.835 Y-158.606 Z-1.193
X-177.848 Y-158.646 Z-1.171
X-177.859 Y-158.678 Z-1.138
X-177.865 Y-158.698 Z-1.096
X-177.867 Y-158.705 Z-1.05
Z5
X-93.944 Y-164.15
Z2
Z0.15 F400
X-93.937 Z0.104
X-93.916 Z0.062
X-93.883 Z0.029
X-93.841 Z0.007
X-93.794 Z0
X-93.719
X-93.673 Y-164.143
X-93.631 Y-164.121
X-93.598 Y-164.088
X-93.577 Y-164.046
X-93.569 Y-164
G3 X-95.569 Y-164 Z-0.5 I-1 J0 F600
X-93.569 Y-164 Z-1 I1 J0
X-94.26 Y-163.049 Z-1.2 I-1 J0
X-94.878 Y-164.951 I-0.309 J-0.951
X-94.26 Y-163.049 I0.309 J0.951
G1 X-94.307 Y-163.042
X-94.353 Y-163.049
X-94.395 Y-163.07
X-94.428 Y-163.104
X-94.449 Y-163.145
X-94.473 Y-163.217
X-94.487 Y-163.261 Z-1.193
X-94.5 Y-163.301 Z-1.171
X-94.51 Y-163.332 Z-1.138
X-94.517 Y-163.352 Z-1.096
X-94.519 Y-163.359 Z-1.05
Z5
X-84.444 Y-137.683
Z2
Z0.15 F400
X-84.437 Z0.104
X-84.416 Z0.062
X-84.383 Z0.029
X-84.341 Z0.007
X-84.294 Z0
X-84.219
X-84.173 Y-137.676
X-84.131 Y-137.655
X-84.098 Y-137.621
X-84.077 Y-137.58
X-84.069 Y-137.533
G3 X-85.069 Y-137.533 Z-0.5 I-0.5 J0 F600
X-84.069 Y-137.533 Z-1 I0.5 J0
X-84.415 Y-137.058 Z-1.2 I-0.5 J0
X-84.724 Y-138.009 I-0.155 J-0.476
X-84.415 Y-137.058 I0.155 J0.476
G1 X-84.461 Y-137.05
X-84.508 Y-137.058
X-84.549 Y-137.079
X-84.583 Y-137.112
X-84.604 Y-137.154
X-84.627 Y-137.225
X-84.641 Y-137.269 Z-1.193
X-84.654 Y-137.309 Z-1.171
X-84.665 Y-137.341 Z-1.138
X-84.671 Y-137.361 Z-1.096
X-84.674 Y-137.368 Z-1.05
Z5
X-104.444 Y-137.683
Z2
Z0.15 F400
X-104.437 Z0.104
X-104.416 Z0.062
X-104.383 Z0.029
X-104.341 Z0.007
X-104.294 Z0
X-104.219
X-104.173 Y-137.676
X-104.131 Y-137.655
X-104.098 Y-137.621
X-104.077 Y-137.58
X-104.069 Y-137.533
G3 X-105.069 Y-137.533 Z-0.5 I-0.5 J0 F600
X-104.069 Y-137.533 Z-1 I0.5 J0
X-104.415 Y-137.058 Z-1.2 I-0.5 J0
X-104.724 Y-138.009 I-0.155 J-0.476
X-104.415 Y-137.058 I0.155 J0.476
G1 X-104.461 Y-137.05
X-104.508 Y-137.058
X-104.549 Y-137.079
X-104.583 Y-137.112
X-104.604 Y-137.154
X-104.627 Y-137.225
X-104.641 Y-137.269 Z-1.193
X-104.654 Y-137.309 Z-1.171
X-104.665 Y-137.341 Z-1.138
X-104.671 Y-137.361 Z-1.096
X-104.674 Y-137.368 Z-1.05
Z5
X-104.444 Y-117.683
Z2
Z0.15 F400
X-104.437 Z0.104
X-104.416 Z0.062
X-104.383 Z0.029
X-104.341 Z0.007
X-104.294 Z0
X-104.219
X-104.173 Y-117.676
X-104.131 Y-117.655
X-104.098 Y-117.621
X-104.077 Y-117.58
X-104.069 Y-117.533
G3 X-105.069 Y-117.533 Z-0.5 I-0.5 J0 F600
X-104.069 Y-117.533 Z-1 I0.5 J0
X-104.415 Y-117.058 Z-1.2 I-0.5 J0
X-104.724 Y-118.009 I-0.155 J-0.476
X-104.415 Y-117.058 I0.155 J0.476
G1 X-104.461 Y-117.05
X-104.508 Y-117.058
X-104.549 Y-117.079
X-104.583 Y-117.112
X-104.604 Y-117.154
X-104.627 Y-117.225
X-104.641 Y-117.269 Z-1.193
X-104.654 Y-117.309 Z-1.171
X-104.665 Y-117.341 Z-1.138
X-104.671 Y-117.361 Z-1.096
X-104.674 Y-117.368 Z-1.05
Z5
X-84.444 Y-117.683
Z2
Z0.15 F400
X-84.437 Z0.104
X-84.416 Z0.062
X-84.383 Z0.029
X-84.341 Z0.007
X-84.294 Z0
X-84.219
X-84.173 Y-117.676
X-84.131 Y-117.655
X-84.098 Y-117.621
X-84.077 Y-117.58
X-84.069 Y-117.533
G3 X-85.069 Y-117.533 Z-0.5 I-0.5 J0 F600
X-84.069 Y-117.533 Z-1 I0.5 J0
X-84.415 Y-117.058 Z-1.2 I-0.5 J0
X-84.724 Y-118.009 I-0.155 J-0.476
X-84.415 Y-117.058 I0.155 J0.476
G1 X-84.461 Y-117.05
X-84.508 Y-117.058
X-84.549 Y-117.079
X-84.583 Y-117.112
X-84.604 Y-117.154
X-84.627 Y-117.225
X-84.641 Y-117.269 Z-1.193
X-84.654 Y-117.309 Z-1.171
X-84.665 Y-117.341 Z-1.138
X-84.671 Y-117.361 Z-1.096
X-84.674 Y-117.368 Z-1.05
Z5
X-84.444 Y-97.683
Z2
Z0.15 F400
X-84.437 Z0.104
X-84.416 Z0.062
X-84.383 Z0.029
X-84.341 Z0.007
X-84.294 Z0
X-84.219
X-84.173 Y-97.676
X-84.131 Y-97.655
X-84.098 Y-97.621
X-84.077 Y-97.58
X-84.069 Y-97.533
G3 X-85.069 Y-97.533 Z-0.5 I-0.5 J0 F600
X-84.069 Y-97.533 Z-1 I0.5 J0
X-84.415 Y-97.058 Z-1.2 I-0.5 J0
X-84.724 Y-98.009 I-0.155 J-0.476
X-84.415 Y-97.058 I0.155 J0.476
G1 X-84.461 Y-97.05
X-84.508 Y-97.058
X-84.549 Y-97.079
X-84.583 Y-97.112
X-84.604 Y-97.154
X-84.627 Y-97.225
X-84.641 Y-97.269 Z-1.193
X-84.654 Y-97.309 Z-1.171
X-84.665 Y-97.341 Z-1.138
X-84.671 Y-97.361 Z-1.096
X-84.674 Y-97.368 Z-1.05
Z5
X-75.944 Y-87.683
Z2
Z0.15 F400
X-75.937 Z0.104
X-75.916 Z0.062
X-75.883 Z0.029
X-75.841 Z0.007
X-75.794 Z0
X-75.719
X-75.673 Y-87.676
X-75.631 Y-87.655
X-75.598 Y-87.621
X-75.577 Y-87.58
X-75.569 Y-87.533
G3 X-77.569 Y-87.533 Z-0.5 I-1 J0 F600
X-75.569 Y-87.533 Z-1 I1 J0
X-76.26 Y-86.582 Z-1.2 I-1 J0
X-76.878 Y-88.484 I-0.309 J-0.951
X-76.26 Y-86.582 I0.309 J0.951
G1 X-76.307 Y-86.575
X-76.353 Y-86.582
X-76.395 Y-86.603
X-76.428 Y-86.637
X-76.449 Y-86.678
X-76.473 Y-86.75
X-76.487 Y-86.794 Z-1.193
X-76.5 Y-86.834 Z-1.171
X-76.51 Y-86.865 Z-1.138
X-76.517 Y-86.885 Z-1.096
X-76.519 Y-86.892 Z-1.05
Z5
X-84.444 Y-77.683
Z2
Z0.15 F400
X-84.437 Z0.104
X-84.416 Z0.062
X-84.383 Z0.029
X-84.341 Z0.007
X-84.294 Z0
X-84.219
X-84.173 Y-77.676
X-84.131 Y-77.655
X-84.098 Y-77.621
X-84.077 Y-77.58
X-84.069 Y-77.533
G3 X-85.069 Y-77.533 Z-0.5 I-0.5 J0 F600
X-84.069 Y-77.533 Z-1 I0.5 J0
X-84.415 Y-77.058 Z-1.2 I-0.5 J0
X-84.724 Y-78.009 I-0.155 J-0.476
X-84.415 Y-77.058 I0.155 J0.476
G1 X-84.461 Y-77.05
X-84.508 Y-77.058
X-84.549 Y-77.079
X-84.583 Y-77.112
X-84.604 Y-77.154
X-84.627 Y-77.225
X-84.641 Y-77.269 Z-1.193
X-84.654 Y-77.309 Z-1.171
X-84.665 Y-77.341 Z-1.138
X-84.671 Y-77.361 Z-1.096
X-84.674 Y-77.368 Z-1.05
Z5
X-104.444 Y-77.683
Z2
Z0.15 F400
X-104.437 Z0.104
X-104.416 Z0.062
X-104.383 Z0.029
X-104.341 Z0.007
X-104.294 Z0
X-104.219
X-104.173 Y-77.676
X-104.131 Y-77.655
X-104.098 Y-77.621
X-104.077 Y-77.58
X-104.069 Y-77.533
G3 X-105.069 Y-77.533 Z-0.5 I-0.5 J0 F600
X-104.069 Y-77.533 Z-1 I0.5 J0
X-104.415 Y-77.058 Z-1.2 I-0.5 J0
X-104.724 Y-78.009 I-0.155 J-0.476
X-104.415 Y-77.058 I0.155 J0.476
G1 X-104.461 Y-77.05
X-104.508 Y-77.058
X-104.549 Y-77.079
X-104.583 Y-77.112
X-104.604 Y-77.154
X-104.627 Y-77.225
X-104.641 Y-77.269 Z-1.193
X-104.654 Y-77.309 Z-1.171
X-104.665 Y-77.341 Z-1.138
X-104.671 Y-77.361 Z-1.096
X-104.674 Y-77.368 Z-1.05
Z5
X-111.944 Y-87.683
Z2
Z0.15 F400
X-111.937 Z0.104
X-111.916 Z0.062
X-111.883 Z0.029
X-111.841 Z0.007
X-111.794 Z0
X-111.719
X-111.673 Y-87.676
X-111.631 Y-87.655
X-111.598 Y-87.621
X-111.577 Y-87.58
X-111.569 Y-87.533
G3 X-113.569 Y-87.533 Z-0.5 I-1 J0 F600
X-111.569 Y-87.533 Z-1 I1 J0
X-112.26 Y-86.582 Z-1.2 I-1 J0
X-112.878 Y-88.484 I-0.309 J-0.951
X-112.26 Y-86.582 I0.309 J0.951
G1 X-112.307 Y-86.575
X-112.353 Y-86.582
X-112.395 Y-86.603
X-112.428 Y-86.637
X-112.449 Y-86.678
X-112.473 Y-86.75
X-112.487 Y-86.794 Z-1.193
X-112.5 Y-86.834 Z-1.171
X-112.51 Y-86.865 Z-1.138
X-112.517 Y-86.885 Z-1.096
X-112.519 Y-86.892 Z-1.05
Z5
X-104.444 Y-97.683
Z2
Z0.15 F400
X-104.437 Z0.104
X-104.416 Z0.062
X-104.383 Z0.029
X-104.341 Z0.007
X-104.294 Z0
X-104.219
X-104.173 Y-97.676
X-104.131 Y-97.655
X-104.098 Y-97.621
X-104.077 Y-97.58
X-104.069 Y-97.533
G3 X-105.069 Y-97.533 Z-0.5 I-0.5 J0 F600
X-104.069 Y-97.533 Z-1 I0.5 J0
X-104.415 Y-97.058 Z-1.2 I-0.5 J0
X-104.724 Y-98.009 I-0.155 J-0.476
X-104.415 Y-97.058 I0.155 J0.476
G1 X-104.461 Y-97.05
X-104.508 Y-97.058
X-104.549 Y-97.079
X-104.583 Y-97.112
X-104.604 Y-97.154
X-104.627 Y-97.225
X-104.641 Y-97.269 Z-1.193
X-104.654 Y-97.309 Z-1.171
X-104.665 Y-97.341 Z-1.138
X-104.671 Y-97.361 Z-1.096
X-104.674 Y-97.368 Z-1.05
Z5
X-10.365 Y-159.429
Z2
Z0.15 F400
X-10.357 Z0.104
X-10.336 Z0.062
X-10.303 Z0.029
X-10.261 Z0.007
X-10.215 Z0
X-10.14
X-10.093 Y-159.422
X-10.051 Y-159.401
X-10.018 Y-159.367
X-9.997 Y-159.326
X-9.99 Y-159.279
G3 X-11.99 Y-159.279 Z-0.5 I-1 J0 F600
X-9.99 Y-159.279 Z-1 I1 J0
X-10.681 Y-158.328 Z-1.2 I-1 J0
X-11.299 Y-160.23 I-0.309 J-0.951
X-10.681 Y-158.328 I0.309 J0.951
G1 X-10.727 Y-158.321
X-10.773 Y-158.328
X-10.815 Y-158.349
X-10.848 Y-158.383
X-10.87 Y-158.424
X-10.893 Y-158.496
X-10.907 Y-158.54 Z-1.193
X-10.92 Y-158.58 Z-1.171
X-10.93 Y-158.611 Z-1.138
X-10.937 Y-158.631 Z-1.096
X-10.939 Y-158.638 Z-1.05
Z5
X-10.584 Y-15.994
Z2
Z0.15 F400
X-10.577 Z0.104
X-10.556 Z0.062
X-10.523 Z0.029
X-10.481 Z0.007
X-10.434 Z0
X-10.359
X-10.313 Y-15.986
X-10.271 Y-15.965
X-10.238 Y-15.932
X-10.217 Y-15.89
X-10.209 Y-15.844
G3 X-12.209 Y-15.844 Z-0.5 I-1 J0 F600
X-10.209 Y-15.844 Z-1 I1 J0
X-10.9 Y-14.892 Z-1.2 I-1 J0
X-11.518 Y-16.795 I-0.309 J-0.951
X-10.9 Y-14.892 I0.309 J0.951
G1 X-10.947 Y-14.885
X-10.993 Y-14.892
X-11.035 Y-14.914
X-11.068 Y-14.947
X-11.089 Y-14.989
X-11.113 Y-15.06
X-11.127 Y-15.104 Z-1.193
X-11.14 Y-15.144 Z-1.171
X-11.15 Y-15.176 Z-1.138
X-11.157 Y-15.196 Z-1.096
X-11.159 Y-15.203 Z-1.05
Z5
X-78.944 Y-11.15
Z2
Z0.15 F400
X-78.937 Z0.104
X-78.916 Z0.062
X-78.883 Z0.029
X-78.841 Z0.007
X-78.794 Z0
X-78.719
X-78.673 Y-11.143
X-78.631 Y-11.121
X-78.598 Y-11.088
X-78.577 Y-11.046
X-78.569 Y-11
G3 X-80.569 Y-11 Z-0.5 I-1 J0 F600
X-78.569 Y-11 Z-1 I1 J0
X-79.26 Y-10.049 Z-1.2 I-1 J0
X-79.878 Y-11.951 I-0.309 J-0.951
X-79.26 Y-10.049 I0.309 J0.951
G1 X-79.307 Y-10.042
X-79.353 Y-10.049
X-79.395 Y-10.07
X-79.428 Y-10.103
X-79.449 Y-10.145
X-79.473 Y-10.217
X-79.487 Y-10.261 Z-1.193
X-79.5 Y-10.3 Z-1.171
X-79.51 Y-10.332 Z-1.138
X-79.517 Y-10.352 Z-1.096
X-79.519 Y-10.359 Z-1.05
Z5
X-86.352 Y-29.15
Z2
Z0.15 F400
X-86.345 Z0.104
X-86.323 Z0.062
X-86.29 Z0.029
X-86.248 Z0.007
X-86.202 Z0
X-86.127
X-86.081 Y-29.143
X-86.039 Y-29.121
X-86.006 Y-29.088
X-85.984 Y-29.046
X-85.977 Y-29
G3 X-87.977 Y-29 Z-0.5 I-1 J0 F600
X-85.977 Y-29 Z-1 I1 J0
X-86.668 Y-28.049 Z-1.2 I-1 J0
X-87.286 Y-29.951 I-0.309 J-0.951
X-86.668 Y-28.049 I0.309 J0.951
G1 X-86.714 Y-28.042
X-86.761 Y-28.049
X-86.802 Y-28.07
X-86.836 Y-28.103
X-86.857 Y-28.145
X-86.88 Y-28.217
X-86.894 Y-28.261 Z-1.193
X-86.907 Y-28.3 Z-1.171
X-86.918 Y-28.332 Z-1.138
X-86.924 Y-28.352 Z-1.096
X-86.926 Y-28.359 Z-1.05
Z5
X-101.352 Y-29.15
Z2
Z0.15 F400
X-101.345 Z0.104
X-101.323 Z0.062
X-101.29 Z0.029
X-101.248 Z0.007
X-101.202 Z0
X-101.127
X-101.081 Y-29.143
X-101.039 Y-29.121
X-101.006 Y-29.088
X-100.984 Y-29.046
X-100.977 Y-29
G3 X-102.977 Y-29 Z-0.5 I-1 J0 F600
X-100.977 Y-29 Z-1 I1 J0
X-101.668 Y-28.049 Z-1.2 I-1 J0
X-102.286 Y-29.951 I-0.309 J-0.951
X-101.668 Y-28.049 I0.309 J0.951
G1 X-101.714 Y-28.042
X-101.761 Y-28.049
X-101.802 Y-28.07
X-101.836 Y-28.103
X-101.857 Y-28.145
X-101.88 Y-28.217
X-101.894 Y-28.261 Z-1.193
X-101.907 Y-28.3 Z-1.171
X-101.918 Y-28.332 Z-1.138
X-101.924 Y-28.352 Z-1.096
X-101.926 Y-28.359 Z-1.05
Z5
X-108.944 Y-11.15
Z2
Z0.15 F400
X-108.937 Z0.104
X-108.916 Z0.062
X-108.883 Z0.029
X-108.841 Z0.007
X-108.794 Z0
X-108.719
X-108.673 Y-11.143
X-108.631 Y-11.121
X-108.598 Y-11.088
X-108.577 Y-11.046
X-108.569 Y-11
G3 X-110.569 Y-11 Z-0.5 I-1 J0 F600
X-108.569 Y-11 Z-1 I1 J0
X-109.26 Y-10.049 Z-1.2 I-1 J0
X-109.878 Y-11.951 I-0.309 J-0.951
X-109.26 Y-10.049 I0.309 J0.951
G1 X-109.307 Y-10.042
X-109.353 Y-10.049
X-109.395 Y-10.07
X-109.428 Y-10.103
X-109.449 Y-10.145
X-109.473 Y-10.217
X-109.487 Y-10.261 Z-1.193
X-109.5 Y-10.3 Z-1.171
X-109.51 Y-10.332 Z-1.138
X-109.517 Y-10.352 Z-1.096
X-109.519 Y-10.359 Z-1.05
Z5
X-177.293 Y-15.871
Z2
Z0.15 F400
X-177.286 Z0.104
X-177.264 Z0.062
X-177.231 Z0.029
X-177.189 Z0.007
X-177.143 Z0
X-177.068
X-177.022 Y-15.863
X-176.98 Y-15.842
X-176.947 Y-15.809
X-176.925 Y-15.767
X-176.918 Y-15.721
G3 X-178.918 Y-15.721 Z-0.5 I-1 J0 F600
X-176.918 Y-15.721 Z-1 I1 J0
X-177.609 Y-14.77 Z-1.2 I-1 J0
X-178.227 Y-16.672 I-0.309 J-0.951
X-177.609 Y-14.77 I0.309 J0.951
G1 X-177.655 Y-14.762
X-177.702 Y-14.77
X-177.743 Y-14.791
X-177.777 Y-14.824
X-177.798 Y-14.866
X-177.821 Y-14.937
X-177.835 Y-14.981 Z-1.193
X-177.848 Y-15.021 Z-1.171
X-177.859 Y-15.053 Z-1.138
X-177.865 Y-15.073 Z-1.096
X-177.867 Y-15.08 Z-1.05
Z15
(When using Fusion 360 for Personal Use, the feedrate of)
(rapid moves is reduced to match the feedrate of cutting)
(moves, which can increase machining time. Unrestricted rapid)
(moves are available with a Fusion 360 Subscription.)

(2D-Kontur8)
G0 X-81.32 Y-93.306
G1 Z15 F600
Z5
Z1.3 F300
Z1
Y-95.783 Z0.913 F1016
X-80.82 Z0.896
Y-79.283 Z0.32
X-81.32 Z0.302
Y-95.783 Z-0.274
X-80.82 Z-0.291
Y-95.533 Z-0.3
Y-79.283 F600
X-81.32
Y-95.783
X-80.82
Y-95.533
Y-86.942 Z-0.6 F1016
Y-79.283 F600
X-81.32
Y-95.783
X-80.82
Y-86.942
Y-79.283 Z-0.867 F1016
X-81.32 Z-0.885
Y-79.715 Z-0.9
Y-95.783 F600
X-80.82
Y-86.942
Y-79.283
X-81.32
Y-79.715
Y-88.306 Z-1.2 F1016
Y-95.783 F600
X-80.82
Y-79.283
X-81.32
Y-88.306
Z5
X-66.02 Y-98.838
Z1.3 F300
Z1
G3 X-82.75 Y-130.46 Z-0.3 I21.52 J-31.622 F1016
X-6.25 Y-130.46 I38.25 J0 F600
X-82.75 Y-130.46 I-38.25 J0
X-81.789 Y-138.979 Z-0.6 I38.25 J0 F1016
X-7.211 Y-121.941 I37.289 J8.519 F600
X-81.789 Y-138.979 I-37.289 J-8.519
X-78.955 Y-147.07 Z-0.9 I37.289 J8.519 F1016
X-10.045 Y-113.85 I34.455 J16.61 F600
X-78.955 Y-147.07 I-34.455 J-16.61
X-74.391 Y-154.326 Z-1.2 I34.455 J16.61 F1016
X-14.609 Y-106.594 I29.891 J23.866 F600
X-74.391 Y-154.326 I-29.891 J-23.866
G1 Z5
X-165.974 Y-98.918
Z1.3 F300
Z1
G3 X-182.704 Y-130.54 Z-0.3 I21.52 J-31.622 F1016
X-106.204 Y-130.54 I38.25 J0 F600
X-182.704 Y-130.54 I-38.25 J0
X-181.743 Y-139.059 Z-0.6 I38.25 J0 F1016
X-107.165 Y-122.021 I37.289 J8.519 F600
X-181.743 Y-139.059 I-37.289 J-8.519
X-178.909 Y-147.15 Z-0.9 I37.289 J8.519 F1016
X-109.999 Y-113.93 I34.455 J16.61 F600
X-178.909 Y-147.15 I-34.455 J-16.61
X-174.345 Y-154.406 Z-1.2 I34.455 J16.61 F1016
X-114.563 Y-106.674 I29.891 J23.866 F600
X-174.345 Y-154.406 I-29.891 J-23.866
G1 Z5
X-165.974 Y-12.878
Z1.3 F300
Z1
G3 X-182.704 Y-44.5 Z-0.3 I21.52 J-31.622 F1016
X-106.204 Y-44.5 I38.25 J0 F600
X-182.704 Y-44.5 I-38.25 J0
X-181.743 Y-53.019 Z-0.6 I38.25 J0 F1016
X-107.165 Y-35.981 I37.289 J8.519 F600
X-181.743 Y-53.019 I-37.289 J-8.519
X-178.909 Y-61.11 Z-0.9 I37.289 J8.519 F1016
X-109.999 Y-27.89 I34.455 J16.61 F600
X-178.909 Y-61.11 I-34.455 J-16.61
X-174.345 Y-68.366 Z-1.2 I34.455 J16.61 F1016
X-114.563 Y-20.634 I29.891 J23.866 F600
X-174.345 Y-68.366 I-29.891 J-23.866
G1 Z5
X-107.819 Y-82.26
Z1.3 F300
Z1
Y-79.283 Z0.896 F1016
X-108.319 Z0.879
Y-95.783 Z0.302
X-107.819 Z0.285
Y-79.283 Z-0.291
X-108.069 Z-0.3
X-108.319 F600
Y-95.783
X-107.819
Y-79.283
X-108.069
X-108.319 Z-0.309 F1016
Y-87.624 Z-0.6
Y-95.783 F600
X-107.819
Y-79.283
X-108.319
Y-87.624
Y-95.783 Z-0.885 F1016
X-107.887 Z-0.9
X-107.819 F600
Y-79.283
X-108.319
Y-87.624
Y-95.783
X-107.887
X-107.819 Z-0.902 F1016
Y-87.261 Z-1.2
Y-79.283 F600
X-108.319
Y-95.783
X-107.887
X-107.819
Y-87.261
Z5
X-66.02 Y-12.878
Z1.3 F300
Z1
G3 X-82.75 Y-44.5 Z-0.3 I21.52 J-31.622 F1016
X-6.25 Y-44.5 I38.25 J0 F600
X-82.75 Y-44.5 I-38.25 J0
X-81.789 Y-53.019 Z-0.6 I38.25 J0 F1016
X-7.211 Y-35.981 I37.289 J8.519 F600
X-81.789 Y-53.019 I-37.289 J-8.519
X-78.955 Y-61.11 Z-0.9 I37.289 J8.519 F1016
X-10.045 Y-27.89 I34.455 J16.61 F600
X-78.955 Y-61.11 I-34.455 J-16.61
X-74.391 Y-68.366 Z-1.2 I34.455 J16.61 F1016
X-14.609 Y-20.634 I29.891 J23.866 F600
X-74.391 Y-68.366 I-29.891 J-23.866
G1 Z15
(When using Fusion 360 for Personal Use, the feedrate of)
(rapid moves is reduced to match the feedrate of cutting)
(moves, which can increase machining time. Unrestricted rapid)
(moves are available with a Fusion 360 Subscription.)

(2D-Kontur9)
G0 X-57.502 Y-174.72
G1 Z15 F600
Z5
Z1.3 F300
Z1
X-94.729 Y-174.75 Z-0.3 F1016
X-144.418 Y-174.79 F600
G2 X-169.948 Y-166.708 I-0.036 J44.25
G3 X-176.889 Y-165.16 I-5.33 J-7.56
G2 X-183.515 Y-157.463 I-1.029 J5.814
G3 X-184.012 Y-150.369 I-8.767 J2.949
G2 X-168.779 Y-93.576 I39.558 J19.829
G3 X-168.779 Y-81.464 I-3.986 J6.056
G2 X-184.007 Y-24.662 I24.325 J36.964
G3 X-183.502 Y-17.585 I-8.269 J4.146
G2 X-176.911 Y-9.92 I5.584 J1.864
G3 X-169.989 Y-8.361 I1.584 J9.114
G2 X-144.454 Y-0.25 I25.535 J-36.138
G1 X-105.977
G2 X-103.227 Y-3 I0 J-2.75
G1 Y-7
G3 X-101.977 Y-8.25 I1.25 J0
G1 X-86.977
G3 X-85.727 Y-7 I0 J1.25
G1 Y-3
G2 X-82.977 Y-0.25 I2.75 J0
G1 X-44.5
G2 X-18.67 Y-8.571 I0 J-44.25
G3 X-11.993 Y-10.222 I5.399 J7.511
G2 X-5.767 Y-17.455 I0.784 J-5.621
G3 X-5.128 Y-24.303 I8.869 J-2.626
G2 X-20.122 Y-81.43 I-39.372 J-20.197
G3 X-20.122 Y-93.531 I3.994 J-6.051
G2 X-4.898 Y-150.203 I-24.378 J-36.93
G3 X-5.366 Y-157.342 I8.278 J-4.127
G2 X-12.063 Y-165.13 I-5.624 J-1.937
G3 X-19.052 Y-166.661 I-1.669 J-9.098
G2 X-44.465 Y-174.71 I-25.448 J36.201
G1 X-94.729 Y-174.75
X-116.141 Y-174.767 Z-0.6 F1016
X-144.418 Y-174.79 F600
G2 X-169.948 Y-166.708 I-0.036 J44.25
G3 X-176.889 Y-165.16 I-5.33 J-7.56
G2 X-183.515 Y-157.463 I-1.029 J5.814
G3 X-184.012 Y-150.369 I-8.767 J2.949
G2 X-168.779 Y-93.576 I39.558 J19.829
G3 X-168.779 Y-81.464 I-3.986 J6.056
G2 X-184.007 Y-24.662 I24.325 J36.964
G3 X-183.502 Y-17.585 I-8.269 J4.146
G2 X-176.911 Y-9.92 I5.584 J1.864
G3 X-169.989 Y-8.361 I1.584 J9.114
G2 X-144.454 Y-0.25 I25.535 J-36.138
G1 X-105.977
G2 X-103.227 Y-3 I0 J-2.75
G1 Y-7
G3 X-101.977 Y-8.25 I1.25 J0
G1 X-86.977
G3 X-85.727 Y-7 I0 J1.25
G1 Y-3
G2 X-82.977 Y-0.25 I2.75 J0
G1 X-44.5
G2 X-18.67 Y-8.571 I0 J-44.25
G3 X-11.993 Y-10.222 I5.399 J7.511
G2 X-5.767 Y-17.455 I0.784 J-5.621
G3 X-5.128 Y-24.303 I8.869 J-2.626
G2 X-20.122 Y-81.43 I-39.372 J-20.197
G3 X-20.122 Y-93.531 I3.994 J-6.051
G2 X-4.898 Y-150.203 I-24.378 J-36.93
G3 X-5.366 Y-157.342 I8.278 J-4.127
G2 X-12.063 Y-165.13 I-5.624 J-1.937
G3 X-19.052 Y-166.661 I-1.669 J-9.098
G2 X-44.465 Y-174.71 I-25.448 J36.201
G1 X-94.729 Y-174.75
X-116.141 Y-174.767
X-137.552 Y-174.785 Z-0.9 F1016
X-144.418 Y-174.79 F600
G2 X-169.948 Y-166.708 I-0.036 J44.25
G3 X-176.889 Y-165.16 I-5.33 J-7.56
G2 X-183.515 Y-157.463 I-1.029 J5.814
G3 X-184.012 Y-150.369 I-8.767 J2.949
G2 X-168.779 Y-93.576 I39.558 J19.829
G3 X-168.779 Y-81.464 I-3.986 J6.056
G2 X-184.007 Y-24.662 I24.325 J36.964
G3 X-183.502 Y-17.585 I-8.269 J4.146
G2 X-176.911 Y-9.92 I5.584 J1.864
G3 X-169.989 Y-8.361 I1.584 J9.114
G2 X-144.454 Y-0.25 I25.535 J-36.138
G1 X-105.977
G2 X-103.227 Y-3 I0 J-2.75
G1 Y-7
G3 X-101.977 Y-8.25 I1.25 J0
G1 X-86.977
G3 X-85.727 Y-7 I0 J1.25
G1 Y-3
G2 X-82.977 Y-0.25 I2.75 J0
G1 X-44.5
G2 X-18.67 Y-8.571 I0 J-44.25
G3 X-11.993 Y-10.222 I5.399 J7.511
G2 X-5.767 Y-17.455 I0.784 J-5.621
G3 X-5.128 Y-24.303 I8.869 J-2.626
G2 X-20.122 Y-81.43 I-39.372 J-20.197
G3 X-20.122 Y-93.531 I3.994 J-6.051
G2 X-4.898 Y-150.203 I-24.378 J-36.93
G3 X-5.366 Y-157.342 I8.278 J-4.127
G2 X-12.063 Y-165.13 I-5.624 J-1.937
G3 X-19.052 Y-166.661 I-1.669 J-9.098
G2 X-44.465 Y-174.71 I-25.448 J36.201
G1 X-116.141 Y-174.767
X-137.552 Y-174.785
X-144.418 Y-174.79 Z-0.996 F1016
G2 X-158.706 Y-172.432 Z-1.2 I-0.036 J44.25
X-169.948 Y-166.708 I14.251 J41.892 F600
G3 X-176.889 Y-165.16 I-5.33 J-7.56
G2 X-183.515 Y-157.463 I-1.029 J5.814
G3 X-184.012 Y-150.369 I-8.767 J2.949
G2 X-168.779 Y-93.576 I39.558 J19.829
G3 X-168.779 Y-81.464 I-3.986 J6.056
G2 X-184.007 Y-24.662 I24.325 J36.964
G3 X-183.502 Y-17.585 I-8.269 J4.146
G2 X-176.911 Y-9.92 I5.584 J1.864
G3 X-169.989 Y-8.361 I1.584 J9.114
G2 X-144.454 Y-0.25 I25.535 J-36.138
G1 X-105.977
G2 X-103.227 Y-3 I0 J-2.75
G1 Y-7
G3 X-101.977 Y-8.25 I1.25 J0
G1 X-86.977
G3 X-85.727 Y-7 I0 J1.25
G1 Y-3
G2 X-82.977 Y-0.25 I2.75 J0
G1 X-44.5
G2 X-18.67 Y-8.571 I0 J-44.25
G3 X-11.993 Y-10.222 I5.399 J7.511
G2 X-5.767 Y-17.455 I0.784 J-5.621
G3 X-5.128 Y-24.303 I8.869 J-2.626
G2 X-20.122 Y-81.43 I-39.372 J-20.197
G3 X-20.122 Y-93.531 I3.994 J-6.051
G2 X-4.898 Y-150.203 I-24.378 J-36.93
G3 X-5.366 Y-157.342 I8.278 J-4.127
G2 X-12.063 Y-165.13 I-5.624 J-1.937
G3 X-19.052 Y-166.661 I-1.669 J-9.098
G2 X-44.465 Y-174.71 I-25.448 J36.201
G1 X-137.552 Y-174.785
X-144.418 Y-174.79
G2 X-158.706 Y-172.432 I-0.036 J44.25
G1 Z15
G28 G91 Z0
G90
G28 G91 X0 Y0
G90
M5
M30
