(1001)
(Bearbeiten)
(  Hersteller: ChinaCnc)
(  model: 3040T)
(  description: Generic 3-axis)
(T14  D=3.175 CR=0 - ZMIN=-4.2 - Schaftfraser)
G90 G94
G17
G21
G28 G91 Z0
G90

(Bohrfrasen6)
T14
S6000 M3
G54
G0 X-10.078 Y-8.081
Z15
Z1.683
G1 Z0 F1016
X-9.919
X-9.888 Y-8.075
X-9.861 Y-8.057
X-9.844 Y-8.031
X-9.837 Y-8
G3 X-10.163 Y-8 Z-0.5 I-0.163 J0 F1500
X-9.837 Y-8 Z-1 I0.163 J0
X-10.163 Y-8 Z-1.5 I-0.163 J0
X-9.837 Y-8 Z-2 I0.163 J0
X-10.163 Y-8 Z-2.5 I-0.163 J0
X-9.837 Y-8 Z-3 I0.163 J0
X-10.163 Y-8 Z-3.5 I-0.163 J0
X-9.837 Y-8 Z-4 I0.163 J0
X-9.95 Y-7.845 Z-4.2 I-0.163 J0
X-10.05 Y-8.155 I-0.05 J-0.155
X-9.95 Y-7.845 I0.05 J0.155
G1 X-9.981 Y-7.842 F1016
X-10.012 Y-7.85
X-10.037 Y-7.87
X-10.052 Y-7.898
X-10.101 Y-8.049
G0 Z5
X-48.077 Y-8.081
Z1.683
G1 Z0 F1016
X-47.919
X-47.888 Y-8.075
X-47.861 Y-8.057
X-47.844 Y-8.031
X-47.838 Y-8
G3 X-48.162 Y-8 Z-0.5 I-0.162 J0 F1500
X-47.838 Y-8 Z-1 I0.162 J0
X-48.162 Y-8 Z-1.5 I-0.162 J0
X-47.838 Y-8 Z-2 I0.162 J0
X-48.162 Y-8 Z-2.5 I-0.162 J0
X-47.838 Y-8 Z-3 I0.162 J0
X-48.163 Y-8 Z-3.5 I-0.162 J0
X-47.837 Y-8 Z-4 I0.163 J0
X-47.95 Y-7.845 Z-4.2 I-0.163 J0
X-48.05 Y-8.155 I-0.05 J-0.155
X-47.95 Y-7.845 I0.05 J0.155
G1 X-47.981 Y-7.842 F1016
X-48.012 Y-7.85
X-48.037 Y-7.87
X-48.052 Y-7.898
X-48.101 Y-8.049
G0 Z5
X-86.077 Y-8.081
Z1.683
G1 Z0 F1016
X-85.919
X-85.888 Y-8.075
X-85.861 Y-8.057
X-85.844 Y-8.031
X-85.838 Y-8
G3 X-86.162 Y-8 Z-0.5 I-0.162 J0 F1500
X-85.838 Y-8 Z-1 I0.162 J0
X-86.162 Y-8 Z-1.5 I-0.162 J0
X-85.838 Y-8 Z-2 I0.162 J0
X-86.162 Y-8 Z-2.5 I-0.162 J0
X-85.838 Y-8 Z-3 I0.162 J0
X-86.163 Y-8 Z-3.5 I-0.162 J0
X-85.837 Y-8 Z-4 I0.163 J0
X-85.95 Y-7.845 Z-4.2 I-0.163 J0
X-86.05 Y-8.155 I-0.05 J-0.155
X-85.95 Y-7.845 I0.05 J0.155
G1 X-85.981 Y-7.842 F1016
X-86.012 Y-7.85
X-86.037 Y-7.87
X-86.052 Y-7.898
X-86.101 Y-8.049
G0 Z5
X-124.077 Y-8.081
Z1.683
G1 Z0 F1016
X-123.919
X-123.888 Y-8.075
X-123.861 Y-8.057
X-123.844 Y-8.031
X-123.838 Y-8
G3 X-124.162 Y-8 Z-0.5 I-0.162 J0 F1500
X-123.838 Y-8 Z-1 I0.162 J0
X-124.162 Y-8 Z-1.5 I-0.162 J0
X-123.838 Y-8 Z-2 I0.162 J0
X-124.162 Y-8 Z-2.5 I-0.162 J0
X-123.838 Y-8 Z-3 I0.162 J0
X-124.163 Y-8 Z-3.5 I-0.162 J0
X-123.837 Y-8 Z-4 I0.163 J0
X-123.95 Y-7.845 Z-4.2 I-0.163 J0
X-124.05 Y-8.155 I-0.05 J-0.155
X-123.95 Y-7.845 I0.05 J0.155
G1 X-123.981 Y-7.842 F1016
X-124.012 Y-7.85
X-124.037 Y-7.87
X-124.052 Y-7.898
X-124.101 Y-8.049
G0 Z5
X-162.077 Y-8.081
Z1.683
G1 Z0 F1016
X-161.919
X-161.888 Y-8.075
X-161.861 Y-8.057
X-161.844 Y-8.031
X-161.837 Y-8
G3 X-162.163 Y-8 Z-0.5 I-0.163 J0 F1500
X-161.837 Y-8 Z-1 I0.163 J0
X-162.163 Y-8 Z-1.5 I-0.163 J0
X-161.837 Y-8 Z-2 I0.163 J0
X-162.163 Y-8 Z-2.5 I-0.163 J0
X-161.837 Y-8 Z-3 I0.163 J0
X-162.163 Y-8 Z-3.5 I-0.163 J0
X-161.837 Y-8 Z-4 I0.163 J0
X-161.95 Y-7.845 Z-4.2 I-0.163 J0
X-162.05 Y-8.155 I-0.05 J-0.155
X-161.95 Y-7.845 I0.05 J0.155
G1 X-161.981 Y-7.842 F1016
X-162.012 Y-7.85
X-162.037 Y-7.87
X-162.052 Y-7.898
X-162.101 Y-8.049
G0 Z5
X-200.077 Y-8.081
Z1.683
G1 Z0 F1016
X-199.919
X-199.888 Y-8.075
X-199.861 Y-8.057
X-199.844 Y-8.031
X-199.837 Y-8
G3 X-200.163 Y-8 Z-0.5 I-0.163 J0 F1500
X-199.837 Y-8 Z-1 I0.163 J0
X-200.163 Y-8 Z-1.5 I-0.163 J0
X-199.837 Y-8 Z-2 I0.163 J0
X-200.163 Y-8 Z-2.5 I-0.163 J0
X-199.837 Y-8 Z-3 I0.163 J0
X-200.163 Y-8 Z-3.5 I-0.163 J0
X-199.837 Y-8 Z-4 I0.163 J0
X-199.95 Y-7.845 Z-4.2 I-0.163 J0
X-200.05 Y-8.155 I-0.05 J-0.155
X-199.95 Y-7.845 I0.05 J0.155
G1 X-199.981 Y-7.842 F1016
X-200.012 Y-7.85
X-200.037 Y-7.87
X-200.052 Y-7.898
X-200.101 Y-8.049
G0 Z5
X-238.077 Y-8.081
Z1.683
G1 Z0 F1016
X-237.919
X-237.888 Y-8.075
X-237.861 Y-8.057
X-237.844 Y-8.031
X-237.837 Y-8
G3 X-238.163 Y-8 Z-0.5 I-0.163 J0 F1500
X-237.837 Y-8 Z-1 I0.163 J0
X-238.163 Y-8 Z-1.5 I-0.163 J0
X-237.837 Y-8 Z-2 I0.163 J0
X-238.163 Y-8 Z-2.5 I-0.163 J0
X-237.837 Y-8 Z-3 I0.163 J0
X-238.163 Y-8 Z-3.5 I-0.163 J0
X-237.837 Y-8 Z-4 I0.163 J0
X-237.95 Y-7.845 Z-4.2 I-0.163 J0
X-238.05 Y-8.155 I-0.05 J-0.155
X-237.95 Y-7.845 I0.05 J0.155
G1 X-237.981 Y-7.842 F1016
X-238.012 Y-7.85
X-238.037 Y-7.87
X-238.052 Y-7.898
X-238.101 Y-8.049
G0 Z5
X-276.078 Y-8.081
Z1.683
G1 Z0 F1016
X-275.919
X-275.888 Y-8.075
X-275.861 Y-8.057
X-275.844 Y-8.031
X-275.837 Y-8
G3 X-276.162 Y-8 Z-0.5 I-0.163 J0 F1500
X-276.05 Y-8.155 Z-0.7 I0.162 J0
X-275.95 Y-7.845 Z-1.2 I0.05 J0.155
X-276.05 Y-8.155 Z-1.7 I-0.05 J-0.155
X-275.95 Y-7.845 Z-2.2 I0.05 J0.155
X-276.05 Y-8.155 Z-2.7 I-0.05 J-0.155
X-275.95 Y-8.155 Z-2.8 I0.05 J0.155
X-276.05 Y-7.845 Z-3.3 I-0.05 J0.155
X-275.95 Y-8.155 Z-3.8 I0.05 J-0.155
X-275.95 Y-7.845 Z-4.2 I-0.05 J0.155
X-276.05 Y-8.155 I-0.05 J-0.155
X-275.95 Y-7.845 I0.05 J0.155
G1 X-275.981 Y-7.842 F1016
X-276.012 Y-7.85
X-276.037 Y-7.87
X-276.052 Y-7.898
X-276.101 Y-8.049
G0 Z5
X-276.078 Y-78.081
Z1.683
G1 Z0 F1016
X-275.919
X-275.888 Y-78.075
X-275.861 Y-78.057
X-275.844 Y-78.031
X-275.837 Y-78
G3 X-276.163 Y-78 Z-0.5 I-0.163 J0 F1500
X-276.05 Y-78.155 Z-0.7 I0.163 J0
X-275.95 Y-77.845 Z-1.2 I0.05 J0.155
X-276.05 Y-78.155 Z-1.7 I-0.05 J-0.155
X-275.95 Y-77.845 Z-2.2 I0.05 J0.155
X-276.05 Y-78.155 Z-2.7 I-0.05 J-0.155
X-275.95 Y-78.155 Z-2.8 I0.05 J0.155
X-276.05 Y-77.845 Z-3.3 I-0.05 J0.155
X-275.95 Y-78.155 Z-3.8 I0.05 J-0.155
X-275.95 Y-77.845 Z-4.2 I-0.05 J0.155
X-276.05 Y-78.155 I-0.05 J-0.155
X-275.95 Y-77.845 I0.05 J0.155
G1 X-275.981 Y-77.842 F1016
X-276.012 Y-77.85
X-276.037 Y-77.87
X-276.052 Y-77.898
X-276.101 Y-78.049
G0 Z5
X-238.077 Y-78.081
Z1.683
G1 Z0 F1016
X-237.919
X-237.888 Y-78.075
X-237.861 Y-78.057
X-237.844 Y-78.031
X-237.837 Y-78
G3 X-238.163 Y-78 Z-0.5 I-0.163 J0 F1500
X-237.837 Y-78 Z-1 I0.163 J0
X-238.131 Y-77.904 Z-1.4 I-0.163 J0
X-237.869 Y-78.096 Z-1.9 I0.131 J-0.096
X-237.869 Y-77.904 Z-2.1 I-0.131 J0.096
X-238.131 Y-78.096 Z-2.6 I-0.131 J-0.096
X-237.869 Y-77.904 Z-3.1 I0.131 J0.096
X-238.131 Y-78.096 Z-3.6 I-0.131 J-0.096
X-237.869 Y-77.904 Z-4.1 I0.131 J0.096
X-237.95 Y-77.845 Z-4.2 I-0.131 J-0.096
X-238.05 Y-78.155 I-0.05 J-0.155
X-237.95 Y-77.845 I0.05 J0.155
G1 X-237.981 Y-77.842 F1016
X-238.012 Y-77.85
X-238.037 Y-77.87
X-238.052 Y-77.898
X-238.101 Y-78.049
G0 Z5
X-200.077 Y-78.081
Z1.683
G1 Z0 F1016
X-199.919
X-199.888 Y-78.075
X-199.861 Y-78.057
X-199.844 Y-78.031
X-199.837 Y-78
G3 X-200.163 Y-78 Z-0.5 I-0.163 J0 F1500
X-199.837 Y-78 Z-1 I0.163 J0
X-200.131 Y-77.904 Z-1.4 I-0.163 J0
X-199.869 Y-78.096 Z-1.9 I0.131 J-0.096
X-199.869 Y-77.904 Z-2.1 I-0.131 J0.096
X-200.131 Y-78.096 Z-2.6 I-0.131 J-0.096
X-199.869 Y-77.904 Z-3.1 I0.131 J0.096
X-200.131 Y-78.096 Z-3.6 I-0.131 J-0.096
X-199.869 Y-77.904 Z-4.1 I0.131 J0.096
X-199.95 Y-77.845 Z-4.2 I-0.131 J-0.096
X-200.05 Y-78.155 I-0.05 J-0.155
X-199.95 Y-77.845 I0.05 J0.155
G1 X-199.981 Y-77.842 F1016
X-200.012 Y-77.85
X-200.037 Y-77.87
X-200.052 Y-77.898
X-200.101 Y-78.049
G0 Z5
X-162.077 Y-78.081
Z1.683
G1 Z0 F1016
X-161.919
X-161.888 Y-78.075
X-161.861 Y-78.057
X-161.844 Y-78.031
X-161.837 Y-78
G3 X-162.163 Y-78 Z-0.5 I-0.163 J0 F1500
X-161.837 Y-78 Z-1 I0.163 J0
X-162.131 Y-77.904 Z-1.4 I-0.163 J0
X-161.869 Y-78.096 Z-1.9 I0.131 J-0.096
X-161.869 Y-77.904 Z-2.1 I-0.131 J0.096
X-162.131 Y-78.096 Z-2.6 I-0.131 J-0.096
X-161.869 Y-77.904 Z-3.1 I0.131 J0.096
X-162.131 Y-78.096 Z-3.6 I-0.131 J-0.096
X-161.869 Y-77.904 Z-4.1 I0.131 J0.096
X-161.95 Y-77.845 Z-4.2 I-0.131 J-0.096
X-162.05 Y-78.155 I-0.05 J-0.155
X-161.95 Y-77.845 I0.05 J0.155
G1 X-161.981 Y-77.842 F1016
X-162.012 Y-77.85
X-162.037 Y-77.87
X-162.052 Y-77.898
X-162.101 Y-78.049
G0 Z5
X-124.077 Y-78.081
Z1.683
G1 Z0 F1016
X-123.919
X-123.888 Y-78.075
X-123.861 Y-78.057
X-123.844 Y-78.031
X-123.838 Y-78
G3 X-124.162 Y-78 Z-0.5 I-0.162 J0 F1500
X-123.838 Y-78 Z-1 I0.162 J0
X-124.162 Y-78 Z-1.5 I-0.162 J0
X-123.837 Y-78 Z-2 I0.162 J0
X-124.163 Y-78 Z-2.5 I-0.163 J0
X-123.837 Y-78 Z-3 I0.163 J0
X-124.163 Y-78 Z-3.5 I-0.163 J0
X-123.837 Y-78 Z-4 I0.163 J0
X-123.95 Y-77.845 Z-4.2 I-0.163 J0
X-124.05 Y-78.155 I-0.05 J-0.155
X-123.95 Y-77.845 I0.05 J0.155
G1 X-123.981 Y-77.842 F1016
X-124.012 Y-77.85
X-124.037 Y-77.87
X-124.052 Y-77.898
X-124.101 Y-78.049
G0 Z5
X-86.077 Y-78.081
Z1.683
G1 Z0 F1016
X-85.919
X-85.888 Y-78.075
X-85.861 Y-78.057
X-85.844 Y-78.031
X-85.838 Y-78
G3 X-86.162 Y-78 Z-0.5 I-0.162 J0 F1500
X-85.838 Y-78 Z-1 I0.162 J0
X-86.162 Y-78 Z-1.5 I-0.162 J0
X-85.837 Y-78 Z-2 I0.162 J0
X-86.163 Y-78 Z-2.5 I-0.163 J0
X-85.837 Y-78 Z-3 I0.163 J0
X-86.163 Y-78 Z-3.5 I-0.163 J0
X-85.837 Y-78 Z-4 I0.163 J0
X-85.95 Y-77.845 Z-4.2 I-0.163 J0
X-86.05 Y-78.155 I-0.05 J-0.155
X-85.95 Y-77.845 I0.05 J0.155
G1 X-85.981 Y-77.842 F1016
X-86.012 Y-77.85
X-86.037 Y-77.87
X-86.052 Y-77.898
X-86.101 Y-78.049
G0 Z5
X-48.077 Y-78.081
Z1.683
G1 Z0 F1016
X-47.919
X-47.888 Y-78.075
X-47.861 Y-78.057
X-47.844 Y-78.031
X-47.838 Y-78
G3 X-48.162 Y-78 Z-0.5 I-0.162 J0 F1500
X-47.838 Y-78 Z-1 I0.162 J0
X-48.162 Y-78 Z-1.5 I-0.162 J0
X-47.837 Y-78 Z-2 I0.162 J0
X-48.163 Y-78 Z-2.5 I-0.163 J0
X-47.837 Y-78 Z-3 I0.163 J0
X-48.163 Y-78 Z-3.5 I-0.163 J0
X-47.837 Y-78 Z-4 I0.163 J0
X-47.95 Y-77.845 Z-4.2 I-0.163 J0
X-48.05 Y-78.155 I-0.05 J-0.155
X-47.95 Y-77.845 I0.05 J0.155
G1 X-47.981 Y-77.842 F1016
X-48.012 Y-77.85
X-48.037 Y-77.87
X-48.052 Y-77.898
X-48.101 Y-78.049
G0 Z5
X-10.078 Y-78.081
Z1.683
G1 Z0 F1016
X-9.919
X-9.888 Y-78.075
X-9.861 Y-78.057
X-9.844 Y-78.031
X-9.837 Y-78
G3 X-10.163 Y-78 Z-0.5 I-0.163 J0 F1500
X-9.837 Y-78 Z-1 I0.163 J0
X-10.163 Y-78 Z-1.5 I-0.163 J0
X-9.837 Y-78 Z-2 I0.163 J0
X-10.163 Y-78 Z-2.5 I-0.163 J0
X-9.837 Y-78 Z-3 I0.163 J0
X-10.163 Y-78 Z-3.5 I-0.163 J0
X-9.837 Y-78 Z-4 I0.163 J0
X-9.95 Y-77.845 Z-4.2 I-0.163 J0
X-10.05 Y-78.155 I-0.05 J-0.155
X-9.95 Y-77.845 I0.05 J0.155
G1 X-9.981 Y-77.842 F1016
X-10.012 Y-77.85
X-10.037 Y-77.87
X-10.052 Y-77.898
X-10.101 Y-78.049
G0 Z15

(2D-Kontur19)
X-138.587 Y-16.972
Z15
Z5
G1 Z2.5 F300
S8000
Y-14.587 Z2.417 F1016
X-150.413 Z2.004
Y-71.412 Z0.019
X-138.587 Z-0.394
Y-65.5 Z-0.6
S6000
Y-14.587 F1500
X-150.413
Y-71.412
X-138.587
Y-65.5
S8000
Y-48.318 Z-1.2 F1016
S6000
Y-14.587 F1500
X-150.413
Y-71.412
X-138.587
Y-48.318
S8000
Y-31.136 Z-1.8 F1016
S6000
Y-14.587 F1500
X-150.413
Y-71.412
X-138.587
Y-48.318
Y-31.136
S8000
Y-14.587 Z-2.378 F1016
X-139.22 Z-2.4
S6000
X-150.413 F1500
Y-71.412
X-138.587
Y-31.136
Y-14.587
X-139.22
S8000
X-150.413 Z-2.791 F1016
Y-20.577 Z-3
S6000
Y-71.412 F1500
X-138.587
Y-14.587
X-150.413
Y-20.577
S8000
Y-37.759 Z-3.6 F1016
S6000
Y-71.412 F1500
X-138.587
Y-14.587
X-150.413
Y-37.759
S8000
Y-54.941 Z-4.2 F1016
S6000
Y-71.412 F1500
X-138.587
Y-14.587
X-150.413
Y-37.759
Y-54.941
G0 Z15

(2D-Kontur20)
X-233.272 Y0.587
Z15
Z5
G1 Z2.5 F300
S8000
X-144.5 Z-0.6 F1016
S6000
X-11 F1500
G2 X0.587 Y-11 I0 J-11.587
G1 Y-30.5
G2 X-1 Y-32.088 I-1.587 J0
G1 X-4.412
Y-53.912
X-1
G2 X0.587 Y-55.5 I0 J-1.588
G1 Y-75
G2 X-11 Y-86.588 I-11.587 J0
G1 X-278
G2 X-289.587 Y-75 I0 J11.588
G1 Y-11
G2 X-278 Y0.587 I11.587 J0
G1 X-144.5
S8000
X-107.328 Z-1.2 F1016
S6000
X-11 F1500
G2 X0.587 Y-11 I0 J-11.587
G1 Y-30.5
G2 X-1 Y-32.088 I-1.587 J0
G1 X-4.412
Y-53.912
X-1
G2 X0.587 Y-55.5 I0 J-1.588
G1 Y-75
G2 X-11 Y-86.588 I-11.587 J0
G1 X-278
G2 X-289.587 Y-75 I0 J11.588
G1 Y-11
G2 X-278 Y0.587 I11.587 J0
G1 X-144.5
X-107.328
S8000
X-70.156 Z-1.8 F1016
S6000
X-11 F1500
G2 X0.587 Y-11 I0 J-11.587
G1 Y-30.5
G2 X-1 Y-32.088 I-1.587 J0
G1 X-4.412
Y-53.912
X-1
G2 X0.587 Y-55.5 I0 J-1.588
G1 Y-75
G2 X-11 Y-86.588 I-11.587 J0
G1 X-278
G2 X-289.587 Y-75 I0 J11.588
G1 Y-11
G2 X-278 Y0.587 I11.587 J0
G1 X-107.328
X-70.156
S8000
X-32.983 Z-2.4 F1016
S6000
X-11 F1500
G2 X0.587 Y-11 I0 J-11.587
G1 Y-30.5
G2 X-1 Y-32.088 I-1.587 J0
G1 X-4.412
Y-53.912
X-1
G2 X0.587 Y-55.5 I0 J-1.588
G1 Y-75
G2 X-11 Y-86.588 I-11.587 J0
G1 X-278
G2 X-289.587 Y-75 I0 J11.588
G1 Y-11
G2 X-278 Y0.587 I11.587 J0
G1 X-70.156
X-32.983
S8000
X-11 Z-2.755 F1016
G2 X0.198 Y-8.021 Z-3 I0 J-11.587
S6000
X0.587 Y-11 I-11.198 J-2.979 F1500
G1 Y-30.5
G2 X-1 Y-32.088 I-1.587 J0
G1 X-4.412
Y-53.912
X-1
G2 X0.587 Y-55.5 I0 J-1.588
G1 Y-75
G2 X-11 Y-86.588 I-11.587 J0
G1 X-278
G2 X-289.587 Y-75 I0 J11.588
G1 Y-11
G2 X-278 Y0.587 I11.587 J0
G1 X-32.983
X-11
G2 X0.198 Y-8.021 I0 J-11.587
S8000
X0.587 Y-11 Z-3.049 I-11.198 J-2.979 F1016
G1 Y-30.5 Z-3.363
G2 X-1 Y-32.088 Z-3.404 I-1.587 J0
G1 X-4.412 Z-3.459
Y-40.841 Z-3.6
S6000
Y-53.912 F1500
X-1
G2 X0.587 Y-55.5 I0 J-1.588
G1 Y-75
G2 X-11 Y-86.588 I-11.587 J0
G1 X-73.662
Z-3.2
X-81.838
Z-3.6 F300
X-207.163 F1500
Z-3.2
X-215.337
Z-3.6 F300
X-278 F1500
G2 X-289.587 Y-75 I0 J11.588
G1 Y-11
G2 X-278 Y0.587 I11.587 J0
G1 X-215.337
Z-3.2
X-207.163
Z-3.6 F300
X-81.838 F1500
Z-3.2
X-73.662
Z-3.6 F300
X-11 F1500
G2 X0.587 Y-11 I0 J-11.587
G1 Y-30.5
G2 X-1 Y-32.088 I-1.587 J0
G1 X-4.412
Y-40.841
S8000
Y-53.912 Z-3.811 F1016
X-1 Z-3.866
G2 X0.587 Y-55.5 Z-3.906 I0 J-1.588
G1 Y-73.694 Z-4.2
S6000
Y-75 F1500
G2 X-11 Y-86.588 I-11.587 J0
G1 X-73.662
Z-3.2
X-81.838
Z-4.2 F300
X-207.163 F1500
Z-3.2
X-215.337
Z-4.2 F300
X-278 F1500
G2 X-289.587 Y-75 I0 J11.588
G1 Y-11
G2 X-278 Y0.587 I11.587 J0
G1 X-215.337
Z-3.2
X-207.163
Z-4.2 F300
X-81.838 F1500
Z-3.2
X-73.662
Z-4.2 F300
X-11 F1500
G2 X0.587 Y-11 I0 J-11.587
G1 Y-30.5
G2 X-1 Y-32.088 I-1.587 J0
G1 X-4.412
Y-53.912
X-1
G2 X0.587 Y-55.5 I0 J-1.588
G1 Y-73.694
G0 Z15
G28 G91 Z0
G90
G28 G91 X0 Y0
G90
M5
M30
