(1001)
(Bearbeiten)
(  Hersteller: ChinaCnc)
(  model: 3040T)
(  description: Generic 3-axis)
(T14  D=3.175 CR=0 - ZMIN=-3.2 - Schaftfraser)
G90 G94
G17
G21
G28 G91 Z0
G90

(Bohrfrasen2)
T14
S6000 M3
G54
G0 X-9.077 Y-78.081
Z15
Z1.683
G1 Z0 F1016
X-8.918
X-8.887 Y-78.075
X-8.86 Y-78.057
X-8.843 Y-78.031
X-8.837 Y-78
G3 X-9.162 Y-78 Z-0.5 I-0.162 J0 F1500
X-8.837 Y-78 Z-1 I0.162 J0
X-9.162 Y-78 Z-1.5 I-0.163 J0
X-8.837 Y-78 Z-2 I0.163 J0
X-9.162 Y-78 Z-2.5 I-0.163 J0
X-8.837 Y-78 Z-3 I0.163 J0
X-8.949 Y-77.845 Z-3.2 I-0.163 J0
X-9.049 Y-78.155 I-0.05 J-0.155
X-8.949 Y-77.845 I0.05 J0.155
G1 X-8.98 Y-77.842 F1016
X-9.011 Y-77.85
X-9.036 Y-77.87
X-9.051 Y-77.898
X-9.1 Y-78.049
G0 Z5
X-47.077 Y-78.081
Z1.683
G1 Z0 F1016
X-46.918
X-46.887 Y-78.075
X-46.86 Y-78.057
X-46.843 Y-78.031
X-46.837 Y-78
G3 X-47.162 Y-78 Z-0.5 I-0.162 J0 F1500
X-46.837 Y-78 Z-1 I0.162 J0
X-47.162 Y-78 Z-1.5 I-0.162 J0
X-46.837 Y-78 Z-2 I0.163 J0
X-47.162 Y-78 Z-2.5 I-0.163 J0
X-46.837 Y-78 Z-3 I0.163 J0
X-46.949 Y-77.845 Z-3.2 I-0.163 J0
X-47.049 Y-78.155 I-0.05 J-0.155
X-46.949 Y-77.845 I0.05 J0.155
G1 X-46.98 Y-77.842 F1016
X-47.011 Y-77.85
X-47.036 Y-77.87
X-47.051 Y-77.898
X-47.1 Y-78.049
G0 Z5
X-85.077 Y-78.081
Z1.683
G1 Z0 F1016
X-84.918
X-84.887 Y-78.075
X-84.86 Y-78.057
X-84.843 Y-78.031
X-84.837 Y-78
G3 X-85.162 Y-78 Z-0.5 I-0.162 J0 F1500
X-84.837 Y-78 Z-1 I0.162 J0
X-85.162 Y-78 Z-1.5 I-0.162 J0
X-84.837 Y-78 Z-2 I0.163 J0
X-85.162 Y-78 Z-2.5 I-0.163 J0
X-84.837 Y-78 Z-3 I0.163 J0
X-84.949 Y-77.845 Z-3.2 I-0.163 J0
X-85.049 Y-78.155 I-0.05 J-0.155
X-84.949 Y-77.845 I0.05 J0.155
G1 X-84.98 Y-77.842 F1016
X-85.011 Y-77.85
X-85.036 Y-77.87
X-85.051 Y-77.898
X-85.1 Y-78.049
G0 Z5
X-123.077 Y-78.081
Z1.683
G1 Z0 F1016
X-122.918
X-122.887 Y-78.075
X-122.86 Y-78.057
X-122.843 Y-78.031
X-122.837 Y-78
G3 X-123.162 Y-78 Z-0.5 I-0.162 J0 F1500
X-122.837 Y-78 Z-1 I0.162 J0
X-123.162 Y-78 Z-1.5 I-0.162 J0
X-122.837 Y-78 Z-2 I0.163 J0
X-123.162 Y-78 Z-2.5 I-0.163 J0
X-122.837 Y-78 Z-3 I0.163 J0
X-122.949 Y-77.845 Z-3.2 I-0.163 J0
X-123.049 Y-78.155 I-0.05 J-0.155
X-122.949 Y-77.845 I0.05 J0.155
G1 X-122.98 Y-77.842 F1016
X-123.011 Y-77.85
X-123.036 Y-77.87
X-123.051 Y-77.898
X-123.1 Y-78.049
G0 Z5
X-161.077 Y-78.081
Z1.683
G1 Z0 F1016
X-160.918
X-160.887 Y-78.075
X-160.86 Y-78.057
X-160.843 Y-78.031
X-160.837 Y-78
G3 X-161.162 Y-78 Z-0.5 I-0.163 J0 F1500
X-161.103 Y-78.125 Z-0.64 I0.162 J0
X-160.896 Y-77.875 Z-1.14 I0.104 J0.125
X-161.03 Y-77.84 Z-1.28 I-0.104 J-0.125
X-160.969 Y-78.16 Z-1.78 I0.03 J-0.16
X-160.857 Y-78.078 Z-1.92 I-0.03 J0.16
X-161.142 Y-77.922 Z-2.42 I-0.142 J0.078
X-160.857 Y-78.078 Z-2.92 I0.142 J-0.078
X-160.949 Y-77.845 Z-3.2 I-0.142 J0.078
X-161.049 Y-78.155 I-0.05 J-0.155
X-160.949 Y-77.845 I0.05 J0.155
G1 X-160.98 Y-77.842 F1016
X-161.011 Y-77.85
X-161.036 Y-77.87
X-161.051 Y-77.898
X-161.1 Y-78.049
G0 Z5
X-199.077 Y-78.081
Z1.683
G1 Z0 F1016
X-198.918
X-198.887 Y-78.075
X-198.86 Y-78.057
X-198.843 Y-78.031
X-198.837 Y-78
G3 X-199.162 Y-78 Z-0.5 I-0.163 J0 F1500
X-199.103 Y-78.125 Z-0.64 I0.162 J0
X-198.896 Y-77.875 Z-1.14 I0.104 J0.125
X-199.03 Y-77.84 Z-1.28 I-0.104 J-0.125
X-198.969 Y-78.16 Z-1.78 I0.03 J-0.16
X-198.857 Y-78.078 Z-1.92 I-0.03 J0.16
X-199.142 Y-77.922 Z-2.42 I-0.142 J0.078
X-198.857 Y-78.078 Z-2.92 I0.142 J-0.078
X-198.949 Y-77.845 Z-3.2 I-0.142 J0.078
X-199.049 Y-78.155 I-0.05 J-0.155
X-198.949 Y-77.845 I0.05 J0.155
G1 X-198.98 Y-77.842 F1016
X-199.011 Y-77.85
X-199.036 Y-77.87
X-199.051 Y-77.898
X-199.1 Y-78.049
G0 Z5
X-237.077 Y-78.081
Z1.683
G1 Z0 F1016
X-236.918
X-236.887 Y-78.075
X-236.86 Y-78.057
X-236.843 Y-78.031
X-236.837 Y-78
G3 X-237.162 Y-78 Z-0.5 I-0.163 J0 F1500
X-237.103 Y-78.125 Z-0.64 I0.162 J0
X-236.896 Y-77.875 Z-1.14 I0.104 J0.125
X-237.03 Y-77.84 Z-1.28 I-0.104 J-0.125
X-236.969 Y-78.16 Z-1.78 I0.03 J-0.16
X-236.857 Y-78.078 Z-1.92 I-0.03 J0.16
X-237.142 Y-77.922 Z-2.42 I-0.142 J0.078
X-236.857 Y-78.078 Z-2.92 I0.142 J-0.078
X-236.949 Y-77.845 Z-3.2 I-0.142 J0.078
X-237.049 Y-78.155 I-0.05 J-0.155
X-236.949 Y-77.845 I0.05 J0.155
G1 X-236.98 Y-77.842 F1016
X-237.011 Y-77.85
X-237.036 Y-77.87
X-237.051 Y-77.898
X-237.1 Y-78.049
G0 Z5
X-275.077 Y-78.081
Z1.683
G1 Z0 F1016
X-274.918
X-274.887 Y-78.075
X-274.86 Y-78.057
X-274.843 Y-78.031
X-274.837 Y-78
G3 X-275.162 Y-78 Z-0.5 I-0.163 J0 F1500
X-274.837 Y-78 Z-1 I0.163 J0
X-275.03 Y-77.84 Z-1.28 I-0.163 J0
X-274.969 Y-78.16 Z-1.78 I0.03 J-0.16
X-274.857 Y-78.078 Z-1.92 I-0.03 J0.16
X-275.142 Y-77.922 Z-2.42 I-0.142 J0.078
X-275.15 Y-78.06 Z-2.56 I0.142 J-0.078
X-274.848 Y-77.94 Z-3.06 I0.151 J0.06
X-274.949 Y-77.845 Z-3.2 I-0.151 J-0.06
X-275.049 Y-78.155 I-0.05 J-0.155
X-274.949 Y-77.845 I0.05 J0.155
G1 X-274.98 Y-77.842 F1016
X-275.011 Y-77.85
X-275.036 Y-77.87
X-275.051 Y-77.898
X-275.1 Y-78.049
G0 Z5
X-275.077 Y-8.081
Z1.683
G1 Z0 F1016
X-274.918
X-274.887 Y-8.075
X-274.86 Y-8.057
X-274.843 Y-8.031
X-274.837 Y-8
G3 X-275.162 Y-8 Z-0.5 I-0.163 J0 F1500
X-274.837 Y-8 Z-1 I0.163 J0
X-275.03 Y-7.84 Z-1.28 I-0.163 J0
X-274.969 Y-8.16 Z-1.78 I0.03 J-0.16
X-274.857 Y-8.078 Z-1.92 I-0.03 J0.16
X-275.142 Y-7.922 Z-2.42 I-0.142 J0.078
X-275.15 Y-8.06 Z-2.56 I0.142 J-0.078
X-274.848 Y-7.94 Z-3.06 I0.151 J0.06
X-274.949 Y-7.845 Z-3.2 I-0.151 J-0.06
X-275.049 Y-8.155 I-0.05 J-0.155
X-274.949 Y-7.845 I0.05 J0.155
G1 X-274.98 Y-7.842 F1016
X-275.011 Y-7.85
X-275.036 Y-7.87
X-275.051 Y-7.898
X-275.1 Y-8.049
G0 Z5
X-237.077 Y-8.081
Z1.683
G1 Z0 F1016
X-236.918
X-236.887 Y-8.075
X-236.86 Y-8.057
X-236.843 Y-8.031
X-236.837 Y-8
G3 X-237.162 Y-8 Z-0.5 I-0.163 J0 F1500
X-237.103 Y-8.125 Z-0.64 I0.162 J0
X-236.896 Y-7.875 Z-1.14 I0.104 J0.125
X-237.03 Y-7.84 Z-1.28 I-0.104 J-0.125
X-236.969 Y-8.16 Z-1.78 I0.03 J-0.16
X-236.857 Y-8.078 Z-1.92 I-0.03 J0.16
X-237.142 Y-7.922 Z-2.42 I-0.142 J0.078
X-236.857 Y-8.078 Z-2.92 I0.142 J-0.078
X-236.949 Y-7.845 Z-3.2 I-0.142 J0.078
X-237.049 Y-8.155 I-0.05 J-0.155
X-236.949 Y-7.845 I0.05 J0.155
G1 X-236.98 Y-7.842 F1016
X-237.011 Y-7.85
X-237.036 Y-7.87
X-237.051 Y-7.898
X-237.1 Y-8.049
G0 Z5
X-199.077 Y-8.081
Z1.683
G1 Z0 F1016
X-198.918
X-198.887 Y-8.075
X-198.86 Y-8.057
X-198.843 Y-8.031
X-198.837 Y-8
G3 X-199.162 Y-8 Z-0.5 I-0.163 J0 F1500
X-199.103 Y-8.125 Z-0.64 I0.162 J0
X-198.896 Y-7.875 Z-1.14 I0.104 J0.125
X-199.03 Y-7.84 Z-1.28 I-0.104 J-0.125
X-198.969 Y-8.16 Z-1.78 I0.03 J-0.16
X-198.857 Y-8.078 Z-1.92 I-0.03 J0.16
X-199.142 Y-7.922 Z-2.42 I-0.142 J0.078
X-198.857 Y-8.078 Z-2.92 I0.142 J-0.078
X-198.949 Y-7.845 Z-3.2 I-0.142 J0.078
X-199.049 Y-8.155 I-0.05 J-0.155
X-198.949 Y-7.845 I0.05 J0.155
G1 X-198.98 Y-7.842 F1016
X-199.011 Y-7.85
X-199.036 Y-7.87
X-199.051 Y-7.898
X-199.1 Y-8.049
G0 Z5
X-161.077 Y-8.081
Z1.683
G1 Z0 F1016
X-160.918
X-160.887 Y-8.075
X-160.86 Y-8.057
X-160.843 Y-8.031
X-160.837 Y-8
G3 X-161.162 Y-8 Z-0.5 I-0.163 J0 F1500
X-161.103 Y-8.125 Z-0.64 I0.162 J0
X-160.896 Y-7.875 Z-1.14 I0.104 J0.125
X-161.03 Y-7.84 Z-1.28 I-0.104 J-0.125
X-160.969 Y-8.16 Z-1.78 I0.03 J-0.16
X-160.857 Y-8.078 Z-1.92 I-0.03 J0.16
X-161.142 Y-7.922 Z-2.42 I-0.142 J0.078
X-160.857 Y-8.078 Z-2.92 I0.142 J-0.078
X-160.949 Y-7.845 Z-3.2 I-0.142 J0.078
X-161.049 Y-8.155 I-0.05 J-0.155
X-160.949 Y-7.845 I0.05 J0.155
G1 X-160.98 Y-7.842 F1016
X-161.011 Y-7.85
X-161.036 Y-7.87
X-161.051 Y-7.898
X-161.1 Y-8.049
G0 Z5
X-123.077 Y-8.081
Z1.683
G1 Z0 F1016
X-122.918
X-122.887 Y-8.075
X-122.86 Y-8.057
X-122.843 Y-8.031
X-122.837 Y-8
G3 X-123.162 Y-8 Z-0.5 I-0.162 J0 F1500
X-122.837 Y-8 Z-1 I0.162 J0
X-123.162 Y-8 Z-1.5 I-0.162 J0
X-122.837 Y-8 Z-2 I0.162 J0
X-123.162 Y-8 Z-2.5 I-0.162 J0
X-122.837 Y-8 Z-3 I0.163 J0
X-122.949 Y-7.845 Z-3.2 I-0.163 J0
X-123.049 Y-8.155 I-0.05 J-0.155
X-122.949 Y-7.845 I0.05 J0.155
G1 X-122.98 Y-7.842 F1016
X-123.011 Y-7.85
X-123.036 Y-7.87
X-123.051 Y-7.898
X-123.1 Y-8.049
G0 Z5
X-85.077 Y-8.081
Z1.683
G1 Z0 F1016
X-84.918
X-84.887 Y-8.075
X-84.86 Y-8.057
X-84.843 Y-8.031
X-84.837 Y-8
G3 X-85.162 Y-8 Z-0.5 I-0.162 J0 F1500
X-84.837 Y-8 Z-1 I0.162 J0
X-85.162 Y-8 Z-1.5 I-0.162 J0
X-84.837 Y-8 Z-2 I0.162 J0
X-85.162 Y-8 Z-2.5 I-0.162 J0
X-84.837 Y-8 Z-3 I0.163 J0
X-84.949 Y-7.845 Z-3.2 I-0.163 J0
X-85.049 Y-8.155 I-0.05 J-0.155
X-84.949 Y-7.845 I0.05 J0.155
G1 X-84.98 Y-7.842 F1016
X-85.011 Y-7.85
X-85.036 Y-7.87
X-85.051 Y-7.898
X-85.1 Y-8.049
G0 Z5
X-47.077 Y-8.081
Z1.683
G1 Z0 F1016
X-46.918
X-46.887 Y-8.075
X-46.86 Y-8.057
X-46.843 Y-8.031
X-46.837 Y-8
G3 X-47.162 Y-8 Z-0.5 I-0.162 J0 F1500
X-46.837 Y-8 Z-1 I0.162 J0
X-47.162 Y-8 Z-1.5 I-0.162 J0
X-46.837 Y-8 Z-2 I0.162 J0
X-47.162 Y-8 Z-2.5 I-0.162 J0
X-46.837 Y-8 Z-3 I0.163 J0
X-46.949 Y-7.845 Z-3.2 I-0.163 J0
X-47.049 Y-8.155 I-0.05 J-0.155
X-46.949 Y-7.845 I0.05 J0.155
G1 X-46.98 Y-7.842 F1016
X-47.011 Y-7.85
X-47.036 Y-7.87
X-47.051 Y-7.898
X-47.1 Y-8.049
G0 Z5
X-9.077 Y-8.081
Z1.683
G1 Z0 F1016
X-8.918
X-8.887 Y-8.075
X-8.86 Y-8.057
X-8.843 Y-8.031
X-8.837 Y-8
G3 X-9.162 Y-8 Z-0.5 I-0.162 J0 F1500
X-8.837 Y-8 Z-1 I0.162 J0
X-9.162 Y-8 Z-1.5 I-0.162 J0
X-8.837 Y-8 Z-2 I0.162 J0
X-9.162 Y-8 Z-2.5 I-0.162 J0
X-8.837 Y-8 Z-3 I0.162 J0
X-8.949 Y-7.845 Z-3.2 I-0.162 J0
X-9.049 Y-8.155 I-0.05 J-0.155
X-8.949 Y-7.845 I0.05 J0.155
G1 X-8.98 Y-7.842 F1016
X-9.011 Y-7.85
X-9.036 Y-7.87
X-9.051 Y-7.898
X-9.1 Y-8.049
G0 Z15

(2D-Kontur4)
X-138.587 Y-38.759
Z15
Z5
G1 Z2.5 F300
S8000
Y-14.587 Z1.656 F1016
X-148.411 Z1.313
Y-66.501 Z-0.5
S6000
Y-71.412 F1500
X-138.587
Y-14.587
X-148.411
Y-66.501
S8000
Y-71.412 Z-0.672 F1016
X-139.005 Z-1
S6000
X-138.587 F1500
Y-14.587
X-148.411
Y-66.501
Y-71.412
X-139.005
S8000
X-138.587 Z-1.015 F1016
Y-57.512 Z-1.5
S6000
Y-14.587 F1500
X-148.411
Y-71.412
X-139.005
X-138.587
Y-57.512
S8000
Y-43.194 Z-2 F1016
S6000
Y-14.587 F1500
X-148.411
Y-71.412
X-138.587
Y-43.194
S8000
Y-28.876 Z-2.5 F1016
S6000
Y-14.587 F1500
X-148.411
Y-71.412
X-138.587
Y-43.194
Y-28.876
S8000
Y-14.587 Z-2.999 F1016
X-138.617 Z-3
S6000
X-148.411 F1500
Y-71.412
X-138.587
Y-28.876
Y-14.587
X-138.617
S8000
X-144.344 Z-3.2 F1016
S6000
X-148.411 F1500
Y-71.412
X-138.587
Y-14.587
X-144.344
G0 Z15

(2D-Kontur5)
X-229.408 Y0.587
Z15
Z5
G1 Z2.5 F300
S8000
X-143.499 Z-0.5 F1016
S6000
X-11 F1500
G2 X0.587 Y-11 I0 J-11.587
G1 Y-75
G2 X-11 Y-86.588 I-11.587 J0
G1 X-275.999
G2 X-287.586 Y-75 I0 J11.588
G1 Y-11
G2 X-275.999 Y0.587 I11.587 J0
G1 X-143.499
S8000
X-113.049 Z-1 F1016
S6000
X-11 F1500
G2 X0.587 Y-11 I0 J-11.587
G1 Y-75
G2 X-11 Y-86.588 I-11.587 J0
G1 X-275.999
G2 X-287.586 Y-75 I0 J11.588
G1 Y-11
G2 X-275.999 Y0.587 I11.587 J0
G1 X-143.499
X-113.049
S8000
X-82.599 Z-1.5 F1016
S6000
X-11 F1500
G2 X0.587 Y-11 I0 J-11.587
G1 Y-75
G2 X-11 Y-86.588 I-11.587 J0
G1 X-275.999
G2 X-287.586 Y-75 I0 J11.588
G1 Y-11
G2 X-275.999 Y0.587 I11.587 J0
G1 X-113.049
X-82.599
S8000
X-52.149 Z-2 F1016
S6000
X-11 F1500
G2 X0.587 Y-11 I0 J-11.587
G1 Y-75
G2 X-11 Y-86.588 I-11.587 J0
G1 X-275.999
G2 X-287.586 Y-75 I0 J11.588
G1 Y-11
G2 X-275.999 Y0.587 I11.587 J0
G1 X-82.599
X-52.149
S8000
X-21.699 Z-2.5 F1016
S6000
X-11 F1500
G2 X0.587 Y-11 I0 J-11.587
G1 Y-75
G2 X-11 Y-86.588 I-11.587 J0
G1 X-72.662
Z-2.2
X-81.837
Z-2.5 F300
X-205.161 F1500
Z-2.2
X-214.337
Z-2.5 F300
X-275.999 F1500
G2 X-287.586 Y-75 I0 J11.588
G1 Y-11
G2 X-275.999 Y0.587 I11.587 J0
G1 X-214.337
Z-2.2
X-205.161
Z-2.5 F300
X-81.837 F1500
Z-2.2
X-72.662
Z-2.5 F300
X-21.699 F1500
S8000
X-11 Z-2.676 F1016
G2 X0.587 Y-11 Z-2.975 I0 J-11.587
G1 Y-12.55 Z-3
S6000
Y-75 F1500
G2 X-11 Y-86.588 I-11.587 J0
G1 X-72.662
Z-2.2
X-81.837
Z-3 F300
X-205.161 F1500
Z-2.2
X-214.337
Z-3 F300
X-275.999 F1500
G2 X-287.586 Y-75 I0 J11.588
G1 Y-11
G2 X-275.999 Y0.587 I11.587 J0
G1 X-214.337
Z-2.2
X-205.161
Z-3 F300
X-81.837 F1500
Z-2.2
X-72.662
Z-3 F300
X-11 F1500
G2 X0.587 Y-11 I0 J-11.587
G1 Y-12.55
S8000
Y-24.73 Z-3.2 F1016
S6000
Y-75 F1500
G2 X-11 Y-86.588 I-11.587 J0
G1 X-72.662
Z-2.2
X-81.837
Z-3.2 F300
X-205.161 F1500
Z-2.2
X-214.337
Z-3.2 F300
X-275.999 F1500
G2 X-287.586 Y-75 I0 J11.588
G1 Y-11
G2 X-275.999 Y0.587 I11.587 J0
G1 X-214.337
Z-2.2
X-205.161
Z-3.2 F300
X-81.837 F1500
Z-2.2
X-72.662
Z-3.2 F300
X-11 F1500
G2 X0.587 Y-11 I0 J-11.587
G1 Y-24.73
G0 Z15
G28 G91 Z0
G90
G28 G91 X0 Y0
G90
M5
M30
