(1001)
(Bearbeiten)
(  Hersteller: ChinaCnc)
(  model: 3040T)
(  description: Generic 3-axis)
(T14  D=1.95 CR=0 - ZMIN=-3.2 - Schaftfraser)
G90 G94
G17
G21
G28 G91 Z0
G90

(2D-Kontur5)
T14
S6000 M3
G54
G0 X-63.118 Y-137.479
Z15
Z5
G1 Z1.3 F508
Z0.5
Y-130.119 Z0.243 F1016
G3 X-63.643 Y-129.594 Z0.214 I-0.525 J0
G1 X-64.143 Z0.197
G3 X-64.668 Y-130.119 Z0.168 I0 J-0.525
G1 Y-141.119 Z-0.216
G3 X-64.143 Y-141.644 Z-0.245 I0.525 J0
G1 X-63.643 Z-0.262
G3 X-63.118 Y-141.119 Z-0.291 I0 J0.525
G1 Y-140.869 Z-0.3
Y-130.119 F2540
G3 X-63.643 Y-129.594 I-0.525 J0
G1 X-64.143
G3 X-64.668 Y-130.119 I0 J-0.525
G1 Y-141.119
G3 X-64.143 Y-141.644 I0.525 J0
G1 X-63.643
G3 X-63.118 Y-141.119 I0 J0.525
G1 Y-140.869
Y-132.278 Z-0.6 F1016
Y-130.119 F2540
G3 X-63.643 Y-129.594 I-0.525 J0
G1 X-64.143
G3 X-64.668 Y-130.119 I0 J-0.525
G1 Y-141.119
G3 X-64.143 Y-141.644 I0.525 J0
G1 X-63.643
G3 X-63.118 Y-141.119 I0 J0.525
G1 Y-132.278
Y-130.119 Z-0.675 F1016
G3 X-63.643 Y-129.594 Z-0.704 I-0.525 J0
G1 X-64.143 Z-0.722
G3 X-64.668 Y-130.119 Z-0.75 I0 J-0.525
G1 Y-134.401 Z-0.9
Y-141.119 F2540
G3 X-64.143 Y-141.644 I0.525 J0
G1 X-63.643
G3 X-63.118 Y-141.119 I0 J0.525
G1 Y-132.278
Y-130.119
G3 X-63.643 Y-129.594 I-0.525 J0
G1 X-64.143
G3 X-64.668 Y-130.119 I0 J-0.525
G1 Y-134.401
Y-141.119 Z-1.135 F1016
G3 X-64.143 Y-141.644 Z-1.163 I0.525 J0
G1 X-63.643 Z-1.181
G3 X-63.189 Y-141.382 Z-1.2 I0 J0.525
X-63.118 Y-141.119 I-0.454 J0.263 F2540
G1 Y-130.119
G3 X-63.643 Y-129.594 I-0.525 J0
G1 X-64.143
G3 X-64.668 Y-130.119 I0 J-0.525
G1 Y-141.119
G3 X-64.143 Y-141.644 I0.525 J0
G1 X-63.643
G3 X-63.189 Y-141.382 I0 J0.525
X-63.118 Y-141.119 Z-1.21 I-0.454 J0.263 F1016
G1 Y-132.804 Z-1.5
Y-130.119 F2540
G3 X-63.643 Y-129.594 I-0.525 J0
G1 X-64.143
G3 X-64.668 Y-130.119 I0 J-0.525
G1 Y-141.119
G3 X-64.143 Y-141.644 I0.525 J0
G1 X-63.643
G3 X-63.118 Y-141.119 I0 J0.525
G1 Y-132.804
Y-130.119 Z-1.594 F1016
G3 X-63.643 Y-129.594 Z-1.623 I-0.525 J0
G1 X-64.143 Z-1.64
G3 X-64.668 Y-130.119 Z-1.669 I0 J-0.525
G1 Y-133.875 Z-1.8
Y-141.119 F2540
G3 X-64.143 Y-141.644 I0.525 J0
G1 X-63.643
G3 X-63.118 Y-141.119 I0 J0.525
G1 Y-132.804
Y-130.119
G3 X-63.643 Y-129.594 I-0.525 J0
G1 X-64.143
G3 X-64.668 Y-130.119 I0 J-0.525
G1 Y-133.875
Y-141.119 Z-2.053 F1016
G3 X-64.143 Y-141.644 Z-2.082 I0.525 J0
G1 X-63.643 Z-2.099
X-63.62 Z-2.1
G3 X-63.118 Y-141.119 I-0.023 J0.525 F2540
G1 Y-130.119
G3 X-63.643 Y-129.594 I-0.525 J0
G1 X-64.143
G3 X-64.668 Y-130.119 I0 J-0.525
G1 Y-141.119
G3 X-64.143 Y-141.644 I0.525 J0
G1 X-63.643
X-63.62
G3 X-63.118 Y-141.119 Z-2.128 I-0.023 J0.525 F1016
G1 Y-133.33 Z-2.4
Y-130.119 F2540
G3 X-63.643 Y-129.594 I-0.525 J0
G1 X-64.143
G3 X-64.668 Y-130.119 I0 J-0.525
G1 Y-141.119
G3 X-64.143 Y-141.644 I0.525 J0
G1 X-63.643
G3 X-63.118 Y-141.119 I0 J0.525
G1 Y-133.33
Y-130.119 Z-2.512 F1016
G3 X-63.643 Y-129.594 Z-2.541 I-0.525 J0
G1 X-64.143 Z-2.558
G3 X-64.668 Y-130.119 Z-2.587 I0 J-0.525
G1 Y-133.349 Z-2.7
Y-141.119 F2540
G3 X-64.143 Y-141.644 I0.525 J0
G1 X-63.643
G3 X-63.118 Y-141.119 I0 J0.525
G1 Y-133.33
Y-130.119
G3 X-63.643 Y-129.594 I-0.525 J0
G1 X-64.143
G3 X-64.668 Y-130.119 I0 J-0.525
G1 Y-133.349
Y-141.119 Z-2.971 F1016
G3 X-64.146 Y-141.644 Z-3 I0.525 J0
G1 X-64.143 F2540
X-63.643
G3 X-63.118 Y-141.119 I0 J0.525
G1 Y-130.119
G3 X-63.643 Y-129.594 I-0.525 J0
G1 X-64.143
G3 X-64.668 Y-130.119 I0 J-0.525
G1 Y-141.119
G3 X-64.146 Y-141.644 I0.525 J0
G1 X-64.143 F1016
X-63.643 Z-3.018
G3 X-63.118 Y-141.119 Z-3.046 I0 J0.525
G1 Y-136.72 Z-3.2
Y-130.119 F2540
G3 X-63.643 Y-129.594 I-0.525 J0
G1 X-64.143
G3 X-64.668 Y-130.119 I0 J-0.525
G1 Y-141.119
G3 X-64.143 Y-141.644 I0.525 J0
G1 X-63.643
G3 X-63.118 Y-141.119 I0 J0.525
G1 Y-136.72
G0 Z5
X-73.547 Y-148.675
G1 Z1.3 F508
Z0.5
X-73.524 Z0.499 F1016
G3 X-72.999 Y-148.15 Z0.47 I0 J0.525
G1 Y-126.088 Z-0.3
Y-123.088 F2540
G3 X-73.524 Y-122.563 I-0.525 J0
G1 X-79.524
G3 X-80.049 Y-123.088 I0 J-0.525
G1 Y-148.15
G3 X-79.524 Y-148.675 I0.525 J0
G1 X-73.524
G3 X-72.999 Y-148.15 I0 J0.525
G1 Y-126.088
Y-123.088 Z-0.405 F1016
G3 X-73.524 Y-122.563 Z-0.434 I-0.525 J0
G1 X-78.29 Z-0.6
X-79.524 F2540
G3 X-80.049 Y-123.088 I0 J-0.525
G1 Y-148.15
G3 X-79.524 Y-148.675 I0.525 J0
G1 X-73.524
G3 X-72.999 Y-148.15 I0 J0.525
G1 Y-126.088
Y-123.088
G3 X-73.524 Y-122.563 I-0.525 J0
G1 X-78.29
X-79.524 Z-0.643 F1016
G3 X-80.049 Y-123.088 Z-0.672 I0 J-0.525
G1 Y-129.62 Z-0.9
Y-148.15 F2540
G3 X-79.524 Y-148.675 I0.525 J0
G1 X-73.524
G3 X-72.999 Y-148.15 I0 J0.525
G1 Y-123.088
G3 X-73.524 Y-122.563 I-0.525 J0
G1 X-78.29
X-79.524
G3 X-80.049 Y-123.088 I0 J-0.525
G1 Y-129.62
Y-138.211 Z-1.2 F1016
Y-148.15 F2540
G3 X-79.524 Y-148.675 I0.525 J0
G1 X-73.524
G3 X-72.999 Y-148.15 I0 J0.525
G1 Y-123.088
G3 X-73.524 Y-122.563 I-0.525 J0
G1 X-79.524
G3 X-80.049 Y-123.088 I0 J-0.525
G1 Y-138.211
Y-146.802 Z-1.5 F1016
Y-148.15 F2540
G3 X-79.524 Y-148.675 I0.525 J0
G1 X-73.524
G3 X-72.999 Y-148.15 I0 J0.525
G1 Y-123.088
G3 X-73.524 Y-122.563 I-0.525 J0
G1 X-79.524
G3 X-80.049 Y-123.088 I0 J-0.525
G1 Y-138.211
Y-146.802
Y-148.15 Z-1.547 F1016
G3 X-79.524 Y-148.675 Z-1.576 I0.525 J0
G1 X-73.524 Z-1.785
G3 X-73.149 Y-148.517 Z-1.8 I0 J0.525
X-72.999 Y-148.15 I-0.375 J0.367 F2540
G1 Y-123.088
G3 X-73.524 Y-122.563 I-0.525 J0
G1 X-79.524
G3 X-80.049 Y-123.088 I0 J-0.525
G1 Y-146.802
Y-148.15
G3 X-79.524 Y-148.675 I0.525 J0
G1 X-73.524
G3 X-73.149 Y-148.517 I0 J0.525
X-72.999 Y-148.15 Z-1.814 I-0.375 J0.367 F1016
G1 Y-139.965 Z-2.1
Y-123.088 F2540
G3 X-73.524 Y-122.563 I-0.525 J0
G1 X-79.524
G3 X-80.049 Y-123.088 I0 J-0.525
G1 Y-148.15
G3 X-79.524 Y-148.675 I0.525 J0
G1 X-73.524
G3 X-72.999 Y-148.15 I0 J0.525
G1 Y-139.965
Y-131.375 Z-2.4 F1016
Y-123.088 F2540
G3 X-73.524 Y-122.563 I-0.525 J0
G1 X-79.524
G3 X-80.049 Y-123.088 I0 J-0.525
G1 Y-148.15
G3 X-79.524 Y-148.675 I0.525 J0
G1 X-73.524
G3 X-72.999 Y-148.15 I0 J0.525
G1 Y-131.375
Y-123.088 Z-2.689 F1016
G3 X-73.085 Y-122.8 Z-2.7 I-0.525 J0
X-73.524 Y-122.563 I-0.439 J-0.288 F2540
G1 X-79.524
G3 X-80.049 Y-123.088 I0 J-0.525
G1 Y-148.15
G3 X-79.524 Y-148.675 I0.525 J0
G1 X-73.524
G3 X-72.999 Y-148.15 I0 J0.525
G1 Y-131.375
Y-123.088
G3 X-73.085 Y-122.8 I-0.525 J0
X-73.524 Y-122.563 Z-2.718 I-0.439 J-0.288 F1016
G1 X-79.524 Z-2.928
G3 X-80.049 Y-123.088 Z-2.956 I0 J-0.525
G1 Y-124.334 Z-3
Y-148.15 F2540
G3 X-79.524 Y-148.675 I0.525 J0
G1 X-73.524
G3 X-72.999 Y-148.15 I0 J0.525
G1 Y-123.088
G3 X-73.524 Y-122.563 I-0.525 J0
G1 X-79.524
G3 X-80.049 Y-123.088 I0 J-0.525
G1 Y-124.334
Y-130.061 Z-3.2 F1016
Y-148.15 F2540
G3 X-79.524 Y-148.675 I0.525 J0
G1 X-73.524
G3 X-72.999 Y-148.15 I0 J0.525
G1 Y-123.088
G3 X-73.524 Y-122.563 I-0.525 J0
G1 X-79.524
G3 X-80.049 Y-123.088 I0 J-0.525
G1 Y-130.061
G0 Z5
X-88.38 Y-138.804
G1 Z1.3 F508
Z0.5
Y-130.119 Z0.197 F1016
G3 X-88.905 Y-129.594 Z0.168 I-0.525 J0
G1 X-89.405 Z0.15
G3 X-89.93 Y-130.119 Z0.122 I0 J-0.525
G1 Y-141.119 Z-0.262
G3 X-89.405 Y-141.644 Z-0.291 I0.525 J0
G1 X-89.155 Z-0.3
X-88.905 F2540
G3 X-88.38 Y-141.119 I0 J0.525
G1 Y-130.119
G3 X-88.905 Y-129.594 I-0.525 J0
G1 X-89.405
G3 X-89.93 Y-130.119 I0 J-0.525
G1 Y-141.119
G3 X-89.405 Y-141.644 I0.525 J0
G1 X-89.155
X-88.905 Z-0.309 F1016
G3 X-88.38 Y-141.119 Z-0.338 I0 J0.525
G1 Y-133.603 Z-0.6
Y-130.119 F2540
G3 X-88.905 Y-129.594 I-0.525 J0
G1 X-89.405
G3 X-89.93 Y-130.119 I0 J-0.525
G1 Y-141.119
G3 X-89.405 Y-141.644 I0.525 J0
G1 X-88.905
G3 X-88.38 Y-141.119 I0 J0.525
G1 Y-133.603
Y-130.119 Z-0.722 F1016
G3 X-88.905 Y-129.594 Z-0.75 I-0.525 J0
G1 X-89.405 Z-0.768
G3 X-89.93 Y-130.119 Z-0.797 I0 J-0.525
G1 Y-133.077 Z-0.9
Y-141.119 F2540
G3 X-89.405 Y-141.644 I0.525 J0
G1 X-88.905
G3 X-88.38 Y-141.119 I0 J0.525
G1 Y-133.603
Y-130.119
G3 X-88.905 Y-129.594 I-0.525 J0
G1 X-89.405
G3 X-89.93 Y-130.119 I0 J-0.525
G1 Y-133.077
Y-141.119 Z-1.181 F1016
G3 X-89.669 Y-141.573 Z-1.2 I0.525 J0
X-89.405 Y-141.644 I0.263 J0.454 F2540
G1 X-88.905
G3 X-88.38 Y-141.119 I0 J0.525
G1 Y-130.119
G3 X-88.905 Y-129.594 I-0.525 J0
G1 X-89.405
G3 X-89.93 Y-130.119 I0 J-0.525
G1 Y-141.119
G3 X-89.669 Y-141.573 I0.525 J0
X-89.405 Y-141.644 Z-1.21 I0.263 J0.454 F1016
G1 X-88.905 Z-1.227
G3 X-88.38 Y-141.119 Z-1.256 I0 J0.525
G1 Y-134.129 Z-1.5
Y-130.119 F2540
G3 X-88.905 Y-129.594 I-0.525 J0
G1 X-89.405
G3 X-89.93 Y-130.119 I0 J-0.525
G1 Y-141.119
G3 X-89.405 Y-141.644 I0.525 J0
G1 X-88.905
G3 X-88.38 Y-141.119 I0 J0.525
G1 Y-134.129
Y-130.119 Z-1.64 F1016
G3 X-88.905 Y-129.594 Z-1.669 I-0.525 J0
G1 X-89.405 Z-1.686
G3 X-89.93 Y-130.119 Z-1.715 I0 J-0.525
G1 Y-132.551 Z-1.8
Y-141.119 F2540
G3 X-89.405 Y-141.644 I0.525 J0
G1 X-88.905
G3 X-88.38 Y-141.119 I0 J0.525
G1 Y-134.129
Y-130.119
G3 X-88.905 Y-129.594 I-0.525 J0
G1 X-89.405
G3 X-89.93 Y-130.119 I0 J-0.525
G1 Y-132.551
Y-141.119 Z-2.099 F1016
Y-141.142 Z-2.1
G3 X-89.405 Y-141.644 I0.525 J0.023 F2540
G1 X-88.905
G3 X-88.38 Y-141.119 I0 J0.525
G1 Y-130.119
G3 X-88.905 Y-129.594 I-0.525 J0
G1 X-89.405
G3 X-89.93 Y-130.119 I0 J-0.525
G1 Y-141.119
Y-141.142
G3 X-89.405 Y-141.644 Z-2.128 I0.525 J0.023 F1016
G1 X-88.905 Z-2.145
G3 X-88.38 Y-141.119 Z-2.174 I0 J0.525
G1 Y-134.655 Z-2.4
Y-130.119 F2540
G3 X-88.905 Y-129.594 I-0.525 J0
G1 X-89.405
G3 X-89.93 Y-130.119 I0 J-0.525
G1 Y-141.119
G3 X-89.405 Y-141.644 I0.525 J0
G1 X-88.905
G3 X-88.38 Y-141.119 I0 J0.525
G1 Y-134.655
Y-130.119 Z-2.558 F1016
G3 X-88.905 Y-129.594 Z-2.587 I-0.525 J0
G1 X-89.405 Z-2.605
G3 X-89.93 Y-130.119 Z-2.633 I0 J-0.525
G1 Y-132.025 Z-2.7
Y-141.119 F2540
G3 X-89.405 Y-141.644 I0.525 J0
G1 X-88.905
G3 X-88.38 Y-141.119 I0 J0.525
G1 Y-134.655
Y-130.119
G3 X-88.905 Y-129.594 I-0.525 J0
G1 X-89.405
G3 X-89.93 Y-130.119 I0 J-0.525
G1 Y-132.025
Y-140.616 Z-3 F1016
Y-141.119 F2540
G3 X-89.405 Y-141.644 I0.525 J0
G1 X-88.905
G3 X-88.38 Y-141.119 I0 J0.525
G1 Y-130.119
G3 X-88.905 Y-129.594 I-0.525 J0
G1 X-89.405
G3 X-89.93 Y-130.119 I0 J-0.525
G1 Y-140.616
Y-141.119 Z-3.018 F1016
G3 X-89.405 Y-141.644 Z-3.046 I0.525 J0
G1 X-88.905 Z-3.064
G3 X-88.38 Y-141.119 Z-3.093 I0 J0.525
G1 Y-138.045 Z-3.2
Y-130.119 F2540
G3 X-88.905 Y-129.594 I-0.525 J0
G1 X-89.405
G3 X-89.93 Y-130.119 I0 J-0.525
G1 Y-140.616
Y-141.119
G3 X-89.405 Y-141.644 I0.525 J0
G1 X-88.905
G3 X-88.38 Y-141.119 I0 J0.525
G1 Y-138.045
G0 Z5
X-37.93 Y-132.434
G1 Z1.3 F508
Z0.5
Y-141.119 Z0.197 F1016
G3 X-37.405 Y-141.644 Z0.168 I0.525 J0
G1 X-36.905 Z0.15
G3 X-36.38 Y-141.119 Z0.122 I0 J0.525
G1 Y-130.119 Z-0.262
G3 X-36.905 Y-129.594 Z-0.291 I-0.525 J0
G1 X-37.155 Z-0.3
X-37.405 F2540
G3 X-37.93 Y-130.119 I0 J-0.525
G1 Y-141.119
G3 X-37.405 Y-141.644 I0.525 J0
G1 X-36.905
G3 X-36.38 Y-141.119 I0 J0.525
G1 Y-130.119
G3 X-36.905 Y-129.594 I-0.525 J0
G1 X-37.155
X-37.405 Z-0.309 F1016
G3 X-37.93 Y-130.119 Z-0.338 I0 J-0.525
G1 Y-137.635 Z-0.6
Y-141.119 F2540
G3 X-37.405 Y-141.644 I0.525 J0
G1 X-36.905
G3 X-36.38 Y-141.119 I0 J0.525
G1 Y-130.119
G3 X-36.905 Y-129.594 I-0.525 J0
G1 X-37.405
G3 X-37.93 Y-130.119 I0 J-0.525
G1 Y-137.635
Y-141.119 Z-0.722 F1016
G3 X-37.405 Y-141.644 Z-0.75 I0.525 J0
G1 X-36.905 Z-0.768
G3 X-36.38 Y-141.119 Z-0.797 I0 J0.525
G1 Y-138.161 Z-0.9
Y-130.119 F2540
G3 X-36.905 Y-129.594 I-0.525 J0
G1 X-37.405
G3 X-37.93 Y-130.119 I0 J-0.525
G1 Y-137.635
Y-141.119
G3 X-37.405 Y-141.644 I0.525 J0
G1 X-36.905
G3 X-36.38 Y-141.119 I0 J0.525
G1 Y-138.161
Y-130.119 Z-1.181 F1016
G3 X-36.642 Y-129.665 Z-1.2 I-0.525 J0
X-36.905 Y-129.594 I-0.264 J-0.454 F2540
G1 X-37.405
G3 X-37.93 Y-130.119 I0 J-0.525
G1 Y-141.119
G3 X-37.405 Y-141.644 I0.525 J0
G1 X-36.905
G3 X-36.38 Y-141.119 I0 J0.525
G1 Y-130.119
G3 X-36.642 Y-129.665 I-0.525 J0
X-36.905 Y-129.594 Z-1.21 I-0.264 J-0.454 F1016
G1 X-37.405 Z-1.227
G3 X-37.93 Y-130.119 Z-1.256 I0 J-0.525
G1 Y-137.109 Z-1.5
Y-141.119 F2540
G3 X-37.405 Y-141.644 I0.525 J0
G1 X-36.905
G3 X-36.38 Y-141.119 I0 J0.525
G1 Y-130.119
G3 X-36.905 Y-129.594 I-0.525 J0
G1 X-37.405
G3 X-37.93 Y-130.119 I0 J-0.525
G1 Y-137.109
Y-141.119 Z-1.64 F1016
G3 X-37.405 Y-141.644 Z-1.669 I0.525 J0
G1 X-36.905 Z-1.686
G3 X-36.38 Y-141.119 Z-1.715 I0 J0.525
G1 Y-138.687 Z-1.8
Y-130.119 F2540
G3 X-36.905 Y-129.594 I-0.525 J0
G1 X-37.405
G3 X-37.93 Y-130.119 I0 J-0.525
G1 Y-137.109
Y-141.119
G3 X-37.405 Y-141.644 I0.525 J0
G1 X-36.905
G3 X-36.38 Y-141.119 I0 J0.525
G1 Y-138.687
Y-130.119 Z-2.099 F1016
X-36.381 Y-130.096 Z-2.1
G3 X-36.905 Y-129.594 I-0.525 J-0.023 F2540
G1 X-37.405
G3 X-37.93 Y-130.119 I0 J-0.525
G1 Y-141.119
G3 X-37.405 Y-141.644 I0.525 J0
G1 X-36.905
G3 X-36.38 Y-141.119 I0 J0.525
G1 Y-130.119
X-36.381 Y-130.096
G3 X-36.905 Y-129.594 Z-2.128 I-0.525 J-0.023 F1016
G1 X-37.405 Z-2.145
G3 X-37.93 Y-130.119 Z-2.174 I0 J-0.525
G1 Y-136.583 Z-2.4
Y-141.119 F2540
G3 X-37.405 Y-141.644 I0.525 J0
G1 X-36.905
G3 X-36.38 Y-141.119 I0 J0.525
G1 Y-130.119
G3 X-36.905 Y-129.594 I-0.525 J0
G1 X-37.405
G3 X-37.93 Y-130.119 I0 J-0.525
G1 Y-136.583
Y-141.119 Z-2.558 F1016
G3 X-37.405 Y-141.644 Z-2.587 I0.525 J0
G1 X-36.905 Z-2.605
G3 X-36.38 Y-141.119 Z-2.633 I0 J0.525
G1 Y-139.213 Z-2.7
Y-130.119 F2540
G3 X-36.905 Y-129.594 I-0.525 J0
G1 X-37.405
G3 X-37.93 Y-130.119 I0 J-0.525
G1 Y-136.583
Y-141.119
G3 X-37.405 Y-141.644 I0.525 J0
G1 X-36.905
G3 X-36.38 Y-141.119 I0 J0.525
G1 Y-139.213
Y-130.622 Z-3 F1016
Y-130.119 F2540
G3 X-36.905 Y-129.594 I-0.525 J0
G1 X-37.405
G3 X-37.93 Y-130.119 I0 J-0.525
G1 Y-141.119
G3 X-37.405 Y-141.644 I0.525 J0
G1 X-36.905
G3 X-36.38 Y-141.119 I0 J0.525
G1 Y-130.622
Y-130.119 Z-3.018 F1016
G3 X-36.905 Y-129.594 Z-3.046 I-0.525 J0
G1 X-37.405 Z-3.064
G3 X-37.93 Y-130.119 Z-3.093 I0 J-0.525
G1 Y-133.193 Z-3.2
Y-141.119 F2540
G3 X-37.405 Y-141.644 I0.525 J0
G1 X-36.905
G3 X-36.38 Y-141.119 I0 J0.525
G1 Y-130.622
Y-130.119
G3 X-36.905 Y-129.594 I-0.525 J0
G1 X-37.405
G3 X-37.93 Y-130.119 I0 J-0.525
G1 Y-133.193
G0 Z5
X-27.502 Y-122.563
G1 Z1.3 F508
Z0.5
X-27.524 Z0.499 F1016
G3 X-28.049 Y-123.088 Z0.47 I0 J-0.525
G1 Y-145.15 Z-0.3
Y-148.15 F2540
G3 X-27.524 Y-148.675 I0.525 J0
G1 X-21.524
G3 X-20.999 Y-148.15 I0 J0.525
G1 Y-123.088
G3 X-21.524 Y-122.563 I-0.525 J0
G1 X-27.524
G3 X-28.049 Y-123.088 I0 J-0.525
G1 Y-145.15
Y-148.15 Z-0.405 F1016
G3 X-27.524 Y-148.675 Z-0.434 I0.525 J0
G1 X-22.758 Z-0.6
X-21.524 F2540
G3 X-20.999 Y-148.15 I0 J0.525
G1 Y-123.088
G3 X-21.524 Y-122.563 I-0.525 J0
G1 X-27.524
G3 X-28.049 Y-123.088 I0 J-0.525
G1 Y-145.15
Y-148.15
G3 X-27.524 Y-148.675 I0.525 J0
G1 X-22.758
X-21.524 Z-0.643 F1016
G3 X-20.999 Y-148.15 Z-0.672 I0 J0.525
G1 Y-141.618 Z-0.9
Y-123.088 F2540
G3 X-21.524 Y-122.563 I-0.525 J0
G1 X-27.524
G3 X-28.049 Y-123.088 I0 J-0.525
G1 Y-148.15
G3 X-27.524 Y-148.675 I0.525 J0
G1 X-22.758
X-21.524
G3 X-20.999 Y-148.15 I0 J0.525
G1 Y-141.618
Y-133.027 Z-1.2 F1016
Y-123.088 F2540
G3 X-21.524 Y-122.563 I-0.525 J0
G1 X-27.524
G3 X-28.049 Y-123.088 I0 J-0.525
G1 Y-148.15
G3 X-27.524 Y-148.675 I0.525 J0
G1 X-21.524
G3 X-20.999 Y-148.15 I0 J0.525
G1 Y-133.027
Y-124.436 Z-1.5 F1016
Y-123.088 F2540
G3 X-21.524 Y-122.563 I-0.525 J0
G1 X-27.524
G3 X-28.049 Y-123.088 I0 J-0.525
G1 Y-148.15
G3 X-27.524 Y-148.675 I0.525 J0
G1 X-21.524
G3 X-20.999 Y-148.15 I0 J0.525
G1 Y-133.027
Y-124.436
Y-123.088 Z-1.547 F1016
G3 X-21.524 Y-122.563 Z-1.576 I-0.525 J0
G1 X-27.524 Z-1.785
G3 X-27.9 Y-122.721 Z-1.8 I0 J-0.525
X-28.049 Y-123.088 I0.375 J-0.367 F2540
G1 Y-148.15
G3 X-27.524 Y-148.675 I0.525 J0
G1 X-21.524
G3 X-20.999 Y-148.15 I0 J0.525
G1 Y-124.436
Y-123.088
G3 X-21.524 Y-122.563 I-0.525 J0
G1 X-27.524
G3 X-27.9 Y-122.721 I0 J-0.525
X-28.049 Y-123.088 Z-1.814 I0.375 J-0.367 F1016
G1 Y-131.273 Z-2.1
Y-148.15 F2540
G3 X-27.524 Y-148.675 I0.525 J0
G1 X-21.524
G3 X-20.999 Y-148.15 I0 J0.525
G1 Y-123.088
G3 X-21.524 Y-122.563 I-0.525 J0
G1 X-27.524
G3 X-28.049 Y-123.088 I0 J-0.525
G1 Y-131.273
Y-139.863 Z-2.4 F1016
Y-148.15 F2540
G3 X-27.524 Y-148.675 I0.525 J0
G1 X-21.524
G3 X-20.999 Y-148.15 I0 J0.525
G1 Y-123.088
G3 X-21.524 Y-122.563 I-0.525 J0
G1 X-27.524
G3 X-28.049 Y-123.088 I0 J-0.525
G1 Y-139.863
Y-148.15 Z-2.689 F1016
G3 X-27.963 Y-148.438 Z-2.7 I0.525 J0
X-27.524 Y-148.675 I0.439 J0.288 F2540
G1 X-21.524
G3 X-20.999 Y-148.15 I0 J0.525
G1 Y-123.088
G3 X-21.524 Y-122.563 I-0.525 J0
G1 X-27.524
G3 X-28.049 Y-123.088 I0 J-0.525
G1 Y-139.863
Y-148.15
G3 X-27.963 Y-148.438 I0.525 J0
X-27.524 Y-148.675 Z-2.718 I0.439 J0.288 F1016
G1 X-21.524 Z-2.928
G3 X-20.999 Y-148.15 Z-2.956 I0 J0.525
G1 Y-146.904 Z-3
Y-123.088 F2540
G3 X-21.524 Y-122.563 I-0.525 J0
G1 X-27.524
G3 X-28.049 Y-123.088 I0 J-0.525
G1 Y-148.15
G3 X-27.524 Y-148.675 I0.525 J0
G1 X-21.524
G3 X-20.999 Y-148.15 I0 J0.525
G1 Y-146.904
Y-141.177 Z-3.2 F1016
Y-123.088 F2540
G3 X-21.524 Y-122.563 I-0.525 J0
G1 X-27.524
G3 X-28.049 Y-123.088 I0 J-0.525
G1 Y-148.15
G3 X-27.524 Y-148.675 I0.525 J0
G1 X-21.524
G3 X-20.999 Y-148.15 I0 J0.525
G1 Y-141.177
G0 Z5
X-11.118 Y-140.129
G1 Z1.3 F508
Z0.5
Y-130.119 Z0.15 F1016
G3 X-11.643 Y-129.594 Z0.122 I-0.525 J0
G1 X-12.143 Z0.104
G3 X-12.668 Y-130.119 Z0.075 I0 J-0.525
G1 Y-140.869 Z-0.3
Y-141.119 F2540
G3 X-12.143 Y-141.644 I0.525 J0
G1 X-11.643
G3 X-11.118 Y-141.119 I0 J0.525
G1 Y-130.119
G3 X-11.643 Y-129.594 I-0.525 J0
G1 X-12.143
G3 X-12.668 Y-130.119 I0 J-0.525
G1 Y-140.869
Y-141.119 Z-0.309 F1016
G3 X-12.143 Y-141.644 Z-0.338 I0.525 J0
G1 X-11.643 Z-0.355
G3 X-11.118 Y-141.119 Z-0.384 I0 J0.525
G1 Y-134.927 Z-0.6
Y-130.119 F2540
G3 X-11.643 Y-129.594 I-0.525 J0
G1 X-12.143
G3 X-12.668 Y-130.119 I0 J-0.525
G1 Y-140.869
Y-141.119
G3 X-12.143 Y-141.644 I0.525 J0
G1 X-11.643
G3 X-11.118 Y-141.119 I0 J0.525
G1 Y-134.927
Y-130.119 Z-0.768 F1016
G3 X-11.643 Y-129.594 Z-0.797 I-0.525 J0
G1 X-12.143 Z-0.814
G3 X-12.668 Y-130.119 Z-0.843 I0 J-0.525
G1 Y-131.752 Z-0.9
Y-141.119 F2540
G3 X-12.143 Y-141.644 I0.525 J0
G1 X-11.643
G3 X-11.118 Y-141.119 I0 J0.525
G1 Y-134.927
Y-130.119
G3 X-11.643 Y-129.594 I-0.525 J0
G1 X-12.143
G3 X-12.668 Y-130.119 I0 J-0.525
G1 Y-131.752
Y-140.343 Z-1.2 F1016
Y-141.119 F2540
G3 X-12.143 Y-141.644 I0.525 J0
G1 X-11.643
G3 X-11.118 Y-141.119 I0 J0.525
G1 Y-130.119
G3 X-11.643 Y-129.594 I-0.525 J0
G1 X-12.143
G3 X-12.668 Y-130.119 I0 J-0.525
G1 Y-140.343
Y-141.119 Z-1.227 F1016
G3 X-12.143 Y-141.644 Z-1.256 I0.525 J0
G1 X-11.643 Z-1.273
G3 X-11.118 Y-141.119 Z-1.302 I0 J0.525
G1 Y-135.454 Z-1.5
Y-130.119 F2540
G3 X-11.643 Y-129.594 I-0.525 J0
G1 X-12.143
G3 X-12.668 Y-130.119 I0 J-0.525
G1 Y-140.343
Y-141.119
G3 X-12.143 Y-141.644 I0.525 J0
G1 X-11.643
G3 X-11.118 Y-141.119 I0 J0.525
G1 Y-135.454
Y-130.119 Z-1.686 F1016
G3 X-11.643 Y-129.594 Z-1.715 I-0.525 J0
G1 X-12.143 Z-1.733
G3 X-12.668 Y-130.119 Z-1.761 I0 J-0.525
G1 Y-131.226 Z-1.8
Y-141.119 F2540
G3 X-12.143 Y-141.644 I0.525 J0
G1 X-11.643
G3 X-11.118 Y-141.119 I0 J0.525
G1 Y-135.454
Y-130.119
G3 X-11.643 Y-129.594 I-0.525 J0
G1 X-12.143
G3 X-12.668 Y-130.119 I0 J-0.525
G1 Y-131.226
Y-139.817 Z-2.1 F1016
Y-141.119 F2540
G3 X-12.143 Y-141.644 I0.525 J0
G1 X-11.643
G3 X-11.118 Y-141.119 I0 J0.525
G1 Y-130.119
G3 X-11.643 Y-129.594 I-0.525 J0
G1 X-12.143
G3 X-12.668 Y-130.119 I0 J-0.525
G1 Y-139.817
Y-141.119 Z-2.145 F1016
G3 X-12.143 Y-141.644 Z-2.174 I0.525 J0
G1 X-11.643 Z-2.192
G3 X-11.118 Y-141.119 Z-2.221 I0 J0.525
G1 Y-135.98 Z-2.4
Y-130.119 F2540
G3 X-11.643 Y-129.594 I-0.525 J0
G1 X-12.143
G3 X-12.668 Y-130.119 I0 J-0.525
G1 Y-139.817
Y-141.119
G3 X-12.143 Y-141.644 I0.525 J0
G1 X-11.643
G3 X-11.118 Y-141.119 I0 J0.525
G1 Y-135.98
Y-130.119 Z-2.605 F1016
G3 X-11.643 Y-129.594 Z-2.633 I-0.525 J0
G1 X-12.143 Z-2.651
G3 X-12.668 Y-130.119 Z-2.68 I0 J-0.525
G1 Y-130.7 Z-2.7
Y-141.119 F2540
G3 X-12.143 Y-141.644 I0.525 J0
G1 X-11.643
G3 X-11.118 Y-141.119 I0 J0.525
G1 Y-130.119
G3 X-11.643 Y-129.594 I-0.525 J0
G1 X-12.143
G3 X-12.668 Y-130.119 I0 J-0.525
G1 Y-130.7
Y-139.291 Z-3 F1016
Y-141.119 F2540
G3 X-12.143 Y-141.644 I0.525 J0
G1 X-11.643
G3 X-11.118 Y-141.119 I0 J0.525
G1 Y-130.119
G3 X-11.643 Y-129.594 I-0.525 J0
G1 X-12.143
G3 X-12.668 Y-130.119 I0 J-0.525
G1 Y-139.291
Y-141.119 Z-3.064 F1016
G3 X-12.143 Y-141.644 Z-3.093 I0.525 J0
G1 X-11.643 Z-3.11
G3 X-11.118 Y-141.119 Z-3.139 I0 J0.525
G1 Y-139.369 Z-3.2
Y-130.119 F2540
G3 X-11.643 Y-129.594 I-0.525 J0
G1 X-12.143
G3 X-12.668 Y-130.119 I0 J-0.525
G1 Y-139.291
Y-141.119
G3 X-12.143 Y-141.644 I0.525 J0
G1 X-11.643
G3 X-11.118 Y-141.119 I0 J0.525
G1 Y-139.369
G0 Z15

(Bohrfrasen10)
S8000 M3
X-15.384 Y-100.341
Z15
Z2
G1 Z0.195 F1016
X-15.388 Y-100.336 Z0.145
X-15.402 Y-100.322 Z0.097
X-15.424 Y-100.3 Z0.057
X-15.453 Y-100.272 Z0.026
X-15.486 Y-100.238 Z0.007
X-15.521 Y-100.203 Z0
X-15.59 Y-100.134
G3 X-15.866 Y-100.134 I-0.138 J-0.138
X-14.134 Y-101.866 Z-0.5 I0.866 J-0.866 F2540
X-15.866 Y-100.134 Z-1 I-0.866 J0.866
X-14.134 Y-101.866 Z-1.5 I0.866 J-0.866
X-15.866 Y-100.134 Z-2 I-0.866 J0.866
X-14.134 Y-101.866 Z-2.5 I0.866 J-0.866
X-15.866 Y-100.134 Z-3 I-0.866 J0.866
X-16.091 Y-101.556 Z-3.2 I0.866 J-0.866
X-13.909 Y-100.444 I1.091 J0.556
X-16.091 Y-101.556 I-1.091 J-0.556
X-15.829 Y-101.641 I0.174 J0.089 F1016
G1 X-15.742 Y-101.597
X-15.697 Y-101.574 Z-3.193
X-15.655 Y-101.553 Z-3.174
X-15.619 Y-101.534 Z-3.143
X-15.592 Y-101.52 Z-3.102
X-15.575 Y-101.512 Z-3.055
X-15.569 Y-101.509 Z-3.005
G0 Z5
X-15.384 Y-73.674
Z2
G1 Z0.195 F1016
X-15.388 Y-73.669 Z0.145
X-15.402 Y-73.655 Z0.097
X-15.424 Y-73.634 Z0.057
X-15.453 Y-73.605 Z0.026
X-15.486 Y-73.572 Z0.007
X-15.521 Y-73.536 Z0
X-15.59 Y-73.467
G3 X-15.866 Y-73.467 I-0.138 J-0.138
X-14.134 Y-75.2 Z-0.5 I0.866 J-0.866 F2540
X-15.866 Y-73.467 Z-1 I-0.866 J0.866
X-14.134 Y-75.2 Z-1.5 I0.866 J-0.866
X-15.866 Y-73.467 Z-2 I-0.866 J0.866
X-14.134 Y-75.2 Z-2.5 I0.866 J-0.866
X-15.866 Y-73.467 Z-3 I-0.866 J0.866
X-16.091 Y-74.889 Z-3.2 I0.866 J-0.866
X-13.909 Y-73.777 I1.091 J0.556
X-16.091 Y-74.889 I-1.091 J-0.556
X-15.829 Y-74.975 I0.174 J0.089 F1016
G1 X-15.742 Y-74.93
X-15.697 Y-74.908 Z-3.193
X-15.655 Y-74.886 Z-3.174
X-15.619 Y-74.868 Z-3.143
X-15.592 Y-74.854 Z-3.103
X-15.575 Y-74.845 Z-3.055
X-15.569 Y-74.842 Z-3.005
G0 Z5
X-15.384 Y-47.007
Z2
G1 Z0.195 F1016
X-15.388 Y-47.003 Z0.145
X-15.402 Y-46.989 Z0.097
X-15.424 Y-46.967 Z0.057
X-15.453 Y-46.938 Z0.026
X-15.486 Y-46.905 Z0.007
X-15.521 Y-46.869 Z0
X-15.59 Y-46.8
G3 X-15.866 Y-46.8 I-0.138 J-0.138
X-14.134 Y-48.533 Z-0.5 I0.866 J-0.866 F2540
X-15.866 Y-46.8 Z-1 I-0.866 J0.866
X-14.134 Y-48.533 Z-1.5 I0.866 J-0.866
X-15.866 Y-46.8 Z-2 I-0.866 J0.866
X-14.134 Y-48.533 Z-2.5 I0.866 J-0.866
X-15.866 Y-46.8 Z-3 I-0.866 J0.866
X-16.091 Y-48.223 Z-3.2 I0.866 J-0.866
X-13.909 Y-47.111 I1.091 J0.556
X-16.091 Y-48.223 I-1.091 J-0.556
X-15.829 Y-48.308 I0.174 J0.089 F1016
G1 X-15.742 Y-48.264
X-15.697 Y-48.241 Z-3.193
X-15.655 Y-48.219 Z-3.174
X-15.619 Y-48.201 Z-3.143
X-15.592 Y-48.187 Z-3.102
X-15.575 Y-48.178 Z-3.055
X-15.569 Y-48.175 Z-3.005
G0 Z5
X-15.384 Y-20.341
Z2
G1 Z0.195 F1016
X-15.388 Y-20.336 Z0.145
X-15.402 Y-20.322 Z0.097
X-15.424 Y-20.3 Z0.057
X-15.453 Y-20.272 Z0.026
X-15.486 Y-20.238 Z0.007
X-15.521 Y-20.203 Z0
X-15.59 Y-20.134
G3 X-15.866 Y-20.134 I-0.138 J-0.138
X-14.134 Y-21.866 Z-0.5 I0.866 J-0.866 F2540
X-15.866 Y-20.134 Z-1 I-0.866 J0.866
X-14.134 Y-21.866 Z-1.5 I0.866 J-0.866
X-15.866 Y-20.134 Z-2 I-0.866 J0.866
X-14.134 Y-21.866 Z-2.5 I0.866 J-0.866
X-15.866 Y-20.134 Z-3 I-0.866 J0.866
X-16.091 Y-21.556 Z-3.2 I0.866 J-0.866
X-13.909 Y-20.444 I1.091 J0.556
X-16.091 Y-21.556 I-1.091 J-0.556
X-15.829 Y-21.641 I0.174 J0.089 F1016
G1 X-15.742 Y-21.597
X-15.697 Y-21.574 Z-3.193
X-15.655 Y-21.553 Z-3.174
X-15.619 Y-21.534 Z-3.143
X-15.592 Y-21.52 Z-3.102
X-15.575 Y-21.512 Z-3.055
X-15.569 Y-21.509 Z-3.005
G0 Z5
X-88.815 Y-9.01
Z2
G1 Z0.195 F1016
X-88.811 Y-9.015 Z0.145
X-88.797 Y-9.028 Z0.097
X-88.775 Y-9.05 Z0.057
X-88.747 Y-9.079 Z0.026
X-88.713 Y-9.112 Z0.007
X-88.678 Y-9.148 Z0
X-88.609 Y-9.217
G3 X-88.333 Y-9.217 I0.138 J0.138
X-90.065 Y-7.484 Z-0.5 I-0.866 J0.866 F2540
X-88.333 Y-9.217 Z-1 I0.866 J-0.866
X-90.065 Y-7.484 Z-1.5 I-0.866 J0.866
X-88.333 Y-9.217 Z-2 I0.866 J-0.866
X-90.065 Y-7.484 Z-2.5 I-0.866 J0.866
X-88.333 Y-9.217 Z-3 I0.866 J-0.866
X-88.108 Y-7.794 Z-3.2 I-0.866 J0.866
X-90.291 Y-8.907 I-1.091 J-0.556
X-88.108 Y-7.794 I1.091 J0.556
X-88.37 Y-7.709 I-0.174 J-0.089 F1016
G1 X-88.457 Y-7.753
X-88.502 Y-7.776 Z-3.193
X-88.544 Y-7.798 Z-3.174
X-88.58 Y-7.816 Z-3.143
X-88.607 Y-7.83 Z-3.102
X-88.625 Y-7.839 Z-3.055
X-88.631 Y-7.842 Z-3.005
G0 Z5
X-88.815 Y-35.677
Z2
G1 Z0.195 F1016
X-88.811 Y-35.681 Z0.145
X-88.797 Y-35.695 Z0.097
X-88.775 Y-35.717 Z0.057
X-88.747 Y-35.746 Z0.026
X-88.713 Y-35.779 Z0.007
X-88.678 Y-35.815 Z0
X-88.609 Y-35.883
G3 X-88.333 Y-35.883 I0.138 J0.138
X-90.065 Y-34.151 Z-0.5 I-0.866 J0.866 F2540
X-88.333 Y-35.883 Z-1 I0.866 J-0.866
X-90.065 Y-34.151 Z-1.5 I-0.866 J0.866
X-88.333 Y-35.883 Z-2 I0.866 J-0.866
X-90.065 Y-34.151 Z-2.5 I-0.866 J0.866
X-88.333 Y-35.883 Z-3 I0.866 J-0.866
X-88.108 Y-34.461 Z-3.2 I-0.866 J0.866
X-90.291 Y-35.573 I-1.091 J-0.556
X-88.108 Y-34.461 I1.091 J0.556
X-88.37 Y-34.376 I-0.174 J-0.089 F1016
G1 X-88.457 Y-34.42
X-88.502 Y-34.443 Z-3.193
X-88.544 Y-34.464 Z-3.174
X-88.58 Y-34.483 Z-3.143
X-88.607 Y-34.497 Z-3.102
X-88.625 Y-34.506 Z-3.055
X-88.631 Y-34.509 Z-3.005
G0 Z5
X-88.815 Y-62.343
Z2
G1 Z0.195 F1016
X-88.811 Y-62.348 Z0.145
X-88.797 Y-62.362 Z0.097
X-88.775 Y-62.384 Z0.057
X-88.747 Y-62.412 Z0.026
X-88.713 Y-62.445 Z0.007
X-88.678 Y-62.481 Z0
X-88.609 Y-62.55
G3 X-88.333 Y-62.55 I0.138 J0.138
X-90.065 Y-60.818 Z-0.5 I-0.866 J0.866 F2540
X-88.333 Y-62.55 Z-1 I0.866 J-0.866
X-90.065 Y-60.818 Z-1.5 I-0.866 J0.866
X-88.333 Y-62.55 Z-2 I0.866 J-0.866
X-90.065 Y-60.818 Z-2.5 I-0.866 J0.866
X-88.333 Y-62.55 Z-3 I0.866 J-0.866
X-88.108 Y-61.128 Z-3.2 I-0.866 J0.866
X-90.291 Y-62.24 I-1.091 J-0.556
X-88.108 Y-61.128 I1.091 J0.556
X-88.37 Y-61.043 I-0.174 J-0.089 F1016
G1 X-88.457 Y-61.087
X-88.502 Y-61.11 Z-3.193
X-88.544 Y-61.131 Z-3.174
X-88.58 Y-61.149 Z-3.143
X-88.607 Y-61.163 Z-3.102
X-88.625 Y-61.172 Z-3.055
X-88.631 Y-61.175 Z-3.005
G0 Z5
X-88.815 Y-89.01
Z2
G1 Z0.195 F1016
X-88.811 Y-89.015 Z0.145
X-88.797 Y-89.028 Z0.097
X-88.775 Y-89.05 Z0.057
X-88.747 Y-89.079 Z0.026
X-88.713 Y-89.112 Z0.007
X-88.678 Y-89.148 Z0
X-88.609 Y-89.217
G3 X-88.333 Y-89.217 I0.138 J0.138
X-90.065 Y-87.484 Z-0.5 I-0.866 J0.866 F2540
X-88.333 Y-89.217 Z-1 I0.866 J-0.866
X-90.065 Y-87.484 Z-1.5 I-0.866 J0.866
X-88.333 Y-89.217 Z-2 I0.866 J-0.866
X-90.065 Y-87.484 Z-2.5 I-0.866 J0.866
X-88.333 Y-89.217 Z-3 I0.866 J-0.866
X-88.108 Y-87.794 Z-3.2 I-0.866 J0.866
X-90.291 Y-88.907 I-1.091 J-0.556
X-88.108 Y-87.794 I1.091 J0.556
X-88.37 Y-87.709 I-0.174 J-0.089 F1016
G1 X-88.457 Y-87.753
X-88.502 Y-87.776 Z-3.193
X-88.544 Y-87.798 Z-3.174
X-88.58 Y-87.816 Z-3.143
X-88.607 Y-87.83 Z-3.102
X-88.625 Y-87.839 Z-3.055
X-88.631 Y-87.842 Z-3.005
G0 Z15

(2D-Kontur6)
S6000 M3
X-83.955 Y-68.288
Z15
Z5
G1 Z1.3 F508
Z0.5
X-84.396 Y-68.337 Z0.485 F1016
X-84.408 Y-68.338 Z0.484
X-85.805 Y-68.477 Z0.435
X-85.824 Y-68.479 Z0.434
X-87.177 Y-68.586 Z0.387
X-87.198 Y-68.587 Z0.386
X-87.861 Y-68.625 Z0.363
X-87.881 Y-68.626 Z0.362
X-88.54 Y-68.65 Z0.339
X-88.563 Y-68.651
X-89.224 Y-68.659 Z0.315
X-89.252
X-89.92 Y-68.648 Z0.291
X-89.95 Y-68.647 Z0.29
X-90.632 Y-68.614 Z0.266
X-90.664 Y-68.612 Z0.265
X-91.365 Y-68.555 Z0.241
X-91.397 Y-68.552 Z0.239
X-92.119 Y-68.469 Z0.214
X-92.151 Y-68.465 Z0.213
X-92.895 Y-68.356 Z0.187
X-92.925 Y-68.351 Z0.186
X-93.689 Y-68.213 Z0.159
X-93.719 Y-68.208 Z0.157
X-94.5 Y-68.043 Z0.13
X-94.528 Y-68.036 Z0.129
X-95.322 Y-67.843 Z0.1
X-95.35 Y-67.836 Z0.099
X-96.149 Y-67.617 Z0.07
X-96.178 Y-67.609 Z0.069
X-96.976 Y-67.363 Z0.04
X-97.005 Y-67.354 Z0.039
X-97.794 Y-67.084 Z0.01
X-97.825 Y-67.073 Z0.009
X-98.598 Y-66.78 Z-0.02
X-98.63 Y-66.767 Z-0.022
X-99.377 Y-66.453 Z-0.05
X-99.413 Y-66.437 Z-0.051
X-100.125 Y-66.103 Z-0.079
X-100.165 Y-66.083 Z-0.08
X-100.834 Y-65.732 Z-0.107
X-100.868 Y-65.713 Z-0.108
X-101.183 Y-65.532 Z-0.121
X-101.207 Y-65.518 Z-0.122
X-101.508 Y-65.333 Z-0.134
X-101.533 Y-65.316 Z-0.135
X-101.819 Y-65.128 Z-0.147
X-101.848 Y-65.108 Z-0.148
X-102.117 Y-64.917 Z-0.16
X-102.147 Y-64.895 Z-0.161
X-102.399 Y-64.701 Z-0.172
X-102.433 Y-64.673 Z-0.174
X-102.666 Y-64.477 Z-0.184
X-102.699 Y-64.448 Z-0.186
X-102.914 Y-64.249 Z-0.196
X-102.953 Y-64.21 Z-0.198
X-103.147 Y-64.01 Z-0.208
X-103.187 Y-63.966 Z-0.21
X-103.36 Y-63.763 Z-0.219
X-103.401 Y-63.713 Z-0.221
X-103.553 Y-63.509 Z-0.23
X-103.595 Y-63.448 Z-0.233
X-103.725 Y-63.242 Z-0.241
X-103.768 Y-63.167 Z-0.244
X-103.874 Y-62.961 Z-0.252
X-103.91 Y-62.881 Z-0.255
X-103.994 Y-62.674 Z-0.263
X-104.028 Y-62.578 Z-0.267
X-104.088 Y-62.371 Z-0.274
X-104.112 Y-62.266 Z-0.278
X-104.148 Y-62.058 Z-0.285
X-104.16 Y-61.948 Z-0.289
X-104.172 Y-61.74 Z-0.297
X-104.173 Y-61.644 Z-0.3
X-104.172 Y-61.628 F2540
X-104.16 Y-61.42
X-104.148 Y-61.309
X-104.112 Y-61.101
X-104.088 Y-60.997
X-104.028 Y-60.789
X-103.994 Y-60.694
X-103.91 Y-60.487
X-103.874 Y-60.407
X-103.768 Y-60.201
X-103.725 Y-60.125
X-103.595 Y-59.92
X-103.553 Y-59.859
X-103.401 Y-59.655
X-103.36 Y-59.605
X-103.187 Y-59.402
X-103.147 Y-59.358
X-102.953 Y-59.157
X-102.914 Y-59.119
X-102.699 Y-58.92
X-102.666 Y-58.891
X-102.433 Y-58.695
X-102.399 Y-58.667
X-102.147 Y-58.473
X-102.117 Y-58.451
X-101.848 Y-58.26
X-101.819 Y-58.24
X-101.533 Y-58.052
X-101.508 Y-58.035
X-101.207 Y-57.85
X-101.183 Y-57.836
X-100.868 Y-57.654
X-100.834 Y-57.636
X-100.165 Y-57.284
X-100.125 Y-57.265
X-99.413 Y-56.931
X-99.377 Y-56.915
X-98.63 Y-56.601
X-98.598 Y-56.588
X-97.825 Y-56.295
X-97.794 Y-56.284
X-97.005 Y-56.014
X-96.976 Y-56.004
X-96.177 Y-55.759
X-96.149 Y-55.751
X-95.35 Y-55.532
X-95.322 Y-55.524
X-94.528 Y-55.332
X-94.5 Y-55.325
X-93.719 Y-55.16
X-93.689 Y-55.154
X-92.925 Y-55.017
X-92.895 Y-55.012
X-92.151 Y-54.902
X-92.119 Y-54.898
X-91.397 Y-54.816
X-91.365 Y-54.813
X-90.664 Y-54.756
X-90.632 Y-54.754
X-89.95 Y-54.721
X-89.92 Y-54.72
X-89.252 Y-54.709
X-89.224
X-88.563 Y-54.717
X-88.539 Y-54.718
X-87.881 Y-54.742
X-87.861 Y-54.743
X-87.199 Y-54.78
X-87.177 Y-54.782
X-85.824 Y-54.889
X-85.805 Y-54.891
X-84.408 Y-55.029
X-84.396 Y-55.031
X-82.959 Y-55.191
X-82.95 Y-55.192
X-81.493 Y-55.369
X-81.484 Y-55.371
X-80.03 Y-55.561
X-80.02 Y-55.562
X-78.597 Y-55.764
X-78.585 Y-55.765
X-77.217 Y-55.977
X-77.203 Y-55.979
X-75.907 Y-56.199
X-75.896 Y-56.201
X-74.666 Y-56.424
X-74.662
X-73.479 Y-56.643
X-72.303 Y-56.847
X-71.707 Y-56.939
X-71.089 Y-57.024
X-70.446 Y-57.1
X-69.771 Y-57.167
X-69.061 Y-57.223
X-68.314 Y-57.269
X-67.529 Y-57.305
X-66.71 Y-57.331
X-65.857 Y-57.346
X-64.976 Y-57.352
X-63.129 Y-57.336
X-61.207 Y-57.288
X-59.242 Y-57.216
X-57.273 Y-57.127
X-55.335 Y-57.029
X-53.462 Y-56.932
X-53.46
X-51.678 Y-56.842
X-51.672
X-49.988 Y-56.768
X-49.979
X-48.386 Y-56.714
X-48.373 Y-56.713
X-46.85 Y-56.682
X-46.835
X-45.357 Y-56.675
X-45.342
X-43.882 Y-56.691
X-43.869 Y-56.692
X-42.408 Y-56.728
X-42.398
X-40.927 Y-56.782
X-40.92
X-39.436 Y-56.847
X-39.432
X-37.937 Y-56.919
X-36.434 Y-56.993
X-34.931 Y-57.062
X-33.436 Y-57.123
X-31.955 Y-57.169
X-30.495 Y-57.199
X-29.053 Y-57.209
G2 X-28.37 Y-57.494 I-0.007 J-0.975
G1 X-25.577 Y-60.287
G2 X-25.577 Y-63.08 I-1.397 J-1.397
G1 X-28.37 Y-65.873
G2 X-29.053 Y-66.159 I-0.689 J0.689
G1 X-30.495 Y-66.169
X-31.955 Y-66.199
X-33.436 Y-66.245
X-34.931 Y-66.305
X-36.434 Y-66.375
X-37.936 Y-66.448
X-39.432 Y-66.521
X-39.436
X-40.92 Y-66.586
X-40.927
X-42.398 Y-66.639
X-42.408 Y-66.64
X-43.869 Y-66.676
X-43.882
X-45.342 Y-66.693
X-45.357
X-46.835 Y-66.686
X-46.85
X-48.373 Y-66.655
X-48.386 Y-66.654
X-49.979 Y-66.6
X-49.988
X-51.672 Y-66.526
X-51.678 Y-66.525
X-53.46 Y-66.436
X-53.462
X-55.335 Y-66.339
X-57.273 Y-66.241
X-59.242 Y-66.152
X-61.207 Y-66.079
X-63.129 Y-66.032
X-64.976 Y-66.016
X-65.857 Y-66.021
X-66.71 Y-66.037
X-67.529 Y-66.062
X-68.314 Y-66.098
X-69.061 Y-66.145
X-69.771 Y-66.201
X-70.446 Y-66.268
X-71.089 Y-66.344
X-71.707 Y-66.429
X-72.303 Y-66.521
X-73.479 Y-66.725
X-74.662 Y-66.943
X-74.666 Y-66.944
X-75.896 Y-67.167
X-75.907 Y-67.169
X-77.204 Y-67.389
X-77.217 Y-67.391
X-78.584 Y-67.603
X-78.597 Y-67.604
X-80.02 Y-67.806
X-80.03 Y-67.807
X-81.484 Y-67.997
X-81.493 Y-67.998
X-82.95 Y-68.175
X-82.959 Y-68.177
X-84.396 Y-68.337
X-84.408 Y-68.338
X-85.805 Y-68.477
X-85.824 Y-68.479
X-87.177 Y-68.586
X-87.198 Y-68.587
X-87.861 Y-68.625
X-87.881 Y-68.626
X-88.54 Y-68.65
X-88.563 Y-68.651
X-89.224 Y-68.659
X-89.252
X-89.92 Y-68.648
X-89.95 Y-68.647
X-90.632 Y-68.614
X-90.664 Y-68.612
X-91.365 Y-68.555
X-91.397 Y-68.552
X-92.119 Y-68.469
X-92.151 Y-68.465
X-92.895 Y-68.356
X-92.925 Y-68.351
X-93.689 Y-68.213
X-93.719 Y-68.208
X-94.5 Y-68.043
X-94.528 Y-68.036
X-95.322 Y-67.843
X-95.35 Y-67.836
X-96.149 Y-67.617
X-96.178 Y-67.609
X-96.976 Y-67.363
X-97.005 Y-67.354
X-97.794 Y-67.084
X-97.825 Y-67.073
X-98.598 Y-66.78
X-98.63 Y-66.767
X-99.377 Y-66.453
X-99.413 Y-66.437
X-100.125 Y-66.103
X-100.165 Y-66.083
X-100.834 Y-65.732
X-100.868 Y-65.713
X-101.183 Y-65.532
X-101.207 Y-65.518
X-101.508 Y-65.333
X-101.533 Y-65.316
X-101.819 Y-65.128
X-101.848 Y-65.108
X-102.117 Y-64.917
X-102.147 Y-64.895
X-102.399 Y-64.701
X-102.433 Y-64.673
X-102.666 Y-64.477
X-102.699 Y-64.448
X-102.914 Y-64.249
X-102.953 Y-64.21
X-103.147 Y-64.01
X-103.187 Y-63.966
X-103.36 Y-63.763
X-103.401 Y-63.713
X-103.553 Y-63.509
X-103.595 Y-63.448
X-103.725 Y-63.242
X-103.768 Y-63.167
X-103.874 Y-62.961
X-103.91 Y-62.881
X-103.994 Y-62.674
X-104.028 Y-62.578
X-104.088 Y-62.371
X-104.112 Y-62.266
X-104.148 Y-62.058
X-104.16 Y-61.948
X-104.172 Y-61.74
X-104.173 Y-61.644
X-104.172 Y-61.628 Z-0.301 F1016
X-104.16 Y-61.42 Z-0.308
X-104.148 Y-61.309 Z-0.312
X-104.112 Y-61.101 Z-0.319
X-104.088 Y-60.997 Z-0.323
X-104.028 Y-60.789 Z-0.33
X-103.994 Y-60.694 Z-0.334
X-103.91 Y-60.487 Z-0.342
X-103.874 Y-60.407 Z-0.345
X-103.768 Y-60.201 Z-0.353
X-103.725 Y-60.125 Z-0.356
X-103.595 Y-59.92 Z-0.364
X-103.553 Y-59.859 Z-0.367
X-103.401 Y-59.655 Z-0.376
X-103.36 Y-59.605 Z-0.378
X-103.187 Y-59.402 Z-0.387
X-103.147 Y-59.358 Z-0.39
X-102.953 Y-59.157 Z-0.399
X-102.914 Y-59.119 Z-0.401
X-102.699 Y-58.92 Z-0.411
X-102.666 Y-58.891 Z-0.413
X-102.433 Y-58.695 Z-0.424
X-102.399 Y-58.667 Z-0.425
X-102.147 Y-58.473 Z-0.436
X-102.117 Y-58.451 Z-0.438
X-101.848 Y-58.26 Z-0.449
X-101.819 Y-58.24 Z-0.45
X-101.533 Y-58.052 Z-0.462
X-101.508 Y-58.035 Z-0.463
X-101.207 Y-57.85 Z-0.476
X-101.183 Y-57.836 Z-0.477
X-100.868 Y-57.654 Z-0.489
X-100.834 Y-57.636 Z-0.491
X-100.165 Y-57.284 Z-0.517
X-100.125 Y-57.265 Z-0.519
X-99.413 Y-56.931 Z-0.546
X-99.377 Y-56.915 Z-0.547
X-98.63 Y-56.601 Z-0.576
X-98.598 Y-56.588 Z-0.577
X-97.98 Y-56.353 Z-0.6
X-97.825 Y-56.295 F2540
X-97.794 Y-56.284
X-97.005 Y-56.014
X-96.976 Y-56.004
X-96.177 Y-55.759
X-96.149 Y-55.751
X-95.35 Y-55.532
X-95.322 Y-55.524
X-94.528 Y-55.332
X-94.5 Y-55.325
X-93.719 Y-55.16
X-93.689 Y-55.154
X-92.925 Y-55.017
X-92.895 Y-55.012
X-92.151 Y-54.902
X-92.119 Y-54.898
X-91.397 Y-54.816
X-91.365 Y-54.813
X-90.664 Y-54.756
X-90.632 Y-54.754
X-89.95 Y-54.721
X-89.92 Y-54.72
X-89.252 Y-54.709
X-89.224
X-88.563 Y-54.717
X-88.539 Y-54.718
X-87.881 Y-54.742
X-87.861 Y-54.743
X-87.199 Y-54.78
X-87.177 Y-54.782
X-85.824 Y-54.889
X-85.805 Y-54.891
X-84.408 Y-55.029
X-84.396 Y-55.031
X-82.959 Y-55.191
X-82.95 Y-55.192
X-81.493 Y-55.369
X-81.484 Y-55.371
X-80.03 Y-55.561
X-80.02 Y-55.562
X-78.597 Y-55.764
X-78.585 Y-55.765
X-77.217 Y-55.977
X-77.203 Y-55.979
X-75.907 Y-56.199
X-75.896 Y-56.201
X-74.666 Y-56.424
X-74.662
X-73.479 Y-56.643
X-72.303 Y-56.847
X-71.707 Y-56.939
X-71.089 Y-57.024
X-70.446 Y-57.1
X-69.771 Y-57.167
X-69.061 Y-57.223
X-68.314 Y-57.269
X-67.529 Y-57.305
X-66.71 Y-57.331
X-65.857 Y-57.346
X-64.976 Y-57.352
X-63.129 Y-57.336
X-61.207 Y-57.288
X-59.242 Y-57.216
X-57.273 Y-57.127
X-55.335 Y-57.029
X-53.462 Y-56.932
X-53.46
X-51.678 Y-56.842
X-51.672
X-49.988 Y-56.768
X-49.979
X-48.386 Y-56.714
X-48.373 Y-56.713
X-46.85 Y-56.682
X-46.835
X-45.357 Y-56.675
X-45.342
X-43.882 Y-56.691
X-43.869 Y-56.692
X-42.408 Y-56.728
X-42.398
X-40.927 Y-56.782
X-40.92
X-39.436 Y-56.847
X-39.432
X-37.937 Y-56.919
X-36.434 Y-56.993
X-34.931 Y-57.062
X-33.436 Y-57.123
X-31.955 Y-57.169
X-30.495 Y-57.199
X-29.053 Y-57.209
G2 X-28.37 Y-57.494 I-0.007 J-0.975
G1 X-25.577 Y-60.287
G2 X-25.577 Y-63.08 I-1.397 J-1.397
G1 X-28.37 Y-65.873
G2 X-29.053 Y-66.159 I-0.689 J0.689
G1 X-30.495 Y-66.169
X-31.955 Y-66.199
X-33.436 Y-66.245
X-34.931 Y-66.305
X-36.434 Y-66.375
X-37.936 Y-66.448
X-39.432 Y-66.521
X-39.436
X-40.92 Y-66.586
X-40.927
X-42.398 Y-66.639
X-42.408 Y-66.64
X-43.869 Y-66.676
X-43.882
X-45.342 Y-66.693
X-45.357
X-46.835 Y-66.686
X-46.85
X-48.373 Y-66.655
X-48.386 Y-66.654
X-49.979 Y-66.6
X-49.988
X-51.672 Y-66.526
X-51.678 Y-66.525
X-53.46 Y-66.436
X-53.462
X-55.335 Y-66.339
X-57.273 Y-66.241
X-59.242 Y-66.152
X-61.207 Y-66.079
X-63.129 Y-66.032
X-64.976 Y-66.016
X-65.857 Y-66.021
X-66.71 Y-66.037
X-67.529 Y-66.062
X-68.314 Y-66.098
X-69.061 Y-66.145
X-69.771 Y-66.201
X-70.446 Y-66.268
X-71.089 Y-66.344
X-71.707 Y-66.429
X-72.303 Y-66.521
X-73.479 Y-66.725
X-74.662 Y-66.943
X-74.666 Y-66.944
X-75.896 Y-67.167
X-75.907 Y-67.169
X-77.204 Y-67.389
X-77.217 Y-67.391
X-78.584 Y-67.603
X-78.597 Y-67.604
X-80.02 Y-67.806
X-80.03 Y-67.807
X-81.484 Y-67.997
X-81.493 Y-67.998
X-82.95 Y-68.175
X-82.959 Y-68.177
X-84.396 Y-68.337
X-84.408 Y-68.338
X-85.805 Y-68.477
X-85.824 Y-68.479
X-87.177 Y-68.586
X-87.198 Y-68.587
X-87.861 Y-68.625
X-87.881 Y-68.626
X-88.54 Y-68.65
X-88.563 Y-68.651
X-89.224 Y-68.659
X-89.252
X-89.92 Y-68.648
X-89.95 Y-68.647
X-90.632 Y-68.614
X-90.664 Y-68.612
X-91.365 Y-68.555
X-91.397 Y-68.552
X-92.119 Y-68.469
X-92.151 Y-68.465
X-92.895 Y-68.356
X-92.925 Y-68.351
X-93.689 Y-68.213
X-93.719 Y-68.208
X-94.5 Y-68.043
X-94.528 Y-68.036
X-95.322 Y-67.843
X-95.35 Y-67.836
X-96.149 Y-67.617
X-96.178 Y-67.609
X-96.976 Y-67.363
X-97.005 Y-67.354
X-97.794 Y-67.084
X-97.825 Y-67.073
X-98.598 Y-66.78
X-98.63 Y-66.767
X-99.377 Y-66.453
X-99.413 Y-66.437
X-100.125 Y-66.103
X-100.165 Y-66.083
X-100.834 Y-65.732
X-100.868 Y-65.713
X-101.183 Y-65.532
X-101.207 Y-65.518
X-101.508 Y-65.333
X-101.533 Y-65.316
X-101.819 Y-65.128
X-101.848 Y-65.108
X-102.117 Y-64.917
X-102.147 Y-64.895
X-102.399 Y-64.701
X-102.433 Y-64.673
X-102.666 Y-64.477
X-102.699 Y-64.448
X-102.914 Y-64.249
X-102.953 Y-64.21
X-103.147 Y-64.01
X-103.187 Y-63.966
X-103.36 Y-63.763
X-103.401 Y-63.713
X-103.553 Y-63.509
X-103.595 Y-63.448
X-103.725 Y-63.242
X-103.768 Y-63.167
X-103.874 Y-62.961
X-103.91 Y-62.881
X-103.994 Y-62.674
X-104.028 Y-62.578
X-104.088 Y-62.371
X-104.112 Y-62.266
X-104.148 Y-62.058
X-104.16 Y-61.948
X-104.172 Y-61.74
Y-61.628
X-104.16 Y-61.42
X-104.148 Y-61.309
X-104.112 Y-61.101
X-104.088 Y-60.997
X-104.028 Y-60.789
X-103.994 Y-60.694
X-103.91 Y-60.487
X-103.874 Y-60.407
X-103.768 Y-60.201
X-103.725 Y-60.125
X-103.595 Y-59.92
X-103.553 Y-59.859
X-103.401 Y-59.655
X-103.36 Y-59.605
X-103.187 Y-59.402
X-103.147 Y-59.358
X-102.953 Y-59.157
X-102.914 Y-59.119
X-102.699 Y-58.92
X-102.666 Y-58.891
X-102.433 Y-58.695
X-102.399 Y-58.667
X-102.147 Y-58.473
X-102.117 Y-58.451
X-101.848 Y-58.26
X-101.819 Y-58.24
X-101.533 Y-58.052
X-101.508 Y-58.035
X-101.207 Y-57.85
X-101.183 Y-57.836
X-100.868 Y-57.654
X-100.834 Y-57.636
X-100.165 Y-57.284
X-100.125 Y-57.265
X-99.413 Y-56.931
X-99.377 Y-56.915
X-98.63 Y-56.601
X-98.598 Y-56.588
X-97.98 Y-56.353
X-97.825 Y-56.295 Z-0.606 F1016
X-97.794 Y-56.284 Z-0.607
X-97.005 Y-56.014 Z-0.636
X-96.976 Y-56.004 Z-0.637
X-96.177 Y-55.759 Z-0.666
X-96.149 Y-55.751 Z-0.667
X-95.35 Y-55.532 Z-0.696
X-95.322 Y-55.524 Z-0.697
X-94.528 Y-55.332 Z-0.726
X-94.5 Y-55.325 Z-0.727
X-93.719 Y-55.16 Z-0.755
X-93.689 Y-55.154 Z-0.756
X-92.925 Y-55.017 Z-0.783
X-92.895 Y-55.012 Z-0.784
X-92.151 Y-54.902 Z-0.81
X-92.119 Y-54.898 Z-0.811
X-91.397 Y-54.816 Z-0.837
X-91.365 Y-54.813 Z-0.838
X-90.664 Y-54.756 Z-0.862
X-90.632 Y-54.754 Z-0.863
X-89.95 Y-54.721 Z-0.887
X-89.92 Y-54.72 Z-0.888
X-89.588 Y-54.715 Z-0.9
X-89.252 Y-54.709 F2540
X-89.224
X-88.563 Y-54.717
X-88.539 Y-54.718
X-87.881 Y-54.742
X-87.861 Y-54.743
X-87.199 Y-54.78
X-87.177 Y-54.782
X-85.824 Y-54.889
X-85.805 Y-54.891
X-84.408 Y-55.029
X-84.396 Y-55.031
X-82.959 Y-55.191
X-82.95 Y-55.192
X-81.493 Y-55.369
X-81.484 Y-55.371
X-80.03 Y-55.561
X-80.02 Y-55.562
X-78.597 Y-55.764
X-78.585 Y-55.765
X-77.217 Y-55.977
X-77.203 Y-55.979
X-75.907 Y-56.199
X-75.896 Y-56.201
X-74.666 Y-56.424
X-74.662
X-73.479 Y-56.643
X-72.303 Y-56.847
X-71.707 Y-56.939
X-71.089 Y-57.024
X-70.446 Y-57.1
X-69.771 Y-57.167
X-69.061 Y-57.223
X-68.314 Y-57.269
X-67.529 Y-57.305
X-66.71 Y-57.331
X-65.857 Y-57.346
X-64.976 Y-57.352
X-63.129 Y-57.336
X-61.207 Y-57.288
X-59.242 Y-57.216
X-57.273 Y-57.127
X-55.335 Y-57.029
X-53.462 Y-56.932
X-53.46
X-51.678 Y-56.842
X-51.672
X-49.988 Y-56.768
X-49.979
X-48.386 Y-56.714
X-48.373 Y-56.713
X-46.85 Y-56.682
X-46.835
X-45.357 Y-56.675
X-45.342
X-43.882 Y-56.691
X-43.869 Y-56.692
X-42.408 Y-56.728
X-42.398
X-40.927 Y-56.782
X-40.92
X-39.436 Y-56.847
X-39.432
X-37.937 Y-56.919
X-36.434 Y-56.993
X-34.931 Y-57.062
X-33.436 Y-57.123
X-31.955 Y-57.169
X-30.495 Y-57.199
X-29.053 Y-57.209
G2 X-28.37 Y-57.494 I-0.007 J-0.975
G1 X-25.577 Y-60.287
G2 X-25.577 Y-63.08 I-1.397 J-1.397
G1 X-28.37 Y-65.873
G2 X-29.053 Y-66.159 I-0.689 J0.689
G1 X-30.495 Y-66.169
X-31.955 Y-66.199
X-33.436 Y-66.245
X-34.931 Y-66.305
X-36.434 Y-66.375
X-37.936 Y-66.448
X-39.432 Y-66.521
X-39.436
X-40.92 Y-66.586
X-40.927
X-42.398 Y-66.639
X-42.408 Y-66.64
X-43.869 Y-66.676
X-43.882
X-45.342 Y-66.693
X-45.357
X-46.835 Y-66.686
X-46.85
X-48.373 Y-66.655
X-48.386 Y-66.654
X-49.979 Y-66.6
X-49.988
X-51.672 Y-66.526
X-51.678 Y-66.525
X-53.46 Y-66.436
X-53.462
X-55.335 Y-66.339
X-57.273 Y-66.241
X-59.242 Y-66.152
X-61.207 Y-66.079
X-63.129 Y-66.032
X-64.976 Y-66.016
X-65.857 Y-66.021
X-66.71 Y-66.037
X-67.529 Y-66.062
X-68.314 Y-66.098
X-69.061 Y-66.145
X-69.771 Y-66.201
X-70.446 Y-66.268
X-71.089 Y-66.344
X-71.707 Y-66.429
X-72.303 Y-66.521
X-73.479 Y-66.725
X-74.662 Y-66.943
X-74.666 Y-66.944
X-75.896 Y-67.167
X-75.907 Y-67.169
X-77.204 Y-67.389
X-77.217 Y-67.391
X-78.584 Y-67.603
X-78.597 Y-67.604
X-80.02 Y-67.806
X-80.03 Y-67.807
X-81.484 Y-67.997
X-81.493 Y-67.998
X-82.95 Y-68.175
X-82.959 Y-68.177
X-84.396 Y-68.337
X-84.408 Y-68.338
X-85.805 Y-68.477
X-85.824 Y-68.479
X-87.177 Y-68.586
X-87.198 Y-68.587
X-87.861 Y-68.625
X-87.881 Y-68.626
X-88.54 Y-68.65
X-88.563 Y-68.651
X-89.224 Y-68.659
X-89.252
X-89.92 Y-68.648
X-89.95 Y-68.647
X-90.632 Y-68.614
X-90.664 Y-68.612
X-91.365 Y-68.555
X-91.397 Y-68.552
X-92.119 Y-68.469
X-92.151 Y-68.465
X-92.895 Y-68.356
X-92.925 Y-68.351
X-93.689 Y-68.213
X-93.719 Y-68.208
X-94.5 Y-68.043
X-94.528 Y-68.036
X-95.322 Y-67.843
X-95.35 Y-67.836
X-96.149 Y-67.617
X-96.178 Y-67.609
X-96.976 Y-67.363
X-97.005 Y-67.354
X-97.794 Y-67.084
X-97.825 Y-67.073
X-98.598 Y-66.78
X-98.63 Y-66.767
X-99.377 Y-66.453
X-99.413 Y-66.437
X-100.125 Y-66.103
X-100.165 Y-66.083
X-100.834 Y-65.732
X-100.868 Y-65.713
X-101.183 Y-65.532
X-101.207 Y-65.518
X-101.508 Y-65.333
X-101.533 Y-65.316
X-101.819 Y-65.128
X-101.848 Y-65.108
X-102.117 Y-64.917
X-102.147 Y-64.895
X-102.399 Y-64.701
X-102.433 Y-64.673
X-102.666 Y-64.477
X-102.699 Y-64.448
X-102.914 Y-64.249
X-102.953 Y-64.21
X-103.147 Y-64.01
X-103.187 Y-63.966
X-103.36 Y-63.763
X-103.401 Y-63.713
X-103.553 Y-63.509
X-103.595 Y-63.448
X-103.725 Y-63.242
X-103.768 Y-63.167
X-103.874 Y-62.961
X-103.91 Y-62.881
X-103.994 Y-62.674
X-104.028 Y-62.578
X-104.088 Y-62.371
X-104.112 Y-62.266
X-104.148 Y-62.058
X-104.16 Y-61.948
X-104.172 Y-61.74
Y-61.628
X-104.16 Y-61.42
X-104.148 Y-61.309
X-104.112 Y-61.101
X-104.088 Y-60.997
X-104.028 Y-60.789
X-103.994 Y-60.694
X-103.91 Y-60.487
X-103.874 Y-60.407
X-103.768 Y-60.201
X-103.725 Y-60.125
X-103.595 Y-59.92
X-103.553 Y-59.859
X-103.401 Y-59.655
X-103.36 Y-59.605
X-103.187 Y-59.402
X-103.147 Y-59.358
X-102.953 Y-59.157
X-102.914 Y-59.119
X-102.699 Y-58.92
X-102.666 Y-58.891
X-102.433 Y-58.695
X-102.399 Y-58.667
X-102.147 Y-58.473
X-102.117 Y-58.451
X-101.848 Y-58.26
X-101.819 Y-58.24
X-101.533 Y-58.052
X-101.508 Y-58.035
X-101.207 Y-57.85
X-101.183 Y-57.836
X-100.868 Y-57.654
X-100.834 Y-57.636
X-100.165 Y-57.284
X-100.125 Y-57.265
X-99.413 Y-56.931
X-99.377 Y-56.915
X-98.63 Y-56.601
X-98.598 Y-56.588
X-97.98 Y-56.353
X-97.825 Y-56.295
X-97.794 Y-56.284
X-97.005 Y-56.014
X-96.976 Y-56.004
X-96.177 Y-55.759
X-96.149 Y-55.751
X-95.35 Y-55.532
X-95.322 Y-55.524
X-94.528 Y-55.332
X-94.5 Y-55.325
X-93.719 Y-55.16
X-93.689 Y-55.154
X-92.925 Y-55.017
X-92.895 Y-55.012
X-92.151 Y-54.902
X-92.119 Y-54.898
X-91.397 Y-54.816
X-91.365 Y-54.813
X-90.664 Y-54.756
X-90.632 Y-54.754
X-89.95 Y-54.721
X-89.92 Y-54.72
X-89.588 Y-54.715
X-89.252 Y-54.709 Z-0.912 F1016
X-89.224 Z-0.913
X-88.563 Y-54.717 Z-0.936
X-88.539 Y-54.718 Z-0.937
X-87.881 Y-54.742 Z-0.96
X-87.861 Y-54.743
X-87.199 Y-54.78 Z-0.983
X-87.177 Y-54.782 Z-0.984
X-85.824 Y-54.889 Z-1.032
X-85.805 Y-54.891
X-84.408 Y-55.029 Z-1.081
X-84.396 Y-55.031 Z-1.082
X-82.959 Y-55.191 Z-1.132
X-82.95 Y-55.192 Z-1.133
X-81.493 Y-55.369 Z-1.184
X-81.484 Y-55.371
X-81.033 Y-55.43 Z-1.2
X-80.03 Y-55.561 F2540
X-80.02 Y-55.562
X-78.597 Y-55.764
X-78.585 Y-55.765
X-77.217 Y-55.977
X-77.203 Y-55.979
X-75.907 Y-56.199
X-75.896 Y-56.201
X-74.666 Y-56.424
X-74.662
X-73.479 Y-56.643
X-72.303 Y-56.847
X-71.707 Y-56.939
X-71.089 Y-57.024
X-70.446 Y-57.1
X-69.771 Y-57.167
X-69.061 Y-57.223
X-68.314 Y-57.269
X-67.529 Y-57.305
X-66.71 Y-57.331
X-65.857 Y-57.346
X-64.976 Y-57.352
X-63.129 Y-57.336
X-61.207 Y-57.288
X-59.242 Y-57.216
X-57.273 Y-57.127
X-55.335 Y-57.029
X-53.462 Y-56.932
X-53.46
X-51.678 Y-56.842
X-51.672
X-49.988 Y-56.768
X-49.979
X-48.386 Y-56.714
X-48.373 Y-56.713
X-46.85 Y-56.682
X-46.835
X-45.357 Y-56.675
X-45.342
X-43.882 Y-56.691
X-43.869 Y-56.692
X-42.408 Y-56.728
X-42.398
X-40.927 Y-56.782
X-40.92
X-39.436 Y-56.847
X-39.432
X-37.937 Y-56.919
X-36.434 Y-56.993
X-34.931 Y-57.062
X-33.436 Y-57.123
X-31.955 Y-57.169
X-30.495 Y-57.199
X-29.053 Y-57.209
G2 X-28.37 Y-57.494 I-0.007 J-0.975
G1 X-25.577 Y-60.287
G2 X-25.577 Y-63.08 I-1.397 J-1.397
G1 X-28.37 Y-65.873
G2 X-29.053 Y-66.159 I-0.689 J0.689
G1 X-30.495 Y-66.169
X-31.955 Y-66.199
X-33.436 Y-66.245
X-34.931 Y-66.305
X-36.434 Y-66.375
X-37.936 Y-66.448
X-39.432 Y-66.521
X-39.436
X-40.92 Y-66.586
X-40.927
X-42.398 Y-66.639
X-42.408 Y-66.64
X-43.869 Y-66.676
X-43.882
X-45.342 Y-66.693
X-45.357
X-46.835 Y-66.686
X-46.85
X-48.373 Y-66.655
X-48.386 Y-66.654
X-49.979 Y-66.6
X-49.988
X-51.672 Y-66.526
X-51.678 Y-66.525
X-53.46 Y-66.436
X-53.462
X-55.335 Y-66.339
X-57.273 Y-66.241
X-59.242 Y-66.152
X-61.207 Y-66.079
X-63.129 Y-66.032
X-64.976 Y-66.016
X-65.857 Y-66.021
X-66.71 Y-66.037
X-67.529 Y-66.062
X-68.314 Y-66.098
X-69.061 Y-66.145
X-69.771 Y-66.201
X-70.446 Y-66.268
X-71.089 Y-66.344
X-71.707 Y-66.429
X-72.303 Y-66.521
X-73.479 Y-66.725
X-74.662 Y-66.943
X-74.666 Y-66.944
X-75.896 Y-67.167
X-75.907 Y-67.169
X-77.204 Y-67.389
X-77.217 Y-67.391
X-78.584 Y-67.603
X-78.597 Y-67.604
X-80.02 Y-67.806
X-80.03 Y-67.807
X-81.484 Y-67.997
X-81.493 Y-67.998
X-82.95 Y-68.175
X-82.959 Y-68.177
X-84.396 Y-68.337
X-84.408 Y-68.338
X-85.805 Y-68.477
X-85.824 Y-68.479
X-87.177 Y-68.586
X-87.198 Y-68.587
X-87.861 Y-68.625
X-87.881 Y-68.626
X-88.54 Y-68.65
X-88.563 Y-68.651
X-89.224 Y-68.659
X-89.252
X-89.92 Y-68.648
X-89.95 Y-68.647
X-90.632 Y-68.614
X-90.664 Y-68.612
X-91.365 Y-68.555
X-91.397 Y-68.552
X-92.119 Y-68.469
X-92.151 Y-68.465
X-92.895 Y-68.356
X-92.925 Y-68.351
X-93.689 Y-68.213
X-93.719 Y-68.208
X-94.5 Y-68.043
X-94.528 Y-68.036
X-95.322 Y-67.843
X-95.35 Y-67.836
X-96.149 Y-67.617
X-96.178 Y-67.609
X-96.976 Y-67.363
X-97.005 Y-67.354
X-97.794 Y-67.084
X-97.825 Y-67.073
X-98.598 Y-66.78
X-98.63 Y-66.767
X-99.377 Y-66.453
X-99.413 Y-66.437
X-100.125 Y-66.103
X-100.165 Y-66.083
X-100.834 Y-65.732
X-100.868 Y-65.713
X-101.183 Y-65.532
X-101.207 Y-65.518
X-101.508 Y-65.333
X-101.533 Y-65.316
X-101.819 Y-65.128
X-101.848 Y-65.108
X-102.117 Y-64.917
X-102.147 Y-64.895
X-102.399 Y-64.701
X-102.433 Y-64.673
X-102.666 Y-64.477
X-102.699 Y-64.448
X-102.914 Y-64.249
X-102.953 Y-64.21
X-103.147 Y-64.01
X-103.187 Y-63.966
X-103.36 Y-63.763
X-103.401 Y-63.713
X-103.553 Y-63.509
X-103.595 Y-63.448
X-103.725 Y-63.242
X-103.768 Y-63.167
X-103.874 Y-62.961
X-103.91 Y-62.881
X-103.994 Y-62.674
X-104.028 Y-62.578
X-104.088 Y-62.371
X-104.112 Y-62.266
X-104.148 Y-62.058
X-104.16 Y-61.948
X-104.172 Y-61.74
Y-61.628
X-104.16 Y-61.42
X-104.148 Y-61.309
X-104.112 Y-61.101
X-104.088 Y-60.997
X-104.028 Y-60.789
X-103.994 Y-60.694
X-103.91 Y-60.487
X-103.874 Y-60.407
X-103.768 Y-60.201
X-103.725 Y-60.125
X-103.595 Y-59.92
X-103.553 Y-59.859
X-103.401 Y-59.655
X-103.36 Y-59.605
X-103.187 Y-59.402
X-103.147 Y-59.358
X-102.953 Y-59.157
X-102.914 Y-59.119
X-102.699 Y-58.92
X-102.666 Y-58.891
X-102.433 Y-58.695
X-102.399 Y-58.667
X-102.147 Y-58.473
X-102.117 Y-58.451
X-101.848 Y-58.26
X-101.819 Y-58.24
X-101.533 Y-58.052
X-101.508 Y-58.035
X-101.207 Y-57.85
X-101.183 Y-57.836
X-100.868 Y-57.654
X-100.834 Y-57.636
X-100.165 Y-57.284
X-100.125 Y-57.265
X-99.413 Y-56.931
X-99.377 Y-56.915
X-98.63 Y-56.601
X-98.598 Y-56.588
X-97.825 Y-56.295
X-97.794 Y-56.284
X-97.005 Y-56.014
X-96.976 Y-56.004
X-96.177 Y-55.759
X-96.149 Y-55.751
X-95.35 Y-55.532
X-95.322 Y-55.524
X-94.528 Y-55.332
X-94.5 Y-55.325
X-93.719 Y-55.16
X-93.689 Y-55.154
X-92.925 Y-55.017
X-92.895 Y-55.012
X-92.151 Y-54.902
X-92.119 Y-54.898
X-91.397 Y-54.816
X-91.365 Y-54.813
X-90.664 Y-54.756
X-90.632 Y-54.754
X-89.95 Y-54.721
X-89.92 Y-54.72
X-89.252 Y-54.709
X-89.224
X-88.563 Y-54.717
X-88.539 Y-54.718
X-87.881 Y-54.742
X-87.861 Y-54.743
X-87.199 Y-54.78
X-87.177 Y-54.782
X-85.824 Y-54.889
X-85.805 Y-54.891
X-84.408 Y-55.029
X-84.396 Y-55.031
X-82.959 Y-55.191
X-82.95 Y-55.192
X-81.493 Y-55.369
X-81.484 Y-55.371
X-81.033 Y-55.43
X-80.03 Y-55.561 Z-1.235 F1016
X-80.02 Y-55.562 Z-1.236
X-78.597 Y-55.764 Z-1.286
X-78.585 Y-55.765
X-77.217 Y-55.977 Z-1.335
X-77.203 Y-55.979
X-75.907 Y-56.199 Z-1.381
X-75.896 Y-56.201
X-74.666 Y-56.424 Z-1.425
X-74.662
X-73.479 Y-56.643 Z-1.467
X-72.554 Y-56.803 Z-1.5
X-72.303 Y-56.847 F2540
X-71.707 Y-56.939
X-71.089 Y-57.024
X-70.446 Y-57.1
X-69.771 Y-57.167
X-69.061 Y-57.223
X-68.314 Y-57.269
X-67.529 Y-57.305
X-66.71 Y-57.331
X-65.857 Y-57.346
X-64.976 Y-57.352
X-63.129 Y-57.336
X-61.207 Y-57.288
X-59.242 Y-57.216
X-57.273 Y-57.127
X-55.335 Y-57.029
X-53.462 Y-56.932
X-53.46
X-51.678 Y-56.842
X-51.672
X-49.988 Y-56.768
X-49.979
X-48.386 Y-56.714
X-48.373 Y-56.713
X-46.85 Y-56.682
X-46.835
X-45.357 Y-56.675
X-45.342
X-43.882 Y-56.691
X-43.869 Y-56.692
X-42.408 Y-56.728
X-42.398
X-40.927 Y-56.782
X-40.92
X-39.436 Y-56.847
X-39.432
X-37.937 Y-56.919
X-36.434 Y-56.993
X-34.931 Y-57.062
X-33.436 Y-57.123
X-31.955 Y-57.169
X-30.495 Y-57.199
X-29.053 Y-57.209
G2 X-28.37 Y-57.494 I-0.007 J-0.975
G1 X-25.577 Y-60.287
G2 X-25.577 Y-63.08 I-1.397 J-1.397
G1 X-28.37 Y-65.873
G2 X-29.053 Y-66.159 I-0.689 J0.689
G1 X-30.495 Y-66.169
X-31.955 Y-66.199
X-33.436 Y-66.245
X-34.931 Y-66.305
X-36.434 Y-66.375
X-37.936 Y-66.448
X-39.432 Y-66.521
X-39.436
X-40.92 Y-66.586
X-40.927
X-42.398 Y-66.639
X-42.408 Y-66.64
X-43.869 Y-66.676
X-43.882
X-45.342 Y-66.693
X-45.357
X-46.835 Y-66.686
X-46.85
X-48.373 Y-66.655
X-48.386 Y-66.654
X-49.979 Y-66.6
X-49.988
X-51.672 Y-66.526
X-51.678 Y-66.525
X-53.46 Y-66.436
X-53.462
X-55.335 Y-66.339
X-57.273 Y-66.241
X-59.242 Y-66.152
X-61.207 Y-66.079
X-63.129 Y-66.032
X-64.976 Y-66.016
X-65.857 Y-66.021
X-66.71 Y-66.037
X-67.529 Y-66.062
X-68.314 Y-66.098
X-69.061 Y-66.145
X-69.771 Y-66.201
X-70.446 Y-66.268
X-71.089 Y-66.344
X-71.707 Y-66.429
X-72.303 Y-66.521
X-73.479 Y-66.725
X-74.662 Y-66.943
X-74.666 Y-66.944
X-75.896 Y-67.167
X-75.907 Y-67.169
X-77.204 Y-67.389
X-77.217 Y-67.391
X-78.584 Y-67.603
X-78.597 Y-67.604
X-80.02 Y-67.806
X-80.03 Y-67.807
X-81.484 Y-67.997
X-81.493 Y-67.998
X-82.95 Y-68.175
X-82.959 Y-68.177
X-84.396 Y-68.337
X-84.408 Y-68.338
X-85.805 Y-68.477
X-85.824 Y-68.479
X-87.177 Y-68.586
X-87.198 Y-68.587
X-87.861 Y-68.625
X-87.881 Y-68.626
X-88.54 Y-68.65
X-88.563 Y-68.651
X-89.224 Y-68.659
X-89.252
X-89.92 Y-68.648
X-89.95 Y-68.647
X-90.632 Y-68.614
X-90.664 Y-68.612
X-91.365 Y-68.555
X-91.397 Y-68.552
X-92.119 Y-68.469
X-92.151 Y-68.465
X-92.895 Y-68.356
X-92.925 Y-68.351
X-93.689 Y-68.213
X-93.719 Y-68.208
X-94.5 Y-68.043
X-94.528 Y-68.036
X-95.322 Y-67.843
X-95.35 Y-67.836
X-96.149 Y-67.617
X-96.178 Y-67.609
X-96.976 Y-67.363
X-97.005 Y-67.354
X-97.794 Y-67.084
X-97.825 Y-67.073
X-98.598 Y-66.78
X-98.63 Y-66.767
X-99.377 Y-66.453
X-99.413 Y-66.437
X-100.125 Y-66.103
X-100.165 Y-66.083
X-100.834 Y-65.732
X-100.868 Y-65.713
X-101.183 Y-65.532
X-101.207 Y-65.518
X-101.508 Y-65.333
X-101.533 Y-65.316
X-101.819 Y-65.128
X-101.848 Y-65.108
X-102.117 Y-64.917
X-102.147 Y-64.895
X-102.399 Y-64.701
X-102.433 Y-64.673
X-102.666 Y-64.477
X-102.699 Y-64.448
X-102.914 Y-64.249
X-102.953 Y-64.21
X-103.147 Y-64.01
X-103.187 Y-63.966
X-103.36 Y-63.763
X-103.401 Y-63.713
X-103.553 Y-63.509
X-103.595 Y-63.448
X-103.725 Y-63.242
X-103.768 Y-63.167
X-103.874 Y-62.961
X-103.91 Y-62.881
X-103.994 Y-62.674
X-104.028 Y-62.578
X-104.088 Y-62.371
X-104.112 Y-62.266
X-104.148 Y-62.058
X-104.16 Y-61.948
X-104.172 Y-61.74
Y-61.628
X-104.16 Y-61.42
X-104.148 Y-61.309
X-104.112 Y-61.101
X-104.088 Y-60.997
X-104.028 Y-60.789
X-103.994 Y-60.694
X-103.91 Y-60.487
X-103.874 Y-60.407
X-103.768 Y-60.201
X-103.725 Y-60.125
X-103.595 Y-59.92
X-103.553 Y-59.859
X-103.401 Y-59.655
X-103.36 Y-59.605
X-103.187 Y-59.402
X-103.147 Y-59.358
X-102.953 Y-59.157
X-102.914 Y-59.119
X-102.699 Y-58.92
X-102.666 Y-58.891
X-102.433 Y-58.695
X-102.399 Y-58.667
X-102.147 Y-58.473
X-102.117 Y-58.451
X-101.848 Y-58.26
X-101.819 Y-58.24
X-101.533 Y-58.052
X-101.508 Y-58.035
X-101.207 Y-57.85
X-101.183 Y-57.836
X-100.868 Y-57.654
X-100.834 Y-57.636
X-100.165 Y-57.284
X-100.125 Y-57.265
X-99.413 Y-56.931
X-99.377 Y-56.915
X-98.63 Y-56.601
X-98.598 Y-56.588
X-97.825 Y-56.295
X-97.794 Y-56.284
X-97.005 Y-56.014
X-96.976 Y-56.004
X-96.177 Y-55.759
X-96.149 Y-55.751
X-95.35 Y-55.532
X-95.322 Y-55.524
X-94.528 Y-55.332
X-94.5 Y-55.325
X-93.719 Y-55.16
X-93.689 Y-55.154
X-92.925 Y-55.017
X-92.895 Y-55.012
X-92.151 Y-54.902
X-92.119 Y-54.898
X-91.397 Y-54.816
X-91.365 Y-54.813
X-90.664 Y-54.756
X-90.632 Y-54.754
X-89.95 Y-54.721
X-89.92 Y-54.72
X-89.252 Y-54.709
X-89.224
X-88.563 Y-54.717
X-88.539 Y-54.718
X-87.881 Y-54.742
X-87.861 Y-54.743
X-87.199 Y-54.78
X-87.177 Y-54.782
X-85.824 Y-54.889
X-85.805 Y-54.891
X-84.408 Y-55.029
X-84.396 Y-55.031
X-82.959 Y-55.191
X-82.95 Y-55.192
X-81.493 Y-55.369
X-81.484 Y-55.371
X-80.03 Y-55.561
X-80.02 Y-55.562
X-78.597 Y-55.764
X-78.585 Y-55.765
X-77.217 Y-55.977
X-77.203 Y-55.979
X-75.907 Y-56.199
X-75.896 Y-56.201
X-74.666 Y-56.424
X-74.662
X-73.479 Y-56.643
X-72.554 Y-56.803
X-72.303 Y-56.847 Z-1.509 F1016
X-71.707 Y-56.939 Z-1.53
X-71.089 Y-57.024 Z-1.552
X-70.446 Y-57.1 Z-1.574
X-69.771 Y-57.167 Z-1.598
X-69.061 Y-57.223 Z-1.623
X-68.314 Y-57.269 Z-1.649
X-67.529 Y-57.305 Z-1.676
X-66.71 Y-57.331 Z-1.705
X-65.857 Y-57.346 Z-1.735
X-64.976 Y-57.352 Z-1.766
X-63.993 Y-57.344 Z-1.8
X-63.129 Y-57.336 F2540
X-61.207 Y-57.288
X-59.242 Y-57.216
X-57.273 Y-57.127
X-55.335 Y-57.029
X-53.462 Y-56.932
X-53.46
X-51.678 Y-56.842
X-51.672
X-49.988 Y-56.768
X-49.979
X-48.386 Y-56.714
X-48.373 Y-56.713
X-46.85 Y-56.682
X-46.835
X-45.357 Y-56.675
X-45.342
X-43.882 Y-56.691
X-43.869 Y-56.692
X-42.408 Y-56.728
X-42.398
X-40.927 Y-56.782
X-40.92
X-39.436 Y-56.847
X-39.432
X-37.937 Y-56.919
X-36.434 Y-56.993
X-34.931 Y-57.062
X-33.436 Y-57.123
X-31.955 Y-57.169
X-30.495 Y-57.199
X-29.053 Y-57.209
G2 X-28.37 Y-57.494 I-0.007 J-0.975
G1 X-25.577 Y-60.287
G2 X-25.577 Y-63.08 I-1.397 J-1.397
G1 X-28.37 Y-65.873
G2 X-29.053 Y-66.159 I-0.689 J0.689
G1 X-30.495 Y-66.169
X-31.955 Y-66.199
X-33.436 Y-66.245
X-34.931 Y-66.305
X-36.434 Y-66.375
X-37.936 Y-66.448
X-39.432 Y-66.521
X-39.436
X-40.92 Y-66.586
X-40.927
X-42.398 Y-66.639
X-42.408 Y-66.64
X-43.869 Y-66.676
X-43.882
X-45.342 Y-66.693
X-45.357
X-46.835 Y-66.686
X-46.85
X-48.373 Y-66.655
X-48.386 Y-66.654
X-49.979 Y-66.6
X-49.988
X-51.672 Y-66.526
X-51.678 Y-66.525
X-53.46 Y-66.436
X-53.462
X-55.335 Y-66.339
X-57.273 Y-66.241
X-59.242 Y-66.152
X-61.207 Y-66.079
X-63.129 Y-66.032
X-64.976 Y-66.016
X-65.857 Y-66.021
X-66.71 Y-66.037
X-67.529 Y-66.062
X-68.314 Y-66.098
X-69.061 Y-66.145
X-69.771 Y-66.201
X-70.446 Y-66.268
X-71.089 Y-66.344
X-71.707 Y-66.429
X-72.303 Y-66.521
X-73.479 Y-66.725
X-74.662 Y-66.943
X-74.666 Y-66.944
X-75.896 Y-67.167
X-75.907 Y-67.169
X-77.204 Y-67.389
X-77.217 Y-67.391
X-78.584 Y-67.603
X-78.597 Y-67.604
X-80.02 Y-67.806
X-80.03 Y-67.807
X-81.484 Y-67.997
X-81.493 Y-67.998
X-82.95 Y-68.175
X-82.959 Y-68.177
X-84.396 Y-68.337
X-84.408 Y-68.338
X-85.805 Y-68.477
X-85.824 Y-68.479
X-87.177 Y-68.586
X-87.198 Y-68.587
X-87.861 Y-68.625
X-87.881 Y-68.626
X-88.54 Y-68.65
X-88.563 Y-68.651
X-89.224 Y-68.659
X-89.252
X-89.92 Y-68.648
X-89.95 Y-68.647
X-90.632 Y-68.614
X-90.664 Y-68.612
X-91.365 Y-68.555
X-91.397 Y-68.552
X-92.119 Y-68.469
X-92.151 Y-68.465
X-92.895 Y-68.356
X-92.925 Y-68.351
X-93.689 Y-68.213
X-93.719 Y-68.208
X-94.5 Y-68.043
X-94.528 Y-68.036
X-95.322 Y-67.843
X-95.35 Y-67.836
X-96.149 Y-67.617
X-96.178 Y-67.609
X-96.976 Y-67.363
X-97.005 Y-67.354
X-97.794 Y-67.084
X-97.825 Y-67.073
X-98.598 Y-66.78
X-98.63 Y-66.767
X-99.377 Y-66.453
X-99.413 Y-66.437
X-100.125 Y-66.103
X-100.165 Y-66.083
X-100.834 Y-65.732
X-100.868 Y-65.713
X-101.183 Y-65.532
X-101.207 Y-65.518
X-101.508 Y-65.333
X-101.533 Y-65.316
X-101.819 Y-65.128
X-101.848 Y-65.108
X-102.117 Y-64.917
X-102.147 Y-64.895
X-102.399 Y-64.701
X-102.433 Y-64.673
X-102.666 Y-64.477
X-102.699 Y-64.448
X-102.914 Y-64.249
X-102.953 Y-64.21
X-103.147 Y-64.01
X-103.187 Y-63.966
X-103.36 Y-63.763
X-103.401 Y-63.713
X-103.553 Y-63.509
X-103.595 Y-63.448
X-103.725 Y-63.242
X-103.768 Y-63.167
X-103.874 Y-62.961
X-103.91 Y-62.881
X-103.994 Y-62.674
X-104.028 Y-62.578
X-104.088 Y-62.371
X-104.112 Y-62.266
X-104.148 Y-62.058
X-104.16 Y-61.948
X-104.172 Y-61.74
Y-61.628
X-104.16 Y-61.42
X-104.148 Y-61.309
X-104.112 Y-61.101
X-104.088 Y-60.997
X-104.028 Y-60.789
X-103.994 Y-60.694
X-103.91 Y-60.487
X-103.874 Y-60.407
X-103.768 Y-60.201
X-103.725 Y-60.125
X-103.595 Y-59.92
X-103.553 Y-59.859
X-103.401 Y-59.655
X-103.36 Y-59.605
X-103.187 Y-59.402
X-103.147 Y-59.358
X-102.953 Y-59.157
X-102.914 Y-59.119
X-102.699 Y-58.92
X-102.666 Y-58.891
X-102.433 Y-58.695
X-102.399 Y-58.667
X-102.147 Y-58.473
X-102.117 Y-58.451
X-101.848 Y-58.26
X-101.819 Y-58.24
X-101.533 Y-58.052
X-101.508 Y-58.035
X-101.207 Y-57.85
X-101.183 Y-57.836
X-100.868 Y-57.654
X-100.834 Y-57.636
X-100.165 Y-57.284
X-100.125 Y-57.265
X-99.413 Y-56.931
X-99.377 Y-56.915
X-98.63 Y-56.601
X-98.598 Y-56.588
X-97.825 Y-56.295
X-97.794 Y-56.284
X-97.005 Y-56.014
X-96.976 Y-56.004
X-96.177 Y-55.759
X-96.149 Y-55.751
X-95.35 Y-55.532
X-95.322 Y-55.524
X-94.528 Y-55.332
X-94.5 Y-55.325
X-93.719 Y-55.16
X-93.689 Y-55.154
X-92.925 Y-55.017
X-92.895 Y-55.012
X-92.151 Y-54.902
X-92.119 Y-54.898
X-91.397 Y-54.816
X-91.365 Y-54.813
X-90.664 Y-54.756
X-90.632 Y-54.754
X-89.95 Y-54.721
X-89.92 Y-54.72
X-89.252 Y-54.709
X-89.224
X-88.563 Y-54.717
X-88.539 Y-54.718
X-87.881 Y-54.742
X-87.861 Y-54.743
X-87.199 Y-54.78
X-87.177 Y-54.782
X-85.824 Y-54.889
X-85.805 Y-54.891
X-84.408 Y-55.029
X-84.396 Y-55.031
X-82.959 Y-55.191
X-82.95 Y-55.192
X-81.493 Y-55.369
X-81.484 Y-55.371
X-80.03 Y-55.561
X-80.02 Y-55.562
X-78.597 Y-55.764
X-78.585 Y-55.765
X-77.217 Y-55.977
X-77.203 Y-55.979
X-75.907 Y-56.199
X-75.896 Y-56.201
X-74.666 Y-56.424
X-74.662
X-73.479 Y-56.643
X-72.554 Y-56.803
X-72.303 Y-56.847
X-71.707 Y-56.939
X-71.089 Y-57.024
X-70.446 Y-57.1
X-69.771 Y-57.167
X-69.061 Y-57.223
X-68.314 Y-57.269
X-67.529 Y-57.305
X-66.71 Y-57.331
X-65.857 Y-57.346
X-64.976 Y-57.352
X-63.993 Y-57.344
X-63.129 Y-57.336 Z-1.83 F1016
X-61.207 Y-57.288 Z-1.897
X-59.242 Y-57.216 Z-1.966
X-57.273 Y-57.127 Z-2.035
X-55.408 Y-57.033 Z-2.1
X-55.335 Y-57.029 F2540
X-53.462 Y-56.932
X-53.46
X-51.678 Y-56.842
X-51.672
X-49.988 Y-56.768
X-49.979
X-48.386 Y-56.714
X-48.373 Y-56.713
X-46.85 Y-56.682
X-46.835
X-45.357 Y-56.675
X-45.342
X-43.882 Y-56.691
X-43.869 Y-56.692
X-42.408 Y-56.728
X-42.398
X-40.927 Y-56.782
X-40.92
X-39.436 Y-56.847
X-39.432
X-37.937 Y-56.919
X-36.434 Y-56.993
X-34.931 Y-57.062
X-33.436 Y-57.123
X-31.955 Y-57.169
X-30.495 Y-57.199
X-29.053 Y-57.209
G2 X-28.37 Y-57.494 I-0.007 J-0.975
G1 X-25.577 Y-60.287
G2 X-25.577 Y-63.08 I-1.397 J-1.397
G1 X-28.37 Y-65.873
G2 X-29.053 Y-66.159 I-0.689 J0.689
G1 X-30.495 Y-66.169
X-31.955 Y-66.199
X-33.436 Y-66.245
X-34.931 Y-66.305
X-36.434 Y-66.375
X-37.936 Y-66.448
X-39.432 Y-66.521
X-39.436
X-40.92 Y-66.586
X-40.927
X-42.398 Y-66.639
X-42.408 Y-66.64
X-43.869 Y-66.676
X-43.882
X-45.342 Y-66.693
X-45.357
X-46.835 Y-66.686
X-46.85
X-48.373 Y-66.655
X-48.386 Y-66.654
X-49.979 Y-66.6
X-49.988
X-51.672 Y-66.526
X-51.678 Y-66.525
X-53.46 Y-66.436
X-53.462
X-55.335 Y-66.339
X-57.273 Y-66.241
X-59.242 Y-66.152
X-61.207 Y-66.079
X-63.129 Y-66.032
X-64.976 Y-66.016
X-65.857 Y-66.021
X-66.71 Y-66.037
X-67.529 Y-66.062
X-68.314 Y-66.098
X-69.061 Y-66.145
X-69.771 Y-66.201
X-70.446 Y-66.268
X-71.089 Y-66.344
X-71.707 Y-66.429
X-72.303 Y-66.521
X-73.479 Y-66.725
X-74.662 Y-66.943
X-74.666 Y-66.944
X-75.896 Y-67.167
X-75.907 Y-67.169
X-77.204 Y-67.389
X-77.217 Y-67.391
X-78.584 Y-67.603
X-78.597 Y-67.604
X-80.02 Y-67.806
X-80.03 Y-67.807
X-81.484 Y-67.997
X-81.493 Y-67.998
X-82.95 Y-68.175
X-82.959 Y-68.177
X-84.396 Y-68.337
X-84.408 Y-68.338
X-85.805 Y-68.477
X-85.824 Y-68.479
X-87.177 Y-68.586
X-87.198 Y-68.587
X-87.861 Y-68.625
X-87.881 Y-68.626
X-88.54 Y-68.65
X-88.563 Y-68.651
X-89.224 Y-68.659
X-89.252
X-89.92 Y-68.648
X-89.95 Y-68.647
X-90.632 Y-68.614
X-90.664 Y-68.612
X-91.365 Y-68.555
X-91.397 Y-68.552
X-92.119 Y-68.469
X-92.151 Y-68.465
X-92.895 Y-68.356
X-92.925 Y-68.351
X-93.689 Y-68.213
X-93.719 Y-68.208
X-94.5 Y-68.043
X-94.528 Y-68.036
X-95.322 Y-67.843
X-95.35 Y-67.836
X-96.149 Y-67.617
X-96.178 Y-67.609
X-96.976 Y-67.363
X-97.005 Y-67.354
X-97.794 Y-67.084
X-97.825 Y-67.073
X-98.598 Y-66.78
X-98.63 Y-66.767
X-99.377 Y-66.453
X-99.413 Y-66.437
X-100.125 Y-66.103
X-100.165 Y-66.083
X-100.834 Y-65.732
X-100.868 Y-65.713
X-101.183 Y-65.532
X-101.207 Y-65.518
X-101.508 Y-65.333
X-101.533 Y-65.316
X-101.819 Y-65.128
X-101.848 Y-65.108
X-102.117 Y-64.917
X-102.147 Y-64.895
X-102.399 Y-64.701
X-102.433 Y-64.673
X-102.666 Y-64.477
X-102.699 Y-64.448
X-102.914 Y-64.249
X-102.953 Y-64.21
X-103.147 Y-64.01
X-103.187 Y-63.966
X-103.36 Y-63.763
X-103.401 Y-63.713
X-103.553 Y-63.509
X-103.595 Y-63.448
X-103.725 Y-63.242
X-103.768 Y-63.167
X-103.874 Y-62.961
X-103.91 Y-62.881
X-103.994 Y-62.674
X-104.028 Y-62.578
X-104.088 Y-62.371
X-104.112 Y-62.266
X-104.148 Y-62.058
X-104.16 Y-61.948
X-104.172 Y-61.74
Y-61.628
X-104.16 Y-61.42
X-104.148 Y-61.309
X-104.112 Y-61.101
X-104.088 Y-60.997
X-104.028 Y-60.789
X-103.994 Y-60.694
X-103.91 Y-60.487
X-103.874 Y-60.407
X-103.768 Y-60.201
X-103.725 Y-60.125
X-103.595 Y-59.92
X-103.553 Y-59.859
X-103.401 Y-59.655
X-103.36 Y-59.605
X-103.187 Y-59.402
X-103.147 Y-59.358
X-102.953 Y-59.157
X-102.914 Y-59.119
X-102.699 Y-58.92
X-102.666 Y-58.891
X-102.433 Y-58.695
X-102.399 Y-58.667
X-102.147 Y-58.473
X-102.117 Y-58.451
X-101.848 Y-58.26
X-101.819 Y-58.24
X-101.533 Y-58.052
X-101.508 Y-58.035
X-101.207 Y-57.85
X-101.183 Y-57.836
X-100.868 Y-57.654
X-100.834 Y-57.636
X-100.165 Y-57.284
X-100.125 Y-57.265
X-99.413 Y-56.931
X-99.377 Y-56.915
X-98.63 Y-56.601
X-98.598 Y-56.588
X-97.825 Y-56.295
X-97.794 Y-56.284
X-97.005 Y-56.014
X-96.976 Y-56.004
X-96.177 Y-55.759
X-96.149 Y-55.751
X-95.35 Y-55.532
X-95.322 Y-55.524
X-94.528 Y-55.332
X-94.5 Y-55.325
X-93.719 Y-55.16
X-93.689 Y-55.154
X-92.925 Y-55.017
X-92.895 Y-55.012
X-92.151 Y-54.902
X-92.119 Y-54.898
X-91.397 Y-54.816
X-91.365 Y-54.813
X-90.664 Y-54.756
X-90.632 Y-54.754
X-89.95 Y-54.721
X-89.92 Y-54.72
X-89.252 Y-54.709
X-89.224
X-88.563 Y-54.717
X-88.539 Y-54.718
X-87.881 Y-54.742
X-87.861 Y-54.743
X-87.199 Y-54.78
X-87.177 Y-54.782
X-85.824 Y-54.889
X-85.805 Y-54.891
X-84.408 Y-55.029
X-84.396 Y-55.031
X-82.959 Y-55.191
X-82.95 Y-55.192
X-81.493 Y-55.369
X-81.484 Y-55.371
X-80.03 Y-55.561
X-80.02 Y-55.562
X-78.597 Y-55.764
X-78.585 Y-55.765
X-77.217 Y-55.977
X-77.203 Y-55.979
X-75.907 Y-56.199
X-75.896 Y-56.201
X-74.666 Y-56.424
X-74.662
X-73.479 Y-56.643
X-72.303 Y-56.847
X-71.707 Y-56.939
X-71.089 Y-57.024
X-70.446 Y-57.1
X-69.771 Y-57.167
X-69.061 Y-57.223
X-68.314 Y-57.269
X-67.529 Y-57.305
X-66.71 Y-57.331
X-65.857 Y-57.346
X-64.976 Y-57.352
X-63.993 Y-57.344
X-63.129 Y-57.336
X-61.207 Y-57.288
X-59.242 Y-57.216
X-57.273 Y-57.127
X-55.408 Y-57.033
X-55.335 Y-57.029 Z-2.103 F1016
X-53.462 Y-56.932 Z-2.168
X-53.46
X-51.678 Y-56.842 Z-2.23
X-51.672 Z-2.231
X-49.988 Y-56.768 Z-2.289
X-49.979 Z-2.29
X-48.386 Y-56.714 Z-2.345
X-48.373 Y-56.713 Z-2.346
X-46.85 Y-56.682 Z-2.399
X-46.835 Z-2.4
X-46.825
X-45.357 Y-56.675 F2540
X-45.342
X-43.882 Y-56.691
X-43.869 Y-56.692
X-42.408 Y-56.728
X-42.398
X-40.927 Y-56.782
X-40.92
X-39.436 Y-56.847
X-39.432
X-37.937 Y-56.919
X-36.434 Y-56.993
X-34.931 Y-57.062
X-33.436 Y-57.123
X-31.955 Y-57.169
X-30.495 Y-57.199
X-29.053 Y-57.209
G2 X-28.37 Y-57.494 I-0.007 J-0.975
G1 X-25.577 Y-60.287
G2 X-25.577 Y-63.08 I-1.397 J-1.397
G1 X-28.37 Y-65.873
G2 X-29.053 Y-66.159 I-0.689 J0.689
G1 X-30.495 Y-66.169
X-31.955 Y-66.199
X-33.436 Y-66.245
X-34.931 Y-66.305
X-36.434 Y-66.375
X-37.936 Y-66.448
X-39.432 Y-66.521
X-39.436
X-40.92 Y-66.586
X-40.927
X-42.398 Y-66.639
X-42.408 Y-66.64
X-43.869 Y-66.676
X-43.882
X-45.342 Y-66.693
X-45.357
X-46.835 Y-66.686
X-46.85
X-48.373 Y-66.655
X-48.386 Y-66.654
X-49.979 Y-66.6
X-49.988
X-51.672 Y-66.526
X-51.678 Y-66.525
X-53.46 Y-66.436
X-53.462
X-55.335 Y-66.339
X-57.273 Y-66.241
X-59.242 Y-66.152
X-61.207 Y-66.079
X-63.129 Y-66.032
X-64.976 Y-66.016
X-65.857 Y-66.021
X-66.71 Y-66.037
X-67.529 Y-66.062
X-68.314 Y-66.098
X-69.061 Y-66.145
X-69.771 Y-66.201
X-70.446 Y-66.268
X-71.089 Y-66.344
X-71.707 Y-66.429
X-72.303 Y-66.521
X-73.479 Y-66.725
X-74.662 Y-66.943
X-74.666 Y-66.944
X-75.896 Y-67.167
X-75.907 Y-67.169
X-77.204 Y-67.389
X-77.217 Y-67.391
X-78.584 Y-67.603
X-78.597 Y-67.604
X-80.02 Y-67.806
X-80.03 Y-67.807
X-81.484 Y-67.997
X-81.493 Y-67.998
X-82.95 Y-68.175
X-82.959 Y-68.177
X-84.396 Y-68.337
X-84.408 Y-68.338
X-85.805 Y-68.477
X-85.824 Y-68.479
X-87.177 Y-68.586
X-87.198 Y-68.587
X-87.861 Y-68.625
X-87.881 Y-68.626
X-88.54 Y-68.65
X-88.563 Y-68.651
X-89.224 Y-68.659
X-89.252
X-89.92 Y-68.648
X-89.95 Y-68.647
X-90.632 Y-68.614
X-90.664 Y-68.612
X-91.365 Y-68.555
X-91.397 Y-68.552
X-92.119 Y-68.469
X-92.151 Y-68.465
X-92.895 Y-68.356
X-92.925 Y-68.351
X-93.689 Y-68.213
X-93.719 Y-68.208
X-94.5 Y-68.043
X-94.528 Y-68.036
X-95.322 Y-67.843
X-95.35 Y-67.836
X-96.149 Y-67.617
X-96.178 Y-67.609
X-96.976 Y-67.363
X-97.005 Y-67.354
X-97.794 Y-67.084
X-97.825 Y-67.073
X-98.598 Y-66.78
X-98.63 Y-66.767
X-99.377 Y-66.453
X-99.413 Y-66.437
X-100.125 Y-66.103
X-100.165 Y-66.083
X-100.834 Y-65.732
X-100.868 Y-65.713
X-101.183 Y-65.532
X-101.207 Y-65.518
X-101.508 Y-65.333
X-101.533 Y-65.316
X-101.819 Y-65.128
X-101.848 Y-65.108
X-102.117 Y-64.917
X-102.147 Y-64.895
X-102.399 Y-64.701
X-102.433 Y-64.673
X-102.666 Y-64.477
X-102.699 Y-64.448
X-102.914 Y-64.249
X-102.953 Y-64.21
X-103.147 Y-64.01
X-103.187 Y-63.966
X-103.36 Y-63.763
X-103.401 Y-63.713
X-103.553 Y-63.509
X-103.595 Y-63.448
X-103.725 Y-63.242
X-103.768 Y-63.167
X-103.874 Y-62.961
X-103.91 Y-62.881
X-103.994 Y-62.674
X-104.028 Y-62.578
X-104.088 Y-62.371
X-104.112 Y-62.266
X-104.148 Y-62.058
X-104.16 Y-61.948
X-104.172 Y-61.74
Y-61.628
X-104.16 Y-61.42
X-104.148 Y-61.309
X-104.112 Y-61.101
X-104.088 Y-60.997
X-104.028 Y-60.789
X-103.994 Y-60.694
X-103.91 Y-60.487
X-103.874 Y-60.407
X-103.768 Y-60.201
X-103.725 Y-60.125
X-103.595 Y-59.92
X-103.553 Y-59.859
X-103.401 Y-59.655
X-103.36 Y-59.605
X-103.187 Y-59.402
X-103.147 Y-59.358
X-102.953 Y-59.157
X-102.914 Y-59.119
X-102.699 Y-58.92
X-102.666 Y-58.891
X-102.433 Y-58.695
X-102.399 Y-58.667
X-102.147 Y-58.473
X-102.117 Y-58.451
X-101.848 Y-58.26
X-101.819 Y-58.24
X-101.533 Y-58.052
X-101.508 Y-58.035
X-101.207 Y-57.85
X-101.183 Y-57.836
X-100.868 Y-57.654
X-100.834 Y-57.636
X-100.165 Y-57.284
X-100.125 Y-57.265
X-99.413 Y-56.931
X-99.377 Y-56.915
X-98.63 Y-56.601
X-98.598 Y-56.588
X-97.825 Y-56.295
X-97.794 Y-56.284
X-97.005 Y-56.014
X-96.976 Y-56.004
X-96.177 Y-55.759
X-96.149 Y-55.751
X-95.35 Y-55.532
X-95.322 Y-55.524
X-94.528 Y-55.332
X-94.5 Y-55.325
X-93.719 Y-55.16
X-93.689 Y-55.154
X-92.925 Y-55.017
X-92.895 Y-55.012
X-92.151 Y-54.902
X-92.119 Y-54.898
X-91.397 Y-54.816
X-91.365 Y-54.813
X-90.664 Y-54.756
X-90.632 Y-54.754
X-89.95 Y-54.721
X-89.92 Y-54.72
X-89.252 Y-54.709
X-89.224
X-88.563 Y-54.717
X-88.539 Y-54.718
X-87.881 Y-54.742
X-87.861 Y-54.743
X-87.199 Y-54.78
X-87.177 Y-54.782
X-85.824 Y-54.889
X-85.805 Y-54.891
X-84.408 Y-55.029
X-84.396 Y-55.031
X-82.959 Y-55.191
X-82.95 Y-55.192
X-81.493 Y-55.369
X-81.484 Y-55.371
X-80.03 Y-55.561
X-80.02 Y-55.562
X-78.597 Y-55.764
X-78.585 Y-55.765
X-77.217 Y-55.977
X-77.203 Y-55.979
X-75.907 Y-56.199
X-75.896 Y-56.201
X-74.666 Y-56.424
X-74.662
X-73.479 Y-56.643
X-72.303 Y-56.847
X-71.707 Y-56.939
X-71.089 Y-57.024
X-70.446 Y-57.1
X-69.771 Y-57.167
X-69.061 Y-57.223
X-68.314 Y-57.269
X-67.529 Y-57.305
X-66.71 Y-57.331
X-65.857 Y-57.346
X-64.976 Y-57.352
X-63.129 Y-57.336
X-61.207 Y-57.288
X-59.242 Y-57.216
X-57.273 Y-57.127
X-55.408 Y-57.033
X-55.335 Y-57.029
X-53.462 Y-56.932
X-53.46
X-51.678 Y-56.842
X-51.672
X-49.988 Y-56.768
X-49.979
X-48.386 Y-56.714
X-48.373 Y-56.713
X-46.85 Y-56.682
X-46.835
X-46.825
X-45.357 Y-56.675 Z-2.451 F1016
X-45.342 Z-2.452
X-43.882 Y-56.691 Z-2.503
X-43.869 Y-56.692
X-42.408 Y-56.728 Z-2.554
X-42.398 Z-2.555
X-40.927 Y-56.782 Z-2.606
X-40.92
X-39.436 Y-56.847 Z-2.658
X-39.432
X-38.239 Y-56.905 Z-2.7
X-37.937 Y-56.919 F2540
X-36.434 Y-56.993
X-34.931 Y-57.062
X-33.436 Y-57.123
X-31.955 Y-57.169
X-30.495 Y-57.199
X-29.053 Y-57.209
G2 X-28.37 Y-57.494 I-0.007 J-0.975
G1 X-25.577 Y-60.287
G2 X-25.577 Y-63.08 I-1.397 J-1.397
G1 X-28.37 Y-65.873
G2 X-29.053 Y-66.159 I-0.689 J0.689
G1 X-30.495 Y-66.169
X-31.955 Y-66.199
X-33.436 Y-66.245
X-34.931 Y-66.305
X-36.434 Y-66.375
X-37.936 Y-66.448
X-39.432 Y-66.521
X-39.436
X-40.92 Y-66.586
X-40.927
X-42.398 Y-66.639
X-42.408 Y-66.64
X-43.869 Y-66.676
X-43.882
X-45.342 Y-66.693
X-45.357
X-46.835 Y-66.686
X-46.85
X-48.373 Y-66.655
X-48.386 Y-66.654
X-49.979 Y-66.6
X-49.988
X-51.672 Y-66.526
X-51.678 Y-66.525
X-53.46 Y-66.436
X-53.462
X-55.335 Y-66.339
X-57.273 Y-66.241
X-59.242 Y-66.152
X-61.207 Y-66.079
X-63.129 Y-66.032
X-64.976 Y-66.016
X-65.857 Y-66.021
X-66.71 Y-66.037
X-67.529 Y-66.062
X-68.314 Y-66.098
X-69.061 Y-66.145
X-69.771 Y-66.201
X-70.446 Y-66.268
X-71.089 Y-66.344
X-71.707 Y-66.429
X-72.303 Y-66.521
X-73.479 Y-66.725
X-74.662 Y-66.943
X-74.666 Y-66.944
X-75.896 Y-67.167
X-75.907 Y-67.169
X-77.204 Y-67.389
X-77.217 Y-67.391
X-78.584 Y-67.603
X-78.597 Y-67.604
X-80.02 Y-67.806
X-80.03 Y-67.807
X-81.484 Y-67.997
X-81.493 Y-67.998
X-82.95 Y-68.175
X-82.959 Y-68.177
X-84.396 Y-68.337
X-84.408 Y-68.338
X-85.805 Y-68.477
X-85.824 Y-68.479
X-87.177 Y-68.586
X-87.198 Y-68.587
X-87.861 Y-68.625
X-87.881 Y-68.626
X-88.54 Y-68.65
X-88.563 Y-68.651
X-89.224 Y-68.659
X-89.252
X-89.92 Y-68.648
X-89.95 Y-68.647
X-90.632 Y-68.614
X-90.664 Y-68.612
X-91.365 Y-68.555
X-91.397 Y-68.552
X-92.119 Y-68.469
X-92.151 Y-68.465
X-92.895 Y-68.356
X-92.925 Y-68.351
X-93.689 Y-68.213
X-93.719 Y-68.208
X-94.5 Y-68.043
X-94.528 Y-68.036
X-95.322 Y-67.843
X-95.35 Y-67.836
X-96.149 Y-67.617
X-96.178 Y-67.609
X-96.976 Y-67.363
X-97.005 Y-67.354
X-97.794 Y-67.084
X-97.825 Y-67.073
X-98.598 Y-66.78
X-98.63 Y-66.767
X-99.377 Y-66.453
X-99.413 Y-66.437
X-100.125 Y-66.103
X-100.165 Y-66.083
X-100.834 Y-65.732
X-100.868 Y-65.713
X-101.183 Y-65.532
X-101.207 Y-65.518
X-101.508 Y-65.333
X-101.533 Y-65.316
X-101.819 Y-65.128
X-101.848 Y-65.108
X-102.117 Y-64.917
X-102.147 Y-64.895
X-102.399 Y-64.701
X-102.433 Y-64.673
X-102.666 Y-64.477
X-102.699 Y-64.448
X-102.914 Y-64.249
X-102.953 Y-64.21
X-103.147 Y-64.01
X-103.187 Y-63.966
X-103.36 Y-63.763
X-103.401 Y-63.713
X-103.553 Y-63.509
X-103.595 Y-63.448
X-103.725 Y-63.242
X-103.768 Y-63.167
X-103.874 Y-62.961
X-103.91 Y-62.881
X-103.994 Y-62.674
X-104.028 Y-62.578
X-104.088 Y-62.371
X-104.112 Y-62.266
X-104.148 Y-62.058
X-104.16 Y-61.948
X-104.172 Y-61.74
Y-61.628
X-104.16 Y-61.42
X-104.148 Y-61.309
X-104.112 Y-61.101
X-104.088 Y-60.997
X-104.028 Y-60.789
X-103.994 Y-60.694
X-103.91 Y-60.487
X-103.874 Y-60.407
X-103.768 Y-60.201
X-103.725 Y-60.125
X-103.595 Y-59.92
X-103.553 Y-59.859
X-103.401 Y-59.655
X-103.36 Y-59.605
X-103.187 Y-59.402
X-103.147 Y-59.358
X-102.953 Y-59.157
X-102.914 Y-59.119
X-102.699 Y-58.92
X-102.666 Y-58.891
X-102.433 Y-58.695
X-102.399 Y-58.667
X-102.147 Y-58.473
X-102.117 Y-58.451
X-101.848 Y-58.26
X-101.819 Y-58.24
X-101.533 Y-58.052
X-101.508 Y-58.035
X-101.207 Y-57.85
X-101.183 Y-57.836
X-100.868 Y-57.654
X-100.834 Y-57.636
X-100.165 Y-57.284
X-100.125 Y-57.265
X-99.413 Y-56.931
X-99.377 Y-56.915
X-98.63 Y-56.601
X-98.598 Y-56.588
X-97.825 Y-56.295
X-97.794 Y-56.284
X-97.005 Y-56.014
X-96.976 Y-56.004
X-96.177 Y-55.759
X-96.149 Y-55.751
X-95.35 Y-55.532
X-95.322 Y-55.524
X-94.528 Y-55.332
X-94.5 Y-55.325
X-93.719 Y-55.16
X-93.689 Y-55.154
X-92.925 Y-55.017
X-92.895 Y-55.012
X-92.151 Y-54.902
X-92.119 Y-54.898
X-91.397 Y-54.816
X-91.365 Y-54.813
X-90.664 Y-54.756
X-90.632 Y-54.754
X-89.95 Y-54.721
X-89.92 Y-54.72
X-89.252 Y-54.709
X-89.224
X-88.563 Y-54.717
X-88.539 Y-54.718
X-87.881 Y-54.742
X-87.861 Y-54.743
X-87.199 Y-54.78
X-87.177 Y-54.782
X-85.824 Y-54.889
X-85.805 Y-54.891
X-84.408 Y-55.029
X-84.396 Y-55.031
X-82.959 Y-55.191
X-82.95 Y-55.192
X-81.493 Y-55.369
X-81.484 Y-55.371
X-80.03 Y-55.561
X-80.02 Y-55.562
X-78.597 Y-55.764
X-78.585 Y-55.765
X-77.217 Y-55.977
X-77.203 Y-55.979
X-75.907 Y-56.199
X-75.896 Y-56.201
X-74.666 Y-56.424
X-74.662
X-73.479 Y-56.643
X-72.303 Y-56.847
X-71.707 Y-56.939
X-71.089 Y-57.024
X-70.446 Y-57.1
X-69.771 Y-57.167
X-69.061 Y-57.223
X-68.314 Y-57.269
X-67.529 Y-57.305
X-66.71 Y-57.331
X-65.857 Y-57.346
X-64.976 Y-57.352
X-63.129 Y-57.336
X-61.207 Y-57.288
X-59.242 Y-57.216
X-57.273 Y-57.127
X-55.335 Y-57.029
X-53.462 Y-56.932
X-53.46
X-51.678 Y-56.842
X-51.672
X-49.988 Y-56.768
X-49.979
X-48.386 Y-56.714
X-48.373 Y-56.713
X-46.85 Y-56.682
X-46.835
X-45.357 Y-56.675
X-45.342
X-43.882 Y-56.691
X-43.869 Y-56.692
X-42.408 Y-56.728
X-42.398
X-40.927 Y-56.782
X-40.92
X-39.436 Y-56.847
X-39.432
X-38.239 Y-56.905
X-37.937 Y-56.919 Z-2.711 F1016
X-36.434 Y-56.993 Z-2.763
X-34.931 Y-57.062 Z-2.816
X-33.436 Y-57.123 Z-2.868
X-31.955 Y-57.169 Z-2.92
X-30.495 Y-57.199 Z-2.971
X-29.654 Y-57.205 Z-3
X-29.053 Y-57.209 F2540
G2 X-28.37 Y-57.494 I-0.007 J-0.975
G1 X-25.577 Y-60.287
G2 X-25.577 Y-63.08 I-1.397 J-1.397
G1 X-28.37 Y-65.873
G2 X-29.053 Y-66.159 I-0.689 J0.689
G1 X-30.495 Y-66.169
X-31.955 Y-66.199
X-33.436 Y-66.245
X-34.931 Y-66.305
X-36.434 Y-66.375
X-37.936 Y-66.448
X-39.432 Y-66.521
X-39.436
X-40.92 Y-66.586
X-40.927
X-42.398 Y-66.639
X-42.408 Y-66.64
X-43.869 Y-66.676
X-43.882
X-45.342 Y-66.693
X-45.357
X-46.835 Y-66.686
X-46.85
X-48.373 Y-66.655
X-48.386 Y-66.654
X-49.979 Y-66.6
X-49.988
X-51.672 Y-66.526
X-51.678 Y-66.525
X-53.46 Y-66.436
X-53.462
X-55.335 Y-66.339
X-57.273 Y-66.241
X-59.242 Y-66.152
X-61.207 Y-66.079
X-63.129 Y-66.032
X-64.976 Y-66.016
X-65.857 Y-66.021
X-66.71 Y-66.037
X-67.529 Y-66.062
X-67.977 Y-66.083
Z-2.713
X-68.314 Y-66.098
X-69.061 Y-66.145
X-69.771 Y-66.201
X-70.446 Y-66.268
X-71.089 Y-66.344
X-71.707 Y-66.429
X-72.303 Y-66.521
X-72.897 Y-66.624
Z-3 F508
X-73.479 Y-66.725 F2540
X-74.662 Y-66.943
X-74.666 Y-66.944
X-75.896 Y-67.167
X-75.907 Y-67.169
X-77.204 Y-67.389
X-77.217 Y-67.391
X-78.584 Y-67.603
X-78.597 Y-67.604
X-80.02 Y-67.806
X-80.03 Y-67.807
X-81.484 Y-67.997
X-81.493 Y-67.998
X-82.95 Y-68.175
X-82.959 Y-68.177
X-84.396 Y-68.337
X-84.408 Y-68.338
X-85.805 Y-68.477
X-85.824 Y-68.479
X-87.177 Y-68.586
X-87.198 Y-68.587
X-87.861 Y-68.625
X-87.881 Y-68.626
X-88.54 Y-68.65
X-88.563 Y-68.651
X-89.224 Y-68.659
X-89.252
X-89.92 Y-68.648
X-89.95 Y-68.647
X-90.632 Y-68.614
X-90.664 Y-68.612
X-91.365 Y-68.555
X-91.397 Y-68.552
X-92.119 Y-68.469
X-92.151 Y-68.465
X-92.895 Y-68.356
X-92.925 Y-68.351
X-93.689 Y-68.213
X-93.719 Y-68.208
X-94.5 Y-68.043
X-94.528 Y-68.036
X-95.322 Y-67.843
X-95.35 Y-67.836
X-96.149 Y-67.617
X-96.178 Y-67.609
X-96.976 Y-67.363
X-97.005 Y-67.354
X-97.794 Y-67.084
X-97.825 Y-67.073
X-98.598 Y-66.78
X-98.63 Y-66.767
X-99.377 Y-66.453
X-99.413 Y-66.437
X-100.125 Y-66.103
X-100.165 Y-66.083
X-100.834 Y-65.732
X-100.868 Y-65.713
X-101.183 Y-65.532
X-101.207 Y-65.518
X-101.508 Y-65.333
X-101.533 Y-65.316
X-101.819 Y-65.128
X-101.848 Y-65.108
X-102.117 Y-64.917
X-102.147 Y-64.895
X-102.399 Y-64.701
X-102.433 Y-64.673
X-102.666 Y-64.477
X-102.699 Y-64.448
X-102.914 Y-64.249
X-102.953 Y-64.21
X-103.147 Y-64.01
X-103.187 Y-63.966
X-103.36 Y-63.763
X-103.401 Y-63.713
X-103.553 Y-63.509
X-103.595 Y-63.448
X-103.725 Y-63.242
X-103.768 Y-63.167
X-103.874 Y-62.961
X-103.91 Y-62.881
X-103.994 Y-62.674
X-104.028 Y-62.578
X-104.088 Y-62.371
X-104.112 Y-62.266
X-104.148 Y-62.058
X-104.16 Y-61.948
X-104.172 Y-61.74
Y-61.628
X-104.16 Y-61.42
X-104.148 Y-61.309
X-104.112 Y-61.101
X-104.088 Y-60.997
X-104.028 Y-60.789
X-103.994 Y-60.694
X-103.91 Y-60.487
X-103.874 Y-60.407
X-103.768 Y-60.201
X-103.725 Y-60.125
X-103.595 Y-59.92
X-103.553 Y-59.859
X-103.401 Y-59.655
X-103.36 Y-59.605
X-103.187 Y-59.402
X-103.147 Y-59.358
X-102.953 Y-59.157
X-102.914 Y-59.119
X-102.699 Y-58.92
X-102.666 Y-58.891
X-102.433 Y-58.695
X-102.399 Y-58.667
X-102.147 Y-58.473
X-102.117 Y-58.451
X-101.848 Y-58.26
X-101.819 Y-58.24
X-101.533 Y-58.052
X-101.508 Y-58.035
X-101.207 Y-57.85
X-101.183 Y-57.836
X-100.868 Y-57.654
X-100.834 Y-57.636
X-100.165 Y-57.284
X-100.125 Y-57.265
X-99.413 Y-56.931
X-99.377 Y-56.915
X-98.63 Y-56.601
X-98.598 Y-56.588
X-97.825 Y-56.295
X-97.794 Y-56.284
X-97.005 Y-56.014
X-96.976 Y-56.004
X-96.177 Y-55.759
X-96.149 Y-55.751
X-95.35 Y-55.532
X-95.322 Y-55.524
X-94.528 Y-55.332
X-94.5 Y-55.325
X-93.719 Y-55.16
X-93.689 Y-55.154
X-92.925 Y-55.017
X-92.895 Y-55.012
X-92.151 Y-54.902
X-92.119 Y-54.898
X-91.397 Y-54.816
X-91.365 Y-54.813
X-90.664 Y-54.756
X-90.632 Y-54.754
X-89.95 Y-54.721
X-89.92 Y-54.72
X-89.252 Y-54.709
X-89.224
X-88.563 Y-54.717
X-88.539 Y-54.718
X-87.881 Y-54.742
X-87.861 Y-54.743
X-87.199 Y-54.78
X-87.177 Y-54.782
X-85.824 Y-54.889
X-85.805 Y-54.891
X-84.408 Y-55.029
X-84.396 Y-55.031
X-82.959 Y-55.191
X-82.95 Y-55.192
X-81.493 Y-55.369
X-81.484 Y-55.371
X-80.03 Y-55.561
X-80.02 Y-55.562
X-78.597 Y-55.764
X-78.585 Y-55.765
X-77.217 Y-55.977
X-77.203 Y-55.979
X-75.907 Y-56.199
X-75.896 Y-56.201
X-74.666 Y-56.424
X-74.662
X-73.479 Y-56.643
X-72.897 Y-56.744
Z-2.713
X-72.303 Y-56.847
X-71.707 Y-56.939
X-71.089 Y-57.024
X-70.446 Y-57.1
X-69.771 Y-57.167
X-69.061 Y-57.223
X-68.314 Y-57.269
X-67.977 Y-57.285
Z-3 F508
X-67.529 Y-57.305 F2540
X-66.71 Y-57.331
X-65.857 Y-57.346
X-64.976 Y-57.352
X-63.129 Y-57.336
X-61.207 Y-57.288
X-59.242 Y-57.216
X-57.273 Y-57.127
X-55.335 Y-57.029
X-53.462 Y-56.932
X-53.46
X-51.678 Y-56.842
X-51.672
X-49.988 Y-56.768
X-49.979
X-48.386 Y-56.714
X-48.373 Y-56.713
X-46.85 Y-56.682
X-46.835
X-45.357 Y-56.675
X-45.342
X-43.882 Y-56.691
X-43.869 Y-56.692
X-42.408 Y-56.728
X-42.398
X-40.927 Y-56.782
X-40.92
X-39.436 Y-56.847
X-39.432
X-37.937 Y-56.919
X-36.434 Y-56.993
X-34.931 Y-57.062
X-33.436 Y-57.123
X-31.955 Y-57.169
X-30.495 Y-57.199
X-29.654 Y-57.205
X-29.053 Y-57.209 Z-3.021 F1016
G2 X-28.37 Y-57.494 Z-3.048 I-0.007 J-0.975
G1 X-25.577 Y-60.287 Z-3.185
G2 X-25.315 Y-60.611 Z-3.2 I-1.397 J-1.397
X-25.577 Y-63.08 I-1.658 J-1.073 F2540
G1 X-28.37 Y-65.873
G2 X-29.053 Y-66.159 I-0.689 J0.689
G1 X-30.495 Y-66.169
X-31.955 Y-66.199
X-33.436 Y-66.245
X-34.931 Y-66.305
X-36.434 Y-66.375
X-37.936 Y-66.448
X-39.432 Y-66.521
X-39.436
X-40.92 Y-66.586
X-40.927
X-42.398 Y-66.639
X-42.408 Y-66.64
X-43.869 Y-66.676
X-43.882
X-45.342 Y-66.693
X-45.357
X-46.835 Y-66.686
X-46.85
X-48.373 Y-66.655
X-48.386 Y-66.654
X-49.979 Y-66.6
X-49.988
X-51.672 Y-66.526
X-51.678 Y-66.525
X-53.46 Y-66.436
X-53.462
X-55.335 Y-66.339
X-57.273 Y-66.241
X-59.242 Y-66.152
X-61.207 Y-66.079
X-63.129 Y-66.032
X-64.976 Y-66.016
X-65.857 Y-66.021
X-66.71 Y-66.037
X-67.529 Y-66.062
X-67.977 Y-66.083
Z-2.713
X-68.314 Y-66.098
X-69.061 Y-66.145
X-69.771 Y-66.201
X-70.446 Y-66.268
X-71.089 Y-66.344
X-71.707 Y-66.429
X-72.303 Y-66.521
X-72.897 Y-66.624
Z-3.2 F508
X-73.479 Y-66.725 F2540
X-74.662 Y-66.943
X-74.666 Y-66.944
X-75.896 Y-67.167
X-75.907 Y-67.169
X-77.204 Y-67.389
X-77.217 Y-67.391
X-78.584 Y-67.603
X-78.597 Y-67.604
X-80.02 Y-67.806
X-80.03 Y-67.807
X-81.484 Y-67.997
X-81.493 Y-67.998
X-82.95 Y-68.175
X-82.959 Y-68.177
X-84.396 Y-68.337
X-84.408 Y-68.338
X-85.805 Y-68.477
X-85.824 Y-68.479
X-87.177 Y-68.586
X-87.198 Y-68.587
X-87.861 Y-68.625
X-87.881 Y-68.626
X-88.54 Y-68.65
X-88.563 Y-68.651
X-89.224 Y-68.659
X-89.252
X-89.92 Y-68.648
X-89.95 Y-68.647
X-90.632 Y-68.614
X-90.664 Y-68.612
X-91.365 Y-68.555
X-91.397 Y-68.552
X-92.119 Y-68.469
X-92.151 Y-68.465
X-92.895 Y-68.356
X-92.925 Y-68.351
X-93.689 Y-68.213
X-93.719 Y-68.208
X-94.5 Y-68.043
X-94.528 Y-68.036
X-95.322 Y-67.843
X-95.35 Y-67.836
X-96.149 Y-67.617
X-96.178 Y-67.609
X-96.976 Y-67.363
X-97.005 Y-67.354
X-97.794 Y-67.084
X-97.825 Y-67.073
X-98.598 Y-66.78
X-98.63 Y-66.767
X-99.377 Y-66.453
X-99.413 Y-66.437
X-100.125 Y-66.103
X-100.165 Y-66.083
X-100.834 Y-65.732
X-100.868 Y-65.713
X-101.183 Y-65.532
X-101.207 Y-65.518
X-101.508 Y-65.333
X-101.533 Y-65.316
X-101.819 Y-65.128
X-101.848 Y-65.108
X-102.117 Y-64.917
X-102.147 Y-64.895
X-102.399 Y-64.701
X-102.433 Y-64.673
X-102.666 Y-64.477
X-102.699 Y-64.448
X-102.914 Y-64.249
X-102.953 Y-64.21
X-103.147 Y-64.01
X-103.187 Y-63.966
X-103.36 Y-63.763
X-103.401 Y-63.713
X-103.553 Y-63.509
X-103.595 Y-63.448
X-103.725 Y-63.242
X-103.768 Y-63.167
X-103.874 Y-62.961
X-103.91 Y-62.881
X-103.994 Y-62.674
X-104.028 Y-62.578
X-104.088 Y-62.371
X-104.112 Y-62.266
X-104.148 Y-62.058
X-104.16 Y-61.948
X-104.172 Y-61.74
Y-61.628
X-104.16 Y-61.42
X-104.148 Y-61.309
X-104.112 Y-61.101
X-104.088 Y-60.997
X-104.028 Y-60.789
X-103.994 Y-60.694
X-103.91 Y-60.487
X-103.874 Y-60.407
X-103.768 Y-60.201
X-103.725 Y-60.125
X-103.595 Y-59.92
X-103.553 Y-59.859
X-103.401 Y-59.655
X-103.36 Y-59.605
X-103.187 Y-59.402
X-103.147 Y-59.358
X-102.953 Y-59.157
X-102.914 Y-59.119
X-102.699 Y-58.92
X-102.666 Y-58.891
X-102.433 Y-58.695
X-102.399 Y-58.667
X-102.147 Y-58.473
X-102.117 Y-58.451
X-101.848 Y-58.26
X-101.819 Y-58.24
X-101.533 Y-58.052
X-101.508 Y-58.035
X-101.207 Y-57.85
X-101.183 Y-57.836
X-100.868 Y-57.654
X-100.834 Y-57.636
X-100.165 Y-57.284
X-100.125 Y-57.265
X-99.413 Y-56.931
X-99.377 Y-56.915
X-98.63 Y-56.601
X-98.598 Y-56.588
X-97.825 Y-56.295
X-97.794 Y-56.284
X-97.005 Y-56.014
X-96.976 Y-56.004
X-96.177 Y-55.759
X-96.149 Y-55.751
X-95.35 Y-55.532
X-95.322 Y-55.524
X-94.528 Y-55.332
X-94.5 Y-55.325
X-93.719 Y-55.16
X-93.689 Y-55.154
X-92.925 Y-55.017
X-92.895 Y-55.012
X-92.151 Y-54.902
X-92.119 Y-54.898
X-91.397 Y-54.816
X-91.365 Y-54.813
X-90.664 Y-54.756
X-90.632 Y-54.754
X-89.95 Y-54.721
X-89.92 Y-54.72
X-89.252 Y-54.709
X-89.224
X-88.563 Y-54.717
X-88.539 Y-54.718
X-87.881 Y-54.742
X-87.861 Y-54.743
X-87.199 Y-54.78
X-87.177 Y-54.782
X-85.824 Y-54.889
X-85.805 Y-54.891
X-84.408 Y-55.029
X-84.396 Y-55.031
X-82.959 Y-55.191
X-82.95 Y-55.192
X-81.493 Y-55.369
X-81.484 Y-55.371
X-80.03 Y-55.561
X-80.02 Y-55.562
X-78.597 Y-55.764
X-78.585 Y-55.765
X-77.217 Y-55.977
X-77.203 Y-55.979
X-75.907 Y-56.199
X-75.896 Y-56.201
X-74.666 Y-56.424
X-74.662
X-73.479 Y-56.643
X-72.897 Y-56.744
Z-2.713
X-72.303 Y-56.847
X-71.707 Y-56.939
X-71.089 Y-57.024
X-70.446 Y-57.1
X-69.771 Y-57.167
X-69.061 Y-57.223
X-68.314 Y-57.269
X-67.977 Y-57.285
Z-3.2 F508
X-67.529 Y-57.305 F2540
X-66.71 Y-57.331
X-65.857 Y-57.346
X-64.976 Y-57.352
X-63.129 Y-57.336
X-61.207 Y-57.288
X-59.242 Y-57.216
X-57.273 Y-57.127
X-55.335 Y-57.029
X-53.462 Y-56.932
X-53.46
X-51.678 Y-56.842
X-51.672
X-49.988 Y-56.768
X-49.979
X-48.386 Y-56.714
X-48.373 Y-56.713
X-46.85 Y-56.682
X-46.835
X-45.357 Y-56.675
X-45.342
X-43.882 Y-56.691
X-43.869 Y-56.692
X-42.408 Y-56.728
X-42.398
X-40.927 Y-56.782
X-40.92
X-39.436 Y-56.847
X-39.432
X-37.937 Y-56.919
X-36.434 Y-56.993
X-34.931 Y-57.062
X-33.436 Y-57.123
X-31.955 Y-57.169
X-30.495 Y-57.199
X-29.053 Y-57.209
G2 X-28.37 Y-57.494 I-0.007 J-0.975
G1 X-25.577 Y-60.287
G2 X-25.315 Y-60.611 I-1.397 J-1.397
G0 Z5
X-20.244 Y-41.063
G1 Z1.3 F508
Z0.5
X-19.803 Y-41.013 Z0.485 F1016
X-19.791 Y-41.012 Z0.484
X-18.394 Y-40.874 Z0.435
X-18.375 Y-40.872 Z0.434
X-17.022 Y-40.765 Z0.387
X-17.001 Y-40.763 Z0.386
X-16.338 Y-40.725 Z0.363
X-16.318 Z0.362
X-15.66 Y-40.7 Z0.339
X-15.636
X-14.975 Y-40.692 Z0.315
X-14.948
X-14.279 Y-40.703 Z0.291
X-14.249 Y-40.704 Z0.29
X-13.567 Y-40.737 Z0.266
X-13.535 Y-40.739 Z0.265
X-12.834 Y-40.795 Z0.241
X-12.802 Y-40.799 Z0.239
X-12.08 Y-40.881 Z0.214
X-12.048 Y-40.885 Z0.213
X-11.304 Y-40.995 Z0.187
X-11.274 Y-41 Z0.186
X-10.51 Y-41.137 Z0.159
X-10.48 Y-41.143 Z0.157
X-9.699 Y-41.308 Z0.13
X-9.671 Y-41.314 Z0.129
X-8.877 Y-41.507 Z0.1
X-8.849 Y-41.514 Z0.099
X-8.05 Y-41.734 Z0.07
X-8.022 Y-41.742 Z0.069
X-7.223 Y-41.987 Z0.04
X-7.194 Y-41.997 Z0.039
X-6.405 Y-42.266 Z0.01
X-6.374 Y-42.277 Z0.009
X-5.601 Y-42.57 Z-0.02
X-5.569 Y-42.583 Z-0.022
X-4.822 Y-42.898 Z-0.05
X-4.786 Y-42.914 Z-0.051
X-4.074 Y-43.248 Z-0.079
X-4.034 Y-43.267 Z-0.08
X-3.365 Y-43.619 Z-0.107
X-3.332 Y-43.637 Z-0.108
X-3.017 Y-43.819 Z-0.121
X-2.992 Y-43.833 Z-0.122
X-2.691 Y-44.018 Z-0.134
X-2.665 Y-44.035 Z-0.135
X-2.38 Y-44.223 Z-0.147
X-2.352 Y-44.242 Z-0.148
X-2.082 Y-44.434 Z-0.16
X-2.052 Y-44.456 Z-0.161
X-1.8 Y-44.65 Z-0.172
X-1.767 Y-44.677 Z-0.174
X-1.534 Y-44.873 Z-0.184
X-1.499 Y-44.904 Z-0.186
X-1.285 Y-45.103 Z-0.196
X-1.247 Y-45.14 Z-0.198
X-1.053 Y-45.34 Z-0.208
X-1.013 Y-45.384 Z-0.21
X-0.839 Y-45.587 Z-0.219
X-0.798 Y-45.639 Z-0.221
X-0.646 Y-45.842 Z-0.23
X-0.604 Y-45.904 Z-0.233
X-0.474 Y-46.109 Z-0.241
X-0.433 Y-46.181 Z-0.244
X-0.326 Y-46.388 Z-0.252
X-0.288 Y-46.471 Z-0.256
X-0.204 Y-46.678 Z-0.263
X-0.171 Y-46.772 Z-0.267
X-0.111 Y-46.98 Z-0.274
X-0.087 Y-47.084 Z-0.278
X-0.051 Y-47.292 Z-0.285
X-0.039 Y-47.402 Z-0.289
X-0.027 Y-47.61 Z-0.297
X-0.026 Y-47.706 Z-0.3
X-0.027 Y-47.723 F2540
X-0.039 Y-47.931
X-0.051 Y-48.041
X-0.087 Y-48.249
X-0.111 Y-48.353
X-0.171 Y-48.561
X-0.204 Y-48.655
X-0.288 Y-48.862
X-0.326 Y-48.946
X-0.433 Y-49.152
X-0.474 Y-49.224
X-0.604 Y-49.429
X-0.646 Y-49.491
X-0.798 Y-49.695
X-0.839 Y-49.747
X-1.013 Y-49.949
X-1.053 Y-49.993
X-1.247 Y-50.194
X-1.284 Y-50.23
X-1.499 Y-50.429
X-1.534 Y-50.46
X-1.768 Y-50.657
X-1.8 Y-50.683
X-2.052 Y-50.877
X-2.082 Y-50.9
X-2.352 Y-51.091
X-2.38 Y-51.11
X-2.665 Y-51.299
X-2.691 Y-51.315
X-2.992 Y-51.5
X-3.017 Y-51.515
X-3.332 Y-51.696
X-3.365 Y-51.715
X-4.034 Y-52.066
X-4.074 Y-52.086
X-4.786 Y-52.42
X-4.822 Y-52.436
X-5.569 Y-52.75
X-5.601 Y-52.763
X-6.374 Y-53.056
X-6.405 Y-53.067
X-7.194 Y-53.337
X-7.223 Y-53.346
X-8.022 Y-53.591
X-8.05 Y-53.6
X-8.849 Y-53.819
X-8.877 Y-53.826
X-9.671 Y-54.019
X-9.699 Y-54.025
X-10.481 Y-54.19
X-10.51 Y-54.196
X-11.274 Y-54.334
X-11.305 Y-54.338
X-12.049 Y-54.448
X-12.08 Y-54.452
X-12.802 Y-54.535
X-12.834 Y-54.538
X-13.535 Y-54.595
X-13.567 Y-54.597
X-14.249 Y-54.629
X-14.279 Y-54.63
X-14.948 Y-54.641
X-14.975 Y-54.642
X-15.636 Y-54.634
X-15.66 Y-54.633
X-16.318 Y-54.609
X-16.338 Y-54.608
X-17 Y-54.57
X-17.022 Y-54.569
X-18.375 Y-54.461
X-18.394 Y-54.46
X-19.791 Y-54.321
X-19.803 Y-54.32
X-21.24 Y-54.159
X-21.249 Y-54.158
X-22.706 Y-53.981
X-22.715 Y-53.98
X-24.169 Y-53.79
X-24.179 Y-53.788
X-25.602 Y-53.587
X-25.615 Y-53.585
X-26.982 Y-53.374
X-26.996 Y-53.372
X-28.292 Y-53.152
X-28.303 Y-53.15
X-29.533 Y-52.927
X-29.537 Y-52.926
X-30.72 Y-52.707
X-31.896 Y-52.504
X-32.492 Y-52.412
X-33.11 Y-52.327
X-33.753 Y-52.251
X-34.428 Y-52.184
X-35.138 Y-52.127
X-35.885 Y-52.081
X-36.67 Y-52.045
X-37.489 Y-52.02
X-38.342 Y-52.004
X-39.223 Y-51.999
X-41.07 Y-52.014
X-42.992 Y-52.062
X-44.957 Y-52.135
X-46.926 Y-52.224
X-48.864 Y-52.322
X-50.737 Y-52.419
X-50.739
X-52.522 Y-52.508
X-52.527
X-54.211 Y-52.583
X-54.22
X-55.813 Y-52.637
X-55.826
X-57.349 Y-52.668
X-57.364
X-58.842 Y-52.675
X-58.857
X-60.317 Y-52.659
X-60.33
X-61.791 Y-52.622
X-61.801
X-63.272 Y-52.569
X-63.28
X-64.763 Y-52.504
X-64.767 Y-52.503
X-66.262 Y-52.431
X-67.765 Y-52.358
X-69.268 Y-52.288
X-70.763 Y-52.228
X-72.244 Y-52.181
X-73.704 Y-52.152
X-75.146 Y-52.142
G2 X-75.829 Y-51.856 I0.007 J0.975
G1 X-78.622 Y-49.063
G2 X-78.622 Y-46.27 I1.397 J1.397
G1 X-75.829 Y-43.477
G2 X-75.146 Y-43.192 I0.689 J-0.689
G1 X-73.704 Y-43.182
X-72.244 Y-43.152
X-70.763 Y-43.105
X-69.268 Y-43.045
X-67.765 Y-42.976
X-66.263 Y-42.902
X-64.767 Y-42.83
X-64.763
X-63.28 Y-42.765
X-63.272 Y-42.764
X-61.802 Y-42.711
X-61.791
X-60.33 Y-42.674
X-60.317
X-58.857 Y-42.658
X-58.842
X-57.364 Y-42.665
X-57.349
X-55.826 Y-42.696
X-55.813
X-54.22 Y-42.75
X-54.211 Y-42.751
X-52.527 Y-42.825
X-52.522
X-50.739 Y-42.914
X-50.737
X-48.864 Y-43.012
X-46.926 Y-43.109
X-44.957 Y-43.199
X-42.992 Y-43.271
X-41.07 Y-43.319
X-39.223 Y-43.335
X-38.342 Y-43.329
X-37.489 Y-43.314
X-36.67 Y-43.288
X-35.886 Y-43.252
X-35.138 Y-43.206
X-34.428 Y-43.149
X-33.753 Y-43.083
X-33.11 Y-43.007
X-32.493 Y-42.922
X-31.896 Y-42.83
X-30.72 Y-42.626
X-29.537 Y-42.407
X-29.534
X-28.304 Y-42.183
X-28.292 Y-42.181
X-26.996 Y-41.962
X-26.982 Y-41.96
X-25.615 Y-41.748
X-25.602 Y-41.746
X-24.179 Y-41.545
X-24.169 Y-41.543
X-22.715 Y-41.353
X-22.706 Y-41.352
X-21.249 Y-41.175
X-21.24 Y-41.174
X-19.803 Y-41.013
X-19.791 Y-41.012
X-18.394 Y-40.874
X-18.375 Y-40.872
X-17.022 Y-40.765
X-17.001 Y-40.763
X-16.338 Y-40.725
X-16.318
X-15.66 Y-40.7
X-15.636
X-14.975 Y-40.692
X-14.948
X-14.279 Y-40.703
X-14.249 Y-40.704
X-13.567 Y-40.737
X-13.535 Y-40.739
X-12.834 Y-40.795
X-12.802 Y-40.799
X-12.08 Y-40.881
X-12.048 Y-40.885
X-11.304 Y-40.995
X-11.274 Y-41
X-10.51 Y-41.137
X-10.48 Y-41.143
X-9.699 Y-41.308
X-9.671 Y-41.314
X-8.877 Y-41.507
X-8.849 Y-41.514
X-8.05 Y-41.734
X-8.022 Y-41.742
X-7.223 Y-41.987
X-7.194 Y-41.997
X-6.405 Y-42.266
X-6.374 Y-42.277
X-5.601 Y-42.57
X-5.569 Y-42.583
X-4.822 Y-42.898
X-4.786 Y-42.914
X-4.074 Y-43.248
X-4.034 Y-43.267
X-3.365 Y-43.619
X-3.332 Y-43.637
X-3.017 Y-43.819
X-2.992 Y-43.833
X-2.691 Y-44.018
X-2.665 Y-44.035
X-2.38 Y-44.223
X-2.352 Y-44.242
X-2.082 Y-44.434
X-2.052 Y-44.456
X-1.8 Y-44.65
X-1.767 Y-44.677
X-1.534 Y-44.873
X-1.499 Y-44.904
X-1.285 Y-45.103
X-1.247 Y-45.14
X-1.053 Y-45.34
X-1.013 Y-45.384
X-0.839 Y-45.587
X-0.798 Y-45.639
X-0.646 Y-45.842
X-0.604 Y-45.904
X-0.474 Y-46.109
X-0.433 Y-46.181
X-0.326 Y-46.388
X-0.288 Y-46.471
X-0.204 Y-46.678
X-0.171 Y-46.772
X-0.111 Y-46.98
X-0.087 Y-47.084
X-0.051 Y-47.292
X-0.039 Y-47.402
X-0.027 Y-47.61
X-0.026 Y-47.706
X-0.027 Y-47.723 Z-0.301 F1016
X-0.039 Y-47.931 Z-0.308
X-0.051 Y-48.041 Z-0.312
X-0.087 Y-48.249 Z-0.319
X-0.111 Y-48.353 Z-0.323
X-0.171 Y-48.561 Z-0.33
X-0.204 Y-48.655 Z-0.334
X-0.288 Y-48.862 Z-0.342
X-0.326 Y-48.946 Z-0.345
X-0.433 Y-49.152 Z-0.353
X-0.474 Y-49.224 Z-0.356
X-0.604 Y-49.429 Z-0.364
X-0.646 Y-49.491 Z-0.367
X-0.798 Y-49.695 Z-0.376
X-0.839 Y-49.747 Z-0.378
X-1.013 Y-49.949 Z-0.387
X-1.053 Y-49.993 Z-0.39
X-1.247 Y-50.194 Z-0.399
X-1.284 Y-50.23 Z-0.401
X-1.499 Y-50.429 Z-0.411
X-1.534 Y-50.46 Z-0.413
X-1.768 Y-50.657 Z-0.424
X-1.8 Y-50.683 Z-0.425
X-2.052 Y-50.877 Z-0.436
X-2.082 Y-50.9 Z-0.438
X-2.352 Y-51.091 Z-0.449
X-2.38 Y-51.11 Z-0.45
X-2.665 Y-51.299 Z-0.462
X-2.691 Y-51.315 Z-0.463
X-2.992 Y-51.5 Z-0.476
X-3.017 Y-51.515 Z-0.477
X-3.332 Y-51.696 Z-0.489
X-3.365 Y-51.715 Z-0.491
X-4.034 Y-52.066 Z-0.517
X-4.074 Y-52.086 Z-0.519
X-4.786 Y-52.42 Z-0.546
X-4.822 Y-52.436 Z-0.547
X-5.569 Y-52.75 Z-0.576
X-5.601 Y-52.763 Z-0.577
X-6.219 Y-52.997 Z-0.6
X-6.374 Y-53.056 F2540
X-6.405 Y-53.067
X-7.194 Y-53.337
X-7.223 Y-53.346
X-8.022 Y-53.591
X-8.05 Y-53.6
X-8.849 Y-53.819
X-8.877 Y-53.826
X-9.671 Y-54.019
X-9.699 Y-54.025
X-10.481 Y-54.19
X-10.51 Y-54.196
X-11.274 Y-54.334
X-11.305 Y-54.338
X-12.049 Y-54.448
X-12.08 Y-54.452
X-12.802 Y-54.535
X-12.834 Y-54.538
X-13.535 Y-54.595
X-13.567 Y-54.597
X-14.249 Y-54.629
X-14.279 Y-54.63
X-14.948 Y-54.641
X-14.975 Y-54.642
X-15.636 Y-54.634
X-15.66 Y-54.633
X-16.318 Y-54.609
X-16.338 Y-54.608
X-17 Y-54.57
X-17.022 Y-54.569
X-18.375 Y-54.461
X-18.394 Y-54.46
X-19.791 Y-54.321
X-19.803 Y-54.32
X-21.24 Y-54.159
X-21.249 Y-54.158
X-22.706 Y-53.981
X-22.715 Y-53.98
X-24.169 Y-53.79
X-24.179 Y-53.788
X-25.602 Y-53.587
X-25.615 Y-53.585
X-26.982 Y-53.374
X-26.996 Y-53.372
X-28.292 Y-53.152
X-28.303 Y-53.15
X-29.533 Y-52.927
X-29.537 Y-52.926
X-30.72 Y-52.707
X-31.896 Y-52.504
X-32.492 Y-52.412
X-33.11 Y-52.327
X-33.753 Y-52.251
X-34.428 Y-52.184
X-35.138 Y-52.127
X-35.885 Y-52.081
X-36.67 Y-52.045
X-37.489 Y-52.02
X-38.342 Y-52.004
X-39.223 Y-51.999
X-41.07 Y-52.014
X-42.992 Y-52.062
X-44.957 Y-52.135
X-46.926 Y-52.224
X-48.864 Y-52.322
X-50.737 Y-52.419
X-50.739
X-52.522 Y-52.508
X-52.527
X-54.211 Y-52.583
X-54.22
X-55.813 Y-52.637
X-55.826
X-57.349 Y-52.668
X-57.364
X-58.842 Y-52.675
X-58.857
X-60.317 Y-52.659
X-60.33
X-61.791 Y-52.622
X-61.801
X-63.272 Y-52.569
X-63.28
X-64.763 Y-52.504
X-64.767 Y-52.503
X-66.262 Y-52.431
X-67.765 Y-52.358
X-69.268 Y-52.288
X-70.763 Y-52.228
X-72.244 Y-52.181
X-73.704 Y-52.152
X-75.146 Y-52.142
G2 X-75.829 Y-51.856 I0.007 J0.975
G1 X-78.622 Y-49.063
G2 X-78.622 Y-46.27 I1.397 J1.397
G1 X-75.829 Y-43.477
G2 X-75.146 Y-43.192 I0.689 J-0.689
G1 X-73.704 Y-43.182
X-72.244 Y-43.152
X-70.763 Y-43.105
X-69.268 Y-43.045
X-67.765 Y-42.976
X-66.263 Y-42.902
X-64.767 Y-42.83
X-64.763
X-63.28 Y-42.765
X-63.272 Y-42.764
X-61.802 Y-42.711
X-61.791
X-60.33 Y-42.674
X-60.317
X-58.857 Y-42.658
X-58.842
X-57.364 Y-42.665
X-57.349
X-55.826 Y-42.696
X-55.813
X-54.22 Y-42.75
X-54.211 Y-42.751
X-52.527 Y-42.825
X-52.522
X-50.739 Y-42.914
X-50.737
X-48.864 Y-43.012
X-46.926 Y-43.109
X-44.957 Y-43.199
X-42.992 Y-43.271
X-41.07 Y-43.319
X-39.223 Y-43.335
X-38.342 Y-43.329
X-37.489 Y-43.314
X-36.67 Y-43.288
X-35.886 Y-43.252
X-35.138 Y-43.206
X-34.428 Y-43.149
X-33.753 Y-43.083
X-33.11 Y-43.007
X-32.493 Y-42.922
X-31.896 Y-42.83
X-30.72 Y-42.626
X-29.537 Y-42.407
X-29.534
X-28.304 Y-42.183
X-28.292 Y-42.181
X-26.996 Y-41.962
X-26.982 Y-41.96
X-25.615 Y-41.748
X-25.602 Y-41.746
X-24.179 Y-41.545
X-24.169 Y-41.543
X-22.715 Y-41.353
X-22.706 Y-41.352
X-21.249 Y-41.175
X-21.24 Y-41.174
X-19.803 Y-41.013
X-19.791 Y-41.012
X-18.394 Y-40.874
X-18.375 Y-40.872
X-17.022 Y-40.765
X-17.001 Y-40.763
X-16.338 Y-40.725
X-16.318
X-15.66 Y-40.7
X-15.636
X-14.975 Y-40.692
X-14.948
X-14.279 Y-40.703
X-14.249 Y-40.704
X-13.567 Y-40.737
X-13.535 Y-40.739
X-12.834 Y-40.795
X-12.802 Y-40.799
X-12.08 Y-40.881
X-12.048 Y-40.885
X-11.304 Y-40.995
X-11.274 Y-41
X-10.51 Y-41.137
X-10.48 Y-41.143
X-9.699 Y-41.308
X-9.671 Y-41.314
X-8.877 Y-41.507
X-8.849 Y-41.514
X-8.05 Y-41.734
X-8.022 Y-41.742
X-7.223 Y-41.987
X-7.194 Y-41.997
X-6.405 Y-42.266
X-6.374 Y-42.277
X-5.601 Y-42.57
X-5.569 Y-42.583
X-4.822 Y-42.898
X-4.786 Y-42.914
X-4.074 Y-43.248
X-4.034 Y-43.267
X-3.365 Y-43.619
X-3.332 Y-43.637
X-3.017 Y-43.819
X-2.992 Y-43.833
X-2.691 Y-44.018
X-2.665 Y-44.035
X-2.38 Y-44.223
X-2.352 Y-44.242
X-2.082 Y-44.434
X-2.052 Y-44.456
X-1.8 Y-44.65
X-1.767 Y-44.677
X-1.534 Y-44.873
X-1.499 Y-44.904
X-1.285 Y-45.103
X-1.247 Y-45.14
X-1.053 Y-45.34
X-1.013 Y-45.384
X-0.839 Y-45.587
X-0.798 Y-45.639
X-0.646 Y-45.842
X-0.604 Y-45.904
X-0.474 Y-46.109
X-0.433 Y-46.181
X-0.326 Y-46.388
X-0.288 Y-46.471
X-0.204 Y-46.678
X-0.171 Y-46.772
X-0.111 Y-46.98
X-0.087 Y-47.084
X-0.051 Y-47.292
X-0.039 Y-47.402
X-0.027 Y-47.61
Y-47.723
X-0.039 Y-47.931
X-0.051 Y-48.041
X-0.087 Y-48.249
X-0.111 Y-48.353
X-0.171 Y-48.561
X-0.204 Y-48.655
X-0.288 Y-48.862
X-0.326 Y-48.946
X-0.433 Y-49.152
X-0.474 Y-49.224
X-0.604 Y-49.429
X-0.646 Y-49.491
X-0.798 Y-49.695
X-0.839 Y-49.747
X-1.013 Y-49.949
X-1.053 Y-49.993
X-1.247 Y-50.194
X-1.284 Y-50.23
X-1.499 Y-50.429
X-1.534 Y-50.46
X-1.768 Y-50.657
X-1.8 Y-50.683
X-2.052 Y-50.877
X-2.082 Y-50.9
X-2.352 Y-51.091
X-2.38 Y-51.11
X-2.665 Y-51.299
X-2.691 Y-51.315
X-2.992 Y-51.5
X-3.017 Y-51.515
X-3.332 Y-51.696
X-3.365 Y-51.715
X-4.034 Y-52.066
X-4.074 Y-52.086
X-4.786 Y-52.42
X-4.822 Y-52.436
X-5.569 Y-52.75
X-5.601 Y-52.763
X-6.219 Y-52.997
X-6.374 Y-53.056 Z-0.606 F1016
X-6.405 Y-53.067 Z-0.607
X-7.194 Y-53.337 Z-0.636
X-7.223 Y-53.346 Z-0.637
X-8.022 Y-53.591 Z-0.666
X-8.05 Y-53.6 Z-0.667
X-8.849 Y-53.819 Z-0.696
X-8.877 Y-53.826 Z-0.697
X-9.671 Y-54.019 Z-0.726
X-9.699 Y-54.025 Z-0.727
X-10.481 Y-54.19 Z-0.755
X-10.51 Y-54.196 Z-0.756
X-11.274 Y-54.334 Z-0.783
X-11.305 Y-54.338 Z-0.784
X-12.049 Y-54.448 Z-0.81
X-12.08 Y-54.452 Z-0.811
X-12.802 Y-54.535 Z-0.837
X-12.834 Y-54.538 Z-0.838
X-13.535 Y-54.595 Z-0.862
X-13.567 Y-54.597 Z-0.863
X-14.249 Y-54.629 Z-0.887
X-14.279 Y-54.63 Z-0.888
X-14.612 Y-54.636 Z-0.9
X-14.948 Y-54.641 F2540
X-14.975 Y-54.642
X-15.636 Y-54.634
X-15.66 Y-54.633
X-16.318 Y-54.609
X-16.338 Y-54.608
X-17 Y-54.57
X-17.022 Y-54.569
X-18.375 Y-54.461
X-18.394 Y-54.46
X-19.791 Y-54.321
X-19.803 Y-54.32
X-21.24 Y-54.159
X-21.249 Y-54.158
X-22.706 Y-53.981
X-22.715 Y-53.98
X-24.169 Y-53.79
X-24.179 Y-53.788
X-25.602 Y-53.587
X-25.615 Y-53.585
X-26.982 Y-53.374
X-26.996 Y-53.372
X-28.292 Y-53.152
X-28.303 Y-53.15
X-29.533 Y-52.927
X-29.537 Y-52.926
X-30.72 Y-52.707
X-31.896 Y-52.504
X-32.492 Y-52.412
X-33.11 Y-52.327
X-33.753 Y-52.251
X-34.428 Y-52.184
X-35.138 Y-52.127
X-35.885 Y-52.081
X-36.67 Y-52.045
X-37.489 Y-52.02
X-38.342 Y-52.004
X-39.223 Y-51.999
X-41.07 Y-52.014
X-42.992 Y-52.062
X-44.957 Y-52.135
X-46.926 Y-52.224
X-48.864 Y-52.322
X-50.737 Y-52.419
X-50.739
X-52.522 Y-52.508
X-52.527
X-54.211 Y-52.583
X-54.22
X-55.813 Y-52.637
X-55.826
X-57.349 Y-52.668
X-57.364
X-58.842 Y-52.675
X-58.857
X-60.317 Y-52.659
X-60.33
X-61.791 Y-52.622
X-61.801
X-63.272 Y-52.569
X-63.28
X-64.763 Y-52.504
X-64.767 Y-52.503
X-66.262 Y-52.431
X-67.765 Y-52.358
X-69.268 Y-52.288
X-70.763 Y-52.228
X-72.244 Y-52.181
X-73.704 Y-52.152
X-75.146 Y-52.142
G2 X-75.829 Y-51.856 I0.007 J0.975
G1 X-78.622 Y-49.063
G2 X-78.622 Y-46.27 I1.397 J1.397
G1 X-75.829 Y-43.477
G2 X-75.146 Y-43.192 I0.689 J-0.689
G1 X-73.704 Y-43.182
X-72.244 Y-43.152
X-70.763 Y-43.105
X-69.268 Y-43.045
X-67.765 Y-42.976
X-66.263 Y-42.902
X-64.767 Y-42.83
X-64.763
X-63.28 Y-42.765
X-63.272 Y-42.764
X-61.802 Y-42.711
X-61.791
X-60.33 Y-42.674
X-60.317
X-58.857 Y-42.658
X-58.842
X-57.364 Y-42.665
X-57.349
X-55.826 Y-42.696
X-55.813
X-54.22 Y-42.75
X-54.211 Y-42.751
X-52.527 Y-42.825
X-52.522
X-50.739 Y-42.914
X-50.737
X-48.864 Y-43.012
X-46.926 Y-43.109
X-44.957 Y-43.199
X-42.992 Y-43.271
X-41.07 Y-43.319
X-39.223 Y-43.335
X-38.342 Y-43.329
X-37.489 Y-43.314
X-36.67 Y-43.288
X-35.886 Y-43.252
X-35.138 Y-43.206
X-34.428 Y-43.149
X-33.753 Y-43.083
X-33.11 Y-43.007
X-32.493 Y-42.922
X-31.896 Y-42.83
X-30.72 Y-42.626
X-29.537 Y-42.407
X-29.534
X-28.304 Y-42.183
X-28.292 Y-42.181
X-26.996 Y-41.962
X-26.982 Y-41.96
X-25.615 Y-41.748
X-25.602 Y-41.746
X-24.179 Y-41.545
X-24.169 Y-41.543
X-22.715 Y-41.353
X-22.706 Y-41.352
X-21.249 Y-41.175
X-21.24 Y-41.174
X-19.803 Y-41.013
X-19.791 Y-41.012
X-18.394 Y-40.874
X-18.375 Y-40.872
X-17.022 Y-40.765
X-17.001 Y-40.763
X-16.338 Y-40.725
X-16.318
X-15.66 Y-40.7
X-15.636
X-14.975 Y-40.692
X-14.948
X-14.279 Y-40.703
X-14.249 Y-40.704
X-13.567 Y-40.737
X-13.535 Y-40.739
X-12.834 Y-40.795
X-12.802 Y-40.799
X-12.08 Y-40.881
X-12.048 Y-40.885
X-11.304 Y-40.995
X-11.274 Y-41
X-10.51 Y-41.137
X-10.48 Y-41.143
X-9.699 Y-41.308
X-9.671 Y-41.314
X-8.877 Y-41.507
X-8.849 Y-41.514
X-8.05 Y-41.734
X-8.022 Y-41.742
X-7.223 Y-41.987
X-7.194 Y-41.997
X-6.405 Y-42.266
X-6.374 Y-42.277
X-5.601 Y-42.57
X-5.569 Y-42.583
X-4.822 Y-42.898
X-4.786 Y-42.914
X-4.074 Y-43.248
X-4.034 Y-43.267
X-3.365 Y-43.619
X-3.332 Y-43.637
X-3.017 Y-43.819
X-2.992 Y-43.833
X-2.691 Y-44.018
X-2.665 Y-44.035
X-2.38 Y-44.223
X-2.352 Y-44.242
X-2.082 Y-44.434
X-2.052 Y-44.456
X-1.8 Y-44.65
X-1.767 Y-44.677
X-1.534 Y-44.873
X-1.499 Y-44.904
X-1.285 Y-45.103
X-1.247 Y-45.14
X-1.053 Y-45.34
X-1.013 Y-45.384
X-0.839 Y-45.587
X-0.798 Y-45.639
X-0.646 Y-45.842
X-0.604 Y-45.904
X-0.474 Y-46.109
X-0.433 Y-46.181
X-0.326 Y-46.388
X-0.288 Y-46.471
X-0.204 Y-46.678
X-0.171 Y-46.772
