(Visaton)
(Maschine)
(  Hersteller: ChinaCnc)
(  model: 3040T)
(  description: Generic 3-axis)
(T5 D=3.175 CR=0 - ZMIN=-10.3 - Schaftfrser)
G90 G94
G17
G21
(-Attention- Property Safe Retracts is set to Clearance Height.)
(Ensure the clearance height will clear the part and or fixtures.)
(Raise the Z-axis to a safe height before starting the program.)
(When using Fusion for Personal Use, the feedrate of rapid)
(moves is reduced to match the feedrate of cutting moves,)
(which can increase machining time. Unrestricted rapid moves)
(are available with a Fusion Subscription.)

(Bohrfrsen1)
M0
(MANUAL TOOL CHANGE TO T5)
S6000 M3
G17 G90 G94
G54
G0 X40.581 Y-40.74
Z15
G1 Z2.682 F1000
Z1
X40.74
X40.771 Y-40.734
X40.797 Y-40.716
X40.815 Y-40.69
X40.821 Y-40.659
G3 X40.496 Y-40.659 Z0.939 I-0.162 J0
X40.821 Y-40.659 Z0.878 I0.162 J0
X40.496 Y-40.659 Z0.817 I-0.162 J0
X40.821 Y-40.659 Z0.756 I0.162 J0
X40.496 Y-40.659 Z0.694 I-0.162 J0
X40.821 Y-40.659 Z0.633 I0.162 J0
X40.496 Y-40.659 Z0.572 I-0.162 J0
X40.821 Y-40.659 Z0.511 I0.162 J0
X40.496 Y-40.659 Z0.45 I-0.162 J0
X40.821 Y-40.659 Z0.389 I0.162 J0
X40.496 Y-40.659 Z0.328 I-0.162 J0
X40.821 Y-40.659 Z0.267 I0.162 J0
X40.496 Y-40.659 Z0.206 I-0.162 J0
X40.821 Y-40.659 Z0.144 I0.162 J0
X40.496 Y-40.659 Z0.083 I-0.162 J0
X40.821 Y-40.659 Z0.022 I0.162 J0
X40.496 Y-40.659 Z-0.039 I-0.162 J0
X40.821 Y-40.659 Z-0.1 I0.162 J0
X40.496 Y-40.659 Z-0.161 I-0.162 J0
X40.821 Y-40.659 Z-0.222 I0.162 J0
X40.496 Y-40.659 Z-0.283 I-0.162 J0
X40.821 Y-40.659 Z-0.344 I0.162 J0
X40.496 Y-40.659 Z-0.406 I-0.162 J0
X40.821 Y-40.659 Z-0.467 I0.162 J0
X40.496 Y-40.659 Z-0.528 I-0.162 J0
X40.821 Y-40.659 Z-0.589 I0.162 J0
X40.496 Y-40.659 Z-0.65 I-0.162 J0
X40.821 Y-40.659 Z-0.711 I0.162 J0
X40.496 Y-40.659 Z-0.772 I-0.162 J0
X40.821 Y-40.659 Z-0.833 I0.162 J0
X40.496 Y-40.659 Z-0.894 I-0.162 J0
X40.821 Y-40.659 Z-0.956 I0.162 J0
X40.496 Y-40.659 Z-1.017 I-0.162 J0
X40.821 Y-40.659 Z-1.078 I0.162 J0
X40.496 Y-40.659 Z-1.139 I-0.162 J0
X40.821 Y-40.659 Z-1.2 I0.162 J0
X40.496 Y-40.659 Z-1.261 I-0.162 J0
X40.821 Y-40.659 Z-1.322 I0.162 J0
X40.496 Y-40.659 Z-1.383 I-0.162 J0
X40.821 Y-40.659 Z-1.444 I0.162 J0
X40.496 Y-40.659 Z-1.506 I-0.162 J0
X40.821 Y-40.659 Z-1.567 I0.162 J0
X40.496 Y-40.659 Z-1.628 I-0.162 J0
X40.821 Y-40.659 Z-1.689 I0.162 J0
X40.496 Y-40.659 Z-1.75 I-0.162 J0
X40.821 Y-40.659 Z-1.811 I0.162 J0
X40.496 Y-40.659 Z-1.872 I-0.162 J0
X40.821 Y-40.659 Z-1.933 I0.162 J0
X40.496 Y-40.659 Z-1.994 I-0.162 J0
X40.821 Y-40.659 Z-2.056 I0.162 J0
X40.496 Y-40.659 Z-2.117 I-0.162 J0
X40.821 Y-40.659 Z-2.178 I0.162 J0
X40.496 Y-40.659 Z-2.239 I-0.162 J0
X40.821 Y-40.659 Z-2.3 I0.162 J0
X40.496 Y-40.659 Z-2.361 I-0.162 J0
X40.821 Y-40.659 Z-2.422 I0.162 J0
X40.496 Y-40.659 Z-2.483 I-0.162 J0
X40.821 Y-40.659 Z-2.544 I0.162 J0
X40.496 Y-40.659 Z-2.606 I-0.162 J0
X40.821 Y-40.659 Z-2.667 I0.162 J0
X40.496 Y-40.659 Z-2.728 I-0.162 J0
X40.821 Y-40.659 Z-2.789 I0.162 J0
X40.496 Y-40.659 Z-2.85 I-0.162 J0
X40.821 Y-40.659 Z-2.911 I0.162 J0
X40.496 Y-40.659 Z-2.972 I-0.162 J0
X40.821 Y-40.659 Z-3.033 I0.162 J0
X40.496 Y-40.659 Z-3.094 I-0.162 J0
X40.821 Y-40.659 Z-3.156 I0.162 J0
X40.496 Y-40.659 Z-3.217 I-0.162 J0
X40.821 Y-40.659 Z-3.278 I0.162 J0
X40.496 Y-40.659 Z-3.339 I-0.162 J0
X40.821 Y-40.659 Z-3.4 I0.162 J0
X40.496 Y-40.659 Z-3.461 I-0.162 J0
X40.821 Y-40.659 Z-3.522 I0.162 J0
X40.496 Y-40.659 Z-3.583 I-0.162 J0
X40.821 Y-40.659 Z-3.644 I0.162 J0
X40.496 Y-40.659 Z-3.706 I-0.162 J0
X40.821 Y-40.659 Z-3.767 I0.162 J0
X40.496 Y-40.659 Z-3.828 I-0.162 J0
X40.821 Y-40.659 Z-3.889 I0.162 J0
X40.496 Y-40.659 Z-3.95 I-0.162 J0
X40.821 Y-40.659 Z-4.011 I0.162 J0
X40.496 Y-40.659 Z-4.072 I-0.162 J0
X40.821 Y-40.659 Z-4.133 I0.162 J0
X40.496 Y-40.659 Z-4.194 I-0.162 J0
X40.821 Y-40.659 Z-4.256 I0.162 J0
X40.496 Y-40.659 Z-4.317 I-0.162 J0
X40.821 Y-40.659 Z-4.378 I0.162 J0
X40.496 Y-40.659 Z-4.439 I-0.162 J0
X40.821 Y-40.659 Z-4.5 I0.162 J0
X40.496 Y-40.659 Z-4.561 I-0.162 J0
X40.821 Y-40.659 Z-4.622 I0.162 J0
X40.496 Y-40.659 Z-4.683 I-0.162 J0
X40.821 Y-40.659 Z-4.744 I0.162 J0
X40.496 Y-40.659 Z-4.806 I-0.162 J0
X40.821 Y-40.659 Z-4.867 I0.162 J0
X40.496 Y-40.659 Z-4.928 I-0.162 J0
X40.821 Y-40.659 Z-4.989 I0.162 J0
X40.496 Y-40.659 Z-5.05 I-0.162 J0
X40.821 Y-40.659 Z-5.111 I0.162 J0
X40.496 Y-40.659 Z-5.172 I-0.162 J0
X40.821 Y-40.659 Z-5.233 I0.162 J0
X40.496 Y-40.659 Z-5.294 I-0.162 J0
X40.821 Y-40.659 Z-5.356 I0.162 J0
X40.496 Y-40.659 Z-5.417 I-0.162 J0
X40.821 Y-40.659 Z-5.478 I0.162 J0
X40.496 Y-40.659 Z-5.539 I-0.162 J0
X40.821 Y-40.659 Z-5.6 I0.162 J0
X40.496 Y-40.659 Z-5.661 I-0.162 J0
X40.821 Y-40.659 Z-5.722 I0.162 J0
X40.496 Y-40.659 Z-5.783 I-0.162 J0
X40.821 Y-40.659 Z-5.844 I0.162 J0
X40.496 Y-40.659 Z-5.906 I-0.162 J0
X40.821 Y-40.659 Z-5.967 I0.162 J0
X40.496 Y-40.659 Z-6.028 I-0.162 J0
X40.821 Y-40.659 Z-6.089 I0.162 J0
X40.496 Y-40.659 Z-6.15 I-0.162 J0
X40.821 Y-40.659 Z-6.211 I0.162 J0
X40.496 Y-40.659 Z-6.272 I-0.162 J0
X40.821 Y-40.659 Z-6.333 I0.162 J0
X40.496 Y-40.659 Z-6.394 I-0.162 J0
X40.821 Y-40.659 Z-6.456 I0.162 J0
X40.496 Y-40.659 Z-6.517 I-0.162 J0
X40.821 Y-40.659 Z-6.578 I0.162 J0
X40.496 Y-40.659 Z-6.639 I-0.162 J0
X40.821 Y-40.659 Z-6.7 I0.162 J0
X40.496 Y-40.659 Z-6.761 I-0.162 J0
X40.821 Y-40.659 Z-6.822 I0.162 J0
X40.496 Y-40.659 Z-6.883 I-0.162 J0
X40.821 Y-40.659 Z-6.944 I0.162 J0
X40.496 Y-40.659 Z-7.006 I-0.162 J0
X40.821 Y-40.659 Z-7.067 I0.162 J0
X40.496 Y-40.659 Z-7.128 I-0.162 J0
X40.821 Y-40.659 Z-7.189 I0.162 J0
X40.496 Y-40.659 Z-7.25 I-0.162 J0
X40.821 Y-40.659 Z-7.311 I0.163 J0
X40.496 Y-40.659 Z-7.372 I-0.163 J0
X40.821 Y-40.659 Z-7.433 I0.163 J0
X40.496 Y-40.659 Z-7.494 I-0.163 J0
X40.821 Y-40.659 Z-7.556 I0.163 J0
X40.496 Y-40.659 Z-7.617 I-0.163 J0
X40.821 Y-40.659 Z-7.678 I0.163 J0
X40.496 Y-40.659 Z-7.739 I-0.163 J0
X40.821 Y-40.659 Z-7.8 I0.163 J0
X40.496 Y-40.659 Z-7.861 I-0.163 J0
X40.821 Y-40.659 Z-7.922 I0.163 J0
X40.496 Y-40.659 Z-7.983 I-0.163 J0
X40.821 Y-40.659 Z-8.044 I0.163 J0
X40.496 Y-40.659 Z-8.106 I-0.163 J0
X40.821 Y-40.659 Z-8.167 I0.163 J0
X40.496 Y-40.659 Z-8.228 I-0.163 J0
X40.821 Y-40.659 Z-8.289 I0.163 J0
X40.496 Y-40.659 Z-8.35 I-0.163 J0
X40.821 Y-40.659 Z-8.411 I0.163 J0
X40.496 Y-40.659 Z-8.472 I-0.163 J0
X40.821 Y-40.659 Z-8.533 I0.163 J0
X40.496 Y-40.659 Z-8.594 I-0.163 J0
X40.821 Y-40.659 Z-8.656 I0.163 J0
X40.496 Y-40.659 Z-8.717 I-0.163 J0
X40.821 Y-40.659 Z-8.778 I0.163 J0
X40.496 Y-40.659 Z-8.839 I-0.163 J0
X40.821 Y-40.659 Z-8.9 I0.163 J0
X40.496 Y-40.659 Z-8.961 I-0.163 J0
X40.821 Y-40.659 Z-9.022 I0.163 J0
X40.496 Y-40.659 Z-9.083 I-0.163 J0
X40.821 Y-40.659 Z-9.144 I0.163 J0
X40.496 Y-40.659 Z-9.206 I-0.163 J0
X40.821 Y-40.659 Z-9.267 I0.163 J0
X40.496 Y-40.659 Z-9.328 I-0.163 J0
X40.821 Y-40.659 Z-9.389 I0.163 J0
X40.496 Y-40.659 Z-9.45 I-0.163 J0
X40.821 Y-40.659 Z-9.511 I0.163 J0
X40.496 Y-40.659 Z-9.572 I-0.163 J0
X40.821 Y-40.659 Z-9.633 I0.163 J0
X40.496 Y-40.659 Z-9.694 I-0.163 J0
X40.821 Y-40.659 Z-9.756 I0.163 J0
X40.496 Y-40.659 Z-9.817 I-0.163 J0
X40.821 Y-40.659 Z-9.878 I0.163 J0
X40.496 Y-40.659 Z-9.939 I-0.163 J0
X40.821 Y-40.659 Z-10 I0.163 J0
X40.496 Y-40.659 Z-10.061 I-0.163 J0
X40.821 Y-40.659 Z-10.122 I0.163 J0
X40.496 Y-40.659 Z-10.183 I-0.163 J0
X40.821 Y-40.659 Z-10.244 I0.163 J0
X40.503 Y-40.613 Z-10.3 I-0.163 J0
X40.814 Y-40.705 I0.156 J-0.046
X40.503 Y-40.613 I-0.156 J0.046
G1 X40.5 Y-40.644
X40.509 Y-40.674
X40.53 Y-40.699
X40.558 Y-40.713
X40.71 Y-40.759
Z5
X-40.736 Y-40.74
Z2.682
Z1
X-40.577
X-40.546 Y-40.734
X-40.52 Y-40.716
X-40.502 Y-40.69
X-40.496 Y-40.659
G3 X-40.821 Y-40.659 Z0.939 I-0.163 J0
X-40.496 Y-40.659 Z0.878 I0.163 J0
X-40.821 Y-40.659 Z0.817 I-0.163 J0
X-40.496 Y-40.659 Z0.756 I0.163 J0
X-40.821 Y-40.659 Z0.694 I-0.163 J0
X-40.496 Y-40.659 Z0.633 I0.163 J0
X-40.821 Y-40.659 Z0.572 I-0.163 J0
X-40.496 Y-40.659 Z0.511 I0.163 J0
X-40.821 Y-40.659 Z0.45 I-0.163 J0
X-40.496 Y-40.659 Z0.389 I0.163 J0
X-40.821 Y-40.659 Z0.328 I-0.163 J0
X-40.496 Y-40.659 Z0.267 I0.163 J0
X-40.821 Y-40.659 Z0.206 I-0.163 J0
X-40.496 Y-40.659 Z0.144 I0.163 J0
X-40.821 Y-40.659 Z0.083 I-0.163 J0
X-40.496 Y-40.659 Z0.022 I0.163 J0
X-40.821 Y-40.659 Z-0.039 I-0.163 J0
X-40.496 Y-40.659 Z-0.1 I0.163 J0
X-40.821 Y-40.659 Z-0.161 I-0.163 J0
X-40.496 Y-40.659 Z-0.222 I0.163 J0
X-40.821 Y-40.659 Z-0.283 I-0.163 J0
X-40.496 Y-40.659 Z-0.344 I0.163 J0
X-40.821 Y-40.659 Z-0.406 I-0.163 J0
X-40.496 Y-40.659 Z-0.467 I0.163 J0
X-40.821 Y-40.659 Z-0.528 I-0.163 J0
X-40.496 Y-40.659 Z-0.589 I0.163 J0
X-40.821 Y-40.659 Z-0.65 I-0.163 J0
X-40.496 Y-40.659 Z-0.711 I0.163 J0
X-40.821 Y-40.659 Z-0.772 I-0.163 J0
X-40.496 Y-40.659 Z-0.833 I0.163 J0
X-40.821 Y-40.659 Z-0.894 I-0.163 J0
X-40.496 Y-40.659 Z-0.956 I0.163 J0
X-40.821 Y-40.659 Z-1.017 I-0.163 J0
X-40.496 Y-40.659 Z-1.078 I0.163 J0
X-40.821 Y-40.659 Z-1.139 I-0.163 J0
X-40.496 Y-40.659 Z-1.2 I0.163 J0
X-40.821 Y-40.659 Z-1.261 I-0.163 J0
X-40.496 Y-40.659 Z-1.322 I0.163 J0
X-40.821 Y-40.659 Z-1.383 I-0.163 J0
X-40.496 Y-40.659 Z-1.444 I0.163 J0
X-40.821 Y-40.659 Z-1.506 I-0.163 J0
X-40.496 Y-40.659 Z-1.567 I0.163 J0
X-40.821 Y-40.659 Z-1.628 I-0.163 J0
X-40.496 Y-40.659 Z-1.689 I0.163 J0
X-40.821 Y-40.659 Z-1.75 I-0.163 J0
X-40.496 Y-40.659 Z-1.811 I0.163 J0
X-40.821 Y-40.659 Z-1.872 I-0.163 J0
X-40.496 Y-40.659 Z-1.933 I0.163 J0
X-40.821 Y-40.659 Z-1.994 I-0.163 J0
X-40.496 Y-40.659 Z-2.056 I0.163 J0
X-40.821 Y-40.659 Z-2.117 I-0.163 J0
X-40.496 Y-40.659 Z-2.178 I0.163 J0
X-40.821 Y-40.659 Z-2.239 I-0.163 J0
X-40.496 Y-40.659 Z-2.3 I0.163 J0
X-40.821 Y-40.659 Z-2.361 I-0.163 J0
X-40.496 Y-40.659 Z-2.422 I0.163 J0
X-40.821 Y-40.659 Z-2.483 I-0.163 J0
X-40.496 Y-40.659 Z-2.544 I0.163 J0
X-40.821 Y-40.659 Z-2.606 I-0.163 J0
X-40.496 Y-40.659 Z-2.667 I0.163 J0
X-40.821 Y-40.659 Z-2.728 I-0.163 J0
X-40.496 Y-40.659 Z-2.789 I0.163 J0
X-40.821 Y-40.659 Z-2.85 I-0.163 J0
X-40.496 Y-40.659 Z-2.911 I0.163 J0
X-40.821 Y-40.659 Z-2.972 I-0.163 J0
X-40.496 Y-40.659 Z-3.033 I0.163 J0
X-40.821 Y-40.659 Z-3.094 I-0.163 J0
X-40.496 Y-40.659 Z-3.156 I0.163 J0
X-40.821 Y-40.659 Z-3.217 I-0.163 J0
X-40.496 Y-40.659 Z-3.278 I0.163 J0
X-40.821 Y-40.659 Z-3.339 I-0.163 J0
X-40.496 Y-40.659 Z-3.4 I0.163 J0
X-40.821 Y-40.659 Z-3.461 I-0.163 J0
X-40.496 Y-40.659 Z-3.522 I0.163 J0
X-40.821 Y-40.659 Z-3.583 I-0.163 J0
X-40.496 Y-40.659 Z-3.644 I0.163 J0
X-40.821 Y-40.659 Z-3.706 I-0.163 J0
X-40.496 Y-40.659 Z-3.767 I0.163 J0
X-40.821 Y-40.659 Z-3.828 I-0.163 J0
X-40.496 Y-40.659 Z-3.889 I0.162 J0
X-40.821 Y-40.659 Z-3.95 I-0.162 J0
X-40.496 Y-40.659 Z-4.011 I0.162 J0
X-40.821 Y-40.659 Z-4.072 I-0.162 J0
X-40.496 Y-40.659 Z-4.133 I0.162 J0
X-40.821 Y-40.659 Z-4.194 I-0.162 J0
X-40.496 Y-40.659 Z-4.256 I0.162 J0
X-40.821 Y-40.659 Z-4.317 I-0.162 J0
X-40.496 Y-40.659 Z-4.378 I0.162 J0
X-40.821 Y-40.659 Z-4.439 I-0.162 J0
X-40.496 Y-40.659 Z-4.5 I0.162 J0
X-40.821 Y-40.659 Z-4.561 I-0.162 J0
X-40.496 Y-40.659 Z-4.622 I0.162 J0
X-40.821 Y-40.659 Z-4.683 I-0.162 J0
X-40.496 Y-40.659 Z-4.744 I0.162 J0
X-40.821 Y-40.659 Z-4.806 I-0.162 J0
X-40.496 Y-40.659 Z-4.867 I0.162 J0
X-40.821 Y-40.659 Z-4.928 I-0.162 J0
X-40.496 Y-40.659 Z-4.989 I0.162 J0
X-40.821 Y-40.659 Z-5.05 I-0.162 J0
X-40.496 Y-40.659 Z-5.111 I0.162 J0
X-40.821 Y-40.659 Z-5.172 I-0.162 J0
X-40.496 Y-40.659 Z-5.233 I0.162 J0
X-40.821 Y-40.659 Z-5.294 I-0.162 J0
X-40.496 Y-40.659 Z-5.356 I0.162 J0
X-40.821 Y-40.659 Z-5.417 I-0.162 J0
X-40.496 Y-40.659 Z-5.478 I0.162 J0
X-40.821 Y-40.659 Z-5.539 I-0.162 J0
X-40.496 Y-40.659 Z-5.6 I0.162 J0
X-40.821 Y-40.659 Z-5.661 I-0.162 J0
X-40.496 Y-40.659 Z-5.722 I0.162 J0
X-40.821 Y-40.659 Z-5.783 I-0.162 J0
X-40.496 Y-40.659 Z-5.844 I0.162 J0
X-40.821 Y-40.659 Z-5.906 I-0.162 J0
X-40.496 Y-40.659 Z-5.967 I0.162 J0
X-40.821 Y-40.659 Z-6.028 I-0.162 J0
X-40.496 Y-40.659 Z-6.089 I0.162 J0
X-40.821 Y-40.659 Z-6.15 I-0.162 J0
X-40.496 Y-40.659 Z-6.211 I0.162 J0
X-40.821 Y-40.659 Z-6.272 I-0.162 J0
X-40.496 Y-40.659 Z-6.333 I0.162 J0
X-40.821 Y-40.659 Z-6.394 I-0.162 J0
X-40.496 Y-40.659 Z-6.456 I0.162 J0
X-40.821 Y-40.659 Z-6.517 I-0.162 J0
X-40.496 Y-40.659 Z-6.578 I0.162 J0
X-40.821 Y-40.659 Z-6.639 I-0.162 J0
X-40.496 Y-40.659 Z-6.7 I0.162 J0
X-40.821 Y-40.659 Z-6.761 I-0.162 J0
X-40.496 Y-40.659 Z-6.822 I0.162 J0
X-40.821 Y-40.659 Z-6.883 I-0.162 J0
X-40.496 Y-40.659 Z-6.944 I0.162 J0
X-40.821 Y-40.659 Z-7.006 I-0.162 J0
X-40.496 Y-40.659 Z-7.067 I0.162 J0
X-40.821 Y-40.659 Z-7.128 I-0.162 J0
X-40.496 Y-40.659 Z-7.189 I0.162 J0
X-40.821 Y-40.659 Z-7.25 I-0.162 J0
X-40.496 Y-40.659 Z-7.311 I0.162 J0
X-40.821 Y-40.659 Z-7.372 I-0.162 J0
X-40.496 Y-40.659 Z-7.433 I0.162 J0
X-40.821 Y-40.659 Z-7.494 I-0.162 J0
X-40.496 Y-40.659 Z-7.556 I0.162 J0
X-40.821 Y-40.659 Z-7.617 I-0.162 J0
X-40.496 Y-40.659 Z-7.678 I0.162 J0
X-40.821 Y-40.659 Z-7.739 I-0.162 J0
X-40.496 Y-40.659 Z-7.8 I0.162 J0
X-40.821 Y-40.659 Z-7.861 I-0.162 J0
X-40.496 Y-40.659 Z-7.922 I0.162 J0
X-40.821 Y-40.659 Z-7.983 I-0.162 J0
X-40.496 Y-40.659 Z-8.044 I0.162 J0
X-40.821 Y-40.659 Z-8.106 I-0.162 J0
X-40.496 Y-40.659 Z-8.167 I0.162 J0
X-40.821 Y-40.659 Z-8.228 I-0.162 J0
X-40.496 Y-40.659 Z-8.289 I0.162 J0
X-40.821 Y-40.659 Z-8.35 I-0.162 J0
X-40.496 Y-40.659 Z-8.411 I0.162 J0
X-40.821 Y-40.659 Z-8.472 I-0.162 J0
X-40.496 Y-40.659 Z-8.533 I0.162 J0
X-40.821 Y-40.659 Z-8.594 I-0.162 J0
X-40.496 Y-40.659 Z-8.656 I0.162 J0
X-40.821 Y-40.659 Z-8.717 I-0.162 J0
X-40.496 Y-40.659 Z-8.778 I0.162 J0
X-40.821 Y-40.659 Z-8.839 I-0.162 J0
X-40.496 Y-40.659 Z-8.9 I0.162 J0
X-40.821 Y-40.659 Z-8.961 I-0.162 J0
X-40.496 Y-40.659 Z-9.022 I0.162 J0
X-40.821 Y-40.659 Z-9.083 I-0.162 J0
X-40.496 Y-40.659 Z-9.144 I0.162 J0
X-40.821 Y-40.659 Z-9.206 I-0.162 J0
X-40.496 Y-40.659 Z-9.267 I0.162 J0
X-40.821 Y-40.659 Z-9.328 I-0.162 J0
X-40.496 Y-40.659 Z-9.389 I0.162 J0
X-40.821 Y-40.659 Z-9.45 I-0.162 J0
X-40.496 Y-40.659 Z-9.511 I0.162 J0
X-40.821 Y-40.659 Z-9.572 I-0.162 J0
X-40.496 Y-40.659 Z-9.633 I0.162 J0
X-40.821 Y-40.659 Z-9.694 I-0.162 J0
X-40.496 Y-40.659 Z-9.756 I0.162 J0
X-40.821 Y-40.659 Z-9.817 I-0.162 J0
X-40.496 Y-40.659 Z-9.878 I0.162 J0
X-40.821 Y-40.659 Z-9.939 I-0.162 J0
X-40.496 Y-40.659 Z-10 I0.162 J0
X-40.821 Y-40.659 Z-10.061 I-0.162 J0
X-40.496 Y-40.659 Z-10.122 I0.162 J0
X-40.821 Y-40.659 Z-10.183 I-0.162 J0
X-40.496 Y-40.659 Z-10.244 I0.162 J0
X-40.814 Y-40.613 Z-10.3 I-0.162 J0
X-40.503 Y-40.705 I0.156 J-0.046
X-40.814 Y-40.613 I-0.156 J0.046
G1 X-40.817 Y-40.644
X-40.808 Y-40.674
X-40.788 Y-40.699
X-40.76 Y-40.713
X-40.607 Y-40.759
Z5
X-40.736 Y40.577
Z2.682
Z1
X-40.577
X-40.546 Y40.584
X-40.52 Y40.601
X-40.502 Y40.628
X-40.496 Y40.659
G3 X-40.821 Y40.659 Z0.939 I-0.163 J0
X-40.496 Y40.659 Z0.878 I0.163 J0
X-40.821 Y40.659 Z0.817 I-0.163 J0
X-40.496 Y40.659 Z0.756 I0.163 J0
X-40.821 Y40.659 Z0.694 I-0.163 J0
X-40.496 Y40.659 Z0.633 I0.163 J0
X-40.821 Y40.659 Z0.572 I-0.163 J0
X-40.496 Y40.659 Z0.511 I0.163 J0
X-40.821 Y40.659 Z0.45 I-0.163 J0
X-40.496 Y40.659 Z0.389 I0.163 J0
X-40.821 Y40.659 Z0.328 I-0.163 J0
X-40.496 Y40.659 Z0.267 I0.163 J0
X-40.821 Y40.659 Z0.206 I-0.163 J0
X-40.496 Y40.659 Z0.144 I0.163 J0
X-40.821 Y40.659 Z0.083 I-0.163 J0
X-40.496 Y40.659 Z0.022 I0.163 J0
X-40.821 Y40.659 Z-0.039 I-0.163 J0
X-40.496 Y40.659 Z-0.1 I0.163 J0
X-40.821 Y40.659 Z-0.161 I-0.163 J0
X-40.496 Y40.659 Z-0.222 I0.163 J0
X-40.821 Y40.659 Z-0.283 I-0.163 J0
X-40.496 Y40.659 Z-0.344 I0.163 J0
X-40.821 Y40.659 Z-0.406 I-0.163 J0
X-40.496 Y40.659 Z-0.467 I0.163 J0
X-40.821 Y40.659 Z-0.528 I-0.163 J0
X-40.496 Y40.659 Z-0.589 I0.163 J0
X-40.821 Y40.659 Z-0.65 I-0.163 J0
X-40.496 Y40.659 Z-0.711 I0.163 J0
X-40.821 Y40.659 Z-0.772 I-0.163 J0
X-40.496 Y40.659 Z-0.833 I0.163 J0
X-40.821 Y40.659 Z-0.894 I-0.163 J0
X-40.496 Y40.659 Z-0.956 I0.163 J0
X-40.821 Y40.659 Z-1.017 I-0.163 J0
X-40.496 Y40.659 Z-1.078 I0.163 J0
X-40.821 Y40.659 Z-1.139 I-0.163 J0
X-40.496 Y40.659 Z-1.2 I0.163 J0
X-40.821 Y40.659 Z-1.261 I-0.163 J0
X-40.496 Y40.659 Z-1.322 I0.163 J0
X-40.821 Y40.659 Z-1.383 I-0.163 J0
X-40.496 Y40.659 Z-1.444 I0.163 J0
X-40.821 Y40.659 Z-1.506 I-0.163 J0
X-40.496 Y40.659 Z-1.567 I0.163 J0
X-40.821 Y40.659 Z-1.628 I-0.163 J0
X-40.496 Y40.659 Z-1.689 I0.163 J0
X-40.821 Y40.659 Z-1.75 I-0.163 J0
X-40.496 Y40.659 Z-1.811 I0.163 J0
X-40.821 Y40.659 Z-1.872 I-0.163 J0
X-40.496 Y40.659 Z-1.933 I0.163 J0
X-40.821 Y40.659 Z-1.994 I-0.163 J0
X-40.496 Y40.659 Z-2.056 I0.163 J0
X-40.821 Y40.659 Z-2.117 I-0.163 J0
X-40.496 Y40.659 Z-2.178 I0.163 J0
X-40.821 Y40.659 Z-2.239 I-0.163 J0
X-40.496 Y40.659 Z-2.3 I0.163 J0
X-40.821 Y40.659 Z-2.361 I-0.163 J0
X-40.496 Y40.659 Z-2.422 I0.163 J0
X-40.821 Y40.659 Z-2.483 I-0.163 J0
X-40.496 Y40.659 Z-2.544 I0.163 J0
X-40.821 Y40.659 Z-2.606 I-0.163 J0
X-40.496 Y40.659 Z-2.667 I0.163 J0
X-40.821 Y40.659 Z-2.728 I-0.163 J0
X-40.496 Y40.659 Z-2.789 I0.163 J0
X-40.821 Y40.659 Z-2.85 I-0.163 J0
X-40.496 Y40.659 Z-2.911 I0.163 J0
X-40.821 Y40.659 Z-2.972 I-0.163 J0
X-40.496 Y40.659 Z-3.033 I0.163 J0
X-40.821 Y40.659 Z-3.094 I-0.162 J0
X-40.496 Y40.659 Z-3.156 I0.162 J0
X-40.821 Y40.659 Z-3.217 I-0.162 J0
X-40.496 Y40.659 Z-3.278 I0.162 J0
X-40.821 Y40.659 Z-3.339 I-0.162 J0
X-40.496 Y40.659 Z-3.4 I0.162 J0
X-40.821 Y40.659 Z-3.461 I-0.162 J0
X-40.496 Y40.659 Z-3.522 I0.162 J0
X-40.821 Y40.659 Z-3.583 I-0.162 J0
X-40.496 Y40.659 Z-3.644 I0.162 J0
X-40.821 Y40.659 Z-3.706 I-0.162 J0
X-40.496 Y40.659 Z-3.767 I0.162 J0
X-40.821 Y40.659 Z-3.828 I-0.162 J0
X-40.496 Y40.659 Z-3.889 I0.162 J0
X-40.821 Y40.659 Z-3.95 I-0.162 J0
X-40.496 Y40.659 Z-4.011 I0.162 J0
X-40.821 Y40.659 Z-4.072 I-0.162 J0
X-40.496 Y40.659 Z-4.133 I0.162 J0
X-40.821 Y40.659 Z-4.194 I-0.162 J0
X-40.496 Y40.659 Z-4.256 I0.162 J0
X-40.821 Y40.659 Z-4.317 I-0.162 J0
X-40.496 Y40.659 Z-4.378 I0.162 J0
X-40.821 Y40.659 Z-4.439 I-0.162 J0
X-40.496 Y40.659 Z-4.5 I0.162 J0
X-40.821 Y40.659 Z-4.561 I-0.162 J0
X-40.496 Y40.659 Z-4.622 I0.162 J0
X-40.821 Y40.659 Z-4.683 I-0.162 J0
X-40.496 Y40.659 Z-4.744 I0.162 J0
X-40.821 Y40.659 Z-4.806 I-0.162 J0
X-40.496 Y40.659 Z-4.867 I0.162 J0
X-40.821 Y40.659 Z-4.928 I-0.162 J0
X-40.496 Y40.659 Z-4.989 I0.162 J0
X-40.821 Y40.659 Z-5.05 I-0.162 J0
X-40.496 Y40.659 Z-5.111 I0.162 J0
X-40.821 Y40.659 Z-5.172 I-0.162 J0
X-40.496 Y40.659 Z-5.233 I0.162 J0
X-40.821 Y40.659 Z-5.294 I-0.162 J0
X-40.496 Y40.659 Z-5.356 I0.162 J0
X-40.821 Y40.659 Z-5.417 I-0.162 J0
X-40.496 Y40.659 Z-5.478 I0.162 J0
X-40.821 Y40.659 Z-5.539 I-0.162 J0
X-40.496 Y40.659 Z-5.6 I0.162 J0
X-40.821 Y40.659 Z-5.661 I-0.162 J0
X-40.496 Y40.659 Z-5.722 I0.162 J0
X-40.821 Y40.659 Z-5.783 I-0.162 J0
X-40.496 Y40.659 Z-5.844 I0.162 J0
X-40.821 Y40.659 Z-5.906 I-0.162 J0
X-40.496 Y40.659 Z-5.967 I0.162 J0
X-40.821 Y40.659 Z-6.028 I-0.162 J0
X-40.496 Y40.659 Z-6.089 I0.162 J0
X-40.821 Y40.659 Z-6.15 I-0.162 J0
X-40.496 Y40.659 Z-6.211 I0.162 J0
X-40.821 Y40.659 Z-6.272 I-0.162 J0
X-40.496 Y40.659 Z-6.333 I0.162 J0
X-40.821 Y40.659 Z-6.394 I-0.162 J0
X-40.496 Y40.659 Z-6.456 I0.162 J0
X-40.821 Y40.659 Z-6.517 I-0.162 J0
X-40.496 Y40.659 Z-6.578 I0.162 J0
X-40.821 Y40.659 Z-6.639 I-0.162 J0
X-40.496 Y40.659 Z-6.7 I0.162 J0
X-40.821 Y40.659 Z-6.761 I-0.162 J0
X-40.496 Y40.659 Z-6.822 I0.162 J0
X-40.821 Y40.659 Z-6.883 I-0.162 J0
X-40.496 Y40.659 Z-6.944 I0.162 J0
X-40.821 Y40.659 Z-7.006 I-0.162 J0
X-40.496 Y40.659 Z-7.067 I0.162 J0
X-40.821 Y40.659 Z-7.128 I-0.162 J0
X-40.496 Y40.659 Z-7.189 I0.162 J0
X-40.821 Y40.659 Z-7.25 I-0.162 J0
X-40.496 Y40.659 Z-7.311 I0.162 J0
X-40.821 Y40.659 Z-7.372 I-0.162 J0
X-40.496 Y40.659 Z-7.433 I0.162 J0
X-40.821 Y40.659 Z-7.494 I-0.162 J0
X-40.496 Y40.659 Z-7.556 I0.162 J0
X-40.821 Y40.659 Z-7.617 I-0.162 J0
X-40.496 Y40.659 Z-7.678 I0.162 J0
X-40.821 Y40.659 Z-7.739 I-0.162 J0
X-40.496 Y40.659 Z-7.8 I0.162 J0
X-40.821 Y40.659 Z-7.861 I-0.162 J0
X-40.496 Y40.659 Z-7.922 I0.162 J0
X-40.821 Y40.659 Z-7.983 I-0.162 J0
X-40.496 Y40.659 Z-8.044 I0.162 J0
X-40.821 Y40.659 Z-8.106 I-0.162 J0
X-40.496 Y40.659 Z-8.167 I0.162 J0
X-40.821 Y40.659 Z-8.228 I-0.162 J0
X-40.496 Y40.659 Z-8.289 I0.162 J0
X-40.821 Y40.659 Z-8.35 I-0.162 J0
X-40.496 Y40.659 Z-8.411 I0.162 J0
X-40.821 Y40.659 Z-8.472 I-0.162 J0
X-40.496 Y40.659 Z-8.533 I0.162 J0
X-40.821 Y40.659 Z-8.594 I-0.162 J0
X-40.496 Y40.659 Z-8.656 I0.162 J0
X-40.821 Y40.659 Z-8.717 I-0.162 J0
X-40.496 Y40.659 Z-8.778 I0.162 J0
X-40.821 Y40.659 Z-8.839 I-0.162 J0
X-40.496 Y40.659 Z-8.9 I0.162 J0
X-40.821 Y40.659 Z-8.961 I-0.162 J0
X-40.496 Y40.659 Z-9.022 I0.162 J0
X-40.821 Y40.659 Z-9.083 I-0.162 J0
X-40.496 Y40.659 Z-9.144 I0.162 J0
X-40.821 Y40.659 Z-9.206 I-0.162 J0
X-40.496 Y40.659 Z-9.267 I0.162 J0
X-40.821 Y40.659 Z-9.328 I-0.162 J0
X-40.496 Y40.659 Z-9.389 I0.162 J0
X-40.821 Y40.659 Z-9.45 I-0.162 J0
X-40.496 Y40.659 Z-9.511 I0.162 J0
X-40.821 Y40.659 Z-9.572 I-0.162 J0
X-40.496 Y40.659 Z-9.633 I0.162 J0
X-40.821 Y40.659 Z-9.694 I-0.162 J0
X-40.496 Y40.659 Z-9.756 I0.162 J0
X-40.821 Y40.659 Z-9.817 I-0.162 J0
X-40.496 Y40.659 Z-9.878 I0.162 J0
X-40.821 Y40.659 Z-9.939 I-0.162 J0
X-40.496 Y40.659 Z-10 I0.162 J0
X-40.821 Y40.659 Z-10.061 I-0.162 J0
X-40.496 Y40.659 Z-10.122 I0.162 J0
X-40.821 Y40.659 Z-10.183 I-0.162 J0
X-40.496 Y40.659 Z-10.244 I0.162 J0
X-40.814 Y40.705 Z-10.3 I-0.162 J0
X-40.503 Y40.613 I0.156 J-0.046
X-40.814 Y40.705 I-0.156 J0.046
G1 X-40.817 Y40.673
X-40.808 Y40.643
X-40.788 Y40.619
X-40.76 Y40.604
X-40.607 Y40.559
Z5
X40.581 Y40.577
Z2.682
Z1
X40.74
X40.771 Y40.584
X40.797 Y40.601
X40.815 Y40.628
X40.821 Y40.659
G3 X40.496 Y40.659 Z0.939 I-0.162 J0
X40.821 Y40.659 Z0.878 I0.162 J0
X40.496 Y40.659 Z0.817 I-0.162 J0
X40.821 Y40.659 Z0.756 I0.162 J0
X40.496 Y40.659 Z0.694 I-0.162 J0
X40.821 Y40.659 Z0.633 I0.162 J0
X40.496 Y40.659 Z0.572 I-0.162 J0
X40.821 Y40.659 Z0.511 I0.162 J0
X40.496 Y40.659 Z0.45 I-0.162 J0
X40.821 Y40.659 Z0.389 I0.162 J0
X40.496 Y40.659 Z0.328 I-0.162 J0
X40.821 Y40.659 Z0.267 I0.162 J0
X40.496 Y40.659 Z0.206 I-0.162 J0
X40.821 Y40.659 Z0.144 I0.162 J0
X40.496 Y40.659 Z0.083 I-0.162 J0
X40.821 Y40.659 Z0.022 I0.162 J0
X40.496 Y40.659 Z-0.039 I-0.162 J0
X40.821 Y40.659 Z-0.1 I0.162 J0
X40.496 Y40.659 Z-0.161 I-0.162 J0
X40.821 Y40.659 Z-0.222 I0.162 J0
X40.496 Y40.659 Z-0.283 I-0.162 J0
X40.821 Y40.659 Z-0.344 I0.162 J0
X40.496 Y40.659 Z-0.406 I-0.162 J0
X40.821 Y40.659 Z-0.467 I0.162 J0
X40.496 Y40.659 Z-0.528 I-0.162 J0
X40.821 Y40.659 Z-0.589 I0.162 J0
X40.496 Y40.659 Z-0.65 I-0.162 J0
X40.821 Y40.659 Z-0.711 I0.162 J0
X40.496 Y40.659 Z-0.772 I-0.162 J0
X40.821 Y40.659 Z-0.833 I0.162 J0
X40.496 Y40.659 Z-0.894 I-0.162 J0
X40.821 Y40.659 Z-0.956 I0.162 J0
X40.496 Y40.659 Z-1.017 I-0.162 J0
X40.821 Y40.659 Z-1.078 I0.162 J0
X40.496 Y40.659 Z-1.139 I-0.162 J0
X40.821 Y40.659 Z-1.2 I0.162 J0
X40.496 Y40.659 Z-1.261 I-0.162 J0
X40.821 Y40.659 Z-1.322 I0.162 J0
X40.496 Y40.659 Z-1.383 I-0.162 J0
X40.821 Y40.659 Z-1.444 I0.162 J0
X40.496 Y40.659 Z-1.506 I-0.162 J0
X40.821 Y40.659 Z-1.567 I0.162 J0
X40.496 Y40.659 Z-1.628 I-0.162 J0
X40.821 Y40.659 Z-1.689 I0.162 J0
X40.496 Y40.659 Z-1.75 I-0.162 J0
X40.821 Y40.659 Z-1.811 I0.162 J0
X40.496 Y40.659 Z-1.872 I-0.162 J0
X40.821 Y40.659 Z-1.933 I0.162 J0
X40.496 Y40.659 Z-1.994 I-0.162 J0
X40.821 Y40.659 Z-2.056 I0.162 J0
X40.496 Y40.659 Z-2.117 I-0.162 J0
X40.821 Y40.659 Z-2.178 I0.162 J0
X40.496 Y40.659 Z-2.239 I-0.162 J0
X40.821 Y40.659 Z-2.3 I0.162 J0
X40.496 Y40.659 Z-2.361 I-0.162 J0
X40.821 Y40.659 Z-2.422 I0.162 J0
X40.496 Y40.659 Z-2.483 I-0.162 J0
X40.821 Y40.659 Z-2.544 I0.162 J0
X40.496 Y40.659 Z-2.606 I-0.162 J0
X40.821 Y40.659 Z-2.667 I0.162 J0
X40.496 Y40.659 Z-2.728 I-0.162 J0
X40.821 Y40.659 Z-2.789 I0.162 J0
X40.496 Y40.659 Z-2.85 I-0.162 J0
X40.821 Y40.659 Z-2.911 I0.162 J0
X40.496 Y40.659 Z-2.972 I-0.162 J0
X40.821 Y40.659 Z-3.033 I0.162 J0
X40.496 Y40.659 Z-3.094 I-0.162 J0
X40.821 Y40.659 Z-3.156 I0.162 J0
X40.496 Y40.659 Z-3.217 I-0.162 J0
X40.821 Y40.659 Z-3.278 I0.162 J0
X40.496 Y40.659 Z-3.339 I-0.162 J0
X40.821 Y40.659 Z-3.4 I0.162 J0
X40.496 Y40.659 Z-3.461 I-0.162 J0
X40.821 Y40.659 Z-3.522 I0.162 J0
X40.496 Y40.659 Z-3.583 I-0.162 J0
X40.821 Y40.659 Z-3.644 I0.162 J0
X40.496 Y40.659 Z-3.706 I-0.162 J0
X40.821 Y40.659 Z-3.767 I0.162 J0
X40.496 Y40.659 Z-3.828 I-0.162 J0
X40.821 Y40.659 Z-3.889 I0.162 J0
X40.496 Y40.659 Z-3.95 I-0.162 J0
X40.821 Y40.659 Z-4.011 I0.162 J0
X40.496 Y40.659 Z-4.072 I-0.162 J0
X40.821 Y40.659 Z-4.133 I0.162 J0
X40.496 Y40.659 Z-4.194 I-0.162 J0
X40.821 Y40.659 Z-4.256 I0.162 J0
X40.496 Y40.659 Z-4.317 I-0.162 J0
X40.821 Y40.659 Z-4.378 I0.162 J0
X40.496 Y40.659 Z-4.439 I-0.162 J0
X40.821 Y40.659 Z-4.5 I0.162 J0
X40.496 Y40.659 Z-4.561 I-0.162 J0
X40.821 Y40.659 Z-4.622 I0.162 J0
X40.496 Y40.659 Z-4.683 I-0.162 J0
X40.821 Y40.659 Z-4.744 I0.162 J0
X40.496 Y40.659 Z-4.806 I-0.162 J0
X40.821 Y40.659 Z-4.867 I0.162 J0
X40.496 Y40.659 Z-4.928 I-0.162 J0
X40.821 Y40.659 Z-4.989 I0.162 J0
X40.496 Y40.659 Z-5.05 I-0.162 J0
X40.821 Y40.659 Z-5.111 I0.162 J0
X40.496 Y40.659 Z-5.172 I-0.162 J0
X40.821 Y40.659 Z-5.233 I0.162 J0
X40.496 Y40.659 Z-5.294 I-0.162 J0
X40.821 Y40.659 Z-5.356 I0.162 J0
X40.496 Y40.659 Z-5.417 I-0.162 J0
X40.821 Y40.659 Z-5.478 I0.162 J0
X40.496 Y40.659 Z-5.539 I-0.162 J0
X40.821 Y40.659 Z-5.6 I0.162 J0
X40.496 Y40.659 Z-5.661 I-0.162 J0
X40.821 Y40.659 Z-5.722 I0.162 J0
X40.496 Y40.659 Z-5.783 I-0.162 J0
X40.821 Y40.659 Z-5.844 I0.162 J0
X40.496 Y40.659 Z-5.906 I-0.162 J0
X40.821 Y40.659 Z-5.967 I0.162 J0
X40.496 Y40.659 Z-6.028 I-0.162 J0
X40.821 Y40.659 Z-6.089 I0.162 J0
X40.496 Y40.659 Z-6.15 I-0.162 J0
X40.821 Y40.659 Z-6.211 I0.162 J0
X40.496 Y40.659 Z-6.272 I-0.162 J0
X40.821 Y40.659 Z-6.333 I0.162 J0
X40.496 Y40.659 Z-6.394 I-0.162 J0
X40.821 Y40.659 Z-6.456 I0.162 J0
X40.496 Y40.659 Z-6.517 I-0.162 J0
X40.821 Y40.659 Z-6.578 I0.162 J0
X40.496 Y40.659 Z-6.639 I-0.162 J0
X40.821 Y40.659 Z-6.7 I0.162 J0
X40.496 Y40.659 Z-6.761 I-0.162 J0
X40.821 Y40.659 Z-6.822 I0.162 J0
X40.496 Y40.659 Z-6.883 I-0.162 J0
X40.821 Y40.659 Z-6.944 I0.162 J0
X40.496 Y40.659 Z-7.006 I-0.162 J0
X40.821 Y40.659 Z-7.067 I0.162 J0
X40.496 Y40.659 Z-7.128 I-0.162 J0
X40.821 Y40.659 Z-7.189 I0.162 J0
X40.496 Y40.659 Z-7.25 I-0.162 J0
X40.821 Y40.659 Z-7.311 I0.162 J0
X40.496 Y40.659 Z-7.372 I-0.162 J0
X40.821 Y40.659 Z-7.433 I0.162 J0
X40.496 Y40.659 Z-7.494 I-0.162 J0
X40.821 Y40.659 Z-7.556 I0.162 J0
X40.496 Y40.659 Z-7.617 I-0.162 J0
X40.821 Y40.659 Z-7.678 I0.162 J0
X40.496 Y40.659 Z-7.739 I-0.162 J0
X40.821 Y40.659 Z-7.8 I0.162 J0
X40.496 Y40.659 Z-7.861 I-0.162 J0
X40.821 Y40.659 Z-7.922 I0.162 J0
X40.496 Y40.659 Z-7.983 I-0.162 J0
X40.821 Y40.659 Z-8.044 I0.162 J0
X40.496 Y40.659 Z-8.106 I-0.162 J0
X40.821 Y40.659 Z-8.167 I0.162 J0
X40.496 Y40.659 Z-8.228 I-0.162 J0
X40.821 Y40.659 Z-8.289 I0.162 J0
X40.496 Y40.659 Z-8.35 I-0.162 J0
X40.821 Y40.659 Z-8.411 I0.162 J0
X40.496 Y40.659 Z-8.472 I-0.162 J0
X40.821 Y40.659 Z-8.533 I0.162 J0
X40.496 Y40.659 Z-8.594 I-0.162 J0
X40.821 Y40.659 Z-8.656 I0.162 J0
X40.496 Y40.659 Z-8.717 I-0.162 J0
X40.821 Y40.659 Z-8.778 I0.162 J0
X40.496 Y40.659 Z-8.839 I-0.162 J0
X40.821 Y40.659 Z-8.9 I0.162 J0
X40.496 Y40.659 Z-8.961 I-0.162 J0
X40.821 Y40.659 Z-9.022 I0.162 J0
X40.496 Y40.659 Z-9.083 I-0.162 J0
X40.821 Y40.659 Z-9.144 I0.162 J0
X40.496 Y40.659 Z-9.206 I-0.162 J0
X40.821 Y40.659 Z-9.267 I0.162 J0
X40.496 Y40.659 Z-9.328 I-0.162 J0
X40.821 Y40.659 Z-9.389 I0.162 J0
X40.496 Y40.659 Z-9.45 I-0.162 J0
X40.821 Y40.659 Z-9.511 I0.162 J0
X40.496 Y40.659 Z-9.572 I-0.162 J0
X40.821 Y40.659 Z-9.633 I0.162 J0
X40.496 Y40.659 Z-9.694 I-0.162 J0
X40.821 Y40.659 Z-9.756 I0.162 J0
X40.496 Y40.659 Z-9.817 I-0.162 J0
X40.821 Y40.659 Z-9.878 I0.162 J0
X40.496 Y40.659 Z-9.939 I-0.162 J0
X40.821 Y40.659 Z-10 I0.162 J0
X40.496 Y40.659 Z-10.061 I-0.162 J0
X40.821 Y40.659 Z-10.122 I0.162 J0
X40.496 Y40.659 Z-10.183 I-0.162 J0
X40.821 Y40.659 Z-10.244 I0.162 J0
X40.503 Y40.705 Z-10.3 I-0.162 J0
X40.814 Y40.613 I0.156 J-0.046
X40.503 Y40.705 I-0.156 J0.046
G1 X40.5 Y40.673
X40.509 Y40.643
X40.53 Y40.619
X40.558 Y40.604
X40.71 Y40.559
Z15
(When using Fusion for Personal Use, the feedrate of rapid)
(moves is reduced to match the feedrate of cutting moves,)
(which can increase machining time. Unrestricted rapid moves)
(are available with a Fusion Subscription.)

(Bohrfrsen2)
G0 X47.619 Y-0.317
G1 Z15 F1000
Z3
Z1.317
G18 G2 X47.936 Z1 I0.317 K0
G1 X48.095
G17 G3 X48.412 Y0 I0 J0.317
X-48.412 Y0 Z-0.746 I-48.412 J0
X48.412 Y0 Z-2.492 I48.412 J0
X-48.412 Y0 Z-4.238 I-48.412 J0
X48.412 Y0 Z-5.984 I48.412 J0
X-48.412 Y0 Z-7.73 I-48.412 J0
X48.412 Y0 Z-9.476 I48.412 J0
X4.284 Y48.223 Z-10.3 I-48.412 J0
X-4.284 Y-48.223 I-4.284 J-48.223
X4.284 Y48.223 I4.284 J48.223
X3.94 Y47.934 I-0.028 J-0.316
G1 X3.926 Y47.776
X3.92 Y47.706 Z-10.292
X3.914 Y47.639 Z-10.269
X3.908 Y47.579 Z-10.231
X3.904 Y47.529 Z-10.18
X3.901 Y47.491 Z-10.12
X3.899 Y47.468 Z-10.053
X3.898 Y47.46 Z-9.983
Z15

M5
M30
