(1001)
(Bearbeiten)
(  Hersteller: ChinaCnc)
(  model: 3040T)
(  description: Generic 3-axis)
(T13  D=1.8 CR=0 - ZMIN=-3.2 - Schaftfraser)
G90 G94
G17
G21
G28 G91 Z0
G90

(2D-Kontur5)
T13
S8000 M3
G54
G0 X-63.043 Y-138.451
Z15
Z5
G1 Z1.3 F200
Z0.5
S5000
Y-130.119 Z0.209 F333.3
G3 X-63.643 Y-129.519 Z0.176 I-0.6 J0
G1 X-64.143 Z0.159
G3 X-64.743 Y-130.119 Z0.126 I0 J-0.6
G1 Y-141.119 Z-0.258
G3 X-64.143 Y-141.719 Z-0.291 I0.6 J0
G1 X-63.893 Z-0.3
S8000
X-63.643 F1000
G3 X-63.043 Y-141.119 I0 J0.6
G1 Y-130.119
G3 X-63.643 Y-129.519 I-0.6 J0
G1 X-64.143
G3 X-64.743 Y-130.119 I0 J-0.6
G1 Y-141.119
G3 X-64.143 Y-141.719 I0.6 J0
G1 X-63.893
S5000
X-63.643 Z-0.309 F333.3
G3 X-63.043 Y-141.119 Z-0.342 I0 J0.6
G1 Y-133.721 Z-0.6
S8000
Y-130.119 F1000
G3 X-63.643 Y-129.519 I-0.6 J0
G1 X-64.143
G3 X-64.743 Y-130.119 I0 J-0.6
G1 Y-141.119
G3 X-64.143 Y-141.719 I0.6 J0
G1 X-63.643
G3 X-63.043 Y-141.119 I0 J0.6
G1 Y-133.721
S5000
Y-130.119 Z-0.726 F333.3
G3 X-63.643 Y-129.519 Z-0.759 I-0.6 J0
G1 X-64.143 Z-0.776
G3 X-64.743 Y-130.119 Z-0.809 I0 J-0.6
G1 Y-132.723 Z-0.9
S8000
Y-141.119 F1000
G3 X-64.143 Y-141.719 I0.6 J0
G1 X-63.643
G3 X-63.043 Y-141.119 I0 J0.6
G1 Y-133.721
Y-130.119
G3 X-63.643 Y-129.519 I-0.6 J0
G1 X-64.143
G3 X-64.743 Y-130.119 I0 J-0.6
G1 Y-132.723
S5000
Y-141.119 Z-1.193 F333.3
X-64.735 Y-141.216 Z-1.197
X-64.712 Y-141.311 Z-1.2
S8000
G3 X-64.143 Y-141.719 I0.569 J0.192 F1000
G1 X-63.643
G3 X-63.043 Y-141.119 I0 J0.6
G1 Y-130.119
G3 X-63.643 Y-129.519 I-0.6 J0
G1 X-64.143
G3 X-64.743 Y-130.119 I0 J-0.6
G1 Y-141.119
X-64.735 Y-141.216
X-64.712 Y-141.311
S5000
G3 X-64.143 Y-141.719 Z-1.226 I0.569 J0.192 F333.3
G1 X-63.643 Z-1.244
G3 X-63.043 Y-141.119 Z-1.276 I0 J0.6
G1 Y-134.718 Z-1.5
S8000
Y-130.119 F1000
G3 X-63.643 Y-129.519 I-0.6 J0
G1 X-64.143
G3 X-64.743 Y-130.119 I0 J-0.6
G1 Y-141.119
G3 X-64.143 Y-141.719 I0.6 J0
G1 X-63.643
G3 X-63.043 Y-141.119 I0 J0.6
G1 Y-134.718
S5000
Y-130.119 Z-1.661 F333.3
G3 X-63.643 Y-129.519 Z-1.694 I-0.6 J0
G1 X-64.143 Z-1.711
G3 X-64.743 Y-130.119 Z-1.744 I0 J-0.6
G1 Y-131.726 Z-1.8
S8000
Y-141.119 F1000
G3 X-64.143 Y-141.719 I0.6 J0
G1 X-63.643
G3 X-63.043 Y-141.119 I0 J0.6
G1 Y-134.718
Y-130.119
G3 X-63.643 Y-129.519 I-0.6 J0
G1 X-64.143
G3 X-64.743 Y-130.119 I0 J-0.6
G1 Y-131.726
S5000
Y-140.317 Z-2.1 F333.3
S8000
Y-141.119 F1000
G3 X-64.143 Y-141.719 I0.6 J0
G1 X-63.643
G3 X-63.043 Y-141.119 I0 J0.6
G1 Y-130.119
G3 X-63.643 Y-129.519 I-0.6 J0
G1 X-64.143
G3 X-64.743 Y-130.119 I0 J-0.6
G1 Y-140.317
S5000
Y-141.119 Z-2.128 F333.3
G3 X-64.143 Y-141.719 Z-2.161 I0.6 J0
G1 X-63.643 Z-2.178
G3 X-63.043 Y-141.119 Z-2.211 I0 J0.6
G1 Y-135.715 Z-2.4
S8000
Y-130.119 F1000
G3 X-63.643 Y-129.519 I-0.6 J0
G1 X-64.143
G3 X-64.743 Y-130.119 I0 J-0.6
G1 Y-140.317
Y-141.119
G3 X-64.143 Y-141.719 I0.6 J0
G1 X-63.643
G3 X-63.043 Y-141.119 I0 J0.6
G1 Y-135.715
S5000
Y-130.119 Z-2.595 F333.3
G3 X-63.643 Y-129.519 Z-2.628 I-0.6 J0
G1 X-64.143 Z-2.646
G3 X-64.743 Y-130.119 Z-2.679 I0 J-0.6
G1 Y-130.729 Z-2.7
S8000
Y-141.119 F1000
G3 X-64.143 Y-141.719 I0.6 J0
G1 X-63.643
G3 X-63.043 Y-141.119 I0 J0.6
G1 Y-130.119
G3 X-63.643 Y-129.519 I-0.6 J0
G1 X-64.143
G3 X-64.743 Y-130.119 I0 J-0.6
G1 Y-130.729
S5000
Y-139.32 Z-3 F333.3
S8000
Y-141.119 F1000
G3 X-64.143 Y-141.719 I0.6 J0
G1 X-63.643
G3 X-63.043 Y-141.119 I0 J0.6
G1 Y-130.119
G3 X-63.643 Y-129.519 I-0.6 J0
G1 X-64.143
G3 X-64.743 Y-130.119 I0 J-0.6
G1 Y-139.32
S5000
Y-141.119 Z-3.063 F333.3
G3 X-64.143 Y-141.719 Z-3.096 I0.6 J0
G1 X-63.643 Z-3.113
G3 X-63.043 Y-141.119 Z-3.146 I0 J0.6
G1 Y-139.576 Z-3.2
S8000
Y-130.119 F1000
G3 X-63.643 Y-129.519 I-0.6 J0
G1 X-64.143
G3 X-64.743 Y-130.119 I0 J-0.6
G1 Y-139.32
Y-141.119
G3 X-64.143 Y-141.719 I0.6 J0
G1 X-63.643
G3 X-63.043 Y-141.119 I0 J0.6
G1 Y-139.576
G0 Z5
X-73.429 Y-148.742
G1 Z1.3 F200
Z0.5
S5000
G3 X-72.924 Y-148.15 Z0.47 I-0.095 J0.592 F333.3
G1 Y-126.088 Z-0.3
S8000
Y-123.088 F1000
G3 X-73.524 Y-122.488 I-0.6 J0
G1 X-79.524
G3 X-80.124 Y-123.088 I0 J-0.6
G1 Y-148.15
G3 X-79.524 Y-148.75 I0.6 J0
G1 X-73.524
G3 X-72.924 Y-148.15 I0 J0.6
G1 Y-126.088
S5000
Y-123.088 Z-0.405 F333.3
G3 X-73.524 Y-122.488 Z-0.438 I-0.6 J0
G1 X-78.173 Z-0.6
S8000
X-79.524 F1000
G3 X-80.124 Y-123.088 I0 J-0.6
G1 Y-148.15
G3 X-79.524 Y-148.75 I0.6 J0
G1 X-73.524
G3 X-72.924 Y-148.15 I0 J0.6
G1 Y-126.088
Y-123.088
G3 X-73.524 Y-122.488 I-0.6 J0
G1 X-78.173
S5000
X-79.524 Z-0.647 F333.3
G3 X-80.124 Y-123.088 Z-0.68 I0 J-0.6
G1 Y-129.385 Z-0.9
S8000
Y-148.15 F1000
G3 X-79.524 Y-148.75 I0.6 J0
G1 X-73.524
G3 X-72.924 Y-148.15 I0 J0.6
G1 Y-123.088
G3 X-73.524 Y-122.488 I-0.6 J0
G1 X-78.173
X-79.524
G3 X-80.124 Y-123.088 I0 J-0.6
G1 Y-129.385
S5000
Y-137.976 Z-1.2 F333.3
S8000
Y-148.15 F1000
G3 X-79.524 Y-148.75 I0.6 J0
G1 X-73.524
G3 X-72.924 Y-148.15 I0 J0.6
G1 Y-123.088
G3 X-73.524 Y-122.488 I-0.6 J0
G1 X-79.524
G3 X-80.124 Y-123.088 I0 J-0.6
G1 Y-137.976
S5000
Y-146.567 Z-1.5 F333.3
S8000
Y-148.15 F1000
G3 X-79.524 Y-148.75 I0.6 J0
G1 X-73.524
G3 X-72.924 Y-148.15 I0 J0.6
G1 Y-123.088
G3 X-73.524 Y-122.488 I-0.6 J0
G1 X-79.524
G3 X-80.124 Y-123.088 I0 J-0.6
G1 Y-137.976
Y-146.567
S5000
Y-148.15 Z-1.555 F333.3
G3 X-79.524 Y-148.75 Z-1.588 I0.6 J0
G1 X-73.524 Z-1.798
X-73.459 Y-148.746 Z-1.8
S8000
G3 X-72.924 Y-148.15 I-0.065 J0.596 F1000
G1 Y-123.088
G3 X-73.524 Y-122.488 I-0.6 J0
G1 X-79.524
G3 X-80.124 Y-123.088 I0 J-0.6
G1 Y-146.567
Y-148.15
G3 X-79.524 Y-148.75 I0.6 J0
G1 X-73.524
X-73.459 Y-148.746
S5000
G3 X-72.924 Y-148.15 Z-1.831 I-0.065 J0.596 F333.3
G1 Y-140.437 Z-2.1
S8000
Y-123.088 F1000
G3 X-73.524 Y-122.488 I-0.6 J0
G1 X-79.524
G3 X-80.124 Y-123.088 I0 J-0.6
G1 Y-148.15
G3 X-79.524 Y-148.75 I0.6 J0
G1 X-73.524
G3 X-72.924 Y-148.15 I0 J0.6
G1 Y-140.437
S5000
Y-131.846 Z-2.4 F333.3
S8000
Y-123.088 F1000
G3 X-73.524 Y-122.488 I-0.6 J0
G1 X-79.524
G3 X-80.124 Y-123.088 I0 J-0.6
G1 Y-148.15
G3 X-79.524 Y-148.75 I0.6 J0
G1 X-73.524
G3 X-72.924 Y-148.15 I0 J0.6
G1 Y-131.846
S5000
Y-123.255 Z-2.7 F333.3
S8000
Y-123.088 F1000
G3 X-73.524 Y-122.488 I-0.6 J0
G1 X-79.524
G3 X-80.124 Y-123.088 I0 J-0.6
G1 Y-148.15
G3 X-79.524 Y-148.75 I0.6 J0
G1 X-73.524
G3 X-72.924 Y-148.15 I0 J0.6
G1 Y-131.846
Y-123.255
S5000
Y-123.088 Z-2.706 F333.3
G3 X-73.524 Y-122.488 Z-2.739 I-0.6 J0
G1 X-79.524 Z-2.948
G3 X-80.124 Y-123.088 Z-2.981 I0 J-0.6
G1 Y-123.627 Z-3
S8000
Y-148.15 F1000
G3 X-79.524 Y-148.75 I0.6 J0
G1 X-73.524
G3 X-72.924 Y-148.15 I0 J0.6
G1 Y-123.255
Y-123.088
G3 X-73.524 Y-122.488 I-0.6 J0
G1 X-79.524
G3 X-80.124 Y-123.088 I0 J-0.6
G1 Y-123.627
S5000
Y-129.354 Z-3.2 F333.3
S8000
Y-148.15 F1000
G3 X-79.524 Y-148.75 I0.6 J0
G1 X-73.524
G3 X-72.924 Y-148.15 I0 J0.6
G1 Y-123.088
G3 X-73.524 Y-122.488 I-0.6 J0
G1 X-79.524
G3 X-80.124 Y-123.088 I0 J-0.6
G1 Y-129.354
G0 Z5
X-88.305 Y-138.451
G1 Z1.3 F200
Z0.5
S5000
Y-130.119 Z0.209 F333.3
G3 X-88.905 Y-129.519 Z0.176 I-0.6 J0
G1 X-89.405 Z0.159
G3 X-90.005 Y-130.119 Z0.126 I0 J-0.6
G1 Y-141.119 Z-0.258
G3 X-89.405 Y-141.719 Z-0.291 I0.6 J0
G1 X-89.155 Z-0.3
S8000
X-88.905 F1000
G3 X-88.305 Y-141.119 I0 J0.6
G1 Y-130.119
G3 X-88.905 Y-129.519 I-0.6 J0
G1 X-89.405
G3 X-90.005 Y-130.119 I0 J-0.6
G1 Y-141.119
G3 X-89.405 Y-141.719 I0.6 J0
G1 X-89.155
S5000
X-88.905 Z-0.309 F333.3
G3 X-88.305 Y-141.119 Z-0.342 I0 J0.6
G1 Y-133.721 Z-0.6
S8000
Y-130.119 F1000
G3 X-88.905 Y-129.519 I-0.6 J0
G1 X-89.405
G3 X-90.005 Y-130.119 I0 J-0.6
G1 Y-141.119
G3 X-89.405 Y-141.719 I0.6 J0
G1 X-88.905
G3 X-88.305 Y-141.119 I0 J0.6
G1 Y-133.721
S5000
Y-130.119 Z-0.726 F333.3
G3 X-88.905 Y-129.519 Z-0.759 I-0.6 J0
G1 X-89.405 Z-0.776
G3 X-90.005 Y-130.119 Z-0.809 I0 J-0.6
G1 Y-132.723 Z-0.9
S8000
Y-141.119 F1000
G3 X-89.405 Y-141.719 I0.6 J0
G1 X-88.905
G3 X-88.305 Y-141.119 I0 J0.6
G1 Y-133.721
Y-130.119
G3 X-88.905 Y-129.519 I-0.6 J0
G1 X-89.405
G3 X-90.005 Y-130.119 I0 J-0.6
G1 Y-132.723
S5000
Y-141.119 Z-1.193 F333.3
X-89.997 Y-141.216 Z-1.197
X-89.974 Y-141.311 Z-1.2
S8000
G3 X-89.405 Y-141.719 I0.569 J0.192 F1000
G1 X-88.905
G3 X-88.305 Y-141.119 I0 J0.6
G1 Y-130.119
G3 X-88.905 Y-129.519 I-0.6 J0
G1 X-89.405
G3 X-90.005 Y-130.119 I0 J-0.6
G1 Y-141.119
X-89.997 Y-141.216
X-89.974 Y-141.311
S5000
G3 X-89.405 Y-141.719 Z-1.226 I0.569 J0.192 F333.3
G1 X-88.905 Z-1.244
G3 X-88.305 Y-141.119 Z-1.276 I0 J0.6
G1 Y-134.718 Z-1.5
S8000
Y-130.119 F1000
G3 X-88.905 Y-129.519 I-0.6 J0
G1 X-89.405
G3 X-90.005 Y-130.119 I0 J-0.6
G1 Y-141.119
G3 X-89.405 Y-141.719 I0.6 J0
G1 X-88.905
G3 X-88.305 Y-141.119 I0 J0.6
G1 Y-134.718
S5000
Y-130.119 Z-1.661 F333.3
G3 X-88.905 Y-129.519 Z-1.694 I-0.6 J0
G1 X-89.405 Z-1.711
G3 X-90.005 Y-130.119 Z-1.744 I0 J-0.6
G1 Y-131.726 Z-1.8
S8000
Y-141.119 F1000
G3 X-89.405 Y-141.719 I0.6 J0
G1 X-88.905
G3 X-88.305 Y-141.119 I0 J0.6
G1 Y-134.718
Y-130.119
G3 X-88.905 Y-129.519 I-0.6 J0
G1 X-89.405
G3 X-90.005 Y-130.119 I0 J-0.6
G1 Y-131.726
S5000
Y-140.317 Z-2.1 F333.3
S8000
Y-141.119 F1000
G3 X-89.405 Y-141.719 I0.6 J0
G1 X-88.905
G3 X-88.305 Y-141.119 I0 J0.6
G1 Y-130.119
G3 X-88.905 Y-129.519 I-0.6 J0
G1 X-89.405
G3 X-90.005 Y-130.119 I0 J-0.6
G1 Y-140.317
S5000
Y-141.119 Z-2.128 F333.3
G3 X-89.405 Y-141.719 Z-2.161 I0.6 J0
G1 X-88.905 Z-2.178
G3 X-88.305 Y-141.119 Z-2.211 I0 J0.6
G1 Y-135.715 Z-2.4
S8000
Y-130.119 F1000
G3 X-88.905 Y-129.519 I-0.6 J0
G1 X-89.405
G3 X-90.005 Y-130.119 I0 J-0.6
G1 Y-140.317
Y-141.119
G3 X-89.405 Y-141.719 I0.6 J0
G1 X-88.905
G3 X-88.305 Y-141.119 I0 J0.6
G1 Y-135.715
S5000
Y-130.119 Z-2.595 F333.3
G3 X-88.905 Y-129.519 Z-2.628 I-0.6 J0
G1 X-89.405 Z-2.646
G3 X-90.005 Y-130.119 Z-2.679 I0 J-0.6
G1 Y-130.729 Z-2.7
S8000
Y-141.119 F1000
G3 X-89.405 Y-141.719 I0.6 J0
G1 X-88.905
G3 X-88.305 Y-141.119 I0 J0.6
G1 Y-130.119
G3 X-88.905 Y-129.519 I-0.6 J0
G1 X-89.405
G3 X-90.005 Y-130.119 I0 J-0.6
G1 Y-130.729
S5000
Y-139.32 Z-3 F333.3
S8000
Y-141.119 F1000
G3 X-89.405 Y-141.719 I0.6 J0
G1 X-88.905
G3 X-88.305 Y-141.119 I0 J0.6
G1 Y-130.119
G3 X-88.905 Y-129.519 I-0.6 J0
G1 X-89.405
G3 X-90.005 Y-130.119 I0 J-0.6
G1 Y-139.32
S5000
Y-141.119 Z-3.063 F333.3
G3 X-89.405 Y-141.719 Z-3.096 I0.6 J0
G1 X-88.905 Z-3.113
G3 X-88.305 Y-141.119 Z-3.146 I0 J0.6
G1 Y-139.576 Z-3.2
S8000
Y-130.119 F1000
G3 X-88.905 Y-129.519 I-0.6 J0
G1 X-89.405
G3 X-90.005 Y-130.119 I0 J-0.6
G1 Y-139.32
Y-141.119
G3 X-89.405 Y-141.719 I0.6 J0
G1 X-88.905
G3 X-88.305 Y-141.119 I0 J0.6
G1 Y-139.576
G0 Z5
X-38.005 Y-132.787
G1 Z1.3 F200
Z0.5
S5000
Y-141.119 Z0.209 F333.3
G3 X-37.405 Y-141.719 Z0.176 I0.6 J0
G1 X-36.905 Z0.159
G3 X-36.305 Y-141.119 Z0.126 I0 J0.6
G1 Y-130.119 Z-0.258
G3 X-36.905 Y-129.519 Z-0.291 I-0.6 J0
G1 X-37.155 Z-0.3
S8000
X-37.405 F1000
G3 X-38.005 Y-130.119 I0 J-0.6
G1 Y-141.119
G3 X-37.405 Y-141.719 I0.6 J0
G1 X-36.905
G3 X-36.305 Y-141.119 I0 J0.6
G1 Y-130.119
G3 X-36.905 Y-129.519 I-0.6 J0
G1 X-37.155
S5000
X-37.405 Z-0.309 F333.3
G3 X-38.005 Y-130.119 Z-0.342 I0 J-0.6
G1 Y-137.517 Z-0.6
S8000
Y-141.119 F1000
G3 X-37.405 Y-141.719 I0.6 J0
G1 X-36.905
G3 X-36.305 Y-141.119 I0 J0.6
G1 Y-130.119
G3 X-36.905 Y-129.519 I-0.6 J0
G1 X-37.405
G3 X-38.005 Y-130.119 I0 J-0.6
G1 Y-137.517
S5000
Y-141.119 Z-0.726 F333.3
G3 X-37.405 Y-141.719 Z-0.759 I0.6 J0
G1 X-36.905 Z-0.776
G3 X-36.305 Y-141.119 Z-0.809 I0 J0.6
G1 Y-138.515 Z-0.9
S8000
Y-130.119 F1000
G3 X-36.905 Y-129.519 I-0.6 J0
G1 X-37.405
G3 X-38.005 Y-130.119 I0 J-0.6
G1 Y-137.517
Y-141.119
G3 X-37.405 Y-141.719 I0.6 J0
G1 X-36.905
G3 X-36.305 Y-141.119 I0 J0.6
G1 Y-138.515
S5000
Y-130.119 Z-1.193 F333.3
X-36.313 Y-130.022 Z-1.197
X-36.337 Y-129.927 Z-1.2
S8000
G3 X-36.905 Y-129.519 I-0.569 J-0.192 F1000
G1 X-37.405
G3 X-38.005 Y-130.119 I0 J-0.6
G1 Y-141.119
G3 X-37.405 Y-141.719 I0.6 J0
G1 X-36.905
G3 X-36.305 Y-141.119 I0 J0.6
G1 Y-130.119
X-36.313 Y-130.022
X-36.337 Y-129.927
S5000
G3 X-36.905 Y-129.519 Z-1.226 I-0.569 J-0.192 F333.3
G1 X-37.405 Z-1.244
G3 X-38.005 Y-130.119 Z-1.276 I0 J-0.6
G1 Y-136.52 Z-1.5
S8000
Y-141.119 F1000
G3 X-37.405 Y-141.719 I0.6 J0
G1 X-36.905
G3 X-36.305 Y-141.119 I0 J0.6
G1 Y-130.119
G3 X-36.905 Y-129.519 I-0.6 J0
G1 X-37.405
G3 X-38.005 Y-130.119 I0 J-0.6
G1 Y-136.52
S5000
Y-141.119 Z-1.661 F333.3
G3 X-37.405 Y-141.719 Z-1.694 I0.6 J0
G1 X-36.905 Z-1.711
G3 X-36.305 Y-141.119 Z-1.744 I0 J0.6
G1 Y-139.512 Z-1.8
S8000
Y-130.119 F1000
G3 X-36.905 Y-129.519 I-0.6 J0
G1 X-37.405
G3 X-38.005 Y-130.119 I0 J-0.6
G1 Y-136.52
Y-141.119
G3 X-37.405 Y-141.719 I0.6 J0
G1 X-36.905
G3 X-36.305 Y-141.119 I0 J0.6
G1 Y-139.512
S5000
Y-130.921 Z-2.1 F333.3
S8000
Y-130.119 F1000
G3 X-36.905 Y-129.519 I-0.6 J0
G1 X-37.405
G3 X-38.005 Y-130.119 I0 J-0.6
G1 Y-141.119
G3 X-37.405 Y-141.719 I0.6 J0
G1 X-36.905
G3 X-36.305 Y-141.119 I0 J0.6
G1 Y-130.921
S5000
Y-130.119 Z-2.128 F333.3
G3 X-36.905 Y-129.519 Z-2.161 I-0.6 J0
G1 X-37.405 Z-2.178
G3 X-38.005 Y-130.119 Z-2.211 I0 J-0.6
G1 Y-135.523 Z-2.4
S8000
Y-141.119 F1000
G3 X-37.405 Y-141.719 I0.6 J0
G1 X-36.905
G3 X-36.305 Y-141.119 I0 J0.6
G1 Y-130.921
Y-130.119
G3 X-36.905 Y-129.519 I-0.6 J0
G1 X-37.405
G3 X-38.005 Y-130.119 I0 J-0.6
G1 Y-135.523
S5000
Y-141.119 Z-2.595 F333.3
G3 X-37.405 Y-141.719 Z-2.628 I0.6 J0
G1 X-36.905 Z-2.646
G3 X-36.305 Y-141.119 Z-2.679 I0 J0.6
G1 Y-140.509 Z-2.7
S8000
Y-130.119 F1000
G3 X-36.905 Y-129.519 I-0.6 J0
G1 X-37.405
G3 X-38.005 Y-130.119 I0 J-0.6
G1 Y-141.119
G3 X-37.405 Y-141.719 I0.6 J0
G1 X-36.905
G3 X-36.305 Y-141.119 I0 J0.6
G1 Y-140.509
S5000
Y-131.918 Z-3 F333.3
S8000
Y-130.119 F1000
G3 X-36.905 Y-129.519 I-0.6 J0
G1 X-37.405
G3 X-38.005 Y-130.119 I0 J-0.6
G1 Y-141.119
G3 X-37.405 Y-141.719 I0.6 J0
G1 X-36.905
G3 X-36.305 Y-141.119 I0 J0.6
G1 Y-131.918
S5000
Y-130.119 Z-3.063 F333.3
G3 X-36.905 Y-129.519 Z-3.096 I-0.6 J0
G1 X-37.405 Z-3.113
G3 X-38.005 Y-130.119 Z-3.146 I0 J-0.6
G1 Y-131.662 Z-3.2
S8000
Y-141.119 F1000
G3 X-37.405 Y-141.719 I0.6 J0
G1 X-36.905
G3 X-36.305 Y-141.119 I0 J0.6
G1 Y-131.918
Y-130.119
G3 X-36.905 Y-129.519 I-0.6 J0
G1 X-37.405
G3 X-38.005 Y-130.119 I0 J-0.6
G1 Y-131.662
G0 Z5
X-27.619 Y-122.496
G1 Z1.3 F200
Z0.5
S5000
G3 X-28.124 Y-123.088 Z0.47 I0.095 J-0.592 F333.3
G1 Y-145.15 Z-0.3
S8000
Y-148.15 F1000
G3 X-27.524 Y-148.75 I0.6 J0
G1 X-21.524
G3 X-20.924 Y-148.15 I0 J0.6
G1 Y-123.088
G3 X-21.524 Y-122.488 I-0.6 J0
G1 X-27.524
G3 X-28.124 Y-123.088 I0 J-0.6
G1 Y-145.15
S5000
Y-148.15 Z-0.405 F333.3
G3 X-27.524 Y-148.75 Z-0.438 I0.6 J0
G1 X-22.876 Z-0.6
S8000
X-21.524 F1000
G3 X-20.924 Y-148.15 I0 J0.6
G1 Y-123.088
G3 X-21.524 Y-122.488 I-0.6 J0
G1 X-27.524
G3 X-28.124 Y-123.088 I0 J-0.6
G1 Y-145.15
Y-148.15
G3 X-27.524 Y-148.75 I0.6 J0
G1 X-22.876
S5000
X-21.524 Z-0.647 F333.3
G3 X-20.924 Y-148.15 Z-0.68 I0 J0.6
G1 Y-141.853 Z-0.9
S8000
Y-123.088 F1000
G3 X-21.524 Y-122.488 I-0.6 J0
G1 X-27.524
G3 X-28.124 Y-123.088 I0 J-0.6
G1 Y-148.15
G3 X-27.524 Y-148.75 I0.6 J0
G1 X-22.876
X-21.524
G3 X-20.924 Y-148.15 I0 J0.6
G1 Y-141.853
S5000
Y-133.262 Z-1.2 F333.3
S8000
Y-123.088 F1000
G3 X-21.524 Y-122.488 I-0.6 J0
G1 X-27.524
G3 X-28.124 Y-123.088 I0 J-0.6
G1 Y-148.15
G3 X-27.524 Y-148.75 I0.6 J0
G1 X-21.524
G3 X-20.924 Y-148.15 I0 J0.6
G1 Y-133.262
S5000
Y-124.671 Z-1.5 F333.3
S8000
Y-123.088 F1000
G3 X-21.524 Y-122.488 I-0.6 J0
G1 X-27.524
G3 X-28.124 Y-123.088 I0 J-0.6
G1 Y-148.15
G3 X-27.524 Y-148.75 I0.6 J0
G1 X-21.524
G3 X-20.924 Y-148.15 I0 J0.6
G1 Y-133.262
Y-124.671
S5000
Y-123.088 Z-1.555 F333.3
G3 X-21.524 Y-122.488 Z-1.588 I-0.6 J0
G1 X-27.524 Z-1.798
X-27.589 Y-122.492 Z-1.8
S8000
G3 X-28.124 Y-123.088 I0.065 J-0.596 F1000
G1 Y-148.15
G3 X-27.524 Y-148.75 I0.6 J0
G1 X-21.524
G3 X-20.924 Y-148.15 I0 J0.6
G1 Y-124.671
Y-123.088
G3 X-21.524 Y-122.488 I-0.6 J0
G1 X-27.524
X-27.589 Y-122.492
S5000
G3 X-28.124 Y-123.088 Z-1.831 I0.065 J-0.596 F333.3
G1 Y-130.801 Z-2.1
S8000
Y-148.15 F1000
G3 X-27.524 Y-148.75 I0.6 J0
G1 X-21.524
G3 X-20.924 Y-148.15 I0 J0.6
G1 Y-123.088
G3 X-21.524 Y-122.488 I-0.6 J0
G1 X-27.524
G3 X-28.124 Y-123.088 I0 J-0.6
G1 Y-130.801
S5000
Y-139.392 Z-2.4 F333.3
S8000
Y-148.15 F1000
G3 X-27.524 Y-148.75 I0.6 J0
G1 X-21.524
G3 X-20.924 Y-148.15 I0 J0.6
G1 Y-123.088
G3 X-21.524 Y-122.488 I-0.6 J0
G1 X-27.524
G3 X-28.124 Y-123.088 I0 J-0.6
G1 Y-139.392
S5000
Y-147.983 Z-2.7 F333.3
S8000
Y-148.15 F1000
G3 X-27.524 Y-148.75 I0.6 J0
G1 X-21.524
G3 X-20.924 Y-148.15 I0 J0.6
G1 Y-123.088
G3 X-21.524 Y-122.488 I-0.6 J0
G1 X-27.524
G3 X-28.124 Y-123.088 I0 J-0.6
G1 Y-139.392
Y-147.983
S5000
Y-148.15 Z-2.706 F333.3
G3 X-27.524 Y-148.75 Z-2.739 I0.6 J0
G1 X-21.524 Z-2.948
G3 X-20.924 Y-148.15 Z-2.981 I0 J0.6
G1 Y-147.611 Z-3
S8000
Y-123.088 F1000
G3 X-21.524 Y-122.488 I-0.6 J0
G1 X-27.524
G3 X-28.124 Y-123.088 I0 J-0.6
G1 Y-147.983
Y-148.15
G3 X-27.524 Y-148.75 I0.6 J0
G1 X-21.524
G3 X-20.924 Y-148.15 I0 J0.6
G1 Y-147.611
S5000
Y-141.884 Z-3.2 F333.3
S8000
Y-123.088 F1000
G3 X-21.524 Y-122.488 I-0.6 J0
G1 X-27.524
G3 X-28.124 Y-123.088 I0 J-0.6
G1 Y-148.15
G3 X-27.524 Y-148.75 I0.6 J0
G1 X-21.524
G3 X-20.924 Y-148.15 I0 J0.6
G1 Y-141.884
G0 Z5
X-11.043 Y-138.451
G1 Z1.3 F200
Z0.5
S5000
Y-130.119 Z0.209 F333.3
G3 X-11.643 Y-129.519 Z0.176 I-0.6 J0
G1 X-12.143 Z0.159
G3 X-12.743 Y-130.119 Z0.126 I0 J-0.6
G1 Y-141.119 Z-0.258
G3 X-12.143 Y-141.719 Z-0.291 I0.6 J0
G1 X-11.893 Z-0.3
S8000
X-11.643 F1000
G3 X-11.043 Y-141.119 I0 J0.6
G1 Y-130.119
G3 X-11.643 Y-129.519 I-0.6 J0
G1 X-12.143
G3 X-12.743 Y-130.119 I0 J-0.6
G1 Y-141.119
G3 X-12.143 Y-141.719 I0.6 J0
G1 X-11.893
S5000
X-11.643 Z-0.309 F333.3
G3 X-11.043 Y-141.119 Z-0.342 I0 J0.6
G1 Y-133.721 Z-0.6
S8000
Y-130.119 F1000
G3 X-11.643 Y-129.519 I-0.6 J0
G1 X-12.143
G3 X-12.743 Y-130.119 I0 J-0.6
G1 Y-141.119
G3 X-12.143 Y-141.719 I0.6 J0
G1 X-11.643
G3 X-11.043 Y-141.119 I0 J0.6
G1 Y-133.721
S5000
Y-130.119 Z-0.726 F333.3
G3 X-11.643 Y-129.519 Z-0.759 I-0.6 J0
G1 X-12.143 Z-0.776
G3 X-12.743 Y-130.119 Z-0.809 I0 J-0.6
G1 Y-132.723 Z-0.9
S8000
Y-141.119 F1000
G3 X-12.143 Y-141.719 I0.6 J0
G1 X-11.643
G3 X-11.043 Y-141.119 I0 J0.6
G1 Y-133.721
Y-130.119
G3 X-11.643 Y-129.519 I-0.6 J0
G1 X-12.143
G3 X-12.743 Y-130.119 I0 J-0.6
G1 Y-132.723
S5000
Y-141.119 Z-1.193 F333.3
X-12.735 Y-141.216 Z-1.197
X-12.712 Y-141.311 Z-1.2
S8000
G3 X-12.143 Y-141.719 I0.569 J0.192 F1000
G1 X-11.643
G3 X-11.043 Y-141.119 I0 J0.6
G1 Y-130.119
G3 X-11.643 Y-129.519 I-0.6 J0
G1 X-12.143
G3 X-12.743 Y-130.119 I0 J-0.6
G1 Y-141.119
X-12.735 Y-141.216
X-12.712 Y-141.311
S5000
G3 X-12.143 Y-141.719 Z-1.226 I0.569 J0.192 F333.3
G1 X-11.643 Z-1.244
G3 X-11.043 Y-141.119 Z-1.276 I0 J0.6
G1 Y-134.718 Z-1.5
S8000
Y-130.119 F1000
G3 X-11.643 Y-129.519 I-0.6 J0
G1 X-12.143
G3 X-12.743 Y-130.119 I0 J-0.6
G1 Y-141.119
G3 X-12.143 Y-141.719 I0.6 J0
G1 X-11.643
G3 X-11.043 Y-141.119 I0 J0.6
G1 Y-134.718
S5000
Y-130.119 Z-1.661 F333.3
G3 X-11.643 Y-129.519 Z-1.694 I-0.6 J0
G1 X-12.143 Z-1.711
G3 X-12.743 Y-130.119 Z-1.744 I0 J-0.6
G1 Y-131.726 Z-1.8
S8000
Y-141.119 F1000
G3 X-12.143 Y-141.719 I0.6 J0
G1 X-11.643
G3 X-11.043 Y-141.119 I0 J0.6
G1 Y-134.718
Y-130.119
G3 X-11.643 Y-129.519 I-0.6 J0
G1 X-12.143
G3 X-12.743 Y-130.119 I0 J-0.6
G1 Y-131.726
S5000
Y-140.317 Z-2.1 F333.3
S8000
Y-141.119 F1000
G3 X-12.143 Y-141.719 I0.6 J0
G1 X-11.643
G3 X-11.043 Y-141.119 I0 J0.6
G1 Y-130.119
G3 X-11.643 Y-129.519 I-0.6 J0
G1 X-12.143
G3 X-12.743 Y-130.119 I0 J-0.6
G1 Y-140.317
S5000
Y-141.119 Z-2.128 F333.3
G3 X-12.143 Y-141.719 Z-2.161 I0.6 J0
G1 X-11.643 Z-2.178
G3 X-11.043 Y-141.119 Z-2.211 I0 J0.6
G1 Y-135.715 Z-2.4
S8000
Y-130.119 F1000
G3 X-11.643 Y-129.519 I-0.6 J0
G1 X-12.143
G3 X-12.743 Y-130.119 I0 J-0.6
G1 Y-140.317
Y-141.119
G3 X-12.143 Y-141.719 I0.6 J0
G1 X-11.643
G3 X-11.043 Y-141.119 I0 J0.6
G1 Y-135.715
S5000
Y-130.119 Z-2.595 F333.3
G3 X-11.643 Y-129.519 Z-2.628 I-0.6 J0
G1 X-12.143 Z-2.646
G3 X-12.743 Y-130.119 Z-2.679 I0 J-0.6
G1 Y-130.729 Z-2.7
S8000
Y-141.119 F1000
G3 X-12.143 Y-141.719 I0.6 J0
G1 X-11.643
G3 X-11.043 Y-141.119 I0 J0.6
G1 Y-130.119
G3 X-11.643 Y-129.519 I-0.6 J0
G1 X-12.143
G3 X-12.743 Y-130.119 I0 J-0.6
G1 Y-130.729
S5000
Y-139.32 Z-3 F333.3
S8000
Y-141.119 F1000
G3 X-12.143 Y-141.719 I0.6 J0
G1 X-11.643
G3 X-11.043 Y-141.119 I0 J0.6
G1 Y-130.119
G3 X-11.643 Y-129.519 I-0.6 J0
G1 X-12.143
G3 X-12.743 Y-130.119 I0 J-0.6
G1 Y-139.32
S5000
Y-141.119 Z-3.063 F333.3
G3 X-12.143 Y-141.719 Z-3.096 I0.6 J0
G1 X-11.643 Z-3.113
G3 X-11.043 Y-141.119 Z-3.146 I0 J0.6
G1 Y-139.576 Z-3.2
S8000
Y-130.119 F1000
G3 X-11.643 Y-129.519 I-0.6 J0
G1 X-12.143
G3 X-12.743 Y-130.119 I0 J-0.6
G1 Y-139.32
Y-141.119
G3 X-12.143 Y-141.719 I0.6 J0
G1 X-11.643
G3 X-11.043 Y-141.119 I0 J0.6
G1 Y-139.576
G0 Z15

(Bohrfrasen10)
X-15.474 Y-100.272
Z15
Z2
G1 Z0.18 F1000
X-15.478 Y-100.267 Z0.133
X-15.491 Y-100.255 Z0.09
X-15.511 Y-100.234 Z0.053
X-15.537 Y-100.208 Z0.024
X-15.568 Y-100.177 Z0.006
X-15.601 Y-100.144 Z0
X-15.665 Y-100.081
G3 X-15.919 Y-100.081 I-0.127 J-0.127
X-14.081 Y-101.919 Z-0.5 I0.919 J-0.919
X-15.919 Y-100.081 Z-1 I-0.919 J0.919
X-14.081 Y-101.919 Z-1.5 I0.919 J-0.919
X-15.919 Y-100.081 Z-2 I-0.919 J0.919
X-14.081 Y-101.919 Z-2.5 I0.919 J-0.919
X-15.919 Y-100.081 Z-3 I-0.919 J0.919
X-16.158 Y-101.59 Z-3.2 I0.919 J-0.919
X-13.842 Y-100.41 I1.158 J0.59
X-16.158 Y-101.59 I-1.158 J-0.59
X-15.916 Y-101.669 I0.16 J0.082
G1 X-15.836 Y-101.628
X-15.795 Y-101.607 Z-3.194
X-15.756 Y-101.587 Z-3.176
X-15.723 Y-101.57 Z-3.147
X-15.697 Y-101.557 Z-3.11
X-15.681 Y-101.549 Z-3.067
X-15.676 Y-101.546 Z-3.02
G0 Z5
X-15.474 Y-73.605
Z2
G1 Z0.18 F1000
X-15.478 Y-73.601 Z0.133
X-15.491 Y-73.588 Z0.09
X-15.511 Y-73.568 Z0.053
X-15.537 Y-73.541 Z0.024
X-15.568 Y-73.511 Z0.006
X-15.601 Y-73.478 Z0
X-15.665 Y-73.414
G3 X-15.919 Y-73.414 I-0.127 J-0.127
X-14.081 Y-75.253 Z-0.5 I0.919 J-0.919
X-15.919 Y-73.414 Z-1 I-0.919 J0.919
X-14.081 Y-75.253 Z-1.5 I0.919 J-0.919
X-15.919 Y-73.414 Z-2 I-0.919 J0.919
X-14.081 Y-75.253 Z-2.5 I0.919 J-0.919
X-15.919 Y-73.414 Z-3 I-0.919 J0.919
X-16.158 Y-74.924 Z-3.2 I0.919 J-0.919
X-13.842 Y-73.743 I1.158 J0.59
X-16.158 Y-74.924 I-1.158 J-0.59
X-15.916 Y-75.002 I0.16 J0.082
G1 X-15.836 Y-74.961
X-15.795 Y-74.94 Z-3.194
X-15.756 Y-74.92 Z-3.176
X-15.723 Y-74.904 Z-3.147
X-15.697 Y-74.891 Z-3.11
X-15.681 Y-74.882 Z-3.067
X-15.676 Y-74.88 Z-3.02
G0 Z5
X-15.474 Y-46.938
Z2
G1 Z0.18 F1000
X-15.478 Y-46.934 Z0.133
X-15.491 Y-46.921 Z0.09
X-15.511 Y-46.901 Z0.053
X-15.537 Y-46.875 Z0.024
X-15.568 Y-46.844 Z0.006
X-15.601 Y-46.811 Z0
X-15.665 Y-46.747
G3 X-15.919 Y-46.747 I-0.127 J-0.127
X-14.081 Y-48.586 Z-0.5 I0.919 J-0.919
X-15.919 Y-46.747 Z-1 I-0.919 J0.919
X-14.081 Y-48.586 Z-1.5 I0.919 J-0.919
X-15.919 Y-46.747 Z-2 I-0.919 J0.919
X-14.081 Y-48.586 Z-2.5 I0.919 J-0.919
X-15.919 Y-46.747 Z-3 I-0.919 J0.919
X-16.158 Y-48.257 Z-3.2 I0.919 J-0.919
X-13.842 Y-47.076 I1.158 J0.59
X-16.158 Y-48.257 I-1.158 J-0.59
X-15.916 Y-48.336 I0.16 J0.082
G1 X-15.836 Y-48.295
X-15.795 Y-48.274 Z-3.194
X-15.756 Y-48.254 Z-3.176
X-15.723 Y-48.237 Z-3.147
X-15.697 Y-48.224 Z-3.11
X-15.681 Y-48.216 Z-3.067
X-15.676 Y-48.213 Z-3.02
G0 Z5
X-15.474 Y-20.272
Z2
G1 Z0.18 F1000
X-15.478 Y-20.267 Z0.133
X-15.491 Y-20.255 Z0.09
X-15.511 Y-20.234 Z0.053
X-15.537 Y-20.208 Z0.024
X-15.568 Y-20.177 Z0.006
X-15.601 Y-20.144 Z0
X-15.665 Y-20.081
G3 X-15.919 Y-20.081 I-0.127 J-0.127
X-14.081 Y-21.919 Z-0.5 I0.919 J-0.919
X-15.919 Y-20.081 Z-1 I-0.919 J0.919
X-14.081 Y-21.919 Z-1.5 I0.919 J-0.919
X-15.919 Y-20.081 Z-2 I-0.919 J0.919
X-14.081 Y-21.919 Z-2.5 I0.919 J-0.919
X-15.919 Y-20.081 Z-3 I-0.919 J0.919
X-16.158 Y-21.59 Z-3.2 I0.919 J-0.919
X-13.842 Y-20.41 I1.158 J0.59
X-16.158 Y-21.59 I-1.158 J-0.59
X-15.916 Y-21.669 I0.16 J0.082
G1 X-15.836 Y-21.628
X-15.795 Y-21.607 Z-3.194
X-15.756 Y-21.587 Z-3.176
X-15.723 Y-21.57 Z-3.147
X-15.697 Y-21.557 Z-3.11
X-15.681 Y-21.549 Z-3.067
X-15.676 Y-21.546 Z-3.02
G0 Z5
X-88.725 Y-9.079
Z2
G1 Z0.18 F1000
X-88.721 Y-9.083 Z0.133
X-88.708 Y-9.096 Z0.09
X-88.688 Y-9.116 Z0.053
X-88.662 Y-9.143 Z0.024
X-88.631 Y-9.173 Z0.006
X-88.598 Y-9.206 Z0
X-88.534 Y-9.27
G3 X-88.28 Y-9.27 I0.127 J0.127
X-90.118 Y-7.431 Z-0.5 I-0.919 J0.919
X-88.28 Y-9.27 Z-1 I0.919 J-0.919
X-90.118 Y-7.431 Z-1.5 I-0.919 J0.919
X-88.28 Y-9.27 Z-2 I0.919 J-0.919
X-90.118 Y-7.431 Z-2.5 I-0.919 J0.919
X-88.28 Y-9.27 Z-3 I0.919 J-0.919
X-88.041 Y-7.76 Z-3.2 I-0.919 J0.919
X-90.357 Y-8.941 I-1.158 J-0.59
X-88.041 Y-7.76 I1.158 J0.59
X-88.283 Y-7.682 I-0.16 J-0.082
G1 X-88.363 Y-7.723
X-88.405 Y-7.744 Z-3.194
X-88.443 Y-7.763 Z-3.176
X-88.476 Y-7.78 Z-3.147
X-88.502 Y-7.793 Z-3.11
X-88.518 Y-7.802 Z-3.067
X-88.523 Y-7.804 Z-3.02
G0 Z5
X-88.725 Y-35.746
Z2
G1 Z0.18 F1000
X-88.721 Y-35.75 Z0.133
X-88.708 Y-35.763 Z0.09
X-88.688 Y-35.783 Z0.053
X-88.662 Y-35.809 Z0.024
X-88.631 Y-35.84 Z0.006
X-88.598 Y-35.873 Z0
X-88.534 Y-35.936
G3 X-88.28 Y-35.936 I0.127 J0.127
X-90.118 Y-34.098 Z-0.5 I-0.919 J0.919
X-88.28 Y-35.936 Z-1 I0.919 J-0.919
X-90.118 Y-34.098 Z-1.5 I-0.919 J0.919
X-88.28 Y-35.936 Z-2 I0.919 J-0.919
X-90.118 Y-34.098 Z-2.5 I-0.919 J0.919
X-88.28 Y-35.936 Z-3 I0.919 J-0.919
X-88.041 Y-34.427 Z-3.2 I-0.919 J0.919
X-90.357 Y-35.607 I-1.158 J-0.59
X-88.041 Y-34.427 I1.158 J0.59
X-88.283 Y-34.348 I-0.16 J-0.082
G1 X-88.363 Y-34.389
X-88.405 Y-34.41 Z-3.194
X-88.443 Y-34.43 Z-3.176
X-88.476 Y-34.447 Z-3.147
X-88.502 Y-34.46 Z-3.11
X-88.518 Y-34.468 Z-3.067
X-88.523 Y-34.471 Z-3.02
G0 Z5
X-88.725 Y-62.412
Z2
G1 Z0.18 F1000
X-88.721 Y-62.417 Z0.133
X-88.708 Y-62.429 Z0.09
X-88.688 Y-62.45 Z0.053
X-88.662 Y-62.476 Z0.024
X-88.631 Y-62.507 Z0.006
X-88.598 Y-62.54 Z0
X-88.534 Y-62.603
G3 X-88.28 Y-62.603 I0.127 J0.127
X-90.118 Y-60.765 Z-0.5 I-0.919 J0.919
X-88.28 Y-62.603 Z-1 I0.919 J-0.919
X-90.118 Y-60.765 Z-1.5 I-0.919 J0.919
X-88.28 Y-62.603 Z-2 I0.919 J-0.919
X-90.118 Y-60.765 Z-2.5 I-0.919 J0.919
X-88.28 Y-62.603 Z-3 I0.919 J-0.919
X-88.041 Y-61.094 Z-3.2 I-0.919 J0.919
X-90.357 Y-62.274 I-1.158 J-0.59
X-88.041 Y-61.094 I1.158 J0.59
X-88.283 Y-61.015 I-0.16 J-0.082
G1 X-88.363 Y-61.056
X-88.405 Y-61.077 Z-3.194
X-88.443 Y-61.097 Z-3.176
X-88.476 Y-61.114 Z-3.147
X-88.502 Y-61.127 Z-3.11
X-88.518 Y-61.135 Z-3.067
X-88.523 Y-61.138 Z-3.02
G0 Z5
X-88.725 Y-89.079
Z2
G1 Z0.18 F1000
X-88.721 Y-89.083 Z0.133
X-88.708 Y-89.096 Z0.09
X-88.688 Y-89.116 Z0.053
X-88.662 Y-89.143 Z0.024
X-88.631 Y-89.173 Z0.006
X-88.598 Y-89.206 Z0
X-88.534 Y-89.27
G3 X-88.28 Y-89.27 I0.127 J0.127
X-90.118 Y-87.431 Z-0.5 I-0.919 J0.919
X-88.28 Y-89.27 Z-1 I0.919 J-0.919
X-90.118 Y-87.431 Z-1.5 I-0.919 J0.919
X-88.28 Y-89.27 Z-2 I0.919 J-0.919
X-90.118 Y-87.431 Z-2.5 I-0.919 J0.919
X-88.28 Y-89.27 Z-3 I0.919 J-0.919
X-88.041 Y-87.76 Z-3.2 I-0.919 J0.919
X-90.357 Y-88.941 I-1.158 J-0.59
X-88.041 Y-87.76 I1.158 J0.59
X-88.283 Y-87.682 I-0.16 J-0.082
G1 X-88.363 Y-87.723
X-88.405 Y-87.744 Z-3.194
X-88.443 Y-87.763 Z-3.176
X-88.476 Y-87.78 Z-3.147
X-88.502 Y-87.793 Z-3.11
X-88.518 Y-87.802 Z-3.067
X-88.523 Y-87.804 Z-3.02
G0 Z15

(2D-Kontur6)
X-83.835 Y-68.199
Z15
Z5
G1 Z1.3 F200
Z0.5
S5000
X-84.404 Y-68.263 Z0.48 F333.3
X-84.415 Y-68.264
X-85.813 Y-68.402 Z0.431
X-85.83 Y-68.404 Z0.43
X-87.183 Y-68.511 Z0.383
X-87.203 Y-68.512 Z0.382
X-87.865 Y-68.55 Z0.359
X-87.884 Y-68.551 Z0.358
X-88.542 Y-68.575 Z0.335
X-88.564 Y-68.576 Z0.334
X-89.225 Y-68.584 Z0.311
X-89.25 Z0.31
X-89.918 Y-68.573 Z0.287
X-89.947 Y-68.572 Z0.286
X-90.629 Y-68.539 Z0.262
X-90.658 Y-68.537 Z0.261
X-91.359 Y-68.48 Z0.237
X-91.388 Y-68.478 Z0.236
X-92.111 Y-68.395 Z0.21
X-92.14 Y-68.391 Z0.209
X-92.884 Y-68.281 Z0.183
X-92.912 Y-68.277 Z0.182
X-93.676 Y-68.14 Z0.155
X-93.703 Y-68.134 Z0.154
X-94.485 Y-67.969 Z0.126
X-94.511 Y-67.963 Z0.125
X-95.304 Y-67.771 Z0.096
X-95.33 Y-67.764
X-96.129 Y-67.545 Z0.067
X-96.156 Y-67.537 Z0.066
X-96.954 Y-67.292 Z0.036
X-96.98 Y-67.283 Z0.035
X-97.77 Y-67.013 Z0.006
X-97.798 Y-67.003 Z0.005
X-98.571 Y-66.71 Z-0.024
X-98.601 Y-66.698 Z-0.025
X-99.348 Y-66.384 Z-0.053
X-99.381 Y-66.369 Z-0.054
X-100.094 Y-66.035 Z-0.082
X-100.13 Y-66.017 Z-0.083
X-100.799 Y-65.665 Z-0.11
X-100.831 Y-65.648 Z-0.111
X-101.146 Y-65.467 Z-0.123
X-101.167 Y-65.454 Z-0.124
X-101.468 Y-65.269 Z-0.137
X-101.492 Y-65.254 Z-0.138
X-101.778 Y-65.065 Z-0.15
X-101.805 Y-65.047 Z-0.151
X-102.074 Y-64.856 Z-0.162
X-102.101 Y-64.835 Z-0.164
X-102.353 Y-64.641 Z-0.175
X-102.384 Y-64.616 Z-0.176
X-102.617 Y-64.419 Z-0.187
X-102.648 Y-64.392 Z-0.188
X-102.863 Y-64.194 Z-0.198
X-102.899 Y-64.158 Z-0.2
X-103.093 Y-63.958 Z-0.21
X-103.13 Y-63.917 Z-0.212
X-103.303 Y-63.714 Z-0.221
X-103.34 Y-63.668 Z-0.223
X-103.492 Y-63.464 Z-0.232
X-103.531 Y-63.408 Z-0.234
X-103.661 Y-63.202 Z-0.243
X-103.701 Y-63.132 Z-0.246
X-103.807 Y-62.926 Z-0.254
X-103.841 Y-62.853 Z-0.257
X-103.925 Y-62.646 Z-0.264
X-103.956 Y-62.558 Z-0.268
X-104.016 Y-62.35 Z-0.275
X-104.038 Y-62.254 Z-0.279
X-104.074 Y-62.046 Z-0.286
X-104.086 Y-61.944 Z-0.29
X-104.098 Y-61.736 Z-0.297
Y-61.647 Z-0.3
S8000
Y-61.632 F1000
X-104.086 Y-61.424
X-104.074 Y-61.322
X-104.038 Y-61.114
X-104.016 Y-61.018
X-103.956 Y-60.81
X-103.925 Y-60.722
X-103.841 Y-60.515
X-103.807 Y-60.442
X-103.701 Y-60.235
X-103.661 Y-60.165
X-103.531 Y-59.96
X-103.493 Y-59.904
X-103.341 Y-59.7
X-103.303 Y-59.653
X-103.13 Y-59.451
X-103.093 Y-59.41
X-102.899 Y-59.209
X-102.863 Y-59.174
X-102.648 Y-58.975
X-102.617 Y-58.948
X-102.384 Y-58.752
X-102.353 Y-58.727
X-102.101 Y-58.533
X-102.074 Y-58.512
X-101.805 Y-58.321
X-101.778 Y-58.303
X-101.492 Y-58.114
X-101.468 Y-58.099
X-101.167 Y-57.914
X-101.146 Y-57.901
X-100.831 Y-57.719
X-100.799 Y-57.702
X-100.13 Y-57.351
X-100.094 Y-57.333
X-99.381 Y-56.999
X-99.348 Y-56.984
X-98.601 Y-56.67
X-98.571 Y-56.658
X-97.798 Y-56.365
X-97.77 Y-56.355
X-96.98 Y-56.085
X-96.954 Y-56.076
X-96.155 Y-55.831
X-96.129 Y-55.823
X-95.33 Y-55.604
X-95.304 Y-55.597
X-94.511 Y-55.405
X-94.484 Y-55.399
X-93.703 Y-55.234
X-93.676 Y-55.228
X-92.912 Y-55.091
X-92.884 Y-55.086
X-92.14 Y-54.977
X-92.111 Y-54.973
X-91.388 Y-54.89
X-91.359 Y-54.887
X-90.658 Y-54.831
X-90.629 Y-54.829
X-89.947 Y-54.796
X-89.919 Y-54.795
X-89.25 Y-54.784
X-89.225
X-88.564 Y-54.792
X-88.542 Y-54.793
X-87.883 Y-54.817
X-87.865 Y-54.818
X-87.203 Y-54.855
X-87.183 Y-54.857
X-85.83 Y-54.964
X-85.813 Y-54.966
X-84.415 Y-55.104
X-84.404 Y-55.105
X-82.968 Y-55.266
X-82.959 Y-55.267
X-81.502 Y-55.444
X-81.494 Y-55.445
X-80.04 Y-55.635
X-80.03 Y-55.636
X-78.607 Y-55.838
X-78.596 Y-55.839
X-77.229 Y-56.051
X-77.216 Y-56.053
X-75.919 Y-56.273
X-75.909 Y-56.274
X-74.679 Y-56.498
X-74.676
X-73.492 Y-56.717
X-72.315 Y-56.921
X-71.717 Y-57.013
X-71.099 Y-57.098
X-70.454 Y-57.174
X-69.778 Y-57.241
X-69.066 Y-57.298
X-68.318 Y-57.344
X-67.532 Y-57.38
X-66.712 Y-57.406
X-65.858 Y-57.421
X-64.976 Y-57.427
X-63.128 Y-57.411
X-61.205 Y-57.363
X-59.239 Y-57.291
X-57.269 Y-57.202
X-55.331 Y-57.104
X-53.458 Y-57.007
X-53.456 Y-57.006
X-51.674 Y-56.917
X-51.668
X-49.985 Y-56.843
X-49.976
X-48.383 Y-56.789
X-48.371 Y-56.788
X-46.849 Y-56.757
X-46.835
X-45.357 Y-56.75
X-45.343
X-43.883 Y-56.766
X-43.87 Y-56.767
X-42.41 Y-56.803
X-42.4
X-40.93 Y-56.856
X-40.923 Y-56.857
X-39.44 Y-56.922
X-39.436
X-37.94 Y-56.994
X-36.437 Y-57.068
X-34.934 Y-57.137
X-33.438 Y-57.198
X-31.957 Y-57.244
X-30.496 Y-57.274
X-29.053 Y-57.284
G2 X-28.423 Y-57.548 I-0.006 J-0.9
G1 X-25.63 Y-60.34
G2 X-25.63 Y-63.027 I-1.343 J-1.343
G1 X-28.423 Y-65.82
G2 X-29.053 Y-66.084 I-0.636 J0.636
G1 X-30.496 Y-66.094
X-31.957 Y-66.124
X-33.438 Y-66.17
X-34.934 Y-66.23
X-36.437 Y-66.3
X-37.94 Y-66.374
X-39.436 Y-66.446
X-39.44
X-40.923 Y-66.511
X-40.93
X-42.4 Y-66.564
X-42.41 Y-66.565
X-43.87 Y-66.601
X-43.883
X-45.343 Y-66.618
X-45.357
X-46.835 Y-66.611
X-46.849
X-48.371 Y-66.58
X-48.384 Y-66.579
X-49.976 Y-66.525
X-49.985
X-51.668 Y-66.451
X-51.674 Y-66.45
X-53.456 Y-66.361
X-53.458
X-55.331 Y-66.264
X-57.269 Y-66.166
X-59.239 Y-66.077
X-61.205 Y-66.004
X-63.128 Y-65.957
X-64.976 Y-65.941
X-65.858 Y-65.946
X-66.712 Y-65.962
X-67.532 Y-65.987
X-68.318 Y-66.023
X-69.066 Y-66.07
X-69.778 Y-66.127
X-70.454 Y-66.193
X-71.099 Y-66.27
X-71.717 Y-66.355
X-72.315 Y-66.447
X-73.492 Y-66.651
X-74.676 Y-66.87
X-74.679
X-75.909 Y-67.094
X-75.919 Y-67.095
X-77.216 Y-67.315
X-77.229 Y-67.317
X-78.596 Y-67.528
X-78.607 Y-67.53
X-80.031 Y-67.731
X-80.04 Y-67.733
X-81.494 Y-67.923
X-81.502 Y-67.924
X-82.959 Y-68.101
X-82.968 Y-68.102
X-84.404 Y-68.263
X-84.415 Y-68.264
X-85.813 Y-68.402
X-85.83 Y-68.404
X-87.183 Y-68.511
X-87.203 Y-68.512
X-87.865 Y-68.55
X-87.884 Y-68.551
X-88.542 Y-68.575
X-88.564 Y-68.576
X-89.225 Y-68.584
X-89.25
X-89.918 Y-68.573
X-89.947 Y-68.572
X-90.629 Y-68.539
X-90.658 Y-68.537
X-91.359 Y-68.48
X-91.388 Y-68.478
X-92.111 Y-68.395
X-92.14 Y-68.391
X-92.884 Y-68.281
X-92.912 Y-68.277
X-93.676 Y-68.14
X-93.703 Y-68.134
X-94.485 Y-67.969
X-94.511 Y-67.963
X-95.304 Y-67.771
X-95.33 Y-67.764
X-96.129 Y-67.545
X-96.156 Y-67.537
X-96.954 Y-67.292
X-96.98 Y-67.283
X-97.77 Y-67.013
X-97.798 Y-67.003
X-98.571 Y-66.71
X-98.601 Y-66.698
X-99.348 Y-66.384
X-99.381 Y-66.369
X-100.094 Y-66.035
X-100.13 Y-66.017
X-100.799 Y-65.665
X-100.831 Y-65.648
X-101.146 Y-65.467
X-101.167 Y-65.454
X-101.468 Y-65.269
X-101.492 Y-65.254
X-101.778 Y-65.065
X-101.805 Y-65.047
X-102.074 Y-64.856
X-102.101 Y-64.835
X-102.353 Y-64.641
X-102.384 Y-64.616
X-102.617 Y-64.419
X-102.648 Y-64.392
X-102.863 Y-64.194
X-102.899 Y-64.158
X-103.093 Y-63.958
X-103.13 Y-63.917
X-103.303 Y-63.714
X-103.34 Y-63.668
X-103.492 Y-63.464
X-103.531 Y-63.408
X-103.661 Y-63.202
X-103.701 Y-63.132
X-103.807 Y-62.926
X-103.841 Y-62.853
X-103.925 Y-62.646
X-103.956 Y-62.558
X-104.016 Y-62.35
X-104.038 Y-62.254
X-104.074 Y-62.046
X-104.086 Y-61.944
X-104.098 Y-61.736
Y-61.647
S5000
Y-61.632 Z-0.301 F333.3
X-104.086 Y-61.424 Z-0.308
X-104.074 Y-61.322 Z-0.311
X-104.038 Y-61.114 Z-0.319
X-104.016 Y-61.018 Z-0.322
X-103.956 Y-60.81 Z-0.33
X-103.925 Y-60.722 Z-0.333
X-103.841 Y-60.515 Z-0.341
X-103.807 Y-60.442 Z-0.344
X-103.701 Y-60.235 Z-0.352
X-103.661 Y-60.165 Z-0.355
X-103.531 Y-59.96 Z-0.363
X-103.493 Y-59.904 Z-0.365
X-103.341 Y-59.7 Z-0.374
X-103.303 Y-59.653 Z-0.376
X-103.13 Y-59.451 Z-0.386
X-103.093 Y-59.41 Z-0.388
X-102.899 Y-59.209 Z-0.397
X-102.863 Y-59.174 Z-0.399
X-102.648 Y-58.975 Z-0.409
X-102.617 Y-58.948 Z-0.411
X-102.384 Y-58.752 Z-0.421
X-102.353 Y-58.727 Z-0.423
X-102.101 Y-58.533 Z-0.434
X-102.074 Y-58.512 Z-0.435
X-101.805 Y-58.321 Z-0.447
X-101.778 Y-58.303 Z-0.448
X-101.492 Y-58.114 Z-0.46
X-101.468 Y-58.099 Z-0.461
X-101.167 Y-57.914 Z-0.473
X-101.146 Y-57.901 Z-0.474
X-100.831 Y-57.719 Z-0.487
X-100.799 Y-57.702 Z-0.488
X-100.13 Y-57.351 Z-0.514
X-100.094 Y-57.333 Z-0.516
X-99.381 Y-56.999 Z-0.543
X-99.348 Y-56.984 Z-0.544
X-98.601 Y-56.67 Z-0.573
X-98.571 Y-56.658 Z-0.574
X-97.872 Y-56.393 Z-0.6
S8000
X-97.798 Y-56.365 F1000
X-97.77 Y-56.355
X-96.98 Y-56.085
X-96.954 Y-56.076
X-96.155 Y-55.831
X-96.129 Y-55.823
X-95.33 Y-55.604
X-95.304 Y-55.597
X-94.511 Y-55.405
X-94.484 Y-55.399
X-93.703 Y-55.234
X-93.676 Y-55.228
X-92.912 Y-55.091
X-92.884 Y-55.086
X-92.14 Y-54.977
X-92.111 Y-54.973
X-91.388 Y-54.89
X-91.359 Y-54.887
X-90.658 Y-54.831
X-90.629 Y-54.829
X-89.947 Y-54.796
X-89.919 Y-54.795
X-89.25 Y-54.784
X-89.225
X-88.564 Y-54.792
X-88.542 Y-54.793
X-87.883 Y-54.817
X-87.865 Y-54.818
X-87.203 Y-54.855
X-87.183 Y-54.857
X-85.83 Y-54.964
X-85.813 Y-54.966
X-84.415 Y-55.104
X-84.404 Y-55.105
X-82.968 Y-55.266
X-82.959 Y-55.267
X-81.502 Y-55.444
X-81.494 Y-55.445
X-80.04 Y-55.635
X-80.03 Y-55.636
X-78.607 Y-55.838
X-78.596 Y-55.839
X-77.229 Y-56.051
X-77.216 Y-56.053
X-75.919 Y-56.273
X-75.909 Y-56.274
X-74.679 Y-56.498
X-74.676
X-73.492 Y-56.717
X-72.315 Y-56.921
X-71.717 Y-57.013
X-71.099 Y-57.098
X-70.454 Y-57.174
X-69.778 Y-57.241
X-69.066 Y-57.298
X-68.318 Y-57.344
X-67.532 Y-57.38
X-66.712 Y-57.406
X-65.858 Y-57.421
X-64.976 Y-57.427
X-63.128 Y-57.411
X-61.205 Y-57.363
X-59.239 Y-57.291
X-57.269 Y-57.202
X-55.331 Y-57.104
X-53.458 Y-57.007
X-53.456 Y-57.006
X-51.674 Y-56.917
X-51.668
X-49.985 Y-56.843
X-49.976
X-48.383 Y-56.789
X-48.371 Y-56.788
X-46.849 Y-56.757
X-46.835
X-45.357 Y-56.75
X-45.343
X-43.883 Y-56.766
X-43.87 Y-56.767
X-42.41 Y-56.803
X-42.4
X-40.93 Y-56.856
X-40.923 Y-56.857
X-39.44 Y-56.922
X-39.436
X-37.94 Y-56.994
X-36.437 Y-57.068
X-34.934 Y-57.137
X-33.438 Y-57.198
X-31.957 Y-57.244
X-30.496 Y-57.274
X-29.053 Y-57.284
G2 X-28.423 Y-57.548 I-0.006 J-0.9
G1 X-25.63 Y-60.34
G2 X-25.63 Y-63.027 I-1.343 J-1.343
G1 X-28.423 Y-65.82
G2 X-29.053 Y-66.084 I-0.636 J0.636
G1 X-30.496 Y-66.094
X-31.957 Y-66.124
X-33.438 Y-66.17
X-34.934 Y-66.23
X-36.437 Y-66.3
X-37.94 Y-66.374
X-39.436 Y-66.446
X-39.44
X-40.923 Y-66.511
X-40.93
X-42.4 Y-66.564
X-42.41 Y-66.565
X-43.87 Y-66.601
X-43.883
X-45.343 Y-66.618
X-45.357
X-46.835 Y-66.611
X-46.849
X-48.371 Y-66.58
X-48.384 Y-66.579
X-49.976 Y-66.525
X-49.985
X-51.668 Y-66.451
X-51.674 Y-66.45
X-53.456 Y-66.361
X-53.458
X-55.331 Y-66.264
X-57.269 Y-66.166
X-59.239 Y-66.077
X-61.205 Y-66.004
X-63.128 Y-65.957
X-64.976 Y-65.941
X-65.858 Y-65.946
X-66.712 Y-65.962
X-67.532 Y-65.987
X-68.318 Y-66.023
X-69.066 Y-66.07
X-69.778 Y-66.127
X-70.454 Y-66.193
X-71.099 Y-66.27
X-71.717 Y-66.355
X-72.315 Y-66.447
X-73.492 Y-66.651
X-74.676 Y-66.87
X-74.679
X-75.909 Y-67.094
X-75.919 Y-67.095
X-77.216 Y-67.315
X-77.229 Y-67.317
X-78.596 Y-67.528
X-78.607 Y-67.53
X-80.031 Y-67.731
X-80.04 Y-67.733
X-81.494 Y-67.923
X-81.502 Y-67.924
X-82.959 Y-68.101
X-82.968 Y-68.102
X-84.404 Y-68.263
X-84.415 Y-68.264
X-85.813 Y-68.402
X-85.83 Y-68.404
X-87.183 Y-68.511
X-87.203 Y-68.512
X-87.865 Y-68.55
X-87.884 Y-68.551
X-88.542 Y-68.575
X-88.564 Y-68.576
X-89.225 Y-68.584
X-89.25
X-89.918 Y-68.573
X-89.947 Y-68.572
X-90.629 Y-68.539
X-90.658 Y-68.537
X-91.359 Y-68.48
X-91.388 Y-68.478
X-92.111 Y-68.395
X-92.14 Y-68.391
X-92.884 Y-68.281
X-92.912 Y-68.277
X-93.676 Y-68.14
X-93.703 Y-68.134
X-94.485 Y-67.969
X-94.511 Y-67.963
X-95.304 Y-67.771
X-95.33 Y-67.764
X-96.129 Y-67.545
X-96.156 Y-67.537
X-96.954 Y-67.292
X-96.98 Y-67.283
X-97.77 Y-67.013
X-97.798 Y-67.003
X-98.571 Y-66.71
X-98.601 Y-66.698
X-99.348 Y-66.384
X-99.381 Y-66.369
X-100.094 Y-66.035
X-100.13 Y-66.017
X-100.799 Y-65.665
X-100.831 Y-65.648
X-101.146 Y-65.467
X-101.167 Y-65.454
X-101.468 Y-65.269
X-101.492 Y-65.254
X-101.778 Y-65.065
X-101.805 Y-65.047
X-102.074 Y-64.856
X-102.101 Y-64.835
X-102.353 Y-64.641
X-102.384 Y-64.616
X-102.617 Y-64.419
X-102.648 Y-64.392
X-102.863 Y-64.194
X-102.899 Y-64.158
X-103.093 Y-63.958
X-103.13 Y-63.917
X-103.303 Y-63.714
X-103.34 Y-63.668
X-103.492 Y-63.464
X-103.531 Y-63.408
X-103.661 Y-63.202
X-103.701 Y-63.132
X-103.807 Y-62.926
X-103.841 Y-62.853
X-103.925 Y-62.646
X-103.956 Y-62.558
X-104.016 Y-62.35
X-104.038 Y-62.254
X-104.074 Y-62.046
X-104.086 Y-61.944
X-104.098 Y-61.736
Y-61.632
X-104.086 Y-61.424
X-104.074 Y-61.322
X-104.038 Y-61.114
X-104.016 Y-61.018
X-103.956 Y-60.81
X-103.925 Y-60.722
X-103.841 Y-60.515
X-103.807 Y-60.442
X-103.701 Y-60.235
X-103.661 Y-60.165
X-103.531 Y-59.96
X-103.493 Y-59.904
X-103.341 Y-59.7
X-103.303 Y-59.653
X-103.13 Y-59.451
X-103.093 Y-59.41
X-102.899 Y-59.209
X-102.863 Y-59.174
X-102.648 Y-58.975
X-102.617 Y-58.948
X-102.384 Y-58.752
X-102.353 Y-58.727
X-102.101 Y-58.533
X-102.074 Y-58.512
X-101.805 Y-58.321
X-101.778 Y-58.303
X-101.492 Y-58.114
X-101.468 Y-58.099
X-101.167 Y-57.914
X-101.146 Y-57.901
X-100.831 Y-57.719
X-100.799 Y-57.702
X-100.13 Y-57.351
X-100.094 Y-57.333
X-99.381 Y-56.999
X-99.348 Y-56.984
X-98.601 Y-56.67
X-98.571 Y-56.658
X-97.872 Y-56.393
S5000
X-97.798 Y-56.365 Z-0.603 F333.3
X-97.77 Y-56.355 Z-0.604
X-96.98 Y-56.085 Z-0.633
X-96.954 Y-56.076 Z-0.634
X-96.155 Y-55.831 Z-0.663
X-96.129 Y-55.823 Z-0.664
X-95.33 Y-55.604 Z-0.693
X-95.304 Y-55.597 Z-0.694
X-94.511 Y-55.405 Z-0.722
X-94.484 Y-55.399 Z-0.723
X-93.703 Y-55.234 Z-0.751
X-93.676 Y-55.228 Z-0.752
X-92.912 Y-55.091 Z-0.779
X-92.884 Y-55.086 Z-0.78
X-92.14 Y-54.977 Z-0.807
X-92.111 Y-54.973 Z-0.808
X-91.388 Y-54.89 Z-0.833
X-91.359 Y-54.887 Z-0.834
X-90.658 Y-54.831 Z-0.859
X-90.629 Y-54.829 Z-0.86
X-89.947 Y-54.796 Z-0.883
X-89.919 Y-54.795 Z-0.884
X-89.473 Y-54.788 Z-0.9
S8000
X-89.25 Y-54.784 F1000
X-89.225
X-88.564 Y-54.792
X-88.542 Y-54.793
X-87.883 Y-54.817
X-87.865 Y-54.818
X-87.203 Y-54.855
X-87.183 Y-54.857
X-85.83 Y-54.964
X-85.813 Y-54.966
X-84.415 Y-55.104
X-84.404 Y-55.105
X-82.968 Y-55.266
X-82.959 Y-55.267
X-81.502 Y-55.444
X-81.494 Y-55.445
X-80.04 Y-55.635
X-80.03 Y-55.636
X-78.607 Y-55.838
X-78.596 Y-55.839
X-77.229 Y-56.051
X-77.216 Y-56.053
X-75.919 Y-56.273
X-75.909 Y-56.274
X-74.679 Y-56.498
X-74.676
X-73.492 Y-56.717
X-72.315 Y-56.921
X-71.717 Y-57.013
X-71.099 Y-57.098
X-70.454 Y-57.174
X-69.778 Y-57.241
X-69.066 Y-57.298
X-68.318 Y-57.344
X-67.532 Y-57.38
X-66.712 Y-57.406
X-65.858 Y-57.421
X-64.976 Y-57.427
X-63.128 Y-57.411
X-61.205 Y-57.363
X-59.239 Y-57.291
X-57.269 Y-57.202
X-55.331 Y-57.104
X-53.458 Y-57.007
X-53.456 Y-57.006
X-51.674 Y-56.917
X-51.668
X-49.985 Y-56.843
X-49.976
X-48.383 Y-56.789
X-48.371 Y-56.788
X-46.849 Y-56.757
X-46.835
X-45.357 Y-56.75
X-45.343
X-43.883 Y-56.766
X-43.87 Y-56.767
X-42.41 Y-56.803
X-42.4
X-40.93 Y-56.856
X-40.923 Y-56.857
X-39.44 Y-56.922
X-39.436
X-37.94 Y-56.994
X-36.437 Y-57.068
X-34.934 Y-57.137
X-33.438 Y-57.198
X-31.957 Y-57.244
X-30.496 Y-57.274
X-29.053 Y-57.284
G2 X-28.423 Y-57.548 I-0.006 J-0.9
G1 X-25.63 Y-60.34
G2 X-25.63 Y-63.027 I-1.343 J-1.343
G1 X-28.423 Y-65.82
G2 X-29.053 Y-66.084 I-0.636 J0.636
G1 X-30.496 Y-66.094
X-31.957 Y-66.124
X-33.438 Y-66.17
X-34.934 Y-66.23
X-36.437 Y-66.3
X-37.94 Y-66.374
X-39.436 Y-66.446
X-39.44
X-40.923 Y-66.511
X-40.93
X-42.4 Y-66.564
X-42.41 Y-66.565
X-43.87 Y-66.601
X-43.883
X-45.343 Y-66.618
X-45.357
X-46.835 Y-66.611
X-46.849
X-48.371 Y-66.58
X-48.384 Y-66.579
X-49.976 Y-66.525
X-49.985
X-51.668 Y-66.451
X-51.674 Y-66.45
X-53.456 Y-66.361
X-53.458
X-55.331 Y-66.264
X-57.269 Y-66.166
X-59.239 Y-66.077
X-61.205 Y-66.004
X-63.128 Y-65.957
X-64.976 Y-65.941
X-65.858 Y-65.946
X-66.712 Y-65.962
X-67.532 Y-65.987
X-68.318 Y-66.023
X-69.066 Y-66.07
X-69.778 Y-66.127
X-70.454 Y-66.193
X-71.099 Y-66.27
X-71.717 Y-66.355
X-72.315 Y-66.447
X-73.492 Y-66.651
X-74.676 Y-66.87
X-74.679
X-75.909 Y-67.094
X-75.919 Y-67.095
X-77.216 Y-67.315
X-77.229 Y-67.317
X-78.596 Y-67.528
X-78.607 Y-67.53
X-80.031 Y-67.731
X-80.04 Y-67.733
X-81.494 Y-67.923
X-81.502 Y-67.924
X-82.959 Y-68.101
X-82.968 Y-68.102
X-84.404 Y-68.263
X-84.415 Y-68.264
X-85.813 Y-68.402
X-85.83 Y-68.404
X-87.183 Y-68.511
X-87.203 Y-68.512
X-87.865 Y-68.55
X-87.884 Y-68.551
X-88.542 Y-68.575
X-88.564 Y-68.576
X-89.225 Y-68.584
X-89.25
X-89.918 Y-68.573
X-89.947 Y-68.572
X-90.629 Y-68.539
X-90.658 Y-68.537
X-91.359 Y-68.48
X-91.388 Y-68.478
X-92.111 Y-68.395
X-92.14 Y-68.391
X-92.884 Y-68.281
X-92.912 Y-68.277
X-93.676 Y-68.14
X-93.703 Y-68.134
X-94.485 Y-67.969
X-94.511 Y-67.963
X-95.304 Y-67.771
X-95.33 Y-67.764
X-96.129 Y-67.545
X-96.156 Y-67.537
X-96.954 Y-67.292
X-96.98 Y-67.283
X-97.77 Y-67.013
X-97.798 Y-67.003
X-98.571 Y-66.71
X-98.601 Y-66.698
X-99.348 Y-66.384
X-99.381 Y-66.369
X-100.094 Y-66.035
X-100.13 Y-66.017
X-100.799 Y-65.665
X-100.831 Y-65.648
X-101.146 Y-65.467
X-101.167 Y-65.454
X-101.468 Y-65.269
X-101.492 Y-65.254
X-101.778 Y-65.065
X-101.805 Y-65.047
X-102.074 Y-64.856
X-102.101 Y-64.835
X-102.353 Y-64.641
X-102.384 Y-64.616
X-102.617 Y-64.419
X-102.648 Y-64.392
X-102.863 Y-64.194
X-102.899 Y-64.158
X-103.093 Y-63.958
X-103.13 Y-63.917
X-103.303 Y-63.714
X-103.34 Y-63.668
X-103.492 Y-63.464
X-103.531 Y-63.408
X-103.661 Y-63.202
X-103.701 Y-63.132
X-103.807 Y-62.926
X-103.841 Y-62.853
X-103.925 Y-62.646
X-103.956 Y-62.558
X-104.016 Y-62.35
X-104.038 Y-62.254
X-104.074 Y-62.046
X-104.086 Y-61.944
X-104.098 Y-61.736
Y-61.632
X-104.086 Y-61.424
X-104.074 Y-61.322
X-104.038 Y-61.114
X-104.016 Y-61.018
X-103.956 Y-60.81
X-103.925 Y-60.722
X-103.841 Y-60.515
X-103.807 Y-60.442
X-103.701 Y-60.235
X-103.661 Y-60.165
X-103.531 Y-59.96
X-103.493 Y-59.904
X-103.341 Y-59.7
X-103.303 Y-59.653
X-103.13 Y-59.451
X-103.093 Y-59.41
X-102.899 Y-59.209
X-102.863 Y-59.174
X-102.648 Y-58.975
X-102.617 Y-58.948
X-102.384 Y-58.752
X-102.353 Y-58.727
X-102.101 Y-58.533
X-102.074 Y-58.512
X-101.805 Y-58.321
X-101.778 Y-58.303
X-101.492 Y-58.114
X-101.468 Y-58.099
X-101.167 Y-57.914
X-101.146 Y-57.901
X-100.831 Y-57.719
X-100.799 Y-57.702
X-100.13 Y-57.351
X-100.094 Y-57.333
X-99.381 Y-56.999
X-99.348 Y-56.984
X-98.601 Y-56.67
X-98.571 Y-56.658
X-97.872 Y-56.393
X-97.798 Y-56.365
X-97.77 Y-56.355
X-96.98 Y-56.085
X-96.954 Y-56.076
X-96.155 Y-55.831
X-96.129 Y-55.823
X-95.33 Y-55.604
X-95.304 Y-55.597
X-94.511 Y-55.405
X-94.484 Y-55.399
X-93.703 Y-55.234
X-93.676 Y-55.228
X-92.912 Y-55.091
X-92.884 Y-55.086
X-92.14 Y-54.977
X-92.111 Y-54.973
X-91.388 Y-54.89
X-91.359 Y-54.887
X-90.658 Y-54.831
X-90.629 Y-54.829
X-89.947 Y-54.796
X-89.919 Y-54.795
X-89.473 Y-54.788
S5000
X-89.25 Y-54.784 Z-0.908 F333.3
X-89.225 Z-0.909
X-88.564 Y-54.792 Z-0.932
X-88.542 Y-54.793 Z-0.933
X-87.883 Y-54.817 Z-0.956
X-87.865 Y-54.818
X-87.203 Y-54.855 Z-0.979
X-87.183 Y-54.857 Z-0.98
X-85.83 Y-54.964 Z-1.027
X-85.813 Y-54.966 Z-1.028
X-84.415 Y-55.104 Z-1.077
X-84.404 Y-55.105
X-82.968 Y-55.266 Z-1.128
X-82.959 Y-55.267
X-81.502 Y-55.444 Z-1.179
X-81.494 Y-55.445 Z-1.18
X-80.92 Y-55.52 Z-1.2
S8000
X-80.04 Y-55.635 F1000
X-80.03 Y-55.636
X-78.607 Y-55.838
X-78.596 Y-55.839
X-77.229 Y-56.051
X-77.216 Y-56.053
X-75.919 Y-56.273
X-75.909 Y-56.274
X-74.679 Y-56.498
X-74.676
X-73.492 Y-56.717
X-72.315 Y-56.921
X-71.717 Y-57.013
X-71.099 Y-57.098
X-70.454 Y-57.174
X-69.778 Y-57.241
X-69.066 Y-57.298
X-68.318 Y-57.344
X-67.532 Y-57.38
X-66.712 Y-57.406
X-65.858 Y-57.421
X-64.976 Y-57.427
X-63.128 Y-57.411
X-61.205 Y-57.363
X-59.239 Y-57.291
X-57.269 Y-57.202
X-55.331 Y-57.104
X-53.458 Y-57.007
X-53.456 Y-57.006
X-51.674 Y-56.917
X-51.668
X-49.985 Y-56.843
X-49.976
X-48.383 Y-56.789
X-48.371 Y-56.788
X-46.849 Y-56.757
X-46.835
X-45.357 Y-56.75
X-45.343
X-43.883 Y-56.766
X-43.87 Y-56.767
X-42.41 Y-56.803
X-42.4
X-40.93 Y-56.856
X-40.923 Y-56.857
X-39.44 Y-56.922
X-39.436
X-37.94 Y-56.994
X-36.437 Y-57.068
X-34.934 Y-57.137
X-33.438 Y-57.198
X-31.957 Y-57.244
X-30.496 Y-57.274
X-29.053 Y-57.284
G2 X-28.423 Y-57.548 I-0.006 J-0.9
G1 X-25.63 Y-60.34
G2 X-25.63 Y-63.027 I-1.343 J-1.343
G1 X-28.423 Y-65.82
G2 X-29.053 Y-66.084 I-0.636 J0.636
G1 X-30.496 Y-66.094
X-31.957 Y-66.124
X-33.438 Y-66.17
X-34.934 Y-66.23
X-36.437 Y-66.3
X-37.94 Y-66.374
X-39.436 Y-66.446
X-39.44
X-40.923 Y-66.511
X-40.93
X-42.4 Y-66.564
X-42.41 Y-66.565
X-43.87 Y-66.601
X-43.883
X-45.343 Y-66.618
X-45.357
X-46.835 Y-66.611
X-46.849
X-48.371 Y-66.58
X-48.384 Y-66.579
X-49.976 Y-66.525
X-49.985
X-51.668 Y-66.451
X-51.674 Y-66.45
X-53.456 Y-66.361
X-53.458
X-55.331 Y-66.264
X-57.269 Y-66.166
X-59.239 Y-66.077
X-61.205 Y-66.004
X-63.128 Y-65.957
X-64.976 Y-65.941
X-65.858 Y-65.946
X-66.712 Y-65.962
X-67.532 Y-65.987
X-68.318 Y-66.023
X-69.066 Y-66.07
X-69.778 Y-66.127
X-70.454 Y-66.193
X-71.099 Y-66.27
X-71.717 Y-66.355
X-72.315 Y-66.447
X-73.492 Y-66.651
X-74.676 Y-66.87
X-74.679
X-75.909 Y-67.094
X-75.919 Y-67.095
X-77.216 Y-67.315
X-77.229 Y-67.317
X-78.596 Y-67.528
X-78.607 Y-67.53
X-80.031 Y-67.731
X-80.04 Y-67.733
X-81.494 Y-67.923
X-81.502 Y-67.924
X-82.959 Y-68.101
X-82.968 Y-68.102
X-84.404 Y-68.263
X-84.415 Y-68.264
X-85.813 Y-68.402
X-85.83 Y-68.404
X-87.183 Y-68.511
X-87.203 Y-68.512
X-87.865 Y-68.55
X-87.884 Y-68.551
X-88.542 Y-68.575
X-88.564 Y-68.576
X-89.225 Y-68.584
X-89.25
X-89.918 Y-68.573
X-89.947 Y-68.572
X-90.629 Y-68.539
X-90.658 Y-68.537
X-91.359 Y-68.48
X-91.388 Y-68.478
X-92.111 Y-68.395
X-92.14 Y-68.391
X-92.884 Y-68.281
X-92.912 Y-68.277
X-93.676 Y-68.14
X-93.703 Y-68.134
X-94.485 Y-67.969
X-94.511 Y-67.963
X-95.304 Y-67.771
X-95.33 Y-67.764
X-96.129 Y-67.545
X-96.156 Y-67.537
X-96.954 Y-67.292
X-96.98 Y-67.283
X-97.77 Y-67.013
X-97.798 Y-67.003
X-98.571 Y-66.71
X-98.601 Y-66.698
X-99.348 Y-66.384
X-99.381 Y-66.369
X-100.094 Y-66.035
X-100.13 Y-66.017
X-100.799 Y-65.665
X-100.831 Y-65.648
X-101.146 Y-65.467
X-101.167 Y-65.454
X-101.468 Y-65.269
X-101.492 Y-65.254
X-101.778 Y-65.065
X-101.805 Y-65.047
X-102.074 Y-64.856
X-102.101 Y-64.835
X-102.353 Y-64.641
X-102.384 Y-64.616
X-102.617 Y-64.419
X-102.648 Y-64.392
X-102.863 Y-64.194
X-102.899 Y-64.158
X-103.093 Y-63.958
X-103.13 Y-63.917
X-103.303 Y-63.714
X-103.34 Y-63.668
X-103.492 Y-63.464
X-103.531 Y-63.408
X-103.661 Y-63.202
X-103.701 Y-63.132
X-103.807 Y-62.926
X-103.841 Y-62.853
X-103.925 Y-62.646
X-103.956 Y-62.558
X-104.016 Y-62.35
X-104.038 Y-62.254
X-104.074 Y-62.046
X-104.086 Y-61.944
X-104.098 Y-61.736
Y-61.632
X-104.086 Y-61.424
X-104.074 Y-61.322
X-104.038 Y-61.114
X-104.016 Y-61.018
X-103.956 Y-60.81
X-103.925 Y-60.722
X-103.841 Y-60.515
X-103.807 Y-60.442
X-103.701 Y-60.235
X-103.661 Y-60.165
X-103.531 Y-59.96
X-103.493 Y-59.904
X-103.341 Y-59.7
X-103.303 Y-59.653
X-103.13 Y-59.451
X-103.093 Y-59.41
X-102.899 Y-59.209
X-102.863 Y-59.174
X-102.648 Y-58.975
X-102.617 Y-58.948
X-102.384 Y-58.752
X-102.353 Y-58.727
X-102.101 Y-58.533
X-102.074 Y-58.512
X-101.805 Y-58.321
X-101.778 Y-58.303
X-101.492 Y-58.114
X-101.468 Y-58.099
X-101.167 Y-57.914
X-101.146 Y-57.901
X-100.831 Y-57.719
X-100.799 Y-57.702
X-100.13 Y-57.351
X-100.094 Y-57.333
X-99.381 Y-56.999
X-99.348 Y-56.984
X-98.601 Y-56.67
X-98.571 Y-56.658
X-97.798 Y-56.365
X-97.77 Y-56.355
X-96.98 Y-56.085
X-96.954 Y-56.076
X-96.155 Y-55.831
X-96.129 Y-55.823
X-95.33 Y-55.604
X-95.304 Y-55.597
X-94.511 Y-55.405
X-94.484 Y-55.399
X-93.703 Y-55.234
X-93.676 Y-55.228
X-92.912 Y-55.091
X-92.884 Y-55.086
X-92.14 Y-54.977
X-92.111 Y-54.973
X-91.388 Y-54.89
X-91.359 Y-54.887
X-90.658 Y-54.831
X-90.629 Y-54.829
X-89.947 Y-54.796
X-89.919 Y-54.795
X-89.473 Y-54.788
X-89.25 Y-54.784
X-89.225
X-88.564 Y-54.792
X-88.542 Y-54.793
X-87.883 Y-54.817
X-87.865 Y-54.818
X-87.203 Y-54.855
X-87.183 Y-54.857
X-85.83 Y-54.964
X-85.813 Y-54.966
X-84.415 Y-55.104
X-84.404 Y-55.105
X-82.968 Y-55.266
X-82.959 Y-55.267
X-81.502 Y-55.444
X-81.494 Y-55.445
X-80.92 Y-55.52
S5000
X-80.04 Y-55.635 Z-1.231 F333.3
X-80.03 Y-55.636
X-78.607 Y-55.838 Z-1.282
X-78.596 Y-55.839
X-77.229 Y-56.051 Z-1.33
X-77.216 Y-56.053 Z-1.331
X-75.919 Y-56.273 Z-1.377
X-75.909 Y-56.274
X-74.679 Y-56.498 Z-1.421
X-74.676
X-73.492 Y-56.717 Z-1.463
X-72.441 Y-56.899 Z-1.5
S8000
X-72.315 Y-56.921 F1000
X-71.717 Y-57.013
X-71.099 Y-57.098
X-70.454 Y-57.174
X-69.778 Y-57.241
X-69.066 Y-57.298
X-68.318 Y-57.344
X-67.532 Y-57.38
X-66.712 Y-57.406
X-65.858 Y-57.421
X-64.976 Y-57.427
X-63.128 Y-57.411
X-61.205 Y-57.363
X-59.239 Y-57.291
X-57.269 Y-57.202
X-55.331 Y-57.104
X-53.458 Y-57.007
X-53.456 Y-57.006
X-51.674 Y-56.917
X-51.668
X-49.985 Y-56.843
X-49.976
X-48.383 Y-56.789
X-48.371 Y-56.788
X-46.849 Y-56.757
X-46.835
X-45.357 Y-56.75
X-45.343
X-43.883 Y-56.766
X-43.87 Y-56.767
X-42.41 Y-56.803
X-42.4
X-40.93 Y-56.856
X-40.923 Y-56.857
X-39.44 Y-56.922
X-39.436
X-37.94 Y-56.994
X-36.437 Y-57.068
X-34.934 Y-57.137
X-33.438 Y-57.198
X-31.957 Y-57.244
X-30.496 Y-57.274
X-29.053 Y-57.284
G2 X-28.423 Y-57.548 I-0.006 J-0.9
G1 X-25.63 Y-60.34
G2 X-25.63 Y-63.027 I-1.343 J-1.343
G1 X-28.423 Y-65.82
G2 X-29.053 Y-66.084 I-0.636 J0.636
G1 X-30.496 Y-66.094
X-31.957 Y-66.124
X-33.438 Y-66.17
X-34.934 Y-66.23
X-36.437 Y-66.3
X-37.94 Y-66.374
X-39.436 Y-66.446
X-39.44
X-40.923 Y-66.511
X-40.93
X-42.4 Y-66.564
X-42.41 Y-66.565
X-43.87 Y-66.601
X-43.883
X-45.343 Y-66.618
X-45.357
X-46.835 Y-66.611
X-46.849
X-48.371 Y-66.58
X-48.384 Y-66.579
X-49.976 Y-66.525
X-49.985
X-51.668 Y-66.451
X-51.674 Y-66.45
X-53.456 Y-66.361
X-53.458
X-55.331 Y-66.264
X-57.269 Y-66.166
X-59.239 Y-66.077
X-61.205 Y-66.004
X-63.128 Y-65.957
X-64.976 Y-65.941
X-65.858 Y-65.946
X-66.712 Y-65.962
X-67.532 Y-65.987
X-68.318 Y-66.023
X-69.066 Y-66.07
X-69.778 Y-66.127
X-70.454 Y-66.193
X-71.099 Y-66.27
X-71.717 Y-66.355
X-72.315 Y-66.447
X-73.492 Y-66.651
X-74.676 Y-66.87
X-74.679
X-75.909 Y-67.094
X-75.919 Y-67.095
X-77.216 Y-67.315
X-77.229 Y-67.317
X-78.596 Y-67.528
X-78.607 Y-67.53
X-80.031 Y-67.731
X-80.04 Y-67.733
X-81.494 Y-67.923
X-81.502 Y-67.924
X-82.959 Y-68.101
X-82.968 Y-68.102
X-84.404 Y-68.263
X-84.415 Y-68.264
X-85.813 Y-68.402
X-85.83 Y-68.404
X-87.183 Y-68.511
X-87.203 Y-68.512
X-87.865 Y-68.55
X-87.884 Y-68.551
X-88.542 Y-68.575
X-88.564 Y-68.576
X-89.225 Y-68.584
X-89.25
X-89.918 Y-68.573
X-89.947 Y-68.572
X-90.629 Y-68.539
X-90.658 Y-68.537
X-91.359 Y-68.48
X-91.388 Y-68.478
X-92.111 Y-68.395
X-92.14 Y-68.391
X-92.884 Y-68.281
X-92.912 Y-68.277
X-93.676 Y-68.14
X-93.703 Y-68.134
X-94.485 Y-67.969
X-94.511 Y-67.963
X-95.304 Y-67.771
X-95.33 Y-67.764
X-96.129 Y-67.545
X-96.156 Y-67.537
X-96.954 Y-67.292
X-96.98 Y-67.283
X-97.77 Y-67.013
X-97.798 Y-67.003
X-98.571 Y-66.71
X-98.601 Y-66.698
X-99.348 Y-66.384
X-99.381 Y-66.369
X-100.094 Y-66.035
X-100.13 Y-66.017
X-100.799 Y-65.665
X-100.831 Y-65.648
X-101.146 Y-65.467
X-101.167 Y-65.454
X-101.468 Y-65.269
X-101.492 Y-65.254
X-101.778 Y-65.065
X-101.805 Y-65.047
X-102.074 Y-64.856
X-102.101 Y-64.835
X-102.353 Y-64.641
X-102.384 Y-64.616
X-102.617 Y-64.419
X-102.648 Y-64.392
X-102.863 Y-64.194
X-102.899 Y-64.158
X-103.093 Y-63.958
X-103.13 Y-63.917
X-103.303 Y-63.714
X-103.34 Y-63.668
X-103.492 Y-63.464
X-103.531 Y-63.408
X-103.661 Y-63.202
X-103.701 Y-63.132
X-103.807 Y-62.926
X-103.841 Y-62.853
X-103.925 Y-62.646
X-103.956 Y-62.558
X-104.016 Y-62.35
X-104.038 Y-62.254
X-104.074 Y-62.046
X-104.086 Y-61.944
X-104.098 Y-61.736
Y-61.632
X-104.086 Y-61.424
X-104.074 Y-61.322
X-104.038 Y-61.114
X-104.016 Y-61.018
X-103.956 Y-60.81
X-103.925 Y-60.722
X-103.841 Y-60.515
X-103.807 Y-60.442
X-103.701 Y-60.235
X-103.661 Y-60.165
X-103.531 Y-59.96
X-103.493 Y-59.904
X-103.341 Y-59.7
X-103.303 Y-59.653
X-103.13 Y-59.451
X-103.093 Y-59.41
X-102.899 Y-59.209
X-102.863 Y-59.174
X-102.648 Y-58.975
X-102.617 Y-58.948
X-102.384 Y-58.752
X-102.353 Y-58.727
X-102.101 Y-58.533
X-102.074 Y-58.512
X-101.805 Y-58.321
X-101.778 Y-58.303
X-101.492 Y-58.114
X-101.468 Y-58.099
X-101.167 Y-57.914
X-101.146 Y-57.901
X-100.831 Y-57.719
X-100.799 Y-57.702
X-100.13 Y-57.351
X-100.094 Y-57.333
X-99.381 Y-56.999
X-99.348 Y-56.984
X-98.601 Y-56.67
X-98.571 Y-56.658
X-97.798 Y-56.365
X-97.77 Y-56.355
X-96.98 Y-56.085
X-96.954 Y-56.076
X-96.155 Y-55.831
X-96.129 Y-55.823
X-95.33 Y-55.604
X-95.304 Y-55.597
X-94.511 Y-55.405
X-94.484 Y-55.399
X-93.703 Y-55.234
X-93.676 Y-55.228
X-92.912 Y-55.091
X-92.884 Y-55.086
X-92.14 Y-54.977
X-92.111 Y-54.973
X-91.388 Y-54.89
X-91.359 Y-54.887
X-90.658 Y-54.831
X-90.629 Y-54.829
X-89.947 Y-54.796
X-89.919 Y-54.795
X-89.25 Y-54.784
X-89.225
X-88.564 Y-54.792
X-88.542 Y-54.793
X-87.883 Y-54.817
X-87.865 Y-54.818
X-87.203 Y-54.855
X-87.183 Y-54.857
X-85.83 Y-54.964
X-85.813 Y-54.966
X-84.415 Y-55.104
X-84.404 Y-55.105
X-82.968 Y-55.266
X-82.959 Y-55.267
X-81.502 Y-55.444
X-81.494 Y-55.445
X-80.04 Y-55.635
X-80.03 Y-55.636
X-78.607 Y-55.838
X-78.596 Y-55.839
X-77.229 Y-56.051
X-77.216 Y-56.053
X-75.919 Y-56.273
X-75.909 Y-56.274
X-74.679 Y-56.498
X-74.676
X-73.492 Y-56.717
X-72.441 Y-56.899
S5000
X-72.315 Y-56.921 Z-1.504 F333.3
X-71.717 Y-57.013 Z-1.526
X-71.099 Y-57.098 Z-1.547
X-70.454 Y-57.174 Z-1.57
X-69.778 Y-57.241 Z-1.594
X-69.066 Y-57.298 Z-1.619
X-68.318 Y-57.344 Z-1.645
X-67.532 Y-57.38 Z-1.672
X-66.712 Y-57.406 Z-1.701
X-65.858 Y-57.421 Z-1.731
X-64.976 Y-57.427 Z-1.762
X-63.878 Y-57.418 Z-1.8
S8000
X-63.128 Y-57.411 F1000
X-61.205 Y-57.363
X-59.239 Y-57.291
X-57.269 Y-57.202
X-55.331 Y-57.104
X-53.458 Y-57.007
X-53.456 Y-57.006
X-51.674 Y-56.917
X-51.668
X-49.985 Y-56.843
X-49.976
X-48.383 Y-56.789
X-48.371 Y-56.788
X-46.849 Y-56.757
X-46.835
X-45.357 Y-56.75
X-45.343
X-43.883 Y-56.766
X-43.87 Y-56.767
X-42.41 Y-56.803
X-42.4
X-40.93 Y-56.856
X-40.923 Y-56.857
X-39.44 Y-56.922
X-39.436
X-37.94 Y-56.994
X-36.437 Y-57.068
X-34.934 Y-57.137
X-33.438 Y-57.198
X-31.957 Y-57.244
X-30.496 Y-57.274
X-29.053 Y-57.284
G2 X-28.423 Y-57.548 I-0.006 J-0.9
G1 X-25.63 Y-60.34
G2 X-25.63 Y-63.027 I-1.343 J-1.343
G1 X-28.423 Y-65.82
G2 X-29.053 Y-66.084 I-0.636 J0.636
G1 X-30.496 Y-66.094
X-31.957 Y-66.124
X-33.438 Y-66.17
X-34.934 Y-66.23
X-36.437 Y-66.3
X-37.94 Y-66.374
X-39.436 Y-66.446
X-39.44
X-40.923 Y-66.511
X-40.93
X-42.4 Y-66.564
X-42.41 Y-66.565
X-43.87 Y-66.601
X-43.883
X-45.343 Y-66.618
X-45.357
X-46.835 Y-66.611
X-46.849
X-48.371 Y-66.58
X-48.384 Y-66.579
X-49.976 Y-66.525
X-49.985
X-51.668 Y-66.451
X-51.674 Y-66.45
X-53.456 Y-66.361
X-53.458
X-55.331 Y-66.264
X-57.269 Y-66.166
X-59.239 Y-66.077
X-61.205 Y-66.004
X-63.128 Y-65.957
X-64.976 Y-65.941
X-65.858 Y-65.946
X-66.712 Y-65.962
X-67.532 Y-65.987
X-68.318 Y-66.023
X-69.066 Y-66.07
X-69.778 Y-66.127
X-70.454 Y-66.193
X-71.099 Y-66.27
X-71.717 Y-66.355
X-72.315 Y-66.447
X-73.492 Y-66.651
X-74.676 Y-66.87
X-74.679
X-75.909 Y-67.094
X-75.919 Y-67.095
X-77.216 Y-67.315
X-77.229 Y-67.317
X-78.596 Y-67.528
X-78.607 Y-67.53
X-80.031 Y-67.731
X-80.04 Y-67.733
X-81.494 Y-67.923
X-81.502 Y-67.924
X-82.959 Y-68.101
X-82.968 Y-68.102
X-84.404 Y-68.263
X-84.415 Y-68.264
X-85.813 Y-68.402
X-85.83 Y-68.404
X-87.183 Y-68.511
X-87.203 Y-68.512
X-87.865 Y-68.55
X-87.884 Y-68.551
X-88.542 Y-68.575
X-88.564 Y-68.576
X-89.225 Y-68.584
X-89.25
X-89.918 Y-68.573
X-89.947 Y-68.572
X-90.629 Y-68.539
X-90.658 Y-68.537
X-91.359 Y-68.48
X-91.388 Y-68.478
X-92.111 Y-68.395
X-92.14 Y-68.391
X-92.884 Y-68.281
X-92.912 Y-68.277
X-93.676 Y-68.14
X-93.703 Y-68.134
X-94.485 Y-67.969
X-94.511 Y-67.963
X-95.304 Y-67.771
X-95.33 Y-67.764
X-96.129 Y-67.545
X-96.156 Y-67.537
X-96.954 Y-67.292
X-96.98 Y-67.283
X-97.77 Y-67.013
X-97.798 Y-67.003
X-98.571 Y-66.71
X-98.601 Y-66.698
X-99.348 Y-66.384
X-99.381 Y-66.369
X-100.094 Y-66.035
X-100.13 Y-66.017
X-100.799 Y-65.665
X-100.831 Y-65.648
X-101.146 Y-65.467
X-101.167 Y-65.454
X-101.468 Y-65.269
X-101.492 Y-65.254
X-101.778 Y-65.065
X-101.805 Y-65.047
X-102.074 Y-64.856
X-102.101 Y-64.835
X-102.353 Y-64.641
X-102.384 Y-64.616
X-102.617 Y-64.419
X-102.648 Y-64.392
X-102.863 Y-64.194
X-102.899 Y-64.158
X-103.093 Y-63.958
X-103.13 Y-63.917
X-103.303 Y-63.714
X-103.34 Y-63.668
X-103.492 Y-63.464
X-103.531 Y-63.408
X-103.661 Y-63.202
X-103.701 Y-63.132
X-103.807 Y-62.926
X-103.841 Y-62.853
X-103.925 Y-62.646
X-103.956 Y-62.558
X-104.016 Y-62.35
X-104.038 Y-62.254
X-104.074 Y-62.046
X-104.086 Y-61.944
X-104.098 Y-61.736
Y-61.632
X-104.086 Y-61.424
X-104.074 Y-61.322
X-104.038 Y-61.114
X-104.016 Y-61.018
X-103.956 Y-60.81
X-103.925 Y-60.722
X-103.841 Y-60.515
X-103.807 Y-60.442
X-103.701 Y-60.235
X-103.661 Y-60.165
X-103.531 Y-59.96
X-103.493 Y-59.904
X-103.341 Y-59.7
X-103.303 Y-59.653
X-103.13 Y-59.451
X-103.093 Y-59.41
X-102.899 Y-59.209
X-102.863 Y-59.174
X-102.648 Y-58.975
X-102.617 Y-58.948
X-102.384 Y-58.752
X-102.353 Y-58.727
X-102.101 Y-58.533
X-102.074 Y-58.512
X-101.805 Y-58.321
X-101.778 Y-58.303
X-101.492 Y-58.114
X-101.468 Y-58.099
X-101.167 Y-57.914
X-101.146 Y-57.901
X-100.831 Y-57.719
X-100.799 Y-57.702
X-100.13 Y-57.351
X-100.094 Y-57.333
X-99.381 Y-56.999
X-99.348 Y-56.984
X-98.601 Y-56.67
X-98.571 Y-56.658
X-97.798 Y-56.365
X-97.77 Y-56.355
X-96.98 Y-56.085
X-96.954 Y-56.076
X-96.155 Y-55.831
X-96.129 Y-55.823
X-95.33 Y-55.604
X-95.304 Y-55.597
X-94.511 Y-55.405
X-94.484 Y-55.399
X-93.703 Y-55.234
X-93.676 Y-55.228
X-92.912 Y-55.091
X-92.884 Y-55.086
X-92.14 Y-54.977
X-92.111 Y-54.973
X-91.388 Y-54.89
X-91.359 Y-54.887
X-90.658 Y-54.831
X-90.629 Y-54.829
X-89.947 Y-54.796
X-89.919 Y-54.795
X-89.25 Y-54.784
X-89.225
X-88.564 Y-54.792
X-88.542 Y-54.793
X-87.883 Y-54.817
X-87.865 Y-54.818
X-87.203 Y-54.855
X-87.183 Y-54.857
X-85.83 Y-54.964
X-85.813 Y-54.966
X-84.415 Y-55.104
X-84.404 Y-55.105
X-82.968 Y-55.266
X-82.959 Y-55.267
X-81.502 Y-55.444
X-81.494 Y-55.445
X-80.04 Y-55.635
X-80.03 Y-55.636
X-78.607 Y-55.838
X-78.596 Y-55.839
X-77.229 Y-56.051
X-77.216 Y-56.053
X-75.919 Y-56.273
X-75.909 Y-56.274
X-74.679 Y-56.498
X-74.676
X-73.492 Y-56.717
X-72.441 Y-56.899
X-72.315 Y-56.921
X-71.717 Y-57.013
X-71.099 Y-57.098
X-70.454 Y-57.174
X-69.778 Y-57.241
X-69.066 Y-57.298
X-68.318 Y-57.344
X-67.532 Y-57.38
X-66.712 Y-57.406
X-65.858 Y-57.421
X-64.976 Y-57.427
X-63.878 Y-57.418
S5000
X-63.128 Y-57.411 Z-1.826 F333.3
X-61.205 Y-57.363 Z-1.893
X-59.239 Y-57.291 Z-1.962
X-57.269 Y-57.202 Z-2.031
X-55.331 Y-57.104 Z-2.099
X-55.294 Y-57.102 Z-2.1
S8000
X-53.458 Y-57.007 F1000
X-53.456 Y-57.006
X-51.674 Y-56.917
X-51.668
X-49.985 Y-56.843
X-49.976
X-48.383 Y-56.789
X-48.371 Y-56.788
X-46.849 Y-56.757
X-46.835
X-45.357 Y-56.75
X-45.343
X-43.883 Y-56.766
X-43.87 Y-56.767
X-42.41 Y-56.803
X-42.4
X-40.93 Y-56.856
X-40.923 Y-56.857
X-39.44 Y-56.922
X-39.436
X-37.94 Y-56.994
X-36.437 Y-57.068
X-34.934 Y-57.137
X-33.438 Y-57.198
X-31.957 Y-57.244
X-30.496 Y-57.274
X-29.053 Y-57.284
G2 X-28.423 Y-57.548 I-0.006 J-0.9
G1 X-25.63 Y-60.34
G2 X-25.63 Y-63.027 I-1.343 J-1.343
G1 X-28.423 Y-65.82
G2 X-29.053 Y-66.084 I-0.636 J0.636
G1 X-30.496 Y-66.094
X-31.957 Y-66.124
X-33.438 Y-66.17
X-34.934 Y-66.23
X-36.437 Y-66.3
X-37.94 Y-66.374
X-39.436 Y-66.446
X-39.44
X-40.923 Y-66.511
X-40.93
X-42.4 Y-66.564
X-42.41 Y-66.565
X-43.87 Y-66.601
X-43.883
X-45.343 Y-66.618
X-45.357
X-46.835 Y-66.611
X-46.849
X-48.371 Y-66.58
X-48.384 Y-66.579
X-49.976 Y-66.525
X-49.985
X-51.668 Y-66.451
X-51.674 Y-66.45
X-53.456 Y-66.361
X-53.458
X-55.331 Y-66.264
X-57.269 Y-66.166
X-59.239 Y-66.077
X-61.205 Y-66.004
X-63.128 Y-65.957
X-64.976 Y-65.941
X-65.858 Y-65.946
X-66.712 Y-65.962
X-67.532 Y-65.987
X-68.318 Y-66.023
X-69.066 Y-66.07
X-69.778 Y-66.127
X-70.454 Y-66.193
X-71.099 Y-66.27
X-71.717 Y-66.355
X-72.315 Y-66.447
X-73.492 Y-66.651
X-74.676 Y-66.87
X-74.679
X-75.909 Y-67.094
X-75.919 Y-67.095
X-77.216 Y-67.315
X-77.229 Y-67.317
X-78.596 Y-67.528
X-78.607 Y-67.53
X-80.031 Y-67.731
X-80.04 Y-67.733
X-81.494 Y-67.923
X-81.502 Y-67.924
X-82.959 Y-68.101
X-82.968 Y-68.102
X-84.404 Y-68.263
X-84.415 Y-68.264
X-85.813 Y-68.402
X-85.83 Y-68.404
X-87.183 Y-68.511
X-87.203 Y-68.512
X-87.865 Y-68.55
X-87.884 Y-68.551
X-88.542 Y-68.575
X-88.564 Y-68.576
X-89.225 Y-68.584
X-89.25
X-89.918 Y-68.573
X-89.947 Y-68.572
X-90.629 Y-68.539
X-90.658 Y-68.537
X-91.359 Y-68.48
X-91.388 Y-68.478
X-92.111 Y-68.395
X-92.14 Y-68.391
X-92.884 Y-68.281
X-92.912 Y-68.277
X-93.676 Y-68.14
X-93.703 Y-68.134
X-94.485 Y-67.969
X-94.511 Y-67.963
X-95.304 Y-67.771
X-95.33 Y-67.764
X-96.129 Y-67.545
X-96.156 Y-67.537
X-96.954 Y-67.292
X-96.98 Y-67.283
X-97.77 Y-67.013
X-97.798 Y-67.003
X-98.571 Y-66.71
X-98.601 Y-66.698
X-99.348 Y-66.384
X-99.381 Y-66.369
X-100.094 Y-66.035
X-100.13 Y-66.017
X-100.799 Y-65.665
X-100.831 Y-65.648
X-101.146 Y-65.467
X-101.167 Y-65.454
X-101.468 Y-65.269
X-101.492 Y-65.254
X-101.778 Y-65.065
X-101.805 Y-65.047
X-102.074 Y-64.856
X-102.101 Y-64.835
X-102.353 Y-64.641
X-102.384 Y-64.616
X-102.617 Y-64.419
X-102.648 Y-64.392
X-102.863 Y-64.194
X-102.899 Y-64.158
X-103.093 Y-63.958
X-103.13 Y-63.917
X-103.303 Y-63.714
X-103.34 Y-63.668
X-103.492 Y-63.464
X-103.531 Y-63.408
X-103.661 Y-63.202
X-103.701 Y-63.132
X-103.807 Y-62.926
X-103.841 Y-62.853
X-103.925 Y-62.646
X-103.956 Y-62.558
X-104.016 Y-62.35
X-104.038 Y-62.254
X-104.074 Y-62.046
X-104.086 Y-61.944
X-104.098 Y-61.736
Y-61.632
X-104.086 Y-61.424
X-104.074 Y-61.322
X-104.038 Y-61.114
X-104.016 Y-61.018
X-103.956 Y-60.81
X-103.925 Y-60.722
X-103.841 Y-60.515
X-103.807 Y-60.442
X-103.701 Y-60.235
X-103.661 Y-60.165
X-103.531 Y-59.96
X-103.493 Y-59.904
X-103.341 Y-59.7
X-103.303 Y-59.653
X-103.13 Y-59.451
X-103.093 Y-59.41
X-102.899 Y-59.209
X-102.863 Y-59.174
X-102.648 Y-58.975
X-102.617 Y-58.948
X-102.384 Y-58.752
X-102.353 Y-58.727
X-102.101 Y-58.533
X-102.074 Y-58.512
X-101.805 Y-58.321
X-101.778 Y-58.303
X-101.492 Y-58.114
X-101.468 Y-58.099
X-101.167 Y-57.914
X-101.146 Y-57.901
X-100.831 Y-57.719
X-100.799 Y-57.702
X-100.13 Y-57.351
X-100.094 Y-57.333
X-99.381 Y-56.999
X-99.348 Y-56.984
X-98.601 Y-56.67
X-98.571 Y-56.658
X-97.798 Y-56.365
X-97.77 Y-56.355
X-96.98 Y-56.085
X-96.954 Y-56.076
X-96.155 Y-55.831
X-96.129 Y-55.823
X-95.33 Y-55.604
X-95.304 Y-55.597
X-94.511 Y-55.405
X-94.484 Y-55.399
X-93.703 Y-55.234
X-93.676 Y-55.228
X-92.912 Y-55.091
X-92.884 Y-55.086
X-92.14 Y-54.977
X-92.111 Y-54.973
X-91.388 Y-54.89
X-91.359 Y-54.887
X-90.658 Y-54.831
X-90.629 Y-54.829
X-89.947 Y-54.796
X-89.919 Y-54.795
X-89.25 Y-54.784
X-89.225
X-88.564 Y-54.792
X-88.542 Y-54.793
X-87.883 Y-54.817
X-87.865 Y-54.818
X-87.203 Y-54.855
X-87.183 Y-54.857
X-85.83 Y-54.964
X-85.813 Y-54.966
X-84.415 Y-55.104
X-84.404 Y-55.105
X-82.968 Y-55.266
X-82.959 Y-55.267
X-81.502 Y-55.444
X-81.494 Y-55.445
X-80.04 Y-55.635
X-80.03 Y-55.636
X-78.607 Y-55.838
X-78.596 Y-55.839
X-77.229 Y-56.051
X-77.216 Y-56.053
X-75.919 Y-56.273
X-75.909 Y-56.274
X-74.679 Y-56.498
X-74.676
X-73.492 Y-56.717
X-72.315 Y-56.921
X-71.717 Y-57.013
X-71.099 Y-57.098
X-70.454 Y-57.174
X-69.778 Y-57.241
X-69.066 Y-57.298
X-68.318 Y-57.344
X-67.532 Y-57.38
X-66.712 Y-57.406
X-65.858 Y-57.421
X-64.976 Y-57.427
X-63.878 Y-57.418
X-63.128 Y-57.411
X-61.205 Y-57.363
X-59.239 Y-57.291
X-57.269 Y-57.202
X-55.331 Y-57.104
X-55.294 Y-57.102
S5000
X-53.458 Y-57.007 Z-2.164 F333.3
X-53.456 Y-57.006
X-51.674 Y-56.917 Z-2.227
X-51.668
X-49.985 Y-56.843 Z-2.286
X-49.976
X-48.383 Y-56.789 Z-2.342
X-48.371 Y-56.788
X-46.849 Y-56.757 Z-2.395
X-46.835 Z-2.396
X-46.711 Z-2.4
S8000
X-45.357 Y-56.75 F1000
X-45.343
X-43.883 Y-56.766
X-43.87 Y-56.767
X-42.41 Y-56.803
X-42.4
X-40.93 Y-56.856
X-40.923 Y-56.857
X-39.44 Y-56.922
X-39.436
X-37.94 Y-56.994
X-36.437 Y-57.068
X-34.934 Y-57.137
X-33.438 Y-57.198
X-31.957 Y-57.244
X-30.496 Y-57.274
X-29.053 Y-57.284
G2 X-28.423 Y-57.548 I-0.006 J-0.9
G1 X-25.63 Y-60.34
G2 X-25.63 Y-63.027 I-1.343 J-1.343
G1 X-28.423 Y-65.82
G2 X-29.053 Y-66.084 I-0.636 J0.636
G1 X-30.496 Y-66.094
X-31.957 Y-66.124
X-33.438 Y-66.17
X-34.934 Y-66.23
X-36.437 Y-66.3
X-37.94 Y-66.374
X-39.436 Y-66.446
X-39.44
X-40.923 Y-66.511
X-40.93
X-42.4 Y-66.564
X-42.41 Y-66.565
X-43.87 Y-66.601
X-43.883
X-45.343 Y-66.618
X-45.357
X-46.835 Y-66.611
X-46.849
X-48.371 Y-66.58
X-48.384 Y-66.579
X-49.976 Y-66.525
X-49.985
X-51.668 Y-66.451
X-51.674 Y-66.45
X-53.456 Y-66.361
X-53.458
X-55.331 Y-66.264
X-57.269 Y-66.166
X-59.239 Y-66.077
X-61.205 Y-66.004
X-63.128 Y-65.957
X-64.976 Y-65.941
X-65.858 Y-65.946
X-66.712 Y-65.962
X-67.532 Y-65.987
X-68.318 Y-66.023
X-69.066 Y-66.07
X-69.778 Y-66.127
X-70.454 Y-66.193
X-71.099 Y-66.27
X-71.717 Y-66.355
X-72.315 Y-66.447
X-73.492 Y-66.651
X-74.676 Y-66.87
X-74.679
X-75.909 Y-67.094
X-75.919 Y-67.095
X-77.216 Y-67.315
X-77.229 Y-67.317
X-78.596 Y-67.528
X-78.607 Y-67.53
X-80.031 Y-67.731
X-80.04 Y-67.733
X-81.494 Y-67.923
X-81.502 Y-67.924
X-82.959 Y-68.101
X-82.968 Y-68.102
X-84.404 Y-68.263
X-84.415 Y-68.264
X-85.813 Y-68.402
X-85.83 Y-68.404
X-87.183 Y-68.511
X-87.203 Y-68.512
X-87.865 Y-68.55
X-87.884 Y-68.551
X-88.542 Y-68.575
X-88.564 Y-68.576
X-89.225 Y-68.584
X-89.25
X-89.918 Y-68.573
X-89.947 Y-68.572
X-90.629 Y-68.539
X-90.658 Y-68.537
X-91.359 Y-68.48
X-91.388 Y-68.478
X-92.111 Y-68.395
X-92.14 Y-68.391
X-92.884 Y-68.281
X-92.912 Y-68.277
X-93.676 Y-68.14
X-93.703 Y-68.134
X-94.485 Y-67.969
X-94.511 Y-67.963
X-95.304 Y-67.771
X-95.33 Y-67.764
X-96.129 Y-67.545
X-96.156 Y-67.537
X-96.954 Y-67.292
X-96.98 Y-67.283
X-97.77 Y-67.013
X-97.798 Y-67.003
X-98.571 Y-66.71
X-98.601 Y-66.698
X-99.348 Y-66.384
X-99.381 Y-66.369
X-100.094 Y-66.035
X-100.13 Y-66.017
X-100.799 Y-65.665
X-100.831 Y-65.648
X-101.146 Y-65.467
X-101.167 Y-65.454
X-101.468 Y-65.269
X-101.492 Y-65.254
X-101.778 Y-65.065
X-101.805 Y-65.047
X-102.074 Y-64.856
X-102.101 Y-64.835
X-102.353 Y-64.641
X-102.384 Y-64.616
X-102.617 Y-64.419
X-102.648 Y-64.392
X-102.863 Y-64.194
X-102.899 Y-64.158
X-103.093 Y-63.958
X-103.13 Y-63.917
X-103.303 Y-63.714
X-103.34 Y-63.668
X-103.492 Y-63.464
X-103.531 Y-63.408
X-103.661 Y-63.202
X-103.701 Y-63.132
X-103.807 Y-62.926
X-103.841 Y-62.853
X-103.925 Y-62.646
X-103.956 Y-62.558
X-104.016 Y-62.35
X-104.038 Y-62.254
X-104.074 Y-62.046
X-104.086 Y-61.944
X-104.098 Y-61.736
Y-61.632
X-104.086 Y-61.424
X-104.074 Y-61.322
X-104.038 Y-61.114
X-104.016 Y-61.018
X-103.956 Y-60.81
X-103.925 Y-60.722
X-103.841 Y-60.515
X-103.807 Y-60.442
X-103.701 Y-60.235
X-103.661 Y-60.165
X-103.531 Y-59.96
X-103.493 Y-59.904
X-103.341 Y-59.7
X-103.303 Y-59.653
X-103.13 Y-59.451
X-103.093 Y-59.41
X-102.899 Y-59.209
X-102.863 Y-59.174
X-102.648 Y-58.975
X-102.617 Y-58.948
X-102.384 Y-58.752
X-102.353 Y-58.727
X-102.101 Y-58.533
X-102.074 Y-58.512
X-101.805 Y-58.321
X-101.778 Y-58.303
X-101.492 Y-58.114
X-101.468 Y-58.099
X-101.167 Y-57.914
X-101.146 Y-57.901
X-100.831 Y-57.719
X-100.799 Y-57.702
X-100.13 Y-57.351
X-100.094 Y-57.333
X-99.381 Y-56.999
X-99.348 Y-56.984
X-98.601 Y-56.67
X-98.571 Y-56.658
X-97.798 Y-56.365
X-97.77 Y-56.355
X-96.98 Y-56.085
X-96.954 Y-56.076
X-96.155 Y-55.831
X-96.129 Y-55.823
X-95.33 Y-55.604
X-95.304 Y-55.597
X-94.511 Y-55.405
X-94.484 Y-55.399
X-93.703 Y-55.234
X-93.676 Y-55.228
X-92.912 Y-55.091
X-92.884 Y-55.086
X-92.14 Y-54.977
X-92.111 Y-54.973
X-91.388 Y-54.89
X-91.359 Y-54.887
X-90.658 Y-54.831
X-90.629 Y-54.829
X-89.947 Y-54.796
X-89.919 Y-54.795
X-89.25 Y-54.784
X-89.225
X-88.564 Y-54.792
X-88.542 Y-54.793
X-87.883 Y-54.817
X-87.865 Y-54.818
X-87.203 Y-54.855
X-87.183 Y-54.857
X-85.83 Y-54.964
X-85.813 Y-54.966
X-84.415 Y-55.104
X-84.404 Y-55.105
X-82.968 Y-55.266
X-82.959 Y-55.267
X-81.502 Y-55.444
X-81.494 Y-55.445
X-80.04 Y-55.635
X-80.03 Y-55.636
X-78.607 Y-55.838
X-78.596 Y-55.839
X-77.229 Y-56.051
X-77.216 Y-56.053
X-75.919 Y-56.273
X-75.909 Y-56.274
X-74.679 Y-56.498
X-74.676
X-73.492 Y-56.717
X-72.315 Y-56.921
X-71.717 Y-57.013
X-71.099 Y-57.098
X-70.454 Y-57.174
X-69.778 Y-57.241
X-69.066 Y-57.298
X-68.318 Y-57.344
X-67.532 Y-57.38
X-66.712 Y-57.406
X-65.858 Y-57.421
X-64.976 Y-57.427
X-63.128 Y-57.411
X-61.205 Y-57.363
X-59.239 Y-57.291
X-57.269 Y-57.202
X-55.331 Y-57.104
X-53.458 Y-57.007
X-53.456 Y-57.006
X-51.674 Y-56.917
X-51.668
X-49.985 Y-56.843
X-49.976
X-48.383 Y-56.789
X-48.371 Y-56.788
X-46.849 Y-56.757
X-46.835
X-46.711
S5000
X-45.357 Y-56.75 Z-2.447 F333.3
X-45.343 Z-2.448
X-43.883 Y-56.766 Z-2.499
X-43.87 Y-56.767
X-42.41 Y-56.803 Z-2.55
X-42.4 Z-2.551
X-40.93 Y-56.856 Z-2.602
X-40.923 Y-56.857
X-39.44 Y-56.922 Z-2.654
X-39.436
X-38.124 Y-56.985 Z-2.7
S8000
X-37.94 Y-56.994 F1000
X-36.437 Y-57.068
X-34.934 Y-57.137
X-33.438 Y-57.198
X-31.957 Y-57.244
X-30.496 Y-57.274
X-29.053 Y-57.284
G2 X-28.423 Y-57.548 I-0.006 J-0.9
G1 X-25.63 Y-60.34
G2 X-25.63 Y-63.027 I-1.343 J-1.343
G1 X-28.423 Y-65.82
G2 X-29.053 Y-66.084 I-0.636 J0.636
G1 X-30.496 Y-66.094
X-31.957 Y-66.124
X-33.438 Y-66.17
X-34.934 Y-66.23
X-36.437 Y-66.3
X-37.94 Y-66.374
X-39.436 Y-66.446
X-39.44
X-40.923 Y-66.511
X-40.93
X-42.4 Y-66.564
X-42.41 Y-66.565
X-43.87 Y-66.601
X-43.883
X-45.343 Y-66.618
X-45.357
X-46.835 Y-66.611
X-46.849
X-48.371 Y-66.58
X-48.384 Y-66.579
X-49.976 Y-66.525
X-49.985
X-51.668 Y-66.451
X-51.674 Y-66.45
X-53.456 Y-66.361
X-53.458
X-55.331 Y-66.264
X-57.269 Y-66.166
X-59.239 Y-66.077
X-61.205 Y-66.004
X-63.128 Y-65.957
X-64.976 Y-65.941
X-65.858 Y-65.946
X-66.712 Y-65.962
X-67.532 Y-65.987
X-68.318 Y-66.023
X-69.066 Y-66.07
X-69.778 Y-66.127
X-70.454 Y-66.193
X-71.099 Y-66.27
X-71.717 Y-66.355
X-72.315 Y-66.447
X-73.492 Y-66.651
X-74.676 Y-66.87
X-74.679
X-75.909 Y-67.094
X-75.919 Y-67.095
X-77.216 Y-67.315
X-77.229 Y-67.317
X-78.596 Y-67.528
X-78.607 Y-67.53
X-80.031 Y-67.731
X-80.04 Y-67.733
X-81.494 Y-67.923
X-81.502 Y-67.924
X-82.959 Y-68.101
X-82.968 Y-68.102
X-84.404 Y-68.263
X-84.415 Y-68.264
X-85.813 Y-68.402
X-85.83 Y-68.404
X-87.183 Y-68.511
X-87.203 Y-68.512
X-87.865 Y-68.55
X-87.884 Y-68.551
X-88.542 Y-68.575
X-88.564 Y-68.576
X-89.225 Y-68.584
X-89.25
X-89.918 Y-68.573
X-89.947 Y-68.572
X-90.629 Y-68.539
X-90.658 Y-68.537
X-91.359 Y-68.48
X-91.388 Y-68.478
X-92.111 Y-68.395
X-92.14 Y-68.391
X-92.884 Y-68.281
X-92.912 Y-68.277
X-93.676 Y-68.14
X-93.703 Y-68.134
X-94.485 Y-67.969
X-94.511 Y-67.963
X-95.304 Y-67.771
X-95.33 Y-67.764
X-96.129 Y-67.545
X-96.156 Y-67.537
X-96.954 Y-67.292
X-96.98 Y-67.283
X-97.77 Y-67.013
X-97.798 Y-67.003
X-98.571 Y-66.71
X-98.601 Y-66.698
X-99.348 Y-66.384
X-99.381 Y-66.369
X-100.094 Y-66.035
X-100.13 Y-66.017
X-100.799 Y-65.665
X-100.831 Y-65.648
X-101.146 Y-65.467
X-101.167 Y-65.454
X-101.468 Y-65.269
X-101.492 Y-65.254
X-101.778 Y-65.065
X-101.805 Y-65.047
X-102.074 Y-64.856
X-102.101 Y-64.835
X-102.353 Y-64.641
X-102.384 Y-64.616
X-102.617 Y-64.419
X-102.648 Y-64.392
X-102.863 Y-64.194
X-102.899 Y-64.158
X-103.093 Y-63.958
X-103.13 Y-63.917
X-103.303 Y-63.714
X-103.34 Y-63.668
X-103.492 Y-63.464
X-103.531 Y-63.408
X-103.661 Y-63.202
X-103.701 Y-63.132
X-103.807 Y-62.926
X-103.841 Y-62.853
X-103.925 Y-62.646
X-103.956 Y-62.558
X-104.016 Y-62.35
X-104.038 Y-62.254
X-104.074 Y-62.046
X-104.086 Y-61.944
X-104.098 Y-61.736
Y-61.632
X-104.086 Y-61.424
X-104.074 Y-61.322
X-104.038 Y-61.114
X-104.016 Y-61.018
X-103.956 Y-60.81
X-103.925 Y-60.722
X-103.841 Y-60.515
X-103.807 Y-60.442
X-103.701 Y-60.235
X-103.661 Y-60.165
X-103.531 Y-59.96
X-103.493 Y-59.904
X-103.341 Y-59.7
X-103.303 Y-59.653
X-103.13 Y-59.451
X-103.093 Y-59.41
X-102.899 Y-59.209
X-102.863 Y-59.174
X-102.648 Y-58.975
X-102.617 Y-58.948
X-102.384 Y-58.752
X-102.353 Y-58.727
X-102.101 Y-58.533
X-102.074 Y-58.512
X-101.805 Y-58.321
X-101.778 Y-58.303
X-101.492 Y-58.114
X-101.468 Y-58.099
X-101.167 Y-57.914
X-101.146 Y-57.901
X-100.831 Y-57.719
X-100.799 Y-57.702
X-100.13 Y-57.351
X-100.094 Y-57.333
X-99.381 Y-56.999
X-99.348 Y-56.984
X-98.601 Y-56.67
X-98.571 Y-56.658
X-97.798 Y-56.365
X-97.77 Y-56.355
X-96.98 Y-56.085
X-96.954 Y-56.076
X-96.155 Y-55.831
X-96.129 Y-55.823
X-95.33 Y-55.604
X-95.304 Y-55.597
X-94.511 Y-55.405
X-94.484 Y-55.399
X-93.703 Y-55.234
X-93.676 Y-55.228
X-92.912 Y-55.091
X-92.884 Y-55.086
X-92.14 Y-54.977
X-92.111 Y-54.973
X-91.388 Y-54.89
X-91.359 Y-54.887
X-90.658 Y-54.831
X-90.629 Y-54.829
X-89.947 Y-54.796
X-89.919 Y-54.795
X-89.25 Y-54.784
X-89.225
X-88.564 Y-54.792
X-88.542 Y-54.793
X-87.883 Y-54.817
X-87.865 Y-54.818
X-87.203 Y-54.855
X-87.183 Y-54.857
X-85.83 Y-54.964
X-85.813 Y-54.966
X-84.415 Y-55.104
X-84.404 Y-55.105
X-82.968 Y-55.266
X-82.959 Y-55.267
X-81.502 Y-55.444
X-81.494 Y-55.445
X-80.04 Y-55.635
X-80.03 Y-55.636
X-78.607 Y-55.838
X-78.596 Y-55.839
X-77.229 Y-56.051
X-77.216 Y-56.053
X-75.919 Y-56.273
X-75.909 Y-56.274
X-74.679 Y-56.498
X-74.676
X-73.492 Y-56.717
X-72.315 Y-56.921
X-71.717 Y-57.013
X-71.099 Y-57.098
X-70.454 Y-57.174
X-69.778 Y-57.241
X-69.066 Y-57.298
X-68.318 Y-57.344
X-67.532 Y-57.38
X-66.712 Y-57.406
X-65.858 Y-57.421
X-64.976 Y-57.427
X-63.128 Y-57.411
X-61.205 Y-57.363
X-59.239 Y-57.291
X-57.269 Y-57.202
X-55.331 Y-57.104
X-53.458 Y-57.007
X-53.456 Y-57.006
X-51.674 Y-56.917
X-51.668
X-49.985 Y-56.843
X-49.976
X-48.383 Y-56.789
X-48.371 Y-56.788
X-46.849 Y-56.757
X-46.835
X-45.357 Y-56.75
X-45.343
X-43.883 Y-56.766
X-43.87 Y-56.767
X-42.41 Y-56.803
X-42.4
X-40.93 Y-56.856
X-40.923 Y-56.857
X-39.44 Y-56.922
X-39.436
X-38.124 Y-56.985
S5000
X-37.94 Y-56.994 Z-2.706 F333.3
X-36.437 Y-57.068 Z-2.759
X-34.934 Y-57.137 Z-2.812
X-33.438 Y-57.198 Z-2.864
X-31.957 Y-57.244 Z-2.916
X-30.496 Y-57.274 Z-2.967
X-29.539 Y-57.28 Z-3
S8000
X-29.053 Y-57.284 F1000
G2 X-28.423 Y-57.548 I-0.006 J-0.9
G1 X-25.63 Y-60.34
G2 X-25.63 Y-63.027 I-1.343 J-1.343
G1 X-28.423 Y-65.82
G2 X-29.053 Y-66.084 I-0.636 J0.636
G1 X-30.496 Y-66.094
X-31.957 Y-66.124
X-33.438 Y-66.17
X-34.934 Y-66.23
X-36.437 Y-66.3
X-37.94 Y-66.374
X-39.436 Y-66.446
X-39.44
X-40.923 Y-66.511
X-40.93
X-42.4 Y-66.564
X-42.41 Y-66.565
X-43.87 Y-66.601
X-43.883
X-45.343 Y-66.618
X-45.357
X-46.835 Y-66.611
X-46.849
X-48.371 Y-66.58
X-48.384 Y-66.579
X-49.976 Y-66.525
X-49.985
X-51.668 Y-66.451
X-51.674 Y-66.45
X-53.456 Y-66.361
X-53.458
X-55.331 Y-66.264
X-57.269 Y-66.166
X-59.239 Y-66.077
X-61.205 Y-66.004
X-63.128 Y-65.957
X-64.976 Y-65.941
X-65.858 Y-65.946
X-66.712 Y-65.962
X-67.532 Y-65.987
X-68.06 Y-66.012
Z-2.75
X-68.318 Y-66.023
X-69.066 Y-66.07
X-69.778 Y-66.127
X-70.454 Y-66.193
X-71.099 Y-66.27
X-71.717 Y-66.355
X-72.315 Y-66.447
X-72.831 Y-66.536
Z-3 F200
X-73.492 Y-66.651 F1000
X-74.676 Y-66.87
X-74.679
X-75.909 Y-67.094
X-75.919 Y-67.095
X-77.216 Y-67.315
X-77.229 Y-67.317
X-78.596 Y-67.528
X-78.607 Y-67.53
X-80.031 Y-67.731
X-80.04 Y-67.733
X-81.494 Y-67.923
X-81.502 Y-67.924
X-82.959 Y-68.101
X-82.968 Y-68.102
X-84.404 Y-68.263
X-84.415 Y-68.264
X-85.813 Y-68.402
X-85.83 Y-68.404
X-87.183 Y-68.511
X-87.203 Y-68.512
X-87.865 Y-68.55
X-87.884 Y-68.551
X-88.542 Y-68.575
X-88.564 Y-68.576
X-89.225 Y-68.584
X-89.25
X-89.918 Y-68.573
X-89.947 Y-68.572
X-90.629 Y-68.539
X-90.658 Y-68.537
X-91.359 Y-68.48
X-91.388 Y-68.478
X-92.111 Y-68.395
X-92.14 Y-68.391
X-92.884 Y-68.281
X-92.912 Y-68.277
X-93.676 Y-68.14
X-93.703 Y-68.134
X-94.485 Y-67.969
X-94.511 Y-67.963
X-95.304 Y-67.771
X-95.33 Y-67.764
X-96.129 Y-67.545
X-96.156 Y-67.537
X-96.954 Y-67.292
X-96.98 Y-67.283
X-97.77 Y-67.013
X-97.798 Y-67.003
X-98.571 Y-66.71
X-98.601 Y-66.698
X-99.348 Y-66.384
X-99.381 Y-66.369
X-100.094 Y-66.035
X-100.13 Y-66.017
X-100.799 Y-65.665
X-100.831 Y-65.648
X-101.146 Y-65.467
X-101.167 Y-65.454
X-101.468 Y-65.269
X-101.492 Y-65.254
X-101.778 Y-65.065
X-101.805 Y-65.047
X-102.074 Y-64.856
X-102.101 Y-64.835
X-102.353 Y-64.641
X-102.384 Y-64.616
X-102.617 Y-64.419
X-102.648 Y-64.392
X-102.863 Y-64.194
X-102.899 Y-64.158
X-103.093 Y-63.958
X-103.13 Y-63.917
X-103.303 Y-63.714
X-103.34 Y-63.668
X-103.492 Y-63.464
X-103.531 Y-63.408
X-103.661 Y-63.202
X-103.701 Y-63.132
X-103.807 Y-62.926
X-103.841 Y-62.853
X-103.925 Y-62.646
X-103.956 Y-62.558
X-104.016 Y-62.35
X-104.038 Y-62.254
X-104.074 Y-62.046
X-104.086 Y-61.944
X-104.098 Y-61.736
Y-61.632
X-104.086 Y-61.424
X-104.074 Y-61.322
X-104.038 Y-61.114
X-104.016 Y-61.018
X-103.956 Y-60.81
X-103.925 Y-60.722
X-103.841 Y-60.515
X-103.807 Y-60.442
X-103.701 Y-60.235
X-103.661 Y-60.165
X-103.531 Y-59.96
X-103.493 Y-59.904
X-103.341 Y-59.7
X-103.303 Y-59.653
X-103.13 Y-59.451
X-103.093 Y-59.41
X-102.899 Y-59.209
X-102.863 Y-59.174
X-102.648 Y-58.975
X-102.617 Y-58.948
X-102.384 Y-58.752
X-102.353 Y-58.727
X-102.101 Y-58.533
X-102.074 Y-58.512
X-101.805 Y-58.321
X-101.778 Y-58.303
X-101.492 Y-58.114
X-101.468 Y-58.099
X-101.167 Y-57.914
X-101.146 Y-57.901
X-100.831 Y-57.719
X-100.799 Y-57.702
X-100.13 Y-57.351
X-100.094 Y-57.333
X-99.381 Y-56.999
X-99.348 Y-56.984
X-98.601 Y-56.67
X-98.571 Y-56.658
X-97.798 Y-56.365
X-97.77 Y-56.355
X-96.98 Y-56.085
X-96.954 Y-56.076
X-96.155 Y-55.831
X-96.129 Y-55.823
X-95.33 Y-55.604
X-95.304 Y-55.597
X-94.511 Y-55.405
X-94.484 Y-55.399
X-93.703 Y-55.234
X-93.676 Y-55.228
X-92.912 Y-55.091
X-92.884 Y-55.086
X-92.14 Y-54.977
X-92.111 Y-54.973
X-91.388 Y-54.89
X-91.359 Y-54.887
X-90.658 Y-54.831
X-90.629 Y-54.829
X-89.947 Y-54.796
X-89.919 Y-54.795
X-89.25 Y-54.784
X-89.225
X-88.564 Y-54.792
X-88.542 Y-54.793
X-87.883 Y-54.817
X-87.865 Y-54.818
X-87.203 Y-54.855
X-87.183 Y-54.857
X-85.83 Y-54.964
X-85.813 Y-54.966
X-84.415 Y-55.104
X-84.404 Y-55.105
X-82.968 Y-55.266
X-82.959 Y-55.267
X-81.502 Y-55.444
X-81.494 Y-55.445
X-80.04 Y-55.635
X-80.03 Y-55.636
X-78.607 Y-55.838
X-78.596 Y-55.839
X-77.229 Y-56.051
X-77.216 Y-56.053
X-75.919 Y-56.273
X-75.909 Y-56.274
X-74.679 Y-56.498
X-74.676
X-73.492 Y-56.717
X-72.831 Y-56.832
Z-2.75
X-72.315 Y-56.921
X-71.717 Y-57.013
X-71.099 Y-57.098
X-70.454 Y-57.174
X-69.778 Y-57.241
X-69.066 Y-57.298
X-68.318 Y-57.344
X-68.06 Y-57.356
Z-3 F200
X-67.532 Y-57.38 F1000
X-66.712 Y-57.406
X-65.858 Y-57.421
X-64.976 Y-57.427
X-63.128 Y-57.411
X-61.205 Y-57.363
X-59.239 Y-57.291
X-57.269 Y-57.202
X-55.331 Y-57.104
X-53.458 Y-57.007
X-53.456 Y-57.006
X-51.674 Y-56.917
X-51.668
X-49.985 Y-56.843
X-49.976
X-48.383 Y-56.789
X-48.371 Y-56.788
X-46.849 Y-56.757
X-46.835
X-45.357 Y-56.75
X-45.343
X-43.883 Y-56.766
X-43.87 Y-56.767
X-42.41 Y-56.803
X-42.4
X-40.93 Y-56.856
X-40.923 Y-56.857
X-39.44 Y-56.922
X-39.436
X-37.94 Y-56.994
X-36.437 Y-57.068
X-34.934 Y-57.137
X-33.438 Y-57.198
X-31.957 Y-57.244
X-30.496 Y-57.274
X-29.539 Y-57.28
S5000
X-29.053 Y-57.284 Z-3.017 F333.3
G2 X-28.423 Y-57.548 Z-3.041 I-0.006 J-0.9
G1 X-25.63 Y-60.34 Z-3.179
G2 X-25.284 Y-60.816 Z-3.2 I-1.343 J-1.343
S8000
X-25.63 Y-63.027 I-1.69 J-0.868 F1000
G1 X-28.423 Y-65.82
G2 X-29.053 Y-66.084 I-0.636 J0.636
G1 X-30.496 Y-66.094
X-31.957 Y-66.124
X-33.438 Y-66.17
X-34.934 Y-66.23
X-36.437 Y-66.3
X-37.94 Y-66.374
X-39.436 Y-66.446
X-39.44
X-40.923 Y-66.511
X-40.93
X-42.4 Y-66.564
X-42.41 Y-66.565
X-43.87 Y-66.601
X-43.883
X-45.343 Y-66.618
X-45.357
X-46.835 Y-66.611
X-46.849
X-48.371 Y-66.58
X-48.384 Y-66.579
X-49.976 Y-66.525
X-49.985
X-51.668 Y-66.451
X-51.674 Y-66.45
X-53.456 Y-66.361
X-53.458
X-55.331 Y-66.264
X-57.269 Y-66.166
X-59.239 Y-66.077
X-61.205 Y-66.004
X-63.128 Y-65.957
X-64.976 Y-65.941
X-65.858 Y-65.946
X-66.712 Y-65.962
X-67.532 Y-65.987
X-68.06 Y-66.012
Z-2.75
X-68.318 Y-66.023
X-69.066 Y-66.07
X-69.778 Y-66.127
X-70.454 Y-66.193
X-71.099 Y-66.27
X-71.717 Y-66.355
X-72.315 Y-66.447
X-72.831 Y-66.536
Z-3.2 F200
X-73.492 Y-66.651 F1000
X-74.676 Y-66.87
X-74.679
X-75.909 Y-67.094
X-75.919 Y-67.095
X-77.216 Y-67.315
X-77.229 Y-67.317
X-78.596 Y-67.528
X-78.607 Y-67.53
X-80.031 Y-67.731
X-80.04 Y-67.733
X-81.494 Y-67.923
X-81.502 Y-67.924
X-82.959 Y-68.101
X-82.968 Y-68.102
X-84.404 Y-68.263
X-84.415 Y-68.264
X-85.813 Y-68.402
X-85.83 Y-68.404
X-87.183 Y-68.511
X-87.203 Y-68.512
X-87.865 Y-68.55
X-87.884 Y-68.551
X-88.542 Y-68.575
X-88.564 Y-68.576
X-89.225 Y-68.584
X-89.25
X-89.918 Y-68.573
X-89.947 Y-68.572
X-90.629 Y-68.539
X-90.658 Y-68.537
X-91.359 Y-68.48
X-91.388 Y-68.478
X-92.111 Y-68.395
X-92.14 Y-68.391
X-92.884 Y-68.281
X-92.912 Y-68.277
X-93.676 Y-68.14
X-93.703 Y-68.134
X-94.485 Y-67.969
X-94.511 Y-67.963
X-95.304 Y-67.771
X-95.33 Y-67.764
X-96.129 Y-67.545
X-96.156 Y-67.537
X-96.954 Y-67.292
X-96.98 Y-67.283
X-97.77 Y-67.013
X-97.798 Y-67.003
X-98.571 Y-66.71
X-98.601 Y-66.698
X-99.348 Y-66.384
X-99.381 Y-66.369
X-100.094 Y-66.035
X-100.13 Y-66.017
X-100.799 Y-65.665
X-100.831 Y-65.648
X-101.146 Y-65.467
X-101.167 Y-65.454
X-101.468 Y-65.269
X-101.492 Y-65.254
X-101.778 Y-65.065
X-101.805 Y-65.047
X-102.074 Y-64.856
X-102.101 Y-64.835
X-102.353 Y-64.641
X-102.384 Y-64.616
X-102.617 Y-64.419
X-102.648 Y-64.392
X-102.863 Y-64.194
X-102.899 Y-64.158
X-103.093 Y-63.958
X-103.13 Y-63.917
X-103.303 Y-63.714
X-103.34 Y-63.668
X-103.492 Y-63.464
X-103.531 Y-63.408
X-103.661 Y-63.202
X-103.701 Y-63.132
X-103.807 Y-62.926
X-103.841 Y-62.853
X-103.925 Y-62.646
X-103.956 Y-62.558
X-104.016 Y-62.35
X-104.038 Y-62.254
X-104.074 Y-62.046
X-104.086 Y-61.944
X-104.098 Y-61.736
Y-61.632
X-104.086 Y-61.424
X-104.074 Y-61.322
X-104.038 Y-61.114
X-104.016 Y-61.018
X-103.956 Y-60.81
X-103.925 Y-60.722
X-103.841 Y-60.515
X-103.807 Y-60.442
X-103.701 Y-60.235
X-103.661 Y-60.165
X-103.531 Y-59.96
X-103.493 Y-59.904
X-103.341 Y-59.7
X-103.303 Y-59.653
X-103.13 Y-59.451
X-103.093 Y-59.41
X-102.899 Y-59.209
X-102.863 Y-59.174
X-102.648 Y-58.975
X-102.617 Y-58.948
X-102.384 Y-58.752
X-102.353 Y-58.727
X-102.101 Y-58.533
X-102.074 Y-58.512
X-101.805 Y-58.321
X-101.778 Y-58.303
X-101.492 Y-58.114
X-101.468 Y-58.099
X-101.167 Y-57.914
X-101.146 Y-57.901
X-100.831 Y-57.719
X-100.799 Y-57.702
X-100.13 Y-57.351
X-100.094 Y-57.333
X-99.381 Y-56.999
X-99.348 Y-56.984
X-98.601 Y-56.67
X-98.571 Y-56.658
X-97.798 Y-56.365
X-97.77 Y-56.355
X-96.98 Y-56.085
X-96.954 Y-56.076
X-96.155 Y-55.831
X-96.129 Y-55.823
X-95.33 Y-55.604
X-95.304 Y-55.597
X-94.511 Y-55.405
X-94.484 Y-55.399
X-93.703 Y-55.234
X-93.676 Y-55.228
X-92.912 Y-55.091
X-92.884 Y-55.086
X-92.14 Y-54.977
X-92.111 Y-54.973
X-91.388 Y-54.89
X-91.359 Y-54.887
X-90.658 Y-54.831
X-90.629 Y-54.829
X-89.947 Y-54.796
X-89.919 Y-54.795
X-89.25 Y-54.784
X-89.225
X-88.564 Y-54.792
X-88.542 Y-54.793
X-87.883 Y-54.817
X-87.865 Y-54.818
X-87.203 Y-54.855
X-87.183 Y-54.857
X-85.83 Y-54.964
X-85.813 Y-54.966
X-84.415 Y-55.104
X-84.404 Y-55.105
X-82.968 Y-55.266
X-82.959 Y-55.267
X-81.502 Y-55.444
X-81.494 Y-55.445
X-80.04 Y-55.635
X-80.03 Y-55.636
X-78.607 Y-55.838
X-78.596 Y-55.839
X-77.229 Y-56.051
X-77.216 Y-56.053
X-75.919 Y-56.273
X-75.909 Y-56.274
X-74.679 Y-56.498
X-74.676
X-73.492 Y-56.717
X-72.831 Y-56.832
Z-2.75
X-72.315 Y-56.921
X-71.717 Y-57.013
X-71.099 Y-57.098
X-70.454 Y-57.174
X-69.778 Y-57.241
X-69.066 Y-57.298
X-68.318 Y-57.344
X-68.06 Y-57.356
Z-3.2 F200
X-67.532 Y-57.38 F1000
X-66.712 Y-57.406
X-65.858 Y-57.421
X-64.976 Y-57.427
X-63.128 Y-57.411
X-61.205 Y-57.363
X-59.239 Y-57.291
X-57.269 Y-57.202
X-55.331 Y-57.104
X-53.458 Y-57.007
X-53.456 Y-57.006
X-51.674 Y-56.917
X-51.668
X-49.985 Y-56.843
X-49.976
X-48.383 Y-56.789
X-48.371 Y-56.788
X-46.849 Y-56.757
X-46.835
X-45.357 Y-56.75
X-45.343
X-43.883 Y-56.766
X-43.87 Y-56.767
X-42.41 Y-56.803
X-42.4
X-40.93 Y-56.856
X-40.923 Y-56.857
X-39.44 Y-56.922
X-39.436
X-37.94 Y-56.994
X-36.437 Y-57.068
X-34.934 Y-57.137
X-33.438 Y-57.198
X-31.957 Y-57.244
X-30.496 Y-57.274
X-29.053 Y-57.284
G2 X-28.423 Y-57.548 I-0.006 J-0.9
G1 X-25.63 Y-60.34
G2 X-25.284 Y-60.816 I-1.343 J-1.343
G0 Z5
X-20.364 Y-41.152
G1 Z1.3 F200
Z0.5
S5000
X-19.795 Y-41.088 Z0.48 F333.3
X-19.784 Y-41.087
X-18.386 Y-40.948 Z0.431
X-18.369 Y-40.947 Z0.43
X-17.016 Y-40.84 Z0.383
X-16.996 Y-40.838 Z0.382
X-16.334 Y-40.8 Z0.359
X-16.316 Z0.358
X-15.657 Y-40.775 Z0.335
X-15.635 Z0.334
X-14.975 Y-40.767 Z0.311
X-14.949 Z0.31
X-14.281 Y-40.778 Z0.287
X-14.252 Y-40.779 Z0.286
X-13.57 Y-40.811 Z0.262
X-13.541 Y-40.813 Z0.261
X-12.84 Y-40.87 Z0.237
X-12.811 Y-40.873 Z0.236
X-12.088 Y-40.956 Z0.21
X-12.059 Y-40.959 Z0.209
X-11.315 Y-41.069 Z0.183
X-11.288 Y-41.074 Z0.182
X-10.523 Y-41.211 Z0.155
X-10.496 Y-41.216 Z0.154
X-9.715 Y-41.381 Z0.126
X-9.688 Y-41.387 Z0.125
X-8.895 Y-41.58 Z0.096
X-8.869 Y-41.587
X-8.07 Y-41.806 Z0.067
X-8.044 Y-41.814 Z0.066
X-7.245 Y-42.059 Z0.036
X-7.218 Y-42.067 Z0.035
X-6.429 Y-42.337 Z0.006
X-6.401 Y-42.347 Z0.005
X-5.628 Y-42.64 Z-0.024
X-5.598 Y-42.652 Z-0.025
X-4.851 Y-42.967 Z-0.053
X-4.818 Y-42.981 Z-0.054
X-4.105 Y-43.315 Z-0.082
X-4.069 Y-43.334 Z-0.083
X-3.4 Y-43.685 Z-0.11
X-3.369 Y-43.702 Z-0.111
X-3.054 Y-43.884 Z-0.123
X-3.032 Y-43.897 Z-0.124
X-2.731 Y-44.082 Z-0.137
X-2.707 Y-44.097 Z-0.138
X-2.421 Y-44.286 Z-0.15
X-2.395 Y-44.303 Z-0.151
X-2.126 Y-44.495 Z-0.162
X-2.098 Y-44.515 Z-0.164
X-1.846 Y-44.71 Z-0.175
X-1.816 Y-44.734 Z-0.176
X-1.582 Y-44.931 Z-0.187
X-1.55 Y-44.959 Z-0.188
X-1.335 Y-45.158 Z-0.198
X-1.301 Y-45.192 Z-0.2
X-1.106 Y-45.393 Z-0.21
X-1.07 Y-45.433 Z-0.212
X-0.896 Y-45.635 Z-0.221
X-0.858 Y-45.683 Z-0.223
X-0.706 Y-45.887 Z-0.232
X-0.667 Y-45.944 Z-0.234
X-0.538 Y-46.149 Z-0.243
X-0.499 Y-46.216 Z-0.246
X-0.392 Y-46.422 Z-0.254
X-0.357 Y-46.499 Z-0.257
X-0.274 Y-46.706 Z-0.264
X-0.243 Y-46.793 Z-0.268
X-0.183 Y-47.001 Z-0.275
X-0.161 Y-47.097 Z-0.279
X-0.125 Y-47.305 Z-0.286
X-0.114 Y-47.406 Z-0.29
X-0.102 Y-47.615 Z-0.297
X-0.101 Y-47.703 Z-0.3
S8000
X-0.102 Y-47.719 F1000
X-0.114 Y-47.927
X-0.125 Y-48.029
X-0.161 Y-48.237
X-0.183 Y-48.333
X-0.243 Y-48.54
X-0.274 Y-48.627
X-0.357 Y-48.834
X-0.393 Y-48.911
X-0.499 Y-49.118
X-0.538 Y-49.184
X-0.667 Y-49.389
X-0.706 Y-49.446
X-0.858 Y-49.65
X-0.896 Y-49.698
X-1.07 Y-49.9
X-1.107 Y-49.941
X-1.301 Y-50.142
X-1.335 Y-50.175
X-1.55 Y-50.374
X-1.582 Y-50.403
X-1.816 Y-50.599
X-1.846 Y-50.624
X-2.098 Y-50.818
X-2.126 Y-50.838
X-2.395 Y-51.03
X-2.421 Y-51.048
X-2.707 Y-51.236
X-2.731 Y-51.251
X-3.032 Y-51.436
X-3.054 Y-51.45
X-3.369 Y-51.631
X-3.4 Y-51.648
X-4.069 Y-52
X-4.105 Y-52.018
X-4.818 Y-52.352
X-4.851 Y-52.366
X-5.598 Y-52.681
X-5.628 Y-52.693
X-6.401 Y-52.986
X-6.429 Y-52.996
X-7.219 Y-53.266
X-7.245 Y-53.275
X-8.044 Y-53.52
X-8.07 Y-53.527
X-8.869 Y-53.747
X-8.895 Y-53.753
X-9.688 Y-53.946
X-9.715 Y-53.952
X-10.496 Y-54.117
X-10.523 Y-54.122
X-11.287 Y-54.26
X-11.315 Y-54.264
X-12.06 Y-54.374
X-12.088 Y-54.378
X-12.811 Y-54.46
X-12.84 Y-54.463
X-13.541 Y-54.52
X-13.57 Y-54.522
X-14.252 Y-54.555
X-14.281
X-14.949 Y-54.566
X-14.975 Y-54.567
X-15.635 Y-54.559
X-15.657 Y-54.558
X-16.316 Y-54.534
X-16.334 Y-54.533
X-16.996 Y-54.495
X-17.016 Y-54.494
X-18.369 Y-54.387
X-18.386 Y-54.385
X-19.784 Y-54.247
X-19.795 Y-54.245
X-21.231 Y-54.085
X-21.24 Y-54.084
X-22.697 Y-53.907
X-22.705 Y-53.906
X-24.159 Y-53.716
X-24.169 Y-53.714
X-25.592 Y-53.513
X-25.603 Y-53.511
X-26.97 Y-53.3
X-26.983 Y-53.298
X-28.28 Y-53.078
X-28.29 Y-53.076
X-29.52 Y-52.853
X-29.523 Y-52.852
X-30.707 Y-52.634
X-31.884 Y-52.43
X-32.482 Y-52.337
X-33.1 Y-52.252
X-33.745 Y-52.176
X-34.421 Y-52.109
X-35.133 Y-52.053
X-35.881 Y-52.006
X-36.667 Y-51.97
X-37.487 Y-51.945
X-38.341 Y-51.929
X-39.223 Y-51.924
X-41.072 Y-51.94
X-42.995 Y-51.987
X-44.96 Y-52.06
X-46.93 Y-52.149
X-48.868 Y-52.247
X-50.741 Y-52.344
X-50.743
X-52.525 Y-52.433
X-52.531 Y-52.434
X-54.214 Y-52.508
X-54.223
X-55.816 Y-52.562
X-55.828
X-57.35 Y-52.593
X-57.364
X-58.842 Y-52.6
X-58.857
X-60.316 Y-52.584
X-60.329
X-61.789 Y-52.548
X-61.799 Y-52.547
X-63.269 Y-52.494
X-63.276
X-64.76 Y-52.429
X-64.763 Y-52.428
X-66.259 Y-52.356
X-67.762 Y-52.283
X-69.265 Y-52.213
X-70.761 Y-52.153
X-72.242 Y-52.106
X-73.703 Y-52.077
X-75.146 Y-52.067
G2 X-75.776 Y-51.803 I0.006 J0.9
G1 X-78.569 Y-49.01
G2 X-78.569 Y-46.323 I1.343 J1.343
G1 X-75.776 Y-43.53
G2 X-75.146 Y-43.267 I0.636 J-0.636
G1 X-73.703 Y-43.257
X-72.242 Y-43.227
X-70.761 Y-43.18
X-69.265 Y-43.12
X-67.762 Y-43.051
X-66.259 Y-42.977
X-64.763 Y-42.905
X-64.76
X-63.276 Y-42.84
X-63.269 Y-42.839
X-61.799 Y-42.786
X-61.789
X-60.329 Y-42.749
X-60.316
X-58.857 Y-42.733
X-58.842
X-57.364 Y-42.74
X-57.35
X-55.828 Y-42.771
X-55.816
X-54.223 Y-42.825
X-54.214 Y-42.826
X-52.531 Y-42.9
X-52.525
X-50.743 Y-42.989
X-50.741
X-48.868 Y-43.087
X-46.93 Y-43.184
X-44.96 Y-43.274
X-42.995 Y-43.346
X-41.072 Y-43.394
X-39.223 Y-43.41
X-38.341 Y-43.404
X-37.487 Y-43.389
X-36.667 Y-43.363
X-35.881 Y-43.327
X-35.133 Y-43.281
X-34.421 Y-43.224
X-33.745 Y-43.157
X-33.1 Y-43.081
X-32.482 Y-42.996
X-31.884 Y-42.904
X-30.707 Y-42.7
X-29.523 Y-42.481
X-29.52 Y-42.48
X-28.29 Y-42.257
X-28.28 Y-42.255
X-26.983 Y-42.036
X-26.97 Y-42.034
X-25.603 Y-41.822
X-25.592 Y-41.82
X-24.169 Y-41.619
X-24.159 Y-41.618
X-22.705 Y-41.428
X-22.697 Y-41.427
X-21.24 Y-41.25
X-21.231 Y-41.249
X-19.795 Y-41.088
X-19.784 Y-41.087
X-18.386 Y-40.948
X-18.369 Y-40.947
X-17.016 Y-40.84
X-16.996 Y-40.838
X-16.334 Y-40.8
X-16.316
X-15.657 Y-40.775
X-15.635
X-14.975 Y-40.767
X-14.949
X-14.281 Y-40.778
X-14.252 Y-40.779
X-13.57 Y-40.811
X-13.541 Y-40.813
X-12.84 Y-40.87
X-12.811 Y-40.873
X-12.088 Y-40.956
X-12.059 Y-40.959
X-11.315 Y-41.069
X-11.288 Y-41.074
X-10.523 Y-41.211
X-10.496 Y-41.216
X-9.715 Y-41.381
X-9.688 Y-41.387
X-8.895 Y-41.58
X-8.869 Y-41.587
X-8.07 Y-41.806
X-8.044 Y-41.814
X-7.245 Y-42.059
X-7.218 Y-42.067
X-6.429 Y-42.337
X-6.401 Y-42.347
X-5.628 Y-42.64
X-5.598 Y-42.652
X-4.851 Y-42.967
X-4.818 Y-42.981
X-4.105 Y-43.315
X-4.069 Y-43.334
X-3.4 Y-43.685
X-3.369 Y-43.702
X-3.054 Y-43.884
X-3.032 Y-43.897
X-2.731 Y-44.082
X-2.707 Y-44.097
X-2.421 Y-44.286
X-2.395 Y-44.303
X-2.126 Y-44.495
X-2.098 Y-44.515
X-1.846 Y-44.71
X-1.816 Y-44.734
X-1.582 Y-44.931
X-1.55 Y-44.959
X-1.335 Y-45.158
X-1.301 Y-45.192
X-1.106 Y-45.393
X-1.07 Y-45.433
X-0.896 Y-45.635
X-0.858 Y-45.683
X-0.706 Y-45.887
X-0.667 Y-45.944
X-0.538 Y-46.149
X-0.499 Y-46.216
X-0.392 Y-46.422
X-0.357 Y-46.499
X-0.274 Y-46.706
X-0.243 Y-46.793
X-0.183 Y-47.001
X-0.161 Y-47.097
X-0.125 Y-47.305
X-0.114 Y-47.406
X-0.102 Y-47.615
X-0.101 Y-47.703
S5000
X-0.102 Y-47.719 Z-0.301 F333.3
X-0.114 Y-47.927 Z-0.308
X-0.125 Y-48.029 Z-0.311
X-0.161 Y-48.237 Z-0.319
X-0.183 Y-48.333 Z-0.322
X-0.243 Y-48.54 Z-0.33
X-0.274 Y-48.627 Z-0.333
X-0.357 Y-48.834 Z-0.341
X-0.393 Y-48.911 Z-0.344
X-0.499 Y-49.118 Z-0.352
X-0.538 Y-49.184 Z-0.355
X-0.667 Y-49.389 Z-0.363
X-0.706 Y-49.446 Z-0.365
X-0.858 Y-49.65 Z-0.374
X-0.896 Y-49.698 Z-0.376
X-1.07 Y-49.9 Z-0.386
X-1.107 Y-49.941 Z-0.388
X-1.301 Y-50.142 Z-0.397
X-1.335 Y-50.175 Z-0.399
X-1.55 Y-50.374 Z-0.409
X-1.582 Y-50.403 Z-0.411
X-1.816 Y-50.599 Z-0.421
X-1.846 Y-50.624 Z-0.423
X-2.098 Y-50.818 Z-0.434
X-2.126 Y-50.838 Z-0.435
X-2.395 Y-51.03 Z-0.447
X-2.421 Y-51.048 Z-0.448
X-2.707 Y-51.236 Z-0.46
X-2.731 Y-51.251 Z-0.461
X-3.032 Y-51.436 Z-0.473
X-3.054 Y-51.45 Z-0.474
X-3.369 Y-51.631 Z-0.487
X-3.4 Y-51.648 Z-0.488
X-4.069 Y-52 Z-0.514
X-4.105 Y-52.018 Z-0.516
X-4.818 Y-52.352 Z-0.543
X-4.851 Y-52.366 Z-0.544
X-5.598 Y-52.681 Z-0.573
X-5.628 Y-52.693 Z-0.574
X-6.327 Y-52.958 Z-0.6
S8000
X-6.401 Y-52.986 F1000
X-6.429 Y-52.996
X-7.219 Y-53.266
X-7.245 Y-53.275
X-8.044 Y-53.52
X-8.07 Y-53.527
X-8.869 Y-53.747
X-8.895 Y-53.753
X-9.688 Y-53.946
X-9.715 Y-53.952
X-10.496 Y-54.117
X-10.523 Y-54.122
X-11.287 Y-54.26
X-11.315 Y-54.264
X-12.06 Y-54.374
X-12.088 Y-54.378
X-12.811 Y-54.46
X-12.84 Y-54.463
X-13.541 Y-54.52
X-13.57 Y-54.522
X-14.252 Y-54.555
X-14.281
X-14.949 Y-54.566
X-14.975 Y-54.567
X-15.635 Y-54.559
X-15.657 Y-54.558
X-16.316 Y-54.534
X-16.334 Y-54.533
X-16.996 Y-54.495
X-17.016 Y-54.494
X-18.369 Y-54.387
X-18.386 Y-54.385
X-19.784 Y-54.247
X-19.795 Y-54.245
X-21.231 Y-54.085
X-21.24 Y-54.084
X-22.697 Y-53.907
X-22.705 Y-53.906
X-24.159 Y-53.716
X-24.169 Y-53.714
X-25.592 Y-53.513
X-25.603 Y-53.511
X-26.97 Y-53.3
X-26.983 Y-53.298
X-28.28 Y-53.078
X-28.29 Y-53.076
X-29.52 Y-52.853
X-29.523 Y-52.852
X-30.707 Y-52.634
X-31.884 Y-52.43
X-32.482 Y-52.337
X-33.1 Y-52.252
X-33.745 Y-52.176
X-34.421 Y-52.109
X-35.133 Y-52.053
X-35.881 Y-52.006
X-36.667 Y-51.97
X-37.487 Y-51.945
X-38.341 Y-51.929
X-39.223 Y-51.924
X-41.072 Y-51.94
X-42.995 Y-51.987
X-44.96 Y-52.06
X-46.93 Y-52.149
X-48.868 Y-52.247
X-50.741 Y-52.344
X-50.743
X-52.525 Y-52.433
X-52.531 Y-52.434
X-54.214 Y-52.508
X-54.223
X-55.816 Y-52.562
X-55.828
X-57.35 Y-52.593
X-57.364
X-58.842 Y-52.6
X-58.857
X-60.316 Y-52.584
X-60.329
X-61.789 Y-52.548
X-61.799 Y-52.547
X-63.269 Y-52.494
X-63.276
X-64.76 Y-52.429
X-64.763 Y-52.428
X-66.259 Y-52.356
X-67.762 Y-52.283
X-69.265 Y-52.213
X-70.761 Y-52.153
X-72.242 Y-52.106
X-73.703 Y-52.077
X-75.146 Y-52.067
G2 X-75.776 Y-51.803 I0.006 J0.9
G1 X-78.569 Y-49.01
G2 X-78.569 Y-46.323 I1.343 J1.343
G1 X-75.776 Y-43.53
G2 X-75.146 Y-43.267 I0.636 J-0.636
G1 X-73.703 Y-43.257
X-72.242 Y-43.227
X-70.761 Y-43.18
X-69.265 Y-43.12
X-67.762 Y-43.051
X-66.259 Y-42.977
X-64.763 Y-42.905
X-64.76
X-63.276 Y-42.84
X-63.269 Y-42.839
X-61.799 Y-42.786
X-61.789
X-60.329 Y-42.749
X-60.316
X-58.857 Y-42.733
X-58.842
X-57.364 Y-42.74
X-57.35
X-55.828 Y-42.771
X-55.816
X-54.223 Y-42.825
X-54.214 Y-42.826
X-52.531 Y-42.9
X-52.525
X-50.743 Y-42.989
X-50.741
X-48.868 Y-43.087
X-46.93 Y-43.184
X-44.96 Y-43.274
X-42.995 Y-43.346
X-41.072 Y-43.394
X-39.223 Y-43.41
X-38.341 Y-43.404
X-37.487 Y-43.389
X-36.667 Y-43.363
X-35.881 Y-43.327
X-35.133 Y-43.281
X-34.421 Y-43.224
X-33.745 Y-43.157
X-33.1 Y-43.081
X-32.482 Y-42.996
X-31.884 Y-42.904
X-30.707 Y-42.7
X-29.523 Y-42.481
X-29.52 Y-42.48
X-28.29 Y-42.257
X-28.28 Y-42.255
X-26.983 Y-42.036
X-26.97 Y-42.034
X-25.603 Y-41.822
X-25.592 Y-41.82
X-24.169 Y-41.619
X-24.159 Y-41.618
X-22.705 Y-41.428
X-22.697 Y-41.427
X-21.24 Y-41.25
X-21.231 Y-41.249
X-19.795 Y-41.088
X-19.784 Y-41.087
X-18.386 Y-40.948
X-18.369 Y-40.947
X-17.016 Y-40.84
X-16.996 Y-40.838
X-16.334 Y-40.8
X-16.316
X-15.657 Y-40.775
X-15.635
X-14.975 Y-40.767
X-14.949
X-14.281 Y-40.778
X-14.252 Y-40.779
X-13.57 Y-40.811
X-13.541 Y-40.813
X-12.84 Y-40.87
X-12.811 Y-40.873
X-12.088 Y-40.956
X-12.059 Y-40.959
X-11.315 Y-41.069
X-11.288 Y-41.074
X-10.523 Y-41.211
X-10.496 Y-41.216
X-9.715 Y-41.381
X-9.688 Y-41.387
X-8.895 Y-41.58
X-8.869 Y-41.587
X-8.07 Y-41.806
X-8.044 Y-41.814
X-7.245 Y-42.059
X-7.218 Y-42.067
X-6.429 Y-42.337
X-6.401 Y-42.347
X-5.628 Y-42.64
X-5.598 Y-42.652
X-4.851 Y-42.967
X-4.818 Y-42.981
X-4.105 Y-43.315
X-4.069 Y-43.334
X-3.4 Y-43.685
X-3.369 Y-43.702
X-3.054 Y-43.884
X-3.032 Y-43.897
X-2.731 Y-44.082
X-2.707 Y-44.097
X-2.421 Y-44.286
X-2.395 Y-44.303
X-2.126 Y-44.495
X-2.098 Y-44.515
X-1.846 Y-44.71
X-1.816 Y-44.734
X-1.582 Y-44.931
X-1.55 Y-44.959
X-1.335 Y-45.158
X-1.301 Y-45.192
X-1.106 Y-45.393
X-1.07 Y-45.433
X-0.896 Y-45.635
X-0.858 Y-45.683
X-0.706 Y-45.887
X-0.667 Y-45.944
X-0.538 Y-46.149
X-0.499 Y-46.216
X-0.392 Y-46.422
X-0.357 Y-46.499
X-0.274 Y-46.706
X-0.243 Y-46.793
X-0.183 Y-47.001
X-0.161 Y-47.097
X-0.125 Y-47.305
X-0.114 Y-47.406
X-0.102 Y-47.615
Y-47.719
X-0.114 Y-47.927
X-0.125 Y-48.029
X-0.161 Y-48.237
X-0.183 Y-48.333
X-0.243 Y-48.54
X-0.274 Y-48.627
X-0.357 Y-48.834
X-0.393 Y-48.911
X-0.499 Y-49.118
X-0.538 Y-49.184
X-0.667 Y-49.389
X-0.706 Y-49.446
X-0.858 Y-49.65
X-0.896 Y-49.698
X-1.07 Y-49.9
X-1.107 Y-49.941
X-1.301 Y-50.142
X-1.335 Y-50.175
X-1.55 Y-50.374
X-1.582 Y-50.403
X-1.816 Y-50.599
X-1.846 Y-50.624
X-2.098 Y-50.818
X-2.126 Y-50.838
X-2.395 Y-51.03
X-2.421 Y-51.048
X-2.707 Y-51.236
X-2.731 Y-51.251
X-3.032 Y-51.436
X-3.054 Y-51.45
X-3.369 Y-51.631
X-3.4 Y-51.648
X-4.069 Y-52
X-4.105 Y-52.018
X-4.818 Y-52.352
X-4.851 Y-52.366
X-5.598 Y-52.681
X-5.628 Y-52.693
X-6.327 Y-52.958
S5000
X-6.401 Y-52.986 Z-0.603 F333.3
X-6.429 Y-52.996 Z-0.604
X-7.219 Y-53.266 Z-0.633
X-7.245 Y-53.275 Z-0.634
X-8.044 Y-53.52 Z-0.663
X-8.07 Y-53.527 Z-0.664
X-8.869 Y-53.747 Z-0.693
X-8.895 Y-53.753 Z-0.694
X-9.688 Y-53.946 Z-0.722
X-9.715 Y-53.952 Z-0.723
X-10.496 Y-54.117 Z-0.751
X-10.523 Y-54.122 Z-0.752
X-11.287 Y-54.26 Z-0.779
X-11.315 Y-54.264 Z-0.78
X-12.06 Y-54.374 Z-0.807
X-12.088 Y-54.378 Z-0.808
X-12.811 Y-54.46 Z-0.833
X-12.84 Y-54.463 Z-0.834
X-13.541 Y-54.52 Z-0.859
X-13.57 Y-54.522 Z-0.86
X-14.252 Y-54.555 Z-0.883
X-14.281 Z-0.884
X-14.726 Y-54.563 Z-0.9
S8000
X-14.949 Y-54.566 F1000
X-14.975 Y-54.567
X-15.635 Y-54.559
X-15.657 Y-54.558
X-16.316 Y-54.534
X-16.334 Y-54.533
X-16.996 Y-54.495
X-17.016 Y-54.494
X-18.369 Y-54.387
X-18.386 Y-54.385
X-19.784 Y-54.247
X-19.795 Y-54.245
X-21.231 Y-54.085
X-21.24 Y-54.084
X-22.697 Y-53.907
X-22.705 Y-53.906
X-24.159 Y-53.716
X-24.169 Y-53.714
X-25.592 Y-53.513
X-25.603 Y-53.511
X-26.97 Y-53.3
X-26.983 Y-53.298
X-28.28 Y-53.078
X-28.29 Y-53.076
X-29.52 Y-52.853
X-29.523 Y-52.852
X-30.707 Y-52.634
X-31.884 Y-52.43
X-32.482 Y-52.337
X-33.1 Y-52.252
X-33.745 Y-52.176
X-34.421 Y-52.109
X-35.133 Y-52.053
X-35.881 Y-52.006
X-36.667 Y-51.97
X-37.487 Y-51.945
X-38.341 Y-51.929
X-39.223 Y-51.924
X-41.072 Y-51.94
X-42.995 Y-51.987
X-44.96 Y-52.06
X-46.93 Y-52.149
X-48.868 Y-52.247
X-50.741 Y-52.344
X-50.743
X-52.525 Y-52.433
X-52.531 Y-52.434
X-54.214 Y-52.508
X-54.223
X-55.816 Y-52.562
X-55.828
X-57.35 Y-52.593
X-57.364
X-58.842 Y-52.6
X-58.857
X-60.316 Y-52.584
X-60.329
X-61.789 Y-52.548
X-61.799 Y-52.547
X-63.269 Y-52.494
X-63.276
X-64.76 Y-52.429
X-64.763 Y-52.428
X-66.259 Y-52.356
X-67.762 Y-52.283
X-69.265 Y-52.213
X-70.761 Y-52.153
X-72.242 Y-52.106
X-73.703 Y-52.077
X-75.146 Y-52.067
G2 X-75.776 Y-51.803 I0.006 J0.9
G1 X-78.569 Y-49.01
G2 X-78.569 Y-46.323 I1.343 J1.343
G1 X-75.776 Y-43.53
G2 X-75.146 Y-43.267 I0.636 J-0.636
G1 X-73.703 Y-43.257
X-72.242 Y-43.227
X-70.761 Y-43.18
X-69.265 Y-43.12
X-67.762 Y-43.051
X-66.259 Y-42.977
X-64.763 Y-42.905
X-64.76
X-63.276 Y-42.84
X-63.269 Y-42.839
X-61.799 Y-42.786
X-61.789
X-60.329 Y-42.749
X-60.316
X-58.857 Y-42.733
X-58.842
X-57.364 Y-42.74
X-57.35
X-55.828 Y-42.771
X-55.816
X-54.223 Y-42.825
X-54.214 Y-42.826
X-52.531 Y-42.9
X-52.525
X-50.743 Y-42.989
X-50.741
X-48.868 Y-43.087
X-46.93 Y-43.184
X-44.96 Y-43.274
X-42.995 Y-43.346
X-41.072 Y-43.394
X-39.223 Y-43.41
X-38.341 Y-43.404
X-37.487 Y-43.389
X-36.667 Y-43.363
X-35.881 Y-43.327
X-35.133 Y-43.281
X-34.421 Y-43.224
X-33.745 Y-43.157
X-33.1 Y-43.081
X-32.482 Y-42.996
X-31.884 Y-42.904
X-30.707 Y-42.7
X-29.523 Y-42.481
X-29.52 Y-42.48
X-28.29 Y-42.257
X-28.28 Y-42.255
X-26.983 Y-42.036
X-26.97 Y-42.034
X-25.603 Y-41.822
X-25.592 Y-41.82
X-24.169 Y-41.619
X-24.159 Y-41.618
X-22.705 Y-41.428
X-22.697 Y-41.427
X-21.24 Y-41.25
X-21.231 Y-41.249
X-19.795 Y-41.088
X-19.784 Y-41.087
X-18.386 Y-40.948
X-18.369 Y-40.947
X-17.016 Y-40.84
X-16.996 Y-40.838
X-16.334 Y-40.8
X-16.316
X-15.657 Y-40.775
X-15.635
X-14.975 Y-40.767
X-14.949
X-14.281 Y-40.778
X-14.252 Y-40.779
X-13.57 Y-40.811
X-13.541 Y-40.813
X-12.84 Y-40.87
X-12.811 Y-40.873
X-12.088 Y-40.956
X-12.059 Y-40.959
X-11.315 Y-41.069
X-11.288 Y-41.074
X-10.523 Y-41.211
X-10.496 Y-41.216
X-9.715 Y-41.381
X-9.688 Y-41.387
X-8.895 Y-41.58
X-8.869 Y-41.587
X-8.07 Y-41.806
X-8.044 Y-41.814
X-7.245 Y-42.059
X-7.218 Y-42.067
X-6.429 Y-42.337
X-6.401 Y-42.347
X-5.628 Y-42.64
X-5.598 Y-42.652
X-4.851 Y-42.967
X-4.818 Y-42.981
X-4.105 Y-43.315
X-4.069 Y-43.334
X-3.4 Y-43.685
X-3.369 Y-43.702
X-3.054 Y-43.884
X-3.032 Y-43.897
X-2.731 Y-44.082
X-2.707 Y-44.097
X-2.421 Y-44.286
X-2.395 Y-44.303
X-2.126 Y-44.495
X-2.098 Y-44.515
X-1.846 Y-44.71
X-1.816 Y-44.734
X-1.582 Y-44.931
X-1.55 Y-44.959
X-1.335 Y-45.158
