(VisaPick Ausschneiden_3_75mm)
(Bearbeiten)
(  Hersteller: ChinaCnc)
(  model: 3040T)
(  description: Generic 3-axis)
(T5  D=3.175 CR=0 - ZMIN=-3.2 - Schaftfraser)
G90 G94
G17
G21
G28 G91 Z0
G90

(2D-Kontur7)
T5
S8000 M3
G54
G0 X-17.816 Y-83.053
Z15
Z5
G1 Z2.5 F333.3
S5000
G3 X-18.184 Y-82.204 Z2.449 I-0.184 J0.425
X-17.816 Y-83.053 Z2.399 I0.184 J-0.425
X-18.184 Y-82.204 Z2.348 I-0.184 J0.425
X-17.816 Y-83.053 Z2.297 I0.184 J-0.425
X-18.184 Y-82.204 Z2.246 I-0.184 J0.425
X-17.816 Y-83.053 Z2.196 I0.184 J-0.425
X-18.184 Y-82.204 Z2.145 I-0.184 J0.425
X-17.816 Y-83.053 Z2.094 I0.184 J-0.425
X-18.184 Y-82.204 Z2.043 I-0.184 J0.425
X-17.816 Y-83.053 Z1.993 I0.184 J-0.425
X-18.184 Y-82.204 Z1.942 I-0.184 J0.425
X-17.816 Y-83.053 Z1.891 I0.184 J-0.425
X-18.184 Y-82.204 Z1.84 I-0.184 J0.425
X-17.816 Y-83.053 Z1.79 I0.184 J-0.425
X-18.184 Y-82.204 Z1.739 I-0.184 J0.425
X-17.816 Y-83.053 Z1.688 I0.184 J-0.425
X-18.184 Y-82.204 Z1.637 I-0.184 J0.425
X-17.816 Y-83.053 Z1.587 I0.184 J-0.425
X-18.184 Y-82.204 Z1.536 I-0.184 J0.425
X-17.816 Y-83.053 Z1.485 I0.184 J-0.425
X-18.184 Y-82.204 Z1.434 I-0.184 J0.425
X-17.816 Y-83.053 Z1.384 I0.184 J-0.425
X-18.184 Y-82.204 Z1.333 I-0.184 J0.425
X-17.816 Y-83.053 Z1.282 I0.184 J-0.425
X-18.184 Y-82.204 Z1.231 I-0.184 J0.425
X-17.816 Y-83.053 Z1.181 I0.184 J-0.425
X-18.184 Y-82.204 Z1.13 I-0.184 J0.425
X-17.816 Y-83.053 Z1.079 I0.184 J-0.425
X-18.184 Y-82.204 Z1.028 I-0.184 J0.425
X-17.816 Y-83.053 Z0.978 I0.184 J-0.425
X-18.184 Y-82.204 Z0.927 I-0.184 J0.425
X-17.816 Y-83.053 Z0.876 I0.184 J-0.425
X-18.184 Y-82.204 Z0.825 I-0.184 J0.425
X-17.816 Y-83.053 Z0.775 I0.184 J-0.425
X-18.184 Y-82.204 Z0.724 I-0.184 J0.425
X-17.816 Y-83.053 Z0.673 I0.184 J-0.425
X-18.184 Y-82.204 Z0.622 I-0.184 J0.425
X-17.816 Y-83.053 Z0.572 I0.184 J-0.425
X-18.184 Y-82.204 Z0.521 I-0.184 J0.425
X-17.816 Y-83.053 Z0.47 I0.184 J-0.425
X-18.184 Y-82.204 Z0.419 I-0.184 J0.425
X-17.816 Y-83.053 Z0.369 I0.184 J-0.425
X-18.184 Y-82.204 Z0.318 I-0.184 J0.425
X-17.816 Y-83.053 Z0.267 I0.184 J-0.425
X-18.184 Y-82.204 Z0.217 I-0.184 J0.425
X-17.816 Y-83.053 Z0.166 I0.184 J-0.425
X-18.184 Y-82.204 Z0.115 I-0.184 J0.425
X-17.816 Y-83.053 Z0.064 I0.184 J-0.425
X-18.184 Y-82.204 Z0.014 I-0.184 J0.425
X-17.816 Y-83.053 Z-0.037 I0.184 J-0.425
X-18.184 Y-82.204 Z-0.088 I-0.184 J0.425
X-17.816 Y-83.053 Z-0.139 I0.184 J-0.425
X-18.184 Y-82.204 Z-0.189 I-0.184 J0.425
X-17.816 Y-83.053 Z-0.24 I0.184 J-0.425
X-18.184 Y-82.204 Z-0.291 I-0.184 J0.425
X-17.816 Y-83.053 Z-0.342 I0.184 J-0.425
X-18.184 Y-82.204 Z-0.392 I-0.184 J0.425
X-17.816 Y-83.053 Z-0.443 I0.184 J-0.425
X-18.184 Y-82.204 Z-0.494 I-0.184 J0.425
X-18.327 Y-82.301 Z-0.5 I0.184 J-0.425
S8000
X-17.673 Y-82.956 I0.327 J-0.327 F1000
X-18.327 Y-82.301 I-0.327 J0.327
S5000
X-17.673 Y-82.956 Z-0.551 I0.327 J-0.327 F333.3
X-18.327 Y-82.301 Z-0.601 I-0.327 J0.327
X-17.673 Y-82.956 Z-0.652 I0.327 J-0.327
X-18.327 Y-82.301 Z-0.703 I-0.327 J0.327
X-17.673 Y-82.956 Z-0.754 I0.327 J-0.327
X-18.327 Y-82.301 Z-0.804 I-0.327 J0.327
X-17.673 Y-82.956 Z-0.855 I0.327 J-0.327
X-18.327 Y-82.301 Z-0.906 I-0.327 J0.327
X-17.673 Y-82.956 Z-0.957 I0.327 J-0.327
X-18.148 Y-82.19 Z-1 I-0.327 J0.327
S8000
X-17.852 Y-83.067 I0.148 J-0.438 F1000
X-18.148 Y-82.19 I-0.148 J0.438
S5000
X-17.852 Y-83.067 Z-1.051 I0.148 J-0.438 F333.3
X-18.148 Y-82.19 Z-1.101 I-0.148 J0.438
X-17.852 Y-83.067 Z-1.152 I0.148 J-0.438
X-18.148 Y-82.19 Z-1.203 I-0.148 J0.438
X-17.852 Y-83.067 Z-1.254 I0.148 J-0.438
X-18.148 Y-82.19 Z-1.304 I-0.148 J0.438
X-17.852 Y-83.067 Z-1.355 I0.148 J-0.438
X-18.148 Y-82.19 Z-1.406 I-0.148 J0.438
X-17.852 Y-83.067 Z-1.457 I0.148 J-0.438
X-17.937 Y-82.17 Z-1.5 I-0.148 J0.438
S8000
X-18.063 Y-83.087 I-0.063 J-0.458 F1000
X-17.937 Y-82.17 I0.063 J0.458
S5000
X-18.063 Y-83.087 Z-1.551 I-0.063 J-0.458 F333.3
X-17.937 Y-82.17 Z-1.601 I0.063 J0.458
X-18.063 Y-83.087 Z-1.652 I-0.063 J-0.458
X-17.937 Y-82.17 Z-1.703 I0.063 J0.458
X-18.063 Y-83.087 Z-1.754 I-0.063 J-0.458
X-17.937 Y-82.17 Z-1.804 I0.063 J0.458
X-18.063 Y-83.087 Z-1.855 I-0.063 J-0.458
X-17.937 Y-82.17 Z-1.906 I0.063 J0.458
X-18.063 Y-83.087 Z-1.957 I-0.063 J-0.458
X-17.74 Y-82.246 Z-2 I0.063 J0.458
S8000
X-18.26 Y-83.011 I-0.26 J-0.383 F1000
X-17.74 Y-82.246 I0.26 J0.383
S5000
X-18.26 Y-83.011 Z-2.051 I-0.26 J-0.383 F333.3
X-17.74 Y-82.246 Z-2.101 I0.26 J0.383
X-18.26 Y-83.011 Z-2.152 I-0.26 J-0.383
X-17.74 Y-82.246 Z-2.203 I0.26 J0.383
X-18.26 Y-83.011 Z-2.254 I-0.26 J-0.383
X-17.74 Y-82.246 Z-2.304 I0.26 J0.383
X-18.26 Y-83.011 Z-2.355 I-0.26 J-0.383
X-17.74 Y-82.246 Z-2.406 I0.26 J0.383
X-18.26 Y-83.011 Z-2.457 I-0.26 J-0.383
X-17.597 Y-82.401 Z-2.5 I0.26 J0.383
S8000
X-18.403 Y-82.856 I-0.403 J-0.227 F1000
X-17.597 Y-82.401 I0.403 J0.227
S5000
X-18.403 Y-82.856 Z-2.551 I-0.403 J-0.227 F333.3
X-17.597 Y-82.401 Z-2.601 I0.403 J0.227
X-18.403 Y-82.856 Z-2.652 I-0.403 J-0.227
X-17.597 Y-82.401 Z-2.703 I0.403 J0.227
X-18.403 Y-82.856 Z-2.754 I-0.403 J-0.227
X-17.597 Y-82.401 Z-2.804 I0.403 J0.227
X-18.403 Y-82.856 Z-2.855 I-0.403 J-0.227
X-17.597 Y-82.401 Z-2.906 I0.403 J0.227
X-18.403 Y-82.856 Z-2.957 I-0.403 J-0.227
X-17.538 Y-82.604 Z-3 I0.403 J0.227
S8000
X-18.462 Y-82.653 I-0.462 J-0.024 F1000
X-17.538 Y-82.604 I0.462 J0.024
S5000
X-18.462 Y-82.653 Z-3.051 I-0.462 J-0.024 F333.3
X-17.538 Y-82.604 Z-3.101 I0.462 J0.024
X-18.462 Y-82.653 Z-3.152 I-0.462 J-0.024
X-17.541 Y-82.689 Z-3.2 I0.462 J0.024
S8000
X-18.459 Y-82.568 I-0.459 J0.061 F1000
X-17.541 Y-82.689 I0.459 J-0.061
G0 Z5
X-17.57 Y-103.123
G1 Z2.5 F333.3
S5000
G3 X-18.429 Y-103.467 Z2.449 I-0.429 J-0.172
X-17.57 Y-103.123 Z2.399 I0.429 J0.172
X-18.429 Y-103.467 Z2.348 I-0.429 J-0.172
X-17.57 Y-103.123 Z2.297 I0.429 J0.172
X-18.429 Y-103.467 Z2.246 I-0.429 J-0.172
X-17.57 Y-103.123 Z2.196 I0.429 J0.172
X-18.429 Y-103.467 Z2.145 I-0.429 J-0.172
X-17.57 Y-103.123 Z2.094 I0.429 J0.172
X-18.429 Y-103.467 Z2.043 I-0.429 J-0.172
X-17.57 Y-103.123 Z1.993 I0.429 J0.172
X-18.429 Y-103.467 Z1.942 I-0.429 J-0.172
X-17.57 Y-103.123 Z1.891 I0.429 J0.172
X-18.429 Y-103.467 Z1.84 I-0.429 J-0.172
X-17.57 Y-103.123 Z1.79 I0.429 J0.172
X-18.429 Y-103.467 Z1.739 I-0.429 J-0.172
X-17.57 Y-103.123 Z1.688 I0.429 J0.172
X-18.429 Y-103.467 Z1.637 I-0.429 J-0.172
X-17.57 Y-103.123 Z1.587 I0.429 J0.172
X-18.429 Y-103.467 Z1.536 I-0.429 J-0.172
X-17.57 Y-103.123 Z1.485 I0.429 J0.172
X-18.429 Y-103.467 Z1.435 I-0.429 J-0.172
X-17.57 Y-103.123 Z1.384 I0.429 J0.172
X-18.429 Y-103.467 Z1.333 I-0.429 J-0.172
X-17.57 Y-103.123 Z1.282 I0.429 J0.172
X-18.429 Y-103.467 Z1.232 I-0.429 J-0.172
X-17.57 Y-103.123 Z1.181 I0.429 J0.172
X-18.429 Y-103.467 Z1.13 I-0.429 J-0.172
X-17.57 Y-103.123 Z1.079 I0.429 J0.172
X-18.429 Y-103.467 Z1.029 I-0.429 J-0.172
X-17.57 Y-103.123 Z0.978 I0.429 J0.172
X-18.429 Y-103.467 Z0.927 I-0.429 J-0.172
X-17.57 Y-103.123 Z0.876 I0.429 J0.172
X-18.429 Y-103.467 Z0.826 I-0.429 J-0.172
X-17.57 Y-103.123 Z0.775 I0.429 J0.172
X-18.429 Y-103.467 Z0.724 I-0.429 J-0.172
X-17.57 Y-103.123 Z0.673 I0.429 J0.172
X-18.429 Y-103.467 Z0.623 I-0.429 J-0.172
X-17.57 Y-103.123 Z0.572 I0.429 J0.172
X-18.429 Y-103.467 Z0.521 I-0.429 J-0.172
X-17.57 Y-103.123 Z0.471 I0.429 J0.172
X-18.429 Y-103.467 Z0.42 I-0.429 J-0.172
X-17.57 Y-103.123 Z0.369 I0.429 J0.172
X-18.429 Y-103.467 Z0.318 I-0.429 J-0.172
X-17.57 Y-103.123 Z0.268 I0.429 J0.172
X-18.429 Y-103.467 Z0.217 I-0.429 J-0.172
X-17.57 Y-103.123 Z0.166 I0.429 J0.172
X-18.429 Y-103.467 Z0.115 I-0.429 J-0.172
X-17.57 Y-103.123 Z0.065 I0.429 J0.172
X-18.429 Y-103.467 Z0.014 I-0.429 J-0.172
X-17.57 Y-103.123 Z-0.037 I0.429 J0.172
X-18.429 Y-103.467 Z-0.088 I-0.429 J-0.172
X-17.57 Y-103.123 Z-0.138 I0.429 J0.172
X-18.429 Y-103.467 Z-0.189 I-0.429 J-0.172
X-17.57 Y-103.123 Z-0.24 I0.429 J0.172
X-18.429 Y-103.467 Z-0.291 I-0.429 J-0.172
X-17.57 Y-103.123 Z-0.341 I0.429 J0.172
X-18.429 Y-103.467 Z-0.392 I-0.429 J-0.172
X-17.57 Y-103.123 Z-0.443 I0.429 J0.172
X-18.429 Y-103.467 Z-0.493 I-0.429 J-0.172
X-18.327 Y-103.622 Z-0.5 I0.429 J0.172
S8000
X-17.673 Y-102.968 I0.327 J0.327 F1000
X-18.327 Y-103.622 I-0.327 J-0.327
S5000
X-17.673 Y-102.968 Z-0.551 I0.327 J0.327 F333.3
X-18.327 Y-103.622 Z-0.601 I-0.327 J-0.327
X-17.673 Y-102.968 Z-0.652 I0.327 J0.327
X-18.327 Y-103.622 Z-0.703 I-0.327 J-0.327
X-17.673 Y-102.968 Z-0.754 I0.327 J0.327
X-18.327 Y-103.622 Z-0.804 I-0.327 J-0.327
X-17.673 Y-102.968 Z-0.855 I0.327 J0.327
X-18.327 Y-103.622 Z-0.906 I-0.327 J-0.327
X-17.673 Y-102.968 Z-0.957 I0.327 J0.327
X-18.437 Y-103.445 Z-1 I-0.327 J-0.327
S8000
X-17.562 Y-103.145 I0.438 J0.15 F1000
X-18.437 Y-103.445 I-0.438 J-0.15
S5000
X-17.562 Y-103.145 Z-1.051 I0.438 J0.15 F333.3
X-18.437 Y-103.445 Z-1.101 I-0.438 J-0.15
X-17.562 Y-103.145 Z-1.152 I0.438 J0.15
X-18.437 Y-103.445 Z-1.203 I-0.438 J-0.15
X-17.562 Y-103.145 Z-1.254 I0.438 J0.15
X-18.437 Y-103.445 Z-1.304 I-0.438 J-0.15
X-17.562 Y-103.145 Z-1.355 I0.438 J0.15
X-18.437 Y-103.445 Z-1.406 I-0.438 J-0.15
X-17.562 Y-103.145 Z-1.457 I0.438 J0.15
X-18.458 Y-103.237 Z-1.5 I-0.438 J-0.15
S8000
X-17.541 Y-103.353 I0.459 J-0.058 F1000
X-18.458 Y-103.237 I-0.459 J0.058
S5000
X-17.541 Y-103.353 Z-1.551 I0.459 J-0.058 F333.3
X-18.458 Y-103.237 Z-1.601 I-0.459 J0.058
X-17.541 Y-103.353 Z-1.652 I0.459 J-0.058
X-18.458 Y-103.237 Z-1.703 I-0.459 J0.058
X-17.541 Y-103.353 Z-1.754 I0.459 J-0.058
X-18.458 Y-103.237 Z-1.804 I-0.459 J0.058
X-17.541 Y-103.353 Z-1.855 I0.459 J-0.058
X-18.458 Y-103.237 Z-1.906 I-0.459 J0.058
X-17.541 Y-103.353 Z-1.957 I0.459 J-0.058
X-18.386 Y-103.041 Z-2 I-0.459 J0.058
S8000
X-17.613 Y-103.55 I0.386 J-0.254 F1000
X-18.386 Y-103.041 I-0.386 J0.254
S5000
X-17.613 Y-103.55 Z-2.051 I0.386 J-0.254 F333.3
X-18.386 Y-103.041 Z-2.101 I-0.386 J0.254
X-17.613 Y-103.55 Z-2.152 I0.386 J-0.254
X-18.386 Y-103.041 Z-2.203 I-0.386 J0.254
X-17.613 Y-103.55 Z-2.254 I0.386 J-0.254
X-18.386 Y-103.041 Z-2.304 I-0.386 J0.254
X-17.613 Y-103.55 Z-2.355 I0.386 J-0.254
X-18.386 Y-103.041 Z-2.406 I-0.386 J0.254
X-17.613 Y-103.55 Z-2.457 I0.386 J-0.254
X-18.234 Y-102.897 Z-2.5 I-0.386 J0.254
S8000
X-17.765 Y-103.694 I0.235 J-0.398 F1000
X-18.234 Y-102.897 I-0.235 J0.398
S5000
X-17.765 Y-103.694 Z-2.551 I0.235 J-0.398 F333.3
X-18.234 Y-102.897 Z-2.601 I-0.235 J0.398
X-17.765 Y-103.694 Z-2.652 I0.235 J-0.398
X-18.234 Y-102.897 Z-2.703 I-0.235 J0.398
X-17.765 Y-103.694 Z-2.754 I0.235 J-0.398
X-18.234 Y-102.897 Z-2.804 I-0.235 J0.398
X-17.765 Y-103.694 Z-2.855 I0.235 J-0.398
X-18.234 Y-102.897 Z-2.906 I-0.235 J0.398
X-17.765 Y-103.694 Z-2.957 I0.235 J-0.398
X-18.035 Y-102.834 Z-3 I-0.235 J0.398
S8000
X-17.964 Y-103.756 I0.035 J-0.461 F1000
X-18.035 Y-102.834 I-0.035 J0.461
S5000
X-17.964 Y-103.756 Z-3.051 I0.035 J-0.461 F333.3
X-18.035 Y-102.834 Z-3.101 I-0.035 J0.461
X-17.964 Y-103.756 Z-3.152 I0.035 J-0.461
X-17.951 Y-102.835 Z-3.2 I-0.035 J0.461
S8000
X-18.049 Y-103.755 I-0.049 J-0.46 F1000
X-17.951 Y-102.835 I0.049 J0.46
G0 Z5
X-26.026 Y-145.629
G1 Z2.5 F333.3
S5000
Y-124.057 Z1.747
X-31.851 Z1.543
Y-148.943 Z0.674
X-26.026 Z0.471
Y-124.057 Z-0.398
X-28.938 Z-0.5
S8000
X-31.851 F1000
Y-148.943
X-26.026
Y-124.057
X-28.938
S5000
X-31.851 Z-0.602 F333.3
Y-135.462 Z-1
S8000
Y-148.943 F1000
X-26.026
Y-124.057
X-31.851
Y-135.462
S5000
Y-148.943 Z-1.471 F333.3
X-31.014 Z-1.5
S8000
X-26.026 F1000
Y-124.057
X-31.851
Y-148.943
X-31.014
S5000
X-26.026 Z-1.674 F333.3
Y-139.614 Z-2
S8000
Y-124.057 F1000
X-31.851
Y-148.943
X-26.026
Y-139.614
S5000
Y-125.295 Z-2.5 F333.3
S8000
Y-124.057 F1000
X-31.851
Y-148.943
X-26.026
Y-125.295
S5000
Y-124.057 Z-2.543 F333.3
X-31.851 Z-2.747
Y-131.311 Z-3
S8000
Y-148.943 F1000
X-26.026
Y-125.295
Y-124.057
X-31.851
Y-131.311
S5000
Y-137.038 Z-3.2 F333.3
S8000
Y-148.943 F1000
X-26.026
Y-124.057
X-31.851
Y-131.311
Y-137.038
G0 Z5
X-41.782 Y-134.216
G1 Z2.5 F333.3
S5000
Y-141.913 Z2.231
X-41.457 Z2.22
Y-131.087 Z1.842
X-41.782 Z1.831
Y-141.913 Z1.453
X-41.457 Z1.441
Y-131.087 Z1.063
X-41.782 Z1.052
Y-141.913 Z0.674
X-41.457 Z0.662
Y-131.087 Z0.284
X-41.782 Z0.273
Y-141.913 Z-0.105
X-41.457 Z-0.116
Y-131.087 Z-0.494
X-41.62 Z-0.5
S8000
X-41.782 F1000
Y-141.913
X-41.457
Y-131.087
X-41.62
S5000
X-41.782 Z-0.506 F333.3
Y-141.913 Z-0.884
X-41.457 Z-0.895
Y-138.907 Z-1
S8000
Y-131.087 F1000
X-41.782
Y-141.913
X-41.457
Y-138.907
S5000
Y-131.087 Z-1.273 F333.3
X-41.782 Z-1.284
Y-137.261 Z-1.5
S8000
Y-141.913 F1000
X-41.457
Y-131.087
X-41.782
Y-137.261
S5000
Y-141.913 Z-1.662 F333.3
X-41.457 Z-1.674
Y-132.571 Z-2
S8000
Y-131.087 F1000
X-41.782
Y-137.261
Y-141.913
X-41.457
Y-132.571
S5000
Y-131.087 Z-2.052 F333.3
X-41.782 Z-2.063
Y-141.913 Z-2.441
X-41.457 Z-2.453
Y-140.552 Z-2.5
S8000
Y-132.571 F1000
Y-131.087
X-41.782
Y-141.913
X-41.457
Y-140.552
S5000
Y-131.087 Z-2.831 F333.3
X-41.782 Z-2.842
Y-135.616 Z-3
S8000
Y-141.913 F1000
X-41.457
Y-131.087
X-41.782
Y-135.616
S5000
Y-141.343 Z-3.2 F333.3
S8000
Y-141.913 F1000
X-41.457
Y-131.087
X-41.782
Y-141.343
G0 Z5
X-66.095 Y-138.784
G1 Z2.5 F333.3
S5000
Y-131.087 Z2.231
X-66.42 Z2.22
Y-141.913 Z1.842
X-66.095 Z1.831
Y-131.087 Z1.453
X-66.42 Z1.441
Y-141.913 Z1.063
X-66.095 Z1.052
Y-131.087 Z0.674
X-66.42 Z0.662
Y-141.913 Z0.284
X-66.095 Z0.273
Y-131.087 Z-0.105
X-66.42 Z-0.116
Y-141.913 Z-0.494
X-66.257 Z-0.5
S8000
X-66.095 F1000
Y-131.087
X-66.42
Y-141.913
X-66.257
S5000
X-66.095 Z-0.506 F333.3
Y-131.087 Z-0.884
X-66.42 Z-0.895
Y-134.093 Z-1
S8000
Y-141.913 F1000
X-66.095
Y-131.087
X-66.42
Y-134.093
S5000
Y-141.913 Z-1.273 F333.3
X-66.095 Z-1.284
Y-135.739 Z-1.5
S8000
Y-131.087 F1000
X-66.42
Y-141.913
X-66.095
Y-135.739
S5000
Y-131.087 Z-1.662 F333.3
X-66.42 Z-1.674
Y-140.429 Z-2
S8000
Y-141.913 F1000
X-66.095
Y-135.739
Y-131.087
X-66.42
Y-140.429
S5000
Y-141.913 Z-2.052 F333.3
X-66.095 Z-2.063
Y-131.087 Z-2.441
X-66.42 Z-2.453
Y-132.448 Z-2.5
S8000
Y-140.429 F1000
Y-141.913
X-66.095
Y-131.087
X-66.42
Y-132.448
S5000
Y-141.913 Z-2.831 F333.3
X-66.095 Z-2.842
Y-137.384 Z-3
S8000
Y-131.087 F1000
X-66.42
Y-141.913
X-66.095
Y-137.384
S5000
Y-131.657 Z-3.2 F333.3
S8000
Y-131.087 F1000
X-66.42
Y-141.913
X-66.095
Y-131.657
G0 Z5
X-81.851 Y-127.371
G1 Z2.5 F333.3
S5000
Y-148.943 Z1.747
X-76.026 Z1.543
Y-124.057 Z0.674
X-81.851 Z0.471
Y-148.943 Z-0.398
X-78.938 Z-0.5
S8000
X-76.026 F1000
Y-124.057
X-81.851
Y-148.943
X-78.938
S5000
X-76.026 Z-0.602 F333.3
Y-137.538 Z-1
S8000
Y-124.057 F1000
X-81.851
Y-148.943
X-76.026
Y-137.538
S5000
Y-124.057 Z-1.471 F333.3
X-76.863 Z-1.5
S8000
X-81.851 F1000
Y-148.943
X-76.026
Y-124.057
X-76.863
S5000
X-81.851 Z-1.674 F333.3
Y-133.386 Z-2
S8000
Y-148.943 F1000
X-76.026
Y-124.057
X-81.851
Y-133.386
S5000
Y-147.705 Z-2.5 F333.3
S8000
Y-148.943 F1000
X-76.026
Y-124.057
X-81.851
Y-147.705
S5000
Y-148.943 Z-2.543 F333.3
X-76.026 Z-2.747
Y-141.689 Z-3
S8000
Y-124.057 F1000
X-81.851
Y-147.705
Y-148.943
X-76.026
Y-141.689
S5000
Y-135.962 Z-3.2 F333.3
S8000
Y-124.057 F1000
X-81.851
Y-148.943
X-76.026
Y-141.689
Y-135.962
G0 Z5
X-91.782 Y-134.216
G1 Z2.5 F333.3
S5000
Y-141.913 Z2.231
X-91.457 Z2.22
Y-131.087 Z1.842
X-91.782 Z1.831
Y-141.913 Z1.453
X-91.457 Z1.441
Y-131.087 Z1.063
X-91.782 Z1.052
Y-141.913 Z0.674
X-91.457 Z0.662
Y-131.087 Z0.284
X-91.782 Z0.273
Y-141.913 Z-0.105
X-91.457 Z-0.116
Y-131.087 Z-0.494
X-91.62 Z-0.5
S8000
X-91.782 F1000
Y-141.913
X-91.457
Y-131.087
X-91.62
S5000
X-91.782 Z-0.506 F333.3
Y-141.913 Z-0.884
X-91.457 Z-0.895
Y-138.907 Z-1
S8000
Y-131.087 F1000
X-91.782
Y-141.913
X-91.457
Y-138.907
S5000
Y-131.087 Z-1.273 F333.3
X-91.782 Z-1.284
Y-137.261 Z-1.5
S8000
Y-141.913 F1000
X-91.457
Y-131.087
X-91.782
Y-137.261
S5000
Y-141.913 Z-1.662 F333.3
X-91.457 Z-1.674
Y-132.571 Z-2
S8000
Y-131.087 F1000
X-91.782
Y-137.261
Y-141.913
X-91.457
Y-132.571
S5000
Y-131.087 Z-2.052 F333.3
X-91.782 Z-2.063
Y-141.913 Z-2.441
X-91.457 Z-2.453
Y-140.552 Z-2.5
S8000
Y-132.571 F1000
Y-131.087
X-91.782
Y-141.913
X-91.457
Y-140.552
S5000
Y-131.087 Z-2.831 F333.3
X-91.782 Z-2.842
Y-135.616 Z-3
S8000
Y-141.913 F1000
X-91.457
Y-131.087
X-91.782
Y-135.616
S5000
Y-141.343 Z-3.2 F333.3
S8000
Y-141.913 F1000
X-91.457
Y-131.087
X-91.782
Y-141.343
G0 Z5
X-94.75 Y-92.939
G1 Z2.5 F333.3
S5000
G3 X-93.891 Y-92.596 Z2.449 I0.429 J0.172
X-94.75 Y-92.939 Z2.399 I-0.429 J-0.172
X-93.891 Y-92.596 Z2.348 I0.429 J0.172
X-94.75 Y-92.939 Z2.297 I-0.429 J-0.172
X-93.891 Y-92.596 Z2.246 I0.429 J0.172
X-94.75 Y-92.939 Z2.196 I-0.429 J-0.172
X-93.891 Y-92.596 Z2.145 I0.429 J0.172
X-94.75 Y-92.939 Z2.094 I-0.429 J-0.172
X-93.891 Y-92.596 Z2.043 I0.429 J0.172
X-94.75 Y-92.939 Z1.993 I-0.429 J-0.172
X-93.891 Y-92.596 Z1.942 I0.429 J0.172
X-94.75 Y-92.939 Z1.891 I-0.429 J-0.172
X-93.891 Y-92.596 Z1.84 I0.429 J0.172
X-94.75 Y-92.939 Z1.79 I-0.429 J-0.172
X-93.891 Y-92.596 Z1.739 I0.429 J0.172
X-94.75 Y-92.939 Z1.688 I-0.429 J-0.172
X-93.891 Y-92.596 Z1.637 I0.429 J0.172
X-94.75 Y-92.939 Z1.587 I-0.429 J-0.172
X-93.891 Y-92.596 Z1.536 I0.429 J0.172
X-94.75 Y-92.939 Z1.485 I-0.429 J-0.172
X-93.891 Y-92.596 Z1.435 I0.429 J0.172
X-94.75 Y-92.939 Z1.384 I-0.429 J-0.172
X-93.891 Y-92.596 Z1.333 I0.429 J0.172
X-94.75 Y-92.939 Z1.282 I-0.429 J-0.172
X-93.891 Y-92.596 Z1.232 I0.429 J0.172
X-94.75 Y-92.939 Z1.181 I-0.429 J-0.172
X-93.891 Y-92.596 Z1.13 I0.429 J0.172
X-94.75 Y-92.939 Z1.079 I-0.429 J-0.172
X-93.891 Y-92.596 Z1.029 I0.429 J0.172
X-94.75 Y-92.939 Z0.978 I-0.429 J-0.172
X-93.891 Y-92.596 Z0.927 I0.429 J0.172
X-94.75 Y-92.939 Z0.876 I-0.429 J-0.172
X-93.891 Y-92.596 Z0.826 I0.429 J0.172
X-94.75 Y-92.939 Z0.775 I-0.429 J-0.172
X-93.891 Y-92.596 Z0.724 I0.429 J0.172
X-94.75 Y-92.939 Z0.673 I-0.429 J-0.172
X-93.891 Y-92.596 Z0.623 I0.429 J0.172
X-94.75 Y-92.939 Z0.572 I-0.429 J-0.172
X-93.891 Y-92.596 Z0.521 I0.429 J0.172
X-94.75 Y-92.939 Z0.471 I-0.429 J-0.172
X-93.891 Y-92.596 Z0.42 I0.429 J0.172
X-94.75 Y-92.939 Z0.369 I-0.429 J-0.172
X-93.891 Y-92.596 Z0.318 I0.429 J0.172
X-94.75 Y-92.939 Z0.268 I-0.429 J-0.172
X-93.891 Y-92.596 Z0.217 I0.429 J0.172
X-94.75 Y-92.939 Z0.166 I-0.429 J-0.172
X-93.891 Y-92.596 Z0.115 I0.429 J0.172
X-94.75 Y-92.939 Z0.065 I-0.429 J-0.172
X-93.891 Y-92.596 Z0.014 I0.429 J0.172
X-94.75 Y-92.939 Z-0.037 I-0.429 J-0.172
X-93.891 Y-92.596 Z-0.088 I0.429 J0.172
X-94.75 Y-92.939 Z-0.138 I-0.429 J-0.172
X-93.891 Y-92.596 Z-0.189 I0.429 J0.172
X-94.75 Y-92.939 Z-0.24 I-0.429 J-0.172
X-93.891 Y-92.596 Z-0.291 I0.429 J0.172
X-94.75 Y-92.939 Z-0.341 I-0.429 J-0.172
X-93.891 Y-92.596 Z-0.392 I0.429 J0.172
X-94.75 Y-92.939 Z-0.443 I-0.429 J-0.172
X-93.891 Y-92.596 Z-0.493 I0.429 J0.172
X-93.993 Y-92.44 Z-0.5 I-0.429 J-0.172
S8000
X-94.648 Y-93.094 I-0.327 J-0.327 F1000
X-93.993 Y-92.44 I0.327 J0.327
S5000
X-94.648 Y-93.094 Z-0.551 I-0.327 J-0.327 F333.3
X-93.993 Y-92.44 Z-0.601 I0.327 J0.327
X-94.648 Y-93.094 Z-0.652 I-0.327 J-0.327
X-93.993 Y-92.44 Z-0.703 I0.327 J0.327
X-94.648 Y-93.094 Z-0.754 I-0.327 J-0.327
X-93.993 Y-92.44 Z-0.804 I0.327 J0.327
X-94.648 Y-93.094 Z-0.855 I-0.327 J-0.327
X-93.993 Y-92.44 Z-0.906 I0.327 J0.327
X-94.648 Y-93.094 Z-0.957 I-0.327 J-0.327
X-93.883 Y-92.618 Z-1 I0.327 J0.327
S8000
X-94.758 Y-92.917 I-0.438 J-0.15 F1000
X-93.883 Y-92.618 I0.438 J0.15
S5000
X-94.758 Y-92.917 Z-1.051 I-0.438 J-0.15 F333.3
X-93.883 Y-92.618 Z-1.101 I0.438 J0.15
X-94.758 Y-92.917 Z-1.152 I-0.438 J-0.15
X-93.883 Y-92.618 Z-1.203 I0.438 J0.15
X-94.758 Y-92.917 Z-1.254 I-0.438 J-0.15
X-93.883 Y-92.618 Z-1.304 I0.438 J0.15
X-94.758 Y-92.917 Z-1.355 I-0.438 J-0.15
X-93.883 Y-92.618 Z-1.406 I0.438 J0.15
X-94.758 Y-92.917 Z-1.457 I-0.438 J-0.15
X-93.862 Y-92.826 Z-1.5 I0.438 J0.15
S8000
X-94.779 Y-92.709 I-0.459 J0.058 F1000
X-93.862 Y-92.826 I0.459 J-0.058
S5000
X-94.779 Y-92.709 Z-1.551 I-0.459 J0.058 F333.3
X-93.862 Y-92.826 Z-1.601 I0.459 J-0.058
X-94.779 Y-92.709 Z-1.652 I-0.459 J0.058
X-93.862 Y-92.826 Z-1.703 I0.459 J-0.058
X-94.779 Y-92.709 Z-1.754 I-0.459 J0.058
X-93.862 Y-92.826 Z-1.804 I0.459 J-0.058
X-94.779 Y-92.709 Z-1.855 I-0.459 J0.058
X-93.862 Y-92.826 Z-1.906 I0.459 J-0.058
X-94.779 Y-92.709 Z-1.957 I-0.459 J0.058
X-93.934 Y-93.022 Z-2 I0.459 J-0.058
S8000
X-94.707 Y-92.513 I-0.386 J0.254 F1000
X-93.934 Y-93.022 I0.386 J-0.254
S5000
X-94.707 Y-92.513 Z-2.051 I-0.386 J0.254 F333.3
X-93.934 Y-93.022 Z-2.101 I0.386 J-0.254
X-94.707 Y-92.513 Z-2.152 I-0.386 J0.254
X-93.934 Y-93.022 Z-2.203 I0.386 J-0.254
X-94.707 Y-92.513 Z-2.254 I-0.386 J0.254
X-93.934 Y-93.022 Z-2.304 I0.386 J-0.254
X-94.707 Y-92.513 Z-2.355 I-0.386 J0.254
X-93.934 Y-93.022 Z-2.406 I0.386 J-0.254
X-94.707 Y-92.513 Z-2.457 I-0.386 J0.254
X-94.086 Y-93.166 Z-2.5 I0.386 J-0.254
S8000
X-94.555 Y-92.369 I-0.235 J0.399 F1000
X-94.086 Y-93.166 I0.235 J-0.399
S5000
X-94.555 Y-92.369 Z-2.551 I-0.235 J0.399 F333.3
X-94.086 Y-93.166 Z-2.601 I0.235 J-0.399
X-94.555 Y-92.369 Z-2.652 I-0.235 J0.399
X-94.086 Y-93.166 Z-2.703 I0.235 J-0.399
X-94.555 Y-92.369 Z-2.754 I-0.235 J0.399
X-94.086 Y-93.166 Z-2.804 I0.235 J-0.399
X-94.555 Y-92.369 Z-2.855 I-0.235 J0.399
X-94.086 Y-93.166 Z-2.906 I0.235 J-0.399
X-94.555 Y-92.369 Z-2.957 I-0.235 J0.399
X-94.285 Y-93.228 Z-3 I0.235 J-0.399
S8000
X-94.356 Y-92.306 I-0.035 J0.461 F1000
X-94.285 Y-93.228 I0.035 J-0.461
S5000
X-94.356 Y-92.306 Z-3.051 I-0.035 J0.461 F333.3
X-94.285 Y-93.228 Z-3.101 I0.035 J-0.461
X-94.356 Y-92.306 Z-3.152 I-0.035 J0.461
X-94.37 Y-93.227 Z-3.2 I0.035 J-0.461
S8000
X-94.271 Y-92.307 I0.049 J0.46 F1000
X-94.37 Y-93.227 I-0.049 J-0.46
G0 Z5
X-94.747 Y-72.278
G1 Z2.5 F333.3
S5000
G3 X-93.893 Y-71.923 Z2.449 I0.427 J0.178
X-94.747 Y-72.278 Z2.399 I-0.427 J-0.178
X-93.893 Y-71.923 Z2.348 I0.427 J0.178
X-94.747 Y-72.278 Z2.297 I-0.427 J-0.178
X-93.893 Y-71.923 Z2.246 I0.427 J0.178
X-94.747 Y-72.278 Z2.196 I-0.427 J-0.178
X-93.893 Y-71.923 Z2.145 I0.427 J0.178
X-94.747 Y-72.278 Z2.094 I-0.427 J-0.178
X-93.893 Y-71.923 Z2.043 I0.427 J0.178
X-94.747 Y-72.278 Z1.993 I-0.427 J-0.178
X-93.893 Y-71.923 Z1.942 I0.427 J0.178
X-94.747 Y-72.278 Z1.891 I-0.427 J-0.178
X-93.893 Y-71.923 Z1.84 I0.427 J0.178
X-94.747 Y-72.278 Z1.79 I-0.427 J-0.178
X-93.893 Y-71.923 Z1.739 I0.427 J0.178
X-94.747 Y-72.278 Z1.688 I-0.427 J-0.178
X-93.893 Y-71.923 Z1.637 I0.427 J0.178
X-94.747 Y-72.278 Z1.587 I-0.427 J-0.178
X-93.893 Y-71.923 Z1.536 I0.427 J0.178
X-94.747 Y-72.278 Z1.485 I-0.427 J-0.178
X-93.893 Y-71.923 Z1.434 I0.427 J0.178
X-94.747 Y-72.278 Z1.384 I-0.427 J-0.178
X-93.893 Y-71.923 Z1.333 I0.427 J0.178
X-94.747 Y-72.278 Z1.282 I-0.427 J-0.178
X-93.893 Y-71.923 Z1.231 I0.427 J0.178
X-94.747 Y-72.278 Z1.181 I-0.427 J-0.178
X-93.893 Y-71.923 Z1.13 I0.427 J0.178
X-94.747 Y-72.278 Z1.079 I-0.427 J-0.178
X-93.893 Y-71.923 Z1.029 I0.427 J0.178
X-94.747 Y-72.278 Z0.978 I-0.427 J-0.178
X-93.893 Y-71.923 Z0.927 I0.427 J0.178
X-94.747 Y-72.278 Z0.876 I-0.427 J-0.178
X-93.893 Y-71.923 Z0.826 I0.427 J0.178
X-94.747 Y-72.278 Z0.775 I-0.427 J-0.178
X-93.893 Y-71.923 Z0.724 I0.427 J0.178
X-94.747 Y-72.278 Z0.673 I-0.427 J-0.178
X-93.893 Y-71.923 Z0.623 I0.427 J0.178
X-94.747 Y-72.278 Z0.572 I-0.427 J-0.178
X-93.893 Y-71.923 Z0.521 I0.427 J0.178
X-94.747 Y-72.278 Z0.47 I-0.427 J-0.178
X-93.893 Y-71.923 Z0.42 I0.427 J0.178
X-94.747 Y-72.278 Z0.369 I-0.427 J-0.178
X-93.893 Y-71.923 Z0.318 I0.427 J0.178
X-94.747 Y-72.278 Z0.267 I-0.427 J-0.178
X-93.893 Y-71.923 Z0.217 I0.427 J0.178
X-94.747 Y-72.278 Z0.166 I-0.427 J-0.178
X-93.893 Y-71.923 Z0.115 I0.427 J0.178
X-94.747 Y-72.278 Z0.064 I-0.427 J-0.178
X-93.893 Y-71.923 Z0.014 I0.427 J0.178
X-94.747 Y-72.278 Z-0.037 I-0.427 J-0.178
X-93.893 Y-71.923 Z-0.088 I0.427 J0.178
X-94.747 Y-72.278 Z-0.138 I-0.427 J-0.178
X-93.893 Y-71.923 Z-0.189 I0.427 J0.178
X-94.747 Y-72.278 Z-0.24 I-0.427 J-0.178
X-93.893 Y-71.923 Z-0.291 I0.427 J0.178
X-94.747 Y-72.278 Z-0.341 I-0.427 J-0.178
X-93.893 Y-71.923 Z-0.392 I0.427 J0.178
X-94.747 Y-72.278 Z-0.443 I-0.427 J-0.178
X-93.893 Y-71.923 Z-0.494 I0.427 J0.178
X-93.993 Y-71.773 Z-0.5 I-0.427 J-0.178
S8000
X-94.647 Y-72.427 I-0.327 J-0.327 F1000
X-93.993 Y-71.773 I0.327 J0.327
S5000
X-94.647 Y-72.427 Z-0.551 I-0.327 J-0.327 F333.3
X-93.993 Y-71.773 Z-0.601 I0.327 J0.327
X-94.647 Y-72.427 Z-0.652 I-0.327 J-0.327
X-93.993 Y-71.773 Z-0.703 I0.327 J0.327
X-94.647 Y-72.427 Z-0.754 I-0.327 J-0.327
X-93.993 Y-71.773 Z-0.804 I0.327 J0.327
X-94.647 Y-72.427 Z-0.855 I-0.327 J-0.327
X-93.993 Y-71.773 Z-0.906 I0.327 J0.327
X-94.647 Y-72.427 Z-0.957 I-0.327 J-0.327
X-93.882 Y-71.952 Z-1 I0.327 J0.327
S8000
X-94.758 Y-72.249 I-0.438 J-0.149 F1000
X-93.882 Y-71.952 I0.438 J0.149
S5000
X-94.758 Y-72.249 Z-1.051 I-0.438 J-0.149 F333.3
X-93.882 Y-71.952 Z-1.101 I0.438 J0.149
X-94.758 Y-72.249 Z-1.152 I-0.438 J-0.149
X-93.882 Y-71.952 Z-1.203 I0.438 J0.149
X-94.758 Y-72.249 Z-1.254 I-0.438 J-0.149
X-93.882 Y-71.952 Z-1.304 I0.438 J0.149
X-94.758 Y-72.249 Z-1.355 I-0.438 J-0.149
X-93.882 Y-71.952 Z-1.406 I0.438 J0.149
X-94.758 Y-72.249 Z-1.457 I-0.438 J-0.149
X-93.862 Y-72.161 Z-1.5 I0.438 J0.149
S8000
X-94.779 Y-72.04 I-0.459 J0.061 F1000
X-93.862 Y-72.161 I0.459 J-0.061
S5000
X-94.779 Y-72.04 Z-1.551 I-0.459 J0.061 F333.3
X-93.862 Y-72.161 Z-1.601 I0.459 J-0.061
X-94.779 Y-72.04 Z-1.652 I-0.459 J0.061
X-93.862 Y-72.161 Z-1.703 I0.459 J-0.061
X-94.779 Y-72.04 Z-1.754 I-0.459 J0.061
X-93.862 Y-72.161 Z-1.804 I0.459 J-0.061
X-94.779 Y-72.04 Z-1.855 I-0.459 J0.061
X-93.862 Y-72.161 Z-1.906 I0.459 J-0.061
X-94.779 Y-72.04 Z-1.957 I-0.459 J0.061
X-93.936 Y-72.358 Z-2 I0.459 J-0.061
S8000
X-94.705 Y-71.843 I-0.384 J0.257 F1000
X-93.936 Y-72.358 I0.384 J-0.257
S5000
X-94.705 Y-71.843 Z-2.051 I-0.384 J0.257 F333.3
X-93.936 Y-72.358 Z-2.101 I0.384 J-0.257
X-94.705 Y-71.843 Z-2.152 I-0.384 J0.257
X-93.936 Y-72.358 Z-2.203 I0.384 J-0.257
X-94.705 Y-71.843 Z-2.254 I-0.384 J0.257
X-93.936 Y-72.358 Z-2.304 I0.384 J-0.257
X-94.705 Y-71.843 Z-2.355 I-0.384 J0.257
X-93.936 Y-72.358 Z-2.406 I0.384 J-0.257
X-94.705 Y-71.843 Z-2.457 I-0.384 J0.257
X-94.09 Y-72.501 Z-2.5 I0.384 J-0.257
S8000
X-94.551 Y-71.7 I-0.231 J0.401 F1000
X-94.09 Y-72.501 I0.231 J-0.401
S5000
X-94.551 Y-71.7 Z-2.551 I-0.231 J0.401 F333.3
X-94.09 Y-72.501 Z-2.601 I0.231 J-0.401
X-94.551 Y-71.7 Z-2.652 I-0.231 J0.401
X-94.09 Y-72.501 Z-2.703 I0.231 J-0.401
X-94.551 Y-71.7 Z-2.754 I-0.231 J0.401
X-94.09 Y-72.501 Z-2.804 I0.231 J-0.401
X-94.551 Y-71.7 Z-2.855 I-0.231 J0.401
X-94.09 Y-72.501 Z-2.906 I0.231 J-0.401
X-94.551 Y-71.7 Z-2.957 I-0.231 J0.401
X-94.291 Y-72.562 Z-3 I0.231 J-0.401
S8000
X-94.35 Y-71.639 I-0.03 J0.462 F1000
X-94.291 Y-72.562 I0.03 J-0.462
S5000
X-94.35 Y-71.639 Z-3.051 I-0.03 J0.462 F333.3
X-94.291 Y-72.562 Z-3.101 I0.03 J-0.462
X-94.35 Y-71.639 Z-3.152 I-0.03 J0.462
X-94.375 Y-72.56 Z-3.2 I0.03 J-0.462
S8000
X-94.265 Y-71.641 I0.055 J0.459 F1000
X-94.375 Y-72.56 I-0.055 J-0.459
G0 Z5
X-94.75 Y-51.605
G1 Z2.5 F333.3
S5000
G3 X-93.891 Y-51.262 Z2.449 I0.429 J0.172
X-94.75 Y-51.605 Z2.399 I-0.429 J-0.172
X-93.891 Y-51.262 Z2.348 I0.429 J0.172
X-94.75 Y-51.605 Z2.297 I-0.429 J-0.172
X-93.891 Y-51.262 Z2.246 I0.429 J0.172
X-94.75 Y-51.605 Z2.196 I-0.429 J-0.172
X-93.891 Y-51.262 Z2.145 I0.429 J0.172
X-94.75 Y-51.605 Z2.094 I-0.429 J-0.172
X-93.891 Y-51.262 Z2.043 I0.429 J0.172
X-94.75 Y-51.605 Z1.993 I-0.429 J-0.172
X-93.891 Y-51.262 Z1.942 I0.429 J0.172
X-94.75 Y-51.605 Z1.891 I-0.429 J-0.172
X-93.891 Y-51.262 Z1.84 I0.429 J0.172
X-94.75 Y-51.605 Z1.79 I-0.429 J-0.172
X-93.891 Y-51.262 Z1.739 I0.429 J0.172
X-94.75 Y-51.605 Z1.688 I-0.429 J-0.172
X-93.891 Y-51.262 Z1.637 I0.429 J0.172
X-94.75 Y-51.605 Z1.587 I-0.429 J-0.172
X-93.891 Y-51.262 Z1.536 I0.429 J0.172
X-94.75 Y-51.605 Z1.485 I-0.429 J-0.172
X-93.891 Y-51.262 Z1.435 I0.429 J0.172
X-94.75 Y-51.605 Z1.384 I-0.429 J-0.172
X-93.891 Y-51.262 Z1.333 I0.429 J0.172
X-94.75 Y-51.605 Z1.282 I-0.429 J-0.172
X-93.891 Y-51.262 Z1.232 I0.429 J0.172
X-94.75 Y-51.605 Z1.181 I-0.429 J-0.172
X-93.891 Y-51.262 Z1.13 I0.429 J0.172
X-94.75 Y-51.605 Z1.079 I-0.429 J-0.172
X-93.891 Y-51.262 Z1.029 I0.429 J0.172
X-94.75 Y-51.605 Z0.978 I-0.429 J-0.172
X-93.891 Y-51.262 Z0.927 I0.429 J0.172
X-94.75 Y-51.605 Z0.876 I-0.429 J-0.172
X-93.891 Y-51.262 Z0.826 I0.429 J0.172
X-94.75 Y-51.605 Z0.775 I-0.429 J-0.172
X-93.891 Y-51.262 Z0.724 I0.429 J0.172
X-94.75 Y-51.605 Z0.673 I-0.429 J-0.172
X-93.891 Y-51.262 Z0.623 I0.429 J0.172
X-94.75 Y-51.605 Z0.572 I-0.429 J-0.172
X-93.891 Y-51.262 Z0.521 I0.429 J0.172
X-94.75 Y-51.605 Z0.471 I-0.429 J-0.172
X-93.891 Y-51.262 Z0.42 I0.429 J0.172
X-94.75 Y-51.605 Z0.369 I-0.429 J-0.172
X-93.891 Y-51.262 Z0.318 I0.429 J0.172
X-94.75 Y-51.605 Z0.268 I-0.429 J-0.172
X-93.891 Y-51.262 Z0.217 I0.429 J0.172
X-94.75 Y-51.605 Z0.166 I-0.429 J-0.172
X-93.891 Y-51.262 Z0.115 I0.429 J0.172
X-94.75 Y-51.605 Z0.065 I-0.429 J-0.172
X-93.891 Y-51.262 Z0.014 I0.429 J0.172
X-94.75 Y-51.605 Z-0.037 I-0.429 J-0.172
X-93.891 Y-51.262 Z-0.088 I0.429 J0.172
X-94.75 Y-51.605 Z-0.138 I-0.429 J-0.172
X-93.891 Y-51.262 Z-0.189 I0.429 J0.172
X-94.75 Y-51.605 Z-0.24 I-0.429 J-0.172
X-93.891 Y-51.262 Z-0.291 I0.429 J0.172
X-94.75 Y-51.605 Z-0.341 I-0.429 J-0.172
X-93.891 Y-51.262 Z-0.392 I0.429 J0.172
X-94.75 Y-51.605 Z-0.443 I-0.429 J-0.172
X-93.891 Y-51.262 Z-0.493 I0.429 J0.172
X-93.993 Y-51.107 Z-0.5 I-0.429 J-0.172
S8000
X-94.647 Y-51.761 I-0.327 J-0.327 F1000
X-93.993 Y-51.107 I0.327 J0.327
S5000
X-94.647 Y-51.761 Z-0.551 I-0.327 J-0.327 F333.3
X-93.993 Y-51.107 Z-0.601 I0.327 J0.327
X-94.647 Y-51.761 Z-0.652 I-0.327 J-0.327
X-93.993 Y-51.107 Z-0.703 I0.327 J0.327
X-94.647 Y-51.761 Z-0.754 I-0.327 J-0.327
X-93.993 Y-51.107 Z-0.804 I0.327 J0.327
X-94.647 Y-51.761 Z-0.855 I-0.327 J-0.327
X-93.993 Y-51.107 Z-0.906 I0.327 J0.327
X-94.647 Y-51.761 Z-0.957 I-0.327 J-0.327
X-93.883 Y-51.284 Z-1 I0.327 J0.327
S8000
X-94.758 Y-51.583 I-0.438 J-0.15 F1000
X-93.883 Y-51.284 I0.438 J0.15
S5000
X-94.758 Y-51.583 Z-1.051 I-0.438 J-0.15 F333.3
X-93.883 Y-51.284 Z-1.101 I0.438 J0.15
X-94.758 Y-51.583 Z-1.152 I-0.438 J-0.15
X-93.883 Y-51.284 Z-1.203 I0.438 J0.15
X-94.758 Y-51.583 Z-1.254 I-0.438 J-0.15
X-93.883 Y-51.284 Z-1.304 I0.438 J0.15
X-94.758 Y-51.583 Z-1.355 I-0.438 J-0.15
X-93.883 Y-51.284 Z-1.406 I0.438 J0.15
X-94.758 Y-51.583 Z-1.457 I-0.438 J-0.15
X-93.862 Y-51.492 Z-1.5 I0.438 J0.15
S8000
X-94.779 Y-51.375 I-0.459 J0.058 F1000
X-93.862 Y-51.492 I0.459 J-0.058
S5000
X-94.779 Y-51.375 Z-1.551 I-0.459 J0.058 F333.3
X-93.862 Y-51.492 Z-1.601 I0.459 J-0.058
X-94.779 Y-51.375 Z-1.652 I-0.459 J0.058
X-93.862 Y-51.492 Z-1.703 I0.459 J-0.058
X-94.779 Y-51.375 Z-1.754 I-0.459 J0.058
X-93.862 Y-51.492 Z-1.804 I0.459 J-0.058
X-94.779 Y-51.375 Z-1.855 I-0.459 J0.058
X-93.862 Y-51.492 Z-1.906 I0.459 J-0.058
X-94.779 Y-51.375 Z-1.957 I-0.459 J0.058
X-93.934 Y-51.688 Z-2 I0.459 J-0.058
S8000
X-94.707 Y-51.179 I-0.386 J0.254 F1000
X-93.934 Y-51.688 I0.386 J-0.254
S5000
X-94.707 Y-51.179 Z-2.051 I-0.386 J0.254 F333.3
X-93.934 Y-51.688 Z-2.101 I0.386 J-0.254
X-94.707 Y-51.179 Z-2.152 I-0.386 J0.254
X-93.934 Y-51.688 Z-2.203 I0.386 J-0.254
X-94.707 Y-51.179 Z-2.254 I-0.386 J0.254
X-93.934 Y-51.688 Z-2.304 I0.386 J-0.254
X-94.707 Y-51.179 Z-2.355 I-0.386 J0.254
X-93.934 Y-51.688 Z-2.406 I0.386 J-0.254
X-94.707 Y-51.179 Z-2.457 I-0.386 J0.254
X-94.086 Y-51.832 Z-2.5 I0.386 J-0.254
S8000
X-94.555 Y-51.035 I-0.235 J0.399 F1000
X-94.086 Y-51.832 I0.235 J-0.399
S5000
X-94.555 Y-51.035 Z-2.551 I-0.235 J0.399 F333.3
X-94.086 Y-51.832 Z-2.601 I0.235 J-0.399
X-94.555 Y-51.035 Z-2.652 I-0.235 J0.399
X-94.086 Y-51.832 Z-2.703 I0.235 J-0.399
X-94.555 Y-51.035 Z-2.754 I-0.235 J0.399
X-94.086 Y-51.832 Z-2.804 I0.235 J-0.399
X-94.555 Y-51.035 Z-2.855 I-0.235 J0.399
X-94.086 Y-51.832 Z-2.906 I0.235 J-0.399
X-94.555 Y-51.035 Z-2.957 I-0.235 J0.399
X-94.285 Y-51.895 Z-3 I0.235 J-0.399
S8000
X-94.356 Y-50.973 I-0.035 J0.461 F1000
X-94.285 Y-51.895 I0.035 J-0.461
S5000
X-94.356 Y-50.973 Z-3.051 I-0.035 J0.461 F333.3
X-94.285 Y-51.895 Z-3.101 I0.035 J-0.461
X-94.356 Y-50.973 Z-3.152 I-0.035 J0.461
X-94.37 Y-51.894 Z-3.2 I0.035 J-0.461
S8000
X-94.271 Y-50.974 I0.049 J0.46 F1000
X-94.37 Y-51.894 I-0.049 J-0.46
G0 Z5
X-94.75 Y-30.939
G1 Z2.5 F333.3
S5000
G3 X-93.891 Y-30.596 Z2.449 I0.429 J0.172
X-94.75 Y-30.939 Z2.399 I-0.429 J-0.172
X-93.891 Y-30.596 Z2.348 I0.429 J0.172
X-94.75 Y-30.939 Z2.297 I-0.429 J-0.172
X-93.891 Y-30.596 Z2.246 I0.429 J0.172
X-94.75 Y-30.939 Z2.196 I-0.429 J-0.172
X-93.891 Y-30.596 Z2.145 I0.429 J0.172
X-94.75 Y-30.939 Z2.094 I-0.429 J-0.172
X-93.891 Y-30.596 Z2.043 I0.429 J0.172
X-94.75 Y-30.939 Z1.993 I-0.429 J-0.172
X-93.891 Y-30.596 Z1.942 I0.429 J0.172
X-94.75 Y-30.939 Z1.891 I-0.429 J-0.172
X-93.891 Y-30.596 Z1.84 I0.429 J0.172
X-94.75 Y-30.939 Z1.79 I-0.429 J-0.172
X-93.891 Y-30.596 Z1.739 I0.429 J0.172
X-94.75 Y-30.939 Z1.688 I-0.429 J-0.172
X-93.891 Y-30.596 Z1.637 I0.429 J0.172
X-94.75 Y-30.939 Z1.587 I-0.429 J-0.172
X-93.891 Y-30.596 Z1.536 I0.429 J0.172
X-94.75 Y-30.939 Z1.485 I-0.429 J-0.172
X-93.891 Y-30.596 Z1.435 I0.429 J0.172
X-94.75 Y-30.939 Z1.384 I-0.429 J-0.172
X-93.891 Y-30.596 Z1.333 I0.429 J0.172
X-94.75 Y-30.939 Z1.282 I-0.429 J-0.172
X-93.891 Y-30.596 Z1.232 I0.429 J0.172
X-94.75 Y-30.939 Z1.181 I-0.429 J-0.172
X-93.891 Y-30.596 Z1.13 I0.429 J0.172
X-94.75 Y-30.939 Z1.079 I-0.429 J-0.172
X-93.891 Y-30.596 Z1.029 I0.429 J0.172
X-94.75 Y-30.939 Z0.978 I-0.429 J-0.172
X-93.891 Y-30.596 Z0.927 I0.429 J0.172
X-94.75 Y-30.939 Z0.876 I-0.429 J-0.172
X-93.891 Y-30.596 Z0.826 I0.429 J0.172
X-94.75 Y-30.939 Z0.775 I-0.429 J-0.172
X-93.891 Y-30.596 Z0.724 I0.429 J0.172
X-94.75 Y-30.939 Z0.673 I-0.429 J-0.172
X-93.891 Y-30.596 Z0.623 I0.429 J0.172
X-94.75 Y-30.939 Z0.572 I-0.429 J-0.172
X-93.891 Y-30.596 Z0.521 I0.429 J0.172
X-94.75 Y-30.939 Z0.471 I-0.429 J-0.172
X-93.891 Y-30.596 Z0.42 I0.429 J0.172
X-94.75 Y-30.939 Z0.369 I-0.429 J-0.172
X-93.891 Y-30.596 Z0.318 I0.429 J0.172
X-94.75 Y-30.939 Z0.268 I-0.429 J-0.172
X-93.891 Y-30.596 Z0.217 I0.429 J0.172
X-94.75 Y-30.939 Z0.166 I-0.429 J-0.172
X-93.891 Y-30.596 Z0.115 I0.429 J0.172
X-94.75 Y-30.939 Z0.065 I-0.429 J-0.172
X-93.891 Y-30.596 Z0.014 I0.429 J0.172
X-94.75 Y-30.939 Z-0.037 I-0.429 J-0.172
X-93.891 Y-30.596 Z-0.088 I0.429 J0.172
X-94.75 Y-30.939 Z-0.138 I-0.429 J-0.172
X-93.891 Y-30.596 Z-0.189 I0.429 J0.172
X-94.75 Y-30.939 Z-0.24 I-0.429 J-0.172
X-93.891 Y-30.596 Z-0.291 I0.429 J0.172
X-94.75 Y-30.939 Z-0.341 I-0.429 J-0.172
X-93.891 Y-30.596 Z-0.392 I0.429 J0.172
X-94.75 Y-30.939 Z-0.443 I-0.429 J-0.172
X-93.891 Y-30.596 Z-0.493 I0.429 J0.172
X-93.993 Y-30.44 Z-0.5 I-0.429 J-0.172
S8000
X-94.648 Y-31.094 I-0.327 J-0.327 F1000
X-93.993 Y-30.44 I0.327 J0.327
S5000
X-94.648 Y-31.094 Z-0.551 I-0.327 J-0.327 F333.3
X-93.993 Y-30.44 Z-0.601 I0.327 J0.327
X-94.648 Y-31.094 Z-0.652 I-0.327 J-0.327
X-93.993 Y-30.44 Z-0.703 I0.327 J0.327
X-94.648 Y-31.094 Z-0.754 I-0.327 J-0.327
X-93.993 Y-30.44 Z-0.804 I0.327 J0.327
X-94.648 Y-31.094 Z-0.855 I-0.327 J-0.327
X-93.993 Y-30.44 Z-0.906 I0.327 J0.327
X-94.648 Y-31.094 Z-0.957 I-0.327 J-0.327
X-93.883 Y-30.617 Z-1 I0.327 J0.327
S8000
X-94.758 Y-30.917 I-0.438 J-0.15 F1000
X-93.883 Y-30.617 I0.438 J0.15
S5000
X-94.758 Y-30.917 Z-1.051 I-0.438 J-0.15 F333.3
X-93.883 Y-30.617 Z-1.101 I0.438 J0.15
X-94.758 Y-30.917 Z-1.152 I-0.438 J-0.15
X-93.883 Y-30.617 Z-1.203 I0.438 J0.15
X-94.758 Y-30.917 Z-1.254 I-0.438 J-0.15
X-93.883 Y-30.617 Z-1.304 I0.438 J0.15
X-94.758 Y-30.917 Z-1.355 I-0.438 J-0.15
X-93.883 Y-30.617 Z-1.406 I0.438 J0.15
X-94.758 Y-30.917 Z-1.457 I-0.438 J-0.15
X-93.862 Y-30.826 Z-1.5 I0.438 J0.15
S8000
X-94.779 Y-30.709 I-0.459 J0.058 F1000
X-93.862 Y-30.826 I0.459 J-0.058
S5000
X-94.779 Y-30.709 Z-1.551 I-0.459 J0.058 F333.3
X-93.862 Y-30.826 Z-1.601 I0.459 J-0.058
X-94.779 Y-30.709 Z-1.652 I-0.459 J0.058
X-93.862 Y-30.826 Z-1.703 I0.459 J-0.058
X-94.779 Y-30.709 Z-1.754 I-0.459 J0.058
X-93.862 Y-30.826 Z-1.804 I0.459 J-0.058
X-94.779 Y-30.709 Z-1.855 I-0.459 J0.058
X-93.862 Y-30.826 Z-1.906 I0.459 J-0.058
X-94.779 Y-30.709 Z-1.957 I-0.459 J0.058
X-93.934 Y-31.022 Z-2 I0.459 J-0.058
S8000
X-94.707 Y-30.513 I-0.386 J0.254 F1000
X-93.934 Y-31.022 I0.386 J-0.254
S5000
X-94.707 Y-30.513 Z-2.051 I-0.386 J0.254 F333.3
X-93.934 Y-31.022 Z-2.101 I0.386 J-0.254
X-94.707 Y-30.513 Z-2.152 I-0.386 J0.254
X-93.934 Y-31.022 Z-2.203 I0.386 J-0.254
X-94.707 Y-30.513 Z-2.254 I-0.386 J0.254
X-93.934 Y-31.022 Z-2.304 I0.386 J-0.254
X-94.707 Y-30.513 Z-2.355 I-0.386 J0.254
X-93.934 Y-31.022 Z-2.406 I0.386 J-0.254
X-94.707 Y-30.513 Z-2.457 I-0.386 J0.254
X-94.086 Y-31.166 Z-2.5 I0.386 J-0.254
S8000
X-94.555 Y-30.369 I-0.235 J0.399 F1000
X-94.086 Y-31.166 I0.235 J-0.399
S5000
X-94.555 Y-30.369 Z-2.551 I-0.235 J0.399 F333.3
X-94.086 Y-31.166 Z-2.601 I0.235 J-0.399
X-94.555 Y-30.369 Z-2.652 I-0.235 J0.399
X-94.086 Y-31.166 Z-2.703 I0.235 J-0.399
X-94.555 Y-30.369 Z-2.754 I-0.235 J0.399
X-94.086 Y-31.166 Z-2.804 I0.235 J-0.399
X-94.555 Y-30.369 Z-2.855 I-0.235 J0.399
X-94.086 Y-31.166 Z-2.906 I0.235 J-0.399
X-94.555 Y-30.369 Z-2.957 I-0.235 J0.399
X-94.285 Y-31.228 Z-3 I0.235 J-0.399
S8000
X-94.356 Y-30.306 I-0.035 J0.461 F1000
X-94.285 Y-31.228 I0.035 J-0.461
S5000
X-94.356 Y-30.306 Z-3.051 I-0.035 J0.461 F333.3
X-94.285 Y-31.228 Z-3.101 I0.035 J-0.461
X-94.356 Y-30.306 Z-3.152 I-0.035 J0.461
X-94.37 Y-31.227 Z-3.2 I0.035 J-0.461
S8000
X-94.271 Y-30.307 I0.049 J0.46 F1000
X-94.37 Y-31.227 I-0.049 J-0.46
G0 Z5
X-18.178 Y-40.868
G1 Z2.5 F333.3
S5000
G3 X-17.822 Y-41.722 Z2.449 I0.178 J-0.427
X-18.178 Y-40.868 Z2.399 I-0.178 J0.427
X-17.822 Y-41.722 Z2.348 I0.178 J-0.427
X-18.178 Y-40.868 Z2.297 I-0.178 J0.427
X-17.822 Y-41.722 Z2.246 I0.178 J-0.427
X-18.178 Y-40.868 Z2.196 I-0.178 J0.427
X-17.822 Y-41.722 Z2.145 I0.178 J-0.427
X-18.178 Y-40.868 Z2.094 I-0.178 J0.427
X-17.822 Y-41.722 Z2.043 I0.178 J-0.427
X-18.178 Y-40.868 Z1.993 I-0.178 J0.427
X-17.822 Y-41.722 Z1.942 I0.178 J-0.427
X-18.178 Y-40.868 Z1.891 I-0.178 J0.427
X-17.822 Y-41.722 Z1.84 I0.178 J-0.427
X-18.178 Y-40.868 Z1.79 I-0.178 J0.427
X-17.822 Y-41.722 Z1.739 I0.178 J-0.427
X-18.178 Y-40.868 Z1.688 I-0.178 J0.427
X-17.822 Y-41.722 Z1.637 I0.178 J-0.427
X-18.178 Y-40.868 Z1.587 I-0.178 J0.427
X-17.822 Y-41.722 Z1.536 I0.178 J-0.427
X-18.178 Y-40.868 Z1.485 I-0.178 J0.427
X-17.822 Y-41.722 Z1.434 I0.178 J-0.427
X-18.178 Y-40.868 Z1.384 I-0.178 J0.427
X-17.822 Y-41.722 Z1.333 I0.178 J-0.427
X-18.178 Y-40.868 Z1.282 I-0.178 J0.427
X-17.822 Y-41.722 Z1.231 I0.178 J-0.427
X-18.178 Y-40.868 Z1.181 I-0.178 J0.427
X-17.822 Y-41.722 Z1.13 I0.178 J-0.427
X-18.178 Y-40.868 Z1.079 I-0.178 J0.427
X-17.822 Y-41.722 Z1.029 I0.178 J-0.427
X-18.178 Y-40.868 Z0.978 I-0.178 J0.427
X-17.822 Y-41.722 Z0.927 I0.178 J-0.427
X-18.178 Y-40.868 Z0.876 I-0.178 J0.427
X-17.822 Y-41.722 Z0.826 I0.178 J-0.427
X-18.178 Y-40.868 Z0.775 I-0.178 J0.427
X-17.822 Y-41.722 Z0.724 I0.178 J-0.427
X-18.178 Y-40.868 Z0.673 I-0.178 J0.427
X-17.822 Y-41.722 Z0.623 I0.178 J-0.427
X-18.178 Y-40.868 Z0.572 I-0.178 J0.427
X-17.822 Y-41.722 Z0.521 I0.178 J-0.427
X-18.178 Y-40.868 Z0.47 I-0.178 J0.427
X-17.822 Y-41.722 Z0.42 I0.178 J-0.427
X-18.178 Y-40.868 Z0.369 I-0.178 J0.427
X-17.822 Y-41.722 Z0.318 I0.178 J-0.427
X-18.178 Y-40.868 Z0.267 I-0.178 J0.427
X-17.822 Y-41.722 Z0.217 I0.178 J-0.427
X-18.178 Y-40.868 Z0.166 I-0.178 J0.427
X-17.822 Y-41.722 Z0.115 I0.178 J-0.427
X-18.178 Y-40.868 Z0.064 I-0.178 J0.427
X-17.822 Y-41.722 Z0.014 I0.178 J-0.427
X-18.178 Y-40.868 Z-0.037 I-0.178 J0.427
X-17.822 Y-41.722 Z-0.088 I0.178 J-0.427
X-18.178 Y-40.868 Z-0.138 I-0.178 J0.427
X-17.822 Y-41.722 Z-0.189 I0.178 J-0.427
X-18.178 Y-40.868 Z-0.24 I-0.178 J0.427
X-17.822 Y-41.722 Z-0.291 I0.178 J-0.427
X-18.178 Y-40.868 Z-0.341 I-0.178 J0.427
X-17.822 Y-41.722 Z-0.392 I0.178 J-0.427
X-18.178 Y-40.868 Z-0.443 I-0.178 J0.427
X-17.822 Y-41.722 Z-0.494 I0.178 J-0.427
X-17.673 Y-41.622 Z-0.5 I-0.178 J0.427
S8000
X-18.327 Y-40.968 I-0.327 J0.327 F1000
X-17.673 Y-41.622 I0.327 J-0.327
S5000
X-18.327 Y-40.968 Z-0.551 I-0.327 J0.327 F333.3
X-17.673 Y-41.622 Z-0.601 I0.327 J-0.327
X-18.327 Y-40.968 Z-0.652 I-0.327 J0.327
X-17.673 Y-41.622 Z-0.703 I0.327 J-0.327
X-18.327 Y-40.968 Z-0.754 I-0.327 J0.327
X-17.673 Y-41.622 Z-0.804 I0.327 J-0.327
X-18.327 Y-40.968 Z-0.855 I-0.327 J0.327
X-17.673 Y-41.622 Z-0.906 I0.327 J-0.327
X-18.327 Y-40.968 Z-0.957 I-0.327 J0.327
X-17.851 Y-41.733 Z-1 I0.327 J-0.327
S8000
X-18.149 Y-40.857 I-0.149 J0.438 F1000
X-17.851 Y-41.733 I0.149 J-0.438
S5000
X-18.149 Y-40.857 Z-1.051 I-0.149 J0.438 F333.3
X-17.851 Y-41.733 Z-1.101 I0.149 J-0.438
X-18.149 Y-40.857 Z-1.152 I-0.149 J0.438
X-17.851 Y-41.733 Z-1.203 I0.149 J-0.438
X-18.149 Y-40.857 Z-1.254 I-0.149 J0.438
X-17.851 Y-41.733 Z-1.304 I0.149 J-0.438
X-18.149 Y-40.857 Z-1.355 I-0.149 J0.438
X-17.851 Y-41.733 Z-1.406 I0.149 J-0.438
X-18.149 Y-40.857 Z-1.457 I-0.149 J0.438
X-18.061 Y-41.754 Z-1.5 I0.149 J-0.438
S8000
X-17.939 Y-40.837 I0.061 J0.459 F1000
X-18.061 Y-41.754 I-0.061 J-0.459
S5000
X-17.939 Y-40.837 Z-1.551 I0.061 J0.459 F333.3
X-18.061 Y-41.754 Z-1.601 I-0.061 J-0.459
X-17.939 Y-40.837 Z-1.652 I0.061 J0.459
X-18.061 Y-41.754 Z-1.703 I-0.061 J-0.459
X-17.939 Y-40.837 Z-1.754 I0.061 J0.459
X-18.061 Y-41.754 Z-1.804 I-0.061 J-0.459
X-17.939 Y-40.837 Z-1.855 I0.061 J0.459
X-18.061 Y-41.754 Z-1.906 I-0.061 J-0.459
X-17.939 Y-40.837 Z-1.957 I0.061 J0.459
X-18.257 Y-41.68 Z-2 I-0.061 J-0.459
S8000
X-17.743 Y-40.911 I0.257 J0.384 F1000
X-18.257 Y-41.68 I-0.257 J-0.384
S5000
X-17.743 Y-40.911 Z-2.051 I0.257 J0.384 F333.3
X-18.257 Y-41.68 Z-2.101 I-0.257 J-0.384
X-17.743 Y-40.911 Z-2.152 I0.257 J0.384
X-18.257 Y-41.68 Z-2.203 I-0.257 J-0.384
X-17.743 Y-40.911 Z-2.254 I0.257 J0.384
X-18.257 Y-41.68 Z-2.304 I-0.257 J-0.384
X-17.743 Y-40.911 Z-2.355 I0.257 J0.384
X-18.257 Y-41.68 Z-2.406 I-0.257 J-0.384
X-17.743 Y-40.911 Z-2.457 I0.257 J0.384
X-18.401 Y-41.526 Z-2.5 I-0.257 J-0.384
S8000
X-17.599 Y-41.064 I0.401 J0.231 F1000
X-18.401 Y-41.526 I-0.401 J-0.231
S5000
X-17.599 Y-41.064 Z-2.551 I0.401 J0.231 F333.3
X-18.401 Y-41.526 Z-2.601 I-0.401 J-0.231
X-17.599 Y-41.064 Z-2.652 I0.401 J0.231
X-18.401 Y-41.526 Z-2.703 I-0.401 J-0.231
X-17.599 Y-41.064 Z-2.754 I0.401 J0.231
X-18.401 Y-41.526 Z-2.804 I-0.401 J-0.231
X-17.599 Y-41.064 Z-2.855 I0.401 J0.231
X-18.401 Y-41.526 Z-2.906 I-0.401 J-0.231
X-17.599 Y-41.064 Z-2.957 I0.401 J0.231
X-18.462 Y-41.325 Z-3 I-0.401 J-0.231
S8000
X-17.538 Y-41.265 I0.462 J0.03 F1000
X-18.462 Y-41.325 I-0.462 J-0.03
S5000
X-17.538 Y-41.265 Z-3.051 I0.462 J0.03 F333.3
X-18.462 Y-41.325 Z-3.101 I-0.462 J-0.03
X-17.538 Y-41.265 Z-3.152 I0.462 J0.03
X-18.459 Y-41.24 Z-3.2 I-0.462 J-0.03
S8000
X-17.541 Y-41.35 I0.459 J-0.055 F1000
X-18.459 Y-41.24 I-0.459 J0.055
G0 Z5
X-17.573 Y-61.784
G1 Z2.5 F333.3
S5000
G3 X-18.427 Y-62.139 Z2.449 I-0.427 J-0.178
X-17.573 Y-61.784 Z2.399 I0.427 J0.178
X-18.427 Y-62.139 Z2.348 I-0.427 J-0.178
X-17.573 Y-61.784 Z2.297 I0.427 J0.178
X-18.427 Y-62.139 Z2.246 I-0.427 J-0.178
X-17.573 Y-61.784 Z2.196 I0.427 J0.178
X-18.427 Y-62.139 Z2.145 I-0.427 J-0.178
X-17.573 Y-61.784 Z2.094 I0.427 J0.178
X-18.427 Y-62.139 Z2.043 I-0.427 J-0.178
X-17.573 Y-61.784 Z1.993 I0.427 J0.178
X-18.427 Y-62.139 Z1.942 I-0.427 J-0.178
X-17.573 Y-61.784 Z1.891 I0.427 J0.178
X-18.427 Y-62.139 Z1.84 I-0.427 J-0.178
X-17.573 Y-61.784 Z1.79 I0.427 J0.178
X-18.427 Y-62.139 Z1.739 I-0.427 J-0.178
X-17.573 Y-61.784 Z1.688 I0.427 J0.178
X-18.427 Y-62.139 Z1.637 I-0.427 J-0.178
X-17.573 Y-61.784 Z1.587 I0.427 J0.178
X-18.427 Y-62.139 Z1.536 I-0.427 J-0.178
X-17.573 Y-61.784 Z1.485 I0.427 J0.178
X-18.427 Y-62.139 Z1.434 I-0.427 J-0.178
X-17.573 Y-61.784 Z1.384 I0.427 J0.178
X-18.427 Y-62.139 Z1.333 I-0.427 J-0.178
X-17.573 Y-61.784 Z1.282 I0.427 J0.178
X-18.427 Y-62.139 Z1.231 I-0.427 J-0.178
X-17.573 Y-61.784 Z1.181 I0.427 J0.178
X-18.427 Y-62.139 Z1.13 I-0.427 J-0.178
X-17.573 Y-61.784 Z1.079 I0.427 J0.178
X-18.427 Y-62.139 Z1.029 I-0.427 J-0.178
X-17.573 Y-61.784 Z0.978 I0.427 J0.178
X-18.427 Y-62.139 Z0.927 I-0.427 J-0.178
X-17.573 Y-61.784 Z0.876 I0.427 J0.178
X-18.427 Y-62.139 Z0.826 I-0.427 J-0.178
X-17.573 Y-61.784 Z0.775 I0.427 J0.178
X-18.427 Y-62.139 Z0.724 I-0.427 J-0.178
X-17.573 Y-61.784 Z0.673 I0.427 J0.178
X-18.427 Y-62.139 Z0.623 I-0.427 J-0.178
X-17.573 Y-61.784 Z0.572 I0.427 J0.178
X-18.427 Y-62.139 Z0.521 I-0.427 J-0.178
X-17.573 Y-61.784 Z0.47 I0.427 J0.178
X-18.427 Y-62.139 Z0.42 I-0.427 J-0.178
X-17.573 Y-61.784 Z0.369 I0.427 J0.178
X-18.427 Y-62.139 Z0.318 I-0.427 J-0.178
X-17.573 Y-61.784 Z0.267 I0.427 J0.178
X-18.427 Y-62.139 Z0.217 I-0.427 J-0.178
X-17.573 Y-61.784 Z0.166 I0.427 J0.178
X-18.427 Y-62.139 Z0.115 I-0.427 J-0.178
X-17.573 Y-61.784 Z0.064 I0.427 J0.178
X-18.427 Y-62.139 Z0.014 I-0.427 J-0.178
X-17.573 Y-61.784 Z-0.037 I0.427 J0.178
X-18.427 Y-62.139 Z-0.088 I-0.427 J-0.178
X-17.573 Y-61.784 Z-0.138 I0.427 J0.178
X-18.427 Y-62.139 Z-0.189 I-0.427 J-0.178
X-17.573 Y-61.784 Z-0.24 I0.427 J0.178
X-18.427 Y-62.139 Z-0.291 I-0.427 J-0.178
X-17.573 Y-61.784 Z-0.341 I0.427 J0.178
X-18.427 Y-62.139 Z-0.392 I-0.427 J-0.178
X-17.573 Y-61.784 Z-0.443 I0.427 J0.178
X-18.427 Y-62.139 Z-0.494 I-0.427 J-0.178
X-18.327 Y-62.289 Z-0.5 I0.427 J0.178
S8000
X-17.673 Y-61.635 I0.327 J0.327 F1000
X-18.327 Y-62.289 I-0.327 J-0.327
S5000
X-17.673 Y-61.635 Z-0.551 I0.327 J0.327 F333.3
X-18.327 Y-62.289 Z-0.601 I-0.327 J-0.327
X-17.673 Y-61.635 Z-0.652 I0.327 J0.327
X-18.327 Y-62.289 Z-0.703 I-0.327 J-0.327
X-17.673 Y-61.635 Z-0.754 I0.327 J0.327
X-18.327 Y-62.289 Z-0.804 I-0.327 J-0.327
X-17.673 Y-61.635 Z-0.855 I0.327 J0.327
X-18.327 Y-62.289 Z-0.906 I-0.327 J-0.327
X-17.673 Y-61.635 Z-0.957 I0.327 J0.327
X-18.438 Y-62.11 Z-1 I-0.327 J-0.327
S8000
X-17.562 Y-61.813 I0.438 J0.149 F1000
X-18.438 Y-62.11 I-0.438 J-0.149
S5000
X-17.562 Y-61.813 Z-1.051 I0.438 J0.149 F333.3
X-18.438 Y-62.11 Z-1.101 I-0.438 J-0.149
X-17.562 Y-61.813 Z-1.152 I0.438 J0.149
X-18.438 Y-62.11 Z-1.203 I-0.438 J-0.149
X-17.562 Y-61.813 Z-1.254 I0.438 J0.149
X-18.438 Y-62.11 Z-1.304 I-0.438 J-0.149
X-17.562 Y-61.813 Z-1.355 I0.438 J0.149
X-18.438 Y-62.11 Z-1.406 I-0.438 J-0.149
X-17.562 Y-61.813 Z-1.457 I0.438 J0.149
X-18.458 Y-61.901 Z-1.5 I-0.438 J-0.149
S8000
X-17.541 Y-62.022 I0.459 J-0.061 F1000
X-18.458 Y-61.901 I-0.459 J0.061
S5000
X-17.541 Y-62.022 Z-1.551 I0.459 J-0.061 F333.3
X-18.458 Y-61.901 Z-1.601 I-0.459 J0.061
X-17.541 Y-62.022 Z-1.652 I0.459 J-0.061
X-18.458 Y-61.901 Z-1.703 I-0.459 J0.061
X-17.541 Y-62.022 Z-1.754 I0.459 J-0.061
X-18.458 Y-61.901 Z-1.804 I-0.459 J0.061
X-17.541 Y-62.022 Z-1.855 I0.459 J-0.061
X-18.458 Y-61.901 Z-1.906 I-0.459 J0.061
X-17.541 Y-62.022 Z-1.957 I0.459 J-0.061
X-18.384 Y-61.705 Z-2 I-0.459 J0.061
S8000
X-17.616 Y-62.219 I0.384 J-0.257 F1000
X-18.384 Y-61.705 I-0.384 J0.257
S5000
X-17.616 Y-62.219 Z-2.051 I0.384 J-0.257 F333.3
X-18.384 Y-61.705 Z-2.101 I-0.384 J0.257
X-17.616 Y-62.219 Z-2.152 I0.384 J-0.257
X-18.384 Y-61.705 Z-2.203 I-0.384 J0.257
X-17.616 Y-62.219 Z-2.254 I0.384 J-0.257
X-18.384 Y-61.705 Z-2.304 I-0.384 J0.257
X-17.616 Y-62.219 Z-2.355 I0.384 J-0.257
X-18.384 Y-61.705 Z-2.406 I-0.384 J0.257
X-17.616 Y-62.219 Z-2.457 I0.384 J-0.257
X-18.231 Y-61.561 Z-2.5 I-0.384 J0.257
S8000
X-17.769 Y-62.363 I0.231 J-0.401 F1000
X-18.231 Y-61.561 I-0.231 J0.401
S5000
X-17.769 Y-62.363 Z-2.551 I0.231 J-0.401 F333.3
X-18.231 Y-61.561 Z-2.601 I-0.231 J0.401
X-17.769 Y-62.363 Z-2.652 I0.231 J-0.401
X-18.231 Y-61.561 Z-2.703 I-0.231 J0.401
X-17.769 Y-62.363 Z-2.754 I0.231 J-0.401
X-18.231 Y-61.561 Z-2.804 I-0.231 J0.401
X-17.769 Y-62.363 Z-2.855 I0.231 J-0.401
X-18.231 Y-61.561 Z-2.906 I-0.231 J0.401
X-17.769 Y-62.363 Z-2.957 I0.231 J-0.401
X-18.03 Y-61.5 Z-3 I-0.231 J0.401
S8000
X-17.97 Y-62.423 I0.03 J-0.462 F1000
X-18.03 Y-61.5 I-0.03 J0.462
S5000
X-17.97 Y-62.423 Z-3.051 I0.03 J-0.462 F333.3
X-18.03 Y-61.5 Z-3.101 I-0.03 J0.462
X-17.97 Y-62.423 Z-3.152 I0.03 J-0.462
X-17.945 Y-61.503 Z-3.2 I-0.03 J0.462
S8000
X-18.055 Y-62.421 I-0.055 J-0.459 F1000
X-17.945 Y-61.503 I0.055 J0.459
G0 Z5
X-16.095 Y-138.784
G1 Z2.5 F333.3
S5000
Y-131.087 Z2.231
X-16.42 Z2.22
Y-141.913 Z1.842
X-16.095 Z1.831
Y-131.087 Z1.453
X-16.42 Z1.441
Y-141.913 Z1.063
X-16.095 Z1.052
Y-131.087 Z0.674
X-16.42 Z0.662
Y-141.913 Z0.284
X-16.095 Z0.273
Y-131.087 Z-0.105
X-16.42 Z-0.116
Y-141.913 Z-0.494
X-16.257 Z-0.5
S8000
X-16.095 F1000
Y-131.087
X-16.42
Y-141.913
X-16.257
S5000
X-16.095 Z-0.506 F333.3
Y-131.087 Z-0.884
X-16.42 Z-0.895
Y-134.093 Z-1
S8000
Y-141.913 F1000
X-16.095
Y-131.087
X-16.42
Y-134.093
S5000
Y-141.913 Z-1.273 F333.3
X-16.095 Z-1.284
Y-135.739 Z-1.5
S8000
Y-131.087 F1000
X-16.42
Y-141.913
X-16.095
Y-135.739
S5000
Y-131.087 Z-1.662 F333.3
X-16.42 Z-1.674
Y-140.429 Z-2
S8000
Y-141.913 F1000
X-16.095
Y-135.739
Y-131.087
X-16.42
Y-140.429
S5000
Y-141.913 Z-2.052 F333.3
X-16.095 Z-2.063
Y-131.087 Z-2.441
X-16.42 Z-2.453
Y-132.448 Z-2.5
S8000
Y-140.429 F1000
Y-141.913
X-16.095
Y-131.087
X-16.42
Y-132.448
S5000
Y-141.913 Z-2.831 F333.3
X-16.095 Z-2.842
Y-137.384 Z-3
S8000
Y-131.087 F1000
X-16.42
Y-141.913
X-16.095
Y-137.384
S5000
Y-131.657 Z-3.2 F333.3
S8000
Y-131.087 F1000
X-16.42
Y-141.913
X-16.095
Y-131.657
G0 Z15

(2D-Kontur8)
X-29.509 Y-92.852
Z15
Z5
G1 Z2.5 F333.3
S5000
G2 X-30.265 Y-94.597 Z2.432 I-2.586 J0.085
G1 X-33.097 Y-97.428 Z2.292
G2 X-34.221 Y-97.893 Z2.249 I-1.123 J1.123
G1 X-35.642 Y-97.892 Z2.199
X-35.646
X-37.053 Y-97.887 Z2.15
X-37.057
X-38.454 Y-97.879 Z2.101
X-38.458
X-39.851 Y-97.867 Z2.052
X-39.855
X-41.25 Y-97.852 Z2.003
X-41.254
X-42.66 Y-97.833 Z1.954
X-42.664
X-44.09 Y-97.811 Z1.904
X-44.093
X-45.546 Y-97.785 Z1.853
X-45.549
X-47.038 Y-97.755 Z1.801
X-47.041
X-48.571 Y-97.722 Z1.747
X-48.574
X-50.152 Y-97.685 Z1.692
X-50.154
X-51.783 Y-97.645 Z1.635
X-51.785
X-53.466 Y-97.601 Z1.576
X-53.467
X-55.198 Y-97.555 Z1.516
X-56.974 Y-97.507 Z1.454
X-58.785 Y-97.458 Z1.391
X-60.619 Y-97.408 Z1.327
X-62.463 Y-97.359 Z1.262
X-64.302 Y-97.314 Z1.198
X-66.12 Y-97.274 Z1.134
X-67.903 Y-97.243 Z1.072
X-69.637 Y-97.223 Z1.012
X-71.307 Y-97.221 Z0.953
X-72.904 Y-97.239 Z0.897
X-74.424 Y-97.284 Z0.844
X-75.145 Y-97.318 Z0.819
X-75.848 Y-97.361 Z0.795
X-76.529 Y-97.413 Z0.771
X-77.189 Y-97.477 Z0.748
X-77.829 Y-97.553 Z0.725
X-78.451 Y-97.641 Z0.703
X-79.059 Y-97.743 Z0.682
X-79.655 Y-97.86 Z0.66
X-80.243 Y-97.99 Z0.639
X-80.828 Y-98.135 Z0.618
X-81.412 Y-98.294 Z0.597
X-81.994 Y-98.465 Z0.576
X-83.196 Y-98.844 Z0.532
X-84.426 Y-99.247 Z0.487
X-84.44 Y-99.252 Z0.486
X-85.706 Y-99.653 Z0.44
X-85.735 Y-99.662 Z0.439
X-86.382 Y-99.854 Z0.415
X-86.411 Y-99.862 Z0.414
X-87.069 Y-100.043 Z0.39
X-87.104 Y-100.053 Z0.389
X-87.774 Y-100.221 Z0.365
X-87.815 Y-100.231 Z0.363
X-88.498 Y-100.383 Z0.339
X-88.545 Y-100.393 Z0.337
X-89.242 Y-100.526 Z0.313
X-89.292 Y-100.535 Z0.311
X-90.003 Y-100.648 Z0.286
X-90.057 Y-100.656 Z0.284
X-90.782 Y-100.746 Z0.258
X-90.838 Y-100.751 Z0.256
X-91.578 Y-100.817 Z0.23
X-91.634 Y-100.821 Z0.228
X-92.388 Y-100.861 Z0.202
X-92.443 Y-100.863 Z0.2
X-93.21 Y-100.877 Z0.173
X-93.263 Z0.171
X-94.042 Y-100.865 Z0.144
X-94.091 Y-100.864 Z0.143
X-94.881 Y-100.828 Z0.115
X-94.928 Y-100.825 Z0.113
X-95.727 Y-100.764 Z0.085
X-95.771 Y-100.761 Z0.084
X-96.576 Y-100.677 Z0.056
X-96.619 Y-100.672 Z0.054
X-97.427 Y-100.566 Z0.026
X-97.469 Y-100.56 Z0.024
X-98.277 Y-100.432 Z-0.005
X-98.32 Y-100.425 Z-0.006
X-99.124 Y-100.275 Z-0.035
X-99.169 Y-100.266 Z-0.036
X-99.964 Y-100.094 Z-0.065
X-100.011 Y-100.083 Z-0.066
X-100.794 Y-99.889 Z-0.094
X-100.844 Y-99.875 Z-0.096
X-101.609 Y-99.658 Z-0.124
X-101.665 Y-99.641 Z-0.126
X-102.406 Y-99.402 Z-0.153
X-102.466 Y-99.381 Z-0.155
X-103.18 Y-99.118 Z-0.182
X-103.247 Y-99.091 Z-0.185
X-103.927 Y-98.805 Z-0.21
X-104.001 Y-98.771 Z-0.213
X-104.644 Y-98.461 Z-0.238
X-104.705 Y-98.43 Z-0.241
X-105.01 Y-98.266 Z-0.253
X-105.053 Y-98.242 Z-0.254
X-105.347 Y-98.072 Z-0.266
X-105.392 Y-98.045 Z-0.268
X-105.674 Y-97.869 Z-0.28
X-105.723 Y-97.838 Z-0.282
X-105.992 Y-97.657 Z-0.293
X-106.039 Y-97.624 Z-0.295
X-106.296 Y-97.436 Z-0.306
X-106.351 Y-97.394 Z-0.309
X-106.593 Y-97.201 Z-0.319
X-106.643 Y-97.16 Z-0.322
X-106.872 Y-96.961 Z-0.332
X-106.931 Y-96.908 Z-0.335
X-107.144 Y-96.703 Z-0.345
X-107.196 Y-96.651 Z-0.348
X-107.395 Y-96.441 Z-0.358
X-107.452 Y-96.378 Z-0.361
X-107.635 Y-96.163 Z-0.371
X-107.693 Y-96.091 Z-0.374
X-107.859 Y-95.871 Z-0.384
X-107.91 Y-95.801 Z-0.387
X-108.061 Y-95.576 Z-0.396
X-108.116 Y-95.488 Z-0.4
X-108.249 Y-95.259 Z-0.409
X-108.295 Y-95.174 Z-0.412
X-108.412 Y-94.942 Z-0.421
X-108.458 Y-94.842 Z-0.425
X-108.557 Y-94.605 Z-0.434
X-108.597 Y-94.501 Z-0.438
X-108.678 Y-94.261 Z-0.447
X-108.709 Y-94.158 Z-0.451
X-108.773 Y-93.915 Z-0.46
X-108.798 Y-93.803 Z-0.464
X-108.844 Y-93.558 Z-0.472
X-108.862 Y-93.438 Z-0.476
X-108.889 Y-93.191 Z-0.485
X-108.897 Y-93.076 Z-0.489
X-108.906 Y-92.828 Z-0.498
X-108.907 Y-92.766 Z-0.5
S8000
Y-92.719 F1000
X-108.899 Y-92.47
X-108.89 Y-92.344
X-108.862 Y-92.094
X-108.846 Y-91.989
X-108.801 Y-91.74
X-108.778 Y-91.632
X-108.715 Y-91.383
X-108.685 Y-91.279
X-108.604 Y-91.031
X-108.57 Y-90.937
X-108.472 Y-90.691
X-108.431 Y-90.597
X-108.315 Y-90.352
X-108.272 Y-90.268
X-108.139 Y-90.026
X-108.095 Y-89.95
X-107.946 Y-89.711
X-107.896 Y-89.636
X-107.73 Y-89.401
X-107.681 Y-89.335
X-107.499 Y-89.103
X-107.447 Y-89.041
X-107.249 Y-88.814
X-107.199 Y-88.759
X-106.986 Y-88.537
X-106.937 Y-88.488
X-106.71 Y-88.271
X-106.661 Y-88.226
X-106.42 Y-88.014
X-106.367 Y-87.97
X-106.111 Y-87.764
X-106.065 Y-87.728
X-105.797 Y-87.528
X-105.748 Y-87.494
X-105.467 Y-87.3
X-105.423 Y-87.271
X-105.131 Y-87.084
X-105.082 Y-87.054
X-104.777 Y-86.874
X-104.735 Y-86.849
X-104.42 Y-86.676
X-104.376 Y-86.653
X-104.051 Y-86.488
X-104.009 Y-86.467
X-103.674 Y-86.308
X-103.633 Y-86.29
X-103.289 Y-86.139
X-103.249 Y-86.122
X-102.897 Y-85.979
X-102.858 Y-85.963
X-102.498 Y-85.828
X-102.441 Y-85.808
X-101.701 Y-85.561
X-101.628 Y-85.539
X-100.864 Y-85.324
X-100.793 Y-85.306
X-100.011 Y-85.125
X-99.943 Y-85.111
X-99.147 Y-84.962
X-99.082 Y-84.952
X-98.277 Y-84.836
X-98.215 Y-84.828
X-97.405 Y-84.744
X-97.345 Y-84.739
X-96.534 Y-84.686
X-96.476 Y-84.683
X-95.668 Y-84.66
X-95.613 Y-84.659
X-94.811 Y-84.663
X-94.76 Y-84.665
X-93.966 Y-84.695
X-93.917 Y-84.697
X-93.134 Y-84.752
X-93.088 Y-84.756
X-92.318 Y-84.831
X-92.275 Y-84.836
X-91.518 Y-84.931
X-91.479 Y-84.936
X-90.737 Y-85.048
X-90.701 Y-85.054
X-89.973 Y-85.18
X-89.941 Y-85.186
X-89.228 Y-85.325
X-89.2 Y-85.331
X-88.502 Y-85.48
X-88.466 Y-85.488
X-87.113 Y-85.81
X-87.079 Y-85.819
X-85.776 Y-86.159
X-85.758 Y-86.164
X-84.496 Y-86.509
X-83.27 Y-86.844
X-82.074 Y-87.155
X-80.882 Y-87.438
X-80.292 Y-87.565
X-79.692 Y-87.683
X-79.084 Y-87.792
X-78.465 Y-87.892
X-77.832 Y-87.981
X-77.185 Y-88.062
X-76.52 Y-88.132
X-75.836 Y-88.194
X-75.132 Y-88.246
X-74.412 Y-88.289
X-72.895 Y-88.35
X-71.303 Y-88.381
X-69.639 Y-88.384
X-67.911 Y-88.364
X-66.133 Y-88.327
X-64.317 Y-88.276
X-62.48 Y-88.218
X-60.637 Y-88.156
X-58.803 Y-88.093
X-58.801
X-56.991 Y-88.035
X-56.987
X-55.213 Y-87.981
X-55.209
X-53.479 Y-87.933
X-53.475
X-51.795 Y-87.891
X-51.791
X-50.163 Y-87.853
X-50.161 Y-87.852
X-48.583 Y-87.818
X-48.582
X-47.052 Y-87.785
X-47.051
X-45.563 Y-87.755
X-45.561
X-44.109 Y-87.727
X-44.107
X-42.682 Y-87.702
X-42.679
X-41.274 Y-87.679
X-41.27
X-39.875 Y-87.66
X-39.871
X-38.479 Y-87.644
X-38.474
X-37.078 Y-87.632
X-37.073
X-35.666 Y-87.625
X-35.661
X-34.24 Y-87.623
G2 X-33.115 Y-88.088 I0.003 J-1.587
G1 X-30.265 Y-90.937
G2 X-30.265 Y-94.597 I-1.83 J-1.83
G1 X-33.097 Y-97.428
G2 X-34.221 Y-97.893 I-1.123 J1.123
G1 X-35.642 Y-97.892
X-35.646
X-37.053 Y-97.887
X-37.057
X-38.454 Y-97.879
X-38.458
X-39.851 Y-97.867
X-39.855
X-41.25 Y-97.852
X-41.254
X-42.66 Y-97.833
X-42.664
X-44.09 Y-97.811
X-44.093
X-45.546 Y-97.785
X-45.549
X-47.038 Y-97.755
X-47.041
X-48.571 Y-97.722
X-48.574
X-50.152 Y-97.685
X-50.154
X-51.783 Y-97.645
X-51.785
X-53.466 Y-97.601
X-53.467
X-55.198 Y-97.555
X-56.974 Y-97.507
X-58.785 Y-97.458
X-60.619 Y-97.408
X-62.463 Y-97.359
X-64.302 Y-97.314
X-66.12 Y-97.274
X-67.903 Y-97.243
X-69.637 Y-97.223
X-71.307 Y-97.221
X-72.904 Y-97.239
X-74.424 Y-97.284
X-75.145 Y-97.318
X-75.848 Y-97.361
X-76.529 Y-97.413
X-77.189 Y-97.477
X-77.829 Y-97.553
X-78.451 Y-97.641
X-79.059 Y-97.743
X-79.655 Y-97.86
X-80.243 Y-97.99
X-80.828 Y-98.135
X-81.412 Y-98.294
X-81.994 Y-98.465
X-83.196 Y-98.844
X-84.426 Y-99.247
X-84.44 Y-99.252
X-85.706 Y-99.653
X-85.735 Y-99.662
X-86.382 Y-99.854
X-86.411 Y-99.862
X-87.069 Y-100.043
X-87.104 Y-100.053
X-87.774 Y-100.221
X-87.815 Y-100.231
X-88.498 Y-100.383
X-88.545 Y-100.393
X-89.242 Y-100.526
X-89.292 Y-100.535
X-90.003 Y-100.648
X-90.057 Y-100.656
X-90.782 Y-100.746
X-90.838 Y-100.751
X-91.578 Y-100.817
X-91.634 Y-100.821
X-92.388 Y-100.861
X-92.443 Y-100.863
X-93.21 Y-100.877
X-93.263
X-94.042 Y-100.865
X-94.091 Y-100.864
X-94.881 Y-100.828
X-94.928 Y-100.825
X-95.727 Y-100.764
X-95.771 Y-100.761
X-96.576 Y-100.677
X-96.619 Y-100.672
X-97.427 Y-100.566
X-97.469 Y-100.56
X-98.277 Y-100.432
X-98.32 Y-100.425
X-99.124 Y-100.275
X-99.169 Y-100.266
X-99.964 Y-100.094
X-100.011 Y-100.083
X-100.794 Y-99.889
X-100.844 Y-99.875
X-101.609 Y-99.658
X-101.665 Y-99.641
X-102.406 Y-99.402
X-102.466 Y-99.381
X-103.18 Y-99.118
X-103.247 Y-99.091
X-103.927 Y-98.805
X-104.001 Y-98.771
X-104.644 Y-98.461
X-104.705 Y-98.43
X-105.01 Y-98.266
X-105.053 Y-98.242
X-105.347 Y-98.072
X-105.392 Y-98.045
X-105.674 Y-97.869
X-105.723 Y-97.838
X-105.992 Y-97.657
X-106.039 Y-97.624
X-106.296 Y-97.436
X-106.351 Y-97.394
X-106.593 Y-97.201
X-106.643 Y-97.16
X-106.872 Y-96.961
X-106.931 Y-96.908
X-107.144 Y-96.703
X-107.196 Y-96.651
X-107.395 Y-96.441
X-107.452 Y-96.378
X-107.635 Y-96.163
X-107.693 Y-96.091
X-107.859 Y-95.871
X-107.91 Y-95.801
X-108.061 Y-95.576
X-108.116 Y-95.488
X-108.249 Y-95.259
X-108.295 Y-95.174
X-108.412 Y-94.942
X-108.458 Y-94.842
X-108.557 Y-94.605
X-108.597 Y-94.501
X-108.678 Y-94.261
X-108.709 Y-94.158
X-108.773 Y-93.915
X-108.798 Y-93.803
X-108.844 Y-93.558
X-108.862 Y-93.438
X-108.889 Y-93.191
X-108.897 Y-93.076
X-108.906 Y-92.828
X-108.907 Y-92.766
G0 Z5
X-29.518 Y-71.865
G1 Z2.5 F333.3
S5000
G2 X-30.265 Y-73.93 Z2.421 I-2.577 J-0.235
G1 X-33.097 Y-76.762 Z2.281
G2 X-34.221 Y-77.227 Z2.237 I-1.123 J1.123
G1 X-35.642 Y-77.225 Z2.188
X-35.646
X-37.053 Y-77.22 Z2.138
X-37.057
X-38.454 Y-77.212 Z2.09
X-38.458 Z2.089
X-39.851 Y-77.2 Z2.041
X-39.855
X-41.25 Y-77.185 Z1.992
X-41.254
X-42.66 Y-77.167 Z1.943
X-42.664
X-44.09 Y-77.145 Z1.893
X-44.093 Y-77.144
X-45.546 Y-77.119 Z1.842
X-45.549 Y-77.118
X-47.038 Y-77.089 Z1.79
X-47.041
X-48.571 Y-77.055 Z1.736
X-48.574
X-50.152 Y-77.018 Z1.681
X-50.154
X-51.783 Y-76.978 Z1.624
X-51.785
X-53.466 Y-76.935 Z1.565
X-53.467
X-55.198 Y-76.889 Z1.505
X-56.974 Y-76.84 Z1.443
X-58.785 Y-76.791 Z1.379
X-60.619 Y-76.741 Z1.315
X-62.463 Y-76.693 Z1.251
X-64.302 Y-76.647 Z1.187
X-66.12 Y-76.607 Z1.123
X-67.903 Y-76.576 Z1.061
X-69.637 Y-76.557 Z1
X-71.307 Y-76.554 Z0.942
X-72.904 Y-76.573 Z0.886
X-74.424 Y-76.617 Z0.833
X-75.145 Y-76.651 Z0.808
X-75.848 Y-76.694 Z0.783
X-76.529 Y-76.747 Z0.76
X-77.189 Y-76.81 Z0.736
X-77.829 Y-76.886 Z0.714
X-78.451 Y-76.974 Z0.692
X-79.058 Y-77.077 Z0.67
X-79.655 Y-77.193 Z0.649
X-80.243 Y-77.324 Z0.628
X-80.828 Y-77.469 Z0.607
X-81.411 Y-77.628 Z0.586
X-81.994 Y-77.798 Z0.565
X-83.196 Y-78.177 Z0.521
X-84.426 Y-78.58 Z0.476
X-84.44 Y-78.585 Z0.475
X-85.706 Y-78.987 Z0.429
X-85.735 Y-78.995 Z0.428
X-86.382 Y-79.187 Z0.404
X-86.411 Y-79.195 Z0.403
X-87.069 Y-79.377 Z0.379
X-87.104 Y-79.386 Z0.378
X-87.774 Y-79.554 Z0.354
X-87.815 Y-79.564 Z0.352
X-88.498 Y-79.716 Z0.328
X-88.544 Y-79.726 Z0.326
X-89.241 Y-79.86 Z0.301
X-89.292 Y-79.869 Z0.3
X-90.003 Y-79.981 Z0.274
X-90.057 Y-79.989 Z0.273
X-90.782 Y-80.079 Z0.247
X-90.838 Y-80.085 Z0.245
X-91.578 Y-80.15 Z0.219
X-91.634 Y-80.154 Z0.217
X-92.388 Y-80.194 Z0.191
X-92.443 Y-80.196 Z0.189
X-93.21 Y-80.21 Z0.162
X-93.263 Z0.16
X-94.042 Y-80.199 Z0.133
X-94.091 Y-80.197 Z0.131
X-94.881 Y-80.161 Z0.104
X-94.928 Y-80.158 Z0.102
X-95.727 Y-80.098 Z0.074
X-95.771 Y-80.094 Z0.073
X-96.576 Y-80.01 Z0.044
X-96.619 Y-80.005 Z0.043
X-97.427 Y-79.9 Z0.014
X-97.469 Y-79.893 Z0.013
X-98.277 Y-79.766 Z-0.016
X-98.32 Y-79.758 Z-0.017
X-99.124 Y-79.608 Z-0.046
X-99.168 Y-79.599 Z-0.047
X-99.964 Y-79.427 Z-0.076
X-100.011 Y-79.416 Z-0.077
X-100.794 Y-79.222 Z-0.106
X-100.844 Y-79.209 Z-0.107
X-101.609 Y-78.992 Z-0.135
X-101.665 Y-78.975 Z-0.137
X-102.406 Y-78.735 Z-0.164
X-102.466 Y-78.714 Z-0.167
X-103.18 Y-78.451 Z-0.193
X-103.247 Y-78.424 Z-0.196
X-103.927 Y-78.138 Z-0.222
X-104.001 Y-78.105 Z-0.224
X-104.644 Y-77.795 Z-0.249
X-104.705 Y-77.763 Z-0.252
X-105.01 Y-77.599 Z-0.264
X-105.053 Y-77.576 Z-0.266
X-105.347 Y-77.406 Z-0.277
X-105.392 Y-77.378 Z-0.279
X-105.674 Y-77.203 Z-0.291
X-105.723 Y-77.171 Z-0.293
X-105.992 Y-76.99 Z-0.304
X-106.039 Y-76.957 Z-0.306
X-106.296 Y-76.77 Z-0.317
X-106.351 Y-76.727 Z-0.32
X-106.593 Y-76.534 Z-0.331
X-106.643 Y-76.493 Z-0.333
X-106.872 Y-76.294 Z-0.343
X-106.931 Y-76.241 Z-0.346
X-107.144 Y-76.037 Z-0.356
X-107.196 Y-75.984 Z-0.359
X-107.395 Y-75.775 Z-0.369
X-107.452 Y-75.711 Z-0.372
X-107.635 Y-75.496 Z-0.382
X-107.693 Y-75.424 Z-0.385
X-107.859 Y-75.205 Z-0.395
X-107.91 Y-75.134 Z-0.398
X-108.061 Y-74.909 Z-0.407
X-108.116 Y-74.821 Z-0.411
X-108.249 Y-74.593 Z-0.42
X-108.295 Y-74.507 Z-0.424
X-108.412 Y-74.275 Z-0.433
X-108.458 Y-74.175 Z-0.436
X-108.557 Y-73.939 Z-0.445
X-108.597 Y-73.834 Z-0.449
X-108.678 Y-73.594 Z-0.458
X-108.709 Y-73.491 Z-0.462
X-108.773 Y-73.249 Z-0.471
X-108.798 Y-73.136 Z-0.475
X-108.844 Y-72.892 Z-0.483
X-108.862 Y-72.771 Z-0.488
X-108.889 Y-72.524 Z-0.496
X-108.897 Y-72.419 Z-0.5
S8000
Y-72.409 F1000
X-108.906 Y-72.161
X-108.907 Y-72.053
X-108.899 Y-71.803
X-108.89 Y-71.677
X-108.862 Y-71.427
X-108.846 Y-71.323
X-108.801 Y-71.073
X-108.778 Y-70.965
X-108.715 Y-70.716
X-108.685 Y-70.613
X-108.604 Y-70.364
X-108.57 Y-70.271
X-108.472 Y-70.024
X-108.431 Y-69.93
X-108.315 Y-69.685
X-108.272 Y-69.601
X-108.139 Y-69.359
X-108.095 Y-69.284
X-107.946 Y-69.045
X-107.896 Y-68.97
X-107.73 Y-68.735
X-107.681 Y-68.668
X-107.499 Y-68.437
X-107.447 Y-68.375
X-107.249 Y-68.148
X-107.199 Y-68.093
X-106.986 Y-67.87
X-106.937 Y-67.822
X-106.71 Y-67.605
X-106.661 Y-67.559
X-106.42 Y-67.348
X-106.367 Y-67.303
X-106.111 Y-67.097
X-106.065 Y-67.062
X-105.797 Y-66.862
X-105.748 Y-66.827
X-105.467 Y-66.634
X-105.423 Y-66.604
X-105.131 Y-66.417
X-105.083 Y-66.387
X-104.778 Y-66.207
X-104.734 Y-66.183
X-104.419 Y-66.01
X-104.377 Y-65.987
X-104.052 Y-65.821
X-104.009 Y-65.8
X-103.674 Y-65.642
X-103.633 Y-65.623
X-103.289 Y-65.472
X-103.249 Y-65.455
X-102.897 Y-65.312
X-102.858 Y-65.297
X-102.498 Y-65.161
X-102.441 Y-65.141
X-101.701 Y-64.894
X-101.628 Y-64.872
X-100.864 Y-64.658
X-100.793 Y-64.64
X-100.011 Y-64.458
X-99.943 Y-64.444
X-99.147 Y-64.296
X-99.082 Y-64.285
X-98.277 Y-64.169
X-98.215 Y-64.161
X-97.405 Y-64.077
X-97.345 Y-64.072
X-96.534 Y-64.019
X-96.476 Y-64.016
X-95.668 Y-63.993
X-95.613 Y-63.992
X-94.811 Y-63.997
X-94.759 Y-63.998
X-93.966 Y-64.028
X-93.917 Y-64.031
X-93.134 Y-64.085
X-93.088 Y-64.089
X-92.318 Y-64.165
X-92.276 Y-64.169
X-91.518 Y-64.264
X-91.479 Y-64.269
X-90.737 Y-64.381
X-90.701 Y-64.387
X-89.973 Y-64.513
X-89.941 Y-64.519
X-89.228 Y-64.658
X-89.2 Y-64.664
X-88.502 Y-64.813
X-88.467 Y-64.821
X-87.113 Y-65.143
X-87.079 Y-65.152
X-85.776 Y-65.493
X-85.758 Y-65.497
X-84.496 Y-65.842
X-83.27 Y-66.177
X-82.074 Y-66.489
X-80.882 Y-66.772
X-80.292 Y-66.898
X-79.692 Y-67.017
X-79.084 Y-67.126
X-78.465 Y-67.225
X-77.833 Y-67.315
X-77.185 Y-67.395
X-76.52 Y-67.466
X-75.836 Y-67.527
X-75.132 Y-67.579
X-74.412 Y-67.622
X-72.895 Y-67.684
X-71.303 Y-67.714
X-69.639 Y-67.717
X-67.911 Y-67.697
X-66.133 Y-67.66
X-64.317 Y-67.61
X-62.48 Y-67.551
X-60.637 Y-67.489
X-58.803 Y-67.427
X-58.801
X-56.991 Y-67.368
X-56.987
X-55.213 Y-67.314
X-55.209
X-53.479 Y-67.267
X-53.475 Y-67.266
X-51.794 Y-67.224
X-51.792
X-50.163 Y-67.186
X-50.161
X-48.583 Y-67.151
X-48.582
X-47.052 Y-67.119
X-47.051
X-45.563 Y-67.089
X-45.561 Y-67.088
X-44.109 Y-67.061
X-44.107
X-42.682 Y-67.035
X-42.679
X-41.274 Y-67.013
X-41.27
X-39.875 Y-66.993
X-39.871
X-38.479 Y-66.977
X-38.474
X-37.078 Y-66.966
X-37.073
X-35.666 Y-66.958
X-35.661
X-34.24 Y-66.956
G2 X-33.115 Y-67.421 I0.003 J-1.588
G1 X-30.265 Y-70.271
G2 X-30.265 Y-73.93 I-1.83 J-1.83
G1 X-33.097 Y-76.762
G2 X-34.221 Y-77.227 I-1.123 J1.123
G1 X-35.642 Y-77.225
X-35.646
X-37.053 Y-77.22
X-37.057
X-38.454 Y-77.212
X-38.458
X-39.851 Y-77.2
X-39.855
X-41.25 Y-77.185
X-41.254
X-42.66 Y-77.167
X-42.664
X-44.09 Y-77.145
X-44.093 Y-77.144
X-45.546 Y-77.119
X-45.549 Y-77.118
X-47.038 Y-77.089
X-47.041
X-48.571 Y-77.055
X-48.574
X-50.152 Y-77.018
X-50.154
X-51.783 Y-76.978
X-51.785
X-53.466 Y-76.935
X-53.467
X-55.198 Y-76.889
X-56.974 Y-76.84
X-58.785 Y-76.791
X-60.619 Y-76.741
X-62.463 Y-76.693
X-64.302 Y-76.647
X-66.12 Y-76.607
X-67.903 Y-76.576
X-69.637 Y-76.557
X-71.307 Y-76.554
X-72.904 Y-76.573
X-74.424 Y-76.617
X-75.145 Y-76.651
X-75.848 Y-76.694
X-76.529 Y-76.747
X-77.189 Y-76.81
X-77.829 Y-76.886
X-78.451 Y-76.974
X-79.058 Y-77.077
X-79.655 Y-77.193
X-80.243 Y-77.324
X-80.828 Y-77.469
X-81.411 Y-77.628
X-81.994 Y-77.798
X-83.196 Y-78.177
X-84.426 Y-78.58
X-84.44 Y-78.585
X-85.706 Y-78.987
X-85.735 Y-78.995
X-86.382 Y-79.187
X-86.411 Y-79.195
X-87.069 Y-79.377
X-87.104 Y-79.386
X-87.774 Y-79.554
X-87.815 Y-79.564
X-88.498 Y-79.716
X-88.544 Y-79.726
X-89.241 Y-79.86
X-89.292 Y-79.869
X-90.003 Y-79.981
X-90.057 Y-79.989
X-90.782 Y-80.079
X-90.838 Y-80.085
X-91.578 Y-80.15
X-91.634 Y-80.154
X-92.388 Y-80.194
X-92.443 Y-80.196
X-93.21 Y-80.21
X-93.263
X-94.042 Y-80.199
X-94.091 Y-80.197
X-94.881 Y-80.161
X-94.928 Y-80.158
X-95.727 Y-80.098
X-95.771 Y-80.094
X-96.576 Y-80.01
X-96.619 Y-80.005
X-97.427 Y-79.9
X-97.469 Y-79.893
X-98.277 Y-79.766
X-98.32 Y-79.758
X-99.124 Y-79.608
X-99.168 Y-79.599
X-99.964 Y-79.427
X-100.011 Y-79.416
X-100.794 Y-79.222
X-100.844 Y-79.209
X-101.609 Y-78.992
X-101.665 Y-78.975
X-102.406 Y-78.735
X-102.466 Y-78.714
X-103.18 Y-78.451
X-103.247 Y-78.424
X-103.927 Y-78.138
X-104.001 Y-78.105
X-104.644 Y-77.795
X-104.705 Y-77.763
X-105.01 Y-77.599
X-105.053 Y-77.576
X-105.347 Y-77.406
X-105.392 Y-77.378
X-105.674 Y-77.203
X-105.723 Y-77.171
X-105.992 Y-76.99
X-106.039 Y-76.957
X-106.296 Y-76.77
X-106.351 Y-76.727
X-106.593 Y-76.534
X-106.643 Y-76.493
X-106.872 Y-76.294
X-106.931 Y-76.241
X-107.144 Y-76.037
X-107.196 Y-75.984
X-107.395 Y-75.775
X-107.452 Y-75.711
X-107.635 Y-75.496
X-107.693 Y-75.424
X-107.859 Y-75.205
X-107.91 Y-75.134
X-108.061 Y-74.909
X-108.116 Y-74.821
X-108.249 Y-74.593
X-108.295 Y-74.507
X-108.412 Y-74.275
X-108.458 Y-74.175
X-108.557 Y-73.939
X-108.597 Y-73.834
X-108.678 Y-73.594
X-108.709 Y-73.491
X-108.773 Y-73.249
X-108.798 Y-73.136
X-108.844 Y-72.892
X-108.862 Y-72.771
X-108.889 Y-72.524
X-108.897 Y-72.419
G0 Z5
X-29.519 Y-51.186
G1 Z2.5 F333.3
S5000
G2 X-30.265 Y-53.263 Z2.42 I-2.576 J-0.248
G1 X-33.097 Y-56.095 Z2.281
G2 X-34.221 Y-56.56 Z2.237 I-1.123 J1.123
G1 X-35.642 Y-56.558 Z2.187
X-35.646
X-37.053 Y-56.553 Z2.138
X-37.057
X-38.454 Y-56.545 Z2.089
X-38.458
X-39.851 Y-56.534 Z2.04
X-39.855
X-41.25 Y-56.519 Z1.991
X-41.254
X-42.66 Y-56.5 Z1.942
X-42.664
X-44.09 Y-56.478 Z1.892
X-44.093
X-45.546 Y-56.452 Z1.841
X-45.549
X-47.038 Y-56.422 Z1.789
X-47.041
X-48.571 Y-56.389 Z1.736
X-48.574
X-50.152 Y-56.352 Z1.681
X-50.154 Z1.68
X-51.783 Y-56.311 Z1.624
X-51.785
X-53.466 Y-56.268 Z1.565
X-53.467
X-55.198 Y-56.222 Z1.504
X-56.974 Y-56.174 Z1.442
X-58.785 Y-56.124 Z1.379
X-60.619 Y-56.074 Z1.315
X-62.463 Y-56.026 Z1.251
X-64.302 Y-55.981 Z1.186
X-66.12 Y-55.941 Z1.123
X-67.904 Y-55.909 Z1.06
X-69.637 Y-55.89 Z1
X-71.307 Y-55.887 Z0.942
X-72.904 Y-55.906 Z0.886
X-74.424 Y-55.951 Z0.833
X-75.145 Y-55.984 Z0.808
X-75.848 Y-56.027 Z0.783
X-76.529 Y-56.08 Z0.759
X-77.189 Y-56.144 Z0.736
X-77.829 Y-56.219 Z0.713
X-78.451 Y-56.308 Z0.691
X-79.059 Y-56.41 Z0.67
X-79.655 Y-56.526 Z0.649
X-80.243 Y-56.657 Z0.628
X-80.828 Y-56.802 Z0.607
X-81.411 Y-56.961 Z0.586
X-81.994 Y-57.131 Z0.564
X-83.196 Y-57.51 Z0.52
X-84.426 Y-57.914 Z0.475
X-84.44 Y-57.918
X-85.706 Y-58.32 Z0.428
X-85.735 Y-58.329 Z0.427
X-86.382 Y-58.52 Z0.404
X-86.411 Y-58.529 Z0.403
X-87.068 Y-58.71 Z0.379
X-87.104 Y-58.719 Z0.377
X-87.774 Y-58.888 Z0.353
X-87.815 Y-58.897 Z0.352
X-88.498 Y-59.05 Z0.327
X-88.544 Y-59.059 Z0.326
X-89.241 Y-59.193 Z0.301
X-89.292 Y-59.202 Z0.299
X-90.003 Y-59.315 Z0.274
X-90.057 Y-59.322 Z0.272
X-90.782 Y-59.412 Z0.247
X-90.838 Y-59.418 Z0.245
X-91.578 Y-59.484 Z0.219
X-91.634 Y-59.487 Z0.217
X-92.388 Y-59.527 Z0.19
X-92.443 Y-59.529 Z0.188
X-93.21 Y-59.543 Z0.162
X-93.262 Y-59.544 Z0.16
X-94.042 Y-59.532 Z0.133
X-94.092 Y-59.531 Z0.131
X-94.882 Y-59.494 Z0.103
X-94.928 Y-59.491 Z0.102
X-95.727 Y-59.431 Z0.074
X-95.771 Y-59.427 Z0.072
X-96.576 Y-59.344 Z0.044
X-96.618 Y-59.339 Z0.042
X-97.427 Y-59.233 Z0.014
X-97.469 Y-59.227 Z0.012
X-98.277 Y-59.099 Z-0.016
X-98.32 Y-59.092 Z-0.018
X-99.124 Y-58.942 Z-0.046
X-99.168 Y-58.933 Z-0.048
X-99.964 Y-58.761 Z-0.076
X-100.011 Y-58.75 Z-0.078
X-100.794 Y-58.555 Z-0.106
X-100.844 Y-58.542 Z-0.108
X-101.609 Y-58.325 Z-0.136
X-101.665 Y-58.308 Z-0.138
X-102.406 Y-58.068 Z-0.165
X-102.466 Y-58.047 Z-0.167
X-103.18 Y-57.784 Z-0.194
X-103.247 Y-57.758 Z-0.196
X-103.927 Y-57.471 Z-0.222
X-104 Y-57.438 Z-0.225
X-104.643 Y-57.128 Z-0.25
X-104.705 Y-57.097 Z-0.252
X-105.01 Y-56.933 Z-0.264
X-105.053 Y-56.909 Z-0.266
X-105.347 Y-56.739 Z-0.278
X-105.392 Y-56.712 Z-0.28
X-105.674 Y-56.536 Z-0.291
X-105.723 Y-56.505 Z-0.293
X-105.992 Y-56.323 Z-0.305
X-106.039 Y-56.29 Z-0.307
X-106.296 Y-56.103 Z-0.318
X-106.351 Y-56.061 Z-0.32
X-106.593 Y-55.868 Z-0.331
X-106.643 Y-55.826 Z-0.333
X-106.872 Y-55.627 Z-0.344
X-106.93 Y-55.574 Z-0.347
X-107.143 Y-55.37 Z-0.357
X-107.196 Y-55.317 Z-0.359
X-107.395 Y-55.108 Z-0.37
X-107.452 Y-55.045 Z-0.373
X-107.635 Y-54.83 Z-0.382
X-107.693 Y-54.757 Z-0.386
X-107.859 Y-54.538 Z-0.395
X-107.91 Y-54.467 Z-0.398
X-108.061 Y-54.243 Z-0.408
X-108.116 Y-54.155 Z-0.411
X-108.249 Y-53.926 Z-0.421
X-108.295 Y-53.841 Z-0.424
X-108.412 Y-53.608 Z-0.433
X-108.458 Y-53.508 Z-0.437
X-108.557 Y-53.272 Z-0.446
X-108.597 Y-53.167 Z-0.45
X-108.678 Y-52.928 Z-0.459
X-108.709 Y-52.824 Z-0.462
X-108.773 Y-52.582 Z-0.471
X-108.798 Y-52.47 Z-0.475
X-108.844 Y-52.225 Z-0.484
X-108.862 Y-52.104 Z-0.488
X-108.889 Y-51.858 Z-0.497
X-108.896 Y-51.765 Z-0.5
S8000
X-108.897 Y-51.743 F1000
X-108.906 Y-51.494
X-108.907 Y-51.386
X-108.899 Y-51.136
X-108.89 Y-51.011
X-108.862 Y-50.761
X-108.846 Y-50.656
X-108.801 Y-50.406
X-108.778 Y-50.299
X-108.715 Y-50.05
X-108.685 Y-49.946
X-108.604 Y-49.698
X-108.57 Y-49.604
X-108.472 Y-49.357
X-108.431 Y-49.263
X-108.315 Y-49.019
X-108.272 Y-48.934
X-108.139 Y-48.692
X-108.095 Y-48.617
X-107.946 Y-48.378
X-107.896 Y-48.303
X-107.73 Y-48.068
X-107.681 Y-48.001
X-107.499 Y-47.77
X-107.447 Y-47.708
X-107.249 Y-47.481
X-107.199 Y-47.426
X-106.986 Y-47.204
X-106.937 Y-47.155
X-106.71 Y-46.938
X-106.66 Y-46.892
X-106.419 Y-46.681
X-106.367 Y-46.637
X-106.111 Y-46.431
X-106.065 Y-46.395
X-105.797 Y-46.195
X-105.748 Y-46.16
X-105.467 Y-45.967
X-105.423 Y-45.937
X-105.131 Y-45.75
X-105.082 Y-45.721
X-104.777 Y-45.54
X-104.735 Y-45.516
X-104.42 Y-45.343
X-104.377 Y-45.32
X-104.052 Y-45.154
X-104.009 Y-45.133
X-103.674 Y-44.975
X-103.633 Y-44.956
X-103.289 Y-44.805
X-103.249 Y-44.789
X-102.897 Y-44.645
X-102.857 Y-44.63
X-102.497 Y-44.494
X-102.441 Y-44.475
X-101.701 Y-44.228
X-101.628 Y-44.205
X-100.864 Y-43.991
X-100.793 Y-43.973
X-100.011 Y-43.792
X-99.943 Y-43.778
X-99.147 Y-43.629
X-99.083 Y-43.618
X-98.277 Y-43.502
X-98.215 Y-43.495
X-97.405 Y-43.411
X-97.345 Y-43.405
X-96.534 Y-43.352
X-96.476 Y-43.35
X-95.668 Y-43.326
X-95.613
X-94.811 Y-43.33
X-94.759 Y-43.331
X-93.966 Y-43.362
X-93.917 Y-43.364
X-93.134 Y-43.418
X-93.088 Y-43.422
X-92.318 Y-43.498
X-92.275 Y-43.503
X-91.518 Y-43.598
X-91.48 Y-43.603
X-90.737 Y-43.715
X-90.701 Y-43.72
X-89.973 Y-43.847
X-89.941 Y-43.853
X-89.228 Y-43.991
X-89.2 Y-43.997
X-88.502 Y-44.147
X-88.466 Y-44.155
X-87.113 Y-44.477
X-87.079 Y-44.485
X-85.776 Y-44.826
X-85.758 Y-44.83
X-84.496 Y-45.176
X-83.27 Y-45.51
X-82.074 Y-45.822
X-80.882 Y-46.105
X-80.292 Y-46.231
X-79.692 Y-46.35
X-79.084 Y-46.459
X-78.465 Y-46.558
X-77.833 Y-46.648
X-77.185 Y-46.728
X-76.52 Y-46.799
X-75.836 Y-46.86
X-75.132 Y-46.912
X-74.412 Y-46.955
X-72.895 Y-47.017
X-71.303 Y-47.047
X-69.639 Y-47.05
X-67.911 Y-47.031
X-66.133 Y-46.993
X-64.317 Y-46.943
X-62.48 Y-46.884
X-60.637 Y-46.822
X-58.803 Y-46.76
X-58.801
X-56.991 Y-46.701
X-56.987
X-55.213 Y-46.648
X-55.209
X-53.479 Y-46.6
X-53.475
X-51.794 Y-46.557
X-51.792
X-50.163 Y-46.519
X-50.161
X-48.583 Y-46.484
X-48.582
X-47.052 Y-46.452
X-47.051
X-45.563 Y-46.422
X-45.561
X-44.109 Y-46.394
X-44.107
X-42.682 Y-46.369
X-42.679
X-41.274 Y-46.346
X-41.27
X-39.875 Y-46.326
X-39.871
X-38.479 Y-46.311
X-38.474
X-37.078 Y-46.299
X-37.073
X-35.666 Y-46.292
X-35.661
X-34.24 Y-46.289
G2 X-33.115 Y-46.754 I0.003 J-1.587
G1 X-30.265 Y-49.604
G2 X-30.265 Y-53.263 I-1.83 J-1.83
G1 X-33.097 Y-56.095
G2 X-34.221 Y-56.56 I-1.123 J1.123
G1 X-35.642 Y-56.558
X-35.646
X-37.053 Y-56.553
X-37.057
X-38.454 Y-56.545
X-38.458
X-39.851 Y-56.534
X-39.855
X-41.25 Y-56.519
X-41.254
X-42.66 Y-56.5
X-42.664
X-44.09 Y-56.478
X-44.093
X-45.546 Y-56.452
X-45.549
X-47.038 Y-56.422
X-47.041
X-48.571 Y-56.389
X-48.574
X-50.152 Y-56.352
X-50.154
X-51.783 Y-56.311
X-51.785
X-53.466 Y-56.268
X-53.467
X-55.198 Y-56.222
X-56.974 Y-56.174
X-58.785 Y-56.124
X-60.619 Y-56.074
X-62.463 Y-56.026
X-64.302 Y-55.981
X-66.12 Y-55.941
X-67.904 Y-55.909
X-69.637 Y-55.89
X-71.307 Y-55.887
X-72.904 Y-55.906
X-74.424 Y-55.951
X-75.145 Y-55.984
X-75.848 Y-56.027
X-76.529 Y-56.08
X-77.189 Y-56.144
X-77.829 Y-56.219
X-78.451 Y-56.308
X-79.059 Y-56.41
X-79.655 Y-56.526
X-80.243 Y-56.657
X-80.828 Y-56.802
X-81.411 Y-56.961
X-81.994 Y-57.131
X-83.196 Y-57.51
X-84.426 Y-57.914
X-84.44 Y-57.918
X-85.706 Y-58.32
X-85.735 Y-58.329
X-86.382 Y-58.52
X-86.411 Y-58.529
X-87.068 Y-58.71
X-87.104 Y-58.719
X-87.774 Y-58.888
X-87.815 Y-58.897
X-88.498 Y-59.05
X-88.544 Y-59.059
X-89.241 Y-59.193
X-89.292 Y-59.202
X-90.003 Y-59.315
X-90.057 Y-59.322
X-90.782 Y-59.412
X-90.838 Y-59.418
X-91.578 Y-59.484
X-91.634 Y-59.487
X-92.388 Y-59.527
X-92.443 Y-59.529
X-93.21 Y-59.543
X-93.262 Y-59.544
X-94.042 Y-59.532
X-94.092 Y-59.531
X-94.882 Y-59.494
X-94.928 Y-59.491
X-95.727 Y-59.431
X-95.771 Y-59.427
X-96.576 Y-59.344
X-96.618 Y-59.339
X-97.427 Y-59.233
X-97.469 Y-59.227
X-98.277 Y-59.099
X-98.32 Y-59.092
X-99.124 Y-58.942
X-99.168 Y-58.933
X-99.964 Y-58.761
X-100.011 Y-58.75
X-100.794 Y-58.555
X-100.844 Y-58.542
X-101.609 Y-58.325
X-101.665 Y-58.308
X-102.406 Y-58.068
X-102.466 Y-58.047
X-103.18 Y-57.784
X-103.247 Y-57.758
X-103.927 Y-57.471
X-104 Y-57.438
X-104.643 Y-57.128
X-104.705 Y-57.097
X-105.01 Y-56.933
X-105.053 Y-56.909
X-105.347 Y-56.739
X-105.392 Y-56.712
X-105.674 Y-56.536
X-105.723 Y-56.505
X-105.992 Y-56.323
X-106.039 Y-56.29
X-106.296 Y-56.103
X-106.351 Y-56.061
X-106.593 Y-55.868
X-106.643 Y-55.826
X-106.872 Y-55.627
X-106.93 Y-55.574
X-107.143 Y-55.37
X-107.196 Y-55.317
X-107.395 Y-55.108
X-107.452 Y-55.045
X-107.635 Y-54.83
X-107.693 Y-54.757
X-107.859 Y-54.538
X-107.91 Y-54.467
X-108.061 Y-54.243
X-108.116 Y-54.155
X-108.249 Y-53.926
X-108.295 Y-53.841
X-108.412 Y-53.608
X-108.458 Y-53.508
X-108.557 Y-53.272
X-108.597 Y-53.167
X-108.678 Y-52.928
X-108.709 Y-52.824
X-108.773 Y-52.582
X-108.798 Y-52.47
X-108.844 Y-52.225
X-108.862 Y-52.104
X-108.889 Y-51.858
X-108.896 Y-51.765
G0 Z5
X-29.521 Y-30.503
G1 Z2.5 F333.3
S5000
G2 X-30.265 Y-32.597 Z2.42 I-2.574 J-0.264
G1 X-33.097 Y-35.428 Z2.28
G2 X-34.221 Y-35.893 Z2.236 I-1.123 J1.123
G1 X-35.642 Y-35.892 Z2.187
X-35.646
X-37.053 Y-35.887 Z2.137
X-37.057
X-38.454 Y-35.879 Z2.089
X-38.458 Z2.088
X-39.851 Y-35.867 Z2.04
X-39.855
X-41.25 Y-35.852 Z1.991
X-41.254
X-42.66 Y-35.833 Z1.942
X-42.664
X-44.09 Y-35.811 Z1.892
X-44.093
X-45.546 Y-35.785 Z1.841
X-45.549
X-47.038 Y-35.755 Z1.789
X-47.041
X-48.571 Y-35.722 Z1.735
X-48.574
X-50.152 Y-35.685 Z1.68
X-50.154
X-51.783 Y-35.645 Z1.623
X-51.785
X-53.466 Y-35.601 Z1.564
X-53.467
X-55.198 Y-35.555 Z1.504
X-56.974 Y-35.507 Z1.442
X-58.785 Y-35.458 Z1.378
X-60.619 Y-35.408 Z1.314
X-62.463 Y-35.359 Z1.25
X-64.302 Y-35.314 Z1.186
X-66.12 Y-35.274 Z1.122
X-67.903 Y-35.243 Z1.06
X-69.637 Y-35.223 Z0.999
X-71.307 Y-35.221 Z0.941
X-72.904 Y-35.239 Z0.885
X-74.424 Y-35.284 Z0.832
X-75.145 Y-35.318 Z0.807
X-75.848 Y-35.361 Z0.782
X-76.529 Y-35.413 Z0.759
X-77.189 Y-35.477 Z0.735
X-77.829 Y-35.553 Z0.713
X-78.451 Y-35.641 Z0.691
X-79.059 Y-35.743 Z0.669
X-79.655 Y-35.86 Z0.648
X-80.243 Y-35.99 Z0.627
X-80.828 Y-36.135 Z0.606
X-81.412 Y-36.294 Z0.585
X-81.994 Y-36.465 Z0.564
X-83.196 Y-36.844 Z0.52
X-84.426 Y-37.247 Z0.475
X-84.44 Y-37.251 Z0.474
X-85.706 Y-37.653 Z0.428
X-85.735 Y-37.662 Z0.427
X-86.382 Y-37.854 Z0.403
X-86.411 Y-37.862 Z0.402
X-87.069 Y-38.043 Z0.378
X-87.104 Y-38.053 Z0.377
X-87.774 Y-38.221 Z0.353
X-87.815 Y-38.231 Z0.351
X-88.498 Y-38.383 Z0.327
X-88.545 Y-38.393 Z0.325
X-89.242 Y-38.526 Z0.3
X-89.292 Y-38.535 Z0.299
X-90.003 Y-38.648 Z0.273
X-90.057 Y-38.656 Z0.272
X-90.782 Y-38.746 Z0.246
X-90.838 Y-38.751 Z0.244
X-91.578 Y-38.817 Z0.218
X-91.634 Y-38.821 Z0.216
X-92.388 Y-38.861 Z0.19
X-92.443 Y-38.863 Z0.188
X-93.21 Y-38.877 Z0.161
X-93.263 Z0.159
X-94.042 Y-38.865 Z0.132
X-94.091 Y-38.864 Z0.13
X-94.881 Y-38.828 Z0.103
X-94.928 Y-38.825 Z0.101
X-95.727 Y-38.764 Z0.073
X-95.771 Y-38.761 Z0.072
X-96.576 Y-38.677 Z0.043
X-96.619 Y-38.672 Z0.042
X-97.427 Y-38.566 Z0.013
X-97.469 Y-38.56 Z0.012
X-98.277 Y-38.432 Z-0.017
X-98.32 Y-38.425 Z-0.018
X-99.124 Y-38.275 Z-0.047
X-99.169 Y-38.266 Z-0.048
X-99.964 Y-38.094 Z-0.077
X-100.011 Y-38.083 Z-0.078
X-100.794 Y-37.889 Z-0.107
X-100.844 Y-37.875 Z-0.108
X-101.609 Y-37.658 Z-0.136
X-101.665 Y-37.641 Z-0.138
X-102.406 Y-37.402 Z-0.165
X-102.466 Y-37.381 Z-0.168
X-103.18 Y-37.118 Z-0.194
X-103.247 Y-37.091 Z-0.197
X-103.927 Y-36.805 Z-0.223
X-104.001 Y-36.771 Z-0.225
X-104.644 Y-36.461 Z-0.25
X-104.705 Y-36.43 Z-0.253
X-105.01 Y-36.266 Z-0.265
X-105.053 Y-36.242 Z-0.266
X-105.347 Y-36.072 Z-0.278
X-105.392 Y-36.045 Z-0.28
X-105.674 Y-35.869 Z-0.292
X-105.723 Y-35.838 Z-0.294
X-105.992 Y-35.657 Z-0.305
X-106.039 Y-35.624 Z-0.307
X-106.296 Y-35.436 Z-0.318
X-106.351 Y-35.394 Z-0.321
X-106.593 Y-35.201 Z-0.332
X-106.643 Y-35.16 Z-0.334
X-106.872 Y-34.961 Z-0.344
X-106.931 Y-34.908 Z-0.347
X-107.144 Y-34.703 Z-0.357
X-107.196 Y-34.651 Z-0.36
X-107.395 Y-34.441 Z-0.37
X-107.452 Y-34.378 Z-0.373
X-107.635 Y-34.163 Z-0.383
X-107.693 Y-34.091 Z-0.386
X-107.859 Y-33.871 Z-0.396
X-107.91 Y-33.801 Z-0.399
X-108.061 Y-33.576 Z-0.408
X-108.116 Y-33.488 Z-0.412
X-108.249 Y-33.259 Z-0.421
X-108.295 Y-33.174 Z-0.425
X-108.412 Y-32.942 Z-0.434
X-108.458 Y-32.842 Z-0.437
X-108.557 Y-32.605 Z-0.446
X-108.597 Y-32.501 Z-0.45
X-108.678 Y-32.261 Z-0.459
X-108.709 Y-32.158 Z-0.463
X-108.773 Y-31.915 Z-0.472
X-108.798 Y-31.803 Z-0.476
X-108.844 Y-31.558 Z-0.484
X-108.862 Y-31.438 Z-0.489
X-108.889 Y-31.191 Z-0.497
X-108.896 Y-31.115 Z-0.5
S8000
X-108.897 Y-31.076 F1000
X-108.906 Y-30.828
X-108.907 Y-30.719
X-108.899 Y-30.47
X-108.89 Y-30.344
X-108.862 Y-30.094
X-108.846 Y-29.989
X-108.801 Y-29.74
X-108.778 Y-29.632
X-108.715 Y-29.383
X-108.685 Y-29.279
X-108.604 Y-29.031
X-108.57 Y-28.937
X-108.472 Y-28.691
X-108.431 Y-28.597
X-108.315 Y-28.352
X-108.272 Y-28.268
X-108.139 Y-28.026
X-108.095 Y-27.95
X-107.946 Y-27.711
X-107.896 Y-27.636
X-107.73 Y-27.401
X-107.681 Y-27.335
X-107.499 Y-27.103
X-107.447 Y-27.041
X-107.249 Y-26.814
X-107.199 Y-26.759
X-106.986 Y-26.537
X-106.937 Y-26.488
X-106.71 Y-26.271
X-106.661 Y-26.226
X-106.42 Y-26.014
X-106.367 Y-25.97
X-106.111 Y-25.764
X-106.065 Y-25.728
X-105.797 Y-25.528
X-105.748 Y-25.494
X-105.467 Y-25.3
X-105.423 Y-25.271
X-105.131 Y-25.084
X-105.082 Y-25.054
X-104.777 Y-24.874
X-104.735 Y-24.849
X-104.42 Y-24.676
X-104.376 Y-24.653
X-104.051 Y-24.488
X-104.009 Y-24.467
X-103.674 Y-24.308
X-103.633 Y-24.29
X-103.289 Y-24.139
X-103.249 Y-24.122
X-102.897 Y-23.979
X-102.858 Y-23.963
X-102.498 Y-23.828
X-102.441 Y-23.808
X-101.701 Y-23.561
X-101.628 Y-23.539
X-100.864 Y-23.324
X-100.793 Y-23.306
X-100.011 Y-23.125
X-99.943 Y-23.111
X-99.147 Y-22.962
X-99.082 Y-22.952
X-98.277 Y-22.836
X-98.215 Y-22.828
X-97.405 Y-22.744
X-97.345 Y-22.739
X-96.534 Y-22.686
X-96.476 Y-22.683
X-95.668 Y-22.66
X-95.613 Y-22.659
X-94.811 Y-22.663
X-94.76 Y-22.665
X-93.966 Y-22.695
X-93.917 Y-22.697
X-93.134 Y-22.752
X-93.088 Y-22.756
X-92.318 Y-22.831
X-92.275 Y-22.836
X-91.518 Y-22.931
X-91.479 Y-22.936
X-90.737 Y-23.048
X-90.701 Y-23.054
X-89.973 Y-23.18
X-89.941 Y-23.186
X-89.228 Y-23.325
X-89.2 Y-23.331
X-88.502 Y-23.48
X-88.466 Y-23.488
X-87.113 Y-23.81
X-87.079 Y-23.819
X-85.776 Y-24.159
X-85.758 Y-24.164
X-84.496 Y-24.509
X-83.27 Y-24.844
X-82.074 Y-25.155
X-80.882 Y-25.438
X-80.292 Y-25.565
X-79.692 Y-25.683
X-79.084 Y-25.792
X-78.465 Y-25.892
X-77.832 Y-25.981
X-77.185 Y-26.062
X-76.52 Y-26.132
X-75.836 Y-26.194
X-75.132 Y-26.246
X-74.412 Y-26.289
X-72.895 Y-26.35
X-71.303 Y-26.381
X-69.639 Y-26.384
X-67.911 Y-26.364
X-66.133 Y-26.327
X-64.317 Y-26.276
X-62.48 Y-26.218
X-60.637 Y-26.156
X-58.803 Y-26.093
X-58.801
X-56.991 Y-26.035
X-56.987
X-55.213 Y-25.981
X-55.209
X-53.479 Y-25.933
X-53.475
X-51.795 Y-25.891
X-51.791
X-50.163 Y-25.853
X-50.161 Y-25.852
X-48.583 Y-25.818
X-48.582
X-47.052 Y-25.785
X-47.051
X-45.563 Y-25.755
X-45.561
X-44.109 Y-25.727
X-44.107
X-42.682 Y-25.702
X-42.679
X-41.274 Y-25.679
X-41.27
X-39.875 Y-25.66
X-39.871
X-38.479 Y-25.644
X-38.474
X-37.078 Y-25.632
X-37.073
X-35.666 Y-25.625
X-35.661
X-34.24 Y-25.623
G2 X-33.115 Y-26.088 I0.003 J-1.587
G1 X-30.265 Y-28.937
G2 X-30.265 Y-32.597 I-1.83 J-1.83
G1 X-33.097 Y-35.428
G2 X-34.221 Y-35.893 I-1.123 J1.123
G1 X-35.642 Y-35.892
X-35.646
X-37.053 Y-35.887
X-37.057
X-38.454 Y-35.879
X-38.458
X-39.851 Y-35.867
X-39.855
X-41.25 Y-35.852
X-41.254
X-42.66 Y-35.833
X-42.664
X-44.09 Y-35.811
X-44.093
X-45.546 Y-35.785
X-45.549
X-47.038 Y-35.755
X-47.041
X-48.571 Y-35.722
X-48.574
X-50.152 Y-35.685
X-50.154
X-51.783 Y-35.645
X-51.785
X-53.466 Y-35.601
X-53.467
X-55.198 Y-35.555
X-56.974 Y-35.507
X-58.785 Y-35.458
X-60.619 Y-35.408
X-62.463 Y-35.359
X-64.302 Y-35.314
X-66.12 Y-35.274
X-67.903 Y-35.243
X-69.637 Y-35.223
X-71.307 Y-35.221
X-72.904 Y-35.239
X-74.424 Y-35.284
X-75.145 Y-35.318
X-75.848 Y-35.361
X-76.529 Y-35.413
X-77.189 Y-35.477
X-77.829 Y-35.553
X-78.451 Y-35.641
X-79.059 Y-35.743
X-79.655 Y-35.86
X-80.243 Y-35.99
X-80.828 Y-36.135
X-81.412 Y-36.294
X-81.994 Y-36.465
X-83.196 Y-36.844
X-84.426 Y-37.247
X-84.44 Y-37.251
X-85.706 Y-37.653
X-85.735 Y-37.662
X-86.382 Y-37.854
X-86.411 Y-37.862
X-87.069 Y-38.043
X-87.104 Y-38.053
X-87.774 Y-38.221
X-87.815 Y-38.231
X-88.498 Y-38.383
X-88.545 Y-38.393
X-89.242 Y-38.526
X-89.292 Y-38.535
X-90.003 Y-38.648
X-90.057 Y-38.656
X-90.782 Y-38.746
X-90.838 Y-38.751
X-91.578 Y-38.817
X-91.634 Y-38.821
X-92.388 Y-38.861
X-92.443 Y-38.863
X-93.21 Y-38.877
X-93.263
X-94.042 Y-38.865
X-94.091 Y-38.864
X-94.881 Y-38.828
X-94.928 Y-38.825
X-95.727 Y-38.764
X-95.771 Y-38.761
X-96.576 Y-38.677
X-96.619 Y-38.672
X-97.427 Y-38.566
X-97.469 Y-38.56
X-98.277 Y-38.432
X-98.32 Y-38.425
X-99.124 Y-38.275
X-99.169 Y-38.266
X-99.964 Y-38.094
X-100.011 Y-38.083
X-100.794 Y-37.889
X-100.844 Y-37.875
X-101.609 Y-37.658
X-101.665 Y-37.641
X-102.406 Y-37.402
X-102.466 Y-37.381
X-103.18 Y-37.118
X-103.247 Y-37.091
X-103.927 Y-36.805
X-104.001 Y-36.771
X-104.644 Y-36.461
X-104.705 Y-36.43
X-105.01 Y-36.266
X-105.053 Y-36.242
X-105.347 Y-36.072
X-105.392 Y-36.045
X-105.674 Y-35.869
X-105.723 Y-35.838
X-105.992 Y-35.657
X-106.039 Y-35.624
X-106.296 Y-35.436
X-106.351 Y-35.394
X-106.593 Y-35.201
X-106.643 Y-35.16
X-106.872 Y-34.961
X-106.931 Y-34.908
X-107.144 Y-34.703
X-107.196 Y-34.651
X-107.395 Y-34.441
X-107.452 Y-34.378
X-107.635 Y-34.163
X-107.693 Y-34.091
X-107.859 Y-33.871
X-107.91 Y-33.801
X-108.061 Y-33.576
X-108.116 Y-33.488
X-108.249 Y-33.259
X-108.295 Y-33.174
X-108.412 Y-32.942
X-108.458 Y-32.842
X-108.557 Y-32.605
X-108.597 Y-32.501
X-108.678 Y-32.261
X-108.709 Y-32.158
X-108.773 Y-31.915
X-108.798 Y-31.803
X-108.844 Y-31.558
X-108.862 Y-31.438
X-108.889 Y-31.191
X-108.896 Y-31.115
G0 Z5
X-82.779 Y-40.879
G1 Z2.5 F333.3
S5000
G2 X-82.055 Y-39.465 Z2.444 I2.554 J-0.416
G1 X-79.223 Y-36.634 Z2.304
G2 X-78.099 Y-36.169 Z2.26 I1.123 J-1.123
G1 X-76.678 Y-36.171 Z2.211
X-76.674 Z2.21
X-75.267 Y-36.175 Z2.161
X-75.263
X-73.866 Y-36.184 Z2.112
X-73.862
X-72.47 Y-36.195 Z2.064
X-72.466 Z2.063
X-71.07 Y-36.21 Z2.015
X-71.066
X-69.66 Y-36.229 Z1.965
X-69.656
X-68.231 Y-36.251 Z1.916
X-68.227 Z1.915
X-66.774 Y-36.277 Z1.865
X-66.771
X-65.283 Y-36.307 Z1.813
X-65.28 Z1.812
X-63.749 Y-36.34 Z1.759
X-63.747
X-62.169 Y-36.377 Z1.704
X-62.167
X-60.538 Y-36.417 Z1.647
X-60.536 Y-36.418
X-58.855 Y-36.461 Z1.588
X-58.853
X-57.123 Y-36.507 Z1.528
X-55.346 Y-36.555 Z1.466
X-53.536 Y-36.605 Z1.402
X-51.702 Y-36.654 Z1.338
X-49.858 Y-36.703 Z1.274
X-48.019 Y-36.748 Z1.21
X-46.2 Y-36.788 Z1.146
X-44.417 Y-36.819 Z1.084
X-42.684 Y-36.839 Z1.023
X-41.014 Y-36.842 Z0.965
X-39.417 Y-36.823 Z0.909
X-37.896 Y-36.778 Z0.856
X-37.175 Y-36.744 Z0.831
X-36.472 Y-36.702 Z0.806
X-35.791 Y-36.649 Z0.782
X-35.132 Y-36.585 Z0.759
X-34.492 Y-36.51 Z0.737
X-33.87 Y-36.421 Z0.715
X-33.262 Y-36.319 Z0.693
X-32.666 Y-36.203 Z0.672
X-32.077 Y-36.072 Z0.651
X-31.493 Y-35.927 Z0.63
X-30.909 Y-35.768 Z0.609
X-30.326 Y-35.597 Z0.588
X-29.125 Y-35.218 Z0.544
X-27.894 Y-34.815 Z0.498
X-27.88 Y-34.811
X-26.615 Y-34.409 Z0.452
X-26.585 Y-34.4 Z0.45
X-25.939 Y-34.208 Z0.427
X-25.91 Y-34.2 Z0.426
X-25.252 Y-34.019 Z0.402
X-25.217 Y-34.009 Z0.401
X-24.547 Y-33.841 Z0.377
X-24.505 Y-33.832 Z0.375
X-23.822 Y-33.679 Z0.351
X-23.776 Y-33.67 Z0.349
X-23.079 Y-33.536 Z0.324
X-23.029 Y-33.527 Z0.322
X-22.317 Y-33.414 Z0.297
X-22.264 Y-33.407 Z0.295
X-21.538 Y-33.317 Z0.27
X-21.483 Y-33.311 Z0.268
X-20.742 Y-33.245 Z0.242
X-20.687 Y-33.241 Z0.24
X-19.933 Y-33.201 Z0.214
X-19.878 Y-33.199 Z0.212
X-19.11 Y-33.185 Z0.185
X-19.058 Z0.183
X-18.278 Y-33.197 Z0.156
X-18.229 Y-33.198 Z0.154
X-17.439 Y-33.235 Z0.127
X-17.392 Y-33.237 Z0.125
X-16.594 Y-33.298 Z0.097
X-16.549 Y-33.302 Z0.095
X-15.744 Y-33.385 Z0.067
X-15.702 Y-33.39 Z0.066
X-14.894 Y-33.496 Z0.037
X-14.852 Y-33.502 Z0.036
X-14.043 Y-33.63 Z0.007
X-14 Y-33.637 Z0.006
X-13.196 Y-33.787 Z-0.023
X-13.152 Y-33.796 Z-0.025
X-12.356 Y-33.968 Z-0.053
X-12.309 Y-33.979 Z-0.055
X-11.527 Y-34.174 Z-0.083
X-11.476 Y-34.187 Z-0.085
X-10.711 Y-34.404 Z-0.112
X-10.656 Y-34.421 Z-0.114
X-9.915 Y-34.661 Z-0.142
X-9.854 Y-34.682 Z-0.144
X-9.141 Y-34.945 Z-0.17
X-9.074 Y-34.971 Z-0.173
X-8.393 Y-35.257 Z-0.199
X-8.319 Y-35.291 Z-0.202
X-7.677 Y-35.601 Z-0.226
X-7.616 Y-35.632 Z-0.229
X-7.311 Y-35.796 Z-0.241
X-7.267 Y-35.82 Z-0.243
X-6.973 Y-35.99 Z-0.255
X-6.928 Y-36.017 Z-0.256
X-6.646 Y-36.193 Z-0.268
X-6.598 Y-36.224 Z-0.27
X-6.329 Y-36.405 Z-0.281
X-6.279 Y-36.44 Z-0.283
X-6.023 Y-36.628 Z-0.295
X-5.971 Y-36.667 Z-0.297
X-5.729 Y-36.86 Z-0.308
X-5.675 Y-36.904 Z-0.31
X-5.447 Y-37.103 Z-0.321
X-5.392 Y-37.153 Z-0.323
X-5.179 Y-37.357 Z-0.334
X-5.123 Y-37.413 Z-0.336
X-4.924 Y-37.622 Z-0.346
X-4.868 Y-37.685 Z-0.349
X-4.685 Y-37.899 Z-0.359
X-4.63 Y-37.969 Z-0.362
X-4.463 Y-38.188 Z-0.372
X-4.409 Y-38.264 Z-0.375
X-4.258 Y-38.488 Z-0.385
X-4.206 Y-38.572 Z-0.388
X-4.072 Y-38.8 Z-0.397
X-4.024 Y-38.891 Z-0.401
X-3.907 Y-39.123 Z-0.41
X-3.863 Y-39.22 Z-0.414
X-3.763 Y-39.456 Z-0.423
X-3.724 Y-39.559 Z-0.426
X-3.643 Y-39.799 Z-0.435
X-3.61 Y-39.907 Z-0.439
X-3.547 Y-40.149 Z-0.448
X-3.522 Y-40.261 Z-0.452
X-3.476 Y-40.506 Z-0.461
X-3.459 Y-40.621 Z-0.465
X-3.432 Y-40.868 Z-0.473
X-3.423 Y-40.984 Z-0.477
X-3.414 Y-41.233 Z-0.486
Y-41.349 Z-0.49
X-3.422 Y-41.598 Z-0.499
X-3.424 Y-41.629 Z-0.5
S8000
X-3.431 Y-41.712 F1000
X-3.458 Y-41.962
X-3.474 Y-42.074
X-3.519 Y-42.323
X-3.542 Y-42.431
X-3.605 Y-42.68
X-3.635 Y-42.782
X-3.716 Y-43.031
X-3.751 Y-43.127
X-3.849 Y-43.374
X-3.889 Y-43.465
X-4.005 Y-43.709
X-4.048 Y-43.794
X-4.181 Y-44.036
X-4.227 Y-44.114
X-4.376 Y-44.353
X-4.425 Y-44.426
X-4.591 Y-44.661
X-4.64 Y-44.727
X-4.822 Y-44.959
X-4.872 Y-45.019
X-5.07 Y-45.246
X-5.121 Y-45.302
X-5.333 Y-45.524
X-5.383 Y-45.574
X-5.611 Y-45.792
X-5.661 Y-45.838
X-5.903 Y-46.049
X-5.952 Y-46.091
X-6.207 Y-46.297
X-6.256 Y-46.334
X-6.524 Y-46.534
X-6.572 Y-46.568
X-6.852 Y-46.762
X-6.899 Y-46.793
X-7.192 Y-46.98
X-7.237 Y-47.007
X-7.541 Y-47.188
X-7.586 Y-47.213
X-7.901 Y-47.386
X-7.944 Y-47.409
X-8.269 Y-47.575
X-8.312 Y-47.596
X-8.646 Y-47.754
X-8.687 Y-47.773
X-9.031 Y-47.923
X-9.071 Y-47.94
X-9.423 Y-48.084
X-9.462 Y-48.099
X-9.822 Y-48.234
X-9.879 Y-48.254
X-10.62 Y-48.501
X-10.693 Y-48.524
X-11.457 Y-48.738
X-11.527 Y-48.756
X-12.31 Y-48.937
X-12.377 Y-48.951
X-13.173 Y-49.1
X-13.238 Y-49.111
X-14.043 Y-49.227
X-14.106 Y-49.234
X-14.916 Y-49.318
X-14.976 Y-49.323
X-15.786 Y-49.376
X-15.844 Y-49.379
X-16.652 Y-49.403
X-16.707
X-17.509 Y-49.399
X-17.561 Y-49.398
X-18.355 Y-49.367
X-18.403 Y-49.365
X-19.186 Y-49.311
X-19.232 Y-49.307
X-20.003 Y-49.231
X-20.045 Y-49.226
X-20.802 Y-49.131
X-20.841 Y-49.126
X-21.584 Y-49.014
X-21.619 Y-49.009
X-22.347 Y-48.882
X-22.379 Y-48.876
X-23.092 Y-48.737
X-23.12 Y-48.731
X-23.819 Y-48.582
X-23.854 Y-48.574
X-25.208 Y-48.252
X-25.242 Y-48.244
X-26.545 Y-47.903
X-26.562 Y-47.898
X-27.824 Y-47.553
X-29.05 Y-47.219
X-30.247 Y-46.907
X-31.439 Y-46.624
X-32.028 Y-46.497
X-32.628 Y-46.379
X-33.237 Y-46.27
X-33.856 Y-46.171
X-34.488 Y-46.081
X-35.136 Y-46.001
X-35.801 Y-45.93
X-36.485 Y-45.869
X-37.189 Y-45.817
X-37.909 Y-45.774
X-39.426 Y-45.712
X-41.017 Y-45.682
X-42.682 Y-45.679
X-44.409 Y-45.698
X-46.188 Y-45.736
X-48.003 Y-45.786
X-49.84 Y-45.844
X-51.683 Y-45.907
X-53.517 Y-45.969
X-53.52
X-55.329 Y-46.028
X-55.333
X-57.107 Y-46.081
X-57.111
X-58.842 Y-46.129
X-58.845
X-60.526 Y-46.172
X-60.529
X-62.158 Y-46.21
X-62.159
X-63.737 Y-46.245
X-63.739
X-65.269 Y-46.277
X-65.27
X-66.758 Y-46.307
X-66.759
X-68.212 Y-46.335
X-68.214
X-69.639 Y-46.36
X-69.641
X-71.047 Y-46.383
X-71.05
X-72.445 Y-46.402
X-72.449
X-73.841 Y-46.418
X-73.846
X-75.243 Y-46.43
X-75.248
X-76.654 Y-46.437
X-76.66
X-78.08 Y-46.44
G2 X-79.205 Y-45.975 I-0.003 J1.587
G1 X-82.055 Y-43.125
G2 X-82.055 Y-39.465 I1.83 J1.83
G1 X-79.223 Y-36.634
G2 X-78.099 Y-36.169 I1.123 J-1.123
G1 X-76.678 Y-36.171
X-76.674
X-75.267 Y-36.175
X-75.263
X-73.866 Y-36.184
X-73.862
X-72.47 Y-36.195
X-72.466
X-71.07 Y-36.21
X-71.066
X-69.66 Y-36.229
X-69.656
X-68.231 Y-36.251
X-68.227
X-66.774 Y-36.277
X-66.771
X-65.283 Y-36.307
X-65.28
X-63.749 Y-36.34
X-63.747
X-62.169 Y-36.377
X-62.167
X-60.538 Y-36.417
X-60.536 Y-36.418
X-58.855 Y-36.461
X-58.853
X-57.123 Y-36.507
X-55.346 Y-36.555
X-53.536 Y-36.605
X-51.702 Y-36.654
X-49.858 Y-36.703
X-48.019 Y-36.748
X-46.2 Y-36.788
X-44.417 Y-36.819
X-42.684 Y-36.839
X-41.014 Y-36.842
X-39.417 Y-36.823
X-37.896 Y-36.778
X-37.175 Y-36.744
X-36.472 Y-36.702
X-35.791 Y-36.649
X-35.132 Y-36.585
X-34.492 Y-36.51
X-33.87 Y-36.421
X-33.262 Y-36.319
X-32.666 Y-36.203
X-32.077 Y-36.072
X-31.493 Y-35.927
X-30.909 Y-35.768
X-30.326 Y-35.597
X-29.125 Y-35.218
X-27.894 Y-34.815
X-27.88 Y-34.811
X-26.615 Y-34.409
X-26.585 Y-34.4
X-25.939 Y-34.208
X-25.91 Y-34.2
X-25.252 Y-34.019
X-25.217 Y-34.009
X-24.547 Y-33.841
X-24.505 Y-33.832
X-23.822 Y-33.679
X-23.776 Y-33.67
X-23.079 Y-33.536
X-23.029 Y-33.527
X-22.317 Y-33.414
X-22.264 Y-33.407
X-21.538 Y-33.317
X-21.483 Y-33.311
X-20.742 Y-33.245
X-20.687 Y-33.241
X-19.933 Y-33.201
X-19.878 Y-33.199
X-19.11 Y-33.185
X-19.058
X-18.278 Y-33.197
X-18.229 Y-33.198
X-17.439 Y-33.235
X-17.392 Y-33.237
X-16.594 Y-33.298
X-16.549 Y-33.302
X-15.744 Y-33.385
X-15.702 Y-33.39
X-14.894 Y-33.496
X-14.852 Y-33.502
X-14.043 Y-33.63
X-14 Y-33.637
X-13.196 Y-33.787
X-13.152 Y-33.796
X-12.356 Y-33.968
X-12.309 Y-33.979
X-11.527 Y-34.174
X-11.476 Y-34.187
X-10.711 Y-34.404
X-10.656 Y-34.421
X-9.915 Y-34.661
X-9.854 Y-34.682
X-9.141 Y-34.945
X-9.074 Y-34.971
X-8.393 Y-35.257
X-8.319 Y-35.291
X-7.677 Y-35.601
X-7.616 Y-35.632
X-7.311 Y-35.796
X-7.267 Y-35.82
X-6.973 Y-35.99
X-6.928 Y-36.017
X-6.646 Y-36.193
X-6.598 Y-36.224
X-6.329 Y-36.405
X-6.279 Y-36.44
X-6.023 Y-36.628
X-5.971 Y-36.667
X-5.729 Y-36.86
X-5.675 Y-36.904
X-5.447 Y-37.103
X-5.392 Y-37.153
X-5.179 Y-37.357
X-5.123 Y-37.413
X-4.924 Y-37.622
X-4.868 Y-37.685
X-4.685 Y-37.899
X-4.63 Y-37.969
X-4.463 Y-38.188
X-4.409 Y-38.264
X-4.258 Y-38.488
X-4.206 Y-38.572
X-4.072 Y-38.8
X-4.024 Y-38.891
X-3.907 Y-39.123
X-3.863 Y-39.22
X-3.763 Y-39.456
X-3.724 Y-39.559
X-3.643 Y-39.799
X-3.61 Y-39.907
X-3.547 Y-40.149
X-3.522 Y-40.261
X-3.476 Y-40.506
X-3.459 Y-40.621
X-3.432 Y-40.868
X-3.423 Y-40.984
X-3.414 Y-41.233
Y-41.349
X-3.422 Y-41.598
X-3.424 Y-41.629
G0 Z5
X-82.779 Y-40.879
G1 Z2 F333.3
S5000
G2 X-82.055 Y-39.465 Z1.944 I2.554 J-0.416
G1 X-79.223 Y-36.634 Z1.804
G2 X-78.099 Y-36.169 Z1.76 I1.123 J-1.123
G1 X-76.678 Y-36.171 Z1.711
X-76.674 Z1.71
X-75.267 Y-36.175 Z1.661
X-75.263
X-73.866 Y-36.184 Z1.612
X-73.862
X-72.47 Y-36.195 Z1.564
X-72.466 Z1.563
X-71.07 Y-36.21 Z1.515
X-71.066
X-69.66 Y-36.229 Z1.465
X-69.656
X-68.231 Y-36.251 Z1.416
X-68.227 Z1.415
X-66.774 Y-36.277 Z1.365
X-66.771
X-65.283 Y-36.307 Z1.313
X-65.28 Z1.312
X-63.749 Y-36.34 Z1.259
X-63.747
X-62.169 Y-36.377 Z1.204
X-62.167
X-60.538 Y-36.417 Z1.147
X-60.536 Y-36.418
X-58.855 Y-36.461 Z1.088
X-58.853
X-57.123 Y-36.507 Z1.028
X-55.346 Y-36.555 Z0.966
X-53.536 Y-36.605 Z0.902
X-51.702 Y-36.654 Z0.838
X-49.858 Y-36.703 Z0.774
X-48.019 Y-36.748 Z0.71
X-46.2 Y-36.788 Z0.646
X-44.417 Y-36.819 Z0.584
X-42.684 Y-36.839 Z0.523
X-41.014 Y-36.842 Z0.465
X-39.417 Y-36.823 Z0.409
X-37.896 Y-36.778 Z0.356
X-37.175 Y-36.744 Z0.331
X-36.472 Y-36.702 Z0.306
X-35.791 Y-36.649 Z0.282
X-35.132 Y-36.585 Z0.259
X-34.492 Y-36.51 Z0.237
X-33.87 Y-36.421 Z0.215
X-33.262 Y-36.319 Z0.193
X-32.666 Y-36.203 Z0.172
X-32.077 Y-36.072 Z0.151
X-31.493 Y-35.927 Z0.13
X-30.909 Y-35.768 Z0.109
X-30.326 Y-35.597 Z0.088
X-29.125 Y-35.218 Z0.044
X-27.894 Y-34.815 Z-0.002
X-27.88 Y-34.811
X-26.615 Y-34.409 Z-0.048
X-26.585 Y-34.4 Z-0.05
X-25.939 Y-34.208 Z-0.073
X-25.91 Y-34.2 Z-0.074
X-25.252 Y-34.019 Z-0.098
X-25.217 Y-34.009 Z-0.099
X-24.547 Y-33.841 Z-0.123
X-24.505 Y-33.832 Z-0.125
X-23.822 Y-33.679 Z-0.149
X-23.776 Y-33.67 Z-0.151
X-23.079 Y-33.536 Z-0.176
X-23.029 Y-33.527 Z-0.178
X-22.317 Y-33.414 Z-0.203
X-22.264 Y-33.407 Z-0.205
X-21.538 Y-33.317 Z-0.23
X-21.483 Y-33.311 Z-0.232
X-20.742 Y-33.245 Z-0.258
X-20.687 Y-33.241 Z-0.26
X-19.933 Y-33.201 Z-0.286
X-19.878 Y-33.199 Z-0.288
X-19.11 Y-33.185 Z-0.315
X-19.058 Z-0.317
X-18.278 Y-33.197 Z-0.344
X-18.229 Y-33.198 Z-0.346
X-17.439 Y-33.235 Z-0.373
X-17.392 Y-33.237 Z-0.375
X-16.594 Y-33.298 Z-0.403
X-16.549 Y-33.302 Z-0.405
X-15.744 Y-33.385 Z-0.433
X-15.702 Y-33.39 Z-0.434
X-14.894 Y-33.496 Z-0.463
X-14.852 Y-33.502 Z-0.464
X-14.043 Y-33.63 Z-0.493
X-14 Y-33.637 Z-0.494
X-13.196 Y-33.787 Z-0.523
X-13.152 Y-33.796 Z-0.525
X-12.356 Y-33.968 Z-0.553
X-12.309 Y-33.979 Z-0.555
X-11.527 Y-34.174 Z-0.583
X-11.476 Y-34.187 Z-0.585
X-10.711 Y-34.404 Z-0.612
X-10.656 Y-34.421 Z-0.614
X-9.915 Y-34.661 Z-0.642
X-9.854 Y-34.682 Z-0.644
X-9.141 Y-34.945 Z-0.67
X-9.074 Y-34.971 Z-0.673
X-8.393 Y-35.257 Z-0.699
X-8.319 Y-35.291 Z-0.702
X-7.677 Y-35.601 Z-0.726
X-7.616 Y-35.632 Z-0.729
X-7.311 Y-35.796 Z-0.741
X-7.267 Y-35.82 Z-0.743
X-6.973 Y-35.99 Z-0.755
X-6.928 Y-36.017 Z-0.756
X-6.646 Y-36.193 Z-0.768
X-6.598 Y-36.224 Z-0.77
X-6.329 Y-36.405 Z-0.781
X-6.279 Y-36.44 Z-0.783
X-6.023 Y-36.628 Z-0.795
X-5.971 Y-36.667 Z-0.797
X-5.729 Y-36.86 Z-0.808
X-5.675 Y-36.904 Z-0.81
X-5.447 Y-37.103 Z-0.821
X-5.392 Y-37.153 Z-0.823
X-5.179 Y-37.357 Z-0.834
X-5.123 Y-37.413 Z-0.836
X-4.924 Y-37.622 Z-0.846
X-4.868 Y-37.685 Z-0.849
X-4.685 Y-37.899 Z-0.859
X-4.63 Y-37.969 Z-0.862
X-4.463 Y-38.188 Z-0.872
X-4.409 Y-38.264 Z-0.875
X-4.258 Y-38.488 Z-0.885
X-4.206 Y-38.572 Z-0.888
X-4.072 Y-38.8 Z-0.897
X-4.024 Y-38.891 Z-0.901
X-3.907 Y-39.123 Z-0.91
X-3.863 Y-39.22 Z-0.914
X-3.763 Y-39.456 Z-0.923
X-3.724 Y-39.559 Z-0.926
X-3.643 Y-39.799 Z-0.935
X-3.61 Y-39.907 Z-0.939
X-3.547 Y-40.149 Z-0.948
X-3.522 Y-40.261 Z-0.952
X-3.476 Y-40.506 Z-0.961
X-3.459 Y-40.621 Z-0.965
X-3.432 Y-40.868 Z-0.973
X-3.423 Y-40.984 Z-0.977
X-3.414 Y-41.233 Z-0.986
Y-41.349 Z-0.99
X-3.422 Y-41.598 Z-0.999
X-3.424 Y-41.629 Z-1
S8000
X-3.431 Y-41.712 F1000
X-3.458 Y-41.962
X-3.474 Y-42.074
X-3.519 Y-42.323
X-3.542 Y-42.431
X-3.605 Y-42.68
X-3.635 Y-42.782
X-3.716 Y-43.031
X-3.751 Y-43.127
X-3.849 Y-43.374
X-3.889 Y-43.465
X-4.005 Y-43.709
X-4.048 Y-43.794
X-4.181 Y-44.036
X-4.227 Y-44.114
X-4.376 Y-44.353
X-4.425 Y-44.426
X-4.591 Y-44.661
X-4.64 Y-44.727
X-4.822 Y-44.959
X-4.872 Y-45.019
X-5.07 Y-45.246
X-5.121 Y-45.302
X-5.333 Y-45.524
X-5.383 Y-45.574
X-5.611 Y-45.792
X-5.661 Y-45.838
X-5.903 Y-46.049
X-5.952 Y-46.091
X-6.207 Y-46.297
X-6.256 Y-46.334
X-6.524 Y-46.534
X-6.572 Y-46.568
X-6.852 Y-46.762
X-6.899 Y-46.793
X-7.192 Y-46.98
X-7.237 Y-47.007
X-7.541 Y-47.188
X-7.586 Y-47.213
X-7.901 Y-47.386
X-7.944 Y-47.409
X-8.269 Y-47.575
X-8.312 Y-47.596
X-8.646 Y-47.754
X-8.687 Y-47.773
X-9.031 Y-47.923
X-9.071 Y-47.94
X-9.423 Y-48.084
X-9.462 Y-48.099
X-9.822 Y-48.234
X-9.879 Y-48.254
X-10.62 Y-48.501
X-10.693 Y-48.524
X-11.457 Y-48.738
X-11.527 Y-48.756
X-12.31 Y-48.937
X-12.377 Y-48.951
X-13.173 Y-49.1
X-13.238 Y-49.111
X-14.043 Y-49.227
X-14.106 Y-49.234
X-14.916 Y-49.318
X-14.976 Y-49.323
X-15.786 Y-49.376
X-15.844 Y-49.379
X-16.652 Y-49.403
X-16.707
X-17.509 Y-49.399
X-17.561 Y-49.398
X-18.355 Y-49.367
X-18.403 Y-49.365
X-19.186 Y-49.311
X-19.232 Y-49.307
X-20.003 Y-49.231
X-20.045 Y-49.226
X-20.802 Y-49.131
X-20.841 Y-49.126
X-21.584 Y-49.014
X-21.619 Y-49.009
X-22.347 Y-48.882
X-22.379 Y-48.876
X-23.092 Y-48.737
X-23.12 Y-48.731
X-23.819 Y-48.582
X-23.854 Y-48.574
X-25.208 Y-48.252
X-25.242 Y-48.244
X-26.545 Y-47.903
X-26.562 Y-47.898
X-27.824 Y-47.553
X-29.05 Y-47.219
X-30.247 Y-46.907
X-31.439 Y-46.624
X-32.028 Y-46.497
X-32.628 Y-46.379
X-33.237 Y-46.27
X-33.856 Y-46.171
X-34.488 Y-46.081
X-35.136 Y-46.001
X-35.801 Y-45.93
X-36.485 Y-45.869
X-37.189 Y-45.817
X-37.909 Y-45.774
X-39.426 Y-45.712
X-41.017 Y-45.682
X-42.682 Y-45.679
X-44.409 Y-45.698
X-46.188 Y-45.736
X-48.003 Y-45.786
X-49.84 Y-45.844
X-51.683 Y-45.907
X-53.517 Y-45.969
X-53.52
X-55.329 Y-46.028
X-55.333
X-57.107 Y-46.081
X-57.111
X-58.842 Y-46.129
X-58.845
X-60.526 Y-46.172
X-60.529
X-62.158 Y-46.21
X-62.159
X-63.737 Y-46.245
X-63.739
X-65.269 Y-46.277
X-65.27
X-66.758 Y-46.307
X-66.759
X-68.212 Y-46.335
X-68.214
X-69.639 Y-46.36
X-69.641
X-71.047 Y-46.383
X-71.05
X-72.445 Y-46.402
X-72.449
X-73.841 Y-46.418
X-73.846
X-75.243 Y-46.43
X-75.248
X-76.654 Y-46.437
X-76.66
X-78.08 Y-46.44
G2 X-79.205 Y-45.975 I-0.003 J1.587
G1 X-82.055 Y-43.125
G2 X-82.055 Y-39.465 I1.83 J1.83
G1 X-79.223 Y-36.634
G2 X-78.099 Y-36.169 I1.123 J-1.123
G1 X-76.678 Y-36.171
X-76.674
X-75.267 Y-36.175
X-75.263
X-73.866 Y-36.184
X-73.862
X-72.47 Y-36.195
X-72.466
X-71.07 Y-36.21
X-71.066
X-69.66 Y-36.229
X-69.656
X-68.231 Y-36.251
X-68.227
X-66.774 Y-36.277
X-66.771
X-65.283 Y-36.307
X-65.28
X-63.749 Y-36.34
X-63.747
X-62.169 Y-36.377
X-62.167
X-60.538 Y-36.417
X-60.536 Y-36.418
X-58.855 Y-36.461
X-58.853
X-57.123 Y-36.507
X-55.346 Y-36.555
X-53.536 Y-36.605
X-51.702 Y-36.654
X-49.858 Y-36.703
X-48.019 Y-36.748
X-46.2 Y-36.788
X-44.417 Y-36.819
X-42.684 Y-36.839
X-41.014 Y-36.842
X-39.417 Y-36.823
X-37.896 Y-36.778
X-37.175 Y-36.744
X-36.472 Y-36.702
X-35.791 Y-36.649
X-35.132 Y-36.585
X-34.492 Y-36.51
X-33.87 Y-36.421
X-33.262 Y-36.319
X-32.666 Y-36.203
X-32.077 Y-36.072
X-31.493 Y-35.927
X-30.909 Y-35.768
X-30.326 Y-35.597
X-29.125 Y-35.218
X-27.894 Y-34.815
X-27.88 Y-34.811
X-26.615 Y-34.409
X-26.585 Y-34.4
X-25.939 Y-34.208
X-25.91 Y-34.2
X-25.252 Y-34.019
X-25.217 Y-34.009
X-24.547 Y-33.841
X-24.505 Y-33.832
X-23.822 Y-33.679
X-23.776 Y-33.67
X-23.079 Y-33.536
X-23.029 Y-33.527
X-22.317 Y-33.414
X-22.264 Y-33.407
X-21.538 Y-33.317
X-21.483 Y-33.311
X-20.742 Y-33.245
X-20.687 Y-33.241
X-19.933 Y-33.201
X-19.878 Y-33.199
X-19.11 Y-33.185
X-19.058
X-18.278 Y-33.197
X-18.229 Y-33.198
X-17.439 Y-33.235
X-17.392 Y-33.237
X-16.594 Y-33.298
X-16.549 Y-33.302
X-15.744 Y-33.385
X-15.702 Y-33.39
X-14.894 Y-33.496
X-14.852 Y-33.502
X-14.043 Y-33.63
X-14 Y-33.637
X-13.196 Y-33.787
X-13.152 Y-33.796
X-12.356 Y-33.968
X-12.309 Y-33.979
X-11.527 Y-34.174
X-11.476 Y-34.187
X-10.711 Y-34.404
X-10.656 Y-34.421
X-9.915 Y-34.661
X-9.854 Y-34.682
X-9.141 Y-34.945
X-9.074 Y-34.971
X-8.393 Y-35.257
X-8.319 Y-35.291
X-7.677 Y-35.601
X-7.616 Y-35.632
X-7.311 Y-35.796
X-7.267 Y-35.82
X-6.973 Y-35.99
X-6.928 Y-36.017
X-6.646 Y-36.193
X-6.598 Y-36.224
X-6.329 Y-36.405
X-6.279 Y-36.44
X-6.023 Y-36.628
X-5.971 Y-36.667
X-5.729 Y-36.86
X-5.675 Y-36.904
X-5.447 Y-37.103
X-5.392 Y-37.153
