(1001)
(Bearbeiten)
(  Hersteller: ChinaCnc)
(  model: 3040T)
(  description: Generic 3-axis)
(T13  D=1 CR=0 - ZMIN=-3.2 - Schaftfraser)
G90 G94
G17
G21
G28 G91 Z0
G90

(2D-Kontur5)
T13
S5000 M3
G54
G0 X-62.643 Y-136.566
Z15
Z5
G1 Z1.3 F200
Z0.5
Y-130.119 Z0.275 F333.3
G3 X-63.643 Y-129.119 Z0.22 I-1 J0
G1 X-64.143 Z0.203
G3 X-65.143 Y-130.119 Z0.148 I0 J-1
G1 Y-141.119 Z-0.236
G3 X-64.143 Y-142.119 Z-0.291 I1 J0
G1 X-63.893 Z-0.3
X-63.643 F1000
G3 X-62.643 Y-141.119 I0 J1
G1 Y-130.119
G3 X-63.643 Y-129.119 I-1 J0
G1 X-64.143
G3 X-65.143 Y-130.119 I0 J-1
G1 Y-141.119
G3 X-64.143 Y-142.119 I1 J0
G1 X-63.893
X-63.643 Z-0.309 F333.3
G3 X-62.643 Y-141.119 Z-0.364 I0 J1
G1 Y-134.349 Z-0.6
Y-130.119 F1000
G3 X-63.643 Y-129.119 I-1 J0
G1 X-64.143
G3 X-65.143 Y-130.119 I0 J-1
G1 Y-141.119
G3 X-64.143 Y-142.119 I1 J0
G1 X-63.643
G3 X-62.643 Y-141.119 I0 J1
G1 Y-134.349
Y-130.119 Z-0.748 F333.3
G3 X-63.643 Y-129.119 Z-0.803 I-1 J0
G1 X-64.143 Z-0.82
G3 X-65.143 Y-130.119 Z-0.875 I0 J-1
G1 Y-130.838 Z-0.9
Y-141.119 F1000
G3 X-64.143 Y-142.119 I1 J0
G1 X-63.643
G3 X-62.643 Y-141.119 I0 J1
G1 Y-134.349
Y-130.119
G3 X-63.643 Y-129.119 I-1 J0
G1 X-64.143
G3 X-65.143 Y-130.119 I0 J-1
G1 Y-130.838
Y-139.429 Z-1.2 F333.3
Y-141.119 F1000
G3 X-64.143 Y-142.119 I1 J0
G1 X-63.643
G3 X-62.643 Y-141.119 I0 J1
G1 Y-130.119
G3 X-63.643 Y-129.119 I-1 J0
G1 X-64.143
G3 X-65.143 Y-130.119 I0 J-1
G1 Y-139.429
Y-141.119 Z-1.259 F333.3
G3 X-64.143 Y-142.119 Z-1.314 I1 J0
G1 X-63.643 Z-1.331
G3 X-62.643 Y-141.119 Z-1.386 I0 J1
G1 Y-137.859 Z-1.5
Y-130.119 F1000
G3 X-63.643 Y-129.119 I-1 J0
G1 X-64.143
G3 X-65.143 Y-130.119 I0 J-1
G1 Y-139.429
Y-141.119
G3 X-64.143 Y-142.119 I1 J0
G1 X-63.643
G3 X-62.643 Y-141.119 I0 J1
G1 Y-137.859
Y-130.119 Z-1.77 F333.3
G3 X-62.983 Y-129.367 Z-1.8 I-1 J0
X-63.643 Y-129.119 I-0.66 J-0.752 F1000
G1 X-64.143
G3 X-65.143 Y-130.119 I0 J-1
G1 Y-141.119
G3 X-64.143 Y-142.119 I1 J0
G1 X-63.643
G3 X-62.643 Y-141.119 I0 J1
G1 Y-130.119
G3 X-62.983 Y-129.367 I-1 J0
X-63.643 Y-129.119 Z-1.825 I-0.66 J-0.752 F333.3
G1 X-64.143 Z-1.843
G3 X-65.143 Y-130.119 Z-1.897 I0 J-1
G1 Y-135.919 Z-2.1
Y-141.119 F1000
G3 X-64.143 Y-142.119 I1 J0
G1 X-63.643
G3 X-62.643 Y-141.119 I0 J1
G1 Y-130.119
G3 X-63.643 Y-129.119 I-1 J0
G1 X-64.143
G3 X-65.143 Y-130.119 I0 J-1
G1 Y-135.919
Y-141.119 Z-2.282 F333.3
G3 X-64.143 Y-142.119 Z-2.336 I1 J0
G1 X-63.643 Z-2.354
G3 X-62.674 Y-141.367 Z-2.4 I0 J1
X-62.643 Y-141.119 I-0.969 J0.248 F1000
G1 Y-130.119
G3 X-63.643 Y-129.119 I-1 J0
G1 X-64.143
G3 X-65.143 Y-130.119 I0 J-1
G1 Y-135.919
Y-141.119
G3 X-64.143 Y-142.119 I1 J0
G1 X-63.643
G3 X-62.674 Y-141.367 I0 J1
X-62.643 Y-141.119 Z-2.409 I-0.969 J0.248 F333.3
G1 Y-132.779 Z-2.7
Y-130.119 F1000
G3 X-63.643 Y-129.119 I-1 J0
G1 X-64.143
G3 X-65.143 Y-130.119 I0 J-1
G1 Y-141.119
G3 X-64.143 Y-142.119 I1 J0
G1 X-63.643
G3 X-62.643 Y-141.119 I0 J1
G1 Y-132.779
Y-130.119 Z-2.793 F333.3
G3 X-63.643 Y-129.119 Z-2.848 I-1 J0
G1 X-64.143 Z-2.865
G3 X-65.143 Y-130.119 Z-2.92 I0 J-1
G1 Y-132.408 Z-3
Y-141.119 F1000
G3 X-64.143 Y-142.119 I1 J0
G1 X-63.643
G3 X-62.643 Y-141.119 I0 J1
G1 Y-132.779
Y-130.119
G3 X-63.643 Y-129.119 I-1 J0
G1 X-64.143
G3 X-65.143 Y-130.119 I0 J-1
G1 Y-132.408
Y-138.135 Z-3.2 F333.3
Y-141.119 F1000
G3 X-64.143 Y-142.119 I1 J0
G1 X-63.643
G3 X-62.643 Y-141.119 I0 J1
G1 Y-130.119
G3 X-63.643 Y-129.119 I-1 J0
G1 X-64.143
G3 X-65.143 Y-130.119 I0 J-1
G1 Y-138.135
G0 Z5
X-72.862 Y-148.899
G1 Z1.3 F200
Z0.5
G3 X-72.524 Y-148.15 Z0.47 I-0.662 J0.749 F333.3
G1 Y-126.088 Z-0.3
Y-123.088 F1000
G3 X-73.524 Y-122.088 I-1 J0
G1 X-79.524
G3 X-80.524 Y-123.088 I0 J-1
G1 Y-148.15
G3 X-79.524 Y-149.15 I1 J0
G1 X-73.524
G3 X-72.524 Y-148.15 I0 J1
G1 Y-126.088
Y-123.088 Z-0.405 F333.3
G3 X-73.524 Y-122.088 Z-0.46 I-1 J0
G1 X-77.544 Z-0.6
X-79.524 F1000
G3 X-80.524 Y-123.088 I0 J-1
G1 Y-148.15
G3 X-79.524 Y-149.15 I1 J0
G1 X-73.524
G3 X-72.524 Y-148.15 I0 J1
G1 Y-126.088
Y-123.088
G3 X-73.524 Y-122.088 I-1 J0
G1 X-77.544
X-79.524 Z-0.669 F333.3
G3 X-80.524 Y-123.088 Z-0.724 I0 J-1
G1 Y-128.128 Z-0.9
Y-148.15 F1000
G3 X-79.524 Y-149.15 I1 J0
G1 X-73.524
G3 X-72.524 Y-148.15 I0 J1
G1 Y-123.088
G3 X-73.524 Y-122.088 I-1 J0
G1 X-77.544
X-79.524
G3 X-80.524 Y-123.088 I0 J-1
G1 Y-128.128
Y-136.719 Z-1.2 F333.3
Y-148.15 F1000
G3 X-79.524 Y-149.15 I1 J0
G1 X-73.524
G3 X-72.524 Y-148.15 I0 J1
G1 Y-123.088
G3 X-73.524 Y-122.088 I-1 J0
G1 X-79.524
G3 X-80.524 Y-123.088 I0 J-1
G1 Y-136.719
Y-145.31 Z-1.5 F333.3
Y-148.15 F1000
G3 X-79.524 Y-149.15 I1 J0
G1 X-73.524
G3 X-72.524 Y-148.15 I0 J1
G1 Y-123.088
G3 X-73.524 Y-122.088 I-1 J0
G1 X-79.524
G3 X-80.524 Y-123.088 I0 J-1
G1 Y-136.719
Y-145.31
Y-148.15 Z-1.599 F333.3
G3 X-79.524 Y-149.15 Z-1.654 I1 J0
G1 X-75.344 Z-1.8
X-73.524 F1000
G3 X-72.524 Y-148.15 I0 J1
G1 Y-123.088
G3 X-73.524 Y-122.088 I-1 J0
G1 X-79.524
G3 X-80.524 Y-123.088 I0 J-1
G1 Y-145.31
Y-148.15
G3 X-79.524 Y-149.15 I1 J0
G1 X-75.344
X-73.524 Z-1.864 F333.3
G3 X-72.524 Y-148.15 Z-1.918 I0 J1
G1 Y-142.95 Z-2.1
Y-123.088 F1000
G3 X-73.524 Y-122.088 I-1 J0
G1 X-79.524
G3 X-80.524 Y-123.088 I0 J-1
G1 Y-148.15
G3 X-79.524 Y-149.15 I1 J0
G1 X-75.344
X-73.524
G3 X-72.524 Y-148.15 I0 J1
G1 Y-142.95
Y-134.359 Z-2.4 F333.3
Y-123.088 F1000
G3 X-73.524 Y-122.088 I-1 J0
G1 X-79.524
G3 X-80.524 Y-123.088 I0 J-1
G1 Y-148.15
G3 X-79.524 Y-149.15 I1 J0
G1 X-73.524
G3 X-72.524 Y-148.15 I0 J1
G1 Y-134.359
Y-125.768 Z-2.7 F333.3
Y-123.088 F1000
G3 X-73.524 Y-122.088 I-1 J0
G1 X-79.524
G3 X-80.524 Y-123.088 I0 J-1
G1 Y-148.15
G3 X-79.524 Y-149.15 I1 J0
G1 X-73.524
G3 X-72.524 Y-148.15 I0 J1
G1 Y-134.359
Y-125.768
Y-123.088 Z-2.794 F333.3
G3 X-73.524 Y-122.088 Z-2.848 I-1 J0
G1 X-77.864 Z-3
X-79.524 F1000
G3 X-80.524 Y-123.088 I0 J-1
G1 Y-148.15
G3 X-79.524 Y-149.15 I1 J0
G1 X-73.524
G3 X-72.524 Y-148.15 I0 J1
G1 Y-125.768
Y-123.088
G3 X-73.524 Y-122.088 I-1 J0
G1 X-77.864
X-79.524 Z-3.058 F333.3
G3 X-80.524 Y-123.088 Z-3.113 I0 J-1
G1 Y-125.584 Z-3.2
Y-148.15 F1000
G3 X-79.524 Y-149.15 I1 J0
G1 X-73.524
G3 X-72.524 Y-148.15 I0 J1
G1 Y-123.088
G3 X-73.524 Y-122.088 I-1 J0
G1 X-77.864
X-79.524
G3 X-80.524 Y-123.088 I0 J-1
G1 Y-125.584
G0 Z5
X-87.905 Y-136.566
G1 Z1.3 F200
Z0.5
Y-130.119 Z0.275 F333.3
G3 X-88.905 Y-129.119 Z0.22 I-1 J0
G1 X-89.405 Z0.203
G3 X-90.405 Y-130.119 Z0.148 I0 J-1
G1 Y-141.119 Z-0.236
G3 X-89.405 Y-142.119 Z-0.291 I1 J0
G1 X-89.155 Z-0.3
X-88.905 F1000
G3 X-87.905 Y-141.119 I0 J1
G1 Y-130.119
G3 X-88.905 Y-129.119 I-1 J0
G1 X-89.405
G3 X-90.405 Y-130.119 I0 J-1
G1 Y-141.119
G3 X-89.405 Y-142.119 I1 J0
G1 X-89.155
X-88.905 Z-0.309 F333.3
G3 X-87.905 Y-141.119 Z-0.364 I0 J1
G1 Y-134.349 Z-0.6
Y-130.119 F1000
G3 X-88.905 Y-129.119 I-1 J0
G1 X-89.405
G3 X-90.405 Y-130.119 I0 J-1
G1 Y-141.119
G3 X-89.405 Y-142.119 I1 J0
G1 X-88.905
G3 X-87.905 Y-141.119 I0 J1
G1 Y-134.349
Y-130.119 Z-0.748 F333.3
G3 X-88.905 Y-129.119 Z-0.803 I-1 J0
G1 X-89.405 Z-0.82
G3 X-90.405 Y-130.119 Z-0.875 I0 J-1
G1 Y-130.838 Z-0.9
Y-141.119 F1000
G3 X-89.405 Y-142.119 I1 J0
G1 X-88.905
G3 X-87.905 Y-141.119 I0 J1
G1 Y-134.349
Y-130.119
G3 X-88.905 Y-129.119 I-1 J0
G1 X-89.405
G3 X-90.405 Y-130.119 I0 J-1
G1 Y-130.838
Y-139.429 Z-1.2 F333.3
Y-141.119 F1000
G3 X-89.405 Y-142.119 I1 J0
G1 X-88.905
G3 X-87.905 Y-141.119 I0 J1
G1 Y-130.119
G3 X-88.905 Y-129.119 I-1 J0
G1 X-89.405
G3 X-90.405 Y-130.119 I0 J-1
G1 Y-139.429
Y-141.119 Z-1.259 F333.3
G3 X-89.405 Y-142.119 Z-1.314 I1 J0
G1 X-88.905 Z-1.331
G3 X-87.905 Y-141.119 Z-1.386 I0 J1
G1 Y-137.859 Z-1.5
Y-130.119 F1000
G3 X-88.905 Y-129.119 I-1 J0
G1 X-89.405
G3 X-90.405 Y-130.119 I0 J-1
G1 Y-139.429
Y-141.119
G3 X-89.405 Y-142.119 I1 J0
G1 X-88.905
G3 X-87.905 Y-141.119 I0 J1
G1 Y-137.859
Y-130.119 Z-1.77 F333.3
G3 X-88.246 Y-129.367 Z-1.8 I-1 J0
X-88.905 Y-129.119 I-0.66 J-0.752 F1000
G1 X-89.405
G3 X-90.405 Y-130.119 I0 J-1
G1 Y-141.119
G3 X-89.405 Y-142.119 I1 J0
G1 X-88.905
G3 X-87.905 Y-141.119 I0 J1
G1 Y-130.119
G3 X-88.246 Y-129.367 I-1 J0
X-88.905 Y-129.119 Z-1.825 I-0.66 J-0.752 F333.3
G1 X-89.405 Z-1.843
G3 X-90.405 Y-130.119 Z-1.897 I0 J-1
G1 Y-135.919 Z-2.1
Y-141.119 F1000
G3 X-89.405 Y-142.119 I1 J0
G1 X-88.905
G3 X-87.905 Y-141.119 I0 J1
G1 Y-130.119
G3 X-88.905 Y-129.119 I-1 J0
G1 X-89.405
G3 X-90.405 Y-130.119 I0 J-1
G1 Y-135.919
Y-141.119 Z-2.282 F333.3
G3 X-89.405 Y-142.119 Z-2.336 I1 J0
G1 X-88.905 Z-2.354
G3 X-87.937 Y-141.367 Z-2.4 I0 J1
X-87.905 Y-141.119 I-0.969 J0.248 F1000
G1 Y-130.119
G3 X-88.905 Y-129.119 I-1 J0
G1 X-89.405
G3 X-90.405 Y-130.119 I0 J-1
G1 Y-135.919
Y-141.119
G3 X-89.405 Y-142.119 I1 J0
G1 X-88.905
G3 X-87.937 Y-141.367 I0 J1
X-87.905 Y-141.119 Z-2.409 I-0.969 J0.248 F333.3
G1 Y-132.779 Z-2.7
Y-130.119 F1000
G3 X-88.905 Y-129.119 I-1 J0
G1 X-89.405
G3 X-90.405 Y-130.119 I0 J-1
G1 Y-141.119
G3 X-89.405 Y-142.119 I1 J0
G1 X-88.905
G3 X-87.905 Y-141.119 I0 J1
G1 Y-132.779
Y-130.119 Z-2.793 F333.3
G3 X-88.905 Y-129.119 Z-2.848 I-1 J0
G1 X-89.405 Z-2.865
G3 X-90.405 Y-130.119 Z-2.92 I0 J-1
G1 Y-132.408 Z-3
Y-141.119 F1000
G3 X-89.405 Y-142.119 I1 J0
G1 X-88.905
G3 X-87.905 Y-141.119 I0 J1
G1 Y-132.779
Y-130.119
G3 X-88.905 Y-129.119 I-1 J0
G1 X-89.405
G3 X-90.405 Y-130.119 I0 J-1
G1 Y-132.408
Y-138.135 Z-3.2 F333.3
Y-141.119 F1000
G3 X-89.405 Y-142.119 I1 J0
G1 X-88.905
G3 X-87.905 Y-141.119 I0 J1
G1 Y-130.119
G3 X-88.905 Y-129.119 I-1 J0
G1 X-89.405
G3 X-90.405 Y-130.119 I0 J-1
G1 Y-138.135
G0 Z5
X-38.405 Y-134.672
G1 Z1.3 F200
Z0.5
Y-141.119 Z0.275 F333.3
G3 X-37.405 Y-142.119 Z0.22 I1 J0
G1 X-36.905 Z0.203
G3 X-35.905 Y-141.119 Z0.148 I0 J1
G1 Y-130.119 Z-0.236
G3 X-36.905 Y-129.119 Z-0.291 I-1 J0
G1 X-37.155 Z-0.3
X-37.405 F1000
G3 X-38.405 Y-130.119 I0 J-1
G1 Y-141.119
G3 X-37.405 Y-142.119 I1 J0
G1 X-36.905
G3 X-35.905 Y-141.119 I0 J1
G1 Y-130.119
G3 X-36.905 Y-129.119 I-1 J0
G1 X-37.155
X-37.405 Z-0.309 F333.3
G3 X-38.405 Y-130.119 Z-0.364 I0 J-1
G1 Y-136.889 Z-0.6
Y-141.119 F1000
G3 X-37.405 Y-142.119 I1 J0
G1 X-36.905
G3 X-35.905 Y-141.119 I0 J1
G1 Y-130.119
G3 X-36.905 Y-129.119 I-1 J0
G1 X-37.405
G3 X-38.405 Y-130.119 I0 J-1
G1 Y-136.889
Y-141.119 Z-0.748 F333.3
G3 X-37.405 Y-142.119 Z-0.803 I1 J0
G1 X-36.905 Z-0.82
G3 X-35.905 Y-141.119 Z-0.875 I0 J1
G1 Y-140.4 Z-0.9
Y-130.119 F1000
G3 X-36.905 Y-129.119 I-1 J0
G1 X-37.405
G3 X-38.405 Y-130.119 I0 J-1
G1 Y-136.889
Y-141.119
G3 X-37.405 Y-142.119 I1 J0
G1 X-36.905
G3 X-35.905 Y-141.119 I0 J1
G1 Y-140.4
Y-131.809 Z-1.2 F333.3
Y-130.119 F1000
G3 X-36.905 Y-129.119 I-1 J0
G1 X-37.405
G3 X-38.405 Y-130.119 I0 J-1
G1 Y-141.119
G3 X-37.405 Y-142.119 I1 J0
G1 X-36.905
G3 X-35.905 Y-141.119 I0 J1
G1 Y-131.809
Y-130.119 Z-1.259 F333.3
G3 X-36.905 Y-129.119 Z-1.314 I-1 J0
G1 X-37.405 Z-1.331
G3 X-38.405 Y-130.119 Z-1.386 I0 J-1
G1 Y-133.379 Z-1.5
Y-141.119 F1000
G3 X-37.405 Y-142.119 I1 J0
G1 X-36.905
G3 X-35.905 Y-141.119 I0 J1
G1 Y-131.809
Y-130.119
G3 X-36.905 Y-129.119 I-1 J0
G1 X-37.405
G3 X-38.405 Y-130.119 I0 J-1
G1 Y-133.379
Y-141.119 Z-1.77 F333.3
G3 X-38.065 Y-141.871 Z-1.8 I1 J0
X-37.405 Y-142.119 I0.66 J0.752 F1000
G1 X-36.905
G3 X-35.905 Y-141.119 I0 J1
G1 Y-130.119
G3 X-36.905 Y-129.119 I-1 J0
G1 X-37.405
G3 X-38.405 Y-130.119 I0 J-1
G1 Y-141.119
G3 X-38.065 Y-141.871 I1 J0
X-37.405 Y-142.119 Z-1.825 I0.66 J0.752 F333.3
G1 X-36.905 Z-1.843
G3 X-35.905 Y-141.119 Z-1.897 I0 J1
G1 Y-135.319 Z-2.1
Y-130.119 F1000
G3 X-36.905 Y-129.119 I-1 J0
G1 X-37.405
G3 X-38.405 Y-130.119 I0 J-1
G1 Y-141.119
G3 X-37.405 Y-142.119 I1 J0
G1 X-36.905
G3 X-35.905 Y-141.119 I0 J1
G1 Y-135.319
Y-130.119 Z-2.282 F333.3
G3 X-36.905 Y-129.119 Z-2.336 I-1 J0
G1 X-37.405 Z-2.354
G3 X-38.374 Y-129.871 Z-2.4 I0 J-1
X-38.405 Y-130.119 I0.969 J-0.248 F1000
G1 Y-141.119
G3 X-37.405 Y-142.119 I1 J0
G1 X-36.905
G3 X-35.905 Y-141.119 I0 J1
G1 Y-135.319
Y-130.119
G3 X-36.905 Y-129.119 I-1 J0
G1 X-37.405
G3 X-38.374 Y-129.871 I0 J-1
X-38.405 Y-130.119 Z-2.409 I0.969 J-0.248 F333.3
G1 Y-138.459 Z-2.7
Y-141.119 F1000
G3 X-37.405 Y-142.119 I1 J0
G1 X-36.905
G3 X-35.905 Y-141.119 I0 J1
G1 Y-130.119
G3 X-36.905 Y-129.119 I-1 J0
G1 X-37.405
G3 X-38.405 Y-130.119 I0 J-1
G1 Y-138.459
Y-141.119 Z-2.793 F333.3
G3 X-37.405 Y-142.119 Z-2.848 I1 J0
G1 X-36.905 Z-2.865
G3 X-35.905 Y-141.119 Z-2.92 I0 J1
G1 Y-138.83 Z-3
Y-130.119 F1000
G3 X-36.905 Y-129.119 I-1 J0
G1 X-37.405
G3 X-38.405 Y-130.119 I0 J-1
G1 Y-138.459
Y-141.119
G3 X-37.405 Y-142.119 I1 J0
G1 X-36.905
G3 X-35.905 Y-141.119 I0 J1
G1 Y-138.83
Y-133.103 Z-3.2 F333.3
Y-130.119 F1000
G3 X-36.905 Y-129.119 I-1 J0
G1 X-37.405
G3 X-38.405 Y-130.119 I0 J-1
G1 Y-141.119
G3 X-37.405 Y-142.119 I1 J0
G1 X-36.905
G3 X-35.905 Y-141.119 I0 J1
G1 Y-133.103
G0 Z5
X-28.186 Y-122.339
G1 Z1.3 F200
Z0.5
G3 X-28.524 Y-123.088 Z0.47 I0.662 J-0.749 F333.3
G1 Y-145.15 Z-0.3
Y-148.15 F1000
G3 X-27.524 Y-149.15 I1 J0
G1 X-21.524
G3 X-20.524 Y-148.15 I0 J1
G1 Y-123.088
G3 X-21.524 Y-122.088 I-1 J0
G1 X-27.524
G3 X-28.524 Y-123.088 I0 J-1
G1 Y-145.15
Y-148.15 Z-0.405 F333.3
G3 X-27.524 Y-149.15 Z-0.46 I1 J0
G1 X-23.504 Z-0.6
X-21.524 F1000
G3 X-20.524 Y-148.15 I0 J1
G1 Y-123.088
G3 X-21.524 Y-122.088 I-1 J0
G1 X-27.524
G3 X-28.524 Y-123.088 I0 J-1
G1 Y-145.15
Y-148.15
G3 X-27.524 Y-149.15 I1 J0
G1 X-23.504
X-21.524 Z-0.669 F333.3
G3 X-20.524 Y-148.15 Z-0.724 I0 J1
G1 Y-143.11 Z-0.9
Y-123.088 F1000
G3 X-21.524 Y-122.088 I-1 J0
G1 X-27.524
G3 X-28.524 Y-123.088 I0 J-1
G1 Y-148.15
G3 X-27.524 Y-149.15 I1 J0
G1 X-23.504
X-21.524
G3 X-20.524 Y-148.15 I0 J1
G1 Y-143.11
Y-134.519 Z-1.2 F333.3
Y-123.088 F1000
G3 X-21.524 Y-122.088 I-1 J0
G1 X-27.524
G3 X-28.524 Y-123.088 I0 J-1
G1 Y-148.15
G3 X-27.524 Y-149.15 I1 J0
G1 X-21.524
G3 X-20.524 Y-148.15 I0 J1
G1 Y-134.519
Y-125.928 Z-1.5 F333.3
Y-123.088 F1000
G3 X-21.524 Y-122.088 I-1 J0
G1 X-27.524
G3 X-28.524 Y-123.088 I0 J-1
G1 Y-148.15
G3 X-27.524 Y-149.15 I1 J0
G1 X-21.524
G3 X-20.524 Y-148.15 I0 J1
G1 Y-134.519
Y-125.928
Y-123.088 Z-1.599 F333.3
G3 X-21.524 Y-122.088 Z-1.654 I-1 J0
G1 X-25.704 Z-1.8
X-27.524 F1000
G3 X-28.524 Y-123.088 I0 J-1
G1 Y-148.15
G3 X-27.524 Y-149.15 I1 J0
G1 X-21.524
G3 X-20.524 Y-148.15 I0 J1
G1 Y-125.928
Y-123.088
G3 X-21.524 Y-122.088 I-1 J0
G1 X-25.704
X-27.524 Z-1.864 F333.3
G3 X-28.524 Y-123.088 Z-1.918 I0 J-1
G1 Y-128.288 Z-2.1
Y-148.15 F1000
G3 X-27.524 Y-149.15 I1 J0
G1 X-21.524
G3 X-20.524 Y-148.15 I0 J1
G1 Y-123.088
G3 X-21.524 Y-122.088 I-1 J0
G1 X-25.704
X-27.524
G3 X-28.524 Y-123.088 I0 J-1
G1 Y-128.288
Y-136.879 Z-2.4 F333.3
Y-148.15 F1000
G3 X-27.524 Y-149.15 I1 J0
G1 X-21.524
G3 X-20.524 Y-148.15 I0 J1
G1 Y-123.088
G3 X-21.524 Y-122.088 I-1 J0
G1 X-27.524
G3 X-28.524 Y-123.088 I0 J-1
G1 Y-136.879
Y-145.47 Z-2.7 F333.3
Y-148.15 F1000
G3 X-27.524 Y-149.15 I1 J0
G1 X-21.524
G3 X-20.524 Y-148.15 I0 J1
G1 Y-123.088
G3 X-21.524 Y-122.088 I-1 J0
G1 X-27.524
G3 X-28.524 Y-123.088 I0 J-1
G1 Y-136.879
Y-145.47
Y-148.15 Z-2.794 F333.3
G3 X-27.524 Y-149.15 Z-2.848 I1 J0
G1 X-23.184 Z-3
X-21.524 F1000
G3 X-20.524 Y-148.15 I0 J1
G1 Y-123.088
G3 X-21.524 Y-122.088 I-1 J0
G1 X-27.524
G3 X-28.524 Y-123.088 I0 J-1
G1 Y-145.47
Y-148.15
G3 X-27.524 Y-149.15 I1 J0
G1 X-23.184
X-21.524 Z-3.058 F333.3
G3 X-20.524 Y-148.15 Z-3.113 I0 J1
G1 Y-145.654 Z-3.2
Y-123.088 F1000
G3 X-21.524 Y-122.088 I-1 J0
G1 X-27.524
G3 X-28.524 Y-123.088 I0 J-1
G1 Y-148.15
G3 X-27.524 Y-149.15 I1 J0
G1 X-23.184
X-21.524
G3 X-20.524 Y-148.15 I0 J1
G1 Y-145.654
G0 Z5
X-10.643 Y-138.636
G1 Z1.3 F200
Z0.5
Y-130.119 Z0.203 F333.3
G3 X-11.643 Y-129.119 Z0.148 I-1 J0
G1 X-12.143 Z0.13
G3 X-13.143 Y-130.119 Z0.075 I0 J-1
G1 Y-140.869 Z-0.3
Y-141.119 F1000
G3 X-12.143 Y-142.119 I1 J0
G1 X-11.643
G3 X-10.643 Y-141.119 I0 J1
G1 Y-130.119
G3 X-11.643 Y-129.119 I-1 J0
G1 X-12.143
G3 X-13.143 Y-130.119 I0 J-1
G1 Y-140.869
Y-141.119 Z-0.309 F333.3
G3 X-12.143 Y-142.119 Z-0.364 I1 J0
G1 X-11.643 Z-0.381
G3 X-10.643 Y-141.119 Z-0.436 I0 J1
G1 Y-136.42 Z-0.6
Y-130.119 F1000
G3 X-11.643 Y-129.119 I-1 J0
G1 X-12.143
G3 X-13.143 Y-130.119 I0 J-1
G1 Y-140.869
Y-141.119
G3 X-12.143 Y-142.119 I1 J0
G1 X-11.643
G3 X-10.643 Y-141.119 I0 J1
G1 Y-136.42
Y-130.119 Z-0.82 F333.3
G3 X-11.643 Y-129.119 Z-0.875 I-1 J0
G1 X-12.143 Z-0.892
X-12.252 Y-129.125 Z-0.896
X-12.361 Y-129.143 Z-0.9
G3 X-13.143 Y-130.119 I0.218 J-0.976 F1000
G1 Y-141.119
G3 X-12.143 Y-142.119 I1 J0
G1 X-11.643
G3 X-10.643 Y-141.119 I0 J1
G1 Y-130.119
G3 X-11.643 Y-129.119 I-1 J0
G1 X-12.143
X-12.252 Y-129.125
X-12.361 Y-129.143
G3 X-13.143 Y-130.119 Z-0.947 I0.218 J-0.976 F333.3
G1 Y-137.358 Z-1.2
Y-141.119 F1000
G3 X-12.143 Y-142.119 I1 J0
G1 X-11.643
G3 X-10.643 Y-141.119 I0 J1
G1 Y-130.119
G3 X-11.643 Y-129.119 I-1 J0
G1 X-12.143
G3 X-13.143 Y-130.119 I0 J-1
G1 Y-137.358
Y-141.119 Z-1.331 F333.3
G3 X-12.143 Y-142.119 Z-1.386 I1 J0
G1 X-11.643 Z-1.404
G3 X-10.643 Y-141.119 Z-1.458 I0 J1
G1 Y-139.93 Z-1.5
Y-130.119 F1000
G3 X-11.643 Y-129.119 I-1 J0
G1 X-12.143
G3 X-13.143 Y-130.119 I0 J-1
G1 Y-137.358
Y-141.119
G3 X-12.143 Y-142.119 I1 J0
G1 X-11.643
G3 X-10.643 Y-141.119 I0 J1
G1 Y-139.93
Y-131.339 Z-1.8 F333.3
Y-130.119 F1000
G3 X-11.643 Y-129.119 I-1 J0
G1 X-12.143
G3 X-13.143 Y-130.119 I0 J-1
G1 Y-141.119
G3 X-12.143 Y-142.119 I1 J0
G1 X-11.643
G3 X-10.643 Y-141.119 I0 J1
G1 Y-131.339
Y-130.119 Z-1.843 F333.3
G3 X-11.643 Y-129.119 Z-1.897 I-1 J0
G1 X-12.143 Z-1.915
G3 X-13.143 Y-130.119 Z-1.97 I0 J-1
G1 Y-133.848 Z-2.1
Y-141.119 F1000
G3 X-12.143 Y-142.119 I1 J0
G1 X-11.643
G3 X-10.643 Y-141.119 I0 J1
G1 Y-131.339
Y-130.119
G3 X-11.643 Y-129.119 I-1 J0
G1 X-12.143
G3 X-13.143 Y-130.119 I0 J-1
G1 Y-133.848
Y-141.119 Z-2.354 F333.3
G3 X-12.391 Y-142.088 Z-2.4 I1 J0
X-12.143 Y-142.119 I0.248 J0.969 F1000
G1 X-11.643
G3 X-10.643 Y-141.119 I0 J1
G1 Y-130.119
G3 X-11.643 Y-129.119 I-1 J0
G1 X-12.143
G3 X-13.143 Y-130.119 I0 J-1
G1 Y-141.119
G3 X-12.391 Y-142.088 I1 J0
X-12.143 Y-142.119 Z-2.409 I0.248 J0.969 F333.3
G1 X-11.643 Z-2.426
G3 X-10.643 Y-141.119 Z-2.481 I0 J1
G1 Y-134.85 Z-2.7
Y-130.119 F1000
G3 X-11.643 Y-129.119 I-1 J0
G1 X-12.143
G3 X-13.143 Y-130.119 I0 J-1
G1 Y-141.119
G3 X-12.143 Y-142.119 I1 J0
G1 X-11.643
G3 X-10.643 Y-141.119 I0 J1
G1 Y-134.85
Y-130.119 Z-2.865 F333.3
G3 X-11.643 Y-129.119 Z-2.92 I-1 J0
G1 X-12.143 Z-2.938
G3 X-13.143 Y-130.119 Z-2.992 I0 J-1
G1 Y-130.337 Z-3
Y-141.119 F1000
G3 X-12.143 Y-142.119 I1 J0
G1 X-11.643
G3 X-10.643 Y-141.119 I0 J1
G1 Y-134.85
Y-130.119
G3 X-11.643 Y-129.119 I-1 J0
G1 X-12.143
G3 X-13.143 Y-130.119 I0 J-1
G1 Y-130.337
Y-136.065 Z-3.2 F333.3
Y-141.119 F1000
G3 X-12.143 Y-142.119 I1 J0
G1 X-11.643
G3 X-10.643 Y-141.119 I0 J1
G1 Y-130.119
G3 X-11.643 Y-129.119 I-1 J0
G1 X-12.143
G3 X-13.143 Y-130.119 I0 J-1
G1 Y-136.065
G0 Z15

(Bohrfrasen10)
X-15.955 Y-99.904
Z15
Z2
G1 Z0.1 F1000
X-15.96 Y-99.899 Z0.062
X-15.975 Y-99.883 Z0.029
X-15.998 Y-99.86 Z0.008
X-16.025 Y-99.833 Z0
X-16.061 Y-99.798
X-16.093 Y-99.776
X-16.131 Y-99.769
X-16.17 Y-99.776
X-16.202 Y-99.798
G3 X-13.798 Y-102.202 Z-0.5 I1.202 J-1.202
X-16.202 Y-99.798 Z-1 I-1.202 J1.202
X-13.798 Y-102.202 Z-1.5 I1.202 J-1.202
X-16.202 Y-99.798 Z-2 I-1.202 J1.202
X-13.798 Y-102.202 Z-2.5 I1.202 J-1.202
X-16.202 Y-99.798 Z-3 I-1.202 J1.202
X-16.515 Y-101.772 Z-3.2 I1.202 J-1.202
X-13.485 Y-100.228 I1.515 J0.772
X-16.515 Y-101.772 I-1.515 J-0.772
G1 X-16.491 Y-101.802
X-16.457 Y-101.821
X-16.418 Y-101.826
X-16.38 Y-101.815
X-16.336 Y-101.793
X-16.302 Y-101.775 Z-3.192
X-16.273 Y-101.761 Z-3.171
X-16.253 Y-101.751 Z-3.138
X-16.247 Y-101.747 Z-3.1
G0 Z5
X-15.955 Y-73.237
Z2
G1 Z0.1 F1000
X-15.96 Y-73.232 Z0.062
X-15.975 Y-73.217 Z0.029
X-15.998 Y-73.194 Z0.008
X-16.025 Y-73.167 Z0
X-16.061 Y-73.131
X-16.093 Y-73.11
X-16.131 Y-73.102
X-16.17 Y-73.11
X-16.202 Y-73.131
G3 X-13.798 Y-75.535 Z-0.5 I1.202 J-1.202
X-16.202 Y-73.131 Z-1 I-1.202 J1.202
X-13.798 Y-75.535 Z-1.5 I1.202 J-1.202
X-16.202 Y-73.131 Z-2 I-1.202 J1.202
X-13.798 Y-75.535 Z-2.5 I1.202 J-1.202
X-16.202 Y-73.131 Z-3 I-1.202 J1.202
X-16.515 Y-75.105 Z-3.2 I1.202 J-1.202
X-13.485 Y-73.562 I1.515 J0.772
X-16.515 Y-75.105 I-1.515 J-0.772
G1 X-16.491 Y-75.136
X-16.457 Y-75.155
X-16.418 Y-75.159
X-16.38 Y-75.149
X-16.336 Y-75.126
X-16.302 Y-75.109 Z-3.192
X-16.273 Y-75.094 Z-3.171
X-16.253 Y-75.084 Z-3.138
X-16.247 Y-75.081 Z-3.1
G0 Z5
X-15.955 Y-46.571
Z2
G1 Z0.1 F1000
X-15.96 Y-46.565 Z0.062
X-15.975 Y-46.55 Z0.029
X-15.998 Y-46.527 Z0.008
X-16.025 Y-46.5 Z0
X-16.061 Y-46.465
X-16.093 Y-46.443
X-16.131 Y-46.435
X-16.17 Y-46.443
X-16.202 Y-46.465
G3 X-13.798 Y-48.869 Z-0.5 I1.202 J-1.202
X-16.202 Y-46.465 Z-1 I-1.202 J1.202
X-13.798 Y-48.869 Z-1.5 I1.202 J-1.202
X-16.202 Y-46.465 Z-2 I-1.202 J1.202
X-13.798 Y-48.869 Z-2.5 I1.202 J-1.202
X-16.202 Y-46.465 Z-3 I-1.202 J1.202
X-16.515 Y-48.438 Z-3.2 I1.202 J-1.202
X-13.485 Y-46.895 I1.515 J0.772
X-16.515 Y-48.438 I-1.515 J-0.772
G1 X-16.491 Y-48.469
X-16.457 Y-48.488
X-16.418 Y-48.493
X-16.38 Y-48.482
X-16.336 Y-48.459
X-16.302 Y-48.442 Z-3.192
X-16.273 Y-48.427 Z-3.171
X-16.253 Y-48.418 Z-3.138
X-16.247 Y-48.414 Z-3.1
G0 Z5
X-15.955 Y-19.904
Z2
G1 Z0.1 F1000
X-15.96 Y-19.899 Z0.062
X-15.975 Y-19.883 Z0.029
X-15.998 Y-19.86 Z0.008
X-16.025 Y-19.833 Z0
X-16.061 Y-19.798
X-16.093 Y-19.776
X-16.131 Y-19.769
X-16.17 Y-19.776
X-16.202 Y-19.798
G3 X-13.798 Y-22.202 Z-0.5 I1.202 J-1.202
X-16.202 Y-19.798 Z-1 I-1.202 J1.202
X-13.798 Y-22.202 Z-1.5 I1.202 J-1.202
X-16.202 Y-19.798 Z-2 I-1.202 J1.202
X-13.798 Y-22.202 Z-2.5 I1.202 J-1.202
X-16.202 Y-19.798 Z-3 I-1.202 J1.202
X-16.515 Y-21.772 Z-3.2 I1.202 J-1.202
X-13.485 Y-20.228 I1.515 J0.772
X-16.515 Y-21.772 I-1.515 J-0.772
G1 X-16.491 Y-21.802
X-16.457 Y-21.821
X-16.418 Y-21.826
X-16.38 Y-21.815
X-16.336 Y-21.793
X-16.302 Y-21.775 Z-3.192
X-16.273 Y-21.761 Z-3.171
X-16.253 Y-21.751 Z-3.138
X-16.247 Y-21.747 Z-3.1
G0 Z5
X-88.245 Y-9.447
Z2
G1 Z0.1 F1000
X-88.239 Y-9.452 Z0.062
X-88.224 Y-9.467 Z0.029
X-88.201 Y-9.49 Z0.008
X-88.174 Y-9.517 Z0
X-88.138 Y-9.553
X-88.106 Y-9.574
X-88.068 Y-9.582
X-88.029 Y-9.574
X-87.997 Y-9.553
G3 X-90.401 Y-7.148 Z-0.5 I-1.202 J1.202
X-87.997 Y-9.553 Z-1 I1.202 J-1.202
X-90.401 Y-7.148 Z-1.5 I-1.202 J1.202
X-87.997 Y-9.553 Z-2 I1.202 J-1.202
X-90.401 Y-7.148 Z-2.5 I-1.202 J1.202
X-87.997 Y-9.553 Z-3 I1.202 J-1.202
X-87.684 Y-7.579 Z-3.2 I-1.202 J1.202
X-90.714 Y-9.122 I-1.515 J-0.772
X-87.684 Y-7.579 I1.515 J0.772
G1 X-87.709 Y-7.548
X-87.743 Y-7.529
X-87.781 Y-7.525
X-87.819 Y-7.535
X-87.863 Y-7.558
X-87.898 Y-7.575 Z-3.192
X-87.926 Y-7.59 Z-3.171
X-87.946 Y-7.6 Z-3.138
X-87.953 Y-7.603 Z-3.1
G0 Z5
X-88.245 Y-36.113
Z2
G1 Z0.1 F1000
X-88.239 Y-36.119 Z0.062
X-88.224 Y-36.134 Z0.029
X-88.201 Y-36.157 Z0.008
X-88.174 Y-36.184 Z0
X-88.138 Y-36.219
X-88.106 Y-36.241
X-88.068 Y-36.249
X-88.029 Y-36.241
X-87.997 Y-36.219
G3 X-90.401 Y-33.815 Z-0.5 I-1.202 J1.202
X-87.997 Y-36.219 Z-1 I1.202 J-1.202
X-90.401 Y-33.815 Z-1.5 I-1.202 J1.202
X-87.997 Y-36.219 Z-2 I1.202 J-1.202
X-90.401 Y-33.815 Z-2.5 I-1.202 J1.202
X-87.997 Y-36.219 Z-3 I1.202 J-1.202
X-87.684 Y-34.245 Z-3.2 I-1.202 J1.202
X-90.714 Y-35.789 I-1.515 J-0.772
X-87.684 Y-34.245 I1.515 J0.772
G1 X-87.709 Y-34.215
X-87.743 Y-34.196
X-87.781 Y-34.191
X-87.819 Y-34.202
X-87.863 Y-34.224
X-87.898 Y-34.242 Z-3.192
X-87.926 Y-34.257 Z-3.171
X-87.946 Y-34.266 Z-3.138
X-87.953 Y-34.27 Z-3.1
G0 Z5
X-88.245 Y-62.78
Z2
G1 Z0.1 F1000
X-88.239 Y-62.785 Z0.062
X-88.224 Y-62.801 Z0.029
X-88.201 Y-62.824 Z0.008
X-88.174 Y-62.851 Z0
X-88.138 Y-62.886
X-88.106 Y-62.908
X-88.068 Y-62.915
X-88.029 Y-62.908
X-87.997 Y-62.886
G3 X-90.401 Y-60.482 Z-0.5 I-1.202 J1.202
X-87.997 Y-62.886 Z-1 I1.202 J-1.202
X-90.401 Y-60.482 Z-1.5 I-1.202 J1.202
X-87.997 Y-62.886 Z-2 I1.202 J-1.202
X-90.401 Y-60.482 Z-2.5 I-1.202 J1.202
X-87.997 Y-62.886 Z-3 I1.202 J-1.202
X-87.684 Y-60.912 Z-3.2 I-1.202 J1.202
X-90.714 Y-62.456 I-1.515 J-0.772
X-87.684 Y-60.912 I1.515 J0.772
G1 X-87.709 Y-60.881
X-87.743 Y-60.862
X-87.781 Y-60.858
X-87.819 Y-60.868
X-87.863 Y-60.891
X-87.898 Y-60.909 Z-3.192
X-87.926 Y-60.923 Z-3.171
X-87.946 Y-60.933 Z-3.138
X-87.953 Y-60.937 Z-3.1
G0 Z5
X-88.245 Y-89.447
Z2
G1 Z0.1 F1000
X-88.239 Y-89.452 Z0.062
X-88.224 Y-89.467 Z0.029
X-88.201 Y-89.49 Z0.008
X-88.174 Y-89.517 Z0
X-88.138 Y-89.553
X-88.106 Y-89.574
X-88.068 Y-89.582
X-88.029 Y-89.574
X-87.997 Y-89.553
G3 X-90.401 Y-87.148 Z-0.5 I-1.202 J1.202
X-87.997 Y-89.553 Z-1 I1.202 J-1.202
X-90.401 Y-87.148 Z-1.5 I-1.202 J1.202
X-87.997 Y-89.553 Z-2 I1.202 J-1.202
X-90.401 Y-87.148 Z-2.5 I-1.202 J1.202
X-87.997 Y-89.553 Z-3 I1.202 J-1.202
X-87.684 Y-87.579 Z-3.2 I-1.202 J1.202
X-90.714 Y-89.122 I-1.515 J-0.772
X-87.684 Y-87.579 I1.515 J0.772
G1 X-87.709 Y-87.548
X-87.743 Y-87.529
X-87.781 Y-87.525
X-87.819 Y-87.535
X-87.863 Y-87.558
X-87.898 Y-87.575 Z-3.192
X-87.926 Y-87.59 Z-3.171
X-87.946 Y-87.6 Z-3.138
X-87.953 Y-87.603 Z-3.1
G0 Z15

(2D-Kontur6)
X-83.195 Y-67.725
Z15
Z5
G1 Z1.3 F200
Z0.5
X-84.449 Y-67.865 Z0.456 F333.3
X-84.455 Y-67.866
X-85.852 Y-68.004 Z0.407
X-85.862 Y-68.005 Z0.406
X-87.214 Y-68.112 Z0.359
X-87.226 Y-68.113
X-87.888 Y-68.151 Z0.335
X-87.898
X-88.557 Y-68.176 Z0.312
X-88.569
X-89.229 Y-68.184 Z0.289
X-89.244 Z0.288
X-89.912 Y-68.173 Z0.265
X-89.928 Y-68.172 Z0.264
X-90.61 Y-68.14 Z0.24
X-90.626 Y-68.139
X-91.327 Y-68.082 Z0.215
X-91.343 Y-68.08
X-92.065 Y-67.998 Z0.189
X-92.081 Y-67.995
X-92.825 Y-67.886 Z0.162
X-92.841 Y-67.883
X-93.605 Y-67.746 Z0.135
X-93.62 Y-67.743 Z0.134
X-94.402 Y-67.578 Z0.106
X-94.416 Y-67.574
X-95.21 Y-67.382 Z0.077
X-95.224 Y-67.378
X-96.023 Y-67.159 Z0.048
X-96.038 Y-67.155 Z0.047
X-96.836 Y-66.909 Z0.018
X-96.851 Y-66.905
X-97.641 Y-66.635 Z-0.012
X-97.656 Y-66.629
X-98.429 Y-66.336 Z-0.041
X-98.446 Y-66.329 Z-0.042
X-99.193 Y-66.015 Z-0.07
X-99.211 Y-66.007 Z-0.071
X-99.924 Y-65.673 Z-0.098
X-99.944 Y-65.663 Z-0.099
X-100.613 Y-65.311 Z-0.125
X-100.631 Y-65.302 Z-0.126
X-100.946 Y-65.12 Z-0.139
X-100.958 Y-65.113
X-101.259 Y-64.928 Z-0.152
X-101.272 Y-64.92
X-101.558 Y-64.731 Z-0.164
X-101.573 Y-64.721 Z-0.165
X-101.842 Y-64.53 Z-0.176
X-101.857 Y-64.518 Z-0.177
X-102.109 Y-64.324 Z-0.188
X-102.126 Y-64.31 Z-0.189
X-102.359 Y-64.114 Z-0.199
X-102.376 Y-64.099 Z-0.2
X-102.591 Y-63.9 Z-0.21
X-102.612 Y-63.88 Z-0.211
X-102.806 Y-63.68 Z-0.221
X-102.826 Y-63.657 Z-0.222
X-102.999 Y-63.455 Z-0.231
X-103.02 Y-63.429 Z-0.233
X-103.172 Y-63.225 Z-0.242
X-103.193 Y-63.193 Z-0.243
X-103.323 Y-62.988 Z-0.251
X-103.346 Y-62.949 Z-0.253
X-103.452 Y-62.743 Z-0.261
X-103.47 Y-62.703 Z-0.263
X-103.554 Y-62.496 Z-0.27
X-103.571 Y-62.446 Z-0.272
X-103.631 Y-62.239 Z-0.28
X-103.644 Y-62.185 Z-0.282
X-103.68 Y-61.977 Z-0.289
X-103.686 Y-61.921 Z-0.291
X-103.698 Y-61.713 Z-0.298
X-103.699 Y-61.664 Z-0.3
X-103.698 Y-61.655 F1000
X-103.686 Y-61.447
X-103.68 Y-61.39
X-103.644 Y-61.182
X-103.631 Y-61.129
X-103.571 Y-60.921
X-103.554 Y-60.872
X-103.47 Y-60.665
X-103.452 Y-60.625
X-103.346 Y-60.418
X-103.323 Y-60.379
X-103.193 Y-60.174
X-103.172 Y-60.143
X-103.02 Y-59.939
X-102.999 Y-59.913
X-102.826 Y-59.711
X-102.806 Y-59.688
X-102.612 Y-59.487
X-102.591 Y-59.468
X-102.376 Y-59.269
X-102.359 Y-59.254
X-102.126 Y-59.058
X-102.109 Y-59.044
X-101.857 Y-58.849
X-101.842 Y-58.838
X-101.573 Y-58.647
X-101.558 Y-58.637
X-101.272 Y-58.448
X-101.259 Y-58.44
X-100.958 Y-58.255
X-100.946 Y-58.248
X-100.631 Y-58.066
X-100.613 Y-58.056
X-99.944 Y-57.705
X-99.924 Y-57.695
X-99.211 Y-57.361
X-99.193 Y-57.353
X-98.446 Y-57.038
X-98.429 Y-57.032
X-97.656 Y-56.739
X-97.641 Y-56.733
X-96.851 Y-56.463
X-96.836 Y-56.458
X-96.038 Y-56.213
X-96.024 Y-56.209
X-95.224 Y-55.99
X-95.21 Y-55.986
X-94.416 Y-55.793
X-94.402 Y-55.79
X-93.62 Y-55.625
X-93.605 Y-55.622
X-92.841 Y-55.485
X-92.825 Y-55.482
X-92.081 Y-55.372
X-92.065 Y-55.37
X-91.343 Y-55.288
X-91.327 Y-55.286
X-90.626 Y-55.229
X-90.61 Y-55.228
X-89.928 Y-55.196
X-89.912 Y-55.195
X-89.244 Y-55.184
X-89.229
X-88.569 Y-55.192
X-88.557
X-87.898 Y-55.217
X-87.888
X-87.226 Y-55.255
X-87.214
X-85.862 Y-55.363
X-85.852 Y-55.364
X-84.455 Y-55.502
X-84.449 Y-55.503
X-83.012 Y-55.663
X-83.007 Y-55.664
X-81.55 Y-55.841
X-81.546 Y-55.842
X-80.092 Y-56.032
X-80.087
X-78.663 Y-56.234
X-78.657 Y-56.235
X-77.29 Y-56.446
X-77.283 Y-56.447
X-75.986 Y-56.667
X-75.98 Y-56.668
X-74.75 Y-56.891
X-74.749
X-73.563 Y-57.111
X-72.38 Y-57.316
X-71.775 Y-57.409
X-71.149 Y-57.495
X-70.497 Y-57.572
X-69.813 Y-57.64
X-69.095 Y-57.697
X-68.339 Y-57.744
X-67.548 Y-57.78
X-66.721 Y-57.806
X-65.863 Y-57.821
X-64.975 Y-57.827
X-63.121 Y-57.811
X-61.192 Y-57.763
X-59.223 Y-57.691
X-57.25 Y-57.601
X-55.31 Y-57.503
X-53.437 Y-57.406
X-51.654 Y-57.317
X-51.651
X-49.968 Y-57.243
X-49.963 Y-57.242
X-48.37 Y-57.188
X-48.363
X-46.841 Y-57.157
X-46.833
X-45.355 Y-57.15
X-45.347
X-43.887 Y-57.166
X-43.88
X-42.42 Y-57.203
X-42.415
X-40.944 Y-57.256
X-40.94
X-39.457 Y-57.322
X-39.455
X-37.96 Y-57.394
X-36.456 Y-57.467
X-34.952 Y-57.537
X-33.453 Y-57.597
X-31.967 Y-57.644
X-30.501 Y-57.674
X-29.056 Y-57.684
G2 X-28.706 Y-57.83 I-0.004 J-0.5
G1 X-25.913 Y-60.623
G2 X-25.913 Y-62.745 I-1.061 J-1.061
G1 X-28.706 Y-65.537
G2 X-29.056 Y-65.684 I-0.354 J0.354
G1 X-30.501 Y-65.694
X-31.967 Y-65.724
X-33.453 Y-65.77
X-34.952 Y-65.831
X-36.456 Y-65.9
X-37.959 Y-65.974
X-39.455 Y-66.046
X-39.457
X-40.94 Y-66.111
X-40.944 Y-66.112
X-42.415 Y-66.165
X-42.42
X-43.88 Y-66.201
X-43.887
X-45.347 Y-66.218
X-45.355
X-46.833 Y-66.211
X-46.841
X-48.363 Y-66.18
X-48.37
X-49.963 Y-66.125
X-49.968
X-51.651 Y-66.051
X-51.654
X-53.436 Y-65.962
X-55.31 Y-65.865
X-57.25 Y-65.767
X-59.223 Y-65.677
X-61.192 Y-65.605
X-63.121 Y-65.557
X-64.975 Y-65.541
X-65.863 Y-65.546
X-66.721 Y-65.562
X-67.548 Y-65.588
X-68.339 Y-65.624
X-69.095 Y-65.671
X-69.813 Y-65.728
X-70.497 Y-65.796
X-71.149 Y-65.873
X-71.775 Y-65.959
X-72.38 Y-66.052
X-73.563 Y-66.257
X-74.749 Y-66.476
X-74.75 Y-66.477
X-75.98 Y-66.7
X-75.986 Y-66.701
X-77.283 Y-66.92
X-77.29 Y-66.922
X-78.657 Y-67.133
X-78.663 Y-67.134
X-80.087 Y-67.335
X-80.092 Y-67.336
X-81.546 Y-67.526
X-81.55 Y-67.527
X-83.007 Y-67.704
X-83.012 Y-67.705
X-84.449 Y-67.865
X-84.455 Y-67.866
X-85.852 Y-68.004
X-85.862 Y-68.005
X-87.214 Y-68.112
X-87.226 Y-68.113
X-87.888 Y-68.151
X-87.898
X-88.557 Y-68.176
X-88.569
X-89.229 Y-68.184
X-89.244
X-89.912 Y-68.173
X-89.928 Y-68.172
X-90.61 Y-68.14
X-90.626 Y-68.139
X-91.327 Y-68.082
X-91.343 Y-68.08
X-92.065 Y-67.998
X-92.081 Y-67.995
X-92.825 Y-67.886
X-92.841 Y-67.883
X-93.605 Y-67.746
X-93.62 Y-67.743
X-94.402 Y-67.578
X-94.416 Y-67.574
X-95.21 Y-67.382
X-95.224 Y-67.378
X-96.023 Y-67.159
X-96.038 Y-67.155
X-96.836 Y-66.909
X-96.851 Y-66.905
X-97.641 Y-66.635
X-97.656 Y-66.629
X-98.429 Y-66.336
X-98.446 Y-66.329
X-99.193 Y-66.015
X-99.211 Y-66.007
X-99.924 Y-65.673
X-99.944 Y-65.663
X-100.613 Y-65.311
X-100.631 Y-65.302
X-100.946 Y-65.12
X-100.958 Y-65.113
X-101.259 Y-64.928
X-101.272 Y-64.92
X-101.558 Y-64.731
X-101.573 Y-64.721
X-101.842 Y-64.53
X-101.857 Y-64.518
X-102.109 Y-64.324
X-102.126 Y-64.31
X-102.359 Y-64.114
X-102.376 Y-64.099
X-102.591 Y-63.9
X-102.612 Y-63.88
X-102.806 Y-63.68
X-102.826 Y-63.657
X-102.999 Y-63.455
X-103.02 Y-63.429
X-103.172 Y-63.225
X-103.193 Y-63.193
X-103.323 Y-62.988
X-103.346 Y-62.949
X-103.452 Y-62.743
X-103.47 Y-62.703
X-103.554 Y-62.496
X-103.571 Y-62.446
X-103.631 Y-62.239
X-103.644 Y-62.185
X-103.68 Y-61.977
X-103.686 Y-61.921
X-103.698 Y-61.713
X-103.699 Y-61.664
X-103.698 Y-61.655 F333.3
X-103.686 Y-61.447 Z-0.308
X-103.68 Y-61.39 Z-0.31
X-103.644 Y-61.182 Z-0.317
X-103.631 Y-61.129 Z-0.319
X-103.571 Y-60.921 Z-0.326
X-103.554 Y-60.872 Z-0.328
X-103.47 Y-60.665 Z-0.336
X-103.452 Y-60.625 Z-0.338
X-103.346 Y-60.418 Z-0.346
X-103.323 Y-60.379 Z-0.347
X-103.193 Y-60.174 Z-0.356
X-103.172 Y-60.143 Z-0.357
X-103.02 Y-59.939 Z-0.366
X-102.999 Y-59.913 Z-0.367
X-102.826 Y-59.711 Z-0.376
X-102.806 Y-59.688 Z-0.377
X-102.612 Y-59.487 Z-0.387
X-102.591 Y-59.468 Z-0.388
X-102.376 Y-59.269 Z-0.398
X-102.359 Y-59.254 Z-0.399
X-102.126 Y-59.058 Z-0.41
X-102.109 Y-59.044 Z-0.411
X-101.857 Y-58.849 Z-0.422
X-101.842 Y-58.838
X-101.573 Y-58.647 Z-0.434
X-101.558 Y-58.637 Z-0.435
X-101.272 Y-58.448 Z-0.447
X-101.259 Y-58.44
X-100.958 Y-58.255 Z-0.459
X-100.946 Y-58.248 Z-0.46
X-100.631 Y-58.066 Z-0.473
X-100.613 Y-58.056
X-99.944 Y-57.705 Z-0.5
X-99.924 Y-57.695
X-99.211 Y-57.361 Z-0.528
X-99.193 Y-57.353 Z-0.529
X-98.446 Y-57.038 Z-0.557
X-98.429 Y-57.032 Z-0.558
X-97.656 Y-56.739 Z-0.586
X-97.641 Y-56.733 Z-0.587
X-97.289 Y-56.613 Z-0.6
X-96.851 Y-56.463 F1000
X-96.836 Y-56.458
X-96.038 Y-56.213
X-96.024 Y-56.209
X-95.224 Y-55.99
X-95.21 Y-55.986
X-94.416 Y-55.793
X-94.402 Y-55.79
X-93.62 Y-55.625
X-93.605 Y-55.622
X-92.841 Y-55.485
X-92.825 Y-55.482
X-92.081 Y-55.372
X-92.065 Y-55.37
X-91.343 Y-55.288
X-91.327 Y-55.286
X-90.626 Y-55.229
X-90.61 Y-55.228
X-89.928 Y-55.196
X-89.912 Y-55.195
X-89.244 Y-55.184
X-89.229
X-88.569 Y-55.192
X-88.557
X-87.898 Y-55.217
X-87.888
X-87.226 Y-55.255
X-87.214
X-85.862 Y-55.363
X-85.852 Y-55.364
X-84.455 Y-55.502
X-84.449 Y-55.503
X-83.012 Y-55.663
X-83.007 Y-55.664
X-81.55 Y-55.841
X-81.546 Y-55.842
X-80.092 Y-56.032
X-80.087
X-78.663 Y-56.234
X-78.657 Y-56.235
X-77.29 Y-56.446
X-77.283 Y-56.447
X-75.986 Y-56.667
X-75.98 Y-56.668
X-74.75 Y-56.891
X-74.749
X-73.563 Y-57.111
X-72.38 Y-57.316
X-71.775 Y-57.409
X-71.149 Y-57.495
X-70.497 Y-57.572
X-69.813 Y-57.64
X-69.095 Y-57.697
X-68.339 Y-57.744
X-67.548 Y-57.78
X-66.721 Y-57.806
X-65.863 Y-57.821
X-64.975 Y-57.827
X-63.121 Y-57.811
X-61.192 Y-57.763
X-59.223 Y-57.691
X-57.25 Y-57.601
X-55.31 Y-57.503
X-53.437 Y-57.406
X-51.654 Y-57.317
X-51.651
X-49.968 Y-57.243
X-49.963 Y-57.242
X-48.37 Y-57.188
X-48.363
X-46.841 Y-57.157
X-46.833
X-45.355 Y-57.15
X-45.347
X-43.887 Y-57.166
X-43.88
X-42.42 Y-57.203
X-42.415
X-40.944 Y-57.256
X-40.94
X-39.457 Y-57.322
X-39.455
X-37.96 Y-57.394
X-36.456 Y-57.467
X-34.952 Y-57.537
X-33.453 Y-57.597
X-31.967 Y-57.644
X-30.501 Y-57.674
X-29.056 Y-57.684
G2 X-28.706 Y-57.83 I-0.004 J-0.5
G1 X-25.913 Y-60.623
G2 X-25.913 Y-62.745 I-1.061 J-1.061
G1 X-28.706 Y-65.537
G2 X-29.056 Y-65.684 I-0.354 J0.354
G1 X-30.501 Y-65.694
X-31.967 Y-65.724
X-33.453 Y-65.77
X-34.952 Y-65.831
X-36.456 Y-65.9
X-37.959 Y-65.974
X-39.455 Y-66.046
X-39.457
X-40.94 Y-66.111
X-40.944 Y-66.112
X-42.415 Y-66.165
X-42.42
X-43.88 Y-66.201
X-43.887
X-45.347 Y-66.218
X-45.355
X-46.833 Y-66.211
X-46.841
X-48.363 Y-66.18
X-48.37
X-49.963 Y-66.125
X-49.968
X-51.651 Y-66.051
X-51.654
X-53.436 Y-65.962
X-55.31 Y-65.865
X-57.25 Y-65.767
X-59.223 Y-65.677
X-61.192 Y-65.605
X-63.121 Y-65.557
X-64.975 Y-65.541
X-65.863 Y-65.546
X-66.721 Y-65.562
X-67.548 Y-65.588
X-68.339 Y-65.624
X-69.095 Y-65.671
X-69.813 Y-65.728
X-70.497 Y-65.796
X-71.149 Y-65.873
X-71.775 Y-65.959
X-72.38 Y-66.052
X-73.563 Y-66.257
X-74.749 Y-66.476
X-74.75 Y-66.477
X-75.98 Y-66.7
X-75.986 Y-66.701
X-77.283 Y-66.92
X-77.29 Y-66.922
X-78.657 Y-67.133
X-78.663 Y-67.134
X-80.087 Y-67.335
X-80.092 Y-67.336
X-81.546 Y-67.526
X-81.55 Y-67.527
X-83.007 Y-67.704
X-83.012 Y-67.705
X-84.449 Y-67.865
X-84.455 Y-67.866
X-85.852 Y-68.004
X-85.862 Y-68.005
X-87.214 Y-68.112
X-87.226 Y-68.113
X-87.888 Y-68.151
X-87.898
X-88.557 Y-68.176
X-88.569
X-89.229 Y-68.184
X-89.244
X-89.912 Y-68.173
X-89.928 Y-68.172
X-90.61 Y-68.14
X-90.626 Y-68.139
X-91.327 Y-68.082
X-91.343 Y-68.08
X-92.065 Y-67.998
X-92.081 Y-67.995
X-92.825 Y-67.886
X-92.841 Y-67.883
X-93.605 Y-67.746
X-93.62 Y-67.743
X-94.402 Y-67.578
X-94.416 Y-67.574
X-95.21 Y-67.382
X-95.224 Y-67.378
X-96.023 Y-67.159
X-96.038 Y-67.155
X-96.836 Y-66.909
X-96.851 Y-66.905
X-97.641 Y-66.635
X-97.656 Y-66.629
X-98.429 Y-66.336
X-98.446 Y-66.329
X-99.193 Y-66.015
X-99.211 Y-66.007
X-99.924 Y-65.673
X-99.944 Y-65.663
X-100.613 Y-65.311
X-100.631 Y-65.302
X-100.946 Y-65.12
X-100.958 Y-65.113
X-101.259 Y-64.928
X-101.272 Y-64.92
X-101.558 Y-64.731
X-101.573 Y-64.721
X-101.842 Y-64.53
X-101.857 Y-64.518
X-102.109 Y-64.324
X-102.126 Y-64.31
X-102.359 Y-64.114
X-102.376 Y-64.099
X-102.591 Y-63.9
X-102.612 Y-63.88
X-102.806 Y-63.68
X-102.826 Y-63.657
X-102.999 Y-63.455
X-103.02 Y-63.429
X-103.172 Y-63.225
X-103.193 Y-63.193
X-103.323 Y-62.988
X-103.346 Y-62.949
X-103.452 Y-62.743
X-103.47 Y-62.703
X-103.554 Y-62.496
X-103.571 Y-62.446
X-103.631 Y-62.239
X-103.644 Y-62.185
X-103.68 Y-61.977
X-103.686 Y-61.921
X-103.698 Y-61.713
Y-61.655
X-103.686 Y-61.447
X-103.68 Y-61.39
X-103.644 Y-61.182
X-103.631 Y-61.129
X-103.571 Y-60.921
X-103.554 Y-60.872
X-103.47 Y-60.665
X-103.452 Y-60.625
X-103.346 Y-60.418
X-103.323 Y-60.379
X-103.193 Y-60.174
X-103.172 Y-60.143
X-103.02 Y-59.939
X-102.999 Y-59.913
X-102.826 Y-59.711
X-102.806 Y-59.688
X-102.612 Y-59.487
X-102.591 Y-59.468
X-102.376 Y-59.269
X-102.359 Y-59.254
X-102.126 Y-59.058
X-102.109 Y-59.044
X-101.857 Y-58.849
X-101.842 Y-58.838
X-101.573 Y-58.647
X-101.558 Y-58.637
X-101.272 Y-58.448
X-101.259 Y-58.44
X-100.958 Y-58.255
X-100.946 Y-58.248
X-100.631 Y-58.066
X-100.613 Y-58.056
X-99.944 Y-57.705
X-99.924 Y-57.695
X-99.211 Y-57.361
X-99.193 Y-57.353
X-98.446 Y-57.038
X-98.429 Y-57.032
X-97.656 Y-56.739
X-97.641 Y-56.733
X-97.289 Y-56.613
X-96.851 Y-56.463 Z-0.616 F333.3
X-96.836 Y-56.458 Z-0.617
X-96.038 Y-56.213 Z-0.646
X-96.024 Y-56.209
X-95.224 Y-55.99 Z-0.675
X-95.21 Y-55.986 Z-0.676
X-94.416 Y-55.793 Z-0.704
X-94.402 Y-55.79 Z-0.705
X-93.62 Y-55.625 Z-0.733
X-93.605 Y-55.622
X-92.841 Y-55.485 Z-0.76
X-92.825 Y-55.482 Z-0.761
X-92.081 Y-55.372 Z-0.787
X-92.065 Y-55.37 Z-0.788
X-91.343 Y-55.288 Z-0.813
X-91.327 Y-55.286 Z-0.814
X-90.626 Y-55.229 Z-0.838
X-90.61 Y-55.228 Z-0.839
X-89.928 Y-55.196 Z-0.863
X-89.912 Y-55.195
X-89.244 Y-55.184 Z-0.887
X-89.229
X-88.861 Y-55.188 Z-0.9
X-88.569 Y-55.192 F1000
X-88.557
X-87.898 Y-55.217
X-87.888
X-87.226 Y-55.255
X-87.214
X-85.862 Y-55.363
X-85.852 Y-55.364
X-84.455 Y-55.502
X-84.449 Y-55.503
X-83.012 Y-55.663
X-83.007 Y-55.664
X-81.55 Y-55.841
X-81.546 Y-55.842
X-80.092 Y-56.032
X-80.087
X-78.663 Y-56.234
X-78.657 Y-56.235
X-77.29 Y-56.446
X-77.283 Y-56.447
X-75.986 Y-56.667
X-75.98 Y-56.668
X-74.75 Y-56.891
X-74.749
X-73.563 Y-57.111
X-72.38 Y-57.316
X-71.775 Y-57.409
X-71.149 Y-57.495
X-70.497 Y-57.572
X-69.813 Y-57.64
X-69.095 Y-57.697
X-68.339 Y-57.744
X-67.548 Y-57.78
X-66.721 Y-57.806
X-65.863 Y-57.821
X-64.975 Y-57.827
X-63.121 Y-57.811
X-61.192 Y-57.763
X-59.223 Y-57.691
X-57.25 Y-57.601
X-55.31 Y-57.503
X-53.437 Y-57.406
X-51.654 Y-57.317
X-51.651
X-49.968 Y-57.243
X-49.963 Y-57.242
X-48.37 Y-57.188
X-48.363
X-46.841 Y-57.157
X-46.833
X-45.355 Y-57.15
X-45.347
X-43.887 Y-57.166
X-43.88
X-42.42 Y-57.203
X-42.415
X-40.944 Y-57.256
X-40.94
X-39.457 Y-57.322
X-39.455
X-37.96 Y-57.394
X-36.456 Y-57.467
X-34.952 Y-57.537
X-33.453 Y-57.597
X-31.967 Y-57.644
X-30.501 Y-57.674
X-29.056 Y-57.684
G2 X-28.706 Y-57.83 I-0.004 J-0.5
G1 X-25.913 Y-60.623
G2 X-25.913 Y-62.745 I-1.061 J-1.061
G1 X-28.706 Y-65.537
G2 X-29.056 Y-65.684 I-0.354 J0.354
G1 X-30.501 Y-65.694
X-31.967 Y-65.724
X-33.453 Y-65.77
X-34.952 Y-65.831
X-36.456 Y-65.9
X-37.959 Y-65.974
X-39.455 Y-66.046
X-39.457
X-40.94 Y-66.111
X-40.944 Y-66.112
X-42.415 Y-66.165
X-42.42
X-43.88 Y-66.201
X-43.887
X-45.347 Y-66.218
X-45.355
X-46.833 Y-66.211
X-46.841
X-48.363 Y-66.18
X-48.37
X-49.963 Y-66.125
X-49.968
X-51.651 Y-66.051
X-51.654
X-53.436 Y-65.962
X-55.31 Y-65.865
X-57.25 Y-65.767
X-59.223 Y-65.677
X-61.192 Y-65.605
X-63.121 Y-65.557
X-64.975 Y-65.541
X-65.863 Y-65.546
X-66.721 Y-65.562
X-67.548 Y-65.588
X-68.339 Y-65.624
X-69.095 Y-65.671
X-69.813 Y-65.728
X-70.497 Y-65.796
X-71.149 Y-65.873
X-71.775 Y-65.959
X-72.38 Y-66.052
X-73.563 Y-66.257
X-74.749 Y-66.476
X-74.75 Y-66.477
X-75.98 Y-66.7
X-75.986 Y-66.701
X-77.283 Y-66.92
X-77.29 Y-66.922
X-78.657 Y-67.133
X-78.663 Y-67.134
X-80.087 Y-67.335
X-80.092 Y-67.336
X-81.546 Y-67.526
X-81.55 Y-67.527
X-83.007 Y-67.704
X-83.012 Y-67.705
X-84.449 Y-67.865
X-84.455 Y-67.866
X-85.852 Y-68.004
X-85.862 Y-68.005
X-87.214 Y-68.112
X-87.226 Y-68.113
X-87.888 Y-68.151
X-87.898
X-88.557 Y-68.176
X-88.569
X-89.229 Y-68.184
X-89.244
X-89.912 Y-68.173
X-89.928 Y-68.172
X-90.61 Y-68.14
X-90.626 Y-68.139
X-91.327 Y-68.082
X-91.343 Y-68.08
X-92.065 Y-67.998
X-92.081 Y-67.995
X-92.825 Y-67.886
X-92.841 Y-67.883
X-93.605 Y-67.746
X-93.62 Y-67.743
X-94.402 Y-67.578
X-94.416 Y-67.574
X-95.21 Y-67.382
X-95.224 Y-67.378
X-96.023 Y-67.159
X-96.038 Y-67.155
X-96.836 Y-66.909
X-96.851 Y-66.905
X-97.641 Y-66.635
X-97.656 Y-66.629
X-98.429 Y-66.336
X-98.446 Y-66.329
X-99.193 Y-66.015
X-99.211 Y-66.007
X-99.924 Y-65.673
X-99.944 Y-65.663
X-100.613 Y-65.311
X-100.631 Y-65.302
X-100.946 Y-65.12
X-100.958 Y-65.113
X-101.259 Y-64.928
X-101.272 Y-64.92
X-101.558 Y-64.731
X-101.573 Y-64.721
X-101.842 Y-64.53
X-101.857 Y-64.518
X-102.109 Y-64.324
X-102.126 Y-64.31
X-102.359 Y-64.114
X-102.376 Y-64.099
X-102.591 Y-63.9
X-102.612 Y-63.88
X-102.806 Y-63.68
X-102.826 Y-63.657
X-102.999 Y-63.455
X-103.02 Y-63.429
X-103.172 Y-63.225
X-103.193 Y-63.193
X-103.323 Y-62.988
X-103.346 Y-62.949
X-103.452 Y-62.743
X-103.47 Y-62.703
X-103.554 Y-62.496
X-103.571 Y-62.446
X-103.631 Y-62.239
X-103.644 Y-62.185
X-103.68 Y-61.977
X-103.686 Y-61.921
X-103.698 Y-61.713
Y-61.655
X-103.686 Y-61.447
X-103.68 Y-61.39
X-103.644 Y-61.182
X-103.631 Y-61.129
X-103.571 Y-60.921
X-103.554 Y-60.872
X-103.47 Y-60.665
X-103.452 Y-60.625
X-103.346 Y-60.418
X-103.323 Y-60.379
X-103.193 Y-60.174
X-103.172 Y-60.143
X-103.02 Y-59.939
X-102.999 Y-59.913
X-102.826 Y-59.711
X-102.806 Y-59.688
X-102.612 Y-59.487
X-102.591 Y-59.468
X-102.376 Y-59.269
X-102.359 Y-59.254
X-102.126 Y-59.058
X-102.109 Y-59.044
X-101.857 Y-58.849
X-101.842 Y-58.838
X-101.573 Y-58.647
X-101.558 Y-58.637
X-101.272 Y-58.448
X-101.259 Y-58.44
X-100.958 Y-58.255
X-100.946 Y-58.248
X-100.631 Y-58.066
X-100.613 Y-58.056
X-99.944 Y-57.705
X-99.924 Y-57.695
X-99.211 Y-57.361
X-99.193 Y-57.353
X-98.446 Y-57.038
X-98.429 Y-57.032
X-97.656 Y-56.739
X-97.641 Y-56.733
X-96.851 Y-56.463
X-96.836 Y-56.458
X-96.038 Y-56.213
X-96.024 Y-56.209
X-95.224 Y-55.99
X-95.21 Y-55.986
X-94.416 Y-55.793
X-94.402 Y-55.79
X-93.62 Y-55.625
X-93.605 Y-55.622
X-92.841 Y-55.485
X-92.825 Y-55.482
X-92.081 Y-55.372
X-92.065 Y-55.37
X-91.343 Y-55.288
X-91.327 Y-55.286
X-90.626 Y-55.229
X-90.61 Y-55.228
X-89.928 Y-55.196
X-89.912 Y-55.195
X-89.244 Y-55.184
X-89.229
X-88.861 Y-55.188
X-88.569 Y-55.192 Z-0.91 F333.3
X-88.557 Z-0.911
X-87.898 Y-55.217 Z-0.934
X-87.888
X-87.226 Y-55.255 Z-0.957
X-87.214 Z-0.958
X-85.862 Y-55.363 Z-1.005
X-85.852 Y-55.364
X-84.455 Y-55.502 Z-1.054
X-84.449 Y-55.503 Z-1.055
X-83.012 Y-55.663 Z-1.105
X-83.007 Y-55.664
X-81.55 Y-55.841 Z-1.156
X-81.546 Y-55.842 Z-1.157
X-80.313 Y-56.003 Z-1.2
X-80.092 Y-56.032 F1000
X-80.087
X-78.663 Y-56.234
X-78.657 Y-56.235
X-77.29 Y-56.446
X-77.283 Y-56.447
X-75.986 Y-56.667
X-75.98 Y-56.668
X-74.75 Y-56.891
X-74.749
X-73.563 Y-57.111
X-72.38 Y-57.316
X-71.775 Y-57.409
X-71.149 Y-57.495
X-70.497 Y-57.572
X-69.813 Y-57.64
X-69.095 Y-57.697
X-68.339 Y-57.744
X-67.548 Y-57.78
X-66.721 Y-57.806
X-65.863 Y-57.821
X-64.975 Y-57.827
X-63.121 Y-57.811
X-61.192 Y-57.763
X-59.223 Y-57.691
X-57.25 Y-57.601
X-55.31 Y-57.503
X-53.437 Y-57.406
X-51.654 Y-57.317
X-51.651
X-49.968 Y-57.243
X-49.963 Y-57.242
X-48.37 Y-57.188
X-48.363
X-46.841 Y-57.157
X-46.833
X-45.355 Y-57.15
X-45.347
X-43.887 Y-57.166
X-43.88
X-42.42 Y-57.203
X-42.415
X-40.944 Y-57.256
X-40.94
X-39.457 Y-57.322
X-39.455
X-37.96 Y-57.394
X-36.456 Y-57.467
X-34.952 Y-57.537
X-33.453 Y-57.597
X-31.967 Y-57.644
X-30.501 Y-57.674
X-29.056 Y-57.684
G2 X-28.706 Y-57.83 I-0.004 J-0.5
G1 X-25.913 Y-60.623
G2 X-25.913 Y-62.745 I-1.061 J-1.061
G1 X-28.706 Y-65.537
G2 X-29.056 Y-65.684 I-0.354 J0.354
G1 X-30.501 Y-65.694
X-31.967 Y-65.724
X-33.453 Y-65.77
X-34.952 Y-65.831
X-36.456 Y-65.9
X-37.959 Y-65.974
X-39.455 Y-66.046
X-39.457
X-40.94 Y-66.111
X-40.944 Y-66.112
X-42.415 Y-66.165
X-42.42
X-43.88 Y-66.201
X-43.887
X-45.347 Y-66.218
X-45.355
X-46.833 Y-66.211
X-46.841
X-48.363 Y-66.18
X-48.37
X-49.963 Y-66.125
X-49.968
X-51.651 Y-66.051
X-51.654
X-53.436 Y-65.962
X-55.31 Y-65.865
X-57.25 Y-65.767
X-59.223 Y-65.677
X-61.192 Y-65.605
X-63.121 Y-65.557
X-64.975 Y-65.541
X-65.863 Y-65.546
X-66.721 Y-65.562
X-67.548 Y-65.588
X-68.339 Y-65.624
X-69.095 Y-65.671
X-69.813 Y-65.728
X-70.497 Y-65.796
X-71.149 Y-65.873
X-71.775 Y-65.959
X-72.38 Y-66.052
X-73.563 Y-66.257
X-74.749 Y-66.476
X-74.75 Y-66.477
X-75.98 Y-66.7
X-75.986 Y-66.701
X-77.283 Y-66.92
X-77.29 Y-66.922
X-78.657 Y-67.133
X-78.663 Y-67.134
X-80.087 Y-67.335
X-80.092 Y-67.336
X-81.546 Y-67.526
X-81.55 Y-67.527
X-83.007 Y-67.704
X-83.012 Y-67.705
X-84.449 Y-67.865
X-84.455 Y-67.866
X-85.852 Y-68.004
X-85.862 Y-68.005
X-87.214 Y-68.112
X-87.226 Y-68.113
X-87.888 Y-68.151
X-87.898
X-88.557 Y-68.176
X-88.569
X-89.229 Y-68.184
X-89.244
X-89.912 Y-68.173
X-89.928 Y-68.172
X-90.61 Y-68.14
X-90.626 Y-68.139
X-91.327 Y-68.082
X-91.343 Y-68.08
X-92.065 Y-67.998
X-92.081 Y-67.995
X-92.825 Y-67.886
X-92.841 Y-67.883
X-93.605 Y-67.746
X-93.62 Y-67.743
X-94.402 Y-67.578
X-94.416 Y-67.574
X-95.21 Y-67.382
X-95.224 Y-67.378
X-96.023 Y-67.159
X-96.038 Y-67.155
X-96.836 Y-66.909
X-96.851 Y-66.905
X-97.641 Y-66.635
X-97.656 Y-66.629
X-98.429 Y-66.336
X-98.446 Y-66.329
X-99.193 Y-66.015
X-99.211 Y-66.007
X-99.924 Y-65.673
X-99.944 Y-65.663
X-100.613 Y-65.311
X-100.631 Y-65.302
X-100.946 Y-65.12
X-100.958 Y-65.113
X-101.259 Y-64.928
X-101.272 Y-64.92
X-101.558 Y-64.731
X-101.573 Y-64.721
X-101.842 Y-64.53
X-101.857 Y-64.518
X-102.109 Y-64.324
X-102.126 Y-64.31
X-102.359 Y-64.114
X-102.376 Y-64.099
X-102.591 Y-63.9
X-102.612 Y-63.88
X-102.806 Y-63.68
X-102.826 Y-63.657
X-102.999 Y-63.455
X-103.02 Y-63.429
X-103.172 Y-63.225
X-103.193 Y-63.193
X-103.323 Y-62.988
X-103.346 Y-62.949
X-103.452 Y-62.743
X-103.47 Y-62.703
X-103.554 Y-62.496
X-103.571 Y-62.446
X-103.631 Y-62.239
X-103.644 Y-62.185
X-103.68 Y-61.977
X-103.686 Y-61.921
X-103.698 Y-61.713
Y-61.655
X-103.686 Y-61.447
X-103.68 Y-61.39
X-103.644 Y-61.182
X-103.631 Y-61.129
X-103.571 Y-60.921
X-103.554 Y-60.872
X-103.47 Y-60.665
X-103.452 Y-60.625
X-103.346 Y-60.418
X-103.323 Y-60.379
X-103.193 Y-60.174
X-103.172 Y-60.143
X-103.02 Y-59.939
X-102.999 Y-59.913
X-102.826 Y-59.711
X-102.806 Y-59.688
X-102.612 Y-59.487
X-102.591 Y-59.468
X-102.376 Y-59.269
X-102.359 Y-59.254
X-102.126 Y-59.058
X-102.109 Y-59.044
X-101.857 Y-58.849
X-101.842 Y-58.838
X-101.573 Y-58.647
X-101.558 Y-58.637
X-101.272 Y-58.448
X-101.259 Y-58.44
X-100.958 Y-58.255
X-100.946 Y-58.248
X-100.631 Y-58.066
X-100.613 Y-58.056
X-99.944 Y-57.705
X-99.924 Y-57.695
X-99.211 Y-57.361
X-99.193 Y-57.353
X-98.446 Y-57.038
X-98.429 Y-57.032
X-97.656 Y-56.739
X-97.641 Y-56.733
X-96.851 Y-56.463
X-96.836 Y-56.458
X-96.038 Y-56.213
X-96.024 Y-56.209
X-95.224 Y-55.99
X-95.21 Y-55.986
X-94.416 Y-55.793
X-94.402 Y-55.79
X-93.62 Y-55.625
X-93.605 Y-55.622
X-92.841 Y-55.485
X-92.825 Y-55.482
X-92.081 Y-55.372
X-92.065 Y-55.37
X-91.343 Y-55.288
X-91.327 Y-55.286
X-90.626 Y-55.229
X-90.61 Y-55.228
X-89.928 Y-55.196
X-89.912 Y-55.195
X-89.244 Y-55.184
X-89.229
X-88.861 Y-55.188
X-88.569 Y-55.192
X-88.557
X-87.898 Y-55.217
X-87.888
X-87.226 Y-55.255
X-87.214
X-85.862 Y-55.363
X-85.852 Y-55.364
X-84.455 Y-55.502
X-84.449 Y-55.503
X-83.012 Y-55.663
X-83.007 Y-55.664
X-81.55 Y-55.841
X-81.546 Y-55.842
X-80.313 Y-56.003
X-80.092 Y-56.032 Z-1.208 F333.3
X-80.087
X-78.663 Y-56.234 Z-1.258
X-78.657 Y-56.235
X-77.29 Y-56.446 Z-1.307
X-77.283 Y-56.447
X-75.986 Y-56.667 Z-1.353
X-75.98 Y-56.668
X-74.75 Y-56.891 Z-1.397
X-74.749
X-73.563 Y-57.111 Z-1.439
X-72.38 Y-57.316 Z-1.481
X-71.837 Y-57.399 Z-1.5
X-71.775 Y-57.409 F1000
X-71.149 Y-57.495
X-70.497 Y-57.572
X-69.813 Y-57.64
X-69.095 Y-57.697
X-68.339 Y-57.744
X-67.548 Y-57.78
X-66.721 Y-57.806
X-65.863 Y-57.821
X-64.975 Y-57.827
X-63.121 Y-57.811
X-61.192 Y-57.763
X-59.223 Y-57.691
X-57.25 Y-57.601
X-55.31 Y-57.503
X-53.437 Y-57.406
X-51.654 Y-57.317
X-51.651
X-49.968 Y-57.243
X-49.963 Y-57.242
X-48.37 Y-57.188
X-48.363
X-46.841 Y-57.157
X-46.833
X-45.355 Y-57.15
X-45.347
X-43.887 Y-57.166
X-43.88
X-42.42 Y-57.203
X-42.415
X-40.944 Y-57.256
X-40.94
X-39.457 Y-57.322
X-39.455
X-37.96 Y-57.394
X-36.456 Y-57.467
X-34.952 Y-57.537
X-33.453 Y-57.597
X-31.967 Y-57.644
X-30.501 Y-57.674
X-29.056 Y-57.684
G2 X-28.706 Y-57.83 I-0.004 J-0.5
G1 X-25.913 Y-60.623
G2 X-25.913 Y-62.745 I-1.061 J-1.061
G1 X-28.706 Y-65.537
G2 X-29.056 Y-65.684 I-0.354 J0.354
G1 X-30.501 Y-65.694
X-31.967 Y-65.724
X-33.453 Y-65.77
X-34.952 Y-65.831
X-36.456 Y-65.9
X-37.959 Y-65.974
X-39.455 Y-66.046
X-39.457
X-40.94 Y-66.111
X-40.944 Y-66.112
X-42.415 Y-66.165
X-42.42
X-43.88 Y-66.201
X-43.887
X-45.347 Y-66.218
X-45.355
X-46.833 Y-66.211
X-46.841
X-48.363 Y-66.18
X-48.37
X-49.963 Y-66.125
X-49.968
X-51.651 Y-66.051
X-51.654
X-53.436 Y-65.962
X-55.31 Y-65.865
X-57.25 Y-65.767
X-59.223 Y-65.677
X-61.192 Y-65.605
X-63.121 Y-65.557
X-64.975 Y-65.541
X-65.863 Y-65.546
X-66.721 Y-65.562
X-67.548 Y-65.588
X-68.339 Y-65.624
X-69.095 Y-65.671
X-69.813 Y-65.728
X-70.497 Y-65.796
X-71.149 Y-65.873
X-71.775 Y-65.959
X-72.38 Y-66.052
X-73.563 Y-66.257
X-74.749 Y-66.476
X-74.75 Y-66.477
X-75.98 Y-66.7
X-75.986 Y-66.701
X-77.283 Y-66.92
X-77.29 Y-66.922
X-78.657 Y-67.133
X-78.663 Y-67.134
X-80.087 Y-67.335
X-80.092 Y-67.336
X-81.546 Y-67.526
X-81.55 Y-67.527
X-83.007 Y-67.704
X-83.012 Y-67.705
X-84.449 Y-67.865
X-84.455 Y-67.866
X-85.852 Y-68.004
X-85.862 Y-68.005
X-87.214 Y-68.112
X-87.226 Y-68.113
X-87.888 Y-68.151
X-87.898
X-88.557 Y-68.176
X-88.569
X-89.229 Y-68.184
X-89.244
X-89.912 Y-68.173
X-89.928 Y-68.172
X-90.61 Y-68.14
X-90.626 Y-68.139
X-91.327 Y-68.082
X-91.343 Y-68.08
X-92.065 Y-67.998
X-92.081 Y-67.995
X-92.825 Y-67.886
X-92.841 Y-67.883
X-93.605 Y-67.746
X-93.62 Y-67.743
X-94.402 Y-67.578
X-94.416 Y-67.574
X-95.21 Y-67.382
X-95.224 Y-67.378
X-96.023 Y-67.159
X-96.038 Y-67.155
X-96.836 Y-66.909
X-96.851 Y-66.905
X-97.641 Y-66.635
X-97.656 Y-66.629
X-98.429 Y-66.336
X-98.446 Y-66.329
X-99.193 Y-66.015
X-99.211 Y-66.007
X-99.924 Y-65.673
X-99.944 Y-65.663
X-100.613 Y-65.311
X-100.631 Y-65.302
X-100.946 Y-65.12
X-100.958 Y-65.113
X-101.259 Y-64.928
X-101.272 Y-64.92
X-101.558 Y-64.731
X-101.573 Y-64.721
X-101.842 Y-64.53
X-101.857 Y-64.518
X-102.109 Y-64.324
X-102.126 Y-64.31
X-102.359 Y-64.114
X-102.376 Y-64.099
X-102.591 Y-63.9
X-102.612 Y-63.88
X-102.806 Y-63.68
X-102.826 Y-63.657
X-102.999 Y-63.455
X-103.02 Y-63.429
X-103.172 Y-63.225
X-103.193 Y-63.193
X-103.323 Y-62.988
X-103.346 Y-62.949
X-103.452 Y-62.743
X-103.47 Y-62.703
X-103.554 Y-62.496
X-103.571 Y-62.446
X-103.631 Y-62.239
X-103.644 Y-62.185
X-103.68 Y-61.977
X-103.686 Y-61.921
X-103.698 Y-61.713
Y-61.655
X-103.686 Y-61.447
X-103.68 Y-61.39
X-103.644 Y-61.182
X-103.631 Y-61.129
X-103.571 Y-60.921
X-103.554 Y-60.872
X-103.47 Y-60.665
X-103.452 Y-60.625
X-103.346 Y-60.418
X-103.323 Y-60.379
X-103.193 Y-60.174
X-103.172 Y-60.143
X-103.02 Y-59.939
X-102.999 Y-59.913
X-102.826 Y-59.711
X-102.806 Y-59.688
X-102.612 Y-59.487
X-102.591 Y-59.468
X-102.376 Y-59.269
X-102.359 Y-59.254
X-102.126 Y-59.058
X-102.109 Y-59.044
X-101.857 Y-58.849
X-101.842 Y-58.838
X-101.573 Y-58.647
X-101.558 Y-58.637
X-101.272 Y-58.448
X-101.259 Y-58.44
X-100.958 Y-58.255
X-100.946 Y-58.248
X-100.631 Y-58.066
X-100.613 Y-58.056
X-99.944 Y-57.705
X-99.924 Y-57.695
X-99.211 Y-57.361
X-99.193 Y-57.353
X-98.446 Y-57.038
X-98.429 Y-57.032
X-97.656 Y-56.739
X-97.641 Y-56.733
X-96.851 Y-56.463
X-96.836 Y-56.458
X-96.038 Y-56.213
X-96.024 Y-56.209
X-95.224 Y-55.99
X-95.21 Y-55.986
X-94.416 Y-55.793
X-94.402 Y-55.79
X-93.62 Y-55.625
X-93.605 Y-55.622
X-92.841 Y-55.485
X-92.825 Y-55.482
X-92.081 Y-55.372
X-92.065 Y-55.37
X-91.343 Y-55.288
X-91.327 Y-55.286
X-90.626 Y-55.229
X-90.61 Y-55.228
X-89.928 Y-55.196
X-89.912 Y-55.195
X-89.244 Y-55.184
X-89.229
X-88.569 Y-55.192
X-88.557
X-87.898 Y-55.217
X-87.888
X-87.226 Y-55.255
X-87.214
X-85.862 Y-55.363
X-85.852 Y-55.364
X-84.455 Y-55.502
X-84.449 Y-55.503
X-83.012 Y-55.663
X-83.007 Y-55.664
X-81.55 Y-55.841
X-81.546 Y-55.842
X-80.313 Y-56.003
X-80.092 Y-56.032
X-80.087
X-78.663 Y-56.234
X-78.657 Y-56.235
X-77.29 Y-56.446
X-77.283 Y-56.447
X-75.986 Y-56.667
X-75.98 Y-56.668
X-74.75 Y-56.891
X-74.749
X-73.563 Y-57.111
X-72.38 Y-57.316
X-71.837 Y-57.399
X-71.775 Y-57.409 Z-1.502 F333.3
X-71.149 Y-57.495 Z-1.524
X-70.497 Y-57.572 Z-1.547
X-69.813 Y-57.64 Z-1.571
X-69.095 Y-57.697 Z-1.596
X-68.339 Y-57.744 Z-1.623
X-67.548 Y-57.78 Z-1.65
X-66.721 Y-57.806 Z-1.679
X-65.863 Y-57.821 Z-1.709
X-64.975 Y-57.827 Z-1.74
X-63.266 Y-57.812 Z-1.8
X-63.121 Y-57.811 F1000
X-61.192 Y-57.763
X-59.223 Y-57.691
X-57.25 Y-57.601
X-55.31 Y-57.503
X-53.437 Y-57.406
X-51.654 Y-57.317
X-51.651
X-49.968 Y-57.243
X-49.963 Y-57.242
X-48.37 Y-57.188
X-48.363
X-46.841 Y-57.157
X-46.833
X-45.355 Y-57.15
X-45.347
X-43.887 Y-57.166
X-43.88
X-42.42 Y-57.203
X-42.415
X-40.944 Y-57.256
X-40.94
X-39.457 Y-57.322
X-39.455
X-37.96 Y-57.394
X-36.456 Y-57.467
X-34.952 Y-57.537
X-33.453 Y-57.597
X-31.967 Y-57.644
X-30.501 Y-57.674
X-29.056 Y-57.684
G2 X-28.706 Y-57.83 I-0.004 J-0.5
G1 X-25.913 Y-60.623
G2 X-25.913 Y-62.745 I-1.061 J-1.061
G1 X-28.706 Y-65.537
G2 X-29.056 Y-65.684 I-0.354 J0.354
G1 X-30.501 Y-65.694
X-31.967 Y-65.724
X-33.453 Y-65.77
X-34.952 Y-65.831
X-36.456 Y-65.9
X-37.959 Y-65.974
X-39.455 Y-66.046
X-39.457
X-40.94 Y-66.111
X-40.944 Y-66.112
X-42.415 Y-66.165
X-42.42
X-43.88 Y-66.201
X-43.887
X-45.347 Y-66.218
X-45.355
X-46.833 Y-66.211
X-46.841
X-48.363 Y-66.18
X-48.37
X-49.963 Y-66.125
X-49.968
X-51.651 Y-66.051
X-51.654
X-53.436 Y-65.962
X-55.31 Y-65.865
X-57.25 Y-65.767
X-59.223 Y-65.677
X-61.192 Y-65.605
X-63.121 Y-65.557
X-64.975 Y-65.541
X-65.863 Y-65.546
X-66.721 Y-65.562
X-67.548 Y-65.588
X-68.339 Y-65.624
X-69.095 Y-65.671
X-69.813 Y-65.728
X-70.497 Y-65.796
X-71.149 Y-65.873
X-71.775 Y-65.959
X-72.38 Y-66.052
X-73.563 Y-66.257
X-74.749 Y-66.476
X-74.75 Y-66.477
X-75.98 Y-66.7
X-75.986 Y-66.701
X-77.283 Y-66.92
X-77.29 Y-66.922
X-78.657 Y-67.133
X-78.663 Y-67.134
X-80.087 Y-67.335
X-80.092 Y-67.336
X-81.546 Y-67.526
X-81.55 Y-67.527
X-83.007 Y-67.704
X-83.012 Y-67.705
X-84.449 Y-67.865
X-84.455 Y-67.866
X-85.852 Y-68.004
X-85.862 Y-68.005
X-87.214 Y-68.112
X-87.226 Y-68.113
X-87.888 Y-68.151
X-87.898
X-88.557 Y-68.176
X-88.569
X-89.229 Y-68.184
X-89.244
X-89.912 Y-68.173
X-89.928 Y-68.172
X-90.61 Y-68.14
X-90.626 Y-68.139
X-91.327 Y-68.082
X-91.343 Y-68.08
X-92.065 Y-67.998
X-92.081 Y-67.995
X-92.825 Y-67.886
X-92.841 Y-67.883
X-93.605 Y-67.746
X-93.62 Y-67.743
X-94.402 Y-67.578
X-94.416 Y-67.574
X-95.21 Y-67.382
X-95.224 Y-67.378
X-96.023 Y-67.159
X-96.038 Y-67.155
X-96.836 Y-66.909
X-96.851 Y-66.905
X-97.641 Y-66.635
X-97.656 Y-66.629
X-98.429 Y-66.336
X-98.446 Y-66.329
X-99.193 Y-66.015
X-99.211 Y-66.007
X-99.924 Y-65.673
X-99.944 Y-65.663
X-100.613 Y-65.311
X-100.631 Y-65.302
X-100.946 Y-65.12
X-100.958 Y-65.113
X-101.259 Y-64.928
X-101.272 Y-64.92
X-101.558 Y-64.731
X-101.573 Y-64.721
X-101.842 Y-64.53
X-101.857 Y-64.518
X-102.109 Y-64.324
X-102.126 Y-64.31
X-102.359 Y-64.114
X-102.376 Y-64.099
X-102.591 Y-63.9
X-102.612 Y-63.88
X-102.806 Y-63.68
X-102.826 Y-63.657
X-102.999 Y-63.455
X-103.02 Y-63.429
X-103.172 Y-63.225
X-103.193 Y-63.193
X-103.323 Y-62.988
X-103.346 Y-62.949
X-103.452 Y-62.743
X-103.47 Y-62.703
X-103.554 Y-62.496
X-103.571 Y-62.446
X-103.631 Y-62.239
X-103.644 Y-62.185
X-103.68 Y-61.977
X-103.686 Y-61.921
X-103.698 Y-61.713
Y-61.655
X-103.686 Y-61.447
X-103.68 Y-61.39
X-103.644 Y-61.182
X-103.631 Y-61.129
X-103.571 Y-60.921
X-103.554 Y-60.872
X-103.47 Y-60.665
X-103.452 Y-60.625
X-103.346 Y-60.418
X-103.323 Y-60.379
X-103.193 Y-60.174
X-103.172 Y-60.143
X-103.02 Y-59.939
X-102.999 Y-59.913
X-102.826 Y-59.711
X-102.806 Y-59.688
X-102.612 Y-59.487
X-102.591 Y-59.468
X-102.376 Y-59.269
X-102.359 Y-59.254
X-102.126 Y-59.058
X-102.109 Y-59.044
X-101.857 Y-58.849
X-101.842 Y-58.838
X-101.573 Y-58.647
X-101.558 Y-58.637
X-101.272 Y-58.448
X-101.259 Y-58.44
X-100.958 Y-58.255
X-100.946 Y-58.248
X-100.631 Y-58.066
X-100.613 Y-58.056
X-99.944 Y-57.705
X-99.924 Y-57.695
X-99.211 Y-57.361
X-99.193 Y-57.353
X-98.446 Y-57.038
X-98.429 Y-57.032
X-97.656 Y-56.739
X-97.641 Y-56.733
X-96.851 Y-56.463
X-96.836 Y-56.458
X-96.038 Y-56.213
X-96.024 Y-56.209
X-95.224 Y-55.99
X-95.21 Y-55.986
X-94.416 Y-55.793
X-94.402 Y-55.79
X-93.62 Y-55.625
X-93.605 Y-55.622
X-92.841 Y-55.485
X-92.825 Y-55.482
X-92.081 Y-55.372
X-92.065 Y-55.37
X-91.343 Y-55.288
X-91.327 Y-55.286
X-90.626 Y-55.229
X-90.61 Y-55.228
X-89.928 Y-55.196
X-89.912 Y-55.195
X-89.244 Y-55.184
X-89.229
X-88.569 Y-55.192
X-88.557
X-87.898 Y-55.217
X-87.888
X-87.226 Y-55.255
X-87.214
X-85.862 Y-55.363
X-85.852 Y-55.364
X-84.455 Y-55.502
X-84.449 Y-55.503
X-83.012 Y-55.663
X-83.007 Y-55.664
X-81.55 Y-55.841
X-81.546 Y-55.842
X-80.092 Y-56.032
X-80.087
X-78.663 Y-56.234
X-78.657 Y-56.235
X-77.29 Y-56.446
X-77.283 Y-56.447
X-75.986 Y-56.667
X-75.98 Y-56.668
X-74.75 Y-56.891
X-74.749
X-73.563 Y-57.111
X-72.38 Y-57.316
X-71.837 Y-57.399
X-71.775 Y-57.409
X-71.149 Y-57.495
X-70.497 Y-57.572
X-69.813 Y-57.64
X-69.095 Y-57.697
X-68.339 Y-57.744
X-67.548 Y-57.78
X-66.721 Y-57.806
X-65.863 Y-57.821
X-64.975 Y-57.827
X-63.266 Y-57.812
X-63.121 Y-57.811 Z-1.805 F333.3
X-61.192 Y-57.763 Z-1.872
X-59.223 Y-57.691 Z-1.941
X-57.25 Y-57.601 Z-2.01
X-55.31 Y-57.503 Z-2.078
X-54.683 Y-57.471 Z-2.1
X-53.437 Y-57.406 F1000
X-51.654 Y-57.317
X-51.651
X-49.968 Y-57.243
X-49.963 Y-57.242
X-48.37 Y-57.188
X-48.363
X-46.841 Y-57.157
X-46.833
X-45.355 Y-57.15
X-45.347
X-43.887 Y-57.166
X-43.88
X-42.42 Y-57.203
X-42.415
X-40.944 Y-57.256
X-40.94
X-39.457 Y-57.322
X-39.455
X-37.96 Y-57.394
X-36.456 Y-57.467
X-34.952 Y-57.537
X-33.453 Y-57.597
X-31.967 Y-57.644
X-30.501 Y-57.674
X-29.056 Y-57.684
G2 X-28.706 Y-57.83 I-0.004 J-0.5
G1 X-25.913 Y-60.623
G2 X-25.913 Y-62.745 I-1.061 J-1.061
G1 X-28.706 Y-65.537
G2 X-29.056 Y-65.684 I-0.354 J0.354
G1 X-30.501 Y-65.694
X-31.967 Y-65.724
X-33.453 Y-65.77
X-34.952 Y-65.831
X-36.456 Y-65.9
X-37.959 Y-65.974
X-39.455 Y-66.046
X-39.457
X-40.94 Y-66.111
X-40.944 Y-66.112
X-42.415 Y-66.165
X-42.42
X-43.88 Y-66.201
X-43.887
X-45.347 Y-66.218
X-45.355
X-46.833 Y-66.211
X-46.841
X-48.363 Y-66.18
X-48.37
X-49.963 Y-66.125
X-49.968
X-51.651 Y-66.051
X-51.654
X-53.436 Y-65.962
X-55.31 Y-65.865
X-57.25 Y-65.767
X-59.223 Y-65.677
X-61.192 Y-65.605
X-63.121 Y-65.557
X-64.975 Y-65.541
X-65.863 Y-65.546
X-66.721 Y-65.562
X-67.548 Y-65.588
X-68.339 Y-65.624
X-69.095 Y-65.671
X-69.813 Y-65.728
X-70.497 Y-65.796
X-71.149 Y-65.873
X-71.775 Y-65.959
X-72.38 Y-66.052
X-73.563 Y-66.257
X-74.749 Y-66.476
X-74.75 Y-66.477
X-75.98 Y-66.7
X-75.986 Y-66.701
X-77.283 Y-66.92
X-77.29 Y-66.922
X-78.657 Y-67.133
X-78.663 Y-67.134
X-80.087 Y-67.335
X-80.092 Y-67.336
X-81.546 Y-67.526
X-81.55 Y-67.527
X-83.007 Y-67.704
X-83.012 Y-67.705
X-84.449 Y-67.865
X-84.455 Y-67.866
X-85.852 Y-68.004
X-85.862 Y-68.005
X-87.214 Y-68.112
X-87.226 Y-68.113
X-87.888 Y-68.151
X-87.898
X-88.557 Y-68.176
X-88.569
X-89.229 Y-68.184
X-89.244
X-89.912 Y-68.173
X-89.928 Y-68.172
X-90.61 Y-68.14
X-90.626 Y-68.139
X-91.327 Y-68.082
X-91.343 Y-68.08
X-92.065 Y-67.998
X-92.081 Y-67.995
X-92.825 Y-67.886
X-92.841 Y-67.883
X-93.605 Y-67.746
X-93.62 Y-67.743
X-94.402 Y-67.578
X-94.416 Y-67.574
X-95.21 Y-67.382
X-95.224 Y-67.378
X-96.023 Y-67.159
X-96.038 Y-67.155
X-96.836 Y-66.909
X-96.851 Y-66.905
X-97.641 Y-66.635
X-97.656 Y-66.629
X-98.429 Y-66.336
X-98.446 Y-66.329
X-99.193 Y-66.015
X-99.211 Y-66.007
X-99.924 Y-65.673
X-99.944 Y-65.663
X-100.613 Y-65.311
X-100.631 Y-65.302
X-100.946 Y-65.12
X-100.958 Y-65.113
X-101.259 Y-64.928
X-101.272 Y-64.92
X-101.558 Y-64.731
X-101.573 Y-64.721
X-101.842 Y-64.53
X-101.857 Y-64.518
X-102.109 Y-64.324
X-102.126 Y-64.31
X-102.359 Y-64.114
X-102.376 Y-64.099
X-102.591 Y-63.9
X-102.612 Y-63.88
X-102.806 Y-63.68
X-102.826 Y-63.657
X-102.999 Y-63.455
X-103.02 Y-63.429
X-103.172 Y-63.225
X-103.193 Y-63.193
X-103.323 Y-62.988
X-103.346 Y-62.949
X-103.452 Y-62.743
X-103.47 Y-62.703
X-103.554 Y-62.496
X-103.571 Y-62.446
X-103.631 Y-62.239
X-103.644 Y-62.185
X-103.68 Y-61.977
X-103.686 Y-61.921
X-103.698 Y-61.713
Y-61.655
X-103.686 Y-61.447
X-103.68 Y-61.39
X-103.644 Y-61.182
X-103.631 Y-61.129
X-103.571 Y-60.921
X-103.554 Y-60.872
X-103.47 Y-60.665
X-103.452 Y-60.625
X-103.346 Y-60.418
X-103.323 Y-60.379
X-103.193 Y-60.174
X-103.172 Y-60.143
X-103.02 Y-59.939
X-102.999 Y-59.913
X-102.826 Y-59.711
X-102.806 Y-59.688
X-102.612 Y-59.487
X-102.591 Y-59.468
X-102.376 Y-59.269
X-102.359 Y-59.254
X-102.126 Y-59.058
X-102.109 Y-59.044
X-101.857 Y-58.849
X-101.842 Y-58.838
X-101.573 Y-58.647
X-101.558 Y-58.637
X-101.272 Y-58.448
X-101.259 Y-58.44
X-100.958 Y-58.255
X-100.946 Y-58.248
X-100.631 Y-58.066
X-100.613 Y-58.056
X-99.944 Y-57.705
X-99.924 Y-57.695
X-99.211 Y-57.361
X-99.193 Y-57.353
X-98.446 Y-57.038
X-98.429 Y-57.032
X-97.656 Y-56.739
X-97.641 Y-56.733
X-96.851 Y-56.463
X-96.836 Y-56.458
X-96.038 Y-56.213
X-96.024 Y-56.209
X-95.224 Y-55.99
X-95.21 Y-55.986
X-94.416 Y-55.793
X-94.402 Y-55.79
X-93.62 Y-55.625
X-93.605 Y-55.622
X-92.841 Y-55.485
X-92.825 Y-55.482
X-92.081 Y-55.372
X-92.065 Y-55.37
X-91.343 Y-55.288
X-91.327 Y-55.286
X-90.626 Y-55.229
X-90.61 Y-55.228
X-89.928 Y-55.196
X-89.912 Y-55.195
X-89.244 Y-55.184
X-89.229
X-88.569 Y-55.192
X-88.557
X-87.898 Y-55.217
X-87.888
X-87.226 Y-55.255
X-87.214
X-85.862 Y-55.363
X-85.852 Y-55.364
X-84.455 Y-55.502
X-84.449 Y-55.503
X-83.012 Y-55.663
X-83.007 Y-55.664
X-81.55 Y-55.841
X-81.546 Y-55.842
X-80.092 Y-56.032
X-80.087
X-78.663 Y-56.234
X-78.657 Y-56.235
X-77.29 Y-56.446
X-77.283 Y-56.447
X-75.986 Y-56.667
X-75.98 Y-56.668
X-74.75 Y-56.891
X-74.749
X-73.563 Y-57.111
X-72.38 Y-57.316
X-71.775 Y-57.409
X-71.149 Y-57.495
X-70.497 Y-57.572
X-69.813 Y-57.64
X-69.095 Y-57.697
X-68.339 Y-57.744
X-67.548 Y-57.78
X-66.721 Y-57.806
X-65.863 Y-57.821
X-64.975 Y-57.827
X-63.266 Y-57.812
X-63.121 Y-57.811
X-61.192 Y-57.763
X-59.223 Y-57.691
X-57.25 Y-57.601
X-55.31 Y-57.503
X-54.683 Y-57.471
X-53.437 Y-57.406 Z-2.144 F333.3
X-51.654 Y-57.317 Z-2.206
X-51.651
X-49.968 Y-57.243 Z-2.265
X-49.963 Y-57.242
X-48.37 Y-57.188 Z-2.321
X-48.363
X-46.841 Y-57.157 Z-2.374
X-46.833
X-46.099 Y-57.154 Z-2.4
X-45.355 Y-57.15 F1000
X-45.347
X-43.887 Y-57.166
X-43.88
X-42.42 Y-57.203
X-42.415
X-40.944 Y-57.256
X-40.94
X-39.457 Y-57.322
X-39.455
X-37.96 Y-57.394
X-36.456 Y-57.467
X-34.952 Y-57.537
X-33.453 Y-57.597
X-31.967 Y-57.644
X-30.501 Y-57.674
X-29.056 Y-57.684
G2 X-28.706 Y-57.83 I-0.004 J-0.5
G1 X-25.913 Y-60.623
G2 X-25.913 Y-62.745 I-1.061 J-1.061
G1 X-28.706 Y-65.537
G2 X-29.056 Y-65.684 I-0.354 J0.354
G1 X-30.501 Y-65.694
X-31.967 Y-65.724
X-33.453 Y-65.77
X-34.952 Y-65.831
X-36.456 Y-65.9
X-37.959 Y-65.974
X-39.455 Y-66.046
X-39.457
X-40.94 Y-66.111
X-40.944 Y-66.112
X-42.415 Y-66.165
X-42.42
X-43.88 Y-66.201
X-43.887
X-45.347 Y-66.218
X-45.355
X-46.833 Y-66.211
X-46.841
X-48.363 Y-66.18
X-48.37
X-49.963 Y-66.125
X-49.968
X-51.651 Y-66.051
X-51.654
X-53.436 Y-65.962
X-55.31 Y-65.865
X-57.25 Y-65.767
X-59.223 Y-65.677
X-61.192 Y-65.605
X-63.121 Y-65.557
X-64.975 Y-65.541
X-65.863 Y-65.546
X-66.721 Y-65.562
X-67.548 Y-65.588
X-68.339 Y-65.624
X-69.095 Y-65.671
X-69.813 Y-65.728
X-70.497 Y-65.796
X-71.149 Y-65.873
X-71.775 Y-65.959
X-72.38 Y-66.052
X-73.563 Y-66.257
X-74.749 Y-66.476
X-74.75 Y-66.477
X-75.98 Y-66.7
X-75.986 Y-66.701
X-77.283 Y-66.92
X-77.29 Y-66.922
X-78.657 Y-67.133
X-78.663 Y-67.134
X-80.087 Y-67.335
X-80.092 Y-67.336
X-81.546 Y-67.526
X-81.55 Y-67.527
X-83.007 Y-67.704
X-83.012 Y-67.705
X-84.449 Y-67.865
X-84.455 Y-67.866
X-85.852 Y-68.004
X-85.862 Y-68.005
X-87.214 Y-68.112
X-87.226 Y-68.113
X-87.888 Y-68.151
X-87.898
X-88.557 Y-68.176
X-88.569
X-89.229 Y-68.184
X-89.244
X-89.912 Y-68.173
X-89.928 Y-68.172
X-90.61 Y-68.14
X-90.626 Y-68.139
X-91.327 Y-68.082
X-91.343 Y-68.08
X-92.065 Y-67.998
X-92.081 Y-67.995
X-92.825 Y-67.886
X-92.841 Y-67.883
X-93.605 Y-67.746
X-93.62 Y-67.743
X-94.402 Y-67.578
X-94.416 Y-67.574
X-95.21 Y-67.382
X-95.224 Y-67.378
X-96.023 Y-67.159
X-96.038 Y-67.155
X-96.836 Y-66.909
X-96.851 Y-66.905
X-97.641 Y-66.635
X-97.656 Y-66.629
X-98.429 Y-66.336
X-98.446 Y-66.329
X-99.193 Y-66.015
X-99.211 Y-66.007
X-99.924 Y-65.673
X-99.944 Y-65.663
X-100.613 Y-65.311
X-100.631 Y-65.302
X-100.946 Y-65.12
X-100.958 Y-65.113
X-101.259 Y-64.928
X-101.272 Y-64.92
X-101.558 Y-64.731
X-101.573 Y-64.721
X-101.842 Y-64.53
X-101.857 Y-64.518
X-102.109 Y-64.324
X-102.126 Y-64.31
X-102.359 Y-64.114
X-102.376 Y-64.099
X-102.591 Y-63.9
X-102.612 Y-63.88
X-102.806 Y-63.68
X-102.826 Y-63.657
X-102.999 Y-63.455
X-103.02 Y-63.429
X-103.172 Y-63.225
X-103.193 Y-63.193
X-103.323 Y-62.988
X-103.346 Y-62.949
X-103.452 Y-62.743
X-103.47 Y-62.703
X-103.554 Y-62.496
X-103.571 Y-62.446
X-103.631 Y-62.239
X-103.644 Y-62.185
X-103.68 Y-61.977
X-103.686 Y-61.921
X-103.698 Y-61.713
Y-61.655
X-103.686 Y-61.447
X-103.68 Y-61.39
X-103.644 Y-61.182
X-103.631 Y-61.129
X-103.571 Y-60.921
X-103.554 Y-60.872
X-103.47 Y-60.665
X-103.452 Y-60.625
X-103.346 Y-60.418
X-103.323 Y-60.379
X-103.193 Y-60.174
X-103.172 Y-60.143
X-103.02 Y-59.939
X-102.999 Y-59.913
X-102.826 Y-59.711
X-102.806 Y-59.688
X-102.612 Y-59.487
X-102.591 Y-59.468
X-102.376 Y-59.269
X-102.359 Y-59.254
X-102.126 Y-59.058
X-102.109 Y-59.044
X-101.857 Y-58.849
X-101.842 Y-58.838
X-101.573 Y-58.647
X-101.558 Y-58.637
X-101.272 Y-58.448
X-101.259 Y-58.44
X-100.958 Y-58.255
X-100.946 Y-58.248
X-100.631 Y-58.066
X-100.613 Y-58.056
X-99.944 Y-57.705
X-99.924 Y-57.695
X-99.211 Y-57.361
X-99.193 Y-57.353
X-98.446 Y-57.038
X-98.429 Y-57.032
X-97.656 Y-56.739
X-97.641 Y-56.733
X-96.851 Y-56.463
X-96.836 Y-56.458
X-96.038 Y-56.213
X-96.024 Y-56.209
X-95.224 Y-55.99
X-95.21 Y-55.986
X-94.416 Y-55.793
X-94.402 Y-55.79
X-93.62 Y-55.625
X-93.605 Y-55.622
X-92.841 Y-55.485
X-92.825 Y-55.482
X-92.081 Y-55.372
X-92.065 Y-55.37
X-91.343 Y-55.288
X-91.327 Y-55.286
X-90.626 Y-55.229
X-90.61 Y-55.228
X-89.928 Y-55.196
X-89.912 Y-55.195
X-89.244 Y-55.184
X-89.229
X-88.569 Y-55.192
X-88.557
X-87.898 Y-55.217
X-87.888
X-87.226 Y-55.255
X-87.214
X-85.862 Y-55.363
X-85.852 Y-55.364
X-84.455 Y-55.502
X-84.449 Y-55.503
X-83.012 Y-55.663
X-83.007 Y-55.664
X-81.55 Y-55.841
X-81.546 Y-55.842
X-80.092 Y-56.032
X-80.087
X-78.663 Y-56.234
X-78.657 Y-56.235
X-77.29 Y-56.446
X-77.283 Y-56.447
X-75.986 Y-56.667
X-75.98 Y-56.668
X-74.75 Y-56.891
X-74.749
X-73.563 Y-57.111
X-72.38 Y-57.316
X-71.775 Y-57.409
X-71.149 Y-57.495
X-70.497 Y-57.572
X-69.813 Y-57.64
X-69.095 Y-57.697
X-68.339 Y-57.744
X-67.548 Y-57.78
X-66.721 Y-57.806
X-65.863 Y-57.821
X-64.975 Y-57.827
X-63.121 Y-57.811
X-61.192 Y-57.763
X-59.223 Y-57.691
X-57.25 Y-57.601
X-55.31 Y-57.503
X-53.437 Y-57.406
X-51.654 Y-57.317
X-51.651
X-49.968 Y-57.243
X-49.963 Y-57.242
X-48.37 Y-57.188
X-48.363
X-46.841 Y-57.157
X-46.833
X-46.099 Y-57.154
X-45.355 Y-57.15 Z-2.426 F333.3
X-45.347
X-43.887 Y-57.166 Z-2.477
X-43.88
X-42.42 Y-57.203 Z-2.528
X-42.415 Z-2.529
X-40.944 Y-57.256 Z-2.58
X-40.94
X-39.457 Y-57.322 Z-2.632
X-39.455
X-37.96 Y-57.394 Z-2.684
X-37.513 Y-57.416 Z-2.7
X-36.456 Y-57.467 F1000
X-34.952 Y-57.537
X-33.453 Y-57.597
X-31.967 Y-57.644
X-30.501 Y-57.674
X-29.056 Y-57.684
G2 X-28.706 Y-57.83 I-0.004 J-0.5
G1 X-25.913 Y-60.623
G2 X-25.913 Y-62.745 I-1.061 J-1.061
G1 X-28.706 Y-65.537
G2 X-29.056 Y-65.684 I-0.354 J0.354
G1 X-30.501 Y-65.694
X-31.967 Y-65.724
X-33.453 Y-65.77
X-34.952 Y-65.831
X-36.456 Y-65.9
X-37.959 Y-65.974
X-39.455 Y-66.046
X-39.457
X-40.94 Y-66.111
X-40.944 Y-66.112
X-42.415 Y-66.165
X-42.42
X-43.88 Y-66.201
X-43.887
X-45.347 Y-66.218
X-45.355
X-46.833 Y-66.211
X-46.841
X-48.363 Y-66.18
X-48.37
X-49.963 Y-66.125
X-49.968
X-51.651 Y-66.051
X-51.654
X-53.436 Y-65.962
X-55.31 Y-65.865
X-57.25 Y-65.767
X-59.223 Y-65.677
X-61.192 Y-65.605
X-63.121 Y-65.557
X-64.975 Y-65.541
X-65.863 Y-65.546
X-66.721 Y-65.562
X-67.548 Y-65.588
X-68.339 Y-65.624
X-69.095 Y-65.671
X-69.813 Y-65.728
X-70.497 Y-65.796
X-71.149 Y-65.873
X-71.775 Y-65.959
X-72.38 Y-66.052
X-73.563 Y-66.257
X-74.749 Y-66.476
X-74.75 Y-66.477
X-75.98 Y-66.7
X-75.986 Y-66.701
X-77.283 Y-66.92
X-77.29 Y-66.922
X-78.657 Y-67.133
X-78.663 Y-67.134
X-80.087 Y-67.335
X-80.092 Y-67.336
X-81.546 Y-67.526
X-81.55 Y-67.527
X-83.007 Y-67.704
X-83.012 Y-67.705
X-84.449 Y-67.865
X-84.455 Y-67.866
X-85.852 Y-68.004
X-85.862 Y-68.005
X-87.214 Y-68.112
X-87.226 Y-68.113
X-87.888 Y-68.151
X-87.898
X-88.557 Y-68.176
X-88.569
X-89.229 Y-68.184
X-89.244
X-89.912 Y-68.173
X-89.928 Y-68.172
X-90.61 Y-68.14
X-90.626 Y-68.139
X-91.327 Y-68.082
X-91.343 Y-68.08
X-92.065 Y-67.998
X-92.081 Y-67.995
X-92.825 Y-67.886
X-92.841 Y-67.883
X-93.605 Y-67.746
X-93.62 Y-67.743
X-94.402 Y-67.578
X-94.416 Y-67.574
X-95.21 Y-67.382
X-95.224 Y-67.378
X-96.023 Y-67.159
X-96.038 Y-67.155
X-96.836 Y-66.909
X-96.851 Y-66.905
X-97.641 Y-66.635
X-97.656 Y-66.629
X-98.429 Y-66.336
X-98.446 Y-66.329
X-99.193 Y-66.015
X-99.211 Y-66.007
X-99.924 Y-65.673
X-99.944 Y-65.663
X-100.613 Y-65.311
X-100.631 Y-65.302
X-100.946 Y-65.12
X-100.958 Y-65.113
X-101.259 Y-64.928
X-101.272 Y-64.92
X-101.558 Y-64.731
X-101.573 Y-64.721
X-101.842 Y-64.53
X-101.857 Y-64.518
X-102.109 Y-64.324
X-102.126 Y-64.31
X-102.359 Y-64.114
X-102.376 Y-64.099
X-102.591 Y-63.9
X-102.612 Y-63.88
X-102.806 Y-63.68
X-102.826 Y-63.657
X-102.999 Y-63.455
X-103.02 Y-63.429
X-103.172 Y-63.225
X-103.193 Y-63.193
X-103.323 Y-62.988
X-103.346 Y-62.949
X-103.452 Y-62.743
X-103.47 Y-62.703
X-103.554 Y-62.496
X-103.571 Y-62.446
X-103.631 Y-62.239
X-103.644 Y-62.185
X-103.68 Y-61.977
X-103.686 Y-61.921
X-103.698 Y-61.713
Y-61.655
X-103.686 Y-61.447
X-103.68 Y-61.39
X-103.644 Y-61.182
X-103.631 Y-61.129
X-103.571 Y-60.921
X-103.554 Y-60.872
X-103.47 Y-60.665
X-103.452 Y-60.625
X-103.346 Y-60.418
X-103.323 Y-60.379
X-103.193 Y-60.174
X-103.172 Y-60.143
X-103.02 Y-59.939
X-102.999 Y-59.913
X-102.826 Y-59.711
X-102.806 Y-59.688
X-102.612 Y-59.487
X-102.591 Y-59.468
X-102.376 Y-59.269
X-102.359 Y-59.254
X-102.126 Y-59.058
X-102.109 Y-59.044
X-101.857 Y-58.849
X-101.842 Y-58.838
X-101.573 Y-58.647
X-101.558 Y-58.637
X-101.272 Y-58.448
X-101.259 Y-58.44
X-100.958 Y-58.255
X-100.946 Y-58.248
X-100.631 Y-58.066
X-100.613 Y-58.056
X-99.944 Y-57.705
X-99.924 Y-57.695
X-99.211 Y-57.361
X-99.193 Y-57.353
X-98.446 Y-57.038
X-98.429 Y-57.032
X-97.656 Y-56.739
X-97.641 Y-56.733
X-96.851 Y-56.463
X-96.836 Y-56.458
X-96.038 Y-56.213
X-96.024 Y-56.209
X-95.224 Y-55.99
X-95.21 Y-55.986
X-94.416 Y-55.793
X-94.402 Y-55.79
X-93.62 Y-55.625
X-93.605 Y-55.622
X-92.841 Y-55.485
X-92.825 Y-55.482
X-92.081 Y-55.372
X-92.065 Y-55.37
X-91.343 Y-55.288
X-91.327 Y-55.286
X-90.626 Y-55.229
X-90.61 Y-55.228
X-89.928 Y-55.196
X-89.912 Y-55.195
X-89.244 Y-55.184
X-89.229
X-88.569 Y-55.192
X-88.557
X-87.898 Y-55.217
X-87.888
X-87.226 Y-55.255
X-87.214
X-85.862 Y-55.363
X-85.852 Y-55.364
X-84.455 Y-55.502
X-84.449 Y-55.503
X-83.012 Y-55.663
X-83.007 Y-55.664
X-81.55 Y-55.841
X-81.546 Y-55.842
X-80.092 Y-56.032
X-80.087
X-78.663 Y-56.234
X-78.657 Y-56.235
X-77.29 Y-56.446
X-77.283 Y-56.447
X-75.986 Y-56.667
X-75.98 Y-56.668
X-74.75 Y-56.891
X-74.749
X-73.563 Y-57.111
X-72.38 Y-57.316
X-71.775 Y-57.409
X-71.149 Y-57.495
X-70.497 Y-57.572
X-69.813 Y-57.64
X-69.095 Y-57.697
X-68.339 Y-57.744
X-67.548 Y-57.78
X-66.721 Y-57.806
X-65.863 Y-57.821
X-64.975 Y-57.827
X-63.121 Y-57.811
X-61.192 Y-57.763
X-59.223 Y-57.691
X-57.25 Y-57.601
X-55.31 Y-57.503
X-53.437 Y-57.406
X-51.654 Y-57.317
X-51.651
X-49.968 Y-57.243
X-49.963 Y-57.242
X-48.37 Y-57.188
X-48.363
X-46.841 Y-57.157
X-46.833
X-45.355 Y-57.15
X-45.347
X-43.887 Y-57.166
X-43.88
X-42.42 Y-57.203
X-42.415
X-40.944 Y-57.256
X-40.94
X-39.457 Y-57.322
X-39.455
X-37.96 Y-57.394
X-37.513 Y-57.416
X-36.456 Y-57.467 Z-2.737 F333.3
X-34.952 Y-57.537 Z-2.79
X-33.453 Y-57.597 Z-2.842
X-31.967 Y-57.644 Z-2.894
X-30.501 Y-57.674 Z-2.945
X-29.056 Y-57.684 Z-2.996
X-28.992 Y-57.689 Z-2.998
X-28.929 Y-57.701 Z-3
G2 X-28.706 Y-57.83 I-0.131 J-0.483 F1000
G1 X-25.913 Y-60.623
G2 X-25.913 Y-62.745 I-1.061 J-1.061
G1 X-28.706 Y-65.537
G2 X-29.056 Y-65.684 I-0.354 J0.354
G1 X-30.501 Y-65.694
X-31.967 Y-65.724
X-33.453 Y-65.77
X-34.952 Y-65.831
X-36.456 Y-65.9
X-37.959 Y-65.974
X-39.455 Y-66.046
X-39.457
X-40.94 Y-66.111
X-40.944 Y-66.112
X-42.415 Y-66.165
X-42.42
X-43.88 Y-66.201
X-43.887
X-45.347 Y-66.218
X-45.355
X-46.833 Y-66.211
X-46.841
X-48.363 Y-66.18
X-48.37
X-49.963 Y-66.125
X-49.968
X-51.651 Y-66.051
X-51.654
X-53.436 Y-65.962
X-55.31 Y-65.865
X-57.25 Y-65.767
X-59.223 Y-65.677
X-61.192 Y-65.605
X-63.121 Y-65.557
X-64.975 Y-65.541
X-65.863 Y-65.546
X-66.721 Y-65.562
X-67.548 Y-65.588
X-68.339 Y-65.624
X-68.503 Y-65.634
Z-2.95
X-69.095 Y-65.671
X-69.813 Y-65.728
X-70.497 Y-65.796
X-71.149 Y-65.873
X-71.775 Y-65.959
X-72.38 Y-66.052
X-72.479 Y-66.069
Z-3 F200
X-73.563 Y-66.257 F1000
X-74.749 Y-66.476
X-74.75 Y-66.477
X-75.98 Y-66.7
X-75.986 Y-66.701
X-77.283 Y-66.92
X-77.29 Y-66.922
X-78.657 Y-67.133
X-78.663 Y-67.134
X-80.087 Y-67.335
X-80.092 Y-67.336
X-81.546 Y-67.526
X-81.55 Y-67.527
X-83.007 Y-67.704
X-83.012 Y-67.705
X-84.449 Y-67.865
X-84.455 Y-67.866
X-85.852 Y-68.004
X-85.862 Y-68.005
X-87.214 Y-68.112
X-87.226 Y-68.113
X-87.888 Y-68.151
X-87.898
X-88.557 Y-68.176
X-88.569
X-89.229 Y-68.184
X-89.244
X-89.912 Y-68.173
X-89.928 Y-68.172
X-90.61 Y-68.14
X-90.626 Y-68.139
X-91.327 Y-68.082
X-91.343 Y-68.08
X-92.065 Y-67.998
X-92.081 Y-67.995
X-92.825 Y-67.886
X-92.841 Y-67.883
X-93.605 Y-67.746
X-93.62 Y-67.743
X-94.402 Y-67.578
X-94.416 Y-67.574
X-95.21 Y-67.382
X-95.224 Y-67.378
X-96.023 Y-67.159
X-96.038 Y-67.155
X-96.836 Y-66.909
X-96.851 Y-66.905
X-97.641 Y-66.635
X-97.656 Y-66.629
X-98.429 Y-66.336
X-98.446 Y-66.329
X-99.193 Y-66.015
X-99.211 Y-66.007
X-99.924 Y-65.673
X-99.944 Y-65.663
X-100.613 Y-65.311
X-100.631 Y-65.302
X-100.946 Y-65.12
X-100.958 Y-65.113
X-101.259 Y-64.928
X-101.272 Y-64.92
X-101.558 Y-64.731
X-101.573 Y-64.721
X-101.842 Y-64.53
X-101.857 Y-64.518
X-102.109 Y-64.324
X-102.126 Y-64.31
X-102.359 Y-64.114
X-102.376 Y-64.099
X-102.591 Y-63.9
X-102.612 Y-63.88
X-102.806 Y-63.68
X-102.826 Y-63.657
X-102.999 Y-63.455
X-103.02 Y-63.429
X-103.172 Y-63.225
X-103.193 Y-63.193
X-103.323 Y-62.988
X-103.346 Y-62.949
X-103.452 Y-62.743
X-103.47 Y-62.703
X-103.554 Y-62.496
X-103.571 Y-62.446
X-103.631 Y-62.239
X-103.644 Y-62.185
X-103.68 Y-61.977
X-103.686 Y-61.921
X-103.698 Y-61.713
Y-61.655
X-103.686 Y-61.447
X-103.68 Y-61.39
X-103.644 Y-61.182
X-103.631 Y-61.129
X-103.571 Y-60.921
X-103.554 Y-60.872
X-103.47 Y-60.665
X-103.452 Y-60.625
X-103.346 Y-60.418
X-103.323 Y-60.379
X-103.193 Y-60.174
X-103.172 Y-60.143
X-103.02 Y-59.939
X-102.999 Y-59.913
X-102.826 Y-59.711
X-102.806 Y-59.688
X-102.612 Y-59.487
X-102.591 Y-59.468
X-102.376 Y-59.269
X-102.359 Y-59.254
X-102.126 Y-59.058
X-102.109 Y-59.044
X-101.857 Y-58.849
X-101.842 Y-58.838
X-101.573 Y-58.647
X-101.558 Y-58.637
X-101.272 Y-58.448
X-101.259 Y-58.44
X-100.958 Y-58.255
X-100.946 Y-58.248
X-100.631 Y-58.066
X-100.613 Y-58.056
X-99.944 Y-57.705
X-99.924 Y-57.695
X-99.211 Y-57.361
X-99.193 Y-57.353
X-98.446 Y-57.038
X-98.429 Y-57.032
X-97.656 Y-56.739
X-97.641 Y-56.733
X-96.851 Y-56.463
X-96.836 Y-56.458
X-96.038 Y-56.213
X-96.024 Y-56.209
X-95.224 Y-55.99
X-95.21 Y-55.986
X-94.416 Y-55.793
X-94.402 Y-55.79
X-93.62 Y-55.625
X-93.605 Y-55.622
X-92.841 Y-55.485
X-92.825 Y-55.482
X-92.081 Y-55.372
X-92.065 Y-55.37
X-91.343 Y-55.288
X-91.327 Y-55.286
X-90.626 Y-55.229
X-90.61 Y-55.228
X-89.928 Y-55.196
X-89.912 Y-55.195
X-89.244 Y-55.184
X-89.229
X-88.569 Y-55.192
X-88.557
X-87.898 Y-55.217
X-87.888
X-87.226 Y-55.255
X-87.214
X-85.862 Y-55.363
X-85.852 Y-55.364
X-84.455 Y-55.502
X-84.449 Y-55.503
X-83.012 Y-55.663
X-83.007 Y-55.664
X-81.55 Y-55.841
X-81.546 Y-55.842
X-80.092 Y-56.032
X-80.087
X-78.663 Y-56.234
X-78.657 Y-56.235
X-77.29 Y-56.446
X-77.283 Y-56.447
X-75.986 Y-56.667
X-75.98 Y-56.668
X-74.75 Y-56.891
X-74.749
X-73.563 Y-57.111
X-72.479 Y-57.298
Z-2.95
X-72.38 Y-57.316
X-71.775 Y-57.409
X-71.149 Y-57.495
X-70.497 Y-57.572
X-69.813 Y-57.64
X-69.095 Y-57.697
X-68.503 Y-57.734
Z-3 F200
X-68.339 Y-57.744 F1000
X-67.548 Y-57.78
X-66.721 Y-57.806
X-65.863 Y-57.821
X-64.975 Y-57.827
X-63.121 Y-57.811
X-61.192 Y-57.763
X-59.223 Y-57.691
X-57.25 Y-57.601
X-55.31 Y-57.503
X-53.437 Y-57.406
X-51.654 Y-57.317
X-51.651
X-49.968 Y-57.243
X-49.963 Y-57.242
X-48.37 Y-57.188
X-48.363
X-46.841 Y-57.157
X-46.833
X-45.355 Y-57.15
X-45.347
X-43.887 Y-57.166
X-43.88
X-42.42 Y-57.203
X-42.415
X-40.944 Y-57.256
X-40.94
X-39.457 Y-57.322
X-39.455
X-37.96 Y-57.394
X-36.456 Y-57.467
X-34.952 Y-57.537
X-33.453 Y-57.597
X-31.967 Y-57.644
X-30.501 Y-57.674
X-29.056 Y-57.684
X-28.992 Y-57.689
X-28.929 Y-57.701
G2 X-28.706 Y-57.83 Z-3.009 I-0.131 J-0.483 F333.3
G1 X-25.913 Y-60.623 Z-3.147
G2 X-25.512 Y-62.02 Z-3.2 I-1.061 J-1.061
X-25.913 Y-62.745 I-1.462 J0.336 F1000
G1 X-28.706 Y-65.537
G2 X-29.056 Y-65.684 I-0.354 J0.354
G1 X-30.501 Y-65.694
X-31.967 Y-65.724
X-33.453 Y-65.77
X-34.952 Y-65.831
X-36.456 Y-65.9
X-37.959 Y-65.974
X-39.455 Y-66.046
X-39.457
X-40.94 Y-66.111
X-40.944 Y-66.112
X-42.415 Y-66.165
X-42.42
X-43.88 Y-66.201
X-43.887
X-45.347 Y-66.218
X-45.355
X-46.833 Y-66.211
X-46.841
X-48.363 Y-66.18
X-48.37
X-49.963 Y-66.125
X-49.968
X-51.651 Y-66.051
X-51.654
X-53.436 Y-65.962
X-55.31 Y-65.865
X-57.25 Y-65.767
X-59.223 Y-65.677
X-61.192 Y-65.605
X-63.121 Y-65.557
X-64.975 Y-65.541
X-65.863 Y-65.546
X-66.721 Y-65.562
X-67.548 Y-65.588
X-68.339 Y-65.624
X-68.503 Y-65.634
Z-2.95
X-69.095 Y-65.671
X-69.813 Y-65.728
X-70.497 Y-65.796
X-71.149 Y-65.873
X-71.775 Y-65.959
X-72.38 Y-66.052
X-72.479 Y-66.069
Z-3.2 F200
X-73.563 Y-66.257 F1000
X-74.749 Y-66.476
X-74.75 Y-66.477
X-75.98 Y-66.7
X-75.986 Y-66.701
X-77.283 Y-66.92
X-77.29 Y-66.922
X-78.657 Y-67.133
X-78.663 Y-67.134
X-80.087 Y-67.335
X-80.092 Y-67.336
X-81.546 Y-67.526
X-81.55 Y-67.527
X-83.007 Y-67.704
X-83.012 Y-67.705
X-84.449 Y-67.865
X-84.455 Y-67.866
X-85.852 Y-68.004
X-85.862 Y-68.005
X-87.214 Y-68.112
X-87.226 Y-68.113
X-87.888 Y-68.151
X-87.898
X-88.557 Y-68.176
X-88.569
X-89.229 Y-68.184
X-89.244
X-89.912 Y-68.173
X-89.928 Y-68.172
X-90.61 Y-68.14
X-90.626 Y-68.139
X-91.327 Y-68.082
X-91.343 Y-68.08
X-92.065 Y-67.998
X-92.081 Y-67.995
X-92.825 Y-67.886
X-92.841 Y-67.883
X-93.605 Y-67.746
X-93.62 Y-67.743
X-94.402 Y-67.578
X-94.416 Y-67.574
X-95.21 Y-67.382
X-95.224 Y-67.378
X-96.023 Y-67.159
X-96.038 Y-67.155
X-96.836 Y-66.909
X-96.851 Y-66.905
X-97.641 Y-66.635
X-97.656 Y-66.629
X-98.429 Y-66.336
X-98.446 Y-66.329
X-99.193 Y-66.015
X-99.211 Y-66.007
X-99.924 Y-65.673
X-99.944 Y-65.663
X-100.613 Y-65.311
X-100.631 Y-65.302
X-100.946 Y-65.12
X-100.958 Y-65.113
X-101.259 Y-64.928
X-101.272 Y-64.92
X-101.558 Y-64.731
X-101.573 Y-64.721
X-101.842 Y-64.53
X-101.857 Y-64.518
X-102.109 Y-64.324
X-102.126 Y-64.31
X-102.359 Y-64.114
X-102.376 Y-64.099
X-102.591 Y-63.9
X-102.612 Y-63.88
X-102.806 Y-63.68
X-102.826 Y-63.657
X-102.999 Y-63.455
X-103.02 Y-63.429
X-103.172 Y-63.225
X-103.193 Y-63.193
X-103.323 Y-62.988
X-103.346 Y-62.949
X-103.452 Y-62.743
X-103.47 Y-62.703
X-103.554 Y-62.496
X-103.571 Y-62.446
X-103.631 Y-62.239
X-103.644 Y-62.185
X-103.68 Y-61.977
X-103.686 Y-61.921
X-103.698 Y-61.713
Y-61.655
X-103.686 Y-61.447
X-103.68 Y-61.39
X-103.644 Y-61.182
X-103.631 Y-61.129
X-103.571 Y-60.921
X-103.554 Y-60.872
X-103.47 Y-60.665
X-103.452 Y-60.625
X-103.346 Y-60.418
X-103.323 Y-60.379
X-103.193 Y-60.174
X-103.172 Y-60.143
X-103.02 Y-59.939
X-102.999 Y-59.913
X-102.826 Y-59.711
X-102.806 Y-59.688
X-102.612 Y-59.487
X-102.591 Y-59.468
X-102.376 Y-59.269
X-102.359 Y-59.254
X-102.126 Y-59.058
X-102.109 Y-59.044
X-101.857 Y-58.849
X-101.842 Y-58.838
X-101.573 Y-58.647
X-101.558 Y-58.637
X-101.272 Y-58.448
X-101.259 Y-58.44
X-100.958 Y-58.255
X-100.946 Y-58.248
X-100.631 Y-58.066
X-100.613 Y-58.056
X-99.944 Y-57.705
X-99.924 Y-57.695
X-99.211 Y-57.361
X-99.193 Y-57.353
X-98.446 Y-57.038
X-98.429 Y-57.032
X-97.656 Y-56.739
X-97.641 Y-56.733
X-96.851 Y-56.463
X-96.836 Y-56.458
X-96.038 Y-56.213
X-96.024 Y-56.209
X-95.224 Y-55.99
X-95.21 Y-55.986
X-94.416 Y-55.793
X-94.402 Y-55.79
X-93.62 Y-55.625
X-93.605 Y-55.622
X-92.841 Y-55.485
X-92.825 Y-55.482
X-92.081 Y-55.372
X-92.065 Y-55.37
X-91.343 Y-55.288
X-91.327 Y-55.286
X-90.626 Y-55.229
X-90.61 Y-55.228
X-89.928 Y-55.196
X-89.912 Y-55.195
X-89.244 Y-55.184
X-89.229
X-88.569 Y-55.192
X-88.557
X-87.898 Y-55.217
X-87.888
X-87.226 Y-55.255
X-87.214
X-85.862 Y-55.363
X-85.852 Y-55.364
X-84.455 Y-55.502
X-84.449 Y-55.503
X-83.012 Y-55.663
X-83.007 Y-55.664
X-81.55 Y-55.841
X-81.546 Y-55.842
X-80.092 Y-56.032
X-80.087
X-78.663 Y-56.234
X-78.657 Y-56.235
X-77.29 Y-56.446
X-77.283 Y-56.447
X-75.986 Y-56.667
X-75.98 Y-56.668
X-74.75 Y-56.891
X-74.749
X-73.563 Y-57.111
X-72.479 Y-57.298
Z-2.95
X-72.38 Y-57.316
X-71.775 Y-57.409
X-71.149 Y-57.495
X-70.497 Y-57.572
X-69.813 Y-57.64
X-69.095 Y-57.697
X-68.503 Y-57.734
Z-3.2 F200
X-68.339 Y-57.744 F1000
X-67.548 Y-57.78
X-66.721 Y-57.806
X-65.863 Y-57.821
X-64.975 Y-57.827
X-63.121 Y-57.811
X-61.192 Y-57.763
X-59.223 Y-57.691
X-57.25 Y-57.601
X-55.31 Y-57.503
X-53.437 Y-57.406
X-51.654 Y-57.317
X-51.651
X-49.968 Y-57.243
X-49.963 Y-57.242
X-48.37 Y-57.188
X-48.363
X-46.841 Y-57.157
X-46.833
X-45.355 Y-57.15
X-45.347
X-43.887 Y-57.166
X-43.88
X-42.42 Y-57.203
X-42.415
X-40.944 Y-57.256
X-40.94
X-39.457 Y-57.322
X-39.455
X-37.96 Y-57.394
X-36.456 Y-57.467
X-34.952 Y-57.537
X-33.453 Y-57.597
X-31.967 Y-57.644
X-30.501 Y-57.674
X-29.056 Y-57.684
G2 X-28.706 Y-57.83 I-0.004 J-0.5
G1 X-25.913 Y-60.623
G2 X-25.512 Y-62.02 I-1.061 J-1.061
G0 Z5
X-21.272 Y-68.323
G1 Z1.3 F200
Z0.5
X-21.192 Y-68.313 Z0.497 F333.3
X-21.187
X-19.751 Y-68.152 Z0.447
X-19.744 Y-68.151 Z0.446
X-18.347 Y-68.013 Z0.397
X-18.337 Y-68.012
X-16.985 Y-67.905 Z0.35
X-16.974 Y-67.904 Z0.349
X-16.311 Y-67.866 Z0.326
X-16.301
X-15.642 Y-67.842 Z0.303
X-15.63 Y-67.841 Z0.302
X-14.97 Y-67.833 Z0.279
X-14.955
X-14.287 Y-67.844 Z0.255
X-14.272 Y-67.845
X-13.59 Y-67.878 Z0.231
X-13.573 Y-67.879 Z0.23
X-12.873 Y-67.935 Z0.206
X-12.856 Y-67.937 Z0.205
X-12.134 Y-68.02 Z0.18
X-12.118 Y-68.022 Z0.179
X-11.374 Y-68.131 Z0.153
X-11.358 Y-68.134 Z0.152
X-10.594 Y-68.271 Z0.125
X-10.579 Y-68.274
X-9.797 Y-68.439 Z0.097
X-9.783 Y-68.443 Z0.096
X-8.989 Y-68.635 Z0.068
X-8.975 Y-68.639 Z0.067
X-8.176 Y-68.858 Z0.038
X-8.161 Y-68.863
X-7.363 Y-69.108 Z0.009
X-7.348 Y-69.113 Z0.008
X-6.558 Y-69.382 Z-0.021
X-6.543 Y-69.388 Z-0.022
X-5.77 Y-69.681 Z-0.05
X-5.753 Y-69.688 Z-0.051
X-5.006 Y-70.002 Z-0.079
X-4.988 Y-70.01 Z-0.08
X-4.275 Y-70.344 Z-0.108
X-4.255 Y-70.354
X-3.586 Y-70.706 Z-0.135
X-3.569 Y-70.715
X-3.254 Y-70.897 Z-0.148
X-3.241 Y-70.904 Z-0.149
X-2.94 Y-71.089 Z-0.161
X-2.927 Y-71.098
X-2.641 Y-71.286 Z-0.173
X-2.627 Y-71.296 Z-0.174
X-2.358 Y-71.488 Z-0.186
X-2.342 Y-71.499
X-2.09 Y-71.693 Z-0.197
X-2.073 Y-71.707 Z-0.198
X-1.84 Y-71.903 Z-0.209
X-1.822 Y-71.919 Z-0.21
X-1.607 Y-72.118 Z-0.22
X-1.588 Y-72.137 Z-0.221
X-1.394 Y-72.337 Z-0.231
X-1.373 Y-72.36 Z-0.232
X-1.2 Y-72.562 Z-0.241
X-1.179 Y-72.589 Z-0.242
X-1.027 Y-72.793 Z-0.251
X-1.005 Y-72.824 Z-0.252
X-0.876 Y-73.029 Z-0.261
X-0.855 Y-73.066 Z-0.262
X-0.748 Y-73.273 Z-0.27
X-0.728 Y-73.315 Z-0.272
X-0.644 Y-73.522 Z-0.28
X-0.628 Y-73.571 Z-0.282
X-0.568 Y-73.778 Z-0.289
X-0.556 Y-73.832 Z-0.291
X-0.519 Y-74.04 Z-0.298
X-0.514 Y-74.085 Z-0.3
X-0.513 Y-74.096 F1000
X-0.501 Y-74.304
Y-74.362
X-0.513 Y-74.57
X-0.519 Y-74.627
X-0.556 Y-74.835
X-0.568 Y-74.888
X-0.628 Y-75.096
X-0.644 Y-75.144
X-0.728 Y-75.351
X-0.748 Y-75.394
X-0.854 Y-75.6
X-0.876 Y-75.637
X-1.005 Y-75.842
X-1.027 Y-75.874
X-1.179 Y-76.078
X-1.2 Y-76.104
X-1.373 Y-76.307
X-1.394 Y-76.329
X-1.588 Y-76.53
X-1.607 Y-76.549
X-1.822 Y-76.748
X-1.84 Y-76.763
X-2.073 Y-76.96
X-2.09 Y-76.974
X-2.342 Y-77.168
X-2.358 Y-77.179
X-2.627 Y-77.371
X-2.641 Y-77.38
X-2.927 Y-77.569
X-2.94 Y-77.577
X-3.241 Y-77.762
X-3.254 Y-77.77
X-3.569 Y-77.951
X-3.586 Y-77.961
X-4.255 Y-78.312
X-4.275 Y-78.322
X-4.988 Y-78.656
X-5.006 Y-78.664
X-5.753 Y-78.979
X-5.77 Y-78.986
X-6.543 Y-79.279
X-6.558 Y-79.284
X-7.348 Y-79.554
X-7.363 Y-79.559
X-8.161 Y-79.804
X-8.176 Y-79.808
X-8.975 Y-80.028
X-8.989 Y-80.031
X-9.783 Y-80.224
X-9.797 Y-80.227
X-10.579 Y-80.392
X-10.594 Y-80.395
X-11.358 Y-80.533
X-11.374 Y-80.535
X-12.118 Y-80.645
X-12.134 Y-80.647
X-12.856 Y-80.73
X-12.872 Y-80.731
X-13.573 Y-80.788
X-13.59 Y-80.789
X-14.272 Y-80.822
X-14.287
X-14.955 Y-80.833
X-14.97
X-15.63 Y-80.825
X-15.642
X-16.301 Y-80.801
X-16.311 Y-80.8
X-16.974 Y-80.762
X-16.985
X-18.337 Y-80.655
X-18.347 Y-80.654
X-19.744 Y-80.515
X-19.751
X-21.187 Y-80.354
X-21.192 Y-80.353
X-22.649 Y-80.176
X-22.653
X-24.107 Y-79.986
X-24.113 Y-79.985
X-25.536 Y-79.783
X-25.542
X-26.909 Y-79.571
X-26.916 Y-79.57
X-28.213 Y-79.35
X-28.219 Y-79.349
X-29.449 Y-79.126
X-29.45
X-30.636 Y-78.907
X-31.82 Y-78.701
X-32.424 Y-78.608
X-33.05 Y-78.522
X-33.702 Y-78.445
X-34.386 Y-78.378
X-35.105 Y-78.32
X-35.86 Y-78.273
X-36.651 Y-78.237
X-37.478 Y-78.211
X-38.336 Y-78.196
X-39.224 Y-78.19
X-41.078 Y-78.206
X-43.007 Y-78.254
X-44.976 Y-78.327
X-46.949 Y-78.416
X-48.889 Y-78.514
X-50.762 Y-78.611
X-50.763
X-52.545 Y-78.7
X-52.548 Y-78.701
X-54.232 Y-78.775
X-54.237
X-55.829 Y-78.829
X-55.836
X-57.358 Y-78.86
X-57.366
X-58.844 Y-78.867
X-58.852
X-60.312 Y-78.851
X-60.319
X-61.779 Y-78.814
X-61.784
X-63.255 Y-78.761
X-63.259
X-64.742 Y-78.696
X-64.744
X-66.239 Y-78.623
X-67.743 Y-78.55
X-69.247 Y-78.48
X-70.746 Y-78.42
X-72.232 Y-78.373
X-73.698 Y-78.343
X-75.143 Y-78.333
G2 X-75.493 Y-78.187 I0.004 J0.5
G1 X-78.286 Y-75.394
G2 X-78.286 Y-73.273 I1.061 J1.061
G1 X-75.493 Y-70.48
G2 X-75.143 Y-70.333 I0.354 J-0.354
G1 X-73.698 Y-70.323
X-72.232 Y-70.294
X-70.746 Y-70.247
X-69.247 Y-70.186
X-67.743 Y-70.117
X-66.24 Y-70.043
X-64.744 Y-69.971
X-64.742
X-63.259 Y-69.906
X-63.255
X-61.784 Y-69.853
X-61.779 Y-69.852
X-60.319 Y-69.816
X-60.312
X-58.852 Y-69.8
X-58.844
X-57.366 Y-69.807
X-57.358
X-55.836 Y-69.838
X-55.829
X-54.237 Y-69.892
X-54.232
X-52.548 Y-69.966
X-52.545
X-50.763 Y-70.055
X-48.889 Y-70.153
X-46.949 Y-70.25
X-44.976 Y-70.34
X-43.007 Y-70.413
X-41.078 Y-70.46
X-39.224 Y-70.476
X-38.336 Y-70.471
X-37.478 Y-70.455
X-36.651 Y-70.429
X-35.86 Y-70.393
X-35.105 Y-70.346
X-34.386 Y-70.289
X-33.702 Y-70.221
X-33.05 Y-70.144
X-32.424 Y-70.059
X-31.82 Y-69.965
X-30.636 Y-69.76
X-29.45 Y-69.541
X-29.449
X-28.219 Y-69.317
X-28.213 Y-69.316
X-26.916 Y-69.097
X-26.909 Y-69.096
X-25.542 Y-68.884
X-25.536 Y-68.883
X-24.113 Y-68.682
X-24.107 Y-68.681
X-22.653 Y-68.491
X-22.649 Y-68.49
X-21.192 Y-68.313
X-21.187
X-19.751 Y-68.152
X-19.744 Y-68.151
X-18.347 Y-68.013
X-18.337 Y-68.012
X-16.985 Y-67.905
X-16.974 Y-67.904
X-16.311 Y-67.866
X-16.301
X-15.642 Y-67.842
X-15.63 Y-67.841
X-14.97 Y-67.833
X-14.955
X-14.287 Y-67.844
X-14.272 Y-67.845
X-13.59 Y-67.878
X-13.573 Y-67.879
X-12.873 Y-67.935
X-12.856 Y-67.937
X-12.134 Y-68.02
X-12.118 Y-68.022
X-11.374 Y-68.131
X-11.358 Y-68.134
X-10.594 Y-68.271
X-10.579 Y-68.274
X-9.797 Y-68.439
X-9.783 Y-68.443
X-8.989 Y-68.635
X-8.975 Y-68.639
X-8.176 Y-68.858
X-8.161 Y-68.863
X-7.363 Y-69.108
X-7.348 Y-69.113
X-6.558 Y-69.382
X-6.543 Y-69.388
X-5.77 Y-69.681
X-5.753 Y-69.688
X-5.006 Y-70.002
X-4.988 Y-70.01
X-4.275 Y-70.344
X-4.255 Y-70.354
X-3.586 Y-70.706
X-3.569 Y-70.715
X-3.254 Y-70.897
X-3.241 Y-70.904
X-2.94 Y-71.089
X-2.927 Y-71.098
X-2.641 Y-71.286
X-2.627 Y-71.296
X-2.358 Y-71.488
X-2.342 Y-71.499
X-2.09 Y-71.693
X-2.073 Y-71.707
X-1.84 Y-71.903
X-1.822 Y-71.919
X-1.607 Y-72.118
X-1.588 Y-72.137
X-1.394 Y-72.337
X-1.373 Y-72.36
X-1.2 Y-72.562
X-1.179 Y-72.589
X-1.027 Y-72.793
X-1.005 Y-72.824
X-0.876 Y-73.029
X-0.855 Y-73.066
X-0.748 Y-73.273
X-0.728 Y-73.315
X-0.644 Y-73.522
X-0.628 Y-73.571
X-0.568 Y-73.778
X-0.556 Y-73.832
X-0.519 Y-74.04
X-0.514 Y-74.085
X-0.513 Y-74.096 F333.3
X-0.501 Y-74.304 Z-0.308
Y-74.362 Z-0.31
X-0.513 Y-74.57 Z-0.317
X-0.519 Y-74.627 Z-0.319
X-0.556 Y-74.835 Z-0.326
X-0.568 Y-74.888 Z-0.328
X-0.628 Y-75.096 Z-0.336
X-0.644 Y-75.144 Z-0.338
X-0.728 Y-75.351 Z-0.345
X-0.748 Y-75.394 Z-0.347
X-0.854 Y-75.6 Z-0.355
X-0.876 Y-75.637 Z-0.357
X-1.005 Y-75.842 Z-0.365
X-1.027 Y-75.874 Z-0.366
X-1.179 Y-76.078 Z-0.375
X-1.2 Y-76.104 Z-0.377
X-1.373 Y-76.307 Z-0.386
X-1.394 Y-76.329 Z-0.387
X-1.588 Y-76.53 Z-0.397
X-1.607 Y-76.549 Z-0.398
X-1.822 Y-76.748 Z-0.408
X-1.84 Y-76.763 Z-0.409
X-2.073 Y-76.96 Z-0.419
X-2.09 Y-76.974 Z-0.42
X-2.342 Y-77.168 Z-0.431
X-2.358 Y-77.179 Z-0.432
X-2.627 Y-77.371 Z-0.443
X-2.641 Y-77.38 Z-0.444
X-2.927 Y-77.569 Z-0.456
X-2.94 Y-77.577
X-3.241 Y-77.762 Z-0.469
X-3.254 Y-77.77
X-3.569 Y-77.951 Z-0.482
X-3.586 Y-77.961 Z-0.483
X-4.255 Y-78.312 Z-0.509
X-4.275 Y-78.322 Z-0.51
X-4.988 Y-78.656 Z-0.537
X-5.006 Y-78.664 Z-0.538
X-5.753 Y-78.979 Z-0.566
X-5.77 Y-78.986 Z-0.567
X-6.543 Y-79.279 Z-0.596
X-6.558 Y-79.284
X-6.655 Y-79.317 Z-0.6
X-7.348 Y-79.554 F1000
X-7.363 Y-79.559
X-8.161 Y-79.804
X-8.176 Y-79.808
X-8.975 Y-80.028
X-8.989 Y-80.031
X-9.783 Y-80.224
X-9.797 Y-80.227
X-10.579 Y-80.392
X-10.594 Y-80.395
X-11.358 Y-80.533
X-11.374 Y-80.535
X-12.118 Y-80.645
X-12.134 Y-80.647
X-12.856 Y-80.73
X-12.872 Y-80.731
X-13.573 Y-80.788
X-13.59 Y-80.789
X-14.272 Y-80.822
X-14.287
X-14.955 Y-80.833
X-14.97
X-15.63 Y-80.825
X-15.642
X-16.301 Y-80.801
X-16.311 Y-80.8
X-16.974 Y-80.762
X-16.985
X-18.337 Y-80.655
X-18.347 Y-80.654
X-19.744 Y-80.515
X-19.751
X-21.187 Y-80.354
X-21.192 Y-80.353
X-22.649 Y-80.176
X-22.653
X-24.107 Y-79.986
X-24.113 Y-79.985
X-25.536 Y-79.783
X-25.542
X-26.909 Y-79.571
X-26.916 Y-79.57
X-28.213 Y-79.35
X-28.219 Y-79.349
X-29.449 Y-79.126
X-29.45
X-30.636 Y-78.907
X-31.82 Y-78.701
X-32.424 Y-78.608
X-33.05 Y-78.522
X-33.702 Y-78.445
X-34.386 Y-78.378
X-35.105 Y-78.32
X-35.86 Y-78.273
X-36.651 Y-78.237
X-37.478 Y-78.211
X-38.336 Y-78.196
X-39.224 Y-78.19
X-41.078 Y-78.206
X-43.007 Y-78.254
X-44.976 Y-78.327
X-46.949 Y-78.416
X-48.889 Y-78.514
X-50.762 Y-78.611
X-50.763
X-52.545 Y-78.7
X-52.548 Y-78.701
X-54.232 Y-78.775
X-54.237
X-55.829 Y-78.829
X-55.836
X-57.358 Y-78.86
X-57.366
X-58.844 Y-78.867
X-58.852
X-60.312 Y-78.851
X-60.319
X-61.779 Y-78.814
X-61.784
X-63.255 Y-78.761
X-63.259
X-64.742 Y-78.696
X-64.744
X-66.239 Y-78.623
X-67.743 Y-78.55
X-69.247 Y-78.48
X-70.746 Y-78.42
X-72.232 Y-78.373
X-73.698 Y-78.343
X-75.143 Y-78.333
G2 X-75.493 Y-78.187 I0.004 J0.5
G1 X-78.286 Y-75.394
G2 X-78.286 Y-73.273 I1.061 J1.061
G1 X-75.493 Y-70.48
G2 X-75.143 Y-70.333 I0.354 J-0.354
G1 X-73.698 Y-70.323
X-72.232 Y-70.294
X-70.746 Y-70.247
X-69.247 Y-70.186
X-67.743 Y-70.117
X-66.24 Y-70.043
X-64.744 Y-69.971
X-64.742
X-63.259 Y-69.906
X-63.255
X-61.784 Y-69.853
X-61.779 Y-69.852
X-60.319 Y-69.816
X-60.312
X-58.852 Y-69.8
X-58.844
X-57.366 Y-69.807
X-57.358
X-55.836 Y-69.838
X-55.829
X-54.237 Y-69.892
X-54.232
X-52.548 Y-69.966
X-52.545
X-50.763 Y-70.055
X-48.889 Y-70.153
X-46.949 Y-70.25
X-44.976 Y-70.34
X-43.007 Y-70.413
X-41.078 Y-70.46
X-39.224 Y-70.476
X-38.336 Y-70.471
X-37.478 Y-70.455
X-36.651 Y-70.429
X-35.86 Y-70.393
X-35.105 Y-70.346
X-34.386 Y-70.289
X-33.702 Y-70.221
X-33.05 Y-70.144
X-32.424 Y-70.059
X-31.82 Y-69.965
X-30.636 Y-69.76
X-29.45 Y-69.541
X-29.449
X-28.219 Y-69.317
X-28.213 Y-69.316
X-26.916 Y-69.097
X-26.909 Y-69.096
X-25.542 Y-68.884
X-25.536 Y-68.883
X-24.113 Y-68.682
X-24.107 Y-68.681
X-22.653 Y-68.491
X-22.649 Y-68.49
X-21.192 Y-68.313
X-21.187
X-19.751 Y-68.152
X-19.744 Y-68.151
X-18.347 Y-68.013
X-18.337 Y-68.012
X-16.985 Y-67.905
X-16.974 Y-67.904
X-16.311 Y-67.866
X-16.301
X-15.642 Y-67.842
X-15.63 Y-67.841
X-14.97 Y-67.833
X-14.955
X-14.287 Y-67.844
X-14.272 Y-67.845
X-13.59 Y-67.878
X-13.573 Y-67.879
X-12.873 Y-67.935
X-12.856 Y-67.937
X-12.134 Y-68.02
X-12.118 Y-68.022
X-11.374 Y-68.131
X-11.358 Y-68.134
X-10.594 Y-68.271
X-10.579 Y-68.274
X-9.797 Y-68.439
X-9.783 Y-68.443
X-8.989 Y-68.635
X-8.975 Y-68.639
X-8.176 Y-68.858
X-8.161 Y-68.863
X-7.363 Y-69.108
X-7.348 Y-69.113
X-6.558 Y-69.382
X-6.543 Y-69.388
X-5.77 Y-69.681
X-5.753 Y-69.688
X-5.006 Y-70.002
X-4.988 Y-70.01
X-4.275 Y-70.344
X-4.255 Y-70.354
X-3.586 Y-70.706
X-3.569 Y-70.715
X-3.254 Y-70.897
X-3.241 Y-70.904
X-2.94 Y-71.089
X-2.927 Y-71.098
X-2.641 Y-71.286
X-2.627 Y-71.296
X-2.358 Y-71.488
X-2.342 Y-71.499
X-2.09 Y-71.693
X-2.073 Y-71.707
X-1.84 Y-71.903
X-1.822 Y-71.919
X-1.607 Y-72.118
X-1.588 Y-72.137
X-1.394 Y-72.337
X-1.373 Y-72.36
X-1.2 Y-72.562
X-1.179 Y-72.589
X-1.027 Y-72.793
X-1.005 Y-72.824
X-0.876 Y-73.029
X-0.855 Y-73.066
X-0.748 Y-73.273
X-0.728 Y-73.315
X-0.644 Y-73.522
X-0.628 Y-73.571
X-0.568 Y-73.778
X-0.556 Y-73.832
X-0.519 Y-74.04
X-0.513 Y-74.096
X-0.501 Y-74.304
Y-74.362
X-0.513 Y-74.57
X-0.519 Y-74.627
X-0.556 Y-74.835
X-0.568 Y-74.888
X-0.628 Y-75.096
X-0.644 Y-75.144
X-0.728 Y-75.351
X-0.748 Y-75.394
X-0.854 Y-75.6
X-0.876 Y-75.637
X-1.005 Y-75.842
X-1.027 Y-75.874
X-1.179 Y-76.078
X-1.2 Y-76.104
X-1.373 Y-76.307
X-1.394 Y-76.329
X-1.588 Y-76.53
X-1.607 Y-76.549
X-1.822 Y-76.748
X-1.84 Y-76.763
X-2.073 Y-76.96
X-2.09 Y-76.974
X-2.342 Y-77.168
X-2.358 Y-77.179
X-2.627 Y-77.371
X-2.641 Y-77.38
X-2.927 Y-77.569
X-2.94 Y-77.577
X-3.241 Y-77.762
X-3.254 Y-77.77
X-3.569 Y-77.951
X-3.586 Y-77.961
X-4.255 Y-78.312
X-4.275 Y-78.322
X-4.988 Y-78.656
X-5.006 Y-78.664
X-5.753 Y-78.979
X-5.77 Y-78.986
X-6.543 Y-79.279
X-6.558 Y-79.284
X-6.655 Y-79.317
X-7.348 Y-79.554 Z-0.626 F333.3
X-7.363 Y-79.559
X-8.161 Y-79.804 Z-0.655
X-8.176 Y-79.808 Z-0.656
X-8.975 Y-80.028 Z-0.685
X-8.989 Y-80.031
X-9.783 Y-80.224 Z-0.714
X-9.797 Y-80.227
X-10.579 Y-80.392 Z-0.742
X-10.594 Y-80.395 Z-0.743
X-11.358 Y-80.533 Z-0.77
X-11.374 Y-80.535
X-12.118 Y-80.645 Z-0.797
X-12.134 Y-80.647
X-12.856 Y-80.73 Z-0.823
X-12.872 Y-80.731
X-13.573 Y-80.788 Z-0.848
X-13.59 Y-80.789
X-14.272 Y-80.822 Z-0.872
X-14.287 Z-0.873
X-14.955 Y-80.833 Z-0.896
X-14.97 Z-0.897
X-15.069 Y-80.832 Z-0.9
X-15.63 Y-80.825 F1000
X-15.642
X-16.301 Y-80.801
X-16.311 Y-80.8
X-16.974 Y-80.762
X-16.985
X-18.337 Y-80.655
X-18.347 Y-80.654
X-19.744 Y-80.515
X-19.751
X-21.187 Y-80.354
X-21.192 Y-80.353
X-22.649 Y-80.176
X-22.653
X-24.107 Y-79.986
X-24.113 Y-79.985
X-25.536 Y-79.783
X-25.542
X-26.909 Y-79.571
X-26.916 Y-79.57
X-28.213 Y-79.35
X-28.219 Y-79.349
X-29.449 Y-79.126
X-29.45
X-30.636 Y-78.907
X-31.82 Y-78.701
X-32.424 Y-78.608
X-33.05 Y-78.522
X-33.702 Y-78.445
X-34.386 Y-78.378
X-35.105 Y-78.32
X-35.86 Y-78.273
X-36.651 Y-78.237
X-37.478 Y-78.211
X-38.336 Y-78.196
X-39.224 Y-78.19
X-41.078 Y-78.206
X-43.007 Y-78.254
X-44.976 Y-78.327
X-46.949 Y-78.416
X-48.889 Y-78.514
X-50.762 Y-78.611
X-50.763
X-52.545 Y-78.7
X-52.548 Y-78.701
X-54.232 Y-78.775
X-54.237
X-55.829 Y-78.829
X-55.836
X-57.358 Y-78.86
X-57.366
X-58.844 Y-78.867
X-58.852
X-60.312 Y-78.851
X-60.319
X-61.779 Y-78.814
X-61.784
X-63.255 Y-78.761
X-63.259
X-64.742 Y-78.696
X-64.744
X-66.239 Y-78.623
X-67.743 Y-78.55
X-69.247 Y-78.48
X-70.746 Y-78.42
X-72.232 Y-78.373
X-73.698 Y-78.343
X-75.143 Y-78.333
G2 X-75.493 Y-78.187 I0.004 J0.5
G1 X-78.286 Y-75.394
G2 X-78.286 Y-73.273 I1.061 J1.061
G1 X-75.493 Y-70.48
G2 X-75.143 Y-70.333 I0.354 J-0.354
G1 X-73.698 Y-70.323
X-72.232 Y-70.294
X-70.746 Y-70.247
X-69.247 Y-70.186
X-67.743 Y-70.117
X-66.24 Y-70.043
X-64.744 Y-69.971
X-64.742
X-63.259 Y-69.906
X-63.255
X-61.784 Y-69.853
X-61.779 Y-69.852
X-60.319 Y-69.816
X-60.312
X-58.852 Y-69.8
X-58.844
X-57.366 Y-69.807
X-57.358
X-55.836 Y-69.838
X-55.829
X-54.237 Y-69.892
X-54.232
X-52.548 Y-69.966
X-52.545
X-50.763 Y-70.055
X-48.889 Y-70.153
X-46.949 Y-70.25
X-44.976 Y-70.34
X-43.007 Y-70.413
X-41.078 Y-70.46
X-39.224 Y-70.476
X-38.336 Y-70.471
X-37.478 Y-70.455
X-36.651 Y-70.429
X-35.86 Y-70.393
X-35.105 Y-70.346
X-34.386 Y-70.289
X-33.702 Y-70.221
X-33.05 Y-70.144
X-32.424 Y-70.059
X-31.82 Y-69.965
X-30.636 Y-69.76
X-29.45 Y-69.541
X-29.449
X-28.219 Y-69.317
X-28.213 Y-69.316
X-26.916 Y-69.097
X-26.909 Y-69.096
X-25.542 Y-68.884
X-25.536 Y-68.883
X-24.113 Y-68.682
X-24.107 Y-68.681
X-22.653 Y-68.491
X-22.649 Y-68.49
X-21.192 Y-68.313
X-21.187
X-19.751 Y-68.152
X-19.744 Y-68.151
X-18.347 Y-68.013
X-18.337 Y-68.012
X-16.985 Y-67.905
X-16.974 Y-67.904
X-16.311 Y-67.866
X-16.301
X-15.642 Y-67.842
X-15.63 Y-67.841
X-14.97 Y-67.833
X-14.955
X-14.287 Y-67.844
X-14.272 Y-67.845
X-13.59 Y-67.878
X-13.573 Y-67.879
X-12.873 Y-67.935
X-12.856 Y-67.937
X-12.134 Y-68.02
X-12.118 Y-68.022
X-11.374 Y-68.131
X-11.358 Y-68.134
X-10.594 Y-68.271
X-10.579 Y-68.274
X-9.797 Y-68.439
X-9.783 Y-68.443
X-8.989 Y-68.635
X-8.975 Y-68.639
X-8.176 Y-68.858
X-8.161 Y-68.863
X-7.363 Y-69.108
X-7.348 Y-69.113
X-6.558 Y-69.382
X-6.543 Y-69.388
X-5.77 Y-69.681
X-5.753 Y-69.688
X-5.006 Y-70.002
X-4.988 Y-70.01
X-4.275 Y-70.344
X-4.255 Y-70.354
X-3.586 Y-70.706
X-3.569 Y-70.715
X-3.254 Y-70.897
X-3.241 Y-70.904
X-2.94 Y-71.089
X-2.927 Y-71.098
X-2.641 Y-71.286
X-2.627 Y-71.296
X-2.358 Y-71.488
X-2.342 Y-71.499
X-2.09 Y-71.693
X-2.073 Y-71.707
X-1.84 Y-71.903
X-1.822 Y-71.919
X-1.607 Y-72.118
X-1.588 Y-72.137
X-1.394 Y-72.337
X-1.373 Y-72.36
X-1.2 Y-72.562
X-1.179 Y-72.589
X-1.027 Y-72.793
X-1.005 Y-72.824
X-0.876 Y-73.029
X-0.855 Y-73.066
X-0.748 Y-73.273
X-0.728 Y-73.315
X-0.644 Y-73.522
X-0.628 Y-73.571
X-0.568 Y-73.778
X-0.556 Y-73.832
X-0.519 Y-74.04
X-0.513 Y-74.096
X-0.501 Y-74.304
Y-74.362
X-0.513 Y-74.57
X-0.519 Y-74.627
X-0.556 Y-74.835
X-0.568 Y-74.888
X-0.628 Y-75.096
X-0.644 Y-75.144
X-0.728 Y-75.351
X-0.748 Y-75.394
X-0.854 Y-75.6
X-0.876 Y-75.637
X-1.005 Y-75.842
X-1.027 Y-75.874
X-1.179 Y-76.078
X-1.2 Y-76.104
X-1.373 Y-76.307
X-1.394 Y-76.329
X-1.588 Y-76.53
X-1.607 Y-76.549
X-1.822 Y-76.748
X-1.84 Y-76.763
X-2.073 Y-76.96
X-2.09 Y-76.974
X-2.342 Y-77.168
X-2.358 Y-77.179
X-2.627 Y-77.371
X-2.641 Y-77.38
X-2.927 Y-77.569
X-2.94 Y-77.577
X-3.241 Y-77.762
X-3.254 Y-77.77
X-3.569 Y-77.951
X-3.586 Y-77.961
X-4.255 Y-78.312
X-4.275 Y-78.322
X-4.988 Y-78.656
X-5.006 Y-78.664
X-5.753 Y-78.979
X-5.77 Y-78.986
X-6.543 Y-79.279
X-6.558 Y-79.284
X-7.348 Y-79.554
X-7.363 Y-79.559
X-8.161 Y-79.804
X-8.176 Y-79.808
X-8.975 Y-80.028
X-8.989 Y-80.031
X-9.783 Y-80.224
X-9.797 Y-80.227
X-10.579 Y-80.392
X-10.594 Y-80.395
X-11.358 Y-80.533
X-11.374 Y-80.535
X-12.118 Y-80.645
X-12.134 Y-80.647
X-12.856 Y-80.73
X-12.872 Y-80.731
X-13.573 Y-80.788
X-13.59 Y-80.789
X-14.272 Y-80.822
X-14.287
X-14.955 Y-80.833
X-14.97
X-15.069 Y-80.832
X-15.63 Y-80.825 Z-0.92 F333.3
X-15.642
X-16.301 Y-80.801 Z-0.943
X-16.311 Y-80.8
X-16.974 Y-80.762 Z-0.967
X-16.985
X-18.337 Y-80.655 Z-1.014
X-18.347 Y-80.654 Z-1.015
X-19.744 Y-80.515 Z-1.064
X-19.751
X-21.187 Y-80.354 Z-1.114
X-21.192 Y-80.353 Z-1.115
X-22.649 Y-80.176 Z-1.166
X-22.653
X-23.619 Y-80.049 Z-1.2
X-24.107 Y-79.986 F1000
X-24.113 Y-79.985
X-25.536 Y-79.783
X-25.542
X-26.909 Y-79.571
X-26.916 Y-79.57
X-28.213 Y-79.35
X-28.219 Y-79.349
X-29.449 Y-79.126
X-29.45
X-30.636 Y-78.907
X-31.82 Y-78.701
X-32.424 Y-78.608
X-33.05 Y-78.522
X-33.702 Y-78.445
X-34.386 Y-78.378
X-35.105 Y-78.32
X-35.86 Y-78.273
X-36.651 Y-78.237
X-37.478 Y-78.211
X-38.336 Y-78.196
X-39.224 Y-78.19
X-41.078 Y-78.206
X-43.007 Y-78.254
X-44.976 Y-78.327
X-46.949 Y-78.416
X-48.889 Y-78.514
X-50.762 Y-78.611
X-50.763
X-52.545 Y-78.7
X-52.548 Y-78.701
X-54.232 Y-78.775
X-54.237
X-55.829 Y-78.829
X-55.836
X-57.358 Y-78.86
X-57.366
X-58.844 Y-78.867
X-58.852
X-60.312 Y-78.851
X-60.319
X-61.779 Y-78.814
X-61.784
X-63.255 Y-78.761
X-63.259
X-64.742 Y-78.696
X-64.744
X-66.239 Y-78.623
X-67.743 Y-78.55
X-69.247 Y-78.48
X-70.746 Y-78.42
X-72.232 Y-78.373
X-73.698 Y-78.343
X-75.143 Y-78.333
G2 X-75.493 Y-78.187 I0.004 J0.5
G1 X-78.286 Y-75.394
G2 X-78.286 Y-73.273 I1.061 J1.061
G1 X-75.493 Y-70.48
G2 X-75.143 Y-70.333 I0.354 J-0.354
G1 X-73.698 Y-70.323
X-72.232 Y-70.294
X-70.746 Y-70.247
X-69.247 Y-70.186
X-67.743 Y-70.117
X-66.24 Y-70.043
X-64.744 Y-69.971
X-64.742
X-63.259 Y-69.906
X-63.255
X-61.784 Y-69.853
X-61.779 Y-69.852
X-60.319 Y-69.816
X-60.312
X-58.852 Y-69.8
X-58.844
X-57.366 Y-69.807
X-57.358
X-55.836 Y-69.838
X-55.829
X-54.237 Y-69.892
X-54.232
X-52.548 Y-69.966
X-52.545
X-50.763 Y-70.055
X-48.889 Y-70.153
X-46.949 Y-70.25
X-44.976 Y-70.34
X-43.007 Y-70.413
X-41.078 Y-70.46
X-39.224 Y-70.476
X-38.336 Y-70.471
X-37.478 Y-70.455
X-36.651 Y-70.429
X-35.86 Y-70.393
X-35.105 Y-70.346
X-34.386 Y-70.289
X-33.702 Y-70.221
X-33.05 Y-70.144
X-32.424 Y-70.059
X-31.82 Y-69.965
X-30.636 Y-69.76
X-29.45 Y-69.541
X-29.449
X-28.219 Y-69.317
X-28.213 Y-69.316
X-26.916 Y-69.097
X-26.909 Y-69.096
X-25.542 Y-68.884
X-25.536 Y-68.883
X-24.113 Y-68.682
X-24.107 Y-68.681
X-22.653 Y-68.491
X-22.649 Y-68.49
X-21.192 Y-68.313
X-21.187
X-19.751 Y-68.152
X-19.744 Y-68.151
X-18.347 Y-68.013
X-18.337 Y-68.012
X-16.985 Y-67.905
X-16.974 Y-67.904
X-16.311 Y-67.866
X-16.301
X-15.642 Y-67.842
X-15.63 Y-67.841
X-14.97 Y-67.833
X-14.955
X-14.287 Y-67.844
X-14.272 Y-67.845
X-13.59 Y-67.878
X-13.573 Y-67.879
X-12.873 Y-67.935
X-12.856 Y-67.937
X-12.134 Y-68.02
X-12.118 Y-68.022
X-11.374 Y-68.131
