(1001)
(Bearbeiten)
(  Hersteller: ChinaCnc)
(  model: 3040T)
(  description: Generic 3-axis)
(T5  D=3.175 CR=0 - ZMIN=-3.3 - Schaftfraser)
G90 G94
G17
G21
G28 G91 Z0
G90

(Bohrfrasen4)
T5
S8000 M3
G54
G0 X-92.536 Y-88.447
Z15
Z2
G1 Z0.317 F1000
X-92.53 Y-88.453 Z0.247
X-92.514 Y-88.469 Z0.18
X-92.487 Y-88.496 Z0.12
X-92.451 Y-88.531 Z0.069
X-92.409 Y-88.574 Z0.031
X-92.361 Y-88.621 Z0.008
X-92.311 Y-88.671 Z0
X-92.199 Y-88.784
G3 X-91.766 Y-88.784 I0.217 J0.217
X-92.632 Y-87.917 Z-0.25 I-0.433 J0.433
X-91.766 Y-88.784 Z-0.5 I0.433 J-0.433
X-92.632 Y-87.917 Z-0.75 I-0.433 J0.433
X-91.766 Y-88.784 Z-1 I0.433 J-0.433
X-92.632 Y-87.917 Z-1.25 I-0.433 J0.433
X-91.766 Y-88.784 Z-1.5 I0.433 J-0.433
X-92.632 Y-87.917 Z-1.75 I-0.433 J0.433
X-91.766 Y-88.784 Z-2 I0.433 J-0.433
X-92.632 Y-87.917 Z-2.25 I-0.433 J0.433
X-91.766 Y-88.784 Z-2.5 I0.433 J-0.433
X-92.632 Y-87.917 Z-2.75 I-0.433 J0.433
X-91.766 Y-88.784 Z-3 I0.433 J-0.433
X-92.632 Y-87.917 Z-3.25 I-0.433 J0.433
X-92.804 Y-88.255 Z-3.3 I0.433 J-0.433
X-91.594 Y-88.446 I0.605 J-0.096
X-92.804 Y-88.255 I-0.605 J0.096
X-92.549 Y-88.605 I0.302 J-0.048
G1 X-92.393 Y-88.63
X-92.323 Y-88.641 Z-3.292
X-92.257 Y-88.652 Z-3.269
X-92.197 Y-88.661 Z-3.231
X-92.148 Y-88.669 Z-3.18
X-92.11 Y-88.675 Z-3.12
X-92.087 Y-88.678 Z-3.053
X-92.079 Y-88.68 Z-2.983
G0 Z5
X-92.536 Y-61.78
Z2
G1 Z0.317 F1000
X-92.53 Y-61.786 Z0.247
X-92.514 Y-61.802 Z0.18
X-92.487 Y-61.829 Z0.12
X-92.451 Y-61.865 Z0.069
X-92.409 Y-61.907 Z0.031
X-92.361 Y-61.955 Z0.008
X-92.311 Y-62.005 Z0
X-92.199 Y-62.117
G3 X-91.766 Y-62.117 I0.217 J0.217
X-92.632 Y-61.251 Z-0.25 I-0.433 J0.433
X-91.766 Y-62.117 Z-0.5 I0.433 J-0.433
X-92.632 Y-61.251 Z-0.75 I-0.433 J0.433
X-91.766 Y-62.117 Z-1 I0.433 J-0.433
X-92.632 Y-61.251 Z-1.25 I-0.433 J0.433
X-91.766 Y-62.117 Z-1.5 I0.433 J-0.433
X-92.632 Y-61.251 Z-1.75 I-0.433 J0.433
X-91.766 Y-62.117 Z-2 I0.433 J-0.433
X-92.632 Y-61.251 Z-2.25 I-0.433 J0.433
X-91.766 Y-62.117 Z-2.5 I0.433 J-0.433
X-92.632 Y-61.251 Z-2.75 I-0.433 J0.433
X-91.766 Y-62.117 Z-3 I0.433 J-0.433
X-92.632 Y-61.251 Z-3.25 I-0.433 J0.433
X-92.804 Y-61.588 Z-3.3 I0.433 J-0.433
X-91.594 Y-61.78 I0.605 J-0.096
X-92.804 Y-61.588 I-0.605 J0.096
X-92.549 Y-61.938 I0.302 J-0.048
G1 X-92.393 Y-61.963
X-92.323 Y-61.974 Z-3.292
X-92.257 Y-61.985 Z-3.269
X-92.197 Y-61.994 Z-3.231
X-92.148 Y-62.002 Z-3.18
X-92.11 Y-62.008 Z-3.12
X-92.087 Y-62.012 Z-3.053
X-92.079 Y-62.013 Z-2.983
G0 Z5
X-92.536 Y-35.114
Z2
G1 Z0.317 F1000
X-92.53 Y-35.119 Z0.247
X-92.514 Y-35.136 Z0.18
X-92.487 Y-35.163 Z0.12
X-92.451 Y-35.198 Z0.069
X-92.409 Y-35.241 Z0.031
X-92.361 Y-35.288 Z0.008
X-92.311 Y-35.338 Z0
X-92.199 Y-35.45
G3 X-91.766 Y-35.45 I0.217 J0.217
X-92.632 Y-34.584 Z-0.25 I-0.433 J0.433
X-91.766 Y-35.45 Z-0.5 I0.433 J-0.433
X-92.632 Y-34.584 Z-0.75 I-0.433 J0.433
X-91.766 Y-35.45 Z-1 I0.433 J-0.433
X-92.632 Y-34.584 Z-1.25 I-0.433 J0.433
X-91.766 Y-35.45 Z-1.5 I0.433 J-0.433
X-92.632 Y-34.584 Z-1.75 I-0.433 J0.433
X-91.766 Y-35.45 Z-2 I0.433 J-0.433
X-92.632 Y-34.584 Z-2.25 I-0.433 J0.433
X-91.766 Y-35.45 Z-2.5 I0.433 J-0.433
X-92.632 Y-34.584 Z-2.75 I-0.433 J0.433
X-91.766 Y-35.45 Z-3 I0.433 J-0.433
X-92.632 Y-34.584 Z-3.25 I-0.433 J0.433
X-92.804 Y-34.921 Z-3.3 I0.433 J-0.433
X-91.594 Y-35.113 I0.605 J-0.096
X-92.804 Y-34.921 I-0.605 J0.096
X-92.549 Y-35.272 I0.302 J-0.048
G1 X-92.393 Y-35.297
X-92.323 Y-35.308 Z-3.292
X-92.257 Y-35.318 Z-3.269
X-92.197 Y-35.328 Z-3.231
X-92.148 Y-35.335 Z-3.18
X-92.11 Y-35.341 Z-3.12
X-92.087 Y-35.345 Z-3.053
X-92.079 Y-35.346 Z-2.983
G0 Z5
X-92.536 Y-8.447
Z2
G1 Z0.317 F1000
X-92.53 Y-8.453 Z0.247
X-92.514 Y-8.469 Z0.18
X-92.487 Y-8.496 Z0.12
X-92.451 Y-8.531 Z0.069
X-92.409 Y-8.574 Z0.031
X-92.361 Y-8.621 Z0.008
X-92.311 Y-8.671 Z0
X-92.199 Y-8.784
G3 X-91.766 Y-8.784 I0.217 J0.217
X-92.632 Y-7.917 Z-0.25 I-0.433 J0.433
X-91.766 Y-8.784 Z-0.5 I0.433 J-0.433
X-92.632 Y-7.917 Z-0.75 I-0.433 J0.433
X-91.766 Y-8.784 Z-1 I0.433 J-0.433
X-92.632 Y-7.917 Z-1.25 I-0.433 J0.433
X-91.766 Y-8.784 Z-1.5 I0.433 J-0.433
X-92.632 Y-7.917 Z-1.75 I-0.433 J0.433
X-91.766 Y-8.784 Z-2 I0.433 J-0.433
X-92.632 Y-7.917 Z-2.25 I-0.433 J0.433
X-91.766 Y-8.784 Z-2.5 I0.433 J-0.433
X-92.632 Y-7.917 Z-2.75 I-0.433 J0.433
X-91.766 Y-8.784 Z-3 I0.433 J-0.433
X-92.632 Y-7.917 Z-3.25 I-0.433 J0.433
X-92.804 Y-8.255 Z-3.3 I0.433 J-0.433
X-91.594 Y-8.446 I0.605 J-0.096
X-92.804 Y-8.255 I-0.605 J0.096
X-92.549 Y-8.605 I0.302 J-0.048
G1 X-92.393 Y-8.63
X-92.323 Y-8.641 Z-3.292
X-92.257 Y-8.652 Z-3.269
X-92.197 Y-8.661 Z-3.231
X-92.148 Y-8.669 Z-3.18
X-92.11 Y-8.675 Z-3.12
X-92.087 Y-8.678 Z-3.053
X-92.079 Y-8.68 Z-2.983
G0 Z5
X-17.663 Y-20.904
Z2
G1 Z0.317 F1000
X-17.669 Y-20.898 Z0.247
X-17.685 Y-20.881 Z0.18
X-17.712 Y-20.855 Z0.12
X-17.748 Y-20.819 Z0.069
X-17.79 Y-20.777 Z0.031
X-17.838 Y-20.729 Z0.008
X-17.888 Y-20.679 Z0
X-18 Y-20.567
G3 X-18.433 Y-20.567 I-0.217 J-0.217
X-17.567 Y-21.433 Z-0.25 I0.433 J-0.433
X-18.433 Y-20.567 Z-0.5 I-0.433 J0.433
X-17.567 Y-21.433 Z-0.75 I0.433 J-0.433
X-18.433 Y-20.567 Z-1 I-0.433 J0.433
X-17.567 Y-21.433 Z-1.25 I0.433 J-0.433
X-18.433 Y-20.567 Z-1.5 I-0.433 J0.433
X-17.567 Y-21.433 Z-1.75 I0.433 J-0.433
X-18.433 Y-20.567 Z-2 I-0.433 J0.433
X-17.567 Y-21.433 Z-2.25 I0.433 J-0.433
X-18.433 Y-20.567 Z-2.5 I-0.433 J0.433
X-17.567 Y-21.433 Z-2.75 I0.433 J-0.433
X-18.433 Y-20.567 Z-3 I-0.433 J0.433
X-17.567 Y-21.433 Z-3.25 I0.433 J-0.433
X-17.395 Y-21.096 Z-3.3 I-0.433 J0.433
X-18.605 Y-20.904 I-0.605 J0.096
X-17.395 Y-21.096 I0.605 J-0.096
X-17.65 Y-20.745 I-0.302 J0.048
G1 X-17.806 Y-20.721
X-17.876 Y-20.71 Z-3.292
X-17.942 Y-20.699 Z-3.269
X-18.002 Y-20.69 Z-3.231
X-18.052 Y-20.682 Z-3.18
X-18.089 Y-20.676 Z-3.12
X-18.112 Y-20.672 Z-3.053
X-18.12 Y-20.671 Z-2.983
G0 Z5
X-17.663 Y-47.57
Z2
G1 Z0.317 F1000
X-17.669 Y-47.565 Z0.247
X-17.685 Y-47.548 Z0.18
X-17.712 Y-47.521 Z0.12
X-17.748 Y-47.486 Z0.069
X-17.79 Y-47.443 Z0.031
X-17.838 Y-47.396 Z0.008
X-17.888 Y-47.346 Z0
X-18 Y-47.234
G3 X-18.433 Y-47.234 I-0.217 J-0.217
X-17.567 Y-48.1 Z-0.25 I0.433 J-0.433
X-18.433 Y-47.234 Z-0.5 I-0.433 J0.433
X-17.567 Y-48.1 Z-0.75 I0.433 J-0.433
X-18.433 Y-47.234 Z-1 I-0.433 J0.433
X-17.567 Y-48.1 Z-1.25 I0.433 J-0.433
X-18.433 Y-47.234 Z-1.5 I-0.433 J0.433
X-17.567 Y-48.1 Z-1.75 I0.433 J-0.433
X-18.433 Y-47.234 Z-2 I-0.433 J0.433
X-17.567 Y-48.1 Z-2.25 I0.433 J-0.433
X-18.433 Y-47.234 Z-2.5 I-0.433 J0.433
X-17.567 Y-48.1 Z-2.75 I0.433 J-0.433
X-18.433 Y-47.234 Z-3 I-0.433 J0.433
X-17.567 Y-48.1 Z-3.25 I0.433 J-0.433
X-17.395 Y-47.762 Z-3.3 I-0.433 J0.433
X-18.605 Y-47.571 I-0.605 J0.096
X-17.395 Y-47.762 I0.605 J-0.096
X-17.65 Y-47.412 I-0.302 J0.048
G1 X-17.806 Y-47.387
X-17.876 Y-47.376 Z-3.292
X-17.942 Y-47.366 Z-3.269
X-18.002 Y-47.356 Z-3.231
X-18.052 Y-47.348 Z-3.18
X-18.089 Y-47.343 Z-3.12
X-18.112 Y-47.339 Z-3.053
X-18.12 Y-47.338 Z-2.983
G0 Z5
X-17.663 Y-74.237
Z2
G1 Z0.317 F1000
X-17.669 Y-74.231 Z0.247
X-17.685 Y-74.215 Z0.18
X-17.712 Y-74.188 Z0.12
X-17.748 Y-74.152 Z0.069
X-17.79 Y-74.11 Z0.031
X-17.838 Y-74.062 Z0.008
X-17.888 Y-74.012 Z0
X-18 Y-73.9
G3 X-18.433 Y-73.9 I-0.217 J-0.217
X-17.567 Y-74.766 Z-0.25 I0.433 J-0.433
X-18.433 Y-73.9 Z-0.5 I-0.433 J0.433
X-17.567 Y-74.766 Z-0.75 I0.433 J-0.433
X-18.433 Y-73.9 Z-1 I-0.433 J0.433
X-17.567 Y-74.766 Z-1.25 I0.433 J-0.433
X-18.433 Y-73.9 Z-1.5 I-0.433 J0.433
X-17.567 Y-74.766 Z-1.75 I0.433 J-0.433
X-18.433 Y-73.9 Z-2 I-0.433 J0.433
X-17.567 Y-74.766 Z-2.25 I0.433 J-0.433
X-18.433 Y-73.9 Z-2.5 I-0.433 J0.433
X-17.567 Y-74.766 Z-2.75 I0.433 J-0.433
X-18.433 Y-73.9 Z-3 I-0.433 J0.433
X-17.567 Y-74.766 Z-3.25 I0.433 J-0.433
X-17.395 Y-74.429 Z-3.3 I-0.433 J0.433
X-18.605 Y-74.238 I-0.605 J0.096
X-17.395 Y-74.429 I0.605 J-0.096
X-17.65 Y-74.079 I-0.302 J0.048
G1 X-17.806 Y-74.054
X-17.876 Y-74.043 Z-3.292
X-17.942 Y-74.032 Z-3.269
X-18.002 Y-74.023 Z-3.231
X-18.052 Y-74.015 Z-3.18
X-18.089 Y-74.009 Z-3.12
X-18.112 Y-74.006 Z-3.053
X-18.12 Y-74.004 Z-2.983
G0 Z5
X-17.663 Y-100.904
Z2
G1 Z0.317 F1000
X-17.669 Y-100.898 Z0.247
X-17.685 Y-100.881 Z0.18
X-17.712 Y-100.855 Z0.12
X-17.748 Y-100.819 Z0.069
X-17.79 Y-100.777 Z0.031
X-17.838 Y-100.729 Z0.008
X-17.888 Y-100.679 Z0
X-18 Y-100.567
G3 X-18.433 Y-100.567 I-0.217 J-0.217
X-17.567 Y-101.433 Z-0.25 I0.433 J-0.433
X-18.433 Y-100.567 Z-0.5 I-0.433 J0.433
X-17.567 Y-101.433 Z-0.75 I0.433 J-0.433
X-18.433 Y-100.567 Z-1 I-0.433 J0.433
X-17.567 Y-101.433 Z-1.25 I0.433 J-0.433
X-18.433 Y-100.567 Z-1.5 I-0.433 J0.433
X-17.567 Y-101.433 Z-1.75 I0.433 J-0.433
X-18.433 Y-100.567 Z-2 I-0.433 J0.433
X-17.567 Y-101.433 Z-2.25 I0.433 J-0.433
X-18.433 Y-100.567 Z-2.5 I-0.433 J0.433
X-17.567 Y-101.433 Z-2.75 I0.433 J-0.433
X-18.433 Y-100.567 Z-3 I-0.433 J0.433
X-17.567 Y-101.433 Z-3.25 I0.433 J-0.433
X-17.395 Y-101.096 Z-3.3 I-0.433 J0.433
X-18.605 Y-100.904 I-0.605 J0.096
X-17.395 Y-101.096 I0.605 J-0.096
X-17.65 Y-100.745 I-0.302 J0.048
G1 X-17.806 Y-100.721
X-17.876 Y-100.71 Z-3.292
X-17.942 Y-100.699 Z-3.269
X-18.002 Y-100.69 Z-3.231
X-18.052 Y-100.682 Z-3.18
X-18.089 Y-100.676 Z-3.12
X-18.112 Y-100.672 Z-3.053
X-18.12 Y-100.671 Z-2.983
G0 Z15

(2D-Kontur6)
X-40.318 Y-137.417
Z15
Z5
G1 Z1.3 F333.3
Z1
S5000
Y-141.031 Z0.874
X-39.993 Z0.862
Y-130.206 Z0.484
X-40.318 Z0.473
Y-141.031 Z0.095
X-39.993 Z0.084
Y-130.206 Z-0.294
X-40.155 Z-0.3
S8000
X-40.318 F1000
Y-141.031
X-39.993
Y-130.206
X-40.155
S5000
X-40.318 Z-0.306 F333.3
Y-138.635 Z-0.6
S8000
Y-141.031 F1000
X-39.993
Y-130.206
X-40.318
Y-138.635
S5000
Y-141.031 Z-0.684 F333.3
X-39.993 Z-0.695
Y-135.162 Z-0.9
S8000
Y-130.206 F1000
X-40.318
Y-138.635
Y-141.031
X-39.993
Y-135.162
S5000
Y-130.206 Z-1.073 F333.3
X-40.318 Z-1.084
Y-133.517 Z-1.2
S8000
Y-141.031 F1000
X-39.993
Y-135.162
Y-130.206
X-40.318
Y-133.517
S5000
Y-141.031 Z-1.462 F333.3
X-39.993 Z-1.474
Y-140.281 Z-1.5
S8000
Y-130.206 F1000
X-40.318
Y-141.031
X-39.993
Y-140.281
S5000
Y-131.69 Z-1.8 F333.3
S8000
Y-130.206 F1000
X-40.318
Y-141.031
X-39.993
Y-131.69
S5000
Y-130.206 Z-1.852 F333.3
X-40.318 Z-1.863
Y-136.989 Z-2.1
S8000
Y-141.031 F1000
X-39.993
Y-131.69
Y-130.206
X-40.318
Y-136.989
S5000
Y-141.031 Z-2.241 F333.3
X-39.993 Z-2.253
Y-136.808 Z-2.4
S8000
Y-130.206 F1000
X-40.318
Y-136.989
Y-141.031
X-39.993
Y-136.808
S5000
Y-130.206 Z-2.631 F333.3
X-40.318 Z-2.642
Y-131.871 Z-2.7
S8000
Y-141.031 F1000
X-39.993
Y-130.206
X-40.318
Y-131.871
S5000
Y-140.462 Z-3 F333.3
S8000
Y-141.031 F1000
X-39.993
Y-130.206
X-40.318
Y-140.462
S5000
Y-141.031 Z-3.02 F333.3
X-39.993 Z-3.031
Y-133.335 Z-3.3
S8000
Y-130.206 F1000
X-40.318
Y-140.462
Y-141.031
X-39.993
Y-133.335
G0 Z5
X-24.612 Y-126.778
G1 Z1.3 F333.3
Z1
S5000
Y-123.175 Z0.874
X-30.437 Z0.671
Y-148.063 Z-0.198
X-27.524 Z-0.3
S8000
X-24.612 F1000
Y-123.175
X-30.437
Y-148.063
X-27.524
S5000
X-24.612 Z-0.402 F333.3
Y-142.384 Z-0.6
S8000
Y-123.175 F1000
X-30.437
Y-148.063
X-27.524
X-24.612
Y-142.384
S5000
Y-133.793 Z-0.9 F333.3
S8000
Y-123.175 F1000
X-30.437
Y-148.063
X-24.612
Y-133.793
S5000
Y-125.202 Z-1.2 F333.3
S8000
Y-123.175 F1000
X-30.437
Y-148.063
X-24.612
Y-133.793
Y-125.202
S5000
Y-123.175 Z-1.271 F333.3
X-30.437 Z-1.474
Y-123.915 Z-1.5
S8000
Y-148.063 F1000
X-24.612
Y-125.202
Y-123.175
X-30.437
Y-123.915
S5000
Y-132.505 Z-1.8 F333.3
S8000
Y-148.063 F1000
X-24.612
Y-123.175
X-30.437
Y-132.505
S5000
Y-141.096 Z-2.1 F333.3
S8000
Y-148.063 F1000
X-24.612
Y-123.175
X-30.437
Y-132.505
Y-141.096
S5000
Y-148.063 Z-2.343 F333.3
X-28.812 Z-2.4
S8000
X-24.612 F1000
Y-123.175
X-30.437
Y-141.096
Y-148.063
X-28.812
S5000
X-24.612 Z-2.547 F333.3
Y-143.672 Z-2.7
S8000
Y-123.175 F1000
X-30.437
Y-148.063
X-24.612
Y-143.672
S5000
Y-135.081 Z-3 F333.3
S8000
Y-123.175 F1000
X-30.437
Y-148.063
X-24.612
Y-135.081
S5000
Y-126.49 Z-3.3 F333.3
S8000
Y-123.175 F1000
X-30.437
Y-148.063
X-24.612
Y-135.081
Y-126.49
G0 Z5
X-15.056 Y-137.417
G1 Z1.3 F333.3
Z1
S5000
Y-141.031 Z0.874
X-14.731 Z0.862
Y-130.206 Z0.484
X-15.056 Z0.473
Y-141.031 Z0.095
X-14.731 Z0.084
Y-130.206 Z-0.294
X-14.893 Z-0.3
S8000
X-15.056 F1000
Y-141.031
X-14.731
Y-130.206
X-14.893
S5000
X-15.056 Z-0.306 F333.3
Y-138.635 Z-0.6
S8000
Y-141.031 F1000
X-14.731
Y-130.206
X-15.056
Y-138.635
S5000
Y-141.031 Z-0.684 F333.3
X-14.731 Z-0.695
Y-135.162 Z-0.9
S8000
Y-130.206 F1000
X-15.056
Y-138.635
Y-141.031
X-14.731
Y-135.162
S5000
Y-130.206 Z-1.073 F333.3
X-15.056 Z-1.084
Y-133.517 Z-1.2
S8000
Y-141.031 F1000
X-14.731
Y-135.162
Y-130.206
X-15.056
Y-133.517
S5000
Y-141.031 Z-1.462 F333.3
X-14.731 Z-1.474
Y-140.281 Z-1.5
S8000
Y-130.206 F1000
X-15.056
Y-141.031
X-14.731
Y-140.281
S5000
Y-131.69 Z-1.8 F333.3
S8000
Y-130.206 F1000
X-15.056
Y-141.031
X-14.731
Y-131.69
S5000
Y-130.206 Z-1.852 F333.3
X-15.056 Z-1.863
Y-136.989 Z-2.1
S8000
Y-141.031 F1000
X-14.731
Y-131.69
Y-130.206
X-15.056
Y-136.989
S5000
Y-141.031 Z-2.241 F333.3
X-14.731 Z-2.253
Y-136.808 Z-2.4
S8000
Y-130.206 F1000
X-15.056
Y-136.989
Y-141.031
X-14.731
Y-136.808
S5000
Y-130.206 Z-2.631 F333.3
X-15.056 Z-2.642
Y-131.871 Z-2.7
S8000
Y-141.031 F1000
X-14.731
Y-130.206
X-15.056
Y-131.871
S5000
Y-140.462 Z-3 F333.3
S8000
Y-141.031 F1000
X-14.731
Y-130.206
X-15.056
Y-140.462
S5000
Y-141.031 Z-3.02 F333.3
X-14.731 Z-3.031
Y-133.335 Z-3.3
S8000
Y-130.206 F1000
X-15.056
Y-140.462
Y-141.031
X-14.731
Y-133.335
G0 Z5
X-66.73 Y-133.821
G1 Z1.3 F333.3
Z1
S5000
Y-130.206 Z0.874
X-67.055 Z0.862
Y-141.031 Z0.484
X-66.73 Z0.473
Y-130.206 Z0.095
X-67.055 Z0.084
Y-141.031 Z-0.294
X-66.893 Z-0.3
S8000
X-66.73 F1000
Y-130.206
X-67.055
Y-141.031
X-66.893
S5000
X-66.73 Z-0.306 F333.3
Y-132.603 Z-0.6
S8000
Y-130.206 F1000
X-67.055
Y-141.031
X-66.73
Y-132.603
S5000
Y-130.206 Z-0.684 F333.3
X-67.055 Z-0.695
Y-136.076 Z-0.9
S8000
Y-141.031 F1000
X-66.73
Y-132.603
Y-130.206
X-67.055
Y-136.076
S5000
Y-141.031 Z-1.073 F333.3
X-66.73 Z-1.084
Y-137.721 Z-1.2
S8000
Y-130.206 F1000
X-67.055
Y-136.076
Y-141.031
X-66.73
Y-137.721
S5000
Y-130.206 Z-1.462 F333.3
X-67.055 Z-1.474
Y-130.958 Z-1.5
S8000
Y-141.031 F1000
X-66.73
Y-130.206
X-67.055
Y-130.958
S5000
Y-139.548 Z-1.8 F333.3
S8000
Y-141.031 F1000
X-66.73
Y-130.206
X-67.055
Y-139.548
S5000
Y-141.031 Z-1.852 F333.3
X-66.73 Z-1.863
Y-134.249 Z-2.1
S8000
Y-130.206 F1000
X-67.055
Y-139.548
Y-141.031
X-66.73
Y-134.249
S5000
Y-130.206 Z-2.241 F333.3
X-67.055 Z-2.253
Y-134.43 Z-2.4
S8000
Y-141.031 F1000
X-66.73
Y-134.249
Y-130.206
X-67.055
Y-134.43
S5000
Y-141.031 Z-2.631 F333.3
X-66.73 Z-2.642
Y-139.367 Z-2.7
S8000
Y-130.206 F1000
X-67.055
Y-141.031
X-66.73
Y-139.367
S5000
Y-130.776 Z-3 F333.3
S8000
Y-130.206 F1000
X-67.055
Y-141.031
X-66.73
Y-130.776
S5000
Y-130.206 Z-3.02 F333.3
X-67.055 Z-3.031
Y-137.903 Z-3.3
S8000
Y-141.031 F1000
X-66.73
Y-130.776
Y-130.206
X-67.055
Y-137.903
G0 Z5
X-80.214 Y-148.063
G1 Z1.3 F333.3
Z1
S5000
X-76.612 Z0.874
Y-123.175 Z0.005
X-82.437 Z-0.198
Y-126.088 Z-0.3
S8000
Y-148.063 F1000
X-76.612
Y-123.175
X-82.437
Y-126.088
S5000
Y-134.679 Z-0.6 F333.3
S8000
Y-148.063 F1000
X-76.612
Y-123.175
X-82.437
Y-134.679
S5000
Y-143.27 Z-0.9 F333.3
S8000
Y-148.063 F1000
X-76.612
Y-123.175
X-82.437
Y-134.679
Y-143.27
S5000
Y-148.063 Z-1.067 F333.3
X-78.639 Z-1.2
S8000
X-76.612 F1000
Y-123.175
X-82.437
Y-143.27
Y-148.063
X-78.639
S5000
X-76.612 Z-1.271 F333.3
Y-141.498 Z-1.5
S8000
Y-123.175 F1000
X-82.437
Y-148.063
X-78.639
X-76.612
Y-141.498
S5000
Y-132.908 Z-1.8 F333.3
S8000
Y-123.175 F1000
X-82.437
Y-148.063
X-76.612
Y-132.908
S5000
Y-124.317 Z-2.1 F333.3
S8000
Y-123.175 F1000
X-82.437
Y-148.063
X-76.612
Y-132.908
Y-124.317
S5000
Y-123.175 Z-2.14 F333.3
X-82.437 Z-2.343
Y-124.8 Z-2.4
S8000
Y-148.063 F1000
X-76.612
Y-124.317
Y-123.175
X-82.437
Y-124.8
S5000
Y-133.391 Z-2.7 F333.3
S8000
Y-148.063 F1000
X-76.612
Y-123.175
X-82.437
Y-133.391
S5000
Y-141.982 Z-3 F333.3
S8000
Y-148.063 F1000
X-76.612
Y-123.175
X-82.437
Y-133.391
Y-141.982
S5000
Y-148.063 Z-3.212 F333.3
X-79.926 Z-3.3
S8000
X-76.612 F1000
Y-123.175
X-82.437
Y-141.982
Y-148.063
X-79.926
G0 Z5
X-92.318 Y-137.417
G1 Z1.3 F333.3
Z1
S5000
Y-141.031 Z0.874
X-91.993 Z0.862
Y-130.206 Z0.484
X-92.318 Z0.473
Y-141.031 Z0.095
X-91.993 Z0.084
Y-130.206 Z-0.294
X-92.155 Z-0.3
S8000
X-92.318 F1000
Y-141.031
X-91.993
Y-130.206
X-92.155
S5000
X-92.318 Z-0.306 F333.3
Y-138.635 Z-0.6
S8000
Y-141.031 F1000
X-91.993
Y-130.206
X-92.318
Y-138.635
S5000
Y-141.031 Z-0.684 F333.3
X-91.993 Z-0.695
Y-135.162 Z-0.9
S8000
Y-130.206 F1000
X-92.318
Y-138.635
Y-141.031
X-91.993
Y-135.162
S5000
Y-130.206 Z-1.073 F333.3
X-92.318 Z-1.084
Y-133.517 Z-1.2
S8000
Y-141.031 F1000
X-91.993
Y-135.162
Y-130.206
X-92.318
Y-133.517
S5000
Y-141.031 Z-1.462 F333.3
X-91.993 Z-1.474
Y-140.281 Z-1.5
S8000
Y-130.206 F1000
X-92.318
Y-141.031
X-91.993
Y-140.281
S5000
Y-131.69 Z-1.8 F333.3
S8000
Y-130.206 F1000
X-92.318
Y-141.031
X-91.993
Y-131.69
S5000
Y-130.206 Z-1.852 F333.3
X-92.318 Z-1.863
Y-136.989 Z-2.1
S8000
Y-141.031 F1000
X-91.993
Y-131.69
Y-130.206
X-92.318
Y-136.989
S5000
Y-141.031 Z-2.241 F333.3
X-91.993 Z-2.253
Y-136.808 Z-2.4
S8000
Y-130.206 F1000
X-92.318
Y-136.989
Y-141.031
X-91.993
Y-136.808
S5000
Y-130.206 Z-2.631 F333.3
X-92.318 Z-2.642
Y-131.871 Z-2.7
S8000
Y-141.031 F1000
X-91.993
Y-130.206
X-92.318
Y-131.871
S5000
Y-140.462 Z-3 F333.3
S8000
Y-141.031 F1000
X-91.993
Y-130.206
X-92.318
Y-140.462
S5000
Y-141.031 Z-3.02 F333.3
X-91.993 Z-3.031
Y-133.335 Z-3.3
S8000
Y-130.206 F1000
X-92.318
Y-140.462
Y-141.031
X-91.993
Y-133.335
G0 Z15

(2D-Kontur7)
X-6.687 Y-123.905
Z15
Z5
G1 Z2.5 F333.3
S5000
X-6.726 Y-123.992 Z2.497
X-6.788 Y-124.147 Z2.491
X-6.839 Y-124.296 Z2.485
X-6.881 Y-124.441 Z2.48
X-6.914 Y-124.582 Z2.475
X-6.94 Y-124.721 Z2.47
X-6.959 Y-124.859 Z2.465
X-6.97 Y-124.977 Z2.461
X-6.975 Y-125.272 Z2.451
X-6.956 Y-125.554 Z2.441
X-6.913 Y-125.849 Z2.43
X-6.845 Y-126.16 Z2.419
X-6.753 Y-126.488 Z2.407
X-6.638 Y-126.833 Z2.395
X-6.502 Y-127.197 Z2.381
X-6.348 Y-127.578 Z2.367
X-6.178 Y-127.977 Z2.352
X-5.997 Y-128.395 Z2.336
X-5.81 Y-128.826 Z2.319
X-5.805 Y-128.837
X-5.619 Y-129.276 Z2.302
X-5.61 Y-129.297
X-5.427 Y-129.745 Z2.285
X-5.414 Y-129.777 Z2.283
X-5.238 Y-130.237 Z2.266
X-5.224 Y-130.276 Z2.265
X-5.057 Y-130.748 Z2.247
X-5.041 Y-130.795 Z2.246
X-4.886 Y-131.28 Z2.228
X-4.87 Y-131.335 Z2.226
X-4.73 Y-131.835 Z2.208
X-4.715 Y-131.895 Z2.205
X-4.592 Y-132.411 Z2.187
X-4.579 Y-132.475 Z2.185
X-4.475 Y-133.007 Z2.166
X-4.464 Y-133.075 Z2.163
X-4.381 Y-133.625 Z2.144
X-4.373 Y-133.693 Z2.142
X-4.313 Y-134.26 Z2.122
X-4.307 Y-134.329 Z2.119
X-4.271 Y-134.916 Z2.099
X-4.268 Y-134.982 Z2.096
X-4.256 Y-135.587 Z2.075
Y-135.651 Z2.073
X-4.268 Y-136.256 Z2.052
X-4.271 Y-136.322 Z2.05
X-4.307 Y-136.909 Z2.029
X-4.313 Y-136.977 Z2.027
X-4.373 Y-137.545 Z2.007
X-4.381 Y-137.614 Z2.004
X-4.464 Y-138.163 Z1.985
X-4.475 Y-138.231 Z1.982
X-4.579 Y-138.763 Z1.964
X-4.592 Y-138.827 Z1.961
X-4.715 Y-139.343 Z1.943
X-4.73 Y-139.403 Z1.941
X-4.87 Y-139.903 Z1.922
X-4.886 Y-139.958 Z1.92
X-5.041 Y-140.443 Z1.903
X-5.057 Y-140.49 Z1.901
X-5.224 Y-140.962 Z1.883
X-5.238 Y-141.001 Z1.882
X-5.414 Y-141.461 Z1.865
X-5.427 Y-141.493 Z1.864
X-5.61 Y-141.941 Z1.847
X-5.619 Y-141.962 Z1.846
X-5.805 Y-142.401 Z1.829
X-5.81 Y-142.412
X-5.997 Y-142.843 Z1.812
X-6.178 Y-143.261 Z1.797
X-6.348 Y-143.661 Z1.781
X-6.502 Y-144.042 Z1.767
X-6.638 Y-144.406 Z1.753
X-6.753 Y-144.75 Z1.741
X-6.845 Y-145.079 Z1.729
X-6.913 Y-145.389 Z1.718
X-6.956 Y-145.684 Z1.707
X-6.975 Y-145.966 Z1.697
X-6.97 Y-146.261 Z1.687
X-6.959 Y-146.379 Z1.683
X-6.94 Y-146.517 Z1.678
X-6.914 Y-146.656 Z1.673
X-6.881 Y-146.797 Z1.668
X-6.839 Y-146.942 Z1.663
X-6.788 Y-147.091 Z1.657
X-6.726 Y-147.246 Z1.652
X-6.655 Y-147.405 Z1.645
X-6.572 Y-147.57 Z1.639
X-6.476 Y-147.743 Z1.632
X-6.367 Y-147.922 Z1.625
X-6.244 Y-148.107 Z1.617
X-6.107 Y-148.298 Z1.609
X-5.963 Y-148.485 Z1.601
X-5.603 Y-148.909 Z1.581
X-5.175 Y-149.359 Z1.559
G2 X-5.188 Y-157.954 Z1.226 I-4.318 J-4.291
X-13.781 Y-157.971 Z0.893 I-4.305 J4.305
G1 X-14.191 Y-157.584 Z0.873
X-14.579 Y-157.261 Z0.856
X-14.751 Y-157.132 Z0.848
X-14.928 Y-157.01 Z0.841
X-15.099 Y-156.901 Z0.834
X-15.268 Y-156.803 Z0.827
X-15.43 Y-156.717 Z0.82
X-15.588 Y-156.643 Z0.814
X-15.747 Y-156.576 Z0.808
X-15.898 Y-156.521 Z0.803
X-16.047 Y-156.474 Z0.797
X-16.195 Y-156.435 Z0.792
X-16.339 Y-156.404 Z0.787
X-16.468 Y-156.383 Z0.782
X-16.782 Y-156.351 Z0.771
X-17.085 Y-156.347 Z0.761
X-17.398 Y-156.367 Z0.75
X-17.725 Y-156.411 Z0.738
X-18.068 Y-156.478 Z0.726
X-18.426 Y-156.568 Z0.713
X-18.801 Y-156.678 Z0.699
X-19.192 Y-156.808 Z0.685
X-19.6 Y-156.954 Z0.67
X-20.021 Y-157.112 Z0.654
X-20.458 Y-157.281 Z0.638
X-20.907 Y-157.454 Z0.621
X-20.914 Y-157.457
X-21.369 Y-157.631 Z0.604
X-21.385 Y-157.637 Z0.603
X-21.847 Y-157.808 Z0.586
X-21.874 Y-157.818 Z0.585
X-22.343 Y-157.982 Z0.568
X-22.376 Y-157.993 Z0.566
X-22.854 Y-158.148 Z0.549
X-22.893 Y-158.16 Z0.547
X-23.379 Y-158.304 Z0.53
X-23.427 Y-158.317 Z0.528
X-23.922 Y-158.447 Z0.51
X-23.976 Y-158.461 Z0.508
X-24.481 Y-158.575 Z0.49
X-24.537 Y-158.586 Z0.488
X-25.053 Y-158.683 Z0.47
X-25.12 Y-158.694 Z0.467
X-25.647 Y-158.77 Z0.449
X-25.709 Y-158.778 Z0.447
X-26.248 Y-158.834 Z0.428
X-26.314 Y-158.839 Z0.425
X-26.864 Y-158.873 Z0.406
X-26.931 Y-158.876 Z0.404
X-27.493 Y-158.887 Z0.384
X-27.555 Z0.382
X-28.117 Y-158.876 Z0.362
X-28.184 Y-158.873 Z0.36
X-28.735 Y-158.839 Z0.341
X-28.801 Y-158.834 Z0.338
X-29.339 Y-158.778 Z0.32
X-29.402 Y-158.77 Z0.317
X-29.929 Y-158.694 Z0.299
X-29.995 Y-158.683 Z0.296
X-30.511 Y-158.586 Z0.278
X-30.567 Y-158.575 Z0.276
X-31.072 Y-158.461 Z0.258
X-31.126 Y-158.447 Z0.256
X-31.621 Y-158.317 Z0.238
X-31.669 Y-158.304 Z0.236
X-32.155 Y-158.16 Z0.219
X-32.195 Y-158.148 Z0.217
X-32.672 Y-157.993 Z0.2
X-32.705 Y-157.982 Z0.199
X-33.175 Y-157.818 Z0.181
X-33.202 Y-157.808 Z0.18
X-33.664 Y-157.637 Z0.163
X-33.679 Y-157.631 Z0.162
X-34.135 Y-157.457 Z0.145
X-34.141 Y-157.454
X-34.591 Y-157.281 Z0.128
X-35.027 Y-157.112 Z0.112
X-35.448 Y-156.954 Z0.096
X-35.856 Y-156.808 Z0.081
X-36.247 Y-156.678 Z0.067
X-36.622 Y-156.568 Z0.053
X-36.981 Y-156.478 Z0.04
X-37.323 Y-156.411 Z0.028
X-37.65 Y-156.367 Z0.016
X-37.963 Y-156.347 Z0.005
X-38.266 Y-156.351 Z-0.005
X-38.581 Y-156.383 Z-0.016
X-38.709 Y-156.404 Z-0.021
X-38.854 Y-156.435 Z-0.026
X-39.002 Y-156.474 Z-0.031
X-39.151 Y-156.521 Z-0.037
X-39.302 Y-156.577 Z-0.042
X-39.46 Y-156.643 Z-0.048
X-39.619 Y-156.717 Z-0.054
X-39.78 Y-156.803 Z-0.061
X-39.95 Y-156.901 Z-0.068
X-40.121 Y-157.01 Z-0.075
X-40.297 Y-157.132 Z-0.082
X-40.469 Y-157.261 Z-0.09
X-40.857 Y-157.584 Z-0.107
X-41.267 Y-157.971 Z-0.127
G2 X-45.751 Y-159.734 Z-0.3 I-4.288 J4.321
S8000
X-49.86 Y-157.955 I0.196 J6.084 F1000
X-49.874 Y-149.359 I4.305 J4.305
G1 X-49.445 Y-148.909
X-49.086 Y-148.485
X-48.941 Y-148.298
X-48.804 Y-148.106
X-48.682 Y-147.922
X-48.573 Y-147.743
X-48.476 Y-147.57
X-48.394 Y-147.405
X-48.322 Y-147.246
X-48.261 Y-147.091
X-48.21 Y-146.942
X-48.168 Y-146.797
X-48.134 Y-146.656
X-48.108 Y-146.517
X-48.089 Y-146.379
X-48.079 Y-146.261
X-48.073 Y-145.966
X-48.092 Y-145.684
X-48.136 Y-145.389
X-48.204 Y-145.079
X-48.296 Y-144.75
X-48.411 Y-144.406
X-48.547 Y-144.042
X-48.701 Y-143.661
X-48.87 Y-143.261
X-49.052 Y-142.842
X-49.239 Y-142.412
X-49.243 Y-142.401
X-49.43 Y-141.962
X-49.438 Y-141.941
X-49.621 Y-141.493
X-49.634 Y-141.461
X-49.81 Y-141.001
X-49.825 Y-140.962
X-49.992 Y-140.49
X-50.007 Y-140.443
X-50.162 Y-139.958
X-50.178 Y-139.903
X-50.318 Y-139.403
X-50.333 Y-139.343
X-50.456 Y-138.827
X-50.47 Y-138.762
X-50.573 Y-138.23
X-50.585 Y-138.163
X-50.667 Y-137.614
X-50.676 Y-137.545
X-50.736 Y-136.977
X-50.741 Y-136.909
X-50.778 Y-136.322
X-50.78 Y-136.256
X-50.793 Y-135.651
Y-135.587
X-50.78 Y-134.982
X-50.778 Y-134.916
X-50.741 Y-134.329
X-50.736 Y-134.26
X-50.676 Y-133.693
X-50.667 Y-133.625
X-50.585 Y-133.075
X-50.573 Y-133.008
X-50.47 Y-132.476
X-50.456 Y-132.411
X-50.333 Y-131.895
X-50.318 Y-131.835
X-50.178 Y-131.335
X-50.162 Y-131.28
X-50.007 Y-130.795
X-49.992 Y-130.748
X-49.825 Y-130.276
X-49.81 Y-130.237
X-49.634 Y-129.777
X-49.621 Y-129.745
X-49.438 Y-129.297
X-49.43 Y-129.276
X-49.243 Y-128.837
X-49.239 Y-128.826
X-49.052 Y-128.396
X-48.87 Y-127.977
X-48.701 Y-127.578
X-48.547 Y-127.197
X-48.411 Y-126.833
X-48.296 Y-126.488
X-48.204 Y-126.16
X-48.136 Y-125.849
X-48.092 Y-125.554
X-48.073 Y-125.272
X-48.079 Y-124.977
X-48.089 Y-124.859
X-48.108 Y-124.721
X-48.134 Y-124.582
X-48.168 Y-124.441
X-48.21 Y-124.296
X-48.261 Y-124.147
X-48.322 Y-123.992
X-48.394 Y-123.833
X-48.476 Y-123.668
X-48.573 Y-123.495
X-48.682 Y-123.316
X-48.803 Y-123.133
X-48.941 Y-122.941
X-49.086 Y-122.752
X-49.445 Y-122.33
X-49.874 Y-121.878
G2 X-49.86 Y-113.283 I4.319 J4.29
X-41.267 Y-113.267 I4.305 J-4.305
G1 X-40.857 Y-113.654
X-40.469 Y-113.977
X-40.297 Y-114.106
X-40.121 Y-114.228
X-39.95 Y-114.337
X-39.78 Y-114.435
X-39.616 Y-114.522
X-39.46 Y-114.596
X-39.304 Y-114.66
X-39.151 Y-114.717
X-39.002 Y-114.764
X-38.854 Y-114.803
X-38.709 Y-114.834
X-38.581 Y-114.855
X-38.264 Y-114.887
X-37.963 Y-114.892
X-37.652 Y-114.871
X-37.323 Y-114.827
X-36.981 Y-114.76
X-36.622 Y-114.67
X-36.246 Y-114.559
X-35.856 Y-114.431
X-35.45 Y-114.285
X-35.027 Y-114.126
X-34.591 Y-113.957
X-34.141 Y-113.784
X-34.135 Y-113.781
X-33.679 Y-113.607
X-33.664 Y-113.601
X-33.202 Y-113.43
X-33.175 Y-113.42
X-32.705 Y-113.256
X-32.672 Y-113.245
X-32.195 Y-113.09
X-32.155 Y-113.078
X-31.669 Y-112.934
X-31.621 Y-112.921
X-31.126 Y-112.791
X-31.072 Y-112.777
X-30.567 Y-112.663
X-30.511 Y-112.652
X-29.995 Y-112.555
X-29.929 Y-112.544
X-29.402 Y-112.468
X-29.339 Y-112.46
X-28.801 Y-112.404
X-28.735 Y-112.399
X-28.184 Y-112.365
X-28.117 Y-112.362
X-27.555 Y-112.351
X-27.493
X-26.931 Y-112.362
X-26.864 Y-112.365
X-26.314 Y-112.399
X-26.248 Y-112.404
X-25.709 Y-112.46
X-25.647 Y-112.468
X-25.12 Y-112.544
X-25.053 Y-112.555
X-24.537 Y-112.652
X-24.481 Y-112.663
X-23.976 Y-112.777
X-23.922 Y-112.791
X-23.427 Y-112.921
X-23.379 Y-112.934
X-22.893 Y-113.078
X-22.854 Y-113.09
X-22.376 Y-113.245
X-22.343 Y-113.256
X-21.874 Y-113.42
X-21.847 Y-113.43
X-21.385 Y-113.601
X-21.369 Y-113.607
X-20.914 Y-113.781
X-20.907 Y-113.784
X-20.458 Y-113.957
X-20.021 Y-114.126
X-19.599 Y-114.285
X-19.192 Y-114.431
X-18.803 Y-114.559
X-18.426 Y-114.67
X-18.068 Y-114.76
X-17.725 Y-114.827
X-17.396 Y-114.871
X-17.085 Y-114.892
X-16.784 Y-114.887
X-16.468 Y-114.855
X-16.339 Y-114.834
X-16.195 Y-114.803
X-16.047 Y-114.764
X-15.898 Y-114.717
X-15.744 Y-114.66
X-15.588 Y-114.596
X-15.432 Y-114.522
X-15.268 Y-114.435
X-15.099 Y-114.337
X-14.928 Y-114.228
X-14.751 Y-114.106
X-14.579 Y-113.977
X-14.191 Y-113.654
X-13.781 Y-113.267
G2 X-5.188 Y-113.284 I4.288 J-4.321
X-5.174 Y-121.878 I-4.305 J-4.304
G1 X-5.603 Y-122.33
X-5.962 Y-122.752
X-6.107 Y-122.941
X-6.245 Y-123.133
X-6.367 Y-123.316
X-6.476 Y-123.495
X-6.572 Y-123.668
X-6.655 Y-123.833
X-6.726 Y-123.992
X-6.788 Y-124.147
X-6.839 Y-124.296
X-6.881 Y-124.441
X-6.914 Y-124.582
X-6.94 Y-124.721
X-6.959 Y-124.859
X-6.97 Y-124.977
X-6.975 Y-125.272
X-6.956 Y-125.554
X-6.913 Y-125.849
X-6.845 Y-126.16
X-6.753 Y-126.488
X-6.638 Y-126.833
X-6.502 Y-127.197
X-6.348 Y-127.578
X-6.178 Y-127.977
X-5.997 Y-128.395
X-5.81 Y-128.826
X-5.805 Y-128.837
X-5.619 Y-129.276
X-5.61 Y-129.297
X-5.427 Y-129.745
X-5.414 Y-129.777
X-5.238 Y-130.237
X-5.224 Y-130.276
X-5.057 Y-130.748
X-5.041 Y-130.795
X-4.886 Y-131.28
X-4.87 Y-131.335
X-4.73 Y-131.835
X-4.715 Y-131.895
X-4.592 Y-132.411
X-4.579 Y-132.475
X-4.475 Y-133.007
X-4.464 Y-133.075
X-4.381 Y-133.625
X-4.373 Y-133.693
X-4.313 Y-134.26
X-4.307 Y-134.329
X-4.271 Y-134.916
X-4.268 Y-134.982
X-4.256 Y-135.587
Y-135.651
X-4.268 Y-136.256
X-4.271 Y-136.322
X-4.307 Y-136.909
X-4.313 Y-136.977
X-4.373 Y-137.545
X-4.381 Y-137.614
X-4.464 Y-138.163
X-4.475 Y-138.231
X-4.579 Y-138.763
X-4.592 Y-138.827
X-4.715 Y-139.343
X-4.73 Y-139.403
X-4.87 Y-139.903
X-4.886 Y-139.958
X-5.041 Y-140.443
X-5.057 Y-140.49
X-5.224 Y-140.962
X-5.238 Y-141.001
X-5.414 Y-141.461
X-5.427 Y-141.493
X-5.61 Y-141.941
X-5.619 Y-141.962
X-5.805 Y-142.401
X-5.81 Y-142.412
X-5.997 Y-142.843
X-6.178 Y-143.261
X-6.348 Y-143.661
X-6.502 Y-144.042
X-6.638 Y-144.406
X-6.753 Y-144.75
X-6.845 Y-145.079
X-6.913 Y-145.389
X-6.956 Y-145.684
X-6.975 Y-145.966
X-6.97 Y-146.261
X-6.959 Y-146.379
X-6.94 Y-146.517
X-6.914 Y-146.656
X-6.881 Y-146.797
X-6.839 Y-146.942
X-6.788 Y-147.091
X-6.726 Y-147.246
X-6.655 Y-147.405
X-6.572 Y-147.57
X-6.476 Y-147.743
X-6.367 Y-147.922
X-6.244 Y-148.107
X-6.107 Y-148.298
X-5.963 Y-148.485
X-5.603 Y-148.909
X-5.175 Y-149.359
G2 X-5.188 Y-157.954 I-4.318 J-4.291
X-13.781 Y-157.971 I-4.305 J4.305
G1 X-14.191 Y-157.584
X-14.579 Y-157.261
X-14.751 Y-157.132
X-14.928 Y-157.01
X-15.099 Y-156.901
X-15.268 Y-156.803
X-15.43 Y-156.717
X-15.588 Y-156.643
X-15.747 Y-156.576
X-15.898 Y-156.521
X-16.047 Y-156.474
X-16.195 Y-156.435
X-16.339 Y-156.404
X-16.468 Y-156.383
X-16.782 Y-156.351
X-17.085 Y-156.347
X-17.398 Y-156.367
X-17.725 Y-156.411
X-18.068 Y-156.478
X-18.426 Y-156.568
X-18.801 Y-156.678
X-19.192 Y-156.808
X-19.6 Y-156.954
X-20.021 Y-157.112
X-20.458 Y-157.281
X-20.907 Y-157.454
X-20.914 Y-157.457
X-21.369 Y-157.631
X-21.385 Y-157.637
X-21.847 Y-157.808
X-21.874 Y-157.818
X-22.343 Y-157.982
X-22.376 Y-157.993
X-22.854 Y-158.148
X-22.893 Y-158.16
X-23.379 Y-158.304
X-23.427 Y-158.317
X-23.922 Y-158.447
X-23.976 Y-158.461
X-24.481 Y-158.575
X-24.537 Y-158.586
X-25.053 Y-158.683
X-25.12 Y-158.694
X-25.647 Y-158.77
X-25.709 Y-158.778
X-26.248 Y-158.834
X-26.314 Y-158.839
X-26.864 Y-158.873
X-26.931 Y-158.876
X-27.493 Y-158.887
X-27.555
X-28.117 Y-158.876
X-28.184 Y-158.873
X-28.735 Y-158.839
X-28.801 Y-158.834
X-29.339 Y-158.778
X-29.402 Y-158.77
X-29.929 Y-158.694
X-29.995 Y-158.683
X-30.511 Y-158.586
X-30.567 Y-158.575
X-31.072 Y-158.461
X-31.126 Y-158.447
X-31.621 Y-158.317
X-31.669 Y-158.304
X-32.155 Y-158.16
X-32.195 Y-158.148
X-32.672 Y-157.993
X-32.705 Y-157.982
X-33.175 Y-157.818
X-33.202 Y-157.808
X-33.664 Y-157.637
X-33.679 Y-157.631
X-34.135 Y-157.457
X-34.141 Y-157.454
X-34.591 Y-157.281
X-35.027 Y-157.112
X-35.448 Y-156.954
X-35.856 Y-156.808
X-36.247 Y-156.678
X-36.622 Y-156.568
X-36.981 Y-156.478
X-37.323 Y-156.411
X-37.65 Y-156.367
X-37.963 Y-156.347
X-38.266 Y-156.351
X-38.581 Y-156.383
X-38.709 Y-156.404
X-38.854 Y-156.435
X-39.002 Y-156.474
X-39.151 Y-156.521
X-39.302 Y-156.577
X-39.46 Y-156.643
X-39.619 Y-156.717
X-39.78 Y-156.803
X-39.95 Y-156.901
X-40.121 Y-157.01
X-40.297 Y-157.132
X-40.469 Y-157.261
X-40.857 Y-157.584
X-41.267 Y-157.971
G2 X-45.751 Y-159.734 I-4.288 J4.321
S5000
X-49.86 Y-157.955 Z-0.46 I0.196 J6.084 F333.3
X-51.594 Y-154.423 Z-0.6 I4.305 J4.305
S8000
X-49.874 Y-149.359 I6.038 J0.773 F1000
G1 X-49.445 Y-148.909
X-49.086 Y-148.485
X-48.941 Y-148.298
X-48.804 Y-148.106
X-48.682 Y-147.922
X-48.573 Y-147.743
X-48.476 Y-147.57
X-48.394 Y-147.405
X-48.322 Y-147.246
X-48.261 Y-147.091
X-48.21 Y-146.942
X-48.168 Y-146.797
X-48.134 Y-146.656
X-48.108 Y-146.517
X-48.089 Y-146.379
X-48.079 Y-146.261
X-48.073 Y-145.966
X-48.092 Y-145.684
X-48.136 Y-145.389
X-48.204 Y-145.079
X-48.296 Y-144.75
X-48.411 Y-144.406
X-48.547 Y-144.042
X-48.701 Y-143.661
X-48.87 Y-143.261
X-49.052 Y-142.842
X-49.239 Y-142.412
X-49.243 Y-142.401
X-49.43 Y-141.962
X-49.438 Y-141.941
X-49.621 Y-141.493
X-49.634 Y-141.461
X-49.81 Y-141.001
X-49.825 Y-140.962
X-49.992 Y-140.49
X-50.007 Y-140.443
X-50.162 Y-139.958
X-50.178 Y-139.903
X-50.318 Y-139.403
X-50.333 Y-139.343
X-50.456 Y-138.827
X-50.47 Y-138.762
X-50.573 Y-138.23
X-50.585 Y-138.163
X-50.667 Y-137.614
X-50.676 Y-137.545
X-50.736 Y-136.977
X-50.741 Y-136.909
X-50.778 Y-136.322
X-50.78 Y-136.256
X-50.793 Y-135.651
Y-135.587
X-50.78 Y-134.982
X-50.778 Y-134.916
X-50.741 Y-134.329
X-50.736 Y-134.26
X-50.676 Y-133.693
X-50.667 Y-133.625
X-50.585 Y-133.075
X-50.573 Y-133.008
X-50.47 Y-132.476
X-50.456 Y-132.411
X-50.333 Y-131.895
X-50.318 Y-131.835
X-50.178 Y-131.335
X-50.162 Y-131.28
X-50.007 Y-130.795
X-49.992 Y-130.748
X-49.825 Y-130.276
X-49.81 Y-130.237
X-49.634 Y-129.777
X-49.621 Y-129.745
X-49.438 Y-129.297
X-49.43 Y-129.276
X-49.243 Y-128.837
X-49.239 Y-128.826
X-49.052 Y-128.396
X-48.87 Y-127.977
X-48.701 Y-127.578
X-48.547 Y-127.197
X-48.411 Y-126.833
X-48.296 Y-126.488
X-48.204 Y-126.16
X-48.136 Y-125.849
X-48.092 Y-125.554
X-48.073 Y-125.272
X-48.079 Y-124.977
X-48.089 Y-124.859
X-48.108 Y-124.721
X-48.134 Y-124.582
X-48.168 Y-124.441
X-48.21 Y-124.296
X-48.261 Y-124.147
X-48.322 Y-123.992
X-48.394 Y-123.833
X-48.476 Y-123.668
X-48.573 Y-123.495
X-48.682 Y-123.316
X-48.803 Y-123.133
X-48.941 Y-122.941
X-49.086 Y-122.752
X-49.445 Y-122.33
X-49.874 Y-121.878
G2 X-49.86 Y-113.283 I4.319 J4.29
X-41.267 Y-113.267 I4.305 J-4.305
G1 X-40.857 Y-113.654
X-40.469 Y-113.977
X-40.297 Y-114.106
X-40.121 Y-114.228
X-39.95 Y-114.337
X-39.78 Y-114.435
X-39.616 Y-114.522
X-39.46 Y-114.596
X-39.304 Y-114.66
X-39.151 Y-114.717
X-39.002 Y-114.764
X-38.854 Y-114.803
X-38.709 Y-114.834
X-38.581 Y-114.855
X-38.264 Y-114.887
X-37.963 Y-114.892
X-37.652 Y-114.871
X-37.323 Y-114.827
X-36.981 Y-114.76
X-36.622 Y-114.67
X-36.246 Y-114.559
X-35.856 Y-114.431
X-35.45 Y-114.285
X-35.027 Y-114.126
X-34.591 Y-113.957
X-34.141 Y-113.784
X-34.135 Y-113.781
X-33.679 Y-113.607
X-33.664 Y-113.601
X-33.202 Y-113.43
X-33.175 Y-113.42
X-32.705 Y-113.256
X-32.672 Y-113.245
X-32.195 Y-113.09
X-32.155 Y-113.078
X-31.669 Y-112.934
X-31.621 Y-112.921
X-31.126 Y-112.791
X-31.072 Y-112.777
X-30.567 Y-112.663
X-30.511 Y-112.652
X-29.995 Y-112.555
X-29.929 Y-112.544
X-29.402 Y-112.468
X-29.339 Y-112.46
X-28.801 Y-112.404
X-28.735 Y-112.399
X-28.184 Y-112.365
X-28.117 Y-112.362
X-27.555 Y-112.351
X-27.493
X-26.931 Y-112.362
X-26.864 Y-112.365
X-26.314 Y-112.399
X-26.248 Y-112.404
X-25.709 Y-112.46
X-25.647 Y-112.468
X-25.12 Y-112.544
X-25.053 Y-112.555
X-24.537 Y-112.652
X-24.481 Y-112.663
X-23.976 Y-112.777
X-23.922 Y-112.791
X-23.427 Y-112.921
X-23.379 Y-112.934
X-22.893 Y-113.078
X-22.854 Y-113.09
X-22.376 Y-113.245
X-22.343 Y-113.256
X-21.874 Y-113.42
X-21.847 Y-113.43
X-21.385 Y-113.601
X-21.369 Y-113.607
X-20.914 Y-113.781
X-20.907 Y-113.784
X-20.458 Y-113.957
X-20.021 Y-114.126
X-19.599 Y-114.285
X-19.192 Y-114.431
X-18.803 Y-114.559
X-18.426 Y-114.67
X-18.068 Y-114.76
X-17.725 Y-114.827
X-17.396 Y-114.871
X-17.085 Y-114.892
X-16.784 Y-114.887
X-16.468 Y-114.855
X-16.339 Y-114.834
X-16.195 Y-114.803
X-16.047 Y-114.764
X-15.898 Y-114.717
X-15.744 Y-114.66
X-15.588 Y-114.596
X-15.432 Y-114.522
X-15.268 Y-114.435
X-15.099 Y-114.337
X-14.928 Y-114.228
X-14.751 Y-114.106
X-14.579 Y-113.977
X-14.191 Y-113.654
X-13.781 Y-113.267
G2 X-5.188 Y-113.284 I4.288 J-4.321
X-5.174 Y-121.878 I-4.305 J-4.304
G1 X-5.603 Y-122.33
X-5.962 Y-122.752
X-6.107 Y-122.941
X-6.245 Y-123.133
X-6.367 Y-123.316
X-6.476 Y-123.495
X-6.572 Y-123.668
X-6.655 Y-123.833
X-6.726 Y-123.992
X-6.788 Y-124.147
X-6.839 Y-124.296
X-6.881 Y-124.441
X-6.914 Y-124.582
X-6.94 Y-124.721
X-6.959 Y-124.859
X-6.97 Y-124.977
X-6.975 Y-125.272
X-6.956 Y-125.554
X-6.913 Y-125.849
X-6.845 Y-126.16
X-6.753 Y-126.488
X-6.638 Y-126.833
X-6.502 Y-127.197
X-6.348 Y-127.578
X-6.178 Y-127.977
X-5.997 Y-128.395
X-5.81 Y-128.826
X-5.805 Y-128.837
X-5.619 Y-129.276
X-5.61 Y-129.297
X-5.427 Y-129.745
X-5.414 Y-129.777
X-5.238 Y-130.237
X-5.224 Y-130.276
X-5.057 Y-130.748
X-5.041 Y-130.795
X-4.886 Y-131.28
X-4.87 Y-131.335
X-4.73 Y-131.835
X-4.715 Y-131.895
X-4.592 Y-132.411
X-4.579 Y-132.475
X-4.475 Y-133.007
X-4.464 Y-133.075
X-4.381 Y-133.625
X-4.373 Y-133.693
X-4.313 Y-134.26
X-4.307 Y-134.329
X-4.271 Y-134.916
X-4.268 Y-134.982
X-4.256 Y-135.587
Y-135.651
X-4.268 Y-136.256
X-4.271 Y-136.322
X-4.307 Y-136.909
X-4.313 Y-136.977
X-4.373 Y-137.545
X-4.381 Y-137.614
X-4.464 Y-138.163
X-4.475 Y-138.231
X-4.579 Y-138.763
X-4.592 Y-138.827
X-4.715 Y-139.343
X-4.73 Y-139.403
X-4.87 Y-139.903
X-4.886 Y-139.958
X-5.041 Y-140.443
X-5.057 Y-140.49
X-5.224 Y-140.962
X-5.238 Y-141.001
X-5.414 Y-141.461
X-5.427 Y-141.493
X-5.61 Y-141.941
X-5.619 Y-141.962
X-5.805 Y-142.401
X-5.81 Y-142.412
X-5.997 Y-142.843
X-6.178 Y-143.261
X-6.348 Y-143.661
X-6.502 Y-144.042
X-6.638 Y-144.406
X-6.753 Y-144.75
X-6.845 Y-145.079
X-6.913 Y-145.389
X-6.956 Y-145.684
X-6.975 Y-145.966
X-6.97 Y-146.261
X-6.959 Y-146.379
X-6.94 Y-146.517
X-6.914 Y-146.656
X-6.881 Y-146.797
X-6.839 Y-146.942
X-6.788 Y-147.091
X-6.726 Y-147.246
X-6.655 Y-147.405
X-6.572 Y-147.57
X-6.476 Y-147.743
X-6.367 Y-147.922
X-6.244 Y-148.107
X-6.107 Y-148.298
X-5.963 Y-148.485
X-5.603 Y-148.909
X-5.175 Y-149.359
G2 X-5.188 Y-157.954 I-4.318 J-4.291
X-13.781 Y-157.971 I-4.305 J4.305
G1 X-14.191 Y-157.584
X-14.579 Y-157.261
X-14.751 Y-157.132
X-14.928 Y-157.01
X-15.099 Y-156.901
X-15.268 Y-156.803
X-15.43 Y-156.717
X-15.588 Y-156.643
X-15.747 Y-156.576
X-15.898 Y-156.521
X-16.047 Y-156.474
X-16.195 Y-156.435
X-16.339 Y-156.404
X-16.468 Y-156.383
X-16.782 Y-156.351
X-17.085 Y-156.347
X-17.398 Y-156.367
X-17.725 Y-156.411
X-18.068 Y-156.478
X-18.426 Y-156.568
X-18.801 Y-156.678
X-19.192 Y-156.808
X-19.6 Y-156.954
X-20.021 Y-157.112
X-20.458 Y-157.281
X-20.907 Y-157.454
X-20.914 Y-157.457
X-21.369 Y-157.631
X-21.385 Y-157.637
X-21.847 Y-157.808
X-21.874 Y-157.818
X-22.343 Y-157.982
X-22.376 Y-157.993
X-22.854 Y-158.148
X-22.893 Y-158.16
X-23.379 Y-158.304
X-23.427 Y-158.317
X-23.922 Y-158.447
X-23.976 Y-158.461
X-24.481 Y-158.575
X-24.537 Y-158.586
X-25.053 Y-158.683
X-25.12 Y-158.694
X-25.647 Y-158.77
X-25.709 Y-158.778
X-26.248 Y-158.834
X-26.314 Y-158.839
X-26.864 Y-158.873
X-26.931 Y-158.876
X-27.493 Y-158.887
X-27.555
X-28.117 Y-158.876
X-28.184 Y-158.873
X-28.735 Y-158.839
X-28.801 Y-158.834
X-29.339 Y-158.778
X-29.402 Y-158.77
X-29.929 Y-158.694
X-29.995 Y-158.683
X-30.511 Y-158.586
X-30.567 Y-158.575
X-31.072 Y-158.461
X-31.126 Y-158.447
X-31.621 Y-158.317
X-31.669 Y-158.304
X-32.155 Y-158.16
X-32.195 Y-158.148
X-32.672 Y-157.993
X-32.705 Y-157.982
X-33.175 Y-157.818
X-33.202 Y-157.808
X-33.664 Y-157.637
X-33.679 Y-157.631
X-34.135 Y-157.457
X-34.141 Y-157.454
X-34.591 Y-157.281
X-35.027 Y-157.112
X-35.448 Y-156.954
X-35.856 Y-156.808
X-36.247 Y-156.678
X-36.622 Y-156.568
X-36.981 Y-156.478
X-37.323 Y-156.411
X-37.65 Y-156.367
X-37.963 Y-156.347
X-38.266 Y-156.351
X-38.581 Y-156.383
X-38.709 Y-156.404
X-38.854 Y-156.435
X-39.002 Y-156.474
X-39.151 Y-156.521
X-39.302 Y-156.577
X-39.46 Y-156.643
X-39.619 Y-156.717
X-39.78 Y-156.803
X-39.95 Y-156.901
X-40.121 Y-157.01
X-40.297 Y-157.132
X-40.469 Y-157.261
X-40.857 Y-157.584
X-41.267 Y-157.971
G2 X-49.86 Y-157.955 I-4.288 J4.321
X-51.594 Y-154.423 I4.305 J4.305
S5000
X-49.874 Y-149.359 Z-0.793 I6.038 J0.773 F333.3
G1 X-49.445 Y-148.909 Z-0.815
X-49.086 Y-148.485 Z-0.834
X-48.941 Y-148.298 Z-0.843
X-48.804 Y-148.106 Z-0.851
X-48.682 Y-147.922 Z-0.859
X-48.573 Y-147.743 Z-0.866
X-48.476 Y-147.57 Z-0.873
X-48.394 Y-147.405 Z-0.879
X-48.322 Y-147.246 Z-0.885
X-48.261 Y-147.091 Z-0.891
X-48.21 Y-146.942 Z-0.897
X-48.184 Y-146.853 Z-0.9
S8000
X-48.168 Y-146.797 F1000
X-48.134 Y-146.656
X-48.108 Y-146.517
X-48.089 Y-146.379
X-48.079 Y-146.261
X-48.073 Y-145.966
X-48.092 Y-145.684
X-48.136 Y-145.389
X-48.204 Y-145.079
X-48.296 Y-144.75
X-48.411 Y-144.406
X-48.547 Y-144.042
X-48.701 Y-143.661
X-48.87 Y-143.261
X-49.052 Y-142.842
X-49.239 Y-142.412
X-49.243 Y-142.401
X-49.43 Y-141.962
X-49.438 Y-141.941
X-49.621 Y-141.493
X-49.634 Y-141.461
X-49.81 Y-141.001
X-49.825 Y-140.962
X-49.992 Y-140.49
X-50.007 Y-140.443
X-50.162 Y-139.958
X-50.178 Y-139.903
X-50.318 Y-139.403
X-50.333 Y-139.343
X-50.456 Y-138.827
X-50.47 Y-138.762
X-50.573 Y-138.23
X-50.585 Y-138.163
X-50.667 Y-137.614
X-50.676 Y-137.545
X-50.736 Y-136.977
X-50.741 Y-136.909
X-50.778 Y-136.322
X-50.78 Y-136.256
X-50.793 Y-135.651
Y-135.587
X-50.78 Y-134.982
X-50.778 Y-134.916
X-50.741 Y-134.329
X-50.736 Y-134.26
X-50.676 Y-133.693
X-50.667 Y-133.625
X-50.585 Y-133.075
X-50.573 Y-133.008
X-50.47 Y-132.476
X-50.456 Y-132.411
X-50.333 Y-131.895
X-50.318 Y-131.835
X-50.178 Y-131.335
X-50.162 Y-131.28
X-50.007 Y-130.795
X-49.992 Y-130.748
X-49.825 Y-130.276
X-49.81 Y-130.237
X-49.634 Y-129.777
X-49.621 Y-129.745
X-49.438 Y-129.297
X-49.43 Y-129.276
X-49.243 Y-128.837
X-49.239 Y-128.826
X-49.052 Y-128.396
X-48.87 Y-127.977
X-48.701 Y-127.578
X-48.547 Y-127.197
X-48.411 Y-126.833
X-48.296 Y-126.488
X-48.204 Y-126.16
X-48.136 Y-125.849
X-48.092 Y-125.554
X-48.073 Y-125.272
X-48.079 Y-124.977
X-48.089 Y-124.859
X-48.108 Y-124.721
X-48.134 Y-124.582
X-48.168 Y-124.441
X-48.21 Y-124.296
X-48.261 Y-124.147
X-48.322 Y-123.992
X-48.394 Y-123.833
X-48.476 Y-123.668
X-48.573 Y-123.495
X-48.682 Y-123.316
X-48.803 Y-123.133
X-48.941 Y-122.941
X-49.086 Y-122.752
X-49.445 Y-122.33
X-49.874 Y-121.878
G2 X-49.86 Y-113.283 I4.319 J4.29
X-41.267 Y-113.267 I4.305 J-4.305
G1 X-40.857 Y-113.654
X-40.469 Y-113.977
X-40.297 Y-114.106
X-40.121 Y-114.228
X-39.95 Y-114.337
X-39.78 Y-114.435
X-39.616 Y-114.522
X-39.46 Y-114.596
X-39.304 Y-114.66
X-39.151 Y-114.717
X-39.002 Y-114.764
X-38.854 Y-114.803
X-38.709 Y-114.834
X-38.581 Y-114.855
X-38.264 Y-114.887
X-37.963 Y-114.892
X-37.652 Y-114.871
X-37.323 Y-114.827
X-36.981 Y-114.76
X-36.622 Y-114.67
X-36.246 Y-114.559
X-35.856 Y-114.431
X-35.45 Y-114.285
X-35.027 Y-114.126
X-34.591 Y-113.957
X-34.141 Y-113.784
X-34.135 Y-113.781
X-33.679 Y-113.607
X-33.664 Y-113.601
X-33.202 Y-113.43
X-33.175 Y-113.42
X-32.705 Y-113.256
X-32.672 Y-113.245
X-32.195 Y-113.09
X-32.155 Y-113.078
X-31.669 Y-112.934
X-31.621 Y-112.921
X-31.126 Y-112.791
X-31.072 Y-112.777
X-30.567 Y-112.663
X-30.511 Y-112.652
X-29.995 Y-112.555
X-29.929 Y-112.544
X-29.402 Y-112.468
X-29.339 Y-112.46
X-28.801 Y-112.404
X-28.735 Y-112.399
X-28.184 Y-112.365
X-28.117 Y-112.362
X-27.555 Y-112.351
X-27.493
X-26.931 Y-112.362
X-26.864 Y-112.365
X-26.314 Y-112.399
X-26.248 Y-112.404
X-25.709 Y-112.46
X-25.647 Y-112.468
X-25.12 Y-112.544
X-25.053 Y-112.555
X-24.537 Y-112.652
X-24.481 Y-112.663
X-23.976 Y-112.777
X-23.922 Y-112.791
X-23.427 Y-112.921
X-23.379 Y-112.934
X-22.893 Y-113.078
X-22.854 Y-113.09
X-22.376 Y-113.245
X-22.343 Y-113.256
X-21.874 Y-113.42
X-21.847 Y-113.43
X-21.385 Y-113.601
X-21.369 Y-113.607
X-20.914 Y-113.781
X-20.907 Y-113.784
X-20.458 Y-113.957
X-20.021 Y-114.126
X-19.599 Y-114.285
X-19.192 Y-114.431
X-18.803 Y-114.559
X-18.426 Y-114.67
X-18.068 Y-114.76
X-17.725 Y-114.827
X-17.396 Y-114.871
X-17.085 Y-114.892
X-16.784 Y-114.887
X-16.468 Y-114.855
X-16.339 Y-114.834
X-16.195 Y-114.803
X-16.047 Y-114.764
X-15.898 Y-114.717
X-15.744 Y-114.66
X-15.588 Y-114.596
X-15.432 Y-114.522
X-15.268 Y-114.435
X-15.099 Y-114.337
X-14.928 Y-114.228
X-14.751 Y-114.106
X-14.579 Y-113.977
X-14.191 Y-113.654
X-13.781 Y-113.267
G2 X-5.188 Y-113.284 I4.288 J-4.321
X-5.174 Y-121.878 I-4.305 J-4.304
G1 X-5.603 Y-122.33
X-5.962 Y-122.752
X-6.107 Y-122.941
X-6.245 Y-123.133
X-6.367 Y-123.316
X-6.476 Y-123.495
X-6.572 Y-123.668
X-6.655 Y-123.833
X-6.726 Y-123.992
X-6.788 Y-124.147
X-6.839 Y-124.296
X-6.881 Y-124.441
X-6.914 Y-124.582
X-6.94 Y-124.721
X-6.959 Y-124.859
X-6.97 Y-124.977
X-6.975 Y-125.272
X-6.956 Y-125.554
X-6.913 Y-125.849
X-6.845 Y-126.16
X-6.753 Y-126.488
X-6.638 Y-126.833
X-6.502 Y-127.197
X-6.348 Y-127.578
X-6.178 Y-127.977
X-5.997 Y-128.395
X-5.81 Y-128.826
X-5.805 Y-128.837
X-5.619 Y-129.276
X-5.61 Y-129.297
X-5.427 Y-129.745
X-5.414 Y-129.777
X-5.238 Y-130.237
X-5.224 Y-130.276
X-5.057 Y-130.748
X-5.041 Y-130.795
X-4.886 Y-131.28
X-4.87 Y-131.335
X-4.73 Y-131.835
X-4.715 Y-131.895
X-4.592 Y-132.411
X-4.579 Y-132.475
X-4.475 Y-133.007
X-4.464 Y-133.075
X-4.381 Y-133.625
X-4.373 Y-133.693
X-4.313 Y-134.26
X-4.307 Y-134.329
X-4.271 Y-134.916
X-4.268 Y-134.982
X-4.256 Y-135.587
Y-135.651
X-4.268 Y-136.256
X-4.271 Y-136.322
X-4.307 Y-136.909
X-4.313 Y-136.977
X-4.373 Y-137.545
X-4.381 Y-137.614
X-4.464 Y-138.163
X-4.475 Y-138.231
X-4.579 Y-138.763
X-4.592 Y-138.827
X-4.715 Y-139.343
X-4.73 Y-139.403
X-4.87 Y-139.903
X-4.886 Y-139.958
X-5.041 Y-140.443
X-5.057 Y-140.49
X-5.224 Y-140.962
X-5.238 Y-141.001
X-5.414 Y-141.461
X-5.427 Y-141.493
X-5.61 Y-141.941
X-5.619 Y-141.962
X-5.805 Y-142.401
X-5.81 Y-142.412
X-5.997 Y-142.843
X-6.178 Y-143.261
X-6.348 Y-143.661
X-6.502 Y-144.042
X-6.638 Y-144.406
X-6.753 Y-144.75
X-6.845 Y-145.079
X-6.913 Y-145.389
X-6.956 Y-145.684
X-6.975 Y-145.966
X-6.97 Y-146.261
X-6.959 Y-146.379
X-6.94 Y-146.517
X-6.914 Y-146.656
X-6.881 Y-146.797
X-6.839 Y-146.942
X-6.788 Y-147.091
X-6.726 Y-147.246
X-6.655 Y-147.405
X-6.572 Y-147.57
X-6.476 Y-147.743
X-6.367 Y-147.922
X-6.244 Y-148.107
X-6.107 Y-148.298
X-5.963 Y-148.485
X-5.603 Y-148.909
X-5.175 Y-149.359
G2 X-5.188 Y-157.954 I-4.318 J-4.291
X-13.781 Y-157.971 I-4.305 J4.305
G1 X-14.191 Y-157.584
X-14.579 Y-157.261
X-14.751 Y-157.132
X-14.928 Y-157.01
X-15.099 Y-156.901
X-15.268 Y-156.803
X-15.43 Y-156.717
X-15.588 Y-156.643
X-15.747 Y-156.576
X-15.898 Y-156.521
X-16.047 Y-156.474
X-16.195 Y-156.435
X-16.339 Y-156.404
X-16.468 Y-156.383
X-16.782 Y-156.351
X-17.085 Y-156.347
X-17.398 Y-156.367
X-17.725 Y-156.411
X-18.068 Y-156.478
X-18.426 Y-156.568
X-18.801 Y-156.678
X-19.192 Y-156.808
X-19.6 Y-156.954
X-20.021 Y-157.112
X-20.458 Y-157.281
X-20.907 Y-157.454
X-20.914 Y-157.457
X-21.369 Y-157.631
X-21.385 Y-157.637
X-21.847 Y-157.808
X-21.874 Y-157.818
X-22.343 Y-157.982
X-22.376 Y-157.993
X-22.854 Y-158.148
X-22.893 Y-158.16
X-23.379 Y-158.304
X-23.427 Y-158.317
X-23.922 Y-158.447
X-23.976 Y-158.461
X-24.481 Y-158.575
X-24.537 Y-158.586
X-25.053 Y-158.683
X-25.12 Y-158.694
X-25.647 Y-158.77
X-25.709 Y-158.778
X-26.248 Y-158.834
X-26.314 Y-158.839
X-26.864 Y-158.873
X-26.931 Y-158.876
X-27.493 Y-158.887
X-27.555
X-28.117 Y-158.876
X-28.184 Y-158.873
X-28.735 Y-158.839
X-28.801 Y-158.834
X-29.339 Y-158.778
X-29.402 Y-158.77
X-29.929 Y-158.694
X-29.995 Y-158.683
X-30.511 Y-158.586
X-30.567 Y-158.575
X-31.072 Y-158.461
X-31.126 Y-158.447
X-31.621 Y-158.317
X-31.669 Y-158.304
X-32.155 Y-158.16
X-32.195 Y-158.148
X-32.672 Y-157.993
X-32.705 Y-157.982
X-33.175 Y-157.818
X-33.202 Y-157.808
X-33.664 Y-157.637
X-33.679 Y-157.631
X-34.135 Y-157.457
X-34.141 Y-157.454
X-34.591 Y-157.281
X-35.027 Y-157.112
X-35.448 Y-156.954
X-35.856 Y-156.808
X-36.247 Y-156.678
X-36.622 Y-156.568
X-36.981 Y-156.478
X-37.323 Y-156.411
X-37.65 Y-156.367
X-37.963 Y-156.347
X-38.266 Y-156.351
X-38.581 Y-156.383
X-38.709 Y-156.404
X-38.854 Y-156.435
X-39.002 Y-156.474
X-39.151 Y-156.521
X-39.302 Y-156.577
X-39.46 Y-156.643
X-39.619 Y-156.717
X-39.78 Y-156.803
X-39.95 Y-156.901
X-40.121 Y-157.01
X-40.297 Y-157.132
X-40.469 Y-157.261
X-40.857 Y-157.584
X-41.267 Y-157.971
G2 X-49.86 Y-157.955 I-4.288 J4.321
X-49.874 Y-149.359 I4.305 J4.305
G1 X-49.445 Y-148.909
X-49.086 Y-148.485
X-48.941 Y-148.298
X-48.804 Y-148.106
X-48.682 Y-147.922
X-48.573 Y-147.743
X-48.476 Y-147.57
X-48.394 Y-147.405
X-48.322 Y-147.246
X-48.261 Y-147.091
X-48.21 Y-146.942
X-48.184 Y-146.853
S5000
X-48.168 Y-146.797 Z-0.902 F333.3
X-48.134 Y-146.656 Z-0.907
X-48.108 Y-146.517 Z-0.912
X-48.089 Y-146.379 Z-0.917
X-48.079 Y-146.261 Z-0.921
X-48.073 Y-145.966 Z-0.931
X-48.092 Y-145.684 Z-0.941
X-48.136 Y-145.389 Z-0.952
X-48.204 Y-145.079 Z-0.963
X-48.296 Y-144.75 Z-0.975
X-48.411 Y-144.406 Z-0.987
X-48.547 Y-144.042 Z-1.001
X-48.701 Y-143.661 Z-1.015
X-48.87 Y-143.261 Z-1.03
X-49.052 Y-142.842 Z-1.046
X-49.239 Y-142.412 Z-1.063
X-49.243 Y-142.401
X-49.43 Y-141.962 Z-1.08
X-49.438 Y-141.941 Z-1.081
X-49.621 Y-141.493 Z-1.097
X-49.634 Y-141.461 Z-1.099
X-49.81 Y-141.001 Z-1.116
X-49.825 Y-140.962 Z-1.117
X-49.992 Y-140.49 Z-1.135
X-50.007 Y-140.443 Z-1.137
X-50.162 Y-139.958 Z-1.154
X-50.178 Y-139.903 Z-1.156
X-50.318 Y-139.403 Z-1.174
X-50.333 Y-139.343 Z-1.177
X-50.456 Y-138.827 Z-1.195
X-50.47 Y-138.762 Z-1.197
X-50.484 Y-138.691 Z-1.2
S8000
X-50.573 Y-138.23 F1000
X-50.585 Y-138.163
X-50.667 Y-137.614
X-50.676 Y-137.545
X-50.736 Y-136.977
X-50.741 Y-136.909
X-50.778 Y-136.322
X-50.78 Y-136.256
X-50.793 Y-135.651
Y-135.587
X-50.78 Y-134.982
X-50.778 Y-134.916
X-50.741 Y-134.329
X-50.736 Y-134.26
X-50.676 Y-133.693
X-50.667 Y-133.625
X-50.585 Y-133.075
X-50.573 Y-133.008
X-50.47 Y-132.476
X-50.456 Y-132.411
X-50.333 Y-131.895
X-50.318 Y-131.835
X-50.178 Y-131.335
X-50.162 Y-131.28
X-50.007 Y-130.795
X-49.992 Y-130.748
X-49.825 Y-130.276
X-49.81 Y-130.237
X-49.634 Y-129.777
X-49.621 Y-129.745
X-49.438 Y-129.297
X-49.43 Y-129.276
X-49.243 Y-128.837
X-49.239 Y-128.826
X-49.052 Y-128.396
X-48.87 Y-127.977
X-48.701 Y-127.578
X-48.547 Y-127.197
X-48.411 Y-126.833
X-48.296 Y-126.488
X-48.204 Y-126.16
X-48.136 Y-125.849
X-48.092 Y-125.554
X-48.073 Y-125.272
X-48.079 Y-124.977
X-48.089 Y-124.859
X-48.108 Y-124.721
X-48.134 Y-124.582
X-48.168 Y-124.441
X-48.21 Y-124.296
X-48.261 Y-124.147
X-48.322 Y-123.992
X-48.394 Y-123.833
X-48.476 Y-123.668
X-48.573 Y-123.495
X-48.682 Y-123.316
X-48.803 Y-123.133
X-48.941 Y-122.941
X-49.086 Y-122.752
X-49.445 Y-122.33
X-49.874 Y-121.878
G2 X-49.86 Y-113.283 I4.319 J4.29
X-41.267 Y-113.267 I4.305 J-4.305
G1 X-40.857 Y-113.654
X-40.469 Y-113.977
X-40.297 Y-114.106
X-40.121 Y-114.228
X-39.95 Y-114.337
X-39.78 Y-114.435
X-39.616 Y-114.522
X-39.46 Y-114.596
X-39.304 Y-114.66
X-39.151 Y-114.717
X-39.002 Y-114.764
X-38.854 Y-114.803
X-38.709 Y-114.834
X-38.581 Y-114.855
X-38.264 Y-114.887
X-37.963 Y-114.892
X-37.652 Y-114.871
X-37.323 Y-114.827
X-36.981 Y-114.76
X-36.622 Y-114.67
X-36.246 Y-114.559
X-35.856 Y-114.431
X-35.45 Y-114.285
X-35.027 Y-114.126
X-34.591 Y-113.957
X-34.141 Y-113.784
X-34.135 Y-113.781
X-33.679 Y-113.607
X-33.664 Y-113.601
X-33.202 Y-113.43
X-33.175 Y-113.42
X-32.705 Y-113.256
X-32.672 Y-113.245
X-32.195 Y-113.09
X-32.155 Y-113.078
X-31.669 Y-112.934
X-31.621 Y-112.921
X-31.126 Y-112.791
X-31.072 Y-112.777
X-30.567 Y-112.663
X-30.511 Y-112.652
X-29.995 Y-112.555
X-29.929 Y-112.544
X-29.402 Y-112.468
X-29.339 Y-112.46
X-28.801 Y-112.404
X-28.735 Y-112.399
X-28.184 Y-112.365
X-28.117 Y-112.362
X-27.555 Y-112.351
X-27.493
X-26.931 Y-112.362
X-26.864 Y-112.365
X-26.314 Y-112.399
X-26.248 Y-112.404
X-25.709 Y-112.46
X-25.647 Y-112.468
X-25.12 Y-112.544
X-25.053 Y-112.555
X-24.537 Y-112.652
X-24.481 Y-112.663
X-23.976 Y-112.777
X-23.922 Y-112.791
X-23.427 Y-112.921
X-23.379 Y-112.934
X-22.893 Y-113.078
X-22.854 Y-113.09
X-22.376 Y-113.245
X-22.343 Y-113.256
X-21.874 Y-113.42
X-21.847 Y-113.43
X-21.385 Y-113.601
X-21.369 Y-113.607
X-20.914 Y-113.781
X-20.907 Y-113.784
X-20.458 Y-113.957
X-20.021 Y-114.126
X-19.599 Y-114.285
X-19.192 Y-114.431
X-18.803 Y-114.559
X-18.426 Y-114.67
X-18.068 Y-114.76
X-17.725 Y-114.827
X-17.396 Y-114.871
X-17.085 Y-114.892
X-16.784 Y-114.887
X-16.468 Y-114.855
X-16.339 Y-114.834
X-16.195 Y-114.803
X-16.047 Y-114.764
X-15.898 Y-114.717
X-15.744 Y-114.66
X-15.588 Y-114.596
X-15.432 Y-114.522
X-15.268 Y-114.435
X-15.099 Y-114.337
X-14.928 Y-114.228
X-14.751 Y-114.106
X-14.579 Y-113.977
X-14.191 Y-113.654
X-13.781 Y-113.267
G2 X-5.188 Y-113.284 I4.288 J-4.321
X-5.174 Y-121.878 I-4.305 J-4.304
G1 X-5.603 Y-122.33
X-5.962 Y-122.752
X-6.107 Y-122.941
X-6.245 Y-123.133
X-6.367 Y-123.316
X-6.476 Y-123.495
X-6.572 Y-123.668
X-6.655 Y-123.833
X-6.726 Y-123.992
X-6.788 Y-124.147
X-6.839 Y-124.296
X-6.881 Y-124.441
X-6.914 Y-124.582
X-6.94 Y-124.721
X-6.959 Y-124.859
X-6.97 Y-124.977
X-6.975 Y-125.272
X-6.956 Y-125.554
X-6.913 Y-125.849
X-6.845 Y-126.16
X-6.753 Y-126.488
X-6.638 Y-126.833
X-6.502 Y-127.197
X-6.348 Y-127.578
X-6.178 Y-127.977
X-5.997 Y-128.395
X-5.81 Y-128.826
X-5.805 Y-128.837
X-5.619 Y-129.276
X-5.61 Y-129.297
X-5.427 Y-129.745
X-5.414 Y-129.777
X-5.238 Y-130.237
X-5.224 Y-130.276
X-5.057 Y-130.748
X-5.041 Y-130.795
X-4.886 Y-131.28
X-4.87 Y-131.335
X-4.73 Y-131.835
X-4.715 Y-131.895
X-4.592 Y-132.411
X-4.579 Y-132.475
X-4.475 Y-133.007
X-4.464 Y-133.075
X-4.381 Y-133.625
X-4.373 Y-133.693
X-4.313 Y-134.26
X-4.307 Y-134.329
X-4.271 Y-134.916
X-4.268 Y-134.982
X-4.256 Y-135.587
Y-135.651
X-4.268 Y-136.256
X-4.271 Y-136.322
X-4.307 Y-136.909
X-4.313 Y-136.977
X-4.373 Y-137.545
X-4.381 Y-137.614
X-4.464 Y-138.163
X-4.475 Y-138.231
X-4.579 Y-138.763
X-4.592 Y-138.827
X-4.715 Y-139.343
X-4.73 Y-139.403
X-4.87 Y-139.903
X-4.886 Y-139.958
X-5.041 Y-140.443
X-5.057 Y-140.49
X-5.224 Y-140.962
X-5.238 Y-141.001
X-5.414 Y-141.461
X-5.427 Y-141.493
X-5.61 Y-141.941
X-5.619 Y-141.962
X-5.805 Y-142.401
X-5.81 Y-142.412
X-5.997 Y-142.843
X-6.178 Y-143.261
X-6.348 Y-143.661
X-6.502 Y-144.042
X-6.638 Y-144.406
X-6.753 Y-144.75
X-6.845 Y-145.079
X-6.913 Y-145.389
X-6.956 Y-145.684
X-6.975 Y-145.966
X-6.97 Y-146.261
X-6.959 Y-146.379
X-6.94 Y-146.517
X-6.914 Y-146.656
X-6.881 Y-146.797
X-6.839 Y-146.942
X-6.788 Y-147.091
X-6.726 Y-147.246
X-6.655 Y-147.405
X-6.572 Y-147.57
X-6.476 Y-147.743
X-6.367 Y-147.922
X-6.244 Y-148.107
X-6.107 Y-148.298
X-5.963 Y-148.485
X-5.603 Y-148.909
X-5.175 Y-149.359
G2 X-5.188 Y-157.954 I-4.318 J-4.291
X-13.781 Y-157.971 I-4.305 J4.305
G1 X-14.191 Y-157.584
X-14.579 Y-157.261
X-14.751 Y-157.132
X-14.928 Y-157.01
X-15.099 Y-156.901
X-15.268 Y-156.803
X-15.43 Y-156.717
X-15.588 Y-156.643
X-15.747 Y-156.576
X-15.898 Y-156.521
X-16.047 Y-156.474
X-16.195 Y-156.435
X-16.339 Y-156.404
X-16.468 Y-156.383
X-16.782 Y-156.351
X-17.085 Y-156.347
X-17.398 Y-156.367
X-17.725 Y-156.411
X-18.068 Y-156.478
X-18.426 Y-156.568
X-18.801 Y-156.678
X-19.192 Y-156.808
X-19.6 Y-156.954
X-20.021 Y-157.112
X-20.458 Y-157.281
X-20.907 Y-157.454
X-20.914 Y-157.457
X-21.369 Y-157.631
X-21.385 Y-157.637
X-21.847 Y-157.808
X-21.874 Y-157.818
X-22.343 Y-157.982
X-22.376 Y-157.993
X-22.854 Y-158.148
X-22.893 Y-158.16
X-23.379 Y-158.304
X-23.427 Y-158.317
X-23.922 Y-158.447
X-23.976 Y-158.461
X-24.481 Y-158.575
X-24.537 Y-158.586
X-25.053 Y-158.683
X-25.12 Y-158.694
X-25.647 Y-158.77
X-25.709 Y-158.778
X-26.248 Y-158.834
X-26.314 Y-158.839
X-26.864 Y-158.873
X-26.931 Y-158.876
X-27.493 Y-158.887
X-27.555
X-28.117 Y-158.876
X-28.184 Y-158.873
X-28.735 Y-158.839
X-28.801 Y-158.834
X-29.339 Y-158.778
X-29.402 Y-158.77
X-29.929 Y-158.694
X-29.995 Y-158.683
X-30.511 Y-158.586
X-30.567 Y-158.575
X-31.072 Y-158.461
X-31.126 Y-158.447
X-31.621 Y-158.317
X-31.669 Y-158.304
X-32.155 Y-158.16
X-32.195 Y-158.148
X-32.672 Y-157.993
X-32.705 Y-157.982
X-33.175 Y-157.818
X-33.202 Y-157.808
X-33.664 Y-157.637
X-33.679 Y-157.631
X-34.135 Y-157.457
X-34.141 Y-157.454
X-34.591 Y-157.281
X-35.027 Y-157.112
X-35.448 Y-156.954
X-35.856 Y-156.808
X-36.247 Y-156.678
X-36.622 Y-156.568
X-36.981 Y-156.478
X-37.323 Y-156.411
X-37.65 Y-156.367
X-37.963 Y-156.347
X-38.266 Y-156.351
X-38.581 Y-156.383
X-38.709 Y-156.404
X-38.854 Y-156.435
X-39.002 Y-156.474
X-39.151 Y-156.521
X-39.302 Y-156.577
X-39.46 Y-156.643
X-39.619 Y-156.717
X-39.78 Y-156.803
X-39.95 Y-156.901
X-40.121 Y-157.01
X-40.297 Y-157.132
X-40.469 Y-157.261
X-40.857 Y-157.584
X-41.267 Y-157.971
G2 X-49.86 Y-157.955 I-4.288 J4.321
X-49.874 Y-149.359 I4.305 J4.305
G1 X-49.445 Y-148.909
X-49.086 Y-148.485
X-48.941 Y-148.298
X-48.804 Y-148.106
X-48.682 Y-147.922
X-48.573 Y-147.743
X-48.476 Y-147.57
X-48.394 Y-147.405
X-48.322 Y-147.246
X-48.261 Y-147.091
X-48.21 Y-146.942
X-48.184 Y-146.853
X-48.168 Y-146.797
X-48.134 Y-146.656
X-48.108 Y-146.517
X-48.089 Y-146.379
X-48.079 Y-146.261
X-48.073 Y-145.966
X-48.092 Y-145.684
X-48.136 Y-145.389
X-48.204 Y-145.079
X-48.296 Y-144.75
X-48.411 Y-144.406
X-48.547 Y-144.042
X-48.701 Y-143.661
X-48.87 Y-143.261
X-49.052 Y-142.842
X-49.239 Y-142.412
X-49.243 Y-142.401
X-49.43 Y-141.962
X-49.438 Y-141.941
X-49.621 Y-141.493
X-49.634 Y-141.461
X-49.81 Y-141.001
X-49.825 Y-140.962
X-49.992 Y-140.49
X-50.007 Y-140.443
X-50.162 Y-139.958
X-50.178 Y-139.903
X-50.318 Y-139.403
X-50.333 Y-139.343
X-50.456 Y-138.827
X-50.47 Y-138.762
X-50.484 Y-138.691
S5000
X-50.573 Y-138.23 Z-1.216 F333.3
X-50.585 Y-138.163 Z-1.219
X-50.667 Y-137.614 Z-1.238
X-50.676 Y-137.545 Z-1.241
X-50.736 Y-136.977 Z-1.261
X-50.741 Y-136.909 Z-1.263
X-50.778 Y-136.322 Z-1.283
X-50.78 Y-136.256 Z-1.286
X-50.793 Y-135.651 Z-1.307
Y-135.587 Z-1.309
X-50.78 Y-134.982 Z-1.33
X-50.778 Y-134.916 Z-1.333
X-50.741 Y-134.329 Z-1.353
X-50.736 Y-134.26 Z-1.356
X-50.676 Y-133.693 Z-1.375
X-50.667 Y-133.625 Z-1.378
X-50.585 Y-133.075 Z-1.397
X-50.573 Y-133.008 Z-1.4
X-50.47 Y-132.476 Z-1.419
X-50.456 Y-132.411 Z-1.421
X-50.333 Y-131.895 Z-1.439
X-50.318 Y-131.835 Z-1.442
X-50.178 Y-131.335 Z-1.46
X-50.162 Y-131.28 Z-1.462
X-50.007 Y-130.795 Z-1.479
X-49.992 Y-130.748 Z-1.481
X-49.825 Y-130.276 Z-1.499
X-49.812 Y-130.24 Z-1.5
S8000
X-49.81 Y-130.237 F1000
X-49.634 Y-129.777
X-49.621 Y-129.745
X-49.438 Y-129.297
X-49.43 Y-129.276
X-49.243 Y-128.837
X-49.239 Y-128.826
X-49.052 Y-128.396
X-48.87 Y-127.977
X-48.701 Y-127.578
X-48.547 Y-127.197
X-48.411 Y-126.833
X-48.296 Y-126.488
X-48.204 Y-126.16
X-48.136 Y-125.849
X-48.092 Y-125.554
X-48.073 Y-125.272
X-48.079 Y-124.977
X-48.089 Y-124.859
X-48.108 Y-124.721
X-48.134 Y-124.582
X-48.168 Y-124.441
X-48.21 Y-124.296
X-48.261 Y-124.147
X-48.322 Y-123.992
X-48.394 Y-123.833
X-48.476 Y-123.668
X-48.573 Y-123.495
X-48.682 Y-123.316
X-48.803 Y-123.133
X-48.941 Y-122.941
X-49.086 Y-122.752
X-49.445 Y-122.33
X-49.874 Y-121.878
G2 X-49.86 Y-113.283 I4.319 J4.29
X-41.267 Y-113.267 I4.305 J-4.305
G1 X-40.857 Y-113.654
X-40.469 Y-113.977
X-40.297 Y-114.106
X-40.121 Y-114.228
X-39.95 Y-114.337
X-39.78 Y-114.435
X-39.616 Y-114.522
X-39.46 Y-114.596
X-39.304 Y-114.66
X-39.151 Y-114.717
X-39.002 Y-114.764
X-38.854 Y-114.803
X-38.709 Y-114.834
X-38.581 Y-114.855
X-38.264 Y-114.887
X-37.963 Y-114.892
X-37.652 Y-114.871
X-37.323 Y-114.827
X-36.981 Y-114.76
X-36.622 Y-114.67
X-36.246 Y-114.559
X-35.856 Y-114.431
X-35.45 Y-114.285
X-35.027 Y-114.126
X-34.591 Y-113.957
X-34.141 Y-113.784
X-34.135 Y-113.781
X-33.679 Y-113.607
X-33.664 Y-113.601
X-33.202 Y-113.43
X-33.175 Y-113.42
X-32.705 Y-113.256
X-32.672 Y-113.245
X-32.195 Y-113.09
X-32.155 Y-113.078
X-31.669 Y-112.934
X-31.621 Y-112.921
X-31.126 Y-112.791
X-31.072 Y-112.777
X-30.567 Y-112.663
X-30.511 Y-112.652
X-29.995 Y-112.555
X-29.929 Y-112.544
X-29.402 Y-112.468
X-29.339 Y-112.46
X-28.801 Y-112.404
X-28.735 Y-112.399
X-28.184 Y-112.365
X-28.117 Y-112.362
X-27.555 Y-112.351
X-27.493
X-26.931 Y-112.362
X-26.864 Y-112.365
X-26.314 Y-112.399
X-26.248 Y-112.404
X-25.709 Y-112.46
X-25.647 Y-112.468
X-25.12 Y-112.544
X-25.053 Y-112.555
X-24.537 Y-112.652
X-24.481 Y-112.663
X-23.976 Y-112.777
X-23.922 Y-112.791
X-23.427 Y-112.921
X-23.379 Y-112.934
X-22.893 Y-113.078
X-22.854 Y-113.09
X-22.376 Y-113.245
X-22.343 Y-113.256
X-21.874 Y-113.42
X-21.847 Y-113.43
X-21.385 Y-113.601
X-21.369 Y-113.607
X-20.914 Y-113.781
X-20.907 Y-113.784
X-20.458 Y-113.957
X-20.021 Y-114.126
X-19.599 Y-114.285
X-19.192 Y-114.431
X-18.803 Y-114.559
X-18.426 Y-114.67
X-18.068 Y-114.76
X-17.725 Y-114.827
X-17.396 Y-114.871
X-17.085 Y-114.892
X-16.784 Y-114.887
X-16.468 Y-114.855
X-16.339 Y-114.834
X-16.195 Y-114.803
X-16.047 Y-114.764
X-15.898 Y-114.717
X-15.744 Y-114.66
X-15.588 Y-114.596
X-15.432 Y-114.522
X-15.268 Y-114.435
X-15.099 Y-114.337
X-14.928 Y-114.228
X-14.751 Y-114.106
X-14.579 Y-113.977
X-14.191 Y-113.654
X-13.781 Y-113.267
G2 X-5.188 Y-113.284 I4.288 J-4.321
X-5.174 Y-121.878 I-4.305 J-4.304
G1 X-5.603 Y-122.33
X-5.962 Y-122.752
X-6.107 Y-122.941
X-6.245 Y-123.133
X-6.367 Y-123.316
X-6.476 Y-123.495
X-6.572 Y-123.668
X-6.655 Y-123.833
X-6.726 Y-123.992
X-6.788 Y-124.147
X-6.839 Y-124.296
X-6.881 Y-124.441
X-6.914 Y-124.582
X-6.94 Y-124.721
X-6.959 Y-124.859
X-6.97 Y-124.977
X-6.975 Y-125.272
X-6.956 Y-125.554
X-6.913 Y-125.849
X-6.845 Y-126.16
X-6.753 Y-126.488
X-6.638 Y-126.833
X-6.502 Y-127.197
X-6.348 Y-127.578
X-6.178 Y-127.977
X-5.997 Y-128.395
X-5.81 Y-128.826
X-5.805 Y-128.837
X-5.619 Y-129.276
X-5.61 Y-129.297
X-5.427 Y-129.745
X-5.414 Y-129.777
X-5.238 Y-130.237
X-5.224 Y-130.276
X-5.057 Y-130.748
X-5.041 Y-130.795
X-4.886 Y-131.28
X-4.87 Y-131.335
X-4.73 Y-131.835
X-4.715 Y-131.895
X-4.592 Y-132.411
X-4.579 Y-132.475
X-4.475 Y-133.007
X-4.464 Y-133.075
X-4.381 Y-133.625
X-4.373 Y-133.693
X-4.313 Y-134.26
X-4.307 Y-134.329
X-4.271 Y-134.916
X-4.268 Y-134.982
X-4.256 Y-135.587
Y-135.651
X-4.268 Y-136.256
X-4.271 Y-136.322
X-4.307 Y-136.909
X-4.313 Y-136.977
X-4.373 Y-137.545
X-4.381 Y-137.614
X-4.464 Y-138.163
X-4.475 Y-138.231
X-4.579 Y-138.763
X-4.592 Y-138.827
X-4.715 Y-139.343
X-4.73 Y-139.403
X-4.87 Y-139.903
X-4.886 Y-139.958
X-5.041 Y-140.443
X-5.057 Y-140.49
X-5.224 Y-140.962
X-5.238 Y-141.001
X-5.414 Y-141.461
X-5.427 Y-141.493
X-5.61 Y-141.941
X-5.619 Y-141.962
X-5.805 Y-142.401
X-5.81 Y-142.412
X-5.997 Y-142.843
X-6.178 Y-143.261
X-6.348 Y-143.661
X-6.502 Y-144.042
X-6.638 Y-144.406
X-6.753 Y-144.75
X-6.845 Y-145.079
X-6.913 Y-145.389
X-6.956 Y-145.684
X-6.975 Y-145.966
X-6.97 Y-146.261
X-6.959 Y-146.379
X-6.94 Y-146.517
X-6.914 Y-146.656
X-6.881 Y-146.797
X-6.839 Y-146.942
X-6.788 Y-147.091
X-6.726 Y-147.246
X-6.655 Y-147.405
X-6.572 Y-147.57
X-6.476 Y-147.743
X-6.367 Y-147.922
X-6.244 Y-148.107
X-6.107 Y-148.298
X-5.963 Y-148.485
X-5.603 Y-148.909
X-5.175 Y-149.359
G2 X-5.188 Y-157.954 I-4.318 J-4.291
X-13.781 Y-157.971 I-4.305 J4.305
G1 X-14.191 Y-157.584
X-14.579 Y-157.261
X-14.751 Y-157.132
X-14.928 Y-157.01
X-15.099 Y-156.901
X-15.268 Y-156.803
X-15.43 Y-156.717
X-15.588 Y-156.643
X-15.747 Y-156.576
X-15.898 Y-156.521
X-16.047 Y-156.474
X-16.195 Y-156.435
X-16.339 Y-156.404
X-16.468 Y-156.383
X-16.782 Y-156.351
X-17.085 Y-156.347
X-17.398 Y-156.367
X-17.725 Y-156.411
X-18.068 Y-156.478
X-18.426 Y-156.568
X-18.801 Y-156.678
X-19.192 Y-156.808
X-19.6 Y-156.954
X-20.021 Y-157.112
X-20.458 Y-157.281
X-20.907 Y-157.454
X-20.914 Y-157.457
X-21.369 Y-157.631
X-21.385 Y-157.637
X-21.847 Y-157.808
X-21.874 Y-157.818
X-22.343 Y-157.982
X-22.376 Y-157.993
X-22.854 Y-158.148
X-22.893 Y-158.16
X-23.379 Y-158.304
X-23.427 Y-158.317
X-23.922 Y-158.447
X-23.976 Y-158.461
X-24.481 Y-158.575
X-24.537 Y-158.586
X-25.053 Y-158.683
X-25.12 Y-158.694
X-25.647 Y-158.77
X-25.709 Y-158.778
X-26.248 Y-158.834
X-26.314 Y-158.839
X-26.864 Y-158.873
X-26.931 Y-158.876
X-27.493 Y-158.887
X-27.555
X-28.117 Y-158.876
X-28.184 Y-158.873
X-28.735 Y-158.839
X-28.801 Y-158.834
X-29.339 Y-158.778
X-29.402 Y-158.77
X-29.929 Y-158.694
X-29.995 Y-158.683
X-30.511 Y-158.586
X-30.567 Y-158.575
X-31.072 Y-158.461
X-31.126 Y-158.447
X-31.621 Y-158.317
X-31.669 Y-158.304
X-32.155 Y-158.16
X-32.195 Y-158.148
X-32.672 Y-157.993
X-32.705 Y-157.982
X-33.175 Y-157.818
X-33.202 Y-157.808
X-33.664 Y-157.637
X-33.679 Y-157.631
X-34.135 Y-157.457
X-34.141 Y-157.454
X-34.591 Y-157.281
X-35.027 Y-157.112
X-35.448 Y-156.954
X-35.856 Y-156.808
X-36.247 Y-156.678
X-36.622 Y-156.568
X-36.981 Y-156.478
X-37.323 Y-156.411
X-37.65 Y-156.367
X-37.963 Y-156.347
X-38.266 Y-156.351
X-38.581 Y-156.383
X-38.709 Y-156.404
X-38.854 Y-156.435
X-39.002 Y-156.474
X-39.151 Y-156.521
X-39.302 Y-156.577
X-39.46 Y-156.643
X-39.619 Y-156.717
X-39.78 Y-156.803
X-39.95 Y-156.901
X-40.121 Y-157.01
X-40.297 Y-157.132
X-40.469 Y-157.261
X-40.857 Y-157.584
X-41.267 Y-157.971
G2 X-49.86 Y-157.955 I-4.288 J4.321
X-49.874 Y-149.359 I4.305 J4.305
G1 X-49.445 Y-148.909
X-49.086 Y-148.485
X-48.941 Y-148.298
X-48.804 Y-148.106
X-48.682 Y-147.922
X-48.573 Y-147.743
X-48.476 Y-147.57
X-48.394 Y-147.405
X-48.322 Y-147.246
X-48.261 Y-147.091
X-48.21 Y-146.942
X-48.168 Y-146.797
X-48.134 Y-146.656
X-48.108 Y-146.517
X-48.089 Y-146.379
X-48.079 Y-146.261
X-48.073 Y-145.966
X-48.092 Y-145.684
X-48.136 Y-145.389
X-48.204 Y-145.079
X-48.296 Y-144.75
X-48.411 Y-144.406
X-48.547 Y-144.042
X-48.701 Y-143.661
X-48.87 Y-143.261
X-49.052 Y-142.842
X-49.239 Y-142.412
X-49.243 Y-142.401
X-49.43 Y-141.962
X-49.438 Y-141.941
X-49.621 Y-141.493
X-49.634 Y-141.461
X-49.81 Y-141.001
X-49.825 Y-140.962
X-49.992 Y-140.49
X-50.007 Y-140.443
X-50.162 Y-139.958
X-50.178 Y-139.903
X-50.318 Y-139.403
X-50.333 Y-139.343
X-50.456 Y-138.827
X-50.47 Y-138.762
X-50.573 Y-138.23
X-50.585 Y-138.163
X-50.667 Y-137.614
X-50.676 Y-137.545
X-50.736 Y-136.977
X-50.741 Y-136.909
X-50.778 Y-136.322
X-50.78 Y-136.256
X-50.793 Y-135.651
Y-135.587
X-50.78 Y-134.982
X-50.778 Y-134.916
X-50.741 Y-134.329
X-50.736 Y-134.26
X-50.676 Y-133.693
X-50.667 Y-133.625
X-50.585 Y-133.075
X-50.573 Y-133.008
X-50.47 Y-132.476
X-50.456 Y-132.411
X-50.333 Y-131.895
X-50.318 Y-131.835
X-50.178 Y-131.335
X-50.162 Y-131.28
X-50.007 Y-130.795
X-49.992 Y-130.748
X-49.825 Y-130.276
X-49.812 Y-130.24
S5000
X-49.634 Y-129.777 Z-1.517 F333.3
X-49.621 Y-129.745 Z-1.518
X-49.438 Y-129.297 Z-1.535
X-49.43 Y-129.276 Z-1.536
X-49.243 Y-128.837 Z-1.553
X-49.239 Y-128.826
X-49.052 Y-128.396 Z-1.57
X-48.87 Y-127.977 Z-1.585
X-48.701 Y-127.578 Z-1.601
X-48.547 Y-127.197 Z-1.615
X-48.411 Y-126.833 Z-1.629
X-48.296 Y-126.488 Z-1.641
X-48.204 Y-126.16 Z-1.653
X-48.136 Y-125.849 Z-1.664
X-48.092 Y-125.554 Z-1.675
X-48.073 Y-125.272 Z-1.685
X-48.079 Y-124.977 Z-1.695
X-48.089 Y-124.859 Z-1.699
X-48.108 Y-124.721 Z-1.704
X-48.134 Y-124.582 Z-1.709
X-48.168 Y-124.441 Z-1.714
X-48.21 Y-124.296 Z-1.719
X-48.261 Y-124.147 Z-1.725
X-48.322 Y-123.992 Z-1.73
X-48.394 Y-123.833 Z-1.737
X-48.476 Y-123.668 Z-1.743
X-48.573 Y-123.495 Z-1.75
X-48.682 Y-123.316 Z-1.757
X-48.803 Y-123.133 Z-1.765
X-48.941 Y-122.941 Z-1.773
X-49.086 Y-122.752 Z-1.781
X-49.43 Y-122.347 Z-1.8
S8000
X-49.445 Y-122.33 F1000
X-49.874 Y-121.878
G2 X-49.86 Y-113.283 I4.319 J4.29
X-41.267 Y-113.267 I4.305 J-4.305
G1 X-40.857 Y-113.654
X-40.469 Y-113.977
X-40.297 Y-114.106
X-40.121 Y-114.228
X-39.95 Y-114.337
X-39.78 Y-114.435
X-39.616 Y-114.522
X-39.46 Y-114.596
X-39.304 Y-114.66
X-39.151 Y-114.717
X-39.002 Y-114.764
X-38.854 Y-114.803
X-38.709 Y-114.834
X-38.581 Y-114.855
X-38.264 Y-114.887
X-37.963 Y-114.892
X-37.652 Y-114.871
X-37.323 Y-114.827
X-36.981 Y-114.76
X-36.622 Y-114.67
X-36.246 Y-114.559
X-35.856 Y-114.431
X-35.45 Y-114.285
X-35.027 Y-114.126
X-34.591 Y-113.957
X-34.141 Y-113.784
X-34.135 Y-113.781
X-33.679 Y-113.607
X-33.664 Y-113.601
X-33.202 Y-113.43
X-33.175 Y-113.42
X-32.705 Y-113.256
X-32.672 Y-113.245
X-32.195 Y-113.09
X-32.155 Y-113.078
X-31.669 Y-112.934
X-31.621 Y-112.921
X-31.126 Y-112.791
X-31.072 Y-112.777
X-30.567 Y-112.663
X-30.511 Y-112.652
X-29.995 Y-112.555
X-29.929 Y-112.544
X-29.402 Y-112.468
X-29.339 Y-112.46
X-28.801 Y-112.404
X-28.735 Y-112.399
X-28.184 Y-112.365
X-28.117 Y-112.362
X-27.555 Y-112.351
X-27.493
X-26.931 Y-112.362
X-26.864 Y-112.365
X-26.314 Y-112.399
X-26.248 Y-112.404
X-25.709 Y-112.46
X-25.647 Y-112.468
X-25.12 Y-112.544
X-25.053 Y-112.555
X-24.537 Y-112.652
X-24.481 Y-112.663
X-23.976 Y-112.777
X-23.922 Y-112.791
X-23.427 Y-112.921
X-23.379 Y-112.934
X-22.893 Y-113.078
X-22.854 Y-113.09
X-22.376 Y-113.245
X-22.343 Y-113.256
X-21.874 Y-113.42
X-21.847 Y-113.43
X-21.385 Y-113.601
X-21.369 Y-113.607
X-20.914 Y-113.781
X-20.907 Y-113.784
X-20.458 Y-113.957
X-20.021 Y-114.126
X-19.599 Y-114.285
X-19.192 Y-114.431
X-18.803 Y-114.559
X-18.426 Y-114.67
X-18.068 Y-114.76
X-17.725 Y-114.827
X-17.396 Y-114.871
X-17.085 Y-114.892
X-16.784 Y-114.887
X-16.468 Y-114.855
X-16.339 Y-114.834
X-16.195 Y-114.803
X-16.047 Y-114.764
X-15.898 Y-114.717
X-15.744 Y-114.66
X-15.588 Y-114.596
X-15.432 Y-114.522
X-15.268 Y-114.435
X-15.099 Y-114.337
X-14.928 Y-114.228
X-14.751 Y-114.106
X-14.579 Y-113.977
X-14.191 Y-113.654
X-13.781 Y-113.267
G2 X-5.188 Y-113.284 I4.288 J-4.321
X-5.174 Y-121.878 I-4.305 J-4.304
G1 X-5.603 Y-122.33
X-5.962 Y-122.752
X-6.107 Y-122.941
X-6.245 Y-123.133
X-6.367 Y-123.316
X-6.476 Y-123.495
X-6.572 Y-123.668
X-6.655 Y-123.833
X-6.726 Y-123.992
X-6.788 Y-124.147
X-6.839 Y-124.296
X-6.881 Y-124.441
X-6.914 Y-124.582
X-6.94 Y-124.721
X-6.959 Y-124.859
X-6.97 Y-124.977
X-6.975 Y-125.272
X-6.956 Y-125.554
X-6.913 Y-125.849
X-6.845 Y-126.16
X-6.753 Y-126.488
X-6.638 Y-126.833
X-6.502 Y-127.197
X-6.348 Y-127.578
X-6.178 Y-127.977
X-5.997 Y-128.395
X-5.81 Y-128.826
X-5.805 Y-128.837
X-5.619 Y-129.276
X-5.61 Y-129.297
X-5.427 Y-129.745
X-5.414 Y-129.777
X-5.238 Y-130.237
X-5.224 Y-130.276
X-5.057 Y-130.748
X-5.041 Y-130.795
X-4.886 Y-131.28
X-4.87 Y-131.335
X-4.73 Y-131.835
X-4.715 Y-131.895
X-4.592 Y-132.411
X-4.579 Y-132.475
X-4.475 Y-133.007
X-4.464 Y-133.075
X-4.381 Y-133.625
X-4.373 Y-133.693
X-4.313 Y-134.26
X-4.307 Y-134.329
X-4.271 Y-134.916
X-4.268 Y-134.982
X-4.256 Y-135.587
Y-135.651
X-4.268 Y-136.256
X-4.271 Y-136.322
X-4.307 Y-136.909
X-4.313 Y-136.977
X-4.373 Y-137.545
X-4.381 Y-137.614
X-4.464 Y-138.163
X-4.475 Y-138.231
X-4.579 Y-138.763
X-4.592 Y-138.827
X-4.715 Y-139.343
X-4.73 Y-139.403
X-4.87 Y-139.903
X-4.886 Y-139.958
X-5.041 Y-140.443
X-5.057 Y-140.49
X-5.224 Y-140.962
X-5.238 Y-141.001
X-5.414 Y-141.461
X-5.427 Y-141.493
X-5.61 Y-141.941
X-5.619 Y-141.962
X-5.805 Y-142.401
X-5.81 Y-142.412
X-5.997 Y-142.843
X-6.178 Y-143.261
X-6.348 Y-143.661
X-6.502 Y-144.042
X-6.638 Y-144.406
X-6.753 Y-144.75
X-6.845 Y-145.079
X-6.913 Y-145.389
X-6.956 Y-145.684
X-6.975 Y-145.966
X-6.97 Y-146.261
X-6.959 Y-146.379
X-6.94 Y-146.517
X-6.914 Y-146.656
X-6.881 Y-146.797
X-6.839 Y-146.942
X-6.788 Y-147.091
X-6.726 Y-147.246
X-6.655 Y-147.405
X-6.572 Y-147.57
X-6.476 Y-147.743
X-6.367 Y-147.922
X-6.244 Y-148.107
X-6.107 Y-148.298
X-5.963 Y-148.485
X-5.603 Y-148.909
X-5.175 Y-149.359
G2 X-5.188 Y-157.954 I-4.318 J-4.291
X-13.781 Y-157.971 I-4.305 J4.305
G1 X-14.191 Y-157.584
X-14.579 Y-157.261
X-14.751 Y-157.132
X-14.928 Y-157.01
X-15.099 Y-156.901
X-15.268 Y-156.803
X-15.43 Y-156.717
X-15.588 Y-156.643
X-15.747 Y-156.576
X-15.898 Y-156.521
X-16.047 Y-156.474
X-16.195 Y-156.435
X-16.339 Y-156.404
X-16.468 Y-156.383
X-16.782 Y-156.351
X-17.085 Y-156.347
X-17.398 Y-156.367
X-17.725 Y-156.411
X-18.068 Y-156.478
X-18.426 Y-156.568
X-18.801 Y-156.678
X-19.192 Y-156.808
X-19.6 Y-156.954
X-20.021 Y-157.112
X-20.458 Y-157.281
X-20.907 Y-157.454
X-20.914 Y-157.457
X-21.369 Y-157.631
X-21.385 Y-157.637
X-21.847 Y-157.808
X-21.874 Y-157.818
X-22.343 Y-157.982
X-22.376 Y-157.993
X-22.854 Y-158.148
X-22.893 Y-158.16
X-23.379 Y-158.304
X-23.427 Y-158.317
X-23.922 Y-158.447
X-23.976 Y-158.461
X-24.481 Y-158.575
X-24.537 Y-158.586
X-25.053 Y-158.683
X-25.12 Y-158.694
X-25.647 Y-158.77
X-25.709 Y-158.778
X-26.248 Y-158.834
X-26.314 Y-158.839
X-26.864 Y-158.873
X-26.931 Y-158.876
X-27.493 Y-158.887
X-27.555
X-28.117 Y-158.876
X-28.184 Y-158.873
X-28.735 Y-158.839
X-28.801 Y-158.834
X-29.339 Y-158.778
X-29.402 Y-158.77
X-29.929 Y-158.694
X-29.995 Y-158.683
X-30.511 Y-158.586
X-30.567 Y-158.575
X-31.072 Y-158.461
X-31.126 Y-158.447
X-31.621 Y-158.317
X-31.669 Y-158.304
X-32.155 Y-158.16
X-32.195 Y-158.148
X-32.672 Y-157.993
X-32.705 Y-157.982
X-33.175 Y-157.818
X-33.202 Y-157.808
X-33.664 Y-157.637
X-33.679 Y-157.631
X-34.135 Y-157.457
X-34.141 Y-157.454
X-34.591 Y-157.281
X-35.027 Y-157.112
X-35.448 Y-156.954
X-35.856 Y-156.808
X-36.247 Y-156.678
X-36.622 Y-156.568
X-36.981 Y-156.478
X-37.323 Y-156.411
X-37.65 Y-156.367
X-37.963 Y-156.347
X-38.266 Y-156.351
X-38.581 Y-156.383
X-38.709 Y-156.404
X-38.854 Y-156.435
X-39.002 Y-156.474
X-39.151 Y-156.521
X-39.302 Y-156.577
X-39.46 Y-156.643
X-39.619 Y-156.717
X-39.78 Y-156.803
X-39.95 Y-156.901
X-40.121 Y-157.01
X-40.297 Y-157.132
X-40.469 Y-157.261
X-40.857 Y-157.584
X-41.267 Y-157.971
G2 X-49.86 Y-157.955 I-4.288 J4.321
X-49.874 Y-149.359 I4.305 J4.305
G1 X-49.445 Y-148.909
X-49.086 Y-148.485
X-48.941 Y-148.298
X-48.804 Y-148.106
X-48.682 Y-147.922
X-48.573 Y-147.743
X-48.476 Y-147.57
X-48.394 Y-147.405
X-48.322 Y-147.246
X-48.261 Y-147.091
X-48.21 Y-146.942
X-48.168 Y-146.797
X-48.134 Y-146.656
X-48.108 Y-146.517
X-48.089 Y-146.379
X-48.079 Y-146.261
X-48.073 Y-145.966
X-48.092 Y-145.684
X-48.136 Y-145.389
X-48.204 Y-145.079
X-48.296 Y-144.75
X-48.411 Y-144.406
X-48.547 Y-144.042
X-48.701 Y-143.661
X-48.87 Y-143.261
X-49.052 Y-142.842
X-49.239 Y-142.412
X-49.243 Y-142.401
X-49.43 Y-141.962
X-49.438 Y-141.941
X-49.621 Y-141.493
X-49.634 Y-141.461
X-49.81 Y-141.001
X-49.825 Y-140.962
X-49.992 Y-140.49
X-50.007 Y-140.443
X-50.162 Y-139.958
X-50.178 Y-139.903
X-50.318 Y-139.403
X-50.333 Y-139.343
X-50.456 Y-138.827
X-50.47 Y-138.762
X-50.573 Y-138.23
X-50.585 Y-138.163
X-50.667 Y-137.614
X-50.676 Y-137.545
X-50.736 Y-136.977
X-50.741 Y-136.909
X-50.778 Y-136.322
X-50.78 Y-136.256
X-50.793 Y-135.651
Y-135.587
X-50.78 Y-134.982
X-50.778 Y-134.916
X-50.741 Y-134.329
X-50.736 Y-134.26
X-50.676 Y-133.693
X-50.667 Y-133.625
X-50.585 Y-133.075
X-50.573 Y-133.008
X-50.47 Y-132.476
X-50.456 Y-132.411
X-50.333 Y-131.895
X-50.318 Y-131.835
X-50.178 Y-131.335
X-50.162 Y-131.28
X-50.007 Y-130.795
X-49.992 Y-130.748
X-49.825 Y-130.276
X-49.81 Y-130.237
X-49.634 Y-129.777
X-49.621 Y-129.745
X-49.438 Y-129.297
X-49.43 Y-129.276
X-49.243 Y-128.837
X-49.239 Y-128.826
X-49.052 Y-128.396
X-48.87 Y-127.977
X-48.701 Y-127.578
X-48.547 Y-127.197
X-48.411 Y-126.833
X-48.296 Y-126.488
X-48.204 Y-126.16
X-48.136 Y-125.849
X-48.092 Y-125.554
X-48.073 Y-125.272
X-48.079 Y-124.977
X-48.089 Y-124.859
X-48.108 Y-124.721
X-48.134 Y-124.582
X-48.168 Y-124.441
X-48.21 Y-124.296
X-48.261 Y-124.147
X-48.322 Y-123.992
X-48.394 Y-123.833
X-48.476 Y-123.668
X-48.573 Y-123.495
X-48.682 Y-123.316
X-48.803 Y-123.133
X-48.941 Y-122.941
X-49.086 Y-122.752
X-49.43 Y-122.347
S5000
X-49.445 Y-122.33 Z-1.801 F333.3
X-49.874 Y-121.878 Z-1.823
G2 X-50.829 Y-114.547 Z-2.1 I4.319 J4.29
S8000
X-49.86 Y-113.283 I5.274 J-3.041 F1000
X-41.267 Y-113.267 I4.305 J-4.305
G1 X-40.857 Y-113.654
X-40.469 Y-113.977
X-40.297 Y-114.106
X-40.121 Y-114.228
X-39.95 Y-114.337
X-39.78 Y-114.435
X-39.616 Y-114.522
X-39.46 Y-114.596
X-39.304 Y-114.66
X-39.151 Y-114.717
X-39.002 Y-114.764
X-38.854 Y-114.803
X-38.709 Y-114.834
X-38.581 Y-114.855
X-38.264 Y-114.887
X-37.963 Y-114.892
X-37.652 Y-114.871
X-37.323 Y-114.827
X-36.981 Y-114.76
X-36.622 Y-114.67
X-36.246 Y-114.559
X-35.856 Y-114.431
X-35.45 Y-114.285
X-35.027 Y-114.126
X-34.591 Y-113.957
X-34.141 Y-113.784
X-34.135 Y-113.781
X-33.679 Y-113.607
X-33.664 Y-113.601
X-33.202 Y-113.43
X-33.175 Y-113.42
X-32.705 Y-113.256
X-32.672 Y-113.245
X-32.195 Y-113.09
X-32.155 Y-113.078
X-31.669 Y-112.934
X-31.621 Y-112.921
X-31.126 Y-112.791
X-31.072 Y-112.777
X-30.567 Y-112.663
X-30.511 Y-112.652
X-29.995 Y-112.555
X-29.929 Y-112.544
X-29.402 Y-112.468
X-29.339 Y-112.46
X-28.801 Y-112.404
X-28.735 Y-112.399
X-28.184 Y-112.365
X-28.117 Y-112.362
X-27.555 Y-112.351
X-27.493
X-26.931 Y-112.362
X-26.864 Y-112.365
X-26.314 Y-112.399
X-26.248 Y-112.404
X-25.709 Y-112.46
X-25.647 Y-112.468
X-25.12 Y-112.544
X-25.053 Y-112.555
X-24.537 Y-112.652
X-24.481 Y-112.663
X-23.976 Y-112.777
X-23.922 Y-112.791
X-23.427 Y-112.921
X-23.379 Y-112.934
X-22.893 Y-113.078
X-22.854 Y-113.09
X-22.376 Y-113.245
X-22.343 Y-113.256
X-21.874 Y-113.42
X-21.847 Y-113.43
X-21.385 Y-113.601
X-21.369 Y-113.607
X-20.914 Y-113.781
X-20.907 Y-113.784
X-20.458 Y-113.957
X-20.021 Y-114.126
X-19.599 Y-114.285
X-19.192 Y-114.431
X-18.803 Y-114.559
X-18.426 Y-114.67
X-18.068 Y-114.76
X-17.725 Y-114.827
X-17.396 Y-114.871
X-17.085 Y-114.892
X-16.784 Y-114.887
X-16.468 Y-114.855
X-16.339 Y-114.834
X-16.195 Y-114.803
X-16.047 Y-114.764
X-15.898 Y-114.717
X-15.744 Y-114.66
X-15.588 Y-114.596
X-15.432 Y-114.522
X-15.268 Y-114.435
X-15.099 Y-114.337
X-14.928 Y-114.228
X-14.751 Y-114.106
X-14.579 Y-113.977
X-14.191 Y-113.654
X-13.781 Y-113.267
G2 X-5.188 Y-113.284 I4.288 J-4.321
X-5.174 Y-121.878 I-4.305 J-4.304
G1 X-5.603 Y-122.33
X-5.962 Y-122.752
X-6.107 Y-122.941
X-6.245 Y-123.133
X-6.367 Y-123.316
X-6.476 Y-123.495
X-6.572 Y-123.668
X-6.655 Y-123.833
X-6.726 Y-123.992
X-6.788 Y-124.147
X-6.839 Y-124.296
X-6.881 Y-124.441
X-6.914 Y-124.582
X-6.94 Y-124.721
X-6.959 Y-124.859
X-6.97 Y-124.977
X-6.975 Y-125.272
X-6.956 Y-125.554
X-6.913 Y-125.849
X-6.845 Y-126.16
X-6.753 Y-126.488
X-6.638 Y-126.833
X-6.502 Y-127.197
X-6.348 Y-127.578
X-6.178 Y-127.977
X-5.997 Y-128.395
X-5.81 Y-128.826
X-5.805 Y-128.837
X-5.619 Y-129.276
X-5.61 Y-129.297
X-5.427 Y-129.745
X-5.414 Y-129.777
X-5.238 Y-130.237
X-5.224 Y-130.276
X-5.057 Y-130.748
X-5.041 Y-130.795
X-4.886 Y-131.28
X-4.87 Y-131.335
X-4.73 Y-131.835
X-4.715 Y-131.895
X-4.592 Y-132.411
X-4.579 Y-132.475
X-4.475 Y-133.007
X-4.464 Y-133.075
X-4.381 Y-133.625
X-4.373 Y-133.693
X-4.313 Y-134.26
X-4.307 Y-134.329
X-4.271 Y-134.916
X-4.268 Y-134.982
X-4.256 Y-135.587
Y-135.651
X-4.268 Y-136.256
X-4.271 Y-136.322
X-4.307 Y-136.909
X-4.313 Y-136.977
X-4.373 Y-137.545
X-4.381 Y-137.614
X-4.464 Y-138.163
X-4.475 Y-138.231
X-4.579 Y-138.763
X-4.592 Y-138.827
X-4.715 Y-139.343
X-4.73 Y-139.403
X-4.87 Y-139.903
X-4.886 Y-139.958
X-5.041 Y-140.443
X-5.057 Y-140.49
X-5.224 Y-140.962
X-5.238 Y-141.001
X-5.414 Y-141.461
X-5.427 Y-141.493
X-5.61 Y-141.941
X-5.619 Y-141.962
X-5.805 Y-142.401
X-5.81 Y-142.412
X-5.997 Y-142.843
X-6.178 Y-143.261
X-6.348 Y-143.661
X-6.502 Y-144.042
X-6.638 Y-144.406
X-6.753 Y-144.75
X-6.845 Y-145.079
X-6.913 Y-145.389
X-6.956 Y-145.684
X-6.975 Y-145.966
X-6.97 Y-146.261
X-6.959 Y-146.379
X-6.94 Y-146.517
X-6.914 Y-146.656
X-6.881 Y-146.797
X-6.839 Y-146.942
X-6.788 Y-147.091
X-6.726 Y-147.246
X-6.655 Y-147.405
X-6.572 Y-147.57
X-6.476 Y-147.743
X-6.367 Y-147.922
X-6.244 Y-148.107
X-6.107 Y-148.298
X-5.963 Y-148.485
X-5.603 Y-148.909
X-5.175 Y-149.359
G2 X-5.188 Y-157.954 I-4.318 J-4.291
X-13.781 Y-157.971 I-4.305 J4.305
G1 X-14.191 Y-157.584
X-14.579 Y-157.261
X-14.751 Y-157.132
X-14.928 Y-157.01
X-15.099 Y-156.901
X-15.268 Y-156.803
X-15.43 Y-156.717
X-15.588 Y-156.643
X-15.747 Y-156.576
X-15.898 Y-156.521
X-16.047 Y-156.474
X-16.195 Y-156.435
X-16.339 Y-156.404
X-16.468 Y-156.383
X-16.782 Y-156.351
X-17.085 Y-156.347
X-17.398 Y-156.367
X-17.725 Y-156.411
X-18.068 Y-156.478
X-18.426 Y-156.568
X-18.801 Y-156.678
X-19.192 Y-156.808
X-19.6 Y-156.954
X-20.021 Y-157.112
X-20.458 Y-157.281
X-20.907 Y-157.454
X-20.914 Y-157.457
X-21.369 Y-157.631
X-21.385 Y-157.637
X-21.847 Y-157.808
X-21.874 Y-157.818
X-22.343 Y-157.982
X-22.376 Y-157.993
X-22.854 Y-158.148
X-22.893 Y-158.16
X-23.379 Y-158.304
X-23.427 Y-158.317
X-23.922 Y-158.447
X-23.976 Y-158.461
X-24.481 Y-158.575
X-24.537 Y-158.586
X-25.053 Y-158.683
X-25.12 Y-158.694
X-25.647 Y-158.77
X-25.709 Y-158.778
X-26.248 Y-158.834
X-26.314 Y-158.839
X-26.864 Y-158.873
X-26.931 Y-158.876
X-27.493 Y-158.887
X-27.555
X-28.117 Y-158.876
X-28.184 Y-158.873
X-28.735 Y-158.839
X-28.801 Y-158.834
X-29.339 Y-158.778
X-29.402 Y-158.77
X-29.929 Y-158.694
X-29.995 Y-158.683
X-30.511 Y-158.586
X-30.567 Y-158.575
X-31.072 Y-158.461
X-31.126 Y-158.447
X-31.621 Y-158.317
X-31.669 Y-158.304
X-32.155 Y-158.16
X-32.195 Y-158.148
X-32.672 Y-157.993
X-32.705 Y-157.982
X-33.175 Y-157.818
X-33.202 Y-157.808
X-33.664 Y-157.637
X-33.679 Y-157.631
X-34.135 Y-157.457
X-34.141 Y-157.454
X-34.591 Y-157.281
X-35.027 Y-157.112
X-35.448 Y-156.954
X-35.856 Y-156.808
X-36.247 Y-156.678
X-36.622 Y-156.568
X-36.981 Y-156.478
X-37.323 Y-156.411
X-37.65 Y-156.367
X-37.963 Y-156.347
X-38.266 Y-156.351
X-38.581 Y-156.383
X-38.709 Y-156.404
X-38.854 Y-156.435
X-39.002 Y-156.474
X-39.151 Y-156.521
X-39.302 Y-156.577
X-39.46 Y-156.643
X-39.619 Y-156.717
X-39.78 Y-156.803
X-39.95 Y-156.901
X-40.121 Y-157.01
X-40.297 Y-157.132
X-40.469 Y-157.261
X-40.857 Y-157.584
X-41.267 Y-157.971
G2 X-49.86 Y-157.955 I-4.288 J4.321
X-49.874 Y-149.359 I4.305 J4.305
G1 X-49.445 Y-148.909
X-49.086 Y-148.485
X-48.941 Y-148.298
X-48.804 Y-148.106
X-48.682 Y-147.922
X-48.573 Y-147.743
X-48.476 Y-147.57
X-48.394 Y-147.405
X-48.322 Y-147.246
X-48.261 Y-147.091
X-48.21 Y-146.942
X-48.168 Y-146.797
X-48.134 Y-146.656
X-48.108 Y-146.517
X-48.089 Y-146.379
X-48.079 Y-146.261
X-48.073 Y-145.966
X-48.092 Y-145.684
X-48.136 Y-145.389
X-48.204 Y-145.079
X-48.296 Y-144.75
X-48.411 Y-144.406
X-48.547 Y-144.042
X-48.701 Y-143.661
X-48.87 Y-143.261
X-49.052 Y-142.842
X-49.239 Y-142.412
X-49.243 Y-142.401
X-49.43 Y-141.962
X-49.438 Y-141.941
X-49.621 Y-141.493
X-49.634 Y-141.461
X-49.81 Y-141.001
X-49.825 Y-140.962
X-49.992 Y-140.49
X-50.007 Y-140.443
X-50.162 Y-139.958
X-50.178 Y-139.903
X-50.318 Y-139.403
X-50.333 Y-139.343
X-50.456 Y-138.827
X-50.47 Y-138.762
X-50.573 Y-138.23
X-50.585 Y-138.163
X-50.667 Y-137.614
X-50.676 Y-137.545
X-50.736 Y-136.977
X-50.741 Y-136.909
X-50.778 Y-136.322
X-50.78 Y-136.256
X-50.793 Y-135.651
Y-135.587
X-50.78 Y-134.982
X-50.778 Y-134.916
X-50.741 Y-134.329
X-50.736 Y-134.26
X-50.676 Y-133.693
X-50.667 Y-133.625
X-50.585 Y-133.075
X-50.573 Y-133.008
X-50.47 Y-132.476
X-50.456 Y-132.411
X-50.333 Y-131.895
X-50.318 Y-131.835
X-50.178 Y-131.335
X-50.162 Y-131.28
X-50.007 Y-130.795
X-49.992 Y-130.748
X-49.825 Y-130.276
X-49.81 Y-130.237
X-49.634 Y-129.777
X-49.621 Y-129.745
X-49.438 Y-129.297
X-49.43 Y-129.276
X-49.243 Y-128.837
X-49.239 Y-128.826
X-49.052 Y-128.396
X-48.87 Y-127.977
X-48.701 Y-127.578
X-48.547 Y-127.197
X-48.411 Y-126.833
X-48.296 Y-126.488
X-48.204 Y-126.16
X-48.136 Y-125.849
X-48.092 Y-125.554
X-48.073 Y-125.272
X-48.079 Y-124.977
X-48.089 Y-124.859
X-48.108 Y-124.721
X-48.134 Y-124.582
X-48.168 Y-124.441
X-48.21 Y-124.296
X-48.261 Y-124.147
X-48.322 Y-123.992
X-48.394 Y-123.833
X-48.476 Y-123.668
X-48.573 Y-123.495
X-48.682 Y-123.316
X-48.803 Y-123.133
X-48.941 Y-122.941
X-49.086 Y-122.752
X-49.43 Y-122.347
X-49.445 Y-122.33
X-49.874 Y-121.878
G2 X-50.829 Y-114.547 I4.319 J4.29
S5000
X-49.86 Y-113.283 Z-2.156 I5.274 J-3.041 F333.3
X-43.391 Y-111.898 Z-2.4 I4.305 J-4.305
S8000
X-41.267 Y-113.267 I-2.164 J-5.69 F1000
G1 X-40.857 Y-113.654
X-40.469 Y-113.977
X-40.297 Y-114.106
X-40.121 Y-114.228
X-39.95 Y-114.337
X-39.78 Y-114.435
X-39.616 Y-114.522
X-39.46 Y-114.596
X-39.304 Y-114.66
X-39.151 Y-114.717
X-39.002 Y-114.764
X-38.854 Y-114.803
X-38.709 Y-114.834
X-38.581 Y-114.855
X-38.264 Y-114.887
X-37.963 Y-114.892
X-37.652 Y-114.871
X-37.323 Y-114.827
X-36.981 Y-114.76
X-36.622 Y-114.67
X-36.246 Y-114.559
X-35.856 Y-114.431
X-35.45 Y-114.285
X-35.027 Y-114.126
X-34.591 Y-113.957
X-34.141 Y-113.784
X-34.135 Y-113.781
X-33.679 Y-113.607
X-33.664 Y-113.601
X-33.202 Y-113.43
X-33.175 Y-113.42
X-32.705 Y-113.256
X-32.672 Y-113.245
X-32.195 Y-113.09
X-32.155 Y-113.078
X-31.669 Y-112.934
X-31.621 Y-112.921
X-31.126 Y-112.791
X-31.072 Y-112.777
X-30.567 Y-112.663
X-30.511 Y-112.652
X-29.995 Y-112.555
X-29.929 Y-112.544
X-29.402 Y-112.468
X-29.339 Y-112.46
X-28.801 Y-112.404
X-28.735 Y-112.399
X-28.184 Y-112.365
X-28.117 Y-112.362
X-27.555 Y-112.351
X-27.493
X-26.931 Y-112.362
X-26.864 Y-112.365
X-26.314 Y-112.399
X-26.248 Y-112.404
X-25.709 Y-112.46
X-25.647 Y-112.468
X-25.12 Y-112.544
X-25.053 Y-112.555
X-24.537 Y-112.652
X-24.481 Y-112.663
X-23.976 Y-112.777
X-23.922 Y-112.791
X-23.427 Y-112.921
X-23.379 Y-112.934
X-22.893 Y-113.078
X-22.854 Y-113.09
X-22.376 Y-113.245
X-22.343 Y-113.256
X-21.874 Y-113.42
X-21.847 Y-113.43
X-21.385 Y-113.601
X-21.369 Y-113.607
X-20.914 Y-113.781
X-20.907 Y-113.784
X-20.458 Y-113.957
X-20.021 Y-114.126
X-19.599 Y-114.285
X-19.192 Y-114.431
X-18.803 Y-114.559
X-18.426 Y-114.67
X-18.068 Y-114.76
X-17.725 Y-114.827
X-17.396 Y-114.871
X-17.085 Y-114.892
X-16.784 Y-114.887
X-16.468 Y-114.855
X-16.339 Y-114.834
X-16.195 Y-114.803
X-16.047 Y-114.764
X-15.898 Y-114.717
X-15.744 Y-114.66
X-15.588 Y-114.596
X-15.432 Y-114.522
X-15.268 Y-114.435
X-15.099 Y-114.337
X-14.928 Y-114.228
X-14.751 Y-114.106
X-14.579 Y-113.977
X-14.191 Y-113.654
X-13.781 Y-113.267
G2 X-5.188 Y-113.284 I4.288 J-4.321
X-5.174 Y-121.878 I-4.305 J-4.304
G1 X-5.603 Y-122.33
X-5.962 Y-122.752
X-6.107 Y-122.941
X-6.245 Y-123.133
X-6.367 Y-123.316
X-6.476 Y-123.495
X-6.572 Y-123.668
X-6.655 Y-123.833
X-6.726 Y-123.992
X-6.788 Y-124.147
X-6.839 Y-124.296
X-6.881 Y-124.441
X-6.914 Y-124.582
X-6.94 Y-124.721
X-6.959 Y-124.859
X-6.97 Y-124.977
X-6.975 Y-125.272
X-6.956 Y-125.554
X-6.913 Y-125.849
X-6.845 Y-126.16
X-6.753 Y-126.488
X-6.638 Y-126.833
X-6.502 Y-127.197
X-6.348 Y-127.578
X-6.178 Y-127.977
X-5.997 Y-128.395
X-5.81 Y-128.826
X-5.805 Y-128.837
X-5.619 Y-129.276
X-5.61 Y-129.297
X-5.427 Y-129.745
X-5.414 Y-129.777
X-5.238 Y-130.237
X-5.224 Y-130.276
X-5.057 Y-130.748
X-5.041 Y-130.795
X-4.886 Y-131.28
X-4.87 Y-131.335
X-4.73 Y-131.835
X-4.715 Y-131.895
X-4.592 Y-132.411
X-4.579 Y-132.475
X-4.475 Y-133.007
X-4.464 Y-133.075
X-4.381 Y-133.625
X-4.373 Y-133.693
X-4.313 Y-134.26
X-4.307 Y-134.329
X-4.271 Y-134.916
X-4.268 Y-134.982
X-4.256 Y-135.587
Y-135.651
X-4.268 Y-136.256
X-4.271 Y-136.322
X-4.307 Y-136.909
X-4.313 Y-136.977
X-4.373 Y-137.545
X-4.381 Y-137.614
X-4.464 Y-138.163
X-4.475 Y-138.231
X-4.579 Y-138.763
X-4.592 Y-138.827
X-4.715 Y-139.343
X-4.73 Y-139.403
X-4.87 Y-139.903
X-4.886 Y-139.958
X-5.041 Y-140.443
X-5.057 Y-140.49
X-5.224 Y-140.962
X-5.238 Y-141.001
X-5.414 Y-141.461
X-5.427 Y-141.493
X-5.61 Y-141.941
X-5.619 Y-141.962
X-5.805 Y-142.401
X-5.81 Y-142.412
X-5.997 Y-142.843
X-6.178 Y-143.261
X-6.348 Y-143.661
X-6.502 Y-144.042
X-6.638 Y-144.406
X-6.753 Y-144.75
X-6.845 Y-145.079
X-6.913 Y-145.389
X-6.956 Y-145.684
X-6.975 Y-145.966
X-6.97 Y-146.261
X-6.959 Y-146.379
X-6.94 Y-146.517
X-6.914 Y-146.656
X-6.881 Y-146.797
X-6.839 Y-146.942
X-6.788 Y-147.091
X-6.726 Y-147.246
X-6.655 Y-147.405
X-6.572 Y-147.57
X-6.476 Y-147.743
X-6.367 Y-147.922
X-6.244 Y-148.107
X-6.107 Y-148.298
X-5.963 Y-148.485
X-5.603 Y-148.909
X-5.175 Y-149.359
G2 X-5.188 Y-157.954 I-4.318 J-4.291
X-13.781 Y-157.971 I-4.305 J4.305
G1 X-14.191 Y-157.584
X-14.579 Y-157.261
X-14.751 Y-157.132
X-14.928 Y-157.01
X-15.099 Y-156.901
X-15.268 Y-156.803
X-15.43 Y-156.717
X-15.588 Y-156.643
X-15.747 Y-156.576
X-15.898 Y-156.521
X-16.047 Y-156.474
X-16.195 Y-156.435
X-16.339 Y-156.404
X-16.468 Y-156.383
X-16.782 Y-156.351
X-17.085 Y-156.347
X-17.398 Y-156.367
X-17.725 Y-156.411
X-18.068 Y-156.478
X-18.426 Y-156.568
X-18.801 Y-156.678
X-19.192 Y-156.808
X-19.6 Y-156.954
X-20.021 Y-157.112
X-20.458 Y-157.281
X-20.907 Y-157.454
X-20.914 Y-157.457
X-21.369 Y-157.631
X-21.385 Y-157.637
X-21.847 Y-157.808
X-21.874 Y-157.818
X-22.343 Y-157.982
X-22.376 Y-157.993
X-22.854 Y-158.148
X-22.893 Y-158.16
X-23.379 Y-158.304
X-23.427 Y-158.317
X-23.922 Y-158.447
X-23.976 Y-158.461
X-24.481 Y-158.575
X-24.537 Y-158.586
X-25.053 Y-158.683
X-25.12 Y-158.694
X-25.647 Y-158.77
X-25.709 Y-158.778
X-26.248 Y-158.834
X-26.314 Y-158.839
X-26.864 Y-158.873
X-26.931 Y-158.876
X-27.493 Y-158.887
X-27.555
X-28.117 Y-158.876
X-28.184 Y-158.873
X-28.735 Y-158.839
X-28.801 Y-158.834
X-29.339 Y-158.778
X-29.402 Y-158.77
X-29.929 Y-158.694
X-29.995 Y-158.683
X-30.511 Y-158.586
X-30.567 Y-158.575
X-31.072 Y-158.461
X-31.126 Y-158.447
X-31.621 Y-158.317
X-31.669 Y-158.304
X-32.155 Y-158.16
X-32.195 Y-158.148
X-32.672 Y-157.993
X-32.705 Y-157.982
X-33.175 Y-157.818
X-33.202 Y-157.808
X-33.664 Y-157.637
X-33.679 Y-157.631
X-34.135 Y-157.457
X-34.141 Y-157.454
X-34.591 Y-157.281
X-35.027 Y-157.112
X-35.448 Y-156.954
X-35.856 Y-156.808
X-36.247 Y-156.678
X-36.622 Y-156.568
X-36.981 Y-156.478
X-37.323 Y-156.411
X-37.65 Y-156.367
X-37.963 Y-156.347
X-38.266 Y-156.351
X-38.581 Y-156.383
X-38.709 Y-156.404
X-38.854 Y-156.435
X-39.002 Y-156.474
X-39.151 Y-156.521
X-39.302 Y-156.577
X-39.46 Y-156.643
X-39.619 Y-156.717
X-39.78 Y-156.803
X-39.95 Y-156.901
X-40.121 Y-157.01
X-40.297 Y-157.132
X-40.469 Y-157.261
X-40.857 Y-157.584
X-41.267 Y-157.971
G2 X-49.86 Y-157.955 I-4.288 J4.321
X-49.874 Y-149.359 I4.305 J4.305
G1 X-49.445 Y-148.909
X-49.086 Y-148.485
X-48.941 Y-148.298
X-48.804 Y-148.106
X-48.682 Y-147.922
X-48.573 Y-147.743
X-48.476 Y-147.57
X-48.394 Y-147.405
X-48.322 Y-147.246
X-48.261 Y-147.091
X-48.21 Y-146.942
X-48.168 Y-146.797
X-48.134 Y-146.656
X-48.108 Y-146.517
X-48.089 Y-146.379
X-48.079 Y-146.261
X-48.073 Y-145.966
X-48.092 Y-145.684
X-48.136 Y-145.389
X-48.204 Y-145.079
X-48.296 Y-144.75
X-48.411 Y-144.406
X-48.547 Y-144.042
X-48.701 Y-143.661
X-48.87 Y-143.261
X-49.052 Y-142.842
X-49.239 Y-142.412
X-49.243 Y-142.401
X-49.43 Y-141.962
X-49.438 Y-141.941
X-49.621 Y-141.493
X-49.634 Y-141.461
X-49.81 Y-141.001
X-49.825 Y-140.962
X-49.992 Y-140.49
X-50.007 Y-140.443
X-50.162 Y-139.958
X-50.178 Y-139.903
X-50.318 Y-139.403
X-50.333 Y-139.343
X-50.456 Y-138.827
X-50.47 Y-138.762
X-50.573 Y-138.23
X-50.585 Y-138.163
X-50.667 Y-137.614
X-50.676 Y-137.545
X-50.736 Y-136.977
X-50.741 Y-136.909
X-50.778 Y-136.322
X-50.78 Y-136.256
X-50.793 Y-135.651
Y-135.587
X-50.78 Y-134.982
X-50.778 Y-134.916
X-50.741 Y-134.329
X-50.736 Y-134.26
X-50.676 Y-133.693
X-50.667 Y-133.625
X-50.585 Y-133.075
X-50.573 Y-133.008
X-50.47 Y-132.476
X-50.456 Y-132.411
X-50.333 Y-131.895
X-50.318 Y-131.835
X-50.178 Y-131.335
X-50.162 Y-131.28
X-50.007 Y-130.795
X-49.992 Y-130.748
X-49.825 Y-130.276
X-49.81 Y-130.237
X-49.634 Y-129.777
X-49.621 Y-129.745
X-49.438 Y-129.297
X-49.43 Y-129.276
X-49.243 Y-128.837
X-49.239 Y-128.826
X-49.052 Y-128.396
X-48.87 Y-127.977
X-48.701 Y-127.578
X-48.547 Y-127.197
X-48.411 Y-126.833
X-48.296 Y-126.488
X-48.204 Y-126.16
X-48.136 Y-125.849
X-48.092 Y-125.554
X-48.073 Y-125.272
X-48.079 Y-124.977
X-48.089 Y-124.859
X-48.108 Y-124.721
X-48.134 Y-124.582
X-48.168 Y-124.441
X-48.21 Y-124.296
X-48.261 Y-124.147
X-48.322 Y-123.992
X-48.394 Y-123.833
X-48.476 Y-123.668
X-48.573 Y-123.495
X-48.682 Y-123.316
X-48.803 Y-123.133
X-48.941 Y-122.941
X-49.086 Y-122.752
X-49.445 Y-122.33
X-49.874 Y-121.878
G2 X-49.86 Y-113.283 I4.319 J4.29
X-43.391 Y-111.898 I4.305 J-4.305
S5000
X-41.267 Y-113.267 Z-2.489 I-2.164 J-5.69 F333.3
G1 X-40.857 Y-113.654 Z-2.509
X-40.469 Y-113.977 Z-2.526
X-40.297 Y-114.106 Z-2.534
X-40.121 Y-114.228 Z-2.541
X-39.95 Y-114.337 Z-2.548
X-39.78 Y-114.435 Z-2.555
X-39.616 Y-114.522 Z-2.562
X-39.46 Y-114.596 Z-2.568
X-39.304 Y-114.66 Z-2.574
X-39.151 Y-114.717 Z-2.579
X-39.002 Y-114.764 Z-2.585
X-38.854 Y-114.803 Z-2.59
X-38.709 Y-114.834 Z-2.595
X-38.581 Y-114.855 Z-2.6
X-38.264 Y-114.887 Z-2.611
X-37.963 Y-114.892 Z-2.621
X-37.652 Y-114.871 Z-2.632
X-37.323 Y-114.827 Z-2.644
X-36.981 Y-114.76 Z-2.656
X-36.622 Y-114.67 Z-2.669
X-36.246 Y-114.559 Z-2.683
X-35.856 Y-114.431 Z-2.697
X-35.774 Y-114.402 Z-2.7
S8000
X-35.45 Y-114.285 F1000
X-35.027 Y-114.126
X-34.591 Y-113.957
X-34.141 Y-113.784
X-34.135 Y-113.781
X-33.679 Y-113.607
X-33.664 Y-113.601
X-33.202 Y-113.43
X-33.175 Y-113.42
X-32.705 Y-113.256
X-32.672 Y-113.245
X-32.195 Y-113.09
X-32.155 Y-113.078
X-31.669 Y-112.934
X-31.621 Y-112.921
X-31.126 Y-112.791
X-31.072 Y-112.777
X-30.567 Y-112.663
X-30.511 Y-112.652
X-29.995 Y-112.555
X-29.929 Y-112.544
X-29.402 Y-112.468
X-29.339 Y-112.46
X-28.801 Y-112.404
X-28.735 Y-112.399
X-28.184 Y-112.365
X-28.117 Y-112.362
X-27.555 Y-112.351
X-27.493
X-26.931 Y-112.362
X-26.864 Y-112.365
X-26.314 Y-112.399
X-26.248 Y-112.404
X-25.709 Y-112.46
X-25.647 Y-112.468
X-25.12 Y-112.544
X-25.053 Y-112.555
X-24.537 Y-112.652
X-24.481 Y-112.663
X-23.976 Y-112.777
X-23.922 Y-112.791
X-23.427 Y-112.921
X-23.379 Y-112.934
X-22.893 Y-113.078
X-22.854 Y-113.09
X-22.376 Y-113.245
X-22.343 Y-113.256
X-21.874 Y-113.42
X-21.847 Y-113.43
X-21.385 Y-113.601
X-21.369 Y-113.607
X-20.914 Y-113.781
X-20.907 Y-113.784
X-20.458 Y-113.957
X-20.021 Y-114.126
X-19.599 Y-114.285
X-19.192 Y-114.431
X-18.803 Y-114.559
X-18.426 Y-114.67
X-18.068 Y-114.76
X-17.725 Y-114.827
X-17.396 Y-114.871
X-17.085 Y-114.892
X-16.784 Y-114.887
X-16.468 Y-114.855
X-16.339 Y-114.834
X-16.195 Y-114.803
X-16.047 Y-114.764
X-15.898 Y-114.717
X-15.744 Y-114.66
X-15.588 Y-114.596
X-15.432 Y-114.522
X-15.268 Y-114.435
X-15.099 Y-114.337
X-14.928 Y-114.228
X-14.751 Y-114.106
X-14.579 Y-113.977
X-14.191 Y-113.654
X-13.781 Y-113.267
G2 X-5.188 Y-113.284 I4.288 J-4.321
X-5.174 Y-121.878 I-4.305 J-4.304
G1 X-5.603 Y-122.33
X-5.962 Y-122.752
X-6.107 Y-122.941
X-6.245 Y-123.133
X-6.367 Y-123.316
X-6.476 Y-123.495
X-6.572 Y-123.668
X-6.655 Y-123.833
X-6.726 Y-123.992
X-6.788 Y-124.147
X-6.839 Y-124.296
X-6.881 Y-124.441
X-6.914 Y-124.582
X-6.94 Y-124.721
X-6.959 Y-124.859
X-6.97 Y-124.977
X-6.975 Y-125.272
X-6.956 Y-125.554
X-6.913 Y-125.849
X-6.845 Y-126.16
X-6.753 Y-126.488
X-6.638 Y-126.833
X-6.502 Y-127.197
X-6.348 Y-127.578
X-6.178 Y-127.977
X-5.997 Y-128.395
X-5.81 Y-128.826
X-5.805 Y-128.837
X-5.619 Y-129.276
X-5.61 Y-129.297
X-5.427 Y-129.745
X-5.414 Y-129.777
X-5.238 Y-130.237
X-5.224 Y-130.276
X-5.057 Y-130.748
X-5.041 Y-130.795
X-4.886 Y-131.28
X-4.87 Y-131.335
X-4.73 Y-131.835
X-4.715 Y-131.895
X-4.592 Y-132.411
X-4.579 Y-132.475
X-4.475 Y-133.007
X-4.464 Y-133.075
X-4.381 Y-133.625
X-4.373 Y-133.693
X-4.313 Y-134.26
X-4.307 Y-134.329
X-4.271 Y-134.916
X-4.268 Y-134.982
X-4.256 Y-135.587
Y-135.651
X-4.268 Y-136.256
X-4.271 Y-136.322
X-4.307 Y-136.909
X-4.313 Y-136.977
X-4.373 Y-137.545
X-4.381 Y-137.614
X-4.464 Y-138.163
X-4.475 Y-138.231
X-4.579 Y-138.763
X-4.592 Y-138.827
X-4.715 Y-139.343
X-4.73 Y-139.403
X-4.87 Y-139.903
X-4.886 Y-139.958
X-5.041 Y-140.443
X-5.057 Y-140.49
X-5.224 Y-140.962
X-5.238 Y-141.001
X-5.414 Y-141.461
X-5.427 Y-141.493
X-5.61 Y-141.941
X-5.619 Y-141.962
X-5.805 Y-142.401
X-5.81 Y-142.412
X-5.997 Y-142.843
X-6.178 Y-143.261
X-6.348 Y-143.661
X-6.502 Y-144.042
X-6.638 Y-144.406
X-6.753 Y-144.75
X-6.845 Y-145.079
X-6.913 Y-145.389
X-6.956 Y-145.684
X-6.975 Y-145.966
X-6.97 Y-146.261
X-6.959 Y-146.379
X-6.94 Y-146.517
X-6.914 Y-146.656
X-6.881 Y-146.797
X-6.839 Y-146.942
X-6.788 Y-147.091
X-6.726 Y-147.246
X-6.655 Y-147.405
X-6.572 Y-147.57
X-6.476 Y-147.743
X-6.367 Y-147.922
X-6.244 Y-148.107
X-6.107 Y-148.298
X-5.963 Y-148.485
X-5.603 Y-148.909
X-5.175 Y-149.359
G2 X-5.188 Y-157.954 I-4.318 J-4.291
X-13.781 Y-157.971 I-4.305 J4.305
G1 X-14.191 Y-157.584
X-14.579 Y-157.261
X-14.751 Y-157.132
X-14.928 Y-157.01
X-15.099 Y-156.901
X-15.268 Y-156.803
X-15.43 Y-156.717
X-15.588 Y-156.643
X-15.747 Y-156.576
X-15.898 Y-156.521
X-16.047 Y-156.474
X-16.195 Y-156.435
X-16.339 Y-156.404
X-16.468 Y-156.383
X-16.782 Y-156.351
X-17.085 Y-156.347
X-17.398 Y-156.367
X-17.725 Y-156.411
X-18.068 Y-156.478
X-18.426 Y-156.568
X-18.801 Y-156.678
X-19.192 Y-156.808
X-19.6 Y-156.954
X-20.021 Y-157.112
X-20.458 Y-157.281
X-20.907 Y-157.454
X-20.914 Y-157.457
X-21.369 Y-157.631
X-21.385 Y-157.637
X-21.847 Y-157.808
X-21.874 Y-157.818
X-22.343 Y-157.982
X-22.376 Y-157.993
X-22.854 Y-158.148
X-22.893 Y-158.16
X-23.379 Y-158.304
X-23.427 Y-158.317
X-23.922 Y-158.447
X-23.976 Y-158.461
X-24.481 Y-158.575
X-24.537 Y-158.586
X-25.053 Y-158.683
X-25.12 Y-158.694
X-25.647 Y-158.77
X-25.709 Y-158.778
X-26.248 Y-158.834
X-26.314 Y-158.839
X-26.864 Y-158.873
X-26.931 Y-158.876
X-27.493 Y-158.887
X-27.555
X-28.117 Y-158.876
X-28.184 Y-158.873
X-28.735 Y-158.839
X-28.801 Y-158.834
X-29.339 Y-158.778
X-29.402 Y-158.77
X-29.929 Y-158.694
X-29.995 Y-158.683
X-30.511 Y-158.586
X-30.567 Y-158.575
X-31.072 Y-158.461
X-31.126 Y-158.447
X-31.621 Y-158.317
X-31.669 Y-158.304
X-32.155 Y-158.16
X-32.195 Y-158.148
X-32.672 Y-157.993
X-32.705 Y-157.982
X-33.175 Y-157.818
X-33.202 Y-157.808
X-33.664 Y-157.637
X-33.679 Y-157.631
X-34.135 Y-157.457
X-34.141 Y-157.454
X-34.591 Y-157.281
X-35.027 Y-157.112
X-35.448 Y-156.954
X-35.856 Y-156.808
X-36.247 Y-156.678
X-36.622 Y-156.568
X-36.981 Y-156.478
X-37.323 Y-156.411
X-37.65 Y-156.367
X-37.963 Y-156.347
X-38.266 Y-156.351
X-38.581 Y-156.383
X-38.709 Y-156.404
X-38.854 Y-156.435
X-39.002 Y-156.474
X-39.151 Y-156.521
X-39.302 Y-156.577
X-39.46 Y-156.643
X-39.619 Y-156.717
X-39.78 Y-156.803
X-39.95 Y-156.901
X-40.121 Y-157.01
X-40.297 Y-157.132
X-40.469 Y-157.261
X-40.857 Y-157.584
X-41.267 Y-157.971
G2 X-49.86 Y-157.955 I-4.288 J4.321
X-49.874 Y-149.359 I4.305 J4.305
G1 X-49.445 Y-148.909
X-49.086 Y-148.485
X-48.941 Y-148.298
X-48.804 Y-148.106
X-48.682 Y-147.922
X-48.573 Y-147.743
X-48.476 Y-147.57
X-48.394 Y-147.405
X-48.322 Y-147.246
X-48.261 Y-147.091
X-48.21 Y-146.942
X-48.168 Y-146.797
X-48.134 Y-146.656
X-48.108 Y-146.517
X-48.089 Y-146.379
X-48.079 Y-146.261
X-48.073 Y-145.966
X-48.092 Y-145.684
X-48.136 Y-145.389
X-48.204 Y-145.079
X-48.296 Y-144.75
X-48.411 Y-144.406
X-48.547 Y-144.042
X-48.701 Y-143.661
X-48.87 Y-143.261
X-49.052 Y-142.842
X-49.239 Y-142.412
X-49.243 Y-142.401
X-49.43 Y-141.962
X-49.438 Y-141.941
X-49.621 Y-141.493
X-49.634 Y-141.461
X-49.81 Y-141.001
X-49.825 Y-140.962
X-49.992 Y-140.49
X-50.007 Y-140.443
X-50.162 Y-139.958
X-50.178 Y-139.903
X-50.318 Y-139.403
X-50.333 Y-139.343
X-50.456 Y-138.827
X-50.47 Y-138.762
X-50.573 Y-138.23
X-50.585 Y-138.163
X-50.667 Y-137.614
X-50.676 Y-137.545
X-50.736 Y-136.977
X-50.741 Y-136.909
X-50.778 Y-136.322
X-50.78 Y-136.256
X-50.793 Y-135.651
Y-135.587
X-50.78 Y-134.982
X-50.778 Y-134.916
X-50.741 Y-134.329
X-50.736 Y-134.26
X-50.676 Y-133.693
X-50.667 Y-133.625
X-50.585 Y-133.075
X-50.573 Y-133.008
X-50.47 Y-132.476
X-50.456 Y-132.411
X-50.333 Y-131.895
X-50.318 Y-131.835
X-50.178 Y-131.335
X-50.162 Y-131.28
X-50.007 Y-130.795
X-49.992 Y-130.748
X-49.825 Y-130.276
X-49.81 Y-130.237
X-49.634 Y-129.777
X-49.621 Y-129.745
X-49.438 Y-129.297
X-49.43 Y-129.276
X-49.243 Y-128.837
X-49.239 Y-128.826
X-49.052 Y-128.396
X-48.87 Y-127.977
X-48.701 Y-127.578
X-48.547 Y-127.197
X-48.411 Y-126.833
X-48.296 Y-126.488
X-48.204 Y-126.16
X-48.136 Y-125.849
X-48.092 Y-125.554
X-48.073 Y-125.272
X-48.079 Y-124.977
X-48.089 Y-124.859
X-48.108 Y-124.721
X-48.134 Y-124.582
X-48.168 Y-124.441
X-48.21 Y-124.296
X-48.261 Y-124.147
X-48.322 Y-123.992
X-48.394 Y-123.833
X-48.476 Y-123.668
X-48.573 Y-123.495
X-48.682 Y-123.316
X-48.803 Y-123.133
X-48.941 Y-122.941
X-49.086 Y-122.752
X-49.445 Y-122.33
X-49.874 Y-121.878
G2 X-49.86 Y-113.283 I4.319 J4.29
X-41.267 Y-113.267 I4.305 J-4.305
G1 X-40.857 Y-113.654
X-40.469 Y-113.977
X-40.297 Y-114.106
X-40.121 Y-114.228
X-39.95 Y-114.337
X-39.78 Y-114.435
X-39.616 Y-114.522
X-39.46 Y-114.596
X-39.304 Y-114.66
X-39.151 Y-114.717
X-39.002 Y-114.764
X-38.854 Y-114.803
X-38.709 Y-114.834
X-38.581 Y-114.855
X-38.264 Y-114.887
X-37.963 Y-114.892
X-37.652 Y-114.871
X-37.323 Y-114.827
X-36.981 Y-114.76
X-36.622 Y-114.67
X-36.246 Y-114.559
X-35.856 Y-114.431
X-35.774 Y-114.402
S5000
X-35.45 Y-114.285 Z-2.712 F333.3
X-35.027 Y-114.126 Z-2.728
X-34.591 Y-113.957 Z-2.744
X-34.141 Y-113.784 Z-2.761
X-34.135 Y-113.781
X-33.679 Y-113.607 Z-2.778
X-33.664 Y-113.601 Z-2.779
X-33.202 Y-113.43 Z-2.796
X-33.175 Y-113.42 Z-2.797
X-32.705 Y-113.256 Z-2.814
X-32.672 Y-113.245 Z-2.816
X-32.195 Y-113.09 Z-2.833
X-32.155 Y-113.078 Z-2.835
X-31.669 Y-112.934 Z-2.852
X-31.621 Y-112.921 Z-2.854
X-31.126 Y-112.791 Z-2.872
X-31.072 Y-112.777 Z-2.874
X-30.567 Y-112.663 Z-2.892
X-30.511 Y-112.652 Z-2.894
X-29.995 Y-112.555 Z-2.912
X-29.929 Y-112.544 Z-2.915
X-29.402 Y-112.468 Z-2.933
X-29.339 Y-112.46 Z-2.935
X-28.801 Y-112.404 Z-2.954
X-28.735 Y-112.399 Z-2.957
X-28.184 Y-112.365 Z-2.976
X-28.117 Y-112.362 Z-2.978
X-27.555 Y-112.351 Z-2.998
X-27.494 Z-3
S8000
X-27.493 F1000
X-26.931 Y-112.362
X-26.864 Y-112.365
X-26.314 Y-112.399
X-26.248 Y-112.404
X-25.709 Y-112.46
X-25.647 Y-112.468
X-25.12 Y-112.544
X-25.053 Y-112.555
X-24.537 Y-112.652
X-24.481 Y-112.663
X-23.976 Y-112.777
X-23.922 Y-112.791
X-23.427 Y-112.921
X-23.379 Y-112.934
X-22.893 Y-113.078
X-22.854 Y-113.09
X-22.376 Y-113.245
X-22.343 Y-113.256
X-21.874 Y-113.42
X-21.847 Y-113.43
X-21.385 Y-113.601
X-21.369 Y-113.607
X-20.914 Y-113.781
X-20.907 Y-113.784
X-20.458 Y-113.957
X-20.021 Y-114.126
X-19.599 Y-114.285
X-19.192 Y-114.431
X-18.803 Y-114.559
X-18.426 Y-114.67
X-18.068 Y-114.76
X-17.725 Y-114.827
X-17.396 Y-114.871
X-17.085 Y-114.892
X-16.784 Y-114.887
X-16.693 Y-114.878
Z-2.8
X-16.468 Y-114.855
X-16.339 Y-114.834
X-16.195 Y-114.803
X-16.047 Y-114.764
X-15.898 Y-114.717
X-15.744 Y-114.66
X-15.588 Y-114.596
X-15.432 Y-114.522
X-15.268 Y-114.435
X-15.099 Y-114.337
X-14.928 Y-114.228
X-14.751 Y-114.106
X-14.579 Y-113.977
X-14.191 Y-113.654
X-13.781 Y-113.267
G2 X-10.921 Y-111.67 I4.288 J-4.321
G1 Z-3 F333.3
G2 X-5.188 Y-113.284 I1.428 J-5.918 F1000
X-5.174 Y-121.878 I-4.305 J-4.304
G1 X-5.603 Y-122.33
X-5.962 Y-122.752
X-6.107 Y-122.941
X-6.245 Y-123.133
X-6.367 Y-123.316
X-6.476 Y-123.495
X-6.572 Y-123.668
X-6.655 Y-123.833
X-6.726 Y-123.992
X-6.788 Y-124.147
X-6.839 Y-124.296
X-6.881 Y-124.441
X-6.914 Y-124.582
X-6.94 Y-124.721
X-6.959 Y-124.859
X-6.97 Y-124.977
X-6.975 Y-125.272
X-6.956 Y-125.554
X-6.913 Y-125.849
X-6.845 Y-126.16
X-6.753 Y-126.488
X-6.638 Y-126.833
X-6.502 Y-127.197
X-6.348 Y-127.578
X-6.178 Y-127.977
X-5.997 Y-128.395
X-5.81 Y-128.826
X-5.805 Y-128.837
X-5.619 Y-129.276
X-5.61 Y-129.297
X-5.427 Y-129.745
X-5.414 Y-129.777
X-5.238 Y-130.237
X-5.224 Y-130.276
X-5.057 Y-130.748
X-5.041 Y-130.795
X-4.886 Y-131.28
X-4.87 Y-131.335
X-4.73 Y-131.835
X-4.715 Y-131.895
X-4.592 Y-132.411
X-4.579 Y-132.475
X-4.475 Y-133.007
X-4.464 Y-133.075
X-4.381 Y-133.625
X-4.373 Y-133.693
X-4.313 Y-134.26
X-4.307 Y-134.329
X-4.271 Y-134.916
X-4.268 Y-134.982
X-4.256 Y-135.587
Y-135.651
X-4.268 Y-136.256
X-4.271 Y-136.322
X-4.307 Y-136.909
X-4.313 Y-136.977
X-4.373 Y-137.545
X-4.381 Y-137.614
X-4.464 Y-138.163
X-4.475 Y-138.231
X-4.579 Y-138.763
X-4.592 Y-138.827
X-4.715 Y-139.343
X-4.73 Y-139.403
X-4.87 Y-139.903
X-4.886 Y-139.958
