(1001)
(Bearbeiten)
(  Hersteller: ChinaCnc)
(  model: 3040T)
(  description: Generic 3-axis)
(T13  D=1 CR=0 - ZMIN=-3.2 - Schaftfraser)
(T14  D=1.95 CR=0 - ZMIN=-3 - Schaftfraser)
G90 G94
G17
G21
G28 G91 Z0
G90

(Bohrfrasen5)
T13
S5000 M3
G54
G0 X-40.515 Y-7.396
Z15
Z2
G1 Z0.1 F1000
X-40.52 Y-7.391 Z0.062
X-40.536 Y-7.375 Z0.029
X-40.558 Y-7.352 Z0.008
X-40.586 Y-7.325 Z0
X-40.621 Y-7.29
X-40.653 Y-7.268
X-40.692 Y-7.261
X-40.73 Y-7.268
X-40.762 Y-7.29
G3 X-38.641 Y-9.411 Z-0.5 I1.061 J-1.061
X-40.762 Y-7.29 Z-1 I-1.061 J1.061
X-38.641 Y-9.411 I1.061 J-1.061
X-40.762 Y-7.29 I-1.061 J1.061
G1 X-40.784 Y-7.322
X-40.792 Y-7.361
X-40.784 Y-7.399
X-40.762 Y-7.431
X-40.727 Y-7.467
X-40.7 Y-7.494 Z-0.992
X-40.677 Y-7.517 Z-0.971
X-40.662 Y-7.532 Z-0.938
X-40.656 Y-7.537 Z-0.9
G0 Z5
X-63.684 Y-21.955
Z2
G1 Z0.1 F1000
X-63.679 Y-21.96 Z0.062
X-63.664 Y-21.975 Z0.029
X-63.641 Y-21.998 Z0.008
X-63.614 Y-22.025 Z0
X-63.578 Y-22.061
X-63.546 Y-22.082
X-63.508 Y-22.09
X-63.469 Y-22.082
X-63.437 Y-22.061
G3 X-65.558 Y-19.939 Z-0.5 I-1.061 J1.061
X-63.437 Y-22.061 Z-1 I1.061 J-1.061
X-65.558 Y-19.939 I-1.061 J1.061
X-63.437 Y-22.061 I1.061 J-1.061
G1 X-63.415 Y-22.028
X-63.408 Y-21.99
X-63.415 Y-21.952
X-63.437 Y-21.919
X-63.472 Y-21.884
X-63.499 Y-21.857 Z-0.992
X-63.522 Y-21.834 Z-0.971
X-63.537 Y-21.819 Z-0.938
X-63.543 Y-21.813 Z-0.9
G0 Z5
X-40.515 Y-34.063
Z2
G1 Z0.1 F1000
X-40.52 Y-34.057 Z0.062
X-40.536 Y-34.042 Z0.029
X-40.558 Y-34.019 Z0.008
X-40.586 Y-33.992 Z0
X-40.621 Y-33.957
X-40.653 Y-33.935
X-40.692 Y-33.927
X-40.73 Y-33.935
X-40.762 Y-33.957
G3 X-38.641 Y-36.078 Z-0.5 I1.061 J-1.061
X-40.762 Y-33.957 Z-1 I-1.061 J1.061
X-38.641 Y-36.078 I1.061 J-1.061
X-40.762 Y-33.957 I-1.061 J1.061
G1 X-40.784 Y-33.989
X-40.792 Y-34.027
X-40.784 Y-34.066
X-40.762 Y-34.098
X-40.727 Y-34.133
X-40.7 Y-34.16 Z-0.992
X-40.677 Y-34.183 Z-0.971
X-40.662 Y-34.199 Z-0.938
X-40.656 Y-34.204 Z-0.9
G0 Z5
X-63.684 Y-48.621
Z2
G1 Z0.1 F1000
X-63.679 Y-48.627 Z0.062
X-63.664 Y-48.642 Z0.029
X-63.641 Y-48.665 Z0.008
X-63.614 Y-48.692 Z0
X-63.578 Y-48.727
X-63.546 Y-48.749
X-63.508 Y-48.757
X-63.469 Y-48.749
X-63.437 Y-48.727
G3 X-65.558 Y-46.606 Z-0.5 I-1.061 J1.061
X-63.437 Y-48.727 Z-1 I1.061 J-1.061
X-65.558 Y-46.606 I-1.061 J1.061
X-63.437 Y-48.727 I1.061 J-1.061
G1 X-63.415 Y-48.695
X-63.408 Y-48.657
X-63.415 Y-48.618
X-63.437 Y-48.586
X-63.472 Y-48.551
X-63.499 Y-48.523 Z-0.992
X-63.522 Y-48.501 Z-0.971
X-63.537 Y-48.485 Z-0.938
X-63.543 Y-48.48 Z-0.9
G0 Z5
X-40.515 Y-60.729
Z2
G1 Z0.1 F1000
X-40.52 Y-60.724 Z0.062
X-40.536 Y-60.709 Z0.029
X-40.558 Y-60.686 Z0.008
X-40.586 Y-60.659 Z0
X-40.621 Y-60.623
X-40.653 Y-60.602
X-40.692 Y-60.594
X-40.73 Y-60.602
X-40.762 Y-60.623
G3 X-38.641 Y-62.745 Z-0.5 I1.061 J-1.061
X-40.762 Y-60.623 Z-1 I-1.061 J1.061
X-38.641 Y-62.745 I1.061 J-1.061
X-40.762 Y-60.623 I-1.061 J1.061
G1 X-40.784 Y-60.656
X-40.792 Y-60.694
X-40.784 Y-60.732
X-40.762 Y-60.765
X-40.727 Y-60.8
X-40.7 Y-60.827 Z-0.992
X-40.677 Y-60.85 Z-0.971
X-40.662 Y-60.865 Z-0.938
X-40.656 Y-60.871 Z-0.9
G0 Z5
X-63.684 Y-75.288
Z2
G1 Z0.1 F1000
X-63.679 Y-75.293 Z0.062
X-63.664 Y-75.309 Z0.029
X-63.641 Y-75.332 Z0.008
X-63.614 Y-75.359 Z0
X-63.578 Y-75.394
X-63.546 Y-75.416
X-63.508 Y-75.423
X-63.469 Y-75.416
X-63.437 Y-75.394
G3 X-65.558 Y-73.273 Z-0.5 I-1.061 J1.061
X-63.437 Y-75.394 Z-1 I1.061 J-1.061
X-65.558 Y-73.273 I-1.061 J1.061
X-63.437 Y-75.394 I1.061 J-1.061
G1 X-63.415 Y-75.362
X-63.408 Y-75.323
X-63.415 Y-75.285
X-63.437 Y-75.253
X-63.472 Y-75.217
X-63.499 Y-75.19 Z-0.992
X-63.522 Y-75.167 Z-0.971
X-63.537 Y-75.152 Z-0.938
X-63.543 Y-75.147 Z-0.9
G0 Z5
X-40.515 Y-87.396
Z2
G1 Z0.1 F1000
X-40.52 Y-87.391 Z0.062
X-40.536 Y-87.375 Z0.029
X-40.558 Y-87.352 Z0.008
X-40.586 Y-87.325 Z0
X-40.621 Y-87.29
X-40.653 Y-87.268
X-40.692 Y-87.261
X-40.73 Y-87.268
X-40.762 Y-87.29
G3 X-38.641 Y-89.411 Z-0.5 I1.061 J-1.061
X-40.762 Y-87.29 Z-1 I-1.061 J1.061
X-38.641 Y-89.411 I1.061 J-1.061
X-40.762 Y-87.29 I-1.061 J1.061
G1 X-40.784 Y-87.322
X-40.792 Y-87.361
X-40.784 Y-87.399
X-40.762 Y-87.431
X-40.727 Y-87.467
X-40.7 Y-87.494 Z-0.992
X-40.677 Y-87.517 Z-0.971
X-40.662 Y-87.532 Z-0.938
X-40.656 Y-87.537 Z-0.9
G0 Z5
X-63.684 Y-101.955
Z2
G1 Z0.1 F1000
X-63.679 Y-101.96 Z0.062
X-63.664 Y-101.975 Z0.029
X-63.641 Y-101.998 Z0.008
X-63.614 Y-102.025 Z0
X-63.578 Y-102.061
X-63.546 Y-102.082
X-63.508 Y-102.09
X-63.469 Y-102.082
X-63.437 Y-102.061
G3 X-65.558 Y-99.939 Z-0.5 I-1.061 J1.061
X-63.437 Y-102.061 Z-1 I1.061 J-1.061
X-65.558 Y-99.939 I-1.061 J1.061
X-63.437 Y-102.061 I1.061 J-1.061
G1 X-63.415 Y-102.028
X-63.408 Y-101.99
X-63.415 Y-101.952
X-63.437 Y-101.919
X-63.472 Y-101.884
X-63.499 Y-101.857 Z-0.992
X-63.522 Y-101.834 Z-0.971
X-63.537 Y-101.819 Z-0.938
X-63.543 Y-101.813 Z-0.9
G0 Z15

(Bohrfrasen6)
X-39.578 Y-8.616
Z15
Z1
G1 Z-0.9 F1000
X-39.573 Y-8.621 Z-0.938
X-39.557 Y-8.636 Z-0.971
X-39.534 Y-8.659 Z-0.992
X-39.507 Y-8.686 Z-1
X-39.472 Y-8.722
X-39.439 Y-8.743
X-39.401 Y-8.751
X-39.363 Y-8.743
X-39.33 Y-8.722
G3 X-40.073 Y-7.979 Z-1.5 I-0.371 J0.371
X-39.33 Y-8.722 Z-2 I0.371 J-0.371
X-40.073 Y-7.979 Z-2.5 I-0.371 J0.371
X-39.33 Y-8.722 Z-3 I0.371 J-0.371
X-39.234 Y-8.112 Z-3.2 I-0.371 J0.371
X-40.169 Y-8.589 I-0.468 J-0.238
X-39.234 Y-8.112 I0.468 J0.238
G1 X-39.258 Y-8.082
X-39.292 Y-8.063
X-39.331 Y-8.058
X-39.368 Y-8.069
X-39.413 Y-8.091
X-39.447 Y-8.109 Z-3.192
X-39.476 Y-8.123 Z-3.171
X-39.495 Y-8.133 Z-3.138
X-39.502 Y-8.137 Z-3.1
G0 Z5
X-50.582 Y-8.969
Z2
G1 Z0.1 F1000
X-50.577 Y-8.975 Z0.062
X-50.561 Y-8.99 Z0.029
X-50.539 Y-9.013 Z0.008
X-50.511 Y-9.04 Z0
X-50.476 Y-9.075
X-50.444 Y-9.097
X-50.405 Y-9.105
X-50.367 Y-9.097
X-50.335 Y-9.075
G3 X-51.784 Y-7.626 Z-0.5 I-0.725 J0.725
X-50.335 Y-9.075 Z-1 I0.725 J-0.725
X-51.784 Y-7.626 Z-1.5 I-0.725 J0.725
X-50.335 Y-9.075 Z-2 I0.725 J-0.725
X-51.784 Y-7.626 Z-2.5 I-0.725 J0.725
X-50.335 Y-9.075 Z-3 I0.725 J-0.725
X-50.146 Y-7.885 Z-3.2 I-0.725 J0.725
X-51.973 Y-8.816 I-0.913 J-0.465
X-50.146 Y-7.885 I0.913 J0.465
G1 X-50.17 Y-7.855
X-50.204 Y-7.836
X-50.243 Y-7.831
X-50.281 Y-7.842
X-50.325 Y-7.864
X-50.359 Y-7.882 Z-3.192
X-50.388 Y-7.896 Z-3.171
X-50.408 Y-7.906 Z-3.138
X-50.414 Y-7.91 Z-3.1
G0 Z5
X-53.617 Y-20.381
Z2
G1 Z0.1 F1000
X-53.622 Y-20.376 Z0.062
X-53.638 Y-20.361 Z0.029
X-53.661 Y-20.338 Z0.008
X-53.688 Y-20.311 Z0
X-53.723 Y-20.275
X-53.755 Y-20.254
X-53.794 Y-20.246
X-53.832 Y-20.254
X-53.864 Y-20.275
G3 X-52.415 Y-21.725 Z-0.5 I0.725 J-0.725
X-53.864 Y-20.275 Z-1 I-0.725 J0.725
X-52.415 Y-21.725 Z-1.5 I0.725 J-0.725
X-53.864 Y-20.275 Z-2 I-0.725 J0.725
X-52.415 Y-21.725 Z-2.5 I0.725 J-0.725
X-53.864 Y-20.275 Z-3 I-0.725 J0.725
X-54.053 Y-21.465 Z-3.2 I0.725 J-0.725
X-52.226 Y-20.535 I0.913 J0.465
X-54.053 Y-21.465 I-0.913 J-0.465
G1 X-54.029 Y-21.496
X-53.995 Y-21.515
X-53.956 Y-21.52
X-53.918 Y-21.509
X-53.874 Y-21.486
X-53.84 Y-21.469 Z-3.192
X-53.811 Y-21.454 Z-3.171
X-53.792 Y-21.444 Z-3.138
X-53.785 Y-21.441 Z-3.1
G0 Z5
X-64.621 Y-20.735
Z1
G1 Z-0.9 F1000
X-64.627 Y-20.729 Z-0.938
X-64.642 Y-20.714 Z-0.971
X-64.665 Y-20.691 Z-0.992
X-64.692 Y-20.664 Z-1
X-64.727 Y-20.629
X-64.76 Y-20.607
X-64.798 Y-20.599
X-64.836 Y-20.607
X-64.869 Y-20.629
G3 X-64.126 Y-21.371 Z-1.5 I0.371 J-0.371
X-64.869 Y-20.629 Z-2 I-0.371 J0.371
X-64.126 Y-21.371 Z-2.5 I0.371 J-0.371
X-64.869 Y-20.629 Z-3 I-0.371 J0.371
X-64.965 Y-21.238 Z-3.2 I0.371 J-0.371
X-64.03 Y-20.762 I0.468 J0.238
X-64.965 Y-21.238 I-0.468 J-0.238
G1 X-64.941 Y-21.269
X-64.907 Y-21.288
X-64.868 Y-21.293
X-64.831 Y-21.282
X-64.786 Y-21.259
X-64.752 Y-21.242 Z-3.192
X-64.723 Y-21.227 Z-3.171
X-64.704 Y-21.217 Z-3.138
X-64.697 Y-21.214 Z-3.1
G0 Z5
X-39.578 Y-35.282
Z1
G1 Z-0.9 F1000
X-39.573 Y-35.288 Z-0.938
X-39.557 Y-35.303 Z-0.971
X-39.534 Y-35.326 Z-0.992
X-39.507 Y-35.353 Z-1
X-39.472 Y-35.388
X-39.439 Y-35.41
X-39.401 Y-35.418
X-39.363 Y-35.41
X-39.33 Y-35.388
G3 X-40.073 Y-34.646 Z-1.5 I-0.371 J0.371
X-39.33 Y-35.388 Z-2 I0.371 J-0.371
X-40.073 Y-34.646 Z-2.5 I-0.371 J0.371
X-39.33 Y-35.388 Z-3 I0.371 J-0.371
X-39.234 Y-34.779 Z-3.2 I-0.371 J0.371
X-40.169 Y-35.256 I-0.468 J-0.238
X-39.234 Y-34.779 I0.468 J0.238
G1 X-39.258 Y-34.748
X-39.292 Y-34.729
X-39.331 Y-34.725
X-39.368 Y-34.735
X-39.413 Y-34.758
X-39.447 Y-34.775 Z-3.192
X-39.476 Y-34.79 Z-3.171
X-39.495 Y-34.8 Z-3.138
X-39.502 Y-34.803 Z-3.1
G0 Z5
X-50.582 Y-35.636
Z2
G1 Z0.1 F1000
X-50.577 Y-35.641 Z0.062
X-50.561 Y-35.657 Z0.029
X-50.539 Y-35.68 Z0.008
X-50.511 Y-35.707 Z0
X-50.476 Y-35.742
X-50.444 Y-35.764
X-50.405 Y-35.771
X-50.367 Y-35.764
X-50.335 Y-35.742
G3 X-51.784 Y-34.292 Z-0.5 I-0.725 J0.725
X-50.335 Y-35.742 Z-1 I0.725 J-0.725
X-51.784 Y-34.292 Z-1.5 I-0.725 J0.725
X-50.335 Y-35.742 Z-2 I0.725 J-0.725
X-51.784 Y-34.292 Z-2.5 I-0.725 J0.725
X-50.335 Y-35.742 Z-3 I0.725 J-0.725
X-50.146 Y-34.552 Z-3.2 I-0.725 J0.725
X-51.973 Y-35.483 I-0.913 J-0.465
X-50.146 Y-34.552 I0.913 J0.465
G1 X-50.17 Y-34.521
X-50.204 Y-34.502
X-50.243 Y-34.498
X-50.281 Y-34.508
X-50.325 Y-34.531
X-50.359 Y-34.548 Z-3.192
X-50.388 Y-34.563 Z-3.171
X-50.408 Y-34.573 Z-3.138
X-50.414 Y-34.576 Z-3.1
G0 Z5
X-53.617 Y-47.048
Z2
G1 Z0.1 F1000
X-53.622 Y-47.043 Z0.062
X-53.638 Y-47.027 Z0.029
X-53.661 Y-47.004 Z0.008
X-53.688 Y-46.977 Z0
X-53.723 Y-46.942
X-53.755 Y-46.92
X-53.794 Y-46.913
X-53.832 Y-46.92
X-53.864 Y-46.942
G3 X-52.415 Y-48.391 Z-0.5 I0.725 J-0.725
X-53.864 Y-46.942 Z-1 I-0.725 J0.725
X-52.415 Y-48.391 Z-1.5 I0.725 J-0.725
X-53.864 Y-46.942 Z-2 I-0.725 J0.725
X-52.415 Y-48.391 Z-2.5 I0.725 J-0.725
X-53.864 Y-46.942 Z-3 I-0.725 J0.725
X-54.053 Y-48.132 Z-3.2 I0.725 J-0.725
X-52.226 Y-47.201 I0.913 J0.465
X-54.053 Y-48.132 I-0.913 J-0.465
G1 X-54.029 Y-48.163
X-53.995 Y-48.182
X-53.956 Y-48.186
X-53.918 Y-48.176
X-53.874 Y-48.153
X-53.84 Y-48.136 Z-3.192
X-53.811 Y-48.121 Z-3.171
X-53.792 Y-48.111 Z-3.138
X-53.785 Y-48.108 Z-3.1
G0 Z5
X-64.621 Y-47.402
Z1
G1 Z-0.9 F1000
X-64.627 Y-47.396 Z-0.938
X-64.642 Y-47.381 Z-0.971
X-64.665 Y-47.358 Z-0.992
X-64.692 Y-47.331 Z-1
X-64.727 Y-47.295
X-64.76 Y-47.274
X-64.798 Y-47.266
X-64.836 Y-47.274
X-64.869 Y-47.295
G3 X-64.126 Y-48.038 Z-1.5 I0.371 J-0.371
X-64.869 Y-47.295 Z-2 I-0.371 J0.371
X-64.126 Y-48.038 Z-2.5 I0.371 J-0.371
X-64.869 Y-47.295 Z-3 I-0.371 J0.371
X-64.965 Y-47.905 Z-3.2 I0.371 J-0.371
X-64.03 Y-47.428 I0.468 J0.238
X-64.965 Y-47.905 I-0.468 J-0.238
G1 X-64.941 Y-47.936
X-64.907 Y-47.955
X-64.868 Y-47.959
X-64.831 Y-47.949
X-64.786 Y-47.926
X-64.752 Y-47.909 Z-3.192
X-64.723 Y-47.894 Z-3.171
X-64.704 Y-47.884 Z-3.138
X-64.697 Y-47.881 Z-3.1
G0 Z5
X-39.578 Y-61.949
Z1
G1 Z-0.9 F1000
X-39.573 Y-61.954 Z-0.938
X-39.557 Y-61.97 Z-0.971
X-39.534 Y-61.993 Z-0.992
X-39.507 Y-62.02 Z-1
X-39.472 Y-62.055
X-39.439 Y-62.077
X-39.401 Y-62.084
X-39.363 Y-62.077
X-39.33 Y-62.055
G3 X-40.073 Y-61.313 Z-1.5 I-0.371 J0.371
X-39.33 Y-62.055 Z-2 I0.371 J-0.371
X-40.073 Y-61.313 Z-2.5 I-0.371 J0.371
X-39.33 Y-62.055 Z-3 I0.371 J-0.371
X-39.234 Y-61.446 Z-3.2 I-0.371 J0.371
X-40.169 Y-61.922 I-0.468 J-0.238
X-39.234 Y-61.446 I0.468 J0.238
G1 X-39.258 Y-61.415
X-39.292 Y-61.396
X-39.331 Y-61.391
X-39.368 Y-61.402
X-39.413 Y-61.425
X-39.447 Y-61.442 Z-3.192
X-39.476 Y-61.457 Z-3.171
X-39.495 Y-61.467 Z-3.138
X-39.502 Y-61.47 Z-3.1
G0 Z5
X-50.582 Y-62.303
Z2
G1 Z0.1 F1000
X-50.577 Y-62.308 Z0.062
X-50.561 Y-62.323 Z0.029
X-50.539 Y-62.346 Z0.008
X-50.511 Y-62.373 Z0
X-50.476 Y-62.409
X-50.444 Y-62.43
X-50.405 Y-62.438
X-50.367 Y-62.43
X-50.335 Y-62.409
G3 X-51.784 Y-60.959 Z-0.5 I-0.725 J0.725
X-50.335 Y-62.409 Z-1 I0.725 J-0.725
X-51.784 Y-60.959 Z-1.5 I-0.725 J0.725
X-50.335 Y-62.409 Z-2 I0.725 J-0.725
X-51.784 Y-60.959 Z-2.5 I-0.725 J0.725
X-50.335 Y-62.409 Z-3 I0.725 J-0.725
X-50.146 Y-61.219 Z-3.2 I-0.725 J0.725
X-51.973 Y-62.149 I-0.913 J-0.465
X-50.146 Y-61.219 I0.913 J0.465
G1 X-50.17 Y-61.188
X-50.204 Y-61.169
X-50.243 Y-61.164
X-50.281 Y-61.175
X-50.325 Y-61.198
X-50.359 Y-61.215 Z-3.192
X-50.388 Y-61.23 Z-3.171
X-50.408 Y-61.24 Z-3.138
X-50.414 Y-61.243 Z-3.1
G0 Z5
X-53.617 Y-73.715
Z2
G1 Z0.1 F1000
X-53.622 Y-73.709 Z0.062
X-53.638 Y-73.694 Z0.029
X-53.661 Y-73.671 Z0.008
X-53.688 Y-73.644 Z0
X-53.723 Y-73.609
X-53.755 Y-73.587
X-53.794 Y-73.579
X-53.832 Y-73.587
X-53.864 Y-73.609
G3 X-52.415 Y-75.058 Z-0.5 I0.725 J-0.725
X-53.864 Y-73.609 Z-1 I-0.725 J0.725
X-52.415 Y-75.058 Z-1.5 I0.725 J-0.725
X-53.864 Y-73.609 Z-2 I-0.725 J0.725
X-52.415 Y-75.058 Z-2.5 I0.725 J-0.725
X-53.864 Y-73.609 Z-3 I-0.725 J0.725
X-54.053 Y-74.799 Z-3.2 I0.725 J-0.725
X-52.226 Y-73.868 I0.913 J0.465
X-54.053 Y-74.799 I-0.913 J-0.465
G1 X-54.029 Y-74.829
X-53.995 Y-74.848
X-53.956 Y-74.853
X-53.918 Y-74.842
X-53.874 Y-74.82
X-53.84 Y-74.802 Z-3.192
X-53.811 Y-74.788 Z-3.171
X-53.792 Y-74.778 Z-3.138
X-53.785 Y-74.774 Z-3.1
G0 Z5
X-64.621 Y-74.068
Z1
G1 Z-0.9 F1000
X-64.627 Y-74.063 Z-0.938
X-64.642 Y-74.047 Z-0.971
X-64.665 Y-74.025 Z-0.992
X-64.692 Y-73.997 Z-1
X-64.727 Y-73.962
X-64.76 Y-73.94
X-64.798 Y-73.933
X-64.836 Y-73.94
X-64.869 Y-73.962
G3 X-64.126 Y-74.705 Z-1.5 I0.371 J-0.371
X-64.869 Y-73.962 Z-2 I-0.371 J0.371
X-64.126 Y-74.705 Z-2.5 I0.371 J-0.371
X-64.869 Y-73.962 Z-3 I-0.371 J0.371
X-64.965 Y-74.572 Z-3.2 I0.371 J-0.371
X-64.03 Y-74.095 I0.468 J0.238
X-64.965 Y-74.572 I-0.468 J-0.238
G1 X-64.941 Y-74.602
X-64.907 Y-74.621
X-64.868 Y-74.626
X-64.831 Y-74.615
X-64.786 Y-74.593
X-64.752 Y-74.575 Z-3.192
X-64.723 Y-74.561 Z-3.171
X-64.704 Y-74.551 Z-3.138
X-64.697 Y-74.547 Z-3.1
G0 Z5
X-39.578 Y-88.616
Z1
G1 Z-0.9 F1000
X-39.573 Y-88.621 Z-0.938
X-39.557 Y-88.636 Z-0.971
X-39.534 Y-88.659 Z-0.992
X-39.507 Y-88.686 Z-1
X-39.472 Y-88.722
X-39.439 Y-88.743
X-39.401 Y-88.751
X-39.363 Y-88.743
X-39.33 Y-88.722
G3 X-40.073 Y-87.979 Z-1.5 I-0.371 J0.371
X-39.33 Y-88.722 Z-2 I0.371 J-0.371
X-40.073 Y-87.979 Z-2.5 I-0.371 J0.371
X-39.33 Y-88.722 Z-3 I0.371 J-0.371
X-39.234 Y-88.112 Z-3.2 I-0.371 J0.371
X-40.169 Y-88.589 I-0.468 J-0.238
X-39.234 Y-88.112 I0.468 J0.238
G1 X-39.258 Y-88.082
X-39.292 Y-88.063
X-39.331 Y-88.058
X-39.368 Y-88.069
X-39.413 Y-88.091
X-39.447 Y-88.109 Z-3.192
X-39.476 Y-88.123 Z-3.171
X-39.495 Y-88.133 Z-3.138
X-39.502 Y-88.137 Z-3.1
G0 Z5
X-50.582 Y-88.969
Z2
G1 Z0.1 F1000
X-50.577 Y-88.975 Z0.062
X-50.561 Y-88.99 Z0.029
X-50.539 Y-89.013 Z0.008
X-50.511 Y-89.04 Z0
X-50.476 Y-89.075
X-50.444 Y-89.097
X-50.405 Y-89.105
X-50.367 Y-89.097
X-50.335 Y-89.075
G3 X-51.784 Y-87.626 Z-0.5 I-0.725 J0.725
X-50.335 Y-89.075 Z-1 I0.725 J-0.725
X-51.784 Y-87.626 Z-1.5 I-0.725 J0.725
X-50.335 Y-89.075 Z-2 I0.725 J-0.725
X-51.784 Y-87.626 Z-2.5 I-0.725 J0.725
X-50.335 Y-89.075 Z-3 I0.725 J-0.725
X-50.146 Y-87.885 Z-3.2 I-0.725 J0.725
X-51.973 Y-88.816 I-0.913 J-0.465
X-50.146 Y-87.885 I0.913 J0.465
G1 X-50.17 Y-87.855
X-50.204 Y-87.836
X-50.243 Y-87.831
X-50.281 Y-87.842
X-50.325 Y-87.864
X-50.359 Y-87.882 Z-3.192
X-50.388 Y-87.896 Z-3.171
X-50.408 Y-87.906 Z-3.138
X-50.414 Y-87.91 Z-3.1
G0 Z5
X-53.617 Y-100.381
Z2
G1 Z0.1 F1000
X-53.622 Y-100.376 Z0.062
X-53.638 Y-100.361 Z0.029
X-53.661 Y-100.338 Z0.008
X-53.688 Y-100.311 Z0
X-53.723 Y-100.275
X-53.755 Y-100.254
X-53.794 Y-100.246
X-53.832 Y-100.254
X-53.864 Y-100.275
G3 X-52.415 Y-101.725 Z-0.5 I0.725 J-0.725
X-53.864 Y-100.275 Z-1 I-0.725 J0.725
X-52.415 Y-101.725 Z-1.5 I0.725 J-0.725
X-53.864 Y-100.275 Z-2 I-0.725 J0.725
X-52.415 Y-101.725 Z-2.5 I0.725 J-0.725
X-53.864 Y-100.275 Z-3 I-0.725 J0.725
X-54.053 Y-101.465 Z-3.2 I0.725 J-0.725
X-52.226 Y-100.535 I0.913 J0.465
X-54.053 Y-101.465 I-0.913 J-0.465
G1 X-54.029 Y-101.496
X-53.995 Y-101.515
X-53.956 Y-101.52
X-53.918 Y-101.509
X-53.874 Y-101.486
X-53.84 Y-101.469 Z-3.192
X-53.811 Y-101.454 Z-3.171
X-53.792 Y-101.444 Z-3.138
X-53.785 Y-101.441 Z-3.1
G0 Z5
X-64.621 Y-100.735
Z1
G1 Z-0.9 F1000
X-64.627 Y-100.729 Z-0.938
X-64.642 Y-100.714 Z-0.971
X-64.665 Y-100.691 Z-0.992
X-64.692 Y-100.664 Z-1
X-64.727 Y-100.629
X-64.76 Y-100.607
X-64.798 Y-100.599
X-64.836 Y-100.607
X-64.869 Y-100.629
G3 X-64.126 Y-101.371 Z-1.5 I0.371 J-0.371
X-64.869 Y-100.629 Z-2 I-0.371 J0.371
X-64.126 Y-101.371 Z-2.5 I0.371 J-0.371
X-64.869 Y-100.629 Z-3 I-0.371 J0.371
X-64.965 Y-101.238 Z-3.2 I0.371 J-0.371
X-64.03 Y-100.762 I0.468 J0.238
X-64.965 Y-101.238 I-0.468 J-0.238
G1 X-64.941 Y-101.269
X-64.907 Y-101.288
X-64.868 Y-101.293
X-64.831 Y-101.282
X-64.786 Y-101.259
X-64.752 Y-101.242 Z-3.192
X-64.723 Y-101.227 Z-3.171
X-64.704 Y-101.217 Z-3.138
X-64.697 Y-101.214 Z-3.1
G0 Z15

(Bohrfrasen7)
X-18.306 Y-17.553
Z15
Z2
G1 Z0.1 F1000
X-18.311 Y-17.547 Z0.062
X-18.326 Y-17.532 Z0.029
X-18.349 Y-17.509 Z0.008
X-18.376 Y-17.482 Z0
X-18.412 Y-17.447
X-18.444 Y-17.425
X-18.483 Y-17.417
X-18.521 Y-17.425
X-18.553 Y-17.447
G3 X-17.811 Y-18.189 Z-0.5 I0.371 J-0.371
X-18.553 Y-17.447 Z-1 I-0.371 J0.371
X-17.811 Y-18.189 Z-1.5 I0.371 J-0.371
X-18.553 Y-17.447 Z-2 I-0.371 J0.371
X-17.811 Y-18.189 Z-2.5 I0.371 J-0.371
X-18.553 Y-17.447 Z-3 I-0.371 J0.371
X-18.65 Y-18.056 Z-3.2 I0.371 J-0.371
X-17.714 Y-17.58 I0.468 J0.238
X-18.65 Y-18.056 I-0.468 J-0.238
G1 X-18.626 Y-18.087
X-18.592 Y-18.106
X-18.553 Y-18.111
X-18.515 Y-18.1
X-18.471 Y-18.077
X-18.437 Y-18.06 Z-3.192
X-18.408 Y-18.045 Z-3.171
X-18.388 Y-18.035 Z-3.138
X-18.382 Y-18.032 Z-3.1
G0 Z5
X-11.942 Y-17.553
Z2
G1 Z0.1 F1000
X-11.947 Y-17.547 Z0.062
X-11.962 Y-17.532 Z0.029
X-11.985 Y-17.509 Z0.008
X-12.012 Y-17.482 Z0
X-12.048 Y-17.447
X-12.08 Y-17.425
X-12.119 Y-17.417
X-12.157 Y-17.425
X-12.189 Y-17.447
G3 X-11.447 Y-18.189 Z-0.5 I0.371 J-0.371
X-12.189 Y-17.447 Z-1 I-0.371 J0.371
X-11.447 Y-18.189 Z-1.5 I0.371 J-0.371
X-12.189 Y-17.447 Z-2 I-0.371 J0.371
X-11.447 Y-18.189 Z-2.5 I0.371 J-0.371
X-12.189 Y-17.447 Z-3 I-0.371 J0.371
X-12.286 Y-18.056 Z-3.2 I0.371 J-0.371
X-11.35 Y-17.58 I0.468 J0.238
X-12.286 Y-18.056 I-0.468 J-0.238
G1 X-12.262 Y-18.087
X-12.228 Y-18.106
X-12.189 Y-18.111
X-12.151 Y-18.1
X-12.107 Y-18.077
X-12.073 Y-18.06 Z-3.192
X-12.044 Y-18.045 Z-3.171
X-12.024 Y-18.035 Z-3.138
X-12.018 Y-18.032 Z-3.1
G0 Z5
X-11.942 Y-23.917
Z2
G1 Z0.1 F1000
X-11.947 Y-23.911 Z0.062
X-11.962 Y-23.896 Z0.029
X-11.985 Y-23.873 Z0.008
X-12.012 Y-23.846 Z0
X-12.048 Y-23.811
X-12.08 Y-23.789
X-12.119 Y-23.781
X-12.157 Y-23.789
X-12.189 Y-23.811
G3 X-11.447 Y-24.553 Z-0.5 I0.371 J-0.371
X-12.189 Y-23.811 Z-1 I-0.371 J0.371
X-11.447 Y-24.553 Z-1.5 I0.371 J-0.371
X-12.189 Y-23.811 Z-2 I-0.371 J0.371
X-11.447 Y-24.553 Z-2.5 I0.371 J-0.371
X-12.189 Y-23.811 Z-3 I-0.371 J0.371
X-12.286 Y-24.42 Z-3.2 I0.371 J-0.371
X-11.35 Y-23.944 I0.468 J0.238
X-12.286 Y-24.42 I-0.468 J-0.238
G1 X-12.262 Y-24.451
X-12.228 Y-24.47
X-12.189 Y-24.475
X-12.151 Y-24.464
X-12.107 Y-24.441
X-12.073 Y-24.424 Z-3.192
X-12.044 Y-24.409 Z-3.171
X-12.024 Y-24.399 Z-3.138
X-12.018 Y-24.396 Z-3.1
G0 Z5
X-18.306 Y-23.917
Z2
G1 Z0.1 F1000
X-18.311 Y-23.911 Z0.062
X-18.326 Y-23.896 Z0.029
X-18.349 Y-23.873 Z0.008
X-18.376 Y-23.846 Z0
X-18.412 Y-23.811
X-18.444 Y-23.789
X-18.483 Y-23.781
X-18.521 Y-23.789
X-18.553 Y-23.811
G3 X-17.811 Y-24.553 Z-0.5 I0.371 J-0.371
X-18.553 Y-23.811 Z-1 I-0.371 J0.371
X-17.811 Y-24.553 Z-1.5 I0.371 J-0.371
X-18.553 Y-23.811 Z-2 I-0.371 J0.371
X-17.811 Y-24.553 Z-2.5 I0.371 J-0.371
X-18.553 Y-23.811 Z-3 I-0.371 J0.371
X-18.65 Y-24.42 Z-3.2 I0.371 J-0.371
X-17.714 Y-23.944 I0.468 J0.238
X-18.65 Y-24.42 I-0.468 J-0.238
G1 X-18.626 Y-24.451
X-18.592 Y-24.47
X-18.553 Y-24.475
X-18.515 Y-24.464
X-18.471 Y-24.441
X-18.437 Y-24.424 Z-3.192
X-18.408 Y-24.409 Z-3.171
X-18.388 Y-24.399 Z-3.138
X-18.382 Y-24.396 Z-3.1
G0 Z5
X-18.306 Y-44.22
Z2
G1 Z0.1 F1000
X-18.311 Y-44.214 Z0.062
X-18.326 Y-44.199 Z0.029
X-18.349 Y-44.176 Z0.008
X-18.376 Y-44.149 Z0
X-18.412 Y-44.113
X-18.444 Y-44.092
X-18.483 Y-44.084
X-18.521 Y-44.092
X-18.553 Y-44.113
G3 X-17.811 Y-44.856 Z-0.5 I0.371 J-0.371
X-18.553 Y-44.113 Z-1 I-0.371 J0.371
X-17.811 Y-44.856 Z-1.5 I0.371 J-0.371
X-18.553 Y-44.113 Z-2 I-0.371 J0.371
X-17.811 Y-44.856 Z-2.5 I0.371 J-0.371
X-18.553 Y-44.113 Z-3 I-0.371 J0.371
X-18.65 Y-44.723 Z-3.2 I0.371 J-0.371
X-17.714 Y-44.246 I0.468 J0.238
X-18.65 Y-44.723 I-0.468 J-0.238
G1 X-18.626 Y-44.754
X-18.592 Y-44.773
X-18.553 Y-44.777
X-18.515 Y-44.767
X-18.471 Y-44.744
X-18.437 Y-44.727 Z-3.192
X-18.408 Y-44.712 Z-3.171
X-18.388 Y-44.702 Z-3.138
X-18.382 Y-44.699 Z-3.1
G0 Z5
X-11.942 Y-44.22
Z2
G1 Z0.1 F1000
X-11.947 Y-44.214 Z0.062
X-11.962 Y-44.199 Z0.029
X-11.985 Y-44.176 Z0.008
X-12.012 Y-44.149 Z0
X-12.048 Y-44.113
X-12.08 Y-44.092
X-12.119 Y-44.084
X-12.157 Y-44.092
X-12.189 Y-44.113
G3 X-11.447 Y-44.856 Z-0.5 I0.371 J-0.371
X-12.189 Y-44.113 Z-1 I-0.371 J0.371
X-11.447 Y-44.856 Z-1.5 I0.371 J-0.371
X-12.189 Y-44.113 Z-2 I-0.371 J0.371
X-11.447 Y-44.856 Z-2.5 I0.371 J-0.371
X-12.189 Y-44.113 Z-3 I-0.371 J0.371
X-12.286 Y-44.723 Z-3.2 I0.371 J-0.371
X-11.35 Y-44.246 I0.468 J0.238
X-12.286 Y-44.723 I-0.468 J-0.238
G1 X-12.262 Y-44.754
X-12.228 Y-44.773
X-12.189 Y-44.777
X-12.151 Y-44.767
X-12.107 Y-44.744
X-12.073 Y-44.727 Z-3.192
X-12.044 Y-44.712 Z-3.171
X-12.024 Y-44.702 Z-3.138
X-12.018 Y-44.699 Z-3.1
G0 Z5
X-11.942 Y-50.583
Z2
G1 Z0.1 F1000
X-11.947 Y-50.578 Z0.062
X-11.962 Y-50.563 Z0.029
X-11.985 Y-50.54 Z0.008
X-12.012 Y-50.513 Z0
X-12.048 Y-50.477
X-12.08 Y-50.456
X-12.119 Y-50.448
X-12.157 Y-50.456
X-12.189 Y-50.477
G3 X-11.447 Y-51.22 Z-0.5 I0.371 J-0.371
X-12.189 Y-50.477 Z-1 I-0.371 J0.371
X-11.447 Y-51.22 Z-1.5 I0.371 J-0.371
X-12.189 Y-50.477 Z-2 I-0.371 J0.371
X-11.447 Y-51.22 Z-2.5 I0.371 J-0.371
X-12.189 Y-50.477 Z-3 I-0.371 J0.371
X-12.286 Y-51.087 Z-3.2 I0.371 J-0.371
X-11.35 Y-50.61 I0.468 J0.238
X-12.286 Y-51.087 I-0.468 J-0.238
G1 X-12.262 Y-51.118
X-12.228 Y-51.137
X-12.189 Y-51.141
X-12.151 Y-51.131
X-12.107 Y-51.108
X-12.073 Y-51.091 Z-3.192
X-12.044 Y-51.076 Z-3.171
X-12.024 Y-51.066 Z-3.138
X-12.018 Y-51.063 Z-3.1
G0 Z5
X-18.306 Y-50.583
Z2
G1 Z0.1 F1000
X-18.311 Y-50.578 Z0.062
X-18.326 Y-50.563 Z0.029
X-18.349 Y-50.54 Z0.008
X-18.376 Y-50.513 Z0
X-18.412 Y-50.477
X-18.444 Y-50.456
X-18.483 Y-50.448
X-18.521 Y-50.456
X-18.553 Y-50.477
G3 X-17.811 Y-51.22 Z-0.5 I0.371 J-0.371
X-18.553 Y-50.477 Z-1 I-0.371 J0.371
X-17.811 Y-51.22 Z-1.5 I0.371 J-0.371
X-18.553 Y-50.477 Z-2 I-0.371 J0.371
X-17.811 Y-51.22 Z-2.5 I0.371 J-0.371
X-18.553 Y-50.477 Z-3 I-0.371 J0.371
X-18.65 Y-51.087 Z-3.2 I0.371 J-0.371
X-17.714 Y-50.61 I0.468 J0.238
X-18.65 Y-51.087 I-0.468 J-0.238
G1 X-18.626 Y-51.118
X-18.592 Y-51.137
X-18.553 Y-51.141
X-18.515 Y-51.131
X-18.471 Y-51.108
X-18.437 Y-51.091 Z-3.192
X-18.408 Y-51.076 Z-3.171
X-18.388 Y-51.066 Z-3.138
X-18.382 Y-51.063 Z-3.1
G0 Z5
X-18.306 Y-70.886
Z2
G1 Z0.1 F1000
X-18.311 Y-70.881 Z0.062
X-18.326 Y-70.865 Z0.029
X-18.349 Y-70.843 Z0.008
X-18.376 Y-70.815 Z0
X-18.412 Y-70.78
X-18.444 Y-70.758
X-18.483 Y-70.751
X-18.521 Y-70.758
X-18.553 Y-70.78
G3 X-17.811 Y-71.523 Z-0.5 I0.371 J-0.371
X-18.553 Y-70.78 Z-1 I-0.371 J0.371
X-17.811 Y-71.523 Z-1.5 I0.371 J-0.371
X-18.553 Y-70.78 Z-2 I-0.371 J0.371
X-17.811 Y-71.523 Z-2.5 I0.371 J-0.371
X-18.553 Y-70.78 Z-3 I-0.371 J0.371
X-18.65 Y-71.39 Z-3.2 I0.371 J-0.371
X-17.714 Y-70.913 I0.468 J0.238
X-18.65 Y-71.39 I-0.468 J-0.238
G1 X-18.626 Y-71.42
X-18.592 Y-71.439
X-18.553 Y-71.444
X-18.515 Y-71.433
X-18.471 Y-71.411
X-18.437 Y-71.393 Z-3.192
X-18.408 Y-71.379 Z-3.171
X-18.388 Y-71.369 Z-3.138
X-18.382 Y-71.365 Z-3.1
G0 Z5
X-11.942 Y-70.886
Z2
G1 Z0.1 F1000
X-11.947 Y-70.881 Z0.062
X-11.962 Y-70.865 Z0.029
X-11.985 Y-70.843 Z0.008
X-12.012 Y-70.815 Z0
X-12.048 Y-70.78
X-12.08 Y-70.758
X-12.119 Y-70.751
X-12.157 Y-70.758
X-12.189 Y-70.78
G3 X-11.447 Y-71.523 Z-0.5 I0.371 J-0.371
X-12.189 Y-70.78 Z-1 I-0.371 J0.371
X-11.447 Y-71.523 Z-1.5 I0.371 J-0.371
X-12.189 Y-70.78 Z-2 I-0.371 J0.371
X-11.447 Y-71.523 Z-2.5 I0.371 J-0.371
X-12.189 Y-70.78 Z-3 I-0.371 J0.371
X-12.286 Y-71.39 Z-3.2 I0.371 J-0.371
X-11.35 Y-70.913 I0.468 J0.238
X-12.286 Y-71.39 I-0.468 J-0.238
G1 X-12.262 Y-71.42
X-12.228 Y-71.439
X-12.189 Y-71.444
X-12.151 Y-71.433
X-12.107 Y-71.411
X-12.073 Y-71.393 Z-3.192
X-12.044 Y-71.379 Z-3.171
X-12.024 Y-71.369 Z-3.138
X-12.018 Y-71.365 Z-3.1
G0 Z5
X-11.942 Y-77.25
Z2
G1 Z0.1 F1000
X-11.947 Y-77.245 Z0.062
X-11.962 Y-77.229 Z0.029
X-11.985 Y-77.206 Z0.008
X-12.012 Y-77.179 Z0
X-12.048 Y-77.144
X-12.08 Y-77.122
X-12.119 Y-77.115
X-12.157 Y-77.122
X-12.189 Y-77.144
G3 X-11.447 Y-77.887 Z-0.5 I0.371 J-0.371
X-12.189 Y-77.144 Z-1 I-0.371 J0.371
X-11.447 Y-77.887 Z-1.5 I0.371 J-0.371
X-12.189 Y-77.144 Z-2 I-0.371 J0.371
X-11.447 Y-77.887 Z-2.5 I0.371 J-0.371
X-12.189 Y-77.144 Z-3 I-0.371 J0.371
X-12.286 Y-77.754 Z-3.2 I0.371 J-0.371
X-11.35 Y-77.277 I0.468 J0.238
X-12.286 Y-77.754 I-0.468 J-0.238
G1 X-12.262 Y-77.784
X-12.228 Y-77.803
X-12.189 Y-77.808
X-12.151 Y-77.797
X-12.107 Y-77.775
X-12.073 Y-77.757 Z-3.192
X-12.044 Y-77.743 Z-3.171
X-12.024 Y-77.733 Z-3.138
X-12.018 Y-77.729 Z-3.1
G0 Z5
X-18.306 Y-77.25
Z2
G1 Z0.1 F1000
X-18.311 Y-77.245 Z0.062
X-18.326 Y-77.229 Z0.029
X-18.349 Y-77.206 Z0.008
X-18.376 Y-77.179 Z0
X-18.412 Y-77.144
X-18.444 Y-77.122
X-18.483 Y-77.115
X-18.521 Y-77.122
X-18.553 Y-77.144
G3 X-17.811 Y-77.887 Z-0.5 I0.371 J-0.371
X-18.553 Y-77.144 Z-1 I-0.371 J0.371
X-17.811 Y-77.887 Z-1.5 I0.371 J-0.371
X-18.553 Y-77.144 Z-2 I-0.371 J0.371
X-17.811 Y-77.887 Z-2.5 I0.371 J-0.371
X-18.553 Y-77.144 Z-3 I-0.371 J0.371
X-18.65 Y-77.754 Z-3.2 I0.371 J-0.371
X-17.714 Y-77.277 I0.468 J0.238
X-18.65 Y-77.754 I-0.468 J-0.238
G1 X-18.626 Y-77.784
X-18.592 Y-77.803
X-18.553 Y-77.808
X-18.515 Y-77.797
X-18.471 Y-77.775
X-18.437 Y-77.757 Z-3.192
X-18.408 Y-77.743 Z-3.171
X-18.388 Y-77.733 Z-3.138
X-18.382 Y-77.729 Z-3.1
G0 Z5
X-18.306 Y-97.553
Z2
G1 Z0.1 F1000
X-18.311 Y-97.547 Z0.062
X-18.326 Y-97.532 Z0.029
X-18.349 Y-97.509 Z0.008
X-18.376 Y-97.482 Z0
X-18.412 Y-97.447
X-18.444 Y-97.425
X-18.483 Y-97.417
X-18.521 Y-97.425
X-18.553 Y-97.447
G3 X-17.811 Y-98.189 Z-0.5 I0.371 J-0.371
X-18.553 Y-97.447 Z-1 I-0.371 J0.371
X-17.811 Y-98.189 Z-1.5 I0.371 J-0.371
X-18.553 Y-97.447 Z-2 I-0.371 J0.371
X-17.811 Y-98.189 Z-2.5 I0.371 J-0.371
X-18.553 Y-97.447 Z-3 I-0.371 J0.371
X-18.65 Y-98.056 Z-3.2 I0.371 J-0.371
X-17.714 Y-97.58 I0.468 J0.238
X-18.65 Y-98.056 I-0.468 J-0.238
G1 X-18.626 Y-98.087
X-18.592 Y-98.106
X-18.553 Y-98.111
X-18.515 Y-98.1
X-18.471 Y-98.077
X-18.437 Y-98.06 Z-3.192
X-18.408 Y-98.045 Z-3.171
X-18.388 Y-98.035 Z-3.138
X-18.382 Y-98.032 Z-3.1
G0 Z5
X-11.942 Y-97.553
Z2
G1 Z0.1 F1000
X-11.947 Y-97.547 Z0.062
X-11.962 Y-97.532 Z0.029
X-11.985 Y-97.509 Z0.008
X-12.012 Y-97.482 Z0
X-12.048 Y-97.447
X-12.08 Y-97.425
X-12.119 Y-97.417
X-12.157 Y-97.425
X-12.189 Y-97.447
G3 X-11.447 Y-98.189 Z-0.5 I0.371 J-0.371
X-12.189 Y-97.447 Z-1 I-0.371 J0.371
X-11.447 Y-98.189 Z-1.5 I0.371 J-0.371
X-12.189 Y-97.447 Z-2 I-0.371 J0.371
X-11.447 Y-98.189 Z-2.5 I0.371 J-0.371
X-12.189 Y-97.447 Z-3 I-0.371 J0.371
X-12.286 Y-98.056 Z-3.2 I0.371 J-0.371
X-11.35 Y-97.58 I0.468 J0.238
X-12.286 Y-98.056 I-0.468 J-0.238
G1 X-12.262 Y-98.087
X-12.228 Y-98.106
X-12.189 Y-98.111
X-12.151 Y-98.1
X-12.107 Y-98.077
X-12.073 Y-98.06 Z-3.192
X-12.044 Y-98.045 Z-3.171
X-12.024 Y-98.035 Z-3.138
X-12.018 Y-98.032 Z-3.1
G0 Z5
X-11.942 Y-103.917
Z2
G1 Z0.1 F1000
X-11.947 Y-103.911 Z0.062
X-11.962 Y-103.896 Z0.029
X-11.985 Y-103.873 Z0.008
X-12.012 Y-103.846 Z0
X-12.048 Y-103.811
X-12.08 Y-103.789
X-12.119 Y-103.781
X-12.157 Y-103.789
X-12.189 Y-103.811
G3 X-11.447 Y-104.553 Z-0.5 I0.371 J-0.371
X-12.189 Y-103.811 Z-1 I-0.371 J0.371
X-11.447 Y-104.553 Z-1.5 I0.371 J-0.371
X-12.189 Y-103.811 Z-2 I-0.371 J0.371
X-11.447 Y-104.553 Z-2.5 I0.371 J-0.371
X-12.189 Y-103.811 Z-3 I-0.371 J0.371
X-12.286 Y-104.42 Z-3.2 I0.371 J-0.371
X-11.35 Y-103.944 I0.468 J0.238
X-12.286 Y-104.42 I-0.468 J-0.238
G1 X-12.262 Y-104.451
X-12.228 Y-104.47
X-12.189 Y-104.475
X-12.151 Y-104.464
X-12.107 Y-104.441
X-12.073 Y-104.424 Z-3.192
X-12.044 Y-104.409 Z-3.171
X-12.024 Y-104.399 Z-3.138
X-12.018 Y-104.396 Z-3.1
G0 Z5
X-18.306 Y-103.917
Z2
G1 Z0.1 F1000
X-18.311 Y-103.911 Z0.062
X-18.326 Y-103.896 Z0.029
X-18.349 Y-103.873 Z0.008
X-18.376 Y-103.846 Z0
X-18.412 Y-103.811
X-18.444 Y-103.789
X-18.483 Y-103.781
X-18.521 Y-103.789
X-18.553 Y-103.811
G3 X-17.811 Y-104.553 Z-0.5 I0.371 J-0.371
X-18.553 Y-103.811 Z-1 I-0.371 J0.371
X-17.811 Y-104.553 Z-1.5 I0.371 J-0.371
X-18.553 Y-103.811 Z-2 I-0.371 J0.371
X-17.811 Y-104.553 Z-2.5 I0.371 J-0.371
X-18.553 Y-103.811 Z-3 I-0.371 J0.371
X-18.65 Y-104.42 Z-3.2 I0.371 J-0.371
X-17.714 Y-103.944 I0.468 J0.238
X-18.65 Y-104.42 I-0.468 J-0.238
G1 X-18.626 Y-104.451
X-18.592 Y-104.47
X-18.553 Y-104.475
X-18.515 Y-104.464
X-18.471 Y-104.441
X-18.437 Y-104.424 Z-3.192
X-18.408 Y-104.409 Z-3.171
X-18.388 Y-104.399 Z-3.138
X-18.382 Y-104.396 Z-3.1
G0 Z5
X-85.893 Y-91.798
Z2
G1 Z0.1 F1000
X-85.888 Y-91.803 Z0.062
X-85.873 Y-91.818 Z0.029
X-85.85 Y-91.841 Z0.008
X-85.823 Y-91.868 Z0
X-85.787 Y-91.904
X-85.755 Y-91.925
X-85.717 Y-91.933
X-85.678 Y-91.925
X-85.646 Y-91.904
G3 X-86.388 Y-91.161 Z-0.5 I-0.371 J0.371
X-85.646 Y-91.904 Z-1 I0.371 J-0.371
X-86.388 Y-91.161 Z-1.5 I-0.371 J0.371
X-85.646 Y-91.904 Z-2 I0.371 J-0.371
X-86.388 Y-91.161 Z-2.5 I-0.371 J0.371
X-85.646 Y-91.904 Z-3 I0.371 J-0.371
X-85.549 Y-91.294 Z-3.2 I-0.371 J0.371
X-86.485 Y-91.771 I-0.468 J-0.238
X-85.549 Y-91.294 I0.468 J0.238
G1 X-85.574 Y-91.264
X-85.608 Y-91.245
X-85.646 Y-91.24
X-85.684 Y-91.251
X-85.728 Y-91.273
X-85.762 Y-91.291 Z-3.192
X-85.791 Y-91.305 Z-3.171
X-85.811 Y-91.315 Z-3.138
X-85.817 Y-91.319 Z-3.1
G0 Z5
X-92.257 Y-91.798
Z2
G1 Z0.1 F1000
X-92.252 Y-91.803 Z0.062
X-92.237 Y-91.818 Z0.029
X-92.214 Y-91.841 Z0.008
X-92.187 Y-91.868 Z0
X-92.151 Y-91.904
X-92.119 Y-91.925
X-92.081 Y-91.933
X-92.042 Y-91.925
X-92.01 Y-91.904
G3 X-92.752 Y-91.161 Z-0.5 I-0.371 J0.371
X-92.01 Y-91.904 Z-1 I0.371 J-0.371
X-92.752 Y-91.161 Z-1.5 I-0.371 J0.371
X-92.01 Y-91.904 Z-2 I0.371 J-0.371
X-92.752 Y-91.161 Z-2.5 I-0.371 J0.371
X-92.01 Y-91.904 Z-3 I0.371 J-0.371
X-91.913 Y-91.294 Z-3.2 I-0.371 J0.371
X-92.849 Y-91.771 I-0.468 J-0.238
X-91.913 Y-91.294 I0.468 J0.238
G1 X-91.937 Y-91.264
X-91.972 Y-91.245
X-92.01 Y-91.24
X-92.048 Y-91.251
X-92.092 Y-91.273
X-92.126 Y-91.291 Z-3.192
X-92.155 Y-91.305 Z-3.171
X-92.175 Y-91.315 Z-3.138
X-92.181 Y-91.319 Z-3.1
G0 Z5
X-92.257 Y-85.434
Z2
G1 Z0.1 F1000
X-92.252 Y-85.439 Z0.062
X-92.237 Y-85.454 Z0.029
X-92.214 Y-85.477 Z0.008
X-92.187 Y-85.504 Z0
X-92.151 Y-85.54
X-92.119 Y-85.562
X-92.081 Y-85.569
X-92.042 Y-85.562
X-92.01 Y-85.54
G3 X-92.752 Y-84.797 Z-0.5 I-0.371 J0.371
X-92.01 Y-85.54 Z-1 I0.371 J-0.371
X-92.752 Y-84.797 Z-1.5 I-0.371 J0.371
X-92.01 Y-85.54 Z-2 I0.371 J-0.371
X-92.752 Y-84.797 Z-2.5 I-0.371 J0.371
X-92.01 Y-85.54 Z-3 I0.371 J-0.371
X-91.913 Y-84.93 Z-3.2 I-0.371 J0.371
X-92.849 Y-85.407 I-0.468 J-0.238
X-91.913 Y-84.93 I0.468 J0.238
G1 X-91.937 Y-84.9
X-91.972 Y-84.881
X-92.01 Y-84.876
X-92.048 Y-84.887
X-92.092 Y-84.909
X-92.126 Y-84.927 Z-3.192
X-92.155 Y-84.941 Z-3.171
X-92.175 Y-84.951 Z-3.138
X-92.181 Y-84.955 Z-3.1
G0 Z5
X-85.893 Y-85.434
Z2
G1 Z0.1 F1000
X-85.888 Y-85.439 Z0.062
X-85.873 Y-85.454 Z0.029
X-85.85 Y-85.477 Z0.008
X-85.823 Y-85.504 Z0
X-85.787 Y-85.54
X-85.755 Y-85.562
X-85.717 Y-85.569
X-85.678 Y-85.562
X-85.646 Y-85.54
G3 X-86.388 Y-84.797 Z-0.5 I-0.371 J0.371
X-85.646 Y-85.54 Z-1 I0.371 J-0.371
X-86.388 Y-84.797 Z-1.5 I-0.371 J0.371
X-85.646 Y-85.54 Z-2 I0.371 J-0.371
X-86.388 Y-84.797 Z-2.5 I-0.371 J0.371
X-85.646 Y-85.54 Z-3 I0.371 J-0.371
X-85.549 Y-84.93 Z-3.2 I-0.371 J0.371
X-86.485 Y-85.407 I-0.468 J-0.238
X-85.549 Y-84.93 I0.468 J0.238
G1 X-85.574 Y-84.9
X-85.608 Y-84.881
X-85.646 Y-84.876
X-85.684 Y-84.887
X-85.728 Y-84.909
X-85.762 Y-84.927 Z-3.192
X-85.791 Y-84.941 Z-3.171
X-85.811 Y-84.951 Z-3.138
X-85.817 Y-84.955 Z-3.1
G0 Z5
X-85.893 Y-65.131
Z2
G1 Z0.1 F1000
X-85.888 Y-65.136 Z0.062
X-85.873 Y-65.152 Z0.029
X-85.85 Y-65.175 Z0.008
X-85.823 Y-65.202 Z0
X-85.787 Y-65.237
X-85.755 Y-65.259
X-85.717 Y-65.266
X-85.678 Y-65.259
X-85.646 Y-65.237
G3 X-86.388 Y-64.495 Z-0.5 I-0.371 J0.371
X-85.646 Y-65.237 Z-1 I0.371 J-0.371
X-86.388 Y-64.495 Z-1.5 I-0.371 J0.371
X-85.646 Y-65.237 Z-2 I0.371 J-0.371
X-86.388 Y-64.495 Z-2.5 I-0.371 J0.371
X-85.646 Y-65.237 Z-3 I0.371 J-0.371
X-85.549 Y-64.628 Z-3.2 I-0.371 J0.371
X-86.485 Y-65.104 I-0.468 J-0.238
X-85.549 Y-64.628 I0.468 J0.238
G1 X-85.574 Y-64.597
X-85.608 Y-64.578
X-85.646 Y-64.573
X-85.684 Y-64.584
X-85.728 Y-64.607
X-85.762 Y-64.624 Z-3.192
X-85.791 Y-64.639 Z-3.171
X-85.811 Y-64.648 Z-3.138
X-85.817 Y-64.652 Z-3.1
G0 Z5
X-92.257 Y-65.131
Z2
G1 Z0.1 F1000
X-92.252 Y-65.136 Z0.062
X-92.237 Y-65.152 Z0.029
X-92.214 Y-65.175 Z0.008
X-92.187 Y-65.202 Z0
X-92.151 Y-65.237
X-92.119 Y-65.259
X-92.081 Y-65.266
X-92.042 Y-65.259
X-92.01 Y-65.237
G3 X-92.752 Y-64.495 Z-0.5 I-0.371 J0.371
X-92.01 Y-65.237 Z-1 I0.371 J-0.371
X-92.752 Y-64.495 Z-1.5 I-0.371 J0.371
X-92.01 Y-65.237 Z-2 I0.371 J-0.371
X-92.752 Y-64.495 Z-2.5 I-0.371 J0.371
X-92.01 Y-65.237 Z-3 I0.371 J-0.371
X-91.913 Y-64.628 Z-3.2 I-0.371 J0.371
X-92.849 Y-65.104 I-0.468 J-0.238
X-91.913 Y-64.628 I0.468 J0.238
G1 X-91.937 Y-64.597
X-91.972 Y-64.578
X-92.01 Y-64.573
X-92.048 Y-64.584
X-92.092 Y-64.607
X-92.126 Y-64.624 Z-3.192
X-92.155 Y-64.639 Z-3.171
X-92.175 Y-64.648 Z-3.138
X-92.181 Y-64.652 Z-3.1
G0 Z5
X-92.257 Y-58.767
Z2
G1 Z0.1 F1000
X-92.252 Y-58.772 Z0.062
X-92.237 Y-58.788 Z0.029
X-92.214 Y-58.811 Z0.008
X-92.187 Y-58.838 Z0
X-92.151 Y-58.873
X-92.119 Y-58.895
X-92.081 Y-58.902
X-92.042 Y-58.895
X-92.01 Y-58.873
G3 X-92.752 Y-58.131 Z-0.5 I-0.371 J0.371
X-92.01 Y-58.873 Z-1 I0.371 J-0.371
X-92.752 Y-58.131 Z-1.5 I-0.371 J0.371
X-92.01 Y-58.873 Z-2 I0.371 J-0.371
X-92.752 Y-58.131 Z-2.5 I-0.371 J0.371
X-92.01 Y-58.873 Z-3 I0.371 J-0.371
X-91.913 Y-58.264 Z-3.2 I-0.371 J0.371
X-92.849 Y-58.74 I-0.468 J-0.238
X-91.913 Y-58.264 I0.468 J0.238
G1 X-91.937 Y-58.233
X-91.972 Y-58.214
X-92.01 Y-58.209
X-92.048 Y-58.22
X-92.092 Y-58.243
X-92.126 Y-58.26 Z-3.192
X-92.155 Y-58.275 Z-3.171
X-92.175 Y-58.285 Z-3.138
X-92.181 Y-58.288 Z-3.1
G0 Z5
X-85.893 Y-58.767
Z2
G1 Z0.1 F1000
X-85.888 Y-58.772 Z0.062
X-85.873 Y-58.788 Z0.029
X-85.85 Y-58.811 Z0.008
X-85.823 Y-58.838 Z0
X-85.787 Y-58.873
X-85.755 Y-58.895
X-85.717 Y-58.902
X-85.678 Y-58.895
X-85.646 Y-58.873
G3 X-86.388 Y-58.131 Z-0.5 I-0.371 J0.371
X-85.646 Y-58.873 Z-1 I0.371 J-0.371
X-86.388 Y-58.131 Z-1.5 I-0.371 J0.371
X-85.646 Y-58.873 Z-2 I0.371 J-0.371
X-86.388 Y-58.131 Z-2.5 I-0.371 J0.371
X-85.646 Y-58.873 Z-3 I0.371 J-0.371
X-85.549 Y-58.264 Z-3.2 I-0.371 J0.371
X-86.485 Y-58.74 I-0.468 J-0.238
X-85.549 Y-58.264 I0.468 J0.238
G1 X-85.574 Y-58.233
X-85.608 Y-58.214
X-85.646 Y-58.209
X-85.684 Y-58.22
X-85.728 Y-58.243
X-85.762 Y-58.26 Z-3.192
X-85.791 Y-58.275 Z-3.171
X-85.811 Y-58.285 Z-3.138
X-85.817 Y-58.288 Z-3.1
G0 Z5
X-85.893 Y-38.464
Z2
G1 Z0.1 F1000
X-85.888 Y-38.47 Z0.062
X-85.873 Y-38.485 Z0.029
X-85.85 Y-38.508 Z0.008
X-85.823 Y-38.535 Z0
X-85.787 Y-38.57
X-85.755 Y-38.592
X-85.717 Y-38.6
X-85.678 Y-38.592
X-85.646 Y-38.57
G3 X-86.388 Y-37.828 Z-0.5 I-0.371 J0.371
X-85.646 Y-38.57 Z-1 I0.371 J-0.371
X-86.388 Y-37.828 Z-1.5 I-0.371 J0.371
X-85.646 Y-38.57 Z-2 I0.371 J-0.371
X-86.388 Y-37.828 Z-2.5 I-0.371 J0.371
X-85.646 Y-38.57 Z-3 I0.371 J-0.371
X-85.549 Y-37.961 Z-3.2 I-0.371 J0.371
X-86.485 Y-38.438 I-0.468 J-0.238
X-85.549 Y-37.961 I0.468 J0.238
G1 X-85.574 Y-37.93
X-85.608 Y-37.911
X-85.646 Y-37.907
X-85.684 Y-37.917
X-85.728 Y-37.94
X-85.762 Y-37.957 Z-3.192
X-85.791 Y-37.972 Z-3.171
X-85.811 Y-37.982 Z-3.138
X-85.817 Y-37.985 Z-3.1
G0 Z5
X-92.257 Y-38.464
Z2
G1 Z0.1 F1000
X-92.252 Y-38.47 Z0.062
X-92.237 Y-38.485 Z0.029
X-92.214 Y-38.508 Z0.008
X-92.187 Y-38.535 Z0
X-92.151 Y-38.57
X-92.119 Y-38.592
X-92.081 Y-38.6
X-92.042 Y-38.592
X-92.01 Y-38.57
G3 X-92.752 Y-37.828 Z-0.5 I-0.371 J0.371
X-92.01 Y-38.57 Z-1 I0.371 J-0.371
X-92.752 Y-37.828 Z-1.5 I-0.371 J0.371
X-92.01 Y-38.57 Z-2 I0.371 J-0.371
X-92.752 Y-37.828 Z-2.5 I-0.371 J0.371
X-92.01 Y-38.57 Z-3 I0.371 J-0.371
X-91.913 Y-37.961 Z-3.2 I-0.371 J0.371
X-92.849 Y-38.438 I-0.468 J-0.238
X-91.913 Y-37.961 I0.468 J0.238
G1 X-91.937 Y-37.93
X-91.972 Y-37.911
X-92.01 Y-37.907
X-92.048 Y-37.917
X-92.092 Y-37.94
X-92.126 Y-37.957 Z-3.192
X-92.155 Y-37.972 Z-3.171
X-92.175 Y-37.982 Z-3.138
X-92.181 Y-37.985 Z-3.1
G0 Z5
X-92.257 Y-32.1
Z2
G1 Z0.1 F1000
X-92.252 Y-32.106 Z0.062
X-92.237 Y-32.121 Z0.029
X-92.214 Y-32.144 Z0.008
X-92.187 Y-32.171 Z0
X-92.151 Y-32.206
X-92.119 Y-32.228
X-92.081 Y-32.236
X-92.042 Y-32.228
X-92.01 Y-32.206
G3 X-92.752 Y-31.464 Z-0.5 I-0.371 J0.371
X-92.01 Y-32.206 Z-1 I0.371 J-0.371
X-92.752 Y-31.464 Z-1.5 I-0.371 J0.371
X-92.01 Y-32.206 Z-2 I0.371 J-0.371
X-92.752 Y-31.464 Z-2.5 I-0.371 J0.371
X-92.01 Y-32.206 Z-3 I0.371 J-0.371
X-91.913 Y-31.597 Z-3.2 I-0.371 J0.371
X-92.849 Y-32.074 I-0.468 J-0.238
X-91.913 Y-31.597 I0.468 J0.238
G1 X-91.937 Y-31.566
X-91.972 Y-31.547
X-92.01 Y-31.543
X-92.048 Y-31.553
X-92.092 Y-31.576
X-92.126 Y-31.593 Z-3.192
X-92.155 Y-31.608 Z-3.171
X-92.175 Y-31.618 Z-3.138
X-92.181 Y-31.621 Z-3.1
G0 Z5
X-85.893 Y-32.1
Z2
G1 Z0.1 F1000
X-85.888 Y-32.106 Z0.062
X-85.873 Y-32.121 Z0.029
X-85.85 Y-32.144 Z0.008
X-85.823 Y-32.171 Z0
X-85.787 Y-32.206
X-85.755 Y-32.228
X-85.717 Y-32.236
X-85.678 Y-32.228
X-85.646 Y-32.206
G3 X-86.388 Y-31.464 Z-0.5 I-0.371 J0.371
X-85.646 Y-32.206 Z-1 I0.371 J-0.371
X-86.388 Y-31.464 Z-1.5 I-0.371 J0.371
X-85.646 Y-32.206 Z-2 I0.371 J-0.371
X-86.388 Y-31.464 Z-2.5 I-0.371 J0.371
X-85.646 Y-32.206 Z-3 I0.371 J-0.371
X-85.549 Y-31.597 Z-3.2 I-0.371 J0.371
X-86.485 Y-32.074 I-0.468 J-0.238
X-85.549 Y-31.597 I0.468 J0.238
G1 X-85.574 Y-31.566
X-85.608 Y-31.547
X-85.646 Y-31.543
X-85.684 Y-31.553
X-85.728 Y-31.576
X-85.762 Y-31.593 Z-3.192
X-85.791 Y-31.608 Z-3.171
X-85.811 Y-31.618 Z-3.138
X-85.817 Y-31.621 Z-3.1
G0 Z5
X-85.893 Y-11.798
Z2
G1 Z0.1 F1000
X-85.888 Y-11.803 Z0.062
X-85.873 Y-11.818 Z0.029
X-85.85 Y-11.841 Z0.008
X-85.823 Y-11.868 Z0
X-85.787 Y-11.904
X-85.755 Y-11.925
X-85.717 Y-11.933
X-85.678 Y-11.925
X-85.646 Y-11.904
G3 X-86.388 Y-11.161 Z-0.5 I-0.371 J0.371
X-85.646 Y-11.904 Z-1 I0.371 J-0.371
X-86.388 Y-11.161 Z-1.5 I-0.371 J0.371
X-85.646 Y-11.904 Z-2 I0.371 J-0.371
X-86.388 Y-11.161 Z-2.5 I-0.371 J0.371
X-85.646 Y-11.904 Z-3 I0.371 J-0.371
X-85.549 Y-11.294 Z-3.2 I-0.371 J0.371
X-86.485 Y-11.771 I-0.468 J-0.238
X-85.549 Y-11.294 I0.468 J0.238
G1 X-85.574 Y-11.264
X-85.608 Y-11.245
X-85.646 Y-11.24
X-85.684 Y-11.251
X-85.728 Y-11.273
X-85.762 Y-11.291 Z-3.192
X-85.791 Y-11.305 Z-3.171
X-85.811 Y-11.315 Z-3.138
X-85.817 Y-11.319 Z-3.1
G0 Z5
X-92.257 Y-11.798
Z2
G1 Z0.1 F1000
X-92.252 Y-11.803 Z0.062
X-92.237 Y-11.818 Z0.029
X-92.214 Y-11.841 Z0.008
X-92.187 Y-11.868 Z0
X-92.151 Y-11.904
X-92.119 Y-11.925
X-92.081 Y-11.933
X-92.042 Y-11.925
X-92.01 Y-11.904
G3 X-92.752 Y-11.161 Z-0.5 I-0.371 J0.371
X-92.01 Y-11.904 Z-1 I0.371 J-0.371
X-92.752 Y-11.161 Z-1.5 I-0.371 J0.371
X-92.01 Y-11.904 Z-2 I0.371 J-0.371
X-92.752 Y-11.161 Z-2.5 I-0.371 J0.371
X-92.01 Y-11.904 Z-3 I0.371 J-0.371
X-91.913 Y-11.294 Z-3.2 I-0.371 J0.371
X-92.849 Y-11.771 I-0.468 J-0.238
X-91.913 Y-11.294 I0.468 J0.238
G1 X-91.937 Y-11.264
X-91.972 Y-11.245
X-92.01 Y-11.24
X-92.048 Y-11.251
X-92.092 Y-11.273
X-92.126 Y-11.291 Z-3.192
X-92.155 Y-11.305 Z-3.171
X-92.175 Y-11.315 Z-3.138
X-92.181 Y-11.319 Z-3.1
G0 Z5
X-92.257 Y-5.434
Z2
G1 Z0.1 F1000
X-92.252 Y-5.439 Z0.062
X-92.237 Y-5.454 Z0.029
X-92.214 Y-5.477 Z0.008
X-92.187 Y-5.504 Z0
X-92.151 Y-5.54
X-92.119 Y-5.562
X-92.081 Y-5.569
X-92.042 Y-5.562
X-92.01 Y-5.54
G3 X-92.752 Y-4.797 Z-0.5 I-0.371 J0.371
X-92.01 Y-5.54 Z-1 I0.371 J-0.371
X-92.752 Y-4.797 Z-1.5 I-0.371 J0.371
X-92.01 Y-5.54 Z-2 I0.371 J-0.371
X-92.752 Y-4.797 Z-2.5 I-0.371 J0.371
X-92.01 Y-5.54 Z-3 I0.371 J-0.371
X-91.913 Y-4.93 Z-3.2 I-0.371 J0.371
X-92.849 Y-5.407 I-0.468 J-0.238
X-91.913 Y-4.93 I0.468 J0.238
G1 X-91.937 Y-4.9
X-91.972 Y-4.881
X-92.01 Y-4.876
X-92.048 Y-4.887
X-92.092 Y-4.909
X-92.126 Y-4.927 Z-3.192
X-92.155 Y-4.941 Z-3.171
X-92.175 Y-4.951 Z-3.138
X-92.181 Y-4.955 Z-3.1
G0 Z5
X-85.893 Y-5.434
Z2
G1 Z0.1 F1000
X-85.888 Y-5.439 Z0.062
X-85.873 Y-5.454 Z0.029
X-85.85 Y-5.477 Z0.008
X-85.823 Y-5.504 Z0
X-85.787 Y-5.54
X-85.755 Y-5.562
X-85.717 Y-5.569
X-85.678 Y-5.562
X-85.646 Y-5.54
G3 X-86.388 Y-4.797 Z-0.5 I-0.371 J0.371
X-85.646 Y-5.54 Z-1 I0.371 J-0.371
X-86.388 Y-4.797 Z-1.5 I-0.371 J0.371
X-85.646 Y-5.54 Z-2 I0.371 J-0.371
X-86.388 Y-4.797 Z-2.5 I-0.371 J0.371
X-85.646 Y-5.54 Z-3 I0.371 J-0.371
X-85.549 Y-4.93 Z-3.2 I-0.371 J0.371
X-86.485 Y-5.407 I-0.468 J-0.238
X-85.549 Y-4.93 I0.468 J0.238
G1 X-85.574 Y-4.9
X-85.608 Y-4.881
X-85.646 Y-4.876
X-85.684 Y-4.887
X-85.728 Y-4.909
X-85.762 Y-4.927 Z-3.192
X-85.791 Y-4.941 Z-3.171
X-85.811 Y-4.951 Z-3.138
X-85.817 Y-4.955 Z-3.1
G0 Z15

(Bohrfrasen8)
X-24.124 Y-117.688
Z15
Z2
G1 Z0.1 F1000
X-24.117 Z0.062
X-24.095 Z0.029
X-24.062 Z0.008
X-24.024 Z0
X-23.974
X-23.936 Y-117.68
X-23.903 Y-117.659
X-23.882 Y-117.626
X-23.874 Y-117.588
G3 X-25.174 Y-117.588 Z-0.5 I-0.65 J0
X-23.874 Y-117.588 Z-1 I0.65 J0
X-25.174 Y-117.588 Z-1.5 I-0.65 J0
X-23.874 Y-117.588 Z-2 I0.65 J0
X-25.174 Y-117.588 Z-2.5 I-0.65 J0
X-23.874 Y-117.588 Z-3 I0.65 J0
X-25.174 Y-117.588 I-0.65 J0
X-23.874 Y-117.588 I0.65 J0
G1 X-23.882 Y-117.55
X-23.903 Y-117.517
X-23.936 Y-117.495
X-23.974 Y-117.488
X-24.024
X-24.062 Z-2.992
X-24.095 Z-2.971
X-24.117 Z-2.938
X-24.124 Z-2.9
G0 Z5
X-6.893 Y-135.519
Z2
G1 Z0.1 F1000
X-6.901 Z0.062
X-6.922 Z0.029
X-6.955 Z0.008
X-6.993 Z0
X-7.043
X-7.081 Y-135.527
X-7.114 Y-135.548
X-7.135 Y-135.581
X-7.143 Y-135.619
G3 X-5.843 Y-135.619 Z-0.5 I0.65 J0
X-7.143 Y-135.619 Z-1 I-0.65 J0
X-5.843 Y-135.619 Z-1.5 I0.65 J0
X-7.143 Y-135.619 Z-2 I-0.65 J0
X-5.843 Y-135.619 Z-2.5 I0.65 J0
X-7.143 Y-135.619 Z-3 I-0.65 J0
X-5.843 Y-135.619 I0.65 J0
X-7.143 Y-135.619 I-0.65 J0
G1 X-7.135 Y-135.657
X-7.114 Y-135.69
X-7.081 Y-135.711
X-7.043 Y-135.719
X-6.993
X-6.955 Z-2.992
X-6.922 Z-2.971
X-6.901 Z-2.938
X-6.893 Z-2.9
G0 Z5
X-24.124 Y-153.75
Z2
G1 Z0.1 F1000
X-24.117 Z0.062
X-24.095 Z0.029
X-24.062 Z0.008
X-24.024 Z0
X-23.974
X-23.936 Y-153.743
X-23.903 Y-153.721
X-23.882 Y-153.689
X-23.874 Y-153.65
G3 X-25.174 Y-153.65 Z-0.5 I-0.65 J0
X-23.874 Y-153.65 Z-1 I0.65 J0
X-25.174 Y-153.65 Z-1.5 I-0.65 J0
X-23.874 Y-153.65 Z-2 I0.65 J0
X-25.174 Y-153.65 Z-2.5 I-0.65 J0
X-23.874 Y-153.65 Z-3 I0.65 J0
X-25.174 Y-153.65 I-0.65 J0
X-23.874 Y-153.65 I0.65 J0
G1 X-23.882 Y-153.612
X-23.903 Y-153.58
X-23.936 Y-153.558
X-23.974 Y-153.55
X-24.024
X-24.062 Z-2.992
X-24.095 Z-2.971
X-24.117 Z-2.938
X-24.124 Z-2.9
G0 Z5
X-42.155 Y-135.719
Z2
G1 Z0.1 F1000
X-42.148 Z0.062
X-42.126 Z0.029
X-42.094 Z0.008
X-42.055 Z0
X-42.005
X-41.967 Y-135.711
X-41.935 Y-135.69
X-41.913 Y-135.657
X-41.905 Y-135.619
G3 X-43.205 Y-135.619 Z-0.5 I-0.65 J0
X-41.905 Y-135.619 Z-1 I0.65 J0
X-43.205 Y-135.619 Z-1.5 I-0.65 J0
X-41.905 Y-135.619 Z-2 I0.65 J0
X-43.205 Y-135.619 Z-2.5 I-0.65 J0
X-41.905 Y-135.619 Z-3 I0.65 J0
X-43.205 Y-135.619 I-0.65 J0
X-41.905 Y-135.619 I0.65 J0
G1 X-41.913 Y-135.581
X-41.935 Y-135.548
X-41.967 Y-135.527
X-42.005 Y-135.519
X-42.055
X-42.094 Z-2.992
X-42.126 Z-2.971
X-42.148 Z-2.938
X-42.155 Z-2.9
G0 Z5
X-58.893
Z2
G1 Z0.1 F1000
X-58.901 Z0.062
X-58.922 Z0.029
X-58.955 Z0.008
X-58.993 Z0
X-59.043
X-59.081 Y-135.527
X-59.114 Y-135.548
X-59.135 Y-135.581
X-59.143 Y-135.619
G3 X-57.843 Y-135.619 Z-0.5 I0.65 J0
X-59.143 Y-135.619 Z-1 I-0.65 J0
X-57.843 Y-135.619 Z-1.5 I0.65 J0
X-59.143 Y-135.619 Z-2 I-0.65 J0
X-57.843 Y-135.619 Z-2.5 I0.65 J0
X-59.143 Y-135.619 Z-3 I-0.65 J0
X-57.843 Y-135.619 I0.65 J0
X-59.143 Y-135.619 I-0.65 J0
G1 X-59.135 Y-135.657
X-59.114 Y-135.69
X-59.081 Y-135.711
X-59.043 Y-135.719
X-58.993
X-58.955 Z-2.992
X-58.922 Z-2.971
X-58.901 Z-2.938
X-58.893 Z-2.9
G0 Z5
X-76.924 Y-153.55
Z2
G1 Z0.1 F1000
X-76.932 Z0.062
X-76.953 Z0.029
X-76.986 Z0.008
X-77.024 Z0
X-77.074
X-77.112 Y-153.558
X-77.145 Y-153.58
X-77.167 Y-153.612
X-77.174 Y-153.65
G3 X-75.874 Y-153.65 Z-0.5 I0.65 J0
X-77.174 Y-153.65 Z-1 I-0.65 J0
X-75.874 Y-153.65 Z-1.5 I0.65 J0
X-77.174 Y-153.65 Z-2 I-0.65 J0
X-75.874 Y-153.65 Z-2.5 I0.65 J0
X-77.174 Y-153.65 Z-3 I-0.65 J0
X-75.874 Y-153.65 I0.65 J0
X-77.174 Y-153.65 I-0.65 J0
G1 X-77.167 Y-153.689
X-77.145 Y-153.721
X-77.112 Y-153.743
X-77.074 Y-153.75
X-77.024
X-76.986 Z-2.992
X-76.953 Z-2.971
X-76.932 Z-2.938
X-76.924 Z-2.9
G0 Z5
X-94.155 Y-135.719
Z2
G1 Z0.1 F1000
X-94.148 Z0.062
X-94.126 Z0.029
X-94.094 Z0.008
X-94.055 Z0
X-94.005
X-93.967 Y-135.711
X-93.935 Y-135.69
X-93.913 Y-135.657
X-93.905 Y-135.619
G3 X-95.205 Y-135.619 Z-0.5 I-0.65 J0
X-93.905 Y-135.619 Z-1 I0.65 J0
X-95.205 Y-135.619 Z-1.5 I-0.65 J0
X-93.905 Y-135.619 Z-2 I0.65 J0
X-95.205 Y-135.619 Z-2.5 I-0.65 J0
X-93.905 Y-135.619 Z-3 I0.65 J0
X-95.205 Y-135.619 I-0.65 J0
X-93.905 Y-135.619 I0.65 J0
G1 X-93.913 Y-135.581
X-93.935 Y-135.548
X-93.967 Y-135.527
X-94.005 Y-135.519
X-94.055
X-94.094 Z-2.992
X-94.126 Z-2.971
X-94.148 Z-2.938
X-94.155 Z-2.9
G0 Z5
X-76.124 Y-117.688
Z2
G1 Z0.1 F1000
X-76.117 Z0.062
X-76.095 Z0.029
X-76.062 Z0.008
X-76.024 Z0
X-75.974
X-75.936 Y-117.68
X-75.903 Y-117.659
X-75.882 Y-117.626
X-75.874 Y-117.588
G3 X-77.174 Y-117.588 Z-0.5 I-0.65 J0
X-75.874 Y-117.588 Z-1 I0.65 J0
X-77.174 Y-117.588 Z-1.5 I-0.65 J0
X-75.874 Y-117.588 Z-2 I0.65 J0
X-77.174 Y-117.588 Z-2.5 I-0.65 J0
X-75.874 Y-117.588 Z-3 I0.65 J0
X-77.174 Y-117.588 I-0.65 J0
X-75.874 Y-117.588 I0.65 J0
G1 X-75.882 Y-117.55
X-75.903 Y-117.517
X-75.936 Y-117.495
X-75.974 Y-117.488
X-76.024
X-76.062 Z-2.992
X-76.095 Z-2.971
X-76.117 Z-2.938
X-76.124 Z-2.9
G0 Z15

(2D Adaptive1)
X-94.555 Y-153.65
Z15
Z5
Z0.6
G1 Z0.5 F1000
Z-0.3
X-94.529 Y-153.623
X-94.558 Y-153.6
X-94.595 Y-153.607
X-94.617 Y-153.637
X-94.618 Y-153.675
X-94.598 Y-153.706
X-94.564 Y-153.722
X-94.527 Y-153.724
X-94.491 Y-153.712
X-94.462 Y-153.688
X-94.445 Y-153.654
X-94.441 Y-153.617
X-94.447 Y-153.58
X-94.465 Y-153.547
X-94.491 Y-153.52
X-94.524 Y-153.501
X-94.596 Y-153.482
X-94.669 Y-153.498
X-94.728 Y-153.545
X-94.764 Y-153.611
X-94.773 Y-153.685
X-94.756 Y-153.758
X-94.714 Y-153.821
X-94.656 Y-153.868
X-94.586 Y-153.896
X-94.512 Y-153.903
X-94.438 Y-153.888
X-94.371 Y-153.854
X-94.316 Y-153.804
X-94.275 Y-153.741
X-94.228 Y-153.598
X-94.256 Y-153.451
X-94.346 Y-153.331
X-94.475 Y-153.255
X-94.624 Y-153.232
X-94.77 Y-153.264
X-94.896 Y-153.345
X-94.987 Y-153.465
X-95.034 Y-153.607
X-95.033 Y-153.757
X-94.986 Y-153.899
X-94.899 Y-154.021
X-94.78 Y-154.113
X-94.64 Y-154.167
X-94.49 Y-154.179
X-94.343 Y-154.151
X-94.209 Y-154.084
X-94.098 Y-153.983
X-94.01 Y-153.862
X-93.959 Y-153.72
X-93.941 Y-153.572
X-93.963 Y-153.423
X-94.017 Y-153.283
X-94.104 Y-153.161
X-94.216 Y-153.061
X-94.347 Y-152.987
X-94.491 Y-152.946
X-94.64 Y-152.934
X-94.789 Y-152.956
X-94.93 Y-153.007
X-95.057 Y-153.086
X-95.165 Y-153.191
X-95.251 Y-153.313
X-95.309 Y-153.452
X-95.341 Y-153.598
X-95.343 Y-153.748
X-95.316 Y-153.896
X-95.263 Y-154.036
X-95.184 Y-154.164
X-95.083 Y-154.274
X-94.964 Y-154.366
X-94.83 Y-154.433
X-94.686 Y-154.476
X-94.537 Y-154.494
X-94.387 Y-154.483
X-94.241 Y-154.448
X-94.104 Y-154.388
X-93.979 Y-154.306
X-93.867 Y-154.206
X-93.774 Y-154.088
X-93.703 Y-153.956
X-93.652 Y-153.815
X-93.626 Y-153.667
X-93.625 Y-153.517
X-93.646 Y-153.368
X-93.691 Y-153.225
X-93.758 Y-153.091
X-93.844 Y-152.969
X-93.948 Y-152.86
X-94.068 Y-152.77
X-94.2 Y-152.698
X-94.34 Y-152.646
X-94.488 Y-152.617
X-94.637 Y-152.609
X-94.787 Y-152.621
X-94.933 Y-152.657
X-95.072 Y-152.713
X-95.202 Y-152.787
X-95.32 Y-152.88
X-95.424 Y-152.988
X-95.512 Y-153.109
X-95.582 Y-153.242
X-95.633 Y-153.383
X-95.665 Y-153.529
X-95.676 Y-153.679
X-95.667 Y-153.829
X-95.638 Y-153.976
X-95.59 Y-154.118
X-95.523 Y-154.252
X-95.439 Y-154.377
X-95.34 Y-154.489
X-95.228 Y-154.588
X-95.102 Y-154.671
X-94.968 Y-154.737
X-94.826 Y-154.787
X-94.679 Y-154.817
X-94.53 Y-154.828
X-94.38 Y-154.82
X-94.232 Y-154.795
X-94.089 Y-154.75
X-93.952 Y-154.688
X-93.823 Y-154.611
X-93.705 Y-154.519
X-93.6 Y-154.413
X-93.507 Y-154.294
X-93.429 Y-154.167
X-93.367 Y-154.03
X-93.322 Y-153.887
X-93.294 Y-153.739
X-93.283 Y-153.59
X-93.29 Y-153.44
X-93.316 Y-153.292
X-93.357 Y-153.148
X-93.415 Y-153.009
X-93.489 Y-152.879
X-93.577 Y-152.758
X-93.678 Y-152.647
X-93.791 Y-152.548
X-93.915 Y-152.463
X-94.047 Y-152.392
X-94.186 Y-152.337
X-94.331 Y-152.296
X-94.479 Y-152.273
X-94.629 Y-152.266
X-94.779 Y-152.275
X-94.926 Y-152.299
X-95.071 Y-152.341
X-95.209 Y-152.398
X-95.342 Y-152.469
X-95.466 Y-152.553
X-95.579 Y-152.651
X-95.682 Y-152.76
X-95.773 Y-152.879
X-95.851 Y-153.007
X-95.915 Y-153.143
X-95.964 Y-153.285
X-95.998 Y-153.431
X-96.018 Y-153.58
X-96.022 Y-153.729
X-96.009 Y-153.879
X-95.982 Y-154.027
X-95.941 Y-154.171
X-95.884 Y-154.31
X-95.814 Y-154.442
X-95.731 Y-154.567
X-95.636 Y-154.683
X-95.529 Y-154.789
X-95.413 Y-154.883
X-95.287 Y-154.965
X-95.155 Y-155.035
X-95.016 Y-155.092
X-94.872 Y-155.134
X-94.724 Y-155.162
X-94.575 Y-155.175
X-94.425 Y-155.174
X-94.276 Y-155.159
X-94.129 Y-155.128
X-93.986 Y-155.084
X-93.847 Y-155.027
X-93.714 Y-154.957
X-93.589 Y-154.874
X-93.472 Y-154.78
X-93.365 Y-154.675
X-93.268 Y-154.561
X-93.181 Y-154.438
X-93.107 Y-154.308
X-93.046 Y-154.171
X-92.998 Y-154.029
X-92.962 Y-153.883
X-92.94 Y-153.735
X-92.932 Y-153.585
X-92.939 Y-153.435
X-92.958 Y-153.286
X-92.991 Y-153.14
X-93.038 Y-152.997
X-93.097 Y-152.86
X-93.169 Y-152.728
X-93.252 Y-152.603
X-93.345 Y-152.486
X-93.449 Y-152.378
X-93.563 Y-152.28
X-93.684 Y-152.192
X-93.813 Y-152.115
X-93.948 Y-152.049
X-94.089 Y-151.997
X-94.233 Y-151.957
X-94.381 Y-151.929
X-94.53 Y-151.914
X-94.68 Y-151.912
X-94.829 Y-151.924
X-94.977 Y-151.949
X-95.123 Y-151.986
X-95.264 Y-152.035
X-95.401 Y-152.096
X-95.532 Y-152.169
X-95.656 Y-152.254
X-95.773 Y-152.348
X-95.882 Y-152.451
X-95.981 Y-152.564
X-96.07 Y-152.684
X-96.149 Y-152.812
X-96.216 Y-152.946
X-96.273 Y-153.085
X-96.318 Y-153.228
X-96.35 Y-153.375
X-96.37 Y-153.523
X-96.377 Y-153.673
X-96.373 Y-153.823
X-96.356 Y-153.972
X-96.327 Y-154.12
X-96.285 Y-154.264
X-96.231 Y-154.405
X-96.166 Y-154.542
X-96.092 Y-154.672
X-96.006 Y-154.795
X-95.911 Y-154.91
X-95.805 Y-155.019
X-95.689 Y-155.121
X-95.569 Y-155.21
X-95.441 Y-155.29
X-95.308 Y-155.358
X-95.168 Y-155.417
X-95.021 Y-155.464
X-94.87 Y-155.5
X-94.722 Y-155.523
X-94.572 Y-155.534
X-94.42 Y-155.532
X-94.265 Y-155.518
X-94.11 Y-155.492
X-93.957 Y-155.453
X-93.815 Y-155.404
X-93.677 Y-155.343
X-93.54 Y-155.27
X-93.407 Y-155.185
X-93.28 Y-155.088
X-93.161 Y-154.98
X-93.055 Y-154.869
X-92.96 Y-154.751
X-92.872 Y-154.622
X-92.793 Y-154.483
X-92.725 Y-154.337
X-92.669 Y-154.187
X-92.626 Y-154.033
X-92.595 Y-153.88
X-92.577 Y-153.725
X-92.572 Y-153.565
X-92.579 Y-153.405
X-92.599 Y-153.246
X-92.632 Y-153.088
X-92.678 Y-152.932
X-92.737 Y-152.779
X-92.808 Y-152.631
X-92.888 Y-152.494
X-92.979 Y-152.363
X-93.081 Y-152.238
X-93.196 Y-152.12
X-93.321 Y-152.01
X-93.454 Y-151.911
X-93.594 Y-151.823
X-93.74 Y-151.746
X-93.894 Y-151.681
X-94.053 Y-151.628
X-94.214 Y-151.589
X-94.375 Y-151.563
X-94.539 Y-151.55
X-94.706
X-94.875 Y-151.564
X-95.043 Y-151.591
X-95.207 Y-151.632
X-95.367 Y-151.685
X-95.523 Y-151.752
X-95.674 Y-151.831
X-95.819 Y-151.923
X-95.957 Y-152.026
X-96.085 Y-152.139
X-96.203 Y-152.262
X-96.311 Y-152.394
X-96.409 Y-152.536
X-96.496 Y-152.685
X-96.569 Y-152.839
X-96.63 Y-152.999
X-96.678 Y-153.165
X-96.714 Y-153.336
X-96.735 Y-153.511
X-96.743 Y-153.685
X-96.736 Y-153.859
X-96.716 Y-154.033
X-96.681 Y-154.206
X-96.632 Y-154.377
X-96.57 Y-154.542
X-96.495 Y-154.702
X-96.408 Y-154.855
X-96.308 Y-155.001
X-96.195 Y-155.141
X-96.072 Y-155.271
X-95.939 Y-155.39
X-95.797 Y-155.497
X-95.647 Y-155.593
X-95.487 Y-155.678
X-95.321 Y-155.75
X-95.15 Y-155.809
X-94.976 Y-155.853
X-94.798 Y-155.883
X-94.617 Y-155.899
X-94.434 Y-155.9
X-94.25 Y-155.886
X-94.069 Y-155.858
X-93.892 Y-155.816
X-93.718 Y-155.76
X-93.548 Y-155.689
X-93.382 Y-155.604
X-93.259 Y-155.527
X-93.244 Y-155.517
X-93.23 Y-155.506
X-93.217 Y-155.494
X-92.834 Y-155.111
X-92.68 Y-154.941
X-92.589 Y-154.822
X-92.502 Y-154.688
X-92.424 Y-154.541
X-92.355 Y-154.384
X-92.298 Y-154.219
X-92.254 Y-154.048
X-92.223 Y-153.869
X-92.207 Y-153.686
X-92.205 Y-153.499
X-92.218 Y-153.311
X-92.246 Y-153.124
X-92.29 Y-152.938
X-92.349 Y-152.755
X-92.421 Y-152.579
X-92.508 Y-152.41
X-92.608 Y-152.247
X-92.721 Y-152.092
X-92.848 Y-151.946
X-92.986 Y-151.81
X-93.135 Y-151.685
X-93.294 Y-151.572
X-93.462 Y-151.472
X-93.638 Y-151.386
X-93.821 Y-151.314
X-94.007 Y-151.257
X-94.197 Y-151.215
X-94.391 Y-151.189
X-94.587 Y-151.178
X-94.785 Y-151.183
X-94.982 Y-151.204
X-95.177 Y-151.241
X-95.325 Y-151.281
X-95.363 Y-151.295
X-95.398 Y-151.316
X-95.429 Y-151.341
X-96.71 Y-152.623
X-96.811 Y-152.734
X-96.896 Y-152.857
X-96.964 Y-152.991
X-97.016 Y-153.132
X-97.055 Y-153.278
X-97.084 Y-153.44
X-97.102 Y-153.611
X-97.105 Y-153.789
X-97.094 Y-153.976
X-97.067 Y-154.169
X-97.023 Y-154.363
X-96.963 Y-154.556
X-96.887 Y-154.745
X-96.796 Y-154.928
X-96.689 Y-155.105
X-96.568 Y-155.274
X-96.434 Y-155.432
X-96.288 Y-155.579
X-96.129 Y-155.714
X-95.96 Y-155.837
X-95.781 Y-155.946
X-95.593 Y-156.041
X-95.399 Y-156.12
X-95.198 Y-156.183
X-94.993 Y-156.23
X-94.784 Y-156.26
X-94.572 Y-156.274
X-94.359 Y-156.271
X-94.147 Y-156.25
X-94.007 Y-156.225
X-93.962 Y-156.212
X-93.92 Y-156.19
X-93.883 Y-156.16
X-93.217 Y-155.494
X-92.834 Y-155.111
X-92.19 Y-154.467
X-92.09 Y-154.356
X-92.008 Y-154.23
X-91.947 Y-154.093
X-91.902 Y-153.95
X-91.872 Y-153.803
X-91.853 Y-153.644
X-91.847 Y-153.466
X-91.855 Y-153.275
X-91.88 Y-153.077
X-91.921 Y-152.877
X-91.98 Y-152.677
X-92.056 Y-152.479
X-92.141 Y-152.3
X-92.154 Y-152.277
X-92.169 Y-152.255
X-92.187 Y-152.236
X-92.219 Y-152.215
X-92.257 Y-152.209
X-92.295 Y-152.217
X-92.326 Y-152.239
X-92.347 Y-152.271
X-92.355 Y-152.309
X-92.356 Y-152.862
X-92.357 Y-153.841
X-92.358 Y-154.394
X-92.351 Y-154.432
X-92.33 Y-154.464
X-92.298 Y-154.486
X-92.261 Y-154.494
X-92.223 Y-154.487
X-92.19 Y-154.467
X-91.832 Y-154.108
X-91.814 Y-154.09
X-91.694 Y-153.91
X-91.677 Y-153.886
X-91.657 Y-153.855
X-91.58 Y-153.726
X-91.548 Y-153.608
X-91.549 Y-153.572
X-91.562 Y-153.539
X-91.586 Y-153.512
X-91.618 Y-153.496
X-91.654 Y-153.492
X-91.689 Y-153.501
X-91.718 Y-153.521
X-91.738 Y-153.551
X-91.829 Y-153.756
X-91.838 Y-153.791
X-91.833 Y-153.828
X-91.816 Y-153.86
X-91.788 Y-153.883
X-91.753 Y-153.895
X-91.717 Y-153.894
X-91.683 Y-153.88
X-91.657 Y-153.855
X-91.58 Y-153.739
X-91.575 Y-153.729
X-91.569 Y-153.709
X-91.56 Y-153.669
X-91.547 Y-153.6
X-91.544 Y-153.588
X-91.535 Y-153.544
X-91.514 Y-153.396
X-91.512 Y-153.301
Y-153.284
X-91.513 Y-153.267
X-91.516 Y-153.251
X-91.53 Y-153.218
X-91.554 Y-153.193
X-91.586 Y-153.177
X-91.621 Y-153.174
X-91.655 Y-153.183
X-91.684 Y-153.203
X-91.704 Y-153.232
X-91.713 Y-153.266
X-91.732 Y-153.513
X-91.728 Y-153.55
X-91.711 Y-153.583
X-91.683 Y-153.607
X-91.648 Y-153.62
X-91.611 Y-153.619
X-91.577 Y-153.604
X-91.55 Y-153.578
X-91.535 Y-153.544
X-91.501 Y-153.367
X-91.5 Y-153.347
X-91.501 Y-153.327
X-91.561 Y-153.025
X-91.57 Y-152.985
X-91.578 Y-152.965
X-91.583 Y-152.955
X-91.804 Y-152.623
X-91.818 Y-152.606
X-91.834 Y-152.588
X-93.006 Y-151.416
X-93.143 Y-151.292
X-93.262 Y-151.2
X-93.389 Y-151.12
X-93.541 Y-151.041
X-93.713 Y-150.967
X-93.901 Y-150.905
X-94.099 Y-150.856
X-94.305 Y-150.822
X-94.522 Y-150.805
X-94.744
X-94.792 Y-150.809
X-94.831 Y-150.815
X-94.869 Y-150.828
X-94.903 Y-150.847
X-94.929 Y-150.874
X-94.943 Y-150.907
X-94.944 Y-150.944
X-94.931 Y-150.979
X-94.907 Y-151.006
X-94.875 Y-151.024
X-94.337 Y-151.193
X-93.608 Y-151.422
X-93.109 Y-151.579
X-93.072 Y-151.584
X-93.036 Y-151.574
X-93.006 Y-151.552
X-92.986 Y-151.521
X-92.979 Y-151.484
X-92.986 Y-151.447
X-93.006 Y-151.416
X-93.506 Y-150.916
X-93.523 Y-150.902
X-93.839 Y-150.692
X-93.859 Y-150.679
X-93.88 Y-150.668
X-93.89 Y-150.665
X-94.242 Y-150.595
X-94.252 Y-150.594
X-94.262
X-94.282 Y-150.597
X-94.604 Y-150.661
X-94.621 Y-150.665
X-94.637 Y-150.672
X-94.67 Y-150.692
X-94.926 Y-150.862
X-95.006 Y-150.919
X-95.429 Y-151.341
X-95.984 Y-151.897
X-96.155 Y-152.067
X-96.71 Y-152.623
X-97.179 Y-153.091
X-97.279 Y-153.202
X-97.351 Y-153.334
X-97.4 Y-153.476
X-97.43 Y-153.623
X-97.446 Y-153.772
X-97.45 Y-153.925
X-97.44 Y-154.101
X-97.414 Y-154.293
X-97.37 Y-154.495
X-97.331 Y-154.623
X-97.322 Y-154.647
X-97.311 Y-154.669
X-97.298 Y-154.69
X-97.276 Y-154.711
X-97.248 Y-154.725
X-97.218 Y-154.729
X-97.182 Y-154.723
X-97.15 Y-154.703
X-97.128 Y-154.673
X-97.118 Y-154.637
X-97.079 Y-154.094
X-97.051 Y-153.716
X-97.011 Y-153.172
X-97.016 Y-153.132
X-97.036 Y-153.098
X-97.067 Y-153.074
X-97.106 Y-153.064
X-97.145 Y-153.07
X-97.179 Y-153.091
X-97.293 Y-153.206
X-97.308 Y-153.226
X-97.525 Y-153.551
X-97.536 Y-153.57
X-97.542 Y-153.588
X-97.61 Y-153.93
X-97.611 Y-153.95
X-97.606 Y-153.991
X-97.542 Y-154.312
X-97.535 Y-154.331
X-97.525 Y-154.35
X-97.309 Y-154.675
X-97.295 Y-154.695
X-95.775 Y-156.214
X-95.664 Y-156.315
X-95.539 Y-156.398
X-95.405 Y-156.466
X-95.257 Y-156.523
X-95.098 Y-156.571
X-94.916 Y-156.609
X-94.711 Y-156.636
X-94.561 Y-156.644
X-94.542
X-94.523 Y-156.642
X-94.504 Y-156.639
X-94.471 Y-156.624
X-94.445 Y-156.599
X-94.43 Y-156.565
X-94.428 Y-156.528
X-94.44 Y-156.493
X-94.463 Y-156.465
X-94.495 Y-156.447
X-94.994 Y-156.279
X-95.177 Y-156.218
X-95.67 Y-156.052
X-95.707 Y-156.046
X-95.744 Y-156.055
X-95.775 Y-156.077
X-95.795 Y-156.109
X-95.802 Y-156.146
X-95.795 Y-156.183
X-95.775 Y-156.214
X-95.614 Y-156.375
X-95.579 Y-156.404
X-95.328 Y-156.572
X-95.248 Y-156.624
X-95.23 Y-156.633
X-95.211 Y-156.639
X-94.886 Y-156.703
X-94.865 Y-156.707
X-94.855
X-94.845
X-94.493 Y-156.637
X-94.483 Y-156.633
X-94.463 Y-156.623
X-94.443 Y-156.611
X-94.121 Y-156.396
X-94.103 Y-156.38
X-93.883 Y-156.16
X-93.867 Y-156.14
X-93.857 Y-156.116
X-93.59 Y-155.545
X-93.589 Y-155.542
X-93.562 Y-155.519 Z-0.291
X-93.54 Y-155.501 Z-0.271
X-93.524 Y-155.488 Z-0.242
X-93.523 Y-155.487 Z-0.24
X-93.517 Y-155.486 Z-0.22
X-93.515 Y-155.485 Z-0.2
G0 Z5
X-94.555 Y-153.65
Z0.3
G1 Z0.2 F1000
Z-0.6
X-94.529 Y-153.623
X-94.558 Y-153.6
X-94.595 Y-153.607
X-94.617 Y-153.637
X-94.618 Y-153.675
X-94.598 Y-153.706
X-94.564 Y-153.722
X-94.527 Y-153.724
X-94.491 Y-153.712
X-94.462 Y-153.688
X-94.445 Y-153.654
X-94.441 Y-153.617
X-94.447 Y-153.58
X-94.465 Y-153.547
X-94.491 Y-153.52
X-94.524 Y-153.501
X-94.596 Y-153.482
X-94.669 Y-153.498
X-94.728 Y-153.545
X-94.764 Y-153.611
X-94.773 Y-153.685
X-94.756 Y-153.758
X-94.714 Y-153.821
X-94.656 Y-153.868
X-94.586 Y-153.896
X-94.512 Y-153.903
X-94.438 Y-153.888
X-94.371 Y-153.854
X-94.316 Y-153.804
X-94.275 Y-153.741
X-94.228 Y-153.598
X-94.256 Y-153.451
X-94.346 Y-153.331
X-94.475 Y-153.255
X-94.624 Y-153.232
X-94.77 Y-153.264
X-94.896 Y-153.345
X-94.987 Y-153.465
X-95.034 Y-153.607
X-95.033 Y-153.757
X-94.986 Y-153.899
X-94.899 Y-154.021
X-94.78 Y-154.113
X-94.64 Y-154.167
X-94.49 Y-154.179
X-94.343 Y-154.151
X-94.209 Y-154.084
X-94.098 Y-153.983
X-94.01 Y-153.862
X-93.959 Y-153.72
X-93.941 Y-153.572
X-93.963 Y-153.423
X-94.017 Y-153.283
X-94.104 Y-153.161
X-94.216 Y-153.061
X-94.347 Y-152.987
X-94.491 Y-152.946
X-94.64 Y-152.934
X-94.789 Y-152.956
X-94.93 Y-153.007
X-95.057 Y-153.086
X-95.165 Y-153.191
X-95.251 Y-153.313
X-95.309 Y-153.452
X-95.341 Y-153.598
X-95.343 Y-153.748
X-95.316 Y-153.896
X-95.263 Y-154.036
X-95.184 Y-154.164
X-95.083 Y-154.274
X-94.964 Y-154.366
X-94.83 Y-154.433
X-94.686 Y-154.476
X-94.537 Y-154.494
X-94.387 Y-154.483
X-94.241 Y-154.448
X-94.104 Y-154.388
X-93.979 Y-154.306
X-93.867 Y-154.206
X-93.774 Y-154.088
X-93.703 Y-153.956
X-93.652 Y-153.815
X-93.626 Y-153.667
X-93.625 Y-153.517
X-93.646 Y-153.368
X-93.691 Y-153.225
X-93.758 Y-153.091
X-93.844 Y-152.969
X-93.948 Y-152.86
X-94.068 Y-152.77
X-94.2 Y-152.698
X-94.34 Y-152.646
X-94.488 Y-152.617
X-94.637 Y-152.609
X-94.787 Y-152.621
X-94.933 Y-152.657
X-95.072 Y-152.713
X-95.202 Y-152.787
X-95.32 Y-152.88
X-95.424 Y-152.988
X-95.512 Y-153.109
X-95.582 Y-153.242
X-95.633 Y-153.383
X-95.665 Y-153.529
X-95.676 Y-153.679
X-95.667 Y-153.829
X-95.638 Y-153.976
X-95.59 Y-154.118
X-95.523 Y-154.252
X-95.439 Y-154.377
X-95.34 Y-154.489
X-95.228 Y-154.588
X-95.102 Y-154.671
X-94.968 Y-154.737
X-94.826 Y-154.787
X-94.679 Y-154.817
X-94.53 Y-154.828
X-94.38 Y-154.82
X-94.232 Y-154.795
X-94.089 Y-154.75
X-93.952 Y-154.688
X-93.823 Y-154.611
X-93.705 Y-154.519
X-93.6 Y-154.413
X-93.507 Y-154.294
X-93.429 Y-154.167
X-93.367 Y-154.03
X-93.322 Y-153.887
X-93.294 Y-153.739
X-93.283 Y-153.59
X-93.29 Y-153.44
X-93.316 Y-153.292
X-93.357 Y-153.148
X-93.415 Y-153.009
X-93.489 Y-152.879
X-93.577 Y-152.758
X-93.678 Y-152.647
X-93.791 Y-152.548
X-93.915 Y-152.463
X-94.047 Y-152.392
X-94.186 Y-152.337
X-94.331 Y-152.296
X-94.479 Y-152.273
X-94.629 Y-152.266
X-94.779 Y-152.275
X-94.926 Y-152.299
X-95.071 Y-152.341
X-95.209 Y-152.398
X-95.342 Y-152.469
X-95.466 Y-152.553
X-95.579 Y-152.651
X-95.682 Y-152.76
X-95.773 Y-152.879
X-95.851 Y-153.007
X-95.915 Y-153.143
X-95.964 Y-153.285
X-95.998 Y-153.431
X-96.018 Y-153.58
X-96.022 Y-153.729
X-96.009 Y-153.879
X-95.982 Y-154.027
X-95.941 Y-154.171
X-95.884 Y-154.31
X-95.814 Y-154.442
X-95.731 Y-154.567
X-95.636 Y-154.683
X-95.529 Y-154.789
X-95.413 Y-154.883
X-95.287 Y-154.965
X-95.155 Y-155.035
X-95.016 Y-155.092
X-94.872 Y-155.134
X-94.724 Y-155.162
X-94.575 Y-155.175
X-94.425 Y-155.174
X-94.276 Y-155.159
X-94.129 Y-155.128
X-93.986 Y-155.084
X-93.847 Y-155.027
X-93.714 Y-154.957
X-93.589 Y-154.874
X-93.472 Y-154.78
X-93.365 Y-154.675
X-93.268 Y-154.561
X-93.181 Y-154.438
X-93.107 Y-154.308
X-93.046 Y-154.171
X-92.998 Y-154.029
X-92.962 Y-153.883
X-92.94 Y-153.735
X-92.932 Y-153.585
X-92.939 Y-153.435
X-92.958 Y-153.286
X-92.991 Y-153.14
X-93.038 Y-152.997
X-93.097 Y-152.86
X-93.169 Y-152.728
X-93.252 Y-152.603
X-93.345 Y-152.486
X-93.449 Y-152.378
X-93.563 Y-152.28
X-93.684 Y-152.192
X-93.813 Y-152.115
X-93.948 Y-152.049
X-94.089 Y-151.997
X-94.233 Y-151.957
X-94.381 Y-151.929
X-94.53 Y-151.914
X-94.68 Y-151.912
X-94.829 Y-151.924
X-94.977 Y-151.949
X-95.123 Y-151.986
X-95.264 Y-152.035
X-95.401 Y-152.096
X-95.532 Y-152.169
X-95.656 Y-152.254
X-95.773 Y-152.348
X-95.882 Y-152.451
X-95.981 Y-152.564
X-96.07 Y-152.684
X-96.149 Y-152.812
X-96.216 Y-152.946
X-96.273 Y-153.085
X-96.318 Y-153.228
X-96.35 Y-153.375
X-96.37 Y-153.523
X-96.377 Y-153.673
X-96.373 Y-153.823
X-96.356 Y-153.972
X-96.327 Y-154.12
X-96.285 Y-154.264
X-96.231 Y-154.405
X-96.166 Y-154.542
X-96.092 Y-154.672
X-96.006 Y-154.795
X-95.911 Y-154.91
X-95.805 Y-155.019
X-95.689 Y-155.121
X-95.569 Y-155.21
X-95.441 Y-155.29
X-95.308 Y-155.358
X-95.168 Y-155.417
X-95.021 Y-155.464
X-94.87 Y-155.5
X-94.722 Y-155.523
X-94.572 Y-155.534
X-94.42 Y-155.532
X-94.265 Y-155.518
X-94.11 Y-155.492
X-93.957 Y-155.453
X-93.815 Y-155.404
X-93.677 Y-155.343
X-93.54 Y-155.27
X-93.407 Y-155.185
X-93.28 Y-155.088
X-93.161 Y-154.98
X-93.055 Y-154.869
X-92.96 Y-154.751
X-92.872 Y-154.622
X-92.793 Y-154.483
X-92.725 Y-154.337
X-92.669 Y-154.187
X-92.626 Y-154.033
X-92.595 Y-153.88
X-92.577 Y-153.725
X-92.572 Y-153.565
X-92.579 Y-153.405
X-92.599 Y-153.246
X-92.632 Y-153.088
X-92.678 Y-152.932
X-92.737 Y-152.779
X-92.808 Y-152.631
X-92.888 Y-152.494
X-92.979 Y-152.363
X-93.081 Y-152.238
X-93.196 Y-152.12
X-93.321 Y-152.01
X-93.454 Y-151.911
X-93.594 Y-151.823
X-93.74 Y-151.746
X-93.894 Y-151.681
X-94.053 Y-151.628
X-94.214 Y-151.589
X-94.375 Y-151.563
X-94.539 Y-151.55
X-94.706
X-94.875 Y-151.564
X-95.043 Y-151.591
X-95.207 Y-151.632
X-95.367 Y-151.685
X-95.523 Y-151.752
X-95.674 Y-151.831
X-95.819 Y-151.923
X-95.957 Y-152.026
X-96.085 Y-152.139
X-96.203 Y-152.262
X-96.311 Y-152.394
X-96.409 Y-152.536
X-96.496 Y-152.685
X-96.569 Y-152.839
X-96.63 Y-152.999
X-96.678 Y-153.165
X-96.714 Y-153.336
X-96.735 Y-153.511
X-96.743 Y-153.685
X-96.736 Y-153.859
X-96.716 Y-154.033
X-96.681 Y-154.206
X-96.632 Y-154.377
X-96.57 Y-154.542
X-96.495 Y-154.702
X-96.408 Y-154.855
X-96.308 Y-155.001
X-96.195 Y-155.141
X-96.072 Y-155.271
X-95.939 Y-155.39
X-95.797 Y-155.497
X-95.647 Y-155.593
X-95.487 Y-155.678
X-95.321 Y-155.75
X-95.15 Y-155.809
X-94.976 Y-155.853
X-94.798 Y-155.883
X-94.617 Y-155.899
X-94.434 Y-155.9
X-94.25 Y-155.886
X-94.069 Y-155.858
X-93.892 Y-155.816
X-93.718 Y-155.76
X-93.548 Y-155.689
X-93.382 Y-155.604
X-93.259 Y-155.527
X-93.244 Y-155.517
X-93.23 Y-155.506
X-93.217 Y-155.494
X-92.834 Y-155.111
X-92.68 Y-154.941
X-92.589 Y-154.822
X-92.502 Y-154.688
X-92.424 Y-154.541
X-92.355 Y-154.384
X-92.298 Y-154.219
X-92.254 Y-154.048
X-92.223 Y-153.869
X-92.207 Y-153.686
X-92.205 Y-153.499
X-92.218 Y-153.311
X-92.246 Y-153.124
X-92.29 Y-152.938
X-92.349 Y-152.755
X-92.421 Y-152.579
X-92.508 Y-152.41
X-92.608 Y-152.247
X-92.721 Y-152.092
X-92.848 Y-151.946
X-92.986 Y-151.81
X-93.135 Y-151.685
X-93.294 Y-151.572
X-93.462 Y-151.472
X-93.638 Y-151.386
X-93.821 Y-151.314
X-94.007 Y-151.257
X-94.197 Y-151.215
X-94.391 Y-151.189
X-94.587 Y-151.178
X-94.785 Y-151.183
X-94.982 Y-151.204
X-95.177 Y-151.241
X-95.325 Y-151.281
X-95.363 Y-151.295
X-95.398 Y-151.316
X-95.429 Y-151.341
X-96.71 Y-152.623
X-96.811 Y-152.734
X-96.896 Y-152.857
X-96.964 Y-152.991
X-97.016 Y-153.132
X-97.055 Y-153.278
X-97.084 Y-153.44
X-97.102 Y-153.611
X-97.105 Y-153.789
X-97.094 Y-153.976
X-97.067 Y-154.169
X-97.023 Y-154.363
X-96.963 Y-154.556
X-96.887 Y-154.745
X-96.796 Y-154.928
X-96.689 Y-155.105
X-96.568 Y-155.274
X-96.434 Y-155.432
X-96.288 Y-155.579
X-96.129 Y-155.714
X-95.96 Y-155.837
X-95.781 Y-155.946
X-95.593 Y-156.041
X-95.399 Y-156.12
X-95.198 Y-156.183
X-94.993 Y-156.23
X-94.784 Y-156.26
X-94.572 Y-156.274
X-94.359 Y-156.271
X-94.147 Y-156.25
X-94.007 Y-156.225
X-93.962 Y-156.212
X-93.92 Y-156.19
X-93.883 Y-156.16
X-93.217 Y-155.494
X-92.834 Y-155.111
X-92.19 Y-154.467
X-92.09 Y-154.356
X-92.008 Y-154.23
X-91.947 Y-154.093
X-91.902 Y-153.95
X-91.872 Y-153.803
X-91.853 Y-153.644
X-91.847 Y-153.466
X-91.855 Y-153.275
X-91.88 Y-153.077
X-91.921 Y-152.877
X-91.98 Y-152.677
X-92.056 Y-152.479
X-92.141 Y-152.3
X-92.154 Y-152.277
X-92.169 Y-152.255
X-92.187 Y-152.236
X-92.219 Y-152.215
X-92.257 Y-152.209
X-92.295 Y-152.217
X-92.326 Y-152.239
X-92.347 Y-152.271
X-92.355 Y-152.309
X-92.356 Y-152.862
X-92.357 Y-153.841
X-92.358 Y-154.394
X-92.351 Y-154.432
X-92.33 Y-154.464
X-92.298 Y-154.486
X-92.261 Y-154.494
X-92.223 Y-154.487
X-92.19 Y-154.467
X-91.832 Y-154.108
X-91.814 Y-154.09
X-91.694 Y-153.91
X-91.677 Y-153.886
X-91.657 Y-153.855
X-91.58 Y-153.726
X-91.548 Y-153.608
X-91.549 Y-153.572
X-91.562 Y-153.539
X-91.586 Y-153.512
X-91.618 Y-153.496
X-91.654 Y-153.492
X-91.689 Y-153.501
X-91.718 Y-153.521
X-91.738 Y-153.551
X-91.829 Y-153.756
X-91.838 Y-153.791
X-91.833 Y-153.828
X-91.816 Y-153.86
X-91.788 Y-153.883
X-91.753 Y-153.895
X-91.717 Y-153.894
X-91.683 Y-153.88
X-91.657 Y-153.855
X-91.58 Y-153.739
X-91.575 Y-153.729
X-91.569 Y-153.709
X-91.56 Y-153.669
X-91.547 Y-153.6
X-91.544 Y-153.588
X-91.535 Y-153.544
X-91.514 Y-153.396
X-91.512 Y-153.301
Y-153.284
X-91.513 Y-153.267
X-91.516 Y-153.251
X-91.53 Y-153.218
X-91.554 Y-153.193
X-91.586 Y-153.177
X-91.621 Y-153.174
X-91.655 Y-153.183
X-91.684 Y-153.203
X-91.704 Y-153.232
X-91.713 Y-153.266
X-91.732 Y-153.513
X-91.728 Y-153.55
X-91.711 Y-153.583
X-91.683 Y-153.607
X-91.648 Y-153.62
X-91.611 Y-153.619
X-91.577 Y-153.604
X-91.55 Y-153.578
X-91.535 Y-153.544
X-91.501 Y-153.367
X-91.5 Y-153.347
X-91.501 Y-153.327
X-91.561 Y-153.025
X-91.57 Y-152.985
X-91.578 Y-152.965
X-91.583 Y-152.955
X-91.804 Y-152.623
X-91.818 Y-152.606
X-91.834 Y-152.588
X-93.006 Y-151.416
X-93.143 Y-151.292
X-93.262 Y-151.2
X-93.389 Y-151.12
X-93.541 Y-151.041
X-93.713 Y-150.967
X-93.901 Y-150.905
X-94.099 Y-150.856
X-94.305 Y-150.822
X-94.522 Y-150.805
X-94.744
X-94.792 Y-150.809
X-94.831 Y-150.815
X-94.869 Y-150.828
X-94.903 Y-150.847
X-94.929 Y-150.874
X-94.943 Y-150.907
X-94.944 Y-150.944
X-94.931 Y-150.979
X-94.907 Y-151.006
X-94.875 Y-151.024
X-94.337 Y-151.193
X-93.608 Y-151.422
X-93.109 Y-151.579
X-93.072 Y-151.584
X-93.036 Y-151.574
X-93.006 Y-151.552
X-92.986 Y-151.521
X-92.979 Y-151.484
X-92.986 Y-151.447
X-93.006 Y-151.416
X-93.506 Y-150.916
X-93.523 Y-150.902
X-93.839 Y-150.692
X-93.859 Y-150.679
X-93.88 Y-150.668
X-93.89 Y-150.665
X-94.242 Y-150.595
X-94.252 Y-150.594
X-94.262
X-94.282 Y-150.597
X-94.604 Y-150.661
X-94.621 Y-150.665
X-94.637 Y-150.672
X-94.67 Y-150.692
X-94.926 Y-150.862
X-95.006 Y-150.919
X-95.429 Y-151.341
X-95.984 Y-151.897
X-96.155 Y-152.067
X-96.71 Y-152.623
X-97.179 Y-153.091
X-97.279 Y-153.202
X-97.351 Y-153.334
X-97.4 Y-153.476
X-97.43 Y-153.623
X-97.446 Y-153.772
X-97.45 Y-153.925
X-97.44 Y-154.101
X-97.414 Y-154.293
X-97.37 Y-154.495
X-97.331 Y-154.623
X-97.322 Y-154.647
X-97.311 Y-154.669
X-97.298 Y-154.69
X-97.276 Y-154.711
X-97.248 Y-154.725
X-97.218 Y-154.729
X-97.182 Y-154.723
X-97.15 Y-154.703
X-97.128 Y-154.673
X-97.118 Y-154.637
X-97.079 Y-154.094
X-97.051 Y-153.716
X-97.011 Y-153.172
X-97.016 Y-153.132
X-97.036 Y-153.098
X-97.067 Y-153.074
X-97.106 Y-153.064
X-97.145 Y-153.07
X-97.179 Y-153.091
X-97.293 Y-153.206
X-97.308 Y-153.226
X-97.525 Y-153.551
X-97.536 Y-153.57
X-97.542 Y-153.588
X-97.61 Y-153.93
X-97.611 Y-153.95
X-97.606 Y-153.991
X-97.542 Y-154.312
X-97.535 Y-154.331
X-97.525 Y-154.35
X-97.309 Y-154.675
X-97.295 Y-154.695
X-95.775 Y-156.214
X-95.664 Y-156.315
X-95.539 Y-156.398
X-95.405 Y-156.466
X-95.257 Y-156.523
X-95.098 Y-156.571
X-94.916 Y-156.609
X-94.711 Y-156.636
X-94.561 Y-156.644
X-94.542
X-94.523 Y-156.642
X-94.504 Y-156.639
X-94.471 Y-156.624
X-94.445 Y-156.599
X-94.43 Y-156.565
X-94.428 Y-156.528
X-94.44 Y-156.493
X-94.463 Y-156.465
X-94.495 Y-156.447
X-94.994 Y-156.279
X-95.177 Y-156.218
X-95.67 Y-156.052
X-95.707 Y-156.046
X-95.744 Y-156.055
X-95.775 Y-156.077
X-95.795 Y-156.109
X-95.802 Y-156.146
X-95.795 Y-156.183
X-95.775 Y-156.214
X-95.614 Y-156.375
X-95.579 Y-156.404
X-95.328 Y-156.572
X-95.248 Y-156.624
X-95.23 Y-156.633
X-95.211 Y-156.639
X-94.886 Y-156.703
X-94.865 Y-156.707
X-94.855
X-94.845
X-94.493 Y-156.637
X-94.483 Y-156.633
X-94.463 Y-156.623
X-94.443 Y-156.611
X-94.121 Y-156.396
X-94.103 Y-156.38
X-93.883 Y-156.16
X-93.867 Y-156.14
X-93.857 Y-156.116
X-93.59 Y-155.545
X-93.589 Y-155.542
X-93.562 Y-155.519 Z-0.591
X-93.54 Y-155.501 Z-0.571
X-93.524 Y-155.488 Z-0.542
X-93.523 Y-155.487 Z-0.54
X-93.517 Y-155.486 Z-0.52
X-93.515 Y-155.485 Z-0.5
G0 Z5
X-94.555 Y-153.65
Z0
G1 Z-0.1 F1000
Z-0.9
X-94.529 Y-153.623
X-94.558 Y-153.6
X-94.595 Y-153.607
X-94.617 Y-153.637
X-94.618 Y-153.675
X-94.598 Y-153.706
X-94.564 Y-153.722
X-94.527 Y-153.724
X-94.491 Y-153.712
X-94.462 Y-153.688
X-94.445 Y-153.654
X-94.441 Y-153.617
X-94.447 Y-153.58
X-94.465 Y-153.547
X-94.491 Y-153.52
X-94.524 Y-153.501
X-94.596 Y-153.482
X-94.669 Y-153.498
X-94.728 Y-153.545
X-94.764 Y-153.611
X-94.773 Y-153.685
X-94.756 Y-153.758
X-94.714 Y-153.821
X-94.656 Y-153.868
X-94.586 Y-153.896
X-94.512 Y-153.903
X-94.438 Y-153.888
X-94.371 Y-153.854
X-94.316 Y-153.804
X-94.275 Y-153.741
X-94.228 Y-153.598
X-94.256 Y-153.451
X-94.346 Y-153.331
X-94.475 Y-153.255
X-94.624 Y-153.232
X-94.77 Y-153.264
X-94.896 Y-153.345
X-94.987 Y-153.465
X-95.034 Y-153.607
X-95.033 Y-153.757
X-94.986 Y-153.899
X-94.899 Y-154.021
X-94.78 Y-154.113
X-94.64 Y-154.167
X-94.49 Y-154.179
X-94.343 Y-154.151
X-94.209 Y-154.084
X-94.098 Y-153.983
X-94.01 Y-153.862
X-93.959 Y-153.72
X-93.941 Y-153.572
X-93.963 Y-153.423
X-94.017 Y-153.283
X-94.104 Y-153.161
X-94.216 Y-153.061
X-94.347 Y-152.987
X-94.491 Y-152.946
X-94.64 Y-152.934
X-94.789 Y-152.956
X-94.93 Y-153.007
X-95.057 Y-153.086
X-95.165 Y-153.191
X-95.251 Y-153.313
X-95.309 Y-153.452
X-95.341 Y-153.598
X-95.343 Y-153.748
X-95.316 Y-153.896
X-95.263 Y-154.036
X-95.184 Y-154.164
X-95.083 Y-154.274
X-94.964 Y-154.366
X-94.83 Y-154.433
X-94.686 Y-154.476
X-94.537 Y-154.494
X-94.387 Y-154.483
X-94.241 Y-154.448
X-94.104 Y-154.388
X-93.979 Y-154.306
X-93.867 Y-154.206
X-93.774 Y-154.088
X-93.703 Y-153.956
X-93.652 Y-153.815
X-93.626 Y-153.667
X-93.625 Y-153.517
X-93.646 Y-153.368
X-93.691 Y-153.225
X-93.758 Y-153.091
X-93.844 Y-152.969
X-93.948 Y-152.86
X-94.068 Y-152.77
X-94.2 Y-152.698
X-94.34 Y-152.646
X-94.488 Y-152.617
X-94.637 Y-152.609
X-94.787 Y-152.621
X-94.933 Y-152.657
X-95.072 Y-152.713
X-95.202 Y-152.787
X-95.32 Y-152.88
X-95.424 Y-152.988
X-95.512 Y-153.109
X-95.582 Y-153.242
X-95.633 Y-153.383
X-95.665 Y-153.529
X-95.676 Y-153.679
X-95.667 Y-153.829
X-95.638 Y-153.976
X-95.59 Y-154.118
X-95.523 Y-154.252
X-95.439 Y-154.377
X-95.34 Y-154.489
X-95.228 Y-154.588
X-95.102 Y-154.671
X-94.968 Y-154.737
X-94.826 Y-154.787
X-94.679 Y-154.817
X-94.53 Y-154.828
X-94.38 Y-154.82
X-94.232 Y-154.795
X-94.089 Y-154.75
X-93.952 Y-154.688
X-93.823 Y-154.611
X-93.705 Y-154.519
X-93.6 Y-154.413
X-93.507 Y-154.294
X-93.429 Y-154.167
X-93.367 Y-154.03
X-93.322 Y-153.887
X-93.294 Y-153.739
X-93.283 Y-153.59
X-93.29 Y-153.44
X-93.316 Y-153.292
X-93.357 Y-153.148
X-93.415 Y-153.009
X-93.489 Y-152.879
X-93.577 Y-152.758
X-93.678 Y-152.647
X-93.791 Y-152.548
X-93.915 Y-152.463
X-94.047 Y-152.392
X-94.186 Y-152.337
X-94.331 Y-152.296
X-94.479 Y-152.273
X-94.629 Y-152.266
X-94.779 Y-152.275
X-94.926 Y-152.299
X-95.071 Y-152.341
X-95.209 Y-152.398
X-95.342 Y-152.469
X-95.466 Y-152.553
X-95.579 Y-152.651
X-95.682 Y-152.76
X-95.773 Y-152.879
X-95.851 Y-153.007
X-95.915 Y-153.143
X-95.964 Y-153.285
X-95.998 Y-153.431
X-96.018 Y-153.58
X-96.022 Y-153.729
X-96.009 Y-153.879
X-95.982 Y-154.027
X-95.941 Y-154.171
X-95.884 Y-154.31
X-95.814 Y-154.442
X-95.731 Y-154.567
X-95.636 Y-154.683
X-95.529 Y-154.789
X-95.413 Y-154.883
X-95.287 Y-154.965
X-95.155 Y-155.035
X-95.016 Y-155.092
X-94.872 Y-155.134
X-94.724 Y-155.162
X-94.575 Y-155.175
X-94.425 Y-155.174
X-94.276 Y-155.159
X-94.129 Y-155.128
X-93.986 Y-155.084
X-93.847 Y-155.027
X-93.714 Y-154.957
X-93.589 Y-154.874
X-93.472 Y-154.78
X-93.365 Y-154.675
X-93.268 Y-154.561
X-93.181 Y-154.438
X-93.107 Y-154.308
X-93.046 Y-154.171
X-92.998 Y-154.029
X-92.962 Y-153.883
X-92.94 Y-153.735
X-92.932 Y-153.585
X-92.939 Y-153.435
X-92.958 Y-153.286
X-92.991 Y-153.14
X-93.038 Y-152.997
X-93.097 Y-152.86
X-93.169 Y-152.728
X-93.252 Y-152.603
X-93.345 Y-152.486
X-93.449 Y-152.378
X-93.563 Y-152.28
X-93.684 Y-152.192
X-93.813 Y-152.115
X-93.948 Y-152.049
X-94.089 Y-151.997
X-94.233 Y-151.957
X-94.381 Y-151.929
X-94.53 Y-151.914
X-94.68 Y-151.912
X-94.829 Y-151.924
X-94.977 Y-151.949
X-95.123 Y-151.986
X-95.264 Y-152.035
X-95.401 Y-152.096
X-95.532 Y-152.169
X-95.656 Y-152.254
X-95.773 Y-152.348
X-95.882 Y-152.451
X-95.981 Y-152.564
X-96.07 Y-152.684
X-96.149 Y-152.812
X-96.216 Y-152.946
X-96.273 Y-153.085
X-96.318 Y-153.228
X-96.35 Y-153.375
X-96.37 Y-153.523
X-96.377 Y-153.673
X-96.373 Y-153.823
X-96.356 Y-153.972
X-96.327 Y-154.12
X-96.285 Y-154.264
X-96.231 Y-154.405
X-96.166 Y-154.542
X-96.092 Y-154.672
X-96.006 Y-154.795
X-95.911 Y-154.91
X-95.805 Y-155.019
X-95.689 Y-155.121
X-95.569 Y-155.21
X-95.441 Y-155.29
X-95.308 Y-155.358
X-95.168 Y-155.417
X-95.021 Y-155.464
X-94.87 Y-155.5
X-94.722 Y-155.523
X-94.572 Y-155.534
X-94.42 Y-155.532
X-94.265 Y-155.518
X-94.11 Y-155.492
X-93.957 Y-155.453
X-93.815 Y-155.404
X-93.677 Y-155.343
X-93.54 Y-155.27
X-93.407 Y-155.185
X-93.28 Y-155.088
X-93.161 Y-154.98
X-93.055 Y-154.869
X-92.96 Y-154.751
X-92.872 Y-154.622
X-92.793 Y-154.483
X-92.725 Y-154.337
X-92.669 Y-154.187
X-92.626 Y-154.033
X-92.595 Y-153.88
X-92.577 Y-153.725
X-92.572 Y-153.565
X-92.579 Y-153.405
X-92.599 Y-153.246
X-92.632 Y-153.088
X-92.678 Y-152.932
X-92.737 Y-152.779
X-92.808 Y-152.631
X-92.888 Y-152.494
X-92.979 Y-152.363
X-93.081 Y-152.238
X-93.196 Y-152.12
X-93.321 Y-152.01
X-93.454 Y-151.911
X-93.594 Y-151.823
X-93.74 Y-151.746
X-93.894 Y-151.681
X-94.053 Y-151.628
X-94.214 Y-151.589
X-94.375 Y-151.563
X-94.539 Y-151.55
X-94.706
X-94.875 Y-151.564
X-95.043 Y-151.591
X-95.207 Y-151.632
X-95.367 Y-151.685
X-95.523 Y-151.752
X-95.674 Y-151.831
X-95.819 Y-151.923
X-95.957 Y-152.026
X-96.085 Y-152.139
X-96.203 Y-152.262
X-96.311 Y-152.394
X-96.409 Y-152.536
X-96.496 Y-152.685
X-96.569 Y-152.839
X-96.63 Y-152.999
X-96.678 Y-153.165
X-96.714 Y-153.336
X-96.735 Y-153.511
X-96.743 Y-153.685
X-96.736 Y-153.859
X-96.716 Y-154.033
X-96.681 Y-154.206
X-96.632 Y-154.377
X-96.57 Y-154.542
X-96.495 Y-154.702
X-96.408 Y-154.855
X-96.308 Y-155.001
X-96.195 Y-155.141
X-96.072 Y-155.271
X-95.939 Y-155.39
X-95.797 Y-155.497
X-95.647 Y-155.593
X-95.487 Y-155.678
X-95.321 Y-155.75
X-95.15 Y-155.809
X-94.976 Y-155.853
X-94.798 Y-155.883
X-94.617 Y-155.899
X-94.434 Y-155.9
X-94.25 Y-155.886
X-94.069 Y-155.858
X-93.892 Y-155.816
X-93.718 Y-155.76
X-93.548 Y-155.689
X-93.382 Y-155.604
X-93.259 Y-155.527
X-93.244 Y-155.517
X-93.23 Y-155.506
X-93.217 Y-155.494
X-92.834 Y-155.111
X-92.68 Y-154.941
X-92.589 Y-154.822
X-92.502 Y-154.688
X-92.424 Y-154.541
X-92.355 Y-154.384
X-92.298 Y-154.219
X-92.254 Y-154.048
X-92.223 Y-153.869
X-92.207 Y-153.686
X-92.205 Y-153.499
X-92.218 Y-153.311
X-92.246 Y-153.124
X-92.29 Y-152.938
X-92.349 Y-152.755
X-92.421 Y-152.579
X-92.508 Y-152.41
X-92.608 Y-152.247
X-92.721 Y-152.092
X-92.848 Y-151.946
X-92.986 Y-151.81
X-93.135 Y-151.685
X-93.294 Y-151.572
X-93.462 Y-151.472
X-93.638 Y-151.386
X-93.821 Y-151.314
X-94.007 Y-151.257
X-94.197 Y-151.215
X-94.391 Y-151.189
X-94.587 Y-151.178
X-94.785 Y-151.183
X-94.982 Y-151.204
X-95.177 Y-151.241
X-95.325 Y-151.281
X-95.363 Y-151.295
X-95.398 Y-151.316
X-95.429 Y-151.341
X-96.71 Y-152.623
X-96.811 Y-152.734
X-96.896 Y-152.857
X-96.964 Y-152.991
X-97.016 Y-153.132
X-97.055 Y-153.278
X-97.084 Y-153.44
X-97.102 Y-153.611
X-97.105 Y-153.789
X-97.094 Y-153.976
X-97.067 Y-154.169
X-97.023 Y-154.363
X-96.963 Y-154.556
X-96.887 Y-154.745
X-96.796 Y-154.928
X-96.689 Y-155.105
X-96.568 Y-155.274
X-96.434 Y-155.432
X-96.288 Y-155.579
X-96.129 Y-155.714
X-95.96 Y-155.837
X-95.781 Y-155.946
X-95.593 Y-156.041
X-95.399 Y-156.12
X-95.198 Y-156.183
X-94.993 Y-156.23
X-94.784 Y-156.26
X-94.572 Y-156.274
X-94.359 Y-156.271
X-94.147 Y-156.25
X-94.007 Y-156.225
X-93.962 Y-156.212
X-93.92 Y-156.19
X-93.883 Y-156.16
X-93.217 Y-155.494
X-92.834 Y-155.111
X-92.19 Y-154.467
X-92.09 Y-154.356
X-92.008 Y-154.23
X-91.947 Y-154.093
X-91.902 Y-153.95
X-91.872 Y-153.803
X-91.853 Y-153.644
X-91.847 Y-153.466
X-91.855 Y-153.275
X-91.88 Y-153.077
X-91.921 Y-152.877
X-91.98 Y-152.677
X-92.056 Y-152.479
X-92.141 Y-152.3
X-92.154 Y-152.277
X-92.169 Y-152.255
X-92.187 Y-152.236
X-92.219 Y-152.215
X-92.257 Y-152.209
X-92.295 Y-152.217
X-92.326 Y-152.239
X-92.347 Y-152.271
X-92.355 Y-152.309
X-92.356 Y-152.862
X-92.357 Y-153.841
X-92.358 Y-154.394
X-92.351 Y-154.432
X-92.33 Y-154.464
X-92.298 Y-154.486
X-92.261 Y-154.494
X-92.223 Y-154.487
X-92.19 Y-154.467
X-91.832 Y-154.108
X-91.814 Y-154.09
X-91.694 Y-153.91
X-91.677 Y-153.886
X-91.657 Y-153.855
X-91.58 Y-153.726
X-91.548 Y-153.608
X-91.549 Y-153.572
X-91.562 Y-153.539
X-91.586 Y-153.512
X-91.618 Y-153.496
X-91.654 Y-153.492
X-91.689 Y-153.501
X-91.718 Y-153.521
X-91.738 Y-153.551
X-91.829 Y-153.756
X-91.838 Y-153.791
X-91.833 Y-153.828
X-91.816 Y-153.86
X-91.788 Y-153.883
X-91.753 Y-153.895
X-91.717 Y-153.894
X-91.683 Y-153.88
X-91.657 Y-153.855
X-91.58 Y-153.739
X-91.575 Y-153.729
X-91.569 Y-153.709
X-91.56 Y-153.669
X-91.547 Y-153.6
X-91.544 Y-153.588
X-91.535 Y-153.544
X-91.514 Y-153.396
X-91.512 Y-153.301
Y-153.284
X-91.513 Y-153.267
X-91.516 Y-153.251
X-91.53 Y-153.218
X-91.554 Y-153.193
X-91.586 Y-153.177
X-91.621 Y-153.174
X-91.655 Y-153.183
X-91.684 Y-153.203
X-91.704 Y-153.232
X-91.713 Y-153.266
X-91.732 Y-153.513
X-91.728 Y-153.55
X-91.711 Y-153.583
X-91.683 Y-153.607
X-91.648 Y-153.62
X-91.611 Y-153.619
X-91.577 Y-153.604
X-91.55 Y-153.578
X-91.535 Y-153.544
X-91.501 Y-153.367
X-91.5 Y-153.347
X-91.501 Y-153.327
X-91.561 Y-153.025
X-91.57 Y-152.985
X-91.578 Y-152.965
X-91.583 Y-152.955
X-91.804 Y-152.623
X-91.818 Y-152.606
X-91.834 Y-152.588
X-93.006 Y-151.416
X-93.143 Y-151.292
X-93.262 Y-151.2
X-93.389 Y-151.12
X-93.541 Y-151.041
X-93.713 Y-150.967
X-93.901 Y-150.905
X-94.099 Y-150.856
X-94.305 Y-150.822
X-94.522 Y-150.805
X-94.744
X-94.792 Y-150.809
X-94.831 Y-150.815
X-94.869 Y-150.828
X-94.903 Y-150.847
X-94.929 Y-150.874
X-94.943 Y-150.907
X-94.944 Y-150.944
X-94.931 Y-150.979
X-94.907 Y-151.006
X-94.875 Y-151.024
X-94.337 Y-151.193
X-93.608 Y-151.422
X-93.109 Y-151.579
X-93.072 Y-151.584
X-93.036 Y-151.574
X-93.006 Y-151.552
X-92.986 Y-151.521
X-92.979 Y-151.484
X-92.986 Y-151.447
X-93.006 Y-151.416
X-93.506 Y-150.916
X-93.523 Y-150.902
X-93.839 Y-150.692
X-93.859 Y-150.679
X-93.88 Y-150.668
X-93.89 Y-150.665
X-94.242 Y-150.595
X-94.252 Y-150.594
X-94.262
X-94.282 Y-150.597
X-94.604 Y-150.661
X-94.621 Y-150.665
X-94.637 Y-150.672
X-94.67 Y-150.692
X-94.926 Y-150.862
X-95.006 Y-150.919
X-95.429 Y-151.341
X-95.984 Y-151.897
X-96.155 Y-152.067
X-96.71 Y-152.623
X-97.179 Y-153.091
X-97.279 Y-153.202
X-97.351 Y-153.334
X-97.4 Y-153.476
X-97.43 Y-153.623
X-97.446 Y-153.772
X-97.45 Y-153.925
X-97.44 Y-154.101
X-97.414 Y-154.293
X-97.37 Y-154.495
X-97.331 Y-154.623
X-97.322 Y-154.647
X-97.311 Y-154.669
X-97.298 Y-154.69
X-97.276 Y-154.711
X-97.248 Y-154.725
X-97.218 Y-154.729
X-97.182 Y-154.723
X-97.15 Y-154.703
X-97.128 Y-154.673
X-97.118 Y-154.637
X-97.079 Y-154.094
X-97.051 Y-153.716
X-97.011 Y-153.172
X-97.016 Y-153.132
X-97.036 Y-153.098
X-97.067 Y-153.074
X-97.106 Y-153.064
X-97.145 Y-153.07
X-97.179 Y-153.091
X-97.293 Y-153.206
X-97.308 Y-153.226
X-97.525 Y-153.551
X-97.536 Y-153.57
X-97.542 Y-153.588
X-97.61 Y-153.93
X-97.611 Y-153.95
X-97.606 Y-153.991
X-97.542 Y-154.312
X-97.535 Y-154.331
X-97.525 Y-154.35
X-97.309 Y-154.675
X-97.295 Y-154.695
X-95.775 Y-156.214
X-95.664 Y-156.315
X-95.539 Y-156.398
X-95.405 Y-156.466
X-95.257 Y-156.523
X-95.098 Y-156.571
X-94.916 Y-156.609
X-94.711 Y-156.636
X-94.561 Y-156.644
X-94.542
X-94.523 Y-156.642
X-94.504 Y-156.639
X-94.471 Y-156.624
X-94.445 Y-156.599
X-94.43 Y-156.565
X-94.428 Y-156.528
X-94.44 Y-156.493
X-94.463 Y-156.465
X-94.495 Y-156.447
X-94.994 Y-156.279
X-95.177 Y-156.218
X-95.67 Y-156.052
X-95.707 Y-156.046
X-95.744 Y-156.055
X-95.775 Y-156.077
X-95.795 Y-156.109
X-95.802 Y-156.146
X-95.795 Y-156.183
X-95.775 Y-156.214
X-95.614 Y-156.375
X-95.579 Y-156.404
X-95.328 Y-156.572
X-95.248 Y-156.624
X-95.23 Y-156.633
X-95.211 Y-156.639
X-94.886 Y-156.703
X-94.865 Y-156.707
X-94.855
X-94.845
X-94.493 Y-156.637
X-94.483 Y-156.633
X-94.463 Y-156.623
X-94.443 Y-156.611
X-94.121 Y-156.396
X-94.103 Y-156.38
X-93.883 Y-156.16
X-93.867 Y-156.14
X-93.857 Y-156.116
X-93.59 Y-155.545
X-93.589 Y-155.542
X-93.562 Y-155.519 Z-0.891
X-93.54 Y-155.501 Z-0.871
X-93.524 Y-155.488 Z-0.842
X-93.523 Y-155.487 Z-0.84
X-93.517 Y-155.486 Z-0.82
X-93.515 Y-155.485 Z-0.8
G0 Z5
X-94.555 Y-153.65
Z-0.3
G1 Z-0.4 F1000
Z-1.2
X-94.529 Y-153.623
X-94.558 Y-153.6
X-94.595 Y-153.607
X-94.617 Y-153.637
X-94.618 Y-153.675
X-94.598 Y-153.706
X-94.564 Y-153.722
X-94.527 Y-153.724
X-94.491 Y-153.712
X-94.462 Y-153.688
X-94.445 Y-153.654
X-94.441 Y-153.617
X-94.447 Y-153.58
X-94.465 Y-153.547
X-94.491 Y-153.52
X-94.524 Y-153.501
X-94.596 Y-153.482
X-94.669 Y-153.498
X-94.728 Y-153.545
X-94.764 Y-153.611
X-94.773 Y-153.685
X-94.756 Y-153.758
X-94.714 Y-153.821
X-94.656 Y-153.868
X-94.586 Y-153.896
X-94.512 Y-153.903
X-94.438 Y-153.888
X-94.371 Y-153.854
X-94.316 Y-153.804
X-94.275 Y-153.741
X-94.228 Y-153.598
X-94.256 Y-153.451
X-94.346 Y-153.331
X-94.475 Y-153.255
X-94.624 Y-153.232
X-94.77 Y-153.264
X-94.896 Y-153.345
X-94.987 Y-153.465
X-95.034 Y-153.607
X-95.033 Y-153.757
X-94.986 Y-153.899
X-94.899 Y-154.021
X-94.78 Y-154.113
X-94.64 Y-154.167
X-94.49 Y-154.179
X-94.343 Y-154.151
X-94.209 Y-154.084
X-94.098 Y-153.983
X-94.01 Y-153.862
X-93.959 Y-153.72
X-93.941 Y-153.572
X-93.963 Y-153.423
X-94.017 Y-153.283
X-94.104 Y-153.161
X-94.216 Y-153.061
X-94.347 Y-152.987
X-94.491 Y-152.946
X-94.64 Y-152.934
X-94.789 Y-152.956
X-94.93 Y-153.007
X-95.057 Y-153.086
X-95.165 Y-153.191
X-95.251 Y-153.313
X-95.309 Y-153.452
X-95.341 Y-153.598
X-95.343 Y-153.748
X-95.316 Y-153.896
X-95.263 Y-154.036
X-95.184 Y-154.164
X-95.083 Y-154.274
X-94.964 Y-154.366
X-94.83 Y-154.433
X-94.686 Y-154.476
X-94.537 Y-154.494
X-94.387 Y-154.483
X-94.241 Y-154.448
X-94.104 Y-154.388
X-93.979 Y-154.306
X-93.867 Y-154.206
X-93.774 Y-154.088
X-93.703 Y-153.956
X-93.652 Y-153.815
X-93.626 Y-153.667
X-93.625 Y-153.517
X-93.646 Y-153.368
X-93.691 Y-153.225
X-93.758 Y-153.091
X-93.844 Y-152.969
X-93.948 Y-152.86
X-94.068 Y-152.77
X-94.2 Y-152.698
X-94.34 Y-152.646
X-94.488 Y-152.617
X-94.637 Y-152.609
X-94.787 Y-152.621
X-94.933 Y-152.657
X-95.072 Y-152.713
X-95.202 Y-152.787
X-95.32 Y-152.88
X-95.424 Y-152.988
X-95.512 Y-153.109
X-95.582 Y-153.242
X-95.633 Y-153.383
X-95.665 Y-153.529
X-95.676 Y-153.679
X-95.667 Y-153.829
X-95.638 Y-153.976
X-95.59 Y-154.118
X-95.523 Y-154.252
X-95.439 Y-154.377
X-95.34 Y-154.489
X-95.228 Y-154.588
X-95.102 Y-154.671
X-94.968 Y-154.737
X-94.826 Y-154.787
X-94.679 Y-154.817
X-94.53 Y-154.828
X-94.38 Y-154.82
X-94.232 Y-154.795
X-94.089 Y-154.75
X-93.952 Y-154.688
X-93.823 Y-154.611
X-93.705 Y-154.519
X-93.6 Y-154.413
X-93.507 Y-154.294
X-93.429 Y-154.167
X-93.367 Y-154.03
X-93.322 Y-153.887
X-93.294 Y-153.739
X-93.283 Y-153.59
X-93.29 Y-153.44
X-93.316 Y-153.292
X-93.357 Y-153.148
X-93.415 Y-153.009
X-93.489 Y-152.879
X-93.577 Y-152.758
X-93.678 Y-152.647
X-93.791 Y-152.548
X-93.915 Y-152.463
X-94.047 Y-152.392
X-94.186 Y-152.337
X-94.331 Y-152.296
X-94.479 Y-152.273
X-94.629 Y-152.266
X-94.779 Y-152.275
X-94.926 Y-152.299
X-95.071 Y-152.341
X-95.209 Y-152.398
X-95.342 Y-152.469
X-95.466 Y-152.553
X-95.579 Y-152.651
X-95.682 Y-152.76
X-95.773 Y-152.879
X-95.851 Y-153.007
X-95.915 Y-153.143
X-95.964 Y-153.285
X-95.998 Y-153.431
X-96.018 Y-153.58
X-96.022 Y-153.729
X-96.009 Y-153.879
X-95.982 Y-154.027
X-95.941 Y-154.171
X-95.884 Y-154.31
X-95.814 Y-154.442
X-95.731 Y-154.567
X-95.636 Y-154.683
X-95.529 Y-154.789
X-95.413 Y-154.883
X-95.287 Y-154.965
X-95.155 Y-155.035
X-95.016 Y-155.092
X-94.872 Y-155.134
X-94.724 Y-155.162
X-94.575 Y-155.175
X-94.425 Y-155.174
X-94.276 Y-155.159
X-94.129 Y-155.128
X-93.986 Y-155.084
X-93.847 Y-155.027
X-93.714 Y-154.957
X-93.589 Y-154.874
X-93.472 Y-154.78
X-93.365 Y-154.675
X-93.268 Y-154.561
X-93.181 Y-154.438
X-93.107 Y-154.308
X-93.046 Y-154.171
X-92.998 Y-154.029
X-92.962 Y-153.883
X-92.94 Y-153.735
X-92.932 Y-153.585
X-92.939 Y-153.435
X-92.958 Y-153.286
X-92.991 Y-153.14
X-93.038 Y-152.997
X-93.097 Y-152.86
X-93.169 Y-152.728
X-93.252 Y-152.603
X-93.345 Y-152.486
X-93.449 Y-152.378
X-93.563 Y-152.28
X-93.684 Y-152.192
X-93.813 Y-152.115
X-93.948 Y-152.049
X-94.089 Y-151.997
X-94.233 Y-151.957
X-94.381 Y-151.929
X-94.53 Y-151.914
X-94.68 Y-151.912
X-94.829 Y-151.924
X-94.977 Y-151.949
X-95.123 Y-151.986
X-95.264 Y-152.035
X-95.401 Y-152.096
X-95.532 Y-152.169
X-95.656 Y-152.254
X-95.773 Y-152.348
X-95.882 Y-152.451
X-95.981 Y-152.564
X-96.07 Y-152.684
X-96.149 Y-152.812
X-96.216 Y-152.946
X-96.273 Y-153.085
X-96.318 Y-153.228
X-96.35 Y-153.375
X-96.37 Y-153.523
X-96.377 Y-153.673
X-96.373 Y-153.823
X-96.356 Y-153.972
X-96.327 Y-154.12
X-96.285 Y-154.264
X-96.231 Y-154.405
X-96.166 Y-154.542
X-96.092 Y-154.672
X-96.006 Y-154.795
X-95.911 Y-154.91
X-95.805 Y-155.019
X-95.689 Y-155.121
X-95.569 Y-155.21
X-95.441 Y-155.29
X-95.308 Y-155.358
X-95.168 Y-155.417
X-95.021 Y-155.464
X-94.87 Y-155.5
X-94.722 Y-155.523
X-94.572 Y-155.534
X-94.42 Y-155.532
X-94.265 Y-155.518
X-94.11 Y-155.492
X-93.957 Y-155.453
X-93.815 Y-155.404
X-93.677 Y-155.343
X-93.54 Y-155.27
X-93.407 Y-155.185
X-93.28 Y-155.088
X-93.161 Y-154.98
X-93.055 Y-154.869
X-92.96 Y-154.751
X-92.872 Y-154.622
X-92.793 Y-154.483
X-92.725 Y-154.337
X-92.669 Y-154.187
X-92.626 Y-154.033
X-92.595 Y-153.88
X-92.577 Y-153.725
X-92.572 Y-153.565
X-92.579 Y-153.405
X-92.599 Y-153.246
X-92.632 Y-153.088
X-92.678 Y-152.932
X-92.737 Y-152.779
X-92.808 Y-152.631
X-92.888 Y-152.494
X-92.979 Y-152.363
X-93.081 Y-152.238
X-93.196 Y-152.12
X-93.321 Y-152.01
X-93.454 Y-151.911
X-93.594 Y-151.823
X-93.74 Y-151.746
X-93.894 Y-151.681
X-94.053 Y-151.628
X-94.214 Y-151.589
X-94.375 Y-151.563
X-94.539 Y-151.55
X-94.706
X-94.875 Y-151.564
X-95.043 Y-151.591
X-95.207 Y-151.632
X-95.367 Y-151.685
X-95.523 Y-151.752
X-95.674 Y-151.831
X-95.819 Y-151.923
X-95.957 Y-152.026
X-96.085 Y-152.139
X-96.203 Y-152.262
X-96.311 Y-152.394
X-96.409 Y-152.536
X-96.496 Y-152.685
X-96.569 Y-152.839
X-96.63 Y-152.999
X-96.678 Y-153.165
X-96.714 Y-153.336
X-96.735 Y-153.511
X-96.743 Y-153.685
X-96.736 Y-153.859
X-96.716 Y-154.033
X-96.681 Y-154.206
X-96.632 Y-154.377
X-96.57 Y-154.542
X-96.495 Y-154.702
X-96.408 Y-154.855
X-96.308 Y-155.001
X-96.195 Y-155.141
X-96.072 Y-155.271
X-95.939 Y-155.39
X-95.797 Y-155.497
X-95.647 Y-155.593
X-95.487 Y-155.678
X-95.321 Y-155.75
X-95.15 Y-155.809
X-94.976 Y-155.853
X-94.798 Y-155.883
X-94.617 Y-155.899
X-94.434 Y-155.9
X-94.25 Y-155.886
X-94.069 Y-155.858
X-93.892 Y-155.816
X-93.718 Y-155.76
X-93.548 Y-155.689
X-93.382 Y-155.604
X-93.259 Y-155.527
X-93.244 Y-155.517
X-93.23 Y-155.506
X-93.217 Y-155.494
X-92.834 Y-155.111
X-92.68 Y-154.941
X-92.589 Y-154.822
X-92.502 Y-154.688
X-92.424 Y-154.541
X-92.355 Y-154.384
X-92.298 Y-154.219
X-92.254 Y-154.048
X-92.223 Y-153.869
X-92.207 Y-153.686
X-92.205 Y-153.499
X-92.218 Y-153.311
X-92.246 Y-153.124
X-92.29 Y-152.938
X-92.349 Y-152.755
X-92.421 Y-152.579
X-92.508 Y-152.41
X-92.608 Y-152.247
X-92.721 Y-152.092
X-92.848 Y-151.946
X-92.986 Y-151.81
X-93.135 Y-151.685
X-93.294 Y-151.572
X-93.462 Y-151.472
X-93.638 Y-151.386
X-93.821 Y-151.314
X-94.007 Y-151.257
X-94.197 Y-151.215
X-94.391 Y-151.189
X-94.587 Y-151.178
X-94.785 Y-151.183
X-94.982 Y-151.204
X-95.177 Y-151.241
X-95.325 Y-151.281
X-95.363 Y-151.295
X-95.398 Y-151.316
X-95.429 Y-151.341
X-96.71 Y-152.623
X-96.811 Y-152.734
X-96.896 Y-152.857
X-96.964 Y-152.991
X-97.016 Y-153.132
X-97.055 Y-153.278
X-97.084 Y-153.44
X-97.102 Y-153.611
X-97.105 Y-153.789
X-97.094 Y-153.976
X-97.067 Y-154.169
X-97.023 Y-154.363
X-96.963 Y-154.556
X-96.887 Y-154.745
X-96.796 Y-154.928
X-96.689 Y-155.105
X-96.568 Y-155.274
X-96.434 Y-155.432
X-96.288 Y-155.579
X-96.129 Y-155.714
X-95.96 Y-155.837
X-95.781 Y-155.946
X-95.593 Y-156.041
X-95.399 Y-156.12
X-95.198 Y-156.183
X-94.993 Y-156.23
X-94.784 Y-156.26
X-94.572 Y-156.274
X-94.359 Y-156.271
X-94.147 Y-156.25
X-94.007 Y-156.225
X-93.962 Y-156.212
X-93.92 Y-156.19
X-93.883 Y-156.16
X-93.217 Y-155.494
X-92.834 Y-155.111
X-92.19 Y-154.467
X-92.09 Y-154.356
X-92.008 Y-154.23
X-91.947 Y-154.093
X-91.902 Y-153.95
X-91.872 Y-153.803
X-91.853 Y-153.644
X-91.847 Y-153.466
X-91.855 Y-153.275
X-91.88 Y-153.077
X-91.921 Y-152.877
X-91.98 Y-152.677
X-92.056 Y-152.479
X-92.141 Y-152.3
X-92.154 Y-152.277
X-92.169 Y-152.255
X-92.187 Y-152.236
X-92.219 Y-152.215
X-92.257 Y-152.209
X-92.295 Y-152.217
X-92.326 Y-152.239
X-92.347 Y-152.271
X-92.355 Y-152.309
X-92.356 Y-152.862
X-92.357 Y-153.841
X-92.358 Y-154.394
X-92.351 Y-154.432
X-92.33 Y-154.464
X-92.298 Y-154.486
X-92.261 Y-154.494
X-92.223 Y-154.487
X-92.19 Y-154.467
X-91.832 Y-154.108
X-91.814 Y-154.09
X-91.694 Y-153.91
X-91.677 Y-153.886
X-91.657 Y-153.855
X-91.58 Y-153.726
X-91.548 Y-153.608
X-91.549 Y-153.572
X-91.562 Y-153.539
X-91.586 Y-153.512
X-91.618 Y-153.496
X-91.654 Y-153.492
X-91.689 Y-153.501
X-91.718 Y-153.521
X-91.738 Y-153.551
X-91.829 Y-153.756
X-91.838 Y-153.791
X-91.833 Y-153.828
X-91.816 Y-153.86
X-91.788 Y-153.883
X-91.753 Y-153.895
X-91.717 Y-153.894
X-91.683 Y-153.88
X-91.657 Y-153.855
X-91.58 Y-153.739
X-91.575 Y-153.729
X-91.569 Y-153.709
X-91.56 Y-153.669
X-91.547 Y-153.6
X-91.544 Y-153.588
X-91.535 Y-153.544
X-91.514 Y-153.396
X-91.512 Y-153.301
Y-153.284
X-91.513 Y-153.267
X-91.516 Y-153.251
X-91.53 Y-153.218
X-91.554 Y-153.193
X-91.586 Y-153.177
X-91.621 Y-153.174
X-91.655 Y-153.183
X-91.684 Y-153.203
X-91.704 Y-153.232
X-91.713 Y-153.266
X-91.732 Y-153.513
X-91.728 Y-153.55
X-91.711 Y-153.583
X-91.683 Y-153.607
X-91.648 Y-153.62
X-91.611 Y-153.619
X-91.577 Y-153.604
X-91.55 Y-153.578
X-91.535 Y-153.544
X-91.501 Y-153.367
X-91.5 Y-153.347
X-91.501 Y-153.327
X-91.561 Y-153.025
X-91.57 Y-152.985
X-91.578 Y-152.965
X-91.583 Y-152.955
X-91.804 Y-152.623
X-91.818 Y-152.606
X-91.834 Y-152.588
X-93.006 Y-151.416
X-93.143 Y-151.292
X-93.262 Y-151.2
X-93.389 Y-151.12
X-93.541 Y-151.041
X-93.713 Y-150.967
X-93.901 Y-150.905
X-94.099 Y-150.856
X-94.305 Y-150.822
X-94.522 Y-150.805
X-94.744
X-94.792 Y-150.809
X-94.831 Y-150.815
X-94.869 Y-150.828
X-94.903 Y-150.847
X-94.929 Y-150.874
X-94.943 Y-150.907
X-94.944 Y-150.944
X-94.931 Y-150.979
X-94.907 Y-151.006
X-94.875 Y-151.024
X-94.337 Y-151.193
X-93.608 Y-151.422
X-93.109 Y-151.579
X-93.072 Y-151.584
X-93.036 Y-151.574
X-93.006 Y-151.552
X-92.986 Y-151.521
X-92.979 Y-151.484
X-92.986 Y-151.447
X-93.006 Y-151.416
X-93.506 Y-150.916
X-93.523 Y-150.902
X-93.839 Y-150.692
X-93.859 Y-150.679
X-93.88 Y-150.668
X-93.89 Y-150.665
X-94.242 Y-150.595
X-94.252 Y-150.594
X-94.262
X-94.282 Y-150.597
X-94.604 Y-150.661
X-94.621 Y-150.665
X-94.637 Y-150.672
X-94.67 Y-150.692
X-94.926 Y-150.862
X-95.006 Y-150.919
X-95.429 Y-151.341
X-95.984 Y-151.897
X-96.155 Y-152.067
X-96.71 Y-152.623
X-97.179 Y-153.091
X-97.279 Y-153.202
X-97.351 Y-153.334
X-97.4 Y-153.476
X-97.43 Y-153.623
X-97.446 Y-153.772
X-97.45 Y-153.925
X-97.44 Y-154.101
X-97.414 Y-154.293
X-97.37 Y-154.495
X-97.331 Y-154.623
X-97.322 Y-154.647
X-97.311 Y-154.669
X-97.298 Y-154.69
X-97.276 Y-154.711
X-97.248 Y-154.725
X-97.218 Y-154.729
X-97.182 Y-154.723
X-97.15 Y-154.703
X-97.128 Y-154.673
X-97.118 Y-154.637
X-97.079 Y-154.094
X-97.051 Y-153.716
X-97.011 Y-153.172
X-97.016 Y-153.132
X-97.036 Y-153.098
X-97.067 Y-153.074
X-97.106 Y-153.064
X-97.145 Y-153.07
X-97.179 Y-153.091
X-97.293 Y-153.206
X-97.308 Y-153.226
X-97.525 Y-153.551
X-97.536 Y-153.57
X-97.542 Y-153.588
X-97.61 Y-153.93
X-97.611 Y-153.95
X-97.606 Y-153.991
X-97.542 Y-154.312
X-97.535 Y-154.331
X-97.525 Y-154.35
X-97.309 Y-154.675
X-97.295 Y-154.695
X-95.775 Y-156.214
X-95.664 Y-156.315
X-95.539 Y-156.398
X-95.405 Y-156.466
X-95.257 Y-156.523
X-95.098 Y-156.571
X-94.916 Y-156.609
X-94.711 Y-156.636
X-94.561 Y-156.644
X-94.542
X-94.523 Y-156.642
X-94.504 Y-156.639
X-94.471 Y-156.624
X-94.445 Y-156.599
X-94.43 Y-156.565
X-94.428 Y-156.528
X-94.44 Y-156.493
X-94.463 Y-156.465
X-94.495 Y-156.447
X-94.994 Y-156.279
X-95.177 Y-156.218
X-95.67 Y-156.052
X-95.707 Y-156.046
X-95.744 Y-156.055
X-95.775 Y-156.077
X-95.795 Y-156.109
X-95.802 Y-156.146
X-95.795 Y-156.183
X-95.775 Y-156.214
X-95.614 Y-156.375
X-95.579 Y-156.404
X-95.328 Y-156.572
X-95.248 Y-156.624
X-95.23 Y-156.633
X-95.211 Y-156.639
X-94.886 Y-156.703
X-94.865 Y-156.707
X-94.855
X-94.845
X-94.493 Y-156.637
X-94.483 Y-156.633
X-94.463 Y-156.623
X-94.443 Y-156.611
X-94.121 Y-156.396
X-94.103 Y-156.38
X-93.883 Y-156.16
X-93.867 Y-156.14
X-93.857 Y-156.116
X-93.59 Y-155.545
X-93.589 Y-155.542
X-93.562 Y-155.519 Z-1.191
X-93.54 Y-155.501 Z-1.171
X-93.524 Y-155.488 Z-1.142
X-93.523 Y-155.487 Z-1.14
X-93.517 Y-155.486 Z-1.12
X-93.515 Y-155.485 Z-1.1
G0 Z5
X-94.555 Y-153.65
Z-0.6
G1 Z-0.7 F1000
Z-1.5
X-94.529 Y-153.623
X-94.558 Y-153.6
X-94.595 Y-153.607
X-94.617 Y-153.637
X-94.618 Y-153.675
X-94.598 Y-153.706
X-94.564 Y-153.722
X-94.527 Y-153.724
X-94.491 Y-153.712
X-94.462 Y-153.688
X-94.445 Y-153.654
X-94.441 Y-153.617
X-94.447 Y-153.58
X-94.465 Y-153.547
X-94.491 Y-153.52
X-94.524 Y-153.501
X-94.596 Y-153.482
X-94.669 Y-153.498
X-94.728 Y-153.545
X-94.764 Y-153.611
X-94.773 Y-153.685
X-94.756 Y-153.758
X-94.714 Y-153.821
X-94.656 Y-153.868
X-94.586 Y-153.896
X-94.512 Y-153.903
X-94.438 Y-153.888
X-94.371 Y-153.854
X-94.316 Y-153.804
X-94.275 Y-153.741
X-94.228 Y-153.598
X-94.256 Y-153.451
X-94.346 Y-153.331
X-94.475 Y-153.255
X-94.624 Y-153.232
X-94.77 Y-153.264
X-94.896 Y-153.345
X-94.987 Y-153.465
X-95.034 Y-153.607
X-95.033 Y-153.757
X-94.986 Y-153.899
X-94.899 Y-154.021
X-94.78 Y-154.113
X-94.64 Y-154.167
X-94.49 Y-154.179
X-94.343 Y-154.151
X-94.209 Y-154.084
X-94.098 Y-153.983
X-94.01 Y-153.862
X-93.959 Y-153.72
X-93.941 Y-153.572
X-93.963 Y-153.423
X-94.017 Y-153.283
X-94.104 Y-153.161
X-94.216 Y-153.061
X-94.347 Y-152.987
X-94.491 Y-152.946
X-94.64 Y-152.934
X-94.789 Y-152.956
X-94.93 Y-153.007
X-95.057 Y-153.086
X-95.165 Y-153.191
X-95.251 Y-153.313
X-95.309 Y-153.452
X-95.341 Y-153.598
X-95.343 Y-153.748
X-95.316 Y-153.896
X-95.263 Y-154.036
X-95.184 Y-154.164
X-95.083 Y-154.274
X-94.964 Y-154.366
X-94.83 Y-154.433
X-94.686 Y-154.476
X-94.537 Y-154.494
X-94.387 Y-154.483
X-94.241 Y-154.448
X-94.104 Y-154.388
X-93.979 Y-154.306
X-93.867 Y-154.206
X-93.774 Y-154.088
X-93.703 Y-153.956
X-93.652 Y-153.815
X-93.626 Y-153.667
X-93.625 Y-153.517
X-93.646 Y-153.368
X-93.691 Y-153.225
X-93.758 Y-153.091
X-93.844 Y-152.969
X-93.948 Y-152.86
X-94.068 Y-152.77
X-94.2 Y-152.698
X-94.34 Y-152.646
X-94.488 Y-152.617
X-94.637 Y-152.609
X-94.787 Y-152.621
X-94.933 Y-152.657
X-95.072 Y-152.713
X-95.202 Y-152.787
X-95.32 Y-152.88
X-95.424 Y-152.988
X-95.512 Y-153.109
X-95.582 Y-153.242
X-95.633 Y-153.383
X-95.665 Y-153.529
X-95.676 Y-153.679
X-95.667 Y-153.829
X-95.638 Y-153.976
X-95.59 Y-154.118
X-95.523 Y-154.252
X-95.439 Y-154.377
X-95.34 Y-154.489
X-95.228 Y-154.588
X-95.102 Y-154.671
X-94.968 Y-154.737
X-94.826 Y-154.787
X-94.679 Y-154.817
X-94.53 Y-154.828
X-94.38 Y-154.82
X-94.232 Y-154.795
X-94.089 Y-154.75
X-93.952 Y-154.688
X-93.823 Y-154.611
X-93.705 Y-154.519
X-93.6 Y-154.413
X-93.507 Y-154.294
X-93.429 Y-154.167
X-93.367 Y-154.03
X-93.322 Y-153.887
X-93.294 Y-153.739
X-93.283 Y-153.59
X-93.29 Y-153.44
X-93.316 Y-153.292
X-93.357 Y-153.148
X-93.415 Y-153.009
X-93.489 Y-152.879
X-93.577 Y-152.758
X-93.678 Y-152.647
X-93.791 Y-152.548
X-93.915 Y-152.463
X-94.047 Y-152.392
X-94.186 Y-152.337
X-94.331 Y-152.296
X-94.479 Y-152.273
X-94.629 Y-152.266
X-94.779 Y-152.275
X-94.926 Y-152.299
X-95.071 Y-152.341
X-95.209 Y-152.398
X-95.342 Y-152.469
X-95.466 Y-152.553
X-95.579 Y-152.651
X-95.682 Y-152.76
X-95.773 Y-152.879
X-95.851 Y-153.007
X-95.915 Y-153.143
X-95.964 Y-153.285
X-95.998 Y-153.431
X-96.018 Y-153.58
X-96.022 Y-153.729
X-96.009 Y-153.879
X-95.982 Y-154.027
X-95.941 Y-154.171
X-95.884 Y-154.31
X-95.814 Y-154.442
X-95.731 Y-154.567
X-95.636 Y-154.683
X-95.529 Y-154.789
X-95.413 Y-154.883
X-95.287 Y-154.965
X-95.155 Y-155.035
X-95.016 Y-155.092
X-94.872 Y-155.134
X-94.724 Y-155.162
X-94.575 Y-155.175
X-94.425 Y-155.174
X-94.276 Y-155.159
X-94.129 Y-155.128
X-93.986 Y-155.084
X-93.847 Y-155.027
X-93.714 Y-154.957
X-93.589 Y-154.874
X-93.472 Y-154.78
X-93.365 Y-154.675
X-93.268 Y-154.561
X-93.181 Y-154.438
X-93.107 Y-154.308
X-93.046 Y-154.171
X-92.998 Y-154.029
X-92.962 Y-153.883
X-92.94 Y-153.735
X-92.932 Y-153.585
X-92.939 Y-153.435
X-92.958 Y-153.286
X-92.991 Y-153.14
X-93.038 Y-152.997
X-93.097 Y-152.86
X-93.169 Y-152.728
X-93.252 Y-152.603
X-93.345 Y-152.486
X-93.449 Y-152.378
X-93.563 Y-152.28
X-93.684 Y-152.192
X-93.813 Y-152.115
X-93.948 Y-152.049
X-94.089 Y-151.997
X-94.233 Y-151.957
X-94.381 Y-151.929
X-94.53 Y-151.914
X-94.68 Y-151.912
X-94.829 Y-151.924
X-94.977 Y-151.949
X-95.123 Y-151.986
X-95.264 Y-152.035
X-95.401 Y-152.096
X-95.532 Y-152.169
X-95.656 Y-152.254
X-95.773 Y-152.348
X-95.882 Y-152.451
X-95.981 Y-152.564
X-96.07 Y-152.684
X-96.149 Y-152.812
X-96.216 Y-152.946
X-96.273 Y-153.085
X-96.318 Y-153.228
X-96.35 Y-153.375
X-96.37 Y-153.523
X-96.377 Y-153.673
X-96.373 Y-153.823
X-96.356 Y-153.972
X-96.327 Y-154.12
X-96.285 Y-154.264
X-96.231 Y-154.405
X-96.166 Y-154.542
X-96.092 Y-154.672
X-96.006 Y-154.795
X-95.911 Y-154.91
X-95.805 Y-155.019
X-95.689 Y-155.121
X-95.569 Y-155.21
X-95.441 Y-155.29
X-95.308 Y-155.358
X-95.168 Y-155.417
X-95.021 Y-155.464
X-94.87 Y-155.5
X-94.722 Y-155.523
X-94.572 Y-155.534
X-94.42 Y-155.532
X-94.265 Y-155.518
X-94.11 Y-155.492
X-93.957 Y-155.453
X-93.815 Y-155.404
X-93.677 Y-155.343
X-93.54 Y-155.27
X-93.407 Y-155.185
X-93.28 Y-155.088
X-93.161 Y-154.98
X-93.055 Y-154.869
X-92.96 Y-154.751
X-92.872 Y-154.622
X-92.793 Y-154.483
X-92.725 Y-154.337
X-92.669 Y-154.187
X-92.626 Y-154.033
X-92.595 Y-153.88
X-92.577 Y-153.725
X-92.572 Y-153.565
X-92.579 Y-153.405
X-92.599 Y-153.246
X-92.632 Y-153.088
X-92.678 Y-152.932
X-92.737 Y-152.779
X-92.808 Y-152.631
X-92.888 Y-152.494
X-92.979 Y-152.363
X-93.081 Y-152.238
X-93.196 Y-152.12
X-93.321 Y-152.01
X-93.454 Y-151.911
X-93.594 Y-151.823
X-93.74 Y-151.746
X-93.894 Y-151.681
X-94.053 Y-151.628
X-94.214 Y-151.589
X-94.375 Y-151.563
X-94.539 Y-151.55
X-94.706
X-94.875 Y-151.564
X-95.043 Y-151.591
X-95.207 Y-151.632
X-95.367 Y-151.685
X-95.523 Y-151.752
X-95.674 Y-151.831
X-95.819 Y-151.923
X-95.957 Y-152.026
X-96.085 Y-152.139
X-96.203 Y-152.262
X-96.311 Y-152.394
X-96.409 Y-152.536
X-96.496 Y-152.685
X-96.569 Y-152.839
X-96.63 Y-152.999
X-96.678 Y-153.165
