(Toothpick_bohren_1_9mm)
(Bearbeiten)
(  Hersteller: ChinaCnc)
(  model: 3040T)
(  description: Generic 3-axis)
(T14  D=1.95 CR=0 - ZMIN=-3.2 - Schaftfraser)
G90 G94
G17
G21
G28 G91 Z0
G90

(2D-Kontur1)
T14
S8000 M3
G54
G0 X-87.103 Y-42.39
Z15
Z1.5
G1 X-87.147 Y-42.385 Z1.498 F1016
X-87.19 Y-42.396 Z1.497
X-87.227 Y-42.421 Z1.495
G3 X-87.05 Y-42.598 Z1.482 I0.088 J-0.088
X-87.227 Y-42.421 Z1.468 I-0.088 J0.088
X-87.05 Y-42.598 Z1.454 I0.088 J-0.088
X-87.227 Y-42.421 Z1.44 I-0.088 J0.088
X-87.05 Y-42.598 Z1.427 I0.088 J-0.088
X-87.227 Y-42.421 Z1.413 I-0.088 J0.088
X-87.05 Y-42.598 Z1.399 I0.088 J-0.088
X-87.227 Y-42.421 Z1.386 I-0.088 J0.088
X-87.05 Y-42.598 Z1.372 I0.088 J-0.088
X-87.227 Y-42.421 Z1.358 I-0.088 J0.088
X-87.05 Y-42.598 Z1.344 I0.088 J-0.088
X-87.227 Y-42.421 Z1.331 I-0.088 J0.088
X-87.05 Y-42.598 Z1.317 I0.088 J-0.088
X-87.227 Y-42.421 Z1.303 I-0.088 J0.088
X-87.05 Y-42.598 Z1.29 I0.088 J-0.088
X-87.227 Y-42.421 Z1.276 I-0.088 J0.088
X-87.05 Y-42.598 Z1.262 I0.088 J-0.088
X-87.227 Y-42.421 Z1.248 I-0.088 J0.088
X-87.05 Y-42.598 Z1.235 I0.088 J-0.088
X-87.227 Y-42.421 Z1.221 I-0.088 J0.088
X-87.05 Y-42.598 Z1.207 I0.088 J-0.088
X-87.227 Y-42.421 Z1.194 I-0.088 J0.088
X-87.05 Y-42.598 Z1.18 I0.088 J-0.088
X-87.227 Y-42.421 Z1.166 I-0.088 J0.088
X-87.05 Y-42.598 Z1.152 I0.088 J-0.088
X-87.227 Y-42.421 Z1.139 I-0.088 J0.088
X-87.05 Y-42.598 Z1.125 I0.088 J-0.088
X-87.227 Y-42.421 Z1.111 I-0.088 J0.088
X-87.05 Y-42.598 Z1.098 I0.088 J-0.088
X-87.227 Y-42.421 Z1.084 I-0.088 J0.088
X-87.05 Y-42.598 Z1.07 I0.088 J-0.088
X-87.227 Y-42.421 Z1.056 I-0.088 J0.088
X-87.05 Y-42.598 Z1.043 I0.088 J-0.088
X-87.227 Y-42.421 Z1.029 I-0.088 J0.088
X-87.05 Y-42.598 Z1.015 I0.088 J-0.088
X-87.227 Y-42.421 Z1.002 I-0.088 J0.088
X-87.05 Y-42.598 Z0.988 I0.088 J-0.088
X-87.227 Y-42.421 Z0.974 I-0.088 J0.088
X-87.05 Y-42.598 Z0.96 I0.088 J-0.088
X-87.227 Y-42.421 Z0.947 I-0.088 J0.088
X-87.05 Y-42.598 Z0.933 I0.088 J-0.088
X-87.227 Y-42.421 Z0.919 I-0.088 J0.088
X-87.05 Y-42.598 Z0.906 I0.088 J-0.088
X-87.227 Y-42.421 Z0.892 I-0.088 J0.088
X-87.05 Y-42.598 Z0.878 I0.088 J-0.088
X-87.227 Y-42.421 Z0.864 I-0.088 J0.088
X-87.05 Y-42.598 Z0.851 I0.088 J-0.088
X-87.227 Y-42.421 Z0.837 I-0.088 J0.088
X-87.05 Y-42.598 Z0.823 I0.088 J-0.088
X-87.227 Y-42.421 Z0.81 I-0.088 J0.088
X-87.05 Y-42.598 Z0.796 I0.088 J-0.088
X-87.227 Y-42.421 Z0.782 I-0.088 J0.088
X-87.05 Y-42.598 Z0.768 I0.088 J-0.088
X-87.227 Y-42.421 Z0.755 I-0.088 J0.088
X-87.05 Y-42.598 Z0.741 I0.088 J-0.088
X-87.227 Y-42.421 Z0.727 I-0.088 J0.088
X-87.05 Y-42.598 Z0.714 I0.088 J-0.088
X-87.227 Y-42.421 Z0.7 I-0.088 J0.088
X-87.05 Y-42.598 Z0.686 I0.088 J-0.088
X-87.227 Y-42.421 Z0.673 I-0.088 J0.088
X-87.05 Y-42.598 Z0.659 I0.088 J-0.088
X-87.227 Y-42.421 Z0.645 I-0.088 J0.088
X-87.05 Y-42.598 Z0.631 I0.088 J-0.088
X-87.227 Y-42.421 Z0.618 I-0.088 J0.088
X-87.05 Y-42.598 Z0.604 I0.088 J-0.088
X-87.227 Y-42.421 Z0.59 I-0.088 J0.088
X-87.05 Y-42.598 Z0.577 I0.088 J-0.088
X-87.227 Y-42.421 Z0.563 I-0.088 J0.088
X-87.05 Y-42.598 Z0.549 I0.088 J-0.088
X-87.227 Y-42.421 Z0.535 I-0.088 J0.088
X-87.05 Y-42.598 Z0.522 I0.088 J-0.088
X-87.227 Y-42.421 Z0.508 I-0.088 J0.088
X-87.05 Y-42.598 Z0.494 I0.088 J-0.088
X-87.227 Y-42.421 Z0.481 I-0.088 J0.088
X-87.05 Y-42.598 Z0.467 I0.088 J-0.088
X-87.227 Y-42.421 Z0.453 I-0.088 J0.088
X-87.05 Y-42.598 Z0.439 I0.088 J-0.088
X-87.227 Y-42.421 Z0.426 I-0.088 J0.088
X-87.05 Y-42.598 Z0.412 I0.088 J-0.088
X-87.227 Y-42.421 Z0.398 I-0.088 J0.088
X-87.05 Y-42.598 Z0.385 I0.088 J-0.088
X-87.227 Y-42.421 Z0.371 I-0.088 J0.088
X-87.05 Y-42.598 Z0.357 I0.088 J-0.088
X-87.227 Y-42.421 Z0.343 I-0.088 J0.088
X-87.05 Y-42.598 Z0.33 I0.088 J-0.088
X-87.227 Y-42.421 Z0.316 I-0.088 J0.088
X-87.05 Y-42.598 Z0.302 I0.088 J-0.088
X-87.227 Y-42.421 Z0.289 I-0.088 J0.088
X-87.05 Y-42.598 Z0.275 I0.088 J-0.088
X-87.227 Y-42.421 Z0.261 I-0.088 J0.088
X-87.05 Y-42.598 Z0.247 I0.088 J-0.088
X-87.227 Y-42.421 Z0.234 I-0.088 J0.088
X-87.05 Y-42.598 Z0.22 I0.088 J-0.088
X-87.227 Y-42.421 Z0.206 I-0.088 J0.088
X-87.05 Y-42.598 Z0.193 I0.088 J-0.088
X-87.227 Y-42.421 Z0.179 I-0.088 J0.088
X-87.05 Y-42.598 Z0.165 I0.088 J-0.088
X-87.227 Y-42.421 Z0.151 I-0.088 J0.088
X-87.05 Y-42.598 Z0.138 I0.088 J-0.088
X-87.227 Y-42.421 Z0.124 I-0.088 J0.088
X-87.05 Y-42.598 Z0.11 I0.088 J-0.088
X-87.227 Y-42.421 Z0.097 I-0.088 J0.088
X-87.05 Y-42.598 Z0.083 I0.088 J-0.088
X-87.227 Y-42.421 Z0.069 I-0.088 J0.088
X-87.05 Y-42.598 Z0.055 I0.088 J-0.088
X-87.227 Y-42.421 Z0.042 I-0.088 J0.088
X-87.05 Y-42.598 Z0.028 I0.088 J-0.088
X-87.227 Y-42.421 Z0.014 I-0.088 J0.088
X-87.05 Y-42.598 Z0.001 I0.088 J-0.088
X-87.227 Y-42.421 Z-0.013 I-0.088 J0.088
X-87.05 Y-42.598 Z-0.027 I0.088 J-0.088
X-87.227 Y-42.421 Z-0.041 I-0.088 J0.088
X-87.05 Y-42.598 Z-0.054 I0.088 J-0.088
X-87.227 Y-42.421 Z-0.068 I-0.088 J0.088
X-87.05 Y-42.598 Z-0.082 I0.088 J-0.088
X-87.227 Y-42.421 Z-0.095 I-0.088 J0.088
X-87.05 Y-42.598 Z-0.109 I0.088 J-0.088
X-87.227 Y-42.421 Z-0.123 I-0.088 J0.088
X-87.05 Y-42.598 Z-0.137 I0.088 J-0.088
X-87.227 Y-42.421 Z-0.15 I-0.088 J0.088
X-87.05 Y-42.598 Z-0.164 I0.088 J-0.088
X-87.227 Y-42.421 Z-0.178 I-0.088 J0.088
X-87.05 Y-42.598 Z-0.191 I0.088 J-0.088
X-87.227 Y-42.421 Z-0.205 I-0.088 J0.088
X-87.05 Y-42.598 Z-0.219 I0.088 J-0.088
X-87.227 Y-42.421 Z-0.233 I-0.088 J0.088
X-87.05 Y-42.598 Z-0.246 I0.088 J-0.088
X-87.227 Y-42.421 Z-0.26 I-0.088 J0.088
X-87.05 Y-42.598 Z-0.274 I0.088 J-0.088
X-87.227 Y-42.421 Z-0.287 I-0.088 J0.088
X-87.05 Y-42.598 Z-0.301 I0.088 J-0.088
X-87.227 Y-42.421 Z-0.315 I-0.088 J0.088
X-87.05 Y-42.598 Z-0.329 I0.088 J-0.088
X-87.227 Y-42.421 Z-0.342 I-0.088 J0.088
X-87.05 Y-42.598 Z-0.356 I0.088 J-0.088
X-87.227 Y-42.421 Z-0.37 I-0.088 J0.088
X-87.05 Y-42.598 Z-0.383 I0.088 J-0.088
X-87.227 Y-42.421 Z-0.397 I-0.088 J0.088
X-87.05 Y-42.598 Z-0.411 I0.088 J-0.088
X-87.227 Y-42.421 Z-0.425 I-0.088 J0.088
X-87.05 Y-42.598 Z-0.438 I0.088 J-0.088
X-87.227 Y-42.421 Z-0.452 I-0.088 J0.088
X-87.05 Y-42.598 Z-0.466 I0.088 J-0.088
X-87.227 Y-42.421 Z-0.479 I-0.088 J0.088
X-87.05 Y-42.598 Z-0.493 I0.088 J-0.088
G1 X-87.027 Y-42.567 Z-0.495
X-87.015 Y-42.529 Z-0.496
Y-42.49 Z-0.497
X-87.027 Y-42.453 Z-0.499
X-87.05 Y-42.421 Z-0.5
X-87.082 Y-42.398 F2540
X-87.119 Y-42.386
X-87.158
X-87.195 Y-42.398
X-87.227 Y-42.421
G3 X-87.05 Y-42.598 I0.088 J-0.088
G1 X-87.027 Y-42.567
X-87.015 Y-42.529
Y-42.49
X-87.027 Y-42.453
X-87.05 Y-42.421
X-87.082 Y-42.398 Z-0.501 F1016
X-87.119 Y-42.386 Z-0.503
X-87.158 Z-0.504
X-87.195 Y-42.398 Z-0.505
X-87.227 Y-42.421 Z-0.507
G3 X-87.05 Y-42.598 Z-0.521 I0.088 J-0.088
X-87.227 Y-42.421 Z-0.534 I-0.088 J0.088
X-87.05 Y-42.598 Z-0.548 I0.088 J-0.088
X-87.227 Y-42.421 Z-0.562 I-0.088 J0.088
X-87.05 Y-42.598 Z-0.575 I0.088 J-0.088
X-87.227 Y-42.421 Z-0.589 I-0.088 J0.088
X-87.05 Y-42.598 Z-0.603 I0.088 J-0.088
X-87.227 Y-42.421 Z-0.617 I-0.088 J0.088
X-87.05 Y-42.598 Z-0.63 I0.088 J-0.088
X-87.227 Y-42.421 Z-0.644 I-0.088 J0.088
X-87.05 Y-42.598 Z-0.658 I0.088 J-0.088
X-87.227 Y-42.421 Z-0.671 I-0.088 J0.088
X-87.05 Y-42.598 Z-0.685 I0.088 J-0.088
X-87.227 Y-42.421 Z-0.699 I-0.088 J0.088
X-87.05 Y-42.598 Z-0.713 I0.088 J-0.088
X-87.227 Y-42.421 Z-0.726 I-0.088 J0.088
X-87.05 Y-42.598 Z-0.74 I0.088 J-0.088
X-87.227 Y-42.421 Z-0.754 I-0.088 J0.088
X-87.05 Y-42.598 Z-0.767 I0.088 J-0.088
X-87.227 Y-42.421 Z-0.781 I-0.088 J0.088
X-87.05 Y-42.598 Z-0.795 I0.088 J-0.088
X-87.227 Y-42.421 Z-0.809 I-0.088 J0.088
X-87.05 Y-42.598 Z-0.822 I0.088 J-0.088
X-87.227 Y-42.421 Z-0.836 I-0.088 J0.088
X-87.05 Y-42.598 Z-0.85 I0.088 J-0.088
X-87.227 Y-42.421 Z-0.863 I-0.088 J0.088
X-87.05 Y-42.598 Z-0.877 I0.088 J-0.088
X-87.227 Y-42.421 Z-0.891 I-0.088 J0.088
X-87.05 Y-42.598 Z-0.905 I0.088 J-0.088
X-87.227 Y-42.421 Z-0.918 I-0.088 J0.088
X-87.05 Y-42.598 Z-0.932 I0.088 J-0.088
X-87.227 Y-42.421 Z-0.946 I-0.088 J0.088
X-87.05 Y-42.598 Z-0.959 I0.088 J-0.088
X-87.227 Y-42.421 Z-0.973 I-0.088 J0.088
X-87.05 Y-42.598 Z-0.987 I0.088 J-0.088
G1 X-87.026 Y-42.564 Z-0.988
X-87.014 Y-42.524 Z-0.99
X-87.016 Y-42.482 Z-0.991
X-87.032 Y-42.444 Z-0.993
X-87.06 Y-42.413 Z-0.994
X-87.096 Y-42.392 Z-0.996
X-87.137 Y-42.385 Z-0.997
X-87.179 Y-42.391 Z-0.999
X-87.215 Y-42.411 Z-1
X-87.227 Y-42.421 F2540
G3 X-87.05 Y-42.598 I0.088 J-0.088
G1 X-87.026 Y-42.564
X-87.014 Y-42.524
X-87.016 Y-42.482
X-87.032 Y-42.444
X-87.06 Y-42.413
X-87.096 Y-42.392
X-87.137 Y-42.385
X-87.179 Y-42.391
X-87.215 Y-42.411
X-87.227 Y-42.421 Z-1.001 F1016
G3 X-87.05 Y-42.598 Z-1.014 I0.088 J-0.088
X-87.227 Y-42.421 Z-1.028 I-0.088 J0.088
X-87.05 Y-42.598 Z-1.042 I0.088 J-0.088
X-87.227 Y-42.421 Z-1.055 I-0.088 J0.088
X-87.05 Y-42.598 Z-1.069 I0.088 J-0.088
X-87.227 Y-42.421 Z-1.083 I-0.088 J0.088
X-87.05 Y-42.598 Z-1.097 I0.088 J-0.088
X-87.227 Y-42.421 Z-1.11 I-0.088 J0.088
X-87.05 Y-42.598 Z-1.124 I0.088 J-0.088
X-87.227 Y-42.421 Z-1.138 I-0.088 J0.088
X-87.05 Y-42.598 Z-1.151 I0.088 J-0.088
X-87.227 Y-42.421 Z-1.165 I-0.088 J0.088
X-87.05 Y-42.598 Z-1.179 I0.088 J-0.088
X-87.227 Y-42.421 Z-1.193 I-0.088 J0.088
X-87.05 Y-42.598 Z-1.206 I0.088 J-0.088
X-87.227 Y-42.421 Z-1.22 I-0.088 J0.088
X-87.05 Y-42.598 Z-1.234 I0.088 J-0.088
X-87.227 Y-42.421 Z-1.247 I-0.088 J0.088
X-87.05 Y-42.598 Z-1.261 I0.088 J-0.088
X-87.227 Y-42.421 Z-1.275 I-0.088 J0.088
X-87.05 Y-42.598 Z-1.289 I0.088 J-0.088
X-87.227 Y-42.421 Z-1.302 I-0.088 J0.088
X-87.05 Y-42.598 Z-1.316 I0.088 J-0.088
X-87.227 Y-42.421 Z-1.33 I-0.088 J0.088
X-87.05 Y-42.598 Z-1.343 I0.088 J-0.088
X-87.227 Y-42.421 Z-1.357 I-0.088 J0.088
X-87.05 Y-42.598 Z-1.371 I0.088 J-0.088
X-87.227 Y-42.421 Z-1.385 I-0.088 J0.088
X-87.05 Y-42.598 Z-1.398 I0.088 J-0.088
X-87.227 Y-42.421 Z-1.412 I-0.088 J0.088
X-87.05 Y-42.598 Z-1.426 I0.088 J-0.088
X-87.227 Y-42.421 Z-1.439 I-0.088 J0.088
X-87.05 Y-42.598 Z-1.453 I0.088 J-0.088
X-87.227 Y-42.421 Z-1.467 I-0.088 J0.088
X-87.05 Y-42.598 Z-1.481 I0.088 J-0.088
X-87.227 Y-42.421 Z-1.494 I-0.088 J0.088
G1 X-87.251 Y-42.455 Z-1.496
X-87.262 Y-42.494 Z-1.497
X-87.261 Y-42.535 Z-1.499
X-87.246 Y-42.574 Z-1.5
X-87.222 Y-42.603 F2540
X-87.19 Y-42.624
X-87.154 Y-42.634
X-87.116 Y-42.633
X-87.08 Y-42.621
X-87.05 Y-42.598
G3 X-87.227 Y-42.421 I-0.088 J0.088
G1 X-87.251 Y-42.455
X-87.262 Y-42.494
X-87.261 Y-42.535
X-87.246 Y-42.574
X-87.222 Y-42.603 Z-1.501 F1016
X-87.19 Y-42.624 Z-1.503
X-87.154 Y-42.634 Z-1.504
X-87.116 Y-42.633 Z-1.505
X-87.08 Y-42.621 Z-1.507
X-87.05 Y-42.598 Z-1.508
G3 X-87.227 Y-42.421 Z-1.522 I-0.088 J0.088
X-87.05 Y-42.598 Z-1.535 I0.088 J-0.088
X-87.227 Y-42.421 Z-1.549 I-0.088 J0.088
X-87.05 Y-42.598 Z-1.563 I0.088 J-0.088
X-87.227 Y-42.421 Z-1.577 I-0.088 J0.088
X-87.05 Y-42.598 Z-1.59 I0.088 J-0.088
X-87.227 Y-42.421 Z-1.604 I-0.088 J0.088
X-87.05 Y-42.598 Z-1.618 I0.088 J-0.088
X-87.227 Y-42.421 Z-1.631 I-0.088 J0.088
X-87.05 Y-42.598 Z-1.645 I0.088 J-0.088
X-87.227 Y-42.421 Z-1.659 I-0.088 J0.088
X-87.05 Y-42.598 Z-1.673 I0.088 J-0.088
X-87.227 Y-42.421 Z-1.686 I-0.088 J0.088
X-87.05 Y-42.598 Z-1.7 I0.088 J-0.088
X-87.227 Y-42.421 Z-1.714 I-0.088 J0.088
X-87.05 Y-42.598 Z-1.727 I0.088 J-0.088
X-87.227 Y-42.421 Z-1.741 I-0.088 J0.088
X-87.05 Y-42.598 Z-1.755 I0.088 J-0.088
X-87.227 Y-42.421 Z-1.768 I-0.088 J0.088
X-87.05 Y-42.598 Z-1.782 I0.088 J-0.088
X-87.227 Y-42.421 Z-1.796 I-0.088 J0.088
X-87.05 Y-42.598 Z-1.81 I0.088 J-0.088
X-87.227 Y-42.421 Z-1.823 I-0.088 J0.088
X-87.05 Y-42.598 Z-1.837 I0.088 J-0.088
X-87.227 Y-42.421 Z-1.851 I-0.088 J0.088
X-87.05 Y-42.598 Z-1.864 I0.088 J-0.088
X-87.227 Y-42.421 Z-1.878 I-0.088 J0.088
X-87.05 Y-42.598 Z-1.892 I0.088 J-0.088
X-87.227 Y-42.421 Z-1.906 I-0.088 J0.088
X-87.05 Y-42.598 Z-1.919 I0.088 J-0.088
X-87.227 Y-42.421 Z-1.933 I-0.088 J0.088
X-87.05 Y-42.598 Z-1.947 I0.088 J-0.088
X-87.227 Y-42.421 Z-1.96 I-0.088 J0.088
X-87.05 Y-42.598 Z-1.974 I0.088 J-0.088
X-87.227 Y-42.421 Z-1.988 I-0.088 J0.088
G1 X-87.252 Y-42.457 Z-1.989
X-87.263 Y-42.498 Z-1.991
X-87.259 Y-42.541 Z-1.992
X-87.242 Y-42.58 Z-1.994
X-87.212 Y-42.611 Z-1.995
X-87.173 Y-42.63 Z-1.997
X-87.13 Y-42.634 Z-1.998
X-87.088 Y-42.624 Z-2
X-87.068 Y-42.613 F2540
X-87.05 Y-42.598
G3 X-87.227 Y-42.421 I-0.088 J0.088
G1 X-87.252 Y-42.457
X-87.263 Y-42.498
X-87.259 Y-42.541
X-87.242 Y-42.58
X-87.212 Y-42.611
X-87.173 Y-42.63
X-87.13 Y-42.634
X-87.088 Y-42.624
X-87.068 Y-42.613 Z-2.001 F1016
X-87.05 Y-42.598 Z-2.002
G3 X-87.227 Y-42.421 Z-2.015 I-0.088 J0.088
X-87.05 Y-42.598 Z-2.029 I0.088 J-0.088
X-87.227 Y-42.421 Z-2.043 I-0.088 J0.088
X-87.05 Y-42.598 Z-2.056 I0.088 J-0.088
X-87.227 Y-42.421 Z-2.07 I-0.088 J0.088
X-87.05 Y-42.598 Z-2.084 I0.088 J-0.088
X-87.227 Y-42.421 Z-2.098 I-0.088 J0.088
X-87.05 Y-42.598 Z-2.111 I0.088 J-0.088
X-87.227 Y-42.421 Z-2.125 I-0.088 J0.088
X-87.05 Y-42.598 Z-2.139 I0.088 J-0.088
X-87.227 Y-42.421 Z-2.152 I-0.088 J0.088
X-87.05 Y-42.598 Z-2.166 I0.088 J-0.088
X-87.227 Y-42.421 Z-2.18 I-0.088 J0.088
X-87.05 Y-42.598 Z-2.194 I0.088 J-0.088
X-87.227 Y-42.421 Z-2.207 I-0.088 J0.088
X-87.05 Y-42.598 Z-2.221 I0.088 J-0.088
X-87.227 Y-42.421 Z-2.235 I-0.088 J0.088
X-87.05 Y-42.598 Z-2.248 I0.088 J-0.088
X-87.227 Y-42.421 Z-2.262 I-0.088 J0.088
X-87.05 Y-42.598 Z-2.276 I0.088 J-0.088
X-87.227 Y-42.421 Z-2.29 I-0.088 J0.088
X-87.05 Y-42.598 Z-2.303 I0.088 J-0.088
X-87.227 Y-42.421 Z-2.317 I-0.088 J0.088
X-87.05 Y-42.598 Z-2.331 I0.088 J-0.088
X-87.227 Y-42.421 Z-2.344 I-0.088 J0.088
X-87.05 Y-42.598 Z-2.358 I0.088 J-0.088
X-87.227 Y-42.421 Z-2.372 I-0.088 J0.088
X-87.05 Y-42.598 Z-2.386 I0.088 J-0.088
X-87.227 Y-42.421 Z-2.399 I-0.088 J0.088
X-87.05 Y-42.598 Z-2.413 I0.088 J-0.088
X-87.227 Y-42.421 Z-2.427 I-0.088 J0.088
X-87.05 Y-42.598 Z-2.44 I0.088 J-0.088
X-87.227 Y-42.421 Z-2.454 I-0.088 J0.088
X-87.05 Y-42.598 Z-2.468 I0.088 J-0.088
X-87.227 Y-42.421 Z-2.482 I-0.088 J0.088
X-87.05 Y-42.598 Z-2.495 I0.088 J-0.088
G1 X-87.025 Y-42.562 Z-2.497
X-87.014 Y-42.518 Z-2.498
X-87.019 Y-42.474 Z-2.5
X-87.038 Y-42.436 F2540
X-87.069 Y-42.406
X-87.108 Y-42.389
X-87.15 Y-42.385
X-87.192 Y-42.397
X-87.227 Y-42.421
G3 X-87.05 Y-42.598 I0.088 J-0.088
G1 X-87.025 Y-42.562
X-87.014 Y-42.518
X-87.019 Y-42.474
X-87.038 Y-42.436 Z-2.502 F1016
X-87.069 Y-42.406 Z-2.503
X-87.108 Y-42.389 Z-2.505
X-87.15 Y-42.385 Z-2.506
X-87.192 Y-42.397 Z-2.508
X-87.227 Y-42.421 Z-2.509
G3 X-87.05 Y-42.598 Z-2.523 I0.088 J-0.088
X-87.227 Y-42.421 Z-2.536 I-0.088 J0.088
X-87.05 Y-42.598 Z-2.55 I0.088 J-0.088
X-87.227 Y-42.421 Z-2.564 I-0.088 J0.088
X-87.05 Y-42.598 Z-2.578 I0.088 J-0.088
X-87.227 Y-42.421 Z-2.591 I-0.088 J0.088
X-87.05 Y-42.598 Z-2.605 I0.088 J-0.088
X-87.227 Y-42.421 Z-2.619 I-0.088 J0.088
X-87.05 Y-42.598 Z-2.632 I0.088 J-0.088
X-87.227 Y-42.421 Z-2.646 I-0.088 J0.088
X-87.05 Y-42.598 Z-2.66 I0.088 J-0.088
X-87.227 Y-42.421 Z-2.674 I-0.088 J0.088
X-87.05 Y-42.598 Z-2.687 I0.088 J-0.088
X-87.227 Y-42.421 Z-2.701 I-0.088 J0.088
X-87.05 Y-42.598 Z-2.715 I0.088 J-0.088
X-87.227 Y-42.421 Z-2.728 I-0.088 J0.088
X-87.05 Y-42.598 Z-2.742 I0.088 J-0.088
X-87.227 Y-42.421 Z-2.756 I-0.088 J0.088
X-87.05 Y-42.598 Z-2.77 I0.088 J-0.088
X-87.227 Y-42.421 Z-2.783 I-0.088 J0.088
X-87.05 Y-42.598 Z-2.797 I0.088 J-0.088
X-87.227 Y-42.421 Z-2.811 I-0.088 J0.088
X-87.05 Y-42.598 Z-2.824 I0.088 J-0.088
X-87.227 Y-42.421 Z-2.838 I-0.088 J0.088
X-87.05 Y-42.598 Z-2.852 I0.088 J-0.088
X-87.227 Y-42.421 Z-2.866 I-0.088 J0.088
X-87.05 Y-42.598 Z-2.879 I0.088 J-0.088
X-87.227 Y-42.421 Z-2.893 I-0.088 J0.088
X-87.05 Y-42.598 Z-2.907 I0.088 J-0.088
X-87.227 Y-42.421 Z-2.92 I-0.088 J0.088
X-87.05 Y-42.598 Z-2.934 I0.088 J-0.088
X-87.227 Y-42.421 Z-2.948 I-0.088 J0.088
X-87.05 Y-42.598 Z-2.962 I0.088 J-0.088
X-87.227 Y-42.421 Z-2.975 I-0.088 J0.088
X-87.05 Y-42.598 Z-2.989 I0.088 J-0.088
G1 X-87.027 Y-42.566 Z-2.99
X-87.015 Y-42.529 Z-2.992
Y-42.49 Z-2.993
X-87.027 Y-42.453 Z-2.994
X-87.051 Y-42.421 Z-2.996
X-87.082 Y-42.398 Z-2.997
X-87.12 Y-42.386 Z-2.999
X-87.159 Z-3
X-87.196 Y-42.399 F2540
X-87.227 Y-42.421
G3 X-87.05 Y-42.598 I0.088 J-0.088
G1 X-87.027 Y-42.566
X-87.015 Y-42.529
Y-42.49
X-87.027 Y-42.453
X-87.051 Y-42.421
X-87.082 Y-42.398
X-87.12 Y-42.386
X-87.159
X-87.196 Y-42.399 Z-3.001 F1016
X-87.227 Y-42.421 Z-3.003
G3 X-87.05 Y-42.598 Z-3.016 I0.088 J-0.088
X-87.227 Y-42.421 Z-3.03 I-0.088 J0.088
X-87.05 Y-42.598 Z-3.044 I0.088 J-0.088
X-87.227 Y-42.421 Z-3.058 I-0.088 J0.088
X-87.05 Y-42.598 Z-3.071 I0.088 J-0.088
X-87.227 Y-42.421 Z-3.085 I-0.088 J0.088
X-87.05 Y-42.598 Z-3.099 I0.088 J-0.088
X-87.227 Y-42.421 Z-3.112 I-0.088 J0.088
X-87.05 Y-42.598 Z-3.126 I0.088 J-0.088
X-87.227 Y-42.421 Z-3.14 I-0.088 J0.088
X-87.05 Y-42.598 Z-3.154 I0.088 J-0.088
X-87.227 Y-42.421 Z-3.167 I-0.088 J0.088
X-87.05 Y-42.598 Z-3.181 I0.088 J-0.088
X-87.227 Y-42.421 Z-3.195 I-0.088 J0.088
G1 X-87.249 Y-42.452 Z-3.196
X-87.261 Y-42.488 Z-3.197
X-87.262 Y-42.525 Z-3.199
X-87.252 Y-42.562 Z-3.2
X-87.23 Y-42.595 F2540
X-87.198 Y-42.62
X-87.161 Y-42.633
X-87.121
X-87.082 Y-42.622
X-87.05 Y-42.598
G3 X-87.227 Y-42.421 I-0.088 J0.088
G1 X-87.249 Y-42.452
X-87.261 Y-42.488
X-87.262 Y-42.525
X-87.252 Y-42.562
G0 Z5
X-93.534 Y-42.631
Z1.5
G3 X-93.471 Y-42.389 Z1.486 I0.031 J0.121 F1016
X-93.534 Y-42.631 Z1.473 I-0.031 J-0.121
X-93.471 Y-42.389 Z1.459 I0.031 J0.121
X-93.534 Y-42.631 Z1.445 I-0.031 J-0.121
X-93.471 Y-42.389 Z1.431 I0.031 J0.121
X-93.534 Y-42.631 Z1.418 I-0.031 J-0.121
X-93.471 Y-42.389 Z1.404 I0.031 J0.121
X-93.534 Y-42.631 Z1.39 I-0.031 J-0.121
X-93.471 Y-42.389 Z1.377 I0.031 J0.121
X-93.534 Y-42.631 Z1.363 I-0.031 J-0.121
X-93.471 Y-42.389 Z1.349 I0.031 J0.121
X-93.534 Y-42.631 Z1.335 I-0.031 J-0.121
X-93.471 Y-42.389 Z1.322 I0.031 J0.121
X-93.534 Y-42.631 Z1.308 I-0.031 J-0.121
X-93.471 Y-42.389 Z1.294 I0.031 J0.121
X-93.534 Y-42.631 Z1.281 I-0.031 J-0.121
X-93.471 Y-42.389 Z1.267 I0.031 J0.121
X-93.534 Y-42.631 Z1.253 I-0.031 J-0.121
X-93.471 Y-42.389 Z1.239 I0.031 J0.121
X-93.534 Y-42.631 Z1.226 I-0.031 J-0.121
X-93.471 Y-42.389 Z1.212 I0.031 J0.121
X-93.534 Y-42.631 Z1.198 I-0.031 J-0.121
X-93.471 Y-42.389 Z1.185 I0.031 J0.121
X-93.534 Y-42.631 Z1.171 I-0.031 J-0.121
X-93.471 Y-42.389 Z1.157 I0.031 J0.121
X-93.534 Y-42.631 Z1.143 I-0.031 J-0.121
X-93.471 Y-42.389 Z1.13 I0.031 J0.121
X-93.534 Y-42.631 Z1.116 I-0.031 J-0.121
X-93.471 Y-42.389 Z1.102 I0.031 J0.121
X-93.534 Y-42.631 Z1.089 I-0.031 J-0.121
X-93.471 Y-42.389 Z1.075 I0.031 J0.121
X-93.534 Y-42.631 Z1.061 I-0.031 J-0.121
X-93.471 Y-42.389 Z1.047 I0.031 J0.121
X-93.534 Y-42.631 Z1.034 I-0.031 J-0.121
X-93.471 Y-42.389 Z1.02 I0.031 J0.121
X-93.534 Y-42.631 Z1.006 I-0.031 J-0.121
X-93.471 Y-42.389 Z0.993 I0.031 J0.121
X-93.534 Y-42.631 Z0.979 I-0.031 J-0.121
X-93.471 Y-42.389 Z0.965 I0.031 J0.121
X-93.534 Y-42.631 Z0.951 I-0.031 J-0.121
X-93.471 Y-42.389 Z0.938 I0.031 J0.121
X-93.534 Y-42.631 Z0.924 I-0.031 J-0.121
X-93.471 Y-42.389 Z0.91 I0.031 J0.121
X-93.534 Y-42.631 Z0.897 I-0.031 J-0.121
X-93.471 Y-42.389 Z0.883 I0.031 J0.121
X-93.534 Y-42.631 Z0.869 I-0.031 J-0.121
X-93.471 Y-42.389 Z0.855 I0.031 J0.121
X-93.534 Y-42.631 Z0.842 I-0.031 J-0.121
X-93.471 Y-42.389 Z0.828 I0.031 J0.121
X-93.534 Y-42.631 Z0.814 I-0.031 J-0.121
X-93.471 Y-42.389 Z0.801 I0.031 J0.121
X-93.534 Y-42.631 Z0.787 I-0.031 J-0.121
X-93.471 Y-42.389 Z0.773 I0.031 J0.121
X-93.534 Y-42.631 Z0.759 I-0.031 J-0.121
X-93.471 Y-42.389 Z0.746 I0.031 J0.121
X-93.534 Y-42.631 Z0.732 I-0.031 J-0.121
X-93.471 Y-42.389 Z0.718 I0.031 J0.121
X-93.534 Y-42.631 Z0.705 I-0.031 J-0.121
X-93.471 Y-42.389 Z0.691 I0.031 J0.121
X-93.534 Y-42.631 Z0.677 I-0.031 J-0.121
X-93.471 Y-42.389 Z0.663 I0.031 J0.121
X-93.534 Y-42.631 Z0.65 I-0.031 J-0.121
X-93.471 Y-42.389 Z0.636 I0.031 J0.121
X-93.534 Y-42.631 Z0.622 I-0.031 J-0.121
X-93.471 Y-42.389 Z0.609 I0.031 J0.121
X-93.534 Y-42.631 Z0.595 I-0.031 J-0.121
X-93.471 Y-42.389 Z0.581 I0.031 J0.121
X-93.534 Y-42.631 Z0.567 I-0.031 J-0.121
X-93.471 Y-42.389 Z0.554 I0.031 J0.121
X-93.534 Y-42.631 Z0.54 I-0.031 J-0.121
X-93.471 Y-42.389 Z0.526 I0.031 J0.121
X-93.534 Y-42.631 Z0.513 I-0.031 J-0.121
X-93.471 Y-42.389 Z0.499 I0.031 J0.121
X-93.534 Y-42.631 Z0.485 I-0.031 J-0.121
X-93.471 Y-42.389 Z0.471 I0.031 J0.121
X-93.534 Y-42.631 Z0.458 I-0.031 J-0.121
X-93.471 Y-42.389 Z0.444 I0.031 J0.121
X-93.534 Y-42.631 Z0.43 I-0.031 J-0.121
X-93.471 Y-42.389 Z0.417 I0.031 J0.121
X-93.534 Y-42.631 Z0.403 I-0.031 J-0.121
X-93.471 Y-42.389 Z0.389 I0.031 J0.121
X-93.534 Y-42.631 Z0.375 I-0.031 J-0.121
X-93.471 Y-42.389 Z0.362 I0.031 J0.121
X-93.534 Y-42.631 Z0.348 I-0.031 J-0.121
X-93.471 Y-42.389 Z0.334 I0.031 J0.121
X-93.534 Y-42.631 Z0.321 I-0.031 J-0.121
X-93.471 Y-42.389 Z0.307 I0.031 J0.121
X-93.534 Y-42.631 Z0.293 I-0.031 J-0.121
X-93.471 Y-42.389 Z0.279 I0.031 J0.121
X-93.534 Y-42.631 Z0.266 I-0.031 J-0.121
X-93.471 Y-42.389 Z0.252 I0.031 J0.121
X-93.534 Y-42.631 Z0.238 I-0.031 J-0.121
X-93.471 Y-42.389 Z0.225 I0.031 J0.121
X-93.534 Y-42.631 Z0.211 I-0.031 J-0.121
X-93.471 Y-42.389 Z0.197 I0.031 J0.121
X-93.534 Y-42.631 Z0.183 I-0.031 J-0.121
X-93.471 Y-42.389 Z0.17 I0.031 J0.121
X-93.534 Y-42.631 Z0.156 I-0.031 J-0.121
X-93.471 Y-42.389 Z0.142 I0.031 J0.121
X-93.534 Y-42.631 Z0.129 I-0.031 J-0.121
X-93.471 Y-42.389 Z0.115 I0.031 J0.121
X-93.534 Y-42.631 Z0.101 I-0.031 J-0.121
X-93.471 Y-42.389 Z0.087 I0.031 J0.121
X-93.534 Y-42.631 Z0.074 I-0.031 J-0.121
X-93.471 Y-42.389 Z0.06 I0.031 J0.121
X-93.534 Y-42.631 Z0.046 I-0.031 J-0.121
X-93.471 Y-42.389 Z0.033 I0.031 J0.121
X-93.534 Y-42.631 Z0.019 I-0.031 J-0.121
X-93.471 Y-42.389 Z0.005 I0.031 J0.121
X-93.534 Y-42.631 Z-0.009 I-0.031 J-0.121
X-93.471 Y-42.389 Z-0.022 I0.031 J0.121
X-93.534 Y-42.631 Z-0.036 I-0.031 J-0.121
X-93.471 Y-42.389 Z-0.05 I0.031 J0.121
X-93.534 Y-42.631 Z-0.063 I-0.031 J-0.121
X-93.471 Y-42.389 Z-0.077 I0.031 J0.121
X-93.534 Y-42.631 Z-0.091 I-0.031 J-0.121
X-93.471 Y-42.389 Z-0.105 I0.031 J0.121
X-93.534 Y-42.631 Z-0.118 I-0.031 J-0.121
X-93.471 Y-42.389 Z-0.132 I0.031 J0.121
X-93.534 Y-42.631 Z-0.146 I-0.031 J-0.121
X-93.471 Y-42.389 Z-0.159 I0.031 J0.121
X-93.534 Y-42.631 Z-0.173 I-0.031 J-0.121
X-93.471 Y-42.389 Z-0.187 I0.031 J0.121
X-93.534 Y-42.631 Z-0.201 I-0.031 J-0.121
X-93.471 Y-42.389 Z-0.214 I0.031 J0.121
X-93.534 Y-42.631 Z-0.228 I-0.031 J-0.121
X-93.471 Y-42.389 Z-0.242 I0.031 J0.121
X-93.534 Y-42.631 Z-0.255 I-0.031 J-0.121
X-93.471 Y-42.389 Z-0.269 I0.031 J0.121
X-93.534 Y-42.631 Z-0.283 I-0.031 J-0.121
X-93.471 Y-42.389 Z-0.297 I0.031 J0.121
X-93.534 Y-42.631 Z-0.31 I-0.031 J-0.121
X-93.471 Y-42.389 Z-0.324 I0.031 J0.121
X-93.534 Y-42.631 Z-0.338 I-0.031 J-0.121
X-93.471 Y-42.389 Z-0.351 I0.031 J0.121
X-93.534 Y-42.631 Z-0.365 I-0.031 J-0.121
X-93.471 Y-42.389 Z-0.379 I0.031 J0.121
X-93.534 Y-42.631 Z-0.393 I-0.031 J-0.121
X-93.471 Y-42.389 Z-0.406 I0.031 J0.121
X-93.534 Y-42.631 Z-0.42 I-0.031 J-0.121
X-93.471 Y-42.389 Z-0.434 I0.031 J0.121
X-93.534 Y-42.631 Z-0.447 I-0.031 J-0.121
X-93.471 Y-42.389 Z-0.461 I0.031 J0.121
X-93.534 Y-42.631 Z-0.475 I-0.031 J-0.121
X-93.471 Y-42.389 Z-0.489 I0.031 J0.121
X-93.591 Y-42.598 Z-0.5 I-0.031 J-0.121
X-93.414 Y-42.421 I0.088 J0.088 F2540
X-93.591 Y-42.598 I-0.088 J-0.088
X-93.414 Y-42.421 Z-0.514 I0.088 J0.088 F1016
X-93.591 Y-42.598 Z-0.527 I-0.088 J-0.088
X-93.414 Y-42.421 Z-0.541 I0.088 J0.088
X-93.591 Y-42.598 Z-0.555 I-0.088 J-0.088
X-93.414 Y-42.421 Z-0.569 I0.088 J0.088
X-93.591 Y-42.598 Z-0.582 I-0.088 J-0.088
X-93.414 Y-42.421 Z-0.596 I0.088 J0.088
X-93.591 Y-42.598 Z-0.61 I-0.088 J-0.088
X-93.414 Y-42.421 Z-0.623 I0.088 J0.088
X-93.591 Y-42.598 Z-0.637 I-0.088 J-0.088
X-93.414 Y-42.421 Z-0.651 I0.088 J0.088
X-93.591 Y-42.598 Z-0.665 I-0.088 J-0.088
X-93.414 Y-42.421 Z-0.678 I0.088 J0.088
X-93.591 Y-42.598 Z-0.692 I-0.088 J-0.088
X-93.414 Y-42.421 Z-0.706 I0.088 J0.088
X-93.591 Y-42.598 Z-0.719 I-0.088 J-0.088
X-93.414 Y-42.421 Z-0.733 I0.088 J0.088
X-93.591 Y-42.598 Z-0.747 I-0.088 J-0.088
X-93.414 Y-42.421 Z-0.761 I0.088 J0.088
X-93.591 Y-42.598 Z-0.774 I-0.088 J-0.088
X-93.414 Y-42.421 Z-0.788 I0.088 J0.088
X-93.591 Y-42.598 Z-0.802 I-0.088 J-0.088
X-93.414 Y-42.421 Z-0.815 I0.088 J0.088
X-93.591 Y-42.598 Z-0.829 I-0.088 J-0.088
X-93.414 Y-42.421 Z-0.843 I0.088 J0.088
X-93.591 Y-42.598 Z-0.857 I-0.088 J-0.088
X-93.414 Y-42.421 Z-0.87 I0.088 J0.088
X-93.591 Y-42.598 Z-0.884 I-0.088 J-0.088
X-93.414 Y-42.421 Z-0.898 I0.088 J0.088
X-93.591 Y-42.598 Z-0.911 I-0.088 J-0.088
X-93.414 Y-42.421 Z-0.925 I0.088 J0.088
X-93.591 Y-42.598 Z-0.939 I-0.088 J-0.088
X-93.414 Y-42.421 Z-0.953 I0.088 J0.088
X-93.591 Y-42.598 Z-0.966 I-0.088 J-0.088
X-93.414 Y-42.421 Z-0.98 I0.088 J0.088
X-93.591 Y-42.598 Z-0.994 I-0.088 J-0.088
X-93.427 Y-42.609 Z-1 I0.088 J0.088
X-93.578 Y-42.41 I-0.076 J0.099 F2540
X-93.427 Y-42.609 I0.076 J-0.099
X-93.578 Y-42.41 Z-1.014 I-0.076 J0.099 F1016
X-93.427 Y-42.609 Z-1.027 I0.076 J-0.099
X-93.578 Y-42.41 Z-1.041 I-0.076 J0.099
X-93.427 Y-42.609 Z-1.055 I0.076 J-0.099
X-93.578 Y-42.41 Z-1.069 I-0.076 J0.099
X-93.427 Y-42.609 Z-1.082 I0.076 J-0.099
X-93.578 Y-42.41 Z-1.096 I-0.076 J0.099
X-93.427 Y-42.609 Z-1.11 I0.076 J-0.099
X-93.578 Y-42.41 Z-1.123 I-0.076 J0.099
X-93.427 Y-42.609 Z-1.137 I0.076 J-0.099
X-93.578 Y-42.41 Z-1.151 I-0.076 J0.099
X-93.427 Y-42.609 Z-1.165 I0.076 J-0.099
X-93.578 Y-42.41 Z-1.178 I-0.076 J0.099
X-93.427 Y-42.609 Z-1.192 I0.076 J-0.099
X-93.578 Y-42.41 Z-1.206 I-0.076 J0.099
X-93.427 Y-42.609 Z-1.219 I0.076 J-0.099
X-93.578 Y-42.41 Z-1.233 I-0.076 J0.099
X-93.427 Y-42.609 Z-1.247 I0.076 J-0.099
X-93.578 Y-42.41 Z-1.261 I-0.076 J0.099
X-93.427 Y-42.609 Z-1.274 I0.076 J-0.099
X-93.578 Y-42.41 Z-1.288 I-0.076 J0.099
X-93.427 Y-42.609 Z-1.302 I0.076 J-0.099
X-93.578 Y-42.41 Z-1.315 I-0.076 J0.099
X-93.427 Y-42.609 Z-1.329 I0.076 J-0.099
X-93.578 Y-42.41 Z-1.343 I-0.076 J0.099
X-93.427 Y-42.609 Z-1.357 I0.076 J-0.099
X-93.578 Y-42.41 Z-1.37 I-0.076 J0.099
X-93.427 Y-42.609 Z-1.384 I0.076 J-0.099
X-93.578 Y-42.41 Z-1.398 I-0.076 J0.099
X-93.427 Y-42.609 Z-1.411 I0.076 J-0.099
X-93.578 Y-42.41 Z-1.425 I-0.076 J0.099
X-93.427 Y-42.609 Z-1.439 I0.076 J-0.099
X-93.578 Y-42.41 Z-1.453 I-0.076 J0.099
X-93.427 Y-42.609 Z-1.466 I0.076 J-0.099
X-93.578 Y-42.41 Z-1.48 I-0.076 J0.099
X-93.427 Y-42.609 Z-1.494 I0.076 J-0.099
X-93.394 Y-42.448 Z-1.5 I-0.076 J0.099
X-93.611 Y-42.572 I-0.109 J-0.062 F2540
X-93.394 Y-42.448 I0.109 J0.062
X-93.611 Y-42.572 Z-1.514 I-0.109 J-0.062 F1016
X-93.394 Y-42.448 Z-1.527 I0.109 J0.062
X-93.611 Y-42.572 Z-1.541 I-0.109 J-0.062
X-93.394 Y-42.448 Z-1.555 I0.109 J0.062
X-93.611 Y-42.572 Z-1.569 I-0.109 J-0.062
X-93.394 Y-42.448 Z-1.582 I0.109 J0.062
X-93.611 Y-42.572 Z-1.596 I-0.109 J-0.062
X-93.394 Y-42.448 Z-1.61 I0.109 J0.062
X-93.611 Y-42.572 Z-1.623 I-0.109 J-0.062
X-93.394 Y-42.448 Z-1.637 I0.109 J0.062
X-93.611 Y-42.572 Z-1.651 I-0.109 J-0.062
X-93.394 Y-42.448 Z-1.665 I0.109 J0.062
X-93.611 Y-42.572 Z-1.678 I-0.109 J-0.062
X-93.394 Y-42.448 Z-1.692 I0.109 J0.062
X-93.611 Y-42.572 Z-1.706 I-0.109 J-0.062
X-93.394 Y-42.448 Z-1.719 I0.109 J0.062
X-93.611 Y-42.572 Z-1.733 I-0.109 J-0.062
X-93.394 Y-42.448 Z-1.747 I0.109 J0.062
X-93.611 Y-42.572 Z-1.761 I-0.109 J-0.062
X-93.394 Y-42.448 Z-1.774 I0.109 J0.062
X-93.611 Y-42.572 Z-1.788 I-0.109 J-0.062
X-93.394 Y-42.448 Z-1.802 I0.109 J0.062
X-93.611 Y-42.572 Z-1.815 I-0.109 J-0.062
X-93.394 Y-42.448 Z-1.829 I0.109 J0.062
X-93.611 Y-42.572 Z-1.843 I-0.109 J-0.062
X-93.394 Y-42.448 Z-1.857 I0.109 J0.062
X-93.611 Y-42.572 Z-1.87 I-0.109 J-0.062
X-93.394 Y-42.448 Z-1.884 I0.109 J0.062
X-93.611 Y-42.572 Z-1.898 I-0.109 J-0.062
X-93.394 Y-42.448 Z-1.911 I0.109 J0.062
X-93.611 Y-42.572 Z-1.925 I-0.109 J-0.062
X-93.394 Y-42.448 Z-1.939 I0.109 J0.062
X-93.611 Y-42.572 Z-1.953 I-0.109 J-0.062
X-93.394 Y-42.448 Z-1.966 I0.109 J0.062
X-93.611 Y-42.572 Z-1.98 I-0.109 J-0.062
X-93.394 Y-42.448 Z-1.994 I0.109 J0.062
X-93.55 Y-42.394 Z-2 I-0.109 J-0.062
X-93.455 Y-42.626 I0.047 J-0.116 F2540
X-93.55 Y-42.394 I-0.047 J0.116
X-93.455 Y-42.626 Z-2.014 I0.047 J-0.116 F1016
X-93.55 Y-42.394 Z-2.027 I-0.047 J0.116
X-93.455 Y-42.626 Z-2.041 I0.047 J-0.116
X-93.55 Y-42.394 Z-2.055 I-0.047 J0.116
X-93.455 Y-42.626 Z-2.069 I0.047 J-0.116
X-93.55 Y-42.394 Z-2.082 I-0.047 J0.116
X-93.455 Y-42.626 Z-2.096 I0.047 J-0.116
X-93.55 Y-42.394 Z-2.11 I-0.047 J0.116
X-93.455 Y-42.626 Z-2.123 I0.047 J-0.116
X-93.55 Y-42.394 Z-2.137 I-0.047 J0.116
X-93.455 Y-42.626 Z-2.151 I0.047 J-0.116
X-93.55 Y-42.394 Z-2.165 I-0.047 J0.116
X-93.455 Y-42.626 Z-2.178 I0.047 J-0.116
X-93.55 Y-42.394 Z-2.192 I-0.047 J0.116
X-93.455 Y-42.626 Z-2.206 I0.047 J-0.116
X-93.55 Y-42.394 Z-2.219 I-0.047 J0.116
X-93.455 Y-42.626 Z-2.233 I0.047 J-0.116
X-93.55 Y-42.394 Z-2.247 I-0.047 J0.116
X-93.455 Y-42.626 Z-2.261 I0.047 J-0.116
X-93.55 Y-42.394 Z-2.274 I-0.047 J0.116
X-93.455 Y-42.626 Z-2.288 I0.047 J-0.116
X-93.55 Y-42.394 Z-2.302 I-0.047 J0.116
X-93.455 Y-42.626 Z-2.315 I0.047 J-0.116
X-93.55 Y-42.394 Z-2.329 I-0.047 J0.116
X-93.455 Y-42.626 Z-2.343 I0.047 J-0.116
X-93.55 Y-42.394 Z-2.357 I-0.047 J0.116
X-93.455 Y-42.626 Z-2.37 I0.047 J-0.116
X-93.55 Y-42.394 Z-2.384 I-0.047 J0.116
X-93.455 Y-42.626 Z-2.398 I0.047 J-0.116
X-93.55 Y-42.394 Z-2.411 I-0.047 J0.116
X-93.455 Y-42.626 Z-2.425 I0.047 J-0.116
X-93.55 Y-42.394 Z-2.439 I-0.047 J0.116
X-93.455 Y-42.626 Z-2.453 I0.047 J-0.116
X-93.55 Y-42.394 Z-2.466 I-0.047 J0.116
X-93.455 Y-42.626 Z-2.48 I0.047 J-0.116
X-93.55 Y-42.394 Z-2.494 I-0.047 J0.116
X-93.623 Y-42.541 Z-2.5 I0.047 J-0.116
X-93.381 Y-42.478 I0.121 J0.031 F2540
X-93.623 Y-42.541 I-0.121 J-0.031
X-93.381 Y-42.478 Z-2.514 I0.121 J0.031 F1016
X-93.623 Y-42.541 Z-2.527 I-0.121 J-0.031
X-93.381 Y-42.478 Z-2.541 I0.121 J0.031
X-93.623 Y-42.541 Z-2.555 I-0.121 J-0.031
X-93.381 Y-42.478 Z-2.569 I0.121 J0.031
X-93.623 Y-42.541 Z-2.582 I-0.121 J-0.031
X-93.381 Y-42.478 Z-2.596 I0.121 J0.031
X-93.623 Y-42.541 Z-2.61 I-0.121 J-0.031
X-93.381 Y-42.478 Z-2.623 I0.121 J0.031
X-93.623 Y-42.541 Z-2.637 I-0.121 J-0.031
X-93.381 Y-42.478 Z-2.651 I0.121 J0.031
X-93.623 Y-42.541 Z-2.665 I-0.121 J-0.031
X-93.381 Y-42.478 Z-2.678 I0.121 J0.031
X-93.623 Y-42.541 Z-2.692 I-0.121 J-0.031
X-93.381 Y-42.478 Z-2.706 I0.121 J0.031
X-93.623 Y-42.541 Z-2.719 I-0.121 J-0.031
X-93.381 Y-42.478 Z-2.733 I0.121 J0.031
X-93.623 Y-42.541 Z-2.747 I-0.121 J-0.031
X-93.381 Y-42.478 Z-2.761 I0.121 J0.031
X-93.623 Y-42.541 Z-2.774 I-0.121 J-0.031
X-93.381 Y-42.478 Z-2.788 I0.121 J0.031
X-93.623 Y-42.541 Z-2.802 I-0.121 J-0.031
X-93.381 Y-42.478 Z-2.815 I0.121 J0.031
X-93.623 Y-42.541 Z-2.829 I-0.121 J-0.031
X-93.381 Y-42.478 Z-2.843 I0.121 J0.031
X-93.623 Y-42.541 Z-2.857 I-0.121 J-0.031
X-93.381 Y-42.478 Z-2.87 I0.121 J0.031
X-93.623 Y-42.541 Z-2.884 I-0.121 J-0.031
X-93.381 Y-42.478 Z-2.898 I0.121 J0.031
X-93.623 Y-42.541 Z-2.911 I-0.121 J-0.031
X-93.381 Y-42.478 Z-2.925 I0.121 J0.031
X-93.623 Y-42.541 Z-2.939 I-0.121 J-0.031
X-93.381 Y-42.478 Z-2.953 I0.121 J0.031
X-93.623 Y-42.541 Z-2.966 I-0.121 J-0.031
X-93.381 Y-42.478 Z-2.98 I0.121 J0.031
X-93.623 Y-42.541 Z-2.994 I-0.121 J-0.031
X-93.487 Y-42.634 Z-3 I0.121 J0.031
X-93.518 Y-42.386 I-0.015 J0.124 F2540
X-93.487 Y-42.634 I0.015 J-0.124
X-93.518 Y-42.386 Z-3.014 I-0.015 J0.124 F1016
X-93.487 Y-42.634 Z-3.027 I0.015 J-0.124
X-93.518 Y-42.386 Z-3.041 I-0.015 J0.124
X-93.487 Y-42.634 Z-3.055 I0.015 J-0.124
X-93.518 Y-42.386 Z-3.069 I-0.015 J0.124
X-93.487 Y-42.634 Z-3.082 I0.015 J-0.124
X-93.518 Y-42.386 Z-3.096 I-0.015 J0.124
X-93.487 Y-42.634 Z-3.11 I0.015 J-0.124
X-93.518 Y-42.386 Z-3.123 I-0.015 J0.124
X-93.487 Y-42.634 Z-3.137 I0.015 J-0.124
X-93.518 Y-42.386 Z-3.151 I-0.015 J0.124
X-93.487 Y-42.634 Z-3.165 I0.015 J-0.124
X-93.518 Y-42.386 Z-3.178 I-0.015 J0.124
X-93.487 Y-42.634 Z-3.192 I0.015 J-0.124
X-93.386 Y-42.463 Z-3.2 I-0.015 J0.124
X-93.618 Y-42.556 I-0.116 J-0.047 F2540
X-93.386 Y-42.463 I0.116 J0.047
G0 Z5
X-93.456 Y-36.03
Z1.5
G1 X-93.499 Y-36.021 Z1.498 F1016
X-93.543 Y-36.028 Z1.497
X-93.582 Y-36.049 Z1.495
X-93.611 Y-36.083 Z1.494
X-93.626 Y-36.125 Z1.492
X-93.625 Y-36.17 Z1.491
X-93.609 Y-36.211 Z1.489
X-93.579 Y-36.244 Z1.488
X-93.54 Y-36.265 Z1.486
X-93.496 Y-36.271 Z1.484
X-93.452 Y-36.26 Z1.483
X-93.415 Y-36.235 Z1.481
X-93.389 Y-36.199 Z1.48
X-93.378 Y-36.156 Z1.478
X-93.382 Y-36.112 Z1.477
X-93.402 Y-36.072 Z1.475
X-93.434 Y-36.041 Z1.473
X-93.475 Y-36.024 Z1.472
X-93.519 Y-36.022 Z1.47
X-93.562 Y-36.036 Z1.469
X-93.596 Y-36.063 Z1.467
X-93.619 Y-36.102 Z1.466
X-93.627 Y-36.145 Z1.464
X-93.62 Y-36.189 Z1.462
X-93.597 Y-36.228 Z1.461
X-93.562 Y-36.256 Z1.459
X-93.52 Y-36.27 Z1.458
X-93.476 Y-36.268 Z1.456
X-93.434 Y-36.251 Z1.455
X-93.402 Y-36.22 Z1.453
X-93.382 Y-36.18 Z1.452
X-93.378 Y-36.136 Z1.45
X-93.389 Y-36.093 Z1.448
X-93.415 Y-36.057 Z1.447
X-93.452 Y-36.032 Z1.445
X-93.495 Y-36.021 Z1.444
X-93.539 Y-36.026 Z1.442
X-93.579 Y-36.047 Z1.441
X-93.608 Y-36.08 Z1.439
X-93.625 Y-36.121 Z1.438
X-93.626 Y-36.166 Z1.436
X-93.611 Y-36.208 Z1.434
X-93.583 Y-36.242 Z1.433
X-93.544 Y-36.264 Z1.431
X-93.5 Y-36.271 Z1.43
X-93.456 Y-36.262 Z1.428
X-93.419 Y-36.238 Z1.427
X-93.391 Y-36.203 Z1.425
X-93.378 Y-36.161 Z1.423
X-93.381 Y-36.116 Z1.422
X-93.399 Y-36.076 Z1.42
X-93.43 Y-36.044 Z1.419
X-93.471 Y-36.025 Z1.417
X-93.515 Y-36.021 Z1.416
X-93.558 Y-36.034 Z1.414
X-93.593 Y-36.06 Z1.413
X-93.618 Y-36.098 Z1.411
X-93.627 Y-36.141 Z1.409
X-93.621 Y-36.185 Z1.408
X-93.6 Y-36.224 Z1.406
X-93.566 Y-36.253 Z1.405
X-93.524 Y-36.269 Z1.403
X-93.48 Z1.402
X-93.438 Y-36.253 Z1.4
X-93.405 Y-36.224 Z1.398
X-93.384 Y-36.185 Z1.397
X-93.378 Y-36.141 Z1.395
X-93.387 Y-36.097 Z1.394
X-93.412 Y-36.06 Z1.392
X-93.448 Y-36.034 Z1.391
X-93.49 Y-36.021 Z1.389
X-93.535 Y-36.025 Z1.387
X-93.575 Y-36.044 Z1.386
X-93.606 Y-36.076 Z1.384
X-93.624 Y-36.117 Z1.383
X-93.626 Y-36.161 Z1.381
X-93.613 Y-36.204 Z1.38
X-93.586 Y-36.239 Z1.378
X-93.548 Y-36.262 Z1.377
X-93.504 Y-36.271 Z1.375
X-93.46 Y-36.264 Z1.373
X-93.422 Y-36.241 Z1.372
X-93.393 Y-36.207 Z1.37
X-93.379 Y-36.165 Z1.369
X-93.38 Y-36.121 Z1.367
X-93.397 Y-36.079 Z1.366
X-93.427 Y-36.046 Z1.364
X-93.466 Y-36.026 Z1.363
X-93.51 Y-36.021 Z1.361
X-93.554 Y-36.032 Z1.359
X-93.59 Y-36.057 Z1.358
X-93.616 Y-36.093 Z1.356
X-93.627 Y-36.137 Z1.355
X-93.622 Y-36.181 Z1.353
X-93.602 Y-36.221 Z1.352
X-93.57 Y-36.251 Z1.35
X-93.529 Y-36.268 Z1.348
X-93.484 Y-36.269 Z1.347
X-93.442 Y-36.255 Z1.345
X-93.408 Y-36.227 Z1.344
X-93.385 Y-36.189 Z1.342
X-93.377 Y-36.145 Z1.341
X-93.386 Y-36.101 Z1.339
X-93.409 Y-36.063 Z1.337
X-93.444 Y-36.036 Z1.336
X-93.486 Y-36.022 Z1.334
X-93.53 Y-36.024 Z1.333
X-93.571 Y-36.042 Z1.331
X-93.603 Y-36.072 Z1.33
X-93.623 Y-36.112 Z1.328
X-93.627 Y-36.157 Z1.327
X-93.615 Y-36.2 Z1.325
X-93.589 Y-36.236 Z1.323
X-93.552 Y-36.26 Z1.322
X-93.509 Y-36.271 Z1.32
X-93.465 Y-36.265 Z1.319
X-93.425 Y-36.244 Z1.317
X-93.396 Y-36.211 Z1.316
X-93.38 Y-36.169 Z1.314
X-93.379 Y-36.125 Z1.313
X-93.394 Y-36.083 Z1.311
X-93.423 Y-36.049 Z1.309
X-93.462 Y-36.028 Z1.308
X-93.506 Y-36.021 Z1.306
X-93.55 Y-36.03 Z1.305
X-93.587 Y-36.054 Z1.303
X-93.614 Y-36.089 Z1.302
X-93.627 Y-36.132 Z1.3
X-93.624 Y-36.177 Z1.298
X-93.605 Y-36.217 Z1.297
X-93.574 Y-36.249 Z1.295
X-93.533 Y-36.267 Z1.294
X-93.489 Y-36.27 Z1.292
X-93.446 Y-36.257 Z1.291
X-93.411 Y-36.231 Z1.289
X-93.387 Y-36.193 Z1.288
X-93.377 Y-36.149 Z1.286
X-93.384 Y-36.105 Z1.284
X-93.406 Y-36.067 Z1.283
X-93.44 Y-36.038 Z1.281
X-93.482 Y-36.023 Z1.28
X-93.526 Z1.278
X-93.568 Y-36.039 Z1.277
X-93.601 Y-36.069 Z1.275
X-93.622 Y-36.108 Z1.273
X-93.627 Y-36.152 Z1.272
X-93.617 Y-36.196 Z1.27
X-93.592 Y-36.233 Z1.269
X-93.556 Y-36.259 Z1.267
X-93.513 Y-36.27 Z1.266
X-93.469 Y-36.266 Z1.264
X-93.429 Y-36.247 Z1.262
X-93.398 Y-36.215 Z1.261
X-93.381 Y-36.174 Z1.259
X-93.379 Y-36.129 Z1.258
X-93.392 Y-36.087 Z1.256
X-93.42 Y-36.052 Z1.255
X-93.458 Y-36.029 Z1.253
X-93.502 Y-36.021 Z1.252
X-93.545 Y-36.028 Z1.25
X-93.584 Y-36.051 Z1.248
X-93.612 Y-36.086 Z1.247
X-93.626 Y-36.128 Z1.245
X-93.625 Y-36.172 Z1.244
X-93.608 Y-36.213 Z1.242
X-93.577 Y-36.246 Z1.241
X-93.537 Y-36.266 Z1.239
X-93.493 Y-36.27 Z1.238
X-93.45 Y-36.259 Z1.236
X-93.414 Y-36.234 Z1.234
X-93.388 Y-36.197 Z1.233
X-93.378 Y-36.154 Z1.231
X-93.383 Y-36.11 Z1.23
X-93.403 Y-36.07 Z1.228
X-93.436 Y-36.04 Z1.227
X-93.477 Y-36.023 Z1.225
X-93.522 Y-36.022 Z1.223
X-93.564 Y-36.037 Z1.222
X-93.598 Y-36.065 Z1.22
X-93.62 Y-36.104 Z1.219
X-93.627 Y-36.148 Z1.217
X-93.619 Y-36.191 Z1.216
X-93.595 Y-36.229 Z1.214
X-93.56 Y-36.257 Z1.212
X-93.518 Y-36.27 Z1.211
X-93.473 Y-36.267 Z1.209
X-93.433 Y-36.249 Z1.208
X-93.401 Y-36.218 Z1.206
X-93.382 Y-36.178 Z1.205
X-93.378 Y-36.134 Z1.203
X-93.39 Y-36.091 Z1.202
X-93.416 Y-36.055 Z1.2
X-93.454 Y-36.031 Z1.198
X-93.497 Y-36.021 Z1.197
X-93.541 Y-36.027 Z1.195
X-93.58 Y-36.048 Z1.194
X-93.61 Y-36.082 Z1.192
X-93.625 Y-36.123 Z1.191
Y-36.168 Z1.189
X-93.61 Y-36.21 Z1.188
X-93.581 Y-36.243 Z1.186
X-93.542 Y-36.264 Z1.184
X-93.498 Y-36.271 Z1.183
X-93.454 Y-36.261 Z1.181
X-93.417 Y-36.237 Z1.18
X-93.39 Y-36.201 Z1.178
X-93.378 Y-36.158 Z1.177
X-93.382 Y-36.114 Z1.175
X-93.4 Y-36.074 Z1.173
X-93.432 Y-36.042 Z1.172
X-93.473 Y-36.024 Z1.17
X-93.517 Y-36.022 Z1.169
X-93.56 Y-36.035 Z1.167
X-93.595 Y-36.062 Z1.166
X-93.619 Y-36.1 Z1.164
X-93.627 Y-36.143 Z1.163
X-93.62 Y-36.187 Z1.161
X-93.598 Y-36.226 Z1.159
X-93.564 Y-36.255 Z1.158
X-93.522 Y-36.269 Z1.156
X-93.478 Y-36.268 Z1.155
X-93.436 Y-36.252 Z1.153
X-93.403 Y-36.222 Z1.152
X-93.383 Y-36.182 Z1.15
X-93.378 Y-36.138 Z1.148
X-93.388 Y-36.095 Z1.147
X-93.413 Y-36.058 Z1.145
X-93.45 Y-36.032 Z1.144
X-93.493 Y-36.021 Z1.142
X-93.537 Y-36.026 Z1.141
X-93.577 Y-36.045 Z1.139
X-93.607 Y-36.078 Z1.137
X-93.624 Y-36.119 Z1.136
X-93.626 Y-36.163 Z1.134
X-93.612 Y-36.206 Z1.133
X-93.584 Y-36.24 Z1.131
X-93.546 Y-36.263 Z1.13
X-93.502 Y-36.271 Z1.128
X-93.458 Y-36.263 Z1.127
X-93.42 Y-36.24 Z1.125
X-93.392 Y-36.205 Z1.123
X-93.379 Y-36.163 Z1.122
X-93.381 Y-36.118 Z1.12
X-93.398 Y-36.077 Z1.119
X-93.429 Y-36.045 Z1.117
X-93.469 Y-36.025 Z1.116
X-93.513 Y-36.021 Z1.114
X-93.556 Y-36.033 Z1.113
X-93.592 Y-36.059 Z1.111
X-93.617 Y-36.096 Z1.109
X-93.627 Y-36.139 Z1.108
X-93.622 Y-36.183 Z1.106
X-93.601 Y-36.223 Z1.105
X-93.568 Y-36.252 Z1.103
X-93.526 Y-36.268 Z1.102
X-93.482 Y-36.269 Z1.1
X-93.44 Y-36.254 Z1.098
X-93.406 Y-36.225 Z1.097
X-93.384 Y-36.187 Z1.095
X-93.377 Y-36.143 Z1.094
X-93.387 Y-36.099 Z1.092
X-93.41 Y-36.061 Z1.091
X-93.446 Y-36.034 Z1.089
X-93.488 Y-36.022 Z1.087
X-93.533 Y-36.025 Z1.086
X-93.573 Y-36.043 Z1.084
X-93.605 Y-36.074 Z1.083
X-93.623 Y-36.115 Z1.081
X-93.627 Y-36.159 Z1.08
X-93.614 Y-36.202 Z1.078
X-93.587 Y-36.237 Z1.077
X-93.55 Y-36.261 Z1.075
X-93.506 Y-36.271 Z1.073
X-93.462 Y-36.264 Z1.072
X-93.423 Y-36.243 Z1.07
X-93.395 Y-36.209 Z1.069
X-93.379 Y-36.167 Z1.067
X-93.38 Y-36.123 Z1.066
X-93.396 Y-36.081 Z1.064
X-93.425 Y-36.048 Z1.063
X-93.464 Y-36.027 Z1.061
X-93.508 Y-36.021 Z1.059
X-93.552 Y-36.031 Z1.058
X-93.589 Y-36.056 Z1.056
X-93.615 Y-36.092 Z1.055
X-93.627 Y-36.135 Z1.053
X-93.623 Y-36.179 Z1.052
X-93.604 Y-36.219 Z1.05
X-93.572 Y-36.25 Z1.048
X-93.531 Y-36.268 Z1.047
X-93.486 Y-36.27 Z1.045
X-93.444 Y-36.256 Z1.044
X-93.409 Y-36.229 Z1.042
X-93.386 Y-36.191 Z1.041
X-93.377 Y-36.147 Z1.039
X-93.385 Y-36.103 Z1.038
X-93.407 Y-36.065 Z1.036
X-93.442 Y-36.037 Z1.034
X-93.484 Y-36.022 Z1.033
X-93.528 Y-36.024 Z1.031
X-93.57 Y-36.04 Z1.03
X-93.602 Y-36.071 Z1.028
X-93.622 Y-36.11 Z1.027
X-93.627 Y-36.155 Z1.025
X-93.616 Y-36.198 Z1.023
X-93.591 Y-36.234 Z1.022
X-93.554 Y-36.26 Z1.02
X-93.511 Y-36.27 Z1.019
X-93.467 Y-36.266 Z1.017
X-93.427 Y-36.245 Z1.016
X-93.397 Y-36.213 Z1.014
X-93.38 Y-36.171 Z1.012
X-93.379 Y-36.127 Z1.011
X-93.393 Y-36.085 Z1.009
X-93.422 Y-36.05 Z1.008
X-93.46 Y-36.028 Z1.006
X-93.504 Y-36.021 Z1.005
X-93.548 Y-36.029 Z1.003
X-93.586 Y-36.053 Z1.002
X-93.613 Y-36.088 Z1
X-93.626 Y-36.13 Z0.998
X-93.624 Y-36.175 Z0.997
X-93.606 Y-36.215 Z0.995
X-93.575 Y-36.247 Z0.994
X-93.535 Y-36.266 Z0.992
X-93.491 Y-36.27 Z0.991
X-93.448 Y-36.258 Z0.989
X-93.412 Y-36.232 Z0.987
X-93.387 Y-36.195 Z0.986
X-93.378 Y-36.151 Z0.984
X-93.383 Y-36.107 Z0.983
X-93.404 Y-36.068 Z0.981
X-93.438 Y-36.039 Z0.98
X-93.48 Y-36.023 Z0.978
X-93.524 Z0.977
X-93.566 Y-36.038 Z0.975
X-93.6 Y-36.067 Z0.973
X-93.621 Y-36.106 Z0.972
X-93.627 Y-36.15 Z0.97
X-93.618 Y-36.194 Z0.969
X-93.594 Y-36.231 Z0.967
X-93.558 Y-36.258 Z0.966
X-93.515 Y-36.27 Z0.964
X-93.471 Y-36.267 Z0.963
X-93.431 Y-36.248 Z0.961
X-93.399 Y-36.216 Z0.959
X-93.381 Y-36.176 Z0.958
X-93.378 Y-36.131 Z0.956
X-93.391 Y-36.089 Z0.955
X-93.418 Y-36.053 Z0.953
X-93.456 Y-36.03 Z0.952
X-93.5 Y-36.021 Z0.95
X-93.544 Y-36.028 Z0.948
X-93.582 Y-36.05 Z0.947
X-93.611 Y-36.084 Z0.945
X-93.626 Y-36.126 Z0.944
X-93.625 Y-36.17 Z0.942
X-93.609 Y-36.212 Z0.941
X-93.579 Y-36.245 Z0.939
X-93.539 Y-36.265 Z0.938
X-93.495 Y-36.271 Z0.936
X-93.452 Y-36.26 Z0.934
X-93.415 Y-36.235 Z0.933
X-93.389 Y-36.199 Z0.931
X-93.378 Y-36.156 Z0.93
X-93.382 Y-36.112 Z0.928
X-93.402 Y-36.072 Z0.927
X-93.434 Y-36.041 Z0.925
X-93.475 Y-36.024 Z0.923
X-93.52 Y-36.022 Z0.922
X-93.562 Y-36.036 Z0.92
X-93.597 Y-36.064 Z0.919
X-93.619 Y-36.102 Z0.917
X-93.627 Y-36.146 Z0.916
X-93.619 Y-36.19 Z0.914
X-93.597 Y-36.228 Z0.913
X-93.562 Y-36.256 Z0.911
X-93.52 Y-36.27 Z0.909
X-93.475 Y-36.268 Z0.908
X-93.434 Y-36.251 Z0.906
X-93.402 Y-36.22 Z0.905
X-93.382 Y-36.18 Z0.903
X-93.378 Y-36.136 Z0.902
X-93.389 Y-36.093 Z0.9
X-93.415 Y-36.056 Z0.898
X-93.452 Y-36.031 Z0.897
X-93.495 Y-36.021 Z0.895
X-93.539 Y-36.026 Z0.894
X-93.579 Y-36.047 Z0.892
X-93.609 Y-36.08 Z0.891
X-93.625 Y-36.121 Z0.889
X-93.626 Y-36.166 Z0.888
X-93.611 Y-36.208 Z0.886
X-93.582 Y-36.242 Z0.884
X-93.544 Y-36.264 Z0.883
X-93.5 Y-36.271 Z0.881
X-93.456 Y-36.262 Z0.88
X-93.418 Y-36.238 Z0.878
X-93.391 Y-36.203 Z0.877
X-93.378 Y-36.16 Z0.875
X-93.381 Y-36.116 Z0.873
X-93.399 Y-36.075 Z0.872
X-93.43 Y-36.044 Z0.87
X-93.471 Y-36.025 Z0.869
X-93.515 Y-36.021 Z0.867
X-93.558 Y-36.034 Z0.866
X-93.594 Y-36.06 Z0.864
X-93.618 Y-36.098 Z0.862
X-93.627 Y-36.141 Z0.861
X-93.621 Y-36.185 Z0.859
X-93.6 Y-36.224 Z0.858
X-93.566 Y-36.253 Z0.856
X-93.524 Y-36.269 Z0.855
X-93.48 Z0.853
X-93.438 Y-36.253 Z0.852
X-93.405 Y-36.224 Z0.85
X-93.384 Y-36.184 Z0.848
X-93.378 Y-36.14 Z0.847
X-93.387 Y-36.097 Z0.845
X-93.412 Y-36.06 Z0.844
X-93.448 Y-36.033 Z0.842
X-93.491 Y-36.021 Z0.841
X-93.535 Y-36.025 Z0.839
X-93.575 Y-36.044 Z0.837
X-93.606 Y-36.076 Z0.836
X-93.624 Y-36.117 Z0.834
X-93.626 Y-36.161 Z0.833
X-93.613 Y-36.204 Z0.831
X-93.586 Y-36.239 Z0.83
X-93.548 Y-36.262 Z0.828
X-93.504 Y-36.271 Z0.827
X-93.46 Y-36.263 Z0.825
X-93.422 Y-36.241 Z0.823
X-93.393 Y-36.207 Z0.822
X-93.379 Y-36.165 Z0.82
X-93.38 Y-36.12 Z0.819
X-93.397 Y-36.079 Z0.817
X-93.427 Y-36.046 Z0.816
X-93.467 Y-36.026 Z0.814
X-93.511 Y-36.021 Z0.813
X-93.554 Y-36.032 Z0.811
X-93.591 Y-36.057 Z0.809
X-93.616 Y-36.094 Z0.808
X-93.627 Y-36.137 Z0.806
X-93.622 Y-36.181 Z0.805
X-93.602 Y-36.221 Z0.803
X-93.57 Y-36.251 Z0.802
X-93.528 Y-36.268 Z0.8
X-93.484 Y-36.269 Z0.798
X-93.442 Y-36.255 Z0.797
X-93.407 Y-36.227 Z0.795
X-93.385 Y-36.189 Z0.794
X-93.377 Y-36.145 Z0.792
X-93.386 Y-36.101 Z0.791
X-93.409 Y-36.063 Z0.789
X-93.444 Y-36.035 Z0.788
X-93.486 Y-36.022 Z0.786
X-93.531 Y-36.024 Z0.784
X-93.572 Y-36.042 Z0.783
X-93.604 Y-36.073 Z0.781
X-93.623 Y-36.113 Z0.78
X-93.627 Y-36.157 Z0.778
X-93.615 Y-36.2 Z0.777
X-93.589 Y-36.236 Z0.775
X-93.552 Y-36.261 Z0.773
X-93.508 Y-36.271 Z0.772
X-93.464 Y-36.265 Z0.77
X-93.425 Y-36.244 Z0.769
X-93.396 Y-36.211 Z0.767
X-93.38 Y-36.169 Z0.766
X-93.379 Y-36.125 Z0.764
X-93.394 Y-36.083 Z0.763
X-93.423 Y-36.049 Z0.761
X-93.462 Y-36.027 Z0.759
X-93.506 Y-36.021 Z0.758
X-93.55 Y-36.03 Z0.756
X-93.587 Y-36.054 Z0.755
X-93.614 Y-36.09 Z0.753
X-93.627 Y-36.132 Z0.752
X-93.623 Y-36.177 Z0.75
X-93.605 Y-36.217 Z0.748
X-93.573 Y-36.249 Z0.747
X-93.533 Y-36.267 Z0.745
X-93.488 Y-36.27 Z0.744
X-93.446 Y-36.257 Z0.742
X-93.41 Y-36.23 Z0.741
X-93.387 Y-36.193 Z0.739
X-93.377 Y-36.149 Z0.737
X-93.384 Y-36.105 Z0.736
X-93.406 Y-36.066 Z0.734
X-93.44 Y-36.038 Z0.733
X-93.482 Y-36.023 Z0.731
X-93.526 Z0.73
X-93.568 Y-36.039 Z0.728
X-93.601 Y-36.069 Z0.727
X-93.622 Y-36.108 Z0.725
X-93.627 Y-36.153 Z0.723
X-93.617 Y-36.196 Z0.722
X-93.592 Y-36.233 Z0.72
X-93.556 Y-36.259 Z0.719
X-93.513 Y-36.27 Z0.717
X-93.469 Y-36.266 Z0.716
X-93.429 Y-36.247 Z0.714
X-93.398 Y-36.214 Z0.712
X-93.381 Y-36.173 Z0.711
X-93.379 Y-36.129 Z0.709
X-93.392 Y-36.087 Z0.708
X-93.42 Y-36.052 Z0.706
X-93.458 Y-36.029 Z0.705
X-93.502 Y-36.021 Z0.703
X-93.546 Y-36.029 Z0.702
X-93.584 Y-36.051 Z0.7
X-93.612 Y-36.086 Z0.698
X-93.626 Y-36.128 Z0.697
X-93.624 Y-36.173 Z0.695
X-93.607 Y-36.214 Z0.694
X-93.577 Y-36.246 Z0.692
X-93.537 Y-36.266 Z0.691
X-93.493 Y-36.27 Z0.689
X-93.45 Y-36.259 Z0.688
X-93.413 Y-36.233 Z0.686
X-93.388 Y-36.197 Z0.684
X-93.378 Y-36.154 Z0.683
X-93.383 Y-36.109 Z0.681
X-93.403 Y-36.07 Z0.68
X-93.436 Y-36.04 Z0.678
X-93.478 Y-36.023 Z0.677
X-93.522 Y-36.022 Z0.675
X-93.564 Y-36.037 Z0.673
X-93.598 Y-36.066 Z0.672
X-93.62 Y-36.104 Z0.67
X-93.627 Y-36.148 Z0.669
X-93.619 Y-36.192 Z0.667
X-93.595 Y-36.23 Z0.666
X-93.56 Y-36.257 Z0.664
X-93.517 Y-36.27 Z0.663
X-93.473 Y-36.267 Z0.661
X-93.432 Y-36.249 Z0.659
X-93.4 Y-36.218 Z0.658
X-93.382 Y-36.178 Z0.656
X-93.378 Y-36.133 Z0.655
X-93.39 Y-36.091 Z0.653
X-93.417 Y-36.055 Z0.652
X-93.454 Y-36.031 Z0.65
X-93.498 Y-36.021 Z0.648
X-93.542 Y-36.027 Z0.647
X-93.581 Y-36.048 Z0.645
X-93.61 Y-36.082 Z0.644
X-93.625 Y-36.124 Z0.642
Y-36.168 Z0.641
X-93.61 Y-36.21 Z0.639
X-93.58 Y-36.243 Z0.638
X-93.541 Y-36.265 Z0.636
X-93.497 Y-36.271 Z0.634
X-93.454 Y-36.261 Z0.633
X-93.417 Y-36.237 Z0.631
X-93.39 Y-36.201 Z0.63
X-93.378 Y-36.158 Z0.628
X-93.382 Y-36.114 Z0.627
X-93.401 Y-36.073 Z0.625
X-93.432 Y-36.042 Z0.623
X-93.473 Y-36.024 Z0.622
X-93.518 Y-36.022 Z0.62
X-93.56 Y-36.035 Z0.619
X-93.595 Y-36.062 Z0.617
X-93.619 Y-36.1 Z0.616
X-93.627 Y-36.144 Z0.614
X-93.62 Y-36.188 Z0.612
X-93.598 Y-36.226 Z0.611
X-93.564 Y-36.255 Z0.609
X-93.522 Y-36.269 Z0.608
X-93.477 Y-36.268 Z0.606
X-93.436 Y-36.252 Z0.605
X-93.403 Y-36.222 Z0.603
X-93.383 Y-36.182 Z0.602
X-93.378 Y-36.138 Z0.6
X-93.388 Y-36.095 Z0.598
X-93.414 Y-36.058 Z0.597
X-93.45 Y-36.032 Z0.595
X-93.493 Y-36.021 Z0.594
X-93.537 Y-36.026 Z0.592
X-93.577 Y-36.046 Z0.591
X-93.608 Y-36.078 Z0.589
X-93.625 Y-36.119 Z0.587
X-93.626 Y-36.164 Z0.586
X-93.612 Y-36.206 Z0.584
X-93.584 Y-36.241 Z0.583
X-93.546 Y-36.263 Z0.581
X-93.502 Y-36.271 Z0.58
X-93.458 Y-36.263 Z0.578
X-93.42 Y-36.24 Z0.577
X-93.392 Y-36.205 Z0.575
X-93.379 Y-36.162 Z0.573
X-93.381 Y-36.118 Z0.572
X-93.398 Y-36.077 Z0.57
X-93.429 Y-36.045 Z0.569
X-93.469 Y-36.025 Z0.567
X-93.513 Y-36.021 Z0.566
X-93.556 Y-36.033 Z0.564
X-93.592 Y-36.059 Z0.563
X-93.617 Y-36.096 Z0.561
X-93.627 Y-36.139 Z0.559
X-93.622 Y-36.183 Z0.558
X-93.601 Y-36.223 Z0.556
X-93.568 Y-36.252 Z0.555
X-93.526 Y-36.269 Z0.553
X-93.482 Z0.552
X-93.44 Y-36.254 Z0.55
X-93.406 Y-36.225 Z0.548
X-93.384 Y-36.186 Z0.547
X-93.377 Y-36.142 Z0.545
X-93.387 Y-36.099 Z0.544
X-93.41 Y-36.061 Z0.542
X-93.446 Y-36.034 Z0.541
X-93.489 Y-36.022 Z0.539
X-93.533 Y-36.025 Z0.538
X-93.574 Y-36.043 Z0.536
X-93.605 Y-36.075 Z0.534
X-93.624 Y-36.115 Z0.533
X-93.627 Y-36.159 Z0.531
X-93.614 Y-36.202 Z0.53
X-93.587 Y-36.238 Z0.528
X-93.55 Y-36.262 Z0.527
X-93.506 Y-36.271 Z0.525
X-93.462 Y-36.264 Z0.523
X-93.423 Y-36.242 Z0.522
X-93.394 Y-36.209 Z0.52
X-93.379 Y-36.167 Z0.519
X-93.38 Y-36.122 Z0.517
X-93.396 Y-36.081 Z0.516
X-93.425 Y-36.047 Z0.514
X-93.465 Y-36.027 Z0.513
X-93.509 Y-36.021 Z0.511
X-93.552 Y-36.031 Z0.509
X-93.589 Y-36.056 Z0.508
X-93.615 Y-36.092 Z0.506
X-93.627 Y-36.135 Z0.505
X-93.623 Y-36.179 Z0.503
X-93.604 Y-36.219 Z0.502
X-93.571 Y-36.25 Z0.5
X-93.53 Y-36.268 Z0.498
X-93.486 Y-36.27 Z0.497
X-93.444 Y-36.256 Z0.495
X-93.409 Y-36.229 Z0.494
X-93.386 Y-36.19 Z0.492
X-93.377 Y-36.147 Z0.491
X-93.385 Y-36.103 Z0.489
X-93.408 Y-36.064 Z0.488
X-93.442 Y-36.036 Z0.486
X-93.484 Y-36.022 Z0.484
X-93.529 Y-36.024 Z0.483
X-93.57 Y-36.041 Z0.481
X-93.602 Y-36.071 Z0.48
X-93.622 Y-36.111 Z0.478
X-93.627 Y-36.155 Z0.477
X-93.616 Y-36.198 Z0.475
X-93.59 Y-36.235 Z0.473
X-93.554 Y-36.26 Z0.472
X-93.511 Y-36.271 Z0.47
X-93.466 Y-36.265 Z0.469
X-93.427 Y-36.245 Z0.467
X-93.397 Y-36.212 Z0.466
X-93.38 Y-36.171 Z0.464
X-93.379 Y-36.127 Z0.462
X-93.393 Y-36.085 Z0.461
X-93.422 Y-36.05 Z0.459
X-93.46 Y-36.028 Z0.458
X-93.504 Y-36.021 Z0.456
X-93.548 Y-36.029 Z0.455
X-93.586 Y-36.053 Z0.453
X-93.613 Y-36.088 Z0.452
X-93.626 Y-36.13 Z0.45
X-93.624 Y-36.175 Z0.448
X-93.606 Y-36.216 Z0.447
X-93.575 Y-36.248 Z0.445
X-93.535 Y-36.267 Z0.444
X-93.49 Y-36.27 Z0.442
X-93.448 Y-36.258 Z0.441
X-93.412 Y-36.232 Z0.439
X-93.387 Y-36.195 Z0.438
X-93.378 Y-36.151 Z0.436
X-93.384 Y-36.107 Z0.434
X-93.405 Y-36.068 Z0.433
X-93.438 Y-36.039 Z0.431
X-93.48 Y-36.023 Z0.43
X-93.524 Z0.428
X-93.566 Y-36.038 Z0.427
X-93.6 Y-36.067 Z0.425
X-93.621 Y-36.106 Z0.423
X-93.627 Y-36.151 Z0.422
X-93.618 Y-36.194 Z0.42
X-93.594 Y-36.231 Z0.419
X-93.558 Y-36.258 Z0.417
X-93.515 Y-36.27 Z0.416
X-93.471 Y-36.267 Z0.414
X-93.43 Y-36.248 Z0.412
X-93.399 Y-36.216 Z0.411
X-93.381 Y-36.175 Z0.409
X-93.378 Y-36.131 Z0.408
X-93.391 Y-36.088 Z0.406
X-93.418 Y-36.053 Z0.405
X-93.456 Y-36.03 Z0.403
X-93.5 Y-36.021 Z0.402
X-93.544 Y-36.028 Z0.4
X-93.583 Y-36.05 Z0.398
X-93.611 Y-36.084 Z0.397
X-93.626 Y-36.126 Z0.395
X-93.625 Y-36.171 Z0.394
X-93.608 Y-36.212 Z0.392
X-93.579 Y-36.245 Z0.391
X-93.539 Y-36.265 Z0.389
X-93.495 Y-36.271 Z0.387
X-93.452 Y-36.26 Z0.386
X-93.415 Y-36.235 Z0.384
X-93.389 Y-36.199 Z0.383
X-93.378 Y-36.156 Z0.381
X-93.382 Y-36.111 Z0.38
X-93.402 Y-36.071 Z0.378
X-93.434 Y-36.041 Z0.377
X-93.476 Y-36.024 Z0.375
X-93.52 Y-36.022 Z0.373
X-93.562 Y-36.036 Z0.372
X-93.597 Y-36.064 Z0.37
X-93.62 Y-36.102 Z0.369
X-93.627 Y-36.146 Z0.367
X-93.619 Y-36.19 Z0.366
X-93.596 Y-36.228 Z0.364
X-93.562 Y-36.256 Z0.363
X-93.519 Y-36.27 Z0.361
X-93.475 Y-36.268 Z0.359
X-93.434 Y-36.25 Z0.358
X-93.402 Y-36.22 Z0.356
X-93.382 Y-36.18 Z0.355
X-93.378 Y-36.135 Z0.353
X-93.389 Y-36.092 Z0.352
X-93.415 Y-36.056 Z0.35
X-93.452 Y-36.031 Z0.348
X-93.495 Y-36.021 Z0.347
X-93.54 Y-36.026 Z0.345
X-93.579 Y-36.047 Z0.344
X-93.609 Y-36.08 Z0.342
X-93.625 Y-36.122 Z0.341
X-93.626 Y-36.166 Z0.339
X-93.611 Y-36.208 Z0.337
X-93.582 Y-36.242 Z0.336
X-93.543 Y-36.264 Z0.334
X-93.499 Y-36.271 Z0.333
X-93.456 Y-36.262 Z0.331
X-93.418 Y-36.238 Z0.33
X-93.391 Y-36.203 Z0.328
X-93.378 Y-36.16 Z0.327
X-93.381 Y-36.116 Z0.325
X-93.399 Y-36.075 Z0.323
X-93.431 Y-36.043 Z0.322
X-93.471 Y-36.025 Z0.32
X-93.516 Y-36.022 Z0.319
X-93.558 Y-36.034 Z0.317
X-93.594 Y-36.061 Z0.316
X-93.618 Y-36.098 Z0.314
X-93.627 Y-36.142 Z0.313
X-93.621 Y-36.186 Z0.311
X-93.599 Y-36.225 Z0.309
X-93.566 Y-36.254 Z0.308
X-93.524 Y-36.269 Z0.306
X-93.479 Z0.305
X-93.438 Y-36.253 Z0.303
X-93.404 Y-36.223 Z0.302
X-93.383 Y-36.184 Z0.3
X-93.378 Y-36.14 Z0.298
X-93.388 Y-36.096 Z0.297
X-93.412 Y-36.059 Z0.295
X-93.448 Y-36.033 Z0.294
X-93.491 Y-36.021 Z0.292
X-93.535 Y-36.025 Z0.291
X-93.576 Y-36.044 Z0.289
X-93.606 Y-36.076 Z0.287
X-93.624 Y-36.117 Z0.286
X-93.626 Y-36.162 Z0.284
X-93.613 Y-36.204 Z0.283
X-93.585 Y-36.239 Z0.281
X-93.547 Y-36.262 Z0.28
X-93.504 Y-36.271 Z0.278
X-93.46 Y-36.263 Z0.277
X-93.421 Y-36.241 Z0.275
X-93.393 Y-36.207 Z0.273
X-93.379 Y-36.164 Z0.272
X-93.38 Y-36.12 Z0.27
X-93.397 Y-36.079 Z0.269
X-93.427 Y-36.046 Z0.267
X-93.467 Y-36.026 Z0.266
X-93.511 Y-36.021 Z0.264
X-93.554 Y-36.032 Z0.262
X-93.591 Y-36.057 Z0.261
X-93.616 Y-36.094 Z0.259
X-93.627 Y-36.137 Z0.258
X-93.622 Y-36.181 Z0.256
X-93.602 Y-36.221 Z0.255
X-93.569 Y-36.251 Z0.253
X-93.528 Y-36.268 Z0.252
X-93.484 Y-36.269 Z0.25
X-93.442 Y-36.255 Z0.248
X-93.407 Y-36.227 Z0.247
X-93.385 Y-36.188 Z0.245
X-93.377 Y-36.144 Z0.244
X-93.386 Y-36.101 Z0.242
X-93.409 Y-36.063 Z0.241
X-93.444 Y-36.035 Z0.239
X-93.487 Y-36.022 Z0.237
X-93.531 Y-36.024 Z0.236
X-93.572 Y-36.042 Z0.234
X-93.604 Y-36.073 Z0.233
X-93.623 Y-36.113 Z0.231
X-93.627 Y-36.157 Z0.23
X-93.615 Y-36.2 Z0.228
X-93.589 Y-36.236 Z0.227
X-93.552 Y-36.261 Z0.225
X-93.508 Y-36.271 Z0.223
X-93.464 Y-36.265 Z0.222
X-93.425 Y-36.244 Z0.22
X-93.395 Y-36.21 Z0.219
X-93.38 Y-36.169 Z0.217
X-93.379 Y-36.124 Z0.216
X-93.395 Y-36.082 Z0.214
X-93.424 Y-36.049 Z0.212
X-93.463 Y-36.027 Z0.211
X-93.507 Y-36.021 Z0.209
X-93.55 Y-36.03 Z0.208
X-93.588 Y-36.054 Z0.206
X-93.614 Y-36.09 Z0.205
X-93.627 Y-36.133 Z0.203
X-93.623 Y-36.177 Z0.202
X-93.605 Y-36.218 Z0.2
X-93.573 Y-36.249 Z0.198
X-93.532 Y-36.267 Z0.197
X-93.488 Y-36.27 Z0.195
X-93.445 Y-36.257 Z0.194
X-93.41 Y-36.23 Z0.192
X-93.386 Y-36.192 Z0.191
X-93.377 Y-36.149 Z0.189
X-93.384 Y-36.105 Z0.188
X-93.406 Y-36.066 Z0.186
X-93.44 Y-36.037 Z0.184
X-93.482 Y-36.022 Z0.183
X-93.527 Y-36.023 Z0.181
X-93.568 Y-36.04 Z0.18
X-93.601 Y-36.069 Z0.178
X-93.622 Y-36.109 Z0.177
X-93.627 Y-36.153 Z0.175
X-93.617 Y-36.196 Z0.173
X-93.592 Y-36.233 Z0.172
X-93.556 Y-36.259 Z0.17
X-93.513 Y-36.27 Z0.169
X-93.468 Y-36.266 Z0.167
X-93.428 Y-36.246 Z0.166
X-93.398 Y-36.214 Z0.164
X-93.38 Y-36.173 Z0.162
X-93.379 Y-36.129 Z0.161
X-93.392 Y-36.086 Z0.159
X-93.42 Y-36.052 Z0.158
X-93.458 Y-36.029 Z0.156
X-93.502 Y-36.021 Z0.155
X-93.546 Y-36.029 Z0.153
X-93.584 Y-36.051 Z0.152
X-93.612 Y-36.086 Z0.15
X-93.626 Y-36.128 Z0.148
X-93.624 Y-36.173 Z0.147
X-93.607 Y-36.214 Z0.145
X-93.577 Y-36.246 Z0.144
X-93.537 Y-36.266 Z0.142
X-93.492 Y-36.27 Z0.141
X-93.449 Y-36.259 Z0.139
X-93.413 Y-36.233 Z0.137
X-93.388 Y-36.196 Z0.136
X-93.378 Y-36.153 Z0.134
X-93.383 Y-36.109 Z0.133
X-93.403 Y-36.069 Z0.131
X-93.436 Y-36.04 Z0.13
X-93.478 Y-36.023 Z0.128
X-93.522 Y-36.022 Z0.127
X-93.564 Y-36.037 Z0.125
X-93.598 Y-36.066 Z0.123
X-93.62 Y-36.105 Z0.122
X-93.627 Y-36.148 Z0.12
X-93.618 Y-36.192 Z0.119
X-93.595 Y-36.23 Z0.117
X-93.56 Y-36.257 Z0.116
X-93.517 Y-36.27 Z0.114
X-93.473 Y-36.267 Z0.112
X-93.432 Y-36.249 Z0.111
X-93.4 Y-36.218 Z0.109
X-93.381 Y-36.177 Z0.108
X-93.378 Y-36.133 Z0.106
X-93.39 Y-36.09 Z0.105
X-93.417 Y-36.055 Z0.103
X-93.454 Y-36.03 Z0.102
X-93.498 Y-36.021 Z0.1
X-93.542 Y-36.027 Z0.098
X-93.581 Y-36.049 Z0.097
X-93.61 Y-36.082 Z0.095
X-93.625 Y-36.124 Z0.094
Y-36.169 Z0.092
X-93.61 Y-36.21 Z0.091
X-93.58 Y-36.244 Z0.089
X-93.541 Y-36.265 Z0.087
X-93.497 Y-36.271 Z0.086
X-93.453 Y-36.261 Z0.084
X-93.416 Y-36.236 Z0.083
X-93.39 Y-36.2 Z0.081
X-93.378 Y-36.158 Z0.08
X-93.382 Y-36.113 Z0.078
X-93.401 Y-36.073 Z0.077
X-93.433 Y-36.042 Z0.075
X-93.474 Y-36.024 Z0.073
X-93.518 Y-36.022 Z0.072
X-93.56 Y-36.035 Z0.07
X-93.596 Y-36.062 Z0.069
X-93.619 Y-36.1 Z0.067
X-93.627 Y-36.144 Z0.066
X-93.62 Y-36.188 Z0.064
X-93.598 Y-36.227 Z0.063
X-93.563 Y-36.255 Z0.061
X-93.521 Y-36.269 Z0.059
X-93.477 Y-36.268 Z0.058
X-93.436 Y-36.251 Z0.056
X-93.403 Y-36.221 Z0.055
X-93.383 Y-36.182 Z0.053
X-93.378 Y-36.137 Z0.052
X-93.389 Y-36.094 Z0.05
X-93.414 Y-36.058 Z0.048
X-93.45 Y-36.032 Z0.047
X-93.493 Y-36.021 Z0.045
X-93.538 Y-36.026 Z0.044
X-93.577 Y-36.046 Z0.042
X-93.608 Y-36.078 Z0.041
X-93.625 Y-36.12 Z0.039
X-93.626 Y-36.164 Z0.037
X-93.612 Y-36.206 Z0.036
X-93.584 Y-36.241 Z0.034
X-93.545 Y-36.263 Z0.033
X-93.501 Y-36.271 Z0.031
X-93.458 Y-36.262 Z0.03
X-93.42 Y-36.239 Z0.028
X-93.392 Y-36.204 Z0.027
X-93.378 Y-36.162 Z0.025
X-93.381 Y-36.118 Z0.023
X-93.398 Y-36.077 Z0.022
X-93.429 Y-36.045 Z0.02
X-93.469 Y-36.025 Z0.019
X-93.514 Y-36.021 Z0.017
X-93.556 Y-36.033 Z0.016
X-93.593 Y-36.059 Z0.014
X-93.617 Y-36.096 Z0.012
X-93.627 Y-36.14 Z0.011
X-93.621 Y-36.184 Z0.009
X-93.601 Y-36.223 Z0.008
X-93.567 Y-36.253 Z0.006
X-93.526 Y-36.269 Z0.005
X-93.481 Z0.003
X-93.439 Y-36.254 Z0.002
X-93.406 Y-36.225 Z0
X-93.384 Y-36.186 Z-0.002
X-93.377 Y-36.142 Z-0.003
X-93.387 Y-36.098 Z-0.005
X-93.411 Y-36.061 Z-0.006
X-93.446 Y-36.034 Z-0.008
X-93.489 Y-36.022 Z-0.009
X-93.533 Y-36.025 Z-0.011
X-93.574 Y-36.043 Z-0.013
X-93.605 Y-36.075 Z-0.014
X-93.624 Y-36.115 Z-0.016
X-93.627 Y-36.16 Z-0.017
X-93.614 Y-36.202 Z-0.019
X-93.587 Y-36.238 Z-0.02
X-93.549 Y-36.262 Z-0.022
X-93.506 Y-36.271 Z-0.023
X-93.462 Y-36.264 Z-0.025
X-93.423 Y-36.242 Z-0.027
X-93.394 Y-36.208 Z-0.028
X-93.379 Y-36.166 Z-0.03
X-93.38 Y-36.122 Z-0.031
X-93.396 Y-36.08 Z-0.033
X-93.426 Y-36.047 Z-0.034
X-93.465 Y-36.027 Z-0.036
X-93.509 Y-36.021 Z-0.038
X-93.552 Y-36.031 Z-0.039
X-93.589 Y-36.056 Z-0.041
X-93.615 Y-36.092 Z-0.042
X-93.627 Y-36.135 Z-0.044
X-93.623 Y-36.179 Z-0.045
X-93.603 Y-36.22 Z-0.047
X-93.571 Y-36.25 Z-0.048
X-93.53 Y-36.268 Z-0.05
X-93.486 Y-36.27 Z-0.052
X-93.443 Y-36.256 Z-0.053
X-93.408 Y-36.228 Z-0.055
X-93.386 Y-36.19 Z-0.056
X-93.377 Y-36.146 Z-0.058
X-93.385 Y-36.103 Z-0.059
X-93.408 Y-36.064 Z-0.061
X-93.442 Y-36.036 Z-0.063
X-93.485 Y-36.022 Z-0.064
X-93.529 Y-36.024 Z-0.066
X-93.57 Y-36.041 Z-0.067
X-93.603 Y-36.071 Z-0.069
X-93.622 Y-36.111 Z-0.07
X-93.627 Y-36.155 Z-0.072
X-93.616 Y-36.198 Z-0.073
X-93.59 Y-36.235 Z-0.075
X-93.553 Y-36.26 Z-0.077
X-93.51 Y-36.271 Z-0.078
X-93.466 Y-36.265 Z-0.08
X-93.426 Y-36.245 Z-0.081
X-93.396 Y-36.212 Z-0.083
X-93.38 Y-36.171 Z-0.084
X-93.379 Y-36.126 Z-0.086
X-93.394 Y-36.084 Z-0.088
X-93.422 Y-36.05 Z-0.089
X-93.461 Y-36.028 Z-0.091
X-93.505 Y-36.021 Z-0.092
X-93.548 Y-36.03 Z-0.094
X-93.586 Y-36.053 Z-0.095
X-93.613 Y-36.088 Z-0.097
X-93.626 Y-36.131 Z-0.098
X-93.624 Y-36.175 Z-0.1
X-93.606 Y-36.216 Z-0.102
X-93.575 Y-36.248 Z-0.103
X-93.534 Y-36.267 Z-0.105
X-93.49 Y-36.27 Z-0.106
X-93.447 Y-36.258 Z-0.108
X-93.411 Y-36.232 Z-0.109
X-93.387 Y-36.194 Z-0.111
X-93.378 Y-36.151 Z-0.113
X-93.384 Y-36.107 Z-0.114
X-93.405 Y-36.068 Z-0.116
X-93.439 Y-36.038 Z-0.117
X-93.48 Y-36.023 Z-0.119
X-93.525 Z-0.12
X-93.566 Y-36.038 Z-0.122
X-93.6 Y-36.068 Z-0.123
X-93.621 Y-36.107 Z-0.125
X-93.627 Y-36.151 Z-0.127
X-93.618 Y-36.194 Z-0.128
X-93.593 Y-36.232 Z-0.13
X-93.557 Y-36.258 Z-0.131
X-93.515 Y-36.27 Z-0.133
X-93.47 Y-36.267 Z-0.134
X-93.43 Y-36.248 Z-0.136
X-93.399 Y-36.216 Z-0.138
X-93.381 Y-36.175 Z-0.139
X-93.378 Y-36.131 Z-0.141
X-93.392 Y-36.088 Z-0.142
X-93.419 Y-36.053 Z-0.144
X-93.457 Y-36.03 Z-0.145
X-93.5 Y-36.021 Z-0.147
X-93.544 Y-36.028 Z-0.148
X-93.583 Y-36.05 Z-0.15
X-93.611 Y-36.084 Z-0.152
X-93.626 Y-36.126 Z-0.153
X-93.625 Y-36.171 Z-0.155
X-93.608 Y-36.212 Z-0.156
X-93.578 Y-36.245 Z-0.158
X-93.539 Y-36.265 Z-0.159
X-93.495 Y-36.271 Z-0.161
X-93.451 Y-36.26 Z-0.163
X-93.415 Y-36.235 Z-0.164
X-93.389 Y-36.198 Z-0.166
X-93.378 Y-36.155 Z-0.167
X-93.382 Y-36.111 Z-0.169
X-93.402 Y-36.071 Z-0.17
X-93.435 Y-36.041 Z-0.172
X-93.476 Y-36.024 Z-0.173
X-93.52 Y-36.022 Z-0.175
X-93.563 Y-36.036 Z-0.177
X-93.597 Y-36.064 Z-0.178
X-93.62 Y-36.103 Z-0.18
X-93.627 Y-36.146 Z-0.181
X-93.619 Y-36.19 Z-0.183
X-93.596 Y-36.228 Z-0.184
X-93.561 Y-36.256 Z-0.186
X-93.519 Y-36.27 Z-0.188
X-93.475 Y-36.268 Z-0.189
X-93.434 Y-36.25 Z-0.191
X-93.401 Y-36.219 Z-0.192
X-93.382 Y-36.179 Z-0.194
X-93.378 Y-36.135 Z-0.195
X-93.39 Y-36.092 Z-0.197
X-93.415 Y-36.056 Z-0.198
X-93.452 Y-36.031 Z-0.2
X-93.496 Y-36.021 Z-0.202
X-93.54 Y-36.027 Z-0.203
X-93.579 Y-36.047 Z-0.205
X-93.609 Y-36.081 Z-0.206
X-93.625 Y-36.122 Z-0.208
X-93.626 Y-36.167 Z-0.209
X-93.611 Y-36.208 Z-0.211
X-93.582 Y-36.242 Z-0.213
X-93.543 Y-36.264 Z-0.214
X-93.499 Y-36.271 Z-0.216
X-93.455 Y-36.262 Z-0.217
X-93.418 Y-36.238 Z-0.219
X-93.391 Y-36.202 Z-0.22
X-93.378 Y-36.16 Z-0.222
X-93.381 Y-36.115 Z-0.223
X-93.4 Y-36.075 Z-0.225
X-93.431 Y-36.043 Z-0.227
X-93.472 Y-36.025 Z-0.228
X-93.516 Y-36.022 Z-0.23
X-93.559 Y-36.034 Z-0.231
X-93.594 Y-36.061 Z-0.233
X-93.618 Y-36.098 Z-0.234
X-93.627 Y-36.142 Z-0.236
X-93.621 Y-36.186 Z-0.238
X-93.599 Y-36.225 Z-0.239
X-93.565 Y-36.254 Z-0.241
X-93.523 Y-36.269 Z-0.242
X-93.479 Z-0.244
X-93.437 Y-36.253 Z-0.245
X-93.404 Y-36.223 Z-0.247
X-93.383 Y-36.184 Z-0.248
X-93.378 Y-36.14 Z-0.25
X-93.388 Y-36.096 Z-0.252
X-93.412 Y-36.059 Z-0.253
X-93.448 Y-36.033 Z-0.255
X-93.491 Y-36.021 Z-0.256
X-93.536 Y-36.025 Z-0.258
X-93.576 Y-36.045 Z-0.259
X-93.607 Y-36.077 Z-0.261
X-93.624 Y-36.118 Z-0.263
X-93.626 Y-36.162 Z-0.264
X-93.613 Y-36.204 Z-0.266
X-93.585 Y-36.239 Z-0.267
X-93.547 Y-36.263 Z-0.269
X-93.503 Y-36.271 Z-0.27
X-93.46 Y-36.263 Z-0.272
X-93.421 Y-36.241 Z-0.273
X-93.393 Y-36.206 Z-0.275
X-93.379 Y-36.164 Z-0.277
X-93.38 Y-36.12 Z-0.278
X-93.397 Y-36.078 Z-0.28
X-93.427 Y-36.046 Z-0.281
X-93.467 Y-36.026 Z-0.283
X-93.511 Y-36.021 Z-0.284
X-93.555 Y-36.032 Z-0.286
X-93.591 Y-36.058 Z-0.288
X-93.616 Y-36.094 Z-0.289
X-93.627 Y-36.138 Z-0.291
X-93.622 Y-36.182 Z-0.292
X-93.602 Y-36.221 Z-0.294
X-93.569 Y-36.252 Z-0.295
X-93.528 Y-36.268 Z-0.297
X-93.483 Y-36.269 Z-0.298
X-93.441 Y-36.255 Z-0.3
X-93.407 Y-36.226 Z-0.302
X-93.385 Y-36.188 Z-0.303
X-93.377 Y-36.144 Z-0.305
X-93.386 Y-36.1 Z-0.306
X-93.409 Y-36.062 Z-0.308
X-93.444 Y-36.035 Z-0.309
X-93.487 Y-36.022 Z-0.311
X-93.531 Y-36.024 Z-0.313
X-93.572 Y-36.042 Z-0.314
X-93.604 Y-36.073 Z-0.316
X-93.623 Y-36.113 Z-0.317
X-93.627 Y-36.158 Z-0.319
X-93.615 Y-36.201 Z-0.32
X-93.588 Y-36.236 Z-0.322
X-93.551 Y-36.261 Z-0.323
X-93.508 Y-36.271 Z-0.325
X-93.464 Y-36.265 Z-0.327
X-93.425 Y-36.244 Z-0.328
X-93.395 Y-36.21 Z-0.33
X-93.379 Y-36.168 Z-0.331
Y-36.124 Z-0.333
X-93.395 Y-36.082 Z-0.334
X-93.424 Y-36.049 Z-0.336
X-93.463 Y-36.027 Z-0.338
X-93.507 Y-36.021 Z-0.339
X-93.551 Y-36.03 Z-0.341
X-93.588 Y-36.055 Z-0.342
X-93.614 Y-36.09 Z-0.344
X-93.627 Y-36.133 Z-0.345
X-93.623 Y-36.178 Z-0.347
X-93.605 Y-36.218 Z-0.348
X-93.573 Y-36.249 Z-0.35
X-93.532 Y-36.267 Z-0.352
X-93.488 Y-36.27 Z-0.353
X-93.445 Y-36.257 Z-0.355
X-93.41 Y-36.23 Z-0.356
X-93.386 Y-36.192 Z-0.358
X-93.377 Y-36.148 Z-0.359
X-93.384 Y-36.104 Z-0.361
X-93.406 Y-36.066 Z-0.363
X-93.441 Y-36.037 Z-0.364
X-93.483 Y-36.022 Z-0.366
X-93.527 Y-36.023 Z-0.367
X-93.568 Y-36.04 Z-0.369
X-93.601 Y-36.07 Z-0.37
X-93.622 Y-36.109 Z-0.372
X-93.627 Y-36.153 Z-0.373
X-93.617 Y-36.197 Z-0.375
X-93.592 Y-36.233 Z-0.377
X-93.555 Y-36.259 Z-0.378
X-93.512 Y-36.27 Z-0.38
X-93.468 Y-36.266 Z-0.381
X-93.428 Y-36.246 Z-0.383
X-93.398 Y-36.214 Z-0.384
X-93.38 Y-36.173 Z-0.386
X-93.379 Y-36.128 Z-0.388
X-93.393 Y-36.086 Z-0.389
X-93.421 Y-36.051 Z-0.391
X-93.459 Y-36.029 Z-0.392
X-93.503 Y-36.021 Z-0.394
X-93.546 Y-36.029 Z-0.395
X-93.585 Y-36.052 Z-0.397
X-93.612 Y-36.086 Z-0.398
X-93.626 Y-36.129 Z-0.4
X-93.624 Y-36.173 Z-0.402
X-93.607 Y-36.214 Z-0.403
X-93.576 Y-36.247 Z-0.405
X-93.536 Y-36.266 Z-0.406
X-93.492 Y-36.27 Z-0.408
X-93.449 Y-36.259 Z-0.409
X-93.413 Y-36.233 Z-0.411
X-93.388 Y-36.196 Z-0.413
X-93.378 Y-36.153 Z-0.414
X-93.383 Y-36.109 Z-0.416
X-93.404 Y-36.069 Z-0.417
X-93.437 Y-36.039 Z-0.419
X-93.478 Y-36.023 Z-0.42
X-93.523 Y-36.022 Z-0.422
X-93.565 Y-36.037 Z-0.423
X-93.599 Y-36.066 Z-0.425
X-93.62 Y-36.105 Z-0.427
X-93.627 Y-36.149 Z-0.428
X-93.618 Y-36.192 Z-0.43
X-93.595 Y-36.23 Z-0.431
X-93.559 Y-36.257 Z-0.433
X-93.517 Y-36.27 Z-0.434
X-93.472 Y-36.267 Z-0.436
X-93.432 Y-36.249 Z-0.438
X-93.4 Y-36.218 Z-0.439
X-93.381 Y-36.177 Z-0.441
X-93.378 Y-36.133 Z-0.442
X-93.391 Y-36.09 Z-0.444
X-93.417 Y-36.054 Z-0.445
X-93.455 Y-36.03 Z-0.447
X-93.498 Y-36.021 Z-0.448
X-93.542 Y-36.027 Z-0.45
X-93.581 Y-36.049 Z-0.452
X-93.61 Y-36.083 Z-0.453
X-93.626 Y-36.124 Z-0.455
X-93.625 Y-36.169 Z-0.456
X-93.609 Y-36.21 Z-0.458
X-93.58 Y-36.244 Z-0.459
X-93.541 Y-36.265 Z-0.461
X-93.497 Y-36.271 Z-0.463
X-93.453 Y-36.261 Z-0.464
X-93.416 Y-36.236 Z-0.466
X-93.39 Y-36.2 Z-0.467
X-93.378 Y-36.157 Z-0.469
X-93.382 Y-36.113 Z-0.47
X-93.401 Y-36.073 Z-0.472
X-93.433 Y-36.042 Z-0.473
X-93.474 Y-36.024 Z-0.475
X-93.518 Y-36.022 Z-0.477
X-93.561 Y-36.035 Z-0.478
X-93.596 Y-36.063 Z-0.48
X-93.619 Y-36.101 Z-0.481
X-93.627 Y-36.144 Z-0.483
X-93.62 Y-36.188 Z-0.484
X-93.598 Y-36.227 Z-0.486
X-93.563 Y-36.255 Z-0.488
X-93.521 Y-36.269 Z-0.489
X-93.477 Y-36.268 Z-0.491
X-93.435 Y-36.251 Z-0.492
X-93.403 Y-36.221 Z-0.494
X-93.383 Y-36.181 Z-0.495
X-93.378 Y-36.137 Z-0.497
X-93.389 Y-36.094 Z-0.498
X-93.414 Y-36.057 Z-0.5
G3 X-93.591 Y-36.234 I-0.088 J-0.088 F2540
X-93.414 Y-36.057 I0.088 J0.088
G1 X-93.451 Y-36.032 Z-0.502 F1016
X-93.494 Y-36.021 Z-0.503
X-93.538 Y-36.026 Z-0.505
X-93.578 Y-36.046 Z-0.506
X-93.608 Y-36.079 Z-0.508
X-93.625 Y-36.12 Z-0.509
X-93.626 Y-36.164 Z-0.511
X-93.612 Y-36.207 Z-0.513
X-93.583 Y-36.241 Z-0.514
X-93.545 Y-36.263 Z-0.516
X-93.501 Y-36.271 Z-0.517
X-93.457 Y-36.262 Z-0.519
X-93.419 Y-36.239 Z-0.52
X-93.392 Y-36.204 Z-0.522
X-93.378 Y-36.162 Z-0.523
X-93.381 Y-36.117 Z-0.525
X-93.398 Y-36.076 Z-0.527
X-93.429 Y-36.044 Z-0.528
X-93.47 Y-36.025 Z-0.53
X-93.514 Y-36.021 Z-0.531
X-93.557 Y-36.033 Z-0.533
X-93.593 Y-36.059 Z-0.534
X-93.617 Y-36.097 Z-0.536
X-93.627 Y-36.14 Z-0.538
X-93.621 Y-36.184 Z-0.539
X-93.6 Y-36.223 Z-0.541
X-93.567 Y-36.253 Z-0.542
X-93.525 Y-36.269 Z-0.544
X-93.481 Z-0.545
X-93.439 Y-36.254 Z-0.547
X-93.405 Y-36.225 Z-0.548
X-93.384 Y-36.186 Z-0.55
X-93.377 Y-36.142 Z-0.552
X-93.387 Y-36.098 Z-0.553
X-93.411 Y-36.061 Z-0.555
X-93.447 Y-36.034 Z-0.556
X-93.489 Y-36.022 Z-0.558
X-93.534 Y-36.025 Z-0.559
X-93.574 Y-36.043 Z-0.561
X-93.605 Y-36.075 Z-0.563
X-93.624 Y-36.116 Z-0.564
X-93.627 Y-36.16 Z-0.566
X-93.614 Y-36.203 Z-0.567
X-93.587 Y-36.238 Z-0.569
X-93.549 Y-36.262 Z-0.57
X-93.505 Y-36.271 Z-0.572
X-93.461 Y-36.264 Z-0.573
X-93.423 Y-36.242 Z-0.575
X-93.394 Y-36.208 Z-0.577
X-93.379 Y-36.166 Z-0.578
X-93.38 Y-36.122 Z-0.58
X-93.396 Y-36.08 Z-0.581
X-93.426 Y-36.047 Z-0.583
X-93.465 Y-36.026 Z-0.584
X-93.509 Y-36.021 Z-0.586
X-93.553 Y-36.031 Z-0.588
X-93.59 Y-36.056 Z-0.589
X-93.615 Y-36.093 Z-0.591
X-93.627 Y-36.136 Z-0.592
X-93.623 Y-36.18 Z-0.594
X-93.603 Y-36.22 Z-0.595
X-93.571 Y-36.25 Z-0.597
X-93.53 Y-36.268 Z-0.598
X-93.485 Y-36.27 Z-0.6
X-93.443 Y-36.256 Z-0.602
X-93.408 Y-36.228 Z-0.603
X-93.385 Y-36.19 Z-0.605
X-93.377 Y-36.146 Z-0.606
X-93.385 Y-36.102 Z-0.608
X-93.408 Y-36.064 Z-0.609
X-93.443 Y-36.036 Z-0.611
X-93.485 Y-36.022 Z-0.613
X-93.529 Y-36.024 Z-0.614
X-93.57 Y-36.041 Z-0.616
X-93.603 Y-36.071 Z-0.617
X-93.623 Y-36.111 Z-0.619
X-93.627 Y-36.156 Z-0.62
X-93.616 Y-36.199 Z-0.622
X-93.59 Y-36.235 Z-0.623
X-93.553 Y-36.26 Z-0.625
X-93.51 Y-36.271 Z-0.627
X-93.466 Y-36.265 Z-0.628
X-93.426 Y-36.245 Z-0.63
X-93.396 Y-36.212 Z-0.631
X-93.38 Y-36.17 Z-0.633
X-93.379 Y-36.126 Z-0.634
X-93.394 Y-36.084 Z-0.636
X-93.422 Y-36.05 Z-0.638
X-93.461 Y-36.028 Z-0.639
X-93.505 Y-36.021 Z-0.641
X-93.549 Y-36.03 Z-0.642
X-93.586 Y-36.053 Z-0.644
X-93.613 Y-36.089 Z-0.645
X-93.627 Y-36.131 Z-0.647
X-93.624 Y-36.176 Z-0.648
X-93.606 Y-36.216 Z-0.65
X-93.574 Y-36.248 Z-0.652
X-93.534 Y-36.267 Z-0.653
X-93.49 Y-36.27 Z-0.655
X-93.447 Y-36.258 Z-0.656
X-93.411 Y-36.231 Z-0.658
X-93.387 Y-36.194 Z-0.659
X-93.378 Y-36.15 Z-0.661
X-93.384 Y-36.106 Z-0.663
X-93.405 Y-36.067 Z-0.664
X-93.439 Y-36.038 Z-0.666
X-93.481 Y-36.023 Z-0.667
X-93.525 Z-0.669
X-93.567 Y-36.039 Z-0.67
X-93.6 Y-36.068 Z-0.672
X-93.621 Y-36.107 Z-0.673
X-93.627 Y-36.151 Z-0.675
X-93.617 Y-36.195 Z-0.677
X-93.593 Y-36.232 Z-0.678
X-93.557 Y-36.258 Z-0.68
X-93.514 Y-36.27 Z-0.681
X-93.47 Y-36.266 Z-0.683
X-93.43 Y-36.247 Z-0.684
X-93.399 Y-36.216 Z-0.686
X-93.381 Y-36.175 Z-0.688
X-93.378 Y-36.13 Z-0.689
X-93.392 Y-36.088 Z-0.691
X-93.419 Y-36.053 Z-0.692
X-93.457 Y-36.029 Z-0.694
X-93.501 Y-36.021 Z-0.695
X-93.544 Y-36.028 Z-0.697
X-93.583 Y-36.05 Z-0.698
X-93.611 Y-36.085 Z-0.7
X-93.626 Y-36.127 Z-0.702
X-93.625 Y-36.171 Z-0.703
X-93.608 Y-36.212 Z-0.705
X-93.578 Y-36.245 Z-0.706
X-93.538 Y-36.265 Z-0.708
X-93.494 Y-36.271 Z-0.709
X-93.451 Y-36.26 Z-0.711
X-93.414 Y-36.234 Z-0.713
X-93.389 Y-36.198 Z-0.714
X-93.378 Y-36.155 Z-0.716
X-93.382 Y-36.111 Z-0.717
X-93.402 Y-36.071 Z-0.719
X-93.435 Y-36.041 Z-0.72
X-93.476 Y-36.024 Z-0.722
X-93.521 Y-36.022 Z-0.723
X-93.563 Y-36.036 Z-0.725
X-93.597 Y-36.065 Z-0.727
X-93.62 Y-36.103 Z-0.728
X-93.627 Y-36.147 Z-0.73
X-93.619 Y-36.191 Z-0.731
X-93.596 Y-36.229 Z-0.733
X-93.561 Y-36.256 Z-0.734
X-93.519 Y-36.27 Z-0.736
X-93.474 Y-36.268 Z-0.738
X-93.433 Y-36.25 Z-0.739
X-93.401 Y-36.219 Z-0.741
X-93.382 Y-36.179 Z-0.742
X-93.378 Y-36.135 Z-0.744
X-93.39 Y-36.092 Z-0.745
X-93.416 Y-36.056 Z-0.747
X-93.453 Y-36.031 Z-0.748
X-93.496 Y-36.021 Z-0.75
X-93.54 Y-36.027 Z-0.752
X-93.58 Y-36.048 Z-0.753
X-93.609 Y-36.081 Z-0.755
X-93.625 Y-36.122 Z-0.756
X-93.626 Y-36.167 Z-0.758
X-93.61 Y-36.209 Z-0.759
X-93.582 Y-36.243 Z-0.761
X-93.543 Y-36.264 Z-0.763
X-93.499 Y-36.271 Z-0.764
X-93.455 Y-36.261 Z-0.766
X-93.418 Y-36.238 Z-0.767
X-93.391 Y-36.202 Z-0.769
X-93.378 Y-36.159 Z-0.77
X-93.381 Y-36.115 Z-0.772
X-93.4 Y-36.074 Z-0.773
X-93.431 Y-36.043 Z-0.775
X-93.472 Y-36.025 Z-0.777
X-93.516 Y-36.022 Z-0.778
X-93.559 Y-36.034 Z-0.78
X-93.594 Y-36.061 Z-0.781
X-93.618 Y-36.099 Z-0.783
X-93.627 Y-36.142 Z-0.784
X-93.621 Y-36.186 Z-0.786
X-93.599 Y-36.225 Z-0.788
X-93.565 Y-36.254 Z-0.789
X-93.523 Y-36.269 Z-0.791
X-93.479 Y-36.268 Z-0.792
X-93.437 Y-36.252 Z-0.794
X-93.404 Y-36.223 Z-0.795
X-93.383 Y-36.183 Z-0.797
X-93.378 Y-36.139 Z-0.798
X-93.388 Y-36.096 Z-0.8
X-93.413 Y-36.059 Z-0.802
X-93.449 Y-36.033 Z-0.803
X-93.492 Y-36.021 Z-0.805
X-93.536 Y-36.025 Z-0.806
X-93.576 Y-36.045 Z-0.808
X-93.607 Y-36.077 Z-0.809
X-93.624 Y-36.118 Z-0.811
X-93.626 Y-36.162 Z-0.813
X-93.613 Y-36.205 Z-0.814
X-93.585 Y-36.24 Z-0.816
X-93.547 Y-36.263 Z-0.817
X-93.503 Y-36.271 Z-0.819
X-93.459 Y-36.263 Z-0.82
X-93.421 Y-36.241 Z-0.822
X-93.393 Y-36.206 Z-0.823
X-93.379 Y-36.164 Z-0.825
X-93.38 Y-36.119 Z-0.827
X-93.397 Y-36.078 Z-0.828
X-93.428 Y-36.046 Z-0.83
X-93.468 Y-36.026 Z-0.831
X-93.512 Y-36.021 Z-0.833
X-93.555 Y-36.032 Z-0.834
X-93.591 Y-36.058 Z-0.836
X-93.616 Y-36.095 Z-0.838
X-93.627 Y-36.138 Z-0.839
X-93.622 Y-36.182 Z-0.841
X-93.602 Y-36.222 Z-0.842
X-93.569 Y-36.252 Z-0.844
X-93.527 Y-36.268 Z-0.845
X-93.483 Y-36.269 Z-0.847
X-93.441 Y-36.255 Z-0.848
X-93.407 Y-36.226 Z-0.85
X-93.385 Y-36.188 Z-0.852
X-93.377 Y-36.144 Z-0.853
X-93.386 Y-36.1 Z-0.855
X-93.41 Y-36.062 Z-0.856
X-93.445 Y-36.035 Z-0.858
X-93.487 Y-36.022 Z-0.859
X-93.532 Y-36.024 Z-0.861
X-93.572 Y-36.042 Z-0.863
X-93.604 Y-36.073 Z-0.864
X-93.623 Y-36.114 Z-0.866
X-93.627 Y-36.158 Z-0.867
X-93.615 Y-36.201 Z-0.869
X-93.588 Y-36.237 Z-0.87
X-93.551 Y-36.261 Z-0.872
X-93.507 Y-36.271 Z-0.873
X-93.463 Y-36.265 Z-0.875
X-93.424 Y-36.243 Z-0.877
X-93.395 Y-36.21 Z-0.878
X-93.379 Y-36.168 Z-0.88
Y-36.124 Z-0.881
X-93.395 Y-36.082 Z-0.883
X-93.424 Y-36.048 Z-0.884
X-93.463 Y-36.027 Z-0.886
X-93.507 Y-36.021 Z-0.888
X-93.551 Y-36.031 Z-0.889
X-93.588 Y-36.055 Z-0.891
X-93.615 Y-36.091 Z-0.892
X-93.627 Y-36.133 Z-0.894
X-93.623 Y-36.178 Z-0.895
X-93.604 Y-36.218 Z-0.897
X-93.573 Y-36.249 Z-0.898
X-93.532 Y-36.267 Z-0.9
X-93.487 Y-36.27 Z-0.902
X-93.445 Y-36.257 Z-0.903
X-93.41 Y-36.23 Z-0.905
X-93.386 Y-36.192 Z-0.906
X-93.377 Y-36.148 Z-0.908
X-93.385 Y-36.104 Z-0.909
X-93.407 Y-36.065 Z-0.911
X-93.441 Y-36.037 Z-0.913
X-93.483 Y-36.022 Z-0.914
X-93.527 Y-36.023 Z-0.916
X-93.569 Y-36.04 Z-0.917
X-93.602 Y-36.07 Z-0.919
X-93.622 Y-36.109 Z-0.92
X-93.627 Y-36.154 Z-0.922
X-93.616 Y-36.197 Z-0.923
X-93.591 Y-36.234 Z-0.925
X-93.555 Y-36.259 Z-0.927
X-93.512 Y-36.27 Z-0.928
X-93.468 Y-36.266 Z-0.93
X-93.428 Y-36.246 Z-0.931
X-93.397 Y-36.214 Z-0.933
X-93.38 Y-36.172 Z-0.934
X-93.379 Y-36.128 Z-0.936
X-93.393 Y-36.086 Z-0.938
X-93.421 Y-36.051 Z-0.939
X-93.459 Y-36.029 Z-0.941
X-93.503 Y-36.021 Z-0.942
X-93.547 Y-36.029 Z-0.944
X-93.585 Y-36.052 Z-0.945
X-93.613 Y-36.087 Z-0.947
X-93.626 Y-36.129 Z-0.948
X-93.624 Y-36.174 Z-0.95
X-93.607 Y-36.214 Z-0.952
X-93.576 Y-36.247 Z-0.953
X-93.536 Y-36.266 Z-0.955
X-93.492 Y-36.27 Z-0.956
X-93.449 Y-36.259 Z-0.958
X-93.413 Y-36.233 Z-0.959
X-93.388 Y-36.196 Z-0.961
X-93.378 Y-36.153 Z-0.963
X-93.383 Y-36.108 Z-0.964
X-93.404 Y-36.069 Z-0.966
X-93.437 Y-36.039 Z-0.967
X-93.479 Y-36.023 Z-0.969
X-93.523 Z-0.97
X-93.565 Y-36.038 Z-0.972
X-93.599 Y-36.066 Z-0.973
X-93.621 Y-36.105 Z-0.975
X-93.627 Y-36.149 Z-0.977
X-93.618 Y-36.193 Z-0.978
X-93.594 Y-36.23 Z-0.98
X-93.559 Y-36.257 Z-0.981
X-93.516 Y-36.27 Z-0.983
X-93.472 Y-36.267 Z-0.984
X-93.431 Y-36.249 Z-0.986
X-93.4 Y-36.217 Z-0.988
X-93.381 Y-36.177 Z-0.989
X-93.378 Y-36.132 Z-0.991
X-93.391 Y-36.09 Z-0.992
X-93.417 Y-36.054 Z-0.994
X-93.455 Y-36.03 Z-0.995
X-93.499 Y-36.021 Z-0.997
X-93.543 Y-36.027 Z-0.998
X-93.581 Y-36.049 Z-1
G3 X-93.423 Y-36.243 I0.079 J-0.097 F2540
X-93.581 Y-36.049 I-0.079 J0.097
G1 X-93.61 Y-36.083 Z-1.002 F1016
X-93.626 Y-36.125 Z-1.003
X-93.625 Y-36.169 Z-1.005
X-93.609 Y-36.211 Z-1.006
X-93.58 Y-36.244 Z-1.008
X-93.54 Y-36.265 Z-1.009
X-93.496 Y-36.271 Z-1.011
X-93.453 Y-36.261 Z-1.012
X-93.416 Y-36.236 Z-1.014
X-93.39 Y-36.2 Z-1.016
X-93.378 Y-36.157 Z-1.017
X-93.382 Y-36.113 Z-1.019
X-93.401 Y-36.072 Z-1.02
X-93.433 Y-36.042 Z-1.022
X-93.474 Y-36.024 Z-1.023
X-93.519 Y-36.022 Z-1.025
X-93.561 Y-36.035 Z-1.027
X-93.596 Y-36.063 Z-1.028
X-93.619 Y-36.101 Z-1.03
X-93.627 Y-36.145 Z-1.031
X-93.62 Y-36.189 Z-1.033
X-93.597 Y-36.227 Z-1.034
X-93.563 Y-36.255 Z-1.036
X-93.521 Y-36.269 Z-1.038
X-93.476 Y-36.268 Z-1.039
X-93.435 Y-36.251 Z-1.041
X-93.402 Y-36.221 Z-1.042
X-93.383 Y-36.181 Z-1.044
X-93.378 Y-36.137 Z-1.045
X-93.389 Y-36.094 Z-1.047
X-93.414 Y-36.057 Z-1.048
X-93.451 Y-36.032 Z-1.05
X-93.494 Y-36.021 Z-1.052
X-93.538 Y-36.026 Z-1.053
X-93.578 Y-36.046 Z-1.055
X-93.608 Y-36.079 Z-1.056
X-93.625 Y-36.12 Z-1.058
X-93.626 Y-36.165 Z-1.059
X-93.611 Y-36.207 Z-1.061
X-93.583 Y-36.241 Z-1.063
X-93.545 Y-36.263 Z-1.064
X-93.501 Y-36.271 Z-1.066
X-93.457 Y-36.262 Z-1.067
X-93.419 Y-36.239 Z-1.069
X-93.392 Y-36.204 Z-1.07
X-93.378 Y-36.161 Z-1.072
X-93.381 Y-36.117 Z-1.073
X-93.399 Y-36.076 Z-1.075
X-93.43 Y-36.044 Z-1.077
X-93.47 Y-36.025 Z-1.078
X-93.514 Y-36.021 Z-1.08
X-93.557 Y-36.033 Z-1.081
X-93.593 Y-36.06 Z-1.083
X-93.617 Y-36.097 Z-1.084
X-93.627 Y-36.14 Z-1.086
X-93.621 Y-36.184 Z-1.087
X-93.6 Y-36.224 Z-1.089
X-93.567 Y-36.253 Z-1.091
X-93.525 Y-36.269 Z-1.092
X-93.481 Z-1.094
X-93.439 Y-36.253 Z-1.095
X-93.405 Y-36.224 Z-1.097
X-93.384 Y-36.185 Z-1.098
X-93.378 Y-36.141 Z-1.1
X-93.387 Y-36.098 Z-1.102
X-93.411 Y-36.06 Z-1.103
X-93.447 Y-36.034 Z-1.105
X-93.49 Y-36.021 Z-1.106
X-93.534 Y-36.025 Z-1.108
X-93.574 Y-36.044 Z-1.109
X-93.606 Y-36.075 Z-1.111
X-93.624 Y-36.116 Z-1.113
X-93.627 Y-36.16 Z-1.114
X-93.614 Y-36.203 Z-1.116
X-93.586 Y-36.238 Z-1.117
X-93.549 Y-36.262 Z-1.119
X-93.505 Y-36.271 Z-1.12
X-93.461 Y-36.264 Z-1.122
X-93.422 Y-36.242 Z-1.123
X-93.394 Y-36.208 Z-1.125
X-93.379 Y-36.166 Z-1.127
X-93.38 Y-36.121 Z-1.128
X-93.396 Y-36.08 Z-1.13
X-93.426 Y-36.047 Z-1.131
X-93.466 Y-36.026 Z-1.133
X-93.51 Y-36.021 Z-1.134
X-93.553 Y-36.032 Z-1.136
X-93.59 Y-36.057 Z-1.137
X-93.616 Y-36.093 Z-1.139
X-93.627 Y-36.136 Z-1.141
X-93.623 Y-36.18 Z-1.142
X-93.603 Y-36.22 Z-1.144
X-93.571 Y-36.251 Z-1.145
X-93.529 Y-36.268 Z-1.147
X-93.485 Y-36.27 Z-1.148
X-93.443 Y-36.256 Z-1.15
X-93.408 Y-36.228 Z-1.152
X-93.385 Y-36.189 Z-1.153
X-93.377 Y-36.146 Z-1.155
X-93.385 Y-36.102 Z-1.156
X-93.408 Y-36.064 Z-1.158
X-93.443 Y-36.036 Z-1.159
X-93.485 Y-36.022 Z-1.161
X-93.53 Y-36.024 Z-1.163
X-93.571 Y-36.041 Z-1.164
X-93.603 Y-36.072 Z-1.166
X-93.623 Y-36.112 Z-1.167
X-93.627 Y-36.156 Z-1.169
X-93.615 Y-36.199 Z-1.17
X-93.59 Y-36.235 Z-1.172
X-93.553 Y-36.26 Z-1.173
X-93.51 Y-36.271 Z-1.175
X-93.465 Y-36.265 Z-1.177
X-93.426 Y-36.245 Z-1.178
X-93.396 Y-36.212 Z-1.18
X-93.38 Y-36.17 Z-1.181
X-93.379 Y-36.126 Z-1.183
X-93.394 Y-36.084 Z-1.184
X-93.423 Y-36.05 Z-1.186
X-93.461 Y-36.028 Z-1.188
X-93.505 Y-36.021 Z-1.189
X-93.549 Y-36.03 Z-1.191
X-93.587 Y-36.053 Z-1.192
X-93.614 Y-36.089 Z-1.194
X-93.627 Y-36.131 Z-1.195
X-93.624 Y-36.176 Z-1.197
X-93.605 Y-36.216 Z-1.198
X-93.574 Y-36.248 Z-1.2
X-93.534 Y-36.267 Z-1.202
X-93.489 Y-36.27 Z-1.203
X-93.447 Y-36.258 Z-1.205
X-93.411 Y-36.231 Z-1.206
X-93.387 Y-36.194 Z-1.208
X-93.378 Y-36.15 Z-1.209
X-93.384 Y-36.106 Z-1.211
X-93.405 Y-36.067 Z-1.212
X-93.439 Y-36.038 Z-1.214
X-93.481 Y-36.023 Z-1.216
X-93.525 Z-1.217
X-93.567 Y-36.039 Z-1.219
X-93.6 Y-36.068 Z-1.22
X-93.621 Y-36.107 Z-1.222
X-93.627 Y-36.152 Z-1.223
X-93.617 Y-36.195 Z-1.225
X-93.593 Y-36.232 Z-1.227
X-93.557 Y-36.258 Z-1.228
X-93.514 Y-36.27 Z-1.23
X-93.47 Y-36.266 Z-1.231
X-93.429 Y-36.247 Z-1.233
X-93.399 Y-36.215 Z-1.234
X-93.381 Y-36.174 Z-1.236
X-93.378 Y-36.13 Z-1.238
X-93.392 Y-36.088 Z-1.239
X-93.419 Y-36.053 Z-1.241
X-93.457 Y-36.029 Z-1.242
X-93.501 Y-36.021 Z-1.244
X-93.545 Y-36.028 Z-1.245
X-93.583 Y-36.051 Z-1.247
X-93.612 Y-36.085 Z-1.248
X-93.626 Y-36.127 Z-1.25
X-93.625 Y-36.172 Z-1.252
X-93.608 Y-36.213 Z-1.253
X-93.578 Y-36.245 Z-1.255
X-93.538 Y-36.266 Z-1.256
X-93.494 Y-36.27 Z-1.258
X-93.451 Y-36.26 Z-1.259
X-93.414 Y-36.234 Z-1.261
X-93.389 Y-36.198 Z-1.262
X-93.378 Y-36.155 Z-1.264
X-93.383 Y-36.11 Z-1.266
X-93.403 Y-36.071 Z-1.267
X-93.435 Y-36.04 Z-1.269
X-93.476 Y-36.024 Z-1.27
X-93.521 Y-36.022 Z-1.272
X-93.563 Y-36.037 Z-1.273
X-93.598 Y-36.065 Z-1.275
X-93.62 Y-36.103 Z-1.277
X-93.627 Y-36.147 Z-1.278
X-93.619 Y-36.191 Z-1.28
X-93.596 Y-36.229 Z-1.281
X-93.561 Y-36.256 Z-1.283
X-93.518 Y-36.27 Z-1.284
X-93.474 Y-36.267 Z-1.286
X-93.433 Y-36.25 Z-1.288
X-93.401 Y-36.219 Z-1.289
X-93.382 Y-36.179 Z-1.291
X-93.378 Y-36.134 Z-1.292
X-93.39 Y-36.092 Z-1.294
X-93.416 Y-36.056 Z-1.295
X-93.453 Y-36.031 Z-1.297
X-93.496 Y-36.021 Z-1.298
X-93.541 Y-36.027 Z-1.3
X-93.58 Y-36.048 Z-1.302
X-93.609 Y-36.081 Z-1.303
X-93.625 Y-36.123 Z-1.305
X-93.626 Y-36.167 Z-1.306
X-93.61 Y-36.209 Z-1.308
X-93.581 Y-36.243 Z-1.309
X-93.542 Y-36.264 Z-1.311
X-93.498 Y-36.271 Z-1.313
X-93.455 Y-36.261 Z-1.314
X-93.417 Y-36.237 Z-1.316
X-93.391 Y-36.202 Z-1.317
X-93.378 Y-36.159 Z-1.319
X-93.381 Y-36.115 Z-1.32
X-93.4 Y-36.074 Z-1.322
X-93.432 Y-36.043 Z-1.323
X-93.472 Y-36.025 Z-1.325
X-93.517 Y-36.022 Z-1.327
X-93.559 Y-36.034 Z-1.328
X-93.595 Y-36.061 Z-1.33
X-93.618 Y-36.099 Z-1.331
X-93.627 Y-36.143 Z-1.333
X-93.621 Y-36.187 Z-1.334
X-93.599 Y-36.225 Z-1.336
X-93.565 Y-36.254 Z-1.337
X-93.523 Y-36.269 Z-1.339
X-93.478 Y-36.268 Z-1.341
X-93.437 Y-36.252 Z-1.342
X-93.404 Y-36.222 Z-1.344
X-93.383 Y-36.183 Z-1.345
X-93.378 Y-36.139 Z-1.347
X-93.388 Y-36.096 Z-1.348
X-93.413 Y-36.059 Z-1.35
X-93.449 Y-36.033 Z-1.352
X-93.492 Y-36.021 Z-1.353
X-93.536 Y-36.026 Z-1.355
X-93.576 Y-36.045 Z-1.356
X-93.607 Y-36.077 Z-1.358
X-93.624 Y-36.118 Z-1.359
X-93.626 Y-36.163 Z-1.361
X-93.612 Y-36.205 Z-1.363
X-93.585 Y-36.24 Z-1.364
X-93.546 Y-36.263 Z-1.366
X-93.503 Y-36.271 Z-1.367
X-93.459 Y-36.263 Z-1.369
X-93.421 Y-36.24 Z-1.37
X-93.393 Y-36.206 Z-1.372
X-93.379 Y-36.163 Z-1.373
X-93.38 Y-36.119 Z-1.375
X-93.398 Y-36.078 Z-1.377
X-93.428 Y-36.045 Z-1.378
X-93.468 Y-36.026 Z-1.38
X-93.512 Y-36.021 Z-1.381
X-93.555 Y-36.033 Z-1.383
X-93.592 Y-36.058 Z-1.384
X-93.617 Y-36.095 Z-1.386
X-93.627 Y-36.138 Z-1.387
X-93.622 Y-36.182 Z-1.389
X-93.601 Y-36.222 Z-1.391
X-93.569 Y-36.252 Z-1.392
X-93.527 Y-36.268 Z-1.394
X-93.483 Y-36.269 Z-1.395
X-93.441 Y-36.254 Z-1.397
X-93.406 Y-36.226 Z-1.398
X-93.384 Y-36.187 Z-1.4
X-93.377 Y-36.143 Z-1.402
X-93.386 Y-36.1 Z-1.403
X-93.41 Y-36.062 Z-1.405
X-93.445 Y-36.035 Z-1.406
X-93.488 Y-36.022 Z-1.408
X-93.532 Y-36.024 Z-1.409
X-93.573 Y-36.042 Z-1.411
X-93.604 Y-36.074 Z-1.413
X-93.623 Y-36.114 Z-1.414
X-93.627 Y-36.158 Z-1.416
X-93.614 Y-36.201 Z-1.417
X-93.588 Y-36.237 Z-1.419
X-93.551 Y-36.261 Z-1.42
X-93.507 Y-36.271 Z-1.422
X-93.463 Y-36.264 Z-1.423
X-93.424 Y-36.243 Z-1.425
X-93.395 Y-36.209 Z-1.427
X-93.379 Y-36.168 Z-1.428
Y-36.123 Z-1.43
X-93.395 Y-36.082 Z-1.431
X-93.424 Y-36.048 Z-1.433
X-93.464 Y-36.027 Z-1.434
X-93.508 Y-36.021 Z-1.436
X-93.551 Y-36.031 Z-1.438
X-93.588 Y-36.055 Z-1.439
X-93.615 Y-36.091 Z-1.441
X-93.627 Y-36.134 Z-1.442
X-93.623 Y-36.178 Z-1.444
X-93.604 Y-36.218 Z-1.445
X-93.572 Y-36.249 Z-1.447
X-93.531 Y-36.267 Z-1.448
X-93.487 Y-36.27 Z-1.45
X-93.445 Y-36.257 Z-1.452
X-93.409 Y-36.229 Z-1.453
X-93.386 Y-36.191 Z-1.455
X-93.377 Y-36.148 Z-1.456
X-93.385 Y-36.104 Z-1.458
X-93.407 Y-36.065 Z-1.459
X-93.441 Y-36.037 Z-1.461
X-93.483 Y-36.022 Z-1.462
X-93.528 Y-36.023 Z-1.464
X-93.569 Y-36.04 Z-1.466
X-93.602 Y-36.07 Z-1.467
X-93.622 Y-36.11 Z-1.469
X-93.627 Y-36.154 Z-1.47
X-93.616 Y-36.197 Z-1.472
X-93.591 Y-36.234 Z-1.473
X-93.555 Y-36.259 Z-1.475
X-93.512 Y-36.27 Z-1.477
X-93.467 Y-36.266 Z-1.478
X-93.428 Y-36.246 Z-1.48
X-93.397 Y-36.213 Z-1.481
X-93.38 Y-36.172 Z-1.483
X-93.379 Y-36.128 Z-1.484
X-93.393 Y-36.085 Z-1.486
X-93.421 Y-36.051 Z-1.488
X-93.459 Y-36.028 Z-1.489
X-93.503 Y-36.021 Z-1.491
X-93.547 Y-36.029 Z-1.492
X-93.585 Y-36.052 Z-1.494
X-93.613 Y-36.087 Z-1.495
X-93.626 Y-36.129 Z-1.497
X-93.624 Y-36.174 Z-1.498
X-93.607 Y-36.215 Z-1.5
G3 X-93.398 Y-36.077 I0.104 J0.069 F2540
X-93.607 Y-36.215 I-0.104 J-0.069
G1 X-93.576 Y-36.247 Z-1.502 F1016
X-93.536 Y-36.266 Z-1.503
X-93.491 Y-36.27 Z-1.505
X-93.449 Y-36.259 Z-1.506
X-93.412 Y-36.233 Z-1.508
X-93.388 Y-36.196 Z-1.509
X-93.378 Y-36.152 Z-1.511
X-93.383 Y-36.108 Z-1.513
X-93.404 Y-36.069 Z-1.514
X-93.437 Y-36.039 Z-1.516
X-93.479 Y-36.023 Z-1.517
X-93.523 Z-1.519
X-93.565 Y-36.038 Z-1.52
X-93.599 Y-36.067 Z-1.522
X-93.621 Y-36.105 Z-1.523
X-93.627 Y-36.15 Z-1.525
X-93.618 Y-36.193 Z-1.527
X-93.594 Y-36.231 Z-1.528
X-93.559 Y-36.257 Z-1.53
X-93.516 Y-36.27 Z-1.531
X-93.472 Y-36.267 Z-1.533
X-93.431 Y-36.248 Z-1.534
X-93.4 Y-36.217 Z-1.536
X-93.381 Y-36.176 Z-1.538
X-93.378 Y-36.132 Z-1.539
X-93.391 Y-36.089 Z-1.541
X-93.418 Y-36.054 Z-1.542
X-93.455 Y-36.03 Z-1.544
X-93.499 Y-36.021 Z-1.545
X-93.543 Y-36.028 Z-1.547
X-93.582 Y-36.049 Z-1.548
X-93.611 Y-36.083 Z-1.55
X-93.626 Y-36.125 Z-1.552
X-93.625 Y-36.17 Z-1.553
X-93.609 Y-36.211 Z-1.555
X-93.579 Y-36.244 Z-1.556
X-93.54 Y-36.265 Z-1.558
X-93.496 Y-36.271 Z-1.559
X-93.453 Y-36.26 Z-1.561
X-93.416 Y-36.236 Z-1.563
X-93.39 Y-36.2 Z-1.564
X-93.378 Y-36.157 Z-1.566
X-93.382 Y-36.112 Z-1.567
X-93.401 Y-36.072 Z-1.569
X-93.434 Y-36.041 Z-1.57
X-93.474 Y-36.024 Z-1.572
X-93.519 Y-36.022 Z-1.573
X-93.561 Y-36.036 Z-1.575
X-93.596 Y-36.063 Z-1.577
X-93.619 Y-36.101 Z-1.578
X-93.627 Y-36.145 Z-1.58
X-93.62 Y-36.189 Z-1.581
X-93.597 Y-36.227 Z-1.583
X-93.563 Y-36.255 Z-1.584
X-93.52 Y-36.269 Z-1.586
X-93.476 Y-36.268 Z-1.587
X-93.435 Y-36.251 Z-1.589
X-93.402 Y-36.221 Z-1.591
X-93.382 Y-36.181 Z-1.592
X-93.378 Y-36.136 Z-1.594
X-93.389 Y-36.093 Z-1.595
X-93.415 Y-36.057 Z-1.597
X-93.451 Y-36.032 Z-1.598
X-93.494 Y-36.021 Z-1.6
X-93.539 Y-36.026 Z-1.602
X-93.578 Y-36.046 Z-1.603
X-93.608 Y-36.079 Z-1.605
X-93.625 Y-36.121 Z-1.606
X-93.626 Y-36.165 Z-1.608
X-93.611 Y-36.207 Z-1.609
X-93.583 Y-36.241 Z-1.611
X-93.544 Y-36.264 Z-1.613
X-93.5 Y-36.271 Z-1.614
X-93.457 Y-36.262 Z-1.616
X-93.419 Y-36.239 Z-1.617
X-93.392 Y-36.204 Z-1.619
X-93.378 Y-36.161 Z-1.62
X-93.381 Y-36.117 Z-1.622
X-93.399 Y-36.076 Z-1.623
X-93.43 Y-36.044 Z-1.625
X-93.47 Y-36.025 Z-1.627
X-93.515 Y-36.021 Z-1.628
X-93.557 Y-36.034 Z-1.63
X-93.593 Y-36.06 Z-1.631
X-93.618 Y-36.097 Z-1.633
X-93.627 Y-36.141 Z-1.634
X-93.621 Y-36.185 Z-1.636
X-93.6 Y-36.224 Z-1.638
X-93.566 Y-36.253 Z-1.639
X-93.525 Y-36.269 Z-1.641
X-93.48 Z-1.642
X-93.439 Y-36.253 Z-1.644
X-93.405 Y-36.224 Z-1.645
X-93.384 Y-36.185 Z-1.647
X-93.378 Y-36.141 Z-1.648
X-93.387 Y-36.097 Z-1.65
X-93.411 Y-36.06 Z-1.652
X-93.447 Y-36.034 Z-1.653
X-93.49 Y-36.021 Z-1.655
X-93.534 Y-36.025 Z-1.656
X-93.575 Y-36.044 Z-1.658
X-93.606 Y-36.076 Z-1.659
X-93.624 Y-36.116 Z-1.661
X-93.626 Y-36.161 Z-1.663
X-93.613 Y-36.203 Z-1.664
X-93.586 Y-36.239 Z-1.666
X-93.548 Y-36.262 Z-1.667
X-93.505 Y-36.271 Z-1.669
X-93.461 Y-36.264 Z-1.67
X-93.422 Y-36.242 Z-1.672
X-93.394 Y-36.207 Z-1.673
X-93.379 Y-36.165 Z-1.675
X-93.38 Y-36.121 Z-1.677
X-93.396 Y-36.08 Z-1.678
X-93.426 Y-36.047 Z-1.68
X-93.466 Y-36.026 Z-1.681
X-93.51 Y-36.021 Z-1.683
X-93.553 Y-36.032 Z-1.684
X-93.59 Y-36.057 Z-1.686
X-93.616 Y-36.093 Z-1.688
X-93.627 Y-36.136 Z-1.689
X-93.622 Y-36.18 Z-1.691
X-93.603 Y-36.22 Z-1.692
X-93.57 Y-36.251 Z-1.694
X-93.529 Y-36.268 Z-1.695
X-93.485 Y-36.27 Z-1.697
X-93.442 Y-36.255 Z-1.698
X-93.408 Y-36.227 Z-1.7
X-93.385 Y-36.189 Z-1.702
X-93.377 Y-36.145 Z-1.703
X-93.386 Y-36.102 Z-1.705
X-93.408 Y-36.063 Z-1.706
X-93.443 Y-36.036 Z-1.708
X-93.486 Y-36.022 Z-1.709
X-93.53 Y-36.024 Z-1.711
X-93.571 Y-36.041 Z-1.712
X-93.603 Y-36.072 Z-1.714
X-93.623 Y-36.112 Z-1.716
X-93.627 Y-36.156 Z-1.717
X-93.615 Y-36.199 Z-1.719
X-93.589 Y-36.235 Z-1.72
X-93.552 Y-36.26 Z-1.722
X-93.509 Y-36.271 Z-1.723
X-93.465 Y-36.265 Z-1.725
X-93.426 Y-36.244 Z-1.727
X-93.396 Y-36.211 Z-1.728
X-93.38 Y-36.17 Z-1.73
X-93.379 Y-36.125 Z-1.731
X-93.394 Y-36.083 Z-1.733
X-93.423 Y-36.049 Z-1.734
X-93.462 Y-36.028 Z-1.736
X-93.506 Y-36.021 Z-1.738
X-93.549 Y-36.03 Z-1.739
X-93.587 Y-36.054 Z-1.741
X-93.614 Y-36.089 Z-1.742
X-93.627 Y-36.132 Z-1.744
X-93.624 Y-36.176 Z-1.745
X-93.605 Y-36.217 Z-1.747
X-93.574 Y-36.248 Z-1.748
X-93.533 Y-36.267 Z-1.75
X-93.489 Y-36.27 Z-1.752
X-93.446 Y-36.258 Z-1.753
X-93.411 Y-36.231 Z-1.755
X-93.387 Y-36.193 Z-1.756
X-93.377 Y-36.15 Z-1.758
X-93.384 Y-36.106 Z-1.759
X-93.406 Y-36.067 Z-1.761
X-93.439 Y-36.038 Z-1.763
X-93.481 Y-36.023 Z-1.764
X-93.526 Z-1.766
X-93.567 Y-36.039 Z-1.767
X-93.601 Y-36.068 Z-1.769
X-93.621 Y-36.108 Z-1.77
X-93.627 Y-36.152 Z-1.772
X-93.617 Y-36.195 Z-1.773
X-93.593 Y-36.232 Z-1.775
X-93.557 Y-36.258 Z-1.777
X-93.514 Y-36.27 Z-1.778
X-93.469 Y-36.266 Z-1.78
X-93.429 Y-36.247 Z-1.781
X-93.398 Y-36.215 Z-1.783
X-93.381 Y-36.174 Z-1.784
X-93.378 Y-36.13 Z-1.786
X-93.392 Y-36.087 Z-1.788
X-93.419 Y-36.052 Z-1.789
X-93.458 Y-36.029 Z-1.791
X-93.501 Y-36.021 Z-1.792
X-93.545 Y-36.028 Z-1.794
X-93.584 Y-36.051 Z-1.795
X-93.612 Y-36.085 Z-1.797
X-93.626 Y-36.127 Z-1.798
X-93.625 Y-36.172 Z-1.8
X-93.608 Y-36.213 Z-1.802
X-93.578 Y-36.246 Z-1.803
X-93.538 Y-36.266 Z-1.805
X-93.494 Y-36.27 Z-1.806
X-93.45 Y-36.259 Z-1.808
X-93.414 Y-36.234 Z-1.809
X-93.389 Y-36.197 Z-1.811
X-93.378 Y-36.154 Z-1.813
X-93.383 Y-36.11 Z-1.814
X-93.403 Y-36.07 Z-1.816
X-93.436 Y-36.04 Z-1.817
X-93.477 Y-36.023 Z-1.819
X-93.521 Y-36.022 Z-1.82
X-93.563 Y-36.037 Z-1.822
X-93.598 Y-36.065 Z-1.823
X-93.62 Y-36.104 Z-1.825
X-93.627 Y-36.147 Z-1.827
X-93.619 Y-36.191 Z-1.828
X-93.596 Y-36.229 Z-1.83
X-93.561 Y-36.256 Z-1.831
X-93.518 Y-36.27 Z-1.833
X-93.474 Y-36.267 Z-1.834
X-93.433 Y-36.25 Z-1.836
X-93.401 Y-36.219 Z-1.837
X-93.382 Y-36.178 Z-1.839
X-93.378 Y-36.134 Z-1.841
X-93.39 Y-36.091 Z-1.842
X-93.416 Y-36.055 Z-1.844
X-93.453 Y-36.031 Z-1.845
X-93.497 Y-36.021 Z-1.847
X-93.541 Y-36.027 Z-1.848
X-93.58 Y-36.048 Z-1.85
X-93.609 Y-36.081 Z-1.852
X-93.625 Y-36.123 Z-1.853
Y-36.167 Z-1.855
X-93.61 Y-36.209 Z-1.856
X-93.581 Y-36.243 Z-1.858
X-93.542 Y-36.264 Z-1.859
X-93.498 Y-36.271 Z-1.861
X-93.454 Y-36.261 Z-1.863
X-93.417 Y-36.237 Z-1.864
X-93.39 Y-36.201 Z-1.866
X-93.378 Y-36.159 Z-1.867
X-93.381 Y-36.114 Z-1.869
X-93.4 Y-36.074 Z-1.87
X-93.432 Y-36.043 Z-1.872
X-93.472 Y-36.024 Z-1.873
X-93.517 Y-36.022 Z-1.875
X-93.559 Y-36.035 Z-1.877
X-93.595 Y-36.062 Z-1.878
X-93.618 Y-36.099 Z-1.88
X-93.627 Y-36.143 Z-1.881
X-93.62 Y-36.187 Z-1.883
X-93.598 Y-36.226 Z-1.884
X-93.564 Y-36.254 Z-1.886
X-93.522 Y-36.269 Z-1.888
X-93.478 Y-36.268 Z-1.889
X-93.437 Y-36.252 Z-1.891
X-93.404 Y-36.222 Z-1.892
X-93.383 Y-36.183 Z-1.894
X-93.378 Y-36.139 Z-1.895
X-93.388 Y-36.095 Z-1.897
X-93.413 Y-36.058 Z-1.898
X-93.449 Y-36.033 Z-1.9
X-93.492 Y-36.021 Z-1.902
X-93.537 Y-36.026 Z-1.903
X-93.577 Y-36.045 Z-1.905
X-93.607 Y-36.078 Z-1.906
X-93.624 Y-36.119 Z-1.908
X-93.626 Y-36.163 Z-1.909
X-93.612 Y-36.205 Z-1.911
X-93.584 Y-36.24 Z-1.913
X-93.546 Y-36.263 Z-1.914
X-93.502 Y-36.271 Z-1.916
X-93.459 Y-36.263 Z-1.917
X-93.42 Y-36.24 Z-1.919
X-93.393 Y-36.205 Z-1.92
X-93.379 Y-36.163 Z-1.922
X-93.38 Y-36.119 Z-1.923
X-93.398 Y-36.078 Z-1.925
X-93.428 Y-36.045 Z-1.927
X-93.468 Y-36.026 Z-1.928
X-93.512 Y-36.021 Z-1.93
X-93.556 Y-36.033 Z-1.931
X-93.592 Y-36.058 Z-1.933
X-93.617 Y-36.095 Z-1.934
X-93.627 Y-36.139 Z-1.936
X-93.622 Y-36.183 Z-1.938
X-93.601 Y-36.222 Z-1.939
X-93.568 Y-36.252 Z-1.941
X-93.527 Y-36.268 Z-1.942
X-93.482 Y-36.269 Z-1.944
X-93.44 Y-36.254 Z-1.945
X-93.406 Y-36.226 Z-1.947
X-93.384 Y-36.187 Z-1.948
X-93.377 Y-36.143 Z-1.95
X-93.386 Y-36.099 Z-1.952
X-93.41 Y-36.062 Z-1.953
X-93.445 Y-36.035 Z-1.955
X-93.488 Y-36.022 Z-1.956
X-93.532 Y-36.024 Z-1.958
X-93.573 Y-36.043 Z-1.959
X-93.605 Y-36.074 Z-1.961
X-93.623 Y-36.114 Z-1.962
X-93.627 Y-36.159 Z-1.964
X-93.614 Y-36.201 Z-1.966
X-93.588 Y-36.237 Z-1.967
X-93.55 Y-36.261 Z-1.969
X-93.507 Y-36.271 Z-1.97
X-93.463 Y-36.264 Z-1.972
X-93.424 Y-36.243 Z-1.973
X-93.395 Y-36.209 Z-1.975
X-93.379 Y-36.167 Z-1.977
X-93.38 Y-36.123 Z-1.978
X-93.395 Y-36.081 Z-1.98
X-93.425 Y-36.048 Z-1.981
X-93.464 Y-36.027 Z-1.983
X-93.508 Y-36.021 Z-1.984
X-93.551 Y-36.031 Z-1.986
X-93.589 Y-36.055 Z-1.988
X-93.615 Y-36.091 Z-1.989
X-93.627 Y-36.134 Z-1.991
X-93.623 Y-36.178 Z-1.992
X-93.604 Y-36.219 Z-1.994
X-93.572 Y-36.25 Z-1.995
X-93.531 Y-36.267 Z-1.997
X-93.487 Y-36.27 Z-1.998
X-93.444 Y-36.256 Z-2
G3 X-93.561 Y-36.035 I-0.058 J0.111 F2540
X-93.444 Y-36.256 I0.058 J-0.111
G1 X-93.409 Y-36.229 Z-2.002 F1016
X-93.386 Y-36.191 Z-2.003
X-93.377 Y-36.147 Z-2.005
X-93.385 Y-36.104 Z-2.006
X-93.407 Y-36.065 Z-2.008
X-93.441 Y-36.037 Z-2.009
X-93.484 Y-36.022 Z-2.011
X-93.528 Y-36.023 Z-2.013
X-93.569 Y-36.04 Z-2.014
X-93.602 Y-36.07 Z-2.016
X-93.622 Y-36.11 Z-2.017
X-93.627 Y-36.154 Z-2.019
X-93.616 Y-36.197 Z-2.02
X-93.591 Y-36.234 Z-2.022
X-93.554 Y-36.259 Z-2.023
X-93.511 Y-36.27 Z-2.025
X-93.467 Y-36.266 Z-2.027
X-93.427 Y-36.246 Z-2.028
X-93.397 Y-36.213 Z-2.03
X-93.38 Y-36.172 Z-2.031
X-93.379 Y-36.127 Z-2.033
X-93.393 Y-36.085 Z-2.034
X-93.421 Y-36.051 Z-2.036
X-93.46 Y-36.028 Z-2.038
X-93.504 Y-36.021 Z-2.039
X-93.547 Y-36.029 Z-2.041
X-93.585 Y-36.052 Z-2.042
X-93.613 Y-36.087 Z-2.044
X-93.626 Y-36.13 Z-2.045
X-93.624 Y-36.174 Z-2.047
X-93.606 Y-36.215 Z-2.048
X-93.576 Y-36.247 Z-2.05
X-93.535 Y-36.266 Z-2.052
X-93.491 Y-36.27 Z-2.053
X-93.448 Y-36.258 Z-2.055
X-93.412 Y-36.232 Z-2.056
X-93.388 Y-36.195 Z-2.058
X-93.378 Y-36.152 Z-2.059
X-93.383 Y-36.108 Z-2.061
X-93.404 Y-36.068 Z-2.063
X-93.438 Y-36.039 Z-2.064
X-93.479 Y-36.023 Z-2.066
X-93.524 Z-2.067
X-93.565 Y-36.038 Z-2.069
X-93.599 Y-36.067 Z-2.07
X-93.621 Y-36.106 Z-2.072
X-93.627 Y-36.15 Z-2.073
X-93.618 Y-36.193 Z-2.075
X-93.594 Y-36.231 Z-2.077
X-93.558 Y-36.258 Z-2.078
X-93.516 Y-36.27 Z-2.08
X-93.471 Y-36.267 Z-2.081
X-93.431 Y-36.248 Z-2.083
X-93.399 Y-36.217 Z-2.084
X-93.381 Y-36.176 Z-2.086
X-93.378 Y-36.132 Z-2.087
X-93.391 Y-36.089 Z-2.089
X-93.418 Y-36.054 Z-2.091
X-93.456 Y-36.03 Z-2.092
X-93.499 Y-36.021 Z-2.094
X-93.543 Y-36.028 Z-2.095
X-93.582 Y-36.049 Z-2.097
X-93.611 Y-36.083 Z-2.098
X-93.626 Y-36.125 Z-2.1
X-93.625 Y-36.17 Z-2.102
X-93.609 Y-36.211 Z-2.103
X-93.579 Y-36.244 Z-2.105
X-93.54 Y-36.265 Z-2.106
X-93.496 Y-36.271 Z-2.108
X-93.452 Y-36.26 Z-2.109
X-93.415 Y-36.235 Z-2.111
X-93.389 Y-36.199 Z-2.112
X-93.378 Y-36.156 Z-2.114
X-93.382 Y-36.112 Z-2.116
X-93.402 Y-36.072 Z-2.117
X-93.434 Y-36.041 Z-2.119
X-93.475 Y-36.024 Z-2.12
X-93.519 Y-36.022 Z-2.122
X-93.562 Y-36.036 Z-2.123
X-93.596 Y-36.063 Z-2.125
X-93.619 Y-36.102 Z-2.127
X-93.627 Y-36.145 Z-2.128
X-93.62 Y-36.189 Z-2.13
X-93.597 Y-36.228 Z-2.131
X-93.562 Y-36.255 Z-2.133
X-93.52 Y-36.27 Z-2.134
X-93.476 Y-36.268 Z-2.136
X-93.435 Y-36.251 Z-2.138
X-93.402 Y-36.22 Z-2.139
X-93.382 Y-36.18 Z-2.141
X-93.378 Y-36.136 Z-2.142
X-93.389 Y-36.093 Z-2.144
X-93.415 Y-36.057 Z-2.145
X-93.452 Y-36.032 Z-2.147
X-93.495 Y-36.021 Z-2.148
X-93.539 Y-36.026 Z-2.15
X-93.579 Y-36.047 Z-2.152
X-93.608 Y-36.08 Z-2.153
X-93.625 Y-36.121 Z-2.155
X-93.626 Y-36.165 Z-2.156
X-93.611 Y-36.207 Z-2.158
X-93.583 Y-36.242 Z-2.159
X-93.544 Y-36.264 Z-2.161
X-93.5 Y-36.271 Z-2.163
X-93.456 Y-36.262 Z-2.164
X-93.419 Y-36.238 Z-2.166
X-93.391 Y-36.203 Z-2.167
X-93.378 Y-36.161 Z-2.169
X-93.381 Y-36.116 Z-2.17
X-93.399 Y-36.076 Z-2.172
X-93.43 Y-36.044 Z-2.173
X-93.471 Y-36.025 Z-2.175
X-93.515 Y-36.021 Z-2.177
X-93.558 Y-36.034 Z-2.178
X-93.593 Y-36.06 Z-2.18
X-93.618 Y-36.098 Z-2.181
X-93.627 Y-36.141 Z-2.183
X-93.621 Y-36.185 Z-2.184
X-93.6 Y-36.224 Z-2.186
X-93.566 Y-36.253 Z-2.188
X-93.524 Y-36.269 Z-2.189
X-93.48 Z-2.191
X-93.438 Y-36.253 Z-2.192
X-93.405 Y-36.224 Z-2.194
X-93.384 Y-36.185 Z-2.195
X-93.378 Y-36.141 Z-2.197
X-93.387 Y-36.097 Z-2.198
X-93.412 Y-36.06 Z-2.2
X-93.447 Y-36.034 Z-2.202
X-93.49 Y-36.021 Z-2.203
X-93.535 Y-36.025 Z-2.205
X-93.575 Y-36.044 Z-2.206
X-93.606 Y-36.076 Z-2.208
X-93.624 Y-36.117 Z-2.209
X-93.626 Y-36.161 Z-2.211
X-93.613 Y-36.204 Z-2.212
X-93.586 Y-36.239 Z-2.214
X-93.548 Y-36.262 Z-2.216
X-93.504 Y-36.271 Z-2.217
X-93.461 Y-36.264 Z-2.219
X-93.422 Y-36.241 Z-2.22
X-93.394 Y-36.207 Z-2.222
X-93.379 Y-36.165 Z-2.223
X-93.38 Y-36.121 Z-2.225
X-93.397 Y-36.079 Z-2.227
X-93.427 Y-36.046 Z-2.228
X-93.466 Y-36.026 Z-2.23
X-93.51 Y-36.021 Z-2.231
X-93.554 Y-36.032 Z-2.233
X-93.59 Y-36.057 Z-2.234
X-93.616 Y-36.093 Z-2.236
X-93.627 Y-36.137 Z-2.237
X-93.622 Y-36.181 Z-2.239
X-93.603 Y-36.221 Z-2.241
X-93.57 Y-36.251 Z-2.242
X-93.529 Y-36.268 Z-2.244
X-93.484 Y-36.269 Z-2.245
X-93.442 Y-36.255 Z-2.247
X-93.408 Y-36.227 Z-2.248
X-93.385 Y-36.189 Z-2.25
X-93.377 Y-36.145 Z-2.252
X-93.386 Y-36.101 Z-2.253
X-93.409 Y-36.063 Z-2.255
X-93.444 Y-36.036 Z-2.256
X-93.486 Y-36.022 Z-2.258
X-93.53 Y-36.024 Z-2.259
X-93.571 Y-36.042 Z-2.261
X-93.603 Y-36.072 Z-2.263
X-93.623 Y-36.112 Z-2.264
X-93.627 Y-36.157 Z-2.266
X-93.615 Y-36.2 Z-2.267
X-93.589 Y-36.236 Z-2.269
X-93.552 Y-36.26 Z-2.27
X-93.509 Y-36.271 Z-2.272
X-93.465 Y-36.265 Z-2.273
X-93.425 Y-36.244 Z-2.275
X-93.396 Y-36.211 Z-2.277
X-93.38 Y-36.169 Z-2.278
X-93.379 Y-36.125 Z-2.28
X-93.394 Y-36.083 Z-2.281
X-93.423 Y-36.049 Z-2.283
X-93.462 Y-36.028 Z-2.284
X-93.506 Y-36.021 Z-2.286
X-93.55 Y-36.03 Z-2.288
X-93.587 Y-36.054 Z-2.289
X-93.614 Y-36.089 Z-2.291
X-93.627 Y-36.132 Z-2.292
X-93.624 Y-36.177 Z-2.294
X-93.605 Y-36.217 Z-2.295
X-93.574 Y-36.248 Z-2.297
X-93.533 Y-36.267 Z-2.298
X-93.489 Y-36.27 Z-2.3
X-93.446 Y-36.257 Z-2.302
X-93.411 Y-36.231 Z-2.303
X-93.387 Y-36.193 Z-2.305
X-93.377 Y-36.149 Z-2.306
X-93.384 Y-36.105 Z-2.308
X-93.406 Y-36.067 Z-2.309
X-93.44 Y-36.038 Z-2.311
X-93.482 Y-36.023 Z-2.313
X-93.526 Z-2.314
X-93.568 Y-36.039 Z-2.316
X-93.601 Y-36.069 Z-2.317
X-93.622 Y-36.108 Z-2.319
X-93.627 Y-36.152 Z-2.32
X-93.617 Y-36.196 Z-2.322
X-93.592 Y-36.233 Z-2.323
X-93.556 Y-36.259 Z-2.325
X-93.513 Y-36.27 Z-2.327
X-93.469 Y-36.266 Z-2.328
X-93.429 Y-36.247 Z-2.33
X-93.398 Y-36.215 Z-2.331
X-93.381 Y-36.174 Z-2.333
X-93.379 Y-36.129 Z-2.334
X-93.392 Y-36.087 Z-2.336
X-93.42 Y-36.052 Z-2.337
X-93.458 Y-36.029 Z-2.339
X-93.502 Y-36.021 Z-2.341
X-93.545 Y-36.028 Z-2.342
X-93.584 Y-36.051 Z-2.344
X-93.612 Y-36.086 Z-2.345
X-93.626 Y-36.128 Z-2.347
X-93.625 Y-36.172 Z-2.348
X-93.608 Y-36.213 Z-2.35
X-93.577 Y-36.246 Z-2.352
X-93.537 Y-36.266 Z-2.353
X-93.493 Y-36.27 Z-2.355
X-93.45 Y-36.259 Z-2.356
X-93.414 Y-36.234 Z-2.358
X-93.388 Y-36.197 Z-2.359
X-93.378 Y-36.154 Z-2.361
X-93.383 Y-36.11 Z-2.362
X-93.403 Y-36.07 Z-2.364
X-93.436 Y-36.04 Z-2.366
X-93.477 Y-36.023 Z-2.367
X-93.522 Y-36.022 Z-2.369
X-93.564 Y-36.037 Z-2.37
X-93.598 Y-36.065 Z-2.372
X-93.62 Y-36.104 Z-2.373
X-93.627 Y-36.148 Z-2.375
X-93.619 Y-36.191 Z-2.377
X-93.595 Y-36.229 Z-2.378
X-93.56 Y-36.257 Z-2.38
X-93.518 Y-36.27 Z-2.381
X-93.473 Y-36.267 Z-2.383
X-93.433 Y-36.249 Z-2.384
X-93.401 Y-36.218 Z-2.386
X-93.382 Y-36.178 Z-2.388
X-93.378 Y-36.134 Z-2.389
X-93.39 Y-36.091 Z-2.391
X-93.416 Y-36.055 Z-2.392
X-93.454 Y-36.031 Z-2.394
X-93.497 Y-36.021 Z-2.395
X-93.541 Y-36.027 Z-2.397
X-93.58 Y-36.048 Z-2.398
X-93.61 Y-36.082 Z-2.4
X-93.625 Y-36.123 Z-2.402
Y-36.168 Z-2.403
X-93.61 Y-36.21 Z-2.405
X-93.581 Y-36.243 Z-2.406
X-93.542 Y-36.264 Z-2.408
X-93.498 Y-36.271 Z-2.409
X-93.454 Y-36.261 Z-2.411
X-93.417 Y-36.237 Z-2.413
X-93.39 Y-36.201 Z-2.414
X-93.378 Y-36.158 Z-2.416
X-93.382 Y-36.114 Z-2.417
X-93.4 Y-36.074 Z-2.419
X-93.432 Y-36.042 Z-2.42
X-93.473 Y-36.024 Z-2.422
X-93.517 Y-36.022 Z-2.423
X-93.56 Y-36.035 Z-2.425
X-93.595 Y-36.062 Z-2.427
X-93.619 Y-36.1 Z-2.428
X-93.627 Y-36.143 Z-2.43
X-93.62 Y-36.187 Z-2.431
X-93.598 Y-36.226 Z-2.433
X-93.564 Y-36.254 Z-2.434
X-93.522 Y-36.269 Z-2.436
X-93.478 Y-36.268 Z-2.438
X-93.436 Y-36.252 Z-2.439
X-93.403 Y-36.222 Z-2.441
X-93.383 Y-36.182 Z-2.442
X-93.378 Y-36.138 Z-2.444
X-93.388 Y-36.095 Z-2.445
X-93.413 Y-36.058 Z-2.447
X-93.45 Y-36.033 Z-2.448
X-93.493 Y-36.021 Z-2.45
X-93.537 Y-36.026 Z-2.452
X-93.577 Y-36.045 Z-2.453
X-93.607 Y-36.078 Z-2.455
X-93.624 Y-36.119 Z-2.456
X-93.626 Y-36.163 Z-2.458
X-93.612 Y-36.206 Z-2.459
X-93.584 Y-36.24 Z-2.461
X-93.546 Y-36.263 Z-2.462
X-93.502 Y-36.271 Z-2.464
X-93.458 Y-36.263 Z-2.466
X-93.42 Y-36.24 Z-2.467
X-93.392 Y-36.205 Z-2.469
X-93.379 Y-36.163 Z-2.47
X-93.38 Y-36.118 Z-2.472
X-93.398 Y-36.077 Z-2.473
X-93.429 Y-36.045 Z-2.475
X-93.469 Y-36.026 Z-2.477
X-93.513 Y-36.021 Z-2.478
X-93.556 Y-36.033 Z-2.48
X-93.592 Y-36.059 Z-2.481
X-93.617 Y-36.096 Z-2.483
X-93.627 Y-36.139 Z-2.484
X-93.622 Y-36.183 Z-2.486
X-93.601 Y-36.223 Z-2.487
X-93.568 Y-36.252 Z-2.489
X-93.526 Y-36.268 Z-2.491
X-93.482 Y-36.269 Z-2.492
X-93.44 Y-36.254 Z-2.494
X-93.406 Y-36.225 Z-2.495
X-93.384 Y-36.187 Z-2.497
X-93.377 Y-36.143 Z-2.498
X-93.386 Y-36.099 Z-2.5
G3 X-93.618 Y-36.193 I-0.116 J-0.047 F2540
X-93.386 Y-36.099 I0.116 J0.047
G1 X-93.41 Y-36.061 Z-2.502 F1016
X-93.446 Y-36.034 Z-2.503
X-93.488 Y-36.022 Z-2.505
X-93.533 Y-36.025 Z-2.506
X-93.573 Y-36.043 Z-2.508
X-93.605 Y-36.074 Z-2.509
X-93.623 Y-36.115 Z-2.511
X-93.627 Y-36.159 Z-2.513
X-93.614 Y-36.202 Z-2.514
X-93.587 Y-36.237 Z-2.516
X-93.55 Y-36.261 Z-2.517
X-93.506 Y-36.271 Z-2.519
X-93.462 Y-36.264 Z-2.52
X-93.423 Y-36.243 Z-2.522
X-93.395 Y-36.209 Z-2.523
X-93.379 Y-36.167 Z-2.525
X-93.38 Y-36.123 Z-2.527
X-93.396 Y-36.081 Z-2.528
X-93.425 Y-36.048 Z-2.53
X-93.464 Y-36.027 Z-2.531
X-93.508 Y-36.021 Z-2.533
X-93.552 Y-36.031 Z-2.534
X-93.589 Y-36.056 Z-2.536
X-93.615 Y-36.092 Z-2.538
X-93.627 Y-36.134 Z-2.539
X-93.623 Y-36.179 Z-2.541
X-93.604 Y-36.219 Z-2.542
X-93.572 Y-36.25 Z-2.544
X-93.531 Y-36.268 Z-2.545
X-93.486 Y-36.27 Z-2.547
X-93.444 Y-36.256 Z-2.548
X-93.409 Y-36.229 Z-2.55
X-93.386 Y-36.191 Z-2.552
X-93.377 Y-36.147 Z-2.553
X-93.385 Y-36.103 Z-2.555
X-93.407 Y-36.065 Z-2.556
X-93.442 Y-36.037 Z-2.558
X-93.484 Y-36.022 Z-2.559
X-93.528 Y-36.024 Z-2.561
X-93.57 Y-36.04 Z-2.563
X-93.602 Y-36.071 Z-2.564
X-93.622 Y-36.11 Z-2.566
X-93.627 Y-36.155 Z-2.567
X-93.616 Y-36.198 Z-2.569
X-93.591 Y-36.234 Z-2.57
X-93.554 Y-36.26 Z-2.572
X-93.511 Y-36.27 Z-2.573
X-93.467 Y-36.266 Z-2.575
X-93.427 Y-36.245 Z-2.577
X-93.397 Y-36.213 Z-2.578
X-93.38 Y-36.171 Z-2.58
X-93.379 Y-36.127 Z-2.581
X-93.393 Y-36.085 Z-2.583
X-93.422 Y-36.051 Z-2.584
X-93.46 Y-36.028 Z-2.586
X-93.504 Y-36.021 Z-2.587
X-93.548 Y-36.029 Z-2.589
X-93.586 Y-36.053 Z-2.591
X-93.613 Y-36.088 Z-2.592
X-93.626 Y-36.13 Z-2.594
X-93.624 Y-36.175 Z-2.595
X-93.606 Y-36.215 Z-2.597
X-93.575 Y-36.247 Z-2.598
X-93.535 Y-36.266 Z-2.6
X-93.491 Y-36.27 Z-2.602
X-93.448 Y-36.258 Z-2.603
X-93.412 Y-36.232 Z-2.605
X-93.387 Y-36.195 Z-2.606
X-93.378 Y-36.152 Z-2.608
X-93.383 Y-36.107 Z-2.609
X-93.404 Y-36.068 Z-2.611
X-93.438 Y-36.039 Z-2.612
X-93.479 Y-36.023 Z-2.614
X-93.524 Z-2.616
X-93.566 Y-36.038 Z-2.617
X-93.599 Y-36.067 Z-2.619
X-93.621 Y-36.106 Z-2.62
X-93.627 Y-36.15 Z-2.622
X-93.618 Y-36.194 Z-2.623
X-93.594 Y-36.231 Z-2.625
X-93.558 Y-36.258 Z-2.627
X-93.515 Y-36.27 Z-2.628
X-93.471 Y-36.267 Z-2.63
X-93.431 Y-36.248 Z-2.631
X-93.399 Y-36.216 Z-2.633
X-93.381 Y-36.176 Z-2.634
X-93.378 Y-36.131 Z-2.636
X-93.391 Y-36.089 Z-2.638
X-93.418 Y-36.053 Z-2.639
X-93.456 Y-36.03 Z-2.641
X-93.5 Y-36.021 Z-2.642
X-93.543 Y-36.028 Z-2.644
X-93.582 Y-36.05 Z-2.645
X-93.611 Y-36.084 Z-2.647
X-93.626 Y-36.126 Z-2.648
X-93.625 Y-36.17 Z-2.65
X-93.609 Y-36.212 Z-2.652
X-93.579 Y-36.245 Z-2.653
X-93.539 Y-36.265 Z-2.655
X-93.495 Y-36.271 Z-2.656
X-93.452 Y-36.26 Z-2.658
X-93.415 Y-36.235 Z-2.659
X-93.389 Y-36.199 Z-2.661
X-93.378 Y-36.156 Z-2.663
X-93.382 Y-36.112 Z-2.664
X-93.402 Y-36.072 Z-2.666
X-93.434 Y-36.041 Z-2.667
X-93.475 Y-36.024 Z-2.669
X-93.52 Y-36.022 Z-2.67
X-93.562 Y-36.036 Z-2.672
X-93.597 Y-36.064 Z-2.673
X-93.619 Y-36.102 Z-2.675
X-93.627 Y-36.146 Z-2.677
X-93.619 Y-36.19 Z-2.678
X-93.597 Y-36.228 Z-2.68
X-93.562 Y-36.256 Z-2.681
X-93.52 Y-36.27 Z-2.683
X-93.475 Y-36.268 Z-2.684
X-93.434 Y-36.251 Z-2.686
X-93.402 Y-36.22 Z-2.688
X-93.382 Y-36.18 Z-2.689
X-93.378 Y-36.136 Z-2.691
X-93.389 Y-36.093 Z-2.692
X-93.415 Y-36.056 Z-2.694
X-93.452 Y-36.032 Z-2.695
X-93.495 Y-36.021 Z-2.697
X-93.539 Y-36.026 Z-2.698
X-93.579 Y-36.047 Z-2.7
X-93.609 Y-36.08 Z-2.702
X-93.625 Y-36.121 Z-2.703
X-93.626 Y-36.166 Z-2.705
X-93.611 Y-36.208 Z-2.706
X-93.582 Y-36.242 Z-2.708
X-93.544 Y-36.264 Z-2.709
X-93.5 Y-36.271 Z-2.711
X-93.456 Y-36.262 Z-2.712
X-93.418 Y-36.238 Z-2.714
X-93.391 Y-36.203 Z-2.716
