(1001)
(Bearbeiten)
(  Hersteller: ChinaCnc)
(  model: 3040T)
(  description: Generic 3-axis)
(T14  D=1.95 CR=0 - ZMIN=-3.3 - Schaftfraser)
G90 G94
G17
G21
G28 G91 Z0
G90

(Bohrfrasen2)
T14
S8000 M3
G54
G0 X-42.944 Y-7.833
Z15
Z1
G1 Z0.195 F1016
X-42.949 Y-7.828 Z0.145
X-42.962 Y-7.814 Z0.097
X-42.984 Y-7.792 Z0.057
X-43.013 Y-7.764 Z0.026
X-43.046 Y-7.73 Z0.007
X-43.082 Y-7.695 Z0
X-43.151 Y-7.626
G3 X-43.426 Y-7.626 I-0.138 J-0.138
X-41.977 Y-9.075 Z-0.25 I0.725 J-0.725 F2540
X-43.426 Y-7.626 Z-0.5 I-0.725 J0.725
X-41.977 Y-9.075 Z-0.75 I0.725 J-0.725
X-43.426 Y-7.626 Z-1 I-0.725 J0.725
X-41.977 Y-9.075 I0.725 J-0.725
X-43.426 Y-7.626 I-0.725 J0.725
X-43.426 Y-7.902 I0.138 J-0.138 F1016
G1 X-43.357 Y-7.971
X-43.322 Y-8.006 Z-0.993
X-43.289 Y-8.039 Z-0.974
X-43.26 Y-8.068 Z-0.943
X-43.238 Y-8.09 Z-0.903
X-43.224 Y-8.104 Z-0.855
X-43.22 Y-8.108 Z-0.805
G0 Z5
X-54.302 Y-7.833
Z1
G1 Z0.195 F1016
X-54.306 Y-7.828 Z0.145
X-54.32 Y-7.814 Z0.097
X-54.342 Y-7.792 Z0.057
X-54.371 Y-7.764 Z0.026
X-54.404 Y-7.73 Z0.007
X-54.44 Y-7.695 Z0
X-54.509 Y-7.626
G3 X-54.784 Y-7.626 I-0.138 J-0.138
X-53.335 Y-9.075 Z-0.25 I0.725 J-0.725 F2540
X-54.784 Y-7.626 Z-0.5 I-0.725 J0.725
X-53.335 Y-9.075 Z-0.75 I0.725 J-0.725
X-54.784 Y-7.626 Z-1 I-0.725 J0.725
X-53.335 Y-9.075 I0.725 J-0.725
X-54.784 Y-7.626 I-0.725 J0.725
X-54.784 Y-7.902 I0.138 J-0.138 F1016
G1 X-54.715 Y-7.971
X-54.68 Y-8.006 Z-0.993
X-54.646 Y-8.039 Z-0.974
X-54.618 Y-8.068 Z-0.943
X-54.596 Y-8.09 Z-0.903
X-54.582 Y-8.104 Z-0.855
X-54.577 Y-8.108 Z-0.805
G0 Z5
X-55.897 Y-21.518
Z1
G1 Z0.195 F1016
X-55.893 Y-21.523 Z0.145
X-55.879 Y-21.536 Z0.097
X-55.857 Y-21.558 Z0.057
X-55.828 Y-21.587 Z0.026
X-55.795 Y-21.62 Z0.007
X-55.76 Y-21.656 Z0
X-55.691 Y-21.725
G3 X-55.415 Y-21.725 I0.138 J0.138
X-56.864 Y-20.275 Z-0.25 I-0.725 J0.725 F2540
X-55.415 Y-21.725 Z-0.5 I0.725 J-0.725
X-56.864 Y-20.275 Z-0.75 I-0.725 J0.725
X-55.415 Y-21.725 Z-1 I0.725 J-0.725
X-56.864 Y-20.275 I-0.725 J0.725
X-55.415 Y-21.725 I0.725 J-0.725
X-55.415 Y-21.449 I-0.138 J0.138 F1016
G1 X-55.484 Y-21.38
X-55.519 Y-21.344 Z-0.993
X-55.553 Y-21.311 Z-0.974
X-55.581 Y-21.283 Z-0.943
X-55.603 Y-21.261 Z-0.903
X-55.617 Y-21.247 Z-0.855
X-55.622 Y-21.242 Z-0.805
G0 Z5
X-67.255 Y-21.518
Z1
G1 Z0.195 F1016
X-67.251 Y-21.523 Z0.145
X-67.237 Y-21.536 Z0.097
X-67.215 Y-21.558 Z0.057
X-67.186 Y-21.587 Z0.026
X-67.153 Y-21.62 Z0.007
X-67.117 Y-21.656 Z0
X-67.048 Y-21.725
G3 X-66.773 Y-21.725 I0.138 J0.138
X-68.222 Y-20.275 Z-0.25 I-0.725 J0.725 F2540
X-66.773 Y-21.725 Z-0.5 I0.725 J-0.725
X-68.222 Y-20.275 Z-0.75 I-0.725 J0.725
X-66.773 Y-21.725 Z-1 I0.725 J-0.725
X-68.222 Y-20.275 I-0.725 J0.725
X-66.773 Y-21.725 I0.725 J-0.725
X-66.773 Y-21.449 I-0.138 J0.138 F1016
G1 X-66.842 Y-21.38
X-66.877 Y-21.344 Z-0.993
X-66.911 Y-21.311 Z-0.974
X-66.939 Y-21.283 Z-0.943
X-66.961 Y-21.261 Z-0.903
X-66.975 Y-21.247 Z-0.855
X-66.98 Y-21.242 Z-0.805
G0 Z5
X-42.944 Y-34.499
Z1
G1 Z0.195 F1016
X-42.949 Y-34.495 Z0.145
X-42.962 Y-34.481 Z0.097
X-42.984 Y-34.459 Z0.057
X-43.013 Y-34.43 Z0.026
X-43.046 Y-34.397 Z0.007
X-43.082 Y-34.361 Z0
X-43.151 Y-34.292
G3 X-43.426 Y-34.292 I-0.138 J-0.138
X-41.977 Y-35.742 Z-0.25 I0.725 J-0.725 F2540
X-43.426 Y-34.292 Z-0.5 I-0.725 J0.725
X-41.977 Y-35.742 Z-0.75 I0.725 J-0.725
X-43.426 Y-34.292 Z-1 I-0.725 J0.725
X-41.977 Y-35.742 I0.725 J-0.725
X-43.426 Y-34.292 I-0.725 J0.725
X-43.426 Y-34.568 I0.138 J-0.138 F1016
G1 X-43.357 Y-34.637
X-43.322 Y-34.673 Z-0.993
X-43.289 Y-34.706 Z-0.974
X-43.26 Y-34.735 Z-0.943
X-43.238 Y-34.757 Z-0.903
X-43.224 Y-34.77 Z-0.855
X-43.22 Y-34.775 Z-0.805
G0 Z5
X-54.302 Y-34.499
Z1
G1 Z0.195 F1016
X-54.306 Y-34.495 Z0.145
X-54.32 Y-34.481 Z0.097
X-54.342 Y-34.459 Z0.057
X-54.371 Y-34.43 Z0.026
X-54.404 Y-34.397 Z0.007
X-54.44 Y-34.361 Z0
X-54.509 Y-34.292
G3 X-54.784 Y-34.292 I-0.138 J-0.138
X-53.335 Y-35.742 Z-0.25 I0.725 J-0.725 F2540
X-54.784 Y-34.292 Z-0.5 I-0.725 J0.725
X-53.335 Y-35.742 Z-0.75 I0.725 J-0.725
X-54.784 Y-34.292 Z-1 I-0.725 J0.725
X-53.335 Y-35.742 I0.725 J-0.725
X-54.784 Y-34.292 I-0.725 J0.725
X-54.784 Y-34.568 I0.138 J-0.138 F1016
G1 X-54.715 Y-34.637
X-54.68 Y-34.673 Z-0.993
X-54.646 Y-34.706 Z-0.974
X-54.618 Y-34.735 Z-0.943
X-54.596 Y-34.757 Z-0.903
X-54.582 Y-34.77 Z-0.855
X-54.577 Y-34.775 Z-0.805
G0 Z5
X-55.897 Y-48.185
Z1
G1 Z0.195 F1016
X-55.893 Y-48.189 Z0.145
X-55.879 Y-48.203 Z0.097
X-55.857 Y-48.225 Z0.057
X-55.828 Y-48.254 Z0.026
X-55.795 Y-48.287 Z0.007
X-55.76 Y-48.323 Z0
X-55.691 Y-48.391
G3 X-55.415 Y-48.391 I0.138 J0.138
X-56.864 Y-46.942 Z-0.25 I-0.725 J0.725 F2540
X-55.415 Y-48.391 Z-0.5 I0.725 J-0.725
X-56.864 Y-46.942 Z-0.75 I-0.725 J0.725
X-55.415 Y-48.391 Z-1 I0.725 J-0.725
X-56.864 Y-46.942 I-0.725 J0.725
X-55.415 Y-48.391 I0.725 J-0.725
X-55.415 Y-48.116 I-0.138 J0.138 F1016
G1 X-55.484 Y-48.047
X-55.519 Y-48.011 Z-0.993
X-55.553 Y-47.978 Z-0.974
X-55.581 Y-47.949 Z-0.943
X-55.603 Y-47.927 Z-0.903
X-55.617 Y-47.914 Z-0.855
X-55.622 Y-47.909 Z-0.805
G0 Z5
X-67.255 Y-48.185
Z1
G1 Z0.195 F1016
X-67.251 Y-48.189 Z0.145
X-67.237 Y-48.203 Z0.097
X-67.215 Y-48.225 Z0.057
X-67.186 Y-48.254 Z0.026
X-67.153 Y-48.287 Z0.007
X-67.117 Y-48.323 Z0
X-67.048 Y-48.391
G3 X-66.773 Y-48.391 I0.138 J0.138
X-68.222 Y-46.942 Z-0.25 I-0.725 J0.725 F2540
X-66.773 Y-48.391 Z-0.5 I0.725 J-0.725
X-68.222 Y-46.942 Z-0.75 I-0.725 J0.725
X-66.773 Y-48.391 Z-1 I0.725 J-0.725
X-68.222 Y-46.942 I-0.725 J0.725
X-66.773 Y-48.391 I0.725 J-0.725
X-66.773 Y-48.116 I-0.138 J0.138 F1016
G1 X-66.842 Y-48.047
X-66.877 Y-48.011 Z-0.993
X-66.911 Y-47.978 Z-0.974
X-66.939 Y-47.949 Z-0.943
X-66.961 Y-47.927 Z-0.903
X-66.975 Y-47.914 Z-0.855
X-66.98 Y-47.909 Z-0.805
G0 Z5
X-42.944 Y-61.166
Z1
G1 Z0.195 F1016
X-42.949 Y-61.161 Z0.145
X-42.962 Y-61.147 Z0.097
X-42.984 Y-61.126 Z0.057
X-43.013 Y-61.097 Z0.026
X-43.046 Y-61.064 Z0.007
X-43.082 Y-61.028 Z0
X-43.151 Y-60.959
G3 X-43.426 Y-60.959 I-0.138 J-0.138
X-41.977 Y-62.409 Z-0.25 I0.725 J-0.725 F2540
X-43.426 Y-60.959 Z-0.5 I-0.725 J0.725
X-41.977 Y-62.409 Z-0.75 I0.725 J-0.725
X-43.426 Y-60.959 Z-1 I-0.725 J0.725
X-41.977 Y-62.409 I0.725 J-0.725
X-43.426 Y-60.959 I-0.725 J0.725
X-43.426 Y-61.235 I0.138 J-0.138 F1016
G1 X-43.357 Y-61.304
X-43.322 Y-61.34 Z-0.993
X-43.289 Y-61.373 Z-0.974
X-43.26 Y-61.401 Z-0.943
X-43.238 Y-61.423 Z-0.903
X-43.224 Y-61.437 Z-0.855
X-43.22 Y-61.442 Z-0.805
G0 Z5
X-54.302 Y-61.166
Z1
G1 Z0.195 F1016
X-54.306 Y-61.161 Z0.145
X-54.32 Y-61.147 Z0.097
X-54.342 Y-61.126 Z0.057
X-54.371 Y-61.097 Z0.026
X-54.404 Y-61.064 Z0.007
X-54.44 Y-61.028 Z0
X-54.509 Y-60.959
G3 X-54.784 Y-60.959 I-0.138 J-0.138
X-53.335 Y-62.409 Z-0.25 I0.725 J-0.725 F2540
X-54.784 Y-60.959 Z-0.5 I-0.725 J0.725
X-53.335 Y-62.409 Z-0.75 I0.725 J-0.725
X-54.784 Y-60.959 Z-1 I-0.725 J0.725
X-53.335 Y-62.409 I0.725 J-0.725
X-54.784 Y-60.959 I-0.725 J0.725
X-54.784 Y-61.235 I0.138 J-0.138 F1016
G1 X-54.715 Y-61.304
X-54.68 Y-61.34 Z-0.993
X-54.646 Y-61.373 Z-0.974
X-54.618 Y-61.401 Z-0.943
X-54.596 Y-61.423 Z-0.903
X-54.582 Y-61.437 Z-0.855
X-54.577 Y-61.442 Z-0.805
G0 Z5
X-55.897 Y-74.851
Z1
G1 Z0.195 F1016
X-55.893 Y-74.856 Z0.145
X-55.879 Y-74.87 Z0.097
X-55.857 Y-74.892 Z0.057
X-55.828 Y-74.92 Z0.026
X-55.795 Y-74.953 Z0.007
X-55.76 Y-74.989 Z0
X-55.691 Y-75.058
G3 X-55.415 Y-75.058 I0.138 J0.138
X-56.864 Y-73.609 Z-0.25 I-0.725 J0.725 F2540
X-55.415 Y-75.058 Z-0.5 I0.725 J-0.725
X-56.864 Y-73.609 Z-0.75 I-0.725 J0.725
X-55.415 Y-75.058 Z-1 I0.725 J-0.725
X-56.864 Y-73.609 I-0.725 J0.725
X-55.415 Y-75.058 I0.725 J-0.725
X-55.415 Y-74.782 I-0.138 J0.138 F1016
G1 X-55.484 Y-74.713
X-55.519 Y-74.678 Z-0.993
X-55.553 Y-74.644 Z-0.974
X-55.581 Y-74.616 Z-0.943
X-55.603 Y-74.594 Z-0.903
X-55.617 Y-74.58 Z-0.855
X-55.622 Y-74.576 Z-0.805
G0 Z5
X-67.255 Y-74.851
Z1
G1 Z0.195 F1016
X-67.251 Y-74.856 Z0.145
X-67.237 Y-74.87 Z0.097
X-67.215 Y-74.892 Z0.057
X-67.186 Y-74.92 Z0.026
X-67.153 Y-74.953 Z0.007
X-67.117 Y-74.989 Z0
X-67.048 Y-75.058
G3 X-66.773 Y-75.058 I0.138 J0.138
X-68.222 Y-73.609 Z-0.25 I-0.725 J0.725 F2540
X-66.773 Y-75.058 Z-0.5 I0.725 J-0.725
X-68.222 Y-73.609 Z-0.75 I-0.725 J0.725
X-66.773 Y-75.058 Z-1 I0.725 J-0.725
X-68.222 Y-73.609 I-0.725 J0.725
X-66.773 Y-75.058 I0.725 J-0.725
X-66.773 Y-74.782 I-0.138 J0.138 F1016
G1 X-66.842 Y-74.713
X-66.877 Y-74.678 Z-0.993
X-66.911 Y-74.644 Z-0.974
X-66.939 Y-74.616 Z-0.943
X-66.961 Y-74.594 Z-0.903
X-66.975 Y-74.58 Z-0.855
X-66.98 Y-74.576 Z-0.805
G0 Z5
X-42.944 Y-87.833
Z1
G1 Z0.195 F1016
X-42.949 Y-87.828 Z0.145
X-42.962 Y-87.814 Z0.097
X-42.984 Y-87.792 Z0.057
X-43.013 Y-87.764 Z0.026
X-43.046 Y-87.73 Z0.007
X-43.082 Y-87.695 Z0
X-43.151 Y-87.626
G3 X-43.426 Y-87.626 I-0.138 J-0.138
X-41.977 Y-89.075 Z-0.25 I0.725 J-0.725 F2540
X-43.426 Y-87.626 Z-0.5 I-0.725 J0.725
X-41.977 Y-89.075 Z-0.75 I0.725 J-0.725
X-43.426 Y-87.626 Z-1 I-0.725 J0.725
X-41.977 Y-89.075 I0.725 J-0.725
X-43.426 Y-87.626 I-0.725 J0.725
X-43.426 Y-87.902 I0.138 J-0.138 F1016
G1 X-43.357 Y-87.971
X-43.322 Y-88.006 Z-0.993
X-43.289 Y-88.039 Z-0.974
X-43.26 Y-88.068 Z-0.943
X-43.238 Y-88.09 Z-0.903
X-43.224 Y-88.104 Z-0.855
X-43.22 Y-88.108 Z-0.805
G0 Z5
X-54.302 Y-87.833
Z1
G1 Z0.195 F1016
X-54.306 Y-87.828 Z0.145
X-54.32 Y-87.814 Z0.097
X-54.342 Y-87.792 Z0.057
X-54.371 Y-87.764 Z0.026
X-54.404 Y-87.73 Z0.007
X-54.44 Y-87.695 Z0
X-54.509 Y-87.626
G3 X-54.784 Y-87.626 I-0.138 J-0.138
X-53.335 Y-89.075 Z-0.25 I0.725 J-0.725 F2540
X-54.784 Y-87.626 Z-0.5 I-0.725 J0.725
X-53.335 Y-89.075 Z-0.75 I0.725 J-0.725
X-54.784 Y-87.626 Z-1 I-0.725 J0.725
X-53.335 Y-89.075 I0.725 J-0.725
X-54.784 Y-87.626 I-0.725 J0.725
X-54.784 Y-87.902 I0.138 J-0.138 F1016
G1 X-54.715 Y-87.971
X-54.68 Y-88.006 Z-0.993
X-54.646 Y-88.039 Z-0.974
X-54.618 Y-88.068 Z-0.943
X-54.596 Y-88.09 Z-0.903
X-54.582 Y-88.104 Z-0.855
X-54.577 Y-88.108 Z-0.805
G0 Z5
X-55.897 Y-101.518
Z1
G1 Z0.195 F1016
X-55.893 Y-101.523 Z0.145
X-55.879 Y-101.536 Z0.097
X-55.857 Y-101.558 Z0.057
X-55.828 Y-101.587 Z0.026
X-55.795 Y-101.62 Z0.007
X-55.76 Y-101.656 Z0
X-55.691 Y-101.725
G3 X-55.415 Y-101.725 I0.138 J0.138
X-56.864 Y-100.275 Z-0.25 I-0.725 J0.725 F2540
X-55.415 Y-101.725 Z-0.5 I0.725 J-0.725
X-56.864 Y-100.275 Z-0.75 I-0.725 J0.725
X-55.415 Y-101.725 Z-1 I0.725 J-0.725
X-56.864 Y-100.275 I-0.725 J0.725
X-55.415 Y-101.725 I0.725 J-0.725
X-55.415 Y-101.449 I-0.138 J0.138 F1016
G1 X-55.484 Y-101.38
X-55.519 Y-101.344 Z-0.993
X-55.553 Y-101.311 Z-0.974
X-55.581 Y-101.283 Z-0.943
X-55.603 Y-101.261 Z-0.903
X-55.617 Y-101.247 Z-0.855
X-55.622 Y-101.242 Z-0.805
G0 Z5
X-67.255 Y-101.518
Z1
G1 Z0.195 F1016
X-67.251 Y-101.523 Z0.145
X-67.237 Y-101.536 Z0.097
X-67.215 Y-101.558 Z0.057
X-67.186 Y-101.587 Z0.026
X-67.153 Y-101.62 Z0.007
X-67.117 Y-101.656 Z0
X-67.048 Y-101.725
G3 X-66.773 Y-101.725 I0.138 J0.138
X-68.222 Y-100.275 Z-0.25 I-0.725 J0.725 F2540
X-66.773 Y-101.725 Z-0.5 I0.725 J-0.725
X-68.222 Y-100.275 Z-0.75 I-0.725 J0.725
X-66.773 Y-101.725 Z-1 I0.725 J-0.725
X-68.222 Y-100.275 I-0.725 J0.725
X-66.773 Y-101.725 I0.725 J-0.725
X-66.773 Y-101.449 I-0.138 J0.138 F1016
G1 X-66.842 Y-101.38
X-66.877 Y-101.344 Z-0.993
X-66.911 Y-101.311 Z-0.974
X-66.939 Y-101.283 Z-0.943
X-66.961 Y-101.261 Z-0.903
X-66.975 Y-101.247 Z-0.855
X-66.98 Y-101.242 Z-0.805
G0 Z15

(2D-Kontur5)
X-44.84 Y-118.693
Z15
Z5
G1 Z1.5 F508
G3 X-44.619 Y-117.075 Z1.434 I-0.503 J0.893 F1016
G1 X-45.043 Y-116.65 Z1.413
G3 X-46.492 Y-118.1 Z1.301 I-0.724 J-0.726
G1 Y-118.101
X-46.076 Y-118.516 Z1.28
X-46.072 Y-118.52
G3 X-44.621 Y-118.527 Z1.224 I0.729 J0.721
X-44.619 Y-117.075 Z1.167 I-0.723 J0.727
G1 X-45.043 Y-116.65 Z1.146
G3 X-46.492 Y-118.1 Z1.034 I-0.724 J-0.726
G1 Y-118.101
X-46.076 Y-118.516 Z1.013
X-46.072 Y-118.52
G3 X-44.621 Y-118.527 Z0.957 I0.729 J0.721
X-44.619 Y-117.075 Z0.901 I-0.723 J0.727
G1 X-45.043 Y-116.65 Z0.88
G3 X-46.492 Y-118.1 Z0.767 I-0.724 J-0.726
G1 Y-118.101
X-46.076 Y-118.516 Z0.747
X-46.072 Y-118.52 Z0.746
G3 X-44.621 Y-118.527 Z0.69 I0.729 J0.721
X-44.619 Y-117.075 Z0.634 I-0.723 J0.727
G1 X-45.043 Y-116.65 Z0.613
G3 X-46.492 Y-118.1 Z0.5 I-0.724 J-0.726
G1 Y-118.101
X-46.076 Y-118.516 Z0.48
X-46.072 Y-118.52
G3 X-44.621 Y-118.527 Z0.423 I0.729 J0.721
X-44.619 Y-117.075 Z0.367 I-0.723 J0.727
G1 X-45.043 Y-116.65 Z0.346
G3 X-46.492 Y-118.1 Z0.234 I-0.724 J-0.726
G1 Y-118.101
X-46.076 Y-118.516 Z0.213
X-46.072 Y-118.52
G3 X-44.621 Y-118.527 Z0.157 I0.729 J0.721
X-44.619 Y-117.075 Z0.1 I-0.723 J0.727
G1 X-45.043 Y-116.65 Z0.079
G3 X-46.492 Y-118.1 Z-0.033 I-0.724 J-0.726
G1 Y-118.101
X-46.076 Y-118.516 Z-0.054
X-46.072 Y-118.52
G3 X-44.621 Y-118.527 Z-0.11 I0.729 J0.721
X-44.619 Y-117.075 Z-0.167 I-0.723 J0.727
G1 X-45.043 Y-116.65 Z-0.188
G3 X-46.492 Y-118.1 Z-0.3 I-0.724 J-0.726
G1 Y-118.101
X-46.076 Y-118.516 F2540
X-46.072 Y-118.52
G3 X-44.621 Y-118.527 I0.729 J0.721
X-44.619 Y-117.075 I-0.723 J0.727
G1 X-45.043 Y-116.65
G3 X-46.492 Y-118.1 I-0.724 J-0.726
G1 Y-118.101
X-46.076 Y-118.516 Z-0.321 F1016
X-46.072 Y-118.52
G3 X-44.621 Y-118.527 Z-0.377 I0.729 J0.721
X-44.619 Y-117.075 Z-0.433 I-0.723 J0.727
G1 X-45.043 Y-116.65 Z-0.454
G3 X-46.492 Y-118.1 Z-0.567 I-0.724 J-0.726
G1 Y-118.101
X-46.076 Y-118.516 Z-0.587
X-46.072 Y-118.52
G3 X-45.781 Y-118.726 Z-0.6 I0.729 J0.721
X-44.619 Y-117.075 I0.438 J0.927 F2540
G1 X-45.043 Y-116.65
G3 X-46.492 Y-118.1 I-0.724 J-0.726
G1 Y-118.101
X-46.076 Y-118.516
X-46.072 Y-118.52
G3 X-45.781 Y-118.726 I0.729 J0.721
X-44.619 Y-117.075 Z-0.7 I0.438 J0.927 F1016
G1 X-45.043 Y-116.65 Z-0.721
G3 X-46.492 Y-118.1 Z-0.834 I-0.724 J-0.726
G1 X-46.076 Y-118.516 Z-0.854
X-46.072 Y-118.52
G3 X-44.864 Y-118.705 Z-0.9 I0.729 J0.721
X-44.619 Y-117.075 I-0.48 J0.906 F2540
G1 X-45.043 Y-116.65
G3 X-46.492 Y-118.1 I-0.724 J-0.726
G1 X-46.076 Y-118.516
X-46.072 Y-118.52
G3 X-44.864 Y-118.705 I0.729 J0.721
X-44.619 Y-117.075 Z-0.967 I-0.48 J0.906 F1016
G1 X-45.043 Y-116.65 Z-0.988
G3 X-45.326 Y-116.451 Z-1 I-0.724 J-0.726
X-46.492 Y-118.1 I-0.442 J-0.925 F2540
G1 X-46.076 Y-118.516
X-46.072 Y-118.52
G3 X-44.621 Y-118.527 I0.729 J0.721
X-44.619 Y-117.075 I-0.723 J0.727
G1 X-45.043 Y-116.65
G3 X-45.326 Y-116.451 I-0.724 J-0.726
X-45.586 Y-116.543 I-0.084 J-0.176 F1016
G1 X-45.67 Y-116.719
X-45.691 Y-116.764 Z-0.993
X-45.712 Y-116.807 Z-0.974
X-45.729 Y-116.843 Z-0.943
X-45.742 Y-116.871 Z-0.902
X-45.751 Y-116.889 Z-0.855
X-45.754 Y-116.895 Z-0.805
G0 Z5
X-62.597 Y-118.304
G1 Z1.5 F508
G3 X-60.976 Y-118.52 Z1.434 I0.892 J0.504 F1016
G1 X-60.972 Y-118.516
X-60.556 Y-118.1 Z1.413
G3 X-62.005 Y-116.65 Z1.301 I-0.725 J0.725
G1 X-62.429 Y-117.075 Z1.28
G3 X-62.428 Y-118.526 Z1.223 I0.724 J-0.725
X-60.976 Y-118.52 Z1.167 I0.723 J0.726
G1 X-60.972 Y-118.516
X-60.556 Y-118.1 Z1.146
G3 X-62.005 Y-116.65 Z1.034 I-0.725 J0.725
G1 X-62.429 Y-117.075 Z1.013
G3 X-62.428 Y-118.526 Z0.957 I0.724 J-0.725
X-60.976 Y-118.52 Z0.9 I0.723 J0.726
G1 X-60.972 Y-118.516
X-60.556 Y-118.1 Z0.88
G3 X-62.005 Y-116.65 Z0.767 I-0.725 J0.725
G1 X-62.429 Y-117.075 Z0.746
G3 X-62.428 Y-118.526 Z0.69 I0.724 J-0.725
X-60.976 Y-118.52 Z0.634 I0.723 J0.726
G1 X-60.972 Y-118.516 Z0.633
X-60.556 Y-118.1 Z0.613
G3 X-62.005 Y-116.65 Z0.5 I-0.725 J0.725
G1 X-62.429 Y-117.075 Z0.479
G3 X-62.428 Y-118.526 Z0.423 I0.724 J-0.725
X-60.976 Y-118.52 Z0.367 I0.723 J0.726
G1 X-60.972 Y-118.516
X-60.556 Y-118.1 Z0.346
G3 X-62.005 Y-116.65 Z0.234 I-0.725 J0.725
G1 X-62.429 Y-117.075 Z0.213
G3 X-62.428 Y-118.526 Z0.156 I0.724 J-0.725
X-60.976 Y-118.52 Z0.1 I0.723 J0.726
G1 X-60.972 Y-118.516
X-60.556 Y-118.1 Z0.079
G3 X-62.005 Y-116.65 Z-0.033 I-0.725 J0.725
G1 X-62.429 Y-117.075 Z-0.054
G3 X-62.428 Y-118.526 Z-0.11 I0.724 J-0.725
X-60.976 Y-118.52 Z-0.167 I0.723 J0.726
G1 X-60.972 Y-118.516
X-60.556 Y-118.1 Z-0.188
G3 X-62.005 Y-116.65 Z-0.3 I-0.725 J0.725
G1 X-62.007 Y-116.652
X-62.424 Y-117.069 F2540
X-62.429 Y-117.075
G3 X-62.428 Y-118.526 I0.724 J-0.725
X-60.976 Y-118.52 I0.723 J0.726
G1 X-60.972 Y-118.516
X-60.556 Y-118.1
G3 X-62.005 Y-116.65 I-0.725 J0.725
G1 X-62.007 Y-116.652
X-62.429 Y-117.075 Z-0.321 F1016
G3 X-62.428 Y-118.526 Z-0.377 I0.724 J-0.725
X-60.976 Y-118.52 Z-0.434 I0.723 J0.726
G1 X-60.972 Y-118.516
X-60.556 Y-118.1 Z-0.454
G3 X-62.005 Y-116.65 Z-0.567 I-0.725 J0.725
G1 X-62.429 Y-117.075 Z-0.588
G3 X-62.632 Y-117.362 Z-0.6 I0.724 J-0.725
X-60.976 Y-118.52 I0.927 J-0.438 F2540
G1 X-60.972 Y-118.516
X-60.556 Y-118.1
G3 X-62.005 Y-116.65 I-0.725 J0.725
G1 X-62.429 Y-117.075
G3 X-62.632 Y-117.362 I0.724 J-0.725
X-60.976 Y-118.52 Z-0.7 I0.927 J-0.438 F1016
G1 X-60.972 Y-118.516 Z-0.701
X-60.556 Y-118.1 Z-0.721
G3 X-62.005 Y-116.65 Z-0.833 I-0.725 J0.725
G1 X-62.429 Y-117.075 Z-0.854
G3 X-62.611 Y-118.28 Z-0.9 I0.724 J-0.725
X-60.976 Y-118.52 I0.906 J0.48 F2540
G1 X-60.972 Y-118.516
X-60.556 Y-118.1
G3 X-62.005 Y-116.65 I-0.725 J0.725
G1 X-62.424 Y-117.069
X-62.429 Y-117.075
G3 X-62.611 Y-118.28 I0.724 J-0.725
X-60.976 Y-118.52 Z-0.967 I0.906 J0.48 F1016
G1 X-60.972 Y-118.516
X-60.556 Y-118.1 Z-0.988
G3 X-60.356 Y-117.818 Z-1 I-0.725 J0.725
X-62.005 Y-116.65 I-0.925 J0.442 F2540
G1 X-62.424 Y-117.069
X-62.429 Y-117.075
G3 X-62.428 Y-118.526 I0.724 J-0.725
X-60.976 Y-118.52 I0.723 J0.726
G1 X-60.972 Y-118.516
X-60.556 Y-118.1
G3 X-60.356 Y-117.818 I-0.725 J0.725
X-60.448 Y-117.558 I-0.176 J0.084 F1016
G1 X-60.624 Y-117.474
X-60.669 Y-117.452 Z-0.993
X-60.712 Y-117.432 Z-0.974
X-60.748 Y-117.414 Z-0.943
X-60.776 Y-117.401 Z-0.903
X-60.794 Y-117.392 Z-0.855
X-60.8 Y-117.39 Z-0.805
G0 Z5
X-60.369 Y-154.33
G1 Z1.5 F508
G3 X-60.556 Y-153.138 Z1.455 I-0.912 J0.467 F1016
G1 X-60.972 Y-152.722 Z1.434
X-60.976 Y-152.718
G3 X-62.428 Y-152.711 Z1.378 I-0.729 J-0.721
X-62.43 Y-154.163 Z1.322 I0.723 J-0.727
G1 X-62.424 Y-154.169 Z1.321
X-62.005 Y-154.588 Z1.301
G3 X-60.556 Y-153.138 Z1.188 I0.724 J0.726
G1 X-60.972 Y-152.722 Z1.168
X-60.976 Y-152.718 Z1.167
G3 X-62.428 Y-152.711 Z1.111 I-0.729 J-0.721
X-62.43 Y-154.163 Z1.055 I0.723 J-0.727
G1 X-62.424 Y-154.169 Z1.054
X-62.005 Y-154.588 Z1.034
G3 X-60.556 Y-153.138 Z0.921 I0.724 J0.726
G1 X-60.972 Y-152.722 Z0.901
X-60.976 Y-152.718
G3 X-62.428 Y-152.711 Z0.844 I-0.729 J-0.721
X-62.43 Y-154.163 Z0.788 I0.723 J-0.727
G1 X-62.424 Y-154.169
X-62.005 Y-154.588 Z0.767
G3 X-60.556 Y-153.138 Z0.655 I0.724 J0.726
G1 X-60.972 Y-152.722 Z0.634
X-60.976 Y-152.718
G3 X-62.428 Y-152.711 Z0.578 I-0.729 J-0.721
X-62.43 Y-154.163 Z0.521 I0.723 J-0.727
G1 X-62.424 Y-154.169
X-62.005 Y-154.588 Z0.5
G3 X-60.556 Y-153.138 Z0.388 I0.724 J0.726
G1 X-60.972 Y-152.722 Z0.367
X-60.976 Y-152.718
G3 X-62.428 Y-152.711 Z0.311 I-0.729 J-0.721
X-62.43 Y-154.163 Z0.254 I0.723 J-0.727
G1 X-62.424 Y-154.169
X-62.005 Y-154.588 Z0.233
G3 X-60.556 Y-153.138 Z0.121 I0.724 J0.726
G1 X-60.972 Y-152.722 Z0.101
X-60.976 Y-152.718 Z0.1
G3 X-62.428 Y-152.711 Z0.044 I-0.729 J-0.721
X-62.43 Y-154.163 Z-0.012 I0.723 J-0.727
G1 X-62.424 Y-154.169 Z-0.013
X-62.005 Y-154.588 Z-0.033
G3 X-60.556 Y-153.138 Z-0.146 I0.724 J0.726
G1 X-60.972 Y-152.722 Z-0.166
X-60.976 Y-152.718
G3 X-62.428 Y-152.711 Z-0.223 I-0.729 J-0.721
X-62.43 Y-154.163 Z-0.279 I0.723 J-0.727
G1 X-62.424 Y-154.169
X-62.007 Y-154.586 Z-0.3
X-62.005 Y-154.588 F2540
G3 X-60.556 Y-153.138 I0.724 J0.726
G1 X-60.972 Y-152.722
X-60.976 Y-152.718
G3 X-62.428 Y-152.711 I-0.729 J-0.721
X-62.43 Y-154.163 I0.723 J-0.727
G1 X-62.424 Y-154.169
X-62.007 Y-154.586
X-62.005 Y-154.588 F1016
G3 X-60.556 Y-153.138 Z-0.412 I0.724 J0.726
G1 X-60.972 Y-152.722 Z-0.433
X-60.976 Y-152.718
G3 X-62.428 Y-152.711 Z-0.49 I-0.729 J-0.721
X-62.43 Y-154.163 Z-0.546 I0.723 J-0.727
G1 X-62.424 Y-154.169
X-62.005 Y-154.588 Z-0.567
G3 X-61.136 Y-154.877 Z-0.6 I0.724 J0.726
X-60.556 Y-153.138 I-0.145 J1.015 F2540
G1 X-60.972 Y-152.722
X-60.976 Y-152.718
G3 X-62.428 Y-152.711 I-0.729 J-0.721
X-62.43 Y-154.163 I0.723 J-0.727
G1 X-62.424 Y-154.169
X-62.007 Y-154.586
X-62.005 Y-154.588
G3 X-61.136 Y-154.877 I0.724 J0.726
X-60.556 Y-153.138 Z-0.679 I-0.145 J1.015 F1016
G1 X-60.972 Y-152.722 Z-0.7
X-60.976 Y-152.718
G3 X-62.428 Y-152.711 Z-0.756 I-0.729 J-0.721
X-62.43 Y-154.163 Z-0.813 I0.723 J-0.727
G1 X-62.424 Y-154.169
X-62.005 Y-154.588 Z-0.834
G3 X-60.382 Y-154.355 Z-0.9 I0.724 J0.726
X-60.556 Y-153.138 I-0.899 J0.492 F2540
G1 X-60.972 Y-152.722
X-60.976 Y-152.718
G3 X-62.428 Y-152.711 I-0.729 J-0.721
X-62.43 Y-154.163 I0.723 J-0.727
G1 X-62.424 Y-154.169
X-62.005 Y-154.588
G3 X-60.382 Y-154.355 I0.724 J0.726
X-60.556 Y-153.138 Z-0.946 I-0.899 J0.492 F1016
G1 X-60.972 Y-152.722 Z-0.967
X-60.976 Y-152.718
G3 X-61.845 Y-152.423 Z-1 I-0.729 J-0.721
X-62.43 Y-154.163 I0.14 J-1.015 F2540
G1 X-62.424 Y-154.169
X-62.005 Y-154.588
G3 X-60.556 Y-153.138 I0.724 J0.726
G1 X-60.972 Y-152.722
X-60.976 Y-152.718
G3 X-61.845 Y-152.423 I-0.729 J-0.721
X-62.012 Y-152.643 I0.027 J-0.193 F1016
G1 X-61.985 Y-152.836
X-61.978 Y-152.886 Z-0.993
X-61.972 Y-152.932 Z-0.974
X-61.966 Y-152.972 Z-0.943
X-61.962 Y-153.003 Z-0.903
X-61.959 Y-153.022 Z-0.855
X-61.958 Y-153.029 Z-0.805
G0 Z5
X-44.451 Y-152.934
G1 Z1.5 F508
G3 X-46.072 Y-152.718 Z1.434 I-0.892 J-0.504 F1016
G1 X-46.076 Y-152.722
X-46.492 Y-153.138 Z1.413
G3 X-45.043 Y-154.588 Z1.301 I0.725 J-0.725
G1 X-45.042 Y-154.586
X-44.619 Y-154.163 Z1.28
G3 X-44.62 Y-152.712 Z1.223 I-0.724 J0.725
X-46.072 Y-152.718 Z1.167 I-0.723 J-0.726
G1 X-46.076 Y-152.722
X-46.492 Y-153.138 Z1.146
G3 X-45.043 Y-154.588 Z1.034 I0.725 J-0.725
G1 X-45.042 Y-154.586
X-44.619 Y-154.163 Z1.013
G3 X-44.62 Y-152.712 Z0.957 I-0.724 J0.725
X-46.072 Y-152.718 Z0.9 I-0.723 J-0.726
G1 X-46.076 Y-152.722
X-46.492 Y-153.138 Z0.88
G3 X-45.043 Y-154.588 Z0.767 I0.725 J-0.725
G1 X-45.042 Y-154.586
X-44.619 Y-154.163 Z0.746
G3 X-44.62 Y-152.712 Z0.69 I-0.724 J0.725
X-46.072 Y-152.718 Z0.634 I-0.723 J-0.726
G1 X-46.076 Y-152.722 Z0.633
X-46.492 Y-153.138 Z0.613
G3 X-45.043 Y-154.588 Z0.5 I0.725 J-0.725
G1 X-45.042 Y-154.586
X-44.619 Y-154.163 Z0.479
G3 X-44.62 Y-152.712 Z0.423 I-0.724 J0.725
X-46.072 Y-152.718 Z0.367 I-0.723 J-0.726
G1 X-46.076 Y-152.722
X-46.492 Y-153.138 Z0.346
G3 X-45.043 Y-154.588 Z0.234 I0.725 J-0.725
G1 X-45.042 Y-154.586
X-44.619 Y-154.163 Z0.213
G3 X-44.62 Y-152.712 Z0.156 I-0.724 J0.725
X-46.072 Y-152.718 Z0.1 I-0.723 J-0.726
G1 X-46.076 Y-152.722
X-46.492 Y-153.138 Z0.079
G3 X-45.043 Y-154.588 Z-0.033 I0.725 J-0.725
G1 X-45.042 Y-154.586
X-44.619 Y-154.163 Z-0.054
G3 X-44.62 Y-152.712 Z-0.11 I-0.724 J0.725
X-46.072 Y-152.718 Z-0.167 I-0.723 J-0.726
G1 X-46.076 Y-152.722
X-46.492 Y-153.138 Z-0.188
G3 X-45.043 Y-154.588 Z-0.3 I0.725 J-0.725
G1 X-45.042 Y-154.586
X-44.619 Y-154.163 F2540
G3 X-44.62 Y-152.712 I-0.724 J0.725
X-46.072 Y-152.718 I-0.723 J-0.726
G1 X-46.076 Y-152.722
X-46.492 Y-153.138
G3 X-45.043 Y-154.588 I0.725 J-0.725
G1 X-45.042 Y-154.586
X-44.619 Y-154.163 Z-0.321 F1016
G3 X-44.62 Y-152.712 Z-0.377 I-0.724 J0.725
X-46.072 Y-152.718 Z-0.434 I-0.723 J-0.726
G1 X-46.076 Y-152.722
X-46.492 Y-153.138 Z-0.454
G3 X-45.043 Y-154.588 Z-0.567 I0.725 J-0.725
G1 X-45.042 Y-154.586
X-44.619 Y-154.163 Z-0.588
G3 X-44.417 Y-153.876 Z-0.6 I-0.724 J0.725
X-46.072 Y-152.718 I-0.927 J0.437 F2540
G1 X-46.076 Y-152.722
X-46.492 Y-153.138
G3 X-45.043 Y-154.588 I0.725 J-0.725
G1 X-45.042 Y-154.586
X-44.619 Y-154.163
G3 X-44.417 Y-153.876 I-0.724 J0.725
X-46.072 Y-152.718 Z-0.7 I-0.927 J0.437 F1016
G1 X-46.076 Y-152.722 Z-0.701
X-46.492 Y-153.138 Z-0.721
G3 X-45.043 Y-154.588 Z-0.833 I0.725 J-0.725
G1 X-44.619 Y-154.163 Z-0.854
G3 X-44.438 Y-152.958 Z-0.9 I-0.724 J0.725
X-46.072 Y-152.718 I-0.905 J-0.48 F2540
G1 X-46.076 Y-152.722
X-46.492 Y-153.138
G3 X-45.043 Y-154.588 I0.725 J-0.725
G1 X-44.619 Y-154.163
G3 X-44.438 Y-152.958 I-0.724 J0.725
X-46.072 Y-152.718 Z-0.967 I-0.905 J-0.48 F1016
G1 X-46.076 Y-152.722
X-46.492 Y-153.138 Z-0.988
G3 X-46.693 Y-153.421 Z-1 I0.725 J-0.725
X-45.043 Y-154.588 I0.925 J-0.441 F2540
G1 X-44.619 Y-154.163
G3 X-44.62 Y-152.712 I-0.724 J0.725
X-46.072 Y-152.718 I-0.723 J-0.726
G1 X-46.076 Y-152.722
X-46.492 Y-153.138
G3 X-46.693 Y-153.421 I0.725 J-0.725
X-46.6 Y-153.681 I0.176 J-0.084 F1016
G1 X-46.424 Y-153.765
X-46.379 Y-153.787 Z-0.993
X-46.336 Y-153.807 Z-0.974
X-46.3 Y-153.824 Z-0.943
X-46.272 Y-153.837 Z-0.903
X-46.254 Y-153.846 Z-0.855
X-46.248 Y-153.849 Z-0.805
G0 Z5
X-10.209 Y-152.546
G1 Z1.5 F508
G3 X-10.43 Y-154.163 Z1.434 I0.504 J-0.892 F1016
G1 X-10.005 Y-154.588 Z1.413
G3 X-8.556 Y-153.138 Z1.301 I0.724 J0.726
G1 X-8.557 Y-153.137
X-8.972 Y-152.722 Z1.28
X-8.976 Y-152.718
G3 X-10.428 Y-152.711 Z1.224 I-0.729 J-0.721
X-10.43 Y-154.163 Z1.167 I0.723 J-0.727
G1 X-10.005 Y-154.588 Z1.146
G3 X-8.556 Y-153.138 Z1.034 I0.724 J0.726
G1 X-8.557 Y-153.137
X-8.972 Y-152.722 Z1.013
X-8.976 Y-152.718
G3 X-10.428 Y-152.711 Z0.957 I-0.729 J-0.721
X-10.43 Y-154.163 Z0.901 I0.723 J-0.727
G1 X-10.005 Y-154.588 Z0.88
G3 X-8.556 Y-153.138 Z0.767 I0.724 J0.726
G1 X-8.557 Y-153.137
X-8.972 Y-152.722 Z0.747
X-8.976 Y-152.718 Z0.746
G3 X-10.428 Y-152.711 Z0.69 I-0.729 J-0.721
X-10.43 Y-154.163 Z0.634 I0.723 J-0.727
G1 X-10.005 Y-154.588 Z0.613
G3 X-8.556 Y-153.138 Z0.5 I0.724 J0.726
G1 X-8.557 Y-153.137
X-8.972 Y-152.722 Z0.48
X-8.976 Y-152.718
G3 X-10.428 Y-152.711 Z0.423 I-0.729 J-0.721
X-10.43 Y-154.163 Z0.367 I0.723 J-0.727
G1 X-10.005 Y-154.588 Z0.346
G3 X-8.556 Y-153.138 Z0.234 I0.724 J0.726
G1 X-8.557 Y-153.137
X-8.972 Y-152.722 Z0.213
X-8.976 Y-152.718
G3 X-10.428 Y-152.711 Z0.157 I-0.729 J-0.721
X-10.43 Y-154.163 Z0.1 I0.723 J-0.727
G1 X-10.005 Y-154.588 Z0.079
G3 X-8.556 Y-153.138 Z-0.033 I0.724 J0.726
G1 X-8.557 Y-153.137
X-8.972 Y-152.722 Z-0.054
X-8.976 Y-152.718
G3 X-10.428 Y-152.711 Z-0.11 I-0.729 J-0.721
X-10.43 Y-154.163 Z-0.167 I0.723 J-0.727
G1 X-10.005 Y-154.588 Z-0.188
G3 X-8.556 Y-153.138 Z-0.3 I0.724 J0.726
G1 X-8.557 Y-153.137
X-8.972 Y-152.722 F2540
X-8.976 Y-152.718
G3 X-10.428 Y-152.711 I-0.729 J-0.721
X-10.43 Y-154.163 I0.723 J-0.727
G1 X-10.005 Y-154.588
G3 X-8.556 Y-153.138 I0.724 J0.726
G1 X-8.557 Y-153.137
X-8.972 Y-152.722 Z-0.321 F1016
X-8.976 Y-152.718
G3 X-10.428 Y-152.711 Z-0.377 I-0.729 J-0.721
X-10.43 Y-154.163 Z-0.433 I0.723 J-0.727
G1 X-10.005 Y-154.588 Z-0.454
G3 X-8.556 Y-153.138 Z-0.567 I0.724 J0.726
G1 X-8.557 Y-153.137
X-8.972 Y-152.722 Z-0.587
X-8.976 Y-152.718
G3 X-9.267 Y-152.512 Z-0.6 I-0.729 J-0.721
X-10.43 Y-154.163 I-0.438 J-0.926 F2540
G1 X-10.005 Y-154.588
G3 X-8.556 Y-153.138 I0.724 J0.726
G1 X-8.557 Y-153.137
X-8.972 Y-152.722
X-8.976 Y-152.718
G3 X-9.267 Y-152.512 I-0.729 J-0.721
X-10.43 Y-154.163 Z-0.7 I-0.438 J-0.926 F1016
G1 X-10.005 Y-154.588 Z-0.721
G3 X-8.556 Y-153.138 Z-0.834 I0.724 J0.726
G1 X-8.972 Y-152.722 Z-0.854
X-8.976 Y-152.718
G3 X-10.185 Y-152.532 Z-0.9 I-0.729 J-0.721
X-10.43 Y-154.163 I0.48 J-0.906 F2540
G1 X-10.005 Y-154.588
G3 X-8.556 Y-153.138 I0.724 J0.726
G1 X-8.972 Y-152.722
X-8.976 Y-152.718
G3 X-10.185 Y-152.532 I-0.729 J-0.721
X-10.43 Y-154.163 Z-0.967 I0.48 J-0.906 F1016
G1 X-10.005 Y-154.588 Z-0.988
G3 X-9.723 Y-154.787 Z-1 I0.724 J0.726
X-8.556 Y-153.138 I0.442 J0.925 F2540
G1 X-8.972 Y-152.722
X-8.976 Y-152.718
G3 X-10.428 Y-152.711 I-0.729 J-0.721
X-10.43 Y-154.163 I0.723 J-0.727
G1 X-10.005 Y-154.588
G3 X-9.723 Y-154.787 I0.724 J0.726
X-9.463 Y-154.695 I0.084 J0.176 F1016
G1 X-9.379 Y-154.519
X-9.357 Y-154.474 Z-0.993
X-9.337 Y-154.431 Z-0.974
X-9.32 Y-154.395 Z-0.943
X-9.306 Y-154.367 Z-0.903
X-9.298 Y-154.349 Z-0.855
X-9.295 Y-154.343 Z-0.805
G0 Z5
X-10.597 Y-118.304
G1 Z1.5 F508
G3 X-8.976 Y-118.52 Z1.434 I0.892 J0.504 F1016
G1 X-8.972 Y-118.516
X-8.556 Y-118.1 Z1.413
G3 X-10.005 Y-116.65 Z1.301 I-0.725 J0.725
G1 X-10.429 Y-117.075 Z1.28
G3 X-10.428 Y-118.526 Z1.223 I0.724 J-0.725
X-8.976 Y-118.52 Z1.167 I0.723 J0.726
G1 X-8.972 Y-118.516
X-8.556 Y-118.1 Z1.146
G3 X-10.005 Y-116.65 Z1.034 I-0.725 J0.725
G1 X-10.429 Y-117.075 Z1.013
G3 X-10.428 Y-118.526 Z0.957 I0.724 J-0.725
X-8.976 Y-118.52 Z0.9 I0.723 J0.726
G1 X-8.972 Y-118.516
X-8.556 Y-118.1 Z0.88
G3 X-10.005 Y-116.65 Z0.767 I-0.725 J0.725
G1 X-10.429 Y-117.075 Z0.746
G3 X-10.428 Y-118.526 Z0.69 I0.724 J-0.725
X-8.976 Y-118.52 Z0.634 I0.723 J0.726
G1 X-8.972 Y-118.516 Z0.633
X-8.556 Y-118.1 Z0.613
G3 X-10.005 Y-116.65 Z0.5 I-0.725 J0.725
G1 X-10.429 Y-117.075 Z0.479
G3 X-10.428 Y-118.526 Z0.423 I0.724 J-0.725
X-8.976 Y-118.52 Z0.367 I0.723 J0.726
G1 X-8.972 Y-118.516
X-8.556 Y-118.1 Z0.346
G3 X-10.005 Y-116.65 Z0.234 I-0.725 J0.725
G1 X-10.429 Y-117.075 Z0.213
G3 X-10.428 Y-118.526 Z0.156 I0.724 J-0.725
X-8.976 Y-118.52 Z0.1 I0.723 J0.726
G1 X-8.972 Y-118.516
X-8.556 Y-118.1 Z0.079
G3 X-10.005 Y-116.65 Z-0.033 I-0.725 J0.725
G1 X-10.429 Y-117.075 Z-0.054
G3 X-10.428 Y-118.526 Z-0.11 I0.724 J-0.725
X-8.976 Y-118.52 Z-0.167 I0.723 J0.726
G1 X-8.972 Y-118.516
X-8.556 Y-118.1 Z-0.188
G3 X-10.005 Y-116.65 Z-0.3 I-0.725 J0.725
G1 X-10.007 Y-116.652
X-10.429 Y-117.075 F2540
G3 X-10.428 Y-118.526 I0.724 J-0.725
X-8.976 Y-118.52 I0.723 J0.726
G1 X-8.972 Y-118.516
X-8.556 Y-118.1
G3 X-10.005 Y-116.65 I-0.725 J0.725
G1 X-10.007 Y-116.652
X-10.429 Y-117.075 Z-0.321 F1016
G3 X-10.428 Y-118.526 Z-0.377 I0.724 J-0.725
X-8.976 Y-118.52 Z-0.434 I0.723 J0.726
G1 X-8.972 Y-118.516
X-8.556 Y-118.1 Z-0.454
G3 X-10.005 Y-116.65 Z-0.567 I-0.725 J0.725
G1 X-10.429 Y-117.075 Z-0.588
G3 X-10.632 Y-117.362 Z-0.6 I0.724 J-0.725
X-8.976 Y-118.52 I0.927 J-0.438 F2540
G1 X-8.972 Y-118.516
X-8.556 Y-118.1
G3 X-10.005 Y-116.65 I-0.725 J0.725
G1 X-10.429 Y-117.075
G3 X-10.632 Y-117.362 I0.724 J-0.725
X-8.976 Y-118.52 Z-0.7 I0.927 J-0.438 F1016
G1 X-8.972 Y-118.516 Z-0.701
X-8.556 Y-118.1 Z-0.721
G3 X-10.005 Y-116.65 Z-0.833 I-0.725 J0.725
G1 X-10.429 Y-117.075 Z-0.854
G3 X-10.611 Y-118.28 Z-0.9 I0.724 J-0.725
X-8.976 Y-118.52 I0.906 J0.48 F2540
G1 X-8.972 Y-118.516
X-8.556 Y-118.1
G3 X-10.005 Y-116.65 I-0.725 J0.725
G1 X-10.429 Y-117.075
G3 X-10.611 Y-118.28 I0.724 J-0.725
X-8.976 Y-118.52 Z-0.967 I0.906 J0.48 F1016
G1 X-8.972 Y-118.516
X-8.556 Y-118.1 Z-0.988
G3 X-8.356 Y-117.817 Z-1 I-0.725 J0.725
X-10.005 Y-116.65 I-0.925 J0.442 F2540
G1 X-10.429 Y-117.075
G3 X-10.428 Y-118.526 I0.724 J-0.725
X-8.976 Y-118.52 I0.723 J0.726
G1 X-8.972 Y-118.516
X-8.556 Y-118.1
G3 X-8.356 Y-117.817 I-0.725 J0.725
X-8.448 Y-117.558 I-0.176 J0.084 F1016
G1 X-8.624 Y-117.474
X-8.669 Y-117.452 Z-0.993
X-8.712 Y-117.432 Z-0.974
X-8.748 Y-117.414 Z-0.943
X-8.776 Y-117.401 Z-0.903
X-8.794 Y-117.392 Z-0.855
X-8.8 Y-117.39 Z-0.805
G0 Z5
X-98.679 Y-116.907
G1 Z1.5 F508
G3 X-98.492 Y-118.1 Z1.455 I0.912 J-0.468 F1016
G1 X-98.076 Y-118.516 Z1.434
X-98.072 Y-118.52
G3 X-96.621 Y-118.527 Z1.378 I0.729 J0.721
X-96.619 Y-117.075 Z1.322 I-0.723 J0.727
G1 X-96.625 Y-117.069 Z1.321
X-97.043 Y-116.65 Z1.301
G3 X-98.492 Y-118.1 Z1.188 I-0.724 J-0.726
G1 X-98.076 Y-118.516 Z1.168
X-98.072 Y-118.52 Z1.167
G3 X-96.621 Y-118.527 Z1.111 I0.729 J0.721
X-96.619 Y-117.075 Z1.055 I-0.723 J0.727
G1 X-96.625 Y-117.069 Z1.054
X-97.043 Y-116.65 Z1.034
G3 X-98.492 Y-118.1 Z0.921 I-0.724 J-0.726
G1 X-98.076 Y-118.516 Z0.901
X-98.072 Y-118.52
G3 X-96.621 Y-118.527 Z0.844 I0.729 J0.721
X-96.619 Y-117.075 Z0.788 I-0.723 J0.727
G1 X-96.625 Y-117.069
X-97.043 Y-116.65 Z0.767
G3 X-98.492 Y-118.1 Z0.655 I-0.724 J-0.726
G1 X-98.076 Y-118.516 Z0.634
X-98.072 Y-118.52
G3 X-96.621 Y-118.527 Z0.578 I0.729 J0.721
X-96.619 Y-117.075 Z0.521 I-0.723 J0.727
G1 X-96.625 Y-117.069
X-97.043 Y-116.65 Z0.5
G3 X-98.492 Y-118.1 Z0.388 I-0.724 J-0.726
G1 X-98.076 Y-118.516 Z0.367
X-98.072 Y-118.52
G3 X-96.621 Y-118.527 Z0.311 I0.729 J0.721
X-96.619 Y-117.075 Z0.254 I-0.723 J0.727
G1 X-96.625 Y-117.069
X-97.043 Y-116.65 Z0.233
G3 X-98.492 Y-118.1 Z0.121 I-0.724 J-0.726
G1 X-98.076 Y-118.516 Z0.101
X-98.072 Y-118.52 Z0.1
G3 X-96.621 Y-118.527 Z0.044 I0.729 J0.721
X-96.619 Y-117.075 Z-0.012 I-0.723 J0.727
G1 X-96.625 Y-117.069 Z-0.013
X-97.043 Y-116.65 Z-0.033
G3 X-98.492 Y-118.1 Z-0.146 I-0.724 J-0.726
G1 X-98.076 Y-118.516 Z-0.166
X-98.072 Y-118.52
G3 X-96.621 Y-118.527 Z-0.223 I0.729 J0.721
X-96.619 Y-117.075 Z-0.279 I-0.723 J0.727
G1 X-96.625 Y-117.069
X-97.042 Y-116.652 Z-0.3
X-97.043 Y-116.65 F2540
G3 X-98.492 Y-118.1 I-0.724 J-0.726
G1 X-98.076 Y-118.516
X-98.072 Y-118.52
G3 X-96.621 Y-118.527 I0.729 J0.721
X-96.619 Y-117.075 I-0.723 J0.727
G1 X-96.625 Y-117.069
X-97.042 Y-116.652
X-97.043 Y-116.65 F1016
G3 X-98.492 Y-118.1 Z-0.412 I-0.724 J-0.726
G1 X-98.076 Y-118.516 Z-0.433
X-98.072 Y-118.52
G3 X-96.621 Y-118.527 Z-0.49 I0.729 J0.721
X-96.619 Y-117.075 Z-0.546 I-0.723 J0.727
G1 X-96.625 Y-117.069
X-97.043 Y-116.65 Z-0.567
G3 X-97.912 Y-116.361 Z-0.6 I-0.724 J-0.726
X-98.492 Y-118.1 I0.145 J-1.015 F2540
G1 X-98.076 Y-118.516
X-98.072 Y-118.52
G3 X-96.621 Y-118.527 I0.729 J0.721
X-96.619 Y-117.075 I-0.723 J0.727
G1 X-96.625 Y-117.069
X-97.042 Y-116.652
X-97.043 Y-116.65
G3 X-97.912 Y-116.361 I-0.724 J-0.726
X-98.492 Y-118.1 Z-0.679 I0.145 J-1.015 F1016
G1 X-98.076 Y-118.516 Z-0.7
X-98.072 Y-118.52
G3 X-96.621 Y-118.527 Z-0.756 I0.729 J0.721
X-96.619 Y-117.075 Z-0.813 I-0.723 J0.727
G1 X-96.625 Y-117.069
X-97.043 Y-116.65 Z-0.834
G3 X-98.666 Y-116.884 Z-0.9 I-0.724 J-0.726
X-98.492 Y-118.1 I0.899 J-0.492 F2540
G1 X-98.076 Y-118.516
X-98.072 Y-118.52
G3 X-96.621 Y-118.527 I0.729 J0.721
X-96.619 Y-117.075 I-0.723 J0.727
G1 X-96.625 Y-117.069
X-97.043 Y-116.65
G3 X-98.666 Y-116.884 I-0.724 J-0.726
X-98.492 Y-118.1 Z-0.946 I0.899 J-0.492 F1016
G1 X-98.076 Y-118.516 Z-0.967
X-98.072 Y-118.52
G3 X-97.203 Y-118.815 Z-1 I0.729 J0.721
X-96.619 Y-117.075 I-0.14 J1.015 F2540
G1 X-96.625 Y-117.069
X-97.043 Y-116.65
G3 X-98.492 Y-118.1 I-0.724 J-0.726
G1 X-98.076 Y-118.516
X-98.072 Y-118.52
G3 X-97.203 Y-118.815 I0.729 J0.721
X-97.037 Y-118.595 I-0.027 J0.193 F1016
G1 X-97.063 Y-118.402
X-97.07 Y-118.352 Z-0.993
X-97.077 Y-118.305 Z-0.974
X-97.082 Y-118.265 Z-0.943
X-97.086 Y-118.235 Z-0.903
X-97.089 Y-118.215 Z-0.855
X-97.09 Y-118.209 Z-0.805
G0 Z5
X-96.451 Y-152.934
G1 Z1.5 F508
G3 X-98.072 Y-152.718 Z1.434 I-0.892 J-0.504 F1016
G1 X-98.076 Y-152.722
X-98.492 Y-153.138 Z1.413
G3 X-97.043 Y-154.588 Z1.301 I0.725 J-0.725
G1 X-96.619 Y-154.163 Z1.28
G3 X-96.62 Y-152.712 Z1.223 I-0.724 J0.725
X-98.072 Y-152.718 Z1.167 I-0.723 J-0.726
G1 X-98.076 Y-152.722
X-98.492 Y-153.138 Z1.146
G3 X-97.043 Y-154.588 Z1.034 I0.725 J-0.725
G1 X-96.619 Y-154.163 Z1.013
G3 X-96.62 Y-152.712 Z0.957 I-0.724 J0.725
X-98.072 Y-152.718 Z0.9 I-0.723 J-0.726
G1 X-98.076 Y-152.722
X-98.492 Y-153.138 Z0.88
G3 X-97.043 Y-154.588 Z0.767 I0.725 J-0.725
G1 X-96.619 Y-154.163 Z0.746
G3 X-96.62 Y-152.712 Z0.69 I-0.724 J0.725
X-98.072 Y-152.718 Z0.634 I-0.723 J-0.726
G1 X-98.076 Y-152.722 Z0.633
X-98.492 Y-153.138 Z0.613
G3 X-97.043 Y-154.588 Z0.5 I0.725 J-0.725
G1 X-96.619 Y-154.163 Z0.479
G3 X-96.62 Y-152.712 Z0.423 I-0.724 J0.725
X-98.072 Y-152.718 Z0.367 I-0.723 J-0.726
G1 X-98.076 Y-152.722
X-98.492 Y-153.138 Z0.346
G3 X-97.043 Y-154.588 Z0.234 I0.725 J-0.725
G1 X-96.619 Y-154.163 Z0.213
G3 X-96.62 Y-152.712 Z0.156 I-0.724 J0.725
X-98.072 Y-152.718 Z0.1 I-0.723 J-0.726
G1 X-98.076 Y-152.722
X-98.492 Y-153.138 Z0.079
G3 X-97.043 Y-154.588 Z-0.033 I0.725 J-0.725
G1 X-96.619 Y-154.163 Z-0.054
G3 X-96.62 Y-152.712 Z-0.11 I-0.724 J0.725
X-98.072 Y-152.718 Z-0.167 I-0.723 J-0.726
G1 X-98.076 Y-152.722
X-98.492 Y-153.138 Z-0.188
G3 X-97.043 Y-154.588 Z-0.3 I0.725 J-0.725
G1 X-97.042 Y-154.586
X-96.619 Y-154.163 F2540
G3 X-96.62 Y-152.712 I-0.724 J0.725
X-98.072 Y-152.718 I-0.723 J-0.726
G1 X-98.076 Y-152.722
X-98.492 Y-153.138
G3 X-97.043 Y-154.588 I0.725 J-0.725
G1 X-97.042 Y-154.586
X-96.619 Y-154.163 Z-0.321 F1016
G3 X-96.62 Y-152.712 Z-0.377 I-0.724 J0.725
X-98.072 Y-152.718 Z-0.434 I-0.723 J-0.726
G1 X-98.076 Y-152.722
X-98.492 Y-153.138 Z-0.454
G3 X-97.043 Y-154.588 Z-0.567 I0.725 J-0.725
G1 X-96.619 Y-154.163 Z-0.588
G3 X-96.417 Y-153.876 Z-0.6 I-0.724 J0.725
X-98.072 Y-152.718 I-0.927 J0.437 F2540
G1 X-98.076 Y-152.722
X-98.492 Y-153.138
G3 X-97.043 Y-154.588 I0.725 J-0.725
G1 X-96.619 Y-154.163
G3 X-96.417 Y-153.876 I-0.724 J0.725
X-98.072 Y-152.718 Z-0.7 I-0.927 J0.437 F1016
G1 X-98.076 Y-152.722 Z-0.701
X-98.492 Y-153.138 Z-0.721
G3 X-97.043 Y-154.588 Z-0.833 I0.725 J-0.725
G1 X-96.619 Y-154.163 Z-0.854
G3 X-96.438 Y-152.958 Z-0.9 I-0.724 J0.725
X-98.072 Y-152.718 I-0.905 J-0.48 F2540
G1 X-98.076 Y-152.722
X-98.492 Y-153.138
G3 X-97.043 Y-154.588 I0.725 J-0.725
G1 X-96.619 Y-154.163
G3 X-96.438 Y-152.958 I-0.724 J0.725
X-98.072 Y-152.718 Z-0.967 I-0.905 J-0.48 F1016
G1 X-98.076 Y-152.722
X-98.492 Y-153.138 Z-0.988
G3 X-98.693 Y-153.421 Z-1 I0.725 J-0.725
X-97.043 Y-154.588 I0.925 J-0.441 F2540
G1 X-96.619 Y-154.163
G3 X-96.62 Y-152.712 I-0.724 J0.725
X-98.072 Y-152.718 I-0.723 J-0.726
G1 X-98.076 Y-152.722
X-98.492 Y-153.138
G3 X-98.693 Y-153.421 I0.725 J-0.725
X-98.6 Y-153.681 I0.176 J-0.084 F1016
G1 X-98.424 Y-153.765
X-98.379 Y-153.787 Z-0.993
X-98.336 Y-153.807 Z-0.974
X-98.3 Y-153.824 Z-0.943
X-98.272 Y-153.837 Z-0.903
X-98.254 Y-153.846 Z-0.855
X-98.248 Y-153.849 Z-0.805
G0 Z15

(Bohrfrasen3)
X-61.483 Y-135.532
Z15
Z0.805
G1 Z0 F1016
X-61.58
X-61.614 Y-135.538
X-61.642 Y-135.557
X-61.661 Y-135.586
X-61.668 Y-135.619
G3 X-61.318 Y-135.619 Z-0.25 I0.175 J0 F2540
X-61.668 Y-135.619 Z-0.5 I-0.175 J0
X-61.318 Y-135.619 Z-0.75 I0.175 J0
X-61.668 Y-135.619 Z-1 I-0.175 J0
X-61.318 Y-135.619 Z-1.25 I0.175 J0
X-61.668 Y-135.619 Z-1.5 I-0.175 J0
X-61.318 Y-135.619 Z-1.75 I0.175 J0
X-61.668 Y-135.619 Z-2 I-0.175 J0
X-61.318 Y-135.619 Z-2.25 I0.175 J0
X-61.668 Y-135.619 Z-2.5 I-0.175 J0
X-61.318 Y-135.619 Z-2.75 I0.175 J0
X-61.668 Y-135.619 Z-3 I-0.175 J0
X-61.318 Y-135.619 Z-3.25 I0.175 J0
X-61.351 Y-135.516 Z-3.3 I-0.175 J0
X-61.635 Y-135.722 I-0.142 J-0.103
X-61.351 Y-135.516 I0.142 J0.103
G1 X-61.376 Y-135.493 F1016
X-61.408 Y-135.481
X-61.443 Y-135.483
X-61.474 Y-135.497
X-61.552 Y-135.554
G0 Z5
X-45.565 Y-135.707
Z0.805
G1 Z0 F1016
X-45.468
X-45.434 Y-135.7
X-45.406 Y-135.681
X-45.387 Y-135.653
X-45.38 Y-135.619
G3 X-45.73 Y-135.619 Z-0.25 I-0.175 J0 F2540
X-45.38 Y-135.619 Z-0.5 I0.175 J0
X-45.73 Y-135.619 Z-0.75 I-0.175 J0
X-45.38 Y-135.619 Z-1 I0.175 J0
X-45.73 Y-135.619 Z-1.25 I-0.175 J0
X-45.38 Y-135.619 Z-1.5 I0.175 J0
X-45.73 Y-135.619 Z-1.75 I-0.175 J0
X-45.38 Y-135.619 Z-2 I0.175 J0
X-45.73 Y-135.619 Z-2.25 I-0.175 J0
X-45.38 Y-135.619 Z-2.5 I0.175 J0
X-45.73 Y-135.619 Z-2.75 I-0.175 J0
X-45.38 Y-135.619 Z-3 I0.175 J0
X-45.73 Y-135.619 Z-3.25 I-0.175 J0
X-45.697 Y-135.722 Z-3.3 I0.175 J0
X-45.414 Y-135.516 I0.142 J0.103
X-45.697 Y-135.722 I-0.142 J-0.103
G1 X-45.672 Y-135.745 F1016
X-45.64 Y-135.757
X-45.606 Y-135.756
X-45.575 Y-135.741
X-45.496 Y-135.684
G0 Z5
X-9.483 Y-135.532
Z0.805
G1 Z0 F1016
X-9.58
X-9.614 Y-135.538
X-9.642 Y-135.557
X-9.661 Y-135.586
X-9.668 Y-135.619
G3 X-9.318 Y-135.619 Z-0.25 I0.175 J0 F2540
X-9.668 Y-135.619 Z-0.5 I-0.175 J0
X-9.318 Y-135.619 Z-0.75 I0.175 J0
X-9.668 Y-135.619 Z-1 I-0.175 J0
X-9.318 Y-135.619 Z-1.25 I0.175 J0
X-9.668 Y-135.619 Z-1.5 I-0.175 J0
X-9.318 Y-135.619 Z-1.75 I0.175 J0
X-9.668 Y-135.619 Z-2 I-0.175 J0
X-9.318 Y-135.619 Z-2.25 I0.175 J0
X-9.668 Y-135.619 Z-2.5 I-0.175 J0
X-9.318 Y-135.619 Z-2.75 I0.175 J0
X-9.668 Y-135.619 Z-3 I-0.175 J0
X-9.318 Y-135.619 Z-3.25 I0.175 J0
X-9.351 Y-135.516 Z-3.3 I-0.175 J0
X-9.635 Y-135.722 I-0.142 J-0.103
X-9.351 Y-135.516 I0.142 J0.103
G1 X-9.376 Y-135.493 F1016
X-9.408 Y-135.481
X-9.443 Y-135.483
X-9.474 Y-135.497
X-9.552 Y-135.554
G0 Z5
X-9.483 Y-153.563
Z-0.195
G1 Z-1 F1016
X-9.58
X-9.614 Y-153.569
X-9.642 Y-153.588
X-9.661 Y-153.617
X-9.668 Y-153.65
G3 X-9.318 Y-153.65 Z-1.25 I0.175 J0 F2540
X-9.668 Y-153.65 Z-1.5 I-0.175 J0
X-9.318 Y-153.65 Z-1.75 I0.175 J0
X-9.668 Y-153.65 Z-2 I-0.175 J0
X-9.318 Y-153.65 Z-2.25 I0.175 J0
X-9.668 Y-153.65 Z-2.5 I-0.175 J0
X-9.318 Y-153.65 Z-2.75 I0.175 J0
X-9.668 Y-153.65 Z-3 I-0.175 J0
X-9.318 Y-153.65 Z-3.25 I0.175 J0
X-9.351 Y-153.547 Z-3.3 I-0.175 J0
X-9.635 Y-153.753 I-0.142 J-0.103
X-9.351 Y-153.547 I0.142 J0.103
G1 X-9.376 Y-153.524 F1016
X-9.408 Y-153.512
X-9.443 Y-153.514
X-9.474 Y-153.528
X-9.552 Y-153.585
G0 Z5
X-17.514 Y-145.532
Z0.805
G1 Z0 F1016
X-17.612
X-17.645 Y-145.538
X-17.674 Y-145.557
X-17.693 Y-145.586
X-17.699 Y-145.619
G3 X-17.349 Y-145.619 Z-0.25 I0.175 J0 F2540
X-17.699 Y-145.619 Z-0.5 I-0.175 J0
X-17.349 Y-145.619 Z-0.75 I0.175 J0
X-17.699 Y-145.619 Z-1 I-0.175 J0
X-17.349 Y-145.619 Z-1.25 I0.175 J0
X-17.699 Y-145.619 Z-1.5 I-0.175 J0
X-17.349 Y-145.619 Z-1.75 I0.175 J0
X-17.699 Y-145.619 Z-2 I-0.175 J0
X-17.349 Y-145.619 Z-2.25 I0.175 J0
X-17.699 Y-145.619 Z-2.5 I-0.175 J0
X-17.349 Y-145.619 Z-2.75 I0.175 J0
X-17.699 Y-145.619 Z-3 I-0.175 J0
X-17.349 Y-145.619 Z-3.25 I0.175 J0
X-17.383 Y-145.516 Z-3.3 I-0.175 J0
X-17.666 Y-145.722 I-0.142 J-0.103
X-17.383 Y-145.516 I0.142 J0.103
G1 X-17.408 Y-145.493 F1016
X-17.44 Y-145.481
X-17.474 Y-145.483
X-17.505 Y-145.497
X-17.584 Y-145.554
G0 Z5
X-27.534 Y-153.738
Z0.805
G1 Z0 F1016
X-27.437
X-27.403 Y-153.731
X-27.375 Y-153.712
X-27.356 Y-153.684
X-27.349 Y-153.65
G3 X-27.699 Y-153.65 Z-0.25 I-0.175 J0 F2540
X-27.349 Y-153.65 Z-0.5 I0.175 J0
X-27.699 Y-153.65 Z-0.75 I-0.175 J0
X-27.349 Y-153.65 Z-1 I0.175 J0
X-27.699 Y-153.65 Z-1.25 I-0.175 J0
X-27.349 Y-153.65 Z-1.5 I0.175 J0
X-27.699 Y-153.65 Z-1.75 I-0.175 J0
X-27.349 Y-153.65 Z-2 I0.175 J0
X-27.699 Y-153.65 Z-2.25 I-0.175 J0
X-27.349 Y-153.65 Z-2.5 I0.175 J0
X-27.699 Y-153.65 Z-2.75 I-0.175 J0
X-27.349 Y-153.65 Z-3 I0.175 J0
X-27.699 Y-153.65 Z-3.25 I-0.175 J0
X-27.666 Y-153.753 Z-3.3 I0.175 J0
X-27.383 Y-153.547 I0.142 J0.103
X-27.666 Y-153.753 I-0.142 J-0.103
G1 X-27.641 Y-153.776 F1016
X-27.609 Y-153.788
X-27.575 Y-153.787
X-27.544 Y-153.773
X-27.465 Y-153.715
G0 Z5
X-37.534 Y-145.707
Z0.805
G1 Z0 F1016
X-37.437
X-37.403 Y-145.7
X-37.375 Y-145.681
X-37.356 Y-145.653
X-37.349 Y-145.619
G3 X-37.699 Y-145.619 Z-0.25 I-0.175 J0 F2540
X-37.349 Y-145.619 Z-0.5 I0.175 J0
X-37.699 Y-145.619 Z-0.75 I-0.175 J0
X-37.349 Y-145.619 Z-1 I0.175 J0
X-37.699 Y-145.619 Z-1.25 I-0.175 J0
X-37.349 Y-145.619 Z-1.5 I0.175 J0
X-37.699 Y-145.619 Z-1.75 I-0.175 J0
X-37.349 Y-145.619 Z-2 I0.175 J0
X-37.699 Y-145.619 Z-2.25 I-0.175 J0
X-37.349 Y-145.619 Z-2.5 I0.175 J0
X-37.699 Y-145.619 Z-2.75 I-0.175 J0
X-37.349 Y-145.619 Z-3 I0.175 J0
X-37.699 Y-145.619 Z-3.25 I-0.175 J0
X-37.666 Y-145.722 Z-3.3 I0.175 J0
X-37.383 Y-145.516 I0.142 J0.103
X-37.666 Y-145.722 I-0.142 J-0.103
G1 X-37.641 Y-145.745 F1016
X-37.609 Y-145.757
X-37.575 Y-145.756
X-37.544 Y-145.741
X-37.465 Y-145.684
G0 Z5
X-45.565 Y-153.738
Z-0.195
G1 Z-1 F1016
X-45.468
X-45.434 Y-153.731
X-45.406 Y-153.712
X-45.387 Y-153.684
X-45.38 Y-153.65
G3 X-45.73 Y-153.65 Z-1.25 I-0.175 J0 F2540
X-45.38 Y-153.65 Z-1.5 I0.175 J0
X-45.73 Y-153.65 Z-1.75 I-0.175 J0
X-45.38 Y-153.65 Z-2 I0.175 J0
X-45.73 Y-153.65 Z-2.25 I-0.175 J0
X-45.38 Y-153.65 Z-2.5 I0.175 J0
X-45.73 Y-153.65 Z-2.75 I-0.175 J0
X-45.38 Y-153.65 Z-3 I0.175 J0
X-45.73 Y-153.65 Z-3.25 I-0.175 J0
X-45.697 Y-153.753 Z-3.3 I0.175 J0
X-45.414 Y-153.547 I0.142 J0.103
X-45.697 Y-153.753 I-0.142 J-0.103
G1 X-45.672 Y-153.776 F1016
X-45.64 Y-153.788
X-45.606 Y-153.787
X-45.575 Y-153.773
X-45.496 Y-153.715
G0 Z5
X-61.483 Y-153.563
Z-0.195
G1 Z-1 F1016
X-61.58
X-61.614 Y-153.569
X-61.642 Y-153.588
X-61.661 Y-153.617
X-61.668 Y-153.65
G3 X-61.318 Y-153.65 Z-1.25 I0.175 J0 F2540
X-61.668 Y-153.65 Z-1.5 I-0.175 J0
X-61.318 Y-153.65 Z-1.75 I0.175 J0
X-61.668 Y-153.65 Z-2 I-0.175 J0
X-61.318 Y-153.65 Z-2.25 I0.175 J0
X-61.668 Y-153.65 Z-2.5 I-0.175 J0
X-61.318 Y-153.65 Z-2.75 I0.175 J0
X-61.668 Y-153.65 Z-3 I-0.175 J0
X-61.318 Y-153.65 Z-3.25 I0.175 J0
X-61.351 Y-153.547 Z-3.3 I-0.175 J0
X-61.635 Y-153.753 I-0.142 J-0.103
X-61.351 Y-153.547 I0.142 J0.103
G1 X-61.376 Y-153.524 F1016
X-61.408 Y-153.512
X-61.443 Y-153.514
X-61.474 Y-153.528
X-61.552 Y-153.585
G0 Z5
X-69.514 Y-145.532
Z0.805
G1 Z0 F1016
X-69.612
X-69.645 Y-145.538
X-69.674 Y-145.557
X-69.693 Y-145.586
X-69.699 Y-145.619
G3 X-69.349 Y-145.619 Z-0.25 I0.175 J0 F2540
X-69.699 Y-145.619 Z-0.5 I-0.175 J0
X-69.349 Y-145.619 Z-0.75 I0.175 J0
X-69.699 Y-145.619 Z-1 I-0.175 J0
X-69.349 Y-145.619 Z-1.25 I0.175 J0
X-69.699 Y-145.619 Z-1.5 I-0.175 J0
X-69.349 Y-145.619 Z-1.75 I0.175 J0
X-69.699 Y-145.619 Z-2 I-0.175 J0
X-69.349 Y-145.619 Z-2.25 I0.175 J0
X-69.699 Y-145.619 Z-2.5 I-0.175 J0
X-69.349 Y-145.619 Z-2.75 I0.175 J0
X-69.699 Y-145.619 Z-3 I-0.175 J0
X-69.349 Y-145.619 Z-3.25 I0.175 J0
X-69.383 Y-145.516 Z-3.3 I-0.175 J0
X-69.666 Y-145.722 I-0.142 J-0.103
X-69.383 Y-145.516 I0.142 J0.103
G1 X-69.408 Y-145.493 F1016
X-69.44 Y-145.481
X-69.474 Y-145.483
X-69.505 Y-145.497
X-69.584 Y-145.554
G0 Z5
X-79.514 Y-153.563
Z0.805
G1 Z0 F1016
X-79.612
X-79.645 Y-153.569
X-79.674 Y-153.588
X-79.693 Y-153.617
X-79.699 Y-153.65
G3 X-79.349 Y-153.65 Z-0.25 I0.175 J0 F2540
X-79.699 Y-153.65 Z-0.5 I-0.175 J0
X-79.349 Y-153.65 Z-0.75 I0.175 J0
X-79.699 Y-153.65 Z-1 I-0.175 J0
X-79.349 Y-153.65 Z-1.25 I0.175 J0
X-79.699 Y-153.65 Z-1.5 I-0.175 J0
X-79.349 Y-153.65 Z-1.75 I0.175 J0
X-79.699 Y-153.65 Z-2 I-0.175 J0
X-79.349 Y-153.65 Z-2.25 I0.175 J0
X-79.699 Y-153.65 Z-2.5 I-0.175 J0
X-79.349 Y-153.65 Z-2.75 I0.175 J0
X-79.699 Y-153.65 Z-3 I-0.175 J0
X-79.349 Y-153.65 Z-3.25 I0.175 J0
X-79.383 Y-153.547 Z-3.3 I-0.175 J0
X-79.666 Y-153.753 I-0.142 J-0.103
X-79.383 Y-153.547 I0.142 J0.103
G1 X-79.408 Y-153.524 F1016
X-79.44 Y-153.512
X-79.474 Y-153.514
X-79.505 Y-153.528
X-79.584 Y-153.585
G0 Z5
X-89.534 Y-145.707
Z0.805
G1 Z0 F1016
X-89.437
X-89.403 Y-145.7
X-89.375 Y-145.681
X-89.356 Y-145.653
X-89.349 Y-145.619
G3 X-89.699 Y-145.619 Z-0.25 I-0.175 J0 F2540
X-89.349 Y-145.619 Z-0.5 I0.175 J0
X-89.699 Y-145.619 Z-0.75 I-0.175 J0
X-89.349 Y-145.619 Z-1 I0.175 J0
X-89.699 Y-145.619 Z-1.25 I-0.175 J0
X-89.349 Y-145.619 Z-1.5 I0.175 J0
X-89.699 Y-145.619 Z-1.75 I-0.175 J0
X-89.349 Y-145.619 Z-2 I0.175 J0
X-89.699 Y-145.619 Z-2.25 I-0.175 J0
X-89.349 Y-145.619 Z-2.5 I0.175 J0
X-89.699 Y-145.619 Z-2.75 I-0.175 J0
X-89.349 Y-145.619 Z-3 I0.175 J0
X-89.699 Y-145.619 Z-3.25 I-0.175 J0
X-89.666 Y-145.722 Z-3.3 I0.175 J0
X-89.383 Y-145.516 I0.142 J0.103
X-89.666 Y-145.722 I-0.142 J-0.103
G1 X-89.641 Y-145.745 F1016
X-89.609 Y-145.757
X-89.575 Y-145.756
X-89.544 Y-145.741
X-89.465 Y-145.684
G0 Z5
X-97.565 Y-153.738
Z-0.195
G1 Z-1 F1016
X-97.468
X-97.434 Y-153.731
X-97.406 Y-153.712
X-97.387 Y-153.684
X-97.38 Y-153.65
G3 X-97.73 Y-153.65 Z-1.25 I-0.175 J0 F2540
X-97.38 Y-153.65 Z-1.5 I0.175 J0
X-97.73 Y-153.65 Z-1.75 I-0.175 J0
X-97.38 Y-153.65 Z-2 I0.175 J0
X-97.73 Y-153.65 Z-2.25 I-0.175 J0
X-97.38 Y-153.65 Z-2.5 I0.175 J0
X-97.73 Y-153.65 Z-2.75 I-0.175 J0
X-97.38 Y-153.65 Z-3 I0.175 J0
X-97.73 Y-153.65 Z-3.25 I-0.175 J0
X-97.697 Y-153.753 Z-3.3 I0.175 J0
X-97.414 Y-153.547 I0.142 J0.103
X-97.697 Y-153.753 I-0.142 J-0.103
G1 X-97.672 Y-153.776 F1016
X-97.64 Y-153.788
X-97.606 Y-153.787
X-97.575 Y-153.773
X-97.496 Y-153.715
G0 Z5
X-97.565 Y-135.707
Z0.805
G1 Z0 F1016
X-97.468
X-97.434 Y-135.7
X-97.406 Y-135.681
X-97.387 Y-135.653
X-97.38 Y-135.619
G3 X-97.73 Y-135.619 Z-0.25 I-0.175 J0 F2540
X-97.38 Y-135.619 Z-0.5 I0.175 J0
X-97.73 Y-135.619 Z-0.75 I-0.175 J0
X-97.38 Y-135.619 Z-1 I0.175 J0
X-97.73 Y-135.619 Z-1.25 I-0.175 J0
X-97.38 Y-135.619 Z-1.5 I0.175 J0
X-97.73 Y-135.619 Z-1.75 I-0.175 J0
X-97.38 Y-135.619 Z-2 I0.175 J0
X-97.73 Y-135.619 Z-2.25 I-0.175 J0
X-97.38 Y-135.619 Z-2.5 I0.175 J0
X-97.73 Y-135.619 Z-2.75 I-0.175 J0
X-97.38 Y-135.619 Z-3 I0.175 J0
X-97.73 Y-135.619 Z-3.25 I-0.175 J0
X-97.697 Y-135.722 Z-3.3 I0.175 J0
X-97.414 Y-135.516 I0.142 J0.103
X-97.697 Y-135.722 I-0.142 J-0.103
G1 X-97.672 Y-135.745 F1016
X-97.64 Y-135.757
X-97.606 Y-135.756
X-97.575 Y-135.741
X-97.496 Y-135.684
G0 Z5
X-97.565 Y-117.675
Z-0.195
G1 Z-1 F1016
X-97.468
X-97.434 Y-117.669
X-97.406 Y-117.65
X-97.387 Y-117.621
X-97.38 Y-117.588
G3 X-97.73 Y-117.588 Z-1.25 I-0.175 J0 F2540
X-97.38 Y-117.588 Z-1.5 I0.175 J0
X-97.73 Y-117.588 Z-1.75 I-0.175 J0
X-97.38 Y-117.588 Z-2 I0.175 J0
X-97.73 Y-117.588 Z-2.25 I-0.175 J0
X-97.38 Y-117.588 Z-2.5 I0.175 J0
X-97.73 Y-117.588 Z-2.75 I-0.175 J0
X-97.38 Y-117.588 Z-3 I0.175 J0
X-97.73 Y-117.588 Z-3.25 I-0.175 J0
X-97.697 Y-117.691 Z-3.3 I0.175 J0
X-97.414 Y-117.485 I0.142 J0.103
X-97.697 Y-117.691 I-0.142 J-0.103
G1 X-97.672 Y-117.714 F1016
X-97.64 Y-117.726
X-97.606 Y-117.724
X-97.575 Y-117.71
X-97.496 Y-117.653
G0 Z5
X-89.534 Y-125.707
Z0.805
G1 Z0 F1016
X-89.437
X-89.403 Y-125.7
X-89.375 Y-125.681
X-89.356 Y-125.653
X-89.349 Y-125.619
G3 X-89.699 Y-125.619 Z-0.25 I-0.175 J0 F2540
X-89.349 Y-125.619 Z-0.5 I0.175 J0
X-89.699 Y-125.619 Z-0.75 I-0.175 J0
X-89.349 Y-125.619 Z-1 I0.175 J0
X-89.699 Y-125.619 Z-1.25 I-0.175 J0
X-89.349 Y-125.619 Z-1.5 I0.175 J0
X-89.699 Y-125.619 Z-1.75 I-0.175 J0
X-89.349 Y-125.619 Z-2 I0.175 J0
X-89.699 Y-125.619 Z-2.25 I-0.175 J0
X-89.349 Y-125.619 Z-2.5 I0.175 J0
X-89.699 Y-125.619 Z-2.75 I-0.175 J0
X-89.349 Y-125.619 Z-3 I0.175 J0
X-89.699 Y-125.619 Z-3.25 I-0.175 J0
X-89.666 Y-125.722 Z-3.3 I0.175 J0
X-89.383 Y-125.516 I0.142 J0.103
X-89.666 Y-125.722 I-0.142 J-0.103
G1 X-89.641 Y-125.745 F1016
X-89.609 Y-125.757
X-89.575 Y-125.756
X-89.544 Y-125.741
X-89.465 Y-125.684
G0 Z5
X-79.534 Y-117.675
Z0.805
G1 Z0 F1016
X-79.437
X-79.403 Y-117.669
X-79.375 Y-117.65
X-79.356 Y-117.621
X-79.349 Y-117.588
G3 X-79.699 Y-117.588 Z-0.25 I-0.175 J0 F2540
X-79.349 Y-117.588 Z-0.5 I0.175 J0
X-79.699 Y-117.588 Z-0.75 I-0.175 J0
X-79.349 Y-117.588 Z-1 I0.175 J0
X-79.699 Y-117.588 Z-1.25 I-0.175 J0
X-79.349 Y-117.588 Z-1.5 I0.175 J0
X-79.699 Y-117.588 Z-1.75 I-0.175 J0
X-79.349 Y-117.588 Z-2 I0.175 J0
X-79.699 Y-117.588 Z-2.25 I-0.175 J0
X-79.349 Y-117.588 Z-2.5 I0.175 J0
X-79.699 Y-117.588 Z-2.75 I-0.175 J0
X-79.349 Y-117.588 Z-3 I0.175 J0
X-79.699 Y-117.588 Z-3.25 I-0.175 J0
X-79.666 Y-117.691 Z-3.3 I0.175 J0
X-79.383 Y-117.485 I0.142 J0.103
X-79.666 Y-117.691 I-0.142 J-0.103
G1 X-79.641 Y-117.714 F1016
X-79.609 Y-117.726
X-79.575 Y-117.724
X-79.544 Y-117.71
X-79.465 Y-117.653
G0 Z5
X-69.514 Y-125.532
Z0.805
G1 Z0 F1016
X-69.612
X-69.645 Y-125.538
X-69.674 Y-125.557
X-69.693 Y-125.586
X-69.699 Y-125.619
G3 X-69.349 Y-125.619 Z-0.25 I0.175 J0 F2540
X-69.699 Y-125.619 Z-0.5 I-0.175 J0
X-69.349 Y-125.619 Z-0.75 I0.175 J0
X-69.699 Y-125.619 Z-1 I-0.175 J0
X-69.349 Y-125.619 Z-1.25 I0.175 J0
X-69.699 Y-125.619 Z-1.5 I-0.175 J0
X-69.349 Y-125.619 Z-1.75 I0.175 J0
X-69.699 Y-125.619 Z-2 I-0.175 J0
X-69.349 Y-125.619 Z-2.25 I0.175 J0
X-69.699 Y-125.619 Z-2.5 I-0.175 J0
X-69.349 Y-125.619 Z-2.75 I0.175 J0
X-69.699 Y-125.619 Z-3 I-0.175 J0
X-69.349 Y-125.619 Z-3.25 I0.175 J0
X-69.383 Y-125.516 Z-3.3 I-0.175 J0
X-69.666 Y-125.722 I-0.142 J-0.103
X-69.383 Y-125.516 I0.142 J0.103
G1 X-69.408 Y-125.493 F1016
X-69.44 Y-125.481
X-69.474 Y-125.483
X-69.505 Y-125.497
X-69.584 Y-125.554
G0 Z5
X-61.483 Y-117.5
Z-0.195
G1 Z-1 F1016
X-61.58
X-61.614 Y-117.507
X-61.642 Y-117.526
X-61.661 Y-117.554
X-61.668 Y-117.588
G3 X-61.318 Y-117.588 Z-1.25 I0.175 J0 F2540
X-61.668 Y-117.588 Z-1.5 I-0.175 J0
X-61.318 Y-117.588 Z-1.75 I0.175 J0
X-61.668 Y-117.588 Z-2 I-0.175 J0
X-61.318 Y-117.588 Z-2.25 I0.175 J0
X-61.668 Y-117.588 Z-2.5 I-0.175 J0
X-61.318 Y-117.588 Z-2.75 I0.175 J0
X-61.668 Y-117.588 Z-3 I-0.175 J0
X-61.318 Y-117.588 Z-3.25 I0.175 J0
X-61.351 Y-117.485 Z-3.3 I-0.175 J0
X-61.635 Y-117.691 I-0.142 J-0.103
X-61.351 Y-117.485 I0.142 J0.103
G1 X-61.376 Y-117.462 F1016
X-61.408 Y-117.45
X-61.443 Y-117.451
X-61.474 Y-117.466
X-61.552 Y-117.523
G0 Z5
X-45.565 Y-117.675
Z-0.195
G1 Z-1 F1016
X-45.468
X-45.434 Y-117.669
X-45.406 Y-117.65
X-45.387 Y-117.621
X-45.38 Y-117.588
G3 X-45.73 Y-117.588 Z-1.25 I-0.175 J0 F2540
X-45.38 Y-117.588 Z-1.5 I0.175 J0
X-45.73 Y-117.588 Z-1.75 I-0.175 J0
X-45.38 Y-117.588 Z-2 I0.175 J0
X-45.73 Y-117.588 Z-2.25 I-0.175 J0
X-45.38 Y-117.588 Z-2.5 I0.175 J0
X-45.73 Y-117.588 Z-2.75 I-0.175 J0
X-45.38 Y-117.588 Z-3 I0.175 J0
X-45.73 Y-117.588 Z-3.25 I-0.175 J0
X-45.697 Y-117.691 Z-3.3 I0.175 J0
X-45.414 Y-117.485 I0.142 J0.103
X-45.697 Y-117.691 I-0.142 J-0.103
G1 X-45.672 Y-117.714 F1016
X-45.64 Y-117.726
X-45.606 Y-117.724
X-45.575 Y-117.71
X-45.496 Y-117.653
G0 Z5
X-37.534 Y-125.707
Z0.805
G1 Z0 F1016
X-37.437
X-37.403 Y-125.7
X-37.375 Y-125.681
X-37.356 Y-125.653
X-37.349 Y-125.619
G3 X-37.699 Y-125.619 Z-0.25 I-0.175 J0 F2540
X-37.349 Y-125.619 Z-0.5 I0.175 J0
X-37.699 Y-125.619 Z-0.75 I-0.175 J0
X-37.349 Y-125.619 Z-1 I0.175 J0
X-37.699 Y-125.619 Z-1.25 I-0.175 J0
X-37.349 Y-125.619 Z-1.5 I0.175 J0
X-37.699 Y-125.619 Z-1.75 I-0.175 J0
X-37.349 Y-125.619 Z-2 I0.175 J0
X-37.699 Y-125.619 Z-2.25 I-0.175 J0
X-37.349 Y-125.619 Z-2.5 I0.175 J0
X-37.699 Y-125.619 Z-2.75 I-0.175 J0
X-37.349 Y-125.619 Z-3 I0.175 J0
X-37.699 Y-125.619 Z-3.25 I-0.175 J0
X-37.666 Y-125.722 Z-3.3 I0.175 J0
X-37.383 Y-125.516 I0.142 J0.103
X-37.666 Y-125.722 I-0.142 J-0.103
G1 X-37.641 Y-125.745 F1016
X-37.609 Y-125.757
X-37.575 Y-125.756
X-37.544 Y-125.741
X-37.465 Y-125.684
G0 Z5
X-27.534 Y-117.675
Z0.805
G1 Z0 F1016
X-27.437
X-27.403 Y-117.669
X-27.375 Y-117.65
X-27.356 Y-117.621
X-27.349 Y-117.588
G3 X-27.699 Y-117.588 Z-0.25 I-0.175 J0 F2540
X-27.349 Y-117.588 Z-0.5 I0.175 J0
X-27.699 Y-117.588 Z-0.75 I-0.175 J0
X-27.349 Y-117.588 Z-1 I0.175 J0
X-27.699 Y-117.588 Z-1.25 I-0.175 J0
X-27.349 Y-117.588 Z-1.5 I0.175 J0
X-27.699 Y-117.588 Z-1.75 I-0.175 J0
X-27.349 Y-117.588 Z-2 I0.175 J0
X-27.699 Y-117.588 Z-2.25 I-0.175 J0
X-27.349 Y-117.588 Z-2.5 I0.175 J0
X-27.699 Y-117.588 Z-2.75 I-0.175 J0
X-27.349 Y-117.588 Z-3 I0.175 J0
X-27.699 Y-117.588 Z-3.25 I-0.175 J0
X-27.666 Y-117.691 Z-3.3 I0.175 J0
X-27.383 Y-117.485 I0.142 J0.103
X-27.666 Y-117.691 I-0.142 J-0.103
G1 X-27.641 Y-117.714 F1016
X-27.609 Y-117.726
X-27.575 Y-117.724
X-27.544 Y-117.71
X-27.465 Y-117.653
G0 Z5
X-17.514 Y-125.532
Z0.805
G1 Z0 F1016
X-17.612
X-17.645 Y-125.538
X-17.674 Y-125.557
X-17.693 Y-125.586
X-17.699 Y-125.619
G3 X-17.349 Y-125.619 Z-0.25 I0.175 J0 F2540
X-17.699 Y-125.619 Z-0.5 I-0.175 J0
X-17.349 Y-125.619 Z-0.75 I0.175 J0
X-17.699 Y-125.619 Z-1 I-0.175 J0
X-17.349 Y-125.619 Z-1.25 I0.175 J0
X-17.699 Y-125.619 Z-1.5 I-0.175 J0
X-17.349 Y-125.619 Z-1.75 I0.175 J0
X-17.699 Y-125.619 Z-2 I-0.175 J0
X-17.349 Y-125.619 Z-2.25 I0.175 J0
X-17.699 Y-125.619 Z-2.5 I-0.175 J0
X-17.349 Y-125.619 Z-2.75 I0.175 J0
X-17.699 Y-125.619 Z-3 I-0.175 J0
X-17.349 Y-125.619 Z-3.25 I0.175 J0
X-17.383 Y-125.516 Z-3.3 I-0.175 J0
X-17.666 Y-125.722 I-0.142 J-0.103
X-17.383 Y-125.516 I0.142 J0.103
G1 X-17.408 Y-125.493 F1016
X-17.44 Y-125.481
X-17.474 Y-125.483
X-17.505 Y-125.497
X-17.584 Y-125.554
G0 Z5
X-9.483 Y-117.5
Z-0.195
G1 Z-1 F1016
X-9.58
X-9.614 Y-117.507
X-9.642 Y-117.526
X-9.661 Y-117.554
X-9.668 Y-117.588
G3 X-9.318 Y-117.588 Z-1.25 I0.175 J0 F2540
X-9.668 Y-117.588 Z-1.5 I-0.175 J0
X-9.318 Y-117.588 Z-1.75 I0.175 J0
X-9.668 Y-117.588 Z-2 I-0.175 J0
X-9.318 Y-117.588 Z-2.25 I0.175 J0
X-9.668 Y-117.588 Z-2.5 I-0.175 J0
X-9.318 Y-117.588 Z-2.75 I0.175 J0
X-9.668 Y-117.588 Z-3 I-0.175 J0
X-9.318 Y-117.588 Z-3.25 I0.175 J0
X-9.351 Y-117.485 Z-3.3 I-0.175 J0
X-9.635 Y-117.691 I-0.142 J-0.103
X-9.351 Y-117.485 I0.142 J0.103
G1 X-9.376 Y-117.462 F1016
X-9.408 Y-117.45
X-9.443 Y-117.451
X-9.474 Y-117.466
X-9.552 Y-117.523
G0 Z5
X-21.113 Y-104.163
Z0.805
G1 Z0 F1016
X-21.182 Y-104.094
X-21.202 Y-104.08
X-21.226 Y-104.075
X-21.25 Y-104.08
X-21.27 Y-104.094
X-21.296 Y-104.13 Z-0.028 F2540
X-21.307 Y-104.173 Z-0.057
X-21.302 Y-104.217 Z-0.085
X-21.282 Y-104.257 Z-0.114
X-21.249 Y-104.287 Z-0.142
X-21.208 Y-104.304 Z-0.171
X-21.164 Y-104.306 Z-0.199
X-21.122 Y-104.291 Z-0.228
X-21.087 Y-104.263 Z-0.256
X-21.065 Y-104.225 Z-0.284
X-21.057 Y-104.181 Z-0.313
X-21.065 Y-104.138 Z-0.341
X-21.088 Y-104.1 Z-0.37
X-21.123 Y-104.072 Z-0.398
X-21.165 Y-104.058 Z-0.427
X-21.21 Y-104.06 Z-0.455
X-21.25 Y-104.077 Z-0.484
X-21.283 Y-104.108 Z-0.512
X-21.302 Y-104.148 Z-0.541
X-21.307 Y-104.192 Z-0.569
X-21.295 Y-104.235 Z-0.597
X-21.269 Y-104.271 Z-0.626
X-21.233 Y-104.296 Z-0.654
X-21.189 Y-104.307 Z-0.683
X-21.145 Y-104.301 Z-0.711
X-21.106 Y-104.281 Z-0.74
X-21.076 Y-104.248 Z-0.768
X-21.059 Y-104.207 Z-0.797
Y-104.162 Z-0.825
X-21.073 Y-104.12 Z-0.853
X-21.102 Y-104.086 Z-0.882
X-21.14 Y-104.064 Z-0.91
X-21.184 Y-104.057 Z-0.939
X-21.228 Y-104.066 Z-0.967
X-21.265 Y-104.089 Z-0.996
X-21.293 Y-104.124 Z-1.024
X-21.306 Y-104.166 Z-1.053
X-21.304 Y-104.211 Z-1.081
X-21.286 Y-104.252 Z-1.109
X-21.255 Y-104.284 Z-1.138
X-21.215 Y-104.303 Z-1.166
X-21.17 Y-104.306 Z-1.195
X-21.128 Y-104.295 Z-1.223
X-21.092 Y-104.268 Z-1.252
X-21.067 Y-104.231 Z-1.28
X-21.057 Y-104.188 Z-1.309
X-21.063 Y-104.144 Z-1.337
X-21.084 Y-104.105 Z-1.366
X-21.117 Y-104.075 Z-1.394
X-21.158 Y-104.059 Z-1.422
X-21.203 Z-1.451
X-21.245 Y-104.074 Z-1.479
X-21.279 Y-104.103 Z-1.508
X-21.3 Y-104.141 Z-1.536
X-21.307 Y-104.185 Z-1.565
X-21.298 Y-104.229 Z-1.593
X-21.274 Y-104.266 Z-1.622
X-21.239 Y-104.293 Z-1.65
X-21.196 Y-104.306 Z-1.678
X-21.152 Y-104.303 Z-1.707
X-21.111 Y-104.285 Z-1.735
X-21.08 Y-104.254 Z-1.764
X-21.061 Y-104.213 Z-1.792
X-21.058 Y-104.169 Z-1.821
X-21.07 Y-104.126 Z-1.849
X-21.097 Y-104.091 Z-1.878
X-21.134 Y-104.067 Z-1.906
X-21.177 Y-104.057 Z-1.934
X-21.221 Y-104.063 Z-1.963
X-21.26 Y-104.085 Z-1.991
X-21.289 Y-104.118 Z-2.02
X-21.305 Y-104.16 Z-2.048
Y-104.204 Z-2.077
X-21.289 Y-104.246 Z-2.105
X-21.26 Y-104.279 Z-2.134
X-21.221 Y-104.301 Z-2.162
X-21.177 Y-104.307 Z-2.191
X-21.134 Y-104.297 Z-2.219
X-21.097 Y-104.273 Z-2.247
X-21.07 Y-104.238 Z-2.276
X-21.058 Y-104.195 Z-2.304
X-21.061 Y-104.151 Z-2.333
X-21.08 Y-104.11 Z-2.361
X-21.111 Y-104.079 Z-2.39
X-21.152 Y-104.061 Z-2.418
X-21.196 Y-104.058 Z-2.447
X-21.239 Y-104.071 Z-2.475
X-21.274 Y-104.098 Z-2.503
X-21.298 Y-104.135 Z-2.532
X-21.307 Y-104.179 Z-2.56
X-21.3 Y-104.223 Z-2.589
X-21.279 Y-104.261 Z-2.617
X-21.245 Y-104.29 Z-2.646
X-21.203 Y-104.305 Z-2.674
X-21.158 Z-2.703
X-21.117 Y-104.289 Z-2.731
X-21.084 Y-104.259 Z-2.759
X-21.063 Y-104.22 Z-2.788
X-21.057 Y-104.176 Z-2.816
X-21.067 Y-104.133 Z-2.845
X-21.092 Y-104.096 Z-2.873
X-21.128 Y-104.069 Z-2.902
X-21.17 Y-104.058 Z-2.93
X-21.215 Y-104.061 Z-2.959
X-21.255 Y-104.08 Z-2.987
X-21.286 Y-104.112 Z-3.016
X-21.304 Y-104.153 Z-3.044
X-21.306 Y-104.198 Z-3.072
X-21.293 Y-104.24 Z-3.101
X-21.265 Y-104.275 Z-3.129
X-21.228 Y-104.298 Z-3.158
X-21.184 Y-104.307 Z-3.186
X-21.14 Y-104.3 Z-3.215
X-21.102 Y-104.278 Z-3.243
X-21.073 Y-104.244 Z-3.272
X-21.059 Y-104.202 Z-3.3
G3 X-21.305 Y-104.162 I-0.123 J0.02
X-21.059 Y-104.202 I0.123 J-0.02
G1 Y-104.177 F1016
X-21.07 Y-104.155
X-21.088 Y-104.138
X-21.11 Y-104.13
X-21.207 Y-104.115
G0 Z5
X-14.749 Y-104.163
Z0.805
G1 Z0 F1016
X-14.818 Y-104.094
X-14.838 Y-104.08
X-14.862 Y-104.075
X-14.886 Y-104.08
X-14.906 Y-104.094
G3 X-14.73 Y-104.27 Z-0.25 I0.088 J-0.088 F2540
X-14.906 Y-104.094 Z-0.5 I-0.088 J0.088
X-14.73 Y-104.27 Z-0.75 I0.088 J-0.088
X-14.906 Y-104.094 Z-1 I-0.088 J0.088
X-14.73 Y-104.27 Z-1.25 I0.088 J-0.088
X-14.906 Y-104.094 Z-1.5 I-0.088 J0.088
X-14.73 Y-104.27 Z-1.75 I0.088 J-0.088
X-14.906 Y-104.094 Z-2 I-0.088 J0.088
X-14.73 Y-104.27 Z-2.25 I0.088 J-0.088
X-14.906 Y-104.094 Z-2.5 I-0.088 J0.088
X-14.73 Y-104.27 Z-2.75 I0.088 J-0.088
X-14.906 Y-104.094 Z-3 I-0.088 J0.088
X-14.73 Y-104.27 Z-3.25 I0.088 J-0.088
X-14.695 Y-104.202 Z-3.3 I-0.088 J0.088
X-14.941 Y-104.162 I-0.123 J0.02
X-14.695 Y-104.202 I0.123 J-0.02
G1 X-14.696 Y-104.177 F1016
X-14.706 Y-104.155
X-14.724 Y-104.138
X-14.747 Y-104.13
X-14.843 Y-104.115
G0 Z5
X-14.749 Y-97.799
Z0.805
G1 Z0 F1016
X-14.818 Y-97.73
X-14.838 Y-97.716
X-14.862 Y-97.711
X-14.886 Y-97.716
X-14.906 Y-97.73
G3 X-14.73 Y-97.906 Z-0.25 I0.088 J-0.088 F2540
X-14.906 Y-97.73 Z-0.5 I-0.088 J0.088
X-14.73 Y-97.906 Z-0.75 I0.088 J-0.088
X-14.906 Y-97.73 Z-1 I-0.088 J0.088
X-14.73 Y-97.906 Z-1.25 I0.088 J-0.088
X-14.906 Y-97.73 Z-1.5 I-0.088 J0.088
X-14.73 Y-97.906 Z-1.75 I0.088 J-0.088
X-14.906 Y-97.73 Z-2 I-0.088 J0.088
X-14.73 Y-97.906 Z-2.25 I0.088 J-0.088
X-14.906 Y-97.73 Z-2.5 I-0.088 J0.088
X-14.73 Y-97.906 Z-2.75 I0.088 J-0.088
X-14.906 Y-97.73 Z-3 I-0.088 J0.088
X-14.73 Y-97.906 Z-3.25 I0.088 J-0.088
X-14.695 Y-97.838 Z-3.3 I-0.088 J0.088
X-14.941 Y-97.798 I-0.123 J0.02
X-14.695 Y-97.838 I0.123 J-0.02
G1 X-14.696 Y-97.813 F1016
X-14.706 Y-97.791
X-14.724 Y-97.775
X-14.747 Y-97.766
X-14.843 Y-97.751
G0 Z5
X-21.113 Y-97.799
Z0.805
G1 Z0 F1016
X-21.182 Y-97.73
X-21.202 Y-97.716
X-21.226 Y-97.711
X-21.25 Y-97.716
X-21.27 Y-97.73
X-21.296 Y-97.766 Z-0.028 F2540
X-21.307 Y-97.809 Z-0.057
X-21.302 Y-97.853 Z-0.085
X-21.282 Y-97.893 Z-0.114
X-21.249 Y-97.923 Z-0.142
X-21.208 Y-97.94 Z-0.171
X-21.164 Y-97.942 Z-0.199
X-21.122 Y-97.927 Z-0.228
X-21.087 Y-97.899 Z-0.256
X-21.065 Y-97.861 Z-0.284
X-21.057 Y-97.817 Z-0.313
X-21.065 Y-97.774 Z-0.341
X-21.088 Y-97.736 Z-0.37
X-21.123 Y-97.708 Z-0.398
X-21.165 Y-97.694 Z-0.427
X-21.21 Y-97.696 Z-0.455
X-21.25 Y-97.713 Z-0.484
X-21.283 Y-97.744 Z-0.512
X-21.302 Y-97.784 Z-0.541
X-21.307 Y-97.828 Z-0.569
X-21.295 Y-97.871 Z-0.597
X-21.269 Y-97.907 Z-0.626
X-21.233 Y-97.932 Z-0.654
X-21.189 Y-97.943 Z-0.683
X-21.145 Y-97.938 Z-0.711
X-21.106 Y-97.917 Z-0.74
X-21.076 Y-97.884 Z-0.768
X-21.059 Y-97.843 Z-0.797
Y-97.798 Z-0.825
X-21.073 Y-97.756 Z-0.853
X-21.102 Y-97.722 Z-0.882
X-21.14 Y-97.7 Z-0.91
X-21.184 Y-97.693 Z-0.939
X-21.228 Y-97.702 Z-0.967
X-21.265 Y-97.725 Z-0.996
X-21.293 Y-97.76 Z-1.024
X-21.306 Y-97.802 Z-1.053
X-21.304 Y-97.847 Z-1.081
X-21.286 Y-97.888 Z-1.109
X-21.255 Y-97.92 Z-1.138
X-21.215 Y-97.939 Z-1.166
X-21.17 Y-97.942 Z-1.195
X-21.128 Y-97.931 Z-1.223
X-21.092 Y-97.904 Z-1.252
X-21.067 Y-97.867 Z-1.28
X-21.057 Y-97.824 Z-1.309
X-21.063 Y-97.78 Z-1.337
X-21.084 Y-97.741 Z-1.366
X-21.117 Y-97.711 Z-1.394
X-21.158 Y-97.695 Z-1.422
X-21.203 Z-1.451
X-21.245 Y-97.71 Z-1.479
X-21.279 Y-97.739 Z-1.508
X-21.3 Y-97.777 Z-1.536
X-21.307 Y-97.821 Z-1.565
X-21.298 Y-97.865 Z-1.593
X-21.274 Y-97.902 Z-1.622
X-21.239 Y-97.929 Z-1.65
X-21.196 Y-97.942 Z-1.678
X-21.152 Y-97.939 Z-1.707
X-21.111 Y-97.921 Z-1.735
X-21.08 Y-97.89 Z-1.764
X-21.061 Y-97.849 Z-1.792
X-21.058 Y-97.805 Z-1.821
X-21.07 Y-97.762 Z-1.849
X-21.097 Y-97.727 Z-1.878
X-21.134 Y-97.703 Z-1.906
X-21.177 Y-97.693 Z-1.934
X-21.221 Y-97.699 Z-1.963
X-21.26 Y-97.721 Z-1.991
X-21.289 Y-97.754 Z-2.02
X-21.305 Y-97.796 Z-2.048
Y-97.84 Z-2.077
X-21.289 Y-97.882 Z-2.105
X-21.26 Y-97.915 Z-2.134
X-21.221 Y-97.937 Z-2.162
X-21.177 Y-97.943 Z-2.191
X-21.134 Y-97.933 Z-2.219
X-21.097 Y-97.909 Z-2.247
X-21.07 Y-97.874 Z-2.276
X-21.058 Y-97.831 Z-2.304
X-21.061 Y-97.787 Z-2.333
X-21.08 Y-97.746 Z-2.361
X-21.111 Y-97.715 Z-2.39
X-21.152 Y-97.697 Z-2.418
X-21.196 Y-97.694 Z-2.447
X-21.239 Y-97.707 Z-2.475
X-21.274 Y-97.734 Z-2.503
X-21.298 Y-97.771 Z-2.532
X-21.307 Y-97.815 Z-2.56
X-21.3 Y-97.859 Z-2.589
X-21.279 Y-97.897 Z-2.617
X-21.245 Y-97.926 Z-2.646
X-21.203 Y-97.941 Z-2.674
X-21.158 Z-2.703
X-21.117 Y-97.925 Z-2.731
X-21.084 Y-97.895 Z-2.759
X-21.063 Y-97.856 Z-2.788
X-21.057 Y-97.812 Z-2.816
X-21.067 Y-97.769 Z-2.845
X-21.092 Y-97.732 Z-2.873
X-21.128 Y-97.705 Z-2.902
X-21.17 Y-97.694 Z-2.93
X-21.215 Y-97.697 Z-2.959
X-21.255 Y-97.716 Z-2.987
X-21.286 Y-97.748 Z-3.016
X-21.304 Y-97.789 Z-3.044
X-21.306 Y-97.834 Z-3.072
X-21.293 Y-97.876 Z-3.101
X-21.265 Y-97.911 Z-3.129
X-21.228 Y-97.934 Z-3.158
X-21.184 Y-97.943 Z-3.186
X-21.14 Y-97.936 Z-3.215
X-21.102 Y-97.914 Z-3.243
X-21.073 Y-97.88 Z-3.272
X-21.059 Y-97.838 Z-3.3
G3 X-21.305 Y-97.798 I-0.123 J0.02
X-21.059 Y-97.838 I0.123 J-0.02
G1 Y-97.813 F1016
X-21.07 Y-97.791
X-21.088 Y-97.775
X-21.11 Y-97.766
X-21.207 Y-97.751
G0 Z5
X-14.749 Y-77.496
Z0.805
G1 Z0 F1016
X-14.818 Y-77.427
X-14.838 Y-77.413
X-14.862 Y-77.409
X-14.886 Y-77.413
X-14.906 Y-77.427
G3 X-14.73 Y-77.604 Z-0.25 I0.088 J-0.088 F2540
X-14.906 Y-77.427 Z-0.5 I-0.088 J0.088
X-14.73 Y-77.604 Z-0.75 I0.088 J-0.088
X-14.906 Y-77.427 Z-1 I-0.088 J0.088
X-14.73 Y-77.604 Z-1.25 I0.088 J-0.088
X-14.906 Y-77.427 Z-1.5 I-0.088 J0.088
X-14.73 Y-77.604 Z-1.75 I0.088 J-0.088
X-14.906 Y-77.427 Z-2 I-0.088 J0.088
X-14.73 Y-77.604 Z-2.25 I0.088 J-0.088
X-14.906 Y-77.427 Z-2.5 I-0.088 J0.088
X-14.73 Y-77.604 Z-2.75 I0.088 J-0.088
X-14.906 Y-77.427 Z-3 I-0.088 J0.088
X-14.73 Y-77.604 Z-3.25 I0.088 J-0.088
X-14.695 Y-77.535 Z-3.3 I-0.088 J0.088
X-14.941 Y-77.496 I-0.123 J0.02
X-14.695 Y-77.535 I0.123 J-0.02
G1 X-14.696 Y-77.511 F1016
X-14.706 Y-77.488
X-14.724 Y-77.472
X-14.747 Y-77.463
X-14.843 Y-77.448
G0 Z5
X-21.113 Y-77.496
Z0.805
G1 Z0 F1016
X-21.182 Y-77.427
X-21.202 Y-77.413
X-21.226 Y-77.409
X-21.25 Y-77.413
X-21.27 Y-77.427
X-21.296 Y-77.463 Z-0.028 F2540
X-21.307 Y-77.507 Z-0.057
X-21.302 Y-77.551 Z-0.085
X-21.282 Y-77.59 Z-0.114
X-21.249 Y-77.621 Z-0.142
X-21.208 Y-77.638 Z-0.171
X-21.164 Y-77.639 Z-0.199
X-21.122 Y-77.625 Z-0.228
X-21.087 Y-77.597 Z-0.256
X-21.065 Y-77.558 Z-0.284
X-21.057 Y-77.515 Z-0.313
X-21.065 Y-77.471 Z-0.341
X-21.088 Y-77.433 Z-0.37
X-21.123 Y-77.405 Z-0.398
X-21.165 Y-77.391 Z-0.427
X-21.21 Y-77.393 Z-0.455
X-21.25 Y-77.411 Z-0.484
X-21.283 Y-77.441 Z-0.512
X-21.302 Y-77.481 Z-0.541
X-21.307 Y-77.525 Z-0.569
X-21.295 Y-77.568 Z-0.597
X-21.269 Y-77.605 Z-0.626
X-21.233 Y-77.63 Z-0.654
X-21.189 Y-77.64 Z-0.683
X-21.145 Y-77.635 Z-0.711
X-21.106 Y-77.614 Z-0.74
X-21.076 Y-77.581 Z-0.768
X-21.059 Y-77.54 Z-0.797
Y-77.496 Z-0.825
X-21.073 Y-77.454 Z-0.853
X-21.102 Y-77.42 Z-0.882
X-21.14 Y-77.398 Z-0.91
X-21.184 Y-77.39 Z-0.939
X-21.228 Y-77.399 Z-0.967
X-21.265 Y-77.422 Z-0.996
X-21.293 Y-77.457 Z-1.024
X-21.306 Y-77.5 Z-1.053
X-21.304 Y-77.544 Z-1.081
X-21.286 Y-77.585 Z-1.109
X-21.255 Y-77.617 Z-1.138
X-21.215 Y-77.636 Z-1.166
X-21.17 Y-77.64 Z-1.195
X-21.128 Y-77.628 Z-1.223
X-21.092 Y-77.602 Z-1.252
X-21.067 Y-77.565 Z-1.28
X-21.057 Y-77.521 Z-1.309
X-21.063 Y-77.477 Z-1.337
X-21.084 Y-77.438 Z-1.366
X-21.117 Y-77.409 Z-1.394
X-21.158 Y-77.393 Z-1.422
X-21.203 Y-77.392 Z-1.451
X-21.245 Y-77.407 Z-1.479
X-21.279 Y-77.436 Z-1.508
X-21.3 Y-77.475 Z-1.536
X-21.307 Y-77.519 Z-1.565
X-21.298 Y-77.562 Z-1.593
X-21.274 Y-77.6 Z-1.622
X-21.239 Y-77.627 Z-1.65
X-21.196 Y-77.64 Z-1.678
X-21.152 Y-77.637 Z-1.707
X-21.111 Y-77.618 Z-1.735
X-21.08 Y-77.587 Z-1.764
X-21.061 Y-77.547 Z-1.792
X-21.058 Y-77.502 Z-1.821
X-21.07 Y-77.46 Z-1.849
X-21.097 Y-77.424 Z-1.878
X-21.134 Y-77.4 Z-1.906
X-21.177 Y-77.39 Z-1.934
X-21.221 Y-77.397 Z-1.963
X-21.26 Y-77.418 Z-1.991
X-21.289 Y-77.451 Z-2.02
X-21.305 Y-77.493 Z-2.048
Y-77.538 Z-2.077
X-21.289 Y-77.579 Z-2.105
X-21.26 Y-77.613 Z-2.134
X-21.221 Y-77.634 Z-2.162
X-21.177 Y-77.64 Z-2.191
X-21.134 Y-77.631 Z-2.219
X-21.097 Y-77.607 Z-2.247
X-21.07 Y-77.571 Z-2.276
X-21.058 Y-77.528 Z-2.304
X-21.061 Y-77.484 Z-2.333
X-21.08 Y-77.443 Z-2.361
X-21.111 Y-77.412 Z-2.39
X-21.152 Y-77.394 Z-2.418
X-21.196 Y-77.391 Z-2.447
X-21.239 Y-77.404 Z-2.475
X-21.274 Y-77.431 Z-2.503
X-21.298 Y-77.468 Z-2.532
X-21.307 Y-77.512 Z-2.56
X-21.3 Y-77.556 Z-2.589
X-21.279 Y-77.595 Z-2.617
X-21.245 Y-77.623 Z-2.646
X-21.203 Y-77.639 Z-2.674
X-21.158 Y-77.638 Z-2.703
X-21.117 Y-77.622 Z-2.731
X-21.084 Y-77.593 Z-2.759
X-21.063 Y-77.553 Z-2.788
X-21.057 Y-77.509 Z-2.816
X-21.067 Y-77.466 Z-2.845
X-21.092 Y-77.429 Z-2.873
X-21.128 Y-77.403 Z-2.902
X-21.17 Y-77.391 Z-2.93
X-21.215 Y-77.395 Z-2.959
X-21.255 Y-77.414 Z-2.987
X-21.286 Y-77.446 Z-3.016
X-21.304 Y-77.486 Z-3.044
X-21.306 Y-77.531 Z-3.072
X-21.293 Y-77.573 Z-3.101
X-21.265 Y-77.608 Z-3.129
X-21.228 Y-77.632 Z-3.158
X-21.184 Y-77.64 Z-3.186
X-21.14 Y-77.633 Z-3.215
X-21.102 Y-77.611 Z-3.243
X-21.073 Y-77.577 Z-3.272
X-21.059 Y-77.535 Z-3.3
G3 X-21.305 Y-77.496 I-0.123 J0.02
X-21.059 Y-77.535 I0.123 J-0.02
G1 Y-77.51 F1016
X-21.07 Y-77.488
X-21.088 Y-77.472
X-21.11 Y-77.463
X-21.207 Y-77.448
G0 Z5
X-21.113 Y-71.132
Z0.805
G1 Z0 F1016
X-21.182 Y-71.063
X-21.202 Y-71.049
X-21.226 Y-71.045
X-21.25 Y-71.049
X-21.27 Y-71.063
X-21.296 Y-71.099 Z-0.028 F2540
X-21.307 Y-71.143 Z-0.057
X-21.302 Y-71.187 Z-0.085
X-21.282 Y-71.226 Z-0.114
X-21.249 Y-71.257 Z-0.142
X-21.208 Y-71.274 Z-0.171
X-21.164 Y-71.275 Z-0.199
X-21.122 Y-71.261 Z-0.228
X-21.087 Y-71.233 Z-0.256
X-21.065 Y-71.194 Z-0.284
X-21.057 Y-71.151 Z-0.313
X-21.065 Y-71.107 Z-0.341
X-21.088 Y-71.069 Z-0.37
X-21.123 Y-71.041 Z-0.398
X-21.165 Y-71.027 Z-0.427
X-21.21 Y-71.029 Z-0.455
X-21.25 Y-71.047 Z-0.484
X-21.283 Y-71.077 Z-0.512
X-21.302 Y-71.117 Z-0.541
X-21.307 Y-71.161 Z-0.569
X-21.295 Y-71.204 Z-0.597
X-21.269 Y-71.241 Z-0.626
X-21.233 Y-71.266 Z-0.654
X-21.189 Y-71.276 Z-0.683
X-21.145 Y-71.271 Z-0.711
X-21.106 Y-71.25 Z-0.74
X-21.076 Y-71.218 Z-0.768
X-21.059 Y-71.176 Z-0.797
Y-71.132 Z-0.825
X-21.073 Y-71.09 Z-0.853
X-21.102 Y-71.056 Z-0.882
X-21.14 Y-71.034 Z-0.91
X-21.184 Y-71.026 Z-0.939
X-21.228 Y-71.035 Z-0.967
X-21.265 Y-71.058 Z-0.996
X-21.293 Y-71.093 Z-1.024
X-21.306 Y-71.136 Z-1.053
X-21.304 Y-71.18 Z-1.081
X-21.286 Y-71.221 Z-1.109
X-21.255 Y-71.253 Z-1.138
X-21.215 Y-71.272 Z-1.166
X-21.17 Y-71.276 Z-1.195
X-21.128 Y-71.264 Z-1.223
X-21.092 Y-71.238 Z-1.252
X-21.067 Y-71.201 Z-1.28
X-21.057 Y-71.157 Z-1.309
X-21.063 Y-71.113 Z-1.337
X-21.084 Y-71.074 Z-1.366
X-21.117 Y-71.045 Z-1.394
X-21.158 Y-71.029 Z-1.422
X-21.203 Y-71.028 Z-1.451
X-21.245 Y-71.043 Z-1.479
X-21.279 Y-71.072 Z-1.508
X-21.3 Y-71.111 Z-1.536
X-21.307 Y-71.155 Z-1.565
X-21.298 Y-71.198 Z-1.593
X-21.274 Y-71.236 Z-1.622
X-21.239 Y-71.263 Z-1.65
X-21.196 Y-71.276 Z-1.678
X-21.152 Y-71.273 Z-1.707
X-21.111 Y-71.254 Z-1.735
X-21.08 Y-71.223 Z-1.764
X-21.061 Y-71.183 Z-1.792
X-21.058 Y-71.139 Z-1.821
X-21.07 Y-71.096 Z-1.849
X-21.097 Y-71.06 Z-1.878
X-21.134 Y-71.036 Z-1.906
X-21.177 Y-71.026 Z-1.934
X-21.221 Y-71.033 Z-1.963
X-21.26 Y-71.054 Z-1.991
X-21.289 Y-71.087 Z-2.02
X-21.305 Y-71.129 Z-2.048
Y-71.174 Z-2.077
X-21.289 Y-71.215 Z-2.105
X-21.26 Y-71.249 Z-2.134
X-21.221 Y-71.27 Z-2.162
X-21.177 Y-71.276 Z-2.191
X-21.134 Y-71.267 Z-2.219
X-21.097 Y-71.243 Z-2.247
X-21.07 Y-71.207 Z-2.276
X-21.058 Y-71.164 Z-2.304
X-21.061 Y-71.12 Z-2.333
X-21.08 Y-71.08 Z-2.361
X-21.111 Y-71.048 Z-2.39
X-21.152 Y-71.03 Z-2.418
X-21.196 Y-71.027 Z-2.447
X-21.239 Y-71.04 Z-2.475
X-21.274 Y-71.067 Z-2.503
X-21.298 Y-71.104 Z-2.532
X-21.307 Y-71.148 Z-2.56
X-21.3 Y-71.192 Z-2.589
X-21.279 Y-71.231 Z-2.617
X-21.245 Y-71.259 Z-2.646
X-21.203 Y-71.275 Z-2.674
X-21.158 Y-71.274 Z-2.703
X-21.117 Y-71.258 Z-2.731
X-21.084 Y-71.229 Z-2.759
X-21.063 Y-71.189 Z-2.788
X-21.057 Y-71.145 Z-2.816
X-21.067 Y-71.102 Z-2.845
X-21.092 Y-71.065 Z-2.873
X-21.128 Y-71.039 Z-2.902
X-21.17 Y-71.027 Z-2.93
X-21.215 Y-71.031 Z-2.959
X-21.255 Y-71.05 Z-2.987
X-21.286 Y-71.082 Z-3.016
X-21.304 Y-71.123 Z-3.044
X-21.306 Y-71.167 Z-3.072
X-21.293 Y-71.209 Z-3.101
X-21.265 Y-71.244 Z-3.129
X-21.228 Y-71.268 Z-3.158
X-21.184 Y-71.276 Z-3.186
X-21.14 Y-71.269 Z-3.215
X-21.102 Y-71.247 Z-3.243
X-21.073 Y-71.213 Z-3.272
X-21.059 Y-71.171 Z-3.3
G3 X-21.305 Y-71.132 I-0.123 J0.02
X-21.059 Y-71.171 I0.123 J-0.02
G1 Y-71.147 F1016
X-21.07 Y-71.124
X-21.088 Y-71.108
X-21.11 Y-71.099
X-21.207 Y-71.084
G0 Z5
X-14.749 Y-71.132
Z0.805
G1 Z0 F1016
X-14.818 Y-71.063
X-14.838 Y-71.049
X-14.862 Y-71.045
X-14.886 Y-71.049
X-14.906 Y-71.063
G3 X-14.73 Y-71.24 Z-0.25 I0.088 J-0.088 F2540
X-14.906 Y-71.063 Z-0.5 I-0.088 J0.088
X-14.73 Y-71.24 Z-0.75 I0.088 J-0.088
X-14.906 Y-71.063 Z-1 I-0.088 J0.088
X-14.73 Y-71.24 Z-1.25 I0.088 J-0.088
X-14.906 Y-71.063 Z-1.5 I-0.088 J0.088
X-14.73 Y-71.24 Z-1.75 I0.088 J-0.088
X-14.906 Y-71.063 Z-2 I-0.088 J0.088
X-14.73 Y-71.24 Z-2.25 I0.088 J-0.088
X-14.906 Y-71.063 Z-2.5 I-0.088 J0.088
X-14.73 Y-71.24 Z-2.75 I0.088 J-0.088
X-14.906 Y-71.063 Z-3 I-0.088 J0.088
X-14.73 Y-71.24 Z-3.25 I0.088 J-0.088
X-14.695 Y-71.171 Z-3.3 I-0.088 J0.088
X-14.941 Y-71.132 I-0.123 J0.02
X-14.695 Y-71.171 I0.123 J-0.02
G1 X-14.696 Y-71.147 F1016
X-14.706 Y-71.124
X-14.724 Y-71.108
X-14.747 Y-71.099
X-14.843 Y-71.084
G0 Z5
X-21.113 Y-50.829
Z0.805
G1 Z0 F1016
X-21.182 Y-50.76
X-21.202 Y-50.747
X-21.226 Y-50.742
X-21.25 Y-50.747
X-21.27 Y-50.76
X-21.296 Y-50.797 Z-0.028 F2540
X-21.307 Y-50.84 Z-0.057
X-21.302 Y-50.884 Z-0.085
X-21.282 Y-50.924 Z-0.114
X-21.249 Y-50.954 Z-0.142
X-21.208 Y-50.971 Z-0.171
X-21.164 Y-50.972 Z-0.199
X-21.122 Y-50.958 Z-0.228
X-21.087 Y-50.93 Z-0.256
X-21.065 Y-50.892 Z-0.284
X-21.057 Y-50.848 Z-0.313
X-21.065 Y-50.804 Z-0.341
X-21.088 Y-50.766 Z-0.37
X-21.123 Y-50.739 Z-0.398
X-21.165 Y-50.725 Z-0.427
X-21.21 Y-50.727 Z-0.455
X-21.25 Y-50.744 Z-0.484
X-21.283 Y-50.775 Z-0.512
X-21.302 Y-50.815 Z-0.541
X-21.307 Y-50.859 Z-0.569
X-21.295 Y-50.902 Z-0.597
X-21.269 Y-50.938 Z-0.626
X-21.233 Y-50.963 Z-0.654
X-21.189 Y-50.973 Z-0.683
X-21.145 Y-50.968 Z-0.711
X-21.106 Y-50.948 Z-0.74
X-21.076 Y-50.915 Z-0.768
X-21.059 Y-50.874 Z-0.797
Y-50.829 Z-0.825
X-21.073 Y-50.787 Z-0.853
X-21.102 Y-50.753 Z-0.882
X-21.14 Y-50.731 Z-0.91
X-21.184 Y-50.724 Z-0.939
X-21.228 Y-50.732 Z-0.967
X-21.265 Y-50.756 Z-0.996
X-21.293 Y-50.791 Z-1.024
X-21.306 Y-50.833 Z-1.053
X-21.304 Y-50.877 Z-1.081
X-21.286 Y-50.918 Z-1.109
X-21.255 Y-50.95 Z-1.138
X-21.215 Y-50.969 Z-1.166
X-21.17 Y-50.973 Z-1.195
X-21.128 Y-50.961 Z-1.223
X-21.092 Y-50.935 Z-1.252
X-21.067 Y-50.898 Z-1.28
X-21.057 Y-50.855 Z-1.309
X-21.063 Y-50.811 Z-1.337
X-21.084 Y-50.771 Z-1.366
X-21.117 Y-50.742 Z-1.394
X-21.158 Y-50.726 Z-1.422
X-21.203 Y-50.725 Z-1.451
X-21.245 Y-50.741 Z-1.479
X-21.279 Y-50.769 Z-1.508
X-21.3 Y-50.808 Z-1.536
X-21.307 Y-50.852 Z-1.565
X-21.298 Y-50.896 Z-1.593
X-21.274 Y-50.933 Z-1.622
X-21.239 Y-50.96 Z-1.65
X-21.196 Y-50.973 Z-1.678
X-21.152 Y-50.97 Z-1.707
X-21.111 Y-50.952 Z-1.735
X-21.08 Y-50.92 Z-1.764
X-21.061 Y-50.88 Z-1.792
X-21.058 Y-50.836 Z-1.821
X-21.07 Y-50.793 Z-1.849
X-21.097 Y-50.757 Z-1.878
X-21.134 Y-50.733 Z-1.906
X-21.177 Y-50.724 Z-1.934
X-21.221 Y-50.73 Z-1.963
X-21.26 Y-50.751 Z-1.991
X-21.289 Y-50.785 Z-2.02
X-21.305 Y-50.826 Z-2.048
Y-50.871 Z-2.077
X-21.289 Y-50.913 Z-2.105
X-21.26 Y-50.946 Z-2.134
X-21.221 Y-50.967 Z-2.162
X-21.177 Y-50.974 Z-2.191
X-21.134 Y-50.964 Z-2.219
X-21.097 Y-50.94 Z-2.247
X-21.07 Y-50.904 Z-2.276
X-21.058 Y-50.861 Z-2.304
X-21.061 Y-50.817 Z-2.333
X-21.08 Y-50.777 Z-2.361
X-21.111 Y-50.746 Z-2.39
X-21.152 Y-50.727 Z-2.418
X-21.196 Y-50.724 Z-2.447
X-21.239 Y-50.737 Z-2.475
X-21.274 Y-50.764 Z-2.503
X-21.298 Y-50.802 Z-2.532
X-21.307 Y-50.845 Z-2.56
X-21.3 Y-50.889 Z-2.589
X-21.279 Y-50.928 Z-2.617
X-21.245 Y-50.957 Z-2.646
X-21.203 Y-50.972 Z-2.674
X-21.158 Y-50.971 Z-2.703
X-21.117 Y-50.955 Z-2.731
X-21.084 Y-50.926 Z-2.759
X-21.063 Y-50.887 Z-2.788
X-21.057 Y-50.843 Z-2.816
X-21.067 Y-50.799 Z-2.845
X-21.092 Y-50.762 Z-2.873
X-21.128 Y-50.736 Z-2.902
X-21.17 Y-50.724 Z-2.93
X-21.215 Y-50.728 Z-2.959
X-21.255 Y-50.747 Z-2.987
X-21.286 Y-50.779 Z-3.016
X-21.304 Y-50.82 Z-3.044
X-21.306 Y-50.864 Z-3.072
X-21.293 Y-50.907 Z-3.101
X-21.265 Y-50.942 Z-3.129
X-21.228 Y-50.965 Z-3.158
X-21.184 Y-50.974 Z-3.186
X-21.14 Y-50.966 Z-3.215
X-21.102 Y-50.944 Z-3.243
X-21.073 Y-50.91 Z-3.272
X-21.059 Y-50.868 Z-3.3
G3 X-21.305 Y-50.829 I-0.123 J0.02
X-21.059 Y-50.868 I0.123 J-0.02
G1 Y-50.844 F1016
X-21.07 Y-50.822
X-21.088 Y-50.805
X-21.11 Y-50.797
X-21.207 Y-50.781
G0 Z5
X-14.749 Y-50.829
Z0.805
G1 Z0 F1016
X-14.818 Y-50.76
X-14.838 Y-50.747
X-14.862 Y-50.742
X-14.886 Y-50.747
X-14.906 Y-50.76
G3 X-14.73 Y-50.937 Z-0.25 I0.088 J-0.088 F2540
X-14.906 Y-50.76 Z-0.5 I-0.088 J0.088
X-14.73 Y-50.937 Z-0.75 I0.088 J-0.088
X-14.906 Y-50.76 Z-1 I-0.088 J0.088
X-14.73 Y-50.937 Z-1.25 I0.088 J-0.088
X-14.906 Y-50.76 Z-1.5 I-0.088 J0.088
X-14.73 Y-50.937 Z-1.75 I0.088 J-0.088
X-14.906 Y-50.76 Z-2 I-0.088 J0.088
X-14.73 Y-50.937 Z-2.25 I0.088 J-0.088
X-14.906 Y-50.76 Z-2.5 I-0.088 J0.088
X-14.73 Y-50.937 Z-2.75 I0.088 J-0.088
X-14.906 Y-50.76 Z-3 I-0.088 J0.088
X-14.73 Y-50.937 Z-3.25 I0.088 J-0.088
X-14.695 Y-50.868 Z-3.3 I-0.088 J0.088
X-14.941 Y-50.829 I-0.123 J0.02
X-14.695 Y-50.868 I0.123 J-0.02
G1 X-14.696 Y-50.844 F1016
X-14.706 Y-50.822
X-14.724 Y-50.805
X-14.747 Y-50.797
X-14.843 Y-50.781
G0 Z5
X-14.749 Y-44.465
Z0.805
G1 Z0 F1016
X-14.818 Y-44.396
X-14.838 Y-44.383
X-14.862 Y-44.378
X-14.886 Y-44.383
X-14.906 Y-44.396
G3 X-14.73 Y-44.573 Z-0.25 I0.088 J-0.088 F2540
X-14.906 Y-44.396 Z-0.5 I-0.088 J0.088
X-14.73 Y-44.573 Z-0.75 I0.088 J-0.088
X-14.906 Y-44.396 Z-1 I-0.088 J0.088
X-14.73 Y-44.573 Z-1.25 I0.088 J-0.088
X-14.906 Y-44.396 Z-1.5 I-0.088 J0.088
X-14.73 Y-44.573 Z-1.75 I0.088 J-0.088
X-14.906 Y-44.396 Z-2 I-0.088 J0.088
X-14.73 Y-44.573 Z-2.25 I0.088 J-0.088
X-14.906 Y-44.396 Z-2.5 I-0.088 J0.088
X-14.73 Y-44.573 Z-2.75 I0.088 J-0.088
X-14.906 Y-44.396 Z-3 I-0.088 J0.088
X-14.73 Y-44.573 Z-3.25 I0.088 J-0.088
X-14.695 Y-44.504 Z-3.3 I-0.088 J0.088
X-14.941 Y-44.465 I-0.123 J0.02
X-14.695 Y-44.504 I0.123 J-0.02
G1 X-14.696 Y-44.48 F1016
X-14.706 Y-44.458
X-14.724 Y-44.441
X-14.747 Y-44.433
X-14.843 Y-44.417
G0 Z5
X-21.113 Y-44.465
Z0.805
G1 Z0 F1016
X-21.182 Y-44.396
X-21.202 Y-44.383
X-21.226 Y-44.378
X-21.25 Y-44.383
X-21.27 Y-44.396
X-21.296 Y-44.433 Z-0.028 F2540
X-21.307 Y-44.476 Z-0.057
X-21.302 Y-44.52 Z-0.085
X-21.282 Y-44.56 Z-0.114
X-21.249 Y-44.59 Z-0.142
X-21.208 Y-44.607 Z-0.171
X-21.164 Y-44.608 Z-0.199
X-21.122 Y-44.594 Z-0.228
X-21.087 Y-44.566 Z-0.256
X-21.065 Y-44.528 Z-0.284
X-21.057 Y-44.484 Z-0.313
X-21.065 Y-44.44 Z-0.341
X-21.088 Y-44.402 Z-0.37
X-21.123 Y-44.375 Z-0.398
X-21.165 Y-44.361 Z-0.427
X-21.21 Y-44.363 Z-0.455
X-21.25 Y-44.38 Z-0.484
X-21.283 Y-44.411 Z-0.512
X-21.302 Y-44.451 Z-0.541
X-21.307 Y-44.495 Z-0.569
X-21.295 Y-44.538 Z-0.597
X-21.269 Y-44.574 Z-0.626
X-21.233 Y-44.599 Z-0.654
X-21.189 Y-44.609 Z-0.683
X-21.145 Y-44.604 Z-0.711
X-21.106 Y-44.584 Z-0.74
X-21.076 Y-44.551 Z-0.768
X-21.059 Y-44.51 Z-0.797
Y-44.465 Z-0.825
X-21.073 Y-44.423 Z-0.853
X-21.102 Y-44.389 Z-0.882
X-21.14 Y-44.367 Z-0.91
X-21.184 Y-44.36 Z-0.939
X-21.228 Y-44.368 Z-0.967
X-21.265 Y-44.392 Z-0.996
X-21.293 Y-44.427 Z-1.024
X-21.306 Y-44.469 Z-1.053
X-21.304 Y-44.514 Z-1.081
X-21.286 Y-44.554 Z-1.109
X-21.255 Y-44.586 Z-1.138
X-21.215 Y-44.605 Z-1.166
X-21.17 Y-44.609 Z-1.195
X-21.128 Y-44.597 Z-1.223
X-21.092 Y-44.571 Z-1.252
X-21.067 Y-44.534 Z-1.28
X-21.057 Y-44.491 Z-1.309
X-21.063 Y-44.447 Z-1.337
X-21.084 Y-44.407 Z-1.366
X-21.117 Y-44.378 Z-1.394
X-21.158 Y-44.362 Z-1.422
X-21.203 Y-44.361 Z-1.451
X-21.245 Y-44.377 Z-1.479
X-21.279 Y-44.405 Z-1.508
X-21.3 Y-44.444 Z-1.536
X-21.307 Y-44.488 Z-1.565
X-21.298 Y-44.532 Z-1.593
X-21.274 Y-44.569 Z-1.622
X-21.239 Y-44.596 Z-1.65
X-21.196 Y-44.609 Z-1.678
X-21.152 Y-44.606 Z-1.707
X-21.111 Y-44.588 Z-1.735
X-21.08 Y-44.557 Z-1.764
X-21.061 Y-44.516 Z-1.792
X-21.058 Y-44.472 Z-1.821
X-21.07 Y-44.429 Z-1.849
X-21.097 Y-44.393 Z-1.878
X-21.134 Y-44.369 Z-1.906
X-21.177 Y-44.36 Z-1.934
X-21.221 Y-44.366 Z-1.963
X-21.26 Y-44.387 Z-1.991
X-21.289 Y-44.421 Z-2.02
X-21.305 Y-44.462 Z-2.048
Y-44.507 Z-2.077
X-21.289 Y-44.549 Z-2.105
X-21.26 Y-44.582 Z-2.134
X-21.221 Y-44.603 Z-2.162
X-21.177 Y-44.61 Z-2.191
X-21.134 Y-44.6 Z-2.219
X-21.097 Y-44.576 Z-2.247
X-21.07 Y-44.54 Z-2.276
X-21.058 Y-44.498 Z-2.304
X-21.061 Y-44.453 Z-2.333
X-21.08 Y-44.413 Z-2.361
X-21.111 Y-44.382 Z-2.39
X-21.152 Y-44.363 Z-2.418
X-21.196 Y-44.36 Z-2.447
X-21.239 Y-44.373 Z-2.475
X-21.274 Y-44.4 Z-2.503
X-21.298 Y-44.438 Z-2.532
X-21.307 Y-44.481 Z-2.56
X-21.3 Y-44.525 Z-2.589
X-21.279 Y-44.564 Z-2.617
X-21.245 Y-44.593 Z-2.646
X-21.203 Y-44.608 Z-2.674
X-21.158 Y-44.607 Z-2.703
X-21.117 Y-44.591 Z-2.731
X-21.084 Y-44.562 Z-2.759
X-21.063 Y-44.523 Z-2.788
X-21.057 Y-44.479 Z-2.816
X-21.067 Y-44.435 Z-2.845
X-21.092 Y-44.398 Z-2.873
X-21.128 Y-44.372 Z-2.902
X-21.17 Y-44.36 Z-2.93
X-21.215 Y-44.364 Z-2.959
X-21.255 Y-44.383 Z-2.987
X-21.286 Y-44.415 Z-3.016
X-21.304 Y-44.456 Z-3.044
X-21.306 Y-44.5 Z-3.072
X-21.293 Y-44.543 Z-3.101
X-21.265 Y-44.578 Z-3.129
X-21.228 Y-44.601 Z-3.158
X-21.184 Y-44.61 Z-3.186
X-21.14 Y-44.602 Z-3.215
X-21.102 Y-44.58 Z-3.243
X-21.073 Y-44.546 Z-3.272
X-21.059 Y-44.504 Z-3.3
G3 X-21.305 Y-44.465 I-0.123 J0.02
X-21.059 Y-44.504 I0.123 J-0.02
G1 Y-44.48 F1016
X-21.07 Y-44.458
X-21.088 Y-44.441
X-21.11 Y-44.433
X-21.207 Y-44.417
G0 Z5
X-21.113 Y-24.163
Z0.805
G1 Z0 F1016
X-21.182 Y-24.094
X-21.202 Y-24.08
X-21.226 Y-24.075
X-21.25 Y-24.08
X-21.27 Y-24.094
X-21.296 Y-24.13 Z-0.028 F2540
X-21.307 Y-24.173 Z-0.057
X-21.302 Y-24.217 Z-0.085
X-21.282 Y-24.257 Z-0.114
X-21.249 Y-24.287 Z-0.142
X-21.208 Y-24.304 Z-0.171
X-21.164 Y-24.306 Z-0.199
X-21.122 Y-24.291 Z-0.228
X-21.087 Y-24.263 Z-0.256
X-21.065 Y-24.225 Z-0.284
X-21.057 Y-24.181 Z-0.313
X-21.065 Y-24.138 Z-0.341
X-21.088 Y-24.1 Z-0.37
X-21.123 Y-24.072 Z-0.398
X-21.165 Y-24.058 Z-0.427
X-21.21 Y-24.06 Z-0.455
X-21.25 Y-24.077 Z-0.484
X-21.283 Y-24.108 Z-0.512
X-21.302 Y-24.148 Z-0.541
X-21.307 Y-24.192 Z-0.569
X-21.295 Y-24.235 Z-0.597
X-21.269 Y-24.271 Z-0.626
X-21.233 Y-24.296 Z-0.654
X-21.189 Y-24.307 Z-0.683
X-21.145 Y-24.301 Z-0.711
X-21.106 Y-24.281 Z-0.74
X-21.076 Y-24.248 Z-0.768
X-21.059 Y-24.207 Z-0.797
Y-24.162 Z-0.825
X-21.073 Y-24.12 Z-0.853
X-21.102 Y-24.086 Z-0.882
X-21.14 Y-24.064 Z-0.91
X-21.184 Y-24.057 Z-0.939
X-21.228 Y-24.066 Z-0.967
X-21.265 Y-24.089 Z-0.996
X-21.293 Y-24.124 Z-1.024
X-21.306 Y-24.166 Z-1.053
X-21.304 Y-24.211 Z-1.081
X-21.286 Y-24.252 Z-1.109
X-21.255 Y-24.284 Z-1.138
X-21.215 Y-24.303 Z-1.166
X-21.17 Y-24.306 Z-1.195
X-21.128 Y-24.295 Z-1.223
X-21.092 Y-24.268 Z-1.252
X-21.067 Y-24.231 Z-1.28
X-21.057 Y-24.188 Z-1.309
X-21.063 Y-24.144 Z-1.337
X-21.084 Y-24.105 Z-1.366
X-21.117 Y-24.075 Z-1.394
X-21.158 Y-24.059 Z-1.422
X-21.203 Z-1.451
X-21.245 Y-24.074 Z-1.479
X-21.279 Y-24.103 Z-1.508
X-21.3 Y-24.141 Z-1.536
X-21.307 Y-24.185 Z-1.565
X-21.298 Y-24.229 Z-1.593
X-21.274 Y-24.266 Z-1.622
X-21.239 Y-24.293 Z-1.65
X-21.196 Y-24.306 Z-1.678
X-21.152 Y-24.303 Z-1.707
X-21.111 Y-24.285 Z-1.735
X-21.08 Y-24.254 Z-1.764
X-21.061 Y-24.213 Z-1.792
X-21.058 Y-24.169 Z-1.821
X-21.07 Y-24.126 Z-1.849
X-21.097 Y-24.091 Z-1.878
X-21.134 Y-24.067 Z-1.906
X-21.177 Y-24.057 Z-1.934
X-21.221 Y-24.063 Z-1.963
X-21.26 Y-24.085 Z-1.991
X-21.289 Y-24.118 Z-2.02
X-21.305 Y-24.16 Z-2.048
Y-24.204 Z-2.077
X-21.289 Y-24.246 Z-2.105
X-21.26 Y-24.279 Z-2.134
X-21.221 Y-24.301 Z-2.162
X-21.177 Y-24.307 Z-2.191
X-21.134 Y-24.297 Z-2.219
X-21.097 Y-24.273 Z-2.247
X-21.07 Y-24.238 Z-2.276
X-21.058 Y-24.195 Z-2.304
X-21.061 Y-24.151 Z-2.333
X-21.08 Y-24.11 Z-2.361
X-21.111 Y-24.079 Z-2.39
X-21.152 Y-24.061 Z-2.418
X-21.196 Y-24.058 Z-2.447
X-21.239 Y-24.071 Z-2.475
X-21.274 Y-24.098 Z-2.503
X-21.298 Y-24.135 Z-2.532
X-21.307 Y-24.179 Z-2.56
X-21.3 Y-24.223 Z-2.589
X-21.279 Y-24.261 Z-2.617
X-21.245 Y-24.29 Z-2.646
X-21.203 Y-24.305 Z-2.674
X-21.158 Z-2.703
X-21.117 Y-24.289 Z-2.731
X-21.084 Y-24.259 Z-2.759
X-21.063 Y-24.22 Z-2.788
X-21.057 Y-24.176 Z-2.816
X-21.067 Y-24.133 Z-2.845
X-21.092 Y-24.096 Z-2.873
X-21.128 Y-24.069 Z-2.902
X-21.17 Y-24.058 Z-2.93
X-21.215 Y-24.061 Z-2.959
X-21.255 Y-24.08 Z-2.987
X-21.286 Y-24.112 Z-3.016
X-21.304 Y-24.153 Z-3.044
X-21.306 Y-24.198 Z-3.072
X-21.293 Y-24.24 Z-3.101
X-21.265 Y-24.275 Z-3.129
X-21.228 Y-24.298 Z-3.158
X-21.184 Y-24.307 Z-3.186
X-21.14 Y-24.3 Z-3.215
X-21.102 Y-24.278 Z-3.243
X-21.073 Y-24.244 Z-3.272
X-21.059 Y-24.202 Z-3.3
G3 X-21.305 Y-24.162 I-0.123 J0.02
X-21.059 Y-24.202 I0.123 J-0.02
G1 Y-24.177 F1016
X-21.07 Y-24.155
X-21.088 Y-24.138
X-21.11 Y-24.13
X-21.207 Y-24.115
G0 Z5
X-14.749 Y-24.163
Z0.805
G1 Z0 F1016
X-14.818 Y-24.094
X-14.838 Y-24.08
X-14.862 Y-24.075
X-14.886 Y-24.08
X-14.906 Y-24.094
G3 X-14.73 Y-24.27 Z-0.25 I0.088 J-0.088 F2540
X-14.906 Y-24.094 Z-0.5 I-0.088 J0.088
X-14.73 Y-24.27 Z-0.75 I0.088 J-0.088
X-14.906 Y-24.094 Z-1 I-0.088 J0.088
X-14.73 Y-24.27 Z-1.25 I0.088 J-0.088
X-14.906 Y-24.094 Z-1.5 I-0.088 J0.088
X-14.73 Y-24.27 Z-1.75 I0.088 J-0.088
X-14.906 Y-24.094 Z-2 I-0.088 J0.088
X-14.73 Y-24.27 Z-2.25 I0.088 J-0.088
X-14.906 Y-24.094 Z-2.5 I-0.088 J0.088
X-14.73 Y-24.27 Z-2.75 I0.088 J-0.088
X-14.906 Y-24.094 Z-3 I-0.088 J0.088
X-14.73 Y-24.27 Z-3.25 I0.088 J-0.088
X-14.695 Y-24.202 Z-3.3 I-0.088 J0.088
X-14.941 Y-24.162 I-0.123 J0.02
X-14.695 Y-24.202 I0.123 J-0.02
G1 X-14.696 Y-24.177 F1016
X-14.706 Y-24.155
X-14.724 Y-24.138
X-14.747 Y-24.13
X-14.843 Y-24.115
G0 Z5
X-14.749 Y-17.799
Z0.805
G1 Z0 F1016
X-14.818 Y-17.73
X-14.838 Y-17.716
X-14.862 Y-17.711
X-14.886 Y-17.716
X-14.906 Y-17.73
G3 X-14.73 Y-17.906 Z-0.25 I0.088 J-0.088 F2540
X-14.906 Y-17.73 Z-0.5 I-0.088 J0.088
X-14.73 Y-17.906 Z-0.75 I0.088 J-0.088
X-14.906 Y-17.73 Z-1 I-0.088 J0.088
X-14.73 Y-17.906 Z-1.25 I0.088 J-0.088
X-14.906 Y-17.73 Z-1.5 I-0.088 J0.088
X-14.73 Y-17.906 Z-1.75 I0.088 J-0.088
X-14.906 Y-17.73 Z-2 I-0.088 J0.088
X-14.73 Y-17.906 Z-2.25 I0.088 J-0.088
X-14.906 Y-17.73 Z-2.5 I-0.088 J0.088
X-14.73 Y-17.906 Z-2.75 I0.088 J-0.088
X-14.906 Y-17.73 Z-3 I-0.088 J0.088
X-14.73 Y-17.906 Z-3.25 I0.088 J-0.088
X-14.695 Y-17.838 Z-3.3 I-0.088 J0.088
X-14.941 Y-17.798 I-0.123 J0.02
X-14.695 Y-17.838 I0.123 J-0.02
G1 X-14.696 Y-17.813 F1016
X-14.706 Y-17.791
X-14.724 Y-17.775
X-14.747 Y-17.766
X-14.843 Y-17.751
G0 Z5
X-21.113 Y-17.799
Z0.805
G1 Z0 F1016
X-21.182 Y-17.73
X-21.202 Y-17.716
X-21.226 Y-17.711
X-21.25 Y-17.716
X-21.27 Y-17.73
X-21.296 Y-17.766 Z-0.028 F2540
X-21.307 Y-17.809 Z-0.057
X-21.302 Y-17.853 Z-0.085
X-21.282 Y-17.893 Z-0.114
X-21.249 Y-17.923 Z-0.142
X-21.208 Y-17.94 Z-0.171
X-21.164 Y-17.942 Z-0.199
X-21.122 Y-17.927 Z-0.228
X-21.087 Y-17.899 Z-0.256
X-21.065 Y-17.861 Z-0.284
X-21.057 Y-17.817 Z-0.313
X-21.065 Y-17.774 Z-0.341
X-21.088 Y-17.736 Z-0.37
X-21.123 Y-17.708 Z-0.398
X-21.165 Y-17.694 Z-0.427
X-21.21 Y-17.696 Z-0.455
X-21.25 Y-17.713 Z-0.484
X-21.283 Y-17.744 Z-0.512
X-21.302 Y-17.784 Z-0.541
X-21.307 Y-17.828 Z-0.569
X-21.295 Y-17.871 Z-0.597
X-21.269 Y-17.907 Z-0.626
X-21.233 Y-17.932 Z-0.654
X-21.189 Y-17.943 Z-0.683
X-21.145 Y-17.938 Z-0.711
X-21.106 Y-17.917 Z-0.74
X-21.076 Y-17.884 Z-0.768
X-21.059 Y-17.843 Z-0.797
Y-17.798 Z-0.825
X-21.073 Y-17.756 Z-0.853
X-21.102 Y-17.722 Z-0.882
X-21.14 Y-17.7 Z-0.91
X-21.184 Y-17.693 Z-0.939
X-21.228 Y-17.702 Z-0.967
X-21.265 Y-17.725 Z-0.996
X-21.293 Y-17.76 Z-1.024
X-21.306 Y-17.802 Z-1.053
X-21.304 Y-17.847 Z-1.081
X-21.286 Y-17.888 Z-1.109
X-21.255 Y-17.92 Z-1.138
X-21.215 Y-17.939 Z-1.166
X-21.17 Y-17.942 Z-1.195
X-21.128 Y-17.931 Z-1.223
X-21.092 Y-17.904 Z-1.252
X-21.067 Y-17.867 Z-1.28
X-21.057 Y-17.824 Z-1.309
X-21.063 Y-17.78 Z-1.337
X-21.084 Y-17.741 Z-1.366
X-21.117 Y-17.711 Z-1.394
X-21.158 Y-17.695 Z-1.422
X-21.203 Z-1.451
X-21.245 Y-17.71 Z-1.479
X-21.279 Y-17.739 Z-1.508
X-21.3 Y-17.777 Z-1.536
X-21.307 Y-17.821 Z-1.565
X-21.298 Y-17.865 Z-1.593
X-21.274 Y-17.902 Z-1.622
X-21.239 Y-17.929 Z-1.65
X-21.196 Y-17.942 Z-1.678
X-21.152 Y-17.939 Z-1.707
X-21.111 Y-17.921 Z-1.735
X-21.08 Y-17.89 Z-1.764
X-21.061 Y-17.849 Z-1.792
X-21.058 Y-17.805 Z-1.821
X-21.07 Y-17.762 Z-1.849
X-21.097 Y-17.727 Z-1.878
X-21.134 Y-17.703 Z-1.906
X-21.177 Y-17.693 Z-1.934
X-21.221 Y-17.699 Z-1.963
X-21.26 Y-17.721 Z-1.991
X-21.289 Y-17.754 Z-2.02
X-21.305 Y-17.796 Z-2.048
Y-17.84 Z-2.077
X-21.289 Y-17.882 Z-2.105
X-21.26 Y-17.915 Z-2.134
X-21.221 Y-17.937 Z-2.162
X-21.177 Y-17.943 Z-2.191
X-21.134 Y-17.933 Z-2.219
X-21.097 Y-17.909 Z-2.247
X-21.07 Y-17.874 Z-2.276
X-21.058 Y-17.831 Z-2.304
X-21.061 Y-17.787 Z-2.333
X-21.08 Y-17.746 Z-2.361
X-21.111 Y-17.715 Z-2.39
X-21.152 Y-17.697 Z-2.418
X-21.196 Y-17.694 Z-2.447
X-21.239 Y-17.707 Z-2.475
X-21.274 Y-17.734 Z-2.503
X-21.298 Y-17.771 Z-2.532
X-21.307 Y-17.815 Z-2.56
X-21.3 Y-17.859 Z-2.589
X-21.279 Y-17.897 Z-2.617
X-21.245 Y-17.926 Z-2.646
X-21.203 Y-17.941 Z-2.674
X-21.158 Z-2.703
X-21.117 Y-17.925 Z-2.731
X-21.084 Y-17.895 Z-2.759
X-21.063 Y-17.856 Z-2.788
X-21.057 Y-17.812 Z-2.816
X-21.067 Y-17.769 Z-2.845
X-21.092 Y-17.732 Z-2.873
X-21.128 Y-17.705 Z-2.902
X-21.17 Y-17.694 Z-2.93
X-21.215 Y-17.697 Z-2.959
X-21.255 Y-17.716 Z-2.987
X-21.286 Y-17.748 Z-3.016
X-21.304 Y-17.789 Z-3.044
X-21.306 Y-17.834 Z-3.072
X-21.293 Y-17.876 Z-3.101
X-21.265 Y-17.911 Z-3.129
X-21.228 Y-17.934 Z-3.158
X-21.184 Y-17.943 Z-3.186
X-21.14 Y-17.936 Z-3.215
X-21.102 Y-17.914 Z-3.243
X-21.073 Y-17.88 Z-3.272
X-21.059 Y-17.838 Z-3.3
G3 X-21.305 Y-17.798 I-0.123 J0.02
X-21.059 Y-17.838 I0.123 J-0.02
G1 Y-17.813 F1016
X-21.07 Y-17.791
X-21.088 Y-17.775
X-21.11 Y-17.766
X-21.207 Y-17.751
G0 Z5
X-42.771 Y-8.37
Z-0.195
G1 Z-1 F1016
X-42.702 Y-8.439
X-42.681 Y-8.453
X-42.657 Y-8.457
X-42.634 Y-8.453
X-42.613 Y-8.439
X-42.588 Y-8.403 Z-1.028 F2540
X-42.577 Y-8.36 Z-1.057
X-42.582 Y-8.315 Z-1.085
X-42.602 Y-8.276 Z-1.114
X-42.634 Y-8.245 Z-1.142
X-42.675 Y-8.228 Z-1.17
X-42.719 Y-8.227 Z-1.199
X-42.761 Y-8.241 Z-1.227
X-42.796 Y-8.269 Z-1.256
X-42.819 Y-8.307 Z-1.284
X-42.827 Y-8.35 Z-1.312
X-42.819 Y-8.394 Z-1.341
X-42.796 Y-8.432 Z-1.369
X-42.762 Y-8.46 Z-1.398
X-42.72 Y-8.474 Z-1.426
X-42.675 Y-8.473 Z-1.454
X-42.634 Y-8.456 Z-1.483
X-42.602 Y-8.426 Z-1.511
X-42.582 Y-8.386 Z-1.54
X-42.577 Y-8.342 Z-1.568
X-42.588 Y-8.299 Z-1.596
X-42.613 Y-8.263 Z-1.625
X-42.649 Y-8.237 Z-1.653
X-42.692 Y-8.226 Z-1.681
X-42.736 Y-8.23 Z-1.71
X-42.776 Y-8.25 Z-1.738
X-42.806 Y-8.283 Z-1.767
X-42.824 Y-8.323 Z-1.795
X-42.825 Y-8.368 Z-1.823
X-42.812 Y-8.41 Z-1.852
X-42.784 Y-8.445 Z-1.88
X-42.746 Y-8.467 Z-1.909
X-42.702 Y-8.476 Z-1.937
X-42.659 Y-8.468 Z-1.965
X-42.62 Y-8.446 Z-1.994
X-42.592 Y-8.411 Z-2.022
X-42.578 Y-8.369 Z-2.051
X-42.579 Y-8.325 Z-2.079
X-42.596 Y-8.284 Z-2.107
X-42.626 Y-8.251 Z-2.136
X-42.666 Y-8.231 Z-2.164
X-42.71 Y-8.226 Z-2.193
X-42.753 Y-8.236 Z-2.221
X-42.789 Y-8.262 Z-2.249
X-42.815 Y-8.298 Z-2.278
X-42.826 Y-8.341 Z-2.306
X-42.822 Y-8.385 Z-2.335
X-42.802 Y-8.425 Z-2.363
X-42.77 Y-8.455 Z-2.391
X-42.729 Y-8.472 Z-2.42
X-42.685 Y-8.474 Z-2.448
X-42.643 Y-8.461 Z-2.477
X-42.608 Y-8.433 Z-2.505
X-42.585 Y-8.395 Z-2.533
X-42.577 Y-8.352 Z-2.562
X-42.584 Y-8.308 Z-2.59
X-42.606 Y-8.27 Z-2.619
X-42.641 Y-8.241 Z-2.647
X-42.683 Y-8.227 Z-2.675
X-42.727 Y-8.228 Z-2.704
X-42.768 Y-8.245 Z-2.732
X-42.801 Y-8.275 Z-2.76
X-42.821 Y-8.314 Z-2.789
X-42.826 Y-8.358 Z-2.817
X-42.816 Y-8.401 Z-2.846
X-42.791 Y-8.438 Z-2.874
X-42.755 Y-8.464 Z-2.902
X-42.712 Y-8.475 Z-2.931
X-42.668 Y-8.471 Z-2.959
X-42.628 Y-8.452 Z-2.988
X-42.597 Y-8.419 Z-3.016
X-42.58 Y-8.379 Z-3.044
X-42.578 Y-8.334 Z-3.073
X-42.591 Y-8.292 Z-3.101
X-42.619 Y-8.257 Z-3.13
X-42.656 Y-8.234 Z-3.158
X-42.7 Y-8.226 Z-3.186
X-42.744 Y-8.233 Z-3.215
X-42.782 Y-8.255 Z-3.243
X-42.81 Y-8.289 Z-3.272
X-42.825 Y-8.331 Z-3.3
G3 X-42.578 Y-8.37 I0.123 J-0.02
X-42.825 Y-8.331 I-0.123 J0.02
G1 X-42.824 Y-8.355 F1016
X-42.814 Y-8.378
X-42.796 Y-8.394
X-42.773 Y-8.403
X-42.677 Y-8.418
G0 Z5
X-54.128 Y-8.37
Z-0.195
G1 Z-1 F1016
X-54.059 Y-8.439
X-54.039 Y-8.453
X-54.015 Y-8.457
X-53.991 Y-8.453
X-53.971 Y-8.439
X-53.946 Y-8.403 Z-1.028 F2540
X-53.935 Y-8.36 Z-1.057
X-53.94 Y-8.315 Z-1.085
X-53.959 Y-8.276 Z-1.114
X-53.992 Y-8.245 Z-1.142
X-54.033 Y-8.228 Z-1.17
X-54.077 Y-8.227 Z-1.199
X-54.119 Y-8.241 Z-1.227
X-54.154 Y-8.269 Z-1.256
X-54.177 Y-8.307 Z-1.284
X-54.184 Y-8.35 Z-1.312
X-54.177 Y-8.394 Z-1.341
X-54.154 Y-8.432 Z-1.369
X-54.12 Y-8.46 Z-1.398
X-54.078 Y-8.474 Z-1.426
X-54.033 Y-8.473 Z-1.454
X-53.992 Y-8.456 Z-1.483
X-53.96 Y-8.426 Z-1.511
X-53.94 Y-8.386 Z-1.54
X-53.935 Y-8.342 Z-1.568
X-53.946 Y-8.299 Z-1.596
X-53.971 Y-8.263 Z-1.625
X-54.007 Y-8.237 Z-1.653
X-54.05 Y-8.226 Z-1.681
X-54.094 Y-8.23 Z-1.71
X-54.134 Y-8.25 Z-1.738
X-54.164 Y-8.283 Z-1.767
X-54.182 Y-8.323 Z-1.795
X-54.183 Y-8.368 Z-1.823
X-54.17 Y-8.41 Z-1.852
X-54.142 Y-8.445 Z-1.88
X-54.104 Y-8.467 Z-1.909
X-54.06 Y-8.476 Z-1.937
X-54.017 Y-8.468 Z-1.965
X-53.978 Y-8.446 Z-1.994
X-53.95 Y-8.411 Z-2.022
X-53.936 Y-8.369 Z-2.051
X-53.937 Y-8.325 Z-2.079
X-53.954 Y-8.284 Z-2.107
X-53.984 Y-8.251 Z-2.136
X-54.023 Y-8.231 Z-2.164
X-54.067 Y-8.226 Z-2.193
X-54.111 Y-8.236 Z-2.221
X-54.147 Y-8.262 Z-2.249
X-54.173 Y-8.298 Z-2.278
X-54.184 Y-8.341 Z-2.306
X-54.18 Y-8.385 Z-2.335
X-54.16 Y-8.425 Z-2.363
X-54.128 Y-8.455 Z-2.391
X-54.087 Y-8.472 Z-2.42
X-54.043 Y-8.474 Z-2.448
X-54.001 Y-8.461 Z-2.477
X-53.966 Y-8.433 Z-2.505
X-53.943 Y-8.395 Z-2.533
X-53.935 Y-8.352 Z-2.562
X-53.942 Y-8.308 Z-2.59
X-53.964 Y-8.27 Z-2.619
X-53.998 Y-8.241 Z-2.647
X-54.04 Y-8.227 Z-2.675
X-54.085 Y-8.228 Z-2.704
X-54.126 Y-8.245 Z-2.732
X-54.159 Y-8.275 Z-2.76
X-54.179 Y-8.314 Z-2.789
X-54.184 Y-8.358 Z-2.817
X-54.174 Y-8.401 Z-2.846
X-54.149 Y-8.438 Z-2.874
X-54.113 Y-8.464 Z-2.902
X-54.07 Y-8.475 Z-2.931
X-54.026 Y-8.471 Z-2.959
X-53.986 Y-8.452 Z-2.988
X-53.955 Y-8.419 Z-3.016
X-53.938 Y-8.379 Z-3.044
X-53.936 Y-8.334 Z-3.073
X-53.949 Y-8.292 Z-3.101
X-53.976 Y-8.257 Z-3.13
X-54.014 Y-8.234 Z-3.158
X-54.058 Y-8.226 Z-3.186
X-54.102 Y-8.233 Z-3.215
X-54.14 Y-8.255 Z-3.243
X-54.168 Y-8.289 Z-3.272
X-54.183 Y-8.331 Z-3.3
G3 X-53.936 Y-8.37 I0.123 J-0.02
X-54.183 Y-8.331 I-0.123 J0.02
G1 X-54.182 Y-8.355 F1016
X-54.172 Y-8.378
X-54.154 Y-8.394
X-54.131 Y-8.403
X-54.035 Y-8.418
G0 Z5
X-56.071 Y-20.981
Z-0.195
G1 Z-1 F1016
X-56.14 Y-20.912
X-56.16 Y-20.898
X-56.184 Y-20.893
X-56.208 Y-20.898
X-56.228 Y-20.912
G3 X-56.051 Y-21.088 Z-1.25 I0.088 J-0.088 F2540
X-56.228 Y-20.912 Z-1.5 I-0.088 J0.088
X-56.051 Y-21.088 Z-1.75 I0.088 J-0.088
X-56.228 Y-20.912 Z-2 I-0.088 J0.088
X-56.051 Y-21.088 Z-2.25 I0.088 J-0.088
X-56.228 Y-20.912 Z-2.5 I-0.088 J0.088
X-56.051 Y-21.088 Z-2.75 I0.088 J-0.088
X-56.228 Y-20.912 Z-3 I-0.088 J0.088
X-56.051 Y-21.088 Z-3.25 I0.088 J-0.088
X-56.016 Y-21.02 Z-3.3 I-0.088 J0.088
X-56.263 Y-20.98 I-0.123 J0.02
X-56.016 Y-21.02 I0.123 J-0.02
G1 X-56.017 Y-20.995 F1016
X-56.027 Y-20.973
X-56.045 Y-20.956
X-56.068 Y-20.948
X-56.164 Y-20.933
G0 Z5
X-67.429 Y-20.981
Z-0.195
G1 Z-1 F1016
X-67.497 Y-20.912
X-67.518 Y-20.898
X-67.542 Y-20.893
X-67.566 Y-20.898
X-67.586 Y-20.912
X-67.611 Y-20.948 Z-1.028 F2540
X-67.622 Y-20.991 Z-1.057
X-67.617 Y-21.035 Z-1.085
X-67.598 Y-21.075 Z-1.114
X-67.565 Y-21.105 Z-1.142
X-67.524 Y-21.122 Z-1.17
X-67.48 Y-21.124 Z-1.199
X-67.438 Y-21.11 Z-1.227
X-67.403 Y-21.082 Z-1.256
X-67.38 Y-21.044 Z-1.284
X-67.372 Y-21 Z-1.312
X-67.38 Y-20.957 Z-1.341
X-67.403 Y-20.918 Z-1.369
X-67.437 Y-20.89 Z-1.398
X-67.479 Y-20.876 Z-1.426
X-67.524 Y-20.878 Z-1.454
X-67.565 Y-20.895 Z-1.483
X-67.597 Y-20.925 Z-1.511
X-67.617 Y-20.964 Z-1.54
X-67.622 Y-21.008 Z-1.568
X-67.611 Y-21.052 Z-1.596
X-67.586 Y-21.088 Z-1.625
X-67.55 Y-21.113 Z-1.653
X-67.507 Y-21.125 Z-1.681
X-67.463 Y-21.12 Z-1.71
X-67.423 Y-21.1 Z-1.738
X-67.393 Y-21.068 Z-1.767
X-67.375 Y-21.027 Z-1.795
X-67.374 Y-20.983 Z-1.823
X-67.387 Y-20.941 Z-1.852
X-67.415 Y-20.906 Z-1.88
X-67.453 Y-20.883 Z-1.909
X-67.497 Y-20.875 Z-1.937
X-67.54 Y-20.883 Z-1.965
X-67.579 Y-20.905 Z-1.994
X-67.607 Y-20.939 Z-2.022
X-67.621 Y-20.981 Z-2.051
X-67.62 Y-21.026 Z-2.079
X-67.603 Y-21.067 Z-2.107
X-67.573 Y-21.1 Z-2.136
X-67.534 Y-21.12 Z-2.164
X-67.489 Y-21.125 Z-2.193
X-67.446 Y-21.114 Z-2.221
X-67.41 Y-21.089 Z-2.249
X-67.384 Y-21.053 Z-2.278
X-67.373 Y-21.01 Z-2.306
X-67.377 Y-20.966 Z-2.335
X-67.397 Y-20.926 Z-2.363
X-67.429 Y-20.895 Z-2.391
X-67.47 Y-20.878 Z-2.42
X-67.514 Y-20.876 Z-2.448
X-67.556 Y-20.89 Z-2.477
X-67.591 Y-20.917 Z-2.505
X-67.614 Y-20.955 Z-2.533
X-67.622 Y-20.999 Z-2.562
X-67.615 Y-21.043 Z-2.59
X-67.593 Y-21.081 Z-2.619
X-67.558 Y-21.109 Z-2.647
X-67.517 Y-21.124 Z-2.675
X-67.472 Y-21.122 Z-2.704
X-67.431 Y-21.106 Z-2.732
X-67.398 Y-21.076 Z-2.76
X-67.378 Y-21.037 Z-2.789
X-67.373 Y-20.992 Z-2.817
X-67.383 Y-20.949 Z-2.846
X-67.408 Y-20.913 Z-2.874
X-67.444 Y-20.887 Z-2.902
X-67.487 Y-20.875 Z-2.931
X-67.531 Y-20.88 Z-2.959
X-67.571 Y-20.899 Z-2.988
X-67.602 Y-20.931 Z-3.016
X-67.619 Y-20.972 Z-3.044
X-67.621 Y-21.016 Z-3.073
X-67.608 Y-21.058 Z-3.101
X-67.581 Y-21.093 Z-3.13
X-67.543 Y-21.117 Z-3.158
X-67.499 Y-21.125 Z-3.186
X-67.455 Y-21.118 Z-3.215
X-67.417 Y-21.096 Z-3.243
X-67.389 Y-21.061 Z-3.272
X-67.374 Y-21.02 Z-3.3
G3 X-67.621 Y-20.98 I-0.123 J0.02
X-67.374 Y-21.02 I0.123 J-0.02
G1 X-67.375 Y-20.995 F1016
X-67.385 Y-20.973
X-67.403 Y-20.956
X-67.426 Y-20.948
X-67.522 Y-20.933
G0 Z5
X-42.771 Y-35.037
Z-0.195
G1 Z-1 F1016
X-42.702 Y-35.106
X-42.681 Y-35.119
X-42.657 Y-35.124
X-42.634 Y-35.119
X-42.613 Y-35.106
X-42.588 Y-35.069 Z-1.028 F2540
X-42.577 Y-35.026 Z-1.057
X-42.582 Y-34.982 Z-1.085
X-42.602 Y-34.942 Z-1.114
X-42.634 Y-34.912 Z-1.142
X-42.675 Y-34.895 Z-1.17
X-42.719 Y-34.893 Z-1.199
X-42.761 Y-34.907 Z-1.227
X-42.796 Y-34.935 Z-1.256
X-42.819 Y-34.973 Z-1.284
X-42.827 Y-35.017 Z-1.312
X-42.819 Y-35.061 Z-1.341
X-42.796 Y-35.099 Z-1.369
X-42.762 Y-35.127 Z-1.398
X-42.72 Y-35.141 Z-1.426
X-42.675 Y-35.139 Z-1.454
X-42.634 Y-35.123 Z-1.483
X-42.602 Y-35.092 Z-1.511
X-42.582 Y-35.053 Z-1.54
X-42.577 Y-35.009 Z-1.568
X-42.588 Y-34.966 Z-1.596
X-42.613 Y-34.929 Z-1.625
X-42.649 Y-34.904 Z-1.653
X-42.692 Y-34.893 Z-1.681
X-42.736 Y-34.897 Z-1.71
X-42.776 Y-34.917 Z-1.738
X-42.806 Y-34.949 Z-1.767
X-42.824 Y-34.99 Z-1.795
X-42.825 Y-35.034 Z-1.823
X-42.812 Y-35.077 Z-1.852
X-42.784 Y-35.111 Z-1.88
X-42.746 Y-35.134 Z-1.909
X-42.702 Y-35.142 Z-1.937
X-42.659 Y-35.135 Z-1.965
X-42.62 Y-35.112 Z-1.994
X-42.592 Y-35.078 Z-2.022
X-42.578 Y-35.036 Z-2.051
X-42.579 Y-34.991 Z-2.079
X-42.596 Y-34.95 Z-2.107
X-42.626 Y-34.918 Z-2.136
X-42.666 Y-34.898 Z-2.164
X-42.71 Y-34.893 Z-2.193
X-42.753 Y-34.903 Z-2.221
X-42.789 Y-34.928 Z-2.249
X-42.815 Y-34.964 Z-2.278
X-42.826 Y-35.007 Z-2.306
X-42.822 Y-35.051 Z-2.335
X-42.802 Y-35.091 Z-2.363
X-42.77 Y-35.122 Z-2.391
X-42.729 Y-35.139 Z-2.42
X-42.685 Y-35.141 Z-2.448
X-42.643 Y-35.128 Z-2.477
X-42.608 Y-35.1 Z-2.505
X-42.585 Y-35.062 Z-2.533
X-42.577 Y-35.018 Z-2.562
X-42.584 Y-34.975 Z-2.59
X-42.606 Y-34.936 Z-2.619
X-42.641 Y-34.908 Z-2.647
X-42.683 Y-34.894 Z-2.675
X-42.727 Y-34.895 Z-2.704
X-42.768 Y-34.911 Z-2.732
X-42.801 Y-34.941 Z-2.76
X-42.821 Y-34.981 Z-2.789
X-42.826 Y-35.025 Z-2.817
X-42.816 Y-35.068 Z-2.846
X-42.791 Y-35.105 Z-2.874
X-42.755 Y-35.13 Z-2.902
X-42.712 Y-35.142 Z-2.931
X-42.668 Y-35.138 Z-2.959
X-42.628 Y-35.118 Z-2.988
X-42.597 Y-35.086 Z-3.016
X-42.58 Y-35.045 Z-3.044
X-42.578 Y-35.001 Z-3.073
X-42.591 Y-34.959 Z-3.101
X-42.619 Y-34.924 Z-3.13
X-42.656 Y-34.901 Z-3.158
X-42.7 Y-34.892 Z-3.186
X-42.744 Y-34.9 Z-3.215
X-42.782 Y-34.922 Z-3.243
X-42.81 Y-34.956 Z-3.272
X-42.825 Y-34.998 Z-3.3
G3 X-42.578 Y-35.037 I0.123 J-0.02
X-42.825 Y-34.998 I-0.123 J0.02
G1 X-42.824 Y-35.022 F1016
X-42.814 Y-35.044
X-42.796 Y-35.061
X-42.773 Y-35.069
X-42.677 Y-35.084
G0 Z5
X-54.128 Y-35.037
Z-0.195
G1 Z-1 F1016
X-54.059 Y-35.106
X-54.039 Y-35.119
X-54.015 Y-35.124
X-53.991 Y-35.119
X-53.971 Y-35.106
X-53.946 Y-35.069 Z-1.028 F2540
X-53.935 Y-35.026 Z-1.057
X-53.94 Y-34.982 Z-1.085
X-53.959 Y-34.942 Z-1.114
X-53.992 Y-34.912 Z-1.142
X-54.033 Y-34.895 Z-1.17
X-54.077 Y-34.893 Z-1.199
X-54.119 Y-34.907 Z-1.227
X-54.154 Y-34.935 Z-1.256
X-54.177 Y-34.973 Z-1.284
X-54.184 Y-35.017 Z-1.312
X-54.177 Y-35.061 Z-1.341
X-54.154 Y-35.099 Z-1.369
X-54.12 Y-35.127 Z-1.398
X-54.078 Y-35.141 Z-1.426
X-54.033 Y-35.139 Z-1.454
X-53.992 Y-35.123 Z-1.483
X-53.96 Y-35.092 Z-1.511
X-53.94 Y-35.053 Z-1.54
X-53.935 Y-35.009 Z-1.568
X-53.946 Y-34.966 Z-1.596
X-53.971 Y-34.929 Z-1.625
X-54.007 Y-34.904 Z-1.653
X-54.05 Y-34.893 Z-1.681
X-54.094 Y-34.897 Z-1.71
X-54.134 Y-34.917 Z-1.738
X-54.164 Y-34.949 Z-1.767
X-54.182 Y-34.99 Z-1.795
X-54.183 Y-35.034 Z-1.823
X-54.17 Y-35.077 Z-1.852
X-54.142 Y-35.111 Z-1.88
X-54.104 Y-35.134 Z-1.909
X-54.06 Y-35.142 Z-1.937
X-54.017 Y-35.135 Z-1.965
X-53.978 Y-35.112 Z-1.994
X-53.95 Y-35.078 Z-2.022
X-53.936 Y-35.036 Z-2.051
X-53.937 Y-34.991 Z-2.079
X-53.954 Y-34.95 Z-2.107
X-53.984 Y-34.918 Z-2.136
X-54.023 Y-34.898 Z-2.164
X-54.067 Y-34.893 Z-2.193
X-54.111 Y-34.903 Z-2.221
X-54.147 Y-34.928 Z-2.249
X-54.173 Y-34.964 Z-2.278
X-54.184 Y-35.007 Z-2.306
X-54.18 Y-35.051 Z-2.335
X-54.16 Y-35.091 Z-2.363
X-54.128 Y-35.122 Z-2.391
X-54.087 Y-35.139 Z-2.42
X-54.043 Y-35.141 Z-2.448
X-54.001 Y-35.128 Z-2.477
X-53.966 Y-35.1 Z-2.505
X-53.943 Y-35.062 Z-2.533
X-53.935 Y-35.018 Z-2.562
X-53.942 Y-34.975 Z-2.59
X-53.964 Y-34.936 Z-2.619
X-53.998 Y-34.908 Z-2.647
X-54.04 Y-34.894 Z-2.675
X-54.085 Y-34.895 Z-2.704
X-54.126 Y-34.911 Z-2.732
X-54.159 Y-34.941 Z-2.76
X-54.179 Y-34.981 Z-2.789
X-54.184 Y-35.025 Z-2.817
X-54.174 Y-35.068 Z-2.846
X-54.149 Y-35.105 Z-2.874
X-54.113 Y-35.13 Z-2.902
X-54.07 Y-35.142 Z-2.931
X-54.026 Y-35.138 Z-2.959
X-53.986 Y-35.118 Z-2.988
X-53.955 Y-35.086 Z-3.016
X-53.938 Y-35.045 Z-3.044
X-53.936 Y-35.001 Z-3.073
X-53.949 Y-34.959 Z-3.101
X-53.976 Y-34.924 Z-3.13
X-54.014 Y-34.901 Z-3.158
X-54.058 Y-34.892 Z-3.186
X-54.102 Y-34.9 Z-3.215
X-54.14 Y-34.922 Z-3.243
X-54.168 Y-34.956 Z-3.272
X-54.183 Y-34.998 Z-3.3
G3 X-53.936 Y-35.037 I0.123 J-0.02
X-54.183 Y-34.998 I-0.123 J0.02
G1 X-54.182 Y-35.022 F1016
X-54.172 Y-35.044
X-54.154 Y-35.061
X-54.131 Y-35.069
X-54.035 Y-35.084
G0 Z5
X-56.071 Y-47.647
Z-0.195
G1 Z-1 F1016
X-56.14 Y-47.578
X-56.16 Y-47.565
X-56.184 Y-47.56
X-56.208 Y-47.565
X-56.228 Y-47.578
G3 X-56.051 Y-47.755 Z-1.25 I0.088 J-0.088 F2540
X-56.228 Y-47.578 Z-1.5 I-0.088 J0.088
X-56.051 Y-47.755 Z-1.75 I0.088 J-0.088
