(1001)
(Bearbeiten)
(  Hersteller: ChinaCnc)
(  model: 3040T)
(  description: Generic 3-axis)
(T14  D=1.95 CR=0 - ZMIN=-3.2 - Schaftfraser)
G90 G94
G17
G21
G28 G91 Z0
G90

(Bohrfrasen5)
T14
S6000 M3
G54
G0 X-39.944 Y-7.833
Z15
Z2
G1 Z0.195 F1016
X-39.949 Y-7.828 Z0.145
X-39.962 Y-7.814 Z0.097
X-39.984 Y-7.792 Z0.057
X-40.013 Y-7.764 Z0.026
X-40.046 Y-7.73 Z0.007
X-40.082 Y-7.695 Z0
X-40.151 Y-7.626
G3 X-40.426 Y-7.626 I-0.138 J-0.138
X-38.977 Y-9.075 Z-0.5 I0.725 J-0.725 F2540
X-40.426 Y-7.626 Z-1 I-0.725 J0.725
X-38.977 Y-9.075 I0.725 J-0.725
X-40.426 Y-7.626 I-0.725 J0.725
X-40.426 Y-7.902 I0.138 J-0.138 F1016
G1 X-40.357 Y-7.971
X-40.322 Y-8.006 Z-0.993
X-40.289 Y-8.039 Z-0.974
X-40.26 Y-8.068 Z-0.943
X-40.238 Y-8.09 Z-0.903
X-40.224 Y-8.104 Z-0.855
X-40.22 Y-8.108 Z-0.805
G0 Z5
X-64.255 Y-21.518
Z2
G1 Z0.195 F1016
X-64.251 Y-21.523 Z0.145
X-64.237 Y-21.536 Z0.097
X-64.215 Y-21.558 Z0.057
X-64.186 Y-21.587 Z0.026
X-64.153 Y-21.62 Z0.007
X-64.117 Y-21.656 Z0
X-64.048 Y-21.725
G3 X-63.773 Y-21.725 I0.138 J0.138
X-65.222 Y-20.275 Z-0.5 I-0.725 J0.725 F2540
X-63.773 Y-21.725 Z-1 I0.725 J-0.725
X-65.222 Y-20.275 I-0.725 J0.725
X-63.773 Y-21.725 I0.725 J-0.725
X-63.773 Y-21.449 I-0.138 J0.138 F1016
G1 X-63.842 Y-21.38
X-63.877 Y-21.344 Z-0.993
X-63.911 Y-21.311 Z-0.974
X-63.939 Y-21.283 Z-0.943
X-63.961 Y-21.261 Z-0.903
X-63.975 Y-21.247 Z-0.855
X-63.98 Y-21.242 Z-0.805
G0 Z5
X-39.944 Y-34.499
Z2
G1 Z0.195 F1016
X-39.949 Y-34.495 Z0.145
X-39.962 Y-34.481 Z0.097
X-39.984 Y-34.459 Z0.057
X-40.013 Y-34.43 Z0.026
X-40.046 Y-34.397 Z0.007
X-40.082 Y-34.361 Z0
X-40.151 Y-34.292
G3 X-40.426 Y-34.292 I-0.138 J-0.138
X-38.977 Y-35.742 Z-0.5 I0.725 J-0.725 F2540
X-40.426 Y-34.292 Z-1 I-0.725 J0.725
X-38.977 Y-35.742 I0.725 J-0.725
X-40.426 Y-34.292 I-0.725 J0.725
X-40.426 Y-34.568 I0.138 J-0.138 F1016
G1 X-40.357 Y-34.637
X-40.322 Y-34.673 Z-0.993
X-40.289 Y-34.706 Z-0.974
X-40.26 Y-34.735 Z-0.943
X-40.238 Y-34.757 Z-0.903
X-40.224 Y-34.77 Z-0.855
X-40.22 Y-34.775 Z-0.805
G0 Z5
X-64.255 Y-48.185
Z2
G1 Z0.195 F1016
X-64.251 Y-48.189 Z0.145
X-64.237 Y-48.203 Z0.097
X-64.215 Y-48.225 Z0.057
X-64.186 Y-48.254 Z0.026
X-64.153 Y-48.287 Z0.007
X-64.117 Y-48.323 Z0
X-64.048 Y-48.391
G3 X-63.773 Y-48.391 I0.138 J0.138
X-65.222 Y-46.942 Z-0.5 I-0.725 J0.725 F2540
X-63.773 Y-48.391 Z-1 I0.725 J-0.725
X-65.222 Y-46.942 I-0.725 J0.725
X-63.773 Y-48.391 I0.725 J-0.725
X-63.773 Y-48.116 I-0.138 J0.138 F1016
G1 X-63.842 Y-48.047
X-63.877 Y-48.011 Z-0.993
X-63.911 Y-47.978 Z-0.974
X-63.939 Y-47.949 Z-0.943
X-63.961 Y-47.927 Z-0.903
X-63.975 Y-47.914 Z-0.855
X-63.98 Y-47.909 Z-0.805
G0 Z5
X-39.944 Y-61.166
Z2
G1 Z0.195 F1016
X-39.949 Y-61.161 Z0.145
X-39.962 Y-61.147 Z0.097
X-39.984 Y-61.126 Z0.057
X-40.013 Y-61.097 Z0.026
X-40.046 Y-61.064 Z0.007
X-40.082 Y-61.028 Z0
X-40.151 Y-60.959
G3 X-40.426 Y-60.959 I-0.138 J-0.138
X-38.977 Y-62.409 Z-0.5 I0.725 J-0.725 F2540
X-40.426 Y-60.959 Z-1 I-0.725 J0.725
X-38.977 Y-62.409 I0.725 J-0.725
X-40.426 Y-60.959 I-0.725 J0.725
X-40.426 Y-61.235 I0.138 J-0.138 F1016
G1 X-40.357 Y-61.304
X-40.322 Y-61.34 Z-0.993
X-40.289 Y-61.373 Z-0.974
X-40.26 Y-61.401 Z-0.943
X-40.238 Y-61.423 Z-0.903
X-40.224 Y-61.437 Z-0.855
X-40.22 Y-61.442 Z-0.805
G0 Z5
X-64.255 Y-74.851
Z2
G1 Z0.195 F1016
X-64.251 Y-74.856 Z0.145
X-64.237 Y-74.87 Z0.097
X-64.215 Y-74.892 Z0.057
X-64.186 Y-74.92 Z0.026
X-64.153 Y-74.953 Z0.007
X-64.117 Y-74.989 Z0
X-64.048 Y-75.058
G3 X-63.773 Y-75.058 I0.138 J0.138
X-65.222 Y-73.609 Z-0.5 I-0.725 J0.725 F2540
X-63.773 Y-75.058 Z-1 I0.725 J-0.725
X-65.222 Y-73.609 I-0.725 J0.725
X-63.773 Y-75.058 I0.725 J-0.725
X-63.773 Y-74.782 I-0.138 J0.138 F1016
G1 X-63.842 Y-74.713
X-63.877 Y-74.678 Z-0.993
X-63.911 Y-74.644 Z-0.974
X-63.939 Y-74.616 Z-0.943
X-63.961 Y-74.594 Z-0.903
X-63.975 Y-74.58 Z-0.855
X-63.98 Y-74.576 Z-0.805
G0 Z5
X-39.944 Y-87.833
Z2
G1 Z0.195 F1016
X-39.949 Y-87.828 Z0.145
X-39.962 Y-87.814 Z0.097
X-39.984 Y-87.792 Z0.057
X-40.013 Y-87.764 Z0.026
X-40.046 Y-87.73 Z0.007
X-40.082 Y-87.695 Z0
X-40.151 Y-87.626
G3 X-40.426 Y-87.626 I-0.138 J-0.138
X-38.977 Y-89.075 Z-0.5 I0.725 J-0.725 F2540
X-40.426 Y-87.626 Z-1 I-0.725 J0.725
X-38.977 Y-89.075 I0.725 J-0.725
X-40.426 Y-87.626 I-0.725 J0.725
X-40.426 Y-87.902 I0.138 J-0.138 F1016
G1 X-40.357 Y-87.971
X-40.322 Y-88.006 Z-0.993
X-40.289 Y-88.039 Z-0.974
X-40.26 Y-88.068 Z-0.943
X-40.238 Y-88.09 Z-0.903
X-40.224 Y-88.104 Z-0.855
X-40.22 Y-88.108 Z-0.805
G0 Z5
X-64.255 Y-101.518
Z2
G1 Z0.195 F1016
X-64.251 Y-101.523 Z0.145
X-64.237 Y-101.536 Z0.097
X-64.215 Y-101.558 Z0.057
X-64.186 Y-101.587 Z0.026
X-64.153 Y-101.62 Z0.007
X-64.117 Y-101.656 Z0
X-64.048 Y-101.725
G3 X-63.773 Y-101.725 I0.138 J0.138
X-65.222 Y-100.275 Z-0.5 I-0.725 J0.725 F2540
X-63.773 Y-101.725 Z-1 I0.725 J-0.725
X-65.222 Y-100.275 I-0.725 J0.725
X-63.773 Y-101.725 I0.725 J-0.725
X-63.773 Y-101.449 I-0.138 J0.138 F1016
G1 X-63.842 Y-101.38
X-63.877 Y-101.344 Z-0.993
X-63.911 Y-101.311 Z-0.974
X-63.939 Y-101.283 Z-0.943
X-63.961 Y-101.261 Z-0.903
X-63.975 Y-101.247 Z-0.855
X-63.98 Y-101.242 Z-0.805
G0 Z15

(Bohrfrasen6)
S8000 M3
X-39.702 Y-8.351
Z15
Z0.805
G1 Z-1 F1016
Y-8.386
X-39.684 Y-8.393
X-39.666 Y-8.386
X-39.653 Y-8.363 Z-1.086 F2540
X-39.654 Y-8.336 Z-1.173
X-39.668 Y-8.313 Z-1.259
X-39.692 Y-8.301 Z-1.345
X-39.719 Y-8.304 Z-1.431
X-39.741 Y-8.319 Z-1.518
X-39.751 Y-8.344 Z-1.604
X-39.747 Y-8.37 Z-1.69
X-39.731 Y-8.391 Z-1.776
X-39.705 Y-8.4 Z-1.863
X-39.679 Y-8.395 Z-1.949
X-39.659 Y-8.377 Z-2.035
X-39.652 Y-8.352 Z-2.122
X-39.658 Y-8.326 Z-2.208
X-39.677 Y-8.307 Z-2.294
X-39.703 Y-8.301 Z-2.38
X-39.729 Y-8.309 Z-2.467
X-39.746 Y-8.327 Z-2.548
X-39.752 Y-8.352 Z-2.63
X-39.744 Y-8.376 Z-2.711
X-39.726 Y-8.394 Z-2.793
X-39.702 Y-8.401 Z-2.874
X-39.677 Y-8.394 Z-2.956
X-39.659 Y-8.377 Z-3.037
X-39.652 Y-8.353 Z-3.119
X-39.657 Y-8.328 Z-3.2
G3 X-39.746 Y-8.373 I-0.045 J-0.023
X-39.657 Y-8.328 I0.045 J0.023
G1 X-39.672 Y-8.315 F1016
X-39.691 Y-8.317
X-39.702 Y-8.351
G0 Z5
X-51.153 Y-8.533
Z2
G1 Z0.195 F1016
X-51.148 Y-8.537 Z0.145
X-51.135 Y-8.551 Z0.098
X-51.113 Y-8.573 Z0.057
X-51.084 Y-8.602 Z0.026
X-51.051 Y-8.635 Z0.007
X-51.015 Y-8.671 Z0
X-50.946 Y-8.739
G3 X-50.671 Y-8.739 I0.138 J0.138
X-51.448 Y-7.962 Z-0.5 I-0.389 J0.389 F2540
X-50.671 Y-8.739 Z-1 I0.389 J-0.389
X-51.448 Y-7.962 Z-1.5 I-0.389 J0.389
X-50.671 Y-8.739 Z-2 I0.389 J-0.389
X-51.448 Y-7.962 Z-2.5 I-0.389 J0.389
X-50.671 Y-8.739 Z-3 I0.389 J-0.389
X-50.569 Y-8.101 Z-3.2 I-0.389 J0.389
X-51.55 Y-8.6 I-0.49 J-0.25
X-50.569 Y-8.101 I0.49 J0.25
X-50.832 Y-8.016 I-0.174 J-0.089 F1016
G1 X-50.919 Y-8.06
X-50.964 Y-8.083 Z-3.193
X-51.005 Y-8.104 Z-3.174
X-51.041 Y-8.123 Z-3.143
X-51.069 Y-8.137 Z-3.102
X-51.086 Y-8.145 Z-3.055
X-51.092 Y-8.148 Z-3.005
G0 Z5
X-53.046 Y-20.818
Z2
G1 Z0.195 F1016
X-53.051 Y-20.813 Z0.145
X-53.064 Y-20.799 Z0.097
X-53.086 Y-20.778 Z0.057
X-53.115 Y-20.749 Z0.026
X-53.148 Y-20.716 Z0.007
X-53.184 Y-20.68 Z0
X-53.253 Y-20.611
G3 X-53.529 Y-20.611 I-0.138 J-0.138
X-52.751 Y-21.389 Z-0.5 I0.389 J-0.389 F2540
X-53.529 Y-20.611 Z-1 I-0.389 J0.389
X-52.751 Y-21.389 Z-1.5 I0.389 J-0.389
X-53.529 Y-20.611 Z-2 I-0.389 J0.389
X-52.751 Y-21.389 Z-2.5 I0.389 J-0.389
X-53.529 Y-20.611 Z-3 I-0.389 J0.389
X-53.63 Y-21.25 Z-3.2 I0.389 J-0.389
X-52.65 Y-20.75 I0.49 J0.25
X-53.63 Y-21.25 I-0.49 J-0.25
X-53.367 Y-21.335 I0.174 J0.089 F1016
G1 X-53.281 Y-21.291
X-53.236 Y-21.268 Z-3.193
X-53.194 Y-21.246 Z-3.174
X-53.158 Y-21.228 Z-3.143
X-53.13 Y-21.214 Z-3.103
X-53.113 Y-21.205 Z-3.055
X-53.107 Y-21.202 Z-3.005
G0 Z5
X-64.497 Y-21
Z0.805
G1 Z-1 F1016
Y-20.965
X-64.515 Y-20.957
X-64.533 Y-20.965
X-64.546 Y-20.988 Z-1.086 F2540
X-64.545 Y-21.015 Z-1.173
X-64.531 Y-21.037 Z-1.259
X-64.507 Y-21.049 Z-1.345
X-64.48 Y-21.047 Z-1.431
X-64.458 Y-21.031 Z-1.518
X-64.448 Y-21.007 Z-1.604
X-64.452 Y-20.98 Z-1.69
X-64.468 Y-20.959 Z-1.776
X-64.494 Y-20.95 Z-1.863
X-64.52 Y-20.955 Z-1.949
X-64.54 Y-20.973 Z-2.035
X-64.547 Y-20.999 Z-2.122
X-64.541 Y-21.025 Z-2.208
X-64.522 Y-21.044 Z-2.294
X-64.496 Y-21.05 Z-2.38
X-64.47 Y-21.042 Z-2.467
X-64.453 Y-21.023 Z-2.548
X-64.447 Y-20.999 Z-2.63
X-64.455 Y-20.974 Z-2.711
X-64.473 Y-20.957 Z-2.793
X-64.497 Y-20.95 Z-2.874
X-64.522 Y-20.956 Z-2.956
X-64.54 Y-20.974 Z-3.037
X-64.547 Y-20.998 Z-3.119
X-64.542 Y-21.023 Z-3.2
G3 X-64.453 Y-20.977 I0.045 J0.023
X-64.542 Y-21.023 I-0.045 J-0.023
G1 X-64.527 Y-21.035 F1016
X-64.508 Y-21.034
X-64.497 Y-21
G0 Z5
X-39.702 Y-35.017
Z0.805
G1 Z-1 F1016
Y-35.053
X-39.684 Y-35.06
X-39.666 Y-35.053
X-39.653 Y-35.031 Z-1.081 F2540
Y-35.005 Z-1.163
X-39.665 Y-34.983 Z-1.244
X-39.686 Y-34.97 Z-1.326
X-39.712 Y-34.968 Z-1.407
X-39.734 Y-34.98 Z-1.489
X-39.749 Y-35 Z-1.57
X-39.751 Y-35.026 Z-1.652
X-39.74 Y-35.049 Z-1.733
X-39.719 Y-35.064 Z-1.82
X-39.692 Y-35.066 Z-1.906
X-39.668 Y-35.054 Z-1.992
X-39.654 Y-35.032 Z-2.078
X-39.653 Y-35.005 Z-2.165
X-39.666 Y-34.982 Z-2.251
X-39.69 Y-34.969 Z-2.337
X-39.717 Y-34.97 Z-2.424
X-39.739 Y-34.984 Z-2.51
X-39.751 Y-35.008 Z-2.596
X-39.748 Y-35.035 Z-2.682
X-39.733 Y-35.056 Z-2.769
X-39.708 Y-35.067 Z-2.855
X-39.681 Y-35.063 Z-2.941
X-39.661 Y-35.046 Z-3.027
X-39.652 Y-35.021 Z-3.114
X-39.657 Y-34.995 Z-3.2
G3 X-39.746 Y-35.04 I-0.045 J-0.023
X-39.657 Y-34.995 I0.045 J0.023
G1 X-39.672 Y-34.982 F1016
X-39.691 Y-34.984
X-39.702 Y-35.017
G0 Z5
X-51.153 Y-35.199
Z2
G1 Z0.195 F1016
X-51.148 Y-35.204 Z0.145
X-51.135 Y-35.218 Z0.097
X-51.113 Y-35.24 Z0.057
X-51.084 Y-35.268 Z0.026
X-51.051 Y-35.302 Z0.007
X-51.015 Y-35.337 Z0
X-50.946 Y-35.406
G3 X-50.671 Y-35.406 I0.138 J0.138
X-51.448 Y-34.628 Z-0.5 I-0.389 J0.389 F2540
X-50.671 Y-35.406 Z-1 I0.389 J-0.389
X-51.448 Y-34.628 Z-1.5 I-0.389 J0.389
X-50.671 Y-35.406 Z-2 I0.389 J-0.389
X-51.448 Y-34.628 Z-2.5 I-0.389 J0.389
X-50.671 Y-35.406 Z-3 I0.389 J-0.389
X-50.569 Y-34.768 Z-3.2 I-0.389 J0.389
X-51.55 Y-35.267 I-0.49 J-0.25
X-50.569 Y-34.768 I0.49 J0.25
X-50.832 Y-34.682 I-0.174 J-0.089 F1016
G1 X-50.919 Y-34.727
X-50.964 Y-34.75 Z-3.193
X-51.005 Y-34.771 Z-3.174
X-51.041 Y-34.789 Z-3.143
X-51.069 Y-34.803 Z-3.102
X-51.086 Y-34.812 Z-3.055
X-51.092 Y-34.815 Z-3.005
G0 Z5
X-53.046 Y-47.485
Z2
G1 Z0.195 F1016
X-53.051 Y-47.48 Z0.145
X-53.064 Y-47.466 Z0.098
X-53.086 Y-47.444 Z0.057
X-53.115 Y-47.416 Z0.026
X-53.148 Y-47.382 Z0.007
X-53.184 Y-47.347 Z0
X-53.253 Y-47.278
G3 X-53.529 Y-47.278 I-0.138 J-0.138
X-52.751 Y-48.056 Z-0.5 I0.389 J-0.389 F2540
X-53.529 Y-47.278 Z-1 I-0.389 J0.389
X-52.751 Y-48.056 Z-1.5 I0.389 J-0.389
X-53.529 Y-47.278 Z-2 I-0.389 J0.389
X-52.751 Y-48.056 Z-2.5 I0.389 J-0.389
X-53.529 Y-47.278 Z-3 I-0.389 J0.389
X-53.63 Y-47.916 Z-3.2 I0.389 J-0.389
X-52.65 Y-47.417 I0.49 J0.25
X-53.63 Y-47.916 I-0.49 J-0.25
X-53.367 Y-48.002 I0.174 J0.089 F1016
G1 X-53.281 Y-47.957
X-53.236 Y-47.934 Z-3.193
X-53.194 Y-47.913 Z-3.174
X-53.158 Y-47.895 Z-3.143
X-53.13 Y-47.881 Z-3.103
X-53.113 Y-47.872 Z-3.055
X-53.107 Y-47.869 Z-3.005
G0 Z5
X-64.497 Y-47.667
Z0.805
G1 Z-1 F1016
Y-47.631
X-64.515 Y-47.624
X-64.533 Y-47.631
X-64.546 Y-47.653 Z-1.081 F2540
Y-47.678 Z-1.163
X-64.534 Y-47.701 Z-1.244
X-64.513 Y-47.714 Z-1.326
X-64.487 Y-47.716 Z-1.407
X-64.465 Y-47.704 Z-1.489
X-64.45 Y-47.683 Z-1.57
X-64.448 Y-47.658 Z-1.652
X-64.459 Y-47.635 Z-1.733
X-64.48 Y-47.62 Z-1.82
X-64.507 Y-47.618 Z-1.906
X-64.531 Y-47.63 Z-1.992
X-64.545 Y-47.652 Z-2.078
X-64.546 Y-47.679 Z-2.165
X-64.533 Y-47.702 Z-2.251
X-64.509 Y-47.715 Z-2.337
X-64.482 Y-47.714 Z-2.424
X-64.46 Y-47.7 Z-2.51
X-64.448 Y-47.676 Z-2.596
X-64.451 Y-47.649 Z-2.682
X-64.466 Y-47.627 Z-2.769
X-64.491 Y-47.617 Z-2.855
X-64.518 Y-47.621 Z-2.941
X-64.538 Y-47.638 Z-3.027
X-64.547 Y-47.663 Z-3.114
X-64.542 Y-47.689 Z-3.2
G3 X-64.453 Y-47.644 I0.045 J0.023
X-64.542 Y-47.689 I-0.045 J-0.023
G1 X-64.527 Y-47.702 F1016
X-64.508 Y-47.7
X-64.497 Y-47.667
G0 Z5
X-39.702 Y-61.684
Z0.805
G1 Z-1 F1016
Y-61.719
X-39.684 Y-61.727
X-39.666 Y-61.719
X-39.653 Y-61.697 Z-1.081 F2540
Y-61.672 Z-1.163
X-39.665 Y-61.65 Z-1.244
X-39.686 Y-61.636 Z-1.326
X-39.712 Y-61.635 Z-1.407
X-39.734 Y-61.646 Z-1.489
X-39.749 Y-61.667 Z-1.57
X-39.751 Y-61.692 Z-1.652
X-39.74 Y-61.715 Z-1.733
X-39.72 Y-61.73 Z-1.815
X-39.695 Y-61.733 Z-1.896
X-39.672 Y-61.724 Z-1.978
X-39.656 Y-61.704 Z-2.059
X-39.652 Y-61.679 Z-2.141
X-39.661 Y-61.655 Z-2.222
X-39.68 Y-61.639 Z-2.304
X-39.705 Y-61.634 Z-2.385
X-39.729 Y-61.642 Z-2.467
X-39.746 Y-61.661 Z-2.548
X-39.752 Y-61.685 Z-2.63
X-39.744 Y-61.71 Z-2.711
X-39.726 Y-61.727 Z-2.793
X-39.702 Y-61.734 Z-2.874
X-39.677 Y-61.728 Z-2.956
X-39.659 Y-61.71 Z-3.037
X-39.652 Y-61.686 Z-3.119
X-39.657 Y-61.661 Z-3.2
G3 X-39.746 Y-61.707 I-0.045 J-0.023
X-39.657 Y-61.661 I0.045 J0.023
G1 X-39.672 Y-61.649 F1016
X-39.691 Y-61.65
X-39.702 Y-61.684
G0 Z5
X-51.153 Y-61.866
Z2
G1 Z0.195 F1016
X-51.148 Y-61.871 Z0.145
X-51.135 Y-61.884 Z0.097
X-51.113 Y-61.906 Z0.057
X-51.084 Y-61.935 Z0.026
X-51.051 Y-61.968 Z0.007
X-51.015 Y-62.004 Z0
X-50.946 Y-62.073
G3 X-50.671 Y-62.073 I0.138 J0.138
X-51.448 Y-61.295 Z-0.5 I-0.389 J0.389 F2540
X-50.671 Y-62.073 Z-1 I0.389 J-0.389
X-51.448 Y-61.295 Z-1.5 I-0.389 J0.389
X-50.671 Y-62.073 Z-2 I0.389 J-0.389
X-51.448 Y-61.295 Z-2.5 I-0.389 J0.389
X-50.671 Y-62.073 Z-3 I0.389 J-0.389
X-50.569 Y-61.434 Z-3.2 I-0.389 J0.389
X-51.55 Y-61.934 I-0.49 J-0.25
X-50.569 Y-61.434 I0.49 J0.25
X-50.832 Y-61.349 I-0.174 J-0.089 F1016
G1 X-50.919 Y-61.393
X-50.964 Y-61.416 Z-3.193
X-51.005 Y-61.438 Z-3.174
X-51.041 Y-61.456 Z-3.143
X-51.069 Y-61.47 Z-3.102
X-51.086 Y-61.479 Z-3.055
X-51.092 Y-61.482 Z-3.005
G0 Z5
X-53.046 Y-74.151
Z2
G1 Z0.195 F1016
X-53.051 Y-74.147 Z0.145
X-53.064 Y-74.133 Z0.097
X-53.086 Y-74.111 Z0.057
X-53.115 Y-74.082 Z0.026
X-53.148 Y-74.049 Z0.007
X-53.184 Y-74.013 Z0
X-53.253 Y-73.944
G3 X-53.529 Y-73.944 I-0.138 J-0.138
X-52.751 Y-74.722 Z-0.5 I0.389 J-0.389 F2540
X-53.529 Y-73.944 Z-1 I-0.389 J0.389
X-52.751 Y-74.722 Z-1.5 I0.389 J-0.389
X-53.529 Y-73.944 Z-2 I-0.389 J0.389
X-52.751 Y-74.722 Z-2.5 I0.389 J-0.389
X-53.529 Y-73.944 Z-3 I-0.389 J0.389
X-53.63 Y-74.583 Z-3.2 I0.389 J-0.389
X-52.65 Y-74.084 I0.49 J0.25
X-53.63 Y-74.583 I-0.49 J-0.25
X-53.367 Y-74.668 I0.174 J0.089 F1016
G1 X-53.281 Y-74.624
X-53.236 Y-74.601 Z-3.193
X-53.194 Y-74.58 Z-3.174
X-53.158 Y-74.561 Z-3.143
X-53.13 Y-74.547 Z-3.103
X-53.113 Y-74.538 Z-3.055
X-53.107 Y-74.535 Z-3.005
G0 Z5
X-64.497 Y-74.333
Z0.805
G1 Z-1 F1016
Y-74.298
X-64.515 Y-74.291
X-64.533 Y-74.298
X-64.546 Y-74.32 Z-1.081 F2540
Y-74.345 Z-1.163
X-64.534 Y-74.367 Z-1.244
X-64.513 Y-74.381 Z-1.326
X-64.487 Y-74.382 Z-1.407
X-64.465 Y-74.371 Z-1.489
X-64.45 Y-74.35 Z-1.57
X-64.448 Y-74.325 Z-1.652
X-64.459 Y-74.302 Z-1.733
X-64.479 Y-74.287 Z-1.815
X-64.504 Y-74.284 Z-1.896
X-64.528 Y-74.293 Z-1.978
X-64.543 Y-74.313 Z-2.059
X-64.547 Y-74.338 Z-2.141
X-64.538 Y-74.362 Z-2.222
X-64.519 Y-74.378 Z-2.304
X-64.494 Y-74.383 Z-2.385
X-64.47 Y-74.375 Z-2.467
X-64.453 Y-74.357 Z-2.548
X-64.447 Y-74.332 Z-2.63
X-64.455 Y-74.308 Z-2.711
X-64.473 Y-74.29 Z-2.793
X-64.497 Y-74.283 Z-2.874
X-64.522 Y-74.29 Z-2.956
X-64.54 Y-74.307 Z-3.037
X-64.547 Y-74.331 Z-3.119
X-64.542 Y-74.356 Z-3.2
G3 X-64.453 Y-74.311 I0.045 J0.023
X-64.542 Y-74.356 I-0.045 J-0.023
G1 X-64.527 Y-74.368 F1016
X-64.508 Y-74.367
X-64.497 Y-74.333
G0 Z5
X-39.702 Y-88.351
Z0.805
G1 Z-1 F1016
Y-88.386
X-39.684 Y-88.393
X-39.666 Y-88.386
X-39.653 Y-88.364 Z-1.081 F2540
Y-88.339 Z-1.163
X-39.665 Y-88.316 Z-1.244
X-39.686 Y-88.303 Z-1.326
X-39.712 Y-88.302 Z-1.407
X-39.734 Y-88.313 Z-1.489
X-39.749 Y-88.334 Z-1.57
X-39.751 Y-88.359 Z-1.652
X-39.74 Y-88.382 Z-1.733
X-39.72 Y-88.397 Z-1.815
X-39.695 Y-88.4 Z-1.896
X-39.672 Y-88.391 Z-1.978
X-39.656 Y-88.371 Z-2.059
X-39.652 Y-88.346 Z-2.141
X-39.661 Y-88.322 Z-2.222
X-39.68 Y-88.306 Z-2.304
X-39.705 Y-88.301 Z-2.385
X-39.729 Y-88.309 Z-2.467
X-39.746 Y-88.327 Z-2.548
X-39.752 Y-88.352 Z-2.63
X-39.744 Y-88.376 Z-2.711
X-39.726 Y-88.394 Z-2.793
X-39.702 Y-88.401 Z-2.874
X-39.677 Y-88.394 Z-2.956
X-39.659 Y-88.377 Z-3.037
X-39.652 Y-88.353 Z-3.119
X-39.657 Y-88.328 Z-3.2
G3 X-39.746 Y-88.373 I-0.045 J-0.023
X-39.657 Y-88.328 I0.045 J0.023
G1 X-39.672 Y-88.315 F1016
X-39.691 Y-88.317
X-39.702 Y-88.351
G0 Z5
X-51.153 Y-88.533
Z2
G1 Z0.195 F1016
X-51.148 Y-88.537 Z0.145
X-51.135 Y-88.551 Z0.097
X-51.113 Y-88.573 Z0.057
X-51.084 Y-88.602 Z0.026
X-51.051 Y-88.635 Z0.007
X-51.015 Y-88.671 Z0
X-50.946 Y-88.739
G3 X-50.671 Y-88.739 I0.138 J0.138
X-51.448 Y-87.962 Z-0.5 I-0.389 J0.389 F2540
X-50.671 Y-88.739 Z-1 I0.389 J-0.389
X-51.448 Y-87.962 Z-1.5 I-0.389 J0.389
X-50.671 Y-88.739 Z-2 I0.389 J-0.389
X-51.448 Y-87.962 Z-2.5 I-0.389 J0.389
X-50.671 Y-88.739 Z-3 I0.389 J-0.389
X-50.569 Y-88.101 Z-3.2 I-0.389 J0.389
X-51.55 Y-88.6 I-0.49 J-0.25
X-50.569 Y-88.101 I0.49 J0.25
X-50.832 Y-88.016 I-0.174 J-0.089 F1016
G1 X-50.919 Y-88.06
X-50.964 Y-88.083 Z-3.193
X-51.005 Y-88.104 Z-3.174
X-51.041 Y-88.123 Z-3.143
X-51.069 Y-88.137 Z-3.102
X-51.086 Y-88.145 Z-3.055
X-51.092 Y-88.148 Z-3.005
G0 Z5
X-53.046 Y-100.818
Z2
G1 Z0.195 F1016
X-53.051 Y-100.813 Z0.145
X-53.064 Y-100.799 Z0.097
X-53.086 Y-100.778 Z0.057
X-53.115 Y-100.749 Z0.026
X-53.148 Y-100.716 Z0.007
X-53.184 Y-100.68 Z0
X-53.253 Y-100.611
G3 X-53.529 Y-100.611 I-0.138 J-0.138
X-52.751 Y-101.389 Z-0.5 I0.389 J-0.389 F2540
X-53.529 Y-100.611 Z-1 I-0.389 J0.389
X-52.751 Y-101.389 Z-1.5 I0.389 J-0.389
X-53.529 Y-100.611 Z-2 I-0.389 J0.389
X-52.751 Y-101.389 Z-2.5 I0.389 J-0.389
X-53.529 Y-100.611 Z-3 I-0.389 J0.389
X-53.63 Y-101.25 Z-3.2 I0.389 J-0.389
X-52.65 Y-100.75 I0.49 J0.25
X-53.63 Y-101.25 I-0.49 J-0.25
X-53.367 Y-101.335 I0.174 J0.089 F1016
G1 X-53.281 Y-101.291
X-53.236 Y-101.268 Z-3.193
X-53.194 Y-101.246 Z-3.174
X-53.158 Y-101.228 Z-3.143
X-53.13 Y-101.214 Z-3.103
X-53.113 Y-101.205 Z-3.055
X-53.107 Y-101.202 Z-3.005
G0 Z5
X-64.497 Y-101
Z0.805
G1 Z-1 F1016
Y-100.965
X-64.515 Y-100.957
X-64.533 Y-100.965
X-64.546 Y-100.988 Z-1.088 F2540
X-64.545 Y-101.016 Z-1.176
X-64.53 Y-101.038 Z-1.264
X-64.505 Y-101.049 Z-1.352
X-64.478 Y-101.046 Z-1.44
X-64.456 Y-101.029 Z-1.528
X-64.448 Y-101.003 Z-1.616
X-64.454 Y-100.976 Z-1.704
X-64.473 Y-100.957 Z-1.792
X-64.499 Y-100.95 Z-1.88
X-64.525 Y-100.958 Z-1.968
X-64.543 Y-100.979 Z-2.056
X-64.547 Y-101.006 Z-2.144
X-64.537 Y-101.031 Z-2.232
X-64.514 Y-101.047 Z-2.32
X-64.487 Y-101.049 Z-2.408
X-64.463 Y-101.036 Z-2.496
X-64.449 Y-101.013 Z-2.584
X-64.45 Y-100.985 Z-2.672
X-64.464 Y-100.962 Z-2.76
X-64.489 Y-100.951 Z-2.848
X-64.516 Y-100.954 Z-2.936
X-64.538 Y-100.97 Z-3.024
X-64.547 Y-100.996 Z-3.112
X-64.542 Y-101.023 Z-3.2
G3 X-64.453 Y-100.977 I0.045 J0.023
X-64.542 Y-101.023 I-0.045 J-0.023
G1 X-64.527 Y-101.035 F1016
X-64.508 Y-101.034
X-64.497 Y-101
G0 Z15

(Bohrfrasen7)
S6000 M3
X-18.182 Y-17.818
Z15
Z1.805
G1 Z0 F1016
Y-17.783
X-18.2 Y-17.775
X-18.217 Y-17.783
X-18.231 Y-17.807 Z-0.089 F2540
X-18.229 Y-17.834 Z-0.178
X-18.213 Y-17.857 Z-0.267
X-18.188 Y-17.868 Z-0.356
X-18.161 Y-17.863 Z-0.444
X-18.14 Y-17.845 Z-0.533
X-18.132 Y-17.819 Z-0.622
X-18.139 Y-17.792 Z-0.711
X-18.159 Y-17.773 Z-0.8
X-18.186 Y-17.768 Z-0.889
X-18.212 Y-17.778 Z-0.978
X-18.229 Y-17.8 Z-1.067
X-18.231 Y-17.828 Z-1.156
X-18.219 Y-17.852 Z-1.244
X-18.195 Y-17.866 Z-1.333
X-18.167 Z-1.422
X-18.144 Y-17.851 Z-1.511
X-18.133 Y-17.826 Z-1.6
X-18.136 Y-17.798 Z-1.689
X-18.153 Y-17.777 Z-1.778
X-18.179 Y-17.768 Z-1.867
X-18.206 Y-17.774 Z-1.956
X-18.226 Y-17.794 Z-2.044
X-18.232 Y-17.821 Z-2.133
X-18.223 Y-17.847 Z-2.222
X-18.202 Y-17.864 Z-2.311
X-18.174 Y-17.867 Z-2.4
X-18.149 Y-17.856 Z-2.489
X-18.134 Y-17.833 Z-2.578
Y-17.805 Z-2.667
X-18.148 Y-17.781 Z-2.756
X-18.172 Y-17.769 Z-2.844
X-18.2 Y-17.771 Z-2.933
X-18.222 Y-17.788 Z-3.022
X-18.232 Y-17.814 Z-3.111
X-18.227 Y-17.841 Z-3.2
G3 X-18.137 Y-17.795 I0.045 J0.023
X-18.227 Y-17.841 I-0.045 J-0.023
G1 X-18.212 Y-17.853 F1016
X-18.193 Y-17.852
X-18.182 Y-17.818
G0 Z5
X-11.818
Z1.805
G1 Z0 F1016
Y-17.783
X-11.836 Y-17.775
X-11.853 Y-17.783
X-11.867 Y-17.807 Z-0.089 F2540
X-11.865 Y-17.834 Z-0.178
X-11.849 Y-17.857 Z-0.267
X-11.824 Y-17.868 Z-0.356
X-11.797 Y-17.863 Z-0.444
X-11.776 Y-17.845 Z-0.533
X-11.768 Y-17.819 Z-0.622
X-11.775 Y-17.792 Z-0.711
X-11.795 Y-17.773 Z-0.8
X-11.822 Y-17.768 Z-0.889
X-11.848 Y-17.778 Z-0.978
X-11.865 Y-17.8 Z-1.067
X-11.867 Y-17.828 Z-1.156
X-11.855 Y-17.852 Z-1.244
X-11.831 Y-17.866 Z-1.333
X-11.803 Z-1.422
X-11.78 Y-17.851 Z-1.511
X-11.769 Y-17.826 Z-1.6
X-11.772 Y-17.798 Z-1.689
X-11.789 Y-17.777 Z-1.778
X-11.815 Y-17.768 Z-1.867
X-11.842 Y-17.774 Z-1.956
X-11.862 Y-17.794 Z-2.044
X-11.868 Y-17.821 Z-2.133
X-11.859 Y-17.847 Z-2.222
X-11.838 Y-17.864 Z-2.311
X-11.81 Y-17.867 Z-2.4
X-11.785 Y-17.856 Z-2.489
X-11.77 Y-17.833 Z-2.578
Y-17.805 Z-2.667
X-11.784 Y-17.781 Z-2.756
X-11.808 Y-17.769 Z-2.844
X-11.836 Y-17.771 Z-2.933
X-11.858 Y-17.788 Z-3.022
X-11.868 Y-17.814 Z-3.111
X-11.863 Y-17.841 Z-3.2
G3 X-11.773 Y-17.795 I0.045 J0.023
X-11.863 Y-17.841 I-0.045 J-0.023
G1 X-11.848 Y-17.853 F1016
X-11.829 Y-17.852
X-11.818 Y-17.818
G0 Z5
Y-24.182
Z1.805
G1 Z0 F1016
Y-24.147
X-11.836 Y-24.139
X-11.853 Y-24.147
X-11.867 Y-24.171 Z-0.089 F2540
X-11.865 Y-24.198 Z-0.178
X-11.849 Y-24.221 Z-0.267
X-11.824 Y-24.232 Z-0.356
X-11.797 Y-24.227 Z-0.444
X-11.776 Y-24.209 Z-0.533
X-11.768 Y-24.183 Z-0.622
X-11.775 Y-24.156 Z-0.711
X-11.795 Y-24.137 Z-0.8
X-11.822 Y-24.132 Z-0.889
X-11.848 Y-24.142 Z-0.978
X-11.865 Y-24.164 Z-1.067
X-11.867 Y-24.192 Z-1.156
X-11.855 Y-24.216 Z-1.244
X-11.831 Y-24.23 Z-1.333
X-11.803 Z-1.422
X-11.78 Y-24.215 Z-1.511
X-11.769 Y-24.19 Z-1.6
X-11.772 Y-24.162 Z-1.689
X-11.789 Y-24.141 Z-1.778
X-11.815 Y-24.132 Z-1.867
X-11.842 Y-24.138 Z-1.956
X-11.862 Y-24.158 Z-2.044
X-11.868 Y-24.185 Z-2.133
X-11.859 Y-24.211 Z-2.222
X-11.838 Y-24.228 Z-2.311
X-11.81 Y-24.231 Z-2.4
X-11.785 Y-24.22 Z-2.489
X-11.77 Y-24.197 Z-2.578
Y-24.169 Z-2.667
X-11.784 Y-24.145 Z-2.756
X-11.808 Y-24.133 Z-2.844
X-11.836 Y-24.135 Z-2.933
X-11.858 Y-24.152 Z-3.022
X-11.868 Y-24.178 Z-3.111
X-11.863 Y-24.205 Z-3.2
G3 X-11.773 Y-24.159 I0.045 J0.023
X-11.863 Y-24.205 I-0.045 J-0.023
G1 X-11.848 Y-24.217 F1016
X-11.829 Y-24.216
X-11.818 Y-24.182
G0 Z5
X-18.182
Z1.805
G1 Z0 F1016
Y-24.147
X-18.2 Y-24.139
X-18.217 Y-24.147
X-18.231 Y-24.171 Z-0.089 F2540
X-18.229 Y-24.198 Z-0.178
X-18.213 Y-24.221 Z-0.267
X-18.188 Y-24.232 Z-0.356
X-18.161 Y-24.227 Z-0.444
X-18.14 Y-24.209 Z-0.533
X-18.132 Y-24.183 Z-0.622
X-18.139 Y-24.156 Z-0.711
X-18.159 Y-24.137 Z-0.8
X-18.186 Y-24.132 Z-0.889
X-18.212 Y-24.142 Z-0.978
X-18.229 Y-24.164 Z-1.067
X-18.231 Y-24.192 Z-1.156
X-18.219 Y-24.216 Z-1.244
X-18.195 Y-24.23 Z-1.333
X-18.167 Z-1.422
X-18.144 Y-24.215 Z-1.511
X-18.133 Y-24.19 Z-1.6
X-18.136 Y-24.162 Z-1.689
X-18.153 Y-24.141 Z-1.778
X-18.179 Y-24.132 Z-1.867
X-18.206 Y-24.138 Z-1.956
X-18.226 Y-24.158 Z-2.044
X-18.232 Y-24.185 Z-2.133
X-18.223 Y-24.211 Z-2.222
X-18.202 Y-24.228 Z-2.311
X-18.174 Y-24.231 Z-2.4
X-18.149 Y-24.22 Z-2.489
X-18.134 Y-24.197 Z-2.578
Y-24.169 Z-2.667
X-18.148 Y-24.145 Z-2.756
X-18.172 Y-24.133 Z-2.844
X-18.2 Y-24.135 Z-2.933
X-18.222 Y-24.152 Z-3.022
X-18.232 Y-24.178 Z-3.111
X-18.227 Y-24.205 Z-3.2
G3 X-18.137 Y-24.159 I0.045 J0.023
X-18.227 Y-24.205 I-0.045 J-0.023
G1 X-18.212 Y-24.217 F1016
X-18.193 Y-24.216
X-18.182 Y-24.182
G0 Z5
Y-44.485
Z1.805
G1 Z0 F1016
Y-44.449
X-18.2 Y-44.442
X-18.217 Y-44.449
X-18.23 Y-44.471 Z-0.08 F2540
X-18.231 Y-44.496 Z-0.16
X-18.219 Y-44.518 Z-0.24
X-18.199 Y-44.532 Z-0.32
X-18.174 Y-44.534 Z-0.4
X-18.151 Y-44.524 Z-0.48
X-18.136 Y-44.505 Z-0.56
X-18.132 Y-44.48 Z-0.64
X-18.141 Y-44.457 Z-0.72
X-18.159 Y-44.44 Z-0.8
X-18.184 Y-44.435 Z-0.88
X-18.207 Y-44.442 Z-0.96
X-18.225 Y-44.459 Z-1.04
X-18.232 Y-44.483 Z-1.12
X-18.227 Y-44.507 Z-1.2
X-18.21 Y-44.526 Z-1.28
X-18.185 Y-44.535 Z-1.365
X-18.159 Y-44.529 Z-1.451
X-18.14 Y-44.511 Z-1.536
X-18.132 Y-44.486 Z-1.621
X-18.138 Y-44.46 Z-1.707
X-18.157 Y-44.441 Z-1.792
X-18.183 Y-44.435 Z-1.877
X-18.208 Y-44.442 Z-1.963
X-18.226 Y-44.461 Z-2.048
X-18.232 Y-44.487 Z-2.133
X-18.224 Y-44.512 Z-2.219
X-18.204 Y-44.53 Z-2.304
X-18.177 Y-44.534 Z-2.389
X-18.153 Y-44.525 Z-2.475
X-18.136 Y-44.505 Z-2.56
X-18.132 Y-44.48 Z-2.64
X-18.141 Y-44.457 Z-2.72
X-18.159 Y-44.44 Z-2.8
X-18.184 Y-44.435 Z-2.88
X-18.207 Y-44.442 Z-2.96
X-18.225 Y-44.459 Z-3.04
X-18.232 Y-44.483 Z-3.12
X-18.227 Y-44.507 Z-3.2
G3 X-18.137 Y-44.462 I0.045 J0.023
X-18.227 Y-44.507 I-0.045 J-0.023
G1 X-18.212 Y-44.52 F1016
X-18.193 Y-44.518
X-18.182 Y-44.485
G0 Z5
X-11.818
Z1.805
G1 Z0 F1016
Y-44.449
X-11.836 Y-44.442
X-11.853 Y-44.449
X-11.866 Y-44.471 Z-0.08 F2540
X-11.867 Y-44.496 Z-0.16
X-11.856 Y-44.518 Z-0.24
X-11.835 Y-44.532 Z-0.32
X-11.81 Y-44.534 Z-0.4
X-11.787 Y-44.524 Z-0.48
X-11.772 Y-44.505 Z-0.56
X-11.768 Y-44.48 Z-0.64
X-11.777 Y-44.457 Z-0.72
X-11.795 Y-44.44 Z-0.8
X-11.82 Y-44.435 Z-0.88
X-11.843 Y-44.442 Z-0.96
X-11.861 Y-44.459 Z-1.04
X-11.868 Y-44.483 Z-1.12
X-11.863 Y-44.507 Z-1.2
X-11.846 Y-44.526 Z-1.28
X-11.821 Y-44.535 Z-1.365
X-11.795 Y-44.529 Z-1.451
X-11.776 Y-44.511 Z-1.536
X-11.768 Y-44.486 Z-1.621
X-11.774 Y-44.46 Z-1.707
X-11.793 Y-44.441 Z-1.792
X-11.819 Y-44.435 Z-1.877
X-11.844 Y-44.442 Z-1.963
X-11.862 Y-44.461 Z-2.048
X-11.868 Y-44.487 Z-2.133
X-11.86 Y-44.512 Z-2.219
X-11.84 Y-44.53 Z-2.304
X-11.814 Y-44.534 Z-2.389
X-11.789 Y-44.525 Z-2.475
X-11.772 Y-44.505 Z-2.56
X-11.768 Y-44.48 Z-2.64
X-11.777 Y-44.457 Z-2.72
X-11.795 Y-44.44 Z-2.8
X-11.82 Y-44.435 Z-2.88
X-11.843 Y-44.442 Z-2.96
X-11.861 Y-44.459 Z-3.04
X-11.868 Y-44.483 Z-3.12
X-11.863 Y-44.507 Z-3.2
G3 X-11.773 Y-44.462 I0.045 J0.023
X-11.863 Y-44.507 I-0.045 J-0.023
G1 X-11.848 Y-44.52 F1016
X-11.829 Y-44.518
X-11.818 Y-44.485
G0 Z5
Y-50.849
Z1.805
G1 Z0 F1016
Y-50.813
X-11.836 Y-50.806
X-11.853 Y-50.813
X-11.866 Y-50.835 Z-0.08 F2540
X-11.867 Y-50.86 Z-0.16
X-11.856 Y-50.882 Z-0.24
X-11.835 Y-50.896 Z-0.32
X-11.81 Y-50.898 Z-0.4
X-11.787 Y-50.888 Z-0.48
X-11.772 Y-50.869 Z-0.56
X-11.768 Y-50.844 Z-0.64
X-11.777 Y-50.821 Z-0.72
X-11.795 Y-50.804 Z-0.8
X-11.82 Y-50.799 Z-0.88
X-11.843 Y-50.806 Z-0.96
X-11.861 Y-50.823 Z-1.04
X-11.868 Y-50.847 Z-1.12
X-11.863 Y-50.871 Z-1.2
X-11.846 Y-50.89 Z-1.28
X-11.821 Y-50.899 Z-1.365
X-11.795 Y-50.893 Z-1.451
X-11.776 Y-50.875 Z-1.536
X-11.768 Y-50.85 Z-1.621
X-11.774 Y-50.824 Z-1.707
X-11.793 Y-50.805 Z-1.792
X-11.819 Y-50.799 Z-1.877
X-11.844 Y-50.806 Z-1.963
X-11.862 Y-50.825 Z-2.048
X-11.868 Y-50.851 Z-2.133
X-11.86 Y-50.876 Z-2.219
X-11.84 Y-50.894 Z-2.304
X-11.814 Y-50.898 Z-2.389
X-11.789 Y-50.889 Z-2.475
X-11.772 Y-50.869 Z-2.56
X-11.768 Y-50.844 Z-2.64
X-11.777 Y-50.821 Z-2.72
X-11.795 Y-50.804 Z-2.8
X-11.82 Y-50.799 Z-2.88
X-11.843 Y-50.806 Z-2.96
X-11.861 Y-50.823 Z-3.04
X-11.868 Y-50.847 Z-3.12
X-11.863 Y-50.871 Z-3.2
G3 X-11.773 Y-50.826 I0.045 J0.023
X-11.863 Y-50.871 I-0.045 J-0.023
G1 X-11.848 Y-50.884 F1016
X-11.829 Y-50.882
X-11.818 Y-50.849
G0 Z5
X-18.182
Z1.805
G1 Z0 F1016
Y-50.813
X-18.2 Y-50.806
X-18.217 Y-50.813
X-18.23 Y-50.835 Z-0.08 F2540
X-18.231 Y-50.86 Z-0.16
X-18.219 Y-50.882 Z-0.24
X-18.199 Y-50.896 Z-0.32
X-18.174 Y-50.898 Z-0.4
X-18.151 Y-50.888 Z-0.48
X-18.136 Y-50.869 Z-0.56
X-18.132 Y-50.844 Z-0.64
X-18.141 Y-50.821 Z-0.72
X-18.159 Y-50.804 Z-0.8
X-18.184 Y-50.799 Z-0.88
X-18.207 Y-50.806 Z-0.96
X-18.225 Y-50.823 Z-1.04
X-18.232 Y-50.847 Z-1.12
X-18.227 Y-50.871 Z-1.2
X-18.21 Y-50.89 Z-1.28
X-18.185 Y-50.899 Z-1.365
X-18.159 Y-50.893 Z-1.451
X-18.14 Y-50.875 Z-1.536
X-18.132 Y-50.85 Z-1.621
X-18.138 Y-50.824 Z-1.707
X-18.157 Y-50.805 Z-1.792
X-18.183 Y-50.799 Z-1.877
X-18.208 Y-50.806 Z-1.963
X-18.226 Y-50.825 Z-2.048
X-18.232 Y-50.851 Z-2.133
X-18.224 Y-50.876 Z-2.219
X-18.204 Y-50.894 Z-2.304
X-18.177 Y-50.898 Z-2.389
X-18.153 Y-50.889 Z-2.475
X-18.136 Y-50.869 Z-2.56
X-18.132 Y-50.844 Z-2.64
X-18.141 Y-50.821 Z-2.72
X-18.159 Y-50.804 Z-2.8
X-18.184 Y-50.799 Z-2.88
X-18.207 Y-50.806 Z-2.96
X-18.225 Y-50.823 Z-3.04
X-18.232 Y-50.847 Z-3.12
X-18.227 Y-50.871 Z-3.2
G3 X-18.137 Y-50.826 I0.045 J0.023
X-18.227 Y-50.871 I-0.045 J-0.023
G1 X-18.212 Y-50.884 F1016
X-18.193 Y-50.882
X-18.182 Y-50.849
G0 Z5
Y-71.151
Z1.805
G1 Z0 F1016
Y-71.116
X-18.2 Y-71.109
X-18.217 Y-71.116
X-18.23 Y-71.137 Z-0.08 F2540
X-18.231 Y-71.162 Z-0.16
X-18.219 Y-71.184 Z-0.24
X-18.199 Y-71.198 Z-0.32
X-18.174 Y-71.201 Z-0.4
X-18.151 Y-71.191 Z-0.48
X-18.136 Y-71.171 Z-0.56
X-18.132 Y-71.147 Z-0.64
X-18.141 Y-71.123 Z-0.72
X-18.159 Y-71.107 Z-0.8
X-18.184 Y-71.101 Z-0.88
X-18.207 Y-71.108 Z-0.96
X-18.225 Y-71.126 Z-1.04
X-18.232 Y-71.15 Z-1.12
X-18.227 Y-71.174 Z-1.2
X-18.21 Y-71.193 Z-1.28
X-18.187 Y-71.201 Z-1.36
X-18.162 Y-71.197 Z-1.44
X-18.142 Y-71.182 Z-1.52
X-18.133 Y-71.159 Z-1.6
X-18.135 Y-71.134 Z-1.68
X-18.149 Y-71.114 Z-1.76
X-18.171 Y-71.103 Z-1.84
X-18.196 Z-1.92
X-18.217 Y-71.116 Z-2
X-18.23 Y-71.137 Z-2.08
X-18.231 Y-71.162 Z-2.16
X-18.219 Y-71.184 Z-2.24
X-18.199 Y-71.198 Z-2.32
X-18.174 Y-71.201 Z-2.4
X-18.151 Y-71.191 Z-2.48
X-18.136 Y-71.171 Z-2.56
X-18.132 Y-71.147 Z-2.64
X-18.141 Y-71.123 Z-2.72
X-18.159 Y-71.107 Z-2.8
X-18.184 Y-71.101 Z-2.88
X-18.207 Y-71.108 Z-2.96
X-18.225 Y-71.126 Z-3.04
X-18.232 Y-71.15 Z-3.12
X-18.227 Y-71.174 Z-3.2
G3 X-18.137 Y-71.129 I0.045 J0.023
X-18.227 Y-71.174 I-0.045 J-0.023
G1 X-18.212 Y-71.186 F1016
X-18.193 Y-71.185
X-18.182 Y-71.151
G0 Z5
X-11.818
Z1.805
G1 Z0 F1016
Y-71.116
X-11.836 Y-71.109
X-11.853 Y-71.116
X-11.866 Y-71.137 Z-0.08 F2540
X-11.867 Y-71.162 Z-0.16
X-11.856 Y-71.184 Z-0.24
X-11.835 Y-71.198 Z-0.32
X-11.81 Y-71.201 Z-0.4
X-11.787 Y-71.191 Z-0.48
X-11.772 Y-71.171 Z-0.56
X-11.768 Y-71.147 Z-0.64
X-11.777 Y-71.123 Z-0.72
X-11.795 Y-71.107 Z-0.8
X-11.82 Y-71.101 Z-0.88
X-11.843 Y-71.108 Z-0.96
X-11.861 Y-71.126 Z-1.04
X-11.868 Y-71.15 Z-1.12
X-11.863 Y-71.174 Z-1.2
X-11.846 Y-71.193 Z-1.28
X-11.823 Y-71.201 Z-1.36
X-11.798 Y-71.197 Z-1.44
X-11.779 Y-71.182 Z-1.52
X-11.769 Y-71.159 Z-1.6
X-11.771 Y-71.134 Z-1.68
X-11.785 Y-71.114 Z-1.76
X-11.807 Y-71.103 Z-1.84
X-11.832 Z-1.92
X-11.855 Y-71.117 Z-2.005
X-11.867 Y-71.141 Z-2.091
X-11.865 Y-71.167 Z-2.176
X-11.851 Y-71.189 Z-2.261
X-11.827 Y-71.201 Z-2.347
X-11.8 Y-71.198 Z-2.432
X-11.779 Y-71.183 Z-2.517
X-11.769 Y-71.158 Z-2.603
X-11.772 Y-71.132 Z-2.688
X-11.788 Y-71.111 Z-2.773
X-11.813 Y-71.102 Z-2.859
X-11.839 Y-71.106 Z-2.944
X-11.859 Y-71.123 Z-3.029
X-11.868 Y-71.148 Z-3.115
X-11.863 Y-71.174 Z-3.2
G3 X-11.773 Y-71.129 I0.045 J0.023
X-11.863 Y-71.174 I-0.045 J-0.023
G1 X-11.848 Y-71.186 F1016
X-11.829 Y-71.185
X-11.818 Y-71.151
G0 Z5
Y-77.515
Z1.805
G1 Z0 F1016
Y-77.48
X-11.836 Y-77.473
X-11.853 Y-77.48
X-11.866 Y-77.503 Z-0.085 F2540
Y-77.529 Z-0.171
X-11.852 Y-77.552 Z-0.256
X-11.829 Y-77.564 Z-0.341
X-11.802 Y-77.563 Z-0.427
X-11.78 Y-77.548 Z-0.512
X-11.769 Y-77.524 Z-0.597
X-11.771 Y-77.498 Z-0.683
X-11.787 Y-77.476 Z-0.768
X-11.811 Y-77.466 Z-0.853
X-11.837 Y-77.469 Z-0.939
X-11.858 Y-77.486 Z-1.024
X-11.868 Y-77.51 Z-1.109
X-11.863 Y-77.537 Z-1.195
X-11.846 Y-77.557 Z-1.28
X-11.82 Y-77.565 Z-1.367
X-11.794 Y-77.559 Z-1.455
X-11.775 Y-77.54 Z-1.542
X-11.768 Y-77.514 Z-1.629
X-11.776 Y-77.488 Z-1.716
X-11.796 Y-77.47 Z-1.804
X-11.823 Y-77.466 Z-1.891
X-11.848 Y-77.475 Z-1.978
X-11.865 Y-77.497 Z-2.065
X-11.867 Y-77.524 Z-2.153
X-11.856 Y-77.548 Z-2.24
X-11.833 Y-77.563 Z-2.327
X-11.806 Y-77.564 Z-2.415
X-11.782 Y-77.55 Z-2.502
X-11.769 Y-77.526 Z-2.589
X-11.771 Y-77.499 Z-2.676
X-11.786 Y-77.477 Z-2.764
X-11.81 Y-77.466 Z-2.851
X-11.837 Y-77.469 Z-2.938
X-11.859 Y-77.486 Z-3.025
X-11.868 Y-77.511 Z-3.113
X-11.863 Y-77.538 Z-3.2
G3 X-11.773 Y-77.493 I0.045 J0.023
X-11.863 Y-77.538 I-0.045 J-0.023
G1 X-11.848 Y-77.55 F1016
X-11.829 Y-77.549
X-11.818 Y-77.515
G0 Z5
X-18.182
Z1.805
G1 Z0 F1016
Y-77.48
X-18.2 Y-77.473
X-18.217 Y-77.48
X-18.231 Y-77.504 Z-0.087 F2540
X-18.23 Y-77.531 Z-0.175
X-18.215 Y-77.553 Z-0.262
X-18.19 Y-77.565 Z-0.349
X-18.163 Y-77.562 Z-0.436
X-18.142 Y-77.545 Z-0.524
X-18.132 Y-77.52 Z-0.611
X-18.137 Y-77.493 Z-0.698
X-18.155 Y-77.473 Z-0.785
X-18.181 Y-77.465 Z-0.873
X-18.207 Y-77.472 Z-0.96
X-18.226 Y-77.492 Z-1.047
X-18.232 Y-77.518 Z-1.135
X-18.223 Y-77.544 Z-1.222
X-18.202 Y-77.561 Z-1.309
X-18.175 Y-77.565 Z-1.396
X-18.15 Y-77.554 Z-1.484
X-18.135 Y-77.532 Z-1.571
X-18.133 Y-77.505 Z-1.658
X-18.146 Y-77.481 Z-1.745
X-18.169 Y-77.467 Z-1.833
X-18.196 Z-1.92
X-18.217 Y-77.48 Z-2
X-18.23 Y-77.501 Z-2.08
X-18.231 Y-77.526 Z-2.16
X-18.219 Y-77.548 Z-2.24
X-18.199 Y-77.562 Z-2.32
X-18.174 Y-77.565 Z-2.4
X-18.151 Y-77.555 Z-2.48
X-18.136 Y-77.535 Z-2.56
X-18.132 Y-77.511 Z-2.64
X-18.141 Y-77.487 Z-2.72
X-18.159 Y-77.471 Z-2.8
X-18.184 Y-77.465 Z-2.88
X-18.207 Y-77.472 Z-2.96
X-18.225 Y-77.49 Z-3.04
X-18.232 Y-77.514 Z-3.12
X-18.227 Y-77.538 Z-3.2
G3 X-18.137 Y-77.493 I0.045 J0.023
X-18.227 Y-77.538 I-0.045 J-0.023
G1 X-18.212 Y-77.55 F1016
X-18.193 Y-77.549
X-18.182 Y-77.515
G0 Z5
Y-97.818
Z1.805
G1 Z0 F1016
Y-97.783
X-18.2 Y-97.775
X-18.217 Y-97.783
X-18.23 Y-97.804 Z-0.08 F2540
X-18.231 Y-97.829 Z-0.16
X-18.219 Y-97.851 Z-0.24
X-18.199 Y-97.865 Z-0.32
X-18.174 Y-97.867 Z-0.4
X-18.151 Y-97.858 Z-0.48
X-18.136 Y-97.838 Z-0.56
X-18.132 Y-97.813 Z-0.64
X-18.141 Y-97.79 Z-0.72
X-18.159 Y-97.773 Z-0.8
X-18.184 Y-97.768 Z-0.88
X-18.207 Y-97.775 Z-0.96
X-18.225 Y-97.793 Z-1.04
X-18.232 Y-97.816 Z-1.12
X-18.227 Y-97.841 Z-1.2
X-18.21 Y-97.859 Z-1.28
X-18.185 Y-97.868 Z-1.365
X-18.159 Y-97.862 Z-1.451
X-18.14 Y-97.845 Z-1.536
X-18.132 Y-97.819 Z-1.621
X-18.138 Y-97.793 Z-1.707
X-18.157 Y-97.775 Z-1.792
X-18.183 Y-97.768 Z-1.877
X-18.208 Y-97.775 Z-1.963
X-18.226 Y-97.795 Z-2.048
X-18.232 Y-97.821 Z-2.133
X-18.224 Y-97.846 Z-2.219
X-18.204 Y-97.863 Z-2.304
X-18.177 Y-97.868 Z-2.389
X-18.153 Y-97.859 Z-2.475
X-18.136 Y-97.838 Z-2.56
X-18.132 Y-97.813 Z-2.64
X-18.141 Y-97.79 Z-2.72
X-18.159 Y-97.773 Z-2.8
X-18.184 Y-97.768 Z-2.88
X-18.207 Y-97.775 Z-2.96
X-18.225 Y-97.793 Z-3.04
X-18.232 Y-97.816 Z-3.12
X-18.227 Y-97.841 Z-3.2
G3 X-18.137 Y-97.795 I0.045 J0.023
X-18.227 Y-97.841 I-0.045 J-0.023
G1 X-18.212 Y-97.853 F1016
X-18.193 Y-97.852
X-18.182 Y-97.818
G0 Z5
X-11.818
Z1.805
G1 Z0 F1016
Y-97.783
X-11.836 Y-97.775
X-11.853 Y-97.783
X-11.866 Y-97.804 Z-0.08 F2540
X-11.867 Y-97.829 Z-0.16
X-11.856 Y-97.851 Z-0.24
X-11.835 Y-97.865 Z-0.32
X-11.81 Y-97.867 Z-0.4
X-11.787 Y-97.858 Z-0.48
X-11.772 Y-97.838 Z-0.56
X-11.768 Y-97.813 Z-0.64
X-11.777 Y-97.79 Z-0.72
X-11.795 Y-97.773 Z-0.8
X-11.82 Y-97.768 Z-0.88
X-11.843 Y-97.775 Z-0.96
X-11.861 Y-97.793 Z-1.04
X-11.868 Y-97.816 Z-1.12
X-11.863 Y-97.841 Z-1.2
X-11.846 Y-97.859 Z-1.28
X-11.821 Y-97.868 Z-1.365
X-11.795 Y-97.862 Z-1.451
X-11.776 Y-97.845 Z-1.536
X-11.768 Y-97.819 Z-1.621
X-11.774 Y-97.793 Z-1.707
X-11.793 Y-97.775 Z-1.792
X-11.819 Y-97.768 Z-1.877
X-11.844 Y-97.775 Z-1.963
X-11.862 Y-97.795 Z-2.048
X-11.868 Y-97.821 Z-2.133
X-11.86 Y-97.846 Z-2.219
X-11.84 Y-97.863 Z-2.304
X-11.814 Y-97.868 Z-2.389
X-11.789 Y-97.859 Z-2.475
X-11.772 Y-97.838 Z-2.56
X-11.768 Y-97.813 Z-2.64
X-11.777 Y-97.79 Z-2.72
X-11.795 Y-97.773 Z-2.8
X-11.82 Y-97.768 Z-2.88
X-11.843 Y-97.775 Z-2.96
X-11.861 Y-97.793 Z-3.04
X-11.868 Y-97.816 Z-3.12
X-11.863 Y-97.841 Z-3.2
G3 X-11.773 Y-97.795 I0.045 J0.023
X-11.863 Y-97.841 I-0.045 J-0.023
G1 X-11.848 Y-97.853 F1016
X-11.829 Y-97.852
X-11.818 Y-97.818
G0 Z5
Y-104.182
Z1.805
G1 Z0 F1016
Y-104.147
X-11.836 Y-104.139
X-11.853 Y-104.147
X-11.866 Y-104.168 Z-0.08 F2540
X-11.867 Y-104.193 Z-0.16
X-11.856 Y-104.215 Z-0.24
X-11.835 Y-104.229 Z-0.32
X-11.81 Y-104.231 Z-0.4
X-11.787 Y-104.221 Z-0.48
X-11.772 Y-104.202 Z-0.56
X-11.768 Y-104.177 Z-0.64
X-11.778 Y-104.153 Z-0.725
X-11.798 Y-104.136 Z-0.811
X-11.825 Y-104.132 Z-0.896
X-11.849 Y-104.143 Z-0.981
X-11.865 Y-104.164 Z-1.067
X-11.867 Y-104.19 Z-1.152
X-11.856 Y-104.214 Z-1.237
X-11.834 Y-104.229 Z-1.323
X-11.808 Y-104.231 Z-1.408
X-11.784 Y-104.219 Z-1.493
X-11.77 Y-104.196 Z-1.579
Y-104.17 Z-1.664
X-11.783 Y-104.147 Z-1.749
X-11.805 Y-104.134 Z-1.835
X-11.832 Z-1.92
X-11.853 Y-104.147 Z-2
X-11.866 Y-104.168 Z-2.08
X-11.867 Y-104.193 Z-2.16
X-11.856 Y-104.215 Z-2.24
X-11.835 Y-104.229 Z-2.32
X-11.81 Y-104.231 Z-2.4
X-11.787 Y-104.221 Z-2.48
X-11.772 Y-104.202 Z-2.56
X-11.768 Y-104.177 Z-2.64
X-11.777 Y-104.154 Z-2.72
X-11.795 Y-104.137 Z-2.8
X-11.82 Y-104.132 Z-2.88
X-11.843 Y-104.139 Z-2.96
X-11.861 Y-104.157 Z-3.04
X-11.868 Y-104.18 Z-3.12
X-11.863 Y-104.205 Z-3.2
G3 X-11.773 Y-104.159 I0.045 J0.023
X-11.863 Y-104.205 I-0.045 J-0.023
G1 X-11.848 Y-104.217 F1016
X-11.829 Y-104.216
X-11.818 Y-104.182
G0 Z5
X-18.182
Z1.805
G1 Z0 F1016
Y-104.147
X-18.2 Y-104.139
X-18.217 Y-104.147
X-18.23 Y-104.168 Z-0.08 F2540
X-18.231 Y-104.193 Z-0.16
X-18.219 Y-104.215 Z-0.24
X-18.199 Y-104.229 Z-0.32
X-18.174 Y-104.231 Z-0.4
X-18.151 Y-104.221 Z-0.48
X-18.136 Y-104.202 Z-0.56
X-18.132 Y-104.177 Z-0.64
X-18.141 Y-104.154 Z-0.72
X-18.159 Y-104.137 Z-0.8
X-18.184 Y-104.132 Z-0.88
X-18.207 Y-104.139 Z-0.96
X-18.225 Y-104.157 Z-1.04
X-18.232 Y-104.18 Z-1.12
X-18.227 Y-104.205 Z-1.2
X-18.21 Y-104.223 Z-1.28
X-18.187 Y-104.232 Z-1.36
X-18.162 Y-104.228 Z-1.44
X-18.142 Y-104.213 Z-1.52
X-18.133 Y-104.19 Z-1.6
X-18.135 Y-104.165 Z-1.68
X-18.149 Y-104.144 Z-1.76
X-18.171 Y-104.133 Z-1.84
X-18.196 Y-104.134 Z-1.92
X-18.217 Y-104.147 Z-2
X-18.23 Y-104.168 Z-2.08
X-18.231 Y-104.193 Z-2.16
X-18.219 Y-104.215 Z-2.24
X-18.199 Y-104.229 Z-2.32
X-18.174 Y-104.231 Z-2.4
X-18.151 Y-104.221 Z-2.48
X-18.136 Y-104.202 Z-2.56
X-18.132 Y-104.177 Z-2.64
X-18.141 Y-104.154 Z-2.72
X-18.159 Y-104.137 Z-2.8
X-18.184 Y-104.132 Z-2.88
X-18.207 Y-104.139 Z-2.96
X-18.225 Y-104.157 Z-3.04
X-18.232 Y-104.18 Z-3.12
X-18.227 Y-104.205 Z-3.2
G3 X-18.137 Y-104.159 I0.045 J0.023
X-18.227 Y-104.205 I-0.045 J-0.023
G1 X-18.212 Y-104.217 F1016
X-18.193 Y-104.216
X-18.182 Y-104.182
G0 Z5
X-86.017 Y-91.533
Z1.805
G1 Z0 F1016
Y-91.568
X-85.999 Y-91.575
X-85.982 Y-91.568
X-85.969 Y-91.547 Z-0.08 F2540
X-85.968 Y-91.522 Z-0.16
X-85.98 Y-91.499 Z-0.24
X-86 Y-91.486 Z-0.32
X-86.025 Y-91.483 Z-0.4
X-86.048 Y-91.493 Z-0.48
X-86.063 Y-91.513 Z-0.56
X-86.067 Y-91.537 Z-0.64
X-86.058 Y-91.561 Z-0.72
X-86.04 Y-91.577 Z-0.8
X-86.016 Y-91.583 Z-0.88
X-85.992 Y-91.576 Z-0.96
X-85.974 Y-91.558 Z-1.04
X-85.967 Y-91.534 Z-1.12
X-85.973 Y-91.51 Z-1.2
X-85.989 Y-91.491 Z-1.28
X-86.012 Y-91.483 Z-1.36
X-86.037 Y-91.487 Z-1.44
X-86.057 Y-91.502 Z-1.52
X-86.067 Y-91.525 Z-1.6
X-86.064 Y-91.55 Z-1.68
X-86.05 Y-91.57 Z-1.76
X-86.028 Y-91.581 Z-1.84
X-86.003 Z-1.92
X-85.982 Y-91.568 Z-2
X-85.969 Y-91.547 Z-2.08
X-85.968 Y-91.522 Z-2.16
X-85.98 Y-91.499 Z-2.24
X-86 Y-91.486 Z-2.32
X-86.025 Y-91.483 Z-2.4
X-86.048 Y-91.493 Z-2.48
X-86.063 Y-91.513 Z-2.56
X-86.067 Y-91.537 Z-2.64
X-86.058 Y-91.561 Z-2.72
X-86.04 Y-91.577 Z-2.8
X-86.016 Y-91.583 Z-2.88
X-85.992 Y-91.576 Z-2.96
X-85.974 Y-91.558 Z-3.04
X-85.967 Y-91.534 Z-3.12
X-85.973 Y-91.51 Z-3.2
G3 X-86.062 Y-91.555 I-0.045 J-0.023
X-85.973 Y-91.51 I0.045 J0.023
G1 X-85.987 Y-91.497 F1016
X-86.006 Y-91.499
X-86.017 Y-91.533
G0 Z5
X-92.381
Z1.805
G1 Z0 F1016
Y-91.568
X-92.363 Y-91.575
X-92.346 Y-91.568
X-92.333 Y-91.547 Z-0.08 F2540
X-92.332 Y-91.522 Z-0.16
X-92.344 Y-91.499 Z-0.24
X-92.364 Y-91.486 Z-0.32
X-92.389 Y-91.483 Z-0.4
X-92.412 Y-91.493 Z-0.48
X-92.427 Y-91.513 Z-0.56
X-92.431 Y-91.537 Z-0.64
X-92.422 Y-91.561 Z-0.72
X-92.404 Y-91.577 Z-0.8
X-92.38 Y-91.583 Z-0.88
X-92.356 Y-91.576 Z-0.96
X-92.338 Y-91.558 Z-1.04
X-92.331 Y-91.534 Z-1.12
X-92.337 Y-91.51 Z-1.2
X-92.353 Y-91.491 Z-1.28
X-92.376 Y-91.483 Z-1.36
X-92.401 Y-91.487 Z-1.44
X-92.421 Y-91.502 Z-1.52
X-92.43 Y-91.525 Z-1.6
X-92.428 Y-91.55 Z-1.68
X-92.414 Y-91.57 Z-1.76
X-92.392 Y-91.581 Z-1.84
X-92.367 Z-1.92
X-92.346 Y-91.568 Z-2
X-92.333 Y-91.547 Z-2.08
X-92.332 Y-91.522 Z-2.16
X-92.344 Y-91.499 Z-2.24
X-92.364 Y-91.486 Z-2.32
X-92.389 Y-91.483 Z-2.4
X-92.412 Y-91.493 Z-2.48
X-92.427 Y-91.513 Z-2.56
X-92.431 Y-91.537 Z-2.64
X-92.422 Y-91.561 Z-2.72
X-92.404 Y-91.577 Z-2.8
X-92.38 Y-91.583 Z-2.88
X-92.356 Y-91.576 Z-2.96
X-92.338 Y-91.558 Z-3.04
X-92.331 Y-91.534 Z-3.12
X-92.337 Y-91.51 Z-3.2
G3 X-92.426 Y-91.555 I-0.045 J-0.023
X-92.337 Y-91.51 I0.045 J0.023
G1 X-92.351 Y-91.497 F1016
X-92.37 Y-91.499
X-92.381 Y-91.533
G0 Z5
Y-85.169
Z1.805
G1 Z0 F1016
Y-85.204
X-92.363 Y-85.211
X-92.346 Y-85.204
X-92.333 Y-85.183 Z-0.08 F2540
X-92.332 Y-85.158 Z-0.16
X-92.344 Y-85.136 Z-0.24
X-92.364 Y-85.122 Z-0.32
X-92.389 Y-85.119 Z-0.4
X-92.412 Y-85.129 Z-0.48
X-92.427 Y-85.149 Z-0.56
X-92.431 Y-85.173 Z-0.64
X-92.422 Y-85.197 Z-0.72
X-92.404 Y-85.213 Z-0.8
X-92.38 Y-85.219 Z-0.88
X-92.356 Y-85.212 Z-0.96
X-92.338 Y-85.194 Z-1.04
X-92.331 Y-85.17 Z-1.12
X-92.337 Y-85.146 Z-1.2
X-92.353 Y-85.127 Z-1.28
X-92.376 Y-85.119 Z-1.36
X-92.401 Y-85.123 Z-1.44
X-92.421 Y-85.138 Z-1.52
X-92.43 Y-85.161 Z-1.6
X-92.428 Y-85.186 Z-1.68
X-92.414 Y-85.206 Z-1.76
X-92.392 Y-85.217 Z-1.84
X-92.367 Z-1.92
X-92.346 Y-85.204 Z-2
X-92.333 Y-85.183 Z-2.08
X-92.332 Y-85.158 Z-2.16
X-92.344 Y-85.136 Z-2.24
X-92.364 Y-85.122 Z-2.32
X-92.389 Y-85.119 Z-2.4
X-92.412 Y-85.129 Z-2.48
X-92.427 Y-85.149 Z-2.56
X-92.431 Y-85.173 Z-2.64
X-92.422 Y-85.197 Z-2.72
X-92.404 Y-85.213 Z-2.8
X-92.38 Y-85.219 Z-2.88
X-92.356 Y-85.212 Z-2.96
X-92.338 Y-85.194 Z-3.04
X-92.331 Y-85.17 Z-3.12
X-92.337 Y-85.146 Z-3.2
G3 X-92.426 Y-85.191 I-0.045 J-0.023
X-92.337 Y-85.146 I0.045 J0.023
G1 X-92.351 Y-85.133 F1016
X-92.37 Y-85.135
X-92.381 Y-85.169
G0 Z5
X-86.017
Z1.805
G1 Z0 F1016
Y-85.204
X-85.999 Y-85.211
X-85.982 Y-85.204
X-85.969 Y-85.183 Z-0.08 F2540
X-85.968 Y-85.158 Z-0.16
X-85.98 Y-85.136 Z-0.24
X-86 Y-85.122 Z-0.32
X-86.025 Y-85.119 Z-0.4
X-86.048 Y-85.129 Z-0.48
X-86.063 Y-85.149 Z-0.56
X-86.067 Y-85.173 Z-0.64
X-86.058 Y-85.197 Z-0.72
X-86.04 Y-85.213 Z-0.8
X-86.016 Y-85.219 Z-0.88
X-85.992 Y-85.212 Z-0.96
X-85.974 Y-85.194 Z-1.04
X-85.967 Y-85.17 Z-1.12
X-85.973 Y-85.146 Z-1.2
X-85.989 Y-85.127 Z-1.28
X-86.012 Y-85.119 Z-1.36
X-86.037 Y-85.123 Z-1.44
X-86.057 Y-85.138 Z-1.52
X-86.067 Y-85.161 Z-1.6
X-86.064 Y-85.186 Z-1.68
X-86.05 Y-85.206 Z-1.76
X-86.028 Y-85.217 Z-1.84
X-86.003 Z-1.92
X-85.982 Y-85.204 Z-2
X-85.969 Y-85.183 Z-2.08
X-85.968 Y-85.158 Z-2.16
X-85.98 Y-85.136 Z-2.24
X-86 Y-85.122 Z-2.32
X-86.025 Y-85.119 Z-2.4
X-86.048 Y-85.129 Z-2.48
X-86.063 Y-85.149 Z-2.56
X-86.067 Y-85.173 Z-2.64
X-86.058 Y-85.197 Z-2.72
X-86.04 Y-85.213 Z-2.8
X-86.016 Y-85.219 Z-2.88
X-85.992 Y-85.212 Z-2.96
X-85.974 Y-85.194 Z-3.04
X-85.967 Y-85.17 Z-3.12
X-85.973 Y-85.146 Z-3.2
G3 X-86.062 Y-85.191 I-0.045 J-0.023
X-85.973 Y-85.146 I0.045 J0.023
G1 X-85.987 Y-85.133 F1016
X-86.006 Y-85.135
X-86.017 Y-85.169
G0 Z5
Y-64.866
Z1.805
G1 Z0 F1016
Y-64.901
X-85.999 Y-64.909
X-85.982 Y-64.901
X-85.969 Y-64.88 Z-0.08 F2540
X-85.968 Y-64.855 Z-0.16
X-85.98 Y-64.833 Z-0.24
X-86 Y-64.819 Z-0.32
X-86.025 Y-64.817 Z-0.4
X-86.048 Y-64.826 Z-0.48
X-86.063 Y-64.846 Z-0.56
X-86.067 Y-64.871 Z-0.64
X-86.058 Y-64.895 Z-0.725
X-86.037 Y-64.912 Z-0.811
X-86.011 Y-64.915 Z-0.896
X-85.986 Y-64.905 Z-0.981
X-85.97 Y-64.884 Z-1.067
X-85.968 Y-64.857 Z-1.152
X-85.979 Y-64.833 Z-1.237
X-86.001 Y-64.819 Z-1.323
X-86.027 Y-64.817 Z-1.408
X-86.051 Y-64.829 Z-1.493
X-86.065 Y-64.852 Z-1.579
X-86.066 Y-64.878 Z-1.664
X-86.053 Y-64.901 Z-1.749
X-86.03 Y-64.914 Z-1.835
X-86.003 Z-1.92
X-85.982 Y-64.901 Z-2
X-85.969 Y-64.88 Z-2.08
X-85.968 Y-64.855 Z-2.16
X-85.98 Y-64.833 Z-2.24
X-86 Y-64.819 Z-2.32
X-86.025 Y-64.817 Z-2.4
X-86.048 Y-64.826 Z-2.48
X-86.063 Y-64.846 Z-2.56
X-86.067 Y-64.871 Z-2.64
X-86.058 Y-64.894 Z-2.72
X-86.04 Y-64.91 Z-2.8
X-86.016 Y-64.916 Z-2.88
X-85.992 Y-64.909 Z-2.96
X-85.974 Y-64.891 Z-3.04
X-85.967 Y-64.867 Z-3.12
X-85.973 Y-64.843 Z-3.2
G3 X-86.062 Y-64.889 I-0.045 J-0.023
X-85.973 Y-64.843 I0.045 J0.023
G1 X-85.987 Y-64.831 F1016
X-86.006 Y-64.832
X-86.017 Y-64.866
G0 Z5
X-92.381
Z1.805
G1 Z0 F1016
Y-64.901
X-92.363 Y-64.909
X-92.346 Y-64.901
X-92.333 Y-64.88 Z-0.08 F2540
X-92.332 Y-64.855 Z-0.16
X-92.344 Y-64.833 Z-0.24
X-92.364 Y-64.819 Z-0.32
X-92.389 Y-64.817 Z-0.4
X-92.412 Y-64.826 Z-0.48
X-92.427 Y-64.846 Z-0.56
X-92.431 Y-64.871 Z-0.64
X-92.421 Y-64.895 Z-0.725
X-92.401 Y-64.912 Z-0.811
X-92.375 Y-64.915 Z-0.896
X-92.35 Y-64.905 Z-0.981
X-92.334 Y-64.884 Z-1.067
X-92.332 Y-64.857 Z-1.152
X-92.343 Y-64.833 Z-1.237
X-92.365 Y-64.819 Z-1.323
X-92.391 Y-64.817 Z-1.408
X-92.415 Y-64.829 Z-1.493
X-92.429 Y-64.852 Z-1.579
X-92.43 Y-64.878 Z-1.664
X-92.417 Y-64.901 Z-1.749
X-92.394 Y-64.914 Z-1.835
X-92.367 Z-1.92
X-92.346 Y-64.901 Z-2
X-92.333 Y-64.88 Z-2.08
X-92.332 Y-64.855 Z-2.16
X-92.344 Y-64.833 Z-2.24
X-92.364 Y-64.819 Z-2.32
X-92.389 Y-64.817 Z-2.4
X-92.412 Y-64.826 Z-2.48
X-92.427 Y-64.846 Z-2.56
X-92.431 Y-64.871 Z-2.64
X-92.422 Y-64.894 Z-2.72
X-92.404 Y-64.91 Z-2.8
X-92.38 Y-64.916 Z-2.88
X-92.356 Y-64.909 Z-2.96
X-92.338 Y-64.891 Z-3.04
X-92.331 Y-64.867 Z-3.12
X-92.337 Y-64.843 Z-3.2
G3 X-92.426 Y-64.889 I-0.045 J-0.023
X-92.337 Y-64.843 I0.045 J0.023
G1 X-92.351 Y-64.831 F1016
X-92.37 Y-64.832
X-92.381 Y-64.866
G0 Z5
Y-58.502
Z1.805
G1 Z0 F1016
Y-58.537
X-92.363 Y-58.545
X-92.346 Y-58.537
X-92.333 Y-58.514 Z-0.085 F2540
Y-58.488 Z-0.171
X-92.347 Y-58.465 Z-0.256
X-92.371 Y-58.453 Z-0.341
X-92.397 Y-58.455 Z-0.427
X-92.419 Y-58.469 Z-0.512
X-92.43 Y-58.493 Z-0.597
X-92.428 Y-58.52 Z-0.683
X-92.412 Y-58.541 Z-0.768
X-92.388 Y-58.551 Z-0.853
X-92.362 Y-58.548 Z-0.939
X-92.341 Y-58.532 Z-1.024
X-92.331 Y-58.507 Z-1.109
X-92.336 Y-58.481 Z-1.195
X-92.353 Y-58.461 Z-1.28
X-92.376 Y-58.452 Z-1.36
X-92.401 Y-58.456 Z-1.44
X-92.421 Y-58.471 Z-1.52
X-92.43 Y-58.494 Z-1.6
X-92.428 Y-58.519 Z-1.68
X-92.414 Y-58.539 Z-1.76
X-92.392 Y-58.551 Z-1.84
X-92.367 Y-58.55 Z-1.92
X-92.346 Y-58.537 Z-2
X-92.333 Y-58.516 Z-2.08
X-92.332 Y-58.491 Z-2.16
X-92.344 Y-58.469 Z-2.24
X-92.364 Y-58.455 Z-2.32
X-92.389 Y-58.453 Z-2.4
X-92.412 Y-58.462 Z-2.48
X-92.427 Y-58.482 Z-2.56
X-92.431 Y-58.507 Z-2.64
X-92.422 Y-58.53 Z-2.72
X-92.404 Y-58.546 Z-2.8
X-92.38 Y-58.552 Z-2.88
X-92.356 Y-58.545 Z-2.96
X-92.338 Y-58.527 Z-3.04
X-92.331 Y-58.504 Z-3.12
X-92.337 Y-58.479 Z-3.2
G3 X-92.426 Y-58.525 I-0.045 J-0.023
X-92.337 Y-58.479 I0.045 J0.023
G1 X-92.351 Y-58.467 F1016
X-92.37 Y-58.468
X-92.381 Y-58.502
G0 Z5
X-86.017
Z1.805
G1 Z0 F1016
Y-58.537
X-85.999 Y-58.545
X-85.982 Y-58.537
X-85.969 Y-58.514 Z-0.085 F2540
Y-58.488 Z-0.171
X-85.983 Y-58.465 Z-0.256
X-86.007 Y-58.453 Z-0.341
X-86.033 Y-58.455 Z-0.427
X-86.055 Y-58.469 Z-0.512
X-86.066 Y-58.493 Z-0.597
X-86.064 Y-58.52 Z-0.683
X-86.048 Y-58.541 Z-0.768
X-86.024 Y-58.551 Z-0.853
X-85.998 Y-58.548 Z-0.939
X-85.977 Y-58.532 Z-1.024
X-85.967 Y-58.507 Z-1.109
X-85.972 Y-58.481 Z-1.195
X-85.989 Y-58.461 Z-1.28
X-86.012 Y-58.452 Z-1.36
X-86.037 Y-58.456 Z-1.44
X-86.057 Y-58.471 Z-1.52
X-86.067 Y-58.494 Z-1.6
X-86.064 Y-58.519 Z-1.68
X-86.05 Y-58.539 Z-1.76
X-86.028 Y-58.551 Z-1.84
X-86.003 Y-58.55 Z-1.92
X-85.982 Y-58.537 Z-2
X-85.969 Y-58.516 Z-2.08
X-85.968 Y-58.491 Z-2.16
X-85.98 Y-58.469 Z-2.24
X-86 Y-58.455 Z-2.32
X-86.025 Y-58.453 Z-2.4
X-86.048 Y-58.462 Z-2.48
X-86.063 Y-58.482 Z-2.56
X-86.067 Y-58.507 Z-2.64
X-86.058 Y-58.53 Z-2.72
X-86.04 Y-58.546 Z-2.8
X-86.016 Y-58.552 Z-2.88
X-85.992 Y-58.545 Z-2.96
X-85.974 Y-58.527 Z-3.04
X-85.967 Y-58.504 Z-3.12
X-85.973 Y-58.479 Z-3.2
G3 X-86.062 Y-58.525 I-0.045 J-0.023
X-85.973 Y-58.479 I0.045 J0.023
G1 X-85.987 Y-58.467 F1016
X-86.006 Y-58.468
X-86.017 Y-58.502
G0 Z5
Y-38.199
Z1.805
G1 Z0 F1016
Y-38.235
X-85.999 Y-38.242
X-85.982 Y-38.235
X-85.969 Y-38.213 Z-0.08 F2540
X-85.968 Y-38.188 Z-0.16
X-85.98 Y-38.166 Z-0.24
X-86 Y-38.152 Z-0.32
X-86.025 Y-38.15 Z-0.4
X-86.048 Y-38.16 Z-0.48
X-86.063 Y-38.179 Z-0.56
X-86.067 Y-38.204 Z-0.64
X-86.058 Y-38.227 Z-0.72
X-86.04 Y-38.244 Z-0.8
X-86.016 Y-38.249 Z-0.88
X-85.992 Y-38.242 Z-0.96
X-85.974 Y-38.225 Z-1.04
X-85.967 Y-38.201 Z-1.12
X-85.973 Y-38.177 Z-1.2
X-85.989 Y-38.158 Z-1.28
X-86.012 Y-38.149 Z-1.36
X-86.037 Y-38.153 Z-1.44
X-86.057 Y-38.169 Z-1.52
X-86.067 Y-38.191 Z-1.6
X-86.064 Y-38.216 Z-1.68
X-86.05 Y-38.237 Z-1.76
X-86.028 Y-38.248 Z-1.84
X-86.003 Y-38.247 Z-1.92
X-85.981 Y-38.233 Z-2.005
X-85.968 Y-38.21 Z-2.091
X-85.97 Y-38.183 Z-2.176
X-85.984 Y-38.161 Z-2.261
X-86.008 Y-38.15 Z-2.347
X-86.035 Y-38.152 Z-2.432
X-86.056 Y-38.168 Z-2.517
X-86.067 Y-38.192 Z-2.603
X-86.063 Y-38.219 Z-2.688
X-86.047 Y-38.239 Z-2.773
X-86.022 Y-38.249 Z-2.859
X-85.996 Y-38.245 Z-2.944
X-85.976 Y-38.228 Z-3.029
X-85.967 Y-38.202 Z-3.115
X-85.973 Y-38.177 Z-3.2
G3 X-86.062 Y-38.222 I-0.045 J-0.023
X-85.973 Y-38.177 I0.045 J0.023
G1 X-85.987 Y-38.164 F1016
X-86.006 Y-38.166
X-86.017 Y-38.199
G0 Z5
X-92.381
Z1.805
G1 Z0 F1016
Y-38.235
X-92.363 Y-38.242
X-92.346 Y-38.235
X-92.333 Y-38.213 Z-0.08 F2540
X-92.332 Y-38.188 Z-0.16
X-92.344 Y-38.166 Z-0.24
X-92.364 Y-38.152 Z-0.32
X-92.389 Y-38.15 Z-0.4
X-92.412 Y-38.16 Z-0.48
X-92.427 Y-38.179 Z-0.56
X-92.431 Y-38.204 Z-0.64
X-92.422 Y-38.227 Z-0.72
X-92.404 Y-38.244 Z-0.8
X-92.38 Y-38.249 Z-0.88
X-92.356 Y-38.242 Z-0.96
X-92.338 Y-38.225 Z-1.04
X-92.331 Y-38.201 Z-1.12
X-92.337 Y-38.177 Z-1.2
X-92.353 Y-38.158 Z-1.28
X-92.376 Y-38.149 Z-1.36
X-92.401 Y-38.153 Z-1.44
X-92.421 Y-38.169 Z-1.52
X-92.43 Y-38.191 Z-1.6
X-92.428 Y-38.216 Z-1.68
X-92.414 Y-38.237 Z-1.76
X-92.392 Y-38.248 Z-1.84
X-92.367 Y-38.247 Z-1.92
X-92.346 Y-38.235 Z-2
X-92.333 Y-38.213 Z-2.08
X-92.332 Y-38.188 Z-2.16
X-92.344 Y-38.166 Z-2.24
X-92.364 Y-38.152 Z-2.32
X-92.389 Y-38.15 Z-2.4
X-92.412 Y-38.16 Z-2.48
X-92.427 Y-38.179 Z-2.56
X-92.431 Y-38.204 Z-2.64
X-92.422 Y-38.227 Z-2.72
X-92.404 Y-38.244 Z-2.8
X-92.38 Y-38.249 Z-2.88
X-92.356 Y-38.242 Z-2.96
X-92.338 Y-38.225 Z-3.04
X-92.331 Y-38.201 Z-3.12
X-92.337 Y-38.177 Z-3.2
G3 X-92.426 Y-38.222 I-0.045 J-0.023
X-92.337 Y-38.177 I0.045 J0.023
G1 X-92.351 Y-38.164 F1016
X-92.37 Y-38.166
X-92.381 Y-38.199
G0 Z5
Y-31.835
Z1.805
G1 Z0 F1016
Y-31.871
X-92.363 Y-31.878
X-92.346 Y-31.871
X-92.333 Y-31.848 Z-0.085 F2540
Y-31.821 Z-0.171
X-92.347 Y-31.799 Z-0.256
X-92.371 Y-31.786 Z-0.341
X-92.397 Y-31.788 Z-0.427
X-92.419 Y-31.803 Z-0.512
X-92.43 Y-31.827 Z-0.597
X-92.428 Y-31.853 Z-0.683
X-92.412 Y-31.874 Z-0.768
X-92.388 Y-31.885 Z-0.853
X-92.362 Y-31.881 Z-0.939
X-92.341 Y-31.865 Z-1.024
X-92.331 Y-31.84 Z-1.109
X-92.336 Y-31.814 Z-1.195
X-92.353 Y-31.794 Z-1.28
X-92.376 Y-31.785 Z-1.36
X-92.401 Y-31.789 Z-1.44
X-92.421 Y-31.805 Z-1.52
X-92.43 Y-31.827 Z-1.6
X-92.428 Y-31.852 Z-1.68
X-92.414 Y-31.873 Z-1.76
X-92.392 Y-31.884 Z-1.84
X-92.367 Y-31.883 Z-1.92
X-92.346 Y-31.871 Z-2
X-92.333 Y-31.849 Z-2.08
X-92.332 Y-31.824 Z-2.16
X-92.344 Y-31.802 Z-2.24
X-92.364 Y-31.788 Z-2.32
X-92.389 Y-31.786 Z-2.4
X-92.412 Y-31.796 Z-2.48
X-92.427 Y-31.815 Z-2.56
X-92.431 Y-31.84 Z-2.64
X-92.422 Y-31.863 Z-2.72
X-92.404 Y-31.88 Z-2.8
X-92.38 Y-31.885 Z-2.88
X-92.356 Y-31.878 Z-2.96
X-92.338 Y-31.861 Z-3.04
X-92.331 Y-31.837 Z-3.12
X-92.337 Y-31.813 Z-3.2
G3 X-92.426 Y-31.858 I-0.045 J-0.023
X-92.337 Y-31.813 I0.045 J0.023
G1 X-92.351 Y-31.8 F1016
X-92.37 Y-31.802
X-92.381 Y-31.835
G0 Z5
X-86.017
Z1.805
G1 Z0 F1016
Y-31.871
X-85.999 Y-31.878
X-85.982 Y-31.871
X-85.969 Y-31.848 Z-0.085 F2540
Y-31.821 Z-0.171
X-85.983 Y-31.799 Z-0.256
X-86.007 Y-31.786 Z-0.341
X-86.033 Y-31.788 Z-0.427
X-86.055 Y-31.803 Z-0.512
X-86.066 Y-31.827 Z-0.597
X-86.064 Y-31.853 Z-0.683
X-86.048 Y-31.874 Z-0.768
X-86.024 Y-31.885 Z-0.853
X-85.998 Y-31.881 Z-0.939
X-85.977 Y-31.865 Z-1.024
X-85.967 Y-31.84 Z-1.109
X-85.972 Y-31.814 Z-1.195
X-85.989 Y-31.794 Z-1.28
X-86.012 Y-31.785 Z-1.36
X-86.037 Y-31.789 Z-1.44
X-86.057 Y-31.805 Z-1.52
X-86.067 Y-31.827 Z-1.6
X-86.064 Y-31.852 Z-1.68
X-86.05 Y-31.873 Z-1.76
X-86.028 Y-31.884 Z-1.84
X-86.003 Y-31.883 Z-1.92
X-85.982 Y-31.871 Z-2
X-85.969 Y-31.849 Z-2.08
X-85.968 Y-31.824 Z-2.16
X-85.98 Y-31.802 Z-2.24
X-86 Y-31.788 Z-2.32
X-86.025 Y-31.786 Z-2.4
X-86.048 Y-31.796 Z-2.48
X-86.063 Y-31.815 Z-2.56
X-86.067 Y-31.84 Z-2.64
X-86.058 Y-31.863 Z-2.72
X-86.04 Y-31.88 Z-2.8
X-86.016 Y-31.885 Z-2.88
X-85.992 Y-31.878 Z-2.96
X-85.974 Y-31.861 Z-3.04
X-85.967 Y-31.837 Z-3.12
X-85.973 Y-31.813 Z-3.2
G3 X-86.062 Y-31.858 I-0.045 J-0.023
X-85.973 Y-31.813 I0.045 J0.023
G1 X-85.987 Y-31.8 F1016
X-86.006 Y-31.802
X-86.017 Y-31.835
G0 Z5
Y-11.533
Z1.805
G1 Z0 F1016
Y-11.568
X-85.999 Y-11.575
X-85.982 Y-11.568
X-85.969 Y-11.547 Z-0.08 F2540
X-85.968 Y-11.522 Z-0.16
X-85.98 Y-11.499 Z-0.24
X-86 Y-11.486 Z-0.32
X-86.025 Y-11.483 Z-0.4
X-86.048 Y-11.493 Z-0.48
X-86.063 Y-11.513 Z-0.56
X-86.067 Y-11.537 Z-0.64
X-86.058 Y-11.561 Z-0.72
X-86.04 Y-11.577 Z-0.8
X-86.016 Y-11.583 Z-0.88
X-85.992 Y-11.576 Z-0.96
X-85.974 Y-11.558 Z-1.04
X-85.967 Y-11.534 Z-1.12
X-85.973 Y-11.51 Z-1.2
X-85.989 Y-11.491 Z-1.28
X-86.012 Y-11.483 Z-1.36
X-86.037 Y-11.487 Z-1.44
X-86.057 Y-11.502 Z-1.52
X-86.067 Y-11.525 Z-1.6
X-86.064 Y-11.55 Z-1.68
X-86.05 Y-11.57 Z-1.76
X-86.028 Y-11.581 Z-1.84
X-86.003 Z-1.92
X-85.982 Y-11.568 Z-2
X-85.969 Y-11.547 Z-2.08
X-85.968 Y-11.522 Z-2.16
X-85.98 Y-11.499 Z-2.24
X-86 Y-11.486 Z-2.32
X-86.025 Y-11.483 Z-2.4
X-86.048 Y-11.493 Z-2.48
X-86.063 Y-11.513 Z-2.56
X-86.067 Y-11.537 Z-2.64
X-86.058 Y-11.561 Z-2.72
X-86.04 Y-11.577 Z-2.8
X-86.016 Y-11.583 Z-2.88
X-85.992 Y-11.576 Z-2.96
X-85.974 Y-11.558 Z-3.04
X-85.967 Y-11.534 Z-3.12
X-85.973 Y-11.51 Z-3.2
G3 X-86.062 Y-11.555 I-0.045 J-0.023
X-85.973 Y-11.51 I0.045 J0.023
G1 X-85.987 Y-11.497 F1016
X-86.006 Y-11.499
X-86.017 Y-11.533
G0 Z5
X-92.381
Z1.805
G1 Z0 F1016
Y-11.568
X-92.363 Y-11.575
X-92.346 Y-11.568
X-92.333 Y-11.547 Z-0.08 F2540
X-92.332 Y-11.522 Z-0.16
X-92.344 Y-11.499 Z-0.24
X-92.364 Y-11.486 Z-0.32
X-92.389 Y-11.483 Z-0.4
X-92.412 Y-11.493 Z-0.48
X-92.427 Y-11.513 Z-0.56
X-92.431 Y-11.537 Z-0.64
X-92.422 Y-11.561 Z-0.72
X-92.404 Y-11.577 Z-0.8
X-92.38 Y-11.583 Z-0.88
X-92.356 Y-11.576 Z-0.96
X-92.338 Y-11.558 Z-1.04
X-92.331 Y-11.534 Z-1.12
X-92.337 Y-11.51 Z-1.2
X-92.353 Y-11.491 Z-1.28
X-92.376 Y-11.483 Z-1.36
X-92.401 Y-11.487 Z-1.44
X-92.421 Y-11.502 Z-1.52
X-92.43 Y-11.525 Z-1.6
X-92.428 Y-11.55 Z-1.68
X-92.414 Y-11.57 Z-1.76
X-92.392 Y-11.581 Z-1.84
X-92.367 Z-1.92
X-92.346 Y-11.568 Z-2
X-92.333 Y-11.547 Z-2.08
X-92.332 Y-11.522 Z-2.16
X-92.344 Y-11.499 Z-2.24
X-92.364 Y-11.486 Z-2.32
X-92.389 Y-11.483 Z-2.4
X-92.412 Y-11.493 Z-2.48
X-92.427 Y-11.513 Z-2.56
X-92.431 Y-11.537 Z-2.64
X-92.422 Y-11.561 Z-2.72
X-92.404 Y-11.577 Z-2.8
X-92.38 Y-11.583 Z-2.88
X-92.356 Y-11.576 Z-2.96
X-92.338 Y-11.558 Z-3.04
X-92.331 Y-11.534 Z-3.12
X-92.337 Y-11.51 Z-3.2
G3 X-92.426 Y-11.555 I-0.045 J-0.023
X-92.337 Y-11.51 I0.045 J0.023
G1 X-92.351 Y-11.497 F1016
X-92.37 Y-11.499
X-92.381 Y-11.533
G0 Z5
Y-5.169
Z1.805
G1 Z0 F1016
Y-5.204
X-92.363 Y-5.211
X-92.346 Y-5.204
X-92.333 Y-5.183 Z-0.08 F2540
X-92.332 Y-5.158 Z-0.16
X-92.344 Y-5.136 Z-0.24
X-92.364 Y-5.122 Z-0.32
X-92.389 Y-5.119 Z-0.4
X-92.412 Y-5.129 Z-0.48
X-92.427 Y-5.149 Z-0.56
X-92.431 Y-5.173 Z-0.64
X-92.422 Y-5.197 Z-0.72
X-92.404 Y-5.213 Z-0.8
X-92.38 Y-5.219 Z-0.88
X-92.356 Y-5.212 Z-0.96
X-92.338 Y-5.194 Z-1.04
X-92.331 Y-5.17 Z-1.12
X-92.337 Y-5.146 Z-1.2
X-92.353 Y-5.127 Z-1.28
X-92.376 Y-5.119 Z-1.36
X-92.401 Y-5.123 Z-1.44
X-92.421 Y-5.138 Z-1.52
X-92.43 Y-5.161 Z-1.6
X-92.428 Y-5.186 Z-1.68
X-92.414 Y-5.206 Z-1.76
X-92.392 Y-5.217 Z-1.84
X-92.367 Z-1.92
X-92.346 Y-5.204 Z-2
X-92.333 Y-5.183 Z-2.08
X-92.332 Y-5.158 Z-2.16
X-92.344 Y-5.136 Z-2.24
X-92.364 Y-5.122 Z-2.32
X-92.389 Y-5.119 Z-2.4
X-92.412 Y-5.129 Z-2.48
X-92.427 Y-5.149 Z-2.56
X-92.431 Y-5.173 Z-2.64
X-92.422 Y-5.197 Z-2.72
X-92.404 Y-5.213 Z-2.8
X-92.38 Y-5.219 Z-2.88
X-92.356 Y-5.212 Z-2.96
X-92.338 Y-5.194 Z-3.04
X-92.331 Y-5.17 Z-3.12
X-92.337 Y-5.146 Z-3.2
G3 X-92.426 Y-5.191 I-0.045 J-0.023
X-92.337 Y-5.146 I0.045 J0.023
G1 X-92.351 Y-5.133 F1016
X-92.37 Y-5.135
X-92.381 Y-5.169
G0 Z5
X-86.017
Z1.805
G1 Z0 F1016
Y-5.204
X-85.999 Y-5.211
X-85.982 Y-5.204
X-85.969 Y-5.183 Z-0.08 F2540
X-85.968 Y-5.158 Z-0.16
X-85.98 Y-5.136 Z-0.24
X-86 Y-5.122 Z-0.32
X-86.025 Y-5.119 Z-0.4
X-86.048 Y-5.129 Z-0.48
X-86.063 Y-5.149 Z-0.56
X-86.067 Y-5.173 Z-0.64
X-86.058 Y-5.197 Z-0.72
X-86.04 Y-5.213 Z-0.8
X-86.016 Y-5.219 Z-0.88
X-85.992 Y-5.212 Z-0.96
X-85.974 Y-5.194 Z-1.04
X-85.967 Y-5.17 Z-1.12
X-85.973 Y-5.146 Z-1.2
X-85.989 Y-5.127 Z-1.28
X-86.012 Y-5.119 Z-1.36
X-86.037 Y-5.123 Z-1.44
X-86.057 Y-5.138 Z-1.52
X-86.067 Y-5.161 Z-1.6
X-86.064 Y-5.186 Z-1.68
X-86.05 Y-5.206 Z-1.76
X-86.028 Y-5.217 Z-1.84
X-86.003 Z-1.92
X-85.982 Y-5.204 Z-2
X-85.969 Y-5.183 Z-2.08
X-85.968 Y-5.158 Z-2.16
X-85.98 Y-5.136 Z-2.24
X-86 Y-5.122 Z-2.32
X-86.025 Y-5.119 Z-2.4
X-86.048 Y-5.129 Z-2.48
X-86.063 Y-5.149 Z-2.56
X-86.067 Y-5.173 Z-2.64
X-86.058 Y-5.197 Z-2.72
X-86.04 Y-5.213 Z-2.8
X-86.016 Y-5.219 Z-2.88
X-85.992 Y-5.212 Z-2.96
X-85.974 Y-5.194 Z-3.04
X-85.967 Y-5.17 Z-3.12
X-85.973 Y-5.146 Z-3.2
G3 X-86.062 Y-5.191 I-0.045 J-0.023
X-85.973 Y-5.146 I0.045 J0.023
G1 X-85.987 Y-5.133 F1016
X-86.006 Y-5.135
X-86.017 Y-5.169
G0 Z15

(Bohrfrasen8)
S8000 M3
X-24.534 Y-117.675
Z15
Z1.805
G1 Z0 F1016
X-24.437
X-24.403 Y-117.669
X-24.375 Y-117.65
X-24.356 Y-117.621
X-24.349 Y-117.588
G3 X-24.699 Y-117.588 Z-0.5 I-0.175 J0 F2540
X-24.349 Y-117.588 Z-1 I0.175 J0
X-24.699 Y-117.588 Z-1.5 I-0.175 J0
X-24.349 Y-117.588 Z-2 I0.175 J0
X-24.699 Y-117.588 Z-2.5 I-0.175 J0
X-24.349 Y-117.588 Z-3 I0.175 J0
X-24.699 Y-117.588 I-0.175 J0
X-24.349 Y-117.588 I0.175 J0
G1 X-24.356 Y-117.554 F1016
X-24.375 Y-117.526
X-24.403 Y-117.507
X-24.437 Y-117.5
X-24.534
G0 Z5
X-6.483 Y-135.532
Z1.805
G1 Z0 F1016
X-6.58
X-6.614 Y-135.538
X-6.642 Y-135.557
X-6.661 Y-135.586
X-6.668 Y-135.619
G3 X-6.318 Y-135.619 Z-0.5 I0.175 J0 F2540
X-6.668 Y-135.619 Z-1 I-0.175 J0
X-6.318 Y-135.619 Z-1.5 I0.175 J0
X-6.668 Y-135.619 Z-2 I-0.175 J0
X-6.318 Y-135.619 Z-2.5 I0.175 J0
X-6.668 Y-135.619 Z-3 I-0.175 J0
X-6.318 Y-135.619 I0.175 J0
X-6.668 Y-135.619 I-0.175 J0
G1 X-6.661 Y-135.653 F1016
X-6.642 Y-135.681
X-6.614 Y-135.7
X-6.58 Y-135.707
X-6.483
G0 Z5
X-24.534 Y-153.738
Z1.805
G1 Z0 F1016
X-24.437
X-24.403 Y-153.731
X-24.375 Y-153.712
X-24.356 Y-153.684
X-24.349 Y-153.65
G3 X-24.699 Y-153.65 Z-0.5 I-0.175 J0 F2540
X-24.349 Y-153.65 Z-1 I0.175 J0
X-24.699 Y-153.65 Z-1.5 I-0.175 J0
X-24.349 Y-153.65 Z-2 I0.175 J0
X-24.699 Y-153.65 Z-2.5 I-0.175 J0
X-24.349 Y-153.65 Z-3 I0.175 J0
X-24.699 Y-153.65 I-0.175 J0
X-24.349 Y-153.65 I0.175 J0
G1 X-24.356 Y-153.617 F1016
X-24.375 Y-153.588
X-24.403 Y-153.569
X-24.437 Y-153.563
X-24.534
G0 Z5
X-42.565 Y-135.707
Z1.805
G1 Z0 F1016
X-42.468
X-42.434 Y-135.7
X-42.406 Y-135.681
X-42.387 Y-135.653
X-42.38 Y-135.619
G3 X-42.73 Y-135.619 Z-0.5 I-0.175 J0 F2540
X-42.38 Y-135.619 Z-1 I0.175 J0
X-42.73 Y-135.619 Z-1.5 I-0.175 J0
X-42.38 Y-135.619 Z-2 I0.175 J0
X-42.73 Y-135.619 Z-2.5 I-0.175 J0
X-42.38 Y-135.619 Z-3 I0.175 J0
X-42.73 Y-135.619 I-0.175 J0
X-42.38 Y-135.619 I0.175 J0
G1 X-42.387 Y-135.586 F1016
X-42.406 Y-135.557
X-42.434 Y-135.538
X-42.468 Y-135.532
X-42.565
G0 Z5
X-58.483
Z1.805
G1 Z0 F1016
X-58.58
X-58.614 Y-135.538
X-58.642 Y-135.557
X-58.661 Y-135.586
X-58.668 Y-135.619
G3 X-58.318 Y-135.619 Z-0.5 I0.175 J0 F2540
X-58.668 Y-135.619 Z-1 I-0.175 J0
X-58.318 Y-135.619 Z-1.5 I0.175 J0
X-58.668 Y-135.619 Z-2 I-0.175 J0
X-58.318 Y-135.619 Z-2.5 I0.175 J0
X-58.668 Y-135.619 Z-3 I-0.175 J0
X-58.318 Y-135.619 I0.175 J0
X-58.668 Y-135.619 I-0.175 J0
G1 X-58.661 Y-135.653 F1016
X-58.642 Y-135.681
X-58.614 Y-135.7
X-58.58 Y-135.707
X-58.483
G0 Z5
X-76.514 Y-153.563
Z1.805
G1 Z0 F1016
X-76.612
X-76.645 Y-153.569
X-76.674 Y-153.588
X-76.693 Y-153.617
X-76.699 Y-153.65
G3 X-76.349 Y-153.65 Z-0.5 I0.175 J0 F2540
X-76.699 Y-153.65 Z-1 I-0.175 J0
X-76.349 Y-153.65 Z-1.5 I0.175 J0
X-76.699 Y-153.65 Z-2 I-0.175 J0
X-76.349 Y-153.65 Z-2.5 I0.175 J0
X-76.699 Y-153.65 Z-3 I-0.175 J0
X-76.349 Y-153.65 I0.175 J0
X-76.699 Y-153.65 I-0.175 J0
G1 X-76.693 Y-153.684 F1016
X-76.674 Y-153.712
X-76.645 Y-153.731
X-76.612 Y-153.738
X-76.514
G0 Z5
X-94.565 Y-135.707
Z1.805
G1 Z0 F1016
X-94.468
X-94.434 Y-135.7
X-94.406 Y-135.681
X-94.387 Y-135.653
X-94.38 Y-135.619
G3 X-94.73 Y-135.619 Z-0.5 I-0.175 J0 F2540
X-94.38 Y-135.619 Z-1 I0.175 J0
X-94.73 Y-135.619 Z-1.5 I-0.175 J0
X-94.38 Y-135.619 Z-2 I0.175 J0
X-94.73 Y-135.619 Z-2.5 I-0.175 J0
X-94.38 Y-135.619 Z-3 I0.175 J0
X-94.73 Y-135.619 I-0.175 J0
X-94.38 Y-135.619 I0.175 J0
G1 X-94.387 Y-135.586 F1016
X-94.406 Y-135.557
X-94.434 Y-135.538
X-94.468 Y-135.532
X-94.565
G0 Z5
X-76.534 Y-117.675
Z1.805
G1 Z0 F1016
X-76.437
X-76.403 Y-117.669
X-76.375 Y-117.65
X-76.356 Y-117.621
X-76.349 Y-117.588
G3 X-76.699 Y-117.588 Z-0.5 I-0.175 J0 F2540
X-76.349 Y-117.588 Z-1 I0.175 J0
X-76.699 Y-117.588 Z-1.5 I-0.175 J0
X-76.349 Y-117.588 Z-2 I0.175 J0
X-76.699 Y-117.588 Z-2.5 I-0.175 J0
X-76.349 Y-117.588 Z-3 I0.175 J0
X-76.699 Y-117.588 I-0.175 J0
X-76.349 Y-117.588 I0.175 J0
G1 X-76.356 Y-117.554 F1016
X-76.375 Y-117.526
X-76.403 Y-117.507
X-76.437 Y-117.5
X-76.534
G0 Z15

(2D Adaptive1)
S6000 M3
X-94.395 Y-153.962
Z15
Z5
Z1.895
G1 Z1.7 F1016
Z-0.3
G3 X-94.866 Y-153.333 I-3.137 J-1.857
G1 X-94.919 Y-153.28 F2540
X-94.988 Y-153.251
X-95.063 Y-153.246
X-95.203 Y-153.299
X-95.316 Y-153.398
X-95.393 Y-153.527
X-95.441 Y-153.669
X-95.45 Y-153.819
X-95.435 Y-153.968
X-95.387 Y-154.11
X-95.314 Y-154.241
X-95.226 Y-154.363
X-95.113 Y-154.461
X-94.986 Y-154.541
X-94.851 Y-154.607
X-94.706 Y-154.642
X-94.556 Y-154.656
X-94.406 Y-154.653
X-94.26 Y-154.619
X-94.12 Y-154.565
X-93.986 Y-154.497
X-93.87 Y-154.403
X-93.767 Y-154.294
X-93.676 Y-154.174
X-93.611 Y-154.039
X-93.566 Y-153.896
X-93.535 Y-153.749
X-93.534 Y-153.599
X-93.555 Y-153.451
X-93.59 Y-153.305
X-93.653 Y-153.169
X-93.735 Y-153.043
X-93.83 Y-152.927
X-93.945 Y-152.83
X-94.072 Y-152.752
X-94.208 Y-152.687
X-94.353 Y-152.649
X-94.5 Y-152.623
X-94.65 Y-152.609
X-94.8
X-94.949 Y-152.623
X-95.096 Y-152.655
X-95.238 Y-152.702
X-95.373 Y-152.768
X-95.499 Y-152.85
X-95.613 Y-152.947
X-95.715 Y-153.057
X-95.8 Y-153.18
X-95.87 Y-153.313
X-95.924 Y-153.453
X-95.96 Y-153.599
X-95.978 Y-153.748
Y-153.898
X-95.961 Y-154.047
X-95.929 Y-154.193
X-95.879 Y-154.335
X-95.814 Y-154.47
X-95.735 Y-154.597
X-95.643 Y-154.716
X-95.54 Y-154.825
X-95.425 Y-154.921
X-95.301 Y-155.005
X-95.169 Y-155.077
X-95.03 Y-155.135
X-94.887 Y-155.179
X-94.74 Y-155.208
X-94.59 Y-155.221
X-94.44
X-94.291 Y-155.207
X-94.144 Y-155.177
X-94.001 Y-155.133
X-93.862 Y-155.076
X-93.73 Y-155.005
X-93.604 Y-154.923
X-93.487 Y-154.829
X-93.38 Y-154.724
X-93.284 Y-154.609
X-93.198 Y-154.486
X-93.125 Y-154.355
X-93.064 Y-154.218
X-93.017 Y-154.075
X-92.984 Y-153.929
X-92.964 Y-153.78
X-92.958 Y-153.631
X-92.967 Y-153.481
X-92.99 Y-153.333
X-93.027 Y-153.187
X-93.076 Y-153.046
X-93.139 Y-152.91
X-93.215 Y-152.78
X-93.303 Y-152.658
X-93.401 Y-152.545
X-93.51 Y-152.442
X-93.628 Y-152.349
X-93.753 Y-152.267
X-93.887 Y-152.196
X-94.032 Y-152.132
X-94.181 Y-152.081
X-94.329 Y-152.043
X-94.485 Y-152.016
X-94.645 Y-152.001
X-94.795 Y-152
X-94.948 Y-152.011
X-95.101 Y-152.034
X-95.247 Y-152.068
X-95.39 Y-152.115
X-95.53 Y-152.174
X-95.59 Y-152.205
X-95.63 Y-152.228
X-95.668 Y-152.256
X-95.703 Y-152.287
X-96.043 Y-152.627
X-96.181 Y-152.78
X-96.273 Y-152.899
X-96.352 Y-153.027
X-96.419 Y-153.161
X-96.474 Y-153.3
X-96.516 Y-153.444
X-96.545 Y-153.591
X-96.562 Y-153.74
X-96.567 Y-153.89
X-96.559 Y-154.04
X-96.538 Y-154.193
X-96.506 Y-154.34
X-96.462 Y-154.487
X-96.404 Y-154.634
X-96.334 Y-154.778
X-96.255 Y-154.911
X-96.163 Y-155.04
X-96.058 Y-155.165
X-95.941 Y-155.284
X-95.818 Y-155.391
X-95.687 Y-155.487
X-95.546 Y-155.574
X-95.396 Y-155.651
X-95.24 Y-155.716
X-95.078 Y-155.768
X-94.916 Y-155.806
X-94.747 Y-155.832
X-94.574 Y-155.844
X-94.401 Y-155.842
X-94.385 Y-155.841
X-94.282 Y-155.819
X-94.186 Y-155.775
X-94.104 Y-155.709
X-92.783 Y-154.389
X-92.683 Y-154.277
X-92.598 Y-154.153
X-92.531 Y-154.019
X-92.481 Y-153.878
X-92.446 Y-153.732
X-92.426 Y-153.583
X-92.42 Y-153.433
X-92.427 Y-153.284
X-92.446 Y-153.135
X-92.479 Y-152.984
X-92.526 Y-152.833
X-92.583 Y-152.687
X-92.654 Y-152.542
X-92.739 Y-152.399
X-92.838 Y-152.26
X-92.865 Y-152.229
X-92.875 Y-152.219
G3 X-93.202 Y-152.371 I-0.133 J-0.143 F1016
G1 X-93.187 Y-152.694
X-93.128 Y-153.914 F2540
X-93.111 Y-154.255 F1016
G3 X-92.783 Y-154.389 I0.195 J0.009
G1 X-92.242 Y-153.847 F2540
X-92.216 Y-153.821
X-92.189 Y-153.793
X-92.105 Y-153.668
X-92.037 Y-153.534
X-92.017 Y-153.474
X-91.999 Y-153.397
X-91.994 Y-153.319
X-92.002 Y-153.241
G3 X-92.376 Y-153.22 I-0.19 J-0.045 F1016
G1 X-92.418 Y-153.339
X-92.507 Y-153.586
G3 X-92.189 Y-153.793 I0.184 J-0.066
G1 X-92.167 Y-153.764 F2540
X-92.054 Y-153.594
X-92.036 Y-153.565
X-92.022 Y-153.537
X-92.013 Y-153.508
X-91.996 Y-153.423
X-91.986 Y-153.366
Y-153.338
X-91.989 Y-153.309
X-92.011 Y-153.196
X-92.018 Y-153.173
X-92.027 Y-153.15
X-92.054 Y-153.104
X-92.167 Y-152.934
X-92.182 Y-152.914
X-92.2 Y-152.894
X-93.035 Y-152.059
X-93.21 Y-151.901
X-93.352 Y-151.791
X-93.507 Y-151.691
X-93.674 Y-151.601
X-93.852 Y-151.523
X-94.036 Y-151.459
X-94.227 Y-151.409
X-94.423 Y-151.375
X-94.547 Y-151.364
X-94.679 Y-151.371
X-94.804 Y-151.416
X-94.91 Y-151.495
G3 X-94.833 Y-151.812 I0.143 J-0.133 F1016
G1 X-94.457 Y-151.945
X-93.494 Y-152.286 F2540
X-93.243 Y-152.375 F1016
G3 X-93.035 Y-152.059 I0.065 J0.184
G1 X-93.799 Y-151.295 F2540
X-93.819 Y-151.277
X-93.873 Y-151.24
X-94.009 Y-151.149
X-94.055 Y-151.123
X-94.078 Y-151.113
X-94.101 Y-151.107
X-94.214 Y-151.084
X-94.243 Y-151.081
X-94.271
X-94.328 Y-151.091
X-94.413 Y-151.108
X-94.442 Y-151.117
X-94.471 Y-151.13
X-94.555 Y-151.186
X-94.67 Y-151.263
X-94.698 Y-151.284
X-95.703 Y-152.287
G3 X-95.576 Y-152.62 I0.138 J-0.138 F1016
G1 X-95.316 Y-152.634
X-95.278 Y-152.633
X-95.241 Y-152.624
G3 X-95.353 Y-152.251 I-0.065 J0.184 F2540
G1 X-95.361 Y-152.253
G3 X-96.043 Y-152.627 I0.398 J-1.532 F1016
G1 X-96.757 Y-153.341 F2540
X-96.857 Y-153.452
X-96.936 Y-153.58
X-96.996 Y-153.717
X-97.038 Y-153.861
X-97.064 Y-154.012
X-97.061 Y-154.112
X-97.035 Y-154.209
X-96.989 Y-154.298
G3 X-96.644 Y-154.239 I0.158 J0.114 F1016
G1 X-96.544 Y-153.903
X-96.515 Y-153.804 F2540
X-96.437 Y-153.539 F1016
G3 X-96.757 Y-153.341 I-0.187 J0.055
G1 X-96.923 Y-153.507 F2540
X-96.944 Y-153.537
X-97.057 Y-153.706
X-97.076 Y-153.735
X-97.089 Y-153.764
X-97.098 Y-153.793
X-97.115 Y-153.878
X-97.125 Y-153.935
Y-153.963
X-97.122 Y-153.992
X-97.099 Y-154.105
X-97.093 Y-154.128
X-97.083 Y-154.151
X-97.057 Y-154.196
X-96.943 Y-154.366
X-96.929 Y-154.386
X-96.911 Y-154.406
X-95.312 Y-156.006
X-95.292 Y-156.024
X-95.238 Y-156.061
X-95.101 Y-156.152
X-95.056 Y-156.178
X-95.033 Y-156.188
X-95.01 Y-156.194
X-94.897 Y-156.217
X-94.868 Y-156.22
X-94.84
X-94.783 Y-156.21
X-94.698 Y-156.193
X-94.669 Y-156.184
X-94.64 Y-156.171
X-94.555 Y-156.115
X-94.441 Y-156.038
X-94.413 Y-156.017
X-94.104 Y-155.709
G3 X-94.373 Y-155.428 I-0.143 J0.133 F1016
G1 X-94.382 Y-155.436
X-94.403 Y-155.475 Z-0.291
X-94.422 Y-155.512 Z-0.273
X-94.439 Y-155.544 Z-0.245
X-94.441 Y-155.576 Z-0.203
X-94.44 Y-155.596 Z-0.156
Y-155.603 Z-0.105
G0 Z5
X-94.395 Y-153.962
Z1.595
G1 Z1.4 F1016
Z-0.6
G3 X-94.866 Y-153.333 I-3.137 J-1.857
G1 X-94.919 Y-153.28 F2540
X-94.988 Y-153.251
X-95.063 Y-153.246
X-95.203 Y-153.299
X-95.316 Y-153.398
X-95.393 Y-153.527
X-95.441 Y-153.669
X-95.45 Y-153.819
X-95.435 Y-153.968
X-95.387 Y-154.11
X-95.314 Y-154.241
X-95.226 Y-154.363
X-95.113 Y-154.461
X-94.986 Y-154.541
X-94.851 Y-154.607
X-94.706 Y-154.642
X-94.556 Y-154.656
X-94.406 Y-154.653
X-94.26 Y-154.619
X-94.12 Y-154.565
X-93.986 Y-154.497
X-93.87 Y-154.403
X-93.767 Y-154.294
X-93.676 Y-154.174
X-93.611 Y-154.039
X-93.566 Y-153.896
X-93.535 Y-153.749
X-93.534 Y-153.599
X-93.555 Y-153.451
X-93.59 Y-153.305
X-93.653 Y-153.169
X-93.735 Y-153.043
X-93.83 Y-152.927
X-93.945 Y-152.83
X-94.072 Y-152.752
X-94.208 Y-152.687
X-94.353 Y-152.649
X-94.5 Y-152.623
X-94.65 Y-152.609
X-94.8
X-94.949 Y-152.623
X-95.096 Y-152.655
X-95.238 Y-152.702
X-95.373 Y-152.768
X-95.499 Y-152.85
X-95.613 Y-152.947
X-95.715 Y-153.057
X-95.8 Y-153.18
X-95.87 Y-153.313
X-95.924 Y-153.453
X-95.96 Y-153.599
X-95.978 Y-153.748
Y-153.898
X-95.961 Y-154.047
X-95.929 Y-154.193
X-95.879 Y-154.335
X-95.814 Y-154.47
X-95.735 Y-154.597
X-95.643 Y-154.716
X-95.54 Y-154.825
X-95.425 Y-154.921
X-95.301 Y-155.005
X-95.169 Y-155.077
X-95.03 Y-155.135
X-94.887 Y-155.179
X-94.74 Y-155.208
X-94.59 Y-155.221
X-94.44
X-94.291 Y-155.207
X-94.144 Y-155.177
X-94.001 Y-155.133
X-93.862 Y-155.076
X-93.73 Y-155.005
X-93.604 Y-154.923
X-93.487 Y-154.829
X-93.38 Y-154.724
X-93.284 Y-154.609
X-93.198 Y-154.486
X-93.125 Y-154.355
X-93.064 Y-154.218
X-93.017 Y-154.075
X-92.984 Y-153.929
X-92.964 Y-153.78
X-92.958 Y-153.631
X-92.967 Y-153.481
X-92.99 Y-153.333
X-93.027 Y-153.187
X-93.076 Y-153.046
X-93.139 Y-152.91
X-93.215 Y-152.78
X-93.303 Y-152.658
X-93.401 Y-152.545
X-93.51 Y-152.442
X-93.628 Y-152.349
X-93.753 Y-152.267
X-93.887 Y-152.196
X-94.032 Y-152.132
X-94.181 Y-152.081
X-94.329 Y-152.043
X-94.485 Y-152.016
X-94.645 Y-152.001
X-94.795 Y-152
X-94.948 Y-152.011
X-95.101 Y-152.034
X-95.247 Y-152.068
X-95.39 Y-152.115
X-95.53 Y-152.174
X-95.59 Y-152.205
X-95.63 Y-152.228
X-95.668 Y-152.256
X-95.703 Y-152.287
X-96.043 Y-152.627
X-96.181 Y-152.78
X-96.273 Y-152.899
X-96.352 Y-153.027
X-96.419 Y-153.161
X-96.474 Y-153.3
X-96.516 Y-153.444
X-96.545 Y-153.591
X-96.562 Y-153.74
X-96.567 Y-153.89
X-96.559 Y-154.04
X-96.538 Y-154.193
X-96.506 Y-154.34
X-96.462 Y-154.487
X-96.404 Y-154.634
X-96.334 Y-154.778
X-96.255 Y-154.911
X-96.163 Y-155.04
X-96.058 Y-155.165
X-95.941 Y-155.284
X-95.818 Y-155.391
X-95.687 Y-155.487
X-95.546 Y-155.574
X-95.396 Y-155.651
X-95.24 Y-155.716
X-95.078 Y-155.768
X-94.916 Y-155.806
X-94.747 Y-155.832
X-94.574 Y-155.844
X-94.401 Y-155.842
X-94.385 Y-155.841
X-94.282 Y-155.819
X-94.186 Y-155.775
X-94.104 Y-155.709
X-92.783 Y-154.389
X-92.683 Y-154.277
X-92.598 Y-154.153
X-92.531 Y-154.019
X-92.481 Y-153.878
X-92.446 Y-153.732
X-92.426 Y-153.583
X-92.42 Y-153.433
X-92.427 Y-153.284
X-92.446 Y-153.135
X-92.479 Y-152.984
X-92.526 Y-152.833
X-92.583 Y-152.687
X-92.654 Y-152.542
X-92.739 Y-152.399
X-92.838 Y-152.26
X-92.865 Y-152.229
X-92.875 Y-152.219
G3 X-93.202 Y-152.371 I-0.133 J-0.143 F1016
G1 X-93.187 Y-152.694
X-93.128 Y-153.914 F2540
X-93.111 Y-154.255 F1016
G3 X-92.783 Y-154.389 I0.195 J0.009
G1 X-92.242 Y-153.847 F2540
X-92.216 Y-153.821
X-92.189 Y-153.793
X-92.105 Y-153.668
X-92.037 Y-153.534
X-92.017 Y-153.474
X-91.999 Y-153.397
X-91.994 Y-153.319
X-92.002 Y-153.241
G3 X-92.376 Y-153.22 I-0.19 J-0.045 F1016
G1 X-92.418 Y-153.339
X-92.507 Y-153.586
G3 X-92.189 Y-153.793 I0.184 J-0.066
G1 X-92.167 Y-153.764 F2540
X-92.054 Y-153.594
X-92.036 Y-153.565
X-92.022 Y-153.537
X-92.013 Y-153.508
X-91.996 Y-153.423
X-91.986 Y-153.366
Y-153.338
X-91.989 Y-153.309
X-92.011 Y-153.196
X-92.018 Y-153.173
X-92.027 Y-153.15
X-92.054 Y-153.104
X-92.167 Y-152.934
X-92.182 Y-152.914
X-92.2 Y-152.894
X-93.035 Y-152.059
X-93.21 Y-151.901
X-93.352 Y-151.791
X-93.507 Y-151.691
X-93.674 Y-151.601
X-93.852 Y-151.523
X-94.036 Y-151.459
X-94.227 Y-151.409
X-94.423 Y-151.375
X-94.547 Y-151.364
X-94.679 Y-151.371
X-94.804 Y-151.416
X-94.91 Y-151.495
G3 X-94.833 Y-151.812 I0.143 J-0.133 F1016
G1 X-94.457 Y-151.945
X-93.494 Y-152.286 F2540
X-93.243 Y-152.375 F1016
G3 X-93.035 Y-152.059 I0.065 J0.184
G1 X-93.799 Y-151.295 F2540
X-93.819 Y-151.277
X-93.873 Y-151.24
X-94.009 Y-151.149
X-94.055 Y-151.123
X-94.078 Y-151.113
X-94.101 Y-151.107
X-94.214 Y-151.084
X-94.243 Y-151.081
X-94.271
X-94.328 Y-151.091
X-94.413 Y-151.108
X-94.442 Y-151.117
X-94.471 Y-151.13
X-94.555 Y-151.186
X-94.67 Y-151.263
X-94.698 Y-151.284
X-95.703 Y-152.287
G3 X-95.576 Y-152.62 I0.138 J-0.138 F1016
G1 X-95.316 Y-152.634
X-95.278 Y-152.633
X-95.241 Y-152.624
G3 X-95.353 Y-152.251 I-0.065 J0.184 F2540
G1 X-95.361 Y-152.253
G3 X-96.043 Y-152.627 I0.398 J-1.532 F1016
G1 X-96.757 Y-153.341 F2540
X-96.857 Y-153.452
X-96.936 Y-153.58
X-96.996 Y-153.717
X-97.038 Y-153.861
X-97.064 Y-154.012
X-97.061 Y-154.112
X-97.035 Y-154.209
X-96.989 Y-154.298
G3 X-96.644 Y-154.239 I0.158 J0.114 F1016
G1 X-96.544 Y-153.903
X-96.515 Y-153.804 F2540
X-96.437 Y-153.539 F1016
G3 X-96.757 Y-153.341 I-0.187 J0.055
G1 X-96.923 Y-153.507 F2540
X-96.944 Y-153.537
X-97.057 Y-153.706
X-97.076 Y-153.735
X-97.089 Y-153.764
X-97.098 Y-153.793
X-97.115 Y-153.878
X-97.125 Y-153.935
Y-153.963
X-97.122 Y-153.992
X-97.099 Y-154.105
X-97.093 Y-154.128
X-97.083 Y-154.151
X-97.057 Y-154.196
X-96.943 Y-154.366
X-96.929 Y-154.386
X-96.911 Y-154.406
X-95.312 Y-156.006
X-95.292 Y-156.024
X-95.238 Y-156.061
X-95.101 Y-156.152
X-95.056 Y-156.178
X-95.033 Y-156.188
X-95.01 Y-156.194
X-94.897 Y-156.217
X-94.868 Y-156.22
X-94.84
X-94.783 Y-156.21
X-94.698 Y-156.193
X-94.669 Y-156.184
X-94.64 Y-156.171
X-94.555 Y-156.115
X-94.441 Y-156.038
X-94.413 Y-156.017
X-94.104 Y-155.709
G3 X-94.373 Y-155.428 I-0.143 J0.133 F1016
G1 X-94.382 Y-155.436
X-94.403 Y-155.475 Z-0.591
X-94.422 Y-155.512 Z-0.573
X-94.439 Y-155.544 Z-0.545
X-94.441 Y-155.576 Z-0.503
X-94.44 Y-155.596 Z-0.456
Y-155.603 Z-0.405
G0 Z5
X-94.395 Y-153.962
Z1.295
G1 Z1.1 F1016
Z-0.9
G3 X-94.866 Y-153.333 I-3.137 J-1.857
G1 X-94.919 Y-153.28 F2540
X-94.988 Y-153.251
X-95.063 Y-153.246
X-95.203 Y-153.299
X-95.316 Y-153.398
X-95.393 Y-153.527
X-95.441 Y-153.669
X-95.45 Y-153.819
X-95.435 Y-153.968
X-95.387 Y-154.11
X-95.314 Y-154.241
X-95.226 Y-154.363
X-95.113 Y-154.461
X-94.986 Y-154.541
X-94.851 Y-154.607
X-94.706 Y-154.642
X-94.556 Y-154.656
X-94.406 Y-154.653
X-94.26 Y-154.619
X-94.12 Y-154.565
X-93.986 Y-154.497
X-93.87 Y-154.403
X-93.767 Y-154.294
X-93.676 Y-154.174
X-93.611 Y-154.039
X-93.566 Y-153.896
X-93.535 Y-153.749
X-93.534 Y-153.599
X-93.555 Y-153.451
X-93.59 Y-153.305
X-93.653 Y-153.169
X-93.735 Y-153.043
X-93.83 Y-152.927
X-93.945 Y-152.83
X-94.072 Y-152.752
X-94.208 Y-152.687
X-94.353 Y-152.649
X-94.5 Y-152.623
X-94.65 Y-152.609
X-94.8
X-94.949 Y-152.623
X-95.096 Y-152.655
X-95.238 Y-152.702
X-95.373 Y-152.768
X-95.499 Y-152.85
X-95.613 Y-152.947
X-95.715 Y-153.057
X-95.8 Y-153.18
X-95.87 Y-153.313
X-95.924 Y-153.453
X-95.96 Y-153.599
X-95.978 Y-153.748
Y-153.898
X-95.961 Y-154.047
X-95.929 Y-154.193
X-95.879 Y-154.335
X-95.814 Y-154.47
X-95.735 Y-154.597
X-95.643 Y-154.716
X-95.54 Y-154.825
X-95.425 Y-154.921
X-95.301 Y-155.005
X-95.169 Y-155.077
X-95.03 Y-155.135
X-94.887 Y-155.179
X-94.74 Y-155.208
X-94.59 Y-155.221
X-94.44
X-94.291 Y-155.207
X-94.144 Y-155.177
X-94.001 Y-155.133
X-93.862 Y-155.076
X-93.73 Y-155.005
X-93.604 Y-154.923
X-93.487 Y-154.829
X-93.38 Y-154.724
X-93.284 Y-154.609
X-93.198 Y-154.486
X-93.125 Y-154.355
X-93.064 Y-154.218
X-93.017 Y-154.075
X-92.984 Y-153.929
X-92.964 Y-153.78
X-92.958 Y-153.631
X-92.967 Y-153.481
X-92.99 Y-153.333
X-93.027 Y-153.187
X-93.076 Y-153.046
X-93.139 Y-152.91
X-93.215 Y-152.78
X-93.303 Y-152.658
X-93.401 Y-152.545
X-93.51 Y-152.442
X-93.628 Y-152.349
X-93.753 Y-152.267
X-93.887 Y-152.196
X-94.032 Y-152.132
X-94.181 Y-152.081
X-94.329 Y-152.043
X-94.485 Y-152.016
X-94.645 Y-152.001
X-94.795 Y-152
X-94.948 Y-152.011
X-95.101 Y-152.034
X-95.247 Y-152.068
X-95.39 Y-152.115
X-95.53 Y-152.174
X-95.59 Y-152.205
X-95.63 Y-152.228
X-95.668 Y-152.256
X-95.703 Y-152.287
X-96.043 Y-152.627
X-96.181 Y-152.78
X-96.273 Y-152.899
X-96.352 Y-153.027
X-96.419 Y-153.161
X-96.474 Y-153.3
X-96.516 Y-153.444
X-96.545 Y-153.591
X-96.562 Y-153.74
X-96.567 Y-153.89
X-96.559 Y-154.04
X-96.538 Y-154.193
X-96.506 Y-154.34
X-96.462 Y-154.487
X-96.404 Y-154.634
X-96.334 Y-154.778
X-96.255 Y-154.911
X-96.163 Y-155.04
X-96.058 Y-155.165
X-95.941 Y-155.284
X-95.818 Y-155.391
X-95.687 Y-155.487
X-95.546 Y-155.574
X-95.396 Y-155.651
X-95.24 Y-155.716
X-95.078 Y-155.768
X-94.916 Y-155.806
X-94.747 Y-155.832
X-94.574 Y-155.844
X-94.401 Y-155.842
X-94.385 Y-155.841
X-94.282 Y-155.819
X-94.186 Y-155.775
X-94.104 Y-155.709
X-92.783 Y-154.389
X-92.683 Y-154.277
X-92.598 Y-154.153
X-92.531 Y-154.019
X-92.481 Y-153.878
X-92.446 Y-153.732
X-92.426 Y-153.583
X-92.42 Y-153.433
X-92.427 Y-153.284
X-92.446 Y-153.135
X-92.479 Y-152.984
X-92.526 Y-152.833
X-92.583 Y-152.687
X-92.654 Y-152.542
X-92.739 Y-152.399
X-92.838 Y-152.26
X-92.865 Y-152.229
X-92.875 Y-152.219
G3 X-93.202 Y-152.371 I-0.133 J-0.143 F1016
G1 X-93.187 Y-152.694
X-93.128 Y-153.914 F2540
X-93.111 Y-154.255 F1016
G3 X-92.783 Y-154.389 I0.195 J0.009
G1 X-92.242 Y-153.847 F2540
X-92.216 Y-153.821
X-92.189 Y-153.793
X-92.105 Y-153.668
X-92.037 Y-153.534
X-92.017 Y-153.474
X-91.999 Y-153.397
X-91.994 Y-153.319
X-92.002 Y-153.241
G3 X-92.376 Y-153.22 I-0.19 J-0.045 F1016
G1 X-92.418 Y-153.339
X-92.507 Y-153.586
G3 X-92.189 Y-153.793 I0.184 J-0.066
G1 X-92.167 Y-153.764 F2540
X-92.054 Y-153.594
X-92.036 Y-153.565
X-92.022 Y-153.537
X-92.013 Y-153.508
X-91.996 Y-153.423
X-91.986 Y-153.366
Y-153.338
X-91.989 Y-153.309
X-92.011 Y-153.196
X-92.018 Y-153.173
X-92.027 Y-153.15
X-92.054 Y-153.104
X-92.167 Y-152.934
X-92.182 Y-152.914
X-92.2 Y-152.894
X-93.035 Y-152.059
X-93.21 Y-151.901
X-93.352 Y-151.791
X-93.507 Y-151.691
X-93.674 Y-151.601
X-93.852 Y-151.523
X-94.036 Y-151.459
X-94.227 Y-151.409
X-94.423 Y-151.375
X-94.547 Y-151.364
X-94.679 Y-151.371
X-94.804 Y-151.416
X-94.91 Y-151.495
G3 X-94.833 Y-151.812 I0.143 J-0.133 F1016
G1 X-94.457 Y-151.945
X-93.494 Y-152.286 F2540
X-93.243 Y-152.375 F1016
G3 X-93.035 Y-152.059 I0.065 J0.184
G1 X-93.799 Y-151.295 F2540
X-93.819 Y-151.277
X-93.873 Y-151.24
X-94.009 Y-151.149
X-94.055 Y-151.123
X-94.078 Y-151.113
X-94.101 Y-151.107
X-94.214 Y-151.084
X-94.243 Y-151.081
X-94.271
X-94.328 Y-151.091
X-94.413 Y-151.108
X-94.442 Y-151.117
X-94.471 Y-151.13
X-94.555 Y-151.186
X-94.67 Y-151.263
X-94.698 Y-151.284
X-95.703 Y-152.287
G3 X-95.576 Y-152.62 I0.138 J-0.138 F1016
G1 X-95.316 Y-152.634
X-95.278 Y-152.633
X-95.241 Y-152.624
G3 X-95.353 Y-152.251 I-0.065 J0.184 F2540
G1 X-95.361 Y-152.253
G3 X-96.043 Y-152.627 I0.398 J-1.532 F1016
G1 X-96.757 Y-153.341 F2540
X-96.857 Y-153.452
X-96.936 Y-153.58
X-96.996 Y-153.717
X-97.038 Y-153.861
X-97.064 Y-154.012
X-97.061 Y-154.112
X-97.035 Y-154.209
X-96.989 Y-154.298
G3 X-96.644 Y-154.239 I0.158 J0.114 F1016
G1 X-96.544 Y-153.903
X-96.515 Y-153.804 F2540
X-96.437 Y-153.539 F1016
G3 X-96.757 Y-153.341 I-0.187 J0.055
G1 X-96.923 Y-153.507 F2540
X-96.944 Y-153.537
X-97.057 Y-153.706
X-97.076 Y-153.735
X-97.089 Y-153.764
X-97.098 Y-153.793
X-97.115 Y-153.878
X-97.125 Y-153.935
Y-153.963
X-97.122 Y-153.992
X-97.099 Y-154.105
X-97.093 Y-154.128
X-97.083 Y-154.151
X-97.057 Y-154.196
X-96.943 Y-154.366
X-96.929 Y-154.386
X-96.911 Y-154.406
X-95.312 Y-156.006
X-95.292 Y-156.024
X-95.238 Y-156.061
X-95.101 Y-156.152
X-95.056 Y-156.178
X-95.033 Y-156.188
X-95.01 Y-156.194
X-94.897 Y-156.217
X-94.868 Y-156.22
X-94.84
X-94.783 Y-156.21
X-94.698 Y-156.193
X-94.669 Y-156.184
X-94.64 Y-156.171
X-94.555 Y-156.115
X-94.441 Y-156.038
X-94.413 Y-156.017
X-94.104 Y-155.709
G3 X-94.373 Y-155.428 I-0.143 J0.133 F1016
G1 X-94.382 Y-155.436
X-94.403 Y-155.475 Z-0.891
X-94.422 Y-155.512 Z-0.873
X-94.439 Y-155.544 Z-0.845
X-94.441 Y-155.576 Z-0.803
X-94.44 Y-155.596 Z-0.756
Y-155.603 Z-0.705
G0 Z5
X-94.395 Y-153.962
Z0.995
G1 Z0.8 F1016
Z-1.2
G3 X-94.866 Y-153.333 I-3.137 J-1.857
G1 X-94.919 Y-153.28 F2540
X-94.988 Y-153.251
X-95.063 Y-153.246
X-95.203 Y-153.299
X-95.316 Y-153.398
X-95.393 Y-153.527
X-95.441 Y-153.669
X-95.45 Y-153.819
X-95.435 Y-153.968
X-95.387 Y-154.11
X-95.314 Y-154.241
X-95.226 Y-154.363
X-95.113 Y-154.461
X-94.986 Y-154.541
X-94.851 Y-154.607
X-94.706 Y-154.642
X-94.556 Y-154.656
X-94.406 Y-154.653
X-94.26 Y-154.619
X-94.12 Y-154.565
X-93.986 Y-154.497
X-93.87 Y-154.403
X-93.767 Y-154.294
X-93.676 Y-154.174
X-93.611 Y-154.039
X-93.566 Y-153.896
X-93.535 Y-153.749
X-93.534 Y-153.599
X-93.555 Y-153.451
X-93.59 Y-153.305
X-93.653 Y-153.169
X-93.735 Y-153.043
X-93.83 Y-152.927
X-93.945 Y-152.83
X-94.072 Y-152.752
X-94.208 Y-152.687
X-94.353 Y-152.649
X-94.5 Y-152.623
X-94.65 Y-152.609
X-94.8
X-94.949 Y-152.623
X-95.096 Y-152.655
X-95.238 Y-152.702
X-95.373 Y-152.768
X-95.499 Y-152.85
X-95.613 Y-152.947
X-95.715 Y-153.057
X-95.8 Y-153.18
X-95.87 Y-153.313
X-95.924 Y-153.453
X-95.96 Y-153.599
X-95.978 Y-153.748
Y-153.898
X-95.961 Y-154.047
X-95.929 Y-154.193
X-95.879 Y-154.335
X-95.814 Y-154.47
X-95.735 Y-154.597
X-95.643 Y-154.716
X-95.54 Y-154.825
X-95.425 Y-154.921
X-95.301 Y-155.005
X-95.169 Y-155.077
X-95.03 Y-155.135
X-94.887 Y-155.179
X-94.74 Y-155.208
X-94.59 Y-155.221
X-94.44
X-94.291 Y-155.207
X-94.144 Y-155.177
X-94.001 Y-155.133
X-93.862 Y-155.076
X-93.73 Y-155.005
X-93.604 Y-154.923
X-93.487 Y-154.829
X-93.38 Y-154.724
X-93.284 Y-154.609
X-93.198 Y-154.486
X-93.125 Y-154.355
X-93.064 Y-154.218
X-93.017 Y-154.075
X-92.984 Y-153.929
X-92.964 Y-153.78
X-92.958 Y-153.631
X-92.967 Y-153.481
X-92.99 Y-153.333
X-93.027 Y-153.187
X-93.076 Y-153.046
X-93.139 Y-152.91
X-93.215 Y-152.78
X-93.303 Y-152.658
X-93.401 Y-152.545
X-93.51 Y-152.442
X-93.628 Y-152.349
X-93.753 Y-152.267
X-93.887 Y-152.196
X-94.032 Y-152.132
X-94.181 Y-152.081
X-94.329 Y-152.043
X-94.485 Y-152.016
X-94.645 Y-152.001
X-94.795 Y-152
X-94.948 Y-152.011
X-95.101 Y-152.034
X-95.247 Y-152.068
X-95.39 Y-152.115
X-95.53 Y-152.174
X-95.59 Y-152.205
X-95.63 Y-152.228
X-95.668 Y-152.256
X-95.703 Y-152.287
X-96.043 Y-152.627
X-96.181 Y-152.78
X-96.273 Y-152.899
X-96.352 Y-153.027
X-96.419 Y-153.161
X-96.474 Y-153.3
X-96.516 Y-153.444
X-96.545 Y-153.591
X-96.562 Y-153.74
X-96.567 Y-153.89
X-96.559 Y-154.04
X-96.538 Y-154.193
X-96.506 Y-154.34
X-96.462 Y-154.487
X-96.404 Y-154.634
X-96.334 Y-154.778
X-96.255 Y-154.911
X-96.163 Y-155.04
X-96.058 Y-155.165
X-95.941 Y-155.284
X-95.818 Y-155.391
X-95.687 Y-155.487
X-95.546 Y-155.574
X-95.396 Y-155.651
X-95.24 Y-155.716
X-95.078 Y-155.768
X-94.916 Y-155.806
X-94.747 Y-155.832
X-94.574 Y-155.844
X-94.401 Y-155.842
X-94.385 Y-155.841
X-94.282 Y-155.819
X-94.186 Y-155.775
X-94.104 Y-155.709
X-92.783 Y-154.389
X-92.683 Y-154.277
X-92.598 Y-154.153
X-92.531 Y-154.019
X-92.481 Y-153.878
X-92.446 Y-153.732
X-92.426 Y-153.583
X-92.42 Y-153.433
X-92.427 Y-153.284
X-92.446 Y-153.135
X-92.479 Y-152.984
X-92.526 Y-152.833
X-92.583 Y-152.687
X-92.654 Y-152.542
X-92.739 Y-152.399
X-92.838 Y-152.26
X-92.865 Y-152.229
X-92.875 Y-152.219
G3 X-93.202 Y-152.371 I-0.133 J-0.143 F1016
G1 X-93.187 Y-152.694
X-93.128 Y-153.914 F2540
X-93.111 Y-154.255 F1016
G3 X-92.783 Y-154.389 I0.195 J0.009
G1 X-92.242 Y-153.847 F2540
X-92.216 Y-153.821
X-92.189 Y-153.793
X-92.105 Y-153.668
X-92.037 Y-153.534
X-92.017 Y-153.474
X-91.999 Y-153.397
X-91.994 Y-153.319
X-92.002 Y-153.241
G3 X-92.376 Y-153.22 I-0.19 J-0.045 F1016
G1 X-92.418 Y-153.339
X-92.507 Y-153.586
G3 X-92.189 Y-153.793 I0.184 J-0.066
G1 X-92.167 Y-153.764 F2540
X-92.054 Y-153.594
X-92.036 Y-153.565
X-92.022 Y-153.537
X-92.013 Y-153.508
X-91.996 Y-153.423
X-91.986 Y-153.366
Y-153.338
X-91.989 Y-153.309
X-92.011 Y-153.196
X-92.018 Y-153.173
X-92.027 Y-153.15
X-92.054 Y-153.104
X-92.167 Y-152.934
X-92.182 Y-152.914
X-92.2 Y-152.894
X-93.035 Y-152.059
X-93.21 Y-151.901
X-93.352 Y-151.791
X-93.507 Y-151.691
X-93.674 Y-151.601
X-93.852 Y-151.523
X-94.036 Y-151.459
X-94.227 Y-151.409
X-94.423 Y-151.375
X-94.547 Y-151.364
X-94.679 Y-151.371
X-94.804 Y-151.416
X-94.91 Y-151.495
G3 X-94.833 Y-151.812 I0.143 J-0.133 F1016
G1 X-94.457 Y-151.945
X-93.494 Y-152.286 F2540
X-93.243 Y-152.375 F1016
G3 X-93.035 Y-152.059 I0.065 J0.184
G1 X-93.799 Y-151.295 F2540
X-93.819 Y-151.277
X-93.873 Y-151.24
X-94.009 Y-151.149
X-94.055 Y-151.123
X-94.078 Y-151.113
X-94.101 Y-151.107
X-94.214 Y-151.084
X-94.243 Y-151.081
X-94.271
X-94.328 Y-151.091
X-94.413 Y-151.108
X-94.442 Y-151.117
X-94.471 Y-151.13
X-94.555 Y-151.186
X-94.67 Y-151.263
X-94.698 Y-151.284
X-95.703 Y-152.287
G3 X-95.576 Y-152.62 I0.138 J-0.138 F1016
G1 X-95.316 Y-152.634
X-95.278 Y-152.633
X-95.241 Y-152.624
G3 X-95.353 Y-152.251 I-0.065 J0.184 F2540
G1 X-95.361 Y-152.253
G3 X-96.043 Y-152.627 I0.398 J-1.532 F1016
G1 X-96.757 Y-153.341 F2540
X-96.857 Y-153.452
X-96.936 Y-153.58
X-96.996 Y-153.717
X-97.038 Y-153.861
X-97.064 Y-154.012
X-97.061 Y-154.112
X-97.035 Y-154.209
X-96.989 Y-154.298
G3 X-96.644 Y-154.239 I0.158 J0.114 F1016
G1 X-96.544 Y-153.903
X-96.515 Y-153.804 F2540
X-96.437 Y-153.539 F1016
G3 X-96.757 Y-153.341 I-0.187 J0.055
G1 X-96.923 Y-153.507 F2540
X-96.944 Y-153.537
X-97.057 Y-153.706
X-97.076 Y-153.735
X-97.089 Y-153.764
X-97.098 Y-153.793
X-97.115 Y-153.878
X-97.125 Y-153.935
Y-153.963
X-97.122 Y-153.992
X-97.099 Y-154.105
X-97.093 Y-154.128
X-97.083 Y-154.151
X-97.057 Y-154.196
X-96.943 Y-154.366
X-96.929 Y-154.386
X-96.911 Y-154.406
X-95.312 Y-156.006
X-95.292 Y-156.024
X-95.238 Y-156.061
X-95.101 Y-156.152
X-95.056 Y-156.178
X-95.033 Y-156.188
X-95.01 Y-156.194
X-94.897 Y-156.217
X-94.868 Y-156.22
X-94.84
X-94.783 Y-156.21
X-94.698 Y-156.193
X-94.669 Y-156.184
X-94.64 Y-156.171
X-94.555 Y-156.115
X-94.441 Y-156.038
X-94.413 Y-156.017
X-94.104 Y-155.709
G3 X-94.373 Y-155.428 I-0.143 J0.133 F1016
G1 X-94.382 Y-155.436
X-94.403 Y-155.475 Z-1.191
X-94.422 Y-155.512 Z-1.173
X-94.439 Y-155.544 Z-1.145
X-94.441 Y-155.576 Z-1.103
X-94.44 Y-155.596 Z-1.056
Y-155.603 Z-1.005
G0 Z5
X-94.395 Y-153.962
Z0.695
G1 Z0.5 F1016
Z-1.5
G3 X-94.866 Y-153.333 I-3.137 J-1.857
G1 X-94.919 Y-153.28 F2540
X-94.988 Y-153.251
X-95.063 Y-153.246
X-95.203 Y-153.299
X-95.316 Y-153.398
X-95.393 Y-153.527
X-95.441 Y-153.669
X-95.45 Y-153.819
X-95.435 Y-153.968
X-95.387 Y-154.11
X-95.314 Y-154.241
X-95.226 Y-154.363
X-95.113 Y-154.461
X-94.986 Y-154.541
X-94.851 Y-154.607
X-94.706 Y-154.642
X-94.556 Y-154.656
X-94.406 Y-154.653
X-94.26 Y-154.619
X-94.12 Y-154.565
X-93.986 Y-154.497
X-93.87 Y-154.403
X-93.767 Y-154.294
X-93.676 Y-154.174
X-93.611 Y-154.039
X-93.566 Y-153.896
X-93.535 Y-153.749
X-93.534 Y-153.599
X-93.555 Y-153.451
X-93.59 Y-153.305
X-93.653 Y-153.169
X-93.735 Y-153.043
X-93.83 Y-152.927
X-93.945 Y-152.83
X-94.072 Y-152.752
X-94.208 Y-152.687
X-94.353 Y-152.649
X-94.5 Y-152.623
X-94.65 Y-152.609
X-94.8
X-94.949 Y-152.623
X-95.096 Y-152.655
X-95.238 Y-152.702
X-95.373 Y-152.768
X-95.499 Y-152.85
X-95.613 Y-152.947
X-95.715 Y-153.057
X-95.8 Y-153.18
X-95.87 Y-153.313
X-95.924 Y-153.453
X-95.96 Y-153.599
X-95.978 Y-153.748
Y-153.898
X-95.961 Y-154.047
X-95.929 Y-154.193
X-95.879 Y-154.335
X-95.814 Y-154.47
X-95.735 Y-154.597
X-95.643 Y-154.716
X-95.54 Y-154.825
X-95.425 Y-154.921
X-95.301 Y-155.005
X-95.169 Y-155.077
X-95.03 Y-155.135
X-94.887 Y-155.179
X-94.74 Y-155.208
X-94.59 Y-155.221
X-94.44
X-94.291 Y-155.207
X-94.144 Y-155.177
X-94.001 Y-155.133
X-93.862 Y-155.076
X-93.73 Y-155.005
X-93.604 Y-154.923
X-93.487 Y-154.829
X-93.38 Y-154.724
X-93.284 Y-154.609
X-93.198 Y-154.486
X-93.125 Y-154.355
X-93.064 Y-154.218
X-93.017 Y-154.075
X-92.984 Y-153.929
X-92.964 Y-153.78
X-92.958 Y-153.631
X-92.967 Y-153.481
X-92.99 Y-153.333
X-93.027 Y-153.187
X-93.076 Y-153.046
X-93.139 Y-152.91
X-93.215 Y-152.78
X-93.303 Y-152.658
X-93.401 Y-152.545
X-93.51 Y-152.442
X-93.628 Y-152.349
X-93.753 Y-152.267
X-93.887 Y-152.196
X-94.032 Y-152.132
X-94.181 Y-152.081
X-94.329 Y-152.043
X-94.485 Y-152.016
X-94.645 Y-152.001
X-94.795 Y-152
X-94.948 Y-152.011
X-95.101 Y-152.034
X-95.247 Y-152.068
X-95.39 Y-152.115
X-95.53 Y-152.174
X-95.59 Y-152.205
X-95.63 Y-152.228
X-95.668 Y-152.256
X-95.703 Y-152.287
X-96.043 Y-152.627
X-96.181 Y-152.78
X-96.273 Y-152.899
X-96.352 Y-153.027
X-96.419 Y-153.161
X-96.474 Y-153.3
X-96.516 Y-153.444
X-96.545 Y-153.591
X-96.562 Y-153.74
X-96.567 Y-153.89
X-96.559 Y-154.04
X-96.538 Y-154.193
X-96.506 Y-154.34
X-96.462 Y-154.487
X-96.404 Y-154.634
X-96.334 Y-154.778
X-96.255 Y-154.911
X-96.163 Y-155.04
X-96.058 Y-155.165
X-95.941 Y-155.284
X-95.818 Y-155.391
X-95.687 Y-155.487
X-95.546 Y-155.574
X-95.396 Y-155.651
X-95.24 Y-155.716
X-95.078 Y-155.768
X-94.916 Y-155.806
X-94.747 Y-155.832
X-94.574 Y-155.844
X-94.401 Y-155.842
X-94.385 Y-155.841
X-94.282 Y-155.819
X-94.186 Y-155.775
X-94.104 Y-155.709
X-92.783 Y-154.389
X-92.683 Y-154.277
X-92.598 Y-154.153
X-92.531 Y-154.019
X-92.481 Y-153.878
X-92.446 Y-153.732
X-92.426 Y-153.583
X-92.42 Y-153.433
X-92.427 Y-153.284
X-92.446 Y-153.135
X-92.479 Y-152.984
X-92.526 Y-152.833
X-92.583 Y-152.687
X-92.654 Y-152.542
X-92.739 Y-152.399
X-92.838 Y-152.26
X-92.865 Y-152.229
X-92.875 Y-152.219
G3 X-93.202 Y-152.371 I-0.133 J-0.143 F1016
G1 X-93.187 Y-152.694
X-93.128 Y-153.914 F2540
X-93.111 Y-154.255 F1016
G3 X-92.783 Y-154.389 I0.195 J0.009
G1 X-92.242 Y-153.847 F2540
X-92.216 Y-153.821
X-92.189 Y-153.793
X-92.105 Y-153.668
X-92.037 Y-153.534
X-92.017 Y-153.474
X-91.999 Y-153.397
X-91.994 Y-153.319
X-92.002 Y-153.241
G3 X-92.376 Y-153.22 I-0.19 J-0.045 F1016
G1 X-92.418 Y-153.339
X-92.507 Y-153.586
G3 X-92.189 Y-153.793 I0.184 J-0.066
G1 X-92.167 Y-153.764 F2540
X-92.054 Y-153.594
X-92.036 Y-153.565
X-92.022 Y-153.537
X-92.013 Y-153.508
X-91.996 Y-153.423
X-91.986 Y-153.366
Y-153.338
X-91.989 Y-153.309
X-92.011 Y-153.196
X-92.018 Y-153.173
X-92.027 Y-153.15
X-92.054 Y-153.104
X-92.167 Y-152.934
X-92.182 Y-152.914
X-92.2 Y-152.894
X-93.035 Y-152.059
X-93.21 Y-151.901
X-93.352 Y-151.791
X-93.507 Y-151.691
X-93.674 Y-151.601
X-93.852 Y-151.523
X-94.036 Y-151.459
X-94.227 Y-151.409
X-94.423 Y-151.375
X-94.547 Y-151.364
X-94.679 Y-151.371
X-94.804 Y-151.416
X-94.91 Y-151.495
G3 X-94.833 Y-151.812 I0.143 J-0.133 F1016
G1 X-94.457 Y-151.945
X-93.494 Y-152.286 F2540
X-93.243 Y-152.375 F1016
G3 X-93.035 Y-152.059 I0.065 J0.184
G1 X-93.799 Y-151.295 F2540
X-93.819 Y-151.277
X-93.873 Y-151.24
X-94.009 Y-151.149
X-94.055 Y-151.123
X-94.078 Y-151.113
X-94.101 Y-151.107
X-94.214 Y-151.084
X-94.243 Y-151.081
X-94.271
X-94.328 Y-151.091
X-94.413 Y-151.108
X-94.442 Y-151.117
X-94.471 Y-151.13
X-94.555 Y-151.186
X-94.67 Y-151.263
X-94.698 Y-151.284
X-95.703 Y-152.287
G3 X-95.576 Y-152.62 I0.138 J-0.138 F1016
G1 X-95.316 Y-152.634
X-95.278 Y-152.633
X-95.241 Y-152.624
G3 X-95.353 Y-152.251 I-0.065 J0.184 F2540
G1 X-95.361 Y-152.253
G3 X-96.043 Y-152.627 I0.398 J-1.532 F1016
G1 X-96.757 Y-153.341 F2540
X-96.857 Y-153.452
X-96.936 Y-153.58
X-96.996 Y-153.717
X-97.038 Y-153.861
X-97.064 Y-154.012
X-97.061 Y-154.112
X-97.035 Y-154.209
X-96.989 Y-154.298
G3 X-96.644 Y-154.239 I0.158 J0.114 F1016
G1 X-96.544 Y-153.903
X-96.515 Y-153.804 F2540
X-96.437 Y-153.539 F1016
G3 X-96.757 Y-153.341 I-0.187 J0.055
G1 X-96.923 Y-153.507 F2540
X-96.944 Y-153.537
X-97.057 Y-153.706
X-97.076 Y-153.735
X-97.089 Y-153.764
X-97.098 Y-153.793
X-97.115 Y-153.878
X-97.125 Y-153.935
Y-153.963
X-97.122 Y-153.992
X-97.099 Y-154.105
X-97.093 Y-154.128
X-97.083 Y-154.151
X-97.057 Y-154.196
X-96.943 Y-154.366
X-96.929 Y-154.386
X-96.911 Y-154.406
X-95.312 Y-156.006
X-95.292 Y-156.024
X-95.238 Y-156.061
X-95.101 Y-156.152
X-95.056 Y-156.178
X-95.033 Y-156.188
X-95.01 Y-156.194
X-94.897 Y-156.217
X-94.868 Y-156.22
X-94.84
X-94.783 Y-156.21
X-94.698 Y-156.193
X-94.669 Y-156.184
X-94.64 Y-156.171
X-94.555 Y-156.115
X-94.441 Y-156.038
X-94.413 Y-156.017
X-94.104 Y-155.709
G3 X-94.389 Y-155.443 I-0.143 J0.133 F1016
X-94.44 Y-155.603 I0.143 J-0.133
G1 X-94.433 Y-155.653 Z-1.493
X-94.427 Y-155.699 Z-1.474
X-94.421 Y-155.739 Z-1.443
X-94.417 Y-155.77 Z-1.402
X-94.414 Y-155.789 Z-1.355
X-94.413 Y-155.796 Z-1.305
G0 Z15
X-94.881 Y-117.734
Z5
Z1.895
G1 Z1.7 F1016
Z-0.3
G3 X-94.253 Y-117.263 I-1.858 J3.137
G1 X-94.2 Y-117.21 F2540
X-94.178 Y-117.18
X-94.174 Y-117.105
X-94.201 Y-116.957
X-94.298 Y-116.843
X-94.421 Y-116.757
X-94.564 Y-116.712
X-94.713 Y-116.691
X-94.862 Y-116.71
X-95.005 Y-116.754
X-95.139 Y-116.821
X-95.256 Y-116.915
X-95.36 Y-117.024
X-95.443 Y-117.148
X-95.502 Y-117.286
X-95.543 Y-117.431
X-95.56 Y-117.58
X-95.55 Y-117.729
X-95.523 Y-117.877
X-95.471 Y-118.018
X-95.397 Y-118.148
X-95.308 Y-118.268
X-95.2 Y-118.373
X-95.077 Y-118.458
X-94.944 Y-118.528
X-94.802 Y-118.576
X-94.654 Y-118.599
X-94.504 Y-118.605
X-94.355 Y-118.588
X-94.211 Y-118.545
X-94.073 Y-118.485
X-93.946 Y-118.407
X-93.834 Y-118.306
X-93.735 Y-118.193
X-93.654 Y-118.068
X-93.596 Y-117.929
X-93.555 Y-117.785
X-93.528 Y-117.597
X-93.519 Y-117.447
X-93.523 Y-117.297
X-93.543 Y-117.148
X-93.58 Y-117.003
X-93.634 Y-116.863
X-93.704 Y-116.73
X-93.791 Y-116.608
X-93.893 Y-116.498
X-94.008 Y-116.402
X-94.134 Y-116.32
X-94.269 Y-116.255
X-94.411 Y-116.208
X-94.558 Y-116.178
X-94.708 Y-116.167
X-94.858 Y-116.171
X-95.006 Y-116.195
X-95.151 Y-116.234
X-95.29 Y-116.289
X-95.423 Y-116.36
X-95.547 Y-116.443
X-95.662 Y-116.54
X-95.765 Y-116.649
X-95.857 Y-116.767
X-95.937 Y-116.894
X-96.003 Y-117.029
X-96.055 Y-117.17
X-96.092 Y-117.315
X-96.115 Y-117.463
X-96.124 Y-117.613
X-96.117 Y-117.763
X-96.096 Y-117.911
X-96.061 Y-118.057
X-96.012 Y-118.199
X-95.949 Y-118.335
X-95.873 Y-118.465
X-95.785 Y-118.586
X-95.687 Y-118.699
X-95.577 Y-118.802
X-95.459 Y-118.894
X-95.332 Y-118.974
X-95.198 Y-119.041
X-95.059 Y-119.096
X-94.914 Y-119.138
X-94.767 Y-119.165
X-94.618 Y-119.178
X-94.468
X-94.318 Y-119.163
X-94.171 Y-119.134
X-94.027 Y-119.091
X-93.888 Y-119.035
X-93.755 Y-118.966
X-93.629 Y-118.885
X-93.511 Y-118.793
X-93.402 Y-118.689
X-93.304 Y-118.576
X-93.216 Y-118.454
X-93.14 Y-118.325
X-93.073 Y-118.186
X-93.015 Y-118.037
X-92.97 Y-117.886
X-92.938 Y-117.737
X-92.918 Y-117.58
X-92.91 Y-117.423
X-92.915 Y-117.273
X-92.932 Y-117.121
X-92.962 Y-116.969
X-93.002 Y-116.825
X-93.054 Y-116.684
X-93.118 Y-116.549
X-93.132 Y-116.524
X-93.154 Y-116.489
X-93.178 Y-116.457
X-93.206 Y-116.428
X-93.524 Y-116.109
X-93.679 Y-115.969
X-93.798 Y-115.877
X-93.926 Y-115.798
X-94.059 Y-115.73
X-94.199 Y-115.675
X-94.343 Y-115.632
X-94.489 Y-115.602
X-94.638 Y-115.584
X-94.788 Y-115.579
X-94.938 Y-115.586
X-95.087 Y-115.606
X-95.236 Y-115.638
X-95.387 Y-115.683
X-95.53 Y-115.738
X-95.669 Y-115.806
X-95.807 Y-115.887
X-95.94 Y-115.981
X-96.063 Y-116.083
X-96.177 Y-116.194
X-96.285 Y-116.317
X-96.385 Y-116.452
X-96.473 Y-116.594
X-96.549 Y-116.741
X-96.612 Y-116.893
X-96.665 Y-117.054
X-96.705 Y-117.221
X-96.732 Y-117.391
X-96.744 Y-117.559
X-96.743 Y-117.729
X-96.74 Y-117.762
X-96.719 Y-117.866
X-96.674 Y-117.962
X-96.609 Y-118.045
X-95.294 Y-119.36
X-95.183 Y-119.46
X-95.058 Y-119.544
X-94.923 Y-119.61
X-94.782 Y-119.66
X-94.636 Y-119.694
X-94.487 Y-119.714
X-94.337 Y-119.72
X-94.187 Y-119.712
X-94.038 Y-119.692
X-93.892 Y-119.66
X-93.744 Y-119.615
X-93.595 Y-119.557
X-93.447 Y-119.484
X-93.306 Y-119.4
X-93.171 Y-119.304
X-93.113 Y-119.256
X-93.094 Y-119.238
G3 X-93.249 Y-118.91 I-0.143 J0.133 F1016
G1 X-93.568 Y-118.931
X-94.819 Y-119.01 F2540
X-95.164 Y-119.032 F1016
G3 X-95.294 Y-119.36 I0.012 J-0.195
G1 X-94.752 Y-119.902 F2540
X-94.726 Y-119.927
X-94.698 Y-119.954
X-94.574 Y-120.038
X-94.439 Y-120.105
X-94.375 Y-120.126
X-94.3 Y-120.144
X-94.222 Y-120.149
X-94.145 Y-120.14
G3 X-94.124 Y-119.767 I-0.045 J0.19 F1016
G1 X-94.244 Y-119.724
X-94.492 Y-119.636
G3 X-94.698 Y-119.954 I-0.065 J-0.184
G1 X-94.669 Y-119.976 F2540
X-94.5 Y-120.089
X-94.471 Y-120.108
X-94.442 Y-120.121
X-94.413 Y-120.13
X-94.328 Y-120.147
X-94.271 Y-120.157
X-94.243
X-94.214 Y-120.154
X-94.101 Y-120.131
X-94.078 Y-120.125
X-94.055 Y-120.115
X-94.009 Y-120.089
X-93.839 Y-119.975
X-93.819 Y-119.961
X-93.799 Y-119.943
X-92.963 Y-119.108
X-92.814 Y-118.942
X-92.702 Y-118.796
X-92.601 Y-118.64
X-92.511 Y-118.473
X-92.433 Y-118.296
X-92.369 Y-118.111
X-92.32 Y-117.921
X-92.285 Y-117.725
X-92.273 Y-117.593
X-92.28 Y-117.46
X-92.325 Y-117.335
X-92.404 Y-117.229
G3 X-92.721 Y-117.307 I-0.133 J-0.143 F1016
G1 X-92.853 Y-117.683
X-93.192 Y-118.648 F2540
X-93.28 Y-118.9 F1016
G3 X-92.963 Y-119.108 I0.184 J-0.065
G1 X-92.2 Y-118.344 F2540
X-92.182 Y-118.324
X-92.145 Y-118.27
X-92.054 Y-118.134
X-92.027 Y-118.088
X-92.018 Y-118.065
X-92.011 Y-118.042
X-91.989 Y-117.929
X-91.986 Y-117.9
Y-117.872
X-91.996 Y-117.815
X-92.013 Y-117.73
X-92.022 Y-117.701
X-92.036 Y-117.673
X-92.054 Y-117.644
X-92.167 Y-117.474
X-92.189 Y-117.445
X-92.622 Y-117.011
X-93.206 Y-116.428
G3 X-93.539 Y-116.57 I-0.138 J-0.138 F1016
G1 X-93.532 Y-116.851
X-93.527 Y-116.891
G3 X-93.29 Y-117.036 I0.19 J0.044 F2540
X-93.148 Y-116.799 I-0.046 J0.189
G1 X-93.15 Y-116.791
G3 X-93.524 Y-116.109 I-1.532 J-0.398 F1016
G1 X-94.246 Y-115.387 F2540
X-94.358 Y-115.286
X-94.485 Y-115.208
X-94.623 Y-115.149
X-94.767 Y-115.107
X-94.915 Y-115.081
X-94.921
X-95.021 Y-115.085
X-95.117 Y-115.11
X-95.206 Y-115.157
G3 X-95.147 Y-115.502 I0.114 J-0.158 F1016
G1 X-94.811 Y-115.6
X-94.71 Y-115.63 F2540
X-94.444 Y-115.707 F1016
G3 X-94.246 Y-115.387 I0.055 J0.187
G1 X-94.413 Y-115.221 F2540
X-94.442 Y-115.2
X-94.612 Y-115.086
X-94.64 Y-115.068
X-94.669 Y-115.054
X-94.698 Y-115.045
X-94.783 Y-115.028
X-94.84 Y-115.018
X-94.868
X-94.897 Y-115.021
X-95.01 Y-115.044
X-95.033 Y-115.05
X-95.056 Y-115.06
X-95.101 Y-115.086
X-95.271 Y-115.2
X-95.291 Y-115.214
X-95.311 Y-115.232
X-96.911 Y-116.832
X-96.929 Y-116.852
X-96.966 Y-116.905
X-97.057 Y-117.042
X-97.083 Y-117.087
X-97.093 Y-117.11
X-97.099 Y-117.133
X-97.122 Y-117.246
X-97.125 Y-117.275
Y-117.303
X-97.115 Y-117.36
X-97.098 Y-117.445
X-97.089 Y-117.474
X-97.076 Y-117.503
X-97.02 Y-117.588
X-96.943 Y-117.702
X-96.923 Y-117.731
X-96.609 Y-118.045
G3 X-96.327 Y-117.776 I0.133 J0.143 F1016
G1 X-96.336 Y-117.767
X-96.375 Y-117.746 Z-0.291
X-96.411 Y-117.727 Z-0.273
X-96.443 Y-117.71 Z-0.245
X-96.476 Y-117.707 Z-0.203
X-96.495 Y-117.709 Z-0.156
X-96.502 Z-0.105
G0 Z5
X-94.881 Y-117.734
Z1.595
G1 Z1.4 F1016
Z-0.6
G3 X-94.253 Y-117.263 I-1.858 J3.137
G1 X-94.2 Y-117.21 F2540
X-94.178 Y-117.18
X-94.174 Y-117.105
X-94.201 Y-116.957
X-94.298 Y-116.843
X-94.421 Y-116.757
X-94.564 Y-116.712
X-94.713 Y-116.691
X-94.862 Y-116.71
X-95.005 Y-116.754
X-95.139 Y-116.821
X-95.256 Y-116.915
X-95.36 Y-117.024
X-95.443 Y-117.148
X-95.502 Y-117.286
X-95.543 Y-117.431
X-95.56 Y-117.58
X-95.55 Y-117.729
X-95.523 Y-117.877
X-95.471 Y-118.018
X-95.397 Y-118.148
X-95.308 Y-118.268
X-95.2 Y-118.373
X-95.077 Y-118.458
X-94.944 Y-118.528
X-94.802 Y-118.576
X-94.654 Y-118.599
X-94.504 Y-118.605
X-94.355 Y-118.588
X-94.211 Y-118.545
X-94.073 Y-118.485
X-93.946 Y-118.407
X-93.834 Y-118.306
X-93.735 Y-118.193
X-93.654 Y-118.068
X-93.596 Y-117.929
X-93.555 Y-117.785
X-93.528 Y-117.597
X-93.519 Y-117.447
X-93.523 Y-117.297
X-93.543 Y-117.148
X-93.58 Y-117.003
X-93.634 Y-116.863
X-93.704 Y-116.73
X-93.791 Y-116.608
X-93.893 Y-116.498
X-94.008 Y-116.402
X-94.134 Y-116.32
X-94.269 Y-116.255
X-94.411 Y-116.208
X-94.558 Y-116.178
X-94.708 Y-116.167
X-94.858 Y-116.171
X-95.006 Y-116.195
X-95.151 Y-116.234
X-95.29 Y-116.289
X-95.423 Y-116.36
X-95.547 Y-116.443
X-95.662 Y-116.54
X-95.765 Y-116.649
X-95.857 Y-116.767
X-95.937 Y-116.894
X-96.003 Y-117.029
X-96.055 Y-117.17
X-96.092 Y-117.315
X-96.115 Y-117.463
X-96.124 Y-117.613
X-96.117 Y-117.763
X-96.096 Y-117.911
X-96.061 Y-118.057
X-96.012 Y-118.199
X-95.949 Y-118.335
X-95.873 Y-118.465
X-95.785 Y-118.586
X-95.687 Y-118.699
X-95.577 Y-118.802
X-95.459 Y-118.894
X-95.332 Y-118.974
X-95.198 Y-119.041
X-95.059 Y-119.096
X-94.914 Y-119.138
X-94.767 Y-119.165
X-94.618 Y-119.178
X-94.468
X-94.318 Y-119.163
X-94.171 Y-119.134
X-94.027 Y-119.091
X-93.888 Y-119.035
X-93.755 Y-118.966
X-93.629 Y-118.885
X-93.511 Y-118.793
X-93.402 Y-118.689
X-93.304 Y-118.576
X-93.216 Y-118.454
X-93.14 Y-118.325
X-93.073 Y-118.186
X-93.015 Y-118.037
X-92.97 Y-117.886
X-92.938 Y-117.737
X-92.918 Y-117.58
X-92.91 Y-117.423
X-92.915 Y-117.273
X-92.932 Y-117.121
X-92.962 Y-116.969
X-93.002 Y-116.825
X-93.054 Y-116.684
X-93.118 Y-116.549
X-93.132 Y-116.524
X-93.154 Y-116.489
X-93.178 Y-116.457
X-93.206 Y-116.428
X-93.524 Y-116.109
X-93.679 Y-115.969
X-93.798 Y-115.877
X-93.926 Y-115.798
X-94.059 Y-115.73
X-94.199 Y-115.675
X-94.343 Y-115.632
X-94.489 Y-115.602
X-94.638 Y-115.584
X-94.788 Y-115.579
X-94.938 Y-115.586
X-95.087 Y-115.606
X-95.236 Y-115.638
X-95.387 Y-115.683
X-95.53 Y-115.738
X-95.669 Y-115.806
X-95.807 Y-115.887
X-95.94 Y-115.981
X-96.063 Y-116.083
X-96.177 Y-116.194
X-96.285 Y-116.317
X-96.385 Y-116.452
X-96.473 Y-116.594
X-96.549 Y-116.741
X-96.612 Y-116.893
X-96.665 Y-117.054
X-96.705 Y-117.221
X-96.732 Y-117.391
X-96.744 Y-117.559
X-96.743 Y-117.729
X-96.74 Y-117.762
X-96.719 Y-117.866
X-96.674 Y-117.962
X-96.609 Y-118.045
X-95.294 Y-119.36
X-95.183 Y-119.46
X-95.058 Y-119.544
X-94.923 Y-119.61
X-94.782 Y-119.66
X-94.636 Y-119.694
X-94.487 Y-119.714
X-94.337 Y-119.72
X-94.187 Y-119.712
X-94.038 Y-119.692
X-93.892 Y-119.66
X-93.744 Y-119.615
X-93.595 Y-119.557
X-93.447 Y-119.484
X-93.306 Y-119.4
X-93.171 Y-119.304
X-93.113 Y-119.256
X-93.094 Y-119.238
G3 X-93.249 Y-118.91 I-0.143 J0.133 F1016
G1 X-93.568 Y-118.931
X-94.819 Y-119.01 F2540
X-95.164 Y-119.032 F1016
G3 X-95.294 Y-119.36 I0.012 J-0.195
G1 X-94.752 Y-119.902 F2540
X-94.726 Y-119.927
X-94.698 Y-119.954
X-94.574 Y-120.038
X-94.439 Y-120.105
X-94.375 Y-120.126
X-94.3 Y-120.144
X-94.222 Y-120.149
X-94.145 Y-120.14
G3 X-94.124 Y-119.767 I-0.045 J0.19 F1016
G1 X-94.244 Y-119.724
X-94.492 Y-119.636
G3 X-94.698 Y-119.954 I-0.065 J-0.184
G1 X-94.669 Y-119.976 F2540
X-94.5 Y-120.089
X-94.471 Y-120.108
X-94.442 Y-120.121
X-94.413 Y-120.13
