(1001)
(Bearbeiten)
(  Hersteller: ChinaCnc)
(  model: 3040T)
(  description: Generic 3-axis)
(T13  D=1 CR=0 - ZMIN=-3.2 - Schaftfraser)
G90 G94
G17
G21
G28 G91 Z0
G90

(Bohrfrasen5)
T13
S8000 M3
G54
G0 X-40.515 Y-7.396
Z15
Z2
G1 Z0.1 F1000
X-40.52 Y-7.391 Z0.062
X-40.536 Y-7.375 Z0.029
X-40.558 Y-7.352 Z0.008
X-40.586 Y-7.325 Z0
X-40.621 Y-7.29
X-40.653 Y-7.268
X-40.692 Y-7.261
X-40.73 Y-7.268
X-40.762 Y-7.29
G3 X-38.641 Y-9.411 Z-0.5 I1.061 J-1.061
X-40.762 Y-7.29 Z-1 I-1.061 J1.061
X-38.641 Y-9.411 I1.061 J-1.061
X-40.762 Y-7.29 I-1.061 J1.061
G1 X-40.784 Y-7.322
X-40.792 Y-7.361
X-40.784 Y-7.399
X-40.762 Y-7.431
X-40.727 Y-7.467
X-40.7 Y-7.494 Z-0.992
X-40.677 Y-7.517 Z-0.971
X-40.662 Y-7.532 Z-0.938
X-40.656 Y-7.537 Z-0.9
G0 Z5
X-63.684 Y-21.955
Z2
G1 Z0.1 F1000
X-63.679 Y-21.96 Z0.062
X-63.664 Y-21.975 Z0.029
X-63.641 Y-21.998 Z0.008
X-63.614 Y-22.025 Z0
X-63.578 Y-22.061
X-63.546 Y-22.082
X-63.508 Y-22.09
X-63.469 Y-22.082
X-63.437 Y-22.061
G3 X-65.558 Y-19.939 Z-0.5 I-1.061 J1.061
X-63.437 Y-22.061 Z-1 I1.061 J-1.061
X-65.558 Y-19.939 I-1.061 J1.061
X-63.437 Y-22.061 I1.061 J-1.061
G1 X-63.415 Y-22.028
X-63.408 Y-21.99
X-63.415 Y-21.952
X-63.437 Y-21.919
X-63.472 Y-21.884
X-63.499 Y-21.857 Z-0.992
X-63.522 Y-21.834 Z-0.971
X-63.537 Y-21.819 Z-0.938
X-63.543 Y-21.813 Z-0.9
G0 Z5
X-40.515 Y-34.063
Z2
G1 Z0.1 F1000
X-40.52 Y-34.057 Z0.062
X-40.536 Y-34.042 Z0.029
X-40.558 Y-34.019 Z0.008
X-40.586 Y-33.992 Z0
X-40.621 Y-33.957
X-40.653 Y-33.935
X-40.692 Y-33.927
X-40.73 Y-33.935
X-40.762 Y-33.957
G3 X-38.641 Y-36.078 Z-0.5 I1.061 J-1.061
X-40.762 Y-33.957 Z-1 I-1.061 J1.061
X-38.641 Y-36.078 I1.061 J-1.061
X-40.762 Y-33.957 I-1.061 J1.061
G1 X-40.784 Y-33.989
X-40.792 Y-34.027
X-40.784 Y-34.066
X-40.762 Y-34.098
X-40.727 Y-34.133
X-40.7 Y-34.16 Z-0.992
X-40.677 Y-34.183 Z-0.971
X-40.662 Y-34.199 Z-0.938
X-40.656 Y-34.204 Z-0.9
G0 Z5
X-63.684 Y-48.621
Z2
G1 Z0.1 F1000
X-63.679 Y-48.627 Z0.062
X-63.664 Y-48.642 Z0.029
X-63.641 Y-48.665 Z0.008
X-63.614 Y-48.692 Z0
X-63.578 Y-48.727
X-63.546 Y-48.749
X-63.508 Y-48.757
X-63.469 Y-48.749
X-63.437 Y-48.727
G3 X-65.558 Y-46.606 Z-0.5 I-1.061 J1.061
X-63.437 Y-48.727 Z-1 I1.061 J-1.061
X-65.558 Y-46.606 I-1.061 J1.061
X-63.437 Y-48.727 I1.061 J-1.061
G1 X-63.415 Y-48.695
X-63.408 Y-48.657
X-63.415 Y-48.618
X-63.437 Y-48.586
X-63.472 Y-48.551
X-63.499 Y-48.523 Z-0.992
X-63.522 Y-48.501 Z-0.971
X-63.537 Y-48.485 Z-0.938
X-63.543 Y-48.48 Z-0.9
G0 Z5
X-40.515 Y-60.729
Z2
G1 Z0.1 F1000
X-40.52 Y-60.724 Z0.062
X-40.536 Y-60.709 Z0.029
X-40.558 Y-60.686 Z0.008
X-40.586 Y-60.659 Z0
X-40.621 Y-60.623
X-40.653 Y-60.602
X-40.692 Y-60.594
X-40.73 Y-60.602
X-40.762 Y-60.623
G3 X-38.641 Y-62.745 Z-0.5 I1.061 J-1.061
X-40.762 Y-60.623 Z-1 I-1.061 J1.061
X-38.641 Y-62.745 I1.061 J-1.061
X-40.762 Y-60.623 I-1.061 J1.061
G1 X-40.784 Y-60.656
X-40.792 Y-60.694
X-40.784 Y-60.732
X-40.762 Y-60.765
X-40.727 Y-60.8
X-40.7 Y-60.827 Z-0.992
X-40.677 Y-60.85 Z-0.971
X-40.662 Y-60.865 Z-0.938
X-40.656 Y-60.871 Z-0.9
G0 Z5
X-63.684 Y-75.288
Z2
G1 Z0.1 F1000
X-63.679 Y-75.293 Z0.062
X-63.664 Y-75.309 Z0.029
X-63.641 Y-75.332 Z0.008
X-63.614 Y-75.359 Z0
X-63.578 Y-75.394
X-63.546 Y-75.416
X-63.508 Y-75.423
X-63.469 Y-75.416
X-63.437 Y-75.394
G3 X-65.558 Y-73.273 Z-0.5 I-1.061 J1.061
X-63.437 Y-75.394 Z-1 I1.061 J-1.061
X-65.558 Y-73.273 I-1.061 J1.061
X-63.437 Y-75.394 I1.061 J-1.061
G1 X-63.415 Y-75.362
X-63.408 Y-75.323
X-63.415 Y-75.285
X-63.437 Y-75.253
X-63.472 Y-75.217
X-63.499 Y-75.19 Z-0.992
X-63.522 Y-75.167 Z-0.971
X-63.537 Y-75.152 Z-0.938
X-63.543 Y-75.147 Z-0.9
G0 Z5
X-40.515 Y-87.396
Z2
G1 Z0.1 F1000
X-40.52 Y-87.391 Z0.062
X-40.536 Y-87.375 Z0.029
X-40.558 Y-87.352 Z0.008
X-40.586 Y-87.325 Z0
X-40.621 Y-87.29
X-40.653 Y-87.268
X-40.692 Y-87.261
X-40.73 Y-87.268
X-40.762 Y-87.29
G3 X-38.641 Y-89.411 Z-0.5 I1.061 J-1.061
X-40.762 Y-87.29 Z-1 I-1.061 J1.061
X-38.641 Y-89.411 I1.061 J-1.061
X-40.762 Y-87.29 I-1.061 J1.061
G1 X-40.784 Y-87.322
X-40.792 Y-87.361
X-40.784 Y-87.399
X-40.762 Y-87.431
X-40.727 Y-87.467
X-40.7 Y-87.494 Z-0.992
X-40.677 Y-87.517 Z-0.971
X-40.662 Y-87.532 Z-0.938
X-40.656 Y-87.537 Z-0.9
G0 Z5
X-63.684 Y-101.955
Z2
G1 Z0.1 F1000
X-63.679 Y-101.96 Z0.062
X-63.664 Y-101.975 Z0.029
X-63.641 Y-101.998 Z0.008
X-63.614 Y-102.025 Z0
X-63.578 Y-102.061
X-63.546 Y-102.082
X-63.508 Y-102.09
X-63.469 Y-102.082
X-63.437 Y-102.061
G3 X-65.558 Y-99.939 Z-0.5 I-1.061 J1.061
X-63.437 Y-102.061 Z-1 I1.061 J-1.061
X-65.558 Y-99.939 I-1.061 J1.061
X-63.437 Y-102.061 I1.061 J-1.061
G1 X-63.415 Y-102.028
X-63.408 Y-101.99
X-63.415 Y-101.952
X-63.437 Y-101.919
X-63.472 Y-101.884
X-63.499 Y-101.857 Z-0.992
X-63.522 Y-101.834 Z-0.971
X-63.537 Y-101.819 Z-0.938
X-63.543 Y-101.813 Z-0.9
G0 Z15

(Bohrfrasen6)
X-39.578 Y-8.616
Z15
Z1
G1 Z-0.9 F1000
X-39.573 Y-8.621 Z-0.938
X-39.557 Y-8.636 Z-0.971
X-39.534 Y-8.659 Z-0.992
X-39.507 Y-8.686 Z-1
X-39.472 Y-8.722
X-39.439 Y-8.743
X-39.401 Y-8.751
X-39.363 Y-8.743
X-39.33 Y-8.722
G3 X-40.073 Y-7.979 Z-1.5 I-0.371 J0.371
X-39.33 Y-8.722 Z-2 I0.371 J-0.371
X-40.073 Y-7.979 Z-2.5 I-0.371 J0.371
X-39.33 Y-8.722 Z-3 I0.371 J-0.371
X-39.234 Y-8.112 Z-3.2 I-0.371 J0.371
X-40.169 Y-8.589 I-0.468 J-0.238
X-39.234 Y-8.112 I0.468 J0.238
G1 X-39.258 Y-8.082
X-39.292 Y-8.063
X-39.331 Y-8.058
X-39.368 Y-8.069
X-39.413 Y-8.091
X-39.447 Y-8.109 Z-3.192
X-39.476 Y-8.123 Z-3.171
X-39.495 Y-8.133 Z-3.138
X-39.502 Y-8.137 Z-3.1
G0 Z5
X-50.582 Y-8.969
Z2
G1 Z0.1 F1000
X-50.577 Y-8.975 Z0.062
X-50.561 Y-8.99 Z0.029
X-50.539 Y-9.013 Z0.008
X-50.511 Y-9.04 Z0
X-50.476 Y-9.075
X-50.444 Y-9.097
X-50.405 Y-9.105
X-50.367 Y-9.097
X-50.335 Y-9.075
G3 X-51.784 Y-7.626 Z-0.5 I-0.725 J0.725
X-50.335 Y-9.075 Z-1 I0.725 J-0.725
X-51.784 Y-7.626 Z-1.5 I-0.725 J0.725
X-50.335 Y-9.075 Z-2 I0.725 J-0.725
X-51.784 Y-7.626 Z-2.5 I-0.725 J0.725
X-50.335 Y-9.075 Z-3 I0.725 J-0.725
X-50.146 Y-7.885 Z-3.2 I-0.725 J0.725
X-51.973 Y-8.816 I-0.913 J-0.465
X-50.146 Y-7.885 I0.913 J0.465
G1 X-50.17 Y-7.855
X-50.204 Y-7.836
X-50.243 Y-7.831
X-50.281 Y-7.842
X-50.325 Y-7.864
X-50.359 Y-7.882 Z-3.192
X-50.388 Y-7.896 Z-3.171
X-50.408 Y-7.906 Z-3.138
X-50.414 Y-7.91 Z-3.1
G0 Z5
X-53.617 Y-20.381
Z2
G1 Z0.1 F1000
X-53.622 Y-20.376 Z0.062
X-53.638 Y-20.361 Z0.029
X-53.661 Y-20.338 Z0.008
X-53.688 Y-20.311 Z0
X-53.723 Y-20.275
X-53.755 Y-20.254
X-53.794 Y-20.246
X-53.832 Y-20.254
X-53.864 Y-20.275
G3 X-52.415 Y-21.725 Z-0.5 I0.725 J-0.725
X-53.864 Y-20.275 Z-1 I-0.725 J0.725
X-52.415 Y-21.725 Z-1.5 I0.725 J-0.725
X-53.864 Y-20.275 Z-2 I-0.725 J0.725
X-52.415 Y-21.725 Z-2.5 I0.725 J-0.725
X-53.864 Y-20.275 Z-3 I-0.725 J0.725
X-54.053 Y-21.465 Z-3.2 I0.725 J-0.725
X-52.226 Y-20.535 I0.913 J0.465
X-54.053 Y-21.465 I-0.913 J-0.465
G1 X-54.029 Y-21.496
X-53.995 Y-21.515
X-53.956 Y-21.52
X-53.918 Y-21.509
X-53.874 Y-21.486
X-53.84 Y-21.469 Z-3.192
X-53.811 Y-21.454 Z-3.171
X-53.792 Y-21.444 Z-3.138
X-53.785 Y-21.441 Z-3.1
G0 Z5
X-64.621 Y-20.735
Z1
G1 Z-0.9 F1000
X-64.627 Y-20.729 Z-0.938
X-64.642 Y-20.714 Z-0.971
X-64.665 Y-20.691 Z-0.992
X-64.692 Y-20.664 Z-1
X-64.727 Y-20.629
X-64.76 Y-20.607
X-64.798 Y-20.599
X-64.836 Y-20.607
X-64.869 Y-20.629
G3 X-64.126 Y-21.371 Z-1.5 I0.371 J-0.371
X-64.869 Y-20.629 Z-2 I-0.371 J0.371
X-64.126 Y-21.371 Z-2.5 I0.371 J-0.371
X-64.869 Y-20.629 Z-3 I-0.371 J0.371
X-64.965 Y-21.238 Z-3.2 I0.371 J-0.371
X-64.03 Y-20.762 I0.468 J0.238
X-64.965 Y-21.238 I-0.468 J-0.238
G1 X-64.941 Y-21.269
X-64.907 Y-21.288
X-64.868 Y-21.293
X-64.831 Y-21.282
X-64.786 Y-21.259
X-64.752 Y-21.242 Z-3.192
X-64.723 Y-21.227 Z-3.171
X-64.704 Y-21.217 Z-3.138
X-64.697 Y-21.214 Z-3.1
G0 Z5
X-39.578 Y-35.282
Z1
G1 Z-0.9 F1000
X-39.573 Y-35.288 Z-0.938
X-39.557 Y-35.303 Z-0.971
X-39.534 Y-35.326 Z-0.992
X-39.507 Y-35.353 Z-1
X-39.472 Y-35.388
X-39.439 Y-35.41
X-39.401 Y-35.418
X-39.363 Y-35.41
X-39.33 Y-35.388
G3 X-40.073 Y-34.646 Z-1.5 I-0.371 J0.371
X-39.33 Y-35.388 Z-2 I0.371 J-0.371
X-40.073 Y-34.646 Z-2.5 I-0.371 J0.371
X-39.33 Y-35.388 Z-3 I0.371 J-0.371
X-39.234 Y-34.779 Z-3.2 I-0.371 J0.371
X-40.169 Y-35.256 I-0.468 J-0.238
X-39.234 Y-34.779 I0.468 J0.238
G1 X-39.258 Y-34.748
X-39.292 Y-34.729
X-39.331 Y-34.725
X-39.368 Y-34.735
X-39.413 Y-34.758
X-39.447 Y-34.775 Z-3.192
X-39.476 Y-34.79 Z-3.171
X-39.495 Y-34.8 Z-3.138
X-39.502 Y-34.803 Z-3.1
G0 Z5
X-50.582 Y-35.636
Z2
G1 Z0.1 F1000
X-50.577 Y-35.641 Z0.062
X-50.561 Y-35.657 Z0.029
X-50.539 Y-35.68 Z0.008
X-50.511 Y-35.707 Z0
X-50.476 Y-35.742
X-50.444 Y-35.764
X-50.405 Y-35.771
X-50.367 Y-35.764
X-50.335 Y-35.742
G3 X-51.784 Y-34.292 Z-0.5 I-0.725 J0.725
X-50.335 Y-35.742 Z-1 I0.725 J-0.725
X-51.784 Y-34.292 Z-1.5 I-0.725 J0.725
X-50.335 Y-35.742 Z-2 I0.725 J-0.725
X-51.784 Y-34.292 Z-2.5 I-0.725 J0.725
X-50.335 Y-35.742 Z-3 I0.725 J-0.725
X-50.146 Y-34.552 Z-3.2 I-0.725 J0.725
X-51.973 Y-35.483 I-0.913 J-0.465
X-50.146 Y-34.552 I0.913 J0.465
G1 X-50.17 Y-34.521
X-50.204 Y-34.502
X-50.243 Y-34.498
X-50.281 Y-34.508
X-50.325 Y-34.531
X-50.359 Y-34.548 Z-3.192
X-50.388 Y-34.563 Z-3.171
X-50.408 Y-34.573 Z-3.138
X-50.414 Y-34.576 Z-3.1
G0 Z5
X-53.617 Y-47.048
Z2
G1 Z0.1 F1000
X-53.622 Y-47.043 Z0.062
X-53.638 Y-47.027 Z0.029
X-53.661 Y-47.004 Z0.008
X-53.688 Y-46.977 Z0
X-53.723 Y-46.942
X-53.755 Y-46.92
X-53.794 Y-46.913
X-53.832 Y-46.92
X-53.864 Y-46.942
G3 X-52.415 Y-48.391 Z-0.5 I0.725 J-0.725
X-53.864 Y-46.942 Z-1 I-0.725 J0.725
X-52.415 Y-48.391 Z-1.5 I0.725 J-0.725
X-53.864 Y-46.942 Z-2 I-0.725 J0.725
X-52.415 Y-48.391 Z-2.5 I0.725 J-0.725
X-53.864 Y-46.942 Z-3 I-0.725 J0.725
X-54.053 Y-48.132 Z-3.2 I0.725 J-0.725
X-52.226 Y-47.201 I0.913 J0.465
X-54.053 Y-48.132 I-0.913 J-0.465
G1 X-54.029 Y-48.163
X-53.995 Y-48.182
X-53.956 Y-48.186
X-53.918 Y-48.176
X-53.874 Y-48.153
X-53.84 Y-48.136 Z-3.192
X-53.811 Y-48.121 Z-3.171
X-53.792 Y-48.111 Z-3.138
X-53.785 Y-48.108 Z-3.1
G0 Z5
X-64.621 Y-47.402
Z1
G1 Z-0.9 F1000
X-64.627 Y-47.396 Z-0.938
X-64.642 Y-47.381 Z-0.971
X-64.665 Y-47.358 Z-0.992
X-64.692 Y-47.331 Z-1
X-64.727 Y-47.295
X-64.76 Y-47.274
X-64.798 Y-47.266
X-64.836 Y-47.274
X-64.869 Y-47.295
G3 X-64.126 Y-48.038 Z-1.5 I0.371 J-0.371
X-64.869 Y-47.295 Z-2 I-0.371 J0.371
X-64.126 Y-48.038 Z-2.5 I0.371 J-0.371
X-64.869 Y-47.295 Z-3 I-0.371 J0.371
X-64.965 Y-47.905 Z-3.2 I0.371 J-0.371
X-64.03 Y-47.428 I0.468 J0.238
X-64.965 Y-47.905 I-0.468 J-0.238
G1 X-64.941 Y-47.936
X-64.907 Y-47.955
X-64.868 Y-47.959
X-64.831 Y-47.949
X-64.786 Y-47.926
X-64.752 Y-47.909 Z-3.192
X-64.723 Y-47.894 Z-3.171
X-64.704 Y-47.884 Z-3.138
X-64.697 Y-47.881 Z-3.1
G0 Z5
X-39.578 Y-61.949
Z1
G1 Z-0.9 F1000
X-39.573 Y-61.954 Z-0.938
X-39.557 Y-61.97 Z-0.971
X-39.534 Y-61.993 Z-0.992
X-39.507 Y-62.02 Z-1
X-39.472 Y-62.055
X-39.439 Y-62.077
X-39.401 Y-62.084
X-39.363 Y-62.077
X-39.33 Y-62.055
G3 X-40.073 Y-61.313 Z-1.5 I-0.371 J0.371
X-39.33 Y-62.055 Z-2 I0.371 J-0.371
X-40.073 Y-61.313 Z-2.5 I-0.371 J0.371
X-39.33 Y-62.055 Z-3 I0.371 J-0.371
X-39.234 Y-61.446 Z-3.2 I-0.371 J0.371
X-40.169 Y-61.922 I-0.468 J-0.238
X-39.234 Y-61.446 I0.468 J0.238
G1 X-39.258 Y-61.415
X-39.292 Y-61.396
X-39.331 Y-61.391
X-39.368 Y-61.402
X-39.413 Y-61.425
X-39.447 Y-61.442 Z-3.192
X-39.476 Y-61.457 Z-3.171
X-39.495 Y-61.467 Z-3.138
X-39.502 Y-61.47 Z-3.1
G0 Z5
X-50.582 Y-62.303
Z2
G1 Z0.1 F1000
X-50.577 Y-62.308 Z0.062
X-50.561 Y-62.323 Z0.029
X-50.539 Y-62.346 Z0.008
X-50.511 Y-62.373 Z0
X-50.476 Y-62.409
X-50.444 Y-62.43
X-50.405 Y-62.438
X-50.367 Y-62.43
X-50.335 Y-62.409
G3 X-51.784 Y-60.959 Z-0.5 I-0.725 J0.725
X-50.335 Y-62.409 Z-1 I0.725 J-0.725
X-51.784 Y-60.959 Z-1.5 I-0.725 J0.725
X-50.335 Y-62.409 Z-2 I0.725 J-0.725
X-51.784 Y-60.959 Z-2.5 I-0.725 J0.725
X-50.335 Y-62.409 Z-3 I0.725 J-0.725
X-50.146 Y-61.219 Z-3.2 I-0.725 J0.725
X-51.973 Y-62.149 I-0.913 J-0.465
X-50.146 Y-61.219 I0.913 J0.465
G1 X-50.17 Y-61.188
X-50.204 Y-61.169
X-50.243 Y-61.164
X-50.281 Y-61.175
X-50.325 Y-61.198
X-50.359 Y-61.215 Z-3.192
X-50.388 Y-61.23 Z-3.171
X-50.408 Y-61.24 Z-3.138
X-50.414 Y-61.243 Z-3.1
G0 Z5
X-53.617 Y-73.715
Z2
G1 Z0.1 F1000
X-53.622 Y-73.709 Z0.062
X-53.638 Y-73.694 Z0.029
X-53.661 Y-73.671 Z0.008
X-53.688 Y-73.644 Z0
X-53.723 Y-73.609
X-53.755 Y-73.587
X-53.794 Y-73.579
X-53.832 Y-73.587
X-53.864 Y-73.609
G3 X-52.415 Y-75.058 Z-0.5 I0.725 J-0.725
X-53.864 Y-73.609 Z-1 I-0.725 J0.725
X-52.415 Y-75.058 Z-1.5 I0.725 J-0.725
X-53.864 Y-73.609 Z-2 I-0.725 J0.725
X-52.415 Y-75.058 Z-2.5 I0.725 J-0.725
X-53.864 Y-73.609 Z-3 I-0.725 J0.725
X-54.053 Y-74.799 Z-3.2 I0.725 J-0.725
X-52.226 Y-73.868 I0.913 J0.465
X-54.053 Y-74.799 I-0.913 J-0.465
G1 X-54.029 Y-74.829
X-53.995 Y-74.848
X-53.956 Y-74.853
X-53.918 Y-74.842
X-53.874 Y-74.82
X-53.84 Y-74.802 Z-3.192
X-53.811 Y-74.788 Z-3.171
X-53.792 Y-74.778 Z-3.138
X-53.785 Y-74.774 Z-3.1
G0 Z5
X-64.621 Y-74.068
Z1
G1 Z-0.9 F1000
X-64.627 Y-74.063 Z-0.938
X-64.642 Y-74.047 Z-0.971
X-64.665 Y-74.025 Z-0.992
X-64.692 Y-73.997 Z-1
X-64.727 Y-73.962
X-64.76 Y-73.94
X-64.798 Y-73.933
X-64.836 Y-73.94
X-64.869 Y-73.962
G3 X-64.126 Y-74.705 Z-1.5 I0.371 J-0.371
X-64.869 Y-73.962 Z-2 I-0.371 J0.371
X-64.126 Y-74.705 Z-2.5 I0.371 J-0.371
X-64.869 Y-73.962 Z-3 I-0.371 J0.371
X-64.965 Y-74.572 Z-3.2 I0.371 J-0.371
X-64.03 Y-74.095 I0.468 J0.238
X-64.965 Y-74.572 I-0.468 J-0.238
G1 X-64.941 Y-74.602
X-64.907 Y-74.621
X-64.868 Y-74.626
X-64.831 Y-74.615
X-64.786 Y-74.593
X-64.752 Y-74.575 Z-3.192
X-64.723 Y-74.561 Z-3.171
X-64.704 Y-74.551 Z-3.138
X-64.697 Y-74.547 Z-3.1
G0 Z5
X-39.578 Y-88.616
Z1
G1 Z-0.9 F1000
X-39.573 Y-88.621 Z-0.938
X-39.557 Y-88.636 Z-0.971
X-39.534 Y-88.659 Z-0.992
X-39.507 Y-88.686 Z-1
X-39.472 Y-88.722
X-39.439 Y-88.743
X-39.401 Y-88.751
X-39.363 Y-88.743
X-39.33 Y-88.722
G3 X-40.073 Y-87.979 Z-1.5 I-0.371 J0.371
X-39.33 Y-88.722 Z-2 I0.371 J-0.371
X-40.073 Y-87.979 Z-2.5 I-0.371 J0.371
X-39.33 Y-88.722 Z-3 I0.371 J-0.371
X-39.234 Y-88.112 Z-3.2 I-0.371 J0.371
X-40.169 Y-88.589 I-0.468 J-0.238
X-39.234 Y-88.112 I0.468 J0.238
G1 X-39.258 Y-88.082
X-39.292 Y-88.063
X-39.331 Y-88.058
X-39.368 Y-88.069
X-39.413 Y-88.091
X-39.447 Y-88.109 Z-3.192
X-39.476 Y-88.123 Z-3.171
X-39.495 Y-88.133 Z-3.138
X-39.502 Y-88.137 Z-3.1
G0 Z5
X-50.582 Y-88.969
Z2
G1 Z0.1 F1000
X-50.577 Y-88.975 Z0.062
X-50.561 Y-88.99 Z0.029
X-50.539 Y-89.013 Z0.008
X-50.511 Y-89.04 Z0
X-50.476 Y-89.075
X-50.444 Y-89.097
X-50.405 Y-89.105
X-50.367 Y-89.097
X-50.335 Y-89.075
G3 X-51.784 Y-87.626 Z-0.5 I-0.725 J0.725
X-50.335 Y-89.075 Z-1 I0.725 J-0.725
X-51.784 Y-87.626 Z-1.5 I-0.725 J0.725
X-50.335 Y-89.075 Z-2 I0.725 J-0.725
X-51.784 Y-87.626 Z-2.5 I-0.725 J0.725
X-50.335 Y-89.075 Z-3 I0.725 J-0.725
X-50.146 Y-87.885 Z-3.2 I-0.725 J0.725
X-51.973 Y-88.816 I-0.913 J-0.465
X-50.146 Y-87.885 I0.913 J0.465
G1 X-50.17 Y-87.855
X-50.204 Y-87.836
X-50.243 Y-87.831
X-50.281 Y-87.842
X-50.325 Y-87.864
X-50.359 Y-87.882 Z-3.192
X-50.388 Y-87.896 Z-3.171
X-50.408 Y-87.906 Z-3.138
X-50.414 Y-87.91 Z-3.1
G0 Z5
X-53.617 Y-100.381
Z2
G1 Z0.1 F1000
X-53.622 Y-100.376 Z0.062
X-53.638 Y-100.361 Z0.029
X-53.661 Y-100.338 Z0.008
X-53.688 Y-100.311 Z0
X-53.723 Y-100.275
X-53.755 Y-100.254
X-53.794 Y-100.246
X-53.832 Y-100.254
X-53.864 Y-100.275
G3 X-52.415 Y-101.725 Z-0.5 I0.725 J-0.725
X-53.864 Y-100.275 Z-1 I-0.725 J0.725
X-52.415 Y-101.725 Z-1.5 I0.725 J-0.725
X-53.864 Y-100.275 Z-2 I-0.725 J0.725
X-52.415 Y-101.725 Z-2.5 I0.725 J-0.725
X-53.864 Y-100.275 Z-3 I-0.725 J0.725
X-54.053 Y-101.465 Z-3.2 I0.725 J-0.725
X-52.226 Y-100.535 I0.913 J0.465
X-54.053 Y-101.465 I-0.913 J-0.465
G1 X-54.029 Y-101.496
X-53.995 Y-101.515
X-53.956 Y-101.52
X-53.918 Y-101.509
X-53.874 Y-101.486
X-53.84 Y-101.469 Z-3.192
X-53.811 Y-101.454 Z-3.171
X-53.792 Y-101.444 Z-3.138
X-53.785 Y-101.441 Z-3.1
G0 Z5
X-64.621 Y-100.735
Z1
G1 Z-0.9 F1000
X-64.627 Y-100.729 Z-0.938
X-64.642 Y-100.714 Z-0.971
X-64.665 Y-100.691 Z-0.992
X-64.692 Y-100.664 Z-1
X-64.727 Y-100.629
X-64.76 Y-100.607
X-64.798 Y-100.599
X-64.836 Y-100.607
X-64.869 Y-100.629
G3 X-64.126 Y-101.371 Z-1.5 I0.371 J-0.371
X-64.869 Y-100.629 Z-2 I-0.371 J0.371
X-64.126 Y-101.371 Z-2.5 I0.371 J-0.371
X-64.869 Y-100.629 Z-3 I-0.371 J0.371
X-64.965 Y-101.238 Z-3.2 I0.371 J-0.371
X-64.03 Y-100.762 I0.468 J0.238
X-64.965 Y-101.238 I-0.468 J-0.238
G1 X-64.941 Y-101.269
X-64.907 Y-101.288
X-64.868 Y-101.293
X-64.831 Y-101.282
X-64.786 Y-101.259
X-64.752 Y-101.242 Z-3.192
X-64.723 Y-101.227 Z-3.171
X-64.704 Y-101.217 Z-3.138
X-64.697 Y-101.214 Z-3.1
G0 Z15

(Bohrfrasen7)
X-18.306 Y-17.553
Z15
Z2
G1 Z0.1 F1000
X-18.311 Y-17.547 Z0.062
X-18.326 Y-17.532 Z0.029
X-18.349 Y-17.509 Z0.008
X-18.376 Y-17.482 Z0
X-18.412 Y-17.447
X-18.444 Y-17.425
X-18.483 Y-17.417
X-18.521 Y-17.425
X-18.553 Y-17.447
G3 X-17.811 Y-18.189 Z-0.5 I0.371 J-0.371
X-18.553 Y-17.447 Z-1 I-0.371 J0.371
X-17.811 Y-18.189 Z-1.5 I0.371 J-0.371
X-18.553 Y-17.447 Z-2 I-0.371 J0.371
X-17.811 Y-18.189 Z-2.5 I0.371 J-0.371
X-18.553 Y-17.447 Z-3 I-0.371 J0.371
X-18.65 Y-18.056 Z-3.2 I0.371 J-0.371
X-17.714 Y-17.58 I0.468 J0.238
X-18.65 Y-18.056 I-0.468 J-0.238
G1 X-18.626 Y-18.087
X-18.592 Y-18.106
X-18.553 Y-18.111
X-18.515 Y-18.1
X-18.471 Y-18.077
X-18.437 Y-18.06 Z-3.192
X-18.408 Y-18.045 Z-3.171
X-18.388 Y-18.035 Z-3.138
X-18.382 Y-18.032 Z-3.1
G0 Z5
X-11.942 Y-17.553
Z2
G1 Z0.1 F1000
X-11.947 Y-17.547 Z0.062
X-11.962 Y-17.532 Z0.029
X-11.985 Y-17.509 Z0.008
X-12.012 Y-17.482 Z0
X-12.048 Y-17.447
X-12.08 Y-17.425
X-12.119 Y-17.417
X-12.157 Y-17.425
X-12.189 Y-17.447
G3 X-11.447 Y-18.189 Z-0.5 I0.371 J-0.371
X-12.189 Y-17.447 Z-1 I-0.371 J0.371
X-11.447 Y-18.189 Z-1.5 I0.371 J-0.371
X-12.189 Y-17.447 Z-2 I-0.371 J0.371
X-11.447 Y-18.189 Z-2.5 I0.371 J-0.371
X-12.189 Y-17.447 Z-3 I-0.371 J0.371
X-12.286 Y-18.056 Z-3.2 I0.371 J-0.371
X-11.35 Y-17.58 I0.468 J0.238
X-12.286 Y-18.056 I-0.468 J-0.238
G1 X-12.262 Y-18.087
X-12.228 Y-18.106
X-12.189 Y-18.111
X-12.151 Y-18.1
X-12.107 Y-18.077
X-12.073 Y-18.06 Z-3.192
X-12.044 Y-18.045 Z-3.171
X-12.024 Y-18.035 Z-3.138
X-12.018 Y-18.032 Z-3.1
G0 Z5
X-11.942 Y-23.917
Z2
G1 Z0.1 F1000
X-11.947 Y-23.911 Z0.062
X-11.962 Y-23.896 Z0.029
X-11.985 Y-23.873 Z0.008
X-12.012 Y-23.846 Z0
X-12.048 Y-23.811
X-12.08 Y-23.789
X-12.119 Y-23.781
X-12.157 Y-23.789
X-12.189 Y-23.811
G3 X-11.447 Y-24.553 Z-0.5 I0.371 J-0.371
X-12.189 Y-23.811 Z-1 I-0.371 J0.371
X-11.447 Y-24.553 Z-1.5 I0.371 J-0.371
X-12.189 Y-23.811 Z-2 I-0.371 J0.371
X-11.447 Y-24.553 Z-2.5 I0.371 J-0.371
X-12.189 Y-23.811 Z-3 I-0.371 J0.371
X-12.286 Y-24.42 Z-3.2 I0.371 J-0.371
X-11.35 Y-23.944 I0.468 J0.238
X-12.286 Y-24.42 I-0.468 J-0.238
G1 X-12.262 Y-24.451
X-12.228 Y-24.47
X-12.189 Y-24.475
X-12.151 Y-24.464
X-12.107 Y-24.441
X-12.073 Y-24.424 Z-3.192
X-12.044 Y-24.409 Z-3.171
X-12.024 Y-24.399 Z-3.138
X-12.018 Y-24.396 Z-3.1
G0 Z5
X-18.306 Y-23.917
Z2
G1 Z0.1 F1000
X-18.311 Y-23.911 Z0.062
X-18.326 Y-23.896 Z0.029
X-18.349 Y-23.873 Z0.008
X-18.376 Y-23.846 Z0
X-18.412 Y-23.811
X-18.444 Y-23.789
X-18.483 Y-23.781
X-18.521 Y-23.789
X-18.553 Y-23.811
G3 X-17.811 Y-24.553 Z-0.5 I0.371 J-0.371
X-18.553 Y-23.811 Z-1 I-0.371 J0.371
X-17.811 Y-24.553 Z-1.5 I0.371 J-0.371
X-18.553 Y-23.811 Z-2 I-0.371 J0.371
X-17.811 Y-24.553 Z-2.5 I0.371 J-0.371
X-18.553 Y-23.811 Z-3 I-0.371 J0.371
X-18.65 Y-24.42 Z-3.2 I0.371 J-0.371
X-17.714 Y-23.944 I0.468 J0.238
X-18.65 Y-24.42 I-0.468 J-0.238
G1 X-18.626 Y-24.451
X-18.592 Y-24.47
X-18.553 Y-24.475
X-18.515 Y-24.464
X-18.471 Y-24.441
X-18.437 Y-24.424 Z-3.192
X-18.408 Y-24.409 Z-3.171
X-18.388 Y-24.399 Z-3.138
X-18.382 Y-24.396 Z-3.1
G0 Z5
X-18.306 Y-44.22
Z2
G1 Z0.1 F1000
X-18.311 Y-44.214 Z0.062
X-18.326 Y-44.199 Z0.029
X-18.349 Y-44.176 Z0.008
X-18.376 Y-44.149 Z0
X-18.412 Y-44.113
X-18.444 Y-44.092
X-18.483 Y-44.084
X-18.521 Y-44.092
X-18.553 Y-44.113
G3 X-17.811 Y-44.856 Z-0.5 I0.371 J-0.371
X-18.553 Y-44.113 Z-1 I-0.371 J0.371
X-17.811 Y-44.856 Z-1.5 I0.371 J-0.371
X-18.553 Y-44.113 Z-2 I-0.371 J0.371
X-17.811 Y-44.856 Z-2.5 I0.371 J-0.371
X-18.553 Y-44.113 Z-3 I-0.371 J0.371
X-18.65 Y-44.723 Z-3.2 I0.371 J-0.371
X-17.714 Y-44.246 I0.468 J0.238
X-18.65 Y-44.723 I-0.468 J-0.238
G1 X-18.626 Y-44.754
X-18.592 Y-44.773
X-18.553 Y-44.777
X-18.515 Y-44.767
X-18.471 Y-44.744
X-18.437 Y-44.727 Z-3.192
X-18.408 Y-44.712 Z-3.171
X-18.388 Y-44.702 Z-3.138
X-18.382 Y-44.699 Z-3.1
G0 Z5
X-11.942 Y-44.22
Z2
G1 Z0.1 F1000
X-11.947 Y-44.214 Z0.062
X-11.962 Y-44.199 Z0.029
X-11.985 Y-44.176 Z0.008
X-12.012 Y-44.149 Z0
X-12.048 Y-44.113
X-12.08 Y-44.092
X-12.119 Y-44.084
X-12.157 Y-44.092
X-12.189 Y-44.113
G3 X-11.447 Y-44.856 Z-0.5 I0.371 J-0.371
X-12.189 Y-44.113 Z-1 I-0.371 J0.371
X-11.447 Y-44.856 Z-1.5 I0.371 J-0.371
X-12.189 Y-44.113 Z-2 I-0.371 J0.371
X-11.447 Y-44.856 Z-2.5 I0.371 J-0.371
X-12.189 Y-44.113 Z-3 I-0.371 J0.371
X-12.286 Y-44.723 Z-3.2 I0.371 J-0.371
X-11.35 Y-44.246 I0.468 J0.238
X-12.286 Y-44.723 I-0.468 J-0.238
G1 X-12.262 Y-44.754
X-12.228 Y-44.773
X-12.189 Y-44.777
X-12.151 Y-44.767
X-12.107 Y-44.744
X-12.073 Y-44.727 Z-3.192
X-12.044 Y-44.712 Z-3.171
X-12.024 Y-44.702 Z-3.138
X-12.018 Y-44.699 Z-3.1
G0 Z5
X-11.942 Y-50.583
Z2
G1 Z0.1 F1000
X-11.947 Y-50.578 Z0.062
X-11.962 Y-50.563 Z0.029
X-11.985 Y-50.54 Z0.008
X-12.012 Y-50.513 Z0
X-12.048 Y-50.477
X-12.08 Y-50.456
X-12.119 Y-50.448
X-12.157 Y-50.456
X-12.189 Y-50.477
G3 X-11.447 Y-51.22 Z-0.5 I0.371 J-0.371
X-12.189 Y-50.477 Z-1 I-0.371 J0.371
X-11.447 Y-51.22 Z-1.5 I0.371 J-0.371
X-12.189 Y-50.477 Z-2 I-0.371 J0.371
X-11.447 Y-51.22 Z-2.5 I0.371 J-0.371
X-12.189 Y-50.477 Z-3 I-0.371 J0.371
X-12.286 Y-51.087 Z-3.2 I0.371 J-0.371
X-11.35 Y-50.61 I0.468 J0.238
X-12.286 Y-51.087 I-0.468 J-0.238
G1 X-12.262 Y-51.118
X-12.228 Y-51.137
X-12.189 Y-51.141
X-12.151 Y-51.131
X-12.107 Y-51.108
X-12.073 Y-51.091 Z-3.192
X-12.044 Y-51.076 Z-3.171
X-12.024 Y-51.066 Z-3.138
X-12.018 Y-51.063 Z-3.1
G0 Z5
X-18.306 Y-50.583
Z2
G1 Z0.1 F1000
X-18.311 Y-50.578 Z0.062
X-18.326 Y-50.563 Z0.029
X-18.349 Y-50.54 Z0.008
X-18.376 Y-50.513 Z0
X-18.412 Y-50.477
X-18.444 Y-50.456
X-18.483 Y-50.448
X-18.521 Y-50.456
X-18.553 Y-50.477
G3 X-17.811 Y-51.22 Z-0.5 I0.371 J-0.371
X-18.553 Y-50.477 Z-1 I-0.371 J0.371
X-17.811 Y-51.22 Z-1.5 I0.371 J-0.371
X-18.553 Y-50.477 Z-2 I-0.371 J0.371
X-17.811 Y-51.22 Z-2.5 I0.371 J-0.371
X-18.553 Y-50.477 Z-3 I-0.371 J0.371
X-18.65 Y-51.087 Z-3.2 I0.371 J-0.371
X-17.714 Y-50.61 I0.468 J0.238
X-18.65 Y-51.087 I-0.468 J-0.238
G1 X-18.626 Y-51.118
X-18.592 Y-51.137
X-18.553 Y-51.141
X-18.515 Y-51.131
X-18.471 Y-51.108
X-18.437 Y-51.091 Z-3.192
X-18.408 Y-51.076 Z-3.171
X-18.388 Y-51.066 Z-3.138
X-18.382 Y-51.063 Z-3.1
G0 Z5
X-18.306 Y-70.886
Z2
G1 Z0.1 F1000
X-18.311 Y-70.881 Z0.062
X-18.326 Y-70.865 Z0.029
X-18.349 Y-70.843 Z0.008
X-18.376 Y-70.815 Z0
X-18.412 Y-70.78
X-18.444 Y-70.758
X-18.483 Y-70.751
X-18.521 Y-70.758
X-18.553 Y-70.78
G3 X-17.811 Y-71.523 Z-0.5 I0.371 J-0.371
X-18.553 Y-70.78 Z-1 I-0.371 J0.371
X-17.811 Y-71.523 Z-1.5 I0.371 J-0.371
X-18.553 Y-70.78 Z-2 I-0.371 J0.371
X-17.811 Y-71.523 Z-2.5 I0.371 J-0.371
X-18.553 Y-70.78 Z-3 I-0.371 J0.371
X-18.65 Y-71.39 Z-3.2 I0.371 J-0.371
X-17.714 Y-70.913 I0.468 J0.238
X-18.65 Y-71.39 I-0.468 J-0.238
G1 X-18.626 Y-71.42
X-18.592 Y-71.439
X-18.553 Y-71.444
X-18.515 Y-71.433
X-18.471 Y-71.411
X-18.437 Y-71.393 Z-3.192
X-18.408 Y-71.379 Z-3.171
X-18.388 Y-71.369 Z-3.138
X-18.382 Y-71.365 Z-3.1
G0 Z5
X-11.942 Y-70.886
Z2
G1 Z0.1 F1000
X-11.947 Y-70.881 Z0.062
X-11.962 Y-70.865 Z0.029
X-11.985 Y-70.843 Z0.008
X-12.012 Y-70.815 Z0
X-12.048 Y-70.78
X-12.08 Y-70.758
X-12.119 Y-70.751
X-12.157 Y-70.758
X-12.189 Y-70.78
G3 X-11.447 Y-71.523 Z-0.5 I0.371 J-0.371
X-12.189 Y-70.78 Z-1 I-0.371 J0.371
X-11.447 Y-71.523 Z-1.5 I0.371 J-0.371
X-12.189 Y-70.78 Z-2 I-0.371 J0.371
X-11.447 Y-71.523 Z-2.5 I0.371 J-0.371
X-12.189 Y-70.78 Z-3 I-0.371 J0.371
X-12.286 Y-71.39 Z-3.2 I0.371 J-0.371
X-11.35 Y-70.913 I0.468 J0.238
X-12.286 Y-71.39 I-0.468 J-0.238
G1 X-12.262 Y-71.42
X-12.228 Y-71.439
X-12.189 Y-71.444
X-12.151 Y-71.433
X-12.107 Y-71.411
X-12.073 Y-71.393 Z-3.192
X-12.044 Y-71.379 Z-3.171
X-12.024 Y-71.369 Z-3.138
X-12.018 Y-71.365 Z-3.1
G0 Z5
X-11.942 Y-77.25
Z2
G1 Z0.1 F1000
X-11.947 Y-77.245 Z0.062
X-11.962 Y-77.229 Z0.029
X-11.985 Y-77.206 Z0.008
X-12.012 Y-77.179 Z0
X-12.048 Y-77.144
X-12.08 Y-77.122
X-12.119 Y-77.115
X-12.157 Y-77.122
X-12.189 Y-77.144
G3 X-11.447 Y-77.887 Z-0.5 I0.371 J-0.371
X-12.189 Y-77.144 Z-1 I-0.371 J0.371
X-11.447 Y-77.887 Z-1.5 I0.371 J-0.371
X-12.189 Y-77.144 Z-2 I-0.371 J0.371
X-11.447 Y-77.887 Z-2.5 I0.371 J-0.371
X-12.189 Y-77.144 Z-3 I-0.371 J0.371
X-12.286 Y-77.754 Z-3.2 I0.371 J-0.371
X-11.35 Y-77.277 I0.468 J0.238
X-12.286 Y-77.754 I-0.468 J-0.238
G1 X-12.262 Y-77.784
X-12.228 Y-77.803
X-12.189 Y-77.808
X-12.151 Y-77.797
X-12.107 Y-77.775
X-12.073 Y-77.757 Z-3.192
X-12.044 Y-77.743 Z-3.171
X-12.024 Y-77.733 Z-3.138
X-12.018 Y-77.729 Z-3.1
G0 Z5
X-18.306 Y-77.25
Z2
G1 Z0.1 F1000
X-18.311 Y-77.245 Z0.062
X-18.326 Y-77.229 Z0.029
X-18.349 Y-77.206 Z0.008
X-18.376 Y-77.179 Z0
X-18.412 Y-77.144
X-18.444 Y-77.122
X-18.483 Y-77.115
X-18.521 Y-77.122
X-18.553 Y-77.144
G3 X-17.811 Y-77.887 Z-0.5 I0.371 J-0.371
X-18.553 Y-77.144 Z-1 I-0.371 J0.371
X-17.811 Y-77.887 Z-1.5 I0.371 J-0.371
X-18.553 Y-77.144 Z-2 I-0.371 J0.371
X-17.811 Y-77.887 Z-2.5 I0.371 J-0.371
X-18.553 Y-77.144 Z-3 I-0.371 J0.371
X-18.65 Y-77.754 Z-3.2 I0.371 J-0.371
X-17.714 Y-77.277 I0.468 J0.238
X-18.65 Y-77.754 I-0.468 J-0.238
G1 X-18.626 Y-77.784
X-18.592 Y-77.803
X-18.553 Y-77.808
X-18.515 Y-77.797
X-18.471 Y-77.775
X-18.437 Y-77.757 Z-3.192
X-18.408 Y-77.743 Z-3.171
X-18.388 Y-77.733 Z-3.138
X-18.382 Y-77.729 Z-3.1
G0 Z5
X-18.306 Y-97.553
Z2
G1 Z0.1 F1000
X-18.311 Y-97.547 Z0.062
X-18.326 Y-97.532 Z0.029
X-18.349 Y-97.509 Z0.008
X-18.376 Y-97.482 Z0
X-18.412 Y-97.447
X-18.444 Y-97.425
X-18.483 Y-97.417
X-18.521 Y-97.425
X-18.553 Y-97.447
G3 X-17.811 Y-98.189 Z-0.5 I0.371 J-0.371
X-18.553 Y-97.447 Z-1 I-0.371 J0.371
X-17.811 Y-98.189 Z-1.5 I0.371 J-0.371
X-18.553 Y-97.447 Z-2 I-0.371 J0.371
X-17.811 Y-98.189 Z-2.5 I0.371 J-0.371
X-18.553 Y-97.447 Z-3 I-0.371 J0.371
X-18.65 Y-98.056 Z-3.2 I0.371 J-0.371
X-17.714 Y-97.58 I0.468 J0.238
X-18.65 Y-98.056 I-0.468 J-0.238
G1 X-18.626 Y-98.087
X-18.592 Y-98.106
X-18.553 Y-98.111
X-18.515 Y-98.1
X-18.471 Y-98.077
X-18.437 Y-98.06 Z-3.192
X-18.408 Y-98.045 Z-3.171
X-18.388 Y-98.035 Z-3.138
X-18.382 Y-98.032 Z-3.1
G0 Z5
X-11.942 Y-97.553
Z2
G1 Z0.1 F1000
X-11.947 Y-97.547 Z0.062
X-11.962 Y-97.532 Z0.029
X-11.985 Y-97.509 Z0.008
X-12.012 Y-97.482 Z0
X-12.048 Y-97.447
X-12.08 Y-97.425
X-12.119 Y-97.417
X-12.157 Y-97.425
X-12.189 Y-97.447
G3 X-11.447 Y-98.189 Z-0.5 I0.371 J-0.371
X-12.189 Y-97.447 Z-1 I-0.371 J0.371
X-11.447 Y-98.189 Z-1.5 I0.371 J-0.371
X-12.189 Y-97.447 Z-2 I-0.371 J0.371
X-11.447 Y-98.189 Z-2.5 I0.371 J-0.371
X-12.189 Y-97.447 Z-3 I-0.371 J0.371
X-12.286 Y-98.056 Z-3.2 I0.371 J-0.371
X-11.35 Y-97.58 I0.468 J0.238
X-12.286 Y-98.056 I-0.468 J-0.238
G1 X-12.262 Y-98.087
X-12.228 Y-98.106
X-12.189 Y-98.111
X-12.151 Y-98.1
X-12.107 Y-98.077
X-12.073 Y-98.06 Z-3.192
X-12.044 Y-98.045 Z-3.171
X-12.024 Y-98.035 Z-3.138
X-12.018 Y-98.032 Z-3.1
G0 Z5
X-11.942 Y-103.917
Z2
G1 Z0.1 F1000
X-11.947 Y-103.911 Z0.062
X-11.962 Y-103.896 Z0.029
X-11.985 Y-103.873 Z0.008
X-12.012 Y-103.846 Z0
X-12.048 Y-103.811
X-12.08 Y-103.789
X-12.119 Y-103.781
X-12.157 Y-103.789
X-12.189 Y-103.811
G3 X-11.447 Y-104.553 Z-0.5 I0.371 J-0.371
X-12.189 Y-103.811 Z-1 I-0.371 J0.371
X-11.447 Y-104.553 Z-1.5 I0.371 J-0.371
X-12.189 Y-103.811 Z-2 I-0.371 J0.371
X-11.447 Y-104.553 Z-2.5 I0.371 J-0.371
X-12.189 Y-103.811 Z-3 I-0.371 J0.371
X-12.286 Y-104.42 Z-3.2 I0.371 J-0.371
X-11.35 Y-103.944 I0.468 J0.238
X-12.286 Y-104.42 I-0.468 J-0.238
G1 X-12.262 Y-104.451
X-12.228 Y-104.47
X-12.189 Y-104.475
X-12.151 Y-104.464
X-12.107 Y-104.441
X-12.073 Y-104.424 Z-3.192
X-12.044 Y-104.409 Z-3.171
X-12.024 Y-104.399 Z-3.138
X-12.018 Y-104.396 Z-3.1
G0 Z5
X-18.306 Y-103.917
Z2
G1 Z0.1 F1000
X-18.311 Y-103.911 Z0.062
X-18.326 Y-103.896 Z0.029
X-18.349 Y-103.873 Z0.008
X-18.376 Y-103.846 Z0
X-18.412 Y-103.811
X-18.444 Y-103.789
X-18.483 Y-103.781
X-18.521 Y-103.789
X-18.553 Y-103.811
G3 X-17.811 Y-104.553 Z-0.5 I0.371 J-0.371
X-18.553 Y-103.811 Z-1 I-0.371 J0.371
X-17.811 Y-104.553 Z-1.5 I0.371 J-0.371
X-18.553 Y-103.811 Z-2 I-0.371 J0.371
X-17.811 Y-104.553 Z-2.5 I0.371 J-0.371
X-18.553 Y-103.811 Z-3 I-0.371 J0.371
X-18.65 Y-104.42 Z-3.2 I0.371 J-0.371
X-17.714 Y-103.944 I0.468 J0.238
X-18.65 Y-104.42 I-0.468 J-0.238
G1 X-18.626 Y-104.451
X-18.592 Y-104.47
X-18.553 Y-104.475
X-18.515 Y-104.464
X-18.471 Y-104.441
X-18.437 Y-104.424 Z-3.192
X-18.408 Y-104.409 Z-3.171
X-18.388 Y-104.399 Z-3.138
X-18.382 Y-104.396 Z-3.1
G0 Z5
X-85.893 Y-91.798
Z2
G1 Z0.1 F1000
X-85.888 Y-91.803 Z0.062
X-85.873 Y-91.818 Z0.029
X-85.85 Y-91.841 Z0.008
X-85.823 Y-91.868 Z0
X-85.787 Y-91.904
X-85.755 Y-91.925
X-85.717 Y-91.933
X-85.678 Y-91.925
X-85.646 Y-91.904
G3 X-86.388 Y-91.161 Z-0.5 I-0.371 J0.371
X-85.646 Y-91.904 Z-1 I0.371 J-0.371
X-86.388 Y-91.161 Z-1.5 I-0.371 J0.371
X-85.646 Y-91.904 Z-2 I0.371 J-0.371
X-86.388 Y-91.161 Z-2.5 I-0.371 J0.371
X-85.646 Y-91.904 Z-3 I0.371 J-0.371
X-85.549 Y-91.294 Z-3.2 I-0.371 J0.371
X-86.485 Y-91.771 I-0.468 J-0.238
X-85.549 Y-91.294 I0.468 J0.238
G1 X-85.574 Y-91.264
X-85.608 Y-91.245
X-85.646 Y-91.24
X-85.684 Y-91.251
X-85.728 Y-91.273
X-85.762 Y-91.291 Z-3.192
X-85.791 Y-91.305 Z-3.171
X-85.811 Y-91.315 Z-3.138
X-85.817 Y-91.319 Z-3.1
G0 Z5
X-92.257 Y-91.798
Z2
G1 Z0.1 F1000
X-92.252 Y-91.803 Z0.062
X-92.237 Y-91.818 Z0.029
X-92.214 Y-91.841 Z0.008
X-92.187 Y-91.868 Z0
X-92.151 Y-91.904
X-92.119 Y-91.925
X-92.081 Y-91.933
X-92.042 Y-91.925
X-92.01 Y-91.904
G3 X-92.752 Y-91.161 Z-0.5 I-0.371 J0.371
X-92.01 Y-91.904 Z-1 I0.371 J-0.371
X-92.752 Y-91.161 Z-1.5 I-0.371 J0.371
X-92.01 Y-91.904 Z-2 I0.371 J-0.371
X-92.752 Y-91.161 Z-2.5 I-0.371 J0.371
X-92.01 Y-91.904 Z-3 I0.371 J-0.371
X-91.913 Y-91.294 Z-3.2 I-0.371 J0.371
X-92.849 Y-91.771 I-0.468 J-0.238
X-91.913 Y-91.294 I0.468 J0.238
G1 X-91.937 Y-91.264
X-91.972 Y-91.245
X-92.01 Y-91.24
X-92.048 Y-91.251
X-92.092 Y-91.273
X-92.126 Y-91.291 Z-3.192
X-92.155 Y-91.305 Z-3.171
X-92.175 Y-91.315 Z-3.138
X-92.181 Y-91.319 Z-3.1
G0 Z5
X-92.257 Y-85.434
Z2
G1 Z0.1 F1000
X-92.252 Y-85.439 Z0.062
X-92.237 Y-85.454 Z0.029
X-92.214 Y-85.477 Z0.008
X-92.187 Y-85.504 Z0
X-92.151 Y-85.54
X-92.119 Y-85.562
X-92.081 Y-85.569
X-92.042 Y-85.562
X-92.01 Y-85.54
G3 X-92.752 Y-84.797 Z-0.5 I-0.371 J0.371
X-92.01 Y-85.54 Z-1 I0.371 J-0.371
X-92.752 Y-84.797 Z-1.5 I-0.371 J0.371
X-92.01 Y-85.54 Z-2 I0.371 J-0.371
X-92.752 Y-84.797 Z-2.5 I-0.371 J0.371
X-92.01 Y-85.54 Z-3 I0.371 J-0.371
X-91.913 Y-84.93 Z-3.2 I-0.371 J0.371
X-92.849 Y-85.407 I-0.468 J-0.238
X-91.913 Y-84.93 I0.468 J0.238
G1 X-91.937 Y-84.9
X-91.972 Y-84.881
X-92.01 Y-84.876
X-92.048 Y-84.887
X-92.092 Y-84.909
X-92.126 Y-84.927 Z-3.192
X-92.155 Y-84.941 Z-3.171
X-92.175 Y-84.951 Z-3.138
X-92.181 Y-84.955 Z-3.1
G0 Z5
X-85.893 Y-85.434
Z2
G1 Z0.1 F1000
X-85.888 Y-85.439 Z0.062
X-85.873 Y-85.454 Z0.029
X-85.85 Y-85.477 Z0.008
X-85.823 Y-85.504 Z0
X-85.787 Y-85.54
X-85.755 Y-85.562
X-85.717 Y-85.569
X-85.678 Y-85.562
X-85.646 Y-85.54
G3 X-86.388 Y-84.797 Z-0.5 I-0.371 J0.371
X-85.646 Y-85.54 Z-1 I0.371 J-0.371
X-86.388 Y-84.797 Z-1.5 I-0.371 J0.371
X-85.646 Y-85.54 Z-2 I0.371 J-0.371
X-86.388 Y-84.797 Z-2.5 I-0.371 J0.371
X-85.646 Y-85.54 Z-3 I0.371 J-0.371
X-85.549 Y-84.93 Z-3.2 I-0.371 J0.371
X-86.485 Y-85.407 I-0.468 J-0.238
X-85.549 Y-84.93 I0.468 J0.238
G1 X-85.574 Y-84.9
X-85.608 Y-84.881
X-85.646 Y-84.876
X-85.684 Y-84.887
X-85.728 Y-84.909
X-85.762 Y-84.927 Z-3.192
X-85.791 Y-84.941 Z-3.171
X-85.811 Y-84.951 Z-3.138
X-85.817 Y-84.955 Z-3.1
G0 Z5
X-85.893 Y-65.131
Z2
G1 Z0.1 F1000
X-85.888 Y-65.136 Z0.062
X-85.873 Y-65.152 Z0.029
X-85.85 Y-65.175 Z0.008
X-85.823 Y-65.202 Z0
X-85.787 Y-65.237
X-85.755 Y-65.259
X-85.717 Y-65.266
X-85.678 Y-65.259
X-85.646 Y-65.237
G3 X-86.388 Y-64.495 Z-0.5 I-0.371 J0.371
X-85.646 Y-65.237 Z-1 I0.371 J-0.371
X-86.388 Y-64.495 Z-1.5 I-0.371 J0.371
X-85.646 Y-65.237 Z-2 I0.371 J-0.371
X-86.388 Y-64.495 Z-2.5 I-0.371 J0.371
X-85.646 Y-65.237 Z-3 I0.371 J-0.371
X-85.549 Y-64.628 Z-3.2 I-0.371 J0.371
X-86.485 Y-65.104 I-0.468 J-0.238
X-85.549 Y-64.628 I0.468 J0.238
G1 X-85.574 Y-64.597
X-85.608 Y-64.578
X-85.646 Y-64.573
X-85.684 Y-64.584
X-85.728 Y-64.607
X-85.762 Y-64.624 Z-3.192
X-85.791 Y-64.639 Z-3.171
X-85.811 Y-64.648 Z-3.138
X-85.817 Y-64.652 Z-3.1
G0 Z5
X-92.257 Y-65.131
Z2
G1 Z0.1 F1000
X-92.252 Y-65.136 Z0.062
X-92.237 Y-65.152 Z0.029
X-92.214 Y-65.175 Z0.008
X-92.187 Y-65.202 Z0
X-92.151 Y-65.237
X-92.119 Y-65.259
X-92.081 Y-65.266
X-92.042 Y-65.259
X-92.01 Y-65.237
G3 X-92.752 Y-64.495 Z-0.5 I-0.371 J0.371
X-92.01 Y-65.237 Z-1 I0.371 J-0.371
X-92.752 Y-64.495 Z-1.5 I-0.371 J0.371
X-92.01 Y-65.237 Z-2 I0.371 J-0.371
X-92.752 Y-64.495 Z-2.5 I-0.371 J0.371
X-92.01 Y-65.237 Z-3 I0.371 J-0.371
X-91.913 Y-64.628 Z-3.2 I-0.371 J0.371
X-92.849 Y-65.104 I-0.468 J-0.238
X-91.913 Y-64.628 I0.468 J0.238
G1 X-91.937 Y-64.597
X-91.972 Y-64.578
X-92.01 Y-64.573
X-92.048 Y-64.584
X-92.092 Y-64.607
X-92.126 Y-64.624 Z-3.192
X-92.155 Y-64.639 Z-3.171
X-92.175 Y-64.648 Z-3.138
X-92.181 Y-64.652 Z-3.1
G0 Z5
X-92.257 Y-58.767
Z2
G1 Z0.1 F1000
X-92.252 Y-58.772 Z0.062
X-92.237 Y-58.788 Z0.029
X-92.214 Y-58.811 Z0.008
X-92.187 Y-58.838 Z0
X-92.151 Y-58.873
X-92.119 Y-58.895
X-92.081 Y-58.902
X-92.042 Y-58.895
X-92.01 Y-58.873
G3 X-92.752 Y-58.131 Z-0.5 I-0.371 J0.371
X-92.01 Y-58.873 Z-1 I0.371 J-0.371
X-92.752 Y-58.131 Z-1.5 I-0.371 J0.371
X-92.01 Y-58.873 Z-2 I0.371 J-0.371
X-92.752 Y-58.131 Z-2.5 I-0.371 J0.371
X-92.01 Y-58.873 Z-3 I0.371 J-0.371
X-91.913 Y-58.264 Z-3.2 I-0.371 J0.371
X-92.849 Y-58.74 I-0.468 J-0.238
X-91.913 Y-58.264 I0.468 J0.238
G1 X-91.937 Y-58.233
X-91.972 Y-58.214
X-92.01 Y-58.209
X-92.048 Y-58.22
X-92.092 Y-58.243
X-92.126 Y-58.26 Z-3.192
X-92.155 Y-58.275 Z-3.171
X-92.175 Y-58.285 Z-3.138
X-92.181 Y-58.288 Z-3.1
G0 Z5
X-85.893 Y-58.767
Z2
G1 Z0.1 F1000
X-85.888 Y-58.772 Z0.062
X-85.873 Y-58.788 Z0.029
X-85.85 Y-58.811 Z0.008
X-85.823 Y-58.838 Z0
X-85.787 Y-58.873
X-85.755 Y-58.895
X-85.717 Y-58.902
X-85.678 Y-58.895
X-85.646 Y-58.873
G3 X-86.388 Y-58.131 Z-0.5 I-0.371 J0.371
X-85.646 Y-58.873 Z-1 I0.371 J-0.371
X-86.388 Y-58.131 Z-1.5 I-0.371 J0.371
X-85.646 Y-58.873 Z-2 I0.371 J-0.371
X-86.388 Y-58.131 Z-2.5 I-0.371 J0.371
X-85.646 Y-58.873 Z-3 I0.371 J-0.371
X-85.549 Y-58.264 Z-3.2 I-0.371 J0.371
X-86.485 Y-58.74 I-0.468 J-0.238
X-85.549 Y-58.264 I0.468 J0.238
G1 X-85.574 Y-58.233
X-85.608 Y-58.214
X-85.646 Y-58.209
X-85.684 Y-58.22
X-85.728 Y-58.243
X-85.762 Y-58.26 Z-3.192
X-85.791 Y-58.275 Z-3.171
X-85.811 Y-58.285 Z-3.138
X-85.817 Y-58.288 Z-3.1
G0 Z5
X-85.893 Y-38.464
Z2
G1 Z0.1 F1000
X-85.888 Y-38.47 Z0.062
X-85.873 Y-38.485 Z0.029
X-85.85 Y-38.508 Z0.008
X-85.823 Y-38.535 Z0
X-85.787 Y-38.57
X-85.755 Y-38.592
X-85.717 Y-38.6
X-85.678 Y-38.592
X-85.646 Y-38.57
G3 X-86.388 Y-37.828 Z-0.5 I-0.371 J0.371
X-85.646 Y-38.57 Z-1 I0.371 J-0.371
X-86.388 Y-37.828 Z-1.5 I-0.371 J0.371
X-85.646 Y-38.57 Z-2 I0.371 J-0.371
X-86.388 Y-37.828 Z-2.5 I-0.371 J0.371
X-85.646 Y-38.57 Z-3 I0.371 J-0.371
X-85.549 Y-37.961 Z-3.2 I-0.371 J0.371
X-86.485 Y-38.438 I-0.468 J-0.238
X-85.549 Y-37.961 I0.468 J0.238
G1 X-85.574 Y-37.93
X-85.608 Y-37.911
X-85.646 Y-37.907
X-85.684 Y-37.917
X-85.728 Y-37.94
X-85.762 Y-37.957 Z-3.192
X-85.791 Y-37.972 Z-3.171
X-85.811 Y-37.982 Z-3.138
X-85.817 Y-37.985 Z-3.1
G0 Z5
X-92.257 Y-38.464
Z2
G1 Z0.1 F1000
X-92.252 Y-38.47 Z0.062
X-92.237 Y-38.485 Z0.029
X-92.214 Y-38.508 Z0.008
X-92.187 Y-38.535 Z0
X-92.151 Y-38.57
X-92.119 Y-38.592
X-92.081 Y-38.6
X-92.042 Y-38.592
X-92.01 Y-38.57
G3 X-92.752 Y-37.828 Z-0.5 I-0.371 J0.371
X-92.01 Y-38.57 Z-1 I0.371 J-0.371
X-92.752 Y-37.828 Z-1.5 I-0.371 J0.371
X-92.01 Y-38.57 Z-2 I0.371 J-0.371
X-92.752 Y-37.828 Z-2.5 I-0.371 J0.371
X-92.01 Y-38.57 Z-3 I0.371 J-0.371
X-91.913 Y-37.961 Z-3.2 I-0.371 J0.371
X-92.849 Y-38.438 I-0.468 J-0.238
X-91.913 Y-37.961 I0.468 J0.238
G1 X-91.937 Y-37.93
X-91.972 Y-37.911
X-92.01 Y-37.907
X-92.048 Y-37.917
X-92.092 Y-37.94
X-92.126 Y-37.957 Z-3.192
X-92.155 Y-37.972 Z-3.171
X-92.175 Y-37.982 Z-3.138
X-92.181 Y-37.985 Z-3.1
G0 Z5
X-92.257 Y-32.1
Z2
G1 Z0.1 F1000
X-92.252 Y-32.106 Z0.062
X-92.237 Y-32.121 Z0.029
X-92.214 Y-32.144 Z0.008
X-92.187 Y-32.171 Z0
X-92.151 Y-32.206
X-92.119 Y-32.228
X-92.081 Y-32.236
X-92.042 Y-32.228
X-92.01 Y-32.206
G3 X-92.752 Y-31.464 Z-0.5 I-0.371 J0.371
X-92.01 Y-32.206 Z-1 I0.371 J-0.371
X-92.752 Y-31.464 Z-1.5 I-0.371 J0.371
X-92.01 Y-32.206 Z-2 I0.371 J-0.371
X-92.752 Y-31.464 Z-2.5 I-0.371 J0.371
X-92.01 Y-32.206 Z-3 I0.371 J-0.371
X-91.913 Y-31.597 Z-3.2 I-0.371 J0.371
X-92.849 Y-32.074 I-0.468 J-0.238
X-91.913 Y-31.597 I0.468 J0.238
G1 X-91.937 Y-31.566
X-91.972 Y-31.547
X-92.01 Y-31.543
X-92.048 Y-31.553
X-92.092 Y-31.576
X-92.126 Y-31.593 Z-3.192
X-92.155 Y-31.608 Z-3.171
X-92.175 Y-31.618 Z-3.138
X-92.181 Y-31.621 Z-3.1
G0 Z5
X-85.893 Y-32.1
Z2
G1 Z0.1 F1000
X-85.888 Y-32.106 Z0.062
X-85.873 Y-32.121 Z0.029
X-85.85 Y-32.144 Z0.008
X-85.823 Y-32.171 Z0
X-85.787 Y-32.206
X-85.755 Y-32.228
X-85.717 Y-32.236
X-85.678 Y-32.228
X-85.646 Y-32.206
G3 X-86.388 Y-31.464 Z-0.5 I-0.371 J0.371
X-85.646 Y-32.206 Z-1 I0.371 J-0.371
X-86.388 Y-31.464 Z-1.5 I-0.371 J0.371
X-85.646 Y-32.206 Z-2 I0.371 J-0.371
X-86.388 Y-31.464 Z-2.5 I-0.371 J0.371
X-85.646 Y-32.206 Z-3 I0.371 J-0.371
X-85.549 Y-31.597 Z-3.2 I-0.371 J0.371
X-86.485 Y-32.074 I-0.468 J-0.238
X-85.549 Y-31.597 I0.468 J0.238
G1 X-85.574 Y-31.566
X-85.608 Y-31.547
X-85.646 Y-31.543
X-85.684 Y-31.553
X-85.728 Y-31.576
X-85.762 Y-31.593 Z-3.192
X-85.791 Y-31.608 Z-3.171
X-85.811 Y-31.618 Z-3.138
X-85.817 Y-31.621 Z-3.1
G0 Z5
X-85.893 Y-11.798
Z2
G1 Z0.1 F1000
X-85.888 Y-11.803 Z0.062
X-85.873 Y-11.818 Z0.029
X-85.85 Y-11.841 Z0.008
X-85.823 Y-11.868 Z0
X-85.787 Y-11.904
X-85.755 Y-11.925
X-85.717 Y-11.933
X-85.678 Y-11.925
X-85.646 Y-11.904
G3 X-86.388 Y-11.161 Z-0.5 I-0.371 J0.371
X-85.646 Y-11.904 Z-1 I0.371 J-0.371
X-86.388 Y-11.161 Z-1.5 I-0.371 J0.371
X-85.646 Y-11.904 Z-2 I0.371 J-0.371
X-86.388 Y-11.161 Z-2.5 I-0.371 J0.371
X-85.646 Y-11.904 Z-3 I0.371 J-0.371
X-85.549 Y-11.294 Z-3.2 I-0.371 J0.371
X-86.485 Y-11.771 I-0.468 J-0.238
X-85.549 Y-11.294 I0.468 J0.238
G1 X-85.574 Y-11.264
X-85.608 Y-11.245
X-85.646 Y-11.24
X-85.684 Y-11.251
X-85.728 Y-11.273
X-85.762 Y-11.291 Z-3.192
X-85.791 Y-11.305 Z-3.171
X-85.811 Y-11.315 Z-3.138
X-85.817 Y-11.319 Z-3.1
G0 Z5
X-92.257 Y-11.798
Z2
G1 Z0.1 F1000
X-92.252 Y-11.803 Z0.062
X-92.237 Y-11.818 Z0.029
X-92.214 Y-11.841 Z0.008
X-92.187 Y-11.868 Z0
X-92.151 Y-11.904
X-92.119 Y-11.925
X-92.081 Y-11.933
X-92.042 Y-11.925
X-92.01 Y-11.904
G3 X-92.752 Y-11.161 Z-0.5 I-0.371 J0.371
X-92.01 Y-11.904 Z-1 I0.371 J-0.371
X-92.752 Y-11.161 Z-1.5 I-0.371 J0.371
X-92.01 Y-11.904 Z-2 I0.371 J-0.371
X-92.752 Y-11.161 Z-2.5 I-0.371 J0.371
X-92.01 Y-11.904 Z-3 I0.371 J-0.371
X-91.913 Y-11.294 Z-3.2 I-0.371 J0.371
X-92.849 Y-11.771 I-0.468 J-0.238
X-91.913 Y-11.294 I0.468 J0.238
G1 X-91.937 Y-11.264
X-91.972 Y-11.245
X-92.01 Y-11.24
X-92.048 Y-11.251
X-92.092 Y-11.273
X-92.126 Y-11.291 Z-3.192
X-92.155 Y-11.305 Z-3.171
X-92.175 Y-11.315 Z-3.138
X-92.181 Y-11.319 Z-3.1
G0 Z5
X-92.257 Y-5.434
Z2
G1 Z0.1 F1000
X-92.252 Y-5.439 Z0.062
X-92.237 Y-5.454 Z0.029
X-92.214 Y-5.477 Z0.008
X-92.187 Y-5.504 Z0
X-92.151 Y-5.54
X-92.119 Y-5.562
X-92.081 Y-5.569
X-92.042 Y-5.562
X-92.01 Y-5.54
G3 X-92.752 Y-4.797 Z-0.5 I-0.371 J0.371
X-92.01 Y-5.54 Z-1 I0.371 J-0.371
X-92.752 Y-4.797 Z-1.5 I-0.371 J0.371
X-92.01 Y-5.54 Z-2 I0.371 J-0.371
X-92.752 Y-4.797 Z-2.5 I-0.371 J0.371
X-92.01 Y-5.54 Z-3 I0.371 J-0.371
X-91.913 Y-4.93 Z-3.2 I-0.371 J0.371
X-92.849 Y-5.407 I-0.468 J-0.238
X-91.913 Y-4.93 I0.468 J0.238
G1 X-91.937 Y-4.9
X-91.972 Y-4.881
X-92.01 Y-4.876
X-92.048 Y-4.887
X-92.092 Y-4.909
X-92.126 Y-4.927 Z-3.192
X-92.155 Y-4.941 Z-3.171
X-92.175 Y-4.951 Z-3.138
X-92.181 Y-4.955 Z-3.1
G0 Z5
X-85.893 Y-5.434
Z2
G1 Z0.1 F1000
X-85.888 Y-5.439 Z0.062
X-85.873 Y-5.454 Z0.029
X-85.85 Y-5.477 Z0.008
X-85.823 Y-5.504 Z0
X-85.787 Y-5.54
X-85.755 Y-5.562
X-85.717 Y-5.569
X-85.678 Y-5.562
X-85.646 Y-5.54
G3 X-86.388 Y-4.797 Z-0.5 I-0.371 J0.371
X-85.646 Y-5.54 Z-1 I0.371 J-0.371
X-86.388 Y-4.797 Z-1.5 I-0.371 J0.371
X-85.646 Y-5.54 Z-2 I0.371 J-0.371
X-86.388 Y-4.797 Z-2.5 I-0.371 J0.371
X-85.646 Y-5.54 Z-3 I0.371 J-0.371
X-85.549 Y-4.93 Z-3.2 I-0.371 J0.371
X-86.485 Y-5.407 I-0.468 J-0.238
X-85.549 Y-4.93 I0.468 J0.238
G1 X-85.574 Y-4.9
X-85.608 Y-4.881
X-85.646 Y-4.876
X-85.684 Y-4.887
X-85.728 Y-4.909
X-85.762 Y-4.927 Z-3.192
X-85.791 Y-4.941 Z-3.171
X-85.811 Y-4.951 Z-3.138
X-85.817 Y-4.955 Z-3.1
G0 Z15

(Bohrfrasen8)
X-24.124 Y-117.688
Z15
Z2
G1 Z0.1 F1000
X-24.117 Z0.062
X-24.095 Z0.029
X-24.062 Z0.008
X-24.024 Z0
X-23.974
X-23.936 Y-117.68
X-23.903 Y-117.659
X-23.882 Y-117.626
X-23.874 Y-117.588
G3 X-25.174 Y-117.588 Z-0.5 I-0.65 J0
X-23.874 Y-117.588 Z-1 I0.65 J0
X-25.174 Y-117.588 Z-1.5 I-0.65 J0
X-23.874 Y-117.588 Z-2 I0.65 J0
X-25.174 Y-117.588 Z-2.5 I-0.65 J0
X-23.874 Y-117.588 Z-3 I0.65 J0
X-25.174 Y-117.588 I-0.65 J0
X-23.874 Y-117.588 I0.65 J0
G1 X-23.882 Y-117.55
X-23.903 Y-117.517
X-23.936 Y-117.495
X-23.974 Y-117.488
X-24.024
X-24.062 Z-2.992
X-24.095 Z-2.971
X-24.117 Z-2.938
X-24.124 Z-2.9
G0 Z5
X-6.893 Y-135.519
Z2
G1 Z0.1 F1000
X-6.901 Z0.062
X-6.922 Z0.029
X-6.955 Z0.008
X-6.993 Z0
X-7.043
X-7.081 Y-135.527
X-7.114 Y-135.548
X-7.135 Y-135.581
X-7.143 Y-135.619
G3 X-5.843 Y-135.619 Z-0.5 I0.65 J0
X-7.143 Y-135.619 Z-1 I-0.65 J0
X-5.843 Y-135.619 Z-1.5 I0.65 J0
X-7.143 Y-135.619 Z-2 I-0.65 J0
X-5.843 Y-135.619 Z-2.5 I0.65 J0
X-7.143 Y-135.619 Z-3 I-0.65 J0
X-5.843 Y-135.619 I0.65 J0
X-7.143 Y-135.619 I-0.65 J0
G1 X-7.135 Y-135.657
X-7.114 Y-135.69
X-7.081 Y-135.711
X-7.043 Y-135.719
X-6.993
X-6.955 Z-2.992
X-6.922 Z-2.971
X-6.901 Z-2.938
X-6.893 Z-2.9
G0 Z5
X-24.124 Y-153.75
Z2
G1 Z0.1 F1000
X-24.117 Z0.062
X-24.095 Z0.029
X-24.062 Z0.008
X-24.024 Z0
X-23.974
X-23.936 Y-153.743
X-23.903 Y-153.721
X-23.882 Y-153.689
X-23.874 Y-153.65
G3 X-25.174 Y-153.65 Z-0.5 I-0.65 J0
X-23.874 Y-153.65 Z-1 I0.65 J0
X-25.174 Y-153.65 Z-1.5 I-0.65 J0
X-23.874 Y-153.65 Z-2 I0.65 J0
X-25.174 Y-153.65 Z-2.5 I-0.65 J0
X-23.874 Y-153.65 Z-3 I0.65 J0
X-25.174 Y-153.65 I-0.65 J0
X-23.874 Y-153.65 I0.65 J0
G1 X-23.882 Y-153.612
X-23.903 Y-153.58
X-23.936 Y-153.558
X-23.974 Y-153.55
X-24.024
X-24.062 Z-2.992
X-24.095 Z-2.971
X-24.117 Z-2.938
X-24.124 Z-2.9
G0 Z5
X-42.155 Y-135.719
Z2
G1 Z0.1 F1000
X-42.148 Z0.062
X-42.126 Z0.029
X-42.094 Z0.008
X-42.055 Z0
X-42.005
X-41.967 Y-135.711
X-41.935 Y-135.69
X-41.913 Y-135.657
X-41.905 Y-135.619
G3 X-43.205 Y-135.619 Z-0.5 I-0.65 J0
X-41.905 Y-135.619 Z-1 I0.65 J0
X-43.205 Y-135.619 Z-1.5 I-0.65 J0
X-41.905 Y-135.619 Z-2 I0.65 J0
X-43.205 Y-135.619 Z-2.5 I-0.65 J0
X-41.905 Y-135.619 Z-3 I0.65 J0
X-43.205 Y-135.619 I-0.65 J0
X-41.905 Y-135.619 I0.65 J0
G1 X-41.913 Y-135.581
X-41.935 Y-135.548
X-41.967 Y-135.527
X-42.005 Y-135.519
X-42.055
X-42.094 Z-2.992
X-42.126 Z-2.971
X-42.148 Z-2.938
X-42.155 Z-2.9
G0 Z5
X-58.893
Z2
G1 Z0.1 F1000
X-58.901 Z0.062
X-58.922 Z0.029
X-58.955 Z0.008
X-58.993 Z0
X-59.043
X-59.081 Y-135.527
X-59.114 Y-135.548
X-59.135 Y-135.581
X-59.143 Y-135.619
G3 X-57.843 Y-135.619 Z-0.5 I0.65 J0
X-59.143 Y-135.619 Z-1 I-0.65 J0
X-57.843 Y-135.619 Z-1.5 I0.65 J0
X-59.143 Y-135.619 Z-2 I-0.65 J0
X-57.843 Y-135.619 Z-2.5 I0.65 J0
X-59.143 Y-135.619 Z-3 I-0.65 J0
X-57.843 Y-135.619 I0.65 J0
X-59.143 Y-135.619 I-0.65 J0
G1 X-59.135 Y-135.657
X-59.114 Y-135.69
X-59.081 Y-135.711
X-59.043 Y-135.719
X-58.993
X-58.955 Z-2.992
X-58.922 Z-2.971
X-58.901 Z-2.938
X-58.893 Z-2.9
G0 Z5
X-76.924 Y-153.55
Z2
G1 Z0.1 F1000
X-76.932 Z0.062
X-76.953 Z0.029
X-76.986 Z0.008
X-77.024 Z0
X-77.074
X-77.112 Y-153.558
X-77.145 Y-153.58
X-77.167 Y-153.612
X-77.174 Y-153.65
G3 X-75.874 Y-153.65 Z-0.5 I0.65 J0
X-77.174 Y-153.65 Z-1 I-0.65 J0
X-75.874 Y-153.65 Z-1.5 I0.65 J0
X-77.174 Y-153.65 Z-2 I-0.65 J0
X-75.874 Y-153.65 Z-2.5 I0.65 J0
X-77.174 Y-153.65 Z-3 I-0.65 J0
X-75.874 Y-153.65 I0.65 J0
X-77.174 Y-153.65 I-0.65 J0
G1 X-77.167 Y-153.689
X-77.145 Y-153.721
X-77.112 Y-153.743
X-77.074 Y-153.75
X-77.024
X-76.986 Z-2.992
X-76.953 Z-2.971
X-76.932 Z-2.938
X-76.924 Z-2.9
G0 Z5
X-94.155 Y-135.719
Z2
G1 Z0.1 F1000
X-94.148 Z0.062
X-94.126 Z0.029
X-94.094 Z0.008
X-94.055 Z0
X-94.005
X-93.967 Y-135.711
X-93.935 Y-135.69
X-93.913 Y-135.657
X-93.905 Y-135.619
G3 X-95.205 Y-135.619 Z-0.5 I-0.65 J0
X-93.905 Y-135.619 Z-1 I0.65 J0
X-95.205 Y-135.619 Z-1.5 I-0.65 J0
X-93.905 Y-135.619 Z-2 I0.65 J0
X-95.205 Y-135.619 Z-2.5 I-0.65 J0
X-93.905 Y-135.619 Z-3 I0.65 J0
X-95.205 Y-135.619 I-0.65 J0
X-93.905 Y-135.619 I0.65 J0
G1 X-93.913 Y-135.581
X-93.935 Y-135.548
X-93.967 Y-135.527
X-94.005 Y-135.519
X-94.055
X-94.094 Z-2.992
X-94.126 Z-2.971
X-94.148 Z-2.938
X-94.155 Z-2.9
G0 Z5
X-76.124 Y-117.688
Z2
G1 Z0.1 F1000
X-76.117 Z0.062
X-76.095 Z0.029
X-76.062 Z0.008
X-76.024 Z0
X-75.974
X-75.936 Y-117.68
X-75.903 Y-117.659
X-75.882 Y-117.626
X-75.874 Y-117.588
G3 X-77.174 Y-117.588 Z-0.5 I-0.65 J0
X-75.874 Y-117.588 Z-1 I0.65 J0
X-77.174 Y-117.588 Z-1.5 I-0.65 J0
X-75.874 Y-117.588 Z-2 I0.65 J0
X-77.174 Y-117.588 Z-2.5 I-0.65 J0
X-75.874 Y-117.588 Z-3 I0.65 J0
X-77.174 Y-117.588 I-0.65 J0
X-75.874 Y-117.588 I0.65 J0
G1 X-75.882 Y-117.55
X-75.903 Y-117.517
X-75.936 Y-117.495
X-75.974 Y-117.488
X-76.024
X-76.062 Z-2.992
X-76.095 Z-2.971
X-76.117 Z-2.938
X-76.124 Z-2.9
G0 Z15

(2D Adaptive1)
X-93.924 Y-117.276
Z15
Z5
Z-1.3
G1 Z-1.4 F1000
X-93.931 Y-117.279 Z-1.438
X-93.949 Y-117.29 Z-1.471
X-93.977 Y-117.307 Z-1.492
X-94.01 Y-117.326 Z-1.5
G3 X-95.268 Y-118.268 I3.716 J-6.273
G1 X-95.294 Y-118.294
X-95.319 Y-118.365
X-95.292 Y-118.513
X-95.209 Y-118.637
X-95.103 Y-118.744
X-94.973 Y-118.819
X-94.832 Y-118.868
X-94.681 Y-118.903
X-94.532 Y-118.924
X-94.383 Y-118.913
X-94.236 Y-118.884
X-94.082 Y-118.839
X-93.942 Y-118.786
X-93.814 Y-118.708
X-93.686 Y-118.607
X-93.576 Y-118.505
X-93.475 Y-118.394
X-93.396 Y-118.266
X-93.323 Y-118.114
X-93.269 Y-117.974
X-93.23 Y-117.829
X-93.216 Y-117.68
X-93.218 Y-117.503
X-93.232 Y-117.353
X-93.264 Y-117.207
X-93.319 Y-117.067
X-93.405 Y-116.899
X-93.484 Y-116.772
X-93.582 Y-116.658
X-93.695 Y-116.56
X-93.855 Y-116.442
X-93.983 Y-116.364
X-94.124 Y-116.312
X-94.279 Y-116.275
X-94.441 Y-116.25
X-94.59 Y-116.239
X-94.739 Y-116.256
X-94.902 Y-116.293
X-95.045 Y-116.338
X-95.183 Y-116.395
X-95.31 Y-116.476
X-95.444 Y-116.584
X-95.552 Y-116.688
X-95.649 Y-116.802
X-95.726 Y-116.931
X-95.802 Y-117.095
X-95.854 Y-117.236
X-95.886 Y-117.382
X-95.896 Y-117.532
X-95.89 Y-117.727
X-95.873 Y-117.876
X-95.773 Y-118.215
X-95.736 Y-118.361
X-95.685 Y-118.502
X-95.621 Y-118.637
X-95.542 Y-118.765
X-95.446 Y-118.88
X-95.335 Y-118.982
X-95.212 Y-119.067
X-95.079 Y-119.137
X-94.94 Y-119.192
X-94.795 Y-119.233
X-94.647 Y-119.257
X-94.498 Y-119.264
X-94.348 Y-119.256
X-94.199 Y-119.235
X-94.053 Y-119.201
X-93.911 Y-119.153
X-93.775 Y-119.09
X-93.645 Y-119.015
X-93.518 Y-118.926
X-93.402 Y-118.831
X-93.296 Y-118.725
X-93.201 Y-118.609
X-93.116 Y-118.483
X-93.042 Y-118.353
X-92.979 Y-118.217
X-92.93 Y-118.075
X-92.894 Y-117.929
X-92.871 Y-117.78
X-92.86 Y-117.631
X-92.862 Y-117.481
X-92.878 Y-117.332
X-92.908 Y-117.185
X-92.951 Y-117.039
X-93.006 Y-116.899
X-93.071 Y-116.765
X-93.149 Y-116.636
X-93.239 Y-116.516
X-93.346 Y-116.399
X-93.464 Y-116.288
X-93.581 Y-116.195
X-93.708 Y-116.114
X-93.842 Y-116.047
X-93.984 Y-115.99
X-94.136 Y-115.943
X-94.283 Y-115.91
X-94.432 Y-115.893
X-94.582 Y-115.89
X-94.733 Y-115.901
X-94.883 Y-115.923
X-95.029 Y-115.957
X-95.171 Y-116.005
X-95.308 Y-116.067
X-95.439 Y-116.14
X-95.564 Y-116.224
X-95.681 Y-116.317
X-95.789 Y-116.422
X-95.886 Y-116.536
X-95.973 Y-116.658
X-96.05 Y-116.787
X-96.116 Y-116.921
X-96.169 Y-117.062
X-96.209 Y-117.206
X-96.236 Y-117.36
X-96.25 Y-117.517
X-96.252 Y-117.667
X-96.236 Y-117.855
X-96.187 Y-118.149
X-96.134 Y-118.359
X-96.077 Y-118.526
X-96.017 Y-118.665
X-95.947 Y-118.798
X-95.866 Y-118.924
X-95.774 Y-119.043
X-95.671 Y-119.152
X-95.558 Y-119.251
X-95.437 Y-119.338
X-95.308 Y-119.415
X-95.173 Y-119.481
X-95.033 Y-119.534
X-94.888 Y-119.574
X-94.741 Y-119.601
X-94.589 Y-119.616
X-94.434 Y-119.619
X-94.285 Y-119.609
X-94.136 Y-119.588
X-93.987 Y-119.554
X-93.837 Y-119.507
X-93.685 Y-119.445
X-93.535 Y-119.37
X-93.402 Y-119.289
X-93.277 Y-119.199
X-93.156 Y-119.095
X-93.04 Y-118.979
X-92.931 Y-118.85
X-92.833 Y-118.713
X-92.748 Y-118.574
X-92.676 Y-118.429
X-92.615 Y-118.277
X-92.566 Y-118.117
X-92.53 Y-117.957
X-92.507 Y-117.795
X-92.497 Y-117.633
X-92.5 Y-117.47
X-92.517 Y-117.304
X-92.547 Y-117.137
X-92.591 Y-116.973
X-92.647 Y-116.815
X-92.713 Y-116.667
X-92.79 Y-116.527
X-92.881 Y-116.389
X-92.988 Y-116.252
X-93.1 Y-116.129
X-93.218 Y-116.02
X-93.345 Y-115.921
X-93.481 Y-115.83
X-93.631 Y-115.747
X-93.788 Y-115.675
X-93.941 Y-115.62
X-94.091 Y-115.579
X-94.249 Y-115.55
X-94.414 Y-115.532
X-94.585 Y-115.528
X-94.753 Y-115.537
X-94.916 Y-115.56
X-95.075 Y-115.595
X-95.234 Y-115.643
X-95.391 Y-115.705
X-95.542 Y-115.78
X-95.683 Y-115.864
X-95.813 Y-115.957
X-95.937 Y-116.061
X-96.055 Y-116.177
X-96.165 Y-116.305
X-96.265 Y-116.441
X-96.353 Y-116.584
X-96.427 Y-116.729
X-96.489 Y-116.881
X-96.541 Y-117.043
X-96.58 Y-117.21
X-96.604 Y-117.371
X-96.617 Y-117.553
X-96.614 Y-117.784
X-96.592 Y-118.02
X-96.554 Y-118.243
X-96.501 Y-118.448
X-96.436 Y-118.637
X-96.359 Y-118.811
X-96.274 Y-118.968
X-96.182 Y-119.111
X-96.081 Y-119.243
X-96.065 Y-119.26
X-95.968 Y-119.358
X-95.789 Y-119.519
X-95.665 Y-119.614
X-95.533 Y-119.7
X-95.392 Y-119.776
X-95.245 Y-119.84
X-95.092 Y-119.894
X-94.93 Y-119.936
X-94.759 Y-119.965
X-94.585 Y-119.981
X-94.409 Y-119.984
X-94.232 Y-119.971
X-94.053 Y-119.945
X-93.872 Y-119.903
X-93.692 Y-119.845
X-93.518 Y-119.774
X-93.352 Y-119.689
X-93.192 Y-119.591
X-93.039 Y-119.48
X-92.893 Y-119.354
X-92.756 Y-119.216
X-92.632 Y-119.067
X-92.52 Y-118.91
X-92.42 Y-118.744
X-92.334 Y-118.57
X-92.263 Y-118.389
X-92.206 Y-118.204
X-92.164 Y-118.015
X-92.138 Y-117.824
X-92.127 Y-117.63
X-92.132 Y-117.434
X-92.152 Y-117.238
X-92.188 Y-117.044
X-92.24 Y-116.855
X-92.297 Y-116.696
X-92.311 Y-116.665
X-92.329 Y-116.636
X-92.351 Y-116.61
X-93.348 Y-115.613
X-93.46 Y-115.512
X-93.581 Y-115.424
X-93.711 Y-115.35
X-93.849 Y-115.291
X-93.994 Y-115.243
X-94.156 Y-115.205
X-94.327 Y-115.177
X-94.505 Y-115.164
X-94.686 Y-115.165
X-94.871 Y-115.18
X-95.057 Y-115.211
X-95.244 Y-115.258
X-95.429 Y-115.321
X-95.608 Y-115.397
X-95.778 Y-115.487
X-95.94 Y-115.591
X-96.094 Y-115.707
X-96.24 Y-115.837
X-96.376 Y-115.979
X-96.5 Y-116.132
X-96.611 Y-116.293
X-96.708 Y-116.462
X-96.792 Y-116.639
X-96.862 Y-116.825
X-96.917 Y-117.014
X-96.957 Y-117.212
X-96.984 Y-117.435
X-96.994 Y-117.676
X-96.984 Y-117.923
X-96.954 Y-118.166
X-96.916 Y-118.355
X-96.903 Y-118.398
X-96.881 Y-118.438
X-96.852 Y-118.473
X-96.065 Y-119.26
X-96.032 Y-119.282
X-95.993 Y-119.29
X-95.954 Y-119.281
X-95.922 Y-119.259
X-95.901 Y-119.225
X-95.894 Y-119.186
X-95.904 Y-119.147
X-96.116 Y-118.688
X-96.156 Y-118.602
X-96.178 Y-118.572
X-96.208 Y-118.552
X-96.244 Y-118.544
X-96.281 Y-118.549
X-96.312 Y-118.568
X-96.335 Y-118.597
X-96.346 Y-118.632
X-96.344 Y-118.668
G3 X-95.968 Y-119.358 I1.534 J0.39
G1 X-95.299 Y-120.026
X-95.188 Y-120.126
X-95.059 Y-120.203
X-94.92 Y-120.259
X-94.775 Y-120.298
X-94.627 Y-120.323
X-94.468 Y-120.336
X-94.302 Y-120.337
X-94.119 Y-120.324
X-93.926 Y-120.294
X-93.729 Y-120.246
X-93.531 Y-120.182
X-93.337 Y-120.1
X-93.261 Y-120.061
X-93.24 Y-120.049
X-93.221 Y-120.035
X-93.203 Y-120.019
X-93.183 Y-119.986
X-93.176 Y-119.948
X-93.185 Y-119.911
X-93.207 Y-119.879
X-93.239 Y-119.858
X-93.277 Y-119.851
X-93.83 Y-119.853
X-94.673 Y-119.856
X-95.227 Y-119.857
X-95.264 Y-119.865
X-95.296 Y-119.886
X-95.318 Y-119.918
X-95.326 Y-119.955
X-95.32 Y-119.993
X-95.299 Y-120.026
X-95.038 Y-120.287
X-95.001 Y-120.323
X-94.958 Y-120.354
X-94.764 Y-120.484
X-94.738 Y-120.502
X-94.716 Y-120.516
X-94.643 Y-120.557
X-94.621 Y-120.568
X-94.597 Y-120.577
X-94.573 Y-120.583
X-94.538 Y-120.582
X-94.505 Y-120.569
X-94.479 Y-120.546
X-94.462 Y-120.515
X-94.458 Y-120.48
X-94.465 Y-120.445
X-94.485 Y-120.416
X-94.513 Y-120.395
X-94.614 Y-120.345
X-94.635 Y-120.337
X-94.658 Y-120.335
X-94.693 Y-120.341
X-94.724 Y-120.359
X-94.746 Y-120.387
X-94.757 Y-120.421
X-94.755 Y-120.457
X-94.741 Y-120.49
X-94.716 Y-120.516
X-94.636 Y-120.566
X-94.626 Y-120.571
X-94.616 Y-120.574
X-94.394 Y-120.618
X-94.274 Y-120.642
X-94.264 Y-120.644
X-94.254
X-94.234 Y-120.642
X-93.912 Y-120.578
X-93.891 Y-120.573
X-93.87 Y-120.565
X-93.831 Y-120.541
X-93.59 Y-120.38
X-93.508 Y-120.323
X-92.302 Y-119.118
X-92.202 Y-119.007
X-92.114 Y-118.885
X-92.034 Y-118.75
X-91.962 Y-118.602
X-91.894 Y-118.43
X-91.837 Y-118.241
X-91.793 Y-118.04
X-91.764 Y-117.828
X-91.753 Y-117.611
X-91.759 Y-117.39
X-91.772 Y-117.261
X-91.78 Y-117.221
X-91.795 Y-117.183
X-91.816 Y-117.148
X-91.843 Y-117.124
X-91.878 Y-117.111
X-91.915 Y-117.112
X-91.949 Y-117.126
X-91.976 Y-117.151
X-91.991 Y-117.185
X-92.133 Y-117.73
X-92.335 Y-118.509
X-92.467 Y-119.02
X-92.47 Y-119.056
X-92.459 Y-119.091
X-92.437 Y-119.12
X-92.405 Y-119.139
X-92.369 Y-119.145
X-92.333 Y-119.138
X-92.302 Y-119.118
X-91.818 Y-118.634
X-91.739 Y-118.518
X-91.601 Y-118.312
X-91.578 Y-118.273
X-91.57 Y-118.252
X-91.565 Y-118.231
X-91.501 Y-117.909
X-91.499 Y-117.889
Y-117.879
X-91.509 Y-117.829
X-91.569 Y-117.527
X-91.572 Y-117.517
X-91.578 Y-117.505
X-91.628 Y-117.427
X-91.789 Y-117.185
X-91.82 Y-117.143
X-91.9 Y-117.061
X-92.351 Y-116.61
X-92.372 Y-116.594
X-92.396 Y-116.584
X-92.914 Y-116.37
X-92.94 Y-116.354
X-92.96 Y-116.331
X-92.972 Y-116.302
G3 X-93.348 Y-115.613 I-1.534 J-0.39
G1 X-93.868 Y-115.093
X-93.98 Y-114.993
X-94.112 Y-114.922
X-94.253 Y-114.872
X-94.4 Y-114.838
X-94.548 Y-114.82
X-94.714 Y-114.813
X-94.894 Y-114.821
X-95.078 Y-114.843
X-95.272 Y-114.883
X-95.471 Y-114.941
X-95.671 Y-115.016
X-95.817 Y-115.086
X-95.841 Y-115.098
X-95.862 Y-115.114
X-95.882 Y-115.131
X-95.903 Y-115.164
X-95.909 Y-115.203
X-95.901 Y-115.24
X-95.878 Y-115.272
X-95.845 Y-115.293
X-95.807 Y-115.3
X-95.256 Y-115.288
X-94.495 Y-115.273
X-93.94 Y-115.261
X-93.902 Y-115.253
X-93.871 Y-115.232
X-93.849 Y-115.2
X-93.842 Y-115.163
X-93.848 Y-115.126
X-93.868 Y-115.093
X-94.073 Y-114.889
X-94.111 Y-114.852
X-94.153 Y-114.821
X-94.394 Y-114.66
X-94.475 Y-114.609
X-94.485 Y-114.604
X-94.495 Y-114.601
X-94.837 Y-114.533
X-94.847 Y-114.531
X-94.857
X-94.877 Y-114.533
X-95.199 Y-114.597
X-95.22 Y-114.602
X-95.24 Y-114.61
X-95.28 Y-114.634
X-95.521 Y-114.796
X-95.602 Y-114.852
X-96.808 Y-116.057
X-96.909 Y-116.168
X-96.997 Y-116.29
X-97.074 Y-116.419
X-97.149 Y-116.572
X-97.219 Y-116.749
X-97.281 Y-116.95
X-97.327 Y-117.162
X-97.359 Y-117.396
X-97.373 Y-117.65
X-97.368 Y-117.857
X-97.363 Y-117.9
X-97.35 Y-117.942
X-97.329 Y-117.981
X-97.302 Y-118.006
X-97.268 Y-118.02
X-97.23 Y-118.021
X-97.196 Y-118.008
X-97.168 Y-117.983
X-97.151 Y-117.949
X-96.999 Y-117.409
X-96.787 Y-116.663
X-96.644 Y-116.157
X-96.641 Y-116.121
X-96.651 Y-116.085
X-96.673 Y-116.056
X-96.705 Y-116.037
X-96.741 Y-116.03
X-96.777 Y-116.037
X-96.808 Y-116.057
X-97.292 Y-116.541
X-97.372 Y-116.658
X-97.509 Y-116.863
X-97.533 Y-116.903
X-97.541 Y-116.923
X-97.546 Y-116.944
X-97.61 Y-117.266
X-97.612 Y-117.286
Y-117.296
X-97.602 Y-117.346
X-97.542 Y-117.648
X-97.539 Y-117.658
X-97.533 Y-117.671
X-97.484 Y-117.748
X-97.323 Y-117.99
X-97.291 Y-118.033
X-97.211 Y-118.115
X-96.852 Y-118.473
X-96.819 Y-118.494
X-96.781 Y-118.5
X-96.743 Y-118.491
X-96.711 Y-118.468
X-96.685 Y-118.44 Z-1.492
X-96.663 Y-118.417 Z-1.471
X-96.648 Y-118.401 Z-1.438
X-96.643 Y-118.395 Z-1.4
G0 Z15
X-57.842 Y-153.358
Z5
Z-1.3
G1 Z-1.4 F1000
X-57.848 Y-153.362 Z-1.438
X-57.867 Y-153.373 Z-1.471
X-57.895 Y-153.39 Z-1.492
X-57.928 Y-153.409 Z-1.5
G3 X-59.185 Y-154.35 I3.714 J-6.274
G1 X-59.212 Y-154.377
X-59.225 Y-154.412
X-59.224 Y-154.487
X-59.174 Y-154.628
X-59.083 Y-154.747
X-58.967 Y-154.843
X-58.831 Y-154.905
X-58.687 Y-154.947
X-58.539 Y-154.975
X-58.389 Y-154.979
X-58.241 Y-154.958
X-58.064 Y-154.915
X-57.922 Y-154.868
X-57.79 Y-154.796
X-57.67 Y-154.707
X-57.529 Y-154.583
X-57.425 Y-154.475
X-57.343 Y-154.35
X-57.272 Y-154.205
X-57.214 Y-154.058
X-57.17 Y-153.914
X-57.153 Y-153.765
X-57.154 Y-153.598
X-57.166 Y-153.448
X-57.191 Y-153.301
X-57.243 Y-153.16
X-57.319 Y-153.004
X-57.396 Y-152.875
X-57.486 Y-152.755
X-57.595 Y-152.653
X-57.74 Y-152.541
X-57.866 Y-152.46
X-58.002 Y-152.397
X-58.146 Y-152.355
X-58.342 Y-152.317
X-58.491 Y-152.301
X-58.64 Y-152.312
X-58.788 Y-152.342
X-58.962 Y-152.393
X-59.102 Y-152.446
X-59.23 Y-152.524
X-59.358 Y-152.625
X-59.47 Y-152.73
X-59.571 Y-152.841
X-59.651 Y-152.968
X-59.724 Y-153.12
X-59.778 Y-153.26
X-59.818 Y-153.404
X-59.833 Y-153.553
X-59.831 Y-153.728
X-59.818 Y-153.878
X-59.787 Y-154.024
X-59.672 Y-154.36
X-59.627 Y-154.502
X-59.567 Y-154.64
X-59.495 Y-154.772
X-59.407 Y-154.893
X-59.303 Y-155.001
X-59.185 Y-155.094
X-59.056 Y-155.17
X-58.919 Y-155.232
X-58.776 Y-155.278
X-58.629 Y-155.308
X-58.48 Y-155.321
X-58.33 Y-155.318
X-58.181 Y-155.302
X-58.034 Y-155.273
X-57.89 Y-155.229
X-57.752 Y-155.17
X-57.618 Y-155.098
X-57.485 Y-155.011
X-57.366 Y-154.919
X-57.258 Y-154.815
X-57.161 Y-154.701
X-57.074 Y-154.578
X-56.994 Y-154.445
X-56.928 Y-154.311
X-56.876 Y-154.17
X-56.838 Y-154.025
X-56.812 Y-153.877
X-56.798 Y-153.728
X-56.797 Y-153.578
X-56.81 Y-153.428
X-56.837 Y-153.281
X-56.877 Y-153.136
X-56.929 Y-152.995
X-56.992 Y-152.86
X-57.067 Y-152.73
X-57.154 Y-152.607
X-57.253 Y-152.494
X-57.36 Y-152.389
X-57.476 Y-152.293
X-57.599 Y-152.207
X-57.73 Y-152.135
X-57.874 Y-152.072
X-58.027 Y-152.019
X-58.173 Y-151.982
X-58.321 Y-151.96
X-58.471 Y-151.952
X-58.624 Y-151.959
X-58.779 Y-151.978
X-58.926 Y-152.008
X-59.07 Y-152.052
X-59.208 Y-152.11
X-59.341 Y-152.18
X-59.468 Y-152.262
X-59.588 Y-152.353
X-59.698 Y-152.454
X-59.799 Y-152.565
X-59.889 Y-152.686
X-59.968 Y-152.813
X-60.036 Y-152.946
X-60.094 Y-153.085
X-60.137 Y-153.228
X-60.167 Y-153.376
X-60.184 Y-153.525
X-60.189 Y-153.675
X-60.182 Y-153.824
X-60.154 Y-154.023
X-60.091 Y-154.305
X-60.027 Y-154.511
X-59.964 Y-154.67
X-59.896 Y-154.807
X-59.819 Y-154.936
X-59.731 Y-155.058
X-59.633 Y-155.171
X-59.524 Y-155.274
X-59.405 Y-155.366
X-59.279 Y-155.448
X-59.146 Y-155.517
X-59.008 Y-155.575
X-58.865 Y-155.619
X-58.718 Y-155.65
X-58.568 Y-155.67
X-58.414 Y-155.677
X-58.264 Y-155.672
X-58.115 Y-155.654
X-57.967 Y-155.624
X-57.818 Y-155.582
X-57.664 Y-155.524
X-57.512 Y-155.452
X-57.378 Y-155.375
X-57.252 Y-155.289
X-57.13 Y-155.19
X-57.013 Y-155.079
X-56.9 Y-154.953
X-56.798 Y-154.818
X-56.71 Y-154.68
X-56.634 Y-154.537
X-56.571 Y-154.391
X-56.518 Y-154.236
X-56.477 Y-154.074
X-56.45 Y-153.91
X-56.436 Y-153.747
X-56.435 Y-153.584
X-56.447 Y-153.42
X-56.473 Y-153.254
X-56.512 Y-153.089
X-56.565 Y-152.928
X-56.628 Y-152.777
X-56.7 Y-152.637
X-56.786 Y-152.498
X-56.887 Y-152.362
X-56.998 Y-152.235
X-57.115 Y-152.12
X-57.239 Y-152.017
X-57.374 Y-151.922
X-57.523 Y-151.835
X-57.679 Y-151.759
X-57.833 Y-151.699
X-57.983 Y-151.654
X-58.137 Y-151.621
X-58.3 Y-151.599
X-58.472 Y-151.591
X-58.641 Y-151.596
X-58.805 Y-151.614
X-58.965 Y-151.645
X-59.123 Y-151.689
X-59.279 Y-151.746
X-59.432 Y-151.817
X-59.577 Y-151.898
X-59.71 Y-151.988
X-59.836 Y-152.088
X-59.956 Y-152.2
X-60.068 Y-152.324
X-60.172 Y-152.458
X-60.264 Y-152.6
X-60.343 Y-152.745
X-60.408 Y-152.893
X-60.463 Y-153.049
X-60.505 Y-153.212
X-60.535 Y-153.38
X-60.55 Y-153.545
X-60.553 Y-153.732
X-60.538 Y-153.965
X-60.503 Y-154.2
X-60.453 Y-154.419
X-60.389 Y-154.62
X-60.313 Y-154.805
X-60.229 Y-154.973
X-60.137 Y-155.123
X-60.038 Y-155.26
X-59.929 Y-155.386
X-59.811 Y-155.503
X-59.685 Y-155.61
X-59.552 Y-155.705
X-59.416 Y-155.786
X-59.272 Y-155.858
X-59.119 Y-155.919
X-58.958 Y-155.969
X-58.788 Y-156.007
X-58.615 Y-156.031
X-58.44 Y-156.041
X-58.264 Y-156.037
X-58.086 Y-156.019
X-57.906 Y-155.986
X-57.724 Y-155.937
X-57.549 Y-155.874
X-57.38 Y-155.798
X-57.217 Y-155.709
X-57.06 Y-155.605
X-56.91 Y-155.487
X-56.768 Y-155.356
X-56.637 Y-155.214
X-56.518 Y-155.063
X-56.412 Y-154.903
X-56.319 Y-154.735
X-56.239 Y-154.558
X-56.174 Y-154.375
X-56.123 Y-154.188
X-56.088 Y-153.997
X-56.068 Y-153.804
X-56.063 Y-153.609
X-56.075 Y-153.413
X-56.102 Y-153.218
X-56.144 Y-153.027
X-56.201 Y-152.842
X-56.238 Y-152.75
X-56.252 Y-152.721
X-56.269 Y-152.695
X-56.29 Y-152.671
X-57.286 Y-151.675
X-57.397 Y-151.574
X-57.519 Y-151.486
X-57.65 Y-151.413
X-57.787 Y-151.354
X-57.93 Y-151.307
X-58.089 Y-151.268
X-58.262 Y-151.241
X-58.442 Y-151.227
X-58.626 Y-151.228
X-58.812 Y-151.244
X-58.999 Y-151.275
X-59.186 Y-151.321
X-59.369 Y-151.383
X-59.546 Y-151.459
X-59.716 Y-151.549
X-59.878 Y-151.652
X-60.033 Y-151.769
X-60.179 Y-151.899
X-60.315 Y-152.041
X-60.439 Y-152.193
X-60.549 Y-152.353
X-60.646 Y-152.522
X-60.73 Y-152.699
X-60.8 Y-152.884
X-60.854 Y-153.073
X-60.895 Y-153.27
X-60.919 Y-153.474
X-60.929 Y-153.703
X-60.919 Y-153.948
X-60.889 Y-154.196
X-60.84 Y-154.437
X-60.837 Y-154.447
X-60.823 Y-154.484
X-60.803 Y-154.517
X-60.778 Y-154.547
X-59.261 Y-156.064
X-59.15 Y-156.165
X-59.023 Y-156.245
X-58.886 Y-156.305
X-58.742 Y-156.348
X-58.595 Y-156.376
X-58.436 Y-156.392
X-58.262 Y-156.396
X-58.078 Y-156.385
X-57.891 Y-156.359
X-57.698 Y-156.315
X-57.502 Y-156.254
X-57.307 Y-156.177
X-57.198 Y-156.123
X-57.176 Y-156.11
X-57.156 Y-156.095
X-57.137 Y-156.079
X-57.117 Y-156.046
X-57.11 Y-156.008
X-57.119 Y-155.971
X-57.14 Y-155.939
X-57.172 Y-155.918
X-57.21 Y-155.91
X-57.764 Y-155.906
X-58.635 Y-155.9
X-59.187 Y-155.896
X-59.188
X-59.226 Y-155.904
X-59.258 Y-155.925
X-59.28 Y-155.956
X-59.288 Y-155.994
X-59.282 Y-156.032
X-59.261 Y-156.064
X-58.976 Y-156.35
X-58.938 Y-156.386
X-58.895 Y-156.418
X-58.701 Y-156.547
X-58.675 Y-156.565
X-58.654 Y-156.579
X-58.58 Y-156.62
X-58.558 Y-156.631
X-58.535 Y-156.64
X-58.511 Y-156.646
X-58.476 Y-156.645
X-58.443 Y-156.632
X-58.416 Y-156.609
X-58.4 Y-156.578
X-58.395 Y-156.543
X-58.403 Y-156.508
X-58.422 Y-156.479
X-58.451 Y-156.458
X-58.551 Y-156.408
X-58.573 Y-156.4
X-58.595 Y-156.398
X-58.631 Y-156.404
X-58.661 Y-156.422
X-58.684 Y-156.45
X-58.695 Y-156.484
X-58.693 Y-156.52
X-58.679 Y-156.553
X-58.654 Y-156.579
X-58.573 Y-156.629
X-58.563 Y-156.634
X-58.553 Y-156.637
X-58.332 Y-156.681
X-58.211 Y-156.705
X-58.201 Y-156.707
X-58.191
X-58.171 Y-156.705
X-57.849 Y-156.641
X-57.829 Y-156.636
X-57.808 Y-156.628
X-57.769 Y-156.604
X-57.527 Y-156.443
X-57.445 Y-156.386
X-56.24 Y-155.181
X-56.139 Y-155.07
X-56.051 Y-154.949
X-55.973 Y-154.817
X-55.897 Y-154.661
X-55.828 Y-154.486
X-55.771 Y-154.297
X-55.728 Y-154.101
X-55.7 Y-153.893
X-55.689 Y-153.676
X-55.695 Y-153.455
X-55.709 Y-153.324
X-55.717 Y-153.285
X-55.731 Y-153.247
X-55.752 Y-153.212
X-55.78 Y-153.188
X-55.814 Y-153.175
X-55.851 Y-153.176
X-55.885 Y-153.19
X-55.912 Y-153.215
X-55.927 Y-153.249
X-56.069 Y-153.793
X-56.272 Y-154.572
X-56.405 Y-155.083
X-56.408 Y-155.119
X-56.397 Y-155.154
X-56.374 Y-155.183
X-56.343 Y-155.202
X-56.307 Y-155.208
X-56.271 Y-155.201
X-56.24 Y-155.181
X-55.756 Y-154.697
X-55.677 Y-154.58
X-55.539 Y-154.375
X-55.516 Y-154.335
X-55.507 Y-154.315
X-55.502 Y-154.294
X-55.439 Y-153.972
X-55.436 Y-153.952
X-55.437 Y-153.942
X-55.446 Y-153.892
X-55.506 Y-153.59
X-55.51 Y-153.58
X-55.516 Y-153.567
X-55.565 Y-153.49
X-55.726 Y-153.248
X-55.757 Y-153.205
X-55.838 Y-153.123
X-56.29 Y-152.671
X-56.311 Y-152.655
X-56.335 Y-152.645
X-56.851 Y-152.432
X-56.877 Y-152.416
X-56.897 Y-152.393
X-56.91 Y-152.364
G3 X-57.286 Y-151.675 I-1.534 J-0.39
G1 X-57.805 Y-151.156
X-57.916 Y-151.056
X-58.049 Y-150.985
X-58.19 Y-150.935
X-58.336 Y-150.902
X-58.485 Y-150.883
X-58.651 Y-150.876
X-58.832 Y-150.883
X-59.016 Y-150.906
X-59.209 Y-150.945
X-59.408 Y-151.002
X-59.608 Y-151.077
X-59.753 Y-151.146
X-59.777 Y-151.159
X-59.799 Y-151.175
X-59.819 Y-151.192
X-59.839 Y-151.225
X-59.845 Y-151.263
X-59.837 Y-151.301
X-59.814 Y-151.333
X-59.782 Y-151.354
X-59.744 Y-151.361
X-59.192 Y-151.35
X-58.431 Y-151.335
X-57.876 Y-151.324
X-57.839 Y-151.316
X-57.807 Y-151.295
X-57.786 Y-151.263
X-57.778 Y-151.226
X-57.785 Y-151.189
X-57.805 Y-151.156
X-58.01 Y-150.951
X-58.048 Y-150.915
X-58.091 Y-150.883
X-58.332 Y-150.722
X-58.412 Y-150.672
X-58.423 Y-150.667
X-58.433 Y-150.664
X-58.775 Y-150.596
X-58.785 Y-150.594
X-58.795
X-58.815 Y-150.596
X-59.137 Y-150.66
X-59.157 Y-150.665
X-59.178 Y-150.673
X-59.217 Y-150.697
X-59.458 Y-150.858
X-59.541 Y-150.915
X-60.746 Y-152.12
X-60.847 Y-152.231
X-60.935 Y-152.352
X-61.012 Y-152.481
X-61.087 Y-152.633
X-61.157 Y-152.809
X-61.216 Y-153.004
X-61.263 Y-153.214
X-61.293 Y-153.436
X-61.307 Y-153.683
X-61.301 Y-153.925
X-61.296 Y-153.969
X-61.283 Y-154.011
X-61.262 Y-154.049
X-61.235 Y-154.075
X-61.2 Y-154.089
X-61.163
X-61.128 Y-154.076
X-61.101 Y-154.051
X-61.084 Y-154.018
X-60.933 Y-153.478
X-60.723 Y-152.726
X-60.581 Y-152.22
X-60.578 Y-152.183
X-60.588 Y-152.148
X-60.61 Y-152.119
X-60.641 Y-152.1
X-60.677 Y-152.093
X-60.678
X-60.714 Y-152.1
X-60.746 Y-152.12
X-61.23 Y-152.604
X-61.309 Y-152.72
X-61.447 Y-152.926
X-61.47 Y-152.965
X-61.479 Y-152.986
X-61.484 Y-153.007
X-61.547 Y-153.329
X-61.549 Y-153.349
Y-153.359
X-61.54 Y-153.409
X-61.479 Y-153.711
X-61.476 Y-153.721
X-61.47 Y-153.734
X-61.421 Y-153.811
X-61.259 Y-154.053
X-61.229 Y-154.095
X-61.148 Y-154.177
X-60.778 Y-154.547
X-60.745 Y-154.568
X-60.706 Y-154.574
X-60.668 Y-154.565
X-60.637 Y-154.542
X-60.61 Y-154.514 Z-1.492
X-60.588 Y-154.491 Z-1.471
X-60.573 Y-154.475 Z-1.438
X-60.568 Y-154.469 Z-1.4
G0 Z15
X-93.996 Y-153.026
Z5
Z2.55
S5000
G3 X-94.599 Y-153.759 Z2.498 I-0.302 J-0.367 F333.3
X-93.996 Y-153.026 Z2.446 I0.302 J0.367
X-94.599 Y-153.759 Z2.394 I-0.302 J-0.367
X-93.996 Y-153.026 Z2.342 I0.302 J0.367
X-94.599 Y-153.759 Z2.289 I-0.302 J-0.367
X-93.996 Y-153.026 Z2.237 I0.302 J0.367
X-94.599 Y-153.759 Z2.185 I-0.302 J-0.367
X-93.996 Y-153.026 Z2.133 I0.302 J0.367
X-94.599 Y-153.759 Z2.081 I-0.302 J-0.367
X-93.996 Y-153.026 Z2.029 I0.302 J0.367
X-94.599 Y-153.759 Z1.977 I-0.302 J-0.367
X-93.996 Y-153.026 Z1.925 I0.302 J0.367
X-94.599 Y-153.759 Z1.873 I-0.302 J-0.367
X-93.996 Y-153.026 Z1.82 I0.302 J0.367
X-94.599 Y-153.759 Z1.768 I-0.302 J-0.367
X-93.996 Y-153.026 Z1.716 I0.302 J0.367
X-94.599 Y-153.759 Z1.664 I-0.302 J-0.367
X-93.996 Y-153.026 Z1.612 I0.302 J0.367
X-94.599 Y-153.759 Z1.56 I-0.302 J-0.367
X-93.996 Y-153.026 Z1.508 I0.302 J0.367
X-94.599 Y-153.759 Z1.456 I-0.302 J-0.367
X-93.996 Y-153.026 Z1.404 I0.302 J0.367
X-94.599 Y-153.759 Z1.351 I-0.302 J-0.367
X-93.996 Y-153.026 Z1.299 I0.302 J0.367
X-94.599 Y-153.759 Z1.247 I-0.302 J-0.367
X-93.996 Y-153.026 Z1.195 I0.302 J0.367
X-94.599 Y-153.759 Z1.143 I-0.302 J-0.367
X-93.996 Y-153.026 Z1.091 I0.302 J0.367
X-94.599 Y-153.759 Z1.039 I-0.302 J-0.367
X-93.996 Y-153.026 Z0.987 I0.302 J0.367
X-94.599 Y-153.759 Z0.935 I-0.302 J-0.367
X-93.996 Y-153.026 Z0.882 I0.302 J0.367
X-94.599 Y-153.759 Z0.83 I-0.302 J-0.367
X-93.996 Y-153.026 Z0.778 I0.302 J0.367
X-94.599 Y-153.759 Z0.726 I-0.302 J-0.367
X-93.996 Y-153.026 Z0.674 I0.302 J0.367
X-94.599 Y-153.759 Z0.622 I-0.302 J-0.367
X-93.996 Y-153.026 Z0.57 I0.302 J0.367
X-94.599 Y-153.759 Z0.518 I-0.302 J-0.367
X-93.996 Y-153.026 Z0.466 I0.302 J0.367
X-94.599 Y-153.759 Z0.413 I-0.302 J-0.367
X-93.996 Y-153.026 Z0.361 I0.302 J0.367
X-94.599 Y-153.759 Z0.309 I-0.302 J-0.367
X-93.996 Y-153.026 Z0.257 I0.302 J0.367
X-94.599 Y-153.759 Z0.205 I-0.302 J-0.367
X-93.996 Y-153.026 Z0.153 I0.302 J0.367
X-94.599 Y-153.759 Z0.101 I-0.302 J-0.367
X-93.996 Y-153.026 Z0.049 I0.302 J0.367
X-94.599 Y-153.759 Z-0.003 I-0.302 J-0.367
X-93.996 Y-153.026 Z-0.056 I0.302 J0.367
X-94.599 Y-153.759 Z-0.108 I-0.302 J-0.367
X-93.996 Y-153.026 Z-0.16 I0.302 J0.367
X-94.599 Y-153.759 Z-0.212 I-0.302 J-0.367
X-93.996 Y-153.026 Z-0.264 I0.302 J0.367
X-94.599 Y-153.759 Z-0.316 I-0.302 J-0.367
X-93.996 Y-153.026 Z-0.368 I0.302 J0.367
X-94.599 Y-153.759 Z-0.42 I-0.302 J-0.367
X-93.996 Y-153.026 Z-0.472 I0.302 J0.367
X-94.599 Y-153.759 Z-0.525 I-0.302 J-0.367
X-93.996 Y-153.026 Z-0.577 I0.302 J0.367
X-94.599 Y-153.759 Z-0.629 I-0.302 J-0.367
X-93.996 Y-153.026 Z-0.681 I0.302 J0.367
X-94.599 Y-153.759 Z-0.733 I-0.302 J-0.367
X-93.996 Y-153.026 Z-0.785 I0.302 J0.367
X-94.599 Y-153.759 Z-0.837 I-0.302 J-0.367
X-93.996 Y-153.026 Z-0.889 I0.302 J0.367
X-94.599 Y-153.759 Z-0.941 I-0.302 J-0.367
X-93.996 Y-153.026 Z-0.994 I0.302 J0.367
X-94.599 Y-153.759 Z-1.046 I-0.302 J-0.367
X-93.996 Y-153.026 Z-1.098 I0.302 J0.367
X-94.599 Y-153.759 Z-1.15 I-0.302 J-0.367
X-93.996 Y-153.026 Z-1.202 I0.302 J0.367
X-94.599 Y-153.759 Z-1.254 I-0.302 J-0.367
X-93.996 Y-153.026 Z-1.306 I0.302 J0.367
X-94.599 Y-153.759 Z-1.358 I-0.302 J-0.367
X-93.996 Y-153.026 Z-1.41 I0.302 J0.367
X-94.599 Y-153.759 Z-1.463 I-0.302 J-0.367
X-93.823 Y-153.392 Z-1.5 I0.302 J0.367
X-94.773 Y-153.392 I-0.475 J0
X-93.823 Y-153.392 I0.475 J0
S8000
G1 X-93.797 Y-153.118 F1000
X-93.795 Y-152.968
X-93.865 Y-152.835
X-93.974 Y-152.733
X-94.108 Y-152.664
X-94.254 Y-152.63
X-94.404 Y-152.628
X-94.55 Y-152.658
X-94.688 Y-152.718
X-94.811 Y-152.803
X-94.916 Y-152.911
X-94.997 Y-153.037
X-95.052 Y-153.177
X-95.08 Y-153.324
X-95.079 Y-153.474
X-95.049 Y-153.621
X-94.992 Y-153.76
X-94.91 Y-153.885
X-94.805 Y-153.993
X-94.682 Y-154.078
X-94.544 Y-154.139
X-94.398 Y-154.172
X-94.248 Y-154.177
X-94.1 Y-154.153
X-93.959 Y-154.102
X-93.831 Y-154.025
X-93.719 Y-153.924
X-93.628 Y-153.805
X-93.562 Y-153.67
X-93.513 Y-153.529
X-93.476 Y-153.383
X-93.452 Y-153.235
X-93.45 Y-153.085
X-93.475 Y-152.937
X-93.527 Y-152.796
X-93.603 Y-152.667
X-93.702 Y-152.555
X-93.819 Y-152.461
X-93.95 Y-152.387
X-94.091 Y-152.337
X-94.239 Y-152.309
X-94.388 Y-152.303
X-94.537 Y-152.32
X-94.682 Y-152.359
X-94.82 Y-152.417
X-94.949 Y-152.494
X-95.065 Y-152.589
X-95.167 Y-152.699
X-95.254 Y-152.821
X-95.323 Y-152.955
X-95.373 Y-153.096
X-95.404 Y-153.243
X-95.414 Y-153.393
X-95.404 Y-153.542
X-95.374 Y-153.689
X-95.326 Y-153.831
X-95.257 Y-153.965
X-95.172 Y-154.088
X-95.071 Y-154.199
X-94.956 Y-154.295
X-94.829 Y-154.375
X-94.693 Y-154.438
X-94.549 Y-154.482
X-94.401 Y-154.505
X-94.251 Y-154.509
X-94.102 Y-154.493
X-93.957 Y-154.457
X-93.817 Y-154.401
X-93.686 Y-154.328
X-93.566 Y-154.238
X-93.46 Y-154.132
X-93.368 Y-154.014
X-93.29 Y-153.886
X-93.225 Y-153.75
X-93.172 Y-153.61
X-93.134 Y-153.465
X-93.11 Y-153.317
X-93.103 Y-153.167
X-93.114 Y-153.017
X-93.143 Y-152.87
X-93.189 Y-152.727
X-93.254 Y-152.592
X-93.336 Y-152.466
X-93.432 Y-152.351
X-93.541 Y-152.248
X-93.663 Y-152.161
X-93.794 Y-152.088
X-93.933 Y-152.032
X-94.077 Y-151.991
X-94.226 Y-151.968
X-94.376 Y-151.962
X-94.525 Y-151.973
X-94.673 Y-151.999
X-94.817 Y-152.042
X-94.955 Y-152.101
X-95.086 Y-152.173
X-95.209 Y-152.259
X-95.322 Y-152.358
X-95.424 Y-152.468
X-95.514 Y-152.587
X-95.591 Y-152.716
X-95.655 Y-152.852
X-95.703 Y-152.994
X-95.737 Y-153.14
X-95.756 Y-153.289
X-95.76 Y-153.439
X-95.747 Y-153.588
X-95.72 Y-153.736
X-95.678 Y-153.88
X-95.621 Y-154.018
X-95.549 Y-154.15
X-95.465 Y-154.275
X-95.369 Y-154.39
X-95.261 Y-154.494
X-95.143 Y-154.587
X-95.017 Y-154.667
X-94.883 Y-154.734
X-94.742 Y-154.788
X-94.597 Y-154.825
X-94.449 Y-154.848
X-94.299 Y-154.856
X-94.149 Y-154.849
X-94.001 Y-154.826
X-93.856 Y-154.788
X-93.716 Y-154.735
X-93.581 Y-154.669
X-93.454 Y-154.589
X-93.336 Y-154.496
X-93.228 Y-154.392
X-93.13 Y-154.279
X-93.042 Y-154.157
X-92.965 Y-154.029
X-92.9 Y-153.894
X-92.845 Y-153.754
X-92.803 Y-153.61
X-92.771 Y-153.463
X-92.754 Y-153.314
X-92.75 Y-153.164
X-92.76 Y-153.015
X-92.783 Y-152.867
X-92.82 Y-152.721
X-92.872 Y-152.58
X-92.937 Y-152.445
X-93.014 Y-152.317
X-93.103 Y-152.196
X-93.203 Y-152.084
X-93.314 Y-151.983
X-93.434 Y-151.893
X-93.562 Y-151.814
X-93.696 Y-151.747
X-93.836 Y-151.694
X-93.98 Y-151.653
X-94.128 Y-151.626
X-94.277 Y-151.612
X-94.427 Y-151.61
X-94.577 Y-151.623
X-94.724 Y-151.649
X-94.869 Y-151.688
X-95.011 Y-151.738
X-95.147 Y-151.8
X-95.278 Y-151.874
X-95.401 Y-151.96
X-95.517 Y-152.055
X-95.625 Y-152.159
X-95.723 Y-152.272
X-95.812 Y-152.393
X-95.89 Y-152.521
X-95.957 Y-152.656
X-96.013 Y-152.795
X-96.057 Y-152.938
X-96.089 Y-153.085
X-96.108 Y-153.233
X-96.115 Y-153.384
X-96.111 Y-153.534
X-96.093 Y-153.683
X-96.063 Y-153.83
X-96.021 Y-153.973
X-95.967 Y-154.114
X-95.903 Y-154.249
X-95.827 Y-154.379
X-95.741 Y-154.501
X-95.644 Y-154.616
X-95.539 Y-154.723
X-95.425 Y-154.821
X-95.304 Y-154.909
X-95.175 Y-154.987
X-95.041 Y-155.054
X-94.902 Y-155.109
X-94.758 Y-155.153
X-94.611 Y-155.185
X-94.463 Y-155.205
X-94.313 Y-155.212
X-94.163 Y-155.207
X-94.013 Y-155.19
X-93.866 Y-155.161
X-93.722 Y-155.119
X-93.582 Y-155.066
X-93.447 Y-155.001
X-93.316 Y-154.925
X-93.193 Y-154.839
X-93.076 Y-154.743
X-92.962 Y-154.633
X-92.855 Y-154.512
X-92.756 Y-154.379
X-92.667 Y-154.236
X-92.587 Y-154.084
X-92.52 Y-153.925
X-92.467 Y-153.764
X-92.427 Y-153.602
X-92.401 Y-153.44
X-92.389 Y-153.278
Y-153.119
X-92.402 Y-152.963
X-92.427 Y-152.808
X-92.465 Y-152.655
X-92.516 Y-152.504
X-92.578 Y-152.357
X-92.648 Y-152.224
X-92.729 Y-152.097
X-92.821 Y-151.974
X-92.925 Y-151.856
X-93.041 Y-151.745
X-93.165 Y-151.644
X-93.292 Y-151.555
X-93.425 Y-151.479
X-93.567 Y-151.411
X-93.718 Y-151.354
X-93.875 Y-151.308
X-94.035 Y-151.275
X-94.197 Y-151.255
X-94.362 Y-151.248
X-94.527 Y-151.254
X-94.693 Y-151.274
X-94.856 Y-151.306
X-95.014 Y-151.352
X-95.17 Y-151.41
X-95.324 Y-151.482
X-95.472 Y-151.568
X-95.615 Y-151.665
X-95.748 Y-151.773
X-95.872 Y-151.891
X-95.987 Y-152.019
X-96.091 Y-152.157
X-96.186 Y-152.305
X-96.267 Y-152.458
X-96.336 Y-152.617
X-96.392 Y-152.781
X-96.435 Y-152.95
X-96.464 Y-153.123
X-96.479 Y-153.298
X-96.48 Y-153.473
X-96.467 Y-153.646
X-96.441 Y-153.818
X-96.4 Y-153.989
X-96.345 Y-154.156
X-96.278 Y-154.317
X-96.199 Y-154.471
X-96.107 Y-154.619
X-96.003 Y-154.76
X-95.886 Y-154.894
X-95.761 Y-155.016
X-95.627 Y-155.127
X-95.485 Y-155.228
X-95.333 Y-155.317
X-95.174 Y-155.395
X-95.01 Y-155.459
X-94.842 Y-155.509
X-94.672 Y-155.546
X-94.498 Y-155.568
X-94.321 Y-155.577
X-94.145 Y-155.572
X-93.971 Y-155.553
X-93.799 Y-155.52
X-93.63 Y-155.473
X-93.464 Y-155.412
X-93.303 Y-155.338
X-93.147 Y-155.251
X-92.997 Y-155.15
X-92.852 Y-155.035
X-92.715 Y-154.906
X-92.587 Y-154.765
X-92.468 Y-154.611
X-92.361 Y-154.446
X-92.267 Y-154.273
X-92.187 Y-154.092
X-92.122 Y-153.907
X-92.073 Y-153.718
X-92.039 Y-153.528
X-92.021 Y-153.338
X-92.018 Y-153.149
X-92.03 Y-152.96
X-92.058 Y-152.773
X-92.1 Y-152.589
X-92.156 Y-152.411
X-92.226 Y-152.241
X-92.255 Y-152.184
X-92.267 Y-152.163
X-92.281 Y-152.143
X-92.298 Y-152.124
X-93.075 Y-151.347
X-93.186 Y-151.246
X-93.311 Y-151.162
X-93.442 Y-151.09
X-93.585 Y-151.028
X-93.743 Y-150.973
X-93.911 Y-150.93
X-94.087 Y-150.9
X-94.269 Y-150.883
X-94.455 Y-150.881
X-94.644 Y-150.894
X-94.834 Y-150.923
X-95 Y-150.962
X-95.04 Y-150.976
X-95.078 Y-150.997
X-95.111 Y-151.024
X-95.131 Y-151.054
X-95.138 Y-151.089
X-95.133 Y-151.124
X-95.116 Y-151.156
X-95.088 Y-151.179
X-95.055 Y-151.191
X-94.493 Y-151.287
X-93.694 Y-151.423
X-93.165 Y-151.514
X-93.13 Y-151.513
X-93.097 Y-151.501
X-93.07 Y-151.477
X-93.053 Y-151.446
X-93.048 Y-151.411
X-93.056 Y-151.377
X-93.075 Y-151.347
X-93.506 Y-150.916
X-93.523 Y-150.902
X-93.799 Y-150.718
X-93.839 Y-150.692
X-93.859 Y-150.679
X-93.88 Y-150.668
X-93.89 Y-150.665
X-94.242 Y-150.595
X-94.252 Y-150.594
X-94.262
X-94.282 Y-150.597
X-94.604 Y-150.661
X-94.621 Y-150.665
X-94.637 Y-150.672
X-94.67 Y-150.692
X-94.926 Y-150.862
X-95.006 Y-150.919
X-96.469 Y-152.381
X-96.569 Y-152.493
X-96.652 Y-152.618
X-96.717 Y-152.753
X-96.766 Y-152.895
X-96.802 Y-153.043
X-96.827 Y-153.201
X-96.841 Y-153.368
Y-153.547
X-96.825 Y-153.735
X-96.794 Y-153.928
X-96.747 Y-154.12
X-96.684 Y-154.309
X-96.605 Y-154.494
X-96.511 Y-154.673
X-96.402 Y-154.846
X-96.279 Y-155.01
X-96.144 Y-155.163
X-95.997 Y-155.304
X-95.838 Y-155.434
X-95.669 Y-155.551
X-95.492 Y-155.655
X-95.306 Y-155.743
X-95.115 Y-155.816
X-94.918 Y-155.874
X-94.717 Y-155.916
X-94.512 Y-155.941
X-94.307 Y-155.95
X-94.102 Y-155.942
X-93.898 Y-155.919
X-93.696 Y-155.878
X-93.621 Y-155.857
X-93.584 Y-155.843
X-93.55 Y-155.823
X-93.52 Y-155.797
X-92.036 Y-154.312
X-91.935 Y-154.201
X-91.855 Y-154.075
X-91.791 Y-153.939
X-91.742 Y-153.797
X-91.702 Y-153.647
X-91.673 Y-153.479
X-91.655 Y-153.294
X-91.652 Y-153.096
X-91.665 Y-152.892
X-91.67 Y-152.865
X-91.677 Y-152.831
X-91.689 Y-152.799
X-91.706 Y-152.769
X-91.734 Y-152.743
X-91.77 Y-152.729
X-91.808 Y-152.73
X-91.843 Y-152.744
X-91.87 Y-152.771
X-91.885 Y-152.806
X-92.007 Y-153.348
X-92.085 Y-153.699
X-92.201 Y-154.217
X-92.203 Y-154.254
X-92.191 Y-154.288
X-92.168 Y-154.316
X-92.137 Y-154.334
X-92.101 Y-154.339
X-92.066 Y-154.332
X-92.036 Y-154.312
X-91.832 Y-154.108
X-91.814 Y-154.09
X-91.586 Y-153.749
X-91.58 Y-153.739
X-91.575 Y-153.729
X-91.569 Y-153.709
X-91.56 Y-153.669
X-91.501 Y-153.367
X-91.5 Y-153.347
X-91.501 Y-153.327
X-91.561 Y-153.025
X-91.57 Y-152.985
X-91.578 Y-152.965
X-91.583 Y-152.955
X-91.804 Y-152.623
X-91.818 Y-152.606
X-91.834 Y-152.588
X-92.298 Y-152.124
X-92.32 Y-152.109
X-92.345 Y-152.1
X-92.372 Y-152.098
X-93.075 Y-152.142
X-95.692 Y-152.309
X-96.407 Y-152.355
X-96.44 Y-152.363
X-96.469 Y-152.381
X-96.908 Y-152.82
X-97.008 Y-152.931
X-97.082 Y-153.062
X-97.133 Y-153.203
X-97.164 Y-153.35
X-97.181 Y-153.499
X-97.184 Y-153.652
X-97.174 Y-153.828
X-97.147 Y-154.018
X-97.103 Y-154.217
X-97.041 Y-154.416
X-96.961 Y-154.616
X-96.862 Y-154.817
X-96.744 Y-155.012
X-96.61 Y-155.2
X-96.46 Y-155.378
X-96.295 Y-155.544
X-96.117 Y-155.697
X-95.926 Y-155.835
X-95.725 Y-155.958
X-95.515 Y-156.064
X-95.297 Y-156.153
X-95.072 Y-156.224
X-94.842 Y-156.277
X-94.609 Y-156.312
X-94.374 Y-156.327
X-94.138 Y-156.324
X-94.121 Y-156.322
X-94.068 Y-156.311
X-94.02 Y-156.288
X-93.978 Y-156.255
X-93.52 Y-155.797
X-93.503 Y-155.771
X-93.494 Y-155.74
X-93.496 Y-155.708
X-93.507 Y-155.679
X-93.528 Y-155.654
X-93.998 Y-155.243
X-96.293 Y-153.238
X-96.774 Y-152.818
X-96.805 Y-152.799
X-96.841 Y-152.793
X-96.877 Y-152.8
X-96.908 Y-152.82
X-97.274 Y-153.186
X-97.293 Y-153.206
X-97.308 Y-153.226
X-97.335 Y-153.266
X-97.412 Y-153.395
X-97.464 Y-153.536
X-97.492 Y-153.683
X-97.503 Y-153.833
X-97.499 Y-153.983
X-97.48 Y-154.151
X-97.444 Y-154.34
X-97.39 Y-154.533
X-97.377 Y-154.567
X-97.368 Y-154.584
X-97.359 Y-154.6
X-97.333 Y-154.624
X-97.301 Y-154.638
X-97.265 Y-154.64
X-97.231 Y-154.63
X-97.203 Y-154.608
X-97.185 Y-154.578
X-97.178 Y-154.543
X-97.167 Y-154.008
X-97.164 Y-153.858
X-97.154 Y-153.327
X-97.159 Y-153.291
X-97.178 Y-153.26
X-97.205 Y-153.237
X-97.24 Y-153.226
X-97.276 Y-153.227
X-97.309 Y-153.241
X-97.335 Y-153.266
X-97.525 Y-153.551
X-97.536 Y-153.57
X-97.542 Y-153.588
X-97.61 Y-153.93
X-97.611 Y-153.95
X-97.606 Y-153.991
X-97.542 Y-154.312
X-97.535 Y-154.331
X-97.525 Y-154.35
X-97.309 Y-154.675
X-97.295 Y-154.695
X-95.811 Y-156.179
X-95.7 Y-156.28
X-95.58 Y-156.37
X-95.451 Y-156.446
X-95.305 Y-156.514
X-95.134 Y-156.577
X-94.948 Y-156.629
X-94.725 Y-156.672
X-94.701 Y-156.673
X-94.677 Y-156.672
X-94.653 Y-156.669
X-94.621 Y-156.655
X-94.595 Y-156.63
X-94.58 Y-156.598
X-94.577 Y-156.563
X-94.586 Y-156.528
X-94.607 Y-156.5
X-94.636 Y-156.48
X-95.127 Y-156.267
X-95.228 Y-156.223
X-95.698 Y-156.019
X-95.736 Y-156.011
X-95.774 Y-156.018
X-95.807 Y-156.038
X-95.829 Y-156.07
X-95.838 Y-156.108
X-95.831 Y-156.146
X-95.811 Y-156.179
X-95.614 Y-156.375
X-95.579 Y-156.404
X-95.328 Y-156.572
X-95.248 Y-156.624
X-95.23 Y-156.633
X-95.211 Y-156.639
X-94.886 Y-156.703
X-94.865 Y-156.707
X-94.855
X-94.845
X-94.493 Y-156.637
X-94.483 Y-156.633
X-94.463 Y-156.623
X-94.443 Y-156.611
X-94.121 Y-156.396
X-94.103 Y-156.38
X-93.978 Y-156.255
X-93.961 Y-156.231
X-93.952 Y-156.204
X-93.951 Y-156.187 Z-1.498
X-93.963 Y-156.158 Z-1.486
X-93.974 Y-156.134 Z-1.463
X-93.98 Y-156.119 Z-1.434
X-93.983 Y-156.113 Z-1.4
G0 Z5
X-86.222 Y-145.253
Z2.55
S5000
G3 X-86.826 Y-145.986 Z2.498 I-0.302 J-0.367 F333.3
X-86.222 Y-145.253 Z2.446 I0.302 J0.367
X-86.826 Y-145.986 Z2.394 I-0.302 J-0.367
X-86.222 Y-145.253 Z2.342 I0.302 J0.367
X-86.826 Y-145.986 Z2.289 I-0.302 J-0.367
X-86.222 Y-145.253 Z2.237 I0.302 J0.367
X-86.826 Y-145.986 Z2.185 I-0.302 J-0.367
X-86.222 Y-145.253 Z2.133 I0.302 J0.367
X-86.826 Y-145.986 Z2.081 I-0.302 J-0.367
X-86.222 Y-145.253 Z2.029 I0.302 J0.367
X-86.826 Y-145.986 Z1.977 I-0.302 J-0.367
X-86.222 Y-145.253 Z1.925 I0.302 J0.367
X-86.826 Y-145.986 Z1.873 I-0.302 J-0.367
X-86.222 Y-145.253 Z1.82 I0.302 J0.367
X-86.826 Y-145.986 Z1.768 I-0.302 J-0.367
X-86.222 Y-145.253 Z1.716 I0.302 J0.367
X-86.826 Y-145.986 Z1.664 I-0.302 J-0.367
X-86.222 Y-145.253 Z1.612 I0.302 J0.367
X-86.826 Y-145.986 Z1.56 I-0.302 J-0.367
X-86.222 Y-145.253 Z1.508 I0.302 J0.367
X-86.826 Y-145.986 Z1.456 I-0.302 J-0.367
X-86.222 Y-145.253 Z1.404 I0.302 J0.367
X-86.826 Y-145.986 Z1.351 I-0.302 J-0.367
X-86.222 Y-145.253 Z1.299 I0.302 J0.367
X-86.826 Y-145.986 Z1.247 I-0.302 J-0.367
X-86.222 Y-145.253 Z1.195 I0.302 J0.367
X-86.826 Y-145.986 Z1.143 I-0.302 J-0.367
X-86.222 Y-145.253 Z1.091 I0.302 J0.367
X-86.826 Y-145.986 Z1.039 I-0.302 J-0.367
X-86.222 Y-145.253 Z0.987 I0.302 J0.367
X-86.826 Y-145.986 Z0.935 I-0.302 J-0.367
X-86.222 Y-145.253 Z0.882 I0.302 J0.367
X-86.826 Y-145.986 Z0.83 I-0.302 J-0.367
X-86.222 Y-145.253 Z0.778 I0.302 J0.367
X-86.826 Y-145.986 Z0.726 I-0.302 J-0.367
X-86.222 Y-145.253 Z0.674 I0.302 J0.367
X-86.826 Y-145.986 Z0.622 I-0.302 J-0.367
X-86.222 Y-145.253 Z0.57 I0.302 J0.367
X-86.826 Y-145.986 Z0.518 I-0.302 J-0.367
X-86.222 Y-145.253 Z0.466 I0.302 J0.367
X-86.826 Y-145.986 Z0.413 I-0.302 J-0.367
X-86.222 Y-145.253 Z0.361 I0.302 J0.367
X-86.826 Y-145.986 Z0.309 I-0.302 J-0.367
X-86.222 Y-145.253 Z0.257 I0.302 J0.367
X-86.826 Y-145.986 Z0.205 I-0.302 J-0.367
X-86.222 Y-145.253 Z0.153 I0.302 J0.367
X-86.826 Y-145.986 Z0.101 I-0.302 J-0.367
X-86.222 Y-145.253 Z0.049 I0.302 J0.367
X-86.826 Y-145.986 Z-0.003 I-0.302 J-0.367
X-86.222 Y-145.253 Z-0.056 I0.302 J0.367
X-86.826 Y-145.986 Z-0.108 I-0.302 J-0.367
X-86.222 Y-145.253 Z-0.16 I0.302 J0.367
X-86.826 Y-145.986 Z-0.212 I-0.302 J-0.367
X-86.222 Y-145.253 Z-0.264 I0.302 J0.367
X-86.826 Y-145.986 Z-0.316 I-0.302 J-0.367
X-86.222 Y-145.253 Z-0.368 I0.302 J0.367
X-86.826 Y-145.986 Z-0.42 I-0.302 J-0.367
X-86.222 Y-145.253 Z-0.472 I0.302 J0.367
X-86.826 Y-145.986 Z-0.525 I-0.302 J-0.367
X-86.222 Y-145.253 Z-0.577 I0.302 J0.367
X-86.826 Y-145.986 Z-0.629 I-0.302 J-0.367
X-86.222 Y-145.253 Z-0.681 I0.302 J0.367
X-86.826 Y-145.986 Z-0.733 I-0.302 J-0.367
X-86.222 Y-145.253 Z-0.785 I0.302 J0.367
X-86.826 Y-145.986 Z-0.837 I-0.302 J-0.367
X-86.222 Y-145.253 Z-0.889 I0.302 J0.367
X-86.826 Y-145.986 Z-0.941 I-0.302 J-0.367
X-86.222 Y-145.253 Z-0.994 I0.302 J0.367
X-86.826 Y-145.986 Z-1.046 I-0.302 J-0.367
X-86.222 Y-145.253 Z-1.098 I0.302 J0.367
X-86.826 Y-145.986 Z-1.15 I-0.302 J-0.367
X-86.222 Y-145.253 Z-1.202 I0.302 J0.367
X-86.826 Y-145.986 Z-1.254 I-0.302 J-0.367
X-86.222 Y-145.253 Z-1.306 I0.302 J0.367
X-86.826 Y-145.986 Z-1.358 I-0.302 J-0.367
X-86.222 Y-145.253 Z-1.41 I0.302 J0.367
X-86.826 Y-145.986 Z-1.463 I-0.302 J-0.367
X-86.049 Y-145.62 Z-1.5 I0.302 J0.367
X-86.999 Y-145.62 I-0.475 J0
X-86.049 Y-145.62 I0.475 J0
S8000
G1 X-86.023 Y-145.345 F1000
X-86.021 Y-145.195
X-86.091 Y-145.062
X-86.201 Y-144.96
X-86.334 Y-144.891
X-86.48 Y-144.857
X-86.63 Y-144.855
X-86.777 Y-144.885
X-86.914 Y-144.945
X-87.038 Y-145.03
X-87.142 Y-145.138
X-87.223 Y-145.264
X-87.278 Y-145.404
X-87.306 Y-145.551
X-87.305 Y-145.701
X-87.275 Y-145.848
X-87.218 Y-145.987
X-87.136 Y-146.112
X-87.031 Y-146.22
X-86.908 Y-146.305
X-86.771 Y-146.366
X-86.624 Y-146.399
X-86.474 Y-146.404
X-86.326 Y-146.38
X-86.185 Y-146.329
X-86.057 Y-146.252
X-85.945 Y-146.151
X-85.855 Y-146.032
X-85.788 Y-145.897
X-85.739 Y-145.756
X-85.702 Y-145.61
X-85.678 Y-145.462
X-85.676 Y-145.312
X-85.701 Y-145.164
X-85.753 Y-145.024
X-85.829 Y-144.894
X-85.928 Y-144.782
X-86.045 Y-144.688
X-86.176 Y-144.614
X-86.317 Y-144.564
X-86.465 Y-144.536
X-86.615 Y-144.53
X-86.764 Y-144.547
X-86.909 Y-144.586
X-87.047 Y-144.644
X-87.176 Y-144.721
X-87.292 Y-144.816
X-87.394 Y-144.926
X-87.481 Y-145.048
X-87.549 Y-145.182
X-87.599 Y-145.323
X-87.63 Y-145.47
X-87.641 Y-145.62
X-87.63 Y-145.769
X-87.6 Y-145.916
X-87.552 Y-146.058
X-87.483 Y-146.192
X-87.398 Y-146.315
X-87.297 Y-146.426
X-87.182 Y-146.523
X-87.055 Y-146.602
X-86.919 Y-146.665
X-86.776 Y-146.709
X-86.627 Y-146.732
X-86.477 Y-146.736
X-86.328 Y-146.72
X-86.183 Y-146.684
X-86.043 Y-146.628
X-85.912 Y-146.555
X-85.793 Y-146.465
X-85.686 Y-146.359
X-85.594 Y-146.241
X-85.516 Y-146.113
X-85.451 Y-145.978
X-85.399 Y-145.837
X-85.36 Y-145.692
X-85.337 Y-145.544
X-85.329 Y-145.394
X-85.34 Y-145.244
X-85.37 Y-145.097
X-85.416 Y-144.955
X-85.48 Y-144.819
X-85.562 Y-144.693
X-85.658 Y-144.578
X-85.767 Y-144.476
X-85.889 Y-144.388
X-86.02 Y-144.316
X-86.159 Y-144.259
X-86.304 Y-144.218
X-86.452 Y-144.195
X-86.602 Y-144.189
X-86.752 Y-144.2
X-86.899 Y-144.226
X-87.043 Y-144.269
X-87.181 Y-144.328
X-87.312 Y-144.4
X-87.435 Y-144.486
X-87.548 Y-144.585
X-87.65 Y-144.695
X-87.74 Y-144.815
X-87.818 Y-144.943
X-87.881 Y-145.079
X-87.929 Y-145.221
X-87.964 Y-145.367
X-87.983 Y-145.516
X-87.986 Y-145.666
X-87.973 Y-145.815
X-87.946 Y-145.963
X-87.904 Y-146.107
X-87.847 Y-146.246
X-87.776 Y-146.378
X-87.691 Y-146.502
X-87.595 Y-146.617
X-87.488 Y-146.722
X-87.37 Y-146.814
X-87.243 Y-146.894
X-87.109 Y-146.962
X-86.969 Y-147.015
X-86.823 Y-147.053
X-86.675 Y-147.075
X-86.525 Y-147.083
X-86.376 Y-147.076
X-86.227 Y-147.053
X-86.082 Y-147.015
X-85.942 Y-146.963
X-85.807 Y-146.896
X-85.68 Y-146.816
X-85.563 Y-146.723
X-85.454 Y-146.62
X-85.356 Y-146.506
X-85.268 Y-146.385
X-85.192 Y-146.256
X-85.126 Y-146.121
X-85.072 Y-145.981
X-85.029 Y-145.837
X-84.998 Y-145.691
X-84.98 Y-145.542
X-84.977 Y-145.392
X-84.986 Y-145.242
X-85.009 Y-145.094
X-85.047 Y-144.948
X-85.098 Y-144.808
X-85.163 Y-144.672
X-85.24 Y-144.544
X-85.329 Y-144.423
X-85.43 Y-144.311
X-85.483 Y-144.264
X-85.501 Y-144.25
X-85.735 Y-144.094
X-85.834 Y-144.027
X-85.848 Y-144.019
X-85.876 Y-144.008
X-85.914 Y-144
X-86.478 Y-143.888
X-86.518 Y-143.882
X-86.528 Y-143.881
X-86.538 Y-143.882
X-87.172 Y-144.008
X-87.189 Y-144.013
X-87.202 Y-144.02
X-87.443 Y-144.18
X-87.735 Y-144.375
X-87.745 Y-144.384
X-87.765 Y-144.404
X-88.095 Y-144.898
X-88.127 Y-144.949
X-88.132 Y-144.959
X-88.137 Y-144.979
X-88.261 Y-145.602
Y-145.622
X-88.248 Y-145.703
X-88.136 Y-146.266
X-88.133 Y-146.276
X-88.129 Y-146.286
X-88.117 Y-146.306
X-87.765 Y-146.834
X-87.755 Y-146.845
X-87.725 Y-146.87
X-87.282 Y-147.165
X-87.202 Y-147.218
X-87.184 Y-147.226
X-87.166 Y-147.232
X-86.538 Y-147.356
X-86.528 Y-147.357
X-86.518 Y-147.356
X-86.478 Y-147.35
X-85.883 Y-147.232
X-85.858 Y-147.224
X-85.846 Y-147.218
X-85.316 Y-146.865
X-85.306 Y-146.857
X-85.295 Y-146.847
X-85.281 Y-146.829
X-85.271 Y-146.815
X-84.927 Y-146.3
X-84.919 Y-146.283
X-84.914 Y-146.266
X-84.881 Y-146.105
X-84.801 Y-145.703
X-84.788 Y-145.63
Y-145.601
X-84.911 Y-144.979
X-84.916 Y-144.96
X-84.924 Y-144.942
X-85.276 Y-144.416
X-85.292 Y-144.395
X-85.303 Y-144.384
X-85.313 Y-144.375
X-85.501 Y-144.25
X-85.527 Y-144.238
X-85.555 Y-144.235
X-85.586 Y-144.249 Z-1.493
X-85.612 Y-144.262 Z-1.476
X-85.631 Y-144.272 Z-1.449
X-85.637 Y-144.279 Z-1.425
X-85.639 Y-144.282 Z-1.4
G0 Z5
X-86.222 Y-125.252
Z2.55
S5000
G3 X-86.826 Y-125.986 Z2.498 I-0.302 J-0.367 F333.3
X-86.222 Y-125.252 Z2.446 I0.302 J0.367
X-86.826 Y-125.986 Z2.394 I-0.302 J-0.367
X-86.222 Y-125.252 Z2.342 I0.302 J0.367
X-86.826 Y-125.986 Z2.289 I-0.302 J-0.367
X-86.222 Y-125.252 Z2.237 I0.302 J0.367
X-86.826 Y-125.986 Z2.185 I-0.302 J-0.367
X-86.222 Y-125.252 Z2.133 I0.302 J0.367
X-86.826 Y-125.986 Z2.081 I-0.302 J-0.367
X-86.222 Y-125.252 Z2.029 I0.302 J0.367
X-86.826 Y-125.986 Z1.977 I-0.302 J-0.367
X-86.222 Y-125.252 Z1.925 I0.302 J0.367
X-86.826 Y-125.986 Z1.873 I-0.302 J-0.367
X-86.222 Y-125.252 Z1.82 I0.302 J0.367
X-86.826 Y-125.986 Z1.768 I-0.302 J-0.367
X-86.222 Y-125.252 Z1.716 I0.302 J0.367
X-86.826 Y-125.986 Z1.664 I-0.302 J-0.367
X-86.222 Y-125.252 Z1.612 I0.302 J0.367
X-86.826 Y-125.986 Z1.56 I-0.302 J-0.367
X-86.222 Y-125.252 Z1.508 I0.302 J0.367
X-86.826 Y-125.986 Z1.456 I-0.302 J-0.367
X-86.222 Y-125.252 Z1.404 I0.302 J0.367
X-86.826 Y-125.986 Z1.351 I-0.302 J-0.367
X-86.222 Y-125.252 Z1.299 I0.302 J0.367
X-86.826 Y-125.986 Z1.247 I-0.302 J-0.367
X-86.222 Y-125.252 Z1.195 I0.302 J0.367
X-86.826 Y-125.986 Z1.143 I-0.302 J-0.367
X-86.222 Y-125.252 Z1.091 I0.302 J0.367
X-86.826 Y-125.986 Z1.039 I-0.302 J-0.367
X-86.222 Y-125.252 Z0.987 I0.302 J0.367
X-86.826 Y-125.986 Z0.935 I-0.302 J-0.367
X-86.222 Y-125.252 Z0.882 I0.302 J0.367
X-86.826 Y-125.986 Z0.83 I-0.302 J-0.367
X-86.222 Y-125.252 Z0.778 I0.302 J0.367
X-86.826 Y-125.986 Z0.726 I-0.302 J-0.367
X-86.222 Y-125.252 Z0.674 I0.302 J0.367
X-86.826 Y-125.986 Z0.622 I-0.302 J-0.367
X-86.222 Y-125.252 Z0.57 I0.302 J0.367
X-86.826 Y-125.986 Z0.518 I-0.302 J-0.367
X-86.222 Y-125.252 Z0.466 I0.302 J0.367
X-86.826 Y-125.986 Z0.413 I-0.302 J-0.367
X-86.222 Y-125.252 Z0.361 I0.302 J0.367
X-86.826 Y-125.986 Z0.309 I-0.302 J-0.367
X-86.222 Y-125.252 Z0.257 I0.302 J0.367
X-86.826 Y-125.986 Z0.205 I-0.302 J-0.367
X-86.222 Y-125.252 Z0.153 I0.302 J0.367
X-86.826 Y-125.986 Z0.101 I-0.302 J-0.367
X-86.222 Y-125.252 Z0.049 I0.302 J0.367
X-86.826 Y-125.986 Z-0.003 I-0.302 J-0.367
X-86.222 Y-125.252 Z-0.056 I0.302 J0.367
X-86.826 Y-125.986 Z-0.108 I-0.302 J-0.367
X-86.222 Y-125.252 Z-0.16 I0.302 J0.367
X-86.826 Y-125.986 Z-0.212 I-0.302 J-0.367
X-86.222 Y-125.252 Z-0.264 I0.302 J0.367
X-86.826 Y-125.986 Z-0.316 I-0.302 J-0.367
X-86.222 Y-125.252 Z-0.368 I0.302 J0.367
X-86.826 Y-125.986 Z-0.42 I-0.302 J-0.367
X-86.222 Y-125.252 Z-0.472 I0.302 J0.367
X-86.826 Y-125.986 Z-0.525 I-0.302 J-0.367
X-86.222 Y-125.252 Z-0.577 I0.302 J0.367
X-86.826 Y-125.986 Z-0.629 I-0.302 J-0.367
X-86.222 Y-125.252 Z-0.681 I0.302 J0.367
X-86.826 Y-125.986 Z-0.733 I-0.302 J-0.367
X-86.222 Y-125.252 Z-0.785 I0.302 J0.367
X-86.826 Y-125.986 Z-0.837 I-0.302 J-0.367
X-86.222 Y-125.252 Z-0.889 I0.302 J0.367
X-86.826 Y-125.986 Z-0.941 I-0.302 J-0.367
X-86.222 Y-125.252 Z-0.994 I0.302 J0.367
X-86.826 Y-125.986 Z-1.046 I-0.302 J-0.367
X-86.222 Y-125.252 Z-1.098 I0.302 J0.367
X-86.826 Y-125.986 Z-1.15 I-0.302 J-0.367
X-86.222 Y-125.252 Z-1.202 I0.302 J0.367
X-86.826 Y-125.986 Z-1.254 I-0.302 J-0.367
X-86.222 Y-125.252 Z-1.306 I0.302 J0.367
X-86.826 Y-125.986 Z-1.358 I-0.302 J-0.367
X-86.222 Y-125.252 Z-1.41 I0.302 J0.367
X-86.826 Y-125.986 Z-1.463 I-0.302 J-0.367
X-86.049 Y-125.619 Z-1.5 I0.302 J0.367
X-86.999 Y-125.619 I-0.475 J0
X-86.049 Y-125.619 I0.475 J0
S8000
G1 X-86.023 Y-125.345 F1000
X-86.021 Y-125.195
X-86.091 Y-125.062
X-86.2 Y-124.96
X-86.334 Y-124.891
X-86.48 Y-124.856
X-86.63 Y-124.855
X-86.777 Y-124.885
X-86.914 Y-124.944
X-87.038 Y-125.03
X-87.142 Y-125.138
X-87.223 Y-125.264
X-87.278 Y-125.403
X-87.306 Y-125.551
X-87.305 Y-125.701
X-87.275 Y-125.848
X-87.218 Y-125.987
X-87.136 Y-126.112
X-87.031 Y-126.219
X-86.908 Y-126.305
X-86.771 Y-126.365
X-86.624 Y-126.399
X-86.474 Y-126.403
X-86.326 Y-126.38
X-86.185 Y-126.328
X-86.057 Y-126.251
X-85.945 Y-126.151
X-85.855 Y-126.031
X-85.788 Y-125.897
X-85.739 Y-125.755
X-85.702 Y-125.61
X-85.678 Y-125.462
X-85.676 Y-125.312
X-85.701 Y-125.164
X-85.753 Y-125.023
X-85.829 Y-124.894
X-85.928 Y-124.781
X-86.045 Y-124.688
X-86.176 Y-124.614
X-86.317 Y-124.563
X-86.465 Y-124.536
X-86.615 Y-124.53
X-86.764 Y-124.547
X-86.909 Y-124.586
X-87.047 Y-124.644
X-87.175 Y-124.721
X-87.292 Y-124.816
X-87.394 Y-124.926
X-87.481 Y-125.048
X-87.549 Y-125.181
X-87.599 Y-125.323
X-87.63 Y-125.47
X-87.641 Y-125.619
X-87.63 Y-125.769
X-87.6 Y-125.916
X-87.552 Y-126.058
X-87.483 Y-126.191
X-87.398 Y-126.315
X-87.297 Y-126.426
X-87.182 Y-126.522
X-87.055 Y-126.602
X-86.919 Y-126.665
X-86.776 Y-126.708
X-86.627 Y-126.732
X-86.477 Y-126.735
X-86.328 Y-126.72
X-86.183 Y-126.683
X-86.043 Y-126.628
X-85.912 Y-126.555
X-85.793 Y-126.465
X-85.686 Y-126.359
X-85.594 Y-126.24
X-85.516 Y-126.112
X-85.451 Y-125.977
X-85.399 Y-125.837
X-85.36 Y-125.692
X-85.337 Y-125.543
X-85.329 Y-125.394
X-85.34 Y-125.244
X-85.369 Y-125.097
X-85.415 Y-124.954
X-85.48 Y-124.819
X-85.562 Y-124.693
X-85.658 Y-124.578
X-85.767 Y-124.475
X-85.889 Y-124.387
X-86.02 Y-124.315
X-86.159 Y-124.258
X-86.304 Y-124.218
X-86.452 Y-124.195
X-86.602 Y-124.189
X-86.751 Y-124.199
X-86.899 Y-124.226
X-87.043 Y-124.269
X-87.181 Y-124.327
X-87.312 Y-124.4
X-87.435 Y-124.485
X-87.548 Y-124.584
X-87.65 Y-124.694
X-87.74 Y-124.814
X-87.818 Y-124.943
X-87.881 Y-125.079
X-87.929 Y-125.221
X-87.963 Y-125.367
X-87.983 Y-125.516
X-87.986 Y-125.665
X-87.973 Y-125.815
X-87.946 Y-125.962
X-87.904 Y-126.106
X-87.847 Y-126.245
X-87.775 Y-126.377
X-87.691 Y-126.501
X-87.595 Y-126.617
X-87.488 Y-126.721
X-87.37 Y-126.814
X-87.243 Y-126.894
X-87.109 Y-126.961
X-86.969 Y-127.014
X-86.823 Y-127.052
X-86.675 Y-127.075
X-86.525 Y-127.083
X-86.376 Y-127.076
X-86.227 Y-127.053
X-86.082 Y-127.015
X-85.942 Y-126.962
X-85.807 Y-126.896
X-85.68 Y-126.816
X-85.562 Y-126.723
X-85.454 Y-126.619
X-85.356 Y-126.506
X-85.268 Y-126.384
X-85.191 Y-126.255
X-85.126 Y-126.12
X-85.072 Y-125.981
X-85.029 Y-125.837
X-84.998 Y-125.69
X-84.98 Y-125.541
X-84.977 Y-125.391
X-84.986 Y-125.241
X-85.009 Y-125.093
X-85.046 Y-124.948
X-85.098 Y-124.807
X-85.163 Y-124.672
X-85.24 Y-124.543
X-85.329 Y-124.422
X-85.429 Y-124.311
X-85.48 Y-124.265
X-85.499 Y-124.251
X-85.753 Y-124.081
X-85.834 Y-124.027
X-85.844 Y-124.021
X-85.874 Y-124.009
X-85.914 Y-124
X-86.508 Y-123.882
X-86.518
X-86.538
X-86.558 Y-123.885
X-87.161 Y-124.005
X-87.182 Y-124.011
X-87.202 Y-124.02
X-87.282 Y-124.073
X-87.684 Y-124.341
X-87.741 Y-124.38
X-87.753 Y-124.391
X-87.765 Y-124.404
X-88.087 Y-124.886
X-88.124 Y-124.943
X-88.133 Y-124.964
X-88.138 Y-124.984
X-88.258 Y-125.587
X-88.261 Y-125.607
Y-125.627
X-88.255 Y-125.668
X-88.143 Y-126.231
X-88.133 Y-126.271
X-88.126 Y-126.291
X-88.121 Y-126.301
X-87.765 Y-126.833
X-87.741 Y-126.858
X-87.684 Y-126.897
X-87.236 Y-127.196
X-87.202 Y-127.218
X-87.182 Y-127.227
X-87.161 Y-127.233
X-86.558 Y-127.353
X-86.538 Y-127.355
X-86.518 Y-127.357
X-86.478 Y-127.35
X-85.914 Y-127.238
X-85.874 Y-127.229
X-85.844 Y-127.217
X-85.813 Y-127.196
X-85.331 Y-126.875
X-85.301 Y-126.853
X-85.284 Y-126.834
X-85.257 Y-126.794
X-84.928 Y-126.301
X-84.923 Y-126.291
X-84.915 Y-126.271
X-84.906 Y-126.231
X-84.794 Y-125.668
X-84.788 Y-125.63
X-84.787 Y-125.615
X-84.788 Y-125.6
X-84.91 Y-124.984
X-84.915 Y-124.964
X-84.919 Y-124.954
X-84.924 Y-124.943
X-84.949 Y-124.905
X-85.271 Y-124.423
X-85.286 Y-124.402
X-85.307 Y-124.38
X-85.499 Y-124.251
X-85.525 Y-124.24
X-85.553 Y-124.236
X-85.583 Y-124.251 Z-1.493
X-85.61 Y-124.264 Z-1.476
X-85.629 Y-124.273 Z-1.449
X-85.635 Y-124.281 Z-1.425
X-85.637 Y-124.284 Z-1.4
G0 Z5
X-66.222 Y-145.252
Z2.55
S5000
G3 X-66.826 Y-145.986 Z2.498 I-0.302 J-0.367 F333.3
X-66.222 Y-145.252 Z2.446 I0.302 J0.367
X-66.826 Y-145.986 Z2.394 I-0.302 J-0.367
X-66.222 Y-145.252 Z2.342 I0.302 J0.367
X-66.826 Y-145.986 Z2.289 I-0.302 J-0.367
X-66.222 Y-145.252 Z2.237 I0.302 J0.367
X-66.826 Y-145.986 Z2.185 I-0.302 J-0.367
X-66.222 Y-145.252 Z2.133 I0.302 J0.367
X-66.826 Y-145.986 Z2.081 I-0.302 J-0.367
X-66.222 Y-145.252 Z2.029 I0.302 J0.367
X-66.826 Y-145.986 Z1.977 I-0.302 J-0.367
X-66.222 Y-145.252 Z1.925 I0.302 J0.367
X-66.826 Y-145.986 Z1.873 I-0.302 J-0.367
X-66.222 Y-145.252 Z1.82 I0.302 J0.367
X-66.826 Y-145.986 Z1.768 I-0.302 J-0.367
X-66.222 Y-145.252 Z1.716 I0.302 J0.367
X-66.826 Y-145.986 Z1.664 I-0.302 J-0.367
X-66.222 Y-145.252 Z1.612 I0.302 J0.367
X-66.826 Y-145.986 Z1.56 I-0.302 J-0.367
X-66.222 Y-145.252 Z1.508 I0.302 J0.367
X-66.826 Y-145.986 Z1.456 I-0.302 J-0.367
X-66.222 Y-145.252 Z1.404 I0.302 J0.367
X-66.826 Y-145.986 Z1.351 I-0.302 J-0.367
X-66.222 Y-145.252 Z1.299 I0.302 J0.367
X-66.826 Y-145.986 Z1.247 I-0.302 J-0.367
X-66.222 Y-145.252 Z1.195 I0.302 J0.367
X-66.826 Y-145.986 Z1.143 I-0.302 J-0.367
X-66.222 Y-145.252 Z1.091 I0.302 J0.367
X-66.826 Y-145.986 Z1.039 I-0.302 J-0.367
X-66.222 Y-145.252 Z0.987 I0.302 J0.367
X-66.826 Y-145.986 Z0.935 I-0.302 J-0.367
X-66.222 Y-145.252 Z0.882 I0.302 J0.367
X-66.826 Y-145.986 Z0.83 I-0.302 J-0.367
X-66.222 Y-145.252 Z0.778 I0.302 J0.367
X-66.826 Y-145.986 Z0.726 I-0.302 J-0.367
X-66.222 Y-145.252 Z0.674 I0.302 J0.367
X-66.826 Y-145.986 Z0.622 I-0.302 J-0.367
X-66.222 Y-145.252 Z0.57 I0.302 J0.367
X-66.826 Y-145.986 Z0.518 I-0.302 J-0.367
X-66.222 Y-145.252 Z0.466 I0.302 J0.367
X-66.826 Y-145.986 Z0.413 I-0.302 J-0.367
X-66.222 Y-145.252 Z0.361 I0.302 J0.367
X-66.826 Y-145.986 Z0.309 I-0.302 J-0.367
X-66.222 Y-145.252 Z0.257 I0.302 J0.367
X-66.826 Y-145.986 Z0.205 I-0.302 J-0.367
X-66.222 Y-145.252 Z0.153 I0.302 J0.367
X-66.826 Y-145.986 Z0.101 I-0.302 J-0.367
X-66.222 Y-145.252 Z0.049 I0.302 J0.367
X-66.826 Y-145.986 Z-0.003 I-0.302 J-0.367
X-66.222 Y-145.252 Z-0.056 I0.302 J0.367
X-66.826 Y-145.986 Z-0.108 I-0.302 J-0.367
X-66.222 Y-145.252 Z-0.16 I0.302 J0.367
X-66.826 Y-145.986 Z-0.212 I-0.302 J-0.367
X-66.222 Y-145.252 Z-0.264 I0.302 J0.367
X-66.826 Y-145.986 Z-0.316 I-0.302 J-0.367
X-66.222 Y-145.252 Z-0.368 I0.302 J0.367
X-66.826 Y-145.986 Z-0.42 I-0.302 J-0.367
X-66.222 Y-145.252 Z-0.472 I0.302 J0.367
X-66.826 Y-145.986 Z-0.525 I-0.302 J-0.367
X-66.222 Y-145.252 Z-0.577 I0.302 J0.367
X-66.826 Y-145.986 Z-0.629 I-0.302 J-0.367
X-66.222 Y-145.252 Z-0.681 I0.302 J0.367
X-66.826 Y-145.986 Z-0.733 I-0.302 J-0.367
X-66.222 Y-145.252 Z-0.785 I0.302 J0.367
X-66.826 Y-145.986 Z-0.837 I-0.302 J-0.367
X-66.222 Y-145.252 Z-0.889 I0.302 J0.367
X-66.826 Y-145.986 Z-0.941 I-0.302 J-0.367
X-66.222 Y-145.252 Z-0.994 I0.302 J0.367
X-66.826 Y-145.986 Z-1.046 I-0.302 J-0.367
X-66.222 Y-145.252 Z-1.098 I0.302 J0.367
X-66.826 Y-145.986 Z-1.15 I-0.302 J-0.367
X-66.222 Y-145.252 Z-1.202 I0.302 J0.367
X-66.826 Y-145.986 Z-1.254 I-0.302 J-0.367
X-66.222 Y-145.252 Z-1.306 I0.302 J0.367
X-66.826 Y-145.986 Z-1.358 I-0.302 J-0.367
X-66.222 Y-145.252 Z-1.41 I0.302 J0.367
X-66.826 Y-145.986 Z-1.463 I-0.302 J-0.367
X-66.049 Y-145.619 Z-1.5 I0.302 J0.367
X-66.999 Y-145.619 I-0.475 J0
X-66.049 Y-145.619 I0.475 J0
S8000
G1 X-66.023 Y-145.345 F1000
X-66.021 Y-145.195
X-66.091 Y-145.062
X-66.201 Y-144.96
X-66.334 Y-144.891
X-66.48 Y-144.856
X-66.63 Y-144.855
X-66.777 Y-144.885
X-66.915 Y-144.944
X-67.038 Y-145.03
X-67.142 Y-145.138
X-67.223 Y-145.264
X-67.279 Y-145.403
X-67.306 Y-145.551
X-67.305 Y-145.701
X-67.276 Y-145.848
X-67.219 Y-145.986
X-67.136 Y-146.112
X-67.031 Y-146.219
X-66.908 Y-146.305
X-66.771 Y-146.365
X-66.625 Y-146.398
X-66.475 Y-146.403
X-66.327 Y-146.38
X-66.186 Y-146.328
X-66.057 Y-146.251
X-65.945 Y-146.151
X-65.855 Y-146.031
X-65.789 Y-145.897
X-65.739 Y-145.755
X-65.703 Y-145.61
X-65.678 Y-145.462
X-65.677 Y-145.312
X-65.701 Y-145.164
X-65.753 Y-145.023
X-65.829 Y-144.894
X-65.928 Y-144.781
X-66.046 Y-144.687
X-66.176 Y-144.614
X-66.317 Y-144.563
X-66.465 Y-144.536
X-66.615 Y-144.53
X-66.764 Y-144.546
X-66.909 Y-144.585
X-67.047 Y-144.644
X-67.176 Y-144.721
X-67.292 Y-144.816
X-67.394 Y-144.926
X-67.481 Y-145.048
X-67.549 Y-145.181
X-67.599 Y-145.323
X-67.63 Y-145.469
X-67.641 Y-145.619
X-67.63 Y-145.769
X-67.601 Y-145.916
X-67.552 Y-146.058
X-67.484 Y-146.191
X-67.398 Y-146.314
X-67.298 Y-146.426
X-67.183 Y-146.522
X-67.055 Y-146.602
X-66.919 Y-146.664
X-66.776 Y-146.708
X-66.628 Y-146.732
X-66.478 Y-146.735
X-66.328 Y-146.72
X-66.183 Y-146.683
X-66.044 Y-146.628
X-65.912 Y-146.555
X-65.793 Y-146.464
X-65.687 Y-146.358
X-65.594 Y-146.24
X-65.516 Y-146.112
X-65.451 Y-145.977
X-65.399 Y-145.836
X-65.361 Y-145.691
X-65.337 Y-145.543
X-65.329 Y-145.393
X-65.341 Y-145.244
X-65.37 Y-145.097
X-65.416 Y-144.954
X-65.48 Y-144.819
X-65.562 Y-144.693
X-65.658 Y-144.578
X-65.767 Y-144.475
X-65.889 Y-144.387
X-66.021 Y-144.315
X-66.159 Y-144.258
X-66.304 Y-144.218
X-66.452 Y-144.195
X-66.602 Y-144.189
X-66.752 Y-144.199
X-66.899 Y-144.226
X-67.043 Y-144.269
X-67.181 Y-144.327
X-67.313 Y-144.4
X-67.436 Y-144.485
X-67.548 Y-144.584
X-67.65 Y-144.694
X-67.741 Y-144.814
X-67.818 Y-144.943
X-67.881 Y-145.079
X-67.93 Y-145.221
X-67.964 Y-145.367
X-67.983 Y-145.515
X-67.986 Y-145.665
X-67.973 Y-145.815
X-67.946 Y-145.962
X-67.904 Y-146.106
X-67.847 Y-146.245
X-67.776 Y-146.377
X-67.692 Y-146.501
X-67.595 Y-146.616
X-67.488 Y-146.721
X-67.37 Y-146.814
X-67.243 Y-146.894
X-67.109 Y-146.961
X-66.969 Y-147.014
X-66.824 Y-147.052
X-66.675 Y-147.075
X-66.526 Y-147.083
X-66.376 Y-147.076
X-66.228 Y-147.053
X-66.082 Y-147.014
X-65.942 Y-146.962
X-65.807 Y-146.896
X-65.68 Y-146.816
X-65.563 Y-146.723
X-65.455 Y-146.619
X-65.356 Y-146.506
X-65.269 Y-146.384
X-65.192 Y-146.255
X-65.126 Y-146.12
X-65.072 Y-145.98
