(VistaPick_Bohren 1_9mm)
(Bearbeiten)
(  Hersteller: ChinaCnc)
(  model: 3040T)
(  description: Generic 3-axis)
(T14  D=1.95 CR=0 - ZMIN=-3.2 - Schaftfraser)
G90 G94
G17
G21
G28 G91 Z0
G90

(2D-Kontur3)
T14
S8000 M3
G54
G0 X-53.354 Y-76.753
Z15
Z5
G1 Z2.5 F508
G3 X-53.357 Y-76.503 Z2.486 I-0.001 J0.125 F1016
X-53.354 Y-76.753 Z2.473 I0.001 J-0.125
X-53.357 Y-76.503 Z2.459 I-0.001 J0.125
X-53.354 Y-76.753 Z2.445 I0.001 J-0.125
X-53.357 Y-76.503 Z2.431 I-0.001 J0.125
X-53.354 Y-76.753 Z2.418 I0.001 J-0.125
X-53.357 Y-76.503 Z2.404 I-0.001 J0.125
X-53.354 Y-76.753 Z2.39 I0.001 J-0.125
X-53.357 Y-76.503 Z2.377 I-0.001 J0.125
X-53.354 Y-76.753 Z2.363 I0.001 J-0.125
X-53.357 Y-76.503 Z2.349 I-0.001 J0.125
X-53.354 Y-76.753 Z2.335 I0.001 J-0.125
X-53.357 Y-76.503 Z2.322 I-0.001 J0.125
X-53.354 Y-76.753 Z2.308 I0.001 J-0.125
X-53.357 Y-76.503 Z2.294 I-0.001 J0.125
X-53.354 Y-76.753 Z2.281 I0.001 J-0.125
X-53.357 Y-76.503 Z2.267 I-0.001 J0.125
X-53.354 Y-76.753 Z2.253 I0.001 J-0.125
X-53.357 Y-76.503 Z2.239 I-0.001 J0.125
X-53.354 Y-76.753 Z2.226 I0.001 J-0.125
X-53.357 Y-76.503 Z2.212 I-0.001 J0.125
X-53.354 Y-76.753 Z2.198 I0.001 J-0.125
X-53.357 Y-76.503 Z2.185 I-0.001 J0.125
X-53.354 Y-76.753 Z2.171 I0.001 J-0.125
X-53.357 Y-76.503 Z2.157 I-0.001 J0.125
X-53.354 Y-76.753 Z2.143 I0.001 J-0.125
X-53.357 Y-76.503 Z2.13 I-0.001 J0.125
X-53.354 Y-76.753 Z2.116 I0.001 J-0.125
X-53.357 Y-76.503 Z2.102 I-0.001 J0.125
X-53.354 Y-76.753 Z2.089 I0.001 J-0.125
X-53.357 Y-76.503 Z2.075 I-0.001 J0.125
X-53.354 Y-76.753 Z2.061 I0.001 J-0.125
X-53.357 Y-76.503 Z2.047 I-0.001 J0.125
X-53.354 Y-76.753 Z2.034 I0.001 J-0.125
X-53.357 Y-76.503 Z2.02 I-0.001 J0.125
X-53.354 Y-76.753 Z2.006 I0.001 J-0.125
X-53.357 Y-76.503 Z1.993 I-0.001 J0.125
X-53.354 Y-76.753 Z1.979 I0.001 J-0.125
X-53.357 Y-76.503 Z1.965 I-0.001 J0.125
X-53.354 Y-76.753 Z1.951 I0.001 J-0.125
X-53.357 Y-76.503 Z1.938 I-0.001 J0.125
X-53.354 Y-76.753 Z1.924 I0.001 J-0.125
X-53.357 Y-76.503 Z1.91 I-0.001 J0.125
X-53.354 Y-76.753 Z1.897 I0.001 J-0.125
X-53.357 Y-76.503 Z1.883 I-0.001 J0.125
X-53.354 Y-76.753 Z1.869 I0.001 J-0.125
X-53.357 Y-76.503 Z1.855 I-0.001 J0.125
X-53.354 Y-76.753 Z1.842 I0.001 J-0.125
X-53.357 Y-76.503 Z1.828 I-0.001 J0.125
X-53.354 Y-76.753 Z1.814 I0.001 J-0.125
X-53.357 Y-76.503 Z1.801 I-0.001 J0.125
X-53.354 Y-76.753 Z1.787 I0.001 J-0.125
X-53.357 Y-76.503 Z1.773 I-0.001 J0.125
X-53.354 Y-76.753 Z1.759 I0.001 J-0.125
X-53.357 Y-76.503 Z1.746 I-0.001 J0.125
X-53.354 Y-76.753 Z1.732 I0.001 J-0.125
X-53.357 Y-76.503 Z1.718 I-0.001 J0.125
X-53.354 Y-76.753 Z1.705 I0.001 J-0.125
X-53.357 Y-76.503 Z1.691 I-0.001 J0.125
X-53.354 Y-76.753 Z1.677 I0.001 J-0.125
X-53.357 Y-76.503 Z1.663 I-0.001 J0.125
X-53.354 Y-76.753 Z1.65 I0.001 J-0.125
X-53.357 Y-76.503 Z1.636 I-0.001 J0.125
X-53.354 Y-76.753 Z1.622 I0.001 J-0.125
X-53.357 Y-76.503 Z1.609 I-0.001 J0.125
X-53.354 Y-76.753 Z1.595 I0.001 J-0.125
X-53.357 Y-76.503 Z1.581 I-0.001 J0.125
X-53.354 Y-76.753 Z1.567 I0.001 J-0.125
X-53.357 Y-76.503 Z1.554 I-0.001 J0.125
X-53.354 Y-76.753 Z1.54 I0.001 J-0.125
X-53.357 Y-76.503 Z1.526 I-0.001 J0.125
X-53.354 Y-76.753 Z1.513 I0.001 J-0.125
X-53.357 Y-76.503 Z1.499 I-0.001 J0.125
X-53.354 Y-76.753 Z1.485 I0.001 J-0.125
X-53.357 Y-76.503 Z1.471 I-0.001 J0.125
X-53.354 Y-76.753 Z1.458 I0.001 J-0.125
X-53.357 Y-76.503 Z1.444 I-0.001 J0.125
X-53.354 Y-76.753 Z1.43 I0.001 J-0.125
X-53.357 Y-76.503 Z1.417 I-0.001 J0.125
X-53.354 Y-76.753 Z1.403 I0.001 J-0.125
X-53.357 Y-76.503 Z1.389 I-0.001 J0.125
X-53.354 Y-76.753 Z1.375 I0.001 J-0.125
X-53.357 Y-76.503 Z1.362 I-0.001 J0.125
X-53.354 Y-76.753 Z1.348 I0.001 J-0.125
X-53.357 Y-76.503 Z1.334 I-0.001 J0.125
X-53.354 Y-76.753 Z1.321 I0.001 J-0.125
X-53.357 Y-76.503 Z1.307 I-0.001 J0.125
X-53.354 Y-76.753 Z1.293 I0.001 J-0.125
X-53.357 Y-76.503 Z1.279 I-0.001 J0.125
X-53.354 Y-76.753 Z1.266 I0.001 J-0.125
X-53.357 Y-76.503 Z1.252 I-0.001 J0.125
X-53.354 Y-76.753 Z1.238 I0.001 J-0.125
X-53.357 Y-76.503 Z1.225 I-0.001 J0.125
X-53.354 Y-76.753 Z1.211 I0.001 J-0.125
X-53.357 Y-76.503 Z1.197 I-0.001 J0.125
X-53.354 Y-76.753 Z1.183 I0.001 J-0.125
X-53.357 Y-76.503 Z1.17 I-0.001 J0.125
X-53.354 Y-76.753 Z1.156 I0.001 J-0.125
X-53.357 Y-76.503 Z1.142 I-0.001 J0.125
X-53.354 Y-76.753 Z1.129 I0.001 J-0.125
X-53.357 Y-76.503 Z1.115 I-0.001 J0.125
X-53.354 Y-76.753 Z1.101 I0.001 J-0.125
X-53.357 Y-76.503 Z1.087 I-0.001 J0.125
X-53.354 Y-76.753 Z1.074 I0.001 J-0.125
X-53.357 Y-76.503 Z1.06 I-0.001 J0.125
X-53.354 Y-76.753 Z1.046 I0.001 J-0.125
X-53.357 Y-76.503 Z1.033 I-0.001 J0.125
X-53.354 Y-76.753 Z1.019 I0.001 J-0.125
X-53.357 Y-76.503 Z1.005 I-0.001 J0.125
X-53.354 Y-76.753 Z0.991 I0.001 J-0.125
X-53.357 Y-76.503 Z0.978 I-0.001 J0.125
X-53.354 Y-76.753 Z0.964 I0.001 J-0.125
X-53.357 Y-76.503 Z0.95 I-0.001 J0.125
X-53.354 Y-76.753 Z0.937 I0.001 J-0.125
X-53.357 Y-76.503 Z0.923 I-0.001 J0.125
X-53.354 Y-76.753 Z0.909 I0.001 J-0.125
X-53.357 Y-76.503 Z0.895 I-0.001 J0.125
X-53.354 Y-76.753 Z0.882 I0.001 J-0.125
X-53.357 Y-76.503 Z0.868 I-0.001 J0.125
X-53.354 Y-76.753 Z0.854 I0.001 J-0.125
X-53.357 Y-76.503 Z0.841 I-0.001 J0.125
X-53.354 Y-76.753 Z0.827 I0.001 J-0.125
X-53.357 Y-76.503 Z0.813 I-0.001 J0.125
X-53.354 Y-76.753 Z0.799 I0.001 J-0.125
X-53.357 Y-76.503 Z0.786 I-0.001 J0.125
X-53.354 Y-76.753 Z0.772 I0.001 J-0.125
X-53.357 Y-76.503 Z0.758 I-0.001 J0.125
X-53.354 Y-76.753 Z0.745 I0.001 J-0.125
X-53.357 Y-76.503 Z0.731 I-0.001 J0.125
X-53.354 Y-76.753 Z0.717 I0.001 J-0.125
X-53.357 Y-76.503 Z0.703 I-0.001 J0.125
X-53.354 Y-76.753 Z0.69 I0.001 J-0.125
X-53.357 Y-76.503 Z0.676 I-0.001 J0.125
X-53.354 Y-76.753 Z0.662 I0.001 J-0.125
X-53.357 Y-76.503 Z0.649 I-0.001 J0.125
X-53.354 Y-76.753 Z0.635 I0.001 J-0.125
X-53.357 Y-76.503 Z0.621 I-0.001 J0.125
X-53.354 Y-76.753 Z0.607 I0.001 J-0.125
X-53.357 Y-76.503 Z0.594 I-0.001 J0.125
X-53.354 Y-76.753 Z0.58 I0.001 J-0.125
X-53.357 Y-76.503 Z0.566 I-0.001 J0.125
X-53.354 Y-76.753 Z0.553 I0.001 J-0.125
X-53.357 Y-76.503 Z0.539 I-0.001 J0.125
X-53.354 Y-76.753 Z0.525 I0.001 J-0.125
X-53.357 Y-76.503 Z0.511 I-0.001 J0.125
X-53.354 Y-76.753 Z0.498 I0.001 J-0.125
X-53.357 Y-76.503 Z0.484 I-0.001 J0.125
X-53.354 Y-76.753 Z0.47 I0.001 J-0.125
X-53.357 Y-76.503 Z0.457 I-0.001 J0.125
X-53.354 Y-76.753 Z0.443 I0.001 J-0.125
X-53.357 Y-76.503 Z0.429 I-0.001 J0.125
X-53.354 Y-76.753 Z0.415 I0.001 J-0.125
X-53.357 Y-76.503 Z0.402 I-0.001 J0.125
X-53.354 Y-76.753 Z0.388 I0.001 J-0.125
X-53.357 Y-76.503 Z0.374 I-0.001 J0.125
X-53.354 Y-76.753 Z0.361 I0.001 J-0.125
X-53.357 Y-76.503 Z0.347 I-0.001 J0.125
X-53.354 Y-76.753 Z0.333 I0.001 J-0.125
X-53.357 Y-76.503 Z0.319 I-0.001 J0.125
X-53.354 Y-76.753 Z0.306 I0.001 J-0.125
X-53.357 Y-76.503 Z0.292 I-0.001 J0.125
X-53.354 Y-76.753 Z0.278 I0.001 J-0.125
X-53.357 Y-76.503 Z0.265 I-0.001 J0.125
X-53.354 Y-76.753 Z0.251 I0.001 J-0.125
X-53.357 Y-76.503 Z0.237 I-0.001 J0.125
X-53.354 Y-76.753 Z0.223 I0.001 J-0.125
X-53.357 Y-76.503 Z0.21 I-0.001 J0.125
X-53.354 Y-76.753 Z0.196 I0.001 J-0.125
X-53.357 Y-76.503 Z0.182 I-0.001 J0.125
X-53.354 Y-76.753 Z0.169 I0.001 J-0.125
X-53.357 Y-76.503 Z0.155 I-0.001 J0.125
X-53.354 Y-76.753 Z0.141 I0.001 J-0.125
X-53.357 Y-76.503 Z0.127 I-0.001 J0.125
X-53.354 Y-76.753 Z0.114 I0.001 J-0.125
X-53.357 Y-76.503 Z0.1 I-0.001 J0.125
X-53.354 Y-76.753 Z0.086 I0.001 J-0.125
X-53.357 Y-76.503 Z0.073 I-0.001 J0.125
X-53.354 Y-76.753 Z0.059 I0.001 J-0.125
X-53.357 Y-76.503 Z0.045 I-0.001 J0.125
X-53.354 Y-76.753 Z0.031 I0.001 J-0.125
X-53.357 Y-76.503 Z0.018 I-0.001 J0.125
X-53.354 Y-76.753 Z0.004 I0.001 J-0.125
X-53.357 Y-76.503 Z-0.01 I-0.001 J0.125
X-53.354 Y-76.753 Z-0.023 I0.001 J-0.125
X-53.357 Y-76.503 Z-0.037 I-0.001 J0.125
X-53.354 Y-76.753 Z-0.051 I0.001 J-0.125
X-53.357 Y-76.503 Z-0.065 I-0.001 J0.125
X-53.354 Y-76.753 Z-0.078 I0.001 J-0.125
X-53.357 Y-76.503 Z-0.092 I-0.001 J0.125
X-53.354 Y-76.753 Z-0.106 I0.001 J-0.125
X-53.357 Y-76.503 Z-0.119 I-0.001 J0.125
X-53.354 Y-76.753 Z-0.133 I0.001 J-0.125
X-53.357 Y-76.503 Z-0.147 I-0.001 J0.125
X-53.354 Y-76.753 Z-0.161 I0.001 J-0.125
X-53.357 Y-76.503 Z-0.174 I-0.001 J0.125
X-53.354 Y-76.753 Z-0.188 I0.001 J-0.125
X-53.357 Y-76.503 Z-0.202 I-0.001 J0.125
X-53.354 Y-76.753 Z-0.215 I0.001 J-0.125
X-53.357 Y-76.503 Z-0.229 I-0.001 J0.125
X-53.354 Y-76.753 Z-0.243 I0.001 J-0.125
X-53.357 Y-76.503 Z-0.257 I-0.001 J0.125
X-53.354 Y-76.753 Z-0.27 I0.001 J-0.125
X-53.357 Y-76.503 Z-0.284 I-0.001 J0.125
X-53.354 Y-76.753 Z-0.298 I0.001 J-0.125
X-53.357 Y-76.503 Z-0.311 I-0.001 J0.125
X-53.354 Y-76.753 Z-0.325 I0.001 J-0.125
X-53.357 Y-76.503 Z-0.339 I-0.001 J0.125
X-53.354 Y-76.753 Z-0.353 I0.001 J-0.125
X-53.357 Y-76.503 Z-0.366 I-0.001 J0.125
X-53.354 Y-76.753 Z-0.38 I0.001 J-0.125
X-53.357 Y-76.503 Z-0.394 I-0.001 J0.125
X-53.354 Y-76.753 Z-0.407 I0.001 J-0.125
X-53.357 Y-76.503 Z-0.421 I-0.001 J0.125
X-53.354 Y-76.753 Z-0.435 I0.001 J-0.125
X-53.357 Y-76.503 Z-0.449 I-0.001 J0.125
X-53.354 Y-76.753 Z-0.462 I0.001 J-0.125
X-53.357 Y-76.503 Z-0.476 I-0.001 J0.125
X-53.354 Y-76.753 Z-0.49 I0.001 J-0.125
X-53.267 Y-76.54 Z-0.5 I-0.001 J0.125
X-53.444 Y-76.717 I-0.088 J-0.088 F2540
X-53.267 Y-76.54 I0.088 J0.088
X-53.444 Y-76.717 Z-0.514 I-0.088 J-0.088 F1016
X-53.267 Y-76.54 Z-0.527 I0.088 J0.088
X-53.444 Y-76.717 Z-0.541 I-0.088 J-0.088
X-53.267 Y-76.54 Z-0.555 I0.088 J0.088
X-53.444 Y-76.717 Z-0.569 I-0.088 J-0.088
X-53.267 Y-76.54 Z-0.582 I0.088 J0.088
X-53.444 Y-76.717 Z-0.596 I-0.088 J-0.088
X-53.267 Y-76.54 Z-0.61 I0.088 J0.088
X-53.444 Y-76.717 Z-0.623 I-0.088 J-0.088
X-53.267 Y-76.54 Z-0.637 I0.088 J0.088
X-53.444 Y-76.717 Z-0.651 I-0.088 J-0.088
X-53.267 Y-76.54 Z-0.665 I0.088 J0.088
X-53.444 Y-76.717 Z-0.678 I-0.088 J-0.088
X-53.267 Y-76.54 Z-0.692 I0.088 J0.088
X-53.444 Y-76.717 Z-0.706 I-0.088 J-0.088
X-53.267 Y-76.54 Z-0.719 I0.088 J0.088
X-53.444 Y-76.717 Z-0.733 I-0.088 J-0.088
X-53.267 Y-76.54 Z-0.747 I0.088 J0.088
X-53.444 Y-76.717 Z-0.761 I-0.088 J-0.088
X-53.267 Y-76.54 Z-0.774 I0.088 J0.088
X-53.444 Y-76.717 Z-0.788 I-0.088 J-0.088
X-53.267 Y-76.54 Z-0.802 I0.088 J0.088
X-53.444 Y-76.717 Z-0.815 I-0.088 J-0.088
X-53.267 Y-76.54 Z-0.829 I0.088 J0.088
X-53.444 Y-76.717 Z-0.843 I-0.088 J-0.088
X-53.267 Y-76.54 Z-0.857 I0.088 J0.088
X-53.444 Y-76.717 Z-0.87 I-0.088 J-0.088
X-53.267 Y-76.54 Z-0.884 I0.088 J0.088
X-53.444 Y-76.717 Z-0.898 I-0.088 J-0.088
X-53.267 Y-76.54 Z-0.911 I0.088 J0.088
X-53.444 Y-76.717 Z-0.925 I-0.088 J-0.088
X-53.267 Y-76.54 Z-0.939 I0.088 J0.088
X-53.444 Y-76.717 Z-0.953 I-0.088 J-0.088
X-53.267 Y-76.54 Z-0.966 I0.088 J0.088
X-53.444 Y-76.717 Z-0.98 I-0.088 J-0.088
X-53.267 Y-76.54 Z-0.994 I0.088 J0.088
X-53.431 Y-76.529 Z-1 I-0.088 J-0.088
X-53.279 Y-76.728 I0.076 J-0.099 F2540
X-53.431 Y-76.529 I-0.076 J0.099
X-53.279 Y-76.728 Z-1.014 I0.076 J-0.099 F1016
X-53.431 Y-76.529 Z-1.027 I-0.076 J0.099
X-53.279 Y-76.728 Z-1.041 I0.076 J-0.099
X-53.431 Y-76.529 Z-1.055 I-0.076 J0.099
X-53.279 Y-76.728 Z-1.069 I0.076 J-0.099
X-53.431 Y-76.529 Z-1.082 I-0.076 J0.099
X-53.279 Y-76.728 Z-1.096 I0.076 J-0.099
X-53.431 Y-76.529 Z-1.11 I-0.076 J0.099
X-53.279 Y-76.728 Z-1.123 I0.076 J-0.099
X-53.431 Y-76.529 Z-1.137 I-0.076 J0.099
X-53.279 Y-76.728 Z-1.151 I0.076 J-0.099
X-53.431 Y-76.529 Z-1.165 I-0.076 J0.099
X-53.279 Y-76.728 Z-1.178 I0.076 J-0.099
X-53.431 Y-76.529 Z-1.192 I-0.076 J0.099
X-53.279 Y-76.728 Z-1.206 I0.076 J-0.099
X-53.431 Y-76.529 Z-1.219 I-0.076 J0.099
X-53.279 Y-76.728 Z-1.233 I0.076 J-0.099
X-53.431 Y-76.529 Z-1.247 I-0.076 J0.099
X-53.279 Y-76.728 Z-1.261 I0.076 J-0.099
X-53.431 Y-76.529 Z-1.274 I-0.076 J0.099
X-53.279 Y-76.728 Z-1.288 I0.076 J-0.099
X-53.431 Y-76.529 Z-1.302 I-0.076 J0.099
X-53.279 Y-76.728 Z-1.315 I0.076 J-0.099
X-53.431 Y-76.529 Z-1.329 I-0.076 J0.099
X-53.279 Y-76.728 Z-1.343 I0.076 J-0.099
X-53.431 Y-76.529 Z-1.357 I-0.076 J0.099
X-53.279 Y-76.728 Z-1.37 I0.076 J-0.099
X-53.431 Y-76.529 Z-1.384 I-0.076 J0.099
X-53.279 Y-76.728 Z-1.398 I0.076 J-0.099
X-53.431 Y-76.529 Z-1.411 I-0.076 J0.099
X-53.279 Y-76.728 Z-1.425 I0.076 J-0.099
X-53.431 Y-76.529 Z-1.439 I-0.076 J0.099
X-53.279 Y-76.728 Z-1.453 I0.076 J-0.099
X-53.431 Y-76.529 Z-1.466 I-0.076 J0.099
X-53.279 Y-76.728 Z-1.48 I0.076 J-0.099
X-53.431 Y-76.529 Z-1.494 I-0.076 J0.099
X-53.464 Y-76.691 Z-1.5 I0.076 J-0.099
X-53.247 Y-76.566 I0.109 J0.062 F2540
X-53.464 Y-76.691 I-0.109 J-0.062
X-53.247 Y-76.566 Z-1.514 I0.109 J0.062 F1016
X-53.464 Y-76.691 Z-1.527 I-0.109 J-0.062
X-53.247 Y-76.566 Z-1.541 I0.109 J0.062
X-53.464 Y-76.691 Z-1.555 I-0.109 J-0.062
X-53.247 Y-76.566 Z-1.569 I0.109 J0.062
X-53.464 Y-76.691 Z-1.582 I-0.109 J-0.062
X-53.247 Y-76.566 Z-1.596 I0.109 J0.062
X-53.464 Y-76.691 Z-1.61 I-0.109 J-0.062
X-53.247 Y-76.566 Z-1.623 I0.109 J0.062
X-53.464 Y-76.691 Z-1.637 I-0.109 J-0.062
X-53.247 Y-76.566 Z-1.651 I0.109 J0.062
X-53.464 Y-76.691 Z-1.665 I-0.109 J-0.062
X-53.247 Y-76.566 Z-1.678 I0.109 J0.062
X-53.464 Y-76.691 Z-1.692 I-0.109 J-0.062
X-53.247 Y-76.566 Z-1.706 I0.109 J0.062
X-53.464 Y-76.691 Z-1.719 I-0.109 J-0.062
X-53.247 Y-76.566 Z-1.733 I0.109 J0.062
X-53.464 Y-76.691 Z-1.747 I-0.109 J-0.062
X-53.247 Y-76.566 Z-1.761 I0.109 J0.062
X-53.464 Y-76.691 Z-1.774 I-0.109 J-0.062
X-53.247 Y-76.566 Z-1.788 I0.109 J0.062
X-53.464 Y-76.691 Z-1.802 I-0.109 J-0.062
X-53.247 Y-76.566 Z-1.815 I0.109 J0.062
X-53.464 Y-76.691 Z-1.829 I-0.109 J-0.062
X-53.247 Y-76.566 Z-1.843 I0.109 J0.062
X-53.464 Y-76.691 Z-1.857 I-0.109 J-0.062
X-53.247 Y-76.566 Z-1.87 I0.109 J0.062
X-53.464 Y-76.691 Z-1.884 I-0.109 J-0.062
X-53.247 Y-76.566 Z-1.898 I0.109 J0.062
X-53.464 Y-76.691 Z-1.911 I-0.109 J-0.062
X-53.247 Y-76.566 Z-1.925 I0.109 J0.062
X-53.464 Y-76.691 Z-1.939 I-0.109 J-0.062
X-53.247 Y-76.566 Z-1.953 I0.109 J0.062
X-53.464 Y-76.691 Z-1.966 I-0.109 J-0.062
X-53.247 Y-76.566 Z-1.98 I0.109 J0.062
X-53.464 Y-76.691 Z-1.994 I-0.109 J-0.062
X-53.308 Y-76.744 Z-2 I0.109 J0.062
X-53.402 Y-76.513 I-0.047 J0.116 F2540
X-53.308 Y-76.744 I0.047 J-0.116
X-53.402 Y-76.513 Z-2.014 I-0.047 J0.116 F1016
X-53.308 Y-76.744 Z-2.027 I0.047 J-0.116
X-53.402 Y-76.513 Z-2.041 I-0.047 J0.116
X-53.308 Y-76.744 Z-2.055 I0.047 J-0.116
X-53.402 Y-76.513 Z-2.069 I-0.047 J0.116
X-53.308 Y-76.744 Z-2.082 I0.047 J-0.116
X-53.402 Y-76.513 Z-2.096 I-0.047 J0.116
X-53.308 Y-76.744 Z-2.11 I0.047 J-0.116
X-53.402 Y-76.513 Z-2.123 I-0.047 J0.116
X-53.308 Y-76.744 Z-2.137 I0.047 J-0.116
X-53.402 Y-76.513 Z-2.151 I-0.047 J0.116
X-53.308 Y-76.744 Z-2.165 I0.047 J-0.116
X-53.402 Y-76.513 Z-2.178 I-0.047 J0.116
X-53.308 Y-76.744 Z-2.192 I0.047 J-0.116
X-53.402 Y-76.513 Z-2.206 I-0.047 J0.116
X-53.308 Y-76.744 Z-2.219 I0.047 J-0.116
X-53.402 Y-76.513 Z-2.233 I-0.047 J0.116
X-53.308 Y-76.744 Z-2.247 I0.047 J-0.116
X-53.402 Y-76.513 Z-2.261 I-0.047 J0.116
X-53.308 Y-76.744 Z-2.274 I0.047 J-0.116
X-53.402 Y-76.513 Z-2.288 I-0.047 J0.116
X-53.308 Y-76.744 Z-2.302 I0.047 J-0.116
X-53.402 Y-76.513 Z-2.315 I-0.047 J0.116
X-53.308 Y-76.744 Z-2.329 I0.047 J-0.116
X-53.402 Y-76.513 Z-2.343 I-0.047 J0.116
X-53.308 Y-76.744 Z-2.357 I0.047 J-0.116
X-53.402 Y-76.513 Z-2.37 I-0.047 J0.116
X-53.308 Y-76.744 Z-2.384 I0.047 J-0.116
X-53.402 Y-76.513 Z-2.398 I-0.047 J0.116
X-53.308 Y-76.744 Z-2.411 I0.047 J-0.116
X-53.402 Y-76.513 Z-2.425 I-0.047 J0.116
X-53.308 Y-76.744 Z-2.439 I0.047 J-0.116
X-53.402 Y-76.513 Z-2.453 I-0.047 J0.116
X-53.308 Y-76.744 Z-2.466 I0.047 J-0.116
X-53.402 Y-76.513 Z-2.48 I-0.047 J0.116
X-53.308 Y-76.744 Z-2.494 I0.047 J-0.116
X-53.234 Y-76.597 Z-2.5 I-0.047 J0.116
X-53.476 Y-76.66 I-0.121 J-0.031 F2540
X-53.234 Y-76.597 I0.121 J0.031
X-53.476 Y-76.66 Z-2.514 I-0.121 J-0.031 F1016
X-53.234 Y-76.597 Z-2.527 I0.121 J0.031
X-53.476 Y-76.66 Z-2.541 I-0.121 J-0.031
X-53.234 Y-76.597 Z-2.555 I0.121 J0.031
X-53.476 Y-76.66 Z-2.569 I-0.121 J-0.031
X-53.234 Y-76.597 Z-2.582 I0.121 J0.031
X-53.476 Y-76.66 Z-2.596 I-0.121 J-0.031
X-53.234 Y-76.597 Z-2.61 I0.121 J0.031
X-53.476 Y-76.66 Z-2.623 I-0.121 J-0.031
X-53.234 Y-76.597 Z-2.637 I0.121 J0.031
X-53.476 Y-76.66 Z-2.651 I-0.121 J-0.031
X-53.234 Y-76.597 Z-2.665 I0.121 J0.031
X-53.476 Y-76.66 Z-2.678 I-0.121 J-0.031
X-53.234 Y-76.597 Z-2.692 I0.121 J0.031
X-53.476 Y-76.66 Z-2.706 I-0.121 J-0.031
X-53.234 Y-76.597 Z-2.719 I0.121 J0.031
X-53.476 Y-76.66 Z-2.733 I-0.121 J-0.031
X-53.234 Y-76.597 Z-2.747 I0.121 J0.031
X-53.476 Y-76.66 Z-2.761 I-0.121 J-0.031
X-53.234 Y-76.597 Z-2.774 I0.121 J0.031
X-53.476 Y-76.66 Z-2.788 I-0.121 J-0.031
X-53.234 Y-76.597 Z-2.802 I0.121 J0.031
X-53.476 Y-76.66 Z-2.815 I-0.121 J-0.031
X-53.234 Y-76.597 Z-2.829 I0.121 J0.031
X-53.476 Y-76.66 Z-2.843 I-0.121 J-0.031
X-53.234 Y-76.597 Z-2.857 I0.121 J0.031
X-53.476 Y-76.66 Z-2.87 I-0.121 J-0.031
X-53.234 Y-76.597 Z-2.884 I0.121 J0.031
X-53.476 Y-76.66 Z-2.898 I-0.121 J-0.031
X-53.234 Y-76.597 Z-2.911 I0.121 J0.031
X-53.476 Y-76.66 Z-2.925 I-0.121 J-0.031
X-53.234 Y-76.597 Z-2.939 I0.121 J0.031
X-53.476 Y-76.66 Z-2.953 I-0.121 J-0.031
X-53.234 Y-76.597 Z-2.966 I0.121 J0.031
X-53.476 Y-76.66 Z-2.98 I-0.121 J-0.031
X-53.234 Y-76.597 Z-2.994 I0.121 J0.031
X-53.37 Y-76.504 Z-3 I-0.121 J-0.031
X-53.34 Y-76.753 I0.015 J-0.124 F2540
X-53.37 Y-76.504 I-0.015 J0.124
X-53.34 Y-76.753 Z-3.014 I0.015 J-0.124 F1016
X-53.37 Y-76.504 Z-3.027 I-0.015 J0.124
X-53.34 Y-76.753 Z-3.041 I0.015 J-0.124
X-53.37 Y-76.504 Z-3.055 I-0.015 J0.124
X-53.34 Y-76.753 Z-3.069 I0.015 J-0.124
X-53.37 Y-76.504 Z-3.082 I-0.015 J0.124
X-53.34 Y-76.753 Z-3.096 I0.015 J-0.124
X-53.37 Y-76.504 Z-3.11 I-0.015 J0.124
X-53.34 Y-76.753 Z-3.123 I0.015 J-0.124
X-53.37 Y-76.504 Z-3.137 I-0.015 J0.124
X-53.34 Y-76.753 Z-3.151 I0.015 J-0.124
X-53.37 Y-76.504 Z-3.165 I-0.015 J0.124
X-53.34 Y-76.753 Z-3.178 I0.015 J-0.124
X-53.37 Y-76.504 Z-3.192 I-0.015 J0.124
X-53.471 Y-76.675 Z-3.2 I0.015 J-0.124
X-53.239 Y-76.582 I0.116 J0.047 F2540
X-53.471 Y-76.675 I-0.116 J-0.047
G0 Z5
X-67.375 Y-76.651
G1 Z2.5 F508
X-67.374 Y-76.607 Z2.498 F1016
X-67.39 Y-76.565 Z2.497
X-67.419 Y-76.531 Z2.495
X-67.458 Y-76.51 Z2.494
X-67.502 Y-76.504 Z2.492
X-67.546 Y-76.513 Z2.491
X-67.583 Y-76.537 Z2.489
X-67.61 Y-76.573 Z2.487
X-67.622 Y-76.616 Z2.486
X-67.618 Y-76.66 Z2.484
X-67.599 Y-76.701 Z2.483
X-67.568 Y-76.732 Z2.481
X-67.527 Y-76.75 Z2.48
X-67.483 Y-76.753 Z2.478
X-67.44 Y-76.739 Z2.477
X-67.405 Y-76.712 Z2.475
X-67.381 Y-76.674 Z2.473
X-67.373 Y-76.631 Z2.472
X-67.38 Y-76.587 Z2.47
X-67.402 Y-76.548 Z2.469
X-67.436 Y-76.52 Z2.467
X-67.478 Y-76.505 Z2.466
X-67.523 Y-76.506 Z2.464
X-67.564 Y-76.523 Z2.462
X-67.597 Y-76.553 Z2.461
X-67.617 Y-76.592 Z2.459
X-67.622 Y-76.637 Z2.458
X-67.611 Y-76.68 Z2.456
X-67.586 Y-76.716 Z2.455
X-67.55 Y-76.742 Z2.453
X-67.507 Y-76.753 Z2.452
X-67.462 Y-76.748 Z2.45
X-67.423 Y-76.729 Z2.448
X-67.392 Y-76.696 Z2.447
X-67.375 Y-76.655 Z2.445
X-67.374 Y-76.61 Z2.444
X-67.388 Y-76.568 Z2.442
X-67.416 Y-76.534 Z2.441
X-67.455 Y-76.511 Z2.439
X-67.499 Y-76.504 Z2.437
X-67.542 Y-76.512 Z2.436
X-67.58 Y-76.535 Z2.434
X-67.608 Y-76.57 Z2.433
X-67.621 Y-76.612 Z2.431
X-67.619 Y-76.657 Z2.43
X-67.602 Y-76.698 Z2.428
X-67.571 Y-76.73 Z2.427
X-67.53 Y-76.749 Z2.425
X-67.486 Y-76.753 Z2.423
X-67.443 Y-76.741 Z2.422
X-67.407 Y-76.715 Z2.42
X-67.383 Y-76.678 Z2.419
X-67.373 Y-76.634 Z2.417
X-67.379 Y-76.59 Z2.416
X-67.4 Y-76.551 Z2.414
X-67.433 Y-76.522 Z2.412
X-67.475 Y-76.506 Z2.411
X-67.519 Y-76.505 Z2.409
X-67.561 Y-76.521 Z2.408
X-67.595 Y-76.55 Z2.406
X-67.616 Y-76.589 Z2.405
X-67.622 Y-76.633 Z2.403
X-67.613 Y-76.676 Z2.402
X-67.589 Y-76.714 Z2.4
X-67.553 Y-76.74 Z2.398
X-67.51 Y-76.753 Z2.397
X-67.466 Y-76.749 Z2.395
X-67.426 Y-76.731 Z2.394
X-67.394 Y-76.699 Z2.392
X-67.376 Y-76.658 Z2.391
X-67.373 Y-76.614 Z2.389
X-67.386 Y-76.571 Z2.387
X-67.414 Y-76.536 Z2.386
X-67.451 Y-76.512 Z2.384
X-67.495 Y-76.504 Z2.383
X-67.539 Y-76.511 Z2.381
X-67.578 Y-76.533 Z2.38
X-67.606 Y-76.567 Z2.378
X-67.621 Y-76.609 Z2.376
X-67.62 Y-76.653 Z2.375
X-67.603 Y-76.695 Z2.373
X-67.574 Y-76.728 Z2.372
X-67.534 Y-76.748 Z2.37
X-67.49 Y-76.753 Z2.369
X-67.447 Y-76.743 Z2.367
X-67.41 Y-76.717 Z2.366
X-67.384 Y-76.681 Z2.364
X-67.373 Y-76.638 Z2.362
X-67.377 Y-76.594 Z2.361
X-67.397 Y-76.554 Z2.359
X-67.43 Y-76.523 Z2.358
X-67.471 Y-76.506 Z2.356
X-67.515 Y-76.505 Z2.355
X-67.558 Y-76.519 Z2.353
X-67.592 Y-76.547 Z2.351
X-67.615 Y-76.585 Z2.35
X-67.622 Y-76.629 Z2.348
X-67.614 Y-76.673 Z2.347
X-67.591 Y-76.711 Z2.345
X-67.556 Y-76.739 Z2.344
X-67.514 Y-76.752 Z2.342
X-67.469 Y-76.75 Z2.341
X-67.428 Y-76.733 Z2.339
X-67.396 Y-76.702 Z2.337
X-67.377 Y-76.662 Z2.336
X-67.373 Y-76.617 Z2.334
X-67.385 Y-76.574 Z2.333
X-67.411 Y-76.538 Z2.331
X-67.448 Y-76.514 Z2.33
X-67.491 Y-76.504 Z2.328
X-67.536 Y-76.509 Z2.326
X-67.575 Y-76.53 Z2.325
X-67.604 Y-76.564 Z2.323
X-67.62 Y-76.605 Z2.322
X-67.621 Y-76.65 Z2.32
X-67.605 Y-76.692 Z2.319
X-67.576 Y-76.725 Z2.317
X-67.537 Y-76.747 Z2.316
X-67.493 Y-76.753 Z2.314
X-67.45 Y-76.744 Z2.312
X-67.412 Y-76.72 Z2.311
X-67.386 Y-76.684 Z2.309
X-67.373 Y-76.642 Z2.308
X-67.377 Y-76.597 Z2.306
X-67.395 Y-76.557 Z2.305
X-67.427 Y-76.525 Z2.303
X-67.467 Y-76.507 Z2.301
X-67.512 Y-76.504 Z2.3
X-67.554 Y-76.517 Z2.298
X-67.59 Y-76.544 Z2.297
X-67.614 Y-76.582 Z2.295
X-67.622 Y-76.626 Z2.294
X-67.615 Y-76.67 Z2.292
X-67.594 Y-76.708 Z2.291
X-67.559 Y-76.737 Z2.289
X-67.517 Y-76.752 Z2.287
X-67.473 Y-76.751 Z2.286
X-67.432 Y-76.735 Z2.284
X-67.399 Y-76.705 Z2.283
X-67.378 Y-76.665 Z2.281
X-67.373 Y-76.621 Z2.28
X-67.383 Y-76.578 Z2.278
X-67.408 Y-76.541 Z2.276
X-67.445 Y-76.515 Z2.275
X-67.488 Y-76.504 Z2.273
X-67.532 Y-76.508 Z2.272
X-67.572 Y-76.528 Z2.27
X-67.602 Y-76.561 Z2.269
X-67.62 Y-76.602 Z2.267
X-67.621 Y-76.646 Z2.266
X-67.607 Y-76.688 Z2.264
X-67.579 Y-76.723 Z2.262
X-67.541 Y-76.746 Z2.261
X-67.497 Y-76.753 Z2.259
X-67.453 Y-76.745 Z2.258
X-67.415 Y-76.722 Z2.256
X-67.387 Y-76.688 Z2.255
X-67.374 Y-76.645 Z2.253
X-67.376 Y-76.601 Z2.251
X-67.393 Y-76.56 Z2.25
X-67.424 Y-76.528 Z2.248
X-67.464 Y-76.508 Z2.247
X-67.508 Y-76.504 Z2.245
X-67.551 Y-76.516 Z2.244
X-67.587 Y-76.542 Z2.242
X-67.612 Y-76.579 Z2.24
X-67.622 Y-76.622 Z2.239
X-67.617 Y-76.666 Z2.237
X-67.596 Y-76.706 Z2.236
X-67.563 Y-76.735 Z2.234
X-67.521 Y-76.751 Z2.233
X-67.477 Y-76.752 Z2.231
X-67.435 Y-76.737 Z2.23
X-67.401 Y-76.708 Z2.228
X-67.379 Y-76.669 Z2.226
X-67.373 Y-76.625 Z2.225
X-67.382 Y-76.581 Z2.223
X-67.406 Y-76.544 Z2.222
X-67.441 Y-76.517 Z2.22
X-67.484 Y-76.504 Z2.219
X-67.529 Y-76.507 Z2.217
X-67.569 Y-76.526 Z2.215
X-67.6 Y-76.558 Z2.214
X-67.619 Y-76.598 Z2.212
X-67.622 Y-76.643 Z2.211
X-67.609 Y-76.685 Z2.209
X-67.582 Y-76.721 Z2.208
X-67.544 Y-76.744 Z2.206
X-67.501 Y-76.753 Z2.205
X-67.457 Y-76.747 Z2.203
X-67.418 Y-76.725 Z2.201
X-67.389 Y-76.691 Z2.2
X-67.374 Y-76.649 Z2.198
X-67.375 Y-76.604 Z2.197
X-67.391 Y-76.563 Z2.195
X-67.421 Y-76.53 Z2.194
X-67.46 Y-76.509 Z2.192
X-67.505 Y-76.504 Z2.19
X-67.548 Y-76.514 Z2.189
X-67.585 Y-76.539 Z2.187
X-67.611 Y-76.575 Z2.186
X-67.622 Y-76.618 Z2.184
X-67.618 Y-76.663 Z2.183
X-67.598 Y-76.703 Z2.181
X-67.566 Y-76.733 Z2.18
X-67.525 Y-76.751 Z2.178
X-67.48 Y-76.752 Z2.176
X-67.438 Y-76.738 Z2.175
X-67.403 Y-76.71 Z2.173
X-67.38 Y-76.672 Z2.172
X-67.373 Y-76.628 Z2.17
X-67.381 Y-76.584 Z2.169
X-67.403 Y-76.546 Z2.167
X-67.438 Y-76.518 Z2.165
X-67.481 Y-76.505 Z2.164
X-67.525 Y-76.507 Z2.162
X-67.566 Y-76.524 Z2.161
X-67.598 Y-76.555 Z2.159
X-67.618 Y-76.595 Z2.158
X-67.622 Y-76.639 Z2.156
X-67.61 Y-76.682 Z2.155
X-67.585 Y-76.718 Z2.153
X-67.548 Y-76.743 Z2.151
X-67.504 Y-76.753 Z2.15
X-67.46 Y-76.748 Z2.148
X-67.421 Y-76.727 Z2.147
X-67.391 Y-76.694 Z2.145
X-67.375 Y-76.652 Z2.144
X-67.374 Y-76.608 Z2.142
X-67.389 Y-76.566 Z2.14
X-67.418 Y-76.532 Z2.139
X-67.457 Y-76.51 Z2.137
X-67.501 Y-76.504 Z2.136
X-67.545 Y-76.513 Z2.134
X-67.582 Y-76.537 Z2.133
X-67.609 Y-76.572 Z2.131
X-67.622 Y-76.615 Z2.129
X-67.619 Y-76.659 Z2.128
X-67.6 Y-76.7 Z2.126
X-67.569 Y-76.731 Z2.125
X-67.528 Y-76.75 Z2.123
X-67.484 Y-76.753 Z2.122
X-67.441 Y-76.74 Z2.12
X-67.406 Y-76.713 Z2.119
X-67.382 Y-76.675 Z2.117
X-67.373 Y-76.632 Z2.115
X-67.379 Y-76.588 Z2.114
X-67.401 Y-76.549 Z2.112
X-67.435 Y-76.52 Z2.111
X-67.477 Y-76.505 Z2.109
X-67.521 Y-76.506 Z2.108
X-67.563 Y-76.522 Z2.106
X-67.596 Y-76.552 Z2.104
X-67.617 Y-76.591 Z2.103
X-67.622 Y-76.635 Z2.101
X-67.612 Y-76.679 Z2.1
X-67.587 Y-76.716 Z2.098
X-67.551 Y-76.742 Z2.097
X-67.508 Y-76.753 Z2.095
X-67.464 Y-76.749 Z2.094
X-67.424 Y-76.729 Z2.092
X-67.393 Y-76.697 Z2.09
X-67.376 Y-76.656 Z2.089
X-67.374 Y-76.611 Z2.087
X-67.388 Y-76.569 Z2.086
X-67.415 Y-76.534 Z2.084
X-67.454 Y-76.511 Z2.083
X-67.497 Y-76.504 Z2.081
X-67.541 Y-76.511 Z2.079
X-67.58 Y-76.534 Z2.078
X-67.607 Y-76.569 Z2.076
X-67.621 Y-76.611 Z2.075
X-67.619 Y-76.656 Z2.073
X-67.602 Y-76.697 Z2.072
X-67.572 Y-76.729 Z2.07
X-67.532 Y-76.749 Z2.069
X-67.487 Y-76.753 Z2.067
X-67.444 Y-76.742 Z2.065
X-67.408 Y-76.716 Z2.064
X-67.383 Y-76.679 Z2.062
X-67.373 Y-76.636 Z2.061
X-67.378 Y-76.591 Z2.059
X-67.399 Y-76.552 Z2.058
X-67.432 Y-76.522 Z2.056
X-67.473 Y-76.506 Z2.054
X-67.518 Y-76.505 Z2.053
X-67.56 Y-76.52 Z2.051
X-67.594 Y-76.549 Z2.05
X-67.616 Y-76.588 Z2.048
X-67.622 Y-76.632 Z2.047
X-67.613 Y-76.675 Z2.045
X-67.59 Y-76.713 Z2.044
X-67.554 Y-76.74 Z2.042
X-67.511 Y-76.753 Z2.04
X-67.467 Y-76.75 Z2.039
X-67.426 Y-76.731 Z2.037
X-67.395 Y-76.7 Z2.036
X-67.376 Y-76.659 Z2.034
X-67.373 Y-76.615 Z2.033
X-67.386 Y-76.572 Z2.031
X-67.413 Y-76.537 Z2.029
X-67.45 Y-76.513 Z2.028
X-67.494 Y-76.504 Z2.026
X-67.538 Y-76.51 Z2.025
X-67.577 Y-76.532 Z2.023
X-67.606 Y-76.566 Z2.022
X-67.621 Y-76.608 Z2.02
X-67.62 Y-76.652 Z2.018
X-67.604 Y-76.694 Z2.017
X-67.574 Y-76.727 Z2.015
X-67.535 Y-76.748 Z2.014
X-67.491 Y-76.753 Z2.012
X-67.448 Y-76.743 Z2.011
X-67.411 Y-76.718 Z2.009
X-67.385 Y-76.682 Z2.008
X-67.373 Y-76.639 Z2.006
X-67.377 Y-76.595 Z2.004
X-67.397 Y-76.555 Z2.003
X-67.429 Y-76.524 Z2.001
X-67.47 Y-76.507 Z2
X-67.514 Y-76.505 Z1.998
X-67.557 Y-76.518 Z1.997
X-67.592 Y-76.546 Z1.995
X-67.614 Y-76.584 Z1.993
X-67.622 Y-76.628 Z1.992
X-67.615 Y-76.672 Z1.99
X-67.592 Y-76.71 Z1.989
X-67.557 Y-76.738 Z1.987
X-67.515 Y-76.752 Z1.986
X-67.471 Y-76.751 Z1.984
X-67.429 Y-76.733 Z1.983
X-67.397 Y-76.703 Z1.981
X-67.377 Y-76.663 Z1.979
X-67.373 Y-76.619 Z1.978
X-67.384 Y-76.576 Z1.976
X-67.41 Y-76.539 Z1.975
X-67.447 Y-76.514 Z1.973
X-67.49 Y-76.504 Z1.972
X-67.534 Y-76.509 Z1.97
X-67.574 Y-76.53 Z1.968
X-67.604 Y-76.563 Z1.967
X-67.62 Y-76.604 Z1.965
X-67.621 Y-76.649 Z1.964
X-67.606 Y-76.691 Z1.962
X-67.577 Y-76.725 Z1.961
X-67.539 Y-76.747 Z1.959
X-67.495 Y-76.753 Z1.958
X-67.451 Y-76.744 Z1.956
X-67.413 Y-76.721 Z1.954
X-67.386 Y-76.685 Z1.953
X-67.373 Y-76.643 Z1.951
X-67.376 Y-76.598 Z1.95
X-67.395 Y-76.558 Z1.948
X-67.426 Y-76.526 Z1.947
X-67.466 Y-76.507 Z1.945
X-67.511 Y-76.504 Z1.943
X-67.553 Y-76.517 Z1.942
X-67.589 Y-76.543 Z1.94
X-67.613 Y-76.581 Z1.939
X-67.622 Y-76.625 Z1.937
X-67.616 Y-76.669 Z1.936
X-67.594 Y-76.708 Z1.934
X-67.56 Y-76.736 Z1.933
X-67.519 Y-76.752 Z1.931
X-67.474 Y-76.751 Z1.929
X-67.433 Y-76.735 Z1.928
X-67.399 Y-76.706 Z1.926
X-67.378 Y-76.666 Z1.925
X-67.373 Y-76.622 Z1.923
X-67.383 Y-76.579 Z1.922
X-67.407 Y-76.542 Z1.92
X-67.444 Y-76.516 Z1.918
X-67.487 Y-76.504 Z1.917
X-67.531 Y-76.508 Z1.915
X-67.571 Y-76.527 Z1.914
X-67.602 Y-76.56 Z1.912
X-67.619 Y-76.601 Z1.911
X-67.621 Y-76.645 Z1.909
X-67.608 Y-76.687 Z1.908
X-67.58 Y-76.722 Z1.906
X-67.542 Y-76.745 Z1.904
X-67.498 Y-76.753 Z1.903
X-67.454 Y-76.746 Z1.901
X-67.416 Y-76.723 Z1.9
X-67.388 Y-76.689 Z1.898
X-67.374 Y-76.646 Z1.897
X-67.375 Y-76.602 Z1.895
X-67.392 Y-76.561 Z1.893
X-67.423 Y-76.528 Z1.892
X-67.463 Y-76.508 Z1.89
X-67.507 Y-76.504 Z1.889
X-67.55 Y-76.515 Z1.887
X-67.587 Y-76.541 Z1.886
X-67.612 Y-76.578 Z1.884
X-67.622 Y-76.621 Z1.882
X-67.617 Y-76.665 Z1.881
X-67.597 Y-76.705 Z1.879
X-67.564 Y-76.735 Z1.878
X-67.522 Y-76.751 Z1.876
X-67.478 Y-76.752 Z1.875
X-67.436 Y-76.737 Z1.873
X-67.402 Y-76.709 Z1.872
X-67.38 Y-76.67 Z1.87
X-67.373 Y-76.626 Z1.868
X-67.381 Y-76.582 Z1.867
X-67.405 Y-76.544 Z1.865
X-67.44 Y-76.517 Z1.864
X-67.483 Y-76.504 Z1.862
X-67.527 Y-76.507 Z1.861
X-67.568 Y-76.525 Z1.859
X-67.6 Y-76.557 Z1.857
X-67.618 Y-76.597 Z1.856
X-67.622 Y-76.641 Z1.854
X-67.609 Y-76.684 Z1.853
X-67.583 Y-76.72 Z1.851
X-67.545 Y-76.744 Z1.85
X-67.502 Y-76.753 Z1.848
X-67.458 Y-76.747 Z1.847
X-67.419 Y-76.726 Z1.845
X-67.39 Y-76.692 Z1.843
X-67.374 Y-76.65 Z1.842
X-67.375 Y-76.605 Z1.84
X-67.391 Y-76.564 Z1.839
X-67.42 Y-76.53 Z1.837
X-67.459 Y-76.509 Z1.836
X-67.503 Y-76.504 Z1.834
X-67.547 Y-76.514 Z1.832
X-67.584 Y-76.538 Z1.831
X-67.61 Y-76.574 Z1.829
X-67.622 Y-76.617 Z1.828
X-67.618 Y-76.662 Z1.826
X-67.599 Y-76.702 Z1.825
X-67.567 Y-76.733 Z1.823
X-67.526 Y-76.75 Z1.822
X-67.481 Y-76.752 Z1.82
X-67.439 Y-76.739 Z1.818
X-67.404 Y-76.711 Z1.817
X-67.381 Y-76.673 Z1.815
X-67.373 Y-76.629 Z1.814
X-67.38 Y-76.586 Z1.812
X-67.403 Y-76.547 Z1.811
X-67.437 Y-76.519 Z1.809
X-67.479 Y-76.505 Z1.807
X-67.524 Y-76.506 Z1.806
X-67.565 Y-76.523 Z1.804
X-67.598 Y-76.554 Z1.803
X-67.617 Y-76.594 Z1.801
X-67.622 Y-76.638 Z1.8
X-67.611 Y-76.681 Z1.798
X-67.585 Y-76.717 Z1.797
X-67.549 Y-76.743 Z1.795
X-67.505 Y-76.753 Z1.793
X-67.461 Y-76.748 Z1.792
X-67.422 Y-76.728 Z1.79
X-67.392 Y-76.695 Z1.789
X-67.375 Y-76.653 Z1.787
X-67.374 Y-76.609 Z1.786
X-67.389 Y-76.567 Z1.784
X-67.417 Y-76.533 Z1.782
X-67.456 Y-76.511 Z1.781
X-67.5 Y-76.504 Z1.779
X-67.544 Y-76.512 Z1.778
X-67.581 Y-76.536 Z1.776
X-67.609 Y-76.571 Z1.775
X-67.622 Y-76.614 Z1.773
X-67.619 Y-76.658 Z1.771
X-67.601 Y-76.699 Z1.77
X-67.57 Y-76.731 Z1.768
X-67.529 Y-76.749 Z1.767
X-67.485 Y-76.753 Z1.765
X-67.442 Y-76.741 Z1.764
X-67.406 Y-76.714 Z1.762
X-67.382 Y-76.677 Z1.761
X-67.373 Y-76.633 Z1.759
X-67.379 Y-76.589 Z1.757
X-67.4 Y-76.55 Z1.756
X-67.434 Y-76.521 Z1.754
X-67.476 Y-76.505 Z1.753
X-67.52 Y-76.506 Z1.751
X-67.562 Y-76.521 Z1.75
X-67.595 Y-76.551 Z1.748
X-67.616 Y-76.59 Z1.746
X-67.622 Y-76.634 Z1.745
X-67.612 Y-76.678 Z1.743
X-67.588 Y-76.715 Z1.742
X-67.552 Y-76.741 Z1.74
X-67.509 Y-76.753 Z1.739
X-67.465 Y-76.749 Z1.737
X-67.424 Y-76.73 Z1.736
X-67.394 Y-76.698 Z1.734
X-67.376 Y-76.657 Z1.732
X-67.374 Y-76.613 Z1.731
X-67.387 Y-76.57 Z1.729
X-67.414 Y-76.535 Z1.728
X-67.453 Y-76.512 Z1.726
X-67.496 Y-76.504 Z1.725
X-67.54 Y-76.511 Z1.723
X-67.579 Y-76.533 Z1.721
X-67.607 Y-76.568 Z1.72
X-67.621 Y-76.61 Z1.718
X-67.62 Y-76.655 Z1.717
X-67.603 Y-76.696 Z1.715
X-67.573 Y-76.728 Z1.714
X-67.533 Y-76.748 Z1.712
X-67.488 Y-76.753 Z1.711
X-67.445 Y-76.742 Z1.709
X-67.409 Y-76.717 Z1.707
X-67.384 Y-76.68 Z1.706
X-67.373 Y-76.637 Z1.704
X-67.378 Y-76.592 Z1.703
X-67.398 Y-76.553 Z1.701
X-67.431 Y-76.523 Z1.7
X-67.472 Y-76.506 Z1.698
X-67.517 Y-76.505 Z1.696
X-67.559 Y-76.52 Z1.695
X-67.593 Y-76.548 Z1.693
X-67.615 Y-76.587 Z1.692
X-67.622 Y-76.631 Z1.69
X-67.614 Y-76.674 Z1.689
X-67.59 Y-76.712 Z1.687
X-67.555 Y-76.739 Z1.686
X-67.513 Y-76.753 Z1.684
X-67.468 Y-76.75 Z1.682
X-67.427 Y-76.732 Z1.681
X-67.396 Y-76.701 Z1.679
X-67.377 Y-76.661 Z1.678
X-67.373 Y-76.616 Z1.676
X-67.385 Y-76.573 Z1.675
X-67.412 Y-76.538 Z1.673
X-67.449 Y-76.513 Z1.671
X-67.493 Y-76.504 Z1.67
X-67.537 Y-76.51 Z1.668
X-67.576 Y-76.531 Z1.667
X-67.605 Y-76.565 Z1.665
X-67.621 Y-76.606 Z1.664
X-67.62 Y-76.651 Z1.662
X-67.605 Y-76.693 Z1.661
X-67.575 Y-76.726 Z1.659
X-67.536 Y-76.747 Z1.657
X-67.492 Y-76.753 Z1.656
X-67.449 Y-76.744 Z1.654
X-67.411 Y-76.719 Z1.653
X-67.385 Y-76.683 Z1.651
X-67.373 Y-76.64 Z1.65
X-67.377 Y-76.596 Z1.648
X-67.396 Y-76.556 Z1.646
X-67.428 Y-76.525 Z1.645
X-67.469 Y-76.507 Z1.643
X-67.513 Y-76.505 Z1.642
X-67.556 Y-76.518 Z1.64
X-67.591 Y-76.545 Z1.639
X-67.614 Y-76.583 Z1.637
X-67.622 Y-76.627 Z1.635
X-67.615 Y-76.671 Z1.634
X-67.593 Y-76.709 Z1.632
X-67.558 Y-76.738 Z1.631
X-67.516 Y-76.752 Z1.629
X-67.472 Y-76.751 Z1.628
X-67.43 Y-76.734 Z1.626
X-67.398 Y-76.704 Z1.625
X-67.378 Y-76.664 Z1.623
X-67.373 Y-76.62 Z1.621
X-67.384 Y-76.577 Z1.62
X-67.409 Y-76.54 Z1.618
X-67.446 Y-76.515 Z1.617
X-67.489 Y-76.504 Z1.615
X-67.533 Y-76.509 Z1.614
X-67.573 Y-76.529 Z1.612
X-67.603 Y-76.562 Z1.61
X-67.62 Y-76.603 Z1.609
X-67.621 Y-76.647 Z1.607
X-67.607 Y-76.69 Z1.606
X-67.578 Y-76.724 Z1.604
X-67.54 Y-76.746 Z1.603
X-67.496 Y-76.753 Z1.601
X-67.452 Y-76.745 Z1.6
X-67.414 Y-76.722 Z1.598
X-67.387 Y-76.686 Z1.596
X-67.373 Y-76.644 Z1.595
X-67.376 Y-76.599 Z1.593
X-67.394 Y-76.559 Z1.592
X-67.425 Y-76.527 Z1.59
X-67.465 Y-76.508 Z1.589
X-67.51 Y-76.504 Z1.587
X-67.552 Y-76.516 Z1.585
X-67.588 Y-76.543 Z1.584
X-67.613 Y-76.58 Z1.582
X-67.622 Y-76.623 Z1.581
X-67.616 Y-76.667 Z1.579
X-67.595 Y-76.707 Z1.578
X-67.561 Y-76.736 Z1.576
X-67.52 Y-76.751 Z1.575
X-67.475 Z1.573
X-67.434 Y-76.736 Z1.571
X-67.4 Y-76.707 Z1.57
X-67.379 Y-76.667 Z1.568
X-67.373 Y-76.623 Z1.567
X-67.382 Y-76.58 Z1.565
X-67.407 Y-76.543 Z1.564
X-67.443 Y-76.516 Z1.562
X-67.485 Y-76.504 Z1.56
X-67.53 Y-76.508 Z1.559
X-67.57 Y-76.527 Z1.557
X-67.601 Y-76.559 Z1.556
X-67.619 Y-76.599 Z1.554
X-67.622 Y-76.644 Z1.553
X-67.608 Y-76.686 Z1.551
X-67.581 Y-76.722 Z1.55
X-67.543 Y-76.745 Z1.548
X-67.499 Y-76.753 Z1.546
X-67.455 Y-76.746 Z1.545
X-67.417 Y-76.724 Z1.543
X-67.388 Y-76.69 Z1.542
X-67.374 Y-76.648 Z1.54
X-67.375 Y-76.603 Z1.539
X-67.392 Y-76.562 Z1.537
X-67.422 Y-76.529 Z1.535
X-67.462 Y-76.509 Z1.534
X-67.506 Y-76.504 Z1.532
X-67.549 Y-76.515 Z1.531
X-67.586 Y-76.54 Z1.529
X-67.611 Y-76.577 Z1.528
X-67.622 Y-76.62 Z1.526
X-67.617 Y-76.664 Z1.524
X-67.597 Y-76.704 Z1.523
X-67.565 Y-76.734 Z1.521
X-67.523 Y-76.751 Z1.52
X-67.479 Y-76.752 Z1.518
X-67.437 Y-76.738 Z1.517
X-67.402 Y-76.709 Z1.515
X-67.38 Y-76.671 Z1.514
X-67.373 Y-76.627 Z1.512
X-67.381 Y-76.583 Z1.51
X-67.404 Y-76.545 Z1.509
X-67.439 Y-76.518 Z1.507
X-67.482 Y-76.505 Z1.506
X-67.526 Y-76.507 Z1.504
X-67.567 Y-76.525 Z1.503
X-67.599 Y-76.556 Z1.501
X-67.618 Y-76.596 Z1.499
X-67.622 Y-76.64 Z1.498
X-67.61 Y-76.683 Z1.496
X-67.584 Y-76.719 Z1.495
X-67.546 Y-76.744 Z1.493
X-67.503 Y-76.753 Z1.492
X-67.459 Y-76.747 Z1.49
X-67.42 Y-76.726 Z1.489
X-67.39 Y-76.693 Z1.487
X-67.375 Y-76.651 Z1.485
X-67.374 Y-76.607 Z1.484
X-67.39 Y-76.565 Z1.482
X-67.419 Y-76.531 Z1.481
X-67.458 Y-76.51 Z1.479
X-67.502 Y-76.504 Z1.478
X-67.546 Y-76.513 Z1.476
X-67.583 Y-76.537 Z1.474
X-67.61 Y-76.573 Z1.473
X-67.622 Y-76.616 Z1.471
X-67.618 Y-76.66 Z1.47
X-67.599 Y-76.701 Z1.468
X-67.568 Y-76.732 Z1.467
X-67.527 Y-76.75 Z1.465
X-67.482 Y-76.753 Z1.464
X-67.44 Y-76.739 Z1.462
X-67.405 Y-76.712 Z1.46
X-67.381 Y-76.674 Z1.459
X-67.373 Y-76.631 Z1.457
X-67.38 Y-76.587 Z1.456
X-67.402 Y-76.548 Z1.454
X-67.436 Y-76.52 Z1.453
X-67.478 Y-76.505 Z1.451
X-67.523 Y-76.506 Z1.449
X-67.564 Y-76.523 Z1.448
X-67.597 Y-76.553 Z1.446
X-67.617 Y-76.592 Z1.445
X-67.622 Y-76.637 Z1.443
X-67.611 Y-76.68 Z1.442
X-67.586 Y-76.717 Z1.44
X-67.55 Y-76.742 Z1.439
X-67.507 Y-76.753 Z1.437
X-67.462 Y-76.748 Z1.435
X-67.422 Y-76.728 Z1.434
X-67.392 Y-76.696 Z1.432
X-67.375 Y-76.655 Z1.431
X-67.374 Y-76.61 Z1.429
X-67.388 Y-76.568 Z1.428
X-67.416 Y-76.533 Z1.426
X-67.455 Y-76.511 Z1.424
X-67.499 Y-76.504 Z1.423
X-67.542 Y-76.512 Z1.421
X-67.58 Y-76.535 Z1.42
X-67.608 Y-76.57 Z1.418
X-67.621 Y-76.612 Z1.417
X-67.619 Y-76.657 Z1.415
X-67.601 Y-76.698 Z1.413
X-67.571 Y-76.73 Z1.412
X-67.53 Y-76.749 Z1.41
X-67.486 Y-76.753 Z1.409
X-67.443 Y-76.741 Z1.407
X-67.407 Y-76.715 Z1.406
X-67.383 Y-76.678 Z1.404
X-67.373 Y-76.634 Z1.403
X-67.379 Y-76.59 Z1.401
X-67.4 Y-76.551 Z1.399
X-67.433 Y-76.521 Z1.398
X-67.475 Y-76.506 Z1.396
X-67.519 Y-76.505 Z1.395
X-67.561 Y-76.521 Z1.393
X-67.595 Y-76.55 Z1.392
X-67.616 Y-76.589 Z1.39
X-67.622 Y-76.633 Z1.388
X-67.613 Y-76.677 Z1.387
X-67.589 Y-76.714 Z1.385
X-67.553 Y-76.74 Z1.384
X-67.51 Y-76.753 Z1.382
X-67.466 Y-76.749 Z1.381
X-67.425 Y-76.731 Z1.379
X-67.394 Y-76.699 Z1.378
X-67.376 Y-76.658 Z1.376
X-67.373 Y-76.614 Z1.374
X-67.386 Y-76.571 Z1.373
X-67.414 Y-76.536 Z1.371
X-67.451 Y-76.512 Z1.37
X-67.495 Y-76.504 Z1.368
X-67.539 Y-76.511 Z1.367
X-67.578 Y-76.533 Z1.365
X-67.606 Y-76.567 Z1.363
X-67.621 Y-76.609 Z1.362
X-67.62 Y-76.653 Z1.36
X-67.603 Y-76.695 Z1.359
X-67.573 Y-76.728 Z1.357
X-67.534 Y-76.748 Z1.356
X-67.49 Y-76.753 Z1.354
X-67.446 Y-76.743 Z1.353
X-67.41 Y-76.717 Z1.351
X-67.384 Y-76.681 Z1.349
X-67.373 Y-76.638 Z1.348
X-67.377 Y-76.594 Z1.346
X-67.397 Y-76.554 Z1.345
X-67.43 Y-76.523 Z1.343
X-67.471 Y-76.506 Z1.342
X-67.516 Y-76.505 Z1.34
X-67.558 Y-76.519 Z1.338
X-67.592 Y-76.547 Z1.337
X-67.615 Y-76.586 Z1.335
X-67.622 Y-76.629 Z1.334
X-67.614 Y-76.673 Z1.332
X-67.591 Y-76.711 Z1.331
X-67.556 Y-76.739 Z1.329
X-67.514 Y-76.752 Z1.328
X-67.469 Y-76.75 Z1.326
X-67.428 Y-76.733 Z1.324
X-67.396 Y-76.702 Z1.323
X-67.377 Y-76.662 Z1.321
X-67.373 Y-76.617 Z1.32
X-67.385 Y-76.574 Z1.318
X-67.411 Y-76.538 Z1.317
X-67.448 Y-76.514 Z1.315
X-67.491 Y-76.504 Z1.313
X-67.536 Y-76.509 Z1.312
X-67.575 Y-76.53 Z1.31
X-67.604 Y-76.564 Z1.309
X-67.62 Y-76.605 Z1.307
X-67.621 Y-76.65 Z1.306
X-67.605 Y-76.692 Z1.304
X-67.576 Y-76.725 Z1.303
X-67.537 Y-76.747 Z1.301
X-67.493 Y-76.753 Z1.299
X-67.45 Y-76.744 Z1.298
X-67.412 Y-76.72 Z1.296
X-67.386 Y-76.684 Z1.295
X-67.373 Y-76.641 Z1.293
X-67.377 Y-76.597 Z1.292
X-67.395 Y-76.557 Z1.29
X-67.427 Y-76.525 Z1.288
X-67.468 Y-76.507 Z1.287
X-67.512 Y-76.504 Z1.285
X-67.555 Y-76.517 Z1.284
X-67.59 Y-76.544 Z1.282
X-67.614 Y-76.582 Z1.281
X-67.622 Y-76.626 Z1.279
X-67.615 Y-76.67 Z1.277
X-67.594 Y-76.708 Z1.276
X-67.559 Y-76.737 Z1.274
X-67.517 Y-76.752 Z1.273
X-67.473 Y-76.751 Z1.271
X-67.431 Y-76.735 Z1.27
X-67.398 Y-76.705 Z1.268
X-67.378 Y-76.665 Z1.267
X-67.373 Y-76.621 Z1.265
X-67.383 Y-76.578 Z1.263
X-67.408 Y-76.541 Z1.262
X-67.445 Y-76.515 Z1.26
X-67.488 Y-76.504 Z1.259
X-67.532 Y-76.508 Z1.257
X-67.572 Y-76.528 Z1.256
X-67.602 Y-76.561 Z1.254
X-67.62 Y-76.602 Z1.252
X-67.621 Y-76.646 Z1.251
X-67.607 Y-76.689 Z1.249
X-67.579 Y-76.723 Z1.248
X-67.541 Y-76.746 Z1.246
X-67.497 Y-76.753 Z1.245
X-67.453 Y-76.745 Z1.243
X-67.415 Y-76.722 Z1.242
X-67.387 Y-76.687 Z1.24
X-67.374 Y-76.645 Z1.238
X-67.376 Y-76.601 Z1.237
X-67.393 Y-76.56 Z1.235
X-67.424 Y-76.527 Z1.234
X-67.464 Y-76.508 Z1.232
X-67.508 Y-76.504 Z1.231
X-67.551 Y-76.516 Z1.229
X-67.587 Y-76.542 Z1.227
X-67.612 Y-76.579 Z1.226
X-67.622 Y-76.622 Z1.224
X-67.617 Y-76.666 Z1.223
X-67.596 Y-76.706 Z1.221
X-67.563 Y-76.735 Z1.22
X-67.521 Y-76.751 Z1.218
X-67.476 Y-76.752 Z1.217
X-67.435 Y-76.736 Z1.215
X-67.401 Y-76.708 Z1.213
X-67.379 Y-76.669 Z1.212
X-67.373 Y-76.625 Z1.21
X-67.382 Y-76.581 Z1.209
X-67.406 Y-76.544 Z1.207
X-67.441 Y-76.517 Z1.206
X-67.484 Y-76.504 Z1.204
X-67.529 Y-76.507 Z1.202
X-67.569 Y-76.526 Z1.201
X-67.6 Y-76.558 Z1.199
X-67.619 Y-76.598 Z1.198
X-67.622 Y-76.643 Z1.196
X-67.609 Y-76.685 Z1.195
X-67.582 Y-76.721 Z1.193
X-67.544 Y-76.744 Z1.192
X-67.501 Y-76.753 Z1.19
X-67.457 Y-76.747 Z1.188
X-67.418 Y-76.725 Z1.187
X-67.389 Y-76.691 Z1.185
X-67.374 Y-76.649 Z1.184
X-67.375 Y-76.604 Z1.182
X-67.391 Y-76.563 Z1.181
X-67.421 Y-76.53 Z1.179
X-67.461 Y-76.509 Z1.177
X-67.505 Y-76.504 Z1.176
X-67.548 Y-76.514 Z1.174
X-67.585 Y-76.539 Z1.173
X-67.611 Y-76.575 Z1.171
X-67.622 Y-76.619 Z1.17
X-67.618 Y-76.663 Z1.168
X-67.598 Y-76.703 Z1.166
X-67.566 Y-76.733 Z1.165
X-67.525 Y-76.751 Z1.163
X-67.48 Y-76.752 Z1.162
X-67.438 Y-76.738 Z1.16
X-67.403 Y-76.71 Z1.159
X-67.38 Y-76.672 Z1.157
X-67.373 Y-76.628 Z1.156
X-67.381 Y-76.584 Z1.154
X-67.403 Y-76.546 Z1.152
X-67.438 Y-76.518 Z1.151
X-67.481 Y-76.505 Z1.149
X-67.525 Y-76.507 Z1.148
X-67.566 Y-76.524 Z1.146
X-67.598 Y-76.555 Z1.145
X-67.618 Y-76.595 Z1.143
X-67.622 Y-76.639 Z1.141
X-67.61 Y-76.682 Z1.14
X-67.584 Y-76.718 Z1.138
X-67.547 Y-76.743 Z1.137
X-67.504 Y-76.753 Z1.135
X-67.46 Y-76.748 Z1.134
X-67.421 Y-76.727 Z1.132
X-67.391 Y-76.694 Z1.131
X-67.375 Y-76.652 Z1.129
X-67.374 Y-76.608 Z1.127
X-67.389 Y-76.566 Z1.126
X-67.418 Y-76.532 Z1.124
X-67.457 Y-76.51 Z1.123
X-67.501 Y-76.504 Z1.121
X-67.545 Y-76.513 Z1.12
X-67.582 Y-76.537 Z1.118
X-67.609 Y-76.572 Z1.116
X-67.622 Y-76.615 Z1.115
X-67.619 Y-76.659 Z1.113
X-67.6 Y-76.7 Z1.112
X-67.569 Y-76.731 Z1.11
X-67.528 Y-76.75 Z1.109
X-67.484 Y-76.753 Z1.107
X-67.441 Y-76.74 Z1.106
X-67.405 Y-76.713 Z1.104
X-67.382 Y-76.675 Z1.102
X-67.373 Y-76.632 Z1.101
X-67.379 Y-76.588 Z1.099
X-67.401 Y-76.549 Z1.098
X-67.435 Y-76.52 Z1.096
X-67.477 Y-76.505 Z1.095
X-67.522 Y-76.506 Z1.093
X-67.563 Y-76.522 Z1.091
X-67.596 Y-76.552 Z1.09
X-67.617 Y-76.591 Z1.088
X-67.622 Y-76.635 Z1.087
X-67.612 Y-76.679 Z1.085
X-67.587 Y-76.716 Z1.084
X-67.551 Y-76.742 Z1.082
X-67.508 Y-76.753 Z1.081
X-67.463 Y-76.749 Z1.079
X-67.423 Y-76.729 Z1.077
X-67.393 Y-76.697 Z1.076
X-67.376 Y-76.656 Z1.074
X-67.374 Y-76.611 Z1.073
X-67.388 Y-76.569 Z1.071
X-67.415 Y-76.534 Z1.07
X-67.454 Y-76.511 Z1.068
X-67.498 Y-76.504 Z1.066
X-67.541 Y-76.511 Z1.065
X-67.58 Y-76.534 Z1.063
X-67.607 Y-76.569 Z1.062
X-67.621 Y-76.611 Z1.06
X-67.619 Y-76.656 Z1.059
X-67.602 Y-76.697 Z1.057
X-67.572 Y-76.729 Z1.055
X-67.532 Y-76.749 Z1.054
X-67.487 Y-76.753 Z1.052
X-67.444 Y-76.742 Z1.051
X-67.408 Y-76.716 Z1.049
X-67.383 Y-76.679 Z1.048
X-67.373 Y-76.635 Z1.046
X-67.378 Y-76.591 Z1.045
X-67.399 Y-76.552 Z1.043
X-67.432 Y-76.522 Z1.041
X-67.473 Y-76.506 Z1.04
X-67.518 Y-76.505 Z1.038
X-67.56 Y-76.52 Z1.037
X-67.594 Y-76.549 Z1.035
X-67.616 Y-76.588 Z1.034
X-67.622 Y-76.632 Z1.032
X-67.613 Y-76.675 Z1.03
X-67.59 Y-76.713 Z1.029
X-67.554 Y-76.74 Z1.027
X-67.511 Y-76.753 Z1.026
X-67.467 Y-76.75 Z1.024
X-67.426 Y-76.731 Z1.023
X-67.395 Y-76.7 Z1.021
X-67.376 Y-76.659 Z1.02
X-67.373 Y-76.615 Z1.018
X-67.386 Y-76.572 Z1.016
X-67.413 Y-76.537 Z1.015
X-67.45 Y-76.513 Z1.013
X-67.494 Y-76.504 Z1.012
X-67.538 Y-76.51 Z1.01
X-67.577 Y-76.532 Z1.009
X-67.606 Y-76.566 Z1.007
X-67.621 Y-76.608 Z1.005
X-67.62 Y-76.652 Z1.004
X-67.604 Y-76.694 Z1.002
X-67.574 Y-76.727 Z1.001
X-67.535 Y-76.748 Z0.999
X-67.491 Y-76.753 Z0.998
X-67.447 Y-76.743 Z0.996
X-67.411 Y-76.718 Z0.995
X-67.385 Y-76.682 Z0.993
X-67.373 Y-76.639 Z0.991
X-67.377 Y-76.595 Z0.99
X-67.397 Y-76.555 Z0.988
X-67.429 Y-76.524 Z0.987
X-67.47 Y-76.507 Z0.985
X-67.514 Y-76.505 Z0.984
X-67.557 Y-76.518 Z0.982
X-67.592 Y-76.546 Z0.98
X-67.614 Y-76.584 Z0.979
X-67.622 Y-76.628 Z0.977
X-67.615 Y-76.672 Z0.976
X-67.592 Y-76.71 Z0.974
X-67.557 Y-76.738 Z0.973
X-67.515 Y-76.752 Z0.971
X-67.47 Y-76.751 Z0.97
X-67.429 Y-76.733 Z0.968
X-67.397 Y-76.703 Z0.966
X-67.377 Y-76.663 Z0.965
X-67.373 Y-76.619 Z0.963
X-67.384 Y-76.575 Z0.962
X-67.41 Y-76.539 Z0.96
X-67.447 Y-76.514 Z0.959
X-67.49 Y-76.504 Z0.957
X-67.534 Y-76.509 Z0.955
X-67.574 Y-76.53 Z0.954
X-67.604 Y-76.563 Z0.952
X-67.62 Y-76.604 Z0.951
X-67.621 Y-76.649 Z0.949
X-67.606 Y-76.691 Z0.948
X-67.577 Y-76.725 Z0.946
X-67.538 Y-76.747 Z0.945
X-67.494 Y-76.753 Z0.943
X-67.451 Y-76.744 Z0.941
X-67.413 Y-76.721 Z0.94
X-67.386 Y-76.685 Z0.938
X-67.373 Y-76.643 Z0.937
X-67.376 Y-76.598 Z0.935
X-67.395 Y-76.558 Z0.934
X-67.426 Y-76.526 Z0.932
X-67.466 Y-76.507 Z0.93
X-67.511 Y-76.504 Z0.929
X-67.554 Y-76.517 Z0.927
X-67.589 Y-76.544 Z0.926
X-67.613 Y-76.581 Z0.924
X-67.622 Y-76.625 Z0.923
X-67.616 Y-76.669 Z0.921
X-67.594 Y-76.708 Z0.919
X-67.56 Y-76.736 Z0.918
X-67.519 Y-76.752 Z0.916
X-67.474 Y-76.751 Z0.915
X-67.432 Y-76.735 Z0.913
X-67.399 Y-76.706 Z0.912
X-67.378 Y-76.666 Z0.91
X-67.373 Y-76.622 Z0.909
X-67.383 Y-76.579 Z0.907
X-67.408 Y-76.542 Z0.905
X-67.444 Y-76.516 Z0.904
X-67.487 Y-76.504 Z0.902
X-67.531 Y-76.508 Z0.901
X-67.571 Y-76.527 Z0.899
X-67.602 Y-76.56 Z0.898
X-67.619 Y-76.601 Z0.896
X-67.621 Y-76.645 Z0.894
X-67.608 Y-76.687 Z0.893
X-67.58 Y-76.722 Z0.891
X-67.542 Y-76.745 Z0.89
X-67.498 Y-76.753 Z0.888
X-67.454 Y-76.746 Z0.887
X-67.416 Y-76.723 Z0.885
X-67.388 Y-76.689 Z0.884
X-67.374 Y-76.646 Z0.882
X-67.375 Y-76.602 Z0.88
X-67.393 Y-76.561 Z0.879
X-67.423 Y-76.528 Z0.877
X-67.463 Y-76.508 Z0.876
X-67.507 Y-76.504 Z0.874
X-67.55 Y-76.515 Z0.873
X-67.587 Y-76.541 Z0.871
X-67.612 Y-76.578 Z0.869
X-67.622 Y-76.621 Z0.868
X-67.617 Y-76.665 Z0.866
X-67.597 Y-76.705 Z0.865
X-67.564 Y-76.735 Z0.863
X-67.522 Y-76.751 Z0.862
X-67.478 Y-76.752 Z0.86
X-67.436 Y-76.737 Z0.859
X-67.401 Y-76.708 Z0.857
X-67.38 Y-76.67 Z0.855
X-67.373 Y-76.626 Z0.854
X-67.381 Y-76.582 Z0.852
X-67.405 Y-76.544 Z0.851
X-67.44 Y-76.517 Z0.849
X-67.483 Y-76.504 Z0.848
X-67.527 Y-76.507 Z0.846
X-67.568 Y-76.525 Z0.844
X-67.6 Y-76.557 Z0.843
X-67.618 Y-76.597 Z0.841
X-67.622 Y-76.642 Z0.84
X-67.609 Y-76.684 Z0.838
X-67.583 Y-76.72 Z0.837
X-67.545 Y-76.744 Z0.835
X-67.502 Y-76.753 Z0.834
X-67.458 Y-76.747 Z0.832
X-67.419 Y-76.725 Z0.83
X-67.39 Y-76.692 Z0.829
X-67.374 Y-76.65 Z0.827
X-67.375 Y-76.605 Z0.826
X-67.391 Y-76.564 Z0.824
X-67.42 Y-76.53 Z0.823
X-67.459 Y-76.509 Z0.821
X-67.504 Y-76.504 Z0.819
X-67.547 Y-76.514 Z0.818
X-67.584 Y-76.538 Z0.816
X-67.61 Y-76.574 Z0.815
X-67.622 Y-76.617 Z0.813
X-67.618 Y-76.662 Z0.812
X-67.599 Y-76.702 Z0.81
X-67.567 Y-76.733 Z0.808
X-67.526 Y-76.75 Z0.807
X-67.481 Y-76.752 Z0.805
X-67.439 Y-76.739 Z0.804
X-67.404 Y-76.711 Z0.802
X-67.381 Y-76.673 Z0.801
X-67.373 Y-76.629 Z0.799
X-67.38 Y-76.586 Z0.798
X-67.403 Y-76.547 Z0.796
X-67.437 Y-76.519 Z0.794
X-67.479 Y-76.505 Z0.793
X-67.524 Y-76.506 Z0.791
X-67.565 Y-76.523 Z0.79
X-67.598 Y-76.554 Z0.788
X-67.618 Y-76.594 Z0.787
X-67.622 Y-76.638 Z0.785
X-67.611 Y-76.681 Z0.783
X-67.585 Y-76.717 Z0.782
X-67.549 Y-76.743 Z0.78
X-67.505 Y-76.753 Z0.779
X-67.461 Y-76.748 Z0.777
X-67.421 Y-76.728 Z0.776
X-67.392 Y-76.695 Z0.774
X-67.375 Y-76.653 Z0.773
X-67.374 Y-76.609 Z0.771
X-67.389 Y-76.567 Z0.769
X-67.417 Y-76.533 Z0.768
X-67.456 Y-76.511 Z0.766
X-67.5 Y-76.504 Z0.765
X-67.544 Y-76.512 Z0.763
X-67.581 Y-76.536 Z0.762
X-67.609 Y-76.571 Z0.76
X-67.622 Y-76.614 Z0.758
X-67.619 Y-76.658 Z0.757
X-67.601 Y-76.699 Z0.755
X-67.57 Y-76.731 Z0.754
X-67.529 Y-76.749 Z0.752
X-67.485 Y-76.753 Z0.751
X-67.442 Y-76.74 Z0.749
X-67.406 Y-76.714 Z0.748
X-67.382 Y-76.676 Z0.746
X-67.373 Y-76.633 Z0.744
X-67.379 Y-76.589 Z0.743
X-67.4 Y-76.55 Z0.741
X-67.434 Y-76.521 Z0.74
X-67.476 Y-76.505 Z0.738
X-67.52 Y-76.506 Z0.737
X-67.562 Y-76.521 Z0.735
X-67.595 Y-76.551 Z0.733
X-67.616 Y-76.59 Z0.732
X-67.622 Y-76.634 Z0.73
X-67.612 Y-76.678 Z0.729
X-67.588 Y-76.715 Z0.727
X-67.552 Y-76.741 Z0.726
X-67.509 Y-76.753 Z0.724
X-67.465 Y-76.749 Z0.723
X-67.424 Y-76.73 Z0.721
X-67.393 Y-76.698 Z0.719
X-67.376 Y-76.657 Z0.718
X-67.374 Y-76.612 Z0.716
X-67.387 Y-76.57 Z0.715
X-67.415 Y-76.535 Z0.713
X-67.453 Y-76.512 Z0.712
X-67.496 Y-76.504 Z0.71
X-67.54 Y-76.511 Z0.708
X-67.579 Y-76.533 Z0.707
X-67.607 Y-76.568 Z0.705
X-67.621 Y-76.61 Z0.704
X-67.62 Y-76.655 Z0.702
X-67.603 Y-76.696 Z0.701
X-67.572 Y-76.728 Z0.699
X-67.533 Y-76.748 Z0.697
X-67.488 Y-76.753 Z0.696
X-67.445 Y-76.742 Z0.694
X-67.409 Y-76.717 Z0.693
X-67.384 Y-76.68 Z0.691
X-67.373 Y-76.637 Z0.69
X-67.378 Y-76.592 Z0.688
X-67.398 Y-76.553 Z0.687
X-67.431 Y-76.523 Z0.685
X-67.472 Y-76.506 Z0.683
X-67.517 Y-76.505 Z0.682
X-67.559 Y-76.52 Z0.68
X-67.593 Y-76.548 Z0.679
X-67.615 Y-76.587 Z0.677
X-67.622 Y-76.631 Z0.676
X-67.614 Y-76.674 Z0.674
X-67.59 Y-76.712 Z0.672
X-67.555 Y-76.739 Z0.671
X-67.513 Y-76.753 Z0.669
X-67.468 Y-76.75 Z0.668
X-67.427 Y-76.732 Z0.666
X-67.396 Y-76.701 Z0.665
X-67.377 Y-76.66 Z0.663
X-67.373 Y-76.616 Z0.662
X-67.385 Y-76.573 Z0.66
X-67.412 Y-76.537 Z0.658
X-67.449 Y-76.513 Z0.657
X-67.493 Y-76.504 Z0.655
X-67.537 Y-76.51 Z0.654
X-67.576 Y-76.531 Z0.652
X-67.605 Y-76.565 Z0.651
X-67.621 Y-76.607 Z0.649
X-67.62 Y-76.651 Z0.647
X-67.605 Y-76.693 Z0.646
X-67.575 Y-76.726 Z0.644
X-67.536 Y-76.747 Z0.643
X-67.492 Y-76.753 Z0.641
X-67.449 Y-76.744 Z0.64
X-67.411 Y-76.719 Z0.638
X-67.385 Y-76.683 Z0.637
X-67.373 Y-76.64 Z0.635
X-67.377 Y-76.596 Z0.633
X-67.396 Y-76.556 Z0.632
X-67.428 Y-76.525 Z0.63
X-67.469 Y-76.507 Z0.629
X-67.513 Y-76.505 Z0.627
X-67.556 Y-76.518 Z0.626
X-67.591 Y-76.545 Z0.624
X-67.614 Y-76.583 Z0.622
X-67.622 Y-76.627 Z0.621
X-67.615 Y-76.671 Z0.619
X-67.593 Y-76.709 Z0.618
X-67.558 Y-76.738 Z0.616
X-67.516 Y-76.752 Z0.615
X-67.472 Y-76.751 Z0.613
X-67.43 Y-76.734 Z0.612
X-67.398 Y-76.704 Z0.61
X-67.378 Y-76.664 Z0.608
X-67.373 Y-76.62 Z0.607
X-67.384 Y-76.577 Z0.605
X-67.409 Y-76.54 Z0.604
X-67.446 Y-76.515 Z0.602
X-67.489 Y-76.504 Z0.601
X-67.533 Y-76.509 Z0.599
X-67.573 Y-76.529 Z0.597
X-67.603 Y-76.562 Z0.596
X-67.62 Y-76.603 Z0.594
X-67.621 Y-76.648 Z0.593
X-67.607 Y-76.69 Z0.591
X-67.578 Y-76.724 Z0.59
X-67.54 Y-76.746 Z0.588
X-67.496 Y-76.753 Z0.587
X-67.452 Y-76.745 Z0.585
X-67.414 Y-76.722 Z0.583
X-67.387 Y-76.686 Z0.582
X-67.373 Y-76.644 Z0.58
X-67.376 Y-76.599 Z0.579
X-67.394 Y-76.559 Z0.577
X-67.425 Y-76.527 Z0.576
X-67.465 Y-76.508 Z0.574
X-67.51 Y-76.504 Z0.572
X-67.552 Y-76.516 Z0.571
X-67.588 Y-76.543 Z0.569
X-67.613 Y-76.58 Z0.568
X-67.622 Y-76.623 Z0.566
X-67.616 Y-76.668 Z0.565
X-67.595 Y-76.707 Z0.563
X-67.561 Y-76.736 Z0.561
X-67.52 Y-76.751 Z0.56
X-67.475 Z0.558
X-67.433 Y-76.736 Z0.557
X-67.4 Y-76.707 Z0.555
X-67.379 Y-76.667 Z0.554
X-67.373 Y-76.623 Z0.552
X-67.382 Y-76.58 Z0.551
X-67.407 Y-76.543 Z0.549
X-67.443 Y-76.516 Z0.547
X-67.485 Y-76.504 Z0.546
X-67.53 Y-76.508 Z0.544
X-67.57 Y-76.527 Z0.543
X-67.601 Y-76.559 Z0.541
X-67.619 Y-76.599 Z0.54
X-67.622 Y-76.644 Z0.538
X-67.608 Y-76.686 Z0.536
X-67.581 Y-76.722 Z0.535
X-67.543 Y-76.745 Z0.533
X-67.499 Y-76.753 Z0.532
X-67.455 Y-76.746 Z0.53
X-67.417 Y-76.724 Z0.529
X-67.388 Y-76.69 Z0.527
X-67.374 Y-76.647 Z0.526
X-67.375 Y-76.603 Z0.524
X-67.392 Y-76.562 Z0.522
X-67.422 Y-76.529 Z0.521
X-67.462 Y-76.509 Z0.519
X-67.506 Y-76.504 Z0.518
X-67.549 Y-76.515 Z0.516
X-67.586 Y-76.54 Z0.515
X-67.611 Y-76.577 Z0.513
X-67.622 Y-76.62 Z0.511
X-67.617 Y-76.664 Z0.51
X-67.597 Y-76.704 Z0.508
X-67.565 Y-76.734 Z0.507
X-67.523 Y-76.751 Z0.505
X-67.479 Y-76.752 Z0.504
X-67.437 Y-76.738 Z0.502
X-67.402 Y-76.709 Z0.501
X-67.38 Y-76.671 Z0.499
X-67.373 Y-76.627 Z0.497
X-67.381 Y-76.583 Z0.496
X-67.404 Y-76.545 Z0.494
X-67.439 Y-76.518 Z0.493
X-67.482 Y-76.505 Z0.491
X-67.526 Y-76.507 Z0.49
X-67.567 Y-76.525 Z0.488
X-67.599 Y-76.556 Z0.486
X-67.618 Y-76.596 Z0.485
X-67.622 Y-76.64 Z0.483
X-67.61 Y-76.683 Z0.482
X-67.584 Y-76.719 Z0.48
X-67.546 Y-76.744 Z0.479
X-67.503 Y-76.753 Z0.477
X-67.459 Y-76.747 Z0.476
X-67.42 Y-76.726 Z0.474
X-67.39 Y-76.693 Z0.472
X-67.375 Y-76.651 Z0.471
X-67.374 Y-76.606 Z0.469
X-67.39 Y-76.565 Z0.468
X-67.419 Y-76.531 Z0.466
X-67.458 Y-76.51 Z0.465
X-67.502 Y-76.504 Z0.463
X-67.546 Y-76.513 Z0.461
X-67.583 Y-76.538 Z0.46
X-67.61 Y-76.573 Z0.458
X-67.622 Y-76.616 Z0.457
X-67.618 Y-76.661 Z0.455
X-67.599 Y-76.701 Z0.454
X-67.568 Y-76.732 Z0.452
X-67.527 Y-76.75 Z0.45
X-67.482 Y-76.753 Z0.449
X-67.44 Y-76.739 Z0.447
X-67.405 Y-76.712 Z0.446
X-67.381 Y-76.674 Z0.444
X-67.373 Y-76.631 Z0.443
X-67.38 Y-76.587 Z0.441
X-67.402 Y-76.548 Z0.44
X-67.436 Y-76.52 Z0.438
X-67.478 Y-76.505 Z0.436
X-67.523 Y-76.506 Z0.435
X-67.564 Y-76.523 Z0.433
X-67.597 Y-76.553 Z0.432
X-67.617 Y-76.592 Z0.43
X-67.622 Y-76.637 Z0.429
X-67.611 Y-76.68 Z0.427
X-67.586 Y-76.717 Z0.425
X-67.55 Y-76.742 Z0.424
X-67.506 Y-76.753 Z0.422
X-67.462 Y-76.748 Z0.421
X-67.422 Y-76.728 Z0.419
X-67.392 Y-76.696 Z0.418
X-67.375 Y-76.655 Z0.416
X-67.374 Y-76.61 Z0.415
X-67.388 Y-76.568 Z0.413
X-67.416 Y-76.533 Z0.411
X-67.455 Y-76.511 Z0.41
X-67.499 Y-76.504 Z0.408
X-67.543 Y-76.512 Z0.407
X-67.581 Y-76.535 Z0.405
X-67.608 Y-76.57 Z0.404
X-67.621 Y-76.613 Z0.402
X-67.619 Y-76.657 Z0.4
X-67.601 Y-76.698 Z0.399
X-67.571 Y-76.73 Z0.397
X-67.53 Y-76.749 Z0.396
X-67.486 Y-76.753 Z0.394
X-67.443 Y-76.741 Z0.393
X-67.407 Y-76.715 Z0.391
X-67.383 Y-76.678 Z0.39
X-67.373 Y-76.634 Z0.388
X-67.379 Y-76.59 Z0.386
X-67.4 Y-76.551 Z0.385
X-67.433 Y-76.521 Z0.383
X-67.475 Y-76.506 Z0.382
X-67.519 Y-76.505 Z0.38
X-67.561 Y-76.521 Z0.379
X-67.595 Y-76.55 Z0.377
X-67.616 Y-76.589 Z0.375
X-67.622 Y-76.633 Z0.374
X-67.613 Y-76.677 Z0.372
X-67.589 Y-76.714 Z0.371
X-67.553 Y-76.741 Z0.369
X-67.51 Y-76.753 Z0.368
X-67.466 Y-76.749 Z0.366
X-67.425 Y-76.731 Z0.365
X-67.394 Y-76.699 Z0.363
X-67.376 Y-76.658 Z0.361
X-67.373 Y-76.614 Z0.36
X-67.386 Y-76.571 Z0.358
X-67.414 Y-76.536 Z0.357
X-67.451 Y-76.512 Z0.355
X-67.495 Y-76.504 Z0.354
X-67.539 Y-76.511 Z0.352
X-67.578 Y-76.533 Z0.35
X-67.606 Y-76.567 Z0.349
X-67.621 Y-76.609 Z0.347
X-67.62 Y-76.654 Z0.346
X-67.603 Y-76.695 Z0.344
X-67.573 Y-76.728 Z0.343
X-67.534 Y-76.748 Z0.341
X-67.49 Y-76.753 Z0.339
X-67.446 Y-76.743 Z0.338
X-67.41 Y-76.717 Z0.336
X-67.384 Y-76.681 Z0.335
X-67.373 Y-76.638 Z0.333
X-67.378 Y-76.594 Z0.332
X-67.397 Y-76.554 Z0.33
X-67.43 Y-76.523 Z0.329
X-67.471 Y-76.506 Z0.327
X-67.516 Y-76.505 Z0.325
X-67.558 Y-76.519 Z0.324
X-67.592 Y-76.547 Z0.322
X-67.615 Y-76.586 Z0.321
X-67.622 Y-76.629 Z0.319
X-67.614 Y-76.673 Z0.318
X-67.591 Y-76.711 Z0.316
X-67.556 Y-76.739 Z0.314
X-67.514 Y-76.752 Z0.313
X-67.469 Y-76.75 Z0.311
X-67.428 Y-76.733 Z0.31
X-67.396 Y-76.702 Z0.308
X-67.377 Y-76.662 Z0.307
X-67.373 Y-76.617 Z0.305
X-67.385 Y-76.574 Z0.304
X-67.411 Y-76.538 Z0.302
X-67.448 Y-76.514 Z0.3
X-67.492 Y-76.504 Z0.299
X-67.536 Y-76.51 Z0.297
X-67.575 Y-76.53 Z0.296
X-67.604 Y-76.564 Z0.294
X-67.62 Y-76.605 Z0.293
X-67.621 Y-76.65 Z0.291
X-67.605 Y-76.692 Z0.289
X-67.576 Y-76.726 Z0.288
X-67.537 Y-76.747 Z0.286
X-67.493 Y-76.753 Z0.285
X-67.45 Y-76.744 Z0.283
X-67.412 Y-76.72 Z0.282
X-67.386 Y-76.684 Z0.28
X-67.373 Y-76.641 Z0.279
X-67.377 Y-76.597 Z0.277
X-67.395 Y-76.557 Z0.275
X-67.427 Y-76.525 Z0.274
X-67.468 Y-76.507 Z0.272
X-67.512 Y-76.504 Z0.271
X-67.555 Y-76.517 Z0.269
X-67.59 Y-76.544 Z0.268
X-67.614 Y-76.582 Z0.266
X-67.622 Y-76.626 Z0.264
X-67.615 Y-76.67 Z0.263
X-67.593 Y-76.709 Z0.261
X-67.559 Y-76.737 Z0.26
X-67.517 Y-76.752 Z0.258
X-67.473 Y-76.751 Z0.257
X-67.431 Y-76.735 Z0.255
X-67.398 Y-76.705 Z0.254
X-67.378 Y-76.665 Z0.252
X-67.373 Y-76.621 Z0.25
X-67.383 Y-76.578 Z0.249
X-67.408 Y-76.541 Z0.247
X-67.445 Y-76.515 Z0.246
X-67.488 Y-76.504 Z0.244
X-67.532 Y-76.508 Z0.243
X-67.572 Y-76.528 Z0.241
X-67.603 Y-76.561 Z0.239
X-67.62 Y-76.602 Z0.238
X-67.621 Y-76.646 Z0.236
X-67.607 Y-76.689 Z0.235
X-67.579 Y-76.723 Z0.233
X-67.541 Y-76.746 Z0.232
X-67.497 Y-76.753 Z0.23
X-67.453 Y-76.745 Z0.229
X-67.415 Y-76.722 Z0.227
X-67.387 Y-76.687 Z0.225
X-67.374 Y-76.645 Z0.224
X-67.376 Y-76.601 Z0.222
X-67.393 Y-76.56 Z0.221
X-67.424 Y-76.527 Z0.219
X-67.464 Y-76.508 Z0.218
X-67.508 Y-76.504 Z0.216
X-67.551 Y-76.516 Z0.214
X-67.588 Y-76.542 Z0.213
X-67.612 Y-76.579 Z0.211
X-67.622 Y-76.622 Z0.21
X-67.617 Y-76.666 Z0.208
X-67.596 Y-76.706 Z0.207
X-67.562 Y-76.735 Z0.205
X-67.521 Y-76.751 Z0.203
X-67.476 Y-76.752 Z0.202
X-67.434 Y-76.736 Z0.2
X-67.401 Y-76.707 Z0.199
X-67.379 Y-76.669 Z0.197
X-67.373 Y-76.624 Z0.196
X-67.382 Y-76.581 Z0.194
X-67.406 Y-76.543 Z0.193
X-67.442 Y-76.517 Z0.191
X-67.484 Y-76.504 Z0.189
X-67.529 Y-76.507 Z0.188
X-67.569 Y-76.526 Z0.186
X-67.601 Y-76.558 Z0.185
X-67.619 Y-76.598 Z0.183
X-67.622 Y-76.643 Z0.182
X-67.609 Y-76.685 Z0.18
X-67.582 Y-76.721 Z0.178
X-67.544 Y-76.744 Z0.177
X-67.5 Y-76.753 Z0.175
X-67.456 Y-76.747 Z0.174
X-67.418 Y-76.725 Z0.172
X-67.389 Y-76.691 Z0.171
X-67.374 Y-76.649 Z0.169
X-67.375 Y-76.604 Z0.168
X-67.391 Y-76.563 Z0.166
X-67.421 Y-76.53 Z0.164
X-67.461 Y-76.509 Z0.163
X-67.505 Y-76.504 Z0.161
X-67.548 Y-76.514 Z0.16
X-67.585 Y-76.539 Z0.158
X-67.611 Y-76.576 Z0.157
X-67.622 Y-76.619 Z0.155
X-67.618 Y-76.663 Z0.153
X-67.598 Y-76.703 Z0.152
X-67.565 Y-76.733 Z0.15
X-67.524 Y-76.751 Z0.149
X-67.48 Y-76.752 Z0.147
X-67.438 Y-76.738 Z0.146
X-67.403 Y-76.71 Z0.144
X-67.38 Y-76.672 Z0.143
X-67.373 Y-76.628 Z0.141
X-67.381 Y-76.584 Z0.139
X-67.404 Y-76.546 Z0.138
X-67.438 Y-76.518 Z0.136
X-67.481 Y-76.505 Z0.135
X-67.525 Y-76.507 Z0.133
X-67.566 Y-76.524 Z0.132
X-67.598 Y-76.555 Z0.13
X-67.618 Y-76.595 Z0.128
X-67.622 Y-76.639 Z0.127
X-67.61 Y-76.682 Z0.125
X-67.584 Y-76.718 Z0.124
X-67.547 Y-76.743 Z0.122
X-67.504 Y-76.753 Z0.121
X-67.46 Y-76.748 Z0.119
X-67.42 Y-76.727 Z0.118
X-67.391 Y-76.694 Z0.116
X-67.375 Y-76.652 Z0.114
X-67.374 Y-76.608 Z0.113
X-67.389 Y-76.566 Z0.111
X-67.418 Y-76.532 Z0.11
X-67.457 Y-76.51 Z0.108
X-67.501 Y-76.504 Z0.107
X-67.545 Y-76.513 Z0.105
X-67.582 Y-76.537 Z0.103
X-67.609 Y-76.572 Z0.102
X-67.622 Y-76.615 Z0.1
X-67.619 Y-76.659 Z0.099
X-67.6 Y-76.7 Z0.097
X-67.569 Y-76.731 Z0.096
X-67.528 Y-76.75 Z0.094
X-67.484 Y-76.753 Z0.092
X-67.441 Y-76.74 Z0.091
X-67.405 Y-76.713 Z0.089
X-67.382 Y-76.675 Z0.088
X-67.373 Y-76.632 Z0.086
X-67.379 Y-76.588 Z0.085
X-67.401 Y-76.549 Z0.083
X-67.435 Y-76.52 Z0.082
X-67.477 Y-76.505 Z0.08
X-67.522 Y-76.506 Z0.078
X-67.563 Y-76.522 Z0.077
X-67.596 Y-76.552 Z0.075
X-67.617 Y-76.591 Z0.074
X-67.622 Y-76.636 Z0.072
X-67.612 Y-76.679 Z0.071
X-67.587 Y-76.716 Z0.069
X-67.551 Y-76.742 Z0.067
X-67.508 Y-76.753 Z0.066
X-67.463 Y-76.749 Z0.064
X-67.423 Y-76.729 Z0.063
X-67.393 Y-76.697 Z0.061
X-67.376 Y-76.656 Z0.06
X-67.374 Y-76.611 Z0.058
X-67.388 Y-76.569 Z0.057
X-67.416 Y-76.534 Z0.055
X-67.454 Y-76.511 Z0.053
X-67.498 Y-76.504 Z0.052
X-67.541 Y-76.511 Z0.05
X-67.58 Y-76.534 Z0.049
X-67.607 Y-76.569 Z0.047
X-67.621 Y-76.611 Z0.046
X-67.619 Y-76.656 Z0.044
X-67.602 Y-76.697 Z0.042
X-67.571 Y-76.729 Z0.041
X-67.531 Y-76.749 Z0.039
X-67.487 Y-76.753 Z0.038
X-67.444 Y-76.742 Z0.036
X-67.408 Y-76.716 Z0.035
X-67.383 Y-76.679 Z0.033
X-67.373 Y-76.635 Z0.032
X-67.378 Y-76.591 Z0.03
X-67.399 Y-76.552 Z0.028
X-67.432 Y-76.522 Z0.027
X-67.474 Y-76.506 Z0.025
X-67.518 Y-76.505 Z0.024
X-67.56 Y-76.52 Z0.022
X-67.594 Y-76.549 Z0.021
X-67.616 Y-76.588 Z0.019
X-67.622 Y-76.632 Z0.017
X-67.613 Y-76.676 Z0.016
X-67.589 Y-76.713 Z0.014
X-67.554 Y-76.74 Z0.013
X-67.511 Y-76.753 Z0.011
X-67.467 Y-76.75 Z0.01
X-67.426 Y-76.731 Z0.008
X-67.395 Y-76.7 Z0.007
X-67.376 Y-76.659 Z0.005
X-67.373 Y-76.615 Z0.003
X-67.386 Y-76.572 Z0.002
X-67.413 Y-76.537 Z0
X-67.45 Y-76.513 Z-0.001
X-67.494 Y-76.504 Z-0.003
X-67.538 Y-76.51 Z-0.004
X-67.577 Y-76.532 Z-0.006
X-67.606 Y-76.566 Z-0.008
X-67.621 Y-76.608 Z-0.009
X-67.62 Y-76.652 Z-0.011
X-67.604 Y-76.694 Z-0.012
X-67.574 Y-76.727 Z-0.014
X-67.535 Y-76.748 Z-0.015
X-67.491 Y-76.753 Z-0.017
X-67.447 Y-76.743 Z-0.018
X-67.41 Y-76.718 Z-0.02
X-67.385 Y-76.682 Z-0.022
X-67.373 Y-76.639 Z-0.023
X-67.377 Y-76.595 Z-0.025
X-67.397 Y-76.555 Z-0.026
X-67.429 Y-76.524 Z-0.028
X-67.47 Y-76.507 Z-0.029
X-67.514 Y-76.505 Z-0.031
X-67.557 Y-76.519 Z-0.033
X-67.592 Y-76.546 Z-0.034
X-67.614 Y-76.585 Z-0.036
X-67.622 Y-76.628 Z-0.037
X-67.615 Y-76.672 Z-0.039
X-67.592 Y-76.71 Z-0.04
X-67.557 Y-76.738 Z-0.042
X-67.515 Y-76.752 Z-0.044
X-67.47 Y-76.751 Z-0.045
X-67.429 Y-76.733 Z-0.047
X-67.397 Y-76.703 Z-0.048
X-67.377 Y-76.663 Z-0.05
X-67.373 Y-76.618 Z-0.051
X-67.384 Y-76.575 Z-0.053
X-67.41 Y-76.539 Z-0.054
X-67.447 Y-76.514 Z-0.056
X-67.49 Y-76.504 Z-0.058
X-67.535 Y-76.509 Z-0.059
X-67.574 Y-76.53 Z-0.061
X-67.604 Y-76.563 Z-0.062
X-67.62 Y-76.604 Z-0.064
X-67.621 Y-76.649 Z-0.065
X-67.606 Y-76.691 Z-0.067
X-67.577 Y-76.725 Z-0.069
X-67.538 Y-76.747 Z-0.07
X-67.494 Y-76.753 Z-0.072
X-67.451 Y-76.744 Z-0.073
X-67.413 Y-76.721 Z-0.075
X-67.386 Y-76.685 Z-0.076
X-67.373 Y-76.643 Z-0.078
X-67.376 Y-76.598 Z-0.079
X-67.395 Y-76.558 Z-0.081
X-67.426 Y-76.526 Z-0.083
X-67.466 Y-76.507 Z-0.084
X-67.511 Y-76.504 Z-0.086
X-67.554 Y-76.517 Z-0.087
X-67.589 Y-76.544 Z-0.089
X-67.613 Y-76.581 Z-0.09
X-67.622 Y-76.625 Z-0.092
X-67.616 Y-76.669 Z-0.094
X-67.594 Y-76.708 Z-0.095
X-67.56 Y-76.737 Z-0.097
X-67.518 Y-76.752 Z-0.098
X-67.474 Y-76.751 Z-0.1
X-67.432 Y-76.735 Z-0.101
X-67.399 Y-76.706 Z-0.103
X-67.378 Y-76.666 Z-0.104
X-67.373 Y-76.622 Z-0.106
X-67.383 Y-76.579 Z-0.108
X-67.408 Y-76.542 Z-0.109
X-67.444 Y-76.516 Z-0.111
X-67.487 Y-76.504 Z-0.112
X-67.531 Y-76.508 Z-0.114
X-67.571 Y-76.528 Z-0.115
X-67.602 Y-76.56 Z-0.117
X-67.619 Y-76.601 Z-0.119
X-67.621 Y-76.645 Z-0.12
X-67.608 Y-76.688 Z-0.122
X-67.58 Y-76.722 Z-0.123
X-67.542 Y-76.745 Z-0.125
X-67.498 Y-76.753 Z-0.126
X-67.454 Y-76.746 Z-0.128
X-67.416 Y-76.723 Z-0.129
X-67.388 Y-76.688 Z-0.131
X-67.374 Y-76.646 Z-0.133
X-67.375 Y-76.602 Z-0.134
X-67.393 Y-76.561 Z-0.136
X-67.423 Y-76.528 Z-0.137
X-67.463 Y-76.508 Z-0.139
X-67.507 Y-76.504 Z-0.14
X-67.55 Y-76.515 Z-0.142
X-67.587 Y-76.541 Z-0.144
X-67.612 Y-76.578 Z-0.145
X-67.622 Y-76.621 Z-0.147
X-67.617 Y-76.665 Z-0.148
X-67.596 Y-76.705 Z-0.15
X-67.563 Y-76.735 Z-0.151
X-67.522 Y-76.751 Z-0.153
X-67.477 Y-76.752 Z-0.155
X-67.436 Y-76.737 Z-0.156
X-67.401 Y-76.708 Z-0.158
X-67.379 Y-76.67 Z-0.159
X-67.373 Y-76.626 Z-0.161
X-67.381 Y-76.582 Z-0.162
X-67.405 Y-76.544 Z-0.164
X-67.441 Y-76.517 Z-0.165
X-67.483 Y-76.504 Z-0.167
X-67.528 Y-76.507 Z-0.169
X-67.568 Y-76.525 Z-0.17
X-67.6 Y-76.557 Z-0.172
X-67.618 Y-76.597 Z-0.173
X-67.622 Y-76.642 Z-0.175
X-67.609 Y-76.684 Z-0.176
X-67.583 Y-76.72 Z-0.178
X-67.545 Y-76.744 Z-0.18
X-67.502 Y-76.753 Z-0.181
X-67.458 Y-76.747 Z-0.183
X-67.419 Y-76.725 Z-0.184
X-67.39 Y-76.692 Z-0.186
X-67.374 Y-76.65 Z-0.187
X-67.375 Y-76.605 Z-0.189
X-67.391 Y-76.564 Z-0.19
X-67.42 Y-76.53 Z-0.192
X-67.46 Y-76.509 Z-0.194
X-67.504 Y-76.504 Z-0.195
X-67.547 Y-76.514 Z-0.197
X-67.584 Y-76.538 Z-0.198
X-67.61 Y-76.575 Z-0.2
X-67.622 Y-76.617 Z-0.201
X-67.618 Y-76.662 Z-0.203
X-67.599 Y-76.702 Z-0.205
X-67.566 Y-76.733 Z-0.206
X-67.526 Y-76.75 Z-0.208
X-67.481 Y-76.752 Z-0.209
X-67.439 Y-76.739 Z-0.211
X-67.404 Y-76.711 Z-0.212
X-67.381 Y-76.673 Z-0.214
X-67.373 Y-76.629 Z-0.215
X-67.38 Y-76.585 Z-0.217
X-67.403 Y-76.547 Z-0.219
X-67.437 Y-76.519 Z-0.22
X-67.48 Y-76.505 Z-0.222
X-67.524 Y-76.506 Z-0.223
X-67.565 Y-76.523 Z-0.225
X-67.598 Y-76.554 Z-0.226
X-67.618 Y-76.594 Z-0.228
X-67.622 Y-76.638 Z-0.23
X-67.611 Y-76.681 Z-0.231
X-67.585 Y-76.717 Z-0.233
X-67.548 Y-76.743 Z-0.234
X-67.505 Y-76.753 Z-0.236
X-67.461 Y-76.748 Z-0.237
X-67.421 Y-76.728 Z-0.239
X-67.391 Y-76.695 Z-0.24
X-67.375 Y-76.653 Z-0.242
X-67.374 Y-76.609 Z-0.244
X-67.389 Y-76.567 Z-0.245
X-67.417 Y-76.533 Z-0.247
X-67.456 Y-76.511 Z-0.248
X-67.5 Y-76.504 Z-0.25
X-67.544 Y-76.512 Z-0.251
X-67.581 Y-76.536 Z-0.253
X-67.609 Y-76.571 Z-0.255
X-67.622 Y-76.614 Z-0.256
X-67.619 Y-76.658 Z-0.258
X-67.601 Y-76.699 Z-0.259
X-67.569 Y-76.731 Z-0.261
X-67.529 Y-76.749 Z-0.262
X-67.485 Y-76.753 Z-0.264
X-67.442 Y-76.74 Z-0.266
X-67.406 Y-76.714 Z-0.267
X-67.382 Y-76.676 Z-0.269
X-67.373 Y-76.633 Z-0.27
X-67.379 Y-76.589 Z-0.272
X-67.4 Y-76.55 Z-0.273
X-67.434 Y-76.521 Z-0.275
X-67.476 Y-76.505 Z-0.276
X-67.52 Y-76.506 Z-0.278
X-67.562 Y-76.522 Z-0.28
X-67.596 Y-76.551 Z-0.281
X-67.616 Y-76.59 Z-0.283
X-67.622 Y-76.634 Z-0.284
X-67.612 Y-76.678 Z-0.286
X-67.588 Y-76.715 Z-0.287
X-67.552 Y-76.741 Z-0.289
X-67.509 Y-76.753 Z-0.291
X-67.464 Y-76.749 Z-0.292
X-67.424 Y-76.73 Z-0.294
X-67.393 Y-76.698 Z-0.295
X-67.376 Y-76.657 Z-0.297
X-67.374 Y-76.612 Z-0.298
X-67.387 Y-76.57 Z-0.3
X-67.415 Y-76.535 Z-0.301
X-67.453 Y-76.512 Z-0.303
X-67.496 Y-76.504 Z-0.305
X-67.54 Y-76.511 Z-0.306
X-67.579 Y-76.534 Z-0.308
X-67.607 Y-76.568 Z-0.309
X-67.621 Y-76.61 Z-0.311
X-67.62 Y-76.655 Z-0.312
X-67.603 Y-76.696 Z-0.314
X-67.572 Y-76.729 Z-0.316
X-67.533 Y-76.748 Z-0.317
X-67.488 Y-76.753 Z-0.319
X-67.445 Y-76.742 Z-0.32
X-67.409 Y-76.716 Z-0.322
X-67.384 Y-76.68 Z-0.323
X-67.373 Y-76.637 Z-0.325
X-67.378 Y-76.592 Z-0.326
X-67.398 Y-76.553 Z-0.328
X-67.431 Y-76.523 Z-0.33
X-67.472 Y-76.506 Z-0.331
X-67.517 Y-76.505 Z-0.333
X-67.559 Y-76.52 Z-0.334
X-67.593 Y-76.548 Z-0.336
X-67.615 Y-76.587 Z-0.337
X-67.622 Y-76.631 Z-0.339
X-67.614 Y-76.674 Z-0.341
X-67.59 Y-76.712 Z-0.342
X-67.555 Y-76.739 Z-0.344
X-67.512 Y-76.753 Z-0.345
X-67.468 Y-76.75 Z-0.347
X-67.427 Y-76.732 Z-0.348
X-67.395 Y-76.701 Z-0.35
X-67.377 Y-76.66 Z-0.351
X-67.373 Y-76.616 Z-0.353
X-67.385 Y-76.573 Z-0.355
X-67.412 Y-76.537 Z-0.356
X-67.449 Y-76.513 Z-0.358
X-67.493 Y-76.504 Z-0.359
X-67.537 Y-76.51 Z-0.361
X-67.576 Y-76.531 Z-0.362
X-67.605 Y-76.565 Z-0.364
X-67.621 Y-76.607 Z-0.366
X-67.62 Y-76.651 Z-0.367
X-67.605 Y-76.693 Z-0.369
X-67.575 Y-76.726 Z-0.37
X-67.536 Y-76.747 Z-0.372
X-67.492 Y-76.753 Z-0.373
X-67.448 Y-76.743 Z-0.375
X-67.411 Y-76.719 Z-0.376
X-67.385 Y-76.683 Z-0.378
X-67.373 Y-76.64 Z-0.38
X-67.377 Y-76.596 Z-0.381
X-67.396 Y-76.556 Z-0.383
X-67.428 Y-76.525 Z-0.384
X-67.469 Y-76.507 Z-0.386
X-67.513 Y-76.505 Z-0.387
X-67.556 Y-76.518 Z-0.389
X-67.591 Y-76.545 Z-0.391
X-67.614 Y-76.583 Z-0.392
X-67.622 Y-76.627 Z-0.394
X-67.615 Y-76.671 Z-0.395
X-67.593 Y-76.71 Z-0.397
X-67.558 Y-76.738 Z-0.398
X-67.516 Y-76.752 Z-0.4
X-67.472 Y-76.751 Z-0.402
X-67.43 Y-76.734 Z-0.403
X-67.398 Y-76.704 Z-0.405
X-67.378 Y-76.664 Z-0.406
X-67.373 Y-76.62 Z-0.408
X-67.384 Y-76.576 Z-0.409
X-67.409 Y-76.54 Z-0.411
X-67.446 Y-76.515 Z-0.412
X-67.489 Y-76.504 Z-0.414
X-67.533 Y-76.509 Z-0.416
X-67.573 Y-76.529 Z-0.417
X-67.603 Y-76.562 Z-0.419
X-67.62 Y-76.603 Z-0.42
X-67.621 Y-76.648 Z-0.422
X-67.606 Y-76.69 Z-0.423
X-67.578 Y-76.724 Z-0.425
X-67.539 Y-76.746 Z-0.427
X-67.496 Y-76.753 Z-0.428
X-67.452 Y-76.745 Z-0.43
X-67.414 Y-76.721 Z-0.431
X-67.387 Y-76.686 Z-0.433
X-67.373 Y-76.644 Z-0.434
X-67.376 Y-76.599 Z-0.436
X-67.394 Y-76.559 Z-0.437
X-67.425 Y-76.527 Z-0.439
X-67.465 Y-76.508 Z-0.441
X-67.51 Y-76.504 Z-0.442
X-67.553 Y-76.516 Z-0.444
X-67.588 Y-76.543 Z-0.445
X-67.613 Y-76.58 Z-0.447
X-67.622 Y-76.624 Z-0.448
X-67.616 Y-76.668 Z-0.45
X-67.595 Y-76.707 Z-0.452
X-67.561 Y-76.736 Z-0.453
X-67.52 Y-76.752 Z-0.455
X-67.475 Y-76.751 Z-0.456
X-67.433 Y-76.736 Z-0.458
X-67.4 Y-76.707 Z-0.459
X-67.379 Y-76.667 Z-0.461
X-67.373 Y-76.623 Z-0.462
X-67.382 Y-76.58 Z-0.464
X-67.407 Y-76.543 Z-0.466
X-67.443 Y-76.516 Z-0.467
X-67.486 Y-76.504 Z-0.469
X-67.53 Y-76.508 Z-0.47
X-67.57 Y-76.527 Z-0.472
X-67.601 Y-76.559 Z-0.473
X-67.619 Y-76.6 Z-0.475
X-67.622 Y-76.644 Z-0.477
X-67.608 Y-76.687 Z-0.478
X-67.581 Y-76.722 Z-0.48
X-67.543 Y-76.745 Z-0.481
X-67.499 Y-76.753 Z-0.483
X-67.455 Y-76.746 Z-0.484
X-67.417 Y-76.724 Z-0.486
X-67.388 Y-76.689 Z-0.487
X-67.374 Y-76.647 Z-0.489
X-67.375 Y-76.603 Z-0.491
X-67.392 Y-76.562 Z-0.492
X-67.422 Y-76.529 Z-0.494
X-67.462 Y-76.509 Z-0.495
X-67.506 Y-76.504 Z-0.497
X-67.549 Y-76.515 Z-0.498
X-67.586 Y-76.54 Z-0.5
G3 X-67.409 Y-76.717 I0.088 J-0.088 F2540
X-67.586 Y-76.54 I-0.088 J0.088
G1 X-67.611 Y-76.577 Z-0.502 F1016
X-67.622 Y-76.62 Z-0.503
X-67.617 Y-76.664 Z-0.505
X-67.597 Y-76.704 Z-0.506
X-67.565 Y-76.734 Z-0.508
X-67.523 Y-76.751 Z-0.509
X-67.479 Y-76.752 Z-0.511
X-67.437 Y-76.738 Z-0.513
X-67.402 Y-76.709 Z-0.514
X-67.38 Y-76.671 Z-0.516
X-67.373 Y-76.627 Z-0.517
X-67.381 Y-76.583 Z-0.519
X-67.404 Y-76.545 Z-0.52
X-67.439 Y-76.518 Z-0.522
X-67.482 Y-76.505 Z-0.523
X-67.526 Y-76.507 Z-0.525
X-67.567 Y-76.525 Z-0.527
X-67.599 Y-76.555 Z-0.528
X-67.618 Y-76.596 Z-0.53
X-67.622 Y-76.64 Z-0.531
X-67.61 Y-76.683 Z-0.533
X-67.584 Y-76.719 Z-0.534
X-67.547 Y-76.743 Z-0.536
X-67.503 Y-76.753 Z-0.538
X-67.459 Y-76.747 Z-0.539
X-67.42 Y-76.727 Z-0.541
X-67.391 Y-76.693 Z-0.542
X-67.375 Y-76.652 Z-0.544
X-67.374 Y-76.607 Z-0.545
X-67.39 Y-76.565 Z-0.547
X-67.419 Y-76.532 Z-0.548
X-67.458 Y-76.51 Z-0.55
X-67.502 Y-76.504 Z-0.552
X-67.545 Y-76.513 Z-0.553
X-67.583 Y-76.537 Z-0.555
X-67.609 Y-76.573 Z-0.556
X-67.622 Y-76.615 Z-0.558
X-67.618 Y-76.66 Z-0.559
X-67.6 Y-76.7 Z-0.561
X-67.568 Y-76.732 Z-0.563
X-67.528 Y-76.75 Z-0.564
X-67.483 Y-76.753 Z-0.566
X-67.441 Y-76.74 Z-0.567
X-67.405 Y-76.713 Z-0.569
X-67.382 Y-76.675 Z-0.57
X-67.373 Y-76.632 Z-0.572
X-67.379 Y-76.588 Z-0.573
X-67.401 Y-76.549 Z-0.575
X-67.435 Y-76.52 Z-0.577
X-67.477 Y-76.505 Z-0.578
X-67.522 Y-76.506 Z-0.58
X-67.563 Y-76.522 Z-0.581
X-67.596 Y-76.552 Z-0.583
X-67.617 Y-76.591 Z-0.584
X-67.622 Y-76.636 Z-0.586
X-67.612 Y-76.679 Z-0.588
X-67.587 Y-76.716 Z-0.589
X-67.551 Y-76.742 Z-0.591
X-67.508 Y-76.753 Z-0.592
X-67.463 Y-76.749 Z-0.594
X-67.423 Y-76.729 Z-0.595
X-67.393 Y-76.697 Z-0.597
X-67.376 Y-76.656 Z-0.598
X-67.374 Y-76.611 Z-0.6
X-67.388 Y-76.569 Z-0.602
X-67.415 Y-76.534 Z-0.603
X-67.454 Y-76.512 Z-0.605
X-67.497 Y-76.504 Z-0.606
X-67.541 Y-76.511 Z-0.608
X-67.579 Y-76.534 Z-0.609
X-67.607 Y-76.569 Z-0.611
X-67.621 Y-76.611 Z-0.613
X-67.62 Y-76.655 Z-0.614
X-67.602 Y-76.697 Z-0.616
X-67.572 Y-76.729 Z-0.617
X-67.532 Y-76.749 Z-0.619
X-67.488 Y-76.753 Z-0.62
X-67.445 Y-76.742 Z-0.622
X-67.408 Y-76.716 Z-0.623
X-67.383 Y-76.679 Z-0.625
X-67.373 Y-76.636 Z-0.627
X-67.378 Y-76.592 Z-0.628
X-67.398 Y-76.552 Z-0.63
X-67.431 Y-76.522 Z-0.631
X-67.473 Y-76.506 Z-0.633
X-67.517 Y-76.505 Z-0.634
X-67.559 Y-76.52 Z-0.636
X-67.593 Y-76.548 Z-0.638
X-67.615 Y-76.587 Z-0.639
X-67.622 Y-76.631 Z-0.641
X-67.614 Y-76.675 Z-0.642
X-67.59 Y-76.712 Z-0.644
X-67.555 Y-76.74 Z-0.645
X-67.512 Y-76.753 Z-0.647
X-67.468 Y-76.75 Z-0.648
X-67.427 Y-76.732 Z-0.65
X-67.395 Y-76.701 Z-0.652
X-67.377 Y-76.66 Z-0.653
X-67.373 Y-76.616 Z-0.655
X-67.385 Y-76.573 Z-0.656
X-67.412 Y-76.537 Z-0.658
X-67.449 Y-76.513 Z-0.659
X-67.493 Y-76.504 Z-0.661
X-67.537 Y-76.51 Z-0.663
X-67.576 Y-76.531 Z-0.664
X-67.605 Y-76.565 Z-0.666
X-67.621 Y-76.607 Z-0.667
X-67.62 Y-76.651 Z-0.669
X-67.605 Y-76.693 Z-0.67
X-67.575 Y-76.726 Z-0.672
X-67.536 Y-76.747 Z-0.673
X-67.492 Y-76.753 Z-0.675
X-67.449 Y-76.744 Z-0.677
X-67.411 Y-76.719 Z-0.678
X-67.385 Y-76.683 Z-0.68
X-67.373 Y-76.64 Z-0.681
X-67.377 Y-76.596 Z-0.683
X-67.396 Y-76.556 Z-0.684
X-67.428 Y-76.525 Z-0.686
X-67.469 Y-76.507 Z-0.688
X-67.513 Y-76.504 Z-0.689
X-67.555 Y-76.518 Z-0.691
X-67.591 Y-76.545 Z-0.692
X-67.614 Y-76.583 Z-0.694
X-67.622 Y-76.627 Z-0.695
X-67.615 Y-76.671 Z-0.697
X-67.593 Y-76.709 Z-0.698
X-67.559 Y-76.737 Z-0.7
X-67.517 Y-76.752 Z-0.702
X-67.472 Y-76.751 Z-0.703
X-67.431 Y-76.734 Z-0.705
X-67.398 Y-76.704 Z-0.706
X-67.378 Y-76.664 Z-0.708
X-67.373 Y-76.62 Z-0.709
X-67.384 Y-76.577 Z-0.711
X-67.409 Y-76.54 Z-0.713
X-67.445 Y-76.515 Z-0.714
X-67.488 Y-76.504 Z-0.716
X-67.533 Y-76.509 Z-0.717
X-67.572 Y-76.529 Z-0.719
X-67.603 Y-76.561 Z-0.72
X-67.62 Y-76.602 Z-0.722
X-67.621 Y-76.647 Z-0.723
X-67.607 Y-76.689 Z-0.725
X-67.579 Y-76.723 Z-0.727
X-67.54 Y-76.746 Z-0.728
X-67.497 Y-76.753 Z-0.73
X-67.453 Y-76.745 Z-0.731
X-67.415 Y-76.722 Z-0.733
X-67.387 Y-76.687 Z-0.734
X-67.374 Y-76.645 Z-0.736
X-67.376 Y-76.6 Z-0.738
X-67.393 Y-76.559 Z-0.739
X-67.424 Y-76.527 Z-0.741
X-67.464 Y-76.508 Z-0.742
X-67.509 Y-76.504 Z-0.744
X-67.551 Y-76.516 Z-0.745
X-67.588 Y-76.542 Z-0.747
X-67.612 Y-76.579 Z-0.748
X-67.622 Y-76.622 Z-0.75
X-67.617 Y-76.666 Z-0.752
X-67.596 Y-76.706 Z-0.753
X-67.562 Y-76.735 Z-0.755
X-67.521 Y-76.751 Z-0.756
X-67.476 Y-76.752 Z-0.758
X-67.435 Y-76.737 Z-0.759
X-67.401 Y-76.708 Z-0.761
X-67.379 Y-76.669 Z-0.763
X-67.373 Y-76.625 Z-0.764
X-67.382 Y-76.581 Z-0.766
X-67.406 Y-76.544 Z-0.767
X-67.441 Y-76.517 Z-0.769
X-67.484 Y-76.504 Z-0.77
X-67.528 Y-76.507 Z-0.772
X-67.569 Y-76.526 Z-0.773
X-67.6 Y-76.557 Z-0.775
X-67.619 Y-76.598 Z-0.777
X-67.622 Y-76.642 Z-0.778
X-67.609 Y-76.685 Z-0.78
X-67.582 Y-76.72 Z-0.781
X-67.545 Y-76.744 Z-0.783
X-67.501 Y-76.753 Z-0.784
X-67.457 Y-76.747 Z-0.786
X-67.418 Y-76.725 Z-0.788
X-67.389 Y-76.691 Z-0.789
X-67.374 Y-76.649 Z-0.791
X-67.375 Y-76.605 Z-0.792
X-67.391 Y-76.563 Z-0.794
X-67.421 Y-76.53 Z-0.795
X-67.46 Y-76.509 Z-0.797
X-67.504 Y-76.504 Z-0.798
X-67.547 Y-76.514 Z-0.8
X-67.584 Y-76.539 Z-0.802
X-67.61 Y-76.575 Z-0.803
X-67.622 Y-76.618 Z-0.805
X-67.618 Y-76.662 Z-0.806
X-67.598 Y-76.702 Z-0.808
X-67.566 Y-76.733 Z-0.809
X-67.525 Y-76.75 Z-0.811
X-67.481 Y-76.752 Z-0.813
X-67.439 Y-76.739 Z-0.814
X-67.404 Y-76.711 Z-0.816
X-67.381 Y-76.673 Z-0.817
X-67.373 Y-76.629 Z-0.819
X-67.38 Y-76.585 Z-0.82
X-67.403 Y-76.547 Z-0.822
X-67.437 Y-76.519 Z-0.823
X-67.48 Y-76.505 Z-0.825
X-67.524 Y-76.506 Z-0.827
X-67.565 Y-76.523 Z-0.828
X-67.598 Y-76.554 Z-0.83
X-67.618 Y-76.594 Z-0.831
X-67.622 Y-76.638 Z-0.833
X-67.611 Y-76.681 Z-0.834
X-67.585 Y-76.717 Z-0.836
X-67.549 Y-76.743 Z-0.838
X-67.505 Y-76.753 Z-0.839
X-67.461 Y-76.748 Z-0.841
X-67.422 Y-76.728 Z-0.842
X-67.392 Y-76.695 Z-0.844
X-67.375 Y-76.654 Z-0.845
X-67.374 Y-76.609 Z-0.847
X-67.389 Y-76.567 Z-0.848
X-67.417 Y-76.533 Z-0.85
X-67.456 Y-76.511 Z-0.852
X-67.5 Y-76.504 Z-0.853
X-67.543 Y-76.512 Z-0.855
X-67.581 Y-76.536 Z-0.856
X-67.608 Y-76.571 Z-0.858
X-67.622 Y-76.613 Z-0.859
X-67.619 Y-76.658 Z-0.861
X-67.601 Y-76.699 Z-0.863
X-67.57 Y-76.73 Z-0.864
X-67.53 Y-76.749 Z-0.866
X-67.485 Y-76.753 Z-0.867
X-67.442 Y-76.741 Z-0.869
X-67.407 Y-76.714 Z-0.87
X-67.382 Y-76.677 Z-0.872
X-67.373 Y-76.634 Z-0.873
X-67.379 Y-76.59 Z-0.875
X-67.4 Y-76.55 Z-0.877
X-67.434 Y-76.521 Z-0.878
X-67.475 Y-76.506 Z-0.88
X-67.52 Z-0.881
X-67.561 Y-76.521 Z-0.883
X-67.595 Y-76.55 Z-0.884
X-67.616 Y-76.589 Z-0.886
X-67.622 Y-76.633 Z-0.888
X-67.613 Y-76.677 Z-0.889
X-67.588 Y-76.714 Z-0.891
X-67.553 Y-76.741 Z-0.892
X-67.51 Y-76.753 Z-0.894
X-67.465 Y-76.749 Z-0.895
X-67.425 Y-76.73 Z-0.897
X-67.394 Y-76.699 Z-0.898
X-67.376 Y-76.658 Z-0.9
X-67.373 Y-76.613 Z-0.902
X-67.387 Y-76.571 Z-0.903
X-67.414 Y-76.536 Z-0.905
X-67.452 Y-76.512 Z-0.906
X-67.495 Y-76.504 Z-0.908
X-67.539 Y-76.511 Z-0.909
X-67.578 Y-76.533 Z-0.911
X-67.606 Y-76.567 Z-0.913
X-67.621 Y-76.609 Z-0.914
X-67.62 Y-76.653 Z-0.916
X-67.603 Y-76.695 Z-0.917
X-67.573 Y-76.728 Z-0.919
X-67.534 Y-76.748 Z-0.92
X-67.49 Y-76.753 Z-0.922
X-67.446 Y-76.743 Z-0.923
X-67.41 Y-76.717 Z-0.925
X-67.384 Y-76.681 Z-0.927
X-67.373 Y-76.638 Z-0.928
X-67.377 Y-76.594 Z-0.93
X-67.397 Y-76.554 Z-0.931
X-67.43 Y-76.523 Z-0.933
X-67.471 Y-76.506 Z-0.934
X-67.515 Y-76.505 Z-0.936
X-67.558 Y-76.519 Z-0.938
X-67.592 Y-76.547 Z-0.939
X-67.615 Y-76.585 Z-0.941
X-67.622 Y-76.629 Z-0.942
X-67.614 Y-76.673 Z-0.944
X-67.591 Y-76.711 Z-0.945
X-67.557 Y-76.739 Z-0.947
X-67.514 Y-76.752 Z-0.948
X-67.47 Y-76.75 Z-0.95
X-67.429 Y-76.733 Z-0.952
X-67.397 Y-76.702 Z-0.953
X-67.377 Y-76.662 Z-0.955
X-67.373 Y-76.618 Z-0.956
X-67.385 Y-76.575 Z-0.958
X-67.411 Y-76.539 Z-0.959
X-67.447 Y-76.514 Z-0.961
X-67.491 Y-76.504 Z-0.963
X-67.535 Y-76.509 Z-0.964
X-67.574 Y-76.53 Z-0.966
X-67.604 Y-76.563 Z-0.967
X-67.62 Y-76.605 Z-0.969
X-67.621 Y-76.649 Z-0.97
X-67.606 Y-76.691 Z-0.972
X-67.577 Y-76.725 Z-0.973
X-67.538 Y-76.747 Z-0.975
X-67.494 Y-76.753 Z-0.977
X-67.451 Y-76.744 Z-0.978
X-67.413 Y-76.721 Z-0.98
X-67.386 Y-76.685 Z-0.981
X-67.373 Y-76.642 Z-0.983
X-67.376 Y-76.598 Z-0.984
X-67.395 Y-76.557 Z-0.986
X-67.426 Y-76.526 Z-0.988
X-67.467 Y-76.507 Z-0.989
X-67.511 Y-76.504 Z-0.991
X-67.554 Y-76.517 Z-0.992
X-67.589 Y-76.544 Z-0.994
X-67.613 Y-76.581 Z-0.995
X-67.622 Y-76.625 Z-0.997
X-67.616 Y-76.669 Z-0.998
X-67.594 Y-76.708 Z-1
G3 X-67.401 Y-76.549 I0.097 J0.079 F2540
X-67.594 Y-76.708 I-0.097 J-0.079
G1 X-67.56 Y-76.736 Z-1.002 F1016
X-67.519 Y-76.752 Z-1.003
X-67.474 Y-76.751 Z-1.005
X-67.433 Y-76.735 Z-1.006
X-67.399 Y-76.706 Z-1.008
X-67.378 Y-76.666 Z-1.009
X-67.373 Y-76.622 Z-1.011
X-67.383 Y-76.579 Z-1.012
X-67.407 Y-76.542 Z-1.014
X-67.443 Y-76.516 Z-1.016
X-67.486 Y-76.504 Z-1.017
X-67.531 Y-76.508 Z-1.019
X-67.571 Y-76.527 Z-1.02
X-67.602 Y-76.559 Z-1.022
X-67.619 Y-76.6 Z-1.023
X-67.621 Y-76.645 Z-1.025
X-67.608 Y-76.687 Z-1.027
X-67.58 Y-76.722 Z-1.028
X-67.542 Y-76.745 Z-1.03
X-67.499 Y-76.753 Z-1.031
X-67.455 Y-76.746 Z-1.033
X-67.416 Y-76.723 Z-1.034
X-67.388 Y-76.689 Z-1.036
X-67.374 Y-76.647 Z-1.038
X-67.375 Y-76.602 Z-1.039
X-67.392 Y-76.561 Z-1.041
X-67.422 Y-76.529 Z-1.042
X-67.462 Y-76.509 Z-1.044
X-67.506 Y-76.504 Z-1.045
X-67.55 Y-76.515 Z-1.047
X-67.586 Y-76.54 Z-1.048
X-67.611 Y-76.577 Z-1.05
X-67.622 Y-76.62 Z-1.052
X-67.617 Y-76.664 Z-1.053
X-67.597 Y-76.704 Z-1.055
X-67.564 Y-76.734 Z-1.056
X-67.523 Y-76.751 Z-1.058
X-67.478 Y-76.752 Z-1.059
X-67.436 Y-76.738 Z-1.061
X-67.402 Y-76.709 Z-1.063
X-67.38 Y-76.671 Z-1.064
X-67.373 Y-76.627 Z-1.066
X-67.381 Y-76.583 Z-1.067
X-67.404 Y-76.545 Z-1.069
X-67.439 Y-76.518 Z-1.07
X-67.482 Y-76.504 Z-1.072
X-67.526 Y-76.507 Z-1.073
X-67.567 Y-76.525 Z-1.075
X-67.599 Y-76.556 Z-1.077
X-67.618 Y-76.596 Z-1.078
X-67.622 Y-76.64 Z-1.08
X-67.61 Y-76.683 Z-1.081
X-67.584 Y-76.719 Z-1.083
X-67.546 Y-76.744 Z-1.084
X-67.503 Y-76.753 Z-1.086
X-67.459 Y-76.747 Z-1.087
X-67.42 Y-76.726 Z-1.089
X-67.39 Y-76.693 Z-1.091
X-67.375 Y-76.651 Z-1.092
X-67.374 Y-76.607 Z-1.094
X-67.39 Y-76.565 Z-1.095
X-67.419 Y-76.531 Z-1.097
X-67.458 Y-76.51 Z-1.098
X-67.502 Y-76.504 Z-1.1
X-67.546 Y-76.513 Z-1.102
X-67.583 Y-76.537 Z-1.103
X-67.609 Y-76.573 Z-1.105
X-67.622 Y-76.616 Z-1.106
X-67.618 Y-76.66 Z-1.108
X-67.6 Y-76.7 Z-1.109
X-67.568 Y-76.732 Z-1.111
X-67.527 Y-76.75 Z-1.113
X-67.483 Y-76.753 Z-1.114
X-67.44 Y-76.74 Z-1.116
X-67.405 Y-76.713 Z-1.117
X-67.381 Y-76.675 Z-1.119
X-67.373 Y-76.631 Z-1.12
X-67.38 Y-76.587 Z-1.122
X-67.401 Y-76.549 Z-1.123
X-67.436 Y-76.52 Z-1.125
X-67.478 Y-76.505 Z-1.127
X-67.522 Y-76.506 Z-1.128
X-67.563 Y-76.522 Z-1.13
X-67.596 Y-76.552 Z-1.131
X-67.617 Y-76.592 Z-1.133
X-67.622 Y-76.636 Z-1.134
X-67.612 Y-76.679 Z-1.136
X-67.587 Y-76.716 Z-1.137
X-67.55 Y-76.742 Z-1.139
X-67.507 Y-76.753 Z-1.141
X-67.463 Y-76.749 Z-1.142
X-67.423 Y-76.729 Z-1.144
X-67.393 Y-76.697 Z-1.145
X-67.375 Y-76.656 Z-1.147
X-67.374 Y-76.611 Z-1.148
X-67.388 Y-76.569 Z-1.15
X-67.416 Y-76.534 Z-1.152
X-67.454 Y-76.511 Z-1.153
X-67.498 Y-76.504 Z-1.155
X-67.541 Y-76.511 Z-1.156
X-67.58 Y-76.534 Z-1.158
X-67.607 Y-76.569 Z-1.159
X-67.621 Y-76.611 Z-1.161
X-67.619 Y-76.656 Z-1.163
X-67.602 Y-76.697 Z-1.164
X-67.572 Y-76.729 Z-1.166
X-67.532 Y-76.749 Z-1.167
X-67.487 Y-76.753 Z-1.169
X-67.444 Y-76.742 Z-1.17
X-67.408 Y-76.716 Z-1.172
X-67.383 Y-76.679 Z-1.173
X-67.373 Y-76.636 Z-1.175
X-67.378 Y-76.591 Z-1.177
X-67.399 Y-76.552 Z-1.178
X-67.432 Y-76.522 Z-1.18
X-67.473 Y-76.506 Z-1.181
X-67.518 Y-76.505 Z-1.183
X-67.56 Y-76.52 Z-1.184
X-67.594 Y-76.549 Z-1.186
X-67.616 Y-76.587 Z-1.188
X-67.622 Y-76.631 Z-1.189
X-67.613 Y-76.675 Z-1.191
X-67.59 Y-76.713 Z-1.192
X-67.554 Y-76.74 Z-1.194
X-67.512 Y-76.753 Z-1.195
X-67.467 Y-76.75 Z-1.197
X-67.427 Y-76.732 Z-1.198
X-67.395 Y-76.7 Z-1.2
X-67.377 Y-76.66 Z-1.202
X-67.373 Y-76.616 Z-1.203
X-67.386 Y-76.573 Z-1.205
X-67.412 Y-76.537 Z-1.206
X-67.45 Y-76.513 Z-1.208
X-67.493 Y-76.504 Z-1.209
X-67.537 Y-76.51 Z-1.211
X-67.576 Y-76.531 Z-1.212
X-67.605 Y-76.565 Z-1.214
X-67.621 Y-76.607 Z-1.216
X-67.62 Y-76.651 Z-1.217
X-67.605 Y-76.693 Z-1.219
X-67.575 Y-76.726 Z-1.22
X-67.536 Y-76.747 Z-1.222
X-67.492 Y-76.753 Z-1.223
X-67.448 Y-76.743 Z-1.225
X-67.411 Y-76.719 Z-1.227
X-67.385 Y-76.683 Z-1.228
X-67.373 Y-76.64 Z-1.23
X-67.377 Y-76.596 Z-1.231
X-67.396 Y-76.556 Z-1.233
X-67.428 Y-76.525 Z-1.234
X-67.469 Y-76.507 Z-1.236
X-67.513 Y-76.505 Z-1.238
X-67.556 Y-76.518 Z-1.239
X-67.591 Y-76.545 Z-1.241
X-67.614 Y-76.583 Z-1.242
X-67.622 Y-76.627 Z-1.244
X-67.615 Y-76.671 Z-1.245
X-67.593 Y-76.709 Z-1.247
X-67.558 Y-76.738 Z-1.248
X-67.516 Y-76.752 Z-1.25
X-67.472 Y-76.751 Z-1.252
X-67.431 Y-76.734 Z-1.253
X-67.398 Y-76.704 Z-1.255
X-67.378 Y-76.664 Z-1.256
X-67.373 Y-76.62 Z-1.258
X-67.384 Y-76.577 Z-1.259
X-67.409 Y-76.54 Z-1.261
X-67.446 Y-76.515 Z-1.262
X-67.489 Y-76.504 Z-1.264
X-67.533 Y-76.509 Z-1.266
X-67.573 Y-76.529 Z-1.267
X-67.603 Y-76.561 Z-1.269
X-67.62 Y-76.603 Z-1.27
X-67.621 Y-76.647 Z-1.272
X-67.607 Y-76.689 Z-1.273
X-67.579 Y-76.724 Z-1.275
X-67.54 Y-76.746 Z-1.277
X-67.496 Y-76.753 Z-1.278
X-67.452 Y-76.745 Z-1.28
X-67.414 Y-76.722 Z-1.281
X-67.387 Y-76.687 Z-1.283
X-67.374 Y-76.644 Z-1.284
X-67.376 Y-76.6 Z-1.286
X-67.394 Y-76.559 Z-1.288
X-67.424 Y-76.527 Z-1.289
X-67.465 Y-76.508 Z-1.291
X-67.509 Y-76.504 Z-1.292
X-67.552 Y-76.516 Z-1.294
X-67.588 Y-76.542 Z-1.295
X-67.612 Y-76.579 Z-1.297
X-67.622 Y-76.623 Z-1.298
X-67.616 Y-76.667 Z-1.3
X-67.596 Y-76.706 Z-1.302
X-67.562 Y-76.735 Z-1.303
X-67.521 Y-76.751 Z-1.305
X-67.476 Y-76.752 Z-1.306
X-67.434 Y-76.736 Z-1.308
X-67.401 Y-76.707 Z-1.309
X-67.379 Y-76.668 Z-1.311
X-67.373 Y-76.624 Z-1.313
X-67.382 Y-76.581 Z-1.314
X-67.406 Y-76.543 Z-1.316
X-67.442 Y-76.517 Z-1.317
X-67.484 Y-76.504 Z-1.319
X-67.529 Y-76.507 Z-1.32
X-67.569 Y-76.526 Z-1.322
X-67.6 Y-76.558 Z-1.323
X-67.619 Y-76.598 Z-1.325
X-67.622 Y-76.643 Z-1.327
X-67.609 Y-76.685 Z-1.328
X-67.582 Y-76.721 Z-1.33
X-67.544 Y-76.744 Z-1.331
X-67.501 Y-76.753 Z-1.333
X-67.457 Y-76.747 Z-1.334
X-67.418 Y-76.725 Z-1.336
X-67.389 Y-76.691 Z-1.337
X-67.374 Y-76.649 Z-1.339
X-67.375 Y-76.604 Z-1.341
X-67.391 Y-76.563 Z-1.342
X-67.421 Y-76.53 Z-1.344
X-67.46 Y-76.509 Z-1.345
X-67.504 Y-76.504 Z-1.347
X-67.548 Y-76.514 Z-1.348
X-67.585 Y-76.539 Z-1.35
X-67.611 Y-76.575 Z-1.352
X-67.622 Y-76.618 Z-1.353
X-67.618 Y-76.662 Z-1.355
X-67.598 Y-76.702 Z-1.356
X-67.566 Y-76.733 Z-1.358
X-67.525 Y-76.75 Z-1.359
X-67.481 Y-76.752 Z-1.361
X-67.438 Y-76.739 Z-1.363
X-67.403 Y-76.711 Z-1.364
X-67.381 Y-76.673 Z-1.366
X-67.373 Y-76.629 Z-1.367
X-67.38 Y-76.585 Z-1.369
X-67.403 Y-76.547 Z-1.37
X-67.438 Y-76.519 Z-1.372
X-67.48 Y-76.505 Z-1.373
X-67.524 Y-76.506 Z-1.375
X-67.565 Y-76.524 Z-1.377
X-67.598 Y-76.554 Z-1.378
X-67.618 Y-76.594 Z-1.38
X-67.622 Y-76.638 Z-1.381
X-67.611 Y-76.681 Z-1.383
X-67.585 Y-76.718 Z-1.384
X-67.548 Y-76.743 Z-1.386
X-67.505 Y-76.753 Z-1.387
X-67.461 Y-76.748 Z-1.389
X-67.421 Y-76.728 Z-1.391
X-67.391 Y-76.695 Z-1.392
X-67.375 Y-76.653 Z-1.394
X-67.374 Y-76.609 Z-1.395
X-67.389 Y-76.567 Z-1.397
X-67.417 Y-76.533 Z-1.398
X-67.456 Y-76.511 Z-1.4
X-67.5 Y-76.504 Z-1.402
X-67.544 Y-76.512 Z-1.403
X-67.581 Y-76.536 Z-1.405
X-67.609 Y-76.571 Z-1.406
X-67.622 Y-76.614 Z-1.408
X-67.619 Y-76.658 Z-1.409
X-67.601 Y-76.699 Z-1.411
X-67.57 Y-76.731 Z-1.413
X-67.529 Y-76.749 Z-1.414
X-67.485 Y-76.753 Z-1.416
X-67.442 Y-76.741 Z-1.417
X-67.406 Y-76.714 Z-1.419
X-67.382 Y-76.677 Z-1.42
X-67.373 Y-76.633 Z-1.422
X-67.379 Y-76.589 Z-1.423
X-67.4 Y-76.55 Z-1.425
X-67.434 Y-76.521 Z-1.427
X-67.476 Y-76.505 Z-1.428
X-67.52 Y-76.506 Z-1.43
X-67.562 Y-76.521 Z-1.431
X-67.595 Y-76.551 Z-1.433
X-67.616 Y-76.59 Z-1.434
X-67.622 Y-76.634 Z-1.436
X-67.613 Y-76.677 Z-1.438
X-67.588 Y-76.714 Z-1.439
X-67.552 Y-76.741 Z-1.441
X-67.509 Y-76.753 Z-1.442
X-67.465 Y-76.749 Z-1.444
X-67.425 Y-76.73 Z-1.445
X-67.394 Y-76.698 Z-1.447
X-67.376 Y-76.658 Z-1.448
X-67.373 Y-76.613 Z-1.45
X-67.387 Y-76.571 Z-1.452
X-67.414 Y-76.536 Z-1.453
X-67.452 Y-76.512 Z-1.455
X-67.496 Y-76.504 Z-1.456
X-67.539 Y-76.511 Z-1.458
X-67.578 Y-76.533 Z-1.459
X-67.606 Y-76.567 Z-1.461
X-67.621 Y-76.609 Z-1.462
X-67.62 Y-76.654 Z-1.464
X-67.603 Y-76.695 Z-1.466
X-67.573 Y-76.728 Z-1.467
X-67.534 Y-76.748 Z-1.469
X-67.489 Y-76.753 Z-1.47
X-67.446 Y-76.742 Z-1.472
X-67.41 Y-76.717 Z-1.473
X-67.384 Y-76.681 Z-1.475
X-67.373 Y-76.638 Z-1.477
X-67.378 Y-76.593 Z-1.478
X-67.397 Y-76.554 Z-1.48
X-67.43 Y-76.523 Z-1.481
X-67.471 Y-76.506 Z-1.483
X-67.516 Y-76.505 Z-1.484
X-67.558 Y-76.519 Z-1.486
X-67.592 Y-76.547 Z-1.488
X-67.615 Y-76.586 Z-1.489
X-67.622 Y-76.629 Z-1.491
X-67.614 Y-76.673 Z-1.492
X-67.591 Y-76.711 Z-1.494
X-67.556 Y-76.739 Z-1.495
X-67.514 Y-76.752 Z-1.497
X-67.469 Y-76.75 Z-1.498
X-67.429 Y-76.733 Z-1.5
G3 X-67.566 Y-76.524 I-0.069 J0.104 F2540
X-67.429 Y-76.733 I0.069 J-0.104
G1 X-67.396 Y-76.702 Z-1.502 F1016
X-67.377 Y-76.662 Z-1.503
X-67.373 Y-76.618 Z-1.505
X-67.385 Y-76.575 Z-1.506
X-67.411 Y-76.539 Z-1.508
X-67.448 Y-76.514 Z-1.509
X-67.491 Y-76.504 Z-1.511
X-67.535 Y-76.509 Z-1.513
X-67.575 Y-76.53 Z-1.514
X-67.604 Y-76.563 Z-1.516
X-67.62 Y-76.605 Z-1.517
X-67.621 Y-76.649 Z-1.519
X-67.606 Y-76.691 Z-1.52
X-67.577 Y-76.725 Z-1.522
X-67.538 Y-76.747 Z-1.523
X-67.494 Y-76.753 Z-1.525
X-67.45 Y-76.744 Z-1.527
X-67.413 Y-76.72 Z-1.528
X-67.386 Y-76.685 Z-1.53
X-67.373 Y-76.642 Z-1.531
X-67.376 Y-76.598 Z-1.533
X-67.395 Y-76.557 Z-1.534
X-67.426 Y-76.526 Z-1.536
X-67.467 Y-76.507 Z-1.538
X-67.511 Y-76.504 Z-1.539
X-67.554 Y-76.517 Z-1.541
X-67.589 Y-76.544 Z-1.542
X-67.613 Y-76.581 Z-1.544
X-67.622 Y-76.625 Z-1.545
X-67.616 Y-76.669 Z-1.547
X-67.594 Y-76.708 Z-1.548
X-67.56 Y-76.737 Z-1.55
X-67.518 Y-76.752 Z-1.552
X-67.474 Y-76.751 Z-1.553
X-67.432 Y-76.735 Z-1.555
X-67.399 Y-76.706 Z-1.556
X-67.378 Y-76.666 Z-1.558
X-67.373 Y-76.622 Z-1.559
X-67.383 Y-76.579 Z-1.561
X-67.408 Y-76.542 Z-1.563
X-67.444 Y-76.516 Z-1.564
X-67.487 Y-76.504 Z-1.566
X-67.531 Y-76.508 Z-1.567
X-67.571 Y-76.527 Z-1.569
X-67.602 Y-76.56 Z-1.57
X-67.619 Y-76.601 Z-1.572
X-67.621 Y-76.645 Z-1.573
X-67.608 Y-76.687 Z-1.575
X-67.58 Y-76.722 Z-1.577
X-67.542 Y-76.745 Z-1.578
X-67.498 Y-76.753 Z-1.58
X-67.454 Y-76.746 Z-1.581
X-67.416 Y-76.723 Z-1.583
X-67.388 Y-76.689 Z-1.584
X-67.374 Y-76.647 Z-1.586
X-67.375 Y-76.602 Z-1.587
X-67.392 Y-76.561 Z-1.589
X-67.423 Y-76.528 Z-1.591
X-67.463 Y-76.509 Z-1.592
X-67.507 Y-76.504 Z-1.594
X-67.55 Y-76.515 Z-1.595
X-67.586 Y-76.541 Z-1.597
X-67.612 Y-76.577 Z-1.598
X-67.622 Y-76.621 Z-1.6
X-67.617 Y-76.665 Z-1.602
X-67.597 Y-76.704 Z-1.603
X-67.564 Y-76.734 Z-1.605
X-67.523 Y-76.751 Z-1.606
X-67.478 Y-76.752 Z-1.608
X-67.436 Y-76.737 Z-1.609
X-67.402 Y-76.709 Z-1.611
X-67.38 Y-76.67 Z-1.613
X-67.373 Y-76.626 Z-1.614
X-67.381 Y-76.583 Z-1.616
X-67.405 Y-76.545 Z-1.617
X-67.44 Y-76.518 Z-1.619
X-67.482 Y-76.504 Z-1.62
X-67.527 Y-76.507 Z-1.622
X-67.567 Y-76.525 Z-1.623
X-67.599 Y-76.556 Z-1.625
X-67.618 Y-76.596 Z-1.627
X-67.622 Y-76.641 Z-1.628
X-67.61 Y-76.683 Z-1.63
X-67.583 Y-76.719 Z-1.631
X-67.546 Y-76.744 Z-1.633
X-67.503 Y-76.753 Z-1.634
X-67.459 Y-76.747 Z-1.636
X-67.419 Y-76.726 Z-1.638
X-67.39 Y-76.693 Z-1.639
X-67.375 Y-76.651 Z-1.641
X-67.374 Y-76.606 Z-1.642
X-67.39 Y-76.565 Z-1.644
X-67.419 Y-76.531 Z-1.645
X-67.458 Y-76.51 Z-1.647
X-67.502 Y-76.504 Z-1.648
X-67.546 Y-76.513 Z-1.65
X-67.583 Y-76.538 Z-1.652
X-67.61 Y-76.573 Z-1.653
X-67.622 Y-76.616 Z-1.655
X-67.618 Y-76.66 Z-1.656
X-67.599 Y-76.701 Z-1.658
X-67.568 Y-76.732 Z-1.659
X-67.527 Y-76.75 Z-1.661
X-67.483 Y-76.753 Z-1.663
X-67.44 Y-76.739 Z-1.664
X-67.405 Y-76.712 Z-1.666
X-67.381 Y-76.675 Z-1.667
X-67.373 Y-76.631 Z-1.669
X-67.38 Y-76.587 Z-1.67
X-67.402 Y-76.548 Z-1.672
X-67.436 Y-76.52 Z-1.673
X-67.478 Y-76.505 Z-1.675
X-67.522 Y-76.506 Z-1.677
X-67.564 Y-76.523 Z-1.678
X-67.597 Y-76.552 Z-1.68
X-67.617 Y-76.592 Z-1.681
X-67.622 Y-76.636 Z-1.683
X-67.612 Y-76.679 Z-1.684
X-67.587 Y-76.716 Z-1.686
X-67.55 Y-76.742 Z-1.688
X-67.507 Y-76.753 Z-1.689
X-67.463 Y-76.749 Z-1.691
X-67.423 Y-76.729 Z-1.692
X-67.393 Y-76.696 Z-1.694
X-67.375 Y-76.655 Z-1.695
X-67.374 Y-76.611 Z-1.697
X-67.388 Y-76.569 Z-1.698
X-67.416 Y-76.534 Z-1.7
X-67.454 Y-76.511 Z-1.702
X-67.498 Y-76.504 Z-1.703
X-67.542 Y-76.512 Z-1.705
X-67.58 Y-76.535 Z-1.706
X-67.608 Y-76.569 Z-1.708
X-67.621 Y-76.612 Z-1.709
X-67.619 Y-76.656 Z-1.711
X-67.602 Y-76.697 Z-1.712
X-67.571 Y-76.729 Z-1.714
X-67.531 Y-76.749 Z-1.716
X-67.487 Y-76.753 Z-1.717
X-67.444 Y-76.741 Z-1.719
X-67.408 Y-76.716 Z-1.72
X-67.383 Y-76.679 Z-1.722
X-67.373 Y-76.635 Z-1.723
X-67.378 Y-76.591 Z-1.725
X-67.399 Y-76.552 Z-1.727
X-67.432 Y-76.522 Z-1.728
X-67.474 Y-76.506 Z-1.73
X-67.518 Y-76.505 Z-1.731
X-67.56 Y-76.52 Z-1.733
X-67.594 Y-76.549 Z-1.734
X-67.616 Y-76.588 Z-1.736
X-67.622 Y-76.632 Z-1.738
X-67.613 Y-76.675 Z-1.739
X-67.59 Y-76.713 Z-1.741
X-67.554 Y-76.74 Z-1.742
X-67.512 Y-76.753 Z-1.744
X-67.467 Y-76.75 Z-1.745
X-67.427 Y-76.731 Z-1.747
X-67.395 Y-76.7 Z-1.748
X-67.376 Y-76.66 Z-1.75
X-67.373 Y-76.615 Z-1.752
X-67.386 Y-76.572 Z-1.753
X-67.413 Y-76.537 Z-1.755
X-67.45 Y-76.513 Z-1.756
X-67.494 Y-76.504 Z-1.758
X-67.538 Y-76.51 Z-1.759
X-67.576 Y-76.532 Z-1.761
X-67.605 Y-76.565 Z-1.763
X-67.621 Y-76.607 Z-1.764
X-67.62 Y-76.652 Z-1.766
X-67.604 Y-76.693 Z-1.767
X-67.575 Y-76.727 Z-1.769
X-67.536 Y-76.748 Z-1.77
X-67.491 Y-76.753 Z-1.772
X-67.448 Y-76.743 Z-1.773
X-67.411 Y-76.719 Z-1.775
X-67.385 Y-76.683 Z-1.777
X-67.373 Y-76.64 Z-1.778
X-67.377 Y-76.595 Z-1.78
X-67.396 Y-76.555 Z-1.781
X-67.428 Y-76.524 Z-1.783
X-67.469 Y-76.507 Z-1.784
X-67.514 Y-76.505 Z-1.786
X-67.556 Y-76.518 Z-1.788
X-67.591 Y-76.546 Z-1.789
X-67.614 Y-76.584 Z-1.791
X-67.622 Y-76.627 Z-1.792
X-67.615 Y-76.671 Z-1.794
X-67.593 Y-76.71 Z-1.795
X-67.558 Y-76.738 Z-1.797
X-67.516 Y-76.752 Z-1.798
X-67.471 Y-76.751 Z-1.8
X-67.43 Y-76.734 Z-1.802
X-67.398 Y-76.704 Z-1.803
X-67.378 Y-76.664 Z-1.805
X-67.373 Y-76.62 Z-1.806
X-67.384 Y-76.576 Z-1.808
X-67.409 Y-76.54 Z-1.809
X-67.446 Y-76.515 Z-1.811
X-67.489 Y-76.504 Z-1.813
X-67.533 Y-76.509 Z-1.814
X-67.573 Y-76.529 Z-1.816
X-67.603 Y-76.562 Z-1.817
X-67.62 Y-76.603 Z-1.819
X-67.621 Y-76.647 Z-1.82
X-67.607 Y-76.69 Z-1.822
X-67.578 Y-76.724 Z-1.823
X-67.54 Y-76.746 Z-1.825
X-67.496 Y-76.753 Z-1.827
X-67.452 Y-76.745 Z-1.828
X-67.414 Y-76.722 Z-1.83
X-67.387 Y-76.687 Z-1.831
X-67.374 Y-76.644 Z-1.833
X-67.376 Y-76.6 Z-1.834
X-67.394 Y-76.559 Z-1.836
X-67.425 Y-76.527 Z-1.837
X-67.465 Y-76.508 Z-1.839
X-67.509 Y-76.504 Z-1.841
X-67.552 Y-76.516 Z-1.842
X-67.588 Y-76.542 Z-1.844
X-67.612 Y-76.58 Z-1.845
X-67.622 Y-76.623 Z-1.847
X-67.616 Y-76.667 Z-1.848
X-67.595 Y-76.706 Z-1.85
X-67.562 Y-76.736 Z-1.852
X-67.52 Y-76.751 Z-1.853
X-67.476 Y-76.752 Z-1.855
X-67.434 Y-76.736 Z-1.856
X-67.4 Y-76.707 Z-1.858
X-67.379 Y-76.668 Z-1.859
X-67.373 Y-76.624 Z-1.861
X-67.382 Y-76.581 Z-1.863
X-67.406 Y-76.543 Z-1.864
X-67.442 Y-76.517 Z-1.866
X-67.485 Y-76.504 Z-1.867
X-67.529 Y-76.508 Z-1.869
X-67.569 Y-76.526 Z-1.87
X-67.601 Y-76.558 Z-1.872
X-67.619 Y-76.599 Z-1.873
X-67.622 Y-76.643 Z-1.875
X-67.609 Y-76.686 Z-1.877
X-67.582 Y-76.721 Z-1.878
X-67.544 Y-76.745 Z-1.88
X-67.5 Y-76.753 Z-1.881
X-67.456 Y-76.746 Z-1.883
X-67.418 Y-76.725 Z-1.884
X-67.389 Y-76.69 Z-1.886
X-67.374 Y-76.649 Z-1.888
X-67.375 Y-76.604 Z-1.889
X-67.391 Y-76.563 Z-1.891
X-67.421 Y-76.53 Z-1.892
X-67.461 Y-76.509 Z-1.894
X-67.505 Y-76.504 Z-1.895
X-67.548 Y-76.514 Z-1.897
X-67.585 Y-76.539 Z-1.898
X-67.611 Y-76.575 Z-1.9
X-67.622 Y-76.618 Z-1.902
X-67.618 Y-76.663 Z-1.903
X-67.598 Y-76.703 Z-1.905
X-67.566 Y-76.733 Z-1.906
X-67.525 Y-76.75 Z-1.908
X-67.48 Y-76.752 Z-1.909
X-67.438 Y-76.738 Z-1.911
X-67.403 Y-76.711 Z-1.913
X-67.38 Y-76.672 Z-1.914
X-67.373 Y-76.628 Z-1.916
X-67.38 Y-76.585 Z-1.917
X-67.403 Y-76.546 Z-1.919
X-67.438 Y-76.519 Z-1.92
X-67.48 Y-76.505 Z-1.922
X-67.525 Y-76.507 Z-1.923
X-67.566 Y-76.524 Z-1.925
X-67.598 Y-76.554 Z-1.927
X-67.618 Y-76.594 Z-1.928
X-67.622 Y-76.639 Z-1.93
X-67.611 Y-76.682 Z-1.931
X-67.585 Y-76.718 Z-1.933
X-67.548 Y-76.743 Z-1.934
X-67.505 Y-76.753 Z-1.936
X-67.461 Y-76.748 Z-1.938
X-67.421 Y-76.727 Z-1.939
X-67.391 Y-76.694 Z-1.941
X-67.375 Y-76.653 Z-1.942
X-67.374 Y-76.608 Z-1.944
X-67.389 Y-76.566 Z-1.945
X-67.418 Y-76.532 Z-1.947
X-67.456 Y-76.51 Z-1.948
X-67.5 Y-76.504 Z-1.95
X-67.544 Y-76.512 Z-1.952
X-67.582 Y-76.536 Z-1.953
X-67.609 Y-76.571 Z-1.955
X-67.622 Y-76.614 Z-1.956
X-67.619 Y-76.658 Z-1.958
X-67.601 Y-76.699 Z-1.959
X-67.569 Y-76.731 Z-1.961
X-67.529 Y-76.749 Z-1.962
X-67.485 Y-76.753 Z-1.964
X-67.442 Y-76.74 Z-1.966
X-67.406 Y-76.714 Z-1.967
X-67.382 Y-76.676 Z-1.969
X-67.373 Y-76.633 Z-1.97
X-67.379 Y-76.589 Z-1.972
X-67.4 Y-76.55 Z-1.973
X-67.434 Y-76.521 Z-1.975
X-67.476 Y-76.505 Z-1.977
X-67.52 Y-76.506 Z-1.978
X-67.562 Y-76.521 Z-1.98
X-67.595 Y-76.551 Z-1.981
X-67.616 Y-76.59 Z-1.983
X-67.622 Y-76.634 Z-1.984
X-67.612 Y-76.678 Z-1.986
X-67.588 Y-76.715 Z-1.988
X-67.552 Y-76.741 Z-1.989
X-67.509 Y-76.753 Z-1.991
X-67.465 Y-76.749 Z-1.992
X-67.425 Y-76.73 Z-1.994
X-67.394 Y-76.698 Z-1.995
X-67.376 Y-76.657 Z-1.997
X-67.374 Y-76.613 Z-1.998
X-67.387 Y-76.57 Z-2
G3 X-67.608 Y-76.687 I-0.111 J-0.058 F2540
X-67.387 Y-76.57 I0.111 J0.058
G1 X-67.414 Y-76.535 Z-2.002 F1016
X-67.452 Y-76.512 Z-2.003
X-67.496 Y-76.504 Z-2.005
X-67.54 Y-76.511 Z-2.006
X-67.578 Y-76.533 Z-2.008
X-67.607 Y-76.568 Z-2.009
X-67.621 Y-76.61 Z-2.011
X-67.62 Y-76.654 Z-2.013
X-67.603 Y-76.695 Z-2.014
X-67.573 Y-76.728 Z-2.016
X-67.533 Y-76.748 Z-2.017
X-67.489 Y-76.753 Z-2.019
X-67.446 Y-76.742 Z-2.02
X-67.409 Y-76.717 Z-2.022
X-67.384 Y-76.68 Z-2.023
X-67.373 Y-76.637 Z-2.025
X-67.378 Y-76.593 Z-2.027
X-67.398 Y-76.553 Z-2.028
X-67.43 Y-76.523 Z-2.03
X-67.472 Y-76.506 Z-2.031
X-67.516 Y-76.505 Z-2.033
X-67.558 Y-76.519 Z-2.034
X-67.593 Y-76.547 Z-2.036
X-67.615 Y-76.586 Z-2.038
X-67.622 Y-76.63 Z-2.039
X-67.614 Y-76.673 Z-2.041
X-67.591 Y-76.711 Z-2.042
X-67.556 Y-76.739 Z-2.044
X-67.514 Y-76.752 Z-2.045
X-67.469 Y-76.75 Z-2.047
X-67.428 Y-76.733 Z-2.048
X-67.396 Y-76.702 Z-2.05
X-67.377 Y-76.662 Z-2.052
X-67.373 Y-76.617 Z-2.053
X-67.385 Y-76.574 Z-2.055
X-67.411 Y-76.538 Z-2.056
X-67.448 Y-76.514 Z-2.058
X-67.491 Y-76.504 Z-2.059
X-67.536 Y-76.509 Z-2.061
X-67.575 Y-76.53 Z-2.063
X-67.604 Y-76.564 Z-2.064
X-67.62 Y-76.605 Z-2.066
X-67.621 Y-76.65 Z-2.067
X-67.605 Y-76.692 Z-2.069
X-67.576 Y-76.725 Z-2.07
X-67.537 Y-76.747 Z-2.072
X-67.493 Y-76.753 Z-2.073
X-67.45 Y-76.744 Z-2.075
X-67.412 Y-76.72 Z-2.077
X-67.386 Y-76.684 Z-2.078
X-67.373 Y-76.642 Z-2.08
X-67.376 Y-76.597 Z-2.081
X-67.395 Y-76.557 Z-2.083
X-67.427 Y-76.526 Z-2.084
X-67.467 Y-76.507 Z-2.086
X-67.512 Y-76.504 Z-2.087
X-67.554 Y-76.517 Z-2.089
X-67.59 Y-76.544 Z-2.091
X-67.613 Y-76.582 Z-2.092
X-67.622 Y-76.625 Z-2.094
X-67.616 Y-76.669 Z-2.095
X-67.594 Y-76.708 Z-2.097
X-67.56 Y-76.737 Z-2.098
X-67.518 Y-76.752 Z-2.1
X-67.473 Y-76.751 Z-2.102
X-67.432 Y-76.735 Z-2.103
X-67.399 Y-76.705 Z-2.105
X-67.378 Y-76.666 Z-2.106
X-67.373 Y-76.622 Z-2.108
X-67.383 Y-76.578 Z-2.109
X-67.408 Y-76.541 Z-2.111
X-67.444 Y-76.516 Z-2.112
X-67.487 Y-76.504 Z-2.114
X-67.531 Y-76.508 Z-2.116
X-67.571 Y-76.528 Z-2.117
X-67.602 Y-76.56 Z-2.119
X-67.619 Y-76.601 Z-2.12
X-67.621 Y-76.645 Z-2.122
X-67.608 Y-76.688 Z-2.123
X-67.58 Y-76.723 Z-2.125
X-67.542 Y-76.745 Z-2.127
X-67.498 Y-76.753 Z-2.128
X-67.454 Y-76.746 Z-2.13
X-67.416 Y-76.723 Z-2.131
X-67.388 Y-76.688 Z-2.133
X-67.374 Y-76.646 Z-2.134
X-67.375 Y-76.602 Z-2.136
X-67.393 Y-76.561 Z-2.138
X-67.423 Y-76.528 Z-2.139
X-67.463 Y-76.508 Z-2.141
X-67.507 Y-76.504 Z-2.142
X-67.55 Y-76.515 Z-2.144
X-67.587 Y-76.541 Z-2.145
X-67.612 Y-76.578 Z-2.147
X-67.622 Y-76.621 Z-2.148
X-67.617 Y-76.665 Z-2.15
X-67.597 Y-76.705 Z-2.152
X-67.564 Y-76.735 Z-2.153
X-67.522 Y-76.751 Z-2.155
X-67.478 Y-76.752 Z-2.156
X-67.436 Y-76.737 Z-2.158
X-67.402 Y-76.709 Z-2.159
X-67.38 Y-76.67 Z-2.161
X-67.373 Y-76.626 Z-2.163
X-67.381 Y-76.582 Z-2.164
X-67.405 Y-76.545 Z-2.166
X-67.44 Y-76.517 Z-2.167
X-67.483 Y-76.504 Z-2.169
X-67.527 Y-76.507 Z-2.17
X-67.568 Y-76.525 Z-2.172
X-67.599 Y-76.556 Z-2.173
X-67.618 Y-76.597 Z-2.175
X-67.622 Y-76.641 Z-2.177
X-67.61 Y-76.684 Z-2.178
X-67.583 Y-76.72 Z-2.18
X-67.546 Y-76.744 Z-2.181
X-67.502 Y-76.753 Z-2.183
X-67.458 Y-76.747 Z-2.184
X-67.419 Y-76.726 Z-2.186
X-67.39 Y-76.692 Z-2.188
X-67.374 Y-76.651 Z-2.189
X-67.375 Y-76.606 Z-2.191
X-67.39 Y-76.564 Z-2.192
X-67.419 Y-76.531 Z-2.194
X-67.459 Y-76.51 Z-2.195
X-67.503 Y-76.504 Z-2.197
X-67.546 Y-76.513 Z-2.198
X-67.583 Y-76.538 Z-2.2
X-67.61 Y-76.574 Z-2.202
X-67.622 Y-76.616 Z-2.203
X-67.618 Y-76.661 Z-2.205
X-67.599 Y-76.701 Z-2.206
X-67.567 Y-76.732 Z-2.208
X-67.527 Y-76.75 Z-2.209
X-67.482 Y-76.753 Z-2.211
X-67.44 Y-76.739 Z-2.212
X-67.405 Y-76.712 Z-2.214
X-67.381 Y-76.674 Z-2.216
X-67.373 Y-76.631 Z-2.217
X-67.38 Y-76.587 Z-2.219
X-67.402 Y-76.548 Z-2.22
X-67.436 Y-76.52 Z-2.222
X-67.478 Y-76.505 Z-2.223
X-67.523 Y-76.506 Z-2.225
X-67.564 Y-76.523 Z-2.227
X-67.597 Y-76.553 Z-2.228
X-67.617 Y-76.592 Z-2.23
X-67.622 Y-76.637 Z-2.231
X-67.611 Y-76.68 Z-2.233
X-67.586 Y-76.716 Z-2.234
X-67.55 Y-76.742 Z-2.236
X-67.507 Y-76.753 Z-2.237
X-67.463 Y-76.748 Z-2.239
X-67.423 Y-76.729 Z-2.241
X-67.392 Y-76.696 Z-2.242
X-67.375 Y-76.655 Z-2.244
X-67.374 Y-76.61 Z-2.245
X-67.388 Y-76.568 Z-2.247
X-67.416 Y-76.534 Z-2.248
X-67.454 Y-76.511 Z-2.25
X-67.498 Y-76.504 Z-2.252
X-67.542 Y-76.512 Z-2.253
X-67.58 Y-76.535 Z-2.255
X-67.608 Y-76.57 Z-2.256
X-67.621 Y-76.612 Z-2.258
X-67.619 Y-76.656 Z-2.259
X-67.602 Y-76.697 Z-2.261
X-67.571 Y-76.73 Z-2.263
X-67.531 Y-76.749 Z-2.264
X-67.487 Y-76.753 Z-2.266
X-67.444 Y-76.741 Z-2.267
X-67.408 Y-76.715 Z-2.269
X-67.383 Y-76.678 Z-2.27
X-67.373 Y-76.635 Z-2.272
X-67.378 Y-76.591 Z-2.273
X-67.399 Y-76.551 Z-2.275
X-67.432 Y-76.522 Z-2.277
X-67.474 Y-76.506 Z-2.278
X-67.518 Y-76.505 Z-2.28
X-67.56 Y-76.52 Z-2.281
X-67.594 Y-76.549 Z-2.283
X-67.616 Y-76.588 Z-2.284
X-67.622 Y-76.632 Z-2.286
X-67.613 Y-76.676 Z-2.288
X-67.589 Y-76.713 Z-2.289
X-67.554 Y-76.74 Z-2.291
X-67.511 Y-76.753 Z-2.292
X-67.467 Y-76.75 Z-2.294
X-67.426 Y-76.731 Z-2.295
X-67.395 Y-76.7 Z-2.297
X-67.376 Y-76.659 Z-2.298
X-67.373 Y-76.615 Z-2.3
X-67.386 Y-76.572 Z-2.302
X-67.413 Y-76.537 Z-2.303
X-67.45 Y-76.513 Z-2.305
X-67.494 Y-76.504 Z-2.306
X-67.538 Y-76.51 Z-2.308
X-67.577 Y-76.532 Z-2.309
X-67.606 Y-76.566 Z-2.311
X-67.621 Y-76.608 Z-2.313
X-67.62 Y-76.652 Z-2.314
X-67.604 Y-76.694 Z-2.316
X-67.575 Y-76.727 Z-2.317
X-67.535 Y-76.748 Z-2.319
X-67.491 Y-76.753 Z-2.32
X-67.448 Y-76.743 Z-2.322
X-67.411 Y-76.718 Z-2.323
X-67.385 Y-76.682 Z-2.325
X-67.373 Y-76.639 Z-2.327
X-67.377 Y-76.595 Z-2.328
X-67.396 Y-76.555 Z-2.33
X-67.429 Y-76.524 Z-2.331
X-67.469 Y-76.507 Z-2.333
X-67.514 Y-76.505 Z-2.334
X-67.556 Y-76.518 Z-2.336
X-67.591 Y-76.546 Z-2.337
X-67.614 Y-76.584 Z-2.339
X-67.622 Y-76.628 Z-2.341
X-67.615 Y-76.672 Z-2.342
X-67.592 Y-76.71 Z-2.344
X-67.558 Y-76.738 Z-2.345
X-67.516 Y-76.752 Z-2.347
X-67.471 Y-76.751 Z-2.348
X-67.43 Y-76.734 Z-2.35
X-67.397 Y-76.703 Z-2.352
X-67.378 Y-76.664 Z-2.353
X-67.373 Y-76.619 Z-2.355
X-67.384 Y-76.576 Z-2.356
X-67.41 Y-76.54 Z-2.358
X-67.446 Y-76.515 Z-2.359
X-67.489 Y-76.504 Z-2.361
X-67.534 Y-76.509 Z-2.362
X-67.573 Y-76.529 Z-2.364
X-67.603 Y-76.562 Z-2.366
X-67.62 Y-76.603 Z-2.367
X-67.621 Y-76.648 Z-2.369
X-67.606 Y-76.69 Z-2.37
X-67.578 Y-76.724 Z-2.372
X-67.539 Y-76.746 Z-2.373
X-67.496 Y-76.753 Z-2.375
X-67.452 Y-76.745 Z-2.377
X-67.414 Y-76.721 Z-2.378
X-67.387 Y-76.686 Z-2.38
X-67.373 Y-76.644 Z-2.381
X-67.376 Y-76.599 Z-2.383
X-67.394 Y-76.559 Z-2.384
X-67.425 Y-76.527 Z-2.386
X-67.465 Y-76.508 Z-2.388
X-67.51 Y-76.504 Z-2.389
X-67.552 Y-76.516 Z-2.391
X-67.588 Y-76.543 Z-2.392
X-67.613 Y-76.58 Z-2.394
X-67.622 Y-76.623 Z-2.395
X-67.616 Y-76.667 Z-2.397
X-67.595 Y-76.706 Z-2.398
X-67.562 Y-76.736 Z-2.4
X-67.52 Y-76.751 Z-2.402
X-67.475 Y-76.752 Z-2.403
X-67.434 Y-76.736 Z-2.405
X-67.4 Y-76.707 Z-2.406
X-67.379 Y-76.668 Z-2.408
X-67.373 Y-76.624 Z-2.409
X-67.382 Y-76.58 Z-2.411
X-67.406 Y-76.543 Z-2.413
X-67.442 Y-76.516 Z-2.414
X-67.485 Y-76.504 Z-2.416
X-67.529 Y-76.508 Z-2.417
X-67.57 Y-76.526 Z-2.419
X-67.601 Y-76.558 Z-2.42
X-67.619 Y-76.599 Z-2.422
X-67.622 Y-76.643 Z-2.423
X-67.609 Y-76.686 Z-2.425
X-67.581 Y-76.721 Z-2.427
X-67.544 Y-76.745 Z-2.428
X-67.5 Y-76.753 Z-2.43
X-67.456 Y-76.746 Z-2.431
X-67.417 Y-76.724 Z-2.433
X-67.389 Y-76.69 Z-2.434
X-67.374 Y-76.648 Z-2.436
X-67.375 Y-76.604 Z-2.438
X-67.391 Y-76.562 Z-2.439
X-67.421 Y-76.529 Z-2.441
X-67.461 Y-76.509 Z-2.442
X-67.505 Y-76.504 Z-2.444
X-67.548 Y-76.514 Z-2.445
X-67.585 Y-76.539 Z-2.447
X-67.611 Y-76.576 Z-2.448
X-67.622 Y-76.619 Z-2.45
X-67.618 Y-76.663 Z-2.452
X-67.598 Y-76.703 Z-2.453
X-67.565 Y-76.733 Z-2.455
X-67.524 Y-76.751 Z-2.456
X-67.48 Y-76.752 Z-2.458
X-67.438 Y-76.738 Z-2.459
X-67.403 Y-76.71 Z-2.461
X-67.38 Y-76.672 Z-2.462
X-67.373 Y-76.628 Z-2.464
X-67.381 Y-76.584 Z-2.466
X-67.403 Y-76.546 Z-2.467
X-67.438 Y-76.518 Z-2.469
X-67.481 Y-76.505 Z-2.47
X-67.525 Y-76.507 Z-2.472
X-67.566 Y-76.524 Z-2.473
X-67.598 Y-76.555 Z-2.475
X-67.618 Y-76.595 Z-2.477
X-67.622 Y-76.639 Z-2.478
X-67.61 Y-76.682 Z-2.48
X-67.585 Y-76.718 Z-2.481
X-67.548 Y-76.743 Z-2.483
X-67.504 Y-76.753 Z-2.484
X-67.46 Y-76.748 Z-2.486
X-67.421 Y-76.727 Z-2.487
X-67.391 Y-76.694 Z-2.489
X-67.375 Y-76.653 Z-2.491
X-67.374 Y-76.608 Z-2.492
X-67.389 Y-76.566 Z-2.494
X-67.418 Y-76.532 Z-2.495
X-67.457 Y-76.51 Z-2.497
X-67.501 Y-76.504 Z-2.498
X-67.544 Y-76.513 Z-2.5
G3 X-67.451 Y-76.744 I0.047 J-0.116 F2540
X-67.544 Y-76.513 I-0.047 J0.116
G1 X-67.582 Y-76.536 Z-2.502 F1016
X-67.609 Y-76.572 Z-2.503
X-67.622 Y-76.614 Z-2.505
X-67.619 Y-76.659 Z-2.506
X-67.6 Y-76.699 Z-2.508
X-67.569 Y-76.731 Z-2.509
X-67.529 Y-76.75 Z-2.511
X-67.484 Y-76.753 Z-2.513
X-67.442 Y-76.74 Z-2.514
X-67.406 Y-76.714 Z-2.516
X-67.382 Y-76.676 Z-2.517
X-67.373 Y-76.633 Z-2.519
X-67.379 Y-76.589 Z-2.52
X-67.401 Y-76.55 Z-2.522
X-67.434 Y-76.521 Z-2.523
X-67.476 Y-76.505 Z-2.525
X-67.521 Y-76.506 Z-2.527
X-67.562 Y-76.522 Z-2.528
X-67.596 Y-76.551 Z-2.53
X-67.617 Y-76.59 Z-2.531
X-67.622 Y-76.634 Z-2.533
X-67.612 Y-76.678 Z-2.534
X-67.588 Y-76.715 Z-2.536
X-67.552 Y-76.741 Z-2.538
X-67.509 Y-76.753 Z-2.539
X-67.464 Y-76.749 Z-2.541
X-67.424 Y-76.73 Z-2.542
X-67.393 Y-76.698 Z-2.544
X-67.376 Y-76.657 Z-2.545
X-67.374 Y-76.612 Z-2.547
X-67.387 Y-76.57 Z-2.548
X-67.415 Y-76.535 Z-2.55
X-67.453 Y-76.512 Z-2.552
X-67.496 Y-76.504 Z-2.553
X-67.54 Y-76.511 Z-2.555
X-67.579 Y-76.533 Z-2.556
X-67.607 Y-76.568 Z-2.558
X-67.621 Y-76.61 Z-2.559
X-67.62 Y-76.654 Z-2.561
X-67.603 Y-76.696 Z-2.563
X-67.573 Y-76.728 Z-2.564
X-67.533 Y-76.748 Z-2.566
X-67.489 Y-76.753 Z-2.567
X-67.446 Y-76.742 Z-2.569
X-67.409 Y-76.717 Z-2.57
X-67.384 Y-76.68 Z-2.572
X-67.373 Y-76.637 Z-2.573
X-67.378 Y-76.593 Z-2.575
X-67.398 Y-76.553 Z-2.577
X-67.431 Y-76.523 Z-2.578
