(1001)
G90 G94
G17
G21
(When using Fusion 360 for Personal Use, the feedrate of)
(rapid moves is reduced to match the feedrate of cutting)
(moves, which can increase machining time. Unrestricted rapid)
(moves are available with a Fusion 360 Subscription.)

(2D-Kontur11)
S6000 M3
G54
G0 X-14.54 Y-49.318
Z15
G1 Z5 F1500
Z1.8 F300
Z-0.483
G18 G2 X-14.222 Z-0.8 I0.318 K0 F1016
G1 X-13.905
G17 G3 X-13.587 Y-49 I0 J0.318
G1 Y-22.587 F1500
X-18.413
Y-51.412
X-13.587
Y-49
G3 X-13.905 Y-48.682 I-0.318 J0 F1016
G1 X-14.222
G18 G3 X-14.54 Z-0.483 I0 K0.318
G1 Z5 F1500
Y-49.318
Z1 F300
Z-1.283
G2 X-14.222 Z-1.6 I0.318 K0 F1016
G1 X-13.905
G17 G3 X-13.587 Y-49 I0 J0.318
G1 Y-22.587 F1500
X-18.413
Y-51.412
X-13.587
Y-49
G3 X-13.905 Y-48.682 I-0.318 J0 F1016
G1 X-14.222
G18 G3 X-14.54 Z-1.283 I0 K0.317
G1 Z5 F1500
Y-49.318
Z0.2 F300
Z-2.083
G2 X-14.222 Z-2.4 I0.318 K0 F1016
G1 X-13.905
G17 G3 X-13.587 Y-49 I0 J0.318
G1 Y-22.587 F1500
X-18.413
Y-51.412
X-13.587
Y-49
G3 X-13.905 Y-48.682 I-0.318 J0 F1016
G1 X-14.222
G18 G3 X-14.54 Z-2.083 I0 K0.318
G1 Z5 F1500
Y-49.318
Z-0.6 F300
Z-2.883
G2 X-14.222 Z-3.2 I0.318 K0 F1016
G1 X-13.905
G17 G3 X-13.587 Y-49 I0 J0.318
G1 Y-22.587 F1500
X-18.413
Y-51.412
X-13.587
Y-49
G3 X-13.905 Y-48.682 I-0.318 J0 F1016
G1 X-14.222
G18 G3 X-14.54 Z-2.883 I0 K0.318
G1 Z5 F1500
Y-49.318
Z-1.4 F300
Z-3.683
G2 X-14.222 Z-4 I0.318 K0 F1016
G1 X-13.905
G17 G3 X-13.587 Y-49 I0 J0.318
G1 Y-22.587 F1500
X-18.413
Y-51.412
X-13.587
Y-49
G3 X-13.905 Y-48.682 I-0.318 J0 F1016
G1 X-14.222
G18 G3 X-14.54 Z-3.683 I0 K0.318
G1 Z5 F1500
Y-49.318
Z-2.2 F300
Z-4.483
G2 X-14.222 Z-4.8 I0.318 K0 F1016
G1 X-13.905
G17 G3 X-13.587 Y-49 I0 J0.318
G1 Y-22.587 F1500
X-18.413
Y-51.412
X-13.587
Y-49
G3 X-13.905 Y-48.682 I-0.318 J0 F1016
G1 X-14.222
G18 G3 X-14.54 Z-4.483 I0 K0.318
G1 Z5 F1500
Y-49.318
Z-3 F300
Z-4.683
G2 X-14.222 Z-5 I0.318 K0 F1016
G1 X-13.905
G17 G3 X-13.587 Y-49 I0 J0.318
G1 Y-22.587 F1500
X-18.413
Y-51.412
X-13.587
Y-49
G3 X-13.905 Y-48.682 I-0.318 J0 F1016
G1 X-14.222
G18 G3 X-14.54 Z-4.683 I0 K0.318
G1 Z5 F1500
X-22.709 Y-100.045
Z1.8 F300
Z-0.483
G3 X-23.027 Z-0.8 I-0.317 K0 F1016
G1 X-23.344
G17 G3 X-23.662 Y-100.362 I0 J-0.317
X-17 Y-107.024 I6.662 J0 F1500
X-17 Y-93.7 I0 J6.662
X-23.662 Y-100.362 I0 J-6.662
X-23.344 Y-100.68 I0.317 J0 F1016
G1 X-23.027
G18 G2 X-22.709 Z-0.483 I0 K0.318
G1 Z5 F1500
Y-100.045
Z1 F300
Z-1.283
G3 X-23.027 Z-1.6 I-0.317 K0 F1016
G1 X-23.344
G17 G3 X-23.662 Y-100.362 I0 J-0.317
X-17 Y-107.024 I6.662 J0 F1500
X-17 Y-93.7 I0 J6.662
X-23.662 Y-100.362 I0 J-6.662
X-23.344 Y-100.68 I0.317 J0 F1016
G1 X-23.027
G18 G2 X-22.709 Z-1.283 I0 K0.317
G1 Z5 F1500
Y-100.045
Z0.2 F300
Z-2.083
G3 X-23.027 Z-2.4 I-0.317 K0 F1016
G1 X-23.344
G17 G3 X-23.662 Y-100.362 I0 J-0.317
X-17 Y-107.024 I6.662 J0 F1500
X-17 Y-93.7 I0 J6.662
X-23.662 Y-100.362 I0 J-6.662
X-23.344 Y-100.68 I0.317 J0 F1016
G1 X-23.027
G18 G2 X-22.709 Z-2.083 I0 K0.318
G1 Z5 F1500
Y-100.045
Z-0.6 F300
Z-2.883
G3 X-23.027 Z-3.2 I-0.317 K0 F1016
G1 X-23.344
G17 G3 X-23.662 Y-100.362 I0 J-0.317
X-17 Y-107.024 I6.662 J0 F1500
X-17 Y-93.7 I0 J6.662
X-23.662 Y-100.362 I0 J-6.662
X-23.344 Y-100.68 I0.317 J0 F1016
G1 X-23.027
G18 G2 X-22.709 Z-2.883 I0 K0.318
G1 Z5 F1500
Y-100.045
Z-1.4 F300
Z-3.683
G3 X-23.027 Z-4 I-0.317 K0 F1016
G1 X-23.344
G17 G3 X-23.662 Y-100.362 I0 J-0.317
X-17 Y-107.024 I6.662 J0 F1500
X-17 Y-93.7 I0 J6.662
X-23.662 Y-100.362 I0 J-6.662
X-23.344 Y-100.68 I0.317 J0 F1016
G1 X-23.027
G18 G2 X-22.709 Z-3.683 I0 K0.318
G1 Z5 F1500
Y-100.045
Z-2.2 F300
Z-4.483
G3 X-23.027 Z-4.8 I-0.317 K0 F1016
G1 X-23.344
G17 G3 X-23.662 Y-100.362 I0 J-0.317
X-17 Y-107.024 I6.662 J0 F1500
X-17 Y-93.7 I0 J6.662
X-23.662 Y-100.362 I0 J-6.662
X-23.344 Y-100.68 I0.317 J0 F1016
G1 X-23.027
G18 G2 X-22.709 Z-4.483 I0 K0.318
G1 Z5 F1500
Y-100.045
Z-3 F300
Z-4.683
G3 X-23.027 Z-5 I-0.317 K0 F1016
G1 X-23.344
G17 G3 X-23.662 Y-100.362 I0 J-0.317
X-17 Y-107.024 I6.662 J0 F1500
X-17 Y-93.7 I0 J6.662
X-23.662 Y-100.362 I0 J-6.662
X-23.344 Y-100.68 I0.317 J0 F1016
G1 X-23.027
G18 G2 X-22.709 Z-4.683 I0 K0.318
G1 Z15 F1500
G17
(When using Fusion 360 for Personal Use, the feedrate of)
(rapid moves is reduced to match the feedrate of cutting)
(moves, which can increase machining time. Unrestricted rapid)
(moves are available with a Fusion 360 Subscription.)

(2D-Kontur12)
G0 X-44.356 Y-122.13
G1 Z15 F1500
Z5
Z1.8 F300
Z-0.483
Y-122.122 Z-0.553 F1016
Y-122.099 Z-0.62
X-44.354 Y-122.061 Z-0.68
X-44.353 Y-122.011 Z-0.731
X-44.351 Y-121.951 Z-0.769
X-44.349 Y-121.883 Z-0.792
X-44.347 Y-121.813 Z-0.8
X-44.338 Y-121.495
G3 X-44.647 Y-121.169 I-0.317 J0.009
G1 X-83.433 Y-120.061 F1500
G2 X-98.145 Y-104.922 I0.433 J15.139
G1 Y-1
G2 X-96.557 Y0.587 I1.588 J0
G1 X-1
G2 X0.587 Y-1 I0 J-1.587
G1 Y-120.828
G2 X-1.045 Y-122.415 I-1.587 J0
G1 X-44.647 Y-121.169
G3 X-44.973 Y-121.477 I-0.009 J-0.317 F1016
G1 X-44.982 Y-121.795
X-44.984 Y-121.865 Z-0.792
X-44.986 Y-121.932 Z-0.769
X-44.988 Y-121.993 Z-0.731
X-44.989 Y-122.043 Z-0.68
X-44.99 Y-122.081 Z-0.62
X-44.991 Y-122.104 Z-0.553
Y-122.112 Z-0.483
Z5 F1500
X-44.356 Y-122.13
Z1 F300
Z-1.283
Y-122.122 Z-1.353 F1016
Y-122.099 Z-1.42
X-44.354 Y-122.061 Z-1.48
X-44.353 Y-122.011 Z-1.531
X-44.351 Y-121.951 Z-1.569
X-44.349 Y-121.883 Z-1.592
X-44.347 Y-121.813 Z-1.6
X-44.338 Y-121.495
G3 X-44.647 Y-121.169 I-0.317 J0.009
G1 X-83.433 Y-120.061 F1500
G2 X-98.145 Y-104.922 I0.433 J15.139
G1 Y-1
G2 X-96.557 Y0.587 I1.588 J0
G1 X-1
G2 X0.587 Y-1 I0 J-1.587
G1 Y-120.828
G2 X-1.045 Y-122.415 I-1.587 J0
G1 X-44.647 Y-121.169
G3 X-44.973 Y-121.477 I-0.009 J-0.317 F1016
G1 X-44.982 Y-121.795
X-44.984 Y-121.865 Z-1.592
X-44.986 Y-121.932 Z-1.569
X-44.988 Y-121.993 Z-1.531
X-44.989 Y-122.043 Z-1.48
X-44.99 Y-122.081 Z-1.42
X-44.991 Y-122.104 Z-1.353
Y-122.112 Z-1.283
Z5 F1500
X-44.356 Y-122.13
Z0.2 F300
Z-2.083
Y-122.122 Z-2.153 F1016
Y-122.099 Z-2.22
X-44.354 Y-122.061 Z-2.28
X-44.353 Y-122.011 Z-2.331
X-44.351 Y-121.951 Z-2.369
X-44.349 Y-121.883 Z-2.392
X-44.347 Y-121.813 Z-2.4
X-44.338 Y-121.495
G3 X-44.647 Y-121.169 I-0.317 J0.009
G1 X-83.433 Y-120.061 F1500
G2 X-98.145 Y-104.922 I0.433 J15.139
G1 Y-1
G2 X-96.557 Y0.587 I1.588 J0
G1 X-1
G2 X0.587 Y-1 I0 J-1.587
G1 Y-120.828
G2 X-1.045 Y-122.415 I-1.587 J0
G1 X-44.647 Y-121.169
G3 X-44.973 Y-121.477 I-0.009 J-0.317 F1016
G1 X-44.982 Y-121.795
X-44.984 Y-121.865 Z-2.392
X-44.986 Y-121.932 Z-2.369
X-44.988 Y-121.993 Z-2.331
X-44.989 Y-122.043 Z-2.28
X-44.99 Y-122.081 Z-2.22
X-44.991 Y-122.104 Z-2.153
Y-122.112 Z-2.083
Z5 F1500
X-44.356 Y-122.13
Z-0.6 F300
Z-2.883
Y-122.122 Z-2.953 F1016
Y-122.099 Z-3.02
X-44.354 Y-122.061 Z-3.08
X-44.353 Y-122.011 Z-3.131
X-44.351 Y-121.951 Z-3.169
X-44.349 Y-121.883 Z-3.192
X-44.347 Y-121.813 Z-3.2
X-44.338 Y-121.495
G3 X-44.647 Y-121.169 I-0.317 J0.009
G1 X-83.433 Y-120.061 F1500
G2 X-98.145 Y-104.922 I0.433 J15.139
G1 Y-1
G2 X-96.557 Y0.587 I1.588 J0
G1 X-1
G2 X0.587 Y-1 I0 J-1.587
G1 Y-120.828
G2 X-1.045 Y-122.415 I-1.587 J0
G1 X-44.647 Y-121.169
G3 X-44.973 Y-121.477 I-0.009 J-0.317 F1016
G1 X-44.982 Y-121.795
X-44.984 Y-121.865 Z-3.192
X-44.986 Y-121.932 Z-3.169
X-44.988 Y-121.993 Z-3.131
X-44.989 Y-122.043 Z-3.08
X-44.99 Y-122.081 Z-3.02
X-44.991 Y-122.104 Z-2.953
Y-122.112 Z-2.883
Z5 F1500
X-44.356 Y-122.13
Z-1.4 F300
Z-3.683
Y-122.122 Z-3.753 F1016
Y-122.099 Z-3.82
X-44.354 Y-122.061 Z-3.88
X-44.353 Y-122.011 Z-3.931
X-44.351 Y-121.951 Z-3.969
X-44.349 Y-121.883 Z-3.992
X-44.347 Y-121.813 Z-4
X-44.338 Y-121.495
G3 X-44.647 Y-121.169 I-0.317 J0.009
G1 X-83.433 Y-120.061 F1500
G2 X-98.145 Y-104.922 I0.433 J15.139
G1 Y-1
G2 X-96.557 Y0.587 I1.588 J0
G1 X-1
G2 X0.587 Y-1 I0 J-1.587
G1 Y-120.828
G2 X-1.045 Y-122.415 I-1.587 J0
G1 X-44.647 Y-121.169
G3 X-44.973 Y-121.477 I-0.009 J-0.317 F1016
G1 X-44.982 Y-121.795
X-44.984 Y-121.865 Z-3.992
X-44.986 Y-121.932 Z-3.969
X-44.988 Y-121.993 Z-3.931
X-44.989 Y-122.043 Z-3.88
X-44.99 Y-122.081 Z-3.82
X-44.991 Y-122.104 Z-3.753
Y-122.112 Z-3.683
Z5 F1500
X-44.356 Y-122.13
Z-2.2 F300
Z-4.483
Y-122.122 Z-4.553 F1016
Y-122.099 Z-4.62
X-44.354 Y-122.061 Z-4.68
X-44.353 Y-122.011 Z-4.731
X-44.351 Y-121.951 Z-4.769
X-44.349 Y-121.883 Z-4.792
X-44.347 Y-121.813 Z-4.8
X-44.338 Y-121.495
G3 X-44.647 Y-121.169 I-0.317 J0.009
G1 X-83.433 Y-120.061 F1500
G2 X-98.145 Y-104.922 I0.433 J15.139
G1 Y-1
G2 X-96.557 Y0.587 I1.588 J0
G1 X-1
G2 X0.587 Y-1 I0 J-1.587
G1 Y-120.828
G2 X-1.045 Y-122.415 I-1.587 J0
G1 X-44.647 Y-121.169
G3 X-44.973 Y-121.477 I-0.009 J-0.317 F1016
G1 X-44.982 Y-121.795
X-44.984 Y-121.865 Z-4.792
X-44.986 Y-121.932 Z-4.769
X-44.988 Y-121.993 Z-4.731
X-44.989 Y-122.043 Z-4.68
X-44.99 Y-122.081 Z-4.62
X-44.991 Y-122.104 Z-4.553
Y-122.112 Z-4.483
Z5 F1500
X-44.356 Y-122.13
Z-3 F300
Z-4.683
Y-122.122 Z-4.753 F1016
Y-122.099 Z-4.82
X-44.354 Y-122.061 Z-4.88
X-44.353 Y-122.011 Z-4.931
X-44.351 Y-121.951 Z-4.969
X-44.349 Y-121.883 Z-4.992
X-44.347 Y-121.813 Z-5
X-44.338 Y-121.495
G3 X-44.647 Y-121.169 I-0.317 J0.009
G1 X-83.433 Y-120.061 F1500
G2 X-98.145 Y-104.922 I0.433 J15.139
G1 Y-1
G2 X-96.557 Y0.587 I1.588 J0
G1 X-1
G2 X0.587 Y-1 I0 J-1.587
G1 Y-120.828
G2 X-1.045 Y-122.415 I-1.587 J0
G1 X-44.647 Y-121.169
G3 X-44.973 Y-121.477 I-0.009 J-0.317 F1016
G1 X-44.982 Y-121.795
X-44.984 Y-121.865 Z-4.992
X-44.986 Y-121.932 Z-4.969
X-44.988 Y-121.993 Z-4.931
X-44.989 Y-122.043 Z-4.88
X-44.99 Y-122.081 Z-4.82
X-44.991 Y-122.104 Z-4.753
Y-122.112 Z-4.683
Z15 F1500
M5
M30
