(1001)
(Bearbeiten)
(  Hersteller: ChinaCnc)
(  model: 3040T)
(  description: Generic 3-axis)
(T14  D=3.175 CR=0 - ZMIN=-4.2 - Schaftfraser)
G90 G94
G17
G21
G28 G91 Z0
G90

(2D-Kontur12)
T14
S6000 M3
G54
G0 X-17.587 Y-66.174
Z15
Z5
G1 Z2.5 F300
S8000
Y-60.529 Z2.303 F1016
X-22.413 Z2.134
Y-89.354 Z1.128
X-17.587 Z0.959
Y-60.529 Z-0.047
X-22.413 Z-0.216
Y-62.942 Z-0.3
S6000
Y-89.354 F1500
X-17.587
Y-60.529
X-22.413
Y-62.942
S8000
Y-71.533 Z-0.6 F1016
S6000
Y-89.354 F1500
X-17.587
Y-60.529
X-22.413
Y-71.533
S8000
Y-80.124 Z-0.9 F1016
S6000
Y-89.354 F1500
X-17.587
Y-60.529
X-22.413
Y-71.533
Y-80.124
S8000
Y-88.715 Z-1.2 F1016
S6000
Y-89.354 F1500
X-17.587
Y-60.529
X-22.413
Y-80.124
Y-88.715
S8000
Y-89.354 Z-1.222 F1016
X-17.587 Z-1.391
Y-86.228 Z-1.5
S6000
Y-60.529 F1500
X-22.413
Y-88.715
Y-89.354
X-17.587
Y-86.228
S8000
Y-77.638 Z-1.8 F1016
S6000
Y-60.529 F1500
X-22.413
Y-89.354
X-17.587
Y-77.638
S8000
Y-69.047 Z-2.1 F1016
S6000
Y-60.529 F1500
X-22.413
Y-89.354
X-17.587
Y-77.638
Y-69.047
S8000
Y-60.529 Z-2.397 F1016
X-17.661 Z-2.4
S6000
X-22.413 F1500
Y-89.354
X-17.587
Y-69.047
Y-60.529
X-17.661
S8000
X-22.413 Z-2.566 F1016
Y-64.369 Z-2.7
S6000
Y-89.354 F1500
X-17.587
Y-60.529
X-22.413
Y-64.369
S8000
Y-72.96 Z-3 F1016
S6000
Y-89.354 F1500
X-17.587
Y-60.529
X-22.413
Y-72.96
S8000
Y-81.551 Z-3.3 F1016
S6000
Y-89.354 F1500
X-17.587
Y-60.529
X-22.413
Y-72.96
Y-81.551
S8000
Y-89.354 Z-3.573 F1016
X-21.625 Z-3.6
S6000
X-17.587 F1500
Y-60.529
X-22.413
Y-81.551
Y-89.354
X-21.625
S8000
X-17.587 Z-3.741 F1016
Y-84.801 Z-3.9
S6000
Y-60.529 F1500
X-22.413
Y-89.354
X-17.587
Y-84.801
S8000
Y-76.211 Z-4.2 F1016
S6000
Y-60.529 F1500
X-22.413
Y-89.354
X-17.587
Y-76.211
G0 Z5
X-26.743 Y-24.957
G1 Z2.5 F300
S8000
G3 X-15.257 Y-18.202 Z1.769 I5.743 J3.377 F1016
X-26.743 Y-24.957 Z1.038 I-5.743 J-3.377
X-15.257 Y-18.202 Z0.307 I5.743 J3.377
X-27.663 Y-21.58 Z-0.3 I-5.743 J-3.377
S6000
X-14.337 Y-21.58 I6.663 J0 F1500
X-27.663 Y-21.58 I-6.663 J0
S8000
X-22.85 Y-27.98 Z-0.6 I6.663 J0 F1016
S6000
X-19.15 Y-15.179 I1.85 J6.401 F1500
X-22.85 Y-27.98 I-1.85 J-6.401
S8000
X-15.365 Y-25.134 Z-0.9 I1.85 J6.401 F1016
S6000
X-26.635 Y-18.025 I-5.635 J3.554 F1500
X-15.365 Y-25.134 I5.635 J-3.554
S8000
X-16.021 Y-17.153 Z-1.2 I-5.635 J3.554 F1016
S6000
X-25.979 Y-26.006 I-4.979 J-4.427 F1500
X-16.021 Y-17.153 I4.979 J4.427
S8000
X-23.87 Y-15.567 Z-1.5 I-4.979 J-4.427 F1016
S6000
X-18.13 Y-27.592 I2.87 J-6.013 F1500
X-23.87 Y-15.567 I-2.87 J6.013
S8000
X-27.573 Y-22.667 Z-1.8 I2.87 J-6.013 F1016
S6000
X-14.427 Y-20.492 I6.573 J1.088 F1500
X-27.573 Y-22.667 I-6.573 J-1.088
S8000
X-21.78 Y-28.196 Z-2.1 I6.573 J1.088 F1016
S6000
X-20.22 Y-14.963 I0.78 J6.617 F1500
X-21.78 Y-28.196 I-0.78 J-6.617
S8000
X-14.86 Y-24.166 Z-2.4 I0.78 J6.617 F1016
S6000
X-27.14 Y-18.993 I-6.14 J2.587 F1500
X-14.86 Y-24.166 I6.14 J-2.587
S8000
X-16.81 Y-16.399 Z-2.7 I-6.14 J2.587 F1016
S6000
X-25.19 Y-26.76 I-4.19 J-5.18 F1500
X-16.81 Y-16.399 I4.19 J5.18
S8000
X-24.813 Y-16.116 Z-3 I-4.19 J-5.18 F1016
S6000
X-17.187 Y-27.043 I3.813 J-5.463 F1500
X-24.813 Y-16.116 I-3.813 J5.463
S8000
X-27.307 Y-23.726 Z-3.3 I3.813 J-5.463 F1016
S6000
X-14.693 Y-19.433 I6.307 J2.146 F1500
X-27.307 Y-23.726 I-6.307 J-2.146
S8000
X-20.689 Y-28.235 Z-3.6 I6.307 J2.146 F1016
S6000
X-21.311 Y-14.924 I-0.311 J6.655 F1500
X-20.689 Y-28.235 I0.311 J-6.655
S8000
X-14.52 Y-23.129 Z-3.9 I-0.311 J6.655 F1016
S6000
X-27.48 Y-20.03 I-6.48 J1.549 F1500
X-14.52 Y-23.129 I6.48 J-1.549
S8000
X-17.712 Y-15.785 Z-4.2 I-6.48 J1.549 F1016
S6000
X-24.288 Y-27.374 I-3.288 J-5.795 F1500
X-17.712 Y-15.785 I3.288 J5.795
G0 Z15

(2D-Kontur13)
X-37.293 Y-0.449
Z15
Z5
G1 Z2.5 F300
S8000
X-1.045 Y0.587 Z1.234 F1016
G2 X0.587 Y-1 Z1.145 I0.045 J-1.587
G1 Y-50.971 Z-0.6
S6000
Y-100.942 F1500
G2 X-1 Y-102.53 I-1.587 J0
G1 X-100.557
G2 X-102.145 Y-100.942 I0 J1.588
G1 Y-17.02
G2 X-87.433 Y-1.881 I15.145 J0
G1 X-1.045 Y0.587
G2 X0.587 Y-1 I0.045 J-1.587
G1 Y-50.971
S8000
Y-71.007 Z-1.2 F1016
S6000
Y-100.942 F1500
G2 X-1 Y-102.53 I-1.587 J0
G1 X-100.557
G2 X-102.145 Y-100.942 I0 J1.588
G1 Y-17.02
G2 X-87.433 Y-1.881 I15.145 J0
G1 X-1.045 Y0.587
G2 X0.587 Y-1 I0.045 J-1.587
G1 Y-50.971
Y-71.007
S8000
Y-91.044 Z-1.8 F1016
S6000
Y-100.942 F1500
G2 X-1 Y-102.53 I-1.587 J0
G1 X-100.557
G2 X-102.145 Y-100.942 I0 J1.588
G1 Y-17.02
G2 X-87.433 Y-1.881 I15.145 J0
G1 X-1.045 Y0.587
G2 X0.587 Y-1 I0.045 J-1.587
G1 Y-71.007
Y-91.044
S8000
Y-100.942 Z-2.096 F1016
G2 X-1 Y-102.53 Z-2.171 I-1.587 J0
G1 X-8.644 Z-2.4
S6000
X-100.557 F1500
G2 X-102.145 Y-100.942 I0 J1.588
G1 Y-17.02
G2 X-87.433 Y-1.881 I15.145 J0
G1 X-1.045 Y0.587
G2 X0.587 Y-1 I0.045 J-1.587
G1 Y-91.044
Y-100.942
G2 X-1 Y-102.53 I-1.587 J0
G1 X-8.644
S8000
X-28.681 Z-3 F1016
S6000
X-100.557 F1500
G2 X-102.145 Y-100.942 I0 J1.588
G1 Y-17.02
G2 X-87.433 Y-1.881 I15.145 J0
G1 X-1.045 Y0.587
G2 X0.587 Y-1 I0.045 J-1.587
G1 Y-100.942
G2 X-1 Y-102.53 I-1.587 J0
G1 X-28.681
S8000
X-46.691 Z-3.539 F1016
Z-3
X-48.717
S6000
X-54.866 F1500
Z-3.6 F300
X-100.557 F1500
G2 X-102.145 Y-100.942 I0 J1.588
G1 Y-17.02
G2 X-87.433 Y-1.881 I15.145 J0
G1 X-48.325 Y-0.764
Z-3
X-40.153 Y-0.531
Z-3.6 F300
X-1.045 Y0.587 F1500
G2 X0.587 Y-1 I0.045 J-1.587
G1 Y-46.883
Z-3
Y-55.058
Z-3.6 F300
Y-100.942 F1500
G2 X-1 Y-102.53 I-1.587 J0
G1 X-46.691
Z-3
X-48.717
S8000
X-54.866 F1016
S6000
Z-3.784 F300
S8000
X-62.074 Z-4 F1016
S6000
X-100.557 F1500
G2 X-102.145 Y-100.942 I0 J1.588
G1 Y-17.02
G2 X-87.433 Y-1.881 I15.145 J0
G1 X-48.325 Y-0.764
Z-3
X-40.153 Y-0.531
Z-4 F300
X-1.045 Y0.587 F1500
G2 X0.587 Y-1 I0.045 J-1.587
G1 Y-46.883
Z-3
Y-55.058
Z-4 F300
Y-100.942 F1500
G2 X-1 Y-102.53 I-1.587 J0
G1 X-46.691
Z-3
X-54.866
Z-4 F300
X-62.074 F1500
G0 Z15
G28 G91 Z0
G90
G28 G91 X0 Y0
G90
M5
M30
