(1001)
(Bearbeiten)
(  Hersteller: ChinaCnc)
(  model: 3040T)
(  description: Generic 3-axis)
(T14  D=3.175 CR=0 - ZMIN=-4.2 - Schaftfraser)
G90 G94
G17
G21
G28 G91 Z0
G90

(Bohrfrasen5)
T14
S6000 M3
G54
G0 X-25.081 Y-95.48
Z15
Z1.683
G1 Z0 F1016
Y-95.639
X-25.075 Y-95.67
X-25.057 Y-95.696
X-25.031 Y-95.714
X-25 Y-95.72
G3 X-25 Y-95.395 Z-0.5 I0 J0.162 F1500
X-25 Y-95.72 Z-1 I0 J-0.162
X-25 Y-95.395 Z-1.5 I0 J0.162
X-25 Y-95.72 Z-2 I0 J-0.162
X-25 Y-95.395 Z-2.5 I0 J0.162
X-25 Y-95.72 Z-3 I0 J-0.162
X-25 Y-95.395 Z-3.5 I0 J0.162
X-25 Y-95.72 Z-4 I0 J-0.162
X-24.845 Y-95.608 Z-4.2 I0 J0.162
X-25.155 Y-95.507 I-0.155 J0.05
X-24.845 Y-95.608 I0.155 J-0.05
G1 X-24.842 Y-95.576 F1016
X-24.85 Y-95.546
X-24.87 Y-95.521
X-24.898 Y-95.505
X-25.049 Y-95.456
G0 Z5
X-57.081 Y-95.48
Z1.683
G1 Z0 F1016
Y-95.639
X-57.075 Y-95.67
X-57.057 Y-95.696
X-57.031 Y-95.714
X-57 Y-95.72
G3 X-57 Y-95.395 Z-0.5 I0 J0.162 F1500
X-57 Y-95.72 Z-1 I0 J-0.162
X-57 Y-95.395 Z-1.5 I0 J0.162
X-57 Y-95.72 Z-2 I0 J-0.162
X-57 Y-95.395 Z-2.5 I0 J0.162
X-57 Y-95.72 Z-3 I0 J-0.162
X-57 Y-95.395 Z-3.5 I0 J0.162
X-57 Y-95.72 Z-4 I0 J-0.162
X-56.845 Y-95.608 Z-4.2 I0 J0.162
X-57.155 Y-95.507 I-0.155 J0.05
X-56.845 Y-95.608 I0.155 J-0.05
G1 X-56.842 Y-95.576 F1016
X-56.85 Y-95.546
X-56.87 Y-95.521
X-56.898 Y-95.505
X-57.049 Y-95.456
G0 Z5
X-57.081 Y-63.48
Z1.683
G1 Z0 F1016
Y-63.639
X-57.075 Y-63.67
X-57.057 Y-63.696
X-57.031 Y-63.714
X-57 Y-63.72
G3 X-57 Y-63.395 Z-0.5 I0 J0.162 F1500
X-57 Y-63.72 Z-1 I0 J-0.162
X-57 Y-63.395 Z-1.5 I0 J0.162
X-57 Y-63.72 Z-2 I0 J-0.162
X-57 Y-63.395 Z-2.5 I0 J0.162
X-57 Y-63.72 Z-3 I0 J-0.162
X-57 Y-63.395 Z-3.5 I0 J0.162
X-57 Y-63.72 Z-4 I0 J-0.162
X-56.845 Y-63.608 Z-4.2 I0 J0.162
X-57.155 Y-63.507 I-0.155 J0.05
X-56.845 Y-63.608 I0.155 J-0.05
G1 X-56.842 Y-63.576 F1016
X-56.85 Y-63.546
X-56.87 Y-63.521
X-56.898 Y-63.505
X-57.049 Y-63.456
G0 Z5
X-25.081 Y-63.48
Z1.683
G1 Z0 F1016
Y-63.639
X-25.075 Y-63.67
X-25.057 Y-63.696
X-25.031 Y-63.714
X-25 Y-63.72
G3 X-25 Y-63.395 Z-0.5 I0 J0.162 F1500
X-25 Y-63.72 Z-1 I0 J-0.162
X-25 Y-63.395 Z-1.5 I0 J0.162
X-25 Y-63.72 Z-2 I0 J-0.162
X-25 Y-63.395 Z-2.5 I0 J0.162
X-25 Y-63.72 Z-3 I0 J-0.162
X-25 Y-63.395 Z-3.5 I0 J0.162
X-25 Y-63.72 Z-4 I0 J-0.163
X-24.845 Y-63.608 Z-4.2 I0 J0.163
X-25.155 Y-63.507 I-0.155 J0.05
X-24.845 Y-63.608 I0.155 J-0.05
G1 X-24.842 Y-63.576 F1016
X-24.85 Y-63.546
X-24.87 Y-63.521
X-24.898 Y-63.505
X-25.049 Y-63.456
G0 Z15

(2D-Kontur17)
X-26.606 Y-78.833
Z15
Z5
G1 Z2.5 F300
S8000
G3 X-28.862 Y-71.786 Z2.239 I-14.394 J-0.724 F1016
G1 X-48.771 Y-91.695 Z1.255
G3 X-28.862 Y-71.786 Z-0.108 I7.771 J12.138
G1 X-38.817 Y-81.741 Z-0.6
S6000
X-48.771 Y-91.695 F1500
G3 X-28.862 Y-71.786 I7.771 J12.138
G1 X-38.817 Y-81.741
S8000
X-48.771 Y-91.695 Z-1.092 F1016
G3 X-45.998 Y-93.075 Z-1.2 I7.771 J12.138
S6000
X-28.862 Y-71.786 I4.998 J13.518 F1500
G1 X-48.771 Y-91.695
G3 X-45.998 Y-93.075 I7.771 J12.138
S8000
X-30.287 Y-89.199 Z-1.8 I4.998 J13.518 F1016
S6000
X-28.862 Y-71.786 I-10.713 J9.641 F1500
G1 X-48.771 Y-91.695
G3 X-30.287 Y-89.199 I7.771 J12.138
S8000
X-28.081 Y-73.167 Z-2.4 I-10.713 J9.641 F1016
S6000
X-28.862 Y-71.786 I-12.919 J-6.39 F1500
G1 X-48.771 Y-91.695
G3 X-28.081 Y-73.167 I7.771 J12.138
S8000
X-28.862 Y-71.786 Z-2.455 I-12.919 J-6.39 F1016
G1 X-39.889 Y-82.813 Z-3
S6000
X-48.771 Y-91.695 F1500
G3 X-28.862 Y-71.786 I7.771 J12.138
G1 X-39.889 Y-82.813
S8000
X-48.771 Y-91.695 Z-3.439 F1016
G3 X-44.551 Y-93.526 Z-3.6 I7.771 J12.138
S6000
X-28.862 Y-71.786 I3.551 J13.968 F1500
G1 X-39.889 Y-82.813
X-48.771 Y-91.695
G3 X-44.551 Y-93.526 I7.771 J12.138
S8000
X-33.518 Y-91.876 Z-4 I3.551 J13.968 F1016
S6000
X-28.862 Y-71.786 I-7.482 J12.318 F1500
G1 X-48.771 Y-91.695
G3 X-33.518 Y-91.876 I7.771 J12.138
G0 Z5
X-55.394 Y-80.281
G1 Z2.5 F300
S8000
G3 X-53.138 Y-87.329 Z2.239 I14.394 J0.724 F1016
G1 X-33.229 Y-67.42 Z1.255
G3 X-53.138 Y-87.329 Z-0.108 I-7.771 J-12.138
G1 X-43.183 Y-77.374 Z-0.6
S6000
X-33.229 Y-67.42 F1500
G3 X-53.138 Y-87.329 I-7.771 J-12.138
G1 X-43.183 Y-77.374
S8000
X-33.229 Y-67.42 Z-1.092 F1016
G3 X-36.002 Y-66.039 Z-1.2 I-7.771 J-12.138
S6000
X-53.138 Y-87.329 I-4.998 J-13.518 F1500
G1 X-33.229 Y-67.42
G3 X-36.002 Y-66.039 I-7.771 J-12.138
S8000
X-51.713 Y-69.916 Z-1.8 I-4.998 J-13.518 F1016
S6000
X-53.138 Y-87.329 I10.713 J-9.641 F1500
G1 X-33.229 Y-67.42
G3 X-51.713 Y-69.916 I-7.771 J-12.138
S8000
X-53.919 Y-85.947 Z-2.4 I10.713 J-9.641 F1016
S6000
X-53.138 Y-87.329 I12.919 J6.39 F1500
G1 X-33.229 Y-67.42
G3 X-53.919 Y-85.947 I-7.771 J-12.138
S8000
X-53.138 Y-87.329 Z-2.455 I12.919 J6.39 F1016
G1 X-42.111 Y-76.302 Z-3
S6000
X-33.229 Y-67.42 F1500
G3 X-53.138 Y-87.329 I-7.771 J-12.138
G1 X-42.111 Y-76.302
S8000
X-33.229 Y-67.42 Z-3.439 F1016
G3 X-37.449 Y-65.589 Z-3.6 I-7.771 J-12.138
S6000
X-53.138 Y-87.329 I-3.551 J-13.968 F1500
G1 X-42.111 Y-76.302
X-33.229 Y-67.42
G3 X-37.449 Y-65.589 I-7.771 J-12.138
S8000
X-48.482 Y-67.239 Z-4 I-3.551 J-13.968 F1016
S6000
X-53.138 Y-87.329 I7.482 J-12.318 F1500
G1 X-33.229 Y-67.42
G3 X-48.482 Y-67.239 I-7.771 J-12.138
G0 Z15

(2D-Kontur18)
X0.587 Y-78.749
Z15
Z5
G1 Z2.5 F300
S8000
Y-100.557 Z1.738 F1016
G2 X-1 Y-102.145 Z1.651 I-1.587 J0
G1 X-65.471 Z-0.6
S6000
X-129.942 F1500
G2 X-131.529 Y-100.512 I0 J1.588
G1 X-129.061 Y-14.125
G2 X-113.922 Y0.587 I15.139 J-0.433
G1 X-1
G2 X0.587 Y-1 I0 J-1.587
G1 Y-100.557
G2 X-1 Y-102.145 I-1.587 J0
G1 X-65.471
S8000
X-88.407 Z-1.2 F1016
S6000
X-129.942 F1500
G2 X-131.529 Y-100.512 I0 J1.588
G1 X-129.061 Y-14.125
G2 X-113.922 Y0.587 I15.139 J-0.433
G1 X-1
G2 X0.587 Y-1 I0 J-1.587
G1 Y-100.557
G2 X-1 Y-102.145 I-1.587 J0
G1 X-65.471
X-88.407
S8000
X-111.344 Z-1.8 F1016
S6000
X-129.942 F1500
G2 X-131.529 Y-100.512 I0 J1.588
G1 X-129.061 Y-14.125
G2 X-113.922 Y0.587 I15.139 J-0.433
G1 X-1
G2 X0.587 Y-1 I0 J-1.587
G1 Y-100.557
G2 X-1 Y-102.145 I-1.587 J0
G1 X-88.407
X-111.344
S8000
X-129.942 Z-2.287 F1016
G2 X-131.529 Y-100.512 Z-2.353 I0 J1.588
G1 X-131.477 Y-98.713 Z-2.4
S6000
X-129.061 Y-14.125 F1500
G2 X-113.922 Y0.587 I15.139 J-0.433
G1 X-1
G2 X0.587 Y-1 I0 J-1.587
G1 Y-100.557
G2 X-1 Y-102.145 I-1.587 J0
G1 X-111.344
X-129.942
G2 X-131.529 Y-100.512 I0 J1.588
G1 X-131.477 Y-98.713
S8000
X-130.822 Y-75.786 Z-3 F1016
S6000
X-129.061 Y-14.125 F1500
G2 X-113.922 Y0.587 I15.139 J-0.433
G1 X-1
G2 X0.587 Y-1 I0 J-1.587
G1 Y-100.557
G2 X-1 Y-102.145 I-1.587 J0
G1 X-129.942
G2 X-131.529 Y-100.512 I0 J1.588
G1 X-130.822 Y-75.786
S8000
X-130.412 Y-61.404 Z-3.376 F1016
Z-3.2
X-130.178 Y-53.233
S6000
Z-3.59 F300
S8000
X-130.167 Y-52.859 Z-3.6 F1016
S6000
X-129.061 Y-14.125 F1500
G2 X-113.922 Y0.587 I15.139 J-0.433
G1 X-61.549
Z-3.2
X-53.374
Z-3.6 F300
X-1 F1500
G2 X0.587 Y-1 I0 J-1.587
G1 Y-46.691
Z-3.2
Y-54.866
Z-3.6 F300
Y-100.557 F1500
G2 X-1 Y-102.145 I-1.587 J0
G1 X-29.148
Z-3.2
X-37.323
Z-3.6 F300
X-93.619 F1500
Z-3.2
X-101.794
Z-3.6 F300
X-129.942 F1500
G2 X-131.529 Y-100.512 I0 J1.588
G1 X-130.412 Y-61.404
Z-3.2
X-130.178 Y-53.233
Z-3.6 F300
X-130.167 Y-52.859 F1500
S8000
X-129.512 Y-29.933 Z-4.2 F1016
S6000
X-129.061 Y-14.125 F1500
G2 X-113.922 Y0.587 I15.139 J-0.433
G1 X-61.549
Z-3.2
X-53.374
Z-4.2 F300
X-1 F1500
G2 X0.587 Y-1 I0 J-1.587
G1 Y-46.691
Z-3.2
Y-54.866
Z-4.2 F300
Y-100.557 F1500
G2 X-1 Y-102.145 I-1.587 J0
G1 X-29.148
Z-3.2
X-37.323
Z-4.2 F300
X-93.619 F1500
Z-3.2
X-101.794
Z-4.2 F300
X-129.942 F1500
G2 X-131.529 Y-100.512 I0 J1.588
G1 X-130.412 Y-61.404
Z-3.2
X-130.178 Y-53.233
Z-4.2 F300
X-129.512 Y-29.933 F1500
G0 Z15
G28 G91 Z0
G90
G28 G91 X0 Y0
G90
M5
M30
