(1001)
(Bearbeiten)
(  Hersteller: ChinaCnc)
(  model: 3040T)
(  description: Generic 3-axis)
(T14  D=3.175 CR=0 - ZMIN=-3.2 - Schaftfraser)
G90 G94
G17
G21
G28 G91 Z0
G90

(Bohrfrasen1)
T14
S6000 M3
G54
G0 X-73.889 Y-7.077
Z15
Z1.683
G1 Z0 F1016
Y-6.919
X-73.896 Y-6.888
X-73.913 Y-6.861
X-73.94 Y-6.844
X-73.971 Y-6.838
G3 X-73.971 Y-7.163 Z-0.5 I0 J-0.162 F1500
X-73.971 Y-6.837 Z-1 I0 J0.163
X-73.971 Y-7.163 Z-1.5 I0 J-0.163
X-73.971 Y-6.837 Z-2 I0 J0.163
X-73.971 Y-7.163 Z-2.5 I0 J-0.163
X-73.971 Y-6.837 Z-3 I0 J0.163
X-74.125 Y-6.95 Z-3.2 I0 J-0.163
X-73.816 Y-7.05 I0.155 J-0.05
X-74.125 Y-6.95 I-0.155 J0.05
G1 X-74.129 Y-6.981 F1016
X-74.12 Y-7.012
X-74.101 Y-7.037
X-74.073 Y-7.052
X-73.922 Y-7.101
G0 Z5
X-105.889 Y-7.077
Z1.683
G1 Z0 F1016
Y-6.919
X-105.896 Y-6.888
X-105.913 Y-6.861
X-105.94 Y-6.844
X-105.971 Y-6.838
G3 X-105.971 Y-7.163 Z-0.5 I0 J-0.162 F1500
X-105.971 Y-6.837 Z-1 I0 J0.163
X-105.971 Y-7.163 Z-1.5 I0 J-0.163
X-105.971 Y-6.837 Z-2 I0 J0.163
X-105.971 Y-7.163 Z-2.5 I0 J-0.163
X-105.971 Y-6.837 Z-3 I0 J0.163
X-106.125 Y-6.95 Z-3.2 I0 J-0.163
X-105.816 Y-7.05 I0.155 J-0.05
X-106.125 Y-6.95 I-0.155 J0.05
G1 X-106.129 Y-6.981 F1016
X-106.12 Y-7.012
X-106.101 Y-7.037
X-106.073 Y-7.052
X-105.922 Y-7.101
G0 Z5
X-105.889 Y-39.077
Z1.683
G1 Z0 F1016
Y-38.919
X-105.896 Y-38.888
X-105.913 Y-38.861
X-105.94 Y-38.844
X-105.971 Y-38.838
G3 X-105.971 Y-39.162 Z-0.5 I0 J-0.162 F1500
X-105.971 Y-38.838 Z-1 I0 J0.162
X-105.971 Y-39.163 Z-1.5 I0 J-0.162
X-105.971 Y-38.837 Z-2 I0 J0.163
X-105.971 Y-39.163 Z-2.5 I0 J-0.163
X-105.971 Y-38.837 Z-3 I0 J0.163
X-106.125 Y-38.95 Z-3.2 I0 J-0.163
X-105.816 Y-39.05 I0.155 J-0.05
X-106.125 Y-38.95 I-0.155 J0.05
G1 X-106.129 Y-38.981 F1016
X-106.12 Y-39.012
X-106.101 Y-39.037
X-106.073 Y-39.052
X-105.922 Y-39.101
G0 Z5
X-73.889 Y-39.077
Z1.683
G1 Z0 F1016
Y-38.919
X-73.896 Y-38.888
X-73.913 Y-38.861
X-73.94 Y-38.844
X-73.971 Y-38.838
G3 X-73.971 Y-39.162 Z-0.5 I0 J-0.162 F1500
X-73.971 Y-38.838 Z-1 I0 J0.162
X-73.971 Y-39.163 Z-1.5 I0 J-0.162
X-73.971 Y-38.837 Z-2 I0 J0.163
X-73.971 Y-39.163 Z-2.5 I0 J-0.163
X-73.971 Y-38.837 Z-3 I0 J0.163
X-74.125 Y-38.95 Z-3.2 I0 J-0.163
X-73.816 Y-39.05 I0.155 J-0.05
X-74.125 Y-38.95 I-0.155 J0.05
G1 X-74.129 Y-38.981 F1016
X-74.12 Y-39.012
X-74.101 Y-39.037
X-74.073 Y-39.052
X-73.922 Y-39.101
G0 Z15

(2D-Kontur1)
X-91.336 Y-37.348
Z15
Z5
G1 Z2.5 F300
S8000
G3 X-77.308 Y-16.118 Z1.411 I1.365 J14.348 F1016
G1 X-96.853 Y-35.663 Z0.446
G3 X-79.779 Y-33.191 Z-0.2 I6.882 J12.663
S6000
X-77.308 Y-16.118 I-10.191 J10.191 F1500
G1 X-96.853 Y-35.663
G3 X-79.779 Y-33.191 I6.882 J12.663
G0 Z5
X-88.605 Y-8.652
G1 Z2.5 F300
S8000
G3 X-102.634 Y-29.882 Z1.411 I-1.365 J-14.348 F1016
G1 X-83.088 Y-10.337 Z0.446
G3 X-100.162 Y-12.809 Z-0.2 I-6.882 J-12.663
S6000
X-102.634 Y-29.882 I10.191 J-10.191 F1500
G1 X-83.088 Y-10.337
G3 X-100.162 Y-12.809 I-6.882 J-12.663
G0 Z15

(2D-Kontur10)
X-130.559 Y-20.43
Z15
Z5
G1 Z2.5 F300
S8000
Y-1 Z1.822 F1016
G2 X-128.971 Y0.587 Z1.734 I1.588 J0
G1 X-64.985 Z-0.5
S6000
X-1 F1500
G2 X0.587 Y-1.045 I0 J-1.587
G1 X-1.91 Y-88.433
G2 X-17.049 Y-103.145 I-15.138 J0.433
G1 X-128.971
G2 X-130.559 Y-101.557 I0 J1.588
G1 Y-1
G2 X-128.971 Y0.587 I1.588 J0
G1 X-64.985
S8000
X-45.871 Z-1 F1016
S6000
X-1 F1500
G2 X0.587 Y-1.045 I0 J-1.587
G1 X-1.91 Y-88.433
G2 X-17.049 Y-103.145 I-15.138 J0.433
G1 X-128.971
G2 X-130.559 Y-101.557 I0 J1.588
G1 Y-1
G2 X-128.971 Y0.587 I1.588 J0
G1 X-64.985
X-45.871
S8000
X-26.756 Z-1.5 F1016
S6000
X-1 F1500
G2 X0.587 Y-1.045 I0 J-1.587
G1 X-1.91 Y-88.433
G2 X-17.049 Y-103.145 I-15.138 J0.433
G1 X-128.971
G2 X-130.559 Y-101.557 I0 J1.588
G1 Y-1
G2 X-128.971 Y0.587 I1.588 J0
G1 X-45.871
X-26.756
S8000
X-7.641 Z-2 F1016
S6000
X-1 F1500
G2 X0.587 Y-1.045 I0 J-1.587
G1 X-1.91 Y-88.433
G2 X-17.049 Y-103.145 I-15.138 J0.433
G1 X-128.971
G2 X-130.559 Y-101.557 I0 J1.588
G1 Y-1
G2 X-128.971 Y0.587 I1.588 J0
G1 X-26.756
X-7.641
S8000
X-1 Z-2.174 F1016
G2 X0.587 Y-1.045 Z-2.24 I0 J-1.587
G1 X0.303 Y-10.976 Z-2.5
S6000
X-1.91 Y-88.433 F1500
G2 X-17.049 Y-103.145 I-15.138 J0.433
G1 X-68.922
Z-2.2
X-77.097
Z-2.5 F300
X-128.971 F1500
G2 X-130.559 Y-101.557 I0 J1.588
G1 Y-55.366
Z-2.2
Y-47.191
Z-2.5 F300
Y-1 F1500
G2 X-128.971 Y0.587 I1.588 J0
G1 X-69.073
Z-2.2
X-60.898
Z-2.5 F300
X-1 F1500
G2 X0.587 Y-1.045 I0 J-1.587
G1 X0.303 Y-10.976
S8000
X-0.243 Y-30.083 Z-3 F1016
S6000
X-1.91 Y-88.433 F1500
G2 X-17.049 Y-103.145 I-15.138 J0.433
G1 X-68.922
Z-2.2
X-77.097
Z-3 F300
X-128.971 F1500
G2 X-130.559 Y-101.557 I0 J1.588
G1 Y-55.366
Z-2.2
Y-47.191
Z-3 F300
Y-1 F1500
G2 X-128.971 Y0.587 I1.588 J0
G1 X-69.073
Z-2.2
X-60.898
Z-3 F300
X-1 F1500
G2 X0.587 Y-1.045 I0 J-1.587
G1 X-0.243 Y-30.083
S8000
X-0.461 Y-37.726 Z-3.2 F1016
S6000
X-1.91 Y-88.433 F1500
G2 X-17.049 Y-103.145 I-15.138 J0.433
G1 X-68.922
Z-2.2
X-77.097
Z-3.2 F300
X-128.971 F1500
G2 X-130.559 Y-101.557 I0 J1.588
G1 Y-55.366
Z-2.2
Y-47.191
Z-3.2 F300
Y-1 F1500
G2 X-128.971 Y0.587 I1.588 J0
G1 X-69.073
Z-2.2
X-60.898
Z-3.2 F300
X-1 F1500
G2 X0.587 Y-1.045 I0 J-1.587
G1 X-0.461 Y-37.726
G0 Z15
G28 G91 Z0
G90
G28 G91 X0 Y0
G90
M5
M30
