(1001)
G90 G94
G17
G21
(When using Fusion 360 for Personal Use, the feedrate of)
(rapid moves is reduced to match the feedrate of cutting)
(moves, which can increase machining time. Unrestricted rapid)
(moves are available with a Fusion 360 Subscription.)

(Bohrfrasen5)
S6000 M3
G54
G0 X-57.081 Y-61.48
Z15
G1 Z1.683 F1500
Z0 F1016
Y-61.639
X-57.075 Y-61.67
X-57.057 Y-61.696
X-57.031 Y-61.714
X-57 Y-61.72
G3 X-57 Y-61.395 Z-0.5 I0 J0.162 F1500
X-57 Y-61.72 Z-1 I0 J-0.162
X-57 Y-61.395 Z-1.5 I0 J0.162
X-57 Y-61.72 Z-2 I0 J-0.162
X-57 Y-61.395 Z-2.5 I0 J0.162
X-57 Y-61.72 Z-3 I0 J-0.162
X-57 Y-61.395 Z-3.5 I0 J0.162
X-57 Y-61.72 Z-4 I0 J-0.162
X-57 Y-61.395 I0 J0.162
X-57 Y-61.72 I0 J-0.162
G1 X-56.969 Y-61.714 F1016
X-56.943 Y-61.696
X-56.925 Y-61.67
X-56.919 Y-61.639
Y-61.48
Z5 F1500
X-25.081
Z1.683
Z0 F1016
Y-61.639
X-25.075 Y-61.67
X-25.057 Y-61.696
X-25.031 Y-61.714
X-25 Y-61.72
G3 X-25 Y-61.395 Z-0.5 I0 J0.162 F1500
X-25 Y-61.72 Z-1 I0 J-0.162
X-25 Y-61.395 Z-1.5 I0 J0.162
X-25 Y-61.72 Z-2 I0 J-0.162
X-25 Y-61.395 Z-2.5 I0 J0.162
X-25 Y-61.72 Z-3 I0 J-0.162
X-25 Y-61.395 Z-3.5 I0 J0.162
X-25 Y-61.72 Z-4 I0 J-0.162
X-25 Y-61.395 I0 J0.162
X-25 Y-61.72 I0 J-0.162
G1 X-24.969 Y-61.714 F1016
X-24.943 Y-61.696
X-24.925 Y-61.67
X-24.919 Y-61.639
Y-61.48
Z5 F1500
X-25.081 Y-93.48
Z1.683
Z0 F1016
Y-93.639
X-25.075 Y-93.67
X-25.057 Y-93.696
X-25.031 Y-93.714
X-25 Y-93.72
G3 X-25 Y-93.395 Z-0.5 I0 J0.162 F1500
X-25 Y-93.72 Z-1 I0 J-0.162
X-25 Y-93.395 Z-1.5 I0 J0.162
X-25 Y-93.72 Z-2 I0 J-0.162
X-25 Y-93.395 Z-2.5 I0 J0.162
X-25 Y-93.72 Z-3 I0 J-0.162
X-25 Y-93.395 Z-3.5 I0 J0.162
X-25 Y-93.72 Z-4 I0 J-0.162
X-25 Y-93.395 I0 J0.162
X-25 Y-93.72 I0 J-0.162
G1 X-24.969 Y-93.714 F1016
X-24.943 Y-93.696
X-24.925 Y-93.67
X-24.919 Y-93.639
Y-93.48
Z5 F1500
X-57.081
Z1.683
Z0 F1016
Y-93.639
X-57.075 Y-93.67
X-57.057 Y-93.696
X-57.031 Y-93.714
X-57 Y-93.72
G3 X-57 Y-93.395 Z-0.5 I0 J0.162 F1500
X-57 Y-93.72 Z-1 I0 J-0.162
X-57 Y-93.395 Z-1.5 I0 J0.162
X-57 Y-93.72 Z-2 I0 J-0.162
X-57 Y-93.395 Z-2.5 I0 J0.162
X-57 Y-93.72 Z-3 I0 J-0.162
X-57 Y-93.395 Z-3.5 I0 J0.162
X-57 Y-93.72 Z-4 I0 J-0.162
X-57 Y-93.395 I0 J0.162
X-57 Y-93.72 I0 J-0.162
G1 X-56.969 Y-93.714 F1016
X-56.943 Y-93.696
X-56.925 Y-93.67
X-56.919 Y-93.639
Y-93.48
Z15 F1500
(When using Fusion 360 for Personal Use, the feedrate of)
(rapid moves is reduced to match the feedrate of cutting)
(moves, which can increase machining time. Unrestricted rapid)
(moves are available with a Fusion 360 Subscription.)

(2D-Kontur9)
G0 X-37.919 Y-80.19
G1 Z15 F1500
Z5
Z1.8 F300
Z-0.483
X-37.924 Y-80.184 Z-0.553 F1016
X-37.941 Y-80.167 Z-0.62
X-37.968 Y-80.141 Z-0.68
X-38.003 Y-80.105 Z-0.731
X-38.046 Y-80.062 Z-0.769
X-38.093 Y-80.015 Z-0.792
X-38.143 Y-79.965 Z-0.8
X-38.368 Y-79.741
G3 X-38.817 Y-79.741 I-0.225 J-0.225
G1 X-48.771 Y-89.695 F1500
G3 X-28.862 Y-69.786 I7.771 J12.138
G1 X-38.817 Y-79.741
G3 X-38.817 Y-80.19 I0.225 J-0.225 F1016
G1 X-38.592 Y-80.414
X-38.542 Y-80.464 Z-0.792
X-38.495 Y-80.511 Z-0.769
X-38.452 Y-80.554 Z-0.731
X-38.417 Y-80.59 Z-0.68
X-38.39 Y-80.616 Z-0.62
X-38.373 Y-80.633 Z-0.553
X-38.368 Y-80.639 Z-0.483
Z5 F1500
X-37.919 Y-80.19
Z1 F300
Z-1.283
X-37.924 Y-80.184 Z-1.353 F1016
X-37.941 Y-80.167 Z-1.42
X-37.968 Y-80.141 Z-1.48
X-38.003 Y-80.105 Z-1.531
X-38.046 Y-80.062 Z-1.569
X-38.093 Y-80.015 Z-1.592
X-38.143 Y-79.965 Z-1.6
X-38.368 Y-79.741
G3 X-38.817 Y-79.741 I-0.225 J-0.225
G1 X-48.771 Y-89.695 F1500
G3 X-28.862 Y-69.786 I7.771 J12.138
G1 X-38.817 Y-79.741
G3 X-38.817 Y-80.19 I0.225 J-0.225 F1016
G1 X-38.592 Y-80.414
X-38.542 Y-80.464 Z-1.592
X-38.495 Y-80.511 Z-1.569
X-38.452 Y-80.554 Z-1.531
X-38.417 Y-80.59 Z-1.48
X-38.39 Y-80.616 Z-1.42
X-38.373 Y-80.633 Z-1.353
X-38.368 Y-80.639 Z-1.283
Z5 F1500
X-37.919 Y-80.19
Z0.2 F300
Z-2.083
X-37.924 Y-80.184 Z-2.153 F1016
X-37.941 Y-80.167 Z-2.22
X-37.968 Y-80.141 Z-2.28
X-38.003 Y-80.105 Z-2.331
X-38.046 Y-80.062 Z-2.369
X-38.093 Y-80.015 Z-2.392
X-38.143 Y-79.965 Z-2.4
X-38.368 Y-79.741
G3 X-38.817 Y-79.741 I-0.225 J-0.225
G1 X-48.771 Y-89.695 F1500
G3 X-28.862 Y-69.786 I7.771 J12.138
G1 X-38.817 Y-79.741
G3 X-38.817 Y-80.19 I0.225 J-0.225 F1016
G1 X-38.592 Y-80.414
X-38.542 Y-80.464 Z-2.392
X-38.495 Y-80.511 Z-2.369
X-38.452 Y-80.554 Z-2.331
X-38.417 Y-80.59 Z-2.28
X-38.39 Y-80.616 Z-2.22
X-38.373 Y-80.633 Z-2.153
X-38.368 Y-80.639 Z-2.083
Z5 F1500
X-37.919 Y-80.19
Z-0.6 F300
Z-2.883
X-37.924 Y-80.184 Z-2.953 F1016
X-37.941 Y-80.167 Z-3.02
X-37.968 Y-80.141 Z-3.08
X-38.003 Y-80.105 Z-3.131
X-38.046 Y-80.062 Z-3.169
X-38.093 Y-80.015 Z-3.192
X-38.143 Y-79.965 Z-3.2
X-38.368 Y-79.741
G3 X-38.817 Y-79.741 I-0.225 J-0.225
G1 X-48.771 Y-89.695 F1500
G3 X-28.862 Y-69.786 I7.771 J12.138
G1 X-38.817 Y-79.741
G3 X-38.817 Y-80.19 I0.225 J-0.225 F1016
G1 X-38.592 Y-80.414
X-38.542 Y-80.464 Z-3.192
X-38.495 Y-80.511 Z-3.169
X-38.452 Y-80.554 Z-3.131
X-38.417 Y-80.59 Z-3.08
X-38.39 Y-80.616 Z-3.02
X-38.373 Y-80.633 Z-2.953
X-38.368 Y-80.639 Z-2.883
Z5 F1500
X-37.919 Y-80.19
Z-1.4 F300
Z-3.683
X-37.924 Y-80.184 Z-3.753 F1016
X-37.941 Y-80.167 Z-3.82
X-37.968 Y-80.141 Z-3.88
X-38.003 Y-80.105 Z-3.931
X-38.046 Y-80.062 Z-3.969
X-38.093 Y-80.015 Z-3.992
X-38.143 Y-79.965 Z-4
X-38.368 Y-79.741
G3 X-38.817 Y-79.741 I-0.225 J-0.225
G1 X-48.771 Y-89.695 F1500
G3 X-28.862 Y-69.786 I7.771 J12.138
G1 X-38.817 Y-79.741
G3 X-38.817 Y-80.19 I0.225 J-0.225 F1016
G1 X-38.592 Y-80.414
X-38.542 Y-80.464 Z-3.992
X-38.495 Y-80.511 Z-3.969
X-38.452 Y-80.554 Z-3.931
X-38.417 Y-80.59 Z-3.88
X-38.39 Y-80.616 Z-3.82
X-38.373 Y-80.633 Z-3.753
X-38.368 Y-80.639 Z-3.683
Z5 F1500
X-44.081 Y-74.925
Z1.8 F300
Z-0.483
X-44.076 Y-74.931 Z-0.553 F1016
X-44.059 Y-74.947 Z-0.62
X-44.032 Y-74.974 Z-0.68
X-43.997 Y-75.01 Z-0.731
X-43.954 Y-75.052 Z-0.769
X-43.907 Y-75.1 Z-0.792
X-43.857 Y-75.15 Z-0.8
X-43.632 Y-75.374
G3 X-43.183 Y-75.374 I0.225 J0.225
G1 X-33.229 Y-65.42 F1500
G3 X-53.138 Y-85.329 I-7.771 J-12.138
G1 X-43.183 Y-75.374
G3 X-43.183 Y-74.925 I-0.225 J0.225 F1016
G1 X-43.408 Y-74.701
X-43.458 Y-74.651 Z-0.792
X-43.505 Y-74.603 Z-0.769
X-43.548 Y-74.561 Z-0.731
X-43.583 Y-74.525 Z-0.68
X-43.61 Y-74.498 Z-0.62
X-43.627 Y-74.482 Z-0.553
X-43.632 Y-74.476 Z-0.483
Z5 F1500
X-44.081 Y-74.925
Z1 F300
Z-1.283
X-44.076 Y-74.931 Z-1.353 F1016
X-44.059 Y-74.947 Z-1.42
X-44.032 Y-74.974 Z-1.48
X-43.997 Y-75.01 Z-1.531
X-43.954 Y-75.052 Z-1.569
X-43.907 Y-75.1 Z-1.592
X-43.857 Y-75.15 Z-1.6
X-43.632 Y-75.374
G3 X-43.183 Y-75.374 I0.225 J0.225
G1 X-33.229 Y-65.42 F1500
G3 X-53.138 Y-85.329 I-7.771 J-12.138
G1 X-43.183 Y-75.374
G3 X-43.183 Y-74.925 I-0.225 J0.225 F1016
G1 X-43.408 Y-74.701
X-43.458 Y-74.651 Z-1.592
X-43.505 Y-74.603 Z-1.569
X-43.548 Y-74.561 Z-1.531
X-43.583 Y-74.525 Z-1.48
X-43.61 Y-74.498 Z-1.42
X-43.627 Y-74.482 Z-1.353
X-43.632 Y-74.476 Z-1.283
Z5 F1500
X-44.081 Y-74.925
Z0.2 F300
Z-2.083
X-44.076 Y-74.931 Z-2.153 F1016
X-44.059 Y-74.947 Z-2.22
X-44.032 Y-74.974 Z-2.28
X-43.997 Y-75.01 Z-2.331
X-43.954 Y-75.052 Z-2.369
X-43.907 Y-75.1 Z-2.392
X-43.857 Y-75.15 Z-2.4
X-43.632 Y-75.374
G3 X-43.183 Y-75.374 I0.225 J0.225
G1 X-33.229 Y-65.42 F1500
G3 X-53.138 Y-85.329 I-7.771 J-12.138
G1 X-43.183 Y-75.374
G3 X-43.183 Y-74.925 I-0.225 J0.225 F1016
G1 X-43.408 Y-74.701
X-43.458 Y-74.651 Z-2.392
X-43.505 Y-74.603 Z-2.369
X-43.548 Y-74.561 Z-2.331
X-43.583 Y-74.525 Z-2.28
X-43.61 Y-74.498 Z-2.22
X-43.627 Y-74.482 Z-2.153
X-43.632 Y-74.476 Z-2.083
Z5 F1500
X-44.081 Y-74.925
Z-0.6 F300
Z-2.883
X-44.076 Y-74.931 Z-2.953 F1016
X-44.059 Y-74.947 Z-3.02
X-44.032 Y-74.974 Z-3.08
X-43.997 Y-75.01 Z-3.131
X-43.954 Y-75.052 Z-3.169
X-43.907 Y-75.1 Z-3.192
X-43.857 Y-75.15 Z-3.2
X-43.632 Y-75.374
G3 X-43.183 Y-75.374 I0.225 J0.225
G1 X-33.229 Y-65.42 F1500
G3 X-53.138 Y-85.329 I-7.771 J-12.138
G1 X-43.183 Y-75.374
G3 X-43.183 Y-74.925 I-0.225 J0.225 F1016
G1 X-43.408 Y-74.701
X-43.458 Y-74.651 Z-3.192
X-43.505 Y-74.603 Z-3.169
X-43.548 Y-74.561 Z-3.131
X-43.583 Y-74.525 Z-3.08
X-43.61 Y-74.498 Z-3.02
X-43.627 Y-74.482 Z-2.953
X-43.632 Y-74.476 Z-2.883
Z5 F1500
X-44.081 Y-74.925
Z-1.4 F300
Z-3.683
X-44.076 Y-74.931 Z-3.753 F1016
X-44.059 Y-74.947 Z-3.82
X-44.032 Y-74.974 Z-3.88
X-43.997 Y-75.01 Z-3.931
X-43.954 Y-75.052 Z-3.969
X-43.907 Y-75.1 Z-3.992
X-43.857 Y-75.15 Z-4
X-43.632 Y-75.374
G3 X-43.183 Y-75.374 I0.225 J0.225
G1 X-33.229 Y-65.42 F1500
G3 X-53.138 Y-85.329 I-7.771 J-12.138
G1 X-43.183 Y-75.374
G3 X-43.183 Y-74.925 I-0.225 J0.225 F1016
G1 X-43.408 Y-74.701
X-43.458 Y-74.651 Z-3.992
X-43.505 Y-74.603 Z-3.969
X-43.548 Y-74.561 Z-3.931
X-43.583 Y-74.525 Z-3.88
X-43.61 Y-74.498 Z-3.82
X-43.627 Y-74.482 Z-3.753
X-43.632 Y-74.476 Z-3.683
Z15 F1500
(When using Fusion 360 for Personal Use, the feedrate of)
(rapid moves is reduced to match the feedrate of cutting)
(moves, which can increase machining time. Unrestricted rapid)
(moves are available with a Fusion 360 Subscription.)

(2D-Kontur10)
G0 X0.587 Y-68.965
G1 Z15 F1500
Z5
Z2.5 F300
S8000
Y-96.557 Z1.536 F1016
G2 X-1 Y-98.145 Z1.449 I-1.587 J0
G1 X-65.414 Z-0.8
S6000
X-129.828 F1500
G2 X-131.415 Y-96.512 I0 J1.588
G1 X-129.061 Y-14.125
G2 X-113.922 Y0.587 I15.139 J-0.433
G1 X-1
G2 X0.587 Y-1 I0 J-1.587
G1 Y-96.557
G2 X-1 Y-98.145 I-1.587 J0
G1 X-65.414
S8000
X-95.455 Z-1.6 F1016
S6000
X-129.828 F1500
G2 X-131.415 Y-96.512 I0 J1.588
G1 X-129.061 Y-14.125
G2 X-113.922 Y0.587 I15.139 J-0.433
G1 X-1
G2 X0.587 Y-1 I0 J-1.587
G1 Y-96.557
G2 X-1 Y-98.145 I-1.587 J0
G1 X-65.414
X-95.455
S8000
X-125.496 Z-2.4 F1016
S6000
X-129.828 F1500
G2 X-131.415 Y-96.512 I0 J1.588
G1 X-129.061 Y-14.125
G2 X-113.922 Y0.587 I15.139 J-0.433
G1 X-1
G2 X0.587 Y-1 I0 J-1.587
G1 Y-96.557
G2 X-1 Y-98.145 I-1.587 J0
G1 X-95.455
X-125.496
S8000
X-129.828 Z-2.515 F1016
G2 X-131.415 Y-96.512 Z-2.583 I0 J1.588
G1 X-130.753 Y-73.352 Z-3.2
S6000
X-129.061 Y-14.125 F1500
G2 X-113.922 Y0.587 I15.139 J-0.433
G1 X-1
G2 X0.587 Y-1 I0 J-1.587
G1 Y-96.557
G2 X-1 Y-98.145 I-1.587 J0
G1 X-125.496
X-129.828
G2 X-131.415 Y-96.512 I0 J1.588
G1 X-130.753 Y-73.352
S8000
X-129.895 Y-43.324 Z-4 F1016
S6000
X-129.061 Y-14.125 F1500
G2 X-113.922 Y0.587 I15.139 J-0.433
G1 X-1
G2 X0.587 Y-1 I0 J-1.587
G1 Y-96.557
G2 X-1 Y-98.145 I-1.587 J0
G1 X-129.828
G2 X-131.415 Y-96.512 I0 J1.588
G1 X-129.895 Y-43.324
Z15
M5
M30
