(1001)
(Bearbeiten)
(  Hersteller: ChinaCnc)
(  model: 3040T)
(  description: Generic 3-axis)
(T14  D=3.175 CR=0 - ZMIN=-0.2 - Schaftfraser)
G90 G94
G17
G21
G28 G91 Z0
G90

(2D-Kontur3)
T14
S6000 M3
G54
G0 X-25.546 Y0.587
Z10
Z5
G1 Z2.5 F300
S8000
X-1 Z1.643 F1016
G2 X0.587 Y-1 Z1.556 I0 J-1.587
G1 Y-51.278 Z-0.2
S6000
Y-101.557 F1500
G2 X-1 Y-103.145 I-1.587 J0
G1 X-100.971
G2 X-102.558 Y-101.512 I0 J1.588
G1 X-100.061 Y-14.125
G2 X-84.922 Y0.587 I15.139 J-0.433
G1 X-1
G2 X0.587 Y-1 I0 J-1.587
G1 Y-51.278
G0 Z10
G28 G91 Z0
G90
G28 G91 X0 Y0
G90
M5
M30
