(1001)
G90 G94
G17
G21
(When using Fusion 360 for Personal Use, the feedrate of)
(rapid moves is reduced to match the feedrate of cutting)
(moves, which can increase machining time. Unrestricted rapid)
(moves are available with a Fusion 360 Subscription.)

(2D-Kontur15)
S6000 M3
G54
G0 X-115.879 Y-18.483
Z15
G1 Z5 F1000
Z3 F333.3
Z-1.683
G18 G2 X-115.562 Z-2 I0.317 K0 F1000
G1 X-115.244
G17 G3 X-114.926 Y-18.166 I0 J0.318
G1 Y-15.753
X-131.751
Y-20.578
X-114.926
Y-18.166
G3 X-115.244 Y-17.848 I-0.318 J0
G1 X-115.562
G18 G3 X-115.879 Z-1.683 I0 K0.317
G1 Z5
Y-18.483
Z1 F333.3
Z-2.833
G2 X-115.562 Z-3.15 I0.317 K0 F1000
G1 X-115.244
G17 G3 X-114.926 Y-18.166 I0 J0.318
G1 Y-15.753
X-131.751
Y-20.578
X-114.926
Y-18.166
G3 X-115.244 Y-17.848 I-0.318 J0
G1 X-115.562
G18 G3 X-115.879 Z-2.833 I0 K0.318
G1 Z5
Y-18.483
Z-0.15 F333.3
Z-3.983
G2 X-115.562 Z-4.3 I0.317 K0 F1000
G1 X-115.244
G17 G3 X-114.926 Y-18.166 I0 J0.318
G1 Y-15.753
X-131.751
Y-20.578
X-114.926
Y-18.166
G3 X-115.244 Y-17.848 I-0.318 J0
G1 X-115.562
G18 G3 X-115.879 Z-3.983 I0 K0.318
G1 Z15
G17
(When using Fusion 360 for Personal Use, the feedrate of)
(rapid moves is reduced to match the feedrate of cutting)
(moves, which can increase machining time. Unrestricted rapid)
(moves are available with a Fusion 360 Subscription.)

(2D-Kontur16)
G0 X-165.419 Y-22.719
G1 Z15 F1000
Z5
Z2.8 F333.3
Z-1.483
G18 G2 X-165.102 Z-1.8 I0.318 K0 F1000
G1 X-164.784
G17 G3 X-164.467 Y-22.401 I0 J0.318
X-171.292 Y-22.401 I-3.412 J0
G1 Y-28.189
G2 X-172.866 Y-29.776 I-1.587 J0
G1 X-173.886 Y-29.785
X-174.879 Y-29.794
X-175.846 Y-29.803
X-176.789 Y-29.813
X-177.71 Y-29.822
X-178.611 Y-29.832
X-179.496 Y-29.842
X-180.365 Y-29.852
X-181.22 Y-29.862
X-182.066 Y-29.872
X-183.74 Y-29.892
X-185.407 Y-29.91
X-185.408
X-187.09 Y-29.928
X-187.092
X-187.946 Y-29.936
X-188.813 Y-29.944
X-188.814
X-189.696 Y-29.951
X-189.697
X-190.595 Y-29.958
X-190.597
X-191.516 Y-29.964
X-191.517
X-192.458 Y-29.969
X-192.459
X-193.424 Y-29.974
X-193.426
X-194.419 Y-29.978
X-194.42
X-195.441 Y-29.981
X-195.442
X-196.494 Y-29.984
X-196.496
X-197.581 Y-29.985
X-197.582
X-198.7 Y-29.986
X-198.701
X-199.856
X-199.857
X-201.049
X-201.05 Y-29.985
X-202.28 Y-29.984
X-202.911 Y-29.982
X-203.552 Y-29.981
G2 X-205.137 Y-28.393 I0.003 J1.587
G1 Y-16.969
G2 X-203.765 Y-15.397 I1.588 J0
G1 X-201.449 Y-15.079
X-199.146 Y-14.756
X-196.856 Y-14.429
X-194.578 Y-14.097
X-192.314 Y-13.761
X-190.066 Y-13.422
X-187.833 Y-13.079
X-185.618 Y-12.735
X-183.421 Y-12.388
X-181.243 Y-12.04
X-179.087 Y-11.691
X-176.952 Y-11.342
X-174.84 Y-10.993
X-172.753 Y-10.645
X-170.691 Y-10.298
X-168.656 Y-9.954
X-166.649 Y-9.612
X-164.67 Y-9.273
X-162.721 Y-8.939
X-160.802 Y-8.609
X-158.913 Y-8.283
X-157.056 Y-7.963
X-155.231 Y-7.65
X-153.437 Y-7.342
X-153.436
X-151.675 Y-7.041
X-151.673
X-149.944 Y-6.748
X-149.943
X-148.246 Y-6.462
X-148.243
X-146.575 Y-6.183
X-146.572
X-144.933 Y-5.913
X-144.93 Y-5.912
X-143.319 Y-5.65
X-143.315 Y-5.649
X-141.73 Y-5.396
X-141.726 Y-5.395
X-140.168 Y-5.149
X-140.163
X-138.628 Y-4.912
X-138.623 Y-4.911
X-137.108 Y-4.682
X-137.103 Y-4.681
X-135.605 Y-4.459
X-135.6
X-134.117 Y-4.245
X-134.111 Y-4.244
X-132.639 Y-4.037
X-132.633 Y-4.036
X-131.17 Y-3.837
X-131.16 Y-3.835
X-128.247 Y-3.456
X-128.234 Y-3.454
X-125.32 Y-3.099
X-125.311 Y-3.097
X-123.844 Y-2.928
X-123.838 Y-2.927
X-122.362 Y-2.762
X-122.355 Y-2.761
X-120.866 Y-2.6
X-120.861
X-119.357 Y-2.443
X-119.351 Y-2.442
X-117.829 Y-2.289
X-117.824
X-116.283 Y-2.139
X-116.277 Y-2.138
X-114.715 Y-1.992
X-114.71 Y-1.991
X-113.125 Y-1.847
X-113.121
X-111.513 Y-1.706
X-111.508 Y-1.705
X-109.877 Y-1.567
X-109.873
X-108.218 Y-1.431
X-108.214
X-106.537 Y-1.298
X-106.532 Y-1.297
X-104.832 Y-1.167
X-104.828 Y-1.166
X-103.107 Y-1.039
X-103.103 Y-1.038
X-101.364 Y-0.914
X-101.36
X-99.604 Y-0.792
X-99.6
X-97.829 Y-0.674
X-97.825
X-96.042 Y-0.56
X-96.036 Y-0.559
X-92.443 Y-0.344
X-92.435 Y-0.343
X-88.825 Y-0.146
X-88.816 Y-0.145
X-85.214 Y0.031
X-85.207 Y0.032
X-83.415 Y0.111
X-83.41 Y0.112
X-81.629 Y0.185
X-81.624 Y0.186
X-79.855 Y0.253
X-79.85
X-78.095 Y0.315
X-78.09
X-76.352 Y0.37
X-76.347
X-74.627 Y0.418
X-74.622 Y0.419
X-72.923 Y0.461
X-72.917
X-71.24 Y0.496
X-71.235
X-69.58 Y0.525
X-69.574
X-67.941 Y0.549
X-67.936
X-66.324 Y0.566
X-66.319
X-64.728 Y0.578
X-64.723
X-63.153 Y0.585
X-63.148
X-61.599 Y0.588
X-61.594
X-60.064 Y0.585
X-60.06
X-58.546 Y0.579
X-58.542
X-57.042 Y0.569
X-57.039
X-55.552 Y0.556
X-55.547 Y0.555
X-52.605 Y0.518
X-52.599
X-49.685 Y0.469
X-49.678
X-46.774 Y0.406
X-46.764
X-43.855 Y0.325
X-43.842
X-40.915 Y0.219
X-40.903
X-39.428 Y0.155
X-39.418
X-37.933 Y0.081
X-37.921
X-36.426 Y-0.004
X-36.413
X-34.908 Y-0.102
X-34.893 Y-0.103
X-33.38 Y-0.216
X-33.363 Y-0.217
X-31.841 Y-0.347
X-31.822 Y-0.348
X-30.292 Y-0.497
X-30.271 Y-0.499
X-28.733 Y-0.668
X-28.712 Y-0.67
X-27.166 Y-0.862
X-27.142 Y-0.865
X-25.591 Y-1.081
X-25.566 Y-1.085
X-24.013 Y-1.326
X-23.986 Y-1.331
X-22.434 Y-1.599
X-22.406 Y-1.604
X-20.858 Y-1.901
X-20.828 Y-1.907
X-19.288 Y-2.233
X-19.257 Y-2.24
X-17.729 Y-2.596
X-17.697 Y-2.604
X-16.187 Y-2.99
X-16.153 Y-2.999
X-14.667 Y-3.413
X-14.64 Y-3.421
X-13.908 Y-3.639
X-13.89 Y-3.645
X-13.165 Y-3.87
X-13.147 Y-3.876
X-12.431 Y-4.109
X-12.412 Y-4.115
X-11.707 Y-4.354
X-11.687 Y-4.361
X-10.993 Y-4.607
X-10.972 Y-4.614
X-10.29 Y-4.866
X-10.27 Y-4.874
X-9.601 Y-5.132
X-9.579 Y-5.14
X-8.925 Y-5.403
X-8.903 Y-5.413
X-8.264 Y-5.681
X-8.24 Y-5.691
X-7.618 Y-5.964
X-7.594 Y-5.975
X-6.989 Y-6.252
X-6.963 Y-6.264
X-6.377 Y-6.546
X-6.35 Y-6.559
X-5.785 Y-6.844
X-5.756 Y-6.858
X-5.212 Y-7.146
X-5.182 Y-7.163
X-4.66 Y-7.453
X-4.629 Y-7.471
X-4.13 Y-7.764
X-4.096 Y-7.784
X-3.623 Y-8.079
X-3.587 Y-8.102
X-3.139 Y-8.397
X-3.1 Y-8.424
X-2.679 Y-8.72
X-2.637 Y-8.751
X-2.244 Y-9.047
X-2.198 Y-9.084
X-1.835 Y-9.379
X-1.784 Y-9.422
X-1.452 Y-9.717
X-1.397 Y-9.768
X-1.096 Y-10.062
X-1.037 Y-10.123
X-0.768 Y-10.415
X-0.705 Y-10.488
X-0.469 Y-10.778
X-0.402 Y-10.866
X-0.2 Y-11.154
X-0.131 Y-11.26
X0.037 Y-11.545
X0.105 Y-11.671
X0.239 Y-11.954
X0.272 Y-12.028
X0.301 Y-12.104
X0.401 Y-12.384
X0.429 Y-12.47
X0.452 Y-12.557
X0.516 Y-12.834
X0.536 Y-12.931
X0.549 Y-13.029
X0.577 Y-13.303
X0.584 Y-13.382
X0.586 Y-13.462
Y-13.598
X0.582 Y-13.718
X0.572 Y-13.857
X0.564 Y-13.938
X0.552 Y-14.018
X0.502 Y-14.305
X0.482 Y-14.399
X0.457 Y-14.491
X0.37 Y-14.779
X0.343 Y-14.86
X0.312 Y-14.938
X0.185 Y-15.238
X0.124 Y-15.366
X-0.041 Y-15.675
X-0.101 Y-15.778
X-0.303 Y-16.096
X-0.36 Y-16.179
X-0.597 Y-16.505
X-0.649 Y-16.573
X-0.92 Y-16.906
X-0.968 Y-16.962
X-1.271 Y-17.3
X-1.314 Y-17.347
X-1.648 Y-17.691
X-1.687 Y-17.73
X-2.049 Y-18.078
X-2.086 Y-18.112
X-2.474 Y-18.462
X-2.507 Y-18.491
X-2.92 Y-18.843
X-2.951 Y-18.869
X-3.386 Y-19.222
X-3.415 Y-19.244
X-3.87 Y-19.596
X-3.897 Y-19.617
X-4.371 Y-19.966
X-4.397 Y-19.985
X-4.886 Y-20.332
X-4.91 Y-20.349
X-5.413 Y-20.691
X-5.437 Y-20.707
X-5.952 Y-21.044
X-5.975 Y-21.059
X-6.5 Y-21.389
X-6.523 Y-21.403
X-7.055 Y-21.726
X-7.078 Y-21.739
X-7.616 Y-22.053
X-7.639 Y-22.066
X-8.181 Y-22.37
X-8.205 Y-22.383
X-8.75 Y-22.676
X-8.774 Y-22.689
X-9.32 Y-22.971
X-9.345 Y-22.984
X-9.891 Y-23.254
X-9.916 Y-23.266
X-10.462 Y-23.524
X-10.489 Y-23.536
X-11.033 Y-23.781
X-11.06 Y-23.793
X-11.603 Y-24.025
X-11.631 Y-24.037
X-12.171 Y-24.256
X-12.2 Y-24.268
X-12.739 Y-24.474
X-12.768 Y-24.485
X-13.305 Y-24.679
X-13.335 Y-24.689
X-13.87 Y-24.87
X-13.9 Y-24.88
X-14.435 Y-25.049
X-14.465 Y-25.058
X-14.999 Y-25.216
X-15.029 Y-25.224
X-15.564 Y-25.37
X-15.593 Y-25.378
X-16.129 Y-25.513
X-16.171 Y-25.524
X-17.25 Y-25.765
X-17.303 Y-25.776
X-18.399 Y-25.982
X-18.434 Y-25.988
X-18.992 Y-26.081
X-19.013 Y-26.084
X-19.578 Y-26.17
X-19.597 Y-26.173
X-20.172 Y-26.253
X-20.188 Y-26.255
X-20.773 Y-26.331
X-20.787 Y-26.332
X-21.384 Y-26.404
X-21.396 Y-26.406
X-22.006 Y-26.474
X-22.016 Y-26.475
X-22.64 Y-26.542
X-22.648 Y-26.543
X-23.287 Y-26.608
X-23.293
X-23.949 Y-26.672
X-23.953 Y-26.673
X-24.626 Y-26.737
X-24.629
X-25.319 Y-26.801
X-25.322
X-26.031 Y-26.866
X-26.032 Y-26.867
X-26.759 Y-26.933
X-27.507 Y-27
X-28.273 Y-27.069
X-29.057 Y-27.14
X-29.859 Y-27.212
X-30.681 Y-27.286
X-31.519 Y-27.361
X-32.374 Y-27.438
X-33.247 Y-27.516
X-34.135 Y-27.594
X-35.038 Y-27.674
X-35.04
X-35.956 Y-27.754
X-35.957
X-36.887 Y-27.834
X-36.889
X-37.831 Y-27.914
X-37.833
X-38.787 Y-27.994
X-38.789 Y-27.995
X-39.754 Y-28.074
X-39.757
X-41.715 Y-28.232
X-41.72
X-43.712 Y-28.386
X-43.718 Y-28.387
X-45.738 Y-28.536
X-45.743 Y-28.537
X-47.787 Y-28.681
X-47.792 Y-28.682
X-49.852 Y-28.821
X-49.86
X-54.013 Y-29.08
X-54.024 Y-29.081
X-58.185 Y-29.311
X-58.194 Y-29.312
X-60.266 Y-29.416
X-60.271
X-62.333 Y-29.513
X-62.338
X-64.384 Y-29.602
X-64.39
X-66.418 Y-29.683
X-66.424 Y-29.684
X-68.431 Y-29.757
X-68.436 Y-29.758
X-70.421 Y-29.824
X-70.426
X-72.385 Y-29.884
X-72.39
X-74.322 Y-29.937
X-74.327
X-76.231 Y-29.983
X-76.235
X-78.111 Y-30.023
X-78.115
X-79.962 Y-30.057
X-79.966
X-81.785 Y-30.086
X-81.789
X-83.581 Y-30.109
X-83.585
X-85.352 Y-30.127
X-85.356
X-87.099 Y-30.141
X-87.103
X-88.826 Y-30.151
X-88.829
X-90.535 Y-30.156
X-90.539
X-92.231 Y-30.158
X-92.235
X-95.592 Y-30.152
X-95.597
X-98.944 Y-30.135
G2 X-100.523 Y-28.547 I0.008 J1.587
G1 Y-22.471
G3 X-107.349 Y-22.471 I-3.413 J0
G1 Y-28.454
G2 X-108.954 Y-30.041 I-1.587 J0
G1 X-110.456 Y-30.025
X-111.979 Y-30.007
X-113.523 Y-29.99
X-115.09 Y-29.972
X-116.678 Y-29.955
X-118.291 Y-29.937
X-119.928 Y-29.92
X-121.586 Y-29.903
X-123.268 Y-29.886
X-124.971 Y-29.87
X-126.694 Y-29.854
X-128.436 Y-29.838
X-130.193 Y-29.824
X-131.964 Y-29.81
X-135.539 Y-29.785
X-142.736 Y-29.745
X-144.525 Y-29.737
X-146.305 Y-29.731
X-148.072 Y-29.725
X-149.823 Y-29.721
X-151.554 Y-29.717
X-153.261 Y-29.715
X-154.943 Y-29.714
X-156.597
X-158.219 Y-29.715
X-159.807 Y-29.716
X-161.36 Y-29.719
X-162.875 Y-29.723
G2 X-164.467 Y-28.135 I-0.004 J1.587
G1 Y-22.401
G3 X-164.784 Y-22.084 I-0.317 J0
G1 X-165.102
G18 G3 X-165.419 Z-1.483 I0 K0.317
G1 Z5
Y-22.719
Z1 F333.3
Z-3.283
G2 X-165.102 Z-3.6 I0.318 K0 F1000
G1 X-164.784
G17 G3 X-164.467 Y-22.401 I0 J0.318
X-171.292 Y-22.401 I-3.412 J0
G1 Y-28.189
G2 X-172.866 Y-29.776 I-1.587 J0
G1 X-173.886 Y-29.785
X-174.879 Y-29.794
X-175.846 Y-29.803
X-176.789 Y-29.813
X-177.71 Y-29.822
X-178.611 Y-29.832
X-179.496 Y-29.842
X-180.365 Y-29.852
X-181.22 Y-29.862
X-182.066 Y-29.872
X-183.74 Y-29.892
X-185.407 Y-29.91
X-185.408
X-187.09 Y-29.928
X-187.092
X-187.946 Y-29.936
X-188.813 Y-29.944
X-188.814
X-189.696 Y-29.951
X-189.697
X-190.595 Y-29.958
X-190.597
X-191.516 Y-29.964
X-191.517
X-192.458 Y-29.969
X-192.459
X-193.424 Y-29.974
X-193.426
X-194.419 Y-29.978
X-194.42
X-195.441 Y-29.981
X-195.442
X-196.494 Y-29.984
X-196.496
X-197.581 Y-29.985
X-197.582
X-198.7 Y-29.986
X-198.701
X-199.856
X-199.857
X-201.049
X-201.05 Y-29.985
X-202.28 Y-29.984
X-202.911 Y-29.982
X-203.552 Y-29.981
G2 X-205.137 Y-28.393 I0.003 J1.587
G1 Y-16.969
G2 X-203.765 Y-15.397 I1.588 J0
G1 X-201.449 Y-15.079
X-199.146 Y-14.756
X-196.856 Y-14.429
X-194.578 Y-14.097
X-192.314 Y-13.761
X-190.066 Y-13.422
X-187.833 Y-13.079
X-185.618 Y-12.735
X-183.421 Y-12.388
X-181.243 Y-12.04
X-179.087 Y-11.691
X-176.952 Y-11.342
X-174.84 Y-10.993
X-172.753 Y-10.645
X-170.691 Y-10.298
X-168.656 Y-9.954
X-166.649 Y-9.612
X-164.67 Y-9.273
X-162.721 Y-8.939
X-160.802 Y-8.609
X-158.913 Y-8.283
X-157.056 Y-7.963
X-155.231 Y-7.65
X-153.437 Y-7.342
X-153.436
X-151.675 Y-7.041
X-151.673
X-149.944 Y-6.748
X-149.943
X-148.246 Y-6.462
X-148.243
X-146.575 Y-6.183
X-146.572
X-144.933 Y-5.913
X-144.93 Y-5.912
X-143.319 Y-5.65
X-143.315 Y-5.649
X-143.301 Y-5.647
Z-3.506
X-141.73 Y-5.396
X-141.726 Y-5.395
X-140.168 Y-5.149
X-140.163
X-138.628 Y-4.912
X-138.623 Y-4.911
X-137.108 Y-4.682
X-137.103 Y-4.681
X-137.027 Y-4.67
Z-3.6 F333.3
X-135.605 Y-4.459 F1000
X-135.6
X-134.117 Y-4.245
X-134.111 Y-4.244
X-132.639 Y-4.037
X-132.633 Y-4.036
X-131.17 Y-3.837
X-131.16 Y-3.835
X-128.247 Y-3.456
X-128.234 Y-3.454
X-125.32 Y-3.099
X-125.311 Y-3.097
X-123.844 Y-2.928
X-123.838 Y-2.927
X-122.362 Y-2.762
X-122.355 Y-2.761
X-120.866 Y-2.6
X-120.861
X-119.357 Y-2.443
X-119.351 Y-2.442
X-117.829 Y-2.289
X-117.824
X-116.283 Y-2.139
X-116.277 Y-2.138
X-114.715 Y-1.992
X-114.71 Y-1.991
X-113.125 Y-1.847
X-113.121
X-111.513 Y-1.706
X-111.508 Y-1.705
X-109.877 Y-1.567
X-109.873
X-108.218 Y-1.431
X-108.214
X-106.537 Y-1.298
X-106.532 Y-1.297
X-104.832 Y-1.167
X-104.828 Y-1.166
X-103.107 Y-1.039
X-103.103 Y-1.038
X-101.364 Y-0.914
X-101.36
X-99.604 Y-0.792
X-99.6
X-97.829 Y-0.674
X-97.825
X-96.042 Y-0.56
X-96.036 Y-0.559
X-92.443 Y-0.344
X-92.435 Y-0.343
X-88.825 Y-0.146
X-88.816 Y-0.145
X-85.214 Y0.031
X-85.207 Y0.032
X-83.415 Y0.111
X-83.41 Y0.112
X-81.629 Y0.185
X-81.624 Y0.186
X-79.855 Y0.253
X-79.85
X-78.095 Y0.315
X-78.09
X-76.352 Y0.37
X-76.347
X-74.627 Y0.418
X-74.622 Y0.419
X-72.923 Y0.461
X-72.917
X-71.24 Y0.496
X-71.235
X-69.58 Y0.525
X-69.574
X-67.941 Y0.549
X-67.936
X-66.324 Y0.566
X-66.319
X-64.728 Y0.578
X-64.723
X-63.153 Y0.585
X-63.148
X-61.599 Y0.588
X-61.594
X-60.064 Y0.585
X-60.06
X-58.546 Y0.579
X-58.542
X-57.042 Y0.569
X-57.039
X-55.552 Y0.556
X-55.547 Y0.555
X-52.605 Y0.518
X-52.599
X-49.685 Y0.469
X-49.678
X-46.774 Y0.406
X-46.764
X-43.855 Y0.325
X-43.842
X-41.099 Y0.226
Z-3.506
X-40.915 Y0.219
X-40.903
X-39.428 Y0.155
X-39.418
X-37.933 Y0.081
X-37.921
X-36.426 Y-0.004
X-36.413
X-34.908 Y-0.102
X-34.893 Y-0.103
X-34.758 Y-0.113
Z-3.6 F333.3
X-33.38 Y-0.216 F1000
X-33.363 Y-0.217
X-31.841 Y-0.347
X-31.822 Y-0.348
X-30.292 Y-0.497
X-30.271 Y-0.499
X-28.733 Y-0.668
X-28.712 Y-0.67
X-27.166 Y-0.862
X-27.142 Y-0.865
X-25.591 Y-1.081
X-25.566 Y-1.085
X-24.013 Y-1.326
X-23.986 Y-1.331
X-22.434 Y-1.599
X-22.406 Y-1.604
X-20.858 Y-1.901
X-20.828 Y-1.907
X-19.288 Y-2.233
X-19.257 Y-2.24
X-17.729 Y-2.596
X-17.697 Y-2.604
X-16.187 Y-2.99
X-16.153 Y-2.999
X-14.667 Y-3.413
X-14.64 Y-3.421
X-13.908 Y-3.639
X-13.89 Y-3.645
X-13.165 Y-3.87
X-13.147 Y-3.876
X-12.431 Y-4.109
X-12.412 Y-4.115
X-11.707 Y-4.354
X-11.687 Y-4.361
X-10.993 Y-4.607
X-10.972 Y-4.614
X-10.29 Y-4.866
X-10.27 Y-4.874
X-9.601 Y-5.132
X-9.579 Y-5.14
X-8.925 Y-5.403
X-8.903 Y-5.413
X-8.264 Y-5.681
X-8.24 Y-5.691
X-7.618 Y-5.964
X-7.594 Y-5.975
X-6.989 Y-6.252
X-6.963 Y-6.264
X-6.377 Y-6.546
X-6.35 Y-6.559
X-5.785 Y-6.844
X-5.756 Y-6.858
X-5.212 Y-7.146
X-5.182 Y-7.163
X-4.66 Y-7.453
X-4.629 Y-7.471
X-4.13 Y-7.764
X-4.096 Y-7.784
X-3.623 Y-8.079
X-3.587 Y-8.102
X-3.139 Y-8.397
X-3.1 Y-8.424
X-2.679 Y-8.72
X-2.637 Y-8.751
X-2.244 Y-9.047
X-2.198 Y-9.084
X-1.835 Y-9.379
X-1.784 Y-9.422
X-1.452 Y-9.717
X-1.397 Y-9.768
X-1.096 Y-10.062
X-1.037 Y-10.123
X-0.768 Y-10.415
X-0.705 Y-10.488
X-0.469 Y-10.778
X-0.402 Y-10.866
X-0.2 Y-11.154
X-0.131 Y-11.26
X0.037 Y-11.545
X0.105 Y-11.671
X0.239 Y-11.954
X0.272 Y-12.028
X0.301 Y-12.104
X0.401 Y-12.384
X0.429 Y-12.47
X0.452 Y-12.557
X0.516 Y-12.834
X0.536 Y-12.931
X0.549 Y-13.029
X0.577 Y-13.303
X0.584 Y-13.382
X0.586 Y-13.462
Y-13.598
X0.582 Y-13.718
X0.572 Y-13.857
X0.564 Y-13.938
X0.552 Y-14.018
X0.502 Y-14.305
X0.482 Y-14.399
X0.457 Y-14.491
X0.37 Y-14.779
X0.343 Y-14.86
X0.312 Y-14.938
X0.185 Y-15.238
X0.124 Y-15.366
X-0.041 Y-15.675
X-0.101 Y-15.778
X-0.303 Y-16.096
X-0.36 Y-16.179
X-0.597 Y-16.505
X-0.649 Y-16.573
X-0.92 Y-16.906
X-0.968 Y-16.962
X-1.271 Y-17.3
X-1.314 Y-17.347
X-1.648 Y-17.691
X-1.687 Y-17.73
X-2.049 Y-18.078
X-2.086 Y-18.112
X-2.474 Y-18.462
X-2.507 Y-18.491
X-2.92 Y-18.843
X-2.951 Y-18.869
X-3.386 Y-19.222
X-3.415 Y-19.244
X-3.87 Y-19.596
X-3.897 Y-19.617
X-4.371 Y-19.966
X-4.397 Y-19.985
X-4.886 Y-20.332
X-4.91 Y-20.349
X-5.413 Y-20.691
X-5.437 Y-20.707
X-5.952 Y-21.044
X-5.975 Y-21.059
X-6.5 Y-21.389
X-6.523 Y-21.403
X-7.055 Y-21.726
X-7.078 Y-21.739
X-7.616 Y-22.053
X-7.639 Y-22.066
X-8.181 Y-22.37
X-8.205 Y-22.383
X-8.75 Y-22.676
X-8.774 Y-22.689
X-9.32 Y-22.971
X-9.345 Y-22.984
X-9.891 Y-23.254
X-9.916 Y-23.266
X-10.462 Y-23.524
X-10.489 Y-23.536
X-11.033 Y-23.781
X-11.06 Y-23.793
X-11.603 Y-24.025
X-11.631 Y-24.037
X-12.171 Y-24.256
X-12.2 Y-24.268
X-12.739 Y-24.474
X-12.768 Y-24.485
X-13.305 Y-24.679
X-13.335 Y-24.689
X-13.87 Y-24.87
X-13.9 Y-24.88
X-14.435 Y-25.049
X-14.465 Y-25.058
X-14.999 Y-25.216
X-15.029 Y-25.224
X-15.564 Y-25.37
X-15.593 Y-25.378
X-16.129 Y-25.513
X-16.171 Y-25.524
X-17.25 Y-25.765
X-17.303 Y-25.776
X-18.399 Y-25.982
X-18.434 Y-25.988
X-18.992 Y-26.081
X-19.013 Y-26.084
X-19.578 Y-26.17
X-19.597 Y-26.173
X-20.172 Y-26.253
X-20.188 Y-26.255
X-20.773 Y-26.331
X-20.787 Y-26.332
X-21.384 Y-26.404
X-21.396 Y-26.406
X-22.006 Y-26.474
X-22.016 Y-26.475
X-22.64 Y-26.542
X-22.648 Y-26.543
X-23.287 Y-26.608
X-23.293
X-23.949 Y-26.672
X-23.953 Y-26.673
X-24.626 Y-26.737
X-24.629
X-25.319 Y-26.801
X-25.322
X-26.031 Y-26.866
X-26.032 Y-26.867
X-26.759 Y-26.933
X-27.507 Y-27
X-28.273 Y-27.069
X-29.057 Y-27.14
X-29.859 Y-27.212
X-30.681 Y-27.286
X-31.519 Y-27.361
X-32.374 Y-27.438
X-33.247 Y-27.516
X-34.135 Y-27.594
X-34.669 Y-27.641
Z-3.506
X-35.038 Y-27.674
X-35.04
X-35.956 Y-27.754
X-35.957
X-36.887 Y-27.834
X-36.889
X-37.831 Y-27.914
X-37.833
X-38.787 Y-27.994
X-38.789 Y-27.995
X-39.754 Y-28.074
X-39.757
X-40.996 Y-28.174
Z-3.6 F333.3
X-41.715 Y-28.232 F1000
X-41.72
X-43.712 Y-28.386
X-43.718 Y-28.387
X-45.738 Y-28.536
X-45.743 Y-28.537
X-47.787 Y-28.681
X-47.792 Y-28.682
X-49.852 Y-28.821
X-49.86
X-54.013 Y-29.08
X-54.024 Y-29.081
X-58.185 Y-29.311
X-58.194 Y-29.312
X-60.266 Y-29.416
X-60.271
X-62.333 Y-29.513
X-62.338
X-64.384 Y-29.602
X-64.39
X-66.418 Y-29.683
X-66.424 Y-29.684
X-68.431 Y-29.757
X-68.436 Y-29.758
X-70.421 Y-29.824
X-70.426
X-72.385 Y-29.884
X-72.39
X-74.322 Y-29.937
X-74.327
X-76.231 Y-29.983
X-76.235
X-78.111 Y-30.023
X-78.115
X-79.962 Y-30.057
X-79.966
X-81.785 Y-30.086
X-81.789
X-83.581 Y-30.109
X-83.585
X-85.352 Y-30.127
X-85.356
X-87.099 Y-30.141
X-87.103
X-88.826 Y-30.151
X-88.829
X-90.535 Y-30.156
X-90.539
X-92.231 Y-30.158
X-92.235
X-95.592 Y-30.152
X-95.597
X-98.944 Y-30.135
G2 X-100.523 Y-28.547 I0.008 J1.587
G1 Y-22.471
G3 X-107.349 Y-22.471 I-3.413 J0
G1 Y-28.454
G2 X-108.954 Y-30.041 I-1.587 J0
G1 X-110.456 Y-30.025
X-111.979 Y-30.007
X-113.523 Y-29.99
X-115.09 Y-29.972
X-116.678 Y-29.955
X-118.291 Y-29.937
X-119.928 Y-29.92
X-121.586 Y-29.903
X-123.268 Y-29.886
X-124.971 Y-29.87
X-126.694 Y-29.854
X-128.436 Y-29.838
X-130.193 Y-29.824
X-131.964 Y-29.81
X-135.539 Y-29.785
X-142.736 Y-29.745
X-144.525 Y-29.737
X-146.305 Y-29.731
X-148.072 Y-29.725
X-149.823 Y-29.721
X-151.554 Y-29.717
X-153.261 Y-29.715
X-154.943 Y-29.714
X-156.597
X-158.219 Y-29.715
X-159.807 Y-29.716
X-161.36 Y-29.719
X-162.875 Y-29.723
G2 X-164.467 Y-28.135 I-0.004 J1.587
G1 Y-22.401
G3 X-164.784 Y-22.084 I-0.317 J0
G1 X-165.102
G18 G3 X-165.419 Z-3.283 I0 K0.317
G1 Z5
Y-22.719
Z-0.8 F333.3
Z-3.983
G2 X-165.102 Z-4.3 I0.318 K0 F1000
G1 X-164.784
G17 G3 X-164.467 Y-22.401 I0 J0.318
X-171.292 Y-22.401 I-3.412 J0
G1 Y-28.189
G2 X-172.866 Y-29.776 I-1.587 J0
G1 X-173.886 Y-29.785
X-174.879 Y-29.794
X-175.846 Y-29.803
X-176.789 Y-29.813
X-177.71 Y-29.822
X-178.611 Y-29.832
X-179.496 Y-29.842
X-180.365 Y-29.852
X-181.22 Y-29.862
X-182.066 Y-29.872
X-183.74 Y-29.892
X-185.407 Y-29.91
X-185.408
X-187.09 Y-29.928
X-187.092
X-187.946 Y-29.936
X-188.813 Y-29.944
X-188.814
X-189.696 Y-29.951
X-189.697
X-190.595 Y-29.958
X-190.597
X-191.516 Y-29.964
X-191.517
X-192.458 Y-29.969
X-192.459
X-193.424 Y-29.974
X-193.426
X-194.419 Y-29.978
X-194.42
X-195.441 Y-29.981
X-195.442
X-196.494 Y-29.984
X-196.496
X-197.581 Y-29.985
X-197.582
X-198.7 Y-29.986
X-198.701
X-199.856
X-199.857
X-201.049
X-201.05 Y-29.985
X-202.28 Y-29.984
X-202.911 Y-29.982
X-203.552 Y-29.981
G2 X-205.137 Y-28.393 I0.003 J1.587
G1 Y-16.969
G2 X-203.765 Y-15.397 I1.588 J0
G1 X-201.449 Y-15.079
X-199.146 Y-14.756
X-196.856 Y-14.429
X-194.578 Y-14.097
X-192.314 Y-13.761
X-190.066 Y-13.422
X-187.833 Y-13.079
X-185.618 Y-12.735
X-183.421 Y-12.388
X-181.243 Y-12.04
X-179.087 Y-11.691
X-176.952 Y-11.342
X-174.84 Y-10.993
X-172.753 Y-10.645
X-170.691 Y-10.298
X-168.656 Y-9.954
X-166.649 Y-9.612
X-164.67 Y-9.273
X-162.721 Y-8.939
X-160.802 Y-8.609
X-158.913 Y-8.283
X-157.056 Y-7.963
X-155.231 Y-7.65
X-153.437 Y-7.342
X-153.436
X-151.675 Y-7.041
X-151.673
X-149.944 Y-6.748
X-149.943
X-148.246 Y-6.462
X-148.243
X-146.575 Y-6.183
X-146.572
X-144.933 Y-5.913
X-144.93 Y-5.912
X-143.319 Y-5.65
X-143.315 Y-5.649
X-143.301 Y-5.647
Z-3.506
X-141.73 Y-5.396
X-141.726 Y-5.395
X-140.168 Y-5.149
X-140.163
X-138.628 Y-4.912
X-138.623 Y-4.911
X-137.108 Y-4.682
X-137.103 Y-4.681
X-137.027 Y-4.67
Z-4.3 F333.3
X-135.605 Y-4.459 F1000
X-135.6
X-134.117 Y-4.245
X-134.111 Y-4.244
X-132.639 Y-4.037
X-132.633 Y-4.036
X-131.17 Y-3.837
X-131.16 Y-3.835
X-128.247 Y-3.456
X-128.234 Y-3.454
X-125.32 Y-3.099
X-125.311 Y-3.097
X-123.844 Y-2.928
X-123.838 Y-2.927
X-122.362 Y-2.762
X-122.355 Y-2.761
X-120.866 Y-2.6
X-120.861
X-119.357 Y-2.443
X-119.351 Y-2.442
X-117.829 Y-2.289
X-117.824
X-116.283 Y-2.139
X-116.277 Y-2.138
X-114.715 Y-1.992
X-114.71 Y-1.991
X-113.125 Y-1.847
X-113.121
X-111.513 Y-1.706
X-111.508 Y-1.705
X-109.877 Y-1.567
X-109.873
X-108.218 Y-1.431
X-108.214
X-106.537 Y-1.298
X-106.532 Y-1.297
X-104.832 Y-1.167
X-104.828 Y-1.166
X-103.107 Y-1.039
X-103.103 Y-1.038
X-101.364 Y-0.914
X-101.36
X-99.604 Y-0.792
X-99.6
X-97.829 Y-0.674
X-97.825
X-96.042 Y-0.56
X-96.036 Y-0.559
X-92.443 Y-0.344
X-92.435 Y-0.343
X-88.825 Y-0.146
X-88.816 Y-0.145
X-85.214 Y0.031
X-85.207 Y0.032
X-83.415 Y0.111
X-83.41 Y0.112
X-81.629 Y0.185
X-81.624 Y0.186
X-79.855 Y0.253
X-79.85
X-78.095 Y0.315
X-78.09
X-76.352 Y0.37
X-76.347
X-74.627 Y0.418
X-74.622 Y0.419
X-72.923 Y0.461
X-72.917
X-71.24 Y0.496
X-71.235
X-69.58 Y0.525
X-69.574
X-67.941 Y0.549
X-67.936
X-66.324 Y0.566
X-66.319
X-64.728 Y0.578
X-64.723
X-63.153 Y0.585
X-63.148
X-61.599 Y0.588
X-61.594
X-60.064 Y0.585
X-60.06
X-58.546 Y0.579
X-58.542
X-57.042 Y0.569
X-57.039
X-55.552 Y0.556
X-55.547 Y0.555
X-52.605 Y0.518
X-52.599
X-49.685 Y0.469
X-49.678
X-46.774 Y0.406
X-46.764
X-43.855 Y0.325
X-43.842
X-41.099 Y0.226
Z-3.506
X-40.915 Y0.219
X-40.903
X-39.428 Y0.155
X-39.418
X-37.933 Y0.081
X-37.921
X-36.426 Y-0.004
X-36.413
X-34.908 Y-0.102
X-34.893 Y-0.103
X-34.758 Y-0.113
Z-4.3 F333.3
X-33.38 Y-0.216 F1000
X-33.363 Y-0.217
X-31.841 Y-0.347
X-31.822 Y-0.348
X-30.292 Y-0.497
X-30.271 Y-0.499
X-28.733 Y-0.668
X-28.712 Y-0.67
X-27.166 Y-0.862
X-27.142 Y-0.865
X-25.591 Y-1.081
X-25.566 Y-1.085
X-24.013 Y-1.326
X-23.986 Y-1.331
X-22.434 Y-1.599
X-22.406 Y-1.604
X-20.858 Y-1.901
X-20.828 Y-1.907
X-19.288 Y-2.233
X-19.257 Y-2.24
X-17.729 Y-2.596
X-17.697 Y-2.604
X-16.187 Y-2.99
X-16.153 Y-2.999
X-14.667 Y-3.413
X-14.64 Y-3.421
X-13.908 Y-3.639
X-13.89 Y-3.645
X-13.165 Y-3.87
X-13.147 Y-3.876
X-12.431 Y-4.109
X-12.412 Y-4.115
X-11.707 Y-4.354
X-11.687 Y-4.361
X-10.993 Y-4.607
X-10.972 Y-4.614
X-10.29 Y-4.866
X-10.27 Y-4.874
X-9.601 Y-5.132
X-9.579 Y-5.14
X-8.925 Y-5.403
X-8.903 Y-5.413
X-8.264 Y-5.681
X-8.24 Y-5.691
X-7.618 Y-5.964
X-7.594 Y-5.975
X-6.989 Y-6.252
X-6.963 Y-6.264
X-6.377 Y-6.546
X-6.35 Y-6.559
X-5.785 Y-6.844
X-5.756 Y-6.858
X-5.212 Y-7.146
X-5.182 Y-7.163
X-4.66 Y-7.453
X-4.629 Y-7.471
X-4.13 Y-7.764
X-4.096 Y-7.784
X-3.623 Y-8.079
X-3.587 Y-8.102
X-3.139 Y-8.397
X-3.1 Y-8.424
X-2.679 Y-8.72
X-2.637 Y-8.751
X-2.244 Y-9.047
X-2.198 Y-9.084
X-1.835 Y-9.379
X-1.784 Y-9.422
X-1.452 Y-9.717
X-1.397 Y-9.768
X-1.096 Y-10.062
X-1.037 Y-10.123
X-0.768 Y-10.415
X-0.705 Y-10.488
X-0.469 Y-10.778
X-0.402 Y-10.866
X-0.2 Y-11.154
X-0.131 Y-11.26
X0.037 Y-11.545
X0.105 Y-11.671
X0.239 Y-11.954
X0.272 Y-12.028
X0.301 Y-12.104
X0.401 Y-12.384
X0.429 Y-12.47
X0.452 Y-12.557
X0.516 Y-12.834
X0.536 Y-12.931
X0.549 Y-13.029
X0.577 Y-13.303
X0.584 Y-13.382
X0.586 Y-13.462
Y-13.598
X0.582 Y-13.718
X0.572 Y-13.857
X0.564 Y-13.938
X0.552 Y-14.018
X0.502 Y-14.305
X0.482 Y-14.399
X0.457 Y-14.491
X0.37 Y-14.779
X0.343 Y-14.86
X0.312 Y-14.938
X0.185 Y-15.238
X0.124 Y-15.366
X-0.041 Y-15.675
X-0.101 Y-15.778
X-0.303 Y-16.096
X-0.36 Y-16.179
X-0.597 Y-16.505
X-0.649 Y-16.573
X-0.92 Y-16.906
X-0.968 Y-16.962
X-1.271 Y-17.3
X-1.314 Y-17.347
X-1.648 Y-17.691
X-1.687 Y-17.73
X-2.049 Y-18.078
X-2.086 Y-18.112
X-2.474 Y-18.462
X-2.507 Y-18.491
X-2.92 Y-18.843
X-2.951 Y-18.869
X-3.386 Y-19.222
X-3.415 Y-19.244
X-3.87 Y-19.596
X-3.897 Y-19.617
X-4.371 Y-19.966
X-4.397 Y-19.985
X-4.886 Y-20.332
X-4.91 Y-20.349
X-5.413 Y-20.691
X-5.437 Y-20.707
X-5.952 Y-21.044
X-5.975 Y-21.059
X-6.5 Y-21.389
X-6.523 Y-21.403
X-7.055 Y-21.726
X-7.078 Y-21.739
X-7.616 Y-22.053
X-7.639 Y-22.066
X-8.181 Y-22.37
X-8.205 Y-22.383
X-8.75 Y-22.676
X-8.774 Y-22.689
X-9.32 Y-22.971
X-9.345 Y-22.984
X-9.891 Y-23.254
X-9.916 Y-23.266
X-10.462 Y-23.524
X-10.489 Y-23.536
X-11.033 Y-23.781
X-11.06 Y-23.793
X-11.603 Y-24.025
X-11.631 Y-24.037
X-12.171 Y-24.256
X-12.2 Y-24.268
X-12.739 Y-24.474
X-12.768 Y-24.485
X-13.305 Y-24.679
X-13.335 Y-24.689
X-13.87 Y-24.87
X-13.9 Y-24.88
X-14.435 Y-25.049
X-14.465 Y-25.058
X-14.999 Y-25.216
X-15.029 Y-25.224
X-15.564 Y-25.37
X-15.593 Y-25.378
X-16.129 Y-25.513
X-16.171 Y-25.524
X-17.25 Y-25.765
X-17.303 Y-25.776
X-18.399 Y-25.982
X-18.434 Y-25.988
X-18.992 Y-26.081
X-19.013 Y-26.084
X-19.578 Y-26.17
X-19.597 Y-26.173
X-20.172 Y-26.253
X-20.188 Y-26.255
X-20.773 Y-26.331
X-20.787 Y-26.332
X-21.384 Y-26.404
X-21.396 Y-26.406
X-22.006 Y-26.474
X-22.016 Y-26.475
X-22.64 Y-26.542
X-22.648 Y-26.543
X-23.287 Y-26.608
X-23.293
X-23.949 Y-26.672
X-23.953 Y-26.673
X-24.626 Y-26.737
X-24.629
X-25.319 Y-26.801
X-25.322
X-26.031 Y-26.866
X-26.032 Y-26.867
X-26.759 Y-26.933
X-27.507 Y-27
X-28.273 Y-27.069
X-29.057 Y-27.14
X-29.859 Y-27.212
X-30.681 Y-27.286
X-31.519 Y-27.361
X-32.374 Y-27.438
X-33.247 Y-27.516
X-34.135 Y-27.594
X-34.669 Y-27.641
Z-3.506
X-35.038 Y-27.674
X-35.04
X-35.956 Y-27.754
X-35.957
X-36.887 Y-27.834
X-36.889
X-37.831 Y-27.914
X-37.833
X-38.787 Y-27.994
X-38.789 Y-27.995
X-39.754 Y-28.074
X-39.757
X-40.996 Y-28.174
Z-4.3 F333.3
X-41.715 Y-28.232 F1000
X-41.72
X-43.712 Y-28.386
X-43.718 Y-28.387
X-45.738 Y-28.536
X-45.743 Y-28.537
X-47.787 Y-28.681
X-47.792 Y-28.682
X-49.852 Y-28.821
X-49.86
X-54.013 Y-29.08
X-54.024 Y-29.081
X-58.185 Y-29.311
X-58.194 Y-29.312
X-60.266 Y-29.416
X-60.271
X-62.333 Y-29.513
X-62.338
X-64.384 Y-29.602
X-64.39
X-66.418 Y-29.683
X-66.424 Y-29.684
X-68.431 Y-29.757
X-68.436 Y-29.758
X-70.421 Y-29.824
X-70.426
X-72.385 Y-29.884
X-72.39
X-74.322 Y-29.937
X-74.327
X-76.231 Y-29.983
X-76.235
X-78.111 Y-30.023
X-78.115
X-79.962 Y-30.057
X-79.966
X-81.785 Y-30.086
X-81.789
X-83.581 Y-30.109
X-83.585
X-85.352 Y-30.127
X-85.356
X-87.099 Y-30.141
X-87.103
X-88.826 Y-30.151
X-88.829
X-90.535 Y-30.156
X-90.539
X-92.231 Y-30.158
X-92.235
X-95.592 Y-30.152
X-95.597
X-98.944 Y-30.135
G2 X-100.523 Y-28.547 I0.008 J1.587
G1 Y-22.471
G3 X-107.349 Y-22.471 I-3.413 J0
G1 Y-28.454
G2 X-108.954 Y-30.041 I-1.587 J0
G1 X-110.456 Y-30.025
X-111.979 Y-30.007
X-113.523 Y-29.99
X-115.09 Y-29.972
X-116.678 Y-29.955
X-118.291 Y-29.937
X-119.928 Y-29.92
X-121.586 Y-29.903
X-123.268 Y-29.886
X-124.971 Y-29.87
X-126.694 Y-29.854
X-128.436 Y-29.838
X-130.193 Y-29.824
X-131.964 Y-29.81
X-135.539 Y-29.785
X-142.736 Y-29.745
X-144.525 Y-29.737
X-146.305 Y-29.731
X-148.072 Y-29.725
X-149.823 Y-29.721
X-151.554 Y-29.717
X-153.261 Y-29.715
X-154.943 Y-29.714
X-156.597
X-158.219 Y-29.715
X-159.807 Y-29.716
X-161.36 Y-29.719
X-162.875 Y-29.723
G2 X-164.467 Y-28.135 I-0.004 J1.587
G1 Y-22.401
G3 X-164.784 Y-22.084 I-0.317 J0
G1 X-165.102
G18 G3 X-165.419 Z-3.983 I0 K0.318
G1 Z15
G17
M5
M30
