(1001)
(Bearbeiten)
(  Hersteller: ChinaCnc)
(  model: 3040T)
(  description: Generic 3-axis)
(T5  D=3.175 CR=0 - ZMIN=-2.2 - Schaftfraser)
G90 G94
G17
G21
G28 G91 Z0
G90

(Bohrfrasen7)
T5
S6000 M3
G54
G0 X-129.115 Y-117.895
Z15
Z2
G1 Z0.317 F1000
G19 G2 Y-118.213 Z0 J-0.317 K0
G1 Y-118.372
G17 G3 X-128.797 Y-118.689 I0.318 J0
X-128.797 Y-113.864 Z-0.5 I0 J2.412
X-128.797 Y-118.689 Z-1 I0 J-2.412
X-128.797 Y-113.864 Z-1.5 I0 J2.412
X-128.797 Y-118.689 Z-2 I0 J-2.412
X-126.503 Y-117.022 Z-2.2 I0 J2.412
X-131.092 Y-115.531 I-2.294 J0.745
X-126.503 Y-117.022 I2.294 J-0.745
X-126.707 Y-116.622 I-0.302 J0.098
G1 X-126.858 Y-116.573
X-126.925 Y-116.551 Z-2.192
X-126.989 Y-116.53 Z-2.169
X-127.046 Y-116.512 Z-2.131
X-127.094 Y-116.496 Z-2.08
X-127.13 Y-116.485 Z-2.02
X-127.152 Y-116.477 Z-1.953
X-127.16 Y-116.475 Z-1.883
G0 Z5
X-126.005 Y-57.895
Z2
G1 Z0.317 F1000
G19 G2 Y-58.213 Z0 J-0.318 K0
G1 Y-58.372
G17 G3 X-125.688 Y-58.689 I0.317 J0
X-125.688 Y-53.864 Z-0.5 I0 J2.413
X-125.688 Y-58.689 Z-1 I0 J-2.413
X-125.688 Y-53.864 Z-1.5 I0 J2.413
X-125.688 Y-58.689 Z-2 I0 J-2.413
X-123.394 Y-57.022 Z-2.2 I0 J2.413
X-127.982 Y-55.531 I-2.294 J0.746
X-123.394 Y-57.022 I2.294 J-0.746
X-123.597 Y-56.622 I-0.302 J0.098
G1 X-123.748 Y-56.573
X-123.816 Y-56.551 Z-2.192
X-123.879 Y-56.53 Z-2.169
X-123.937 Y-56.512 Z-2.131
X-123.984 Y-56.496 Z-2.08
X-124.02 Y-56.485 Z-2.02
X-124.043 Y-56.477 Z-1.953
X-124.05 Y-56.475 Z-1.883
G0 Z5
X-34.724 Y-82.105
Z2
G1 Z0.317 F1000
G19 G3 Y-81.787 Z0 J0.317 K0
G1 Y-81.628
G17 G3 X-35.041 Y-81.311 I-0.318 J0
X-35.041 Y-86.136 Z-0.5 I0 J-2.412
X-35.041 Y-81.311 Z-1 I0 J2.412
X-35.041 Y-86.136 Z-1.5 I0 J-2.412
X-35.041 Y-81.311 Z-2 I0 J2.412
X-37.336 Y-82.978 Z-2.2 I0 J-2.413
X-32.747 Y-84.469 I2.294 J-0.745
X-37.336 Y-82.978 I-2.294 J0.745
X-37.132 Y-83.378 I0.302 J-0.098
G1 X-36.981 Y-83.427
X-36.914 Y-83.449 Z-2.192
X-36.85 Y-83.47 Z-2.169
X-36.793 Y-83.488 Z-2.131
X-36.745 Y-83.504 Z-2.08
X-36.709 Y-83.515 Z-2.02
X-36.686 Y-83.523 Z-1.953
X-36.679 Y-83.525 Z-1.883
G0 Z5
X-37.833 Y-142.105
Z2
G1 Z0.317 F1000
G19 G3 Y-141.787 Z0 J0.317 K0
G1 Y-141.628
G17 G3 X-38.151 Y-141.311 I-0.318 J0
X-38.151 Y-146.136 Z-0.5 I0 J-2.413
X-38.151 Y-141.311 Z-1 I0 J2.413
X-38.151 Y-146.136 Z-1.5 I0 J-2.413
X-38.151 Y-141.311 Z-2 I0 J2.413
X-40.445 Y-142.978 Z-2.2 I0 J-2.413
X-35.856 Y-144.469 I2.294 J-0.746
X-40.445 Y-142.978 I-2.294 J0.746
X-40.241 Y-143.378 I0.302 J-0.098
G1 X-40.09 Y-143.427
X-40.023 Y-143.449 Z-2.192
X-39.959 Y-143.47 Z-2.169
X-39.902 Y-143.488 Z-2.131
X-39.854 Y-143.504 Z-2.08
X-39.818 Y-143.515 Z-2.02
X-39.796 Y-143.523 Z-1.953
X-39.788 Y-143.525 Z-1.883
G0 Z15

(2D-Kontur27)
X-96.258 Y-143.131
Z15
Z5
G1 Z1 F333.3
Z-1.883
X-96.25 Z-1.953 F1000
X-96.227 Y-143.129 Z-2.02
X-96.189 Y-143.127 Z-2.08
X-96.139 Y-143.125 Z-2.131
X-96.079 Y-143.122 Z-2.169
X-96.012 Y-143.118 Z-2.192
X-95.941 Y-143.114 Z-2.2
X-95.624 Y-143.097
G3 X-95.324 Y-142.763 I-0.017 J0.317
G1 X-100.559 Y-44.216
X-100.562 Y-44.208
X-113.939 Y-28.265
X-113.961 Y-28.241
X-113.964 Y-28.239
X-113.965
X-113.966 Y-28.238
X-113.968
X-113.97
X-113.974
X-113.976 Y-28.239
X-113.979 Y-28.242
X-113.98 Y-28.244
X-113.981 Y-28.249
X-113.974 Y-28.29
X-113.603 Y-30.226
X-113.598 Y-30.255
X-113.26 Y-32.216
X-113.255 Y-32.244
X-112.953 Y-34.206
X-112.949 Y-34.235
X-112.684 Y-36.197
X-112.68 Y-36.225
X-112.451 Y-38.189
X-112.448 Y-38.216
X-112.253 Y-40.179
X-112.251 Y-40.206
X-112.09 Y-42.17
X-112.088 Y-42.197
X-111.96 Y-44.161
X-111.958 Y-44.185
X-111.861 Y-46.149
X-111.86 Y-46.174
X-111.793 Y-48.137
Y-48.161
X-111.756 Y-50.124
Y-50.147
X-111.747 Y-52.11
Y-52.131
X-111.764 Y-54.092
Y-54.112
X-111.806 Y-56.072
Y-56.093
X-111.873 Y-58.051
X-111.874 Y-58.069
X-111.963 Y-60.026
X-111.964 Y-60.043
X-112.074 Y-61.998
X-112.075 Y-62.015
X-112.205 Y-63.968
X-112.206 Y-63.983
X-112.355 Y-65.933
X-112.356 Y-65.947
X-112.521 Y-67.894
X-112.522 Y-67.908
X-112.704 Y-69.853
X-112.705 Y-69.863
X-112.9 Y-71.805
X-112.902 Y-71.816
X-113.111 Y-73.754
X-113.112 Y-73.764
X-113.332 Y-75.698
X-113.333 Y-75.706
X-113.563 Y-77.636
X-113.564 Y-77.645
X-113.804 Y-79.571
X-113.805 Y-79.58
X-114.307 Y-83.419
X-114.308 Y-83.429
X-114.832 Y-87.248
X-114.833 Y-87.256
X-115.372 Y-91.055
X-115.373 Y-91.058
X-115.918 Y-94.835
Y-94.837
X-116.463 Y-98.591
X-117.003 Y-102.321
X-117.533 Y-106.026
X-118.05 Y-109.706
X-118.551 Y-113.361
X-119.033 Y-116.992
X-119.494 Y-120.6
X-119.935 Y-124.183
X-120.353 Y-127.744
X-120.748 Y-131.282
X-121.12 Y-134.798
X-121.468 Y-138.292
X-121.793 Y-141.765
X-122.095 Y-145.217
X-122.371 Y-148.605
X-122.372 Y-148.646
X-122.371 Y-148.652
X-122.37 Y-148.654
X-122.339 Y-148.687
X-93.557 Y-176.429
X-93.548 Y-176.432
X-93.539 Y-176.428
X-93.536 Y-176.419
X-95.324 Y-142.763
G3 X-95.658 Y-142.463 I-0.317 J-0.017
G1 X-95.975 Y-142.48
X-96.045 Y-142.484 Z-2.192
X-96.112 Y-142.487 Z-2.169
X-96.172 Y-142.491 Z-2.131
X-96.223 Y-142.493 Z-2.08
X-96.26 Y-142.495 Z-2.02
X-96.284 Y-142.497 Z-1.953
X-96.292 Z-1.883
G0 Z5
X-42.974 Y-57.923
G1 Z1 F333.3
Z-1.883
X-42.966 Y-57.924 Z-1.953 F1000
X-42.943 Y-57.926 Z-2.02
X-42.905 Y-57.929 Z-2.08
X-42.855 Y-57.934 Z-2.131
X-42.795 Y-57.939 Z-2.169
X-42.728 Y-57.945 Z-2.192
X-42.658 Y-57.951 Z-2.2
X-42.342 Y-57.979
G3 X-41.998 Y-57.69 I0.028 J0.316
G1 X-41.743 Y-54.783
X-41.468 Y-51.394
X-41.467 Y-51.352
Y-51.35
X-41.468 Y-51.349
Y-51.347
X-41.469 Y-51.346
X-41.5 Y-51.313
X-70.282 Y-23.571
X-70.291 Y-23.568
X-70.3 Y-23.572
X-70.303 Y-23.581
X-63.279 Y-155.785
X-63.276 Y-155.792
X-49.899 Y-171.735
X-49.878 Y-171.757
X-49.877 Y-171.758
X-49.874 Y-171.761
X-49.873
X-49.87 Y-171.762
X-49.867
X-49.866
X-49.863 Y-171.761
X-49.862 Y-171.76
X-49.86 Y-171.758
X-49.859 Y-171.757
X-49.858 Y-171.756
Y-171.754
Y-171.753
X-49.857 Y-171.752
Y-171.75
X-49.864 Y-171.71
X-50.236 Y-169.774
X-50.241 Y-169.745
X-50.579 Y-167.785
X-50.584 Y-167.756
X-50.885 Y-165.794
X-50.89 Y-165.765
X-51.155 Y-163.803
X-51.158 Y-163.775
X-51.388 Y-161.812
X-51.391 Y-161.785
X-51.585 Y-159.821
X-51.588 Y-159.794
X-51.749 Y-157.83
X-51.751 Y-157.804
X-51.879 Y-155.84
X-51.881 Y-155.814
X-51.977 Y-153.85
X-51.978 Y-153.826
X-52.045 Y-151.863
X-52.046 Y-151.839
X-52.083 Y-149.876
Y-149.854
X-52.092 Y-147.891
Y-147.869
X-52.075 Y-145.908
Y-145.888
X-52.032 Y-143.928
Y-143.908
X-51.965 Y-141.949
Y-141.931
X-51.876 Y-139.974
X-51.875 Y-139.957
X-51.764 Y-138.002
X-51.763 Y-137.985
X-51.633 Y-136.032
X-51.632 Y-136.017
X-51.484 Y-134.067
X-51.483 Y-134.054
X-51.317 Y-132.106
X-51.316 Y-132.093
X-51.135 Y-130.148
X-51.134 Y-130.136
X-50.938 Y-128.195
X-50.937 Y-128.184
X-50.728 Y-126.246
X-50.727 Y-126.236
X-50.507 Y-124.302
X-50.506 Y-124.294
X-50.276 Y-122.363
X-50.275 Y-122.355
X-50.035 Y-120.429
X-50.034 Y-120.419
X-49.532 Y-116.581
X-49.53 Y-116.571
X-49.006 Y-112.751
X-49.005 Y-112.744
X-48.467 Y-108.945
X-48.466 Y-108.941
X-47.921 Y-105.164
Y-105.163
X-47.376 Y-101.409
X-46.836 Y-97.679
X-46.306 Y-93.974
X-45.789 Y-90.294
X-45.288 Y-86.639
X-44.806 Y-83.008
X-44.344 Y-79.401
X-43.904 Y-75.817
X-43.486 Y-72.256
X-43.091 Y-68.718
X-42.719 Y-65.202
X-42.371 Y-61.708
X-42.045 Y-58.235
X-41.998 Y-57.69
G3 X-42.286 Y-57.346 I-0.316 J0.028
G1 X-42.603 Y-57.319
X-42.673 Y-57.312 Z-2.192
X-42.74 Y-57.307 Z-2.169
X-42.8 Y-57.301 Z-2.131
X-42.85 Y-57.297 Z-2.08
X-42.888 Y-57.294 Z-2.02
X-42.911 Y-57.292 Z-1.953
X-42.919 Y-57.291 Z-1.883
G0 Z5
X-14.153 Y-53.635
G1 Z1 F333.3
Z-1.883
X-14.145 Z-1.953 F1000
X-14.121 Z-2.02
X-14.083 Y-53.636 Z-2.08
X-14.033 Y-53.637 Z-2.131
X-13.973 Y-53.638 Z-2.169
X-13.906 Y-53.639 Z-2.192
X-13.835 Y-53.64 Z-2.2
X-13.518 Y-53.644
G3 X-13.196 Y-53.331 I0.005 J0.317
G1 X-12.859 Y-30.113
X-12.863 Y-30.104
X-12.873 Y-30.101
X-12.882 Y-30.106
X-27.076 Y-51.135
X-27.107 Y-51.189
X-27.108 Y-51.191
Y-51.192
X-27.111 Y-51.256
X-27.027 Y-54.618
Y-54.624
X-26.954 Y-58.082
Y-58.088
X-26.895 Y-61.582
Y-61.589
X-26.848 Y-65.12
Y-65.125
X-26.83 Y-66.905
Y-66.908
X-26.815 Y-68.697
Y-68.7
X-26.804 Y-70.499
Y-70.502
X-26.796 Y-72.31
Y-72.313
X-26.792 Y-74.131
Y-74.134
X-26.791 Y-75.962
Y-75.965
X-26.793 Y-77.802
Y-77.805
X-26.8 Y-79.652
Y-79.655
X-26.809 Y-81.511
Y-81.514
X-26.823 Y-83.381
Y-83.384
X-26.84 Y-85.26
Y-85.263
X-26.861 Y-87.149
Y-87.152
X-26.886 Y-89.048
Y-89.051
X-26.914 Y-90.957
Y-90.96
X-26.947 Y-92.876
Y-92.879
X-26.983 Y-94.804
Y-94.807
X-27.023 Y-96.741
Y-96.744
X-27.067 Y-98.689
Y-98.692
X-27.115 Y-100.645
Y-100.648
X-27.167 Y-102.611
Y-102.615
X-27.283 Y-106.567
Y-106.573
X-27.415 Y-110.559
Y-110.565
X-27.562 Y-114.583
Y-114.589
X-27.725 Y-118.635
Y-118.64
X-27.903 Y-122.71
Y-122.716
X-28.095 Y-126.806
X-28.096 Y-126.811
X-28.302 Y-130.917
Y-130.922
X-28.522 Y-135.039
Y-135.044
X-28.755 Y-139.165
X-28.756 Y-139.169
X-29.001 Y-143.291
Y-143.296
X-29.258 Y-147.413
X-29.259 Y-147.417
X-29.527 Y-151.525
Y-151.53
X-29.806 Y-155.622
Y-155.626
X-30.096 Y-159.699
Y-159.704
X-30.395 Y-163.753
Y-163.757
X-30.703 Y-167.778
Y-167.783
X-31.02 Y-171.774
X-31.021 Y-171.778
X-31.341 Y-175.675
Y-175.74
Y-175.742
X-31.339 Y-175.745
X-31.336 Y-175.747
X-31.333
X-31.332
X-31.33 Y-175.746
X-31.284 Y-175.699
X-14.685 Y-155.918
X-14.682 Y-155.91
X-13.196 Y-53.331
G3 X-13.509 Y-53.009 I-0.317 J0.005
G1 X-13.826 Y-53.005
X-13.897 Y-53.004 Z-2.192
X-13.964 Y-53.003 Z-2.169
X-14.024 Y-53.002 Z-2.131
X-14.074 Y-53.001 Z-2.08
X-14.112 Y-53 Z-2.02
X-14.136 Z-1.953
X-14.143 Z-1.883
G0 Z5
X-135.209 Y-47.62
G1 Z1 F333.3
Z-1.883
X-135.201 Z-1.953 F1000
X-135.177 Y-47.622 Z-2.02
X-135.139 Y-47.624 Z-2.08
X-135.089 Y-47.628 Z-2.131
X-135.029 Y-47.632 Z-2.169
X-134.962 Y-47.636 Z-2.192
X-134.892 Y-47.641 Z-2.2
X-134.575 Y-47.663
G3 X-134.237 Y-47.368 I0.022 J0.317
G1 X-134.033 Y-44.378
Y-44.374
X-133.744 Y-40.301
X-133.743 Y-40.296
X-133.444 Y-36.247
Y-36.243
X-133.136 Y-32.221
Y-32.217
X-132.819 Y-28.226
X-132.818 Y-28.221
X-132.497 Y-24.326
Y-24.26
X-132.498 Y-24.258
X-132.5 Y-24.255
X-132.502 Y-24.254
X-132.504 Y-24.253
X-132.506
X-132.508 Y-24.254
X-132.554 Y-24.301
X-149.154 Y-44.082
X-149.157 Y-44.09
X-150.98 Y-169.887
X-150.975 Y-169.896
X-150.966 Y-169.899
X-150.957 Y-169.894
X-136.761 Y-148.863
X-136.731 Y-148.811
Y-148.809
X-136.727 Y-148.745
X-136.811 Y-145.382
Y-145.377
X-136.884 Y-141.919
Y-141.912
X-136.944 Y-138.417
Y-138.411
X-136.99 Y-134.88
Y-134.875
X-137.008 Y-133.095
Y-133.092
X-137.023 Y-131.303
Y-131.3
X-137.034 Y-129.501
Y-129.498
X-137.042 Y-127.69
Y-127.687
X-137.048 Y-125.869
Y-125.865
Y-124.038
Y-124.036
X-137.046 Y-122.199
X-137.045 Y-122.196
X-137.039 Y-120.349
Y-120.345
X-137.029 Y-118.488
Y-118.485
X-137.015 Y-116.619
Y-116.617
X-136.998 Y-114.74
Y-114.736
X-136.977 Y-112.85
Y-112.847
X-136.952 Y-110.951
Y-110.949
X-136.924 Y-109.044
Y-109.04
X-136.892 Y-107.124
Y-107.12
X-136.855 Y-105.195
Y-105.193
X-136.815 Y-103.259
Y-103.256
X-136.771 Y-101.311
Y-101.308
X-136.723 Y-99.355
Y-99.352
X-136.671 Y-97.389
Y-97.385
X-136.556 Y-93.433
Y-93.426
X-136.424 Y-89.44
X-136.423 Y-89.434
X-136.276 Y-85.417
Y-85.411
X-136.114 Y-81.366
Y-81.36
X-135.936 Y-77.29
Y-77.284
X-135.744 Y-73.194
X-135.743 Y-73.189
X-135.536 Y-69.083
Y-69.078
X-135.316 Y-64.962
Y-64.957
X-135.083 Y-60.835
Y-60.831
X-134.838 Y-56.709
X-134.837 Y-56.704
X-134.58 Y-52.587
Y-52.582
X-134.312 Y-48.475
Y-48.47
X-134.237 Y-47.368
G3 X-134.532 Y-47.029 I-0.317 J0.022
G1 X-134.849 Y-47.008
X-134.919 Y-47.003 Z-2.192
X-134.986 Y-46.998 Z-2.169
X-135.046 Y-46.994 Z-2.131
X-135.096 Y-46.991 Z-2.08
X-135.134 Y-46.988 Z-2.02
X-135.157 Y-46.987 Z-1.953
X-135.165 Y-46.986 Z-1.883
G0 Z15

(2D-Kontur28)
X-81.153 Y-10.244
Z15
Z5
G1 Z1 F333.3
Z-1.883
X-81.145 Y-10.243 Z-1.953 F1000
X-81.122 Y-10.242 Z-2.02
X-81.084 Y-10.24 Z-2.08
X-81.034 Y-10.237 Z-2.131
X-80.974 Y-10.234 Z-2.169
X-80.907 Y-10.23 Z-2.192
X-80.836 Y-10.227 Z-2.2
X-80.519 Y-10.21
G3 X-80.219 Y-9.876 I-0.017 J0.317
G2 X-74.147 Y-7.103 I3.582 J0.19
G1 X-36.762 Y-43.136
X-32.747
X-9.973 Y-9.398
G2 X-3.413 Y-11.457 I2.973 J-2.007
G1 X-3.887 Y-44.192
Z-1.406
X-4.006 Y-52.366
Z-2.2 F333.3
X-4.955 Y-117.837 F1000
Z-1.406
X-5.073 Y-126.011
Z-2.2 F333.3
X-5.547 Y-158.746 F1000
G2 X-5.919 Y-159.743 I-1.587 J0.023
G1 X-35.077 Y-194.493
G2 X-43.362 Y-193.799 I-3.898 J3.27
G1 X-71.938 Y-159.743
G2 X-72.307 Y-158.807 I1.216 J1.02
G1 X-74.068 Y-125.656
Z-1.406
X-74.502 Y-117.492
Z-2.2 F333.3
X-78.024 Y-51.191 F1000
Z-1.406
X-78.458 Y-43.027
Z-2.2 F333.3
X-80.219 Y-9.876 F1000
G3 X-80.553 Y-9.576 I-0.317 J-0.017
G1 X-80.87 Y-9.593
X-80.94 Y-9.596 Z-2.192
X-81.007 Y-9.6 Z-2.169
X-81.068 Y-9.603 Z-2.131
X-81.118 Y-9.606 Z-2.08
X-81.156 Y-9.608 Z-2.02
X-81.179 Y-9.609 Z-1.953
X-81.187 Z-1.883
G0 Z5
X-82.685 Y-189.756
G1 Z1 F333.3
Z-1.883
X-82.693 Y-189.757 Z-1.953 F1000
X-82.717 Y-189.758 Z-2.02
X-82.754 Y-189.76 Z-2.08
X-82.805 Y-189.763 Z-2.131
X-82.865 Y-189.766 Z-2.169
X-82.932 Y-189.769 Z-2.192
X-83.002 Y-189.773 Z-2.2
X-83.319 Y-189.79
G3 X-83.62 Y-190.124 I0.017 J-0.317
G2 X-89.692 Y-192.897 I-3.582 J-0.19
G1 X-127.076 Y-156.865
X-131.092
X-153.865 Y-190.602
G2 X-160.425 Y-188.543 I-2.973 J2.007
G1 X-159.951 Y-155.808
Z-1.406
X-159.833 Y-147.634
Z-2.2 F333.3
X-158.884 Y-82.163 F1000
Z-1.406
X-158.766 Y-73.989
Z-2.2 F333.3
X-158.291 Y-41.254 F1000
G2 X-157.92 Y-40.256 I1.587 J-0.023
G1 X-128.761 Y-5.506
G2 X-120.476 Y-6.202 I3.897 J-3.27
G1 X-91.901 Y-40.256
G2 X-91.532 Y-41.192 I-1.216 J-1.02
G1 X-89.771 Y-74.344
Z-1.406
X-89.337 Y-82.507
Z-2.2 F333.3
X-85.815 Y-148.809 F1000
Z-1.406
X-85.381 Y-156.973
Z-2.2 F333.3
X-83.62 Y-190.124 F1000
G3 X-83.286 Y-190.424 I0.317 J0.017
G1 X-82.969 Y-190.407
X-82.898 Y-190.403 Z-2.192
X-82.831 Y-190.4 Z-2.169
X-82.771 Y-190.397 Z-2.131
X-82.721 Y-190.394 Z-2.08
X-82.683 Y-190.392 Z-2.02
X-82.66 Y-190.391 Z-1.953
X-82.652 Y-190.39 Z-1.883
G0 Z15
G28 G91 Z0
G90
G28 G91 X0 Y0
G90
M5
M30
