(Winglets)
(Bearbeiten)
(  Hersteller: ChinaCnc)
(  model: 3040T)
(  description: Generic 3-axis)
(T5 D=3.175 CR=0 - ZMIN=-2.4 - Schaftfrser)
G90 G94
G17
G21
(-Attention- Property Safe Retracts is set to Clearance Height.)
(Ensure the clearance height will clear the part and or fixtures.)
(Raise the Z-axis to a safe height before starting the program.)
(When using Fusion 360 for Personal Use, the feedrate of)
(rapid moves is reduced to match the feedrate of cutting)
(moves, which can increase machining time. Unrestricted rapid)
(moves are available with a Fusion 360 Subscription.)

(2D-Kontur1)
M0
(MANUAL TOOL CHANGE TO T5)
S3000 M3
G17 G90 G94
G54
G0 X-148.768 Y-2.455
Z15
G1 Z5 F1000
Z1 F333.3
Z-2.083
X-148.769 Y-2.463 Z-2.153 F1000
X-148.772 Y-2.486 Z-2.22
X-148.776 Y-2.524 Z-2.28
X-148.781 Y-2.574 Z-2.331
X-148.788 Y-2.634 Z-2.369
X-148.795 Y-2.701 Z-2.392
X-148.803 Y-2.771 Z-2.4
X-148.837 Y-3.086
G3 X-148.556 Y-3.436 I0.316 J-0.034
G2 X-144.986 Y-6.729 I-0.444 J-4.064
G1 X-122.118 Y-69.562
Z-1.606
X-117.612 Y-81.942
Z-2.4 F333.3
X-108.508 Y-106.957 F1000
G2 X-108.412 Y-107.5 I-1.492 J-0.543
G1 Y-161
G2 X-110.523 Y-162.499 I-1.588 J0
G1 X-153.065 Y-147.659
X-160.674 Y-149.661
Z-1.606
X-173.416 Y-153.014
Z-2.4 F333.3
X-209.596 Y-162.535 F1000
G2 X-211.587 Y-161 I-0.404 J1.535
G1 Y-107.5
G2 X-211.373 Y-106.702 I1.587 J0
G1 X-189.714 Y-69.437
Z-1.606
X-183.094 Y-58.046
Z-2.4 F333.3
X-152.658 Y-5.676 F1000
G2 X-148.556 Y-3.436 I3.658 J-1.824
G3 X-148.206 Y-3.155 I0.034 J0.316
G1 X-148.171 Y-2.84
X-148.164 Y-2.769 Z-2.392
X-148.156 Y-2.703 Z-2.369
X-148.15 Y-2.643 Z-2.331
X-148.144 Y-2.593 Z-2.28
X-148.14 Y-2.555 Z-2.22
X-148.138 Y-2.532 Z-2.153
X-148.137 Y-2.524 Z-2.083
Z5
X-45.051 Y-2.561
Z1 F333.3
Z-2.083
X-45.049 Y-2.568 Z-2.153 F1000
X-45.046 Y-2.592 Z-2.22
X-45.04 Y-2.629 Z-2.28
X-45.033 Y-2.679 Z-2.331
X-45.024 Y-2.738 Z-2.369
X-45.014 Y-2.805 Z-2.392
X-45.004 Y-2.875 Z-2.4
X-44.958 Y-3.189
G3 X-44.597 Y-3.456 I0.314 J0.046
G2 X-39.986 Y-6.729 I0.597 J-4.044
G1 X-17.118 Y-69.562
Z-1.606
X-12.612 Y-81.942
Z-2.4 F333.3
X-3.508 Y-106.957 F1000
G2 X-3.412 Y-107.5 I-1.492 J-0.543
G1 Y-161
G2 X-5.523 Y-162.499 I-1.588 J0
G1 X-48.065 Y-147.659
X-55.674 Y-149.661
Z-1.606
X-68.416 Y-153.014
Z-2.4 F333.3
X-104.596 Y-162.535 F1000
G2 X-106.588 Y-161 I-0.404 J1.535
G1 Y-107.5
G2 X-106.373 Y-106.702 I1.588 J0
G1 X-84.714 Y-69.436
Z-1.606
X-78.094 Y-58.045
Z-2.4 F333.3
X-47.658 Y-5.676 F1000
G2 X-44.597 Y-3.456 I3.658 J-1.824
G3 X-44.33 Y-3.096 I-0.046 J0.314
G1 X-44.376 Y-2.782
X-44.386 Y-2.712 Z-2.392
X-44.396 Y-2.646 Z-2.369
X-44.405 Y-2.586 Z-2.331
X-44.412 Y-2.536 Z-2.28
X-44.418 Y-2.499 Z-2.22
X-44.421 Y-2.476 Z-2.153
X-44.422 Y-2.468 Z-2.083
Z15
M5
M30
