(1001)
(Bearbeiten)
(  Hersteller: ChinaCnc)
(  model: 3040T)
(  description: Generic 3-axis)
(T5  D=3.175 CR=0 - ZMIN=-2.2 - Schaftfraser)
G90 G94
G17
G21
G28 G91 Z0
G90

(Bohrfrasen7)
T5
S6000 M3
G54
G0 X-38.543 Y-148.105
Z15
Z2
G1 Z0.317 F1000
G19 G3 Y-147.787 Z0 J0.317 K0
G1 Y-147.628
G17 G3 X-38.861 Y-147.311 I-0.317 J0
X-38.861 Y-152.136 Z-0.5 I0 J-2.413
X-38.861 Y-147.311 Z-1 I0 J2.413
X-38.861 Y-152.136 Z-1.5 I0 J-2.413
X-38.861 Y-147.311 Z-2 I0 J2.413
X-41.155 Y-148.978 Z-2.2 I0 J-2.413
X-36.566 Y-150.469 I2.294 J-0.746
X-41.155 Y-148.978 I-2.294 J0.746
X-40.951 Y-149.378 I0.302 J-0.098
G1 X-40.8 Y-149.427
X-40.733 Y-149.449 Z-2.192
X-40.669 Y-149.47 Z-2.169
X-40.612 Y-149.488 Z-2.131
X-40.564 Y-149.504 Z-2.08
X-40.528 Y-149.515 Z-2.02
X-40.506 Y-149.523 Z-1.953
X-40.498 Y-149.525 Z-1.883
G0 Z5
X-34.992 Y-88.105
Z2
G1 Z0.317 F1000
G19 G3 Y-87.787 Z0 J0.317 K0
G1 Y-87.628
G17 G3 X-35.31 Y-87.311 I-0.318 J0
X-35.31 Y-92.136 Z-0.5 I0 J-2.412
X-35.31 Y-87.311 Z-1 I0 J2.412
X-35.31 Y-92.136 Z-1.5 I0 J-2.412
X-35.31 Y-87.311 Z-2 I0 J2.412
X-37.604 Y-88.978 Z-2.2 I0 J-2.412
X-33.015 Y-90.469 I2.294 J-0.745
X-37.604 Y-88.978 I-2.294 J0.745
X-37.4 Y-89.378 I0.302 J-0.098
G1 X-37.249 Y-89.427
X-37.182 Y-89.449 Z-2.192
X-37.118 Y-89.47 Z-2.169
X-37.061 Y-89.488 Z-2.131
X-37.013 Y-89.504 Z-2.08
X-36.977 Y-89.515 Z-2.02
X-36.955 Y-89.523 Z-1.953
X-36.948 Y-89.525 Z-1.883
G0 Z5
X-117.937 Y-111.895
Z2
G1 Z0.317 F1000
G19 G2 Y-112.213 Z0 J-0.317 K0
G1 Y-112.372
G17 G3 X-117.619 Y-112.689 I0.318 J0
X-117.619 Y-107.864 Z-0.5 I0 J2.412
X-117.619 Y-112.689 Z-1 I0 J-2.412
X-117.619 Y-107.864 Z-1.5 I0 J2.412
X-117.619 Y-112.689 Z-2 I0 J-2.412
X-115.325 Y-111.022 Z-2.2 I0 J2.412
X-119.913 Y-109.531 I-2.294 J0.745
X-115.325 Y-111.022 I2.294 J-0.745
X-115.528 Y-110.622 I-0.302 J0.098
G1 X-115.679 Y-110.573
X-115.747 Y-110.551 Z-2.192
X-115.81 Y-110.53 Z-2.169
X-115.868 Y-110.512 Z-2.131
X-115.916 Y-110.496 Z-2.08
X-115.951 Y-110.485 Z-2.02
X-115.974 Y-110.477 Z-1.953
X-115.981 Y-110.475 Z-1.883
G0 Z5
X-114.386 Y-51.895
Z2
G1 Z0.317 F1000
G19 G2 Y-52.213 Z0 J-0.318 K0
G1 Y-52.372
G17 G3 X-114.068 Y-52.689 I0.317 J0
X-114.068 Y-47.864 Z-0.5 I0 J2.413
X-114.068 Y-52.689 Z-1 I0 J-2.413
X-114.068 Y-47.864 Z-1.5 I0 J2.413
X-114.068 Y-52.689 Z-2 I0 J-2.413
X-111.774 Y-51.022 Z-2.2 I0 J2.413
X-116.363 Y-49.531 I-2.294 J0.746
X-111.774 Y-51.022 I2.294 J-0.746
X-111.978 Y-50.622 I-0.302 J0.098
G1 X-112.129 Y-50.573
X-112.196 Y-50.551 Z-2.192
X-112.26 Y-50.53 Z-2.169
X-112.317 Y-50.512 Z-2.131
X-112.365 Y-50.496 Z-2.08
X-112.401 Y-50.485 Z-2.02
X-112.423 Y-50.477 Z-1.953
X-112.431 Y-50.475 Z-1.883
G0 Z15

(2D-Kontur27)
X-79.003 Y-155.851
Z15
Z5
G1 Z1 F333.3
Z-1.883
X-78.995 Y-155.849 Z-1.953 F1000
X-78.973 Y-155.843 Z-2.02
X-78.936 Y-155.834 Z-2.08
X-78.887 Y-155.822 Z-2.131
X-78.829 Y-155.808 Z-2.169
X-78.763 Y-155.792 Z-2.192
X-78.695 Y-155.775 Z-2.2
X-78.387 Y-155.699
G3 X-78.154 Y-155.314 I-0.076 J0.308
G1 X-102.083 Y-58.317
X-102.093 Y-58.282
X-102.095 Y-58.279
X-102.098 Y-58.277
X-102.099
X-102.102 Y-58.276
X-102.103
X-102.106
X-102.108 Y-58.277
X-102.11 Y-58.279
X-102.112 Y-58.281
X-102.113 Y-58.283
X-102.117 Y-58.324
X-102.18 Y-59.617
X-102.181 Y-59.623
X-102.251 Y-60.963
Y-60.97
X-102.328 Y-62.325
Y-62.331
X-102.411 Y-63.699
X-102.412 Y-63.705
X-102.501 Y-65.087
Y-65.093
X-102.596 Y-66.49
X-102.597 Y-66.495
X-102.698 Y-67.906
Y-67.912
X-102.805 Y-69.338
Y-69.343
X-102.918 Y-70.783
X-102.919 Y-70.789
X-103.038 Y-72.244
Y-72.248
X-103.162 Y-73.718
X-103.163 Y-73.723
X-103.293 Y-75.209
Y-75.213
X-103.428 Y-76.713
Y-76.718
X-103.569 Y-78.235
X-103.57 Y-78.238
X-103.716 Y-79.77
Y-79.775
X-103.868 Y-81.323
Y-81.326
X-104.025 Y-82.89
X-104.026 Y-82.893
X-104.188 Y-84.473
Y-84.477
X-104.356 Y-86.073
Y-86.075
X-104.528 Y-87.687
X-104.529 Y-87.69
X-104.706 Y-89.318
Y-89.322
X-104.889 Y-90.966
Y-90.968
X-105.076 Y-92.629
X-105.077 Y-92.632
X-105.269 Y-94.309
Y-94.31
X-105.465 Y-96.003
Y-96.006
X-105.666 Y-97.715
X-105.667 Y-97.717
X-105.872 Y-99.442
Y-99.444
X-106.082 Y-101.185
Y-101.187
X-106.296 Y-102.943
Y-102.946
X-106.515 Y-104.718
X-106.738 Y-106.507
Y-106.509
X-106.965 Y-108.312
X-107.195 Y-110.131
Y-110.134
X-107.43 Y-111.967
X-107.669 Y-113.816
Y-113.818
X-107.911 Y-115.68
X-108.156 Y-117.557
Y-117.559
X-108.405 Y-119.45
X-108.657 Y-121.356
Y-121.358
X-108.913 Y-123.277
X-108.914 Y-123.279
X-109.174 Y-125.212
X-109.436 Y-127.158
Y-127.159
X-109.702 Y-129.119
Y-129.121
X-109.971 Y-131.093
X-110.243 Y-133.079
X-110.517 Y-135.078
Y-135.079
X-110.795 Y-137.09
X-110.796 Y-137.091
X-111.077 Y-139.114
X-111.361 Y-141.151
X-111.647 Y-143.2
Y-143.201
X-111.937 Y-145.26
X-112.229 Y-147.333
X-112.523 Y-149.416
Y-149.418
X-112.821 Y-151.513
X-113.121 Y-153.619
X-113.424 Y-155.738
X-113.73 Y-157.867
Y-157.868
X-114.038 Y-160.008
X-114.348 Y-162.159
X-114.661 Y-164.323
X-114.976 Y-166.497
X-115.294 Y-168.683
Y-168.684
X-115.615 Y-170.879
X-115.933 Y-173.051
X-115.937 Y-173.087
Y-173.089
X-115.936 Y-173.09
X-115.935 Y-173.093
X-115.931 Y-173.097
X-115.894 Y-173.108
X-70.914 Y-184.741
X-70.902 Y-184.738
X-70.899 Y-184.726
X-78.154 Y-155.314
G3 X-78.539 Y-155.082 I-0.308 J-0.076
G1 X-78.847 Y-155.158
X-78.915 Y-155.175 Z-2.192
X-78.981 Y-155.191 Z-2.169
X-79.039 Y-155.205 Z-2.131
X-79.088 Y-155.218 Z-2.08
X-79.125 Y-155.227 Z-2.02
X-79.147 Y-155.232 Z-1.953
X-79.155 Y-155.234 Z-1.883
G0 Z5
X-40.3 Y-43.099
G1 Z1 F333.3
Z-1.883
X-40.292 Y-43.1 Z-1.953 F1000
X-40.269 Y-43.104 Z-2.02
X-40.232 Y-43.109 Z-2.08
X-40.182 Y-43.116 Z-2.131
X-40.122 Y-43.125 Z-2.169
X-40.056 Y-43.134 Z-2.192
X-39.986 Y-43.144 Z-2.2
X-39.672 Y-43.189
G3 X-39.312 Y-42.92 I0.045 J0.314
G1 X-39.2 Y-42.133
X-38.892 Y-39.992
X-38.581 Y-37.84
X-38.268 Y-35.677
X-37.952 Y-33.503
X-37.634 Y-31.318
X-37.314 Y-29.122
X-36.996 Y-26.951
X-36.992 Y-26.913
Y-26.912
X-36.993 Y-26.909
X-36.994 Y-26.907
X-36.997 Y-26.904
X-36.998 Y-26.903
X-36.999 Y-26.902
X-37.035 Y-26.891
X-82.015 Y-15.259
X-82.027 Y-15.262
X-82.03 Y-15.274
X-50.847 Y-141.681
X-50.836 Y-141.717
Y-141.718
X-50.832 Y-141.722
X-50.83 Y-141.723
X-50.827 Y-141.724
X-50.825
X-50.824
X-50.822 Y-141.723
X-50.82 Y-141.722
X-50.819
X-50.817 Y-141.719
X-50.816 Y-141.717
X-50.815 Y-141.714
X-50.812 Y-141.676
X-50.749 Y-140.383
Y-140.376
X-50.678 Y-139.036
Y-139.03
X-50.601 Y-137.675
X-50.6 Y-137.669
X-50.517 Y-136.301
Y-136.295
X-50.428 Y-134.913
Y-134.907
X-50.332 Y-133.51
Y-133.505
X-50.231 Y-132.094
Y-132.088
X-50.124 Y-130.662
X-50.123 Y-130.657
X-50.011 Y-129.217
X-50.01 Y-129.212
X-49.892 Y-127.757
X-49.891 Y-127.752
X-49.767 Y-126.281
Y-126.277
X-49.637 Y-124.792
X-49.636 Y-124.787
X-49.501 Y-123.286
X-49.5 Y-123.282
X-49.359 Y-121.765
Y-121.761
X-49.213 Y-120.229
X-49.212 Y-120.225
X-49.061 Y-118.677
X-49.06 Y-118.673
X-48.903 Y-117.11
Y-117.107
X-48.741 Y-115.527
X-48.74 Y-115.523
X-48.573 Y-113.927
Y-113.924
X-48.4 Y-112.312
Y-112.309
X-48.223 Y-110.681
X-48.222 Y-110.678
X-48.04 Y-109.034
Y-109.031
X-47.853 Y-107.371
X-47.852 Y-107.369
X-47.661 Y-105.692
X-47.66 Y-105.689
X-47.464 Y-103.996
Y-103.993
X-47.263 Y-102.285
X-47.262 Y-102.283
X-47.057 Y-100.558
X-47.056 Y-100.556
X-46.847 Y-98.815
X-46.846 Y-98.813
X-46.632 Y-97.056
Y-97.054
X-46.414 Y-95.282
X-46.413 Y-95.281
X-46.191 Y-93.493
Y-93.491
X-45.964 Y-91.688
Y-91.686
X-45.733 Y-89.868
Y-89.867
X-45.499 Y-88.034
Y-88.032
X-45.261 Y-86.184
X-45.26 Y-86.183
X-45.019 Y-84.32
X-45.018 Y-84.319
X-44.773 Y-82.442
Y-82.441
X-44.524 Y-80.55
Y-80.548
X-44.271 Y-78.643
Y-78.642
X-44.015 Y-76.723
Y-76.722
X-43.756 Y-74.789
Y-74.788
X-43.493 Y-72.842
Y-72.84
X-43.227 Y-70.881
Y-70.88
X-42.958 Y-68.907
Y-68.906
X-42.686 Y-66.921
X-42.411 Y-64.921
X-42.133 Y-62.91
X-41.852 Y-60.885
X-41.568 Y-58.849
X-41.282 Y-56.8
X-40.992 Y-54.74
X-40.7 Y-52.668
X-40.405 Y-50.584
X-40.108 Y-48.488
X-39.808 Y-46.381
X-39.505 Y-44.263
X-39.312 Y-42.92
G3 X-39.582 Y-42.561 I-0.314 J0.045
G1 X-39.896 Y-42.516
X-39.966 Y-42.506 Z-2.192
X-40.032 Y-42.496 Z-2.169
X-40.092 Y-42.487 Z-2.131
X-40.142 Y-42.48 Z-2.08
X-40.179 Y-42.475 Z-2.02
X-40.202 Y-42.472 Z-1.953
X-40.21 Y-42.471 Z-1.883
G0 Z5
X-16.633 Y-30.557
G1 Z1 F333.3
Z-1.883
X-16.625 Y-30.559 Z-1.953 F1000
X-16.602 Y-30.562 Z-2.02
X-16.564 Y-30.567 Z-2.08
X-16.514 Y-30.574 Z-2.131
X-16.455 Y-30.582 Z-2.169
X-16.388 Y-30.591 Z-2.192
X-16.318 Y-30.601 Z-2.2
X-16.004 Y-30.644
G3 X-15.646 Y-30.373 I0.043 J0.315
G1 X-14.133 Y-19.406
X-14.138 Y-19.394
X-14.152
X-26.199 Y-26.622
X-26.205 Y-26.633
X-26.768 Y-110.819
X-26.763 Y-110.829
X-26.751 Y-110.83
X-26.743 Y-110.821
X-15.646 Y-30.373
G3 X-15.917 Y-30.015 I-0.315 J0.043
G1 X-16.231 Y-29.972
X-16.301 Y-29.962 Z-2.192
X-16.368 Y-29.953 Z-2.169
X-16.427 Y-29.945 Z-2.131
X-16.477 Y-29.938 Z-2.08
X-16.515 Y-29.933 Z-2.02
X-16.538 Y-29.93 Z-1.953
X-16.546 Y-29.928 Z-1.883
G0 Z5
X-127.659 Y-170.7
G1 Z1 F333.3
Z-1.883
X-127.651 Z-1.953 F1000
X-127.628 Z-2.02
X-127.59 Y-170.701 Z-2.08
X-127.54 Z-2.131
X-127.479 Z-2.169
X-127.412 Y-170.702 Z-2.192
X-127.342 Z-2.2
X-127.024 Y-170.704
G3 X-126.705 Y-170.389 I0.002 J0.317
G1 X-126.16 Y-89.181
X-126.166 Y-89.171
X-126.178 Y-89.17
X-126.185 Y-89.179
X-138.796 Y-180.594
X-138.791 Y-180.606
X-138.777
X-126.73 Y-173.378
X-126.724 Y-173.367
X-126.705 Y-170.389
G3 X-127.02 Y-170.069 I-0.317 J0.002
G1 X-127.337 Y-170.067
X-127.408 Z-2.192
X-127.475 Y-170.066 Z-2.169
X-127.535 Z-2.131
X-127.586 Z-2.08
X-127.623 Y-170.065 Z-2.02
X-127.647 Z-1.953
X-127.655 Z-1.883
G0 Z15

(2D-Kontur28)
X-94.035 Y-8.895
Z15
Z5
G1 Z1 F333.3
Z-1.883
X-94.027 Y-8.893 Z-1.953 F1000
X-94.005 Y-8.887 Z-2.02
X-93.968 Y-8.878 Z-2.08
X-93.919 Y-8.866 Z-2.131
X-93.861 Y-8.852 Z-2.169
X-93.796 Y-8.836 Z-2.192
X-93.727 Y-8.819 Z-2.2
X-93.419 Y-8.743
G3 X-93.186 Y-8.358 I-0.076 J0.308
G2 X-88.805 Y-4.026 I3.483 J0.859
G1 X-34.246 Y-18.136
X-29.888
X-8.846 Y-5.511
G2 X-3.446 Y-9.077 I1.846 J-3.076
G1 X-8.263 Y-43.994
Z-1.406
X-9.38 Y-52.092
Z-2.2 F333.3
X-19.013 Y-121.926 F1000
Z-1.406
X-20.13 Y-130.024
Z-2.2 F333.3
X-24.947 Y-164.94 F1000
G2 X-25.005 Y-165.199 I-1.573 J0.217
G1 X-33.666 Y-192.749
G2 X-42.993 Y-193.647 I-4.853 J1.526
G1 X-43.033 Y-193.568
X-43.069 Y-193.486
X-54.449 Y-165.318
X-54.488 Y-165.212
X-54.518 Y-165.103
X-63.206 Y-129.886
Z-1.406
X-65.164 Y-121.949
Z-2.2 F333.3
X-82.54 Y-51.513 F1000
Z-1.406
X-84.498 Y-43.576
Z-2.2 F333.3
X-93.186 Y-8.358 F1000
G3 X-93.571 Y-8.126 I-0.308 J-0.076
G1 X-93.879 Y-8.202
X-93.948 Y-8.219 Z-2.192
X-94.013 Y-8.235 Z-2.169
X-94.071 Y-8.25 Z-2.131
X-94.12 Y-8.262 Z-2.08
X-94.157 Y-8.271 Z-2.02
X-94.18 Y-8.276 Z-1.953
X-94.187 Y-8.278 Z-1.883
G0 Z5
X-58.894 Y-191.105
G1 Z1 F333.3
Z-1.883
X-58.901 Y-191.107 Z-1.953 F1000
X-58.924 Y-191.113 Z-2.02
X-58.961 Y-191.122 Z-2.08
X-59.01 Y-191.134 Z-2.131
X-59.068 Y-191.148 Z-2.169
X-59.133 Y-191.165 Z-2.192
X-59.202 Y-191.181 Z-2.2
X-59.51 Y-191.257
G3 X-59.742 Y-191.642 I0.076 J-0.308
G2 X-64.124 Y-195.974 I-3.483 J-0.859
G1 X-118.683 Y-181.865
X-123.041
X-144.083 Y-194.489
G2 X-149.483 Y-190.923 I-1.846 J3.076
G1 X-144.666 Y-156.006
Z-1.406
X-143.549 Y-147.908
Z-2.2 F333.3
X-133.915 Y-78.075 F1000
Z-1.406
X-132.798 Y-69.976
Z-2.2 F333.3
X-127.982 Y-35.06 F1000
G2 X-127.923 Y-34.8 I1.573 J-0.217
G1 X-119.262 Y-7.251
G2 X-109.936 Y-6.353 I4.853 J-1.526
G1 X-109.896 Y-6.433
X-109.86 Y-6.515
X-98.48 Y-34.682
X-98.441 Y-34.788
X-98.41 Y-34.896
X-89.722 Y-70.114
Z-1.406
X-87.764 Y-78.051
Z-2.2 F333.3
X-70.388 Y-148.487 F1000
Z-1.406
X-68.43 Y-156.424
Z-2.2 F333.3
X-59.742 Y-191.642 F1000
G3 X-59.358 Y-191.874 I0.308 J0.076
G1 X-59.05 Y-191.798
X-58.981 Y-191.781 Z-2.192
X-58.916 Y-191.765 Z-2.169
X-58.858 Y-191.751 Z-2.131
X-58.809 Y-191.738 Z-2.08
X-58.772 Y-191.729 Z-2.02
X-58.749 Y-191.724 Z-1.953
X-58.742 Y-191.722 Z-1.883
G0 Z15
G28 G91 Z0
G90
G28 G91 X0 Y0
G90
M5
M30
