(Winglet_Langs)
(Bearbeiten)
(  Hersteller: ChinaCnc)
(  model: 3040T)
(  description: Generic 3-axis)
(T5  D=3.175 CR=0 - ZMIN=-3.2 - Schaftfraser)
G90 G94
G17
G21
G28 G91 Z0
G90

(2D-Kontur34)
T5
S6000 M3
G54
G0 X-110.025 Y-47.079
Z15
Z5
G1 Z1 F333.3
Z-2.883
X-110.017 Y-47.081 Z-2.953 F1000
X-109.995 Y-47.088 Z-3.02
X-109.959 Y-47.099 Z-3.08
X-109.91 Y-47.113 Z-3.131
X-109.853 Y-47.131 Z-3.169
X-109.788 Y-47.15 Z-3.192
X-109.721 Y-47.17 Z-3.2
X-109.416 Y-47.26
G3 X-109.021 Y-47.047 I0.091 J0.304
G2 X-108.623 Y-46.377 I1.521 J-0.453
G1 X-93.623 Y-31.377
G2 X-57.561 Y-1.025 I194.595 J-194.595
G1 Z-2.2
G2 X-49.974 Y4.135 I158.533 J-224.947
G1 Z-3.2 F333.3
G2 X36.2 Y41.495 I150.946 J-230.107 F1000
G1 Z-2.2
G2 X45.152 Y43.506 I64.772 J-267.467
G1 Z-3.2 F333.3
G2 X91.957 Y49.079 I55.82 J-269.478 F1000
X107.138 Y40.302 I0.544 J-16.579
X102.452 Y19.23 I-14.638 J-7.802
G3 X74.088 Y-37.5 I42.548 J-56.73
G1 Y-47.5
G2 X72.5 Y-49.088 I-1.588 J0
G1 X32.088
Z-2.2
X22.913
Z-3.2 F333.3
X-57.912 F1000
Z-2.2
X-67.088
Z-3.2 F333.3
X-107.5 F1000
G2 X-109.021 Y-47.047 I0 J1.588
G3 X-109.235 Y-46.652 I-0.304 J0.091
G1 X-109.539 Y-46.561
X-109.607 Y-46.541 Z-3.192
X-109.671 Y-46.522 Z-3.169
X-109.729 Y-46.505 Z-3.131
X-109.777 Y-46.49 Z-3.08
X-109.814 Y-46.48 Z-3.02
X-109.836 Y-46.473 Z-2.953
X-109.844 Y-46.471 Z-2.883
G0 Z15
G28 G91 Z0
G90
G28 G91 X0 Y0
G90
M5
M30
