(Winglet_quer)
(Bearbeiten)
(  Hersteller: ChinaCnc)
(  model: 3040T)
(  description: Generic 3-axis)
(T5  D=3.175 CR=0 - ZMIN=-3.2 - Schaftfraser)
G90 G94
G17
G21
G28 G91 Z0
G90

(2D-Kontur34 2)
T5
S6000 M3
G54
G0 X-10.421 Y-227.525
Z15
Z5
G1 Z1 F333.3
Z-2.883
X-10.419 Y-227.517 Z-2.953 F1000
X-10.412 Y-227.495 Z-3.02
X-10.401 Y-227.459 Z-3.08
X-10.387 Y-227.41 Z-3.131
X-10.369 Y-227.353 Z-3.169
X-10.35 Y-227.288 Z-3.192
X-10.33 Y-227.221 Z-3.2
X-10.24 Y-226.916
G3 X-10.453 Y-226.521 I-0.304 J0.091
G2 X-11.123 Y-226.123 I0.453 J1.521
G1 X-26.123 Y-211.123
G2 X-56.476 Y-175.061 I194.595 J194.595
G1 Z-2.2
G2 X-61.635 Y-167.474 I224.948 J158.533
G1 Z-3.2 F333.3
G2 X-98.995 Y-81.3 I230.107 J150.946 F1000
G1 Z-2.2
G2 X-101.006 Y-72.348 I267.467 J64.772
G1 Z-3.2 F333.3
G2 X-106.579 Y-25.543 I269.478 J55.82 F1000
X-76.73 Y-15.048 I16.579 J0.543
G3 X-20 Y-43.412 I56.73 J42.548
G1 X-10
G2 X-8.413 Y-45 I0 J-1.588
G1 Y-85.412
Z-2.2
Y-94.588
Z-3.2 F333.3
Y-175.413 F1000
Z-2.2
Y-184.587
Z-3.2 F333.3
Y-225 F1000
G2 X-10.453 Y-226.521 I-1.587 J0
G3 X-10.848 Y-226.735 I-0.091 J-0.304
G1 X-10.939 Y-227.039
X-10.959 Y-227.107 Z-3.192
X-10.978 Y-227.171 Z-3.169
X-10.995 Y-227.229 Z-3.131
X-11.01 Y-227.277 Z-3.08
X-11.02 Y-227.314 Z-3.02
X-11.027 Y-227.336 Z-2.953
X-11.029 Y-227.344 Z-2.883
G0 Z15
G28 G91 Z0
G90
G28 G91 X0 Y0
G90
M5
M30
