(X500_Top_Kontur_3-175)
(T5  D=3.175 CR=0 - ZMIN=-2.2 - Schaftfraser)
G90 G94
G17
G21

(2D-Kontur4)
T5
S4000 M3
G54
G0 X-146.789 Y-76.792
Z20
Z5.2
G1 Z2.7 F333.3
S5000
X-155.998 Y-86.001 Z2.245
G3 X-155.999 Y-87.998 Z2.168 I0.998 J-0.999
X-154.001 Y-87.999 Z2.09 I0.999 J0.998
G1 X-142.002 Y-75.999 Z1.498
G3 X-142.001 Y-74.002 Z1.42 I-0.998 J0.999
X-143.999 Y-74.001 Z1.343 I-0.999 J-0.998
G1 X-155.998 Y-86.001 Z0.75
G3 X-155.999 Y-87.998 Z0.673 I0.998 J-0.999
X-154.001 Y-87.999 Z0.595 I0.999 J0.998
G1 X-142.002 Y-75.999 Z0.003
G3 X-142.001 Y-74.002 Z-0.075 I-0.998 J0.999
X-143.999 Y-74.001 Z-0.152 I-0.999 J-0.998
G1 X-155.998 Y-86.001 Z-0.745
G3 X-155.999 Y-87.998 Z-0.823 I0.998 J-0.999
X-154.001 Y-87.999 Z-0.9 I0.999 J0.998
S4000
G1 X-142.002 Y-75.999 F1000
G3 X-142.001 Y-74.002 I-0.998 J0.999
X-143.999 Y-74.001 I-0.999 J-0.998
G1 X-155.998 Y-86.001
G3 X-155.999 Y-87.998 I0.998 J-0.999
X-154.001 Y-87.999 I0.999 J0.998
S5000
G1 X-142.002 Y-75.999 Z-1.493 F333.3
G3 X-141.687 Y-74.479 Z-1.55 I-0.998 J0.999
S4000
X-143.999 Y-74.001 I-1.313 J-0.521 F1000
G1 X-155.998 Y-86.001
G3 X-155.999 Y-87.998 I0.998 J-0.999
X-154.001 Y-87.999 I0.999 J0.998
G1 X-142.002 Y-75.999
G3 X-141.687 Y-74.479 I-0.998 J0.999
S5000
X-143.999 Y-74.001 Z-1.648 I-1.313 J-0.521 F333.3
G1 X-155.185 Y-85.188 Z-2.2
S4000
X-155.998 Y-86.001 F1000
G3 X-155.999 Y-87.998 I0.998 J-0.999
X-154.001 Y-87.999 I0.999 J0.998
G1 X-142.002 Y-75.999
G3 X-142.001 Y-74.002 I-0.998 J0.999
X-143.999 Y-74.001 I-0.999 J-0.998
G1 X-155.185 Y-85.188
G0 Z10
X-165.195 Y-94.106
Z5.2
G1 Z2.7 F333.3
S5000
X-165.262 Y-94.287 Z2.693
X-165.451 Y-94.864 Z2.672
X-165.631 Y-95.494 Z2.649
X-165.8 Y-96.18 Z2.625
X-165.955 Y-96.924 Z2.598
X-166.093 Y-97.728 Z2.569
X-166.213 Y-98.593 Z2.539
X-166.307 Y-99.518 Z2.507
X-166.374 Y-100.5 Z2.472
X-166.408 Y-101.525 Z2.436
X-166.407 Y-102.573 Z2.4
X-166.368 Y-103.616 Z2.363
X-166.295 Y-104.623 Z2.328
X-166.192 Y-105.576 Z2.295
X-166.063 Y-106.463 Z2.263
X-165.914 Y-107.283 Z2.234
X-165.749 Y-108.038 Z2.207
X-165.571 Y-108.728 Z2.182
X-165.382 Y-109.357 Z2.159
X-165.185 Y-109.927 Z2.138
X-164.983 Y-110.441 Z2.119
X-164.776 Y-110.901 Z2.101
X-164.569 Y-111.308 Z2.085
X-164.363 Y-111.663 Z2.071
X-164.16 Y-111.97 Z2.058
X-163.965 Y-112.226 Z2.047
X-163.78 Y-112.435 Z2.037
X-163.608 Y-112.6 Z2.029
X-163.457 Y-112.721 Z2.022
X-163.325 Y-112.805 Z2.017
X-163.214 Y-112.86 Z2.012
X-163.127 Y-112.891 Z2.009
X-163.056 Y-112.905 Z2.007
X-163.004 Y-112.909 Z2.005
X-162.939 Y-112.904 Z2.003
X-162.868 Y-112.889 Z2
X-162.784 Y-112.86 Z1.997
X-162.675 Y-112.805 Z1.993
X-162.542 Y-112.719 Z1.987
X-162.39 Y-112.597 Z1.98
X-162.219 Y-112.434 Z1.972
X-162.036 Y-112.227 Z1.962
X-161.844 Y-111.976 Z1.951
X-161.645 Y-111.676 Z1.939
X-161.442 Y-111.328 Z1.925
X-161.238 Y-110.931 Z1.909
X-161.036 Y-110.486 Z1.892
X-160.838 Y-109.989 Z1.873
X-160.645 Y-109.44 Z1.853
X-160.46 Y-108.837 Z1.831
X-160.285 Y-108.181 Z1.807
X-160.123 Y-107.468 Z1.782
X-159.976 Y-106.696 Z1.754
X-159.847 Y-105.861 Z1.725
X-159.738 Y-104.967 Z1.693
X-159.657 Y-104.014 Z1.66
X-159.605 Y-103.009 Z1.625
X-159.588 Y-101.97 Z1.589
X-159.608 Y-100.92 Z1.552
X-159.664 Y-99.891 Z1.516
X-159.752 Y-98.908 Z1.481
X-159.868 Y-97.987 Z1.449
X-160.006 Y-97.132 Z1.419
X-160.164 Y-96.344 Z1.391
X-160.336 Y-95.62 Z1.365
X-160.519 Y-94.961 Z1.341
X-160.712 Y-94.361 Z1.319
X-160.912 Y-93.818 Z1.299
X-161.117 Y-93.33 Z1.28
X-161.324 Y-92.895 Z1.263
X-161.532 Y-92.513 Z1.248
X-161.736 Y-92.182 Z1.235
X-161.934 Y-91.902 Z1.223
X-162.126 Y-91.668 Z1.212
X-162.305 Y-91.48 Z1.203
X-162.468 Y-91.337 Z1.195
X-162.611 Y-91.234 Z1.189
X-162.732 Y-91.165 Z1.184
X-162.83 Y-91.123 Z1.181
X-162.908 Y-91.101 Z1.178
X-162.972 Y-91.092 Z1.176
X-163.03 Z1.174
X-163.094 Y-91.102 Z1.171
X-163.173 Y-91.124 Z1.168
X-163.271 Y-91.166 Z1.165
X-163.392 Y-91.236 Z1.16
X-163.535 Y-91.339 Z1.154
X-163.696 Y-91.481 Z1.146
X-163.873 Y-91.666 Z1.137
X-164.061 Y-91.896 Z1.127
X-164.259 Y-92.174 Z1.115
X-164.46 Y-92.498 Z1.102
X-164.663 Y-92.87 Z1.087
X-164.867 Y-93.293 Z1.07
X-165.067 Y-93.765 Z1.053
X-165.262 Y-94.287 Z1.033
X-165.451 Y-94.864 Z1.012
X-165.631 Y-95.494 Z0.989
X-165.8 Y-96.18 Z0.964
X-165.955 Y-96.924 Z0.938
X-166.093 Y-97.728 Z0.909
X-166.213 Y-98.593 Z0.879
X-166.307 Y-99.518 Z0.846
X-166.374 Y-100.5 Z0.812
X-166.408 Y-101.525 Z0.776
X-166.407 Y-102.573 Z0.74
X-166.368 Y-103.616 Z0.703
X-166.295 Y-104.623 Z0.668
X-166.192 Y-105.576 Z0.634
X-166.063 Y-106.463 Z0.603
X-165.914 Y-107.283 Z0.574
X-165.749 Y-108.038 Z0.547
X-165.571 Y-108.728 Z0.522
X-165.382 Y-109.357 Z0.499
X-165.185 Y-109.927 Z0.478
X-164.983 Y-110.441 Z0.459
X-164.776 Y-110.901 Z0.441
X-164.569 Y-111.308 Z0.425
X-164.363 Y-111.663 Z0.411
X-164.16 Y-111.97 Z0.398
X-163.965 Y-112.226 Z0.387
X-163.78 Y-112.435 Z0.377
X-163.608 Y-112.6 Z0.369
X-163.457 Y-112.721 Z0.362
X-163.325 Y-112.805 Z0.357
X-163.214 Y-112.86 Z0.352
X-163.127 Y-112.891 Z0.349
X-163.056 Y-112.905 Z0.346
X-163.004 Y-112.909 Z0.345
X-162.939 Y-112.904 Z0.342
X-162.868 Y-112.889 Z0.34
X-162.784 Y-112.86 Z0.337
X-162.675 Y-112.805 Z0.332
X-162.542 Y-112.719 Z0.327
X-162.39 Y-112.597 Z0.32
X-162.219 Y-112.434 Z0.312
X-162.036 Y-112.227 Z0.302
X-161.844 Y-111.976 Z0.291
X-161.645 Y-111.676 Z0.279
X-161.442 Y-111.328 Z0.265
X-161.238 Y-110.931 Z0.249
X-161.036 Y-110.486 Z0.232
X-160.838 Y-109.989 Z0.213
X-160.645 Y-109.44 Z0.193
X-160.46 Y-108.837 Z0.171
X-160.285 Y-108.181 Z0.147
X-160.123 Y-107.468 Z0.122
X-159.976 Y-106.696 Z0.094
X-159.847 Y-105.861 Z0.065
X-159.738 Y-104.967 Z0.033
X-159.657 Y-104.014 Z0
X-159.605 Y-103.009 Z-0.035
X-159.588 Y-101.97 Z-0.072
X-159.608 Y-100.92 Z-0.108
X-159.664 Y-99.891 Z-0.144
X-159.752 Y-98.908 Z-0.179
X-159.868 Y-97.987 Z-0.211
X-160.006 Y-97.132 Z-0.241
X-160.164 Y-96.344 Z-0.269
X-160.336 Y-95.62 Z-0.295
X-160.519 Y-94.961 Z-0.319
X-160.712 Y-94.361 Z-0.341
X-160.912 Y-93.818 Z-0.362
X-161.117 Y-93.33 Z-0.38
X-161.324 Y-92.895 Z-0.397
X-161.532 Y-92.513 Z-0.412
X-161.736 Y-92.182 Z-0.426
X-161.934 Y-91.902 Z-0.438
X-162.126 Y-91.668 Z-0.448
X-162.305 Y-91.48 Z-0.457
X-162.468 Y-91.337 Z-0.465
X-162.611 Y-91.234 Z-0.471
X-162.732 Y-91.165 Z-0.476
X-162.83 Y-91.123 Z-0.48
X-162.908 Y-91.101 Z-0.482
X-162.972 Y-91.092 Z-0.485
X-163.03 Z-0.487
X-163.094 Y-91.102 Z-0.489
X-163.173 Y-91.124 Z-0.492
X-163.271 Y-91.166 Z-0.496
X-163.392 Y-91.236 Z-0.5
X-163.535 Y-91.339 Z-0.507
X-163.696 Y-91.481 Z-0.514
X-163.873 Y-91.666 Z-0.523
X-164.061 Y-91.896 Z-0.533
X-164.259 Y-92.174 Z-0.545
X-164.46 Y-92.498 Z-0.559
X-164.663 Y-92.87 Z-0.573
X-164.867 Y-93.293 Z-0.59
X-165.067 Y-93.765 Z-0.608
X-165.262 Y-94.287 Z-0.627
X-165.451 Y-94.864 Z-0.648
X-165.631 Y-95.494 Z-0.671
X-165.8 Y-96.18 Z-0.696
X-165.955 Y-96.924 Z-0.722
X-166.093 Y-97.728 Z-0.751
X-166.213 Y-98.593 Z-0.781
X-166.307 Y-99.518 Z-0.814
X-166.374 Y-100.5 Z-0.848
X-166.408 Y-101.525 Z-0.884
Y-101.981 Z-0.9
S4000
X-166.407 Y-102.573 F1000
X-166.368 Y-103.616
X-166.295 Y-104.623
X-166.192 Y-105.576
X-166.063 Y-106.463
X-165.914 Y-107.283
X-165.749 Y-108.038
X-165.571 Y-108.728
X-165.382 Y-109.357
X-165.185 Y-109.927
X-164.983 Y-110.441
X-164.776 Y-110.901
X-164.569 Y-111.308
X-164.363 Y-111.663
X-164.16 Y-111.97
X-163.965 Y-112.226
X-163.78 Y-112.435
X-163.608 Y-112.6
X-163.457 Y-112.721
X-163.325 Y-112.805
X-163.214 Y-112.86
X-163.127 Y-112.891
X-163.056 Y-112.905
X-163.004 Y-112.909
X-162.939 Y-112.904
X-162.868 Y-112.889
X-162.784 Y-112.86
X-162.675 Y-112.805
X-162.542 Y-112.719
X-162.39 Y-112.597
X-162.219 Y-112.434
X-162.036 Y-112.227
X-161.844 Y-111.976
X-161.645 Y-111.676
X-161.442 Y-111.328
X-161.238 Y-110.931
X-161.036 Y-110.486
X-160.838 Y-109.989
X-160.645 Y-109.44
X-160.46 Y-108.837
X-160.285 Y-108.181
X-160.123 Y-107.468
X-159.976 Y-106.696
X-159.847 Y-105.861
X-159.738 Y-104.967
X-159.657 Y-104.014
X-159.605 Y-103.009
X-159.588 Y-101.97
X-159.608 Y-100.92
X-159.664 Y-99.891
X-159.752 Y-98.908
X-159.868 Y-97.987
X-160.006 Y-97.132
X-160.164 Y-96.344
X-160.336 Y-95.62
X-160.519 Y-94.961
X-160.712 Y-94.361
X-160.912 Y-93.818
X-161.117 Y-93.33
X-161.324 Y-92.895
X-161.532 Y-92.513
X-161.736 Y-92.182
X-161.934 Y-91.902
X-162.126 Y-91.668
X-162.305 Y-91.48
X-162.468 Y-91.337
X-162.611 Y-91.234
X-162.732 Y-91.165
X-162.83 Y-91.123
X-162.908 Y-91.101
X-162.972 Y-91.092
X-163.03
X-163.094 Y-91.102
X-163.173 Y-91.124
X-163.271 Y-91.166
X-163.392 Y-91.236
X-163.535 Y-91.339
X-163.696 Y-91.481
X-163.873 Y-91.666
X-164.061 Y-91.896
X-164.259 Y-92.174
X-164.46 Y-92.498
X-164.663 Y-92.87
X-164.867 Y-93.293
X-165.067 Y-93.765
X-165.262 Y-94.287
X-165.451 Y-94.864
X-165.631 Y-95.494
X-165.8 Y-96.18
X-165.955 Y-96.924
X-166.093 Y-97.728
X-166.213 Y-98.593
X-166.307 Y-99.518
X-166.374 Y-100.5
X-166.408 Y-101.525
Y-101.981
S5000
X-166.407 Y-102.573 Z-0.921 F333.3
X-166.368 Y-103.616 Z-0.957
X-166.295 Y-104.623 Z-0.992
X-166.192 Y-105.576 Z-1.026
X-166.063 Y-106.463 Z-1.057
X-165.914 Y-107.283 Z-1.086
X-165.749 Y-108.038 Z-1.113
X-165.571 Y-108.728 Z-1.138
X-165.382 Y-109.357 Z-1.161
X-165.185 Y-109.927 Z-1.182
X-164.983 Y-110.441 Z-1.201
X-164.776 Y-110.901 Z-1.219
X-164.569 Y-111.308 Z-1.235
X-164.363 Y-111.663 Z-1.249
X-164.16 Y-111.97 Z-1.262
X-163.965 Y-112.226 Z-1.273
X-163.78 Y-112.435 Z-1.283
X-163.608 Y-112.6 Z-1.291
X-163.457 Y-112.721 Z-1.298
X-163.325 Y-112.805 Z-1.304
X-163.214 Y-112.86 Z-1.308
X-163.127 Y-112.891 Z-1.311
X-163.056 Y-112.905 Z-1.314
X-163.004 Y-112.909 Z-1.316
X-162.939 Y-112.904 Z-1.318
X-162.868 Y-112.889 Z-1.32
X-162.784 Y-112.86 Z-1.324
X-162.675 Y-112.805 Z-1.328
X-162.542 Y-112.719 Z-1.333
X-162.39 Y-112.597 Z-1.34
X-162.219 Y-112.434 Z-1.348
X-162.036 Y-112.227 Z-1.358
X-161.844 Y-111.976 Z-1.369
X-161.645 Y-111.676 Z-1.382
X-161.442 Y-111.328 Z-1.396
X-161.238 Y-110.931 Z-1.411
X-161.036 Y-110.486 Z-1.428
X-160.838 Y-109.989 Z-1.447
X-160.645 Y-109.44 Z-1.467
X-160.46 Y-108.837 Z-1.489
X-160.285 Y-108.181 Z-1.513
X-160.123 Y-107.468 Z-1.539
X-160.062 Y-107.148 Z-1.55
S4000
X-159.976 Y-106.696 F1000
X-159.847 Y-105.861
X-159.738 Y-104.967
X-159.657 Y-104.014
X-159.605 Y-103.009
X-159.588 Y-101.97
X-159.608 Y-100.92
X-159.664 Y-99.891
X-159.752 Y-98.908
X-159.868 Y-97.987
X-160.006 Y-97.132
X-160.164 Y-96.344
X-160.336 Y-95.62
X-160.519 Y-94.961
X-160.712 Y-94.361
X-160.912 Y-93.818
X-161.117 Y-93.33
X-161.324 Y-92.895
X-161.532 Y-92.513
X-161.736 Y-92.182
X-161.934 Y-91.902
X-162.126 Y-91.668
X-162.305 Y-91.48
X-162.468 Y-91.337
X-162.611 Y-91.234
X-162.732 Y-91.165
X-162.83 Y-91.123
X-162.908 Y-91.101
X-162.972 Y-91.092
X-163.03
X-163.094 Y-91.102
X-163.173 Y-91.124
X-163.271 Y-91.166
X-163.392 Y-91.236
X-163.535 Y-91.339
X-163.696 Y-91.481
X-163.873 Y-91.666
X-164.061 Y-91.896
X-164.259 Y-92.174
X-164.46 Y-92.498
X-164.663 Y-92.87
X-164.867 Y-93.293
X-165.067 Y-93.765
X-165.262 Y-94.287
X-165.451 Y-94.864
X-165.631 Y-95.494
X-165.8 Y-96.18
X-165.955 Y-96.924
X-166.093 Y-97.728
X-166.213 Y-98.593
X-166.307 Y-99.518
X-166.374 Y-100.5
X-166.408 Y-101.525
X-166.407 Y-102.573
X-166.368 Y-103.616
X-166.295 Y-104.623
X-166.192 Y-105.576
X-166.063 Y-106.463
X-165.914 Y-107.283
X-165.749 Y-108.038
X-165.571 Y-108.728
X-165.382 Y-109.357
X-165.185 Y-109.927
X-164.983 Y-110.441
X-164.776 Y-110.901
X-164.569 Y-111.308
X-164.363 Y-111.663
X-164.16 Y-111.97
X-163.965 Y-112.226
X-163.78 Y-112.435
X-163.608 Y-112.6
X-163.457 Y-112.721
X-163.325 Y-112.805
X-163.214 Y-112.86
X-163.127 Y-112.891
X-163.056 Y-112.905
X-163.004 Y-112.909
X-162.939 Y-112.904
X-162.868 Y-112.889
X-162.784 Y-112.86
X-162.675 Y-112.805
X-162.542 Y-112.719
X-162.39 Y-112.597
X-162.219 Y-112.434
X-162.036 Y-112.227
X-161.844 Y-111.976
X-161.645 Y-111.676
X-161.442 Y-111.328
X-161.238 Y-110.931
X-161.036 Y-110.486
X-160.838 Y-109.989
X-160.645 Y-109.44
X-160.46 Y-108.837
X-160.285 Y-108.181
X-160.123 Y-107.468
X-160.062 Y-107.148
S5000
X-159.976 Y-106.696 Z-1.566 F333.3
X-159.847 Y-105.861 Z-1.596
X-159.738 Y-104.967 Z-1.627
X-159.657 Y-104.014 Z-1.66
X-159.605 Y-103.009 Z-1.696
X-159.588 Y-101.97 Z-1.732
X-159.608 Y-100.92 Z-1.769
X-159.664 Y-99.891 Z-1.804
X-159.752 Y-98.908 Z-1.839
X-159.868 Y-97.987 Z-1.871
X-160.006 Y-97.132 Z-1.902
X-160.164 Y-96.344 Z-1.93
X-160.336 Y-95.62 Z-1.956
X-160.519 Y-94.961 Z-1.98
X-160.712 Y-94.361 Z-2.002
X-160.912 Y-93.818 Z-2.022
X-161.117 Y-93.33 Z-2.04
X-161.324 Y-92.895 Z-2.057
X-161.532 Y-92.513 Z-2.072
X-161.736 Y-92.182 Z-2.086
X-161.934 Y-91.902 Z-2.098
X-162.126 Y-91.668 Z-2.108
X-162.305 Y-91.48 Z-2.117
X-162.468 Y-91.337 Z-2.125
X-162.611 Y-91.234 Z-2.131
X-162.732 Y-91.165 Z-2.136
X-162.83 Y-91.123 Z-2.14
X-162.908 Y-91.101 Z-2.143
X-162.972 Y-91.092 Z-2.145
X-163.03 Z-2.147
X-163.094 Y-91.102 Z-2.149
X-163.173 Y-91.124 Z-2.152
X-163.271 Y-91.166 Z-2.156
X-163.392 Y-91.236 Z-2.161
X-163.535 Y-91.339 Z-2.167
X-163.696 Y-91.481 Z-2.174
X-163.873 Y-91.666 Z-2.183
X-164.061 Y-91.896 Z-2.194
X-164.167 Y-92.046 Z-2.2
S4000
X-164.259 Y-92.174 F1000
X-164.46 Y-92.498
X-164.663 Y-92.87
X-164.867 Y-93.293
X-165.067 Y-93.765
X-165.262 Y-94.287
X-165.451 Y-94.864
X-165.631 Y-95.494
X-165.8 Y-96.18
X-165.955 Y-96.924
X-166.093 Y-97.728
X-166.213 Y-98.593
X-166.307 Y-99.518
X-166.374 Y-100.5
X-166.408 Y-101.525
X-166.407 Y-102.573
X-166.368 Y-103.616
X-166.295 Y-104.623
X-166.192 Y-105.576
X-166.063 Y-106.463
X-165.914 Y-107.283
X-165.749 Y-108.038
X-165.571 Y-108.728
X-165.382 Y-109.357
X-165.185 Y-109.927
X-164.983 Y-110.441
X-164.776 Y-110.901
X-164.569 Y-111.308
X-164.363 Y-111.663
X-164.16 Y-111.97
X-163.965 Y-112.226
X-163.78 Y-112.435
X-163.608 Y-112.6
X-163.457 Y-112.721
X-163.325 Y-112.805
X-163.214 Y-112.86
X-163.127 Y-112.891
X-163.056 Y-112.905
X-163.004 Y-112.909
X-162.939 Y-112.904
X-162.868 Y-112.889
X-162.784 Y-112.86
X-162.675 Y-112.805
X-162.542 Y-112.719
X-162.39 Y-112.597
X-162.219 Y-112.434
X-162.036 Y-112.227
X-161.844 Y-111.976
X-161.645 Y-111.676
X-161.442 Y-111.328
X-161.238 Y-110.931
X-161.036 Y-110.486
X-160.838 Y-109.989
X-160.645 Y-109.44
X-160.46 Y-108.837
X-160.285 Y-108.181
X-160.123 Y-107.468
X-159.976 Y-106.696
X-159.847 Y-105.861
X-159.738 Y-104.967
X-159.657 Y-104.014
X-159.605 Y-103.009
X-159.588 Y-101.97
X-159.608 Y-100.92
X-159.664 Y-99.891
X-159.752 Y-98.908
X-159.868 Y-97.987
X-160.006 Y-97.132
X-160.164 Y-96.344
X-160.336 Y-95.62
X-160.519 Y-94.961
X-160.712 Y-94.361
X-160.912 Y-93.818
X-161.117 Y-93.33
X-161.324 Y-92.895
X-161.532 Y-92.513
X-161.736 Y-92.182
X-161.934 Y-91.902
X-162.126 Y-91.668
X-162.305 Y-91.48
X-162.468 Y-91.337
X-162.611 Y-91.234
X-162.732 Y-91.165
X-162.83 Y-91.123
X-162.908 Y-91.101
X-162.972 Y-91.092
X-163.03
X-163.094 Y-91.102
X-163.173 Y-91.124
X-163.271 Y-91.166
X-163.392 Y-91.236
X-163.535 Y-91.339
X-163.696 Y-91.481
X-163.873 Y-91.666
X-164.061 Y-91.896
X-164.167 Y-92.046
G0 Z10
X-141.721 Y-64.401
Z5.2
G1 Z2.7 F333.3
S5000
G3 X-142.001 Y-64.001 Z2.683 I-1.279 J-0.599
G1 X-154.001 Y-52.001 Z2.09
G3 X-155.999 Y-53.999 Z1.935 I-0.999 J-0.999
G1 X-143.999 Y-65.999 Z1.343
G3 X-142.001 Y-64.001 Z1.188 I0.999 J0.999
G1 X-154.001 Y-52.001 Z0.595
G3 X-155.999 Y-53.999 Z0.44 I-0.999 J-0.999
G1 X-143.999 Y-65.999 Z-0.152
G3 X-142.001 Y-64.001 Z-0.307 I0.999 J0.999
G1 X-154.001 Y-52.001 Z-0.9
S4000
G3 X-155.999 Y-53.999 I-0.999 J-0.999 F1000
G1 X-143.999 Y-65.999
G3 X-142.001 Y-64.001 I0.999 J0.999
G1 X-154.001 Y-52.001
S5000
G3 X-155.999 Y-53.999 Z-1.055 I-0.999 J-0.999 F333.3
G1 X-145.974 Y-64.023 Z-1.55
S4000
X-143.999 Y-65.999 F1000
G3 X-142.001 Y-64.001 I0.999 J0.999
G1 X-154.001 Y-52.001
G3 X-155.999 Y-53.999 I-0.999 J-0.999
G1 X-145.974 Y-64.023
S5000
X-143.999 Y-65.999 Z-1.648 F333.3
G3 X-142.001 Y-64.001 Z-1.802 I0.999 J0.999
G1 X-150.05 Y-55.952 Z-2.2
S4000
X-154.001 Y-52.001 F1000
G3 X-155.999 Y-53.999 I-0.999 J-0.999
G1 X-145.974 Y-64.023
X-143.999 Y-65.999
G3 X-142.001 Y-64.001 I0.999 J0.999
G1 X-150.05 Y-55.952
G0 Z10
X-160.805 Y-45.894
Z5.2
G1 Z2.7 F333.3
S5000
X-160.738 Y-45.713 Z2.693
X-160.549 Y-45.136 Z2.672
X-160.369 Y-44.506 Z2.649
X-160.2 Y-43.82 Z2.624
X-160.045 Y-43.076 Z2.598
X-159.907 Y-42.272 Z2.569
X-159.787 Y-41.407 Z2.539
X-159.693 Y-40.482 Z2.507
X-159.626 Y-39.5 Z2.472
X-159.592 Y-38.475 Z2.436
X-159.593 Y-37.427 Z2.4
X-159.632 Y-36.384 Z2.363
X-159.705 Y-35.376 Z2.328
X-159.808 Y-34.424 Z2.295
X-159.937 Y-33.537 Z2.263
X-160.086 Y-32.717 Z2.234
X-160.251 Y-31.962 Z2.207
X-160.429 Y-31.272 Z2.182
X-160.618 Y-30.643 Z2.159
X-160.815 Y-30.073 Z2.138
X-161.017 Y-29.559 Z2.119
X-161.224 Y-29.099 Z2.101
X-161.431 Y-28.693 Z2.085
X-161.637 Y-28.337 Z2.071
X-161.84 Y-28.03 Z2.058
X-162.035 Y-27.774 Z2.047
X-162.22 Y-27.565 Z2.037
X-162.391 Y-27.401 Z2.029
X-162.544 Y-27.279 Z2.022
X-162.675 Y-27.194 Z2.017
X-162.786 Y-27.14 Z2.012
X-162.873 Y-27.109 Z2.009
X-162.944 Y-27.095 Z2.007
X-162.998 Y-27.091 Z2.005
X-163.06 Y-27.096 Z2.003
X-163.13 Y-27.11 Z2
X-163.217 Y-27.141 Z1.997
X-163.326 Y-27.195 Z1.993
X-163.458 Y-27.281 Z1.987
X-163.61 Y-27.403 Z1.98
X-163.78 Y-27.566 Z1.972
X-163.963 Y-27.772 Z1.962
X-164.156 Y-28.024 Z1.951
X-164.356 Y-28.325 Z1.939
X-164.559 Y-28.672 Z1.925
X-164.762 Y-29.068 Z1.909
X-164.964 Y-29.514 Z1.892
X-165.162 Y-30.011 Z1.873
X-165.355 Y-30.56 Z1.853
X-165.54 Y-31.162 Z1.831
X-165.714 Y-31.819 Z1.807
X-165.877 Y-32.533 Z1.782
X-166.024 Y-33.305 Z1.754
X-166.153 Y-34.138 Z1.725
X-166.262 Y-35.033 Z1.693
X-166.343 Y-35.986 Z1.66
X-166.395 Y-36.991 Z1.625
X-166.412 Y-38.03 Z1.589
X-166.392 Y-39.079 Z1.552
X-166.336 Y-40.109 Z1.516
X-166.248 Y-41.092 Z1.481
X-166.132 Y-42.013 Z1.449
X-165.994 Y-42.868 Z1.419
X-165.836 Y-43.656 Z1.391
X-165.664 Y-44.38 Z1.365
X-165.481 Y-45.039 Z1.341
X-165.288 Y-45.639 Z1.319
X-165.088 Y-46.182 Z1.299
X-164.883 Y-46.67 Z1.28
X-164.676 Y-47.105 Z1.263
X-164.468 Y-47.487 Z1.248
X-164.264 Y-47.818 Z1.235
X-164.066 Y-48.098 Z1.223
X-163.874 Y-48.332 Z1.212
X-163.695 Y-48.52 Z1.203
X-163.532 Y-48.663 Z1.195
X-163.389 Y-48.766 Z1.189
X-163.268 Y-48.835 Z1.184
X-163.17 Y-48.877 Z1.181
X-163.092 Y-48.899 Z1.178
X-163.028 Y-48.908 Z1.176
X-162.97 Z1.174
X-162.906 Y-48.898 Z1.171
X-162.827 Y-48.876 Z1.168
X-162.729 Y-48.834 Z1.165
X-162.608 Y-48.764 Z1.16
X-162.465 Y-48.661 Z1.154
X-162.304 Y-48.519 Z1.146
X-162.127 Y-48.334 Z1.137
X-161.939 Y-48.104 Z1.127
X-161.741 Y-47.826 Z1.115
X-161.54 Y-47.502 Z1.102
X-161.337 Y-47.13 Z1.087
X-161.133 Y-46.707 Z1.07
X-160.933 Y-46.235 Z1.053
X-160.738 Y-45.713 Z1.033
X-160.549 Y-45.136 Z1.012
X-160.369 Y-44.506 Z0.989
X-160.2 Y-43.82 Z0.964
X-160.045 Y-43.076 Z0.938
X-159.907 Y-42.272 Z0.909
X-159.787 Y-41.407 Z0.879
X-159.693 Y-40.482 Z0.846
X-159.626 Y-39.5 Z0.812
X-159.592 Y-38.475 Z0.776
X-159.593 Y-37.427 Z0.74
X-159.632 Y-36.384 Z0.703
X-159.705 Y-35.376 Z0.668
X-159.808 Y-34.424 Z0.634
X-159.937 Y-33.537 Z0.603
X-160.086 Y-32.717 Z0.574
X-160.251 Y-31.962 Z0.547
X-160.429 Y-31.272 Z0.522
X-160.618 Y-30.643 Z0.499
X-160.815 Y-30.073 Z0.478
X-161.017 Y-29.559 Z0.459
X-161.224 Y-29.099 Z0.441
X-161.431 Y-28.693 Z0.425
X-161.637 Y-28.337 Z0.411
X-161.84 Y-28.03 Z0.398
X-162.035 Y-27.774 Z0.387
X-162.22 Y-27.565 Z0.377
X-162.391 Y-27.401 Z0.369
X-162.544 Y-27.279 Z0.362
X-162.675 Y-27.194 Z0.356
X-162.786 Y-27.14 Z0.352
X-162.873 Y-27.109 Z0.349
X-162.944 Y-27.095 Z0.346
X-162.998 Y-27.091 Z0.345
X-163.06 Y-27.096 Z0.342
X-163.13 Y-27.11 Z0.34
X-163.217 Y-27.141 Z0.337
X-163.326 Y-27.195 Z0.332
X-163.458 Y-27.281 Z0.327
X-163.61 Y-27.403 Z0.32
X-163.78 Y-27.566 Z0.312
X-163.963 Y-27.772 Z0.302
X-164.156 Y-28.024 Z0.291
X-164.356 Y-28.325 Z0.279
X-164.559 Y-28.672 Z0.265
X-164.762 Y-29.068 Z0.249
X-164.964 Y-29.514 Z0.232
X-165.162 Y-30.011 Z0.213
X-165.355 Y-30.56 Z0.193
X-165.54 Y-31.162 Z0.171
X-165.714 Y-31.819 Z0.147
X-165.877 Y-32.533 Z0.122
X-166.024 Y-33.305 Z0.094
X-166.153 Y-34.138 Z0.065
X-166.262 Y-35.033 Z0.033
X-166.343 Y-35.986 Z0
X-166.395 Y-36.991 Z-0.035
X-166.412 Y-38.03 Z-0.072
X-166.392 Y-39.079 Z-0.108
X-166.336 Y-40.109 Z-0.144
X-166.248 Y-41.092 Z-0.179
X-166.132 Y-42.013 Z-0.211
X-165.994 Y-42.868 Z-0.241
X-165.836 Y-43.656 Z-0.269
X-165.664 Y-44.38 Z-0.295
X-165.481 Y-45.039 Z-0.319
X-165.288 Y-45.639 Z-0.341
X-165.088 Y-46.182 Z-0.362
X-164.883 Y-46.67 Z-0.38
X-164.676 Y-47.105 Z-0.397
X-164.468 Y-47.487 Z-0.412
X-164.264 Y-47.818 Z-0.426
X-164.066 Y-48.098 Z-0.438
X-163.874 Y-48.332 Z-0.448
X-163.695 Y-48.52 Z-0.457
X-163.532 Y-48.663 Z-0.465
X-163.389 Y-48.766 Z-0.471
X-163.268 Y-48.835 Z-0.476
X-163.17 Y-48.877 Z-0.48
X-163.092 Y-48.899 Z-0.482
X-163.028 Y-48.908 Z-0.485
X-162.97 Z-0.487
X-162.906 Y-48.898 Z-0.489
X-162.827 Y-48.876 Z-0.492
X-162.729 Y-48.834 Z-0.496
X-162.608 Y-48.764 Z-0.5
X-162.465 Y-48.661 Z-0.507
X-162.304 Y-48.519 Z-0.514
X-162.127 Y-48.334 Z-0.523
X-161.939 Y-48.104 Z-0.533
X-161.741 Y-47.826 Z-0.545
X-161.54 Y-47.502 Z-0.559
X-161.337 Y-47.13 Z-0.573
X-161.133 Y-46.707 Z-0.59
X-160.933 Y-46.235 Z-0.608
X-160.738 Y-45.713 Z-0.627
X-160.549 Y-45.136 Z-0.648
X-160.369 Y-44.506 Z-0.671
X-160.2 Y-43.82 Z-0.696
X-160.045 Y-43.076 Z-0.722
X-159.907 Y-42.272 Z-0.751
X-159.787 Y-41.407 Z-0.781
X-159.693 Y-40.482 Z-0.814
X-159.626 Y-39.5 Z-0.848
X-159.592 Y-38.475 Z-0.884
Y-38.02 Z-0.9
S4000
X-159.593 Y-37.427 F1000
X-159.632 Y-36.384
X-159.705 Y-35.376
X-159.808 Y-34.424
X-159.937 Y-33.537
X-160.086 Y-32.717
X-160.251 Y-31.962
X-160.429 Y-31.272
X-160.618 Y-30.643
X-160.815 Y-30.073
X-161.017 Y-29.559
X-161.224 Y-29.099
X-161.431 Y-28.693
X-161.637 Y-28.337
X-161.84 Y-28.03
X-162.035 Y-27.774
X-162.22 Y-27.565
X-162.391 Y-27.401
X-162.544 Y-27.279
X-162.675 Y-27.194
X-162.786 Y-27.14
X-162.873 Y-27.109
X-162.944 Y-27.095
X-162.998 Y-27.091
X-163.06 Y-27.096
X-163.13 Y-27.11
X-163.217 Y-27.141
X-163.326 Y-27.195
X-163.458 Y-27.281
X-163.61 Y-27.403
X-163.78 Y-27.566
X-163.963 Y-27.772
X-164.156 Y-28.024
X-164.356 Y-28.325
X-164.559 Y-28.672
X-164.762 Y-29.068
X-164.964 Y-29.514
X-165.162 Y-30.011
X-165.355 Y-30.56
X-165.54 Y-31.162
X-165.714 Y-31.819
X-165.877 Y-32.533
X-166.024 Y-33.305
X-166.153 Y-34.138
X-166.262 Y-35.033
X-166.343 Y-35.986
X-166.395 Y-36.991
X-166.412 Y-38.03
X-166.392 Y-39.079
X-166.336 Y-40.109
X-166.248 Y-41.092
X-166.132 Y-42.013
X-165.994 Y-42.868
X-165.836 Y-43.656
X-165.664 Y-44.38
X-165.481 Y-45.039
X-165.288 Y-45.639
X-165.088 Y-46.182
X-164.883 Y-46.67
X-164.676 Y-47.105
X-164.468 Y-47.487
X-164.264 Y-47.818
X-164.066 Y-48.098
X-163.874 Y-48.332
X-163.695 Y-48.52
X-163.532 Y-48.663
X-163.389 Y-48.766
X-163.268 Y-48.835
X-163.17 Y-48.877
X-163.092 Y-48.899
X-163.028 Y-48.908
X-162.97
X-162.906 Y-48.898
X-162.827 Y-48.876
X-162.729 Y-48.834
X-162.608 Y-48.764
X-162.465 Y-48.661
X-162.304 Y-48.519
X-162.127 Y-48.334
X-161.939 Y-48.104
X-161.741 Y-47.826
X-161.54 Y-47.502
X-161.337 Y-47.13
X-161.133 Y-46.707
X-160.933 Y-46.235
X-160.738 Y-45.713
X-160.549 Y-45.136
X-160.369 Y-44.506
X-160.2 Y-43.82
X-160.045 Y-43.076
X-159.907 Y-42.272
X-159.787 Y-41.407
X-159.693 Y-40.482
X-159.626 Y-39.5
X-159.592 Y-38.475
Y-38.02
S5000
X-159.593 Y-37.427 Z-0.921 F333.3
X-159.632 Y-36.384 Z-0.957
X-159.705 Y-35.376 Z-0.992
X-159.808 Y-34.424 Z-1.026
X-159.937 Y-33.537 Z-1.057
X-160.086 Y-32.717 Z-1.086
X-160.251 Y-31.962 Z-1.113
X-160.429 Y-31.272 Z-1.138
X-160.618 Y-30.643 Z-1.161
X-160.815 Y-30.073 Z-1.182
X-161.017 Y-29.559 Z-1.201
X-161.224 Y-29.099 Z-1.219
X-161.431 Y-28.693 Z-1.235
X-161.637 Y-28.337 Z-1.249
X-161.84 Y-28.03 Z-1.262
X-162.035 Y-27.774 Z-1.273
X-162.22 Y-27.565 Z-1.283
X-162.391 Y-27.401 Z-1.291
X-162.544 Y-27.279 Z-1.298
X-162.675 Y-27.194 Z-1.304
X-162.786 Y-27.14 Z-1.308
X-162.873 Y-27.109 Z-1.311
X-162.944 Y-27.095 Z-1.314
X-162.998 Y-27.091 Z-1.316
X-163.06 Y-27.096 Z-1.318
X-163.13 Y-27.11 Z-1.32
X-163.217 Y-27.141 Z-1.324
X-163.326 Y-27.195 Z-1.328
X-163.458 Y-27.281 Z-1.333
X-163.61 Y-27.403 Z-1.34
X-163.78 Y-27.566 Z-1.348
X-163.963 Y-27.772 Z-1.358
X-164.156 Y-28.024 Z-1.369
X-164.356 Y-28.325 Z-1.382
X-164.559 Y-28.672 Z-1.396
X-164.762 Y-29.068 Z-1.411
X-164.964 Y-29.514 Z-1.428
X-165.162 Y-30.011 Z-1.447
X-165.355 Y-30.56 Z-1.467
X-165.54 Y-31.162 Z-1.489
X-165.714 Y-31.819 Z-1.513
X-165.877 Y-32.533 Z-1.539
X-165.938 Y-32.852 Z-1.55
S4000
X-166.024 Y-33.305 F1000
X-166.153 Y-34.138
X-166.262 Y-35.033
X-166.343 Y-35.986
X-166.395 Y-36.991
X-166.412 Y-38.03
X-166.392 Y-39.079
X-166.336 Y-40.109
X-166.248 Y-41.092
X-166.132 Y-42.013
X-165.994 Y-42.868
X-165.836 Y-43.656
X-165.664 Y-44.38
X-165.481 Y-45.039
X-165.288 Y-45.639
X-165.088 Y-46.182
X-164.883 Y-46.67
X-164.676 Y-47.105
X-164.468 Y-47.487
X-164.264 Y-47.818
X-164.066 Y-48.098
X-163.874 Y-48.332
X-163.695 Y-48.52
X-163.532 Y-48.663
X-163.389 Y-48.766
X-163.268 Y-48.835
X-163.17 Y-48.877
X-163.092 Y-48.899
X-163.028 Y-48.908
X-162.97
X-162.906 Y-48.898
X-162.827 Y-48.876
X-162.729 Y-48.834
X-162.608 Y-48.764
X-162.465 Y-48.661
X-162.304 Y-48.519
X-162.127 Y-48.334
X-161.939 Y-48.104
X-161.741 Y-47.826
X-161.54 Y-47.502
X-161.337 Y-47.13
X-161.133 Y-46.707
X-160.933 Y-46.235
X-160.738 Y-45.713
X-160.549 Y-45.136
X-160.369 Y-44.506
X-160.2 Y-43.82
X-160.045 Y-43.076
X-159.907 Y-42.272
X-159.787 Y-41.407
X-159.693 Y-40.482
X-159.626 Y-39.5
X-159.592 Y-38.475
X-159.593 Y-37.427
X-159.632 Y-36.384
X-159.705 Y-35.376
X-159.808 Y-34.424
X-159.937 Y-33.537
X-160.086 Y-32.717
X-160.251 Y-31.962
X-160.429 Y-31.272
X-160.618 Y-30.643
X-160.815 Y-30.073
X-161.017 Y-29.559
X-161.224 Y-29.099
X-161.431 Y-28.693
X-161.637 Y-28.337
X-161.84 Y-28.03
X-162.035 Y-27.774
X-162.22 Y-27.565
X-162.391 Y-27.401
X-162.544 Y-27.279
X-162.675 Y-27.194
X-162.786 Y-27.14
X-162.873 Y-27.109
X-162.944 Y-27.095
X-162.998 Y-27.091
X-163.06 Y-27.096
X-163.13 Y-27.11
X-163.217 Y-27.141
X-163.326 Y-27.195
X-163.458 Y-27.281
X-163.61 Y-27.403
X-163.78 Y-27.566
X-163.963 Y-27.772
X-164.156 Y-28.024
X-164.356 Y-28.325
X-164.559 Y-28.672
X-164.762 Y-29.068
X-164.964 Y-29.514
X-165.162 Y-30.011
X-165.355 Y-30.56
X-165.54 Y-31.162
X-165.714 Y-31.819
X-165.877 Y-32.533
X-165.938 Y-32.852
S5000
X-166.024 Y-33.305 Z-1.566 F333.3
X-166.153 Y-34.138 Z-1.596
X-166.262 Y-35.033 Z-1.627
X-166.343 Y-35.986 Z-1.66
X-166.395 Y-36.991 Z-1.696
X-166.412 Y-38.03 Z-1.732
X-166.392 Y-39.079 Z-1.768
X-166.336 Y-40.109 Z-1.804
X-166.248 Y-41.092 Z-1.839
X-166.132 Y-42.013 Z-1.871
X-165.994 Y-42.868 Z-1.902
X-165.836 Y-43.656 Z-1.93
X-165.664 Y-44.38 Z-1.956
X-165.481 Y-45.039 Z-1.98
X-165.288 Y-45.639 Z-2.002
X-165.088 Y-46.182 Z-2.022
X-164.883 Y-46.67 Z-2.04
X-164.676 Y-47.105 Z-2.057
X-164.468 Y-47.487 Z-2.072
X-164.264 Y-47.818 Z-2.086
X-164.066 Y-48.098 Z-2.098
X-163.874 Y-48.332 Z-2.108
X-163.695 Y-48.52 Z-2.117
X-163.532 Y-48.663 Z-2.125
X-163.389 Y-48.766 Z-2.131
X-163.268 Y-48.835 Z-2.136
X-163.17 Y-48.877 Z-2.14
X-163.092 Y-48.899 Z-2.143
X-163.028 Y-48.908 Z-2.145
X-162.97 Z-2.147
X-162.906 Y-48.898 Z-2.149
X-162.827 Y-48.876 Z-2.152
X-162.729 Y-48.834 Z-2.156
X-162.608 Y-48.764 Z-2.161
X-162.465 Y-48.661 Z-2.167
X-162.304 Y-48.519 Z-2.174
X-162.127 Y-48.334 Z-2.183
X-161.939 Y-48.104 Z-2.194
X-161.833 Y-47.954 Z-2.2
S4000
X-161.741 Y-47.826 F1000
X-161.54 Y-47.502
X-161.337 Y-47.13
X-161.133 Y-46.707
X-160.933 Y-46.235
X-160.738 Y-45.713
X-160.549 Y-45.136
X-160.369 Y-44.506
X-160.2 Y-43.82
X-160.045 Y-43.076
X-159.907 Y-42.272
X-159.787 Y-41.407
X-159.693 Y-40.482
X-159.626 Y-39.5
X-159.592 Y-38.475
X-159.593 Y-37.427
X-159.632 Y-36.384
X-159.705 Y-35.376
X-159.808 Y-34.424
X-159.937 Y-33.537
X-160.086 Y-32.717
X-160.251 Y-31.962
X-160.429 Y-31.272
X-160.618 Y-30.643
X-160.815 Y-30.073
X-161.017 Y-29.559
X-161.224 Y-29.099
X-161.431 Y-28.693
X-161.637 Y-28.337
X-161.84 Y-28.03
X-162.035 Y-27.774
X-162.22 Y-27.565
X-162.391 Y-27.401
X-162.544 Y-27.279
X-162.675 Y-27.194
X-162.786 Y-27.14
X-162.873 Y-27.109
X-162.944 Y-27.095
X-162.998 Y-27.091
X-163.06 Y-27.096
X-163.13 Y-27.11
X-163.217 Y-27.141
X-163.326 Y-27.195
X-163.458 Y-27.281
X-163.61 Y-27.403
X-163.78 Y-27.566
X-163.963 Y-27.772
X-164.156 Y-28.024
X-164.356 Y-28.325
X-164.559 Y-28.672
X-164.762 Y-29.068
X-164.964 Y-29.514
X-165.162 Y-30.011
X-165.355 Y-30.56
X-165.54 Y-31.162
X-165.714 Y-31.819
X-165.877 Y-32.533
X-166.024 Y-33.305
X-166.153 Y-34.138
X-166.262 Y-35.033
X-166.343 Y-35.986
X-166.395 Y-36.991
X-166.412 Y-38.03
X-166.392 Y-39.079
X-166.336 Y-40.109
X-166.248 Y-41.092
X-166.132 Y-42.013
X-165.994 Y-42.868
X-165.836 Y-43.656
X-165.664 Y-44.38
X-165.481 Y-45.039
X-165.288 Y-45.639
X-165.088 Y-46.182
X-164.883 Y-46.67
X-164.676 Y-47.105
X-164.468 Y-47.487
X-164.264 Y-47.818
X-164.066 Y-48.098
X-163.874 Y-48.332
X-163.695 Y-48.52
X-163.532 Y-48.663
X-163.389 Y-48.766
X-163.268 Y-48.835
X-163.17 Y-48.877
X-163.092 Y-48.899
X-163.028 Y-48.908
X-162.97
X-162.906 Y-48.898
X-162.827 Y-48.876
X-162.729 Y-48.834
X-162.608 Y-48.764
X-162.465 Y-48.661
X-162.304 Y-48.519
X-162.127 Y-48.334
X-161.939 Y-48.104
X-161.833 Y-47.954
G0 Z10
X-110.106 Y-37.806
Z5.2
G1 Z2.7 F333.3
S5000
X-110.288 Y-37.738 Z2.693
X-110.865 Y-37.549 Z2.672
X-111.494 Y-37.369 Z2.649
X-112.181 Y-37.2 Z2.624
X-112.924 Y-37.045 Z2.598
X-113.728 Y-36.907 Z2.569
X-114.593 Y-36.788 Z2.539
X-115.518 Y-36.693 Z2.506
X-116.5 Y-36.626 Z2.472
X-117.525 Y-36.592 Z2.436
X-118.573 Y-36.593 Z2.4
X-119.616 Y-36.632 Z2.363
X-120.623 Y-36.705 Z2.328
X-121.576 Y-36.809 Z2.295
X-122.464 Y-36.937 Z2.263
X-123.283 Y-37.086 Z2.234
X-124.038 Y-37.251 Z2.207
X-124.728 Y-37.429 Z2.182
X-125.357 Y-37.618 Z2.159
X-125.927 Y-37.815 Z2.138
X-126.441 Y-38.018 Z2.119
X-126.901 Y-38.224 Z2.101
X-127.308 Y-38.431 Z2.085
X-127.664 Y-38.637 Z2.071
X-127.969 Y-38.84 Z2.058
X-128.226 Y-39.035 Z2.047
X-128.435 Y-39.22 Z2.037
X-128.6 Y-39.392 Z2.029
X-128.721 Y-39.544 Z2.022
X-128.806 Y-39.676 Z2.017
X-128.86 Y-39.785 Z2.012
X-128.891 Y-39.873 Z2.009
X-128.905 Y-39.944 Z2.007
X-128.909 Y-39.996 Z2.005
X-128.904 Y-40.061 Z2.003
X-128.889 Y-40.132 Z2
X-128.86 Y-40.216 Z1.997
X-128.805 Y-40.326 Z1.993
X-128.719 Y-40.458 Z1.987
X-128.597 Y-40.611 Z1.98
X-128.434 Y-40.78 Z1.972
X-128.228 Y-40.963 Z1.962
X-127.976 Y-41.156 Z1.951
X-127.676 Y-41.355 Z1.939
X-127.328 Y-41.558 Z1.925
X-126.931 Y-41.762 Z1.909
X-126.486 Y-41.964 Z1.892
X-125.989 Y-42.162 Z1.873
X-125.44 Y-42.355 Z1.853
X-124.838 Y-42.539 Z1.831
X-124.181 Y-42.714 Z1.807
X-123.468 Y-42.877 Z1.782
X-122.695 Y-43.024 Z1.754
X-121.861 Y-43.154 Z1.725
X-120.967 Y-43.261 Z1.693
X-120.014 Y-43.343 Z1.66
X-119.009 Y-43.395 Z1.625
X-117.97 Y-43.412 Z1.589
X-116.92 Y-43.393 Z1.552
X-115.891 Y-43.337 Z1.516
X-114.909 Y-43.248 Z1.481
X-113.987 Y-43.132 Z1.449
X-113.131 Y-42.993 Z1.419
X-112.344 Y-42.836 Z1.391
X-111.621 Y-42.664 Z1.365
X-110.961 Y-42.481 Z1.341
X-110.36 Y-42.288 Z1.319
X-109.818 Y-42.088 Z1.299
X-109.33 Y-41.883 Z1.28
X-108.896 Y-41.676 Z1.263
X-108.514 Y-41.469 Z1.248
X-108.183 Y-41.264 Z1.235
X-107.901 Y-41.065 Z1.223
X-107.667 Y-40.874 Z1.212
X-107.48 Y-40.696 Z1.203
X-107.338 Y-40.533 Z1.195
X-107.234 Y-40.389 Z1.189
X-107.164 Y-40.267 Z1.184
X-107.123 Y-40.169 Z1.181
X-107.101 Y-40.094 Z1.178
X-107.092 Y-40.028 Z1.176
Y-39.968 Z1.173
X-107.101 Y-39.906 Z1.171
X-107.124 Y-39.827 Z1.168
X-107.166 Y-39.729 Z1.165
X-107.234 Y-39.609 Z1.16
X-107.339 Y-39.465 Z1.154
X-107.481 Y-39.304 Z1.146
X-107.666 Y-39.127 Z1.137
X-107.897 Y-38.938 Z1.127
X-108.173 Y-38.742 Z1.115
X-108.498 Y-38.54 Z1.102
X-108.87 Y-38.337 Z1.087
X-109.293 Y-38.134 Z1.07
X-109.764 Y-37.933 Z1.052
X-110.288 Y-37.738 Z1.033
X-110.865 Y-37.549 Z1.012
X-111.494 Y-37.369 Z0.989
X-112.181 Y-37.2 Z0.964
X-112.924 Y-37.045 Z0.938
X-113.728 Y-36.907 Z0.909
X-114.593 Y-36.788 Z0.879
X-115.518 Y-36.693 Z0.846
X-116.5 Y-36.626 Z0.812
X-117.525 Y-36.592 Z0.776
X-118.573 Y-36.593 Z0.739
X-119.616 Y-36.632 Z0.703
X-120.623 Y-36.705 Z0.668
X-121.576 Y-36.809 Z0.634
X-122.464 Y-36.937 Z0.603
X-123.283 Y-37.086 Z0.574
X-124.038 Y-37.251 Z0.547
X-124.728 Y-37.429 Z0.522
X-125.357 Y-37.618 Z0.499
X-125.927 Y-37.815 Z0.478
X-126.441 Y-38.018 Z0.459
X-126.901 Y-38.224 Z0.441
X-127.308 Y-38.431 Z0.425
X-127.664 Y-38.637 Z0.411
X-127.969 Y-38.84 Z0.398
X-128.226 Y-39.035 Z0.387
X-128.435 Y-39.22 Z0.377
X-128.6 Y-39.392 Z0.369
X-128.721 Y-39.544 Z0.362
X-128.806 Y-39.676 Z0.356
X-128.86 Y-39.785 Z0.352
X-128.891 Y-39.873 Z0.349
X-128.905 Y-39.944 Z0.346
X-128.909 Y-39.996 Z0.345
X-128.904 Y-40.061 Z0.342
X-128.889 Y-40.132 Z0.34
X-128.86 Y-40.216 Z0.337
X-128.805 Y-40.326 Z0.332
X-128.719 Y-40.458 Z0.327
X-128.597 Y-40.611 Z0.32
X-128.434 Y-40.78 Z0.312
X-128.228 Y-40.963 Z0.302
X-127.976 Y-41.156 Z0.291
X-127.676 Y-41.355 Z0.279
X-127.328 Y-41.558 Z0.264
X-126.931 Y-41.762 Z0.249
X-126.486 Y-41.964 Z0.232
X-125.989 Y-42.162 Z0.213
X-125.44 Y-42.355 Z0.193
X-124.838 Y-42.539 Z0.171
X-124.181 Y-42.714 Z0.147
X-123.468 Y-42.877 Z0.122
X-122.695 Y-43.024 Z0.094
X-121.861 Y-43.154 Z0.065
X-120.967 Y-43.261 Z0.033
X-120.014 Y-43.343 Z0
X-119.009 Y-43.395 Z-0.035
X-117.97 Y-43.412 Z-0.072
X-116.92 Y-43.393 Z-0.108
X-115.891 Y-43.337 Z-0.144
X-114.909 Y-43.248 Z-0.179
X-113.987 Y-43.132 Z-0.211
X-113.131 Y-42.993 Z-0.241
X-112.344 Y-42.836 Z-0.27
X-111.621 Y-42.664 Z-0.295
X-110.961 Y-42.481 Z-0.319
X-110.36 Y-42.288 Z-0.341
X-109.818 Y-42.088 Z-0.362
X-109.33 Y-41.883 Z-0.38
X-108.896 Y-41.676 Z-0.397
X-108.514 Y-41.469 Z-0.412
X-108.183 Y-41.264 Z-0.426
X-107.901 Y-41.065 Z-0.438
X-107.667 Y-40.874 Z-0.448
X-107.48 Y-40.696 Z-0.457
X-107.338 Y-40.533 Z-0.465
X-107.234 Y-40.389 Z-0.471
X-107.164 Y-40.267 Z-0.476
X-107.123 Y-40.169 Z-0.48
X-107.101 Y-40.094 Z-0.482
X-107.092 Y-40.028 Z-0.485
Y-39.968 Z-0.487
X-107.101 Y-39.906 Z-0.489
X-107.124 Y-39.827 Z-0.492
X-107.166 Y-39.729 Z-0.496
X-107.234 Y-39.609 Z-0.5
X-107.339 Y-39.465 Z-0.507
X-107.481 Y-39.304 Z-0.514
X-107.666 Y-39.127 Z-0.523
X-107.897 Y-38.938 Z-0.533
X-108.173 Y-38.742 Z-0.545
X-108.498 Y-38.54 Z-0.559
X-108.87 Y-38.337 Z-0.573
X-109.293 Y-38.134 Z-0.59
X-109.764 Y-37.933 Z-0.608
X-110.288 Y-37.738 Z-0.627
X-110.865 Y-37.549 Z-0.648
X-111.494 Y-37.369 Z-0.671
X-112.181 Y-37.2 Z-0.696
X-112.924 Y-37.045 Z-0.723
X-113.728 Y-36.907 Z-0.751
X-114.593 Y-36.788 Z-0.781
X-115.518 Y-36.693 Z-0.814
X-116.5 Y-36.626 Z-0.848
X-117.525 Y-36.592 Z-0.884
X-117.979 Z-0.9
S4000
X-118.573 Y-36.593 F1000
X-119.616 Y-36.632
X-120.623 Y-36.705
X-121.576 Y-36.809
X-122.464 Y-36.937
X-123.283 Y-37.086
X-124.038 Y-37.251
X-124.728 Y-37.429
X-125.357 Y-37.618
X-125.927 Y-37.815
X-126.441 Y-38.018
X-126.901 Y-38.224
X-127.308 Y-38.431
X-127.664 Y-38.637
X-127.969 Y-38.84
X-128.226 Y-39.035
X-128.435 Y-39.22
X-128.6 Y-39.392
X-128.721 Y-39.544
X-128.806 Y-39.676
X-128.86 Y-39.785
X-128.891 Y-39.873
X-128.905 Y-39.944
X-128.909 Y-39.996
X-128.904 Y-40.061
X-128.889 Y-40.132
X-128.86 Y-40.216
X-128.805 Y-40.326
X-128.719 Y-40.458
X-128.597 Y-40.611
X-128.434 Y-40.78
X-128.228 Y-40.963
X-127.976 Y-41.156
X-127.676 Y-41.355
X-127.328 Y-41.558
X-126.931 Y-41.762
X-126.486 Y-41.964
X-125.989 Y-42.162
X-125.44 Y-42.355
X-124.838 Y-42.539
X-124.181 Y-42.714
X-123.468 Y-42.877
X-122.695 Y-43.024
X-121.861 Y-43.154
X-120.967 Y-43.261
X-120.014 Y-43.343
X-119.009 Y-43.395
X-117.97 Y-43.412
X-116.92 Y-43.393
X-115.891 Y-43.337
X-114.909 Y-43.248
X-113.987 Y-43.132
X-113.131 Y-42.993
X-112.344 Y-42.836
X-111.621 Y-42.664
X-110.961 Y-42.481
X-110.36 Y-42.288
X-109.818 Y-42.088
X-109.33 Y-41.883
X-108.896 Y-41.676
X-108.514 Y-41.469
X-108.183 Y-41.264
X-107.901 Y-41.065
X-107.667 Y-40.874
X-107.48 Y-40.696
X-107.338 Y-40.533
X-107.234 Y-40.389
X-107.164 Y-40.267
X-107.123 Y-40.169
X-107.101 Y-40.094
X-107.092 Y-40.028
Y-39.968
X-107.101 Y-39.906
X-107.124 Y-39.827
X-107.166 Y-39.729
X-107.234 Y-39.609
X-107.339 Y-39.465
X-107.481 Y-39.304
X-107.666 Y-39.127
X-107.897 Y-38.938
X-108.173 Y-38.742
X-108.498 Y-38.54
X-108.87 Y-38.337
X-109.293 Y-38.134
X-109.764 Y-37.933
X-110.288 Y-37.738
X-110.865 Y-37.549
X-111.494 Y-37.369
X-112.181 Y-37.2
X-112.924 Y-37.045
X-113.728 Y-36.907
X-114.593 Y-36.788
X-115.518 Y-36.693
X-116.5 Y-36.626
X-117.525 Y-36.592
X-117.979
S5000
X-118.573 Y-36.593 Z-0.921 F333.3
X-119.616 Y-36.632 Z-0.957
X-120.623 Y-36.705 Z-0.992
X-121.576 Y-36.809 Z-1.026
X-122.464 Y-36.937 Z-1.057
X-123.283 Y-37.086 Z-1.086
X-124.038 Y-37.251 Z-1.113
X-124.728 Y-37.429 Z-1.138
X-125.357 Y-37.618 Z-1.161
X-125.927 Y-37.815 Z-1.182
X-126.441 Y-38.018 Z-1.201
X-126.901 Y-38.224 Z-1.219
X-127.308 Y-38.431 Z-1.235
X-127.664 Y-38.637 Z-1.249
X-127.969 Y-38.84 Z-1.262
X-128.226 Y-39.035 Z-1.273
X-128.435 Y-39.22 Z-1.283
X-128.6 Y-39.392 Z-1.292
X-128.721 Y-39.544 Z-1.298
X-128.806 Y-39.676 Z-1.304
X-128.86 Y-39.785 Z-1.308
X-128.891 Y-39.873 Z-1.311
X-128.905 Y-39.944 Z-1.314
X-128.909 Y-39.996 Z-1.316
X-128.904 Y-40.061 Z-1.318
X-128.889 Y-40.132 Z-1.32
X-128.86 Y-40.216 Z-1.324
X-128.805 Y-40.326 Z-1.328
X-128.719 Y-40.458 Z-1.333
X-128.597 Y-40.611 Z-1.34
X-128.434 Y-40.78 Z-1.348
X-128.228 Y-40.963 Z-1.358
X-127.976 Y-41.156 Z-1.369
X-127.676 Y-41.355 Z-1.382
X-127.328 Y-41.558 Z-1.396
X-126.931 Y-41.762 Z-1.411
X-126.486 Y-41.964 Z-1.428
X-125.989 Y-42.162 Z-1.447
X-125.44 Y-42.355 Z-1.467
X-124.838 Y-42.539 Z-1.489
X-124.181 Y-42.714 Z-1.513
X-123.468 Y-42.877 Z-1.539
X-123.149 Y-42.938 Z-1.55
S4000
X-122.695 Y-43.024 F1000
X-121.861 Y-43.154
X-120.967 Y-43.261
X-120.014 Y-43.343
X-119.009 Y-43.395
X-117.97 Y-43.412
X-116.92 Y-43.393
X-115.891 Y-43.337
X-114.909 Y-43.248
X-113.987 Y-43.132
X-113.131 Y-42.993
X-112.344 Y-42.836
X-111.621 Y-42.664
X-110.961 Y-42.481
X-110.36 Y-42.288
X-109.818 Y-42.088
X-109.33 Y-41.883
X-108.896 Y-41.676
X-108.514 Y-41.469
X-108.183 Y-41.264
X-107.901 Y-41.065
X-107.667 Y-40.874
X-107.48 Y-40.696
X-107.338 Y-40.533
X-107.234 Y-40.389
X-107.164 Y-40.267
X-107.123 Y-40.169
X-107.101 Y-40.094
X-107.092 Y-40.028
Y-39.968
X-107.101 Y-39.906
X-107.124 Y-39.827
X-107.166 Y-39.729
X-107.234 Y-39.609
X-107.339 Y-39.465
X-107.481 Y-39.304
X-107.666 Y-39.127
X-107.897 Y-38.938
X-108.173 Y-38.742
X-108.498 Y-38.54
X-108.87 Y-38.337
X-109.293 Y-38.134
X-109.764 Y-37.933
X-110.288 Y-37.738
X-110.865 Y-37.549
X-111.494 Y-37.369
X-112.181 Y-37.2
X-112.924 Y-37.045
X-113.728 Y-36.907
X-114.593 Y-36.788
X-115.518 Y-36.693
X-116.5 Y-36.626
X-117.525 Y-36.592
X-118.573 Y-36.593
X-119.616 Y-36.632
X-120.623 Y-36.705
X-121.576 Y-36.809
X-122.464 Y-36.937
X-123.283 Y-37.086
X-124.038 Y-37.251
X-124.728 Y-37.429
X-125.357 Y-37.618
X-125.927 Y-37.815
X-126.441 Y-38.018
X-126.901 Y-38.224
X-127.308 Y-38.431
X-127.664 Y-38.637
X-127.969 Y-38.84
X-128.226 Y-39.035
X-128.435 Y-39.22
X-128.6 Y-39.392
X-128.721 Y-39.544
X-128.806 Y-39.676
X-128.86 Y-39.785
X-128.891 Y-39.873
X-128.905 Y-39.944
X-128.909 Y-39.996
X-128.904 Y-40.061
X-128.889 Y-40.132
X-128.86 Y-40.216
X-128.805 Y-40.326
X-128.719 Y-40.458
X-128.597 Y-40.611
X-128.434 Y-40.78
X-128.228 Y-40.963
X-127.976 Y-41.156
X-127.676 Y-41.355
X-127.328 Y-41.558
X-126.931 Y-41.762
X-126.486 Y-41.964
X-125.989 Y-42.162
X-125.44 Y-42.355
X-124.838 Y-42.539
X-124.181 Y-42.714
X-123.468 Y-42.877
X-123.149 Y-42.938
S5000
X-122.695 Y-43.024 Z-1.566 F333.3
X-121.861 Y-43.154 Z-1.596
X-120.967 Y-43.261 Z-1.627
X-120.014 Y-43.343 Z-1.66
X-119.009 Y-43.395 Z-1.696
X-117.97 Y-43.412 Z-1.732
X-116.92 Y-43.393 Z-1.769
X-115.891 Y-43.337 Z-1.805
X-114.909 Y-43.248 Z-1.839
X-113.987 Y-43.132 Z-1.871
X-113.131 Y-42.993 Z-1.902
X-112.344 Y-42.836 Z-1.93
X-111.621 Y-42.664 Z-1.956
X-110.961 Y-42.481 Z-1.98
X-110.36 Y-42.288 Z-2.002
X-109.818 Y-42.088 Z-2.022
X-109.33 Y-41.883 Z-2.04
X-108.896 Y-41.676 Z-2.057
X-108.514 Y-41.469 Z-2.072
X-108.183 Y-41.264 Z-2.086
X-107.901 Y-41.065 Z-2.098
X-107.667 Y-40.874 Z-2.108
X-107.48 Y-40.696 Z-2.117
X-107.338 Y-40.533 Z-2.125
X-107.234 Y-40.389 Z-2.131
X-107.164 Y-40.267 Z-2.136
X-107.123 Y-40.169 Z-2.14
X-107.101 Y-40.094 Z-2.143
X-107.092 Y-40.028 Z-2.145
Y-39.968 Z-2.147
X-107.101 Y-39.906 Z-2.149
X-107.124 Y-39.827 Z-2.152
X-107.166 Y-39.729 Z-2.156
X-107.234 Y-39.609 Z-2.161
X-107.339 Y-39.465 Z-2.167
X-107.481 Y-39.304 Z-2.174
X-107.666 Y-39.127 Z-2.183
X-107.897 Y-38.938 Z-2.194
X-108.044 Y-38.833 Z-2.2
S4000
X-108.173 Y-38.742 F1000
X-108.498 Y-38.54
X-108.87 Y-38.337
X-109.293 Y-38.134
X-109.764 Y-37.933
X-110.288 Y-37.738
X-110.865 Y-37.549
X-111.494 Y-37.369
X-112.181 Y-37.2
X-112.924 Y-37.045
X-113.728 Y-36.907
X-114.593 Y-36.788
X-115.518 Y-36.693
X-116.5 Y-36.626
X-117.525 Y-36.592
X-118.573 Y-36.593
X-119.616 Y-36.632
X-120.623 Y-36.705
X-121.576 Y-36.809
X-122.464 Y-36.937
X-123.283 Y-37.086
X-124.038 Y-37.251
X-124.728 Y-37.429
X-125.357 Y-37.618
X-125.927 Y-37.815
X-126.441 Y-38.018
X-126.901 Y-38.224
X-127.308 Y-38.431
X-127.664 Y-38.637
X-127.969 Y-38.84
X-128.226 Y-39.035
X-128.435 Y-39.22
X-128.6 Y-39.392
X-128.721 Y-39.544
X-128.806 Y-39.676
X-128.86 Y-39.785
X-128.891 Y-39.873
X-128.905 Y-39.944
X-128.909 Y-39.996
X-128.904 Y-40.061
X-128.889 Y-40.132
X-128.86 Y-40.216
X-128.805 Y-40.326
X-128.719 Y-40.458
X-128.597 Y-40.611
X-128.434 Y-40.78
X-128.228 Y-40.963
X-127.976 Y-41.156
X-127.676 Y-41.355
X-127.328 Y-41.558
X-126.931 Y-41.762
X-126.486 Y-41.964
X-125.989 Y-42.162
X-125.44 Y-42.355
X-124.838 Y-42.539
X-124.181 Y-42.714
X-123.468 Y-42.877
X-122.695 Y-43.024
X-121.861 Y-43.154
X-120.967 Y-43.261
X-120.014 Y-43.343
X-119.009 Y-43.395
X-117.97 Y-43.412
X-116.92 Y-43.393
X-115.891 Y-43.337
X-114.909 Y-43.248
X-113.987 Y-43.132
X-113.131 Y-42.993
X-112.344 Y-42.836
X-111.621 Y-42.664
X-110.961 Y-42.481
X-110.36 Y-42.288
X-109.818 Y-42.088
X-109.33 Y-41.883
X-108.896 Y-41.676
X-108.514 Y-41.469
X-108.183 Y-41.264
X-107.901 Y-41.065
X-107.667 Y-40.874
X-107.48 Y-40.696
X-107.338 Y-40.533
X-107.234 Y-40.389
X-107.164 Y-40.267
X-107.123 Y-40.169
X-107.101 Y-40.094
X-107.092 Y-40.028
Y-39.968
X-107.101 Y-39.906
X-107.124 Y-39.827
X-107.166 Y-39.729
X-107.234 Y-39.609
X-107.339 Y-39.465
X-107.481 Y-39.304
X-107.666 Y-39.127
X-107.897 Y-38.938
X-108.044 Y-38.833
G0 Z10
X-99.307 Y-26.246
Z5.2
G1 Z2.7 F333.3
S5000
G3 X-101.569 Y-28.683 Z2.518 I-1.131 J-1.218
X-99.307 Y-26.246 Z2.335 I1.131 J1.218
X-101.569 Y-28.683 Z2.153 I-1.131 J-1.218
X-99.307 Y-26.246 Z1.97 I1.131 J1.218
X-101.569 Y-28.683 Z1.788 I-1.131 J-1.218
X-99.307 Y-26.246 Z1.606 I1.131 J1.218
X-101.569 Y-28.683 Z1.423 I-1.131 J-1.218
X-99.307 Y-26.246 Z1.241 I1.131 J1.218
X-101.569 Y-28.683 Z1.059 I-1.131 J-1.218
X-99.307 Y-26.246 Z0.876 I1.131 J1.218
X-101.569 Y-28.683 Z0.694 I-1.131 J-1.218
X-99.307 Y-26.246 Z0.511 I1.131 J1.218
X-101.569 Y-28.683 Z0.329 I-1.131 J-1.218
X-99.307 Y-26.246 Z0.147 I1.131 J1.218
X-101.569 Y-28.683 Z-0.036 I-1.131 J-1.218
X-99.307 Y-26.246 Z-0.218 I1.131 J1.218
X-101.569 Y-28.683 Z-0.401 I-1.131 J-1.218
X-99.307 Y-26.246 Z-0.583 I1.131 J1.218
X-101.569 Y-28.683 Z-0.765 I-1.131 J-1.218
X-98.775 Y-27.464 Z-0.9 I1.131 J1.218
S4000
X-102.101 Y-27.464 I-1.663 J0 F1000
X-98.775 Y-27.464 I1.663 J0
S5000
X-102.101 Y-27.464 Z-1.082 I-1.663 J0 F333.3
X-98.776 Y-27.464 Z-1.265 I1.663 J0
X-102.101 Y-27.464 Z-1.447 I-1.663 J0
X-100.107 Y-29.093 Z-1.55 I1.663 J0
S4000
X-100.769 Y-25.835 I-0.331 J1.629 F1000
X-100.107 Y-29.093 I0.331 J-1.629
S5000
X-100.769 Y-25.835 Z-1.732 I-0.331 J1.629 F333.3
X-100.107 Y-29.093 Z-1.915 I0.331 J-1.629
X-100.769 Y-25.835 Z-2.097 I-0.331 J1.629
X-101.969 Y-28.113 Z-2.2 I0.331 J-1.629
S4000
X-98.907 Y-26.815 I1.531 J0.649 F1000
X-101.969 Y-28.113 I-1.531 J-0.649
G0 Z10
X-96.278 Y-53.601
Z5.2
G1 Z2.7 F333.3
S5000
G3 X-95.999 Y-53.999 Z2.683 I1.278 J0.601
G1 X-83.999 Y-65.999 Z2.09
G3 X-82.001 Y-64.001 Z1.935 I0.999 J0.999
G1 X-94.001 Y-52.001 Z1.343
G3 X-95.999 Y-53.999 Z1.188 I-0.999 J-0.999
G1 X-83.999 Y-65.999 Z0.595
G3 X-82.001 Y-64.001 Z0.44 I0.999 J0.999
G1 X-94.001 Y-52.001 Z-0.152
G3 X-95.999 Y-53.999 Z-0.307 I-0.999 J-0.999
G1 X-83.999 Y-65.999 Z-0.9
S4000
G3 X-82.001 Y-64.001 I0.999 J0.999 F1000
G1 X-94.001 Y-52.001
G3 X-95.999 Y-53.999 I-0.999 J-0.999
G1 X-83.999 Y-65.999
S5000
G3 X-82.001 Y-64.001 Z-1.055 I0.999 J0.999 F333.3
G1 X-92.025 Y-53.977 Z-1.55
S4000
X-94.001 Y-52.001 F1000
G3 X-95.999 Y-53.999 I-0.999 J-0.999
G1 X-83.999 Y-65.999
G3 X-82.001 Y-64.001 I0.999 J0.999
G1 X-92.025 Y-53.977
S5000
X-94.001 Y-52.001 Z-1.648 F333.3
G3 X-95.999 Y-53.999 Z-1.803 I-0.999 J-0.999
G1 X-87.951 Y-62.047 Z-2.2
S4000
X-83.999 Y-65.999 F1000
G3 X-82.001 Y-64.001 I0.999 J0.999
G1 X-92.025 Y-53.977
X-94.001 Y-52.001
G3 X-95.999 Y-53.999 I-0.999 J-0.999
G1 X-87.951 Y-62.047
G0 Z10
X-108.208 Y-56.789
Z5.2
G1 Z2.7 F333.3
S5000
X-98.999 Y-65.999 Z2.245
G3 X-97.001 Y-64.001 Z2.09 I0.999 J0.999
G1 X-109.001 Y-52.001 Z1.498
G3 X-110.999 Y-53.999 Z1.343 I-0.999 J-0.999
G1 X-98.999 Y-65.999 Z0.75
G3 X-97.001 Y-64.001 Z0.595 I0.999 J0.999
G1 X-109.001 Y-52.001 Z0.002
G3 X-110.999 Y-53.999 Z-0.152 I-0.999 J-0.999
G1 X-98.999 Y-65.999 Z-0.745
G3 X-97.001 Y-64.001 Z-0.9 I0.999 J0.999
S4000
G1 X-109.001 Y-52.001 F1000
G3 X-110.999 Y-53.999 I-0.999 J-0.999
G1 X-98.999 Y-65.999
G3 X-97.001 Y-64.001 I0.999 J0.999
S5000
G1 X-109.001 Y-52.001 Z-1.493 F333.3
G3 X-110.521 Y-51.687 Z-1.55 I-0.999 J-0.999
S4000
X-110.999 Y-53.999 I0.521 J-1.313 F1000
G1 X-98.999 Y-65.999
G3 X-97.001 Y-64.001 I0.999 J0.999
G1 X-109.001 Y-52.001
G3 X-110.521 Y-51.687 I-0.999 J-0.999
S5000
X-110.999 Y-53.999 Z-1.648 I0.521 J-1.313 F333.3
G1 X-99.812 Y-65.185 Z-2.2
S4000
X-98.999 Y-65.999 F1000
G3 X-97.001 Y-64.001 I0.999 J0.999
G1 X-109.001 Y-52.001
G3 X-110.999 Y-53.999 I-0.999 J-0.999
G1 X-99.812 Y-65.185
G0 Z10
X-106.211 Y-85.208
Z5.2
G1 Z2.7 F333.3
S5000
X-97.001 Y-75.999 Z2.245
G3 X-98.999 Y-74.001 Z2.09 I-0.999 J0.999
G1 X-110.998 Y-86.001 Z1.498
G3 X-110.999 Y-87.998 Z1.42 I0.998 J-0.999
X-109.001 Y-87.999 Z1.343 I0.999 J0.998
G1 X-97.001 Y-75.999 Z0.75
G3 X-98.999 Y-74.001 Z0.595 I-0.999 J0.999
G1 X-110.998 Y-86.001 Z0.003
G3 X-110.999 Y-87.998 Z-0.075 I0.998 J-0.999
X-109.001 Y-87.999 Z-0.152 I0.999 J0.998
G1 X-97.001 Y-75.999 Z-0.745
G3 X-98.999 Y-74.001 Z-0.9 I-0.999 J0.999
S4000
G1 X-110.998 Y-86.001 F1000
G3 X-110.999 Y-87.998 I0.998 J-0.999
X-109.001 Y-87.999 I0.999 J0.998
G1 X-97.001 Y-75.999
G3 X-98.999 Y-74.001 I-0.999 J0.999
S5000
G1 X-110.998 Y-86.001 Z-1.493 F333.3
G3 X-111.313 Y-87.521 Z-1.55 I0.998 J-0.999
S4000
X-109.001 Y-87.999 I1.313 J0.521 F1000
G1 X-97.001 Y-75.999
G3 X-98.999 Y-74.001 I-0.999 J0.999
G1 X-110.998 Y-86.001
G3 X-111.313 Y-87.521 I0.998 J-0.999
S5000
X-109.001 Y-87.999 Z-1.648 I1.313 J0.521 F333.3
G1 X-97.815 Y-76.812 Z-2.2
S4000
X-97.001 Y-75.999 F1000
G3 X-98.999 Y-74.001 I-0.999 J0.999
G1 X-110.998 Y-86.001
G3 X-110.999 Y-87.998 I0.998 J-0.999
X-109.001 Y-87.999 I0.999 J0.998
G1 X-97.815 Y-76.812
G0 Z10
X-94.399 Y-88.278
Z5.2
G1 Z2.7 F333.3
S5000
G3 X-94.001 Y-87.999 Z2.683 I-0.601 J1.278
G1 X-82.001 Y-75.999 Z2.09
G3 X-83.999 Y-74.001 Z1.935 I-0.999 J0.999
G1 X-95.999 Y-86.001 Z1.343
G3 X-94.001 Y-87.999 Z1.188 I0.999 J-0.999
G1 X-82.001 Y-75.999 Z0.595
G3 X-83.999 Y-74.001 Z0.44 I-0.999 J0.999
G1 X-95.999 Y-86.001 Z-0.152
G3 X-94.001 Y-87.999 Z-0.307 I0.999 J-0.999
G1 X-82.001 Y-75.999 Z-0.9
S4000
G3 X-83.999 Y-74.001 I-0.999 J0.999 F1000
G1 X-95.999 Y-86.001
G3 X-94.001 Y-87.999 I0.999 J-0.999
G1 X-82.001 Y-75.999
S5000
G3 X-83.999 Y-74.001 Z-1.055 I-0.999 J0.999 F333.3
G1 X-94.023 Y-84.025 Z-1.55
S4000
X-95.999 Y-86.001 F1000
G3 X-94.001 Y-87.999 I0.999 J-0.999
G1 X-82.001 Y-75.999
G3 X-83.999 Y-74.001 I-0.999 J0.999
G1 X-94.023 Y-84.025
S5000
X-95.999 Y-86.001 Z-1.648 F333.3
G3 X-94.001 Y-87.999 Z-1.803 I0.999 J-0.999
G1 X-85.953 Y-79.951 Z-2.2
S4000
X-82.001 Y-75.999 F1000
G3 X-83.999 Y-74.001 I-0.999 J0.999
G1 X-94.023 Y-84.025
X-95.999 Y-86.001
G3 X-94.001 Y-87.999 I0.999 J-0.999
G1 X-85.953 Y-79.951
G0 Z10
X-68.601 Y-73.722
Z5.2
G1 Z2.7 F333.3
S5000
G3 X-68.999 Y-74.001 Z2.683 I0.601 J-1.278
G1 X-80.999 Y-86.001 Z2.09
G3 X-79.001 Y-87.999 Z1.935 I0.999 J-0.999
G1 X-67.001 Y-75.999 Z1.343
G3 X-68.999 Y-74.001 Z1.188 I-0.999 J0.999
G1 X-80.999 Y-86.001 Z0.595
G3 X-79.001 Y-87.999 Z0.44 I0.999 J-0.999
G1 X-67.001 Y-75.999 Z-0.152
G3 X-68.999 Y-74.001 Z-0.307 I-0.999 J0.999
G1 X-80.999 Y-86.001 Z-0.9
S4000
G3 X-79.001 Y-87.999 I0.999 J-0.999 F1000
G1 X-67.001 Y-75.999
G3 X-68.999 Y-74.001 I-0.999 J0.999
G1 X-80.999 Y-86.001
S5000
G3 X-79.001 Y-87.999 Z-1.055 I0.999 J-0.999 F333.3
G1 X-68.977 Y-77.975 Z-1.55
S4000
X-67.001 Y-75.999 F1000
G3 X-68.999 Y-74.001 I-0.999 J0.999
G1 X-80.999 Y-86.001
G3 X-79.001 Y-87.999 I0.999 J-0.999
G1 X-68.977 Y-77.975
S5000
X-67.001 Y-75.999 Z-1.648 F333.3
G3 X-68.999 Y-74.001 Z-1.803 I-0.999 J0.999
G1 X-77.047 Y-82.049 Z-2.2
S4000
X-80.999 Y-86.001 F1000
G3 X-79.001 Y-87.999 I0.999 J-0.999
G1 X-68.977 Y-77.975
X-67.001 Y-75.999
G3 X-68.999 Y-74.001 I-0.999 J0.999
G1 X-77.047 Y-82.049
G0 Z10
X-60.387 Y-59.648
Z5.2
G1 Z2.7 F333.3
S5000
G3 X-60.412 Y-60 Z2.688 I2.387 J-0.352
G1 Y-80 Z1.989
G3 X-55.588 Y-80 Z1.725 I2.412 J0
G1 Y-60 Z1.026
G3 X-60.412 Y-60 Z0.761 I-2.412 J0
G1 Y-80 Z0.063
G3 X-55.588 Y-80 Z-0.202 I2.412 J0
G1 Y-60 Z-0.9
S4000
G3 X-60.412 Y-60 I-2.412 J0 F1000
G1 Y-80
G3 X-55.588 Y-80 I2.412 J0
G1 Y-60
S5000
G3 X-60.412 Y-60 Z-1.165 I-2.412 J0 F333.3
G1 Y-71.034 Z-1.55
S4000
Y-80 F1000
G3 X-55.588 Y-80 I2.412 J0
G1 Y-60
G3 X-60.412 Y-60 I-2.412 J0
G1 Y-71.034
S5000
Y-80 Z-1.863 F333.3
G3 X-55.588 Y-80 Z-2.128 I2.412 J0
G1 Y-77.931 Z-2.2
S4000
Y-60 F1000
G3 X-60.412 Y-60 I-2.412 J0
G1 Y-71.034
Y-80
G3 X-55.588 Y-80 I2.412 J0
G1 Y-77.931
G0 Z10
X-49.399 Y-88.278
Z5.2
G1 Z2.7 F333.3
S5000
G3 X-49.001 Y-87.999 Z2.683 I-0.601 J1.278
G1 X-37.001 Y-75.999 Z2.09
G3 X-38.999 Y-74.001 Z1.935 I-0.999 J0.999
G1 X-50.999 Y-86.001 Z1.343
G3 X-49.001 Y-87.999 Z1.188 I0.999 J-0.999
G1 X-37.001 Y-75.999 Z0.595
G3 X-38.999 Y-74.001 Z0.44 I-0.999 J0.999
G1 X-50.999 Y-86.001 Z-0.152
G3 X-49.001 Y-87.999 Z-0.307 I0.999 J-0.999
G1 X-37.001 Y-75.999 Z-0.9
S4000
G3 X-38.999 Y-74.001 I-0.999 J0.999 F1000
G1 X-50.999 Y-86.001
G3 X-49.001 Y-87.999 I0.999 J-0.999
G1 X-37.001 Y-75.999
S5000
G3 X-38.999 Y-74.001 Z-1.055 I-0.999 J0.999 F333.3
G1 X-49.023 Y-84.025 Z-1.55
S4000
X-50.999 Y-86.001 F1000
G3 X-49.001 Y-87.999 I0.999 J-0.999
G1 X-37.001 Y-75.999
G3 X-38.999 Y-74.001 I-0.999 J0.999
G1 X-49.023 Y-84.025
S5000
X-50.999 Y-86.001 Z-1.648 F333.3
G3 X-49.001 Y-87.999 Z-1.803 I0.999 J-0.999
G1 X-40.953 Y-79.951 Z-2.2
S4000
X-37.001 Y-75.999 F1000
G3 X-38.999 Y-74.001 I-0.999 J0.999
G1 X-49.023 Y-84.025
X-50.999 Y-86.001
G3 X-49.001 Y-87.999 I0.999 J-0.999
G1 X-40.953 Y-79.951
G0 Z10
X-23.601 Y-73.722
Z5.2
G1 Z2.7 F333.3
S5000
G3 X-23.999 Y-74.001 Z2.683 I0.601 J-1.278
G1 X-35.999 Y-86.001 Z2.09
G3 X-34.001 Y-87.999 Z1.935 I0.999 J-0.999
G1 X-22.001 Y-75.999 Z1.343
G3 X-23.999 Y-74.001 Z1.188 I-0.999 J0.999
G1 X-35.999 Y-86.001 Z0.595
G3 X-34.001 Y-87.999 Z0.44 I0.999 J-0.999
G1 X-22.001 Y-75.999 Z-0.152
G3 X-23.999 Y-74.001 Z-0.307 I-0.999 J0.999
G1 X-35.999 Y-86.001 Z-0.9
S4000
G3 X-34.001 Y-87.999 I0.999 J-0.999 F1000
G1 X-22.001 Y-75.999
G3 X-23.999 Y-74.001 I-0.999 J0.999
G1 X-35.999 Y-86.001
S5000
G3 X-34.001 Y-87.999 Z-1.055 I0.999 J-0.999 F333.3
G1 X-23.977 Y-77.975 Z-1.55
S4000
X-22.001 Y-75.999 F1000
G3 X-23.999 Y-74.001 I-0.999 J0.999
G1 X-35.999 Y-86.001
G3 X-34.001 Y-87.999 I0.999 J-0.999
G1 X-23.977 Y-77.975
S5000
X-22.001 Y-75.999 Z-1.648 F333.3
G3 X-23.999 Y-74.001 Z-1.803 I-0.999 J0.999
G1 X-32.047 Y-82.049 Z-2.2
S4000
X-35.999 Y-86.001 F1000
G3 X-34.001 Y-87.999 I0.999 J-0.999
G1 X-23.977 Y-77.975
X-22.001 Y-75.999
G3 X-23.999 Y-74.001 I-0.999 J0.999
G1 X-32.047 Y-82.049
G0 Z10
X-51.278 Y-53.601
Z5.2
G1 Z2.7 F333.3
S5000
G3 X-50.999 Y-53.999 Z2.683 I1.278 J0.601
G1 X-38.999 Y-65.999 Z2.09
G3 X-37.001 Y-64.001 Z1.935 I0.999 J0.999
G1 X-49.001 Y-52.001 Z1.343
G3 X-50.999 Y-53.999 Z1.188 I-0.999 J-0.999
G1 X-38.999 Y-65.999 Z0.595
G3 X-37.001 Y-64.001 Z0.44 I0.999 J0.999
G1 X-49.001 Y-52.001 Z-0.152
G3 X-50.999 Y-53.999 Z-0.307 I-0.999 J-0.999
G1 X-38.999 Y-65.999 Z-0.9
S4000
G3 X-37.001 Y-64.001 I0.999 J0.999 F1000
G1 X-49.001 Y-52.001
G3 X-50.999 Y-53.999 I-0.999 J-0.999
G1 X-38.999 Y-65.999
S5000
G3 X-37.001 Y-64.001 Z-1.055 I0.999 J0.999 F333.3
G1 X-47.025 Y-53.977 Z-1.55
S4000
X-49.001 Y-52.001 F1000
G3 X-50.999 Y-53.999 I-0.999 J-0.999
G1 X-38.999 Y-65.999
G3 X-37.001 Y-64.001 I0.999 J0.999
G1 X-47.025 Y-53.977
S5000
X-49.001 Y-52.001 Z-1.648 F333.3
G3 X-50.999 Y-53.999 Z-1.803 I-0.999 J-0.999
G1 X-42.951 Y-62.047 Z-2.2
S4000
X-38.999 Y-65.999 F1000
G3 X-37.001 Y-64.001 I0.999 J0.999
G1 X-47.025 Y-53.977
X-49.001 Y-52.001
G3 X-50.999 Y-53.999 I-0.999 J-0.999
G1 X-42.951 Y-62.047
G0 Z10
X-33.206 Y-56.791
Z5.2
G1 Z2.7 F333.3
S5000
X-23.999 Y-65.999 Z2.245
G3 X-22.001 Y-64.001 Z2.09 I0.999 J0.999
G1 X-34.001 Y-52.001 Z1.498
G3 X-35.999 Y-53.999 Z1.343 I-0.999 J-0.999
G1 X-23.999 Y-65.999 Z0.75
G3 X-22.001 Y-64.001 Z0.595 I0.999 J0.999
G1 X-34.001 Y-52.001 Z0.003
G3 X-35.999 Y-53.999 Z-0.152 I-0.999 J-0.999
G1 X-23.999 Y-65.999 Z-0.745
G3 X-22.001 Y-64.001 Z-0.9 I0.999 J0.999
S4000
G1 X-34.001 Y-52.001 F1000
G3 X-35.999 Y-53.999 I-0.999 J-0.999
G1 X-23.999 Y-65.999
G3 X-22.001 Y-64.001 I0.999 J0.999
S5000
G1 X-34.001 Y-52.001 Z-1.493 F333.3
G3 X-35.521 Y-51.687 Z-1.55 I-0.999 J-0.999
S4000
X-35.999 Y-53.999 I0.521 J-1.313 F1000
G1 X-23.999 Y-65.999
G3 X-22.001 Y-64.001 I0.999 J0.999
G1 X-34.001 Y-52.001
G3 X-35.521 Y-51.687 I-0.999 J-0.999
S5000
X-35.999 Y-53.999 Z-1.648 I0.521 J-1.313 F333.3
G1 X-24.813 Y-65.185 Z-2.2
S4000
X-23.999 Y-65.999 F1000
G3 X-22.001 Y-64.001 I0.999 J0.999
G1 X-34.001 Y-52.001
G3 X-35.999 Y-53.999 I-0.999 J-0.999
G1 X-24.813 Y-65.185
G0 Z10
X-69.794 Y-61.209
Z5.2
G1 Z2.7 F333.3
S5000
X-79.001 Y-52.001 Z2.245
G3 X-80.999 Y-53.999 Z2.09 I-0.999 J-0.999
G1 X-68.999 Y-65.999 Z1.498
G3 X-67.001 Y-64.001 Z1.343 I0.999 J0.999
G1 X-79.001 Y-52.001 Z0.75
G3 X-80.999 Y-53.999 Z0.595 I-0.999 J-0.999
G1 X-68.999 Y-65.999 Z0.003
G3 X-67.001 Y-64.001 Z-0.152 I0.999 J0.999
G1 X-79.001 Y-52.001 Z-0.745
G3 X-80.999 Y-53.999 Z-0.9 I-0.999 J-0.999
S4000
G1 X-68.999 Y-65.999 F1000
G3 X-67.001 Y-64.001 I0.999 J0.999
G1 X-79.001 Y-52.001
G3 X-80.999 Y-53.999 I-0.999 J-0.999
S5000
G1 X-68.999 Y-65.999 Z-1.493 F333.3
G3 X-67.479 Y-66.313 Z-1.55 I0.999 J0.999
S4000
X-67.001 Y-64.001 I-0.521 J1.313 F1000
G1 X-79.001 Y-52.001
G3 X-80.999 Y-53.999 I-0.999 J-0.999
G1 X-68.999 Y-65.999
G3 X-67.479 Y-66.313 I0.999 J0.999
S5000
X-67.001 Y-64.001 Z-1.648 I-0.521 J1.313 F333.3
G1 X-78.187 Y-52.815 Z-2.2
S4000
X-79.001 Y-52.001 F1000
G3 X-80.999 Y-53.999 I-0.999 J-0.999
G1 X-68.999 Y-65.999
G3 X-67.001 Y-64.001 I0.999 J0.999
G1 X-78.187 Y-52.815
G0 Z10
X-126.279 Y-53.599
Z5.2
G1 Z2.7 F333.3
S5000
G3 X-125.999 Y-53.999 Z2.683 I1.279 J0.599
G1 X-113.999 Y-65.999 Z2.09
G3 X-112.001 Y-64.001 Z1.935 I0.999 J0.999
G1 X-124.001 Y-52.001 Z1.343
G3 X-125.999 Y-53.999 Z1.188 I-0.999 J-0.999
G1 X-113.999 Y-65.999 Z0.595
G3 X-112.001 Y-64.001 Z0.44 I0.999 J0.999
G1 X-124.001 Y-52.001 Z-0.152
G3 X-125.999 Y-53.999 Z-0.307 I-0.999 J-0.999
G1 X-113.999 Y-65.999 Z-0.9
S4000
G3 X-112.001 Y-64.001 I0.999 J0.999 F1000
G1 X-124.001 Y-52.001
G3 X-125.999 Y-53.999 I-0.999 J-0.999
G1 X-113.999 Y-65.999
S5000
G3 X-112.001 Y-64.001 Z-1.055 I0.999 J0.999 F333.3
G1 X-122.026 Y-53.977 Z-1.55
S4000
X-124.001 Y-52.001 F1000
G3 X-125.999 Y-53.999 I-0.999 J-0.999
G1 X-113.999 Y-65.999
G3 X-112.001 Y-64.001 I0.999 J0.999
G1 X-122.026 Y-53.977
S5000
X-124.001 Y-52.001 Z-1.648 F333.3
G3 X-125.999 Y-53.999 Z-1.802 I-0.999 J-0.999
G1 X-117.95 Y-62.048 Z-2.2
S4000
X-113.999 Y-65.999 F1000
G3 X-112.001 Y-64.001 I0.999 J0.999
G1 X-122.026 Y-53.977
X-124.001 Y-52.001
G3 X-125.999 Y-53.999 I-0.999 J-0.999
G1 X-117.95 Y-62.048
G0 Z10
X-116.789 Y-76.792
Z5.2
G1 Z2.7 F333.3
S5000
X-125.998 Y-86.001 Z2.245
G3 X-125.999 Y-87.998 Z2.168 I0.998 J-0.999
X-124.001 Y-87.999 Z2.09 I0.999 J0.998
G1 X-112.002 Y-75.999 Z1.498
G3 X-112.001 Y-74.002 Z1.42 I-0.998 J0.999
X-113.999 Y-74.001 Z1.343 I-0.999 J-0.998
G1 X-125.998 Y-86.001 Z0.75
G3 X-125.999 Y-87.998 Z0.673 I0.998 J-0.999
X-124.001 Y-87.999 Z0.595 I0.999 J0.998
G1 X-112.002 Y-75.999 Z0.003
G3 X-112.001 Y-74.002 Z-0.075 I-0.998 J0.999
X-113.999 Y-74.001 Z-0.152 I-0.999 J-0.998
G1 X-125.998 Y-86.001 Z-0.745
G3 X-125.999 Y-87.998 Z-0.823 I0.998 J-0.999
X-124.001 Y-87.999 Z-0.9 I0.999 J0.998
S4000
G1 X-112.002 Y-75.999 F1000
G3 X-112.001 Y-74.002 I-0.998 J0.999
X-113.999 Y-74.001 I-0.999 J-0.998
G1 X-125.998 Y-86.001
G3 X-125.999 Y-87.998 I0.998 J-0.999
X-124.001 Y-87.999 I0.999 J0.998
S5000
G1 X-112.002 Y-75.999 Z-1.493 F333.3
G3 X-111.687 Y-74.479 Z-1.55 I-0.998 J0.999
S4000
X-113.999 Y-74.001 I-1.313 J-0.521 F1000
G1 X-125.998 Y-86.001
G3 X-125.999 Y-87.998 I0.998 J-0.999
X-124.001 Y-87.999 I0.999 J0.998
G1 X-112.002 Y-75.999
G3 X-111.687 Y-74.479 I-0.998 J0.999
S5000
X-113.999 Y-74.001 Z-1.648 I-1.313 J-0.521 F333.3
G1 X-125.185 Y-85.188 Z-2.2
S4000
X-125.998 Y-86.001 F1000
G3 X-125.999 Y-87.998 I0.998 J-0.999
X-124.001 Y-87.999 I0.999 J0.998
G1 X-112.002 Y-75.999
G3 X-112.001 Y-74.002 I-0.998 J0.999
X-113.999 Y-74.001 I-0.999 J-0.998
G1 X-125.185 Y-85.188
G0 Z10
X-125.79 Y-102.232
Z5.2
G1 Z2.7 F333.3
S5000
X-125.44 Y-102.355 Z2.687
X-124.837 Y-102.54 Z2.665
X-124.181 Y-102.715 Z2.641
X-123.468 Y-102.877 Z2.616
X-122.696 Y-103.024 Z2.588
X-121.861 Y-103.153 Z2.559
X-120.967 Y-103.262 Z2.527
X-120.014 Y-103.343 Z2.494
X-119.009 Y-103.395 Z2.459
X-117.97 Y-103.412 Z2.423
X-116.92 Y-103.392 Z2.386
X-115.891 Y-103.336 Z2.35
X-114.909 Y-103.248 Z2.315
X-113.987 Y-103.132 Z2.283
X-113.132 Y-102.994 Z2.253
X-112.344 Y-102.836 Z2.225
X-111.62 Y-102.664 Z2.199
X-110.961 Y-102.481 Z2.175
X-110.361 Y-102.288 Z2.153
X-109.818 Y-102.088 Z2.133
X-109.33 Y-101.883 Z2.114
X-108.895 Y-101.676 Z2.097
X-108.514 Y-101.469 Z2.082
X-108.182 Y-101.264 Z2.069
X-107.902 Y-101.065 Z2.057
X-107.667 Y-100.873 Z2.046
X-107.48 Y-100.696 Z2.037
X-107.337 Y-100.533 Z2.029
X-107.234 Y-100.389 Z2.023
X-107.164 Y-100.267 Z2.018
X-107.123 Y-100.17 Z2.015
X-107.101 Y-100.094 Z2.012
X-107.092 Y-100.028 Z2.01
Y-99.968 Z2.007
X-107.101 Y-99.906 Z2.005
X-107.124 Y-99.827 Z2.002
X-107.166 Y-99.729 Z1.999
X-107.234 Y-99.609 Z1.994
X-107.339 Y-99.465 Z1.988
X-107.481 Y-99.304 Z1.98
X-107.666 Y-99.127 Z1.971
X-107.897 Y-98.938 Z1.961
X-108.173 Y-98.742 Z1.949
X-108.498 Y-98.54 Z1.936
X-108.87 Y-98.337 Z1.921
X-109.293 Y-98.134 Z1.904
X-109.764 Y-97.933 Z1.886
X-110.288 Y-97.738 Z1.867
X-110.865 Y-97.549 Z1.846
X-111.494 Y-97.369 Z1.823
X-112.181 Y-97.2 Z1.798
X-112.924 Y-97.045 Z1.772
X-113.728 Y-96.907 Z1.743
X-114.593 Y-96.788 Z1.713
X-115.518 Y-96.693 Z1.68
X-116.5 Y-96.626 Z1.646
X-117.525 Y-96.592 Z1.61
X-118.573 Y-96.593 Z1.573
X-119.616 Y-96.632 Z1.537
X-120.623 Y-96.705 Z1.502
X-121.576 Y-96.809 Z1.468
X-122.464 Y-96.937 Z1.437
X-123.283 Y-97.086 Z1.408
X-124.038 Y-97.251 Z1.381
X-124.728 Y-97.429 Z1.356
X-125.357 Y-97.618 Z1.333
X-125.927 Y-97.815 Z1.312
X-126.441 Y-98.018 Z1.293
X-126.901 Y-98.224 Z1.275
X-127.308 Y-98.431 Z1.259
X-127.664 Y-98.637 Z1.245
X-127.969 Y-98.84 Z1.232
X-128.226 Y-99.035 Z1.221
X-128.435 Y-99.22 Z1.211
X-128.6 Y-99.392 Z1.203
X-128.721 Y-99.544 Z1.196
X-128.806 Y-99.676 Z1.19
X-128.86 Y-99.785 Z1.186
X-128.891 Y-99.873 Z1.183
X-128.905 Y-99.944 Z1.18
X-128.909 Y-99.996 Z1.179
X-128.904 Y-100.061 Z1.176
X-128.889 Y-100.132 Z1.174
X-128.86 Y-100.216 Z1.171
X-128.805 Y-100.325 Z1.166
X-128.719 Y-100.458 Z1.161
X-128.597 Y-100.61 Z1.154
X-128.434 Y-100.781 Z1.146
X-128.227 Y-100.964 Z1.136
X-127.976 Y-101.156 Z1.125
X-127.676 Y-101.355 Z1.113
X-127.328 Y-101.558 Z1.098
X-126.931 Y-101.762 Z1.083
X-126.486 Y-101.964 Z1.066
X-125.989 Y-102.162 Z1.047
X-125.44 Y-102.355 Z1.027
X-124.837 Y-102.54 Z1.005
X-124.181 Y-102.715 Z0.981
X-123.468 Y-102.877 Z0.956
X-122.696 Y-103.024 Z0.928
X-121.861 Y-103.153 Z0.899
X-120.967 Y-103.262 Z0.867
X-120.014 Y-103.343 Z0.834
X-119.009 Y-103.395 Z0.799
X-117.97 Y-103.412 Z0.762
X-116.92 Y-103.392 Z0.726
X-115.891 Y-103.336 Z0.69
X-114.909 Y-103.248 Z0.655
X-113.987 Y-103.132 Z0.623
X-113.132 Y-102.994 Z0.593
X-112.344 Y-102.836 Z0.564
X-111.62 Y-102.664 Z0.538
X-110.961 Y-102.481 Z0.515
X-110.361 Y-102.288 Z0.493
X-109.818 Y-102.088 Z0.472
X-109.33 Y-101.883 Z0.454
X-108.895 Y-101.676 Z0.437
X-108.514 Y-101.469 Z0.422
X-108.182 Y-101.264 Z0.408
X-107.902 Y-101.065 Z0.396
X-107.667 Y-100.873 Z0.386
X-107.48 Y-100.696 Z0.377
X-107.337 Y-100.533 Z0.369
X-107.234 Y-100.389 Z0.363
X-107.164 Y-100.267 Z0.358
X-107.123 Y-100.17 Z0.354
X-107.101 Y-100.094 Z0.352
X-107.092 Y-100.028 Z0.349
Y-99.968 Z0.347
X-107.101 Y-99.906 Z0.345
X-107.124 Y-99.827 Z0.342
X-107.166 Y-99.729 Z0.338
X-107.234 Y-99.609 Z0.334
X-107.339 Y-99.465 Z0.327
X-107.481 Y-99.304 Z0.32
X-107.666 Y-99.127 Z0.311
X-107.897 Y-98.938 Z0.301
X-108.173 Y-98.742 Z0.289
X-108.498 Y-98.54 Z0.275
X-108.87 Y-98.337 Z0.261
X-109.293 Y-98.134 Z0.244
X-109.764 Y-97.933 Z0.226
X-110.288 Y-97.738 Z0.207
X-110.865 Y-97.549 Z0.186
X-111.494 Y-97.369 Z0.163
X-112.181 Y-97.2 Z0.138
X-112.924 Y-97.045 Z0.111
X-113.728 Y-96.907 Z0.083
X-114.593 Y-96.788 Z0.053
X-115.518 Y-96.693 Z0.02
X-116.5 Y-96.626 Z-0.014
X-117.525 Y-96.592 Z-0.05
X-118.573 Y-96.593 Z-0.087
X-119.616 Y-96.632 Z-0.123
X-120.623 Y-96.705 Z-0.158
X-121.576 Y-96.809 Z-0.192
X-122.464 Y-96.937 Z-0.223
X-123.283 Y-97.086 Z-0.252
X-124.038 Y-97.251 Z-0.279
X-124.728 Y-97.429 Z-0.304
X-125.357 Y-97.618 Z-0.327
X-125.927 Y-97.815 Z-0.348
X-126.441 Y-98.018 Z-0.367
X-126.901 Y-98.224 Z-0.385
X-127.308 Y-98.431 Z-0.401
X-127.664 Y-98.637 Z-0.415
X-127.969 Y-98.84 Z-0.428
X-128.226 Y-99.035 Z-0.439
X-128.435 Y-99.22 Z-0.449
X-128.6 Y-99.392 Z-0.458
X-128.721 Y-99.544 Z-0.464
X-128.806 Y-99.676 Z-0.47
X-128.86 Y-99.785 Z-0.474
X-128.891 Y-99.873 Z-0.477
X-128.905 Y-99.944 Z-0.48
X-128.909 Y-99.996 Z-0.482
X-128.904 Y-100.061 Z-0.484
X-128.889 Y-100.132 Z-0.486
X-128.86 Y-100.216 Z-0.49
X-128.805 Y-100.325 Z-0.494
X-128.719 Y-100.458 Z-0.499
X-128.597 Y-100.61 Z-0.506
X-128.434 Y-100.781 Z-0.514
X-128.227 Y-100.964 Z-0.524
X-127.976 Y-101.156 Z-0.535
X-127.676 Y-101.355 Z-0.548
X-127.328 Y-101.558 Z-0.562
X-126.931 Y-101.762 Z-0.577
X-126.486 Y-101.964 Z-0.594
X-125.989 Y-102.162 Z-0.613
X-125.44 Y-102.355 Z-0.633
X-124.837 Y-102.54 Z-0.655
X-124.181 Y-102.715 Z-0.679
X-123.468 Y-102.877 Z-0.705
X-122.696 Y-103.024 Z-0.732
X-121.861 Y-103.153 Z-0.762
X-120.967 Y-103.262 Z-0.793
X-120.014 Y-103.343 Z-0.826
X-119.009 Y-103.395 Z-0.862
X-117.97 Y-103.412 Z-0.898
X-117.91 Y-103.411 Z-0.9
S4000
X-116.92 Y-103.392 F1000
X-115.891 Y-103.336
X-114.909 Y-103.248
X-113.987 Y-103.132
X-113.132 Y-102.994
X-112.344 Y-102.836
X-111.62 Y-102.664
X-110.961 Y-102.481
X-110.361 Y-102.288
X-109.818 Y-102.088
X-109.33 Y-101.883
X-108.895 Y-101.676
X-108.514 Y-101.469
X-108.182 Y-101.264
X-107.902 Y-101.065
X-107.667 Y-100.873
X-107.48 Y-100.696
X-107.337 Y-100.533
X-107.234 Y-100.389
X-107.164 Y-100.267
X-107.123 Y-100.17
X-107.101 Y-100.094
X-107.092 Y-100.028
Y-99.968
X-107.101 Y-99.906
X-107.124 Y-99.827
X-107.166 Y-99.729
X-107.234 Y-99.609
X-107.339 Y-99.465
X-107.481 Y-99.304
X-107.666 Y-99.127
X-107.897 Y-98.938
X-108.173 Y-98.742
X-108.498 Y-98.54
X-108.87 Y-98.337
X-109.293 Y-98.134
X-109.764 Y-97.933
X-110.288 Y-97.738
X-110.865 Y-97.549
X-111.494 Y-97.369
X-112.181 Y-97.2
X-112.924 Y-97.045
X-113.728 Y-96.907
X-114.593 Y-96.788
X-115.518 Y-96.693
X-116.5 Y-96.626
X-117.525 Y-96.592
X-118.573 Y-96.593
X-119.616 Y-96.632
X-120.623 Y-96.705
X-121.576 Y-96.809
X-122.464 Y-96.937
X-123.283 Y-97.086
X-124.038 Y-97.251
X-124.728 Y-97.429
X-125.357 Y-97.618
X-125.927 Y-97.815
X-126.441 Y-98.018
X-126.901 Y-98.224
X-127.308 Y-98.431
X-127.664 Y-98.637
X-127.969 Y-98.84
X-128.226 Y-99.035
X-128.435 Y-99.22
X-128.6 Y-99.392
X-128.721 Y-99.544
X-128.806 Y-99.676
X-128.86 Y-99.785
X-128.891 Y-99.873
X-128.905 Y-99.944
X-128.909 Y-99.996
X-128.904 Y-100.061
X-128.889 Y-100.132
X-128.86 Y-100.216
X-128.805 Y-100.325
X-128.719 Y-100.458
X-128.597 Y-100.61
X-128.434 Y-100.781
X-128.227 Y-100.964
X-127.976 Y-101.156
X-127.676 Y-101.355
X-127.328 Y-101.558
X-126.931 Y-101.762
X-126.486 Y-101.964
X-125.989 Y-102.162
X-125.44 Y-102.355
X-124.837 Y-102.54
X-124.181 Y-102.715
X-123.468 Y-102.877
X-122.696 Y-103.024
X-121.861 Y-103.153
X-120.967 Y-103.262
X-120.014 Y-103.343
X-119.009 Y-103.395
X-117.97 Y-103.412
X-117.91 Y-103.411
S5000
X-116.92 Y-103.392 Z-0.935 F333.3
X-115.891 Y-103.336 Z-0.971
X-114.909 Y-103.248 Z-1.005
X-113.987 Y-103.132 Z-1.037
X-113.132 Y-102.994 Z-1.068
X-112.344 Y-102.836 Z-1.096
X-111.62 Y-102.664 Z-1.122
X-110.961 Y-102.481 Z-1.146
X-110.361 Y-102.288 Z-1.168
X-109.818 Y-102.088 Z-1.188
X-109.33 Y-101.883 Z-1.206
X-108.895 Y-101.676 Z-1.223
X-108.514 Y-101.469 Z-1.238
X-108.182 Y-101.264 Z-1.252
X-107.902 Y-101.065 Z-1.264
X-107.667 Y-100.873 Z-1.274
X-107.48 Y-100.696 Z-1.283
X-107.337 Y-100.533 Z-1.291
X-107.234 Y-100.389 Z-1.297
X-107.164 Y-100.267 Z-1.302
X-107.123 Y-100.17 Z-1.306
X-107.101 Y-100.094 Z-1.309
X-107.092 Y-100.028 Z-1.311
Y-99.968 Z-1.313
X-107.101 Y-99.906 Z-1.315
X-107.124 Y-99.827 Z-1.318
X-107.166 Y-99.729 Z-1.322
X-107.234 Y-99.609 Z-1.327
X-107.339 Y-99.465 Z-1.333
X-107.481 Y-99.304 Z-1.34
X-107.666 Y-99.127 Z-1.349
X-107.897 Y-98.938 Z-1.36
X-108.173 Y-98.742 Z-1.372
X-108.498 Y-98.54 Z-1.385
X-108.87 Y-98.337 Z-1.4
X-109.293 Y-98.134 Z-1.416
X-109.764 Y-97.933 Z-1.434
X-110.288 Y-97.738 Z-1.453
X-110.865 Y-97.549 Z-1.475
X-111.494 Y-97.369 Z-1.498
X-112.181 Y-97.2 Z-1.522
X-112.924 Y-97.045 Z-1.549
X-112.96 Y-97.039 Z-1.55
S4000
X-113.728 Y-96.907 F1000
X-114.593 Y-96.788
X-115.518 Y-96.693
X-116.5 Y-96.626
X-117.525 Y-96.592
X-118.573 Y-96.593
X-119.616 Y-96.632
X-120.623 Y-96.705
X-121.576 Y-96.809
X-122.464 Y-96.937
X-123.283 Y-97.086
X-124.038 Y-97.251
X-124.728 Y-97.429
X-125.357 Y-97.618
X-125.927 Y-97.815
X-126.441 Y-98.018
X-126.901 Y-98.224
X-127.308 Y-98.431
X-127.664 Y-98.637
X-127.969 Y-98.84
X-128.226 Y-99.035
X-128.435 Y-99.22
X-128.6 Y-99.392
X-128.721 Y-99.544
X-128.806 Y-99.676
X-128.86 Y-99.785
X-128.891 Y-99.873
X-128.905 Y-99.944
X-128.909 Y-99.996
X-128.904 Y-100.061
X-128.889 Y-100.132
X-128.86 Y-100.216
X-128.805 Y-100.325
X-128.719 Y-100.458
X-128.597 Y-100.61
X-128.434 Y-100.781
X-128.227 Y-100.964
X-127.976 Y-101.156
X-127.676 Y-101.355
X-127.328 Y-101.558
X-126.931 Y-101.762
X-126.486 Y-101.964
X-125.989 Y-102.162
X-125.44 Y-102.355
X-124.837 Y-102.54
X-124.181 Y-102.715
X-123.468 Y-102.877
X-122.696 Y-103.024
X-121.861 Y-103.153
X-120.967 Y-103.262
X-120.014 Y-103.343
X-119.009 Y-103.395
X-117.97 Y-103.412
X-116.92 Y-103.392
X-115.891 Y-103.336
X-114.909 Y-103.248
X-113.987 Y-103.132
X-113.132 Y-102.994
X-112.344 Y-102.836
X-111.62 Y-102.664
X-110.961 Y-102.481
X-110.361 Y-102.288
X-109.818 Y-102.088
X-109.33 Y-101.883
X-108.895 Y-101.676
X-108.514 Y-101.469
X-108.182 Y-101.264
X-107.902 Y-101.065
X-107.667 Y-100.873
X-107.48 Y-100.696
X-107.337 Y-100.533
X-107.234 Y-100.389
X-107.164 Y-100.267
X-107.123 Y-100.17
X-107.101 Y-100.094
X-107.092 Y-100.028
Y-99.968
X-107.101 Y-99.906
X-107.124 Y-99.827
X-107.166 Y-99.729
X-107.234 Y-99.609
X-107.339 Y-99.465
X-107.481 Y-99.304
X-107.666 Y-99.127
X-107.897 Y-98.938
X-108.173 Y-98.742
X-108.498 Y-98.54
X-108.87 Y-98.337
X-109.293 Y-98.134
X-109.764 Y-97.933
X-110.288 Y-97.738
X-110.865 Y-97.549
X-111.494 Y-97.369
X-112.181 Y-97.2
X-112.924 Y-97.045
X-112.96 Y-97.039
S5000
X-113.728 Y-96.907 Z-1.577 F333.3
X-114.593 Y-96.788 Z-1.608
X-115.518 Y-96.693 Z-1.64
X-116.5 Y-96.626 Z-1.675
X-117.525 Y-96.592 Z-1.71
X-118.573 Y-96.593 Z-1.747
X-119.616 Y-96.632 Z-1.783
X-120.623 Y-96.705 Z-1.819
X-121.576 Y-96.809 Z-1.852
X-122.464 Y-96.937 Z-1.883
X-123.283 Y-97.086 Z-1.913
X-124.038 Y-97.251 Z-1.94
X-124.728 Y-97.429 Z-1.964
X-125.357 Y-97.618 Z-1.987
X-125.927 Y-97.815 Z-2.008
X-126.441 Y-98.018 Z-2.028
X-126.901 Y-98.224 Z-2.045
X-127.308 Y-98.431 Z-2.061
X-127.664 Y-98.637 Z-2.076
X-127.969 Y-98.84 Z-2.088
X-128.226 Y-99.035 Z-2.1
X-128.435 Y-99.22 Z-2.109
X-128.6 Y-99.392 Z-2.118
X-128.721 Y-99.544 Z-2.125
X-128.806 Y-99.676 Z-2.13
X-128.86 Y-99.785 Z-2.134
X-128.891 Y-99.873 Z-2.138
X-128.905 Y-99.944 Z-2.14
X-128.909 Y-99.996 Z-2.142
X-128.904 Y-100.061 Z-2.144
X-128.889 Y-100.132 Z-2.147
X-128.86 Y-100.216 Z-2.15
X-128.805 Y-100.325 Z-2.154
X-128.719 Y-100.458 Z-2.16
X-128.597 Y-100.61 Z-2.166
X-128.434 Y-100.781 Z-2.175
X-128.227 Y-100.964 Z-2.184
X-127.976 Y-101.156 Z-2.195
X-127.864 Y-101.23 Z-2.2
S4000
X-127.676 Y-101.355 F1000
X-127.328 Y-101.558
X-126.931 Y-101.762
X-126.486 Y-101.964
X-125.989 Y-102.162
X-125.44 Y-102.355
X-124.837 Y-102.54
X-124.181 Y-102.715
X-123.468 Y-102.877
X-122.696 Y-103.024
X-121.861 Y-103.153
X-120.967 Y-103.262
X-120.014 Y-103.343
X-119.009 Y-103.395
X-117.97 Y-103.412
X-116.92 Y-103.392
X-115.891 Y-103.336
X-114.909 Y-103.248
X-113.987 Y-103.132
X-113.132 Y-102.994
X-112.344 Y-102.836
X-111.62 Y-102.664
X-110.961 Y-102.481
X-110.361 Y-102.288
X-109.818 Y-102.088
X-109.33 Y-101.883
X-108.895 Y-101.676
X-108.514 Y-101.469
X-108.182 Y-101.264
X-107.902 Y-101.065
X-107.667 Y-100.873
X-107.48 Y-100.696
X-107.337 Y-100.533
X-107.234 Y-100.389
X-107.164 Y-100.267
X-107.123 Y-100.17
X-107.101 Y-100.094
X-107.092 Y-100.028
Y-99.968
X-107.101 Y-99.906
X-107.124 Y-99.827
X-107.166 Y-99.729
X-107.234 Y-99.609
X-107.339 Y-99.465
X-107.481 Y-99.304
X-107.666 Y-99.127
X-107.897 Y-98.938
X-108.173 Y-98.742
X-108.498 Y-98.54
X-108.87 Y-98.337
X-109.293 Y-98.134
X-109.764 Y-97.933
X-110.288 Y-97.738
X-110.865 Y-97.549
X-111.494 Y-97.369
X-112.181 Y-97.2
X-112.924 Y-97.045
X-113.728 Y-96.907
X-114.593 Y-96.788
X-115.518 Y-96.693
X-116.5 Y-96.626
X-117.525 Y-96.592
X-118.573 Y-96.593
X-119.616 Y-96.632
X-120.623 Y-96.705
X-121.576 Y-96.809
X-122.464 Y-96.937
X-123.283 Y-97.086
X-124.038 Y-97.251
X-124.728 Y-97.429
X-125.357 Y-97.618
X-125.927 Y-97.815
X-126.441 Y-98.018
X-126.901 Y-98.224
X-127.308 Y-98.431
X-127.664 Y-98.637
X-127.969 Y-98.84
X-128.226 Y-99.035
X-128.435 Y-99.22
X-128.6 Y-99.392
X-128.721 Y-99.544
X-128.806 Y-99.676
X-128.86 Y-99.785
X-128.891 Y-99.873
X-128.905 Y-99.944
X-128.909 Y-99.996
X-128.904 Y-100.061
X-128.889 Y-100.132
X-128.86 Y-100.216
X-128.805 Y-100.325
X-128.719 Y-100.458
X-128.597 Y-100.61
X-128.434 Y-100.781
X-128.227 Y-100.964
X-127.976 Y-101.156
X-127.864 Y-101.23
G0 Z10
X-99.307 Y-111.318
Z5.2
G1 Z2.7 F333.3
S5000
G3 X-101.569 Y-113.754 Z2.518 I-1.131 J-1.218
X-99.307 Y-111.318 Z2.335 I1.131 J1.218
X-101.569 Y-113.754 Z2.153 I-1.131 J-1.218
X-99.307 Y-111.318 Z1.97 I1.131 J1.218
X-101.569 Y-113.754 Z1.788 I-1.131 J-1.218
X-99.307 Y-111.318 Z1.606 I1.131 J1.218
X-101.569 Y-113.754 Z1.423 I-1.131 J-1.218
X-99.307 Y-111.318 Z1.241 I1.131 J1.218
X-101.569 Y-113.754 Z1.059 I-1.131 J-1.218
X-99.307 Y-111.318 Z0.876 I1.131 J1.218
X-101.569 Y-113.754 Z0.694 I-1.131 J-1.218
X-99.307 Y-111.318 Z0.511 I1.131 J1.218
X-101.569 Y-113.754 Z0.329 I-1.131 J-1.218
X-99.307 Y-111.318 Z0.147 I1.131 J1.218
X-101.569 Y-113.754 Z-0.036 I-1.131 J-1.218
X-99.307 Y-111.318 Z-0.218 I1.131 J1.218
X-101.569 Y-113.754 Z-0.401 I-1.131 J-1.218
X-99.307 Y-111.318 Z-0.583 I1.131 J1.218
X-101.569 Y-113.754 Z-0.765 I-1.131 J-1.218
X-98.775 Y-112.536 Z-0.9 I1.131 J1.218
S4000
X-102.101 Y-112.536 I-1.663 J0 F1000
X-98.775 Y-112.536 I1.663 J0
S5000
X-102.101 Y-112.536 Z-1.082 I-1.663 J0 F333.3
X-98.776 Y-112.536 Z-1.265 I1.663 J0
X-102.101 Y-112.536 Z-1.447 I-1.663 J0
X-100.107 Y-114.165 Z-1.55 I1.662 J0
S4000
X-100.769 Y-110.907 I-0.331 J1.629 F1000
X-100.107 Y-114.165 I0.331 J-1.629
S5000
X-100.769 Y-110.907 Z-1.732 I-0.331 J1.629 F333.3
X-100.107 Y-114.165 Z-1.915 I0.331 J-1.629
X-100.769 Y-110.907 Z-2.097 I-0.331 J1.629
X-101.969 Y-113.185 Z-2.2 I0.331 J-1.629
S4000
X-98.907 Y-111.887 I1.531 J0.649 F1000
X-101.969 Y-113.185 I-1.531 J-0.649
G0 Z10
X-211.211 Y-85.208
Z5.2
G1 Z2.7 F333.3
S5000
X-202.002 Y-75.999 Z2.245
G3 X-202.001 Y-74.002 Z2.168 I-0.998 J0.999
X-203.999 Y-74.001 Z2.09 I-0.999 J-0.998
G1 X-215.998 Y-86.001 Z1.498
G3 X-215.999 Y-87.998 Z1.42 I0.998 J-0.999
X-214.001 Y-87.999 Z1.343 I0.999 J0.998
G1 X-202.002 Y-75.999 Z0.75
G3 X-202.001 Y-74.002 Z0.673 I-0.998 J0.999
X-203.999 Y-74.001 Z0.595 I-0.999 J-0.998
G1 X-215.998 Y-86.001 Z0.003
G3 X-215.999 Y-87.998 Z-0.075 I0.998 J-0.999
X-214.001 Y-87.999 Z-0.152 I0.999 J0.998
G1 X-202.002 Y-75.999 Z-0.745
G3 X-202.001 Y-74.002 Z-0.823 I-0.998 J0.999
X-203.999 Y-74.001 Z-0.9 I-0.999 J-0.998
S4000
G1 X-215.998 Y-86.001 F1000
G3 X-215.999 Y-87.998 I0.998 J-0.999
X-214.001 Y-87.999 I0.999 J0.998
G1 X-202.002 Y-75.999
G3 X-202.001 Y-74.002 I-0.998 J0.999
X-203.999 Y-74.001 I-0.999 J-0.998
S5000
G1 X-215.998 Y-86.001 Z-1.493 F333.3
G3 X-216.313 Y-87.521 Z-1.55 I0.998 J-0.999
S4000
X-214.001 Y-87.999 I1.313 J0.521 F1000
G1 X-202.002 Y-75.999
G3 X-202.001 Y-74.002 I-0.998 J0.999
X-203.999 Y-74.001 I-0.999 J-0.998
G1 X-215.998 Y-86.001
G3 X-216.313 Y-87.521 I0.998 J-0.999
S5000
X-214.001 Y-87.999 Z-1.648 I1.313 J0.521 F333.3
G1 X-202.815 Y-76.812 Z-2.2
S4000
X-202.002 Y-75.999 F1000
G3 X-202.001 Y-74.002 I-0.998 J0.999
X-203.999 Y-74.001 I-0.999 J-0.998
G1 X-215.998 Y-86.001
G3 X-215.999 Y-87.998 I0.998 J-0.999
X-214.001 Y-87.999 I0.999 J0.998
G1 X-202.815 Y-76.812
G0 Z10
X-216.279 Y-53.599
Z5.2
G1 Z2.7 F333.3
S5000
G3 X-215.999 Y-53.999 Z2.683 I1.279 J0.599
G1 X-203.999 Y-65.999 Z2.09
G3 X-202.001 Y-64.001 Z1.935 I0.999 J0.999
G1 X-214.001 Y-52.001 Z1.343
G3 X-215.999 Y-53.999 Z1.188 I-0.999 J-0.999
G1 X-203.999 Y-65.999 Z0.595
G3 X-202.001 Y-64.001 Z0.44 I0.999 J0.999
G1 X-214.001 Y-52.001 Z-0.152
G3 X-215.999 Y-53.999 Z-0.307 I-0.999 J-0.999
G1 X-203.999 Y-65.999 Z-0.9
S4000
G3 X-202.001 Y-64.001 I0.999 J0.999 F1000
G1 X-214.001 Y-52.001
G3 X-215.999 Y-53.999 I-0.999 J-0.999
G1 X-203.999 Y-65.999
S5000
G3 X-202.001 Y-64.001 Z-1.055 I0.999 J0.999 F333.3
G1 X-212.026 Y-53.977 Z-1.55
S4000
X-214.001 Y-52.001 F1000
G3 X-215.999 Y-53.999 I-0.999 J-0.999
G1 X-203.999 Y-65.999
G3 X-202.001 Y-64.001 I0.999 J0.999
G1 X-212.026 Y-53.977
S5000
X-214.001 Y-52.001 Z-1.648 F333.3
G3 X-215.999 Y-53.999 Z-1.802 I-0.999 J-0.999
G1 X-207.95 Y-62.048 Z-2.2
S4000
X-203.999 Y-65.999 F1000
G3 X-202.001 Y-64.001 I0.999 J0.999
G1 X-212.026 Y-53.977
X-214.001 Y-52.001
G3 X-215.999 Y-53.999 I-0.999 J-0.999
G1 X-207.95 Y-62.048
G0 Z10
X-231.279 Y-53.599
Z5.2
G1 Z2.7 F333.3
S5000
G3 X-230.999 Y-53.999 Z2.683 I1.279 J0.599
G1 X-218.999 Y-65.999 Z2.09
G3 X-217.001 Y-64.001 Z1.935 I0.999 J0.999
G1 X-229.001 Y-52.001 Z1.343
G3 X-230.999 Y-53.999 Z1.188 I-0.999 J-0.999
G1 X-218.999 Y-65.999 Z0.595
G3 X-217.001 Y-64.001 Z0.44 I0.999 J0.999
G1 X-229.001 Y-52.001 Z-0.152
G3 X-230.999 Y-53.999 Z-0.307 I-0.999 J-0.999
G1 X-218.999 Y-65.999 Z-0.9
S4000
G3 X-217.001 Y-64.001 I0.999 J0.999 F1000
G1 X-229.001 Y-52.001
G3 X-230.999 Y-53.999 I-0.999 J-0.999
G1 X-218.999 Y-65.999
S5000
G3 X-217.001 Y-64.001 Z-1.055 I0.999 J0.999 F333.3
G1 X-227.026 Y-53.977 Z-1.55
S4000
X-229.001 Y-52.001 F1000
G3 X-230.999 Y-53.999 I-0.999 J-0.999
G1 X-218.999 Y-65.999
G3 X-217.001 Y-64.001 I0.999 J0.999
G1 X-227.026 Y-53.977
S5000
X-229.001 Y-52.001 Z-1.648 F333.3
G3 X-230.999 Y-53.999 Z-1.802 I-0.999 J-0.999
G1 X-222.95 Y-62.048 Z-2.2
S4000
X-218.999 Y-65.999 F1000
G3 X-217.001 Y-64.001 I0.999 J0.999
G1 X-227.026 Y-53.977
X-229.001 Y-52.001
G3 X-230.999 Y-53.999 I-0.999 J-0.999
G1 X-222.95 Y-62.048
G0 Z10
X-246.279 Y-53.599
Z5.2
G1 Z2.7 F333.3
S5000
G3 X-245.999 Y-53.999 Z2.683 I1.279 J0.599
G1 X-233.999 Y-65.999 Z2.09
G3 X-232.001 Y-64.001 Z1.935 I0.999 J0.999
G1 X-244.001 Y-52.001 Z1.343
G3 X-245.999 Y-53.999 Z1.188 I-0.999 J-0.999
G1 X-233.999 Y-65.999 Z0.595
G3 X-232.001 Y-64.001 Z0.44 I0.999 J0.999
G1 X-244.001 Y-52.001 Z-0.152
G3 X-245.999 Y-53.999 Z-0.307 I-0.999 J-0.999
G1 X-233.999 Y-65.999 Z-0.9
S4000
G3 X-232.001 Y-64.001 I0.999 J0.999 F1000
G1 X-244.001 Y-52.001
G3 X-245.999 Y-53.999 I-0.999 J-0.999
G1 X-233.999 Y-65.999
S5000
G3 X-232.001 Y-64.001 Z-1.055 I0.999 J0.999 F333.3
G1 X-242.026 Y-53.977 Z-1.55
S4000
X-244.001 Y-52.001 F1000
G3 X-245.999 Y-53.999 I-0.999 J-0.999
G1 X-233.999 Y-65.999
G3 X-232.001 Y-64.001 I0.999 J0.999
G1 X-242.026 Y-53.977
S5000
X-244.001 Y-52.001 Z-1.648 F333.3
G3 X-245.999 Y-53.999 Z-1.802 I-0.999 J-0.999
G1 X-237.95 Y-62.048 Z-2.2
S4000
X-233.999 Y-65.999 F1000
G3 X-232.001 Y-64.001 I0.999 J0.999
G1 X-242.026 Y-53.977
X-244.001 Y-52.001
G3 X-245.999 Y-53.999 I-0.999 J-0.999
G1 X-237.95 Y-62.048
G0 Z10
X-246.721 Y-64.401
Z5.2
G1 Z2.7 F333.3
S5000
G3 X-247.001 Y-64.001 Z2.683 I-1.279 J-0.599
G1 X-259.001 Y-52.001 Z2.09
G3 X-260.999 Y-53.999 Z1.935 I-0.999 J-0.999
G1 X-248.999 Y-65.999 Z1.343
G3 X-247.001 Y-64.001 Z1.188 I0.999 J0.999
G1 X-259.001 Y-52.001 Z0.595
G3 X-260.999 Y-53.999 Z0.44 I-0.999 J-0.999
G1 X-248.999 Y-65.999 Z-0.152
G3 X-247.001 Y-64.001 Z-0.307 I0.999 J0.999
G1 X-259.001 Y-52.001 Z-0.9
S4000
G3 X-260.999 Y-53.999 I-0.999 J-0.999 F1000
G1 X-248.999 Y-65.999
G3 X-247.001 Y-64.001 I0.999 J0.999
G1 X-259.001 Y-52.001
S5000
G3 X-260.999 Y-53.999 Z-1.055 I-0.999 J-0.999 F333.3
G1 X-250.974 Y-64.023 Z-1.55
S4000
X-248.999 Y-65.999 F1000
G3 X-247.001 Y-64.001 I0.999 J0.999
G1 X-259.001 Y-52.001
G3 X-260.999 Y-53.999 I-0.999 J-0.999
G1 X-250.974 Y-64.023
S5000
X-248.999 Y-65.999 Z-1.648 F333.3
G3 X-247.001 Y-64.001 Z-1.802 I0.999 J0.999
G1 X-255.05 Y-55.952 Z-2.2
S4000
X-259.001 Y-52.001 F1000
G3 X-260.999 Y-53.999 I-0.999 J-0.999
G1 X-250.974 Y-64.023
X-248.999 Y-65.999
G3 X-247.001 Y-64.001 I0.999 J0.999
G1 X-255.05 Y-55.952
G0 Z10
X-264.792 Y-61.211
Z5.2
G1 Z2.7 F333.3
S5000
X-274.001 Y-52.002 Z2.245
G3 X-275.999 Y-52.001 Z2.168 I-0.999 J-0.998
X-275.999 Y-53.999 Z2.09 I0.999 J-0.999
G1 X-263.999 Y-65.999 Z1.498
G3 X-262.001 Y-64.001 Z1.343 I0.999 J0.999
G1 X-274.001 Y-52.002 Z0.75
G3 X-275.999 Y-52.001 Z0.673 I-0.999 J-0.998
X-275.999 Y-53.999 Z0.595 I0.999 J-0.999
G1 X-263.999 Y-65.999 Z0.002
G3 X-262.001 Y-64.001 Z-0.152 I0.999 J0.999
G1 X-274.001 Y-52.002 Z-0.745
G3 X-275.999 Y-52.001 Z-0.823 I-0.999 J-0.998
X-275.999 Y-53.999 Z-0.9 I0.999 J-0.999
S4000
G1 X-263.999 Y-65.999 F1000
G3 X-262.001 Y-64.001 I0.999 J0.999
G1 X-274.001 Y-52.002
G3 X-275.999 Y-52.001 I-0.999 J-0.998
X-275.999 Y-53.999 I0.999 J-0.999
S5000
G1 X-263.999 Y-65.999 Z-1.493 F333.3
G3 X-262.479 Y-66.313 Z-1.55 I0.999 J0.999
S4000
X-262.001 Y-64.001 I-0.521 J1.313 F1000
G1 X-274.001 Y-52.002
G3 X-275.999 Y-52.001 I-0.999 J-0.998
X-275.999 Y-53.999 I0.999 J-0.999
G1 X-263.999 Y-65.999
G3 X-262.479 Y-66.313 I0.999 J0.999
S5000
X-262.001 Y-64.001 Z-1.648 I-0.521 J1.313 F333.3
G1 X-273.188 Y-52.815 Z-2.2
S4000
X-274.001 Y-52.002 F1000
G3 X-275.999 Y-52.001 I-0.999 J-0.998
X-275.999 Y-53.999 I0.999 J-0.999
G1 X-263.999 Y-65.999
G3 X-262.001 Y-64.001 I0.999 J0.999
G1 X-273.188 Y-52.815
G0 Z10
X-271.211 Y-85.208
Z5.2
G1 Z2.7 F333.3
S5000
X-262.002 Y-75.999 Z2.245
G3 X-262.001 Y-74.002 Z2.168 I-0.998 J0.999
X-263.999 Y-74.001 Z2.09 I-0.999 J-0.998
G1 X-275.998 Y-86.001 Z1.498
G3 X-275.999 Y-87.998 Z1.42 I0.998 J-0.999
X-274.001 Y-87.999 Z1.343 I0.999 J0.998
G1 X-262.002 Y-75.999 Z0.75
G3 X-262.001 Y-74.002 Z0.673 I-0.998 J0.999
X-263.999 Y-74.001 Z0.595 I-0.999 J-0.998
G1 X-275.998 Y-86.001 Z0.003
G3 X-275.999 Y-87.998 Z-0.075 I0.998 J-0.999
X-274.001 Y-87.999 Z-0.152 I0.999 J0.998
G1 X-262.002 Y-75.999 Z-0.745
G3 X-262.001 Y-74.002 Z-0.823 I-0.998 J0.999
X-263.999 Y-74.001 Z-0.9 I-0.999 J-0.998
S4000
G1 X-275.998 Y-86.001 F1000
G3 X-275.999 Y-87.998 I0.998 J-0.999
X-274.001 Y-87.999 I0.999 J0.998
G1 X-262.002 Y-75.999
G3 X-262.001 Y-74.002 I-0.998 J0.999
X-263.999 Y-74.001 I-0.999 J-0.998
S5000
G1 X-275.998 Y-86.001 Z-1.493 F333.3
G3 X-276.313 Y-87.521 Z-1.55 I0.998 J-0.999
S4000
X-274.001 Y-87.999 I1.313 J0.521 F1000
G1 X-262.002 Y-75.999
G3 X-262.001 Y-74.002 I-0.998 J0.999
X-263.999 Y-74.001 I-0.999 J-0.998
G1 X-275.998 Y-86.001
G3 X-276.313 Y-87.521 I0.998 J-0.999
S5000
X-274.001 Y-87.999 Z-1.648 I1.313 J0.521 F333.3
G1 X-262.815 Y-76.812 Z-2.2
S4000
X-262.002 Y-75.999 F1000
G3 X-262.001 Y-74.002 I-0.998 J0.999
X-263.999 Y-74.001 I-0.999 J-0.998
G1 X-275.998 Y-86.001
G3 X-275.999 Y-87.998 I0.998 J-0.999
X-274.001 Y-87.999 I0.999 J0.998
G1 X-262.815 Y-76.812
G0 Z10
X-251.789 Y-76.792
Z5.2
G1 Z2.7 F333.3
S5000
X-260.998 Y-86.001 Z2.245
G3 X-260.999 Y-87.998 Z2.168 I0.998 J-0.999
X-259.001 Y-87.999 Z2.09 I0.999 J0.998
G1 X-247.002 Y-75.999 Z1.498
G3 X-247.001 Y-74.002 Z1.42 I-0.998 J0.999
X-248.999 Y-74.001 Z1.343 I-0.999 J-0.998
G1 X-260.998 Y-86.001 Z0.75
G3 X-260.999 Y-87.998 Z0.673 I0.998 J-0.999
X-259.001 Y-87.999 Z0.595 I0.999 J0.998
G1 X-247.002 Y-75.999 Z0.003
G3 X-247.001 Y-74.002 Z-0.075 I-0.998 J0.999
X-248.999 Y-74.001 Z-0.152 I-0.999 J-0.998
G1 X-260.998 Y-86.001 Z-0.745
G3 X-260.999 Y-87.998 Z-0.823 I0.998 J-0.999
X-259.001 Y-87.999 Z-0.9 I0.999 J0.998
S4000
G1 X-247.002 Y-75.999 F1000
G3 X-247.001 Y-74.002 I-0.998 J0.999
X-248.999 Y-74.001 I-0.999 J-0.998
G1 X-260.998 Y-86.001
G3 X-260.999 Y-87.998 I0.998 J-0.999
X-259.001 Y-87.999 I0.999 J0.998
S5000
G1 X-247.002 Y-75.999 Z-1.493 F333.3
G3 X-246.687 Y-74.479 Z-1.55 I-0.998 J0.999
S4000
X-248.999 Y-74.001 I-1.313 J-0.521 F1000
G1 X-260.998 Y-86.001
G3 X-260.999 Y-87.998 I0.998 J-0.999
X-259.001 Y-87.999 I0.999 J0.998
G1 X-247.002 Y-75.999
G3 X-246.687 Y-74.479 I-0.998 J0.999
S5000
X-248.999 Y-74.001 Z-1.648 I-1.313 J-0.521 F333.3
G1 X-260.185 Y-85.188 Z-2.2
S4000
X-260.998 Y-86.001 F1000
G3 X-260.999 Y-87.998 I0.998 J-0.999
X-259.001 Y-87.999 I0.999 J0.998
G1 X-247.002 Y-75.999
G3 X-247.001 Y-74.002 I-0.998 J0.999
X-248.999 Y-74.001 I-0.999 J-0.998
G1 X-260.185 Y-85.188
G0 Z10
X-241.211 Y-85.208
Z5.2
G1 Z2.7 F333.3
S5000
X-232.002 Y-75.999 Z2.245
G3 X-232.001 Y-74.002 Z2.168 I-0.998 J0.999
X-233.999 Y-74.001 Z2.09 I-0.999 J-0.998
G1 X-245.998 Y-86.001 Z1.498
G3 X-245.999 Y-87.998 Z1.42 I0.998 J-0.999
X-244.001 Y-87.999 Z1.343 I0.999 J0.998
G1 X-232.002 Y-75.999 Z0.75
G3 X-232.001 Y-74.002 Z0.673 I-0.998 J0.999
X-233.999 Y-74.001 Z0.595 I-0.999 J-0.998
G1 X-245.998 Y-86.001 Z0.003
G3 X-245.999 Y-87.998 Z-0.075 I0.998 J-0.999
X-244.001 Y-87.999 Z-0.152 I0.999 J0.998
G1 X-232.002 Y-75.999 Z-0.745
G3 X-232.001 Y-74.002 Z-0.823 I-0.998 J0.999
X-233.999 Y-74.001 Z-0.9 I-0.999 J-0.998
S4000
G1 X-245.998 Y-86.001 F1000
G3 X-245.999 Y-87.998 I0.998 J-0.999
X-244.001 Y-87.999 I0.999 J0.998
G1 X-232.002 Y-75.999
G3 X-232.001 Y-74.002 I-0.998 J0.999
X-233.999 Y-74.001 I-0.999 J-0.998
S5000
G1 X-245.998 Y-86.001 Z-1.493 F333.3
G3 X-246.313 Y-87.521 Z-1.55 I0.998 J-0.999
S4000
X-244.001 Y-87.999 I1.313 J0.521 F1000
G1 X-232.002 Y-75.999
G3 X-232.001 Y-74.002 I-0.998 J0.999
X-233.999 Y-74.001 I-0.999 J-0.998
G1 X-245.998 Y-86.001
G3 X-246.313 Y-87.521 I0.998 J-0.999
S5000
X-244.001 Y-87.999 Z-1.648 I1.313 J0.521 F333.3
G1 X-232.815 Y-76.812 Z-2.2
S4000
X-232.002 Y-75.999 F1000
G3 X-232.001 Y-74.002 I-0.998 J0.999
X-233.999 Y-74.001 I-0.999 J-0.998
G1 X-245.998 Y-86.001
G3 X-245.999 Y-87.998 I0.998 J-0.999
X-244.001 Y-87.999 I0.999 J0.998
G1 X-232.815 Y-76.812
G0 Z10
X-226.211 Y-85.208
Z5.2
G1 Z2.7 F333.3
S5000
X-217.002 Y-75.999 Z2.245
G3 X-217.001 Y-74.002 Z2.168 I-0.998 J0.999
X-218.999 Y-74.001 Z2.09 I-0.999 J-0.998
G1 X-230.998 Y-86.001 Z1.498
G3 X-230.999 Y-87.998 Z1.42 I0.998 J-0.999
X-229.001 Y-87.999 Z1.343 I0.999 J0.998
G1 X-217.002 Y-75.999 Z0.75
G3 X-217.001 Y-74.002 Z0.673 I-0.998 J0.999
X-218.999 Y-74.001 Z0.595 I-0.999 J-0.998
G1 X-230.998 Y-86.001 Z0.003
G3 X-230.999 Y-87.998 Z-0.075 I0.998 J-0.999
X-229.001 Y-87.999 Z-0.152 I0.999 J0.998
G1 X-217.002 Y-75.999 Z-0.745
G3 X-217.001 Y-74.002 Z-0.823 I-0.998 J0.999
X-218.999 Y-74.001 Z-0.9 I-0.999 J-0.998
S4000
G1 X-230.998 Y-86.001 F1000
G3 X-230.999 Y-87.998 I0.998 J-0.999
X-229.001 Y-87.999 I0.999 J0.998
G1 X-217.002 Y-75.999
G3 X-217.001 Y-74.002 I-0.998 J0.999
X-218.999 Y-74.001 I-0.999 J-0.998
S5000
G1 X-230.998 Y-86.001 Z-1.493 F333.3
G3 X-231.313 Y-87.521 Z-1.55 I0.998 J-0.999
S4000
X-229.001 Y-87.999 I1.313 J0.521 F1000
G1 X-217.002 Y-75.999
G3 X-217.001 Y-74.002 I-0.998 J0.999
X-218.999 Y-74.001 I-0.999 J-0.998
G1 X-230.998 Y-86.001
G3 X-231.313 Y-87.521 I0.998 J-0.999
S5000
X-229.001 Y-87.999 Z-1.648 I1.313 J0.521 F333.3
G1 X-217.815 Y-76.812 Z-2.2
S4000
X-217.002 Y-75.999 F1000
G3 X-217.001 Y-74.002 I-0.998 J0.999
X-218.999 Y-74.001 I-0.999 J-0.998
G1 X-230.998 Y-86.001
G3 X-230.999 Y-87.998 I0.998 J-0.999
X-229.001 Y-87.999 I0.999 J0.998
G1 X-217.815 Y-76.812
G0 Z20

(2D-Kontur5)
X-233.205 Y-43.412
Z20
Z5.2
G1 Z2.7 F333.3
S5000
X-210.016 Z1.89
X-209.743 Y-43.407 Z1.881
X-209.482 Y-43.392 Z1.872
X-209.219 Y-43.366 Z1.862
X-208.953 Y-43.33 Z1.853
X-208.682 Y-43.283 Z1.843
X-208.407 Y-43.226 Z1.834
X-208.128 Y-43.157 Z1.824
X-207.846 Y-43.078 Z1.813
X-207.559 Y-42.987 Z1.803
X-207.267 Y-42.885 Z1.792
X-206.971 Y-42.771 Z1.781
X-206.67 Y-42.646 Z1.77
X-206.364 Y-42.509 Z1.758
X-206.054 Y-42.36 Z1.746
X-205.74 Y-42.201 Z1.734
X-205.422 Y-42.029 Z1.721
X-205.097 Y-41.845 Z1.708
X-204.77 Y-41.651 Z1.695
X-204.438 Y-41.445 Z1.681
X-204.102 Y-41.228 Z1.667
X-203.762 Y-40.999 Z1.653
X-203.417 Y-40.76 Z1.638
X-203.067 Y-40.509 Z1.623
X-202.718 Y-40.252 Z1.608
X-201.994 Y-39.696 Z1.576
X-201.258 Y-39.103 Z1.543
X-200.503 Y-38.473 Z1.509
X-199.732 Y-37.807 Z1.473
X-198.943 Y-37.106 Z1.436
X-198.135 Y-36.374 Z1.398
X-197.308 Y-35.613 Z1.359
X-196.463 Y-34.824 Z1.318
X-195.597 Y-34.011 Z1.277
X-194.712 Y-33.177 Z1.235
X-194.711 Y-33.176 Z1.234
X-193.805 Y-32.323 Z1.191
X-193.804 Y-32.321
X-192.879 Y-31.452 Z1.147
X-192.874 Y-31.448 Z1.146
X-191.928 Y-30.567 Z1.101
X-191.922 Y-30.561
X-190.955 Y-29.67 Z1.055
X-190.948 Y-29.663
X-189.96 Y-28.764 Z1.008
X-189.95 Y-28.755
X-188.939 Y-27.85 Z0.96
X-188.927 Y-27.84
X-187.893 Y-26.933 Z0.912
X-187.88 Y-26.921 Z0.911
X-186.823 Y-26.014 Z0.862
X-186.809 Y-26.001
X-185.728 Y-25.095 Z0.812
X-185.711 Y-25.082
X-184.605 Y-24.18 Z0.762
X-184.587 Y-24.166 Z0.761
X-183.457 Y-23.271 Z0.711
X-183.437 Y-23.256 Z0.71
X-182.281 Y-22.37 Z0.659
X-182.26 Y-22.354 Z0.658
X-181.078 Y-21.48 Z0.607
X-181.055 Y-21.464 Z0.606
X-179.848 Y-20.604 Z0.554
X-179.823 Y-20.586 Z0.553
X-178.589 Y-19.742 Z0.501
X-178.563 Y-19.725 Z0.5
X-177.302 Y-18.899 Z0.447
X-177.274 Y-18.881 Z0.446
X-175.987 Y-18.076 Z0.393
X-175.957 Y-18.058 Z0.392
X-174.643 Y-17.275 Z0.338
X-174.612 Y-17.257 Z0.337
X-173.271 Y-16.499 Z0.283
X-173.238 Y-16.481 Z0.282
X-171.869 Y-15.749 Z0.228
X-171.844 Y-15.736 Z0.227
X-171.15 Y-15.381 Z0.199
X-171.133 Y-15.372
X-170.432 Y-15.024 Z0.171
X-170.414 Y-15.016
X-169.706 Y-14.675 Z0.143
X-169.687 Y-14.667
X-168.972 Y-14.334 Z0.115
X-168.954 Y-14.326 Z0.114
X-168.233 Y-14.002 Z0.087
X-168.214 Y-13.993 Z0.086
X-167.486 Y-13.677 Z0.058
X-167.467 Y-13.669
X-166.732 Y-13.361 Z0.03
X-166.713 Y-13.354 Z0.029
X-165.972 Y-13.054 Z0.001
X-165.953 Y-13.047 Z0
X-165.205 Y-12.756 Z-0.028
X-165.185 Y-12.749
X-164.431 Y-12.467 Z-0.056
X-164.412 Y-12.46 Z-0.057
X-163.652 Y-12.188 Z-0.085
X-163.631 Y-12.181 Z-0.086
X-162.864 Y-11.917 Z-0.114
X-162.844 Y-11.911 Z-0.115
X-162.071 Y-11.657 Z-0.144
X-162.051 Y-11.65
X-161.272 Y-11.406 Z-0.173
X-161.251 Y-11.4 Z-0.174
X-160.465 Y-11.165 Z-0.202
X-160.446 Y-11.159 Z-0.203
X-159.655 Y-10.934 Z-0.232
X-159.634 Y-10.928
X-158.838 Y-10.713 Z-0.261
X-158.817 Y-10.708 Z-0.262
X-158.014 Y-10.502 Z-0.291
X-157.994 Y-10.497 Z-0.292
X-157.186 Y-10.302 Z-0.321
X-157.166 Y-10.297
X-156.353 Y-10.111 Z-0.351
X-156.333 Y-10.107
X-155.515 Y-9.931 Z-0.38
X-155.495 Y-9.927 Z-0.381
X-154.672 Y-9.762 Z-0.41
X-154.652 Y-9.758 Z-0.411
X-153.825 Y-9.602 Z-0.441
X-153.806 Y-9.599
X-152.974 Y-9.453 Z-0.471
X-152.954 Y-9.45
X-152.117 Y-9.314 Z-0.501
X-152.098 Y-9.311 Z-0.502
X-151.258 Y-9.186 Z-0.531
X-151.238 Y-9.183 Z-0.532
X-150.394 Y-9.067 Z-0.562
X-150.375 Y-9.065 Z-0.563
X-149.527 Y-8.959 Z-0.592
X-149.509 Y-8.957 Z-0.593
X-148.658 Y-8.861 Z-0.623
X-148.639 Y-8.859 Z-0.624
X-147.785 Y-8.773 Z-0.654
X-147.758 Y-8.77
X-146.042 Y-8.627 Z-0.715
X-146.007 Y-8.624 Z-0.716
X-144.283 Y-8.519 Z-0.776
X-144.249 Y-8.517 Z-0.777
X-142.517 Y-8.449 Z-0.838
X-142.483 Y-8.448 Z-0.839
X-140.747 Y-8.416 Z-0.9
X-140.739
S4000
X-140.715 F1000
X-138.977 Y-8.418
X-138.946 Y-8.419
X-137.208 Y-8.456
X-137.178 Y-8.457
X-135.442 Y-8.526
X-135.413 Y-8.528
X-133.681 Y-8.629
X-133.654 Y-8.631
X-131.928 Y-8.762
X-131.901 Y-8.764
X-130.183 Y-8.924
X-130.157 Y-8.927
X-128.448 Y-9.114
X-128.423 Y-9.117
X-126.726 Y-9.33
X-126.702 Y-9.334
X-125.018 Y-9.572
X-124.995 Y-9.575
X-123.325 Y-9.836
X-123.303 Y-9.84
X-121.648 Y-10.122
X-121.626 Y-10.126
X-119.988 Y-10.429
X-119.968 Y-10.433
X-118.348 Y-10.755
X-118.328 Y-10.759
X-116.727 Y-11.099
X-116.708 Y-11.103
X-115.126 Y-11.459
X-115.108 Y-11.463
X-113.546 Y-11.833
X-113.528 Y-11.837
X-111.987 Y-12.221
X-111.971 Y-12.226
X-110.451 Y-12.622
X-110.435 Y-12.626
X-108.936 Y-13.033
X-108.921 Y-13.037
X-107.443 Y-13.455
X-107.428 Y-13.459
X-105.972 Y-13.885
X-105.959 Y-13.889
X-104.524 Y-14.323
X-104.511 Y-14.327
X-103.096 Y-14.767
X-103.084 Y-14.771
X-101.691 Y-15.217
X-101.68 Y-15.221
X-100.307 Y-15.672
X-100.297 Y-15.675
X-98.943 Y-16.13
X-98.933 Y-16.133
X-97.599 Y-16.591
X-97.591 Y-16.594
X-96.275 Y-17.053
X-96.268 Y-17.055
X-94.97 Y-17.516
X-94.963 Y-17.518
X-93.682 Y-17.978
X-93.677 Y-17.98
X-92.413 Y-18.44
X-92.409 Y-18.441
X-91.16 Y-18.899
X-91.157 Y-18.9
X-89.922 Y-19.355
X-89.921 Y-19.356
X-88.7 Y-19.807
X-87.492 Y-20.255
X-86.298 Y-20.697
X-85.116 Y-21.132
X-83.945 Y-21.56
X-82.784 Y-21.981
X-81.633 Y-22.393
X-80.489 Y-22.795
X-79.353 Y-23.188
X-78.222 Y-23.569
X-77.096 Y-23.94
X-75.974 Y-24.299
X-74.854 Y-24.646
X-73.736 Y-24.98
X-72.617 Y-25.3
X-71.498 Y-25.607
X-70.376 Y-25.9
X-69.251 Y-26.179
X-68.121 Y-26.442
X-66.986 Y-26.69
X-65.844 Y-26.923
X-64.694 Y-27.14
X-63.536 Y-27.34
X-62.368 Y-27.525
X-61.19 Y-27.692
X-60 Y-27.843
X-58.798 Y-27.976
X-57.584 Y-28.092
X-56.356 Y-28.19
X-55.115 Y-28.27
X-53.859 Y-28.333
X-52.588 Y-28.378
X-51.302 Y-28.404
X-49.995 Y-28.413
X-14
G2 X-8.413 Y-34 I0 J-5.587
G1 Y-106
G2 X-14 Y-111.588 I-5.587 J0
G1 X-49.995
X-51.297 Y-111.596
X-52.58 Y-111.624
X-53.848 Y-111.669
X-55.102 Y-111.732
X-56.341 Y-111.813
X-57.567 Y-111.912
X-58.781 Y-112.029
X-59.982 Y-112.162
X-61.172 Y-112.313
X-62.35 Y-112.481
X-63.519 Y-112.665
X-64.677 Y-112.866
X-65.828 Y-113.084
X-66.971 Y-113.316
X-68.108 Y-113.566
X-69.24 Y-113.829
X-70.367 Y-114.108
X-71.492 Y-114.401
X-72.614 Y-114.708
X-73.736 Y-115.028
X-74.857 Y-115.362
X-75.98 Y-115.709
X-77.105 Y-116.067
X-78.234 Y-116.438
X-79.368 Y-116.821
X-80.509 Y-117.213
X-81.655 Y-117.615
X-82.81 Y-118.026
X-83.974 Y-118.447
X-85.149 Y-118.875
X-86.334 Y-119.31
X-87.531 Y-119.751
X-88.741 Y-120.199
X-88.742 Y-120.2
X-89.966 Y-120.651
X-89.967
X-91.204 Y-121.106
X-91.208 Y-121.107
X-92.459 Y-121.564
X-92.462 Y-121.565
X-93.729 Y-122.025
X-93.735 Y-122.027
X-95.018 Y-122.487
X-95.024 Y-122.49
X-96.324 Y-122.95
X-96.331 Y-122.952
X-97.649 Y-123.411
X-97.657 Y-123.414
X-98.993 Y-123.871
X-99.003 Y-123.874
X-100.358 Y-124.328
X-100.367 Y-124.331
X-101.741 Y-124.782
X-101.752 Y-124.786
X-103.146 Y-125.232
X-103.159 Y-125.236
X-104.574 Y-125.676
X-104.585 Y-125.68
X-106.02 Y-126.114
X-106.034 Y-126.118
X-107.49 Y-126.544
X-107.505 Y-126.548
X-108.982 Y-126.965
X-108.997 Y-126.969
X-110.495 Y-127.376
X-110.511 Y-127.38
X-112.03 Y-127.776
X-112.046 Y-127.78
X-113.586 Y-128.164
X-113.604 Y-128.169
X-115.164 Y-128.539
X-115.182 Y-128.543
X-116.762 Y-128.898
X-116.78 Y-128.902
X-118.379 Y-129.242
X-118.4 Y-129.246
X-120.017 Y-129.567
X-120.037 Y-129.571
X-121.672 Y-129.874
X-121.693 Y-129.878
X-123.344 Y-130.161
X-123.366 Y-130.164
X-125.033 Y-130.425
X-125.056 Y-130.429
X-126.736 Y-130.667
X-126.761 Y-130.67
X-128.454 Y-130.883
X-128.479 Y-130.886
X-130.183 Y-131.073
X-130.208 Y-131.076
X-131.922 Y-131.236
X-131.949 Y-131.238
X-133.67 Y-131.37
X-133.698 Y-131.372
X-135.426 Y-131.473
X-135.456 Y-131.474
X-137.187 Y-131.543
X-137.216 Y-131.544
X-138.949 Y-131.581
X-138.98
X-140.713 Y-131.585
X-140.745 Y-131.584
X-142.476 Y-131.552
X-142.509 Y-131.551
X-144.236 Y-131.483
X-144.272 Y-131.481
X-145.992 Y-131.375
X-146.026 Y-131.373
X-147.737 Y-131.23
X-147.764 Y-131.227
X-148.616 Y-131.141
X-148.636 Y-131.139
X-149.484 Y-131.043
X-149.502 Y-131.041
X-150.348 Y-130.935
X-150.368 Y-130.933
X-151.21 Y-130.817
X-151.227 Y-130.814
X-152.065 Y-130.689
X-152.087 Y-130.686
X-152.921 Y-130.55
X-152.938 Y-130.547
X-153.768 Y-130.402
X-153.79 Y-130.398
X-154.616 Y-130.242
X-154.634 Y-130.238
X-155.455 Y-130.073
X-155.477 Y-130.069
X-156.293 Y-129.893
X-156.311 Y-129.889
X-157.123 Y-129.704
X-157.145 Y-129.699
X-157.951 Y-129.503
X-157.97 Y-129.498
X-158.771 Y-129.293
X-158.793 Y-129.287
X-159.588 Y-129.071
X-159.607 Y-129.066
X-160.396 Y-128.841
X-160.415 Y-128.835
X-161.199 Y-128.601
X-161.222 Y-128.594
X-162 Y-128.349
X-162.017 Y-128.344
X-162.789 Y-128.091
X-162.812 Y-128.083
X-163.578 Y-127.819
X-163.597 Y-127.812
X-164.356 Y-127.54
X-164.375 Y-127.533
X-165.128 Y-127.252
X-165.149 Y-127.244
X-165.896 Y-126.953
X-165.914 Y-126.946
X-166.655 Y-126.647
X-166.676 Y-126.639
X-167.409 Y-126.331
X-167.426 Y-126.323
X-168.154 Y-126.007
X-168.173 Y-125.999
X-168.894 Y-125.675
X-168.914 Y-125.666
X-169.628 Y-125.333
X-169.645 Y-125.325
X-170.352 Y-124.985
X-170.378 Y-124.972
X-171.773 Y-124.269
X-171.807 Y-124.251
X-173.175 Y-123.52
X-173.208 Y-123.502
X-174.55 Y-122.744
X-174.582 Y-122.726
X-175.896 Y-121.943
X-175.924 Y-121.925
X-177.212 Y-121.12
X-177.241 Y-121.102
X-178.502 Y-120.276
X-178.528 Y-120.259
X-179.763 Y-119.415
X-179.787 Y-119.398
X-180.996 Y-118.538
X-181.019 Y-118.521
X-182.202 Y-117.647
X-182.223 Y-117.631
X-183.381 Y-116.746
X-183.401 Y-116.731
X-184.534 Y-115.836
X-184.552 Y-115.822
X-185.66 Y-114.921
X-185.677 Y-114.907
X-186.76 Y-114.001
X-186.774 Y-113.989
X-187.834 Y-113.081
X-187.847 Y-113.069
X-188.883 Y-112.162
X-188.894 Y-112.152
X-189.908 Y-111.247
X-189.918 Y-111.239
X-190.909 Y-110.34
X-190.917 Y-110.332
X-191.886 Y-109.44
X-191.891 Y-109.435
X-192.84 Y-108.554
X-192.845 Y-108.55
X-193.773 Y-107.681
X-193.774 Y-107.68
X-194.683 Y-106.827
X-195.573 Y-105.991
X-196.441 Y-105.178
X-197.289 Y-104.389
X-198.119 Y-103.628
X-198.929 Y-102.895
X-199.721 Y-102.195
X-200.494 Y-101.529
X-201.251 Y-100.898
X-201.99 Y-100.306
X-202.717 Y-99.749
X-203.066 Y-99.491
X-203.416 Y-99.242
X-203.762 Y-99.002
X-204.104 Y-98.773
X-204.441 Y-98.556
X-204.773 Y-98.35
X-205.101 Y-98.155
X-205.425 Y-97.972
X-205.744 Y-97.8
X-206.059 Y-97.64
X-206.369 Y-97.491
X-206.674 Y-97.355
X-206.975 Y-97.229
X-207.273 Y-97.115
X-207.563 Y-97.013
X-207.851 Y-96.922
X-208.133 Y-96.843
X-208.412 Y-96.774
X-208.686 Y-96.717
X-208.956 Y-96.67
X-209.222 Y-96.634
X-209.485 Y-96.608
X-209.743 Y-96.593
X-210.016 Y-96.588
X-286
G2 X-291.587 Y-91 I0 J5.588
G1 Y-49
G2 X-286 Y-43.412 I5.587 J0
G1 X-210.016
X-209.743 Y-43.407
X-209.482 Y-43.392
X-209.219 Y-43.366
X-208.953 Y-43.33
X-208.682 Y-43.283
X-208.407 Y-43.226
X-208.128 Y-43.157
X-207.846 Y-43.078
X-207.559 Y-42.987
X-207.267 Y-42.885
X-206.971 Y-42.771
X-206.67 Y-42.646
X-206.364 Y-42.509
X-206.054 Y-42.36
X-205.74 Y-42.201
X-205.422 Y-42.029
X-205.097 Y-41.845
X-204.77 Y-41.651
X-204.438 Y-41.445
X-204.102 Y-41.228
X-203.762 Y-40.999
X-203.417 Y-40.76
X-203.067 Y-40.509
X-202.718 Y-40.252
X-201.994 Y-39.696
X-201.258 Y-39.103
X-200.503 Y-38.473
X-199.732 Y-37.807
X-198.943 Y-37.106
X-198.135 Y-36.374
X-197.308 Y-35.613
X-196.463 Y-34.824
X-195.597 Y-34.011
X-194.712 Y-33.177
X-194.711 Y-33.176
X-193.805 Y-32.323
X-193.804 Y-32.321
X-192.879 Y-31.452
X-192.874 Y-31.448
X-191.928 Y-30.567
X-191.922 Y-30.561
X-190.955 Y-29.67
X-190.948 Y-29.663
X-189.96 Y-28.764
X-189.95 Y-28.755
X-188.939 Y-27.85
X-188.927 Y-27.84
X-187.893 Y-26.933
X-187.88 Y-26.921
X-186.823 Y-26.014
X-186.809 Y-26.001
X-185.728 Y-25.095
X-185.711 Y-25.082
X-184.605 Y-24.18
X-184.587 Y-24.166
X-183.457 Y-23.271
X-183.437 Y-23.256
X-182.281 Y-22.37
X-182.26 Y-22.354
X-181.078 Y-21.48
X-181.055 Y-21.464
X-179.848 Y-20.604
X-179.823 Y-20.586
X-178.589 Y-19.742
X-178.563 Y-19.725
X-177.302 Y-18.899
X-177.274 Y-18.881
X-175.987 Y-18.076
X-175.957 Y-18.058
X-174.643 Y-17.275
X-174.612 Y-17.257
X-173.271 Y-16.499
X-173.238 Y-16.481
X-171.869 Y-15.749
X-171.844 Y-15.736
X-171.15 Y-15.381
X-171.133 Y-15.372
X-170.432 Y-15.024
X-170.414 Y-15.016
X-169.706 Y-14.675
X-169.687 Y-14.667
X-168.972 Y-14.334
X-168.954 Y-14.326
X-168.233 Y-14.002
X-168.214 Y-13.993
X-167.486 Y-13.677
X-167.467 Y-13.669
X-166.732 Y-13.361
X-166.713 Y-13.354
X-165.972 Y-13.054
X-165.953 Y-13.047
X-165.205 Y-12.756
X-165.185 Y-12.749
X-164.431 Y-12.467
X-164.412 Y-12.46
X-163.652 Y-12.188
X-163.631 Y-12.181
X-162.864 Y-11.917
X-162.844 Y-11.911
X-162.071 Y-11.657
X-162.051 Y-11.65
X-161.272 Y-11.406
X-161.251 Y-11.4
X-160.465 Y-11.165
X-160.446 Y-11.159
X-159.655 Y-10.934
X-159.634 Y-10.928
X-158.838 Y-10.713
X-158.817 Y-10.708
X-158.014 Y-10.502
X-157.994 Y-10.497
X-157.186 Y-10.302
X-157.166 Y-10.297
X-156.353 Y-10.111
X-156.333 Y-10.107
X-155.515 Y-9.931
X-155.495 Y-9.927
X-154.672 Y-9.762
X-154.652 Y-9.758
X-153.825 Y-9.602
X-153.806 Y-9.599
X-152.974 Y-9.453
X-152.954 Y-9.45
X-152.117 Y-9.314
X-152.098 Y-9.311
X-151.258 Y-9.186
X-151.238 Y-9.183
X-150.394 Y-9.067
X-150.375 Y-9.065
X-149.527 Y-8.959
X-149.509 Y-8.957
X-148.658 Y-8.861
X-148.639 Y-8.859
X-147.785 Y-8.773
X-147.758 Y-8.77
X-146.042 Y-8.627
X-146.007 Y-8.624
X-144.283 Y-8.519
X-144.249 Y-8.517
X-142.517 Y-8.449
X-142.483 Y-8.448
X-140.747 Y-8.416
X-140.739
S5000
X-140.715 Z-0.901 F333.3
X-138.977 Y-8.418 Z-0.939
X-138.946 Y-8.419 Z-0.94
X-137.208 Y-8.456 Z-0.978
X-137.178 Y-8.457 Z-0.979
X-135.442 Y-8.526 Z-1.018
X-135.413 Y-8.528
X-133.681 Y-8.629 Z-1.057
X-133.654 Y-8.631 Z-1.058
X-131.928 Y-8.762 Z-1.096
X-131.901 Y-8.764 Z-1.097
X-130.183 Y-8.924 Z-1.135
X-130.157 Y-8.927 Z-1.136
X-128.448 Y-9.114 Z-1.174
X-128.423 Y-9.117
X-126.726 Y-9.33 Z-1.212
X-126.702 Y-9.334 Z-1.213
X-125.018 Y-9.572 Z-1.251
X-124.995 Y-9.575
X-123.325 Y-9.836 Z-1.289
X-123.303 Y-9.84
X-121.648 Y-10.122 Z-1.327
X-121.626 Y-10.126
X-119.988 Y-10.429 Z-1.364
X-119.968 Y-10.433 Z-1.365
X-118.348 Y-10.755 Z-1.401
X-118.328 Y-10.759 Z-1.402
X-116.727 Y-11.099 Z-1.438
X-116.708 Y-11.103 Z-1.439
X-115.126 Y-11.459 Z-1.475
X-115.108 Y-11.463
X-113.546 Y-11.833 Z-1.511
X-113.528 Y-11.837
X-111.987 Y-12.221 Z-1.546
X-111.971 Y-12.226 Z-1.547
X-111.831 Y-12.262 Z-1.55
S4000
X-110.451 Y-12.622 F1000
X-110.435 Y-12.626
X-108.936 Y-13.033
X-108.921 Y-13.037
X-107.443 Y-13.455
X-107.428 Y-13.459
X-105.972 Y-13.885
X-105.959 Y-13.889
X-104.524 Y-14.323
X-104.511 Y-14.327
X-103.096 Y-14.767
X-103.084 Y-14.771
X-101.691 Y-15.217
X-101.68 Y-15.221
X-100.307 Y-15.672
X-100.297 Y-15.675
X-98.943 Y-16.13
X-98.933 Y-16.133
X-97.599 Y-16.591
X-97.591 Y-16.594
X-96.275 Y-17.053
X-96.268 Y-17.055
X-94.97 Y-17.516
X-94.963 Y-17.518
X-93.682 Y-17.978
X-93.677 Y-17.98
X-92.413 Y-18.44
X-92.409 Y-18.441
X-91.796 Y-18.666
Z-1.2
X-91.16 Y-18.899
X-91.157 Y-18.9
X-89.922 Y-19.355
X-89.921 Y-19.356
X-88.7 Y-19.807
X-87.492 Y-20.255
X-86.298 Y-20.697
X-85.116 Y-21.132
X-83.945 Y-21.56
X-83.185 Y-21.835
Z-1.55 F333.3
X-82.784 Y-21.981 F1000
X-81.633 Y-22.393
X-80.489 Y-22.795
X-79.353 Y-23.188
X-78.222 Y-23.569
X-77.096 Y-23.94
X-75.974 Y-24.299
X-74.854 Y-24.646
X-73.736 Y-24.98
X-72.617 Y-25.3
X-71.498 Y-25.607
X-70.376 Y-25.9
X-69.251 Y-26.179
X-68.121 Y-26.442
X-66.986 Y-26.69
X-65.844 Y-26.923
X-64.694 Y-27.14
X-63.536 Y-27.34
X-62.368 Y-27.525
X-61.19 Y-27.692
X-60 Y-27.843
X-58.798 Y-27.976
X-57.584 Y-28.092
X-56.356 Y-28.19
X-55.115 Y-28.27
X-53.859 Y-28.333
X-52.588 Y-28.378
X-51.302 Y-28.404
X-49.995 Y-28.413
X-14
G2 X-8.413 Y-34 I0 J-5.587
G1 Y-106
G2 X-14 Y-111.588 I-5.587 J0
G1 X-49.995
X-51.297 Y-111.596
X-52.58 Y-111.624
X-53.848 Y-111.669
X-55.102 Y-111.732
X-56.341 Y-111.813
X-57.567 Y-111.912
X-58.781 Y-112.029
X-59.982 Y-112.162
X-61.172 Y-112.313
X-62.35 Y-112.481
X-63.519 Y-112.665
X-64.677 Y-112.866
X-65.828 Y-113.084
X-66.971 Y-113.316
X-68.108 Y-113.566
X-69.24 Y-113.829
X-70.367 Y-114.108
X-71.492 Y-114.401
X-72.614 Y-114.708
X-73.736 Y-115.028
X-74.857 Y-115.362
X-75.98 Y-115.709
X-77.105 Y-116.067
X-78.234 Y-116.438
X-79.368 Y-116.821
X-80.509 Y-117.213
X-81.655 Y-117.615
X-82.81 Y-118.026
X-83.223 Y-118.175
Z-1.2
X-83.974 Y-118.447
X-85.149 Y-118.875
X-86.334 Y-119.31
X-87.531 Y-119.751
X-88.741 Y-120.199
X-88.742 Y-120.2
X-89.966 Y-120.651
X-89.967
X-91.204 Y-121.106
X-91.208 Y-121.107
X-91.836 Y-121.337
Z-1.55 F333.3
X-92.459 Y-121.564 F1000
X-92.462 Y-121.565
X-93.729 Y-122.025
X-93.735 Y-122.027
X-95.018 Y-122.487
X-95.024 Y-122.49
X-96.324 Y-122.95
X-96.331 Y-122.952
X-97.649 Y-123.411
X-97.657 Y-123.414
X-98.993 Y-123.871
X-99.003 Y-123.874
X-100.358 Y-124.328
X-100.367 Y-124.331
X-101.741 Y-124.782
X-101.752 Y-124.786
X-103.146 Y-125.232
X-103.159 Y-125.236
X-104.574 Y-125.676
X-104.585 Y-125.68
X-106.02 Y-126.114
X-106.034 Y-126.118
X-107.49 Y-126.544
X-107.505 Y-126.548
X-108.982 Y-126.965
X-108.997 Y-126.969
X-110.495 Y-127.376
X-110.511 Y-127.38
X-112.03 Y-127.776
X-112.046 Y-127.78
X-113.586 Y-128.164
X-113.604 Y-128.169
