(X500_Arm)
(T5  D=3.175 CR=0 - ZMIN=-15.5 - Schaftfraser)
G90 G94
G17
G21

(Bohrfrasen2)
T5
S6000 M3
G54
G0 X-11.888 Y0.013
Z15
Z2.182
G1 Z0.5 F1000
X-12.011 Y0.114
X-12.039 Y0.129
X-12.07 Y0.133
X-12.101 Y0.124
X-12.125 Y0.104
G3 X-11.875 Y-0.104 Z0.469 I0.125 J-0.104
X-12.125 Y0.104 Z0.439 I-0.125 J0.104
X-11.875 Y-0.104 Z0.408 I0.125 J-0.104
X-12.125 Y0.104 Z0.378 I-0.125 J0.104
X-11.875 Y-0.104 Z0.347 I0.125 J-0.104
X-12.125 Y0.104 Z0.317 I-0.125 J0.104
X-11.875 Y-0.104 Z0.286 I0.125 J-0.104
X-12.125 Y0.104 Z0.256 I-0.125 J0.104
X-11.875 Y-0.104 Z0.225 I0.125 J-0.104
X-12.125 Y0.104 Z0.195 I-0.125 J0.104
X-11.875 Y-0.104 Z0.164 I0.125 J-0.104
X-12.125 Y0.104 Z0.133 I-0.125 J0.104
X-11.875 Y-0.104 Z0.103 I0.125 J-0.104
X-12.125 Y0.104 Z0.072 I-0.125 J0.104
X-11.875 Y-0.104 Z0.042 I0.125 J-0.104
X-12.125 Y0.104 Z0.011 I-0.125 J0.104
X-11.875 Y-0.104 Z-0.019 I0.125 J-0.104
X-12.125 Y0.104 Z-0.05 I-0.125 J0.104
X-11.875 Y-0.104 Z-0.08 I0.125 J-0.104
X-12.125 Y0.104 Z-0.111 I-0.125 J0.104
X-11.875 Y-0.104 Z-0.141 I0.125 J-0.104
X-12.125 Y0.104 Z-0.172 I-0.125 J0.104
X-11.875 Y-0.104 Z-0.203 I0.125 J-0.104
X-12.125 Y0.104 Z-0.233 I-0.125 J0.104
X-11.875 Y-0.104 Z-0.264 I0.125 J-0.104
X-12.125 Y0.104 Z-0.294 I-0.125 J0.104
X-11.875 Y-0.104 Z-0.325 I0.125 J-0.104
X-12.125 Y0.104 Z-0.355 I-0.125 J0.104
X-11.875 Y-0.104 Z-0.386 I0.125 J-0.104
X-12.125 Y0.104 Z-0.416 I-0.125 J0.104
X-11.875 Y-0.104 Z-0.447 I0.125 J-0.104
X-12.125 Y0.104 Z-0.477 I-0.125 J0.104
X-11.875 Y-0.104 Z-0.508 I0.125 J-0.104
X-12.125 Y0.104 Z-0.539 I-0.125 J0.104
X-11.875 Y-0.104 Z-0.569 I0.125 J-0.104
X-12.125 Y0.104 Z-0.6 I-0.125 J0.104
X-11.875 Y-0.104 Z-0.63 I0.125 J-0.104
X-12.125 Y0.104 Z-0.661 I-0.125 J0.104
X-11.875 Y-0.104 Z-0.691 I0.125 J-0.104
X-12.125 Y0.104 Z-0.722 I-0.125 J0.104
X-11.875 Y-0.104 Z-0.752 I0.125 J-0.104
X-12.125 Y0.104 Z-0.783 I-0.125 J0.104
X-11.875 Y-0.104 Z-0.813 I0.125 J-0.104
X-12.125 Y0.104 Z-0.844 I-0.125 J0.104
X-11.875 Y-0.104 Z-0.875 I0.125 J-0.104
X-12.125 Y0.104 Z-0.905 I-0.125 J0.104
X-11.875 Y-0.104 Z-0.936 I0.125 J-0.104
X-12.125 Y0.104 Z-0.966 I-0.125 J0.104
X-11.875 Y-0.104 Z-0.997 I0.125 J-0.104
X-12.125 Y0.104 Z-1.027 I-0.125 J0.104
X-11.875 Y-0.104 Z-1.058 I0.125 J-0.104
X-12.125 Y0.104 Z-1.088 I-0.125 J0.104
X-11.875 Y-0.104 Z-1.119 I0.125 J-0.104
X-12.125 Y0.104 Z-1.15 I-0.125 J0.104
X-11.875 Y-0.104 Z-1.18 I0.125 J-0.104
X-12.125 Y0.104 Z-1.211 I-0.125 J0.104
X-11.875 Y-0.104 Z-1.241 I0.125 J-0.104
X-12.125 Y0.104 Z-1.272 I-0.125 J0.104
X-11.875 Y-0.104 Z-1.302 I0.125 J-0.104
X-12.125 Y0.104 Z-1.333 I-0.125 J0.104
X-11.875 Y-0.104 Z-1.363 I0.125 J-0.104
X-12.125 Y0.104 Z-1.394 I-0.125 J0.104
X-11.875 Y-0.104 Z-1.424 I0.125 J-0.104
X-12.125 Y0.104 Z-1.455 I-0.125 J0.104
X-11.875 Y-0.104 Z-1.486 I0.125 J-0.104
X-11.887 Y0.116 Z-1.5 I-0.125 J0.104
X-12.113 Y-0.116 I-0.113 J-0.116
X-11.887 Y0.116 I0.113 J0.116
G1 X-11.913 Y0.134
X-11.944 Y0.139
X-11.975 Y0.133
X-12.001 Y0.115
X-12.112 Y0.001
G0 Z5
X-21.044 Y1.277
Z2.5
G1 Z0.817 F1000
X-21.05 Y1.282 Z0.747
X-21.068 Y1.297 Z0.68
X-21.097 Y1.322 Z0.62
X-21.136 Y1.354 Z0.569
X-21.182 Y1.392 Z0.531
X-21.234 Y1.435 Z0.508
X-21.288 Y1.48 Z0.5
X-21.411 Y1.581
G3 X-21.858 Y1.539 I-0.203 J-0.244
X-18.142 Y-1.539 Z0.43 I1.858 J-1.539
X-21.858 Y1.539 Z0.36 I-1.858 J1.539
X-18.142 Y-1.539 Z0.291 I1.858 J-1.539
X-21.858 Y1.539 Z0.221 I-1.858 J1.539
X-18.142 Y-1.539 Z0.151 I1.858 J-1.539
X-21.858 Y1.539 Z0.081 I-1.858 J1.539
X-18.142 Y-1.539 Z0.011 I1.858 J-1.539
X-21.858 Y1.539 Z-0.059 I-1.858 J1.539
X-18.142 Y-1.539 Z-0.128 I1.858 J-1.539
X-21.858 Y1.539 Z-0.198 I-1.858 J1.539
X-18.142 Y-1.539 Z-0.268 I1.858 J-1.539
X-21.858 Y1.539 Z-0.338 I-1.858 J1.539
X-18.142 Y-1.539 Z-0.408 I1.858 J-1.539
X-21.858 Y1.539 Z-0.477 I-1.858 J1.539
X-18.142 Y-1.539 Z-0.547 I1.858 J-1.539
X-21.858 Y1.539 Z-0.617 I-1.858 J1.539
X-18.142 Y-1.539 Z-0.687 I1.858 J-1.539
X-21.858 Y1.539 Z-0.757 I-1.858 J1.539
X-18.142 Y-1.539 Z-0.827 I1.858 J-1.539
X-21.858 Y1.539 Z-0.896 I-1.858 J1.539
X-18.142 Y-1.539 Z-0.966 I1.858 J-1.539
X-21.858 Y1.539 Z-1.036 I-1.858 J1.539
X-18.142 Y-1.539 Z-1.106 I1.858 J-1.539
X-21.858 Y1.539 Z-1.176 I-1.858 J1.539
X-18.142 Y-1.539 Z-1.246 I1.858 J-1.539
X-21.858 Y1.539 Z-1.315 I-1.858 J1.539
X-18.142 Y-1.539 Z-1.385 I1.858 J-1.539
X-21.858 Y1.539 Z-1.455 I-1.858 J1.539
X-20.565 Y-2.345 Z-1.5 I1.858 J-1.539
X-19.435 Y2.345 I0.565 J2.345
X-20.565 Y-2.345 I-0.565 J-2.345
X-20.182 Y-2.111 I0.074 J0.309
G1 X-20.145 Y-1.957
X-20.128 Y-1.888 Z-1.492
X-20.113 Y-1.823 Z-1.469
X-20.099 Y-1.764 Z-1.431
X-20.087 Y-1.715 Z-1.38
X-20.078 Y-1.679 Z-1.32
X-20.072 Y-1.656 Z-1.253
X-20.071 Y-1.648 Z-1.183
G0 Z5
X-27.888 Y0.013
Z2.182
G1 Z0.5 F1000
X-28.011 Y0.114
X-28.039 Y0.129
X-28.07 Y0.133
X-28.101 Y0.124
X-28.125 Y0.104
G3 X-27.875 Y-0.104 Z0.469 I0.125 J-0.104
X-28.125 Y0.104 Z0.439 I-0.125 J0.104
X-27.875 Y-0.104 Z0.408 I0.125 J-0.104
X-28.125 Y0.104 Z0.378 I-0.125 J0.104
X-27.875 Y-0.104 Z0.347 I0.125 J-0.104
X-28.125 Y0.104 Z0.317 I-0.125 J0.104
X-27.875 Y-0.104 Z0.286 I0.125 J-0.104
X-28.125 Y0.104 Z0.256 I-0.125 J0.104
X-27.875 Y-0.104 Z0.225 I0.125 J-0.104
X-28.125 Y0.104 Z0.195 I-0.125 J0.104
X-27.875 Y-0.104 Z0.164 I0.125 J-0.104
X-28.125 Y0.104 Z0.133 I-0.125 J0.104
X-27.875 Y-0.104 Z0.103 I0.125 J-0.104
X-28.125 Y0.104 Z0.072 I-0.125 J0.104
X-27.875 Y-0.104 Z0.042 I0.125 J-0.104
X-28.125 Y0.104 Z0.011 I-0.125 J0.104
X-27.875 Y-0.104 Z-0.019 I0.125 J-0.104
X-28.125 Y0.104 Z-0.05 I-0.125 J0.104
X-27.875 Y-0.104 Z-0.08 I0.125 J-0.104
X-28.125 Y0.104 Z-0.111 I-0.125 J0.104
X-27.875 Y-0.104 Z-0.141 I0.125 J-0.104
X-28.125 Y0.104 Z-0.172 I-0.125 J0.104
X-27.875 Y-0.104 Z-0.203 I0.125 J-0.104
X-28.125 Y0.104 Z-0.233 I-0.125 J0.104
X-27.875 Y-0.104 Z-0.264 I0.125 J-0.104
X-28.125 Y0.104 Z-0.294 I-0.125 J0.104
X-27.875 Y-0.104 Z-0.325 I0.125 J-0.104
X-28.125 Y0.104 Z-0.355 I-0.125 J0.104
X-27.875 Y-0.104 Z-0.386 I0.125 J-0.104
X-28.125 Y0.104 Z-0.416 I-0.125 J0.104
X-27.875 Y-0.104 Z-0.447 I0.125 J-0.104
X-28.125 Y0.104 Z-0.477 I-0.125 J0.104
X-27.875 Y-0.104 Z-0.508 I0.125 J-0.104
X-28.125 Y0.104 Z-0.539 I-0.125 J0.104
X-27.875 Y-0.104 Z-0.569 I0.125 J-0.104
X-28.125 Y0.104 Z-0.6 I-0.125 J0.104
X-27.875 Y-0.104 Z-0.63 I0.125 J-0.104
X-28.125 Y0.104 Z-0.661 I-0.125 J0.104
X-27.875 Y-0.104 Z-0.691 I0.125 J-0.104
X-28.125 Y0.104 Z-0.722 I-0.125 J0.104
X-27.875 Y-0.104 Z-0.752 I0.125 J-0.104
X-28.125 Y0.104 Z-0.783 I-0.125 J0.104
X-27.875 Y-0.104 Z-0.813 I0.125 J-0.104
X-28.125 Y0.104 Z-0.844 I-0.125 J0.104
X-27.875 Y-0.104 Z-0.875 I0.125 J-0.104
X-28.125 Y0.104 Z-0.905 I-0.125 J0.104
X-27.875 Y-0.104 Z-0.936 I0.125 J-0.104
X-28.125 Y0.104 Z-0.966 I-0.125 J0.104
X-27.875 Y-0.104 Z-0.997 I0.125 J-0.104
X-28.125 Y0.104 Z-1.027 I-0.125 J0.104
X-27.875 Y-0.104 Z-1.058 I0.125 J-0.104
X-28.125 Y0.104 Z-1.088 I-0.125 J0.104
X-27.875 Y-0.104 Z-1.119 I0.125 J-0.104
X-28.125 Y0.104 Z-1.15 I-0.125 J0.104
X-27.875 Y-0.104 Z-1.18 I0.125 J-0.104
X-28.125 Y0.104 Z-1.211 I-0.125 J0.104
X-27.875 Y-0.104 Z-1.241 I0.125 J-0.104
X-28.125 Y0.104 Z-1.272 I-0.125 J0.104
X-27.875 Y-0.104 Z-1.302 I0.125 J-0.104
X-28.125 Y0.104 Z-1.333 I-0.125 J0.104
X-27.875 Y-0.104 Z-1.363 I0.125 J-0.104
X-28.125 Y0.104 Z-1.394 I-0.125 J0.104
X-27.875 Y-0.104 Z-1.424 I0.125 J-0.104
X-28.125 Y0.104 Z-1.455 I-0.125 J0.104
X-27.875 Y-0.104 Z-1.486 I0.125 J-0.104
X-27.887 Y0.116 Z-1.5 I-0.125 J0.104
X-28.113 Y-0.116 I-0.113 J-0.116
X-27.887 Y0.116 I0.113 J0.116
G1 X-27.913 Y0.134
X-27.944 Y0.139
X-27.975 Y0.133
X-28.001 Y0.115
X-28.112 Y0.001
G0 Z15

(Bohrfrasen2 2)
X-27.888 Y0.013
Z15
Z-11.818
G1 Z-13.5 F1000
X-28.011 Y0.114
X-28.039 Y0.129
X-28.07 Y0.133
X-28.101 Y0.124
X-28.125 Y0.104
G3 X-27.875 Y-0.104 Z-13.531 I0.125 J-0.104
X-28.125 Y0.104 Z-13.561 I-0.125 J0.104
X-27.875 Y-0.104 Z-13.592 I0.125 J-0.104
X-28.125 Y0.104 Z-13.622 I-0.125 J0.104
X-27.875 Y-0.104 Z-13.653 I0.125 J-0.104
X-28.125 Y0.104 Z-13.683 I-0.125 J0.104
X-27.875 Y-0.104 Z-13.714 I0.125 J-0.104
X-28.125 Y0.104 Z-13.744 I-0.125 J0.104
X-27.875 Y-0.104 Z-13.775 I0.125 J-0.104
X-28.125 Y0.104 Z-13.805 I-0.125 J0.104
X-27.875 Y-0.104 Z-13.836 I0.125 J-0.104
X-28.125 Y0.104 Z-13.867 I-0.125 J0.104
X-27.875 Y-0.104 Z-13.897 I0.125 J-0.104
X-28.125 Y0.104 Z-13.928 I-0.125 J0.104
X-27.875 Y-0.104 Z-13.958 I0.125 J-0.104
X-28.125 Y0.104 Z-13.989 I-0.125 J0.104
X-27.875 Y-0.104 Z-14.019 I0.125 J-0.104
X-28.125 Y0.104 Z-14.05 I-0.125 J0.104
X-27.875 Y-0.104 Z-14.08 I0.125 J-0.104
X-28.125 Y0.104 Z-14.111 I-0.125 J0.104
X-27.875 Y-0.104 Z-14.141 I0.125 J-0.104
X-28.125 Y0.104 Z-14.172 I-0.125 J0.104
X-27.875 Y-0.104 Z-14.203 I0.125 J-0.104
X-28.125 Y0.104 Z-14.233 I-0.125 J0.104
X-27.875 Y-0.104 Z-14.264 I0.125 J-0.104
X-28.125 Y0.104 Z-14.294 I-0.125 J0.104
X-27.875 Y-0.104 Z-14.325 I0.125 J-0.104
X-28.125 Y0.104 Z-14.355 I-0.125 J0.104
X-27.875 Y-0.104 Z-14.386 I0.125 J-0.104
X-28.125 Y0.104 Z-14.416 I-0.125 J0.104
X-27.875 Y-0.104 Z-14.447 I0.125 J-0.104
X-28.125 Y0.104 Z-14.477 I-0.125 J0.104
X-27.875 Y-0.104 Z-14.508 I0.125 J-0.104
X-28.125 Y0.104 Z-14.539 I-0.125 J0.104
X-27.875 Y-0.104 Z-14.569 I0.125 J-0.104
X-28.125 Y0.104 Z-14.6 I-0.125 J0.104
X-27.875 Y-0.104 Z-14.63 I0.125 J-0.104
X-28.125 Y0.104 Z-14.661 I-0.125 J0.104
X-27.875 Y-0.104 Z-14.691 I0.125 J-0.104
X-28.125 Y0.104 Z-14.722 I-0.125 J0.104
X-27.875 Y-0.104 Z-14.752 I0.125 J-0.104
X-28.125 Y0.104 Z-14.783 I-0.125 J0.104
X-27.875 Y-0.104 Z-14.813 I0.125 J-0.104
X-28.125 Y0.104 Z-14.844 I-0.125 J0.104
X-27.875 Y-0.104 Z-14.875 I0.125 J-0.104
X-28.125 Y0.104 Z-14.905 I-0.125 J0.104
X-27.875 Y-0.104 Z-14.936 I0.125 J-0.104
X-28.125 Y0.104 Z-14.966 I-0.125 J0.104
X-27.875 Y-0.104 Z-14.997 I0.125 J-0.104
X-28.125 Y0.104 Z-15.027 I-0.125 J0.104
X-27.875 Y-0.104 Z-15.058 I0.125 J-0.104
X-28.125 Y0.104 Z-15.088 I-0.125 J0.104
X-27.875 Y-0.104 Z-15.119 I0.125 J-0.104
X-28.125 Y0.104 Z-15.15 I-0.125 J0.104
X-27.875 Y-0.104 Z-15.18 I0.125 J-0.104
X-28.125 Y0.104 Z-15.211 I-0.125 J0.104
X-27.875 Y-0.104 Z-15.241 I0.125 J-0.104
X-28.125 Y0.104 Z-15.272 I-0.125 J0.104
X-27.875 Y-0.104 Z-15.302 I0.125 J-0.104
X-28.125 Y0.104 Z-15.333 I-0.125 J0.104
X-27.875 Y-0.104 Z-15.363 I0.125 J-0.104
X-28.125 Y0.104 Z-15.394 I-0.125 J0.104
X-27.875 Y-0.104 Z-15.424 I0.125 J-0.104
X-28.125 Y0.104 Z-15.455 I-0.125 J0.104
X-27.875 Y-0.104 Z-15.486 I0.125 J-0.104
X-27.887 Y0.116 Z-15.5 I-0.125 J0.104
X-28.113 Y-0.116 I-0.113 J-0.116
X-27.887 Y0.116 I0.113 J0.116
G1 X-27.913 Y0.134
X-27.944 Y0.139
X-27.975 Y0.133
X-28.001 Y0.115
X-28.112 Y0.001
G0 Z5
X-21.044 Y1.277
Z-11.5
G1 Z-13.182 F1000
X-21.05 Y1.282 Z-13.253
X-21.068 Y1.297 Z-13.32
X-21.097 Y1.322 Z-13.38
X-21.136 Y1.354 Z-13.431
X-21.182 Y1.392 Z-13.469
X-21.234 Y1.435 Z-13.492
X-21.288 Y1.48 Z-13.5
X-21.411 Y1.581
G3 X-21.858 Y1.539 I-0.203 J-0.244
X-18.142 Y-1.539 Z-13.57 I1.858 J-1.539
X-21.858 Y1.539 Z-13.64 I-1.858 J1.539
X-18.142 Y-1.539 Z-13.709 I1.858 J-1.539
X-21.858 Y1.539 Z-13.779 I-1.858 J1.539
X-18.142 Y-1.539 Z-13.849 I1.858 J-1.539
X-21.858 Y1.539 Z-13.919 I-1.858 J1.539
X-18.142 Y-1.539 Z-13.989 I1.858 J-1.539
X-21.858 Y1.539 Z-14.059 I-1.858 J1.539
X-18.142 Y-1.539 Z-14.128 I1.858 J-1.539
X-21.858 Y1.539 Z-14.198 I-1.858 J1.539
X-18.142 Y-1.539 Z-14.268 I1.858 J-1.539
X-21.858 Y1.539 Z-14.338 I-1.858 J1.539
X-18.142 Y-1.539 Z-14.408 I1.858 J-1.539
X-21.858 Y1.539 Z-14.477 I-1.858 J1.539
X-18.142 Y-1.539 Z-14.547 I1.858 J-1.539
X-21.858 Y1.539 Z-14.617 I-1.858 J1.539
X-18.142 Y-1.539 Z-14.687 I1.858 J-1.539
X-21.858 Y1.539 Z-14.757 I-1.858 J1.539
X-18.142 Y-1.539 Z-14.827 I1.858 J-1.539
X-21.858 Y1.539 Z-14.896 I-1.858 J1.539
X-18.142 Y-1.539 Z-14.966 I1.858 J-1.539
X-21.858 Y1.539 Z-15.036 I-1.858 J1.539
X-18.142 Y-1.539 Z-15.106 I1.858 J-1.539
X-21.858 Y1.539 Z-15.176 I-1.858 J1.539
X-18.142 Y-1.539 Z-15.246 I1.858 J-1.539
X-21.858 Y1.539 Z-15.315 I-1.858 J1.539
X-18.142 Y-1.539 Z-15.385 I1.858 J-1.539
X-21.858 Y1.539 Z-15.455 I-1.858 J1.539
X-20.565 Y-2.345 Z-15.5 I1.858 J-1.539
X-19.435 Y2.345 I0.565 J2.345
X-20.565 Y-2.345 I-0.565 J-2.345
X-20.182 Y-2.111 I0.074 J0.309
G1 X-20.145 Y-1.957
X-20.128 Y-1.888 Z-15.492
X-20.113 Y-1.823 Z-15.469
X-20.099 Y-1.764 Z-15.431
X-20.087 Y-1.715 Z-15.38
X-20.078 Y-1.679 Z-15.32
X-20.072 Y-1.656 Z-15.253
X-20.071 Y-1.648 Z-15.182
G0 Z5
X-11.888 Y0.013
Z-11.818
G1 Z-13.5 F1000
X-12.011 Y0.114
X-12.039 Y0.129
X-12.07 Y0.133
X-12.101 Y0.124
X-12.125 Y0.104
G3 X-11.875 Y-0.104 Z-13.531 I0.125 J-0.104
X-12.125 Y0.104 Z-13.561 I-0.125 J0.104
X-11.875 Y-0.104 Z-13.592 I0.125 J-0.104
X-12.125 Y0.104 Z-13.622 I-0.125 J0.104
X-11.875 Y-0.104 Z-13.653 I0.125 J-0.104
X-12.125 Y0.104 Z-13.683 I-0.125 J0.104
X-11.875 Y-0.104 Z-13.714 I0.125 J-0.104
X-12.125 Y0.104 Z-13.744 I-0.125 J0.104
X-11.875 Y-0.104 Z-13.775 I0.125 J-0.104
X-12.125 Y0.104 Z-13.805 I-0.125 J0.104
X-11.875 Y-0.104 Z-13.836 I0.125 J-0.104
X-12.125 Y0.104 Z-13.867 I-0.125 J0.104
X-11.875 Y-0.104 Z-13.897 I0.125 J-0.104
X-12.125 Y0.104 Z-13.928 I-0.125 J0.104
X-11.875 Y-0.104 Z-13.958 I0.125 J-0.104
X-12.125 Y0.104 Z-13.989 I-0.125 J0.104
X-11.875 Y-0.104 Z-14.019 I0.125 J-0.104
X-12.125 Y0.104 Z-14.05 I-0.125 J0.104
X-11.875 Y-0.104 Z-14.08 I0.125 J-0.104
X-12.125 Y0.104 Z-14.111 I-0.125 J0.104
X-11.875 Y-0.104 Z-14.141 I0.125 J-0.104
X-12.125 Y0.104 Z-14.172 I-0.125 J0.104
X-11.875 Y-0.104 Z-14.203 I0.125 J-0.104
X-12.125 Y0.104 Z-14.233 I-0.125 J0.104
X-11.875 Y-0.104 Z-14.264 I0.125 J-0.104
X-12.125 Y0.104 Z-14.294 I-0.125 J0.104
X-11.875 Y-0.104 Z-14.325 I0.125 J-0.104
X-12.125 Y0.104 Z-14.355 I-0.125 J0.104
X-11.875 Y-0.104 Z-14.386 I0.125 J-0.104
X-12.125 Y0.104 Z-14.416 I-0.125 J0.104
X-11.875 Y-0.104 Z-14.447 I0.125 J-0.104
X-12.125 Y0.104 Z-14.477 I-0.125 J0.104
X-11.875 Y-0.104 Z-14.508 I0.125 J-0.104
X-12.125 Y0.104 Z-14.539 I-0.125 J0.104
X-11.875 Y-0.104 Z-14.569 I0.125 J-0.104
X-12.125 Y0.104 Z-14.6 I-0.125 J0.104
X-11.875 Y-0.104 Z-14.63 I0.125 J-0.104
X-12.125 Y0.104 Z-14.661 I-0.125 J0.104
X-11.875 Y-0.104 Z-14.691 I0.125 J-0.104
X-12.125 Y0.104 Z-14.722 I-0.125 J0.104
X-11.875 Y-0.104 Z-14.752 I0.125 J-0.104
X-12.125 Y0.104 Z-14.783 I-0.125 J0.104
X-11.875 Y-0.104 Z-14.813 I0.125 J-0.104
X-12.125 Y0.104 Z-14.844 I-0.125 J0.104
X-11.875 Y-0.104 Z-14.875 I0.125 J-0.104
X-12.125 Y0.104 Z-14.905 I-0.125 J0.104
X-11.875 Y-0.104 Z-14.936 I0.125 J-0.104
X-12.125 Y0.104 Z-14.966 I-0.125 J0.104
X-11.875 Y-0.104 Z-14.997 I0.125 J-0.104
X-12.125 Y0.104 Z-15.027 I-0.125 J0.104
X-11.875 Y-0.104 Z-15.058 I0.125 J-0.104
X-12.125 Y0.104 Z-15.088 I-0.125 J0.104
X-11.875 Y-0.104 Z-15.119 I0.125 J-0.104
X-12.125 Y0.104 Z-15.15 I-0.125 J0.104
X-11.875 Y-0.104 Z-15.18 I0.125 J-0.104
X-12.125 Y0.104 Z-15.211 I-0.125 J0.104
X-11.875 Y-0.104 Z-15.241 I0.125 J-0.104
X-12.125 Y0.104 Z-15.272 I-0.125 J0.104
X-11.875 Y-0.104 Z-15.302 I0.125 J-0.104
X-12.125 Y0.104 Z-15.333 I-0.125 J0.104
X-11.875 Y-0.104 Z-15.363 I0.125 J-0.104
X-12.125 Y0.104 Z-15.394 I-0.125 J0.104
X-11.875 Y-0.104 Z-15.424 I0.125 J-0.104
X-12.125 Y0.104 Z-15.455 I-0.125 J0.104
X-11.875 Y-0.104 Z-15.486 I0.125 J-0.104
X-11.887 Y0.116 Z-15.5 I-0.125 J0.104
X-12.113 Y-0.116 I-0.113 J-0.116
X-11.887 Y0.116 I0.113 J0.116
G1 X-11.913 Y0.134
X-11.944 Y0.139
X-11.975 Y0.133
X-12.001 Y0.115
X-12.112 Y0.001
G0 Z15

(Bohrfrasen2 3)
X-230.389 Y0.32
Z15
Z2.5
G1 Z0.817 F1000
X-230.395 Y0.325 Z0.747
X-230.413 Y0.34 Z0.68
X-230.443 Y0.364 Z0.62
X-230.481 Y0.397 Z0.569
X-230.528 Y0.435 Z0.531
X-230.579 Y0.478 Z0.508
X-230.634 Y0.523 Z0.5
X-230.756 Y0.624
G3 X-231.203 Y0.582 I-0.203 J-0.244
X-229.798 Y-0.582 Z0.456 I0.703 J-0.582
X-231.203 Y0.582 Z0.413 I-0.703 J0.582
X-229.798 Y-0.582 Z0.369 I0.703 J-0.582
X-231.203 Y0.582 Z0.325 I-0.703 J0.582
X-229.798 Y-0.582 Z0.282 I0.703 J-0.582
X-231.203 Y0.582 Z0.238 I-0.703 J0.582
X-229.798 Y-0.582 Z0.195 I0.703 J-0.582
X-231.203 Y0.582 Z0.151 I-0.703 J0.582
X-229.798 Y-0.582 Z0.107 I0.703 J-0.582
X-231.203 Y0.582 Z0.064 I-0.703 J0.582
X-229.798 Y-0.582 Z0.02 I0.703 J-0.582
X-231.203 Y0.582 Z-0.024 I-0.703 J0.582
X-229.798 Y-0.582 Z-0.067 I0.703 J-0.582
X-231.203 Y0.582 Z-0.111 I-0.703 J0.582
X-229.798 Y-0.582 Z-0.155 I0.703 J-0.582
X-231.203 Y0.582 Z-0.198 I-0.703 J0.582
X-229.798 Y-0.582 Z-0.242 I0.703 J-0.582
X-231.203 Y0.582 Z-0.285 I-0.703 J0.582
X-229.798 Y-0.582 Z-0.329 I0.703 J-0.582
X-231.203 Y0.582 Z-0.373 I-0.703 J0.582
X-229.798 Y-0.582 Z-0.416 I0.703 J-0.582
X-231.203 Y0.582 Z-0.46 I-0.703 J0.582
X-229.798 Y-0.582 Z-0.504 I0.703 J-0.582
X-231.203 Y0.582 Z-0.547 I-0.703 J0.582
X-229.798 Y-0.582 Z-0.591 I0.703 J-0.582
X-231.203 Y0.582 Z-0.635 I-0.703 J0.582
X-229.798 Y-0.582 Z-0.678 I0.703 J-0.582
X-231.203 Y0.582 Z-0.722 I-0.703 J0.582
X-229.798 Y-0.582 Z-0.765 I0.703 J-0.582
X-231.203 Y0.582 Z-0.809 I-0.703 J0.582
X-229.798 Y-0.582 Z-0.853 I0.703 J-0.582
X-231.203 Y0.582 Z-0.896 I-0.703 J0.582
X-229.798 Y-0.582 Z-0.94 I0.703 J-0.582
X-231.203 Y0.582 Z-0.984 I-0.703 J0.582
X-229.798 Y-0.582 Z-1.027 I0.703 J-0.582
X-231.203 Y0.582 Z-1.071 I-0.703 J0.582
X-229.798 Y-0.582 Z-1.115 I0.703 J-0.582
X-231.203 Y0.582 Z-1.158 I-0.703 J0.582
X-229.798 Y-0.582 Z-1.202 I0.703 J-0.582
X-231.203 Y0.582 Z-1.246 I-0.703 J0.582
X-229.798 Y-0.582 Z-1.289 I0.703 J-0.582
X-231.203 Y0.582 Z-1.333 I-0.703 J0.582
X-229.798 Y-0.582 Z-1.376 I0.703 J-0.582
X-231.203 Y0.582 Z-1.42 I-0.703 J0.582
X-229.798 Y-0.582 Z-1.464 I0.703 J-0.582
X-230.814 Y0.857 Z-1.5 I-0.703 J0.582
X-230.187 Y-0.857 I0.314 J-0.857
X-230.814 Y0.857 I-0.314 J0.857
X-231.003 Y0.45 I0.109 J-0.298
G1 X-230.949 Y0.301
X-230.924 Y0.234 Z-1.492
X-230.901 Y0.171 Z-1.469
X-230.881 Y0.115 Z-1.431
X-230.863 Y0.067 Z-1.38
X-230.85 Y0.032 Z-1.32
X-230.842 Y0.01 Z-1.253
X-230.839 Y0.002 Z-1.183
G0 Z15

(Bohrfrasen2 4)
X-230.389 Y0.32
Z15
Z-11.5
G1 Z-13.182 F1000
X-230.395 Y0.325 Z-13.253
X-230.413 Y0.34 Z-13.32
X-230.443 Y0.364 Z-13.38
X-230.481 Y0.397 Z-13.431
X-230.528 Y0.435 Z-13.469
X-230.579 Y0.478 Z-13.492
X-230.634 Y0.523 Z-13.5
X-230.756 Y0.624
G3 X-231.203 Y0.582 I-0.203 J-0.244
X-229.798 Y-0.582 Z-13.544 I0.703 J-0.582
X-231.203 Y0.582 Z-13.587 I-0.703 J0.582
X-229.798 Y-0.582 Z-13.631 I0.703 J-0.582
X-231.203 Y0.582 Z-13.675 I-0.703 J0.582
X-229.798 Y-0.582 Z-13.718 I0.703 J-0.582
X-231.203 Y0.582 Z-13.762 I-0.703 J0.582
X-229.798 Y-0.582 Z-13.805 I0.703 J-0.582
X-231.203 Y0.582 Z-13.849 I-0.703 J0.582
X-229.798 Y-0.582 Z-13.893 I0.703 J-0.582
X-231.203 Y0.582 Z-13.936 I-0.703 J0.582
X-229.798 Y-0.582 Z-13.98 I0.703 J-0.582
X-231.203 Y0.582 Z-14.024 I-0.703 J0.582
X-229.798 Y-0.582 Z-14.067 I0.703 J-0.582
X-231.203 Y0.582 Z-14.111 I-0.703 J0.582
X-229.798 Y-0.582 Z-14.155 I0.703 J-0.582
X-231.203 Y0.582 Z-14.198 I-0.703 J0.582
X-229.798 Y-0.582 Z-14.242 I0.703 J-0.582
X-231.203 Y0.582 Z-14.285 I-0.703 J0.582
X-229.798 Y-0.582 Z-14.329 I0.703 J-0.582
X-231.203 Y0.582 Z-14.373 I-0.703 J0.582
X-229.798 Y-0.582 Z-14.416 I0.703 J-0.582
X-231.203 Y0.582 Z-14.46 I-0.703 J0.582
X-229.798 Y-0.582 Z-14.504 I0.703 J-0.582
X-231.203 Y0.582 Z-14.547 I-0.703 J0.582
X-229.798 Y-0.582 Z-14.591 I0.703 J-0.582
X-231.203 Y0.582 Z-14.635 I-0.703 J0.582
X-229.798 Y-0.582 Z-14.678 I0.703 J-0.582
X-231.203 Y0.582 Z-14.722 I-0.703 J0.582
X-229.798 Y-0.582 Z-14.765 I0.703 J-0.582
X-231.203 Y0.582 Z-14.809 I-0.703 J0.582
X-229.798 Y-0.582 Z-14.853 I0.703 J-0.582
X-231.203 Y0.582 Z-14.896 I-0.703 J0.582
X-229.798 Y-0.582 Z-14.94 I0.703 J-0.582
X-231.203 Y0.582 Z-14.984 I-0.703 J0.582
X-229.798 Y-0.582 Z-15.027 I0.703 J-0.582
X-231.203 Y0.582 Z-15.071 I-0.703 J0.582
X-229.798 Y-0.582 Z-15.115 I0.703 J-0.582
X-231.203 Y0.582 Z-15.158 I-0.703 J0.582
X-229.798 Y-0.582 Z-15.202 I0.703 J-0.582
X-231.203 Y0.582 Z-15.246 I-0.703 J0.582
X-229.798 Y-0.582 Z-15.289 I0.703 J-0.582
X-231.203 Y0.582 Z-15.333 I-0.703 J0.582
X-229.798 Y-0.582 Z-15.376 I0.703 J-0.582
X-231.203 Y0.582 Z-15.42 I-0.703 J0.582
X-229.798 Y-0.582 Z-15.464 I0.703 J-0.582
X-230.814 Y0.857 Z-15.5 I-0.703 J0.582
X-230.187 Y-0.857 I0.314 J-0.857
X-230.814 Y0.857 I-0.314 J0.857
X-231.003 Y0.45 I0.109 J-0.298
G1 X-230.949 Y0.301
X-230.924 Y0.234 Z-15.492
X-230.901 Y0.171 Z-15.469
X-230.881 Y0.115 Z-15.431
X-230.863 Y0.067 Z-15.38
X-230.85 Y0.032 Z-15.32
X-230.842 Y0.01 Z-15.253
X-230.839 Y0.002 Z-15.182
G0 Z15

(2D-Kontur3)
X-242.087 Y-9.818
Z15
Z5
G1 Z1 F333.3
Z-0.183
G19 G3 Y-9.5 Z-0.5 J0.318 K0 F1000
G1 Y-6.5
Y6.5
Y9.5
G3 Y9.818 Z-0.183 J0 K0.317
G0 Z15
G17
M5
M30
