(X500_Top_Bohren_1-5)
(T14  D=1.5 CR=0 - ZMIN=-2.2 - Schaftfraser)
G90 G94
G17
G21

(Bohrfrasen3)
T14
S4000 M3
G54
G0 X-137.65 Y-82.625
Z15
Z2.2
G1 Z0.35 F400
Y-82.632 Z0.304
Y-82.654 Z0.262
Y-82.687 Z0.229
Y-82.729 Z0.207
Y-82.775 Z0.2
Y-82.85
X-137.643 Y-82.896
X-137.621 Y-82.938
X-137.588 Y-82.971
X-137.546 Y-82.993
X-137.5 Y-83
G3 X-137.5 Y-82 Z0.178 I0 J0.5 F600
X-137.5 Y-83 Z0.156 I0 J-0.5
X-137.5 Y-82 Z0.135 I0 J0.5
X-137.5 Y-83 Z0.113 I0 J-0.5
X-137.5 Y-82 Z0.091 I0 J0.5
X-137.5 Y-83 Z0.069 I0 J-0.5
X-137.5 Y-82 Z0.047 I0 J0.5
X-137.5 Y-83 Z0.025 I0 J-0.5
X-137.5 Y-82 Z0.004 I0 J0.5
X-137.5 Y-83 Z-0.018 I0 J-0.5
X-137.5 Y-82 Z-0.04 I0 J0.5
X-137.5 Y-83 Z-0.062 I0 J-0.5
X-137.5 Y-82 Z-0.084 I0 J0.5
X-137.5 Y-83 Z-0.105 I0 J-0.5
X-137.5 Y-82 Z-0.127 I0 J0.5
X-137.5 Y-83 Z-0.149 I0 J-0.5
X-137.5 Y-82 Z-0.171 I0 J0.5
X-137.5 Y-83 Z-0.193 I0 J-0.5
X-137.5 Y-82 Z-0.215 I0 J0.5
X-137.5 Y-83 Z-0.236 I0 J-0.5
X-137.5 Y-82 Z-0.258 I0 J0.5
X-137.5 Y-83 Z-0.28 I0 J-0.5
X-137.5 Y-82 Z-0.302 I0 J0.5
X-137.5 Y-83 Z-0.324 I0 J-0.5
X-137.5 Y-82 Z-0.345 I0 J0.5
X-137.5 Y-83 Z-0.367 I0 J-0.5
X-137.5 Y-82 Z-0.389 I0 J0.5
X-137.5 Y-83 Z-0.411 I0 J-0.5
X-137.5 Y-82 Z-0.433 I0 J0.5
X-137.5 Y-83 Z-0.455 I0 J-0.5
X-137.5 Y-82 Z-0.476 I0 J0.5
X-137.5 Y-83 Z-0.498 I0 J-0.5
X-137.5 Y-82 Z-0.52 I0 J0.5
X-137.5 Y-83 Z-0.542 I0 J-0.5
X-137.5 Y-82 Z-0.564 I0 J0.5
X-137.5 Y-83 Z-0.585 I0 J-0.5
X-137.5 Y-82 Z-0.607 I0 J0.5
X-137.5 Y-83 Z-0.629 I0 J-0.5
X-137.5 Y-82 Z-0.651 I0 J0.5
X-137.5 Y-83 Z-0.673 I0 J-0.5
X-137.5 Y-82 Z-0.695 I0 J0.5
X-137.5 Y-83 Z-0.716 I0 J-0.5
X-137.5 Y-82 Z-0.738 I0 J0.5
X-137.5 Y-83 Z-0.76 I0 J-0.5
X-137.5 Y-82 Z-0.782 I0 J0.5
X-137.5 Y-83 Z-0.804 I0 J-0.5
X-137.5 Y-82 Z-0.825 I0 J0.5
X-137.5 Y-83 Z-0.847 I0 J-0.5
X-137.5 Y-82 Z-0.869 I0 J0.5
X-137.5 Y-83 Z-0.891 I0 J-0.5
X-137.5 Y-82 Z-0.913 I0 J0.5
X-137.5 Y-83 Z-0.935 I0 J-0.5
X-137.5 Y-82 Z-0.956 I0 J0.5
X-137.5 Y-83 Z-0.978 I0 J-0.5
X-137.5 Y-82 Z-1 I0 J0.5
X-137.5 Y-83 Z-1.022 I0 J-0.5
X-137.5 Y-82 Z-1.044 I0 J0.5
X-137.5 Y-83 Z-1.065 I0 J-0.5
X-137.5 Y-82 Z-1.087 I0 J0.5
X-137.5 Y-83 Z-1.109 I0 J-0.5
X-137.5 Y-82 Z-1.131 I0 J0.5
X-137.5 Y-83 Z-1.153 I0 J-0.5
X-137.5 Y-82 Z-1.175 I0 J0.5
X-137.5 Y-83 Z-1.196 I0 J-0.5
X-137.5 Y-82 Z-1.218 I0 J0.5
X-137.5 Y-83 Z-1.24 I0 J-0.5
X-137.5 Y-82 Z-1.262 I0 J0.5
X-137.5 Y-83 Z-1.284 I0 J-0.5
X-137.5 Y-82 Z-1.305 I0 J0.5
X-137.5 Y-83 Z-1.327 I0 J-0.5
X-137.5 Y-82 Z-1.349 I0 J0.5
X-137.5 Y-83 Z-1.371 I0 J-0.5
X-137.5 Y-82 Z-1.393 I0 J0.5
X-137.5 Y-83 Z-1.415 I0 J-0.5
X-137.5 Y-82 Z-1.436 I0 J0.5
X-137.5 Y-83 Z-1.458 I0 J-0.5
X-137.5 Y-82 Z-1.48 I0 J0.5
X-137.5 Y-83 Z-1.502 I0 J-0.5
X-137.5 Y-82 Z-1.524 I0 J0.5
X-137.5 Y-83 Z-1.546 I0 J-0.5
X-137.5 Y-82 Z-1.567 I0 J0.5
X-137.5 Y-83 Z-1.589 I0 J-0.5
X-137.5 Y-82 Z-1.611 I0 J0.5
X-137.5 Y-83 Z-1.633 I0 J-0.5
X-137.5 Y-82 Z-1.655 I0 J0.5
X-137.5 Y-83 Z-1.676 I0 J-0.5
X-137.5 Y-82 Z-1.698 I0 J0.5
X-137.5 Y-83 Z-1.72 I0 J-0.5
X-137.5 Y-82 Z-1.742 I0 J0.5
X-137.5 Y-83 Z-1.764 I0 J-0.5
X-137.5 Y-82 Z-1.786 I0 J0.5
X-137.5 Y-83 Z-1.807 I0 J-0.5
X-137.5 Y-82 Z-1.829 I0 J0.5
X-137.5 Y-83 Z-1.851 I0 J-0.5
X-137.5 Y-82 Z-1.873 I0 J0.5
X-137.5 Y-83 Z-1.895 I0 J-0.5
X-137.5 Y-82 Z-1.916 I0 J0.5
X-137.5 Y-83 Z-1.938 I0 J-0.5
X-137.5 Y-82 Z-1.96 I0 J0.5
X-137.5 Y-83 Z-1.982 I0 J-0.5
X-137.5 Y-82 Z-2.004 I0 J0.5
X-137.5 Y-83 Z-2.026 I0 J-0.5
X-137.5 Y-82 Z-2.047 I0 J0.5
X-137.5 Y-83 Z-2.069 I0 J-0.5
X-137.5 Y-82 Z-2.091 I0 J0.5
X-137.5 Y-83 Z-2.113 I0 J-0.5
X-137.5 Y-82 Z-2.135 I0 J0.5
X-137.5 Y-83 Z-2.156 I0 J-0.5
X-137.5 Y-82 Z-2.178 I0 J0.5
X-137.505 Y-83 Z-2.2 I0 J-0.5
X-137.495 Y-82 I0.005 J0.5
X-137.505 Y-83 I-0.005 J-0.5
G1 X-137.459 Y-82.993
X-137.417 Y-82.972
X-137.383 Y-82.939
X-137.361 Y-82.898
X-137.354 Y-82.852
X-137.353 Y-82.777
X-137.352 Y-82.73 Z-2.193
Y-82.688 Z-2.171
Y-82.655 Z-2.138
X-137.351 Y-82.634 Z-2.096
Y-82.627 Z-2.05
G0 Z5
X-162.65 Y-82.625
Z2.2
G1 Z0.35 F400
Y-82.632 Z0.304
Y-82.654 Z0.262
Y-82.687 Z0.229
Y-82.729 Z0.207
Y-82.775 Z0.2
Y-82.85
X-162.643 Y-82.896
X-162.621 Y-82.938
X-162.588 Y-82.971
X-162.546 Y-82.993
X-162.5 Y-83
G3 X-162.5 Y-82 Z0.178 I0 J0.5 F600
X-162.5 Y-83 Z0.156 I0 J-0.5
X-162.5 Y-82 Z0.135 I0 J0.5
X-162.5 Y-83 Z0.113 I0 J-0.5
X-162.5 Y-82 Z0.091 I0 J0.5
X-162.5 Y-83 Z0.069 I0 J-0.5
X-162.5 Y-82 Z0.047 I0 J0.5
X-162.5 Y-83 Z0.025 I0 J-0.5
X-162.5 Y-82 Z0.004 I0 J0.5
X-162.5 Y-83 Z-0.018 I0 J-0.5
X-162.5 Y-82 Z-0.04 I0 J0.5
X-162.5 Y-83 Z-0.062 I0 J-0.5
X-162.5 Y-82 Z-0.084 I0 J0.5
X-162.5 Y-83 Z-0.105 I0 J-0.5
X-162.5 Y-82 Z-0.127 I0 J0.5
X-162.5 Y-83 Z-0.149 I0 J-0.5
X-162.5 Y-82 Z-0.171 I0 J0.5
X-162.5 Y-83 Z-0.193 I0 J-0.5
X-162.5 Y-82 Z-0.215 I0 J0.5
X-162.5 Y-83 Z-0.236 I0 J-0.5
X-162.5 Y-82 Z-0.258 I0 J0.5
X-162.5 Y-83 Z-0.28 I0 J-0.5
X-162.5 Y-82 Z-0.302 I0 J0.5
X-162.5 Y-83 Z-0.324 I0 J-0.5
X-162.5 Y-82 Z-0.345 I0 J0.5
X-162.5 Y-83 Z-0.367 I0 J-0.5
X-162.5 Y-82 Z-0.389 I0 J0.5
X-162.5 Y-83 Z-0.411 I0 J-0.5
X-162.5 Y-82 Z-0.433 I0 J0.5
X-162.5 Y-83 Z-0.455 I0 J-0.5
X-162.5 Y-82 Z-0.476 I0 J0.5
X-162.5 Y-83 Z-0.498 I0 J-0.5
X-162.5 Y-82 Z-0.52 I0 J0.5
X-162.5 Y-83 Z-0.542 I0 J-0.5
X-162.5 Y-82 Z-0.564 I0 J0.5
X-162.5 Y-83 Z-0.585 I0 J-0.5
X-162.5 Y-82 Z-0.607 I0 J0.5
X-162.5 Y-83 Z-0.629 I0 J-0.5
X-162.5 Y-82 Z-0.651 I0 J0.5
X-162.5 Y-83 Z-0.673 I0 J-0.5
X-162.5 Y-82 Z-0.695 I0 J0.5
X-162.5 Y-83 Z-0.716 I0 J-0.5
X-162.5 Y-82 Z-0.738 I0 J0.5
X-162.5 Y-83 Z-0.76 I0 J-0.5
X-162.5 Y-82 Z-0.782 I0 J0.5
X-162.5 Y-83 Z-0.804 I0 J-0.5
X-162.5 Y-82 Z-0.825 I0 J0.5
X-162.5 Y-83 Z-0.847 I0 J-0.5
X-162.5 Y-82 Z-0.869 I0 J0.5
X-162.5 Y-83 Z-0.891 I0 J-0.5
X-162.5 Y-82 Z-0.913 I0 J0.5
X-162.5 Y-83 Z-0.935 I0 J-0.5
X-162.5 Y-82 Z-0.956 I0 J0.5
X-162.5 Y-83 Z-0.978 I0 J-0.5
X-162.5 Y-82 Z-1 I0 J0.5
X-162.5 Y-83 Z-1.022 I0 J-0.5
X-162.5 Y-82 Z-1.044 I0 J0.5
X-162.5 Y-83 Z-1.065 I0 J-0.5
X-162.5 Y-82 Z-1.087 I0 J0.5
X-162.5 Y-83 Z-1.109 I0 J-0.5
X-162.5 Y-82 Z-1.131 I0 J0.5
X-162.5 Y-83 Z-1.153 I0 J-0.5
X-162.5 Y-82 Z-1.175 I0 J0.5
X-162.5 Y-83 Z-1.196 I0 J-0.5
X-162.5 Y-82 Z-1.218 I0 J0.5
X-162.5 Y-83 Z-1.24 I0 J-0.5
X-162.5 Y-82 Z-1.262 I0 J0.5
X-162.5 Y-83 Z-1.284 I0 J-0.5
X-162.5 Y-82 Z-1.305 I0 J0.5
X-162.5 Y-83 Z-1.327 I0 J-0.5
X-162.5 Y-82 Z-1.349 I0 J0.5
X-162.5 Y-83 Z-1.371 I0 J-0.5
X-162.5 Y-82 Z-1.393 I0 J0.5
X-162.5 Y-83 Z-1.415 I0 J-0.5
X-162.5 Y-82 Z-1.436 I0 J0.5
X-162.5 Y-83 Z-1.458 I0 J-0.5
X-162.5 Y-82 Z-1.48 I0 J0.5
X-162.5 Y-83 Z-1.502 I0 J-0.5
X-162.5 Y-82 Z-1.524 I0 J0.5
X-162.5 Y-83 Z-1.546 I0 J-0.5
X-162.5 Y-82 Z-1.567 I0 J0.5
X-162.5 Y-83 Z-1.589 I0 J-0.5
X-162.5 Y-82 Z-1.611 I0 J0.5
X-162.5 Y-83 Z-1.633 I0 J-0.5
X-162.5 Y-82 Z-1.655 I0 J0.5
X-162.5 Y-83 Z-1.676 I0 J-0.5
X-162.5 Y-82 Z-1.698 I0 J0.5
X-162.5 Y-83 Z-1.72 I0 J-0.5
X-162.5 Y-82 Z-1.742 I0 J0.5
X-162.5 Y-83 Z-1.764 I0 J-0.5
X-162.5 Y-82 Z-1.786 I0 J0.5
X-162.5 Y-83 Z-1.807 I0 J-0.5
X-162.5 Y-82 Z-1.829 I0 J0.5
X-162.5 Y-83 Z-1.851 I0 J-0.5
X-162.5 Y-82 Z-1.873 I0 J0.5
X-162.5 Y-83 Z-1.895 I0 J-0.5
X-162.5 Y-82 Z-1.916 I0 J0.5
X-162.5 Y-83 Z-1.938 I0 J-0.5
X-162.5 Y-82 Z-1.96 I0 J0.5
X-162.5 Y-83 Z-1.982 I0 J-0.5
X-162.5 Y-82 Z-2.004 I0 J0.5
X-162.5 Y-83 Z-2.026 I0 J-0.5
X-162.5 Y-82 Z-2.047 I0 J0.5
X-162.5 Y-83 Z-2.069 I0 J-0.5
X-162.5 Y-82 Z-2.091 I0 J0.5
X-162.5 Y-83 Z-2.113 I0 J-0.5
X-162.5 Y-82 Z-2.135 I0 J0.5
X-162.5 Y-83 Z-2.156 I0 J-0.5
X-162.5 Y-82 Z-2.178 I0 J0.5
X-162.505 Y-83 Z-2.2 I0 J-0.5
X-162.495 Y-82 I0.005 J0.5
X-162.505 Y-83 I-0.005 J-0.5
G1 X-162.459 Y-82.993
X-162.417 Y-82.972
X-162.383 Y-82.939
X-162.361 Y-82.898
X-162.354 Y-82.852
X-162.353 Y-82.777
X-162.352 Y-82.73 Z-2.193
Y-82.688 Z-2.171
Y-82.655 Z-2.138
X-162.351 Y-82.634 Z-2.096
Y-82.627 Z-2.05
G0 Z5
X-162.65 Y-57.625
Z2.2
G1 Z0.35 F400
Y-57.632 Z0.304
Y-57.654 Z0.262
Y-57.687 Z0.229
Y-57.729 Z0.207
Y-57.775 Z0.2
Y-57.85
X-162.643 Y-57.896
X-162.621 Y-57.938
X-162.588 Y-57.971
X-162.546 Y-57.993
X-162.5 Y-58
G3 X-162.5 Y-57 Z0.178 I0 J0.5 F600
X-162.5 Y-58 Z0.156 I0 J-0.5
X-162.5 Y-57 Z0.135 I0 J0.5
X-162.5 Y-58 Z0.113 I0 J-0.5
X-162.5 Y-57 Z0.091 I0 J0.5
X-162.5 Y-58 Z0.069 I0 J-0.5
X-162.5 Y-57 Z0.047 I0 J0.5
X-162.5 Y-58 Z0.025 I0 J-0.5
X-162.5 Y-57 Z0.004 I0 J0.5
X-162.5 Y-58 Z-0.018 I0 J-0.5
X-162.5 Y-57 Z-0.04 I0 J0.5
X-162.5 Y-58 Z-0.062 I0 J-0.5
X-162.5 Y-57 Z-0.084 I0 J0.5
X-162.5 Y-58 Z-0.105 I0 J-0.5
X-162.5 Y-57 Z-0.127 I0 J0.5
X-162.5 Y-58 Z-0.149 I0 J-0.5
X-162.5 Y-57 Z-0.171 I0 J0.5
X-162.5 Y-58 Z-0.193 I0 J-0.5
X-162.5 Y-57 Z-0.215 I0 J0.5
X-162.5 Y-58 Z-0.236 I0 J-0.5
X-162.5 Y-57 Z-0.258 I0 J0.5
X-162.5 Y-58 Z-0.28 I0 J-0.5
X-162.5 Y-57 Z-0.302 I0 J0.5
X-162.5 Y-58 Z-0.324 I0 J-0.5
X-162.5 Y-57 Z-0.345 I0 J0.5
X-162.5 Y-58 Z-0.367 I0 J-0.5
X-162.5 Y-57 Z-0.389 I0 J0.5
X-162.5 Y-58 Z-0.411 I0 J-0.5
X-162.5 Y-57 Z-0.433 I0 J0.5
X-162.5 Y-58 Z-0.455 I0 J-0.5
X-162.5 Y-57 Z-0.476 I0 J0.5
X-162.5 Y-58 Z-0.498 I0 J-0.5
X-162.5 Y-57 Z-0.52 I0 J0.5
X-162.5 Y-58 Z-0.542 I0 J-0.5
X-162.5 Y-57 Z-0.564 I0 J0.5
X-162.5 Y-58 Z-0.585 I0 J-0.5
X-162.5 Y-57 Z-0.607 I0 J0.5
X-162.5 Y-58 Z-0.629 I0 J-0.5
X-162.5 Y-57 Z-0.651 I0 J0.5
X-162.5 Y-58 Z-0.673 I0 J-0.5
X-162.5 Y-57 Z-0.695 I0 J0.5
X-162.5 Y-58 Z-0.716 I0 J-0.5
X-162.5 Y-57 Z-0.738 I0 J0.5
X-162.5 Y-58 Z-0.76 I0 J-0.5
X-162.5 Y-57 Z-0.782 I0 J0.5
X-162.5 Y-58 Z-0.804 I0 J-0.5
X-162.5 Y-57 Z-0.825 I0 J0.5
X-162.5 Y-58 Z-0.847 I0 J-0.5
X-162.5 Y-57 Z-0.869 I0 J0.5
X-162.5 Y-58 Z-0.891 I0 J-0.5
X-162.5 Y-57 Z-0.913 I0 J0.5
X-162.5 Y-58 Z-0.935 I0 J-0.5
X-162.5 Y-57 Z-0.956 I0 J0.5
X-162.5 Y-58 Z-0.978 I0 J-0.5
X-162.5 Y-57 Z-1 I0 J0.5
X-162.5 Y-58 Z-1.022 I0 J-0.5
X-162.5 Y-57 Z-1.044 I0 J0.5
X-162.5 Y-58 Z-1.065 I0 J-0.5
X-162.5 Y-57 Z-1.087 I0 J0.5
X-162.5 Y-58 Z-1.109 I0 J-0.5
X-162.5 Y-57 Z-1.131 I0 J0.5
X-162.5 Y-58 Z-1.153 I0 J-0.5
X-162.5 Y-57 Z-1.175 I0 J0.5
X-162.5 Y-58 Z-1.196 I0 J-0.5
X-162.5 Y-57 Z-1.218 I0 J0.5
X-162.5 Y-58 Z-1.24 I0 J-0.5
X-162.5 Y-57 Z-1.262 I0 J0.5
X-162.5 Y-58 Z-1.284 I0 J-0.5
X-162.5 Y-57 Z-1.305 I0 J0.5
X-162.5 Y-58 Z-1.327 I0 J-0.5
X-162.5 Y-57 Z-1.349 I0 J0.5
X-162.5 Y-58 Z-1.371 I0 J-0.5
X-162.5 Y-57 Z-1.393 I0 J0.5
X-162.5 Y-58 Z-1.415 I0 J-0.5
X-162.5 Y-57 Z-1.436 I0 J0.5
X-162.5 Y-58 Z-1.458 I0 J-0.5
X-162.5 Y-57 Z-1.48 I0 J0.5
X-162.5 Y-58 Z-1.502 I0 J-0.5
X-162.5 Y-57 Z-1.524 I0 J0.5
X-162.5 Y-58 Z-1.546 I0 J-0.5
X-162.5 Y-57 Z-1.567 I0 J0.5
X-162.5 Y-58 Z-1.589 I0 J-0.5
X-162.5 Y-57 Z-1.611 I0 J0.5
X-162.5 Y-58 Z-1.633 I0 J-0.5
X-162.5 Y-57 Z-1.655 I0 J0.5
X-162.5 Y-58 Z-1.676 I0 J-0.5
X-162.5 Y-57 Z-1.698 I0 J0.5
X-162.5 Y-58 Z-1.72 I0 J-0.5
X-162.5 Y-57 Z-1.742 I0 J0.5
X-162.5 Y-58 Z-1.764 I0 J-0.5
X-162.5 Y-57 Z-1.786 I0 J0.5
X-162.5 Y-58 Z-1.807 I0 J-0.5
X-162.5 Y-57 Z-1.829 I0 J0.5
X-162.5 Y-58 Z-1.851 I0 J-0.5
X-162.5 Y-57 Z-1.873 I0 J0.5
X-162.5 Y-58 Z-1.895 I0 J-0.5
X-162.5 Y-57 Z-1.916 I0 J0.5
X-162.5 Y-58 Z-1.938 I0 J-0.5
X-162.5 Y-57 Z-1.96 I0 J0.5
X-162.5 Y-58 Z-1.982 I0 J-0.5
X-162.5 Y-57 Z-2.004 I0 J0.5
X-162.5 Y-58 Z-2.026 I0 J-0.5
X-162.5 Y-57 Z-2.047 I0 J0.5
X-162.5 Y-58 Z-2.069 I0 J-0.5
X-162.5 Y-57 Z-2.091 I0 J0.5
X-162.5 Y-58 Z-2.113 I0 J-0.5
X-162.5 Y-57 Z-2.135 I0 J0.5
X-162.5 Y-58 Z-2.156 I0 J-0.5
X-162.5 Y-57 Z-2.178 I0 J0.5
X-162.505 Y-58 Z-2.2 I0 J-0.5
X-162.495 Y-57 I0.005 J0.5
X-162.505 Y-58 I-0.005 J-0.5
G1 X-162.459 Y-57.993
X-162.417 Y-57.972
X-162.383 Y-57.939
X-162.361 Y-57.898
X-162.354 Y-57.852
X-162.353 Y-57.777
X-162.352 Y-57.73 Z-2.193
Y-57.688 Z-2.171
Y-57.655 Z-2.138
X-162.351 Y-57.634 Z-2.096
Y-57.627 Z-2.05
G0 Z5
X-137.65 Y-57.625
Z2.2
G1 Z0.35 F400
Y-57.632 Z0.304
Y-57.654 Z0.262
Y-57.687 Z0.229
Y-57.729 Z0.207
Y-57.775 Z0.2
Y-57.85
X-137.643 Y-57.896
X-137.621 Y-57.938
X-137.588 Y-57.971
X-137.546 Y-57.993
X-137.5 Y-58
G3 X-137.5 Y-57 Z0.178 I0 J0.5 F600
X-137.5 Y-58 Z0.156 I0 J-0.5
X-137.5 Y-57 Z0.135 I0 J0.5
X-137.5 Y-58 Z0.113 I0 J-0.5
X-137.5 Y-57 Z0.091 I0 J0.5
X-137.5 Y-58 Z0.069 I0 J-0.5
X-137.5 Y-57 Z0.047 I0 J0.5
X-137.5 Y-58 Z0.025 I0 J-0.5
X-137.5 Y-57 Z0.004 I0 J0.5
X-137.5 Y-58 Z-0.018 I0 J-0.5
X-137.5 Y-57 Z-0.04 I0 J0.5
X-137.5 Y-58 Z-0.062 I0 J-0.5
X-137.5 Y-57 Z-0.084 I0 J0.5
X-137.5 Y-58 Z-0.105 I0 J-0.5
X-137.5 Y-57 Z-0.127 I0 J0.5
X-137.5 Y-58 Z-0.149 I0 J-0.5
X-137.5 Y-57 Z-0.171 I0 J0.5
X-137.5 Y-58 Z-0.193 I0 J-0.5
X-137.5 Y-57 Z-0.215 I0 J0.5
X-137.5 Y-58 Z-0.236 I0 J-0.5
X-137.5 Y-57 Z-0.258 I0 J0.5
X-137.5 Y-58 Z-0.28 I0 J-0.5
X-137.5 Y-57 Z-0.302 I0 J0.5
X-137.5 Y-58 Z-0.324 I0 J-0.5
X-137.5 Y-57 Z-0.345 I0 J0.5
X-137.5 Y-58 Z-0.367 I0 J-0.5
X-137.5 Y-57 Z-0.389 I0 J0.5
X-137.5 Y-58 Z-0.411 I0 J-0.5
X-137.5 Y-57 Z-0.433 I0 J0.5
X-137.5 Y-58 Z-0.455 I0 J-0.5
X-137.5 Y-57 Z-0.476 I0 J0.5
X-137.5 Y-58 Z-0.498 I0 J-0.5
X-137.5 Y-57 Z-0.52 I0 J0.5
X-137.5 Y-58 Z-0.542 I0 J-0.5
X-137.5 Y-57 Z-0.564 I0 J0.5
X-137.5 Y-58 Z-0.585 I0 J-0.5
X-137.5 Y-57 Z-0.607 I0 J0.5
X-137.5 Y-58 Z-0.629 I0 J-0.5
X-137.5 Y-57 Z-0.651 I0 J0.5
X-137.5 Y-58 Z-0.673 I0 J-0.5
X-137.5 Y-57 Z-0.695 I0 J0.5
X-137.5 Y-58 Z-0.716 I0 J-0.5
X-137.5 Y-57 Z-0.738 I0 J0.5
X-137.5 Y-58 Z-0.76 I0 J-0.5
X-137.5 Y-57 Z-0.782 I0 J0.5
X-137.5 Y-58 Z-0.804 I0 J-0.5
X-137.5 Y-57 Z-0.825 I0 J0.5
X-137.5 Y-58 Z-0.847 I0 J-0.5
X-137.5 Y-57 Z-0.869 I0 J0.5
X-137.5 Y-58 Z-0.891 I0 J-0.5
X-137.5 Y-57 Z-0.913 I0 J0.5
X-137.5 Y-58 Z-0.935 I0 J-0.5
X-137.5 Y-57 Z-0.956 I0 J0.5
X-137.5 Y-58 Z-0.978 I0 J-0.5
X-137.5 Y-57 Z-1 I0 J0.5
X-137.5 Y-58 Z-1.022 I0 J-0.5
X-137.5 Y-57 Z-1.044 I0 J0.5
X-137.5 Y-58 Z-1.065 I0 J-0.5
X-137.5 Y-57 Z-1.087 I0 J0.5
X-137.5 Y-58 Z-1.109 I0 J-0.5
X-137.5 Y-57 Z-1.131 I0 J0.5
X-137.5 Y-58 Z-1.153 I0 J-0.5
X-137.5 Y-57 Z-1.175 I0 J0.5
X-137.5 Y-58 Z-1.196 I0 J-0.5
X-137.5 Y-57 Z-1.218 I0 J0.5
X-137.5 Y-58 Z-1.24 I0 J-0.5
X-137.5 Y-57 Z-1.262 I0 J0.5
X-137.5 Y-58 Z-1.284 I0 J-0.5
X-137.5 Y-57 Z-1.305 I0 J0.5
X-137.5 Y-58 Z-1.327 I0 J-0.5
X-137.5 Y-57 Z-1.349 I0 J0.5
X-137.5 Y-58 Z-1.371 I0 J-0.5
X-137.5 Y-57 Z-1.393 I0 J0.5
X-137.5 Y-58 Z-1.415 I0 J-0.5
X-137.5 Y-57 Z-1.436 I0 J0.5
X-137.5 Y-58 Z-1.458 I0 J-0.5
X-137.5 Y-57 Z-1.48 I0 J0.5
X-137.5 Y-58 Z-1.502 I0 J-0.5
X-137.5 Y-57 Z-1.524 I0 J0.5
X-137.5 Y-58 Z-1.546 I0 J-0.5
X-137.5 Y-57 Z-1.567 I0 J0.5
X-137.5 Y-58 Z-1.589 I0 J-0.5
X-137.5 Y-57 Z-1.611 I0 J0.5
X-137.5 Y-58 Z-1.633 I0 J-0.5
X-137.5 Y-57 Z-1.655 I0 J0.5
X-137.5 Y-58 Z-1.676 I0 J-0.5
X-137.5 Y-57 Z-1.698 I0 J0.5
X-137.5 Y-58 Z-1.72 I0 J-0.5
X-137.5 Y-57 Z-1.742 I0 J0.5
X-137.5 Y-58 Z-1.764 I0 J-0.5
X-137.5 Y-57 Z-1.786 I0 J0.5
X-137.5 Y-58 Z-1.807 I0 J-0.5
X-137.5 Y-57 Z-1.829 I0 J0.5
X-137.5 Y-58 Z-1.851 I0 J-0.5
X-137.5 Y-57 Z-1.873 I0 J0.5
X-137.5 Y-58 Z-1.895 I0 J-0.5
X-137.5 Y-57 Z-1.916 I0 J0.5
X-137.5 Y-58 Z-1.938 I0 J-0.5
X-137.5 Y-57 Z-1.96 I0 J0.5
X-137.5 Y-58 Z-1.982 I0 J-0.5
X-137.5 Y-57 Z-2.004 I0 J0.5
X-137.5 Y-58 Z-2.026 I0 J-0.5
X-137.5 Y-57 Z-2.047 I0 J0.5
X-137.5 Y-58 Z-2.069 I0 J-0.5
X-137.5 Y-57 Z-2.091 I0 J0.5
X-137.5 Y-58 Z-2.113 I0 J-0.5
X-137.5 Y-57 Z-2.135 I0 J0.5
X-137.5 Y-58 Z-2.156 I0 J-0.5
X-137.5 Y-57 Z-2.178 I0 J0.5
X-137.505 Y-58 Z-2.2 I0 J-0.5
X-137.495 Y-57 I0.005 J0.5
X-137.505 Y-58 I-0.005 J-0.5
G1 X-137.459 Y-57.993
X-137.417 Y-57.972
X-137.383 Y-57.939
X-137.361 Y-57.898
X-137.354 Y-57.852
X-137.353 Y-57.777
X-137.352 Y-57.73 Z-2.193
Y-57.688 Z-2.171
Y-57.655 Z-2.138
X-137.351 Y-57.634 Z-2.096
Y-57.627 Z-2.05
G0 Z15

(Bohrfrasen3 2)
X-30.15 Y-100.625
Z15
Z2.2
G1 Z0.35 F400
Y-100.632 Z0.304
Y-100.654 Z0.262
Y-100.687 Z0.229
Y-100.729 Z0.207
Y-100.775 Z0.2
Y-100.85
X-30.143 Y-100.896
X-30.121 Y-100.938
X-30.088 Y-100.971
X-30.046 Y-100.993
X-30 Y-101
G3 X-30 Y-99 Z0.169 I0 J1 F600
X-30 Y-101 Z0.139 I0 J-1
X-30 Y-99 Z0.108 I0 J1
X-30 Y-101 Z0.078 I0 J-1
X-30 Y-99 Z0.047 I0 J1
X-30 Y-101 Z0.017 I0 J-1
X-30 Y-99 Z-0.014 I0 J1
X-30 Y-101 Z-0.044 I0 J-1
X-30 Y-99 Z-0.075 I0 J1
X-30 Y-101 Z-0.105 I0 J-1
X-30 Y-99 Z-0.136 I0 J1
X-30 Y-101 Z-0.167 I0 J-1
X-30 Y-99 Z-0.197 I0 J1
X-30 Y-101 Z-0.228 I0 J-1
X-30 Y-99 Z-0.258 I0 J1
X-30 Y-101 Z-0.289 I0 J-1
X-30 Y-99 Z-0.319 I0 J1
X-30 Y-101 Z-0.35 I0 J-1
X-30 Y-99 Z-0.38 I0 J1
X-30 Y-101 Z-0.411 I0 J-1
X-30 Y-99 Z-0.441 I0 J1
X-30 Y-101 Z-0.472 I0 J-1
X-30 Y-99 Z-0.503 I0 J1
X-30 Y-101 Z-0.533 I0 J-1
X-30 Y-99 Z-0.564 I0 J1
X-30 Y-101 Z-0.594 I0 J-1
X-30 Y-99 Z-0.625 I0 J1
X-30 Y-101 Z-0.655 I0 J-1
X-30 Y-99 Z-0.686 I0 J1
X-30 Y-101 Z-0.716 I0 J-1
X-30 Y-99 Z-0.747 I0 J1
X-30 Y-101 Z-0.777 I0 J-1
X-30 Y-99 Z-0.808 I0 J1
X-30 Y-101 Z-0.839 I0 J-1
X-30 Y-99 Z-0.869 I0 J1
X-30 Y-101 Z-0.9 I0 J-1
X-30 Y-99 Z-0.93 I0 J1
X-30 Y-101 Z-0.961 I0 J-1
X-30 Y-99 Z-0.991 I0 J1
X-30 Y-101 Z-1.022 I0 J-1
X-30 Y-99 Z-1.052 I0 J1
X-30 Y-101 Z-1.083 I0 J-1
X-30 Y-99 Z-1.113 I0 J1
X-30 Y-101 Z-1.144 I0 J-1
X-30 Y-99 Z-1.175 I0 J1
X-30 Y-101 Z-1.205 I0 J-1
X-30 Y-99 Z-1.236 I0 J1
X-30 Y-101 Z-1.266 I0 J-1
X-30 Y-99 Z-1.297 I0 J1
X-30 Y-101 Z-1.327 I0 J-1
X-30 Y-99 Z-1.358 I0 J1
X-30 Y-101 Z-1.388 I0 J-1
X-30 Y-99 Z-1.419 I0 J1
X-30 Y-101 Z-1.45 I0 J-1
X-30 Y-99 Z-1.48 I0 J1
X-30 Y-101 Z-1.511 I0 J-1
X-30 Y-99 Z-1.541 I0 J1
X-30 Y-101 Z-1.572 I0 J-1
X-30 Y-99 Z-1.602 I0 J1
X-30 Y-101 Z-1.633 I0 J-1
X-30 Y-99 Z-1.663 I0 J1
X-30 Y-101 Z-1.694 I0 J-1
X-30 Y-99 Z-1.724 I0 J1
X-30 Y-101 Z-1.755 I0 J-1
X-30 Y-99 Z-1.786 I0 J1
X-30 Y-101 Z-1.816 I0 J-1
X-30 Y-99 Z-1.847 I0 J1
X-30 Y-101 Z-1.877 I0 J-1
X-30 Y-99 Z-1.908 I0 J1
X-30 Y-101 Z-1.938 I0 J-1
X-30 Y-99 Z-1.969 I0 J1
X-30 Y-101 Z-1.999 I0 J-1
X-30 Y-99 Z-2.03 I0 J1
X-30 Y-101 Z-2.06 I0 J-1
X-30 Y-99 Z-2.091 I0 J1
X-30 Y-101 Z-2.122 I0 J-1
X-30 Y-99 Z-2.152 I0 J1
X-30 Y-101 Z-2.183 I0 J-1
X-29.023 Y-99.785 Z-2.2 I0 J1
X-30.977 Y-100.215 I-0.977 J-0.215
X-29.023 Y-99.785 I0.977 J0.215
G1 X-29.041 Y-99.741
X-29.07 Y-99.705
X-29.11 Y-99.679
X-29.155 Y-99.668
X-29.202 Y-99.67
X-29.275 Y-99.687
X-29.321 Y-99.697 Z-2.193
X-29.362 Y-99.706 Z-2.171
X-29.394 Y-99.713 Z-2.138
X-29.415 Y-99.717 Z-2.096
X-29.422 Y-99.719 Z-2.05
G0 Z5
X-55.15 Y-105.625
Z2.2
G1 Z0.35 F400
Y-105.632 Z0.304
Y-105.654 Z0.262
Y-105.687 Z0.229
Y-105.729 Z0.207
Y-105.775 Z0.2
Y-105.85
X-55.143 Y-105.896
X-55.121 Y-105.938
X-55.088 Y-105.971
X-55.046 Y-105.993
X-55 Y-106
G3 X-55 Y-104 Z0.169 I0 J1 F600
X-55 Y-106 Z0.139 I0 J-1
X-55 Y-104 Z0.108 I0 J1
X-55 Y-106 Z0.078 I0 J-1
X-55 Y-104 Z0.047 I0 J1
X-55 Y-106 Z0.017 I0 J-1
X-55 Y-104 Z-0.014 I0 J1
X-55 Y-106 Z-0.044 I0 J-1
X-55 Y-104 Z-0.075 I0 J1
X-55 Y-106 Z-0.105 I0 J-1
X-55 Y-104 Z-0.136 I0 J1
X-55 Y-106 Z-0.167 I0 J-1
X-55 Y-104 Z-0.197 I0 J1
X-55 Y-106 Z-0.228 I0 J-1
X-55 Y-104 Z-0.258 I0 J1
X-55 Y-106 Z-0.289 I0 J-1
X-55 Y-104 Z-0.319 I0 J1
X-55 Y-106 Z-0.35 I0 J-1
X-55 Y-104 Z-0.38 I0 J1
X-55 Y-106 Z-0.411 I0 J-1
X-55 Y-104 Z-0.441 I0 J1
X-55 Y-106 Z-0.472 I0 J-1
X-55 Y-104 Z-0.503 I0 J1
X-55 Y-106 Z-0.533 I0 J-1
X-55 Y-104 Z-0.564 I0 J1
X-55 Y-106 Z-0.594 I0 J-1
X-55 Y-104 Z-0.625 I0 J1
X-55 Y-106 Z-0.655 I0 J-1
X-55 Y-104 Z-0.686 I0 J1
X-55 Y-106 Z-0.716 I0 J-1
X-55 Y-104 Z-0.747 I0 J1
X-55 Y-106 Z-0.777 I0 J-1
X-55 Y-104 Z-0.808 I0 J1
X-55 Y-106 Z-0.839 I0 J-1
X-55 Y-104 Z-0.869 I0 J1
X-55 Y-106 Z-0.9 I0 J-1
X-55 Y-104 Z-0.93 I0 J1
X-55 Y-106 Z-0.961 I0 J-1
X-55 Y-104 Z-0.991 I0 J1
X-55 Y-106 Z-1.022 I0 J-1
X-55 Y-104 Z-1.052 I0 J1
X-55 Y-106 Z-1.083 I0 J-1
X-55 Y-104 Z-1.113 I0 J1
X-55 Y-106 Z-1.144 I0 J-1
X-55 Y-104 Z-1.175 I0 J1
X-55 Y-106 Z-1.205 I0 J-1
X-55 Y-104 Z-1.236 I0 J1
X-55 Y-106 Z-1.266 I0 J-1
X-55 Y-104 Z-1.297 I0 J1
X-55 Y-106 Z-1.327 I0 J-1
X-55 Y-104 Z-1.358 I0 J1
X-55 Y-106 Z-1.388 I0 J-1
X-55 Y-104 Z-1.419 I0 J1
X-55 Y-106 Z-1.45 I0 J-1
X-55 Y-104 Z-1.48 I0 J1
X-55 Y-106 Z-1.511 I0 J-1
X-55 Y-104 Z-1.541 I0 J1
X-55 Y-106 Z-1.572 I0 J-1
X-55 Y-104 Z-1.602 I0 J1
X-55 Y-106 Z-1.633 I0 J-1
X-55 Y-104 Z-1.663 I0 J1
X-55 Y-106 Z-1.694 I0 J-1
X-55 Y-104 Z-1.724 I0 J1
X-55 Y-106 Z-1.755 I0 J-1
X-55 Y-104 Z-1.786 I0 J1
X-55 Y-106 Z-1.816 I0 J-1
X-55 Y-104 Z-1.847 I0 J1
X-55 Y-106 Z-1.877 I0 J-1
X-55 Y-104 Z-1.908 I0 J1
X-55 Y-106 Z-1.938 I0 J-1
X-55 Y-104 Z-1.969 I0 J1
X-55 Y-106 Z-1.999 I0 J-1
X-55 Y-104 Z-2.03 I0 J1
X-55 Y-106 Z-2.06 I0 J-1
X-55 Y-104 Z-2.091 I0 J1
X-55 Y-106 Z-2.122 I0 J-1
X-55 Y-104 Z-2.152 I0 J1
X-55 Y-106 Z-2.183 I0 J-1
X-54.023 Y-104.785 Z-2.2 I0 J1
X-55.977 Y-105.215 I-0.977 J-0.215
X-54.023 Y-104.785 I0.977 J0.215
G1 X-54.041 Y-104.741
X-54.07 Y-104.705
X-54.11 Y-104.679
X-54.155 Y-104.668
X-54.202 Y-104.67
X-54.275 Y-104.687
X-54.321 Y-104.697 Z-2.193
X-54.362 Y-104.706 Z-2.171
X-54.394 Y-104.713 Z-2.138
X-54.415 Y-104.717 Z-2.096
X-54.422 Y-104.719 Z-2.05
G0 Z5
X-95.15 Y-110.625
Z2.2
G1 Z0.35 F400
Y-110.632 Z0.304
Y-110.654 Z0.262
Y-110.687 Z0.229
Y-110.729 Z0.207
Y-110.775 Z0.2
Y-110.85
X-95.143 Y-110.896
X-95.121 Y-110.938
X-95.088 Y-110.971
X-95.046 Y-110.993
X-95 Y-111
G3 X-95 Y-109 Z0.169 I0 J1 F600
X-95 Y-111 Z0.139 I0 J-1
X-95 Y-109 Z0.108 I0 J1
X-95 Y-111 Z0.078 I0 J-1
X-95 Y-109 Z0.047 I0 J1
X-95 Y-111 Z0.017 I0 J-1
X-95 Y-109 Z-0.014 I0 J1
X-95 Y-111 Z-0.044 I0 J-1
X-95 Y-109 Z-0.075 I0 J1
X-95 Y-111 Z-0.105 I0 J-1
X-95 Y-109 Z-0.136 I0 J1
X-95 Y-111 Z-0.167 I0 J-1
X-95 Y-109 Z-0.197 I0 J1
X-95 Y-111 Z-0.228 I0 J-1
X-95 Y-109 Z-0.258 I0 J1
X-95 Y-111 Z-0.289 I0 J-1
X-95 Y-109 Z-0.319 I0 J1
X-95 Y-111 Z-0.35 I0 J-1
X-95 Y-109 Z-0.38 I0 J1
X-95 Y-111 Z-0.411 I0 J-1
X-95 Y-109 Z-0.441 I0 J1
X-95 Y-111 Z-0.472 I0 J-1
X-95 Y-109 Z-0.503 I0 J1
X-95 Y-111 Z-0.533 I0 J-1
X-95 Y-109 Z-0.564 I0 J1
X-95 Y-111 Z-0.594 I0 J-1
X-95 Y-109 Z-0.625 I0 J1
X-95 Y-111 Z-0.655 I0 J-1
X-95 Y-109 Z-0.686 I0 J1
X-95 Y-111 Z-0.716 I0 J-1
X-95 Y-109 Z-0.747 I0 J1
X-95 Y-111 Z-0.777 I0 J-1
X-95 Y-109 Z-0.808 I0 J1
X-95 Y-111 Z-0.839 I0 J-1
X-95 Y-109 Z-0.869 I0 J1
X-95 Y-111 Z-0.9 I0 J-1
X-95 Y-109 Z-0.93 I0 J1
X-95 Y-111 Z-0.961 I0 J-1
X-95 Y-109 Z-0.991 I0 J1
X-95 Y-111 Z-1.022 I0 J-1
X-95 Y-109 Z-1.052 I0 J1
X-95 Y-111 Z-1.083 I0 J-1
X-95 Y-109 Z-1.113 I0 J1
X-95 Y-111 Z-1.144 I0 J-1
X-95 Y-109 Z-1.175 I0 J1
X-95 Y-111 Z-1.205 I0 J-1
X-95 Y-109 Z-1.236 I0 J1
X-95 Y-111 Z-1.266 I0 J-1
X-95 Y-109 Z-1.297 I0 J1
X-95 Y-111 Z-1.327 I0 J-1
X-95 Y-109 Z-1.358 I0 J1
X-95 Y-111 Z-1.388 I0 J-1
X-95 Y-109 Z-1.419 I0 J1
X-95 Y-111 Z-1.45 I0 J-1
X-95 Y-109 Z-1.48 I0 J1
X-95 Y-111 Z-1.511 I0 J-1
X-95 Y-109 Z-1.541 I0 J1
X-95 Y-111 Z-1.572 I0 J-1
X-95 Y-109 Z-1.602 I0 J1
X-95 Y-111 Z-1.633 I0 J-1
X-95 Y-109 Z-1.663 I0 J1
X-95 Y-111 Z-1.694 I0 J-1
X-95 Y-109 Z-1.724 I0 J1
X-95 Y-111 Z-1.755 I0 J-1
X-95 Y-109 Z-1.786 I0 J1
X-95 Y-111 Z-1.816 I0 J-1
X-95 Y-109 Z-1.847 I0 J1
X-95 Y-111 Z-1.877 I0 J-1
X-95 Y-109 Z-1.908 I0 J1
X-95 Y-111 Z-1.938 I0 J-1
X-95 Y-109 Z-1.969 I0 J1
X-95 Y-111 Z-1.999 I0 J-1
X-95 Y-109 Z-2.03 I0 J1
X-95 Y-111 Z-2.06 I0 J-1
X-95 Y-109 Z-2.091 I0 J1
X-95 Y-111 Z-2.122 I0 J-1
X-95 Y-109 Z-2.152 I0 J1
X-95 Y-111 Z-2.183 I0 J-1
X-94.023 Y-109.785 Z-2.2 I0 J1
X-95.977 Y-110.215 I-0.977 J-0.215
X-94.023 Y-109.785 I0.977 J0.215
G1 X-94.041 Y-109.741
X-94.07 Y-109.705
X-94.11 Y-109.679
X-94.155 Y-109.668
X-94.202 Y-109.67
X-94.275 Y-109.687
X-94.321 Y-109.697 Z-2.193
X-94.362 Y-109.706 Z-2.171
X-94.394 Y-109.713 Z-2.138
X-94.415 Y-109.717 Z-2.096
X-94.422 Y-109.719 Z-2.05
G0 Z5
X-106.026 Y-115.696
Z2.2
G1 Z0.35 F400
Y-115.704 Z0.304
Y-115.725 Z0.262
Y-115.758 Z0.229
Y-115.8 Z0.207
Y-115.846 Z0.2
Y-115.921
X-106.018 Y-115.968
X-105.997 Y-116.01
X-105.964 Y-116.043
X-105.922 Y-116.064
X-105.876 Y-116.071
G3 X-105.876 Y-114.071 Z0.169 I0 J1 F600
X-105.876 Y-116.071 Z0.139 I0 J-1
X-105.876 Y-114.071 Z0.108 I0 J1
X-105.876 Y-116.071 Z0.078 I0 J-1
X-105.876 Y-114.071 Z0.047 I0 J1
X-105.876 Y-116.071 Z0.017 I0 J-1
X-105.876 Y-114.071 Z-0.014 I0 J1
X-105.876 Y-116.071 Z-0.044 I0 J-1
X-105.876 Y-114.071 Z-0.075 I0 J1
X-105.876 Y-116.071 Z-0.105 I0 J-1
X-105.876 Y-114.071 Z-0.136 I0 J1
X-105.876 Y-116.071 Z-0.167 I0 J-1
X-105.876 Y-114.071 Z-0.197 I0 J1
X-105.876 Y-116.071 Z-0.228 I0 J-1
X-105.876 Y-114.071 Z-0.258 I0 J1
X-105.876 Y-116.071 Z-0.289 I0 J-1
X-105.876 Y-114.071 Z-0.319 I0 J1
X-105.876 Y-116.071 Z-0.35 I0 J-1
X-105.876 Y-114.071 Z-0.38 I0 J1
X-105.876 Y-116.071 Z-0.411 I0 J-1
X-105.876 Y-114.071 Z-0.441 I0 J1
X-105.876 Y-116.071 Z-0.472 I0 J-1
X-105.876 Y-114.071 Z-0.503 I0 J1
X-105.876 Y-116.071 Z-0.533 I0 J-1
X-105.876 Y-114.071 Z-0.564 I0 J1
X-105.876 Y-116.071 Z-0.594 I0 J-1
X-105.876 Y-114.071 Z-0.625 I0 J1
X-105.876 Y-116.071 Z-0.655 I0 J-1
X-105.876 Y-114.071 Z-0.686 I0 J1
X-105.876 Y-116.071 Z-0.716 I0 J-1
X-105.876 Y-114.071 Z-0.747 I0 J1
X-105.876 Y-116.071 Z-0.777 I0 J-1
X-105.876 Y-114.071 Z-0.808 I0 J1
X-105.876 Y-116.071 Z-0.839 I0 J-1
X-105.876 Y-114.071 Z-0.869 I0 J1
X-105.876 Y-116.071 Z-0.9 I0 J-1
X-105.876 Y-114.071 Z-0.93 I0 J1
X-105.876 Y-116.071 Z-0.961 I0 J-1
X-105.876 Y-114.071 Z-0.991 I0 J1
X-105.876 Y-116.071 Z-1.022 I0 J-1
X-105.876 Y-114.071 Z-1.052 I0 J1
X-105.876 Y-116.071 Z-1.083 I0 J-1
X-105.876 Y-114.071 Z-1.113 I0 J1
X-105.876 Y-116.071 Z-1.144 I0 J-1
X-105.876 Y-114.071 Z-1.175 I0 J1
X-105.876 Y-116.071 Z-1.205 I0 J-1
X-105.876 Y-114.071 Z-1.236 I0 J1
X-105.876 Y-116.071 Z-1.266 I0 J-1
X-105.876 Y-114.071 Z-1.297 I0 J1
X-105.876 Y-116.071 Z-1.327 I0 J-1
X-105.876 Y-114.071 Z-1.358 I0 J1
X-105.876 Y-116.071 Z-1.388 I0 J-1
X-105.876 Y-114.071 Z-1.419 I0 J1
X-105.876 Y-116.071 Z-1.45 I0 J-1
X-105.876 Y-114.071 Z-1.48 I0 J1
X-105.876 Y-116.071 Z-1.511 I0 J-1
X-105.876 Y-114.071 Z-1.541 I0 J1
X-105.876 Y-116.071 Z-1.572 I0 J-1
X-105.876 Y-114.071 Z-1.602 I0 J1
X-105.876 Y-116.071 Z-1.633 I0 J-1
X-105.876 Y-114.071 Z-1.663 I0 J1
X-105.876 Y-116.071 Z-1.694 I0 J-1
X-105.876 Y-114.071 Z-1.724 I0 J1
X-105.876 Y-116.071 Z-1.755 I0 J-1
X-105.876 Y-114.071 Z-1.786 I0 J1
X-105.876 Y-116.071 Z-1.816 I0 J-1
X-105.876 Y-114.071 Z-1.847 I0 J1
X-105.876 Y-116.071 Z-1.877 I0 J-1
X-105.876 Y-114.071 Z-1.908 I0 J1
X-105.876 Y-116.071 Z-1.938 I0 J-1
X-105.876 Y-114.071 Z-1.969 I0 J1
X-105.876 Y-116.071 Z-1.999 I0 J-1
X-105.876 Y-114.071 Z-2.03 I0 J1
X-105.876 Y-116.071 Z-2.06 I0 J-1
X-105.876 Y-114.071 Z-2.091 I0 J1
X-105.876 Y-116.071 Z-2.122 I0 J-1
X-105.876 Y-114.071 Z-2.152 I0 J1
X-105.876 Y-116.071 Z-2.183 I0 J-1
X-104.899 Y-114.856 Z-2.2 I0 J1
X-106.852 Y-115.287 I-0.977 J-0.215
X-104.899 Y-114.856 I0.977 J0.215
G1 X-104.916 Y-114.812
X-104.946 Y-114.776
X-104.986 Y-114.751
X-105.031 Y-114.739
X-105.078 Y-114.742
X-105.151 Y-114.758
X-105.196 Y-114.768 Z-2.193
X-105.237 Y-114.777 Z-2.171
X-105.27 Y-114.784 Z-2.138
X-105.29 Y-114.789 Z-2.096
X-105.298 Y-114.79 Z-2.05
G0 Z5
X-115.15 Y-120.625
Z2.2
G1 Z0.35 F400
Y-120.632 Z0.304
Y-120.654 Z0.262
Y-120.687 Z0.229
Y-120.729 Z0.207
Y-120.775 Z0.2
Y-120.85
X-115.143 Y-120.896
X-115.121 Y-120.938
X-115.088 Y-120.971
X-115.046 Y-120.993
X-115 Y-121
G3 X-115 Y-119 Z0.169 I0 J1 F600
X-115 Y-121 Z0.139 I0 J-1
X-115 Y-119 Z0.108 I0 J1
X-115 Y-121 Z0.078 I0 J-1
X-115 Y-119 Z0.047 I0 J1
X-115 Y-121 Z0.017 I0 J-1
X-115 Y-119 Z-0.014 I0 J1
X-115 Y-121 Z-0.044 I0 J-1
X-115 Y-119 Z-0.075 I0 J1
X-115 Y-121 Z-0.105 I0 J-1
X-115 Y-119 Z-0.136 I0 J1
X-115 Y-121 Z-0.167 I0 J-1
X-115 Y-119 Z-0.197 I0 J1
X-115 Y-121 Z-0.228 I0 J-1
X-115 Y-119 Z-0.258 I0 J1
X-115 Y-121 Z-0.289 I0 J-1
X-115 Y-119 Z-0.319 I0 J1
X-115 Y-121 Z-0.35 I0 J-1
X-115 Y-119 Z-0.38 I0 J1
X-115 Y-121 Z-0.411 I0 J-1
X-115 Y-119 Z-0.441 I0 J1
X-115 Y-121 Z-0.472 I0 J-1
X-115 Y-119 Z-0.503 I0 J1
X-115 Y-121 Z-0.533 I0 J-1
X-115 Y-119 Z-0.564 I0 J1
X-115 Y-121 Z-0.594 I0 J-1
X-115 Y-119 Z-0.625 I0 J1
X-115 Y-121 Z-0.655 I0 J-1
X-115 Y-119 Z-0.686 I0 J1
X-115 Y-121 Z-0.716 I0 J-1
X-115 Y-119 Z-0.747 I0 J1
X-115 Y-121 Z-0.777 I0 J-1
X-115 Y-119 Z-0.808 I0 J1
X-115 Y-121 Z-0.839 I0 J-1
X-115 Y-119 Z-0.869 I0 J1
X-115 Y-121 Z-0.9 I0 J-1
X-115 Y-119 Z-0.93 I0 J1
X-115 Y-121 Z-0.961 I0 J-1
X-115 Y-119 Z-0.991 I0 J1
X-115 Y-121 Z-1.022 I0 J-1
X-115 Y-119 Z-1.052 I0 J1
X-115 Y-121 Z-1.083 I0 J-1
X-115 Y-119 Z-1.113 I0 J1
X-115 Y-121 Z-1.144 I0 J-1
X-115 Y-119 Z-1.175 I0 J1
X-115 Y-121 Z-1.205 I0 J-1
X-115 Y-119 Z-1.236 I0 J1
X-115 Y-121 Z-1.266 I0 J-1
X-115 Y-119 Z-1.297 I0 J1
X-115 Y-121 Z-1.327 I0 J-1
X-115 Y-119 Z-1.358 I0 J1
X-115 Y-121 Z-1.388 I0 J-1
X-115 Y-119 Z-1.419 I0 J1
X-115 Y-121 Z-1.45 I0 J-1
X-115 Y-119 Z-1.48 I0 J1
X-115 Y-121 Z-1.511 I0 J-1
X-115 Y-119 Z-1.541 I0 J1
X-115 Y-121 Z-1.572 I0 J-1
X-115 Y-119 Z-1.602 I0 J1
X-115 Y-121 Z-1.633 I0 J-1
X-115 Y-119 Z-1.663 I0 J1
X-115 Y-121 Z-1.694 I0 J-1
X-115 Y-119 Z-1.724 I0 J1
X-115 Y-121 Z-1.755 I0 J-1
X-115 Y-119 Z-1.786 I0 J1
X-115 Y-121 Z-1.816 I0 J-1
X-115 Y-119 Z-1.847 I0 J1
X-115 Y-121 Z-1.877 I0 J-1
X-115 Y-119 Z-1.908 I0 J1
X-115 Y-121 Z-1.938 I0 J-1
X-115 Y-119 Z-1.969 I0 J1
X-115 Y-121 Z-1.999 I0 J-1
X-115 Y-119 Z-2.03 I0 J1
X-115 Y-121 Z-2.06 I0 J-1
X-115 Y-119 Z-2.091 I0 J1
X-115 Y-121 Z-2.122 I0 J-1
X-115 Y-119 Z-2.152 I0 J1
X-115 Y-121 Z-2.183 I0 J-1
X-114.023 Y-119.785 Z-2.2 I0 J1
X-115.977 Y-120.215 I-0.977 J-0.215
X-114.023 Y-119.785 I0.977 J0.215
G1 X-114.041 Y-119.741
X-114.07 Y-119.705
X-114.11 Y-119.679
X-114.155 Y-119.668
X-114.202 Y-119.67
X-114.275 Y-119.687
X-114.321 Y-119.697 Z-2.193
X-114.362 Y-119.706 Z-2.171
X-114.394 Y-119.713 Z-2.138
X-114.415 Y-119.717 Z-2.096
X-114.422 Y-119.719 Z-2.05
G0 Z5
X-134.459 Y-113.54
Z2.2
G1 Z0.35 F400
Y-113.547 Z0.304
Y-113.568 Z0.262
Y-113.602 Z0.229
Y-113.643 Z0.207
Y-113.69 Z0.2
Y-113.765
X-134.451 Y-113.811
X-134.43 Y-113.853
X-134.397 Y-113.886
X-134.355 Y-113.907
X-134.309 Y-113.915
G3 X-134.309 Y-111.915 Z0.169 I0 J1 F600
X-134.309 Y-113.915 Z0.139 I0 J-1
X-134.309 Y-111.915 Z0.108 I0 J1
X-134.309 Y-113.915 Z0.078 I0 J-1
X-134.309 Y-111.915 Z0.047 I0 J1
X-134.309 Y-113.915 Z0.017 I0 J-1
X-134.309 Y-111.915 Z-0.014 I0 J1
X-134.309 Y-113.915 Z-0.044 I0 J-1
X-134.309 Y-111.915 Z-0.075 I0 J1
X-134.309 Y-113.915 Z-0.105 I0 J-1
X-134.309 Y-111.915 Z-0.136 I0 J1
X-134.309 Y-113.915 Z-0.167 I0 J-1
X-134.309 Y-111.915 Z-0.197 I0 J1
X-134.309 Y-113.915 Z-0.228 I0 J-1
X-134.309 Y-111.915 Z-0.258 I0 J1
X-134.309 Y-113.915 Z-0.289 I0 J-1
X-134.309 Y-111.915 Z-0.319 I0 J1
X-134.309 Y-113.915 Z-0.35 I0 J-1
X-134.309 Y-111.915 Z-0.38 I0 J1
X-134.309 Y-113.915 Z-0.411 I0 J-1
X-134.309 Y-111.915 Z-0.441 I0 J1
X-134.309 Y-113.915 Z-0.472 I0 J-1
X-134.309 Y-111.915 Z-0.503 I0 J1
X-134.309 Y-113.915 Z-0.533 I0 J-1
X-134.309 Y-111.915 Z-0.564 I0 J1
X-134.309 Y-113.915 Z-0.594 I0 J-1
X-134.309 Y-111.915 Z-0.625 I0 J1
X-134.309 Y-113.915 Z-0.655 I0 J-1
X-134.309 Y-111.915 Z-0.686 I0 J1
X-134.309 Y-113.915 Z-0.716 I0 J-1
X-134.309 Y-111.915 Z-0.747 I0 J1
X-134.309 Y-113.915 Z-0.777 I0 J-1
X-134.309 Y-111.915 Z-0.808 I0 J1
X-134.309 Y-113.915 Z-0.839 I0 J-1
X-134.309 Y-111.915 Z-0.869 I0 J1
X-134.309 Y-113.915 Z-0.9 I0 J-1
X-134.309 Y-111.915 Z-0.93 I0 J1
X-134.309 Y-113.915 Z-0.961 I0 J-1
X-134.309 Y-111.915 Z-0.991 I0 J1
X-134.309 Y-113.915 Z-1.022 I0 J-1
X-134.309 Y-111.915 Z-1.052 I0 J1
X-134.309 Y-113.915 Z-1.083 I0 J-1
X-134.309 Y-111.915 Z-1.113 I0 J1
X-134.309 Y-113.915 Z-1.144 I0 J-1
X-134.309 Y-111.915 Z-1.175 I0 J1
X-134.309 Y-113.915 Z-1.205 I0 J-1
X-134.309 Y-111.915 Z-1.236 I0 J1
X-134.309 Y-113.915 Z-1.266 I0 J-1
X-134.309 Y-111.915 Z-1.297 I0 J1
X-134.309 Y-113.915 Z-1.327 I0 J-1
X-134.309 Y-111.915 Z-1.358 I0 J1
X-134.309 Y-113.915 Z-1.388 I0 J-1
X-134.309 Y-111.915 Z-1.419 I0 J1
X-134.309 Y-113.915 Z-1.45 I0 J-1
X-134.309 Y-111.915 Z-1.48 I0 J1
X-134.309 Y-113.915 Z-1.511 I0 J-1
X-134.309 Y-111.915 Z-1.541 I0 J1
X-134.309 Y-113.915 Z-1.572 I0 J-1
X-134.309 Y-111.915 Z-1.602 I0 J1
X-134.309 Y-113.915 Z-1.633 I0 J-1
X-134.309 Y-111.915 Z-1.663 I0 J1
X-134.309 Y-113.915 Z-1.694 I0 J-1
X-134.309 Y-111.915 Z-1.724 I0 J1
X-134.309 Y-113.915 Z-1.755 I0 J-1
X-134.309 Y-111.915 Z-1.786 I0 J1
X-134.309 Y-113.915 Z-1.816 I0 J-1
X-134.309 Y-111.915 Z-1.847 I0 J1
X-134.309 Y-113.915 Z-1.877 I0 J-1
X-134.309 Y-111.915 Z-1.908 I0 J1
X-134.309 Y-113.915 Z-1.938 I0 J-1
X-134.309 Y-111.915 Z-1.969 I0 J1
X-134.309 Y-113.915 Z-1.999 I0 J-1
X-134.309 Y-111.915 Z-2.03 I0 J1
X-134.309 Y-113.915 Z-2.06 I0 J-1
X-134.309 Y-111.915 Z-2.091 I0 J1
X-134.309 Y-113.915 Z-2.122 I0 J-1
X-134.309 Y-111.915 Z-2.152 I0 J1
X-134.309 Y-113.915 Z-2.183 I0 J-1
X-133.332 Y-112.699 Z-2.2 I0 J1
X-135.285 Y-113.13 I-0.977 J-0.215
X-133.332 Y-112.699 I0.977 J0.215
G1 X-133.349 Y-112.656
X-133.379 Y-112.619
X-133.418 Y-112.594
X-133.464 Y-112.582
X-133.511 Y-112.585
X-133.584 Y-112.601
X-133.629 Y-112.611 Z-2.193
X-133.67 Y-112.62 Z-2.171
X-133.703 Y-112.627 Z-2.138
X-133.723 Y-112.632 Z-2.096
X-133.73 Y-112.634 Z-2.05
G0 Z5
X-185.15 Y-105.625
Z2.2
G1 Z0.35 F400
Y-105.632 Z0.304
Y-105.654 Z0.262
Y-105.687 Z0.229
Y-105.729 Z0.207
Y-105.775 Z0.2
Y-105.85
X-185.143 Y-105.896
X-185.121 Y-105.938
X-185.088 Y-105.971
X-185.046 Y-105.993
X-185 Y-106
G3 X-185 Y-104 Z0.169 I0 J1 F600
X-185 Y-106 Z0.139 I0 J-1
X-185 Y-104 Z0.108 I0 J1
X-185 Y-106 Z0.078 I0 J-1
X-185 Y-104 Z0.047 I0 J1
X-185 Y-106 Z0.017 I0 J-1
X-185 Y-104 Z-0.014 I0 J1
X-185 Y-106 Z-0.044 I0 J-1
X-185 Y-104 Z-0.075 I0 J1
X-185 Y-106 Z-0.105 I0 J-1
X-185 Y-104 Z-0.136 I0 J1
X-185 Y-106 Z-0.167 I0 J-1
X-185 Y-104 Z-0.197 I0 J1
X-185 Y-106 Z-0.228 I0 J-1
X-185 Y-104 Z-0.258 I0 J1
X-185 Y-106 Z-0.289 I0 J-1
X-185 Y-104 Z-0.319 I0 J1
X-185 Y-106 Z-0.35 I0 J-1
X-185 Y-104 Z-0.38 I0 J1
X-185 Y-106 Z-0.411 I0 J-1
X-185 Y-104 Z-0.441 I0 J1
X-185 Y-106 Z-0.472 I0 J-1
X-185 Y-104 Z-0.503 I0 J1
X-185 Y-106 Z-0.533 I0 J-1
X-185 Y-104 Z-0.564 I0 J1
X-185 Y-106 Z-0.594 I0 J-1
X-185 Y-104 Z-0.625 I0 J1
X-185 Y-106 Z-0.655 I0 J-1
X-185 Y-104 Z-0.686 I0 J1
X-185 Y-106 Z-0.716 I0 J-1
X-185 Y-104 Z-0.747 I0 J1
X-185 Y-106 Z-0.777 I0 J-1
X-185 Y-104 Z-0.808 I0 J1
X-185 Y-106 Z-0.839 I0 J-1
X-185 Y-104 Z-0.869 I0 J1
X-185 Y-106 Z-0.9 I0 J-1
X-185 Y-104 Z-0.93 I0 J1
X-185 Y-106 Z-0.961 I0 J-1
X-185 Y-104 Z-0.991 I0 J1
X-185 Y-106 Z-1.022 I0 J-1
X-185 Y-104 Z-1.052 I0 J1
X-185 Y-106 Z-1.083 I0 J-1
X-185 Y-104 Z-1.113 I0 J1
X-185 Y-106 Z-1.144 I0 J-1
X-185 Y-104 Z-1.175 I0 J1
X-185 Y-106 Z-1.205 I0 J-1
X-185 Y-104 Z-1.236 I0 J1
X-185 Y-106 Z-1.266 I0 J-1
X-185 Y-104 Z-1.297 I0 J1
X-185 Y-106 Z-1.327 I0 J-1
X-185 Y-104 Z-1.358 I0 J1
X-185 Y-106 Z-1.388 I0 J-1
X-185 Y-104 Z-1.419 I0 J1
X-185 Y-106 Z-1.45 I0 J-1
X-185 Y-104 Z-1.48 I0 J1
X-185 Y-106 Z-1.511 I0 J-1
X-185 Y-104 Z-1.541 I0 J1
X-185 Y-106 Z-1.572 I0 J-1
X-185 Y-104 Z-1.602 I0 J1
X-185 Y-106 Z-1.633 I0 J-1
X-185 Y-104 Z-1.663 I0 J1
X-185 Y-106 Z-1.694 I0 J-1
X-185 Y-104 Z-1.724 I0 J1
X-185 Y-106 Z-1.755 I0 J-1
X-185 Y-104 Z-1.786 I0 J1
X-185 Y-106 Z-1.816 I0 J-1
X-185 Y-104 Z-1.847 I0 J1
X-185 Y-106 Z-1.877 I0 J-1
X-185 Y-104 Z-1.908 I0 J1
X-185 Y-106 Z-1.938 I0 J-1
X-185 Y-104 Z-1.969 I0 J1
X-185 Y-106 Z-1.999 I0 J-1
X-185 Y-104 Z-2.03 I0 J1
X-185 Y-106 Z-2.06 I0 J-1
X-185 Y-104 Z-2.091 I0 J1
X-185 Y-106 Z-2.122 I0 J-1
X-185 Y-104 Z-2.152 I0 J1
X-185 Y-106 Z-2.183 I0 J-1
X-184.023 Y-104.785 Z-2.2 I0 J1
X-185.977 Y-105.215 I-0.977 J-0.215
X-184.023 Y-104.785 I0.977 J0.215
G1 X-184.041 Y-104.741
X-184.07 Y-104.705
X-184.11 Y-104.679
X-184.155 Y-104.668
X-184.202 Y-104.67
X-184.275 Y-104.687
X-184.321 Y-104.697 Z-2.193
X-184.362 Y-104.706 Z-2.171
X-184.394 Y-104.713 Z-2.138
X-184.415 Y-104.717 Z-2.096
X-184.422 Y-104.719 Z-2.05
G0 Z5
X-184.863 Y-88.54
Z2.2
G1 Z0.35 F400
Y-88.547 Z0.304
Y-88.568 Z0.262
Y-88.602 Z0.229
Y-88.643 Z0.207
Y-88.69 Z0.2
Y-88.765
X-184.856 Y-88.811
X-184.835 Y-88.853
X-184.802 Y-88.886
X-184.76 Y-88.907
X-184.713 Y-88.915
G3 X-184.713 Y-86.915 Z0.169 I0 J1 F600
X-184.713 Y-88.915 Z0.139 I0 J-1
X-184.713 Y-86.915 Z0.108 I0 J1
X-184.713 Y-88.915 Z0.078 I0 J-1
X-184.713 Y-86.915 Z0.047 I0 J1
X-184.713 Y-88.915 Z0.017 I0 J-1
X-184.713 Y-86.915 Z-0.014 I0 J1
X-184.713 Y-88.915 Z-0.044 I0 J-1
X-184.713 Y-86.915 Z-0.075 I0 J1
X-184.713 Y-88.915 Z-0.105 I0 J-1
X-184.713 Y-86.915 Z-0.136 I0 J1
X-184.713 Y-88.915 Z-0.167 I0 J-1
X-184.713 Y-86.915 Z-0.197 I0 J1
X-184.713 Y-88.915 Z-0.228 I0 J-1
X-184.713 Y-86.915 Z-0.258 I0 J1
X-184.713 Y-88.915 Z-0.289 I0 J-1
X-184.713 Y-86.915 Z-0.319 I0 J1
X-184.713 Y-88.915 Z-0.35 I0 J-1
X-184.713 Y-86.915 Z-0.38 I0 J1
X-184.713 Y-88.915 Z-0.411 I0 J-1
X-184.713 Y-86.915 Z-0.441 I0 J1
X-184.713 Y-88.915 Z-0.472 I0 J-1
X-184.713 Y-86.915 Z-0.503 I0 J1
X-184.713 Y-88.915 Z-0.533 I0 J-1
X-184.713 Y-86.915 Z-0.564 I0 J1
X-184.713 Y-88.915 Z-0.594 I0 J-1
X-184.713 Y-86.915 Z-0.625 I0 J1
X-184.713 Y-88.915 Z-0.655 I0 J-1
X-184.713 Y-86.915 Z-0.686 I0 J1
X-184.713 Y-88.915 Z-0.716 I0 J-1
X-184.713 Y-86.915 Z-0.747 I0 J1
X-184.713 Y-88.915 Z-0.777 I0 J-1
X-184.713 Y-86.915 Z-0.808 I0 J1
X-184.713 Y-88.915 Z-0.839 I0 J-1
X-184.713 Y-86.915 Z-0.869 I0 J1
X-184.713 Y-88.915 Z-0.9 I0 J-1
X-184.713 Y-86.915 Z-0.93 I0 J1
X-184.713 Y-88.915 Z-0.961 I0 J-1
X-184.713 Y-86.915 Z-0.991 I0 J1
X-184.713 Y-88.915 Z-1.022 I0 J-1
X-184.713 Y-86.915 Z-1.052 I0 J1
X-184.713 Y-88.915 Z-1.083 I0 J-1
X-184.713 Y-86.915 Z-1.113 I0 J1
X-184.713 Y-88.915 Z-1.144 I0 J-1
X-184.713 Y-86.915 Z-1.175 I0 J1
X-184.713 Y-88.915 Z-1.205 I0 J-1
X-184.713 Y-86.915 Z-1.236 I0 J1
X-184.713 Y-88.915 Z-1.266 I0 J-1
X-184.713 Y-86.915 Z-1.297 I0 J1
X-184.713 Y-88.915 Z-1.327 I0 J-1
X-184.713 Y-86.915 Z-1.358 I0 J1
X-184.713 Y-88.915 Z-1.388 I0 J-1
X-184.713 Y-86.915 Z-1.419 I0 J1
X-184.713 Y-88.915 Z-1.45 I0 J-1
X-184.713 Y-86.915 Z-1.48 I0 J1
X-184.713 Y-88.915 Z-1.511 I0 J-1
X-184.713 Y-86.915 Z-1.541 I0 J1
X-184.713 Y-88.915 Z-1.572 I0 J-1
X-184.713 Y-86.915 Z-1.602 I0 J1
X-184.713 Y-88.915 Z-1.633 I0 J-1
X-184.713 Y-86.915 Z-1.663 I0 J1
X-184.713 Y-88.915 Z-1.694 I0 J-1
X-184.713 Y-86.915 Z-1.724 I0 J1
X-184.713 Y-88.915 Z-1.755 I0 J-1
X-184.713 Y-86.915 Z-1.786 I0 J1
X-184.713 Y-88.915 Z-1.816 I0 J-1
X-184.713 Y-86.915 Z-1.847 I0 J1
X-184.713 Y-88.915 Z-1.877 I0 J-1
X-184.713 Y-86.915 Z-1.908 I0 J1
X-184.713 Y-88.915 Z-1.938 I0 J-1
X-184.713 Y-86.915 Z-1.969 I0 J1
X-184.713 Y-88.915 Z-1.999 I0 J-1
X-184.713 Y-86.915 Z-2.03 I0 J1
X-184.713 Y-88.915 Z-2.06 I0 J-1
X-184.713 Y-86.915 Z-2.091 I0 J1
X-184.713 Y-88.915 Z-2.122 I0 J-1
X-184.713 Y-86.915 Z-2.152 I0 J1
X-184.713 Y-88.915 Z-2.183 I0 J-1
X-183.737 Y-87.699 Z-2.2 I0 J1
X-185.69 Y-88.13 I-0.977 J-0.215
X-183.737 Y-87.699 I0.977 J0.215
G1 X-183.754 Y-87.656
X-183.784 Y-87.619
X-183.823 Y-87.594
X-183.869 Y-87.582
X-183.916 Y-87.585
X-183.989 Y-87.601
X-184.034 Y-87.611 Z-2.193
X-184.075 Y-87.62 Z-2.171
X-184.107 Y-87.627 Z-2.138
X-184.128 Y-87.632 Z-2.096
X-184.135 Y-87.634 Z-2.05
G0 Z5
X-184.863 Y-52.71
Z2.2
G1 Z0.35 F400
Y-52.718 Z0.304
Y-52.739 Z0.262
Y-52.772 Z0.229
Y-52.814 Z0.207
Y-52.86 Z0.2
Y-52.935
X-184.856 Y-52.982
X-184.835 Y-53.024
X-184.802 Y-53.057
X-184.76 Y-53.078
X-184.713 Y-53.085
G3 X-184.713 Y-51.085 Z0.169 I0 J1 F600
X-184.713 Y-53.085 Z0.139 I0 J-1
X-184.713 Y-51.085 Z0.108 I0 J1
X-184.713 Y-53.085 Z0.078 I0 J-1
X-184.713 Y-51.085 Z0.047 I0 J1
X-184.713 Y-53.085 Z0.017 I0 J-1
X-184.713 Y-51.085 Z-0.014 I0 J1
X-184.713 Y-53.085 Z-0.044 I0 J-1
X-184.713 Y-51.085 Z-0.075 I0 J1
X-184.713 Y-53.085 Z-0.105 I0 J-1
X-184.713 Y-51.085 Z-0.136 I0 J1
X-184.713 Y-53.085 Z-0.167 I0 J-1
X-184.713 Y-51.085 Z-0.197 I0 J1
X-184.713 Y-53.085 Z-0.228 I0 J-1
X-184.713 Y-51.085 Z-0.258 I0 J1
X-184.713 Y-53.085 Z-0.289 I0 J-1
X-184.713 Y-51.085 Z-0.319 I0 J1
X-184.713 Y-53.085 Z-0.35 I0 J-1
X-184.713 Y-51.085 Z-0.38 I0 J1
X-184.713 Y-53.085 Z-0.411 I0 J-1
X-184.713 Y-51.085 Z-0.441 I0 J1
X-184.713 Y-53.085 Z-0.472 I0 J-1
X-184.713 Y-51.085 Z-0.503 I0 J1
X-184.713 Y-53.085 Z-0.533 I0 J-1
X-184.713 Y-51.085 Z-0.564 I0 J1
X-184.713 Y-53.085 Z-0.594 I0 J-1
X-184.713 Y-51.085 Z-0.625 I0 J1
X-184.713 Y-53.085 Z-0.655 I0 J-1
X-184.713 Y-51.085 Z-0.686 I0 J1
X-184.713 Y-53.085 Z-0.716 I0 J-1
X-184.713 Y-51.085 Z-0.747 I0 J1
X-184.713 Y-53.085 Z-0.777 I0 J-1
X-184.713 Y-51.085 Z-0.808 I0 J1
X-184.713 Y-53.085 Z-0.839 I0 J-1
X-184.713 Y-51.085 Z-0.869 I0 J1
X-184.713 Y-53.085 Z-0.9 I0 J-1
X-184.713 Y-51.085 Z-0.93 I0 J1
X-184.713 Y-53.085 Z-0.961 I0 J-1
X-184.713 Y-51.085 Z-0.991 I0 J1
X-184.713 Y-53.085 Z-1.022 I0 J-1
X-184.713 Y-51.085 Z-1.052 I0 J1
X-184.713 Y-53.085 Z-1.083 I0 J-1
X-184.713 Y-51.085 Z-1.113 I0 J1
X-184.713 Y-53.085 Z-1.144 I0 J-1
X-184.713 Y-51.085 Z-1.175 I0 J1
X-184.713 Y-53.085 Z-1.205 I0 J-1
X-184.713 Y-51.085 Z-1.236 I0 J1
X-184.713 Y-53.085 Z-1.266 I0 J-1
X-184.713 Y-51.085 Z-1.297 I0 J1
X-184.713 Y-53.085 Z-1.327 I0 J-1
X-184.713 Y-51.085 Z-1.358 I0 J1
X-184.713 Y-53.085 Z-1.388 I0 J-1
X-184.713 Y-51.085 Z-1.419 I0 J1
X-184.713 Y-53.085 Z-1.45 I0 J-1
X-184.713 Y-51.085 Z-1.48 I0 J1
X-184.713 Y-53.085 Z-1.511 I0 J-1
X-184.713 Y-51.085 Z-1.541 I0 J1
X-184.713 Y-53.085 Z-1.572 I0 J-1
X-184.713 Y-51.085 Z-1.602 I0 J1
X-184.713 Y-53.085 Z-1.633 I0 J-1
X-184.713 Y-51.085 Z-1.663 I0 J1
X-184.713 Y-53.085 Z-1.694 I0 J-1
X-184.713 Y-51.085 Z-1.724 I0 J1
X-184.713 Y-53.085 Z-1.755 I0 J-1
X-184.713 Y-51.085 Z-1.786 I0 J1
X-184.713 Y-53.085 Z-1.816 I0 J-1
X-184.713 Y-51.085 Z-1.847 I0 J1
X-184.713 Y-53.085 Z-1.877 I0 J-1
X-184.713 Y-51.085 Z-1.908 I0 J1
X-184.713 Y-53.085 Z-1.938 I0 J-1
X-184.713 Y-51.085 Z-1.969 I0 J1
X-184.713 Y-53.085 Z-1.999 I0 J-1
X-184.713 Y-51.085 Z-2.03 I0 J1
X-184.713 Y-53.085 Z-2.06 I0 J-1
X-184.713 Y-51.085 Z-2.091 I0 J1
X-184.713 Y-53.085 Z-2.122 I0 J-1
X-184.713 Y-51.085 Z-2.152 I0 J1
X-184.713 Y-53.085 Z-2.183 I0 J-1
X-183.737 Y-51.87 Z-2.2 I0 J1
X-185.69 Y-52.301 I-0.977 J-0.215
X-183.737 Y-51.87 I0.977 J0.215
G1 X-183.754 Y-51.826
X-183.784 Y-51.79
X-183.823 Y-51.765
X-183.869 Y-51.753
X-183.916 Y-51.756
X-183.989 Y-51.772
X-184.034 Y-51.782 Z-2.193
X-184.075 Y-51.791 Z-2.171
X-184.107 Y-51.798 Z-2.138
X-184.128 Y-51.803 Z-2.096
X-184.135 Y-51.804 Z-2.05
G0 Z5
X-185.15 Y-35.625
Z2.2
G1 Z0.35 F400
Y-35.632 Z0.304
Y-35.654 Z0.262
Y-35.687 Z0.229
Y-35.729 Z0.207
Y-35.775 Z0.2
Y-35.85
X-185.143 Y-35.896
X-185.121 Y-35.938
X-185.088 Y-35.971
X-185.046 Y-35.993
X-185 Y-36
G3 X-185 Y-34 Z0.169 I0 J1 F600
X-185 Y-36 Z0.139 I0 J-1
X-185 Y-34 Z0.108 I0 J1
X-185 Y-36 Z0.078 I0 J-1
X-185 Y-34 Z0.047 I0 J1
X-185 Y-36 Z0.017 I0 J-1
X-185 Y-34 Z-0.014 I0 J1
X-185 Y-36 Z-0.044 I0 J-1
X-185 Y-34 Z-0.075 I0 J1
X-185 Y-36 Z-0.105 I0 J-1
X-185 Y-34 Z-0.136 I0 J1
X-185 Y-36 Z-0.167 I0 J-1
X-185 Y-34 Z-0.197 I0 J1
X-185 Y-36 Z-0.228 I0 J-1
X-185 Y-34 Z-0.258 I0 J1
X-185 Y-36 Z-0.289 I0 J-1
X-185 Y-34 Z-0.319 I0 J1
X-185 Y-36 Z-0.35 I0 J-1
X-185 Y-34 Z-0.38 I0 J1
X-185 Y-36 Z-0.411 I0 J-1
X-185 Y-34 Z-0.441 I0 J1
X-185 Y-36 Z-0.472 I0 J-1
X-185 Y-34 Z-0.503 I0 J1
X-185 Y-36 Z-0.533 I0 J-1
X-185 Y-34 Z-0.564 I0 J1
X-185 Y-36 Z-0.594 I0 J-1
X-185 Y-34 Z-0.625 I0 J1
X-185 Y-36 Z-0.655 I0 J-1
X-185 Y-34 Z-0.686 I0 J1
X-185 Y-36 Z-0.716 I0 J-1
X-185 Y-34 Z-0.747 I0 J1
X-185 Y-36 Z-0.777 I0 J-1
X-185 Y-34 Z-0.808 I0 J1
X-185 Y-36 Z-0.839 I0 J-1
X-185 Y-34 Z-0.869 I0 J1
X-185 Y-36 Z-0.9 I0 J-1
X-185 Y-34 Z-0.93 I0 J1
X-185 Y-36 Z-0.961 I0 J-1
X-185 Y-34 Z-0.991 I0 J1
X-185 Y-36 Z-1.022 I0 J-1
X-185 Y-34 Z-1.052 I0 J1
X-185 Y-36 Z-1.083 I0 J-1
X-185 Y-34 Z-1.113 I0 J1
X-185 Y-36 Z-1.144 I0 J-1
X-185 Y-34 Z-1.175 I0 J1
X-185 Y-36 Z-1.205 I0 J-1
X-185 Y-34 Z-1.236 I0 J1
X-185 Y-36 Z-1.266 I0 J-1
X-185 Y-34 Z-1.297 I0 J1
X-185 Y-36 Z-1.327 I0 J-1
X-185 Y-34 Z-1.358 I0 J1
X-185 Y-36 Z-1.388 I0 J-1
X-185 Y-34 Z-1.419 I0 J1
X-185 Y-36 Z-1.45 I0 J-1
X-185 Y-34 Z-1.48 I0 J1
X-185 Y-36 Z-1.511 I0 J-1
X-185 Y-34 Z-1.541 I0 J1
X-185 Y-36 Z-1.572 I0 J-1
X-185 Y-34 Z-1.602 I0 J1
X-185 Y-36 Z-1.633 I0 J-1
X-185 Y-34 Z-1.663 I0 J1
X-185 Y-36 Z-1.694 I0 J-1
X-185 Y-34 Z-1.724 I0 J1
X-185 Y-36 Z-1.755 I0 J-1
X-185 Y-34 Z-1.786 I0 J1
X-185 Y-36 Z-1.816 I0 J-1
X-185 Y-34 Z-1.847 I0 J1
X-185 Y-36 Z-1.877 I0 J-1
X-185 Y-34 Z-1.908 I0 J1
X-185 Y-36 Z-1.938 I0 J-1
X-185 Y-34 Z-1.969 I0 J1
X-185 Y-36 Z-1.999 I0 J-1
X-185 Y-34 Z-2.03 I0 J1
X-185 Y-36 Z-2.06 I0 J-1
X-185 Y-34 Z-2.091 I0 J1
X-185 Y-36 Z-2.122 I0 J-1
X-185 Y-34 Z-2.152 I0 J1
X-185 Y-36 Z-2.183 I0 J-1
X-184.023 Y-34.785 Z-2.2 I0 J1
X-185.977 Y-35.215 I-0.977 J-0.215
X-184.023 Y-34.785 I0.977 J0.215
G1 X-184.041 Y-34.741
X-184.07 Y-34.705
X-184.11 Y-34.679
X-184.155 Y-34.668
X-184.202 Y-34.67
X-184.275 Y-34.687
X-184.321 Y-34.697 Z-2.193
X-184.362 Y-34.706 Z-2.171
X-184.394 Y-34.713 Z-2.138
X-184.415 Y-34.717 Z-2.096
X-184.422 Y-34.719 Z-2.05
G0 Z5
X-134.459 Y-27.71
Z2.2
G1 Z0.35 F400
Y-27.718 Z0.304
Y-27.739 Z0.262
Y-27.772 Z0.229
Y-27.814 Z0.207
Y-27.86 Z0.2
Y-27.935
X-134.451 Y-27.982
X-134.43 Y-28.023
X-134.397 Y-28.057
X-134.355 Y-28.078
X-134.309 Y-28.085
G3 X-134.309 Y-26.085 Z0.169 I0 J1 F600
X-134.309 Y-28.085 Z0.139 I0 J-1
X-134.309 Y-26.085 Z0.108 I0 J1
X-134.309 Y-28.085 Z0.078 I0 J-1
X-134.309 Y-26.085 Z0.047 I0 J1
X-134.309 Y-28.085 Z0.017 I0 J-1
X-134.309 Y-26.085 Z-0.014 I0 J1
X-134.309 Y-28.085 Z-0.044 I0 J-1
X-134.309 Y-26.085 Z-0.075 I0 J1
X-134.309 Y-28.085 Z-0.105 I0 J-1
X-134.309 Y-26.085 Z-0.136 I0 J1
X-134.309 Y-28.085 Z-0.167 I0 J-1
X-134.309 Y-26.085 Z-0.197 I0 J1
X-134.309 Y-28.085 Z-0.228 I0 J-1
X-134.309 Y-26.085 Z-0.258 I0 J1
X-134.309 Y-28.085 Z-0.289 I0 J-1
X-134.309 Y-26.085 Z-0.319 I0 J1
X-134.309 Y-28.085 Z-0.35 I0 J-1
X-134.309 Y-26.085 Z-0.38 I0 J1
X-134.309 Y-28.085 Z-0.411 I0 J-1
X-134.309 Y-26.085 Z-0.441 I0 J1
X-134.309 Y-28.085 Z-0.472 I0 J-1
X-134.309 Y-26.085 Z-0.503 I0 J1
X-134.309 Y-28.085 Z-0.533 I0 J-1
X-134.309 Y-26.085 Z-0.564 I0 J1
X-134.309 Y-28.085 Z-0.594 I0 J-1
X-134.309 Y-26.085 Z-0.625 I0 J1
X-134.309 Y-28.085 Z-0.655 I0 J-1
X-134.309 Y-26.085 Z-0.686 I0 J1
X-134.309 Y-28.085 Z-0.716 I0 J-1
X-134.309 Y-26.085 Z-0.747 I0 J1
X-134.309 Y-28.085 Z-0.777 I0 J-1
X-134.309 Y-26.085 Z-0.808 I0 J1
X-134.309 Y-28.085 Z-0.839 I0 J-1
X-134.309 Y-26.085 Z-0.869 I0 J1
X-134.309 Y-28.085 Z-0.9 I0 J-1
X-134.309 Y-26.085 Z-0.93 I0 J1
X-134.309 Y-28.085 Z-0.961 I0 J-1
X-134.309 Y-26.085 Z-0.991 I0 J1
X-134.309 Y-28.085 Z-1.022 I0 J-1
X-134.309 Y-26.085 Z-1.052 I0 J1
X-134.309 Y-28.085 Z-1.083 I0 J-1
X-134.309 Y-26.085 Z-1.113 I0 J1
X-134.309 Y-28.085 Z-1.144 I0 J-1
X-134.309 Y-26.085 Z-1.175 I0 J1
X-134.309 Y-28.085 Z-1.205 I0 J-1
X-134.309 Y-26.085 Z-1.236 I0 J1
X-134.309 Y-28.085 Z-1.266 I0 J-1
X-134.309 Y-26.085 Z-1.297 I0 J1
X-134.309 Y-28.085 Z-1.327 I0 J-1
X-134.309 Y-26.085 Z-1.358 I0 J1
X-134.309 Y-28.085 Z-1.388 I0 J-1
X-134.309 Y-26.085 Z-1.419 I0 J1
X-134.309 Y-28.085 Z-1.45 I0 J-1
X-134.309 Y-26.085 Z-1.48 I0 J1
X-134.309 Y-28.085 Z-1.511 I0 J-1
X-134.309 Y-26.085 Z-1.541 I0 J1
X-134.309 Y-28.085 Z-1.572 I0 J-1
X-134.309 Y-26.085 Z-1.602 I0 J1
X-134.309 Y-28.085 Z-1.633 I0 J-1
X-134.309 Y-26.085 Z-1.663 I0 J1
X-134.309 Y-28.085 Z-1.694 I0 J-1
X-134.309 Y-26.085 Z-1.724 I0 J1
X-134.309 Y-28.085 Z-1.755 I0 J-1
X-134.309 Y-26.085 Z-1.786 I0 J1
X-134.309 Y-28.085 Z-1.816 I0 J-1
X-134.309 Y-26.085 Z-1.847 I0 J1
X-134.309 Y-28.085 Z-1.877 I0 J-1
X-134.309 Y-26.085 Z-1.908 I0 J1
X-134.309 Y-28.085 Z-1.938 I0 J-1
X-134.309 Y-26.085 Z-1.969 I0 J1
X-134.309 Y-28.085 Z-1.999 I0 J-1
X-134.309 Y-26.085 Z-2.03 I0 J1
X-134.309 Y-28.085 Z-2.06 I0 J-1
X-134.309 Y-26.085 Z-2.091 I0 J1
X-134.309 Y-28.085 Z-2.122 I0 J-1
X-134.309 Y-26.085 Z-2.152 I0 J1
X-134.309 Y-28.085 Z-2.183 I0 J-1
X-133.332 Y-26.87 Z-2.2 I0 J1
X-135.285 Y-27.301 I-0.977 J-0.215
X-133.332 Y-26.87 I0.977 J0.215
G1 X-133.349 Y-26.826
X-133.379 Y-26.79
X-133.418 Y-26.765
X-133.464 Y-26.753
X-133.511 Y-26.756
X-133.584 Y-26.772
X-133.629 Y-26.782 Z-2.193
X-133.67 Y-26.791 Z-2.171
X-133.703 Y-26.798 Z-2.138
X-133.723 Y-26.803 Z-2.096
X-133.73 Y-26.804 Z-2.05
G0 Z5
X-115.15 Y-20.625
Z2.2
G1 Z0.35 F400
Y-20.632 Z0.304
Y-20.654 Z0.262
Y-20.687 Z0.229
Y-20.729 Z0.207
Y-20.775 Z0.2
Y-20.85
X-115.143 Y-20.896
X-115.121 Y-20.938
X-115.088 Y-20.971
X-115.046 Y-20.993
X-115 Y-21
G3 X-115 Y-19 Z0.169 I0 J1 F600
X-115 Y-21 Z0.139 I0 J-1
X-115 Y-19 Z0.108 I0 J1
X-115 Y-21 Z0.078 I0 J-1
X-115 Y-19 Z0.047 I0 J1
X-115 Y-21 Z0.017 I0 J-1
X-115 Y-19 Z-0.014 I0 J1
X-115 Y-21 Z-0.044 I0 J-1
X-115 Y-19 Z-0.075 I0 J1
X-115 Y-21 Z-0.105 I0 J-1
X-115 Y-19 Z-0.136 I0 J1
X-115 Y-21 Z-0.167 I0 J-1
X-115 Y-19 Z-0.197 I0 J1
X-115 Y-21 Z-0.228 I0 J-1
X-115 Y-19 Z-0.258 I0 J1
X-115 Y-21 Z-0.289 I0 J-1
X-115 Y-19 Z-0.319 I0 J1
X-115 Y-21 Z-0.35 I0 J-1
X-115 Y-19 Z-0.38 I0 J1
X-115 Y-21 Z-0.411 I0 J-1
X-115 Y-19 Z-0.441 I0 J1
X-115 Y-21 Z-0.472 I0 J-1
X-115 Y-19 Z-0.503 I0 J1
X-115 Y-21 Z-0.533 I0 J-1
X-115 Y-19 Z-0.564 I0 J1
X-115 Y-21 Z-0.594 I0 J-1
X-115 Y-19 Z-0.625 I0 J1
X-115 Y-21 Z-0.655 I0 J-1
X-115 Y-19 Z-0.686 I0 J1
X-115 Y-21 Z-0.716 I0 J-1
X-115 Y-19 Z-0.747 I0 J1
X-115 Y-21 Z-0.777 I0 J-1
X-115 Y-19 Z-0.808 I0 J1
X-115 Y-21 Z-0.839 I0 J-1
X-115 Y-19 Z-0.869 I0 J1
X-115 Y-21 Z-0.9 I0 J-1
X-115 Y-19 Z-0.93 I0 J1
X-115 Y-21 Z-0.961 I0 J-1
X-115 Y-19 Z-0.991 I0 J1
X-115 Y-21 Z-1.022 I0 J-1
X-115 Y-19 Z-1.052 I0 J1
X-115 Y-21 Z-1.083 I0 J-1
X-115 Y-19 Z-1.113 I0 J1
X-115 Y-21 Z-1.144 I0 J-1
X-115 Y-19 Z-1.175 I0 J1
X-115 Y-21 Z-1.205 I0 J-1
X-115 Y-19 Z-1.236 I0 J1
X-115 Y-21 Z-1.266 I0 J-1
X-115 Y-19 Z-1.297 I0 J1
X-115 Y-21 Z-1.327 I0 J-1
X-115 Y-19 Z-1.358 I0 J1
X-115 Y-21 Z-1.388 I0 J-1
X-115 Y-19 Z-1.419 I0 J1
X-115 Y-21 Z-1.45 I0 J-1
X-115 Y-19 Z-1.48 I0 J1
X-115 Y-21 Z-1.511 I0 J-1
X-115 Y-19 Z-1.541 I0 J1
X-115 Y-21 Z-1.572 I0 J-1
X-115 Y-19 Z-1.602 I0 J1
X-115 Y-21 Z-1.633 I0 J-1
X-115 Y-19 Z-1.663 I0 J1
X-115 Y-21 Z-1.694 I0 J-1
X-115 Y-19 Z-1.724 I0 J1
X-115 Y-21 Z-1.755 I0 J-1
X-115 Y-19 Z-1.786 I0 J1
X-115 Y-21 Z-1.816 I0 J-1
X-115 Y-19 Z-1.847 I0 J1
X-115 Y-21 Z-1.877 I0 J-1
X-115 Y-19 Z-1.908 I0 J1
X-115 Y-21 Z-1.938 I0 J-1
X-115 Y-19 Z-1.969 I0 J1
X-115 Y-21 Z-1.999 I0 J-1
X-115 Y-19 Z-2.03 I0 J1
X-115 Y-21 Z-2.06 I0 J-1
X-115 Y-19 Z-2.091 I0 J1
X-115 Y-21 Z-2.122 I0 J-1
X-115 Y-19 Z-2.152 I0 J1
X-115 Y-21 Z-2.183 I0 J-1
X-114.023 Y-19.785 Z-2.2 I0 J1
X-115.977 Y-20.215 I-0.977 J-0.215
X-114.023 Y-19.785 I0.977 J0.215
G1 X-114.041 Y-19.741
X-114.07 Y-19.705
X-114.11 Y-19.679
X-114.155 Y-19.668
X-114.202 Y-19.67
X-114.275 Y-19.687
X-114.321 Y-19.697 Z-2.193
X-114.362 Y-19.706 Z-2.171
X-114.394 Y-19.713 Z-2.138
X-114.415 Y-19.717 Z-2.096
X-114.422 Y-19.719 Z-2.05
G0 Z5
X-106.026 Y-25.554
Z2.2
G1 Z0.35 F400
Y-25.561 Z0.304
Y-25.582 Z0.262
Y-25.615 Z0.229
Y-25.657 Z0.207
Y-25.704 Z0.2
Y-25.779
X-106.018 Y-25.825
X-105.997 Y-25.867
X-105.964 Y-25.9
X-105.922 Y-25.921
X-105.876 Y-25.929
G3 X-105.876 Y-23.929 Z0.169 I0 J1 F600
X-105.876 Y-25.929 Z0.139 I0 J-1
X-105.876 Y-23.929 Z0.108 I0 J1
X-105.876 Y-25.929 Z0.078 I0 J-1
X-105.876 Y-23.929 Z0.047 I0 J1
X-105.876 Y-25.929 Z0.017 I0 J-1
X-105.876 Y-23.929 Z-0.014 I0 J1
X-105.876 Y-25.929 Z-0.044 I0 J-1
X-105.876 Y-23.929 Z-0.075 I0 J1
X-105.876 Y-25.929 Z-0.105 I0 J-1
X-105.876 Y-23.929 Z-0.136 I0 J1
X-105.876 Y-25.929 Z-0.167 I0 J-1
X-105.876 Y-23.929 Z-0.197 I0 J1
X-105.876 Y-25.929 Z-0.228 I0 J-1
X-105.876 Y-23.929 Z-0.258 I0 J1
X-105.876 Y-25.929 Z-0.289 I0 J-1
X-105.876 Y-23.929 Z-0.319 I0 J1
X-105.876 Y-25.929 Z-0.35 I0 J-1
X-105.876 Y-23.929 Z-0.38 I0 J1
X-105.876 Y-25.929 Z-0.411 I0 J-1
X-105.876 Y-23.929 Z-0.441 I0 J1
X-105.876 Y-25.929 Z-0.472 I0 J-1
X-105.876 Y-23.929 Z-0.503 I0 J1
X-105.876 Y-25.929 Z-0.533 I0 J-1
X-105.876 Y-23.929 Z-0.564 I0 J1
X-105.876 Y-25.929 Z-0.594 I0 J-1
X-105.876 Y-23.929 Z-0.625 I0 J1
X-105.876 Y-25.929 Z-0.655 I0 J-1
X-105.876 Y-23.929 Z-0.686 I0 J1
X-105.876 Y-25.929 Z-0.716 I0 J-1
X-105.876 Y-23.929 Z-0.747 I0 J1
X-105.876 Y-25.929 Z-0.777 I0 J-1
X-105.876 Y-23.929 Z-0.808 I0 J1
X-105.876 Y-25.929 Z-0.839 I0 J-1
X-105.876 Y-23.929 Z-0.869 I0 J1
X-105.876 Y-25.929 Z-0.9 I0 J-1
X-105.876 Y-23.929 Z-0.93 I0 J1
X-105.876 Y-25.929 Z-0.961 I0 J-1
X-105.876 Y-23.929 Z-0.991 I0 J1
X-105.876 Y-25.929 Z-1.022 I0 J-1
X-105.876 Y-23.929 Z-1.052 I0 J1
X-105.876 Y-25.929 Z-1.083 I0 J-1
X-105.876 Y-23.929 Z-1.113 I0 J1
X-105.876 Y-25.929 Z-1.144 I0 J-1
X-105.876 Y-23.929 Z-1.175 I0 J1
X-105.876 Y-25.929 Z-1.205 I0 J-1
X-105.876 Y-23.929 Z-1.236 I0 J1
X-105.876 Y-25.929 Z-1.266 I0 J-1
X-105.876 Y-23.929 Z-1.297 I0 J1
X-105.876 Y-25.929 Z-1.327 I0 J-1
X-105.876 Y-23.929 Z-1.358 I0 J1
X-105.876 Y-25.929 Z-1.388 I0 J-1
X-105.876 Y-23.929 Z-1.419 I0 J1
X-105.876 Y-25.929 Z-1.45 I0 J-1
X-105.876 Y-23.929 Z-1.48 I0 J1
X-105.876 Y-25.929 Z-1.511 I0 J-1
X-105.876 Y-23.929 Z-1.541 I0 J1
X-105.876 Y-25.929 Z-1.572 I0 J-1
X-105.876 Y-23.929 Z-1.602 I0 J1
X-105.876 Y-25.929 Z-1.633 I0 J-1
X-105.876 Y-23.929 Z-1.663 I0 J1
X-105.876 Y-25.929 Z-1.694 I0 J-1
X-105.876 Y-23.929 Z-1.724 I0 J1
X-105.876 Y-25.929 Z-1.755 I0 J-1
X-105.876 Y-23.929 Z-1.786 I0 J1
X-105.876 Y-25.929 Z-1.816 I0 J-1
X-105.876 Y-23.929 Z-1.847 I0 J1
X-105.876 Y-25.929 Z-1.877 I0 J-1
X-105.876 Y-23.929 Z-1.908 I0 J1
X-105.876 Y-25.929 Z-1.938 I0 J-1
X-105.876 Y-23.929 Z-1.969 I0 J1
X-105.876 Y-25.929 Z-1.999 I0 J-1
X-105.876 Y-23.929 Z-2.03 I0 J1
X-105.876 Y-25.929 Z-2.06 I0 J-1
X-105.876 Y-23.929 Z-2.091 I0 J1
X-105.876 Y-25.929 Z-2.122 I0 J-1
X-105.876 Y-23.929 Z-2.152 I0 J1
X-105.876 Y-25.929 Z-2.183 I0 J-1
X-104.899 Y-24.713 Z-2.2 I0 J1
X-106.852 Y-25.144 I-0.977 J-0.215
X-104.899 Y-24.713 I0.977 J0.215
G1 X-104.916 Y-24.67
X-104.946 Y-24.633
X-104.986 Y-24.608
X-105.031 Y-24.596
X-105.078 Y-24.599
X-105.151 Y-24.615
X-105.196 Y-24.625 Z-2.193
X-105.237 Y-24.634 Z-2.171
X-105.27 Y-24.641 Z-2.138
X-105.29 Y-24.646 Z-2.096
X-105.298 Y-24.648 Z-2.05
G0 Z5
X-95.15 Y-30.625
Z2.2
G1 Z0.35 F400
Y-30.632 Z0.304
Y-30.654 Z0.262
Y-30.687 Z0.229
Y-30.729 Z0.207
Y-30.775 Z0.2
Y-30.85
X-95.143 Y-30.896
X-95.121 Y-30.938
X-95.088 Y-30.971
X-95.046 Y-30.993
X-95 Y-31
G3 X-95 Y-29 Z0.169 I0 J1 F600
X-95 Y-31 Z0.139 I0 J-1
X-95 Y-29 Z0.108 I0 J1
X-95 Y-31 Z0.078 I0 J-1
X-95 Y-29 Z0.047 I0 J1
X-95 Y-31 Z0.017 I0 J-1
X-95 Y-29 Z-0.014 I0 J1
X-95 Y-31 Z-0.044 I0 J-1
X-95 Y-29 Z-0.075 I0 J1
X-95 Y-31 Z-0.105 I0 J-1
X-95 Y-29 Z-0.136 I0 J1
X-95 Y-31 Z-0.167 I0 J-1
X-95 Y-29 Z-0.197 I0 J1
X-95 Y-31 Z-0.228 I0 J-1
X-95 Y-29 Z-0.258 I0 J1
X-95 Y-31 Z-0.289 I0 J-1
X-95 Y-29 Z-0.319 I0 J1
X-95 Y-31 Z-0.35 I0 J-1
X-95 Y-29 Z-0.38 I0 J1
X-95 Y-31 Z-0.411 I0 J-1
X-95 Y-29 Z-0.441 I0 J1
X-95 Y-31 Z-0.472 I0 J-1
X-95 Y-29 Z-0.503 I0 J1
X-95 Y-31 Z-0.533 I0 J-1
X-95 Y-29 Z-0.564 I0 J1
X-95 Y-31 Z-0.594 I0 J-1
X-95 Y-29 Z-0.625 I0 J1
X-95 Y-31 Z-0.655 I0 J-1
X-95 Y-29 Z-0.686 I0 J1
X-95 Y-31 Z-0.716 I0 J-1
X-95 Y-29 Z-0.747 I0 J1
X-95 Y-31 Z-0.777 I0 J-1
X-95 Y-29 Z-0.808 I0 J1
X-95 Y-31 Z-0.839 I0 J-1
X-95 Y-29 Z-0.869 I0 J1
X-95 Y-31 Z-0.9 I0 J-1
X-95 Y-29 Z-0.93 I0 J1
X-95 Y-31 Z-0.961 I0 J-1
X-95 Y-29 Z-0.991 I0 J1
X-95 Y-31 Z-1.022 I0 J-1
X-95 Y-29 Z-1.052 I0 J1
X-95 Y-31 Z-1.083 I0 J-1
X-95 Y-29 Z-1.113 I0 J1
X-95 Y-31 Z-1.144 I0 J-1
X-95 Y-29 Z-1.175 I0 J1
X-95 Y-31 Z-1.205 I0 J-1
X-95 Y-29 Z-1.236 I0 J1
X-95 Y-31 Z-1.266 I0 J-1
X-95 Y-29 Z-1.297 I0 J1
X-95 Y-31 Z-1.327 I0 J-1
X-95 Y-29 Z-1.358 I0 J1
X-95 Y-31 Z-1.388 I0 J-1
X-95 Y-29 Z-1.419 I0 J1
X-95 Y-31 Z-1.45 I0 J-1
X-95 Y-29 Z-1.48 I0 J1
X-95 Y-31 Z-1.511 I0 J-1
X-95 Y-29 Z-1.541 I0 J1
X-95 Y-31 Z-1.572 I0 J-1
X-95 Y-29 Z-1.602 I0 J1
X-95 Y-31 Z-1.633 I0 J-1
X-95 Y-29 Z-1.663 I0 J1
X-95 Y-31 Z-1.694 I0 J-1
X-95 Y-29 Z-1.724 I0 J1
X-95 Y-31 Z-1.755 I0 J-1
X-95 Y-29 Z-1.786 I0 J1
X-95 Y-31 Z-1.816 I0 J-1
X-95 Y-29 Z-1.847 I0 J1
X-95 Y-31 Z-1.877 I0 J-1
X-95 Y-29 Z-1.908 I0 J1
X-95 Y-31 Z-1.938 I0 J-1
X-95 Y-29 Z-1.969 I0 J1
X-95 Y-31 Z-1.999 I0 J-1
X-95 Y-29 Z-2.03 I0 J1
X-95 Y-31 Z-2.06 I0 J-1
X-95 Y-29 Z-2.091 I0 J1
X-95 Y-31 Z-2.122 I0 J-1
X-95 Y-29 Z-2.152 I0 J1
X-95 Y-31 Z-2.183 I0 J-1
X-94.023 Y-29.785 Z-2.2 I0 J1
X-95.977 Y-30.215 I-0.977 J-0.215
X-94.023 Y-29.785 I0.977 J0.215
G1 X-94.041 Y-29.741
X-94.07 Y-29.705
X-94.11 Y-29.679
X-94.155 Y-29.668
X-94.202 Y-29.67
X-94.275 Y-29.687
X-94.321 Y-29.697 Z-2.193
X-94.362 Y-29.706 Z-2.171
X-94.394 Y-29.713 Z-2.138
X-94.415 Y-29.717 Z-2.096
X-94.422 Y-29.719 Z-2.05
G0 Z5
X-55.15 Y-35.625
Z2.2
G1 Z0.35 F400
Y-35.632 Z0.304
Y-35.654 Z0.262
Y-35.687 Z0.229
Y-35.729 Z0.207
Y-35.775 Z0.2
Y-35.85
X-55.143 Y-35.896
X-55.121 Y-35.938
X-55.088 Y-35.971
X-55.046 Y-35.993
X-55 Y-36
G3 X-55 Y-34 Z0.169 I0 J1 F600
X-55 Y-36 Z0.139 I0 J-1
X-55 Y-34 Z0.108 I0 J1
X-55 Y-36 Z0.078 I0 J-1
X-55 Y-34 Z0.047 I0 J1
X-55 Y-36 Z0.017 I0 J-1
X-55 Y-34 Z-0.014 I0 J1
X-55 Y-36 Z-0.044 I0 J-1
X-55 Y-34 Z-0.075 I0 J1
X-55 Y-36 Z-0.105 I0 J-1
X-55 Y-34 Z-0.136 I0 J1
X-55 Y-36 Z-0.167 I0 J-1
X-55 Y-34 Z-0.197 I0 J1
X-55 Y-36 Z-0.228 I0 J-1
X-55 Y-34 Z-0.258 I0 J1
X-55 Y-36 Z-0.289 I0 J-1
X-55 Y-34 Z-0.319 I0 J1
X-55 Y-36 Z-0.35 I0 J-1
X-55 Y-34 Z-0.38 I0 J1
X-55 Y-36 Z-0.411 I0 J-1
X-55 Y-34 Z-0.441 I0 J1
X-55 Y-36 Z-0.472 I0 J-1
X-55 Y-34 Z-0.503 I0 J1
X-55 Y-36 Z-0.533 I0 J-1
X-55 Y-34 Z-0.564 I0 J1
X-55 Y-36 Z-0.594 I0 J-1
X-55 Y-34 Z-0.625 I0 J1
X-55 Y-36 Z-0.655 I0 J-1
X-55 Y-34 Z-0.686 I0 J1
X-55 Y-36 Z-0.716 I0 J-1
X-55 Y-34 Z-0.747 I0 J1
X-55 Y-36 Z-0.777 I0 J-1
X-55 Y-34 Z-0.808 I0 J1
X-55 Y-36 Z-0.839 I0 J-1
X-55 Y-34 Z-0.869 I0 J1
X-55 Y-36 Z-0.9 I0 J-1
X-55 Y-34 Z-0.93 I0 J1
X-55 Y-36 Z-0.961 I0 J-1
X-55 Y-34 Z-0.991 I0 J1
X-55 Y-36 Z-1.022 I0 J-1
X-55 Y-34 Z-1.052 I0 J1
X-55 Y-36 Z-1.083 I0 J-1
X-55 Y-34 Z-1.113 I0 J1
X-55 Y-36 Z-1.144 I0 J-1
X-55 Y-34 Z-1.175 I0 J1
X-55 Y-36 Z-1.205 I0 J-1
X-55 Y-34 Z-1.236 I0 J1
X-55 Y-36 Z-1.266 I0 J-1
X-55 Y-34 Z-1.297 I0 J1
X-55 Y-36 Z-1.327 I0 J-1
X-55 Y-34 Z-1.358 I0 J1
X-55 Y-36 Z-1.388 I0 J-1
X-55 Y-34 Z-1.419 I0 J1
X-55 Y-36 Z-1.45 I0 J-1
X-55 Y-34 Z-1.48 I0 J1
X-55 Y-36 Z-1.511 I0 J-1
X-55 Y-34 Z-1.541 I0 J1
X-55 Y-36 Z-1.572 I0 J-1
X-55 Y-34 Z-1.602 I0 J1
X-55 Y-36 Z-1.633 I0 J-1
X-55 Y-34 Z-1.663 I0 J1
X-55 Y-36 Z-1.694 I0 J-1
X-55 Y-34 Z-1.724 I0 J1
X-55 Y-36 Z-1.755 I0 J-1
X-55 Y-34 Z-1.786 I0 J1
X-55 Y-36 Z-1.816 I0 J-1
X-55 Y-34 Z-1.847 I0 J1
X-55 Y-36 Z-1.877 I0 J-1
X-55 Y-34 Z-1.908 I0 J1
X-55 Y-36 Z-1.938 I0 J-1
X-55 Y-34 Z-1.969 I0 J1
X-55 Y-36 Z-1.999 I0 J-1
X-55 Y-34 Z-2.03 I0 J1
X-55 Y-36 Z-2.06 I0 J-1
X-55 Y-34 Z-2.091 I0 J1
X-55 Y-36 Z-2.122 I0 J-1
X-55 Y-34 Z-2.152 I0 J1
X-55 Y-36 Z-2.183 I0 J-1
X-54.023 Y-34.785 Z-2.2 I0 J1
X-55.977 Y-35.215 I-0.977 J-0.215
X-54.023 Y-34.785 I0.977 J0.215
G1 X-54.041 Y-34.741
X-54.07 Y-34.705
X-54.11 Y-34.679
X-54.155 Y-34.668
X-54.202 Y-34.67
X-54.275 Y-34.687
X-54.321 Y-34.697 Z-2.193
X-54.362 Y-34.706 Z-2.171
X-54.394 Y-34.713 Z-2.138
X-54.415 Y-34.717 Z-2.096
X-54.422 Y-34.719 Z-2.05
G0 Z5
X-30.15 Y-40.625
Z2.2
G1 Z0.35 F400
Y-40.632 Z0.304
Y-40.654 Z0.262
Y-40.687 Z0.229
Y-40.729 Z0.207
Y-40.775 Z0.2
Y-40.85
X-30.143 Y-40.896
X-30.121 Y-40.938
X-30.088 Y-40.971
X-30.046 Y-40.993
X-30 Y-41
G3 X-30 Y-39 Z0.169 I0 J1 F600
X-30 Y-41 Z0.139 I0 J-1
X-30 Y-39 Z0.108 I0 J1
X-30 Y-41 Z0.078 I0 J-1
X-30 Y-39 Z0.047 I0 J1
X-30 Y-41 Z0.017 I0 J-1
X-30 Y-39 Z-0.014 I0 J1
X-30 Y-41 Z-0.044 I0 J-1
X-30 Y-39 Z-0.075 I0 J1
X-30 Y-41 Z-0.105 I0 J-1
X-30 Y-39 Z-0.136 I0 J1
X-30 Y-41 Z-0.167 I0 J-1
X-30 Y-39 Z-0.197 I0 J1
X-30 Y-41 Z-0.228 I0 J-1
X-30 Y-39 Z-0.258 I0 J1
X-30 Y-41 Z-0.289 I0 J-1
X-30 Y-39 Z-0.319 I0 J1
X-30 Y-41 Z-0.35 I0 J-1
X-30 Y-39 Z-0.38 I0 J1
X-30 Y-41 Z-0.411 I0 J-1
X-30 Y-39 Z-0.441 I0 J1
X-30 Y-41 Z-0.472 I0 J-1
X-30 Y-39 Z-0.503 I0 J1
X-30 Y-41 Z-0.533 I0 J-1
X-30 Y-39 Z-0.564 I0 J1
X-30 Y-41 Z-0.594 I0 J-1
X-30 Y-39 Z-0.625 I0 J1
X-30 Y-41 Z-0.655 I0 J-1
X-30 Y-39 Z-0.686 I0 J1
X-30 Y-41 Z-0.716 I0 J-1
X-30 Y-39 Z-0.747 I0 J1
X-30 Y-41 Z-0.777 I0 J-1
X-30 Y-39 Z-0.808 I0 J1
X-30 Y-41 Z-0.839 I0 J-1
X-30 Y-39 Z-0.869 I0 J1
X-30 Y-41 Z-0.9 I0 J-1
X-30 Y-39 Z-0.93 I0 J1
X-30 Y-41 Z-0.961 I0 J-1
X-30 Y-39 Z-0.991 I0 J1
X-30 Y-41 Z-1.022 I0 J-1
X-30 Y-39 Z-1.052 I0 J1
X-30 Y-41 Z-1.083 I0 J-1
X-30 Y-39 Z-1.113 I0 J1
X-30 Y-41 Z-1.144 I0 J-1
X-30 Y-39 Z-1.175 I0 J1
X-30 Y-41 Z-1.205 I0 J-1
X-30 Y-39 Z-1.236 I0 J1
X-30 Y-41 Z-1.266 I0 J-1
X-30 Y-39 Z-1.297 I0 J1
X-30 Y-41 Z-1.327 I0 J-1
X-30 Y-39 Z-1.358 I0 J1
X-30 Y-41 Z-1.388 I0 J-1
X-30 Y-39 Z-1.419 I0 J1
X-30 Y-41 Z-1.45 I0 J-1
X-30 Y-39 Z-1.48 I0 J1
X-30 Y-41 Z-1.511 I0 J-1
X-30 Y-39 Z-1.541 I0 J1
X-30 Y-41 Z-1.572 I0 J-1
X-30 Y-39 Z-1.602 I0 J1
X-30 Y-41 Z-1.633 I0 J-1
X-30 Y-39 Z-1.663 I0 J1
X-30 Y-41 Z-1.694 I0 J-1
X-30 Y-39 Z-1.724 I0 J1
X-30 Y-41 Z-1.755 I0 J-1
X-30 Y-39 Z-1.786 I0 J1
X-30 Y-41 Z-1.816 I0 J-1
X-30 Y-39 Z-1.847 I0 J1
X-30 Y-41 Z-1.877 I0 J-1
X-30 Y-39 Z-1.908 I0 J1
X-30 Y-41 Z-1.938 I0 J-1
X-30 Y-39 Z-1.969 I0 J1
X-30 Y-41 Z-1.999 I0 J-1
X-30 Y-39 Z-2.03 I0 J1
X-30 Y-41 Z-2.06 I0 J-1
X-30 Y-39 Z-2.091 I0 J1
X-30 Y-41 Z-2.122 I0 J-1
X-30 Y-39 Z-2.152 I0 J1
X-30 Y-41 Z-2.183 I0 J-1
X-29.023 Y-39.785 Z-2.2 I0 J1
X-30.977 Y-40.215 I-0.977 J-0.215
X-29.023 Y-39.785 I0.977 J0.215
G1 X-29.041 Y-39.741
X-29.07 Y-39.705
X-29.11 Y-39.679
X-29.155 Y-39.668
X-29.202 Y-39.67
X-29.275 Y-39.687
X-29.321 Y-39.697 Z-2.193
X-29.362 Y-39.706 Z-2.171
X-29.394 Y-39.713 Z-2.138
X-29.415 Y-39.717 Z-2.096
X-29.422 Y-39.719 Z-2.05
G0 Z5
X-284.15 Y-51.625
Z2.2
G1 Z0.35 F400
Y-51.632 Z0.304
Y-51.654 Z0.262
Y-51.687 Z0.229
Y-51.729 Z0.207
Y-51.775 Z0.2
Y-51.85
X-284.143 Y-51.896
X-284.121 Y-51.938
X-284.088 Y-51.971
X-284.046 Y-51.993
X-284 Y-52
G3 X-284 Y-50 Z0.169 I0 J1 F600
X-284 Y-52 Z0.139 I0 J-1
X-284 Y-50 Z0.108 I0 J1
X-284 Y-52 Z0.078 I0 J-1
X-284 Y-50 Z0.047 I0 J1
X-284 Y-52 Z0.017 I0 J-1
X-284 Y-50 Z-0.014 I0 J1
X-284 Y-52 Z-0.044 I0 J-1
X-284 Y-50 Z-0.075 I0 J1
X-284 Y-52 Z-0.105 I0 J-1
X-284 Y-50 Z-0.136 I0 J1
X-284 Y-52 Z-0.167 I0 J-1
X-284 Y-50 Z-0.197 I0 J1
X-284 Y-52 Z-0.228 I0 J-1
X-284 Y-50 Z-0.258 I0 J1
X-284 Y-52 Z-0.289 I0 J-1
X-284 Y-50 Z-0.319 I0 J1
X-284 Y-52 Z-0.35 I0 J-1
X-284 Y-50 Z-0.38 I0 J1
X-284 Y-52 Z-0.411 I0 J-1
X-284 Y-50 Z-0.441 I0 J1
X-284 Y-52 Z-0.472 I0 J-1
X-284 Y-50 Z-0.503 I0 J1
X-284 Y-52 Z-0.533 I0 J-1
X-284 Y-50 Z-0.564 I0 J1
X-284 Y-52 Z-0.594 I0 J-1
X-284 Y-50 Z-0.625 I0 J1
X-284 Y-52 Z-0.655 I0 J-1
X-284 Y-50 Z-0.686 I0 J1
X-284 Y-52 Z-0.716 I0 J-1
X-284 Y-50 Z-0.747 I0 J1
X-284 Y-52 Z-0.777 I0 J-1
X-284 Y-50 Z-0.808 I0 J1
X-284 Y-52 Z-0.839 I0 J-1
X-284 Y-50 Z-0.869 I0 J1
X-284 Y-52 Z-0.9 I0 J-1
X-284 Y-50 Z-0.93 I0 J1
X-284 Y-52 Z-0.961 I0 J-1
X-284 Y-50 Z-0.991 I0 J1
X-284 Y-52 Z-1.022 I0 J-1
X-284 Y-50 Z-1.052 I0 J1
X-284 Y-52 Z-1.083 I0 J-1
X-284 Y-50 Z-1.113 I0 J1
X-284 Y-52 Z-1.144 I0 J-1
X-284 Y-50 Z-1.175 I0 J1
X-284 Y-52 Z-1.205 I0 J-1
X-284 Y-50 Z-1.236 I0 J1
X-284 Y-52 Z-1.266 I0 J-1
X-284 Y-50 Z-1.297 I0 J1
X-284 Y-52 Z-1.327 I0 J-1
X-284 Y-50 Z-1.358 I0 J1
X-284 Y-52 Z-1.388 I0 J-1
X-284 Y-50 Z-1.419 I0 J1
X-284 Y-52 Z-1.45 I0 J-1
X-284 Y-50 Z-1.48 I0 J1
X-284 Y-52 Z-1.511 I0 J-1
X-284 Y-50 Z-1.541 I0 J1
X-284 Y-52 Z-1.572 I0 J-1
X-284 Y-50 Z-1.602 I0 J1
X-284 Y-52 Z-1.633 I0 J-1
X-284 Y-50 Z-1.663 I0 J1
X-284 Y-52 Z-1.694 I0 J-1
X-284 Y-50 Z-1.724 I0 J1
X-284 Y-52 Z-1.755 I0 J-1
X-284 Y-50 Z-1.786 I0 J1
X-284 Y-52 Z-1.816 I0 J-1
X-284 Y-50 Z-1.847 I0 J1
X-284 Y-52 Z-1.877 I0 J-1
X-284 Y-50 Z-1.908 I0 J1
X-284 Y-52 Z-1.938 I0 J-1
X-284 Y-50 Z-1.969 I0 J1
X-284 Y-52 Z-1.999 I0 J-1
X-284 Y-50 Z-2.03 I0 J1
X-284 Y-52 Z-2.06 I0 J-1
X-284 Y-50 Z-2.091 I0 J1
X-284 Y-52 Z-2.122 I0 J-1
X-284 Y-50 Z-2.152 I0 J1
X-284 Y-52 Z-2.183 I0 J-1
X-283.023 Y-50.785 Z-2.2 I0 J1
X-284.977 Y-51.215 I-0.977 J-0.215
X-283.023 Y-50.785 I0.977 J0.215
G1 X-283.041 Y-50.741
X-283.07 Y-50.705
X-283.11 Y-50.679
X-283.155 Y-50.668
X-283.202 Y-50.67
X-283.275 Y-50.687
X-283.321 Y-50.697 Z-2.193
X-283.362 Y-50.706 Z-2.171
X-283.394 Y-50.713 Z-2.138
X-283.415 Y-50.717 Z-2.096
X-283.422 Y-50.719 Z-2.05
G0 Z5
X-284.15 Y-89.625
Z2.2
G1 Z0.35 F400
Y-89.632 Z0.304
Y-89.654 Z0.262
Y-89.687 Z0.229
Y-89.729 Z0.207
Y-89.775 Z0.2
Y-89.85
X-284.143 Y-89.896
X-284.121 Y-89.938
X-284.088 Y-89.971
X-284.046 Y-89.993
X-284 Y-90
G3 X-284 Y-88 Z0.169 I0 J1 F600
X-284 Y-90 Z0.139 I0 J-1
X-284 Y-88 Z0.108 I0 J1
X-284 Y-90 Z0.078 I0 J-1
X-284 Y-88 Z0.047 I0 J1
X-284 Y-90 Z0.017 I0 J-1
X-284 Y-88 Z-0.014 I0 J1
X-284 Y-90 Z-0.044 I0 J-1
X-284 Y-88 Z-0.075 I0 J1
X-284 Y-90 Z-0.105 I0 J-1
X-284 Y-88 Z-0.136 I0 J1
X-284 Y-90 Z-0.167 I0 J-1
X-284 Y-88 Z-0.197 I0 J1
X-284 Y-90 Z-0.228 I0 J-1
X-284 Y-88 Z-0.258 I0 J1
X-284 Y-90 Z-0.289 I0 J-1
X-284 Y-88 Z-0.319 I0 J1
X-284 Y-90 Z-0.35 I0 J-1
X-284 Y-88 Z-0.38 I0 J1
X-284 Y-90 Z-0.411 I0 J-1
X-284 Y-88 Z-0.441 I0 J1
X-284 Y-90 Z-0.472 I0 J-1
X-284 Y-88 Z-0.503 I0 J1
X-284 Y-90 Z-0.533 I0 J-1
X-284 Y-88 Z-0.564 I0 J1
X-284 Y-90 Z-0.594 I0 J-1
X-284 Y-88 Z-0.625 I0 J1
X-284 Y-90 Z-0.655 I0 J-1
X-284 Y-88 Z-0.686 I0 J1
X-284 Y-90 Z-0.716 I0 J-1
X-284 Y-88 Z-0.747 I0 J1
X-284 Y-90 Z-0.777 I0 J-1
X-284 Y-88 Z-0.808 I0 J1
X-284 Y-90 Z-0.839 I0 J-1
X-284 Y-88 Z-0.869 I0 J1
X-284 Y-90 Z-0.9 I0 J-1
X-284 Y-88 Z-0.93 I0 J1
X-284 Y-90 Z-0.961 I0 J-1
X-284 Y-88 Z-0.991 I0 J1
X-284 Y-90 Z-1.022 I0 J-1
X-284 Y-88 Z-1.052 I0 J1
X-284 Y-90 Z-1.083 I0 J-1
X-284 Y-88 Z-1.113 I0 J1
X-284 Y-90 Z-1.144 I0 J-1
X-284 Y-88 Z-1.175 I0 J1
X-284 Y-90 Z-1.205 I0 J-1
X-284 Y-88 Z-1.236 I0 J1
X-284 Y-90 Z-1.266 I0 J-1
X-284 Y-88 Z-1.297 I0 J1
X-284 Y-90 Z-1.327 I0 J-1
X-284 Y-88 Z-1.358 I0 J1
X-284 Y-90 Z-1.388 I0 J-1
X-284 Y-88 Z-1.419 I0 J1
X-284 Y-90 Z-1.45 I0 J-1
X-284 Y-88 Z-1.48 I0 J1
X-284 Y-90 Z-1.511 I0 J-1
X-284 Y-88 Z-1.541 I0 J1
X-284 Y-90 Z-1.572 I0 J-1
X-284 Y-88 Z-1.602 I0 J1
X-284 Y-90 Z-1.633 I0 J-1
X-284 Y-88 Z-1.663 I0 J1
X-284 Y-90 Z-1.694 I0 J-1
X-284 Y-88 Z-1.724 I0 J1
X-284 Y-90 Z-1.755 I0 J-1
X-284 Y-88 Z-1.786 I0 J1
X-284 Y-90 Z-1.816 I0 J-1
X-284 Y-88 Z-1.847 I0 J1
X-284 Y-90 Z-1.877 I0 J-1
X-284 Y-88 Z-1.908 I0 J1
X-284 Y-90 Z-1.938 I0 J-1
X-284 Y-88 Z-1.969 I0 J1
X-284 Y-90 Z-1.999 I0 J-1
X-284 Y-88 Z-2.03 I0 J1
X-284 Y-90 Z-2.06 I0 J-1
X-284 Y-88 Z-2.091 I0 J1
X-284 Y-90 Z-2.122 I0 J-1
X-284 Y-88 Z-2.152 I0 J1
X-284 Y-90 Z-2.183 I0 J-1
X-283.023 Y-88.785 Z-2.2 I0 J1
X-284.977 Y-89.215 I-0.977 J-0.215
X-283.023 Y-88.785 I0.977 J0.215
G1 X-283.041 Y-88.741
X-283.07 Y-88.705
X-283.11 Y-88.679
X-283.155 Y-88.668
X-283.202 Y-88.67
X-283.275 Y-88.687
X-283.321 Y-88.697 Z-2.193
X-283.362 Y-88.706 Z-2.171
X-283.394 Y-88.713 Z-2.138
X-283.415 Y-88.717 Z-2.096
X-283.422 Y-88.719 Z-2.05
G0 Z15
M5
M30
