(X500_Top_Bohren_3-175)
(T17  D=3.175 CR=0 - ZMIN=-2.2 - Schaftfraser)
G90 G94
G17
G21

(Bohrfrasen3 4)
T17
S5000 M3
G54
G0 X-30.081 Y-99.923
Z15
Z1.883
G1 Z0.2 F1000
Y-100.081
X-30.075 Y-100.112
X-30.057 Y-100.139
X-30.031 Y-100.156
X-30 Y-100.162
G3 X-30 Y-99.838 Z0.169 I0 J0.162
X-30 Y-100.162 Z0.139 I0 J-0.162
X-30 Y-99.838 Z0.108 I0 J0.162
X-30 Y-100.162 Z0.078 I0 J-0.162
X-30 Y-99.838 Z0.047 I0 J0.162
X-30 Y-100.162 Z0.017 I0 J-0.162
X-30 Y-99.838 Z-0.014 I0 J0.162
X-30 Y-100.162 Z-0.044 I0 J-0.162
X-30 Y-99.838 Z-0.075 I0 J0.162
X-30 Y-100.162 Z-0.105 I0 J-0.162
X-30 Y-99.838 Z-0.136 I0 J0.162
X-30 Y-100.162 Z-0.167 I0 J-0.162
X-30 Y-99.838 Z-0.197 I0 J0.162
X-30 Y-100.162 Z-0.228 I0 J-0.162
X-30 Y-99.838 Z-0.258 I0 J0.162
X-30 Y-100.162 Z-0.289 I0 J-0.162
X-30 Y-99.838 Z-0.319 I0 J0.162
X-30 Y-100.162 Z-0.35 I0 J-0.162
X-30 Y-99.838 Z-0.38 I0 J0.162
X-30 Y-100.162 Z-0.411 I0 J-0.162
X-30 Y-99.838 Z-0.441 I0 J0.162
X-30 Y-100.162 Z-0.472 I0 J-0.162
X-30 Y-99.838 Z-0.503 I0 J0.162
X-30 Y-100.162 Z-0.533 I0 J-0.162
X-30 Y-99.838 Z-0.564 I0 J0.162
X-30 Y-100.162 Z-0.594 I0 J-0.162
X-30 Y-99.838 Z-0.625 I0 J0.162
X-30 Y-100.162 Z-0.655 I0 J-0.162
X-30 Y-99.838 Z-0.686 I0 J0.162
X-30 Y-100.162 Z-0.716 I0 J-0.162
X-30 Y-99.838 Z-0.747 I0 J0.162
X-30 Y-100.162 Z-0.777 I0 J-0.162
X-30 Y-99.838 Z-0.808 I0 J0.162
X-30 Y-100.162 Z-0.839 I0 J-0.162
X-30 Y-99.838 Z-0.869 I0 J0.162
X-30 Y-100.162 Z-0.9 I0 J-0.162
X-30 Y-99.838 Z-0.93 I0 J0.162
X-30 Y-100.162 Z-0.961 I0 J-0.162
X-30 Y-99.838 Z-0.991 I0 J0.162
X-30 Y-100.162 Z-1.022 I0 J-0.162
X-30 Y-99.838 Z-1.052 I0 J0.162
X-30 Y-100.162 Z-1.083 I0 J-0.162
X-30 Y-99.838 Z-1.113 I0 J0.162
X-30 Y-100.162 Z-1.144 I0 J-0.162
X-30 Y-99.838 Z-1.175 I0 J0.162
X-30 Y-100.162 Z-1.205 I0 J-0.162
X-30 Y-99.838 Z-1.236 I0 J0.162
X-30 Y-100.162 Z-1.266 I0 J-0.162
X-30 Y-99.838 Z-1.297 I0 J0.162
X-30 Y-100.162 Z-1.327 I0 J-0.162
X-30 Y-99.838 Z-1.358 I0 J0.162
X-30 Y-100.162 Z-1.388 I0 J-0.162
X-30 Y-99.838 Z-1.419 I0 J0.162
X-30 Y-100.162 Z-1.45 I0 J-0.162
X-30 Y-99.837 Z-1.48 I0 J0.162
X-30 Y-100.163 Z-1.511 I0 J-0.163
X-30 Y-99.837 Z-1.541 I0 J0.163
X-30 Y-100.163 Z-1.572 I0 J-0.163
X-30 Y-99.837 Z-1.602 I0 J0.163
X-30 Y-100.163 Z-1.633 I0 J-0.163
X-30 Y-99.837 Z-1.663 I0 J0.163
X-30 Y-100.163 Z-1.694 I0 J-0.163
X-30 Y-99.837 Z-1.724 I0 J0.163
X-30 Y-100.163 Z-1.755 I0 J-0.163
X-30 Y-99.837 Z-1.786 I0 J0.163
X-30 Y-100.163 Z-1.816 I0 J-0.163
X-30 Y-99.837 Z-1.847 I0 J0.163
X-30 Y-100.163 Z-1.877 I0 J-0.163
X-30 Y-99.837 Z-1.908 I0 J0.163
X-30 Y-100.163 Z-1.938 I0 J-0.163
X-30 Y-99.837 Z-1.969 I0 J0.163
X-30 Y-100.163 Z-1.999 I0 J-0.163
X-30 Y-99.837 Z-2.03 I0 J0.163
X-30 Y-100.163 Z-2.06 I0 J-0.163
X-30 Y-99.837 Z-2.091 I0 J0.163
X-30 Y-100.163 Z-2.122 I0 J-0.163
X-30 Y-99.837 Z-2.152 I0 J0.163
X-30 Y-100.163 Z-2.183 I0 J-0.163
X-29.841 Y-99.965 Z-2.2 I0 J0.163
X-30.159 Y-100.035 I-0.159 J-0.035
X-29.841 Y-99.965 I0.159 J0.035
G1 X-29.854 Y-99.936
X-29.877 Y-99.914
X-29.906 Y-99.903
X-29.938
X-30.093 Y-99.937
G0 Z5
X-55.081 Y-104.923
Z1.883
G1 Z0.2 F1000
Y-105.081
X-55.075 Y-105.112
X-55.057 Y-105.139
X-55.031 Y-105.156
X-55 Y-105.162
G3 X-55 Y-104.838 Z0.169 I0 J0.162
X-55 Y-105.162 Z0.139 I0 J-0.162
X-55 Y-104.838 Z0.108 I0 J0.162
X-55 Y-105.162 Z0.078 I0 J-0.162
X-55 Y-104.838 Z0.047 I0 J0.162
X-55 Y-105.162 Z0.017 I0 J-0.162
X-55 Y-104.838 Z-0.014 I0 J0.162
X-55 Y-105.162 Z-0.044 I0 J-0.162
X-55 Y-104.838 Z-0.075 I0 J0.162
X-55 Y-105.162 Z-0.105 I0 J-0.162
X-55 Y-104.838 Z-0.136 I0 J0.162
X-55 Y-105.162 Z-0.167 I0 J-0.162
X-55 Y-104.838 Z-0.197 I0 J0.162
X-55 Y-105.162 Z-0.228 I0 J-0.162
X-55 Y-104.838 Z-0.258 I0 J0.162
X-55 Y-105.162 Z-0.289 I0 J-0.162
X-55 Y-104.838 Z-0.319 I0 J0.162
X-55 Y-105.162 Z-0.35 I0 J-0.162
X-55 Y-104.838 Z-0.38 I0 J0.162
X-55 Y-105.162 Z-0.411 I0 J-0.162
X-55 Y-104.838 Z-0.441 I0 J0.162
X-55 Y-105.162 Z-0.472 I0 J-0.162
X-55 Y-104.838 Z-0.503 I0 J0.162
X-55 Y-105.162 Z-0.533 I0 J-0.162
X-55 Y-104.838 Z-0.564 I0 J0.162
X-55 Y-105.162 Z-0.594 I0 J-0.162
X-55 Y-104.838 Z-0.625 I0 J0.162
X-55 Y-105.162 Z-0.655 I0 J-0.162
X-55 Y-104.838 Z-0.686 I0 J0.162
X-55 Y-105.162 Z-0.716 I0 J-0.162
X-55 Y-104.838 Z-0.747 I0 J0.162
X-55 Y-105.162 Z-0.777 I0 J-0.162
X-55 Y-104.838 Z-0.808 I0 J0.162
X-55 Y-105.162 Z-0.839 I0 J-0.162
X-55 Y-104.838 Z-0.869 I0 J0.162
X-55 Y-105.162 Z-0.9 I0 J-0.162
X-55 Y-104.838 Z-0.93 I0 J0.162
X-55 Y-105.162 Z-0.961 I0 J-0.162
X-55 Y-104.838 Z-0.991 I0 J0.162
X-55 Y-105.162 Z-1.022 I0 J-0.162
X-55 Y-104.838 Z-1.052 I0 J0.162
X-55 Y-105.162 Z-1.083 I0 J-0.162
X-55 Y-104.838 Z-1.113 I0 J0.162
X-55 Y-105.162 Z-1.144 I0 J-0.162
X-55 Y-104.838 Z-1.175 I0 J0.162
X-55 Y-105.162 Z-1.205 I0 J-0.162
X-55 Y-104.838 Z-1.236 I0 J0.162
X-55 Y-105.162 Z-1.266 I0 J-0.162
X-55 Y-104.838 Z-1.297 I0 J0.162
X-55 Y-105.162 Z-1.327 I0 J-0.162
X-55 Y-104.838 Z-1.358 I0 J0.162
X-55 Y-105.162 Z-1.388 I0 J-0.162
X-55 Y-104.838 Z-1.419 I0 J0.162
X-55 Y-105.162 Z-1.45 I0 J-0.162
X-55 Y-104.837 Z-1.48 I0 J0.162
X-55 Y-105.163 Z-1.511 I0 J-0.163
X-55 Y-104.837 Z-1.541 I0 J0.163
X-55 Y-105.163 Z-1.572 I0 J-0.163
X-55 Y-104.837 Z-1.602 I0 J0.163
X-55 Y-105.163 Z-1.633 I0 J-0.163
X-55 Y-104.837 Z-1.663 I0 J0.163
X-55 Y-105.163 Z-1.694 I0 J-0.163
X-55 Y-104.837 Z-1.724 I0 J0.163
X-55 Y-105.163 Z-1.755 I0 J-0.163
X-55 Y-104.837 Z-1.786 I0 J0.163
X-55 Y-105.163 Z-1.816 I0 J-0.163
X-55 Y-104.837 Z-1.847 I0 J0.163
X-55 Y-105.163 Z-1.877 I0 J-0.163
X-55 Y-104.837 Z-1.908 I0 J0.163
X-55 Y-105.163 Z-1.938 I0 J-0.163
X-55 Y-104.837 Z-1.969 I0 J0.163
X-55 Y-105.163 Z-1.999 I0 J-0.163
X-55 Y-104.837 Z-2.03 I0 J0.163
X-55 Y-105.163 Z-2.06 I0 J-0.163
X-55 Y-104.837 Z-2.091 I0 J0.163
X-55 Y-105.163 Z-2.122 I0 J-0.163
X-55 Y-104.837 Z-2.152 I0 J0.163
X-55 Y-105.163 Z-2.183 I0 J-0.163
X-54.841 Y-104.965 Z-2.2 I0 J0.163
X-55.159 Y-105.035 I-0.159 J-0.035
X-54.841 Y-104.965 I0.159 J0.035
G1 X-54.854 Y-104.936
X-54.877 Y-104.914
X-54.906 Y-104.903
X-54.938
X-55.093 Y-104.937
G0 Z5
X-75.081 Y-94.923
Z1.883
G1 Z0.2 F1000
Y-95.081
X-75.075 Y-95.112
X-75.057 Y-95.139
X-75.031 Y-95.156
X-75 Y-95.162
G3 X-75 Y-94.838 Z0.169 I0 J0.162
X-75 Y-95.162 Z0.139 I0 J-0.162
X-75 Y-94.838 Z0.108 I0 J0.162
X-75 Y-95.162 Z0.078 I0 J-0.162
X-75 Y-94.838 Z0.047 I0 J0.162
X-75 Y-95.162 Z0.017 I0 J-0.162
X-75 Y-94.838 Z-0.014 I0 J0.162
X-75 Y-95.162 Z-0.044 I0 J-0.162
X-75 Y-94.838 Z-0.075 I0 J0.162
X-75 Y-95.162 Z-0.105 I0 J-0.162
X-75 Y-94.838 Z-0.136 I0 J0.162
X-75 Y-95.162 Z-0.167 I0 J-0.162
X-75 Y-94.838 Z-0.197 I0 J0.162
X-75 Y-95.162 Z-0.228 I0 J-0.162
X-75 Y-94.838 Z-0.258 I0 J0.162
X-75 Y-95.162 Z-0.289 I0 J-0.162
X-75 Y-94.838 Z-0.319 I0 J0.162
X-75 Y-95.162 Z-0.35 I0 J-0.162
X-75 Y-94.838 Z-0.38 I0 J0.162
X-75 Y-95.162 Z-0.411 I0 J-0.162
X-75 Y-94.838 Z-0.441 I0 J0.162
X-75 Y-95.162 Z-0.472 I0 J-0.162
X-75 Y-94.838 Z-0.503 I0 J0.162
X-75 Y-95.162 Z-0.533 I0 J-0.162
X-75 Y-94.838 Z-0.564 I0 J0.162
X-75 Y-95.162 Z-0.594 I0 J-0.162
X-75 Y-94.838 Z-0.625 I0 J0.162
X-75 Y-95.162 Z-0.655 I0 J-0.162
X-75 Y-94.838 Z-0.686 I0 J0.162
X-75 Y-95.162 Z-0.716 I0 J-0.162
X-75 Y-94.838 Z-0.747 I0 J0.162
X-75 Y-95.162 Z-0.777 I0 J-0.162
X-75 Y-94.838 Z-0.808 I0 J0.162
X-75 Y-95.162 Z-0.839 I0 J-0.162
X-75 Y-94.838 Z-0.869 I0 J0.162
X-75 Y-95.162 Z-0.9 I0 J-0.162
X-75 Y-94.838 Z-0.93 I0 J0.162
X-75 Y-95.162 Z-0.961 I0 J-0.162
X-75 Y-94.838 Z-0.991 I0 J0.162
X-75 Y-95.162 Z-1.022 I0 J-0.162
X-75 Y-94.838 Z-1.052 I0 J0.162
X-75 Y-95.162 Z-1.083 I0 J-0.162
X-75 Y-94.838 Z-1.113 I0 J0.162
X-75 Y-95.162 Z-1.144 I0 J-0.162
X-75 Y-94.838 Z-1.175 I0 J0.162
X-75 Y-95.162 Z-1.205 I0 J-0.162
X-75 Y-94.838 Z-1.236 I0 J0.162
X-75 Y-95.162 Z-1.266 I0 J-0.162
X-75 Y-94.838 Z-1.297 I0 J0.162
X-75 Y-95.162 Z-1.327 I0 J-0.162
X-75 Y-94.838 Z-1.358 I0 J0.162
X-75 Y-95.162 Z-1.388 I0 J-0.162
X-75 Y-94.838 Z-1.419 I0 J0.162
X-75 Y-95.162 Z-1.45 I0 J-0.162
X-75 Y-94.838 Z-1.48 I0 J0.162
X-75 Y-95.162 Z-1.511 I0 J-0.162
X-75 Y-94.838 Z-1.541 I0 J0.162
X-75 Y-95.162 Z-1.572 I0 J-0.162
X-75 Y-94.838 Z-1.602 I0 J0.162
X-75 Y-95.162 Z-1.633 I0 J-0.162
X-75 Y-94.838 Z-1.663 I0 J0.162
X-75 Y-95.162 Z-1.694 I0 J-0.162
X-75 Y-94.838 Z-1.724 I0 J0.162
X-75 Y-95.162 Z-1.755 I0 J-0.162
X-75 Y-94.838 Z-1.786 I0 J0.162
X-75 Y-95.162 Z-1.816 I0 J-0.162
X-75 Y-94.838 Z-1.847 I0 J0.162
X-75 Y-95.162 Z-1.877 I0 J-0.162
X-75 Y-94.838 Z-1.908 I0 J0.162
X-75 Y-95.162 Z-1.938 I0 J-0.162
X-75 Y-94.838 Z-1.969 I0 J0.162
X-75 Y-95.162 Z-1.999 I0 J-0.162
X-75 Y-94.838 Z-2.03 I0 J0.162
X-75 Y-95.162 Z-2.06 I0 J-0.162
X-75 Y-94.838 Z-2.091 I0 J0.162
X-75 Y-95.162 Z-2.122 I0 J-0.162
X-75 Y-94.838 Z-2.152 I0 J0.162
X-75 Y-95.162 Z-2.183 I0 J-0.162
X-74.841 Y-94.965 Z-2.2 I0 J0.162
X-75.159 Y-95.035 I-0.159 J-0.035
X-74.841 Y-94.965 I0.159 J0.035
G1 X-74.854 Y-94.936
X-74.877 Y-94.914
X-74.906 Y-94.903
X-74.938
X-75.093 Y-94.937
G0 Z5
X-85.957 Y-99.994
Z1.883
G1 Z0.2 F1000
Y-100.153
X-85.951 Y-100.184
X-85.933 Y-100.21
X-85.907 Y-100.228
X-85.876 Y-100.234
G3 X-85.876 Y-99.909 Z0.169 I0 J0.162
X-85.876 Y-100.234 Z0.139 I0 J-0.162
X-85.876 Y-99.909 Z0.108 I0 J0.162
X-85.876 Y-100.234 Z0.078 I0 J-0.162
X-85.876 Y-99.909 Z0.047 I0 J0.162
X-85.876 Y-100.234 Z0.017 I0 J-0.162
X-85.876 Y-99.909 Z-0.014 I0 J0.162
X-85.876 Y-100.234 Z-0.044 I0 J-0.162
X-85.876 Y-99.909 Z-0.075 I0 J0.162
X-85.876 Y-100.234 Z-0.105 I0 J-0.162
X-85.876 Y-99.909 Z-0.136 I0 J0.162
X-85.876 Y-100.234 Z-0.167 I0 J-0.162
X-85.876 Y-99.909 Z-0.197 I0 J0.162
X-85.876 Y-100.234 Z-0.228 I0 J-0.162
X-85.876 Y-99.909 Z-0.258 I0 J0.162
X-85.876 Y-100.234 Z-0.289 I0 J-0.162
X-85.876 Y-99.909 Z-0.319 I0 J0.162
X-85.876 Y-100.234 Z-0.35 I0 J-0.162
X-85.876 Y-99.909 Z-0.38 I0 J0.162
X-85.876 Y-100.234 Z-0.411 I0 J-0.162
X-85.876 Y-99.909 Z-0.441 I0 J0.162
X-85.876 Y-100.234 Z-0.472 I0 J-0.163
X-85.876 Y-99.909 Z-0.503 I0 J0.163
X-85.876 Y-100.234 Z-0.533 I0 J-0.163
X-85.876 Y-99.909 Z-0.564 I0 J0.163
X-85.876 Y-100.234 Z-0.594 I0 J-0.163
X-85.876 Y-99.909 Z-0.625 I0 J0.163
X-85.876 Y-100.234 Z-0.655 I0 J-0.163
X-85.876 Y-99.909 Z-0.686 I0 J0.163
X-85.876 Y-100.234 Z-0.716 I0 J-0.163
X-85.876 Y-99.909 Z-0.747 I0 J0.163
X-85.876 Y-100.234 Z-0.777 I0 J-0.163
X-85.876 Y-99.909 Z-0.808 I0 J0.163
X-85.876 Y-100.234 Z-0.839 I0 J-0.163
X-85.876 Y-99.909 Z-0.869 I0 J0.163
X-85.876 Y-100.234 Z-0.9 I0 J-0.163
X-85.876 Y-99.909 Z-0.93 I0 J0.163
X-85.876 Y-100.234 Z-0.961 I0 J-0.163
X-85.876 Y-99.909 Z-0.991 I0 J0.163
X-85.876 Y-100.234 Z-1.022 I0 J-0.163
X-85.876 Y-99.909 Z-1.052 I0 J0.163
X-85.876 Y-100.234 Z-1.083 I0 J-0.163
X-85.876 Y-99.909 Z-1.113 I0 J0.163
X-85.876 Y-100.234 Z-1.144 I0 J-0.163
X-85.876 Y-99.909 Z-1.175 I0 J0.163
X-85.876 Y-100.234 Z-1.205 I0 J-0.163
X-85.876 Y-99.909 Z-1.236 I0 J0.163
X-85.876 Y-100.234 Z-1.266 I0 J-0.163
X-85.876 Y-99.909 Z-1.297 I0 J0.163
X-85.876 Y-100.234 Z-1.327 I0 J-0.163
X-85.876 Y-99.909 Z-1.358 I0 J0.163
X-85.876 Y-100.234 Z-1.388 I0 J-0.163
X-85.876 Y-99.909 Z-1.419 I0 J0.163
X-85.876 Y-100.234 Z-1.45 I0 J-0.163
X-85.876 Y-99.909 Z-1.48 I0 J0.163
X-85.876 Y-100.234 Z-1.511 I0 J-0.163
X-85.876 Y-99.909 Z-1.541 I0 J0.163
X-85.876 Y-100.234 Z-1.572 I0 J-0.163
X-85.876 Y-99.909 Z-1.602 I0 J0.163
X-85.876 Y-100.234 Z-1.633 I0 J-0.163
X-85.876 Y-99.909 Z-1.663 I0 J0.163
X-85.876 Y-100.234 Z-1.694 I0 J-0.163
X-85.876 Y-99.909 Z-1.724 I0 J0.163
X-85.876 Y-100.234 Z-1.755 I0 J-0.163
X-85.876 Y-99.909 Z-1.786 I0 J0.163
X-85.876 Y-100.234 Z-1.816 I0 J-0.163
X-85.876 Y-99.909 Z-1.847 I0 J0.163
X-85.876 Y-100.234 Z-1.877 I0 J-0.163
X-85.876 Y-99.909 Z-1.908 I0 J0.163
X-85.876 Y-100.234 Z-1.938 I0 J-0.163
X-85.876 Y-99.909 Z-1.969 I0 J0.163
X-85.876 Y-100.234 Z-1.999 I0 J-0.163
X-85.876 Y-99.909 Z-2.03 I0 J0.163
X-85.876 Y-100.234 Z-2.06 I0 J-0.163
X-85.876 Y-99.909 Z-2.091 I0 J0.163
X-85.876 Y-100.234 Z-2.122 I0 J-0.163
X-85.876 Y-99.909 Z-2.152 I0 J0.163
X-85.876 Y-100.234 Z-2.183 I0 J-0.163
X-85.717 Y-100.036 Z-2.2 I0 J0.163
X-86.034 Y-100.106 I-0.159 J-0.035
X-85.717 Y-100.036 I0.159 J0.035
G1 X-85.73 Y-100.007
X-85.753 Y-99.985
X-85.782 Y-99.974
X-85.814 Y-99.975
X-85.969 Y-100.009
G0 Z5
X-115.081 Y-119.923
Z1.883
G1 Z0.2 F1000
Y-120.081
X-115.075 Y-120.112
X-115.057 Y-120.139
X-115.031 Y-120.156
X-115 Y-120.162
G3 X-115 Y-119.838 Z0.169 I0 J0.162
X-115 Y-120.162 Z0.139 I0 J-0.162
X-115 Y-119.838 Z0.108 I0 J0.162
X-115 Y-120.162 Z0.078 I0 J-0.162
X-115 Y-119.838 Z0.047 I0 J0.162
X-115 Y-120.162 Z0.017 I0 J-0.162
X-115 Y-119.838 Z-0.014 I0 J0.162
X-115 Y-120.162 Z-0.044 I0 J-0.162
X-115 Y-119.838 Z-0.075 I0 J0.162
X-115 Y-120.162 Z-0.105 I0 J-0.162
X-115 Y-119.838 Z-0.136 I0 J0.162
X-115 Y-120.162 Z-0.167 I0 J-0.162
X-115 Y-119.838 Z-0.197 I0 J0.162
X-115 Y-120.162 Z-0.228 I0 J-0.162
X-115 Y-119.838 Z-0.258 I0 J0.162
X-115 Y-120.162 Z-0.289 I0 J-0.162
X-115 Y-119.838 Z-0.319 I0 J0.162
X-115 Y-120.162 Z-0.35 I0 J-0.162
X-115 Y-119.838 Z-0.38 I0 J0.162
X-115 Y-120.162 Z-0.411 I0 J-0.162
X-115 Y-119.838 Z-0.441 I0 J0.162
X-115 Y-120.162 Z-0.472 I0 J-0.162
X-115 Y-119.838 Z-0.503 I0 J0.162
X-115 Y-120.162 Z-0.533 I0 J-0.162
X-115 Y-119.838 Z-0.564 I0 J0.162
X-115 Y-120.162 Z-0.594 I0 J-0.162
X-115 Y-119.838 Z-0.625 I0 J0.162
X-115 Y-120.162 Z-0.655 I0 J-0.162
X-115 Y-119.838 Z-0.686 I0 J0.162
X-115 Y-120.162 Z-0.716 I0 J-0.162
X-115 Y-119.838 Z-0.747 I0 J0.162
X-115 Y-120.162 Z-0.777 I0 J-0.162
X-115 Y-119.838 Z-0.808 I0 J0.162
X-115 Y-120.162 Z-0.839 I0 J-0.162
X-115 Y-119.838 Z-0.869 I0 J0.162
X-115 Y-120.162 Z-0.9 I0 J-0.162
X-115 Y-119.838 Z-0.93 I0 J0.162
X-115 Y-120.162 Z-0.961 I0 J-0.162
X-115 Y-119.838 Z-0.991 I0 J0.162
X-115 Y-120.162 Z-1.022 I0 J-0.162
X-115 Y-119.838 Z-1.052 I0 J0.162
X-115 Y-120.162 Z-1.083 I0 J-0.162
X-115 Y-119.838 Z-1.113 I0 J0.162
X-115 Y-120.162 Z-1.144 I0 J-0.162
X-115 Y-119.838 Z-1.175 I0 J0.162
X-115 Y-120.162 Z-1.205 I0 J-0.162
X-115 Y-119.838 Z-1.236 I0 J0.162
X-115 Y-120.162 Z-1.266 I0 J-0.162
X-115 Y-119.838 Z-1.297 I0 J0.162
X-115 Y-120.162 Z-1.327 I0 J-0.162
X-115 Y-119.838 Z-1.358 I0 J0.162
X-115 Y-120.162 Z-1.388 I0 J-0.162
X-115 Y-119.838 Z-1.419 I0 J0.162
X-115 Y-120.162 Z-1.45 I0 J-0.162
X-115 Y-119.838 Z-1.48 I0 J0.162
X-115 Y-120.162 Z-1.511 I0 J-0.162
X-115 Y-119.838 Z-1.541 I0 J0.162
X-115 Y-120.162 Z-1.572 I0 J-0.162
X-115 Y-119.838 Z-1.602 I0 J0.162
X-115 Y-120.162 Z-1.633 I0 J-0.162
X-115 Y-119.838 Z-1.663 I0 J0.162
X-115 Y-120.162 Z-1.694 I0 J-0.162
X-115 Y-119.838 Z-1.724 I0 J0.162
X-115 Y-120.162 Z-1.755 I0 J-0.162
X-115 Y-119.838 Z-1.786 I0 J0.162
X-115 Y-120.162 Z-1.816 I0 J-0.162
X-115 Y-119.838 Z-1.847 I0 J0.162
X-115 Y-120.162 Z-1.877 I0 J-0.162
X-115 Y-119.838 Z-1.908 I0 J0.162
X-115 Y-120.162 Z-1.938 I0 J-0.162
X-115 Y-119.838 Z-1.969 I0 J0.162
X-115 Y-120.162 Z-1.999 I0 J-0.162
X-115 Y-119.838 Z-2.03 I0 J0.162
X-115 Y-120.162 Z-2.06 I0 J-0.162
X-115 Y-119.838 Z-2.091 I0 J0.162
X-115 Y-120.162 Z-2.122 I0 J-0.162
X-115 Y-119.838 Z-2.152 I0 J0.162
X-115 Y-120.162 Z-2.183 I0 J-0.162
X-114.841 Y-119.965 Z-2.2 I0 J0.162
X-115.159 Y-120.035 I-0.159 J-0.035
X-114.841 Y-119.965 I0.159 J0.035
G1 X-114.854 Y-119.936
X-114.877 Y-119.914
X-114.906 Y-119.903
X-114.938
X-115.093 Y-119.937
G0 Z5
X-134.39 Y-112.837
Z1.883
G1 Z0.2 F1000
Y-112.996
X-134.384 Y-113.027
X-134.366 Y-113.053
X-134.34 Y-113.071
X-134.309 Y-113.077
G3 X-134.309 Y-112.752 Z0.169 I0 J0.162
X-134.309 Y-113.077 Z0.139 I0 J-0.162
X-134.309 Y-112.752 Z0.108 I0 J0.162
X-134.309 Y-113.077 Z0.078 I0 J-0.162
X-134.309 Y-112.752 Z0.047 I0 J0.162
X-134.309 Y-113.077 Z0.017 I0 J-0.162
X-134.309 Y-112.752 Z-0.014 I0 J0.162
X-134.309 Y-113.077 Z-0.044 I0 J-0.162
X-134.309 Y-112.752 Z-0.075 I0 J0.162
X-134.309 Y-113.077 Z-0.105 I0 J-0.162
X-134.309 Y-112.752 Z-0.136 I0 J0.162
X-134.309 Y-113.077 Z-0.167 I0 J-0.162
X-134.309 Y-112.752 Z-0.197 I0 J0.162
X-134.309 Y-113.077 Z-0.228 I0 J-0.162
X-134.309 Y-112.752 Z-0.258 I0 J0.162
X-134.309 Y-113.077 Z-0.289 I0 J-0.162
X-134.309 Y-112.752 Z-0.319 I0 J0.162
X-134.309 Y-113.077 Z-0.35 I0 J-0.162
X-134.309 Y-112.752 Z-0.38 I0 J0.162
X-134.309 Y-113.077 Z-0.411 I0 J-0.162
X-134.309 Y-112.752 Z-0.441 I0 J0.162
X-134.309 Y-113.077 Z-0.472 I0 J-0.163
X-134.309 Y-112.752 Z-0.503 I0 J0.163
X-134.309 Y-113.077 Z-0.533 I0 J-0.163
X-134.309 Y-112.752 Z-0.564 I0 J0.163
X-134.309 Y-113.077 Z-0.594 I0 J-0.163
X-134.309 Y-112.752 Z-0.625 I0 J0.163
X-134.309 Y-113.077 Z-0.655 I0 J-0.163
X-134.309 Y-112.752 Z-0.686 I0 J0.163
X-134.309 Y-113.077 Z-0.716 I0 J-0.163
X-134.309 Y-112.752 Z-0.747 I0 J0.163
X-134.309 Y-113.077 Z-0.777 I0 J-0.163
X-134.309 Y-112.752 Z-0.808 I0 J0.163
X-134.309 Y-113.077 Z-0.839 I0 J-0.163
X-134.309 Y-112.752 Z-0.869 I0 J0.163
X-134.309 Y-113.077 Z-0.9 I0 J-0.163
X-134.309 Y-112.752 Z-0.93 I0 J0.163
X-134.309 Y-113.077 Z-0.961 I0 J-0.163
X-134.309 Y-112.752 Z-0.991 I0 J0.163
X-134.309 Y-113.077 Z-1.022 I0 J-0.163
X-134.309 Y-112.752 Z-1.052 I0 J0.163
X-134.309 Y-113.077 Z-1.083 I0 J-0.163
X-134.309 Y-112.752 Z-1.113 I0 J0.163
X-134.309 Y-113.077 Z-1.144 I0 J-0.163
X-134.309 Y-112.752 Z-1.175 I0 J0.163
X-134.309 Y-113.077 Z-1.205 I0 J-0.163
X-134.309 Y-112.752 Z-1.236 I0 J0.163
X-134.309 Y-113.077 Z-1.266 I0 J-0.163
X-134.309 Y-112.752 Z-1.297 I0 J0.163
X-134.309 Y-113.077 Z-1.327 I0 J-0.163
X-134.309 Y-112.752 Z-1.358 I0 J0.163
X-134.309 Y-113.077 Z-1.388 I0 J-0.163
X-134.309 Y-112.752 Z-1.419 I0 J0.163
X-134.309 Y-113.077 Z-1.45 I0 J-0.163
X-134.309 Y-112.752 Z-1.48 I0 J0.163
X-134.309 Y-113.077 Z-1.511 I0 J-0.163
X-134.309 Y-112.752 Z-1.541 I0 J0.163
X-134.309 Y-113.077 Z-1.572 I0 J-0.163
X-134.309 Y-112.752 Z-1.602 I0 J0.163
X-134.309 Y-113.077 Z-1.633 I0 J-0.163
X-134.309 Y-112.752 Z-1.663 I0 J0.163
X-134.309 Y-113.077 Z-1.694 I0 J-0.163
X-134.309 Y-112.752 Z-1.724 I0 J0.163
X-134.309 Y-113.077 Z-1.755 I0 J-0.163
X-134.309 Y-112.752 Z-1.786 I0 J0.163
X-134.309 Y-113.077 Z-1.816 I0 J-0.163
X-134.309 Y-112.752 Z-1.847 I0 J0.163
X-134.309 Y-113.077 Z-1.877 I0 J-0.163
X-134.309 Y-112.752 Z-1.908 I0 J0.163
X-134.309 Y-113.077 Z-1.938 I0 J-0.163
X-134.309 Y-112.752 Z-1.969 I0 J0.163
X-134.309 Y-113.077 Z-1.999 I0 J-0.163
X-134.309 Y-112.752 Z-2.03 I0 J0.163
X-134.309 Y-113.077 Z-2.06 I0 J-0.163
X-134.309 Y-112.752 Z-2.091 I0 J0.163
X-134.309 Y-113.077 Z-2.122 I0 J-0.163
X-134.309 Y-112.752 Z-2.152 I0 J0.163
X-134.309 Y-113.077 Z-2.183 I0 J-0.163
X-134.15 Y-112.88 Z-2.2 I0 J0.163
X-134.467 Y-112.95 I-0.159 J-0.035
X-134.15 Y-112.88 I0.159 J0.035
G1 X-134.163 Y-112.851
X-134.185 Y-112.829
X-134.215 Y-112.817
X-134.247 Y-112.818
X-134.402 Y-112.852
G0 Z5
X-185.081 Y-104.923
Z1.883
G1 Z0.2 F1000
Y-105.081
X-185.075 Y-105.112
X-185.057 Y-105.139
X-185.031 Y-105.156
X-185 Y-105.162
G3 X-185 Y-104.838 Z0.169 I0 J0.162
X-185 Y-105.162 Z0.139 I0 J-0.162
X-185 Y-104.838 Z0.108 I0 J0.162
X-185 Y-105.162 Z0.078 I0 J-0.162
X-185 Y-104.838 Z0.047 I0 J0.162
X-185 Y-105.162 Z0.017 I0 J-0.162
X-185 Y-104.838 Z-0.014 I0 J0.162
X-185 Y-105.162 Z-0.044 I0 J-0.162
X-185 Y-104.838 Z-0.075 I0 J0.162
X-185 Y-105.162 Z-0.105 I0 J-0.162
X-185 Y-104.838 Z-0.136 I0 J0.162
X-185 Y-105.162 Z-0.167 I0 J-0.162
X-185 Y-104.838 Z-0.197 I0 J0.162
X-185 Y-105.162 Z-0.228 I0 J-0.162
X-185 Y-104.838 Z-0.258 I0 J0.162
X-185 Y-105.162 Z-0.289 I0 J-0.162
X-185 Y-104.838 Z-0.319 I0 J0.162
X-185 Y-105.162 Z-0.35 I0 J-0.162
X-185 Y-104.838 Z-0.38 I0 J0.162
X-185 Y-105.162 Z-0.411 I0 J-0.162
X-185 Y-104.837 Z-0.441 I0 J0.162
X-185 Y-105.163 Z-0.472 I0 J-0.163
X-185 Y-104.837 Z-0.503 I0 J0.163
X-185 Y-105.163 Z-0.533 I0 J-0.163
X-185 Y-104.837 Z-0.564 I0 J0.163
X-185 Y-105.163 Z-0.594 I0 J-0.163
X-185 Y-104.837 Z-0.625 I0 J0.163
X-185 Y-105.163 Z-0.655 I0 J-0.163
X-185 Y-104.837 Z-0.686 I0 J0.163
X-185 Y-105.163 Z-0.716 I0 J-0.163
X-185 Y-104.837 Z-0.747 I0 J0.163
X-185 Y-105.163 Z-0.777 I0 J-0.163
X-185 Y-104.837 Z-0.808 I0 J0.163
X-185 Y-105.163 Z-0.839 I0 J-0.163
X-185 Y-104.837 Z-0.869 I0 J0.163
X-185 Y-105.163 Z-0.9 I0 J-0.163
X-185 Y-104.837 Z-0.93 I0 J0.163
X-185 Y-105.163 Z-0.961 I0 J-0.163
X-185 Y-104.837 Z-0.991 I0 J0.163
X-185 Y-105.163 Z-1.022 I0 J-0.163
X-185 Y-104.837 Z-1.052 I0 J0.163
X-185 Y-105.163 Z-1.083 I0 J-0.163
X-185 Y-104.837 Z-1.113 I0 J0.163
X-185 Y-105.163 Z-1.144 I0 J-0.163
X-185 Y-104.837 Z-1.175 I0 J0.163
X-185 Y-105.163 Z-1.205 I0 J-0.163
X-185 Y-104.837 Z-1.236 I0 J0.163
X-185 Y-105.163 Z-1.266 I0 J-0.163
X-185 Y-104.837 Z-1.297 I0 J0.163
X-185 Y-105.163 Z-1.327 I0 J-0.163
X-185 Y-104.837 Z-1.358 I0 J0.163
X-185 Y-105.163 Z-1.388 I0 J-0.163
X-185 Y-104.837 Z-1.419 I0 J0.163
X-185 Y-105.163 Z-1.45 I0 J-0.163
X-185 Y-104.837 Z-1.48 I0 J0.163
X-185 Y-105.163 Z-1.511 I0 J-0.163
X-185 Y-104.837 Z-1.541 I0 J0.163
X-185 Y-105.163 Z-1.572 I0 J-0.163
X-185 Y-104.837 Z-1.602 I0 J0.163
X-185 Y-105.163 Z-1.633 I0 J-0.163
X-185 Y-104.837 Z-1.663 I0 J0.163
X-185 Y-105.163 Z-1.694 I0 J-0.163
X-185 Y-104.837 Z-1.724 I0 J0.163
X-185 Y-105.163 Z-1.755 I0 J-0.163
X-185 Y-104.837 Z-1.786 I0 J0.163
X-185 Y-105.163 Z-1.816 I0 J-0.163
X-185 Y-104.837 Z-1.847 I0 J0.163
X-185 Y-105.163 Z-1.877 I0 J-0.163
X-185 Y-104.837 Z-1.908 I0 J0.163
X-185 Y-105.163 Z-1.938 I0 J-0.163
X-185 Y-104.837 Z-1.969 I0 J0.163
X-185 Y-105.163 Z-1.999 I0 J-0.163
X-185 Y-104.837 Z-2.03 I0 J0.163
X-185 Y-105.163 Z-2.06 I0 J-0.163
X-185 Y-104.837 Z-2.091 I0 J0.163
X-185 Y-105.163 Z-2.122 I0 J-0.163
X-185 Y-104.837 Z-2.152 I0 J0.163
X-185 Y-105.163 Z-2.183 I0 J-0.163
X-184.841 Y-104.965 Z-2.2 I0 J0.163
X-185.159 Y-105.035 I-0.159 J-0.035
X-184.841 Y-104.965 I0.159 J0.035
G1 X-184.854 Y-104.936
X-184.877 Y-104.914
X-184.906 Y-104.903
X-184.938
X-185.093 Y-104.937
G0 Z5
X-184.795 Y-87.837
Z1.883
G1 Z0.2 F1000
Y-87.996
X-184.788 Y-88.027
X-184.771 Y-88.053
X-184.745 Y-88.071
X-184.713 Y-88.077
G3 X-184.713 Y-87.752 Z0.169 I0 J0.162
X-184.713 Y-88.077 Z0.139 I0 J-0.162
X-184.713 Y-87.752 Z0.108 I0 J0.162
X-184.713 Y-88.077 Z0.078 I0 J-0.162
X-184.713 Y-87.752 Z0.047 I0 J0.162
X-184.713 Y-88.077 Z0.017 I0 J-0.162
X-184.713 Y-87.752 Z-0.014 I0 J0.162
X-184.713 Y-88.077 Z-0.044 I0 J-0.162
X-184.713 Y-87.752 Z-0.075 I0 J0.162
X-184.713 Y-88.077 Z-0.105 I0 J-0.162
X-184.713 Y-87.752 Z-0.136 I0 J0.162
X-184.713 Y-88.077 Z-0.167 I0 J-0.162
X-184.713 Y-87.752 Z-0.197 I0 J0.162
X-184.713 Y-88.077 Z-0.228 I0 J-0.162
X-184.713 Y-87.752 Z-0.258 I0 J0.162
X-184.713 Y-88.077 Z-0.289 I0 J-0.162
X-184.713 Y-87.752 Z-0.319 I0 J0.162
X-184.713 Y-88.077 Z-0.35 I0 J-0.162
X-184.713 Y-87.752 Z-0.38 I0 J0.162
X-184.713 Y-88.077 Z-0.411 I0 J-0.162
X-184.713 Y-87.752 Z-0.441 I0 J0.162
X-184.713 Y-88.077 Z-0.472 I0 J-0.162
X-184.713 Y-87.752 Z-0.503 I0 J0.162
X-184.713 Y-88.077 Z-0.533 I0 J-0.162
X-184.713 Y-87.752 Z-0.564 I0 J0.162
X-184.713 Y-88.077 Z-0.594 I0 J-0.162
X-184.713 Y-87.752 Z-0.625 I0 J0.162
X-184.713 Y-88.077 Z-0.655 I0 J-0.162
X-184.713 Y-87.752 Z-0.686 I0 J0.162
X-184.713 Y-88.077 Z-0.716 I0 J-0.162
X-184.713 Y-87.752 Z-0.747 I0 J0.162
X-184.713 Y-88.077 Z-0.777 I0 J-0.162
X-184.713 Y-87.752 Z-0.808 I0 J0.162
X-184.713 Y-88.077 Z-0.839 I0 J-0.162
X-184.713 Y-87.752 Z-0.869 I0 J0.162
X-184.713 Y-88.077 Z-0.9 I0 J-0.162
X-184.713 Y-87.752 Z-0.93 I0 J0.162
X-184.713 Y-88.077 Z-0.961 I0 J-0.162
X-184.713 Y-87.752 Z-0.991 I0 J0.162
X-184.713 Y-88.077 Z-1.022 I0 J-0.162
X-184.713 Y-87.752 Z-1.052 I0 J0.162
X-184.713 Y-88.077 Z-1.083 I0 J-0.162
X-184.713 Y-87.752 Z-1.113 I0 J0.162
X-184.713 Y-88.077 Z-1.144 I0 J-0.162
X-184.713 Y-87.752 Z-1.175 I0 J0.162
X-184.713 Y-88.077 Z-1.205 I0 J-0.162
X-184.713 Y-87.752 Z-1.236 I0 J0.162
X-184.713 Y-88.077 Z-1.266 I0 J-0.162
X-184.713 Y-87.752 Z-1.297 I0 J0.162
X-184.713 Y-88.077 Z-1.327 I0 J-0.162
X-184.713 Y-87.752 Z-1.358 I0 J0.162
X-184.713 Y-88.077 Z-1.388 I0 J-0.162
X-184.713 Y-87.752 Z-1.419 I0 J0.162
X-184.713 Y-88.077 Z-1.45 I0 J-0.162
X-184.713 Y-87.752 Z-1.48 I0 J0.162
X-184.713 Y-88.077 Z-1.511 I0 J-0.162
X-184.713 Y-87.752 Z-1.541 I0 J0.162
X-184.713 Y-88.077 Z-1.572 I0 J-0.162
X-184.713 Y-87.752 Z-1.602 I0 J0.162
X-184.713 Y-88.077 Z-1.633 I0 J-0.162
X-184.713 Y-87.752 Z-1.663 I0 J0.162
X-184.713 Y-88.077 Z-1.694 I0 J-0.162
X-184.713 Y-87.752 Z-1.724 I0 J0.162
X-184.713 Y-88.077 Z-1.755 I0 J-0.162
X-184.713 Y-87.752 Z-1.786 I0 J0.162
X-184.713 Y-88.077 Z-1.816 I0 J-0.162
X-184.713 Y-87.752 Z-1.847 I0 J0.162
X-184.713 Y-88.077 Z-1.877 I0 J-0.162
X-184.713 Y-87.752 Z-1.908 I0 J0.162
X-184.713 Y-88.077 Z-1.938 I0 J-0.162
X-184.713 Y-87.752 Z-1.969 I0 J0.162
X-184.713 Y-88.077 Z-1.999 I0 J-0.162
X-184.713 Y-87.752 Z-2.03 I0 J0.162
X-184.713 Y-88.077 Z-2.06 I0 J-0.162
X-184.713 Y-87.752 Z-2.091 I0 J0.162
X-184.713 Y-88.077 Z-2.122 I0 J-0.162
X-184.713 Y-87.752 Z-2.152 I0 J0.162
X-184.713 Y-88.077 Z-2.183 I0 J-0.162
X-184.555 Y-87.88 Z-2.2 I0 J0.162
X-184.872 Y-87.95 I-0.159 J-0.035
X-184.555 Y-87.88 I0.159 J0.035
G1 X-184.567 Y-87.851
X-184.59 Y-87.829
X-184.62 Y-87.817
X-184.652 Y-87.818
X-184.807 Y-87.852
G0 Z5
X-184.795 Y-52.008
Z1.883
G1 Z0.2 F1000
Y-52.167
X-184.788 Y-52.198
X-184.771 Y-52.224
X-184.745 Y-52.242
X-184.713 Y-52.248
G3 X-184.713 Y-51.923 Z0.169 I0 J0.162
X-184.713 Y-52.248 Z0.139 I0 J-0.162
X-184.713 Y-51.923 Z0.108 I0 J0.162
X-184.713 Y-52.248 Z0.078 I0 J-0.162
X-184.713 Y-51.923 Z0.047 I0 J0.162
X-184.713 Y-52.248 Z0.017 I0 J-0.162
X-184.713 Y-51.923 Z-0.014 I0 J0.162
X-184.713 Y-52.248 Z-0.044 I0 J-0.162
X-184.713 Y-51.923 Z-0.075 I0 J0.162
X-184.713 Y-52.248 Z-0.105 I0 J-0.162
X-184.713 Y-51.923 Z-0.136 I0 J0.162
X-184.713 Y-52.248 Z-0.167 I0 J-0.162
X-184.713 Y-51.923 Z-0.197 I0 J0.162
X-184.713 Y-52.248 Z-0.228 I0 J-0.162
X-184.713 Y-51.923 Z-0.258 I0 J0.162
X-184.713 Y-52.248 Z-0.289 I0 J-0.162
X-184.713 Y-51.923 Z-0.319 I0 J0.162
X-184.713 Y-52.248 Z-0.35 I0 J-0.162
X-184.713 Y-51.923 Z-0.38 I0 J0.162
X-184.713 Y-52.248 Z-0.411 I0 J-0.162
X-184.713 Y-51.923 Z-0.441 I0 J0.162
X-184.713 Y-52.248 Z-0.472 I0 J-0.162
X-184.713 Y-51.923 Z-0.503 I0 J0.162
X-184.713 Y-52.248 Z-0.533 I0 J-0.162
X-184.713 Y-51.923 Z-0.564 I0 J0.162
X-184.713 Y-52.248 Z-0.594 I0 J-0.162
X-184.713 Y-51.923 Z-0.625 I0 J0.162
X-184.713 Y-52.248 Z-0.655 I0 J-0.162
X-184.713 Y-51.923 Z-0.686 I0 J0.162
X-184.713 Y-52.248 Z-0.716 I0 J-0.162
X-184.713 Y-51.923 Z-0.747 I0 J0.162
X-184.713 Y-52.248 Z-0.777 I0 J-0.162
X-184.713 Y-51.923 Z-0.808 I0 J0.162
X-184.713 Y-52.248 Z-0.839 I0 J-0.162
X-184.713 Y-51.923 Z-0.869 I0 J0.162
X-184.713 Y-52.248 Z-0.9 I0 J-0.162
X-184.713 Y-51.923 Z-0.93 I0 J0.162
X-184.713 Y-52.248 Z-0.961 I0 J-0.162
X-184.713 Y-51.923 Z-0.991 I0 J0.162
X-184.713 Y-52.248 Z-1.022 I0 J-0.162
X-184.713 Y-51.923 Z-1.052 I0 J0.162
X-184.713 Y-52.248 Z-1.083 I0 J-0.162
X-184.713 Y-51.923 Z-1.113 I0 J0.162
X-184.713 Y-52.248 Z-1.144 I0 J-0.162
X-184.713 Y-51.923 Z-1.175 I0 J0.162
X-184.713 Y-52.248 Z-1.205 I0 J-0.162
X-184.713 Y-51.923 Z-1.236 I0 J0.162
X-184.713 Y-52.248 Z-1.266 I0 J-0.162
X-184.713 Y-51.923 Z-1.297 I0 J0.162
X-184.713 Y-52.248 Z-1.327 I0 J-0.162
X-184.713 Y-51.923 Z-1.358 I0 J0.162
X-184.713 Y-52.248 Z-1.388 I0 J-0.162
X-184.713 Y-51.923 Z-1.419 I0 J0.162
X-184.713 Y-52.248 Z-1.45 I0 J-0.162
X-184.713 Y-51.923 Z-1.48 I0 J0.162
X-184.713 Y-52.248 Z-1.511 I0 J-0.162
X-184.713 Y-51.923 Z-1.541 I0 J0.162
X-184.713 Y-52.248 Z-1.572 I0 J-0.162
X-184.713 Y-51.923 Z-1.602 I0 J0.162
X-184.713 Y-52.248 Z-1.633 I0 J-0.162
X-184.713 Y-51.923 Z-1.663 I0 J0.162
X-184.713 Y-52.248 Z-1.694 I0 J-0.162
X-184.713 Y-51.923 Z-1.724 I0 J0.162
X-184.713 Y-52.248 Z-1.755 I0 J-0.162
X-184.713 Y-51.923 Z-1.786 I0 J0.162
X-184.713 Y-52.248 Z-1.816 I0 J-0.162
X-184.713 Y-51.923 Z-1.847 I0 J0.162
X-184.713 Y-52.248 Z-1.877 I0 J-0.162
X-184.713 Y-51.923 Z-1.908 I0 J0.162
X-184.713 Y-52.248 Z-1.938 I0 J-0.162
X-184.713 Y-51.923 Z-1.969 I0 J0.162
X-184.713 Y-52.248 Z-1.999 I0 J-0.162
X-184.713 Y-51.923 Z-2.03 I0 J0.162
X-184.713 Y-52.248 Z-2.06 I0 J-0.162
X-184.713 Y-51.923 Z-2.091 I0 J0.162
X-184.713 Y-52.248 Z-2.122 I0 J-0.162
X-184.713 Y-51.923 Z-2.152 I0 J0.162
X-184.713 Y-52.248 Z-2.183 I0 J-0.162
X-184.555 Y-52.05 Z-2.2 I0 J0.162
X-184.872 Y-52.12 I-0.159 J-0.035
X-184.555 Y-52.05 I0.159 J0.035
G1 X-184.567 Y-52.021
X-184.59 Y-51.999
X-184.62 Y-51.988
X-184.652
X-184.807 Y-52.023
G0 Z5
X-185.081 Y-34.923
Z1.883
G1 Z0.2 F1000
Y-35.081
X-185.075 Y-35.112
X-185.057 Y-35.139
X-185.031 Y-35.156
X-185 Y-35.162
G3 X-185 Y-34.838 Z0.169 I0 J0.162
X-185 Y-35.162 Z0.139 I0 J-0.162
X-185 Y-34.838 Z0.108 I0 J0.162
X-185 Y-35.162 Z0.078 I0 J-0.162
X-185 Y-34.838 Z0.047 I0 J0.162
X-185 Y-35.162 Z0.017 I0 J-0.162
X-185 Y-34.838 Z-0.014 I0 J0.162
X-185 Y-35.162 Z-0.044 I0 J-0.162
X-185 Y-34.838 Z-0.075 I0 J0.162
X-185 Y-35.162 Z-0.105 I0 J-0.162
X-185 Y-34.838 Z-0.136 I0 J0.162
X-185 Y-35.162 Z-0.167 I0 J-0.162
X-185 Y-34.838 Z-0.197 I0 J0.162
X-185 Y-35.162 Z-0.228 I0 J-0.162
X-185 Y-34.838 Z-0.258 I0 J0.162
X-185 Y-35.162 Z-0.289 I0 J-0.162
X-185 Y-34.838 Z-0.319 I0 J0.162
X-185 Y-35.162 Z-0.35 I0 J-0.162
X-185 Y-34.838 Z-0.38 I0 J0.162
X-185 Y-35.162 Z-0.411 I0 J-0.162
X-185 Y-34.837 Z-0.441 I0 J0.162
X-185 Y-35.163 Z-0.472 I0 J-0.163
X-185 Y-34.837 Z-0.503 I0 J0.163
X-185 Y-35.163 Z-0.533 I0 J-0.163
X-185 Y-34.837 Z-0.564 I0 J0.163
X-185 Y-35.163 Z-0.594 I0 J-0.163
X-185 Y-34.837 Z-0.625 I0 J0.163
X-185 Y-35.163 Z-0.655 I0 J-0.163
X-185 Y-34.837 Z-0.686 I0 J0.163
X-185 Y-35.163 Z-0.716 I0 J-0.163
X-185 Y-34.837 Z-0.747 I0 J0.163
X-185 Y-35.163 Z-0.777 I0 J-0.163
X-185 Y-34.837 Z-0.808 I0 J0.163
X-185 Y-35.163 Z-0.839 I0 J-0.163
X-185 Y-34.837 Z-0.869 I0 J0.163
X-185 Y-35.163 Z-0.9 I0 J-0.163
X-185 Y-34.837 Z-0.93 I0 J0.163
X-185 Y-35.163 Z-0.961 I0 J-0.163
X-185 Y-34.837 Z-0.991 I0 J0.163
X-185 Y-35.163 Z-1.022 I0 J-0.163
X-185 Y-34.837 Z-1.052 I0 J0.163
X-185 Y-35.163 Z-1.083 I0 J-0.163
X-185 Y-34.837 Z-1.113 I0 J0.163
X-185 Y-35.163 Z-1.144 I0 J-0.163
X-185 Y-34.837 Z-1.175 I0 J0.163
X-185 Y-35.163 Z-1.205 I0 J-0.163
X-185 Y-34.837 Z-1.236 I0 J0.163
X-185 Y-35.163 Z-1.266 I0 J-0.163
X-185 Y-34.837 Z-1.297 I0 J0.163
X-185 Y-35.163 Z-1.327 I0 J-0.163
X-185 Y-34.837 Z-1.358 I0 J0.163
X-185 Y-35.163 Z-1.388 I0 J-0.163
X-185 Y-34.837 Z-1.419 I0 J0.163
X-185 Y-35.163 Z-1.45 I0 J-0.163
X-185 Y-34.837 Z-1.48 I0 J0.163
X-185 Y-35.163 Z-1.511 I0 J-0.163
X-185 Y-34.837 Z-1.541 I0 J0.163
X-185 Y-35.163 Z-1.572 I0 J-0.163
X-185 Y-34.837 Z-1.602 I0 J0.163
X-185 Y-35.163 Z-1.633 I0 J-0.163
X-185 Y-34.837 Z-1.663 I0 J0.163
X-185 Y-35.163 Z-1.694 I0 J-0.163
X-185 Y-34.837 Z-1.724 I0 J0.163
X-185 Y-35.163 Z-1.755 I0 J-0.163
X-185 Y-34.837 Z-1.786 I0 J0.163
X-185 Y-35.163 Z-1.816 I0 J-0.163
X-185 Y-34.837 Z-1.847 I0 J0.163
X-185 Y-35.163 Z-1.877 I0 J-0.163
X-185 Y-34.837 Z-1.908 I0 J0.163
X-185 Y-35.163 Z-1.938 I0 J-0.163
X-185 Y-34.837 Z-1.969 I0 J0.163
X-185 Y-35.163 Z-1.999 I0 J-0.163
X-185 Y-34.837 Z-2.03 I0 J0.163
X-185 Y-35.163 Z-2.06 I0 J-0.163
X-185 Y-34.837 Z-2.091 I0 J0.163
X-185 Y-35.163 Z-2.122 I0 J-0.163
X-185 Y-34.837 Z-2.152 I0 J0.163
X-185 Y-35.163 Z-2.183 I0 J-0.163
X-184.841 Y-34.965 Z-2.2 I0 J0.163
X-185.159 Y-35.035 I-0.159 J-0.035
X-184.841 Y-34.965 I0.159 J0.035
G1 X-184.854 Y-34.936
X-184.877 Y-34.914
X-184.906 Y-34.903
X-184.938
X-185.093 Y-34.937
G0 Z5
X-134.39 Y-27.008
Z1.883
G1 Z0.2 F1000
Y-27.167
X-134.384 Y-27.198
X-134.366 Y-27.224
X-134.34 Y-27.242
X-134.309 Y-27.248
G3 X-134.309 Y-26.923 Z0.169 I0 J0.163
X-134.309 Y-27.248 Z0.139 I0 J-0.163
X-134.309 Y-26.923 Z0.108 I0 J0.163
X-134.309 Y-27.248 Z0.078 I0 J-0.163
X-134.309 Y-26.923 Z0.047 I0 J0.163
X-134.309 Y-27.248 Z0.017 I0 J-0.163
X-134.309 Y-26.923 Z-0.014 I0 J0.163
X-134.309 Y-27.248 Z-0.044 I0 J-0.163
X-134.309 Y-26.923 Z-0.075 I0 J0.163
X-134.309 Y-27.248 Z-0.105 I0 J-0.163
X-134.309 Y-26.923 Z-0.136 I0 J0.163
X-134.309 Y-27.248 Z-0.167 I0 J-0.163
X-134.309 Y-26.923 Z-0.197 I0 J0.163
X-134.309 Y-27.248 Z-0.228 I0 J-0.163
X-134.309 Y-26.923 Z-0.258 I0 J0.163
X-134.309 Y-27.248 Z-0.289 I0 J-0.163
X-134.309 Y-26.923 Z-0.319 I0 J0.163
X-134.309 Y-27.248 Z-0.35 I0 J-0.163
X-134.309 Y-26.923 Z-0.38 I0 J0.163
X-134.309 Y-27.248 Z-0.411 I0 J-0.163
X-134.309 Y-26.923 Z-0.441 I0 J0.163
X-134.309 Y-27.248 Z-0.472 I0 J-0.163
X-134.309 Y-26.923 Z-0.503 I0 J0.163
X-134.309 Y-27.248 Z-0.533 I0 J-0.163
X-134.309 Y-26.923 Z-0.564 I0 J0.163
X-134.309 Y-27.248 Z-0.594 I0 J-0.163
X-134.309 Y-26.923 Z-0.625 I0 J0.163
X-134.309 Y-27.248 Z-0.655 I0 J-0.163
X-134.309 Y-26.923 Z-0.686 I0 J0.163
X-134.309 Y-27.248 Z-0.716 I0 J-0.163
X-134.309 Y-26.923 Z-0.747 I0 J0.163
X-134.309 Y-27.248 Z-0.777 I0 J-0.163
X-134.309 Y-26.923 Z-0.808 I0 J0.163
X-134.309 Y-27.248 Z-0.839 I0 J-0.163
X-134.309 Y-26.923 Z-0.869 I0 J0.163
X-134.309 Y-27.248 Z-0.9 I0 J-0.163
X-134.309 Y-26.923 Z-0.93 I0 J0.163
X-134.309 Y-27.248 Z-0.961 I0 J-0.163
X-134.309 Y-26.923 Z-0.991 I0 J0.163
X-134.309 Y-27.248 Z-1.022 I0 J-0.163
X-134.309 Y-26.923 Z-1.052 I0 J0.163
X-134.309 Y-27.248 Z-1.083 I0 J-0.163
X-134.309 Y-26.923 Z-1.113 I0 J0.163
X-134.309 Y-27.248 Z-1.144 I0 J-0.163
X-134.309 Y-26.923 Z-1.175 I0 J0.163
X-134.309 Y-27.248 Z-1.205 I0 J-0.163
X-134.309 Y-26.923 Z-1.236 I0 J0.163
X-134.309 Y-27.248 Z-1.266 I0 J-0.163
X-134.309 Y-26.923 Z-1.297 I0 J0.163
X-134.309 Y-27.248 Z-1.327 I0 J-0.163
X-134.309 Y-26.923 Z-1.358 I0 J0.163
X-134.309 Y-27.248 Z-1.388 I0 J-0.163
X-134.309 Y-26.923 Z-1.419 I0 J0.163
X-134.309 Y-27.248 Z-1.45 I0 J-0.163
X-134.309 Y-26.923 Z-1.48 I0 J0.163
X-134.309 Y-27.248 Z-1.511 I0 J-0.163
X-134.309 Y-26.923 Z-1.541 I0 J0.163
X-134.309 Y-27.248 Z-1.572 I0 J-0.163
X-134.309 Y-26.923 Z-1.602 I0 J0.163
X-134.309 Y-27.248 Z-1.633 I0 J-0.163
X-134.309 Y-26.923 Z-1.663 I0 J0.163
X-134.309 Y-27.248 Z-1.694 I0 J-0.163
X-134.309 Y-26.923 Z-1.724 I0 J0.163
X-134.309 Y-27.248 Z-1.755 I0 J-0.163
X-134.309 Y-26.923 Z-1.786 I0 J0.163
X-134.309 Y-27.248 Z-1.816 I0 J-0.163
X-134.309 Y-26.923 Z-1.847 I0 J0.163
X-134.309 Y-27.248 Z-1.877 I0 J-0.163
X-134.309 Y-26.923 Z-1.908 I0 J0.163
X-134.309 Y-27.248 Z-1.938 I0 J-0.163
X-134.309 Y-26.923 Z-1.969 I0 J0.163
X-134.309 Y-27.248 Z-1.999 I0 J-0.163
X-134.309 Y-26.923 Z-2.03 I0 J0.163
X-134.309 Y-27.248 Z-2.06 I0 J-0.163
X-134.309 Y-26.923 Z-2.091 I0 J0.163
X-134.309 Y-27.248 Z-2.122 I0 J-0.163
X-134.309 Y-26.923 Z-2.152 I0 J0.163
X-134.309 Y-27.248 Z-2.183 I0 J-0.163
X-134.15 Y-27.05 Z-2.2 I0 J0.163
X-134.467 Y-27.12 I-0.159 J-0.035
X-134.15 Y-27.05 I0.159 J0.035
G1 X-134.163 Y-27.021
X-134.185 Y-26.999
X-134.215 Y-26.988
X-134.247
X-134.402 Y-27.023
G0 Z5
X-115.081 Y-19.923
Z1.883
G1 Z0.2 F1000
Y-20.081
X-115.075 Y-20.112
X-115.057 Y-20.139
X-115.031 Y-20.156
X-115 Y-20.163
G3 X-115 Y-19.837 Z0.169 I0 J0.163
X-115 Y-20.163 Z0.139 I0 J-0.163
X-115 Y-19.837 Z0.108 I0 J0.163
X-115 Y-20.163 Z0.078 I0 J-0.163
X-115 Y-19.837 Z0.047 I0 J0.163
X-115 Y-20.163 Z0.017 I0 J-0.163
X-115 Y-19.837 Z-0.014 I0 J0.163
X-115 Y-20.162 Z-0.044 I0 J-0.163
X-115 Y-19.838 Z-0.075 I0 J0.162
X-115 Y-20.162 Z-0.105 I0 J-0.162
X-115 Y-19.838 Z-0.136 I0 J0.162
X-115 Y-20.162 Z-0.167 I0 J-0.162
X-115 Y-19.838 Z-0.197 I0 J0.162
X-115 Y-20.162 Z-0.228 I0 J-0.162
X-115 Y-19.838 Z-0.258 I0 J0.162
X-115 Y-20.162 Z-0.289 I0 J-0.162
X-115 Y-19.838 Z-0.319 I0 J0.162
X-115 Y-20.162 Z-0.35 I0 J-0.162
X-115 Y-19.838 Z-0.38 I0 J0.162
X-115 Y-20.162 Z-0.411 I0 J-0.162
X-115 Y-19.838 Z-0.441 I0 J0.162
X-115 Y-20.162 Z-0.472 I0 J-0.162
X-115 Y-19.838 Z-0.503 I0 J0.162
X-115 Y-20.162 Z-0.533 I0 J-0.162
X-115 Y-19.838 Z-0.564 I0 J0.162
X-115 Y-20.162 Z-0.594 I0 J-0.162
X-115 Y-19.838 Z-0.625 I0 J0.162
X-115 Y-20.162 Z-0.655 I0 J-0.162
X-115 Y-19.838 Z-0.686 I0 J0.162
X-115 Y-20.162 Z-0.716 I0 J-0.162
X-115 Y-19.838 Z-0.747 I0 J0.162
X-115 Y-20.162 Z-0.777 I0 J-0.162
X-115 Y-19.838 Z-0.808 I0 J0.162
X-115 Y-20.162 Z-0.839 I0 J-0.162
X-115 Y-19.838 Z-0.869 I0 J0.162
X-115 Y-20.162 Z-0.9 I0 J-0.162
X-115 Y-19.838 Z-0.93 I0 J0.162
X-115 Y-20.162 Z-0.961 I0 J-0.162
X-115 Y-19.838 Z-0.991 I0 J0.162
X-115 Y-20.162 Z-1.022 I0 J-0.162
X-115 Y-19.838 Z-1.052 I0 J0.162
X-115 Y-20.162 Z-1.083 I0 J-0.162
X-115 Y-19.838 Z-1.113 I0 J0.162
X-115 Y-20.162 Z-1.144 I0 J-0.162
X-115 Y-19.838 Z-1.175 I0 J0.162
X-115 Y-20.162 Z-1.205 I0 J-0.162
X-115 Y-19.838 Z-1.236 I0 J0.162
X-115 Y-20.162 Z-1.266 I0 J-0.162
X-115 Y-19.838 Z-1.297 I0 J0.162
X-115 Y-20.162 Z-1.327 I0 J-0.162
X-115 Y-19.838 Z-1.358 I0 J0.162
X-115 Y-20.162 Z-1.388 I0 J-0.162
X-115 Y-19.838 Z-1.419 I0 J0.162
X-115 Y-20.162 Z-1.45 I0 J-0.162
X-115 Y-19.838 Z-1.48 I0 J0.162
X-115 Y-20.162 Z-1.511 I0 J-0.162
X-115 Y-19.838 Z-1.541 I0 J0.162
X-115 Y-20.162 Z-1.572 I0 J-0.162
X-115 Y-19.838 Z-1.602 I0 J0.162
X-115 Y-20.162 Z-1.633 I0 J-0.162
X-115 Y-19.838 Z-1.663 I0 J0.162
X-115 Y-20.162 Z-1.694 I0 J-0.162
X-115 Y-19.838 Z-1.724 I0 J0.162
X-115 Y-20.162 Z-1.755 I0 J-0.162
X-115 Y-19.838 Z-1.786 I0 J0.162
X-115 Y-20.162 Z-1.816 I0 J-0.162
X-115 Y-19.838 Z-1.847 I0 J0.162
X-115 Y-20.162 Z-1.877 I0 J-0.162
X-115 Y-19.838 Z-1.908 I0 J0.162
X-115 Y-20.162 Z-1.938 I0 J-0.162
X-115 Y-19.838 Z-1.969 I0 J0.162
X-115 Y-20.162 Z-1.999 I0 J-0.162
X-115 Y-19.838 Z-2.03 I0 J0.162
X-115 Y-20.162 Z-2.06 I0 J-0.162
X-115 Y-19.838 Z-2.091 I0 J0.162
X-115 Y-20.162 Z-2.122 I0 J-0.162
X-115 Y-19.838 Z-2.152 I0 J0.162
X-115 Y-20.162 Z-2.183 I0 J-0.162
X-114.841 Y-19.965 Z-2.2 I0 J0.162
X-115.159 Y-20.035 I-0.159 J-0.035
X-114.841 Y-19.965 I0.159 J0.035
G1 X-114.854 Y-19.936
X-114.877 Y-19.914
X-114.906 Y-19.903
X-114.938
X-115.093 Y-19.937
G0 Z5
X-85.957 Y-39.851
Z1.883
G1 Z0.2 F1000
Y-40.01
X-85.951 Y-40.041
X-85.933 Y-40.067
X-85.907 Y-40.085
X-85.876 Y-40.091
G3 X-85.876 Y-39.766 Z0.169 I0 J0.162
X-85.876 Y-40.091 Z0.139 I0 J-0.162
X-85.876 Y-39.766 Z0.108 I0 J0.162
X-85.876 Y-40.091 Z0.078 I0 J-0.162
X-85.876 Y-39.766 Z0.047 I0 J0.162
X-85.876 Y-40.091 Z0.017 I0 J-0.162
X-85.876 Y-39.766 Z-0.014 I0 J0.162
X-85.876 Y-40.091 Z-0.044 I0 J-0.162
X-85.876 Y-39.766 Z-0.075 I0 J0.162
X-85.876 Y-40.091 Z-0.105 I0 J-0.162
X-85.876 Y-39.766 Z-0.136 I0 J0.162
X-85.876 Y-40.091 Z-0.167 I0 J-0.162
X-85.876 Y-39.766 Z-0.197 I0 J0.162
X-85.876 Y-40.091 Z-0.228 I0 J-0.162
X-85.876 Y-39.766 Z-0.258 I0 J0.162
X-85.876 Y-40.091 Z-0.289 I0 J-0.162
X-85.876 Y-39.766 Z-0.319 I0 J0.162
X-85.876 Y-40.091 Z-0.35 I0 J-0.162
X-85.876 Y-39.766 Z-0.38 I0 J0.162
X-85.876 Y-40.091 Z-0.411 I0 J-0.162
X-85.876 Y-39.766 Z-0.441 I0 J0.162
X-85.876 Y-40.091 Z-0.472 I0 J-0.163
X-85.876 Y-39.766 Z-0.503 I0 J0.163
X-85.876 Y-40.091 Z-0.533 I0 J-0.163
X-85.876 Y-39.766 Z-0.564 I0 J0.163
X-85.876 Y-40.091 Z-0.594 I0 J-0.163
X-85.876 Y-39.766 Z-0.625 I0 J0.163
X-85.876 Y-40.091 Z-0.655 I0 J-0.163
X-85.876 Y-39.766 Z-0.686 I0 J0.163
X-85.876 Y-40.091 Z-0.716 I0 J-0.163
X-85.876 Y-39.766 Z-0.747 I0 J0.163
X-85.876 Y-40.091 Z-0.777 I0 J-0.163
X-85.876 Y-39.766 Z-0.808 I0 J0.163
X-85.876 Y-40.091 Z-0.839 I0 J-0.163
X-85.876 Y-39.766 Z-0.869 I0 J0.163
X-85.876 Y-40.091 Z-0.9 I0 J-0.163
X-85.876 Y-39.766 Z-0.93 I0 J0.163
X-85.876 Y-40.091 Z-0.961 I0 J-0.163
X-85.876 Y-39.766 Z-0.991 I0 J0.163
X-85.876 Y-40.091 Z-1.022 I0 J-0.163
X-85.876 Y-39.766 Z-1.052 I0 J0.163
X-85.876 Y-40.091 Z-1.083 I0 J-0.163
X-85.876 Y-39.766 Z-1.113 I0 J0.163
X-85.876 Y-40.091 Z-1.144 I0 J-0.163
X-85.876 Y-39.766 Z-1.175 I0 J0.163
X-85.876 Y-40.091 Z-1.205 I0 J-0.163
X-85.876 Y-39.766 Z-1.236 I0 J0.163
X-85.876 Y-40.091 Z-1.266 I0 J-0.163
X-85.876 Y-39.766 Z-1.297 I0 J0.163
X-85.876 Y-40.091 Z-1.327 I0 J-0.163
X-85.876 Y-39.766 Z-1.358 I0 J0.163
X-85.876 Y-40.091 Z-1.388 I0 J-0.163
X-85.876 Y-39.766 Z-1.419 I0 J0.163
X-85.876 Y-40.091 Z-1.45 I0 J-0.163
X-85.876 Y-39.766 Z-1.48 I0 J0.163
X-85.876 Y-40.091 Z-1.511 I0 J-0.163
X-85.876 Y-39.766 Z-1.541 I0 J0.163
X-85.876 Y-40.091 Z-1.572 I0 J-0.163
X-85.876 Y-39.766 Z-1.602 I0 J0.163
X-85.876 Y-40.091 Z-1.633 I0 J-0.163
X-85.876 Y-39.766 Z-1.663 I0 J0.163
X-85.876 Y-40.091 Z-1.694 I0 J-0.163
X-85.876 Y-39.766 Z-1.724 I0 J0.163
X-85.876 Y-40.091 Z-1.755 I0 J-0.163
X-85.876 Y-39.766 Z-1.786 I0 J0.163
X-85.876 Y-40.091 Z-1.816 I0 J-0.163
X-85.876 Y-39.766 Z-1.847 I0 J0.163
X-85.876 Y-40.091 Z-1.877 I0 J-0.163
X-85.876 Y-39.766 Z-1.908 I0 J0.163
X-85.876 Y-40.091 Z-1.938 I0 J-0.163
X-85.876 Y-39.766 Z-1.969 I0 J0.163
X-85.876 Y-40.091 Z-1.999 I0 J-0.163
X-85.876 Y-39.766 Z-2.03 I0 J0.163
X-85.876 Y-40.091 Z-2.06 I0 J-0.163
X-85.876 Y-39.766 Z-2.091 I0 J0.163
X-85.876 Y-40.091 Z-2.122 I0 J-0.163
X-85.876 Y-39.766 Z-2.152 I0 J0.163
X-85.876 Y-40.091 Z-2.183 I0 J-0.163
X-85.717 Y-39.894 Z-2.2 I0 J0.163
X-86.034 Y-39.964 I-0.159 J-0.035
X-85.717 Y-39.894 I0.159 J0.035
G1 X-85.73 Y-39.865
X-85.753 Y-39.843
X-85.782 Y-39.831
X-85.814 Y-39.832
X-85.969 Y-39.866
G0 Z5
X-75.081 Y-44.923
Z1.883
G1 Z0.2 F1000
Y-45.081
X-75.075 Y-45.112
X-75.057 Y-45.139
X-75.031 Y-45.156
X-75 Y-45.162
G3 X-75 Y-44.838 Z0.169 I0 J0.162
X-75 Y-45.162 Z0.139 I0 J-0.162
X-75 Y-44.838 Z0.108 I0 J0.162
X-75 Y-45.162 Z0.078 I0 J-0.162
X-75 Y-44.838 Z0.047 I0 J0.162
X-75 Y-45.162 Z0.017 I0 J-0.162
X-75 Y-44.838 Z-0.014 I0 J0.162
X-75 Y-45.162 Z-0.044 I0 J-0.162
X-75 Y-44.838 Z-0.075 I0 J0.162
X-75 Y-45.162 Z-0.105 I0 J-0.162
X-75 Y-44.838 Z-0.136 I0 J0.162
X-75 Y-45.162 Z-0.167 I0 J-0.162
X-75 Y-44.838 Z-0.197 I0 J0.162
X-75 Y-45.162 Z-0.228 I0 J-0.162
X-75 Y-44.838 Z-0.258 I0 J0.162
X-75 Y-45.162 Z-0.289 I0 J-0.162
X-75 Y-44.838 Z-0.319 I0 J0.162
X-75 Y-45.162 Z-0.35 I0 J-0.162
X-75 Y-44.838 Z-0.38 I0 J0.162
X-75 Y-45.162 Z-0.411 I0 J-0.162
X-75 Y-44.838 Z-0.441 I0 J0.162
X-75 Y-45.162 Z-0.472 I0 J-0.162
X-75 Y-44.838 Z-0.503 I0 J0.162
X-75 Y-45.162 Z-0.533 I0 J-0.162
X-75 Y-44.838 Z-0.564 I0 J0.162
X-75 Y-45.162 Z-0.594 I0 J-0.162
X-75 Y-44.838 Z-0.625 I0 J0.162
X-75 Y-45.162 Z-0.655 I0 J-0.162
X-75 Y-44.838 Z-0.686 I0 J0.162
X-75 Y-45.162 Z-0.716 I0 J-0.162
X-75 Y-44.838 Z-0.747 I0 J0.162
X-75 Y-45.162 Z-0.777 I0 J-0.162
X-75 Y-44.838 Z-0.808 I0 J0.162
X-75 Y-45.162 Z-0.839 I0 J-0.162
X-75 Y-44.838 Z-0.869 I0 J0.162
X-75 Y-45.162 Z-0.9 I0 J-0.162
X-75 Y-44.838 Z-0.93 I0 J0.162
X-75 Y-45.162 Z-0.961 I0 J-0.162
X-75 Y-44.838 Z-0.991 I0 J0.162
X-75 Y-45.162 Z-1.022 I0 J-0.162
X-75 Y-44.838 Z-1.052 I0 J0.162
X-75 Y-45.162 Z-1.083 I0 J-0.162
X-75 Y-44.838 Z-1.113 I0 J0.162
X-75 Y-45.162 Z-1.144 I0 J-0.162
X-75 Y-44.838 Z-1.175 I0 J0.162
X-75 Y-45.162 Z-1.205 I0 J-0.162
X-75 Y-44.838 Z-1.236 I0 J0.162
X-75 Y-45.162 Z-1.266 I0 J-0.162
X-75 Y-44.838 Z-1.297 I0 J0.162
X-75 Y-45.162 Z-1.327 I0 J-0.162
X-75 Y-44.838 Z-1.358 I0 J0.162
X-75 Y-45.162 Z-1.388 I0 J-0.162
X-75 Y-44.838 Z-1.419 I0 J0.162
X-75 Y-45.162 Z-1.45 I0 J-0.162
X-75 Y-44.838 Z-1.48 I0 J0.162
X-75 Y-45.162 Z-1.511 I0 J-0.162
X-75 Y-44.838 Z-1.541 I0 J0.162
X-75 Y-45.162 Z-1.572 I0 J-0.162
X-75 Y-44.838 Z-1.602 I0 J0.162
X-75 Y-45.162 Z-1.633 I0 J-0.162
X-75 Y-44.838 Z-1.663 I0 J0.162
X-75 Y-45.162 Z-1.694 I0 J-0.162
X-75 Y-44.838 Z-1.724 I0 J0.162
X-75 Y-45.162 Z-1.755 I0 J-0.162
X-75 Y-44.838 Z-1.786 I0 J0.162
X-75 Y-45.162 Z-1.816 I0 J-0.162
X-75 Y-44.838 Z-1.847 I0 J0.162
X-75 Y-45.162 Z-1.877 I0 J-0.162
X-75 Y-44.838 Z-1.908 I0 J0.162
X-75 Y-45.162 Z-1.938 I0 J-0.162
X-75 Y-44.838 Z-1.969 I0 J0.162
X-75 Y-45.162 Z-1.999 I0 J-0.162
X-75 Y-44.838 Z-2.03 I0 J0.162
X-75 Y-45.162 Z-2.06 I0 J-0.162
X-75 Y-44.838 Z-2.091 I0 J0.162
X-75 Y-45.162 Z-2.122 I0 J-0.162
X-75 Y-44.838 Z-2.152 I0 J0.162
X-75 Y-45.162 Z-2.183 I0 J-0.162
X-74.841 Y-44.965 Z-2.2 I0 J0.162
X-75.159 Y-45.035 I-0.159 J-0.035
X-74.841 Y-44.965 I0.159 J0.035
G1 X-74.854 Y-44.936
X-74.877 Y-44.914
X-74.906 Y-44.903
X-74.938
X-75.093 Y-44.937
G0 Z5
X-55.081 Y-34.923
Z1.883
G1 Z0.2 F1000
Y-35.081
X-55.075 Y-35.112
X-55.057 Y-35.139
X-55.031 Y-35.156
X-55 Y-35.162
G3 X-55 Y-34.838 Z0.169 I0 J0.162
X-55 Y-35.162 Z0.139 I0 J-0.162
X-55 Y-34.838 Z0.108 I0 J0.162
X-55 Y-35.162 Z0.078 I0 J-0.162
X-55 Y-34.838 Z0.047 I0 J0.162
X-55 Y-35.162 Z0.017 I0 J-0.162
X-55 Y-34.838 Z-0.014 I0 J0.162
X-55 Y-35.162 Z-0.044 I0 J-0.162
X-55 Y-34.838 Z-0.075 I0 J0.162
X-55 Y-35.162 Z-0.105 I0 J-0.162
X-55 Y-34.838 Z-0.136 I0 J0.162
X-55 Y-35.162 Z-0.167 I0 J-0.162
X-55 Y-34.838 Z-0.197 I0 J0.162
X-55 Y-35.162 Z-0.228 I0 J-0.162
X-55 Y-34.838 Z-0.258 I0 J0.162
X-55 Y-35.162 Z-0.289 I0 J-0.162
X-55 Y-34.838 Z-0.319 I0 J0.162
X-55 Y-35.162 Z-0.35 I0 J-0.162
X-55 Y-34.838 Z-0.38 I0 J0.162
X-55 Y-35.162 Z-0.411 I0 J-0.162
X-55 Y-34.838 Z-0.441 I0 J0.162
X-55 Y-35.162 Z-0.472 I0 J-0.162
X-55 Y-34.838 Z-0.503 I0 J0.162
X-55 Y-35.162 Z-0.533 I0 J-0.162
X-55 Y-34.838 Z-0.564 I0 J0.162
X-55 Y-35.162 Z-0.594 I0 J-0.162
X-55 Y-34.838 Z-0.625 I0 J0.162
X-55 Y-35.162 Z-0.655 I0 J-0.162
X-55 Y-34.838 Z-0.686 I0 J0.162
X-55 Y-35.162 Z-0.716 I0 J-0.162
X-55 Y-34.838 Z-0.747 I0 J0.162
X-55 Y-35.162 Z-0.777 I0 J-0.162
X-55 Y-34.838 Z-0.808 I0 J0.162
X-55 Y-35.162 Z-0.839 I0 J-0.162
X-55 Y-34.838 Z-0.869 I0 J0.162
X-55 Y-35.162 Z-0.9 I0 J-0.162
X-55 Y-34.838 Z-0.93 I0 J0.162
X-55 Y-35.162 Z-0.961 I0 J-0.162
X-55 Y-34.838 Z-0.991 I0 J0.162
X-55 Y-35.162 Z-1.022 I0 J-0.162
X-55 Y-34.838 Z-1.052 I0 J0.162
X-55 Y-35.162 Z-1.083 I0 J-0.162
X-55 Y-34.838 Z-1.113 I0 J0.162
X-55 Y-35.162 Z-1.144 I0 J-0.162
X-55 Y-34.838 Z-1.175 I0 J0.162
X-55 Y-35.162 Z-1.205 I0 J-0.162
X-55 Y-34.838 Z-1.236 I0 J0.162
X-55 Y-35.162 Z-1.266 I0 J-0.162
X-55 Y-34.838 Z-1.297 I0 J0.162
X-55 Y-35.162 Z-1.327 I0 J-0.162
X-55 Y-34.838 Z-1.358 I0 J0.162
X-55 Y-35.162 Z-1.388 I0 J-0.162
X-55 Y-34.838 Z-1.419 I0 J0.162
X-55 Y-35.162 Z-1.45 I0 J-0.162
X-55 Y-34.837 Z-1.48 I0 J0.162
X-55 Y-35.163 Z-1.511 I0 J-0.163
X-55 Y-34.837 Z-1.541 I0 J0.163
X-55 Y-35.163 Z-1.572 I0 J-0.163
X-55 Y-34.837 Z-1.602 I0 J0.163
X-55 Y-35.163 Z-1.633 I0 J-0.163
X-55 Y-34.837 Z-1.663 I0 J0.163
X-55 Y-35.163 Z-1.694 I0 J-0.163
X-55 Y-34.837 Z-1.724 I0 J0.163
X-55 Y-35.163 Z-1.755 I0 J-0.163
X-55 Y-34.837 Z-1.786 I0 J0.163
X-55 Y-35.163 Z-1.816 I0 J-0.163
X-55 Y-34.837 Z-1.847 I0 J0.163
X-55 Y-35.163 Z-1.877 I0 J-0.163
X-55 Y-34.837 Z-1.908 I0 J0.163
X-55 Y-35.163 Z-1.938 I0 J-0.163
X-55 Y-34.837 Z-1.969 I0 J0.163
X-55 Y-35.163 Z-1.999 I0 J-0.163
X-55 Y-34.837 Z-2.03 I0 J0.163
X-55 Y-35.163 Z-2.06 I0 J-0.163
X-55 Y-34.837 Z-2.091 I0 J0.163
X-55 Y-35.163 Z-2.122 I0 J-0.163
X-55 Y-34.837 Z-2.152 I0 J0.163
X-55 Y-35.163 Z-2.183 I0 J-0.163
X-54.841 Y-34.965 Z-2.2 I0 J0.163
X-55.159 Y-35.035 I-0.159 J-0.035
X-54.841 Y-34.965 I0.159 J0.035
G1 X-54.854 Y-34.936
X-54.877 Y-34.914
X-54.906 Y-34.903
X-54.938
X-55.093 Y-34.937
G0 Z5
X-30.081 Y-39.923
Z1.883
G1 Z0.2 F1000
Y-40.081
X-30.075 Y-40.112
X-30.057 Y-40.139
X-30.031 Y-40.156
X-30 Y-40.162
G3 X-30 Y-39.838 Z0.169 I0 J0.162
X-30 Y-40.162 Z0.139 I0 J-0.162
X-30 Y-39.838 Z0.108 I0 J0.162
X-30 Y-40.162 Z0.078 I0 J-0.162
X-30 Y-39.838 Z0.047 I0 J0.162
X-30 Y-40.162 Z0.017 I0 J-0.162
X-30 Y-39.838 Z-0.014 I0 J0.162
X-30 Y-40.162 Z-0.044 I0 J-0.162
X-30 Y-39.838 Z-0.075 I0 J0.162
X-30 Y-40.162 Z-0.105 I0 J-0.162
X-30 Y-39.838 Z-0.136 I0 J0.162
X-30 Y-40.162 Z-0.167 I0 J-0.162
X-30 Y-39.838 Z-0.197 I0 J0.162
X-30 Y-40.162 Z-0.228 I0 J-0.162
X-30 Y-39.838 Z-0.258 I0 J0.162
X-30 Y-40.162 Z-0.289 I0 J-0.162
X-30 Y-39.838 Z-0.319 I0 J0.162
X-30 Y-40.162 Z-0.35 I0 J-0.162
X-30 Y-39.838 Z-0.38 I0 J0.162
X-30 Y-40.162 Z-0.411 I0 J-0.162
X-30 Y-39.838 Z-0.441 I0 J0.162
X-30 Y-40.162 Z-0.472 I0 J-0.162
X-30 Y-39.838 Z-0.503 I0 J0.162
X-30 Y-40.162 Z-0.533 I0 J-0.162
X-30 Y-39.838 Z-0.564 I0 J0.162
X-30 Y-40.162 Z-0.594 I0 J-0.162
X-30 Y-39.838 Z-0.625 I0 J0.162
X-30 Y-40.162 Z-0.655 I0 J-0.162
X-30 Y-39.838 Z-0.686 I0 J0.162
X-30 Y-40.162 Z-0.716 I0 J-0.162
X-30 Y-39.838 Z-0.747 I0 J0.162
X-30 Y-40.162 Z-0.777 I0 J-0.162
X-30 Y-39.838 Z-0.808 I0 J0.162
X-30 Y-40.162 Z-0.839 I0 J-0.162
X-30 Y-39.838 Z-0.869 I0 J0.162
X-30 Y-40.162 Z-0.9 I0 J-0.162
X-30 Y-39.838 Z-0.93 I0 J0.162
X-30 Y-40.162 Z-0.961 I0 J-0.162
X-30 Y-39.838 Z-0.991 I0 J0.162
X-30 Y-40.162 Z-1.022 I0 J-0.162
X-30 Y-39.838 Z-1.052 I0 J0.162
X-30 Y-40.162 Z-1.083 I0 J-0.162
X-30 Y-39.838 Z-1.113 I0 J0.162
X-30 Y-40.162 Z-1.144 I0 J-0.162
X-30 Y-39.838 Z-1.175 I0 J0.162
X-30 Y-40.162 Z-1.205 I0 J-0.162
X-30 Y-39.838 Z-1.236 I0 J0.162
X-30 Y-40.162 Z-1.266 I0 J-0.162
X-30 Y-39.838 Z-1.297 I0 J0.162
X-30 Y-40.162 Z-1.327 I0 J-0.162
X-30 Y-39.838 Z-1.358 I0 J0.162
X-30 Y-40.162 Z-1.388 I0 J-0.162
X-30 Y-39.838 Z-1.419 I0 J0.162
X-30 Y-40.162 Z-1.45 I0 J-0.162
X-30 Y-39.837 Z-1.48 I0 J0.162
X-30 Y-40.163 Z-1.511 I0 J-0.163
X-30 Y-39.837 Z-1.541 I0 J0.163
X-30 Y-40.163 Z-1.572 I0 J-0.163
X-30 Y-39.837 Z-1.602 I0 J0.163
X-30 Y-40.163 Z-1.633 I0 J-0.163
X-30 Y-39.837 Z-1.663 I0 J0.163
X-30 Y-40.163 Z-1.694 I0 J-0.163
X-30 Y-39.837 Z-1.724 I0 J0.163
X-30 Y-40.163 Z-1.755 I0 J-0.163
X-30 Y-39.837 Z-1.786 I0 J0.163
X-30 Y-40.163 Z-1.816 I0 J-0.163
X-30 Y-39.837 Z-1.847 I0 J0.163
X-30 Y-40.163 Z-1.877 I0 J-0.163
X-30 Y-39.837 Z-1.908 I0 J0.163
X-30 Y-40.163 Z-1.938 I0 J-0.163
X-30 Y-39.837 Z-1.969 I0 J0.163
X-30 Y-40.163 Z-1.999 I0 J-0.163
X-30 Y-39.837 Z-2.03 I0 J0.163
X-30 Y-40.163 Z-2.06 I0 J-0.163
X-30 Y-39.837 Z-2.091 I0 J0.163
X-30 Y-40.163 Z-2.122 I0 J-0.163
X-30 Y-39.837 Z-2.152 I0 J0.163
X-30 Y-40.163 Z-2.183 I0 J-0.163
X-29.841 Y-39.965 Z-2.2 I0 J0.163
X-30.159 Y-40.035 I-0.159 J-0.035
X-29.841 Y-39.965 I0.159 J0.035
G1 X-29.854 Y-39.936
X-29.877 Y-39.914
X-29.906 Y-39.903
X-29.938
X-30.093 Y-39.937
G0 Z5
X-284.081 Y-50.923
Z1.883
G1 Z0.2 F1000
Y-51.081
X-284.075 Y-51.112
X-284.057 Y-51.139
X-284.031 Y-51.156
X-284 Y-51.162
G3 X-284 Y-50.838 Z0.169 I0 J0.162
X-284 Y-51.162 Z0.139 I0 J-0.162
X-284 Y-50.838 Z0.108 I0 J0.162
X-284 Y-51.162 Z0.078 I0 J-0.162
X-284 Y-50.838 Z0.047 I0 J0.162
X-284 Y-51.162 Z0.017 I0 J-0.162
X-284 Y-50.838 Z-0.014 I0 J0.162
X-284 Y-51.162 Z-0.044 I0 J-0.162
X-284 Y-50.838 Z-0.075 I0 J0.162
X-284 Y-51.162 Z-0.105 I0 J-0.162
X-284 Y-50.838 Z-0.136 I0 J0.162
X-284 Y-51.162 Z-0.167 I0 J-0.162
X-284 Y-50.838 Z-0.197 I0 J0.162
X-284 Y-51.162 Z-0.228 I0 J-0.162
X-284 Y-50.838 Z-0.258 I0 J0.162
X-284 Y-51.162 Z-0.289 I0 J-0.162
X-284 Y-50.838 Z-0.319 I0 J0.162
X-284 Y-51.162 Z-0.35 I0 J-0.162
X-284 Y-50.838 Z-0.38 I0 J0.162
X-284 Y-51.162 Z-0.411 I0 J-0.162
X-284 Y-50.837 Z-0.441 I0 J0.162
X-284 Y-51.163 Z-0.472 I0 J-0.163
X-284 Y-50.837 Z-0.503 I0 J0.163
X-284 Y-51.163 Z-0.533 I0 J-0.163
X-284 Y-50.837 Z-0.564 I0 J0.163
X-284 Y-51.163 Z-0.594 I0 J-0.163
X-284 Y-50.837 Z-0.625 I0 J0.163
X-284 Y-51.163 Z-0.655 I0 J-0.163
X-284 Y-50.837 Z-0.686 I0 J0.163
X-284 Y-51.163 Z-0.716 I0 J-0.163
X-284 Y-50.837 Z-0.747 I0 J0.163
X-284 Y-51.163 Z-0.777 I0 J-0.163
X-284 Y-50.837 Z-0.808 I0 J0.163
X-284 Y-51.163 Z-0.839 I0 J-0.163
X-284 Y-50.837 Z-0.869 I0 J0.163
X-284 Y-51.163 Z-0.9 I0 J-0.163
X-284 Y-50.837 Z-0.93 I0 J0.163
X-284 Y-51.163 Z-0.961 I0 J-0.163
X-284 Y-50.837 Z-0.991 I0 J0.163
X-284 Y-51.163 Z-1.022 I0 J-0.163
X-284 Y-50.837 Z-1.052 I0 J0.163
X-284 Y-51.163 Z-1.083 I0 J-0.163
X-284 Y-50.837 Z-1.113 I0 J0.163
X-284 Y-51.163 Z-1.144 I0 J-0.163
X-284 Y-50.837 Z-1.175 I0 J0.163
X-284 Y-51.163 Z-1.205 I0 J-0.163
X-284 Y-50.837 Z-1.236 I0 J0.163
X-284 Y-51.163 Z-1.266 I0 J-0.163
X-284 Y-50.837 Z-1.297 I0 J0.163
X-284 Y-51.163 Z-1.327 I0 J-0.163
X-284 Y-50.837 Z-1.358 I0 J0.163
X-284 Y-51.163 Z-1.388 I0 J-0.163
X-284 Y-50.837 Z-1.419 I0 J0.163
X-284 Y-51.163 Z-1.45 I0 J-0.163
X-284 Y-50.837 Z-1.48 I0 J0.163
X-284 Y-51.163 Z-1.511 I0 J-0.163
X-284 Y-50.837 Z-1.541 I0 J0.163
X-284 Y-51.163 Z-1.572 I0 J-0.163
X-284 Y-50.837 Z-1.602 I0 J0.163
X-284 Y-51.163 Z-1.633 I0 J-0.163
X-284 Y-50.837 Z-1.663 I0 J0.163
X-284 Y-51.163 Z-1.694 I0 J-0.163
X-284 Y-50.837 Z-1.724 I0 J0.163
X-284 Y-51.163 Z-1.755 I0 J-0.163
X-284 Y-50.837 Z-1.786 I0 J0.163
X-284 Y-51.163 Z-1.816 I0 J-0.163
X-284 Y-50.837 Z-1.847 I0 J0.163
X-284 Y-51.163 Z-1.877 I0 J-0.163
X-284 Y-50.837 Z-1.908 I0 J0.163
X-284 Y-51.163 Z-1.938 I0 J-0.163
X-284 Y-50.837 Z-1.969 I0 J0.163
X-284 Y-51.163 Z-1.999 I0 J-0.163
X-284 Y-50.837 Z-2.03 I0 J0.163
X-284 Y-51.163 Z-2.06 I0 J-0.163
X-284 Y-50.837 Z-2.091 I0 J0.163
X-284 Y-51.163 Z-2.122 I0 J-0.163
X-284 Y-50.837 Z-2.152 I0 J0.163
X-284 Y-51.163 Z-2.183 I0 J-0.163
X-283.841 Y-50.965 Z-2.2 I0 J0.163
X-284.159 Y-51.035 I-0.159 J-0.035
X-283.841 Y-50.965 I0.159 J0.035
G1 X-283.854 Y-50.936
X-283.877 Y-50.914
X-283.906 Y-50.903
X-283.938
X-284.093 Y-50.937
G0 Z5
X-284.081 Y-88.923
Z1.883
G1 Z0.2 F1000
Y-89.081
X-284.075 Y-89.112
X-284.057 Y-89.139
X-284.031 Y-89.156
X-284 Y-89.162
G3 X-284 Y-88.838 Z0.169 I0 J0.162
X-284 Y-89.162 Z0.139 I0 J-0.162
X-284 Y-88.838 Z0.108 I0 J0.162
X-284 Y-89.162 Z0.078 I0 J-0.162
X-284 Y-88.838 Z0.047 I0 J0.162
X-284 Y-89.162 Z0.017 I0 J-0.162
X-284 Y-88.838 Z-0.014 I0 J0.162
X-284 Y-89.162 Z-0.044 I0 J-0.162
X-284 Y-88.838 Z-0.075 I0 J0.162
X-284 Y-89.162 Z-0.105 I0 J-0.162
X-284 Y-88.838 Z-0.136 I0 J0.162
X-284 Y-89.162 Z-0.167 I0 J-0.162
X-284 Y-88.838 Z-0.197 I0 J0.162
X-284 Y-89.162 Z-0.228 I0 J-0.162
X-284 Y-88.838 Z-0.258 I0 J0.162
X-284 Y-89.162 Z-0.289 I0 J-0.162
X-284 Y-88.838 Z-0.319 I0 J0.162
X-284 Y-89.162 Z-0.35 I0 J-0.162
X-284 Y-88.838 Z-0.38 I0 J0.162
X-284 Y-89.162 Z-0.411 I0 J-0.162
X-284 Y-88.837 Z-0.441 I0 J0.162
X-284 Y-89.163 Z-0.472 I0 J-0.163
X-284 Y-88.837 Z-0.503 I0 J0.163
X-284 Y-89.163 Z-0.533 I0 J-0.163
X-284 Y-88.837 Z-0.564 I0 J0.163
X-284 Y-89.163 Z-0.594 I0 J-0.163
X-284 Y-88.837 Z-0.625 I0 J0.163
X-284 Y-89.163 Z-0.655 I0 J-0.163
X-284 Y-88.837 Z-0.686 I0 J0.163
X-284 Y-89.163 Z-0.716 I0 J-0.163
X-284 Y-88.837 Z-0.747 I0 J0.163
X-284 Y-89.163 Z-0.777 I0 J-0.163
X-284 Y-88.837 Z-0.808 I0 J0.163
X-284 Y-89.163 Z-0.839 I0 J-0.163
X-284 Y-88.837 Z-0.869 I0 J0.163
X-284 Y-89.163 Z-0.9 I0 J-0.163
X-284 Y-88.837 Z-0.93 I0 J0.163
X-284 Y-89.163 Z-0.961 I0 J-0.163
X-284 Y-88.837 Z-0.991 I0 J0.163
X-284 Y-89.163 Z-1.022 I0 J-0.163
X-284 Y-88.837 Z-1.052 I0 J0.163
X-284 Y-89.163 Z-1.083 I0 J-0.163
X-284 Y-88.837 Z-1.113 I0 J0.163
X-284 Y-89.163 Z-1.144 I0 J-0.163
X-284 Y-88.837 Z-1.175 I0 J0.163
X-284 Y-89.163 Z-1.205 I0 J-0.163
X-284 Y-88.837 Z-1.236 I0 J0.163
X-284 Y-89.163 Z-1.266 I0 J-0.163
X-284 Y-88.837 Z-1.297 I0 J0.163
X-284 Y-89.163 Z-1.327 I0 J-0.163
X-284 Y-88.837 Z-1.358 I0 J0.163
X-284 Y-89.163 Z-1.388 I0 J-0.163
X-284 Y-88.837 Z-1.419 I0 J0.163
X-284 Y-89.163 Z-1.45 I0 J-0.163
X-284 Y-88.837 Z-1.48 I0 J0.163
X-284 Y-89.163 Z-1.511 I0 J-0.163
X-284 Y-88.837 Z-1.541 I0 J0.163
X-284 Y-89.163 Z-1.572 I0 J-0.163
X-284 Y-88.837 Z-1.602 I0 J0.163
X-284 Y-89.163 Z-1.633 I0 J-0.163
X-284 Y-88.837 Z-1.663 I0 J0.163
X-284 Y-89.163 Z-1.694 I0 J-0.163
X-284 Y-88.837 Z-1.724 I0 J0.163
X-284 Y-89.163 Z-1.755 I0 J-0.163
X-284 Y-88.837 Z-1.786 I0 J0.163
X-284 Y-89.163 Z-1.816 I0 J-0.163
X-284 Y-88.837 Z-1.847 I0 J0.163
X-284 Y-89.163 Z-1.877 I0 J-0.163
X-284 Y-88.837 Z-1.908 I0 J0.163
X-284 Y-89.163 Z-1.938 I0 J-0.163
X-284 Y-88.837 Z-1.969 I0 J0.163
X-284 Y-89.163 Z-1.999 I0 J-0.163
X-284 Y-88.837 Z-2.03 I0 J0.163
X-284 Y-89.163 Z-2.06 I0 J-0.163
X-284 Y-88.837 Z-2.091 I0 J0.163
X-284 Y-89.163 Z-2.122 I0 J-0.163
X-284 Y-88.837 Z-2.152 I0 J0.163
X-284 Y-89.163 Z-2.183 I0 J-0.163
X-283.841 Y-88.965 Z-2.2 I0 J0.163
X-284.159 Y-89.035 I-0.159 J-0.035
X-283.841 Y-88.965 I0.159 J0.035
G1 X-283.854 Y-88.936
X-283.877 Y-88.914
X-283.906 Y-88.903
X-283.938
X-284.093 Y-88.937
G0 Z15
M5
M30
