(X500_Bottom_Kontur_3-175)
(T17  D=3.175 CR=0 - ZMIN=-2.2 - Schaftfraser)
G90 G94
G17
G21

(2D-Kontur6)
T17
S5000 M3
G54
G0 X-157.284 Y-76.713
Z20
Z5.2
G1 Z2.7 F333.3
X-145.999 Y-87.999 Z2.143
G3 X-144.001 Y-86.001 Z1.988 I0.999 J0.999
G1 X-156.001 Y-74.001 Z1.395
G3 X-157.999 Y-75.999 Z1.24 I-0.999 J-0.999
G1 X-145.999 Y-87.999 Z0.648
G3 X-144.001 Y-86.001 Z0.493 I0.999 J0.999
G1 X-156.001 Y-74.001 Z-0.1
G3 X-157.999 Y-75.999 I-0.999 J-0.999 F1000
G1 X-145.999 Y-87.999
G3 X-144.001 Y-86.001 I0.999 J0.999
G1 X-156.001 Y-74.001
G3 X-157.999 Y-75.999 Z-0.255 I-0.999 J-0.999 F333.3
G1 X-155.061 Y-78.936 Z-0.4
X-145.999 Y-87.999 F1000
G3 X-144.001 Y-86.001 I0.999 J0.999
G1 X-156.001 Y-74.001
G3 X-157.999 Y-75.999 I-0.999 J-0.999
G1 X-155.061 Y-78.936
X-148.987 Y-85.011 Z-0.7 F333.3
X-145.999 Y-87.999 F1000
G3 X-144.001 Y-86.001 I0.999 J0.999
G1 X-156.001 Y-74.001
G3 X-157.999 Y-75.999 I-0.999 J-0.999
G1 X-148.987 Y-85.011
X-145.999 Y-87.999 Z-0.848 F333.3
G3 X-143.952 Y-86.053 Z-1 I0.999 J0.999
G1 X-144.001 Y-86.001 F1000
X-156.001 Y-74.001
G3 X-157.999 Y-75.999 I-0.999 J-0.999
G1 X-148.987 Y-85.011
X-145.999 Y-87.999
G3 X-143.952 Y-86.053 I0.999 J0.999
G1 X-144.001 Y-86.001 Z-1.002 F333.3
X-150.026 Y-79.977 Z-1.3
X-156.001 Y-74.001 F1000
G3 X-157.999 Y-75.999 I-0.999 J-0.999
G1 X-145.999 Y-87.999
G3 X-144.001 Y-86.001 I0.999 J0.999
G1 X-150.026 Y-79.977
X-156.001 Y-74.001 Z-1.595 F333.3
X-156.105 Y-73.908 Z-1.6
G3 X-157.999 Y-75.999 I-0.895 J-1.092 F1000
G1 X-145.999 Y-87.999
G3 X-144.001 Y-86.001 I0.999 J0.999
G1 X-150.026 Y-79.977
X-156.001 Y-74.001
X-156.105 Y-73.908
G3 X-157.999 Y-75.999 Z-1.75 I-0.895 J-1.092 F333.3
G1 X-154.962 Y-79.035 Z-1.9
X-145.999 Y-87.999 F1000
G3 X-144.001 Y-86.001 I0.999 J0.999
G1 X-156.001 Y-74.001
G3 X-157.999 Y-75.999 I-0.999 J-0.999
G1 X-154.962 Y-79.035
X-148.888 Y-85.11 Z-2.2 F333.3
X-145.999 Y-87.999 F1000
G3 X-144.001 Y-86.001 I0.999 J0.999
G1 X-156.001 Y-74.001
G3 X-157.999 Y-75.999 I-0.999 J-0.999
G1 X-148.888 Y-85.11
G0 Z10
X-135.13 Y-110.692
Z5.2
G1 Z2.7 F333.3
X-135.036 Y-110.486 Z2.692
X-134.838 Y-109.989 Z2.673
X-134.645 Y-109.44 Z2.653
X-134.46 Y-108.837 Z2.631
X-134.285 Y-108.181 Z2.607
X-134.123 Y-107.468 Z2.582
X-133.976 Y-106.696 Z2.554
X-133.847 Y-105.861 Z2.525
X-133.738 Y-104.967 Z2.493
X-133.657 Y-104.014 Z2.46
X-133.605 Y-103.009 Z2.425
X-133.588 Y-101.97 Z2.389
X-133.608 Y-100.92 Z2.352
X-133.664 Y-99.891 Z2.316
X-133.752 Y-98.908 Z2.281
X-133.868 Y-97.987 Z2.249
X-134.006 Y-97.132 Z2.219
X-134.164 Y-96.344 Z2.191
X-134.336 Y-95.62 Z2.165
X-134.519 Y-94.961 Z2.141
X-134.712 Y-94.361 Z2.119
X-134.912 Y-93.818 Z2.099
X-135.117 Y-93.33 Z2.08
X-135.324 Y-92.895 Z2.063
X-135.532 Y-92.513 Z2.048
X-135.736 Y-92.182 Z2.035
X-135.934 Y-91.902 Z2.023
X-136.126 Y-91.668 Z2.012
X-136.305 Y-91.48 Z2.003
X-136.468 Y-91.337 Z1.995
X-136.611 Y-91.234 Z1.989
X-136.732 Y-91.165 Z1.984
X-136.83 Y-91.123 Z1.981
X-136.908 Y-91.101 Z1.978
X-136.972 Y-91.092 Z1.976
X-137.03 Z1.974
X-137.094 Y-91.102 Z1.971
X-137.173 Y-91.124 Z1.968
X-137.271 Y-91.166 Z1.965
X-137.392 Y-91.236 Z1.96
X-137.535 Y-91.339 Z1.954
X-137.696 Y-91.481 Z1.946
X-137.873 Y-91.666 Z1.937
X-138.061 Y-91.896 Z1.927
X-138.259 Y-92.174 Z1.915
X-138.46 Y-92.498 Z1.902
X-138.663 Y-92.87 Z1.887
X-138.867 Y-93.293 Z1.87
X-139.067 Y-93.765 Z1.853
X-139.262 Y-94.287 Z1.833
X-139.451 Y-94.864 Z1.812
X-139.631 Y-95.494 Z1.789
X-139.8 Y-96.18 Z1.764
X-139.955 Y-96.924 Z1.738
X-140.093 Y-97.728 Z1.709
X-140.213 Y-98.593 Z1.679
X-140.307 Y-99.518 Z1.646
X-140.374 Y-100.5 Z1.612
X-140.408 Y-101.525 Z1.576
X-140.407 Y-102.573 Z1.54
X-140.368 Y-103.616 Z1.503
X-140.295 Y-104.623 Z1.468
X-140.192 Y-105.576 Z1.434
X-140.063 Y-106.463 Z1.403
X-139.914 Y-107.283 Z1.374
X-139.749 Y-108.038 Z1.347
X-139.571 Y-108.728 Z1.322
X-139.382 Y-109.357 Z1.299
X-139.185 Y-109.927 Z1.278
X-138.983 Y-110.441 Z1.259
X-138.776 Y-110.901 Z1.241
X-138.569 Y-111.308 Z1.225
X-138.363 Y-111.663 Z1.211
X-138.16 Y-111.97 Z1.198
X-137.965 Y-112.226 Z1.187
X-137.78 Y-112.435 Z1.177
X-137.608 Y-112.6 Z1.169
X-137.457 Y-112.721 Z1.162
X-137.325 Y-112.805 Z1.157
X-137.214 Y-112.86 Z1.152
X-137.127 Y-112.891 Z1.149
X-137.056 Y-112.905 Z1.146
X-137.004 Y-112.909 Z1.145
X-136.939 Y-112.904 Z1.142
X-136.868 Y-112.889 Z1.14
X-136.784 Y-112.86 Z1.137
X-136.675 Y-112.805 Z1.132
X-136.542 Y-112.719 Z1.127
X-136.39 Y-112.597 Z1.12
X-136.219 Y-112.434 Z1.112
X-136.036 Y-112.227 Z1.102
X-135.844 Y-111.976 Z1.091
X-135.645 Y-111.676 Z1.079
X-135.442 Y-111.328 Z1.065
X-135.238 Y-110.931 Z1.049
X-135.036 Y-110.486 Z1.032
X-134.838 Y-109.989 Z1.013
X-134.645 Y-109.44 Z0.993
X-134.46 Y-108.837 Z0.971
X-134.285 Y-108.181 Z0.947
X-134.123 Y-107.468 Z0.922
X-133.976 Y-106.696 Z0.894
X-133.847 Y-105.861 Z0.865
X-133.738 Y-104.967 Z0.833
X-133.657 Y-104.014 Z0.8
X-133.605 Y-103.009 Z0.765
X-133.588 Y-101.97 Z0.728
X-133.608 Y-100.92 Z0.692
X-133.664 Y-99.891 Z0.656
X-133.752 Y-98.908 Z0.621
X-133.868 Y-97.987 Z0.589
X-134.006 Y-97.132 Z0.559
X-134.164 Y-96.344 Z0.531
X-134.336 Y-95.62 Z0.505
X-134.519 Y-94.961 Z0.481
X-134.712 Y-94.361 Z0.459
X-134.912 Y-93.818 Z0.438
X-135.117 Y-93.33 Z0.42
X-135.324 Y-92.895 Z0.403
X-135.532 Y-92.513 Z0.388
X-135.736 Y-92.182 Z0.374
X-135.934 Y-91.902 Z0.362
X-136.126 Y-91.668 Z0.352
X-136.305 Y-91.48 Z0.343
X-136.468 Y-91.337 Z0.335
X-136.611 Y-91.234 Z0.329
X-136.732 Y-91.165 Z0.324
X-136.83 Y-91.123 Z0.32
X-136.908 Y-91.101 Z0.318
X-136.972 Y-91.092 Z0.315
X-137.03 Z0.313
X-137.094 Y-91.102 Z0.311
X-137.173 Y-91.124 Z0.308
X-137.271 Y-91.166 Z0.304
X-137.392 Y-91.236 Z0.3
X-137.535 Y-91.339 Z0.293
X-137.696 Y-91.481 Z0.286
X-137.873 Y-91.666 Z0.277
X-138.061 Y-91.896 Z0.267
X-138.259 Y-92.174 Z0.255
X-138.46 Y-92.498 Z0.241
X-138.663 Y-92.87 Z0.227
X-138.867 Y-93.293 Z0.21
X-139.067 Y-93.765 Z0.192
X-139.262 Y-94.287 Z0.173
X-139.451 Y-94.864 Z0.152
X-139.631 Y-95.494 Z0.129
X-139.8 Y-96.18 Z0.104
X-139.955 Y-96.924 Z0.078
X-140.093 Y-97.728 Z0.049
X-140.213 Y-98.593 Z0.019
X-140.307 Y-99.518 Z-0.014
X-140.374 Y-100.5 Z-0.048
X-140.408 Y-101.525 Z-0.084
Y-101.981 Z-0.1
X-140.407 Y-102.573 F1000
X-140.368 Y-103.616
X-140.295 Y-104.623
X-140.192 Y-105.576
X-140.063 Y-106.463
X-139.914 Y-107.283
X-139.749 Y-108.038
X-139.571 Y-108.728
X-139.382 Y-109.357
X-139.185 Y-109.927
X-138.983 Y-110.441
X-138.776 Y-110.901
X-138.569 Y-111.308
X-138.363 Y-111.663
X-138.16 Y-111.97
X-137.965 Y-112.226
X-137.78 Y-112.435
X-137.608 Y-112.6
X-137.457 Y-112.721
X-137.325 Y-112.805
X-137.214 Y-112.86
X-137.127 Y-112.891
X-137.056 Y-112.905
X-137.004 Y-112.909
X-136.939 Y-112.904
X-136.868 Y-112.889
X-136.784 Y-112.86
X-136.675 Y-112.805
X-136.542 Y-112.719
X-136.39 Y-112.597
X-136.219 Y-112.434
X-136.036 Y-112.227
X-135.844 Y-111.976
X-135.645 Y-111.676
X-135.442 Y-111.328
X-135.238 Y-110.931
X-135.036 Y-110.486
X-134.838 Y-109.989
X-134.645 Y-109.44
X-134.46 Y-108.837
X-134.285 Y-108.181
X-134.123 Y-107.468
X-133.976 Y-106.696
X-133.847 Y-105.861
X-133.738 Y-104.967
X-133.657 Y-104.014
X-133.605 Y-103.009
X-133.588 Y-101.97
X-133.608 Y-100.92
X-133.664 Y-99.891
X-133.752 Y-98.908
X-133.868 Y-97.987
X-134.006 Y-97.132
X-134.164 Y-96.344
X-134.336 Y-95.62
X-134.519 Y-94.961
X-134.712 Y-94.361
X-134.912 Y-93.818
X-135.117 Y-93.33
X-135.324 Y-92.895
X-135.532 Y-92.513
X-135.736 Y-92.182
X-135.934 Y-91.902
X-136.126 Y-91.668
X-136.305 Y-91.48
X-136.468 Y-91.337
X-136.611 Y-91.234
X-136.732 Y-91.165
X-136.83 Y-91.123
X-136.908 Y-91.101
X-136.972 Y-91.092
X-137.03
X-137.094 Y-91.102
X-137.173 Y-91.124
X-137.271 Y-91.166
X-137.392 Y-91.236
X-137.535 Y-91.339
X-137.696 Y-91.481
X-137.873 Y-91.666
X-138.061 Y-91.896
X-138.259 Y-92.174
X-138.46 Y-92.498
X-138.663 Y-92.87
X-138.867 Y-93.293
X-139.067 Y-93.765
X-139.262 Y-94.287
X-139.451 Y-94.864
X-139.631 Y-95.494
X-139.8 Y-96.18
X-139.955 Y-96.924
X-140.093 Y-97.728
X-140.213 Y-98.593
X-140.307 Y-99.518
X-140.374 Y-100.5
X-140.408 Y-101.525
Y-101.981
X-140.407 Y-102.573 Z-0.121 F333.3
X-140.368 Y-103.616 Z-0.157
X-140.295 Y-104.623 Z-0.192
X-140.192 Y-105.576 Z-0.226
X-140.063 Y-106.463 Z-0.257
X-139.914 Y-107.283 Z-0.286
X-139.749 Y-108.038 Z-0.313
X-139.571 Y-108.728 Z-0.338
X-139.382 Y-109.357 Z-0.361
X-139.185 Y-109.927 Z-0.382
X-138.997 Y-110.403 Z-0.4
X-138.983 Y-110.441 F1000
X-138.776 Y-110.901
X-138.569 Y-111.308
X-138.363 Y-111.663
X-138.16 Y-111.97
X-137.965 Y-112.226
X-137.78 Y-112.435
X-137.608 Y-112.6
X-137.457 Y-112.721
X-137.325 Y-112.805
X-137.214 Y-112.86
X-137.127 Y-112.891
X-137.056 Y-112.905
X-137.004 Y-112.909
X-136.939 Y-112.904
X-136.868 Y-112.889
X-136.784 Y-112.86
X-136.675 Y-112.805
X-136.542 Y-112.719
X-136.39 Y-112.597
X-136.219 Y-112.434
X-136.036 Y-112.227
X-135.844 Y-111.976
X-135.645 Y-111.676
X-135.442 Y-111.328
X-135.238 Y-110.931
X-135.036 Y-110.486
X-134.838 Y-109.989
X-134.645 Y-109.44
X-134.46 Y-108.837
X-134.285 Y-108.181
X-134.123 Y-107.468
X-133.976 Y-106.696
X-133.847 Y-105.861
X-133.738 Y-104.967
X-133.657 Y-104.014
X-133.605 Y-103.009
X-133.588 Y-101.97
X-133.608 Y-100.92
X-133.664 Y-99.891
X-133.752 Y-98.908
X-133.868 Y-97.987
X-134.006 Y-97.132
X-134.164 Y-96.344
X-134.336 Y-95.62
X-134.519 Y-94.961
X-134.712 Y-94.361
X-134.912 Y-93.818
X-135.117 Y-93.33
X-135.324 Y-92.895
X-135.532 Y-92.513
X-135.736 Y-92.182
X-135.934 Y-91.902
X-136.126 Y-91.668
X-136.305 Y-91.48
X-136.468 Y-91.337
X-136.611 Y-91.234
X-136.732 Y-91.165
X-136.83 Y-91.123
X-136.908 Y-91.101
X-136.972 Y-91.092
X-137.03
X-137.094 Y-91.102
X-137.173 Y-91.124
X-137.271 Y-91.166
X-137.392 Y-91.236
X-137.535 Y-91.339
X-137.696 Y-91.481
X-137.873 Y-91.666
X-138.061 Y-91.896
X-138.259 Y-92.174
X-138.46 Y-92.498
X-138.663 Y-92.87
X-138.867 Y-93.293
X-139.067 Y-93.765
X-139.262 Y-94.287
X-139.451 Y-94.864
X-139.631 Y-95.494
X-139.8 Y-96.18
X-139.955 Y-96.924
X-140.093 Y-97.728
X-140.213 Y-98.593
X-140.307 Y-99.518
X-140.374 Y-100.5
X-140.408 Y-101.525
X-140.407 Y-102.573
X-140.368 Y-103.616
X-140.295 Y-104.623
X-140.192 Y-105.576
X-140.063 Y-106.463
X-139.914 Y-107.283
X-139.749 Y-108.038
X-139.571 Y-108.728
X-139.382 Y-109.357
X-139.185 Y-109.927
X-138.997 Y-110.403
X-138.983 Y-110.441 Z-0.401 F333.3
X-138.776 Y-110.901 Z-0.419
X-138.569 Y-111.308 Z-0.435
X-138.363 Y-111.663 Z-0.449
X-138.16 Y-111.97 Z-0.462
X-137.965 Y-112.226 Z-0.473
X-137.78 Y-112.435 Z-0.483
X-137.608 Y-112.6 Z-0.491
X-137.457 Y-112.721 Z-0.498
X-137.325 Y-112.805 Z-0.504
X-137.214 Y-112.86 Z-0.508
X-137.127 Y-112.891 Z-0.511
X-137.056 Y-112.905 Z-0.514
X-137.004 Y-112.909 Z-0.516
X-136.939 Y-112.904 Z-0.518
X-136.868 Y-112.889 Z-0.52
X-136.784 Y-112.86 Z-0.524
X-136.675 Y-112.805 Z-0.528
X-136.542 Y-112.719 Z-0.533
X-136.39 Y-112.597 Z-0.54
X-136.219 Y-112.434 Z-0.548
X-136.036 Y-112.227 Z-0.558
X-135.844 Y-111.976 Z-0.569
X-135.645 Y-111.676 Z-0.582
X-135.442 Y-111.328 Z-0.596
X-135.238 Y-110.931 Z-0.611
X-135.036 Y-110.486 Z-0.628
X-134.838 Y-109.989 Z-0.647
X-134.645 Y-109.44 Z-0.667
X-134.46 Y-108.837 Z-0.689
X-134.382 Y-108.543 Z-0.7
X-134.285 Y-108.181 F1000
X-134.123 Y-107.468
X-133.976 Y-106.696
X-133.847 Y-105.861
X-133.738 Y-104.967
X-133.657 Y-104.014
X-133.605 Y-103.009
X-133.588 Y-101.97
X-133.608 Y-100.92
X-133.664 Y-99.891
X-133.752 Y-98.908
X-133.868 Y-97.987
X-134.006 Y-97.132
X-134.164 Y-96.344
X-134.336 Y-95.62
X-134.519 Y-94.961
X-134.712 Y-94.361
X-134.912 Y-93.818
X-135.117 Y-93.33
X-135.324 Y-92.895
X-135.532 Y-92.513
X-135.736 Y-92.182
X-135.934 Y-91.902
X-136.126 Y-91.668
X-136.305 Y-91.48
X-136.468 Y-91.337
X-136.611 Y-91.234
X-136.732 Y-91.165
X-136.83 Y-91.123
X-136.908 Y-91.101
X-136.972 Y-91.092
X-137.03
X-137.094 Y-91.102
X-137.173 Y-91.124
X-137.271 Y-91.166
X-137.392 Y-91.236
X-137.535 Y-91.339
X-137.696 Y-91.481
X-137.873 Y-91.666
X-138.061 Y-91.896
X-138.259 Y-92.174
X-138.46 Y-92.498
X-138.663 Y-92.87
X-138.867 Y-93.293
X-139.067 Y-93.765
X-139.262 Y-94.287
X-139.451 Y-94.864
X-139.631 Y-95.494
X-139.8 Y-96.18
X-139.955 Y-96.924
X-140.093 Y-97.728
X-140.213 Y-98.593
X-140.307 Y-99.518
X-140.374 Y-100.5
X-140.408 Y-101.525
X-140.407 Y-102.573
X-140.368 Y-103.616
X-140.295 Y-104.623
X-140.192 Y-105.576
X-140.063 Y-106.463
X-139.914 Y-107.283
X-139.749 Y-108.038
X-139.571 Y-108.728
X-139.382 Y-109.357
X-139.185 Y-109.927
X-138.997 Y-110.403
X-138.983 Y-110.441
X-138.776 Y-110.901
X-138.569 Y-111.308
X-138.363 Y-111.663
X-138.16 Y-111.97
X-137.965 Y-112.226
X-137.78 Y-112.435
X-137.608 Y-112.6
X-137.457 Y-112.721
X-137.325 Y-112.805
X-137.214 Y-112.86
X-137.127 Y-112.891
X-137.056 Y-112.905
X-137.004 Y-112.909
X-136.939 Y-112.904
X-136.868 Y-112.889
X-136.784 Y-112.86
X-136.675 Y-112.805
X-136.542 Y-112.719
X-136.39 Y-112.597
X-136.219 Y-112.434
X-136.036 Y-112.227
X-135.844 Y-111.976
X-135.645 Y-111.676
X-135.442 Y-111.328
X-135.238 Y-110.931
X-135.036 Y-110.486
X-134.838 Y-109.989
X-134.645 Y-109.44
X-134.46 Y-108.837
X-134.382 Y-108.543
X-134.285 Y-108.181 Z-0.713 F333.3
X-134.123 Y-107.468 Z-0.739
X-133.976 Y-106.696 Z-0.766
X-133.847 Y-105.861 Z-0.796
X-133.738 Y-104.967 Z-0.827
X-133.657 Y-104.014 Z-0.86
X-133.605 Y-103.009 Z-0.896
X-133.588 Y-101.97 Z-0.932
X-133.608 Y-100.92 Z-0.969
X-133.657 Y-100.02 Z-1
X-133.664 Y-99.891 F1000
X-133.752 Y-98.908
X-133.868 Y-97.987
X-134.006 Y-97.132
X-134.164 Y-96.344
X-134.336 Y-95.62
X-134.519 Y-94.961
X-134.712 Y-94.361
X-134.912 Y-93.818
X-135.117 Y-93.33
X-135.324 Y-92.895
X-135.532 Y-92.513
X-135.736 Y-92.182
X-135.934 Y-91.902
X-136.126 Y-91.668
X-136.305 Y-91.48
X-136.468 Y-91.337
X-136.611 Y-91.234
X-136.732 Y-91.165
X-136.83 Y-91.123
X-136.908 Y-91.101
X-136.972 Y-91.092
X-137.03
X-137.094 Y-91.102
X-137.173 Y-91.124
X-137.271 Y-91.166
X-137.392 Y-91.236
X-137.535 Y-91.339
X-137.696 Y-91.481
X-137.873 Y-91.666
X-138.061 Y-91.896
X-138.259 Y-92.174
X-138.46 Y-92.498
X-138.663 Y-92.87
X-138.867 Y-93.293
X-139.067 Y-93.765
X-139.262 Y-94.287
X-139.451 Y-94.864
X-139.631 Y-95.494
X-139.8 Y-96.18
X-139.955 Y-96.924
X-140.093 Y-97.728
X-140.213 Y-98.593
X-140.307 Y-99.518
X-140.374 Y-100.5
X-140.408 Y-101.525
X-140.407 Y-102.573
X-140.368 Y-103.616
X-140.295 Y-104.623
X-140.192 Y-105.576
X-140.063 Y-106.463
X-139.914 Y-107.283
X-139.749 Y-108.038
X-139.571 Y-108.728
X-139.382 Y-109.357
X-139.185 Y-109.927
X-138.983 Y-110.441
X-138.776 Y-110.901
X-138.569 Y-111.308
X-138.363 Y-111.663
X-138.16 Y-111.97
X-137.965 Y-112.226
X-137.78 Y-112.435
X-137.608 Y-112.6
X-137.457 Y-112.721
X-137.325 Y-112.805
X-137.214 Y-112.86
X-137.127 Y-112.891
X-137.056 Y-112.905
X-137.004 Y-112.909
X-136.939 Y-112.904
X-136.868 Y-112.889
X-136.784 Y-112.86
X-136.675 Y-112.805
X-136.542 Y-112.719
X-136.39 Y-112.597
X-136.219 Y-112.434
X-136.036 Y-112.227
X-135.844 Y-111.976
X-135.645 Y-111.676
X-135.442 Y-111.328
X-135.238 Y-110.931
X-135.036 Y-110.486
X-134.838 Y-109.989
X-134.645 Y-109.44
X-134.46 Y-108.837
X-134.285 Y-108.181
X-134.123 Y-107.468
X-133.976 Y-106.696
X-133.847 Y-105.861
X-133.738 Y-104.967
X-133.657 Y-104.014
X-133.605 Y-103.009
X-133.588 Y-101.97
X-133.608 Y-100.92
X-133.657 Y-100.02
X-133.664 Y-99.891 Z-1.004 F333.3
X-133.752 Y-98.908 Z-1.039
X-133.868 Y-97.987 Z-1.071
X-134.006 Y-97.132 Z-1.102
X-134.164 Y-96.344 Z-1.13
X-134.336 Y-95.62 Z-1.156
X-134.519 Y-94.961 Z-1.18
X-134.712 Y-94.361 Z-1.202
X-134.912 Y-93.818 Z-1.222
X-135.117 Y-93.33 Z-1.24
X-135.324 Y-92.895 Z-1.257
X-135.532 Y-92.513 Z-1.272
X-135.736 Y-92.182 Z-1.286
X-135.934 Y-91.902 Z-1.298
X-135.974 Y-91.854 Z-1.3
X-136.126 Y-91.668 F1000
X-136.305 Y-91.48
X-136.468 Y-91.337
X-136.611 Y-91.234
X-136.732 Y-91.165
X-136.83 Y-91.123
X-136.908 Y-91.101
X-136.972 Y-91.092
X-137.03
X-137.094 Y-91.102
X-137.173 Y-91.124
X-137.271 Y-91.166
X-137.392 Y-91.236
X-137.535 Y-91.339
X-137.696 Y-91.481
X-137.873 Y-91.666
X-138.061 Y-91.896
X-138.259 Y-92.174
X-138.46 Y-92.498
X-138.663 Y-92.87
X-138.867 Y-93.293
X-139.067 Y-93.765
X-139.262 Y-94.287
X-139.451 Y-94.864
X-139.631 Y-95.494
X-139.8 Y-96.18
X-139.955 Y-96.924
X-140.093 Y-97.728
X-140.213 Y-98.593
X-140.307 Y-99.518
X-140.374 Y-100.5
X-140.408 Y-101.525
X-140.407 Y-102.573
X-140.368 Y-103.616
X-140.295 Y-104.623
X-140.192 Y-105.576
X-140.063 Y-106.463
X-139.914 Y-107.283
X-139.749 Y-108.038
X-139.571 Y-108.728
X-139.382 Y-109.357
X-139.185 Y-109.927
X-138.983 Y-110.441
X-138.776 Y-110.901
X-138.569 Y-111.308
X-138.363 Y-111.663
X-138.16 Y-111.97
X-137.965 Y-112.226
X-137.78 Y-112.435
X-137.608 Y-112.6
X-137.457 Y-112.721
X-137.325 Y-112.805
X-137.214 Y-112.86
X-137.127 Y-112.891
X-137.056 Y-112.905
X-137.004 Y-112.909
X-136.939 Y-112.904
X-136.868 Y-112.889
X-136.784 Y-112.86
X-136.675 Y-112.805
X-136.542 Y-112.719
X-136.39 Y-112.597
X-136.219 Y-112.434
X-136.036 Y-112.227
X-135.844 Y-111.976
X-135.645 Y-111.676
X-135.442 Y-111.328
X-135.238 Y-110.931
X-135.036 Y-110.486
X-134.838 Y-109.989
X-134.645 Y-109.44
X-134.46 Y-108.837
X-134.285 Y-108.181
X-134.123 Y-107.468
X-133.976 Y-106.696
X-133.847 Y-105.861
X-133.738 Y-104.967
X-133.657 Y-104.014
X-133.605 Y-103.009
X-133.588 Y-101.97
X-133.608 Y-100.92
X-133.657 Y-100.02
X-133.664 Y-99.891
X-133.752 Y-98.908
X-133.868 Y-97.987
X-134.006 Y-97.132
X-134.164 Y-96.344
X-134.336 Y-95.62
X-134.519 Y-94.961
X-134.712 Y-94.361
X-134.912 Y-93.818
X-135.117 Y-93.33
X-135.324 Y-92.895
X-135.532 Y-92.513
X-135.736 Y-92.182
X-135.934 Y-91.902
X-135.974 Y-91.854
X-136.126 Y-91.668 Z-1.308 F333.3
X-136.305 Y-91.48 Z-1.317
X-136.468 Y-91.337 Z-1.325
X-136.611 Y-91.234 Z-1.331
X-136.732 Y-91.165 Z-1.336
X-136.83 Y-91.123 Z-1.34
X-136.908 Y-91.101 Z-1.343
X-136.972 Y-91.092 Z-1.345
X-137.03 Z-1.347
X-137.094 Y-91.102 Z-1.349
X-137.173 Y-91.124 Z-1.352
X-137.271 Y-91.166 Z-1.356
X-137.392 Y-91.236 Z-1.361
X-137.535 Y-91.339 Z-1.367
X-137.696 Y-91.481 Z-1.374
X-137.873 Y-91.666 Z-1.383
X-138.061 Y-91.896 Z-1.394
X-138.259 Y-92.174 Z-1.406
X-138.46 Y-92.498 Z-1.419
X-138.663 Y-92.87 Z-1.434
X-138.867 Y-93.293 Z-1.45
X-139.067 Y-93.765 Z-1.468
X-139.262 Y-94.287 Z-1.487
X-139.451 Y-94.864 Z-1.509
X-139.631 Y-95.494 Z-1.531
X-139.8 Y-96.18 Z-1.556
X-139.955 Y-96.924 Z-1.583
X-140.039 Y-97.413 Z-1.6
X-140.093 Y-97.728 F1000
X-140.213 Y-98.593
X-140.307 Y-99.518
X-140.374 Y-100.5
X-140.408 Y-101.525
X-140.407 Y-102.573
X-140.368 Y-103.616
X-140.295 Y-104.623
X-140.192 Y-105.576
X-140.063 Y-106.463
X-139.914 Y-107.283
X-139.749 Y-108.038
X-139.571 Y-108.728
X-139.382 Y-109.357
X-139.185 Y-109.927
X-138.983 Y-110.441
X-138.776 Y-110.901
X-138.569 Y-111.308
X-138.363 Y-111.663
X-138.16 Y-111.97
X-137.965 Y-112.226
X-137.78 Y-112.435
X-137.608 Y-112.6
X-137.457 Y-112.721
X-137.325 Y-112.805
X-137.214 Y-112.86
X-137.127 Y-112.891
X-137.056 Y-112.905
X-137.004 Y-112.909
X-136.939 Y-112.904
X-136.868 Y-112.889
X-136.784 Y-112.86
X-136.675 Y-112.805
X-136.542 Y-112.719
X-136.39 Y-112.597
X-136.219 Y-112.434
X-136.036 Y-112.227
X-135.844 Y-111.976
X-135.645 Y-111.676
X-135.442 Y-111.328
X-135.238 Y-110.931
X-135.036 Y-110.486
X-134.838 Y-109.989
X-134.645 Y-109.44
X-134.46 Y-108.837
X-134.285 Y-108.181
X-134.123 Y-107.468
X-133.976 Y-106.696
X-133.847 Y-105.861
X-133.738 Y-104.967
X-133.657 Y-104.014
X-133.605 Y-103.009
X-133.588 Y-101.97
X-133.608 Y-100.92
X-133.664 Y-99.891
X-133.752 Y-98.908
X-133.868 Y-97.987
X-134.006 Y-97.132
X-134.164 Y-96.344
X-134.336 Y-95.62
X-134.519 Y-94.961
X-134.712 Y-94.361
X-134.912 Y-93.818
X-135.117 Y-93.33
X-135.324 Y-92.895
X-135.532 Y-92.513
X-135.736 Y-92.182
X-135.934 Y-91.902
X-136.126 Y-91.668
X-136.305 Y-91.48
X-136.468 Y-91.337
X-136.611 Y-91.234
X-136.732 Y-91.165
X-136.83 Y-91.123
X-136.908 Y-91.101
X-136.972 Y-91.092
X-137.03
X-137.094 Y-91.102
X-137.173 Y-91.124
X-137.271 Y-91.166
X-137.392 Y-91.236
X-137.535 Y-91.339
X-137.696 Y-91.481
X-137.873 Y-91.666
X-138.061 Y-91.896
X-138.259 Y-92.174
X-138.46 Y-92.498
X-138.663 Y-92.87
X-138.867 Y-93.293
X-139.067 Y-93.765
X-139.262 Y-94.287
X-139.451 Y-94.864
X-139.631 Y-95.494
X-139.8 Y-96.18
X-139.955 Y-96.924
X-140.039 Y-97.413
X-140.093 Y-97.728 Z-1.611 F333.3
X-140.213 Y-98.593 Z-1.642
X-140.307 Y-99.518 Z-1.674
X-140.374 Y-100.5 Z-1.708
X-140.408 Y-101.525 Z-1.744
X-140.407 Y-102.573 Z-1.781
X-140.368 Y-103.616 Z-1.817
X-140.295 Y-104.623 Z-1.853
X-140.192 Y-105.576 Z-1.886
X-140.135 Y-105.97 Z-1.9
X-140.063 Y-106.463 F1000
X-139.914 Y-107.283
X-139.749 Y-108.038
X-139.571 Y-108.728
X-139.382 Y-109.357
X-139.185 Y-109.927
X-138.983 Y-110.441
X-138.776 Y-110.901
X-138.569 Y-111.308
X-138.363 Y-111.663
X-138.16 Y-111.97
X-137.965 Y-112.226
X-137.78 Y-112.435
X-137.608 Y-112.6
X-137.457 Y-112.721
X-137.325 Y-112.805
X-137.214 Y-112.86
X-137.127 Y-112.891
X-137.056 Y-112.905
X-137.004 Y-112.909
X-136.939 Y-112.904
X-136.868 Y-112.889
X-136.784 Y-112.86
X-136.675 Y-112.805
X-136.542 Y-112.719
X-136.39 Y-112.597
X-136.219 Y-112.434
X-136.036 Y-112.227
X-135.844 Y-111.976
X-135.645 Y-111.676
X-135.442 Y-111.328
X-135.238 Y-110.931
X-135.036 Y-110.486
X-134.838 Y-109.989
X-134.645 Y-109.44
X-134.46 Y-108.837
X-134.285 Y-108.181
X-134.123 Y-107.468
X-133.976 Y-106.696
X-133.847 Y-105.861
X-133.738 Y-104.967
X-133.657 Y-104.014
X-133.605 Y-103.009
X-133.588 Y-101.97
X-133.608 Y-100.92
X-133.664 Y-99.891
X-133.752 Y-98.908
X-133.868 Y-97.987
X-134.006 Y-97.132
X-134.164 Y-96.344
X-134.336 Y-95.62
X-134.519 Y-94.961
X-134.712 Y-94.361
X-134.912 Y-93.818
X-135.117 Y-93.33
X-135.324 Y-92.895
X-135.532 Y-92.513
X-135.736 Y-92.182
X-135.934 Y-91.902
X-136.126 Y-91.668
X-136.305 Y-91.48
X-136.468 Y-91.337
X-136.611 Y-91.234
X-136.732 Y-91.165
X-136.83 Y-91.123
X-136.908 Y-91.101
X-136.972 Y-91.092
X-137.03
X-137.094 Y-91.102
X-137.173 Y-91.124
X-137.271 Y-91.166
X-137.392 Y-91.236
X-137.535 Y-91.339
X-137.696 Y-91.481
X-137.873 Y-91.666
X-138.061 Y-91.896
X-138.259 Y-92.174
X-138.46 Y-92.498
X-138.663 Y-92.87
X-138.867 Y-93.293
X-139.067 Y-93.765
X-139.262 Y-94.287
X-139.451 Y-94.864
X-139.631 Y-95.494
X-139.8 Y-96.18
X-139.955 Y-96.924
X-140.039 Y-97.413
X-140.093 Y-97.728
X-140.213 Y-98.593
X-140.307 Y-99.518
X-140.374 Y-100.5
X-140.408 Y-101.525
X-140.407 Y-102.573
X-140.368 Y-103.616
X-140.295 Y-104.623
X-140.192 Y-105.576
X-140.135 Y-105.97
X-140.063 Y-106.463 Z-1.917 F333.3
X-139.914 Y-107.283 Z-1.946
X-139.749 Y-108.038 Z-1.973
X-139.571 Y-108.728 Z-1.998
X-139.382 Y-109.357 Z-2.021
X-139.185 Y-109.927 Z-2.042
X-138.983 Y-110.441 Z-2.062
X-138.776 Y-110.901 Z-2.079
X-138.569 Y-111.308 Z-2.095
X-138.363 Y-111.663 Z-2.11
X-138.16 Y-111.97 Z-2.122
X-137.965 Y-112.226 Z-2.134
X-137.78 Y-112.435 Z-2.143
X-137.608 Y-112.6 Z-2.152
X-137.457 Y-112.721 Z-2.158
X-137.325 Y-112.805 Z-2.164
X-137.214 Y-112.86 Z-2.168
X-137.127 Y-112.891 Z-2.171
X-137.056 Y-112.905 Z-2.174
X-137.004 Y-112.909 Z-2.176
X-136.939 Y-112.904 Z-2.178
X-136.868 Y-112.889 Z-2.181
X-136.784 Y-112.86 Z-2.184
X-136.675 Y-112.805 Z-2.188
X-136.542 Y-112.719 Z-2.194
X-136.397 Y-112.603 Z-2.2
X-136.39 Y-112.597 F1000
X-136.219 Y-112.434
X-136.036 Y-112.227
X-135.844 Y-111.976
X-135.645 Y-111.676
X-135.442 Y-111.328
X-135.238 Y-110.931
X-135.036 Y-110.486
X-134.838 Y-109.989
X-134.645 Y-109.44
X-134.46 Y-108.837
X-134.285 Y-108.181
X-134.123 Y-107.468
X-133.976 Y-106.696
X-133.847 Y-105.861
X-133.738 Y-104.967
X-133.657 Y-104.014
X-133.605 Y-103.009
X-133.588 Y-101.97
X-133.608 Y-100.92
X-133.664 Y-99.891
X-133.752 Y-98.908
X-133.868 Y-97.987
X-134.006 Y-97.132
X-134.164 Y-96.344
X-134.336 Y-95.62
X-134.519 Y-94.961
X-134.712 Y-94.361
X-134.912 Y-93.818
X-135.117 Y-93.33
X-135.324 Y-92.895
X-135.532 Y-92.513
X-135.736 Y-92.182
X-135.934 Y-91.902
X-136.126 Y-91.668
X-136.305 Y-91.48
X-136.468 Y-91.337
X-136.611 Y-91.234
X-136.732 Y-91.165
X-136.83 Y-91.123
X-136.908 Y-91.101
X-136.972 Y-91.092
X-137.03
X-137.094 Y-91.102
X-137.173 Y-91.124
X-137.271 Y-91.166
X-137.392 Y-91.236
X-137.535 Y-91.339
X-137.696 Y-91.481
X-137.873 Y-91.666
X-138.061 Y-91.896
X-138.259 Y-92.174
X-138.46 Y-92.498
X-138.663 Y-92.87
X-138.867 Y-93.293
X-139.067 Y-93.765
X-139.262 Y-94.287
X-139.451 Y-94.864
X-139.631 Y-95.494
X-139.8 Y-96.18
X-139.955 Y-96.924
X-140.093 Y-97.728
X-140.213 Y-98.593
X-140.307 Y-99.518
X-140.374 Y-100.5
X-140.408 Y-101.525
X-140.407 Y-102.573
X-140.368 Y-103.616
X-140.295 Y-104.623
X-140.192 Y-105.576
X-140.063 Y-106.463
X-139.914 Y-107.283
X-139.749 Y-108.038
X-139.571 Y-108.728
X-139.382 Y-109.357
X-139.185 Y-109.927
X-138.983 Y-110.441
X-138.776 Y-110.901
X-138.569 Y-111.308
X-138.363 Y-111.663
X-138.16 Y-111.97
X-137.965 Y-112.226
X-137.78 Y-112.435
X-137.608 Y-112.6
X-137.457 Y-112.721
X-137.325 Y-112.805
X-137.214 Y-112.86
X-137.127 Y-112.891
X-137.056 Y-112.905
X-137.004 Y-112.909
X-136.939 Y-112.904
X-136.868 Y-112.889
X-136.784 Y-112.86
X-136.675 Y-112.805
X-136.542 Y-112.719
X-136.397 Y-112.603
G0 Z10
X-173.308 Y-98.13
Z5.2
G1 Z2.7 F333.3
X-173.514 Y-98.036 Z2.692
X-174.011 Y-97.838 Z2.673
X-174.56 Y-97.645 Z2.653
X-175.162 Y-97.461 Z2.631
X-175.819 Y-97.286 Z2.607
X-176.532 Y-97.123 Z2.582
X-177.305 Y-96.976 Z2.554
X-178.139 Y-96.846 Z2.525
X-179.033 Y-96.739 Z2.493
X-179.986 Y-96.657 Z2.46
X-180.991 Y-96.605 Z2.425
X-182.03 Y-96.588 Z2.389
X-183.08 Y-96.607 Z2.352
X-184.109 Y-96.663 Z2.316
X-185.091 Y-96.752 Z2.282
X-186.013 Y-96.868 Z2.249
X-186.869 Y-97.007 Z2.219
X-187.656 Y-97.164 Z2.191
X-188.379 Y-97.336 Z2.165
X-189.039 Y-97.519 Z2.141
X-189.64 Y-97.712 Z2.119
X-190.182 Y-97.912 Z2.099
X-190.67 Y-98.117 Z2.08
X-191.104 Y-98.324 Z2.063
X-191.486 Y-98.531 Z2.048
X-191.817 Y-98.736 Z2.035
X-192.099 Y-98.935 Z2.023
X-192.333 Y-99.126 Z2.012
X-192.52 Y-99.304 Z2.003
X-192.662 Y-99.467 Z1.995
X-192.766 Y-99.611 Z1.989
X-192.836 Y-99.733 Z1.984
X-192.877 Y-99.831 Z1.981
X-192.899 Y-99.906 Z1.978
X-192.908 Y-99.972 Z1.976
Y-100.032 Z1.973
X-192.899 Y-100.094 Z1.971
X-192.876 Y-100.174 Z1.968
X-192.834 Y-100.271 Z1.965
X-192.765 Y-100.391 Z1.96
X-192.661 Y-100.535 Z1.954
X-192.52 Y-100.696 Z1.946
X-192.334 Y-100.872 Z1.937
X-192.103 Y-101.062 Z1.927
X-191.826 Y-101.259 Z1.915
X-191.502 Y-101.46 Z1.902
X-191.13 Y-101.663 Z1.887
X-190.707 Y-101.867 Z1.87
X-190.235 Y-102.067 Z1.853
X-189.713 Y-102.262 Z1.833
X-189.135 Y-102.451 Z1.812
X-188.506 Y-102.631 Z1.789
X-187.819 Y-102.8 Z1.764
X-187.076 Y-102.955 Z1.738
X-186.272 Y-103.093 Z1.709
X-185.407 Y-103.213 Z1.679
X-184.482 Y-103.307 Z1.646
X-183.5 Y-103.374 Z1.612
X-182.475 Y-103.408 Z1.576
X-181.427 Y-103.407 Z1.54
X-180.384 Y-103.368 Z1.503
X-179.377 Y-103.295 Z1.468
X-178.424 Y-103.192 Z1.434
X-177.537 Y-103.063 Z1.403
X-176.717 Y-102.914 Z1.374
X-175.962 Y-102.749 Z1.347
X-175.272 Y-102.571 Z1.322
X-174.643 Y-102.382 Z1.299
X-174.073 Y-102.185 Z1.278
X-173.559 Y-101.983 Z1.259
X-173.099 Y-101.776 Z1.241
X-172.692 Y-101.569 Z1.225
X-172.337 Y-101.363 Z1.211
X-172.03 Y-101.16 Z1.198
X-171.774 Y-100.965 Z1.187
X-171.565 Y-100.78 Z1.177
X-171.4 Y-100.608 Z1.169
X-171.279 Y-100.457 Z1.162
X-171.195 Y-100.325 Z1.156
X-171.14 Y-100.214 Z1.152
X-171.109 Y-100.127 Z1.149
X-171.095 Y-100.056 Z1.146
X-171.091 Y-100.004 Z1.145
X-171.096 Y-99.939 Z1.142
X-171.111 Y-99.868 Z1.14
X-171.14 Y-99.784 Z1.137
X-171.195 Y-99.674 Z1.132
X-171.281 Y-99.542 Z1.127
X-171.403 Y-99.389 Z1.12
X-171.566 Y-99.22 Z1.112
X-171.772 Y-99.037 Z1.102
X-172.024 Y-98.844 Z1.091
X-172.324 Y-98.645 Z1.079
X-172.672 Y-98.442 Z1.065
X-173.069 Y-98.238 Z1.049
X-173.514 Y-98.036 Z1.032
X-174.011 Y-97.838 Z1.013
X-174.56 Y-97.645 Z0.993
X-175.162 Y-97.461 Z0.971
X-175.819 Y-97.286 Z0.947
X-176.532 Y-97.123 Z0.922
X-177.305 Y-96.976 Z0.894
X-178.139 Y-96.846 Z0.865
X-179.033 Y-96.739 Z0.833
X-179.986 Y-96.657 Z0.8
X-180.991 Y-96.605 Z0.765
X-182.03 Y-96.588 Z0.728
X-183.08 Y-96.607 Z0.692
X-184.109 Y-96.663 Z0.656
X-185.091 Y-96.752 Z0.621
X-186.013 Y-96.868 Z0.589
X-186.869 Y-97.007 Z0.559
X-187.656 Y-97.164 Z0.531
X-188.379 Y-97.336 Z0.505
X-189.039 Y-97.519 Z0.481
X-189.64 Y-97.712 Z0.459
X-190.182 Y-97.912 Z0.438
X-190.67 Y-98.117 Z0.42
X-191.104 Y-98.324 Z0.403
X-191.486 Y-98.531 Z0.388
X-191.817 Y-98.736 Z0.374
X-192.099 Y-98.935 Z0.362
X-192.333 Y-99.126 Z0.352
X-192.52 Y-99.304 Z0.343
X-192.662 Y-99.467 Z0.335
X-192.766 Y-99.611 Z0.329
X-192.836 Y-99.733 Z0.324
X-192.877 Y-99.831 Z0.32
X-192.899 Y-99.906 Z0.318
X-192.908 Y-99.972 Z0.315
Y-100.032 Z0.313
X-192.899 Y-100.094 Z0.311
X-192.876 Y-100.174 Z0.308
X-192.834 Y-100.271 Z0.304
X-192.765 Y-100.391 Z0.3
X-192.661 Y-100.535 Z0.293
X-192.52 Y-100.696 Z0.286
X-192.334 Y-100.872 Z0.277
X-192.103 Y-101.062 Z0.267
X-191.826 Y-101.259 Z0.255
X-191.502 Y-101.46 Z0.241
X-191.13 Y-101.663 Z0.227
X-190.707 Y-101.867 Z0.21
X-190.235 Y-102.067 Z0.192
X-189.713 Y-102.262 Z0.173
X-189.135 Y-102.451 Z0.152
X-188.506 Y-102.631 Z0.129
X-187.819 Y-102.8 Z0.104
X-187.076 Y-102.955 Z0.078
X-186.272 Y-103.093 Z0.049
X-185.407 Y-103.213 Z0.019
X-184.482 Y-103.307 Z-0.014
X-183.5 Y-103.374 Z-0.048
X-182.475 Y-103.408 Z-0.084
X-182.02 Z-0.1
X-181.427 Y-103.407 F1000
X-180.384 Y-103.368
X-179.377 Y-103.295
X-178.424 Y-103.192
X-177.537 Y-103.063
X-176.717 Y-102.914
X-175.962 Y-102.749
X-175.272 Y-102.571
X-174.643 Y-102.382
X-174.073 Y-102.185
X-173.559 Y-101.983
X-173.099 Y-101.776
X-172.692 Y-101.569
X-172.337 Y-101.363
X-172.03 Y-101.16
X-171.774 Y-100.965
X-171.565 Y-100.78
X-171.4 Y-100.608
X-171.279 Y-100.457
X-171.195 Y-100.325
X-171.14 Y-100.214
X-171.109 Y-100.127
X-171.095 Y-100.056
X-171.091 Y-100.004
X-171.096 Y-99.939
X-171.111 Y-99.868
X-171.14 Y-99.784
X-171.195 Y-99.674
X-171.281 Y-99.542
X-171.403 Y-99.389
X-171.566 Y-99.22
X-171.772 Y-99.037
X-172.024 Y-98.844
X-172.324 Y-98.645
X-172.672 Y-98.442
X-173.069 Y-98.238
X-173.514 Y-98.036
X-174.011 Y-97.838
X-174.56 Y-97.645
X-175.162 Y-97.461
X-175.819 Y-97.286
X-176.532 Y-97.123
X-177.305 Y-96.976
X-178.139 Y-96.846
X-179.033 Y-96.739
X-179.986 Y-96.657
X-180.991 Y-96.605
X-182.03 Y-96.588
X-183.08 Y-96.607
X-184.109 Y-96.663
X-185.091 Y-96.752
X-186.013 Y-96.868
X-186.869 Y-97.007
X-187.656 Y-97.164
X-188.379 Y-97.336
X-189.039 Y-97.519
X-189.64 Y-97.712
X-190.182 Y-97.912
X-190.67 Y-98.117
X-191.104 Y-98.324
X-191.486 Y-98.531
X-191.817 Y-98.736
X-192.099 Y-98.935
X-192.333 Y-99.126
X-192.52 Y-99.304
X-192.662 Y-99.467
X-192.766 Y-99.611
X-192.836 Y-99.733
X-192.877 Y-99.831
X-192.899 Y-99.906
X-192.908 Y-99.972
Y-100.032
X-192.899 Y-100.094
X-192.876 Y-100.174
X-192.834 Y-100.271
X-192.765 Y-100.391
X-192.661 Y-100.535
X-192.52 Y-100.696
X-192.334 Y-100.872
X-192.103 Y-101.062
X-191.826 Y-101.259
X-191.502 Y-101.46
X-191.13 Y-101.663
X-190.707 Y-101.867
X-190.235 Y-102.067
X-189.713 Y-102.262
X-189.135 Y-102.451
X-188.506 Y-102.631
X-187.819 Y-102.8
X-187.076 Y-102.955
X-186.272 Y-103.093
X-185.407 Y-103.213
X-184.482 Y-103.307
X-183.5 Y-103.374
X-182.475 Y-103.408
X-182.02
X-181.427 Y-103.407 Z-0.121 F333.3
X-180.384 Y-103.368 Z-0.157
X-179.377 Y-103.295 Z-0.192
X-178.424 Y-103.192 Z-0.226
X-177.537 Y-103.063 Z-0.257
X-176.717 Y-102.914 Z-0.286
X-175.962 Y-102.749 Z-0.313
X-175.272 Y-102.571 Z-0.338
X-174.643 Y-102.382 Z-0.361
X-174.073 Y-102.185 Z-0.382
X-173.598 Y-101.998 Z-0.4
X-173.559 Y-101.983 F1000
X-173.099 Y-101.776
X-172.692 Y-101.569
X-172.337 Y-101.363
X-172.03 Y-101.16
X-171.774 Y-100.965
X-171.565 Y-100.78
X-171.4 Y-100.608
X-171.279 Y-100.457
X-171.195 Y-100.325
X-171.14 Y-100.214
X-171.109 Y-100.127
X-171.095 Y-100.056
X-171.091 Y-100.004
X-171.096 Y-99.939
X-171.111 Y-99.868
X-171.14 Y-99.784
X-171.195 Y-99.674
X-171.281 Y-99.542
X-171.403 Y-99.389
X-171.566 Y-99.22
X-171.772 Y-99.037
X-172.024 Y-98.844
X-172.324 Y-98.645
X-172.672 Y-98.442
X-173.069 Y-98.238
X-173.514 Y-98.036
X-174.011 Y-97.838
X-174.56 Y-97.645
X-175.162 Y-97.461
X-175.819 Y-97.286
X-176.532 Y-97.123
X-177.305 Y-96.976
X-178.139 Y-96.846
X-179.033 Y-96.739
X-179.986 Y-96.657
X-180.991 Y-96.605
X-182.03 Y-96.588
X-183.08 Y-96.607
X-184.109 Y-96.663
X-185.091 Y-96.752
X-186.013 Y-96.868
X-186.869 Y-97.007
X-187.656 Y-97.164
X-188.379 Y-97.336
X-189.039 Y-97.519
X-189.64 Y-97.712
X-190.182 Y-97.912
X-190.67 Y-98.117
X-191.104 Y-98.324
X-191.486 Y-98.531
X-191.817 Y-98.736
X-192.099 Y-98.935
X-192.333 Y-99.126
X-192.52 Y-99.304
X-192.662 Y-99.467
X-192.766 Y-99.611
X-192.836 Y-99.733
X-192.877 Y-99.831
X-192.899 Y-99.906
X-192.908 Y-99.972
Y-100.032
X-192.899 Y-100.094
X-192.876 Y-100.174
X-192.834 Y-100.271
X-192.765 Y-100.391
X-192.661 Y-100.535
X-192.52 Y-100.696
X-192.334 Y-100.872
X-192.103 Y-101.062
X-191.826 Y-101.259
X-191.502 Y-101.46
X-191.13 Y-101.663
X-190.707 Y-101.867
X-190.235 Y-102.067
X-189.713 Y-102.262
X-189.135 Y-102.451
X-188.506 Y-102.631
X-187.819 Y-102.8
X-187.076 Y-102.955
X-186.272 Y-103.093
X-185.407 Y-103.213
X-184.482 Y-103.307
X-183.5 Y-103.374
X-182.475 Y-103.408
X-181.427 Y-103.407
X-180.384 Y-103.368
X-179.377 Y-103.295
X-178.424 Y-103.192
X-177.537 Y-103.063
X-176.717 Y-102.914
X-175.962 Y-102.749
X-175.272 Y-102.571
X-174.643 Y-102.382
X-174.073 Y-102.185
X-173.598 Y-101.998
X-173.559 Y-101.983 Z-0.401 F333.3
X-173.099 Y-101.776 Z-0.419
X-172.692 Y-101.569 Z-0.435
X-172.337 Y-101.363 Z-0.449
X-172.03 Y-101.16 Z-0.462
X-171.774 Y-100.965 Z-0.473
X-171.565 Y-100.78 Z-0.483
X-171.4 Y-100.608 Z-0.492
X-171.279 Y-100.457 Z-0.498
X-171.195 Y-100.325 Z-0.504
X-171.14 Y-100.214 Z-0.508
X-171.109 Y-100.127 Z-0.511
X-171.095 Y-100.056 Z-0.514
X-171.091 Y-100.004 Z-0.516
X-171.096 Y-99.939 Z-0.518
X-171.111 Y-99.868 Z-0.52
X-171.14 Y-99.784 Z-0.524
X-171.195 Y-99.674 Z-0.528
X-171.281 Y-99.542 Z-0.533
X-171.403 Y-99.389 Z-0.54
X-171.566 Y-99.22 Z-0.548
X-171.772 Y-99.037 Z-0.558
X-172.024 Y-98.844 Z-0.569
X-172.324 Y-98.645 Z-0.582
X-172.672 Y-98.442 Z-0.596
X-173.069 Y-98.238 Z-0.611
X-173.514 Y-98.036 Z-0.628
X-174.011 Y-97.838 Z-0.647
X-174.56 Y-97.645 Z-0.667
X-175.162 Y-97.461 Z-0.689
X-175.457 Y-97.382 Z-0.7
X-175.819 Y-97.286 F1000
X-176.532 Y-97.123
X-177.305 Y-96.976
X-178.139 Y-96.846
X-179.033 Y-96.739
X-179.986 Y-96.657
X-180.991 Y-96.605
X-182.03 Y-96.588
X-183.08 Y-96.607
X-184.109 Y-96.663
X-185.091 Y-96.752
X-186.013 Y-96.868
X-186.869 Y-97.007
X-187.656 Y-97.164
X-188.379 Y-97.336
X-189.039 Y-97.519
X-189.64 Y-97.712
X-190.182 Y-97.912
X-190.67 Y-98.117
X-191.104 Y-98.324
X-191.486 Y-98.531
X-191.817 Y-98.736
X-192.099 Y-98.935
X-192.333 Y-99.126
X-192.52 Y-99.304
X-192.662 Y-99.467
X-192.766 Y-99.611
X-192.836 Y-99.733
X-192.877 Y-99.831
X-192.899 Y-99.906
X-192.908 Y-99.972
Y-100.032
X-192.899 Y-100.094
X-192.876 Y-100.174
X-192.834 Y-100.271
X-192.765 Y-100.391
X-192.661 Y-100.535
X-192.52 Y-100.696
X-192.334 Y-100.872
X-192.103 Y-101.062
X-191.826 Y-101.259
X-191.502 Y-101.46
X-191.13 Y-101.663
X-190.707 Y-101.867
X-190.235 Y-102.067
X-189.713 Y-102.262
X-189.135 Y-102.451
X-188.506 Y-102.631
X-187.819 Y-102.8
X-187.076 Y-102.955
X-186.272 Y-103.093
X-185.407 Y-103.213
X-184.482 Y-103.307
X-183.5 Y-103.374
X-182.475 Y-103.408
X-181.427 Y-103.407
X-180.384 Y-103.368
X-179.377 Y-103.295
X-178.424 Y-103.192
X-177.537 Y-103.063
X-176.717 Y-102.914
X-175.962 Y-102.749
X-175.272 Y-102.571
X-174.643 Y-102.382
X-174.073 Y-102.185
X-173.598 Y-101.998
X-173.559 Y-101.983
X-173.099 Y-101.776
X-172.692 Y-101.569
X-172.337 Y-101.363
X-172.03 Y-101.16
X-171.774 Y-100.965
X-171.565 Y-100.78
X-171.4 Y-100.608
X-171.279 Y-100.457
X-171.195 Y-100.325
X-171.14 Y-100.214
X-171.109 Y-100.127
X-171.095 Y-100.056
X-171.091 Y-100.004
X-171.096 Y-99.939
X-171.111 Y-99.868
X-171.14 Y-99.784
X-171.195 Y-99.674
X-171.281 Y-99.542
X-171.403 Y-99.389
X-171.566 Y-99.22
X-171.772 Y-99.037
X-172.024 Y-98.844
X-172.324 Y-98.645
X-172.672 Y-98.442
X-173.069 Y-98.238
X-173.514 Y-98.036
X-174.011 Y-97.838
X-174.56 Y-97.645
X-175.162 Y-97.461
X-175.457 Y-97.382
X-175.819 Y-97.286 Z-0.713 F333.3
X-176.532 Y-97.123 Z-0.739
X-177.305 Y-96.976 Z-0.766
X-178.139 Y-96.846 Z-0.796
X-179.033 Y-96.739 Z-0.827
X-179.986 Y-96.657 Z-0.86
X-180.991 Y-96.605 Z-0.896
X-182.03 Y-96.588 Z-0.932
X-183.08 Y-96.607 Z-0.969
X-183.98 Y-96.656 Z-1
X-184.109 Y-96.663 F1000
X-185.091 Y-96.752
X-186.013 Y-96.868
X-186.869 Y-97.007
X-187.656 Y-97.164
X-188.379 Y-97.336
X-189.039 Y-97.519
X-189.64 Y-97.712
X-190.182 Y-97.912
X-190.67 Y-98.117
X-191.104 Y-98.324
X-191.486 Y-98.531
X-191.817 Y-98.736
X-192.099 Y-98.935
X-192.333 Y-99.126
X-192.52 Y-99.304
X-192.662 Y-99.467
X-192.766 Y-99.611
X-192.836 Y-99.733
X-192.877 Y-99.831
X-192.899 Y-99.906
X-192.908 Y-99.972
Y-100.032
X-192.899 Y-100.094
X-192.876 Y-100.174
X-192.834 Y-100.271
X-192.765 Y-100.391
X-192.661 Y-100.535
X-192.52 Y-100.696
X-192.334 Y-100.872
X-192.103 Y-101.062
X-191.826 Y-101.259
X-191.502 Y-101.46
X-191.13 Y-101.663
X-190.707 Y-101.867
X-190.235 Y-102.067
X-189.713 Y-102.262
X-189.135 Y-102.451
X-188.506 Y-102.631
X-187.819 Y-102.8
X-187.076 Y-102.955
X-186.272 Y-103.093
X-185.407 Y-103.213
X-184.482 Y-103.307
X-183.5 Y-103.374
X-182.475 Y-103.408
X-181.427 Y-103.407
X-180.384 Y-103.368
X-179.377 Y-103.295
X-178.424 Y-103.192
X-177.537 Y-103.063
X-176.717 Y-102.914
X-175.962 Y-102.749
X-175.272 Y-102.571
X-174.643 Y-102.382
X-174.073 Y-102.185
X-173.559 Y-101.983
X-173.099 Y-101.776
X-172.692 Y-101.569
X-172.337 Y-101.363
X-172.03 Y-101.16
X-171.774 Y-100.965
X-171.565 Y-100.78
X-171.4 Y-100.608
X-171.279 Y-100.457
X-171.195 Y-100.325
X-171.14 Y-100.214
X-171.109 Y-100.127
X-171.095 Y-100.056
X-171.091 Y-100.004
X-171.096 Y-99.939
X-171.111 Y-99.868
X-171.14 Y-99.784
X-171.195 Y-99.674
X-171.281 Y-99.542
X-171.403 Y-99.389
X-171.566 Y-99.22
X-171.772 Y-99.037
X-172.024 Y-98.844
X-172.324 Y-98.645
X-172.672 Y-98.442
X-173.069 Y-98.238
X-173.514 Y-98.036
X-174.011 Y-97.838
X-174.56 Y-97.645
X-175.162 Y-97.461
X-175.819 Y-97.286
X-176.532 Y-97.123
X-177.305 Y-96.976
X-178.139 Y-96.846
X-179.033 Y-96.739
X-179.986 Y-96.657
X-180.991 Y-96.605
X-182.03 Y-96.588
X-183.08 Y-96.607
X-183.98 Y-96.656
X-184.109 Y-96.663 Z-1.005 F333.3
X-185.091 Y-96.752 Z-1.039
X-186.013 Y-96.868 Z-1.071
X-186.869 Y-97.007 Z-1.102
X-187.656 Y-97.164 Z-1.13
X-188.379 Y-97.336 Z-1.156
X-189.039 Y-97.519 Z-1.18
X-189.64 Y-97.712 Z-1.202
X-190.182 Y-97.912 Z-1.222
X-190.67 Y-98.117 Z-1.24
X-191.104 Y-98.324 Z-1.257
X-191.486 Y-98.531 Z-1.272
X-191.817 Y-98.736 Z-1.286
X-192.099 Y-98.935 Z-1.298
X-192.146 Y-98.973 Z-1.3
X-192.333 Y-99.126 F1000
X-192.52 Y-99.304
X-192.662 Y-99.467
X-192.766 Y-99.611
X-192.836 Y-99.733
X-192.877 Y-99.831
X-192.899 Y-99.906
X-192.908 Y-99.972
Y-100.032
X-192.899 Y-100.094
X-192.876 Y-100.174
X-192.834 Y-100.271
X-192.765 Y-100.391
X-192.661 Y-100.535
X-192.52 Y-100.696
X-192.334 Y-100.872
X-192.103 Y-101.062
X-191.826 Y-101.259
X-191.502 Y-101.46
X-191.13 Y-101.663
X-190.707 Y-101.867
X-190.235 Y-102.067
X-189.713 Y-102.262
X-189.135 Y-102.451
X-188.506 Y-102.631
X-187.819 Y-102.8
X-187.076 Y-102.955
X-186.272 Y-103.093
X-185.407 Y-103.213
X-184.482 Y-103.307
X-183.5 Y-103.374
X-182.475 Y-103.408
X-181.427 Y-103.407
X-180.384 Y-103.368
X-179.377 Y-103.295
X-178.424 Y-103.192
X-177.537 Y-103.063
X-176.717 Y-102.914
X-175.962 Y-102.749
X-175.272 Y-102.571
X-174.643 Y-102.382
X-174.073 Y-102.185
X-173.559 Y-101.983
X-173.099 Y-101.776
X-172.692 Y-101.569
X-172.337 Y-101.363
X-172.03 Y-101.16
X-171.774 Y-100.965
X-171.565 Y-100.78
X-171.4 Y-100.608
X-171.279 Y-100.457
X-171.195 Y-100.325
X-171.14 Y-100.214
X-171.109 Y-100.127
X-171.095 Y-100.056
X-171.091 Y-100.004
X-171.096 Y-99.939
X-171.111 Y-99.868
X-171.14 Y-99.784
X-171.195 Y-99.674
X-171.281 Y-99.542
X-171.403 Y-99.389
X-171.566 Y-99.22
X-171.772 Y-99.037
X-172.024 Y-98.844
X-172.324 Y-98.645
X-172.672 Y-98.442
X-173.069 Y-98.238
X-173.514 Y-98.036
X-174.011 Y-97.838
X-174.56 Y-97.645
X-175.162 Y-97.461
X-175.819 Y-97.286
X-176.532 Y-97.123
X-177.305 Y-96.976
X-178.139 Y-96.846
X-179.033 Y-96.739
X-179.986 Y-96.657
X-180.991 Y-96.605
X-182.03 Y-96.588
X-183.08 Y-96.607
X-183.98 Y-96.656
X-184.109 Y-96.663
X-185.091 Y-96.752
X-186.013 Y-96.868
X-186.869 Y-97.007
X-187.656 Y-97.164
X-188.379 Y-97.336
X-189.039 Y-97.519
X-189.64 Y-97.712
X-190.182 Y-97.912
X-190.67 Y-98.117
X-191.104 Y-98.324
X-191.486 Y-98.531
X-191.817 Y-98.736
X-192.099 Y-98.935
X-192.146 Y-98.973
X-192.333 Y-99.126 Z-1.308 F333.3
X-192.52 Y-99.304 Z-1.317
X-192.662 Y-99.467 Z-1.325
X-192.766 Y-99.611 Z-1.331
X-192.836 Y-99.733 Z-1.336
X-192.877 Y-99.831 Z-1.34
X-192.899 Y-99.906 Z-1.343
X-192.908 Y-99.972 Z-1.345
Y-100.032 Z-1.347
X-192.899 Y-100.094 Z-1.349
X-192.876 Y-100.174 Z-1.352
X-192.834 Y-100.271 Z-1.356
X-192.765 Y-100.391 Z-1.361
X-192.661 Y-100.535 Z-1.367
X-192.52 Y-100.696 Z-1.374
X-192.334 Y-100.872 Z-1.383
X-192.103 Y-101.062 Z-1.394
X-191.826 Y-101.259 Z-1.406
X-191.502 Y-101.46 Z-1.419
X-191.13 Y-101.663 Z-1.434
X-190.707 Y-101.867 Z-1.45
X-190.235 Y-102.067 Z-1.468
X-189.713 Y-102.262 Z-1.487
X-189.135 Y-102.451 Z-1.509
X-188.506 Y-102.631 Z-1.531
X-187.819 Y-102.8 Z-1.556
X-187.076 Y-102.955 Z-1.583
X-186.588 Y-103.039 Z-1.6
X-186.272 Y-103.093 F1000
X-185.407 Y-103.213
X-184.482 Y-103.307
X-183.5 Y-103.374
X-182.475 Y-103.408
X-181.427 Y-103.407
X-180.384 Y-103.368
X-179.377 Y-103.295
X-178.424 Y-103.192
X-177.537 Y-103.063
X-176.717 Y-102.914
X-175.962 Y-102.749
X-175.272 Y-102.571
X-174.643 Y-102.382
X-174.073 Y-102.185
X-173.559 Y-101.983
X-173.099 Y-101.776
X-172.692 Y-101.569
X-172.337 Y-101.363
X-172.03 Y-101.16
X-171.774 Y-100.965
X-171.565 Y-100.78
X-171.4 Y-100.608
X-171.279 Y-100.457
X-171.195 Y-100.325
X-171.14 Y-100.214
X-171.109 Y-100.127
X-171.095 Y-100.056
X-171.091 Y-100.004
X-171.096 Y-99.939
X-171.111 Y-99.868
X-171.14 Y-99.784
X-171.195 Y-99.674
X-171.281 Y-99.542
X-171.403 Y-99.389
X-171.566 Y-99.22
X-171.772 Y-99.037
X-172.024 Y-98.844
X-172.324 Y-98.645
X-172.672 Y-98.442
X-173.069 Y-98.238
X-173.514 Y-98.036
X-174.011 Y-97.838
X-174.56 Y-97.645
X-175.162 Y-97.461
X-175.819 Y-97.286
X-176.532 Y-97.123
X-177.305 Y-96.976
X-178.139 Y-96.846
X-179.033 Y-96.739
X-179.986 Y-96.657
X-180.991 Y-96.605
X-182.03 Y-96.588
X-183.08 Y-96.607
X-184.109 Y-96.663
X-185.091 Y-96.752
X-186.013 Y-96.868
X-186.869 Y-97.007
X-187.656 Y-97.164
X-188.379 Y-97.336
X-189.039 Y-97.519
X-189.64 Y-97.712
X-190.182 Y-97.912
X-190.67 Y-98.117
X-191.104 Y-98.324
X-191.486 Y-98.531
X-191.817 Y-98.736
X-192.099 Y-98.935
X-192.333 Y-99.126
X-192.52 Y-99.304
X-192.662 Y-99.467
X-192.766 Y-99.611
X-192.836 Y-99.733
X-192.877 Y-99.831
X-192.899 Y-99.906
X-192.908 Y-99.972
Y-100.032
X-192.899 Y-100.094
X-192.876 Y-100.174
X-192.834 Y-100.271
X-192.765 Y-100.391
X-192.661 Y-100.535
X-192.52 Y-100.696
X-192.334 Y-100.872
X-192.103 Y-101.062
X-191.826 Y-101.259
X-191.502 Y-101.46
X-191.13 Y-101.663
X-190.707 Y-101.867
X-190.235 Y-102.067
X-189.713 Y-102.262
X-189.135 Y-102.451
X-188.506 Y-102.631
X-187.819 Y-102.8
X-187.076 Y-102.955
X-186.588 Y-103.039
X-186.272 Y-103.093 Z-1.611 F333.3
X-185.407 Y-103.213 Z-1.642
X-184.482 Y-103.307 Z-1.674
X-183.5 Y-103.374 Z-1.709
X-182.475 Y-103.408 Z-1.744
X-181.427 Y-103.407 Z-1.781
X-180.384 Y-103.368 Z-1.817
X-179.377 Y-103.295 Z-1.853
X-178.424 Y-103.192 Z-1.886
X-178.03 Y-103.135 Z-1.9
X-177.537 Y-103.063 F1000
X-176.717 Y-102.914
X-175.962 Y-102.749
X-175.272 Y-102.571
X-174.643 Y-102.382
X-174.073 Y-102.185
X-173.559 Y-101.983
X-173.099 Y-101.776
X-172.692 Y-101.569
X-172.337 Y-101.363
X-172.03 Y-101.16
X-171.774 Y-100.965
X-171.565 Y-100.78
X-171.4 Y-100.608
X-171.279 Y-100.457
X-171.195 Y-100.325
X-171.14 Y-100.214
X-171.109 Y-100.127
X-171.095 Y-100.056
X-171.091 Y-100.004
X-171.096 Y-99.939
X-171.111 Y-99.868
X-171.14 Y-99.784
X-171.195 Y-99.674
X-171.281 Y-99.542
X-171.403 Y-99.389
X-171.566 Y-99.22
X-171.772 Y-99.037
X-172.024 Y-98.844
X-172.324 Y-98.645
X-172.672 Y-98.442
X-173.069 Y-98.238
X-173.514 Y-98.036
X-174.011 Y-97.838
X-174.56 Y-97.645
X-175.162 Y-97.461
X-175.819 Y-97.286
X-176.532 Y-97.123
X-177.305 Y-96.976
X-178.139 Y-96.846
X-179.033 Y-96.739
X-179.986 Y-96.657
X-180.991 Y-96.605
X-182.03 Y-96.588
X-183.08 Y-96.607
X-184.109 Y-96.663
X-185.091 Y-96.752
X-186.013 Y-96.868
X-186.869 Y-97.007
X-187.656 Y-97.164
X-188.379 Y-97.336
X-189.039 Y-97.519
X-189.64 Y-97.712
X-190.182 Y-97.912
X-190.67 Y-98.117
X-191.104 Y-98.324
X-191.486 Y-98.531
X-191.817 Y-98.736
X-192.099 Y-98.935
X-192.333 Y-99.126
X-192.52 Y-99.304
X-192.662 Y-99.467
X-192.766 Y-99.611
X-192.836 Y-99.733
X-192.877 Y-99.831
X-192.899 Y-99.906
X-192.908 Y-99.972
Y-100.032
X-192.899 Y-100.094
X-192.876 Y-100.174
X-192.834 Y-100.271
X-192.765 Y-100.391
X-192.661 Y-100.535
X-192.52 Y-100.696
X-192.334 Y-100.872
X-192.103 Y-101.062
X-191.826 Y-101.259
X-191.502 Y-101.46
X-191.13 Y-101.663
X-190.707 Y-101.867
X-190.235 Y-102.067
X-189.713 Y-102.262
X-189.135 Y-102.451
X-188.506 Y-102.631
X-187.819 Y-102.8
X-187.076 Y-102.955
X-186.588 Y-103.039
X-186.272 Y-103.093
X-185.407 Y-103.213
X-184.482 Y-103.307
X-183.5 Y-103.374
X-182.475 Y-103.408
X-181.427 Y-103.407
X-180.384 Y-103.368
X-179.377 Y-103.295
X-178.424 Y-103.192
X-178.03 Y-103.135
X-177.537 Y-103.063 Z-1.917 F333.3
X-176.717 Y-102.914 Z-1.947
X-175.962 Y-102.749 Z-1.973
X-175.272 Y-102.571 Z-1.998
X-174.643 Y-102.382 Z-2.021
X-174.073 Y-102.185 Z-2.042
X-173.559 Y-101.983 Z-2.062
X-173.099 Y-101.776 Z-2.079
X-172.692 Y-101.569 Z-2.095
X-172.337 Y-101.363 Z-2.11
X-172.03 Y-101.16 Z-2.122
X-171.774 Y-100.965 Z-2.134
X-171.565 Y-100.78 Z-2.143
X-171.4 Y-100.608 Z-2.152
X-171.279 Y-100.457 Z-2.158
X-171.195 Y-100.325 Z-2.164
X-171.14 Y-100.214 Z-2.168
X-171.109 Y-100.127 Z-2.172
X-171.095 Y-100.056 Z-2.174
X-171.091 Y-100.004 Z-2.176
X-171.096 Y-99.939 Z-2.178
X-171.111 Y-99.868 Z-2.181
X-171.14 Y-99.784 Z-2.184
X-171.195 Y-99.674 Z-2.188
X-171.281 Y-99.542 Z-2.194
X-171.396 Y-99.398 Z-2.2
X-171.403 Y-99.389 F1000
X-171.566 Y-99.22
X-171.772 Y-99.037
X-172.024 Y-98.844
X-172.324 Y-98.645
X-172.672 Y-98.442
X-173.069 Y-98.238
X-173.514 Y-98.036
X-174.011 Y-97.838
X-174.56 Y-97.645
X-175.162 Y-97.461
X-175.819 Y-97.286
X-176.532 Y-97.123
X-177.305 Y-96.976
X-178.139 Y-96.846
X-179.033 Y-96.739
X-179.986 Y-96.657
X-180.991 Y-96.605
X-182.03 Y-96.588
X-183.08 Y-96.607
X-184.109 Y-96.663
X-185.091 Y-96.752
X-186.013 Y-96.868
X-186.869 Y-97.007
X-187.656 Y-97.164
X-188.379 Y-97.336
X-189.039 Y-97.519
X-189.64 Y-97.712
X-190.182 Y-97.912
X-190.67 Y-98.117
X-191.104 Y-98.324
X-191.486 Y-98.531
X-191.817 Y-98.736
X-192.099 Y-98.935
X-192.333 Y-99.126
X-192.52 Y-99.304
X-192.662 Y-99.467
X-192.766 Y-99.611
X-192.836 Y-99.733
X-192.877 Y-99.831
X-192.899 Y-99.906
X-192.908 Y-99.972
Y-100.032
X-192.899 Y-100.094
X-192.876 Y-100.174
X-192.834 Y-100.271
X-192.765 Y-100.391
X-192.661 Y-100.535
X-192.52 Y-100.696
X-192.334 Y-100.872
X-192.103 Y-101.062
X-191.826 Y-101.259
X-191.502 Y-101.46
X-191.13 Y-101.663
X-190.707 Y-101.867
X-190.235 Y-102.067
X-189.713 Y-102.262
X-189.135 Y-102.451
X-188.506 Y-102.631
X-187.819 Y-102.8
X-187.076 Y-102.955
X-186.272 Y-103.093
X-185.407 Y-103.213
X-184.482 Y-103.307
X-183.5 Y-103.374
X-182.475 Y-103.408
X-181.427 Y-103.407
X-180.384 Y-103.368
X-179.377 Y-103.295
X-178.424 Y-103.192
X-177.537 Y-103.063
X-176.717 Y-102.914
X-175.962 Y-102.749
X-175.272 Y-102.571
X-174.643 Y-102.382
X-174.073 Y-102.185
X-173.559 Y-101.983
X-173.099 Y-101.776
X-172.692 Y-101.569
X-172.337 Y-101.363
X-172.03 Y-101.16
X-171.774 Y-100.965
X-171.565 Y-100.78
X-171.4 Y-100.608
X-171.279 Y-100.457
X-171.195 Y-100.325
X-171.14 Y-100.214
X-171.109 Y-100.127
X-171.095 Y-100.056
X-171.091 Y-100.004
X-171.096 Y-99.939
X-171.111 Y-99.868
X-171.14 Y-99.784
X-171.195 Y-99.674
X-171.281 Y-99.542
X-171.396 Y-99.398
G0 Z10
X-174.716 Y-85.287
Z5.2
G1 Z2.7 F333.3
X-186.001 Y-74.001 Z2.143
G3 X-187.999 Y-75.999 Z1.988 I-0.999 J-0.999
G1 X-175.999 Y-87.999 Z1.395
G3 X-174.001 Y-86.001 Z1.24 I0.999 J0.999
G1 X-186.001 Y-74.001 Z0.648
G3 X-187.999 Y-75.999 Z0.493 I-0.999 J-0.999
G1 X-175.999 Y-87.999 Z-0.1
G3 X-174.001 Y-86.001 I0.999 J0.999 F1000
G1 X-186.001 Y-74.001
G3 X-187.999 Y-75.999 I-0.999 J-0.999
G1 X-175.999 Y-87.999
G3 X-174.001 Y-86.001 Z-0.255 I0.999 J0.999 F333.3
G1 X-176.939 Y-83.064 Z-0.4
X-186.001 Y-74.001 F1000
G3 X-187.999 Y-75.999 I-0.999 J-0.999
G1 X-175.999 Y-87.999
G3 X-174.001 Y-86.001 I0.999 J0.999
G1 X-176.939 Y-83.064
X-183.013 Y-76.989 Z-0.7 F333.3
X-186.001 Y-74.001 F1000
G3 X-187.999 Y-75.999 I-0.999 J-0.999
G1 X-175.999 Y-87.999
G3 X-174.001 Y-86.001 I0.999 J0.999
G1 X-183.013 Y-76.989
X-186.001 Y-74.001 Z-0.848 F333.3
G3 X-188.048 Y-75.947 Z-1 I-0.999 J-0.999
G1 X-187.999 Y-75.999 F1000
X-175.999 Y-87.999
G3 X-174.001 Y-86.001 I0.999 J0.999
G1 X-183.013 Y-76.989
X-186.001 Y-74.001
G3 X-188.048 Y-75.947 I-0.999 J-0.999
G1 X-187.999 Y-75.999 Z-1.002 F333.3
X-181.974 Y-82.023 Z-1.3
X-175.999 Y-87.999 F1000
G3 X-174.001 Y-86.001 I0.999 J0.999
G1 X-186.001 Y-74.001
G3 X-187.999 Y-75.999 I-0.999 J-0.999
G1 X-181.974 Y-82.023
X-175.999 Y-87.999 Z-1.595 F333.3
X-175.895 Y-88.092 Z-1.6
G3 X-174.001 Y-86.001 I0.895 J1.092 F1000
G1 X-186.001 Y-74.001
G3 X-187.999 Y-75.999 I-0.999 J-0.999
G1 X-181.974 Y-82.023
X-175.999 Y-87.999
X-175.895 Y-88.092
G3 X-174.001 Y-86.001 Z-1.75 I0.895 J1.092 F333.3
G1 X-177.038 Y-82.965 Z-1.9
X-186.001 Y-74.001 F1000
G3 X-187.999 Y-75.999 I-0.999 J-0.999
G1 X-175.999 Y-87.999
G3 X-174.001 Y-86.001 I0.999 J0.999
G1 X-177.038 Y-82.965
X-183.112 Y-76.89 Z-2.2 F333.3
X-186.001 Y-74.001 F1000
G3 X-187.999 Y-75.999 I-0.999 J-0.999
G1 X-175.999 Y-87.999
G3 X-174.001 Y-86.001 I0.999 J0.999
G1 X-183.112 Y-76.89
G0 Z10
X-202.284 Y-76.713
Z5.2
G1 Z2.7 F333.3
X-190.999 Y-87.999 Z2.143
G3 X-189.001 Y-86.001 Z1.988 I0.999 J0.999
G1 X-201.001 Y-74.001 Z1.395
G3 X-202.999 Y-75.999 Z1.24 I-0.999 J-0.999
G1 X-190.999 Y-87.999 Z0.648
G3 X-189.001 Y-86.001 Z0.493 I0.999 J0.999
G1 X-201.001 Y-74.001 Z-0.1
G3 X-202.999 Y-75.999 I-0.999 J-0.999 F1000
G1 X-190.999 Y-87.999
G3 X-189.001 Y-86.001 I0.999 J0.999
G1 X-201.001 Y-74.001
G3 X-202.999 Y-75.999 Z-0.255 I-0.999 J-0.999 F333.3
G1 X-200.061 Y-78.936 Z-0.4
X-190.999 Y-87.999 F1000
G3 X-189.001 Y-86.001 I0.999 J0.999
G1 X-201.001 Y-74.001
G3 X-202.999 Y-75.999 I-0.999 J-0.999
G1 X-200.061 Y-78.936
X-193.987 Y-85.011 Z-0.7 F333.3
X-190.999 Y-87.999 F1000
G3 X-189.001 Y-86.001 I0.999 J0.999
G1 X-201.001 Y-74.001
G3 X-202.999 Y-75.999 I-0.999 J-0.999
G1 X-193.987 Y-85.011
X-190.999 Y-87.999 Z-0.848 F333.3
G3 X-188.952 Y-86.053 Z-1 I0.999 J0.999
G1 X-189.001 Y-86.001 F1000
X-201.001 Y-74.001
G3 X-202.999 Y-75.999 I-0.999 J-0.999
G1 X-193.987 Y-85.011
X-190.999 Y-87.999
G3 X-188.952 Y-86.053 I0.999 J0.999
G1 X-189.001 Y-86.001 Z-1.002 F333.3
X-195.026 Y-79.977 Z-1.3
X-201.001 Y-74.001 F1000
G3 X-202.999 Y-75.999 I-0.999 J-0.999
G1 X-190.999 Y-87.999
G3 X-189.001 Y-86.001 I0.999 J0.999
G1 X-195.026 Y-79.977
X-201.001 Y-74.001 Z-1.595 F333.3
X-201.105 Y-73.908 Z-1.6
G3 X-202.999 Y-75.999 I-0.895 J-1.092 F1000
G1 X-190.999 Y-87.999
G3 X-189.001 Y-86.001 I0.999 J0.999
G1 X-195.026 Y-79.977
X-201.001 Y-74.001
X-201.105 Y-73.908
G3 X-202.999 Y-75.999 Z-1.75 I-0.895 J-1.092 F333.3
G1 X-199.962 Y-79.035 Z-1.9
X-190.999 Y-87.999 F1000
G3 X-189.001 Y-86.001 I0.999 J0.999
G1 X-201.001 Y-74.001
G3 X-202.999 Y-75.999 I-0.999 J-0.999
G1 X-199.962 Y-79.035
X-193.888 Y-85.11 Z-2.2 F333.3
X-190.999 Y-87.999 F1000
G3 X-189.001 Y-86.001 I0.999 J0.999
G1 X-201.001 Y-74.001
G3 X-202.999 Y-75.999 I-0.999 J-0.999
G1 X-193.888 Y-85.11
G0 Z10
X-204.716 Y-85.287
Z5.2
G1 Z2.7 F333.3
X-216.001 Y-74.001 Z2.143
G3 X-217.999 Y-75.999 Z1.988 I-0.999 J-0.999
G1 X-205.999 Y-87.999 Z1.395
G3 X-204.001 Y-86.001 Z1.24 I0.999 J0.999
G1 X-216.001 Y-74.001 Z0.648
G3 X-217.999 Y-75.999 Z0.493 I-0.999 J-0.999
G1 X-205.999 Y-87.999 Z-0.1
G3 X-204.001 Y-86.001 I0.999 J0.999 F1000
G1 X-216.001 Y-74.001
G3 X-217.999 Y-75.999 I-0.999 J-0.999
G1 X-205.999 Y-87.999
G3 X-204.001 Y-86.001 Z-0.255 I0.999 J0.999 F333.3
G1 X-206.939 Y-83.064 Z-0.4
X-216.001 Y-74.001 F1000
G3 X-217.999 Y-75.999 I-0.999 J-0.999
G1 X-205.999 Y-87.999
G3 X-204.001 Y-86.001 I0.999 J0.999
G1 X-206.939 Y-83.064
X-213.013 Y-76.989 Z-0.7 F333.3
X-216.001 Y-74.001 F1000
G3 X-217.999 Y-75.999 I-0.999 J-0.999
G1 X-205.999 Y-87.999
G3 X-204.001 Y-86.001 I0.999 J0.999
G1 X-213.013 Y-76.989
X-216.001 Y-74.001 Z-0.848 F333.3
G3 X-218.048 Y-75.947 Z-1 I-0.999 J-0.999
G1 X-217.999 Y-75.999 F1000
X-205.999 Y-87.999
G3 X-204.001 Y-86.001 I0.999 J0.999
G1 X-213.013 Y-76.989
X-216.001 Y-74.001
G3 X-218.048 Y-75.947 I-0.999 J-0.999
G1 X-217.999 Y-75.999 Z-1.002 F333.3
X-211.974 Y-82.023 Z-1.3
X-205.999 Y-87.999 F1000
G3 X-204.001 Y-86.001 I0.999 J0.999
G1 X-216.001 Y-74.001
G3 X-217.999 Y-75.999 I-0.999 J-0.999
G1 X-211.974 Y-82.023
X-205.999 Y-87.999 Z-1.595 F333.3
X-205.895 Y-88.092 Z-1.6
G3 X-204.001 Y-86.001 I0.895 J1.092 F1000
G1 X-216.001 Y-74.001
G3 X-217.999 Y-75.999 I-0.999 J-0.999
G1 X-211.974 Y-82.023
X-205.999 Y-87.999
X-205.895 Y-88.092
G3 X-204.001 Y-86.001 Z-1.75 I0.895 J1.092 F333.3
G1 X-207.038 Y-82.965 Z-1.9
X-216.001 Y-74.001 F1000
G3 X-217.999 Y-75.999 I-0.999 J-0.999
G1 X-205.999 Y-87.999
G3 X-204.001 Y-86.001 I0.999 J0.999
G1 X-207.038 Y-82.965
X-213.112 Y-76.89 Z-2.2 F333.3
X-216.001 Y-74.001 F1000
G3 X-217.999 Y-75.999 I-0.999 J-0.999
G1 X-205.999 Y-87.999
G3 X-204.001 Y-86.001 I0.999 J0.999
G1 X-213.112 Y-76.89
G0 Z10
X-232.284 Y-76.713
Z5.2
G1 Z2.7 F333.3
X-220.999 Y-87.999 Z2.143
G3 X-219.001 Y-86.001 Z1.988 I0.999 J0.999
G1 X-231.001 Y-74.001 Z1.395
G3 X-232.999 Y-75.999 Z1.24 I-0.999 J-0.999
G1 X-220.999 Y-87.999 Z0.648
G3 X-219.001 Y-86.001 Z0.493 I0.999 J0.999
G1 X-231.001 Y-74.001 Z-0.1
G3 X-232.999 Y-75.999 I-0.999 J-0.999 F1000
G1 X-220.999 Y-87.999
G3 X-219.001 Y-86.001 I0.999 J0.999
G1 X-231.001 Y-74.001
G3 X-232.999 Y-75.999 Z-0.255 I-0.999 J-0.999 F333.3
G1 X-230.061 Y-78.936 Z-0.4
X-220.999 Y-87.999 F1000
G3 X-219.001 Y-86.001 I0.999 J0.999
G1 X-231.001 Y-74.001
G3 X-232.999 Y-75.999 I-0.999 J-0.999
G1 X-230.061 Y-78.936
X-223.987 Y-85.011 Z-0.7 F333.3
X-220.999 Y-87.999 F1000
G3 X-219.001 Y-86.001 I0.999 J0.999
G1 X-231.001 Y-74.001
G3 X-232.999 Y-75.999 I-0.999 J-0.999
G1 X-223.987 Y-85.011
X-220.999 Y-87.999 Z-0.848 F333.3
G3 X-218.952 Y-86.053 Z-1 I0.999 J0.999
G1 X-219.001 Y-86.001 F1000
X-231.001 Y-74.001
G3 X-232.999 Y-75.999 I-0.999 J-0.999
G1 X-223.987 Y-85.011
X-220.999 Y-87.999
G3 X-218.952 Y-86.053 I0.999 J0.999
G1 X-219.001 Y-86.001 Z-1.002 F333.3
X-225.026 Y-79.977 Z-1.3
X-231.001 Y-74.001 F1000
G3 X-232.999 Y-75.999 I-0.999 J-0.999
G1 X-220.999 Y-87.999
G3 X-219.001 Y-86.001 I0.999 J0.999
G1 X-225.026 Y-79.977
X-231.001 Y-74.001 Z-1.595 F333.3
X-231.105 Y-73.908 Z-1.6
G3 X-232.999 Y-75.999 I-0.895 J-1.092 F1000
G1 X-220.999 Y-87.999
G3 X-219.001 Y-86.001 I0.999 J0.999
G1 X-225.026 Y-79.977
X-231.001 Y-74.001
X-231.105 Y-73.908
G3 X-232.999 Y-75.999 Z-1.75 I-0.895 J-1.092 F333.3
G1 X-229.962 Y-79.035 Z-1.9
X-220.999 Y-87.999 F1000
G3 X-219.001 Y-86.001 I0.999 J0.999
G1 X-231.001 Y-74.001
G3 X-232.999 Y-75.999 I-0.999 J-0.999
G1 X-229.962 Y-79.035
X-223.888 Y-85.11 Z-2.2 F333.3
X-220.999 Y-87.999 F1000
G3 X-219.001 Y-86.001 I0.999 J0.999
G1 X-231.001 Y-74.001
G3 X-232.999 Y-75.999 I-0.999 J-0.999
G1 X-223.888 Y-85.11
G0 Z10
X-247.284 Y-76.713
Z5.2
G1 Z2.7 F333.3
X-235.999 Y-87.999 Z2.143
G3 X-234.001 Y-86.001 Z1.988 I0.999 J0.999
G1 X-246.001 Y-74.001 Z1.395
G3 X-247.999 Y-75.999 Z1.24 I-0.999 J-0.999
G1 X-235.999 Y-87.999 Z0.648
G3 X-234.001 Y-86.001 Z0.493 I0.999 J0.999
G1 X-246.001 Y-74.001 Z-0.1
G3 X-247.999 Y-75.999 I-0.999 J-0.999 F1000
G1 X-235.999 Y-87.999
G3 X-234.001 Y-86.001 I0.999 J0.999
G1 X-246.001 Y-74.001
G3 X-247.999 Y-75.999 Z-0.255 I-0.999 J-0.999 F333.3
G1 X-245.061 Y-78.936 Z-0.4
X-235.999 Y-87.999 F1000
G3 X-234.001 Y-86.001 I0.999 J0.999
G1 X-246.001 Y-74.001
G3 X-247.999 Y-75.999 I-0.999 J-0.999
G1 X-245.061 Y-78.936
X-238.987 Y-85.011 Z-0.7 F333.3
X-235.999 Y-87.999 F1000
G3 X-234.001 Y-86.001 I0.999 J0.999
G1 X-246.001 Y-74.001
G3 X-247.999 Y-75.999 I-0.999 J-0.999
G1 X-238.987 Y-85.011
X-235.999 Y-87.999 Z-0.848 F333.3
G3 X-233.952 Y-86.053 Z-1 I0.999 J0.999
G1 X-234.001 Y-86.001 F1000
X-246.001 Y-74.001
G3 X-247.999 Y-75.999 I-0.999 J-0.999
G1 X-238.987 Y-85.011
X-235.999 Y-87.999
G3 X-233.952 Y-86.053 I0.999 J0.999
G1 X-234.001 Y-86.001 Z-1.002 F333.3
X-240.026 Y-79.977 Z-1.3
X-246.001 Y-74.001 F1000
G3 X-247.999 Y-75.999 I-0.999 J-0.999
G1 X-235.999 Y-87.999
G3 X-234.001 Y-86.001 I0.999 J0.999
G1 X-240.026 Y-79.977
X-246.001 Y-74.001 Z-1.595 F333.3
X-246.105 Y-73.908 Z-1.6
G3 X-247.999 Y-75.999 I-0.895 J-1.092 F1000
G1 X-235.999 Y-87.999
G3 X-234.001 Y-86.001 I0.999 J0.999
G1 X-240.026 Y-79.977
X-246.001 Y-74.001
X-246.105 Y-73.908
G3 X-247.999 Y-75.999 Z-1.75 I-0.895 J-1.092 F333.3
G1 X-244.962 Y-79.035 Z-1.9
X-235.999 Y-87.999 F1000
G3 X-234.001 Y-86.001 I0.999 J0.999
G1 X-246.001 Y-74.001
G3 X-247.999 Y-75.999 I-0.999 J-0.999
G1 X-244.962 Y-79.035
X-238.888 Y-85.11 Z-2.2 F333.3
X-235.999 Y-87.999 F1000
G3 X-234.001 Y-86.001 I0.999 J0.999
G1 X-246.001 Y-74.001
G3 X-247.999 Y-75.999 I-0.999 J-0.999
G1 X-238.888 Y-85.11
G0 Z10
X-224.851 Y-55.853
Z5.2
G1 Z2.7 F333.3
X-232.998 Y-64.001 Z2.298
G3 X-232.999 Y-65.998 Z2.22 I0.998 J-0.999
X-231.001 Y-65.999 Z2.143 I0.999 J0.998
G1 X-219.002 Y-53.999 Z1.55
G3 X-219.001 Y-52.002 Z1.473 I-0.998 J0.999
X-220.999 Y-52.001 Z1.395 I-0.999 J-0.998
G1 X-232.998 Y-64.001 Z0.803
G3 X-232.999 Y-65.998 Z0.725 I0.998 J-0.999
X-231.001 Y-65.999 Z0.648 I0.999 J0.998
G1 X-219.002 Y-53.999 Z0.055
G3 X-219.001 Y-52.002 Z-0.023 I-0.998 J0.999
X-220.999 Y-52.001 Z-0.1 I-0.999 J-0.998
G1 X-232.998 Y-64.001 F1000
G3 X-232.999 Y-65.998 I0.998 J-0.999
X-231.001 Y-65.999 I0.999 J0.998
G1 X-219.002 Y-53.999
G3 X-219.001 Y-52.002 I-0.998 J0.999
X-220.999 Y-52.001 I-0.999 J-0.998
G1 X-227.073 Y-58.076 Z-0.4 F333.3
X-232.998 Y-64.001 F1000
G3 X-232.999 Y-65.998 I0.998 J-0.999
X-231.001 Y-65.999 I0.999 J0.998
G1 X-219.002 Y-53.999
G3 X-219.001 Y-52.002 I-0.998 J0.999
X-220.999 Y-52.001 I-0.999 J-0.998
G1 X-227.073 Y-58.076
X-232.998 Y-64.001 Z-0.693 F333.3
X-233.07 Y-64.079 Z-0.696
X-233.136 Y-64.161 Z-0.7
G3 X-231.001 Y-65.999 I1.136 J-0.839 F1000
G1 X-219.002 Y-53.999
G3 X-219.001 Y-52.002 I-0.998 J0.999
X-220.999 Y-52.001 I-0.999 J-0.998
G1 X-227.073 Y-58.076
X-232.998 Y-64.001
X-233.07 Y-64.079
X-233.136 Y-64.161
G3 X-231.001 Y-65.999 Z-0.848 I1.136 J-0.839 F333.3
G1 X-227.915 Y-62.912 Z-1
X-219.002 Y-53.999 F1000
G3 X-219.001 Y-52.002 I-0.998 J0.999
X-220.999 Y-52.001 I-0.999 J-0.998
G1 X-232.998 Y-64.001
G3 X-232.999 Y-65.998 I0.998 J-0.999
X-231.001 Y-65.999 I0.999 J0.998
G1 X-227.915 Y-62.912
X-221.84 Y-56.837 Z-1.3 F333.3
X-219.002 Y-53.999 F1000
G3 X-219.001 Y-52.002 I-0.998 J0.999
X-220.999 Y-52.001 I-0.999 J-0.998
G1 X-232.998 Y-64.001
G3 X-232.999 Y-65.998 I0.998 J-0.999
X-231.001 Y-65.999 I0.999 J0.998
G1 X-221.84 Y-56.837
X-219.002 Y-53.999 Z-1.44 F333.3
G3 X-219.001 Y-52.002 Z-1.518 I-0.998 J0.999
X-220.999 Y-52.001 Z-1.595 I-0.999 J-0.998
G1 X-221.097 Y-52.1 Z-1.6
X-232.998 Y-64.001 F1000
G3 X-232.999 Y-65.998 I0.998 J-0.999
X-231.001 Y-65.999 I0.999 J0.998
G1 X-221.84 Y-56.837
X-219.002 Y-53.999
G3 X-219.001 Y-52.002 I-0.998 J0.999
X-220.999 Y-52.001 I-0.999 J-0.998
G1 X-221.097 Y-52.1
X-227.172 Y-58.175 Z-1.9 F333.3
X-232.998 Y-64.001 F1000
G3 X-232.999 Y-65.998 I0.998 J-0.999
X-231.001 Y-65.999 I0.999 J0.998
G1 X-219.002 Y-53.999
G3 X-219.001 Y-52.002 I-0.998 J0.999
X-220.999 Y-52.001 I-0.999 J-0.998
G1 X-227.172 Y-58.175
X-232.998 Y-64.001 Z-2.188 F333.3
G3 X-233.214 Y-64.278 Z-2.2 I0.998 J-0.999
X-231.001 Y-65.999 I1.214 J-0.722 F1000
G1 X-219.002 Y-53.999
G3 X-219.001 Y-52.002 I-0.998 J0.999
X-220.999 Y-52.001 I-0.999 J-0.998
G1 X-227.172 Y-58.175
X-232.998 Y-64.001
G3 X-233.214 Y-64.278 I0.998 J-0.999
G0 Z10
X-242.149 Y-62.147
Z5.2
G1 Z2.7 F333.3
X-234.002 Y-53.999 Z2.298
G3 X-234.001 Y-52.002 Z2.22 I-0.998 J0.999
X-235.999 Y-52.001 Z2.143 I-0.999 J-0.998
G1 X-247.998 Y-64.001 Z1.55
G3 X-247.999 Y-65.998 Z1.473 I0.998 J-0.999
X-246.001 Y-65.999 Z1.395 I0.999 J0.998
G1 X-234.002 Y-53.999 Z0.803
G3 X-234.001 Y-52.002 Z0.725 I-0.998 J0.999
X-235.999 Y-52.001 Z0.648 I-0.999 J-0.998
G1 X-247.998 Y-64.001 Z0.055
G3 X-247.999 Y-65.998 Z-0.023 I0.998 J-0.999
X-246.001 Y-65.999 Z-0.1 I0.999 J0.998
G1 X-234.002 Y-53.999 F1000
G3 X-234.001 Y-52.002 I-0.998 J0.999
X-235.999 Y-52.001 I-0.999 J-0.998
G1 X-247.998 Y-64.001
G3 X-247.999 Y-65.998 I0.998 J-0.999
X-246.001 Y-65.999 I0.999 J0.998
G1 X-239.927 Y-59.924 Z-0.4 F333.3
X-234.002 Y-53.999 F1000
G3 X-234.001 Y-52.002 I-0.998 J0.999
X-235.999 Y-52.001 I-0.999 J-0.998
G1 X-247.998 Y-64.001
G3 X-247.999 Y-65.998 I0.998 J-0.999
X-246.001 Y-65.999 I0.999 J0.998
G1 X-239.927 Y-59.924
X-234.002 Y-53.999 Z-0.693 F333.3
X-233.93 Y-53.921 Z-0.696
X-233.864 Y-53.839 Z-0.7
G3 X-235.999 Y-52.001 I-1.136 J0.839 F1000
G1 X-247.998 Y-64.001
G3 X-247.999 Y-65.998 I0.998 J-0.999
X-246.001 Y-65.999 I0.999 J0.998
G1 X-239.927 Y-59.924
X-234.002 Y-53.999
X-233.93 Y-53.921
X-233.864 Y-53.839
G3 X-235.999 Y-52.001 Z-0.848 I-1.136 J0.839 F333.3
G1 X-239.085 Y-55.088 Z-1
X-247.998 Y-64.001 F1000
G3 X-247.999 Y-65.998 I0.998 J-0.999
X-246.001 Y-65.999 I0.999 J0.998
G1 X-234.002 Y-53.999
G3 X-234.001 Y-52.002 I-0.998 J0.999
X-235.999 Y-52.001 I-0.999 J-0.998
G1 X-239.085 Y-55.088
X-245.16 Y-61.163 Z-1.3 F333.3
X-247.998 Y-64.001 F1000
G3 X-247.999 Y-65.998 I0.998 J-0.999
X-246.001 Y-65.999 I0.999 J0.998
G1 X-234.002 Y-53.999
G3 X-234.001 Y-52.002 I-0.998 J0.999
X-235.999 Y-52.001 I-0.999 J-0.998
G1 X-245.16 Y-61.163
X-247.998 Y-64.001 Z-1.44 F333.3
G3 X-247.999 Y-65.998 Z-1.518 I0.998 J-0.999
X-246.001 Y-65.999 Z-1.595 I0.999 J0.998
G1 X-245.903 Y-65.9 Z-1.6
X-234.002 Y-53.999 F1000
G3 X-234.001 Y-52.002 I-0.998 J0.999
X-235.999 Y-52.001 I-0.999 J-0.998
G1 X-245.16 Y-61.163
X-247.998 Y-64.001
G3 X-247.999 Y-65.998 I0.998 J-0.999
X-246.001 Y-65.999 I0.999 J0.998
G1 X-245.903 Y-65.9
X-239.828 Y-59.825 Z-1.9 F333.3
X-234.002 Y-53.999 F1000
G3 X-234.001 Y-52.002 I-0.998 J0.999
X-235.999 Y-52.001 I-0.999 J-0.998
G1 X-247.998 Y-64.001
G3 X-247.999 Y-65.998 I0.998 J-0.999
X-246.001 Y-65.999 I0.999 J0.998
G1 X-239.828 Y-59.825
X-234.002 Y-53.999 Z-2.188 F333.3
G3 X-233.786 Y-53.722 Z-2.2 I-0.998 J0.999
X-235.999 Y-52.001 I-1.214 J0.722 F1000
G1 X-247.998 Y-64.001
G3 X-247.999 Y-65.998 I0.998 J-0.999
X-246.001 Y-65.999 I0.999 J0.998
G1 X-239.828 Y-59.825
X-234.002 Y-53.999
G3 X-233.786 Y-53.722 I-0.998 J0.999
G0 Z10
X-209.851 Y-55.853
Z5.2
G1 Z2.7 F333.3
X-217.998 Y-64.001 Z2.298
G3 X-217.999 Y-65.998 Z2.22 I0.998 J-0.999
X-216.001 Y-65.999 Z2.143 I0.999 J0.998
G1 X-204.002 Y-53.999 Z1.55
G3 X-204.001 Y-52.002 Z1.473 I-0.998 J0.999
X-205.999 Y-52.001 Z1.395 I-0.999 J-0.998
G1 X-217.998 Y-64.001 Z0.803
G3 X-217.999 Y-65.998 Z0.725 I0.998 J-0.999
X-216.001 Y-65.999 Z0.648 I0.999 J0.998
G1 X-204.002 Y-53.999 Z0.055
G3 X-204.001 Y-52.002 Z-0.023 I-0.998 J0.999
X-205.999 Y-52.001 Z-0.1 I-0.999 J-0.998
G1 X-217.998 Y-64.001 F1000
G3 X-217.999 Y-65.998 I0.998 J-0.999
X-216.001 Y-65.999 I0.999 J0.998
G1 X-204.002 Y-53.999
G3 X-204.001 Y-52.002 I-0.998 J0.999
X-205.999 Y-52.001 I-0.999 J-0.998
G1 X-212.073 Y-58.076 Z-0.4 F333.3
X-217.998 Y-64.001 F1000
G3 X-217.999 Y-65.998 I0.998 J-0.999
X-216.001 Y-65.999 I0.999 J0.998
G1 X-204.002 Y-53.999
G3 X-204.001 Y-52.002 I-0.998 J0.999
X-205.999 Y-52.001 I-0.999 J-0.998
G1 X-212.073 Y-58.076
X-217.998 Y-64.001 Z-0.693 F333.3
X-218.07 Y-64.079 Z-0.696
X-218.136 Y-64.161 Z-0.7
G3 X-216.001 Y-65.999 I1.136 J-0.839 F1000
G1 X-204.002 Y-53.999
G3 X-204.001 Y-52.002 I-0.998 J0.999
X-205.999 Y-52.001 I-0.999 J-0.998
G1 X-212.073 Y-58.076
X-217.998 Y-64.001
X-218.07 Y-64.079
X-218.136 Y-64.161
G3 X-216.001 Y-65.999 Z-0.848 I1.136 J-0.839 F333.3
G1 X-212.915 Y-62.912 Z-1
X-204.002 Y-53.999 F1000
G3 X-204.001 Y-52.002 I-0.998 J0.999
X-205.999 Y-52.001 I-0.999 J-0.998
G1 X-217.998 Y-64.001
G3 X-217.999 Y-65.998 I0.998 J-0.999
X-216.001 Y-65.999 I0.999 J0.998
G1 X-212.915 Y-62.912
X-206.84 Y-56.837 Z-1.3 F333.3
X-204.002 Y-53.999 F1000
G3 X-204.001 Y-52.002 I-0.998 J0.999
X-205.999 Y-52.001 I-0.999 J-0.998
G1 X-217.998 Y-64.001
G3 X-217.999 Y-65.998 I0.998 J-0.999
X-216.001 Y-65.999 I0.999 J0.998
G1 X-206.84 Y-56.837
X-204.002 Y-53.999 Z-1.44 F333.3
G3 X-204.001 Y-52.002 Z-1.518 I-0.998 J0.999
X-205.999 Y-52.001 Z-1.595 I-0.999 J-0.998
G1 X-206.097 Y-52.1 Z-1.6
X-217.998 Y-64.001 F1000
G3 X-217.999 Y-65.998 I0.998 J-0.999
X-216.001 Y-65.999 I0.999 J0.998
G1 X-206.84 Y-56.837
X-204.002 Y-53.999
G3 X-204.001 Y-52.002 I-0.998 J0.999
X-205.999 Y-52.001 I-0.999 J-0.998
G1 X-206.097 Y-52.1
X-212.172 Y-58.175 Z-1.9 F333.3
X-217.998 Y-64.001 F1000
G3 X-217.999 Y-65.998 I0.998 J-0.999
X-216.001 Y-65.999 I0.999 J0.998
G1 X-204.002 Y-53.999
G3 X-204.001 Y-52.002 I-0.998 J0.999
X-205.999 Y-52.001 I-0.999 J-0.998
G1 X-212.172 Y-58.175
X-217.998 Y-64.001 Z-2.188 F333.3
G3 X-218.214 Y-64.278 Z-2.2 I0.998 J-0.999
X-216.001 Y-65.999 I1.214 J-0.722 F1000
G1 X-204.002 Y-53.999
G3 X-204.001 Y-52.002 I-0.998 J0.999
X-205.999 Y-52.001 I-0.999 J-0.998
G1 X-212.172 Y-58.175
X-217.998 Y-64.001
G3 X-218.214 Y-64.278 I0.998 J-0.999
G0 Z10
X-194.851 Y-55.853
Z5.2
G1 Z2.7 F333.3
X-202.998 Y-64.001 Z2.298
G3 X-202.999 Y-65.998 Z2.22 I0.998 J-0.999
X-201.001 Y-65.999 Z2.143 I0.999 J0.998
G1 X-189.002 Y-53.999 Z1.55
G3 X-189.001 Y-52.002 Z1.473 I-0.998 J0.999
X-190.999 Y-52.001 Z1.395 I-0.999 J-0.998
G1 X-202.998 Y-64.001 Z0.803
G3 X-202.999 Y-65.998 Z0.725 I0.998 J-0.999
X-201.001 Y-65.999 Z0.648 I0.999 J0.998
G1 X-189.002 Y-53.999 Z0.055
G3 X-189.001 Y-52.002 Z-0.023 I-0.998 J0.999
X-190.999 Y-52.001 Z-0.1 I-0.999 J-0.998
G1 X-202.998 Y-64.001 F1000
G3 X-202.999 Y-65.998 I0.998 J-0.999
X-201.001 Y-65.999 I0.999 J0.998
G1 X-189.002 Y-53.999
G3 X-189.001 Y-52.002 I-0.998 J0.999
X-190.999 Y-52.001 I-0.999 J-0.998
G1 X-197.073 Y-58.076 Z-0.4 F333.3
X-202.998 Y-64.001 F1000
G3 X-202.999 Y-65.998 I0.998 J-0.999
X-201.001 Y-65.999 I0.999 J0.998
G1 X-189.002 Y-53.999
G3 X-189.001 Y-52.002 I-0.998 J0.999
X-190.999 Y-52.001 I-0.999 J-0.998
G1 X-197.073 Y-58.076
X-202.998 Y-64.001 Z-0.693 F333.3
X-203.07 Y-64.079 Z-0.696
X-203.136 Y-64.161 Z-0.7
G3 X-201.001 Y-65.999 I1.136 J-0.839 F1000
G1 X-189.002 Y-53.999
G3 X-189.001 Y-52.002 I-0.998 J0.999
X-190.999 Y-52.001 I-0.999 J-0.998
G1 X-197.073 Y-58.076
X-202.998 Y-64.001
X-203.07 Y-64.079
X-203.136 Y-64.161
G3 X-201.001 Y-65.999 Z-0.848 I1.136 J-0.839 F333.3
G1 X-197.915 Y-62.912 Z-1
X-189.002 Y-53.999 F1000
G3 X-189.001 Y-52.002 I-0.998 J0.999
X-190.999 Y-52.001 I-0.999 J-0.998
G1 X-202.998 Y-64.001
G3 X-202.999 Y-65.998 I0.998 J-0.999
X-201.001 Y-65.999 I0.999 J0.998
G1 X-197.915 Y-62.912
X-191.84 Y-56.837 Z-1.3 F333.3
X-189.002 Y-53.999 F1000
G3 X-189.001 Y-52.002 I-0.998 J0.999
X-190.999 Y-52.001 I-0.999 J-0.998
G1 X-202.998 Y-64.001
G3 X-202.999 Y-65.998 I0.998 J-0.999
X-201.001 Y-65.999 I0.999 J0.998
G1 X-191.84 Y-56.837
X-189.002 Y-53.999 Z-1.44 F333.3
G3 X-189.001 Y-52.002 Z-1.518 I-0.998 J0.999
X-190.999 Y-52.001 Z-1.595 I-0.999 J-0.998
G1 X-191.097 Y-52.1 Z-1.6
X-202.998 Y-64.001 F1000
G3 X-202.999 Y-65.998 I0.998 J-0.999
X-201.001 Y-65.999 I0.999 J0.998
G1 X-191.84 Y-56.837
X-189.002 Y-53.999
G3 X-189.001 Y-52.002 I-0.998 J0.999
X-190.999 Y-52.001 I-0.999 J-0.998
G1 X-191.097 Y-52.1
X-197.172 Y-58.175 Z-1.9 F333.3
X-202.998 Y-64.001 F1000
G3 X-202.999 Y-65.998 I0.998 J-0.999
X-201.001 Y-65.999 I0.999 J0.998
G1 X-189.002 Y-53.999
G3 X-189.001 Y-52.002 I-0.998 J0.999
X-190.999 Y-52.001 I-0.999 J-0.998
G1 X-197.172 Y-58.175
X-202.998 Y-64.001 Z-2.188 F333.3
G3 X-203.214 Y-64.278 Z-2.2 I0.998 J-0.999
X-201.001 Y-65.999 I1.214 J-0.722 F1000
G1 X-189.002 Y-53.999
G3 X-189.001 Y-52.002 I-0.998 J0.999
X-190.999 Y-52.001 I-0.999 J-0.998
G1 X-197.172 Y-58.175
X-202.998 Y-64.001
G3 X-203.214 Y-64.278 I0.998 J-0.999
G0 Z10
X-179.851 Y-55.853
Z5.2
G1 Z2.7 F333.3
X-187.998 Y-64.001 Z2.298
G3 X-187.999 Y-65.998 Z2.22 I0.998 J-0.999
X-186.001 Y-65.999 Z2.143 I0.999 J0.998
G1 X-174.002 Y-53.999 Z1.55
G3 X-174.001 Y-52.002 Z1.473 I-0.998 J0.999
X-175.999 Y-52.001 Z1.395 I-0.999 J-0.998
G1 X-187.998 Y-64.001 Z0.803
G3 X-187.999 Y-65.998 Z0.725 I0.998 J-0.999
X-186.001 Y-65.999 Z0.648 I0.999 J0.998
G1 X-174.002 Y-53.999 Z0.055
G3 X-174.001 Y-52.002 Z-0.023 I-0.998 J0.999
X-175.999 Y-52.001 Z-0.1 I-0.999 J-0.998
G1 X-187.998 Y-64.001 F1000
G3 X-187.999 Y-65.998 I0.998 J-0.999
X-186.001 Y-65.999 I0.999 J0.998
G1 X-174.002 Y-53.999
G3 X-174.001 Y-52.002 I-0.998 J0.999
X-175.999 Y-52.001 I-0.999 J-0.998
G1 X-182.073 Y-58.076 Z-0.4 F333.3
X-187.998 Y-64.001 F1000
G3 X-187.999 Y-65.998 I0.998 J-0.999
X-186.001 Y-65.999 I0.999 J0.998
G1 X-174.002 Y-53.999
G3 X-174.001 Y-52.002 I-0.998 J0.999
X-175.999 Y-52.001 I-0.999 J-0.998
G1 X-182.073 Y-58.076
X-187.998 Y-64.001 Z-0.693 F333.3
X-188.07 Y-64.079 Z-0.696
X-188.136 Y-64.161 Z-0.7
G3 X-186.001 Y-65.999 I1.136 J-0.839 F1000
G1 X-174.002 Y-53.999
G3 X-174.001 Y-52.002 I-0.998 J0.999
X-175.999 Y-52.001 I-0.999 J-0.998
G1 X-182.073 Y-58.076
X-187.998 Y-64.001
X-188.07 Y-64.079
X-188.136 Y-64.161
G3 X-186.001 Y-65.999 Z-0.848 I1.136 J-0.839 F333.3
G1 X-182.915 Y-62.912 Z-1
X-174.002 Y-53.999 F1000
G3 X-174.001 Y-52.002 I-0.998 J0.999
X-175.999 Y-52.001 I-0.999 J-0.998
G1 X-187.998 Y-64.001
G3 X-187.999 Y-65.998 I0.998 J-0.999
X-186.001 Y-65.999 I0.999 J0.998
G1 X-182.915 Y-62.912
X-176.84 Y-56.837 Z-1.3 F333.3
X-174.002 Y-53.999 F1000
G3 X-174.001 Y-52.002 I-0.998 J0.999
X-175.999 Y-52.001 I-0.999 J-0.998
G1 X-187.998 Y-64.001
G3 X-187.999 Y-65.998 I0.998 J-0.999
X-186.001 Y-65.999 I0.999 J0.998
G1 X-176.84 Y-56.837
X-174.002 Y-53.999 Z-1.44 F333.3
G3 X-174.001 Y-52.002 Z-1.518 I-0.998 J0.999
X-175.999 Y-52.001 Z-1.595 I-0.999 J-0.998
G1 X-176.097 Y-52.1 Z-1.6
X-187.998 Y-64.001 F1000
G3 X-187.999 Y-65.998 I0.998 J-0.999
X-186.001 Y-65.999 I0.999 J0.998
G1 X-176.84 Y-56.837
X-174.002 Y-53.999
G3 X-174.001 Y-52.002 I-0.998 J0.999
X-175.999 Y-52.001 I-0.999 J-0.998
G1 X-176.097 Y-52.1
X-182.172 Y-58.175 Z-1.9 F333.3
X-187.998 Y-64.001 F1000
G3 X-187.999 Y-65.998 I0.998 J-0.999
X-186.001 Y-65.999 I0.999 J0.998
G1 X-174.002 Y-53.999
G3 X-174.001 Y-52.002 I-0.998 J0.999
X-175.999 Y-52.001 I-0.999 J-0.998
G1 X-182.172 Y-58.175
X-187.998 Y-64.001 Z-2.188 F333.3
G3 X-188.214 Y-64.278 Z-2.2 I0.998 J-0.999
X-186.001 Y-65.999 I1.214 J-0.722 F1000
G1 X-174.002 Y-53.999
G3 X-174.001 Y-52.002 I-0.998 J0.999
X-175.999 Y-52.001 I-0.999 J-0.998
G1 X-182.172 Y-58.175
X-187.998 Y-64.001
G3 X-188.214 Y-64.278 I0.998 J-0.999
G0 Z10
X-190.703 Y-41.868
Z5.2
G1 Z2.7 F333.3
X-190.236 Y-42.067 Z2.682
X-189.712 Y-42.262 Z2.663
X-189.135 Y-42.451 Z2.642
X-188.506 Y-42.631 Z2.619
X-187.819 Y-42.8 Z2.594
X-187.076 Y-42.955 Z2.568
X-186.272 Y-43.093 Z2.539
X-185.407 Y-43.212 Z2.509
X-184.482 Y-43.307 Z2.476
X-183.5 Y-43.374 Z2.442
X-182.475 Y-43.408 Z2.406
X-181.427 Y-43.407 Z2.369
X-180.384 Y-43.368 Z2.333
X-179.377 Y-43.295 Z2.298
X-178.424 Y-43.191 Z2.264
X-177.536 Y-43.063 Z2.233
X-176.717 Y-42.914 Z2.204
X-175.962 Y-42.749 Z2.177
X-175.272 Y-42.571 Z2.152
X-174.643 Y-42.382 Z2.129
X-174.073 Y-42.185 Z2.108
X-173.559 Y-41.982 Z2.089
X-173.099 Y-41.776 Z2.071
X-172.692 Y-41.569 Z2.055
X-172.336 Y-41.363 Z2.041
X-172.031 Y-41.16 Z2.028
X-171.774 Y-40.965 Z2.017
X-171.565 Y-40.78 Z2.007
X-171.4 Y-40.608 Z1.998
X-171.279 Y-40.456 Z1.992
X-171.194 Y-40.324 Z1.986
X-171.14 Y-40.215 Z1.982
X-171.109 Y-40.127 Z1.979
X-171.095 Y-40.056 Z1.976
X-171.091 Y-40.004 Z1.974
X-171.096 Y-39.939 Z1.972
X-171.111 Y-39.868 Z1.97
X-171.14 Y-39.784 Z1.966
X-171.195 Y-39.674 Z1.962
X-171.281 Y-39.542 Z1.957
X-171.403 Y-39.389 Z1.95
X-171.566 Y-39.22 Z1.942
X-171.772 Y-39.037 Z1.932
X-172.024 Y-38.844 Z1.921
X-172.324 Y-38.645 Z1.908
X-172.672 Y-38.442 Z1.894
X-173.069 Y-38.238 Z1.879
X-173.514 Y-38.036 Z1.862
X-174.011 Y-37.838 Z1.843
X-174.56 Y-37.645 Z1.823
X-175.162 Y-37.461 Z1.801
X-175.819 Y-37.286 Z1.777
X-176.532 Y-37.123 Z1.751
X-177.305 Y-36.976 Z1.724
X-178.139 Y-36.846 Z1.694
X-179.033 Y-36.739 Z1.663
X-179.986 Y-36.657 Z1.63
X-180.991 Y-36.605 Z1.594
X-182.03 Y-36.588 Z1.558
X-183.08 Y-36.607 Z1.521
X-184.109 Y-36.663 Z1.485
X-185.091 Y-36.752 Z1.451
X-186.013 Y-36.868 Z1.419
X-186.869 Y-37.007 Z1.388
X-187.656 Y-37.164 Z1.36
X-188.379 Y-37.336 Z1.334
X-189.039 Y-37.519 Z1.31
X-189.64 Y-37.712 Z1.288
X-190.182 Y-37.912 Z1.268
X-190.67 Y-38.117 Z1.25
X-191.104 Y-38.324 Z1.233
X-191.486 Y-38.531 Z1.218
X-191.817 Y-38.736 Z1.204
X-192.099 Y-38.935 Z1.192
X-192.333 Y-39.126 Z1.182
X-192.52 Y-39.304 Z1.173
X-192.662 Y-39.467 Z1.165
X-192.766 Y-39.611 Z1.159
X-192.836 Y-39.733 Z1.154
X-192.877 Y-39.831 Z1.15
X-192.899 Y-39.906 Z1.147
X-192.908 Y-39.972 Z1.145
Y-40.032 Z1.143
X-192.899 Y-40.094 Z1.141
X-192.876 Y-40.173 Z1.138
X-192.834 Y-40.271 Z1.134
X-192.766 Y-40.391 Z1.129
X-192.661 Y-40.535 Z1.123
X-192.519 Y-40.696 Z1.116
X-192.334 Y-40.873 Z1.107
X-192.103 Y-41.062 Z1.096
X-191.827 Y-41.258 Z1.084
X-191.502 Y-41.46 Z1.071
X-191.13 Y-41.663 Z1.056
X-190.707 Y-41.866 Z1.04
X-190.236 Y-42.067 Z1.022
X-189.712 Y-42.262 Z1.003
X-189.135 Y-42.451 Z0.981
X-188.506 Y-42.631 Z0.959
X-187.819 Y-42.8 Z0.934
X-187.076 Y-42.955 Z0.907
X-186.272 Y-43.093 Z0.879
X-185.407 Y-43.212 Z0.848
X-184.482 Y-43.307 Z0.816
X-183.5 Y-43.374 Z0.781
X-182.475 Y-43.408 Z0.746
X-181.427 Y-43.407 Z0.709
X-180.384 Y-43.368 Z0.673
X-179.377 Y-43.295 Z0.637
X-178.424 Y-43.191 Z0.604
X-177.536 Y-43.063 Z0.573
X-176.717 Y-42.914 Z0.543
X-175.962 Y-42.749 Z0.516
X-175.272 Y-42.571 Z0.492
X-174.643 Y-42.382 Z0.469
X-174.073 Y-42.185 Z0.448
X-173.559 Y-41.982 Z0.428
X-173.099 Y-41.776 Z0.411
X-172.692 Y-41.569 Z0.395
X-172.336 Y-41.363 Z0.38
X-172.031 Y-41.16 Z0.368
X-171.774 Y-40.965 Z0.356
X-171.565 Y-40.78 Z0.347
X-171.4 Y-40.608 Z0.338
X-171.279 Y-40.456 Z0.331
X-171.194 Y-40.324 Z0.326
X-171.14 Y-40.215 Z0.322
X-171.109 Y-40.127 Z0.318
X-171.095 Y-40.056 Z0.316
X-171.091 Y-40.004 Z0.314
X-171.096 Y-39.939 Z0.312
X-171.111 Y-39.868 Z0.309
X-171.14 Y-39.784 Z0.306
X-171.195 Y-39.674 Z0.302
X-171.281 Y-39.542 Z0.296
X-171.403 Y-39.389 Z0.29
X-171.566 Y-39.22 Z0.281
X-171.772 Y-39.037 Z0.272
X-172.024 Y-38.844 Z0.261
X-172.324 Y-38.645 Z0.248
X-172.672 Y-38.442 Z0.234
X-173.069 Y-38.238 Z0.218
X-173.514 Y-38.036 Z0.201
X-174.011 Y-37.838 Z0.183
X-174.56 Y-37.645 Z0.162
X-175.162 Y-37.461 Z0.14
X-175.819 Y-37.286 Z0.117
X-176.532 Y-37.123 Z0.091
X-177.305 Y-36.976 Z0.064
X-178.139 Y-36.846 Z0.034
X-179.033 Y-36.739 Z0.003
X-179.986 Y-36.657 Z-0.031
X-180.991 Y-36.605 Z-0.066
X-181.97 Y-36.589 Z-0.1
X-182.03 Y-36.588 F1000
X-183.08 Y-36.607
X-184.109 Y-36.663
X-185.091 Y-36.752
X-186.013 Y-36.868
X-186.869 Y-37.007
X-187.656 Y-37.164
X-188.379 Y-37.336
X-189.039 Y-37.519
X-189.64 Y-37.712
X-190.182 Y-37.912
X-190.67 Y-38.117
X-191.104 Y-38.324
X-191.486 Y-38.531
X-191.817 Y-38.736
X-192.099 Y-38.935
X-192.333 Y-39.126
X-192.52 Y-39.304
X-192.662 Y-39.467
X-192.766 Y-39.611
X-192.836 Y-39.733
X-192.877 Y-39.831
X-192.899 Y-39.906
X-192.908 Y-39.972
Y-40.032
X-192.899 Y-40.094
X-192.876 Y-40.173
X-192.834 Y-40.271
X-192.766 Y-40.391
X-192.661 Y-40.535
X-192.519 Y-40.696
X-192.334 Y-40.873
X-192.103 Y-41.062
X-191.827 Y-41.258
X-191.502 Y-41.46
X-191.13 Y-41.663
X-190.707 Y-41.866
X-190.236 Y-42.067
X-189.712 Y-42.262
X-189.135 Y-42.451
X-188.506 Y-42.631
X-187.819 Y-42.8
X-187.076 Y-42.955
X-186.272 Y-43.093
X-185.407 Y-43.212
X-184.482 Y-43.307
X-183.5 Y-43.374
X-182.475 Y-43.408
X-181.427 Y-43.407
X-180.384 Y-43.368
X-179.377 Y-43.295
X-178.424 Y-43.191
X-177.536 Y-43.063
X-176.717 Y-42.914
X-175.962 Y-42.749
X-175.272 Y-42.571
X-174.643 Y-42.382
X-174.073 Y-42.185
X-173.559 Y-41.982
X-173.099 Y-41.776
X-172.692 Y-41.569
X-172.336 Y-41.363
X-172.031 Y-41.16
X-171.774 Y-40.965
X-171.565 Y-40.78
X-171.4 Y-40.608
X-171.279 Y-40.456
X-171.194 Y-40.324
X-171.14 Y-40.215
X-171.109 Y-40.127
X-171.095 Y-40.056
X-171.091 Y-40.004
X-171.096 Y-39.939
X-171.111 Y-39.868
X-171.14 Y-39.784
X-171.195 Y-39.674
X-171.281 Y-39.542
X-171.403 Y-39.389
X-171.566 Y-39.22
X-171.772 Y-39.037
X-172.024 Y-38.844
X-172.324 Y-38.645
X-172.672 Y-38.442
X-173.069 Y-38.238
X-173.514 Y-38.036
X-174.011 Y-37.838
X-174.56 Y-37.645
X-175.162 Y-37.461
X-175.819 Y-37.286
X-176.532 Y-37.123
X-177.305 Y-36.976
X-178.139 Y-36.846
X-179.033 Y-36.739
X-179.986 Y-36.657
X-180.991 Y-36.605
X-181.97 Y-36.589
X-182.03 Y-36.588 Z-0.102 F333.3
X-183.08 Y-36.607 Z-0.139
X-184.109 Y-36.663 Z-0.175
X-185.091 Y-36.752 Z-0.209
X-186.013 Y-36.868 Z-0.242
X-186.869 Y-37.007 Z-0.272
X-187.656 Y-37.164 Z-0.3
X-188.379 Y-37.336 Z-0.326
X-189.039 Y-37.519 Z-0.35
X-189.64 Y-37.712 Z-0.372
X-190.182 Y-37.912 Z-0.392
X-190.392 Y-38 Z-0.4
X-190.67 Y-38.117 F1000
X-191.104 Y-38.324
X-191.486 Y-38.531
X-191.817 Y-38.736
X-192.099 Y-38.935
X-192.333 Y-39.126
X-192.52 Y-39.304
X-192.662 Y-39.467
X-192.766 Y-39.611
X-192.836 Y-39.733
X-192.877 Y-39.831
X-192.899 Y-39.906
X-192.908 Y-39.972
Y-40.032
X-192.899 Y-40.094
X-192.876 Y-40.173
X-192.834 Y-40.271
X-192.766 Y-40.391
X-192.661 Y-40.535
X-192.519 Y-40.696
X-192.334 Y-40.873
X-192.103 Y-41.062
X-191.827 Y-41.258
X-191.502 Y-41.46
X-191.13 Y-41.663
X-190.707 Y-41.866
X-190.236 Y-42.067
X-189.712 Y-42.262
X-189.135 Y-42.451
X-188.506 Y-42.631
X-187.819 Y-42.8
X-187.076 Y-42.955
X-186.272 Y-43.093
X-185.407 Y-43.212
X-184.482 Y-43.307
X-183.5 Y-43.374
X-182.475 Y-43.408
X-181.427 Y-43.407
X-180.384 Y-43.368
X-179.377 Y-43.295
X-178.424 Y-43.191
X-177.536 Y-43.063
X-176.717 Y-42.914
X-175.962 Y-42.749
X-175.272 Y-42.571
X-174.643 Y-42.382
X-174.073 Y-42.185
X-173.559 Y-41.982
X-173.099 Y-41.776
X-172.692 Y-41.569
X-172.336 Y-41.363
X-172.031 Y-41.16
X-171.774 Y-40.965
X-171.565 Y-40.78
X-171.4 Y-40.608
X-171.279 Y-40.456
X-171.194 Y-40.324
X-171.14 Y-40.215
X-171.109 Y-40.127
X-171.095 Y-40.056
X-171.091 Y-40.004
X-171.096 Y-39.939
X-171.111 Y-39.868
X-171.14 Y-39.784
X-171.195 Y-39.674
X-171.281 Y-39.542
X-171.403 Y-39.389
X-171.566 Y-39.22
X-171.772 Y-39.037
X-172.024 Y-38.844
X-172.324 Y-38.645
X-172.672 Y-38.442
X-173.069 Y-38.238
X-173.514 Y-38.036
X-174.011 Y-37.838
X-174.56 Y-37.645
X-175.162 Y-37.461
X-175.819 Y-37.286
X-176.532 Y-37.123
X-177.305 Y-36.976
X-178.139 Y-36.846
X-179.033 Y-36.739
X-179.986 Y-36.657
X-180.991 Y-36.605
X-181.97 Y-36.589
X-182.03 Y-36.588
X-183.08 Y-36.607
X-184.109 Y-36.663
X-185.091 Y-36.752
X-186.013 Y-36.868
X-186.869 Y-37.007
X-187.656 Y-37.164
X-188.379 Y-37.336
X-189.039 Y-37.519
X-189.64 Y-37.712
X-190.182 Y-37.912
X-190.392 Y-38
X-190.67 Y-38.117 Z-0.411 F333.3
X-191.104 Y-38.324 Z-0.427
X-191.486 Y-38.531 Z-0.442
X-191.817 Y-38.736 Z-0.456
X-192.099 Y-38.935 Z-0.468
X-192.333 Y-39.126 Z-0.479
X-192.52 Y-39.304 Z-0.488
X-192.662 Y-39.467 Z-0.495
X-192.766 Y-39.611 Z-0.501
X-192.836 Y-39.733 Z-0.506
X-192.877 Y-39.831 Z-0.51
X-192.899 Y-39.906 Z-0.513
X-192.908 Y-39.972 Z-0.515
Y-40.032 Z-0.517
X-192.899 Y-40.094 Z-0.519
X-192.876 Y-40.173 Z-0.522
X-192.834 Y-40.271 Z-0.526
X-192.766 Y-40.391 Z-0.531
X-192.661 Y-40.535 Z-0.537
X-192.519 Y-40.696 Z-0.545
X-192.334 Y-40.873 Z-0.553
X-192.103 Y-41.062 Z-0.564
X-191.827 Y-41.258 Z-0.576
X-191.502 Y-41.46 Z-0.589
X-191.13 Y-41.663 Z-0.604
X-190.707 Y-41.866 Z-0.62
X-190.236 Y-42.067 Z-0.638
X-189.712 Y-42.262 Z-0.658
X-189.135 Y-42.451 Z-0.679
X-188.554 Y-42.618 Z-0.7
X-188.506 Y-42.631 F1000
X-187.819 Y-42.8
X-187.076 Y-42.955
X-186.272 Y-43.093
X-185.407 Y-43.212
X-184.482 Y-43.307
X-183.5 Y-43.374
X-182.475 Y-43.408
X-181.427 Y-43.407
X-180.384 Y-43.368
X-179.377 Y-43.295
X-178.424 Y-43.191
X-177.536 Y-43.063
X-176.717 Y-42.914
X-175.962 Y-42.749
X-175.272 Y-42.571
X-174.643 Y-42.382
X-174.073 Y-42.185
X-173.559 Y-41.982
X-173.099 Y-41.776
X-172.692 Y-41.569
X-172.336 Y-41.363
X-172.031 Y-41.16
X-171.774 Y-40.965
X-171.565 Y-40.78
X-171.4 Y-40.608
X-171.279 Y-40.456
X-171.194 Y-40.324
X-171.14 Y-40.215
X-171.109 Y-40.127
X-171.095 Y-40.056
X-171.091 Y-40.004
X-171.096 Y-39.939
X-171.111 Y-39.868
X-171.14 Y-39.784
X-171.195 Y-39.674
X-171.281 Y-39.542
X-171.403 Y-39.389
X-171.566 Y-39.22
X-171.772 Y-39.037
X-172.024 Y-38.844
X-172.324 Y-38.645
X-172.672 Y-38.442
X-173.069 Y-38.238
X-173.514 Y-38.036
X-174.011 Y-37.838
X-174.56 Y-37.645
X-175.162 Y-37.461
X-175.819 Y-37.286
X-176.532 Y-37.123
X-177.305 Y-36.976
X-178.139 Y-36.846
X-179.033 Y-36.739
X-179.986 Y-36.657
X-180.991 Y-36.605
X-182.03 Y-36.588
X-183.08 Y-36.607
X-184.109 Y-36.663
X-185.091 Y-36.752
X-186.013 Y-36.868
X-186.869 Y-37.007
X-187.656 Y-37.164
X-188.379 Y-37.336
X-189.039 Y-37.519
X-189.64 Y-37.712
X-190.182 Y-37.912
X-190.67 Y-38.117
X-191.104 Y-38.324
X-191.486 Y-38.531
X-191.817 Y-38.736
X-192.099 Y-38.935
X-192.333 Y-39.126
X-192.52 Y-39.304
X-192.662 Y-39.467
X-192.766 Y-39.611
X-192.836 Y-39.733
X-192.877 Y-39.831
X-192.899 Y-39.906
X-192.908 Y-39.972
Y-40.032
X-192.899 Y-40.094
X-192.876 Y-40.173
X-192.834 Y-40.271
X-192.766 Y-40.391
X-192.661 Y-40.535
X-192.519 Y-40.696
X-192.334 Y-40.873
X-192.103 Y-41.062
X-191.827 Y-41.258
X-191.502 Y-41.46
X-191.13 Y-41.663
X-190.707 Y-41.866
X-190.236 Y-42.067
X-189.712 Y-42.262
X-189.135 Y-42.451
X-188.554 Y-42.618
X-188.506 Y-42.631 Z-0.702 F333.3
X-187.819 Y-42.8 Z-0.726
X-187.076 Y-42.955 Z-0.753
X-186.272 Y-43.093 Z-0.781
X-185.407 Y-43.212 Z-0.812
X-184.482 Y-43.307 Z-0.844
X-183.5 Y-43.374 Z-0.879
X-182.475 Y-43.408 Z-0.915
X-181.427 Y-43.407 Z-0.951
X-180.384 Y-43.368 Z-0.988
X-180.03 Y-43.342 Z-1
X-179.377 Y-43.295 F1000
X-178.424 Y-43.191
X-177.536 Y-43.063
X-176.717 Y-42.914
X-175.962 Y-42.749
X-175.272 Y-42.571
X-174.643 Y-42.382
X-174.073 Y-42.185
X-173.559 Y-41.982
X-173.099 Y-41.776
X-172.692 Y-41.569
X-172.336 Y-41.363
X-172.031 Y-41.16
X-171.774 Y-40.965
X-171.565 Y-40.78
X-171.4 Y-40.608
X-171.279 Y-40.456
X-171.194 Y-40.324
X-171.14 Y-40.215
X-171.109 Y-40.127
X-171.095 Y-40.056
X-171.091 Y-40.004
X-171.096 Y-39.939
X-171.111 Y-39.868
X-171.14 Y-39.784
X-171.195 Y-39.674
X-171.281 Y-39.542
X-171.403 Y-39.389
X-171.566 Y-39.22
X-171.772 Y-39.037
X-172.024 Y-38.844
X-172.324 Y-38.645
X-172.672 Y-38.442
X-173.069 Y-38.238
X-173.514 Y-38.036
X-174.011 Y-37.838
X-174.56 Y-37.645
X-175.162 Y-37.461
X-175.819 Y-37.286
X-176.532 Y-37.123
X-177.305 Y-36.976
X-178.139 Y-36.846
X-179.033 Y-36.739
X-179.986 Y-36.657
X-180.991 Y-36.605
X-182.03 Y-36.588
X-183.08 Y-36.607
X-184.109 Y-36.663
X-185.091 Y-36.752
X-186.013 Y-36.868
X-186.869 Y-37.007
X-187.656 Y-37.164
X-188.379 Y-37.336
X-189.039 Y-37.519
X-189.64 Y-37.712
X-190.182 Y-37.912
X-190.67 Y-38.117
X-191.104 Y-38.324
X-191.486 Y-38.531
X-191.817 Y-38.736
X-192.099 Y-38.935
X-192.333 Y-39.126
X-192.52 Y-39.304
X-192.662 Y-39.467
X-192.766 Y-39.611
X-192.836 Y-39.733
X-192.877 Y-39.831
X-192.899 Y-39.906
X-192.908 Y-39.972
Y-40.032
X-192.899 Y-40.094
X-192.876 Y-40.173
X-192.834 Y-40.271
X-192.766 Y-40.391
X-192.661 Y-40.535
X-192.519 Y-40.696
X-192.334 Y-40.873
X-192.103 Y-41.062
X-191.827 Y-41.258
X-191.502 Y-41.46
X-191.13 Y-41.663
X-190.707 Y-41.866
X-190.236 Y-42.067
X-189.712 Y-42.262
X-189.135 Y-42.451
X-188.554 Y-42.618
X-188.506 Y-42.631
X-187.819 Y-42.8
X-187.076 Y-42.955
X-186.272 Y-43.093
X-185.407 Y-43.212
X-184.482 Y-43.307
X-183.5 Y-43.374
X-182.475 Y-43.408
X-181.427 Y-43.407
X-180.384 Y-43.368
X-180.03 Y-43.342
X-179.377 Y-43.295 Z-1.023 F333.3
X-178.424 Y-43.191 Z-1.056
X-177.536 Y-43.063 Z-1.088
X-176.717 Y-42.914 Z-1.117
X-175.962 Y-42.749 Z-1.144
X-175.272 Y-42.571 Z-1.169
X-174.643 Y-42.382 Z-1.192
X-174.073 Y-42.185 Z-1.213
X-173.559 Y-41.982 Z-1.232
X-173.099 Y-41.776 Z-1.25
X-172.692 Y-41.569 Z-1.265
X-172.336 Y-41.363 Z-1.28
X-172.031 Y-41.16 Z-1.293
X-171.863 Y-41.032 Z-1.3
X-171.774 Y-40.965 F1000
X-171.565 Y-40.78
X-171.4 Y-40.608
X-171.279 Y-40.456
X-171.194 Y-40.324
X-171.14 Y-40.215
X-171.109 Y-40.127
X-171.095 Y-40.056
X-171.091 Y-40.004
X-171.096 Y-39.939
X-171.111 Y-39.868
X-171.14 Y-39.784
X-171.195 Y-39.674
X-171.281 Y-39.542
X-171.403 Y-39.389
X-171.566 Y-39.22
X-171.772 Y-39.037
X-172.024 Y-38.844
X-172.324 Y-38.645
X-172.672 Y-38.442
X-173.069 Y-38.238
X-173.514 Y-38.036
X-174.011 Y-37.838
X-174.56 Y-37.645
X-175.162 Y-37.461
X-175.819 Y-37.286
X-176.532 Y-37.123
X-177.305 Y-36.976
X-178.139 Y-36.846
X-179.033 Y-36.739
X-179.986 Y-36.657
X-180.991 Y-36.605
X-182.03 Y-36.588
X-183.08 Y-36.607
X-184.109 Y-36.663
X-185.091 Y-36.752
X-186.013 Y-36.868
X-186.869 Y-37.007
X-187.656 Y-37.164
X-188.379 Y-37.336
X-189.039 Y-37.519
X-189.64 Y-37.712
X-190.182 Y-37.912
X-190.67 Y-38.117
X-191.104 Y-38.324
X-191.486 Y-38.531
X-191.817 Y-38.736
X-192.099 Y-38.935
X-192.333 Y-39.126
X-192.52 Y-39.304
X-192.662 Y-39.467
X-192.766 Y-39.611
X-192.836 Y-39.733
X-192.877 Y-39.831
X-192.899 Y-39.906
X-192.908 Y-39.972
Y-40.032
X-192.899 Y-40.094
X-192.876 Y-40.173
X-192.834 Y-40.271
X-192.766 Y-40.391
X-192.661 Y-40.535
X-192.519 Y-40.696
X-192.334 Y-40.873
X-192.103 Y-41.062
X-191.827 Y-41.258
X-191.502 Y-41.46
X-191.13 Y-41.663
X-190.707 Y-41.866
X-190.236 Y-42.067
X-189.712 Y-42.262
X-189.135 Y-42.451
X-188.506 Y-42.631
X-187.819 Y-42.8
X-187.076 Y-42.955
X-186.272 Y-43.093
X-185.407 Y-43.212
X-184.482 Y-43.307
X-183.5 Y-43.374
X-182.475 Y-43.408
X-181.427 Y-43.407
X-180.384 Y-43.368
X-179.377 Y-43.295
X-178.424 Y-43.191
X-177.536 Y-43.063
X-176.717 Y-42.914
X-175.962 Y-42.749
X-175.272 Y-42.571
X-174.643 Y-42.382
X-174.073 Y-42.185
X-173.559 Y-41.982
X-173.099 Y-41.776
X-172.692 Y-41.569
X-172.336 Y-41.363
X-172.031 Y-41.16
X-171.863 Y-41.032
X-171.774 Y-40.965 Z-1.304 F333.3
X-171.565 Y-40.78 Z-1.314
X-171.4 Y-40.608 Z-1.322
X-171.279 Y-40.456 Z-1.329
X-171.194 Y-40.324 Z-1.334
X-171.14 Y-40.215 Z-1.338
X-171.109 Y-40.127 Z-1.342
X-171.095 Y-40.056 Z-1.344
X-171.091 Y-40.004 Z-1.346
X-171.096 Y-39.939 Z-1.348
X-171.111 Y-39.868 Z-1.351
X-171.14 Y-39.784 Z-1.354
X-171.195 Y-39.674 Z-1.358
X-171.281 Y-39.542 Z-1.364
X-171.403 Y-39.389 Z-1.371
X-171.566 Y-39.22 Z-1.379
X-171.772 Y-39.037 Z-1.388
X-172.024 Y-38.844 Z-1.4
X-172.324 Y-38.645 Z-1.412
X-172.672 Y-38.442 Z-1.426
X-173.069 Y-38.238 Z-1.442
X-173.514 Y-38.036 Z-1.459
X-174.011 Y-37.838 Z-1.478
X-174.56 Y-37.645 Z-1.498
X-175.162 Y-37.461 Z-1.52
X-175.819 Y-37.286 Z-1.544
X-176.532 Y-37.123 Z-1.569
X-177.305 Y-36.976 Z-1.597
X-177.402 Y-36.961 Z-1.6
X-178.139 Y-36.846 F1000
X-179.033 Y-36.739
X-179.986 Y-36.657
X-180.991 Y-36.605
X-182.03 Y-36.588
X-183.08 Y-36.607
X-184.109 Y-36.663
X-185.091 Y-36.752
X-186.013 Y-36.868
X-186.869 Y-37.007
X-187.656 Y-37.164
X-188.379 Y-37.336
X-189.039 Y-37.519
X-189.64 Y-37.712
X-190.182 Y-37.912
X-190.67 Y-38.117
X-191.104 Y-38.324
X-191.486 Y-38.531
X-191.817 Y-38.736
X-192.099 Y-38.935
X-192.333 Y-39.126
X-192.52 Y-39.304
X-192.662 Y-39.467
X-192.766 Y-39.611
X-192.836 Y-39.733
X-192.877 Y-39.831
X-192.899 Y-39.906
X-192.908 Y-39.972
Y-40.032
X-192.899 Y-40.094
X-192.876 Y-40.173
X-192.834 Y-40.271
X-192.766 Y-40.391
X-192.661 Y-40.535
X-192.519 Y-40.696
X-192.334 Y-40.873
X-192.103 Y-41.062
X-191.827 Y-41.258
X-191.502 Y-41.46
X-191.13 Y-41.663
X-190.707 Y-41.866
X-190.236 Y-42.067
X-189.712 Y-42.262
X-189.135 Y-42.451
X-188.506 Y-42.631
X-187.819 Y-42.8
X-187.076 Y-42.955
X-186.272 Y-43.093
X-185.407 Y-43.212
X-184.482 Y-43.307
X-183.5 Y-43.374
X-182.475 Y-43.408
X-181.427 Y-43.407
X-180.384 Y-43.368
X-179.377 Y-43.295
X-178.424 Y-43.191
X-177.536 Y-43.063
X-176.717 Y-42.914
X-175.962 Y-42.749
X-175.272 Y-42.571
X-174.643 Y-42.382
X-174.073 Y-42.185
X-173.559 Y-41.982
X-173.099 Y-41.776
X-172.692 Y-41.569
X-172.336 Y-41.363
X-172.031 Y-41.16
X-171.863 Y-41.032
X-171.774 Y-40.965
X-171.565 Y-40.78
X-171.4 Y-40.608
X-171.279 Y-40.456
X-171.194 Y-40.324
X-171.14 Y-40.215
X-171.109 Y-40.127
X-171.095 Y-40.056
X-171.091 Y-40.004
X-171.096 Y-39.939
X-171.111 Y-39.868
X-171.14 Y-39.784
X-171.195 Y-39.674
X-171.281 Y-39.542
X-171.403 Y-39.389
X-171.566 Y-39.22
X-171.772 Y-39.037
X-172.024 Y-38.844
X-172.324 Y-38.645
X-172.672 Y-38.442
X-173.069 Y-38.238
X-173.514 Y-38.036
X-174.011 Y-37.838
X-174.56 Y-37.645
X-175.162 Y-37.461
X-175.819 Y-37.286
X-176.532 Y-37.123
X-177.305 Y-36.976
X-177.402 Y-36.961
X-178.139 Y-36.846 Z-1.626 F333.3
X-179.033 Y-36.739 Z-1.657
X-179.986 Y-36.657 Z-1.691
X-180.991 Y-36.605 Z-1.726
X-182.03 Y-36.588 Z-1.762
X-183.08 Y-36.607 Z-1.799
X-184.109 Y-36.663 Z-1.835
X-185.091 Y-36.752 Z-1.869
X-185.96 Y-36.861 Z-1.9
X-186.013 Y-36.868 F1000
X-186.869 Y-37.007
X-187.656 Y-37.164
X-188.379 Y-37.336
X-189.039 Y-37.519
X-189.64 Y-37.712
X-190.182 Y-37.912
X-190.67 Y-38.117
X-191.104 Y-38.324
X-191.486 Y-38.531
X-191.817 Y-38.736
X-192.099 Y-38.935
X-192.333 Y-39.126
X-192.52 Y-39.304
X-192.662 Y-39.467
X-192.766 Y-39.611
X-192.836 Y-39.733
X-192.877 Y-39.831
X-192.899 Y-39.906
X-192.908 Y-39.972
Y-40.032
X-192.899 Y-40.094
X-192.876 Y-40.173
X-192.834 Y-40.271
X-192.766 Y-40.391
X-192.661 Y-40.535
X-192.519 Y-40.696
X-192.334 Y-40.873
X-192.103 Y-41.062
X-191.827 Y-41.258
X-191.502 Y-41.46
X-191.13 Y-41.663
X-190.707 Y-41.866
X-190.236 Y-42.067
X-189.712 Y-42.262
X-189.135 Y-42.451
X-188.506 Y-42.631
X-187.819 Y-42.8
X-187.076 Y-42.955
X-186.272 Y-43.093
X-185.407 Y-43.212
X-184.482 Y-43.307
X-183.5 Y-43.374
X-182.475 Y-43.408
X-181.427 Y-43.407
X-180.384 Y-43.368
X-179.377 Y-43.295
X-178.424 Y-43.191
X-177.536 Y-43.063
X-176.717 Y-42.914
X-175.962 Y-42.749
X-175.272 Y-42.571
X-174.643 Y-42.382
X-174.073 Y-42.185
X-173.559 Y-41.982
X-173.099 Y-41.776
X-172.692 Y-41.569
X-172.336 Y-41.363
X-172.031 Y-41.16
X-171.774 Y-40.965
X-171.565 Y-40.78
X-171.4 Y-40.608
X-171.279 Y-40.456
X-171.194 Y-40.324
X-171.14 Y-40.215
X-171.109 Y-40.127
X-171.095 Y-40.056
X-171.091 Y-40.004
X-171.096 Y-39.939
X-171.111 Y-39.868
X-171.14 Y-39.784
X-171.195 Y-39.674
X-171.281 Y-39.542
X-171.403 Y-39.389
X-171.566 Y-39.22
X-171.772 Y-39.037
X-172.024 Y-38.844
X-172.324 Y-38.645
X-172.672 Y-38.442
X-173.069 Y-38.238
X-173.514 Y-38.036
X-174.011 Y-37.838
X-174.56 Y-37.645
X-175.162 Y-37.461
X-175.819 Y-37.286
X-176.532 Y-37.123
X-177.305 Y-36.976
X-178.139 Y-36.846
X-179.033 Y-36.739
X-179.986 Y-36.657
X-180.991 Y-36.605
X-182.03 Y-36.588
X-183.08 Y-36.607
X-184.109 Y-36.663
X-185.091 Y-36.752
X-185.96 Y-36.861
X-186.013 Y-36.868 Z-1.902 F333.3
X-186.869 Y-37.007 Z-1.932
X-187.656 Y-37.164 Z-1.96
X-188.379 Y-37.336 Z-1.986
X-189.039 Y-37.519 Z-2.01
X-189.64 Y-37.712 Z-2.032
X-190.182 Y-37.912 Z-2.052
X-190.67 Y-38.117 Z-2.071
X-191.104 Y-38.324 Z-2.088
X-191.486 Y-38.531 Z-2.103
X-191.817 Y-38.736 Z-2.116
X-192.099 Y-38.935 Z-2.128
X-192.333 Y-39.126 Z-2.139
X-192.52 Y-39.304 Z-2.148
X-192.662 Y-39.467 Z-2.155
X-192.766 Y-39.611 Z-2.162
X-192.836 Y-39.733 Z-2.167
X-192.877 Y-39.831 Z-2.17
X-192.899 Y-39.906 Z-2.173
X-192.908 Y-39.972 Z-2.175
Y-40.032 Z-2.177
X-192.899 Y-40.094 Z-2.18
X-192.876 Y-40.173 Z-2.183
X-192.834 Y-40.271 Z-2.186
X-192.766 Y-40.391 Z-2.191
X-192.661 Y-40.535 Z-2.197
X-192.609 Y-40.594 Z-2.2
X-192.519 Y-40.696 F1000
X-192.334 Y-40.873
X-192.103 Y-41.062
X-191.827 Y-41.258
X-191.502 Y-41.46
X-191.13 Y-41.663
X-190.707 Y-41.866
X-190.236 Y-42.067
X-189.712 Y-42.262
X-189.135 Y-42.451
X-188.506 Y-42.631
X-187.819 Y-42.8
X-187.076 Y-42.955
X-186.272 Y-43.093
X-185.407 Y-43.212
X-184.482 Y-43.307
X-183.5 Y-43.374
X-182.475 Y-43.408
X-181.427 Y-43.407
X-180.384 Y-43.368
X-179.377 Y-43.295
X-178.424 Y-43.191
X-177.536 Y-43.063
X-176.717 Y-42.914
X-175.962 Y-42.749
X-175.272 Y-42.571
X-174.643 Y-42.382
X-174.073 Y-42.185
X-173.559 Y-41.982
X-173.099 Y-41.776
X-172.692 Y-41.569
X-172.336 Y-41.363
X-172.031 Y-41.16
X-171.774 Y-40.965
X-171.565 Y-40.78
X-171.4 Y-40.608
X-171.279 Y-40.456
X-171.194 Y-40.324
X-171.14 Y-40.215
X-171.109 Y-40.127
X-171.095 Y-40.056
X-171.091 Y-40.004
X-171.096 Y-39.939
X-171.111 Y-39.868
X-171.14 Y-39.784
X-171.195 Y-39.674
X-171.281 Y-39.542
X-171.403 Y-39.389
X-171.566 Y-39.22
X-171.772 Y-39.037
X-172.024 Y-38.844
X-172.324 Y-38.645
X-172.672 Y-38.442
X-173.069 Y-38.238
X-173.514 Y-38.036
X-174.011 Y-37.838
X-174.56 Y-37.645
X-175.162 Y-37.461
X-175.819 Y-37.286
X-176.532 Y-37.123
X-177.305 Y-36.976
X-178.139 Y-36.846
X-179.033 Y-36.739
X-179.986 Y-36.657
X-180.991 Y-36.605
X-182.03 Y-36.588
X-183.08 Y-36.607
X-184.109 Y-36.663
X-185.091 Y-36.752
X-185.96 Y-36.861
X-186.013 Y-36.868
X-186.869 Y-37.007
X-187.656 Y-37.164
X-188.379 Y-37.336
X-189.039 Y-37.519
X-189.64 Y-37.712
X-190.182 Y-37.912
X-190.67 Y-38.117
X-191.104 Y-38.324
X-191.486 Y-38.531
X-191.817 Y-38.736
X-192.099 Y-38.935
X-192.333 Y-39.126
X-192.52 Y-39.304
X-192.662 Y-39.467
X-192.766 Y-39.611
X-192.836 Y-39.733
X-192.877 Y-39.831
X-192.899 Y-39.906
X-192.908 Y-39.972
Y-40.032
X-192.899 Y-40.094
X-192.876 Y-40.173
X-192.834 Y-40.271
X-192.766 Y-40.391
X-192.661 Y-40.535
X-192.609 Y-40.594
G0 Z10
X-149.851 Y-55.853
Z5.2
G1 Z2.7 F333.3
X-157.998 Y-64.001 Z2.298
G3 X-157.999 Y-65.998 Z2.22 I0.998 J-0.999
X-156.001 Y-65.999 Z2.143 I0.999 J0.998
G1 X-144.002 Y-53.999 Z1.55
G3 X-144.001 Y-52.002 Z1.473 I-0.998 J0.999
X-145.999 Y-52.001 Z1.395 I-0.999 J-0.998
G1 X-157.998 Y-64.001 Z0.803
G3 X-157.999 Y-65.998 Z0.725 I0.998 J-0.999
X-156.001 Y-65.999 Z0.648 I0.999 J0.998
G1 X-144.002 Y-53.999 Z0.055
G3 X-144.001 Y-52.002 Z-0.023 I-0.998 J0.999
X-145.999 Y-52.001 Z-0.1 I-0.999 J-0.998
G1 X-157.998 Y-64.001 F1000
G3 X-157.999 Y-65.998 I0.998 J-0.999
X-156.001 Y-65.999 I0.999 J0.998
G1 X-144.002 Y-53.999
G3 X-144.001 Y-52.002 I-0.998 J0.999
X-145.999 Y-52.001 I-0.999 J-0.998
G1 X-152.073 Y-58.076 Z-0.4 F333.3
X-157.998 Y-64.001 F1000
G3 X-157.999 Y-65.998 I0.998 J-0.999
X-156.001 Y-65.999 I0.999 J0.998
G1 X-144.002 Y-53.999
G3 X-144.001 Y-52.002 I-0.998 J0.999
X-145.999 Y-52.001 I-0.999 J-0.998
G1 X-152.073 Y-58.076
X-157.998 Y-64.001 Z-0.693 F333.3
X-158.07 Y-64.079 Z-0.696
X-158.136 Y-64.161 Z-0.7
G3 X-156.001 Y-65.999 I1.136 J-0.839 F1000
G1 X-144.002 Y-53.999
G3 X-144.001 Y-52.002 I-0.998 J0.999
X-145.999 Y-52.001 I-0.999 J-0.998
G1 X-152.073 Y-58.076
X-157.998 Y-64.001
X-158.07 Y-64.079
X-158.136 Y-64.161
G3 X-156.001 Y-65.999 Z-0.848 I1.136 J-0.839 F333.3
G1 X-152.915 Y-62.912 Z-1
X-144.002 Y-53.999 F1000
G3 X-144.001 Y-52.002 I-0.998 J0.999
X-145.999 Y-52.001 I-0.999 J-0.998
G1 X-157.998 Y-64.001
G3 X-157.999 Y-65.998 I0.998 J-0.999
X-156.001 Y-65.999 I0.999 J0.998
G1 X-152.915 Y-62.912
X-146.84 Y-56.837 Z-1.3 F333.3
X-144.002 Y-53.999 F1000
G3 X-144.001 Y-52.002 I-0.998 J0.999
X-145.999 Y-52.001 I-0.999 J-0.998
G1 X-157.998 Y-64.001
G3 X-157.999 Y-65.998 I0.998 J-0.999
X-156.001 Y-65.999 I0.999 J0.998
G1 X-146.84 Y-56.837
X-144.002 Y-53.999 Z-1.44 F333.3
G3 X-144.001 Y-52.002 Z-1.518 I-0.998 J0.999
X-145.999 Y-52.001 Z-1.595 I-0.999 J-0.998
G1 X-146.097 Y-52.1 Z-1.6
X-157.998 Y-64.001 F1000
G3 X-157.999 Y-65.998 I0.998 J-0.999
X-156.001 Y-65.999 I0.999 J0.998
G1 X-146.84 Y-56.837
X-144.002 Y-53.999
G3 X-144.001 Y-52.002 I-0.998 J0.999
X-145.999 Y-52.001 I-0.999 J-0.998
G1 X-146.097 Y-52.1
X-152.172 Y-58.175 Z-1.9 F333.3
X-157.998 Y-64.001 F1000
G3 X-157.999 Y-65.998 I0.998 J-0.999
X-156.001 Y-65.999 I0.999 J0.998
G1 X-144.002 Y-53.999
G3 X-144.001 Y-52.002 I-0.998 J0.999
X-145.999 Y-52.001 I-0.999 J-0.998
G1 X-152.172 Y-58.175
X-157.998 Y-64.001 Z-2.188 F333.3
G3 X-158.214 Y-64.278 Z-2.2 I0.998 J-0.999
X-156.001 Y-65.999 I1.214 J-0.722 F1000
G1 X-144.002 Y-53.999
G3 X-144.001 Y-52.002 I-0.998 J0.999
X-145.999 Y-52.001 I-0.999 J-0.998
G1 X-152.172 Y-58.175
X-157.998 Y-64.001
G3 X-158.214 Y-64.278 I0.998 J-0.999
G0 Z10
X-138.87 Y-29.307
Z5.2
G1 Z2.7 F333.3
X-138.964 Y-29.514 Z2.692
X-139.162 Y-30.011 Z2.673
X-139.355 Y-30.56 Z2.653
X-139.54 Y-31.162 Z2.631
X-139.714 Y-31.819 Z2.607
X-139.877 Y-32.533 Z2.582
X-140.024 Y-33.305 Z2.554
X-140.153 Y-34.138 Z2.525
X-140.262 Y-35.033 Z2.493
X-140.343 Y-35.986 Z2.46
X-140.395 Y-36.991 Z2.425
X-140.412 Y-38.03 Z2.389
X-140.392 Y-39.079 Z2.352
X-140.336 Y-40.109 Z2.316
X-140.248 Y-41.092 Z2.281
X-140.132 Y-42.013 Z2.249
X-139.994 Y-42.868 Z2.219
X-139.836 Y-43.656 Z2.191
X-139.664 Y-44.38 Z2.165
X-139.481 Y-45.039 Z2.141
X-139.288 Y-45.639 Z2.119
X-139.088 Y-46.182 Z2.099
X-138.883 Y-46.67 Z2.08
X-138.676 Y-47.105 Z2.063
X-138.468 Y-47.487 Z2.048
X-138.264 Y-47.818 Z2.035
X-138.066 Y-48.098 Z2.023
X-137.874 Y-48.332 Z2.012
X-137.695 Y-48.52 Z2.003
X-137.532 Y-48.663 Z1.995
X-137.389 Y-48.766 Z1.989
X-137.268 Y-48.835 Z1.984
X-137.17 Y-48.877 Z1.981
X-137.092 Y-48.899 Z1.978
X-137.028 Y-48.908 Z1.976
X-136.97 Z1.974
X-136.906 Y-48.898 Z1.971
X-136.827 Y-48.876 Z1.968
X-136.729 Y-48.834 Z1.965
X-136.608 Y-48.764 Z1.96
X-136.465 Y-48.661 Z1.954
X-136.304 Y-48.519 Z1.946
X-136.127 Y-48.334 Z1.937
X-135.939 Y-48.104 Z1.927
X-135.741 Y-47.826 Z1.915
X-135.54 Y-47.502 Z1.902
X-135.337 Y-47.13 Z1.887
X-135.133 Y-46.707 Z1.87
X-134.933 Y-46.235 Z1.853
X-134.738 Y-45.713 Z1.833
X-134.549 Y-45.136 Z1.812
X-134.369 Y-44.506 Z1.789
X-134.2 Y-43.82 Z1.764
X-134.045 Y-43.076 Z1.738
X-133.907 Y-42.272 Z1.709
X-133.787 Y-41.407 Z1.679
X-133.693 Y-40.482 Z1.646
X-133.626 Y-39.5 Z1.612
X-133.592 Y-38.475 Z1.576
X-133.593 Y-37.427 Z1.54
X-133.632 Y-36.384 Z1.503
X-133.705 Y-35.376 Z1.468
X-133.808 Y-34.424 Z1.434
X-133.937 Y-33.537 Z1.403
X-134.086 Y-32.717 Z1.374
X-134.251 Y-31.962 Z1.347
X-134.429 Y-31.272 Z1.322
X-134.618 Y-30.643 Z1.299
X-134.815 Y-30.073 Z1.278
X-135.017 Y-29.559 Z1.259
X-135.224 Y-29.099 Z1.241
X-135.431 Y-28.693 Z1.225
X-135.637 Y-28.337 Z1.211
X-135.84 Y-28.03 Z1.198
X-136.035 Y-27.774 Z1.187
X-136.22 Y-27.565 Z1.177
X-136.391 Y-27.401 Z1.169
X-136.544 Y-27.279 Z1.162
X-136.675 Y-27.194 Z1.156
X-136.786 Y-27.14 Z1.152
X-136.873 Y-27.109 Z1.149
X-136.944 Y-27.095 Z1.146
X-136.998 Y-27.091 Z1.145
X-137.06 Y-27.096 Z1.142
X-137.13 Y-27.11 Z1.14
X-137.217 Y-27.141 Z1.137
X-137.326 Y-27.195 Z1.132
X-137.458 Y-27.281 Z1.127
X-137.61 Y-27.403 Z1.12
X-137.78 Y-27.566 Z1.112
X-137.963 Y-27.772 Z1.102
X-138.156 Y-28.024 Z1.091
X-138.356 Y-28.325 Z1.079
X-138.559 Y-28.672 Z1.065
X-138.762 Y-29.068 Z1.049
X-138.964 Y-29.514 Z1.032
X-139.162 Y-30.011 Z1.013
X-139.355 Y-30.56 Z0.993
X-139.54 Y-31.162 Z0.971
X-139.714 Y-31.819 Z0.947
X-139.877 Y-32.533 Z0.922
X-140.024 Y-33.305 Z0.894
X-140.153 Y-34.138 Z0.865
X-140.262 Y-35.033 Z0.833
X-140.343 Y-35.986 Z0.8
X-140.395 Y-36.991 Z0.765
X-140.412 Y-38.03 Z0.728
X-140.392 Y-39.079 Z0.692
X-140.336 Y-40.109 Z0.656
X-140.248 Y-41.092 Z0.621
X-140.132 Y-42.013 Z0.589
X-139.994 Y-42.868 Z0.559
X-139.836 Y-43.656 Z0.531
X-139.664 Y-44.38 Z0.505
X-139.481 Y-45.039 Z0.481
X-139.288 Y-45.639 Z0.459
X-139.088 Y-46.182 Z0.438
X-138.883 Y-46.67 Z0.42
X-138.676 Y-47.105 Z0.403
X-138.468 Y-47.487 Z0.388
X-138.264 Y-47.818 Z0.374
X-138.066 Y-48.098 Z0.362
X-137.874 Y-48.332 Z0.352
X-137.695 Y-48.52 Z0.343
X-137.532 Y-48.663 Z0.335
X-137.389 Y-48.766 Z0.329
X-137.268 Y-48.835 Z0.324
X-137.17 Y-48.877 Z0.32
X-137.092 Y-48.899 Z0.318
X-137.028 Y-48.908 Z0.315
X-136.97 Z0.313
X-136.906 Y-48.898 Z0.311
X-136.827 Y-48.876 Z0.308
X-136.729 Y-48.834 Z0.304
X-136.608 Y-48.764 Z0.3
X-136.465 Y-48.661 Z0.293
X-136.304 Y-48.519 Z0.286
X-136.127 Y-48.334 Z0.277
X-135.939 Y-48.104 Z0.267
X-135.741 Y-47.826 Z0.255
X-135.54 Y-47.502 Z0.241
X-135.337 Y-47.13 Z0.227
X-135.133 Y-46.707 Z0.21
X-134.933 Y-46.235 Z0.192
X-134.738 Y-45.713 Z0.173
X-134.549 Y-45.136 Z0.152
X-134.369 Y-44.506 Z0.129
X-134.2 Y-43.82 Z0.104
X-134.045 Y-43.076 Z0.078
X-133.907 Y-42.272 Z0.049
X-133.787 Y-41.407 Z0.019
X-133.693 Y-40.482 Z-0.014
X-133.626 Y-39.5 Z-0.048
X-133.592 Y-38.475 Z-0.084
Y-38.02 Z-0.1
X-133.593 Y-37.427 F1000
X-133.632 Y-36.384
X-133.705 Y-35.376
X-133.808 Y-34.424
X-133.937 Y-33.537
X-134.086 Y-32.717
X-134.251 Y-31.962
X-134.429 Y-31.272
X-134.618 Y-30.643
X-134.815 Y-30.073
X-135.017 Y-29.559
X-135.224 Y-29.099
X-135.431 Y-28.693
X-135.637 Y-28.337
X-135.84 Y-28.03
X-136.035 Y-27.774
X-136.22 Y-27.565
X-136.391 Y-27.401
X-136.544 Y-27.279
X-136.675 Y-27.194
X-136.786 Y-27.14
X-136.873 Y-27.109
X-136.944 Y-27.095
X-136.998 Y-27.091
X-137.06 Y-27.096
X-137.13 Y-27.11
X-137.217 Y-27.141
X-137.326 Y-27.195
X-137.458 Y-27.281
X-137.61 Y-27.403
X-137.78 Y-27.566
X-137.963 Y-27.772
X-138.156 Y-28.024
X-138.356 Y-28.325
X-138.559 Y-28.672
X-138.762 Y-29.068
X-138.964 Y-29.514
X-139.162 Y-30.011
X-139.355 Y-30.56
X-139.54 Y-31.162
X-139.714 Y-31.819
X-139.877 Y-32.533
X-140.024 Y-33.305
X-140.153 Y-34.138
X-140.262 Y-35.033
X-140.343 Y-35.986
X-140.395 Y-36.991
X-140.412 Y-38.03
X-140.392 Y-39.079
X-140.336 Y-40.109
X-140.248 Y-41.092
X-140.132 Y-42.013
X-139.994 Y-42.868
X-139.836 Y-43.656
X-139.664 Y-44.38
X-139.481 Y-45.039
X-139.288 Y-45.639
X-139.088 Y-46.182
X-138.883 Y-46.67
X-138.676 Y-47.105
X-138.468 Y-47.487
X-138.264 Y-47.818
X-138.066 Y-48.098
X-137.874 Y-48.332
X-137.695 Y-48.52
X-137.532 Y-48.663
X-137.389 Y-48.766
X-137.268 Y-48.835
X-137.17 Y-48.877
X-137.092 Y-48.899
X-137.028 Y-48.908
X-136.97
X-136.906 Y-48.898
X-136.827 Y-48.876
X-136.729 Y-48.834
X-136.608 Y-48.764
X-136.465 Y-48.661
X-136.304 Y-48.519
X-136.127 Y-48.334
X-135.939 Y-48.104
X-135.741 Y-47.826
X-135.54 Y-47.502
X-135.337 Y-47.13
X-135.133 Y-46.707
X-134.933 Y-46.235
X-134.738 Y-45.713
X-134.549 Y-45.136
