(X500_Arm)
(T5  D=3.175 CR=0 - ZMIN=-15.5 - Schaftfraser)
G90 G94
G17
G21

(Bohrfrasen2)
T5
S4000 M3
G54
G0 X-29.449 Y-0.788
Z15
Z2.2
G1 Z0.517 F1000
X-29.455 Y-0.793 Z0.447
X-29.473 Y-0.808 Z0.38
X-29.502 Y-0.833 Z0.32
X-29.541 Y-0.865 Z0.269
X-29.587 Y-0.903 Z0.231
X-29.639 Y-0.946 Z0.208
X-29.693 Y-0.991 Z0.2
X-29.816 Y-1.092
G3 X-29.858 Y-1.539 I0.203 J-0.244
X-26.142 Y1.539 Z0.13 I1.858 J1.539
X-29.858 Y-1.539 Z0.06 I-1.858 J-1.539
X-26.142 Y1.539 Z-0.009 I1.858 J1.539
X-29.858 Y-1.539 Z-0.079 I-1.858 J-1.539
X-26.142 Y1.539 Z-0.149 I1.858 J1.539
X-29.858 Y-1.539 Z-0.219 I-1.858 J-1.539
X-26.142 Y1.539 Z-0.289 I1.858 J1.539
X-29.858 Y-1.539 Z-0.359 I-1.858 J-1.539
X-26.142 Y1.539 Z-0.428 I1.858 J1.539
X-29.858 Y-1.539 Z-0.498 I-1.858 J-1.539
X-26.142 Y1.539 Z-0.568 I1.858 J1.539
X-29.858 Y-1.539 Z-0.638 I-1.858 J-1.539
X-26.142 Y1.539 Z-0.708 I1.858 J1.539
X-29.858 Y-1.539 Z-0.777 I-1.858 J-1.539
X-26.142 Y1.539 Z-0.847 I1.858 J1.539
X-29.858 Y-1.539 Z-0.917 I-1.858 J-1.539
X-26.142 Y1.539 Z-0.987 I1.858 J1.539
X-29.858 Y-1.539 Z-1.057 I-1.858 J-1.539
X-26.142 Y1.539 Z-1.127 I1.858 J1.539
X-29.684 Y1.727 Z-1.163 I-1.858 J-1.539
X-29.585 Y-1.818 Z-1.2 I1.684 J-1.727
X-26.415 Y1.818 I1.585 J1.818
X-29.585 Y-1.818 I-1.585 J-1.818
X-29.138 Y-1.788 I0.209 J0.239
G1 X-29.033 Y-1.668
X-28.987 Y-1.615 Z-1.192
X-28.943 Y-1.564 Z-1.169
X-28.903 Y-1.519 Z-1.131
X-28.87 Y-1.481 Z-1.08
X-28.845 Y-1.452 Z-1.02
X-28.83 Y-1.435 Z-0.953
X-28.825 Y-1.429 Z-0.882
G0 Z5
X-21.619 Y0.317
Z2.2
G1 Z0.517 F1000
G18 G3 X-21.936 Z0.2 I-0.318 K0
G1 X-22.095
G17 G3 X-22.413 Y0 I0 J-0.317
X-17.587 Y0 Z0.13 I2.413 J0
X-22.413 Y0 Z0.06 I-2.413 J0
X-17.587 Y0 Z-0.009 I2.413 J0
X-22.413 Y0 Z-0.079 I-2.413 J0
X-17.587 Y0 Z-0.149 I2.413 J0
X-22.413 Y0 Z-0.219 I-2.413 J0
X-17.587 Y0 Z-0.289 I2.413 J0
X-22.413 Y0 Z-0.359 I-2.413 J0
X-17.587 Y0 Z-0.428 I2.413 J0
X-22.413 Y0 Z-0.498 I-2.413 J0
X-17.587 Y0 Z-0.568 I2.413 J0
X-22.413 Y0 Z-0.638 I-2.413 J0
X-17.587 Y0 Z-0.708 I2.413 J0
X-22.413 Y0 Z-0.777 I-2.413 J0
X-17.587 Y0 Z-0.847 I2.413 J0
X-22.413 Y0 Z-0.917 I-2.413 J0
X-17.587 Y0 Z-0.987 I2.413 J0
X-22.413 Y0 Z-1.057 I-2.413 J0
X-17.587 Y0 Z-1.127 I2.413 J0
X-20.195 Y2.405 Z-1.163 I-2.413 J0
X-22.381 Y-0.389 Z-1.2 I0.195 J-2.405
X-17.619 Y0.389 I2.381 J0.389
X-22.381 Y-0.389 I-2.381 J-0.389
X-22.017 Y-0.651 I0.313 J0.051
G1 X-21.86 Y-0.625
X-21.79 Y-0.614 Z-1.192
X-21.724 Y-0.603 Z-1.169
X-21.664 Y-0.593 Z-1.131
X-21.615 Y-0.585 Z-1.08
X-21.578 Y-0.579 Z-1.02
X-21.554 Y-0.575 Z-0.953
X-21.546 Y-0.574 Z-0.882
G0 Z5
X-13.619 Y0.317
Z2.2
G1 Z0.517 F1000
G18 G3 X-13.936 Z0.2 I-0.318 K0
G1 X-14.095
G17 G3 X-14.413 Y0 I0 J-0.317
X-9.587 Y0 Z0.13 I2.413 J0
X-14.413 Y0 Z0.06 I-2.413 J0
X-9.587 Y0 Z-0.009 I2.413 J0
X-14.413 Y0 Z-0.079 I-2.413 J0
X-9.587 Y0 Z-0.149 I2.413 J0
X-14.413 Y0 Z-0.219 I-2.413 J0
X-9.587 Y0 Z-0.289 I2.413 J0
X-14.413 Y0 Z-0.359 I-2.413 J0
X-9.587 Y0 Z-0.428 I2.413 J0
X-14.413 Y0 Z-0.498 I-2.413 J0
X-9.587 Y0 Z-0.568 I2.413 J0
X-14.413 Y0 Z-0.638 I-2.413 J0
X-9.587 Y0 Z-0.708 I2.413 J0
X-14.413 Y0 Z-0.777 I-2.413 J0
X-9.587 Y0 Z-0.847 I2.413 J0
X-14.413 Y0 Z-0.917 I-2.413 J0
X-9.587 Y0 Z-0.987 I2.413 J0
X-14.413 Y0 Z-1.057 I-2.413 J0
X-9.587 Y0 Z-1.127 I2.413 J0
X-12.195 Y2.405 Z-1.163 I-2.413 J0
X-14.381 Y-0.389 Z-1.2 I0.195 J-2.405
X-9.619 Y0.389 I2.381 J0.389
X-14.381 Y-0.389 I-2.381 J-0.389
X-14.017 Y-0.651 I0.313 J0.051
G1 X-13.86 Y-0.625
X-13.79 Y-0.614 Z-1.192
X-13.724 Y-0.603 Z-1.169
X-13.664 Y-0.593 Z-1.131
X-13.615 Y-0.585 Z-1.08
X-13.578 Y-0.579 Z-1.02
X-13.554 Y-0.575 Z-0.953
X-13.546 Y-0.574 Z-0.882
G0 Z15

(Bohrfrasen2 2)
X-27.992 Y0.112
Z15
Z-12.118
G1 Z-13.8 F1000
X-28.114 Y0.011
X-28.134 Y-0.014
X-28.143 Y-0.044
X-28.14 Y-0.076
X-28.125 Y-0.104
G3 X-27.875 Y0.104 Z-13.831 I0.125 J0.104
X-28.125 Y-0.104 Z-13.861 I-0.125 J-0.104
X-27.875 Y0.104 Z-13.892 I0.125 J0.104
X-28.125 Y-0.104 Z-13.922 I-0.125 J-0.104
X-27.875 Y0.104 Z-13.953 I0.125 J0.104
X-28.125 Y-0.104 Z-13.983 I-0.125 J-0.104
X-27.875 Y0.104 Z-14.014 I0.125 J0.104
X-28.125 Y-0.104 Z-14.044 I-0.125 J-0.104
X-27.875 Y0.104 Z-14.075 I0.125 J0.104
X-28.125 Y-0.104 Z-14.105 I-0.125 J-0.104
X-27.875 Y0.104 Z-14.136 I0.125 J0.104
X-28.125 Y-0.104 Z-14.167 I-0.125 J-0.104
X-27.875 Y0.104 Z-14.197 I0.125 J0.104
X-28.125 Y-0.104 Z-14.228 I-0.125 J-0.104
X-27.875 Y0.104 Z-14.258 I0.125 J0.104
X-28.125 Y-0.104 Z-14.289 I-0.125 J-0.104
X-27.875 Y0.104 Z-14.319 I0.125 J0.104
X-28.125 Y-0.104 Z-14.35 I-0.125 J-0.104
X-27.875 Y0.104 Z-14.38 I0.125 J0.104
X-28.125 Y-0.104 Z-14.411 I-0.125 J-0.104
X-27.875 Y0.104 Z-14.441 I0.125 J0.104
X-28.125 Y-0.104 Z-14.472 I-0.125 J-0.104
X-27.875 Y0.104 Z-14.503 I0.125 J0.104
X-28.125 Y-0.104 Z-14.533 I-0.125 J-0.104
X-27.875 Y0.104 Z-14.564 I0.125 J0.104
X-28.125 Y-0.104 Z-14.594 I-0.125 J-0.104
X-27.875 Y0.104 Z-14.625 I0.125 J0.104
X-28.125 Y-0.104 Z-14.655 I-0.125 J-0.104
X-27.875 Y0.104 Z-14.686 I0.125 J0.104
X-28.125 Y-0.104 Z-14.716 I-0.125 J-0.104
X-27.875 Y0.104 Z-14.747 I0.125 J0.104
X-28.125 Y-0.104 Z-14.777 I-0.125 J-0.104
X-27.875 Y0.104 Z-14.808 I0.125 J0.104
X-28.125 Y-0.104 Z-14.839 I-0.125 J-0.104
X-27.875 Y0.104 Z-14.869 I0.125 J0.104
X-28.125 Y-0.104 Z-14.9 I-0.125 J-0.104
X-27.875 Y0.104 Z-14.93 I0.125 J0.104
X-28.125 Y-0.104 Z-14.961 I-0.125 J-0.104
X-27.875 Y0.104 Z-14.991 I0.125 J0.104
X-28.125 Y-0.104 Z-15.022 I-0.125 J-0.104
X-27.875 Y0.104 Z-15.052 I0.125 J0.104
X-28.125 Y-0.104 Z-15.083 I-0.125 J-0.104
X-27.875 Y0.104 Z-15.113 I0.125 J0.104
X-28.125 Y-0.104 Z-15.144 I-0.125 J-0.104
X-27.875 Y0.104 Z-15.175 I0.125 J0.104
X-28.16 Y-0.027 Z-15.2 I-0.125 J-0.104
X-27.84 Y0.027 I0.16 J0.027
X-28.16 Y-0.027 I-0.16 J-0.027
G1 X-28.149 Y-0.056
X-28.127 Y-0.079
X-28.099 Y-0.092
X-28.067 Y-0.093
X-27.91 Y-0.068
G0 Z5
X-21.449 Y-0.788
Z-11.8
G1 Z-13.483 F1000
X-21.455 Y-0.793 Z-13.553
X-21.473 Y-0.808 Z-13.62
X-21.502 Y-0.833 Z-13.68
X-21.541 Y-0.865 Z-13.731
X-21.587 Y-0.903 Z-13.769
X-21.639 Y-0.946 Z-13.792
X-21.693 Y-0.991 Z-13.8
X-21.816 Y-1.092
G3 X-21.858 Y-1.539 I0.203 J-0.244
X-18.142 Y1.539 Z-13.87 I1.858 J1.539
X-21.858 Y-1.539 Z-13.94 I-1.858 J-1.539
X-18.142 Y1.539 Z-14.009 I1.858 J1.539
X-21.858 Y-1.539 Z-14.079 I-1.858 J-1.539
X-18.142 Y1.539 Z-14.149 I1.858 J1.539
X-21.858 Y-1.539 Z-14.219 I-1.858 J-1.539
X-18.142 Y1.539 Z-14.289 I1.858 J1.539
X-21.858 Y-1.539 Z-14.359 I-1.858 J-1.539
X-18.142 Y1.539 Z-14.428 I1.858 J1.539
X-21.858 Y-1.539 Z-14.498 I-1.858 J-1.539
X-18.142 Y1.539 Z-14.568 I1.858 J1.539
X-21.858 Y-1.539 Z-14.638 I-1.858 J-1.539
X-18.142 Y1.539 Z-14.708 I1.858 J1.539
X-21.858 Y-1.539 Z-14.777 I-1.858 J-1.539
X-18.142 Y1.539 Z-14.847 I1.858 J1.539
X-21.858 Y-1.539 Z-14.917 I-1.858 J-1.539
X-18.142 Y1.539 Z-14.987 I1.858 J1.539
X-21.858 Y-1.539 Z-15.057 I-1.858 J-1.539
X-18.142 Y1.539 Z-15.127 I1.858 J1.539
X-21.684 Y1.727 Z-15.163 I-1.858 J-1.539
X-21.585 Y-1.818 Z-15.2 I1.684 J-1.727
X-18.415 Y1.818 I1.585 J1.818
X-21.585 Y-1.818 I-1.585 J-1.818
X-21.138 Y-1.788 I0.209 J0.239
G1 X-21.033 Y-1.668
X-20.987 Y-1.615 Z-15.192
X-20.943 Y-1.564 Z-15.169
X-20.903 Y-1.519 Z-15.131
X-20.87 Y-1.481 Z-15.08
X-20.845 Y-1.452 Z-15.02
X-20.83 Y-1.435 Z-14.953
X-20.825 Y-1.429 Z-14.882
G0 Z5
X-11.992 Y0.112
Z-12.118
G1 Z-13.8 F1000
X-12.114 Y0.011
X-12.134 Y-0.014
X-12.143 Y-0.044
X-12.14 Y-0.076
X-12.125 Y-0.104
G3 X-11.875 Y0.104 Z-13.831 I0.125 J0.104
X-12.125 Y-0.104 Z-13.861 I-0.125 J-0.104
X-11.875 Y0.104 Z-13.892 I0.125 J0.104
X-12.125 Y-0.104 Z-13.922 I-0.125 J-0.104
X-11.875 Y0.104 Z-13.953 I0.125 J0.104
X-12.125 Y-0.104 Z-13.983 I-0.125 J-0.104
X-11.875 Y0.104 Z-14.014 I0.125 J0.104
X-12.125 Y-0.104 Z-14.044 I-0.125 J-0.104
X-11.875 Y0.104 Z-14.075 I0.125 J0.104
X-12.125 Y-0.104 Z-14.105 I-0.125 J-0.104
X-11.875 Y0.104 Z-14.136 I0.125 J0.104
X-12.125 Y-0.104 Z-14.167 I-0.125 J-0.104
X-11.875 Y0.104 Z-14.197 I0.125 J0.104
X-12.125 Y-0.104 Z-14.228 I-0.125 J-0.104
X-11.875 Y0.104 Z-14.258 I0.125 J0.104
X-12.125 Y-0.104 Z-14.289 I-0.125 J-0.104
X-11.875 Y0.104 Z-14.319 I0.125 J0.104
X-12.125 Y-0.104 Z-14.35 I-0.125 J-0.104
X-11.875 Y0.104 Z-14.38 I0.125 J0.104
X-12.125 Y-0.104 Z-14.411 I-0.125 J-0.104
X-11.875 Y0.104 Z-14.441 I0.125 J0.104
X-12.125 Y-0.104 Z-14.472 I-0.125 J-0.104
X-11.875 Y0.104 Z-14.503 I0.125 J0.104
X-12.125 Y-0.104 Z-14.533 I-0.125 J-0.104
X-11.875 Y0.104 Z-14.564 I0.125 J0.104
X-12.125 Y-0.104 Z-14.594 I-0.125 J-0.104
X-11.875 Y0.104 Z-14.625 I0.125 J0.104
X-12.125 Y-0.104 Z-14.655 I-0.125 J-0.104
X-11.875 Y0.104 Z-14.686 I0.125 J0.104
X-12.125 Y-0.104 Z-14.716 I-0.125 J-0.104
X-11.875 Y0.104 Z-14.747 I0.125 J0.104
X-12.125 Y-0.104 Z-14.777 I-0.125 J-0.104
X-11.875 Y0.104 Z-14.808 I0.125 J0.104
X-12.125 Y-0.104 Z-14.839 I-0.125 J-0.104
X-11.875 Y0.104 Z-14.869 I0.125 J0.104
X-12.125 Y-0.104 Z-14.9 I-0.125 J-0.104
X-11.875 Y0.104 Z-14.93 I0.125 J0.104
X-12.125 Y-0.104 Z-14.961 I-0.125 J-0.104
X-11.875 Y0.104 Z-14.991 I0.125 J0.104
X-12.125 Y-0.104 Z-15.022 I-0.125 J-0.104
X-11.875 Y0.104 Z-15.052 I0.125 J0.104
X-12.125 Y-0.104 Z-15.083 I-0.125 J-0.104
X-11.875 Y0.104 Z-15.113 I0.125 J0.104
X-12.125 Y-0.104 Z-15.144 I-0.125 J-0.104
X-11.875 Y0.104 Z-15.175 I0.125 J0.104
X-12.16 Y-0.027 Z-15.2 I-0.125 J-0.104
X-11.84 Y0.027 I0.16 J0.027
X-12.16 Y-0.027 I-0.16 J-0.027
G1 X-12.149 Y-0.056
X-12.127 Y-0.079
X-12.099 Y-0.092
X-12.067 Y-0.093
X-11.91 Y-0.068
G0 Z15

(Bohrfrasen2 3)
X-230.794 Y0.169
Z15
Z2.5
G1 Z0.817 F1000
X-230.801 Y0.164 Z0.747
X-230.819 Y0.149 Z0.68
X-230.848 Y0.125 Z0.62
X-230.886 Y0.092 Z0.569
X-230.933 Y0.054 Z0.531
X-230.985 Y0.011 Z0.508
X-231.039 Y-0.034 Z0.5
X-231.161 Y-0.135
G3 X-231.203 Y-0.582 I0.203 J-0.244
X-229.798 Y0.582 Z0.456 I0.703 J0.582
X-231.203 Y-0.582 Z0.413 I-0.703 J-0.582
X-229.798 Y0.582 Z0.369 I0.703 J0.582
X-231.203 Y-0.582 Z0.325 I-0.703 J-0.582
X-229.798 Y0.582 Z0.282 I0.703 J0.582
X-231.203 Y-0.582 Z0.238 I-0.703 J-0.582
X-229.798 Y0.582 Z0.195 I0.703 J0.582
X-231.203 Y-0.582 Z0.151 I-0.703 J-0.582
X-229.798 Y0.582 Z0.107 I0.703 J0.582
X-231.203 Y-0.582 Z0.064 I-0.703 J-0.582
X-229.798 Y0.582 Z0.02 I0.703 J0.582
X-231.203 Y-0.582 Z-0.024 I-0.703 J-0.582
X-229.798 Y0.582 Z-0.067 I0.703 J0.582
X-231.203 Y-0.582 Z-0.111 I-0.703 J-0.582
X-229.798 Y0.582 Z-0.155 I0.703 J0.582
X-231.203 Y-0.582 Z-0.198 I-0.703 J-0.582
X-229.798 Y0.582 Z-0.242 I0.703 J0.582
X-231.203 Y-0.582 Z-0.285 I-0.703 J-0.582
X-229.798 Y0.582 Z-0.329 I0.703 J0.582
X-231.203 Y-0.582 Z-0.373 I-0.703 J-0.582
X-229.798 Y0.582 Z-0.416 I0.703 J0.582
X-231.203 Y-0.582 Z-0.46 I-0.703 J-0.582
X-229.798 Y0.582 Z-0.504 I0.703 J0.582
X-231.203 Y-0.582 Z-0.547 I-0.703 J-0.582
X-229.798 Y0.582 Z-0.591 I0.703 J0.582
X-231.203 Y-0.582 Z-0.635 I-0.703 J-0.582
X-229.798 Y0.582 Z-0.678 I0.703 J0.582
X-231.203 Y-0.582 Z-0.722 I-0.703 J-0.582
X-229.798 Y0.582 Z-0.765 I0.703 J0.582
X-231.203 Y-0.582 Z-0.809 I-0.703 J-0.582
X-229.798 Y0.582 Z-0.853 I0.703 J0.582
X-231.203 Y-0.582 Z-0.896 I-0.703 J-0.582
X-229.798 Y0.582 Z-0.94 I0.703 J0.582
X-231.203 Y-0.582 Z-0.984 I-0.703 J-0.582
X-229.798 Y0.582 Z-1.027 I0.703 J0.582
X-231.203 Y-0.582 Z-1.071 I-0.703 J-0.582
X-229.798 Y0.582 Z-1.115 I0.703 J0.582
X-231.203 Y-0.582 Z-1.158 I-0.703 J-0.582
X-229.798 Y0.582 Z-1.202 I0.703 J0.582
X-231.203 Y-0.582 Z-1.246 I-0.703 J-0.582
X-229.798 Y0.582 Z-1.289 I0.703 J0.582
X-231.203 Y-0.582 Z-1.333 I-0.703 J-0.582
X-229.798 Y0.582 Z-1.376 I0.703 J0.582
X-231.203 Y-0.582 Z-1.42 I-0.703 J-0.582
X-229.798 Y0.582 Z-1.464 I0.703 J0.582
X-231.401 Y-0.149 Z-1.5 I-0.703 J-0.582
X-229.6 Y0.149 I0.9 J0.149
X-231.401 Y-0.149 I-0.9 J-0.149
X-231.036 Y-0.41 I0.313 J0.052
G1 X-230.879 Y-0.384
X-230.809 Y-0.373 Z-1.492
X-230.743 Y-0.362 Z-1.469
X-230.684 Y-0.352 Z-1.431
X-230.634 Y-0.344 Z-1.38
X-230.597 Y-0.338 Z-1.32
X-230.574 Y-0.334 Z-1.253
X-230.566 Y-0.333 Z-1.183
G0 Z15

(Bohrfrasen2 4)
X-230.794 Y0.169
Z15
Z-11.5
G1 Z-13.182 F1000
X-230.801 Y0.164 Z-13.253
X-230.819 Y0.149 Z-13.32
X-230.848 Y0.125 Z-13.38
X-230.886 Y0.092 Z-13.431
X-230.933 Y0.054 Z-13.469
X-230.985 Y0.011 Z-13.492
X-231.039 Y-0.034 Z-13.5
X-231.161 Y-0.135
G3 X-231.203 Y-0.582 I0.203 J-0.244
X-229.798 Y0.582 Z-13.544 I0.703 J0.582
X-231.203 Y-0.582 Z-13.587 I-0.703 J-0.582
X-229.798 Y0.582 Z-13.631 I0.703 J0.582
X-231.203 Y-0.582 Z-13.675 I-0.703 J-0.582
X-229.798 Y0.582 Z-13.718 I0.703 J0.582
X-231.203 Y-0.582 Z-13.762 I-0.703 J-0.582
X-229.798 Y0.582 Z-13.805 I0.703 J0.582
X-231.203 Y-0.582 Z-13.849 I-0.703 J-0.582
X-229.798 Y0.582 Z-13.893 I0.703 J0.582
X-231.203 Y-0.582 Z-13.936 I-0.703 J-0.582
X-229.798 Y0.582 Z-13.98 I0.703 J0.582
X-231.203 Y-0.582 Z-14.024 I-0.703 J-0.582
X-229.798 Y0.582 Z-14.067 I0.703 J0.582
X-231.203 Y-0.582 Z-14.111 I-0.703 J-0.582
X-229.798 Y0.582 Z-14.155 I0.703 J0.582
X-231.203 Y-0.582 Z-14.198 I-0.703 J-0.582
X-229.798 Y0.582 Z-14.242 I0.703 J0.582
X-231.203 Y-0.582 Z-14.285 I-0.703 J-0.582
X-229.798 Y0.582 Z-14.329 I0.703 J0.582
X-231.203 Y-0.582 Z-14.373 I-0.703 J-0.582
X-229.798 Y0.582 Z-14.416 I0.703 J0.582
X-231.203 Y-0.582 Z-14.46 I-0.703 J-0.582
X-229.798 Y0.582 Z-14.504 I0.703 J0.582
X-231.203 Y-0.582 Z-14.547 I-0.703 J-0.582
X-229.798 Y0.582 Z-14.591 I0.703 J0.582
X-231.203 Y-0.582 Z-14.635 I-0.703 J-0.582
X-229.798 Y0.582 Z-14.678 I0.703 J0.582
X-231.203 Y-0.582 Z-14.722 I-0.703 J-0.582
X-229.798 Y0.582 Z-14.765 I0.703 J0.582
X-231.203 Y-0.582 Z-14.809 I-0.703 J-0.582
X-229.798 Y0.582 Z-14.853 I0.703 J0.582
X-231.203 Y-0.582 Z-14.896 I-0.703 J-0.582
X-229.798 Y0.582 Z-14.94 I0.703 J0.582
X-231.203 Y-0.582 Z-14.984 I-0.703 J-0.582
X-229.798 Y0.582 Z-15.027 I0.703 J0.582
X-231.203 Y-0.582 Z-15.071 I-0.703 J-0.582
X-229.798 Y0.582 Z-15.115 I0.703 J0.582
X-231.203 Y-0.582 Z-15.158 I-0.703 J-0.582
X-229.798 Y0.582 Z-15.202 I0.703 J0.582
X-231.203 Y-0.582 Z-15.246 I-0.703 J-0.582
X-229.798 Y0.582 Z-15.289 I0.703 J0.582
X-231.203 Y-0.582 Z-15.333 I-0.703 J-0.582
X-229.798 Y0.582 Z-15.376 I0.703 J0.582
X-231.203 Y-0.582 Z-15.42 I-0.703 J-0.582
X-229.798 Y0.582 Z-15.464 I0.703 J0.582
X-231.401 Y-0.149 Z-15.5 I-0.703 J-0.582
X-229.6 Y0.149 I0.9 J0.149
X-231.401 Y-0.149 I-0.9 J-0.149
X-231.036 Y-0.41 I0.313 J0.052
G1 X-230.879 Y-0.384
X-230.809 Y-0.373 Z-15.492
X-230.743 Y-0.362 Z-15.469
X-230.684 Y-0.352 Z-15.431
X-230.634 Y-0.344 Z-15.38
X-230.597 Y-0.338 Z-15.32
X-230.574 Y-0.334 Z-15.253
X-230.566 Y-0.333 Z-15.182
G0 Z15

(2D-Kontur3)
S6000 M3
X-242.087 Y-9.818
Z15
Z5
G1 Z1 F333.3
Z-0.183
G19 G3 Y-9.5 Z-0.5 J0.318 K0 F1000
G1 Y-6.5
Y6.5
Y9.5
G3 Y9.818 Z-0.183 J0 K0.317
G0 Z15
G17
M5
M30
