(X500_Bottom_Kontur_3-175)
(T14  D=1.5 CR=0 - ZMIN=-2.2 - Schaftfraser)
G90 G94
G17
G21

(2D-Kontur6)
T14
S4000 M3
G54
G0 X-150.504 Y-78.314
Z20
Z5.2
G1 Z2.7 F300
X-155.409 Y-73.409 Z2.458 F1016
G3 X-158.591 Y-76.591 Z2.211 I-1.591 J-1.591
G1 X-146.591 Y-88.591 Z1.618
G3 X-143.409 Y-85.409 Z1.371 I1.591 J1.591
G1 X-155.409 Y-73.409 Z0.779
G3 X-158.591 Y-76.591 Z0.532 I-1.591 J-1.591
G1 X-146.591 Y-88.591 Z-0.061
G3 X-143.409 Y-85.409 Z-0.307 I1.591 J1.591
G1 X-155.409 Y-73.409 Z-0.9
G3 X-158.591 Y-76.591 I-1.591 J-1.591 F600
G1 X-146.591 Y-88.591
G3 X-143.409 Y-85.409 I1.591 J1.591
G1 X-155.409 Y-73.409
G3 X-158.591 Y-76.591 Z-1.147 I-1.591 J-1.591 F1016
G1 X-150.427 Y-84.755 Z-1.55
X-146.591 Y-88.591 F600
G3 X-143.409 Y-85.409 I1.591 J1.591
G1 X-155.409 Y-73.409
G3 X-158.591 Y-76.591 I-1.591 J-1.591
G1 X-150.427 Y-84.755
X-146.591 Y-88.591 Z-1.739 F1016
G3 X-143.409 Y-85.409 Z-1.986 I1.591 J1.591
G1 X-147.737 Y-81.081 Z-2.2
X-155.409 Y-73.409 F600
G3 X-158.591 Y-76.591 I-1.591 J-1.591
G1 X-150.427 Y-84.755
X-146.591 Y-88.591
G3 X-143.409 Y-85.409 I1.591 J1.591
G1 X-147.737 Y-81.081
G0 Z10
X-141.143 Y-104.505
Z5.2
G1 Z2.7 F300
X-141.129 Y-104.699 Z2.693 F1016
X-141.023 Y-105.681 Z2.659
X-140.89 Y-106.598 Z2.626
X-140.736 Y-107.448 Z2.596
X-140.563 Y-108.232 Z2.568
X-140.377 Y-108.953 Z2.542
X-140.179 Y-109.614 Z2.518
X-139.971 Y-110.217 Z2.496
X-139.755 Y-110.766 Z2.475
X-139.532 Y-111.262 Z2.456
X-139.305 Y-111.708 Z2.439
X-139.075 Y-112.105 Z2.423
X-138.843 Y-112.455 Z2.408
X-138.613 Y-112.758 Z2.395
X-138.385 Y-113.015 Z2.383
X-138.161 Y-113.231 Z2.372
X-137.945 Y-113.403 Z2.362
X-137.738 Y-113.536 Z2.354
X-137.539 Y-113.634 Z2.346
X-137.351 Y-113.7 Z2.339
X-137.17 Y-113.737 Z2.332
X-137.002 Y-113.748 Z2.327
X-136.824 Y-113.735 Z2.32
X-136.643 Y-113.698 Z2.314
X-136.457 Y-113.632 Z2.307
X-136.259 Y-113.534 Z2.299
X-136.052 Y-113.4 Z2.291
X-135.837 Y-113.227 Z2.281
X-135.615 Y-113.015 Z2.27
X-135.389 Y-112.76 Z2.258
X-135.162 Y-112.462 Z2.245
X-134.934 Y-112.119 Z2.231
X-134.707 Y-111.73 Z2.215
X-134.483 Y-111.296 Z2.198
X-134.265 Y-110.814 Z2.18
X-134.054 Y-110.283 Z2.16
X-133.85 Y-109.702 Z2.138
X-133.655 Y-109.068 Z2.115
X-133.472 Y-108.382 Z2.09
X-133.303 Y-107.639 Z2.064
X-133.15 Y-106.838 Z2.035
X-133.017 Y-105.976 Z2.005
X-132.905 Y-105.053 Z1.972
X-132.821 Y-104.072 Z1.938
X-132.768 Y-103.037 Z1.902
X-132.75 Y-101.969 Z1.864
X-132.771 Y-100.889 Z1.827
X-132.828 Y-99.831 Z1.79
X-132.919 Y-98.819 Z1.754
X-133.038 Y-97.868 Z1.721
X-133.182 Y-96.983 Z1.689
X-133.346 Y-96.165 Z1.66
X-133.524 Y-95.412 Z1.633
X-133.717 Y-94.721 Z1.608
X-133.92 Y-94.088 Z1.585
X-134.133 Y-93.511 Z1.564
X-134.353 Y-92.988 Z1.544
X-134.578 Y-92.516 Z1.525
X-134.806 Y-92.093 Z1.509
X-135.037 Y-91.72 Z1.493
X-135.268 Y-91.394 Z1.479
X-135.498 Y-91.112 Z1.467
X-135.724 Y-90.876 Z1.455
X-135.945 Y-90.682 Z1.445
X-136.157 Y-90.528 Z1.436
X-136.36 Y-90.412 Z1.428
X-136.553 Y-90.331 Z1.42
X-136.738 Y-90.279 Z1.414
X-136.916 Y-90.255 Z1.407
X-137.091 Z1.401
X-137.268 Y-90.28 Z1.395
X-137.452 Y-90.333 Z1.388
X-137.645 Y-90.415 Z1.381
X-137.847 Y-90.531 Z1.373
X-138.059 Y-90.684 Z1.364
X-138.277 Y-90.877 Z1.354
X-138.501 Y-91.111 Z1.342
X-138.727 Y-91.388 Z1.33
X-138.956 Y-91.71 Z1.316
X-139.184 Y-92.076 Z1.301
X-139.408 Y-92.488 Z1.285
X-139.63 Y-92.947 Z1.267
X-139.845 Y-93.454 Z1.248
X-140.053 Y-94.01 Z1.227
X-140.252 Y-94.619 Z1.204
X-140.441 Y-95.279 Z1.18
X-140.617 Y-95.995 Z1.155
X-140.778 Y-96.767 Z1.127
X-140.921 Y-97.6 Z1.098
X-141.044 Y-98.493 Z1.066
X-141.142 Y-99.447 Z1.033
X-141.211 Y-100.457 Z0.997
X-141.246 Y-101.512 Z0.961
X-141.244 Y-102.589 Z0.923
X-141.204 Y-103.662 Z0.885
X-141.129 Y-104.699 Z0.849
X-141.023 Y-105.681 Z0.815
X-140.89 Y-106.598 Z0.782
X-140.736 Y-107.448 Z0.752
X-140.563 Y-108.232 Z0.724
X-140.377 Y-108.953 Z0.698
X-140.179 Y-109.614 Z0.674
X-139.971 Y-110.217 Z0.652
X-139.755 Y-110.766 Z0.631
X-139.532 Y-111.262 Z0.612
X-139.305 Y-111.708 Z0.595
X-139.075 Y-112.105 Z0.579
X-138.843 Y-112.455 Z0.564
X-138.613 Y-112.758 Z0.551
X-138.385 Y-113.015 Z0.539
X-138.161 Y-113.231 Z0.528
X-137.945 Y-113.403 Z0.518
X-137.738 Y-113.536 Z0.51
X-137.539 Y-113.634 Z0.502
X-137.351 Y-113.7 Z0.495
X-137.17 Y-113.737 Z0.488
X-137.002 Y-113.748 Z0.483
X-136.824 Y-113.735 Z0.476
X-136.643 Y-113.698 Z0.47
X-136.457 Y-113.632 Z0.463
X-136.259 Y-113.534 Z0.455
X-136.052 Y-113.4 Z0.447
X-135.837 Y-113.227 Z0.437
X-135.615 Y-113.015 Z0.426
X-135.389 Y-112.76 Z0.414
X-135.162 Y-112.462 Z0.401
X-134.934 Y-112.119 Z0.387
X-134.707 Y-111.73 Z0.371
X-134.483 Y-111.296 Z0.354
X-134.265 Y-110.814 Z0.336
X-134.054 Y-110.283 Z0.316
X-133.85 Y-109.702 Z0.294
X-133.655 Y-109.068 Z0.271
X-133.472 Y-108.382 Z0.246
X-133.303 Y-107.639 Z0.22
X-133.15 Y-106.838 Z0.191
X-133.017 Y-105.976 Z0.161
X-132.905 Y-105.053 Z0.128
X-132.821 Y-104.072 Z0.094
X-132.768 Y-103.037 Z0.058
X-132.75 Y-101.969 Z0.02
X-132.771 Y-100.889 Z-0.017
X-132.828 Y-99.831 Z-0.054
X-132.919 Y-98.819 Z-0.09
X-133.038 Y-97.868 Z-0.123
X-133.182 Y-96.983 Z-0.155
X-133.346 Y-96.165 Z-0.184
X-133.524 Y-95.412 Z-0.211
X-133.717 Y-94.721 Z-0.236
X-133.92 Y-94.088 Z-0.259
X-134.133 Y-93.511 Z-0.281
X-134.353 Y-92.988 Z-0.3
X-134.578 Y-92.516 Z-0.319
X-134.806 Y-92.093 Z-0.335
X-135.037 Y-91.72 Z-0.351
X-135.268 Y-91.394 Z-0.365
X-135.498 Y-91.112 Z-0.377
X-135.724 Y-90.876 Z-0.389
X-135.945 Y-90.682 Z-0.399
X-136.157 Y-90.528 Z-0.408
X-136.36 Y-90.412 Z-0.416
X-136.553 Y-90.331 Z-0.424
X-136.738 Y-90.279 Z-0.43
X-136.916 Y-90.255 Z-0.437
X-137.091 Z-0.443
X-137.268 Y-90.28 Z-0.449
X-137.452 Y-90.333 Z-0.456
X-137.645 Y-90.415 Z-0.463
X-137.847 Y-90.531 Z-0.471
X-138.059 Y-90.684 Z-0.48
X-138.277 Y-90.877 Z-0.49
X-138.501 Y-91.111 Z-0.502
X-138.727 Y-91.388 Z-0.514
X-138.956 Y-91.71 Z-0.528
X-139.184 Y-92.076 Z-0.543
X-139.408 Y-92.488 Z-0.559
X-139.63 Y-92.947 Z-0.577
X-139.845 Y-93.454 Z-0.597
X-140.053 Y-94.01 Z-0.617
X-140.252 Y-94.619 Z-0.64
X-140.441 Y-95.279 Z-0.664
X-140.617 Y-95.995 Z-0.689
X-140.778 Y-96.767 Z-0.717
X-140.921 Y-97.6 Z-0.746
X-141.044 Y-98.493 Z-0.778
X-141.142 Y-99.447 Z-0.811
X-141.211 Y-100.457 Z-0.847
X-141.246 Y-101.512 Z-0.884
X-141.245 Y-101.982 Z-0.9
X-141.244 Y-102.589 F600
X-141.204 Y-103.662
X-141.129 Y-104.699
X-141.023 Y-105.681
X-140.89 Y-106.598
X-140.736 Y-107.448
X-140.563 Y-108.232
X-140.377 Y-108.953
X-140.179 Y-109.614
X-139.971 Y-110.217
X-139.755 Y-110.766
X-139.532 Y-111.262
X-139.305 Y-111.708
X-139.075 Y-112.105
X-138.843 Y-112.455
X-138.613 Y-112.758
X-138.385 Y-113.015
X-138.161 Y-113.231
X-137.945 Y-113.403
X-137.738 Y-113.536
X-137.539 Y-113.634
X-137.351 Y-113.7
X-137.17 Y-113.737
X-137.002 Y-113.748
X-136.824 Y-113.735
X-136.643 Y-113.698
X-136.457 Y-113.632
X-136.259 Y-113.534
X-136.052 Y-113.4
X-135.837 Y-113.227
X-135.615 Y-113.015
X-135.389 Y-112.76
X-135.162 Y-112.462
X-134.934 Y-112.119
X-134.707 Y-111.73
X-134.483 Y-111.296
X-134.265 Y-110.814
X-134.054 Y-110.283
X-133.85 Y-109.702
X-133.655 Y-109.068
X-133.472 Y-108.382
X-133.303 Y-107.639
X-133.15 Y-106.838
X-133.017 Y-105.976
X-132.905 Y-105.053
X-132.821 Y-104.072
X-132.768 Y-103.037
X-132.75 Y-101.969
X-132.771 Y-100.889
X-132.828 Y-99.831
X-132.919 Y-98.819
X-133.038 Y-97.868
X-133.182 Y-96.983
X-133.346 Y-96.165
X-133.524 Y-95.412
X-133.717 Y-94.721
X-133.92 Y-94.088
X-134.133 Y-93.511
X-134.353 Y-92.988
X-134.578 Y-92.516
X-134.806 Y-92.093
X-135.037 Y-91.72
X-135.268 Y-91.394
X-135.498 Y-91.112
X-135.724 Y-90.876
X-135.945 Y-90.682
X-136.157 Y-90.528
X-136.36 Y-90.412
X-136.553 Y-90.331
X-136.738 Y-90.279
X-136.916 Y-90.255
X-137.091
X-137.268 Y-90.28
X-137.452 Y-90.333
X-137.645 Y-90.415
X-137.847 Y-90.531
X-138.059 Y-90.684
X-138.277 Y-90.877
X-138.501 Y-91.111
X-138.727 Y-91.388
X-138.956 Y-91.71
X-139.184 Y-92.076
X-139.408 Y-92.488
X-139.63 Y-92.947
X-139.845 Y-93.454
X-140.053 Y-94.01
X-140.252 Y-94.619
X-140.441 Y-95.279
X-140.617 Y-95.995
X-140.778 Y-96.767
X-140.921 Y-97.6
X-141.044 Y-98.493
X-141.142 Y-99.447
X-141.211 Y-100.457
X-141.246 Y-101.512
X-141.245 Y-101.982
X-141.244 Y-102.589 Z-0.921 F1016
X-141.204 Y-103.662 Z-0.959
X-141.129 Y-104.699 Z-0.995
X-141.023 Y-105.681 Z-1.029
X-140.89 Y-106.598 Z-1.062
X-140.736 Y-107.448 Z-1.092
X-140.563 Y-108.232 Z-1.12
X-140.377 Y-108.953 Z-1.146
X-140.179 Y-109.614 Z-1.17
X-139.971 Y-110.217 Z-1.192
X-139.755 Y-110.766 Z-1.213
X-139.532 Y-111.262 Z-1.232
X-139.305 Y-111.708 Z-1.249
X-139.075 Y-112.105 Z-1.266
X-138.843 Y-112.455 Z-1.28
X-138.613 Y-112.758 Z-1.293
X-138.385 Y-113.015 Z-1.305
X-138.161 Y-113.231 Z-1.316
X-137.945 Y-113.403 Z-1.326
X-137.738 Y-113.536 Z-1.335
X-137.539 Y-113.634 Z-1.342
X-137.351 Y-113.7 Z-1.349
X-137.17 Y-113.737 Z-1.356
X-137.002 Y-113.748 Z-1.362
X-136.824 Y-113.735 Z-1.368
X-136.643 Y-113.698 Z-1.374
X-136.457 Y-113.632 Z-1.381
X-136.259 Y-113.534 Z-1.389
X-136.052 Y-113.4 Z-1.397
X-135.837 Y-113.227 Z-1.407
X-135.615 Y-113.015 Z-1.418
X-135.389 Y-112.76 Z-1.43
X-135.162 Y-112.462 Z-1.443
X-134.934 Y-112.119 Z-1.457
X-134.707 Y-111.73 Z-1.473
X-134.483 Y-111.296 Z-1.49
X-134.265 Y-110.814 Z-1.508
X-134.054 Y-110.283 Z-1.528
X-133.85 Y-109.702 Z-1.55
X-133.849 Y-109.7
X-133.655 Y-109.068 F600
X-133.472 Y-108.382
X-133.303 Y-107.639
X-133.15 Y-106.838
X-133.017 Y-105.976
X-132.905 Y-105.053
X-132.821 Y-104.072
X-132.768 Y-103.037
X-132.75 Y-101.969
X-132.771 Y-100.889
X-132.828 Y-99.831
X-132.919 Y-98.819
X-133.038 Y-97.868
X-133.182 Y-96.983
X-133.346 Y-96.165
X-133.524 Y-95.412
X-133.717 Y-94.721
X-133.92 Y-94.088
X-134.133 Y-93.511
X-134.353 Y-92.988
X-134.578 Y-92.516
X-134.806 Y-92.093
X-135.037 Y-91.72
X-135.268 Y-91.394
X-135.498 Y-91.112
X-135.724 Y-90.876
X-135.945 Y-90.682
X-136.157 Y-90.528
X-136.36 Y-90.412
X-136.553 Y-90.331
X-136.738 Y-90.279
X-136.916 Y-90.255
X-137.091
X-137.268 Y-90.28
X-137.452 Y-90.333
X-137.645 Y-90.415
X-137.847 Y-90.531
X-138.059 Y-90.684
X-138.277 Y-90.877
X-138.501 Y-91.111
X-138.727 Y-91.388
X-138.956 Y-91.71
X-139.184 Y-92.076
X-139.408 Y-92.488
X-139.63 Y-92.947
X-139.845 Y-93.454
X-140.053 Y-94.01
X-140.252 Y-94.619
X-140.441 Y-95.279
X-140.617 Y-95.995
X-140.778 Y-96.767
X-140.921 Y-97.6
X-141.044 Y-98.493
X-141.142 Y-99.447
X-141.211 Y-100.457
X-141.246 Y-101.512
X-141.244 Y-102.589
X-141.204 Y-103.662
X-141.129 Y-104.699
X-141.023 Y-105.681
X-140.89 Y-106.598
X-140.736 Y-107.448
X-140.563 Y-108.232
X-140.377 Y-108.953
X-140.179 Y-109.614
X-139.971 Y-110.217
X-139.755 Y-110.766
X-139.532 Y-111.262
X-139.305 Y-111.708
X-139.075 Y-112.105
X-138.843 Y-112.455
X-138.613 Y-112.758
X-138.385 Y-113.015
X-138.161 Y-113.231
X-137.945 Y-113.403
X-137.738 Y-113.536
X-137.539 Y-113.634
X-137.351 Y-113.7
X-137.17 Y-113.737
X-137.002 Y-113.748
X-136.824 Y-113.735
X-136.643 Y-113.698
X-136.457 Y-113.632
X-136.259 Y-113.534
X-136.052 Y-113.4
X-135.837 Y-113.227
X-135.615 Y-113.015
X-135.389 Y-112.76
X-135.162 Y-112.462
X-134.934 Y-112.119
X-134.707 Y-111.73
X-134.483 Y-111.296
X-134.265 Y-110.814
X-134.054 Y-110.283
X-133.85 Y-109.702
X-133.849 Y-109.7
X-133.655 Y-109.068 Z-1.573 F1016
X-133.472 Y-108.382 Z-1.598
X-133.303 Y-107.639 Z-1.624
X-133.15 Y-106.838 Z-1.653
X-133.017 Y-105.976 Z-1.683
X-132.905 Y-105.053 Z-1.716
X-132.821 Y-104.072 Z-1.75
X-132.768 Y-103.037 Z-1.786
X-132.75 Y-101.969 Z-1.824
X-132.771 Y-100.889 Z-1.861
X-132.828 Y-99.831 Z-1.898
X-132.919 Y-98.819 Z-1.934
X-133.038 Y-97.868 Z-1.967
X-133.182 Y-96.983 Z-1.999
X-133.346 Y-96.165 Z-2.028
X-133.524 Y-95.412 Z-2.055
X-133.717 Y-94.721 Z-2.08
X-133.92 Y-94.088 Z-2.103
X-134.133 Y-93.511 Z-2.125
X-134.353 Y-92.988 Z-2.144
X-134.578 Y-92.516 Z-2.163
X-134.806 Y-92.093 Z-2.18
X-135.037 Y-91.72 Z-2.195
X-135.122 Y-91.599 Z-2.2
X-135.268 Y-91.394 F600
X-135.498 Y-91.112
X-135.724 Y-90.876
X-135.945 Y-90.682
X-136.157 Y-90.528
X-136.36 Y-90.412
X-136.553 Y-90.331
X-136.738 Y-90.279
X-136.916 Y-90.255
X-137.091
X-137.268 Y-90.28
X-137.452 Y-90.333
X-137.645 Y-90.415
X-137.847 Y-90.531
X-138.059 Y-90.684
X-138.277 Y-90.877
X-138.501 Y-91.111
X-138.727 Y-91.388
X-138.956 Y-91.71
X-139.184 Y-92.076
X-139.408 Y-92.488
X-139.63 Y-92.947
X-139.845 Y-93.454
X-140.053 Y-94.01
X-140.252 Y-94.619
X-140.441 Y-95.279
X-140.617 Y-95.995
X-140.778 Y-96.767
X-140.921 Y-97.6
X-141.044 Y-98.493
X-141.142 Y-99.447
X-141.211 Y-100.457
X-141.246 Y-101.512
X-141.244 Y-102.589
X-141.204 Y-103.662
X-141.129 Y-104.699
X-141.023 Y-105.681
X-140.89 Y-106.598
X-140.736 Y-107.448
X-140.563 Y-108.232
X-140.377 Y-108.953
X-140.179 Y-109.614
X-139.971 Y-110.217
X-139.755 Y-110.766
X-139.532 Y-111.262
X-139.305 Y-111.708
X-139.075 Y-112.105
X-138.843 Y-112.455
X-138.613 Y-112.758
X-138.385 Y-113.015
X-138.161 Y-113.231
X-137.945 Y-113.403
X-137.738 Y-113.536
X-137.539 Y-113.634
X-137.351 Y-113.7
X-137.17 Y-113.737
X-137.002 Y-113.748
X-136.824 Y-113.735
X-136.643 Y-113.698
X-136.457 Y-113.632
X-136.259 Y-113.534
X-136.052 Y-113.4
X-135.837 Y-113.227
X-135.615 Y-113.015
X-135.389 Y-112.76
X-135.162 Y-112.462
X-134.934 Y-112.119
X-134.707 Y-111.73
X-134.483 Y-111.296
X-134.265 Y-110.814
X-134.054 Y-110.283
X-133.85 Y-109.702
X-133.849 Y-109.7
X-133.655 Y-109.068
X-133.472 Y-108.382
X-133.303 Y-107.639
X-133.15 Y-106.838
X-133.017 Y-105.976
X-132.905 Y-105.053
X-132.821 Y-104.072
X-132.768 Y-103.037
X-132.75 Y-101.969
X-132.771 Y-100.889
X-132.828 Y-99.831
X-132.919 Y-98.819
X-133.038 Y-97.868
X-133.182 Y-96.983
X-133.346 Y-96.165
X-133.524 Y-95.412
X-133.717 Y-94.721
X-133.92 Y-94.088
X-134.133 Y-93.511
X-134.353 Y-92.988
X-134.578 Y-92.516
X-134.806 Y-92.093
X-135.037 Y-91.72
X-135.122 Y-91.599
G0 Z10
X-106.496 Y-83.686
Z5.2
G1 Z2.7 F300
X-101.591 Y-88.591 Z2.458 F1016
G3 X-98.409 Y-85.409 Z2.211 I1.591 J1.591
G1 X-110.409 Y-73.409 Z1.618
G3 X-113.591 Y-76.591 Z1.372 I-1.591 J-1.591
G1 X-101.591 Y-88.591 Z0.779
G3 X-98.409 Y-85.409 Z0.532 I1.591 J1.591
G1 X-110.409 Y-73.409 Z-0.061
G3 X-113.591 Y-76.591 Z-0.307 I-1.591 J-1.591
G1 X-101.591 Y-88.591 Z-0.9
G3 X-98.409 Y-85.409 I1.591 J1.591 F600
G1 X-110.409 Y-73.409
G3 X-113.591 Y-76.591 I-1.591 J-1.591
G1 X-101.591 Y-88.591
G3 X-98.409 Y-85.409 Z-1.147 I1.591 J1.591 F1016
G1 X-106.573 Y-77.245 Z-1.55
X-110.409 Y-73.409 F600
G3 X-113.591 Y-76.591 I-1.591 J-1.591
G1 X-101.591 Y-88.591
G3 X-98.409 Y-85.409 I1.591 J1.591
G1 X-106.573 Y-77.245
X-110.409 Y-73.409 Z-1.739 F1016
G3 X-113.591 Y-76.591 Z-1.986 I-1.591 J-1.591
G1 X-109.263 Y-80.919 Z-2.2
X-101.591 Y-88.591 F600
G3 X-98.409 Y-85.409 I1.591 J1.591
G1 X-106.573 Y-77.245
X-110.409 Y-73.409
G3 X-113.591 Y-76.591 I-1.591 J-1.591
G1 X-109.263 Y-80.919
G0 Z10
X-91.494 Y-83.688
Z5.2
G1 Z2.7 F300
X-86.591 Y-88.591 Z2.458 F1016
G3 X-83.409 Y-85.409 Z2.211 I1.591 J1.591
G1 X-95.409 Y-73.409 Z1.618
G3 X-98.591 Y-76.591 Z1.372 I-1.591 J-1.591
G1 X-86.591 Y-88.591 Z0.779
G3 X-83.409 Y-85.409 Z0.532 I1.591 J1.591
G1 X-95.409 Y-73.409 Z-0.061
G3 X-98.591 Y-76.591 Z-0.307 I-1.591 J-1.591
G1 X-86.591 Y-88.591 Z-0.9
G3 X-83.409 Y-85.409 I1.591 J1.591 F600
G1 X-95.409 Y-73.409
G3 X-98.591 Y-76.591 I-1.591 J-1.591
G1 X-86.591 Y-88.591
G3 X-83.409 Y-85.409 Z-1.147 I1.591 J1.591 F1016
G1 X-91.573 Y-77.245 Z-1.55
X-95.409 Y-73.409 F600
G3 X-98.591 Y-76.591 I-1.591 J-1.591
G1 X-86.591 Y-88.591
G3 X-83.409 Y-85.409 I1.591 J1.591
G1 X-91.573 Y-77.245
X-95.409 Y-73.409 Z-1.739 F1016
G3 X-98.591 Y-76.591 Z-1.986 I-1.591 J-1.591
G1 X-94.264 Y-80.918 Z-2.2
X-86.591 Y-88.591 F600
G3 X-83.409 Y-85.409 I1.591 J1.591
G1 X-91.573 Y-77.245
X-95.409 Y-73.409
G3 X-98.591 Y-76.591 I-1.591 J-1.591
G1 X-94.264 Y-80.918
G0 Z10
X-75.506 Y-78.312
Z5.2
G1 Z2.7 F300
X-80.409 Y-73.409 Z2.458 F1016
G3 X-83.591 Y-76.591 Z2.211 I-1.591 J-1.591
G1 X-71.591 Y-88.591 Z1.618
G3 X-68.409 Y-85.409 Z1.372 I1.591 J1.591
G1 X-80.409 Y-73.409 Z0.779
G3 X-83.591 Y-76.591 Z0.532 I-1.591 J-1.591
G1 X-71.591 Y-88.591 Z-0.061
G3 X-68.409 Y-85.409 Z-0.307 I1.591 J1.591
G1 X-80.409 Y-73.409 Z-0.9
G3 X-83.591 Y-76.591 I-1.591 J-1.591 F600
G1 X-71.591 Y-88.591
G3 X-68.409 Y-85.409 I1.591 J1.591
G1 X-80.409 Y-73.409
G3 X-83.591 Y-76.591 Z-1.147 I-1.591 J-1.591 F1016
G1 X-75.427 Y-84.755 Z-1.55
X-71.591 Y-88.591 F600
G3 X-68.409 Y-85.409 I1.591 J1.591
G1 X-80.409 Y-73.409
G3 X-83.591 Y-76.591 I-1.591 J-1.591
G1 X-75.427 Y-84.755
X-71.591 Y-88.591 Z-1.739 F1016
G3 X-68.409 Y-85.409 Z-1.986 I1.591 J1.591
G1 X-72.736 Y-81.082 Z-2.2
X-80.409 Y-73.409 F600
G3 X-83.591 Y-76.591 I-1.591 J-1.591
G1 X-75.427 Y-84.755
X-71.591 Y-88.591
G3 X-68.409 Y-85.409 I1.591 J1.591
G1 X-72.736 Y-81.082
G0 Z10
X-61.494 Y-83.688
Z5.2
G1 Z2.7 F300
X-56.591 Y-88.591 Z2.458 F1016
G3 X-53.409 Y-85.409 Z2.211 I1.591 J1.591
G1 X-65.409 Y-73.409 Z1.618
G3 X-68.591 Y-76.591 Z1.372 I-1.591 J-1.591
G1 X-56.591 Y-88.591 Z0.779
G3 X-53.409 Y-85.409 Z0.532 I1.591 J1.591
G1 X-65.409 Y-73.409 Z-0.061
G3 X-68.591 Y-76.591 Z-0.307 I-1.591 J-1.591
G1 X-56.591 Y-88.591 Z-0.9
G3 X-53.409 Y-85.409 I1.591 J1.591 F600
G1 X-65.409 Y-73.409
G3 X-68.591 Y-76.591 I-1.591 J-1.591
G1 X-56.591 Y-88.591
G3 X-53.409 Y-85.409 Z-1.147 I1.591 J1.591 F1016
G1 X-61.573 Y-77.245 Z-1.55
X-65.409 Y-73.409 F600
G3 X-68.591 Y-76.591 I-1.591 J-1.591
G1 X-56.591 Y-88.591
G3 X-53.409 Y-85.409 I1.591 J1.591
G1 X-61.573 Y-77.245
X-65.409 Y-73.409 Z-1.739 F1016
G3 X-68.591 Y-76.591 Z-1.986 I-1.591 J-1.591
G1 X-64.264 Y-80.918 Z-2.2
X-56.591 Y-88.591 F600
G3 X-53.409 Y-85.409 I1.591 J1.591
G1 X-61.573 Y-77.245
X-65.409 Y-73.409
G3 X-68.591 Y-76.591 I-1.591 J-1.591
G1 X-64.264 Y-80.918
G0 Z10
X-45.506 Y-78.312
Z5.2
G1 Z2.7 F300
X-50.409 Y-73.409 Z2.458 F1016
G3 X-53.591 Y-76.591 Z2.211 I-1.591 J-1.591
G1 X-41.591 Y-88.591 Z1.618
G3 X-38.409 Y-85.409 Z1.372 I1.591 J1.591
G1 X-50.409 Y-73.409 Z0.779
G3 X-53.591 Y-76.591 Z0.532 I-1.591 J-1.591
G1 X-41.591 Y-88.591 Z-0.061
G3 X-38.409 Y-85.409 Z-0.307 I1.591 J1.591
G1 X-50.409 Y-73.409 Z-0.9
G3 X-53.591 Y-76.591 I-1.591 J-1.591 F600
G1 X-41.591 Y-88.591
G3 X-38.409 Y-85.409 I1.591 J1.591
G1 X-50.409 Y-73.409
G3 X-53.591 Y-76.591 Z-1.147 I-1.591 J-1.591 F1016
G1 X-45.427 Y-84.755 Z-1.55
X-41.591 Y-88.591 F600
G3 X-38.409 Y-85.409 I1.591 J1.591
G1 X-50.409 Y-73.409
G3 X-53.591 Y-76.591 I-1.591 J-1.591
G1 X-45.427 Y-84.755
X-41.591 Y-88.591 Z-1.739 F1016
G3 X-38.409 Y-85.409 Z-1.986 I1.591 J1.591
G1 X-42.736 Y-81.082 Z-2.2
X-50.409 Y-73.409 F600
G3 X-53.591 Y-76.591 I-1.591 J-1.591
G1 X-45.427 Y-84.755
X-41.591 Y-88.591
G3 X-38.409 Y-85.409 I1.591 J1.591
G1 X-42.736 Y-81.082
G0 Z10
X-26.493 Y-88.683
Z5.2
G1 Z2.7 F300
G3 X-23.409 Y-85.409 Z2.458 I1.493 J1.683 F1016
G1 X-35.409 Y-73.409 Z1.865
G3 X-38.591 Y-76.591 Z1.618 I-1.591 J-1.591
G1 X-26.591 Y-88.591 Z1.026
G3 X-23.409 Y-85.409 Z0.779 I1.591 J1.591
G1 X-35.409 Y-73.409 Z0.186
G3 X-38.591 Y-76.591 Z-0.061 I-1.591 J-1.591
G1 X-26.591 Y-88.591 Z-0.653
G3 X-23.409 Y-85.409 Z-0.9 I1.591 J1.591
G1 X-35.409 Y-73.409 F600
G3 X-38.591 Y-76.591 I-1.591 J-1.591
G1 X-26.591 Y-88.591
G3 X-23.409 Y-85.409 I1.591 J1.591
G1 X-35.409 Y-73.409 Z-1.493 F1016
G3 X-36.876 Y-72.753 Z-1.55 I-1.591 J-1.591
X-38.591 Y-76.591 I-0.124 J-2.247 F600
G1 X-26.591 Y-88.591
G3 X-23.409 Y-85.409 I1.591 J1.591
G1 X-35.409 Y-73.409
G3 X-36.876 Y-72.753 I-1.591 J-1.591
X-38.591 Y-76.591 Z-1.739 I-0.124 J-2.247 F1016
G1 X-29.266 Y-85.916 Z-2.2
X-26.591 Y-88.591 F600
G3 X-23.409 Y-85.409 I1.591 J1.591
G1 X-35.409 Y-73.409
G3 X-38.591 Y-76.591 I-1.591 J-1.591
G1 X-29.266 Y-85.916
G0 Z10
X-28.312 Y-59.494
Z5.2
G1 Z2.7 F300
X-23.409 Y-54.591 Z2.458 F1016
G3 X-26.591 Y-51.409 Z2.211 I-1.591 J1.591
G1 X-38.591 Y-63.409 Z1.618
G3 X-35.409 Y-66.591 Z1.372 I1.591 J-1.591
G1 X-23.409 Y-54.591 Z0.779
G3 X-26.591 Y-51.409 Z0.532 I-1.591 J1.591
G1 X-38.591 Y-63.409 Z-0.061
G3 X-35.409 Y-66.591 Z-0.307 I1.591 J-1.591
G1 X-23.409 Y-54.591 Z-0.9
G3 X-26.591 Y-51.409 I-1.591 J1.591 F600
G1 X-38.591 Y-63.409
G3 X-35.409 Y-66.591 I1.591 J-1.591
G1 X-23.409 Y-54.591
G3 X-26.591 Y-51.409 Z-1.147 I-1.591 J1.591 F1016
G1 X-34.755 Y-59.573 Z-1.55
X-38.591 Y-63.409 F600
G3 X-35.409 Y-66.591 I1.591 J-1.591
G1 X-23.409 Y-54.591
G3 X-26.591 Y-51.409 I-1.591 J1.591
G1 X-34.755 Y-59.573
X-38.591 Y-63.409 Z-1.739 F1016
G3 X-35.409 Y-66.591 Z-1.986 I1.591 J-1.591
G1 X-31.082 Y-62.264 Z-2.2
X-23.409 Y-54.591 F600
G3 X-26.591 Y-51.409 I-1.591 J1.591
G1 X-34.755 Y-59.573
X-38.591 Y-63.409
G3 X-35.409 Y-66.591 I1.591 J-1.591
G1 X-31.082 Y-62.264
G0 Z10
X-53.683 Y-63.507
Z5.2
G1 Z2.7 F300
G3 X-50.409 Y-66.591 Z2.458 I1.683 J-1.493 F1016
G1 X-38.409 Y-54.591 Z1.865
G3 X-41.591 Y-51.409 Z1.618 I-1.591 J1.591
G1 X-53.591 Y-63.409 Z1.026
G3 X-50.409 Y-66.591 Z0.779 I1.591 J-1.591
G1 X-38.409 Y-54.591 Z0.186
G3 X-41.591 Y-51.409 Z-0.061 I-1.591 J1.591
G1 X-53.591 Y-63.409 Z-0.653
G3 X-50.409 Y-66.591 Z-0.9 I1.591 J-1.591
G1 X-38.409 Y-54.591 F600
G3 X-41.591 Y-51.409 I-1.591 J1.591
G1 X-53.591 Y-63.409
G3 X-50.409 Y-66.591 I1.591 J-1.591
G1 X-38.409 Y-54.591 Z-1.493 F1016
G3 X-37.753 Y-53.124 Z-1.55 I-1.591 J1.591
X-41.591 Y-51.409 I-2.247 J0.124 F600
G1 X-53.591 Y-63.409
G3 X-50.409 Y-66.591 I1.591 J-1.591
G1 X-38.409 Y-54.591
G3 X-37.753 Y-53.124 I-1.591 J1.591
X-41.591 Y-51.409 Z-1.739 I-2.247 J0.124 F1016
G1 X-50.916 Y-60.734 Z-2.2
X-53.591 Y-63.409 F600
G3 X-50.409 Y-66.591 I1.591 J-1.591
G1 X-38.409 Y-54.591
G3 X-41.591 Y-51.409 I-1.591 J1.591
G1 X-50.916 Y-60.734
G0 Z10
X-53.317 Y-54.493
Z5.2
G1 Z2.7 F300
G3 X-56.591 Y-51.409 Z2.458 I-1.683 J1.493 F1016
G1 X-68.591 Y-63.409 Z1.865
G3 X-65.409 Y-66.591 Z1.618 I1.591 J-1.591
G1 X-53.409 Y-54.591 Z1.026
G3 X-56.591 Y-51.409 Z0.779 I-1.591 J1.591
G1 X-68.591 Y-63.409 Z0.186
G3 X-65.409 Y-66.591 Z-0.061 I1.591 J-1.591
G1 X-53.409 Y-54.591 Z-0.653
G3 X-56.591 Y-51.409 Z-0.9 I-1.591 J1.591
G1 X-68.591 Y-63.409 F600
G3 X-65.409 Y-66.591 I1.591 J-1.591
G1 X-53.409 Y-54.591
G3 X-56.591 Y-51.409 I-1.591 J1.591
G1 X-68.591 Y-63.409 Z-1.493 F1016
G3 X-69.247 Y-64.876 Z-1.55 I1.591 J-1.591
X-65.409 Y-66.591 I2.247 J-0.124 F600
G1 X-53.409 Y-54.591
G3 X-56.591 Y-51.409 I-1.591 J1.591
G1 X-68.591 Y-63.409
G3 X-69.247 Y-64.876 I1.591 J-1.591
X-65.409 Y-66.591 Z-1.739 I2.247 J-0.124 F1016
G1 X-56.084 Y-57.266 Z-2.2
X-53.409 Y-54.591 F600
G3 X-56.591 Y-51.409 I-1.591 J1.591
G1 X-68.591 Y-63.409
G3 X-65.409 Y-66.591 I1.591 J-1.591
G1 X-56.084 Y-57.266
G0 Z10
X-68.317 Y-54.493
Z5.2
G1 Z2.7 F300
G3 X-71.591 Y-51.409 Z2.458 I-1.683 J1.493 F1016
G1 X-83.591 Y-63.409 Z1.865
G3 X-80.409 Y-66.591 Z1.618 I1.591 J-1.591
G1 X-68.409 Y-54.591 Z1.026
G3 X-71.591 Y-51.409 Z0.779 I-1.591 J1.591
G1 X-83.591 Y-63.409 Z0.186
G3 X-80.409 Y-66.591 Z-0.061 I1.591 J-1.591
G1 X-68.409 Y-54.591 Z-0.653
G3 X-71.591 Y-51.409 Z-0.9 I-1.591 J1.591
G1 X-83.591 Y-63.409 F600
G3 X-80.409 Y-66.591 I1.591 J-1.591
G1 X-68.409 Y-54.591
G3 X-71.591 Y-51.409 I-1.591 J1.591
G1 X-83.591 Y-63.409 Z-1.493 F1016
G3 X-84.247 Y-64.876 Z-1.55 I1.591 J-1.591
X-80.409 Y-66.591 I2.247 J-0.124 F600
G1 X-68.409 Y-54.591
G3 X-71.591 Y-51.409 I-1.591 J1.591
G1 X-83.591 Y-63.409
G3 X-84.247 Y-64.876 I1.591 J-1.591
X-80.409 Y-66.591 Z-1.739 I2.247 J-0.124 F1016
G1 X-71.084 Y-57.266 Z-2.2
X-68.409 Y-54.591 F600
G3 X-71.591 Y-51.409 I-1.591 J1.591
G1 X-83.591 Y-63.409
G3 X-80.409 Y-66.591 I1.591 J-1.591
G1 X-71.084 Y-57.266
G0 Z10
X-98.683 Y-63.507
Z5.2
G1 Z2.7 F300
G3 X-95.409 Y-66.591 Z2.458 I1.683 J-1.493 F1016
G1 X-83.409 Y-54.591 Z1.865
G3 X-86.591 Y-51.409 Z1.618 I-1.591 J1.591
G1 X-98.591 Y-63.409 Z1.026
G3 X-95.409 Y-66.591 Z0.779 I1.591 J-1.591
G1 X-83.409 Y-54.591 Z0.186
G3 X-86.591 Y-51.409 Z-0.061 I-1.591 J1.591
G1 X-98.591 Y-63.409 Z-0.653
G3 X-95.409 Y-66.591 Z-0.9 I1.591 J-1.591
G1 X-83.409 Y-54.591 F600
G3 X-86.591 Y-51.409 I-1.591 J1.591
G1 X-98.591 Y-63.409
G3 X-95.409 Y-66.591 I1.591 J-1.591
G1 X-83.409 Y-54.591 Z-1.493 F1016
G3 X-82.753 Y-53.124 Z-1.55 I-1.591 J1.591
X-86.591 Y-51.409 I-2.247 J0.124 F600
G1 X-98.591 Y-63.409
G3 X-95.409 Y-66.591 I1.591 J-1.591
G1 X-83.409 Y-54.591
G3 X-82.753 Y-53.124 I-1.591 J1.591
X-86.591 Y-51.409 Z-1.739 I-2.247 J0.124 F1016
G1 X-95.916 Y-60.734 Z-2.2
X-98.591 Y-63.409 F600
G3 X-95.409 Y-66.591 I1.591 J-1.591
G1 X-83.409 Y-54.591
G3 X-86.591 Y-51.409 I-1.591 J1.591
G1 X-95.916 Y-60.734
G0 Z10
X-98.319 Y-54.495
Z5.2
G1 Z2.7 F300
G3 X-101.591 Y-51.409 Z2.458 I-1.681 J1.495 F1016
G1 X-113.591 Y-63.409 Z1.865
G3 X-113.591 Y-66.591 Z1.742 I1.591 J-1.591
X-110.409 Y-66.591 Z1.618 I1.591 J1.591
G1 X-98.409 Y-54.591 Z1.026
G3 X-101.591 Y-51.409 Z0.779 I-1.591 J1.591
G1 X-113.591 Y-63.409 Z0.186
G3 X-113.591 Y-66.591 Z0.063 I1.591 J-1.591
X-110.409 Y-66.591 Z-0.061 I1.591 J1.591
G1 X-98.409 Y-54.591 Z-0.653
G3 X-101.591 Y-51.409 Z-0.9 I-1.591 J1.591
G1 X-113.591 Y-63.409 F600
G3 X-113.591 Y-66.591 I1.591 J-1.591
X-110.409 Y-66.591 I1.591 J1.591
G1 X-98.409 Y-54.591
G3 X-101.591 Y-51.409 I-1.591 J1.591
G1 X-113.591 Y-63.409 Z-1.493 F1016
G3 X-114.246 Y-64.876 Z-1.55 I1.591 J-1.591
X-110.409 Y-66.591 I2.246 J-0.124 F600
G1 X-98.409 Y-54.591
G3 X-101.591 Y-51.409 I-1.591 J1.591
G1 X-113.591 Y-63.409
G3 X-114.246 Y-64.876 I1.591 J-1.591
X-110.409 Y-66.591 Z-1.739 I2.246 J-0.124 F1016
G1 X-101.083 Y-57.265 Z-2.2
X-98.409 Y-54.591 F600
G3 X-101.591 Y-51.409 I-1.591 J1.591
G1 X-113.591 Y-63.409
G3 X-113.591 Y-66.591 I1.591 J-1.591
X-110.409 Y-66.591 I1.591 J1.591
G1 X-101.083 Y-57.265
G0 Z10
X-132.857 Y-35.495
Z5.2
G1 Z2.7 F300
X-132.871 Y-35.301 Z2.693 F1016
X-132.977 Y-34.319 Z2.659
X-133.11 Y-33.402 Z2.626
X-133.265 Y-32.552 Z2.596
X-133.437 Y-31.768 Z2.568
X-133.623 Y-31.047 Z2.542
X-133.821 Y-30.386 Z2.518
X-134.029 Y-29.783 Z2.496
X-134.245 Y-29.234 Z2.475
X-134.468 Y-28.737 Z2.456
X-134.695 Y-28.292 Z2.439
X-134.926 Y-27.895 Z2.423
X-135.157 Y-27.545 Z2.408
X-135.387 Y-27.243 Z2.395
X-135.615 Y-26.985 Z2.383
X-135.839 Y-26.77 Z2.372
X-136.055 Y-26.598 Z2.362
X-136.263 Y-26.464 Z2.354
X-136.462 Y-26.366 Z2.346
X-136.649 Y-26.3 Z2.339
X-136.83 Y-26.263 Z2.332
X-136.999 Y-26.252 Z2.327
X-137.176 Y-26.264 Z2.32
X-137.356 Y-26.302 Z2.314
X-137.544 Y-26.368 Z2.307
X-137.741 Y-26.467 Z2.299
X-137.948 Y-26.6 Z2.291
X-138.163 Y-26.772 Z2.281
X-138.385 Y-26.985 Z2.27
X-138.61 Y-27.24 Z2.258
X-138.838 Y-27.538 Z2.245
X-139.066 Y-27.881 Z2.231
X-139.293 Y-28.269 Z2.215
X-139.516 Y-28.704 Z2.198
X-139.735 Y-29.186 Z2.18
X-139.947 Y-29.717 Z2.16
X-140.15 Y-30.298 Z2.138
X-140.345 Y-30.931 Z2.115
X-140.528 Y-31.618 Z2.09
X-140.697 Y-32.361 Z2.064
X-140.85 Y-33.162 Z2.035
X-140.983 Y-34.024 Z2.005
X-141.095 Y-34.947 Z1.972
X-141.179 Y-35.929 Z1.938
X-141.232 Y-36.963 Z1.902
X-141.25 Y-38.031 Z1.864
X-141.229 Y-39.11 Z1.827
X-141.172 Y-40.169 Z1.79
X-141.081 Y-41.181 Z1.754
X-140.962 Y-42.132 Z1.721
X-140.818 Y-43.017 Z1.689
X-140.654 Y-43.835 Z1.66
X-140.476 Y-44.588 Z1.633
X-140.283 Y-45.279 Z1.608
X-140.08 Y-45.912 Z1.585
X-139.867 Y-46.489 Z1.564
X-139.647 Y-47.012 Z1.544
X-139.422 Y-47.484 Z1.525
X-139.194 Y-47.907 Z1.509
X-138.963 Y-48.28 Z1.493
X-138.732 Y-48.606 Z1.479
X-138.502 Y-48.888 Z1.467
X-138.276 Y-49.124 Z1.455
X-138.055 Y-49.318 Z1.445
X-137.843 Y-49.472 Z1.436
X-137.64 Y-49.588 Z1.428
X-137.447 Y-49.669 Z1.42
X-137.262 Y-49.721 Z1.414
X-137.084 Y-49.745 Z1.407
X-136.909 Z1.401
X-136.732 Y-49.72 Z1.395
X-136.548 Y-49.667 Z1.388
X-136.355 Y-49.585 Z1.381
X-136.153 Y-49.469 Z1.373
X-135.941 Y-49.316 Z1.364
X-135.723 Y-49.123 Z1.354
X-135.499 Y-48.889 Z1.342
X-135.273 Y-48.612 Z1.33
X-135.044 Y-48.29 Z1.316
X-134.816 Y-47.924 Z1.301
X-134.592 Y-47.512 Z1.285
X-134.37 Y-47.053 Z1.267
X-134.155 Y-46.546 Z1.248
X-133.947 Y-45.99 Z1.227
X-133.748 Y-45.381 Z1.204
X-133.559 Y-44.721 Z1.18
X-133.383 Y-44.005 Z1.155
X-133.222 Y-43.233 Z1.127
X-133.079 Y-42.4 Z1.098
X-132.956 Y-41.507 Z1.066
X-132.858 Y-40.553 Z1.033
X-132.789 Y-39.543 Z0.997
X-132.754 Y-38.488 Z0.961
X-132.756 Y-37.411 Z0.923
X-132.796 Y-36.339 Z0.885
X-132.871 Y-35.301 Z0.849
X-132.977 Y-34.319 Z0.815
X-133.11 Y-33.402 Z0.782
X-133.265 Y-32.552 Z0.752
X-133.437 Y-31.768 Z0.724
X-133.623 Y-31.047 Z0.698
X-133.821 Y-30.386 Z0.674
X-134.029 Y-29.783 Z0.652
X-134.245 Y-29.234 Z0.631
X-134.468 Y-28.737 Z0.612
X-134.695 Y-28.292 Z0.595
X-134.926 Y-27.895 Z0.579
X-135.157 Y-27.545 Z0.564
X-135.387 Y-27.243 Z0.551
X-135.615 Y-26.985 Z0.539
X-135.839 Y-26.77 Z0.528
X-136.055 Y-26.598 Z0.518
X-136.263 Y-26.464 Z0.51
X-136.462 Y-26.366 Z0.502
X-136.649 Y-26.3 Z0.495
X-136.83 Y-26.263 Z0.488
X-136.999 Y-26.252 Z0.482
X-137.176 Y-26.264 Z0.476
X-137.356 Y-26.302 Z0.47
X-137.544 Y-26.368 Z0.463
X-137.741 Y-26.467 Z0.455
X-137.948 Y-26.6 Z0.447
X-138.163 Y-26.772 Z0.437
X-138.385 Y-26.985 Z0.426
X-138.61 Y-27.24 Z0.414
X-138.838 Y-27.538 Z0.401
X-139.066 Y-27.881 Z0.387
X-139.293 Y-28.269 Z0.371
X-139.516 Y-28.704 Z0.354
X-139.735 Y-29.186 Z0.336
X-139.947 Y-29.717 Z0.316
X-140.15 Y-30.298 Z0.294
X-140.345 Y-30.931 Z0.271
X-140.528 Y-31.618 Z0.246
X-140.697 Y-32.361 Z0.22
X-140.85 Y-33.162 Z0.191
X-140.983 Y-34.024 Z0.161
X-141.095 Y-34.947 Z0.128
X-141.179 Y-35.929 Z0.094
X-141.232 Y-36.963 Z0.058
X-141.25 Y-38.031 Z0.02
X-141.229 Y-39.11 Z-0.017
X-141.172 Y-40.169 Z-0.054
X-141.081 Y-41.181 Z-0.09
X-140.962 Y-42.132 Z-0.123
X-140.818 Y-43.017 Z-0.155
X-140.654 Y-43.835 Z-0.184
X-140.476 Y-44.588 Z-0.211
X-140.283 Y-45.279 Z-0.236
X-140.08 Y-45.912 Z-0.259
X-139.867 Y-46.489 Z-0.281
X-139.647 Y-47.012 Z-0.3
X-139.422 Y-47.484 Z-0.319
X-139.194 Y-47.907 Z-0.335
X-138.963 Y-48.28 Z-0.351
X-138.732 Y-48.606 Z-0.365
X-138.502 Y-48.888 Z-0.377
X-138.276 Y-49.124 Z-0.389
X-138.055 Y-49.318 Z-0.399
X-137.843 Y-49.472 Z-0.408
X-137.64 Y-49.588 Z-0.416
X-137.447 Y-49.669 Z-0.424
X-137.262 Y-49.721 Z-0.43
X-137.084 Y-49.745 Z-0.437
X-136.909 Z-0.443
X-136.732 Y-49.72 Z-0.449
X-136.548 Y-49.667 Z-0.456
X-136.355 Y-49.585 Z-0.463
X-136.153 Y-49.469 Z-0.471
X-135.941 Y-49.316 Z-0.48
X-135.723 Y-49.123 Z-0.49
X-135.499 Y-48.889 Z-0.502
X-135.273 Y-48.612 Z-0.514
X-135.044 Y-48.29 Z-0.528
X-134.816 Y-47.924 Z-0.543
X-134.592 Y-47.512 Z-0.559
X-134.37 Y-47.053 Z-0.577
X-134.155 Y-46.546 Z-0.597
X-133.947 Y-45.99 Z-0.617
X-133.748 Y-45.381 Z-0.64
X-133.559 Y-44.721 Z-0.664
X-133.383 Y-44.005 Z-0.689
X-133.222 Y-43.233 Z-0.717
X-133.079 Y-42.4 Z-0.746
X-132.956 Y-41.507 Z-0.778
X-132.858 Y-40.553 Z-0.811
X-132.789 Y-39.543 Z-0.847
X-132.754 Y-38.488 Z-0.884
X-132.755 Y-38.018 Z-0.9
X-132.756 Y-37.411 F600
X-132.796 Y-36.339
X-132.871 Y-35.301
X-132.977 Y-34.319
X-133.11 Y-33.402
X-133.265 Y-32.552
X-133.437 Y-31.768
X-133.623 Y-31.047
X-133.821 Y-30.386
X-134.029 Y-29.783
X-134.245 Y-29.234
X-134.468 Y-28.737
X-134.695 Y-28.292
X-134.926 Y-27.895
X-135.157 Y-27.545
X-135.387 Y-27.243
X-135.615 Y-26.985
X-135.839 Y-26.77
X-136.055 Y-26.598
X-136.263 Y-26.464
X-136.462 Y-26.366
X-136.649 Y-26.3
X-136.83 Y-26.263
X-136.999 Y-26.252
X-137.176 Y-26.264
X-137.356 Y-26.302
X-137.544 Y-26.368
X-137.741 Y-26.467
X-137.948 Y-26.6
X-138.163 Y-26.772
X-138.385 Y-26.985
X-138.61 Y-27.24
X-138.838 Y-27.538
X-139.066 Y-27.881
X-139.293 Y-28.269
X-139.516 Y-28.704
X-139.735 Y-29.186
X-139.947 Y-29.717
X-140.15 Y-30.298
X-140.345 Y-30.931
X-140.528 Y-31.618
X-140.697 Y-32.361
X-140.85 Y-33.162
X-140.983 Y-34.024
X-141.095 Y-34.947
X-141.179 Y-35.929
X-141.232 Y-36.963
X-141.25 Y-38.031
X-141.229 Y-39.11
X-141.172 Y-40.169
X-141.081 Y-41.181
X-140.962 Y-42.132
X-140.818 Y-43.017
X-140.654 Y-43.835
X-140.476 Y-44.588
X-140.283 Y-45.279
X-140.08 Y-45.912
X-139.867 Y-46.489
X-139.647 Y-47.012
X-139.422 Y-47.484
X-139.194 Y-47.907
X-138.963 Y-48.28
X-138.732 Y-48.606
X-138.502 Y-48.888
X-138.276 Y-49.124
X-138.055 Y-49.318
X-137.843 Y-49.472
X-137.64 Y-49.588
X-137.447 Y-49.669
X-137.262 Y-49.721
X-137.084 Y-49.745
X-136.909
X-136.732 Y-49.72
X-136.548 Y-49.667
X-136.355 Y-49.585
X-136.153 Y-49.469
X-135.941 Y-49.316
X-135.723 Y-49.123
X-135.499 Y-48.889
X-135.273 Y-48.612
X-135.044 Y-48.29
X-134.816 Y-47.924
X-134.592 Y-47.512
X-134.37 Y-47.053
X-134.155 Y-46.546
X-133.947 Y-45.99
X-133.748 Y-45.381
X-133.559 Y-44.721
X-133.383 Y-44.005
X-133.222 Y-43.233
X-133.079 Y-42.4
X-132.956 Y-41.507
X-132.858 Y-40.553
X-132.789 Y-39.543
X-132.754 Y-38.488
X-132.755 Y-38.018
X-132.756 Y-37.411 Z-0.921 F1016
X-132.796 Y-36.339 Z-0.959
X-132.871 Y-35.301 Z-0.995
X-132.977 Y-34.319 Z-1.029
X-133.11 Y-33.402 Z-1.062
X-133.265 Y-32.552 Z-1.092
X-133.437 Y-31.768 Z-1.12
X-133.623 Y-31.047 Z-1.146
X-133.821 Y-30.386 Z-1.17
X-134.029 Y-29.783 Z-1.192
X-134.245 Y-29.234 Z-1.213
X-134.468 Y-28.737 Z-1.232
X-134.695 Y-28.292 Z-1.25
X-134.926 Y-27.895 Z-1.266
X-135.157 Y-27.545 Z-1.28
X-135.387 Y-27.243 Z-1.293
X-135.615 Y-26.985 Z-1.305
X-135.839 Y-26.77 Z-1.316
X-136.055 Y-26.598 Z-1.326
X-136.263 Y-26.464 Z-1.335
X-136.462 Y-26.366 Z-1.342
X-136.649 Y-26.3 Z-1.349
X-136.83 Y-26.263 Z-1.356
X-136.999 Y-26.252 Z-1.362
X-137.176 Y-26.264 Z-1.368
X-137.356 Y-26.302 Z-1.374
X-137.544 Y-26.368 Z-1.381
X-137.741 Y-26.467 Z-1.389
X-137.948 Y-26.6 Z-1.398
X-138.163 Y-26.772 Z-1.407
X-138.385 Y-26.985 Z-1.418
X-138.61 Y-27.24 Z-1.43
X-138.838 Y-27.538 Z-1.443
X-139.066 Y-27.881 Z-1.457
X-139.293 Y-28.269 Z-1.473
X-139.516 Y-28.704 Z-1.49
X-139.735 Y-29.186 Z-1.508
X-139.947 Y-29.717 Z-1.528
X-140.15 Y-30.298 Z-1.55
X-140.151 Y-30.3
X-140.345 Y-30.931 F600
X-140.528 Y-31.618
X-140.697 Y-32.361
X-140.85 Y-33.162
X-140.983 Y-34.024
X-141.095 Y-34.947
X-141.179 Y-35.929
X-141.232 Y-36.963
X-141.25 Y-38.031
X-141.229 Y-39.11
X-141.172 Y-40.169
X-141.081 Y-41.181
X-140.962 Y-42.132
X-140.818 Y-43.017
X-140.654 Y-43.835
X-140.476 Y-44.588
X-140.283 Y-45.279
X-140.08 Y-45.912
X-139.867 Y-46.489
X-139.647 Y-47.012
X-139.422 Y-47.484
X-139.194 Y-47.907
X-138.963 Y-48.28
X-138.732 Y-48.606
X-138.502 Y-48.888
X-138.276 Y-49.124
X-138.055 Y-49.318
X-137.843 Y-49.472
X-137.64 Y-49.588
X-137.447 Y-49.669
X-137.262 Y-49.721
X-137.084 Y-49.745
X-136.909
X-136.732 Y-49.72
X-136.548 Y-49.667
X-136.355 Y-49.585
X-136.153 Y-49.469
X-135.941 Y-49.316
X-135.723 Y-49.123
X-135.499 Y-48.889
X-135.273 Y-48.612
X-135.044 Y-48.29
X-134.816 Y-47.924
X-134.592 Y-47.512
X-134.37 Y-47.053
X-134.155 Y-46.546
X-133.947 Y-45.99
X-133.748 Y-45.381
X-133.559 Y-44.721
X-133.383 Y-44.005
X-133.222 Y-43.233
X-133.079 Y-42.4
X-132.956 Y-41.507
X-132.858 Y-40.553
X-132.789 Y-39.543
X-132.754 Y-38.488
X-132.756 Y-37.411
X-132.796 Y-36.339
X-132.871 Y-35.301
X-132.977 Y-34.319
X-133.11 Y-33.402
X-133.265 Y-32.552
X-133.437 Y-31.768
X-133.623 Y-31.047
X-133.821 Y-30.386
X-134.029 Y-29.783
X-134.245 Y-29.234
X-134.468 Y-28.737
X-134.695 Y-28.292
X-134.926 Y-27.895
X-135.157 Y-27.545
X-135.387 Y-27.243
X-135.615 Y-26.985
X-135.839 Y-26.77
X-136.055 Y-26.598
X-136.263 Y-26.464
X-136.462 Y-26.366
X-136.649 Y-26.3
X-136.83 Y-26.263
X-136.999 Y-26.252
X-137.176 Y-26.264
X-137.356 Y-26.302
X-137.544 Y-26.368
X-137.741 Y-26.467
X-137.948 Y-26.6
X-138.163 Y-26.772
X-138.385 Y-26.985
X-138.61 Y-27.24
X-138.838 Y-27.538
X-139.066 Y-27.881
X-139.293 Y-28.269
X-139.516 Y-28.704
X-139.735 Y-29.186
X-139.947 Y-29.717
X-140.15 Y-30.298
X-140.151 Y-30.3
X-140.345 Y-30.931 Z-1.573 F1016
X-140.528 Y-31.618 Z-1.598
X-140.697 Y-32.361 Z-1.624
X-140.85 Y-33.162 Z-1.653
X-140.983 Y-34.024 Z-1.683
X-141.095 Y-34.947 Z-1.716
X-141.179 Y-35.929 Z-1.75
X-141.232 Y-36.963 Z-1.786
X-141.25 Y-38.031 Z-1.824
X-141.229 Y-39.11 Z-1.861
X-141.172 Y-40.169 Z-1.898
X-141.081 Y-41.181 Z-1.934
X-140.962 Y-42.132 Z-1.967
X-140.818 Y-43.017 Z-1.999
X-140.654 Y-43.835 Z-2.028
X-140.476 Y-44.588 Z-2.055
X-140.283 Y-45.279 Z-2.08
X-140.08 Y-45.912 Z-2.103
X-139.867 Y-46.489 Z-2.125
X-139.647 Y-47.012 Z-2.144
X-139.422 Y-47.484 Z-2.163
X-139.194 Y-47.907 Z-2.18
X-138.963 Y-48.28 Z-2.195
X-138.878 Y-48.401 Z-2.2
X-138.732 Y-48.606 F600
X-138.502 Y-48.888
X-138.276 Y-49.124
X-138.055 Y-49.318
X-137.843 Y-49.472
X-137.64 Y-49.588
X-137.447 Y-49.669
X-137.262 Y-49.721
X-137.084 Y-49.745
X-136.909
X-136.732 Y-49.72
X-136.548 Y-49.667
X-136.355 Y-49.585
X-136.153 Y-49.469
X-135.941 Y-49.316
X-135.723 Y-49.123
X-135.499 Y-48.889
X-135.273 Y-48.612
X-135.044 Y-48.29
X-134.816 Y-47.924
X-134.592 Y-47.512
X-134.37 Y-47.053
X-134.155 Y-46.546
X-133.947 Y-45.99
X-133.748 Y-45.381
X-133.559 Y-44.721
X-133.383 Y-44.005
X-133.222 Y-43.233
X-133.079 Y-42.4
X-132.956 Y-41.507
X-132.858 Y-40.553
X-132.789 Y-39.543
X-132.754 Y-38.488
X-132.756 Y-37.411
X-132.796 Y-36.339
X-132.871 Y-35.301
X-132.977 Y-34.319
X-133.11 Y-33.402
X-133.265 Y-32.552
X-133.437 Y-31.768
X-133.623 Y-31.047
X-133.821 Y-30.386
X-134.029 Y-29.783
X-134.245 Y-29.234
X-134.468 Y-28.737
X-134.695 Y-28.292
X-134.926 Y-27.895
X-135.157 Y-27.545
X-135.387 Y-27.243
X-135.615 Y-26.985
X-135.839 Y-26.77
X-136.055 Y-26.598
X-136.263 Y-26.464
X-136.462 Y-26.366
X-136.649 Y-26.3
X-136.83 Y-26.263
X-136.999 Y-26.252
X-137.176 Y-26.264
X-137.356 Y-26.302
X-137.544 Y-26.368
X-137.741 Y-26.467
X-137.948 Y-26.6
X-138.163 Y-26.772
X-138.385 Y-26.985
X-138.61 Y-27.24
X-138.838 Y-27.538
X-139.066 Y-27.881
X-139.293 Y-28.269
X-139.516 Y-28.704
X-139.735 Y-29.186
X-139.947 Y-29.717
X-140.15 Y-30.298
X-140.151 Y-30.3
X-140.345 Y-30.931
X-140.528 Y-31.618
X-140.697 Y-32.361
X-140.85 Y-33.162
X-140.983 Y-34.024
X-141.095 Y-34.947
X-141.179 Y-35.929
X-141.232 Y-36.963
X-141.25 Y-38.031
X-141.229 Y-39.11
X-141.172 Y-40.169
X-141.081 Y-41.181
X-140.962 Y-42.132
X-140.818 Y-43.017
X-140.654 Y-43.835
X-140.476 Y-44.588
X-140.283 Y-45.279
X-140.08 Y-45.912
X-139.867 Y-46.489
X-139.647 Y-47.012
X-139.422 Y-47.484
X-139.194 Y-47.907
X-138.963 Y-48.28
X-138.878 Y-48.401
G0 Z10
X-143.319 Y-54.496
Z5.2
G1 Z2.7 F300
G3 X-146.591 Y-51.409 Z2.458 I-1.681 J1.496 F1016
G1 X-158.591 Y-63.409 Z1.865
G3 X-158.591 Y-66.591 Z1.742 I1.591 J-1.591
X-155.409 Y-66.591 Z1.618 I1.591 J1.591
G1 X-143.409 Y-54.591 Z1.026
G3 X-143.409 Y-51.409 Z0.902 I-1.591 J1.591
X-146.591 Y-51.409 Z0.779 I-1.591 J-1.591
G1 X-158.591 Y-63.409 Z0.186
G3 X-158.591 Y-66.591 Z0.063 I1.591 J-1.591
X-155.409 Y-66.591 Z-0.061 I1.591 J1.591
G1 X-143.409 Y-54.591 Z-0.653
G3 X-143.409 Y-51.409 Z-0.777 I-1.591 J1.591
X-146.591 Y-51.409 Z-0.9 I-1.591 J-1.591
G1 X-158.591 Y-63.409 F600
G3 X-158.591 Y-66.591 I1.591 J-1.591
X-155.409 Y-66.591 I1.591 J1.591
G1 X-143.409 Y-54.591
G3 X-143.409 Y-51.409 I-1.591 J1.591
X-146.591 Y-51.409 I-1.591 J-1.591
G1 X-158.591 Y-63.409 Z-1.493 F1016
G3 X-159.246 Y-64.876 Z-1.55 I1.591 J-1.591
X-155.409 Y-66.591 I2.246 J-0.124 F600
G1 X-143.409 Y-54.591
G3 X-143.409 Y-51.409 I-1.591 J1.591
X-146.591 Y-51.409 I-1.591 J-1.591
G1 X-158.591 Y-63.409
G3 X-159.246 Y-64.876 I1.591 J-1.591
X-155.409 Y-66.591 Z-1.739 I2.246 J-0.124 F1016
G1 X-146.083 Y-57.265 Z-2.2
X-143.409 Y-54.591 F600
G3 X-143.409 Y-51.409 I-1.591 J1.591
X-146.591 Y-51.409 I-1.591 J-1.591
G1 X-158.591 Y-63.409
G3 X-158.591 Y-66.591 I1.591 J-1.591
X-155.409 Y-66.591 I1.591 J1.591
G1 X-146.083 Y-57.265
G0 Z10
X-173.319 Y-54.496
Z5.2
G1 Z2.7 F300
G3 X-176.591 Y-51.409 Z2.458 I-1.681 J1.496 F1016
G1 X-188.591 Y-63.409 Z1.865
G3 X-188.591 Y-66.591 Z1.742 I1.591 J-1.591
X-185.409 Y-66.591 Z1.618 I1.591 J1.591
G1 X-173.409 Y-54.591 Z1.026
G3 X-173.409 Y-51.409 Z0.902 I-1.591 J1.591
X-176.591 Y-51.409 Z0.779 I-1.591 J-1.591
G1 X-188.591 Y-63.409 Z0.186
G3 X-188.591 Y-66.591 Z0.063 I1.591 J-1.591
X-185.409 Y-66.591 Z-0.061 I1.591 J1.591
G1 X-173.409 Y-54.591 Z-0.653
G3 X-173.409 Y-51.409 Z-0.777 I-1.591 J1.591
X-176.591 Y-51.409 Z-0.9 I-1.591 J-1.591
G1 X-188.591 Y-63.409 F600
G3 X-188.591 Y-66.591 I1.591 J-1.591
X-185.409 Y-66.591 I1.591 J1.591
G1 X-173.409 Y-54.591
G3 X-173.409 Y-51.409 I-1.591 J1.591
X-176.591 Y-51.409 I-1.591 J-1.591
G1 X-188.591 Y-63.409 Z-1.493 F1016
G3 X-189.246 Y-64.876 Z-1.55 I1.591 J-1.591
X-185.409 Y-66.591 I2.246 J-0.124 F600
G1 X-173.409 Y-54.591
G3 X-173.409 Y-51.409 I-1.591 J1.591
X-176.591 Y-51.409 I-1.591 J-1.591
G1 X-188.591 Y-63.409
G3 X-189.246 Y-64.876 I1.591 J-1.591
X-185.409 Y-66.591 Z-1.739 I2.246 J-0.124 F1016
G1 X-176.083 Y-57.265 Z-2.2
X-173.409 Y-54.591 F600
G3 X-173.409 Y-51.409 I-1.591 J1.591
X-176.591 Y-51.409 I-1.591 J-1.591
G1 X-188.591 Y-63.409
G3 X-188.591 Y-66.591 I1.591 J-1.591
X-185.409 Y-66.591 I1.591 J1.591
G1 X-176.083 Y-57.265
G0 Z10
X-188.319 Y-54.496
Z5.2
G1 Z2.7 F300
G3 X-191.591 Y-51.409 Z2.458 I-1.681 J1.496 F1016
G1 X-203.591 Y-63.409 Z1.865
G3 X-203.591 Y-66.591 Z1.742 I1.591 J-1.591
X-200.409 Y-66.591 Z1.618 I1.591 J1.591
G1 X-188.409 Y-54.591 Z1.026
G3 X-188.409 Y-51.409 Z0.902 I-1.591 J1.591
X-191.591 Y-51.409 Z0.779 I-1.591 J-1.591
G1 X-203.591 Y-63.409 Z0.186
G3 X-203.591 Y-66.591 Z0.063 I1.591 J-1.591
X-200.409 Y-66.591 Z-0.061 I1.591 J1.591
G1 X-188.409 Y-54.591 Z-0.653
G3 X-188.409 Y-51.409 Z-0.777 I-1.591 J1.591
X-191.591 Y-51.409 Z-0.9 I-1.591 J-1.591
G1 X-203.591 Y-63.409 F600
G3 X-203.591 Y-66.591 I1.591 J-1.591
X-200.409 Y-66.591 I1.591 J1.591
G1 X-188.409 Y-54.591
G3 X-188.409 Y-51.409 I-1.591 J1.591
X-191.591 Y-51.409 I-1.591 J-1.591
G1 X-203.591 Y-63.409 Z-1.493 F1016
G3 X-204.246 Y-64.876 Z-1.55 I1.591 J-1.591
X-200.409 Y-66.591 I2.246 J-0.124 F600
G1 X-188.409 Y-54.591
G3 X-188.409 Y-51.409 I-1.591 J1.591
X-191.591 Y-51.409 I-1.591 J-1.591
G1 X-203.591 Y-63.409
G3 X-204.246 Y-64.876 I1.591 J-1.591
X-200.409 Y-66.591 Z-1.739 I2.246 J-0.124 F1016
G1 X-191.083 Y-57.265 Z-2.2
X-188.409 Y-54.591 F600
G3 X-188.409 Y-51.409 I-1.591 J1.591
X-191.591 Y-51.409 I-1.591 J-1.591
G1 X-203.591 Y-63.409
G3 X-203.591 Y-66.591 I1.591 J-1.591
X-200.409 Y-66.591 I1.591 J1.591
G1 X-191.083 Y-57.265
G0 Z10
X-203.319 Y-54.496
Z5.2
G1 Z2.7 F300
G3 X-206.591 Y-51.409 Z2.458 I-1.681 J1.496 F1016
G1 X-218.591 Y-63.409 Z1.865
G3 X-218.591 Y-66.591 Z1.742 I1.591 J-1.591
X-215.409 Y-66.591 Z1.618 I1.591 J1.591
G1 X-203.409 Y-54.591 Z1.026
G3 X-203.409 Y-51.409 Z0.902 I-1.591 J1.591
X-206.591 Y-51.409 Z0.779 I-1.591 J-1.591
G1 X-218.591 Y-63.409 Z0.186
G3 X-218.591 Y-66.591 Z0.063 I1.591 J-1.591
X-215.409 Y-66.591 Z-0.061 I1.591 J1.591
G1 X-203.409 Y-54.591 Z-0.653
G3 X-203.409 Y-51.409 Z-0.777 I-1.591 J1.591
X-206.591 Y-51.409 Z-0.9 I-1.591 J-1.591
G1 X-218.591 Y-63.409 F600
G3 X-218.591 Y-66.591 I1.591 J-1.591
X-215.409 Y-66.591 I1.591 J1.591
G1 X-203.409 Y-54.591
G3 X-203.409 Y-51.409 I-1.591 J1.591
X-206.591 Y-51.409 I-1.591 J-1.591
G1 X-218.591 Y-63.409 Z-1.493 F1016
G3 X-219.246 Y-64.876 Z-1.55 I1.591 J-1.591
X-215.409 Y-66.591 I2.246 J-0.124 F600
G1 X-203.409 Y-54.591
G3 X-203.409 Y-51.409 I-1.591 J1.591
X-206.591 Y-51.409 I-1.591 J-1.591
G1 X-218.591 Y-63.409
G3 X-219.246 Y-64.876 I1.591 J-1.591
X-215.409 Y-66.591 Z-1.739 I2.246 J-0.124 F1016
G1 X-206.083 Y-57.265 Z-2.2
X-203.409 Y-54.591 F600
G3 X-203.409 Y-51.409 I-1.591 J1.591
X-206.591 Y-51.409 I-1.591 J-1.591
G1 X-218.591 Y-63.409
G3 X-218.591 Y-66.591 I1.591 J-1.591
X-215.409 Y-66.591 I1.591 J1.591
G1 X-206.083 Y-57.265
G0 Z10
X-218.319 Y-54.496
Z5.2
G1 Z2.7 F300
G3 X-221.591 Y-51.409 Z2.458 I-1.681 J1.496 F1016
G1 X-233.591 Y-63.409 Z1.865
G3 X-233.591 Y-66.591 Z1.742 I1.591 J-1.591
X-230.409 Y-66.591 Z1.618 I1.591 J1.591
G1 X-218.409 Y-54.591 Z1.026
G3 X-218.409 Y-51.409 Z0.902 I-1.591 J1.591
X-221.591 Y-51.409 Z0.779 I-1.591 J-1.591
G1 X-233.591 Y-63.409 Z0.186
G3 X-233.591 Y-66.591 Z0.063 I1.591 J-1.591
X-230.409 Y-66.591 Z-0.061 I1.591 J1.591
G1 X-218.409 Y-54.591 Z-0.653
G3 X-218.409 Y-51.409 Z-0.777 I-1.591 J1.591
X-221.591 Y-51.409 Z-0.9 I-1.591 J-1.591
G1 X-233.591 Y-63.409 F600
G3 X-233.591 Y-66.591 I1.591 J-1.591
X-230.409 Y-66.591 I1.591 J1.591
G1 X-218.409 Y-54.591
G3 X-218.409 Y-51.409 I-1.591 J1.591
X-221.591 Y-51.409 I-1.591 J-1.591
G1 X-233.591 Y-63.409 Z-1.493 F1016
G3 X-234.246 Y-64.876 Z-1.55 I1.591 J-1.591
X-230.409 Y-66.591 I2.246 J-0.124 F600
G1 X-218.409 Y-54.591
G3 X-218.409 Y-51.409 I-1.591 J1.591
X-221.591 Y-51.409 I-1.591 J-1.591
G1 X-233.591 Y-63.409
G3 X-234.246 Y-64.876 I1.591 J-1.591
X-230.409 Y-66.591 Z-1.739 I2.246 J-0.124 F1016
G1 X-221.083 Y-57.265 Z-2.2
X-218.409 Y-54.591 F600
G3 X-218.409 Y-51.409 I-1.591 J1.591
X-221.591 Y-51.409 I-1.591 J-1.591
G1 X-233.591 Y-63.409
G3 X-233.591 Y-66.591 I1.591 J-1.591
X-230.409 Y-66.591 I1.591 J1.591
G1 X-221.083 Y-57.265
G0 Z10
X-248.681 Y-63.504
Z5.2
G1 Z2.7 F300
G3 X-245.409 Y-66.591 Z2.458 I1.681 J-1.496 F1016
G1 X-233.409 Y-54.591 Z1.865
G3 X-233.409 Y-51.409 Z1.742 I-1.591 J1.591
X-236.591 Y-51.409 Z1.618 I-1.591 J-1.591
G1 X-248.591 Y-63.409 Z1.026
G3 X-248.591 Y-66.591 Z0.902 I1.591 J-1.591
X-245.409 Y-66.591 Z0.779 I1.591 J1.591
G1 X-233.409 Y-54.591 Z0.186
G3 X-233.409 Y-51.409 Z0.063 I-1.591 J1.591
X-236.591 Y-51.409 Z-0.061 I-1.591 J-1.591
G1 X-248.591 Y-63.409 Z-0.653
G3 X-248.591 Y-66.591 Z-0.777 I1.591 J-1.591
X-245.409 Y-66.591 Z-0.9 I1.591 J1.591
G1 X-233.409 Y-54.591 F600
G3 X-233.409 Y-51.409 I-1.591 J1.591
X-236.591 Y-51.409 I-1.591 J-1.591
G1 X-248.591 Y-63.409
G3 X-248.591 Y-66.591 I1.591 J-1.591
X-245.409 Y-66.591 I1.591 J1.591
G1 X-233.409 Y-54.591 Z-1.493 F1016
G3 X-232.754 Y-53.124 Z-1.55 I-1.591 J1.591
X-236.591 Y-51.409 I-2.246 J0.124 F600
G1 X-248.591 Y-63.409
G3 X-248.591 Y-66.591 I1.591 J-1.591
X-245.409 Y-66.591 I1.591 J1.591
G1 X-233.409 Y-54.591
G3 X-232.754 Y-53.124 I-1.591 J1.591
X-236.591 Y-51.409 Z-1.739 I-2.246 J0.124 F1016
G1 X-245.917 Y-60.735 Z-2.2
X-248.591 Y-63.409 F600
G3 X-248.591 Y-66.591 I1.591 J-1.591
X-245.409 Y-66.591 I1.591 J1.591
G1 X-233.409 Y-54.591
G3 X-233.409 Y-51.409 I-1.591 J1.591
X-236.591 Y-51.409 I-1.591 J-1.591
G1 X-245.917 Y-60.735
G0 Z10
X-240.504 Y-78.314
Z5.2
G1 Z2.7 F300
X-245.409 Y-73.409 Z2.458 F1016
G3 X-248.591 Y-76.591 Z2.211 I-1.591 J-1.591
G1 X-236.591 Y-88.591 Z1.618
G3 X-233.409 Y-85.409 Z1.371 I1.591 J1.591
G1 X-245.409 Y-73.409 Z0.779
G3 X-248.591 Y-76.591 Z0.532 I-1.591 J-1.591
G1 X-236.591 Y-88.591 Z-0.061
G3 X-233.409 Y-85.409 Z-0.307 I1.591 J1.591
G1 X-245.409 Y-73.409 Z-0.9
G3 X-248.591 Y-76.591 I-1.591 J-1.591 F600
G1 X-236.591 Y-88.591
G3 X-233.409 Y-85.409 I1.591 J1.591
G1 X-245.409 Y-73.409
G3 X-248.591 Y-76.591 Z-1.147 I-1.591 J-1.591 F1016
G1 X-240.427 Y-84.755 Z-1.55
X-236.591 Y-88.591 F600
G3 X-233.409 Y-85.409 I1.591 J1.591
G1 X-245.409 Y-73.409
G3 X-248.591 Y-76.591 I-1.591 J-1.591
G1 X-240.427 Y-84.755
X-236.591 Y-88.591 Z-1.739 F1016
G3 X-233.409 Y-85.409 Z-1.986 I1.591 J1.591
G1 X-237.737 Y-81.081 Z-2.2
X-245.409 Y-73.409 F600
G3 X-248.591 Y-76.591 I-1.591 J-1.591
G1 X-240.427 Y-84.755
X-236.591 Y-88.591
G3 X-233.409 Y-85.409 I1.591 J1.591
G1 X-237.737 Y-81.081
G0 Z10
X-225.504 Y-78.314
Z5.2
G1 Z2.7 F300
X-230.409 Y-73.409 Z2.458 F1016
G3 X-233.591 Y-76.591 Z2.211 I-1.591 J-1.591
G1 X-221.591 Y-88.591 Z1.618
G3 X-218.409 Y-85.409 Z1.371 I1.591 J1.591
G1 X-230.409 Y-73.409 Z0.779
G3 X-233.591 Y-76.591 Z0.532 I-1.591 J-1.591
G1 X-221.591 Y-88.591 Z-0.061
G3 X-218.409 Y-85.409 Z-0.307 I1.591 J1.591
G1 X-230.409 Y-73.409 Z-0.9
G3 X-233.591 Y-76.591 I-1.591 J-1.591 F600
G1 X-221.591 Y-88.591
G3 X-218.409 Y-85.409 I1.591 J1.591
G1 X-230.409 Y-73.409
G3 X-233.591 Y-76.591 Z-1.147 I-1.591 J-1.591 F1016
G1 X-225.427 Y-84.755 Z-1.55
X-221.591 Y-88.591 F600
G3 X-218.409 Y-85.409 I1.591 J1.591
G1 X-230.409 Y-73.409
G3 X-233.591 Y-76.591 I-1.591 J-1.591
G1 X-225.427 Y-84.755
X-221.591 Y-88.591 Z-1.739 F1016
G3 X-218.409 Y-85.409 Z-1.986 I1.591 J1.591
G1 X-222.737 Y-81.081 Z-2.2
X-230.409 Y-73.409 F600
G3 X-233.591 Y-76.591 I-1.591 J-1.591
G1 X-225.427 Y-84.755
X-221.591 Y-88.591
G3 X-218.409 Y-85.409 I1.591 J1.591
G1 X-222.737 Y-81.081
G0 Z10
X-211.496 Y-83.686
Z5.2
G1 Z2.7 F300
X-206.591 Y-88.591 Z2.458 F1016
G3 X-203.409 Y-85.409 Z2.211 I1.591 J1.591
G1 X-215.409 Y-73.409 Z1.618
G3 X-218.591 Y-76.591 Z1.371 I-1.591 J-1.591
G1 X-206.591 Y-88.591 Z0.779
G3 X-203.409 Y-85.409 Z0.532 I1.591 J1.591
G1 X-215.409 Y-73.409 Z-0.061
G3 X-218.591 Y-76.591 Z-0.307 I-1.591 J-1.591
G1 X-206.591 Y-88.591 Z-0.9
G3 X-203.409 Y-85.409 I1.591 J1.591 F600
G1 X-215.409 Y-73.409
G3 X-218.591 Y-76.591 I-1.591 J-1.591
G1 X-206.591 Y-88.591
G3 X-203.409 Y-85.409 Z-1.147 I1.591 J1.591 F1016
G1 X-211.573 Y-77.245 Z-1.55
X-215.409 Y-73.409 F600
G3 X-218.591 Y-76.591 I-1.591 J-1.591
G1 X-206.591 Y-88.591
G3 X-203.409 Y-85.409 I1.591 J1.591
G1 X-211.573 Y-77.245
X-215.409 Y-73.409 Z-1.739 F1016
G3 X-218.591 Y-76.591 Z-1.986 I-1.591 J-1.591
G1 X-214.263 Y-80.919 Z-2.2
X-206.591 Y-88.591 F600
G3 X-203.409 Y-85.409 I1.591 J1.591
G1 X-211.573 Y-77.245
X-215.409 Y-73.409
G3 X-218.591 Y-76.591 I-1.591 J-1.591
G1 X-214.263 Y-80.919
G0 Z10
X-195.504 Y-78.314
Z5.2
G1 Z2.7 F300
X-200.409 Y-73.409 Z2.458 F1016
G3 X-203.591 Y-76.591 Z2.211 I-1.591 J-1.591
G1 X-191.591 Y-88.591 Z1.618
G3 X-188.409 Y-85.409 Z1.371 I1.591 J1.591
G1 X-200.409 Y-73.409 Z0.779
G3 X-203.591 Y-76.591 Z0.532 I-1.591 J-1.591
G1 X-191.591 Y-88.591 Z-0.061
G3 X-188.409 Y-85.409 Z-0.307 I1.591 J1.591
G1 X-200.409 Y-73.409 Z-0.9
G3 X-203.591 Y-76.591 I-1.591 J-1.591 F600
G1 X-191.591 Y-88.591
G3 X-188.409 Y-85.409 I1.591 J1.591
G1 X-200.409 Y-73.409
G3 X-203.591 Y-76.591 Z-1.147 I-1.591 J-1.591 F1016
G1 X-195.427 Y-84.755 Z-1.55
X-191.591 Y-88.591 F600
G3 X-188.409 Y-85.409 I1.591 J1.591
G1 X-200.409 Y-73.409
G3 X-203.591 Y-76.591 I-1.591 J-1.591
G1 X-195.427 Y-84.755
X-191.591 Y-88.591 Z-1.739 F1016
G3 X-188.409 Y-85.409 Z-1.986 I1.591 J1.591
G1 X-192.737 Y-81.081 Z-2.2
X-200.409 Y-73.409 F600
G3 X-203.591 Y-76.591 I-1.591 J-1.591
G1 X-195.427 Y-84.755
X-191.591 Y-88.591
G3 X-188.409 Y-85.409 I1.591 J1.591
G1 X-192.737 Y-81.081
G0 Z10
X-181.496 Y-83.686
Z5.2
G1 Z2.7 F300
X-176.591 Y-88.591 Z2.458 F1016
G3 X-173.409 Y-85.409 Z2.211 I1.591 J1.591
G1 X-185.409 Y-73.409 Z1.618
G3 X-188.591 Y-76.591 Z1.371 I-1.591 J-1.591
G1 X-176.591 Y-88.591 Z0.779
G3 X-173.409 Y-85.409 Z0.532 I1.591 J1.591
G1 X-185.409 Y-73.409 Z-0.061
G3 X-188.591 Y-76.591 Z-0.307 I-1.591 J-1.591
G1 X-176.591 Y-88.591 Z-0.9
G3 X-173.409 Y-85.409 I1.591 J1.591 F600
G1 X-185.409 Y-73.409
G3 X-188.591 Y-76.591 I-1.591 J-1.591
G1 X-176.591 Y-88.591
G3 X-173.409 Y-85.409 Z-1.147 I1.591 J1.591 F1016
G1 X-181.573 Y-77.245 Z-1.55
X-185.409 Y-73.409 F600
G3 X-188.591 Y-76.591 I-1.591 J-1.591
G1 X-176.591 Y-88.591
G3 X-173.409 Y-85.409 I1.591 J1.591
G1 X-181.573 Y-77.245
X-185.409 Y-73.409 Z-1.739 F1016
G3 X-188.591 Y-76.591 Z-1.986 I-1.591 J-1.591
G1 X-184.263 Y-80.919 Z-2.2
X-176.591 Y-88.591 F600
G3 X-173.409 Y-85.409 I1.591 J1.591
G1 X-181.573 Y-77.245
X-185.409 Y-73.409
G3 X-188.591 Y-76.591 I-1.591 J-1.591
G1 X-184.263 Y-80.919
G0 Z10
X-179.495 Y-104.143
Z5.2
G1 Z2.7 F300
X-179.301 Y-104.129 Z2.693 F1016
X-178.319 Y-104.023 Z2.659
X-177.402 Y-103.89 Z2.626
X-176.552 Y-103.736 Z2.596
X-175.768 Y-103.563 Z2.568
X-175.047 Y-103.377 Z2.542
X-174.386 Y-103.179 Z2.518
X-173.783 Y-102.971 Z2.496
X-173.234 Y-102.755 Z2.475
X-172.738 Y-102.532 Z2.456
X-172.292 Y-102.305 Z2.439
X-171.895 Y-102.075 Z2.423
X-171.545 Y-101.843 Z2.408
X-171.242 Y-101.613 Z2.395
X-170.985 Y-101.385 Z2.383
X-170.769 Y-101.161 Z2.372
X-170.597 Y-100.945 Z2.362
X-170.464 Y-100.738 Z2.354
X-170.366 Y-100.539 Z2.346
X-170.3 Y-100.351 Z2.339
X-170.263 Y-100.17 Z2.332
X-170.252 Y-100.002 Z2.327
X-170.265 Y-99.824 Z2.32
X-170.302 Y-99.643 Z2.314
X-170.368 Y-99.456 Z2.307
X-170.466 Y-99.259 Z2.299
X-170.6 Y-99.052 Z2.291
X-170.772 Y-98.837 Z2.281
X-170.985 Y-98.615 Z2.27
X-171.24 Y-98.389 Z2.258
X-171.538 Y-98.162 Z2.245
X-171.881 Y-97.934 Z2.231
X-172.269 Y-97.707 Z2.215
X-172.704 Y-97.484 Z2.198
X-173.186 Y-97.266 Z2.18
X-173.717 Y-97.054 Z2.16
X-174.298 Y-96.85 Z2.138
X-174.932 Y-96.655 Z2.115
X-175.618 Y-96.473 Z2.09
X-176.361 Y-96.304 Z2.064
X-177.162 Y-96.151 Z2.035
X-178.024 Y-96.017 Z2.005
X-178.947 Y-95.905 Z1.972
X-179.928 Y-95.821 Z1.938
X-180.962 Y-95.768 Z1.902
X-182.031 Y-95.75 Z1.864
X-183.111 Y-95.77 Z1.827
X-184.169 Y-95.828 Z1.79
X-185.18 Y-95.919 Z1.754
X-186.132 Y-96.039 Z1.721
X-187.018 Y-96.182 Z1.689
X-187.835 Y-96.345 Z1.66
X-188.589 Y-96.525 Z1.633
X-189.28 Y-96.717 Z1.608
X-189.913 Y-96.92 Z1.585
X-190.489 Y-97.133 Z1.564
X-191.012 Y-97.352 Z1.544
X-191.484 Y-97.577 Z1.525
X-191.906 Y-97.806 Z1.509
X-192.28 Y-98.037 Z1.493
X-192.607 Y-98.268 Z1.479
X-192.888 Y-98.498 Z1.467
X-193.124 Y-98.724 Z1.455
X-193.318 Y-98.944 Z1.445
X-193.471 Y-99.157 Z1.436
X-193.588 Y-99.36 Z1.428
X-193.67 Y-99.554 Z1.42
X-193.721 Y-99.737 Z1.414
X-193.745 Y-99.915 Z1.407
Y-100.092 Z1.401
X-193.72 Y-100.268 Z1.395
X-193.667 Y-100.453 Z1.388
X-193.585 Y-100.645 Z1.381
X-193.47 Y-100.847 Z1.373
X-193.316 Y-101.059 Z1.364
X-193.124 Y-101.277 Z1.354
X-192.889 Y-101.501 Z1.342
X-192.612 Y-101.728 Z1.33
X-192.29 Y-101.956 Z1.316
X-191.924 Y-102.184 Z1.301
X-191.513 Y-102.408 Z1.285
X-191.052 Y-102.63 Z1.267
X-190.546 Y-102.845 Z1.248
X-189.989 Y-103.053 Z1.227
X-189.381 Y-103.252 Z1.204
X-188.721 Y-103.441 Z1.18
X-188.005 Y-103.617 Z1.155
X-187.233 Y-103.778 Z1.127
X-186.4 Y-103.921 Z1.098
X-185.507 Y-104.044 Z1.066
X-184.553 Y-104.142 Z1.033
X-183.543 Y-104.211 Z0.997
X-182.488 Y-104.246 Z0.961
X-181.411 Y-104.244 Z0.923
X-180.338 Y-104.204 Z0.885
X-179.301 Y-104.129 Z0.849
X-178.319 Y-104.023 Z0.815
X-177.402 Y-103.89 Z0.782
X-176.552 Y-103.736 Z0.752
X-175.768 Y-103.563 Z0.724
X-175.047 Y-103.377 Z0.698
X-174.386 Y-103.179 Z0.674
X-173.783 Y-102.971 Z0.652
X-173.234 Y-102.755 Z0.631
X-172.738 Y-102.532 Z0.612
X-172.292 Y-102.305 Z0.595
X-171.895 Y-102.075 Z0.579
X-171.545 Y-101.843 Z0.564
X-171.242 Y-101.613 Z0.551
X-170.985 Y-101.385 Z0.539
X-170.769 Y-101.161 Z0.528
X-170.597 Y-100.945 Z0.518
X-170.464 Y-100.738 Z0.51
X-170.366 Y-100.539 Z0.502
X-170.3 Y-100.351 Z0.495
X-170.263 Y-100.17 Z0.488
X-170.252 Y-100.002 Z0.482
X-170.265 Y-99.824 Z0.476
X-170.302 Y-99.643 Z0.47
X-170.368 Y-99.456 Z0.463
X-170.466 Y-99.259 Z0.455
X-170.6 Y-99.052 Z0.447
X-170.772 Y-98.837 Z0.437
X-170.985 Y-98.615 Z0.426
X-171.24 Y-98.389 Z0.414
X-171.538 Y-98.162 Z0.401
X-171.881 Y-97.934 Z0.387
X-172.269 Y-97.707 Z0.371
X-172.704 Y-97.484 Z0.354
X-173.186 Y-97.266 Z0.336
X-173.717 Y-97.054 Z0.316
X-174.298 Y-96.85 Z0.294
X-174.932 Y-96.655 Z0.271
X-175.618 Y-96.473 Z0.246
X-176.361 Y-96.304 Z0.22
X-177.162 Y-96.151 Z0.191
X-178.024 Y-96.017 Z0.161
X-178.947 Y-95.905 Z0.128
X-179.928 Y-95.821 Z0.094
X-180.962 Y-95.768 Z0.058
X-182.031 Y-95.75 Z0.02
X-183.111 Y-95.77 Z-0.017
X-184.169 Y-95.828 Z-0.054
X-185.18 Y-95.919 Z-0.09
X-186.132 Y-96.039 Z-0.123
X-187.018 Y-96.182 Z-0.155
X-187.835 Y-96.345 Z-0.184
X-188.589 Y-96.525 Z-0.211
X-189.28 Y-96.717 Z-0.236
X-189.913 Y-96.92 Z-0.259
X-190.489 Y-97.133 Z-0.281
X-191.012 Y-97.352 Z-0.3
X-191.484 Y-97.577 Z-0.319
X-191.906 Y-97.806 Z-0.335
X-192.28 Y-98.037 Z-0.351
X-192.607 Y-98.268 Z-0.365
X-192.888 Y-98.498 Z-0.377
X-193.124 Y-98.724 Z-0.389
X-193.318 Y-98.944 Z-0.399
X-193.471 Y-99.157 Z-0.408
X-193.588 Y-99.36 Z-0.416
X-193.67 Y-99.554 Z-0.424
X-193.721 Y-99.737 Z-0.43
X-193.745 Y-99.915 Z-0.437
Y-100.092 Z-0.443
X-193.72 Y-100.268 Z-0.449
X-193.667 Y-100.453 Z-0.456
X-193.585 Y-100.645 Z-0.463
X-193.47 Y-100.847 Z-0.471
X-193.316 Y-101.059 Z-0.48
X-193.124 Y-101.277 Z-0.49
X-192.889 Y-101.501 Z-0.502
X-192.612 Y-101.728 Z-0.514
X-192.29 Y-101.956 Z-0.528
X-191.924 Y-102.184 Z-0.543
X-191.513 Y-102.408 Z-0.56
X-191.052 Y-102.63 Z-0.577
X-190.546 Y-102.845 Z-0.597
X-189.989 Y-103.053 Z-0.617
X-189.381 Y-103.252 Z-0.64
X-188.721 Y-103.441 Z-0.664
X-188.005 Y-103.617 Z-0.689
X-187.233 Y-103.778 Z-0.717
X-186.4 Y-103.921 Z-0.746
X-185.507 Y-104.044 Z-0.778
X-184.553 Y-104.142 Z-0.811
X-183.543 Y-104.211 Z-0.847
X-182.488 Y-104.246 Z-0.884
X-182.019 Y-104.245 Z-0.9
X-181.411 Y-104.244 F600
X-180.338 Y-104.204
X-179.301 Y-104.129
X-178.319 Y-104.023
X-177.402 Y-103.89
X-176.552 Y-103.736
X-175.768 Y-103.563
X-175.047 Y-103.377
X-174.386 Y-103.179
X-173.783 Y-102.971
X-173.234 Y-102.755
X-172.738 Y-102.532
X-172.292 Y-102.305
X-171.895 Y-102.075
X-171.545 Y-101.843
X-171.242 Y-101.613
X-170.985 Y-101.385
X-170.769 Y-101.161
X-170.597 Y-100.945
X-170.464 Y-100.738
X-170.366 Y-100.539
X-170.3 Y-100.351
X-170.263 Y-100.17
X-170.252 Y-100.002
X-170.265 Y-99.824
X-170.302 Y-99.643
X-170.368 Y-99.456
X-170.466 Y-99.259
X-170.6 Y-99.052
X-170.772 Y-98.837
X-170.985 Y-98.615
X-171.24 Y-98.389
X-171.538 Y-98.162
X-171.881 Y-97.934
X-172.269 Y-97.707
X-172.704 Y-97.484
X-173.186 Y-97.266
X-173.717 Y-97.054
X-174.298 Y-96.85
X-174.932 Y-96.655
X-175.618 Y-96.473
X-176.361 Y-96.304
X-177.162 Y-96.151
X-178.024 Y-96.017
X-178.947 Y-95.905
X-179.928 Y-95.821
X-180.962 Y-95.768
X-182.031 Y-95.75
X-183.111 Y-95.77
X-184.169 Y-95.828
X-185.18 Y-95.919
X-186.132 Y-96.039
X-187.018 Y-96.182
X-187.835 Y-96.345
X-188.589 Y-96.525
X-189.28 Y-96.717
X-189.913 Y-96.92
X-190.489 Y-97.133
X-191.012 Y-97.352
X-191.484 Y-97.577
X-191.906 Y-97.806
X-192.28 Y-98.037
X-192.607 Y-98.268
X-192.888 Y-98.498
X-193.124 Y-98.724
X-193.318 Y-98.944
X-193.471 Y-99.157
X-193.588 Y-99.36
X-193.67 Y-99.554
X-193.721 Y-99.737
X-193.745 Y-99.915
Y-100.092
X-193.72 Y-100.268
X-193.667 Y-100.453
X-193.585 Y-100.645
X-193.47 Y-100.847
X-193.316 Y-101.059
X-193.124 Y-101.277
X-192.889 Y-101.501
X-192.612 Y-101.728
X-192.29 Y-101.956
X-191.924 Y-102.184
X-191.513 Y-102.408
X-191.052 Y-102.63
X-190.546 Y-102.845
X-189.989 Y-103.053
X-189.381 Y-103.252
X-188.721 Y-103.441
X-188.005 Y-103.617
X-187.233 Y-103.778
X-186.4 Y-103.921
X-185.507 Y-104.044
X-184.553 Y-104.142
X-183.543 Y-104.211
X-182.488 Y-104.246
X-182.019 Y-104.245
X-181.411 Y-104.244 Z-0.921 F1016
X-180.338 Y-104.204 Z-0.959
X-179.301 Y-104.129 Z-0.995
X-178.319 Y-104.023 Z-1.03
X-177.402 Y-103.89 Z-1.062
X-176.552 Y-103.736 Z-1.092
X-175.768 Y-103.563 Z-1.12
X-175.047 Y-103.377 Z-1.146
X-174.386 Y-103.179 Z-1.17
X-173.783 Y-102.971 Z-1.192
X-173.234 Y-102.755 Z-1.213
X-172.738 Y-102.532 Z-1.232
X-172.292 Y-102.305 Z-1.25
X-171.895 Y-102.075 Z-1.266
X-171.545 Y-101.843 Z-1.28
X-171.242 Y-101.613 Z-1.293
X-170.985 Y-101.385 Z-1.305
X-170.769 Y-101.161 Z-1.316
X-170.597 Y-100.945 Z-1.326
X-170.464 Y-100.738 Z-1.335
X-170.366 Y-100.539 Z-1.342
X-170.3 Y-100.351 Z-1.349
X-170.263 Y-100.17 Z-1.356
X-170.252 Y-100.002 Z-1.362
X-170.265 Y-99.824 Z-1.368
X-170.302 Y-99.643 Z-1.374
X-170.368 Y-99.456 Z-1.381
X-170.466 Y-99.259 Z-1.389
X-170.6 Y-99.052 Z-1.398
X-170.772 Y-98.837 Z-1.407
X-170.985 Y-98.615 Z-1.418
X-171.24 Y-98.389 Z-1.43
X-171.538 Y-98.162 Z-1.443
X-171.881 Y-97.934 Z-1.457
X-172.269 Y-97.707 Z-1.473
X-172.704 Y-97.484 Z-1.49
X-173.186 Y-97.266 Z-1.508
X-173.717 Y-97.054 Z-1.528
X-174.298 Y-96.85 Z-1.55
X-174.299 Y-96.849
X-174.932 Y-96.655 F600
X-175.618 Y-96.473
X-176.361 Y-96.304
X-177.162 Y-96.151
X-178.024 Y-96.017
X-178.947 Y-95.905
X-179.928 Y-95.821
X-180.962 Y-95.768
X-182.031 Y-95.75
X-183.111 Y-95.77
X-184.169 Y-95.828
X-185.18 Y-95.919
X-186.132 Y-96.039
X-187.018 Y-96.182
X-187.835 Y-96.345
X-188.589 Y-96.525
X-189.28 Y-96.717
X-189.913 Y-96.92
X-190.489 Y-97.133
X-191.012 Y-97.352
X-191.484 Y-97.577
X-191.906 Y-97.806
X-192.28 Y-98.037
X-192.607 Y-98.268
X-192.888 Y-98.498
X-193.124 Y-98.724
X-193.318 Y-98.944
X-193.471 Y-99.157
X-193.588 Y-99.36
X-193.67 Y-99.554
X-193.721 Y-99.737
X-193.745 Y-99.915
Y-100.092
X-193.72 Y-100.268
X-193.667 Y-100.453
X-193.585 Y-100.645
X-193.47 Y-100.847
X-193.316 Y-101.059
X-193.124 Y-101.277
X-192.889 Y-101.501
X-192.612 Y-101.728
X-192.29 Y-101.956
X-191.924 Y-102.184
X-191.513 Y-102.408
X-191.052 Y-102.63
X-190.546 Y-102.845
X-189.989 Y-103.053
X-189.381 Y-103.252
X-188.721 Y-103.441
X-188.005 Y-103.617
X-187.233 Y-103.778
X-186.4 Y-103.921
X-185.507 Y-104.044
X-184.553 Y-104.142
X-183.543 Y-104.211
X-182.488 Y-104.246
X-181.411 Y-104.244
X-180.338 Y-104.204
X-179.301 Y-104.129
X-178.319 Y-104.023
X-177.402 Y-103.89
X-176.552 Y-103.736
X-175.768 Y-103.563
X-175.047 Y-103.377
X-174.386 Y-103.179
X-173.783 Y-102.971
X-173.234 Y-102.755
X-172.738 Y-102.532
X-172.292 Y-102.305
X-171.895 Y-102.075
X-171.545 Y-101.843
X-171.242 Y-101.613
X-170.985 Y-101.385
X-170.769 Y-101.161
X-170.597 Y-100.945
X-170.464 Y-100.738
X-170.366 Y-100.539
X-170.3 Y-100.351
X-170.263 Y-100.17
X-170.252 Y-100.002
X-170.265 Y-99.824
X-170.302 Y-99.643
X-170.368 Y-99.456
X-170.466 Y-99.259
X-170.6 Y-99.052
X-170.772 Y-98.837
X-170.985 Y-98.615
X-171.24 Y-98.389
X-171.538 Y-98.162
X-171.881 Y-97.934
X-172.269 Y-97.707
X-172.704 Y-97.484
X-173.186 Y-97.266
X-173.717 Y-97.054
X-174.298 Y-96.85
X-174.299 Y-96.849
X-174.932 Y-96.655 Z-1.573 F1016
X-175.618 Y-96.473 Z-1.598
X-176.361 Y-96.304 Z-1.624
X-177.162 Y-96.151 Z-1.653
X-178.024 Y-96.017 Z-1.683
X-178.947 Y-95.905 Z-1.716
X-179.928 Y-95.821 Z-1.75
X-180.962 Y-95.768 Z-1.786
X-182.031 Y-95.75 Z-1.824
X-183.111 Y-95.77 Z-1.861
X-184.169 Y-95.828 Z-1.899
X-185.18 Y-95.919 Z-1.934
X-186.132 Y-96.039 Z-1.967
X-187.018 Y-96.182 Z-1.999
X-187.835 Y-96.345 Z-2.028
X-188.589 Y-96.525 Z-2.055
X-189.28 Y-96.717 Z-2.08
X-189.913 Y-96.92 Z-2.103
X-190.489 Y-97.133 Z-2.125
X-191.012 Y-97.352 Z-2.144
X-191.484 Y-97.577 Z-2.163
X-191.906 Y-97.806 Z-2.179
X-192.28 Y-98.037 Z-2.195
X-192.4 Y-98.122 Z-2.2
X-192.607 Y-98.268 F600
X-192.888 Y-98.498
X-193.124 Y-98.724
X-193.318 Y-98.944
X-193.471 Y-99.157
X-193.588 Y-99.36
X-193.67 Y-99.554
X-193.721 Y-99.737
X-193.745 Y-99.915
Y-100.092
X-193.72 Y-100.268
X-193.667 Y-100.453
X-193.585 Y-100.645
X-193.47 Y-100.847
X-193.316 Y-101.059
X-193.124 Y-101.277
X-192.889 Y-101.501
X-192.612 Y-101.728
X-192.29 Y-101.956
X-191.924 Y-102.184
X-191.513 Y-102.408
X-191.052 Y-102.63
X-190.546 Y-102.845
X-189.989 Y-103.053
X-189.381 Y-103.252
X-188.721 Y-103.441
X-188.005 Y-103.617
X-187.233 Y-103.778
X-186.4 Y-103.921
X-185.507 Y-104.044
X-184.553 Y-104.142
X-183.543 Y-104.211
X-182.488 Y-104.246
X-181.411 Y-104.244
X-180.338 Y-104.204
X-179.301 Y-104.129
X-178.319 Y-104.023
X-177.402 Y-103.89
X-176.552 Y-103.736
X-175.768 Y-103.563
X-175.047 Y-103.377
X-174.386 Y-103.179
X-173.783 Y-102.971
X-173.234 Y-102.755
X-172.738 Y-102.532
X-172.292 Y-102.305
X-171.895 Y-102.075
X-171.545 Y-101.843
X-171.242 Y-101.613
X-170.985 Y-101.385
X-170.769 Y-101.161
X-170.597 Y-100.945
X-170.464 Y-100.738
X-170.366 Y-100.539
X-170.3 Y-100.351
X-170.263 Y-100.17
X-170.252 Y-100.002
X-170.265 Y-99.824
X-170.302 Y-99.643
X-170.368 Y-99.456
X-170.466 Y-99.259
X-170.6 Y-99.052
X-170.772 Y-98.837
X-170.985 Y-98.615
X-171.24 Y-98.389
X-171.538 Y-98.162
X-171.881 Y-97.934
X-172.269 Y-97.707
X-172.704 Y-97.484
X-173.186 Y-97.266
X-173.717 Y-97.054
X-174.298 Y-96.85
X-174.299 Y-96.849
X-174.932 Y-96.655
X-175.618 Y-96.473
X-176.361 Y-96.304
X-177.162 Y-96.151
X-178.024 Y-96.017
X-178.947 Y-95.905
X-179.928 Y-95.821
X-180.962 Y-95.768
X-182.031 Y-95.75
X-183.111 Y-95.77
X-184.169 Y-95.828
X-185.18 Y-95.919
X-186.132 Y-96.039
X-187.018 Y-96.182
X-187.835 Y-96.345
X-188.589 Y-96.525
X-189.28 Y-96.717
X-189.913 Y-96.92
X-190.489 Y-97.133
X-191.012 Y-97.352
X-191.484 Y-97.577
X-191.906 Y-97.806
X-192.28 Y-98.037
X-192.4 Y-98.122
G0 Z10
X-179.496 Y-44.143
Z5.2
G1 Z2.7 F300
X-179.302 Y-44.129 Z2.693 F1016
X-178.319 Y-44.022 Z2.659
X-177.402 Y-43.89 Z2.626
X-176.552 Y-43.736 Z2.596
X-175.768 Y-43.564 Z2.568
X-175.047 Y-43.377 Z2.542
X-174.386 Y-43.179 Z2.518
X-173.783 Y-42.971 Z2.496
X-173.234 Y-42.755 Z2.475
X-172.738 Y-42.532 Z2.456
X-172.291 Y-42.305 Z2.439
X-171.895 Y-42.075 Z2.423
X-171.546 Y-41.843 Z2.408
X-171.242 Y-41.613 Z2.395
X-170.985 Y-41.385 Z2.383
X-170.77 Y-41.161 Z2.372
X-170.597 Y-40.945 Z2.362
X-170.464 Y-40.737 Z2.354
X-170.366 Y-40.539 Z2.346
X-170.3 Y-40.35 Z2.339
X-170.263 Y-40.169 Z2.332
X-170.252 Y-40.002 Z2.327
X-170.265 Y-39.824 Z2.32
X-170.302 Y-39.643 Z2.314
X-170.368 Y-39.456 Z2.307
X-170.466 Y-39.259 Z2.299
X-170.6 Y-39.052 Z2.291
X-170.772 Y-38.837 Z2.281
X-170.985 Y-38.615 Z2.27
X-171.24 Y-38.389 Z2.258
X-171.538 Y-38.162 Z2.245
X-171.881 Y-37.934 Z2.231
X-172.269 Y-37.707 Z2.215
X-172.704 Y-37.484 Z2.198
X-173.186 Y-37.266 Z2.18
X-173.717 Y-37.054 Z2.16
X-174.298 Y-36.85 Z2.138
X-174.932 Y-36.655 Z2.115
X-175.618 Y-36.473 Z2.09
X-176.361 Y-36.304 Z2.064
X-177.162 Y-36.151 Z2.035
X-178.024 Y-36.017 Z2.005
X-178.947 Y-35.905 Z1.972
X-179.928 Y-35.821 Z1.938
X-180.962 Y-35.768 Z1.902
X-182.031 Y-35.75 Z1.864
X-183.111 Y-35.77 Z1.827
X-184.169 Y-35.828 Z1.79
X-185.18 Y-35.919 Z1.754
X-186.132 Y-36.039 Z1.721
X-187.018 Y-36.182 Z1.689
X-187.835 Y-36.345 Z1.66
X-188.589 Y-36.525 Z1.633
X-189.28 Y-36.717 Z1.608
X-189.913 Y-36.92 Z1.585
X-190.489 Y-37.133 Z1.564
X-191.012 Y-37.352 Z1.544
X-191.484 Y-37.577 Z1.525
X-191.906 Y-37.806 Z1.509
X-192.28 Y-38.037 Z1.493
X-192.607 Y-38.268 Z1.479
X-192.888 Y-38.498 Z1.467
X-193.124 Y-38.724 Z1.455
X-193.318 Y-38.944 Z1.445
X-193.471 Y-39.157 Z1.436
X-193.588 Y-39.36 Z1.428
X-193.67 Y-39.554 Z1.42
X-193.721 Y-39.737 Z1.414
X-193.745 Y-39.915 Z1.407
Y-40.091 Z1.401
X-193.72 Y-40.268 Z1.395
X-193.667 Y-40.453 Z1.388
X-193.585 Y-40.645 Z1.381
X-193.47 Y-40.847 Z1.373
X-193.316 Y-41.059 Z1.364
X-193.124 Y-41.277 Z1.354
X-192.889 Y-41.501 Z1.342
X-192.612 Y-41.728 Z1.33
X-192.291 Y-41.956 Z1.316
X-191.924 Y-42.184 Z1.301
X-191.512 Y-42.409 Z1.285
X-191.053 Y-42.63 Z1.267
X-190.546 Y-42.845 Z1.248
X-189.989 Y-43.053 Z1.227
X-189.381 Y-43.252 Z1.204
X-188.721 Y-43.441 Z1.18
X-188.005 Y-43.617 Z1.155
X-187.233 Y-43.778 Z1.127
X-186.4 Y-43.921 Z1.098
X-185.507 Y-44.044 Z1.066
X-184.553 Y-44.142 Z1.033
X-183.543 Y-44.211 Z0.997
X-182.488 Y-44.246 Z0.96
X-181.411 Y-44.244 Z0.923
X-180.338 Y-44.204 Z0.885
X-179.302 Y-44.129 Z0.849
X-178.319 Y-44.022 Z0.815
X-177.402 Y-43.89 Z0.782
X-176.552 Y-43.736 Z0.752
X-175.768 Y-43.564 Z0.724
X-175.047 Y-43.377 Z0.698
X-174.386 Y-43.179 Z0.674
X-173.783 Y-42.971 Z0.652
X-173.234 Y-42.755 Z0.631
X-172.738 Y-42.532 Z0.612
X-172.291 Y-42.305 Z0.595
X-171.895 Y-42.075 Z0.579
X-171.546 Y-41.843 Z0.564
X-171.242 Y-41.613 Z0.551
X-170.985 Y-41.385 Z0.539
X-170.77 Y-41.161 Z0.528
X-170.597 Y-40.945 Z0.518
X-170.464 Y-40.737 Z0.509
X-170.366 Y-40.539 Z0.502
X-170.3 Y-40.35 Z0.495
X-170.263 Y-40.169 Z0.488
X-170.252 Y-40.002 Z0.482
X-170.265 Y-39.824 Z0.476
X-170.302 Y-39.643 Z0.47
X-170.368 Y-39.456 Z0.463
X-170.466 Y-39.259 Z0.455
X-170.6 Y-39.052 Z0.447
X-170.772 Y-38.837 Z0.437
X-170.985 Y-38.615 Z0.426
X-171.24 Y-38.389 Z0.414
X-171.538 Y-38.162 Z0.401
X-171.881 Y-37.934 Z0.387
X-172.269 Y-37.707 Z0.371
X-172.704 Y-37.484 Z0.354
X-173.186 Y-37.266 Z0.336
X-173.717 Y-37.054 Z0.316
X-174.298 Y-36.85 Z0.294
X-174.932 Y-36.655 Z0.271
X-175.618 Y-36.473 Z0.246
X-176.361 Y-36.304 Z0.22
X-177.162 Y-36.151 Z0.191
X-178.024 Y-36.017 Z0.161
X-178.947 Y-35.905 Z0.128
X-179.928 Y-35.821 Z0.094
X-180.962 Y-35.768 Z0.058
X-182.031 Y-35.75 Z0.02
X-183.111 Y-35.77 Z-0.017
X-184.169 Y-35.828 Z-0.054
X-185.18 Y-35.919 Z-0.09
X-186.132 Y-36.039 Z-0.123
X-187.018 Y-36.182 Z-0.155
X-187.835 Y-36.345 Z-0.184
X-188.589 Y-36.525 Z-0.211
X-189.28 Y-36.717 Z-0.236
X-189.913 Y-36.92 Z-0.259
X-190.489 Y-37.133 Z-0.281
X-191.012 Y-37.352 Z-0.3
X-191.484 Y-37.577 Z-0.319
X-191.906 Y-37.806 Z-0.335
X-192.28 Y-38.037 Z-0.351
X-192.607 Y-38.268 Z-0.365
X-192.888 Y-38.498 Z-0.377
X-193.124 Y-38.724 Z-0.389
X-193.318 Y-38.944 Z-0.399
X-193.471 Y-39.157 Z-0.408
X-193.588 Y-39.36 Z-0.416
X-193.67 Y-39.554 Z-0.424
X-193.721 Y-39.737 Z-0.43
X-193.745 Y-39.915 Z-0.437
Y-40.091 Z-0.443
X-193.72 Y-40.268 Z-0.449
X-193.667 Y-40.453 Z-0.456
X-193.585 Y-40.645 Z-0.463
X-193.47 Y-40.847 Z-0.471
X-193.316 Y-41.059 Z-0.48
X-193.124 Y-41.277 Z-0.49
X-192.889 Y-41.501 Z-0.502
X-192.612 Y-41.728 Z-0.514
X-192.291 Y-41.956 Z-0.528
X-191.924 Y-42.184 Z-0.543
X-191.512 Y-42.409 Z-0.56
X-191.053 Y-42.63 Z-0.577
X-190.546 Y-42.845 Z-0.597
X-189.989 Y-43.053 Z-0.617
X-189.381 Y-43.252 Z-0.64
X-188.721 Y-43.441 Z-0.664
X-188.005 Y-43.617 Z-0.689
X-187.233 Y-43.778 Z-0.717
X-186.4 Y-43.921 Z-0.746
X-185.507 Y-44.044 Z-0.778
X-184.553 Y-44.142 Z-0.811
X-183.543 Y-44.211 Z-0.847
X-182.488 Y-44.246 Z-0.884
X-182.019 Y-44.245 Z-0.9
X-181.411 Y-44.244 F600
X-180.338 Y-44.204
X-179.302 Y-44.129
X-178.319 Y-44.022
X-177.402 Y-43.89
X-176.552 Y-43.736
X-175.768 Y-43.564
X-175.047 Y-43.377
X-174.386 Y-43.179
X-173.783 Y-42.971
X-173.234 Y-42.755
X-172.738 Y-42.532
X-172.291 Y-42.305
X-171.895 Y-42.075
X-171.546 Y-41.843
X-171.242 Y-41.613
X-170.985 Y-41.385
X-170.77 Y-41.161
X-170.597 Y-40.945
X-170.464 Y-40.737
X-170.366 Y-40.539
X-170.3 Y-40.35
X-170.263 Y-40.169
X-170.252 Y-40.002
X-170.265 Y-39.824
X-170.302 Y-39.643
X-170.368 Y-39.456
X-170.466 Y-39.259
X-170.6 Y-39.052
X-170.772 Y-38.837
X-170.985 Y-38.615
X-171.24 Y-38.389
X-171.538 Y-38.162
X-171.881 Y-37.934
X-172.269 Y-37.707
X-172.704 Y-37.484
X-173.186 Y-37.266
X-173.717 Y-37.054
X-174.298 Y-36.85
X-174.932 Y-36.655
X-175.618 Y-36.473
X-176.361 Y-36.304
X-177.162 Y-36.151
X-178.024 Y-36.017
X-178.947 Y-35.905
X-179.928 Y-35.821
X-180.962 Y-35.768
X-182.031 Y-35.75
X-183.111 Y-35.77
X-184.169 Y-35.828
X-185.18 Y-35.919
X-186.132 Y-36.039
X-187.018 Y-36.182
X-187.835 Y-36.345
X-188.589 Y-36.525
X-189.28 Y-36.717
X-189.913 Y-36.92
X-190.489 Y-37.133
X-191.012 Y-37.352
X-191.484 Y-37.577
X-191.906 Y-37.806
X-192.28 Y-38.037
X-192.607 Y-38.268
X-192.888 Y-38.498
X-193.124 Y-38.724
X-193.318 Y-38.944
X-193.471 Y-39.157
X-193.588 Y-39.36
X-193.67 Y-39.554
X-193.721 Y-39.737
X-193.745 Y-39.915
Y-40.091
X-193.72 Y-40.268
X-193.667 Y-40.453
X-193.585 Y-40.645
X-193.47 Y-40.847
X-193.316 Y-41.059
X-193.124 Y-41.277
X-192.889 Y-41.501
X-192.612 Y-41.728
X-192.291 Y-41.956
X-191.924 Y-42.184
X-191.512 Y-42.409
X-191.053 Y-42.63
X-190.546 Y-42.845
X-189.989 Y-43.053
X-189.381 Y-43.252
X-188.721 Y-43.441
X-188.005 Y-43.617
X-187.233 Y-43.778
X-186.4 Y-43.921
X-185.507 Y-44.044
X-184.553 Y-44.142
X-183.543 Y-44.211
X-182.488 Y-44.246
X-182.019 Y-44.245
X-181.411 Y-44.244 Z-0.921 F1016
X-180.338 Y-44.204 Z-0.959
X-179.302 Y-44.129 Z-0.995
X-178.319 Y-44.022 Z-1.03
X-177.402 Y-43.89 Z-1.062
X-176.552 Y-43.736 Z-1.092
X-175.768 Y-43.564 Z-1.12
X-175.047 Y-43.377 Z-1.146
X-174.386 Y-43.179 Z-1.17
X-173.783 Y-42.971 Z-1.192
X-173.234 Y-42.755 Z-1.213
X-172.738 Y-42.532 Z-1.232
X-172.291 Y-42.305 Z-1.25
X-171.895 Y-42.075 Z-1.266
X-171.546 Y-41.843 Z-1.28
X-171.242 Y-41.613 Z-1.294
X-170.985 Y-41.385 Z-1.306
X-170.77 Y-41.161 Z-1.316
X-170.597 Y-40.945 Z-1.326
X-170.464 Y-40.737 Z-1.335
X-170.366 Y-40.539 Z-1.342
X-170.3 Y-40.35 Z-1.349
X-170.263 Y-40.169 Z-1.356
X-170.252 Y-40.002 Z-1.362
X-170.265 Y-39.824 Z-1.368
X-170.302 Y-39.643 Z-1.374
X-170.368 Y-39.456 Z-1.381
X-170.466 Y-39.259 Z-1.389
X-170.6 Y-39.052 Z-1.398
X-170.772 Y-38.837 Z-1.407
X-170.985 Y-38.615 Z-1.418
X-171.24 Y-38.389 Z-1.43
X-171.538 Y-38.162 Z-1.443
X-171.881 Y-37.934 Z-1.457
X-172.269 Y-37.707 Z-1.473
X-172.704 Y-37.484 Z-1.49
X-173.186 Y-37.266 Z-1.509
X-173.717 Y-37.054 Z-1.528
X-174.298 Y-36.85 Z-1.55
X-174.299
X-174.932 Y-36.655 F600
X-175.618 Y-36.473
X-176.361 Y-36.304
X-177.162 Y-36.151
X-178.024 Y-36.017
X-178.947 Y-35.905
X-179.928 Y-35.821
X-180.962 Y-35.768
X-182.031 Y-35.75
X-183.111 Y-35.77
X-184.169 Y-35.828
X-185.18 Y-35.919
X-186.132 Y-36.039
X-187.018 Y-36.182
X-187.835 Y-36.345
X-188.589 Y-36.525
X-189.28 Y-36.717
X-189.913 Y-36.92
X-190.489 Y-37.133
X-191.012 Y-37.352
X-191.484 Y-37.577
X-191.906 Y-37.806
X-192.28 Y-38.037
X-192.607 Y-38.268
X-192.888 Y-38.498
X-193.124 Y-38.724
X-193.318 Y-38.944
X-193.471 Y-39.157
X-193.588 Y-39.36
X-193.67 Y-39.554
X-193.721 Y-39.737
X-193.745 Y-39.915
Y-40.091
X-193.72 Y-40.268
X-193.667 Y-40.453
X-193.585 Y-40.645
X-193.47 Y-40.847
X-193.316 Y-41.059
X-193.124 Y-41.277
X-192.889 Y-41.501
X-192.612 Y-41.728
X-192.291 Y-41.956
X-191.924 Y-42.184
X-191.512 Y-42.409
X-191.053 Y-42.63
X-190.546 Y-42.845
X-189.989 Y-43.053
X-189.381 Y-43.252
X-188.721 Y-43.441
X-188.005 Y-43.617
X-187.233 Y-43.778
X-186.4 Y-43.921
X-185.507 Y-44.044
X-184.553 Y-44.142
X-183.543 Y-44.211
X-182.488 Y-44.246
X-181.411 Y-44.244
X-180.338 Y-44.204
X-179.302 Y-44.129
X-178.319 Y-44.022
X-177.402 Y-43.89
X-176.552 Y-43.736
X-175.768 Y-43.564
X-175.047 Y-43.377
X-174.386 Y-43.179
X-173.783 Y-42.971
X-173.234 Y-42.755
X-172.738 Y-42.532
X-172.291 Y-42.305
X-171.895 Y-42.075
X-171.546 Y-41.843
X-171.242 Y-41.613
X-170.985 Y-41.385
X-170.77 Y-41.161
X-170.597 Y-40.945
X-170.464 Y-40.737
X-170.366 Y-40.539
X-170.3 Y-40.35
X-170.263 Y-40.169
X-170.252 Y-40.002
X-170.265 Y-39.824
X-170.302 Y-39.643
X-170.368 Y-39.456
X-170.466 Y-39.259
X-170.6 Y-39.052
X-170.772 Y-38.837
X-170.985 Y-38.615
X-171.24 Y-38.389
X-171.538 Y-38.162
X-171.881 Y-37.934
X-172.269 Y-37.707
X-172.704 Y-37.484
X-173.186 Y-37.266
X-173.717 Y-37.054
X-174.298 Y-36.85
X-174.299
X-174.932 Y-36.655 Z-1.573 F1016
X-175.618 Y-36.473 Z-1.598
X-176.361 Y-36.304 Z-1.625
X-177.162 Y-36.151 Z-1.653
X-178.024 Y-36.017 Z-1.683
X-178.947 Y-35.905 Z-1.716
X-179.928 Y-35.821 Z-1.75
X-180.962 Y-35.768 Z-1.786
X-182.031 Y-35.75 Z-1.824
X-183.111 Y-35.77 Z-1.862
X-184.169 Y-35.828 Z-1.899
X-185.18 Y-35.919 Z-1.934
X-186.132 Y-36.039 Z-1.967
X-187.018 Y-36.182 Z-1.999
X-187.835 Y-36.345 Z-2.028
X-188.589 Y-36.525 Z-2.055
X-189.28 Y-36.717 Z-2.08
X-189.913 Y-36.92 Z-2.103
X-190.489 Y-37.133 Z-2.125
X-191.012 Y-37.352 Z-2.145
X-191.484 Y-37.577 Z-2.163
X-191.906 Y-37.806 Z-2.18
X-192.28 Y-38.037 Z-2.195
X-192.4 Y-38.122 Z-2.2
X-192.607 Y-38.268 F600
X-192.888 Y-38.498
X-193.124 Y-38.724
X-193.318 Y-38.944
X-193.471 Y-39.157
X-193.588 Y-39.36
X-193.67 Y-39.554
X-193.721 Y-39.737
X-193.745 Y-39.915
Y-40.091
X-193.72 Y-40.268
X-193.667 Y-40.453
X-193.585 Y-40.645
X-193.47 Y-40.847
X-193.316 Y-41.059
X-193.124 Y-41.277
X-192.889 Y-41.501
X-192.612 Y-41.728
X-192.291 Y-41.956
X-191.924 Y-42.184
X-191.512 Y-42.409
X-191.053 Y-42.63
X-190.546 Y-42.845
X-189.989 Y-43.053
X-189.381 Y-43.252
X-188.721 Y-43.441
X-188.005 Y-43.617
X-187.233 Y-43.778
X-186.4 Y-43.921
X-185.507 Y-44.044
X-184.553 Y-44.142
X-183.543 Y-44.211
X-182.488 Y-44.246
X-181.411 Y-44.244
X-180.338 Y-44.204
X-179.302 Y-44.129
X-178.319 Y-44.022
X-177.402 Y-43.89
X-176.552 Y-43.736
X-175.768 Y-43.564
X-175.047 Y-43.377
X-174.386 Y-43.179
X-173.783 Y-42.971
X-173.234 Y-42.755
X-172.738 Y-42.532
X-172.291 Y-42.305
X-171.895 Y-42.075
X-171.546 Y-41.843
X-171.242 Y-41.613
X-170.985 Y-41.385
X-170.77 Y-41.161
X-170.597 Y-40.945
X-170.464 Y-40.737
X-170.366 Y-40.539
X-170.3 Y-40.35
X-170.263 Y-40.169
X-170.252 Y-40.002
X-170.265 Y-39.824
X-170.302 Y-39.643
X-170.368 Y-39.456
X-170.466 Y-39.259
X-170.6 Y-39.052
X-170.772 Y-38.837
X-170.985 Y-38.615
X-171.24 Y-38.389
X-171.538 Y-38.162
X-171.881 Y-37.934
X-172.269 Y-37.707
X-172.704 Y-37.484
X-173.186 Y-37.266
X-173.717 Y-37.054
X-174.298 Y-36.85
X-174.299
X-174.932 Y-36.655
X-175.618 Y-36.473
X-176.361 Y-36.304
X-177.162 Y-36.151
X-178.024 Y-36.017
X-178.947 Y-35.905
X-179.928 Y-35.821
X-180.962 Y-35.768
X-182.031 Y-35.75
X-183.111 Y-35.77
X-184.169 Y-35.828
X-185.18 Y-35.919
X-186.132 Y-36.039
X-187.018 Y-36.182
X-187.835 Y-36.345
X-188.589 Y-36.525
X-189.28 Y-36.717
X-189.913 Y-36.92
X-190.489 Y-37.133
X-191.012 Y-37.352
X-191.484 Y-37.577
X-191.906 Y-37.806
X-192.28 Y-38.037
X-192.4 Y-38.122
G0 Z20

(2D-Kontur6 2)
X-257.866 Y-29.25
Z20
Z5.2
G1 Z2.7 F300
X-250.002 Z2.425 F1016
X-248.687 Y-29.242 Z2.379
X-247.389 Y-29.215 Z2.334
X-246.106 Y-29.17 Z2.289
X-244.838 Y-29.107 Z2.245
X-243.583 Y-29.025 Z2.201
X-242.343 Y-28.926 Z2.158
X-241.116 Y-28.809 Z2.115
X-239.901 Y-28.674 Z2.072
X-238.699 Y-28.522 Z2.03
X-237.507 Y-28.353 Z1.988
X-236.327 Y-28.167 Z1.946
X-235.156 Y-27.964 Z1.904
X-233.994 Y-27.745 Z1.863
X-232.841 Y-27.51 Z1.822
X-231.694 Y-27.259 Z1.781
X-230.553 Y-26.993 Z1.74
X-229.418 Y-26.712 Z1.699
X-228.286 Y-26.416 Z1.658
X-227.156 Y-26.107 Z1.617
X-226.029 Y-25.783 Z1.576
X-224.902 Y-25.447 Z1.535
X-223.774 Y-25.098 Z1.494
X-222.646 Y-24.737 Z1.453
X-221.513 Y-24.364 Z1.411
X-220.376 Y-23.98 Z1.369
X-219.235 Y-23.586 Z1.327
X-218.088 Y-23.182 Z1.285
X-216.932 Y-22.769 Z1.242
X-215.769 Y-22.347 Z1.199
X-214.595 Y-21.918 Z1.155
X-213.412 Y-21.482 Z1.111
X-212.217 Y-21.04 Z1.066
X-211.009 Y-20.593 Z1.021
X-209.788 Y-20.141 Z0.976
X-208.554 Y-19.686 Z0.93
X-208.552 Y-19.685
X-207.303 Y-19.227 Z0.883
X-207.301
X-206.037 Y-18.767 Z0.836
X-206.035 Y-18.766
X-204.754 Y-18.306 Z0.789
X-204.751 Y-18.305
X-203.453 Y-17.845 Z0.741
X-203.449 Y-17.844 Z0.74
X-202.133 Y-17.384 Z0.692
X-202.129 Y-17.383
X-200.795 Y-16.925 Z0.642
X-200.791 Y-16.924
X-199.437 Y-16.469 Z0.592
X-199.432 Y-16.468
X-198.059 Y-16.017 Z0.542
X-198.054 Y-16.015
X-196.661 Y-15.569 Z0.49
X-196.655 Y-15.567
X-195.24 Y-15.126 Z0.438
X-195.234 Y-15.125
X-193.799 Y-14.691 Z0.386
X-193.793 Y-14.689
X-192.337 Y-14.263 Z0.333
X-192.33 Y-14.261 Z0.332
X-190.852 Y-13.844 Z0.279
X-190.845 Y-13.842
X-189.346 Y-13.434 Z0.224
X-189.338 Y-13.432
X-187.818 Y-13.036 Z0.169
X-187.81 Y-13.034
X-186.269 Y-12.65 Z0.113
X-186.261 Y-12.648
X-184.699 Y-12.278 Z0.057
X-184.69 Y-12.276
X-183.108 Y-11.92 Z0
X-183.1 Y-11.918
X-181.499 Y-11.579 Z-0.057
X-181.489 Y-11.577 Z-0.058
X-179.869 Y-11.255 Z-0.115
X-179.859 Y-11.253 Z-0.116
X-178.221 Y-10.95 Z-0.174
X-178.211 Y-10.948
X-176.556 Y-10.665 Z-0.233
X-176.546 Y-10.664
X-174.876 Y-10.402 Z-0.292
X-174.865 Y-10.401 Z-0.293
X-173.181 Y-10.163 Z-0.352
X-173.17 Y-10.161
X-171.473 Y-9.948 Z-0.412
X-171.461 Y-9.947 Z-0.413
X-169.752 Y-9.759 Z-0.473
X-169.74 Y-9.758
X-168.022 Y-9.598 Z-0.533
X-168.009 Y-9.597 Z-0.534
X-166.283 Y-9.466 Z-0.594
X-166.27 Y-9.465 Z-0.595
X-164.538 Y-9.364 Z-0.655
X-164.524 Y-9.363 Z-0.656
X-162.788 Y-9.293 Z-0.716
X-162.774 Z-0.717
X-161.036 Y-9.256 Z-0.778
X-161.021
X-159.283 Y-9.253 Z-0.839
X-159.268
X-157.532 Y-9.285 Z-0.9
X-157.529
X-157.516 Y-9.286 F600
X-155.784 Y-9.354
X-155.768 Y-9.355
X-154.044 Y-9.46
X-154.028 Y-9.462
X-152.312 Y-9.605
X-152.299 Y-9.606
X-151.445 Y-9.692
X-151.436 Y-9.693
X-150.585 Y-9.789
X-150.576 Y-9.79
X-149.728 Y-9.896
X-149.719 Y-9.897
X-148.875 Y-10.013
X-148.866 Y-10.014
X-148.026 Y-10.14
X-148.017 Y-10.141
X-147.18 Y-10.276
X-147.171 Y-10.278
X-146.339 Y-10.424
X-146.329 Y-10.425
X-145.502 Y-10.581
X-145.493 Y-10.583
X-144.67 Y-10.748
X-144.661 Y-10.75
X-143.843 Y-10.926
X-143.833 Y-10.928
X-143.02 Y-11.114
X-143.011 Y-11.116
X-142.203 Y-11.311
X-142.193 Y-11.314
X-141.39 Y-11.519
X-141.38 Y-11.522
X-140.584 Y-11.737
X-140.575 Y-11.74
X-139.784 Y-11.965
X-139.774 Y-11.967
X-138.988 Y-12.202
X-138.978 Y-12.205
X-138.199 Y-12.449
X-138.19 Y-12.453
X-137.417 Y-12.706
X-137.408 Y-12.71
X-136.641 Y-12.973
X-136.631 Y-12.976
X-135.871 Y-13.248
X-135.862 Y-13.252
X-135.108 Y-13.533
X-135.099 Y-13.537
X-134.351 Y-13.827
X-134.341 Y-13.831
X-133.6 Y-14.13
X-133.591 Y-14.134
X-132.856 Y-14.441
X-132.847 Y-14.445
X-132.119 Y-14.762
X-132.11 Y-14.766
X-131.389 Y-15.09
X-131.381 Y-15.094
X-130.666 Y-15.426
X-130.657 Y-15.43
X-129.949 Y-15.77
X-129.941 Y-15.775
X-129.24 Y-16.122
X-129.231 Y-16.127
X-128.537 Y-16.482
X-128.526 Y-16.488
X-127.157 Y-17.219
X-127.141 Y-17.228
X-125.8 Y-17.986
X-125.785 Y-17.994
X-124.471 Y-18.777
X-124.457 Y-18.786
X-123.17 Y-19.591
X-123.157 Y-19.599
X-121.896 Y-20.425
X-121.884 Y-20.434
X-120.65 Y-21.278
X-120.638 Y-21.286
X-119.431 Y-22.146
X-119.42 Y-22.154
X-118.238 Y-23.028
X-118.228 Y-23.035
X-117.072 Y-23.921
X-117.062 Y-23.928
X-115.932 Y-24.823
X-115.924 Y-24.829
X-114.818 Y-25.731
X-114.81 Y-25.737
X-113.729 Y-26.643
X-113.722 Y-26.649
X-112.665 Y-27.557
X-112.659 Y-27.562
X-111.625 Y-28.469
X-111.62 Y-28.474
X-110.609 Y-29.379
X-110.604 Y-29.383
X-109.616 Y-30.282
X-109.613 Y-30.285
X-108.646 Y-31.177
X-108.643 Y-31.18
X-107.697 Y-32.061
X-107.695 Y-32.063
X-106.77 Y-32.931
X-106.769 Y-32.932
X-105.863 Y-33.786
X-104.977 Y-34.621
X-104.11 Y-35.436
X-103.261 Y-36.227
X-102.43 Y-36.992
X-101.616 Y-37.73
X-100.82 Y-38.437
X-100.039 Y-39.111
X-99.274 Y-39.751
X-98.523 Y-40.354
X-97.786 Y-40.921
X-97.425 Y-41.187
X-97.066 Y-41.444
X-96.71 Y-41.691
X-96.358 Y-41.927
X-96.01 Y-42.152
X-95.664 Y-42.367
X-95.322 Y-42.57
X-94.984 Y-42.762
X-94.648 Y-42.942
X-94.317 Y-43.111
X-93.988 Y-43.269
X-93.663 Y-43.414
X-93.341 Y-43.549
X-93.022 Y-43.671
X-92.706 Y-43.781
X-92.394 Y-43.88
X-92.085 Y-43.967
X-91.778 Y-44.043
X-91.475 Y-44.106
X-91.175 Y-44.158
X-90.877 Y-44.198
X-90.582 Y-44.227
X-90.29 Y-44.244
X-89.993 Y-44.25
X-14
G2 X-9.25 Y-49 I0 J-4.75
G1 Y-91
G2 X-14 Y-95.75 I-4.75 J0
G1 X-89.993
X-90.289 Y-95.756
X-90.581 Y-95.773
X-90.875 Y-95.802
X-91.172 Y-95.842
X-91.472 Y-95.894
X-91.774 Y-95.957
X-92.08 Y-96.033
X-92.389 Y-96.12
X-92.701 Y-96.218
X-93.017 Y-96.329
X-93.336 Y-96.451
X-93.658 Y-96.585
X-93.983 Y-96.731
X-94.312 Y-96.889
X-94.644 Y-97.058
X-94.98 Y-97.239
X-95.319 Y-97.43
X-95.661 Y-97.634
X-96.007 Y-97.848
X-96.357 Y-98.073
X-96.709 Y-98.31
X-97.066 Y-98.556
X-97.425 Y-98.814
X-97.787 Y-99.08
X-98.527 Y-99.646
X-99.279 Y-100.25
X-100.047 Y-100.89
X-100.83 Y-101.564
X-101.629 Y-102.271
X-102.445 Y-103.009
X-103.279 Y-103.774
X-104.13 Y-104.565
X-105 Y-105.38
X-105.89 Y-106.216
X-106.799 Y-107.069
X-107.727 Y-107.938
X-107.73 Y-107.941
X-108.679 Y-108.822
X-108.681 Y-108.824
X-109.65 Y-109.716
X-109.654 Y-109.719
X-110.645 Y-110.618
X-110.65 Y-110.623
X-111.664 Y-111.528
X-111.669 Y-111.532
X-112.705 Y-112.439
X-112.711 Y-112.445
X-113.771 Y-113.353
X-113.778 Y-113.358
X-114.861 Y-114.264
X-114.869 Y-114.271
X-115.977 Y-115.172
X-115.985 Y-115.179
X-117.118 Y-116.074
X-117.128 Y-116.081
X-118.286 Y-116.966
X-118.295 Y-116.973
X-119.478 Y-117.847
X-119.489 Y-117.855
X-120.698 Y-118.715
X-120.71 Y-118.723
X-121.945 Y-119.567
X-121.957 Y-119.575
X-123.218 Y-120.401
X-123.231 Y-120.41
X-124.52 Y-121.215
X-124.533 Y-121.223
X-125.847 Y-122.006
X-125.862 Y-122.015
X-127.204 Y-122.773
X-127.22 Y-122.781
X-128.588 Y-123.512
X-128.603 Y-123.521
X-129.998 Y-124.224
X-130.011 Y-124.23
X-130.718 Y-124.57
X-130.726 Y-124.574
X-131.44 Y-124.907
X-131.45 Y-124.911
X-132.171 Y-125.235
X-132.179 Y-125.239
X-132.907 Y-125.555
X-132.915 Y-125.558
X-133.648 Y-125.866
X-133.658 Y-125.871
X-134.399 Y-126.17
X-134.408 Y-126.173
X-135.155 Y-126.464
X-135.165 Y-126.468
X-135.918 Y-126.749
X-135.927 Y-126.752
X-136.686 Y-127.024
X-136.695 Y-127.027
X-137.461 Y-127.291
X-137.471 Y-127.295
X-138.243 Y-127.548
X-138.252 Y-127.55
X-139.03 Y-127.795
X-139.04 Y-127.799
X-139.824 Y-128.033
X-139.833 Y-128.035
X-140.622 Y-128.26
X-140.631 Y-128.263
X-141.426 Y-128.479
X-141.437 Y-128.482
X-142.238 Y-128.687
X-142.247 Y-128.689
X-143.053 Y-128.885
X-143.063 Y-128.887
X-143.875 Y-129.072
X-143.884 Y-129.074
X-144.7 Y-129.25
X-144.71 Y-129.252
X-145.531 Y-129.417
X-145.54 Y-129.419
X-146.366 Y-129.575
X-146.376 Y-129.577
X-147.206 Y-129.722
X-147.214 Y-129.723
X-148.048 Y-129.859
X-148.058 Y-129.861
X-148.896 Y-129.986
X-148.905 Y-129.987
X-149.747 Y-130.103
X-149.756 Y-130.104
X-150.602 Y-130.21
X-150.611 Y-130.211
X-151.459 Y-130.307
X-151.468 Y-130.308
X-152.32 Y-130.394
X-152.333 Y-130.395
X-154.044 Y-130.538
X-154.06 Y-130.54
X-155.78 Y-130.646
X-155.796
X-157.523 Y-130.714
X-157.539 Y-130.715
X-159.27 Y-130.747
X-159.285
X-161.018 Y-130.744
X-161.033
X-162.766 Y-130.707
X-162.78 Y-130.706
X-164.511 Y-130.637
X-164.525
X-166.253 Y-130.536
X-166.266 Y-130.535
X-167.987 Y-130.403
X-168 Y-130.402
X-169.714 Y-130.242
X-169.726 Y-130.241
X-171.43 Y-130.054
X-171.442 Y-130.052
X-173.135 Y-129.839
X-173.146 Y-129.838
X-174.826 Y-129.6
X-174.837 Y-129.598
X-176.504 Y-129.337
X-176.515 Y-129.335
X-178.166 Y-129.052
X-178.176 Y-129.05
X-179.811 Y-128.747
X-179.82 Y-128.746
X-181.437 Y-128.425
X-181.447 Y-128.423
X-183.046 Y-128.083
X-183.054 Y-128.081
X-184.634 Y-127.726
X-184.643 Y-127.724
X-186.203 Y-127.354
X-186.211 Y-127.352
X-187.751 Y-126.968
X-187.759 Y-126.966
X-189.278 Y-126.57
X-189.286 Y-126.568
X-190.784 Y-126.161
X-190.791 Y-126.159
X-192.268 Y-125.742
X-192.275 Y-125.74
X-193.731 Y-125.314
X-193.737 Y-125.312
X-195.172 Y-124.878
X-195.178 Y-124.876
X-196.593 Y-124.436
X-196.599 Y-124.434
X-197.993 Y-123.988
X-197.998 Y-123.987
X-199.372 Y-123.536
X-199.376 Y-123.534
X-200.731 Y-123.08
X-200.736 Y-123.079
X-202.072 Y-122.622
X-202.076 Y-122.62
X-203.393 Y-122.161
X-203.396 Y-122.16
X-204.696 Y-121.7
X-204.699 Y-121.699
X-205.982 Y-121.239
X-205.985 Y-121.238
X-207.252 Y-120.778
X-207.253
X-208.505 Y-120.321
X-208.507 Y-120.32
X-209.744 Y-119.865
X-210.968 Y-119.414
X-210.969 Y-119.413
X-212.179 Y-118.966
X-213.377 Y-118.524
X-214.563 Y-118.088
X-215.741 Y-117.66
X-216.907 Y-117.238
X-218.066 Y-116.825
X-219.217 Y-116.422
X-220.362 Y-116.028
X-221.502 Y-115.644
X-222.637 Y-115.271
X-223.769 Y-114.91
X-224.9 Y-114.561
X-226.03 Y-114.224
X-227.16 Y-113.901
X-228.292 Y-113.592
X-229.427 Y-113.296
X-230.564 Y-113.014
X-231.707 Y-112.749
X-232.855 Y-112.497
X-234.01 Y-112.262
X-235.174 Y-112.042
X-236.345 Y-111.839
X-237.525 Y-111.653
X-238.717 Y-111.483
X-239.919 Y-111.331
X-241.132 Y-111.196
X-242.359 Y-111.078
X-243.598 Y-110.978
X-244.85 Y-110.896
X-246.116 Y-110.832
X-247.396 Y-110.787
X-248.691 Y-110.759
X-250.003 Y-110.75
X-271
G2 X-275.75 Y-106 I0 J4.75
G1 Y-100
Y-99.981
X-275.745 Y-99.783
X-275.743 Y-99.746
X-275.728 Y-99.543
X-275.725 Y-99.512
X-275.701 Y-99.306
X-275.696 Y-99.273
X-275.662 Y-99.063
X-275.657 Y-99.032
X-275.613 Y-98.817
X-275.607 Y-98.791
X-275.554 Y-98.573
X-275.548 Y-98.549
X-275.486 Y-98.326
X-275.479 Y-98.303
X-275.408 Y-98.076
X-275.4 Y-98.052
X-275.319 Y-97.82
X-275.313 Y-97.804
X-275.224 Y-97.567
X-275.215 Y-97.543
X-275.012 Y-97.053
X-275.001 Y-97.027
X-274.765 Y-96.513
X-274.757 Y-96.496
X-274.493 Y-95.956
X-274.486 Y-95.943
X-274.194 Y-95.374
X-274.193 Y-95.371
X-274.039 Y-95.074
X-274.036 Y-95.07
X-273.875 Y-94.765
X-273.711 Y-94.452
X-273.71 Y-94.45
X-273.539 Y-94.129
X-273.365 Y-93.798
X-273.188 Y-93.459
X-273.007 Y-93.109
X-272.823 Y-92.749
X-272.637 Y-92.38
X-272.45 Y-92
X-272.259 Y-91.608
X-272.069 Y-91.206
X-271.877 Y-90.791
X-271.686 Y-90.364
X-271.494 Y-89.925
X-271.302 Y-89.474
X-271.113 Y-89.009
X-270.923 Y-88.532
X-270.737 Y-88.041
X-270.552 Y-87.536
X-270.369 Y-87.018
X-270.19 Y-86.487
X-270.014 Y-85.941
X-269.842 Y-85.381
X-269.674 Y-84.807
X-269.512 Y-84.219
X-269.354 Y-83.617
X-269.202 Y-83.001
X-269.056 Y-82.369
X-268.915 Y-81.725
X-268.781 Y-81.069
X-268.655 Y-80.398
X-268.535 Y-79.714
X-268.422 Y-79.019
X-268.319 Y-78.311
X-268.222 Y-77.593
X-268.134 Y-76.864
X-268.054 Y-76.126
X-267.984 Y-75.38
X-267.923 Y-74.626
X-267.871 Y-73.865
X-267.827 Y-73.099
X-267.793 Y-72.328
X-267.77 Y-71.556
X-267.75 Y-70
X-267.77 Y-68.444
X-267.793 Y-67.672
X-267.827 Y-66.901
X-267.871 Y-66.135
X-267.923 Y-65.374
X-267.984 Y-64.62
X-268.054 Y-63.874
X-268.134 Y-63.136
X-268.222 Y-62.407
X-268.319 Y-61.689
X-268.422 Y-60.981
X-268.535 Y-60.286
X-268.655 Y-59.602
X-268.781 Y-58.931
X-268.915 Y-58.275
X-269.056 Y-57.631
X-269.202 Y-56.999
X-269.354 Y-56.383
X-269.512 Y-55.781
X-269.674 Y-55.193
X-269.842 Y-54.619
X-270.014 Y-54.059
X-270.19 Y-53.513
X-270.369 Y-52.982
X-270.552 Y-52.464
X-270.737 Y-51.959
X-270.923 Y-51.468
X-271.113 Y-50.991
X-271.302 Y-50.526
X-271.494 Y-50.075
X-271.686 Y-49.636
X-271.877 Y-49.209
X-272.069 Y-48.794
X-272.259 Y-48.392
X-272.45 Y-48
X-272.637 Y-47.62
X-272.823 Y-47.251
X-273.007 Y-46.891
X-273.188 Y-46.541
X-273.365 Y-46.202
X-273.539 Y-45.871
X-273.71 Y-45.55
X-273.711 Y-45.548
X-273.875 Y-45.235
X-274.036 Y-44.93
X-274.039 Y-44.926
X-274.193 Y-44.629
X-274.194 Y-44.626
X-274.486 Y-44.057
X-274.493 Y-44.044
X-274.757 Y-43.504
X-274.765 Y-43.487
X-275.001 Y-42.973
X-275.012 Y-42.947
X-275.215 Y-42.457
X-275.224 Y-42.433
X-275.313 Y-42.196
X-275.319 Y-42.18
X-275.4 Y-41.948
X-275.408 Y-41.924
X-275.479 Y-41.697
X-275.486 Y-41.674
X-275.548 Y-41.451
X-275.554 Y-41.427
X-275.607 Y-41.209
X-275.613 Y-41.183
X-275.657 Y-40.968
X-275.662 Y-40.937
X-275.696 Y-40.727
X-275.701 Y-40.694
X-275.725 Y-40.488
X-275.728 Y-40.457
X-275.743 Y-40.254
X-275.745 Y-40.217
X-275.75 Y-40.019
Y-40
Y-34
G2 X-271 Y-29.25 I4.75 J0
G1 X-250.002
X-248.687 Y-29.242
X-247.389 Y-29.215
X-246.106 Y-29.17
X-244.838 Y-29.107
X-243.583 Y-29.025
X-242.343 Y-28.926
X-241.116 Y-28.809
X-239.901 Y-28.674
X-238.699 Y-28.522
X-237.507 Y-28.353
X-236.327 Y-28.167
X-235.156 Y-27.964
X-233.994 Y-27.745
X-232.841 Y-27.51
X-231.694 Y-27.259
X-230.553 Y-26.993
X-229.418 Y-26.712
X-228.286 Y-26.416
X-227.156 Y-26.107
X-226.029 Y-25.783
X-224.902 Y-25.447
X-223.774 Y-25.098
X-222.646 Y-24.737
X-221.513 Y-24.364
X-220.376 Y-23.98
X-219.235 Y-23.586
X-218.088 Y-23.182
X-216.932 Y-22.769
X-215.769 Y-22.347
X-214.595 Y-21.918
X-213.412 Y-21.482
X-212.217 Y-21.04
X-211.009 Y-20.593
X-209.788 Y-20.141
X-208.554 Y-19.686
X-208.552 Y-19.685
X-207.303 Y-19.227
X-207.301
X-206.037 Y-18.767
X-206.035 Y-18.766
X-204.754 Y-18.306
X-204.751 Y-18.305
X-203.453 Y-17.845
X-203.449 Y-17.844
X-202.133 Y-17.384
X-202.129 Y-17.383
X-200.795 Y-16.925
X-200.791 Y-16.924
X-199.437 Y-16.469
X-199.432 Y-16.468
X-198.059 Y-16.017
X-198.054 Y-16.015
X-196.661 Y-15.569
X-196.655 Y-15.567
X-195.24 Y-15.126
X-195.234 Y-15.125
X-193.799 Y-14.691
X-193.793 Y-14.689
X-192.337 Y-14.263
X-192.33 Y-14.261
X-190.852 Y-13.844
X-190.845 Y-13.842
X-189.346 Y-13.434
X-189.338 Y-13.432
X-187.818 Y-13.036
X-187.81 Y-13.034
X-186.269 Y-12.65
X-186.261 Y-12.648
X-184.699 Y-12.278
X-184.69 Y-12.276
X-183.108 Y-11.92
X-183.1 Y-11.918
X-181.499 Y-11.579
X-181.489 Y-11.577
X-179.869 Y-11.255
X-179.859 Y-11.253
X-178.221 Y-10.95
X-178.211 Y-10.948
X-176.556 Y-10.665
X-176.546 Y-10.664
X-174.876 Y-10.402
X-174.865 Y-10.401
X-173.181 Y-10.163
X-173.17 Y-10.161
X-171.473 Y-9.948
X-171.461 Y-9.947
X-169.752 Y-9.759
X-169.74 Y-9.758
X-168.022 Y-9.598
X-168.009 Y-9.597
X-166.283 Y-9.466
X-166.27 Y-9.465
X-164.538 Y-9.364
X-164.524 Y-9.363
X-162.788 Y-9.293
X-162.774
X-161.036 Y-9.256
X-161.021
X-159.283 Y-9.253
X-159.268
X-157.532 Y-9.285
X-157.529
X-157.516 Y-9.286 F1016
X-155.784 Y-9.354 Z-0.925
X-155.768 Y-9.355 Z-0.926
X-154.044 Y-9.46 Z-0.951
X-154.028 Y-9.462
X-152.312 Y-9.605 Z-0.976
X-152.299 Y-9.606
X-151.445 Y-9.692 Z-0.989
X-151.436 Y-9.693
X-150.585 Y-9.789 Z-1.001
X-150.576 Y-9.79
X-149.728 Y-9.896 Z-1.014
X-149.719 Y-9.897
X-148.875 Y-10.013 Z-1.026
X-148.866 Y-10.014 Z-1.027
X-148.026 Y-10.14 Z-1.039
X-148.017 Y-10.141
X-147.18 Y-10.276 Z-1.051
X-147.171 Y-10.278
X-146.339 Y-10.424 Z-1.064
X-146.329 Y-10.425
X-145.502 Y-10.581 Z-1.076
X-145.493 Y-10.583
X-144.67 Y-10.748 Z-1.089
X-144.661 Y-10.75
X-143.843 Y-10.926 Z-1.101
X-143.833 Y-10.928
X-143.02 Y-11.114 Z-1.113
X-143.011 Y-11.116
X-142.203 Y-11.311 Z-1.125
X-142.193 Y-11.314
X-141.39 Y-11.519 Z-1.138
X-141.38 Y-11.522
X-140.584 Y-11.737 Z-1.15
X-140.575 Y-11.74
X-139.784 Y-11.965 Z-1.162
X-139.774 Y-11.967
X-138.988 Y-12.202 Z-1.174
X-138.978 Y-12.205
X-138.199 Y-12.449 Z-1.186
X-138.19 Y-12.453
X-137.417 Y-12.706 Z-1.198
X-137.408 Y-12.71
X-136.641 Y-12.973 Z-1.21
X-136.631 Y-12.976
X-135.871 Y-13.248 Z-1.222
X-135.862 Y-13.252
X-135.108 Y-13.533 Z-1.234
X-135.099 Y-13.537
X-134.351 Y-13.827 Z-1.245
X-134.341 Y-13.831 Z-1.246
X-133.6 Y-14.13 Z-1.257
X-133.591 Y-14.134
X-132.856 Y-14.441 Z-1.269
X-132.847 Y-14.445
X-132.119 Y-14.762 Z-1.281
X-132.11 Y-14.766
X-131.389 Y-15.09 Z-1.292
X-131.381 Y-15.094
X-130.666 Y-15.426 Z-1.304
X-130.657 Y-15.43
X-129.949 Y-15.77 Z-1.315
X-129.941 Y-15.775
X-129.24 Y-16.122 Z-1.327
X-129.231 Y-16.127
X-128.537 Y-16.482 Z-1.338
X-128.526 Y-16.488 Z-1.339
X-127.157 Y-17.219 Z-1.361
X-127.141 Y-17.228
X-125.8 Y-17.986 Z-1.384
X-125.785 Y-17.994
X-124.471 Y-18.777 Z-1.406
X-124.457 Y-18.786 Z-1.407
X-123.17 Y-19.591 Z-1.429
X-123.157 Y-19.599
X-121.896 Y-20.425 Z-1.451
X-121.884 Y-20.434
X-120.65 Y-21.278 Z-1.473
X-120.638 Y-21.286
X-119.431 Y-22.146 Z-1.495
X-119.42 Y-22.154
X-119.303 Y-22.24 Z-1.497
Z-1.2
X-118.238 Y-23.028
X-118.228 Y-23.035
X-117.072 Y-23.921
X-117.062 Y-23.928
X-116.396 Y-24.456
X-115.932 Y-24.823 F600
X-115.924 Y-24.829
X-114.818 Y-25.731
X-114.81 Y-25.737
X-113.729 Y-26.643
X-113.722 Y-26.649
X-112.668 Y-27.554
Z-1.55 F300
X-112.665 Y-27.557 F600
X-112.659 Y-27.562
X-111.625 Y-28.469
X-111.62 Y-28.474
X-110.609 Y-29.379
X-110.604 Y-29.383
X-109.616 Y-30.282
X-109.613 Y-30.285
X-108.646 Y-31.177
X-108.643 Y-31.18
X-107.697 Y-32.061
X-107.695 Y-32.063
X-106.77 Y-32.931
X-106.769 Y-32.932
X-105.863 Y-33.786
X-104.977 Y-34.621
X-104.11 Y-35.436
X-103.261 Y-36.227
X-102.43 Y-36.992
X-101.616 Y-37.73
X-100.82 Y-38.437
X-100.039 Y-39.111
X-99.274 Y-39.751
X-98.523 Y-40.354
X-97.786 Y-40.921
X-97.425 Y-41.187
X-97.066 Y-41.444
X-96.71 Y-41.691
X-96.358 Y-41.927
X-96.01 Y-42.152
X-95.664 Y-42.367
X-95.322 Y-42.57
X-94.984 Y-42.762
X-94.648 Y-42.942
X-94.317 Y-43.111
X-93.988 Y-43.269
X-93.663 Y-43.414
X-93.341 Y-43.549
X-93.022 Y-43.671
X-92.706 Y-43.781
X-92.394 Y-43.88
X-92.085 Y-43.967
X-91.778 Y-44.043
X-91.475 Y-44.106
X-91.175 Y-44.158
X-90.877 Y-44.198
X-90.582 Y-44.227
X-90.29 Y-44.244
X-89.993 Y-44.25
X-14
G2 X-9.25 Y-49 I0 J-4.75
G1 Y-91
G2 X-14 Y-95.75 I-4.75 J0
G1 X-89.993
X-90.289 Y-95.756
X-90.581 Y-95.773
X-90.875 Y-95.802
X-91.172 Y-95.842
X-91.472 Y-95.894
X-91.774 Y-95.957
X-92.08 Y-96.033
X-92.389 Y-96.12
X-92.701 Y-96.218
X-93.017 Y-96.329
X-93.336 Y-96.451
X-93.658 Y-96.585
X-93.983 Y-96.731
X-94.312 Y-96.889
X-94.644 Y-97.058
X-94.98 Y-97.239
X-95.319 Y-97.43
X-95.661 Y-97.634
X-96.007 Y-97.848
X-96.357 Y-98.073
X-96.709 Y-98.31
X-97.066 Y-98.556
X-97.425 Y-98.814
X-97.787 Y-99.08
X-98.527 Y-99.646
X-99.279 Y-100.25
X-100.047 Y-100.89
X-100.83 Y-101.564
X-101.629 Y-102.271
X-102.445 Y-103.009
X-103.279 Y-103.774
X-104.13 Y-104.565
X-105 Y-105.38
X-105.89 Y-106.216
X-106.799 Y-107.069
X-107.727 Y-107.938
X-107.73 Y-107.941
X-108.679 Y-108.822
X-108.681 Y-108.824
X-109.65 Y-109.716
X-109.654 Y-109.719
X-110.645 Y-110.618
X-110.65 Y-110.623
X-111.664 Y-111.528
X-111.669 Y-111.532
X-112.705 Y-112.439
X-112.711 Y-112.445
X-112.718 Y-112.45
Z-1.2
X-113.771 Y-113.353
X-113.778 Y-113.358
X-114.861 Y-114.264
X-114.869 Y-114.271
X-115.977 Y-115.172
X-115.985 Y-115.179
X-117.118 Y-116.074
X-117.128 Y-116.081
X-118.286 Y-116.966
X-118.295 Y-116.973
X-119.357 Y-117.758
Z-1.55 F300
X-119.478 Y-117.847 F600
X-119.489 Y-117.855
X-120.698 Y-118.715
X-120.71 Y-118.723
X-121.945 Y-119.567
X-121.957 Y-119.575
X-123.218 Y-120.401
X-123.231 Y-120.41
X-124.52 Y-121.215
X-124.533 Y-121.223
X-125.847 Y-122.006
X-125.862 Y-122.015
X-127.204 Y-122.773
X-127.22 Y-122.781
X-128.588 Y-123.512
X-128.603 Y-123.521
X-129.998 Y-124.224
X-130.011 Y-124.23
X-130.718 Y-124.57
X-130.726 Y-124.574
X-131.44 Y-124.907
X-131.45 Y-124.911
X-132.171 Y-125.235
X-132.179 Y-125.239
X-132.907 Y-125.555
X-132.915 Y-125.558
X-133.648 Y-125.866
X-133.658 Y-125.871
X-134.399 Y-126.17
X-134.408 Y-126.173
X-135.155 Y-126.464
X-135.165 Y-126.468
X-135.918 Y-126.749
X-135.927 Y-126.752
X-136.686 Y-127.024
X-136.695 Y-127.027
X-137.461 Y-127.291
X-137.471 Y-127.295
X-138.243 Y-127.548
X-138.252 Y-127.55
X-139.03 Y-127.795
X-139.04 Y-127.799
X-139.824 Y-128.033
X-139.833 Y-128.035
X-140.622 Y-128.26
X-140.631 Y-128.263
X-141.426 Y-128.479
X-141.437 Y-128.482
X-142.238 Y-128.687
X-142.247 Y-128.689
X-143.053 Y-128.885
X-143.063 Y-128.887
X-143.875 Y-129.072
X-143.884 Y-129.074
X-144.7 Y-129.25
X-144.71 Y-129.252
X-145.531 Y-129.417
X-145.54 Y-129.419
X-146.366 Y-129.575
X-146.376 Y-129.577
X-147.206 Y-129.722
X-147.214 Y-129.723
X-148.048 Y-129.859
X-148.058 Y-129.861
X-148.896 Y-129.986
X-148.905 Y-129.987
X-149.747 Y-130.103
X-149.756 Y-130.104
X-150.602 Y-130.21
X-150.611 Y-130.211
X-151.459 Y-130.307
X-151.468 Y-130.308
X-152.32 Y-130.394
X-152.333 Y-130.395
X-154.044 Y-130.538
X-154.06 Y-130.54
X-155.78 Y-130.646
X-155.796
X-157.523 Y-130.714
X-157.539 Y-130.715
X-159.27 Y-130.747
X-159.285
X-161.018 Y-130.744
X-161.033
X-162.766 Y-130.707
X-162.78 Y-130.706
X-164.511 Y-130.637
X-164.525
X-166.253 Y-130.536
X-166.266 Y-130.535
X-167.987 Y-130.403
X-168 Y-130.402
X-169.714 Y-130.242
X-169.726 Y-130.241
X-171.43 Y-130.054
X-171.442 Y-130.052
X-173.135 Y-129.839
X-173.146 Y-129.838
X-174.826 Y-129.6
X-174.837 Y-129.598
X-176.504 Y-129.337
X-176.515 Y-129.335
X-178.166 Y-129.052
X-178.176 Y-129.05
X-179.811 Y-128.747
X-179.82 Y-128.746
X-181.437 Y-128.425
X-181.447 Y-128.423
X-183.046 Y-128.083
X-183.054 Y-128.081
X-184.634 Y-127.726
X-184.643 Y-127.724
X-186.203 Y-127.354
X-186.211 Y-127.352
X-187.751 Y-126.968
X-187.759 Y-126.966
X-189.278 Y-126.57
X-189.286 Y-126.568
X-190.784 Y-126.161
X-190.791 Y-126.159
X-192.268 Y-125.742
X-192.275 Y-125.74
X-193.731 Y-125.314
X-193.737 Y-125.312
X-195.172 Y-124.878
X-195.178 Y-124.876
X-196.593 Y-124.436
X-196.599 Y-124.434
X-197.993 Y-123.988
X-197.998 Y-123.987
X-199.372 Y-123.536
X-199.376 Y-123.534
X-200.731 Y-123.08
X-200.736 Y-123.079
X-202.072 Y-122.622
X-202.076 Y-122.62
X-203.393 Y-122.161
X-203.396 Y-122.16
X-204.696 Y-121.7
X-204.699 Y-121.699
X-205.982 Y-121.239
X-205.985 Y-121.238
X-207.252 Y-120.778
X-207.253
X-208.191 Y-120.435
Z-1.2
X-208.505 Y-120.321
X-208.507 Y-120.32
X-209.744 Y-119.865
X-210.968 Y-119.414
X-210.969 Y-119.413
X-212.179 Y-118.966
X-213.377 Y-118.524
X-214.563 Y-118.088
X-215.741 Y-117.66
X-216.17 Y-117.505
Z-1.55 F300
X-216.907 Y-117.238 F600
X-218.066 Y-116.825
X-219.217 Y-116.422
X-220.362 Y-116.028
X-221.502 Y-115.644
X-222.637 Y-115.271
X-223.769 Y-114.91
X-224.9 Y-114.561
X-226.03 Y-114.224
X-227.16 Y-113.901
X-228.292 Y-113.592
X-229.427 Y-113.296
X-230.564 Y-113.014
X-231.707 Y-112.749
X-232.855 Y-112.497
X-234.01 Y-112.262
X-235.174 Y-112.042
X-236.345 Y-111.839
X-237.525 Y-111.653
X-238.717 Y-111.483
X-239.919 Y-111.331
X-241.132 Y-111.196
X-242.359 Y-111.078
X-243.598 Y-110.978
X-244.85 Y-110.896
X-246.116 Y-110.832
X-247.396 Y-110.787
X-248.691 Y-110.759
X-250.003 Y-110.75
X-271
G2 X-275.75 Y-106 I0 J4.75
G1 Y-100
Y-99.981
X-275.745 Y-99.783
X-275.743 Y-99.746
X-275.728 Y-99.543
X-275.725 Y-99.512
X-275.701 Y-99.306
X-275.696 Y-99.273
X-275.662 Y-99.063
X-275.657 Y-99.032
X-275.613 Y-98.817
X-275.607 Y-98.791
X-275.554 Y-98.573
X-275.548 Y-98.549
X-275.486 Y-98.326
X-275.479 Y-98.303
X-275.408 Y-98.076
X-275.4 Y-98.052
X-275.319 Y-97.82
X-275.313 Y-97.804
X-275.224 Y-97.567
X-275.215 Y-97.543
X-275.012 Y-97.053
X-275.001 Y-97.027
X-274.765 Y-96.513
X-274.757 Y-96.496
X-274.493 Y-95.956
X-274.486 Y-95.943
X-274.194 Y-95.374
X-274.193 Y-95.371
X-274.039 Y-95.074
X-274.036 Y-95.07
X-273.875 Y-94.765
X-273.711 Y-94.452
X-273.71 Y-94.45
X-273.539 Y-94.129
X-273.365 Y-93.798
X-273.188 Y-93.459
X-273.007 Y-93.109
X-272.823 Y-92.749
X-272.637 Y-92.38
X-272.45 Y-92
X-272.259 Y-91.608
X-272.069 Y-91.206
X-271.877 Y-90.791
X-271.686 Y-90.364
X-271.494 Y-89.925
X-271.302 Y-89.474
X-271.113 Y-89.009
X-270.923 Y-88.532
X-270.737 Y-88.041
X-270.552 Y-87.536
X-270.369 Y-87.018
X-270.19 Y-86.487
X-270.014 Y-85.941
X-269.842 Y-85.381
X-269.674 Y-84.807
X-269.512 Y-84.219
X-269.354 Y-83.617
X-269.202 Y-83.001
X-269.056 Y-82.369
X-268.915 Y-81.725
X-268.781 Y-81.069
X-268.655 Y-80.398
X-268.535 Y-79.714
X-268.422 Y-79.019
X-268.319 Y-78.311
X-268.222 Y-77.593
X-268.134 Y-76.864
X-268.054 Y-76.126
X-267.984 Y-75.38
X-267.923 Y-74.626
X-267.871 Y-73.865
X-267.827 Y-73.099
X-267.793 Y-72.328
X-267.77 Y-71.556
X-267.75 Y-70
X-267.77 Y-68.444
X-267.793 Y-67.672
X-267.827 Y-66.901
X-267.871 Y-66.135
X-267.923 Y-65.374
X-267.984 Y-64.62
X-268.054 Y-63.874
X-268.134 Y-63.136
X-268.222 Y-62.407
X-268.319 Y-61.689
X-268.422 Y-60.981
X-268.535 Y-60.286
X-268.655 Y-59.602
X-268.781 Y-58.931
X-268.915 Y-58.275
X-269.056 Y-57.631
X-269.202 Y-56.999
X-269.354 Y-56.383
X-269.512 Y-55.781
X-269.674 Y-55.193
X-269.842 Y-54.619
X-270.014 Y-54.059
X-270.19 Y-53.513
X-270.369 Y-52.982
X-270.552 Y-52.464
X-270.737 Y-51.959
X-270.923 Y-51.468
X-271.113 Y-50.991
X-271.302 Y-50.526
X-271.494 Y-50.075
X-271.686 Y-49.636
X-271.877 Y-49.209
X-272.069 Y-48.794
X-272.259 Y-48.392
X-272.45 Y-48
X-272.637 Y-47.62
X-272.823 Y-47.251
X-273.007 Y-46.891
X-273.188 Y-46.541
X-273.365 Y-46.202
X-273.539 Y-45.871
X-273.71 Y-45.55
X-273.711 Y-45.548
X-273.875 Y-45.235
X-274.036 Y-44.93
X-274.039 Y-44.926
X-274.193 Y-44.629
X-274.194 Y-44.626
X-274.486 Y-44.057
X-274.493 Y-44.044
X-274.757 Y-43.504
X-274.765 Y-43.487
X-275.001 Y-42.973
X-275.012 Y-42.947
X-275.215 Y-42.457
X-275.224 Y-42.433
X-275.313 Y-42.196
X-275.319 Y-42.18
X-275.4 Y-41.948
X-275.408 Y-41.924
X-275.479 Y-41.697
X-275.486 Y-41.674
X-275.548 Y-41.451
X-275.554 Y-41.427
X-275.607 Y-41.209
X-275.613 Y-41.183
X-275.657 Y-40.968
X-275.662 Y-40.937
X-275.696 Y-40.727
X-275.701 Y-40.694
X-275.725 Y-40.488
X-275.728 Y-40.457
X-275.743 Y-40.254
X-275.745 Y-40.217
X-275.75 Y-40.019
Y-40
Y-34
G2 X-271 Y-29.25 I4.75 J0
G1 X-250.002
X-248.687 Y-29.242
X-247.389 Y-29.215
X-246.106 Y-29.17
X-244.838 Y-29.107
X-243.583 Y-29.025
X-242.343 Y-28.926
X-241.116 Y-28.809
X-239.901 Y-28.674
X-238.699 Y-28.522
X-237.507 Y-28.353
X-236.327 Y-28.167
X-235.156 Y-27.964
X-233.994 Y-27.745
X-232.841 Y-27.51
X-231.694 Y-27.259
X-230.553 Y-26.993
X-229.418 Y-26.712
X-228.286 Y-26.416
X-227.156 Y-26.107
X-226.029 Y-25.783
X-224.902 Y-25.447
X-223.774 Y-25.098
X-222.646 Y-24.737
X-221.513 Y-24.364
X-220.376 Y-23.98
X-219.235 Y-23.586
X-218.088 Y-23.182
X-216.932 Y-22.769
X-216.207 Y-22.506
Z-1.2
X-215.769 Y-22.347
X-214.595 Y-21.918
X-213.412 Y-21.482
X-212.217 Y-21.04
