(X500_Bohren_1-5)
(T14  D=1.5 CR=0 - ZMIN=-2.2 - Schaftfraser)
G90 G94
G17
G21

(Bohrfrasen3)
T14
S4000 M3
G54
G0 X-137.65 Y-200.013
Z15
Z2.2
G1 Z0.35 F400
Y-200.02 Z0.304
Y-200.041 Z0.262
Y-200.074 Z0.229
Y-200.116 Z0.207
Y-200.163 Z0.2
Y-200.238
X-137.643 Y-200.284
X-137.621 Y-200.326
X-137.588 Y-200.359
X-137.546 Y-200.38
X-137.5 Y-200.388
G3 X-137.5 Y-199.388 Z0.178 I0 J0.5 F600
X-137.5 Y-200.388 Z0.156 I0 J-0.5
X-137.5 Y-199.388 Z0.135 I0 J0.5
X-137.5 Y-200.388 Z0.113 I0 J-0.5
X-137.5 Y-199.388 Z0.091 I0 J0.5
X-137.5 Y-200.388 Z0.069 I0 J-0.5
X-137.5 Y-199.388 Z0.047 I0 J0.5
X-137.5 Y-200.388 Z0.025 I0 J-0.5
X-137.5 Y-199.388 Z0.004 I0 J0.5
X-137.5 Y-200.388 Z-0.018 I0 J-0.5
X-137.5 Y-199.388 Z-0.04 I0 J0.5
X-137.5 Y-200.388 Z-0.062 I0 J-0.5
X-137.5 Y-199.388 Z-0.084 I0 J0.5
X-137.5 Y-200.388 Z-0.105 I0 J-0.5
X-137.5 Y-199.388 Z-0.127 I0 J0.5
X-137.5 Y-200.388 Z-0.149 I0 J-0.5
X-137.5 Y-199.388 Z-0.171 I0 J0.5
X-137.5 Y-200.388 Z-0.193 I0 J-0.5
X-137.5 Y-199.388 Z-0.215 I0 J0.5
X-137.5 Y-200.388 Z-0.236 I0 J-0.5
X-137.5 Y-199.388 Z-0.258 I0 J0.5
X-137.5 Y-200.388 Z-0.28 I0 J-0.5
X-137.5 Y-199.388 Z-0.302 I0 J0.5
X-137.5 Y-200.388 Z-0.324 I0 J-0.5
X-137.5 Y-199.388 Z-0.345 I0 J0.5
X-137.5 Y-200.388 Z-0.367 I0 J-0.5
X-137.5 Y-199.388 Z-0.389 I0 J0.5
X-137.5 Y-200.388 Z-0.411 I0 J-0.5
X-137.5 Y-199.388 Z-0.433 I0 J0.5
X-137.5 Y-200.388 Z-0.455 I0 J-0.5
X-137.5 Y-199.388 Z-0.476 I0 J0.5
X-137.5 Y-200.388 Z-0.498 I0 J-0.5
X-137.5 Y-199.388 Z-0.52 I0 J0.5
X-137.5 Y-200.388 Z-0.542 I0 J-0.5
X-137.5 Y-199.388 Z-0.564 I0 J0.5
X-137.5 Y-200.388 Z-0.585 I0 J-0.5
X-137.5 Y-199.388 Z-0.607 I0 J0.5
X-137.5 Y-200.388 Z-0.629 I0 J-0.5
X-137.5 Y-199.388 Z-0.651 I0 J0.5
X-137.5 Y-200.388 Z-0.673 I0 J-0.5
X-137.5 Y-199.388 Z-0.695 I0 J0.5
X-137.5 Y-200.388 Z-0.716 I0 J-0.5
X-137.5 Y-199.388 Z-0.738 I0 J0.5
X-137.5 Y-200.388 Z-0.76 I0 J-0.5
X-137.5 Y-199.388 Z-0.782 I0 J0.5
X-137.5 Y-200.388 Z-0.804 I0 J-0.5
X-137.5 Y-199.388 Z-0.825 I0 J0.5
X-137.5 Y-200.388 Z-0.847 I0 J-0.5
X-137.5 Y-199.388 Z-0.869 I0 J0.5
X-137.5 Y-200.388 Z-0.891 I0 J-0.5
X-137.5 Y-199.388 Z-0.913 I0 J0.5
X-137.5 Y-200.388 Z-0.935 I0 J-0.5
X-137.5 Y-199.388 Z-0.956 I0 J0.5
X-137.5 Y-200.388 Z-0.978 I0 J-0.5
X-137.5 Y-199.388 Z-1 I0 J0.5
X-137.5 Y-200.388 Z-1.022 I0 J-0.5
X-137.5 Y-199.388 Z-1.044 I0 J0.5
X-137.5 Y-200.388 Z-1.065 I0 J-0.5
X-137.5 Y-199.388 Z-1.087 I0 J0.5
X-137.5 Y-200.388 Z-1.109 I0 J-0.5
X-137.5 Y-199.388 Z-1.131 I0 J0.5
X-137.5 Y-200.388 Z-1.153 I0 J-0.5
X-137.5 Y-199.388 Z-1.175 I0 J0.5
X-137.5 Y-200.388 Z-1.196 I0 J-0.5
X-137.5 Y-199.388 Z-1.218 I0 J0.5
X-137.5 Y-200.388 Z-1.24 I0 J-0.5
X-137.5 Y-199.388 Z-1.262 I0 J0.5
X-137.5 Y-200.388 Z-1.284 I0 J-0.5
X-137.5 Y-199.388 Z-1.305 I0 J0.5
X-137.5 Y-200.388 Z-1.327 I0 J-0.5
X-137.5 Y-199.388 Z-1.349 I0 J0.5
X-137.5 Y-200.388 Z-1.371 I0 J-0.5
X-137.5 Y-199.388 Z-1.393 I0 J0.5
X-137.5 Y-200.388 Z-1.415 I0 J-0.5
X-137.5 Y-199.388 Z-1.436 I0 J0.5
X-137.5 Y-200.388 Z-1.458 I0 J-0.5
X-137.5 Y-199.388 Z-1.48 I0 J0.5
X-137.5 Y-200.388 Z-1.502 I0 J-0.5
X-137.5 Y-199.388 Z-1.524 I0 J0.5
X-137.5 Y-200.388 Z-1.546 I0 J-0.5
X-137.5 Y-199.388 Z-1.567 I0 J0.5
X-137.5 Y-200.388 Z-1.589 I0 J-0.5
X-137.5 Y-199.388 Z-1.611 I0 J0.5
X-137.5 Y-200.388 Z-1.633 I0 J-0.5
X-137.5 Y-199.388 Z-1.655 I0 J0.5
X-137.5 Y-200.388 Z-1.676 I0 J-0.5
X-137.5 Y-199.388 Z-1.698 I0 J0.5
X-137.5 Y-200.388 Z-1.72 I0 J-0.5
X-137.5 Y-199.388 Z-1.742 I0 J0.5
X-137.5 Y-200.388 Z-1.764 I0 J-0.5
X-137.5 Y-199.388 Z-1.786 I0 J0.5
X-137.5 Y-200.388 Z-1.807 I0 J-0.5
X-137.5 Y-199.388 Z-1.829 I0 J0.5
X-137.5 Y-200.388 Z-1.851 I0 J-0.5
X-137.5 Y-199.388 Z-1.873 I0 J0.5
X-137.5 Y-200.388 Z-1.895 I0 J-0.5
X-137.5 Y-199.388 Z-1.916 I0 J0.5
X-137.5 Y-200.388 Z-1.938 I0 J-0.5
X-137.5 Y-199.388 Z-1.96 I0 J0.5
X-137.5 Y-200.388 Z-1.982 I0 J-0.5
X-137.5 Y-199.388 Z-2.004 I0 J0.5
X-137.5 Y-200.388 Z-2.026 I0 J-0.5
X-137.5 Y-199.388 Z-2.047 I0 J0.5
X-137.5 Y-200.388 Z-2.069 I0 J-0.5
X-137.5 Y-199.388 Z-2.091 I0 J0.5
X-137.5 Y-200.388 Z-2.113 I0 J-0.5
X-137.5 Y-199.388 Z-2.135 I0 J0.5
X-137.5 Y-200.388 Z-2.156 I0 J-0.5
X-137.5 Y-199.388 Z-2.178 I0 J0.5
X-137.505 Y-200.388 Z-2.2 I0 J-0.5
X-137.495 Y-199.388 I0.005 J0.5
X-137.505 Y-200.388 I-0.005 J-0.5
G1 X-137.459 Y-200.381
X-137.417 Y-200.36
X-137.383 Y-200.327
X-137.361 Y-200.285
X-137.354 Y-200.239
X-137.353 Y-200.164
X-137.352 Y-200.118 Z-2.193
Y-200.076 Z-2.171
Y-200.043 Z-2.138
X-137.351 Y-200.021 Z-2.096
Y-200.014 Z-2.05
G0 Z5
X-162.65 Y-200.013
Z2.2
G1 Z0.35 F400
Y-200.02 Z0.304
Y-200.041 Z0.262
Y-200.074 Z0.229
Y-200.116 Z0.207
Y-200.163 Z0.2
Y-200.238
X-162.643 Y-200.284
X-162.621 Y-200.326
X-162.588 Y-200.359
X-162.546 Y-200.38
X-162.5 Y-200.388
G3 X-162.5 Y-199.388 Z0.178 I0 J0.5 F600
X-162.5 Y-200.388 Z0.156 I0 J-0.5
X-162.5 Y-199.388 Z0.135 I0 J0.5
X-162.5 Y-200.388 Z0.113 I0 J-0.5
X-162.5 Y-199.388 Z0.091 I0 J0.5
X-162.5 Y-200.388 Z0.069 I0 J-0.5
X-162.5 Y-199.388 Z0.047 I0 J0.5
X-162.5 Y-200.388 Z0.025 I0 J-0.5
X-162.5 Y-199.388 Z0.004 I0 J0.5
X-162.5 Y-200.388 Z-0.018 I0 J-0.5
X-162.5 Y-199.388 Z-0.04 I0 J0.5
X-162.5 Y-200.388 Z-0.062 I0 J-0.5
X-162.5 Y-199.388 Z-0.084 I0 J0.5
X-162.5 Y-200.388 Z-0.105 I0 J-0.5
X-162.5 Y-199.388 Z-0.127 I0 J0.5
X-162.5 Y-200.388 Z-0.149 I0 J-0.5
X-162.5 Y-199.388 Z-0.171 I0 J0.5
X-162.5 Y-200.388 Z-0.193 I0 J-0.5
X-162.5 Y-199.388 Z-0.215 I0 J0.5
X-162.5 Y-200.388 Z-0.236 I0 J-0.5
X-162.5 Y-199.388 Z-0.258 I0 J0.5
X-162.5 Y-200.388 Z-0.28 I0 J-0.5
X-162.5 Y-199.388 Z-0.302 I0 J0.5
X-162.5 Y-200.388 Z-0.324 I0 J-0.5
X-162.5 Y-199.388 Z-0.345 I0 J0.5
X-162.5 Y-200.388 Z-0.367 I0 J-0.5
X-162.5 Y-199.388 Z-0.389 I0 J0.5
X-162.5 Y-200.388 Z-0.411 I0 J-0.5
X-162.5 Y-199.388 Z-0.433 I0 J0.5
X-162.5 Y-200.388 Z-0.455 I0 J-0.5
X-162.5 Y-199.388 Z-0.476 I0 J0.5
X-162.5 Y-200.388 Z-0.498 I0 J-0.5
X-162.5 Y-199.388 Z-0.52 I0 J0.5
X-162.5 Y-200.388 Z-0.542 I0 J-0.5
X-162.5 Y-199.388 Z-0.564 I0 J0.5
X-162.5 Y-200.388 Z-0.585 I0 J-0.5
X-162.5 Y-199.388 Z-0.607 I0 J0.5
X-162.5 Y-200.388 Z-0.629 I0 J-0.5
X-162.5 Y-199.388 Z-0.651 I0 J0.5
X-162.5 Y-200.388 Z-0.673 I0 J-0.5
X-162.5 Y-199.388 Z-0.695 I0 J0.5
X-162.5 Y-200.388 Z-0.716 I0 J-0.5
X-162.5 Y-199.388 Z-0.738 I0 J0.5
X-162.5 Y-200.388 Z-0.76 I0 J-0.5
X-162.5 Y-199.388 Z-0.782 I0 J0.5
X-162.5 Y-200.388 Z-0.804 I0 J-0.5
X-162.5 Y-199.388 Z-0.825 I0 J0.5
X-162.5 Y-200.388 Z-0.847 I0 J-0.5
X-162.5 Y-199.388 Z-0.869 I0 J0.5
X-162.5 Y-200.388 Z-0.891 I0 J-0.5
X-162.5 Y-199.388 Z-0.913 I0 J0.5
X-162.5 Y-200.388 Z-0.935 I0 J-0.5
X-162.5 Y-199.388 Z-0.956 I0 J0.5
X-162.5 Y-200.388 Z-0.978 I0 J-0.5
X-162.5 Y-199.388 Z-1 I0 J0.5
X-162.5 Y-200.388 Z-1.022 I0 J-0.5
X-162.5 Y-199.388 Z-1.044 I0 J0.5
X-162.5 Y-200.388 Z-1.065 I0 J-0.5
X-162.5 Y-199.388 Z-1.087 I0 J0.5
X-162.5 Y-200.388 Z-1.109 I0 J-0.5
X-162.5 Y-199.388 Z-1.131 I0 J0.5
X-162.5 Y-200.388 Z-1.153 I0 J-0.5
X-162.5 Y-199.388 Z-1.175 I0 J0.5
X-162.5 Y-200.388 Z-1.196 I0 J-0.5
X-162.5 Y-199.388 Z-1.218 I0 J0.5
X-162.5 Y-200.388 Z-1.24 I0 J-0.5
X-162.5 Y-199.388 Z-1.262 I0 J0.5
X-162.5 Y-200.388 Z-1.284 I0 J-0.5
X-162.5 Y-199.388 Z-1.305 I0 J0.5
X-162.5 Y-200.388 Z-1.327 I0 J-0.5
X-162.5 Y-199.388 Z-1.349 I0 J0.5
X-162.5 Y-200.388 Z-1.371 I0 J-0.5
X-162.5 Y-199.388 Z-1.393 I0 J0.5
X-162.5 Y-200.388 Z-1.415 I0 J-0.5
X-162.5 Y-199.388 Z-1.436 I0 J0.5
X-162.5 Y-200.388 Z-1.458 I0 J-0.5
X-162.5 Y-199.388 Z-1.48 I0 J0.5
X-162.5 Y-200.388 Z-1.502 I0 J-0.5
X-162.5 Y-199.388 Z-1.524 I0 J0.5
X-162.5 Y-200.388 Z-1.546 I0 J-0.5
X-162.5 Y-199.388 Z-1.567 I0 J0.5
X-162.5 Y-200.388 Z-1.589 I0 J-0.5
X-162.5 Y-199.388 Z-1.611 I0 J0.5
X-162.5 Y-200.388 Z-1.633 I0 J-0.5
X-162.5 Y-199.388 Z-1.655 I0 J0.5
X-162.5 Y-200.388 Z-1.676 I0 J-0.5
X-162.5 Y-199.388 Z-1.698 I0 J0.5
X-162.5 Y-200.388 Z-1.72 I0 J-0.5
X-162.5 Y-199.388 Z-1.742 I0 J0.5
X-162.5 Y-200.388 Z-1.764 I0 J-0.5
X-162.5 Y-199.388 Z-1.786 I0 J0.5
X-162.5 Y-200.388 Z-1.807 I0 J-0.5
X-162.5 Y-199.388 Z-1.829 I0 J0.5
X-162.5 Y-200.388 Z-1.851 I0 J-0.5
X-162.5 Y-199.388 Z-1.873 I0 J0.5
X-162.5 Y-200.388 Z-1.895 I0 J-0.5
X-162.5 Y-199.388 Z-1.916 I0 J0.5
X-162.5 Y-200.388 Z-1.938 I0 J-0.5
X-162.5 Y-199.388 Z-1.96 I0 J0.5
X-162.5 Y-200.388 Z-1.982 I0 J-0.5
X-162.5 Y-199.388 Z-2.004 I0 J0.5
X-162.5 Y-200.388 Z-2.026 I0 J-0.5
X-162.5 Y-199.388 Z-2.047 I0 J0.5
X-162.5 Y-200.388 Z-2.069 I0 J-0.5
X-162.5 Y-199.388 Z-2.091 I0 J0.5
X-162.5 Y-200.388 Z-2.113 I0 J-0.5
X-162.5 Y-199.388 Z-2.135 I0 J0.5
X-162.5 Y-200.388 Z-2.156 I0 J-0.5
X-162.5 Y-199.388 Z-2.178 I0 J0.5
X-162.505 Y-200.388 Z-2.2 I0 J-0.5
X-162.495 Y-199.388 I0.005 J0.5
X-162.505 Y-200.388 I-0.005 J-0.5
G1 X-162.459 Y-200.381
X-162.417 Y-200.36
X-162.383 Y-200.327
X-162.361 Y-200.285
X-162.354 Y-200.239
X-162.353 Y-200.164
X-162.352 Y-200.118 Z-2.193
Y-200.076 Z-2.171
Y-200.043 Z-2.138
X-162.351 Y-200.021 Z-2.096
Y-200.014 Z-2.05
G0 Z5
X-162.65 Y-175.013
Z2.2
G1 Z0.35 F400
Y-175.02 Z0.304
Y-175.041 Z0.262
Y-175.074 Z0.229
Y-175.116 Z0.207
Y-175.163 Z0.2
Y-175.238
X-162.643 Y-175.284
X-162.621 Y-175.326
X-162.588 Y-175.359
X-162.546 Y-175.38
X-162.5 Y-175.388
G3 X-162.5 Y-174.388 Z0.178 I0 J0.5 F600
X-162.5 Y-175.388 Z0.156 I0 J-0.5
X-162.5 Y-174.388 Z0.135 I0 J0.5
X-162.5 Y-175.388 Z0.113 I0 J-0.5
X-162.5 Y-174.388 Z0.091 I0 J0.5
X-162.5 Y-175.388 Z0.069 I0 J-0.5
X-162.5 Y-174.388 Z0.047 I0 J0.5
X-162.5 Y-175.388 Z0.025 I0 J-0.5
X-162.5 Y-174.388 Z0.004 I0 J0.5
X-162.5 Y-175.388 Z-0.018 I0 J-0.5
X-162.5 Y-174.388 Z-0.04 I0 J0.5
X-162.5 Y-175.388 Z-0.062 I0 J-0.5
X-162.5 Y-174.388 Z-0.084 I0 J0.5
X-162.5 Y-175.388 Z-0.105 I0 J-0.5
X-162.5 Y-174.388 Z-0.127 I0 J0.5
X-162.5 Y-175.388 Z-0.149 I0 J-0.5
X-162.5 Y-174.388 Z-0.171 I0 J0.5
X-162.5 Y-175.388 Z-0.193 I0 J-0.5
X-162.5 Y-174.388 Z-0.215 I0 J0.5
X-162.5 Y-175.388 Z-0.236 I0 J-0.5
X-162.5 Y-174.388 Z-0.258 I0 J0.5
X-162.5 Y-175.388 Z-0.28 I0 J-0.5
X-162.5 Y-174.388 Z-0.302 I0 J0.5
X-162.5 Y-175.388 Z-0.324 I0 J-0.5
X-162.5 Y-174.388 Z-0.345 I0 J0.5
X-162.5 Y-175.388 Z-0.367 I0 J-0.5
X-162.5 Y-174.388 Z-0.389 I0 J0.5
X-162.5 Y-175.388 Z-0.411 I0 J-0.5
X-162.5 Y-174.388 Z-0.433 I0 J0.5
X-162.5 Y-175.388 Z-0.455 I0 J-0.5
X-162.5 Y-174.388 Z-0.476 I0 J0.5
X-162.5 Y-175.388 Z-0.498 I0 J-0.5
X-162.5 Y-174.388 Z-0.52 I0 J0.5
X-162.5 Y-175.388 Z-0.542 I0 J-0.5
X-162.5 Y-174.388 Z-0.564 I0 J0.5
X-162.5 Y-175.388 Z-0.585 I0 J-0.5
X-162.5 Y-174.388 Z-0.607 I0 J0.5
X-162.5 Y-175.388 Z-0.629 I0 J-0.5
X-162.5 Y-174.388 Z-0.651 I0 J0.5
X-162.5 Y-175.388 Z-0.673 I0 J-0.5
X-162.5 Y-174.388 Z-0.695 I0 J0.5
X-162.5 Y-175.388 Z-0.716 I0 J-0.5
X-162.5 Y-174.388 Z-0.738 I0 J0.5
X-162.5 Y-175.388 Z-0.76 I0 J-0.5
X-162.5 Y-174.388 Z-0.782 I0 J0.5
X-162.5 Y-175.388 Z-0.804 I0 J-0.5
X-162.5 Y-174.388 Z-0.825 I0 J0.5
X-162.5 Y-175.388 Z-0.847 I0 J-0.5
X-162.5 Y-174.388 Z-0.869 I0 J0.5
X-162.5 Y-175.388 Z-0.891 I0 J-0.5
X-162.5 Y-174.388 Z-0.913 I0 J0.5
X-162.5 Y-175.388 Z-0.935 I0 J-0.5
X-162.5 Y-174.388 Z-0.956 I0 J0.5
X-162.5 Y-175.388 Z-0.978 I0 J-0.5
X-162.5 Y-174.388 Z-1 I0 J0.5
X-162.5 Y-175.388 Z-1.022 I0 J-0.5
X-162.5 Y-174.388 Z-1.044 I0 J0.5
X-162.5 Y-175.388 Z-1.065 I0 J-0.5
X-162.5 Y-174.388 Z-1.087 I0 J0.5
X-162.5 Y-175.388 Z-1.109 I0 J-0.5
X-162.5 Y-174.388 Z-1.131 I0 J0.5
X-162.5 Y-175.388 Z-1.153 I0 J-0.5
X-162.5 Y-174.388 Z-1.175 I0 J0.5
X-162.5 Y-175.388 Z-1.196 I0 J-0.5
X-162.5 Y-174.388 Z-1.218 I0 J0.5
X-162.5 Y-175.388 Z-1.24 I0 J-0.5
X-162.5 Y-174.388 Z-1.262 I0 J0.5
X-162.5 Y-175.388 Z-1.284 I0 J-0.5
X-162.5 Y-174.388 Z-1.305 I0 J0.5
X-162.5 Y-175.388 Z-1.327 I0 J-0.5
X-162.5 Y-174.388 Z-1.349 I0 J0.5
X-162.5 Y-175.388 Z-1.371 I0 J-0.5
X-162.5 Y-174.388 Z-1.393 I0 J0.5
X-162.5 Y-175.388 Z-1.415 I0 J-0.5
X-162.5 Y-174.388 Z-1.436 I0 J0.5
X-162.5 Y-175.388 Z-1.458 I0 J-0.5
X-162.5 Y-174.388 Z-1.48 I0 J0.5
X-162.5 Y-175.388 Z-1.502 I0 J-0.5
X-162.5 Y-174.388 Z-1.524 I0 J0.5
X-162.5 Y-175.388 Z-1.546 I0 J-0.5
X-162.5 Y-174.388 Z-1.567 I0 J0.5
X-162.5 Y-175.388 Z-1.589 I0 J-0.5
X-162.5 Y-174.388 Z-1.611 I0 J0.5
X-162.5 Y-175.388 Z-1.633 I0 J-0.5
X-162.5 Y-174.388 Z-1.655 I0 J0.5
X-162.5 Y-175.388 Z-1.676 I0 J-0.5
X-162.5 Y-174.388 Z-1.698 I0 J0.5
X-162.5 Y-175.388 Z-1.72 I0 J-0.5
X-162.5 Y-174.388 Z-1.742 I0 J0.5
X-162.5 Y-175.388 Z-1.764 I0 J-0.5
X-162.5 Y-174.388 Z-1.786 I0 J0.5
X-162.5 Y-175.388 Z-1.807 I0 J-0.5
X-162.5 Y-174.388 Z-1.829 I0 J0.5
X-162.5 Y-175.388 Z-1.851 I0 J-0.5
X-162.5 Y-174.388 Z-1.873 I0 J0.5
X-162.5 Y-175.388 Z-1.895 I0 J-0.5
X-162.5 Y-174.388 Z-1.916 I0 J0.5
X-162.5 Y-175.388 Z-1.938 I0 J-0.5
X-162.5 Y-174.388 Z-1.96 I0 J0.5
X-162.5 Y-175.388 Z-1.982 I0 J-0.5
X-162.5 Y-174.388 Z-2.004 I0 J0.5
X-162.5 Y-175.388 Z-2.026 I0 J-0.5
X-162.5 Y-174.388 Z-2.047 I0 J0.5
X-162.5 Y-175.388 Z-2.069 I0 J-0.5
X-162.5 Y-174.388 Z-2.091 I0 J0.5
X-162.5 Y-175.388 Z-2.113 I0 J-0.5
X-162.5 Y-174.388 Z-2.135 I0 J0.5
X-162.5 Y-175.388 Z-2.156 I0 J-0.5
X-162.5 Y-174.388 Z-2.178 I0 J0.5
X-162.505 Y-175.388 Z-2.2 I0 J-0.5
X-162.495 Y-174.388 I0.005 J0.5
X-162.505 Y-175.388 I-0.005 J-0.5
G1 X-162.459 Y-175.381
X-162.417 Y-175.36
X-162.383 Y-175.327
X-162.361 Y-175.285
X-162.354 Y-175.239
X-162.353 Y-175.164
X-162.352 Y-175.118 Z-2.193
Y-175.076 Z-2.171
Y-175.043 Z-2.138
X-162.351 Y-175.021 Z-2.096
Y-175.014 Z-2.05
G0 Z5
X-137.65 Y-175.013
Z2.2
G1 Z0.35 F400
Y-175.02 Z0.304
Y-175.041 Z0.262
Y-175.074 Z0.229
Y-175.116 Z0.207
Y-175.163 Z0.2
Y-175.238
X-137.643 Y-175.284
X-137.621 Y-175.326
X-137.588 Y-175.359
X-137.546 Y-175.38
X-137.5 Y-175.388
G3 X-137.5 Y-174.388 Z0.178 I0 J0.5 F600
X-137.5 Y-175.388 Z0.156 I0 J-0.5
X-137.5 Y-174.388 Z0.135 I0 J0.5
X-137.5 Y-175.388 Z0.113 I0 J-0.5
X-137.5 Y-174.388 Z0.091 I0 J0.5
X-137.5 Y-175.388 Z0.069 I0 J-0.5
X-137.5 Y-174.388 Z0.047 I0 J0.5
X-137.5 Y-175.388 Z0.025 I0 J-0.5
X-137.5 Y-174.388 Z0.004 I0 J0.5
X-137.5 Y-175.388 Z-0.018 I0 J-0.5
X-137.5 Y-174.388 Z-0.04 I0 J0.5
X-137.5 Y-175.388 Z-0.062 I0 J-0.5
X-137.5 Y-174.388 Z-0.084 I0 J0.5
X-137.5 Y-175.388 Z-0.105 I0 J-0.5
X-137.5 Y-174.388 Z-0.127 I0 J0.5
X-137.5 Y-175.388 Z-0.149 I0 J-0.5
X-137.5 Y-174.388 Z-0.171 I0 J0.5
X-137.5 Y-175.388 Z-0.193 I0 J-0.5
X-137.5 Y-174.388 Z-0.215 I0 J0.5
X-137.5 Y-175.388 Z-0.236 I0 J-0.5
X-137.5 Y-174.388 Z-0.258 I0 J0.5
X-137.5 Y-175.388 Z-0.28 I0 J-0.5
X-137.5 Y-174.388 Z-0.302 I0 J0.5
X-137.5 Y-175.388 Z-0.324 I0 J-0.5
X-137.5 Y-174.388 Z-0.345 I0 J0.5
X-137.5 Y-175.388 Z-0.367 I0 J-0.5
X-137.5 Y-174.388 Z-0.389 I0 J0.5
X-137.5 Y-175.388 Z-0.411 I0 J-0.5
X-137.5 Y-174.388 Z-0.433 I0 J0.5
X-137.5 Y-175.388 Z-0.455 I0 J-0.5
X-137.5 Y-174.388 Z-0.476 I0 J0.5
X-137.5 Y-175.388 Z-0.498 I0 J-0.5
X-137.5 Y-174.388 Z-0.52 I0 J0.5
X-137.5 Y-175.388 Z-0.542 I0 J-0.5
X-137.5 Y-174.388 Z-0.564 I0 J0.5
X-137.5 Y-175.388 Z-0.585 I0 J-0.5
X-137.5 Y-174.388 Z-0.607 I0 J0.5
X-137.5 Y-175.388 Z-0.629 I0 J-0.5
X-137.5 Y-174.388 Z-0.651 I0 J0.5
X-137.5 Y-175.388 Z-0.673 I0 J-0.5
X-137.5 Y-174.388 Z-0.695 I0 J0.5
X-137.5 Y-175.388 Z-0.716 I0 J-0.5
X-137.5 Y-174.388 Z-0.738 I0 J0.5
X-137.5 Y-175.388 Z-0.76 I0 J-0.5
X-137.5 Y-174.388 Z-0.782 I0 J0.5
X-137.5 Y-175.388 Z-0.804 I0 J-0.5
X-137.5 Y-174.388 Z-0.825 I0 J0.5
X-137.5 Y-175.388 Z-0.847 I0 J-0.5
X-137.5 Y-174.388 Z-0.869 I0 J0.5
X-137.5 Y-175.388 Z-0.891 I0 J-0.5
X-137.5 Y-174.388 Z-0.913 I0 J0.5
X-137.5 Y-175.388 Z-0.935 I0 J-0.5
X-137.5 Y-174.388 Z-0.956 I0 J0.5
X-137.5 Y-175.388 Z-0.978 I0 J-0.5
X-137.5 Y-174.388 Z-1 I0 J0.5
X-137.5 Y-175.388 Z-1.022 I0 J-0.5
X-137.5 Y-174.388 Z-1.044 I0 J0.5
X-137.5 Y-175.388 Z-1.065 I0 J-0.5
X-137.5 Y-174.388 Z-1.087 I0 J0.5
X-137.5 Y-175.388 Z-1.109 I0 J-0.5
X-137.5 Y-174.388 Z-1.131 I0 J0.5
X-137.5 Y-175.388 Z-1.153 I0 J-0.5
X-137.5 Y-174.388 Z-1.175 I0 J0.5
X-137.5 Y-175.388 Z-1.196 I0 J-0.5
X-137.5 Y-174.388 Z-1.218 I0 J0.5
X-137.5 Y-175.388 Z-1.24 I0 J-0.5
X-137.5 Y-174.388 Z-1.262 I0 J0.5
X-137.5 Y-175.388 Z-1.284 I0 J-0.5
X-137.5 Y-174.388 Z-1.305 I0 J0.5
X-137.5 Y-175.388 Z-1.327 I0 J-0.5
X-137.5 Y-174.388 Z-1.349 I0 J0.5
X-137.5 Y-175.388 Z-1.371 I0 J-0.5
X-137.5 Y-174.388 Z-1.393 I0 J0.5
X-137.5 Y-175.388 Z-1.415 I0 J-0.5
X-137.5 Y-174.388 Z-1.436 I0 J0.5
X-137.5 Y-175.388 Z-1.458 I0 J-0.5
X-137.5 Y-174.388 Z-1.48 I0 J0.5
X-137.5 Y-175.388 Z-1.502 I0 J-0.5
X-137.5 Y-174.388 Z-1.524 I0 J0.5
X-137.5 Y-175.388 Z-1.546 I0 J-0.5
X-137.5 Y-174.388 Z-1.567 I0 J0.5
X-137.5 Y-175.388 Z-1.589 I0 J-0.5
X-137.5 Y-174.388 Z-1.611 I0 J0.5
X-137.5 Y-175.388 Z-1.633 I0 J-0.5
X-137.5 Y-174.388 Z-1.655 I0 J0.5
X-137.5 Y-175.388 Z-1.676 I0 J-0.5
X-137.5 Y-174.388 Z-1.698 I0 J0.5
X-137.5 Y-175.388 Z-1.72 I0 J-0.5
X-137.5 Y-174.388 Z-1.742 I0 J0.5
X-137.5 Y-175.388 Z-1.764 I0 J-0.5
X-137.5 Y-174.388 Z-1.786 I0 J0.5
X-137.5 Y-175.388 Z-1.807 I0 J-0.5
X-137.5 Y-174.388 Z-1.829 I0 J0.5
X-137.5 Y-175.388 Z-1.851 I0 J-0.5
X-137.5 Y-174.388 Z-1.873 I0 J0.5
X-137.5 Y-175.388 Z-1.895 I0 J-0.5
X-137.5 Y-174.388 Z-1.916 I0 J0.5
X-137.5 Y-175.388 Z-1.938 I0 J-0.5
X-137.5 Y-174.388 Z-1.96 I0 J0.5
X-137.5 Y-175.388 Z-1.982 I0 J-0.5
X-137.5 Y-174.388 Z-2.004 I0 J0.5
X-137.5 Y-175.388 Z-2.026 I0 J-0.5
X-137.5 Y-174.388 Z-2.047 I0 J0.5
X-137.5 Y-175.388 Z-2.069 I0 J-0.5
X-137.5 Y-174.388 Z-2.091 I0 J0.5
X-137.5 Y-175.388 Z-2.113 I0 J-0.5
X-137.5 Y-174.388 Z-2.135 I0 J0.5
X-137.5 Y-175.388 Z-2.156 I0 J-0.5
X-137.5 Y-174.388 Z-2.178 I0 J0.5
X-137.505 Y-175.388 Z-2.2 I0 J-0.5
X-137.495 Y-174.388 I0.005 J0.5
X-137.505 Y-175.388 I-0.005 J-0.5
G1 X-137.459 Y-175.381
X-137.417 Y-175.36
X-137.383 Y-175.327
X-137.361 Y-175.285
X-137.354 Y-175.239
X-137.353 Y-175.164
X-137.352 Y-175.118 Z-2.193
Y-175.076 Z-2.171
Y-175.043 Z-2.138
X-137.351 Y-175.021 Z-2.096
Y-175.014 Z-2.05
G0 Z5
X-148.375 Y-74.987
Z2.2
G1 Z0.35 F400
Y-74.98 Z0.304
Y-74.959 Z0.262
Y-74.926 Z0.229
Y-74.884 Z0.207
Y-74.837 Z0.2
Y-74.762
X-148.382 Y-74.716
X-148.403 Y-74.674
X-148.437 Y-74.641
X-148.478 Y-74.62
X-148.525 Y-74.612
G3 X-148.525 Y-75.612 Z0.178 I0 J-0.5 F600
X-148.525 Y-74.612 Z0.156 I0 J0.5
X-148.525 Y-75.612 Z0.135 I0 J-0.5
X-148.525 Y-74.612 Z0.113 I0 J0.5
X-148.525 Y-75.612 Z0.091 I0 J-0.5
X-148.525 Y-74.612 Z0.069 I0 J0.5
X-148.525 Y-75.612 Z0.047 I0 J-0.5
X-148.525 Y-74.612 Z0.025 I0 J0.5
X-148.525 Y-75.612 Z0.004 I0 J-0.5
X-148.525 Y-74.612 Z-0.018 I0 J0.5
X-148.525 Y-75.612 Z-0.04 I0 J-0.5
X-148.525 Y-74.612 Z-0.062 I0 J0.5
X-148.525 Y-75.612 Z-0.084 I0 J-0.5
X-148.525 Y-74.612 Z-0.105 I0 J0.5
X-148.525 Y-75.612 Z-0.127 I0 J-0.5
X-148.525 Y-74.612 Z-0.149 I0 J0.5
X-148.525 Y-75.612 Z-0.171 I0 J-0.5
X-148.525 Y-74.612 Z-0.193 I0 J0.5
X-148.525 Y-75.612 Z-0.215 I0 J-0.5
X-148.525 Y-74.612 Z-0.236 I0 J0.5
X-148.525 Y-75.612 Z-0.258 I0 J-0.5
X-148.525 Y-74.612 Z-0.28 I0 J0.5
X-148.525 Y-75.612 Z-0.302 I0 J-0.5
X-148.525 Y-74.612 Z-0.324 I0 J0.5
X-148.525 Y-75.612 Z-0.345 I0 J-0.5
X-148.525 Y-74.612 Z-0.367 I0 J0.5
X-148.525 Y-75.612 Z-0.389 I0 J-0.5
X-148.525 Y-74.612 Z-0.411 I0 J0.5
X-148.525 Y-75.612 Z-0.433 I0 J-0.5
X-148.525 Y-74.612 Z-0.455 I0 J0.5
X-148.525 Y-75.612 Z-0.476 I0 J-0.5
X-148.525 Y-74.612 Z-0.498 I0 J0.5
X-148.525 Y-75.612 Z-0.52 I0 J-0.5
X-148.525 Y-74.612 Z-0.542 I0 J0.5
X-148.525 Y-75.612 Z-0.564 I0 J-0.5
X-148.525 Y-74.612 Z-0.585 I0 J0.5
X-148.525 Y-75.612 Z-0.607 I0 J-0.5
X-148.525 Y-74.612 Z-0.629 I0 J0.5
X-148.525 Y-75.612 Z-0.651 I0 J-0.5
X-148.525 Y-74.612 Z-0.673 I0 J0.5
X-148.525 Y-75.612 Z-0.695 I0 J-0.5
X-148.525 Y-74.612 Z-0.716 I0 J0.5
X-148.525 Y-75.612 Z-0.738 I0 J-0.5
X-148.525 Y-74.612 Z-0.76 I0 J0.5
X-148.525 Y-75.612 Z-0.782 I0 J-0.5
X-148.525 Y-74.612 Z-0.804 I0 J0.5
X-148.525 Y-75.612 Z-0.825 I0 J-0.5
X-148.525 Y-74.612 Z-0.847 I0 J0.5
X-148.525 Y-75.612 Z-0.869 I0 J-0.5
X-148.525 Y-74.612 Z-0.891 I0 J0.5
X-148.525 Y-75.612 Z-0.913 I0 J-0.5
X-148.525 Y-74.612 Z-0.935 I0 J0.5
X-148.525 Y-75.612 Z-0.956 I0 J-0.5
X-148.525 Y-74.612 Z-0.978 I0 J0.5
X-148.525 Y-75.612 Z-1 I0 J-0.5
X-148.525 Y-74.612 Z-1.022 I0 J0.5
X-148.525 Y-75.612 Z-1.044 I0 J-0.5
X-148.525 Y-74.612 Z-1.065 I0 J0.5
X-148.525 Y-75.612 Z-1.087 I0 J-0.5
X-148.525 Y-74.612 Z-1.109 I0 J0.5
X-148.525 Y-75.612 Z-1.131 I0 J-0.5
X-148.525 Y-74.612 Z-1.153 I0 J0.5
X-148.525 Y-75.612 Z-1.175 I0 J-0.5
X-148.525 Y-74.612 Z-1.196 I0 J0.5
X-148.525 Y-75.612 Z-1.218 I0 J-0.5
X-148.525 Y-74.612 Z-1.24 I0 J0.5
X-148.525 Y-75.612 Z-1.262 I0 J-0.5
X-148.525 Y-74.612 Z-1.284 I0 J0.5
X-148.525 Y-75.612 Z-1.305 I0 J-0.5
X-148.525 Y-74.612 Z-1.327 I0 J0.5
X-148.525 Y-75.612 Z-1.349 I0 J-0.5
X-148.525 Y-74.612 Z-1.371 I0 J0.5
X-148.525 Y-75.612 Z-1.393 I0 J-0.5
X-148.525 Y-74.612 Z-1.415 I0 J0.5
X-148.525 Y-75.612 Z-1.436 I0 J-0.5
X-148.525 Y-74.612 Z-1.458 I0 J0.5
X-148.525 Y-75.612 Z-1.48 I0 J-0.5
X-148.525 Y-74.612 Z-1.502 I0 J0.5
X-148.525 Y-75.612 Z-1.524 I0 J-0.5
X-148.525 Y-74.612 Z-1.546 I0 J0.5
X-148.525 Y-75.612 Z-1.567 I0 J-0.5
X-148.525 Y-74.612 Z-1.589 I0 J0.5
X-148.525 Y-75.612 Z-1.611 I0 J-0.5
X-148.525 Y-74.612 Z-1.633 I0 J0.5
X-148.525 Y-75.612 Z-1.655 I0 J-0.5
X-148.525 Y-74.612 Z-1.676 I0 J0.5
X-148.525 Y-75.612 Z-1.698 I0 J-0.5
X-148.525 Y-74.612 Z-1.72 I0 J0.5
X-148.525 Y-75.612 Z-1.742 I0 J-0.5
X-148.525 Y-74.612 Z-1.764 I0 J0.5
X-148.525 Y-75.612 Z-1.786 I0 J-0.5
X-148.525 Y-74.612 Z-1.807 I0 J0.5
X-148.525 Y-75.612 Z-1.829 I0 J-0.5
X-148.525 Y-74.612 Z-1.851 I0 J0.5
X-148.525 Y-75.612 Z-1.873 I0 J-0.5
X-148.525 Y-74.612 Z-1.895 I0 J0.5
X-148.525 Y-75.612 Z-1.916 I0 J-0.5
X-148.525 Y-74.612 Z-1.938 I0 J0.5
X-148.525 Y-75.612 Z-1.96 I0 J-0.5
X-148.525 Y-74.612 Z-1.982 I0 J0.5
X-148.525 Y-75.612 Z-2.004 I0 J-0.5
X-148.525 Y-74.612 Z-2.026 I0 J0.5
X-148.525 Y-75.612 Z-2.047 I0 J-0.5
X-148.525 Y-74.612 Z-2.069 I0 J0.5
X-148.525 Y-75.612 Z-2.091 I0 J-0.5
X-148.525 Y-74.612 Z-2.113 I0 J0.5
X-148.525 Y-75.612 Z-2.135 I0 J-0.5
X-148.525 Y-74.612 Z-2.156 I0 J0.5
X-148.525 Y-75.612 Z-2.178 I0 J-0.5
X-148.52 Y-74.612 Z-2.2 I0 J0.5
X-148.53 Y-75.612 I-0.005 J-0.5
X-148.52 Y-74.612 I0.005 J0.5
G1 X-148.566 Y-74.619
X-148.608 Y-74.64
X-148.642 Y-74.673
X-148.663 Y-74.715
X-148.671 Y-74.761
X-148.672 Y-74.836
Y-74.882 Z-2.193
X-148.673 Y-74.924 Z-2.171
Y-74.957 Z-2.138
Y-74.979 Z-2.096
X-148.674 Y-74.986 Z-2.05
G0 Z5
X-173.375 Y-74.987
Z2.2
G1 Z0.35 F400
Y-74.98 Z0.304
Y-74.959 Z0.262
Y-74.926 Z0.229
Y-74.884 Z0.207
Y-74.837 Z0.2
Y-74.762
X-173.382 Y-74.716
X-173.403 Y-74.674
X-173.437 Y-74.641
X-173.478 Y-74.62
X-173.525 Y-74.612
G3 X-173.525 Y-75.612 Z0.178 I0 J-0.5 F600
X-173.525 Y-74.612 Z0.156 I0 J0.5
X-173.525 Y-75.612 Z0.135 I0 J-0.5
X-173.525 Y-74.612 Z0.113 I0 J0.5
X-173.525 Y-75.612 Z0.091 I0 J-0.5
X-173.525 Y-74.612 Z0.069 I0 J0.5
X-173.525 Y-75.612 Z0.047 I0 J-0.5
X-173.525 Y-74.612 Z0.025 I0 J0.5
X-173.525 Y-75.612 Z0.004 I0 J-0.5
X-173.525 Y-74.612 Z-0.018 I0 J0.5
X-173.525 Y-75.612 Z-0.04 I0 J-0.5
X-173.525 Y-74.612 Z-0.062 I0 J0.5
X-173.525 Y-75.612 Z-0.084 I0 J-0.5
X-173.525 Y-74.612 Z-0.105 I0 J0.5
X-173.525 Y-75.612 Z-0.127 I0 J-0.5
X-173.525 Y-74.612 Z-0.149 I0 J0.5
X-173.525 Y-75.612 Z-0.171 I0 J-0.5
X-173.525 Y-74.612 Z-0.193 I0 J0.5
X-173.525 Y-75.612 Z-0.215 I0 J-0.5
X-173.525 Y-74.612 Z-0.236 I0 J0.5
X-173.525 Y-75.612 Z-0.258 I0 J-0.5
X-173.525 Y-74.612 Z-0.28 I0 J0.5
X-173.525 Y-75.612 Z-0.302 I0 J-0.5
X-173.525 Y-74.612 Z-0.324 I0 J0.5
X-173.525 Y-75.612 Z-0.345 I0 J-0.5
X-173.525 Y-74.612 Z-0.367 I0 J0.5
X-173.525 Y-75.612 Z-0.389 I0 J-0.5
X-173.525 Y-74.612 Z-0.411 I0 J0.5
X-173.525 Y-75.612 Z-0.433 I0 J-0.5
X-173.525 Y-74.612 Z-0.455 I0 J0.5
X-173.525 Y-75.612 Z-0.476 I0 J-0.5
X-173.525 Y-74.612 Z-0.498 I0 J0.5
X-173.525 Y-75.612 Z-0.52 I0 J-0.5
X-173.525 Y-74.612 Z-0.542 I0 J0.5
X-173.525 Y-75.612 Z-0.564 I0 J-0.5
X-173.525 Y-74.612 Z-0.585 I0 J0.5
X-173.525 Y-75.612 Z-0.607 I0 J-0.5
X-173.525 Y-74.612 Z-0.629 I0 J0.5
X-173.525 Y-75.612 Z-0.651 I0 J-0.5
X-173.525 Y-74.612 Z-0.673 I0 J0.5
X-173.525 Y-75.612 Z-0.695 I0 J-0.5
X-173.525 Y-74.612 Z-0.716 I0 J0.5
X-173.525 Y-75.612 Z-0.738 I0 J-0.5
X-173.525 Y-74.612 Z-0.76 I0 J0.5
X-173.525 Y-75.612 Z-0.782 I0 J-0.5
X-173.525 Y-74.612 Z-0.804 I0 J0.5
X-173.525 Y-75.612 Z-0.825 I0 J-0.5
X-173.525 Y-74.612 Z-0.847 I0 J0.5
X-173.525 Y-75.612 Z-0.869 I0 J-0.5
X-173.525 Y-74.612 Z-0.891 I0 J0.5
X-173.525 Y-75.612 Z-0.913 I0 J-0.5
X-173.525 Y-74.612 Z-0.935 I0 J0.5
X-173.525 Y-75.612 Z-0.956 I0 J-0.5
X-173.525 Y-74.612 Z-0.978 I0 J0.5
X-173.525 Y-75.612 Z-1 I0 J-0.5
X-173.525 Y-74.612 Z-1.022 I0 J0.5
X-173.525 Y-75.612 Z-1.044 I0 J-0.5
X-173.525 Y-74.612 Z-1.065 I0 J0.5
X-173.525 Y-75.612 Z-1.087 I0 J-0.5
X-173.525 Y-74.612 Z-1.109 I0 J0.5
X-173.525 Y-75.612 Z-1.131 I0 J-0.5
X-173.525 Y-74.612 Z-1.153 I0 J0.5
X-173.525 Y-75.612 Z-1.175 I0 J-0.5
X-173.525 Y-74.612 Z-1.196 I0 J0.5
X-173.525 Y-75.612 Z-1.218 I0 J-0.5
X-173.525 Y-74.612 Z-1.24 I0 J0.5
X-173.525 Y-75.612 Z-1.262 I0 J-0.5
X-173.525 Y-74.612 Z-1.284 I0 J0.5
X-173.525 Y-75.612 Z-1.305 I0 J-0.5
X-173.525 Y-74.612 Z-1.327 I0 J0.5
X-173.525 Y-75.612 Z-1.349 I0 J-0.5
X-173.525 Y-74.612 Z-1.371 I0 J0.5
X-173.525 Y-75.612 Z-1.393 I0 J-0.5
X-173.525 Y-74.612 Z-1.415 I0 J0.5
X-173.525 Y-75.612 Z-1.436 I0 J-0.5
X-173.525 Y-74.612 Z-1.458 I0 J0.5
X-173.525 Y-75.612 Z-1.48 I0 J-0.5
X-173.525 Y-74.612 Z-1.502 I0 J0.5
X-173.525 Y-75.612 Z-1.524 I0 J-0.5
X-173.525 Y-74.612 Z-1.546 I0 J0.5
X-173.525 Y-75.612 Z-1.567 I0 J-0.5
X-173.525 Y-74.612 Z-1.589 I0 J0.5
X-173.525 Y-75.612 Z-1.611 I0 J-0.5
X-173.525 Y-74.612 Z-1.633 I0 J0.5
X-173.525 Y-75.612 Z-1.655 I0 J-0.5
X-173.525 Y-74.612 Z-1.676 I0 J0.5
X-173.525 Y-75.612 Z-1.698 I0 J-0.5
X-173.525 Y-74.612 Z-1.72 I0 J0.5
X-173.525 Y-75.612 Z-1.742 I0 J-0.5
X-173.525 Y-74.612 Z-1.764 I0 J0.5
X-173.525 Y-75.612 Z-1.786 I0 J-0.5
X-173.525 Y-74.612 Z-1.807 I0 J0.5
X-173.525 Y-75.612 Z-1.829 I0 J-0.5
X-173.525 Y-74.612 Z-1.851 I0 J0.5
X-173.525 Y-75.612 Z-1.873 I0 J-0.5
X-173.525 Y-74.612 Z-1.895 I0 J0.5
X-173.525 Y-75.612 Z-1.916 I0 J-0.5
X-173.525 Y-74.612 Z-1.938 I0 J0.5
X-173.525 Y-75.612 Z-1.96 I0 J-0.5
X-173.525 Y-74.612 Z-1.982 I0 J0.5
X-173.525 Y-75.612 Z-2.004 I0 J-0.5
X-173.525 Y-74.612 Z-2.026 I0 J0.5
X-173.525 Y-75.612 Z-2.047 I0 J-0.5
X-173.525 Y-74.612 Z-2.069 I0 J0.5
X-173.525 Y-75.612 Z-2.091 I0 J-0.5
X-173.525 Y-74.612 Z-2.113 I0 J0.5
X-173.525 Y-75.612 Z-2.135 I0 J-0.5
X-173.525 Y-74.612 Z-2.156 I0 J0.5
X-173.525 Y-75.612 Z-2.178 I0 J-0.5
X-173.52 Y-74.612 Z-2.2 I0 J0.5
X-173.53 Y-75.612 I-0.005 J-0.5
X-173.52 Y-74.612 I0.005 J0.5
G1 X-173.566 Y-74.619
X-173.608 Y-74.64
X-173.642 Y-74.673
X-173.663 Y-74.715
X-173.671 Y-74.761
X-173.672 Y-74.836
Y-74.882 Z-2.193
X-173.673 Y-74.924 Z-2.171
Y-74.957 Z-2.138
Y-74.979 Z-2.096
X-173.674 Y-74.986 Z-2.05
G0 Z5
X-173.375 Y-49.987
Z2.2
G1 Z0.35 F400
Y-49.98 Z0.304
Y-49.959 Z0.262
Y-49.926 Z0.229
Y-49.884 Z0.207
Y-49.837 Z0.2
Y-49.762
X-173.382 Y-49.716
X-173.403 Y-49.674
X-173.437 Y-49.641
X-173.478 Y-49.62
X-173.525 Y-49.612
G3 X-173.525 Y-50.612 Z0.178 I0 J-0.5 F600
X-173.525 Y-49.612 Z0.156 I0 J0.5
X-173.525 Y-50.612 Z0.135 I0 J-0.5
X-173.525 Y-49.612 Z0.113 I0 J0.5
X-173.525 Y-50.612 Z0.091 I0 J-0.5
X-173.525 Y-49.612 Z0.069 I0 J0.5
X-173.525 Y-50.612 Z0.047 I0 J-0.5
X-173.525 Y-49.612 Z0.025 I0 J0.5
X-173.525 Y-50.612 Z0.004 I0 J-0.5
X-173.525 Y-49.612 Z-0.018 I0 J0.5
X-173.525 Y-50.612 Z-0.04 I0 J-0.5
X-173.525 Y-49.612 Z-0.062 I0 J0.5
X-173.525 Y-50.612 Z-0.084 I0 J-0.5
X-173.525 Y-49.612 Z-0.105 I0 J0.5
X-173.525 Y-50.612 Z-0.127 I0 J-0.5
X-173.525 Y-49.612 Z-0.149 I0 J0.5
X-173.525 Y-50.612 Z-0.171 I0 J-0.5
X-173.525 Y-49.612 Z-0.193 I0 J0.5
X-173.525 Y-50.612 Z-0.215 I0 J-0.5
X-173.525 Y-49.612 Z-0.236 I0 J0.5
X-173.525 Y-50.612 Z-0.258 I0 J-0.5
X-173.525 Y-49.612 Z-0.28 I0 J0.5
X-173.525 Y-50.612 Z-0.302 I0 J-0.5
X-173.525 Y-49.612 Z-0.324 I0 J0.5
X-173.525 Y-50.612 Z-0.345 I0 J-0.5
X-173.525 Y-49.612 Z-0.367 I0 J0.5
X-173.525 Y-50.612 Z-0.389 I0 J-0.5
X-173.525 Y-49.612 Z-0.411 I0 J0.5
X-173.525 Y-50.612 Z-0.433 I0 J-0.5
X-173.525 Y-49.612 Z-0.455 I0 J0.5
X-173.525 Y-50.612 Z-0.476 I0 J-0.5
X-173.525 Y-49.612 Z-0.498 I0 J0.5
X-173.525 Y-50.612 Z-0.52 I0 J-0.5
X-173.525 Y-49.612 Z-0.542 I0 J0.5
X-173.525 Y-50.612 Z-0.564 I0 J-0.5
X-173.525 Y-49.612 Z-0.585 I0 J0.5
X-173.525 Y-50.612 Z-0.607 I0 J-0.5
X-173.525 Y-49.612 Z-0.629 I0 J0.5
X-173.525 Y-50.612 Z-0.651 I0 J-0.5
X-173.525 Y-49.612 Z-0.673 I0 J0.5
X-173.525 Y-50.612 Z-0.695 I0 J-0.5
X-173.525 Y-49.612 Z-0.716 I0 J0.5
X-173.525 Y-50.612 Z-0.738 I0 J-0.5
X-173.525 Y-49.612 Z-0.76 I0 J0.5
X-173.525 Y-50.612 Z-0.782 I0 J-0.5
X-173.525 Y-49.612 Z-0.804 I0 J0.5
X-173.525 Y-50.612 Z-0.825 I0 J-0.5
X-173.525 Y-49.612 Z-0.847 I0 J0.5
X-173.525 Y-50.612 Z-0.869 I0 J-0.5
X-173.525 Y-49.612 Z-0.891 I0 J0.5
X-173.525 Y-50.612 Z-0.913 I0 J-0.5
X-173.525 Y-49.612 Z-0.935 I0 J0.5
X-173.525 Y-50.612 Z-0.956 I0 J-0.5
X-173.525 Y-49.612 Z-0.978 I0 J0.5
X-173.525 Y-50.612 Z-1 I0 J-0.5
X-173.525 Y-49.612 Z-1.022 I0 J0.5
X-173.525 Y-50.612 Z-1.044 I0 J-0.5
X-173.525 Y-49.612 Z-1.065 I0 J0.5
X-173.525 Y-50.612 Z-1.087 I0 J-0.5
X-173.525 Y-49.612 Z-1.109 I0 J0.5
X-173.525 Y-50.612 Z-1.131 I0 J-0.5
X-173.525 Y-49.612 Z-1.153 I0 J0.5
X-173.525 Y-50.612 Z-1.175 I0 J-0.5
X-173.525 Y-49.612 Z-1.196 I0 J0.5
X-173.525 Y-50.612 Z-1.218 I0 J-0.5
X-173.525 Y-49.612 Z-1.24 I0 J0.5
X-173.525 Y-50.612 Z-1.262 I0 J-0.5
X-173.525 Y-49.612 Z-1.284 I0 J0.5
X-173.525 Y-50.612 Z-1.305 I0 J-0.5
X-173.525 Y-49.612 Z-1.327 I0 J0.5
X-173.525 Y-50.612 Z-1.349 I0 J-0.5
X-173.525 Y-49.612 Z-1.371 I0 J0.5
X-173.525 Y-50.612 Z-1.393 I0 J-0.5
X-173.525 Y-49.612 Z-1.415 I0 J0.5
X-173.525 Y-50.612 Z-1.436 I0 J-0.5
X-173.525 Y-49.612 Z-1.458 I0 J0.5
X-173.525 Y-50.612 Z-1.48 I0 J-0.5
X-173.525 Y-49.612 Z-1.502 I0 J0.5
X-173.525 Y-50.612 Z-1.524 I0 J-0.5
X-173.525 Y-49.612 Z-1.546 I0 J0.5
X-173.525 Y-50.612 Z-1.567 I0 J-0.5
X-173.525 Y-49.612 Z-1.589 I0 J0.5
X-173.525 Y-50.612 Z-1.611 I0 J-0.5
X-173.525 Y-49.612 Z-1.633 I0 J0.5
X-173.525 Y-50.612 Z-1.655 I0 J-0.5
X-173.525 Y-49.612 Z-1.676 I0 J0.5
X-173.525 Y-50.612 Z-1.698 I0 J-0.5
X-173.525 Y-49.612 Z-1.72 I0 J0.5
X-173.525 Y-50.612 Z-1.742 I0 J-0.5
X-173.525 Y-49.612 Z-1.764 I0 J0.5
X-173.525 Y-50.612 Z-1.786 I0 J-0.5
X-173.525 Y-49.612 Z-1.807 I0 J0.5
X-173.525 Y-50.612 Z-1.829 I0 J-0.5
X-173.525 Y-49.612 Z-1.851 I0 J0.5
X-173.525 Y-50.612 Z-1.873 I0 J-0.5
X-173.525 Y-49.612 Z-1.895 I0 J0.5
X-173.525 Y-50.612 Z-1.916 I0 J-0.5
X-173.525 Y-49.612 Z-1.938 I0 J0.5
X-173.525 Y-50.612 Z-1.96 I0 J-0.5
X-173.525 Y-49.612 Z-1.982 I0 J0.5
X-173.525 Y-50.612 Z-2.004 I0 J-0.5
X-173.525 Y-49.612 Z-2.026 I0 J0.5
X-173.525 Y-50.612 Z-2.047 I0 J-0.5
X-173.525 Y-49.612 Z-2.069 I0 J0.5
X-173.525 Y-50.612 Z-2.091 I0 J-0.5
X-173.525 Y-49.612 Z-2.113 I0 J0.5
X-173.525 Y-50.612 Z-2.135 I0 J-0.5
X-173.525 Y-49.612 Z-2.156 I0 J0.5
X-173.525 Y-50.612 Z-2.178 I0 J-0.5
X-173.52 Y-49.612 Z-2.2 I0 J0.5
X-173.53 Y-50.612 I-0.005 J-0.5
X-173.52 Y-49.612 I0.005 J0.5
G1 X-173.566 Y-49.619
X-173.608 Y-49.64
X-173.642 Y-49.673
X-173.663 Y-49.715
X-173.671 Y-49.761
X-173.672 Y-49.836
Y-49.882 Z-2.193
X-173.673 Y-49.924 Z-2.171
Y-49.957 Z-2.138
Y-49.979 Z-2.096
X-173.674 Y-49.986 Z-2.05
G0 Z5
X-148.375 Y-49.987
Z2.2
G1 Z0.35 F400
Y-49.98 Z0.304
Y-49.959 Z0.262
Y-49.926 Z0.229
Y-49.884 Z0.207
Y-49.837 Z0.2
Y-49.762
X-148.382 Y-49.716
X-148.403 Y-49.674
X-148.437 Y-49.641
X-148.478 Y-49.62
X-148.525 Y-49.612
G3 X-148.525 Y-50.612 Z0.178 I0 J-0.5 F600
X-148.525 Y-49.612 Z0.156 I0 J0.5
X-148.525 Y-50.612 Z0.135 I0 J-0.5
X-148.525 Y-49.612 Z0.113 I0 J0.5
X-148.525 Y-50.612 Z0.091 I0 J-0.5
X-148.525 Y-49.612 Z0.069 I0 J0.5
X-148.525 Y-50.612 Z0.047 I0 J-0.5
X-148.525 Y-49.612 Z0.025 I0 J0.5
X-148.525 Y-50.612 Z0.004 I0 J-0.5
X-148.525 Y-49.612 Z-0.018 I0 J0.5
X-148.525 Y-50.612 Z-0.04 I0 J-0.5
X-148.525 Y-49.612 Z-0.062 I0 J0.5
X-148.525 Y-50.612 Z-0.084 I0 J-0.5
X-148.525 Y-49.612 Z-0.105 I0 J0.5
X-148.525 Y-50.612 Z-0.127 I0 J-0.5
X-148.525 Y-49.612 Z-0.149 I0 J0.5
X-148.525 Y-50.612 Z-0.171 I0 J-0.5
X-148.525 Y-49.612 Z-0.193 I0 J0.5
X-148.525 Y-50.612 Z-0.215 I0 J-0.5
X-148.525 Y-49.612 Z-0.236 I0 J0.5
X-148.525 Y-50.612 Z-0.258 I0 J-0.5
X-148.525 Y-49.612 Z-0.28 I0 J0.5
X-148.525 Y-50.612 Z-0.302 I0 J-0.5
X-148.525 Y-49.612 Z-0.324 I0 J0.5
X-148.525 Y-50.612 Z-0.345 I0 J-0.5
X-148.525 Y-49.612 Z-0.367 I0 J0.5
X-148.525 Y-50.612 Z-0.389 I0 J-0.5
X-148.525 Y-49.612 Z-0.411 I0 J0.5
X-148.525 Y-50.612 Z-0.433 I0 J-0.5
X-148.525 Y-49.612 Z-0.455 I0 J0.5
X-148.525 Y-50.612 Z-0.476 I0 J-0.5
X-148.525 Y-49.612 Z-0.498 I0 J0.5
X-148.525 Y-50.612 Z-0.52 I0 J-0.5
X-148.525 Y-49.612 Z-0.542 I0 J0.5
X-148.525 Y-50.612 Z-0.564 I0 J-0.5
X-148.525 Y-49.612 Z-0.585 I0 J0.5
X-148.525 Y-50.612 Z-0.607 I0 J-0.5
X-148.525 Y-49.612 Z-0.629 I0 J0.5
X-148.525 Y-50.612 Z-0.651 I0 J-0.5
X-148.525 Y-49.612 Z-0.673 I0 J0.5
X-148.525 Y-50.612 Z-0.695 I0 J-0.5
X-148.525 Y-49.612 Z-0.716 I0 J0.5
X-148.525 Y-50.612 Z-0.738 I0 J-0.5
X-148.525 Y-49.612 Z-0.76 I0 J0.5
X-148.525 Y-50.612 Z-0.782 I0 J-0.5
X-148.525 Y-49.612 Z-0.804 I0 J0.5
X-148.525 Y-50.612 Z-0.825 I0 J-0.5
X-148.525 Y-49.612 Z-0.847 I0 J0.5
X-148.525 Y-50.612 Z-0.869 I0 J-0.5
X-148.525 Y-49.612 Z-0.891 I0 J0.5
X-148.525 Y-50.612 Z-0.913 I0 J-0.5
X-148.525 Y-49.612 Z-0.935 I0 J0.5
X-148.525 Y-50.612 Z-0.956 I0 J-0.5
X-148.525 Y-49.612 Z-0.978 I0 J0.5
X-148.525 Y-50.612 Z-1 I0 J-0.5
X-148.525 Y-49.612 Z-1.022 I0 J0.5
X-148.525 Y-50.612 Z-1.044 I0 J-0.5
X-148.525 Y-49.612 Z-1.065 I0 J0.5
X-148.525 Y-50.612 Z-1.087 I0 J-0.5
X-148.525 Y-49.612 Z-1.109 I0 J0.5
X-148.525 Y-50.612 Z-1.131 I0 J-0.5
X-148.525 Y-49.612 Z-1.153 I0 J0.5
X-148.525 Y-50.612 Z-1.175 I0 J-0.5
X-148.525 Y-49.612 Z-1.196 I0 J0.5
X-148.525 Y-50.612 Z-1.218 I0 J-0.5
X-148.525 Y-49.612 Z-1.24 I0 J0.5
X-148.525 Y-50.612 Z-1.262 I0 J-0.5
X-148.525 Y-49.612 Z-1.284 I0 J0.5
X-148.525 Y-50.612 Z-1.305 I0 J-0.5
X-148.525 Y-49.612 Z-1.327 I0 J0.5
X-148.525 Y-50.612 Z-1.349 I0 J-0.5
X-148.525 Y-49.612 Z-1.371 I0 J0.5
X-148.525 Y-50.612 Z-1.393 I0 J-0.5
X-148.525 Y-49.612 Z-1.415 I0 J0.5
X-148.525 Y-50.612 Z-1.436 I0 J-0.5
X-148.525 Y-49.612 Z-1.458 I0 J0.5
X-148.525 Y-50.612 Z-1.48 I0 J-0.5
X-148.525 Y-49.612 Z-1.502 I0 J0.5
X-148.525 Y-50.612 Z-1.524 I0 J-0.5
X-148.525 Y-49.612 Z-1.546 I0 J0.5
X-148.525 Y-50.612 Z-1.567 I0 J-0.5
X-148.525 Y-49.612 Z-1.589 I0 J0.5
X-148.525 Y-50.612 Z-1.611 I0 J-0.5
X-148.525 Y-49.612 Z-1.633 I0 J0.5
X-148.525 Y-50.612 Z-1.655 I0 J-0.5
X-148.525 Y-49.612 Z-1.676 I0 J0.5
X-148.525 Y-50.612 Z-1.698 I0 J-0.5
X-148.525 Y-49.612 Z-1.72 I0 J0.5
X-148.525 Y-50.612 Z-1.742 I0 J-0.5
X-148.525 Y-49.612 Z-1.764 I0 J0.5
X-148.525 Y-50.612 Z-1.786 I0 J-0.5
X-148.525 Y-49.612 Z-1.807 I0 J0.5
X-148.525 Y-50.612 Z-1.829 I0 J-0.5
X-148.525 Y-49.612 Z-1.851 I0 J0.5
X-148.525 Y-50.612 Z-1.873 I0 J-0.5
X-148.525 Y-49.612 Z-1.895 I0 J0.5
X-148.525 Y-50.612 Z-1.916 I0 J-0.5
X-148.525 Y-49.612 Z-1.938 I0 J0.5
X-148.525 Y-50.612 Z-1.96 I0 J-0.5
X-148.525 Y-49.612 Z-1.982 I0 J0.5
X-148.525 Y-50.612 Z-2.004 I0 J-0.5
X-148.525 Y-49.612 Z-2.026 I0 J0.5
X-148.525 Y-50.612 Z-2.047 I0 J-0.5
X-148.525 Y-49.612 Z-2.069 I0 J0.5
X-148.525 Y-50.612 Z-2.091 I0 J-0.5
X-148.525 Y-49.612 Z-2.113 I0 J0.5
X-148.525 Y-50.612 Z-2.135 I0 J-0.5
X-148.525 Y-49.612 Z-2.156 I0 J0.5
X-148.525 Y-50.612 Z-2.178 I0 J-0.5
X-148.52 Y-49.612 Z-2.2 I0 J0.5
X-148.53 Y-50.612 I-0.005 J-0.5
X-148.52 Y-49.612 I0.005 J0.5
G1 X-148.566 Y-49.619
X-148.608 Y-49.64
X-148.642 Y-49.673
X-148.663 Y-49.715
X-148.671 Y-49.761
X-148.672 Y-49.836
Y-49.882 Z-2.193
X-148.673 Y-49.924 Z-2.171
Y-49.957 Z-2.138
Y-49.979 Z-2.096
X-148.674 Y-49.986 Z-2.05
G0 Z15

(Bohrfrasen3 2)
X-284.15 Y-207.013
Z15
Z2.2
G1 Z0.35 F400
Y-207.02 Z0.304
Y-207.041 Z0.262
Y-207.074 Z0.229
Y-207.116 Z0.207
Y-207.163 Z0.2
Y-207.238
X-284.143 Y-207.284
X-284.121 Y-207.326
X-284.088 Y-207.359
X-284.046 Y-207.38
X-284 Y-207.388
G3 X-284 Y-205.388 Z0.169 I0 J1 F600
X-284 Y-207.388 Z0.139 I0 J-1
X-284 Y-205.388 Z0.108 I0 J1
X-284 Y-207.388 Z0.078 I0 J-1
X-284 Y-205.388 Z0.047 I0 J1
X-284 Y-207.388 Z0.017 I0 J-1
X-284 Y-205.388 Z-0.014 I0 J1
X-284 Y-207.388 Z-0.044 I0 J-1
X-284 Y-205.388 Z-0.075 I0 J1
X-284 Y-207.388 Z-0.105 I0 J-1
X-284 Y-205.388 Z-0.136 I0 J1
X-284 Y-207.388 Z-0.167 I0 J-1
X-284 Y-205.388 Z-0.197 I0 J1
X-284 Y-207.388 Z-0.228 I0 J-1
X-284 Y-205.388 Z-0.258 I0 J1
X-284 Y-207.388 Z-0.289 I0 J-1
X-284 Y-205.388 Z-0.319 I0 J1
X-284 Y-207.388 Z-0.35 I0 J-1
X-284 Y-205.388 Z-0.38 I0 J1
X-284 Y-207.388 Z-0.411 I0 J-1
X-284 Y-205.388 Z-0.441 I0 J1
X-284 Y-207.388 Z-0.472 I0 J-1
X-284 Y-205.388 Z-0.503 I0 J1
X-284 Y-207.388 Z-0.533 I0 J-1
X-284 Y-205.388 Z-0.564 I0 J1
X-284 Y-207.388 Z-0.594 I0 J-1
X-284 Y-205.388 Z-0.625 I0 J1
X-284 Y-207.388 Z-0.655 I0 J-1
X-284 Y-205.388 Z-0.686 I0 J1
X-284 Y-207.388 Z-0.716 I0 J-1
X-284 Y-205.388 Z-0.747 I0 J1
X-284 Y-207.388 Z-0.777 I0 J-1
X-284 Y-205.388 Z-0.808 I0 J1
X-284 Y-207.388 Z-0.839 I0 J-1
X-284 Y-205.388 Z-0.869 I0 J1
X-284 Y-207.388 Z-0.9 I0 J-1
X-284 Y-205.388 Z-0.93 I0 J1
X-284 Y-207.388 Z-0.961 I0 J-1
X-284 Y-205.388 Z-0.991 I0 J1
X-284 Y-207.388 Z-1.022 I0 J-1
X-284 Y-205.388 Z-1.052 I0 J1
X-284 Y-207.388 Z-1.083 I0 J-1
X-284 Y-205.388 Z-1.113 I0 J1
X-284 Y-207.388 Z-1.144 I0 J-1
X-284 Y-205.388 Z-1.175 I0 J1
X-284 Y-207.388 Z-1.205 I0 J-1
X-284 Y-205.388 Z-1.236 I0 J1
X-284 Y-207.388 Z-1.266 I0 J-1
X-284 Y-205.388 Z-1.297 I0 J1
X-284 Y-207.388 Z-1.327 I0 J-1
X-284 Y-205.388 Z-1.358 I0 J1
X-284 Y-207.388 Z-1.388 I0 J-1
X-284 Y-205.388 Z-1.419 I0 J1
X-284 Y-207.388 Z-1.45 I0 J-1
X-284 Y-205.388 Z-1.48 I0 J1
X-284 Y-207.388 Z-1.511 I0 J-1
X-284 Y-205.388 Z-1.541 I0 J1
X-284 Y-207.388 Z-1.572 I0 J-1
X-284 Y-205.388 Z-1.602 I0 J1
X-284 Y-207.388 Z-1.633 I0 J-1
X-284 Y-205.388 Z-1.663 I0 J1
X-284 Y-207.388 Z-1.694 I0 J-1
X-284 Y-205.388 Z-1.724 I0 J1
X-284 Y-207.388 Z-1.755 I0 J-1
X-284 Y-205.388 Z-1.786 I0 J1
X-284 Y-207.388 Z-1.816 I0 J-1
X-284 Y-205.388 Z-1.847 I0 J1
X-284 Y-207.388 Z-1.877 I0 J-1
X-284 Y-205.388 Z-1.908 I0 J1
X-284 Y-207.388 Z-1.938 I0 J-1
X-284 Y-205.388 Z-1.969 I0 J1
X-284 Y-207.388 Z-1.999 I0 J-1
X-284 Y-205.388 Z-2.03 I0 J1
X-284 Y-207.388 Z-2.06 I0 J-1
X-284 Y-205.388 Z-2.091 I0 J1
X-284 Y-207.388 Z-2.122 I0 J-1
X-284 Y-205.388 Z-2.152 I0 J1
X-284 Y-207.388 Z-2.183 I0 J-1
X-283.023 Y-206.172 Z-2.2 I0 J1
X-284.977 Y-206.603 I-0.977 J-0.215
X-283.023 Y-206.172 I0.977 J0.215
G1 X-283.041 Y-206.129
X-283.07 Y-206.092
X-283.11 Y-206.067
X-283.155 Y-206.055
X-283.202 Y-206.058
X-283.275 Y-206.074
X-283.321 Y-206.084 Z-2.193
X-283.362 Y-206.093 Z-2.171
X-283.394 Y-206.1 Z-2.138
X-283.415 Y-206.105 Z-2.096
X-283.422 Y-206.107 Z-2.05
G0 Z5
X-284.15 Y-169.013
Z2.2
G1 Z0.35 F400
Y-169.02 Z0.304
Y-169.041 Z0.262
Y-169.074 Z0.229
Y-169.116 Z0.207
Y-169.163 Z0.2
Y-169.238
X-284.143 Y-169.284
X-284.121 Y-169.326
X-284.088 Y-169.359
X-284.046 Y-169.38
X-284 Y-169.388
G3 X-284 Y-167.388 Z0.169 I0 J1 F600
X-284 Y-169.388 Z0.139 I0 J-1
X-284 Y-167.388 Z0.108 I0 J1
X-284 Y-169.388 Z0.078 I0 J-1
X-284 Y-167.388 Z0.047 I0 J1
X-284 Y-169.388 Z0.017 I0 J-1
X-284 Y-167.388 Z-0.014 I0 J1
X-284 Y-169.388 Z-0.044 I0 J-1
X-284 Y-167.388 Z-0.075 I0 J1
X-284 Y-169.388 Z-0.105 I0 J-1
X-284 Y-167.388 Z-0.136 I0 J1
X-284 Y-169.388 Z-0.167 I0 J-1
X-284 Y-167.388 Z-0.197 I0 J1
X-284 Y-169.388 Z-0.228 I0 J-1
X-284 Y-167.388 Z-0.258 I0 J1
X-284 Y-169.388 Z-0.289 I0 J-1
X-284 Y-167.388 Z-0.319 I0 J1
X-284 Y-169.388 Z-0.35 I0 J-1
X-284 Y-167.388 Z-0.38 I0 J1
X-284 Y-169.388 Z-0.411 I0 J-1
X-284 Y-167.388 Z-0.441 I0 J1
X-284 Y-169.388 Z-0.472 I0 J-1
X-284 Y-167.388 Z-0.503 I0 J1
X-284 Y-169.388 Z-0.533 I0 J-1
X-284 Y-167.388 Z-0.564 I0 J1
X-284 Y-169.388 Z-0.594 I0 J-1
X-284 Y-167.388 Z-0.625 I0 J1
X-284 Y-169.388 Z-0.655 I0 J-1
X-284 Y-167.388 Z-0.686 I0 J1
X-284 Y-169.388 Z-0.716 I0 J-1
X-284 Y-167.388 Z-0.747 I0 J1
X-284 Y-169.388 Z-0.777 I0 J-1
X-284 Y-167.388 Z-0.808 I0 J1
X-284 Y-169.388 Z-0.839 I0 J-1
X-284 Y-167.388 Z-0.869 I0 J1
X-284 Y-169.388 Z-0.9 I0 J-1
X-284 Y-167.388 Z-0.93 I0 J1
X-284 Y-169.388 Z-0.961 I0 J-1
X-284 Y-167.388 Z-0.991 I0 J1
X-284 Y-169.388 Z-1.022 I0 J-1
X-284 Y-167.388 Z-1.052 I0 J1
X-284 Y-169.388 Z-1.083 I0 J-1
X-284 Y-167.388 Z-1.113 I0 J1
X-284 Y-169.388 Z-1.144 I0 J-1
X-284 Y-167.388 Z-1.175 I0 J1
X-284 Y-169.388 Z-1.205 I0 J-1
X-284 Y-167.388 Z-1.236 I0 J1
X-284 Y-169.388 Z-1.266 I0 J-1
X-284 Y-167.388 Z-1.297 I0 J1
X-284 Y-169.388 Z-1.327 I0 J-1
X-284 Y-167.388 Z-1.358 I0 J1
X-284 Y-169.388 Z-1.388 I0 J-1
X-284 Y-167.388 Z-1.419 I0 J1
X-284 Y-169.388 Z-1.45 I0 J-1
X-284 Y-167.388 Z-1.48 I0 J1
X-284 Y-169.388 Z-1.511 I0 J-1
X-284 Y-167.388 Z-1.541 I0 J1
X-284 Y-169.388 Z-1.572 I0 J-1
X-284 Y-167.388 Z-1.602 I0 J1
X-284 Y-169.388 Z-1.633 I0 J-1
X-284 Y-167.388 Z-1.663 I0 J1
X-284 Y-169.388 Z-1.694 I0 J-1
X-284 Y-167.388 Z-1.724 I0 J1
X-284 Y-169.388 Z-1.755 I0 J-1
X-284 Y-167.388 Z-1.786 I0 J1
X-284 Y-169.388 Z-1.816 I0 J-1
X-284 Y-167.388 Z-1.847 I0 J1
X-284 Y-169.388 Z-1.877 I0 J-1
X-284 Y-167.388 Z-1.908 I0 J1
X-284 Y-169.388 Z-1.938 I0 J-1
X-284 Y-167.388 Z-1.969 I0 J1
X-284 Y-169.388 Z-1.999 I0 J-1
X-284 Y-167.388 Z-2.03 I0 J1
X-284 Y-169.388 Z-2.06 I0 J-1
X-284 Y-167.388 Z-2.091 I0 J1
X-284 Y-169.388 Z-2.122 I0 J-1
X-284 Y-167.388 Z-2.152 I0 J1
X-284 Y-169.388 Z-2.183 I0 J-1
X-283.023 Y-168.172 Z-2.2 I0 J1
X-284.977 Y-168.603 I-0.977 J-0.215
X-283.023 Y-168.172 I0.977 J0.215
G1 X-283.041 Y-168.129
X-283.07 Y-168.092
X-283.11 Y-168.067
X-283.155 Y-168.055
X-283.202 Y-168.058
X-283.275 Y-168.074
X-283.321 Y-168.084 Z-2.193
X-283.362 Y-168.093 Z-2.171
X-283.394 Y-168.1 Z-2.138
X-283.415 Y-168.105 Z-2.096
X-283.422 Y-168.107 Z-2.05
G0 Z5
X-255.875 Y-96.987
Z2.2
G1 Z0.35 F400
Y-96.98 Z0.304
Y-96.959 Z0.262
Y-96.926 Z0.229
Y-96.884 Z0.207
Y-96.837 Z0.2
Y-96.762
X-255.882 Y-96.716
X-255.903 Y-96.674
X-255.937 Y-96.641
X-255.978 Y-96.62
X-256.025 Y-96.612
G3 X-256.025 Y-98.612 Z0.169 I0 J-1 F600
X-256.025 Y-96.612 Z0.139 I0 J1
X-256.025 Y-98.612 Z0.108 I0 J-1
X-256.025 Y-96.612 Z0.078 I0 J1
X-256.025 Y-98.612 Z0.047 I0 J-1
X-256.025 Y-96.612 Z0.017 I0 J1
X-256.025 Y-98.612 Z-0.014 I0 J-1
X-256.025 Y-96.612 Z-0.044 I0 J1
X-256.025 Y-98.612 Z-0.075 I0 J-1
X-256.025 Y-96.612 Z-0.105 I0 J1
X-256.025 Y-98.612 Z-0.136 I0 J-1
X-256.025 Y-96.612 Z-0.167 I0 J1
X-256.025 Y-98.612 Z-0.197 I0 J-1
X-256.025 Y-96.612 Z-0.228 I0 J1
X-256.025 Y-98.612 Z-0.258 I0 J-1
X-256.025 Y-96.612 Z-0.289 I0 J1
X-256.025 Y-98.612 Z-0.319 I0 J-1
X-256.025 Y-96.612 Z-0.35 I0 J1
X-256.025 Y-98.612 Z-0.38 I0 J-1
X-256.025 Y-96.612 Z-0.411 I0 J1
X-256.025 Y-98.612 Z-0.441 I0 J-1
X-256.025 Y-96.612 Z-0.472 I0 J1
X-256.025 Y-98.612 Z-0.503 I0 J-1
X-256.025 Y-96.612 Z-0.533 I0 J1
X-256.025 Y-98.612 Z-0.564 I0 J-1
X-256.025 Y-96.612 Z-0.594 I0 J1
X-256.025 Y-98.612 Z-0.625 I0 J-1
X-256.025 Y-96.612 Z-0.655 I0 J1
X-256.025 Y-98.612 Z-0.686 I0 J-1
X-256.025 Y-96.612 Z-0.716 I0 J1
X-256.025 Y-98.612 Z-0.747 I0 J-1
X-256.025 Y-96.612 Z-0.777 I0 J1
X-256.025 Y-98.612 Z-0.808 I0 J-1
X-256.025 Y-96.612 Z-0.839 I0 J1
X-256.025 Y-98.612 Z-0.869 I0 J-1
X-256.025 Y-96.612 Z-0.9 I0 J1
X-256.025 Y-98.612 Z-0.93 I0 J-1
X-256.025 Y-96.612 Z-0.961 I0 J1
X-256.025 Y-98.612 Z-0.991 I0 J-1
X-256.025 Y-96.612 Z-1.022 I0 J1
X-256.025 Y-98.612 Z-1.052 I0 J-1
X-256.025 Y-96.612 Z-1.083 I0 J1
X-256.025 Y-98.612 Z-1.113 I0 J-1
X-256.025 Y-96.612 Z-1.144 I0 J1
X-256.025 Y-98.612 Z-1.175 I0 J-1
X-256.025 Y-96.612 Z-1.205 I0 J1
X-256.025 Y-98.612 Z-1.236 I0 J-1
X-256.025 Y-96.612 Z-1.266 I0 J1
X-256.025 Y-98.612 Z-1.297 I0 J-1
X-256.025 Y-96.612 Z-1.327 I0 J1
X-256.025 Y-98.612 Z-1.358 I0 J-1
X-256.025 Y-96.612 Z-1.388 I0 J1
X-256.025 Y-98.612 Z-1.419 I0 J-1
X-256.025 Y-96.612 Z-1.45 I0 J1
X-256.025 Y-98.612 Z-1.48 I0 J-1
X-256.025 Y-96.612 Z-1.511 I0 J1
X-256.025 Y-98.612 Z-1.541 I0 J-1
X-256.025 Y-96.612 Z-1.572 I0 J1
X-256.025 Y-98.612 Z-1.602 I0 J-1
X-256.025 Y-96.612 Z-1.633 I0 J1
X-256.025 Y-98.612 Z-1.663 I0 J-1
X-256.025 Y-96.612 Z-1.694 I0 J1
X-256.025 Y-98.612 Z-1.724 I0 J-1
X-256.025 Y-96.612 Z-1.755 I0 J1
X-256.025 Y-98.612 Z-1.786 I0 J-1
X-256.025 Y-96.612 Z-1.816 I0 J1
X-256.025 Y-98.612 Z-1.847 I0 J-1
X-256.025 Y-96.612 Z-1.877 I0 J1
X-256.025 Y-98.612 Z-1.908 I0 J-1
X-256.025 Y-96.612 Z-1.938 I0 J1
X-256.025 Y-98.612 Z-1.969 I0 J-1
X-256.025 Y-96.612 Z-1.999 I0 J1
X-256.025 Y-98.612 Z-2.03 I0 J-1
X-256.025 Y-96.612 Z-2.06 I0 J1
X-256.025 Y-98.612 Z-2.091 I0 J-1
X-256.025 Y-96.612 Z-2.122 I0 J1
X-256.025 Y-98.612 Z-2.152 I0 J-1
X-256.025 Y-96.612 Z-2.183 I0 J1
X-257.001 Y-97.828 Z-2.2 I0 J-1
X-255.048 Y-97.397 I0.977 J0.215
X-257.001 Y-97.828 I-0.977 J-0.215
G1 X-256.984 Y-97.871
X-256.954 Y-97.908
X-256.915 Y-97.933
X-256.869 Y-97.945
X-256.823 Y-97.942
X-256.749 Y-97.926
X-256.704 Y-97.916 Z-2.193
X-256.663 Y-97.907 Z-2.171
X-256.631 Y-97.9 Z-2.138
X-256.61 Y-97.895 Z-2.096
X-256.603 Y-97.893 Z-2.05
G0 Z5
X-280.875 Y-91.987
Z2.2
G1 Z0.35 F400
Y-91.98 Z0.304
Y-91.959 Z0.262
Y-91.926 Z0.229
Y-91.884 Z0.207
Y-91.837 Z0.2
Y-91.762
X-280.882 Y-91.716
X-280.903 Y-91.674
X-280.937 Y-91.641
X-280.978 Y-91.62
X-281.025 Y-91.612
G3 X-281.025 Y-93.612 Z0.169 I0 J-1 F600
X-281.025 Y-91.612 Z0.139 I0 J1
X-281.025 Y-93.612 Z0.108 I0 J-1
X-281.025 Y-91.612 Z0.078 I0 J1
X-281.025 Y-93.612 Z0.047 I0 J-1
X-281.025 Y-91.612 Z0.017 I0 J1
X-281.025 Y-93.612 Z-0.014 I0 J-1
X-281.025 Y-91.612 Z-0.044 I0 J1
X-281.025 Y-93.612 Z-0.075 I0 J-1
X-281.025 Y-91.612 Z-0.105 I0 J1
X-281.025 Y-93.612 Z-0.136 I0 J-1
X-281.025 Y-91.612 Z-0.167 I0 J1
X-281.025 Y-93.612 Z-0.197 I0 J-1
X-281.025 Y-91.612 Z-0.228 I0 J1
X-281.025 Y-93.612 Z-0.258 I0 J-1
X-281.025 Y-91.612 Z-0.289 I0 J1
X-281.025 Y-93.612 Z-0.319 I0 J-1
X-281.025 Y-91.612 Z-0.35 I0 J1
X-281.025 Y-93.612 Z-0.38 I0 J-1
X-281.025 Y-91.612 Z-0.411 I0 J1
X-281.025 Y-93.612 Z-0.441 I0 J-1
X-281.025 Y-91.612 Z-0.472 I0 J1
X-281.025 Y-93.612 Z-0.503 I0 J-1
X-281.025 Y-91.612 Z-0.533 I0 J1
X-281.025 Y-93.612 Z-0.564 I0 J-1
X-281.025 Y-91.612 Z-0.594 I0 J1
X-281.025 Y-93.612 Z-0.625 I0 J-1
X-281.025 Y-91.612 Z-0.655 I0 J1
X-281.025 Y-93.612 Z-0.686 I0 J-1
X-281.025 Y-91.612 Z-0.716 I0 J1
X-281.025 Y-93.612 Z-0.747 I0 J-1
X-281.025 Y-91.612 Z-0.777 I0 J1
X-281.025 Y-93.612 Z-0.808 I0 J-1
X-281.025 Y-91.612 Z-0.839 I0 J1
X-281.025 Y-93.612 Z-0.869 I0 J-1
X-281.025 Y-91.612 Z-0.9 I0 J1
X-281.025 Y-93.612 Z-0.93 I0 J-1
X-281.025 Y-91.612 Z-0.961 I0 J1
X-281.025 Y-93.612 Z-0.991 I0 J-1
X-281.025 Y-91.612 Z-1.022 I0 J1
X-281.025 Y-93.612 Z-1.052 I0 J-1
X-281.025 Y-91.612 Z-1.083 I0 J1
X-281.025 Y-93.612 Z-1.113 I0 J-1
X-281.025 Y-91.612 Z-1.144 I0 J1
X-281.025 Y-93.612 Z-1.175 I0 J-1
X-281.025 Y-91.612 Z-1.205 I0 J1
X-281.025 Y-93.612 Z-1.236 I0 J-1
X-281.025 Y-91.612 Z-1.266 I0 J1
X-281.025 Y-93.612 Z-1.297 I0 J-1
X-281.025 Y-91.612 Z-1.327 I0 J1
X-281.025 Y-93.612 Z-1.358 I0 J-1
X-281.025 Y-91.612 Z-1.388 I0 J1
X-281.025 Y-93.612 Z-1.419 I0 J-1
X-281.025 Y-91.612 Z-1.45 I0 J1
X-281.025 Y-93.612 Z-1.48 I0 J-1
X-281.025 Y-91.612 Z-1.511 I0 J1
X-281.025 Y-93.612 Z-1.541 I0 J-1
X-281.025 Y-91.612 Z-1.572 I0 J1
X-281.025 Y-93.612 Z-1.602 I0 J-1
X-281.025 Y-91.612 Z-1.633 I0 J1
X-281.025 Y-93.612 Z-1.663 I0 J-1
X-281.025 Y-91.612 Z-1.694 I0 J1
X-281.025 Y-93.612 Z-1.724 I0 J-1
X-281.025 Y-91.612 Z-1.755 I0 J1
X-281.025 Y-93.612 Z-1.786 I0 J-1
X-281.025 Y-91.612 Z-1.816 I0 J1
X-281.025 Y-93.612 Z-1.847 I0 J-1
X-281.025 Y-91.612 Z-1.877 I0 J1
X-281.025 Y-93.612 Z-1.908 I0 J-1
X-281.025 Y-91.612 Z-1.938 I0 J1
X-281.025 Y-93.612 Z-1.969 I0 J-1
X-281.025 Y-91.612 Z-1.999 I0 J1
X-281.025 Y-93.612 Z-2.03 I0 J-1
X-281.025 Y-91.612 Z-2.06 I0 J1
X-281.025 Y-93.612 Z-2.091 I0 J-1
X-281.025 Y-91.612 Z-2.122 I0 J1
X-281.025 Y-93.612 Z-2.152 I0 J-1
X-281.025 Y-91.612 Z-2.183 I0 J1
X-282.001 Y-92.828 Z-2.2 I0 J-1
X-280.048 Y-92.397 I0.977 J0.215
X-282.001 Y-92.828 I-0.977 J-0.215
G1 X-281.984 Y-92.871
X-281.954 Y-92.908
X-281.915 Y-92.933
X-281.869 Y-92.945
X-281.823 Y-92.942
X-281.749 Y-92.926
X-281.704 Y-92.916 Z-2.193
X-281.663 Y-92.907 Z-2.171
X-281.631 Y-92.9 Z-2.138
X-281.61 Y-92.895 Z-2.096
X-281.603 Y-92.893 Z-2.05
G0 Z5
X-280.875 Y-31.987
Z2.2
G1 Z0.35 F400
Y-31.98 Z0.304
Y-31.959 Z0.262
Y-31.926 Z0.229
Y-31.884 Z0.207
Y-31.837 Z0.2
Y-31.762
X-280.882 Y-31.716
X-280.903 Y-31.674
X-280.937 Y-31.641
X-280.978 Y-31.62
X-281.025 Y-31.612
G3 X-281.025 Y-33.612 Z0.169 I0 J-1 F600
X-281.025 Y-31.612 Z0.139 I0 J1
X-281.025 Y-33.612 Z0.108 I0 J-1
X-281.025 Y-31.612 Z0.078 I0 J1
X-281.025 Y-33.612 Z0.047 I0 J-1
X-281.025 Y-31.612 Z0.017 I0 J1
X-281.025 Y-33.612 Z-0.014 I0 J-1
X-281.025 Y-31.612 Z-0.044 I0 J1
X-281.025 Y-33.612 Z-0.075 I0 J-1
X-281.025 Y-31.612 Z-0.105 I0 J1
X-281.025 Y-33.612 Z-0.136 I0 J-1
X-281.025 Y-31.612 Z-0.167 I0 J1
X-281.025 Y-33.612 Z-0.197 I0 J-1
X-281.025 Y-31.612 Z-0.228 I0 J1
X-281.025 Y-33.612 Z-0.258 I0 J-1
X-281.025 Y-31.612 Z-0.289 I0 J1
X-281.025 Y-33.612 Z-0.319 I0 J-1
X-281.025 Y-31.612 Z-0.35 I0 J1
X-281.025 Y-33.612 Z-0.38 I0 J-1
X-281.025 Y-31.612 Z-0.411 I0 J1
X-281.025 Y-33.612 Z-0.441 I0 J-1
X-281.025 Y-31.612 Z-0.472 I0 J1
X-281.025 Y-33.612 Z-0.503 I0 J-1
X-281.025 Y-31.612 Z-0.533 I0 J1
X-281.025 Y-33.612 Z-0.564 I0 J-1
X-281.025 Y-31.612 Z-0.594 I0 J1
X-281.025 Y-33.612 Z-0.625 I0 J-1
X-281.025 Y-31.612 Z-0.655 I0 J1
X-281.025 Y-33.612 Z-0.686 I0 J-1
X-281.025 Y-31.612 Z-0.716 I0 J1
X-281.025 Y-33.612 Z-0.747 I0 J-1
X-281.025 Y-31.612 Z-0.777 I0 J1
X-281.025 Y-33.612 Z-0.808 I0 J-1
X-281.025 Y-31.612 Z-0.839 I0 J1
X-281.025 Y-33.612 Z-0.869 I0 J-1
X-281.025 Y-31.612 Z-0.9 I0 J1
X-281.025 Y-33.612 Z-0.93 I0 J-1
X-281.025 Y-31.612 Z-0.961 I0 J1
X-281.025 Y-33.612 Z-0.991 I0 J-1
X-281.025 Y-31.612 Z-1.022 I0 J1
X-281.025 Y-33.612 Z-1.052 I0 J-1
X-281.025 Y-31.612 Z-1.083 I0 J1
X-281.025 Y-33.612 Z-1.113 I0 J-1
X-281.025 Y-31.612 Z-1.144 I0 J1
X-281.025 Y-33.612 Z-1.175 I0 J-1
X-281.025 Y-31.612 Z-1.205 I0 J1
X-281.025 Y-33.612 Z-1.236 I0 J-1
X-281.025 Y-31.612 Z-1.266 I0 J1
X-281.025 Y-33.612 Z-1.297 I0 J-1
X-281.025 Y-31.612 Z-1.327 I0 J1
X-281.025 Y-33.612 Z-1.358 I0 J-1
X-281.025 Y-31.612 Z-1.388 I0 J1
X-281.025 Y-33.612 Z-1.419 I0 J-1
X-281.025 Y-31.612 Z-1.45 I0 J1
X-281.025 Y-33.612 Z-1.48 I0 J-1
X-281.025 Y-31.612 Z-1.511 I0 J1
X-281.025 Y-33.612 Z-1.541 I0 J-1
X-281.025 Y-31.612 Z-1.572 I0 J1
X-281.025 Y-33.612 Z-1.602 I0 J-1
X-281.025 Y-31.612 Z-1.633 I0 J1
X-281.025 Y-33.612 Z-1.663 I0 J-1
X-281.025 Y-31.612 Z-1.694 I0 J1
X-281.025 Y-33.612 Z-1.724 I0 J-1
X-281.025 Y-31.612 Z-1.755 I0 J1
X-281.025 Y-33.612 Z-1.786 I0 J-1
X-281.025 Y-31.612 Z-1.816 I0 J1
X-281.025 Y-33.612 Z-1.847 I0 J-1
X-281.025 Y-31.612 Z-1.877 I0 J1
X-281.025 Y-33.612 Z-1.908 I0 J-1
X-281.025 Y-31.612 Z-1.938 I0 J1
X-281.025 Y-33.612 Z-1.969 I0 J-1
X-281.025 Y-31.612 Z-1.999 I0 J1
X-281.025 Y-33.612 Z-2.03 I0 J-1
X-281.025 Y-31.612 Z-2.06 I0 J1
X-281.025 Y-33.612 Z-2.091 I0 J-1
X-281.025 Y-31.612 Z-2.122 I0 J1
X-281.025 Y-33.612 Z-2.152 I0 J-1
X-281.025 Y-31.612 Z-2.183 I0 J1
X-282.001 Y-32.828 Z-2.2 I0 J-1
X-280.048 Y-32.397 I0.977 J0.215
X-282.001 Y-32.828 I-0.977 J-0.215
G1 X-281.984 Y-32.871
X-281.954 Y-32.908
X-281.915 Y-32.933
X-281.869 Y-32.945
X-281.823 Y-32.942
X-281.749 Y-32.926
X-281.704 Y-32.916 Z-2.193
X-281.663 Y-32.907 Z-2.171
X-281.631 Y-32.9 Z-2.138
X-281.61 Y-32.895 Z-2.096
X-281.603 Y-32.893 Z-2.05
G0 Z5
X-255.875 Y-26.987
Z2.2
G1 Z0.35 F400
Y-26.98 Z0.304
Y-26.959 Z0.262
Y-26.926 Z0.229
Y-26.884 Z0.207
Y-26.837 Z0.2
Y-26.762
X-255.882 Y-26.716
X-255.903 Y-26.674
X-255.937 Y-26.641
X-255.978 Y-26.62
X-256.025 Y-26.612
G3 X-256.025 Y-28.612 Z0.169 I0 J-1 F600
X-256.025 Y-26.612 Z0.139 I0 J1
X-256.025 Y-28.612 Z0.108 I0 J-1
X-256.025 Y-26.612 Z0.078 I0 J1
X-256.025 Y-28.612 Z0.047 I0 J-1
X-256.025 Y-26.612 Z0.017 I0 J1
X-256.025 Y-28.612 Z-0.014 I0 J-1
X-256.025 Y-26.612 Z-0.044 I0 J1
X-256.025 Y-28.612 Z-0.075 I0 J-1
X-256.025 Y-26.612 Z-0.105 I0 J1
X-256.025 Y-28.612 Z-0.136 I0 J-1
X-256.025 Y-26.612 Z-0.167 I0 J1
X-256.025 Y-28.612 Z-0.197 I0 J-1
X-256.025 Y-26.612 Z-0.228 I0 J1
X-256.025 Y-28.612 Z-0.258 I0 J-1
X-256.025 Y-26.612 Z-0.289 I0 J1
X-256.025 Y-28.612 Z-0.319 I0 J-1
X-256.025 Y-26.612 Z-0.35 I0 J1
X-256.025 Y-28.612 Z-0.38 I0 J-1
X-256.025 Y-26.612 Z-0.411 I0 J1
X-256.025 Y-28.612 Z-0.441 I0 J-1
X-256.025 Y-26.612 Z-0.472 I0 J1
X-256.025 Y-28.612 Z-0.503 I0 J-1
X-256.025 Y-26.612 Z-0.533 I0 J1
X-256.025 Y-28.612 Z-0.564 I0 J-1
X-256.025 Y-26.612 Z-0.594 I0 J1
X-256.025 Y-28.612 Z-0.625 I0 J-1
X-256.025 Y-26.612 Z-0.655 I0 J1
X-256.025 Y-28.612 Z-0.686 I0 J-1
X-256.025 Y-26.612 Z-0.716 I0 J1
X-256.025 Y-28.612 Z-0.747 I0 J-1
X-256.025 Y-26.612 Z-0.777 I0 J1
X-256.025 Y-28.612 Z-0.808 I0 J-1
X-256.025 Y-26.612 Z-0.839 I0 J1
X-256.025 Y-28.612 Z-0.869 I0 J-1
X-256.025 Y-26.612 Z-0.9 I0 J1
X-256.025 Y-28.612 Z-0.93 I0 J-1
X-256.025 Y-26.612 Z-0.961 I0 J1
X-256.025 Y-28.612 Z-0.991 I0 J-1
X-256.025 Y-26.612 Z-1.022 I0 J1
X-256.025 Y-28.612 Z-1.052 I0 J-1
X-256.025 Y-26.612 Z-1.083 I0 J1
X-256.025 Y-28.612 Z-1.113 I0 J-1
X-256.025 Y-26.612 Z-1.144 I0 J1
X-256.025 Y-28.612 Z-1.175 I0 J-1
X-256.025 Y-26.612 Z-1.205 I0 J1
X-256.025 Y-28.612 Z-1.236 I0 J-1
X-256.025 Y-26.612 Z-1.266 I0 J1
X-256.025 Y-28.612 Z-1.297 I0 J-1
X-256.025 Y-26.612 Z-1.327 I0 J1
X-256.025 Y-28.612 Z-1.358 I0 J-1
X-256.025 Y-26.612 Z-1.388 I0 J1
X-256.025 Y-28.612 Z-1.419 I0 J-1
X-256.025 Y-26.612 Z-1.45 I0 J1
X-256.025 Y-28.612 Z-1.48 I0 J-1
X-256.025 Y-26.612 Z-1.511 I0 J1
X-256.025 Y-28.612 Z-1.541 I0 J-1
X-256.025 Y-26.612 Z-1.572 I0 J1
X-256.025 Y-28.612 Z-1.602 I0 J-1
X-256.025 Y-26.612 Z-1.633 I0 J1
X-256.025 Y-28.612 Z-1.663 I0 J-1
X-256.025 Y-26.612 Z-1.694 I0 J1
X-256.025 Y-28.612 Z-1.724 I0 J-1
X-256.025 Y-26.612 Z-1.755 I0 J1
X-256.025 Y-28.612 Z-1.786 I0 J-1
X-256.025 Y-26.612 Z-1.816 I0 J1
X-256.025 Y-28.612 Z-1.847 I0 J-1
X-256.025 Y-26.612 Z-1.877 I0 J1
X-256.025 Y-28.612 Z-1.908 I0 J-1
X-256.025 Y-26.612 Z-1.938 I0 J1
X-256.025 Y-28.612 Z-1.969 I0 J-1
X-256.025 Y-26.612 Z-1.999 I0 J1
X-256.025 Y-28.612 Z-2.03 I0 J-1
X-256.025 Y-26.612 Z-2.06 I0 J1
X-256.025 Y-28.612 Z-2.091 I0 J-1
X-256.025 Y-26.612 Z-2.122 I0 J1
X-256.025 Y-28.612 Z-2.152 I0 J-1
X-256.025 Y-26.612 Z-2.183 I0 J1
X-257.001 Y-27.828 Z-2.2 I0 J-1
X-255.048 Y-27.397 I0.977 J0.215
X-257.001 Y-27.828 I-0.977 J-0.215
G1 X-256.984 Y-27.871
X-256.954 Y-27.908
X-256.915 Y-27.933
X-256.869 Y-27.945
X-256.823 Y-27.942
X-256.749 Y-27.926
X-256.704 Y-27.916 Z-2.193
X-256.663 Y-27.907 Z-2.171
X-256.631 Y-27.9 Z-2.138
X-256.61 Y-27.895 Z-2.096
X-256.603 Y-27.893 Z-2.05
G0 Z5
X-195.875 Y-11.987
Z2.2
G1 Z0.35 F400
Y-11.98 Z0.304
Y-11.959 Z0.262
Y-11.926 Z0.229
Y-11.884 Z0.207
Y-11.837 Z0.2
Y-11.762
X-195.882 Y-11.716
X-195.903 Y-11.674
X-195.937 Y-11.641
X-195.978 Y-11.62
X-196.025 Y-11.612
G3 X-196.025 Y-13.612 Z0.169 I0 J-1 F600
X-196.025 Y-11.612 Z0.139 I0 J1
X-196.025 Y-13.612 Z0.108 I0 J-1
X-196.025 Y-11.612 Z0.078 I0 J1
X-196.025 Y-13.612 Z0.047 I0 J-1
X-196.025 Y-11.612 Z0.017 I0 J1
X-196.025 Y-13.612 Z-0.014 I0 J-1
X-196.025 Y-11.612 Z-0.044 I0 J1
X-196.025 Y-13.612 Z-0.075 I0 J-1
X-196.025 Y-11.612 Z-0.105 I0 J1
X-196.025 Y-13.612 Z-0.136 I0 J-1
X-196.025 Y-11.612 Z-0.167 I0 J1
X-196.025 Y-13.612 Z-0.197 I0 J-1
X-196.025 Y-11.612 Z-0.228 I0 J1
X-196.025 Y-13.612 Z-0.258 I0 J-1
X-196.025 Y-11.612 Z-0.289 I0 J1
X-196.025 Y-13.612 Z-0.319 I0 J-1
X-196.025 Y-11.612 Z-0.35 I0 J1
X-196.025 Y-13.612 Z-0.38 I0 J-1
X-196.025 Y-11.612 Z-0.411 I0 J1
X-196.025 Y-13.612 Z-0.441 I0 J-1
X-196.025 Y-11.612 Z-0.472 I0 J1
X-196.025 Y-13.612 Z-0.503 I0 J-1
X-196.025 Y-11.612 Z-0.533 I0 J1
X-196.025 Y-13.612 Z-0.564 I0 J-1
X-196.025 Y-11.612 Z-0.594 I0 J1
X-196.025 Y-13.612 Z-0.625 I0 J-1
X-196.025 Y-11.612 Z-0.655 I0 J1
X-196.025 Y-13.612 Z-0.686 I0 J-1
X-196.025 Y-11.612 Z-0.716 I0 J1
X-196.025 Y-13.612 Z-0.747 I0 J-1
X-196.025 Y-11.612 Z-0.777 I0 J1
X-196.025 Y-13.612 Z-0.808 I0 J-1
X-196.025 Y-11.612 Z-0.839 I0 J1
X-196.025 Y-13.612 Z-0.869 I0 J-1
X-196.025 Y-11.612 Z-0.9 I0 J1
X-196.025 Y-13.612 Z-0.93 I0 J-1
X-196.025 Y-11.612 Z-0.961 I0 J1
X-196.025 Y-13.612 Z-0.991 I0 J-1
X-196.025 Y-11.612 Z-1.022 I0 J1
X-196.025 Y-13.612 Z-1.052 I0 J-1
X-196.025 Y-11.612 Z-1.083 I0 J1
X-196.025 Y-13.612 Z-1.113 I0 J-1
X-196.025 Y-11.612 Z-1.144 I0 J1
X-196.025 Y-13.612 Z-1.175 I0 J-1
X-196.025 Y-11.612 Z-1.205 I0 J1
X-196.025 Y-13.612 Z-1.236 I0 J-1
X-196.025 Y-11.612 Z-1.266 I0 J1
X-196.025 Y-13.612 Z-1.297 I0 J-1
X-196.025 Y-11.612 Z-1.327 I0 J1
X-196.025 Y-13.612 Z-1.358 I0 J-1
X-196.025 Y-11.612 Z-1.388 I0 J1
X-196.025 Y-13.612 Z-1.419 I0 J-1
X-196.025 Y-11.612 Z-1.45 I0 J1
X-196.025 Y-13.612 Z-1.48 I0 J-1
X-196.025 Y-11.612 Z-1.511 I0 J1
X-196.025 Y-13.612 Z-1.541 I0 J-1
X-196.025 Y-11.612 Z-1.572 I0 J1
X-196.025 Y-13.612 Z-1.602 I0 J-1
X-196.025 Y-11.612 Z-1.633 I0 J1
X-196.025 Y-13.612 Z-1.663 I0 J-1
X-196.025 Y-11.612 Z-1.694 I0 J1
X-196.025 Y-13.612 Z-1.724 I0 J-1
X-196.025 Y-11.612 Z-1.755 I0 J1
X-196.025 Y-13.612 Z-1.786 I0 J-1
X-196.025 Y-11.612 Z-1.816 I0 J1
X-196.025 Y-13.612 Z-1.847 I0 J-1
X-196.025 Y-11.612 Z-1.877 I0 J1
X-196.025 Y-13.612 Z-1.908 I0 J-1
X-196.025 Y-11.612 Z-1.938 I0 J1
X-196.025 Y-13.612 Z-1.969 I0 J-1
X-196.025 Y-11.612 Z-1.999 I0 J1
X-196.025 Y-13.612 Z-2.03 I0 J-1
X-196.025 Y-11.612 Z-2.06 I0 J1
X-196.025 Y-13.612 Z-2.091 I0 J-1
X-196.025 Y-11.612 Z-2.122 I0 J1
X-196.025 Y-13.612 Z-2.152 I0 J-1
X-196.025 Y-11.612 Z-2.183 I0 J1
X-197.001 Y-12.828 Z-2.2 I0 J-1
X-195.048 Y-12.397 I0.977 J0.215
X-197.001 Y-12.828 I-0.977 J-0.215
G1 X-196.984 Y-12.871
X-196.954 Y-12.908
X-196.915 Y-12.933
X-196.869 Y-12.945
X-196.823 Y-12.942
X-196.749 Y-12.926
X-196.704 Y-12.916 Z-2.193
X-196.663 Y-12.907 Z-2.171
X-196.631 Y-12.9 Z-2.138
X-196.61 Y-12.895 Z-2.096
X-196.603 Y-12.893 Z-2.05
G0 Z5
X-176.566 Y-19.073
Z2.2
G1 Z0.35 F400
Y-19.065 Z0.304
Y-19.044 Z0.262
Y-19.011 Z0.229
Y-18.969 Z0.207
Y-18.923 Z0.2
Y-18.848
X-176.574 Y-18.801
X-176.595 Y-18.76
X-176.628 Y-18.726
X-176.67 Y-18.705
X-176.716 Y-18.698
G3 X-176.716 Y-20.698 Z0.169 I0 J-1 F600
X-176.716 Y-18.698 Z0.139 I0 J1
X-176.716 Y-20.698 Z0.108 I0 J-1
X-176.716 Y-18.698 Z0.078 I0 J1
X-176.716 Y-20.698 Z0.047 I0 J-1
X-176.716 Y-18.698 Z0.017 I0 J1
X-176.716 Y-20.698 Z-0.014 I0 J-1
X-176.716 Y-18.698 Z-0.044 I0 J1
X-176.716 Y-20.698 Z-0.075 I0 J-1
X-176.716 Y-18.698 Z-0.105 I0 J1
X-176.716 Y-20.698 Z-0.136 I0 J-1
X-176.716 Y-18.698 Z-0.167 I0 J1
X-176.716 Y-20.698 Z-0.197 I0 J-1
X-176.716 Y-18.698 Z-0.228 I0 J1
X-176.716 Y-20.698 Z-0.258 I0 J-1
X-176.716 Y-18.698 Z-0.289 I0 J1
X-176.716 Y-20.698 Z-0.319 I0 J-1
X-176.716 Y-18.698 Z-0.35 I0 J1
X-176.716 Y-20.698 Z-0.38 I0 J-1
X-176.716 Y-18.698 Z-0.411 I0 J1
X-176.716 Y-20.698 Z-0.441 I0 J-1
X-176.716 Y-18.698 Z-0.472 I0 J1
X-176.716 Y-20.698 Z-0.503 I0 J-1
X-176.716 Y-18.698 Z-0.533 I0 J1
X-176.716 Y-20.698 Z-0.564 I0 J-1
X-176.716 Y-18.698 Z-0.594 I0 J1
X-176.716 Y-20.698 Z-0.625 I0 J-1
X-176.716 Y-18.698 Z-0.655 I0 J1
X-176.716 Y-20.698 Z-0.686 I0 J-1
X-176.716 Y-18.698 Z-0.716 I0 J1
X-176.716 Y-20.698 Z-0.747 I0 J-1
X-176.716 Y-18.698 Z-0.777 I0 J1
X-176.716 Y-20.698 Z-0.808 I0 J-1
X-176.716 Y-18.698 Z-0.839 I0 J1
X-176.716 Y-20.698 Z-0.869 I0 J-1
X-176.716 Y-18.698 Z-0.9 I0 J1
X-176.716 Y-20.698 Z-0.93 I0 J-1
X-176.716 Y-18.698 Z-0.961 I0 J1
X-176.716 Y-20.698 Z-0.991 I0 J-1
X-176.716 Y-18.698 Z-1.022 I0 J1
X-176.716 Y-20.698 Z-1.052 I0 J-1
X-176.716 Y-18.698 Z-1.083 I0 J1
X-176.716 Y-20.698 Z-1.113 I0 J-1
X-176.716 Y-18.698 Z-1.144 I0 J1
X-176.716 Y-20.698 Z-1.175 I0 J-1
X-176.716 Y-18.698 Z-1.205 I0 J1
X-176.716 Y-20.698 Z-1.236 I0 J-1
X-176.716 Y-18.698 Z-1.266 I0 J1
X-176.716 Y-20.698 Z-1.297 I0 J-1
X-176.716 Y-18.698 Z-1.327 I0 J1
X-176.716 Y-20.698 Z-1.358 I0 J-1
X-176.716 Y-18.698 Z-1.388 I0 J1
X-176.716 Y-20.698 Z-1.419 I0 J-1
X-176.716 Y-18.698 Z-1.45 I0 J1
X-176.716 Y-20.698 Z-1.48 I0 J-1
X-176.716 Y-18.698 Z-1.511 I0 J1
X-176.716 Y-20.698 Z-1.541 I0 J-1
X-176.716 Y-18.698 Z-1.572 I0 J1
X-176.716 Y-20.698 Z-1.602 I0 J-1
X-176.716 Y-18.698 Z-1.633 I0 J1
X-176.716 Y-20.698 Z-1.663 I0 J-1
X-176.716 Y-18.698 Z-1.694 I0 J1
X-176.716 Y-20.698 Z-1.724 I0 J-1
X-176.716 Y-18.698 Z-1.755 I0 J1
X-176.716 Y-20.698 Z-1.786 I0 J-1
X-176.716 Y-18.698 Z-1.816 I0 J1
X-176.716 Y-20.698 Z-1.847 I0 J-1
X-176.716 Y-18.698 Z-1.877 I0 J1
X-176.716 Y-20.698 Z-1.908 I0 J-1
X-176.716 Y-18.698 Z-1.938 I0 J1
X-176.716 Y-20.698 Z-1.969 I0 J-1
X-176.716 Y-18.698 Z-1.999 I0 J1
X-176.716 Y-20.698 Z-2.03 I0 J-1
X-176.716 Y-18.698 Z-2.06 I0 J1
X-176.716 Y-20.698 Z-2.091 I0 J-1
X-176.716 Y-18.698 Z-2.122 I0 J1
X-176.716 Y-20.698 Z-2.152 I0 J-1
X-176.716 Y-18.698 Z-2.183 I0 J1
X-177.693 Y-19.913 Z-2.2 I0 J-1
X-175.74 Y-19.482 I0.977 J0.215
X-177.693 Y-19.913 I-0.977 J-0.215
G1 X-177.676 Y-19.957
X-177.646 Y-19.993
X-177.606 Y-20.018
X-177.561 Y-20.03
X-177.514 Y-20.027
X-177.441 Y-20.011
X-177.396 Y-20.001 Z-2.193
X-177.355 Y-19.992 Z-2.171
X-177.322 Y-19.985 Z-2.138
X-177.301 Y-19.98 Z-2.096
X-177.294 Y-19.979 Z-2.05
G0 Z5
X-176.125 Y-46.737
Z2.2
G1 Z0.35 F400
Y-46.73 Z0.304
Y-46.709 Z0.262
Y-46.676 Z0.229
Y-46.634 Z0.207
Y-46.587 Z0.2
Y-46.512
X-176.132 Y-46.466
X-176.153 Y-46.424
X-176.187 Y-46.391
X-176.228 Y-46.37
X-176.275 Y-46.362
G3 X-176.275 Y-48.362 Z0.169 I0 J-1 F600
X-176.275 Y-46.362 Z0.139 I0 J1
X-176.275 Y-48.362 Z0.108 I0 J-1
X-176.275 Y-46.362 Z0.078 I0 J1
X-176.275 Y-48.362 Z0.047 I0 J-1
X-176.275 Y-46.362 Z0.017 I0 J1
X-176.275 Y-48.362 Z-0.014 I0 J-1
X-176.275 Y-46.362 Z-0.044 I0 J1
X-176.275 Y-48.362 Z-0.075 I0 J-1
X-176.275 Y-46.362 Z-0.105 I0 J1
X-176.275 Y-48.362 Z-0.136 I0 J-1
X-176.275 Y-46.362 Z-0.167 I0 J1
X-176.275 Y-48.362 Z-0.197 I0 J-1
X-176.275 Y-46.362 Z-0.228 I0 J1
X-176.275 Y-48.362 Z-0.258 I0 J-1
X-176.275 Y-46.362 Z-0.289 I0 J1
X-176.275 Y-48.362 Z-0.319 I0 J-1
X-176.275 Y-46.362 Z-0.35 I0 J1
X-176.275 Y-48.362 Z-0.38 I0 J-1
X-176.275 Y-46.362 Z-0.411 I0 J1
X-176.275 Y-48.362 Z-0.441 I0 J-1
X-176.275 Y-46.362 Z-0.472 I0 J1
X-176.275 Y-48.362 Z-0.503 I0 J-1
X-176.275 Y-46.362 Z-0.533 I0 J1
X-176.275 Y-48.362 Z-0.564 I0 J-1
X-176.275 Y-46.362 Z-0.594 I0 J1
X-176.275 Y-48.362 Z-0.625 I0 J-1
X-176.275 Y-46.362 Z-0.655 I0 J1
X-176.275 Y-48.362 Z-0.686 I0 J-1
X-176.275 Y-46.362 Z-0.716 I0 J1
X-176.275 Y-48.362 Z-0.747 I0 J-1
X-176.275 Y-46.362 Z-0.777 I0 J1
X-176.275 Y-48.362 Z-0.808 I0 J-1
X-176.275 Y-46.362 Z-0.839 I0 J1
X-176.275 Y-48.362 Z-0.869 I0 J-1
X-176.275 Y-46.362 Z-0.9 I0 J1
X-176.275 Y-48.362 Z-0.93 I0 J-1
X-176.275 Y-46.362 Z-0.961 I0 J1
X-176.275 Y-48.362 Z-0.991 I0 J-1
X-176.275 Y-46.362 Z-1.022 I0 J1
X-176.275 Y-48.362 Z-1.052 I0 J-1
X-176.275 Y-46.362 Z-1.083 I0 J1
X-176.275 Y-48.362 Z-1.113 I0 J-1
X-176.275 Y-46.362 Z-1.144 I0 J1
X-176.275 Y-48.362 Z-1.175 I0 J-1
X-176.275 Y-46.362 Z-1.205 I0 J1
X-176.275 Y-48.362 Z-1.236 I0 J-1
X-176.275 Y-46.362 Z-1.266 I0 J1
X-176.275 Y-48.362 Z-1.297 I0 J-1
X-176.275 Y-46.362 Z-1.327 I0 J1
X-176.275 Y-48.362 Z-1.358 I0 J-1
X-176.275 Y-46.362 Z-1.388 I0 J1
X-176.275 Y-48.362 Z-1.419 I0 J-1
X-176.275 Y-46.362 Z-1.45 I0 J1
X-176.275 Y-48.362 Z-1.48 I0 J-1
X-176.275 Y-46.362 Z-1.511 I0 J1
X-176.275 Y-48.362 Z-1.541 I0 J-1
X-176.275 Y-46.362 Z-1.572 I0 J1
X-176.275 Y-48.362 Z-1.602 I0 J-1
X-176.275 Y-46.362 Z-1.633 I0 J1
X-176.275 Y-48.362 Z-1.663 I0 J-1
X-176.275 Y-46.362 Z-1.694 I0 J1
X-176.275 Y-48.362 Z-1.724 I0 J-1
X-176.275 Y-46.362 Z-1.755 I0 J1
X-176.275 Y-48.362 Z-1.786 I0 J-1
X-176.275 Y-46.362 Z-1.816 I0 J1
X-176.275 Y-48.362 Z-1.847 I0 J-1
X-176.275 Y-46.362 Z-1.877 I0 J1
X-176.275 Y-48.362 Z-1.908 I0 J-1
X-176.275 Y-46.362 Z-1.938 I0 J1
X-176.275 Y-48.362 Z-1.969 I0 J-1
X-176.275 Y-46.362 Z-1.999 I0 J1
X-176.275 Y-48.362 Z-2.03 I0 J-1
X-176.275 Y-46.362 Z-2.06 I0 J1
X-176.275 Y-48.362 Z-2.091 I0 J-1
X-176.275 Y-46.362 Z-2.122 I0 J1
X-176.275 Y-48.362 Z-2.152 I0 J-1
X-176.275 Y-46.362 Z-2.183 I0 J1
X-177.251 Y-47.578 Z-2.2 I0 J-1
X-175.298 Y-47.147 I0.977 J0.215
X-177.251 Y-47.578 I-0.977 J-0.215
G1 X-177.234 Y-47.621
X-177.204 Y-47.658
X-177.165 Y-47.683
X-177.119 Y-47.695
X-177.073 Y-47.692
X-176.999 Y-47.676
X-176.954 Y-47.666 Z-2.193
X-176.913 Y-47.657 Z-2.171
X-176.881 Y-47.65 Z-2.138
X-176.86 Y-47.645 Z-2.096
X-176.853 Y-47.643 Z-2.05
G0 Z5
X-145.625 Y-46.737
Z2.2
G1 Z0.35 F400
Y-46.73 Z0.304
Y-46.709 Z0.262
Y-46.676 Z0.229
Y-46.634 Z0.207
Y-46.587 Z0.2
Y-46.512
X-145.632 Y-46.466
X-145.653 Y-46.424
X-145.687 Y-46.391
X-145.728 Y-46.37
X-145.775 Y-46.362
G3 X-145.775 Y-48.362 Z0.169 I0 J-1 F600
X-145.775 Y-46.362 Z0.139 I0 J1
X-145.775 Y-48.362 Z0.108 I0 J-1
X-145.775 Y-46.362 Z0.078 I0 J1
X-145.775 Y-48.362 Z0.047 I0 J-1
X-145.775 Y-46.362 Z0.017 I0 J1
X-145.775 Y-48.362 Z-0.014 I0 J-1
X-145.775 Y-46.362 Z-0.044 I0 J1
X-145.775 Y-48.362 Z-0.075 I0 J-1
X-145.775 Y-46.362 Z-0.105 I0 J1
X-145.775 Y-48.362 Z-0.136 I0 J-1
X-145.775 Y-46.362 Z-0.167 I0 J1
X-145.775 Y-48.362 Z-0.197 I0 J-1
X-145.775 Y-46.362 Z-0.228 I0 J1
X-145.775 Y-48.362 Z-0.258 I0 J-1
X-145.775 Y-46.362 Z-0.289 I0 J1
X-145.775 Y-48.362 Z-0.319 I0 J-1
X-145.775 Y-46.362 Z-0.35 I0 J1
X-145.775 Y-48.362 Z-0.38 I0 J-1
X-145.775 Y-46.362 Z-0.411 I0 J1
X-145.775 Y-48.362 Z-0.441 I0 J-1
X-145.775 Y-46.362 Z-0.472 I0 J1
X-145.775 Y-48.362 Z-0.503 I0 J-1
X-145.775 Y-46.362 Z-0.533 I0 J1
X-145.775 Y-48.362 Z-0.564 I0 J-1
X-145.775 Y-46.362 Z-0.594 I0 J1
X-145.775 Y-48.362 Z-0.625 I0 J-1
X-145.775 Y-46.362 Z-0.655 I0 J1
X-145.775 Y-48.362 Z-0.686 I0 J-1
X-145.775 Y-46.362 Z-0.716 I0 J1
X-145.775 Y-48.362 Z-0.747 I0 J-1
X-145.775 Y-46.362 Z-0.777 I0 J1
X-145.775 Y-48.362 Z-0.808 I0 J-1
X-145.775 Y-46.362 Z-0.839 I0 J1
X-145.775 Y-48.362 Z-0.869 I0 J-1
X-145.775 Y-46.362 Z-0.9 I0 J1
X-145.775 Y-48.362 Z-0.93 I0 J-1
X-145.775 Y-46.362 Z-0.961 I0 J1
X-145.775 Y-48.362 Z-0.991 I0 J-1
X-145.775 Y-46.362 Z-1.022 I0 J1
X-145.775 Y-48.362 Z-1.052 I0 J-1
X-145.775 Y-46.362 Z-1.083 I0 J1
X-145.775 Y-48.362 Z-1.113 I0 J-1
X-145.775 Y-46.362 Z-1.144 I0 J1
X-145.775 Y-48.362 Z-1.175 I0 J-1
X-145.775 Y-46.362 Z-1.205 I0 J1
X-145.775 Y-48.362 Z-1.236 I0 J-1
X-145.775 Y-46.362 Z-1.266 I0 J1
X-145.775 Y-48.362 Z-1.297 I0 J-1
X-145.775 Y-46.362 Z-1.327 I0 J1
X-145.775 Y-48.362 Z-1.358 I0 J-1
X-145.775 Y-46.362 Z-1.388 I0 J1
X-145.775 Y-48.362 Z-1.419 I0 J-1
X-145.775 Y-46.362 Z-1.45 I0 J1
X-145.775 Y-48.362 Z-1.48 I0 J-1
X-145.775 Y-46.362 Z-1.511 I0 J1
X-145.775 Y-48.362 Z-1.541 I0 J-1
X-145.775 Y-46.362 Z-1.572 I0 J1
X-145.775 Y-48.362 Z-1.602 I0 J-1
X-145.775 Y-46.362 Z-1.633 I0 J1
X-145.775 Y-48.362 Z-1.663 I0 J-1
X-145.775 Y-46.362 Z-1.694 I0 J1
X-145.775 Y-48.362 Z-1.724 I0 J-1
X-145.775 Y-46.362 Z-1.755 I0 J1
X-145.775 Y-48.362 Z-1.786 I0 J-1
X-145.775 Y-46.362 Z-1.816 I0 J1
X-145.775 Y-48.362 Z-1.847 I0 J-1
X-145.775 Y-46.362 Z-1.877 I0 J1
X-145.775 Y-48.362 Z-1.908 I0 J-1
X-145.775 Y-46.362 Z-1.938 I0 J1
X-145.775 Y-48.362 Z-1.969 I0 J-1
X-145.775 Y-46.362 Z-1.999 I0 J1
X-145.775 Y-48.362 Z-2.03 I0 J-1
X-145.775 Y-46.362 Z-2.06 I0 J1
X-145.775 Y-48.362 Z-2.091 I0 J-1
X-145.775 Y-46.362 Z-2.122 I0 J1
X-145.775 Y-48.362 Z-2.152 I0 J-1
X-145.775 Y-46.362 Z-2.183 I0 J1
X-146.751 Y-47.578 Z-2.2 I0 J-1
X-144.798 Y-47.147 I0.977 J0.215
X-146.751 Y-47.578 I-0.977 J-0.215
G1 X-146.734 Y-47.621
X-146.704 Y-47.658
X-146.665 Y-47.683
X-146.619 Y-47.695
X-146.573 Y-47.692
X-146.499 Y-47.676
X-146.454 Y-47.666 Z-2.193
X-146.413 Y-47.657 Z-2.171
X-146.381 Y-47.65 Z-2.138
X-146.36 Y-47.645 Z-2.096
X-146.353 Y-47.643 Z-2.05
G0 Z5
X-126.161 Y-44.073
Z2.2
G1 Z0.35 F400
Y-44.065 Z0.304
Y-44.044 Z0.262
Y-44.011 Z0.229
Y-43.969 Z0.207
Y-43.923 Z0.2
Y-43.848
X-126.169 Y-43.801
X-126.19 Y-43.76
X-126.223 Y-43.726
X-126.265 Y-43.705
X-126.311 Y-43.698
G3 X-126.311 Y-45.698 Z0.169 I0 J-1 F600
X-126.311 Y-43.698 Z0.139 I0 J1
X-126.311 Y-45.698 Z0.108 I0 J-1
X-126.311 Y-43.698 Z0.078 I0 J1
X-126.311 Y-45.698 Z0.047 I0 J-1
X-126.311 Y-43.698 Z0.017 I0 J1
X-126.311 Y-45.698 Z-0.014 I0 J-1
X-126.311 Y-43.698 Z-0.044 I0 J1
X-126.311 Y-45.698 Z-0.075 I0 J-1
X-126.311 Y-43.698 Z-0.105 I0 J1
X-126.311 Y-45.698 Z-0.136 I0 J-1
X-126.311 Y-43.698 Z-0.167 I0 J1
X-126.311 Y-45.698 Z-0.197 I0 J-1
X-126.311 Y-43.698 Z-0.228 I0 J1
X-126.311 Y-45.698 Z-0.258 I0 J-1
X-126.311 Y-43.698 Z-0.289 I0 J1
X-126.311 Y-45.698 Z-0.319 I0 J-1
X-126.311 Y-43.698 Z-0.35 I0 J1
X-126.311 Y-45.698 Z-0.38 I0 J-1
X-126.311 Y-43.698 Z-0.411 I0 J1
X-126.311 Y-45.698 Z-0.441 I0 J-1
X-126.311 Y-43.698 Z-0.472 I0 J1
X-126.311 Y-45.698 Z-0.503 I0 J-1
X-126.311 Y-43.698 Z-0.533 I0 J1
X-126.311 Y-45.698 Z-0.564 I0 J-1
X-126.311 Y-43.698 Z-0.594 I0 J1
X-126.311 Y-45.698 Z-0.625 I0 J-1
X-126.311 Y-43.698 Z-0.655 I0 J1
X-126.311 Y-45.698 Z-0.686 I0 J-1
X-126.311 Y-43.698 Z-0.716 I0 J1
X-126.311 Y-45.698 Z-0.747 I0 J-1
X-126.311 Y-43.698 Z-0.777 I0 J1
X-126.311 Y-45.698 Z-0.808 I0 J-1
X-126.311 Y-43.698 Z-0.839 I0 J1
X-126.311 Y-45.698 Z-0.869 I0 J-1
X-126.311 Y-43.698 Z-0.9 I0 J1
X-126.311 Y-45.698 Z-0.93 I0 J-1
X-126.311 Y-43.698 Z-0.961 I0 J1
X-126.311 Y-45.698 Z-0.991 I0 J-1
X-126.311 Y-43.698 Z-1.022 I0 J1
X-126.311 Y-45.698 Z-1.052 I0 J-1
X-126.311 Y-43.698 Z-1.083 I0 J1
X-126.311 Y-45.698 Z-1.113 I0 J-1
X-126.311 Y-43.698 Z-1.144 I0 J1
X-126.311 Y-45.698 Z-1.175 I0 J-1
X-126.311 Y-43.698 Z-1.205 I0 J1
X-126.311 Y-45.698 Z-1.236 I0 J-1
X-126.311 Y-43.698 Z-1.266 I0 J1
X-126.311 Y-45.698 Z-1.297 I0 J-1
X-126.311 Y-43.698 Z-1.327 I0 J1
X-126.311 Y-45.698 Z-1.358 I0 J-1
X-126.311 Y-43.698 Z-1.388 I0 J1
X-126.311 Y-45.698 Z-1.419 I0 J-1
X-126.311 Y-43.698 Z-1.45 I0 J1
X-126.311 Y-45.698 Z-1.48 I0 J-1
X-126.311 Y-43.698 Z-1.511 I0 J1
X-126.311 Y-45.698 Z-1.541 I0 J-1
X-126.311 Y-43.698 Z-1.572 I0 J1
X-126.311 Y-45.698 Z-1.602 I0 J-1
X-126.311 Y-43.698 Z-1.633 I0 J1
X-126.311 Y-45.698 Z-1.663 I0 J-1
X-126.311 Y-43.698 Z-1.694 I0 J1
X-126.311 Y-45.698 Z-1.724 I0 J-1
X-126.311 Y-43.698 Z-1.755 I0 J1
X-126.311 Y-45.698 Z-1.786 I0 J-1
X-126.311 Y-43.698 Z-1.816 I0 J1
X-126.311 Y-45.698 Z-1.847 I0 J-1
X-126.311 Y-43.698 Z-1.877 I0 J1
X-126.311 Y-45.698 Z-1.908 I0 J-1
X-126.311 Y-43.698 Z-1.938 I0 J1
X-126.311 Y-45.698 Z-1.969 I0 J-1
X-126.311 Y-43.698 Z-1.999 I0 J1
X-126.311 Y-45.698 Z-2.03 I0 J-1
X-126.311 Y-43.698 Z-2.06 I0 J1
X-126.311 Y-45.698 Z-2.091 I0 J-1
X-126.311 Y-43.698 Z-2.122 I0 J1
X-126.311 Y-45.698 Z-2.152 I0 J-1
X-126.311 Y-43.698 Z-2.183 I0 J1
X-127.288 Y-44.913 Z-2.2 I0 J-1
X-125.335 Y-44.482 I0.977 J0.215
X-127.288 Y-44.913 I-0.977 J-0.215
G1 X-127.271 Y-44.957
X-127.241 Y-44.993
X-127.201 Y-45.018
X-127.156 Y-45.03
X-127.109 Y-45.027
X-127.036 Y-45.011
X-126.991 Y-45.001 Z-2.193
X-126.95 Y-44.992 Z-2.171
X-126.917 Y-44.985 Z-2.138
X-126.897 Y-44.98 Z-2.096
X-126.889 Y-44.979 Z-2.05
G0 Z5
X-125.875 Y-26.987
Z2.2
G1 Z0.35 F400
Y-26.98 Z0.304
Y-26.959 Z0.262
Y-26.926 Z0.229
Y-26.884 Z0.207
Y-26.837 Z0.2
Y-26.762
X-125.882 Y-26.716
X-125.903 Y-26.674
X-125.937 Y-26.641
X-125.978 Y-26.62
X-126.025 Y-26.612
G3 X-126.025 Y-28.612 Z0.169 I0 J-1 F600
X-126.025 Y-26.612 Z0.139 I0 J1
X-126.025 Y-28.612 Z0.108 I0 J-1
X-126.025 Y-26.612 Z0.078 I0 J1
X-126.025 Y-28.612 Z0.047 I0 J-1
X-126.025 Y-26.612 Z0.017 I0 J1
X-126.025 Y-28.612 Z-0.014 I0 J-1
X-126.025 Y-26.612 Z-0.044 I0 J1
X-126.025 Y-28.612 Z-0.075 I0 J-1
X-126.025 Y-26.612 Z-0.105 I0 J1
X-126.025 Y-28.612 Z-0.136 I0 J-1
X-126.025 Y-26.612 Z-0.167 I0 J1
X-126.025 Y-28.612 Z-0.197 I0 J-1
X-126.025 Y-26.612 Z-0.228 I0 J1
X-126.025 Y-28.612 Z-0.258 I0 J-1
X-126.025 Y-26.612 Z-0.289 I0 J1
X-126.025 Y-28.612 Z-0.319 I0 J-1
X-126.025 Y-26.612 Z-0.35 I0 J1
X-126.025 Y-28.612 Z-0.38 I0 J-1
X-126.025 Y-26.612 Z-0.411 I0 J1
X-126.025 Y-28.612 Z-0.441 I0 J-1
X-126.025 Y-26.612 Z-0.472 I0 J1
X-126.025 Y-28.612 Z-0.503 I0 J-1
X-126.025 Y-26.612 Z-0.533 I0 J1
X-126.025 Y-28.612 Z-0.564 I0 J-1
X-126.025 Y-26.612 Z-0.594 I0 J1
X-126.025 Y-28.612 Z-0.625 I0 J-1
X-126.025 Y-26.612 Z-0.655 I0 J1
X-126.025 Y-28.612 Z-0.686 I0 J-1
X-126.025 Y-26.612 Z-0.716 I0 J1
X-126.025 Y-28.612 Z-0.747 I0 J-1
X-126.025 Y-26.612 Z-0.777 I0 J1
X-126.025 Y-28.612 Z-0.808 I0 J-1
X-126.025 Y-26.612 Z-0.839 I0 J1
X-126.025 Y-28.612 Z-0.869 I0 J-1
X-126.025 Y-26.612 Z-0.9 I0 J1
X-126.025 Y-28.612 Z-0.93 I0 J-1
X-126.025 Y-26.612 Z-0.961 I0 J1
X-126.025 Y-28.612 Z-0.991 I0 J-1
X-126.025 Y-26.612 Z-1.022 I0 J1
X-126.025 Y-28.612 Z-1.052 I0 J-1
X-126.025 Y-26.612 Z-1.083 I0 J1
X-126.025 Y-28.612 Z-1.113 I0 J-1
X-126.025 Y-26.612 Z-1.144 I0 J1
X-126.025 Y-28.612 Z-1.175 I0 J-1
X-126.025 Y-26.612 Z-1.205 I0 J1
X-126.025 Y-28.612 Z-1.236 I0 J-1
X-126.025 Y-26.612 Z-1.266 I0 J1
X-126.025 Y-28.612 Z-1.297 I0 J-1
X-126.025 Y-26.612 Z-1.327 I0 J1
X-126.025 Y-28.612 Z-1.358 I0 J-1
X-126.025 Y-26.612 Z-1.388 I0 J1
X-126.025 Y-28.612 Z-1.419 I0 J-1
X-126.025 Y-26.612 Z-1.45 I0 J1
X-126.025 Y-28.612 Z-1.48 I0 J-1
X-126.025 Y-26.612 Z-1.511 I0 J1
X-126.025 Y-28.612 Z-1.541 I0 J-1
X-126.025 Y-26.612 Z-1.572 I0 J1
X-126.025 Y-28.612 Z-1.602 I0 J-1
X-126.025 Y-26.612 Z-1.633 I0 J1
X-126.025 Y-28.612 Z-1.663 I0 J-1
X-126.025 Y-26.612 Z-1.694 I0 J1
X-126.025 Y-28.612 Z-1.724 I0 J-1
X-126.025 Y-26.612 Z-1.755 I0 J1
X-126.025 Y-28.612 Z-1.786 I0 J-1
X-126.025 Y-26.612 Z-1.816 I0 J1
X-126.025 Y-28.612 Z-1.847 I0 J-1
X-126.025 Y-26.612 Z-1.877 I0 J1
X-126.025 Y-28.612 Z-1.908 I0 J-1
X-126.025 Y-26.612 Z-1.938 I0 J1
X-126.025 Y-28.612 Z-1.969 I0 J-1
X-126.025 Y-26.612 Z-1.999 I0 J1
X-126.025 Y-28.612 Z-2.03 I0 J-1
X-126.025 Y-26.612 Z-2.06 I0 J1
X-126.025 Y-28.612 Z-2.091 I0 J-1
X-126.025 Y-26.612 Z-2.122 I0 J1
X-126.025 Y-28.612 Z-2.152 I0 J-1
X-126.025 Y-26.612 Z-2.183 I0 J1
X-127.001 Y-27.828 Z-2.2 I0 J-1
X-125.048 Y-27.397 I0.977 J0.215
X-127.001 Y-27.828 I-0.977 J-0.215
G1 X-126.984 Y-27.871
X-126.954 Y-27.908
X-126.915 Y-27.933
X-126.869 Y-27.945
X-126.823 Y-27.942
X-126.749 Y-27.926
X-126.704 Y-27.916 Z-2.193
X-126.663 Y-27.907 Z-2.171
X-126.631 Y-27.9 Z-2.138
X-126.61 Y-27.895 Z-2.096
X-126.603 Y-27.893 Z-2.05
G0 Z5
X-125.875 Y-96.987
Z2.2
G1 Z0.35 F400
Y-96.98 Z0.304
Y-96.959 Z0.262
Y-96.926 Z0.229
Y-96.884 Z0.207
Y-96.837 Z0.2
Y-96.762
X-125.882 Y-96.716
X-125.903 Y-96.674
X-125.937 Y-96.641
X-125.978 Y-96.62
X-126.025 Y-96.612
G3 X-126.025 Y-98.612 Z0.169 I0 J-1 F600
X-126.025 Y-96.612 Z0.139 I0 J1
X-126.025 Y-98.612 Z0.108 I0 J-1
X-126.025 Y-96.612 Z0.078 I0 J1
X-126.025 Y-98.612 Z0.047 I0 J-1
X-126.025 Y-96.612 Z0.017 I0 J1
X-126.025 Y-98.612 Z-0.014 I0 J-1
X-126.025 Y-96.612 Z-0.044 I0 J1
X-126.025 Y-98.612 Z-0.075 I0 J-1
X-126.025 Y-96.612 Z-0.105 I0 J1
X-126.025 Y-98.612 Z-0.136 I0 J-1
X-126.025 Y-96.612 Z-0.167 I0 J1
X-126.025 Y-98.612 Z-0.197 I0 J-1
X-126.025 Y-96.612 Z-0.228 I0 J1
X-126.025 Y-98.612 Z-0.258 I0 J-1
X-126.025 Y-96.612 Z-0.289 I0 J1
X-126.025 Y-98.612 Z-0.319 I0 J-1
X-126.025 Y-96.612 Z-0.35 I0 J1
X-126.025 Y-98.612 Z-0.38 I0 J-1
X-126.025 Y-96.612 Z-0.411 I0 J1
X-126.025 Y-98.612 Z-0.441 I0 J-1
X-126.025 Y-96.612 Z-0.472 I0 J1
X-126.025 Y-98.612 Z-0.503 I0 J-1
X-126.025 Y-96.612 Z-0.533 I0 J1
X-126.025 Y-98.612 Z-0.564 I0 J-1
X-126.025 Y-96.612 Z-0.594 I0 J1
X-126.025 Y-98.612 Z-0.625 I0 J-1
X-126.025 Y-96.612 Z-0.655 I0 J1
X-126.025 Y-98.612 Z-0.686 I0 J-1
X-126.025 Y-96.612 Z-0.716 I0 J1
X-126.025 Y-98.612 Z-0.747 I0 J-1
X-126.025 Y-96.612 Z-0.777 I0 J1
X-126.025 Y-98.612 Z-0.808 I0 J-1
X-126.025 Y-96.612 Z-0.839 I0 J1
X-126.025 Y-98.612 Z-0.869 I0 J-1
X-126.025 Y-96.612 Z-0.9 I0 J1
X-126.025 Y-98.612 Z-0.93 I0 J-1
X-126.025 Y-96.612 Z-0.961 I0 J1
X-126.025 Y-98.612 Z-0.991 I0 J-1
X-126.025 Y-96.612 Z-1.022 I0 J1
X-126.025 Y-98.612 Z-1.052 I0 J-1
X-126.025 Y-96.612 Z-1.083 I0 J1
X-126.025 Y-98.612 Z-1.113 I0 J-1
X-126.025 Y-96.612 Z-1.144 I0 J1
X-126.025 Y-98.612 Z-1.175 I0 J-1
X-126.025 Y-96.612 Z-1.205 I0 J1
X-126.025 Y-98.612 Z-1.236 I0 J-1
X-126.025 Y-96.612 Z-1.266 I0 J1
X-126.025 Y-98.612 Z-1.297 I0 J-1
X-126.025 Y-96.612 Z-1.327 I0 J1
X-126.025 Y-98.612 Z-1.358 I0 J-1
X-126.025 Y-96.612 Z-1.388 I0 J1
X-126.025 Y-98.612 Z-1.419 I0 J-1
X-126.025 Y-96.612 Z-1.45 I0 J1
X-126.025 Y-98.612 Z-1.48 I0 J-1
X-126.025 Y-96.612 Z-1.511 I0 J1
X-126.025 Y-98.612 Z-1.541 I0 J-1
X-126.025 Y-96.612 Z-1.572 I0 J1
X-126.025 Y-98.612 Z-1.602 I0 J-1
X-126.025 Y-96.612 Z-1.633 I0 J1
X-126.025 Y-98.612 Z-1.663 I0 J-1
X-126.025 Y-96.612 Z-1.694 I0 J1
X-126.025 Y-98.612 Z-1.724 I0 J-1
X-126.025 Y-96.612 Z-1.755 I0 J1
X-126.025 Y-98.612 Z-1.786 I0 J-1
X-126.025 Y-96.612 Z-1.816 I0 J1
X-126.025 Y-98.612 Z-1.847 I0 J-1
X-126.025 Y-96.612 Z-1.877 I0 J1
X-126.025 Y-98.612 Z-1.908 I0 J-1
X-126.025 Y-96.612 Z-1.938 I0 J1
X-126.025 Y-98.612 Z-1.969 I0 J-1
X-126.025 Y-96.612 Z-1.999 I0 J1
X-126.025 Y-98.612 Z-2.03 I0 J-1
X-126.025 Y-96.612 Z-2.06 I0 J1
X-126.025 Y-98.612 Z-2.091 I0 J-1
X-126.025 Y-96.612 Z-2.122 I0 J1
X-126.025 Y-98.612 Z-2.152 I0 J-1
X-126.025 Y-96.612 Z-2.183 I0 J1
X-127.001 Y-97.828 Z-2.2 I0 J-1
X-125.048 Y-97.397 I0.977 J0.215
X-127.001 Y-97.828 I-0.977 J-0.215
G1 X-126.984 Y-97.871
X-126.954 Y-97.908
X-126.915 Y-97.933
X-126.869 Y-97.945
X-126.823 Y-97.942
X-126.749 Y-97.926
X-126.704 Y-97.916 Z-2.193
X-126.663 Y-97.907 Z-2.171
X-126.631 Y-97.9 Z-2.138
X-126.61 Y-97.895 Z-2.096
X-126.603 Y-97.893 Z-2.05
G0 Z5
X-126.161 Y-79.902
Z2.2
G1 Z0.35 F400
Y-79.895 Z0.304
Y-79.873 Z0.262
Y-79.84 Z0.229
Y-79.798 Z0.207
Y-79.752 Z0.2
Y-79.677
X-126.169 Y-79.631
X-126.19 Y-79.589
X-126.223 Y-79.556
X-126.265 Y-79.534
X-126.311 Y-79.527
G3 X-126.311 Y-81.527 Z0.169 I0 J-1 F600
X-126.311 Y-79.527 Z0.139 I0 J1
X-126.311 Y-81.527 Z0.108 I0 J-1
X-126.311 Y-79.527 Z0.078 I0 J1
X-126.311 Y-81.527 Z0.047 I0 J-1
X-126.311 Y-79.527 Z0.017 I0 J1
X-126.311 Y-81.527 Z-0.014 I0 J-1
X-126.311 Y-79.527 Z-0.044 I0 J1
X-126.311 Y-81.527 Z-0.075 I0 J-1
X-126.311 Y-79.527 Z-0.105 I0 J1
X-126.311 Y-81.527 Z-0.136 I0 J-1
X-126.311 Y-79.527 Z-0.167 I0 J1
X-126.311 Y-81.527 Z-0.197 I0 J-1
X-126.311 Y-79.527 Z-0.228 I0 J1
X-126.311 Y-81.527 Z-0.258 I0 J-1
X-126.311 Y-79.527 Z-0.289 I0 J1
X-126.311 Y-81.527 Z-0.319 I0 J-1
X-126.311 Y-79.527 Z-0.35 I0 J1
X-126.311 Y-81.527 Z-0.38 I0 J-1
X-126.311 Y-79.527 Z-0.411 I0 J1
X-126.311 Y-81.527 Z-0.441 I0 J-1
X-126.311 Y-79.527 Z-0.472 I0 J1
X-126.311 Y-81.527 Z-0.503 I0 J-1
X-126.311 Y-79.527 Z-0.533 I0 J1
X-126.311 Y-81.527 Z-0.564 I0 J-1
X-126.311 Y-79.527 Z-0.594 I0 J1
X-126.311 Y-81.527 Z-0.625 I0 J-1
X-126.311 Y-79.527 Z-0.655 I0 J1
X-126.311 Y-81.527 Z-0.686 I0 J-1
X-126.311 Y-79.527 Z-0.716 I0 J1
X-126.311 Y-81.527 Z-0.747 I0 J-1
X-126.311 Y-79.527 Z-0.777 I0 J1
X-126.311 Y-81.527 Z-0.808 I0 J-1
X-126.311 Y-79.527 Z-0.839 I0 J1
X-126.311 Y-81.527 Z-0.869 I0 J-1
X-126.311 Y-79.527 Z-0.9 I0 J1
X-126.311 Y-81.527 Z-0.93 I0 J-1
X-126.311 Y-79.527 Z-0.961 I0 J1
X-126.311 Y-81.527 Z-0.991 I0 J-1
X-126.311 Y-79.527 Z-1.022 I0 J1
X-126.311 Y-81.527 Z-1.052 I0 J-1
X-126.311 Y-79.527 Z-1.083 I0 J1
X-126.311 Y-81.527 Z-1.113 I0 J-1
X-126.311 Y-79.527 Z-1.144 I0 J1
X-126.311 Y-81.527 Z-1.175 I0 J-1
X-126.311 Y-79.527 Z-1.205 I0 J1
X-126.311 Y-81.527 Z-1.236 I0 J-1
X-126.311 Y-79.527 Z-1.266 I0 J1
X-126.311 Y-81.527 Z-1.297 I0 J-1
X-126.311 Y-79.527 Z-1.327 I0 J1
X-126.311 Y-81.527 Z-1.358 I0 J-1
X-126.311 Y-79.527 Z-1.388 I0 J1
X-126.311 Y-81.527 Z-1.419 I0 J-1
X-126.311 Y-79.527 Z-1.45 I0 J1
X-126.311 Y-81.527 Z-1.48 I0 J-1
X-126.311 Y-79.527 Z-1.511 I0 J1
X-126.311 Y-81.527 Z-1.541 I0 J-1
X-126.311 Y-79.527 Z-1.572 I0 J1
X-126.311 Y-81.527 Z-1.602 I0 J-1
X-126.311 Y-79.527 Z-1.633 I0 J1
X-126.311 Y-81.527 Z-1.663 I0 J-1
X-126.311 Y-79.527 Z-1.694 I0 J1
X-126.311 Y-81.527 Z-1.724 I0 J-1
X-126.311 Y-79.527 Z-1.755 I0 J1
X-126.311 Y-81.527 Z-1.786 I0 J-1
X-126.311 Y-79.527 Z-1.816 I0 J1
X-126.311 Y-81.527 Z-1.847 I0 J-1
X-126.311 Y-79.527 Z-1.877 I0 J1
X-126.311 Y-81.527 Z-1.908 I0 J-1
X-126.311 Y-79.527 Z-1.938 I0 J1
X-126.311 Y-81.527 Z-1.969 I0 J-1
X-126.311 Y-79.527 Z-1.999 I0 J1
X-126.311 Y-81.527 Z-2.03 I0 J-1
X-126.311 Y-79.527 Z-2.06 I0 J1
X-126.311 Y-81.527 Z-2.091 I0 J-1
X-126.311 Y-79.527 Z-2.122 I0 J1
X-126.311 Y-81.527 Z-2.152 I0 J-1
X-126.311 Y-79.527 Z-2.183 I0 J1
X-127.288 Y-80.742 Z-2.2 I0 J-1
X-125.335 Y-80.312 I0.977 J0.215
X-127.288 Y-80.742 I-0.977 J-0.215
G1 X-127.271 Y-80.786
X-127.241 Y-80.822
X-127.201 Y-80.848
X-127.156 Y-80.859
X-127.109 Y-80.857
X-127.036 Y-80.84
X-126.991 Y-80.83 Z-2.193
X-126.95 Y-80.821 Z-2.171
X-126.917 Y-80.814 Z-2.138
X-126.897 Y-80.81 Z-2.096
X-126.889 Y-80.808 Z-2.05
G0 Z5
X-145.625 Y-77.237
Z2.2
G1 Z0.35 F400
Y-77.23 Z0.304
Y-77.209 Z0.262
Y-77.176 Z0.229
Y-77.134 Z0.207
Y-77.087 Z0.2
Y-77.012
X-145.632 Y-76.966
X-145.653 Y-76.924
X-145.687 Y-76.891
X-145.728 Y-76.87
X-145.775 Y-76.862
G3 X-145.775 Y-78.862 Z0.169 I0 J-1 F600
X-145.775 Y-76.862 Z0.139 I0 J1
X-145.775 Y-78.862 Z0.108 I0 J-1
X-145.775 Y-76.862 Z0.078 I0 J1
X-145.775 Y-78.862 Z0.047 I0 J-1
X-145.775 Y-76.862 Z0.017 I0 J1
X-145.775 Y-78.862 Z-0.014 I0 J-1
X-145.775 Y-76.862 Z-0.044 I0 J1
X-145.775 Y-78.862 Z-0.075 I0 J-1
X-145.775 Y-76.862 Z-0.105 I0 J1
X-145.775 Y-78.862 Z-0.136 I0 J-1
X-145.775 Y-76.862 Z-0.167 I0 J1
X-145.775 Y-78.862 Z-0.197 I0 J-1
X-145.775 Y-76.862 Z-0.228 I0 J1
X-145.775 Y-78.862 Z-0.258 I0 J-1
X-145.775 Y-76.862 Z-0.289 I0 J1
X-145.775 Y-78.862 Z-0.319 I0 J-1
X-145.775 Y-76.862 Z-0.35 I0 J1
X-145.775 Y-78.862 Z-0.38 I0 J-1
X-145.775 Y-76.862 Z-0.411 I0 J1
X-145.775 Y-78.862 Z-0.441 I0 J-1
X-145.775 Y-76.862 Z-0.472 I0 J1
X-145.775 Y-78.862 Z-0.503 I0 J-1
X-145.775 Y-76.862 Z-0.533 I0 J1
X-145.775 Y-78.862 Z-0.564 I0 J-1
X-145.775 Y-76.862 Z-0.594 I0 J1
X-145.775 Y-78.862 Z-0.625 I0 J-1
X-145.775 Y-76.862 Z-0.655 I0 J1
X-145.775 Y-78.862 Z-0.686 I0 J-1
X-145.775 Y-76.862 Z-0.716 I0 J1
X-145.775 Y-78.862 Z-0.747 I0 J-1
X-145.775 Y-76.862 Z-0.777 I0 J1
X-145.775 Y-78.862 Z-0.808 I0 J-1
X-145.775 Y-76.862 Z-0.839 I0 J1
X-145.775 Y-78.862 Z-0.869 I0 J-1
X-145.775 Y-76.862 Z-0.9 I0 J1
X-145.775 Y-78.862 Z-0.93 I0 J-1
X-145.775 Y-76.862 Z-0.961 I0 J1
X-145.775 Y-78.862 Z-0.991 I0 J-1
X-145.775 Y-76.862 Z-1.022 I0 J1
X-145.775 Y-78.862 Z-1.052 I0 J-1
X-145.775 Y-76.862 Z-1.083 I0 J1
X-145.775 Y-78.862 Z-1.113 I0 J-1
X-145.775 Y-76.862 Z-1.144 I0 J1
X-145.775 Y-78.862 Z-1.175 I0 J-1
X-145.775 Y-76.862 Z-1.205 I0 J1
X-145.775 Y-78.862 Z-1.236 I0 J-1
X-145.775 Y-76.862 Z-1.266 I0 J1
X-145.775 Y-78.862 Z-1.297 I0 J-1
X-145.775 Y-76.862 Z-1.327 I0 J1
X-145.775 Y-78.862 Z-1.358 I0 J-1
X-145.775 Y-76.862 Z-1.388 I0 J1
X-145.775 Y-78.862 Z-1.419 I0 J-1
X-145.775 Y-76.862 Z-1.45 I0 J1
X-145.775 Y-78.862 Z-1.48 I0 J-1
X-145.775 Y-76.862 Z-1.511 I0 J1
X-145.775 Y-78.862 Z-1.541 I0 J-1
X-145.775 Y-76.862 Z-1.572 I0 J1
X-145.775 Y-78.862 Z-1.602 I0 J-1
X-145.775 Y-76.862 Z-1.633 I0 J1
X-145.775 Y-78.862 Z-1.663 I0 J-1
X-145.775 Y-76.862 Z-1.694 I0 J1
X-145.775 Y-78.862 Z-1.724 I0 J-1
X-145.775 Y-76.862 Z-1.755 I0 J1
X-145.775 Y-78.862 Z-1.786 I0 J-1
X-145.775 Y-76.862 Z-1.816 I0 J1
X-145.775 Y-78.862 Z-1.847 I0 J-1
X-145.775 Y-76.862 Z-1.877 I0 J1
X-145.775 Y-78.862 Z-1.908 I0 J-1
X-145.775 Y-76.862 Z-1.938 I0 J1
X-145.775 Y-78.862 Z-1.969 I0 J-1
X-145.775 Y-76.862 Z-1.999 I0 J1
X-145.775 Y-78.862 Z-2.03 I0 J-1
X-145.775 Y-76.862 Z-2.06 I0 J1
X-145.775 Y-78.862 Z-2.091 I0 J-1
X-145.775 Y-76.862 Z-2.122 I0 J1
X-145.775 Y-78.862 Z-2.152 I0 J-1
X-145.775 Y-76.862 Z-2.183 I0 J1
X-146.751 Y-78.078 Z-2.2 I0 J-1
X-144.798 Y-77.647 I0.977 J0.215
X-146.751 Y-78.078 I-0.977 J-0.215
G1 X-146.734 Y-78.121
X-146.704 Y-78.158
X-146.665 Y-78.183
X-146.619 Y-78.195
X-146.573 Y-78.192
X-146.499 Y-78.176
X-146.454 Y-78.166 Z-2.193
X-146.413 Y-78.157 Z-2.171
X-146.381 Y-78.15 Z-2.138
X-146.36 Y-78.145 Z-2.096
X-146.353 Y-78.143 Z-2.05
G0 Z5
X-176.125 Y-77.237
Z2.2
G1 Z0.35 F400
Y-77.23 Z0.304
Y-77.209 Z0.262
Y-77.176 Z0.229
Y-77.134 Z0.207
Y-77.087 Z0.2
Y-77.012
X-176.132 Y-76.966
X-176.153 Y-76.924
X-176.187 Y-76.891
X-176.228 Y-76.87
X-176.275 Y-76.862
G3 X-176.275 Y-78.862 Z0.169 I0 J-1 F600
X-176.275 Y-76.862 Z0.139 I0 J1
X-176.275 Y-78.862 Z0.108 I0 J-1
X-176.275 Y-76.862 Z0.078 I0 J1
X-176.275 Y-78.862 Z0.047 I0 J-1
X-176.275 Y-76.862 Z0.017 I0 J1
X-176.275 Y-78.862 Z-0.014 I0 J-1
X-176.275 Y-76.862 Z-0.044 I0 J1
X-176.275 Y-78.862 Z-0.075 I0 J-1
X-176.275 Y-76.862 Z-0.105 I0 J1
X-176.275 Y-78.862 Z-0.136 I0 J-1
X-176.275 Y-76.862 Z-0.167 I0 J1
X-176.275 Y-78.862 Z-0.197 I0 J-1
X-176.275 Y-76.862 Z-0.228 I0 J1
X-176.275 Y-78.862 Z-0.258 I0 J-1
X-176.275 Y-76.862 Z-0.289 I0 J1
X-176.275 Y-78.862 Z-0.319 I0 J-1
X-176.275 Y-76.862 Z-0.35 I0 J1
X-176.275 Y-78.862 Z-0.38 I0 J-1
X-176.275 Y-76.862 Z-0.411 I0 J1
X-176.275 Y-78.862 Z-0.441 I0 J-1
X-176.275 Y-76.862 Z-0.472 I0 J1
X-176.275 Y-78.862 Z-0.503 I0 J-1
X-176.275 Y-76.862 Z-0.533 I0 J1
X-176.275 Y-78.862 Z-0.564 I0 J-1
X-176.275 Y-76.862 Z-0.594 I0 J1
X-176.275 Y-78.862 Z-0.625 I0 J-1
X-176.275 Y-76.862 Z-0.655 I0 J1
X-176.275 Y-78.862 Z-0.686 I0 J-1
X-176.275 Y-76.862 Z-0.716 I0 J1
X-176.275 Y-78.862 Z-0.747 I0 J-1
X-176.275 Y-76.862 Z-0.777 I0 J1
X-176.275 Y-78.862 Z-0.808 I0 J-1
X-176.275 Y-76.862 Z-0.839 I0 J1
X-176.275 Y-78.862 Z-0.869 I0 J-1
X-176.275 Y-76.862 Z-0.9 I0 J1
X-176.275 Y-78.862 Z-0.93 I0 J-1
X-176.275 Y-76.862 Z-0.961 I0 J1
X-176.275 Y-78.862 Z-0.991 I0 J-1
X-176.275 Y-76.862 Z-1.022 I0 J1
X-176.275 Y-78.862 Z-1.052 I0 J-1
X-176.275 Y-76.862 Z-1.083 I0 J1
X-176.275 Y-78.862 Z-1.113 I0 J-1
X-176.275 Y-76.862 Z-1.144 I0 J1
X-176.275 Y-78.862 Z-1.175 I0 J-1
X-176.275 Y-76.862 Z-1.205 I0 J1
X-176.275 Y-78.862 Z-1.236 I0 J-1
X-176.275 Y-76.862 Z-1.266 I0 J1
X-176.275 Y-78.862 Z-1.297 I0 J-1
X-176.275 Y-76.862 Z-1.327 I0 J1
X-176.275 Y-78.862 Z-1.358 I0 J-1
X-176.275 Y-76.862 Z-1.388 I0 J1
X-176.275 Y-78.862 Z-1.419 I0 J-1
X-176.275 Y-76.862 Z-1.45 I0 J1
X-176.275 Y-78.862 Z-1.48 I0 J-1
X-176.275 Y-76.862 Z-1.511 I0 J1
X-176.275 Y-78.862 Z-1.541 I0 J-1
X-176.275 Y-76.862 Z-1.572 I0 J1
X-176.275 Y-78.862 Z-1.602 I0 J-1
X-176.275 Y-76.862 Z-1.633 I0 J1
X-176.275 Y-78.862 Z-1.663 I0 J-1
X-176.275 Y-76.862 Z-1.694 I0 J1
X-176.275 Y-78.862 Z-1.724 I0 J-1
X-176.275 Y-76.862 Z-1.755 I0 J1
X-176.275 Y-78.862 Z-1.786 I0 J-1
X-176.275 Y-76.862 Z-1.816 I0 J1
X-176.275 Y-78.862 Z-1.847 I0 J-1
X-176.275 Y-76.862 Z-1.877 I0 J1
X-176.275 Y-78.862 Z-1.908 I0 J-1
X-176.275 Y-76.862 Z-1.938 I0 J1
X-176.275 Y-78.862 Z-1.969 I0 J-1
X-176.275 Y-76.862 Z-1.999 I0 J1
X-176.275 Y-78.862 Z-2.03 I0 J-1
X-176.275 Y-76.862 Z-2.06 I0 J1
X-176.275 Y-78.862 Z-2.091 I0 J-1
X-176.275 Y-76.862 Z-2.122 I0 J1
X-176.275 Y-78.862 Z-2.152 I0 J-1
X-176.275 Y-76.862 Z-2.183 I0 J1
X-177.251 Y-78.078 Z-2.2 I0 J-1
X-175.298 Y-77.647 I0.977 J0.215
X-177.251 Y-78.078 I-0.977 J-0.215
G1 X-177.234 Y-78.121
X-177.204 Y-78.158
X-177.165 Y-78.183
X-177.119 Y-78.195
X-177.073 Y-78.192
X-176.999 Y-78.176
X-176.954 Y-78.166 Z-2.193
X-176.913 Y-78.157 Z-2.171
X-176.881 Y-78.15 Z-2.138
X-176.86 Y-78.145 Z-2.096
X-176.853 Y-78.143 Z-2.05
G0 Z5
X-176.566 Y-104.902
Z2.2
G1 Z0.35 F400
Y-104.895 Z0.304
Y-104.873 Z0.262
Y-104.84 Z0.229
Y-104.798 Z0.207
Y-104.752 Z0.2
Y-104.677
X-176.574 Y-104.631
X-176.595 Y-104.589
X-176.628 Y-104.556
X-176.67 Y-104.534
X-176.716 Y-104.527
G3 X-176.716 Y-106.527 Z0.169 I0 J-1 F600
X-176.716 Y-104.527 Z0.139 I0 J1
X-176.716 Y-106.527 Z0.108 I0 J-1
X-176.716 Y-104.527 Z0.078 I0 J1
X-176.716 Y-106.527 Z0.047 I0 J-1
X-176.716 Y-104.527 Z0.017 I0 J1
X-176.716 Y-106.527 Z-0.014 I0 J-1
X-176.716 Y-104.527 Z-0.044 I0 J1
X-176.716 Y-106.527 Z-0.075 I0 J-1
X-176.716 Y-104.527 Z-0.105 I0 J1
X-176.716 Y-106.527 Z-0.136 I0 J-1
X-176.716 Y-104.527 Z-0.167 I0 J1
X-176.716 Y-106.527 Z-0.197 I0 J-1
X-176.716 Y-104.527 Z-0.228 I0 J1
X-176.716 Y-106.527 Z-0.258 I0 J-1
X-176.716 Y-104.527 Z-0.289 I0 J1
X-176.716 Y-106.527 Z-0.319 I0 J-1
X-176.716 Y-104.527 Z-0.35 I0 J1
X-176.716 Y-106.527 Z-0.38 I0 J-1
X-176.716 Y-104.527 Z-0.411 I0 J1
X-176.716 Y-106.527 Z-0.441 I0 J-1
X-176.716 Y-104.527 Z-0.472 I0 J1
X-176.716 Y-106.527 Z-0.503 I0 J-1
X-176.716 Y-104.527 Z-0.533 I0 J1
X-176.716 Y-106.527 Z-0.564 I0 J-1
X-176.716 Y-104.527 Z-0.594 I0 J1
X-176.716 Y-106.527 Z-0.625 I0 J-1
X-176.716 Y-104.527 Z-0.655 I0 J1
X-176.716 Y-106.527 Z-0.686 I0 J-1
X-176.716 Y-104.527 Z-0.716 I0 J1
X-176.716 Y-106.527 Z-0.747 I0 J-1
X-176.716 Y-104.527 Z-0.777 I0 J1
X-176.716 Y-106.527 Z-0.808 I0 J-1
X-176.716 Y-104.527 Z-0.839 I0 J1
X-176.716 Y-106.527 Z-0.869 I0 J-1
X-176.716 Y-104.527 Z-0.9 I0 J1
X-176.716 Y-106.527 Z-0.93 I0 J-1
X-176.716 Y-104.527 Z-0.961 I0 J1
X-176.716 Y-106.527 Z-0.991 I0 J-1
X-176.716 Y-104.527 Z-1.022 I0 J1
X-176.716 Y-106.527 Z-1.052 I0 J-1
X-176.716 Y-104.527 Z-1.083 I0 J1
X-176.716 Y-106.527 Z-1.113 I0 J-1
X-176.716 Y-104.527 Z-1.144 I0 J1
X-176.716 Y-106.527 Z-1.175 I0 J-1
X-176.716 Y-104.527 Z-1.205 I0 J1
X-176.716 Y-106.527 Z-1.236 I0 J-1
X-176.716 Y-104.527 Z-1.266 I0 J1
X-176.716 Y-106.527 Z-1.297 I0 J-1
X-176.716 Y-104.527 Z-1.327 I0 J1
X-176.716 Y-106.527 Z-1.358 I0 J-1
X-176.716 Y-104.527 Z-1.388 I0 J1
X-176.716 Y-106.527 Z-1.419 I0 J-1
X-176.716 Y-104.527 Z-1.45 I0 J1
X-176.716 Y-106.527 Z-1.48 I0 J-1
X-176.716 Y-104.527 Z-1.511 I0 J1
X-176.716 Y-106.527 Z-1.541 I0 J-1
X-176.716 Y-104.527 Z-1.572 I0 J1
X-176.716 Y-106.527 Z-1.602 I0 J-1
X-176.716 Y-104.527 Z-1.633 I0 J1
X-176.716 Y-106.527 Z-1.663 I0 J-1
X-176.716 Y-104.527 Z-1.694 I0 J1
X-176.716 Y-106.527 Z-1.724 I0 J-1
X-176.716 Y-104.527 Z-1.755 I0 J1
X-176.716 Y-106.527 Z-1.786 I0 J-1
X-176.716 Y-104.527 Z-1.816 I0 J1
X-176.716 Y-106.527 Z-1.847 I0 J-1
X-176.716 Y-104.527 Z-1.877 I0 J1
X-176.716 Y-106.527 Z-1.908 I0 J-1
X-176.716 Y-104.527 Z-1.938 I0 J1
X-176.716 Y-106.527 Z-1.969 I0 J-1
X-176.716 Y-104.527 Z-1.999 I0 J1
X-176.716 Y-106.527 Z-2.03 I0 J-1
X-176.716 Y-104.527 Z-2.06 I0 J1
X-176.716 Y-106.527 Z-2.091 I0 J-1
X-176.716 Y-104.527 Z-2.122 I0 J1
X-176.716 Y-106.527 Z-2.152 I0 J-1
X-176.716 Y-104.527 Z-2.183 I0 J1
X-177.693 Y-105.742 Z-2.2 I0 J-1
X-175.74 Y-105.312 I0.977 J0.215
X-177.693 Y-105.742 I-0.977 J-0.215
G1 X-177.676 Y-105.786
X-177.646 Y-105.822
X-177.606 Y-105.848
X-177.561 Y-105.859
X-177.514 Y-105.857
X-177.441 Y-105.84
X-177.396 Y-105.83 Z-2.193
X-177.355 Y-105.821 Z-2.171
X-177.322 Y-105.814 Z-2.138
X-177.301 Y-105.81 Z-2.096
X-177.294 Y-105.808 Z-2.05
G0 Z5
X-195.875 Y-111.987
Z2.2
G1 Z0.35 F400
Y-111.98 Z0.304
Y-111.959 Z0.262
Y-111.926 Z0.229
Y-111.884 Z0.207
Y-111.837 Z0.2
Y-111.762
X-195.882 Y-111.716
X-195.903 Y-111.674
X-195.937 Y-111.641
X-195.978 Y-111.62
X-196.025 Y-111.612
G3 X-196.025 Y-113.612 Z0.169 I0 J-1 F600
X-196.025 Y-111.612 Z0.139 I0 J1
X-196.025 Y-113.612 Z0.108 I0 J-1
X-196.025 Y-111.612 Z0.078 I0 J1
X-196.025 Y-113.612 Z0.047 I0 J-1
X-196.025 Y-111.612 Z0.017 I0 J1
X-196.025 Y-113.612 Z-0.014 I0 J-1
X-196.025 Y-111.612 Z-0.044 I0 J1
X-196.025 Y-113.612 Z-0.075 I0 J-1
X-196.025 Y-111.612 Z-0.105 I0 J1
X-196.025 Y-113.612 Z-0.136 I0 J-1
X-196.025 Y-111.612 Z-0.167 I0 J1
X-196.025 Y-113.612 Z-0.197 I0 J-1
X-196.025 Y-111.612 Z-0.228 I0 J1
X-196.025 Y-113.612 Z-0.258 I0 J-1
X-196.025 Y-111.612 Z-0.289 I0 J1
X-196.025 Y-113.612 Z-0.319 I0 J-1
X-196.025 Y-111.612 Z-0.35 I0 J1
X-196.025 Y-113.612 Z-0.38 I0 J-1
X-196.025 Y-111.612 Z-0.411 I0 J1
X-196.025 Y-113.612 Z-0.441 I0 J-1
X-196.025 Y-111.612 Z-0.472 I0 J1
X-196.025 Y-113.612 Z-0.503 I0 J-1
X-196.025 Y-111.612 Z-0.533 I0 J1
X-196.025 Y-113.612 Z-0.564 I0 J-1
X-196.025 Y-111.612 Z-0.594 I0 J1
X-196.025 Y-113.612 Z-0.625 I0 J-1
X-196.025 Y-111.612 Z-0.655 I0 J1
X-196.025 Y-113.612 Z-0.686 I0 J-1
X-196.025 Y-111.612 Z-0.716 I0 J1
X-196.025 Y-113.612 Z-0.747 I0 J-1
X-196.025 Y-111.612 Z-0.777 I0 J1
X-196.025 Y-113.612 Z-0.808 I0 J-1
X-196.025 Y-111.612 Z-0.839 I0 J1
X-196.025 Y-113.612 Z-0.869 I0 J-1
X-196.025 Y-111.612 Z-0.9 I0 J1
X-196.025 Y-113.612 Z-0.93 I0 J-1
X-196.025 Y-111.612 Z-0.961 I0 J1
X-196.025 Y-113.612 Z-0.991 I0 J-1
X-196.025 Y-111.612 Z-1.022 I0 J1
X-196.025 Y-113.612 Z-1.052 I0 J-1
X-196.025 Y-111.612 Z-1.083 I0 J1
X-196.025 Y-113.612 Z-1.113 I0 J-1
X-196.025 Y-111.612 Z-1.144 I0 J1
X-196.025 Y-113.612 Z-1.175 I0 J-1
X-196.025 Y-111.612 Z-1.205 I0 J1
X-196.025 Y-113.612 Z-1.236 I0 J-1
X-196.025 Y-111.612 Z-1.266 I0 J1
X-196.025 Y-113.612 Z-1.297 I0 J-1
X-196.025 Y-111.612 Z-1.327 I0 J1
X-196.025 Y-113.612 Z-1.358 I0 J-1
X-196.025 Y-111.612 Z-1.388 I0 J1
X-196.025 Y-113.612 Z-1.419 I0 J-1
X-196.025 Y-111.612 Z-1.45 I0 J1
X-196.025 Y-113.612 Z-1.48 I0 J-1
X-196.025 Y-111.612 Z-1.511 I0 J1
X-196.025 Y-113.612 Z-1.541 I0 J-1
X-196.025 Y-111.612 Z-1.572 I0 J1
X-196.025 Y-113.612 Z-1.602 I0 J-1
X-196.025 Y-111.612 Z-1.633 I0 J1
X-196.025 Y-113.612 Z-1.663 I0 J-1
X-196.025 Y-111.612 Z-1.694 I0 J1
X-196.025 Y-113.612 Z-1.724 I0 J-1
X-196.025 Y-111.612 Z-1.755 I0 J1
X-196.025 Y-113.612 Z-1.786 I0 J-1
X-196.025 Y-111.612 Z-1.816 I0 J1
X-196.025 Y-113.612 Z-1.847 I0 J-1
X-196.025 Y-111.612 Z-1.877 I0 J1
X-196.025 Y-113.612 Z-1.908 I0 J-1
X-196.025 Y-111.612 Z-1.938 I0 J1
X-196.025 Y-113.612 Z-1.969 I0 J-1
X-196.025 Y-111.612 Z-1.999 I0 J1
X-196.025 Y-113.612 Z-2.03 I0 J-1
X-196.025 Y-111.612 Z-2.06 I0 J1
X-196.025 Y-113.612 Z-2.091 I0 J-1
X-196.025 Y-111.612 Z-2.122 I0 J1
X-196.025 Y-113.612 Z-2.152 I0 J-1
X-196.025 Y-111.612 Z-2.183 I0 J1
X-197.001 Y-112.828 Z-2.2 I0 J-1
X-195.048 Y-112.397 I0.977 J0.215
X-197.001 Y-112.828 I-0.977 J-0.215
G1 X-196.984 Y-112.871
X-196.954 Y-112.908
X-196.915 Y-112.933
X-196.869 Y-112.945
X-196.823 Y-112.942
X-196.749 Y-112.926
X-196.704 Y-112.916 Z-2.193
X-196.663 Y-112.907 Z-2.171
X-196.631 Y-112.9 Z-2.138
X-196.61 Y-112.895 Z-2.096
X-196.603 Y-112.893 Z-2.05
G0 Z5
X-185.15 Y-153.013
Z2.2
G1 Z0.35 F400
Y-153.02 Z0.304
Y-153.041 Z0.262
Y-153.074 Z0.229
Y-153.116 Z0.207
Y-153.163 Z0.2
Y-153.238
X-185.143 Y-153.284
X-185.121 Y-153.326
X-185.088 Y-153.359
X-185.046 Y-153.38
X-185 Y-153.388
G3 X-185 Y-151.388 Z0.169 I0 J1 F600
X-185 Y-153.388 Z0.139 I0 J-1
X-185 Y-151.388 Z0.108 I0 J1
X-185 Y-153.388 Z0.078 I0 J-1
X-185 Y-151.388 Z0.047 I0 J1
X-185 Y-153.388 Z0.017 I0 J-1
X-185 Y-151.388 Z-0.014 I0 J1
X-185 Y-153.388 Z-0.044 I0 J-1
X-185 Y-151.388 Z-0.075 I0 J1
X-185 Y-153.388 Z-0.105 I0 J-1
X-185 Y-151.388 Z-0.136 I0 J1
X-185 Y-153.388 Z-0.167 I0 J-1
X-185 Y-151.388 Z-0.197 I0 J1
X-185 Y-153.388 Z-0.228 I0 J-1
X-185 Y-151.388 Z-0.258 I0 J1
X-185 Y-153.388 Z-0.289 I0 J-1
X-185 Y-151.388 Z-0.319 I0 J1
X-185 Y-153.388 Z-0.35 I0 J-1
X-185 Y-151.388 Z-0.38 I0 J1
X-185 Y-153.388 Z-0.411 I0 J-1
X-185 Y-151.388 Z-0.441 I0 J1
X-185 Y-153.388 Z-0.472 I0 J-1
X-185 Y-151.388 Z-0.503 I0 J1
X-185 Y-153.388 Z-0.533 I0 J-1
X-185 Y-151.388 Z-0.564 I0 J1
X-185 Y-153.388 Z-0.594 I0 J-1
X-185 Y-151.388 Z-0.625 I0 J1
X-185 Y-153.388 Z-0.655 I0 J-1
X-185 Y-151.388 Z-0.686 I0 J1
X-185 Y-153.388 Z-0.716 I0 J-1
X-185 Y-151.388 Z-0.747 I0 J1
X-185 Y-153.388 Z-0.777 I0 J-1
X-185 Y-151.388 Z-0.808 I0 J1
X-185 Y-153.388 Z-0.839 I0 J-1
X-185 Y-151.388 Z-0.869 I0 J1
X-185 Y-153.388 Z-0.9 I0 J-1
X-185 Y-151.388 Z-0.93 I0 J1
X-185 Y-153.388 Z-0.961 I0 J-1
X-185 Y-151.388 Z-0.991 I0 J1
X-185 Y-153.388 Z-1.022 I0 J-1
X-185 Y-151.388 Z-1.052 I0 J1
X-185 Y-153.388 Z-1.083 I0 J-1
X-185 Y-151.388 Z-1.113 I0 J1
X-185 Y-153.388 Z-1.144 I0 J-1
X-185 Y-151.388 Z-1.175 I0 J1
X-185 Y-153.388 Z-1.205 I0 J-1
X-185 Y-151.388 Z-1.236 I0 J1
X-185 Y-153.388 Z-1.266 I0 J-1
X-185 Y-151.388 Z-1.297 I0 J1
X-185 Y-153.388 Z-1.327 I0 J-1
X-185 Y-151.388 Z-1.358 I0 J1
X-185 Y-153.388 Z-1.388 I0 J-1
X-185 Y-151.388 Z-1.419 I0 J1
X-185 Y-153.388 Z-1.45 I0 J-1
X-185 Y-151.388 Z-1.48 I0 J1
X-185 Y-153.388 Z-1.511 I0 J-1
X-185 Y-151.388 Z-1.541 I0 J1
X-185 Y-153.388 Z-1.572 I0 J-1
X-185 Y-151.388 Z-1.602 I0 J1
X-185 Y-153.388 Z-1.633 I0 J-1
X-185 Y-151.388 Z-1.663 I0 J1
X-185 Y-153.388 Z-1.694 I0 J-1
X-185 Y-151.388 Z-1.724 I0 J1
X-185 Y-153.388 Z-1.755 I0 J-1
X-185 Y-151.388 Z-1.786 I0 J1
X-185 Y-153.388 Z-1.816 I0 J-1
X-185 Y-151.388 Z-1.847 I0 J1
X-185 Y-153.388 Z-1.877 I0 J-1
X-185 Y-151.388 Z-1.908 I0 J1
X-185 Y-153.388 Z-1.938 I0 J-1
X-185 Y-151.388 Z-1.969 I0 J1
X-185 Y-153.388 Z-1.999 I0 J-1
X-185 Y-151.388 Z-2.03 I0 J1
X-185 Y-153.388 Z-2.06 I0 J-1
X-185 Y-151.388 Z-2.091 I0 J1
X-185 Y-153.388 Z-2.122 I0 J-1
X-185 Y-151.388 Z-2.152 I0 J1
X-185 Y-153.388 Z-2.183 I0 J-1
X-184.023 Y-152.172 Z-2.2 I0 J1
X-185.977 Y-152.603 I-0.977 J-0.215
X-184.023 Y-152.172 I0.977 J0.215
G1 X-184.041 Y-152.129
X-184.07 Y-152.092
X-184.11 Y-152.067
X-184.155 Y-152.055
X-184.202 Y-152.058
X-184.275 Y-152.074
X-184.321 Y-152.084 Z-2.193
X-184.362 Y-152.093 Z-2.171
X-184.394 Y-152.1 Z-2.138
X-184.415 Y-152.105 Z-2.096
X-184.422 Y-152.107 Z-2.05
G0 Z5
X-184.863 Y-170.098
Z2.2
G1 Z0.35 F400
Y-170.105 Z0.304
Y-170.127 Z0.262
Y-170.16 Z0.229
Y-170.202 Z0.207
Y-170.248 Z0.2
Y-170.323
X-184.856 Y-170.369
X-184.835 Y-170.411
X-184.802 Y-170.444
X-184.76 Y-170.466
X-184.713 Y-170.473
G3 X-184.713 Y-168.473 Z0.169 I0 J1 F600
X-184.713 Y-170.473 Z0.139 I0 J-1
X-184.713 Y-168.473 Z0.108 I0 J1
X-184.713 Y-170.473 Z0.078 I0 J-1
X-184.713 Y-168.473 Z0.047 I0 J1
X-184.713 Y-170.473 Z0.017 I0 J-1
X-184.713 Y-168.473 Z-0.014 I0 J1
X-184.713 Y-170.473 Z-0.044 I0 J-1
X-184.713 Y-168.473 Z-0.075 I0 J1
X-184.713 Y-170.473 Z-0.105 I0 J-1
X-184.713 Y-168.473 Z-0.136 I0 J1
X-184.713 Y-170.473 Z-0.167 I0 J-1
X-184.713 Y-168.473 Z-0.197 I0 J1
X-184.713 Y-170.473 Z-0.228 I0 J-1
X-184.713 Y-168.473 Z-0.258 I0 J1
X-184.713 Y-170.473 Z-0.289 I0 J-1
X-184.713 Y-168.473 Z-0.319 I0 J1
X-184.713 Y-170.473 Z-0.35 I0 J-1
X-184.713 Y-168.473 Z-0.38 I0 J1
X-184.713 Y-170.473 Z-0.411 I0 J-1
X-184.713 Y-168.473 Z-0.441 I0 J1
X-184.713 Y-170.473 Z-0.472 I0 J-1
X-184.713 Y-168.473 Z-0.503 I0 J1
X-184.713 Y-170.473 Z-0.533 I0 J-1
X-184.713 Y-168.473 Z-0.564 I0 J1
X-184.713 Y-170.473 Z-0.594 I0 J-1
X-184.713 Y-168.473 Z-0.625 I0 J1
X-184.713 Y-170.473 Z-0.655 I0 J-1
X-184.713 Y-168.473 Z-0.686 I0 J1
X-184.713 Y-170.473 Z-0.716 I0 J-1
X-184.713 Y-168.473 Z-0.747 I0 J1
X-184.713 Y-170.473 Z-0.777 I0 J-1
X-184.713 Y-168.473 Z-0.808 I0 J1
X-184.713 Y-170.473 Z-0.839 I0 J-1
X-184.713 Y-168.473 Z-0.869 I0 J1
X-184.713 Y-170.473 Z-0.9 I0 J-1
X-184.713 Y-168.473 Z-0.93 I0 J1
X-184.713 Y-170.473 Z-0.961 I0 J-1
X-184.713 Y-168.473 Z-0.991 I0 J1
X-184.713 Y-170.473 Z-1.022 I0 J-1
X-184.713 Y-168.473 Z-1.052 I0 J1
X-184.713 Y-170.473 Z-1.083 I0 J-1
X-184.713 Y-168.473 Z-1.113 I0 J1
X-184.713 Y-170.473 Z-1.144 I0 J-1
X-184.713 Y-168.473 Z-1.175 I0 J1
X-184.713 Y-170.473 Z-1.205 I0 J-1
X-184.713 Y-168.473 Z-1.236 I0 J1
X-184.713 Y-170.473 Z-1.266 I0 J-1
X-184.713 Y-168.473 Z-1.297 I0 J1
X-184.713 Y-170.473 Z-1.327 I0 J-1
X-184.713 Y-168.473 Z-1.358 I0 J1
X-184.713 Y-170.473 Z-1.388 I0 J-1
X-184.713 Y-168.473 Z-1.419 I0 J1
X-184.713 Y-170.473 Z-1.45 I0 J-1
X-184.713 Y-168.473 Z-1.48 I0 J1
X-184.713 Y-170.473 Z-1.511 I0 J-1
X-184.713 Y-168.473 Z-1.541 I0 J1
X-184.713 Y-170.473 Z-1.572 I0 J-1
X-184.713 Y-168.473 Z-1.602 I0 J1
X-184.713 Y-170.473 Z-1.633 I0 J-1
X-184.713 Y-168.473 Z-1.663 I0 J1
X-184.713 Y-170.473 Z-1.694 I0 J-1
X-184.713 Y-168.473 Z-1.724 I0 J1
X-184.713 Y-170.473 Z-1.755 I0 J-1
X-184.713 Y-168.473 Z-1.786 I0 J1
X-184.713 Y-170.473 Z-1.816 I0 J-1
X-184.713 Y-168.473 Z-1.847 I0 J1
X-184.713 Y-170.473 Z-1.877 I0 J-1
X-184.713 Y-168.473 Z-1.908 I0 J1
X-184.713 Y-170.473 Z-1.938 I0 J-1
X-184.713 Y-168.473 Z-1.969 I0 J1
X-184.713 Y-170.473 Z-1.999 I0 J-1
X-184.713 Y-168.473 Z-2.03 I0 J1
X-184.713 Y-170.473 Z-2.06 I0 J-1
X-184.713 Y-168.473 Z-2.091 I0 J1
X-184.713 Y-170.473 Z-2.122 I0 J-1
X-184.713 Y-168.473 Z-2.152 I0 J1
X-184.713 Y-170.473 Z-2.183 I0 J-1
X-183.737 Y-169.258 Z-2.2 I0 J1
X-185.69 Y-169.688 I-0.977 J-0.215
X-183.737 Y-169.258 I0.977 J0.215
G1 X-183.754 Y-169.214
X-183.784 Y-169.178
X-183.823 Y-169.152
X-183.869 Y-169.141
X-183.916 Y-169.143
X-183.989 Y-169.16
X-184.034 Y-169.17 Z-2.193
X-184.075 Y-169.179 Z-2.171
X-184.107 Y-169.186 Z-2.138
X-184.128 Y-169.19 Z-2.096
X-184.135 Y-169.192 Z-2.05
G0 Z5
X-165.4 Y-172.763
Z2.2
G1 Z0.35 F400
Y-172.77 Z0.304
Y-172.791 Z0.262
Y-172.824 Z0.229
Y-172.866 Z0.207
Y-172.913 Z0.2
Y-172.988
X-165.393 Y-173.034
X-165.371 Y-173.076
X-165.338 Y-173.109
X-165.296 Y-173.13
X-165.25 Y-173.138
G3 X-165.25 Y-171.138 Z0.169 I0 J1 F600
X-165.25 Y-173.138 Z0.139 I0 J-1
X-165.25 Y-171.138 Z0.108 I0 J1
X-165.25 Y-173.138 Z0.078 I0 J-1
X-165.25 Y-171.138 Z0.047 I0 J1
X-165.25 Y-173.138 Z0.017 I0 J-1
X-165.25 Y-171.138 Z-0.014 I0 J1
X-165.25 Y-173.138 Z-0.044 I0 J-1
X-165.25 Y-171.138 Z-0.075 I0 J1
X-165.25 Y-173.138 Z-0.105 I0 J-1
X-165.25 Y-171.138 Z-0.136 I0 J1
X-165.25 Y-173.138 Z-0.167 I0 J-1
X-165.25 Y-171.138 Z-0.197 I0 J1
X-165.25 Y-173.138 Z-0.228 I0 J-1
X-165.25 Y-171.138 Z-0.258 I0 J1
X-165.25 Y-173.138 Z-0.289 I0 J-1
X-165.25 Y-171.138 Z-0.319 I0 J1
X-165.25 Y-173.138 Z-0.35 I0 J-1
X-165.25 Y-171.138 Z-0.38 I0 J1
X-165.25 Y-173.138 Z-0.411 I0 J-1
X-165.25 Y-171.138 Z-0.441 I0 J1
X-165.25 Y-173.138 Z-0.472 I0 J-1
X-165.25 Y-171.138 Z-0.503 I0 J1
X-165.25 Y-173.138 Z-0.533 I0 J-1
X-165.25 Y-171.138 Z-0.564 I0 J1
X-165.25 Y-173.138 Z-0.594 I0 J-1
X-165.25 Y-171.138 Z-0.625 I0 J1
X-165.25 Y-173.138 Z-0.655 I0 J-1
X-165.25 Y-171.138 Z-0.686 I0 J1
X-165.25 Y-173.138 Z-0.716 I0 J-1
X-165.25 Y-171.138 Z-0.747 I0 J1
X-165.25 Y-173.138 Z-0.777 I0 J-1
X-165.25 Y-171.138 Z-0.808 I0 J1
X-165.25 Y-173.138 Z-0.839 I0 J-1
X-165.25 Y-171.138 Z-0.869 I0 J1
X-165.25 Y-173.138 Z-0.9 I0 J-1
X-165.25 Y-171.138 Z-0.93 I0 J1
X-165.25 Y-173.138 Z-0.961 I0 J-1
X-165.25 Y-171.138 Z-0.991 I0 J1
X-165.25 Y-173.138 Z-1.022 I0 J-1
X-165.25 Y-171.138 Z-1.052 I0 J1
X-165.25 Y-173.138 Z-1.083 I0 J-1
X-165.25 Y-171.138 Z-1.113 I0 J1
X-165.25 Y-173.138 Z-1.144 I0 J-1
X-165.25 Y-171.138 Z-1.175 I0 J1
X-165.25 Y-173.138 Z-1.205 I0 J-1
X-165.25 Y-171.138 Z-1.236 I0 J1
