(X500_Kontur)
(T5  D=3.175 CR=0 - ZMIN=-2.2 - Schaftfraser)
G90 G94
G17
G21

(2D-Kontur4)
T5
S6000 M3
G54
G0 X-149.783 Y-103.549
Z20
Z5.2
G1 Z2.7 F333.3
S5000
X-149.595 Y-103.919 Z2.686
X-149.387 Y-104.276 Z2.671
X-149.185 Y-104.582 Z2.658
X-148.99 Y-104.838 Z2.647
X-148.805 Y-105.048 Z2.637
X-148.634 Y-105.211 Z2.629
X-148.482 Y-105.333 Z2.622
X-148.35 Y-105.417 Z2.617
X-148.24 Y-105.472 Z2.612
X-148.151 Y-105.503 Z2.609
X-148.081 Y-105.517 Z2.607
X-148.026 Y-105.521 Z2.605
X-147.964 Y-105.517 Z2.603
X-147.896 Y-105.502 Z2.6
X-147.807 Y-105.471 Z2.597
X-147.698 Y-105.417 Z2.593
X-147.566 Y-105.332 Z2.587
X-147.414 Y-105.21 Z2.58
X-147.245 Y-105.048 Z2.572
X-147.062 Y-104.841 Z2.563
X-146.869 Y-104.588 Z2.551
X-146.669 Y-104.288 Z2.539
X-146.467 Y-103.941 Z2.525
X-146.263 Y-103.545 Z2.509
X-146.061 Y-103.098 Z2.492
X-145.863 Y-102.602 Z2.473
X-145.67 Y-102.053 Z2.453
X-145.485 Y-101.451 Z2.431
X-145.311 Y-100.794 Z2.407
X-145.148 Y-100.08 Z2.382
X-145 Y-99.307 Z2.354
X-144.871 Y-98.474 Z2.325
X-144.763 Y-97.58 Z2.293
X-144.681 Y-96.626 Z2.26
X-144.63 Y-95.622 Z2.225
X-144.613 Y-94.582 Z2.189
X-144.633 Y-93.532 Z2.152
X-144.688 Y-92.504 Z2.116
X-144.777 Y-91.522 Z2.082
X-144.893 Y-90.599 Z2.049
X-145.031 Y-89.744 Z2.019
X-145.188 Y-88.956 Z1.991
X-145.36 Y-88.234 Z1.965
X-145.544 Y-87.573 Z1.941
X-145.737 Y-86.974 Z1.919
X-145.938 Y-86.43 Z1.899
X-146.142 Y-85.941 Z1.88
X-146.348 Y-85.509 Z1.863
X-146.556 Y-85.127 Z1.848
X-146.761 Y-84.795 Z1.835
X-146.96 Y-84.513 Z1.823
X-147.15 Y-84.28 Z1.812
X-147.329 Y-84.094 Z1.803
X-147.493 Y-83.949 Z1.795
X-147.636 Y-83.846 Z1.789
X-147.757 Y-83.777 Z1.784
X-147.856 Y-83.735 Z1.781
X-147.933 Y-83.713 Z1.778
X-147.996 Y-83.705 Z1.776
X-148.055 Z1.774
X-148.119 Y-83.714 Z1.771
X-148.198 Y-83.736 Z1.768
X-148.296 Y-83.778 Z1.765
X-148.417 Y-83.848 Z1.76
X-148.56 Y-83.951 Z1.754
X-148.721 Y-84.093 Z1.746
X-148.898 Y-84.278 Z1.737
X-149.086 Y-84.509 Z1.727
X-149.284 Y-84.787 Z1.715
X-149.485 Y-85.11 Z1.702
X-149.688 Y-85.483 Z1.687
X-149.891 Y-85.904 Z1.67
X-150.091 Y-86.377 Z1.653
X-150.288 Y-86.901 Z1.633
X-150.476 Y-87.476 Z1.612
X-150.655 Y-88.107 Z1.589
X-150.825 Y-88.793 Z1.564
X-150.979 Y-89.536 Z1.538
X-151.118 Y-90.34 Z1.509
X-151.237 Y-91.206 Z1.479
X-151.332 Y-92.131 Z1.446
X-151.399 Y-93.112 Z1.412
X-151.433 Y-94.137 Z1.376
X-151.432 Y-95.185 Z1.34
X-151.393 Y-96.228 Z1.303
X-151.32 Y-97.235 Z1.268
X-151.216 Y-98.188 Z1.234
X-151.088 Y-99.076 Z1.203
X-150.939 Y-99.896 Z1.174
X-150.774 Y-100.65 Z1.147
X-150.596 Y-101.34 Z1.122
X-150.407 Y-101.968 Z1.099
X-150.21 Y-102.539 Z1.078
X-150.007 Y-103.054 Z1.059
X-149.801 Y-103.514 Z1.041
X-149.595 Y-103.919 Z1.025
X-149.387 Y-104.276 Z1.011
X-149.185 Y-104.582 Z0.998
X-148.99 Y-104.838 Z0.987
X-148.805 Y-105.048 Z0.977
X-148.634 Y-105.211 Z0.969
X-148.482 Y-105.333 Z0.962
X-148.35 Y-105.417 Z0.957
X-148.24 Y-105.472 Z0.952
X-148.151 Y-105.503 Z0.949
X-148.081 Y-105.517 Z0.946
X-148.026 Y-105.521 Z0.945
X-147.964 Y-105.517 Z0.942
X-147.896 Y-105.502 Z0.94
X-147.807 Y-105.471 Z0.937
X-147.698 Y-105.417 Z0.932
X-147.566 Y-105.332 Z0.927
X-147.414 Y-105.21 Z0.92
X-147.245 Y-105.048 Z0.912
X-147.062 Y-104.841 Z0.902
X-146.869 Y-104.588 Z0.891
X-146.669 Y-104.288 Z0.879
X-146.467 Y-103.941 Z0.865
X-146.263 Y-103.545 Z0.849
X-146.061 Y-103.098 Z0.832
X-145.863 Y-102.602 Z0.813
X-145.67 Y-102.053 Z0.793
X-145.485 Y-101.451 Z0.771
X-145.311 Y-100.794 Z0.747
X-145.148 Y-100.08 Z0.722
X-145 Y-99.307 Z0.694
X-144.871 Y-98.474 Z0.665
X-144.763 Y-97.58 Z0.633
X-144.681 Y-96.626 Z0.6
X-144.63 Y-95.622 Z0.565
X-144.613 Y-94.582 Z0.528
X-144.633 Y-93.532 Z0.492
X-144.688 Y-92.504 Z0.456
X-144.777 Y-91.522 Z0.421
X-144.893 Y-90.599 Z0.389
X-145.031 Y-89.744 Z0.359
X-145.188 Y-88.956 Z0.331
X-145.36 Y-88.234 Z0.305
X-145.544 Y-87.573 Z0.281
X-145.737 Y-86.974 Z0.259
X-145.938 Y-86.43 Z0.238
X-146.142 Y-85.941 Z0.22
X-146.348 Y-85.509 Z0.203
X-146.556 Y-85.127 Z0.188
X-146.761 Y-84.795 Z0.174
X-146.96 Y-84.513 Z0.162
X-147.15 Y-84.28 Z0.152
X-147.329 Y-84.094 Z0.143
X-147.493 Y-83.949 Z0.135
X-147.636 Y-83.846 Z0.129
X-147.757 Y-83.777 Z0.124
X-147.856 Y-83.735 Z0.12
X-147.933 Y-83.713 Z0.118
X-147.996 Y-83.705 Z0.115
X-148.055 Z0.113
X-148.119 Y-83.714 Z0.111
X-148.198 Y-83.736 Z0.108
X-148.296 Y-83.778 Z0.104
X-148.417 Y-83.848 Z0.1
X-148.56 Y-83.951 Z0.093
X-148.721 Y-84.093 Z0.086
X-148.898 Y-84.278 Z0.077
X-149.086 Y-84.509 Z0.067
X-149.284 Y-84.787 Z0.055
X-149.485 Y-85.11 Z0.041
X-149.688 Y-85.483 Z0.027
X-149.891 Y-85.904 Z0.01
X-150.091 Y-86.377 Z-0.008
X-150.288 Y-86.901 Z-0.027
X-150.476 Y-87.476 Z-0.048
X-150.655 Y-88.107 Z-0.071
X-150.825 Y-88.793 Z-0.096
X-150.979 Y-89.536 Z-0.122
X-151.118 Y-90.34 Z-0.151
X-151.237 Y-91.206 Z-0.181
X-151.332 Y-92.131 Z-0.214
X-151.399 Y-93.112 Z-0.248
X-151.433 Y-94.137 Z-0.284
Y-94.593 Z-0.3
S6000
X-151.432 Y-95.185 F1000
X-151.393 Y-96.228
X-151.32 Y-97.235
X-151.216 Y-98.188
X-151.088 Y-99.076
X-150.939 Y-99.896
X-150.774 Y-100.65
X-150.596 Y-101.34
X-150.407 Y-101.968
X-150.21 Y-102.539
X-150.007 Y-103.054
X-149.801 Y-103.514
X-149.595 Y-103.919
X-149.387 Y-104.276
X-149.185 Y-104.582
X-148.99 Y-104.838
X-148.805 Y-105.048
X-148.634 Y-105.211
X-148.482 Y-105.333
X-148.35 Y-105.417
X-148.24 Y-105.472
X-148.151 Y-105.503
X-148.081 Y-105.517
X-148.026 Y-105.521
X-147.964 Y-105.517
X-147.896 Y-105.502
X-147.807 Y-105.471
X-147.698 Y-105.417
X-147.566 Y-105.332
X-147.414 Y-105.21
X-147.245 Y-105.048
X-147.062 Y-104.841
X-146.869 Y-104.588
X-146.669 Y-104.288
X-146.467 Y-103.941
X-146.263 Y-103.545
X-146.061 Y-103.098
X-145.863 Y-102.602
X-145.67 Y-102.053
X-145.485 Y-101.451
X-145.311 Y-100.794
X-145.148 Y-100.08
X-145 Y-99.307
X-144.871 Y-98.474
X-144.763 Y-97.58
X-144.681 Y-96.626
X-144.63 Y-95.622
X-144.613 Y-94.582
X-144.633 Y-93.532
X-144.688 Y-92.504
X-144.777 Y-91.522
X-144.893 Y-90.599
X-145.031 Y-89.744
X-145.188 Y-88.956
X-145.36 Y-88.234
X-145.544 Y-87.573
X-145.737 Y-86.974
X-145.938 Y-86.43
X-146.142 Y-85.941
X-146.348 Y-85.509
X-146.556 Y-85.127
X-146.761 Y-84.795
X-146.96 Y-84.513
X-147.15 Y-84.28
X-147.329 Y-84.094
X-147.493 Y-83.949
X-147.636 Y-83.846
X-147.757 Y-83.777
X-147.856 Y-83.735
X-147.933 Y-83.713
X-147.996 Y-83.705
X-148.055
X-148.119 Y-83.714
X-148.198 Y-83.736
X-148.296 Y-83.778
X-148.417 Y-83.848
X-148.56 Y-83.951
X-148.721 Y-84.093
X-148.898 Y-84.278
X-149.086 Y-84.509
X-149.284 Y-84.787
X-149.485 Y-85.11
X-149.688 Y-85.483
X-149.891 Y-85.904
X-150.091 Y-86.377
X-150.288 Y-86.901
X-150.476 Y-87.476
X-150.655 Y-88.107
X-150.825 Y-88.793
X-150.979 Y-89.536
X-151.118 Y-90.34
X-151.237 Y-91.206
X-151.332 Y-92.131
X-151.399 Y-93.112
X-151.433 Y-94.137
Y-94.593
S5000
X-151.432 Y-95.185 Z-0.321 F333.3
X-151.393 Y-96.228 Z-0.357
X-151.32 Y-97.235 Z-0.392
X-151.216 Y-98.188 Z-0.426
X-151.088 Y-99.076 Z-0.457
X-150.939 Y-99.896 Z-0.486
X-150.774 Y-100.65 Z-0.513
X-150.596 Y-101.34 Z-0.538
X-150.407 Y-101.968 Z-0.561
X-150.21 Y-102.539 Z-0.582
X-150.007 Y-103.054 Z-0.601
X-149.801 Y-103.514 Z-0.619
X-149.595 Y-103.919 Z-0.635
X-149.387 Y-104.276 Z-0.649
X-149.185 Y-104.582 Z-0.662
X-148.99 Y-104.838 Z-0.673
X-148.805 Y-105.048 Z-0.683
X-148.634 Y-105.211 Z-0.691
X-148.482 Y-105.333 Z-0.698
X-148.35 Y-105.417 Z-0.704
X-148.24 Y-105.472 Z-0.708
X-148.151 Y-105.503 Z-0.711
X-148.081 Y-105.517 Z-0.714
X-148.026 Y-105.521 Z-0.716
X-147.964 Y-105.517 Z-0.718
X-147.896 Y-105.502 Z-0.72
X-147.807 Y-105.471 Z-0.724
X-147.698 Y-105.417 Z-0.728
X-147.566 Y-105.332 Z-0.733
X-147.414 Y-105.21 Z-0.74
X-147.245 Y-105.048 Z-0.748
X-147.062 Y-104.841 Z-0.758
X-146.869 Y-104.588 Z-0.769
X-146.669 Y-104.288 Z-0.782
X-146.467 Y-103.941 Z-0.796
X-146.41 Y-103.831 Z-0.8
S6000
X-146.263 Y-103.545 F1000
X-146.061 Y-103.098
X-145.863 Y-102.602
X-145.67 Y-102.053
X-145.485 Y-101.451
X-145.311 Y-100.794
X-145.148 Y-100.08
X-145 Y-99.307
X-144.871 Y-98.474
X-144.763 Y-97.58
X-144.681 Y-96.626
X-144.63 Y-95.622
X-144.613 Y-94.582
X-144.633 Y-93.532
X-144.688 Y-92.504
X-144.777 Y-91.522
X-144.893 Y-90.599
X-145.031 Y-89.744
X-145.188 Y-88.956
X-145.36 Y-88.234
X-145.544 Y-87.573
X-145.737 Y-86.974
X-145.938 Y-86.43
X-146.142 Y-85.941
X-146.348 Y-85.509
X-146.556 Y-85.127
X-146.761 Y-84.795
X-146.96 Y-84.513
X-147.15 Y-84.28
X-147.329 Y-84.094
X-147.493 Y-83.949
X-147.636 Y-83.846
X-147.757 Y-83.777
X-147.856 Y-83.735
X-147.933 Y-83.713
X-147.996 Y-83.705
X-148.055
X-148.119 Y-83.714
X-148.198 Y-83.736
X-148.296 Y-83.778
X-148.417 Y-83.848
X-148.56 Y-83.951
X-148.721 Y-84.093
X-148.898 Y-84.278
X-149.086 Y-84.509
X-149.284 Y-84.787
X-149.485 Y-85.11
X-149.688 Y-85.483
X-149.891 Y-85.904
X-150.091 Y-86.377
X-150.288 Y-86.901
X-150.476 Y-87.476
X-150.655 Y-88.107
X-150.825 Y-88.793
X-150.979 Y-89.536
X-151.118 Y-90.34
X-151.237 Y-91.206
X-151.332 Y-92.131
X-151.399 Y-93.112
X-151.433 Y-94.137
X-151.432 Y-95.185
X-151.393 Y-96.228
X-151.32 Y-97.235
X-151.216 Y-98.188
X-151.088 Y-99.076
X-150.939 Y-99.896
X-150.774 Y-100.65
X-150.596 Y-101.34
X-150.407 Y-101.968
X-150.21 Y-102.539
X-150.007 Y-103.054
X-149.801 Y-103.514
X-149.595 Y-103.919
X-149.387 Y-104.276
X-149.185 Y-104.582
X-148.99 Y-104.838
X-148.805 Y-105.048
X-148.634 Y-105.211
X-148.482 Y-105.333
X-148.35 Y-105.417
X-148.24 Y-105.472
X-148.151 Y-105.503
X-148.081 Y-105.517
X-148.026 Y-105.521
X-147.964 Y-105.517
X-147.896 Y-105.502
X-147.807 Y-105.471
X-147.698 Y-105.417
X-147.566 Y-105.332
X-147.414 Y-105.21
X-147.245 Y-105.048
X-147.062 Y-104.841
X-146.869 Y-104.588
X-146.669 Y-104.288
X-146.467 Y-103.941
X-146.41 Y-103.831
S5000
X-146.263 Y-103.545 Z-0.811 F333.3
X-146.061 Y-103.098 Z-0.828
X-145.863 Y-102.602 Z-0.847
X-145.67 Y-102.053 Z-0.867
X-145.485 Y-101.451 Z-0.889
X-145.311 Y-100.794 Z-0.913
X-145.148 Y-100.08 Z-0.939
X-145 Y-99.307 Z-0.966
X-144.871 Y-98.474 Z-0.996
X-144.763 Y-97.58 Z-1.027
X-144.681 Y-96.626 Z-1.06
X-144.63 Y-95.622 Z-1.096
X-144.613 Y-94.582 Z-1.132
X-144.633 Y-93.532 Z-1.169
X-144.688 Y-92.504 Z-1.204
X-144.777 Y-91.522 Z-1.239
X-144.893 Y-90.599 Z-1.271
X-145.024 Y-89.791 Z-1.3
S6000
X-145.031 Y-89.744 F1000
X-145.188 Y-88.956
X-145.36 Y-88.234
X-145.544 Y-87.573
X-145.737 Y-86.974
X-145.938 Y-86.43
X-146.142 Y-85.941
X-146.348 Y-85.509
X-146.556 Y-85.127
X-146.761 Y-84.795
X-146.96 Y-84.513
X-147.15 Y-84.28
X-147.329 Y-84.094
X-147.493 Y-83.949
X-147.636 Y-83.846
X-147.757 Y-83.777
X-147.856 Y-83.735
X-147.933 Y-83.713
X-147.996 Y-83.705
X-148.055
X-148.119 Y-83.714
X-148.198 Y-83.736
X-148.296 Y-83.778
X-148.417 Y-83.848
X-148.56 Y-83.951
X-148.721 Y-84.093
X-148.898 Y-84.278
X-149.086 Y-84.509
X-149.284 Y-84.787
X-149.485 Y-85.11
X-149.688 Y-85.483
X-149.891 Y-85.904
X-150.091 Y-86.377
X-150.288 Y-86.901
X-150.476 Y-87.476
X-150.655 Y-88.107
X-150.825 Y-88.793
X-150.979 Y-89.536
X-151.118 Y-90.34
X-151.237 Y-91.206
X-151.332 Y-92.131
X-151.399 Y-93.112
X-151.433 Y-94.137
X-151.432 Y-95.185
X-151.393 Y-96.228
X-151.32 Y-97.235
X-151.216 Y-98.188
X-151.088 Y-99.076
X-150.939 Y-99.896
X-150.774 Y-100.65
X-150.596 Y-101.34
X-150.407 Y-101.968
X-150.21 Y-102.539
X-150.007 Y-103.054
X-149.801 Y-103.514
X-149.595 Y-103.919
X-149.387 Y-104.276
X-149.185 Y-104.582
X-148.99 Y-104.838
X-148.805 Y-105.048
X-148.634 Y-105.211
X-148.482 Y-105.333
X-148.35 Y-105.417
X-148.24 Y-105.472
X-148.151 Y-105.503
X-148.081 Y-105.517
X-148.026 Y-105.521
X-147.964 Y-105.517
X-147.896 Y-105.502
X-147.807 Y-105.471
X-147.698 Y-105.417
X-147.566 Y-105.332
X-147.414 Y-105.21
X-147.245 Y-105.048
X-147.062 Y-104.841
X-146.869 Y-104.588
X-146.669 Y-104.288
X-146.467 Y-103.941
X-146.263 Y-103.545
X-146.061 Y-103.098
X-145.863 Y-102.602
X-145.67 Y-102.053
X-145.485 Y-101.451
X-145.311 Y-100.794
X-145.148 Y-100.08
X-145 Y-99.307
X-144.871 Y-98.474
X-144.763 Y-97.58
X-144.681 Y-96.626
X-144.63 Y-95.622
X-144.613 Y-94.582
X-144.633 Y-93.532
X-144.688 Y-92.504
X-144.777 Y-91.522
X-144.893 Y-90.599
X-145.024 Y-89.791
S5000
X-145.031 Y-89.744 Z-1.302 F333.3
X-145.188 Y-88.956 Z-1.33
X-145.36 Y-88.234 Z-1.356
X-145.544 Y-87.573 Z-1.38
X-145.737 Y-86.974 Z-1.402
X-145.938 Y-86.43 Z-1.422
X-146.142 Y-85.941 Z-1.44
X-146.348 Y-85.509 Z-1.457
X-146.556 Y-85.127 Z-1.472
X-146.761 Y-84.795 Z-1.486
X-146.96 Y-84.513 Z-1.498
X-147.15 Y-84.28 Z-1.508
X-147.329 Y-84.094 Z-1.517
X-147.493 Y-83.949 Z-1.525
X-147.636 Y-83.846 Z-1.531
X-147.757 Y-83.777 Z-1.536
X-147.856 Y-83.735 Z-1.54
X-147.933 Y-83.713 Z-1.543
X-147.996 Y-83.705 Z-1.545
X-148.055 Z-1.547
X-148.119 Y-83.714 Z-1.549
X-148.198 Y-83.736 Z-1.552
X-148.296 Y-83.778 Z-1.556
X-148.417 Y-83.848 Z-1.561
X-148.56 Y-83.951 Z-1.567
X-148.721 Y-84.093 Z-1.574
X-148.898 Y-84.278 Z-1.583
X-149.086 Y-84.509 Z-1.594
X-149.284 Y-84.787 Z-1.606
X-149.485 Y-85.11 Z-1.619
X-149.688 Y-85.483 Z-1.634
X-149.891 Y-85.904 Z-1.65
X-150.091 Y-86.377 Z-1.668
X-150.288 Y-86.901 Z-1.687
X-150.476 Y-87.476 Z-1.709
X-150.655 Y-88.107 Z-1.731
X-150.825 Y-88.793 Z-1.756
X-150.979 Y-89.536 Z-1.783
X-151.064 Y-90.025 Z-1.8
S6000
X-151.118 Y-90.34 F1000
X-151.237 Y-91.206
X-151.332 Y-92.131
X-151.399 Y-93.112
X-151.433 Y-94.137
X-151.432 Y-95.185
X-151.393 Y-96.228
X-151.32 Y-97.235
X-151.216 Y-98.188
X-151.088 Y-99.076
X-150.939 Y-99.896
X-150.774 Y-100.65
X-150.596 Y-101.34
X-150.407 Y-101.968
X-150.21 Y-102.539
X-150.007 Y-103.054
X-149.801 Y-103.514
X-149.595 Y-103.919
X-149.387 Y-104.276
X-149.185 Y-104.582
X-148.99 Y-104.838
X-148.805 Y-105.048
X-148.634 Y-105.211
X-148.482 Y-105.333
X-148.35 Y-105.417
X-148.24 Y-105.472
X-148.151 Y-105.503
X-148.081 Y-105.517
X-148.026 Y-105.521
X-147.964 Y-105.517
X-147.896 Y-105.502
X-147.807 Y-105.471
X-147.698 Y-105.417
X-147.566 Y-105.332
X-147.414 Y-105.21
X-147.245 Y-105.048
X-147.062 Y-104.841
X-146.869 Y-104.588
X-146.669 Y-104.288
X-146.467 Y-103.941
X-146.263 Y-103.545
X-146.061 Y-103.098
X-145.863 Y-102.602
X-145.67 Y-102.053
X-145.485 Y-101.451
X-145.311 Y-100.794
X-145.148 Y-100.08
X-145 Y-99.307
X-144.871 Y-98.474
X-144.763 Y-97.58
X-144.681 Y-96.626
X-144.63 Y-95.622
X-144.613 Y-94.582
X-144.633 Y-93.532
X-144.688 Y-92.504
X-144.777 Y-91.522
X-144.893 Y-90.599
X-145.024 Y-89.791
X-145.031 Y-89.744
X-145.188 Y-88.956
X-145.36 Y-88.234
X-145.544 Y-87.573
X-145.737 Y-86.974
X-145.938 Y-86.43
X-146.142 Y-85.941
X-146.348 Y-85.509
X-146.556 Y-85.127
X-146.761 Y-84.795
X-146.96 Y-84.513
X-147.15 Y-84.28
X-147.329 Y-84.094
X-147.493 Y-83.949
X-147.636 Y-83.846
X-147.757 Y-83.777
X-147.856 Y-83.735
X-147.933 Y-83.713
X-147.996 Y-83.705
X-148.055
X-148.119 Y-83.714
X-148.198 Y-83.736
X-148.296 Y-83.778
X-148.417 Y-83.848
X-148.56 Y-83.951
X-148.721 Y-84.093
X-148.898 Y-84.278
X-149.086 Y-84.509
X-149.284 Y-84.787
X-149.485 Y-85.11
X-149.688 Y-85.483
X-149.891 Y-85.904
X-150.091 Y-86.377
X-150.288 Y-86.901
X-150.476 Y-87.476
X-150.655 Y-88.107
X-150.825 Y-88.793
X-150.979 Y-89.536
X-151.064 Y-90.025
S5000
X-151.118 Y-90.34 Z-1.811 F333.3
X-151.237 Y-91.206 Z-1.842
X-151.332 Y-92.131 Z-1.874
X-151.399 Y-93.112 Z-1.908
X-151.433 Y-94.137 Z-1.944
X-151.432 Y-95.185 Z-1.981
X-151.393 Y-96.228 Z-2.017
X-151.32 Y-97.235 Z-2.053
X-151.216 Y-98.188 Z-2.086
X-151.088 Y-99.076 Z-2.117
X-150.939 Y-99.896 Z-2.147
X-150.774 Y-100.65 Z-2.173
X-150.596 Y-101.34 Z-2.198
X-150.582 Y-101.385 Z-2.2
S6000
X-150.407 Y-101.968 F1000
X-150.21 Y-102.539
X-150.007 Y-103.054
X-149.801 Y-103.514
X-149.595 Y-103.919
X-149.387 Y-104.276
X-149.185 Y-104.582
X-148.99 Y-104.838
X-148.805 Y-105.048
X-148.634 Y-105.211
X-148.482 Y-105.333
X-148.35 Y-105.417
X-148.24 Y-105.472
X-148.151 Y-105.503
X-148.081 Y-105.517
X-148.026 Y-105.521
X-147.964 Y-105.517
X-147.896 Y-105.502
X-147.807 Y-105.471
X-147.698 Y-105.417
X-147.566 Y-105.332
X-147.414 Y-105.21
X-147.245 Y-105.048
X-147.062 Y-104.841
X-146.869 Y-104.588
X-146.669 Y-104.288
X-146.467 Y-103.941
X-146.263 Y-103.545
X-146.061 Y-103.098
X-145.863 Y-102.602
X-145.67 Y-102.053
X-145.485 Y-101.451
X-145.311 Y-100.794
X-145.148 Y-100.08
X-145 Y-99.307
X-144.871 Y-98.474
X-144.763 Y-97.58
X-144.681 Y-96.626
X-144.63 Y-95.622
X-144.613 Y-94.582
X-144.633 Y-93.532
X-144.688 Y-92.504
X-144.777 Y-91.522
X-144.893 Y-90.599
X-145.031 Y-89.744
X-145.188 Y-88.956
X-145.36 Y-88.234
X-145.544 Y-87.573
X-145.737 Y-86.974
X-145.938 Y-86.43
X-146.142 Y-85.941
X-146.348 Y-85.509
X-146.556 Y-85.127
X-146.761 Y-84.795
X-146.96 Y-84.513
X-147.15 Y-84.28
X-147.329 Y-84.094
X-147.493 Y-83.949
X-147.636 Y-83.846
X-147.757 Y-83.777
X-147.856 Y-83.735
X-147.933 Y-83.713
X-147.996 Y-83.705
X-148.055
X-148.119 Y-83.714
X-148.198 Y-83.736
X-148.296 Y-83.778
X-148.417 Y-83.848
X-148.56 Y-83.951
X-148.721 Y-84.093
X-148.898 Y-84.278
X-149.086 Y-84.509
X-149.284 Y-84.787
X-149.485 Y-85.11
X-149.688 Y-85.483
X-149.891 Y-85.904
X-150.091 Y-86.377
X-150.288 Y-86.901
X-150.476 Y-87.476
X-150.655 Y-88.107
X-150.825 Y-88.793
X-150.979 Y-89.536
X-151.064 Y-90.025
X-151.118 Y-90.34
X-151.237 Y-91.206
X-151.332 Y-92.131
X-151.399 Y-93.112
X-151.433 Y-94.137
X-151.432 Y-95.185
X-151.393 Y-96.228
X-151.32 Y-97.235
X-151.216 Y-98.188
X-151.088 Y-99.076
X-150.939 Y-99.896
X-150.774 Y-100.65
X-150.596 Y-101.34
X-150.582 Y-101.385
G0 Z10
X-154.852 Y-78.825
Z5.2
G1 Z2.7 F333.3
S5000
G3 X-155.026 Y-78.614 Z2.69 I-1.173 J-0.787
G1 Y-78.613
X-167.026 Y-66.614 Z2.098
G3 X-169.024 Y-66.613 Z2.02 I-0.999 J-0.998
X-169.024 Y-68.611 Z1.943 I0.999 J-0.999
G1 X-157.024 Y-80.611 Z1.35
G3 X-155.026 Y-78.614 Z1.195 I0.999 J0.999
G1 Y-78.613
X-167.026 Y-66.614 Z0.603
G3 X-169.024 Y-66.613 Z0.525 I-0.999 J-0.998
X-169.024 Y-68.611 Z0.448 I0.999 J-0.999
G1 X-157.024 Y-80.611 Z-0.145
G3 X-155.026 Y-78.614 Z-0.3 I0.999 J0.999
G1 Y-78.613
S6000
X-167.026 Y-66.614 F1000
G3 X-169.024 Y-66.613 I-0.999 J-0.998
X-169.024 Y-68.611 I0.999 J-0.999
G1 X-157.024 Y-80.611
G3 X-155.026 Y-78.614 I0.999 J0.999
G1 Y-78.613
S5000
X-165.15 Y-68.489 Z-0.8 F333.3
S6000
X-167.026 Y-66.614 F1000
G3 X-169.024 Y-66.613 I-0.999 J-0.998
X-169.024 Y-68.611 I0.999 J-0.999
G1 X-157.024 Y-80.611
G3 X-155.026 Y-78.614 I0.999 J0.999
G1 Y-78.613
X-165.15 Y-68.489
S5000
X-167.026 Y-66.614 Z-0.893 F333.3
G3 X-169.024 Y-66.613 Z-0.97 I-0.999 J-0.998
X-169.024 Y-68.611 Z-1.048 I0.999 J-0.999
G1 X-163.913 Y-73.722 Z-1.3
S6000
X-157.024 Y-80.611 F1000
G3 X-155.026 Y-78.614 I0.999 J0.999
G1 X-165.15 Y-68.489
X-167.026 Y-66.614
G3 X-169.024 Y-66.613 I-0.999 J-0.998
X-169.024 Y-68.611 I0.999 J-0.999
G1 X-163.913 Y-73.722
S5000
X-157.024 Y-80.611 Z-1.64 F333.3
G3 X-155.026 Y-78.614 Z-1.795 I0.999 J0.999
G1 X-155.123 Y-78.516 Z-1.8
S6000
X-167.026 Y-66.614 F1000
G3 X-169.024 Y-66.613 I-0.999 J-0.998
X-169.024 Y-68.611 I0.999 J-0.999
G1 X-157.024 Y-80.611
G3 X-155.026 Y-78.614 I0.999 J0.999
G1 X-155.123 Y-78.516
S5000
X-163.223 Y-70.416 Z-2.2 F333.3
S6000
X-167.026 Y-66.614 F1000
G3 X-169.024 Y-66.613 I-0.999 J-0.998
X-169.024 Y-68.611 I0.999 J-0.999
G1 X-157.024 Y-80.611
G3 X-155.026 Y-78.614 I0.999 J0.999
G1 X-163.223 Y-70.416
G0 Z10
X-167.238 Y-58.786
Z5.2
G1 Z2.7 F333.3
S5000
G3 X-167.026 Y-58.611 Z2.69 I-0.787 J1.173
G1 X-155.026 Y-46.611 Z2.098
G3 X-157.024 Y-44.614 Z1.943 I-0.999 J0.999
G1 X-169.023 Y-56.614 Z1.35
G3 X-169.024 Y-58.612 Z1.273 I0.999 J-0.999
X-167.026 Y-58.611 Z1.195 I0.999 J0.999
G1 X-155.026 Y-46.611 Z0.603
G3 X-157.024 Y-44.614 Z0.448 I-0.999 J0.999
G1 X-169.023 Y-56.614 Z-0.145
G3 X-169.024 Y-58.612 Z-0.223 I0.999 J-0.999
X-167.026 Y-58.611 Z-0.3 I0.999 J0.999
S6000
G1 X-155.026 Y-46.611 F1000
G3 X-157.024 Y-44.614 I-0.999 J0.999
G1 X-169.023 Y-56.614
G3 X-169.024 Y-58.612 I0.999 J-0.999
X-167.026 Y-58.611 I0.999 J0.999
S5000
G1 X-156.901 Y-48.487 Z-0.8 F333.3
S6000
X-155.026 Y-46.611 F1000
G3 X-157.024 Y-44.614 I-0.999 J0.999
G1 X-169.023 Y-56.614
G3 X-169.024 Y-58.612 I0.999 J-0.999
X-167.026 Y-58.611 I0.999 J0.999
G1 X-156.901 Y-48.487
S5000
X-155.026 Y-46.611 Z-0.893 F333.3
G3 X-157.024 Y-44.614 Z-1.048 I-0.999 J0.999
G1 X-162.135 Y-49.725 Z-1.3
S6000
X-169.023 Y-56.614 F1000
G3 X-169.024 Y-58.612 I0.999 J-0.999
X-167.026 Y-58.611 I0.999 J0.999
G1 X-156.901 Y-48.487
X-155.026 Y-46.611
G3 X-157.024 Y-44.614 I-0.999 J0.999
G1 X-162.135 Y-49.725
S5000
X-169.023 Y-56.614 Z-1.64 F333.3
G3 X-169.024 Y-58.612 Z-1.718 I0.999 J-0.999
X-167.026 Y-58.611 Z-1.795 I0.999 J0.999
G1 X-166.929 Y-58.514 Z-1.8
S6000
X-155.026 Y-46.611 F1000
G3 X-157.024 Y-44.614 I-0.999 J0.999
G1 X-169.023 Y-56.614
G3 X-169.024 Y-58.612 I0.999 J-0.999
X-167.026 Y-58.611 I0.999 J0.999
G1 X-166.929 Y-58.514
S5000
X-158.829 Y-50.415 Z-2.2 F333.3
S6000
X-155.026 Y-46.611 F1000
G3 X-157.024 Y-44.614 I-0.999 J0.999
G1 X-169.023 Y-56.614
G3 X-169.024 Y-58.612 I0.999 J-0.999
X-167.026 Y-58.611 I0.999 J0.999
G1 X-158.829 Y-50.415
G0 Z10
X-146.267 Y-21.676
Z5.2
G1 Z2.7 F333.3
S5000
X-146.456 Y-21.304 Z2.685
X-146.662 Y-20.949 Z2.671
X-146.864 Y-20.644 Z2.658
X-147.06 Y-20.387 Z2.647
X-147.245 Y-20.178 Z2.637
X-147.416 Y-20.013 Z2.629
X-147.569 Y-19.891 Z2.622
X-147.701 Y-19.806 Z2.617
X-147.81 Y-19.752 Z2.612
X-147.897 Y-19.722 Z2.609
X-147.969 Y-19.707 Z2.607
X-148.023 Y-19.704 Z2.605
X-148.085 Y-19.708 Z2.603
X-148.155 Y-19.723 Z2.6
X-148.242 Y-19.753 Z2.597
X-148.351 Y-19.808 Z2.593
X-148.483 Y-19.893 Z2.587
X-148.635 Y-20.015 Z2.58
X-148.805 Y-20.178 Z2.572
X-148.988 Y-20.384 Z2.562
X-149.181 Y-20.637 Z2.551
X-149.38 Y-20.936 Z2.539
X-149.582 Y-21.283 Z2.525
X-149.786 Y-21.681 Z2.509
X-149.988 Y-22.128 Z2.492
X-150.188 Y-22.624 Z2.473
X-150.38 Y-23.172 Z2.453
X-150.565 Y-23.774 Z2.431
X-150.739 Y-24.431 Z2.407
X-150.902 Y-25.144 Z2.382
X-151.048 Y-25.917 Z2.354
X-151.178 Y-26.751 Z2.325
X-151.286 Y-27.645 Z2.293
X-151.368 Y-28.599 Z2.26
X-151.42 Y-29.604 Z2.225
X-151.437 Y-30.643 Z2.189
X-151.417 Y-31.692 Z2.152
X-151.361 Y-32.721 Z2.116
X-151.273 Y-33.703 Z2.082
X-151.156 Y-34.625 Z2.049
X-151.019 Y-35.481 Z2.019
X-150.861 Y-36.269 Z1.991
X-150.69 Y-36.991 Z1.965
X-150.505 Y-37.651 Z1.941
X-150.313 Y-38.252 Z1.919
X-150.113 Y-38.794 Z1.899
X-149.908 Y-39.282 Z1.88
X-149.701 Y-39.717 Z1.863
X-149.493 Y-40.099 Z1.848
X-149.289 Y-40.43 Z1.835
X-149.091 Y-40.711 Z1.823
X-148.899 Y-40.945 Z1.812
X-148.72 Y-41.132 Z1.803
X-148.557 Y-41.276 Z1.795
X-148.414 Y-41.379 Z1.789
X-148.293 Y-41.448 Z1.784
X-148.195 Y-41.489 Z1.781
X-148.117 Y-41.511 Z1.778
X-148.053 Y-41.52 Z1.776
X-147.995 Z1.774
X-147.931 Y-41.511 Z1.771
X-147.852 Y-41.489 Z1.768
X-147.754 Y-41.447 Z1.765
X-147.633 Y-41.377 Z1.76
X-147.49 Y-41.274 Z1.754
X-147.329 Y-41.132 Z1.746
X-147.151 Y-40.945 Z1.737
X-146.963 Y-40.716 Z1.727
X-146.767 Y-40.439 Z1.715
X-146.565 Y-40.115 Z1.702
X-146.362 Y-39.742 Z1.687
X-146.158 Y-39.319 Z1.67
X-145.958 Y-38.848 Z1.653
X-145.763 Y-38.325 Z1.633
X-145.574 Y-37.748 Z1.612
X-145.394 Y-37.118 Z1.589
X-145.225 Y-36.432 Z1.564
X-145.07 Y-35.688 Z1.538
X-144.931 Y-34.884 Z1.509
X-144.813 Y-34.02 Z1.479
X-144.718 Y-33.094 Z1.446
X-144.651 Y-32.113 Z1.412
X-144.617 Y-31.088 Z1.376
X-144.618 Y-30.039 Z1.339
X-144.656 Y-28.997 Z1.303
X-144.73 Y-27.99 Z1.268
X-144.833 Y-27.037 Z1.234
X-144.962 Y-26.15 Z1.203
X-145.111 Y-25.328 Z1.174
X-145.275 Y-24.575 Z1.147
X-145.454 Y-23.885 Z1.122
X-145.643 Y-23.256 Z1.099
X-145.84 Y-22.686 Z1.078
X-146.042 Y-22.172 Z1.059
X-146.249 Y-21.711 Z1.041
X-146.456 Y-21.304 Z1.025
X-146.662 Y-20.949 Z1.011
X-146.864 Y-20.644 Z0.998
X-147.06 Y-20.387 Z0.987
X-147.245 Y-20.178 Z0.977
X-147.416 Y-20.013 Z0.969
X-147.569 Y-19.891 Z0.962
X-147.701 Y-19.806 Z0.956
X-147.81 Y-19.752 Z0.952
X-147.897 Y-19.722 Z0.949
X-147.969 Y-19.707 Z0.946
X-148.023 Y-19.704 Z0.945
X-148.085 Y-19.708 Z0.942
X-148.155 Y-19.723 Z0.94
X-148.242 Y-19.753 Z0.937
X-148.351 Y-19.808 Z0.932
X-148.483 Y-19.893 Z0.927
X-148.635 Y-20.015 Z0.92
X-148.805 Y-20.178 Z0.912
X-148.988 Y-20.384 Z0.902
X-149.181 Y-20.637 Z0.891
X-149.38 Y-20.936 Z0.879
X-149.582 Y-21.283 Z0.865
X-149.786 Y-21.681 Z0.849
X-149.988 Y-22.128 Z0.832
X-150.188 Y-22.624 Z0.813
X-150.38 Y-23.172 Z0.793
X-150.565 Y-23.774 Z0.771
X-150.739 Y-24.431 Z0.747
X-150.902 Y-25.144 Z0.722
X-151.048 Y-25.917 Z0.694
X-151.178 Y-26.751 Z0.665
X-151.286 Y-27.645 Z0.633
X-151.368 Y-28.599 Z0.6
X-151.42 Y-29.604 Z0.565
X-151.437 Y-30.643 Z0.528
X-151.417 Y-31.692 Z0.492
X-151.361 Y-32.721 Z0.456
X-151.273 Y-33.703 Z0.421
X-151.156 Y-34.625 Z0.389
X-151.019 Y-35.481 Z0.359
X-150.861 Y-36.269 Z0.331
X-150.69 Y-36.991 Z0.305
X-150.505 Y-37.651 Z0.281
X-150.313 Y-38.252 Z0.259
X-150.113 Y-38.794 Z0.238
X-149.908 Y-39.282 Z0.22
X-149.701 Y-39.717 Z0.203
X-149.493 Y-40.099 Z0.188
X-149.289 Y-40.43 Z0.174
X-149.091 Y-40.711 Z0.162
X-148.899 Y-40.945 Z0.152
X-148.72 Y-41.132 Z0.143
X-148.557 Y-41.276 Z0.135
X-148.414 Y-41.379 Z0.129
X-148.293 Y-41.448 Z0.124
X-148.195 Y-41.489 Z0.12
X-148.117 Y-41.511 Z0.118
X-148.053 Y-41.52 Z0.115
X-147.995 Z0.113
X-147.931 Y-41.511 Z0.111
X-147.852 Y-41.489 Z0.108
X-147.754 Y-41.447 Z0.104
X-147.633 Y-41.377 Z0.1
X-147.49 Y-41.274 Z0.093
X-147.329 Y-41.132 Z0.086
X-147.151 Y-40.945 Z0.077
X-146.963 Y-40.716 Z0.067
X-146.767 Y-40.439 Z0.055
X-146.565 Y-40.115 Z0.041
X-146.362 Y-39.742 Z0.027
X-146.158 Y-39.319 Z0.01
X-145.958 Y-38.848 Z-0.008
X-145.763 Y-38.325 Z-0.027
X-145.574 Y-37.748 Z-0.048
X-145.394 Y-37.118 Z-0.071
X-145.225 Y-36.432 Z-0.096
X-145.07 Y-35.688 Z-0.122
X-144.931 Y-34.884 Z-0.151
X-144.813 Y-34.02 Z-0.181
X-144.718 Y-33.094 Z-0.214
X-144.651 Y-32.113 Z-0.248
X-144.617 Y-31.088 Z-0.284
Y-30.632 Z-0.3
S6000
X-144.618 Y-30.039 F1000
X-144.656 Y-28.997
X-144.73 Y-27.99
X-144.833 Y-27.037
X-144.962 Y-26.15
X-145.111 Y-25.328
X-145.275 Y-24.575
X-145.454 Y-23.885
X-145.643 Y-23.256
X-145.84 Y-22.686
X-146.042 Y-22.172
X-146.249 Y-21.711
X-146.456 Y-21.304
X-146.662 Y-20.949
X-146.864 Y-20.644
X-147.06 Y-20.387
X-147.245 Y-20.178
X-147.416 Y-20.013
X-147.569 Y-19.891
X-147.701 Y-19.806
X-147.81 Y-19.752
X-147.897 Y-19.722
X-147.969 Y-19.707
X-148.023 Y-19.704
X-148.085 Y-19.708
X-148.155 Y-19.723
X-148.242 Y-19.753
X-148.351 Y-19.808
X-148.483 Y-19.893
X-148.635 Y-20.015
X-148.805 Y-20.178
X-148.988 Y-20.384
X-149.181 Y-20.637
X-149.38 Y-20.936
X-149.582 Y-21.283
X-149.786 Y-21.681
X-149.988 Y-22.128
X-150.188 Y-22.624
X-150.38 Y-23.172
X-150.565 Y-23.774
X-150.739 Y-24.431
X-150.902 Y-25.144
X-151.048 Y-25.917
X-151.178 Y-26.751
X-151.286 Y-27.645
X-151.368 Y-28.599
X-151.42 Y-29.604
X-151.437 Y-30.643
X-151.417 Y-31.692
X-151.361 Y-32.721
X-151.273 Y-33.703
X-151.156 Y-34.625
X-151.019 Y-35.481
X-150.861 Y-36.269
X-150.69 Y-36.991
X-150.505 Y-37.651
X-150.313 Y-38.252
X-150.113 Y-38.794
X-149.908 Y-39.282
X-149.701 Y-39.717
X-149.493 Y-40.099
X-149.289 Y-40.43
X-149.091 Y-40.711
X-148.899 Y-40.945
X-148.72 Y-41.132
X-148.557 Y-41.276
X-148.414 Y-41.379
X-148.293 Y-41.448
X-148.195 Y-41.489
X-148.117 Y-41.511
X-148.053 Y-41.52
X-147.995
X-147.931 Y-41.511
X-147.852 Y-41.489
X-147.754 Y-41.447
X-147.633 Y-41.377
X-147.49 Y-41.274
X-147.329 Y-41.132
X-147.151 Y-40.945
X-146.963 Y-40.716
X-146.767 Y-40.439
X-146.565 Y-40.115
X-146.362 Y-39.742
X-146.158 Y-39.319
X-145.958 Y-38.848
X-145.763 Y-38.325
X-145.574 Y-37.748
X-145.394 Y-37.118
X-145.225 Y-36.432
X-145.07 Y-35.688
X-144.931 Y-34.884
X-144.813 Y-34.02
X-144.718 Y-33.094
X-144.651 Y-32.113
X-144.617 Y-31.088
Y-30.632
S5000
X-144.618 Y-30.039 Z-0.321 F333.3
X-144.656 Y-28.997 Z-0.357
X-144.73 Y-27.99 Z-0.392
X-144.833 Y-27.037 Z-0.426
X-144.962 Y-26.15 Z-0.457
X-145.111 Y-25.328 Z-0.486
X-145.275 Y-24.575 Z-0.513
X-145.454 Y-23.885 Z-0.538
X-145.643 Y-23.256 Z-0.561
X-145.84 Y-22.686 Z-0.582
X-146.042 Y-22.172 Z-0.601
X-146.249 Y-21.711 Z-0.619
X-146.456 Y-21.304 Z-0.635
X-146.662 Y-20.949 Z-0.649
X-146.864 Y-20.644 Z-0.662
X-147.06 Y-20.387 Z-0.673
X-147.245 Y-20.178 Z-0.683
X-147.416 Y-20.013 Z-0.691
X-147.569 Y-19.891 Z-0.698
X-147.701 Y-19.806 Z-0.704
X-147.81 Y-19.752 Z-0.708
X-147.897 Y-19.722 Z-0.711
X-147.969 Y-19.707 Z-0.714
X-148.023 Y-19.704 Z-0.716
X-148.085 Y-19.708 Z-0.718
X-148.155 Y-19.723 Z-0.72
X-148.242 Y-19.753 Z-0.724
X-148.351 Y-19.808 Z-0.728
X-148.483 Y-19.893 Z-0.733
X-148.635 Y-20.015 Z-0.74
X-148.805 Y-20.178 Z-0.748
X-148.988 Y-20.384 Z-0.758
X-149.181 Y-20.637 Z-0.769
X-149.38 Y-20.936 Z-0.782
X-149.582 Y-21.283 Z-0.796
X-149.639 Y-21.394 Z-0.8
S6000
X-149.786 Y-21.681 F1000
X-149.988 Y-22.128
X-150.188 Y-22.624
X-150.38 Y-23.172
X-150.565 Y-23.774
X-150.739 Y-24.431
X-150.902 Y-25.144
X-151.048 Y-25.917
X-151.178 Y-26.751
X-151.286 Y-27.645
X-151.368 Y-28.599
X-151.42 Y-29.604
X-151.437 Y-30.643
X-151.417 Y-31.692
X-151.361 Y-32.721
X-151.273 Y-33.703
X-151.156 Y-34.625
X-151.019 Y-35.481
X-150.861 Y-36.269
X-150.69 Y-36.991
X-150.505 Y-37.651
X-150.313 Y-38.252
X-150.113 Y-38.794
X-149.908 Y-39.282
X-149.701 Y-39.717
X-149.493 Y-40.099
X-149.289 Y-40.43
X-149.091 Y-40.711
X-148.899 Y-40.945
X-148.72 Y-41.132
X-148.557 Y-41.276
X-148.414 Y-41.379
X-148.293 Y-41.448
X-148.195 Y-41.489
X-148.117 Y-41.511
X-148.053 Y-41.52
X-147.995
X-147.931 Y-41.511
X-147.852 Y-41.489
X-147.754 Y-41.447
X-147.633 Y-41.377
X-147.49 Y-41.274
X-147.329 Y-41.132
X-147.151 Y-40.945
X-146.963 Y-40.716
X-146.767 Y-40.439
X-146.565 Y-40.115
X-146.362 Y-39.742
X-146.158 Y-39.319
X-145.958 Y-38.848
X-145.763 Y-38.325
X-145.574 Y-37.748
X-145.394 Y-37.118
X-145.225 Y-36.432
X-145.07 Y-35.688
X-144.931 Y-34.884
X-144.813 Y-34.02
X-144.718 Y-33.094
X-144.651 Y-32.113
X-144.617 Y-31.088
X-144.618 Y-30.039
X-144.656 Y-28.997
X-144.73 Y-27.99
X-144.833 Y-27.037
X-144.962 Y-26.15
X-145.111 Y-25.328
X-145.275 Y-24.575
X-145.454 Y-23.885
X-145.643 Y-23.256
X-145.84 Y-22.686
X-146.042 Y-22.172
X-146.249 Y-21.711
X-146.456 Y-21.304
X-146.662 Y-20.949
X-146.864 Y-20.644
X-147.06 Y-20.387
X-147.245 Y-20.178
X-147.416 Y-20.013
X-147.569 Y-19.891
X-147.701 Y-19.806
X-147.81 Y-19.752
X-147.897 Y-19.722
X-147.969 Y-19.707
X-148.023 Y-19.704
X-148.085 Y-19.708
X-148.155 Y-19.723
X-148.242 Y-19.753
X-148.351 Y-19.808
X-148.483 Y-19.893
X-148.635 Y-20.015
X-148.805 Y-20.178
X-148.988 Y-20.384
X-149.181 Y-20.637
X-149.38 Y-20.936
X-149.582 Y-21.283
X-149.639 Y-21.394
S5000
X-149.786 Y-21.681 Z-0.811 F333.3
X-149.988 Y-22.128 Z-0.828
X-150.188 Y-22.624 Z-0.847
X-150.38 Y-23.172 Z-0.867
X-150.565 Y-23.774 Z-0.889
X-150.739 Y-24.431 Z-0.913
X-150.902 Y-25.144 Z-0.939
X-151.048 Y-25.917 Z-0.966
X-151.178 Y-26.751 Z-0.996
X-151.286 Y-27.645 Z-1.027
X-151.368 Y-28.599 Z-1.06
X-151.42 Y-29.604 Z-1.096
X-151.437 Y-30.643 Z-1.132
X-151.417 Y-31.692 Z-1.168
X-151.361 Y-32.721 Z-1.204
X-151.273 Y-33.703 Z-1.239
X-151.156 Y-34.625 Z-1.271
X-151.026 Y-35.434 Z-1.3
S6000
X-151.019 Y-35.481 F1000
X-150.861 Y-36.269
X-150.69 Y-36.991
X-150.505 Y-37.651
X-150.313 Y-38.252
X-150.113 Y-38.794
X-149.908 Y-39.282
X-149.701 Y-39.717
X-149.493 Y-40.099
X-149.289 Y-40.43
X-149.091 Y-40.711
X-148.899 Y-40.945
X-148.72 Y-41.132
X-148.557 Y-41.276
X-148.414 Y-41.379
X-148.293 Y-41.448
X-148.195 Y-41.489
X-148.117 Y-41.511
X-148.053 Y-41.52
X-147.995
X-147.931 Y-41.511
X-147.852 Y-41.489
X-147.754 Y-41.447
X-147.633 Y-41.377
X-147.49 Y-41.274
X-147.329 Y-41.132
X-147.151 Y-40.945
X-146.963 Y-40.716
X-146.767 Y-40.439
X-146.565 Y-40.115
X-146.362 Y-39.742
X-146.158 Y-39.319
X-145.958 Y-38.848
X-145.763 Y-38.325
X-145.574 Y-37.748
X-145.394 Y-37.118
X-145.225 Y-36.432
X-145.07 Y-35.688
X-144.931 Y-34.884
X-144.813 Y-34.02
X-144.718 Y-33.094
X-144.651 Y-32.113
X-144.617 Y-31.088
X-144.618 Y-30.039
X-144.656 Y-28.997
X-144.73 Y-27.99
X-144.833 Y-27.037
X-144.962 Y-26.15
X-145.111 Y-25.328
X-145.275 Y-24.575
X-145.454 Y-23.885
X-145.643 Y-23.256
X-145.84 Y-22.686
X-146.042 Y-22.172
X-146.249 Y-21.711
X-146.456 Y-21.304
X-146.662 Y-20.949
X-146.864 Y-20.644
X-147.06 Y-20.387
X-147.245 Y-20.178
X-147.416 Y-20.013
X-147.569 Y-19.891
X-147.701 Y-19.806
X-147.81 Y-19.752
X-147.897 Y-19.722
X-147.969 Y-19.707
X-148.023 Y-19.704
X-148.085 Y-19.708
X-148.155 Y-19.723
X-148.242 Y-19.753
X-148.351 Y-19.808
X-148.483 Y-19.893
X-148.635 Y-20.015
X-148.805 Y-20.178
X-148.988 Y-20.384
X-149.181 Y-20.637
X-149.38 Y-20.936
X-149.582 Y-21.283
X-149.786 Y-21.681
X-149.988 Y-22.128
X-150.188 Y-22.624
X-150.38 Y-23.172
X-150.565 Y-23.774
X-150.739 Y-24.431
X-150.902 Y-25.144
X-151.048 Y-25.917
X-151.178 Y-26.751
X-151.286 Y-27.645
X-151.368 Y-28.599
X-151.42 Y-29.604
X-151.437 Y-30.643
X-151.417 Y-31.692
X-151.361 Y-32.721
X-151.273 Y-33.703
X-151.156 Y-34.625
X-151.026 Y-35.434
S5000
X-151.019 Y-35.481 Z-1.302 F333.3
X-150.861 Y-36.269 Z-1.33
X-150.69 Y-36.991 Z-1.356
X-150.505 Y-37.651 Z-1.38
X-150.313 Y-38.252 Z-1.402
X-150.113 Y-38.794 Z-1.422
X-149.908 Y-39.282 Z-1.44
X-149.701 Y-39.717 Z-1.457
X-149.493 Y-40.099 Z-1.472
X-149.289 Y-40.43 Z-1.486
X-149.091 Y-40.711 Z-1.498
X-148.899 Y-40.945 Z-1.508
X-148.72 Y-41.132 Z-1.517
X-148.557 Y-41.276 Z-1.525
X-148.414 Y-41.379 Z-1.531
X-148.293 Y-41.448 Z-1.536
X-148.195 Y-41.489 Z-1.54
X-148.117 Y-41.511 Z-1.543
X-148.053 Y-41.52 Z-1.545
X-147.995 Z-1.547
X-147.931 Y-41.511 Z-1.549
X-147.852 Y-41.489 Z-1.552
X-147.754 Y-41.447 Z-1.556
X-147.633 Y-41.377 Z-1.561
X-147.49 Y-41.274 Z-1.567
X-147.329 Y-41.132 Z-1.574
X-147.151 Y-40.945 Z-1.583
X-146.963 Y-40.716 Z-1.594
X-146.767 Y-40.439 Z-1.605
X-146.565 Y-40.115 Z-1.619
X-146.362 Y-39.742 Z-1.634
X-146.158 Y-39.319 Z-1.65
X-145.958 Y-38.848 Z-1.668
X-145.763 Y-38.325 Z-1.687
X-145.574 Y-37.748 Z-1.709
X-145.394 Y-37.118 Z-1.731
X-145.225 Y-36.432 Z-1.756
X-145.07 Y-35.688 Z-1.783
X-144.985 Y-35.2 Z-1.8
S6000
X-144.931 Y-34.884 F1000
X-144.813 Y-34.02
X-144.718 Y-33.094
X-144.651 Y-32.113
X-144.617 Y-31.088
X-144.618 Y-30.039
X-144.656 Y-28.997
X-144.73 Y-27.99
X-144.833 Y-27.037
X-144.962 Y-26.15
X-145.111 Y-25.328
X-145.275 Y-24.575
X-145.454 Y-23.885
X-145.643 Y-23.256
X-145.84 Y-22.686
X-146.042 Y-22.172
X-146.249 Y-21.711
X-146.456 Y-21.304
X-146.662 Y-20.949
X-146.864 Y-20.644
X-147.06 Y-20.387
X-147.245 Y-20.178
X-147.416 Y-20.013
X-147.569 Y-19.891
X-147.701 Y-19.806
X-147.81 Y-19.752
X-147.897 Y-19.722
X-147.969 Y-19.707
X-148.023 Y-19.704
X-148.085 Y-19.708
X-148.155 Y-19.723
X-148.242 Y-19.753
X-148.351 Y-19.808
X-148.483 Y-19.893
X-148.635 Y-20.015
X-148.805 Y-20.178
X-148.988 Y-20.384
X-149.181 Y-20.637
X-149.38 Y-20.936
X-149.582 Y-21.283
X-149.786 Y-21.681
X-149.988 Y-22.128
X-150.188 Y-22.624
X-150.38 Y-23.172
X-150.565 Y-23.774
X-150.739 Y-24.431
X-150.902 Y-25.144
X-151.048 Y-25.917
X-151.178 Y-26.751
X-151.286 Y-27.645
X-151.368 Y-28.599
X-151.42 Y-29.604
X-151.437 Y-30.643
X-151.417 Y-31.692
X-151.361 Y-32.721
X-151.273 Y-33.703
X-151.156 Y-34.625
X-151.026 Y-35.434
X-151.019 Y-35.481
X-150.861 Y-36.269
X-150.69 Y-36.991
X-150.505 Y-37.651
X-150.313 Y-38.252
X-150.113 Y-38.794
X-149.908 Y-39.282
X-149.701 Y-39.717
X-149.493 Y-40.099
X-149.289 Y-40.43
X-149.091 Y-40.711
X-148.899 Y-40.945
X-148.72 Y-41.132
X-148.557 Y-41.276
X-148.414 Y-41.379
X-148.293 Y-41.448
X-148.195 Y-41.489
X-148.117 Y-41.511
X-148.053 Y-41.52
X-147.995
X-147.931 Y-41.511
X-147.852 Y-41.489
X-147.754 Y-41.447
X-147.633 Y-41.377
X-147.49 Y-41.274
X-147.329 Y-41.132
X-147.151 Y-40.945
X-146.963 Y-40.716
X-146.767 Y-40.439
X-146.565 Y-40.115
X-146.362 Y-39.742
X-146.158 Y-39.319
X-145.958 Y-38.848
X-145.763 Y-38.325
X-145.574 Y-37.748
X-145.394 Y-37.118
X-145.225 Y-36.432
X-145.07 Y-35.688
X-144.985 Y-35.2
S5000
X-144.931 Y-34.884 Z-1.811 F333.3
X-144.813 Y-34.02 Z-1.842
X-144.718 Y-33.094 Z-1.874
X-144.651 Y-32.113 Z-1.908
X-144.617 Y-31.088 Z-1.944
X-144.618 Y-30.039 Z-1.981
X-144.656 Y-28.997 Z-2.017
X-144.73 Y-27.99 Z-2.053
X-144.833 Y-27.037 Z-2.086
X-144.962 Y-26.15 Z-2.117
X-145.111 Y-25.328 Z-2.147
X-145.275 Y-24.575 Z-2.173
X-145.454 Y-23.885 Z-2.198
X-145.468 Y-23.84 Z-2.2
S6000
X-145.643 Y-23.256 F1000
X-145.84 Y-22.686
X-146.042 Y-22.172
X-146.249 Y-21.711
X-146.456 Y-21.304
X-146.662 Y-20.949
X-146.864 Y-20.644
X-147.06 Y-20.387
X-147.245 Y-20.178
X-147.416 Y-20.013
X-147.569 Y-19.891
X-147.701 Y-19.806
X-147.81 Y-19.752
X-147.897 Y-19.722
X-147.969 Y-19.707
X-148.023 Y-19.704
X-148.085 Y-19.708
X-148.155 Y-19.723
X-148.242 Y-19.753
X-148.351 Y-19.808
X-148.483 Y-19.893
X-148.635 Y-20.015
X-148.805 Y-20.178
X-148.988 Y-20.384
X-149.181 Y-20.637
X-149.38 Y-20.936
X-149.582 Y-21.283
X-149.786 Y-21.681
X-149.988 Y-22.128
X-150.188 Y-22.624
X-150.38 Y-23.172
X-150.565 Y-23.774
X-150.739 Y-24.431
X-150.902 Y-25.144
X-151.048 Y-25.917
X-151.178 Y-26.751
X-151.286 Y-27.645
X-151.368 Y-28.599
X-151.42 Y-29.604
X-151.437 Y-30.643
X-151.417 Y-31.692
X-151.361 Y-32.721
X-151.273 Y-33.703
X-151.156 Y-34.625
X-151.019 Y-35.481
X-150.861 Y-36.269
X-150.69 Y-36.991
X-150.505 Y-37.651
X-150.313 Y-38.252
X-150.113 Y-38.794
X-149.908 Y-39.282
X-149.701 Y-39.717
X-149.493 Y-40.099
X-149.289 Y-40.43
X-149.091 Y-40.711
X-148.899 Y-40.945
X-148.72 Y-41.132
X-148.557 Y-41.276
X-148.414 Y-41.379
X-148.293 Y-41.448
X-148.195 Y-41.489
X-148.117 Y-41.511
X-148.053 Y-41.52
X-147.995
X-147.931 Y-41.511
X-147.852 Y-41.489
X-147.754 Y-41.447
X-147.633 Y-41.377
X-147.49 Y-41.274
X-147.329 Y-41.132
X-147.151 Y-40.945
X-146.963 Y-40.716
X-146.767 Y-40.439
X-146.565 Y-40.115
X-146.362 Y-39.742
X-146.158 Y-39.319
X-145.958 Y-38.848
X-145.763 Y-38.325
X-145.574 Y-37.748
X-145.394 Y-37.118
X-145.225 Y-36.432
X-145.07 Y-35.688
X-144.985 Y-35.2
X-144.931 Y-34.884
X-144.813 Y-34.02
X-144.718 Y-33.094
X-144.651 Y-32.113
X-144.617 Y-31.088
X-144.618 Y-30.039
X-144.656 Y-28.997
X-144.73 Y-27.99
X-144.833 Y-27.037
X-144.962 Y-26.15
X-145.111 Y-25.328
X-145.275 Y-24.575
X-145.454 Y-23.885
X-145.468 Y-23.84
G0 Z10
X-184.089 Y-34.371
Z5.2
G1 Z2.7 F333.3
S5000
X-183.717 Y-34.181 Z2.685
X-183.361 Y-33.975 Z2.671
X-183.055 Y-33.773 Z2.658
X-182.8 Y-33.578 Z2.647
X-182.59 Y-33.392 Z2.637
X-182.425 Y-33.221 Z2.629
X-182.304 Y-33.069 Z2.622
X-182.219 Y-32.937 Z2.617
X-182.165 Y-32.828 Z2.612
X-182.134 Y-32.739 Z2.609
X-182.12 Y-32.668 Z2.607
X-182.116 Y-32.614 Z2.605
X-182.12 Y-32.552 Z2.603
X-182.135 Y-32.483 Z2.6
X-182.165 Y-32.396 Z2.597
X-182.22 Y-32.287 Z2.593
X-182.307 Y-32.153 Z2.587
X-182.427 Y-32.002 Z2.58
X-182.589 Y-31.833 Z2.572
X-182.797 Y-31.649 Z2.562
X-183.049 Y-31.456 Z2.551
X-183.349 Y-31.257 Z2.539
X-183.697 Y-31.055 Z2.525
X-184.094 Y-30.851 Z2.509
X-184.54 Y-30.649 Z2.492
X-185.036 Y-30.45 Z2.473
X-185.585 Y-30.258 Z2.453
X-186.186 Y-30.073 Z2.431
X-186.843 Y-29.898 Z2.407
X-187.557 Y-29.736 Z2.382
X-188.33 Y-29.588 Z2.354
X-189.163 Y-29.459 Z2.325
X-190.058 Y-29.351 Z2.293
X-191.011 Y-29.269 Z2.26
X-192.016 Y-29.217 Z2.225
X-193.055 Y-29.2 Z2.189
X-194.104 Y-29.22 Z2.152
X-195.133 Y-29.276 Z2.116
X-196.116 Y-29.364 Z2.081
X-197.038 Y-29.48 Z2.049
X-197.893 Y-29.619 Z2.019
X-198.681 Y-29.776 Z1.991
X-199.403 Y-29.948 Z1.965
X-200.064 Y-30.132 Z1.941
X-200.664 Y-30.325 Z1.919
X-201.208 Y-30.525 Z1.899
X-201.695 Y-30.729 Z1.88
X-202.128 Y-30.936 Z1.863
X-202.511 Y-31.144 Z1.848
X-202.842 Y-31.348 Z1.835
X-203.124 Y-31.548 Z1.823
X-203.358 Y-31.739 Z1.812
X-203.544 Y-31.917 Z1.803
X-203.687 Y-32.079 Z1.795
X-203.791 Y-32.223 Z1.789
X-203.861 Y-32.345 Z1.784
X-203.902 Y-32.443 Z1.781
X-203.924 Y-32.519 Z1.778
X-203.932 Y-32.584 Z1.776
Y-32.644 Z1.773
X-203.924 Y-32.706 Z1.771
X-203.902 Y-32.783 Z1.768
X-203.859 Y-32.884 Z1.765
X-203.789 Y-33.005 Z1.76
X-203.687 Y-33.146 Z1.754
X-203.544 Y-33.308 Z1.746
X-203.358 Y-33.486 Z1.737
X-203.128 Y-33.674 Z1.727
X-202.852 Y-33.871 Z1.715
X-202.528 Y-34.072 Z1.702
X-202.154 Y-34.275 Z1.687
X-201.732 Y-34.479 Z1.67
X-201.261 Y-34.679 Z1.652
X-200.737 Y-34.875 Z1.633
X-200.161 Y-35.064 Z1.612
X-199.531 Y-35.244 Z1.589
X-198.844 Y-35.412 Z1.564
X-198.101 Y-35.567 Z1.538
X-197.297 Y-35.706 Z1.509
X-196.432 Y-35.825 Z1.479
X-195.507 Y-35.92 Z1.446
X-194.525 Y-35.987 Z1.412
X-193.5 Y-36.021 Z1.376
X-192.452 Y-36.019 Z1.339
X-191.409 Y-35.98 Z1.303
X-190.402 Y-35.907 Z1.268
X-189.449 Y-35.804 Z1.234
X-188.561 Y-35.675 Z1.203
X-187.742 Y-35.527 Z1.174
X-186.987 Y-35.361 Z1.147
X-186.297 Y-35.183 Z1.122
X-185.668 Y-34.994 Z1.099
X-185.098 Y-34.798 Z1.078
X-184.584 Y-34.595 Z1.059
X-184.124 Y-34.389 Z1.041
X-183.717 Y-34.181 Z1.025
X-183.361 Y-33.975 Z1.011
X-183.055 Y-33.773 Z0.998
X-182.8 Y-33.578 Z0.987
X-182.59 Y-33.392 Z0.977
X-182.425 Y-33.221 Z0.969
X-182.304 Y-33.069 Z0.962
X-182.219 Y-32.937 Z0.956
X-182.165 Y-32.828 Z0.952
X-182.134 Y-32.739 Z0.949
X-182.12 Y-32.668 Z0.946
X-182.116 Y-32.614 Z0.944
X-182.12 Y-32.552 Z0.942
X-182.135 Y-32.483 Z0.94
X-182.165 Y-32.396 Z0.937
X-182.22 Y-32.287 Z0.932
X-182.307 Y-32.153 Z0.927
X-182.427 Y-32.002 Z0.92
X-182.589 Y-31.833 Z0.912
X-182.797 Y-31.649 Z0.902
X-183.049 Y-31.456 Z0.891
X-183.349 Y-31.257 Z0.879
X-183.697 Y-31.055 Z0.864
X-184.094 Y-30.851 Z0.849
X-184.54 Y-30.649 Z0.832
X-185.036 Y-30.45 Z0.813
X-185.585 Y-30.258 Z0.793
X-186.186 Y-30.073 Z0.771
X-186.843 Y-29.898 Z0.747
X-187.557 Y-29.736 Z0.722
X-188.33 Y-29.588 Z0.694
X-189.163 Y-29.459 Z0.665
X-190.058 Y-29.351 Z0.633
X-191.011 Y-29.269 Z0.6
X-192.016 Y-29.217 Z0.565
X-193.055 Y-29.2 Z0.528
X-194.104 Y-29.22 Z0.492
X-195.133 Y-29.276 Z0.456
X-196.116 Y-29.364 Z0.421
X-197.038 Y-29.48 Z0.389
X-197.893 Y-29.619 Z0.359
X-198.681 Y-29.776 Z0.33
X-199.403 Y-29.948 Z0.305
X-200.064 Y-30.132 Z0.281
X-200.664 Y-30.325 Z0.259
X-201.208 Y-30.525 Z0.238
X-201.695 Y-30.729 Z0.22
X-202.128 Y-30.936 Z0.203
X-202.511 Y-31.144 Z0.188
X-202.842 Y-31.348 Z0.174
X-203.124 Y-31.548 Z0.162
X-203.358 Y-31.739 Z0.152
X-203.544 Y-31.917 Z0.143
X-203.687 Y-32.079 Z0.135
X-203.791 Y-32.223 Z0.129
X-203.861 Y-32.345 Z0.124
X-203.902 Y-32.443 Z0.12
X-203.924 Y-32.519 Z0.118
X-203.932 Y-32.584 Z0.115
Y-32.644 Z0.113
X-203.924 Y-32.706 Z0.111
X-203.902 Y-32.783 Z0.108
X-203.859 Y-32.884 Z0.104
X-203.789 Y-33.005 Z0.1
X-203.687 Y-33.146 Z0.093
X-203.544 Y-33.308 Z0.086
X-203.358 Y-33.486 Z0.077
X-203.128 Y-33.674 Z0.067
X-202.852 Y-33.871 Z0.055
X-202.528 Y-34.072 Z0.041
X-202.154 Y-34.275 Z0.027
X-201.732 Y-34.479 Z0.01
X-201.261 Y-34.679 Z-0.008
X-200.737 Y-34.875 Z-0.027
X-200.161 Y-35.064 Z-0.048
X-199.531 Y-35.244 Z-0.071
X-198.844 Y-35.412 Z-0.096
X-198.101 Y-35.567 Z-0.123
X-197.297 Y-35.706 Z-0.151
X-196.432 Y-35.825 Z-0.181
X-195.507 Y-35.92 Z-0.214
X-194.525 Y-35.987 Z-0.248
X-193.5 Y-36.021 Z-0.284
X-193.046 Y-36.02 Z-0.3
S6000
X-192.452 Y-36.019 F1000
X-191.409 Y-35.98
X-190.402 Y-35.907
X-189.449 Y-35.804
X-188.561 Y-35.675
X-187.742 Y-35.527
X-186.987 Y-35.361
X-186.297 Y-35.183
X-185.668 Y-34.994
X-185.098 Y-34.798
X-184.584 Y-34.595
X-184.124 Y-34.389
X-183.717 Y-34.181
X-183.361 Y-33.975
X-183.055 Y-33.773
X-182.8 Y-33.578
X-182.59 Y-33.392
X-182.425 Y-33.221
X-182.304 Y-33.069
X-182.219 Y-32.937
X-182.165 Y-32.828
X-182.134 Y-32.739
X-182.12 Y-32.668
X-182.116 Y-32.614
X-182.12 Y-32.552
X-182.135 Y-32.483
X-182.165 Y-32.396
X-182.22 Y-32.287
X-182.307 Y-32.153
X-182.427 Y-32.002
X-182.589 Y-31.833
X-182.797 Y-31.649
X-183.049 Y-31.456
X-183.349 Y-31.257
X-183.697 Y-31.055
X-184.094 Y-30.851
X-184.54 Y-30.649
X-185.036 Y-30.45
X-185.585 Y-30.258
X-186.186 Y-30.073
X-186.843 Y-29.898
X-187.557 Y-29.736
X-188.33 Y-29.588
X-189.163 Y-29.459
X-190.058 Y-29.351
X-191.011 Y-29.269
X-192.016 Y-29.217
X-193.055 Y-29.2
X-194.104 Y-29.22
X-195.133 Y-29.276
X-196.116 Y-29.364
X-197.038 Y-29.48
X-197.893 Y-29.619
X-198.681 Y-29.776
X-199.403 Y-29.948
X-200.064 Y-30.132
X-200.664 Y-30.325
X-201.208 Y-30.525
X-201.695 Y-30.729
X-202.128 Y-30.936
X-202.511 Y-31.144
X-202.842 Y-31.348
X-203.124 Y-31.548
X-203.358 Y-31.739
X-203.544 Y-31.917
X-203.687 Y-32.079
X-203.791 Y-32.223
X-203.861 Y-32.345
X-203.902 Y-32.443
X-203.924 Y-32.519
X-203.932 Y-32.584
Y-32.644
X-203.924 Y-32.706
X-203.902 Y-32.783
X-203.859 Y-32.884
X-203.789 Y-33.005
X-203.687 Y-33.146
X-203.544 Y-33.308
X-203.358 Y-33.486
X-203.128 Y-33.674
X-202.852 Y-33.871
X-202.528 Y-34.072
X-202.154 Y-34.275
X-201.732 Y-34.479
X-201.261 Y-34.679
X-200.737 Y-34.875
X-200.161 Y-35.064
X-199.531 Y-35.244
X-198.844 Y-35.412
X-198.101 Y-35.567
X-197.297 Y-35.706
X-196.432 Y-35.825
X-195.507 Y-35.92
X-194.525 Y-35.987
X-193.5 Y-36.021
X-193.046 Y-36.02
S5000
X-192.452 Y-36.019 Z-0.321 F333.3
X-191.409 Y-35.98 Z-0.357
X-190.402 Y-35.907 Z-0.392
X-189.449 Y-35.804 Z-0.426
X-188.561 Y-35.675 Z-0.457
X-187.742 Y-35.527 Z-0.486
X-186.987 Y-35.361 Z-0.513
X-186.297 Y-35.183 Z-0.538
X-185.668 Y-34.994 Z-0.561
X-185.098 Y-34.798 Z-0.582
X-184.584 Y-34.595 Z-0.601
X-184.124 Y-34.389 Z-0.619
X-183.717 Y-34.181 Z-0.635
X-183.361 Y-33.975 Z-0.649
X-183.055 Y-33.773 Z-0.662
X-182.8 Y-33.578 Z-0.673
X-182.59 Y-33.392 Z-0.683
X-182.425 Y-33.221 Z-0.692
X-182.304 Y-33.069 Z-0.698
X-182.219 Y-32.937 Z-0.704
X-182.165 Y-32.828 Z-0.708
X-182.134 Y-32.739 Z-0.711
X-182.12 Y-32.668 Z-0.714
X-182.116 Y-32.614 Z-0.716
X-182.12 Y-32.552 Z-0.718
X-182.135 Y-32.483 Z-0.72
X-182.165 Y-32.396 Z-0.724
X-182.22 Y-32.287 Z-0.728
X-182.307 Y-32.153 Z-0.733
X-182.427 Y-32.002 Z-0.74
X-182.589 Y-31.833 Z-0.748
X-182.797 Y-31.649 Z-0.758
X-183.049 Y-31.456 Z-0.769
X-183.349 Y-31.257 Z-0.782
X-183.697 Y-31.055 Z-0.796
X-183.806 Y-30.999 Z-0.8
S6000
X-184.094 Y-30.851 F1000
X-184.54 Y-30.649
X-185.036 Y-30.45
X-185.585 Y-30.258
X-186.186 Y-30.073
X-186.843 Y-29.898
X-187.557 Y-29.736
X-188.33 Y-29.588
X-189.163 Y-29.459
X-190.058 Y-29.351
X-191.011 Y-29.269
X-192.016 Y-29.217
X-193.055 Y-29.2
X-194.104 Y-29.22
X-195.133 Y-29.276
X-196.116 Y-29.364
X-197.038 Y-29.48
X-197.893 Y-29.619
X-198.681 Y-29.776
X-199.403 Y-29.948
X-200.064 Y-30.132
X-200.664 Y-30.325
X-201.208 Y-30.525
X-201.695 Y-30.729
X-202.128 Y-30.936
X-202.511 Y-31.144
X-202.842 Y-31.348
X-203.124 Y-31.548
X-203.358 Y-31.739
X-203.544 Y-31.917
X-203.687 Y-32.079
X-203.791 Y-32.223
X-203.861 Y-32.345
X-203.902 Y-32.443
X-203.924 Y-32.519
X-203.932 Y-32.584
Y-32.644
X-203.924 Y-32.706
X-203.902 Y-32.783
X-203.859 Y-32.884
X-203.789 Y-33.005
X-203.687 Y-33.146
X-203.544 Y-33.308
X-203.358 Y-33.486
X-203.128 Y-33.674
X-202.852 Y-33.871
X-202.528 Y-34.072
X-202.154 Y-34.275
X-201.732 Y-34.479
X-201.261 Y-34.679
X-200.737 Y-34.875
X-200.161 Y-35.064
X-199.531 Y-35.244
X-198.844 Y-35.412
X-198.101 Y-35.567
X-197.297 Y-35.706
X-196.432 Y-35.825
X-195.507 Y-35.92
X-194.525 Y-35.987
X-193.5 Y-36.021
X-192.452 Y-36.019
X-191.409 Y-35.98
X-190.402 Y-35.907
X-189.449 Y-35.804
X-188.561 Y-35.675
X-187.742 Y-35.527
X-186.987 Y-35.361
X-186.297 Y-35.183
X-185.668 Y-34.994
X-185.098 Y-34.798
X-184.584 Y-34.595
X-184.124 Y-34.389
X-183.717 Y-34.181
X-183.361 Y-33.975
X-183.055 Y-33.773
X-182.8 Y-33.578
X-182.59 Y-33.392
X-182.425 Y-33.221
X-182.304 Y-33.069
X-182.219 Y-32.937
X-182.165 Y-32.828
X-182.134 Y-32.739
X-182.12 Y-32.668
X-182.116 Y-32.614
X-182.12 Y-32.552
X-182.135 Y-32.483
X-182.165 Y-32.396
X-182.22 Y-32.287
X-182.307 Y-32.153
X-182.427 Y-32.002
X-182.589 Y-31.833
X-182.797 Y-31.649
X-183.049 Y-31.456
X-183.349 Y-31.257
X-183.697 Y-31.055
X-183.806 Y-30.999
S5000
X-184.094 Y-30.851 Z-0.811 F333.3
X-184.54 Y-30.649 Z-0.828
X-185.036 Y-30.45 Z-0.847
X-185.585 Y-30.258 Z-0.867
X-186.186 Y-30.073 Z-0.889
X-186.843 Y-29.898 Z-0.913
X-187.557 Y-29.736 Z-0.939
X-188.33 Y-29.588 Z-0.966
X-189.163 Y-29.459 Z-0.996
X-190.058 Y-29.351 Z-1.027
X-191.011 Y-29.269 Z-1.06
X-192.016 Y-29.217 Z-1.096
X-193.055 Y-29.2 Z-1.132
X-194.104 Y-29.22 Z-1.169
X-195.133 Y-29.276 Z-1.205
X-196.116 Y-29.364 Z-1.239
X-197.038 Y-29.48 Z-1.271
X-197.845 Y-29.611 Z-1.3
S6000
X-197.893 Y-29.619 F1000
X-198.681 Y-29.776
X-199.403 Y-29.948
X-200.064 Y-30.132
X-200.664 Y-30.325
X-201.208 Y-30.525
X-201.695 Y-30.729
X-202.128 Y-30.936
X-202.511 Y-31.144
X-202.842 Y-31.348
X-203.124 Y-31.548
X-203.358 Y-31.739
X-203.544 Y-31.917
X-203.687 Y-32.079
X-203.791 Y-32.223
X-203.861 Y-32.345
X-203.902 Y-32.443
X-203.924 Y-32.519
X-203.932 Y-32.584
Y-32.644
X-203.924 Y-32.706
X-203.902 Y-32.783
X-203.859 Y-32.884
X-203.789 Y-33.005
X-203.687 Y-33.146
X-203.544 Y-33.308
X-203.358 Y-33.486
X-203.128 Y-33.674
X-202.852 Y-33.871
X-202.528 Y-34.072
X-202.154 Y-34.275
X-201.732 Y-34.479
X-201.261 Y-34.679
X-200.737 Y-34.875
X-200.161 Y-35.064
X-199.531 Y-35.244
X-198.844 Y-35.412
X-198.101 Y-35.567
X-197.297 Y-35.706
X-196.432 Y-35.825
X-195.507 Y-35.92
X-194.525 Y-35.987
X-193.5 Y-36.021
X-192.452 Y-36.019
X-191.409 Y-35.98
X-190.402 Y-35.907
X-189.449 Y-35.804
X-188.561 Y-35.675
X-187.742 Y-35.527
X-186.987 Y-35.361
X-186.297 Y-35.183
X-185.668 Y-34.994
X-185.098 Y-34.798
X-184.584 Y-34.595
X-184.124 Y-34.389
X-183.717 Y-34.181
X-183.361 Y-33.975
X-183.055 Y-33.773
X-182.8 Y-33.578
X-182.59 Y-33.392
X-182.425 Y-33.221
X-182.304 Y-33.069
X-182.219 Y-32.937
X-182.165 Y-32.828
X-182.134 Y-32.739
X-182.12 Y-32.668
X-182.116 Y-32.614
X-182.12 Y-32.552
X-182.135 Y-32.483
X-182.165 Y-32.396
X-182.22 Y-32.287
X-182.307 Y-32.153
X-182.427 Y-32.002
X-182.589 Y-31.833
X-182.797 Y-31.649
X-183.049 Y-31.456
X-183.349 Y-31.257
X-183.697 Y-31.055
X-184.094 Y-30.851
X-184.54 Y-30.649
X-185.036 Y-30.45
X-185.585 Y-30.258
X-186.186 Y-30.073
X-186.843 Y-29.898
X-187.557 Y-29.736
X-188.33 Y-29.588
X-189.163 Y-29.459
X-190.058 Y-29.351
X-191.011 Y-29.269
X-192.016 Y-29.217
X-193.055 Y-29.2
X-194.104 Y-29.22
X-195.133 Y-29.276
X-196.116 Y-29.364
X-197.038 Y-29.48
X-197.845 Y-29.611
S5000
X-197.893 Y-29.619 Z-1.302 F333.3
X-198.681 Y-29.776 Z-1.33
X-199.403 Y-29.948 Z-1.356
X-200.064 Y-30.132 Z-1.38
X-200.664 Y-30.325 Z-1.402
X-201.208 Y-30.525 Z-1.422
X-201.695 Y-30.729 Z-1.44
X-202.128 Y-30.936 Z-1.457
X-202.511 Y-31.144 Z-1.472
X-202.842 Y-31.348 Z-1.486
X-203.124 Y-31.548 Z-1.498
X-203.358 Y-31.739 Z-1.508
X-203.544 Y-31.917 Z-1.517
X-203.687 Y-32.079 Z-1.525
X-203.791 Y-32.223 Z-1.531
X-203.861 Y-32.345 Z-1.536
X-203.902 Y-32.443 Z-1.54
X-203.924 Y-32.519 Z-1.543
X-203.932 Y-32.584 Z-1.545
Y-32.644 Z-1.547
X-203.924 Y-32.706 Z-1.549
X-203.902 Y-32.783 Z-1.552
X-203.859 Y-32.884 Z-1.556
X-203.789 Y-33.005 Z-1.561
X-203.687 Y-33.146 Z-1.567
X-203.544 Y-33.308 Z-1.574
X-203.358 Y-33.486 Z-1.583
X-203.128 Y-33.674 Z-1.594
X-202.852 Y-33.871 Z-1.606
X-202.528 Y-34.072 Z-1.619
X-202.154 Y-34.275 Z-1.634
X-201.732 Y-34.479 Z-1.65
X-201.261 Y-34.679 Z-1.668
X-200.737 Y-34.875 Z-1.687
X-200.161 Y-35.064 Z-1.709
X-199.531 Y-35.244 Z-1.732
X-198.844 Y-35.412 Z-1.756
X-198.101 Y-35.567 Z-1.783
X-197.613 Y-35.651 Z-1.8
S6000
X-197.297 Y-35.706 F1000
X-196.432 Y-35.825
X-195.507 Y-35.92
X-194.525 Y-35.987
X-193.5 Y-36.021
X-192.452 Y-36.019
X-191.409 Y-35.98
X-190.402 Y-35.907
X-189.449 Y-35.804
X-188.561 Y-35.675
X-187.742 Y-35.527
X-186.987 Y-35.361
X-186.297 Y-35.183
X-185.668 Y-34.994
X-185.098 Y-34.798
X-184.584 Y-34.595
X-184.124 Y-34.389
X-183.717 Y-34.181
X-183.361 Y-33.975
X-183.055 Y-33.773
X-182.8 Y-33.578
X-182.59 Y-33.392
X-182.425 Y-33.221
X-182.304 Y-33.069
X-182.219 Y-32.937
X-182.165 Y-32.828
X-182.134 Y-32.739
X-182.12 Y-32.668
X-182.116 Y-32.614
X-182.12 Y-32.552
X-182.135 Y-32.483
X-182.165 Y-32.396
X-182.22 Y-32.287
X-182.307 Y-32.153
X-182.427 Y-32.002
X-182.589 Y-31.833
X-182.797 Y-31.649
X-183.049 Y-31.456
X-183.349 Y-31.257
X-183.697 Y-31.055
X-184.094 Y-30.851
X-184.54 Y-30.649
X-185.036 Y-30.45
X-185.585 Y-30.258
X-186.186 Y-30.073
X-186.843 Y-29.898
X-187.557 Y-29.736
X-188.33 Y-29.588
X-189.163 Y-29.459
X-190.058 Y-29.351
X-191.011 Y-29.269
X-192.016 Y-29.217
X-193.055 Y-29.2
X-194.104 Y-29.22
X-195.133 Y-29.276
X-196.116 Y-29.364
X-197.038 Y-29.48
X-197.845 Y-29.611
X-197.893 Y-29.619
X-198.681 Y-29.776
X-199.403 Y-29.948
X-200.064 Y-30.132
X-200.664 Y-30.325
X-201.208 Y-30.525
X-201.695 Y-30.729
X-202.128 Y-30.936
X-202.511 Y-31.144
X-202.842 Y-31.348
X-203.124 Y-31.548
X-203.358 Y-31.739
X-203.544 Y-31.917
X-203.687 Y-32.079
X-203.791 Y-32.223
X-203.861 Y-32.345
X-203.902 Y-32.443
X-203.924 Y-32.519
X-203.932 Y-32.584
Y-32.644
X-203.924 Y-32.706
X-203.902 Y-32.783
X-203.859 Y-32.884
X-203.789 Y-33.005
X-203.687 Y-33.146
X-203.544 Y-33.308
X-203.358 Y-33.486
X-203.128 Y-33.674
X-202.852 Y-33.871
X-202.528 Y-34.072
X-202.154 Y-34.275
X-201.732 Y-34.479
X-201.261 Y-34.679
X-200.737 Y-34.875
X-200.161 Y-35.064
X-199.531 Y-35.244
X-198.844 Y-35.412
X-198.101 Y-35.567
X-197.613 Y-35.651
S5000
X-197.297 Y-35.706 Z-1.811 F333.3
X-196.432 Y-35.825 Z-1.842
X-195.507 Y-35.92 Z-1.874
X-194.525 Y-35.987 Z-1.909
X-193.5 Y-36.021 Z-1.944
X-192.452 Y-36.019 Z-1.981
X-191.409 Y-35.98 Z-2.017
X-190.402 Y-35.907 Z-2.053
X-189.449 Y-35.804 Z-2.086
X-188.561 Y-35.675 Z-2.117
X-187.742 Y-35.527 Z-2.147
X-186.987 Y-35.361 Z-2.174
X-186.297 Y-35.183 Z-2.198
X-186.253 Y-35.17 Z-2.2
S6000
X-185.668 Y-34.994 F1000
X-185.098 Y-34.798
X-184.584 Y-34.595
X-184.124 Y-34.389
X-183.717 Y-34.181
X-183.361 Y-33.975
X-183.055 Y-33.773
X-182.8 Y-33.578
X-182.59 Y-33.392
X-182.425 Y-33.221
X-182.304 Y-33.069
X-182.219 Y-32.937
X-182.165 Y-32.828
X-182.134 Y-32.739
X-182.12 Y-32.668
X-182.116 Y-32.614
X-182.12 Y-32.552
X-182.135 Y-32.483
X-182.165 Y-32.396
X-182.22 Y-32.287
X-182.307 Y-32.153
X-182.427 Y-32.002
X-182.589 Y-31.833
X-182.797 Y-31.649
X-183.049 Y-31.456
X-183.349 Y-31.257
X-183.697 Y-31.055
X-184.094 Y-30.851
X-184.54 Y-30.649
X-185.036 Y-30.45
X-185.585 Y-30.258
X-186.186 Y-30.073
X-186.843 Y-29.898
X-187.557 Y-29.736
X-188.33 Y-29.588
X-189.163 Y-29.459
X-190.058 Y-29.351
X-191.011 Y-29.269
X-192.016 Y-29.217
X-193.055 Y-29.2
X-194.104 Y-29.22
X-195.133 Y-29.276
X-196.116 Y-29.364
X-197.038 Y-29.48
X-197.893 Y-29.619
X-198.681 Y-29.776
X-199.403 Y-29.948
X-200.064 Y-30.132
X-200.664 Y-30.325
X-201.208 Y-30.525
X-201.695 Y-30.729
X-202.128 Y-30.936
X-202.511 Y-31.144
X-202.842 Y-31.348
X-203.124 Y-31.548
X-203.358 Y-31.739
X-203.544 Y-31.917
X-203.687 Y-32.079
X-203.791 Y-32.223
X-203.861 Y-32.345
X-203.902 Y-32.443
X-203.924 Y-32.519
X-203.932 Y-32.584
Y-32.644
X-203.924 Y-32.706
X-203.902 Y-32.783
X-203.859 Y-32.884
X-203.789 Y-33.005
X-203.687 Y-33.146
X-203.544 Y-33.308
X-203.358 Y-33.486
X-203.128 Y-33.674
X-202.852 Y-33.871
X-202.528 Y-34.072
X-202.154 Y-34.275
X-201.732 Y-34.479
X-201.261 Y-34.679
X-200.737 Y-34.875
X-200.161 Y-35.064
X-199.531 Y-35.244
X-198.844 Y-35.412
X-198.101 Y-35.567
X-197.613 Y-35.651
X-197.297 Y-35.706
X-196.432 Y-35.825
X-195.507 Y-35.92
X-194.525 Y-35.987
X-193.5 Y-36.021
X-192.452 Y-36.019
X-191.409 Y-35.98
X-190.402 Y-35.907
X-189.449 Y-35.804
X-188.561 Y-35.675
X-187.742 Y-35.527
X-186.987 Y-35.361
X-186.297 Y-35.183
X-186.253 Y-35.17
G0 Z10
X-185.221 Y-46.806
Z5.2
G1 Z2.7 F333.3
S5000
X-185.026 Y-46.611 Z2.69
G3 X-187.024 Y-44.614 Z2.535 I-0.999 J0.999
G1 X-199.023 Y-56.614 Z1.943
G3 X-199.024 Y-58.612 Z1.865 I0.999 J-0.999
X-197.026 Y-58.611 Z1.788 I0.999 J0.999
G1 X-185.026 Y-46.611 Z1.195
G3 X-187.024 Y-44.614 Z1.04 I-0.999 J0.999
G1 X-199.023 Y-56.614 Z0.448
G3 X-199.024 Y-58.612 Z0.37 I0.999 J-0.999
X-197.026 Y-58.611 Z0.293 I0.999 J0.999
G1 X-185.026 Y-46.612 Z-0.3
S6000
Y-46.611 F1000
G3 X-187.024 Y-44.614 I-0.999 J0.999
G1 X-199.023 Y-56.614
G3 X-199.024 Y-58.612 I0.999 J-0.999
X-197.026 Y-58.611 I0.999 J0.999
G1 X-185.026 Y-46.612
S5000
Y-46.611 F333.3
G3 X-187.024 Y-44.614 Z-0.455 I-0.999 J0.999
G1 X-194.01 Y-51.6 Z-0.8
S6000
X-199.023 Y-56.614 F1000
G3 X-199.024 Y-58.612 I0.999 J-0.999
X-197.026 Y-58.611 I0.999 J0.999
G1 X-185.026 Y-46.612
Y-46.611
G3 X-187.024 Y-44.614 I-0.999 J0.999
G1 X-194.01 Y-51.6
S5000
X-199.023 Y-56.614 Z-1.048 F333.3
G3 X-199.024 Y-58.612 Z-1.125 I0.999 J-0.999
X-197.026 Y-58.611 Z-1.203 I0.999 J0.999
G1 X-195.053 Y-56.639 Z-1.3
S6000
X-185.026 Y-46.611 F1000
G3 X-187.024 Y-44.614 I-0.999 J0.999
G1 X-194.01 Y-51.6
X-199.023 Y-56.614
G3 X-199.024 Y-58.612 I0.999 J-0.999
X-197.026 Y-58.611 I0.999 J0.999
G1 X-195.053 Y-56.639
S5000
X-185.026 Y-46.611 Z-1.795 F333.3
X-184.934 Y-46.51 Z-1.8
S6000
G3 X-187.024 Y-44.614 I-1.091 J0.897 F1000
G1 X-199.023 Y-56.614
G3 X-199.024 Y-58.612 I0.999 J-0.999
X-197.026 Y-58.611 I0.999 J0.999
G1 X-185.026 Y-46.611
X-184.934 Y-46.51
S5000
G3 X-187.024 Y-44.614 Z-1.95 I-1.091 J0.897 F333.3
G1 X-192.083 Y-49.673 Z-2.2
S6000
X-199.023 Y-56.614 F1000
G3 X-199.024 Y-58.612 I0.999 J-0.999
X-197.026 Y-58.611 I0.999 J0.999
G1 X-185.026 Y-46.611
G3 X-187.024 Y-44.614 I-0.999 J0.999
G1 X-192.083 Y-49.673
G0 Z10
X-214.198 Y-58.399
Z5.2
G1 Z2.7 F333.3
S5000
G3 X-212.026 Y-58.611 Z2.613 I1.173 J0.787
G1 X-200.026 Y-46.611 Z2.02
G3 X-202.024 Y-44.614 Z1.865 I-0.999 J0.999
G1 X-214.023 Y-56.614 Z1.273
G3 X-214.024 Y-58.612 Z1.195 I0.999 J-0.999
X-212.026 Y-58.611 Z1.118 I0.999 J0.999
G1 X-200.026 Y-46.611 Z0.525
G3 X-202.024 Y-44.614 Z0.37 I-0.999 J0.999
G1 X-214.023 Y-56.614 Z-0.223
G3 X-214.024 Y-58.612 Z-0.3 I0.999 J-0.999
S6000
X-212.026 Y-58.611 I0.999 J0.999 F1000
G1 X-200.026 Y-46.611
G3 X-202.024 Y-44.614 I-0.999 J0.999
G1 X-214.023 Y-56.614
G3 X-214.024 Y-58.612 I0.999 J-0.999
S5000
X-212.026 Y-58.611 Z-0.378 I0.999 J0.999 F333.3
G1 X-203.471 Y-50.056 Z-0.8
S6000
X-200.026 Y-46.611 F1000
G3 X-202.024 Y-44.614 I-0.999 J0.999
G1 X-214.023 Y-56.614
G3 X-214.024 Y-58.612 I0.999 J-0.999
X-212.026 Y-58.611 I0.999 J0.999
G1 X-203.471 Y-50.056
S5000
X-200.026 Y-46.611 Z-0.97 F333.3
G3 X-202.024 Y-44.614 Z-1.125 I-0.999 J0.999
G1 X-205.565 Y-48.156 Z-1.3
S6000
X-214.023 Y-56.614 F1000
G3 X-214.024 Y-58.612 I0.999 J-0.999
X-212.026 Y-58.611 I0.999 J0.999
G1 X-203.471 Y-50.056
X-200.026 Y-46.611
G3 X-202.024 Y-44.614 I-0.999 J0.999
G1 X-205.565 Y-48.156
S5000
X-214.023 Y-56.614 Z-1.718 F333.3
G3 X-213.922 Y-58.704 Z-1.8 I0.999 J-0.999
S6000
X-212.026 Y-58.611 I0.897 J1.091 F1000
G1 X-200.026 Y-46.611
G3 X-202.024 Y-44.614 I-0.999 J0.999
G1 X-214.023 Y-56.614
G3 X-213.922 Y-58.704 I0.999 J-0.999
S5000
X-212.026 Y-58.611 Z-1.873 I0.897 J1.091 F333.3
G1 X-205.398 Y-51.984 Z-2.2
S6000
X-200.026 Y-46.611 F1000
G3 X-202.024 Y-44.614 I-0.999 J0.999
G1 X-214.023 Y-56.614
G3 X-214.024 Y-58.612 I0.999 J-0.999
X-212.026 Y-58.611 I0.999 J0.999
G1 X-205.398 Y-51.984
G0 Z10
X-229.198 Y-58.399
Z5.2
G1 Z2.7 F333.3
S5000
G3 X-227.026 Y-58.611 Z2.613 I1.173 J0.787
G1 X-215.026 Y-46.611 Z2.02
G3 X-217.024 Y-44.614 Z1.865 I-0.999 J0.999
G1 X-229.023 Y-56.614 Z1.273
G3 X-229.024 Y-58.612 Z1.195 I0.999 J-0.999
X-227.026 Y-58.611 Z1.118 I0.999 J0.999
G1 X-215.026 Y-46.611 Z0.525
G3 X-217.024 Y-44.614 Z0.37 I-0.999 J0.999
G1 X-229.023 Y-56.614 Z-0.223
G3 X-229.024 Y-58.612 Z-0.3 I0.999 J-0.999
S6000
X-227.026 Y-58.611 I0.999 J0.999 F1000
G1 X-215.026 Y-46.611
G3 X-217.024 Y-44.614 I-0.999 J0.999
G1 X-229.023 Y-56.614
G3 X-229.024 Y-58.612 I0.999 J-0.999
S5000
X-227.026 Y-58.611 Z-0.378 I0.999 J0.999 F333.3
G1 X-218.471 Y-50.056 Z-0.8
S6000
X-215.026 Y-46.611 F1000
G3 X-217.024 Y-44.614 I-0.999 J0.999
G1 X-229.023 Y-56.614
G3 X-229.024 Y-58.612 I0.999 J-0.999
X-227.026 Y-58.611 I0.999 J0.999
G1 X-218.471 Y-50.056
S5000
X-215.026 Y-46.611 Z-0.97 F333.3
G3 X-217.024 Y-44.614 Z-1.125 I-0.999 J0.999
G1 X-220.565 Y-48.156 Z-1.3
S6000
X-229.023 Y-56.614 F1000
G3 X-229.024 Y-58.612 I0.999 J-0.999
X-227.026 Y-58.611 I0.999 J0.999
G1 X-218.471 Y-50.056
X-215.026 Y-46.611
G3 X-217.024 Y-44.614 I-0.999 J0.999
G1 X-220.565 Y-48.156
S5000
X-229.023 Y-56.614 Z-1.718 F333.3
G3 X-228.922 Y-58.704 Z-1.8 I0.999 J-0.999
S6000
X-227.026 Y-58.611 I0.897 J1.091 F1000
G1 X-215.026 Y-46.611
G3 X-217.024 Y-44.614 I-0.999 J0.999
G1 X-229.023 Y-56.614
G3 X-228.922 Y-58.704 I0.999 J-0.999
S5000
X-227.026 Y-58.611 Z-1.873 I0.897 J1.091 F333.3
G1 X-220.398 Y-51.984 Z-2.2
S6000
X-215.026 Y-46.611 F1000
G3 X-217.024 Y-44.614 I-0.999 J0.999
G1 X-229.023 Y-56.614
G3 X-229.024 Y-58.612 I0.999 J-0.999
X-227.026 Y-58.611 I0.999 J0.999
G1 X-220.398 Y-51.984
G0 Z10
X-242.238 Y-58.786
Z5.2
G1 Z2.7 F333.3
S5000
G3 X-242.026 Y-58.611 Z2.69 I-0.787 J1.173
G1 X-230.026 Y-46.611 Z2.098
G3 X-232.024 Y-44.614 Z1.943 I-0.999 J0.999
G1 X-244.023 Y-56.614 Z1.35
G3 X-244.024 Y-58.612 Z1.273 I0.999 J-0.999
X-242.026 Y-58.611 Z1.195 I0.999 J0.999
G1 X-230.026 Y-46.611 Z0.603
G3 X-232.024 Y-44.614 Z0.448 I-0.999 J0.999
G1 X-244.023 Y-56.614 Z-0.145
G3 X-244.024 Y-58.612 Z-0.223 I0.999 J-0.999
X-242.026 Y-58.611 Z-0.3 I0.999 J0.999
S6000
G1 X-230.026 Y-46.611 F1000
G3 X-232.024 Y-44.614 I-0.999 J0.999
G1 X-244.023 Y-56.614
G3 X-244.024 Y-58.612 I0.999 J-0.999
X-242.026 Y-58.611 I0.999 J0.999
S5000
G1 X-231.901 Y-48.487 Z-0.8 F333.3
S6000
X-230.026 Y-46.611 F1000
G3 X-232.024 Y-44.614 I-0.999 J0.999
G1 X-244.023 Y-56.614
G3 X-244.024 Y-58.612 I0.999 J-0.999
X-242.026 Y-58.611 I0.999 J0.999
G1 X-231.901 Y-48.487
S5000
X-230.026 Y-46.611 Z-0.893 F333.3
G3 X-232.024 Y-44.614 Z-1.048 I-0.999 J0.999
G1 X-237.135 Y-49.725 Z-1.3
S6000
X-244.023 Y-56.614 F1000
G3 X-244.024 Y-58.612 I0.999 J-0.999
X-242.026 Y-58.611 I0.999 J0.999
G1 X-231.901 Y-48.487
X-230.026 Y-46.611
G3 X-232.024 Y-44.614 I-0.999 J0.999
G1 X-237.135 Y-49.725
S5000
X-244.023 Y-56.614 Z-1.64 F333.3
G3 X-244.024 Y-58.612 Z-1.718 I0.999 J-0.999
X-242.026 Y-58.611 Z-1.795 I0.999 J0.999
G1 X-241.929 Y-58.514 Z-1.8
S6000
X-230.026 Y-46.611 F1000
G3 X-232.024 Y-44.614 I-0.999 J0.999
G1 X-244.023 Y-56.614
G3 X-244.024 Y-58.612 I0.999 J-0.999
X-242.026 Y-58.611 I0.999 J0.999
G1 X-241.929 Y-58.514
S5000
X-233.829 Y-50.415 Z-2.2 F333.3
S6000
X-230.026 Y-46.611 F1000
G3 X-232.024 Y-44.614 I-0.999 J0.999
G1 X-244.023 Y-56.614
G3 X-244.024 Y-58.612 I0.999 J-0.999
X-242.026 Y-58.611 I0.999 J0.999
G1 X-233.829 Y-50.415
G0 Z10
X-257.238 Y-58.786
Z5.2
G1 Z2.7 F333.3
S5000
G3 X-257.026 Y-58.611 Z2.69 I-0.787 J1.173
G1 X-245.026 Y-46.611 Z2.098
G3 X-247.024 Y-44.614 Z1.943 I-0.999 J0.999
G1 X-259.023 Y-56.614 Z1.35
G3 X-259.024 Y-58.612 Z1.273 I0.999 J-0.999
X-257.026 Y-58.611 Z1.195 I0.999 J0.999
G1 X-245.026 Y-46.611 Z0.603
G3 X-247.024 Y-44.614 Z0.448 I-0.999 J0.999
G1 X-259.023 Y-56.614 Z-0.145
G3 X-259.024 Y-58.612 Z-0.223 I0.999 J-0.999
X-257.026 Y-58.611 Z-0.3 I0.999 J0.999
S6000
G1 X-245.026 Y-46.611 F1000
G3 X-247.024 Y-44.614 I-0.999 J0.999
G1 X-259.023 Y-56.614
G3 X-259.024 Y-58.612 I0.999 J-0.999
X-257.026 Y-58.611 I0.999 J0.999
S5000
G1 X-246.901 Y-48.487 Z-0.8 F333.3
S6000
X-245.026 Y-46.611 F1000
G3 X-247.024 Y-44.614 I-0.999 J0.999
G1 X-259.023 Y-56.614
G3 X-259.024 Y-58.612 I0.999 J-0.999
X-257.026 Y-58.611 I0.999 J0.999
G1 X-246.901 Y-48.487
S5000
X-245.026 Y-46.611 Z-0.893 F333.3
G3 X-247.024 Y-44.614 Z-1.048 I-0.999 J0.999
G1 X-252.135 Y-49.725 Z-1.3
S6000
X-259.023 Y-56.614 F1000
G3 X-259.024 Y-58.612 I0.999 J-0.999
X-257.026 Y-58.611 I0.999 J0.999
G1 X-246.901 Y-48.487
X-245.026 Y-46.611
G3 X-247.024 Y-44.614 I-0.999 J0.999
G1 X-252.135 Y-49.725
S5000
X-259.023 Y-56.614 Z-1.64 F333.3
G3 X-259.024 Y-58.612 Z-1.718 I0.999 J-0.999
X-257.026 Y-58.611 Z-1.795 I0.999 J0.999
G1 X-256.928 Y-58.514 Z-1.8
S6000
X-245.026 Y-46.611 F1000
G3 X-247.024 Y-44.614 I-0.999 J0.999
G1 X-259.023 Y-56.614
G3 X-259.024 Y-58.612 I0.999 J-0.999
X-257.026 Y-58.611 I0.999 J0.999
G1 X-256.928 Y-58.514
S5000
X-248.829 Y-50.415 Z-2.2 F333.3
S6000
X-245.026 Y-46.611 F1000
G3 X-247.024 Y-44.614 I-0.999 J0.999
G1 X-259.023 Y-56.614
G3 X-259.024 Y-58.612 I0.999 J-0.999
X-257.026 Y-58.611 I0.999 J0.999
G1 X-248.829 Y-50.415
G0 Z10
X-229.852 Y-78.825
Z5.2
G1 Z2.7 F333.3
S5000
G3 X-230.026 Y-78.614 Z2.69 I-1.173 J-0.787
G1 Y-78.613
X-242.026 Y-66.614 Z2.098
G3 X-244.024 Y-66.613 Z2.02 I-0.999 J-0.998
X-244.024 Y-68.611 Z1.943 I0.999 J-0.999
G1 X-232.024 Y-80.611 Z1.35
G3 X-230.026 Y-78.614 Z1.195 I0.999 J0.999
G1 Y-78.613
X-242.026 Y-66.614 Z0.603
G3 X-244.024 Y-66.613 Z0.525 I-0.999 J-0.998
X-244.024 Y-68.611 Z0.448 I0.999 J-0.999
G1 X-232.024 Y-80.611 Z-0.145
G3 X-230.026 Y-78.614 Z-0.3 I0.999 J0.999
G1 Y-78.613
S6000
X-242.026 Y-66.614 F1000
G3 X-244.024 Y-66.613 I-0.999 J-0.998
X-244.024 Y-68.611 I0.999 J-0.999
G1 X-232.024 Y-80.611
G3 X-230.026 Y-78.614 I0.999 J0.999
G1 Y-78.613
S5000
X-240.15 Y-68.489 Z-0.8 F333.3
S6000
X-242.026 Y-66.614 F1000
G3 X-244.024 Y-66.613 I-0.999 J-0.998
X-244.024 Y-68.611 I0.999 J-0.999
G1 X-232.024 Y-80.611
G3 X-230.026 Y-78.614 I0.999 J0.999
G1 Y-78.613
X-240.15 Y-68.489
S5000
X-242.026 Y-66.614 Z-0.893 F333.3
G3 X-244.024 Y-66.613 Z-0.97 I-0.999 J-0.998
X-244.024 Y-68.611 Z-1.048 I0.999 J-0.999
G1 X-238.913 Y-73.722 Z-1.3
S6000
X-232.024 Y-80.611 F1000
G3 X-230.026 Y-78.614 I0.999 J0.999
G1 X-240.15 Y-68.489
X-242.026 Y-66.614
G3 X-244.024 Y-66.613 I-0.999 J-0.998
X-244.024 Y-68.611 I0.999 J-0.999
G1 X-238.913 Y-73.722
S5000
X-232.024 Y-80.611 Z-1.64 F333.3
G3 X-230.026 Y-78.614 Z-1.795 I0.999 J0.999
G1 X-230.123 Y-78.516 Z-1.8
S6000
X-242.026 Y-66.614 F1000
G3 X-244.024 Y-66.613 I-0.999 J-0.998
X-244.024 Y-68.611 I0.999 J-0.999
G1 X-232.024 Y-80.611
G3 X-230.026 Y-78.614 I0.999 J0.999
G1 X-230.123 Y-78.516
S5000
X-238.223 Y-70.416 Z-2.2 F333.3
S6000
X-242.026 Y-66.614 F1000
G3 X-244.024 Y-66.613 I-0.999 J-0.998
X-244.024 Y-68.611 I0.999 J-0.999
G1 X-232.024 Y-80.611
G3 X-230.026 Y-78.614 I0.999 J0.999
G1 X-238.223 Y-70.416
G0 Z10
X-214.852 Y-78.825
Z5.2
G1 Z2.7 F333.3
S5000
G3 X-215.026 Y-78.614 Z2.69 I-1.173 J-0.787
G1 Y-78.613
X-227.026 Y-66.614 Z2.098
G3 X-229.024 Y-66.613 Z2.02 I-0.999 J-0.998
X-229.024 Y-68.611 Z1.943 I0.999 J-0.999
G1 X-217.024 Y-80.611 Z1.35
G3 X-215.026 Y-78.614 Z1.195 I0.999 J0.999
G1 Y-78.613
X-227.026 Y-66.614 Z0.603
G3 X-229.024 Y-66.613 Z0.525 I-0.999 J-0.998
X-229.024 Y-68.611 Z0.448 I0.999 J-0.999
G1 X-217.024 Y-80.611 Z-0.145
G3 X-215.026 Y-78.614 Z-0.3 I0.999 J0.999
G1 Y-78.613
S6000
X-227.026 Y-66.614 F1000
G3 X-229.024 Y-66.613 I-0.999 J-0.998
X-229.024 Y-68.611 I0.999 J-0.999
G1 X-217.024 Y-80.611
G3 X-215.026 Y-78.614 I0.999 J0.999
G1 Y-78.613
S5000
X-225.15 Y-68.489 Z-0.8 F333.3
S6000
X-227.026 Y-66.614 F1000
G3 X-229.024 Y-66.613 I-0.999 J-0.998
X-229.024 Y-68.611 I0.999 J-0.999
G1 X-217.024 Y-80.611
G3 X-215.026 Y-78.614 I0.999 J0.999
G1 Y-78.613
X-225.15 Y-68.489
S5000
X-227.026 Y-66.614 Z-0.893 F333.3
G3 X-229.024 Y-66.613 Z-0.97 I-0.999 J-0.998
X-229.024 Y-68.611 Z-1.048 I0.999 J-0.999
G1 X-223.913 Y-73.722 Z-1.3
S6000
X-217.024 Y-80.611 F1000
G3 X-215.026 Y-78.614 I0.999 J0.999
G1 X-225.15 Y-68.489
X-227.026 Y-66.614
G3 X-229.024 Y-66.613 I-0.999 J-0.998
X-229.024 Y-68.611 I0.999 J-0.999
G1 X-223.913 Y-73.722
S5000
X-217.024 Y-80.611 Z-1.64 F333.3
G3 X-215.026 Y-78.614 Z-1.795 I0.999 J0.999
G1 X-215.123 Y-78.516 Z-1.8
S6000
X-227.026 Y-66.614 F1000
G3 X-229.024 Y-66.613 I-0.999 J-0.998
X-229.024 Y-68.611 I0.999 J-0.999
G1 X-217.024 Y-80.611
G3 X-215.026 Y-78.614 I0.999 J0.999
G1 X-215.123 Y-78.516
S5000
X-223.223 Y-70.416 Z-2.2 F333.3
S6000
X-227.026 Y-66.614 F1000
G3 X-229.024 Y-66.613 I-0.999 J-0.998
X-229.024 Y-68.611 I0.999 J-0.999
G1 X-217.024 Y-80.611
G3 X-215.026 Y-78.614 I0.999 J0.999
G1 X-223.223 Y-70.416
G0 Z10
X-199.852 Y-78.825
Z5.2
G1 Z2.7 F333.3
S5000
G3 X-200.026 Y-78.614 Z2.69 I-1.173 J-0.787
G1 Y-78.613
X-212.026 Y-66.614 Z2.098
G3 X-214.024 Y-66.613 Z2.02 I-0.999 J-0.998
X-214.024 Y-68.611 Z1.943 I0.999 J-0.999
G1 X-202.024 Y-80.611 Z1.35
G3 X-200.026 Y-78.614 Z1.195 I0.999 J0.999
G1 Y-78.613
X-212.026 Y-66.614 Z0.603
G3 X-214.024 Y-66.613 Z0.525 I-0.999 J-0.998
X-214.024 Y-68.611 Z0.448 I0.999 J-0.999
G1 X-202.024 Y-80.611 Z-0.145
G3 X-200.026 Y-78.614 Z-0.3 I0.999 J0.999
G1 Y-78.613
S6000
X-212.026 Y-66.614 F1000
G3 X-214.024 Y-66.613 I-0.999 J-0.998
X-214.024 Y-68.611 I0.999 J-0.999
G1 X-202.024 Y-80.611
G3 X-200.026 Y-78.614 I0.999 J0.999
G1 Y-78.613
S5000
X-210.15 Y-68.489 Z-0.8 F333.3
S6000
X-212.026 Y-66.614 F1000
G3 X-214.024 Y-66.613 I-0.999 J-0.998
X-214.024 Y-68.611 I0.999 J-0.999
G1 X-202.024 Y-80.611
G3 X-200.026 Y-78.614 I0.999 J0.999
G1 Y-78.613
X-210.15 Y-68.489
S5000
X-212.026 Y-66.614 Z-0.893 F333.3
G3 X-214.024 Y-66.613 Z-0.97 I-0.999 J-0.998
X-214.024 Y-68.611 Z-1.048 I0.999 J-0.999
G1 X-208.913 Y-73.722 Z-1.3
S6000
X-202.024 Y-80.611 F1000
G3 X-200.026 Y-78.614 I0.999 J0.999
G1 X-210.15 Y-68.489
X-212.026 Y-66.614
G3 X-214.024 Y-66.613 I-0.999 J-0.998
X-214.024 Y-68.611 I0.999 J-0.999
G1 X-208.913 Y-73.722
S5000
X-202.024 Y-80.611 Z-1.64 F333.3
G3 X-200.026 Y-78.614 Z-1.795 I0.999 J0.999
G1 X-200.123 Y-78.516 Z-1.8
S6000
X-212.026 Y-66.614 F1000
G3 X-214.024 Y-66.613 I-0.999 J-0.998
X-214.024 Y-68.611 I0.999 J-0.999
G1 X-202.024 Y-80.611
G3 X-200.026 Y-78.614 I0.999 J0.999
G1 X-200.123 Y-78.516
S5000
X-208.223 Y-70.416 Z-2.2 F333.3
S6000
X-212.026 Y-66.614 F1000
G3 X-214.024 Y-66.613 I-0.999 J-0.998
X-214.024 Y-68.611 I0.999 J-0.999
G1 X-202.024 Y-80.611
G3 X-200.026 Y-78.614 I0.999 J0.999
G1 X-208.223 Y-70.416
G0 Z10
X-184.852 Y-78.825
Z5.2
G1 Z2.7 F333.3
S5000
G3 X-185.026 Y-78.614 Z2.69 I-1.173 J-0.787
G1 Y-78.613
X-197.026 Y-66.614 Z2.098
G3 X-199.024 Y-66.613 Z2.02 I-0.999 J-0.998
X-199.024 Y-68.611 Z1.943 I0.999 J-0.999
G1 X-187.024 Y-80.611 Z1.35
G3 X-185.026 Y-78.614 Z1.195 I0.999 J0.999
G1 Y-78.613
X-197.026 Y-66.614 Z0.603
G3 X-199.024 Y-66.613 Z0.525 I-0.999 J-0.998
X-199.024 Y-68.611 Z0.448 I0.999 J-0.999
G1 X-187.024 Y-80.611 Z-0.145
G3 X-185.026 Y-78.614 Z-0.3 I0.999 J0.999
G1 Y-78.613
S6000
X-197.026 Y-66.614 F1000
G3 X-199.024 Y-66.613 I-0.999 J-0.998
X-199.024 Y-68.611 I0.999 J-0.999
G1 X-187.024 Y-80.611
G3 X-185.026 Y-78.614 I0.999 J0.999
G1 Y-78.613
S5000
X-195.15 Y-68.489 Z-0.8 F333.3
S6000
X-197.026 Y-66.614 F1000
G3 X-199.024 Y-66.613 I-0.999 J-0.998
X-199.024 Y-68.611 I0.999 J-0.999
G1 X-187.024 Y-80.611
G3 X-185.026 Y-78.614 I0.999 J0.999
G1 Y-78.613
X-195.15 Y-68.489
S5000
X-197.026 Y-66.614 Z-0.893 F333.3
G3 X-199.024 Y-66.613 Z-0.97 I-0.999 J-0.998
X-199.024 Y-68.611 Z-1.048 I0.999 J-0.999
G1 X-193.913 Y-73.722 Z-1.3
S6000
X-187.024 Y-80.611 F1000
G3 X-185.026 Y-78.614 I0.999 J0.999
G1 X-195.15 Y-68.489
X-197.026 Y-66.614
G3 X-199.024 Y-66.613 I-0.999 J-0.998
X-199.024 Y-68.611 I0.999 J-0.999
G1 X-193.913 Y-73.722
S5000
X-187.024 Y-80.611 Z-1.64 F333.3
G3 X-185.026 Y-78.614 Z-1.795 I0.999 J0.999
G1 X-185.123 Y-78.516 Z-1.8
S6000
X-197.026 Y-66.614 F1000
G3 X-199.024 Y-66.613 I-0.999 J-0.998
X-199.024 Y-68.611 I0.999 J-0.999
G1 X-187.024 Y-80.611
G3 X-185.026 Y-78.614 I0.999 J0.999
G1 X-185.123 Y-78.516
S5000
X-193.223 Y-70.416 Z-2.2 F333.3
S6000
X-197.026 Y-66.614 F1000
G3 X-199.024 Y-66.613 I-0.999 J-0.998
X-199.024 Y-68.611 I0.999 J-0.999
G1 X-187.024 Y-80.611
G3 X-185.026 Y-78.614 I0.999 J0.999
G1 X-193.223 Y-70.416
G0 Z10
X-201.952 Y-90.852
Z5.2
G1 Z2.7 F333.3
S5000
X-202.128 Y-90.936 Z2.693
X-202.511 Y-91.144 Z2.678
X-202.842 Y-91.348 Z2.664
X-203.124 Y-91.548 Z2.652
X-203.358 Y-91.739 Z2.642
X-203.544 Y-91.917 Z2.633
X-203.687 Y-92.079 Z2.625
X-203.791 Y-92.223 Z2.619
X-203.861 Y-92.345 Z2.614
X-203.902 Y-92.443 Z2.61
X-203.924 Y-92.519 Z2.608
X-203.932 Y-92.584 Z2.605
Y-92.644 Z2.603
X-203.924 Y-92.706 Z2.601
X-203.902 Y-92.783 Z2.598
X-203.859 Y-92.884 Z2.594
X-203.789 Y-93.005 Z2.59
X-203.687 Y-93.146 Z2.583
X-203.544 Y-93.308 Z2.576
X-203.358 Y-93.486 Z2.567
X-203.128 Y-93.674 Z2.557
X-202.852 Y-93.871 Z2.545
X-202.528 Y-94.072 Z2.531
X-202.154 Y-94.275 Z2.517
X-201.732 Y-94.479 Z2.5
X-201.261 Y-94.679 Z2.482
X-200.737 Y-94.875 Z2.463
X-200.161 Y-95.064 Z2.442
X-199.531 Y-95.244 Z2.419
X-198.844 Y-95.412 Z2.394
X-198.101 Y-95.567 Z2.368
X-197.297 Y-95.706 Z2.339
X-196.432 Y-95.825 Z2.309
X-195.507 Y-95.92 Z2.276
X-194.525 Y-95.987 Z2.242
X-193.5 Y-96.021 Z2.206
X-192.452 Y-96.019 Z2.169
X-191.409 Y-95.98 Z2.133
X-190.402 Y-95.907 Z2.098
X-189.449 Y-95.804 Z2.064
X-188.561 Y-95.675 Z2.033
X-187.742 Y-95.527 Z2.004
X-186.987 Y-95.361 Z1.977
X-186.297 Y-95.183 Z1.952
X-185.668 Y-94.994 Z1.929
X-185.098 Y-94.798 Z1.908
X-184.584 Y-94.595 Z1.889
X-184.124 Y-94.389 Z1.871
X-183.717 Y-94.181 Z1.855
X-183.361 Y-93.975 Z1.841
X-183.055 Y-93.773 Z1.828
X-182.8 Y-93.578 Z1.817
X-182.59 Y-93.392 Z1.807
X-182.425 Y-93.221 Z1.799
X-182.304 Y-93.069 Z1.792
X-182.219 Y-92.937 Z1.786
X-182.165 Y-92.827 Z1.782
X-182.134 Y-92.739 Z1.779
X-182.12 Y-92.668 Z1.776
X-182.116 Y-92.614 Z1.774
X-182.12 Y-92.552 Z1.772
X-182.135 Y-92.483 Z1.77
X-182.165 Y-92.396 Z1.766
X-182.22 Y-92.287 Z1.762
X-182.307 Y-92.153 Z1.757
X-182.427 Y-92.002 Z1.75
X-182.589 Y-91.833 Z1.742
X-182.797 Y-91.649 Z1.732
X-183.049 Y-91.456 Z1.721
X-183.349 Y-91.257 Z1.708
X-183.697 Y-91.055 Z1.694
X-184.094 Y-90.851 Z1.679
X-184.54 Y-90.649 Z1.662
X-185.036 Y-90.45 Z1.643
X-185.585 Y-90.258 Z1.623
X-186.186 Y-90.073 Z1.601
X-186.843 Y-89.898 Z1.577
X-187.557 Y-89.736 Z1.551
X-188.33 Y-89.588 Z1.524
X-189.163 Y-89.459 Z1.494
X-190.058 Y-89.351 Z1.463
X-191.011 Y-89.269 Z1.43
X-192.016 Y-89.217 Z1.394
X-193.055 Y-89.2 Z1.358
X-194.104 Y-89.22 Z1.321
X-195.133 Y-89.276 Z1.286
X-196.116 Y-89.364 Z1.251
X-197.038 Y-89.48 Z1.219
X-197.893 Y-89.619 Z1.188
X-198.681 Y-89.776 Z1.16
X-199.403 Y-89.948 Z1.134
X-200.064 Y-90.132 Z1.11
X-200.664 Y-90.325 Z1.088
X-201.208 Y-90.525 Z1.068
X-201.695 Y-90.729 Z1.05
X-202.128 Y-90.936 Z1.033
X-202.511 Y-91.144 Z1.018
X-202.842 Y-91.348 Z1.004
X-203.124 Y-91.548 Z0.992
X-203.358 Y-91.739 Z0.982
X-203.544 Y-91.917 Z0.973
X-203.687 Y-92.079 Z0.965
X-203.791 Y-92.223 Z0.959
X-203.861 Y-92.345 Z0.954
X-203.902 Y-92.443 Z0.95
X-203.924 Y-92.519 Z0.947
X-203.932 Y-92.584 Z0.945
Y-92.644 Z0.943
X-203.924 Y-92.706 Z0.941
X-203.902 Y-92.783 Z0.938
X-203.859 Y-92.884 Z0.934
X-203.789 Y-93.005 Z0.929
X-203.687 Y-93.146 Z0.923
X-203.544 Y-93.308 Z0.916
X-203.358 Y-93.486 Z0.907
X-203.128 Y-93.674 Z0.896
X-202.852 Y-93.871 Z0.884
X-202.528 Y-94.072 Z0.871
X-202.154 Y-94.275 Z0.856
X-201.732 Y-94.479 Z0.84
X-201.261 Y-94.679 Z0.822
X-200.737 Y-94.875 Z0.803
X-200.161 Y-95.064 Z0.781
X-199.531 Y-95.244 Z0.758
X-198.844 Y-95.412 Z0.734
X-198.101 Y-95.567 Z0.707
X-197.297 Y-95.706 Z0.679
X-196.432 Y-95.825 Z0.648
X-195.507 Y-95.92 Z0.616
X-194.525 Y-95.987 Z0.581
X-193.5 Y-96.021 Z0.546
X-192.452 Y-96.019 Z0.509
X-191.409 Y-95.98 Z0.473
X-190.402 Y-95.907 Z0.437
X-189.449 Y-95.804 Z0.404
X-188.561 Y-95.675 Z0.373
X-187.742 Y-95.527 Z0.343
X-186.987 Y-95.361 Z0.317
X-186.297 Y-95.183 Z0.292
X-185.668 Y-94.994 Z0.269
X-185.098 Y-94.798 Z0.248
X-184.584 Y-94.595 Z0.228
X-184.124 Y-94.389 Z0.211
X-183.717 Y-94.181 Z0.195
X-183.361 Y-93.975 Z0.18
X-183.055 Y-93.773 Z0.168
X-182.8 Y-93.578 Z0.156
X-182.59 Y-93.392 Z0.147
X-182.425 Y-93.221 Z0.138
X-182.304 Y-93.069 Z0.131
X-182.219 Y-92.937 Z0.126
X-182.165 Y-92.827 Z0.122
X-182.134 Y-92.739 Z0.118
X-182.12 Y-92.668 Z0.116
X-182.116 Y-92.614 Z0.114
X-182.12 Y-92.552 Z0.112
X-182.135 Y-92.483 Z0.109
X-182.165 Y-92.396 Z0.106
X-182.22 Y-92.287 Z0.102
X-182.307 Y-92.153 Z0.096
X-182.427 Y-92.002 Z0.09
X-182.589 Y-91.833 Z0.081
X-182.797 Y-91.649 Z0.072
X-183.049 Y-91.456 Z0.061
X-183.349 Y-91.257 Z0.048
X-183.697 Y-91.055 Z0.034
X-184.094 Y-90.851 Z0.018
X-184.54 Y-90.649 Z0.001
X-185.036 Y-90.45 Z-0.017
X-185.585 Y-90.258 Z-0.038
X-186.186 Y-90.073 Z-0.06
X-186.843 Y-89.898 Z-0.083
X-187.557 Y-89.736 Z-0.109
X-188.33 Y-89.588 Z-0.136
X-189.163 Y-89.459 Z-0.166
X-190.058 Y-89.351 Z-0.197
X-191.011 Y-89.269 Z-0.231
X-192.016 Y-89.217 Z-0.266
X-192.995 Y-89.201 Z-0.3
S6000
X-193.055 Y-89.2 F1000
X-194.104 Y-89.22
X-195.133 Y-89.276
X-196.116 Y-89.364
X-197.038 Y-89.48
X-197.893 Y-89.619
X-198.681 Y-89.776
X-199.403 Y-89.948
X-200.064 Y-90.132
X-200.664 Y-90.325
X-201.208 Y-90.525
X-201.695 Y-90.729
X-202.128 Y-90.936
X-202.511 Y-91.144
X-202.842 Y-91.348
X-203.124 Y-91.548
X-203.358 Y-91.739
X-203.544 Y-91.917
X-203.687 Y-92.079
X-203.791 Y-92.223
X-203.861 Y-92.345
X-203.902 Y-92.443
X-203.924 Y-92.519
X-203.932 Y-92.584
Y-92.644
X-203.924 Y-92.706
X-203.902 Y-92.783
X-203.859 Y-92.884
X-203.789 Y-93.005
X-203.687 Y-93.146
X-203.544 Y-93.308
X-203.358 Y-93.486
X-203.128 Y-93.674
X-202.852 Y-93.871
X-202.528 Y-94.072
X-202.154 Y-94.275
X-201.732 Y-94.479
X-201.261 Y-94.679
X-200.737 Y-94.875
X-200.161 Y-95.064
X-199.531 Y-95.244
X-198.844 Y-95.412
X-198.101 Y-95.567
X-197.297 Y-95.706
X-196.432 Y-95.825
X-195.507 Y-95.92
X-194.525 Y-95.987
X-193.5 Y-96.021
X-192.452 Y-96.019
X-191.409 Y-95.98
X-190.402 Y-95.907
X-189.449 Y-95.804
X-188.561 Y-95.675
X-187.742 Y-95.527
X-186.987 Y-95.361
X-186.297 Y-95.183
X-185.668 Y-94.994
X-185.098 Y-94.798
X-184.584 Y-94.595
X-184.124 Y-94.389
X-183.717 Y-94.181
X-183.361 Y-93.975
X-183.055 Y-93.773
X-182.8 Y-93.578
X-182.59 Y-93.392
X-182.425 Y-93.221
X-182.304 Y-93.069
X-182.219 Y-92.937
X-182.165 Y-92.827
X-182.134 Y-92.739
X-182.12 Y-92.668
X-182.116 Y-92.614
X-182.12 Y-92.552
X-182.135 Y-92.483
X-182.165 Y-92.396
X-182.22 Y-92.287
X-182.307 Y-92.153
X-182.427 Y-92.002
X-182.589 Y-91.833
X-182.797 Y-91.649
X-183.049 Y-91.456
X-183.349 Y-91.257
X-183.697 Y-91.055
X-184.094 Y-90.851
X-184.54 Y-90.649
X-185.036 Y-90.45
X-185.585 Y-90.258
X-186.186 Y-90.073
X-186.843 Y-89.898
X-187.557 Y-89.736
X-188.33 Y-89.588
X-189.163 Y-89.459
X-190.058 Y-89.351
X-191.011 Y-89.269
X-192.016 Y-89.217
X-192.995 Y-89.201
S5000
X-193.055 Y-89.2 Z-0.302 F333.3
X-194.104 Y-89.22 Z-0.339
X-195.133 Y-89.276 Z-0.375
X-196.116 Y-89.364 Z-0.409
X-197.038 Y-89.48 Z-0.442
X-197.893 Y-89.619 Z-0.472
X-198.681 Y-89.776 Z-0.5
X-199.403 Y-89.948 Z-0.526
X-200.064 Y-90.132 Z-0.55
X-200.664 Y-90.325 Z-0.572
X-201.208 Y-90.525 Z-0.592
X-201.695 Y-90.729 Z-0.61
X-202.128 Y-90.936 Z-0.627
X-202.511 Y-91.144 Z-0.642
X-202.842 Y-91.348 Z-0.656
X-203.124 Y-91.548 Z-0.668
X-203.358 Y-91.739 Z-0.679
X-203.544 Y-91.917 Z-0.688
X-203.687 Y-92.079 Z-0.695
X-203.791 Y-92.223 Z-0.701
X-203.861 Y-92.345 Z-0.706
X-203.902 Y-92.443 Z-0.71
X-203.924 Y-92.519 Z-0.713
X-203.932 Y-92.584 Z-0.715
Y-92.644 Z-0.717
X-203.924 Y-92.706 Z-0.719
X-203.902 Y-92.783 Z-0.722
X-203.859 Y-92.884 Z-0.726
X-203.789 Y-93.005 Z-0.731
X-203.687 Y-93.146 Z-0.737
X-203.544 Y-93.308 Z-0.745
X-203.358 Y-93.486 Z-0.754
X-203.128 Y-93.674 Z-0.764
X-202.852 Y-93.871 Z-0.776
X-202.528 Y-94.072 Z-0.789
X-202.252 Y-94.222 Z-0.8
S6000
X-202.154 Y-94.275 F1000
X-201.732 Y-94.479
X-201.261 Y-94.679
X-200.737 Y-94.875
X-200.161 Y-95.064
X-199.531 Y-95.244
X-198.844 Y-95.412
X-198.101 Y-95.567
X-197.297 Y-95.706
X-196.432 Y-95.825
X-195.507 Y-95.92
X-194.525 Y-95.987
X-193.5 Y-96.021
X-192.452 Y-96.019
X-191.409 Y-95.98
X-190.402 Y-95.907
X-189.449 Y-95.804
X-188.561 Y-95.675
X-187.742 Y-95.527
X-186.987 Y-95.361
X-186.297 Y-95.183
X-185.668 Y-94.994
X-185.098 Y-94.798
X-184.584 Y-94.595
X-184.124 Y-94.389
X-183.717 Y-94.181
X-183.361 Y-93.975
X-183.055 Y-93.773
X-182.8 Y-93.578
X-182.59 Y-93.392
X-182.425 Y-93.221
X-182.304 Y-93.069
X-182.219 Y-92.937
X-182.165 Y-92.827
X-182.134 Y-92.739
X-182.12 Y-92.668
X-182.116 Y-92.614
X-182.12 Y-92.552
X-182.135 Y-92.483
X-182.165 Y-92.396
X-182.22 Y-92.287
X-182.307 Y-92.153
X-182.427 Y-92.002
X-182.589 Y-91.833
X-182.797 Y-91.649
X-183.049 Y-91.456
X-183.349 Y-91.257
X-183.697 Y-91.055
X-184.094 Y-90.851
X-184.54 Y-90.649
X-185.036 Y-90.45
X-185.585 Y-90.258
X-186.186 Y-90.073
X-186.843 Y-89.898
X-187.557 Y-89.736
X-188.33 Y-89.588
X-189.163 Y-89.459
X-190.058 Y-89.351
X-191.011 Y-89.269
X-192.016 Y-89.217
X-192.995 Y-89.201
X-193.055 Y-89.2
X-194.104 Y-89.22
X-195.133 Y-89.276
X-196.116 Y-89.364
X-197.038 Y-89.48
X-197.893 Y-89.619
X-198.681 Y-89.776
X-199.403 Y-89.948
X-200.064 Y-90.132
X-200.664 Y-90.325
X-201.208 Y-90.525
X-201.695 Y-90.729
X-202.128 Y-90.936
X-202.511 Y-91.144
X-202.842 Y-91.348
X-203.124 Y-91.548
X-203.358 Y-91.739
X-203.544 Y-91.917
X-203.687 Y-92.079
X-203.791 Y-92.223
X-203.861 Y-92.345
X-203.902 Y-92.443
X-203.924 Y-92.519
X-203.932 Y-92.584
Y-92.644
X-203.924 Y-92.706
X-203.902 Y-92.783
X-203.859 Y-92.884
X-203.789 Y-93.005
X-203.687 Y-93.146
X-203.544 Y-93.308
X-203.358 Y-93.486
X-203.128 Y-93.674
X-202.852 Y-93.871
X-202.528 Y-94.072
X-202.252 Y-94.222
S5000
X-202.154 Y-94.275 Z-0.804 F333.3
X-201.732 Y-94.479 Z-0.82
X-201.261 Y-94.679 Z-0.838
X-200.737 Y-94.875 Z-0.858
X-200.161 Y-95.064 Z-0.879
X-199.531 Y-95.244 Z-0.902
X-198.844 Y-95.412 Z-0.926
X-198.101 Y-95.567 Z-0.953
X-197.297 Y-95.706 Z-0.981
X-196.432 Y-95.825 Z-1.012
X-195.507 Y-95.92 Z-1.044
X-194.525 Y-95.987 Z-1.079
X-193.5 Y-96.021 Z-1.115
X-192.452 Y-96.019 Z-1.151
X-191.409 Y-95.98 Z-1.188
X-190.402 Y-95.907 Z-1.223
X-189.449 Y-95.804 Z-1.256
X-188.561 Y-95.675 Z-1.288
X-188.214 Y-95.612 Z-1.3
S6000
X-187.742 Y-95.527 F1000
X-186.987 Y-95.361
X-186.297 Y-95.183
X-185.668 Y-94.994
X-185.098 Y-94.798
X-184.584 Y-94.595
X-184.124 Y-94.389
X-183.717 Y-94.181
X-183.361 Y-93.975
X-183.055 Y-93.773
X-182.8 Y-93.578
X-182.59 Y-93.392
X-182.425 Y-93.221
X-182.304 Y-93.069
X-182.219 Y-92.937
X-182.165 Y-92.827
X-182.134 Y-92.739
X-182.12 Y-92.668
X-182.116 Y-92.614
X-182.12 Y-92.552
X-182.135 Y-92.483
X-182.165 Y-92.396
X-182.22 Y-92.287
X-182.307 Y-92.153
X-182.427 Y-92.002
X-182.589 Y-91.833
X-182.797 Y-91.649
X-183.049 Y-91.456
X-183.349 Y-91.257
X-183.697 Y-91.055
X-184.094 Y-90.851
X-184.54 Y-90.649
X-185.036 Y-90.45
X-185.585 Y-90.258
X-186.186 Y-90.073
X-186.843 Y-89.898
X-187.557 Y-89.736
X-188.33 Y-89.588
X-189.163 Y-89.459
X-190.058 Y-89.351
X-191.011 Y-89.269
X-192.016 Y-89.217
X-193.055 Y-89.2
X-194.104 Y-89.22
X-195.133 Y-89.276
X-196.116 Y-89.364
X-197.038 Y-89.48
X-197.893 Y-89.619
X-198.681 Y-89.776
X-199.403 Y-89.948
X-200.064 Y-90.132
X-200.664 Y-90.325
X-201.208 Y-90.525
X-201.695 Y-90.729
X-202.128 Y-90.936
X-202.511 Y-91.144
X-202.842 Y-91.348
X-203.124 Y-91.548
X-203.358 Y-91.739
X-203.544 Y-91.917
X-203.687 Y-92.079
X-203.791 Y-92.223
X-203.861 Y-92.345
X-203.902 Y-92.443
X-203.924 Y-92.519
X-203.932 Y-92.584
Y-92.644
X-203.924 Y-92.706
X-203.902 Y-92.783
X-203.859 Y-92.884
X-203.789 Y-93.005
X-203.687 Y-93.146
X-203.544 Y-93.308
X-203.358 Y-93.486
X-203.128 Y-93.674
X-202.852 Y-93.871
X-202.528 Y-94.072
X-202.252 Y-94.222
X-202.154 Y-94.275
X-201.732 Y-94.479
X-201.261 Y-94.679
X-200.737 Y-94.875
X-200.161 Y-95.064
X-199.531 Y-95.244
X-198.844 Y-95.412
X-198.101 Y-95.567
X-197.297 Y-95.706
X-196.432 Y-95.825
X-195.507 Y-95.92
X-194.525 Y-95.987
X-193.5 Y-96.021
X-192.452 Y-96.019
X-191.409 Y-95.98
X-190.402 Y-95.907
X-189.449 Y-95.804
X-188.561 Y-95.675
X-188.214 Y-95.612
S5000
X-187.742 Y-95.527 Z-1.317 F333.3
X-186.987 Y-95.361 Z-1.344
X-186.297 Y-95.183 Z-1.369
X-185.668 Y-94.994 Z-1.392
X-185.098 Y-94.798 Z-1.413
X-184.584 Y-94.595 Z-1.432
X-184.124 Y-94.389 Z-1.45
X-183.717 Y-94.181 Z-1.465
X-183.361 Y-93.975 Z-1.48
X-183.055 Y-93.773 Z-1.493
X-182.8 Y-93.578 Z-1.504
X-182.59 Y-93.392 Z-1.514
X-182.425 Y-93.221 Z-1.522
X-182.304 Y-93.069 Z-1.529
X-182.219 Y-92.937 Z-1.534
X-182.165 Y-92.827 Z-1.538
X-182.134 Y-92.739 Z-1.542
X-182.12 Y-92.668 Z-1.544
X-182.116 Y-92.614 Z-1.546
X-182.12 Y-92.552 Z-1.548
X-182.135 Y-92.483 Z-1.551
X-182.165 Y-92.396 Z-1.554
X-182.22 Y-92.287 Z-1.558
X-182.307 Y-92.153 Z-1.564
X-182.427 Y-92.002 Z-1.571
X-182.589 Y-91.833 Z-1.579
X-182.797 Y-91.649 Z-1.588
X-183.049 Y-91.456 Z-1.6
X-183.349 Y-91.257 Z-1.612
X-183.697 Y-91.055 Z-1.626
X-184.094 Y-90.851 Z-1.642
X-184.54 Y-90.649 Z-1.659
X-185.036 Y-90.45 Z-1.677
X-185.585 Y-90.258 Z-1.698
X-186.186 Y-90.073 Z-1.72
X-186.843 Y-89.898 Z-1.744
X-187.557 Y-89.736 Z-1.769
X-188.33 Y-89.588 Z-1.797
X-188.427 Y-89.573 Z-1.8
S6000
X-189.163 Y-89.459 F1000
X-190.058 Y-89.351
X-191.011 Y-89.269
X-192.016 Y-89.217
X-193.055 Y-89.2
X-194.104 Y-89.22
X-195.133 Y-89.276
X-196.116 Y-89.364
X-197.038 Y-89.48
X-197.893 Y-89.619
X-198.681 Y-89.776
X-199.403 Y-89.948
X-200.064 Y-90.132
X-200.664 Y-90.325
X-201.208 Y-90.525
X-201.695 Y-90.729
X-202.128 Y-90.936
X-202.511 Y-91.144
X-202.842 Y-91.348
X-203.124 Y-91.548
X-203.358 Y-91.739
X-203.544 Y-91.917
X-203.687 Y-92.079
X-203.791 Y-92.223
X-203.861 Y-92.345
X-203.902 Y-92.443
X-203.924 Y-92.519
X-203.932 Y-92.584
Y-92.644
X-203.924 Y-92.706
X-203.902 Y-92.783
X-203.859 Y-92.884
X-203.789 Y-93.005
X-203.687 Y-93.146
X-203.544 Y-93.308
X-203.358 Y-93.486
X-203.128 Y-93.674
X-202.852 Y-93.871
X-202.528 Y-94.072
X-202.154 Y-94.275
X-201.732 Y-94.479
X-201.261 Y-94.679
X-200.737 Y-94.875
X-200.161 Y-95.064
X-199.531 Y-95.244
X-198.844 Y-95.412
X-198.101 Y-95.567
X-197.297 Y-95.706
X-196.432 Y-95.825
X-195.507 Y-95.92
X-194.525 Y-95.987
X-193.5 Y-96.021
X-192.452 Y-96.019
X-191.409 Y-95.98
X-190.402 Y-95.907
X-189.449 Y-95.804
X-188.561 Y-95.675
X-187.742 Y-95.527
X-186.987 Y-95.361
X-186.297 Y-95.183
X-185.668 Y-94.994
X-185.098 Y-94.798
X-184.584 Y-94.595
X-184.124 Y-94.389
X-183.717 Y-94.181
X-183.361 Y-93.975
X-183.055 Y-93.773
X-182.8 Y-93.578
X-182.59 Y-93.392
X-182.425 Y-93.221
X-182.304 Y-93.069
X-182.219 Y-92.937
X-182.165 Y-92.827
X-182.134 Y-92.739
X-182.12 Y-92.668
X-182.116 Y-92.614
X-182.12 Y-92.552
X-182.135 Y-92.483
X-182.165 Y-92.396
X-182.22 Y-92.287
X-182.307 Y-92.153
X-182.427 Y-92.002
X-182.589 Y-91.833
X-182.797 Y-91.649
X-183.049 Y-91.456
X-183.349 Y-91.257
X-183.697 Y-91.055
X-184.094 Y-90.851
X-184.54 Y-90.649
X-185.036 Y-90.45
X-185.585 Y-90.258
X-186.186 Y-90.073
X-186.843 Y-89.898
X-187.557 Y-89.736
X-188.33 Y-89.588
X-188.427 Y-89.573
S5000
X-189.163 Y-89.459 Z-1.826 F333.3
X-190.058 Y-89.351 Z-1.857
X-191.011 Y-89.269 Z-1.891
X-192.016 Y-89.217 Z-1.926
X-193.055 Y-89.2 Z-1.962
X-194.104 Y-89.22 Z-1.999
X-195.133 Y-89.276 Z-2.035
X-196.116 Y-89.364 Z-2.069
X-197.038 Y-89.48 Z-2.102
X-197.893 Y-89.619 Z-2.132
X-198.681 Y-89.776 Z-2.16
X-199.403 Y-89.948 Z-2.186
X-199.787 Y-90.055 Z-2.2
S6000
X-200.064 Y-90.132 F1000
X-200.664 Y-90.325
X-201.208 Y-90.525
X-201.695 Y-90.729
X-202.128 Y-90.936
X-202.511 Y-91.144
X-202.842 Y-91.348
X-203.124 Y-91.548
X-203.358 Y-91.739
X-203.544 Y-91.917
X-203.687 Y-92.079
X-203.791 Y-92.223
X-203.861 Y-92.345
X-203.902 Y-92.443
X-203.924 Y-92.519
X-203.932 Y-92.584
Y-92.644
X-203.924 Y-92.706
X-203.902 Y-92.783
X-203.859 Y-92.884
X-203.789 Y-93.005
X-203.687 Y-93.146
X-203.544 Y-93.308
X-203.358 Y-93.486
X-203.128 Y-93.674
X-202.852 Y-93.871
X-202.528 Y-94.072
X-202.154 Y-94.275
X-201.732 Y-94.479
X-201.261 Y-94.679
X-200.737 Y-94.875
X-200.161 Y-95.064
X-199.531 Y-95.244
X-198.844 Y-95.412
X-198.101 Y-95.567
X-197.297 Y-95.706
X-196.432 Y-95.825
X-195.507 Y-95.92
X-194.525 Y-95.987
X-193.5 Y-96.021
X-192.452 Y-96.019
X-191.409 Y-95.98
X-190.402 Y-95.907
X-189.449 Y-95.804
X-188.561 Y-95.675
X-187.742 Y-95.527
X-186.987 Y-95.361
X-186.297 Y-95.183
X-185.668 Y-94.994
X-185.098 Y-94.798
X-184.584 Y-94.595
X-184.124 Y-94.389
X-183.717 Y-94.181
X-183.361 Y-93.975
X-183.055 Y-93.773
X-182.8 Y-93.578
X-182.59 Y-93.392
X-182.425 Y-93.221
X-182.304 Y-93.069
X-182.219 Y-92.937
X-182.165 Y-92.827
X-182.134 Y-92.739
X-182.12 Y-92.668
X-182.116 Y-92.614
X-182.12 Y-92.552
X-182.135 Y-92.483
X-182.165 Y-92.396
X-182.22 Y-92.287
X-182.307 Y-92.153
X-182.427 Y-92.002
X-182.589 Y-91.833
X-182.797 Y-91.649
X-183.049 Y-91.456
X-183.349 Y-91.257
X-183.697 Y-91.055
X-184.094 Y-90.851
X-184.54 Y-90.649
X-185.036 Y-90.45
X-185.585 Y-90.258
X-186.186 Y-90.073
X-186.843 Y-89.898
X-187.557 Y-89.736
X-188.33 Y-89.588
X-189.163 Y-89.459
X-190.058 Y-89.351
X-191.011 Y-89.269
X-192.016 Y-89.217
X-193.055 Y-89.2
X-194.104 Y-89.22
X-195.133 Y-89.276
X-196.116 Y-89.364
X-197.038 Y-89.48
X-197.893 Y-89.619
X-198.681 Y-89.776
X-199.403 Y-89.948
X-199.787 Y-90.055
G0 Z10
X-259.198 Y-68.399
Z5.2
G1 Z2.7 F333.3
S5000
G3 X-259.024 Y-68.611 Z2.69 I1.173 J0.787
G1 X-247.024 Y-80.611 Z2.098
G3 X-245.026 Y-78.614 Z1.943 I0.999 J0.999
G1 X-257.026 Y-66.614 Z1.35
G3 X-259.024 Y-66.613 Z1.273 I-0.999 J-0.998
X-259.024 Y-68.611 Z1.195 I0.999 J-0.999
G1 X-247.024 Y-80.611 Z0.603
G3 X-245.026 Y-78.614 Z0.448 I0.999 J0.999
G1 X-257.026 Y-66.614 Z-0.145
G3 X-259.024 Y-66.613 Z-0.222 I-0.999 J-0.998
X-259.024 Y-68.611 Z-0.3 I0.999 J-0.999
S6000
G1 X-247.024 Y-80.611 F1000
G3 X-245.026 Y-78.614 I0.999 J0.999
G1 X-257.026 Y-66.614
G3 X-259.024 Y-66.613 I-0.999 J-0.998
X-259.024 Y-68.611 I0.999 J-0.999
S5000
G1 X-248.899 Y-78.735 Z-0.8 F333.3
S6000
X-247.024 Y-80.611 F1000
G3 X-245.026 Y-78.614 I0.999 J0.999
G1 X-257.026 Y-66.614
G3 X-259.024 Y-66.613 I-0.999 J-0.998
X-259.024 Y-68.611 I0.999 J-0.999
G1 X-248.899 Y-78.735
S5000
X-247.024 Y-80.611 Z-0.893 F333.3
G3 X-245.026 Y-78.614 Z-1.048 I0.999 J0.999
G1 X-250.137 Y-73.502 Z-1.3
S6000
X-257.026 Y-66.614 F1000
G3 X-259.024 Y-66.613 I-0.999 J-0.998
X-259.024 Y-68.611 I0.999 J-0.999
G1 X-248.899 Y-78.735
X-247.024 Y-80.611
G3 X-245.026 Y-78.614 I0.999 J0.999
G1 X-250.137 Y-73.502
S5000
X-257.026 Y-66.614 Z-1.64 F333.3
G3 X-259.024 Y-66.613 Z-1.718 I-0.999 J-0.998
X-259.024 Y-68.611 Z-1.795 I0.999 J-0.999
G1 X-258.926 Y-68.708 Z-1.8
S6000
X-247.024 Y-80.611 F1000
G3 X-245.026 Y-78.614 I0.999 J0.999
G1 X-257.026 Y-66.614
G3 X-259.024 Y-66.613 I-0.999 J-0.998
X-259.024 Y-68.611 I0.999 J-0.999
G1 X-258.926 Y-68.708
S5000
X-250.827 Y-76.808 Z-2.2 F333.3
S6000
X-247.024 Y-80.611 F1000
G3 X-245.026 Y-78.614 I0.999 J0.999
G1 X-257.026 Y-66.614
G3 X-259.024 Y-66.613 I-0.999 J-0.998
X-259.024 Y-68.611 I0.999 J-0.999
G1 X-250.827 Y-76.808
G0 Z10
X-232.215 Y-183.563
Z5.2
G1 Z2.7 F333.3
S5000
G3 X-232.001 Y-181.389 Z2.613 I-0.784 J1.175
G1 X-244.001 Y-169.389 Z2.02
G3 X-245.998 Y-171.386 Z1.865 I-0.998 J-0.999
G1 X-233.998 Y-183.386 Z1.273
G3 X-232.001 Y-183.386 Z1.195 I0.999 J0.999
X-232.001 Y-181.389 Z1.118 I-0.999 J0.999
G1 X-244.001 Y-169.389 Z0.525
G3 X-245.998 Y-171.386 Z0.37 I-0.998 J-0.999
G1 X-233.998 Y-183.386 Z-0.223
G3 X-232.001 Y-183.387 Z-0.3 I0.999 J0.999
S6000
X-232.001 Y-181.389 I-0.999 J0.999 F1000
G1 X-244.001 Y-169.389
G3 X-245.998 Y-171.386 I-0.998 J-0.999
G1 X-233.998 Y-183.386
G3 X-232.001 Y-183.387 I0.999 J0.999
S5000
X-232.001 Y-181.389 Z-0.377 I-0.999 J0.999 F333.3
G1 X-240.557 Y-172.834 Z-0.8
S6000
X-244.001 Y-169.389 F1000
G3 X-245.998 Y-171.386 I-0.998 J-0.999
G1 X-233.998 Y-183.386
G3 X-232.001 Y-183.386 I0.999 J0.999
X-232.001 Y-181.389 I-0.999 J0.999
G1 X-240.557 Y-172.834
S5000
X-244.001 Y-169.389 Z-0.97 F333.3
G3 X-245.998 Y-171.386 Z-1.125 I-0.998 J-0.999
G1 X-242.456 Y-174.929 Z-1.3
S6000
X-233.998 Y-183.386 F1000
G3 X-232.001 Y-183.386 I0.999 J0.999
X-232.001 Y-181.389 I-0.999 J0.999
G1 X-240.557 Y-172.834
X-244.001 Y-169.389
G3 X-245.998 Y-171.386 I-0.998 J-0.999
G1 X-242.456 Y-174.929
S5000
X-233.998 Y-183.386 Z-1.718 F333.3
G3 X-231.908 Y-183.284 Z-1.8 I0.999 J0.999
S6000
X-232.001 Y-181.389 I-1.092 J0.896 F1000
G1 X-244.001 Y-169.389
G3 X-245.998 Y-171.386 I-0.998 J-0.999
G1 X-233.998 Y-183.386
G3 X-231.908 Y-183.284 I0.999 J0.999
S5000
X-232.001 Y-181.389 Z-1.873 I-1.092 J0.896 F333.3
G1 X-238.63 Y-174.76 Z-2.2
S6000
X-244.001 Y-169.389 F1000
G3 X-245.998 Y-171.386 I-0.998 J-0.999
G1 X-233.998 Y-183.386
G3 X-232.001 Y-183.386 I0.999 J0.999
X-232.001 Y-181.389 I-0.999 J0.999
G1 X-238.63 Y-174.76
G0 Z10
X-216.825 Y-181.603
Z5.2
G1 Z2.7 F333.3
S5000
G3 X-217.001 Y-181.389 Z2.69 I-1.174 J-0.785
G1 X-229.001 Y-169.389 Z2.098
G3 X-230.998 Y-171.386 Z1.943 I-0.998 J-0.999
G1 X-218.998 Y-183.386 Z1.35
G3 X-217.001 Y-183.386 Z1.273 I0.999 J0.999
X-217.001 Y-181.389 Z1.195 I-0.999 J0.999
G1 X-229.001 Y-169.389 Z0.603
G3 X-230.998 Y-171.386 Z0.448 I-0.998 J-0.999
G1 X-218.998 Y-183.386 Z-0.145
G3 X-217.001 Y-183.386 Z-0.223 I0.999 J0.999
X-217.001 Y-181.389 Z-0.3 I-0.999 J0.999
S6000
G1 X-229.001 Y-169.389 F1000
G3 X-230.998 Y-171.386 I-0.998 J-0.999
G1 X-218.998 Y-183.386
G3 X-217.001 Y-183.386 I0.999 J0.999
X-217.001 Y-181.389 I-0.999 J0.999
S5000
G1 X-227.126 Y-171.264 Z-0.8 F333.3
S6000
X-229.001 Y-169.389 F1000
G3 X-230.998 Y-171.386 I-0.998 J-0.999
G1 X-218.998 Y-183.386
G3 X-217.001 Y-183.386 I0.999 J0.999
X-217.001 Y-181.389 I-0.999 J0.999
G1 X-227.126 Y-171.264
S5000
X-229.001 Y-169.389 Z-0.893 F333.3
G3 X-230.998 Y-171.386 Z-1.048 I-0.998 J-0.999
G1 X-225.887 Y-176.498 Z-1.3
S6000
X-218.998 Y-183.386 F1000
G3 X-217.001 Y-183.386 I0.999 J0.999
X-217.001 Y-181.389 I-0.999 J0.999
G1 X-227.126 Y-171.264
X-229.001 Y-169.389
G3 X-230.998 Y-171.386 I-0.998 J-0.999
G1 X-225.887 Y-176.498
S5000
X-218.998 Y-183.386 Z-1.64 F333.3
G3 X-217.001 Y-183.386 Z-1.718 I0.999 J0.999
X-217.001 Y-181.389 Z-1.795 I-0.999 J0.999
G1 X-217.099 Y-181.291 Z-1.8
S6000
X-229.001 Y-169.389 F1000
G3 X-230.998 Y-171.386 I-0.998 J-0.999
G1 X-218.998 Y-183.386
G3 X-217.001 Y-183.386 I0.999 J0.999
X-217.001 Y-181.389 I-0.999 J0.999
G1 X-217.099 Y-181.291
S5000
X-225.199 Y-173.191 Z-2.2 F333.3
S6000
X-229.001 Y-169.389 F1000
G3 X-230.998 Y-171.386 I-0.998 J-0.999
G1 X-218.998 Y-183.386
G3 X-217.001 Y-183.386 I0.999 J0.999
X-217.001 Y-181.389 I-0.999 J0.999
G1 X-225.199 Y-173.191
G0 Z10
X-202.215 Y-183.563
Z5.2
G1 Z2.7 F333.3
S5000
G3 X-202.001 Y-181.389 Z2.613 I-0.784 J1.175
G1 X-214.001 Y-169.389 Z2.02
G3 X-215.998 Y-171.386 Z1.865 I-0.998 J-0.999
G1 X-203.998 Y-183.386 Z1.273
G3 X-202.001 Y-183.386 Z1.195 I0.999 J0.999
X-202.001 Y-181.389 Z1.118 I-0.999 J0.999
G1 X-214.001 Y-169.389 Z0.525
G3 X-215.998 Y-171.386 Z0.37 I-0.998 J-0.999
G1 X-203.998 Y-183.386 Z-0.223
G3 X-202.001 Y-183.387 Z-0.3 I0.999 J0.999
S6000
X-202.001 Y-181.389 I-0.999 J0.999 F1000
G1 X-214.001 Y-169.389
G3 X-215.998 Y-171.386 I-0.998 J-0.999
G1 X-203.998 Y-183.386
G3 X-202.001 Y-183.387 I0.999 J0.999
S5000
X-202.001 Y-181.389 Z-0.377 I-0.999 J0.999 F333.3
G1 X-210.557 Y-172.834 Z-0.8
S6000
X-214.001 Y-169.389 F1000
G3 X-215.998 Y-171.386 I-0.998 J-0.999
G1 X-203.998 Y-183.386
G3 X-202.001 Y-183.386 I0.999 J0.999
X-202.001 Y-181.389 I-0.999 J0.999
G1 X-210.557 Y-172.834
S5000
X-214.001 Y-169.389 Z-0.97 F333.3
G3 X-215.998 Y-171.386 Z-1.125 I-0.998 J-0.999
G1 X-212.456 Y-174.929 Z-1.3
S6000
X-203.998 Y-183.386 F1000
G3 X-202.001 Y-183.386 I0.999 J0.999
X-202.001 Y-181.389 I-0.999 J0.999
G1 X-210.557 Y-172.834
X-214.001 Y-169.389
G3 X-215.998 Y-171.386 I-0.998 J-0.999
G1 X-212.456 Y-174.929
S5000
X-203.998 Y-183.386 Z-1.718 F333.3
G3 X-201.908 Y-183.284 Z-1.8 I0.999 J0.999
S6000
X-202.001 Y-181.389 I-1.092 J0.896 F1000
G1 X-214.001 Y-169.389
G3 X-215.998 Y-171.386 I-0.998 J-0.999
G1 X-203.998 Y-183.386
G3 X-201.908 Y-183.284 I0.999 J0.999
S5000
X-202.001 Y-181.389 Z-1.873 I-1.092 J0.896 F333.3
G1 X-208.63 Y-174.76 Z-2.2
S6000
X-214.001 Y-169.389 F1000
G3 X-215.998 Y-171.386 I-0.998 J-0.999
G1 X-203.998 Y-183.386
G3 X-202.001 Y-183.386 I0.999 J0.999
X-202.001 Y-181.389 I-0.999 J0.999
G1 X-208.63 Y-174.76
G0 Z10
X-203.785 Y-191.213
Z5.2
G1 Z2.7 F333.3
S5000
G3 X-203.999 Y-191.389 Z2.69 I0.784 J-1.175
G1 X-215.998 Y-203.389 Z2.098
G3 X-215.999 Y-205.386 Z2.02 I0.998 J-0.999
X-214.002 Y-205.387 Z1.943 I0.999 J0.998
G1 X-202.002 Y-193.386 Z1.35
G3 X-203.999 Y-191.389 Z1.195 I-0.999 J0.999
G1 X-215.998 Y-203.389 Z0.603
G3 X-215.999 Y-205.386 Z0.525 I0.998 J-0.999
X-214.002 Y-205.387 Z0.448 I0.999 J0.998
G1 X-202.002 Y-193.386 Z-0.145
G3 X-203.999 Y-191.389 Z-0.3 I-0.999 J0.999
S6000
G1 X-215.998 Y-203.389 F1000
G3 X-215.999 Y-205.386 I0.998 J-0.999
X-214.002 Y-205.387 I0.999 J0.998
G1 X-202.002 Y-193.386
G3 X-203.999 Y-191.389 I-0.999 J0.999
S5000
G1 X-214.124 Y-201.514 Z-0.8 F333.3
S6000
X-215.998 Y-203.389 F1000
G3 X-215.999 Y-205.386 I0.998 J-0.999
X-214.002 Y-205.387 I0.999 J0.998
G1 X-202.002 Y-193.386
G3 X-203.999 Y-191.389 I-0.999 J0.999
G1 X-214.124 Y-201.514
S5000
X-215.998 Y-203.389 Z-0.893 F333.3
G3 X-215.999 Y-205.386 Z-0.97 I0.998 J-0.999
X-214.002 Y-205.387 Z-1.048 I0.999 J0.998
G1 X-208.89 Y-200.275 Z-1.3
S6000
X-202.002 Y-193.386 F1000
G3 X-203.999 Y-191.389 I-0.999 J0.999
G1 X-214.124 Y-201.514
X-215.998 Y-203.389
G3 X-215.999 Y-205.386 I0.998 J-0.999
X-214.002 Y-205.387 I0.999 J0.998
G1 X-208.89 Y-200.275
S5000
X-202.002 Y-193.386 Z-1.64 F333.3
G3 X-203.999 Y-191.389 Z-1.795 I-0.999 J0.999
G1 X-204.097 Y-191.487 Z-1.8
S6000
X-215.998 Y-203.389 F1000
G3 X-215.999 Y-205.386 I0.998 J-0.999
X-214.002 Y-205.387 I0.999 J0.998
G1 X-202.002 Y-193.386
G3 X-203.999 Y-191.389 I-0.999 J0.999
G1 X-204.097 Y-191.487
S5000
X-212.197 Y-199.587 Z-2.2 F333.3
S6000
X-215.998 Y-203.389 F1000
G3 X-215.999 Y-205.386 I0.998 J-0.999
X-214.002 Y-205.387 I0.999 J0.998
G1 X-202.002 Y-193.386
G3 X-203.999 Y-191.389 I-0.999 J0.999
G1 X-212.197 Y-199.587
G0 Z10
X-229.216 Y-205.562
Z5.2
G1 Z2.7 F333.3
S5000
G3 X-229.002 Y-205.387 Z2.69 I-0.784 J1.175
G1 X-217.002 Y-193.386 Z2.098
G3 X-218.999 Y-191.389 Z1.943 I-0.999 J0.999
G1 X-230.998 Y-203.389 Z1.35
G3 X-230.999 Y-205.386 Z1.273 I0.998 J-0.999
X-229.002 Y-205.387 Z1.195 I0.999 J0.998
G1 X-217.002 Y-193.386 Z0.603
G3 X-218.999 Y-191.389 Z0.448 I-0.999 J0.999
G1 X-230.998 Y-203.389 Z-0.145
G3 X-230.999 Y-205.386 Z-0.223 I0.998 J-0.999
X-229.002 Y-205.387 Z-0.3 I0.999 J0.998
S6000
G1 X-217.002 Y-193.386 F1000
G3 X-218.999 Y-191.389 I-0.999 J0.999
G1 X-230.998 Y-203.389
G3 X-230.999 Y-205.386 I0.998 J-0.999
X-229.002 Y-205.387 I0.999 J0.998
S5000
G1 X-218.877 Y-195.262 Z-0.8 F333.3
S6000
X-217.002 Y-193.386 F1000
G3 X-218.999 Y-191.389 I-0.999 J0.999
G1 X-230.998 Y-203.389
G3 X-230.999 Y-205.386 I0.998 J-0.999
X-229.002 Y-205.387 I0.999 J0.998
G1 X-218.877 Y-195.262
S5000
X-217.002 Y-193.386 Z-0.893 F333.3
G3 X-218.999 Y-191.389 Z-1.048 I-0.999 J0.999
G1 X-224.11 Y-196.501 Z-1.3
S6000
X-230.998 Y-203.389 F1000
G3 X-230.999 Y-205.386 I0.998 J-0.999
X-229.002 Y-205.387 I0.999 J0.998
G1 X-218.877 Y-195.262
X-217.002 Y-193.386
G3 X-218.999 Y-191.389 I-0.999 J0.999
G1 X-224.11 Y-196.501
S5000
X-230.998 Y-203.389 Z-1.64 F333.3
G3 X-230.999 Y-205.386 Z-1.718 I0.998 J-0.999
X-229.002 Y-205.387 Z-1.795 I0.999 J0.998
G1 X-228.903 Y-205.288 Z-1.8
S6000
X-217.002 Y-193.386 F1000
G3 X-218.999 Y-191.389 I-0.999 J0.999
G1 X-230.998 Y-203.389
G3 X-230.999 Y-205.386 I0.998 J-0.999
X-229.002 Y-205.387 I0.999 J0.998
G1 X-228.903 Y-205.288
S5000
X-220.804 Y-197.189 Z-2.2 F333.3
S6000
X-217.002 Y-193.386 F1000
G3 X-218.999 Y-191.389 I-0.999 J0.999
G1 X-230.998 Y-203.389
G3 X-230.999 Y-205.386 I0.998 J-0.999
X-229.002 Y-205.387 I0.999 J0.998
G1 X-228.903 Y-205.288
X-220.804 Y-197.189
G0 Z10
X-244.216 Y-205.562
Z5.2
G1 Z2.7 F333.3
S5000
G3 X-244.002 Y-205.387 Z2.69 I-0.784 J1.175
G1 X-232.002 Y-193.386 Z2.098
G3 X-233.999 Y-191.389 Z1.943 I-0.999 J0.999
G1 X-245.998 Y-203.389 Z1.35
G3 X-245.999 Y-205.386 Z1.273 I0.998 J-0.999
X-244.002 Y-205.387 Z1.195 I0.999 J0.998
G1 X-232.002 Y-193.386 Z0.603
G3 X-233.999 Y-191.389 Z0.448 I-0.999 J0.999
G1 X-245.998 Y-203.389 Z-0.145
G3 X-245.999 Y-205.386 Z-0.223 I0.998 J-0.999
X-244.002 Y-205.387 Z-0.3 I0.999 J0.998
S6000
G1 X-232.002 Y-193.386 F1000
G3 X-233.999 Y-191.389 I-0.999 J0.999
G1 X-245.998 Y-203.389
G3 X-245.999 Y-205.386 I0.998 J-0.999
X-244.002 Y-205.387 I0.999 J0.998
S5000
G1 X-233.877 Y-195.262 Z-0.8 F333.3
S6000
X-232.002 Y-193.386 F1000
G3 X-233.999 Y-191.389 I-0.999 J0.999
G1 X-245.998 Y-203.389
G3 X-245.999 Y-205.386 I0.998 J-0.999
X-244.002 Y-205.387 I0.999 J0.998
G1 X-233.877 Y-195.262
S5000
X-232.002 Y-193.386 Z-0.893 F333.3
G3 X-233.999 Y-191.389 Z-1.048 I-0.999 J0.999
G1 X-239.11 Y-196.501 Z-1.3
S6000
X-245.998 Y-203.389 F1000
G3 X-245.999 Y-205.386 I0.998 J-0.999
X-244.002 Y-205.387 I0.999 J0.998
G1 X-233.877 Y-195.262
X-232.002 Y-193.386
G3 X-233.999 Y-191.389 I-0.999 J0.999
G1 X-239.11 Y-196.501
S5000
X-245.998 Y-203.389 Z-1.64 F333.3
G3 X-245.999 Y-205.386 Z-1.718 I0.998 J-0.999
X-244.002 Y-205.387 Z-1.795 I0.999 J0.998
G1 X-243.903 Y-205.288 Z-1.8
S6000
X-232.002 Y-193.386 F1000
G3 X-233.999 Y-191.389 I-0.999 J0.999
G1 X-245.998 Y-203.389
G3 X-245.999 Y-205.386 I0.998 J-0.999
X-244.002 Y-205.387 I0.999 J0.998
G1 X-243.903 Y-205.288
S5000
X-235.804 Y-197.189 Z-2.2 F333.3
S6000
X-232.002 Y-193.386 F1000
G3 X-233.999 Y-191.389 I-0.999 J0.999
G1 X-245.998 Y-203.389
G3 X-245.999 Y-205.386 I0.998 J-0.999
X-244.002 Y-205.387 I0.999 J0.998
G1 X-235.804 Y-197.189
G0 Z10
X-259.216 Y-205.562
Z5.2
G1 Z2.7 F333.3
S5000
G3 X-259.002 Y-205.387 Z2.69 I-0.784 J1.175
G1 X-247.002 Y-193.386 Z2.098
G3 X-248.999 Y-191.389 Z1.943 I-0.999 J0.999
G1 X-260.998 Y-203.389 Z1.35
G3 X-260.999 Y-205.386 Z1.273 I0.998 J-0.999
X-259.002 Y-205.387 Z1.195 I0.999 J0.998
G1 X-247.002 Y-193.386 Z0.603
G3 X-248.999 Y-191.389 Z0.448 I-0.999 J0.999
G1 X-260.998 Y-203.389 Z-0.145
G3 X-260.999 Y-205.386 Z-0.223 I0.998 J-0.999
X-259.002 Y-205.387 Z-0.3 I0.999 J0.998
S6000
G1 X-247.002 Y-193.386 F1000
G3 X-248.999 Y-191.389 I-0.999 J0.999
G1 X-260.998 Y-203.389
G3 X-260.999 Y-205.386 I0.998 J-0.999
X-259.002 Y-205.387 I0.999 J0.998
S5000
G1 X-248.877 Y-195.262 Z-0.8 F333.3
S6000
X-247.002 Y-193.386 F1000
G3 X-248.999 Y-191.389 I-0.999 J0.999
G1 X-260.998 Y-203.389
G3 X-260.999 Y-205.386 I0.998 J-0.999
X-259.002 Y-205.387 I0.999 J0.998
G1 X-248.877 Y-195.262
S5000
X-247.002 Y-193.386 Z-0.893 F333.3
G3 X-248.999 Y-191.389 Z-1.048 I-0.999 J0.999
G1 X-254.11 Y-196.501 Z-1.3
S6000
X-260.998 Y-203.389 F1000
G3 X-260.999 Y-205.386 I0.998 J-0.999
X-259.002 Y-205.387 I0.999 J0.998
G1 X-248.877 Y-195.262
X-247.002 Y-193.386
G3 X-248.999 Y-191.389 I-0.999 J0.999
G1 X-254.11 Y-196.501
S5000
X-260.998 Y-203.389 Z-1.64 F333.3
G3 X-260.999 Y-205.386 Z-1.718 I0.998 J-0.999
X-259.002 Y-205.387 Z-1.795 I0.999 J0.998
G1 X-258.903 Y-205.288 Z-1.8
S6000
X-247.002 Y-193.386 F1000
G3 X-248.999 Y-191.389 I-0.999 J0.999
G1 X-260.998 Y-203.389
G3 X-260.999 Y-205.386 I0.998 J-0.999
X-259.002 Y-205.387 I0.999 J0.998
G1 X-258.903 Y-205.288
S5000
X-250.804 Y-197.189 Z-2.2 F333.3
S6000
X-247.002 Y-193.386 F1000
G3 X-248.999 Y-191.389 I-0.999 J0.999
G1 X-260.998 Y-203.389
G3 X-260.999 Y-205.386 I0.998 J-0.999
X-259.002 Y-205.387 I0.999 J0.998
