(1001)
(Bearbeiten)
(  Hersteller: ChinaCnc)
(  model: 3040T)
(  description: Generic 3-axis)
(T16  D=6 CR=0 - ZMIN=-30.2 - Schaftfraser)
G90 G94
G17
G21
G28 G91 Z0
G90

(Bohrfrasen5)
T16
S6000 M3
G54
G0 X0 Y0
Z5
Z2
G1 Z0 F1000
X-0.025 Y0.025
X-0.043 Y0.018
X-0.05 Y0
X-0.042 Y-0.027 Z-0.18
X-0.021 Y-0.045 Z-0.36
X0.006 Y-0.05 Z-0.539
X0.032 Y-0.039 Z-0.719
X0.047 Y-0.016 Z-0.899
X0.048 Y0.012 Z-1.079
X0.034 Y0.036 Z-1.258
X0.01 Y0.049 Z-1.438
X-0.018 Y0.047 Z-1.618
X-0.04 Y0.03 Z-1.798
X-0.05 Y0.004 Z-1.977
X-0.044 Y-0.024 Z-2.157
X-0.025 Y-0.044 Z-2.337
X0.003 Y-0.05 Z-2.517
X0.029 Y-0.041 Z-2.696
X0.046 Y-0.019 Z-2.876
X0.049 Y0.009 Z-3.056
X0.037 Y0.034 Z-3.236
X0.013 Y0.048 Z-3.415
X-0.015 Z-3.595
X-0.038 Y0.032 Z-3.775
X-0.049 Y0.007 Z-3.955
X-0.046 Y-0.021 Z-4.135
X-0.028 Y-0.042 Z-4.314
X-0.001 Y-0.05 Z-4.494
X0.026 Y-0.043 Z-4.674
X0.045 Y-0.022 Z-4.854
X0.05 Y0.005 Z-5.033
X0.039 Y0.031 Z-5.213
X0.017 Y0.047 Z-5.393
X-0.011 Y0.049 Z-5.573
X-0.036 Y0.035 Z-5.752
X-0.049 Y0.011 Z-5.932
X-0.047 Y-0.017 Z-6.112
X-0.03 Y-0.04 Z-6.292
X-0.004 Y-0.05 Z-6.471
X0.023 Y-0.044 Z-6.651
X0.043 Y-0.025 Z-6.831
X0.05 Y0.002 Z-7.011
X0.041 Y0.028 Z-7.19
X0.02 Y0.046 Z-7.37
X-0.008 Y0.049 Z-7.55
X-0.033 Y0.038 Z-7.73
X-0.048 Y0.014 Z-7.91
Y-0.014 Z-8.089
X-0.033 Y-0.037 Z-8.269
X-0.008 Y-0.049 Z-8.449
X0.02 Y-0.046 Z-8.629
X0.041 Y-0.028 Z-8.808
X0.05 Y-0.002 Z-8.988
X0.043 Y0.025 Z-9.168
X0.023 Y0.044 Z-9.348
X-0.004 Y0.05 Z-9.527
X-0.03 Y0.04 Z-9.707
X-0.047 Y0.017 Z-9.887
X-0.049 Y-0.01 Z-10.067
X-0.036 Y-0.035 Z-10.246
X-0.011 Y-0.049 Z-10.426
X0.016 Y-0.047 Z-10.606
X0.039 Y-0.031 Z-10.786
X0.05 Y-0.005 Z-10.965
X0.045 Y0.022 Z-11.145
X0.026 Y0.043 Z-11.325
X-0.001 Y0.05 Z-11.505
X-0.027 Y0.042 Z-11.685
X-0.046 Y0.021 Z-11.864
X-0.05 Y-0.007 Z-12.044
X-0.038 Y-0.032 Z-12.224
X-0.015 Y-0.048 Z-12.404
X0.013 Z-12.583
X0.037 Y-0.034 Z-12.763
X0.049 Y-0.009 Z-12.943
X0.046 Y0.019 Z-13.123
X0.029 Y0.041 Z-13.302
X0.003 Y0.05 Z-13.482
X-0.024 Y0.044 Z-13.662
X-0.044 Y0.024 Z-13.842
X-0.05 Y-0.003 Z-14.021
X-0.04 Y-0.03 Z-14.201
X-0.018 Y-0.047 Z-14.381
X0.009 Y-0.049 Z-14.561
X0.034 Y-0.036 Z-14.74
X0.048 Y-0.012 Z-14.92
Y0.015 Z-15.1
X0.032 Y0.039 Z-15.28
X0.006 Y0.05 Z-15.46
X-0.021 Y0.045 Z-15.639
X-0.042 Y0.027 Z-15.819
X-0.05 Y0 Z-15.999
X-0.042 Y-0.027 Z-16.179
X-0.022 Y-0.045 Z-16.358
X0.006 Y-0.05 Z-16.538
X0.032 Y-0.039 Z-16.718
X0.047 Y-0.016 Z-16.898
X0.049 Y0.012 Z-17.077
X0.035 Y0.036 Z-17.257
X0.01 Y0.049 Z-17.437
X-0.018 Y0.047 Z-17.617
X-0.04 Y0.03 Z-17.796
X-0.05 Y0.004 Z-17.976
X-0.044 Y-0.024 Z-18.156
X-0.025 Y-0.043 Z-18.336
X0.002 Y-0.05 Z-18.515
X0.029 Y-0.041 Z-18.695
X0.046 Y-0.019 Z-18.875
X0.049 Y0.009 Z-19.055
X0.037 Y0.034 Z-19.235
X0.013 Y0.048 Z-19.414
X-0.015 Z-19.594
X-0.038 Y0.033 Z-19.774
X-0.049 Y0.007 Z-19.954
X-0.046 Y-0.02 Z-20.133
X-0.028 Y-0.042 Z-20.313
X-0.001 Y-0.05 Z-20.493
X0.026 Y-0.043 Z-20.673
X0.045 Y-0.022 Z-20.852
X0.05 Y0.005 Z-21.032
X0.039 Y0.031 Z-21.212
X0.017 Y0.047 Z-21.392
X-0.011 Y0.049 Z-21.571
X-0.035 Y0.035 Z-21.751
X-0.049 Y0.011 Z-21.931
X-0.047 Y-0.017 Z-22.111
X-0.031 Y-0.04 Z-22.29
X-0.005 Y-0.05 Z-22.47
X0.023 Y-0.045 Z-22.65
X0.043 Y-0.025 Z-22.83
X0.05 Y0.001 Z-23.01
X0.041 Y0.028 Z-23.189
X0.02 Y0.046 Z-23.369
X-0.008 Y0.049 Z-23.549
X-0.033 Y0.038 Z-23.729
X-0.048 Y0.014 Z-23.908
Y-0.014 Z-24.088
X-0.033 Y-0.037 Z-24.268
X-0.008 Y-0.049 Z-24.448
X0.019 Y-0.046 Z-24.627
X0.041 Y-0.028 Z-24.807
X0.05 Y-0.002 Z-24.987
X0.043 Y0.025 Z-25.167
X0.023 Y0.044 Z-25.346
X-0.004 Y0.05 Z-25.526
X-0.03 Y0.04 Z-25.706
X-0.047 Y0.018 Z-25.886
X-0.049 Y-0.01 Z-26.065
X-0.036 Y-0.035 Z-26.245
X-0.012 Y-0.049 Z-26.425
X0.016 Y-0.047 Z-26.605
X0.039 Y-0.031 Z-26.785
X0.05 Y-0.006 Z-26.964
X0.045 Y0.022 Z-27.144
X0.026 Y0.043 Z-27.324
X-0.001 Y0.05 Z-27.504
X-0.027 Y0.042 Z-27.683
X-0.045 Y0.021 Z-27.863
X-0.05 Y-0.007 Z-28.043
X-0.038 Y-0.032 Z-28.223
X-0.015 Y-0.048 Z-28.402
X0.013 Z-28.582
X0.037 Y-0.034 Z-28.762
X0.049 Y-0.009 Z-28.942
X0.046 Y0.019 Z-29.121
X0.029 Y0.041 Z-29.301
X0.003 Y0.05 Z-29.481
X-0.024 Y0.044 Z-29.661
X-0.044 Y0.024 Z-29.84
X-0.05 Y-0.003 Z-30.02
X-0.04 Y-0.029 Z-30.2
G3 X0.04 Y0.029 I0.04 J0.029
X-0.04 Y-0.029 I-0.04 J-0.029
G1 X-0.024 Y-0.039
X-0.006 Y-0.035
X0 Y0
G0 Z5
G28 G91 Z0
G90
G28 G91 X0 Y0
G90
M5
M30
