(1001)
(Bearbeiten)
(  Hersteller: ChinaCnc)
(  model: 3040T)
(  description: Generic 3-axis)
(T16  D=6 CR=0 - ZMIN=-30.2 - Schaftfraser)
G90 G94
G17
G21
(When using Fusion 360 for Personal Use, the feedrate of)
(rapid moves is reduced to match the feedrate of cutting)
(moves, which can increase machining time. Unrestricted rapid)
(moves are available with a Fusion 360 Subscription.)

(Bohrfrasen2)
T16
S6000 M3
G54
G0 X0 Y0
Z5
G1 Z2 F1000
Z0
X-0.05 Y0.05
X-0.075 Y0.043
X-0.093 Y0.025
X-0.1 Y0
X-0.092 Y-0.039 Z-0.127
X-0.07 Y-0.072 Z-0.255
X-0.036 Y-0.093 Z-0.382
X0.003 Y-0.1 Z-0.51
X0.042 Y-0.091 Z-0.637
X0.074 Y-0.067 Z-0.765
X0.094 Y-0.033 Z-0.892
X0.1 Y0.006 Z-1.019
X0.09 Y0.045 Z-1.147
X0.065 Y0.076 Z-1.274
X0.03 Y0.095 Z-1.402
X-0.009 Y0.1 Z-1.529
X-0.047 Y0.088 Z-1.657
X-0.078 Y0.063 Z-1.784
X-0.096 Y0.027 Z-1.911
X-0.099 Y-0.012 Z-2.039
X-0.087 Y-0.05 Z-2.166
X-0.06 Y-0.08 Z-2.294
X-0.025 Y-0.097 Z-2.421
X0.015 Y-0.099 Z-2.549
X0.053 Y-0.085 Z-2.676
X0.082 Y-0.058 Z-2.803
X0.098 Y-0.022 Z-2.931
Y0.018 Z-3.058
X0.083 Y0.055 Z-3.186
X0.055 Y0.083 Z-3.313
X0.019 Y0.098 Z-3.441
X-0.021 Z-3.568
X-0.058 Y0.082 Z-3.695
X-0.085 Y0.053 Z-3.823
X-0.099 Y0.016 Z-3.95
X-0.097 Y-0.024 Z-4.078
X-0.08 Y-0.06 Z-4.205
X-0.05 Y-0.086 Z-4.332
X-0.013 Y-0.099 Z-4.46
X0.027 Y-0.096 Z-4.587
X0.062 Y-0.078 Z-4.715
X0.088 Y-0.048 Z-4.842
X0.1 Y-0.01 Z-4.97
X0.095 Y0.03 Z-5.097
X0.076 Y0.065 Z-5.224
X0.045 Y0.089 Z-5.352
X0.006 Y0.1 Z-5.479
X-0.033 Y0.094 Z-5.607
X-0.067 Y0.074 Z-5.734
X-0.091 Y0.042 Z-5.862
X-0.1 Y0.003 Z-5.989
X-0.093 Y-0.036 Z-6.116
X-0.072 Y-0.069 Z-6.244
X-0.039 Y-0.092 Z-6.371
X0 Y-0.1 Z-6.499
X0.039 Y-0.092 Z-6.626
X0.072 Y-0.07 Z-6.754
X0.093 Y-0.037 Z-6.881
X0.1 Y0.003 Z-7.008
X0.091 Y0.041 Z-7.136
X0.068 Y0.074 Z-7.263
X0.034 Y0.094 Z-7.391
X-0.006 Y0.1 Z-7.518
X-0.044 Y0.09 Z-7.646
X-0.076 Y0.065 Z-7.773
X-0.095 Y0.031 Z-7.9
X-0.1 Y-0.009 Z-8.028
X-0.088 Y-0.047 Z-8.155
X-0.063 Y-0.078 Z-8.283
X-0.028 Y-0.096 Z-8.41
X0.012 Y-0.099 Z-8.538
X0.05 Y-0.087 Z-8.665
X0.079 Y-0.061 Z-8.792
X0.097 Y-0.025 Z-8.92
X0.099 Y0.015 Z-9.047
X0.085 Y0.052 Z-9.175
X0.058 Y0.081 Z-9.302
X0.022 Y0.098 Z-9.43
X-0.018 Z-9.557
X-0.055 Y0.084 Z-9.684
X-0.083 Y0.056 Z-9.812
X-0.098 Y0.019 Z-9.939
Y-0.021 Z-10.067
X-0.082 Y-0.057 Z-10.194
X-0.053 Y-0.085 Z-10.322
X-0.016 Y-0.099 Z-10.449
X0.024 Y-0.097 Z-10.576
X0.06 Y-0.08 Z-10.704
X0.086 Y-0.051 Z-10.831
X0.099 Y-0.013 Z-10.959
X0.096 Y0.027 Z-11.086
X0.078 Y0.062 Z-11.214
X0.048 Y0.088 Z-11.341
X0.01 Y0.1 Z-11.468
X-0.03 Y0.096 Z-11.596
X-0.065 Y0.076 Z-11.723
X-0.089 Y0.045 Z-11.851
X-0.1 Y0.007 Z-11.978
X-0.095 Y-0.033 Z-12.105
X-0.074 Y-0.067 Z-12.233
X-0.042 Y-0.091 Z-12.36
X-0.004 Y-0.1 Z-12.488
X0.035 Y-0.094 Z-12.615
X0.069 Y-0.072 Z-12.743
X0.092 Y-0.04 Z-12.87
X0.1 Y-0.001 Z-12.997
X0.092 Y0.038 Z-13.125
X0.07 Y0.071 Z-13.252
X0.037 Y0.093 Z-13.38
X-0.002 Y0.1 Z-13.507
X-0.041 Y0.091 Z-13.635
X-0.073 Y0.068 Z-13.762
X-0.094 Y0.034 Z-13.889
X-0.1 Y-0.005 Z-14.017
X-0.09 Y-0.044 Z-14.144
X-0.066 Y-0.075 Z-14.272
X-0.031 Y-0.095 Z-14.399
X0.008 Y-0.1 Z-14.527
X0.047 Y-0.089 Z-14.654
X0.077 Y-0.063 Z-14.781
X0.096 Y-0.028 Z-14.909
X0.099 Y0.011 Z-15.036
X0.087 Y0.049 Z-15.164
X0.061 Y0.079 Z-15.291
X0.025 Y0.097 Z-15.419
X-0.014 Y0.099 Z-15.546
X-0.052 Y0.086 Z-15.673
X-0.081 Y0.059 Z-15.801
X-0.097 Y0.022 Z-15.928
X-0.098 Y-0.017 Z-16.056
X-0.084 Y-0.054 Z-16.183
X-0.056 Y-0.083 Z-16.311
X-0.019 Y-0.098 Z-16.438
X0.02 Z-16.565
X0.057 Y-0.082 Z-16.693
X0.084 Y-0.054 Z-16.82
X0.099 Y-0.016 Z-16.948
X0.097 Y0.023 Z-17.075
X0.08 Y0.059 Z-17.203
X0.051 Y0.086 Z-17.33
X0.013 Y0.099 Z-17.457
X-0.026 Y0.096 Z-17.585
X-0.062 Y0.079 Z-17.712
X-0.088 Y0.048 Z-17.84
X-0.099 Y0.01 Z-17.967
X-0.096 Y-0.029 Z-18.095
X-0.077 Y-0.064 Z-18.222
X-0.046 Y-0.089 Z-18.349
X-0.007 Y-0.1 Z-18.477
X0.032 Y-0.095 Z-18.604
X0.067 Y-0.075 Z-18.732
X0.09 Y-0.043 Z-18.859
X0.1 Y-0.004 Z-18.986
X0.094 Y0.035 Z-19.114
X0.073 Y0.069 Z-19.241
X0.04 Y0.092 Z-19.369
X0.001 Y0.1 Z-19.496
X-0.038 Y0.093 Z-19.624
X-0.071 Y0.07 Z-19.751
X-0.093 Y0.037 Z-19.878
X-0.1 Y-0.002 Z-20.006
X-0.091 Y-0.041 Z-20.133
X-0.068 Y-0.073 Z-20.261
X-0.034 Y-0.094 Z-20.388
X0.005 Y-0.1 Z-20.516
X0.043 Y-0.09 Z-20.643
X0.075 Y-0.066 Z-20.77
X0.095 Y-0.032 Z-20.898
X0.1 Y0.008 Z-21.025
X0.089 Y0.046 Z-21.153
X0.064 Y0.077 Z-21.28
X0.029 Y0.096 Z-21.408
X-0.011 Y0.099 Z-21.535
X-0.049 Y0.087 Z-21.662
X-0.079 Y0.061 Z-21.79
X-0.097 Y0.026 Z-21.917
X-0.099 Y-0.014 Z-22.045
X-0.086 Y-0.051 Z-22.172
X-0.059 Y-0.081 Z-22.3
X-0.023 Y-0.097 Z-22.427
X0.017 Y-0.099 Z-22.554
X0.054 Y-0.084 Z-22.682
X0.083 Y-0.056 Z-22.809
X0.098 Y-0.02 Z-22.937
Y0.02 Z-23.064
X0.082 Y0.057 Z-23.192
X0.054 Y0.084 Z-23.319
X0.017 Y0.099 Z-23.446
X-0.023 Y0.097 Z-23.574
X-0.059 Y0.081 Z-23.701
X-0.086 Y0.051 Z-23.829
X-0.099 Y0.014 Z-23.956
X-0.097 Y-0.026 Z-24.084
X-0.079 Y-0.062 Z-24.211
X-0.049 Y-0.087 Z-24.338
X-0.011 Y-0.099 Z-24.466
X0.029 Y-0.096 Z-24.593
X0.064 Y-0.077 Z-24.721
X0.089 Y-0.046 Z-24.848
X0.1 Y-0.008 Z-24.976
X0.095 Y0.032 Z-25.103
X0.075 Y0.066 Z-25.23
X0.043 Y0.09 Z-25.358
X0.005 Y0.1 Z-25.485
X-0.035 Y0.094 Z-25.613
X-0.068 Y0.073 Z-25.74
X-0.091 Y0.04 Z-25.868
X-0.1 Y0.002 Z-25.995
X-0.093 Y-0.038 Z-26.122
X-0.071 Y-0.071 Z-26.25
X-0.038 Y-0.093 Z-26.377
X0.001 Y-0.1 Z-26.505
X0.04 Y-0.092 Z-26.632
X0.073 Y-0.069 Z-26.759
X0.094 Y-0.035 Z-26.887
X0.1 Y0.005 Z-27.014
X0.09 Y0.043 Z-27.142
X0.066 Y0.075 Z-27.269
X0.032 Y0.095 Z-27.397
X-0.008 Y0.1 Z-27.524
X-0.046 Y0.089 Z-27.651
X-0.077 Y0.064 Z-27.779
X-0.096 Y0.029 Z-27.906
X-0.099 Y-0.011 Z-28.034
X-0.087 Y-0.049 Z-28.161
X-0.062 Y-0.079 Z-28.289
X-0.026 Y-0.097 Z-28.416
X0.014 Y-0.099 Z-28.543
X0.051 Y-0.086 Z-28.671
X0.081 Y-0.059 Z-28.798
X0.097 Y-0.023 Z-28.926
X0.099 Y0.017 Z-29.053
X0.084 Y0.054 Z-29.181
X0.057 Y0.082 Z-29.308
X0.02 Y0.098 Z-29.435
X-0.02 Z-29.563
X-0.056 Y0.083 Z-29.69
X-0.084 Y0.054 Z-29.818
X-0.099 Y0.017 Z-29.945
X-0.097 Y-0.023 Z-30.073
X-0.081 Y-0.059 Z-30.2
G3 X0.081 Y0.059 I0.081 J0.059
X-0.081 Y-0.059 I-0.081 J-0.059
G1 X-0.061 Y-0.075
X-0.035 Y-0.079
X-0.011 Y-0.07
X0 Y0
Z5
M5
M30
