(1001)
G90 G94
G17
G21
(When using Fusion 360 for Personal Use, the feedrate of)
(rapid moves is reduced to match the feedrate of cutting)
(moves, which can increase machining time. Unrestricted rapid)
(moves are available with a Fusion 360 Subscription.)

(Bohrfrasen2)
S4000 M3
G54
G0 X0 Y0
Z4
G1 Z2 F1000
Z0
X-0.05 Y0.05
X-0.075 Y0.043
X-0.093 Y0.025
X-0.1 Y0
X-0.092 Y-0.039 Z-0.064
X-0.07 Y-0.072 Z-0.127
X-0.036 Y-0.093 Z-0.191
X0.003 Y-0.1 Z-0.255
X0.042 Y-0.091 Z-0.319
X0.074 Y-0.067 Z-0.382
X0.094 Y-0.033 Z-0.446
X0.1 Y0.006 Z-0.51
X0.09 Y0.045 Z-0.573
X0.065 Y0.076 Z-0.637
X0.03 Y0.095 Z-0.701
X-0.009 Y0.1 Z-0.765
X-0.047 Y0.088 Z-0.828
X-0.078 Y0.063 Z-0.892
X-0.096 Y0.027 Z-0.956
X-0.099 Y-0.012 Z-1.019
X-0.087 Y-0.05 Z-1.083
X-0.06 Y-0.08 Z-1.147
X-0.025 Y-0.097 Z-1.211
X0.015 Y-0.099 Z-1.274
X0.053 Y-0.085 Z-1.338
X0.082 Y-0.058 Z-1.402
X0.098 Y-0.022 Z-1.465
Y0.018 Z-1.529
X0.083 Y0.055 Z-1.593
X0.055 Y0.083 Z-1.657
X0.019 Y0.098 Z-1.72
X-0.021 Z-1.784
X-0.058 Y0.082 Z-1.848
X-0.085 Y0.053 Z-1.911
X-0.099 Y0.016 Z-1.975
X-0.097 Y-0.024 Z-2.039
X-0.08 Y-0.06 Z-2.103
X-0.05 Y-0.086 Z-2.166
X-0.013 Y-0.099 Z-2.23
X0.027 Y-0.096 Z-2.294
X0.062 Y-0.078 Z-2.357
X0.088 Y-0.048 Z-2.421
X0.1 Y-0.01 Z-2.485
X0.095 Y0.03 Z-2.549
X0.076 Y0.065 Z-2.612
X0.045 Y0.089 Z-2.676
X0.006 Y0.1 Z-2.74
X-0.033 Y0.094 Z-2.803
X-0.067 Y0.074 Z-2.867
X-0.091 Y0.042 Z-2.931
X-0.1 Y0.003 Z-2.995
X-0.093 Y-0.036 Z-3.058
X-0.072 Y-0.069 Z-3.122
X-0.039 Y-0.092 Z-3.186
X0 Y-0.1 Z-3.249
X0.039 Y-0.092 Z-3.313
X0.072 Y-0.07 Z-3.377
X0.093 Y-0.037 Z-3.441
X0.1 Y0.003 Z-3.504
X0.091 Y0.041 Z-3.568
X0.068 Y0.074 Z-3.632
X0.034 Y0.094 Z-3.695
X-0.006 Y0.1 Z-3.759
X-0.044 Y0.09 Z-3.823
X-0.076 Y0.065 Z-3.886
X-0.095 Y0.031 Z-3.95
X-0.1 Y-0.009 Z-4.014
X-0.088 Y-0.047 Z-4.078
X-0.063 Y-0.078 Z-4.141
X-0.028 Y-0.096 Z-4.205
X0.012 Y-0.099 Z-4.269
X0.05 Y-0.087 Z-4.332
X0.079 Y-0.061 Z-4.396
X0.097 Y-0.025 Z-4.46
X0.099 Y0.015 Z-4.524
X0.085 Y0.052 Z-4.587
X0.058 Y0.081 Z-4.651
X0.022 Y0.098 Z-4.715
X-0.018 Z-4.778
X-0.055 Y0.084 Z-4.842
X-0.083 Y0.056 Z-4.906
X-0.098 Y0.019 Z-4.97
Y-0.021 Z-5.033
X-0.082 Y-0.057 Z-5.097
X-0.053 Y-0.085 Z-5.161
X-0.016 Y-0.099 Z-5.224
X0.024 Y-0.097 Z-5.288
X0.06 Y-0.08 Z-5.352
X0.086 Y-0.051 Z-5.416
X0.099 Y-0.013 Z-5.479
X0.096 Y0.027 Z-5.543
X0.078 Y0.062 Z-5.607
X0.048 Y0.088 Z-5.67
X0.01 Y0.1 Z-5.734
X-0.03 Y0.096 Z-5.798
X-0.065 Y0.076 Z-5.862
X-0.089 Y0.045 Z-5.925
X-0.1 Y0.007 Z-5.989
X-0.095 Y-0.033 Z-6.053
X-0.074 Y-0.067 Z-6.116
X-0.042 Y-0.091 Z-6.18
X-0.004 Y-0.1 Z-6.244
X0.035 Y-0.094 Z-6.308
X0.069 Y-0.072 Z-6.371
X0.092 Y-0.04 Z-6.435
X0.1 Y-0.001 Z-6.499
X0.092 Y0.038 Z-6.562
X0.07 Y0.071 Z-6.626
X0.037 Y0.093 Z-6.69
X-0.002 Y0.1 Z-6.754
X-0.041 Y0.091 Z-6.817
X-0.073 Y0.068 Z-6.881
X-0.094 Y0.034 Z-6.945
X-0.1 Y-0.005 Z-7.008
X-0.09 Y-0.044 Z-7.072
X-0.066 Y-0.075 Z-7.136
X-0.031 Y-0.095 Z-7.2
X0.008 Y-0.1 Z-7.263
X0.047 Y-0.089 Z-7.327
X0.077 Y-0.063 Z-7.391
X0.096 Y-0.028 Z-7.454
X0.099 Y0.011 Z-7.518
X0.087 Y0.049 Z-7.582
X0.061 Y0.079 Z-7.646
X0.025 Y0.097 Z-7.709
X-0.014 Y0.099 Z-7.773
X-0.052 Y0.086 Z-7.837
X-0.081 Y0.059 Z-7.9
X-0.097 Y0.022 Z-7.964
X-0.098 Y-0.017 Z-8.028
X-0.084 Y-0.054 Z-8.092
X-0.056 Y-0.083 Z-8.155
X-0.019 Y-0.098 Z-8.219
X0.02 Z-8.283
X0.057 Y-0.082 Z-8.346
X0.084 Y-0.054 Z-8.41
X0.099 Y-0.016 Z-8.474
X0.097 Y0.023 Z-8.538
X0.08 Y0.059 Z-8.601
X0.051 Y0.086 Z-8.665
X0.013 Y0.099 Z-8.729
X-0.026 Y0.096 Z-8.792
X-0.062 Y0.079 Z-8.856
X-0.088 Y0.048 Z-8.92
X-0.099 Y0.01 Z-8.984
X-0.096 Y-0.029 Z-9.047
X-0.077 Y-0.064 Z-9.111
X-0.046 Y-0.089 Z-9.175
X-0.007 Y-0.1 Z-9.238
X0.032 Y-0.095 Z-9.302
X0.067 Y-0.075 Z-9.366
X0.09 Y-0.043 Z-9.43
X0.1 Y-0.004 Z-9.493
X0.094 Y0.035 Z-9.557
X0.073 Y0.069 Z-9.621
X0.04 Y0.092 Z-9.684
X0.001 Y0.1 Z-9.748
X-0.038 Y0.093 Z-9.812
X-0.071 Y0.07 Z-9.876
X-0.093 Y0.037 Z-9.939
X-0.1 Y-0.002 Z-10.003
X-0.091 Y-0.041 Z-10.067
X-0.068 Y-0.073 Z-10.13
X-0.034 Y-0.094 Z-10.194
X0.005 Y-0.1 Z-10.258
X0.043 Y-0.09 Z-10.322
X0.075 Y-0.066 Z-10.385
X0.095 Y-0.032 Z-10.449
X0.1 Y0.008 Z-10.513
X0.089 Y0.046 Z-10.576
X0.064 Y0.077 Z-10.64
X0.029 Y0.096 Z-10.704
X-0.011 Y0.099 Z-10.768
X-0.049 Y0.087 Z-10.831
X-0.079 Y0.061 Z-10.895
X-0.097 Y0.026 Z-10.959
X-0.099 Y-0.014 Z-11.022
X-0.086 Y-0.051 Z-11.086
X-0.059 Y-0.081 Z-11.15
X-0.023 Y-0.097 Z-11.214
X0.017 Y-0.099 Z-11.277
X0.054 Y-0.084 Z-11.341
X0.083 Y-0.056 Z-11.405
X0.098 Y-0.02 Z-11.468
Y0.02 Z-11.532
X0.082 Y0.057 Z-11.596
X0.054 Y0.084 Z-11.659
X0.017 Y0.099 Z-11.723
X-0.023 Y0.097 Z-11.787
X-0.059 Y0.081 Z-11.851
X-0.086 Y0.051 Z-11.914
X-0.099 Y0.014 Z-11.978
X-0.097 Y-0.026 Z-12.042
X-0.079 Y-0.062 Z-12.105
X-0.049 Y-0.087 Z-12.169
X-0.011 Y-0.099 Z-12.233
X0.029 Y-0.096 Z-12.297
X0.064 Y-0.077 Z-12.36
X0.089 Y-0.046 Z-12.424
X0.1 Y-0.008 Z-12.488
X0.095 Y0.032 Z-12.551
X0.075 Y0.066 Z-12.615
X0.043 Y0.09 Z-12.679
X0.005 Y0.1 Z-12.743
X-0.035 Y0.094 Z-12.806
X-0.068 Y0.073 Z-12.87
X-0.091 Y0.04 Z-12.934
X-0.1 Y0.002 Z-12.997
X-0.093 Y-0.038 Z-13.061
X-0.071 Y-0.071 Z-13.125
X-0.038 Y-0.093 Z-13.189
X0.001 Y-0.1 Z-13.252
X0.04 Y-0.092 Z-13.316
X0.073 Y-0.069 Z-13.38
X0.094 Y-0.035 Z-13.443
X0.1 Y0.005 Z-13.507
X0.09 Y0.043 Z-13.571
X0.066 Y0.075 Z-13.635
X0.032 Y0.095 Z-13.698
X-0.008 Y0.1 Z-13.762
X-0.046 Y0.089 Z-13.826
X-0.077 Y0.064 Z-13.889
X-0.096 Y0.029 Z-13.953
X-0.099 Y-0.011 Z-14.017
X-0.087 Y-0.049 Z-14.081
X-0.062 Y-0.079 Z-14.144
X-0.026 Y-0.097 Z-14.208
X0.014 Y-0.099 Z-14.272
X0.051 Y-0.086 Z-14.335
X0.081 Y-0.059 Z-14.399
X0.097 Y-0.023 Z-14.463
X0.099 Y0.017 Z-14.527
X0.084 Y0.054 Z-14.59
X0.057 Y0.082 Z-14.654
X0.02 Y0.098 Z-14.718
X-0.02 Z-14.781
X-0.056 Y0.083 Z-14.845
X-0.084 Y0.054 Z-14.909
X-0.099 Y0.017 Z-14.973
X-0.097 Y-0.023 Z-15.036
X-0.081 Y-0.059 Z-15.1
X-0.052 Y-0.086 Z-15.164
X-0.014 Y-0.099 Z-15.227
X0.026 Y-0.097 Z-15.291
X0.061 Y-0.079 Z-15.355
X0.087 Y-0.049 Z-15.419
X0.099 Y-0.011 Z-15.482
X0.096 Y0.028 Z-15.546
X0.077 Y0.064 Z-15.61
X0.046 Y0.089 Z-15.673
X0.008 Y0.1 Z-15.737
X-0.031 Y0.095 Z-15.801
X-0.066 Y0.075 Z-15.865
X-0.09 Y0.044 Z-15.928
X-0.1 Y0.005 Z-15.992
X-0.094 Y-0.034 Z-16.056
X-0.073 Y-0.068 Z-16.119
X-0.041 Y-0.091 Z-16.183
X-0.002 Y-0.1 Z-16.247
X0.037 Y-0.093 Z-16.311
X0.07 Y-0.071 Z-16.374
X0.093 Y-0.038 Z-16.438
X0.1 Y0.001 Z-16.502
X0.092 Y0.04 Z-16.565
X0.069 Y0.073 Z-16.629
X0.035 Y0.094 Z-16.693
X-0.004 Y0.1 Z-16.757
X-0.043 Y0.09 Z-16.82
X-0.075 Y0.067 Z-16.884
X-0.095 Y0.032 Z-16.948
X-0.1 Y-0.007 Z-17.011
X-0.089 Y-0.045 Z-17.075
X-0.064 Y-0.077 Z-17.139
X-0.029 Y-0.096 Z-17.203
X0.01 Y-0.099 Z-17.266
X0.048 Y-0.088 Z-17.33
X0.079 Y-0.062 Z-17.394
X0.096 Y-0.026 Z-17.457
X0.099 Y0.013 Z-17.521
X0.086 Y0.051 Z-17.585
X0.06 Y0.08 Z-17.649
X0.024 Y0.097 Z-17.712
X-0.016 Y0.099 Z-17.776
X-0.053 Y0.085 Z-17.84
X-0.082 Y0.057 Z-17.903
X-0.098 Y0.021 Z-17.967
Y-0.019 Z-18.031
X-0.083 Y-0.056 Z-18.095
X-0.055 Y-0.084 Z-18.158
X-0.018 Y-0.098 Z-18.222
X0.022 Z-18.286
X0.058 Y-0.081 Z-18.349
X0.085 Y-0.052 Z-18.413
X0.099 Y-0.015 Z-18.477
X0.097 Y0.025 Z-18.541
X0.079 Y0.061 Z-18.604
X0.049 Y0.087 Z-18.668
X0.012 Y0.099 Z-18.732
X-0.028 Y0.096 Z-18.795
X-0.063 Y0.077 Z-18.859
X-0.088 Y0.047 Z-18.923
X-0.1 Y0.008 Z-18.986
X-0.095 Y-0.031 Z-19.05
X-0.075 Y-0.066 Z-19.114
X-0.044 Y-0.09 Z-19.178
X-0.005 Y-0.1 Z-19.241
X0.034 Y-0.094 Z-19.305
X0.068 Y-0.073 Z-19.369
X0.091 Y-0.041 Z-19.432
X0.1 Y-0.002 Z-19.496
X0.093 Y0.037 Z-19.56
X0.071 Y0.07 Z-19.624
X0.038 Y0.092 Z-19.687
X-0.001 Y0.1 Z-19.751
X-0.04 Y0.092 Z-19.815
X-0.072 Y0.069 Z-19.878
X-0.093 Y0.036 Z-19.942
X-0.1 Y-0.004 Z-20.006
X-0.091 Y-0.042 Z-20.07
X-0.067 Y-0.074 Z-20.133
X-0.033 Y-0.095 Z-20.197
X0.007 Y-0.1 Z-20.261
X0.045 Y-0.089 Z-20.324
X0.076 Y-0.065 Z-20.388
X0.095 Y-0.03 Z-20.452
X0.1 Y0.01 Z-20.516
X0.088 Y0.048 Z-20.579
X0.062 Y0.078 Z-20.643
X0.027 Y0.096 Z-20.707
X-0.013 Y0.099 Z-20.77
X-0.05 Y0.086 Z-20.834
X-0.08 Y0.06 Z-20.898
X-0.097 Y0.024 Z-20.962
X-0.099 Y-0.016 Z-21.025
X-0.085 Y-0.053 Z-21.089
X-0.057 Y-0.082 Z-21.153
X-0.021 Y-0.098 Z-21.216
X0.019 Z-21.28
X0.056 Y-0.083 Z-21.344
X0.084 Y-0.055 Z-21.408
X0.098 Y-0.018 Z-21.471
Y0.022 Z-21.535
X0.081 Y0.058 Z-21.599
X0.052 Y0.085 Z-21.662
X0.015 Y0.099 Z-21.726
X-0.025 Y0.097 Z-21.79
X-0.061 Y0.08 Z-21.854
X-0.087 Y0.05 Z-21.917
X-0.099 Y0.012 Z-21.981
X-0.096 Y-0.028 Z-22.045
X-0.078 Y-0.063 Z-22.108
X-0.047 Y-0.088 Z-22.172
X-0.009 Y-0.1 Z-22.236
X0.031 Y-0.095 Z-22.3
X0.065 Y-0.076 Z-22.363
X0.09 Y-0.044 Z-22.427
X0.1 Y-0.006 Z-22.491
X0.094 Y0.034 Z-22.554
X0.074 Y0.068 Z-22.618
X0.042 Y0.091 Z-22.682
X0.003 Y0.1 Z-22.746
X-0.036 Y0.093 Z-22.809
X-0.07 Y0.072 Z-22.873
X-0.092 Y0.039 Z-22.937
X-0.1 Y0 Z-23
X-0.092 Y-0.039 Z-23.064
X-0.069 Y-0.072 Z-23.128
X-0.036 Y-0.093 Z-23.192
X0.003 Y-0.1 Z-23.255
X0.042 Y-0.091 Z-23.319
X0.074 Y-0.067 Z-23.383
X0.094 Y-0.033 Z-23.446
X0.1 Y0.006 Z-23.51
X0.089 Y0.045 Z-23.574
X0.065 Y0.076 Z-23.638
X0.03 Y0.095 Z-23.701
X-0.009 Y0.1 Z-23.765
X-0.047 Y0.088 Z-23.829
X-0.078 Y0.063 Z-23.892
X-0.096 Y0.027 Z-23.956
X-0.099 Y-0.012 Z-24.02
X-0.087 Y-0.05 Z-24.084
X-0.06 Y-0.08 Z-24.147
X-0.024 Y-0.097 Z-24.211
X0.015 Y-0.099 Z-24.275
X0.053 Y-0.085 Z-24.338
X0.082 Y-0.058 Z-24.402
X0.098 Y-0.021 Z-24.466
Y0.018 Z-24.53
X0.083 Y0.055 Z-24.593
X0.055 Y0.083 Z-24.657
X0.018 Y0.098 Z-24.721
X-0.021 Z-24.784
X-0.058 Y0.082 Z-24.848
X-0.085 Y0.053 Z-24.912
X-0.099 Y0.015 Z-24.976
X-0.097 Y-0.024 Z-25.039
X-0.08 Y-0.06 Z-25.103
X-0.05 Y-0.087 Z-25.167
X-0.012 Y-0.099 Z-25.23
X0.027 Y-0.096 Z-25.294
X0.063 Y-0.078 Z-25.358
X0.088 Y-0.047 Z-25.422
X0.1 Y-0.009 Z-25.485
X0.095 Y0.03 Z-25.549
X0.076 Y0.065 Z-25.613
X0.045 Y0.089 Z-25.676
X0.006 Y0.1 Z-25.74
X-0.033 Y0.094 Z-25.804
X-0.067 Y0.074 Z-25.868
X-0.091 Y0.042 Z-25.931
X-0.1 Y0.003 Z-25.995
X-0.093 Y-0.036 Z-26.059
X-0.072 Y-0.07 Z-26.122
X-0.039 Y-0.092 Z-26.186
X0 Y-0.1 Z-26.25
X0.039 Y-0.092 Z-26.314
X0.072 Y-0.07 Z-26.377
X0.093 Y-0.036 Z-26.441
X0.1 Y0.003 Z-26.505
X0.091 Y0.042 Z-26.568
X0.068 Y0.074 Z-26.632
X0.033 Y0.094 Z-26.696
X-0.006 Y0.1 Z-26.759
X-0.044 Y0.09 Z-26.823
X-0.076 Y0.065 Z-26.887
X-0.095 Y0.031 Z-26.951
X-0.1 Y-0.009 Z-27.014
X-0.088 Y-0.047 Z-27.078
X-0.063 Y-0.078 Z-27.142
X-0.028 Y-0.096 Z-27.205
X0.012 Y-0.099 Z-27.269
X0.05 Y-0.087 Z-27.333
X0.08 Y-0.06 Z-27.397
X0.097 Y-0.025 Z-27.46
X0.099 Y0.015 Z-27.524
X0.085 Y0.052 Z-27.588
X0.058 Y0.081 Z-27.651
X0.022 Y0.098 Z-27.715
X-0.018 Z-27.779
X-0.055 Y0.084 Z-27.843
X-0.083 Y0.056 Z-27.906
X-0.098 Y0.019 Z-27.97
Y-0.021 Z-28.034
X-0.082 Y-0.057 Z-28.097
X-0.053 Y-0.085 Z-28.161
X-0.016 Y-0.099 Z-28.225
X0.024 Y-0.097 Z-28.289
X0.06 Y-0.08 Z-28.352
X0.086 Y-0.05 Z-28.416
X0.099 Y-0.013 Z-28.48
X0.096 Y0.027 Z-28.543
X0.078 Y0.062 Z-28.607
X0.048 Y0.088 Z-28.671
X0.01 Y0.1 Z-28.735
X-0.03 Y0.095 Z-28.798
X-0.065 Y0.076 Z-28.862
X-0.089 Y0.045 Z-28.926
X-0.1 Y0.007 Z-28.989
X-0.094 Y-0.033 Z-29.053
X-0.074 Y-0.067 Z-29.117
X-0.042 Y-0.091 Z-29.181
X-0.004 Y-0.1 Z-29.244
X0.036 Y-0.093 Z-29.308
X0.069 Y-0.072 Z-29.372
X0.092 Y-0.039 Z-29.435
X0.1 Y-0.001 Z-29.499
X0.092 Y0.038 Z-29.563
X0.07 Y0.071 Z-29.627
X0.037 Y0.093 Z-29.69
X-0.003 Y0.1 Z-29.754
X-0.041 Y0.091 Z-29.818
X-0.074 Y0.068 Z-29.881
X-0.094 Y0.034 Z-29.945
X-0.1 Y-0.006 Z-30.009
X-0.09 Y-0.044 Z-30.073
X-0.066 Y-0.076 Z-30.136
X-0.031 Y-0.095 Z-30.2
G3 X0.031 Y0.095 I0.031 J0.095
X-0.031 Y-0.095 I-0.031 J-0.095
G1 X-0.005 Y-0.096
X0.018 Y-0.085
X0.032 Y-0.063
X0 Y0
Z4
M5
M30
