%
(1001)
(T2  D=3.175 CR=0. KONIK=30GRAD - ZMIN=-0.25 - ZENTRIERBOHREN)
(T14  D=1.905 CR=0.953 - ZMIN=-2.3 - KUGELSCHLICHTFRSER)
N10 G90 G94 G17 G91.1
N15 G21
N20 G53 G0 Z0.
(GRAVIEREN1)
N25 T2 M6
N30 T14
N35 S5000 M3
N40 G54
N45 G0 X-18.912 Y-8.36
N50 G43 Z10. H2
N55 G0 Z5.
N60 G1 Z-0.001 F1000.
N65 X-18.846 Y-8.293 Z-0.25
N70 X-18.842 Y-4.927
N75 X-18.908 Y-4.86 Z-0.001
N80 X-18.842 Y-4.927 Z-0.25
N85 X-17.703 Y-4.928
N90 X-17.677 Y-4.929
N95 X-17.651
N100 X-17.625
N105 X-17.599
N110 X-17.574 Y-4.93
N115 X-17.548
N120 X-17.522 Y-4.931
N125 X-17.497 Y-4.932
N130 X-17.471 Y-4.933
N135 X-17.446 Y-4.934
N140 X-17.42 Y-4.935
N145 X-17.395 Y-4.937
N150 X-17.37 Y-4.939
N155 X-17.345 Y-4.942
N160 X-17.32 Y-4.944
N165 X-17.295 Y-4.947
N170 X-17.27 Y-4.951
N175 X-17.244 Y-4.954
N180 X-17.219 Y-4.958
N185 X-17.193 Y-4.962
N190 X-17.168 Y-4.966
N195 X-17.142 Y-4.97
N200 X-17.117 Y-4.974
N205 X-17.095 Y-4.978
N210 X-17.075 Y-4.983
N215 X-17.052 Y-4.99
N220 X-17.029 Y-4.997
N225 X-17.007 Y-5.003
N230 X-16.984 Y-5.01
N235 X-16.962 Y-5.017
N240 X-16.941 Y-5.025
N245 X-16.919 Y-5.032
N250 X-16.898 Y-5.04
N255 X-16.877 Y-5.049
N260 X-16.857 Y-5.058
N265 X-16.837 Y-5.067
N270 X-16.818 Y-5.077
N275 X-16.799 Y-5.087
N280 X-16.779 Y-5.098
N285 X-16.76 Y-5.11
N290 X-16.741 Y-5.122
N295 X-16.722 Y-5.135
N300 X-16.703 Y-5.148
N305 X-16.684 Y-5.161
N310 X-16.665 Y-5.175
N315 X-16.646 Y-5.189
N320 X-16.626 Y-5.203
N325 X-16.61 Y-5.215
N330 X-16.592 Y-5.233
N335 X-16.57 Y-5.254
N340 X-16.548 Y-5.276
N345 X-16.527 Y-5.297
N350 X-16.506 Y-5.319
N355 X-16.486 Y-5.34
N360 X-16.466 Y-5.362
N365 X-16.447 Y-5.384
N370 X-16.428 Y-5.406
N375 X-16.41 Y-5.428
N380 X-16.393 Y-5.451
N385 X-16.377 Y-5.474
N390 X-16.361 Y-5.497
N395 X-16.346 Y-5.522
N400 X-16.331 Y-5.546
N405 X-16.317 Y-5.572
N410 X-16.304 Y-5.598
N415 X-16.29 Y-5.624
N420 X-16.277 Y-5.651
N425 X-16.265 Y-5.678
N430 X-16.252 Y-5.705
N435 X-16.24 Y-5.733
N440 X-16.227 Y-5.761
N445 X-16.216 Y-5.785
N450 X-16.207 Y-5.816
N455 X-16.197 Y-5.849
N460 X-16.187 Y-5.883
N465 X-16.177 Y-5.916
N470 X-16.167 Y-5.95
N475 X-16.158 Y-5.983
N480 X-16.149 Y-6.017
N485 X-16.141 Y-6.05
N490 X-16.133 Y-6.083
N495 X-16.126 Y-6.116
N500 X-16.12 Y-6.149
N505 X-16.114 Y-6.182
N510 X-16.109 Y-6.216
N515 X-16.105 Y-6.25
N520 X-16.101 Y-6.283
N525 X-16.098 Y-6.317
N530 X-16.095 Y-6.352
N535 X-16.093 Y-6.386
N540 X-16.091 Y-6.421
N545 X-16.089 Y-6.456
N550 X-16.088 Y-6.49
N555 X-16.086 Y-6.526
N560 X-16.085 Y-6.561
N565 X-16.084 Y-6.594
N570 X-16.085 Y-6.623
N575 X-16.086 Y-6.652
N580 X-16.087 Y-6.682
N585 X-16.088 Y-6.711
N590 X-16.089 Y-6.741
N595 X-16.09 Y-6.77
N600 X-16.092 Y-6.799
N605 X-16.094 Y-6.828
N610 X-16.096 Y-6.857
N615 X-16.098 Y-6.886
N620 X-16.101 Y-6.914
N625 X-16.105 Y-6.942
N630 X-16.109 Y-6.971
N635 X-16.113 Y-6.999
N640 X-16.118 Y-7.027
N645 X-16.123 Y-7.056
N650 X-16.129 Y-7.084
N655 X-16.135 Y-7.112
N660 X-16.141 Y-7.141
N665 X-16.148 Y-7.17
N670 X-16.155 Y-7.198
N675 X-16.162 Y-7.227
N680 X-16.169 Y-7.256
N685 X-16.176 Y-7.282
N690 X-16.182 Y-7.302
N695 X-16.19 Y-7.325
N700 X-16.197 Y-7.347
N705 X-16.204 Y-7.369
N710 X-16.212 Y-7.391
N715 X-16.22 Y-7.412
N720 X-16.228 Y-7.434
N725 X-16.236 Y-7.455
N730 X-16.244 Y-7.476
N735 X-16.253 Y-7.497
N740 X-16.261 Y-7.517
N745 X-16.271 Y-7.537
N750 X-16.28 Y-7.557
N755 X-16.29 Y-7.577
N760 X-16.3 Y-7.597
N765 X-16.311 Y-7.617
N770 X-16.322 Y-7.636
N775 X-16.334 Y-7.656
N780 X-16.345 Y-7.676
N785 X-16.357 Y-7.695
N790 X-16.369 Y-7.715
N795 X-16.382 Y-7.735
N800 X-16.394 Y-7.755
N805 X-16.405 Y-7.772
N810 X-16.415 Y-7.784
N815 X-16.426 Y-7.799
N820 X-16.438 Y-7.814
N825 X-16.449 Y-7.828
N830 X-16.461 Y-7.843
N835 X-16.472 Y-7.857
N840 X-16.484 Y-7.871
N845 X-16.496 Y-7.884
N850 X-16.507 Y-7.898
N855 X-16.519 Y-7.911
N860 X-16.531 Y-7.923
N865 X-16.543 Y-7.936
N870 X-16.556 Y-7.948
N875 X-16.568 Y-7.96
N880 X-16.581 Y-7.972
N885 X-16.595 Y-7.983
N890 X-16.608 Y-7.995
N895 X-16.622 Y-8.006
N900 X-16.636 Y-8.018
N905 X-16.651 Y-8.029
N910 X-16.665 Y-8.04
N915 X-16.68 Y-8.051
N920 X-16.695 Y-8.063
N925 X-16.707 Y-8.072
N930 X-16.72 Y-8.079
N935 X-16.736 Y-8.089
N940 X-16.752 Y-8.098
N945 X-16.768 Y-8.107
N950 X-16.784 Y-8.116
N955 X-16.8 Y-8.125
N960 X-16.816 Y-8.134
N965 X-16.832 Y-8.142
N970 X-16.848 Y-8.15
N975 X-16.864 Y-8.157
N980 X-16.88 Y-8.165
N985 X-16.896 Y-8.171
N990 X-16.913 Y-8.178
N995 X-16.929 Y-8.184
N1000 X-16.946 Y-8.19
N1005 X-16.963 Y-8.196
N1010 X-16.98 Y-8.202
N1015 X-16.998 Y-8.207
N1020 X-17.015 Y-8.212
N1025 X-17.033 Y-8.218
N1030 X-17.051 Y-8.223
N1035 X-17.069 Y-8.228
N1040 X-17.087 Y-8.233
N1045 X-17.103 Y-8.237
N1050 X-17.124 Y-8.241
N1055 X-17.147 Y-8.246
N1060 X-17.17 Y-8.25
N1065 X-17.193 Y-8.255
N1070 X-17.216 Y-8.259
N1075 X-17.238 Y-8.263
N1080 X-17.261 Y-8.267
N1085 X-17.284 Y-8.27
N1090 X-17.306 Y-8.274
N1095 X-17.329 Y-8.277
N1100 X-17.351 Y-8.28
N1105 X-17.374 Y-8.282
N1110 X-17.396 Y-8.284
N1115 X-17.419 Y-8.286
N1120 X-17.442 Y-8.288
N1125 X-17.465 Y-8.289
N1130 X-17.487 Y-8.29
N1135 X-17.511 Y-8.291
N1140 X-17.534 Y-8.292
N1145 X-17.557 Y-8.293
N1150 X-17.58
N1155 X-17.604 Y-8.294
N1160 X-17.627
N1165 X-17.65 Y-8.295
N1170 X-18.846 Y-8.293
N1175 G0 Z5.
N1180 X-18.5 Y-7.992
N1185 G1 Z-0.25 F1000.
N1190 X-18.477 Y-8.009
N1195 X-18.449 Y-8.015
N1200 X-17.702
N1205 X-17.701
N1210 X-17.678
N1215 X-17.655
N1220 X-17.632
N1225 X-17.609 Y-8.014
N1230 X-17.586
N1235 X-17.585
N1240 X-17.562 Y-8.013
N1245 X-17.539 Y-8.012
N1250 X-17.538
N1255 X-17.515 Y-8.011
N1260 X-17.492 Y-8.01
N1265 X-17.491
N1270 X-17.468 Y-8.008
N1275 X-17.467
N1280 X-17.445 Y-8.006
N1285 X-17.444
N1290 X-17.421 Y-8.004
N1295 X-17.42 Y-8.003
N1300 X-17.397 Y-8.001
N1305 X-17.396
N1310 X-17.373 Y-7.998
N1315 X-17.372 Y-7.997
N1320 X-17.35 Y-7.994
N1325 X-17.349
N1330 X-17.326 Y-7.99
N1335 X-17.325
N1340 X-17.303 Y-7.986
N1345 X-17.302 Y-7.985
N1350 X-17.279 Y-7.981
N1355 X-17.256 Y-7.976
N1360 X-17.233 Y-7.971
N1365 X-17.211 Y-7.966
N1370 X-17.21
N1375 X-17.188 Y-7.96
N1380 X-17.165 Y-7.955
N1385 X-17.143 Y-7.95
N1390 X-17.136 Y-7.948
N1395 X-17.121 Y-7.942
N1400 X-17.107 Y-7.937
N1405 X-17.106
N1410 X-17.092 Y-7.931
N1415 X-17.077 Y-7.926
N1420 X-17.063 Y-7.92
N1425 X-17.062
N1430 X-17.048 Y-7.914
N1435 X-17.047
N1440 X-17.033 Y-7.908
N1445 X-17.032 Y-7.907
N1450 X-17.018 Y-7.901
N1455 X-17.017
N1460 X-17.003 Y-7.894
N1465 X-17.002
N1470 X-16.988 Y-7.887
N1475 X-16.987 Y-7.886
N1480 X-16.973 Y-7.879
N1485 X-16.972 Y-7.878
N1490 X-16.958 Y-7.871
N1495 X-16.957 Y-7.87
N1500 X-16.944 Y-7.863
N1505 X-16.942 Y-7.862
N1510 X-16.929 Y-7.854
N1515 X-16.928 Y-7.853
N1520 X-16.915 Y-7.844
N1525 X-16.914 Y-7.843
N1530 X-16.902 Y-7.835
N1535 X-16.901 Y-7.834
N1540 X-16.888 Y-7.825
N1545 X-16.887 Y-7.824
N1550 X-16.875 Y-7.815
N1555 X-16.874 Y-7.814
N1560 X-16.862 Y-7.805
N1565 X-16.85 Y-7.795
N1570 X-16.849
N1575 X-16.837 Y-7.785
N1580 Y-7.784
N1585 X-16.825 Y-7.775
N1590 X-16.813 Y-7.765
N1595 X-16.801 Y-7.755
N1600 X-16.793 Y-7.747
N1605 X-16.779 Y-7.73
N1610 X-16.765 Y-7.714
N1615 Y-7.713
N1620 X-16.751 Y-7.697
N1625 Y-7.696
N1630 X-16.737 Y-7.68
N1635 Y-7.679
N1640 X-16.723 Y-7.663
N1645 Y-7.662
N1650 X-16.709 Y-7.645
N1655 Y-7.644
N1660 X-16.696 Y-7.627
N1665 X-16.695 Y-7.626
N1670 X-16.682 Y-7.609
N1675 Y-7.608
N1680 X-16.669 Y-7.59
N1685 Y-7.589
N1690 X-16.657 Y-7.571
N1695 X-16.656 Y-7.57
N1700 X-16.644 Y-7.552
N1705 X-16.643 Y-7.55
N1710 X-16.632 Y-7.531
N1715 Y-7.53
N1720 X-16.621 Y-7.511
N1725 X-16.62 Y-7.51
N1730 X-16.61 Y-7.491
N1735 Y-7.489
N1740 X-16.6 Y-7.47
N1745 Y-7.469
N1750 X-16.591 Y-7.45
N1755 X-16.59 Y-7.448
N1760 X-16.581 Y-7.429
N1765 Y-7.428
N1770 X-16.573 Y-7.408
N1775 X-16.572 Y-7.407
N1780 X-16.564 Y-7.387
N1785 X-16.556 Y-7.366
N1790 X-16.548 Y-7.346
N1795 X-16.54 Y-7.325
N1800 X-16.532 Y-7.305
N1805 Y-7.304
N1810 X-16.525 Y-7.284
N1815 X-16.523 Y-7.278
N1820 X-16.515 Y-7.25
N1825 X-16.508 Y-7.223
N1830 X-16.501 Y-7.195
N1835 Y-7.194
N1840 X-16.494 Y-7.167
N1845 Y-7.166
N1850 X-16.487 Y-7.139
N1855 Y-7.138
N1860 X-16.48 Y-7.11
N1865 X-16.474 Y-7.082
N1870 Y-7.081
N1875 X-16.468 Y-7.053
N1880 Y-7.052
N1885 X-16.462 Y-7.025
N1890 Y-7.023
N1895 X-16.457 Y-6.995
N1900 Y-6.994
N1905 X-16.452 Y-6.966
N1910 Y-6.965
N1915 X-16.448 Y-6.937
N1920 Y-6.936
N1925 X-16.444 Y-6.907
N1930 X-16.441 Y-6.878
N1935 Y-6.877
N1940 X-16.439 Y-6.849
N1945 Y-6.848
N1950 X-16.436 Y-6.82
N1955 Y-6.819
N1960 X-16.435 Y-6.791
N1965 Y-6.79
N1970 X-16.433 Y-6.761
N1975 X-16.432 Y-6.732
N1980 X-16.431 Y-6.703
N1985 X-16.43 Y-6.674
N1990 X-16.429 Y-6.645
N1995 X-16.428 Y-6.617
N2000 Y-6.588
N2005 Y-6.586
N2010 Y-6.549
N2015 Y-6.548
N2020 X-16.429 Y-6.512
N2025 X-16.43 Y-6.475
N2030 Y-6.474
N2035 X-16.431 Y-6.438
N2040 Y-6.437
N2045 X-16.433 Y-6.401
N2050 Y-6.4
N2055 X-16.435 Y-6.363
N2060 Y-6.362
N2065 X-16.437 Y-6.326
N2070 X-16.438 Y-6.325
N2075 X-16.441 Y-6.289
N2080 Y-6.287
N2085 X-16.445 Y-6.251
N2090 Y-6.25
N2095 X-16.45 Y-6.214
N2100 Y-6.212
N2105 X-16.455 Y-6.177
N2110 X-16.456 Y-6.175
N2115 X-16.462 Y-6.14
N2120 Y-6.137
N2125 X-16.47 Y-6.102
N2130 X-16.471 Y-6.1
N2135 X-16.479 Y-6.065
N2140 X-16.48 Y-6.063
N2145 X-16.489 Y-6.029
N2150 X-16.49 Y-6.027
N2155 X-16.501 Y-5.992
N2160 Y-5.991
N2165 X-16.513 Y-5.957
N2170 X-16.514 Y-5.955
N2175 X-16.526 Y-5.921
N2180 Y-5.92
N2185 X-16.54 Y-5.886
N2190 Y-5.885
N2195 X-16.554 Y-5.851
N2200 X-16.568 Y-5.817
N2205 Y-5.816
N2210 X-16.583 Y-5.783
N2215 X-16.598 Y-5.749
N2220 X-16.613 Y-5.715
N2225 X-16.619 Y-5.705
N2230 X-16.633 Y-5.684
N2235 X-16.647 Y-5.663
N2240 Y-5.662
N2245 X-16.662 Y-5.642
N2250 Y-5.641
N2255 X-16.677 Y-5.621
N2260 Y-5.62
N2265 X-16.692 Y-5.599
N2270 X-16.693 Y-5.598
N2275 X-16.708 Y-5.578
N2280 X-16.724 Y-5.558
N2285 X-16.725 Y-5.556
N2290 X-16.741 Y-5.537
N2295 Y-5.536
N2300 X-16.758 Y-5.517
N2305 X-16.759 Y-5.516
N2310 X-16.776 Y-5.497
N2315 X-16.777 Y-5.496
N2320 X-16.794 Y-5.478
N2325 X-16.796 Y-5.477
N2330 X-16.814 Y-5.459
N2335 X-16.816 Y-5.458
N2340 X-16.834 Y-5.441
N2345 X-16.836 Y-5.44
N2350 X-16.855 Y-5.424
N2355 X-16.857 Y-5.422
N2360 X-16.877 Y-5.408
N2365 X-16.879 Y-5.406
N2370 X-16.899 Y-5.392
N2375 X-16.901 Y-5.391
N2380 X-16.921 Y-5.377
N2385 X-16.923 Y-5.376
N2390 X-16.944 Y-5.363
N2395 X-16.945 Y-5.362
N2400 X-16.966 Y-5.35
N2405 X-16.968 Y-5.349
N2410 X-16.989 Y-5.337
N2415 X-16.99 Y-5.336
N2420 X-17.012 Y-5.324
N2425 X-17.013 Y-5.323
N2430 X-17.035 Y-5.311
N2435 X-17.058 Y-5.299
N2440 X-17.08 Y-5.288
N2445 X-17.095 Y-5.282
N2450 X-17.119 Y-5.276
N2455 X-17.144 Y-5.269
N2460 X-17.169 Y-5.263
N2465 X-17.194 Y-5.257
N2470 X-17.219 Y-5.251
N2475 X-17.22
N2480 X-17.244 Y-5.245
N2485 X-17.245
N2490 X-17.27 Y-5.24
N2495 X-17.271
N2500 X-17.295 Y-5.235
N2505 X-17.297
N2510 X-17.321 Y-5.23
N2515 X-17.323
N2520 X-17.347 Y-5.226
N2525 X-17.349
N2530 X-17.374 Y-5.223
N2535 X-17.375 Y-5.222
N2540 X-17.4 Y-5.219
N2545 X-17.401
N2550 X-17.426 Y-5.217
N2555 X-17.427
N2560 X-17.452 Y-5.215
N2565 X-17.453 Y-5.214
N2570 X-17.479 Y-5.213
N2575 X-17.505 Y-5.211
N2580 X-17.531 Y-5.21
N2585 X-17.556 Y-5.209
N2590 X-17.557
N2595 X-17.582
N2600 X-17.583
N2605 X-17.608 Y-5.208
N2610 X-17.609
N2615 X-17.634
N2620 X-17.66
N2625 X-17.685
N2630 X-17.711
N2635 X-18.446 Y-5.207
N2640 X-18.472 Y-5.212
N2645 X-18.493 Y-5.226
N2650 X-18.508 Y-5.248
N2655 X-18.513 Y-5.274
N2660 X-18.516 Y-7.948
N2665 X-18.512 Y-7.971
N2670 X-18.5 Y-7.992
N2675 G0 Z5.
N2680 X-15.496 Y-7.47
N2685 G1 Z-0.25 F1000.
N2690 X-15.493 Y-7.483
N2695 X-15.485 Y-7.523
N2700 X-15.475 Y-7.563
N2705 X-15.464 Y-7.602
N2710 X-15.451 Y-7.64
N2715 X-15.436 Y-7.677
N2720 X-15.42 Y-7.714
N2725 X-15.401 Y-7.751
N2730 X-15.382 Y-7.787
N2735 X-15.36 Y-7.823
N2740 X-15.338 Y-7.86
N2745 X-15.314 Y-7.896
N2750 X-15.29 Y-7.932
N2755 X-15.265 Y-7.968
N2760 X-15.239 Y-8.005
N2765 X-15.219 Y-8.034
N2770 X-15.194 Y-8.054
N2775 X-15.163 Y-8.079
N2780 X-15.133 Y-8.104
N2785 X-15.102 Y-8.128
N2790 X-15.071 Y-8.152
N2795 X-15.04 Y-8.174
N2800 X-15.009 Y-8.195
N2805 X-14.978 Y-8.215
N2810 X-14.946 Y-8.234
N2815 X-14.915 Y-8.251
N2820 X-14.883 Y-8.266
N2825 X-14.85 Y-8.28
N2830 X-14.817 Y-8.292
N2835 X-14.783 Y-8.303
N2840 X-14.748 Y-8.312
N2845 X-14.712 Y-8.32
N2850 X-14.676 Y-8.327
N2855 X-14.638 Y-8.333
N2860 X-14.6 Y-8.338
N2865 X-14.562 Y-8.342
N2870 X-14.523 Y-8.346
N2875 X-14.483 Y-8.35
N2880 X-14.443 Y-8.353
N2885 X-14.407 Y-8.355
N2890 X-14.385 Y-8.354
N2895 X-14.358 Y-8.353
N2900 X-14.332 Y-8.351
N2905 X-14.306 Y-8.349
N2910 X-14.28 Y-8.347
N2915 X-14.255 Y-8.344
N2920 X-14.229 Y-8.342
N2925 X-14.204 Y-8.338
N2930 X-14.18 Y-8.335
N2935 X-14.155 Y-8.33
N2940 X-14.131 Y-8.325
N2945 X-14.108 Y-8.32
N2950 X-14.084 Y-8.314
N2955 X-14.061 Y-8.307
N2960 X-14.037 Y-8.299
N2965 X-14.014 Y-8.29
N2970 X-13.991 Y-8.282
N2975 X-13.967 Y-8.272
N2980 X-13.943 Y-8.262
N2985 X-13.92 Y-8.252
N2990 X-13.896 Y-8.241
N2995 X-13.872 Y-8.23
N3000 X-13.848 Y-8.219
N3005 X-13.828 Y-8.209
N3010 X-13.81 Y-8.198
N3015 X-13.788 Y-8.184
N3020 X-13.767 Y-8.17
N3025 X-13.746 Y-8.156
N3030 X-13.725 Y-8.141
N3035 X-13.705 Y-8.127
N3040 X-13.686 Y-8.113
N3045 X-13.666 Y-8.098
N3050 X-13.648 Y-8.083
N3055 X-13.63 Y-8.067
N3060 X-13.613 Y-8.052
N3065 X-13.596 Y-8.036
N3070 X-13.58 Y-8.019
N3075 X-13.565 Y-8.001
N3080 X-13.55 Y-7.983
N3085 X-13.535 Y-7.965
N3090 X-13.521 Y-7.945
N3095 X-13.507 Y-7.925
N3100 X-13.493 Y-7.905
N3105 X-13.479 Y-7.884
N3110 X-13.465 Y-7.863
N3115 X-13.452 Y-7.841
N3120 X-13.438 Y-7.82
N3125 X-13.427 Y-7.803
N3130 X-13.418 Y-7.778
N3135 X-13.406 Y-7.747
N3140 X-13.394 Y-7.717
N3145 X-13.383 Y-7.686
N3150 X-13.372 Y-7.656
N3155 X-13.362 Y-7.626
N3160 X-13.352 Y-7.596
N3165 X-13.343 Y-7.566
N3170 X-13.334 Y-7.536
N3175 X-13.327 Y-7.506
N3180 X-13.32 Y-7.476
N3185 X-13.314 Y-7.445
N3190 X-13.309 Y-7.415
N3195 X-13.305 Y-7.384
N3200 X-13.301 Y-7.353
N3205 X-13.298 Y-7.321
N3210 X-13.295 Y-7.29
N3215 X-13.293 Y-7.258
N3220 X-13.291 Y-7.226
N3225 X-13.29 Y-7.193
N3230 X-13.289 Y-7.161
N3235 X-13.288 Y-7.128
N3240 X-13.287 Y-7.095
N3245 Y-7.064
N3250 X-13.289 Y-7.023
N3255 X-13.291 Y-6.98
N3260 X-13.294 Y-6.937
N3265 X-13.297 Y-6.894
N3270 X-13.301 Y-6.852
N3275 X-13.305 Y-6.811
N3280 X-13.311 Y-6.77
N3285 X-13.317 Y-6.73
N3290 X-13.324 Y-6.69
N3295 X-13.333 Y-6.652
N3300 X-13.343 Y-6.614
N3305 X-13.354 Y-6.577
N3310 X-13.368 Y-6.54
N3315 X-13.383 Y-6.505
N3320 X-13.399 Y-6.469
N3325 X-13.418 Y-6.434
N3330 X-13.437 Y-6.399
N3335 X-13.459 Y-6.364
N3340 X-13.481 Y-6.33
N3345 X-13.504 Y-6.295
N3350 X-13.528 Y-6.26
N3355 X-13.553 Y-6.226
N3360 X-13.579 Y-6.191
N3365 X-13.599 Y-6.162
N3370 X-13.624 Y-6.142
N3375 X-13.655 Y-6.117
N3380 X-13.685 Y-6.092
N3385 X-13.716 Y-6.068
N3390 X-13.746 Y-6.045
N3395 X-13.777 Y-6.022
N3400 X-13.808 Y-6.001
N3405 X-13.839 Y-5.981
N3410 X-13.87 Y-5.963
N3415 X-13.902 Y-5.946
N3420 X-13.933 Y-5.93
N3425 X-13.966 Y-5.917
N3430 X-13.998 Y-5.904
N3435 X-14.032 Y-5.894
N3440 X-14.067 Y-5.884
N3445 X-14.103 Y-5.876
N3450 X-14.139 Y-5.869
N3455 X-14.176 Y-5.863
N3460 X-14.214 Y-5.858
N3465 X-14.252 Y-5.853
N3470 X-14.291 Y-5.849
N3475 X-14.33 Y-5.846
N3480 X-14.37 Y-5.842
N3485 X-14.405 Y-5.84
N3490 X-14.436 Y-5.842
N3495 X-14.473 Y-5.845
N3500 X-14.508 Y-5.847
N3505 X-14.544 Y-5.851
N3510 X-14.579 Y-5.854
N3515 X-14.613 Y-5.859
N3520 X-14.647 Y-5.864
N3525 X-14.681 Y-5.869
N3530 X-14.713 Y-5.876
N3535 X-14.746 Y-5.884
N3540 X-14.777 Y-5.892
N3545 X-14.808 Y-5.902
N3550 X-14.838 Y-5.914
N3555 X-14.868 Y-5.926
N3560 X-14.898 Y-5.94
N3565 X-14.928 Y-5.956
N3570 X-14.957 Y-5.972
N3575 X-14.987 Y-5.989
N3580 X-15.016 Y-6.008
N3585 X-15.045 Y-6.027
N3590 X-15.075 Y-6.046
N3595 X-15.104 Y-6.067
N3600 X-15.134 Y-6.087
N3605 X-15.157 Y-6.103
N3610 X-15.182 Y-6.134
N3615 X-15.213 Y-6.171
N3620 X-15.243 Y-6.208
N3625 X-15.272 Y-6.245
N3630 X-15.3 Y-6.282
N3635 X-15.327 Y-6.32
N3640 X-15.353 Y-6.357
N3645 X-15.376 Y-6.395
N3650 X-15.398 Y-6.434
N3655 X-15.418 Y-6.472
N3660 X-15.436 Y-6.511
N3665 X-15.451 Y-6.551
N3670 X-15.465 Y-6.592
N3675 X-15.476 Y-6.634
N3680 X-15.486 Y-6.678
N3685 X-15.495 Y-6.722
N3690 X-15.502 Y-6.767
N3695 X-15.508 Y-6.812
N3700 X-15.513 Y-6.859
N3705 X-15.517 Y-6.906
N3710 X-15.521 Y-6.954
N3715 X-15.523 Y-7.002
N3720 X-15.526 Y-7.05
N3725 X-15.528 Y-7.096
N3730 X-15.526 Y-7.138
N3735 X-15.524 Y-7.183
N3740 X-15.522 Y-7.227
N3745 X-15.519 Y-7.271
N3750 X-15.516 Y-7.315
N3755 X-15.512 Y-7.358
N3760 X-15.507 Y-7.4
N3765 X-15.501 Y-7.442
N3770 X-15.496 Y-7.47
N3775 G0 Z5.
N3780 X-15.196 Y-7.416
N3785 G1 Z-0.25 F1000.
N3790 X-15.193 Y-7.432
N3795 Y-7.434
N3800 X-15.186 Y-7.465
N3805 Y-7.467
N3810 X-15.178 Y-7.498
N3815 X-15.177 Y-7.501
N3820 X-15.168 Y-7.531
N3825 Y-7.534
N3830 X-15.157 Y-7.564
N3835 X-15.156 Y-7.567
N3840 X-15.145 Y-7.596
N3845 X-15.144 Y-7.599
N3850 X-15.131 Y-7.628
N3855 X-15.13 Y-7.63
N3860 X-15.117 Y-7.659
N3865 X-15.116 Y-7.66
N3870 X-15.101 Y-7.689
N3875 X-15.1 Y-7.69
N3880 X-15.085 Y-7.719
N3885 X-15.084 Y-7.72
N3890 X-15.068 Y-7.748
N3895 Y-7.749
N3900 X-15.051 Y-7.777
N3905 Y-7.778
N3910 X-15.034 Y-7.806
N3915 X-15.033
N3920 X-15.016 Y-7.834
N3925 X-14.999 Y-7.862
N3930 X-14.988 Y-7.875
N3935 X-14.969 Y-7.893
N3940 X-14.95 Y-7.911
N3945 X-14.949
N3950 X-14.93 Y-7.928
N3955 Y-7.929
N3960 X-14.911 Y-7.946
N3965 X-14.91 Y-7.947
N3970 X-14.89 Y-7.963
N3975 X-14.889 Y-7.964
N3980 X-14.87 Y-7.98
N3985 X-14.868 Y-7.981
N3990 X-14.849 Y-7.997
N3995 X-14.847 Y-7.998
N4000 X-14.827 Y-8.013
N4005 X-14.825 Y-8.014
N4010 X-14.804 Y-8.028
N4015 X-14.802 Y-8.03
N4020 X-14.781 Y-8.043
N4025 X-14.778 Y-8.044
N4030 X-14.757 Y-8.056
N4035 X-14.753 Y-8.058
N4040 X-14.731 Y-8.069
N4045 X-14.728 Y-8.07
N4050 X-14.706 Y-8.08
N4055 X-14.702 Y-8.081
N4060 X-14.679 Y-8.089
N4065 X-14.676 Y-8.09
N4070 X-14.653 Y-8.097
N4075 X-14.65 Y-8.098
N4080 X-14.626 Y-8.105
N4085 X-14.624
N4090 X-14.599 Y-8.111
N4095 X-14.597
N4100 X-14.573 Y-8.116
N4105 X-14.571
N4110 X-14.546 Y-8.12
N4115 X-14.544 Y-8.121
N4120 X-14.519 Y-8.124
N4125 X-14.518
N4130 X-14.493 Y-8.128
N4135 X-14.492
N4140 X-14.466 Y-8.131
N4145 X-14.44 Y-8.133
N4150 X-14.414 Y-8.136
N4155 X-14.401
N4160 X-14.375 Y-8.133
N4165 X-14.349 Y-8.131
N4170 X-14.323 Y-8.128
N4175 X-14.322
N4180 X-14.297 Y-8.124
N4185 X-14.296
N4190 X-14.271 Y-8.121
N4195 X-14.269 Y-8.12
N4200 X-14.244 Y-8.116
N4205 X-14.242
N4210 X-14.218 Y-8.111
N4215 X-14.216
N4220 X-14.191 Y-8.105
N4225 X-14.189
N4230 X-14.165 Y-8.098
N4235 X-14.163 Y-8.097
N4240 X-14.139 Y-8.09
N4245 X-14.136 Y-8.089
N4250 X-14.113 Y-8.081
N4255 X-14.11 Y-8.08
N4260 X-14.087 Y-8.07
N4265 X-14.084 Y-8.068
N4270 X-14.062 Y-8.058
N4275 X-14.059 Y-8.056
N4280 X-14.038 Y-8.044
N4285 X-14.035 Y-8.043
N4290 X-14.014 Y-8.03
N4295 X-14.011 Y-8.028
N4300 X-13.991 Y-8.014
N4305 X-13.989 Y-8.013
N4310 X-13.969 Y-7.998
N4315 X-13.967 Y-7.997
N4320 X-13.948 Y-7.981
N4325 X-13.946 Y-7.98
N4330 X-13.927 Y-7.964
N4335 X-13.926 Y-7.963
N4340 X-13.906 Y-7.947
N4345 Y-7.946
N4350 X-13.887 Y-7.929
N4355 X-13.886 Y-7.928
N4360 X-13.867 Y-7.911
N4365 X-13.866 Y-7.91
N4370 X-13.848 Y-7.893
N4375 X-13.847
N4380 X-13.829 Y-7.875
N4385 X-13.818 Y-7.862
N4390 X-13.8 Y-7.833
N4395 X-13.783 Y-7.805
N4400 X-13.782 Y-7.804
N4405 X-13.765 Y-7.776
N4410 Y-7.775
N4415 X-13.748 Y-7.747
N4420 Y-7.746
N4425 X-13.731 Y-7.717
N4430 Y-7.716
N4435 X-13.715 Y-7.687
N4440 X-13.714 Y-7.686
N4445 X-13.7 Y-7.656
N4450 X-13.699 Y-7.655
N4455 X-13.685 Y-7.626
N4460 X-13.684 Y-7.623
N4465 X-13.671 Y-7.594
N4470 X-13.67 Y-7.591
N4475 X-13.659 Y-7.561
N4480 X-13.658 Y-7.559
N4485 X-13.647 Y-7.528
N4490 Y-7.525
N4495 X-13.638 Y-7.494
N4500 X-13.637 Y-7.492
N4505 X-13.629 Y-7.46
N4510 Y-7.458
N4515 X-13.622 Y-7.426
N4520 Y-7.424
N4525 X-13.616 Y-7.392
N4530 Y-7.39
N4535 X-13.611 Y-7.358
N4540 Y-7.356
N4545 X-13.607 Y-7.324
N4550 Y-7.322
N4555 X-13.604 Y-7.29
N4560 Y-7.288
N4565 X-13.601 Y-7.256
N4570 Y-7.254
N4575 X-13.599 Y-7.221
N4580 Y-7.22
N4585 X-13.598 Y-7.187
N4590 X-13.596 Y-7.153
N4595 X-13.595 Y-7.12
N4600 Y-7.119
N4605 X-13.594 Y-7.086
N4610 Y-7.082
N4615 X-13.595 Y-7.05
N4620 X-13.597 Y-7.017
N4625 X-13.598 Y-6.985
N4630 Y-6.984
N4635 X-13.6 Y-6.952
N4640 Y-6.951
N4645 X-13.602 Y-6.92
N4650 Y-6.918
N4655 X-13.604 Y-6.887
N4660 Y-6.885
N4665 X-13.608 Y-6.854
N4670 Y-6.852
N4675 X-13.612 Y-6.821
N4680 Y-6.819
N4685 X-13.617 Y-6.788
N4690 Y-6.786
N4695 X-13.623 Y-6.755
N4700 Y-6.753
N4705 X-13.63 Y-6.723
N4710 Y-6.72
N4715 X-13.638 Y-6.69
N4720 X-13.639 Y-6.687
N4725 X-13.648 Y-6.658
N4730 X-13.649 Y-6.655
N4735 X-13.659 Y-6.626
N4740 X-13.66 Y-6.623
N4745 X-13.672 Y-6.594
N4750 X-13.673 Y-6.592
N4755 X-13.686 Y-6.563
N4760 X-13.687 Y-6.561
N4765 X-13.7 Y-6.533
N4770 X-13.701 Y-6.532
N4775 X-13.716 Y-6.504
N4780 Y-6.502
N4785 X-13.732 Y-6.475
N4790 X-13.733 Y-6.473
N4795 X-13.749 Y-6.446
N4800 Y-6.445
N4805 X-13.766 Y-6.418
N4810 Y-6.417
N4815 X-13.783 Y-6.39
N4820 Y-6.389
N4825 X-13.8 Y-6.362
N4830 X-13.818 Y-6.335
N4835 X-13.828 Y-6.322
N4840 X-13.847 Y-6.305
N4845 X-13.866 Y-6.287
N4850 X-13.885 Y-6.27
N4855 X-13.886 Y-6.269
N4860 X-13.905 Y-6.252
N4865 X-13.906 Y-6.251
N4870 X-13.925 Y-6.235
N4875 X-13.926 Y-6.234
N4880 X-13.945 Y-6.218
N4885 X-13.947 Y-6.217
N4890 X-13.967 Y-6.201
N4895 X-13.968 Y-6.2
N4900 X-13.988 Y-6.185
N4905 X-13.99 Y-6.184
N4910 X-14.011 Y-6.17
N4915 X-14.013 Y-6.168
N4920 X-14.034 Y-6.155
N4925 X-14.037 Y-6.154
N4930 X-14.058 Y-6.142
N4935 X-14.061 Y-6.14
N4940 X-14.083 Y-6.13
N4945 X-14.086 Y-6.128
N4950 X-14.108 Y-6.119
N4955 X-14.112 Y-6.117
N4960 X-14.135 Y-6.109
N4965 X-14.138 Y-6.108
N4970 X-14.161 Y-6.101
N4975 X-14.164 Y-6.1
N4980 X-14.187 Y-6.093
N4985 X-14.19
N4990 X-14.214 Y-6.087
N4995 X-14.216
N5000 X-14.241 Y-6.082
N5005 X-14.242
N5010 X-14.267 Y-6.077
N5015 X-14.269
N5020 X-14.294 Y-6.074
N5025 X-14.295 Y-6.073
N5030 X-14.32 Y-6.07
N5035 X-14.321
N5040 X-14.346 Y-6.067
N5045 X-14.347
N5050 X-14.372 Y-6.064
N5055 X-14.373
N5060 X-14.398 Y-6.062
N5065 X-14.412
N5070 X-14.437 Y-6.064
N5075 X-14.438
N5080 X-14.463 Y-6.067
N5085 X-14.464
N5090 X-14.489 Y-6.07
N5095 X-14.49
N5100 X-14.516 Y-6.073
N5105 X-14.517
N5110 X-14.542 Y-6.076
N5115 X-14.543 Y-6.077
N5120 X-14.568 Y-6.081
N5125 X-14.57
N5130 X-14.595 Y-6.086
N5135 X-14.597
N5140 X-14.621 Y-6.092
N5145 X-14.624
N5150 X-14.648 Y-6.098
N5155 X-14.65 Y-6.099
N5160 X-14.674 Y-6.106
N5165 X-14.677 Y-6.107
N5170 X-14.7 Y-6.116
N5175 X-14.703 Y-6.117
N5180 X-14.726 Y-6.126
N5185 X-14.729 Y-6.128
N5190 X-14.751 Y-6.138
N5195 X-14.754 Y-6.14
N5200 X-14.775 Y-6.152
N5205 X-14.778 Y-6.153
N5210 X-14.799 Y-6.166
N5215 X-14.802 Y-6.168
N5220 X-14.822 Y-6.181
N5225 X-14.824 Y-6.183
N5230 X-14.844 Y-6.197
N5235 X-14.846 Y-6.199
N5240 X-14.866 Y-6.214
N5245 X-14.867 Y-6.215
N5250 X-14.887 Y-6.231
N5255 X-14.888 Y-6.232
N5260 X-14.908 Y-6.249
N5265 X-14.928 Y-6.266
N5270 Y-6.267
N5275 X-14.947 Y-6.284
N5280 X-14.948
N5285 X-14.967 Y-6.302
N5290 X-14.986 Y-6.32
N5295 X-14.997 Y-6.333
N5300 X-15.014 Y-6.361
N5305 X-15.032 Y-6.389
N5310 X-15.049 Y-6.417
N5315 Y-6.418
N5320 X-15.066 Y-6.445
N5325 X-15.067 Y-6.446
N5330 X-15.083 Y-6.474
N5335 Y-6.476
N5340 X-15.099 Y-6.504
N5345 X-15.1 Y-6.505
N5350 X-15.114 Y-6.534
N5355 X-15.115 Y-6.536
N5360 X-15.129 Y-6.564
N5365 X-15.13 Y-6.566
N5370 X-15.143 Y-6.596
N5375 X-15.144 Y-6.598
N5380 X-15.155 Y-6.627
N5385 X-15.156 Y-6.63
N5390 X-15.167 Y-6.66
N5395 X-15.168 Y-6.663
N5400 X-15.177 Y-6.693
N5405 Y-6.696
N5410 X-15.185 Y-6.726
N5415 X-15.186 Y-6.729
N5420 X-15.192 Y-6.76
N5425 X-15.193 Y-6.762
N5430 X-15.198 Y-6.793
N5435 X-15.199 Y-6.795
N5440 X-15.203 Y-6.827
N5445 Y-6.829
N5450 X-15.207 Y-6.861
N5455 X-15.208 Y-6.862
N5460 X-15.211 Y-6.894
N5465 Y-6.895
N5470 X-15.213 Y-6.928
N5475 Y-6.929
N5480 X-15.215 Y-6.962
N5485 X-15.216
N5490 X-15.217 Y-6.995
N5495 Y-6.996
N5500 X-15.218 Y-7.029
N5505 X-15.219 Y-7.062
N5510 X-15.22 Y-7.095
N5515 Y-7.099
N5520 Y-7.131
N5525 Y-7.132
N5530 X-15.219 Y-7.164
N5535 Y-7.165
N5540 X-15.217 Y-7.198
N5545 X-15.216 Y-7.231
N5550 Y-7.232
N5555 X-15.214 Y-7.264
N5560 Y-7.266
N5565 X-15.211 Y-7.298
N5570 Y-7.299
N5575 X-15.208 Y-7.331
N5580 Y-7.333
N5585 X-15.204 Y-7.365
N5590 Y-7.367
N5595 X-15.199 Y-7.398
N5600 Y-7.4
N5605 X-15.196 Y-7.416
N5610 G0 Z5.
N5615 X-12.717 Y-8.367
N5620 G1 Z-0.001 F1000.
N5625 X-12.65 Y-8.3 Z-0.25
N5630 X-12.648 Y-5.899
N5635 X-12.714 Y-5.832 Z-0.001
N5640 X-12.648 Y-5.899 Z-0.25
N5645 X-12.395
N5650 X-12.328 Y-5.832 Z-0.001
N5655 X-12.395 Y-5.899 Z-0.25
N5660 Y-6.193
N5665 X-12.387 Y-6.224
N5670 X-12.366 Y-6.248
N5675 X-12.336 Y-6.259
N5680 X-12.304 Y-6.255
N5685 X-12.277 Y-6.236
N5690 X-12.251 Y-6.206
N5695 X-12.224 Y-6.175
N5700 X-12.198 Y-6.146
N5705 X-12.172 Y-6.117
N5710 X-12.145 Y-6.089
N5715 X-12.118 Y-6.062
N5720 X-12.091 Y-6.037
N5725 X-12.064 Y-6.013
N5730 X-12.036 Y-5.991
N5735 X-12.008 Y-5.971
N5740 X-11.979 Y-5.953
N5745 X-11.95 Y-5.936
N5750 X-11.919 Y-5.922
N5755 X-11.888 Y-5.909
N5760 X-11.855 Y-5.898
N5765 X-11.82 Y-5.888
N5770 X-11.785 Y-5.88
N5775 X-11.748 Y-5.872
N5780 X-11.711 Y-5.866
N5785 X-11.673 Y-5.86
N5790 X-11.634 Y-5.855
N5795 X-11.595 Y-5.851
N5800 X-11.555 Y-5.846
N5805 X-11.519 Y-5.843
N5810 X-11.506 Y-5.844
N5815 X-11.488
N5820 X-11.47 Y-5.845
N5825 X-11.452 Y-5.846
N5830 X-11.435 Y-5.847
N5835 X-11.418 Y-5.849
N5840 X-11.401 Y-5.85
N5845 X-11.384 Y-5.852
N5850 X-11.367 Y-5.854
N5855 X-11.351 Y-5.856
N5860 X-11.335 Y-5.859
N5865 X-11.318 Y-5.861
N5870 X-11.303 Y-5.865
N5875 X-11.287 Y-5.868
N5880 X-11.271 Y-5.873
N5885 X-11.255 Y-5.877
N5890 X-11.238 Y-5.882
N5895 X-11.222 Y-5.887
N5900 X-11.206 Y-5.892
N5905 X-11.189 Y-5.898
N5910 X-11.173 Y-5.904
N5915 X-11.156 Y-5.909
N5920 X-11.139 Y-5.915
N5925 X-11.125 Y-5.921
N5930 X-11.115 Y-5.926
N5935 X-11.101 Y-5.932
N5940 X-11.088 Y-5.939
N5945 X-11.074 Y-5.945
N5950 X-11.062 Y-5.952
N5955 X-11.049 Y-5.958
N5960 X-11.037 Y-5.965
N5965 X-11.025 Y-5.972
N5970 X-11.013 Y-5.979
N5975 X-11.002 Y-5.986
N5980 X-10.991 Y-5.993
N5985 X-10.981 Y-6.001
N5990 X-10.97 Y-6.009
N5995 X-10.96 Y-6.017
N6000 X-10.951 Y-6.026
N6005 X-10.941 Y-6.035
N6010 X-10.931 Y-6.044
N6015 X-10.921 Y-6.054
N6020 X-10.912 Y-6.064
N6025 X-10.902 Y-6.074
N6030 X-10.892 Y-6.085
N6035 X-10.882 Y-6.096
N6040 X-10.872 Y-6.108
N6045 X-10.866 Y-6.115
N6050 X-10.861 Y-6.123
N6055 X-10.854 Y-6.135
N6060 X-10.846 Y-6.147
N6065 X-10.839 Y-6.159
N6070 X-10.832 Y-6.171
N6075 X-10.825 Y-6.183
N6080 X-10.819 Y-6.194
N6085 X-10.813 Y-6.206
N6090 X-10.806 Y-6.218
N6095 X-10.801 Y-6.229
N6100 X-10.795 Y-6.241
N6105 X-10.79 Y-6.253
N6110 X-10.786 Y-6.264
N6115 X-10.781 Y-6.276
N6120 X-10.777 Y-6.289
N6125 X-10.773 Y-6.301
N6130 X-10.769 Y-6.314
N6135 X-10.765 Y-6.327
N6140 X-10.761 Y-6.34
N6145 X-10.758 Y-6.354
N6150 X-10.754 Y-6.367
N6155 X-10.751 Y-6.381
N6160 X-10.747 Y-6.395
N6165 X-10.745 Y-6.405
N6170 X-10.743 Y-6.418
N6175 X-10.741 Y-6.435
N6180 X-10.739 Y-6.453
N6185 X-10.737 Y-6.47
N6190 X-10.735 Y-6.487
N6195 X-10.733 Y-6.504
N6200 X-10.731 Y-6.52
N6205 X-10.73 Y-6.537
N6210 X-10.728 Y-6.554
N6215 X-10.727 Y-6.571
N6220 X-10.726 Y-6.588
N6225 X-10.725 Y-6.604
N6230 X-10.724 Y-6.621
N6235 Y-6.638
N6240 X-10.723 Y-6.655
N6245 Y-6.672
N6250 X-10.722 Y-6.689
N6255 Y-6.706
N6260 Y-6.724
N6265 Y-6.741
N6270 Y-6.775
N6275 Y-6.793
N6280 Y-6.811
N6285 X-10.724 Y-8.303
N6290 X-10.657 Y-8.369 Z-0.001
N6295 X-10.724 Y-8.303 Z-0.25
N6300 X-11.02 Y-8.302
N6305 X-11.086 Y-8.369 Z-0.001
N6310 X-11.02 Y-8.302 Z-0.25
N6315 X-11.018 Y-6.827
N6320 Y-6.81
N6325 Y-6.793
N6330 X-11.019 Y-6.759
N6335 Y-6.742
N6340 Y-6.725
N6345 X-11.02 Y-6.708
N6350 Y-6.707
N6355 X-11.021 Y-6.691
N6360 Y-6.69
N6365 X-11.022 Y-6.673
N6370 X-11.023 Y-6.656
N6375 Y-6.655
N6380 X-11.025 Y-6.638
N6385 X-11.026 Y-6.621
N6390 X-11.027 Y-6.62
N6395 X-11.029 Y-6.603
N6400 Y-6.602
N6405 X-11.031 Y-6.586
N6410 Y-6.584
N6415 X-11.034 Y-6.568
N6420 Y-6.567
N6425 X-11.037 Y-6.551
N6430 X-11.038 Y-6.549
N6435 X-11.041 Y-6.533
N6440 Y-6.532
N6445 X-11.045 Y-6.516
N6450 X-11.049 Y-6.499
N6455 Y-6.498
N6460 X-11.053 Y-6.482
N6465 X-11.057 Y-6.466
N6470 Y-6.465
N6475 X-11.061 Y-6.449
N6480 X-11.066 Y-6.433
N6485 X-11.07 Y-6.417
N6490 X-11.074 Y-6.405
N6495 X-11.079 Y-6.394
N6500 X-11.08
N6505 X-11.085 Y-6.383
N6510 X-11.091 Y-6.372
N6515 X-11.096 Y-6.361
N6520 X-11.097 Y-6.36
N6525 X-11.102 Y-6.35
N6530 X-11.103 Y-6.349
N6535 X-11.108 Y-6.339
N6540 X-11.109 Y-6.338
N6545 X-11.115 Y-6.328
N6550 X-11.116 Y-6.326
N6555 X-11.122 Y-6.316
N6560 X-11.123 Y-6.315
N6565 X-11.129 Y-6.305
N6570 X-11.13 Y-6.304
N6575 X-11.137 Y-6.294
N6580 X-11.138 Y-6.292
N6585 X-11.145 Y-6.283
N6590 X-11.147 Y-6.281
N6595 X-11.154 Y-6.273
N6600 X-11.156 Y-6.27
N6605 X-11.163 Y-6.262
N6610 X-11.165 Y-6.26
N6615 X-11.173 Y-6.252
N6620 X-11.175 Y-6.25
N6625 X-11.183 Y-6.242
N6630 X-11.184 Y-6.241
N6635 X-11.193 Y-6.233
N6640 X-11.194 Y-6.232
N6645 X-11.203 Y-6.224
N6650 X-11.204 Y-6.223
N6655 X-11.213 Y-6.216
N6660 X-11.214 Y-6.215
N6665 X-11.224 Y-6.208
N6670 Y-6.207
N6675 X-11.234 Y-6.2
N6680 X-11.244 Y-6.193
N6685 Y-6.192
N6690 X-11.254 Y-6.185
N6695 X-11.264 Y-6.178
N6700 X-11.274 Y-6.171
N6705 X-11.282 Y-6.166
N6710 X-11.294 Y-6.16
N6715 X-11.306 Y-6.154
N6720 X-11.307
N6725 X-11.318 Y-6.148
N6730 X-11.319
N6735 X-11.331 Y-6.143
N6740 Y-6.142
N6745 X-11.343 Y-6.137
N6750 X-11.344 Y-6.136
N6755 X-11.356 Y-6.131
N6760 X-11.357 Y-6.13
N6765 X-11.369 Y-6.125
N6770 X-11.37
N6775 X-11.383 Y-6.12
N6780 X-11.384 Y-6.119
N6785 X-11.396 Y-6.115
N6790 X-11.398 Y-6.114
N6795 X-11.41 Y-6.11
N6800 X-11.412 Y-6.109
N6805 X-11.424 Y-6.106
N6810 X-11.426 Y-6.105
N6815 X-11.439 Y-6.102
N6820 X-11.441 Y-6.101
N6825 X-11.454 Y-6.098
N6830 X-11.456
N6835 X-11.468 Y-6.095
N6840 X-11.47
N6845 X-11.483 Y-6.092
N6850 X-11.484
N6855 X-11.497 Y-6.09
N6860 X-11.499
N6865 X-11.512 Y-6.088
N6870 X-11.513
N6875 X-11.526 Y-6.087
N6880 X-11.527
N6885 X-11.54 Y-6.086
N6890 X-11.541 Y-6.085
N6895 X-11.554 Y-6.084
N6900 X-11.555
N6905 X-11.568 Y-6.083
N6910 X-11.582
N6915 X-11.595 Y-6.082
N6920 X-11.608 Y-6.081
N6925 X-11.617
N6930 X-11.639 Y-6.083
N6935 X-11.661 Y-6.085
N6940 X-11.683 Y-6.087
N6945 X-11.684
N6950 X-11.705 Y-6.089
N6955 X-11.706
N6960 X-11.728 Y-6.092
N6965 X-11.729
N6970 X-11.75 Y-6.095
N6975 X-11.752
N6980 X-11.773 Y-6.098
N6985 X-11.775 Y-6.099
N6990 X-11.796 Y-6.102
N6995 X-11.798 Y-6.103
N7000 X-11.819 Y-6.107
N7005 X-11.821 Y-6.108
N7010 X-11.841 Y-6.113
N7015 X-11.844 Y-6.114
N7020 X-11.864 Y-6.12
N7025 X-11.867
N7030 X-11.887 Y-6.127
N7035 X-11.89 Y-6.128
N7040 X-11.909 Y-6.136
N7045 X-11.912 Y-6.137
N7050 X-11.931 Y-6.146
N7055 X-11.934 Y-6.147
N7060 X-11.953 Y-6.156
N7065 X-11.955 Y-6.157
N7070 X-11.973 Y-6.167
N7075 X-11.975 Y-6.168
N7080 X-11.994 Y-6.179
N7085 X-11.995
N7090 X-12.014 Y-6.191
N7095 X-12.015
N7100 X-12.033 Y-6.203
N7105 X-12.034 Y-6.204
N7110 X-12.052 Y-6.216
N7115 X-12.053
N7120 X-12.071 Y-6.229
N7125 X-12.089 Y-6.242
N7130 X-12.09
N7135 X-12.107 Y-6.255
N7140 X-12.125 Y-6.268
N7145 X-12.14 Y-6.283
N7150 X-12.158 Y-6.308
N7155 X-12.175 Y-6.332
N7160 X-12.176 Y-6.333
N7165 X-12.193 Y-6.358
N7170 X-12.21 Y-6.383
N7175 Y-6.384
N7180 X-12.226 Y-6.409
N7185 X-12.227 Y-6.41
N7190 X-12.242 Y-6.436
N7195 X-12.244 Y-6.438
N7200 X-12.258 Y-6.463
N7205 X-12.259 Y-6.465
N7210 X-12.272 Y-6.491
N7215 X-12.274 Y-6.493
N7220 X-12.286 Y-6.52
N7225 X-12.287 Y-6.523
N7230 X-12.298 Y-6.549
N7235 X-12.299 Y-6.552
N7240 X-12.309 Y-6.58
N7245 X-12.31 Y-6.583
N7250 X-12.318 Y-6.61
N7255 X-12.319 Y-6.613
N7260 X-12.326 Y-6.641
N7265 Y-6.644
N7270 X-12.332 Y-6.672
N7275 X-12.333 Y-6.674
N7280 X-12.337 Y-6.703
N7285 X-12.338 Y-6.706
N7290 X-12.342 Y-6.735
N7295 Y-6.736
N7300 X-12.345 Y-6.766
N7305 Y-6.767
N7310 X-12.348 Y-6.797
N7315 Y-6.798
N7320 X-12.349 Y-6.828
N7325 X-12.35 Y-6.829
N7330 X-12.351 Y-6.859
N7335 Y-6.86
N7340 X-12.352 Y-6.89
N7345 Y-6.891
N7350 Y-6.921
N7355 Y-6.922
N7360 X-12.353 Y-6.952
N7365 Y-6.983
N7370 X-12.355 Y-8.301
N7375 X-12.288 Y-8.367 Z-0.001
N7380 X-12.355 Y-8.301 Z-0.25
N7385 X-12.65 Y-8.3
N7390 G0 Z5.
N7395 X-9.74 Y-7.784
N7400 G1 Z-0.25 F1000.
N7405 Y-7.783
N7410 X-9.743 Y-7.77
N7415 Y-7.768
N7420 X-9.745 Y-7.755
N7425 Y-7.753
N7430 X-9.747 Y-7.74
N7435 Y-7.739
N7440 X-9.748 Y-7.725
N7445 X-9.75 Y-7.711
N7450 X-9.751 Y-7.697
N7455 Y-7.686
N7460 Y-7.677
N7465 Y-7.676
N7470 X-9.75 Y-7.667
N7475 X-9.749 Y-7.658
N7480 Y-7.657
N7485 Y-7.648
N7490 X-9.748
N7495 Y-7.639
N7500 X-9.747 Y-7.638
N7505 X-9.746 Y-7.629
N7510 Y-7.627
N7515 X-9.745 Y-7.619
N7520 Y-7.617
N7525 X-9.744 Y-7.608
N7530 X-9.743 Y-7.607
N7535 X-9.742 Y-7.598
N7540 X-9.741 Y-7.596
N7545 X-9.74 Y-7.587
N7550 X-9.739 Y-7.585
N7555 X-9.737 Y-7.577
N7560 Y-7.575
N7565 X-9.734 Y-7.566
N7570 Y-7.564
N7575 X-9.731 Y-7.555
N7580 X-9.73 Y-7.553
N7585 X-9.727 Y-7.545
N7590 Y-7.543
N7595 X-9.723 Y-7.535
N7600 Y-7.533
N7605 X-9.719 Y-7.525
N7610 Y-7.523
N7615 X-9.715 Y-7.515
N7620 X-9.714 Y-7.514
N7625 X-9.711 Y-7.506
N7630 X-9.71 Y-7.504
N7635 X-9.706 Y-7.496
N7640 X-9.701 Y-7.487
N7645 X-9.697 Y-7.479
N7650 Y-7.478
N7655 X-9.692 Y-7.47
N7660 X-9.688 Y-7.462
N7665 X-9.683 Y-7.454
N7670 X-9.678 Y-7.445
N7675 X-9.672 Y-7.438
N7680 X-9.666 Y-7.43
N7685 X-9.66 Y-7.422
N7690 X-9.659
N7695 X-9.654 Y-7.415
N7700 X-9.653 Y-7.414
N7705 X-9.647 Y-7.407
N7710 X-9.646 Y-7.406
N7715 X-9.64 Y-7.399
N7720 Y-7.398
N7725 X-9.634 Y-7.391
N7730 X-9.632 Y-7.39
N7735 X-9.626 Y-7.383
N7740 X-9.625 Y-7.382
N7745 X-9.619 Y-7.376
N7750 X-9.617 Y-7.374
N7755 X-9.611 Y-7.368
N7760 X-9.609 Y-7.366
N7765 X-9.602 Y-7.36
N7770 X-9.601 Y-7.359
N7775 X-9.594 Y-7.353
N7780 X-9.592 Y-7.351
N7785 X-9.585 Y-7.345
N7790 X-9.583 Y-7.344
N7795 X-9.575 Y-7.339
N7800 X-9.574 Y-7.337
N7805 X-9.566 Y-7.332
N7810 X-9.565 Y-7.331
N7815 X-9.557 Y-7.326
N7820 X-9.556 Y-7.325
N7825 X-9.548 Y-7.321
N7830 X-9.546 Y-7.32
N7835 X-9.538 Y-7.315
N7840 X-9.537
N7845 X-9.529 Y-7.31
N7850 X-9.528
N7855 X-9.52 Y-7.305
N7860 X-9.511 Y-7.3
N7865 X-9.502 Y-7.296
N7870 X-9.494 Y-7.291
N7875 X-9.485 Y-7.287
N7880 X-9.476 Y-7.283
N7885 X-9.461 Y-7.278
N7890 X-9.445 Y-7.273
N7895 X-9.43 Y-7.268
N7900 X-9.414 Y-7.263
N7905 X-9.399 Y-7.258
N7910 X-9.398
N7915 X-9.383 Y-7.253
N7920 X-9.382
N7925 X-9.367 Y-7.249
N7930 X-9.366 Y-7.248
N7935 X-9.351 Y-7.244
N7940 X-9.35
N7945 X-9.334 Y-7.24
N7950 X-9.333 Y-7.239
N7955 X-9.318 Y-7.235
N7960 X-9.317
N7965 X-9.301 Y-7.231
N7970 X-9.3
N7975 X-9.285 Y-7.228
N7980 X-9.284
N7985 X-9.268 Y-7.224
N7990 X-9.252 Y-7.221
N7995 X-9.251
N8000 X-9.235 Y-7.218
N8005 X-9.219 Y-7.215
N8010 X-9.203 Y-7.212
N8015 X-9.202
N8020 X-9.186 Y-7.209
N8025 X-9.17 Y-7.207
N8030 X-9.154 Y-7.204
N8035 X-9.138 Y-7.202
N8040 X-9.137
N8045 X-9.121 Y-7.199
N8050 X-9.105 Y-7.197
N8055 X-9.09 Y-7.195
N8060 X-9.06 Y-7.191
N8065 X-9.03 Y-7.186
N8070 X-9.001 Y-7.182
N8075 X-8.971 Y-7.177
N8080 X-8.942 Y-7.173
N8085 X-8.912 Y-7.168
N8090 X-8.883 Y-7.163
N8095 X-8.854 Y-7.158
N8100 X-8.825 Y-7.153
N8105 X-8.796 Y-7.147
N8110 X-8.767 Y-7.141
N8115 X-8.739 Y-7.135
N8120 X-8.71 Y-7.128
N8125 X-8.682 Y-7.122
N8130 X-8.654 Y-7.114
N8135 X-8.626 Y-7.107
N8140 X-8.597 Y-7.099
N8145 X-8.569 Y-7.09
N8150 X-8.541 Y-7.082
N8155 X-8.513 Y-7.073
N8160 X-8.484 Y-7.064
N8165 X-8.456 Y-7.055
N8170 X-8.427 Y-7.045
N8175 X-8.399 Y-7.036
N8180 X-8.368 Y-7.034
N8185 X-8.339 Y-7.045
N8190 X-8.318 Y-7.069
N8195 X-8.311 Y-7.1
N8200 Y-7.257
N8205 Y-7.258
N8210 Y-7.276
N8215 Y-7.277
N8220 X-8.312 Y-7.295
N8225 Y-7.314
N8230 Y-7.332
N8235 Y-7.333
N8240 X-8.313 Y-7.351
N8245 Y-7.352
N8250 X-8.314 Y-7.37
N8255 Y-7.371
N8260 X-8.315 Y-7.389
N8265 Y-7.39
N8270 X-8.316 Y-7.408
N8275 Y-7.409
N8280 X-8.317 Y-7.427
N8285 Y-7.428
N8290 X-8.319 Y-7.447
N8295 Y-7.448
N8300 X-8.321 Y-7.466
N8305 X-8.322 Y-7.467
N8310 X-8.324 Y-7.485
N8315 Y-7.487
N8320 X-8.327 Y-7.505
N8325 X-8.328 Y-7.506
N8330 X-8.331 Y-7.524
N8335 Y-7.526
N8340 X-8.335 Y-7.544
N8345 Y-7.545
N8350 X-8.34 Y-7.563
N8355 Y-7.564
N8360 X-8.344 Y-7.582
N8365 X-8.345 Y-7.583
N8370 X-8.35 Y-7.6
N8375 Y-7.601
N8380 X-8.355 Y-7.619
N8385 Y-7.62
N8390 X-8.361 Y-7.637
N8395 Y-7.638
N8400 X-8.367 Y-7.655
N8405 Y-7.656
N8410 X-8.373 Y-7.673
N8415 X-8.378 Y-7.691
N8420 X-8.384 Y-7.708
N8425 X-8.39 Y-7.721
N8430 X-8.399 Y-7.736
N8435 X-8.408 Y-7.751
N8440 Y-7.752
N8445 X-8.417 Y-7.767
N8450 X-8.418
N8455 X-8.427 Y-7.782
N8460 Y-7.783
N8465 X-8.437 Y-7.798
N8470 Y-7.799
N8475 X-8.447 Y-7.813
N8480 Y-7.814
N8485 X-8.457 Y-7.829
N8490 X-8.458 Y-7.83
N8495 X-8.468 Y-7.844
N8500 X-8.469 Y-7.845
N8505 X-8.48 Y-7.859
N8510 X-8.481 Y-7.861
N8515 X-8.492 Y-7.874
N8520 X-8.493 Y-7.876
N8525 X-8.504 Y-7.889
N8530 X-8.506 Y-7.891
N8535 X-8.517 Y-7.903
N8540 X-8.519 Y-7.905
N8545 X-8.531 Y-7.917
N8550 X-8.533 Y-7.919
N8555 X-8.546 Y-7.931
N8560 X-8.547 Y-7.932
N8565 X-8.56 Y-7.943
N8570 X-8.562 Y-7.945
N8575 X-8.575 Y-7.956
N8580 X-8.576 Y-7.957
N8585 X-8.59 Y-7.967
N8590 X-8.591 Y-7.968
N8595 X-8.605 Y-7.979
N8600 X-8.606
N8605 X-8.62 Y-7.989
N8610 X-8.621 Y-7.99
N8615 X-8.635 Y-8.
N8620 X-8.636 Y-8.001
N8625 X-8.651 Y-8.01
N8630 Y-8.011
N8635 X-8.666 Y-8.02
N8640 Y-8.021
N8645 X-8.681 Y-8.03
N8650 X-8.696 Y-8.04
N8655 X-8.704 Y-8.045
N8660 X-8.722 Y-8.053
N8665 X-8.739 Y-8.061
N8670 X-8.74
N8675 X-8.757 Y-8.069
N8680 X-8.758
N8685 X-8.775 Y-8.077
N8690 X-8.776
N8695 X-8.793 Y-8.085
N8700 X-8.794
N8705 X-8.812 Y-8.093
N8710 X-8.813
N8715 X-8.831 Y-8.1
N8720 X-8.832 Y-8.101
N8725 X-8.85 Y-8.107
N8730 X-8.851 Y-8.108
N8735 X-8.869 Y-8.114
N8740 X-8.871 Y-8.115
N8745 X-8.889 Y-8.12
N8750 X-8.891 Y-8.121
N8755 X-8.909 Y-8.126
N8760 X-8.911 Y-8.127
N8765 X-8.929 Y-8.132
N8770 X-8.931
N8775 X-8.95 Y-8.136
N8780 X-8.952 Y-8.137
N8785 X-8.97 Y-8.14
N8790 X-8.972 Y-8.141
N8795 X-8.991 Y-8.144
N8800 X-8.992
N8805 X-9.011 Y-8.147
N8810 X-9.013
N8815 X-9.032 Y-8.149
N8820 X-9.033
N8825 X-9.052 Y-8.151
N8830 X-9.053
N8835 X-9.072 Y-8.153
N8840 X-9.073
N8845 X-9.092 Y-8.154
N8850 X-9.093 Y-8.155
N8855 X-9.112 Y-8.156
N8860 X-9.132 Y-8.157
N8865 X-9.151 Y-8.158
N8870 X-9.152
N8875 X-9.171 Y-8.159
N8880 X-9.176
N8885 X-9.194 Y-8.158
N8890 X-9.211
N8895 X-9.229 Y-8.157
N8900 X-9.246 Y-8.156
N8905 X-9.247
N8910 X-9.264 Y-8.155
N8915 X-9.265
N8920 X-9.282 Y-8.153
N8925 X-9.284
N8930 X-9.3 Y-8.151
N8935 X-9.302
N8940 X-9.319 Y-8.149
N8945 X-9.321
N8950 X-9.337 Y-8.146
N8955 X-9.339
N8960 X-9.356 Y-8.143
N8965 X-9.358 Y-8.142
N8970 X-9.374 Y-8.139
N8975 X-9.377 Y-8.138
N8980 X-9.393 Y-8.134
N8985 X-9.395 Y-8.133
N8990 X-9.411 Y-8.128
N8995 X-9.414 Y-8.127
N9000 X-9.43 Y-8.122
N9005 X-9.432 Y-8.121
N9010 X-9.448 Y-8.114
N9015 X-9.45 Y-8.113
N9020 X-9.465 Y-8.106
N9025 X-9.467
N9030 X-9.482 Y-8.098
N9035 X-9.484 Y-8.097
N9040 X-9.499 Y-8.089
N9045 X-9.5
N9050 X-9.515 Y-8.08
N9055 X-9.516
N9060 X-9.531 Y-8.071
N9065 X-9.532
N9070 X-9.546 Y-8.062
N9075 X-9.547 Y-8.061
N9080 X-9.561 Y-8.052
N9085 X-9.562
N9090 X-9.576 Y-8.043
N9095 X-9.577
N9100 X-9.591 Y-8.033
N9105 X-9.604 Y-8.023
N9110 X-9.613 Y-8.013
N9115 Y-8.012
N9120 X-9.623 Y-8.002
N9125 X-9.632 Y-7.992
N9130 X-9.633 Y-7.991
N9135 X-9.642 Y-7.981
N9140 X-9.643 Y-7.98
N9145 X-9.652 Y-7.969
N9150 X-9.653 Y-7.968
N9155 X-9.661 Y-7.958
N9160 X-9.662 Y-7.956
N9165 X-9.671 Y-7.946
N9170 X-9.672 Y-7.944
N9175 X-9.68 Y-7.933
N9180 X-9.681 Y-7.931
N9185 X-9.689 Y-7.92
N9190 X-9.69 Y-7.918
N9195 X-9.697 Y-7.907
N9200 X-9.699 Y-7.904
N9205 X-9.705 Y-7.892
N9210 X-9.707 Y-7.889
N9215 X-9.712 Y-7.878
N9220 X-9.714 Y-7.874
N9225 X-9.719 Y-7.862
N9230 X-9.72 Y-7.859
N9235 X-9.725 Y-7.846
N9240 X-9.726 Y-7.844
N9245 X-9.729 Y-7.831
N9250 X-9.73 Y-7.828
N9255 X-9.734 Y-7.815
N9260 Y-7.813
N9265 X-9.737 Y-7.8
N9270 X-9.738 Y-7.798
N9275 X-9.74 Y-7.785
N9280 Y-7.784
N9285 G0 Z5.
N9290 X-10.067 Y-6.558
N9295 G1 Z-0.001 F1000.
N9300 X-9.984 Y-6.502 Z-0.25
N9305 X-9.696 Y-6.542
N9310 X-9.648 Y-6.616 Z-0.001
N9315 X-9.696 Y-6.542 Z-0.25
N9320 X-9.691 Y-6.525
N9325 X-9.69 Y-6.524
N9330 X-9.685 Y-6.507
N9335 X-9.684 Y-6.506
N9340 X-9.679 Y-6.488
N9345 X-9.678 Y-6.487
N9350 X-9.672 Y-6.47
N9355 Y-6.468
N9360 X-9.665 Y-6.451
N9365 X-9.664 Y-6.45
N9370 X-9.658 Y-6.433
N9375 X-9.657 Y-6.431
N9380 X-9.65 Y-6.414
N9385 X-9.649 Y-6.412
N9390 X-9.641 Y-6.396
N9395 X-9.64 Y-6.394
N9400 X-9.631 Y-6.378
N9405 X-9.63 Y-6.376
N9410 X-9.621 Y-6.36
N9415 X-9.62 Y-6.358
N9420 X-9.61 Y-6.343
N9425 X-9.609 Y-6.34
N9430 X-9.598 Y-6.325
N9435 X-9.597 Y-6.324
N9440 X-9.586 Y-6.309
N9445 X-9.585 Y-6.307
N9450 X-9.574 Y-6.293
N9455 X-9.573 Y-6.292
N9460 X-9.561 Y-6.278
N9465 X-9.56 Y-6.276
N9470 X-9.548 Y-6.263
N9475 X-9.547 Y-6.262
N9480 X-9.534 Y-6.248
N9485 Y-6.247
N9490 X-9.521 Y-6.234
N9495 X-9.52 Y-6.233
N9500 X-9.508 Y-6.22
N9505 X-9.507
N9510 X-9.494 Y-6.206
N9515 X-9.481 Y-6.193
N9520 X-9.464 Y-6.18
N9525 X-9.446 Y-6.172
N9530 Y-6.171
N9535 X-9.429 Y-6.163
N9540 X-9.428 Y-6.162
N9545 X-9.411 Y-6.154
N9550 X-9.41 Y-6.153
N9555 X-9.392 Y-6.145
N9560 X-9.391 Y-6.144
N9565 X-9.374 Y-6.136
N9570 X-9.373
N9575 X-9.355 Y-6.128
N9580 X-9.354 Y-6.127
N9585 X-9.336 Y-6.12
N9590 X-9.334 Y-6.119
N9595 X-9.316 Y-6.112
N9600 X-9.314
N9605 X-9.296 Y-6.105
N9610 X-9.294 Y-6.104
N9615 X-9.276 Y-6.099
N9620 X-9.273 Y-6.098
N9625 X-9.255 Y-6.093
N9630 X-9.252 Y-6.092
N9635 X-9.234 Y-6.088
N9640 X-9.232 Y-6.087
N9645 X-9.213 Y-6.084
N9650 X-9.211 Y-6.083
N9655 X-9.192 Y-6.08
N9660 X-9.19
N9665 X-9.171 Y-6.077
N9670 X-9.169
N9675 X-9.15 Y-6.075
N9680 X-9.148
N9685 X-9.129 Y-6.073
N9690 X-9.128
N9695 X-9.108 Y-6.071
N9700 X-9.107
N9705 X-9.088 Y-6.07
N9710 X-9.087
N9715 X-9.067 Y-6.069
N9720 X-9.066
N9725 X-9.047
N9730 X-9.046
N9735 X-9.027 Y-6.068
N9740 X-9.026
N9745 X-9.007
N9750 X-9.006
N9755 X-8.987 Y-6.067
N9760 X-8.983
N9765 X-8.961 Y-6.068
N9770 X-8.939 Y-6.069
N9775 X-8.917 Y-6.07
N9780 X-8.916
N9785 X-8.894 Y-6.071
N9790 X-8.893
N9795 X-8.871 Y-6.073
N9800 X-8.87
N9805 X-8.848 Y-6.074
N9810 X-8.847 Y-6.075
N9815 X-8.825 Y-6.077
N9820 X-8.824
N9825 X-8.802 Y-6.08
N9830 X-8.801
N9835 X-8.779 Y-6.083
N9840 X-8.777
N9845 X-8.756 Y-6.087
N9850 X-8.754 Y-6.088
N9855 X-8.733 Y-6.092
N9860 X-8.731 Y-6.093
N9865 X-8.71 Y-6.098
N9870 X-8.707 Y-6.099
N9875 X-8.687 Y-6.105
N9880 X-8.684 Y-6.106
N9885 X-8.664 Y-6.113
N9890 X-8.661 Y-6.114
N9895 X-8.642 Y-6.122
N9900 X-8.639 Y-6.123
N9905 X-8.62 Y-6.132
N9910 X-8.618 Y-6.133
N9915 X-8.598 Y-6.142
N9920 X-8.597 Y-6.143
N9925 X-8.577 Y-6.153
N9930 X-8.576 Y-6.154
N9935 X-8.557 Y-6.165
N9940 X-8.556
N9945 X-8.537 Y-6.176
N9950 X-8.536 Y-6.177
N9955 X-8.517 Y-6.188
N9960 Y-6.189
N9965 X-8.498 Y-6.2
N9970 X-8.479 Y-6.212
N9975 X-8.46 Y-6.224
N9980 X-8.443 Y-6.24
N9985 X-8.433 Y-6.254
N9990 X-8.432
N9995 X-8.422 Y-6.268
N10000 X-8.412 Y-6.282
N10005 X-8.411 Y-6.283
N10010 X-8.402 Y-6.297
N10015 X-8.401 Y-6.298
N10020 X-8.392 Y-6.312
N10025 X-8.391 Y-6.313
N10030 X-8.382 Y-6.327
N10035 X-8.381 Y-6.329
N10040 X-8.372 Y-6.343
N10045 X-8.371 Y-6.345
N10050 X-8.363 Y-6.359
N10055 X-8.362 Y-6.362
N10060 X-8.354 Y-6.376
N10065 X-8.353 Y-6.379
N10070 X-8.346 Y-6.394
N10075 X-8.345 Y-6.397
N10080 X-8.339 Y-6.412
N10085 X-8.338 Y-6.415
N10090 X-8.333 Y-6.431
N10095 X-8.332 Y-6.434
N10100 X-8.328 Y-6.45
N10105 X-8.327 Y-6.452
N10110 X-8.323 Y-6.468
N10115 Y-6.471
N10120 X-8.32 Y-6.487
N10125 X-8.319 Y-6.489
N10130 X-8.317 Y-6.506
N10135 Y-6.507
N10140 X-8.314 Y-6.524
N10145 Y-6.526
N10150 X-8.313 Y-6.542
N10155 Y-6.544
N10160 X-8.311 Y-6.561
N10165 Y-6.562
N10170 X-8.31 Y-6.579
N10175 Y-6.58
N10180 X-8.309 Y-6.597
N10185 Y-6.614
N10190 Y-6.615
N10195 X-8.308 Y-6.632
N10200 Y-6.649
N10205 Y-6.652
N10210 Y-6.657
N10215 Y-6.661
N10220 Y-6.671
N10225 Y-6.675
N10230 Y-6.68
N10235 X-8.309 Y-6.685
N10240 Y-6.69
N10245 Y-6.694
N10250 Y-6.704
N10255 Y-6.708
N10260 Y-6.709
N10265 Y-6.713
N10270 Y-6.718
N10275 Y-6.723
N10280 X-8.31 Y-6.727
N10285 Y-6.728
N10290 Y-6.732
N10295 Y-6.737
N10300 Y-6.742
N10305 Y-6.746
N10310 Y-6.751
N10315 Y-6.756
N10320 Y-6.76
N10325 X-8.311 Y-6.765
N10330 X-8.317 Y-6.792
N10335 X-8.335 Y-6.815
N10340 X-8.36 Y-6.828
N10345 X-8.391 Y-6.836
N10350 X-8.423 Y-6.845
N10355 X-8.454 Y-6.853
N10360 X-8.455 Y-6.854
N10365 X-8.486 Y-6.862
N10370 X-8.518 Y-6.87
N10375 X-8.55 Y-6.878
N10380 Y-6.879
N10385 X-8.582 Y-6.886
N10390 X-8.583
N10395 X-8.614 Y-6.894
N10400 X-8.615
N10405 X-8.647 Y-6.901
N10410 Y-6.902
N10415 X-8.679 Y-6.908
N10420 X-8.68 Y-6.909
N10425 X-8.712 Y-6.915
N10430 X-8.713
N10435 X-8.744 Y-6.921
N10440 X-8.745
N10445 X-8.777 Y-6.927
N10450 X-8.778
N10455 X-8.81 Y-6.933
N10460 X-8.843 Y-6.938
N10465 X-8.875 Y-6.943
N10470 X-8.876
N10475 X-8.908 Y-6.948
N10480 X-8.941 Y-6.952
N10485 X-8.973 Y-6.957
N10490 X-8.974
N10495 X-9.006 Y-6.961
N10500 X-9.039 Y-6.965
N10505 X-9.071 Y-6.969
N10510 X-9.104 Y-6.973
N10515 X-9.136 Y-6.977
N10520 X-9.168 Y-6.981
N10525 X-9.184 Y-6.983
N10530 X-9.2 Y-6.985
N10535 X-9.216 Y-6.987
N10540 X-9.231 Y-6.989
N10545 X-9.247 Y-6.991
N10550 X-9.263 Y-6.993
N10555 X-9.279 Y-6.995
N10560 X-9.294 Y-6.997
N10565 X-9.31 Y-7.
N10570 X-9.325 Y-7.002
N10575 X-9.341 Y-7.005
N10580 X-9.356 Y-7.008
N10585 X-9.372 Y-7.01
N10590 X-9.387 Y-7.013
N10595 X-9.402 Y-7.016
N10600 X-9.418 Y-7.02
N10605 X-9.433 Y-7.023
N10610 X-9.449 Y-7.026
N10615 X-9.465 Y-7.029
N10620 X-9.48 Y-7.033
N10625 X-9.496 Y-7.036
N10630 X-9.509 Y-7.039
N10635 X-9.52 Y-7.042
N10640 X-9.533 Y-7.047
N10645 X-9.546 Y-7.051
N10650 X-9.56 Y-7.055
N10655 X-9.573 Y-7.06
N10660 X-9.585 Y-7.064
N10665 X-9.598 Y-7.068
N10670 X-9.611 Y-7.073
N10675 X-9.623 Y-7.078
N10680 X-9.635 Y-7.083
N10685 X-9.647 Y-7.088
N10690 X-9.659 Y-7.093
N10695 X-9.671 Y-7.098
N10700 X-9.682 Y-7.104
N10705 X-9.694 Y-7.11
N10710 X-9.706 Y-7.116
N10715 X-9.717 Y-7.122
N10720 X-9.729 Y-7.129
N10725 X-9.741 Y-7.136
N10730 X-9.753 Y-7.143
N10735 X-9.764 Y-7.15
N10740 X-9.776 Y-7.157
N10745 X-9.788 Y-7.164
N10750 X-9.797 Y-7.17
N10755 X-9.806 Y-7.176
N10760 X-9.816 Y-7.185
N10765 X-9.827 Y-7.193
N10770 X-9.838 Y-7.202
N10775 X-9.848 Y-7.21
N10780 X-9.858 Y-7.218
N10785 X-9.868 Y-7.227
N10790 X-9.877 Y-7.235
N10795 X-9.886 Y-7.244
N10800 X-9.895 Y-7.252
N10805 X-9.903 Y-7.261
N10810 X-9.912 Y-7.27
N10815 X-9.919 Y-7.279
N10820 X-9.927 Y-7.288
N10825 X-9.935 Y-7.298
N10830 X-9.942 Y-7.308
N10835 X-9.95 Y-7.318
N10840 X-9.957 Y-7.328
N10845 X-9.964 Y-7.339
N10850 X-9.972 Y-7.351
N10855 X-9.979 Y-7.362
N10860 X-9.986 Y-7.373
N10865 X-9.994 Y-7.385
N10870 X-9.999 Y-7.393
N10875 X-10.003 Y-7.403
N10880 X-10.009 Y-7.416
N10885 X-10.015 Y-7.43
N10890 X-10.021 Y-7.443
N10895 X-10.027 Y-7.455
N10900 X-10.032 Y-7.468
N10905 X-10.037 Y-7.481
N10910 X-10.042 Y-7.493
N10915 X-10.046 Y-7.506
N10920 X-10.05 Y-7.518
N10925 X-10.054 Y-7.53
N10930 X-10.057 Y-7.542
N10935 X-10.06 Y-7.555
N10940 X-10.063 Y-7.567
N10945 X-10.065 Y-7.58
N10950 X-10.067 Y-7.593
N10955 X-10.068 Y-7.606
N10960 X-10.07 Y-7.62
N10965 X-10.071 Y-7.633
N10970 X-10.072 Y-7.648
N10975 X-10.073 Y-7.662
N10980 X-10.074 Y-7.676
N10985 X-10.075 Y-7.691
N10990 X-10.076 Y-7.701
N10995 X-10.074 Y-7.721
N11000 X-10.072 Y-7.745
N11005 X-10.069 Y-7.769
N11010 X-10.067 Y-7.793
N11015 X-10.064 Y-7.816
N11020 X-10.06 Y-7.838
N11025 X-10.056 Y-7.861
N11030 X-10.052 Y-7.882
N11035 X-10.047 Y-7.903
N11040 X-10.041 Y-7.923
N11045 X-10.034 Y-7.942
N11050 X-10.027 Y-7.961
N11055 X-10.019 Y-7.98
N11060 X-10.009 Y-7.998
N11065 X-9.999 Y-8.016
N11070 X-9.987 Y-8.034
N11075 X-9.975 Y-8.052
N11080 X-9.961 Y-8.07
N11085 X-9.947 Y-8.088
N11090 X-9.933 Y-8.106
N11095 X-9.917 Y-8.124
N11100 X-9.902 Y-8.142
N11105 X-9.885 Y-8.161
N11110 X-9.875 Y-8.173
N11115 X-9.858 Y-8.184
N11120 X-9.834 Y-8.2
N11125 X-9.81 Y-8.216
N11130 X-9.787 Y-8.231
N11135 X-9.763 Y-8.245
N11140 X-9.74 Y-8.259
N11145 X-9.716 Y-8.272
N11150 X-9.693 Y-8.284
N11155 X-9.67 Y-8.295
N11160 X-9.646 Y-8.305
N11165 X-9.623 Y-8.314
N11170 X-9.599 Y-8.322
N11175 X-9.575 Y-8.329
N11180 X-9.55 Y-8.335
N11185 X-9.524 Y-8.34
N11190 X-9.498 Y-8.344
N11195 X-9.471 Y-8.348
N11200 X-9.444 Y-8.351
N11205 X-9.417 Y-8.354
N11210 X-9.389 Y-8.356
N11215 X-9.361 Y-8.358
N11220 X-9.332 Y-8.359
N11225 X-9.303 Y-8.36
N11230 X-9.277 Y-8.361
N11235 X-9.26
N11240 X-9.239 Y-8.36
N11245 X-9.22 Y-8.359
N11250 X-9.2 Y-8.358
N11255 X-9.18 Y-8.357
N11260 X-9.161 Y-8.356
N11265 X-9.142 Y-8.354
N11270 X-9.122 Y-8.352
N11275 X-9.103 Y-8.35
N11280 X-9.085 Y-8.348
N11285 X-9.066 Y-8.346
N11290 X-9.048 Y-8.343
N11295 X-9.029 Y-8.339
N11300 X-9.011 Y-8.335
N11305 X-8.993 Y-8.331
N11310 X-8.974 Y-8.327
N11315 X-8.956 Y-8.322
N11320 X-8.937 Y-8.317
N11325 X-8.919 Y-8.311
N11330 X-8.9 Y-8.306
N11335 X-8.881 Y-8.3
N11340 X-8.862 Y-8.294
N11345 X-8.843 Y-8.288
N11350 X-8.827 Y-8.283
N11355 X-8.81 Y-8.275
N11360 X-8.79 Y-8.266
N11365 X-8.769 Y-8.256
N11370 X-8.749 Y-8.247
N11375 X-8.729 Y-8.237
N11380 X-8.709 Y-8.228
N11385 X-8.69 Y-8.218
N11390 X-8.671 Y-8.208
N11395 X-8.652 Y-8.198
N11400 X-8.633 Y-8.187
N11405 X-8.615 Y-8.176
N11410 X-8.597 Y-8.165
N11415 X-8.579 Y-8.154
N11420 X-8.561 Y-8.142
N11425 X-8.543 Y-8.13
N11430 X-8.526 Y-8.117
N11435 X-8.508 Y-8.104
N11440 X-8.491 Y-8.091
N11445 X-8.473 Y-8.077
N11450 X-8.456 Y-8.064
N11455 X-8.438 Y-8.05
N11460 X-8.421 Y-8.036
N11465 X-8.403 Y-8.022
N11470 X-8.385 Y-8.007
N11475 X-8.36 Y-7.995
N11480 X-8.332 Y-7.993
N11485 X-8.306 Y-8.004
N11490 X-8.286 Y-8.024
N11495 X-8.277 Y-8.05
N11500 X-8.275 Y-8.064
N11505 X-8.273 Y-8.077
N11510 X-8.271 Y-8.09
N11515 X-8.269 Y-8.103
N11520 X-8.267 Y-8.116
N11525 X-8.265 Y-8.129
N11530 X-8.263 Y-8.142
N11535 X-8.261 Y-8.154
N11540 X-8.258 Y-8.167
N11545 X-8.256 Y-8.179
N11550 X-8.253 Y-8.191
N11555 X-8.25 Y-8.202
N11560 X-8.246 Y-8.214
N11565 X-8.243 Y-8.226
N11570 X-8.239 Y-8.237
N11575 X-8.235 Y-8.249
N11580 X-8.231 Y-8.261
N11585 X-8.226 Y-8.273
N11590 X-8.222 Y-8.285
N11595 X-8.217 Y-8.297
N11600 X-8.213 Y-8.305
N11605 X-8.257 Y-8.372 Z-0.001
N11610 X-8.213 Y-8.305 Z-0.25
N11615 X-7.916 Y-8.306
N11620 X-7.822 Y-8.364 Z-0.031
N11625 X-7.809 Y-8.373 Z-0.001
N11630 X-7.822 Y-8.364 Z-0.031
N11635 X-7.916 Y-8.306 Z-0.25
N11640 X-7.917 Y-8.303
N11645 Y-8.302
N11650 X-7.923 Y-8.289
N11655 Y-8.288
N11660 X-7.928 Y-8.276
N11665 X-7.929 Y-8.275
N11670 X-7.934 Y-8.262
N11675 Y-8.261
N11680 X-7.939 Y-8.248
N11685 Y-8.247
N11690 X-7.944 Y-8.234
N11695 Y-8.233
N11700 X-7.948 Y-8.22
N11705 X-7.949 Y-8.219
N11710 X-7.952 Y-8.206
N11715 X-7.953 Y-8.205
N11720 X-7.956 Y-8.192
N11725 X-7.957 Y-8.191
N11730 X-7.96 Y-8.178
N11735 Y-8.177
N11740 X-7.964 Y-8.164
N11745 X-7.967 Y-8.15
N11750 X-7.97 Y-8.137
N11755 X-7.971 Y-8.136
N11760 X-7.974 Y-8.123
N11765 X-7.977 Y-8.109
N11770 X-7.98 Y-8.096
N11775 X-7.983 Y-8.083
N11780 X-7.984 Y-8.074
N11785 X-7.987 Y-8.043
N11790 X-7.989 Y-8.011
N11795 X-7.992 Y-7.979
N11800 X-7.994 Y-7.948
N11805 Y-7.947
N11810 X-7.997 Y-7.916
N11815 X-7.999 Y-7.884
N11820 X-8.001 Y-7.852
N11825 X-8.003 Y-7.82
N11830 X-8.005 Y-7.788
N11835 X-8.006 Y-7.756
N11840 X-8.008 Y-7.724
N11845 X-8.009 Y-7.692
N11850 X-8.01 Y-7.66
N11855 Y-7.628
N11860 X-8.011 Y-7.596
N11865 Y-7.564
N11870 Y-7.532
N11875 Y-7.5
N11880 Y-7.469
N11885 Y-7.468
N11890 Y-7.437
N11895 Y-7.405
N11900 Y-7.373
N11905 Y-7.341
N11910 Y-7.31
N11915 X-8.01 Y-6.737
N11920 Y-6.72
N11925 Y-6.704
N11930 Y-6.688
N11935 Y-6.671
N11940 Y-6.655
N11945 Y-6.638
N11950 Y-6.622
N11955 Y-6.606
N11960 X-8.011 Y-6.59
N11965 Y-6.574
N11970 X-8.012 Y-6.558
N11975 Y-6.542
N11980 X-8.013 Y-6.526
N11985 X-8.014 Y-6.51
N11990 X-8.015 Y-6.494
N11995 X-8.017 Y-6.478
N12000 X-8.018 Y-6.462
N12005 X-8.02 Y-6.446
N12010 X-8.021 Y-6.43
N12015 X-8.023 Y-6.414
N12020 X-8.025 Y-6.398
N12025 X-8.027 Y-6.382
N12030 X-8.029 Y-6.365
N12035 X-8.03 Y-6.353
N12040 X-8.032 Y-6.345
N12045 X-8.036 Y-6.332
N12050 X-8.039 Y-6.319
N12055 X-8.042 Y-6.306
N12060 X-8.046 Y-6.294
N12065 X-8.05 Y-6.282
N12070 X-8.053 Y-6.27
N12075 X-8.057 Y-6.258
N12080 X-8.061 Y-6.247
N12085 X-8.065 Y-6.235
N12090 X-8.07 Y-6.225
N12095 X-8.074 Y-6.214
N12100 X-8.079 Y-6.204
N12105 X-8.084 Y-6.193
N12110 X-8.09 Y-6.183
N12115 X-8.096 Y-6.173
N12120 X-8.102 Y-6.162
N12125 X-8.108 Y-6.152
N12130 X-8.115 Y-6.141
N12135 X-8.122 Y-6.13
N12140 X-8.13 Y-6.12
N12145 X-8.137 Y-6.109
N12150 X-8.145 Y-6.098
N12155 X-8.149 Y-6.092
N12160 X-8.155 Y-6.086
N12165 X-8.165 Y-6.076
N12170 X-8.176 Y-6.066
N12175 X-8.186 Y-6.056
N12180 X-8.197 Y-6.046
N12185 X-8.207 Y-6.037
N12190 X-8.217 Y-6.028
N12195 X-8.228 Y-6.02
N12200 X-8.238 Y-6.012
N12205 X-8.248 Y-6.004
N12210 X-8.259 Y-5.997
N12215 X-8.27 Y-5.99
N12220 X-8.281 Y-5.983
N12225 X-8.292 Y-5.976
N12230 X-8.304 Y-5.97
N12235 X-8.316 Y-5.964
N12240 X-8.328 Y-5.958
N12245 X-8.34 Y-5.952
N12250 X-8.353 Y-5.946
N12255 X-8.366 Y-5.94
N12260 X-8.38 Y-5.935
N12265 X-8.393 Y-5.929
N12270 X-8.407 Y-5.923
N12275 X-8.418 Y-5.919
N12280 X-8.436 Y-5.914
N12285 X-8.457 Y-5.908
N12290 X-8.478 Y-5.902
N12295 X-8.499 Y-5.896
N12300 X-8.52 Y-5.89
N12305 X-8.541 Y-5.885
N12310 X-8.562 Y-5.88
N12315 X-8.583 Y-5.875
N12320 X-8.603 Y-5.871
N12325 X-8.624 Y-5.867
N12330 X-8.644 Y-5.864
N12335 X-8.665 Y-5.861
N12340 X-8.686 Y-5.858
N12345 X-8.707 Y-5.856
N12350 X-8.728 Y-5.854
N12355 X-8.749 Y-5.852
N12360 X-8.77 Y-5.851
N12365 X-8.792 Y-5.849
N12370 X-8.814
N12375 X-8.836 Y-5.848
N12380 X-8.858 Y-5.847
N12385 X-8.88
N12390 X-8.902 Y-5.846
N12395 X-8.923
N12400 X-8.946
N12405 X-8.97 Y-5.847
N12410 X-8.994 Y-5.848
N12415 X-9.018 Y-5.849
N12420 X-9.042 Y-5.85
N12425 X-9.066 Y-5.851
N12430 X-9.089 Y-5.852
N12435 X-9.113 Y-5.854
N12440 X-9.136 Y-5.856
N12445 X-9.159 Y-5.859
N12450 X-9.182 Y-5.861
N12455 X-9.205 Y-5.865
N12460 X-9.227 Y-5.868
N12465 X-9.25 Y-5.872
N12470 X-9.273 Y-5.877
N12475 X-9.295 Y-5.882
N12480 X-9.318 Y-5.887
N12485 X-9.341 Y-5.893
N12490 X-9.364 Y-5.899
N12495 X-9.387 Y-5.905
N12500 X-9.41 Y-5.912
N12505 X-9.433 Y-5.918
N12510 X-9.456 Y-5.925
N12515 X-9.476 Y-5.931
N12520 X-9.491 Y-5.937
N12525 X-9.509 Y-5.944
N12530 X-9.527 Y-5.952
N12535 X-9.544 Y-5.959
N12540 X-9.561 Y-5.967
N12545 X-9.578 Y-5.974
N12550 X-9.594 Y-5.982
N12555 X-9.61 Y-5.99
N12560 X-9.626 Y-5.998
N12565 X-9.641 Y-6.007
N12570 X-9.656 Y-6.015
N12575 X-9.67 Y-6.024
N12580 X-9.684 Y-6.034
N12585 X-9.697 Y-6.044
N12590 X-9.711 Y-6.055
N12595 X-9.724 Y-6.066
N12600 X-9.737 Y-6.077
N12605 X-9.751 Y-6.089
N12610 X-9.764 Y-6.102
N12615 X-9.777 Y-6.115
N12620 X-9.79 Y-6.128
N12625 X-9.803 Y-6.141
N12630 X-9.817 Y-6.155
N12635 X-9.826 Y-6.165
N12640 X-9.834 Y-6.176
N12645 X-9.845 Y-6.193
N12650 X-9.855 Y-6.209
N12655 X-9.866 Y-6.226
N12660 X-9.876 Y-6.242
N12665 X-9.886 Y-6.258
N12670 X-9.895 Y-6.274
N12675 X-9.905 Y-6.291
N12680 X-9.913 Y-6.307
N12685 X-9.921 Y-6.323
N12690 X-9.929 Y-6.339
N12695 X-9.936 Y-6.356
N12700 X-9.943 Y-6.372
N12705 X-9.95 Y-6.389
N12710 X-9.956 Y-6.407
N12715 X-9.962 Y-6.424
N12720 X-9.968 Y-6.442
N12725 X-9.973 Y-6.46
N12730 X-9.978 Y-6.479
N12735 X-9.983 Y-6.498
N12740 X-9.984 Y-6.502
N12745 G0 Z5.
N12750 X-7.285 Y-5.838
N12755 G1 Z-0.001 F1000.
N12760 X-7.218 Y-5.905 Z-0.25
N12765 X-7.22 Y-7.409
N12770 Y-7.426
N12775 Y-7.442
N12780 Y-7.459
N12785 Y-7.476
N12790 Y-7.492
N12795 Y-7.509
N12800 Y-7.525
N12805 X-7.219 Y-7.541
N12810 Y-7.558
N12815 X-7.218 Y-7.574
N12820 X-7.217 Y-7.59
N12825 Y-7.606
N12830 X-7.216 Y-7.622
N12835 X-7.214 Y-7.638
N12840 X-7.213 Y-7.654
N12845 X-7.211 Y-7.67
N12850 X-7.21 Y-7.686
N12855 X-7.208 Y-7.702
N12860 X-7.206 Y-7.719
N12865 X-7.204 Y-7.735
N12870 X-7.202 Y-7.751
N12875 X-7.2 Y-7.768
N12880 X-7.197 Y-7.784
N12885 X-7.196 Y-7.798
N12890 X-7.193 Y-7.808
N12895 X-7.19 Y-7.822
N12900 X-7.186 Y-7.836
N12905 X-7.183 Y-7.85
N12910 X-7.179 Y-7.863
N12915 X-7.176 Y-7.877
N12920 X-7.172 Y-7.89
N12925 X-7.168 Y-7.902
N12930 X-7.164 Y-7.915
N12935 X-7.16 Y-7.927
N12940 X-7.155 Y-7.939
N12945 X-7.15 Y-7.951
N12950 X-7.146 Y-7.963
N12955 X-7.14 Y-7.975
N12960 X-7.135 Y-7.986
N12965 X-7.129 Y-7.998
N12970 X-7.122 Y-8.01
N12975 X-7.116 Y-8.021
N12980 X-7.109 Y-8.033
N12985 X-7.102 Y-8.045
N12990 X-7.095 Y-8.057
N12995 X-7.088 Y-8.069
N13000 X-7.08 Y-8.081
N13005 X-7.075 Y-8.089
N13010 X-7.069 Y-8.096
N13015 X-7.059 Y-8.107
N13020 X-7.049 Y-8.118
N13025 X-7.039 Y-8.129
N13030 X-7.029 Y-8.139
N13035 X-7.02 Y-8.149
N13040 X-7.01 Y-8.159
N13045 X-7. Y-8.169
N13050 X-6.99 Y-8.178
N13055 X-6.98 Y-8.186
N13060 X-6.97 Y-8.194
N13065 X-6.96 Y-8.202
N13070 X-6.949 Y-8.21
N13075 X-6.938 Y-8.217
N13080 X-6.927 Y-8.224
N13085 X-6.915 Y-8.231
N13090 X-6.903 Y-8.238
N13095 X-6.891 Y-8.245
N13100 X-6.878 Y-8.252
N13105 X-6.865 Y-8.259
N13110 X-6.852 Y-8.265
N13115 X-6.839 Y-8.272
N13120 X-6.825 Y-8.278
N13125 X-6.814 Y-8.284
N13130 X-6.8 Y-8.289
N13135 X-6.783 Y-8.295
N13140 X-6.767 Y-8.301
N13145 X-6.75 Y-8.307
N13150 X-6.734 Y-8.313
N13155 X-6.718 Y-8.319
N13160 X-6.702 Y-8.324
N13165 X-6.686 Y-8.329
N13170 X-6.67 Y-8.333
N13175 X-6.654 Y-8.338
N13180 X-6.638 Y-8.342
N13185 X-6.622 Y-8.345
N13190 X-6.606 Y-8.348
N13195 X-6.59 Y-8.351
N13200 X-6.574 Y-8.353
N13205 X-6.558 Y-8.355
N13210 X-6.541 Y-8.357
N13215 X-6.524 Y-8.359
N13220 X-6.507 Y-8.36
N13225 X-6.489 Y-8.361
N13230 X-6.472 Y-8.362
N13235 X-6.454 Y-8.363
N13240 X-6.437 Y-8.364
N13245 X-6.424 Y-8.365
N13250 X-6.389 Y-8.361
N13255 X-6.349 Y-8.356
N13260 X-6.309 Y-8.351
N13265 X-6.271 Y-8.345
N13270 X-6.233 Y-8.339
N13275 X-6.195 Y-8.332
N13280 X-6.159 Y-8.324
N13285 X-6.124 Y-8.315
N13290 X-6.09 Y-8.304
N13295 X-6.057 Y-8.292
N13300 X-6.025 Y-8.279
N13305 X-5.995 Y-8.264
N13310 X-5.965 Y-8.247
N13315 X-5.937 Y-8.228
N13320 X-5.908 Y-8.207
N13325 X-5.881 Y-8.185
N13330 X-5.853 Y-8.161
N13335 X-5.826 Y-8.135
N13340 X-5.8 Y-8.108
N13345 X-5.773 Y-8.08
N13350 X-5.747 Y-8.051
N13355 X-5.72 Y-8.021
N13360 X-5.694 Y-7.99
N13365 X-5.668 Y-7.959
N13370 X-5.641 Y-7.941
N13375 X-5.609 Y-7.936
N13380 X-5.579 Y-7.948
N13385 X-5.557 Y-7.972
N13390 X-5.55 Y-8.003
N13395 Y-8.308
N13400 X-5.617 Y-8.375 Z-0.001
N13405 X-5.55 Y-8.308 Z-0.25
N13410 X-5.3 Y-8.309
N13415 X-5.233 Y-8.375 Z-0.001
N13420 X-5.3 Y-8.309 Z-0.25
N13425 X-5.297 Y-5.907
N13430 X-5.23 Y-5.841 Z-0.001
N13435 X-5.297 Y-5.907 Z-0.25
N13440 X-5.593
N13445 X-5.659 Y-5.84 Z-0.001
N13450 X-5.593 Y-5.907 Z-0.25
N13455 X-5.594 Y-7.198
N13460 Y-7.199
N13465 Y-7.22
N13470 X-5.595 Y-7.241
N13475 Y-7.262
N13480 Y-7.263
N13485 Y-7.284
N13490 X-5.596 Y-7.305
N13495 Y-7.306
N13500 X-5.597 Y-7.327
N13505 Y-7.328
N13510 X-5.598 Y-7.348
N13515 Y-7.349
N13520 X-5.599 Y-7.37
N13525 Y-7.371
N13530 X-5.6 Y-7.392
N13535 X-5.601 Y-7.393
N13540 X-5.602 Y-7.414
N13545 Y-7.415
N13550 X-5.605 Y-7.436
N13555 Y-7.437
N13560 X-5.607 Y-7.458
N13565 Y-7.459
N13570 X-5.61 Y-7.48
N13575 X-5.611 Y-7.481
N13580 X-5.614 Y-7.502
N13585 Y-7.503
N13590 X-5.618 Y-7.524
N13595 Y-7.525
N13600 X-5.623 Y-7.545
N13605 Y-7.547
N13610 X-5.628 Y-7.567
N13615 Y-7.568
N13620 X-5.633 Y-7.588
N13625 Y-7.589
N13630 X-5.638 Y-7.609
N13635 X-5.639 Y-7.61
N13640 X-5.644 Y-7.63
N13645 Y-7.631
N13650 X-5.65 Y-7.651
N13655 Y-7.652
N13660 X-5.656 Y-7.672
N13665 X-5.662 Y-7.692
N13670 X-5.668 Y-7.713
N13675 X-5.673 Y-7.725
N13680 X-5.68 Y-7.738
N13685 X-5.687 Y-7.752
N13690 Y-7.753
N13695 X-5.695 Y-7.766
N13700 Y-7.767
N13705 X-5.702 Y-7.78
N13710 X-5.703 Y-7.781
N13715 X-5.71 Y-7.795
N13720 X-5.711 Y-7.796
N13725 X-5.719 Y-7.809
N13730 Y-7.81
N13735 X-5.727 Y-7.823
N13740 X-5.728 Y-7.824
N13745 X-5.737 Y-7.837
N13750 X-5.738 Y-7.839
N13755 X-5.746 Y-7.851
N13760 X-5.747 Y-7.853
N13765 X-5.756 Y-7.865
N13770 X-5.758 Y-7.867
N13775 X-5.767 Y-7.879
N13780 X-5.769 Y-7.881
N13785 X-5.779 Y-7.892
N13790 X-5.78 Y-7.894
N13795 X-5.791 Y-7.905
N13800 X-5.793 Y-7.907
N13805 X-5.803 Y-7.918
N13810 X-5.805 Y-7.919
N13815 X-5.816 Y-7.93
N13820 X-5.818 Y-7.931
N13825 X-5.829 Y-7.941
N13830 X-5.83 Y-7.942
N13835 X-5.842 Y-7.952
N13840 X-5.843 Y-7.953
N13845 X-5.855 Y-7.962
N13850 X-5.856 Y-7.963
N13855 X-5.869 Y-7.972
N13860 X-5.87 Y-7.973
N13865 X-5.882 Y-7.982
N13870 X-5.883
N13875 X-5.895 Y-7.991
N13880 X-5.896 Y-7.992
N13885 X-5.909 Y-8.001
N13890 X-5.922 Y-8.01
N13895 X-5.935 Y-8.019
N13900 X-5.942 Y-8.023
N13905 X-5.957 Y-8.03
N13910 X-5.971 Y-8.037
N13915 Y-8.038
N13920 X-5.986 Y-8.045
N13925 X-6.001 Y-8.052
N13930 X-6.016 Y-8.059
N13935 X-6.017
N13940 X-6.031 Y-8.066
N13945 X-6.032
N13950 X-6.047 Y-8.072
N13955 X-6.048 Y-8.073
N13960 X-6.062 Y-8.079
N13965 X-6.064
N13970 X-6.078 Y-8.085
N13975 X-6.08 Y-8.086
N13980 X-6.095 Y-8.091
N13985 X-6.097 Y-8.092
N13990 X-6.112 Y-8.096
N13995 X-6.113 Y-8.097
N14000 X-6.129 Y-8.101
N14005 X-6.131 Y-8.102
N14010 X-6.146 Y-8.106
N14015 X-6.148
N14020 X-6.163 Y-8.11
N14025 X-6.165
N14030 X-6.181 Y-8.113
N14035 X-6.182
N14040 X-6.198 Y-8.116
N14045 X-6.199
N14050 X-6.215 Y-8.118
N14055 X-6.216 Y-8.119
N14060 X-6.232 Y-8.121
N14065 X-6.233
N14070 X-6.249 Y-8.122
N14075 X-6.25
N14080 X-6.265 Y-8.124
N14085 X-6.266
N14090 X-6.282 Y-8.125
N14095 X-6.283
N14100 X-6.299 Y-8.126
N14105 X-6.315 Y-8.128
N14110 X-6.331 Y-8.129
N14115 X-6.339
N14120 X-6.354 Y-8.128
N14125 X-6.368 Y-8.127
N14130 X-6.369
N14135 X-6.383 Y-8.126
N14140 X-6.384
N14145 X-6.398 Y-8.125
N14150 X-6.399
N14155 X-6.413 Y-8.124
N14160 X-6.414
N14165 X-6.429 Y-8.122
N14170 X-6.43
N14175 X-6.444 Y-8.12
N14180 X-6.446
N14185 X-6.46 Y-8.118
N14190 X-6.462
N14195 X-6.476 Y-8.115
N14200 X-6.478
N14205 X-6.491 Y-8.112
N14210 X-6.494
N14215 X-6.507 Y-8.109
N14220 X-6.51 Y-8.108
N14225 X-6.523 Y-8.104
N14230 X-6.526
N14235 X-6.539 Y-8.099
N14240 X-6.542
N14245 X-6.555 Y-8.094
N14250 X-6.557 Y-8.093
N14255 X-6.57 Y-8.088
N14260 X-6.572 Y-8.087
N14265 X-6.585 Y-8.081
N14270 X-6.587 Y-8.08
N14275 X-6.6 Y-8.074
N14280 X-6.602
N14285 X-6.614 Y-8.067
N14290 X-6.616
N14295 X-6.628 Y-8.06
N14300 X-6.629 Y-8.059
N14305 X-6.642 Y-8.053
N14310 X-6.643 Y-8.052
N14315 X-6.655 Y-8.045
N14320 X-6.656
N14325 X-6.668 Y-8.037
N14330 X-6.669
N14335 X-6.681 Y-8.03
N14340 X-6.682
N14345 X-6.694 Y-8.022
N14350 X-6.705 Y-8.015
N14355 X-6.715 Y-8.006
N14360 Y-8.005
N14365 X-6.725 Y-7.996
N14370 X-6.736 Y-7.987
N14375 Y-7.986
N14380 X-6.746 Y-7.977
N14385 X-6.747 Y-7.976
N14390 X-6.757 Y-7.967
N14395 Y-7.966
N14400 X-6.767 Y-7.956
N14405 X-6.768 Y-7.955
N14410 X-6.777 Y-7.946
N14415 X-6.779 Y-7.944
N14420 X-6.787 Y-7.934
N14425 X-6.789 Y-7.933
N14430 X-6.797 Y-7.923
N14435 X-6.799 Y-7.921
N14440 X-6.807 Y-7.911
N14445 X-6.809 Y-7.909
N14450 X-6.817 Y-7.898
N14455 X-6.818 Y-7.896
N14460 X-6.826 Y-7.885
N14465 X-6.827 Y-7.882
N14470 X-6.834 Y-7.871
N14475 X-6.835 Y-7.868
N14480 X-6.842 Y-7.857
N14485 X-6.843 Y-7.855
N14490 X-6.849 Y-7.843
N14495 X-6.85 Y-7.841
N14500 X-6.856 Y-7.829
N14505 Y-7.827
N14510 X-6.862 Y-7.815
N14515 Y-7.813
N14520 X-6.867 Y-7.801
N14525 X-6.868 Y-7.799
N14530 X-6.873 Y-7.787
N14535 Y-7.786
N14540 X-6.878 Y-7.773
N14545 Y-7.772
N14550 X-6.882 Y-7.759
N14555 X-6.883 Y-7.758
N14560 X-6.887 Y-7.745
N14565 X-6.891 Y-7.732
N14570 X-6.895 Y-7.719
N14575 X-6.898 Y-7.707
N14580 X-6.9 Y-7.688
N14585 X-6.903 Y-7.669
N14590 X-6.905 Y-7.65
N14595 X-6.908 Y-7.631
N14600 X-6.91 Y-7.612
N14605 X-6.912 Y-7.593
N14610 Y-7.592
N14615 X-6.914 Y-7.574
N14620 Y-7.573
N14625 X-6.916 Y-7.554
N14630 Y-7.553
N14635 X-6.918 Y-7.535
N14640 Y-7.534
N14645 X-6.919 Y-7.515
N14650 Y-7.514
N14655 X-6.92 Y-7.495
N14660 X-6.921 Y-7.476
N14665 Y-7.475
N14670 X-6.922 Y-7.456
N14675 X-6.923 Y-7.437
N14680 Y-7.436
N14685 Y-7.417
N14690 X-6.924
N14695 Y-7.398
N14700 Y-7.397
N14705 Y-7.379
N14710 Y-7.378
N14715 Y-7.359
N14720 X-6.925 Y-7.34
N14725 Y-7.321
N14730 Y-7.302
N14735 Y-7.301
N14740 X-6.924 Y-7.282
N14745 Y-7.263
N14750 Y-7.244
N14755 X-6.923 Y-5.905
N14760 X-6.856 Y-5.839 Z-0.001
N14765 X-6.923 Y-5.905 Z-0.25
N14770 X-7.218
N14775 G0 Z5.
N14780 X-4.864 Y-5.841
N14785 G1 Z-0.001 F1000.
N14790 X-4.774 Y-5.908 Z-0.25
N14795 X-4.042 Y-8.31
N14800 X-4.091 Y-8.377 Z-0.001
N14805 X-4.042 Y-8.31 Z-0.25
N14810 X-3.694 Y-8.311
N14815 X-3.643 Y-8.377 Z-0.001
N14820 X-3.694 Y-8.311 Z-0.25
N14825 X-3.192 Y-6.411
N14830 X-3.178 Y-6.384
N14835 X-3.155 Y-6.367
N14840 X-3.126 Y-6.361
N14845 X-3.097 Y-6.368
N14850 X-3.074 Y-6.386
N14855 X-3.062 Y-6.413
N14860 X-2.965 Y-6.844
N14865 X-2.576 Y-8.312
N14870 X-2.628 Y-8.378 Z-0.001
N14875 X-2.576 Y-8.312 Z-0.25
N14880 X-2.231
N14885 X-2.182 Y-8.379 Z-0.001
N14890 X-2.231 Y-8.312 Z-0.25
N14895 X-1.477 Y-5.912
N14900 X-1.386 Y-5.845 Z-0.001
N14905 X-1.477 Y-5.912 Z-0.25
N14910 X-1.754 Y-5.911
N14915 X-1.804 Y-5.845 Z-0.001
N14920 X-1.754 Y-5.911 Z-0.25
N14925 X-2.176 Y-7.329
N14930 X-2.322 Y-7.818
N14935 X-2.336 Y-7.843
N14940 X-2.359 Y-7.86
N14945 X-2.387 Y-7.866
N14950 X-2.415 Y-7.859
N14955 X-2.438 Y-7.841
N14960 X-2.451 Y-7.816
N14965 X-2.577 Y-7.331
N14970 X-2.942 Y-5.91
N14975 X-2.89 Y-5.843 Z-0.001
N14980 X-2.942 Y-5.91 Z-0.25
N14985 X-3.281
N14990 X-3.332 Y-5.843 Z-0.001
N14995 X-3.281 Y-5.91 Z-0.25
N15000 X-3.672 Y-7.344
N15005 X-3.683 Y-7.387
N15010 X-3.711 Y-7.496
N15015 X-3.716 Y-7.518
N15020 X-3.722 Y-7.539
N15025 X-3.727 Y-7.561
N15030 X-3.733 Y-7.583
N15035 X-3.738 Y-7.605
N15040 X-3.744 Y-7.626
N15045 X-3.755 Y-7.67
N15050 X-3.76 Y-7.692
N15055 X-3.766 Y-7.714
N15060 X-3.771 Y-7.735
N15065 X-3.777 Y-7.757
N15070 X-3.782 Y-7.779
N15075 X-3.788 Y-7.801
N15080 X-3.793 Y-7.822
N15085 X-3.798 Y-7.844
N15090 X-3.804 Y-7.866
N15095 X-3.817 Y-7.892
N15100 X-3.84 Y-7.91
N15105 X-3.868 Y-7.917
N15110 X-3.897 Y-7.911
N15115 X-3.92 Y-7.893
N15120 X-3.933 Y-7.868
N15125 X-4.083 Y-7.323
N15130 X-4.472 Y-5.908
N15135 X-4.421 Y-5.842 Z-0.001
N15140 X-4.472 Y-5.908 Z-0.25
N15145 X-4.774
N15150 G0 Z5.
N15155 X-0.781 Y-6.761
N15160 G1 Z-0.25 F1000.
N15165 X-0.784 Y-6.776
N15170 Y-6.779
N15175 X-0.79 Y-6.81
N15180 Y-6.812
N15185 X-0.795 Y-6.844
N15190 Y-6.845
N15195 X-0.799 Y-6.877
N15200 Y-6.879
N15205 X-0.802 Y-6.911
N15210 X-0.803 Y-6.912
N15215 X-0.805 Y-6.945
N15220 Y-6.946
N15225 X-0.807 Y-6.978
N15230 Y-6.979
N15235 X-0.809 Y-7.012
N15240 X-0.81 Y-7.045
N15245 X-0.811 Y-7.078
N15250 X-0.812 Y-7.111
N15255 Y-7.115
N15260 X-0.811 Y-7.148
N15265 X-0.81 Y-7.181
N15270 X-0.809 Y-7.214
N15275 Y-7.215
N15280 X-0.807 Y-7.247
N15285 Y-7.248
N15290 X-0.806 Y-7.281
N15295 X-0.805 Y-7.282
N15300 X-0.803 Y-7.314
N15305 Y-7.316
N15310 X-0.8 Y-7.348
N15315 Y-7.349
N15320 X-0.796 Y-7.381
N15325 Y-7.383
N15330 X-0.791 Y-7.415
N15335 Y-7.417
N15340 X-0.785 Y-7.448
N15345 Y-7.45
N15350 X-0.778 Y-7.482
N15355 Y-7.484
N15360 X-0.77 Y-7.515
N15365 X-0.769 Y-7.517
N15370 X-0.76 Y-7.548
N15375 X-0.759 Y-7.551
N15380 X-0.749 Y-7.58
N15385 X-0.748 Y-7.583
N15390 X-0.737 Y-7.613
N15395 X-0.736 Y-7.615
N15400 X-0.723 Y-7.644
N15405 X-0.722 Y-7.646
N15410 X-0.708 Y-7.675
N15415 X-0.707 Y-7.677
N15420 X-0.693 Y-7.705
N15425 X-0.692 Y-7.707
N15430 X-0.677 Y-7.735
N15435 X-0.676 Y-7.737
N15440 X-0.66 Y-7.765
N15445 X-0.659 Y-7.766
N15450 X-0.643 Y-7.794
N15455 X-0.642
N15460 X-0.625 Y-7.822
N15465 Y-7.823
N15470 X-0.608 Y-7.85
N15475 Y-7.851
N15480 X-0.59 Y-7.878
N15485 X-0.579 Y-7.892
N15490 X-0.561 Y-7.909
N15495 X-0.56 Y-7.91
N15500 X-0.542 Y-7.927
N15505 X-0.541 Y-7.928
N15510 X-0.522 Y-7.945
N15515 X-0.521
N15520 X-0.502 Y-7.962
N15525 X-0.501 Y-7.963
N15530 X-0.482 Y-7.98
N15535 X-0.481 Y-7.981
N15540 X-0.461 Y-7.997
N15545 X-0.46 Y-7.998
N15550 X-0.44 Y-8.013
N15555 X-0.439 Y-8.015
N15560 X-0.418 Y-8.029
N15565 X-0.416 Y-8.031
N15570 X-0.396 Y-8.045
N15575 X-0.393 Y-8.046
N15580 X-0.373 Y-8.059
N15585 X-0.37 Y-8.061
N15590 X-0.348 Y-8.073
N15595 X-0.345 Y-8.074
N15600 X-0.323 Y-8.085
N15605 X-0.32 Y-8.087
N15610 X-0.297 Y-8.096
N15615 X-0.294 Y-8.097
N15620 X-0.271 Y-8.106
N15625 X-0.268 Y-8.107
N15630 X-0.245 Y-8.114
N15635 X-0.242 Y-8.115
N15640 X-0.218 Y-8.121
N15645 X-0.216 Y-8.122
N15650 X-0.191 Y-8.127
N15655 X-0.189 Y-8.128
N15660 X-0.164 Y-8.132
N15665 X-0.163 Y-8.133
N15670 X-0.138 Y-8.137
N15675 X-0.136
N15680 X-0.111 Y-8.141
N15685 X-0.11
N15690 X-0.084 Y-8.144
N15695 X-0.058 Y-8.147
N15700 X-0.057
N15705 X-0.032 Y-8.15
N15710 X-0.031
N15715 X-0.006 Y-8.152
N15720 X0.008
N15725 X0.033 Y-8.15
N15730 X0.059 Y-8.147
N15735 X0.06
N15740 X0.085 Y-8.144
N15745 X0.086
N15750 X0.111 Y-8.141
N15755 X0.112
N15760 X0.138 Y-8.137
N15765 X0.139
N15770 X0.164 Y-8.133
N15775 X0.166 Y-8.132
N15780 X0.19 Y-8.128
N15785 X0.193 Y-8.127
N15790 X0.217 Y-8.122
N15795 X0.219 Y-8.121
N15800 X0.243 Y-8.115
N15805 X0.246 Y-8.114
N15810 X0.269 Y-8.107
N15815 X0.272 Y-8.106
N15820 X0.295 Y-8.097
N15825 X0.298 Y-8.096
N15830 X0.321 Y-8.087
N15835 X0.324 Y-8.085
N15840 X0.346 Y-8.074
N15845 X0.349 Y-8.073
N15850 X0.371 Y-8.061
N15855 X0.373 Y-8.059
N15860 X0.394 Y-8.046
N15865 X0.397 Y-8.045
N15870 X0.417 Y-8.031
N15875 X0.419 Y-8.029
N15880 X0.439 Y-8.015
N15885 X0.441 Y-8.013
N15890 X0.461 Y-7.998
N15895 X0.462 Y-7.997
N15900 X0.481 Y-7.981
N15905 X0.483 Y-7.98
N15910 X0.502 Y-7.963
N15915 X0.503 Y-7.962
N15920 X0.522 Y-7.945
N15925 X0.541 Y-7.927
N15930 X0.542
N15935 X0.561 Y-7.909
N15940 X0.579 Y-7.892
N15945 X0.591 Y-7.878
N15950 X0.608 Y-7.85
N15955 X0.626 Y-7.821
N15960 X0.643 Y-7.793
N15965 Y-7.792
N15970 X0.66 Y-7.763
N15975 X0.661 Y-7.762
N15980 X0.677 Y-7.734
N15985 Y-7.733
N15990 X0.693 Y-7.704
N15995 X0.694 Y-7.702
N16000 X0.709 Y-7.673
N16005 Y-7.671
N16010 X0.723 Y-7.642
N16015 X0.724 Y-7.64
N16020 X0.737 Y-7.61
N16025 X0.738 Y-7.608
N16030 X0.75 Y-7.578
N16035 Y-7.575
N16040 X0.761 Y-7.545
N16045 X0.762 Y-7.542
N16050 X0.771 Y-7.511
N16055 Y-7.508
N16060 X0.779 Y-7.477
N16065 X0.78 Y-7.475
N16070 X0.786 Y-7.443
N16075 X0.787 Y-7.441
N16080 X0.792 Y-7.409
N16085 X0.793 Y-7.407
N16090 X0.797 Y-7.375
N16095 Y-7.373
N16100 X0.801 Y-7.34
N16105 Y-7.339
N16110 X0.804 Y-7.306
N16115 X0.805 Y-7.305
N16120 X0.807 Y-7.272
N16125 Y-7.271
N16130 X0.809 Y-7.238
N16135 Y-7.237
N16140 X0.811 Y-7.204
N16145 Y-7.203
N16150 X0.812 Y-7.17
N16155 Y-7.169
N16160 X0.813 Y-7.136
N16165 X0.814 Y-7.102
N16170 Y-7.098
N16175 X0.813 Y-7.066
N16180 X0.812 Y-7.034
N16185 Y-7.033
N16190 X0.81 Y-7.001
N16195 X0.809 Y-6.969
N16200 Y-6.968
N16205 X0.807 Y-6.936
N16210 X0.806 Y-6.935
N16215 X0.804 Y-6.903
N16220 Y-6.902
N16225 X0.801 Y-6.87
N16230 X0.8 Y-6.869
N16235 X0.797 Y-6.837
N16240 X0.796 Y-6.836
N16245 X0.792 Y-6.805
N16250 X0.791 Y-6.803
N16255 X0.786 Y-6.772
N16260 X0.785 Y-6.77
N16265 X0.778 Y-6.739
N16270 Y-6.737
N16275 X0.77 Y-6.707
N16280 X0.769 Y-6.704
N16285 X0.76 Y-6.674
N16290 X0.759 Y-6.672
N16295 X0.749 Y-6.642
N16300 X0.748 Y-6.64
N16305 X0.736 Y-6.611
N16310 X0.735 Y-6.608
N16315 X0.723 Y-6.58
N16320 X0.722 Y-6.578
N16325 X0.708 Y-6.55
N16330 X0.707 Y-6.548
N16335 X0.693 Y-6.52
N16340 X0.692 Y-6.519
N16345 X0.676 Y-6.491
N16350 Y-6.49
N16355 X0.66 Y-6.462
N16360 X0.659
N16365 X0.643 Y-6.434
N16370 X0.642
N16375 X0.625 Y-6.406
N16380 X0.608 Y-6.379
N16385 X0.591 Y-6.352
N16390 X0.58 Y-6.339
N16395 X0.561 Y-6.321
N16400 X0.542 Y-6.304
N16405 Y-6.303
N16410 X0.523 Y-6.286
N16415 X0.522 Y-6.285
N16420 X0.503 Y-6.268
N16425 X0.502
N16430 X0.483 Y-6.251
N16435 X0.482 Y-6.25
N16440 X0.463 Y-6.234
N16445 X0.461 Y-6.233
N16450 X0.442 Y-6.218
N16455 X0.44 Y-6.216
N16460 X0.42 Y-6.202
N16465 X0.418 Y-6.2
N16470 X0.398 Y-6.186
N16475 X0.395 Y-6.185
N16480 X0.374 Y-6.172
N16485 X0.372 Y-6.17
N16490 X0.35 Y-6.159
N16495 X0.347 Y-6.157
N16500 X0.326 Y-6.146
N16505 X0.322 Y-6.145
N16510 X0.3 Y-6.135
N16515 X0.297 Y-6.134
N16520 X0.274 Y-6.125
N16525 X0.271 Y-6.124
N16530 X0.247 Y-6.117
N16535 X0.245 Y-6.116
N16540 X0.221 Y-6.11
N16545 X0.218 Y-6.109
N16550 X0.194 Y-6.104
N16555 X0.192 Y-6.103
N16560 X0.168 Y-6.099
N16565 X0.166 Y-6.098
N16570 X0.141 Y-6.094
N16575 X0.14
N16580 X0.115 Y-6.09
N16585 X0.113
N16590 X0.088 Y-6.087
N16595 X0.087
N16600 X0.062 Y-6.084
N16605 X0.061
N16610 X0.036 Y-6.081
N16615 X0.01 Y-6.078
N16620 X-0.003
N16625 X-0.029 Y-6.081
N16630 X-0.055 Y-6.083
N16635 X-0.056
N16640 X-0.081 Y-6.086
N16645 X-0.082
N16650 X-0.107 Y-6.089
N16655 X-0.108
N16660 X-0.134 Y-6.093
N16665 X-0.135
N16670 X-0.16 Y-6.097
N16675 X-0.162 Y-6.098
N16680 X-0.187 Y-6.102
N16685 X-0.189 Y-6.103
N16690 X-0.213 Y-6.108
N16695 X-0.215 Y-6.109
N16700 X-0.239 Y-6.115
N16705 X-0.242 Y-6.116
N16710 X-0.266 Y-6.123
N16715 X-0.268 Y-6.124
N16720 X-0.292 Y-6.132
N16725 X-0.295 Y-6.133
N16730 X-0.317 Y-6.143
N16735 X-0.321 Y-6.144
N16740 X-0.343 Y-6.155
N16745 X-0.346 Y-6.157
N16750 X-0.367 Y-6.168
N16755 X-0.37 Y-6.17
N16760 X-0.391 Y-6.183
N16765 X-0.393 Y-6.184
N16770 X-0.414 Y-6.198
N16775 X-0.416 Y-6.199
N16780 X-0.436 Y-6.214
N16785 X-0.438 Y-6.215
N16790 X-0.458 Y-6.231
N16795 X-0.459 Y-6.232
N16800 X-0.479 Y-6.248
N16805 X-0.48 Y-6.249
N16810 X-0.499 Y-6.265
N16815 X-0.5 Y-6.266
N16820 X-0.519 Y-6.283
N16825 X-0.52
N16830 X-0.539 Y-6.301
N16835 X-0.558 Y-6.318
N16840 X-0.559 Y-6.319
N16845 X-0.578 Y-6.336
N16850 X-0.589 Y-6.35
N16855 X-0.606 Y-6.377
N16860 X-0.623 Y-6.405
N16865 X-0.624 Y-6.406
N16870 X-0.641 Y-6.433
N16875 Y-6.434
N16880 X-0.658 Y-6.462
N16885 Y-6.463
N16890 X-0.674 Y-6.491
N16895 X-0.675 Y-6.492
N16900 X-0.691 Y-6.52
N16905 Y-6.522
N16910 X-0.706 Y-6.55
N16915 X-0.707 Y-6.552
N16920 X-0.721 Y-6.581
N16925 X-0.722 Y-6.583
N16930 X-0.735 Y-6.612
N16935 X-0.736 Y-6.614
N16940 X-0.747 Y-6.644
N16945 X-0.748 Y-6.647
N16950 X-0.758 Y-6.676
N16955 X-0.759 Y-6.679
N16960 X-0.768 Y-6.71
N16965 X-0.769 Y-6.712
N16970 X-0.777 Y-6.743
N16975 Y-6.745
N16980 X-0.781 Y-6.761
N16985 G0 Z5.
N16990 X-1.08 Y-6.703
N16995 G1 Z-0.25 F1000.
N17000 X-1.078 Y-6.694
N17005 X-1.068 Y-6.651
N17010 X-1.056 Y-6.609
N17015 X-1.043 Y-6.568
N17020 X-1.027 Y-6.528
N17025 X-1.01 Y-6.489
N17030 X-0.99 Y-6.45
N17035 X-0.968 Y-6.412
N17040 X-0.944 Y-6.374
N17045 X-0.919 Y-6.336
N17050 X-0.892 Y-6.299
N17055 X-0.864 Y-6.262
N17060 X-0.835 Y-6.225
N17065 X-0.805 Y-6.187
N17070 X-0.774 Y-6.15
N17075 X-0.748 Y-6.12
N17080 X-0.726 Y-6.104
N17085 X-0.696 Y-6.083
N17090 X-0.667 Y-6.063
N17095 X-0.637 Y-6.043
N17100 X-0.608 Y-6.024
N17105 X-0.578 Y-6.006
N17110 X-0.549 Y-5.989
N17115 X-0.519 Y-5.972
N17120 X-0.49 Y-5.957
N17125 X-0.46 Y-5.943
N17130 X-0.43 Y-5.93
N17135 X-0.4 Y-5.919
N17140 X-0.369 Y-5.909
N17145 X-0.337 Y-5.9
N17150 X-0.305 Y-5.893
N17155 X-0.272 Y-5.886
N17160 X-0.239 Y-5.88
N17165 X-0.205 Y-5.875
N17170 X-0.17 Y-5.871
N17175 X-0.135 Y-5.867
N17180 X-0.1 Y-5.864
N17185 X-0.064 Y-5.861
N17190 X-0.028 Y-5.858
N17195 X0.003 Y-5.856
N17200 X0.038 Y-5.859
N17205 X0.078 Y-5.862
N17210 X0.117 Y-5.866
N17215 X0.156 Y-5.87
N17220 X0.194 Y-5.874
N17225 X0.232 Y-5.88
N17230 X0.269 Y-5.886
N17235 X0.306 Y-5.893
N17240 X0.341 Y-5.901
N17245 X0.376 Y-5.91
N17250 X0.41 Y-5.921
N17255 X0.443 Y-5.933
N17260 X0.475 Y-5.947
N17265 X0.507 Y-5.962
N17270 X0.538 Y-5.979
N17275 X0.569 Y-5.998
N17280 X0.6 Y-6.018
N17285 X0.631 Y-6.039
N17290 X0.662 Y-6.061
N17295 X0.692 Y-6.085
N17300 X0.723 Y-6.109
N17305 X0.754 Y-6.133
N17310 X0.784 Y-6.159
N17315 X0.809 Y-6.179
N17320 X0.83 Y-6.207
N17325 X0.855 Y-6.242
N17330 X0.88 Y-6.277
N17335 X0.904 Y-6.311
N17340 X0.927 Y-6.346
N17345 X0.95 Y-6.381
N17350 X0.971 Y-6.416
N17355 X0.991 Y-6.451
N17360 X1.009 Y-6.486
N17365 X1.026 Y-6.521
N17370 X1.041 Y-6.557
N17375 X1.054 Y-6.593
N17380 X1.065 Y-6.63
N17385 X1.075 Y-6.668
N17390 X1.084 Y-6.707
N17395 X1.091 Y-6.747
N17400 X1.098 Y-6.787
N17405 X1.103 Y-6.828
N17410 X1.107 Y-6.869
N17415 X1.111 Y-6.911
N17420 X1.114 Y-6.953
N17425 X1.117 Y-6.996
N17430 X1.119 Y-7.04
N17435 X1.122 Y-7.081
N17440 X1.121 Y-7.111
N17445 X1.12 Y-7.144
N17450 X1.119 Y-7.177
N17455 X1.118 Y-7.21
N17460 X1.117 Y-7.242
N17465 X1.115 Y-7.274
N17470 X1.113 Y-7.306
N17475 X1.11 Y-7.338
N17480 X1.107 Y-7.369
N17485 X1.104 Y-7.401
N17490 X1.099 Y-7.431
N17495 X1.094 Y-7.462
N17500 X1.088 Y-7.492
N17505 X1.081 Y-7.522
N17510 X1.074 Y-7.552
N17515 X1.065 Y-7.582
N17520 X1.056 Y-7.612
N17525 X1.046 Y-7.642
N17530 X1.036 Y-7.673
N17535 X1.025 Y-7.703
N17540 X1.014 Y-7.733
N17545 X1.002 Y-7.764
N17550 X0.99 Y-7.794
N17555 X0.981 Y-7.819
N17560 X0.97 Y-7.836
N17565 X0.957 Y-7.858
N17570 X0.943 Y-7.88
N17575 X0.929 Y-7.901
N17580 X0.915 Y-7.922
N17585 X0.902 Y-7.942
N17590 X0.887 Y-7.962
N17595 X0.873 Y-7.981
N17600 X0.858 Y-8.
N17605 X0.843 Y-8.018
N17610 X0.828 Y-8.035
N17615 X0.812 Y-8.052
N17620 X0.795 Y-8.068
N17625 X0.778 Y-8.084
N17630 X0.76 Y-8.099
N17635 X0.742 Y-8.114
N17640 X0.723 Y-8.129
N17645 X0.703 Y-8.144
N17650 X0.683 Y-8.158
N17655 X0.662 Y-8.172
N17660 X0.641 Y-8.186
N17665 X0.62 Y-8.2
N17670 X0.599 Y-8.214
N17675 X0.581 Y-8.226
N17680 X0.56 Y-8.235
N17685 X0.536 Y-8.247
N17690 X0.512 Y-8.258
N17695 X0.489 Y-8.268
N17700 X0.465 Y-8.279
N17705 X0.441 Y-8.289
N17710 X0.418 Y-8.298
N17715 X0.394 Y-8.307
N17720 X0.371 Y-8.315
N17725 X0.347 Y-8.323
N17730 X0.324 Y-8.33
N17735 X0.3 Y-8.336
N17740 X0.277 Y-8.342
N17745 X0.253 Y-8.347
N17750 X0.228 Y-8.351
N17755 X0.204 Y-8.355
N17760 X0.179 Y-8.358
N17765 X0.154 Y-8.361
N17770 X0.128 Y-8.363
N17775 X0.102 Y-8.366
N17780 X0.076 Y-8.367
N17785 X0.05 Y-8.369
N17790 X0.023 Y-8.371
N17795 X0.001 Y-8.372
N17800 X-0.035 Y-8.369
N17805 X-0.075 Y-8.366
N17810 X-0.114 Y-8.363
N17815 X-0.153 Y-8.359
N17820 X-0.192 Y-8.354
N17825 X-0.23 Y-8.349
N17830 X-0.267 Y-8.343
N17835 X-0.304 Y-8.336
N17840 X-0.34 Y-8.328
N17845 X-0.375 Y-8.319
N17850 X-0.409 Y-8.309
N17855 X-0.442 Y-8.296
N17860 X-0.475 Y-8.283
N17865 X-0.507 Y-8.267
N17870 X-0.538 Y-8.25
N17875 X-0.57 Y-8.232
N17880 X-0.601 Y-8.212
N17885 X-0.632 Y-8.191
N17890 X-0.663 Y-8.168
N17895 X-0.694 Y-8.145
N17900 X-0.724 Y-8.121
N17905 X-0.755 Y-8.096
N17910 X-0.786 Y-8.071
N17915 X-0.81 Y-8.051
N17920 X-0.831 Y-8.021
N17925 X-0.857 Y-7.985
N17930 X-0.882 Y-7.949
N17935 X-0.906 Y-7.913
N17940 X-0.93 Y-7.876
N17945 X-0.952 Y-7.84
N17950 X-0.973 Y-7.804
N17955 X-0.993 Y-7.767
N17960 X-1.011 Y-7.73
N17965 X-1.028 Y-7.693
N17970 X-1.043 Y-7.656
N17975 X-1.056 Y-7.618
N17980 X-1.067 Y-7.58
N17985 X-1.077 Y-7.54
N17990 X-1.085 Y-7.5
N17995 X-1.092 Y-7.459
N18000 X-1.098 Y-7.417
N18005 X-1.103 Y-7.374
N18010 X-1.108 Y-7.331
N18015 X-1.111 Y-7.288
N18020 X-1.114 Y-7.244
N18025 X-1.116 Y-7.2
N18030 X-1.118 Y-7.155
N18035 X-1.12 Y-7.113
N18040 X-1.118 Y-7.067
N18045 X-1.115 Y-7.018
N18050 X-1.112 Y-6.97
N18055 X-1.109 Y-6.923
N18060 X-1.105 Y-6.875
N18065 X-1.1 Y-6.829
N18070 X-1.094 Y-6.783
N18075 X-1.087 Y-6.738
N18080 X-1.08 Y-6.703
N18085 G0 Z5.
N18090 X0.224 Y-5.35
N18095 G1 Z-0.001 F1000.
N18100 X0.291 Y-5.283 Z-0.25
N18105 X0.606
N18110 X0.672 Y-5.35 Z-0.001
N18115 X0.606 Y-5.283 Z-0.25
N18120 Y-4.928
N18125 X0.673 Y-4.861 Z-0.001
N18130 X0.606 Y-4.928 Z-0.25
N18135 X0.291
N18140 X0.225 Y-4.861 Z-0.001
N18145 X0.291 Y-4.928 Z-0.25
N18150 Y-5.283
N18155 G0 Z5.
N18160 X-0.667 Y-5.349
N18165 G1 Z-0.001 F1000.
N18170 X-0.6 Y-5.282 Z-0.25
N18175 X-0.285
N18180 X-0.218 Y-5.349 Z-0.001
N18185 X-0.285 Y-5.282 Z-0.25
N18190 X-0.284 Y-4.927
N18195 X-0.218 Y-4.86 Z-0.001
N18200 X-0.284 Y-4.927 Z-0.25
N18205 X-0.599
N18210 X-0.666 Y-4.86 Z-0.001
N18215 X-0.599 Y-4.927 Z-0.25
N18220 X-0.6 Y-5.282
N18225 G0 Z5.
N18230 X-0.34 Y-2.686
N18235 G1 Z-0.25 F1000.
N18240 X-0.324 Y-2.688
N18245 X-0.323
N18250 X-0.307 Y-2.689
N18255 X-0.306
N18260 X-0.29 Y-2.69
N18265 X-0.273 Y-2.691
N18270 X-0.257 Y-2.692
N18275 X-0.248
N18280 X-0.224 Y-2.69
N18285 X-0.2 Y-2.688
N18290 X-0.176 Y-2.686
N18295 X-0.175
N18300 X-0.152 Y-2.684
N18305 X-0.151
N18310 X-0.127 Y-2.681
N18315 X-0.126
N18320 X-0.103 Y-2.678
N18325 X-0.101
N18330 X-0.078 Y-2.674
N18335 X-0.077
N18340 X-0.054 Y-2.669
N18345 X-0.052
N18350 X-0.029 Y-2.664
N18355 X-0.027 Y-2.663
N18360 X-0.005 Y-2.658
N18365 X-0.002 Y-2.657
N18370 X0.02 Y-2.65
N18375 X0.023 Y-2.649
N18380 X0.044 Y-2.642
N18385 X0.047 Y-2.641
N18390 X0.068 Y-2.632
N18395 X0.071 Y-2.631
N18400 X0.092 Y-2.621
N18405 X0.095 Y-2.62
N18410 X0.115 Y-2.609
N18415 X0.117 Y-2.608
N18420 X0.137 Y-2.596
N18425 X0.139 Y-2.595
N18430 X0.159 Y-2.583
N18435 X0.16 Y-2.582
N18440 X0.18 Y-2.569
N18445 X0.181 Y-2.568
N18450 X0.2 Y-2.555
N18455 X0.201 Y-2.554
N18460 X0.22 Y-2.54
N18465 X0.221 Y-2.539
N18470 X0.24 Y-2.525
N18475 X0.241
N18480 X0.259 Y-2.51
N18485 X0.26
N18490 X0.278 Y-2.495
N18495 X0.279
N18500 X0.297 Y-2.48
N18505 X0.308 Y-2.47
N18510 X0.323 Y-2.452
N18515 X0.338 Y-2.433
N18520 X0.353 Y-2.414
N18525 X0.368 Y-2.395
N18530 Y-2.394
N18535 X0.382 Y-2.376
N18540 X0.383 Y-2.375
N18545 X0.397 Y-2.356
N18550 X0.398 Y-2.354
N18555 X0.411 Y-2.335
N18560 X0.412 Y-2.334
N18565 X0.424 Y-2.314
N18570 X0.425 Y-2.312
N18575 X0.437 Y-2.293
N18580 X0.438 Y-2.29
N18585 X0.449 Y-2.27
N18590 X0.45 Y-2.268
N18595 X0.46 Y-2.247
N18600 X0.461 Y-2.244
N18605 X0.47 Y-2.223
N18610 X0.472 Y-2.22
N18615 X0.479 Y-2.199
N18620 X0.48 Y-2.196
N18625 X0.487 Y-2.174
N18630 X0.488 Y-2.172
N18635 X0.494 Y-2.15
N18640 Y-2.147
N18645 X0.5 Y-2.125
N18650 Y-2.123
N18655 X0.504 Y-2.1
N18660 X0.505 Y-2.098
N18665 X0.508 Y-2.076
N18670 X0.509 Y-2.074
N18675 X0.512 Y-2.051
N18680 Y-2.05
N18685 X0.515 Y-2.026
N18690 Y-2.025
N18695 X0.517 Y-2.002
N18700 Y-2.001
N18705 X0.52 Y-1.978
N18710 Y-1.977
N18715 X0.522 Y-1.954
N18720 Y-1.953
N18725 X0.524 Y-1.93
N18730 Y-1.919
N18735 X0.522 Y-1.895
N18740 X0.52 Y-1.871
N18745 Y-1.87
N18750 X0.517 Y-1.846
N18755 Y-1.845
N18760 X0.515 Y-1.821
N18765 Y-1.82
N18770 X0.512 Y-1.797
N18775 Y-1.795
N18780 X0.508 Y-1.772
N18785 Y-1.77
N18790 X0.504 Y-1.747
N18795 Y-1.745
N18800 X0.499 Y-1.722
N18805 Y-1.72
N18810 X0.494 Y-1.697
N18815 X0.493 Y-1.694
N18820 X0.487 Y-1.672
N18825 X0.486 Y-1.669
N18830 X0.479 Y-1.647
N18835 X0.478 Y-1.644
N18840 X0.47 Y-1.623
N18845 X0.469 Y-1.619
N18850 X0.46 Y-1.598
N18855 X0.459 Y-1.595
N18860 X0.449 Y-1.574
N18865 X0.447 Y-1.572
N18870 X0.436 Y-1.551
N18875 X0.435 Y-1.549
N18880 X0.423 Y-1.529
N18885 X0.422 Y-1.527
N18890 X0.409 Y-1.507
N18895 X0.408 Y-1.506
N18900 X0.395 Y-1.486
N18905 X0.394 Y-1.485
N18910 X0.38 Y-1.466
N18915 X0.379 Y-1.464
N18920 X0.365 Y-1.445
N18925 X0.364
N18930 X0.349 Y-1.426
N18935 Y-1.425
N18940 X0.334 Y-1.406
N18945 X0.333
N18950 X0.318 Y-1.387
N18955 X0.303 Y-1.368
N18960 X0.293 Y-1.358
N18965 X0.274 Y-1.343
N18970 X0.255 Y-1.328
N18975 X0.254
N18980 X0.235 Y-1.313
N18985 X0.216 Y-1.298
N18990 X0.215 Y-1.297
N18995 X0.195 Y-1.283
N19000 X0.194 Y-1.282
N19005 X0.175 Y-1.269
N19010 X0.173 Y-1.268
N19015 X0.154 Y-1.255
N19020 X0.152 Y-1.254
N19025 X0.132 Y-1.241
N19030 X0.13 Y-1.24
N19035 X0.11 Y-1.228
N19040 X0.108 Y-1.227
N19045 X0.087 Y-1.216
N19050 X0.085 Y-1.215
N19055 X0.064 Y-1.205
N19060 X0.061 Y-1.203
N19065 X0.039 Y-1.194
N19070 X0.036 Y-1.193
N19075 X0.015 Y-1.185
N19080 X0.012 Y-1.184
N19085 X-0.01 Y-1.178
N19090 X-0.013 Y-1.177
N19095 X-0.036 Y-1.171
N19100 X-0.038 Y-1.17
N19105 X-0.061 Y-1.165
N19110 X-0.063
N19115 X-0.086 Y-1.16
N19120 X-0.088
N19125 X-0.111 Y-1.156
N19130 X-0.113
N19135 X-0.137 Y-1.152
N19140 X-0.138
N19145 X-0.162 Y-1.149
N19150 X-0.163
N19155 X-0.187 Y-1.147
N19160 X-0.211 Y-1.144
N19165 X-0.212
N19170 X-0.236 Y-1.142
N19175 X-0.26 Y-1.14
N19180 X-0.271
N19185 X-0.295 Y-1.142
N19190 X-0.318 Y-1.144
N19195 X-0.319
N19200 X-0.342 Y-1.146
N19205 X-0.343 Y-1.147
N19210 X-0.366 Y-1.149
N19215 X-0.368
N19220 X-0.391 Y-1.152
N19225 X-0.392
N19230 X-0.415 Y-1.155
N19235 X-0.417
N19240 X-0.439 Y-1.159
N19245 X-0.441 Y-1.16
N19250 X-0.464 Y-1.164
N19255 X-0.466
N19260 X-0.488 Y-1.169
N19265 X-0.491 Y-1.17
N19270 X-0.513 Y-1.176
N19275 X-0.515 Y-1.177
N19280 X-0.537 Y-1.183
N19285 X-0.54 Y-1.184
N19290 X-0.561 Y-1.192
N19295 X-0.564 Y-1.193
N19300 X-0.585 Y-1.202
N19305 X-0.588 Y-1.203
N19310 X-0.608 Y-1.213
N19315 X-0.611 Y-1.215
N19320 X-0.631 Y-1.225
N19325 X-0.633 Y-1.227
N19330 X-0.653 Y-1.238
N19335 X-0.655 Y-1.239
N19340 X-0.674 Y-1.252
N19345 X-0.676 Y-1.253
N19350 X-0.695 Y-1.266
N19355 X-0.696 Y-1.267
N19360 X-0.715 Y-1.28
N19365 X-0.716 Y-1.281
N19370 X-0.735 Y-1.295
N19375 X-0.736 Y-1.296
N19380 X-0.754 Y-1.31
N19385 X-0.755
N19390 X-0.773 Y-1.325
N19395 X-0.774
N19400 X-0.792 Y-1.34
N19405 X-0.811 Y-1.355
N19410 X-0.821 Y-1.365
N19415 X-0.835 Y-1.383
N19420 X-0.836 Y-1.384
N19425 X-0.85 Y-1.402
N19430 X-0.851
N19435 X-0.865 Y-1.421
N19440 X-0.866
N19445 X-0.88 Y-1.44
N19450 X-0.881 Y-1.441
N19455 X-0.894 Y-1.459
N19460 X-0.895 Y-1.46
N19465 X-0.909 Y-1.479
N19470 X-0.91 Y-1.481
N19475 X-0.923 Y-1.5
N19480 X-0.924 Y-1.501
N19485 X-0.936 Y-1.521
N19490 X-0.937 Y-1.523
N19495 X-0.949 Y-1.542
N19500 X-0.95 Y-1.544
N19505 X-0.961 Y-1.564
N19510 X-0.962 Y-1.567
N19515 X-0.972 Y-1.587
N19520 X-0.973 Y-1.59
N19525 X-0.982 Y-1.611
N19530 X-0.983 Y-1.614
N19535 X-0.991 Y-1.635
N19540 X-0.992 Y-1.638
N19545 X-0.998 Y-1.659
N19550 X-0.999 Y-1.662
N19555 X-1.005 Y-1.684
N19560 X-1.006 Y-1.686
N19565 X-1.011 Y-1.709
N19570 Y-1.711
N19575 X-1.016 Y-1.733
N19580 Y-1.735
N19585 X-1.02 Y-1.758
N19590 Y-1.759
N19595 X-1.023 Y-1.782
N19600 X-1.024 Y-1.784
N19605 X-1.026 Y-1.807
N19610 Y-1.808
N19615 X-1.029 Y-1.831
N19620 Y-1.832
N19625 X-1.031 Y-1.855
N19630 Y-1.856
N19635 X-1.033 Y-1.879
N19640 X-1.035 Y-1.903
N19645 Y-1.912
N19650 X-1.034 Y-1.928
N19655 X-1.033 Y-1.944
N19660 X-1.032 Y-1.959
N19665 Y-1.96
N19670 X-1.031 Y-1.975
N19675 Y-1.976
N19680 X-1.03 Y-1.991
N19685 Y-1.992
N19690 X-1.028 Y-2.007
N19695 Y-2.008
N19700 X-1.026 Y-2.024
N19705 Y-2.025
N19710 X-1.024 Y-2.04
N19715 Y-2.041
N19720 X-1.022 Y-2.057
N19725 X-1.021 Y-2.058
N19730 X-1.019 Y-2.073
N19735 X-1.018 Y-2.075
N19740 X-1.015 Y-2.09
N19745 Y-2.092
N19750 X-1.012 Y-2.106
N19755 X-1.011 Y-2.108
N19760 X-1.007 Y-2.123
N19765 Y-2.125
N19770 X-1.003 Y-2.139
N19775 X-1.002 Y-2.141
N19780 X-0.998 Y-2.156
N19785 X-0.997 Y-2.157
N19790 X-0.992 Y-2.172
N19795 Y-2.173
N19800 X-0.986 Y-2.187
N19805 Y-2.188
N19810 X-0.981 Y-2.203
N19815 X-0.98 Y-2.204
N19820 X-0.975 Y-2.218
N19825 X-0.974 Y-2.219
N19830 X-0.968 Y-2.233
N19835 X-0.962 Y-2.248
N19840 X-0.956 Y-2.262
N19845 Y-2.263
N19850 X-0.949 Y-2.277
N19855 X-0.943 Y-2.291
N19860 X-0.939 Y-2.299
N19865 X-0.931 Y-2.312
N19870 Y-2.313
N19875 X-0.923 Y-2.326
N19880 X-0.922
N19885 X-0.914 Y-2.34
N19890 X-0.905 Y-2.354
N19895 Y-2.355
N19900 X-0.896 Y-2.368
N19905 Y-2.369
N19910 X-0.887 Y-2.382
N19915 X-0.886 Y-2.383
N19920 X-0.877 Y-2.396
N19925 X-0.876 Y-2.397
N19930 X-0.867 Y-2.41
N19935 X-0.866 Y-2.411
N19940 X-0.857 Y-2.423
N19945 X-0.855 Y-2.425
N19950 X-0.846 Y-2.437
N19955 X-0.844 Y-2.438
N19960 X-0.834 Y-2.45
N19965 X-0.832 Y-2.452
N19970 X-0.822 Y-2.463
N19975 X-0.82 Y-2.465
N19980 X-0.809 Y-2.476
N19985 X-0.807 Y-2.478
N19990 X-0.796 Y-2.488
N19995 X-0.794 Y-2.489
N20000 X-0.783 Y-2.5
N20005 X-0.781 Y-2.501
N20010 X-0.769 Y-2.511
N20015 X-0.768 Y-2.512
N20020 X-0.756 Y-2.521
N20025 X-0.754 Y-2.522
N20030 X-0.742 Y-2.532
N20035 X-0.741
N20040 X-0.728 Y-2.541
N20045 X-0.727 Y-2.542
N20050 X-0.714 Y-2.551
N20055 X-0.713
N20060 X-0.7 Y-2.56
N20065 Y-2.561
N20070 X-0.687 Y-2.569
N20075 X-0.686 Y-2.57
N20080 X-0.673 Y-2.578
N20085 X-0.659 Y-2.587
N20090 X-0.652 Y-2.591
N20095 X-0.637 Y-2.598
N20100 X-0.622 Y-2.605
N20105 X-0.607 Y-2.612
N20110 X-0.592 Y-2.619
N20115 X-0.591
N20120 X-0.577 Y-2.626
N20125 X-0.576
N20130 X-0.561 Y-2.632
N20135 X-0.56 Y-2.633
N20140 X-0.545 Y-2.639
N20145 X-0.544
N20150 X-0.529 Y-2.645
N20155 X-0.528
N20160 X-0.513 Y-2.651
N20165 X-0.511
N20170 X-0.496 Y-2.656
N20175 X-0.494 Y-2.657
N20180 X-0.479 Y-2.662
N20185 X-0.477
N20190 X-0.462 Y-2.666
N20195 X-0.46 Y-2.667
N20200 X-0.444 Y-2.671
N20205 X-0.442
N20210 X-0.427 Y-2.674
N20215 X-0.425 Y-2.675
N20220 X-0.409 Y-2.677
N20225 X-0.408 Y-2.678
N20230 X-0.392 Y-2.68
N20235 X-0.391
N20240 X-0.375 Y-2.683
N20245 X-0.373
N20250 X-0.357 Y-2.685
N20255 X-0.356
N20260 X-0.34 Y-2.686
N20265 G0 Z5.
N20270 X-0.357 Y-2.905
N20275 G1 Z-0.25 F1000.
N20280 X-0.331 Y-2.907
N20285 X-0.292 Y-2.909
N20290 X-0.258 Y-2.912
N20295 X-0.224 Y-2.909
N20300 X-0.186 Y-2.907
N20305 X-0.148 Y-2.904
N20310 X-0.11 Y-2.901
N20315 X-0.073 Y-2.897
N20320 X-0.037 Y-2.893
N20325 X-0.001 Y-2.888
N20330 X0.035 Y-2.882
N20335 X0.069 Y-2.875
N20340 X0.103 Y-2.867
N20345 X0.136 Y-2.857
N20350 X0.169 Y-2.847
N20355 X0.2 Y-2.835
N20360 X0.231 Y-2.821
N20365 X0.262 Y-2.806
N20370 X0.293 Y-2.789
N20375 X0.324 Y-2.771
N20380 X0.354 Y-2.752
N20385 X0.385 Y-2.732
N20390 X0.415 Y-2.711
N20395 X0.446 Y-2.689
N20400 X0.476 Y-2.667
N20405 X0.507 Y-2.644
N20410 X0.532 Y-2.625
N20415 X0.55 Y-2.603
N20420 X0.573 Y-2.576
N20425 X0.595 Y-2.55
N20430 X0.617 Y-2.523
N20435 X0.638 Y-2.496
N20440 X0.659 Y-2.469
N20445 X0.678 Y-2.442
N20450 X0.696 Y-2.415
N20455 X0.713 Y-2.388
N20460 X0.728 Y-2.361
N20465 X0.743 Y-2.333
N20470 X0.755 Y-2.305
N20475 X0.767 Y-2.276
N20480 X0.776 Y-2.247
N20485 X0.785 Y-2.216
N20490 X0.793 Y-2.185
N20495 X0.8 Y-2.153
N20500 X0.805 Y-2.121
N20505 X0.811 Y-2.088
N20510 X0.815 Y-2.054
N20515 X0.819 Y-2.019
N20520 X0.823 Y-1.985
N20525 X0.826 Y-1.949
N20530 X0.829 Y-1.919
N20535 X0.828 Y-1.899
N20540 X0.826 Y-1.874
N20545 X0.825 Y-1.85
N20550 X0.823 Y-1.826
N20555 X0.821 Y-1.802
N20560 X0.818 Y-1.779
N20565 X0.815 Y-1.755
N20570 X0.812 Y-1.733
N20575 X0.808 Y-1.71
N20580 X0.804 Y-1.688
N20585 X0.799 Y-1.667
N20590 X0.793 Y-1.646
N20595 X0.786 Y-1.625
N20600 X0.779 Y-1.604
N20605 X0.771 Y-1.584
N20610 X0.762 Y-1.563
N20615 X0.752 Y-1.542
N20620 X0.742 Y-1.522
N20625 X0.731 Y-1.501
N20630 X0.72 Y-1.48
N20635 X0.708 Y-1.459
N20640 X0.696 Y-1.438
N20645 X0.683 Y-1.416
N20650 X0.674 Y-1.401
N20655 X0.661 Y-1.386
N20660 X0.645 Y-1.368
N20665 X0.628 Y-1.349
N20670 X0.611 Y-1.331
N20675 X0.595 Y-1.313
N20680 X0.578 Y-1.296
N20685 X0.561 Y-1.279
N20690 X0.544 Y-1.263
N20695 X0.527 Y-1.248
N20700 X0.509 Y-1.234
N20705 X0.491 Y-1.22
N20710 X0.473 Y-1.207
N20715 X0.455 Y-1.195
N20720 X0.435 Y-1.183
N20725 X0.415 Y-1.172
N20730 X0.395 Y-1.161
N20735 X0.374 Y-1.151
N20740 X0.352 Y-1.141
N20745 X0.33 Y-1.131
N20750 X0.307 Y-1.121
N20755 X0.284 Y-1.112
N20760 X0.261 Y-1.102
N20765 X0.238 Y-1.093
N20770 X0.214 Y-1.084
N20775 X0.188 Y-1.066
N20780 X0.173 Y-1.038
N20785 Y-1.007
N20790 X0.187 Y-0.979
N20795 X0.212 Y-0.96
N20800 X0.231 Y-0.952
N20805 X0.249 Y-0.944
N20810 X0.267 Y-0.936
N20815 X0.285 Y-0.928
N20820 X0.303 Y-0.92
N20825 X0.32 Y-0.912
N20830 X0.337 Y-0.903
N20835 X0.354 Y-0.895
N20840 X0.37 Y-0.886
N20845 X0.385 Y-0.876
N20850 X0.4 Y-0.867
N20855 X0.415 Y-0.857
N20860 X0.429 Y-0.847
N20865 X0.443 Y-0.836
N20870 X0.457 Y-0.824
N20875 X0.47 Y-0.812
N20880 X0.483 Y-0.8
N20885 X0.497 Y-0.787
N20890 X0.51 Y-0.773
N20895 X0.523 Y-0.759
N20900 X0.536 Y-0.745
N20905 X0.55 Y-0.73
N20910 X0.563 Y-0.715
N20915 X0.572 Y-0.704
N20920 X0.578 Y-0.694
N20925 X0.588 Y-0.678
N20930 X0.597 Y-0.662
N20935 X0.605 Y-0.646
N20940 X0.614 Y-0.63
N20945 X0.622 Y-0.615
N20950 X0.63 Y-0.599
N20955 X0.637 Y-0.584
N20960 X0.644 Y-0.569
N20965 X0.65 Y-0.553
N20970 X0.655 Y-0.538
N20975 X0.66 Y-0.523
N20980 X0.664 Y-0.508
N20985 X0.668 Y-0.492
N20990 X0.671 Y-0.476
N20995 X0.674 Y-0.459
N21000 X0.677 Y-0.443
N21005 X0.679 Y-0.425
N21010 X0.681 Y-0.408
N21015 X0.683 Y-0.39
N21020 X0.684 Y-0.372
N21025 X0.685 Y-0.353
N21030 X0.687 Y-0.335
N21035 X0.688 Y-0.321
N21040 X0.685 Y-0.296
N21045 X0.682 Y-0.266
N21050 X0.679 Y-0.236
N21055 X0.675 Y-0.206
N21060 X0.671 Y-0.177
N21065 X0.667 Y-0.149
N21070 X0.662 Y-0.121
N21075 X0.656 Y-0.094
N21080 X0.649 Y-0.067
N21085 X0.642 Y-0.042
N21090 X0.633 Y-0.017
N21095 X0.623 Y0.007
N21100 X0.612 Y0.031
N21105 X0.6 Y0.054
N21110 X0.587 Y0.078
N21115 X0.572 Y0.101
N21120 X0.556 Y0.124
N21125 X0.54 Y0.147
N21130 X0.522 Y0.169
N21135 X0.504 Y0.192
N21140 X0.485 Y0.215
N21145 X0.466 Y0.238
N21150 X0.446 Y0.261
N21155 X0.43 Y0.279
N21160 X0.409 Y0.295
N21165 X0.382 Y0.315
N21170 X0.355 Y0.334
N21175 X0.328 Y0.354
N21180 X0.301 Y0.372
N21185 X0.275 Y0.389
N21190 X0.248 Y0.406
N21195 X0.221 Y0.422
N21200 X0.194 Y0.436
N21205 X0.167 Y0.449
N21210 X0.14 Y0.461
N21215 X0.112 Y0.472
N21220 X0.084 Y0.481
N21225 X0.055 Y0.489
N21230 X0.026 Y0.496
N21235 X-0.005 Y0.502
N21240 X-0.036 Y0.507
N21245 X-0.067 Y0.512
N21250 X-0.099 Y0.515
N21255 X-0.132 Y0.519
N21260 X-0.165 Y0.522
N21265 X-0.198 Y0.524
N21270 X-0.232 Y0.526
N21275 X-0.261 Y0.528
N21280 X-0.291 Y0.526
N21285 X-0.324 Y0.524
N21290 X-0.357 Y0.522
N21295 X-0.39 Y0.519
N21300 X-0.422 Y0.516
N21305 X-0.454 Y0.513
N21310 X-0.485 Y0.509
N21315 X-0.515 Y0.504
N21320 X-0.545 Y0.498
N21325 X-0.575 Y0.491
N21330 X-0.603 Y0.483
N21335 X-0.631 Y0.474
N21340 X-0.659 Y0.464
N21345 X-0.686 Y0.453
N21350 X-0.712 Y0.44
N21355 X-0.739 Y0.426
N21360 X-0.766 Y0.41
N21365 X-0.792 Y0.394
N21370 X-0.819 Y0.377
N21375 X-0.845 Y0.359
N21380 X-0.872 Y0.341
N21385 X-0.899 Y0.321
N21390 X-0.925 Y0.302
N21395 X-0.947 Y0.286
N21400 X-0.962 Y0.269
N21405 X-0.981 Y0.246
N21410 X-1.001 Y0.223
N21415 X-1.019 Y0.201
N21420 X-1.037 Y0.178
N21425 X-1.055 Y0.156
N21430 X-1.071 Y0.133
N21435 X-1.087 Y0.11
N21440 X-1.101 Y0.088
N21445 X-1.114 Y0.065
N21450 X-1.126 Y0.042
N21455 X-1.137 Y0.018
N21460 X-1.147 Y-0.006
N21465 X-1.155 Y-0.03
N21470 X-1.163 Y-0.056
N21475 X-1.169 Y-0.082
N21480 X-1.175 Y-0.109
N21485 X-1.18 Y-0.136
N21490 X-1.184 Y-0.165
N21495 X-1.188 Y-0.193
N21500 X-1.192 Y-0.222
N21505 X-1.195 Y-0.252
N21510 X-1.198 Y-0.282
N21515 X-1.2 Y-0.307
N21520 X-1.199 Y-0.321
N21525 X-1.198 Y-0.341
N21530 X-1.197 Y-0.359
N21535 X-1.196 Y-0.378
N21540 X-1.194 Y-0.396
N21545 X-1.192 Y-0.414
N21550 X-1.19 Y-0.432
N21555 X-1.188 Y-0.449
N21560 X-1.185 Y-0.466
N21565 X-1.181 Y-0.483
N21570 X-1.178 Y-0.499
N21575 X-1.173 Y-0.515
N21580 X-1.169 Y-0.531
N21585 X-1.163 Y-0.546
N21590 X-1.157 Y-0.562
N21595 X-1.15 Y-0.578
N21600 X-1.143 Y-0.593
N21605 X-1.135 Y-0.609
N21610 X-1.127 Y-0.625
N21615 X-1.118 Y-0.641
N21620 X-1.109 Y-0.658
N21625 X-1.1 Y-0.674
N21630 X-1.091 Y-0.69
N21635 X-1.084 Y-0.701
N21640 X-1.075 Y-0.712
N21645 X-1.062 Y-0.727
N21650 X-1.048 Y-0.742
N21655 X-1.035 Y-0.756
N21660 X-1.021 Y-0.771
N21665 X-1.008 Y-0.784
N21670 X-0.994 Y-0.798
N21675 X-0.981 Y-0.81
N21680 X-0.967 Y-0.823
N21685 X-0.953 Y-0.834
N21690 X-0.939 Y-0.845
N21695 X-0.925 Y-0.856
N21700 X-0.91 Y-0.866
N21705 X-0.894 Y-0.875
N21710 X-0.878 Y-0.884
N21715 X-0.862 Y-0.893
N21720 X-0.845 Y-0.902
N21725 X-0.828 Y-0.91
N21730 X-0.81 Y-0.919
N21735 X-0.792 Y-0.927
N21740 X-0.774 Y-0.935
N21745 X-0.755 Y-0.943
N21750 X-0.736 Y-0.951
N21755 X-0.717 Y-0.959
N21760 X-0.691 Y-0.978
N21765 X-0.677 Y-1.007
N21770 X-0.679 Y-1.039
N21775 X-0.695 Y-1.067
N21780 X-0.722 Y-1.084
N21785 X-0.746 Y-1.092
N21790 X-0.77 Y-1.1
N21795 X-0.793 Y-1.108
N21800 X-0.816 Y-1.115
N21805 X-0.838 Y-1.124
N21810 X-0.861 Y-1.132
N21815 X-0.882 Y-1.141
N21820 X-0.903 Y-1.15
N21825 X-0.924 Y-1.16
N21830 X-0.944 Y-1.17
N21835 X-0.963 Y-1.18
N21840 X-0.982 Y-1.191
N21845 X-1. Y-1.203
N21850 X-1.017 Y-1.216
N21855 X-1.035 Y-1.229
N21860 X-1.052 Y-1.244
N21865 X-1.069 Y-1.259
N21870 X-1.086 Y-1.274
N21875 X-1.103 Y-1.291
N21880 X-1.12 Y-1.308
N21885 X-1.137 Y-1.325
N21890 X-1.153 Y-1.343
N21895 X-1.17 Y-1.361
N21900 X-1.183 Y-1.374
N21905 X-1.192 Y-1.39
N21910 X-1.205 Y-1.412
N21915 X-1.218 Y-1.433
N21920 X-1.23 Y-1.455
N21925 X-1.242 Y-1.476
N21930 X-1.253 Y-1.497
N21935 X-1.264 Y-1.519
N21940 X-1.274 Y-1.54
N21945 X-1.283 Y-1.561
N21950 X-1.292 Y-1.582
N21955 X-1.3 Y-1.603
N21960 X-1.306 Y-1.624
N21965 X-1.312 Y-1.645
N21970 X-1.317 Y-1.668
N21975 X-1.322 Y-1.69
N21980 X-1.326 Y-1.713
N21985 X-1.329 Y-1.736
N21990 X-1.332 Y-1.76
N21995 X-1.335 Y-1.784
N22000 X-1.337 Y-1.809
N22005 X-1.339 Y-1.833
N22010 X-1.34 Y-1.858
N22015 X-1.342 Y-1.884
N22020 X-1.343 Y-1.904
N22025 X-1.34 Y-1.936
N22030 X-1.337 Y-1.971
N22035 X-1.334 Y-2.007
N22040 X-1.33 Y-2.041
N22045 X-1.325 Y-2.076
N22050 X-1.32 Y-2.109
N22055 X-1.315 Y-2.142
N22060 X-1.308 Y-2.175
N22065 X-1.301 Y-2.206
N22070 X-1.292 Y-2.237
N22075 X-1.282 Y-2.267
N22080 X-1.271 Y-2.296
N22085 X-1.258 Y-2.325
N22090 X-1.244 Y-2.353
N22095 X-1.229 Y-2.381
N22100 X-1.212 Y-2.409
N22105 X-1.194 Y-2.436
N22110 X-1.174 Y-2.464
N22115 X-1.154 Y-2.491
N22120 X-1.133 Y-2.518
N22125 X-1.111 Y-2.545
N22130 X-1.088 Y-2.573
N22135 X-1.066 Y-2.6
N22140 X-1.047 Y-2.622
N22145 X-1.022 Y-2.641
N22150 X-0.992 Y-2.664
N22155 X-0.961 Y-2.687
N22160 X-0.931 Y-2.708
N22165 X-0.901 Y-2.73
N22170 X-0.87 Y-2.75
N22175 X-0.84 Y-2.769
N22180 X-0.809 Y-2.787
N22185 X-0.779 Y-2.804
N22190 X-0.748 Y-2.819
N22195 X-0.716 Y-2.833
N22200 X-0.685 Y-2.845
N22205 X-0.653 Y-2.856
N22210 X-0.619 Y-2.866
N22215 X-0.586 Y-2.874
N22220 X-0.551 Y-2.881
N22225 X-0.516 Y-2.887
N22230 X-0.48 Y-2.892
N22235 X-0.443 Y-2.897
N22240 X-0.406 Y-2.9
N22245 X-0.369 Y-2.904
N22250 X-0.357 Y-2.905
N22255 G0 Z5.
N22260 X-0.257 Y-0.923
N22265 G1 Z-0.25 F1000.
N22270 X-0.249
N22275 X-0.23 Y-0.922
N22280 X-0.229
N22285 X-0.21 Y-0.92
N22290 X-0.191 Y-0.919
N22295 X-0.19
N22300 X-0.171 Y-0.917
N22305 X-0.17
N22310 X-0.152 Y-0.915
N22315 X-0.15 Y-0.914
N22320 X-0.132 Y-0.912
N22325 X-0.13
N22330 X-0.112 Y-0.909
N22335 X-0.11
N22340 X-0.092 Y-0.905
N22345 X-0.09
N22350 X-0.072 Y-0.901
N22355 X-0.069 Y-0.9
N22360 X-0.052 Y-0.896
N22365 X-0.049 Y-0.895
N22370 X-0.032 Y-0.89
N22375 X-0.029 Y-0.889
N22380 X-0.012 Y-0.883
N22385 X-0.008 Y-0.882
N22390 X0.008 Y-0.875
N22395 X0.011 Y-0.874
N22400 X0.028 Y-0.866
N22405 X0.03 Y-0.865
N22410 X0.047 Y-0.856
N22415 X0.049 Y-0.855
N22420 X0.065 Y-0.846
N22425 X0.067 Y-0.845
N22430 X0.083 Y-0.835
N22435 X0.084 Y-0.834
N22440 X0.1 Y-0.824
N22445 X0.101 Y-0.823
N22450 X0.117 Y-0.813
N22455 X0.118 Y-0.812
N22460 X0.133 Y-0.801
N22465 X0.134 Y-0.8
N22470 X0.149 Y-0.789
N22475 X0.15 Y-0.788
N22480 X0.165 Y-0.777
N22485 X0.18 Y-0.765
N22490 X0.195 Y-0.753
N22495 X0.205 Y-0.743
N22500 X0.217 Y-0.73
N22505 Y-0.729
N22510 X0.229 Y-0.715
N22515 X0.24 Y-0.701
N22520 X0.241 Y-0.7
N22525 X0.252 Y-0.686
N22530 X0.253
N22535 X0.264 Y-0.671
N22540 Y-0.67
N22545 X0.275 Y-0.656
N22550 X0.276 Y-0.655
N22555 X0.286 Y-0.64
N22560 X0.287 Y-0.638
N22565 X0.297 Y-0.624
N22570 X0.298 Y-0.622
N22575 X0.307 Y-0.607
N22580 X0.309 Y-0.605
N22585 X0.317 Y-0.59
N22590 X0.318 Y-0.587
N22595 X0.326 Y-0.571
N22600 X0.328 Y-0.569
N22605 X0.335 Y-0.553
N22610 X0.336 Y-0.55
N22615 X0.342 Y-0.534
N22620 X0.343 Y-0.531
N22625 X0.349 Y-0.514
N22630 X0.35 Y-0.511
N22635 X0.354 Y-0.495
N22640 X0.355 Y-0.492
N22645 X0.359 Y-0.475
N22650 X0.36 Y-0.473
N22655 X0.363 Y-0.456
N22660 X0.364 Y-0.454
N22665 X0.367 Y-0.436
N22670 Y-0.435
N22675 X0.37 Y-0.417
N22680 Y-0.416
N22685 X0.372 Y-0.398
N22690 Y-0.397
N22695 X0.374 Y-0.379
N22700 Y-0.378
N22705 X0.376 Y-0.36
N22710 X0.378 Y-0.342
N22715 Y-0.341
N22720 X0.38 Y-0.323
N22725 Y-0.312
N22730 X0.378 Y-0.293
N22735 X0.376 Y-0.274
N22740 Y-0.273
N22745 X0.375 Y-0.255
N22750 X0.374 Y-0.254
N22755 X0.372 Y-0.235
N22760 Y-0.234
N22765 X0.37 Y-0.216
N22770 Y-0.215
N22775 X0.367 Y-0.196
N22780 Y-0.195
N22785 X0.364 Y-0.177
N22790 X0.363 Y-0.175
N22795 X0.36 Y-0.157
N22800 X0.359 Y-0.155
N22805 X0.355 Y-0.137
N22810 X0.354 Y-0.135
N22815 X0.349 Y-0.117
N22820 Y-0.114
N22825 X0.343 Y-0.097
N22830 X0.342 Y-0.094
N22835 X0.336 Y-0.078
N22840 X0.334 Y-0.074
N22845 X0.327 Y-0.058
N22850 X0.326 Y-0.055
N22855 X0.318 Y-0.039
N22860 X0.317 Y-0.036
N22865 X0.308 Y-0.021
N22870 X0.306 Y-0.018
N22875 X0.297 Y-0.003
N22880 X0.296 Y-0.001
N22885 X0.286 Y0.014
N22890 X0.285 Y0.016
N22895 X0.274 Y0.031
N22900 X0.273 Y0.032
N22905 X0.262 Y0.047
N22910 Y0.048
N22915 X0.25 Y0.063
N22920 Y0.064
N22925 X0.238 Y0.078
N22930 Y0.079
N22935 X0.226 Y0.094
N22940 X0.214 Y0.109
N22945 X0.213
N22950 X0.201 Y0.123
N22955 X0.192 Y0.133
N22960 X0.177 Y0.144
N22965 Y0.145
N22970 X0.162 Y0.157
N22975 X0.147 Y0.169
N22980 X0.146
N22985 X0.131 Y0.181
N22990 X0.13
N22995 X0.115 Y0.192
N23000 X0.114 Y0.193
N23005 X0.098 Y0.204
N23010 X0.097 Y0.205
N23015 X0.082 Y0.215
N23020 X0.08 Y0.217
N23025 X0.064 Y0.226
N23030 X0.062 Y0.228
N23035 X0.046 Y0.237
N23040 X0.044 Y0.238
N23045 X0.028 Y0.247
N23050 X0.025 Y0.248
N23055 X0.009 Y0.256
N23060 X0.006 Y0.257
N23065 X-0.011 Y0.264
N23070 X-0.014 Y0.266
N23075 X-0.031 Y0.272
N23080 X-0.034 Y0.273
N23085 X-0.051 Y0.278
N23090 X-0.054 Y0.279
N23095 X-0.072 Y0.284
N23100 X-0.074 Y0.285
N23105 X-0.092 Y0.289
N23110 X-0.094
N23115 X-0.113 Y0.293
N23120 X-0.114
N23125 X-0.133 Y0.296
N23130 X-0.134
N23135 X-0.153 Y0.299
N23140 X-0.154
N23145 X-0.173 Y0.301
N23150 X-0.174 Y0.302
N23155 X-0.193 Y0.304
N23160 X-0.194
N23165 X-0.213 Y0.305
N23170 X-0.232 Y0.307
N23175 X-0.251 Y0.309
N23180 X-0.262
N23185 X-0.281 Y0.307
N23190 X-0.3 Y0.306
N23195 X-0.301
N23200 X-0.32 Y0.304
N23205 X-0.339 Y0.302
N23210 X-0.34
N23215 X-0.359 Y0.3
N23220 X-0.36
N23225 X-0.379 Y0.297
N23230 X-0.38
N23235 X-0.399 Y0.294
N23240 X-0.401
N23245 X-0.419 Y0.29
N23250 X-0.421
N23255 X-0.439 Y0.286
N23260 X-0.441 Y0.285
N23265 X-0.459 Y0.281
N23270 X-0.462 Y0.28
N23275 X-0.479 Y0.275
N23280 X-0.482 Y0.274
N23285 X-0.499 Y0.268
N23290 X-0.503 Y0.267
N23295 X-0.519 Y0.26
N23300 X-0.522 Y0.259
N23305 X-0.539 Y0.251
N23310 X-0.542 Y0.25
N23315 X-0.558 Y0.241
N23320 X-0.56 Y0.24
N23325 X-0.576 Y0.231
N23330 X-0.578 Y0.23
N23335 X-0.594 Y0.22
N23340 X-0.595 Y0.219
N23345 X-0.611 Y0.209
N23350 X-0.612 Y0.208
N23355 X-0.628 Y0.197
N23360 X-0.629 Y0.196
N23365 X-0.644 Y0.185
N23370 X-0.645
N23375 X-0.66 Y0.173
N23380 X-0.661
N23385 X-0.676 Y0.161
N23390 X-0.691 Y0.15
N23395 X-0.692 Y0.149
N23400 X-0.707 Y0.138
N23405 X-0.716 Y0.129
N23410 X-0.728 Y0.115
N23415 X-0.74 Y0.101
N23420 X-0.752 Y0.087
N23425 X-0.763 Y0.073
N23430 X-0.764 Y0.072
N23435 X-0.775 Y0.058
N23440 X-0.776 Y0.057
N23445 X-0.787 Y0.043
N23450 X-0.788 Y0.042
N23455 X-0.798 Y0.027
N23460 X-0.799 Y0.026
N23465 X-0.809 Y0.011
N23470 X-0.81 Y0.01
N23475 X-0.819 Y-0.005
