;FLAVOR:Marlin
;TIME:3569
;Filament used: 2.95093m
;Layer height: 0.24
;MINX:6.881
;MINY:5.63
;MINZ:0.3
;MAXX:95.81
;MAXY:103.541
;MAXZ:25.828
;Generated with Cura_SteamEngine 4.6.1
M104 S210
M105
M109 S210
M82 ;absolute extrusion mode
;Sliced at: Thu 27-08-2020 11:04:33
G21 ;metric values
G90 ;absolute positioning
M82 ;set extruder to absolute mode
M107 ;start with the fan off
G1 Z5.0 F1800 ;move Z to 5mm
G28 X0 Y0 F1800 ;move X/Y to min endstops
G28 Z0 ;move Z to min endstop
G92 E0 ;zero the extruded length
G1 F200 E6.0 ;extrude 6.0mm of feed stock to build pressure
G1 Z5.0 F300 ;move the platform down 5mm
G92 E0 ;zero the extruded length again
G1 F1800
;Put printing message on LCD screen
M117 Printing...
G92 E0
G92 E0
G1 F1500 E-5
;LAYER_COUNT:86
;LAYER:0
M107
G0 F900 X19.925 Y6.541 Z0.3
;TYPE:SKIRT
G1 F1500 E0.70678
G1 F900 X20.828 Y6.713 E0.75722
G1 X21.836 Y7.003 E0.81479
G1 X22.777 Y7.375 E0.87032
G1 X23.635 Y7.81 E0.92311
G1 X24.479 Y8.34 E0.9778
G1 X25.241 Y8.922 E1.03042
G1 X25.957 Y9.58 E1.08379
G1 X26.634 Y10.327 E1.13911
G1 X27.248 Y11.154 E1.19564
G1 X27.742 Y11.965 E1.24775
G1 X28.169 Y12.832 E1.30079
G1 X28.53 Y13.78 E1.35646
G1 X28.788 Y14.7 E1.4089
G1 X28.97 Y15.7 E1.46468
G1 X29.049 Y16.47 E1.50716
G1 X29.074 Y17.671 E1.57308
G1 X29.081 Y28.371 E2.16029
G1 X29.068 Y29.366 E2.2149
G1 X29.04 Y29.88 E2.24315
G1 X28.951 Y30.669 E2.28672
G1 X28.767 Y31.618 E2.33977
G1 X28.492 Y32.564 E2.39384
G1 X28.134 Y33.474 E2.44751
G1 X27.683 Y34.366 E2.50236
G1 X27.169 Y35.188 E2.55556
G1 X26.537 Y36.013 E2.6126
G1 X25.894 Y36.71 E2.66464
G1 X25.17 Y37.362 E2.71811
G1 X24.369 Y37.961 E2.773
G1 X23.526 Y38.476 E2.82721
G1 X22.661 Y38.902 E2.88013
G1 X21.714 Y39.263 E2.93574
G1 X20.762 Y39.528 E2.98998
G1 X19.822 Y39.699 E3.04241
G1 X18.811 Y39.788 E3.09811
G1 X17.794 Y39.781 E3.15392
G1 X16.837 Y39.685 E3.2067
G1 X15.89 Y39.503 E3.25962
G1 X14.901 Y39.215 E3.31615
G1 X13.967 Y38.843 E3.37133
G1 X13.126 Y38.416 E3.42309
G1 X12.284 Y37.886 E3.47769
G1 X11.509 Y37.294 E3.53121
G1 X10.773 Y36.615 E3.58616
G1 X10.106 Y35.872 E3.64096
G1 X9.535 Y35.105 E3.69344
G1 X9.019 Y34.259 E3.74782
G1 X8.592 Y33.393 E3.80081
G1 X8.227 Y32.435 E3.85707
G1 X7.968 Y31.509 E3.90984
G1 X7.789 Y30.515 E3.96526
G1 X7.707 Y29.576 E4.01699
G1 X7.682 Y28.734 E4.06322
G1 X7.681 Y17.765 E4.66519
G1 X7.694 Y16.851 E4.71535
G1 X7.723 Y16.32 E4.74454
G1 X7.805 Y15.588 E4.78496
G1 X7.999 Y14.595 E4.84049
G1 X8.263 Y13.68 E4.89275
G1 X8.64 Y12.724 E4.94915
G1 X9.078 Y11.859 E5.00236
G1 X9.608 Y11.015 E5.05705
G1 X10.2 Y10.241 E5.11053
G1 X10.879 Y9.505 E5.16548
G1 X11.622 Y8.838 E5.22027
G1 X12.389 Y8.267 E5.27275
G1 X13.235 Y7.751 E5.32713
G1 X14.097 Y7.325 E5.3799
G1 X15.047 Y6.962 E5.43571
G1 X16.006 Y6.697 E5.49031
G1 X16.95 Y6.525 E5.54297
G1 X17.956 Y6.438 E5.59839
G1 X18.257 Y6.43 E5.61491
G1 X18.968 Y6.445 E5.65394
G1 X19.396 Y6.488 E5.67755
G0 F810 X19.925 Y6.541
G0 F900 X19.971 Y6.144
G1 X20.908 Y6.322 E5.72989
G1 X21.951 Y6.62 E5.78942
G1 X22.93 Y7.006 E5.84717
G1 X23.82 Y7.455 E5.90187
G1 X24.697 Y8.005 E5.95869
G1 X25.488 Y8.608 E6.01327
G1 X26.231 Y9.289 E6.06858
G1 X26.934 Y10.063 E6.12596
G1 X27.572 Y10.92 E6.1846
G1 X28.086 Y11.762 E6.23873
G1 X28.53 Y12.66 E6.29371
G1 X28.906 Y13.643 E6.35147
G1 X29.175 Y14.597 E6.40586
G1 X29.365 Y15.634 E6.46372
G1 X29.427 Y16.127 E6.49099
G1 X29.474 Y17.663 E6.57532
G1 X29.481 Y28.371 E7.16297
G1 X29.468 Y29.371 E7.21786
G1 X29.44 Y29.904 E7.24715
G1 X29.348 Y30.717 E7.29205
G1 X29.159 Y31.699 E7.34693
G1 X28.874 Y32.682 E7.4031
G1 X28.504 Y33.625 E7.45869
G1 X28.037 Y34.551 E7.5156
G1 X27.506 Y35.404 E7.57074
G1 X26.851 Y36.261 E7.62994
G1 X26.183 Y36.985 E7.684
G1 X25.434 Y37.662 E7.73941
G1 X24.604 Y38.284 E7.79633
G1 X23.729 Y38.82 E7.85264
G1 X22.833 Y39.263 E7.90749
G1 X21.851 Y39.639 E7.9652
G1 X20.864 Y39.915 E8.02144
G1 X19.888 Y40.093 E8.07589
G1 X18.841 Y40.187 E8.13358
G1 X17.785 Y40.181 E8.19153
G1 X16.791 Y40.082 E8.24635
G1 X15.81 Y39.895 E8.30116
G1 X14.784 Y39.597 E8.35979
G1 X13.813 Y39.213 E8.4171
G1 X12.94 Y38.77 E8.47082
G1 X12.066 Y38.222 E8.52743
G1 X11.262 Y37.609 E8.58292
G1 X10.498 Y36.905 E8.63993
G1 X9.805 Y36.135 E8.69678
G1 X9.211 Y35.339 E8.75129
G1 X8.675 Y34.463 E8.80765
G1 X8.231 Y33.565 E8.86263
G1 X7.851 Y32.572 E8.92097
G1 X7.582 Y31.61 E8.97579
G1 X7.395 Y30.58 E9.03324
G1 X7.308 Y29.605 E9.08696
G1 X7.282 Y28.744 E9.13424
G1 X7.281 Y17.76 E9.73703
G1 X7.294 Y16.846 E9.78719
G1 X7.323 Y16.296 E9.81742
G1 X7.408 Y15.54 E9.85917
G1 X7.607 Y14.514 E9.91652
G1 X7.88 Y13.564 E9.97077
G1 X8.27 Y12.572 E10.02927
G1 X8.723 Y11.674 E10.08446
G1 X9.273 Y10.797 E10.14127
G1 X9.885 Y9.994 E10.19668
G1 X10.589 Y9.23 E10.2537
G1 X11.359 Y8.537 E10.31055
G1 X12.155 Y7.943 E10.36505
G1 X13.031 Y7.407 E10.42141
G1 X13.925 Y6.964 E10.47617
G1 X14.91 Y6.587 E10.53405
G1 X15.905 Y6.31 E10.59073
G1 X16.884 Y6.131 E10.64535
G1 X17.927 Y6.039 E10.70281
G1 X18.266 Y6.03 E10.72142
G1 X18.977 Y6.045 E10.76045
G1 X19.442 Y6.092 E10.78609
G0 F810 X19.971 Y6.144
G0 F900 X20.017 Y5.747
G1 X20.988 Y5.93 E10.84032
G1 X22.066 Y6.237 E10.90183
G1 X22.443 Y6.371 E10.92379
G1 X23.083 Y6.636 E10.9618
G1 X24.006 Y7.101 E11.01852
G1 X24.914 Y7.669 E11.0773
G1 X25.735 Y8.294 E11.13393
G1 X26.506 Y8.997 E11.19119
G1 X27.234 Y9.799 E11.25063
G1 X27.897 Y10.686 E11.3114
G1 X28.431 Y11.559 E11.36756
G1 X28.891 Y12.488 E11.42445
G1 X29.282 Y13.505 E11.48425
G1 X29.561 Y14.495 E11.54069
G1 X29.759 Y15.567 E11.60052
G1 X29.824 Y16.081 E11.62895
G1 X29.849 Y16.454 E11.64947
G1 X29.874 Y17.655 E11.71539
G1 X29.881 Y28.371 E12.30348
G1 X29.868 Y29.377 E12.35869
G1 X29.839 Y29.928 E12.38897
G1 X29.746 Y30.765 E12.43519
G1 X29.55 Y31.78 E12.49192
G1 X29.256 Y32.799 E12.55012
G1 X28.875 Y33.777 E12.60772
G1 X28.392 Y34.737 E12.6667
G1 X27.842 Y35.621 E12.72384
G1 X27.165 Y36.509 E12.78512
G1 X26.473 Y37.261 E12.8412
G1 X25.698 Y37.963 E12.89859
G1 X24.84 Y38.608 E12.95749
G1 X23.933 Y39.165 E13.01591
G1 X23.005 Y39.624 E13.07272
G1 X21.989 Y40.015 E13.13247
G1 X20.966 Y40.302 E13.19078
G1 X19.954 Y40.488 E13.24724
G1 X18.871 Y40.586 E13.30692
G1 X17.777 Y40.581 E13.36696
G1 X16.745 Y40.479 E13.42387
G1 X15.73 Y40.286 E13.48057
G1 X14.666 Y39.98 E13.54133
G1 X13.66 Y39.582 E13.6007
G1 X12.754 Y39.124 E13.65641
G1 X11.849 Y38.558 E13.71499
G1 X11.014 Y37.923 E13.77256
G1 X10.222 Y37.195 E13.8316
G1 X9.503 Y36.398 E13.89051
G1 X8.887 Y35.574 E13.94697
G1 X8.33 Y34.667 E14.00538
G1 X7.87 Y33.737 E14.06232
G1 X7.475 Y32.71 E14.1227
G1 X7.195 Y31.712 E14.17959
G1 X7 Y30.646 E14.23906
G1 X6.909 Y29.635 E14.29477
G1 X6.882 Y28.754 E14.34314
G1 X6.881 Y17.754 E14.94681
G1 X6.894 Y16.84 E14.99697
G1 X6.924 Y16.272 E15.02819
G1 X7.011 Y15.491 E15.07131
G1 X7.216 Y14.433 E15.13046
G1 X7.498 Y13.447 E15.18674
G1 X7.9 Y12.42 E15.24726
G1 X8.369 Y11.488 E15.30452
G1 X8.937 Y10.58 E15.3633
G1 X9.571 Y9.746 E15.42079
G1 X10.299 Y8.954 E15.47983
G1 X11.096 Y8.235 E15.53873
G1 X11.92 Y7.619 E15.59519
G1 X12.827 Y7.062 E15.65361
G1 X13.752 Y6.603 E15.71028
G1 X14.773 Y6.211 E15.77029
G1 X15.804 Y5.923 E15.82904
G1 X16.818 Y5.736 E15.88563
G1 X17.897 Y5.64 E15.94508
G1 X18.274 Y5.63 E15.96577
G1 X18.985 Y5.645 E16.0048
G1 X19.488 Y5.695 E16.03254
G0 F810 X20.017 Y5.747
G1 F1500 E11.03254
;MESH:K??chenhaken.stl(2)
G0 F900 X19.55 Y9.041
G0 X19.373 Y10.312
G0 X19.576 Y10.725
;TYPE:WALL-INNER
G1 F1500 E16.73932
G1 F900 X20.16 Y10.862 E16.77224
G1 X20.718 Y11.048 E16.80452
G1 X21.283 Y11.299 E16.83845
G1 X21.803 Y11.588 E16.87109
G1 X22.286 Y11.918 E16.9032
G1 X22.769 Y12.32 E16.93768
G1 X23.179 Y12.73 E16.9695
G1 X23.575 Y13.206 E17.00348
G1 X23.896 Y13.676 E17.03472
G1 X24.196 Y14.215 E17.06857
G1 X24.445 Y14.776 E17.10226
G1 X24.63 Y15.332 E17.13441
G1 X24.771 Y15.927 E17.16797
G1 X24.853 Y16.514 E17.2005
G1 X24.874 Y16.828 E17.21777
G1 X24.881 Y29.067 E17.88944
G1 X24.851 Y29.727 E17.92569
G1 X24.77 Y30.301 E17.95751
G1 X24.631 Y30.892 E17.99082
G1 X24.444 Y31.453 E18.02328
G1 X24.196 Y32.011 E18.05679
G1 X23.899 Y32.545 E18.09032
G1 X23.575 Y33.02 E18.12188
G1 X23.179 Y33.496 E18.15586
G1 X22.769 Y33.906 E18.18768
G1 X22.286 Y34.308 E18.22216
G1 X21.803 Y34.638 E18.25427
G1 X21.283 Y34.927 E18.28691
G1 X20.718 Y35.178 E18.32084
G1 X20.16 Y35.364 E18.35312
G1 X19.576 Y35.501 E18.38604
G1 X18.995 Y35.583 E18.41824
G1 X18.381 Y35.611 E18.45197
G1 X17.765 Y35.583 E18.48581
G1 X17.184 Y35.501 E18.51801
G1 X16.606 Y35.366 E18.55059
G1 X16.04 Y35.177 E18.58334
G1 X15.475 Y34.926 E18.61726
G1 X14.963 Y34.641 E18.64942
G1 X14.47 Y34.304 E18.68219
G1 X13.997 Y33.911 E18.71594
G1 X13.583 Y33.497 E18.74807
G1 X13.19 Y33.024 E18.78182
G1 X12.856 Y32.535 E18.81432
G1 X12.567 Y32.015 E18.84697
G1 X12.317 Y31.453 E18.88073
G1 X12.13 Y30.892 E18.91318
G1 X11.99 Y30.298 E18.94667
G1 X11.913 Y29.733 E18.97796
G1 X11.881 Y29.075 E19.01412
G1 X11.881 Y17.158 E19.66811
G1 X11.911 Y16.492 E19.7047
G1 X11.991 Y15.926 E19.73607
G1 X12.131 Y15.332 E19.76956
G1 X12.316 Y14.776 E19.80172
G1 X12.567 Y14.211 E19.83565
G1 X12.856 Y13.691 E19.8683
G1 X13.19 Y13.202 E19.90079
G1 X13.583 Y12.729 E19.93454
G1 X13.997 Y12.315 E19.96667
G1 X14.47 Y11.922 E20.00042
G1 X14.963 Y11.585 E20.03319
G1 X15.475 Y11.3 E20.06535
G1 X16.04 Y11.049 E20.09928
G1 X16.606 Y10.86 E20.13203
G1 X17.184 Y10.725 E20.1646
G1 X17.765 Y10.643 E20.1968
G1 X18.381 Y10.615 E20.23064
G1 X18.995 Y10.643 E20.26437
G1 X19.049 Y10.651 E20.26737
G0 F810 X19.576 Y10.725
G0 F900 X19.645 Y10.331
G1 X20.268 Y10.477 E20.30249
G1 X20.871 Y10.678 E20.33737
G1 X21.461 Y10.94 E20.3728
G1 X22.012 Y11.246 E20.40738
G1 X22.532 Y11.602 E20.44197
G1 X23.037 Y12.022 E20.47802
G1 X23.471 Y12.456 E20.5117
G1 X23.892 Y12.962 E20.54782
G1 X24.225 Y13.451 E20.58029
G1 X24.244 Y13.478 E20.5821
G1 X24.555 Y14.037 E20.61721
G1 X24.815 Y14.623 E20.65239
G1 X24.823 Y14.649 E20.65388
G1 X25.016 Y15.226 E20.68727
G1 X25.165 Y15.854 E20.72269
G1 X25.248 Y16.459 E20.75621
G1 X25.251 Y16.475 E20.7571
G1 X25.251 Y16.487 E20.75776
G1 X25.272 Y16.8 E20.77497
G1 X25.274 Y16.816 E20.77586
G1 X25.281 Y29.085 E21.44917
G1 X25.25 Y29.759 E21.4862
G1 X25.164 Y30.372 E21.52017
G1 X25.016 Y31.001 E21.55563
G1 X24.815 Y31.603 E21.59046
G1 X24.555 Y32.189 E21.62564
G1 X24.244 Y32.748 E21.66075
G1 X23.892 Y33.264 E21.69503
G1 X23.471 Y33.77 E21.73115
G1 X23.037 Y34.204 E21.76484
G1 X22.532 Y34.624 E21.80088
G1 X22.012 Y34.98 E21.83547
G1 X21.461 Y35.286 E21.87006
G1 X20.871 Y35.548 E21.90548
G1 X20.845 Y35.556 E21.90698
G1 X20.287 Y35.742 E21.93925
G1 X20.268 Y35.749 E21.94037
G1 X20.252 Y35.752 E21.94126
G1 X19.668 Y35.889 E21.97418
G1 X19.645 Y35.895 E21.97548
G1 X19.632 Y35.896 E21.9762
G1 X19.027 Y35.982 E22.00973
G1 X18.381 Y36.012 E22.04522
G1 X17.735 Y35.982 E22.08071
G1 X17.114 Y35.895 E22.11513
G1 X16.495 Y35.75 E22.15002
G1 X15.89 Y35.548 E22.18502
G1 X15.301 Y35.287 E22.22038
G1 X14.751 Y34.98 E22.25494
G1 X14.224 Y34.62 E22.28997
G1 X13.729 Y34.209 E22.32528
G1 X13.285 Y33.765 E22.35974
G1 X12.874 Y33.27 E22.39505
G1 X12.514 Y32.744 E22.43003
G1 X12.208 Y32.193 E22.46461
G1 X11.946 Y31.603 E22.50004
G1 X11.939 Y31.58 E22.50136
G1 X11.752 Y31.019 E22.53381
G1 X11.745 Y31.001 E22.53487
G1 X11.602 Y30.39 E22.56931
G1 X11.597 Y30.372 E22.57034
G1 X11.595 Y30.353 E22.57138
G1 X11.513 Y29.761 E22.60418
G1 X11.481 Y29.094 E22.64083
G1 X11.481 Y17.14 E23.29686
G1 X11.512 Y16.46 E23.33421
G1 X11.597 Y15.854 E23.36779
G1 X11.745 Y15.226 E23.4032
G1 X11.946 Y14.623 E23.43809
G1 X12.208 Y14.033 E23.47351
G1 X12.514 Y13.482 E23.5081
G1 X12.874 Y12.956 E23.54308
G1 X13.285 Y12.461 E23.57839
G1 X13.729 Y12.017 E23.61285
G1 X14.224 Y11.606 E23.64816
G1 X14.751 Y11.246 E23.68318
G1 X14.768 Y11.237 E23.68424
G1 X15.301 Y10.939 E23.71775
G1 X15.89 Y10.678 E23.75311
G1 X15.913 Y10.671 E23.75443
G1 X16.479 Y10.482 E23.78717
G1 X16.495 Y10.476 E23.78811
G1 X16.514 Y10.472 E23.78918
G1 X17.092 Y10.337 E23.82175
G1 X17.114 Y10.331 E23.823
G1 X17.709 Y10.248 E23.85597
G1 X17.735 Y10.244 E23.85741
G1 X18.381 Y10.214 E23.8929
G1 X19.027 Y10.244 E23.92839
G1 X19.119 Y10.257 E23.93349
G0 F810 X19.645 Y10.331
G0 F900 X19.718 Y9.937
;TYPE:WALL-OUTER
G1 X20.377 Y10.092 E23.97065
G1 X21.021 Y10.307 E24.00791
G1 X21.635 Y10.579 E24.04476
G1 X22.224 Y10.907 E24.08176
G1 X22.778 Y11.286 E24.11859
G1 X23.305 Y11.724 E24.1562
G1 X23.769 Y12.188 E24.19221
G1 X24.208 Y12.716 E24.2299
G1 X24.586 Y13.269 E24.26666
G1 X24.914 Y13.859 E24.3037
G1 X25.186 Y14.473 E24.34056
G1 X25.401 Y15.117 E24.37782
G1 X25.558 Y15.781 E24.41526
G1 X25.649 Y16.435 E24.4515
G1 X25.674 Y16.804 E24.47179
G1 X25.681 Y29.104 E25.14681
G1 X25.649 Y29.789 E25.18444
G1 X25.558 Y30.445 E25.22079
G1 X25.401 Y31.11 E25.25829
G1 X25.186 Y31.753 E25.29549
G1 X24.914 Y32.367 E25.33235
G1 X24.586 Y32.957 E25.36939
G1 X24.208 Y33.51 E25.40615
G1 X23.769 Y34.038 E25.44384
G1 X23.305 Y34.502 E25.47985
G1 X22.778 Y34.94 E25.51746
G1 X22.224 Y35.319 E25.55429
G1 X21.635 Y35.647 E25.59129
G1 X21.021 Y35.919 E25.62814
G1 X20.377 Y36.134 E25.6654
G1 X19.718 Y36.289 E25.70256
G1 X19.057 Y36.381 E25.73918
G1 X18.381 Y36.413 E25.77632
G1 X17.705 Y36.381 E25.81346
G1 X17.044 Y36.289 E25.85009
G1 X16.384 Y36.134 E25.88729
G1 X15.74 Y35.919 E25.92455
G1 X15.127 Y35.648 E25.96133
G1 X14.538 Y35.319 E25.99836
G1 X13.984 Y34.94 E26.03519
G1 X13.456 Y34.502 E26.07284
G1 X12.992 Y34.038 E26.10885
G1 X12.554 Y33.51 E26.1465
G1 X12.175 Y32.956 E26.18334
G1 X11.847 Y32.367 E26.22034
G1 X11.575 Y31.753 E26.25719
G1 X11.36 Y31.11 E26.2944
G1 X11.203 Y30.445 E26.3319
G1 X11.113 Y29.791 E26.36813
G1 X11.081 Y29.113 E26.40538
G1 X11.081 Y17.122 E27.06343
G1 X11.113 Y16.43 E27.10145
G1 X11.203 Y15.781 E27.13741
G1 X11.36 Y15.117 E27.17485
G1 X11.575 Y14.473 E27.21211
G1 X11.847 Y13.859 E27.24897
G1 X12.175 Y13.27 E27.28596
G1 X12.554 Y12.716 E27.3228
G1 X12.992 Y12.188 E27.36045
G1 X13.456 Y11.724 E27.39646
G1 X13.984 Y11.286 E27.43411
G1 X14.538 Y10.907 E27.47095
G1 X15.127 Y10.578 E27.50797
G1 X15.74 Y10.307 E27.54475
G1 X16.384 Y10.092 E27.58201
G1 X17.044 Y9.937 E27.61922
G1 X17.705 Y9.845 E27.65584
G1 X18.381 Y9.813 E27.69298
G1 X19.057 Y9.845 E27.73012
G1 X19.191 Y9.864 E27.73755
G0 F810 X19.718 Y9.937
G0 F900 X19.912 Y9.982
G0 X19.811 Y10.41
G0 X19.499 Y11.108
;TYPE:SKIN
G1 X20.057 Y11.238 E27.76899
G1 X20.572 Y11.41 E27.79879
G1 X21.114 Y11.651 E27.83134
G1 X21.597 Y11.92 E27.86168
G1 X22.046 Y12.226 E27.8915
G1 X22.519 Y12.62 E27.92529
G1 X22.879 Y12.98 E27.95323
G1 X23.267 Y13.446 E27.9865
G1 X23.565 Y13.882 E28.01549
G1 X23.843 Y14.381 E28.04683
G1 X24.084 Y14.925 E28.07949
G1 X24.252 Y15.429 E28.10864
G1 X24.389 Y16.011 E28.14145
G1 X24.463 Y16.54 E28.17077
G1 X24.484 Y16.854 E28.18804
G1 X24.491 Y29.05 E28.85735
G1 X24.462 Y29.693 E28.89267
G1 X24.388 Y30.219 E28.92182
G1 X24.255 Y30.789 E28.95394
G1 X24.083 Y31.304 E28.98374
G1 X23.844 Y31.842 E29.01605
G1 X23.569 Y32.336 E29.04707
G1 X23.268 Y32.779 E29.07647
G1 X22.879 Y33.246 E29.10982
G1 X22.519 Y33.606 E29.13776
G1 X22.046 Y34 E29.17154
G1 X21.597 Y34.306 E29.20136
G1 X21.114 Y34.575 E29.2317
G1 X20.572 Y34.816 E29.26426
G1 X20.057 Y34.988 E29.29405
G1 X19.499 Y35.118 E29.3255
G1 X18.966 Y35.193 E29.35504
G1 X18.381 Y35.221 E29.38718
G1 X17.796 Y35.193 E29.41932
G1 X17.258 Y35.117 E29.44914
G1 X16.711 Y34.99 E29.47995
G1 X16.186 Y34.815 E29.51032
G1 X15.644 Y34.574 E29.54288
G1 X15.169 Y34.31 E29.5727
G1 X14.704 Y33.992 E29.60361
G1 X14.252 Y33.616 E29.63588
G1 X13.877 Y33.241 E29.66498
G1 X13.502 Y32.79 E29.69717
G1 X13.188 Y32.329 E29.72778
G1 X12.918 Y31.845 E29.7582
G1 X12.678 Y31.304 E29.79068
G1 X12.506 Y30.789 E29.82048
G1 X12.371 Y30.212 E29.853
G1 X12.302 Y29.698 E29.88146
G1 X12.271 Y29.075 E29.91569
G1 X12.271 Y17.176 E30.5687
G1 X12.301 Y16.517 E30.6049
G1 X12.373 Y16.008 E30.63311
G1 X12.509 Y15.429 E30.66575
G1 X12.677 Y14.925 E30.69491
G1 X12.92 Y14.377 E30.72781
G1 X13.188 Y13.897 E30.75797
G1 X13.502 Y13.436 E30.78859
G1 X13.878 Y12.984 E30.82085
G1 X14.254 Y12.608 E30.85003
G1 X14.706 Y12.233 E30.88226
G1 X15.169 Y11.916 E30.91306
G1 X15.644 Y11.652 E30.94288
G1 X16.186 Y11.411 E30.97543
G1 X16.711 Y11.236 E31.0058
