;FLAVOR:Marlin
;TIME:2072
;Filament used: 1.0518m
;Layer height: 0.24
;MINX:16.078
;MINY:11.961
;MINZ:0.3
;MAXX:109.226
;MAXY:94.068
;MAXZ:18.886
;Generated with Cura_SteamEngine 4.6.1
M104 S210
M105
M109 S210
M82 ;absolute extrusion mode
;Sliced at: Tue 25-08-2020 10:24:14
G21 ;metric values
G90 ;absolute positioning
M82 ;set extruder to absolute mode
M107 ;start with the fan off
G1 Z5.0 F1800 ;move Z to 5mm
G28 X0 Y0 F1800 ;move X/Y to min endstops
G28 Z0 ;move Z to min endstop
G92 E0 ;zero the extruded length
G1 F200 E6.0 ;extrude 6.0mm of feed stock to build pressure
G1 Z5.0 F300 ;move the platform down 5mm
G92 E0 ;zero the extruded length again
G1 F1800
;Put printing message on LCD screen
M117 Printing...
G92 E0
G92 E0
G1 F1500 E-5
;LAYER_COUNT:57
;LAYER:0
M107
G0 F900 X101.528 Y12.862 Z0.3
;TYPE:SKIRT
G1 F1500 E0.70678
G1 F900 X102.246 Y13.008 E0.74699
G1 X102.957 Y13.225 E0.78778
G1 X103.6 Y13.483 E0.82581
G1 X104.364 Y13.882 E0.87311
G1 X104.903 Y14.224 E0.90814
G1 X105.551 Y14.728 E0.95319
G1 X106.098 Y15.239 E0.99427
G1 X106.586 Y15.788 E1.03458
G1 X107.041 Y16.409 E1.07683
G1 X107.453 Y17.099 E1.12093
G1 X107.75 Y17.719 E1.15866
G1 X108.017 Y18.438 E1.20075
G1 X108.224 Y19.2 E1.24409
G1 X108.356 Y20.03 E1.29021
G1 X108.408 Y20.647 E1.32419
G1 X108.42 Y21.309 E1.36052
G1 X108.426 Y28.204 E1.73892
G1 X108.414 Y29.107 E1.78848
G1 X108.37 Y29.765 E1.82467
G1 X108.271 Y30.443 E1.86227
G1 X108.157 Y30.955 E1.89106
G1 X107.948 Y31.652 E1.93099
G1 X107.653 Y32.38 E1.9741
G1 X107.344 Y32.982 E2.01123
G1 X106.944 Y33.616 E2.05237
G1 X106.462 Y34.241 E2.09569
G1 X105.898 Y34.842 E2.14092
G1 X105.393 Y35.291 E2.178
G1 X104.739 Y35.769 E2.22246
G1 X104.087 Y36.159 E2.26415
G1 X103.45 Y36.465 E2.30293
G1 X102.679 Y36.749 E2.34803
G1 X102.015 Y36.929 E2.38578
G1 X101.286 Y37.057 E2.4264
G1 X100.426 Y37.123 E2.47373
G1 X99.755 Y37.113 E2.51056
G1 X98.965 Y37.027 E2.55417
G1 X98.212 Y36.874 E2.59634
G1 X97.568 Y36.684 E2.63319
G1 X96.768 Y36.358 E2.6806
G1 X96.151 Y36.04 E2.71869
G1 X95.53 Y35.645 E2.75908
G1 X94.896 Y35.152 E2.80316
G1 X94.361 Y34.651 E2.84338
G1 X93.844 Y34.066 E2.88623
G1 X93.406 Y33.467 E2.92695
G1 X93.028 Y32.838 E2.96722
G1 X92.691 Y32.136 E3.00996
G1 X92.42 Y31.401 E3.05295
G1 X92.23 Y30.693 E3.09318
G1 X92.103 Y29.958 E3.13411
G1 X92.044 Y29.197 E3.176
G1 X92.027 Y28.669 E3.20499
G1 X92.026 Y21.565 E3.59485
G1 X92.038 Y20.757 E3.6392
G1 X92.078 Y20.166 E3.67171
G1 X92.191 Y19.388 E3.71485
G1 X92.365 Y18.66 E3.75593
G1 X92.593 Y17.989 E3.79482
G1 X92.796 Y17.513 E3.82322
G1 X93.153 Y16.823 E3.86585
G1 X93.522 Y16.245 E3.90349
G1 X94.016 Y15.609 E3.94768
G1 X94.51 Y15.082 E3.98732
G1 X95.083 Y14.574 E4.02935
G1 X95.709 Y14.116 E4.07191
G1 X96.343 Y13.735 E4.11251
G1 X97.052 Y13.396 E4.15564
G1 X97.726 Y13.147 E4.19507
G1 X98.455 Y12.95 E4.23651
G1 X99.237 Y12.817 E4.28004
G1 X99.981 Y12.76 E4.32099
G1 X100.355 Y12.759 E4.34152
G1 X100.998 Y12.816 E4.37694
G0 F810 X101.528 Y12.862
G0 F900 X101.573 Y12.464
G1 X102.338 Y12.619 E4.41978
G1 X103.078 Y12.844 E4.46222
G1 X103.756 Y13.115 E4.50229
G1 X104.555 Y13.53 E4.5517
G1 X105.123 Y13.89 E4.58861
G1 X105.802 Y14.416 E4.63575
G1 X106.377 Y14.952 E4.67888
G1 X106.89 Y15.528 E4.72121
G1 X107.368 Y16.178 E4.76549
G1 X107.8 Y16.9 E4.81167
G1 X108.114 Y17.553 E4.85143
G1 X108.394 Y18.304 E4.89542
G1 X108.612 Y19.102 E4.94081
G1 X108.753 Y19.976 E4.9894
G1 X108.808 Y20.64 E5.02596
G1 X108.82 Y21.302 E5.0623
G1 X108.826 Y28.203 E5.44102
G1 X108.814 Y29.112 E5.49091
G1 X108.767 Y29.815 E5.52958
G1 X108.661 Y30.53 E5.56925
G1 X108.547 Y31.042 E5.59803
G1 X108.329 Y31.773 E5.63989
G1 X108.02 Y32.537 E5.68512
G1 X107.696 Y33.171 E5.72419
G1 X107.279 Y33.835 E5.76722
G1 X106.774 Y34.491 E5.81266
G1 X106.185 Y35.121 E5.85999
G1 X105.653 Y35.596 E5.89913
G1 X104.969 Y36.096 E5.94562
G1 X104.286 Y36.506 E5.98934
G1 X103.616 Y36.829 E6.03016
G1 X102.812 Y37.127 E6.07722
G1 X102.112 Y37.317 E6.11702
G1 X101.349 Y37.452 E6.15955
G1 X100.449 Y37.522 E6.20909
G1 X99.741 Y37.513 E6.24794
G1 X98.915 Y37.424 E6.29354
G1 X98.125 Y37.265 E6.33776
G1 X97.447 Y37.065 E6.37655
G1 X96.61 Y36.726 E6.42611
G1 X95.961 Y36.393 E6.46614
G1 X95.309 Y35.979 E6.50853
G1 X94.645 Y35.463 E6.55468
G1 X94.083 Y34.938 E6.59688
G1 X93.54 Y34.326 E6.64178
G1 X93.079 Y33.696 E6.68463
G1 X92.682 Y33.039 E6.72675
G1 X92.327 Y32.302 E6.77165
G1 X92.043 Y31.533 E6.81663
G1 X91.842 Y30.79 E6.85888
G1 X91.708 Y30.019 E6.90182
G1 X91.644 Y29.221 E6.94576
G1 X91.627 Y28.68 E6.97546
G1 X91.626 Y21.56 E7.3662
G1 X91.638 Y20.752 E7.41055
G1 X91.682 Y20.116 E7.44553
G1 X91.8 Y19.301 E7.49073
G1 X91.983 Y18.54 E7.53368
G1 X92.225 Y17.832 E7.57474
G1 X92.428 Y17.356 E7.60314
G1 X92.801 Y16.633 E7.64779
G1 X93.189 Y16.023 E7.68746
G1 X93.705 Y15.359 E7.73361
G1 X94.223 Y14.803 E7.77531
G1 X94.823 Y14.271 E7.81932
G1 X95.478 Y13.789 E7.86395
G1 X96.144 Y13.388 E7.90661
G1 X96.886 Y13.032 E7.95178
G1 X97.594 Y12.769 E7.99323
G1 X98.357 Y12.562 E8.03661
G1 X99.178 Y12.421 E8.08233
G1 X99.957 Y12.36 E8.12521
G1 X100.379 Y12.36 E8.14837
G1 X101.043 Y12.418 E8.18495
G0 F810 X101.573 Y12.464
G0 F900 X101.617 Y12.067
G1 X102.431 Y12.23 E8.23051
G1 X103.2 Y12.463 E8.2746
G1 X103.913 Y12.747 E8.31672
G1 X104.745 Y13.179 E8.36817
G1 X105.344 Y13.556 E8.40701
G1 X106.053 Y14.105 E8.45622
G1 X106.655 Y14.665 E8.50134
G1 X107.194 Y15.268 E8.54573
G1 X107.694 Y15.948 E8.59205
G1 X108.147 Y16.701 E8.64028
G1 X108.478 Y17.388 E8.68213
G1 X108.771 Y18.17 E8.72795
G1 X109 Y19.004 E8.77542
G1 X109.085 Y19.448 E8.80023
G1 X109.166 Y20.072 E8.83476
G1 X109.208 Y20.633 E8.86563
G1 X109.22 Y21.295 E8.90197
G1 X109.226 Y28.203 E9.28107
G1 X109.214 Y29.118 E9.33129
G1 X109.164 Y29.865 E9.37238
G1 X109.051 Y30.617 E9.41411
G1 X108.937 Y31.129 E9.4429
G1 X108.711 Y31.894 E9.48667
G1 X108.388 Y32.695 E9.53407
G1 X108.049 Y33.36 E9.57503
G1 X107.614 Y34.053 E9.61994
G1 X107.086 Y34.742 E9.66758
G1 X106.472 Y35.399 E9.71693
G1 X105.912 Y35.9 E9.75816
G1 X105.2 Y36.423 E9.80664
G1 X104.485 Y36.853 E9.85243
G1 X103.782 Y37.193 E9.89529
G1 X102.944 Y37.504 E9.94434
G1 X102.209 Y37.705 E9.98616
G1 X101.411 Y37.847 E10.03064
G1 X100.473 Y37.921 E10.08228
G1 X99.727 Y37.913 E10.12322
G1 X98.866 Y37.821 E10.17074
G1 X98.038 Y37.655 E10.21708
G1 X97.327 Y37.446 E10.25775
G1 X96.453 Y37.094 E10.30946
G1 X95.771 Y36.745 E10.3515
G1 X95.089 Y36.312 E10.39584
G1 X94.394 Y35.775 E10.44404
G1 X93.804 Y35.225 E10.4883
G1 X93.235 Y34.585 E10.5353
G1 X92.751 Y33.926 E10.58017
G1 X92.336 Y33.24 E10.62417
G1 X91.963 Y32.468 E10.67123
G1 X91.665 Y31.665 E10.71823
G1 X91.454 Y30.887 E10.76247
G1 X91.313 Y30.08 E10.80743
G1 X91.245 Y29.245 E10.8534
G1 X91.228 Y28.692 E10.88377
G1 X91.226 Y21.554 E11.27549
G1 X91.238 Y20.746 E11.31984
G1 X91.285 Y20.066 E11.35725
G1 X91.41 Y19.215 E11.40445
G1 X91.602 Y18.419 E11.44939
G1 X91.857 Y17.675 E11.49255
G1 X92.06 Y17.199 E11.52095
G1 X92.45 Y16.442 E11.56768
G1 X92.856 Y15.802 E11.60927
G1 X93.393 Y15.108 E11.65743
G1 X93.937 Y14.524 E11.70123
G1 X94.563 Y13.967 E11.74722
G1 X95.247 Y13.462 E11.79388
G1 X95.945 Y13.041 E11.83861
G1 X96.72 Y12.669 E11.88579
G1 X97.462 Y12.391 E11.92927
G1 X98.26 Y12.174 E11.97466
G1 X99.118 Y12.026 E12.02244
G1 X99.934 Y11.961 E12.06736
G1 X100.402 Y11.961 E12.09304
G1 X101.087 Y12.021 E12.13078
G0 F810 X101.617 Y12.067
G1 F1500 E7.13078
;MESH:K??chenhaken.stl(2)
G0 F900 X101.098 Y15.357
G0 X100.977 Y16.629
G0 X100.979 Y17.014
;TYPE:WALL-INNER
G1 F1500 E12.83756
G1 F900 X101.329 Y17.098 E12.85731
G1 X101.692 Y17.222 E12.87836
G1 X102.026 Y17.371 E12.89843
G1 X102.346 Y17.551 E12.91858
G1 X102.656 Y17.765 E12.93925
G1 X102.929 Y17.994 E12.95881
G1 X103.198 Y18.265 E12.97976
G1 X103.428 Y18.545 E12.99965
G1 X103.635 Y18.851 E13.01993
G1 X103.812 Y19.174 E13.04014
G1 X103.956 Y19.503 E13.05985
G1 X104.076 Y19.865 E13.08078
G1 X104.16 Y20.229 E13.10128
G1 X104.212 Y20.621 E13.12298
G1 X104.221 Y20.766 E13.13095
G1 X104.226 Y28.931 E13.57904
G1 X104.205 Y29.322 E13.60053
G1 X104.153 Y29.698 E13.62136
G1 X104.067 Y30.056 E13.64157
G1 X103.954 Y30.386 E13.66071
G1 X103.795 Y30.741 E13.68206
G1 X103.613 Y31.064 E13.7024
G1 X103.399 Y31.374 E13.72307
G1 X103.177 Y31.641 E13.74213
G1 X102.91 Y31.905 E13.76274
G1 X102.622 Y32.142 E13.7832
G1 X102.308 Y32.355 E13.80403
G1 X101.99 Y32.529 E13.82392
G1 X101.652 Y32.679 E13.84421
G1 X101.32 Y32.787 E13.86337
G1 X100.931 Y32.877 E13.88529
G1 X100.587 Y32.923 E13.90433
G1 X100.193 Y32.94 E13.92598
G1 X99.849 Y32.921 E13.94488
G1 X99.464 Y32.865 E13.96623
G1 X99.12 Y32.783 E13.98564
G1 X98.757 Y32.66 E14.00667
G1 X98.427 Y32.512 E14.02652
G1 X98.118 Y32.338 E14.04598
G1 X97.788 Y32.111 E14.06796
G1 X97.516 Y31.883 E14.08744
G1 X97.269 Y31.633 E14.10673
G1 X97.026 Y31.338 E14.1277
G1 X96.809 Y31.018 E14.14892
G1 X96.64 Y30.713 E14.16806
G1 X96.493 Y30.373 E14.18839
G1 X96.376 Y30.021 E14.20874
G1 X96.289 Y29.646 E14.22987
G1 X96.244 Y29.305 E14.24875
G1 X96.226 Y28.905 E14.27072
G1 X96.226 Y20.951 E14.70723
G1 X96.246 Y20.561 E14.72866
G1 X96.3 Y20.183 E14.74961
G1 X96.385 Y19.829 E14.76959
G1 X96.503 Y19.484 E14.7896
G1 X96.658 Y19.137 E14.81046
G1 X96.833 Y18.826 E14.83004
G1 X97.049 Y18.514 E14.85087
G1 X97.281 Y18.237 E14.8707
G1 X97.549 Y17.971 E14.89142
G1 X97.829 Y17.74 E14.91134
G1 X98.144 Y17.526 E14.93224
G1 X98.456 Y17.355 E14.95177
G1 X98.786 Y17.212 E14.9715
G1 X99.15 Y17.091 E14.99255
G1 X99.521 Y17.005 E15.01345
G1 X99.862 Y16.96 E15.03233
G1 X100.258 Y16.943 E15.05408
G1 X100.45 Y16.954 E15.06464
G0 F810 X100.61 Y16.962
G0 X100.979 Y17.014
G0 F900 X101.058 Y16.621
G1 X101.442 Y16.714 E15.08632
G1 X101.837 Y16.848 E15.10921
G1 X102.207 Y17.014 E15.13147
G1 X102.553 Y17.208 E15.15323
G1 X102.898 Y17.446 E15.17624
G1 X103.199 Y17.699 E15.19781
G1 X103.481 Y17.984 E15.21982
G1 X103.498 Y18.001 E15.22114
G1 X103.746 Y18.302 E15.24254
G1 X103.979 Y18.646 E15.26534
G1 X104.173 Y19 E15.2875
G1 X104.331 Y19.362 E15.30917
G1 X104.462 Y19.756 E15.33196
G1 X104.555 Y20.161 E15.35476
G1 X104.609 Y20.568 E15.37729
G1 X104.61 Y20.595 E15.37878
G1 X104.619 Y20.738 E15.38664
G1 X104.621 Y20.757 E15.38769
G1 X104.626 Y28.931 E15.83627
G1 X104.603 Y29.366 E15.86018
G1 X104.546 Y29.774 E15.88278
G1 X104.452 Y30.165 E15.90485
G1 X104.324 Y30.539 E15.92655
G1 X104.152 Y30.923 E15.94964
G1 X103.956 Y31.271 E15.97156
G1 X103.718 Y31.616 E15.99456
G1 X103.473 Y31.91 E16.01556
G1 X103.174 Y32.206 E16.03865
G1 X102.86 Y32.464 E16.06095
G1 X102.518 Y32.696 E16.08363
G1 X102.17 Y32.887 E16.10542
G1 X101.796 Y33.052 E16.12785
G1 X101.776 Y33.058 E16.129
G1 X101.422 Y33.174 E16.14944
G1 X101 Y33.272 E16.17322
G1 X100.624 Y33.322 E16.19403
G1 X100.199 Y33.34 E16.21738
G1 X99.804 Y33.319 E16.23909
G1 X99.39 Y33.259 E16.26204
G1 X99.005 Y33.167 E16.28377
G1 X98.617 Y33.035 E16.30626
G1 X98.25 Y32.871 E16.32832
G1 X97.895 Y32.671 E16.35068
G1 X97.553 Y32.436 E16.37345
G1 X97.246 Y32.178 E16.39546
G1 X97.233 Y32.164 E16.39651
G1 X96.968 Y31.897 E16.41715
G1 X96.704 Y31.576 E16.43996
G1 X96.471 Y31.233 E16.46272
G1 X96.291 Y30.906 E16.4832
G1 X96.28 Y30.887 E16.48441
G1 X96.117 Y30.512 E16.50685
G1 X95.99 Y30.128 E16.52904
G1 X95.895 Y29.719 E16.55209
G1 X95.845 Y29.34 E16.57307
G1 X95.826 Y28.923 E16.59597
G1 X95.826 Y20.951 E17.03347
G1 X95.848 Y20.516 E17.05737
G1 X95.907 Y20.106 E17.08011
G1 X96.001 Y19.716 E17.10212
G1 X96.129 Y19.339 E17.12397
G1 X96.301 Y18.956 E17.14701
G1 X96.493 Y18.614 E17.16854
G1 X96.731 Y18.27 E17.19149
G1 X96.985 Y17.967 E17.21319
G1 X97.278 Y17.676 E17.23585
G1 X97.591 Y17.418 E17.25811
G1 X97.934 Y17.185 E17.28087
G1 X98.279 Y16.996 E17.30246
G1 X98.647 Y16.836 E17.32448
G1 X99.043 Y16.705 E17.34737
G1 X99.439 Y16.613 E17.36968
G1 X99.468 Y16.61 E17.37128
G1 X99.836 Y16.56 E17.39166
G1 X100.253 Y16.542 E17.41457
G1 X100.529 Y16.558 E17.42974
G0 F810 X100.651 Y16.564
G0 X101.058 Y16.621
G0 F900 X101.133 Y16.228
;TYPE:WALL-OUTER
G1 X101.558 Y16.33 E17.45373
G1 X101.977 Y16.473 E17.47802
G1 X102.389 Y16.657 E17.50279
G1 X102.763 Y16.868 E17.52635
G1 X103.139 Y17.127 E17.55141
G1 X103.475 Y17.409 E17.57548
G1 X103.794 Y17.731 E17.60036
G1 X104.064 Y18.059 E17.62367
G1 X104.323 Y18.441 E17.649
G1 X104.531 Y18.821 E17.67277
G1 X104.706 Y19.22 E17.69668
G1 X104.848 Y19.65 E17.72153
G1 X104.95 Y20.091 E17.74637
G1 X105.006 Y20.516 E17.7699
G1 X105.021 Y20.746 E17.78255
G1 X105.026 Y28.931 E18.23174
G1 X105.001 Y29.41 E18.25806
G1 X104.939 Y29.849 E18.28239
G1 X104.837 Y30.274 E18.30638
G1 X104.696 Y30.686 E18.33027
G1 X104.507 Y31.108 E18.35565
G1 X104.299 Y31.478 E18.37894
G1 X104.037 Y31.858 E18.40427
G1 X103.764 Y32.185 E18.42765
G1 X103.439 Y32.506 E18.45272
G1 X103.108 Y32.779 E18.47627
G1 X102.727 Y33.037 E18.50152
G1 X102.346 Y33.247 E18.52539
G1 X101.94 Y33.425 E18.54972
G1 X101.521 Y33.562 E18.57391
G1 X101.082 Y33.664 E18.59865
G1 X100.65 Y33.722 E18.62257
G1 X100.205 Y33.74 E18.64701
G1 X99.759 Y33.717 E18.67152
G1 X99.316 Y33.653 E18.69608
G1 X98.89 Y33.551 E18.72012
G1 X98.472 Y33.409 E18.74435
G1 X98.068 Y33.228 E18.76864
G1 X97.688 Y33.014 E18.79258
G1 X97.312 Y32.755 E18.81763
G1 X96.976 Y32.473 E18.8417
G1 X96.667 Y32.161 E18.8658
G1 X96.382 Y31.814 E18.89045
G1 X96.133 Y31.447 E18.91479
G1 X95.918 Y31.057 E18.93922
G1 X95.744 Y30.658 E18.96311
G1 X95.604 Y30.234 E18.98762
G1 X95.503 Y29.798 E19.01218
G1 X95.445 Y29.366 E19.0361
G1 X95.426 Y28.941 E19.05945
G1 X95.426 Y20.951 E19.49793
G1 X95.45 Y20.475 E19.52409
G1 X95.514 Y20.029 E19.54881
G1 X95.616 Y19.606 E19.57269
G1 X95.755 Y19.196 E19.59645
G1 X95.944 Y18.774 E19.62183
G1 X96.153 Y18.404 E19.64515
G1 X96.412 Y18.028 E19.6702
G1 X96.695 Y17.691 E19.69435
G1 X97.012 Y17.376 E19.71888
G1 X97.343 Y17.103 E19.74243
G1 X97.725 Y16.844 E19.76775
G1 X98.105 Y16.635 E19.79155
G1 X98.508 Y16.46 E19.81567
G1 X98.934 Y16.319 E19.84029
G1 X99.37 Y16.218 E19.86485
G1 X99.799 Y16.161 E19.8886
G1 X100.247 Y16.142 E19.91321
G1 X100.605 Y16.162 E19.93289
G0 F810 X100.694 Y16.166
G0 X101.133 Y16.228
G0 F900 X101.327 Y16.274
G0 X101.224 Y16.701
G0 X100.906 Y17.397
;TYPE:SKIN
G1 X101.219 Y17.472 E19.95055
G1 X101.549 Y17.585 E19.96969
G1 X101.85 Y17.719 E19.98778
G1 X102.139 Y17.882 E20.00598
G1 X102.425 Y18.079 E20.02504
G1 X102.658 Y18.276 E20.04179
G1 X102.904 Y18.523 E20.06092
G1 X103.121 Y18.787 E20.07967
G1 X103.302 Y19.054 E20.09738
G1 X103.465 Y19.352 E20.11602
G1 X103.589 Y19.635 E20.13297
G1 X103.699 Y19.969 E20.15227
G1 X103.779 Y20.311 E20.17155
G1 X103.822 Y20.645 E20.19003
G1 X103.831 Y20.79 E20.198
G1 X103.836 Y28.91 E20.64362
G1 X103.815 Y29.293 E20.66467
G1 X103.77 Y29.624 E20.683
G1 X103.694 Y29.943 E20.701
G1 X103.592 Y30.24 E20.71823
G1 X103.446 Y30.566 E20.73783
G1 X103.284 Y30.854 E20.75597
G1 X103.085 Y31.141 E20.77513
G1 X102.895 Y31.371 E20.79151
G1 X102.646 Y31.617 E20.81072
G1 X102.392 Y31.826 E20.82877
G1 X102.1 Y32.025 E20.84816
G1 X101.826 Y32.175 E20.8653
G1 X101.511 Y32.315 E20.88422
G1 X101.213 Y32.411 E20.9014
G1 X100.855 Y32.495 E20.92158
G1 X100.564 Y32.533 E20.93769
G1 X100.197 Y32.549 E20.95785
G1 X99.881 Y32.531 E20.97522
G1 X99.542 Y32.483 E20.99401
G1 X99.218 Y32.405 E21.0123
G1 X98.898 Y32.296 E21.03085
G1 X98.608 Y32.167 E21.04827
G1 X98.331 Y32.01 E21.06574
G1 X98.018 Y31.795 E21.08658
G1 X97.785 Y31.6 E21.10325
G1 X97.554 Y31.366 E21.1213
G1 X97.337 Y31.103 E21.14001
G1 X97.143 Y30.816 E21.15902
G1 X96.992 Y30.543 E21.17614
G1 X96.857 Y30.232 E21.19475
G1 X96.753 Y29.917 E21.21295
G1 X96.67 Y29.563 E21.23291
G1 X96.634 Y29.282 E21.24845
G1 X96.616 Y28.905 E21.26917
G1 X96.616 Y20.971 E21.70458
G1 X96.636 Y20.587 E21.72568
G1 X96.683 Y20.255 E21.74408
G1 X96.758 Y19.942 E21.76175
G1 X96.866 Y19.628 E21.77997
G1 X97.007 Y19.312 E21.79896
G1 X97.163 Y19.033 E21.8165
G1 X97.362 Y18.748 E21.83558
G1 X97.563 Y18.507 E21.8528
G1 X97.813 Y18.259 E21.87212
G1 X98.068 Y18.049 E21.89025
G1 X98.345 Y17.86 E21.90866
G1 X98.623 Y17.708 E21.92604
G1 X98.932 Y17.574 E21.94453
G1 X99.254 Y17.468 E21.96313
G1 X99.598 Y17.387 E21.98253
G1 X99.885 Y17.35 E21.99841
G1 X100.253 Y17.333 E22.01862
G1 X100.377 Y17.341 E22.02544
G0 F810 X100.582 Y17.352
