;FLAVOR:Marlin
;TIME:1638
;Filament used: 1.08897m
;Layer height: 0.12
;MINX:-21.951
;MINY:-12.95
;MINZ:0.3
;MAXX:21.95
;MAXY:12.951
;MAXZ:15.9
;Generated with Cura_SteamEngine 4.12.1
M140 S50
M105
M190 S50
M104 S210
M105
M109 S210
M82 ;absolute extrusion mode
;FLAVOR:Marlin
M82 ;absolute extrusion mode
G21
G90
M82
M107 T0
G28
G92 E0
G0 E3 F200
G92 E0 ; reset extrusion distance
M106 S255 ; Enable cooling fan full speed
G1 X-98 Y0 Z0.4 F3000 ; move to arc start
G3 X0 Y-98 I98 Z0.4 E40 F400 ; lay arc stripe 90deg
G92 E0 ; reset extrusion distance
G4 P500 ; wait for 0.5 sec
G0 Z10 E-1 ; Lift 15mm and retract 1mm filament
G4 P2000 ; wait for 5 sec
G0 Z15
M107 ; Disable cooling fan
G1 X0 Y-85 Z4 E0 F3000 ; get off the bed
G92 E0
G92 E0
G1 F1500 E-7
;LAYER_COUNT:132
;LAYER:0
M107
G1 F600 Z1.3
G0 F3600 X-7.55 Y-10.75 Z1.3
;TYPE:SKIRT
G1 F600 Z0.3
G1 F1500 E0.41575
G1 F2400 X-7.55 Y10.75 E1.48839
G1 X-7.59 Y11.167 E1.50929
G1 X-7.708 Y11.569 E1.53019
G1 X-7.901 Y11.941 E1.5511
G1 X-8.16 Y12.27 E1.57199
G1 X-8.477 Y12.544 E1.5929
G1 X-8.84 Y12.753 E1.61379
G1 X-9.237 Y12.889 E1.63473
G1 X-9.75 Y12.95 E1.6605
G1 X-14.815 Y12.949 E1.9132
G1 X-15.561 Y12.904 E1.95048
G1 X-16.123 Y12.817 E1.97885
G1 X-16.848 Y12.637 E2.01612
G1 X-17.379 Y12.453 E2.04416
G1 X-18.048 Y12.149 E2.08082
G1 X-18.534 Y11.874 E2.10868
G1 X-19.142 Y11.455 E2.14552
G1 X-19.583 Y11.085 E2.17424
G1 X-20.097 Y10.57 E2.21054
G1 X-20.464 Y10.13 E2.23912
G1 X-20.894 Y9.502 E2.2771
G1 X-21.17 Y9.008 E2.30533
G1 X-21.465 Y8.343 E2.34162
G1 X-21.646 Y7.82 E2.36923
G1 X-21.821 Y7.098 E2.4063
G1 X-21.906 Y6.53 E2.43495
G1 X-21.949 Y5.818 E2.47054
G1 X-21.951 Y-10.75 E3.29712
G1 X-21.911 Y-11.167 E3.31802
G1 X-21.793 Y-11.569 E3.33892
G1 X-21.601 Y-11.941 E3.35981
G1 X-21.341 Y-12.27 E3.38073
G1 X-21.024 Y-12.544 E3.40163
G1 X-20.661 Y-12.753 E3.42253
G1 X-20.264 Y-12.889 E3.44346
G1 X-19.751 Y-12.95 E3.46924
G1 X-9.75 Y-12.95 E3.96819
G1 X-9.333 Y-12.91 E3.98909
G1 X-8.931 Y-12.792 E4.00999
G1 X-8.559 Y-12.599 E4.0309
G1 X-8.23 Y-12.34 E4.05179
G1 X-7.956 Y-12.023 E4.07269
G1 X-7.747 Y-11.66 E4.09359
G1 X-7.616 Y-11.278 E4.11374
G0 F2160 X-7.611 Y-11.263
G0 X-7.55 Y-10.75
G0 F3600 X-7.95 Y-10.75
G1 F2400 X-7.95 Y10.75 E5.18638
G1 X-7.99 Y11.127 E5.20529
G1 X-8.108 Y11.487 E5.22419
G1 X-8.298 Y11.814 E5.24306
G1 X-8.553 Y12.095 E5.26199
G1 X-8.862 Y12.315 E5.28092
G1 X-9.209 Y12.467 E5.29982
G1 X-9.75 Y12.55 E5.32712
G1 X-14.803 Y12.549 E5.57922
G1 X-15.525 Y12.505 E5.61531
G1 X-16.04 Y12.426 E5.6413
G1 X-16.738 Y12.252 E5.67719
G1 X-17.224 Y12.085 E5.70283
G1 X-17.872 Y11.79 E5.73835
G1 X-18.316 Y11.538 E5.76382
G1 X-18.905 Y11.132 E5.79951
G1 X-19.308 Y10.795 E5.82572
G1 X-19.806 Y10.295 E5.86092
G1 X-20.141 Y9.893 E5.88703
G1 X-20.556 Y9.287 E5.92367
G1 X-20.808 Y8.836 E5.94945
G1 X-21.096 Y8.191 E5.98469
G1 X-21.26 Y7.715 E6.00981
G1 X-21.43 Y7.014 E6.0458
G1 X-21.508 Y6.495 E6.07198
G1 X-21.549 Y5.805 E6.10646
G1 X-21.551 Y-10.75 E6.9324
G1 X-21.511 Y-11.127 E6.95131
G1 X-21.393 Y-11.487 E6.97021
G1 X-21.203 Y-11.814 E6.98908
G1 X-20.948 Y-12.095 E7.00801
G1 X-20.64 Y-12.315 E7.02689
G1 X-20.292 Y-12.467 E7.04584
G1 X-19.751 Y-12.55 E7.07315
G1 X-9.75 Y-12.55 E7.5721
G1 X-9.373 Y-12.51 E7.59101
G1 X-9.013 Y-12.392 E7.60991
G1 X-8.686 Y-12.202 E7.62878
G1 X-8.405 Y-11.947 E7.64771
G1 X-8.185 Y-11.638 E7.66664
G1 X-8.033 Y-11.291 E7.68554
G1 X-8.03 Y-11.276 E7.6863
G0 F2160 X-7.95 Y-10.75
G0 F3600 X-8.35 Y-10.75
G1 F2400 X-8.35 Y10.75 E8.75894
G1 X-8.39 Y11.082 E8.77562
G1 X-8.507 Y11.394 E8.79225
G1 X-8.695 Y11.671 E8.80895
G1 X-8.943 Y11.894 E8.82559
G1 X-9.237 Y12.053 E8.84226
G1 X-9.75 Y12.15 E8.86831
G1 X-14.791 Y12.149 E9.11981
G1 X-15.488 Y12.107 E9.15464
G1 X-16.254 Y11.972 E9.19345
G1 X-16.975 Y11.751 E9.23107
G1 X-17.695 Y11.431 E9.27038
G1 X-18.352 Y11.039 E9.30855
G1 X-18.968 Y10.562 E9.34742
G1 X-19.516 Y10.02 E9.38587
G1 X-20.005 Y9.403 E9.42515
G1 X-20.401 Y8.753 E9.46312
G1 X-20.726 Y8.038 E9.5023
G1 X-20.955 Y7.312 E9.54028
G1 X-21.1 Y6.543 E9.57933
G1 X-21.149 Y5.793 E9.61682
G1 X-21.151 Y-10.75 E10.44216
G1 X-21.111 Y-11.082 E10.45884
G1 X-20.994 Y-11.394 E10.47546
G1 X-20.806 Y-11.671 E10.49217
G1 X-20.558 Y-11.894 E10.50881
G1 X-20.264 Y-12.053 E10.52548
G1 X-19.751 Y-12.15 E10.55153
G1 X-9.75 Y-12.15 E11.05048
G1 X-9.418 Y-12.11 E11.06716
G1 X-9.106 Y-11.993 E11.08379
G1 X-8.829 Y-11.805 E11.10049
G1 X-8.606 Y-11.557 E11.11713
G1 X-8.451 Y-11.271 E11.13336
G0 F2160 X-8.447 Y-11.263
G0 X-8.35 Y-10.75
G0 F3600 X-8.75 Y-10.75
G1 F2400 X-8.75 Y10.75 E12.206
G1 X-8.79 Y11.029 E12.22006
G1 X-8.906 Y11.286 E12.23413
G1 X-9.089 Y11.501 E12.24821
G1 X-9.325 Y11.655 E12.26227
G1 X-9.75 Y11.75 E12.284
G1 X-14.779 Y11.75 E12.5349
G1 X-15.451 Y11.709 E12.56848
G1 X-16.171 Y11.58 E12.60498
G1 X-16.846 Y11.373 E12.6402
G1 X-17.519 Y11.072 E12.67698
G1 X-18.134 Y10.703 E12.71276
G1 X-18.711 Y10.256 E12.74918
G1 X-19.225 Y9.745 E12.78534
G1 X-19.682 Y9.167 E12.8221
G1 X-20.053 Y8.557 E12.85772
G1 X-20.356 Y7.885 E12.8945
G1 X-20.569 Y7.207 E12.92995
G1 X-20.704 Y6.484 E12.96664
G1 X-20.75 Y5.781 E13.00179
G1 X-20.751 Y-10.75 E13.82653
G1 X-20.711 Y-11.029 E13.84059
G1 X-20.595 Y-11.286 E13.85466
G1 X-20.412 Y-11.501 E13.86874
G1 X-20.176 Y-11.655 E13.8828
G1 X-19.751 Y-11.75 E13.90453
G1 X-9.75 Y-11.75 E14.40348
G1 X-9.471 Y-11.71 E14.41754
G1 X-9.214 Y-11.594 E14.43161
G1 X-8.999 Y-11.411 E14.4457
G1 X-8.898 Y-11.256 E14.45492
G0 F2160 X-8.845 Y-11.175
G0 X-8.75 Y-10.75
G0 F3600 X-9.15 Y-10.75
G1 F2400 X-9.15 Y10.75 E15.52756
G1 X-9.19 Y10.965 E15.53847
G1 X-9.303 Y11.151 E15.54933
G1 X-9.476 Y11.284 E15.56022
G1 X-9.75 Y11.35 E15.57428
G1 X-14.768 Y11.35 E15.82463
G1 X-15.414 Y11.31 E15.85692
G1 X-16.088 Y11.189 E15.89108
G1 X-16.717 Y10.994 E15.92394
G1 X-17.343 Y10.713 E15.95817
G1 X-17.916 Y10.367 E15.99157
G1 X-18.454 Y9.949 E16.02556
G1 X-18.935 Y9.47 E16.05942
G1 X-19.359 Y8.93 E16.09368
G1 X-19.704 Y8.36 E16.12692
G1 X-19.987 Y7.732 E16.16128
G1 X-20.183 Y7.102 E16.1942
G1 X-20.308 Y6.425 E16.22855
G1 X-20.35 Y5.768 E16.26139
G1 X-20.351 Y-10.75 E17.08548
G1 X-20.311 Y-10.965 E17.09639
G1 X-20.198 Y-11.151 E17.10724
G1 X-20.025 Y-11.284 E17.11813
G1 X-19.751 Y-11.35 E17.13219
G1 X-9.75 Y-11.35 E17.63114
G1 X-9.535 Y-11.31 E17.64205
G1 X-9.377 Y-11.214 E17.65128
G0 F2160 X-9.349 Y-11.197
G0 X-9.216 Y-11.024
G0 X-9.15 Y-10.75
G0 F3600 X-9.55 Y-10.75
G1 F2400 X-9.55 Y10.75 E18.72392
G1 X-9.589 Y10.869 E18.73017
G1 X-9.75 Y10.95 E18.73916
G1 X-14.756 Y10.95 E18.98891
G1 X-15.377 Y10.912 E19.01995
G1 X-16.005 Y10.798 E19.05179
G1 X-16.588 Y10.615 E19.08228
G1 X-17.167 Y10.354 E19.11396
G1 X-17.699 Y10.032 E19.14499
G1 X-18.197 Y9.643 E19.17651
G1 X-18.644 Y9.195 E19.20809
G1 X-19.036 Y8.694 E19.23982
G1 X-19.356 Y8.163 E19.27075
G1 X-19.617 Y7.579 E19.30267
G1 X-19.797 Y6.997 E19.33306
G1 X-19.913 Y6.366 E19.36507
G1 X-19.95 Y5.756 E19.39556
G1 X-19.951 Y-10.75 E20.21904
G1 X-19.912 Y-10.869 E20.22529
G1 X-19.751 Y-10.95 E20.23428
G1 X-9.977 Y-10.95 E20.72191
G0 F2160 X-9.75 Y-10.95
G0 X-9.631 Y-10.911
G0 X-9.55 Y-10.75
G1 F1500 E13.72191
G1 F600 Z1.3
G0 F3600 X7.55 Y-10.75 Z1.3
G1 F600 Z0.3
G1 F1500 E21.13766
G1 F2400 X7.59 Y-11.167 E21.15856
G1 X7.708 Y-11.569 E21.17946
G1 X7.901 Y-11.941 E21.20037
G1 X8.16 Y-12.27 E21.22126
G1 X8.477 Y-12.544 E21.24217
G1 X8.84 Y-12.753 E21.26306
G1 X9.237 Y-12.889 E21.284
G1 X9.75 Y-12.95 E21.30977
G1 X19.75 Y-12.95 E21.80868
G1 X20.167 Y-12.91 E21.82958
G1 X20.569 Y-12.792 E21.85048
G1 X20.941 Y-12.599 E21.87139
G1 X21.27 Y-12.34 E21.89228
G1 X21.544 Y-12.023 E21.91318
G1 X21.753 Y-11.66 E21.93408
G1 X21.889 Y-11.263 E21.95501
G1 X21.95 Y-10.75 E21.98079
G1 X21.949 Y5.841 E22.80852
G1 X21.906 Y6.551 E22.844
G1 X21.822 Y7.101 E22.87176
G1 X21.636 Y7.85 E22.91026
G1 X21.451 Y8.384 E22.93846
G1 X21.144 Y9.057 E22.97536
G1 X20.869 Y9.543 E23.00322
G1 X20.45 Y10.148 E23.03994
G1 X20.081 Y10.588 E23.06859
G1 X19.554 Y11.112 E23.10566
G1 X19.106 Y11.482 E23.13465
G1 X18.528 Y11.877 E23.16958
G1 X18.019 Y12.163 E23.19871
G1 X17.334 Y12.469 E23.23614
G1 X16.818 Y12.646 E23.26335
G1 X16.093 Y12.822 E23.30057
G1 X15.537 Y12.906 E23.32863
G1 X14.819 Y12.949 E23.36451
G1 X9.75 Y12.951 E23.61741
G1 X9.333 Y12.911 E23.63831
G1 X8.931 Y12.793 E23.65921
G1 X8.559 Y12.601 E23.68009
G1 X8.23 Y12.341 E23.70101
G1 X7.956 Y12.024 E23.72192
G1 X7.747 Y11.661 E23.74282
G1 X7.611 Y11.265 E23.7637
G1 X7.55 Y10.751 E23.78953
G1 X7.55 Y-10.218 E24.83568
G0 F2160 X7.55 Y-10.75
G0 F3600 X7.95 Y-10.75
G1 F2400 X7.99 Y-11.127 E24.85459
G1 X8.108 Y-11.487 E24.87349
G1 X8.298 Y-11.814 E24.89236
G1 X8.553 Y-12.095 E24.91129
G1 X8.862 Y-12.315 E24.93021
G1 X9.209 Y-12.467 E24.94911
G1 X9.75 Y-12.55 E24.97642
G1 X19.75 Y-12.55 E25.47532
G1 X20.127 Y-12.51 E25.49424
G1 X20.487 Y-12.392 E25.51314
G1 X20.814 Y-12.202 E25.53201
G1 X21.095 Y-11.947 E25.55094
G1 X21.315 Y-11.638 E25.56986
G1 X21.467 Y-11.291 E25.58876
G1 X21.55 Y-10.75 E25.61607
G1 X21.549 Y5.828 E26.44315
G1 X21.507 Y6.516 E26.47754
G1 X21.431 Y7.017 E26.50282
G1 X21.251 Y7.741 E26.54004
G1 X21.082 Y8.229 E26.5658
G1 X20.785 Y8.882 E26.60159
G1 X20.534 Y9.325 E26.62699
G1 X20.127 Y9.911 E26.66259
G1 X19.79 Y10.314 E26.6888
G1 X19.281 Y10.82 E26.7246
G1 X18.871 Y11.158 E26.75111
G1 X18.311 Y11.542 E26.78499
G1 X17.844 Y11.804 E26.81171
G1 X17.182 Y12.099 E26.84786
G1 X16.423 Y12.34 E26.88759
G1 X15.914 Y12.448 E26.91355
G1 X15.19 Y12.534 E26.94993
G1 X14.75 Y12.55 E26.97189
G1 X9.75 Y12.551 E27.22134
G1 X9.374 Y12.511 E27.24021
G1 X9.013 Y12.393 E27.25916
G1 X8.686 Y12.203 E27.27803
G1 X8.405 Y11.948 E27.29696
G1 X8.185 Y11.64 E27.31584
G1 X8.033 Y11.292 E27.33479
G1 X7.95 Y10.751 E27.36209
G1 X7.95 Y-10.218 E28.40824
G0 F2160 X7.95 Y-10.75
G0 F3600 X8.35 Y-10.75
G1 F2400 X8.39 Y-11.082 E28.42492
G1 X8.507 Y-11.394 E28.44155
G1 X8.695 Y-11.671 E28.45825
G1 X8.943 Y-11.894 E28.47489
G1 X9.237 Y-12.053 E28.49156
G1 X9.75 Y-12.15 E28.51761
G1 X19.75 Y-12.15 E29.01651
G1 X20.082 Y-12.11 E29.0332
G1 X20.394 Y-11.993 E29.04982
G1 X20.671 Y-11.805 E29.06652
G1 X20.894 Y-11.557 E29.08316
G1 X21.053 Y-11.263 E29.09984
G1 X21.15 Y-10.75 E29.12588
G1 X21.149 Y5.814 E29.95227
G1 X21.109 Y6.481 E29.9856
G1 X20.975 Y7.235 E30.02381
G1 X20.748 Y7.984 E30.06285
G1 X20.425 Y8.707 E30.10236
G1 X20.036 Y9.355 E30.14007
G1 X19.552 Y9.979 E30.17947
G1 X19.008 Y10.527 E30.21799
G1 X18.399 Y11.006 E30.25664
G1 X17.738 Y11.408 E30.29524
G1 X17.03 Y11.729 E30.33403
G1 X16.316 Y11.955 E30.37139
G1 X15.561 Y12.098 E30.40973
G1 X14.794 Y12.149 E30.44808
G1 X9.75 Y12.151 E30.69972
G1 X9.419 Y12.111 E30.71636
G1 X9.106 Y11.994 E30.73303
G1 X8.83 Y11.806 E30.74969
G1 X8.606 Y11.558 E30.76636
G1 X8.447 Y11.264 E30.78304
G1 X8.35 Y10.751 E30.80908
G1 X8.35 Y-10.218 E31.85523
G0 F2160 X8.35 Y-10.75
G0 F3600 X8.75 Y-10.75
G1 F2400 X8.79 Y-11.029 E31.86929
G1 X8.906 Y-11.286 E31.88336
G1 X9.089 Y-11.501 E31.89745
G1 X9.325 Y-11.655 E31.9115
G1 X9.75 Y-11.75 E31.93323
G1 X19.75 Y-11.75 E32.43213
G1 X20.029 Y-11.71 E32.44619
G1 X20.286 Y-11.594 E32.46026
G1 X20.501 Y-11.411 E32.47435
G1 X20.655 Y-11.175 E32.48841
G1 X20.75 Y-10.75 E32.51013
G1 X20.749 Y5.801 E33.33587
G1 X20.71 Y6.446 E33.3681
G1 X20.584 Y7.152 E33.40388
G1 X20.37 Y7.853 E33.44045
G1 X20.066 Y8.531 E33.47752
G1 X19.701 Y9.137 E33.51281
G1 X19.246 Y9.722 E33.54979
G1 X18.735 Y10.235 E33.58591
G1 X18.165 Y10.681 E33.62202
G1 X17.543 Y11.058 E33.65831
G1 X16.878 Y11.359 E33.69472
G1 X16.209 Y11.57 E33.72972
G1 X15.5 Y11.702 E33.7657
G1 X14.782 Y11.75 E33.8016
G1 X9.75 Y11.751 E34.05265
G1 X9.471 Y11.711 E34.06671
G1 X9.214 Y11.595 E34.08078
G1 X8.999 Y11.412 E34.09487
G1 X8.845 Y11.176 E34.10892
G1 X8.75 Y10.751 E34.13065
G1 X8.75 Y-10.218 E35.1768
G0 F2160 X8.75 Y-10.75
G0 F3600 X9.15 Y-10.75
G1 F2400 X9.19 Y-10.965 E35.18771
G1 X9.303 Y-11.151 E35.19857
G1 X9.476 Y-11.284 E35.20945
G1 X9.75 Y-11.35 E35.22351
G1 X19.75 Y-11.35 E35.72242
G1 X19.965 Y-11.31 E35.73333
G1 X20.151 Y-11.197 E35.74419
G1 X20.284 Y-11.024 E35.75507
G1 X20.35 Y-10.75 E35.76913
G1 X20.35 Y5.787 E36.59417
G1 X20.312 Y6.411 E36.62536
G1 X20.193 Y7.069 E36.65872
G1 X19.991 Y7.723 E36.69287
G1 X19.706 Y8.356 E36.7275
G1 X19.366 Y8.919 E36.76031
G1 X18.94 Y9.464 E36.79482
G1 X18.462 Y9.943 E36.82858
G1 X17.93 Y10.357 E36.86222
G1 X17.348 Y10.709 E36.89615
G1 X16.726 Y10.989 E36.93018
G1 X16.102 Y11.184 E36.9628
G1 X15.439 Y11.307 E36.99644
G1 X14.769 Y11.35 E37.02993
G1 X9.75 Y11.351 E37.28033
G1 X9.536 Y11.311 E37.29119
G1 X9.349 Y11.198 E37.30209
G1 X9.216 Y11.025 E37.31298
G1 X9.15 Y10.751 E37.32704
G1 X9.15 Y-10.218 E38.37319
G0 F2160 X9.15 Y-10.75
G0 F3600 X9.55 Y-10.75
G1 F2400 X9.589 Y-10.869 E38.37944
G1 X9.75 Y-10.95 E38.38843
G1 X19.75 Y-10.95 E38.88733
G1 X19.869 Y-10.911 E38.89358
G1 X19.95 Y-10.75 E38.90257
G1 X19.95 Y5.774 E39.72696
G1 X19.913 Y6.376 E39.75705
G1 X19.802 Y6.986 E39.78798
G1 X19.613 Y7.593 E39.8197
G1 X19.347 Y8.181 E39.85189
G1 X19.031 Y8.701 E39.88225
G1 X18.634 Y9.207 E39.91434
G1 X18.189 Y9.65 E39.94566
G1 X17.696 Y10.033 E39.97681
G1 X17.153 Y10.36 E40.00843
G1 X16.574 Y10.619 E40.04008
G1 X15.995 Y10.799 E40.07033
G1 X15.378 Y10.912 E40.10162
G1 X14.756 Y10.95 E40.13271
G1 X9.75 Y10.951 E40.38246
G1 X9.631 Y10.912 E40.38871
G1 X9.55 Y10.751 E40.3977
G1 X9.55 Y-10.218 E41.44385
G0 F2160 X9.55 Y-10.75
G1 F1500 E34.44385
G1 F600 Z1.3
;MESH:FPV_Camtr??ger.3mf
G0 F3600 X9.95 Y10.55 Z1.3
;TYPE:WALL-OUTER
G1 F600 Z0.3
G1 F1500 E41.8596
G1 F2400 X9.95 Y-10.55 E42.91229
G1 X19.55 Y-10.55 E43.39123
G1 X19.55 Y5.76 E44.20494
G1 X19.516 Y6.328 E44.23333
G1 X19.412 Y6.892 E44.26194
G1 X19.238 Y7.451 E44.29115
G1 X18.987 Y8.005 E44.32149
G1 X18.702 Y8.474 E44.34887
G1 X18.327 Y8.951 E44.37914
G1 X17.93 Y9.345 E44.40705
G1 X17.463 Y9.708 E44.43656
G1 X16.968 Y10.005 E44.46536
G1 X16.424 Y10.247 E44.49506
G1 X15.887 Y10.413 E44.5231
G1 X15.319 Y10.516 E44.5519
G1 X14.744 Y10.55 E44.58064
G1 X10.482 Y10.55 E44.79327
G0 F2160 X9.95 Y10.55
G0 F3600 X9.95 Y10.35
G0 X10.39 Y10.11
G0 X10.45 Y10.11
G0 X17.915 Y2.762
G0 X18.393 Y1.737
G0 X18.407 Y0.958
G0 X18.136 Y-0.043
G0 X17.739 Y0.26
G1 F2400 X17.427 Y-.148 E44.8189
G1 X17.022 Y-.469 E44.84468
G1 X16.652 Y-.64 E44.86502
G1 X16.108 Y-.745 E44.89266
G1 X15.633 Y-.717 E44.9164
G1 X15.05 Y-.51 E44.94726
G1 X14.642 Y-.215 E44.97238
G1 X14.31 Y0.181 E44.99816
G1 X14.126 Y0.552 E45.01882
G1 X14.022 Y0.951 E45.03939
G1 X14.002 Y1.362 E45.05992
G1 X14.067 Y1.764 E45.08024
G1 X14.254 Y2.222 E45.10492
G1 X14.571 Y2.649 E45.13145
G1 X14.963 Y2.957 E45.15632
G1 X15.449 Y3.173 E45.18286
G1 X15.85 Y3.245 E45.20318
G1 X16.347 Y3.217 E45.22802
G1 X16.856 Y3.058 E45.25462
G1 X17.205 Y2.847 E45.27497
G1 X17.567 Y2.489 E45.30037
G1 X17.836 Y2.043 E45.32635
G1 X17.959 Y1.654 E45.34671
G1 X17.996 Y1.159 E45.37147
G1 X17.924 Y0.756 E45.3919
G0 F2160 X17.902 Y0.632
G0 X17.739 Y0.26
G0 F3600 X17.618 Y0.101
G0 X18.086 Y0.055
;TYPE:WALL-INNER
G1 F2400 X17.714 Y-.431 E45.42243
G1 X17.233 Y-.812 E45.45304
G1 X16.776 Y-1.024 E45.47818
G1 X16.135 Y-1.147 E45.51074
G1 X15.553 Y-1.113 E45.53983
G1 X14.862 Y-.868 E45.5764
G1 X14.367 Y-.51 E45.60688
G1 X13.973 Y-0.039 E45.63752
G1 X13.749 Y0.411 E45.66259
G1 X13.624 Y0.89 E45.68729
G1 X13.6 Y1.384 E45.71197
G1 X13.679 Y1.873 E45.73668
G1 X13.903 Y2.42 E45.76617
G1 X14.282 Y2.93 E45.79787
G1 X14.755 Y3.302 E45.82789
G1 X15.331 Y3.558 E45.85934
G1 X15.826 Y3.647 E45.88443
G1 X16.419 Y3.614 E45.91406
G1 X17.022 Y3.425 E45.94559
G1 X17.453 Y3.165 E45.9707
G1 X17.884 Y2.738 E46.00097
G1 X18.203 Y2.209 E46.03179
