;FLAVOR:Marlin
;TIME:6608
;Filament used: 5.56217m
;Layer height: 0.12
;MINX:-38.187
;MINY:-55.626
;MINZ:0.3
;MAXX:38.187
;MAXY:40.972
;MAXZ:7.9
;Generated with Cura_SteamEngine 4.12.1
M140 S50
M105
M190 S50
M104 S210
M105
M109 S210
M82 ;absolute extrusion mode
;FLAVOR:Marlin
M82 ;absolute extrusion mode
G21
G90
M82
M107 T0
G28
G92 E0
G0 E3 F200
G92 E0 ; reset extrusion distance
M106 S255 ; Enable cooling fan full speed
G1 X-98 Y0 Z0.4 F3000 ; move to arc start
G3 X0 Y-98 I98 Z0.4 E40 F400 ; lay arc stripe 90deg
G92 E0 ; reset extrusion distance
G4 P500 ; wait for 0.5 sec
G0 Z10 E-1 ; Lift 15mm and retract 1mm filament
G4 P2000 ; wait for 5 sec
G0 Z15
M107 ; Disable cooling fan
G1 X0 Y-85 Z4 E0 F3000 ; get off the bed
G92 E0
G92 E0
G1 F1500 E-7
;LAYER_COUNT:57
;LAYER:0
M107
G1 F600 Z1.3
G0 F3600 X-6.895 Y-41.772 Z1.3
;TYPE:SKIRT
G1 F600 Z0.3
G1 F1500 E0.41575
G1 F2400 X-8.481 Y-41.772 E0.49488
G1 X-6.126 Y-42.385 E0.61628
G1 X-3.419 Y-43.178 E0.75701
G1 X-.735 Y-44.044 E0.89772
G1 X1.919 Y-44.99 E1.03828
G1 X4.549 Y-46.01 E1.17902
G1 X7.149 Y-47.108 E1.31982
G1 X9.713 Y-48.275 E1.46037
G1 X12.246 Y-49.521 E1.6012
G1 X14.74 Y-50.836 E1.74187
G1 X17.196 Y-52.221 E1.88254
G1 X17.387 Y-52.336 E1.89366
G1 X17.387 Y-51.871 E1.91686
G1 X14.945 Y-50.493 E2.05675
G1 X12.41 Y-49.156 E2.19973
G1 X9.9 Y-47.922 E2.33927
G1 X7.323 Y-46.749 E2.48053
G1 X4.682 Y-45.634 E2.62355
G1 X2.052 Y-44.612 E2.76432
G1 X-.591 Y-43.672 E2.90427
G1 X-3.319 Y-42.79 E3.04731
G1 X-6.025 Y-41.999 E3.18796
G1 X-6.381 Y-41.906 E3.20632
G0 F2160 X-6.895 Y-41.772
G0 F3600 X-6.844 Y-41.372
G1 F2400 X-11.977 Y-41.372 E3.46241
G1 X-11.688 Y-41.43 E3.47711
G1 X-8.95 Y-42.063 E3.61732
G1 X-6.233 Y-42.771 E3.75739
G1 X-3.537 Y-43.56 E3.89754
G1 X-.864 Y-44.423 E4.03767
G1 X1.78 Y-45.365 E4.17771
G1 X4.399 Y-46.381 E4.31786
G1 X6.988 Y-47.474 E4.45806
G1 X9.542 Y-48.637 E4.59807
G1 X12.064 Y-49.877 E4.73828
G1 X14.548 Y-51.187 E4.87838
G1 X16.994 Y-52.567 E5.0185
G1 X17.835 Y-53.074 E5.06749
G1 X17.787 Y-52.566 E5.09295
G1 X17.787 Y-51.645 E5.13889
G1 X17.597 Y-51.53 E5.14997
G1 X15.132 Y-50.139 E5.29118
G1 X12.597 Y-48.802 E5.43417
G1 X10.066 Y-47.558 E5.57487
G1 X7.479 Y-46.38 E5.71668
G1 X4.838 Y-45.265 E5.85971
G1 X2.194 Y-44.238 E6.00122
G1 X-.468 Y-43.291 E6.14218
G1 X-3.196 Y-42.409 E6.28522
G1 X-5.917 Y-41.614 E6.42664
G1 X-6.33 Y-41.506 E6.44794
G0 F2160 X-6.844 Y-41.372
G0 F3600 X-6.793 Y-40.972
G1 F2400 X-16.264 Y-40.972 E6.92045
G1 X-14.514 Y-41.271 E7.00902
G1 X-11.772 Y-41.821 E7.14855
G1 X-9.046 Y-42.451 E7.28813
G1 X-6.34 Y-43.157 E7.42765
G1 X-3.655 Y-43.942 E7.56722
G1 X-.993 Y-44.802 E7.70678
G1 X1.641 Y-45.74 E7.84628
G1 X4.249 Y-46.752 E7.98584
G1 X6.827 Y-47.84 E8.12545
G1 X9.371 Y-48.999 E8.26492
G1 X11.882 Y-50.233 E8.4045
G1 X14.356 Y-51.538 E8.54405
G1 X16.792 Y-52.912 E8.68358
G1 X18.591 Y-53.998 E8.78842
G1 X18.399 Y-53.628 E8.80922
G1 X18.237 Y-53.078 E8.83782
G1 X18.187 Y-52.547 E8.86443
G1 X18.187 Y-51.418 E8.92076
G1 X17.804 Y-51.187 E8.94307
G1 X15.319 Y-49.785 E9.08542
G1 X12.784 Y-48.448 E9.2284
G1 X10.232 Y-47.194 E9.37026
G1 X7.635 Y-46.011 E9.51264
G1 X4.994 Y-44.896 E9.65566
G1 X2.336 Y-43.864 E9.79791
G1 X-.345 Y-42.91 E9.93988
G1 X-3.073 Y-42.028 E10.08292
G1 X-5.809 Y-41.229 E10.22512
G1 X-6.279 Y-41.106 E10.24936
G0 F2160 X-6.793 Y-40.972
G0 F3600 X-6.742 Y-40.572
G1 F2400 X-18.612 Y-40.572 E10.84155
G1 X-19.159 Y-40.525 E10.86895
G1 X-19.602 Y-40.431 E10.89154
G1 X-20.331 Y-40.12 E10.93108
G1 X-20.757 Y-39.859 E10.956
G1 X-21.132 Y-39.526 E10.98103
G1 X-21.674 Y-38.86 E11.02386
G1 X-21.909 Y-38.382 E11.05044
G1 X-22.157 Y-37.573 E11.09265
G1 X-22.196 Y-37.032 E11.11971
G1 X-22.124 Y-36.201 E11.16133
G1 X-21.951 Y-35.667 E11.18933
G1 X-21.681 Y-35.105 E11.22044
G1 X-21.521 Y-34.858 E11.23512
G1 X-21.975 Y-34.213 E11.27447
G1 X-23.689 Y-31.917 E11.41742
G1 X-25.469 Y-29.671 E11.56039
G1 X-27.313 Y-27.476 E11.70342
G1 X-29.219 Y-25.335 E11.84643
G1 X-31.186 Y-23.251 E11.9894
G1 X-32.569 Y-21.866 E12.08705
G1 X-33.056 Y-22.07 E12.11339
G1 X-33.73 Y-22.215 E12.14778
G1 X-34.242 Y-22.255 E12.17341
G1 X-34.746 Y-22.202 E12.19869
G1 X-35.548 Y-21.987 E12.24011
G1 X-36.009 Y-21.749 E12.266
G1 X-36.324 Y-21.542 E12.2848
G1 X-36.735 Y-21.199 E12.31151
G1 X-37.264 Y-20.503 E12.35512
G1 X-37.516 Y-20.023 E12.38217
G1 X-37.733 Y-19.203 E12.42449
G1 X-37.786 Y-18.679 E12.45077
G1 X-37.787 Y19.552 E14.35812
G1 X-37.73 Y20.079 E14.38456
G1 X-37.579 Y20.554 E14.40943
G1 X-37.342 Y20.988 E14.4341
G1 X-36.893 Y21.502 E14.46815
G1 X-36.48 Y21.834 E14.49459
G1 X-36.039 Y22.063 E14.51938
G1 X-35.563 Y22.203 E14.54413
G1 X-35.089 Y22.248 E14.56789
G1 X-32.664 Y22.248 E14.68887
G1 X-31.915 Y22.992 E14.74154
G1 X-29.941 Y25.069 E14.88449
G1 X-28.027 Y27.201 E15.02744
G1 X-26.174 Y29.388 E15.17044
G1 X-24.385 Y31.628 E15.31347
G1 X-22.662 Y33.917 E15.4564
G1 X-22.296 Y34.433 E15.48796
G1 X-22.296 Y37.876 E15.65973
G1 X-22.239 Y38.403 E15.68618
G1 X-22.088 Y38.878 E15.71105
G1 X-21.851 Y39.312 E15.73572
G1 X-21.402 Y39.826 E15.76977
G1 X-20.989 Y40.158 E15.7962
G1 X-20.548 Y40.387 E15.82099
G1 X-20.072 Y40.527 E15.84575
G1 X-19.598 Y40.572 E15.8695
G1 X18.612 Y40.572 E17.77581
G1 X19.157 Y40.526 E17.80309
G1 X19.582 Y40.438 E17.82475
G1 X20.334 Y40.118 E17.86552
G1 X20.757 Y39.859 E17.89027
G1 X21.132 Y39.526 E17.91529
G1 X21.674 Y38.86 E17.95813
G1 X21.909 Y38.382 E17.9847
G1 X22.157 Y37.573 E18.02691
G1 X22.196 Y37.032 E18.05397
G1 X22.12 Y36.181 E18.0966
G1 X21.949 Y35.661 E18.12391
G1 X21.68 Y35.103 E18.15481
G1 X21.555 Y34.907 E18.16641
G1 X23.02 Y32.916 E18.28974
G1 X24.805 Y30.662 E18.43318
G1 X26.648 Y28.468 E18.57613
G1 X28.553 Y26.327 E18.71911
G1 X30.519 Y24.241 E18.86212
G1 X32.51 Y22.248 E19.00266
G1 X35.017 Y22.248 E19.12774
G1 X35.544 Y22.191 E19.15418
G1 X36.019 Y22.04 E19.17905
G1 X36.453 Y21.803 E19.20372
G1 X36.967 Y21.354 E19.23777
G1 X37.299 Y20.941 E19.26421
G1 X37.528 Y20.5 E19.289
G1 X37.668 Y20.024 E19.31375
G1 X37.713 Y19.55 E19.33751
G1 X37.713 Y-10.421 E20.83277
G1 X37.615 Y-11.109 E20.86744
G1 X37.371 Y-11.688 E20.89878
G1 X37.044 Y-12.154 E20.92718
G1 X37.251 Y-12.454 E20.94537
G1 X37.503 Y-12.925 E20.97202
G1 X37.726 Y-13.732 E21.01379
G1 X37.786 Y-14.287 E21.04164
G1 X37.787 Y-52.53 E22.94959
G1 X37.73 Y-53.057 E22.97604
G1 X37.579 Y-53.532 E23.0009
G1 X37.342 Y-53.966 E23.02557
G1 X36.893 Y-54.48 E23.05962
G1 X36.48 Y-54.812 E23.08606
G1 X36.039 Y-55.041 E23.11085
G1 X35.563 Y-55.181 E23.1356
G1 X35.089 Y-55.226 E23.15936
G1 X21.283 Y-55.226 E23.84814
G1 X20.756 Y-55.169 E23.87459
G1 X20.281 Y-55.018 E23.89945
G1 X19.847 Y-54.781 E23.92413
G1 X19.333 Y-54.332 E23.95818
G1 X19.001 Y-53.919 E23.98461
G1 X18.772 Y-53.478 E24.0094
G1 X18.632 Y-53.002 E24.03416
G1 X18.587 Y-52.528 E24.05791
G1 X18.587 Y-51.193 E24.12451
G1 X18.001 Y-50.839 E24.15867
G1 X15.506 Y-49.431 E24.3016
G1 X12.971 Y-48.094 E24.44458
G1 X10.398 Y-46.83 E24.5876
G1 X7.791 Y-45.642 E24.73054
G1 X5.15 Y-44.527 E24.87356
G1 X2.478 Y-43.49 E25.01655
G1 X-.222 Y-42.529 E25.15953
G1 X-2.95 Y-41.647 E25.30257
G1 X-5.701 Y-40.844 E25.44555
G1 X-6.227 Y-40.706 E25.47268
G0 F2160 X-6.742 Y-40.572
G1 F1500 E18.47268
G1 F600 Z1.3
G0 F3600 X-6.447 Y-43.543 Z1.3
G1 F600 Z0.3
G1 F1500 E25.88843
G1 F2400 X-3.773 Y-44.324 E26.02741
G1 X-1.122 Y-45.181 E26.16641
G1 X1.502 Y-46.115 E26.30536
G1 X4.099 Y-47.123 E26.44435
G1 X6.666 Y-48.206 E26.58334
G1 X9.2 Y-49.361 E26.72228
G1 X11.7 Y-50.589 E26.86124
G1 X14.164 Y-51.889 E27.00023
G1 X16.59 Y-53.258 E27.1392
G1 X18.976 Y-54.697 E27.27822
G1 X19.474 Y-55.013 E27.30764
G1 X19.951 Y-55.293 E27.33524
G1 X20.496 Y-55.505 E27.36441
G1 X21.01 Y-55.602 E27.39051
G1 X21.833 Y-55.626 E27.43158
G1 X34.405 Y-55.626 E28.0588
G1 X35.132 Y-55.616 E28.09508
G1 X35.677 Y-55.554 E28.12244
G1 X36.223 Y-55.385 E28.15096
G1 X36.667 Y-55.154 E28.17593
G1 X37.203 Y-54.725 E28.21018
G1 X37.546 Y-54.347 E28.23564
G1 X37.854 Y-53.862 E28.26431
G1 X38.066 Y-53.317 E28.29348
G1 X38.163 Y-52.803 E28.31958
G1 X38.187 Y-51.999 E28.35971
G1 X38.187 Y-14.978 E30.20669
G1 X38.169 Y-13.731 E30.26891
G1 X38.119 Y-11.91 E30.3598
G1 X38.116 Y-10.393 E30.43548
G1 X38.113 Y18.852 E31.89452
G1 X38.103 Y19.588 E31.93124
G1 X38.041 Y20.138 E31.95886
G1 X37.872 Y20.684 E31.98737
G1 X37.638 Y21.134 E32.01268
G1 X37.212 Y21.664 E32.0466
G1 X37.04 Y21.831 E32.05856
G1 X36.522 Y22.307 E32.09366
G1 X34.498 Y24.22 E32.2326
G1 X32.529 Y26.191 E32.3716
G1 X30.618 Y28.218 E32.51058
G1 X28.766 Y30.299 E32.64956
G1 X26.975 Y32.432 E32.78852
G1 X25.246 Y34.616 E32.92749
G1 X22.847 Y37.874 E33.12934
G1 X22.502 Y38.374 E33.15965
G1 X21.784 Y39.388 E33.22163
G1 X21.366 Y39.855 E33.2529
G1 X20.87 Y40.263 E33.28495
G1 X20.385 Y40.548 E33.31301
G1 X19.919 Y40.74 E33.33816
G1 X19.437 Y40.875 E33.36313
G1 X18.899 Y40.952 E33.39024
G1 X18.809 Y40.956 E33.39474
G1 X17.82 Y40.972 E33.44408
G1 X-18.914 Y40.972 E35.27675
G1 X-19.641 Y40.962 E35.31302
G1 X-20.191 Y40.899 E35.34064
G1 X-20.732 Y40.731 E35.36891
G1 X-21.182 Y40.497 E35.39421
G1 X-21.712 Y40.071 E35.42813
G1 X-22.061 Y39.686 E35.45406
G1 X-22.128 Y39.594 E35.45974
G1 X-22.682 Y38.787 E35.50857
G1 X-23.312 Y37.842 E35.56524
G1 X-24.923 Y35.569 E35.70423
G1 X-26.598 Y33.344 E35.84318
G1 X-28.337 Y31.167 E35.98218
G1 X-30.137 Y29.042 E36.12112
G1 X-31.998 Y26.969 E36.26011
G1 X-33.917 Y24.95 E36.39908
G1 X-35.894 Y22.987 E36.53807
G1 X-37.206 Y21.744 E36.62824
G1 X-37.55 Y21.364 E36.65381
G1 X-37.864 Y20.864 E36.68327
G1 X-38.066 Y20.339 E36.71133
G1 X-38.163 Y19.825 E36.73743
G1 X-38.187 Y18.99 E36.7791
G1 X-38.187 Y-18.001 E38.62459
G1 X-38.177 Y-18.728 E38.66086
G1 X-38.139 Y-19.167 E38.68285
G1 X-38.036 Y-19.687 E38.70929
G1 X-37.846 Y-20.248 E38.73884
G1 X-37.577 Y-20.744 E38.767
G1 X-37.255 Y-21.205 E38.79505
G1 X-36.805 Y-21.679 E38.82766
G1 X-35.163 Y-23.23 E38.94034
G1 X-33.195 Y-25.201 E39.0793
G1 X-31.283 Y-27.227 E39.21829
G1 X-29.431 Y-29.308 E39.35727
G1 X-27.639 Y-31.441 E39.49625
G1 X-25.909 Y-33.624 E39.63522
G1 X-24.243 Y-35.856 E39.77417
G1 X-22.641 Y-38.135 E39.91315
G1 X-21.903 Y-39.229 E39.97899
G1 X-21.586 Y-39.627 E40.00438
G1 X-21.179 Y-40.023 E40.03271
G1 X-20.754 Y-40.336 E40.05904
G1 X-20.252 Y-40.609 E40.08755
G1 X-19.737 Y-40.799 E40.11493
G1 X-19.325 Y-40.896 E40.13605
G1 X-18.2 Y-41.072 E40.19286
G1 X-17.333 Y-41.195 E40.23655
G1 X-14.587 Y-41.664 E40.37553
G1 X-11.856 Y-42.212 E40.5145
G1 X-9.142 Y-42.839 E40.65346
G1 X-6.961 Y-43.409 E40.76593
G0 F2160 X-6.447 Y-43.543
G1 F1500 E33.76593
G1 F600 Z1.3
G0 F3600 X-18.601 Y-40.172 Z1.3
G1 F600 Z0.3
G1 F1500 E41.18168
G1 F2400 X18.987 Y-40.172 E43.05695
G1 X18.987 Y-52.509 E43.67245
G1 X19.027 Y-52.926 E43.69335
G1 X19.145 Y-53.328 E43.71425
G1 X19.338 Y-53.7 E43.73516
G1 X19.748 Y-54.182 E43.76673
G1 X20.072 Y-54.448 E43.78764
G1 X20.439 Y-54.649 E43.80852
G1 X20.839 Y-54.776 E43.82946
G1 X21.304 Y-54.826 E43.85279
G1 X35.07 Y-54.826 E44.53958
G1 X35.487 Y-54.786 E44.56048
G1 X35.889 Y-54.668 E44.58138
G1 X36.261 Y-54.475 E44.60229
G1 X36.743 Y-54.065 E44.63386
G1 X37.009 Y-53.741 E44.65477
G1 X37.21 Y-53.374 E44.67565
G1 X37.337 Y-52.974 E44.69659
G1 X37.387 Y-52.509 E44.71992
G1 X37.386 Y-14.297 E46.62632
G1 X37.333 Y-13.806 E46.65096
G1 X37.156 Y-13.134 E46.68563
G1 X36.909 Y-12.663 E46.71217
G1 X36.507 Y-12.13 E46.74547
G1 X36.676 Y-11.981 E46.75671
G1 X37.028 Y-11.481 E46.78722
G1 X37.226 Y-11.006 E46.81289
G1 X37.313 Y-10.393 E46.84378
G1 X37.313 Y19.531 E48.3367
G1 X37.273 Y19.948 E48.3576
G1 X37.155 Y20.35 E48.3785
G1 X36.962 Y20.722 E48.39941
G1 X36.552 Y21.204 E48.43098
G1 X36.228 Y21.47 E48.45189
G1 X35.861 Y21.671 E48.47277
G1 X35.461 Y21.798 E48.49371
G1 X34.996 Y21.848 E48.51704
G1 X21.848 Y21.848 E49.17299
G1 X21.848 Y22.37 E49.19904
G1 X21.808 Y22.787 E49.21994
G1 X21.69 Y23.189 E49.24084
G1 X21.497 Y23.561 E49.26175
G1 X21.087 Y24.043 E49.29332
G1 X20.763 Y24.309 E49.31423
G1 X20.396 Y24.51 E49.33511
G1 X19.996 Y24.637 E49.35605
G1 X19.531 Y24.687 E49.37938
G1 X13.638 Y24.687 E49.67338
G1 X21.204 Y35.102 E50.31562
G1 X21.435 Y35.498 E50.33849
G1 X21.717 Y36.216 E50.37698
G1 X21.796 Y37.028 E50.41768
G1 X21.765 Y37.491 E50.44083
G1 X21.54 Y38.227 E50.47923
G1 X21.341 Y38.637 E50.50197
G1 X20.85 Y39.241 E50.5408
G1 X20.475 Y39.569 E50.56566
G1 X19.827 Y39.918 E50.60238
G1 X19.429 Y40.065 E50.62354
G1 X18.853 Y40.158 E50.65265
G1 X18.601 Y40.172 E50.66524
G1 X-19.579 Y40.172 E52.57005
G1 X-19.996 Y40.132 E52.59095
G1 X-20.398 Y40.014 E52.61185
G1 X-20.77 Y39.821 E52.63276
G1 X-21.252 Y39.411 E52.66433
G1 X-21.518 Y39.087 E52.68525
G1 X-21.719 Y38.72 E52.70612
G1 X-21.846 Y38.32 E52.72706
G1 X-21.896 Y37.855 E52.75039
G1 X-21.896 Y24.089 E53.43718
G1 X-21.856 Y23.672 E53.45808
G1 X-21.738 Y23.27 E53.47898
G1 X-21.523 Y22.871 E53.50159
G1 X-21.747 Y22.314 E53.53155
G1 X-21.822 Y21.848 E53.55509
G1 X-35.07 Y21.848 E54.21604
G1 X-35.487 Y21.808 E54.23694
G1 X-35.889 Y21.69 E54.25784
G1 X-36.261 Y21.497 E54.27875
G1 X-36.743 Y21.087 E54.31032
G1 X-37.009 Y20.763 E54.33123
G1 X-37.21 Y20.396 E54.35211
G1 X-37.337 Y19.996 E54.37305
G1 X-37.387 Y19.531 E54.39638
G1 X-37.386 Y-18.669 E56.30219
G1 X-37.339 Y-19.133 E56.32545
G1 X-37.165 Y-19.821 E56.36086
G1 X-36.92 Y-20.297 E56.38757
G1 X-36.486 Y-20.881 E56.42387
G1 X-36.085 Y-21.22 E56.45006
G1 X-35.448 Y-21.595 E56.48694
G1 X-34.683 Y-21.806 E56.52653
G1 X-34.185 Y-21.855 E56.5515
G1 X-33.439 Y-21.754 E56.58906
G1 X-33.138 Y-21.676 E56.60457
G1 X-32.574 Y-21.415 E56.63557
G1 X-32.325 Y-21.258 E56.65026
G1 X-21.846 Y-13.645 E57.29646
G1 X-21.846 Y-22.411 E57.7338
G1 X-21.806 Y-22.828 E57.7547
G1 X-21.688 Y-23.23 E57.7756
G1 X-21.495 Y-23.602 E57.79651
G1 X-21.085 Y-24.084 E57.82808
G1 X-20.761 Y-24.35 E57.849
G1 X-20.394 Y-24.551 E57.86987
G1 X-19.994 Y-24.678 E57.89081
G1 X-19.529 Y-24.728 E57.91414
G1 X-13.668 Y-24.728 E58.20655
G1 X-21.205 Y-35.104 E58.84636
G1 X-21.437 Y-35.503 E58.86939
G1 X-21.722 Y-36.236 E58.90863
G1 X-21.796 Y-37.028 E58.94831
G1 X-21.765 Y-37.491 E58.97146
G1 X-21.54 Y-38.227 E59.00986
G1 X-21.341 Y-38.637 E59.0326
G1 X-20.85 Y-39.241 E59.07143
G1 X-20.475 Y-39.569 E59.09629
G1 X-19.823 Y-39.92 E59.13323
G1 X-19.448 Y-40.059 E59.15318
G1 X-19.129 Y-40.113 E59.16932
G0 F2160 X-18.853 Y-40.158
G0 X-18.601 Y-40.172
G0 F3600 X-18.601 Y-39.772
G1 F2400 X19.387 Y-39.772 E61.06455
G1 X19.387 Y-52.509 E61.7
G1 X19.427 Y-52.886 E61.71892
G1 X19.545 Y-53.246 E61.73782
G1 X19.735 Y-53.573 E61.75669
G1 X20.031 Y-53.899 E61.77866
G1 X20.326 Y-54.137 E61.79757
G1 X20.664 Y-54.308 E61.81646
G1 X21.03 Y-54.405 E61.83535
G1 X21.304 Y-54.426 E61.84906
G1 X35.07 Y-54.426 E62.53585
G1 X35.447 Y-54.386 E62.55477
G1 X35.807 Y-54.268 E62.57367
G1 X36.134 Y-54.078 E62.59254
G1 X36.46 Y-53.782 E62.6145
G1 X36.698 Y-53.487 E62.63341
G1 X36.869 Y-53.149 E62.65231
G1 X36.966 Y-52.783 E62.6712
G1 X36.987 Y-52.509 E62.68491
G1 X36.986 Y-14.297 E64.59132
G1 X36.943 Y-13.892 E64.61164
G1 X36.784 Y-13.282 E64.64309
G1 X36.58 Y-12.89 E64.66513
G1 X36.171 Y-12.349 E64.69897
G1 X35.885 Y-12.111 E64.71753
G1 X36.408 Y-11.682 E64.75128
G1 X36.715 Y-11.213 E64.77924
G1 X36.852 Y-10.859 E64.79818
G1 X36.913 Y-10.393 E64.82163
G1 X36.913 Y19.531 E66.31454
G1 X36.873 Y19.908 E66.33346
G1 X36.755 Y20.268 E66.35236
G1 X36.565 Y20.595 E66.37123
G1 X36.269 Y20.921 E66.3932
G1 X35.974 Y21.159 E66.41211
G1 X35.636 Y21.33 E66.431
G1 X35.27 Y21.427 E66.44989
G1 X34.996 Y21.448 E66.4636
G1 X21.448 Y21.448 E67.13952
G1 X21.448 Y22.37 E67.18552
G1 X21.408 Y22.747 E67.20443
G1 X21.29 Y23.107 E67.22333
G1 X21.1 Y23.434 E67.2422
