;FLAVOR:Marlin
;TIME:2309
;Filament used: 1.96037m
;Layer height: 0.12
;MINX:-20.8
;MINY:-12.518
;MINZ:0.3
;MAXX:20.8
;MAXY:14.95
;MAXZ:19.98
;Generated with Cura_SteamEngine 4.12.1
M140 S50
M105
M190 S50
M104 S210
M105
M109 S210
M82 ;absolute extrusion mode
;FLAVOR:Marlin
M82 ;absolute extrusion mode
G21
G90
M82
M107 T0
G28
G92 E0
G0 E3 F200
G92 E0 ; reset extrusion distance
M106 S255 ; Enable cooling fan full speed
G1 X-98 Y0 Z0.4 F3000 ; move to arc start
G3 X0 Y-98 I98 Z0.4 E40 F400 ; lay arc stripe 90deg
G92 E0 ; reset extrusion distance
G4 P500 ; wait for 0.5 sec
G0 Z10 E-1 ; Lift 15mm and retract 1mm filament
G4 P2000 ; wait for 5 sec
G0 Z15
M107 ; Disable cooling fan
G1 X0 Y-85 Z4 E0 F3000 ; get off the bed
G92 E0
G92 E0
G1 F1500 E-7
;LAYER_COUNT:166
;LAYER:0
M107
G1 F600 Z1.3
G0 F3600 X3.3 Y3.604 Z1.3
;TYPE:SKIRT
G1 F600 Z0.3
G1 F1500 E0.41575
G1 F2400 X3.301 Y-6.75 E0.93231
G1 X3.341 Y-7.167 E0.95321
G1 X3.459 Y-7.569 E0.97412
G1 X3.652 Y-7.942 E0.99507
G1 X3.911 Y-8.271 E1.01596
G1 X4.361 Y-8.621 E1.0444
G1 X4.458 Y-8.952 E1.06161
G1 X4.651 Y-9.324 E1.08252
G1 X4.91 Y-9.653 E1.10341
G1 X5.227 Y-9.927 E1.12431
G1 X5.59 Y-10.136 E1.14521
G1 X5.987 Y-10.272 E1.16614
G1 X6.5 Y-10.333 E1.19192
G1 X13 Y-10.332 E1.51621
G1 X13.417 Y-10.292 E1.5371
G1 X13.819 Y-10.174 E1.55801
G1 X14.192 Y-9.981 E1.57896
G1 X14.521 Y-9.722 E1.59985
G1 X14.795 Y-9.405 E1.62075
G1 X15.003 Y-9.041 E1.64167
G1 X15.139 Y-8.645 E1.66256
G1 X15.2 Y-8.132 E1.68833
G1 X15.2 Y9.565 E2.57124
G1 X15.259 Y9.737 E2.58031
G1 X15.32 Y10.25 E2.60609
G1 X15.32 Y12.75 E2.73081
G1 X15.28 Y13.167 E2.75171
G1 X15.162 Y13.569 E2.77261
G1 X14.969 Y13.941 E2.79352
G1 X14.71 Y14.27 E2.81441
G1 X14.393 Y14.544 E2.83531
G1 X14.03 Y14.753 E2.85621
G1 X13.633 Y14.889 E2.87715
G1 X13.12 Y14.95 E2.90292
G1 X-13.12 Y14.95 E4.21204
G1 X-13.537 Y14.91 E4.23294
G1 X-13.939 Y14.792 E4.25384
G1 X-14.311 Y14.599 E4.27475
G1 X-14.64 Y14.34 E4.29564
G1 X-14.914 Y14.023 E4.31655
G1 X-15.123 Y13.66 E4.33744
G1 X-15.259 Y13.263 E4.35838
G1 X-15.32 Y12.75 E4.38415
G1 X-15.32 Y10.25 E4.50888
G1 X-15.28 Y9.833 E4.52978
G1 X-15.2 Y9.56 E4.54397
G1 X-15.2 Y-8.132 E5.42663
G1 X-15.16 Y-8.549 E5.44753
G1 X-15.042 Y-8.951 E5.46843
G1 X-14.849 Y-9.323 E5.48934
G1 X-14.59 Y-9.652 E5.51023
G1 X-14.273 Y-9.926 E5.53113
G1 X-13.91 Y-10.135 E5.55203
G1 X-13.513 Y-10.271 E5.57297
G1 X-13 Y-10.332 E5.59874
G1 X-6.5 Y-10.332 E5.92303
G1 X-6.083 Y-10.292 E5.94393
G1 X-5.681 Y-10.174 E5.96483
G1 X-5.309 Y-9.981 E5.98574
G1 X-4.98 Y-9.722 E6.00663
G1 X-4.706 Y-9.405 E6.02753
G1 X-4.497 Y-9.042 E6.04843
G1 X-4.359 Y-8.625 E6.07034
G1 X-3.98 Y-8.34 E6.094
G1 X-3.706 Y-8.023 E6.1149
G1 X-3.497 Y-7.66 E6.1358
G1 X-3.361 Y-7.263 E6.15674
G1 X-3.3 Y-6.75 E6.18251
G1 X-3.3 Y3.608 E6.69927
G1 X-3.242 Y4.287 E6.73327
G1 X-3.078 Y4.895 E6.76469
G1 X-2.802 Y5.482 E6.79705
G1 X-2.447 Y5.982 E6.82765
G1 X-2.001 Y6.415 E6.85866
G1 X-1.503 Y6.748 E6.88855
G1 X-.962 Y6.979 E6.91789
G1 X-.38 Y7.108 E6.94763
G1 X0.195 Y7.125 E6.97633
G1 X0.786 Y7.03 E7.0062
G1 X1.337 Y6.831 E7.03542
G1 X1.843 Y6.534 E7.0647
G1 X2.301 Y6.14 E7.09484
G1 X2.702 Y5.641 E7.12678
G1 X2.993 Y5.102 E7.15734
G1 X3.206 Y4.464 E7.19089
G1 X3.253 Y4.133 E7.20757
G0 F2160 X3.293 Y3.847
G0 X3.3 Y3.604
G0 F3600 X3.7 Y3.616
G1 F2400 X3.701 Y-6.75 E7.72473
G1 X3.741 Y-7.127 E7.74365
G1 X3.859 Y-7.487 E7.76255
G1 X4.05 Y-7.815 E7.78148
G1 X4.305 Y-8.095 E7.80038
G1 X4.725 Y-8.365 E7.82529
G1 X4.858 Y-8.87 E7.85134
G1 X5.048 Y-9.197 E7.87021
G1 X5.303 Y-9.478 E7.88914
G1 X5.612 Y-9.698 E7.90807
G1 X5.959 Y-9.85 E7.92697
G1 X6.5 Y-9.933 E7.95427
G1 X13 Y-9.932 E8.27856
G1 X13.377 Y-9.892 E8.29747
G1 X13.737 Y-9.774 E8.31637
G1 X14.065 Y-9.583 E8.33531
G1 X14.345 Y-9.328 E8.3542
G1 X14.566 Y-9.02 E8.37312
G1 X14.717 Y-8.673 E8.392
G1 X14.8 Y-8.132 E8.4193
G1 X14.8 Y9.625 E9.3052
G1 X14.837 Y9.709 E9.30978
G1 X14.92 Y10.25 E9.33709
G1 X14.92 Y12.75 E9.46181
G1 X14.88 Y13.127 E9.48073
G1 X14.762 Y13.487 E9.49963
G1 X14.572 Y13.814 E9.5185
G1 X14.317 Y14.095 E9.53743
G1 X14.008 Y14.315 E9.55635
G1 X13.661 Y14.467 E9.57525
G1 X13.12 Y14.55 E9.60256
G1 X-13.12 Y14.55 E10.91168
G1 X-13.497 Y14.51 E10.93059
G1 X-13.857 Y14.392 E10.94949
G1 X-14.184 Y14.202 E10.96836
G1 X-14.465 Y13.947 E10.98729
G1 X-14.685 Y13.638 E11.00622
G1 X-14.837 Y13.291 E11.02512
G1 X-14.92 Y12.75 E11.05242
G1 X-14.92 Y10.25 E11.17715
G1 X-14.88 Y9.873 E11.19606
G1 X-14.8 Y9.629 E11.20887
G1 X-14.8 Y-8.132 E12.09497
G1 X-14.76 Y-8.509 E12.11389
G1 X-14.642 Y-8.869 E12.13279
G1 X-14.452 Y-9.196 E12.15166
G1 X-14.197 Y-9.477 E12.17059
G1 X-13.888 Y-9.697 E12.18951
G1 X-13.541 Y-9.849 E12.20841
G1 X-13 Y-9.932 E12.23572
G1 X-6.5 Y-9.932 E12.56
G1 X-6.123 Y-9.892 E12.57892
G1 X-5.763 Y-9.774 E12.59782
G1 X-5.436 Y-9.584 E12.61669
G1 X-5.155 Y-9.329 E12.63562
G1 X-4.935 Y-9.02 E12.65454
G1 X-4.783 Y-8.673 E12.67344
G1 X-4.738 Y-8.377 E12.68838
G1 X-4.436 Y-8.202 E12.70579
G1 X-4.155 Y-7.947 E12.72472
G1 X-3.935 Y-7.638 E12.74365
G1 X-3.783 Y-7.291 E12.76255
G1 X-3.7 Y-6.75 E12.78985
G1 X-3.7 Y3.62 E13.30722
G1 X-3.636 Y4.358 E13.34417
G1 X-3.455 Y5.031 E13.37894
G1 X-3.154 Y5.671 E13.41423
G1 X-2.752 Y6.242 E13.44907
G1 X-2.253 Y6.727 E13.48378
G1 X-1.693 Y7.1 E13.51735
G1 X-1.085 Y7.36 E13.55034
G1 X-.429 Y7.505 E13.58386
G1 X0.215 Y7.525 E13.616
G1 X0.884 Y7.418 E13.64981
G1 X1.503 Y7.194 E13.68265
G1 X2.073 Y6.861 E13.71558
G1 X2.595 Y6.412 E13.74993
G1 X3.033 Y5.865 E13.78489
G1 X3.362 Y5.258 E13.81934
G1 X3.594 Y4.559 E13.85608
G1 X3.653 Y4.145 E13.87695
G0 F2160 X3.693 Y3.855
G0 X3.7 Y3.616
G0 F3600 X4.1 Y3.637
G1 F2400 X4.101 Y-6.75 E14.39516
G1 X4.141 Y-7.082 E14.41184
G1 X4.258 Y-7.395 E14.42851
G1 X4.446 Y-7.671 E14.44517
G1 X4.694 Y-7.894 E14.46181
G1 X5.1 Y-8.133 E14.48531
G1 X5.14 Y-8.465 E14.502
G1 X5.257 Y-8.777 E14.51862
G1 X5.445 Y-9.054 E14.53532
G1 X5.693 Y-9.277 E14.55196
G1 X5.987 Y-9.436 E14.56864
G1 X6.5 Y-9.533 E14.59469
G1 X13 Y-9.532 E14.91897
G1 X13.332 Y-9.492 E14.93566
G1 X13.645 Y-9.375 E14.95233
G1 X13.921 Y-9.187 E14.96899
G1 X14.144 Y-8.938 E14.98566
G1 X14.303 Y-8.644 E15.00234
G1 X14.4 Y-8.132 E15.02834
G1 X14.4 Y9.694 E15.91768
G1 X14.507 Y10.061 E15.93675
G1 X14.52 Y10.25 E15.9462
G1 X14.52 Y12.75 E16.07093
G1 X14.48 Y13.082 E16.08761
G1 X14.363 Y13.394 E16.10424
G1 X14.175 Y13.671 E16.12094
G1 X13.927 Y13.894 E16.13758
G1 X13.633 Y14.053 E16.15425
G1 X13.12 Y14.15 E16.1803
G1 X-13.12 Y14.15 E17.48942
G1 X-13.452 Y14.11 E17.5061
G1 X-13.764 Y13.993 E17.52273
G1 X-14.041 Y13.805 E17.53943
G1 X-14.264 Y13.557 E17.55607
G1 X-14.423 Y13.263 E17.57274
G1 X-14.52 Y12.75 E17.59879
G1 X-14.52 Y10.25 E17.72352
G1 X-14.48 Y9.918 E17.7402
G1 X-14.4 Y9.705 E17.75155
G1 X-14.4 Y-8.132 E18.64144
G1 X-14.36 Y-8.464 E18.65812
G1 X-14.243 Y-8.776 E18.67475
G1 X-14.055 Y-9.053 E18.69145
G1 X-13.807 Y-9.276 E18.70809
G1 X-13.513 Y-9.435 E18.72477
G1 X-13 Y-9.532 E18.75081
G1 X-6.5 Y-9.532 E19.0751
G1 X-6.168 Y-9.492 E19.09178
G1 X-5.856 Y-9.375 E19.10841
G1 X-5.579 Y-9.187 E19.12511
G1 X-5.356 Y-8.939 E19.14175
G1 X-5.197 Y-8.645 E19.15842
G1 X-5.1 Y-8.132 E19.18447
G1 X-5.1 Y-8.085 E19.18681
G1 X-4.856 Y-7.993 E19.19982
G1 X-4.579 Y-7.805 E19.21653
G1 X-4.356 Y-7.557 E19.23317
G1 X-4.197 Y-7.263 E19.24984
G1 X-4.1 Y-6.75 E19.27589
G1 X-4.1 Y3.637 E19.7941
G1 X-4.068 Y4.171 E19.82079
G1 X-3.98 Y4.665 E19.84582
G1 X-3.828 Y5.176 E19.87242
G1 X-3.623 Y5.648 E19.89809
G1 X-3.363 Y6.094 E19.92385
G1 X-3.062 Y6.494 E19.94882
G1 X-2.706 Y6.864 E19.97444
G1 X-2.301 Y7.191 E20.00041
G1 X-1.668 Y7.559 E20.03694
G1 X-1.195 Y7.745 E20.0623
G1 X-.497 Y7.9 E20.09797
G1 X0.004 Y7.932 E20.12301
G1 X0.739 Y7.861 E20.15985
G1 X1.449 Y7.654 E20.19675
G1 X2.118 Y7.313 E20.23421
G1 X2.703 Y6.865 E20.27097
G1 X3.059 Y6.495 E20.29659
G1 X3.372 Y6.078 E20.3226
G1 X3.625 Y5.644 E20.34766
G1 X3.831 Y5.164 E20.37372
G1 X3.987 Y4.637 E20.40114
G1 X4.053 Y4.166 E20.42487
G0 F2160 X4.092 Y3.882
G0 X4.1 Y3.637
G0 F3600 X4.5 Y3.607
G1 F2400 X4.501 Y-6.75 E20.94158
G1 X4.541 Y-7.029 E20.95565
G1 X4.657 Y-7.286 E20.96971
G1 X4.841 Y-7.501 E20.98383
G1 X5.077 Y-7.655 E20.99789
G1 X5.5 Y-7.75 E21.01952
G1 X5.54 Y-8.412 E21.05261
G1 X5.656 Y-8.669 E21.06668
G1 X5.839 Y-8.884 E21.08076
G1 X6.075 Y-9.038 E21.09482
G1 X6.5 Y-9.133 E21.11655
G1 X13 Y-9.132 E21.44083
G1 X13.279 Y-9.092 E21.45489
G1 X13.537 Y-8.976 E21.46901
G1 X13.751 Y-8.792 E21.48309
G1 X13.905 Y-8.556 E21.49715
G1 X14 Y-8.132 E21.51883
G1 X14 Y9.787 E22.41281
G1 X14.108 Y10.095 E22.42909
G1 X14.12 Y10.25 E22.43685
G1 X14.12 Y12.75 E22.56157
G1 X14.08 Y13.029 E22.57563
G1 X13.964 Y13.286 E22.5897
G1 X13.781 Y13.501 E22.60379
G1 X13.545 Y13.655 E22.61785
G1 X13.12 Y13.75 E22.63957
G1 X-13.12 Y13.75 E23.94869
G1 X-13.399 Y13.71 E23.96275
G1 X-13.656 Y13.594 E23.97682
G1 X-13.871 Y13.411 E23.99091
G1 X-14.025 Y13.175 E24.00497
G1 X-14.12 Y12.75 E24.02669
G1 X-14.12 Y10.25 E24.15142
G1 X-14.08 Y9.971 E24.16548
G1 X-14 Y9.794 E24.17517
G1 X-14 Y-8.132 E25.0695
G1 X-13.96 Y-8.411 E25.08356
G1 X-13.844 Y-8.668 E25.09763
G1 X-13.661 Y-8.883 E25.11172
G1 X-13.425 Y-9.037 E25.12578
G1 X-13 Y-9.132 E25.1475
G1 X-6.5 Y-9.132 E25.47179
G1 X-6.221 Y-9.092 E25.48585
G1 X-5.964 Y-8.976 E25.49992
G1 X-5.749 Y-8.793 E25.514
G1 X-5.595 Y-8.557 E25.52806
G1 X-5.5 Y-8.132 E25.54979
G1 X-5.5 Y-7.75 E25.56885
G1 X-5.221 Y-7.71 E25.58291
G1 X-4.964 Y-7.594 E25.59698
G1 X-4.749 Y-7.411 E25.61106
G1 X-4.595 Y-7.175 E25.62512
G1 X-4.5 Y-6.75 E25.64685
G1 X-4.5 Y3.608 E26.16361
G1 X-4.466 Y4.213 E26.19384
G1 X-4.373 Y4.739 E26.22049
G1 X-4.204 Y5.312 E26.2503
G1 X-3.973 Y5.843 E26.27919
G1 X-3.693 Y6.319 E26.30674
G1 X-3.367 Y6.754 E26.33386
G1 X-2.973 Y7.161 E26.36212
G1 X-2.531 Y7.519 E26.3905
G1 X-2.079 Y7.801 E26.41708
G1 X-1.581 Y8.032 E26.44446
G1 X-1.066 Y8.197 E26.47144
G1 X-.544 Y8.297 E26.49796
G1 X0.004 Y8.331 E26.52535
G1 X0.529 Y8.299 E26.55159
G1 X1.071 Y8.196 E26.57912
G1 X1.589 Y8.029 E26.60627
G1 X2.087 Y7.797 E26.63368
G1 X2.543 Y7.509 E26.66059
G1 X2.984 Y7.151 E26.68893
G1 X3.369 Y6.748 E26.71673
G1 X3.696 Y6.314 E26.74384
G1 X3.976 Y5.837 E26.77144
G1 X4.207 Y5.303 E26.80046
G1 X4.376 Y4.733 E26.83013
G1 X4.468 Y4.197 E26.85726
G1 X4.472 Y4.139 E26.86016
G0 F2160 X4.5 Y3.607
G0 F3600 X4.9 Y3.619
G1 F2400 X4.901 Y-6.75 E27.37747
G1 X4.941 Y-6.965 E27.38838
G1 X5.054 Y-7.151 E27.39924
G1 X5.227 Y-7.284 E27.41012
G1 X5.501 Y-7.35 E27.42419
G1 X5.9 Y-7.35 E27.44409
G1 X5.9 Y-8.133 E27.48316
G1 X5.94 Y-8.348 E27.49407
G1 X6.053 Y-8.534 E27.50492
G1 X6.226 Y-8.667 E27.51581
G1 X6.5 Y-8.733 E27.52987
G1 X13 Y-8.732 E27.85416
G1 X13.215 Y-8.692 E27.86507
G1 X13.401 Y-8.579 E27.87593
G1 X13.534 Y-8.406 E27.88681
G1 X13.6 Y-8.132 E27.90087
G1 X13.6 Y9.906 E28.80079
G1 X13.654 Y9.976 E28.8052
G1 X13.72 Y10.25 E28.81927
G1 X13.72 Y12.75 E28.94399
G1 X13.68 Y12.965 E28.9549
G1 X13.567 Y13.151 E28.96576
G1 X13.394 Y13.284 E28.97665
G1 X13.12 Y13.35 E28.99071
G1 X-13.12 Y13.35 E30.29983
G1 X-13.335 Y13.31 E30.31074
G1 X-13.521 Y13.197 E30.32159
G1 X-13.654 Y13.024 E30.33248
G1 X-13.72 Y12.75 E30.34654
G1 X-13.72 Y10.25 E30.47127
G1 X-13.68 Y10.035 E30.48218
G1 X-13.6 Y9.903 E30.48988
G1 X-13.6 Y-8.132 E31.38965
G1 X-13.56 Y-8.347 E31.40056
G1 X-13.447 Y-8.533 E31.41142
G1 X-13.274 Y-8.666 E31.4223
G1 X-13 Y-8.732 E31.43636
G1 X-6.5 Y-8.732 E31.76065
G1 X-6.285 Y-8.692 E31.77156
G1 X-6.099 Y-8.579 E31.78242
G1 X-5.966 Y-8.406 E31.79331
G1 X-5.9 Y-8.132 E31.80737
G1 X-5.9 Y-7.35 E31.84638
G1 X-5.5 Y-7.35 E31.86634
G1 X-5.285 Y-7.31 E31.87725
G1 X-5.099 Y-7.197 E31.88811
G1 X-4.966 Y-7.024 E31.89899
G1 X-4.9 Y-6.75 E31.91305
G1 X-4.9 Y3.637 E32.43126
G1 X-4.863 Y4.254 E32.4621
G1 X-4.765 Y4.824 E32.49095
G1 X-4.581 Y5.447 E32.52336
G1 X-4.328 Y6.027 E32.55493
G1 X-4.031 Y6.534 E32.58425
G1 X-3.672 Y7.013 E32.61411
G1 X-3.233 Y7.466 E32.64558
G1 X-2.773 Y7.838 E32.6751
G1 X-2.269 Y8.153 E32.70475
G1 X-1.728 Y8.404 E32.7345
G1 X-1.171 Y8.584 E32.76371
G1 X-.576 Y8.696 E32.79391
G1 X0.004 Y8.731 E32.8229
G1 X0.583 Y8.696 E32.85184
G1 X1.185 Y8.58 E32.88243
G1 X1.737 Y8.4 E32.9114
G1 X2.268 Y8.154 E32.94059
G1 X2.782 Y7.83 E32.9709
G1 X3.238 Y7.461 E33.00017
G1 X3.673 Y7.009 E33.03147
G1 X4.035 Y6.526 E33.06158
G1 X4.338 Y6.007 E33.09156
G1 X4.582 Y5.443 E33.12222
G1 X4.761 Y4.842 E33.15351
G1 X4.865 Y4.237 E33.18413
G1 X4.87 Y4.151 E33.18843
G0 F2160 X4.9 Y3.619
G0 F3600 X5.3 Y3.631
G1 F2400 X5.301 Y-6.75 E33.70634
G1 X5.34 Y-6.869 E33.71259
G1 X5.501 Y-6.95 E33.72158
G1 X6.352 Y-6.95 E33.76404
G1 X6.3 Y-7.053 E33.76979
G1 X6.3 Y-8.133 E33.82368
G1 X6.339 Y-8.252 E33.82992
G1 X6.5 Y-8.333 E33.83891
G1 X13 Y-8.332 E34.1632
G1 X13.119 Y-8.293 E34.16945
G1 X13.2 Y-8.132 E34.17844
G1 X13.2 Y10.076 E35.08684
G1 X13.32 Y10.25 E35.09739
G1 X13.32 Y12.75 E35.22211
G1 X13.281 Y12.869 E35.22836
G1 X13.12 Y12.95 E35.23735
G1 X-13.12 Y12.95 E36.54647
G1 X-13.239 Y12.911 E36.55272
G1 X-13.32 Y12.75 E36.56171
G1 X-13.32 Y10.25 E36.68643
G1 X-13.281 Y10.131 E36.69268
G1 X-13.2 Y10.09 E36.69721
G1 X-13.2 Y-8.132 E37.60631
G1 X-13.161 Y-8.251 E37.61256
G1 X-13 Y-8.332 E37.62155
G1 X-6.5 Y-8.332 E37.94584
G1 X-6.381 Y-8.293 E37.95208
G1 X-6.3 Y-8.132 E37.96108
G1 X-6.3 Y-7.052 E38.01496
G1 X-6.333 Y-6.95 E38.02031
G1 X-5.5 Y-6.95 E38.06186
G1 X-5.381 Y-6.911 E38.06811
G1 X-5.3 Y-6.75 E38.0771
G1 X-5.3 Y3.637 E38.59531
G1 X-5.262 Y4.295 E38.6282
G1 X-5.149 Y4.937 E38.66072
G1 X-4.953 Y5.595 E38.69497
G1 X-4.684 Y6.21 E38.72846
G1 X-4.357 Y6.767 E38.76068
G1 X-3.977 Y7.272 E38.79221
G1 X-3.508 Y7.757 E38.82587
G1 X-3.002 Y8.165 E38.8583
G1 X-2.453 Y8.509 E38.89062
G1 X-1.869 Y8.779 E38.92272
G1 X-1.269 Y8.972 E38.95417
G1 X-.627 Y9.093 E38.98676
G1 X0.004 Y9.132 E39.0183
G1 X0.637 Y9.092 E39.04995
G1 X1.271 Y8.972 E39.08214
G1 X1.877 Y8.776 E39.11391
G1 X2.472 Y8.498 E39.14668
G1 X3.012 Y8.157 E39.17854
G1 X3.515 Y7.75 E39.21082
G1 X3.975 Y7.272 E39.24392
G1 X4.368 Y6.749 E39.27656
G1 X4.689 Y6.2 E39.30828
G1 X4.957 Y5.583 E39.34185
G1 X5.156 Y4.914 E39.37667
G1 X5.263 Y4.283 E39.4086
G1 X5.27 Y4.162 E39.41464
G0 F2160 X5.3 Y3.631
G1 F1500 E32.41464
G1 F600 Z1.3
;MESH:DJI_CAM_Mount.3mf
G0 F3600 X-12.8 Y10.45 Z1.3
;TYPE:WALL-OUTER
G1 F600 Z0.3
G1 F1500 E39.8304
G1 F2400 X-12.8 Y-7.932 E40.74748
G1 X-6.7 Y-7.932 E41.05181
G1 X-6.7 Y-7.252 E41.08573
G1 X-8.212 Y-7.252 E41.16117
G1 X-8.796 Y-7.168 E41.1906
G1 X-9.31 Y-6.942 E41.21862
G1 X-9.474 Y-6.84 E41.22825
G1 X-9.391 Y-6.55 E41.2433
G1 X-5.7 Y-6.55 E41.42745
G1 X-5.7 Y3.64 E41.93583
G1 X-5.659 Y4.348 E41.97121
G1 X-5.535 Y5.048 E42.00667
G1 X-5.331 Y5.727 E42.04205
G1 X-5.049 Y6.376 E42.07735
G1 X-4.692 Y6.986 E42.11261
G1 X-4.268 Y7.546 E42.14765
G1 X-3.78 Y8.049 E42.18262
G1 X-3.238 Y8.489 E42.21745
G1 X-2.648 Y8.858 E42.25217
G1 X-2.02 Y9.149 E42.2867
G1 X-1.361 Y9.362 E42.32125
G1 X-.684 Y9.49 E42.35562
G1 X0.004 Y9.532 E42.39001
G1 X0.693 Y9.488 E42.42446
G1 X1.371 Y9.36 E42.45888
G1 X2.028 Y9.146 E42.49335
G1 X2.657 Y8.853 E42.52797
G1 X3.245 Y8.483 E42.56263
G1 X3.787 Y8.042 E42.59749
G1 X4.274 Y7.538 E42.63246
G1 X4.697 Y6.977 E42.66751
G1 X5.053 Y6.366 E42.70279
G1 X5.334 Y5.717 E42.73807
G1 X5.537 Y5.036 E42.77353
G1 X5.66 Y4.336 E42.80898
G1 X5.7 Y3.64 E42.84376
G1 X5.7 Y-6.55 E43.35215
G1 X9.393 Y-6.55 E43.53639
G1 X9.474 Y-6.843 E43.55156
G1 X9.009 Y-7.095 E43.57794
G1 X8.578 Y-7.217 E43.60029
G1 X8.205 Y-7.253 E43.61899
G1 X6.7 Y-7.252 E43.69407
G1 X6.7 Y-7.933 E43.72805
G1 X12.8 Y-7.932 E44.03238
G1 X12.8 Y10.45 E44.94946
G1 X12.92 Y10.45 E44.95544
G1 X12.92 Y12.55 E45.06021
G1 X-12.92 Y12.55 E46.34938
