(1001)
(T5  D=3.175 CR=0 - ZMIN=-12.5 - Schaftfraser)
G90 G94
G17
G21

(Bohrfrasen1)
T5
S4000 M3
G54
G0 X-1.961 Y5.209
Z15
Z2.682
G1 Z1 F1000
X-2.12 Y5.212
X-2.153 Y5.207
X-2.183 Y5.193
X-2.207 Y5.17
X-2.222 Y5.14
X-2.228 Y5.108
G3 X-1.803 Y5.1 Z0.75 I0.212 J-0.004
X-2.228 Y5.108 Z0.5 I-0.212 J0.004
X-1.803 Y5.1 Z0.25 I0.212 J-0.004
X-2.228 Y5.108 Z0 I-0.212 J0.004
X-1.803 Y5.1 Z-0.25 I0.212 J-0.004
X-2.228 Y5.108 Z-0.5 I-0.212 J0.004
X-1.803 Y5.1 Z-0.75 I0.212 J-0.004
X-2.228 Y5.108 Z-1 I-0.212 J0.004
X-1.803 Y5.1 Z-1.25 I0.212 J-0.004
X-2.228 Y5.108 Z-1.5 I-0.212 J0.004
X-1.803 Y5.1 Z-1.75 I0.212 J-0.004
X-1.911 Y5.289 Z-1.835 I-0.212 J0.004
X-2.121 Y4.919 I-0.105 J-0.185
X-1.911 Y5.289 I0.105 J0.185
G1 X-1.942 Y5.3
X-1.975 Y5.302
X-2.007 Y5.293
X-2.035 Y5.275
X-2.056 Y5.249
X-2.134 Y5.111
G0 Z5
X-3.323 Y22.947
Z3
G1 Z1.317 F1000
X-3.331 Z1.247
X-3.355 Y22.948 Z1.18
X-3.393 Z1.12
X-3.443 Y22.949 Z1.069
X-3.503 Y22.95 Z1.031
X-3.57 Y22.951 Z1.008
X-3.641 Y22.953 Z1
X-3.799 Y22.955
G3 X-4.122 Y22.643 I-0.006 J-0.317
X0.702 Y22.559 Z0.75 I2.412 J-0.042
X-4.122 Y22.643 Z0.5 I-2.412 J0.042
X0.702 Y22.559 Z0.25 I2.412 J-0.042
X-4.122 Y22.643 Z0 I-2.412 J0.042
X0.702 Y22.559 Z-0.25 I2.412 J-0.042
X-4.122 Y22.643 Z-0.5 I-2.412 J0.042
X0.702 Y22.559 Z-0.75 I2.412 J-0.042
X-4.122 Y22.643 Z-1 I-2.412 J0.042
X0.702 Y22.559 Z-1.25 I2.412 J-0.042
X-4.122 Y22.643 Z-1.5 I-2.412 J0.042
X0.702 Y22.559 Z-1.75 I2.412 J-0.042
X-4.122 Y22.643 Z-2 I-2.412 J0.042
X0.702 Y22.559 Z-2.25 I2.412 J-0.042
X-4.122 Y22.643 Z-2.5 I-2.412 J0.042
X0.702 Y22.559 Z-2.75 I2.412 J-0.042
X-4.122 Y22.643 Z-3 I-2.412 J0.042
X0.702 Y22.559 Z-3.25 I2.412 J-0.042
X-4.122 Y22.643 Z-3.5 I-2.412 J0.042
X0.702 Y22.559 I2.412 J-0.042
X-4.122 Y22.643 I-2.412 J0.042
X-3.811 Y22.32 I0.317 J-0.006
G1 X-3.652 Y22.318
X-3.581 Y22.316 Z-3.492
X-3.514 Y22.315 Z-3.469
X-3.454 Y22.314 Z-3.431
X-3.404 Y22.313 Z-3.38
X-3.366 Z-3.32
X-3.342 Y22.312 Z-3.253
X-3.334 Z-3.182
G0 Z5
X-1.351 Y40.204
Z2.682
G1 Z1 F1000
X-1.509 Y40.207
X-1.542 Y40.202
X-1.572 Y40.188
X-1.596 Y40.164
X-1.612 Y40.135
X-1.617 Y40.102
G3 X-1.192 Y40.095 Z0.75 I0.212 J-0.004
X-1.617 Y40.102 Z0.5 I-0.212 J0.004
X-1.192 Y40.095 Z0.25 I0.212 J-0.004
X-1.617 Y40.102 Z0 I-0.212 J0.004
X-1.192 Y40.095 Z-0.25 I0.212 J-0.004
X-1.617 Y40.102 Z-0.5 I-0.212 J0.004
X-1.192 Y40.095 Z-0.75 I0.212 J-0.004
X-1.617 Y40.102 Z-1 I-0.212 J0.004
X-1.192 Y40.095 Z-1.25 I0.212 J-0.004
X-1.617 Y40.102 Z-1.5 I-0.212 J0.004
X-1.192 Y40.095 Z-1.75 I0.212 J-0.004
X-1.3 Y40.283 Z-1.835 I-0.212 J0.004
X-1.51 Y39.914 I-0.105 J-0.185
X-1.3 Y40.283 I0.105 J0.185
G1 X-1.331 Y40.295
X-1.364 Y40.297
X-1.396 Y40.288
X-1.424 Y40.269
X-1.445 Y40.244
X-1.523 Y40.106
G0 Z15

(Bohrfrasen1 3)
X-1.961 Y5.209
Z15
Z-7.982
G1 Z-9.665 F1000
X-2.12 Y5.212
X-2.153 Y5.207
X-2.183 Y5.193
X-2.207 Y5.17
X-2.222 Y5.14
X-2.228 Y5.108
G3 X-1.803 Y5.1 Z-9.915 I0.212 J-0.004
X-2.228 Y5.108 Z-10.165 I-0.212 J0.004
X-1.803 Y5.1 Z-10.415 I0.212 J-0.004
X-2.228 Y5.108 Z-10.665 I-0.212 J0.004
X-1.803 Y5.1 Z-10.915 I0.212 J-0.004
X-2.228 Y5.108 Z-11.165 I-0.212 J0.004
X-1.803 Y5.1 Z-11.415 I0.212 J-0.004
X-2.228 Y5.108 Z-11.665 I-0.212 J0.004
X-1.803 Y5.1 Z-11.915 I0.212 J-0.004
X-2.228 Y5.108 Z-12.165 I-0.212 J0.004
X-1.803 Y5.1 Z-12.415 I0.212 J-0.004
X-1.911 Y5.289 Z-12.5 I-0.212 J0.004
X-2.121 Y4.919 I-0.105 J-0.185
X-1.911 Y5.289 I0.105 J0.185
G1 X-1.942 Y5.3
X-1.975 Y5.302
X-2.007 Y5.293
X-2.035 Y5.275
X-2.056 Y5.249
X-2.134 Y5.111
G0 Z5
X-1.351 Y40.204
Z-7.982
G1 Z-9.665 F1000
X-1.509 Y40.207
X-1.542 Y40.202
X-1.572 Y40.188
X-1.596 Y40.164
X-1.612 Y40.135
X-1.617 Y40.102
G3 X-1.192 Y40.095 Z-9.915 I0.212 J-0.004
X-1.617 Y40.102 Z-10.165 I-0.212 J0.004
X-1.192 Y40.095 Z-10.415 I0.212 J-0.004
X-1.617 Y40.102 Z-10.665 I-0.212 J0.004
X-1.192 Y40.095 Z-10.915 I0.212 J-0.004
X-1.617 Y40.102 Z-11.165 I-0.212 J0.004
X-1.192 Y40.095 Z-11.415 I0.212 J-0.004
X-1.617 Y40.102 Z-11.665 I-0.212 J0.004
X-1.192 Y40.095 Z-11.915 I0.212 J-0.004
X-1.617 Y40.102 Z-12.165 I-0.212 J0.004
X-1.192 Y40.095 Z-12.415 I0.212 J-0.004
X-1.3 Y40.283 Z-12.5 I-0.212 J0.004
X-1.51 Y39.914 I-0.105 J-0.185
X-1.3 Y40.283 I0.105 J0.185
G1 X-1.331 Y40.295
X-1.364 Y40.297
X-1.396 Y40.288
X-1.424 Y40.269
X-1.445 Y40.244
X-1.523 Y40.106
G0 Z5
X-3.323 Y22.947
Z-6
G1 Z-7.682 F1000
X-3.331 Z-7.753
X-3.355 Y22.948 Z-7.82
X-3.393 Z-7.88
X-3.443 Y22.949 Z-7.931
X-3.503 Y22.95 Z-7.969
X-3.57 Y22.951 Z-7.992
X-3.641 Y22.953 Z-8
X-3.799 Y22.955
G3 X-4.122 Y22.643 I-0.006 J-0.317
X0.702 Y22.559 Z-8.25 I2.412 J-0.042
X-4.122 Y22.643 Z-8.5 I-2.412 J0.042
X0.702 Y22.559 Z-8.75 I2.412 J-0.042
X-4.122 Y22.643 Z-9 I-2.412 J0.042
X0.702 Y22.559 Z-9.25 I2.412 J-0.042
X-4.122 Y22.643 Z-9.5 I-2.412 J0.042
X0.702 Y22.559 Z-9.75 I2.412 J-0.042
X-4.122 Y22.643 Z-10 I-2.412 J0.042
X0.702 Y22.559 Z-10.25 I2.412 J-0.042
X-4.122 Y22.643 Z-10.5 I-2.412 J0.042
X0.702 Y22.559 Z-10.75 I2.412 J-0.042
X-4.122 Y22.643 Z-11 I-2.412 J0.042
X0.702 Y22.559 Z-11.25 I2.412 J-0.042
X-4.122 Y22.643 Z-11.5 I-2.412 J0.042
X0.702 Y22.559 Z-11.75 I2.412 J-0.042
X-4.122 Y22.643 Z-12 I-2.412 J0.042
X0.702 Y22.559 Z-12.25 I2.412 J-0.042
X-4.122 Y22.643 Z-12.5 I-2.412 J0.042
X0.702 Y22.559 I2.412 J-0.042
X-4.122 Y22.643 I-2.412 J0.042
X-3.811 Y22.32 I0.317 J-0.006
G1 X-3.652 Y22.318
X-3.581 Y22.316 Z-12.492
X-3.514 Y22.315 Z-12.469
X-3.454 Y22.314 Z-12.431
X-3.404 Y22.313 Z-12.38
X-3.366 Z-12.32
X-3.342 Y22.312 Z-12.253
X-3.334 Z-12.182
G0 Z15

(Bohrfrasen1 2)
X1.634 Y211.178
Z15
Z2.682
G1 Z1 F1000
X1.475 Y211.181
X1.442 Y211.176
X1.412 Y211.161
X1.388 Y211.138
X1.373 Y211.109
X1.367 Y211.076
G3 X1.792 Y211.069 Z0.75 I0.212 J-0.004
X1.367 Y211.076 Z0.5 I-0.212 J0.004
X1.792 Y211.069 Z0.25 I0.212 J-0.004
X1.367 Y211.076 Z0 I-0.212 J0.004
X1.792 Y211.069 Z-0.25 I0.212 J-0.004
X1.367 Y211.076 Z-0.5 I-0.212 J0.004
X1.792 Y211.069 Z-0.75 I0.212 J-0.004
X1.367 Y211.076 Z-1 I-0.212 J0.004
X1.792 Y211.069 Z-1.25 I0.212 J-0.004
X1.367 Y211.076 Z-1.5 I-0.212 J0.004
X1.792 Y211.069 Z-1.75 I0.212 J-0.004
X1.684 Y211.257 Z-1.835 I-0.212 J0.004
X1.474 Y210.888 I-0.105 J-0.185
X1.684 Y211.257 I0.105 J0.185
G1 X1.653 Y211.269
X1.62 Y211.271
X1.588 Y211.262
X1.56 Y211.243
X1.54 Y211.217
X1.461 Y211.079
G0 Z5
X2.053 Y235.174
Z2.682
G1 Z1 F1000
X1.894 Y235.177
X1.861 Y235.172
X1.831 Y235.158
X1.807 Y235.135
X1.792 Y235.105
X1.786 Y235.073
G3 X2.211 Y235.065 Z0.75 I0.212 J-0.004
X1.786 Y235.073 Z0.5 I-0.212 J0.004
X2.211 Y235.065 Z0.25 I0.212 J-0.004
X1.786 Y235.073 Z0 I-0.212 J0.004
X2.211 Y235.065 Z-0.25 I0.212 J-0.004
X1.786 Y235.073 Z-0.5 I-0.212 J0.004
X2.211 Y235.065 Z-0.75 I0.212 J-0.004
X1.786 Y235.073 Z-1 I-0.212 J0.004
X2.211 Y235.065 Z-1.25 I0.212 J-0.004
X1.786 Y235.073 Z-1.5 I-0.212 J0.004
X2.211 Y235.065 Z-1.75 I0.212 J-0.004
X2.103 Y235.254 Z-1.835 I-0.212 J0.004
X1.893 Y234.884 I-0.105 J-0.185
X2.103 Y235.254 I0.105 J0.185
G1 X2.072 Y235.265
X2.039 Y235.267
X2.007 Y235.258
X1.979 Y235.24
X1.958 Y235.214
X1.88 Y235.076
G0 Z15

(Bohrfrasen1 4)
X2.053 Y235.174
Z15
Z-7.982
G1 Z-9.665 F1000
X1.894 Y235.177
X1.861 Y235.172
X1.831 Y235.158
X1.807 Y235.135
X1.792 Y235.105
X1.786 Y235.073
G3 X2.211 Y235.065 Z-9.915 I0.212 J-0.004
X1.786 Y235.073 Z-10.165 I-0.212 J0.004
X2.211 Y235.065 Z-10.415 I0.212 J-0.004
X1.786 Y235.073 Z-10.665 I-0.212 J0.004
X2.211 Y235.065 Z-10.915 I0.212 J-0.004
X1.786 Y235.073 Z-11.165 I-0.212 J0.004
X2.211 Y235.065 Z-11.415 I0.212 J-0.004
X1.786 Y235.073 Z-11.665 I-0.212 J0.004
X2.211 Y235.065 Z-11.915 I0.212 J-0.004
X1.786 Y235.073 Z-12.165 I-0.212 J0.004
X2.211 Y235.065 Z-12.415 I0.212 J-0.004
X2.103 Y235.254 Z-12.5 I-0.212 J0.004
X1.893 Y234.884 I-0.105 J-0.185
X2.103 Y235.254 I0.105 J0.185
G1 X2.072 Y235.265
X2.039 Y235.267
X2.007 Y235.258
X1.979 Y235.24
X1.958 Y235.214
X1.88 Y235.076
G0 Z5
X1.634 Y211.178
Z-7.982
G1 Z-9.665 F1000
X1.475 Y211.181
X1.442 Y211.176
X1.412 Y211.161
X1.388 Y211.138
X1.373 Y211.109
X1.367 Y211.076
G3 X1.792 Y211.069 Z-9.915 I0.212 J-0.004
X1.367 Y211.076 Z-10.165 I-0.212 J0.004
X1.792 Y211.069 Z-10.415 I0.212 J-0.004
X1.367 Y211.076 Z-10.665 I-0.212 J0.004
X1.792 Y211.069 Z-10.915 I0.212 J-0.004
X1.367 Y211.076 Z-11.165 I-0.212 J0.004
X1.792 Y211.069 Z-11.415 I0.212 J-0.004
X1.367 Y211.076 Z-11.665 I-0.212 J0.004
X1.792 Y211.069 Z-11.915 I0.212 J-0.004
X1.367 Y211.076 Z-12.165 I-0.212 J0.004
X1.792 Y211.069 Z-12.415 I0.212 J-0.004
X1.684 Y211.257 Z-12.5 I-0.212 J0.004
X1.474 Y210.888 I-0.105 J-0.185
X1.684 Y211.257 I0.105 J0.185
G1 X1.653 Y211.269
X1.62 Y211.271
X1.588 Y211.262
X1.56 Y211.243
X1.54 Y211.217
X1.461 Y211.079
G0 Z15

(2D-Kontur1)
S2000 M3
X4.13 Y242.62
Z15
Z5
G1 Z2.5 F333.3
S5000
X-3.868 Y242.76 Z2
X8.13 Y242.55 Z1.25
X-3.868 Y242.76 Z0.5
X8.13 Y242.55 Z-0.25
X-3.868 Y242.76 Z-1
S2000
X8.13 Y242.55 F1000
S5000
X-3.868 Y242.76 Z-2 F333.3
S2000
X8.13 Y242.55 F1000
S5000
X-3.868 Y242.76 Z-3 F333.3
S2000
X8.13 Y242.55 F1000
S5000
X-3.868 Y242.76 Z-4 F333.3
S2000
X8.13 Y242.55 F1000
S5000
X-3.868 Y242.76 Z-5 F333.3
S2000
X8.13 Y242.55 F1000
S5000
X-3.868 Y242.76 Z-6 F333.3
S2000
X8.13 Y242.55 F1000
S5000
X-3.868 Y242.76 Z-7 F333.3
S2000
X8.13 Y242.55 F1000
S5000
X-3.868 Y242.76 Z-8 F333.3
S2000
X8.13 Y242.55 F1000
S5000
X-3.868 Y242.76 Z-9 F333.3
S2000
X8.13 Y242.55 F1000
S5000
X-3.868 Y242.76 Z-10 F333.3
S2000
X8.13 Y242.55 F1000
S5000
X-3.868 Y242.76 Z-11 F333.3
S2000
X8.13 Y242.55 F1000
S5000
X-3.868 Y242.76 Z-12 F333.3
S2000
X8.13 Y242.55 F1000
S5000
X-3.868 Y242.76 Z-12.5 F333.3
S2000
X8.13 Y242.55 F1000
Z5
G0 Z15
M5
M30
