(1001)
(T5  D=3.175 CR=0 - ZMIN=-2.501 - Schaftfraser)
G90 G94
G17
G21
G28 G91 Z0
G90

(Bohrfrasen2)
T5
S6000 M3
G54
G0 X-27.077 Y-188.081
Z15
Z1.682
G1 Z-0.001 F1000
X-26.919
X-26.888 Y-188.075
X-26.861 Y-188.057
X-26.844 Y-188.031
X-26.837 Y-188
G3 X-27.163 Y-188 Z-0.251 I-0.163 J0
X-26.837 Y-188 Z-0.501 I0.163 J0
X-27.163 Y-188 Z-0.751 I-0.163 J0
X-26.837 Y-188 Z-1.001 I0.163 J0
X-27.163 Y-188 Z-1.251 I-0.163 J0
X-26.837 Y-188 Z-1.501 I0.163 J0
X-27.163 Y-188 Z-1.751 I-0.163 J0
X-26.837 Y-188 Z-2.001 I0.163 J0
X-27.163 Y-188 Z-2.251 I-0.163 J0
X-26.837 Y-188 Z-2.501 I0.163 J0
X-27.163 Y-188 I-0.163 J0
X-26.837 Y-188 I0.163 J0
G1 X-26.844 Y-187.969
X-26.861 Y-187.943
X-26.888 Y-187.925
X-26.919 Y-187.919
X-27.077
G0 Z5
X-34.827 Y-167.195
Z1.682
G1 Z-0.001 F1000
X-34.669
X-34.638 Y-167.189
X-34.611 Y-167.171
X-34.594 Y-167.145
X-34.588 Y-167.114
G3 X-34.912 Y-167.114 Z-0.251 I-0.162 J0
X-34.588 Y-167.114 Z-0.501 I0.162 J0
X-34.912 Y-167.114 Z-0.751 I-0.162 J0
X-34.588 Y-167.114 Z-1.001 I0.162 J0
X-34.912 Y-167.114 Z-1.251 I-0.162 J0
X-34.588 Y-167.114 Z-1.501 I0.162 J0
X-34.912 Y-167.114 Z-1.751 I-0.162 J0
X-34.588 Y-167.114 Z-2.001 I0.162 J0
X-34.912 Y-167.114 Z-2.251 I-0.162 J0
X-34.588 Y-167.114 Z-2.501 I0.162 J0
X-34.912 Y-167.114 I-0.162 J0
X-34.588 Y-167.114 I0.162 J0
G1 X-34.594 Y-167.083
X-34.611 Y-167.056
X-34.638 Y-167.039
X-34.669 Y-167.032
X-34.827
G0 Z5
Y-136.695
Z1.682
G1 Z-0.001 F1000
X-34.669
X-34.638 Y-136.689
X-34.611 Y-136.671
X-34.594 Y-136.645
X-34.588 Y-136.614
G3 X-34.912 Y-136.614 Z-0.251 I-0.162 J0
X-34.588 Y-136.614 Z-0.501 I0.162 J0
X-34.912 Y-136.614 Z-0.751 I-0.162 J0
X-34.588 Y-136.614 Z-1.001 I0.162 J0
X-34.912 Y-136.614 Z-1.251 I-0.162 J0
X-34.588 Y-136.614 Z-1.501 I0.162 J0
X-34.912 Y-136.614 Z-1.751 I-0.162 J0
X-34.588 Y-136.614 Z-2.001 I0.162 J0
X-34.912 Y-136.614 Z-2.251 I-0.162 J0
X-34.588 Y-136.614 Z-2.501 I0.162 J0
X-34.912 Y-136.614 I-0.162 J0
X-34.588 Y-136.614 I0.162 J0
G1 X-34.594 Y-136.583
X-34.611 Y-136.556
X-34.638 Y-136.539
X-34.669 Y-136.532
X-34.827
G0 Z5
X-17.077 Y-142.598
Z1.682
G1 Z-0.001 F1000
X-16.919
X-16.888 Y-142.592
X-16.861 Y-142.574
X-16.844 Y-142.548
X-16.837 Y-142.517
G3 X-17.163 Y-142.517 Z-0.251 I-0.163 J0
X-16.837 Y-142.517 Z-0.501 I0.163 J0
X-17.163 Y-142.517 Z-0.751 I-0.163 J0
X-16.837 Y-142.517 Z-1.001 I0.163 J0
X-17.163 Y-142.517 Z-1.251 I-0.163 J0
X-16.837 Y-142.517 Z-1.501 I0.163 J0
X-17.163 Y-142.517 Z-1.751 I-0.163 J0
X-16.837 Y-142.517 Z-2.001 I0.163 J0
X-17.163 Y-142.517 Z-2.251 I-0.163 J0
X-16.837 Y-142.517 Z-2.501 I0.163 J0
X-17.163 Y-142.517 I-0.163 J0
X-16.837 Y-142.517 I0.163 J0
G1 X-16.844 Y-142.486
X-16.861 Y-142.459
X-16.888 Y-142.442
X-16.919 Y-142.436
X-17.077
G0 Z5
X-15.078 Y-125.51
Z1.682
G1 Z-0.001 F1000
X-14.919
X-14.888 Y-125.504
X-14.861 Y-125.486
X-14.844 Y-125.46
X-14.837 Y-125.429
G3 X-15.163 Y-125.429 Z-0.251 I-0.163 J0
X-14.837 Y-125.429 Z-0.501 I0.163 J0
X-15.163 Y-125.429 Z-0.751 I-0.163 J0
X-14.837 Y-125.429 Z-1.001 I0.163 J0
X-15.163 Y-125.429 Z-1.251 I-0.163 J0
X-14.837 Y-125.429 Z-1.501 I0.163 J0
X-15.163 Y-125.429 Z-1.751 I-0.163 J0
X-14.837 Y-125.429 Z-2.001 I0.163 J0
X-15.163 Y-125.429 Z-2.251 I-0.163 J0
X-14.837 Y-125.429 Z-2.501 I0.163 J0
X-15.163 Y-125.429 I-0.163 J0
X-14.837 Y-125.429 I0.163 J0
G1 X-14.844 Y-125.398
X-14.861 Y-125.372
X-14.888 Y-125.354
X-14.919 Y-125.348
X-15.078
G0 Z5
X-34.494 Y-111.403
Z1.682
G1 Z-0.001 F1000
X-34.335
X-34.304 Y-111.397
X-34.278 Y-111.38
X-34.26 Y-111.353
X-34.254 Y-111.322
G3 X-34.579 Y-111.322 Z-0.251 I-0.163 J0
X-34.254 Y-111.322 Z-0.501 I0.163 J0
X-34.579 Y-111.322 Z-0.751 I-0.163 J0
X-34.254 Y-111.322 Z-1.001 I0.163 J0
X-34.579 Y-111.322 Z-1.251 I-0.163 J0
X-34.254 Y-111.322 Z-1.501 I0.163 J0
X-34.579 Y-111.322 Z-1.751 I-0.163 J0
X-34.254 Y-111.322 Z-2.001 I0.163 J0
X-34.579 Y-111.322 Z-2.251 I-0.163 J0
X-34.254 Y-111.322 Z-2.501 I0.163 J0
X-34.579 Y-111.322 I-0.163 J0
X-34.254 Y-111.322 I0.163 J0
G1 X-34.26 Y-111.291
X-34.278 Y-111.265
X-34.304 Y-111.247
X-34.335 Y-111.241
X-34.494
G0 Z5
Y-88.759
Z1.682
G1 Z-0.001 F1000
X-34.335
X-34.304 Y-88.753
X-34.278 Y-88.735
X-34.26 Y-88.709
X-34.254 Y-88.678
G3 X-34.579 Y-88.678 Z-0.251 I-0.163 J0
X-34.254 Y-88.678 Z-0.501 I0.163 J0
X-34.579 Y-88.678 Z-0.751 I-0.163 J0
X-34.254 Y-88.678 Z-1.001 I0.163 J0
X-34.579 Y-88.678 Z-1.251 I-0.163 J0
X-34.254 Y-88.678 Z-1.501 I0.163 J0
X-34.579 Y-88.678 Z-1.751 I-0.163 J0
X-34.254 Y-88.678 Z-2.001 I0.163 J0
X-34.579 Y-88.678 Z-2.251 I-0.163 J0
X-34.254 Y-88.678 Z-2.501 I0.163 J0
X-34.579 Y-88.678 I-0.163 J0
X-34.254 Y-88.678 I0.163 J0
G1 X-34.26 Y-88.647
X-34.278 Y-88.62
X-34.304 Y-88.603
X-34.335 Y-88.597
X-34.494
G0 Z5
X-15.078 Y-74.652
Z1.682
G1 Z-0.001 F1000
X-14.919
X-14.888 Y-74.646
X-14.861 Y-74.628
X-14.844 Y-74.602
X-14.837 Y-74.571
G3 X-15.163 Y-74.571 Z-0.251 I-0.163 J0
X-14.837 Y-74.571 Z-0.501 I0.163 J0
X-15.163 Y-74.571 Z-0.751 I-0.163 J0
X-14.837 Y-74.571 Z-1.001 I0.163 J0
X-15.163 Y-74.571 Z-1.251 I-0.163 J0
X-14.837 Y-74.571 Z-1.501 I0.163 J0
X-15.163 Y-74.571 Z-1.751 I-0.163 J0
X-14.837 Y-74.571 Z-2.001 I0.163 J0
X-15.163 Y-74.571 Z-2.251 I-0.163 J0
X-14.837 Y-74.571 Z-2.501 I0.163 J0
X-15.163 Y-74.571 I-0.163 J0
X-14.837 Y-74.571 I0.163 J0
G1 X-14.844 Y-74.54
X-14.861 Y-74.514
X-14.888 Y-74.496
X-14.919 Y-74.49
X-15.078
G0 Z5
X-17.077 Y-57.564
Z1.682
G1 Z-0.001 F1000
X-16.919
X-16.888 Y-57.558
X-16.861 Y-57.541
X-16.844 Y-57.514
X-16.837 Y-57.483
G3 X-17.163 Y-57.483 Z-0.251 I-0.163 J0
X-16.837 Y-57.483 Z-0.501 I0.163 J0
X-17.163 Y-57.483 Z-0.751 I-0.163 J0
X-16.837 Y-57.483 Z-1.001 I0.163 J0
X-17.163 Y-57.483 Z-1.251 I-0.163 J0
X-16.837 Y-57.483 Z-1.501 I0.163 J0
X-17.163 Y-57.483 Z-1.751 I-0.163 J0
X-16.837 Y-57.483 Z-2.001 I0.163 J0
X-17.163 Y-57.483 Z-2.251 I-0.163 J0
X-16.837 Y-57.483 Z-2.501 I0.163 J0
X-17.163 Y-57.483 I-0.163 J0
X-16.837 Y-57.483 I0.163 J0
G1 X-16.844 Y-57.452
X-16.861 Y-57.426
X-16.888 Y-57.408
X-16.919 Y-57.402
X-17.077
G0 Z5
X-34.827 Y-63.468
Z1.682
G1 Z-0.001 F1000
X-34.669
X-34.638 Y-63.461
X-34.611 Y-63.444
X-34.594 Y-63.417
X-34.588 Y-63.386
G3 X-34.912 Y-63.386 Z-0.251 I-0.162 J0
X-34.588 Y-63.386 Z-0.501 I0.162 J0
X-34.912 Y-63.386 Z-0.751 I-0.162 J0
X-34.588 Y-63.386 Z-1.001 I0.162 J0
X-34.912 Y-63.386 Z-1.251 I-0.162 J0
X-34.588 Y-63.386 Z-1.501 I0.162 J0
X-34.912 Y-63.386 Z-1.751 I-0.162 J0
X-34.588 Y-63.386 Z-2.001 I0.162 J0
X-34.912 Y-63.386 Z-2.251 I-0.162 J0
X-34.588 Y-63.386 Z-2.501 I0.162 J0
X-34.912 Y-63.386 I-0.162 J0
X-34.588 Y-63.386 I0.162 J0
G1 X-34.594 Y-63.355
X-34.611 Y-63.329
X-34.638 Y-63.311
X-34.669 Y-63.305
X-34.827
G0 Z5
X-39.881 Y-48.454
Z1.999
G1 Z0.317 F1000
G18 G2 X-39.564 Z-0.001 I0.317 K0
G1 X-39.405
G17 G3 X-39.088 Y-48.136 I0 J0.318
X-60.912 Y-48.136 Z-0.251 I-10.912 J0
X-39.088 Y-48.136 Z-0.501 I10.912 J0
X-60.912 Y-48.136 Z-0.751 I-10.912 J0
X-39.088 Y-48.136 Z-1.001 I10.912 J0
X-60.912 Y-48.136 Z-1.251 I-10.912 J0
X-39.088 Y-48.136 Z-1.501 I10.912 J0
X-60.912 Y-48.136 Z-1.751 I-10.912 J0
X-39.088 Y-48.136 Z-2.001 I10.912 J0
X-60.912 Y-48.136 Z-2.251 I-10.912 J0
X-39.088 Y-48.136 Z-2.501 I10.912 J0
X-60.912 Y-48.136 I-10.912 J0
X-39.088 Y-48.136 I10.912 J0
X-39.405 Y-47.819 I-0.317 J0
G1 X-39.564
G18 G3 X-39.881 Z-2.183 I0 K0.318
G0 Z5
X-34.827 Y-32.968
Z1.682
G1 Z-0.001 F1000
X-34.669
X-34.638 Y-32.961
X-34.611 Y-32.944
X-34.594 Y-32.917
X-34.588 Y-32.886
G17 G3 X-34.912 Y-32.886 Z-0.251 I-0.162 J0
X-34.588 Y-32.886 Z-0.501 I0.162 J0
X-34.912 Y-32.886 Z-0.751 I-0.162 J0
X-34.588 Y-32.886 Z-1.001 I0.162 J0
X-34.912 Y-32.886 Z-1.251 I-0.162 J0
X-34.588 Y-32.886 Z-1.501 I0.162 J0
X-34.912 Y-32.886 Z-1.751 I-0.162 J0
X-34.588 Y-32.886 Z-2.001 I0.162 J0
X-34.912 Y-32.886 Z-2.251 I-0.162 J0
X-34.588 Y-32.886 Z-2.501 I0.162 J0
X-34.912 Y-32.886 I-0.162 J0
X-34.588 Y-32.886 I0.162 J0
G1 X-34.594 Y-32.855
X-34.611 Y-32.829
X-34.638 Y-32.811
X-34.669 Y-32.805
X-34.827
G0 Z5
X-27.077 Y-12.081
Z1.682
G1 Z-0.001 F1000
X-26.919
X-26.888 Y-12.075
X-26.861 Y-12.057
X-26.844 Y-12.031
X-26.837 Y-12
G3 X-27.163 Y-12 Z-0.251 I-0.163 J0
X-26.837 Y-12 Z-0.501 I0.163 J0
X-27.163 Y-12 Z-0.751 I-0.163 J0
X-26.837 Y-12 Z-1.001 I0.163 J0
X-27.163 Y-12 Z-1.251 I-0.163 J0
X-26.837 Y-12 Z-1.501 I0.163 J0
X-27.163 Y-12 Z-1.751 I-0.163 J0
X-26.837 Y-12 Z-2.001 I0.163 J0
X-27.163 Y-12 Z-2.251 I-0.163 J0
X-26.837 Y-12 Z-2.501 I0.163 J0
X-27.163 Y-12 I-0.163 J0
X-26.837 Y-12 I0.163 J0
G1 X-26.844 Y-11.969
X-26.861 Y-11.943
X-26.888 Y-11.925
X-26.919 Y-11.919
X-27.077
G0 Z5
X-65.327 Y-32.968
Z1.682
G1 Z-0.001 F1000
X-65.169
X-65.138 Y-32.961
X-65.111 Y-32.944
X-65.094 Y-32.917
X-65.088 Y-32.886
G3 X-65.412 Y-32.886 Z-0.251 I-0.162 J0
X-65.088 Y-32.886 Z-0.501 I0.162 J0
X-65.412 Y-32.886 Z-0.751 I-0.162 J0
X-65.088 Y-32.886 Z-1.001 I0.162 J0
X-65.412 Y-32.886 Z-1.251 I-0.162 J0
X-65.088 Y-32.886 Z-1.501 I0.162 J0
X-65.412 Y-32.886 Z-1.751 I-0.162 J0
X-65.088 Y-32.886 Z-2.001 I0.162 J0
X-65.412 Y-32.886 Z-2.251 I-0.162 J0
X-65.088 Y-32.886 Z-2.501 I0.162 J0
X-65.412 Y-32.886 I-0.162 J0
X-65.088 Y-32.886 I0.162 J0
G1 X-65.094 Y-32.855
X-65.111 Y-32.829
X-65.138 Y-32.811
X-65.169 Y-32.805
X-65.327
G0 Z5
X-73.077 Y-12.081
Z1.682
G1 Z-0.001 F1000
X-72.919
X-72.888 Y-12.075
X-72.861 Y-12.057
X-72.844 Y-12.031
X-72.838 Y-12
G3 X-73.162 Y-12 Z-0.251 I-0.162 J0
X-72.838 Y-12 Z-0.501 I0.162 J0
X-73.162 Y-12 Z-0.751 I-0.162 J0
X-72.838 Y-12 Z-1.001 I0.162 J0
X-73.162 Y-12 Z-1.251 I-0.162 J0
X-72.838 Y-12 Z-1.501 I0.162 J0
X-73.162 Y-12 Z-1.751 I-0.162 J0
X-72.838 Y-12 Z-2.001 I0.162 J0
X-73.162 Y-12 Z-2.251 I-0.162 J0
X-72.838 Y-12 Z-2.501 I0.162 J0
X-73.162 Y-12 I-0.162 J0
X-72.838 Y-12 I0.162 J0
G1 X-72.844 Y-11.969
X-72.861 Y-11.943
X-72.888 Y-11.925
X-72.919 Y-11.919
X-73.077
G0 Z5
X-113.077 Y-12.081
Z1.683
G1 Z0.001 F1000
X-112.919
X-112.888 Y-12.075
X-112.861 Y-12.057
X-112.844 Y-12.031
X-112.838 Y-12
G3 X-113.162 Y-12 Z-0.249 I-0.162 J0
X-112.838 Y-12 Z-0.499 I0.162 J0
X-113.162 Y-12 Z-0.749 I-0.162 J0
X-112.838 Y-12 Z-0.999 I0.162 J0
X-113.162 Y-12 Z-1.249 I-0.162 J0
X-112.838 Y-12 Z-1.499 I0.162 J0
X-113.162 Y-12 Z-1.749 I-0.162 J0
X-112.838 Y-12 Z-1.999 I0.162 J0
X-113.162 Y-12 Z-2.249 I-0.162 J0
X-112.838 Y-12 Z-2.499 I0.162 J0
X-113.162 Y-12 I-0.162 J0
X-112.838 Y-12 I0.162 J0
G1 X-112.844 Y-11.969
X-112.861 Y-11.943
X-112.888 Y-11.925
X-112.919 Y-11.919
X-113.077
G0 Z5
X-120.052 Y-18.106
Z1.683
G1 Z0.001 F1000
X-119.894
X-119.861 Y-18.101
X-119.831 Y-18.086
X-119.808 Y-18.062
X-119.793 Y-18.033
X-119.787 Y-18
G3 X-120.213 Y-18 Z-0.249 I-0.213 J0
X-119.787 Y-18 Z-0.499 I0.213 J0
X-120.213 Y-18 Z-0.749 I-0.213 J0
X-119.787 Y-18 Z-0.999 I0.213 J0
X-120.213 Y-18 Z-1.249 I-0.213 J0
X-119.787 Y-18 Z-1.499 I0.213 J0
X-120.213 Y-18 Z-1.749 I-0.213 J0
X-119.787 Y-18 Z-1.999 I0.213 J0
X-120.213 Y-18 Z-2.249 I-0.213 J0
X-119.787 Y-18 Z-2.499 I0.213 J0
X-120.213 Y-18 I-0.213 J0
X-119.787 Y-18 I0.213 J0
G1 X-119.793 Y-17.967
X-119.808 Y-17.938
X-119.831 Y-17.914
X-119.861 Y-17.899
X-119.894 Y-17.894
X-120.052
G0 Z5
X-152.053 Y-18.106
Z1.683
G1 Z0.001 F1000
X-151.894
X-151.861 Y-18.101
X-151.831 Y-18.086
X-151.808 Y-18.062
X-151.793 Y-18.033
X-151.788 Y-18
G3 X-152.212 Y-18 Z-0.249 I-0.212 J0
X-151.788 Y-18 Z-0.499 I0.212 J0
X-152.212 Y-18 Z-0.749 I-0.212 J0
X-151.788 Y-18 Z-0.999 I0.212 J0
X-152.212 Y-18 Z-1.249 I-0.212 J0
X-151.788 Y-18 Z-1.499 I0.212 J0
X-152.212 Y-18 Z-1.749 I-0.212 J0
X-151.788 Y-18 Z-1.999 I0.212 J0
X-152.212 Y-18 Z-2.249 I-0.212 J0
X-151.788 Y-18 Z-2.499 I0.212 J0
X-152.212 Y-18 I-0.212 J0
X-151.788 Y-18 I0.212 J0
G1 X-151.793 Y-17.967
X-151.808 Y-17.938
X-151.831 Y-17.914
X-151.861 Y-17.899
X-151.894 Y-17.894
X-152.053
G0 Z5
X-159.077 Y-12.081
Z1.683
G1 Z0.001 F1000
X-158.919
X-158.888 Y-12.075
X-158.861 Y-12.057
X-158.844 Y-12.031
X-158.837 Y-12
G3 X-159.163 Y-12 Z-0.249 I-0.163 J0
X-158.837 Y-12 Z-0.499 I0.163 J0
X-159.163 Y-12 Z-0.749 I-0.163 J0
X-158.837 Y-12 Z-0.999 I0.163 J0
X-159.163 Y-12 Z-1.249 I-0.163 J0
X-158.837 Y-12 Z-1.499 I0.163 J0
X-159.163 Y-12 Z-1.749 I-0.163 J0
X-158.837 Y-12 Z-1.999 I0.163 J0
X-159.163 Y-12 Z-2.249 I-0.163 J0
X-158.837 Y-12 Z-2.499 I0.163 J0
X-159.163 Y-12 I-0.163 J0
X-158.837 Y-12 I0.163 J0
G1 X-158.844 Y-11.969
X-158.861 Y-11.943
X-158.888 Y-11.925
X-158.919 Y-11.919
X-159.077
G0 Z5
X-203.077 Y-12.081
Z1.683
G1 Z0.001 F1000
X-202.919
X-202.888 Y-12.075
X-202.861 Y-12.057
X-202.844 Y-12.031
X-202.837 Y-12
G3 X-203.163 Y-12 Z-0.249 I-0.163 J0
X-202.837 Y-12 Z-0.499 I0.163 J0
X-203.163 Y-12 Z-0.749 I-0.163 J0
X-202.837 Y-12 Z-0.999 I0.163 J0
X-203.163 Y-12 Z-1.249 I-0.163 J0
X-202.837 Y-12 Z-1.499 I0.163 J0
X-203.163 Y-12 Z-1.749 I-0.163 J0
X-202.837 Y-12 Z-1.999 I0.163 J0
X-203.163 Y-12 Z-2.249 I-0.163 J0
X-202.837 Y-12 Z-2.499 I0.163 J0
X-203.163 Y-12 I-0.163 J0
X-202.837 Y-12 I0.163 J0
G1 X-202.844 Y-11.969
X-202.861 Y-11.943
X-202.888 Y-11.925
X-202.919 Y-11.919
X-203.077
G0 Z5
X-204.131 Y-18.317
Z2.001
G1 Z0.318 F1000
G18 G2 X-203.814 Z0.001 I0.318 K0
G1 X-203.655
G17 G3 X-203.337 Y-18 I0 J0.317
X-204.663 Y-18 Z-0.249 I-0.663 J0
X-203.337 Y-18 Z-0.499 I0.663 J0
X-204.663 Y-18 Z-0.749 I-0.663 J0
X-203.337 Y-18 Z-0.999 I0.663 J0
X-204.663 Y-18 Z-1.249 I-0.663 J0
X-203.337 Y-18 Z-1.499 I0.663 J0
X-204.663 Y-18 Z-1.749 I-0.663 J0
X-203.337 Y-18 Z-1.999 I0.663 J0
X-204.663 Y-18 Z-2.249 I-0.663 J0
X-203.337 Y-18 Z-2.499 I0.663 J0
X-204.663 Y-18 I-0.663 J0
X-203.337 Y-18 I0.663 J0
X-203.655 Y-17.683 I-0.318 J0
G1 X-203.814
G18 G3 X-204.131 Z-2.182 I0 K0.317
G0 Z5
Y-28.317
Z2.001
G1 Z0.318 F1000
G2 X-203.814 Z0.001 I0.318 K0
G1 X-203.655
G17 G3 X-203.337 Y-28 I0 J0.317
X-204.663 Y-28 Z-0.249 I-0.663 J0
X-203.337 Y-28 Z-0.499 I0.663 J0
X-204.663 Y-28 Z-0.749 I-0.663 J0
X-203.337 Y-28 Z-0.999 I0.663 J0
X-204.663 Y-28 Z-1.249 I-0.663 J0
X-203.337 Y-28 Z-1.499 I0.663 J0
X-204.663 Y-28 Z-1.749 I-0.663 J0
X-203.337 Y-28 Z-1.999 I0.663 J0
X-204.663 Y-28 Z-2.249 I-0.663 J0
X-203.337 Y-28 Z-2.499 I0.663 J0
X-204.663 Y-28 I-0.663 J0
X-203.337 Y-28 I0.663 J0
X-203.655 Y-27.683 I-0.318 J0
G1 X-203.814
G18 G3 X-204.131 Z-2.182 I0 K0.317
G0 Z5
Y-38.318
Z2.001
G1 Z0.318 F1000
G2 X-203.814 Z0.001 I0.318 K0
G1 X-203.655
G17 G3 X-203.337 Y-38 I0 J0.318
X-204.663 Y-38 Z-0.249 I-0.663 J0
X-203.337 Y-38 Z-0.499 I0.663 J0
X-204.663 Y-38 Z-0.749 I-0.663 J0
X-203.337 Y-38 Z-0.999 I0.663 J0
X-204.663 Y-38 Z-1.249 I-0.663 J0
X-203.337 Y-38 Z-1.499 I0.663 J0
X-204.663 Y-38 Z-1.749 I-0.663 J0
X-203.337 Y-38 Z-1.999 I0.663 J0
X-204.663 Y-38 Z-2.249 I-0.663 J0
X-203.337 Y-38 Z-2.499 I0.663 J0
X-204.663 Y-38 I-0.663 J0
X-203.337 Y-38 I0.663 J0
X-203.655 Y-37.682 I-0.318 J0
G1 X-203.814
G18 G3 X-204.131 Z-2.182 I0 K0.317
G0 Z5
X-214.131 Y-38.318
Z2.001
G1 Z0.318 F1000
G2 X-213.814 Z0.001 I0.318 K0
G1 X-213.655
G17 G3 X-213.337 Y-38 I0 J0.318
X-214.663 Y-38 Z-0.249 I-0.663 J0
X-213.337 Y-38 Z-0.499 I0.663 J0
X-214.663 Y-38 Z-0.749 I-0.663 J0
X-213.337 Y-38 Z-0.999 I0.663 J0
X-214.663 Y-38 Z-1.249 I-0.663 J0
X-213.337 Y-38 Z-1.499 I0.663 J0
X-214.663 Y-38 Z-1.749 I-0.663 J0
X-213.337 Y-38 Z-1.999 I0.663 J0
X-214.663 Y-38 Z-2.249 I-0.663 J0
X-213.337 Y-38 Z-2.499 I0.663 J0
X-214.663 Y-38 I-0.663 J0
X-213.337 Y-38 I0.663 J0
X-213.655 Y-37.682 I-0.318 J0
G1 X-213.814
G18 G3 X-214.131 Z-2.182 I0 K0.317
G0 Z5
Y-48.318
Z2.001
G1 Z0.318 F1000
G2 X-213.814 Z0.001 I0.318 K0
G1 X-213.655
G17 G3 X-213.337 Y-48 I0 J0.318
X-214.663 Y-48 Z-0.249 I-0.663 J0
X-213.337 Y-48 Z-0.499 I0.663 J0
X-214.663 Y-48 Z-0.749 I-0.663 J0
X-213.337 Y-48 Z-0.999 I0.663 J0
X-214.663 Y-48 Z-1.249 I-0.663 J0
X-213.337 Y-48 Z-1.499 I0.663 J0
X-214.663 Y-48 Z-1.749 I-0.663 J0
X-213.337 Y-48 Z-1.999 I0.663 J0
X-214.663 Y-48 Z-2.249 I-0.663 J0
X-213.337 Y-48 Z-2.499 I0.663 J0
X-214.663 Y-48 I-0.663 J0
X-213.337 Y-48 I0.663 J0
X-213.655 Y-47.682 I-0.318 J0
G1 X-213.814
G18 G3 X-214.131 Z-2.182 I0 K0.317
G0 Z5
X-204.131 Y-48.318
Z2.001
G1 Z0.318 F1000
G2 X-203.814 Z0.001 I0.318 K0
G1 X-203.655
G17 G3 X-203.337 Y-48 I0 J0.318
X-204.663 Y-48 Z-0.249 I-0.663 J0
X-203.337 Y-48 Z-0.499 I0.663 J0
X-204.663 Y-48 Z-0.749 I-0.663 J0
X-203.337 Y-48 Z-0.999 I0.663 J0
X-204.663 Y-48 Z-1.249 I-0.663 J0
X-203.337 Y-48 Z-1.499 I0.663 J0
X-204.663 Y-48 Z-1.749 I-0.663 J0
X-203.337 Y-48 Z-1.999 I0.663 J0
X-204.663 Y-48 Z-2.249 I-0.663 J0
X-203.337 Y-48 Z-2.499 I0.663 J0
X-204.663 Y-48 I-0.663 J0
X-203.337 Y-48 I0.663 J0
X-203.655 Y-47.682 I-0.318 J0
G1 X-203.814
G18 G3 X-204.131 Z-2.182 I0 K0.317
G0 Z5
X-214.131 Y-58.318
Z2.001
G1 Z0.318 F1000
G2 X-213.814 Z0.001 I0.318 K0
G1 X-213.655
G17 G3 X-213.337 Y-58 I0 J0.318
X-214.663 Y-58 Z-0.249 I-0.663 J0
X-213.337 Y-58 Z-0.499 I0.663 J0
X-214.663 Y-58 Z-0.749 I-0.663 J0
X-213.337 Y-58 Z-0.999 I0.663 J0
X-214.663 Y-58 Z-1.249 I-0.663 J0
X-213.337 Y-58 Z-1.499 I0.663 J0
X-214.663 Y-58 Z-1.749 I-0.663 J0
X-213.337 Y-58 Z-1.999 I0.663 J0
X-214.663 Y-58 Z-2.249 I-0.663 J0
X-213.337 Y-58 Z-2.499 I0.663 J0
X-214.663 Y-58 I-0.663 J0
X-213.337 Y-58 I0.663 J0
X-213.655 Y-57.682 I-0.318 J0
G1 X-213.814
G18 G3 X-214.131 Z-2.182 I0 K0.317
G0 Z5
X-204.131 Y-58.318
Z2.001
G1 Z0.318 F1000
G2 X-203.814 Z0.001 I0.318 K0
G1 X-203.655
G17 G3 X-203.337 Y-58 I0 J0.318
X-204.663 Y-58 Z-0.249 I-0.663 J0
X-203.337 Y-58 Z-0.499 I0.663 J0
X-204.663 Y-58 Z-0.749 I-0.663 J0
X-203.337 Y-58 Z-0.999 I0.663 J0
X-204.663 Y-58 Z-1.249 I-0.663 J0
X-203.337 Y-58 Z-1.499 I0.663 J0
X-204.663 Y-58 Z-1.749 I-0.663 J0
X-203.337 Y-58 Z-1.999 I0.663 J0
X-204.663 Y-58 Z-2.249 I-0.663 J0
X-203.337 Y-58 Z-2.499 I0.663 J0
X-204.663 Y-58 I-0.663 J0
X-203.337 Y-58 I0.663 J0
X-203.655 Y-57.682 I-0.318 J0
G1 X-203.814
G18 G3 X-204.131 Z-2.182 I0 K0.317
G0 Z5
X-193.077 Y-57.564
Z1.683
G1 Z0.001 F1000
X-192.919
X-192.888 Y-57.558
X-192.861 Y-57.541
X-192.844 Y-57.514
X-192.837 Y-57.483
G17 G3 X-193.163 Y-57.483 Z-0.249 I-0.163 J0
X-192.837 Y-57.483 Z-0.499 I0.163 J0
X-193.163 Y-57.483 Z-0.749 I-0.163 J0
X-192.837 Y-57.483 Z-0.999 I0.163 J0
X-193.163 Y-57.483 Z-1.249 I-0.163 J0
X-192.837 Y-57.483 Z-1.499 I0.163 J0
X-193.163 Y-57.483 Z-1.749 I-0.163 J0
X-192.837 Y-57.483 Z-1.999 I0.163 J0
X-193.163 Y-57.483 Z-2.249 I-0.163 J0
X-192.837 Y-57.483 Z-2.499 I0.163 J0
X-193.163 Y-57.483 I-0.163 J0
X-192.837 Y-57.483 I0.163 J0
G1 X-192.844 Y-57.452
X-192.861 Y-57.426
X-192.888 Y-57.408
X-192.919 Y-57.402
X-193.077
G0 Z5
X-169.077 Y-57.564
Z1.683
G1 Z0.001 F1000
X-168.919
X-168.888 Y-57.558
X-168.861 Y-57.541
X-168.844 Y-57.514
X-168.837 Y-57.483
G3 X-169.163 Y-57.483 Z-0.249 I-0.163 J0
X-168.837 Y-57.483 Z-0.499 I0.163 J0
X-169.163 Y-57.483 Z-0.749 I-0.163 J0
X-168.837 Y-57.483 Z-0.999 I0.163 J0
X-169.163 Y-57.483 Z-1.249 I-0.163 J0
X-168.837 Y-57.483 Z-1.499 I0.163 J0
X-169.163 Y-57.483 Z-1.749 I-0.163 J0
X-168.837 Y-57.483 Z-1.999 I0.163 J0
X-169.163 Y-57.483 Z-2.249 I-0.163 J0
X-168.837 Y-57.483 Z-2.499 I0.163 J0
X-169.163 Y-57.483 I-0.163 J0
X-168.837 Y-57.483 I0.163 J0
G1 X-168.844 Y-57.452
X-168.861 Y-57.426
X-168.888 Y-57.408
X-168.919 Y-57.402
X-169.077
G0 Z5
X-171.077 Y-74.652
Z1.683
G1 Z0.001 F1000
X-170.919
X-170.888 Y-74.646
X-170.861 Y-74.628
X-170.844 Y-74.602
X-170.837 Y-74.571
G3 X-171.163 Y-74.571 Z-0.249 I-0.163 J0
X-170.837 Y-74.571 Z-0.499 I0.163 J0
X-171.163 Y-74.571 Z-0.749 I-0.163 J0
X-170.837 Y-74.571 Z-0.999 I0.163 J0
X-171.163 Y-74.571 Z-1.249 I-0.163 J0
X-170.837 Y-74.571 Z-1.499 I0.163 J0
X-171.163 Y-74.571 Z-1.749 I-0.163 J0
X-170.837 Y-74.571 Z-1.999 I0.163 J0
X-171.163 Y-74.571 Z-2.249 I-0.163 J0
X-170.837 Y-74.571 Z-2.499 I0.163 J0
X-171.163 Y-74.571 I-0.163 J0
X-170.837 Y-74.571 I0.163 J0
G1 X-170.844 Y-74.54
X-170.861 Y-74.514
X-170.888 Y-74.496
X-170.919 Y-74.49
X-171.077
G0 Z5
X-151.327 Y-69.831
Z1.683
G1 Z0.001 F1000
X-151.169
X-151.138 Y-69.825
X-151.111 Y-69.807
X-151.094 Y-69.781
X-151.087 Y-69.75
G3 X-151.413 Y-69.75 Z-0.249 I-0.163 J0
X-151.087 Y-69.75 Z-0.499 I0.163 J0
X-151.413 Y-69.75 Z-0.749 I-0.163 J0
X-151.087 Y-69.75 Z-0.999 I0.163 J0
X-151.413 Y-69.75 Z-1.249 I-0.163 J0
X-151.087 Y-69.75 Z-1.499 I0.163 J0
X-151.413 Y-69.75 Z-1.749 I-0.163 J0
X-151.087 Y-69.75 Z-1.999 I0.163 J0
X-151.413 Y-69.75 Z-2.249 I-0.163 J0
X-151.087 Y-69.75 Z-2.499 I0.163 J0
X-151.413 Y-69.75 I-0.163 J0
X-151.087 Y-69.75 I0.163 J0
G1 X-151.094 Y-69.719
X-151.111 Y-69.693
X-151.138 Y-69.675
X-151.169 Y-69.669
X-151.327
G0 Z5
X-151.661 Y-88.759
Z1.683
G1 Z0.001 F1000
X-151.502
X-151.471 Y-88.753
X-151.445 Y-88.735
X-151.427 Y-88.709
X-151.421 Y-88.678
G3 X-151.746 Y-88.678 Z-0.249 I-0.162 J0
X-151.421 Y-88.678 Z-0.499 I0.162 J0
X-151.746 Y-88.678 Z-0.749 I-0.162 J0
X-151.421 Y-88.678 Z-0.999 I0.162 J0
X-151.746 Y-88.678 Z-1.249 I-0.162 J0
X-151.421 Y-88.678 Z-1.499 I0.162 J0
X-151.746 Y-88.678 Z-1.749 I-0.162 J0
X-151.421 Y-88.678 Z-1.999 I0.162 J0
X-151.746 Y-88.678 Z-2.249 I-0.162 J0
X-151.421 Y-88.678 Z-2.499 I0.162 J0
X-151.746 Y-88.678 I-0.162 J0
X-151.421 Y-88.678 I0.162 J0
G1 X-151.427 Y-88.647
X-151.445 Y-88.62
X-151.471 Y-88.603
X-151.502 Y-88.597
X-151.661
G0 Z5
X-151.327 Y-100.331
Z1.683
G1 Z0.001 F1000
X-151.169
X-151.138 Y-100.325
X-151.111 Y-100.307
X-151.094 Y-100.281
X-151.087 Y-100.25
G3 X-151.413 Y-100.25 Z-0.249 I-0.163 J0
X-151.087 Y-100.25 Z-0.499 I0.163 J0
X-151.413 Y-100.25 Z-0.749 I-0.163 J0
X-151.087 Y-100.25 Z-0.999 I0.163 J0
X-151.413 Y-100.25 Z-1.249 I-0.163 J0
X-151.087 Y-100.25 Z-1.499 I0.163 J0
X-151.413 Y-100.25 Z-1.749 I-0.163 J0
X-151.087 Y-100.25 Z-1.999 I0.163 J0
X-151.413 Y-100.25 Z-2.249 I-0.163 J0
X-151.087 Y-100.25 Z-2.499 I0.163 J0
X-151.413 Y-100.25 I-0.163 J0
X-151.087 Y-100.25 I0.163 J0
G1 X-151.094 Y-100.219
X-151.111 Y-100.193
X-151.138 Y-100.175
X-151.169 Y-100.169
X-151.327
G0 Z5
X-151.661 Y-111.403
Z1.683
G1 Z0.001 F1000
X-151.502
X-151.471 Y-111.397
X-151.445 Y-111.38
X-151.427 Y-111.353
X-151.421 Y-111.322
G3 X-151.746 Y-111.322 Z-0.249 I-0.162 J0
X-151.421 Y-111.322 Z-0.499 I0.162 J0
X-151.746 Y-111.322 Z-0.749 I-0.162 J0
X-151.421 Y-111.322 Z-0.999 I0.162 J0
X-151.746 Y-111.322 Z-1.249 I-0.162 J0
X-151.421 Y-111.322 Z-1.499 I0.162 J0
X-151.746 Y-111.322 Z-1.749 I-0.162 J0
X-151.421 Y-111.322 Z-1.999 I0.162 J0
X-151.746 Y-111.322 Z-2.249 I-0.162 J0
X-151.421 Y-111.322 Z-2.499 I0.162 J0
X-151.746 Y-111.322 I-0.162 J0
X-151.421 Y-111.322 I0.162 J0
G1 X-151.427 Y-111.291
X-151.445 Y-111.265
X-151.471 Y-111.247
X-151.502 Y-111.241
X-151.661
G0 Z5
X-171.077 Y-125.51
Z1.683
G1 Z0.001 F1000
X-170.919
X-170.888 Y-125.504
X-170.861 Y-125.486
X-170.844 Y-125.46
X-170.837 Y-125.429
G3 X-171.163 Y-125.429 Z-0.249 I-0.163 J0
X-170.837 Y-125.429 Z-0.499 I0.163 J0
X-171.163 Y-125.429 Z-0.749 I-0.163 J0
X-170.837 Y-125.429 Z-0.999 I0.163 J0
X-171.163 Y-125.429 Z-1.249 I-0.163 J0
X-170.837 Y-125.429 Z-1.499 I0.163 J0
X-171.163 Y-125.429 Z-1.749 I-0.163 J0
X-170.837 Y-125.429 Z-1.999 I0.163 J0
X-171.163 Y-125.429 Z-2.249 I-0.163 J0
X-170.837 Y-125.429 Z-2.499 I0.163 J0
X-171.163 Y-125.429 I-0.163 J0
X-170.837 Y-125.429 I0.163 J0
G1 X-170.844 Y-125.398
X-170.861 Y-125.372
X-170.888 Y-125.354
X-170.919 Y-125.348
X-171.077
G0 Z5
X-169.077 Y-142.598
Z1.683
G1 Z0.001 F1000
X-168.919
X-168.888 Y-142.592
X-168.861 Y-142.574
X-168.844 Y-142.548
X-168.837 Y-142.517
G3 X-169.163 Y-142.517 Z-0.249 I-0.163 J0
X-168.837 Y-142.517 Z-0.499 I0.163 J0
X-169.163 Y-142.517 Z-0.749 I-0.163 J0
X-168.837 Y-142.517 Z-0.999 I0.163 J0
X-169.163 Y-142.517 Z-1.249 I-0.163 J0
X-168.837 Y-142.517 Z-1.499 I0.163 J0
X-169.163 Y-142.517 Z-1.749 I-0.163 J0
X-168.837 Y-142.517 Z-1.999 I0.163 J0
X-169.163 Y-142.517 Z-2.249 I-0.163 J0
X-168.837 Y-142.517 Z-2.499 I0.163 J0
X-169.163 Y-142.517 I-0.163 J0
X-168.837 Y-142.517 I0.163 J0
G1 X-168.844 Y-142.486
X-168.861 Y-142.459
X-168.888 Y-142.442
X-168.919 Y-142.436
X-169.077
G0 Z5
X-193.077 Y-142.598
Z1.683
G1 Z0.001 F1000
X-192.919
X-192.888 Y-142.592
X-192.861 Y-142.574
X-192.844 Y-142.548
X-192.837 Y-142.517
G3 X-193.163 Y-142.517 Z-0.249 I-0.163 J0
X-192.837 Y-142.517 Z-0.499 I0.163 J0
X-193.163 Y-142.517 Z-0.749 I-0.163 J0
X-192.837 Y-142.517 Z-0.999 I0.163 J0
X-193.163 Y-142.517 Z-1.249 I-0.163 J0
X-192.837 Y-142.517 Z-1.499 I0.163 J0
X-193.163 Y-142.517 Z-1.749 I-0.163 J0
X-192.837 Y-142.517 Z-1.999 I0.163 J0
X-193.163 Y-142.517 Z-2.249 I-0.163 J0
X-192.837 Y-142.517 Z-2.499 I0.163 J0
X-193.163 Y-142.517 I-0.163 J0
X-192.837 Y-142.517 I0.163 J0
G1 X-192.844 Y-142.486
X-192.861 Y-142.459
X-192.888 Y-142.442
X-192.919 Y-142.436
X-193.077
G0 Z5
X-204.131 Y-108.317
Z2.001
G1 Z0.318 F1000
G18 G2 X-203.814 Z0.001 I0.318 K0
G1 X-203.655
G17 G3 X-203.337 Y-108 I0 J0.317
X-204.663 Y-108 Z-0.249 I-0.663 J0
X-203.337 Y-108 Z-0.499 I0.663 J0
X-204.663 Y-108 Z-0.749 I-0.663 J0
X-203.337 Y-108 Z-0.999 I0.663 J0
X-204.663 Y-108 Z-1.249 I-0.663 J0
X-203.337 Y-108 Z-1.499 I0.663 J0
X-204.663 Y-108 Z-1.749 I-0.663 J0
X-203.337 Y-108 Z-1.999 I0.663 J0
X-204.663 Y-108 Z-2.249 I-0.663 J0
X-203.337 Y-108 Z-2.499 I0.663 J0
X-204.663 Y-108 I-0.663 J0
X-203.337 Y-108 I0.663 J0
X-203.655 Y-107.683 I-0.318 J0
G1 X-203.814
G18 G3 X-204.131 Z-2.182 I0 K0.317
G0 Z5
Y-114.984
Z2.001
G1 Z0.318 F1000
G2 X-203.814 Z0.001 I0.318 K0
G1 X-203.655
G17 G3 X-203.337 Y-114.667 I0 J0.318
X-204.663 Y-114.667 Z-0.249 I-0.663 J0
X-203.337 Y-114.667 Z-0.499 I0.663 J0
X-204.663 Y-114.667 Z-0.749 I-0.663 J0
X-203.337 Y-114.667 Z-0.999 I0.663 J0
X-204.663 Y-114.667 Z-1.249 I-0.663 J0
X-203.337 Y-114.667 Z-1.499 I0.663 J0
X-204.663 Y-114.667 Z-1.749 I-0.663 J0
X-203.337 Y-114.667 Z-1.999 I0.663 J0
X-204.663 Y-114.667 Z-2.249 I-0.663 J0
X-203.337 Y-114.667 Z-2.499 I0.663 J0
X-204.663 Y-114.667 I-0.663 J0
X-203.337 Y-114.667 I0.663 J0
X-203.655 Y-114.349 I-0.318 J0
G1 X-203.814
G18 G3 X-204.131 Z-2.182 I0 K0.317
G0 Z5
Y-121.651
Z2.001
G1 Z0.318 F1000
G2 X-203.814 Z0.001 I0.318 K0
G1 X-203.655
G17 G3 X-203.337 Y-121.333 I0 J0.317
X-204.663 Y-121.333 Z-0.249 I-0.663 J0
X-203.337 Y-121.333 Z-0.499 I0.663 J0
X-204.663 Y-121.333 Z-0.749 I-0.663 J0
X-203.337 Y-121.333 Z-0.999 I0.663 J0
X-204.663 Y-121.333 Z-1.249 I-0.663 J0
X-203.337 Y-121.333 Z-1.499 I0.663 J0
X-204.663 Y-121.333 Z-1.749 I-0.663 J0
X-203.337 Y-121.333 Z-1.999 I0.663 J0
X-204.663 Y-121.333 Z-2.249 I-0.663 J0
X-203.337 Y-121.333 Z-2.499 I0.663 J0
X-204.663 Y-121.333 I-0.663 J0
X-203.337 Y-121.333 I0.663 J0
X-203.655 Y-121.016 I-0.318 J0
G1 X-203.814
G18 G3 X-204.131 Z-2.182 I0 K0.317
G0 Z5
Y-128.318
Z2.001
G1 Z0.318 F1000
G2 X-203.814 Z0.001 I0.318 K0
G1 X-203.655
G17 G3 X-203.337 Y-128 I0 J0.318
X-204.663 Y-128 Z-0.249 I-0.663 J0
X-203.337 Y-128 Z-0.499 I0.663 J0
X-204.663 Y-128 Z-0.749 I-0.663 J0
X-203.337 Y-128 Z-0.999 I0.663 J0
X-204.663 Y-128 Z-1.249 I-0.663 J0
X-203.337 Y-128 Z-1.499 I0.663 J0
X-204.663 Y-128 Z-1.749 I-0.663 J0
X-203.337 Y-128 Z-1.999 I0.663 J0
X-204.663 Y-128 Z-2.249 I-0.663 J0
X-203.337 Y-128 Z-2.499 I0.663 J0
X-204.663 Y-128 I-0.663 J0
X-203.337 Y-128 I0.663 J0
X-203.655 Y-127.683 I-0.318 J0
G1 X-203.814
G18 G3 X-204.131 Z-2.182 I0 K0.317
G0 Z5
X-214.131 Y-128.318
Z2.001
G1 Z0.318 F1000
G2 X-213.814 Z0.001 I0.318 K0
G1 X-213.655
G17 G3 X-213.337 Y-128 I0 J0.318
X-214.663 Y-128 Z-0.249 I-0.663 J0
X-213.337 Y-128 Z-0.499 I0.663 J0
X-214.663 Y-128 Z-0.749 I-0.663 J0
X-213.337 Y-128 Z-0.999 I0.663 J0
X-214.663 Y-128 Z-1.249 I-0.663 J0
X-213.337 Y-128 Z-1.499 I0.663 J0
X-214.663 Y-128 Z-1.749 I-0.663 J0
X-213.337 Y-128 Z-1.999 I0.663 J0
X-214.663 Y-128 Z-2.249 I-0.663 J0
X-213.337 Y-128 Z-2.499 I0.663 J0
X-214.663 Y-128 I-0.663 J0
X-213.337 Y-128 I0.663 J0
X-213.655 Y-127.683 I-0.318 J0
G1 X-213.814
G18 G3 X-214.131 Z-2.182 I0 K0.317
G0 Z5
Y-121.651
Z2.001
G1 Z0.318 F1000
G2 X-213.814 Z0.001 I0.318 K0
G1 X-213.655
G17 G3 X-213.337 Y-121.333 I0 J0.317
X-214.663 Y-121.333 Z-0.249 I-0.663 J0
X-213.337 Y-121.333 Z-0.499 I0.663 J0
X-214.663 Y-121.333 Z-0.749 I-0.663 J0
X-213.337 Y-121.333 Z-0.999 I0.663 J0
X-214.663 Y-121.333 Z-1.249 I-0.663 J0
X-213.337 Y-121.333 Z-1.499 I0.663 J0
X-214.663 Y-121.333 Z-1.749 I-0.663 J0
X-213.337 Y-121.333 Z-1.999 I0.663 J0
X-214.663 Y-121.333 Z-2.249 I-0.663 J0
X-213.337 Y-121.333 Z-2.499 I0.663 J0
X-214.663 Y-121.333 I-0.663 J0
X-213.337 Y-121.333 I0.663 J0
X-213.655 Y-121.016 I-0.318 J0
G1 X-213.814
G18 G3 X-214.131 Z-2.182 I0 K0.317
G0 Z5
Y-114.984
Z2.001
G1 Z0.318 F1000
G2 X-213.814 Z0.001 I0.318 K0
G1 X-213.655
G17 G3 X-213.337 Y-114.667 I0 J0.318
X-214.663 Y-114.667 Z-0.249 I-0.663 J0
X-213.337 Y-114.667 Z-0.499 I0.663 J0
X-214.663 Y-114.667 Z-0.749 I-0.663 J0
X-213.337 Y-114.667 Z-0.999 I0.663 J0
X-214.663 Y-114.667 Z-1.249 I-0.663 J0
X-213.337 Y-114.667 Z-1.499 I0.663 J0
X-214.663 Y-114.667 Z-1.749 I-0.663 J0
X-213.337 Y-114.667 Z-1.999 I0.663 J0
X-214.663 Y-114.667 Z-2.249 I-0.663 J0
X-213.337 Y-114.667 Z-2.499 I0.663 J0
X-214.663 Y-114.667 I-0.663 J0
X-213.337 Y-114.667 I0.663 J0
X-213.655 Y-114.349 I-0.318 J0
G1 X-213.814
G18 G3 X-214.131 Z-2.182 I0 K0.317
G0 Z5
Y-108.317
Z2.001
G1 Z0.318 F1000
G2 X-213.814 Z0.001 I0.318 K0
G1 X-213.655
G17 G3 X-213.337 Y-108 I0 J0.317
X-214.663 Y-108 Z-0.249 I-0.663 J0
X-213.337 Y-108 Z-0.499 I0.663 J0
X-214.663 Y-108 Z-0.749 I-0.663 J0
X-213.337 Y-108 Z-0.999 I0.663 J0
X-214.663 Y-108 Z-1.249 I-0.663 J0
X-213.337 Y-108 Z-1.499 I0.663 J0
X-214.663 Y-108 Z-1.749 I-0.663 J0
X-213.337 Y-108 Z-1.999 I0.663 J0
X-214.663 Y-108 Z-2.249 I-0.663 J0
X-213.337 Y-108 Z-2.499 I0.663 J0
X-214.663 Y-108 I-0.663 J0
X-213.337 Y-108 I0.663 J0
X-213.655 Y-107.683 I-0.318 J0
G1 X-213.814
G18 G3 X-214.131 Z-2.182 I0 K0.317
G0 Z5
X-238.131 Y-128.318
Z2.001
G1 Z0.318 F1000
G2 X-237.814 Z0.001 I0.318 K0
G1 X-237.655
G17 G3 X-237.337 Y-128 I0 J0.318
X-238.663 Y-128 Z-0.249 I-0.663 J0
X-237.337 Y-128 Z-0.499 I0.663 J0
X-238.663 Y-128 Z-0.749 I-0.663 J0
X-237.337 Y-128 Z-0.999 I0.663 J0
X-238.663 Y-128 Z-1.249 I-0.663 J0
X-237.337 Y-128 Z-1.499 I0.663 J0
X-238.663 Y-128 Z-1.749 I-0.663 J0
X-237.337 Y-128 Z-1.999 I0.663 J0
X-238.663 Y-128 Z-2.249 I-0.663 J0
X-237.337 Y-128 Z-2.499 I0.663 J0
X-238.663 Y-128 I-0.663 J0
X-237.337 Y-128 I0.663 J0
X-237.655 Y-127.683 I-0.318 J0
G1 X-237.814
G18 G3 X-238.131 Z-2.182 I0 K0.317
G0 Z5
Y-121.651
Z2.001
G1 Z0.318 F1000
G2 X-237.814 Z0.001 I0.318 K0
G1 X-237.655
G17 G3 X-237.337 Y-121.333 I0 J0.317
X-238.663 Y-121.333 Z-0.249 I-0.663 J0
X-237.337 Y-121.333 Z-0.499 I0.663 J0
X-238.663 Y-121.333 Z-0.749 I-0.663 J0
X-237.337 Y-121.333 Z-0.999 I0.663 J0
X-238.663 Y-121.333 Z-1.249 I-0.663 J0
X-237.337 Y-121.333 Z-1.499 I0.663 J0
X-238.663 Y-121.333 Z-1.749 I-0.663 J0
X-237.337 Y-121.333 Z-1.999 I0.663 J0
X-238.663 Y-121.333 Z-2.249 I-0.663 J0
X-237.337 Y-121.333 Z-2.499 I0.663 J0
X-238.663 Y-121.333 I-0.663 J0
X-237.337 Y-121.333 I0.663 J0
X-237.655 Y-121.016 I-0.318 J0
G1 X-237.814
G18 G3 X-238.131 Z-2.182 I0 K0.317
G0 Z5
Y-114.984
Z2.001
G1 Z0.318 F1000
G2 X-237.814 Z0.001 I0.318 K0
G1 X-237.655
G17 G3 X-237.337 Y-114.667 I0 J0.318
X-238.663 Y-114.667 Z-0.249 I-0.663 J0
X-237.337 Y-114.667 Z-0.499 I0.663 J0
X-238.663 Y-114.667 Z-0.749 I-0.663 J0
X-237.337 Y-114.667 Z-0.999 I0.663 J0
X-238.663 Y-114.667 Z-1.249 I-0.663 J0
X-237.337 Y-114.667 Z-1.499 I0.663 J0
X-238.663 Y-114.667 Z-1.749 I-0.663 J0
X-237.337 Y-114.667 Z-1.999 I0.663 J0
X-238.663 Y-114.667 Z-2.249 I-0.663 J0
X-237.337 Y-114.667 Z-2.499 I0.663 J0
X-238.663 Y-114.667 I-0.663 J0
X-237.337 Y-114.667 I0.663 J0
X-237.655 Y-114.349 I-0.318 J0
G1 X-237.814
G18 G3 X-238.131 Z-2.182 I0 K0.317
G0 Z5
Y-108.317
Z2.001
G1 Z0.318 F1000
G2 X-237.814 Z0.001 I0.318 K0
G1 X-237.655
G17 G3 X-237.337 Y-108 I0 J0.317
X-238.663 Y-108 Z-0.249 I-0.663 J0
X-237.337 Y-108 Z-0.499 I0.663 J0
X-238.663 Y-108 Z-0.749 I-0.663 J0
X-237.337 Y-108 Z-0.999 I0.663 J0
X-238.663 Y-108 Z-1.249 I-0.663 J0
X-237.337 Y-108 Z-1.499 I0.663 J0
X-238.663 Y-108 Z-1.749 I-0.663 J0
X-237.337 Y-108 Z-1.999 I0.663 J0
X-238.663 Y-108 Z-2.249 I-0.663 J0
X-237.337 Y-108 Z-2.499 I0.663 J0
X-238.663 Y-108 I-0.663 J0
X-237.337 Y-108 I0.663 J0
X-237.655 Y-107.683 I-0.318 J0
G1 X-237.814
G18 G3 X-238.131 Z-2.182 I0 K0.317
G0 Z5
X-248.131 Y-108.317
Z2.001
G1 Z0.318 F1000
G2 X-247.814 Z0.001 I0.318 K0
G1 X-247.655
G17 G3 X-247.337 Y-108 I0 J0.317
X-248.663 Y-108 Z-0.249 I-0.663 J0
X-247.337 Y-108 Z-0.499 I0.663 J0
X-248.663 Y-108 Z-0.749 I-0.663 J0
X-247.337 Y-108 Z-0.999 I0.663 J0
X-248.663 Y-108 Z-1.249 I-0.663 J0
X-247.337 Y-108 Z-1.499 I0.663 J0
X-248.663 Y-108 Z-1.749 I-0.663 J0
X-247.337 Y-108 Z-1.999 I0.663 J0
X-248.663 Y-108 Z-2.249 I-0.663 J0
X-247.337 Y-108 Z-2.499 I0.663 J0
X-248.663 Y-108 I-0.663 J0
X-247.337 Y-108 I0.663 J0
X-247.655 Y-107.683 I-0.318 J0
G1 X-247.814
G18 G3 X-248.131 Z-2.182 I0 K0.317
G0 Z5
Y-114.984
Z2.001
G1 Z0.318 F1000
G2 X-247.814 Z0.001 I0.318 K0
G1 X-247.655
G17 G3 X-247.337 Y-114.667 I0 J0.318
X-248.663 Y-114.667 Z-0.249 I-0.663 J0
X-247.337 Y-114.667 Z-0.499 I0.663 J0
X-248.663 Y-114.667 Z-0.749 I-0.663 J0
X-247.337 Y-114.667 Z-0.999 I0.663 J0
X-248.663 Y-114.667 Z-1.249 I-0.663 J0
X-247.337 Y-114.667 Z-1.499 I0.663 J0
X-248.663 Y-114.667 Z-1.749 I-0.663 J0
X-247.337 Y-114.667 Z-1.999 I0.663 J0
X-248.663 Y-114.667 Z-2.249 I-0.663 J0
X-247.337 Y-114.667 Z-2.499 I0.663 J0
X-248.663 Y-114.667 I-0.663 J0
X-247.337 Y-114.667 I0.663 J0
X-247.655 Y-114.349 I-0.318 J0
G1 X-247.814
G18 G3 X-248.131 Z-2.182 I0 K0.317
G0 Z5
Y-121.651
Z2.001
G1 Z0.318 F1000
G2 X-247.814 Z0.001 I0.318 K0
G1 X-247.655
G17 G3 X-247.337 Y-121.333 I0 J0.317
X-248.663 Y-121.333 Z-0.249 I-0.663 J0
X-247.337 Y-121.333 Z-0.499 I0.663 J0
X-248.663 Y-121.333 Z-0.749 I-0.663 J0
X-247.337 Y-121.333 Z-0.999 I0.663 J0
X-248.663 Y-121.333 Z-1.249 I-0.663 J0
X-247.337 Y-121.333 Z-1.499 I0.663 J0
X-248.663 Y-121.333 Z-1.749 I-0.663 J0
X-247.337 Y-121.333 Z-1.999 I0.663 J0
X-248.663 Y-121.333 Z-2.249 I-0.663 J0
X-247.337 Y-121.333 Z-2.499 I0.663 J0
X-248.663 Y-121.333 I-0.663 J0
X-247.337 Y-121.333 I0.663 J0
X-247.655 Y-121.016 I-0.318 J0
G1 X-247.814
G18 G3 X-248.131 Z-2.182 I0 K0.317
G0 Z5
Y-128.318
Z2.001
G1 Z0.318 F1000
G2 X-247.814 Z0.001 I0.318 K0
G1 X-247.655
G17 G3 X-247.337 Y-128 I0 J0.318
X-248.663 Y-128 Z-0.249 I-0.663 J0
X-247.337 Y-128 Z-0.499 I0.663 J0
X-248.663 Y-128 Z-0.749 I-0.663 J0
X-247.337 Y-128 Z-0.999 I0.663 J0
X-248.663 Y-128 Z-1.249 I-0.663 J0
X-247.337 Y-128 Z-1.499 I0.663 J0
X-248.663 Y-128 Z-1.749 I-0.663 J0
X-247.337 Y-128 Z-1.999 I0.663 J0
X-248.663 Y-128 Z-2.249 I-0.663 J0
X-247.337 Y-128 Z-2.499 I0.663 J0
X-248.663 Y-128 I-0.663 J0
X-247.337 Y-128 I0.663 J0
X-247.655 Y-127.683 I-0.318 J0
G1 X-247.814
G18 G3 X-248.131 Z-2.182 I0 K0.317
G0 Z5
X-259.078 Y-142.598
Z1.683
G1 Z0.001 F1000
X-258.919
X-258.888 Y-142.592
X-258.861 Y-142.574
X-258.844 Y-142.548
X-258.837 Y-142.517
G17 G3 X-259.163 Y-142.517 Z-0.249 I-0.163 J0
X-258.837 Y-142.517 Z-0.499 I0.163 J0
X-259.163 Y-142.517 Z-0.749 I-0.163 J0
X-258.837 Y-142.517 Z-0.999 I0.163 J0
X-259.163 Y-142.517 Z-1.249 I-0.163 J0
X-258.837 Y-142.517 Z-1.499 I0.163 J0
X-259.163 Y-142.517 Z-1.749 I-0.163 J0
X-258.837 Y-142.517 Z-1.999 I0.163 J0
X-259.163 Y-142.517 Z-2.249 I-0.163 J0
X-258.837 Y-142.517 Z-2.499 I0.163 J0
X-259.163 Y-142.517 I-0.163 J0
X-258.837 Y-142.517 I0.163 J0
G1 X-258.844 Y-142.486
X-258.861 Y-142.459
X-258.888 Y-142.442
X-258.919 Y-142.436
X-259.078
G0 Z5
X-249.077 Y-188.081
Z1.683
G1 Z0.001 F1000
X-248.919
X-248.888 Y-188.075
X-248.861 Y-188.057
X-248.844 Y-188.031
X-248.837 Y-188
G3 X-249.163 Y-188 Z-0.249 I-0.163 J0
X-248.837 Y-188 Z-0.499 I0.163 J0
X-249.163 Y-188 Z-0.749 I-0.163 J0
X-248.837 Y-188 Z-0.999 I0.163 J0
X-249.163 Y-188 Z-1.249 I-0.163 J0
X-248.837 Y-188 Z-1.499 I0.163 J0
X-249.163 Y-188 Z-1.749 I-0.163 J0
X-248.837 Y-188 Z-1.999 I0.163 J0
X-249.163 Y-188 Z-2.249 I-0.163 J0
X-248.837 Y-188 Z-2.499 I0.163 J0
X-249.163 Y-188 I-0.163 J0
X-248.837 Y-188 I0.163 J0
G1 X-248.844 Y-187.969
X-248.861 Y-187.943
X-248.888 Y-187.925
X-248.919 Y-187.919
X-249.077
G0 Z5
X-203.077 Y-188.081
Z1.683
G1 Z0.001 F1000
X-202.919
X-202.888 Y-188.075
X-202.861 Y-188.057
X-202.844 Y-188.031
X-202.837 Y-188
G3 X-203.163 Y-188 Z-0.249 I-0.163 J0
X-202.837 Y-188 Z-0.499 I0.163 J0
X-203.163 Y-188 Z-0.749 I-0.163 J0
X-202.837 Y-188 Z-0.999 I0.163 J0
X-203.163 Y-188 Z-1.249 I-0.163 J0
X-202.837 Y-188 Z-1.499 I0.163 J0
X-203.163 Y-188 Z-1.749 I-0.163 J0
X-202.837 Y-188 Z-1.999 I0.163 J0
X-203.163 Y-188 Z-2.249 I-0.163 J0
X-202.837 Y-188 Z-2.499 I0.163 J0
X-203.163 Y-188 I-0.163 J0
X-202.837 Y-188 I0.163 J0
G1 X-202.844 Y-187.969
X-202.861 Y-187.943
X-202.888 Y-187.925
X-202.919 Y-187.919
X-203.077
G0 Z5
X-159.077 Y-188.081
Z1.683
G1 Z0.001 F1000
X-158.919
X-158.888 Y-188.075
X-158.861 Y-188.057
X-158.844 Y-188.031
X-158.837 Y-188
G3 X-159.163 Y-188 Z-0.249 I-0.163 J0
X-158.837 Y-188 Z-0.499 I0.163 J0
X-159.163 Y-188 Z-0.749 I-0.163 J0
X-158.837 Y-188 Z-0.999 I0.163 J0
X-159.163 Y-188 Z-1.249 I-0.163 J0
X-158.837 Y-188 Z-1.499 I0.163 J0
X-159.163 Y-188 Z-1.749 I-0.163 J0
X-158.837 Y-188 Z-1.999 I0.163 J0
X-159.163 Y-188 Z-2.249 I-0.163 J0
X-158.837 Y-188 Z-2.499 I0.163 J0
X-159.163 Y-188 I-0.163 J0
X-158.837 Y-188 I0.163 J0
G1 X-158.844 Y-187.969
X-158.861 Y-187.943
X-158.888 Y-187.925
X-158.919 Y-187.919
X-159.077
G0 Z5
X-113.077 Y-188.081
Z1.683
G1 Z0.001 F1000
X-112.919
X-112.888 Y-188.075
X-112.861 Y-188.057
X-112.844 Y-188.031
X-112.838 Y-188
G3 X-113.162 Y-188 Z-0.249 I-0.162 J0
X-112.838 Y-188 Z-0.499 I0.162 J0
X-113.162 Y-188 Z-0.749 I-0.162 J0
X-112.838 Y-188 Z-0.999 I0.162 J0
X-113.162 Y-188 Z-1.249 I-0.162 J0
X-112.838 Y-188 Z-1.499 I0.162 J0
X-113.162 Y-188 Z-1.749 I-0.162 J0
X-112.838 Y-188 Z-1.999 I0.162 J0
X-113.162 Y-188 Z-2.249 I-0.162 J0
X-112.838 Y-188 Z-2.499 I0.162 J0
X-113.162 Y-188 I-0.162 J0
X-112.838 Y-188 I0.162 J0
G1 X-112.844 Y-187.969
X-112.861 Y-187.943
X-112.888 Y-187.925
X-112.919 Y-187.919
X-113.077
G0 Z5
X-73.077 Y-188.081
Z1.682
G1 Z-0.001 F1000
X-72.919
X-72.888 Y-188.075
X-72.861 Y-188.057
X-72.844 Y-188.031
X-72.838 Y-188
G3 X-73.162 Y-188 Z-0.251 I-0.162 J0
X-72.838 Y-188 Z-0.501 I0.162 J0
X-73.162 Y-188 Z-0.751 I-0.162 J0
X-72.838 Y-188 Z-1.001 I0.162 J0
X-73.162 Y-188 Z-1.251 I-0.162 J0
X-72.838 Y-188 Z-1.501 I0.162 J0
X-73.162 Y-188 Z-1.751 I-0.162 J0
X-72.838 Y-188 Z-2.001 I0.162 J0
X-73.162 Y-188 Z-2.251 I-0.162 J0
X-72.838 Y-188 Z-2.501 I0.162 J0
X-73.162 Y-188 I-0.162 J0
X-72.838 Y-188 I0.162 J0
G1 X-72.844 Y-187.969
X-72.861 Y-187.943
X-72.888 Y-187.925
X-72.919 Y-187.919
X-73.077
G0 Z5
X-65.327 Y-167.195
Z1.682
G1 Z-0.001 F1000
X-65.169
X-65.138 Y-167.189
X-65.111 Y-167.171
X-65.094 Y-167.145
X-65.088 Y-167.114
G3 X-65.412 Y-167.114 Z-0.251 I-0.162 J0
X-65.088 Y-167.114 Z-0.501 I0.162 J0
X-65.412 Y-167.114 Z-0.751 I-0.162 J0
X-65.088 Y-167.114 Z-1.001 I0.162 J0
X-65.412 Y-167.114 Z-1.251 I-0.162 J0
X-65.088 Y-167.114 Z-1.501 I0.162 J0
X-65.412 Y-167.114 Z-1.751 I-0.162 J0
X-65.088 Y-167.114 Z-2.001 I0.162 J0
X-65.412 Y-167.114 Z-2.251 I-0.162 J0
X-65.088 Y-167.114 Z-2.501 I0.162 J0
X-65.412 Y-167.114 I-0.162 J0
X-65.088 Y-167.114 I0.162 J0
G1 X-65.094 Y-167.083
X-65.111 Y-167.056
X-65.138 Y-167.039
X-65.169 Y-167.032
X-65.327
G0 Z5
X-39.881 Y-152.181
Z1.999
G1 Z0.317 F1000
G18 G2 X-39.564 Z-0.001 I0.317 K0
G1 X-39.405
G17 G3 X-39.088 Y-151.864 I0 J0.318
X-60.912 Y-151.864 Z-0.251 I-10.912 J0
X-39.088 Y-151.864 Z-0.501 I10.912 J0
X-60.912 Y-151.864 Z-0.751 I-10.912 J0
X-39.088 Y-151.864 Z-1.001 I10.912 J0
X-60.912 Y-151.864 Z-1.251 I-10.912 J0
X-39.088 Y-151.864 Z-1.501 I10.912 J0
X-60.912 Y-151.864 Z-1.751 I-10.912 J0
X-39.088 Y-151.864 Z-2.001 I10.912 J0
X-60.912 Y-151.864 Z-2.251 I-10.912 J0
X-39.088 Y-151.864 Z-2.501 I10.912 J0
X-60.912 Y-151.864 I-10.912 J0
X-39.088 Y-151.864 I10.912 J0
X-39.405 Y-151.546 I-0.317 J0
G1 X-39.564
G18 G3 X-39.881 Z-2.183 I0 K0.318
G0 Z5
X-65.327 Y-136.695
Z1.682
G1 Z-0.001 F1000
X-65.169
X-65.138 Y-136.689
X-65.111 Y-136.671
X-65.094 Y-136.645
X-65.088 Y-136.614
G17 G3 X-65.412 Y-136.614 Z-0.251 I-0.162 J0
X-65.088 Y-136.614 Z-0.501 I0.162 J0
X-65.412 Y-136.614 Z-0.751 I-0.162 J0
X-65.088 Y-136.614 Z-1.001 I0.162 J0
X-65.412 Y-136.614 Z-1.251 I-0.162 J0
X-65.088 Y-136.614 Z-1.501 I0.162 J0
X-65.412 Y-136.614 Z-1.751 I-0.162 J0
X-65.088 Y-136.614 Z-2.001 I0.162 J0
X-65.412 Y-136.614 Z-2.251 I-0.162 J0
X-65.088 Y-136.614 Z-2.501 I0.162 J0
X-65.412 Y-136.614 I-0.162 J0
X-65.088 Y-136.614 I0.162 J0
G1 X-65.094 Y-136.583
X-65.111 Y-136.556
X-65.138 Y-136.539
X-65.169 Y-136.532
X-65.327
G0 Z5
X-83.077 Y-142.598
Z1.682
G1 Z-0.001 F1000
X-82.919
X-82.888 Y-142.592
X-82.861 Y-142.574
X-82.844 Y-142.548
X-82.838 Y-142.517
G3 X-83.162 Y-142.517 Z-0.251 I-0.162 J0
X-82.838 Y-142.517 Z-0.501 I0.162 J0
X-83.162 Y-142.517 Z-0.751 I-0.162 J0
X-82.838 Y-142.517 Z-1.001 I0.162 J0
X-83.162 Y-142.517 Z-1.251 I-0.162 J0
X-82.838 Y-142.517 Z-1.501 I0.162 J0
X-83.162 Y-142.517 Z-1.751 I-0.162 J0
X-82.838 Y-142.517 Z-2.001 I0.162 J0
X-83.162 Y-142.517 Z-2.251 I-0.162 J0
X-82.838 Y-142.517 Z-2.501 I0.162 J0
X-83.162 Y-142.517 I-0.162 J0
X-82.838 Y-142.517 I0.162 J0
G1 X-82.844 Y-142.486
X-82.861 Y-142.459
X-82.888 Y-142.442
X-82.919 Y-142.436
X-83.077
G0 Z5
X-85.077 Y-125.51
Z1.682
G1 Z-0.001 F1000
X-84.919
X-84.888 Y-125.504
X-84.861 Y-125.486
X-84.844 Y-125.46
X-84.838 Y-125.429
G3 X-85.162 Y-125.429 Z-0.251 I-0.162 J0
X-84.838 Y-125.429 Z-0.501 I0.162 J0
X-85.162 Y-125.429 Z-0.751 I-0.162 J0
X-84.838 Y-125.429 Z-1.001 I0.162 J0
X-85.162 Y-125.429 Z-1.251 I-0.162 J0
X-84.838 Y-125.429 Z-1.501 I0.162 J0
X-85.162 Y-125.429 Z-1.751 I-0.162 J0
X-84.838 Y-125.429 Z-2.001 I0.162 J0
X-85.162 Y-125.429 Z-2.251 I-0.162 J0
X-84.838 Y-125.429 Z-2.501 I0.162 J0
X-85.162 Y-125.429 I-0.162 J0
X-84.838 Y-125.429 I0.162 J0
G1 X-84.844 Y-125.398
X-84.861 Y-125.372
X-84.888 Y-125.354
X-84.919 Y-125.348
X-85.077
G0 Z5
X-101.077 Y-125.51
Z1.683
G1 Z0.001 F1000
X-100.919
X-100.888 Y-125.504
X-100.861 Y-125.486
X-100.844 Y-125.46
X-100.838 Y-125.429
G3 X-101.162 Y-125.429 Z-0.249 I-0.162 J0
X-100.838 Y-125.429 Z-0.499 I0.162 J0
X-101.162 Y-125.429 Z-0.749 I-0.162 J0
X-100.838 Y-125.429 Z-0.999 I0.162 J0
X-101.162 Y-125.429 Z-1.249 I-0.162 J0
X-100.838 Y-125.429 Z-1.499 I0.162 J0
X-101.162 Y-125.429 Z-1.749 I-0.162 J0
X-100.838 Y-125.429 Z-1.999 I0.162 J0
X-101.162 Y-125.429 Z-2.249 I-0.162 J0
X-100.838 Y-125.429 Z-2.499 I0.162 J0
X-101.162 Y-125.429 I-0.162 J0
X-100.838 Y-125.429 I0.162 J0
G1 X-100.844 Y-125.398
X-100.861 Y-125.372
X-100.888 Y-125.354
X-100.919 Y-125.348
X-101.077
G0 Z5
X-103.077 Y-142.598
Z1.683
G1 Z0.001 F1000
X-102.919
X-102.888 Y-142.592
X-102.861 Y-142.574
X-102.844 Y-142.548
X-102.838 Y-142.517
G3 X-103.162 Y-142.517 Z-0.249 I-0.162 J0
X-102.838 Y-142.517 Z-0.499 I0.162 J0
X-103.162 Y-142.517 Z-0.749 I-0.162 J0
X-102.838 Y-142.517 Z-0.999 I0.162 J0
X-103.162 Y-142.517 Z-1.249 I-0.162 J0
X-102.838 Y-142.517 Z-1.499 I0.162 J0
X-103.162 Y-142.517 Z-1.749 I-0.162 J0
X-102.838 Y-142.517 Z-1.999 I0.162 J0
X-103.162 Y-142.517 Z-2.249 I-0.162 J0
X-102.838 Y-142.517 Z-2.499 I0.162 J0
X-103.162 Y-142.517 I-0.162 J0
X-102.838 Y-142.517 I0.162 J0
G1 X-102.844 Y-142.486
X-102.861 Y-142.459
X-102.888 Y-142.442
X-102.919 Y-142.436
X-103.077
G0 Z5
X-120.494 Y-111.403
Z1.683
G1 Z0.001 F1000
X-120.335
X-120.304 Y-111.397
X-120.278 Y-111.38
X-120.26 Y-111.353
X-120.254 Y-111.322
G3 X-120.579 Y-111.322 Z-0.249 I-0.162 J0
X-120.254 Y-111.322 Z-0.499 I0.162 J0
X-120.579 Y-111.322 Z-0.749 I-0.162 J0
X-120.254 Y-111.322 Z-0.999 I0.162 J0
X-120.579 Y-111.322 Z-1.249 I-0.162 J0
X-120.254 Y-111.322 Z-1.499 I0.162 J0
X-120.579 Y-111.322 Z-1.749 I-0.162 J0
X-120.254 Y-111.322 Z-1.999 I0.162 J0
X-120.579 Y-111.322 Z-2.249 I-0.162 J0
X-120.254 Y-111.322 Z-2.499 I0.162 J0
X-120.579 Y-111.322 I-0.162 J0
X-120.254 Y-111.322 I0.162 J0
G1 X-120.26 Y-111.291
X-120.278 Y-111.265
X-120.304 Y-111.247
X-120.335 Y-111.241
X-120.494
G0 Z5
X-120.827 Y-100.331
Z1.683
G1 Z0.001 F1000
X-120.669
X-120.638 Y-100.325
X-120.611 Y-100.307
X-120.594 Y-100.281
X-120.588 Y-100.25
G3 X-120.912 Y-100.25 Z-0.249 I-0.162 J0
X-120.588 Y-100.25 Z-0.499 I0.162 J0
X-120.912 Y-100.25 Z-0.749 I-0.162 J0
X-120.588 Y-100.25 Z-0.999 I0.162 J0
X-120.912 Y-100.25 Z-1.249 I-0.162 J0
X-120.588 Y-100.25 Z-1.499 I0.162 J0
X-120.912 Y-100.25 Z-1.749 I-0.162 J0
X-120.588 Y-100.25 Z-1.999 I0.162 J0
X-120.912 Y-100.25 Z-2.249 I-0.162 J0
X-120.588 Y-100.25 Z-2.499 I0.162 J0
X-120.912 Y-100.25 I-0.162 J0
X-120.588 Y-100.25 I0.162 J0
G1 X-120.594 Y-100.219
X-120.611 Y-100.193
X-120.638 Y-100.175
X-120.669 Y-100.169
X-120.827
G0 Z5
X-120.494 Y-88.759
Z1.683
G1 Z0.001 F1000
X-120.335
X-120.304 Y-88.753
X-120.278 Y-88.735
X-120.26 Y-88.709
X-120.254 Y-88.678
G3 X-120.579 Y-88.678 Z-0.249 I-0.162 J0
X-120.254 Y-88.678 Z-0.499 I0.162 J0
X-120.579 Y-88.678 Z-0.749 I-0.162 J0
X-120.254 Y-88.678 Z-0.999 I0.162 J0
X-120.579 Y-88.678 Z-1.249 I-0.162 J0
X-120.254 Y-88.678 Z-1.499 I0.162 J0
X-120.579 Y-88.678 Z-1.749 I-0.162 J0
X-120.254 Y-88.678 Z-1.999 I0.162 J0
X-120.579 Y-88.678 Z-2.249 I-0.162 J0
X-120.254 Y-88.678 Z-2.499 I0.162 J0
X-120.579 Y-88.678 I-0.162 J0
X-120.254 Y-88.678 I0.162 J0
G1 X-120.26 Y-88.647
X-120.278 Y-88.62
X-120.304 Y-88.603
X-120.335 Y-88.597
X-120.494
G0 Z5
X-120.827 Y-69.831
Z1.683
G1 Z0.001 F1000
X-120.669
X-120.638 Y-69.825
X-120.611 Y-69.807
X-120.594 Y-69.781
X-120.588 Y-69.75
G3 X-120.912 Y-69.75 Z-0.249 I-0.162 J0
X-120.588 Y-69.75 Z-0.499 I0.162 J0
X-120.912 Y-69.75 Z-0.749 I-0.162 J0
X-120.588 Y-69.75 Z-0.999 I0.162 J0
X-120.912 Y-69.75 Z-1.249 I-0.162 J0
X-120.588 Y-69.75 Z-1.499 I0.162 J0
X-120.912 Y-69.75 Z-1.749 I-0.162 J0
X-120.588 Y-69.75 Z-1.999 I0.162 J0
X-120.912 Y-69.75 Z-2.249 I-0.162 J0
X-120.588 Y-69.75 Z-2.499 I0.162 J0
X-120.912 Y-69.75 I-0.162 J0
X-120.588 Y-69.75 I0.162 J0
G1 X-120.594 Y-69.719
X-120.611 Y-69.693
X-120.638 Y-69.675
X-120.669 Y-69.669
X-120.827
G0 Z5
X-103.077 Y-57.564
Z1.683
G1 Z0.001 F1000
X-102.919
X-102.888 Y-57.558
X-102.861 Y-57.541
X-102.844 Y-57.514
X-102.838 Y-57.483
G3 X-103.162 Y-57.483 Z-0.249 I-0.162 J0
X-102.838 Y-57.483 Z-0.499 I0.162 J0
X-103.162 Y-57.483 Z-0.749 I-0.162 J0
X-102.838 Y-57.483 Z-0.999 I0.162 J0
X-103.162 Y-57.483 Z-1.249 I-0.162 J0
X-102.838 Y-57.483 Z-1.499 I0.162 J0
X-103.162 Y-57.483 Z-1.749 I-0.162 J0
X-102.838 Y-57.483 Z-1.999 I0.162 J0
X-103.162 Y-57.483 Z-2.249 I-0.162 J0
X-102.838 Y-57.483 Z-2.499 I0.162 J0
X-103.162 Y-57.483 I-0.162 J0
X-102.838 Y-57.483 I0.162 J0
G1 X-102.844 Y-57.452
X-102.861 Y-57.426
X-102.888 Y-57.408
X-102.919 Y-57.402
X-103.077
G0 Z5
X-101.077 Y-74.652
Z1.683
G1 Z0.001 F1000
X-100.919
X-100.888 Y-74.646
X-100.861 Y-74.628
X-100.844 Y-74.602
X-100.838 Y-74.571
G3 X-101.162 Y-74.571 Z-0.249 I-0.162 J0
X-100.838 Y-74.571 Z-0.499 I0.162 J0
X-101.162 Y-74.571 Z-0.749 I-0.162 J0
X-100.838 Y-74.571 Z-0.999 I0.162 J0
X-101.162 Y-74.571 Z-1.249 I-0.162 J0
X-100.838 Y-74.571 Z-1.499 I0.162 J0
X-101.162 Y-74.571 Z-1.749 I-0.162 J0
X-100.838 Y-74.571 Z-1.999 I0.162 J0
X-101.162 Y-74.571 Z-2.249 I-0.162 J0
X-100.838 Y-74.571 Z-2.499 I0.162 J0
X-101.162 Y-74.571 I-0.162 J0
X-100.838 Y-74.571 I0.162 J0
G1 X-100.844 Y-74.54
X-100.861 Y-74.514
X-100.888 Y-74.496
X-100.919 Y-74.49
X-101.077
G0 Z5
X-85.077 Y-74.652
Z1.682
G1 Z-0.001 F1000
X-84.919
X-84.888 Y-74.646
X-84.861 Y-74.628
X-84.844 Y-74.602
X-84.838 Y-74.571
G3 X-85.162 Y-74.571 Z-0.251 I-0.162 J0
X-84.838 Y-74.571 Z-0.501 I0.162 J0
X-85.162 Y-74.571 Z-0.751 I-0.162 J0
X-84.838 Y-74.571 Z-1.001 I0.162 J0
X-85.162 Y-74.571 Z-1.251 I-0.162 J0
X-84.838 Y-74.571 Z-1.501 I0.162 J0
X-85.162 Y-74.571 Z-1.751 I-0.162 J0
X-84.838 Y-74.571 Z-2.001 I0.162 J0
X-85.162 Y-74.571 Z-2.251 I-0.162 J0
X-84.838 Y-74.571 Z-2.501 I0.162 J0
X-85.162 Y-74.571 I-0.162 J0
X-84.838 Y-74.571 I0.162 J0
G1 X-84.844 Y-74.54
X-84.861 Y-74.514
X-84.888 Y-74.496
X-84.919 Y-74.49
X-85.077
G0 Z5
X-83.077 Y-57.564
Z1.682
G1 Z-0.001 F1000
X-82.919
X-82.888 Y-57.558
X-82.861 Y-57.541
X-82.844 Y-57.514
X-82.838 Y-57.483
G3 X-83.162 Y-57.483 Z-0.251 I-0.162 J0
X-82.838 Y-57.483 Z-0.501 I0.162 J0
X-83.162 Y-57.483 Z-0.751 I-0.162 J0
X-82.838 Y-57.483 Z-1.001 I0.162 J0
X-83.162 Y-57.483 Z-1.251 I-0.162 J0
X-82.838 Y-57.483 Z-1.501 I0.162 J0
X-83.162 Y-57.483 Z-1.751 I-0.162 J0
X-82.838 Y-57.483 Z-2.001 I0.162 J0
X-83.162 Y-57.483 Z-2.251 I-0.162 J0
X-82.838 Y-57.483 Z-2.501 I0.162 J0
X-83.162 Y-57.483 I-0.162 J0
X-82.838 Y-57.483 I0.162 J0
G1 X-82.844 Y-57.452
X-82.861 Y-57.426
X-82.888 Y-57.408
X-82.919 Y-57.402
X-83.077
G0 Z5
X-65.327 Y-63.468
Z1.682
G1 Z-0.001 F1000
X-65.169
X-65.138 Y-63.461
X-65.111 Y-63.444
X-65.094 Y-63.417
X-65.088 Y-63.386
G3 X-65.412 Y-63.386 Z-0.251 I-0.162 J0
X-65.088 Y-63.386 Z-0.501 I0.162 J0
X-65.412 Y-63.386 Z-0.751 I-0.162 J0
X-65.088 Y-63.386 Z-1.001 I0.162 J0
X-65.412 Y-63.386 Z-1.251 I-0.162 J0
X-65.088 Y-63.386 Z-1.501 I0.162 J0
X-65.412 Y-63.386 Z-1.751 I-0.162 J0
X-65.088 Y-63.386 Z-2.001 I0.162 J0
X-65.412 Y-63.386 Z-2.251 I-0.162 J0
X-65.088 Y-63.386 Z-2.501 I0.162 J0
X-65.412 Y-63.386 I-0.162 J0
X-65.088 Y-63.386 I0.162 J0
G1 X-65.094 Y-63.355
X-65.111 Y-63.329
X-65.138 Y-63.311
X-65.169 Y-63.305
X-65.327
G0 Z5
X-65.661 Y-88.759
Z1.682
G1 Z-0.001 F1000
X-65.502
X-65.471 Y-88.753
X-65.445 Y-88.735
X-65.427 Y-88.709
X-65.421 Y-88.678
G3 X-65.746 Y-88.678 Z-0.251 I-0.163 J0
X-65.421 Y-88.678 Z-0.501 I0.163 J0
X-65.746 Y-88.678 Z-0.751 I-0.163 J0
X-65.421 Y-88.678 Z-1.001 I0.163 J0
X-65.746 Y-88.678 Z-1.251 I-0.163 J0
X-65.421 Y-88.678 Z-1.501 I0.163 J0
X-65.746 Y-88.678 Z-1.751 I-0.163 J0
X-65.421 Y-88.678 Z-2.001 I0.163 J0
X-65.746 Y-88.678 Z-2.251 I-0.163 J0
X-65.421 Y-88.678 Z-2.501 I0.163 J0
X-65.746 Y-88.678 I-0.163 J0
X-65.421 Y-88.678 I0.163 J0
G1 X-65.427 Y-88.647
X-65.445 Y-88.62
X-65.471 Y-88.603
X-65.502 Y-88.597
X-65.661
G0 Z5
Y-111.403
Z1.682
G1 Z-0.001 F1000
X-65.502
X-65.471 Y-111.397
X-65.445 Y-111.38
X-65.427 Y-111.353
X-65.421 Y-111.322
G3 X-65.746 Y-111.322 Z-0.251 I-0.163 J0
X-65.421 Y-111.322 Z-0.501 I0.163 J0
X-65.746 Y-111.322 Z-0.751 I-0.163 J0
X-65.421 Y-111.322 Z-1.001 I0.163 J0
X-65.746 Y-111.322 Z-1.251 I-0.163 J0
X-65.421 Y-111.322 Z-1.501 I0.163 J0
X-65.746 Y-111.322 Z-1.751 I-0.163 J0
X-65.421 Y-111.322 Z-2.001 I0.163 J0
X-65.746 Y-111.322 Z-2.251 I-0.163 J0
X-65.421 Y-111.322 Z-2.501 I0.163 J0
X-65.746 Y-111.322 I-0.163 J0
X-65.421 Y-111.322 I0.163 J0
G1 X-65.427 Y-111.291
X-65.445 Y-111.265
X-65.471 Y-111.247
X-65.502 Y-111.241
X-65.661
G0 Z5
X-259.078 Y-57.564
Z1.683
G1 Z0.001 F1000
X-258.919
X-258.888 Y-57.558
X-258.861 Y-57.541
X-258.844 Y-57.514
X-258.837 Y-57.483
G3 X-259.163 Y-57.483 Z-0.249 I-0.163 J0
X-258.837 Y-57.483 Z-0.499 I0.163 J0
X-259.163 Y-57.483 Z-0.749 I-0.163 J0
X-258.837 Y-57.483 Z-0.999 I0.163 J0
X-259.163 Y-57.483 Z-1.249 I-0.163 J0
X-258.837 Y-57.483 Z-1.499 I0.163 J0
X-259.163 Y-57.483 Z-1.749 I-0.163 J0
X-258.837 Y-57.483 Z-1.999 I0.163 J0
X-259.163 Y-57.483 Z-2.249 I-0.163 J0
X-258.837 Y-57.483 Z-2.499 I0.163 J0
X-259.163 Y-57.483 I-0.163 J0
X-258.837 Y-57.483 I0.163 J0
G1 X-258.844 Y-57.452
X-258.861 Y-57.426
X-258.888 Y-57.408
X-258.919 Y-57.402
X-259.078
G0 Z5
X-248.131 Y-58.318
Z2.001
G1 Z0.318 F1000
G18 G2 X-247.814 Z0.001 I0.318 K0
G1 X-247.655
G17 G3 X-247.337 Y-58 I0 J0.318
X-248.663 Y-58 Z-0.249 I-0.663 J0
X-247.337 Y-58 Z-0.499 I0.663 J0
X-248.663 Y-58 Z-0.749 I-0.663 J0
X-247.337 Y-58 Z-0.999 I0.663 J0
X-248.663 Y-58 Z-1.249 I-0.663 J0
X-247.337 Y-58 Z-1.499 I0.663 J0
X-248.663 Y-58 Z-1.749 I-0.663 J0
X-247.337 Y-58 Z-1.999 I0.663 J0
X-248.663 Y-58 Z-2.249 I-0.663 J0
X-247.337 Y-58 Z-2.499 I0.663 J0
X-248.663 Y-58 I-0.663 J0
X-247.337 Y-58 I0.663 J0
X-247.655 Y-57.682 I-0.318 J0
G1 X-247.814
G18 G3 X-248.131 Z-2.182 I0 K0.317
G0 Z5
X-238.131 Y-58.318
Z2.001
G1 Z0.318 F1000
G2 X-237.814 Z0.001 I0.318 K0
G1 X-237.655
G17 G3 X-237.337 Y-58 I0 J0.318
X-238.663 Y-58 Z-0.249 I-0.663 J0
X-237.337 Y-58 Z-0.499 I0.663 J0
X-238.663 Y-58 Z-0.749 I-0.663 J0
X-237.337 Y-58 Z-0.999 I0.663 J0
X-238.663 Y-58 Z-1.249 I-0.663 J0
X-237.337 Y-58 Z-1.499 I0.663 J0
X-238.663 Y-58 Z-1.749 I-0.663 J0
X-237.337 Y-58 Z-1.999 I0.663 J0
X-238.663 Y-58 Z-2.249 I-0.663 J0
X-237.337 Y-58 Z-2.499 I0.663 J0
X-238.663 Y-58 I-0.663 J0
X-237.337 Y-58 I0.663 J0
X-237.655 Y-57.682 I-0.318 J0
G1 X-237.814
G18 G3 X-238.131 Z-2.182 I0 K0.317
G0 Z5
X-248.131 Y-48.318
Z2.001
G1 Z0.318 F1000
G2 X-247.814 Z0.001 I0.318 K0
G1 X-247.655
G17 G3 X-247.337 Y-48 I0 J0.318
X-248.663 Y-48 Z-0.249 I-0.663 J0
X-247.337 Y-48 Z-0.499 I0.663 J0
X-248.663 Y-48 Z-0.749 I-0.663 J0
X-247.337 Y-48 Z-0.999 I0.663 J0
X-248.663 Y-48 Z-1.249 I-0.663 J0
X-247.337 Y-48 Z-1.499 I0.663 J0
X-248.663 Y-48 Z-1.749 I-0.663 J0
X-247.337 Y-48 Z-1.999 I0.663 J0
X-248.663 Y-48 Z-2.249 I-0.663 J0
X-247.337 Y-48 Z-2.499 I0.663 J0
X-248.663 Y-48 I-0.663 J0
X-247.337 Y-48 I0.663 J0
X-247.655 Y-47.682 I-0.318 J0
G1 X-247.814
G18 G3 X-248.131 Z-2.182 I0 K0.317
G0 Z5
X-238.131 Y-48.318
Z2.001
G1 Z0.318 F1000
G2 X-237.814 Z0.001 I0.318 K0
G1 X-237.655
G17 G3 X-237.337 Y-48 I0 J0.318
X-238.663 Y-48 Z-0.249 I-0.663 J0
X-237.337 Y-48 Z-0.499 I0.663 J0
X-238.663 Y-48 Z-0.749 I-0.663 J0
X-237.337 Y-48 Z-0.999 I0.663 J0
X-238.663 Y-48 Z-1.249 I-0.663 J0
X-237.337 Y-48 Z-1.499 I0.663 J0
X-238.663 Y-48 Z-1.749 I-0.663 J0
X-237.337 Y-48 Z-1.999 I0.663 J0
X-238.663 Y-48 Z-2.249 I-0.663 J0
X-237.337 Y-48 Z-2.499 I0.663 J0
X-238.663 Y-48 I-0.663 J0
X-237.337 Y-48 I0.663 J0
X-237.655 Y-47.682 I-0.318 J0
G1 X-237.814
G18 G3 X-238.131 Z-2.182 I0 K0.317
G0 Z5
Y-38.318
Z2.001
G1 Z0.318 F1000
G2 X-237.814 Z0.001 I0.318 K0
G1 X-237.655
G17 G3 X-237.337 Y-38 I0 J0.318
X-238.663 Y-38 Z-0.249 I-0.663 J0
X-237.337 Y-38 Z-0.499 I0.663 J0
X-238.663 Y-38 Z-0.749 I-0.663 J0
X-237.337 Y-38 Z-0.999 I0.663 J0
X-238.663 Y-38 Z-1.249 I-0.663 J0
X-237.337 Y-38 Z-1.499 I0.663 J0
X-238.663 Y-38 Z-1.749 I-0.663 J0
X-237.337 Y-38 Z-1.999 I0.663 J0
X-238.663 Y-38 Z-2.249 I-0.663 J0
X-237.337 Y-38 Z-2.499 I0.663 J0
X-238.663 Y-38 I-0.663 J0
X-237.337 Y-38 I0.663 J0
X-237.655 Y-37.682 I-0.318 J0
G1 X-237.814
G18 G3 X-238.131 Z-2.182 I0 K0.317
G0 Z5
X-248.131 Y-38.318
Z2.001
G1 Z0.318 F1000
G2 X-247.814 Z0.001 I0.318 K0
G1 X-247.655
G17 G3 X-247.337 Y-38 I0 J0.318
X-248.663 Y-38 Z-0.249 I-0.663 J0
X-247.337 Y-38 Z-0.499 I0.663 J0
X-248.663 Y-38 Z-0.749 I-0.663 J0
X-247.337 Y-38 Z-0.999 I0.663 J0
X-248.663 Y-38 Z-1.249 I-0.663 J0
X-247.337 Y-38 Z-1.499 I0.663 J0
X-248.663 Y-38 Z-1.749 I-0.663 J0
X-247.337 Y-38 Z-1.999 I0.663 J0
X-248.663 Y-38 Z-2.249 I-0.663 J0
X-247.337 Y-38 Z-2.499 I0.663 J0
X-248.663 Y-38 I-0.663 J0
X-247.337 Y-38 I0.663 J0
X-247.655 Y-37.682 I-0.318 J0
G1 X-247.814
G18 G3 X-248.131 Z-2.182 I0 K0.317
G0 Z5
Y-28.317
Z2.001
G1 Z0.318 F1000
G2 X-247.814 Z0.001 I0.318 K0
G1 X-247.655
G17 G3 X-247.337 Y-28 I0 J0.317
X-248.663 Y-28 Z-0.249 I-0.663 J0
X-247.337 Y-28 Z-0.499 I0.663 J0
X-248.663 Y-28 Z-0.749 I-0.663 J0
X-247.337 Y-28 Z-0.999 I0.663 J0
X-248.663 Y-28 Z-1.249 I-0.663 J0
X-247.337 Y-28 Z-1.499 I0.663 J0
X-248.663 Y-28 Z-1.749 I-0.663 J0
X-247.337 Y-28 Z-1.999 I0.663 J0
X-248.663 Y-28 Z-2.249 I-0.663 J0
X-247.337 Y-28 Z-2.499 I0.663 J0
X-248.663 Y-28 I-0.663 J0
X-247.337 Y-28 I0.663 J0
X-247.655 Y-27.683 I-0.318 J0
G1 X-247.814
G18 G3 X-248.131 Z-2.182 I0 K0.317
G0 Z5
Y-18.317
Z2.001
G1 Z0.318 F1000
G2 X-247.814 Z0.001 I0.318 K0
G1 X-247.655
G17 G3 X-247.337 Y-18 I0 J0.317
X-248.663 Y-18 Z-0.249 I-0.663 J0
X-247.337 Y-18 Z-0.499 I0.663 J0
X-248.663 Y-18 Z-0.749 I-0.663 J0
X-247.337 Y-18 Z-0.999 I0.663 J0
X-248.663 Y-18 Z-1.249 I-0.663 J0
X-247.337 Y-18 Z-1.499 I0.663 J0
X-248.663 Y-18 Z-1.749 I-0.663 J0
X-247.337 Y-18 Z-1.999 I0.663 J0
X-248.663 Y-18 Z-2.249 I-0.663 J0
X-247.337 Y-18 Z-2.499 I0.663 J0
X-248.663 Y-18 I-0.663 J0
X-247.337 Y-18 I0.663 J0
X-247.655 Y-17.683 I-0.318 J0
G1 X-247.814
G18 G3 X-248.131 Z-2.182 I0 K0.317
G0 Z5
X-249.077 Y-12.081
Z1.683
G1 Z0.001 F1000
X-248.919
X-248.888 Y-12.075
X-248.861 Y-12.057
X-248.844 Y-12.031
X-248.837 Y-12
G17 G3 X-249.163 Y-12 Z-0.249 I-0.163 J0
X-248.837 Y-12 Z-0.499 I0.163 J0
X-249.163 Y-12 Z-0.749 I-0.163 J0
X-248.837 Y-12 Z-0.999 I0.163 J0
X-249.163 Y-12 Z-1.249 I-0.163 J0
X-248.837 Y-12 Z-1.499 I0.163 J0
X-249.163 Y-12 Z-1.749 I-0.163 J0
X-248.837 Y-12 Z-1.999 I0.163 J0
X-249.163 Y-12 Z-2.249 I-0.163 J0
X-248.837 Y-12 Z-2.499 I0.163 J0
X-249.163 Y-12 I-0.163 J0
X-248.837 Y-12 I0.163 J0
G1 X-248.844 Y-11.969
X-248.861 Y-11.943
X-248.888 Y-11.925
X-248.919 Y-11.919
X-249.077
G0 Z15

(2D-Kontur2)
X-209.408 Y-98.931
Z15
Z5
G1 Z2.5 F333.3
S5000
X-209 Y-99.167 Z2.484
X-206.258 Y-97.583 Z2.373
Y-94.417 Z2.262
X-209 Y-92.833 Z2.152
X-211.742 Y-94.417 Z2.041
Y-97.583 Z1.931
X-209 Y-99.167 Z1.82
X-206.258 Y-97.583 Z1.709
Y-94.417 Z1.599
X-209 Y-92.833 Z1.488
X-211.742 Y-94.417 Z1.378
Y-97.583 Z1.267
X-209 Y-99.167 Z1.156
X-206.258 Y-97.583 Z1.046
Y-94.417 Z0.935
X-209 Y-92.833 Z0.825
X-211.742 Y-94.417 Z0.714
Y-97.583 Z0.604
X-209 Y-99.167 Z0.493
X-206.258 Y-97.583 Z0.382
Y-94.417 Z0.272
X-209 Y-92.833 Z0.161
X-211.742 Y-94.417 Z0.051
Y-97.583 Z-0.06
X-209 Y-99.167 Z-0.171
X-206.258 Y-97.583 Z-0.281
Y-94.417 Z-0.392
X-209 Y-92.833 Z-0.502
X-211.742 Y-94.417 Z-0.613
Y-97.583 Z-0.724
X-209 Y-99.167 Z-0.834
X-206.258 Y-97.583 Z-0.945
Y-96 Z-1
S6000
Y-94.417 F1000
X-209 Y-92.833
X-211.742 Y-94.417
Y-97.583
X-209 Y-99.167
X-206.258 Y-97.583
Y-96
S5000
Y-94.417 Z-1.055 F333.3
X-209 Y-92.833 Z-1.166
X-211.742 Y-94.417 Z-1.276
Y-97.583 Z-1.387
X-209 Y-99.167 Z-1.498
X-206.258 Y-97.583 Z-1.608
Y-94.417 Z-1.719
X-209 Y-92.833 Z-1.829
X-211.742 Y-94.417 Z-1.94
Y-96.135 Z-2
S6000
Y-97.583 F1000
X-209 Y-99.167
X-206.258 Y-97.583
Y-96
Y-94.417
X-209 Y-92.833
X-211.742 Y-94.417
Y-96.135
S5000
Y-97.583 Z-2.051 F333.3
X-209 Y-99.167 Z-2.161
X-206.258 Y-97.583 Z-2.272
Y-94.417 Z-2.382
X-209 Y-92.833 Z-2.493
X-209.159 Y-92.925 Z-2.499
S6000
X-211.742 Y-94.417 F1000
Y-96.135
Y-97.583
X-209 Y-99.167
X-206.258 Y-97.583
Y-94.417
X-209 Y-92.833
X-209.159 Y-92.925
G3 X-209.275 Y-93.359 I0.159 J-0.275
G1 X-209.117 Y-93.634
X-209.081 Y-93.695 Z-2.491
X-209.048 Y-93.753 Z-2.468
X-209.018 Y-93.805 Z-2.43
X-208.993 Y-93.849 Z-2.38
X-208.974 Y-93.881 Z-2.32
X-208.962 Y-93.902 Z-2.253
X-208.958 Y-93.909 Z-2.182
G0 Z5
X-208.592 Y-78.069
G1 Z2.5 F333.3
S5000
X-209 Y-77.833 Z2.484
X-211.742 Y-79.417 Z2.373
Y-82.583 Z2.262
X-209 Y-84.167 Z2.152
X-206.258 Y-82.583 Z2.041
Y-79.417 Z1.931
X-209 Y-77.833 Z1.82
X-211.742 Y-79.417 Z1.709
Y-82.583 Z1.599
X-209 Y-84.167 Z1.488
X-206.258 Y-82.583 Z1.378
Y-79.417 Z1.267
X-209 Y-77.833 Z1.156
X-211.742 Y-79.417 Z1.046
Y-82.583 Z0.935
X-209 Y-84.167 Z0.825
X-206.258 Y-82.583 Z0.714
Y-79.417 Z0.604
X-209 Y-77.833 Z0.493
X-211.742 Y-79.417 Z0.382
Y-82.583 Z0.272
X-209 Y-84.167 Z0.161
X-206.258 Y-82.583 Z0.051
Y-79.417 Z-0.06
X-209 Y-77.833 Z-0.171
X-211.742 Y-79.417 Z-0.281
Y-82.583 Z-0.392
X-209 Y-84.167 Z-0.502
X-206.258 Y-82.583 Z-0.613
Y-79.417 Z-0.724
X-209 Y-77.833 Z-0.834
X-211.742 Y-79.417 Z-0.945
Y-81 Z-1
S6000
Y-82.583 F1000
X-209 Y-84.167
X-206.258 Y-82.583
Y-79.417
X-209 Y-77.833
X-211.742 Y-79.417
Y-81
S5000
Y-82.583 Z-1.055 F333.3
X-209 Y-84.167 Z-1.166
X-206.258 Y-82.583 Z-1.276
Y-79.417 Z-1.387
X-209 Y-77.833 Z-1.498
X-211.742 Y-79.417 Z-1.608
Y-82.583 Z-1.719
X-209 Y-84.167 Z-1.829
X-206.258 Y-82.583 Z-1.94
Y-80.865 Z-2
S6000
Y-79.417 F1000
X-209 Y-77.833
X-211.742 Y-79.417
Y-81
Y-82.583
X-209 Y-84.167
X-206.258 Y-82.583
Y-80.865
S5000
Y-79.417 Z-2.051 F333.3
X-209 Y-77.833 Z-2.161
X-211.742 Y-79.417 Z-2.272
Y-82.583 Z-2.382
X-209 Y-84.167 Z-2.493
X-208.841 Y-84.075 Z-2.499
S6000
X-206.258 Y-82.583 F1000
Y-80.865
Y-79.417
X-209 Y-77.833
X-211.742 Y-79.417
Y-82.583
X-209 Y-84.167
X-208.841 Y-84.075
G3 X-208.725 Y-83.641 I-0.159 J0.275
G1 X-208.883 Y-83.366
X-208.919 Y-83.305 Z-2.491
X-208.952 Y-83.247 Z-2.468
X-208.982 Y-83.195 Z-2.43
X-209.007 Y-83.151 Z-2.38
X-209.026 Y-83.119 Z-2.32
X-209.038 Y-83.098 Z-2.253
X-209.042 Y-83.091 Z-2.182
G0 Z5
X-209.408 Y-68.931
G1 Z2.5 F333.3
S5000
X-209 Y-69.167 Z2.484
X-206.258 Y-67.583 Z2.373
Y-64.417 Z2.262
X-209 Y-62.833 Z2.152
X-211.742 Y-64.417 Z2.041
Y-67.583 Z1.931
X-209 Y-69.167 Z1.82
X-206.258 Y-67.583 Z1.709
Y-64.417 Z1.599
X-209 Y-62.833 Z1.488
X-211.742 Y-64.417 Z1.378
Y-67.583 Z1.267
X-209 Y-69.167 Z1.156
X-206.258 Y-67.583 Z1.046
Y-64.417 Z0.935
X-209 Y-62.833 Z0.825
X-211.742 Y-64.417 Z0.714
Y-67.583 Z0.604
X-209 Y-69.167 Z0.493
X-206.258 Y-67.583 Z0.382
Y-64.417 Z0.272
X-209 Y-62.833 Z0.161
X-211.742 Y-64.417 Z0.051
Y-67.583 Z-0.06
X-209 Y-69.167 Z-0.171
X-206.258 Y-67.583 Z-0.281
Y-64.417 Z-0.392
X-209 Y-62.833 Z-0.502
X-211.742 Y-64.417 Z-0.613
Y-67.583 Z-0.724
X-209 Y-69.167 Z-0.834
X-206.258 Y-67.583 Z-0.945
Y-66 Z-1
S6000
Y-64.417 F1000
X-209 Y-62.833
X-211.742 Y-64.417
Y-67.583
X-209 Y-69.167
X-206.258 Y-67.583
Y-66
S5000
Y-64.417 Z-1.055 F333.3
X-209 Y-62.833 Z-1.166
X-211.742 Y-64.417 Z-1.276
Y-67.583 Z-1.387
X-209 Y-69.167 Z-1.498
X-206.258 Y-67.583 Z-1.608
Y-64.417 Z-1.719
X-209 Y-62.833 Z-1.829
X-211.742 Y-64.417 Z-1.94
Y-66.135 Z-2
S6000
Y-67.583 F1000
X-209 Y-69.167
X-206.258 Y-67.583
Y-64.417
X-209 Y-62.833
X-211.742 Y-64.417
Y-66.135
S5000
Y-67.583 Z-2.051 F333.3
X-209 Y-69.167 Z-2.161
X-206.258 Y-67.583 Z-2.272
Y-64.417 Z-2.382
X-209 Y-62.833 Z-2.493
X-209.159 Y-62.925 Z-2.499
S6000
X-211.742 Y-64.417 F1000
Y-66.135
Y-67.583
X-209 Y-69.167
X-206.258 Y-67.583
Y-64.417
X-209 Y-62.833
X-209.159 Y-62.925
G3 X-209.275 Y-63.359 I0.159 J-0.275
G1 X-209.116 Y-63.634
X-209.081 Y-63.695 Z-2.491
X-209.048 Y-63.753 Z-2.468
X-209.017 Y-63.805 Z-2.43
X-208.992 Y-63.849 Z-2.38
X-208.973 Y-63.881 Z-2.32
X-208.962 Y-63.902 Z-2.253
X-208.958 Y-63.909 Z-2.182
G0 Z5
X-226.408 Y-68.931
G1 Z2.5 F333.3
S5000
X-226 Y-69.167 Z2.484
X-223.258 Y-67.583 Z2.373
Y-64.417 Z2.262
X-226 Y-62.833 Z2.152
X-228.742 Y-64.417 Z2.041
Y-67.583 Z1.931
X-226 Y-69.167 Z1.82
X-223.258 Y-67.583 Z1.709
Y-64.417 Z1.599
X-226 Y-62.833 Z1.488
X-228.742 Y-64.417 Z1.378
Y-67.583 Z1.267
X-226 Y-69.167 Z1.156
X-223.258 Y-67.583 Z1.046
Y-64.417 Z0.935
X-226 Y-62.833 Z0.825
X-228.742 Y-64.417 Z0.714
Y-67.583 Z0.604
X-226 Y-69.167 Z0.493
X-223.258 Y-67.583 Z0.382
Y-64.417 Z0.272
X-226 Y-62.833 Z0.161
X-228.742 Y-64.417 Z0.051
Y-67.583 Z-0.06
X-226 Y-69.167 Z-0.171
X-223.258 Y-67.583 Z-0.281
Y-64.417 Z-0.392
X-226 Y-62.833 Z-0.502
X-228.742 Y-64.417 Z-0.613
Y-67.583 Z-0.724
X-226 Y-69.167 Z-0.834
X-223.258 Y-67.583 Z-0.945
Y-66 Z-1
S6000
Y-64.417 F1000
X-226 Y-62.833
X-228.742 Y-64.417
Y-67.583
X-226 Y-69.167
X-223.258 Y-67.583
Y-66
S5000
Y-64.417 Z-1.055 F333.3
X-226 Y-62.833 Z-1.166
X-228.742 Y-64.417 Z-1.276
Y-67.583 Z-1.387
X-226 Y-69.167 Z-1.498
X-223.258 Y-67.583 Z-1.608
Y-64.417 Z-1.719
X-226 Y-62.833 Z-1.829
X-228.742 Y-64.417 Z-1.94
Y-66.135 Z-2
S6000
Y-67.583 F1000
X-226 Y-69.167
X-223.258 Y-67.583
Y-64.417
X-226 Y-62.833
X-228.742 Y-64.417
Y-66.135
S5000
Y-67.583 Z-2.051 F333.3
X-226 Y-69.167 Z-2.161
X-223.258 Y-67.583 Z-2.272
Y-64.417 Z-2.382
X-226 Y-62.833 Z-2.493
X-226.159 Y-62.925 Z-2.499
S6000
X-228.742 Y-64.417 F1000
Y-66.135
Y-67.583
X-226 Y-69.167
X-223.258 Y-67.583
Y-64.417
X-226 Y-62.833
X-226.159 Y-62.925
G3 X-226.275 Y-63.359 I0.159 J-0.275
G1 X-226.116 Y-63.634
X-226.081 Y-63.695 Z-2.491
X-226.048 Y-63.753 Z-2.468
X-226.017 Y-63.805 Z-2.43
X-225.992 Y-63.849 Z-2.38
X-225.973 Y-63.881 Z-2.32
X-225.962 Y-63.902 Z-2.253
X-225.958 Y-63.909 Z-2.182
G0 Z5
X-225.592 Y-78.069
G1 Z2.5 F333.3
S5000
X-226 Y-77.833 Z2.484
X-228.742 Y-79.417 Z2.373
Y-82.583 Z2.262
X-226 Y-84.167 Z2.152
X-223.258 Y-82.583 Z2.041
Y-79.417 Z1.931
X-226 Y-77.833 Z1.82
X-228.742 Y-79.417 Z1.709
Y-82.583 Z1.599
X-226 Y-84.167 Z1.488
X-223.258 Y-82.583 Z1.378
Y-79.417 Z1.267
X-226 Y-77.833 Z1.156
X-228.742 Y-79.417 Z1.046
Y-82.583 Z0.935
X-226 Y-84.167 Z0.825
X-223.258 Y-82.583 Z0.714
Y-79.417 Z0.604
X-226 Y-77.833 Z0.493
X-228.742 Y-79.417 Z0.382
Y-82.583 Z0.272
X-226 Y-84.167 Z0.161
X-223.258 Y-82.583 Z0.051
Y-79.417 Z-0.06
X-226 Y-77.833 Z-0.171
X-228.742 Y-79.417 Z-0.281
Y-82.583 Z-0.392
X-226 Y-84.167 Z-0.502
X-223.258 Y-82.583 Z-0.613
Y-79.417 Z-0.724
X-226 Y-77.833 Z-0.834
X-228.742 Y-79.417 Z-0.945
Y-81 Z-1
S6000
Y-82.583 F1000
X-226 Y-84.167
X-223.258 Y-82.583
Y-79.417
X-226 Y-77.833
X-228.742 Y-79.417
Y-81
S5000
Y-82.583 Z-1.055 F333.3
X-226 Y-84.167 Z-1.166
X-223.258 Y-82.583 Z-1.276
Y-79.417 Z-1.387
X-226 Y-77.833 Z-1.498
X-228.742 Y-79.417 Z-1.608
Y-82.583 Z-1.719
X-226 Y-84.167 Z-1.829
X-223.258 Y-82.583 Z-1.94
Y-80.865 Z-2
S6000
Y-79.417 F1000
X-226 Y-77.833
X-228.742 Y-79.417
Y-81
Y-82.583
X-226 Y-84.167
X-223.258 Y-82.583
Y-80.865
S5000
Y-79.417 Z-2.051 F333.3
X-226 Y-77.833 Z-2.161
X-228.742 Y-79.417 Z-2.272
Y-82.583 Z-2.382
X-226 Y-84.167 Z-2.493
X-225.841 Y-84.075 Z-2.499
S6000
X-223.258 Y-82.583 F1000
Y-80.865
Y-79.417
X-226 Y-77.833
X-228.742 Y-79.417
Y-82.583
X-226 Y-84.167
X-225.841 Y-84.075
G3 X-225.725 Y-83.641 I-0.159 J0.275
G1 X-225.883 Y-83.366
X-225.919 Y-83.305 Z-2.491
X-225.952 Y-83.247 Z-2.468
X-225.982 Y-83.195 Z-2.43
X-226.007 Y-83.151 Z-2.38
X-226.026 Y-83.119 Z-2.32
X-226.038 Y-83.098 Z-2.253
X-226.042 Y-83.091 Z-2.182
G0 Z5
X-226.408 Y-98.931
G1 Z2.5 F333.3
S5000
X-226 Y-99.167 Z2.484
X-223.258 Y-97.583 Z2.373
Y-94.417 Z2.262
X-226 Y-92.833 Z2.152
X-228.742 Y-94.417 Z2.041
Y-97.583 Z1.931
X-226 Y-99.167 Z1.82
X-223.258 Y-97.583 Z1.709
Y-94.417 Z1.599
X-226 Y-92.833 Z1.488
X-228.742 Y-94.417 Z1.378
Y-97.583 Z1.267
X-226 Y-99.167 Z1.156
X-223.258 Y-97.583 Z1.046
Y-94.417 Z0.935
X-226 Y-92.833 Z0.825
X-228.742 Y-94.417 Z0.714
Y-97.583 Z0.604
X-226 Y-99.167 Z0.493
X-223.258 Y-97.583 Z0.382
Y-94.417 Z0.272
X-226 Y-92.833 Z0.161
X-228.742 Y-94.417 Z0.051
Y-97.583 Z-0.06
X-226 Y-99.167 Z-0.171
X-223.258 Y-97.583 Z-0.281
Y-94.417 Z-0.392
X-226 Y-92.833 Z-0.502
X-228.742 Y-94.417 Z-0.613
Y-97.583 Z-0.724
X-226 Y-99.167 Z-0.834
X-223.258 Y-97.583 Z-0.945
Y-96 Z-1
S6000
Y-94.417 F1000
X-226 Y-92.833
X-228.742 Y-94.417
Y-97.583
X-226 Y-99.167
X-223.258 Y-97.583
Y-96
S5000
Y-94.417 Z-1.055 F333.3
X-226 Y-92.833 Z-1.166
X-228.742 Y-94.417 Z-1.276
Y-97.583 Z-1.387
X-226 Y-99.167 Z-1.498
X-223.258 Y-97.583 Z-1.608
Y-94.417 Z-1.719
X-226 Y-92.833 Z-1.829
X-228.742 Y-94.417 Z-1.94
Y-96.135 Z-2
S6000
Y-97.583 F1000
X-226 Y-99.167
X-223.258 Y-97.583
Y-94.417
X-226 Y-92.833
X-228.742 Y-94.417
Y-96.135
S5000
Y-97.583 Z-2.051 F333.3
X-226 Y-99.167 Z-2.161
X-223.258 Y-97.583 Z-2.272
Y-94.417 Z-2.382
X-226 Y-92.833 Z-2.493
X-226.159 Y-92.925 Z-2.499
S6000
X-228.742 Y-94.417 F1000
Y-96.135
Y-97.583
X-226 Y-99.167
X-223.258 Y-97.583
Y-94.417
X-226 Y-92.833
X-226.159 Y-92.925
G3 X-226.275 Y-93.359 I0.159 J-0.275
G1 X-226.116 Y-93.634
X-226.081 Y-93.695 Z-2.491
X-226.048 Y-93.753 Z-2.468
X-226.017 Y-93.805 Z-2.43
X-225.992 Y-93.849 Z-2.38
X-225.973 Y-93.881 Z-2.32
X-225.962 Y-93.902 Z-2.253
X-225.958 Y-93.909 Z-2.182
G0 Z5
X-242.592 Y-93.069
G1 Z2.5 F333.3
S5000
X-243 Y-92.833 Z2.484
X-245.742 Y-94.417 Z2.373
Y-97.583 Z2.262
X-243 Y-99.167 Z2.152
X-240.258 Y-97.583 Z2.041
Y-94.417 Z1.931
X-243 Y-92.833 Z1.82
X-245.742 Y-94.417 Z1.709
Y-97.583 Z1.599
X-243 Y-99.167 Z1.488
X-240.258 Y-97.583 Z1.378
Y-94.417 Z1.267
X-243 Y-92.833 Z1.156
X-245.742 Y-94.417 Z1.046
Y-97.583 Z0.935
X-243 Y-99.167 Z0.825
X-240.258 Y-97.583 Z0.714
Y-94.417 Z0.604
X-243 Y-92.833 Z0.493
X-245.742 Y-94.417 Z0.382
Y-97.583 Z0.272
X-243 Y-99.167 Z0.161
X-240.258 Y-97.583 Z0.051
Y-94.417 Z-0.06
X-243 Y-92.833 Z-0.171
X-245.742 Y-94.417 Z-0.281
Y-97.583 Z-0.392
X-243 Y-99.167 Z-0.502
X-240.258 Y-97.583 Z-0.613
Y-94.417 Z-0.724
X-243 Y-92.833 Z-0.834
X-245.742 Y-94.417 Z-0.945
Y-96 Z-1
S6000
Y-97.583 F1000
X-243 Y-99.167
X-240.258 Y-97.583
Y-94.417
X-243 Y-92.833
X-245.742 Y-94.417
Y-96
S5000
Y-97.583 Z-1.055 F333.3
X-243 Y-99.167 Z-1.166
X-240.258 Y-97.583 Z-1.276
Y-94.417 Z-1.387
X-243 Y-92.833 Z-1.498
X-245.742 Y-94.417 Z-1.608
Y-97.583 Z-1.719
X-243 Y-99.167 Z-1.829
X-240.258 Y-97.583 Z-1.94
Y-95.865 Z-2
S6000
Y-94.417 F1000
X-243 Y-92.833
X-245.742 Y-94.417
Y-97.583
X-243 Y-99.167
X-240.258 Y-97.583
Y-95.865
S5000
Y-94.417 Z-2.051 F333.3
X-243 Y-92.833 Z-2.161
X-245.742 Y-94.417 Z-2.272
Y-97.583 Z-2.382
X-243 Y-99.167 Z-2.493
X-242.841 Y-99.075 Z-2.499
S6000
X-240.258 Y-97.583 F1000
Y-95.865
Y-94.417
X-243 Y-92.833
X-245.742 Y-94.417
Y-97.583
X-243 Y-99.167
X-242.841 Y-99.075
G3 X-242.725 Y-98.641 I-0.159 J0.275
G1 X-242.884 Y-98.366
X-242.919 Y-98.305 Z-2.491
X-242.952 Y-98.247 Z-2.468
X-242.983 Y-98.195 Z-2.43
X-243.008 Y-98.151 Z-2.38
X-243.027 Y-98.119 Z-2.32
X-243.038 Y-98.098 Z-2.253
X-243.042 Y-98.091 Z-2.182
G0 Z5
X-243.408 Y-83.931
G1 Z2.5 F333.3
S5000
X-243 Y-84.167 Z2.484
X-240.258 Y-82.583 Z2.373
Y-79.417 Z2.262
X-243 Y-77.833 Z2.152
X-245.742 Y-79.417 Z2.041
Y-82.583 Z1.931
X-243 Y-84.167 Z1.82
X-240.258 Y-82.583 Z1.709
Y-79.417 Z1.599
X-243 Y-77.833 Z1.488
X-245.742 Y-79.417 Z1.378
Y-82.583 Z1.267
X-243 Y-84.167 Z1.156
X-240.258 Y-82.583 Z1.046
Y-79.417 Z0.935
X-243 Y-77.833 Z0.825
X-245.742 Y-79.417 Z0.714
Y-82.583 Z0.604
X-243 Y-84.167 Z0.493
X-240.258 Y-82.583 Z0.382
Y-79.417 Z0.272
X-243 Y-77.833 Z0.161
X-245.742 Y-79.417 Z0.051
Y-82.583 Z-0.06
X-243 Y-84.167 Z-0.171
X-240.258 Y-82.583 Z-0.281
Y-79.417 Z-0.392
X-243 Y-77.833 Z-0.502
X-245.742 Y-79.417 Z-0.613
Y-82.583 Z-0.724
X-243 Y-84.167 Z-0.834
X-240.258 Y-82.583 Z-0.945
Y-81 Z-1
S6000
Y-79.417 F1000
X-243 Y-77.833
X-245.742 Y-79.417
Y-82.583
X-243 Y-84.167
X-240.258 Y-82.583
Y-81
S5000
Y-79.417 Z-1.055 F333.3
X-243 Y-77.833 Z-1.166
X-245.742 Y-79.417 Z-1.276
Y-82.583 Z-1.387
X-243 Y-84.167 Z-1.498
X-240.258 Y-82.583 Z-1.608
Y-79.417 Z-1.719
X-243 Y-77.833 Z-1.829
X-245.742 Y-79.417 Z-1.94
Y-81.135 Z-2
S6000
Y-82.583 F1000
X-243 Y-84.167
X-240.258 Y-82.583
Y-81
Y-79.417
X-243 Y-77.833
X-245.742 Y-79.417
Y-81.135
S5000
Y-82.583 Z-2.051 F333.3
X-243 Y-84.167 Z-2.161
X-240.258 Y-82.583 Z-2.272
Y-79.417 Z-2.382
X-243 Y-77.833 Z-2.493
X-243.159 Y-77.925 Z-2.499
S6000
X-245.742 Y-79.417 F1000
Y-81.135
Y-82.583
X-243 Y-84.167
X-240.258 Y-82.583
Y-79.417
X-243 Y-77.833
X-243.159 Y-77.925
G3 X-243.275 Y-78.359 I0.159 J-0.275
G1 X-243.117 Y-78.634
X-243.081 Y-78.695 Z-2.491
X-243.048 Y-78.753 Z-2.468
X-243.018 Y-78.805 Z-2.43
X-242.993 Y-78.849 Z-2.38
X-242.974 Y-78.881 Z-2.32
X-242.962 Y-78.902 Z-2.253
X-242.958 Y-78.909 Z-2.182
G0 Z5
X-242.592 Y-63.069
G1 Z2.5 F333.3
S5000
X-243 Y-62.833 Z2.484
X-245.742 Y-64.417 Z2.373
Y-67.583 Z2.262
X-243 Y-69.167 Z2.152
X-240.258 Y-67.583 Z2.041
Y-64.417 Z1.931
X-243 Y-62.833 Z1.82
X-245.742 Y-64.417 Z1.709
Y-67.583 Z1.599
X-243 Y-69.167 Z1.488
X-240.258 Y-67.583 Z1.378
Y-64.417 Z1.267
X-243 Y-62.833 Z1.156
X-245.742 Y-64.417 Z1.046
Y-67.583 Z0.935
X-243 Y-69.167 Z0.825
X-240.258 Y-67.583 Z0.714
Y-64.417 Z0.604
X-243 Y-62.833 Z0.493
X-245.742 Y-64.417 Z0.382
Y-67.583 Z0.272
X-243 Y-69.167 Z0.161
X-240.258 Y-67.583 Z0.051
Y-64.417 Z-0.06
X-243 Y-62.833 Z-0.171
X-245.742 Y-64.417 Z-0.281
Y-67.583 Z-0.392
X-243 Y-69.167 Z-0.502
X-240.258 Y-67.583 Z-0.613
Y-64.417 Z-0.724
X-243 Y-62.833 Z-0.834
X-245.742 Y-64.417 Z-0.945
Y-66 Z-1
S6000
Y-67.583 F1000
X-243 Y-69.167
X-240.258 Y-67.583
Y-64.417
X-243 Y-62.833
X-245.742 Y-64.417
Y-66
S5000
Y-67.583 Z-1.055 F333.3
X-243 Y-69.167 Z-1.166
X-240.258 Y-67.583 Z-1.276
Y-64.417 Z-1.387
X-243 Y-62.833 Z-1.498
X-245.742 Y-64.417 Z-1.608
Y-67.583 Z-1.719
X-243 Y-69.167 Z-1.829
X-240.258 Y-67.583 Z-1.94
Y-65.865 Z-2
S6000
Y-64.417 F1000
X-243 Y-62.833
X-245.742 Y-64.417
Y-66
Y-67.583
X-243 Y-69.167
X-240.258 Y-67.583
Y-65.865
S5000
Y-64.417 Z-2.051 F333.3
X-243 Y-62.833 Z-2.161
X-245.742 Y-64.417 Z-2.272
Y-67.583 Z-2.382
X-243 Y-69.167 Z-2.493
X-242.841 Y-69.075 Z-2.499
S6000
X-240.258 Y-67.583 F1000
Y-65.865
Y-64.417
X-243 Y-62.833
X-245.742 Y-64.417
Y-67.583
X-243 Y-69.167
X-242.841 Y-69.075
G3 X-242.725 Y-68.641 I-0.159 J0.275
G1 X-242.883 Y-68.366
X-242.919 Y-68.305 Z-2.491
X-242.952 Y-68.247 Z-2.468
X-242.982 Y-68.195 Z-2.43
X-243.007 Y-68.151 Z-2.38
X-243.026 Y-68.119 Z-2.32
X-243.038 Y-68.098 Z-2.253
X-243.042 Y-68.091 Z-2.182
G0 Z5
X-242.592 Y-138.069
G1 Z2.5 F333.3
S5000
X-243 Y-137.833 Z2.484
X-245.742 Y-139.417 Z2.373
Y-142.583 Z2.262
X-243 Y-144.167 Z2.152
X-240.258 Y-142.583 Z2.041
Y-139.417 Z1.931
X-243 Y-137.833 Z1.82
X-245.742 Y-139.417 Z1.709
Y-142.583 Z1.599
X-243 Y-144.167 Z1.488
X-240.258 Y-142.583 Z1.378
Y-139.417 Z1.267
X-243 Y-137.833 Z1.156
X-245.742 Y-139.417 Z1.046
Y-142.583 Z0.935
X-243 Y-144.167 Z0.825
X-240.258 Y-142.583 Z0.714
Y-139.417 Z0.604
X-243 Y-137.833 Z0.493
X-245.742 Y-139.417 Z0.382
Y-142.583 Z0.272
X-243 Y-144.167 Z0.161
X-240.258 Y-142.583 Z0.051
Y-139.417 Z-0.06
X-243 Y-137.833 Z-0.171
X-245.742 Y-139.417 Z-0.281
Y-142.583 Z-0.392
X-243 Y-144.167 Z-0.502
X-240.258 Y-142.583 Z-0.613
Y-139.417 Z-0.724
X-243 Y-137.833 Z-0.834
X-245.742 Y-139.417 Z-0.945
Y-141 Z-1
S6000
Y-142.583 F1000
X-243 Y-144.167
X-240.258 Y-142.583
Y-139.417
X-243 Y-137.833
X-245.742 Y-139.417
Y-141
S5000
Y-142.583 Z-1.055 F333.3
X-243 Y-144.167 Z-1.166
X-240.258 Y-142.583 Z-1.276
Y-139.417 Z-1.387
X-243 Y-137.833 Z-1.498
X-245.742 Y-139.417 Z-1.608
Y-142.583 Z-1.719
X-243 Y-144.167 Z-1.829
X-240.258 Y-142.583 Z-1.94
Y-140.865 Z-2
S6000
Y-139.417 F1000
X-243 Y-137.833
X-245.742 Y-139.417
Y-142.583
X-243 Y-144.167
X-240.258 Y-142.583
Y-140.865
S5000
Y-139.417 Z-2.051 F333.3
X-243 Y-137.833 Z-2.161
X-245.742 Y-139.417 Z-2.272
Y-142.583 Z-2.382
X-243 Y-144.167 Z-2.493
X-242.841 Y-144.075 Z-2.499
S6000
X-240.258 Y-142.583 F1000
Y-140.865
Y-139.417
X-243 Y-137.833
X-245.742 Y-139.417
Y-142.583
X-243 Y-144.167
X-242.841 Y-144.075
G3 X-242.725 Y-143.641 I-0.159 J0.275
G1 X-242.884 Y-143.366
X-242.919 Y-143.305 Z-2.491
X-242.952 Y-143.247 Z-2.468
X-242.983 Y-143.195 Z-2.43
X-243.008 Y-143.151 Z-2.38
X-243.027 Y-143.119 Z-2.32
X-243.038 Y-143.098 Z-2.253
X-243.042 Y-143.091 Z-2.182
G0 Z5
X-242.592 Y-152.569
G1 Z2.5 F333.3
S5000
X-243 Y-152.333 Z2.484
X-245.742 Y-153.917 Z2.373
Y-157.083 Z2.262
X-243 Y-158.667 Z2.152
X-240.258 Y-157.083 Z2.041
Y-153.917 Z1.931
X-243 Y-152.333 Z1.82
X-245.742 Y-153.917 Z1.709
Y-157.083 Z1.599
X-243 Y-158.667 Z1.488
X-240.258 Y-157.083 Z1.378
Y-153.917 Z1.267
X-243 Y-152.333 Z1.156
X-245.742 Y-153.917 Z1.046
Y-157.083 Z0.935
X-243 Y-158.667 Z0.825
X-240.258 Y-157.083 Z0.714
Y-153.917 Z0.604
X-243 Y-152.333 Z0.493
X-245.742 Y-153.917 Z0.382
Y-157.083 Z0.272
X-243 Y-158.667 Z0.161
X-240.258 Y-157.083 Z0.051
Y-153.917 Z-0.06
X-243 Y-152.333 Z-0.171
X-245.742 Y-153.917 Z-0.281
Y-157.083 Z-0.392
X-243 Y-158.667 Z-0.502
X-240.258 Y-157.083 Z-0.613
Y-153.917 Z-0.724
X-243 Y-152.333 Z-0.834
X-245.742 Y-153.917 Z-0.945
Y-155.5 Z-1
S6000
Y-157.083 F1000
X-243 Y-158.667
X-240.258 Y-157.083
Y-153.917
X-243 Y-152.333
X-245.742 Y-153.917
Y-155.5
S5000
Y-157.083 Z-1.055 F333.3
X-243 Y-158.667 Z-1.166
X-240.258 Y-157.083 Z-1.276
Y-153.917 Z-1.387
X-243 Y-152.333 Z-1.498
X-245.742 Y-153.917 Z-1.608
Y-157.083 Z-1.719
X-243 Y-158.667 Z-1.829
X-240.258 Y-157.083 Z-1.94
Y-155.365 Z-2
S6000
Y-153.917 F1000
X-243 Y-152.333
X-245.742 Y-153.917
Y-157.083
X-243 Y-158.667
X-240.258 Y-157.083
Y-155.365
S5000
Y-153.917 Z-2.051 F333.3
X-243 Y-152.333 Z-2.161
X-245.742 Y-153.917 Z-2.272
Y-157.083 Z-2.382
X-243 Y-158.667 Z-2.493
X-242.841 Y-158.575 Z-2.499
S6000
X-240.258 Y-157.083 F1000
Y-155.365
Y-153.917
X-243 Y-152.333
X-245.742 Y-153.917
Y-157.083
X-243 Y-158.667
X-242.841 Y-158.575
G3 X-242.725 Y-158.141 I-0.159 J0.275
G1 X-242.884 Y-157.866
X-242.919 Y-157.805 Z-2.491
X-242.952 Y-157.747 Z-2.468
X-242.983 Y-157.695 Z-2.43
X-243.008 Y-157.651 Z-2.38
X-243.027 Y-157.619 Z-2.32
X-243.038 Y-157.598 Z-2.253
X-243.042 Y-157.591 Z-2.182
G0 Z5
X-242.592 Y-167.069
G1 Z2.5 F333.3
S5000
X-243 Y-166.833 Z2.484
X-245.742 Y-168.417 Z2.373
Y-171.583 Z2.262
X-243 Y-173.167 Z2.152
X-240.258 Y-171.583 Z2.041
Y-168.417 Z1.931
X-243 Y-166.833 Z1.82
X-245.742 Y-168.417 Z1.709
Y-171.583 Z1.599
X-243 Y-173.167 Z1.488
X-240.258 Y-171.583 Z1.378
Y-168.417 Z1.267
X-243 Y-166.833 Z1.156
X-245.742 Y-168.417 Z1.046
Y-171.583 Z0.935
X-243 Y-173.167 Z0.825
X-240.258 Y-171.583 Z0.714
Y-168.417 Z0.604
X-243 Y-166.833 Z0.493
X-245.742 Y-168.417 Z0.382
Y-171.583 Z0.272
X-243 Y-173.167 Z0.161
X-240.258 Y-171.583 Z0.051
Y-168.417 Z-0.06
X-243 Y-166.833 Z-0.171
X-245.742 Y-168.417 Z-0.281
Y-171.583 Z-0.392
X-243 Y-173.167 Z-0.502
X-240.258 Y-171.583 Z-0.613
Y-168.417 Z-0.724
X-243 Y-166.833 Z-0.834
X-245.742 Y-168.417 Z-0.945
Y-170 Z-1
S6000
Y-171.583 F1000
X-243 Y-173.167
X-240.258 Y-171.583
Y-168.417
X-243 Y-166.833
X-245.742 Y-168.417
Y-170
S5000
Y-171.583 Z-1.055 F333.3
X-243 Y-173.167 Z-1.166
X-240.258 Y-171.583 Z-1.276
Y-168.417 Z-1.387
X-243 Y-166.833 Z-1.498
X-245.742 Y-168.417 Z-1.608
Y-171.583 Z-1.719
X-243 Y-173.167 Z-1.829
X-240.258 Y-171.583 Z-1.94
Y-169.865 Z-2
S6000
Y-168.417 F1000
X-243 Y-166.833
X-245.742 Y-168.417
Y-171.583
X-243 Y-173.167
X-240.258 Y-171.583
Y-169.865
S5000
Y-168.417 Z-2.051 F333.3
X-243 Y-166.833 Z-2.161
X-245.742 Y-168.417 Z-2.272
Y-171.583 Z-2.382
X-243 Y-173.167 Z-2.493
X-242.841 Y-173.075 Z-2.499
S6000
X-240.258 Y-171.583 F1000
Y-169.865
Y-168.417
X-243 Y-166.833
X-245.742 Y-168.417
Y-171.583
X-243 Y-173.167
X-242.841 Y-173.075
G3 X-242.725 Y-172.641 I-0.159 J0.275
G1 X-242.884 Y-172.366
X-242.919 Y-172.305 Z-2.491
X-242.952 Y-172.247 Z-2.468
X-242.983 Y-172.195 Z-2.43
X-243.008 Y-172.151 Z-2.38
X-243.027 Y-172.119 Z-2.32
X-243.038 Y-172.098 Z-2.253
X-243.042 Y-172.091 Z-2.182
G0 Z5
X-226.408 Y-158.431
G1 Z2.5 F333.3
S5000
X-226 Y-158.667 Z2.484
X-223.258 Y-157.083 Z2.373
Y-153.917 Z2.262
X-226 Y-152.333 Z2.152
X-228.742 Y-153.917 Z2.041
Y-157.083 Z1.931
X-226 Y-158.667 Z1.82
X-223.258 Y-157.083 Z1.709
Y-153.917 Z1.599
X-226 Y-152.333 Z1.488
X-228.742 Y-153.917 Z1.378
Y-157.083 Z1.267
X-226 Y-158.667 Z1.156
X-223.258 Y-157.083 Z1.046
Y-153.917 Z0.935
X-226 Y-152.333 Z0.825
X-228.742 Y-153.917 Z0.714
Y-157.083 Z0.604
X-226 Y-158.667 Z0.493
X-223.258 Y-157.083 Z0.382
Y-153.917 Z0.272
X-226 Y-152.333 Z0.161
X-228.742 Y-153.917 Z0.051
Y-157.083 Z-0.06
X-226 Y-158.667 Z-0.171
X-223.258 Y-157.083 Z-0.281
Y-153.917 Z-0.392
X-226 Y-152.333 Z-0.502
X-228.742 Y-153.917 Z-0.613
Y-157.083 Z-0.724
X-226 Y-158.667 Z-0.834
X-223.258 Y-157.083 Z-0.945
Y-155.5 Z-1
S6000
Y-153.917 F1000
X-226 Y-152.333
X-228.742 Y-153.917
Y-157.083
X-226 Y-158.667
X-223.258 Y-157.083
Y-155.5
S5000
Y-153.917 Z-1.055 F333.3
X-226 Y-152.333 Z-1.166
X-228.742 Y-153.917 Z-1.276
Y-157.083 Z-1.387
X-226 Y-158.667 Z-1.498
X-223.258 Y-157.083 Z-1.608
Y-153.917 Z-1.719
X-226 Y-152.333 Z-1.829
X-228.742 Y-153.917 Z-1.94
Y-155.635 Z-2
S6000
Y-157.083 F1000
X-226 Y-158.667
X-223.258 Y-157.083
Y-153.917
X-226 Y-152.333
X-228.742 Y-153.917
Y-155.635
S5000
Y-157.083 Z-2.051 F333.3
X-226 Y-158.667 Z-2.161
X-223.258 Y-157.083 Z-2.272
Y-153.917 Z-2.382
X-226 Y-152.333 Z-2.493
X-226.159 Y-152.425 Z-2.499
S6000
X-228.742 Y-153.917 F1000
Y-155.635
Y-157.083
X-226 Y-158.667
X-223.258 Y-157.083
Y-153.917
X-226 Y-152.333
X-226.159 Y-152.425
G3 X-226.275 Y-152.859 I0.159 J-0.275
G1 X-226.116 Y-153.134
X-226.081 Y-153.195 Z-2.491
X-226.048 Y-153.253 Z-2.468
X-226.017 Y-153.305 Z-2.43
X-225.992 Y-153.349 Z-2.38
X-225.973 Y-153.381 Z-2.32
X-225.962 Y-153.402 Z-2.253
X-225.958 Y-153.409 Z-2.182
G0 Z5
X-225.592 Y-138.069
G1 Z2.5 F333.3
S5000
X-226 Y-137.833 Z2.484
X-228.742 Y-139.417 Z2.373
Y-142.583 Z2.262
X-226 Y-144.167 Z2.152
X-223.258 Y-142.583 Z2.041
Y-139.417 Z1.931
X-226 Y-137.833 Z1.82
X-228.742 Y-139.417 Z1.709
Y-142.583 Z1.599
X-226 Y-144.167 Z1.488
X-223.258 Y-142.583 Z1.378
Y-139.417 Z1.267
X-226 Y-137.833 Z1.156
X-228.742 Y-139.417 Z1.046
Y-142.583 Z0.935
X-226 Y-144.167 Z0.825
X-223.258 Y-142.583 Z0.714
Y-139.417 Z0.604
X-226 Y-137.833 Z0.493
X-228.742 Y-139.417 Z0.382
Y-142.583 Z0.272
X-226 Y-144.167 Z0.161
X-223.258 Y-142.583 Z0.051
Y-139.417 Z-0.06
X-226 Y-137.833 Z-0.171
X-228.742 Y-139.417 Z-0.281
Y-142.583 Z-0.392
X-226 Y-144.167 Z-0.502
X-223.258 Y-142.583 Z-0.613
Y-139.417 Z-0.724
X-226 Y-137.833 Z-0.834
X-228.742 Y-139.417 Z-0.945
Y-141 Z-1
S6000
Y-142.583 F1000
X-226 Y-144.167
X-223.258 Y-142.583
Y-139.417
X-226 Y-137.833
X-228.742 Y-139.417
Y-141
S5000
Y-142.583 Z-1.055 F333.3
X-226 Y-144.167 Z-1.166
X-223.258 Y-142.583 Z-1.276
Y-139.417 Z-1.387
X-226 Y-137.833 Z-1.498
X-228.742 Y-139.417 Z-1.608
Y-142.583 Z-1.719
X-226 Y-144.167 Z-1.829
X-223.258 Y-142.583 Z-1.94
Y-140.865 Z-2
S6000
Y-139.417 F1000
X-226 Y-137.833
X-228.742 Y-139.417
Y-141
Y-142.583
X-226 Y-144.167
X-223.258 Y-142.583
Y-140.865
S5000
Y-139.417 Z-2.051 F333.3
X-226 Y-137.833 Z-2.161
X-228.742 Y-139.417 Z-2.272
Y-142.583 Z-2.382
X-226 Y-144.167 Z-2.493
X-225.841 Y-144.075 Z-2.499
S6000
X-223.258 Y-142.583 F1000
Y-140.865
Y-139.417
X-226 Y-137.833
X-228.742 Y-139.417
Y-142.583
X-226 Y-144.167
X-225.841 Y-144.075
G3 X-225.725 Y-143.641 I-0.159 J0.275
G1 X-225.883 Y-143.366
X-225.919 Y-143.305 Z-2.491
X-225.952 Y-143.247 Z-2.468
X-225.982 Y-143.195 Z-2.43
X-226.007 Y-143.151 Z-2.38
X-226.026 Y-143.119 Z-2.32
X-226.038 Y-143.098 Z-2.253
X-226.042 Y-143.091 Z-2.182
G0 Z5
X-209.408 Y-143.931
G1 Z2.5 F333.3
S5000
X-209 Y-144.167 Z2.484
X-206.258 Y-142.583 Z2.373
Y-139.417 Z2.262
X-209 Y-137.833 Z2.152
X-211.742 Y-139.417 Z2.041
Y-142.583 Z1.931
X-209 Y-144.167 Z1.82
X-206.258 Y-142.583 Z1.709
Y-139.417 Z1.599
X-209 Y-137.833 Z1.488
X-211.742 Y-139.417 Z1.378
Y-142.583 Z1.267
X-209 Y-144.167 Z1.156
X-206.258 Y-142.583 Z1.046
Y-139.417 Z0.935
X-209 Y-137.833 Z0.825
X-211.742 Y-139.417 Z0.714
Y-142.583 Z0.604
X-209 Y-144.167 Z0.493
X-206.258 Y-142.583 Z0.382
Y-139.417 Z0.272
X-209 Y-137.833 Z0.161
X-211.742 Y-139.417 Z0.051
Y-142.583 Z-0.06
X-209 Y-144.167 Z-0.171
X-206.258 Y-142.583 Z-0.281
Y-139.417 Z-0.392
X-209 Y-137.833 Z-0.502
X-211.742 Y-139.417 Z-0.613
Y-142.583 Z-0.724
X-209 Y-144.167 Z-0.834
X-206.258 Y-142.583 Z-0.945
Y-141 Z-1
S6000
Y-139.417 F1000
X-209 Y-137.833
X-211.742 Y-139.417
Y-142.583
X-209 Y-144.167
X-206.258 Y-142.583
Y-141
S5000
Y-139.417 Z-1.055 F333.3
X-209 Y-137.833 Z-1.166
X-211.742 Y-139.417 Z-1.276
Y-142.583 Z-1.387
X-209 Y-144.167 Z-1.498
X-206.258 Y-142.583 Z-1.608
Y-139.417 Z-1.719
X-209 Y-137.833 Z-1.829
X-211.742 Y-139.417 Z-1.94
Y-141.135 Z-2
S6000
Y-142.583 F1000
X-209 Y-144.167
X-206.258 Y-142.583
Y-139.417
X-209 Y-137.833
X-211.742 Y-139.417
Y-141.135
S5000
Y-142.583 Z-2.051 F333.3
X-209 Y-144.167 Z-2.161
X-206.258 Y-142.583 Z-2.272
Y-139.417 Z-2.382
X-209 Y-137.833 Z-2.493
X-209.159 Y-137.925 Z-2.499
S6000
X-211.742 Y-139.417 F1000
Y-141.135
Y-142.583
X-209 Y-144.167
X-206.258 Y-142.583
Y-139.417
X-209 Y-137.833
X-209.159 Y-137.925
G3 X-209.275 Y-138.359 I0.159 J-0.275
G1 X-209.116 Y-138.634
X-209.081 Y-138.695 Z-2.491
X-209.048 Y-138.753 Z-2.468
X-209.017 Y-138.805 Z-2.43
X-208.992 Y-138.849 Z-2.38
X-208.973 Y-138.881 Z-2.32
X-208.962 Y-138.902 Z-2.253
X-208.958 Y-138.909 Z-2.182
G0 Z5
X-209.408 Y-158.431
G1 Z2.5 F333.3
S5000
X-209 Y-158.667 Z2.484
X-206.258 Y-157.083 Z2.373
Y-153.917 Z2.262
X-209 Y-152.333 Z2.152
X-211.742 Y-153.917 Z2.041
Y-157.083 Z1.931
X-209 Y-158.667 Z1.82
X-206.258 Y-157.083 Z1.709
Y-153.917 Z1.599
X-209 Y-152.333 Z1.488
X-211.742 Y-153.917 Z1.378
Y-157.083 Z1.267
X-209 Y-158.667 Z1.156
X-206.258 Y-157.083 Z1.046
Y-153.917 Z0.935
X-209 Y-152.333 Z0.825
X-211.742 Y-153.917 Z0.714
Y-157.083 Z0.604
X-209 Y-158.667 Z0.493
X-206.258 Y-157.083 Z0.382
Y-153.917 Z0.272
X-209 Y-152.333 Z0.161
X-211.742 Y-153.917 Z0.051
Y-157.083 Z-0.06
X-209 Y-158.667 Z-0.171
X-206.258 Y-157.083 Z-0.281
Y-153.917 Z-0.392
X-209 Y-152.333 Z-0.502
X-211.742 Y-153.917 Z-0.613
Y-157.083 Z-0.724
X-209 Y-158.667 Z-0.834
X-206.258 Y-157.083 Z-0.945
Y-155.5 Z-1
S6000
Y-153.917 F1000
X-209 Y-152.333
X-211.742 Y-153.917
Y-157.083
X-209 Y-158.667
X-206.258 Y-157.083
Y-155.5
S5000
Y-153.917 Z-1.055 F333.3
X-209 Y-152.333 Z-1.166
X-211.742 Y-153.917 Z-1.276
Y-157.083 Z-1.387
X-209 Y-158.667 Z-1.498
X-206.258 Y-157.083 Z-1.608
Y-153.917 Z-1.719
X-209 Y-152.333 Z-1.829
X-211.742 Y-153.917 Z-1.94
Y-155.635 Z-2
S6000
Y-157.083 F1000
X-209 Y-158.667
X-206.258 Y-157.083
Y-153.917
X-209 Y-152.333
X-211.742 Y-153.917
Y-155.635
S5000
Y-157.083 Z-2.051 F333.3
X-209 Y-158.667 Z-2.161
X-206.258 Y-157.083 Z-2.272
Y-153.917 Z-2.382
X-209 Y-152.333 Z-2.493
X-209.159 Y-152.425 Z-2.499
S6000
X-211.742 Y-153.917 F1000
Y-155.635
Y-157.083
X-209 Y-158.667
X-206.258 Y-157.083
Y-153.917
X-209 Y-152.333
X-209.159 Y-152.425
G3 X-209.275 Y-152.859 I0.159 J-0.275
G1 X-209.116 Y-153.134
X-209.081 Y-153.195 Z-2.491
X-209.048 Y-153.253 Z-2.468
X-209.017 Y-153.305 Z-2.43
X-208.992 Y-153.349 Z-2.38
X-208.973 Y-153.381 Z-2.32
X-208.962 Y-153.402 Z-2.253
X-208.958 Y-153.409 Z-2.182
G0 Z5
X-209.408 Y-172.931
G1 Z2.5 F333.3
S5000
X-209 Y-173.167 Z2.484
X-206.258 Y-171.583 Z2.373
Y-168.417 Z2.262
X-209 Y-166.833 Z2.152
X-211.742 Y-168.417 Z2.041
Y-171.583 Z1.931
X-209 Y-173.167 Z1.82
X-206.258 Y-171.583 Z1.709
Y-168.417 Z1.599
X-209 Y-166.833 Z1.488
X-211.742 Y-168.417 Z1.378
Y-171.583 Z1.267
X-209 Y-173.167 Z1.156
X-206.258 Y-171.583 Z1.046
Y-168.417 Z0.935
X-209 Y-166.833 Z0.825
X-211.742 Y-168.417 Z0.714
Y-171.583 Z0.604
X-209 Y-173.167 Z0.493
X-206.258 Y-171.583 Z0.382
Y-168.417 Z0.272
X-209 Y-166.833 Z0.161
X-211.742 Y-168.417 Z0.051
Y-171.583 Z-0.06
X-209 Y-173.167 Z-0.171
X-206.258 Y-171.583 Z-0.281
Y-168.417 Z-0.392
X-209 Y-166.833 Z-0.502
X-211.742 Y-168.417 Z-0.613
Y-171.583 Z-0.724
X-209 Y-173.167 Z-0.834
X-206.258 Y-171.583 Z-0.945
Y-170 Z-1
S6000
Y-168.417 F1000
X-209 Y-166.833
X-211.742 Y-168.417
Y-171.583
X-209 Y-173.167
X-206.258 Y-171.583
Y-170
S5000
Y-168.417 Z-1.055 F333.3
X-209 Y-166.833 Z-1.166
X-211.742 Y-168.417 Z-1.276
Y-171.583 Z-1.387
X-209 Y-173.167 Z-1.498
X-206.258 Y-171.583 Z-1.608
Y-168.417 Z-1.719
X-209 Y-166.833 Z-1.829
X-211.742 Y-168.417 Z-1.94
Y-170.135 Z-2
S6000
Y-171.583 F1000
X-209 Y-173.167
X-206.258 Y-171.583
Y-168.417
X-209 Y-166.833
X-211.742 Y-168.417
Y-170.135
S5000
Y-171.583 Z-2.051 F333.3
X-209 Y-173.167 Z-2.161
X-206.258 Y-171.583 Z-2.272
Y-168.417 Z-2.382
X-209 Y-166.833 Z-2.493
X-209.159 Y-166.925 Z-2.499
S6000
X-211.742 Y-168.417 F1000
Y-170.135
Y-171.583
X-209 Y-173.167
X-206.258 Y-171.583
Y-168.417
X-209 Y-166.833
X-209.159 Y-166.925
G3 X-209.275 Y-167.359 I0.159 J-0.275
G1 X-209.116 Y-167.634
X-209.081 Y-167.695 Z-2.491
X-209.048 Y-167.753 Z-2.468
X-209.017 Y-167.805 Z-2.43
X-208.992 Y-167.849 Z-2.38
X-208.973 Y-167.881 Z-2.32
X-208.962 Y-167.902 Z-2.253
X-208.958 Y-167.909 Z-2.182
G0 Z5
X-142.232 Y-132.189
G1 Z2.5 F333.3
S5000
X-142.158 Y-132.209 Z2.497
X-141.329 Y-132.393 Z2.468
X-140.455 Y-132.553 Z2.437
X-139.537 Y-132.688 Z2.404
X-138.578 Y-132.794 Z2.371
X-137.588 Y-132.868 Z2.336
X-136.573 Y-132.907 Z2.3
X-135.548 Y-132.908 Z2.265
X-134.524 Y-132.873 Z2.229
X-133.516 Y-132.802 Z2.194
X-132.537 Y-132.698 Z2.159
X-131.595 Y-132.562 Z2.126
X-130.698 Y-132.398 Z2.094
X-129.847 Y-132.209 Z2.064
X-129.049 Y-132.001 Z2.035
X-128.3 Y-131.773 Z2.008
X-127.604 Y-131.531 Z1.982
X-126.957 Y-131.275 Z1.957
X-126.36 Y-131.008 Z1.935
X-125.814 Y-130.734 Z1.913
X-125.315 Y-130.452 Z1.893
X-124.863 Y-130.166 Z1.875
X-124.457 Y-129.878 Z1.857
X-124.096 Y-129.589 Z1.841
X-123.781 Y-129.304 Z1.826
X-123.508 Y-129.022 Z1.813
X-123.275 Y-128.744 Z1.8
X-123.081 Y-128.474 Z1.788
X-122.924 Y-128.213 Z1.778
X-122.801 Y-127.964 Z1.768
X-122.709 Y-127.722 Z1.759
X-122.644 Y-127.488 Z1.75
X-122.605 Y-127.264 Z1.742
X-122.589 Y-127.019 Z1.734
X-122.601 Y-126.778 Z1.725
X-122.636 Y-126.551 Z1.717
X-122.694 Y-126.323 Z1.709
X-122.782 Y-126.083 Z1.7
X-122.898 Y-125.835 Z1.691
X-123.047 Y-125.579 Z1.68
X-123.232 Y-125.312 Z1.669
X-123.456 Y-125.037 Z1.657
X-123.717 Y-124.759 Z1.643
X-124.02 Y-124.476 Z1.629
X-124.365 Y-124.192 Z1.613
X-124.754 Y-123.908 Z1.596
X-125.189 Y-123.624 Z1.578
X-125.666 Y-123.346 Z1.559
X-126.19 Y-123.074 Z1.538
X-126.76 Y-122.81 Z1.516
X-127.379 Y-122.555 Z1.493
X-128.044 Y-122.312 Z1.468
X-128.756 Y-122.084 Z1.442
X-129.517 Y-121.872 Z1.415
X-130.326 Y-121.68 Z1.386
X-131.182 Y-121.509 Z1.355
X-132.083 Y-121.364 Z1.323
X-133.026 Y-121.246 Z1.29
X-134.004 Y-121.158 Z1.256
X-135.009 Y-121.105 Z1.221
X-136.032 Y-121.088 Z1.185
X-137.058 Y-121.108 Z1.149
X-138.074 Y-121.163 Z1.114
X-139.066 Y-121.255 Z1.079
X-140.024 Y-121.379 Z1.045
X-140.941 Y-121.532 Z1.013
X-141.81 Y-121.71 Z0.982
X-142.63 Y-121.912 Z0.952
X-143.4 Y-122.132 Z0.924
X-144.118 Y-122.368 Z0.898
X-144.784 Y-122.619 Z0.873
X-145.401 Y-122.882 Z0.85
X-145.969 Y-123.154 Z0.827
X-146.488 Y-123.433 Z0.807
X-146.958 Y-123.716 Z0.788
X-147.382 Y-124.003 Z0.77
X-147.762 Y-124.292 Z0.753
X-148.095 Y-124.579 Z0.738
X-148.386 Y-124.864 Z0.724
X-148.634 Y-125.142 Z0.711
X-148.843 Y-125.414 Z0.699
X-149.016 Y-125.681 Z0.688
X-149.152 Y-125.935 Z0.677
X-149.256 Y-126.181 Z0.668
X-149.332 Y-126.418 Z0.659
X-149.381 Y-126.646 Z0.651
X-149.406 Y-126.87 Z0.643
X-149.409 Y-127.091 Z0.636
X-149.388 Y-127.312 Z0.628
X-149.343 Y-127.54 Z0.62
X-149.273 Y-127.775 Z0.611
X-149.174 Y-128.018 Z0.602
X-149.045 Y-128.27 Z0.592
X-148.882 Y-128.53 Z0.582
X-148.681 Y-128.8 Z0.57
X-148.443 Y-129.076 Z0.557
X-148.165 Y-129.356 Z0.543
X-147.844 Y-129.64 Z0.528
X-147.481 Y-129.925 Z0.512
X-147.074 Y-130.209 Z0.495
X-146.622 Y-130.489 Z0.476
X-146.125 Y-130.767 Z0.456
X-145.583 Y-131.035 Z0.435
X-144.992 Y-131.295 Z0.413
X-144.355 Y-131.545 Z0.389
X-143.67 Y-131.783 Z0.364
X-142.938 Y-132.005 Z0.337
X-142.158 Y-132.209 Z0.309
X-141.329 Y-132.393 Z0.279
X-140.455 Y-132.553 Z0.248
X-139.537 Y-132.688 Z0.216
X-138.578 Y-132.794 Z0.182
X-137.588 Y-132.868 Z0.147
X-136.573 Y-132.907 Z0.112
X-135.548 Y-132.908 Z0.076
X-134.524 Y-132.873 Z0.04
X-133.516 Y-132.802 Z0.005
X-132.537 Y-132.698 Z-0.03
X-131.595 Y-132.562 Z-0.063
X-130.698 Y-132.398 Z-0.095
X-129.847 Y-132.209 Z-0.125
X-129.049 Y-132.001 Z-0.154
X-128.3 Y-131.773 Z-0.181
X-127.604 Y-131.531 Z-0.207
X-126.957 Y-131.275 Z-0.231
X-126.36 Y-131.008 Z-0.254
X-125.814 Y-130.734 Z-0.275
X-125.315 Y-130.452 Z-0.295
X-124.863 Y-130.166 Z-0.314
X-124.457 Y-129.878 Z-0.331
X-124.096 Y-129.589 Z-0.348
X-123.781 Y-129.304 Z-0.362
X-123.508 Y-129.022 Z-0.376
X-123.275 Y-128.744 Z-0.389
X-123.081 Y-128.474 Z-0.4
X-122.924 Y-128.213 Z-0.411
X-122.801 Y-127.964 Z-0.421
X-122.709 Y-127.722 Z-0.43
X-122.644 Y-127.488 Z-0.438
X-122.605 Y-127.264 Z-0.446
X-122.589 Y-127.019 Z-0.455
X-122.601 Y-126.778 Z-0.463
X-122.636 Y-126.551 Z-0.471
X-122.694 Y-126.323 Z-0.479
X-122.782 Y-126.083 Z-0.488
X-122.898 Y-125.835 Z-0.498
X-123.047 Y-125.579 Z-0.508
X-123.232 Y-125.312 Z-0.52
X-123.456 Y-125.037 Z-0.532
X-123.717 Y-124.759 Z-0.545
X-124.02 Y-124.476 Z-0.56
X-124.365 Y-124.192 Z-0.575
X-124.754 Y-123.908 Z-0.592
X-125.189 Y-123.624 Z-0.61
X-125.666 Y-123.346 Z-0.63
X-126.19 Y-123.074 Z-0.65
X-126.76 Y-122.81 Z-0.672
X-127.379 Y-122.555 Z-0.696
X-128.044 Y-122.312 Z-0.72
X-128.756 Y-122.084 Z-0.746
X-129.517 Y-121.872 Z-0.774
X-130.326 Y-121.68 Z-0.803
X-131.182 Y-121.509 Z-0.834
X-132.083 Y-121.364 Z-0.865
X-133.026 Y-121.246 Z-0.899
X-134.004 Y-121.158 Z-0.933
X-135.009 Y-121.105 Z-0.968
X-135.925 Y-121.09 Z-1
S6000
X-136.032 Y-121.088 F1000
X-137.058 Y-121.108
X-138.074 Y-121.163
X-139.066 Y-121.255
X-140.024 Y-121.379
X-140.941 Y-121.532
X-141.81 Y-121.71
X-142.63 Y-121.912
X-143.4 Y-122.132
X-144.118 Y-122.368
X-144.784 Y-122.619
X-145.401 Y-122.882
X-145.969 Y-123.154
X-146.488 Y-123.433
X-146.958 Y-123.716
X-147.382 Y-124.003
X-147.762 Y-124.292
X-148.095 Y-124.579
X-148.386 Y-124.864
X-148.634 Y-125.142
X-148.843 Y-125.414
X-149.016 Y-125.681
X-149.152 Y-125.935
X-149.256 Y-126.181
X-149.332 Y-126.418
X-149.381 Y-126.646
X-149.406 Y-126.87
X-149.409 Y-127.091
X-149.388 Y-127.312
X-149.343 Y-127.54
X-149.273 Y-127.775
X-149.174 Y-128.018
X-149.045 Y-128.27
X-148.882 Y-128.53
X-148.681 Y-128.8
X-148.443 Y-129.076
X-148.165 Y-129.356
X-147.844 Y-129.64
X-147.481 Y-129.925
X-147.074 Y-130.209
X-146.622 Y-130.489
X-146.125 Y-130.767
X-145.583 Y-131.035
X-144.992 Y-131.295
X-144.355 Y-131.545
X-143.67 Y-131.783
X-142.938 Y-132.005
X-142.158 Y-132.209
X-141.329 Y-132.393
X-140.455 Y-132.553
X-139.537 Y-132.688
X-138.578 Y-132.794
X-137.588 Y-132.868
X-136.573 Y-132.907
X-135.548 Y-132.908
X-134.524 Y-132.873
X-133.516 Y-132.802
X-132.537 Y-132.698
X-131.595 Y-132.562
X-130.698 Y-132.398
X-129.847 Y-132.209
X-129.049 Y-132.001
X-128.3 Y-131.773
X-127.604 Y-131.531
X-126.957 Y-131.275
X-126.36 Y-131.008
X-125.814 Y-130.734
X-125.315 Y-130.452
X-124.863 Y-130.166
X-124.457 Y-129.878
X-124.096 Y-129.589
X-123.781 Y-129.304
X-123.508 Y-129.022
X-123.275 Y-128.744
X-123.081 Y-128.474
X-122.924 Y-128.213
X-122.801 Y-127.964
X-122.709 Y-127.722
X-122.644 Y-127.488
X-122.605 Y-127.264
X-122.589 Y-127.019
X-122.601 Y-126.778
X-122.636 Y-126.551
X-122.694 Y-126.323
X-122.782 Y-126.083
X-122.898 Y-125.835
X-123.047 Y-125.579
X-123.232 Y-125.312
X-123.456 Y-125.037
X-123.717 Y-124.759
X-124.02 Y-124.476
X-124.365 Y-124.192
X-124.754 Y-123.908
X-125.189 Y-123.624
X-125.666 Y-123.346
X-126.19 Y-123.074
X-126.76 Y-122.81
X-127.379 Y-122.555
X-128.044 Y-122.312
X-128.756 Y-122.084
X-129.517 Y-121.872
X-130.326 Y-121.68
X-131.182 Y-121.509
X-132.083 Y-121.364
X-133.026 Y-121.246
X-134.004 Y-121.158
X-135.009 Y-121.105
X-135.925 Y-121.09
S5000
X-136.032 Y-121.088 Z-1.004 F333.3
X-137.058 Y-121.108 Z-1.04
X-138.074 Y-121.163 Z-1.075
X-139.066 Y-121.255 Z-1.11
X-140.024 Y-121.379 Z-1.144
X-140.941 Y-121.532 Z-1.176
X-141.81 Y-121.71 Z-1.207
X-142.63 Y-121.912 Z-1.237
X-143.4 Y-122.132 Z-1.265
X-144.118 Y-122.368 Z-1.291
X-144.784 Y-122.619 Z-1.316
X-145.401 Y-122.882 Z-1.339
X-145.969 Y-123.154 Z-1.361
X-146.488 Y-123.433 Z-1.382
X-146.958 Y-123.716 Z-1.401
X-147.382 Y-124.003 Z-1.419
X-147.762 Y-124.292 Z-1.435
X-148.095 Y-124.579 Z-1.451
X-148.386 Y-124.864 Z-1.465
X-148.634 Y-125.142 Z-1.478
X-148.843 Y-125.414 Z-1.49
X-149.016 Y-125.681 Z-1.501
X-149.152 Y-125.935 Z-1.511
X-149.256 Y-126.181 Z-1.521
X-149.332 Y-126.418 Z-1.529
X-149.381 Y-126.646 Z-1.537
X-149.406 Y-126.87 Z-1.545
X-149.409 Y-127.091 Z-1.553
X-149.388 Y-127.312 Z-1.561
X-149.343 Y-127.54 Z-1.569
X-149.273 Y-127.775 Z-1.577
X-149.174 Y-128.018 Z-1.587
X-149.045 Y-128.27 Z-1.596
X-148.882 Y-128.53 Z-1.607
X-148.681 Y-128.8 Z-1.619
X-148.443 Y-129.076 Z-1.632
X-148.165 Y-129.356 Z-1.645
X-147.844 Y-129.64 Z-1.66
X-147.481 Y-129.925 Z-1.676
X-147.074 Y-130.209 Z-1.694
X-146.622 Y-130.489 Z-1.712
X-146.125 Y-130.767 Z-1.732
X-145.583 Y-131.035 Z-1.753
X-144.992 Y-131.295 Z-1.776
X-144.355 Y-131.545 Z-1.8
X-143.67 Y-131.783 Z-1.825
X-142.938 Y-132.005 Z-1.852
X-142.158 Y-132.209 Z-1.88
X-141.329 Y-132.393 Z-1.91
X-140.455 Y-132.553 Z-1.941
X-139.537 Y-132.688 Z-1.973
X-138.771 Y-132.773 Z-2
S6000
X-138.578 Y-132.794 F1000
X-137.588 Y-132.868
X-136.573 Y-132.907
X-135.548 Y-132.908
X-134.524 Y-132.873
X-133.516 Y-132.802
X-132.537 Y-132.698
X-131.595 Y-132.562
X-130.698 Y-132.398
X-129.847 Y-132.209
X-129.049 Y-132.001
X-128.3 Y-131.773
X-127.604 Y-131.531
X-126.957 Y-131.275
X-126.36 Y-131.008
X-125.814 Y-130.734
X-125.315 Y-130.452
X-124.863 Y-130.166
X-124.457 Y-129.878
X-124.096 Y-129.589
X-123.781 Y-129.304
X-123.508 Y-129.022
X-123.275 Y-128.744
X-123.081 Y-128.474
X-122.924 Y-128.213
X-122.801 Y-127.964
X-122.709 Y-127.722
X-122.644 Y-127.488
X-122.605 Y-127.264
X-122.589 Y-127.019
X-122.601 Y-126.778
X-122.636 Y-126.551
X-122.694 Y-126.323
X-122.782 Y-126.083
X-122.898 Y-125.835
X-123.047 Y-125.579
X-123.232 Y-125.312
X-123.456 Y-125.037
X-123.717 Y-124.759
X-124.02 Y-124.476
X-124.365 Y-124.192
X-124.754 Y-123.908
X-125.189 Y-123.624
X-125.666 Y-123.346
X-126.19 Y-123.074
X-126.76 Y-122.81
X-127.379 Y-122.555
X-128.044 Y-122.312
X-128.756 Y-122.084
X-129.517 Y-121.872
X-130.326 Y-121.68
X-131.182 Y-121.509
X-132.083 Y-121.364
X-133.026 Y-121.246
X-134.004 Y-121.158
X-135.009 Y-121.105
X-135.925 Y-121.09
X-136.032 Y-121.088
X-137.058 Y-121.108
X-138.074 Y-121.163
X-139.066 Y-121.255
X-140.024 Y-121.379
X-140.941 Y-121.532
X-141.81 Y-121.71
X-142.63 Y-121.912
X-143.4 Y-122.132
X-144.118 Y-122.368
X-144.784 Y-122.619
X-145.401 Y-122.882
X-145.969 Y-123.154
X-146.488 Y-123.433
X-146.958 Y-123.716
X-147.382 Y-124.003
X-147.762 Y-124.292
X-148.095 Y-124.579
X-148.386 Y-124.864
X-148.634 Y-125.142
X-148.843 Y-125.414
X-149.016 Y-125.681
X-149.152 Y-125.935
X-149.256 Y-126.181
X-149.332 Y-126.418
X-149.381 Y-126.646
X-149.406 Y-126.87
X-149.409 Y-127.091
X-149.388 Y-127.312
X-149.343 Y-127.54
X-149.273 Y-127.775
X-149.174 Y-128.018
X-149.045 Y-128.27
X-148.882 Y-128.53
X-148.681 Y-128.8
X-148.443 Y-129.076
X-148.165 Y-129.356
X-147.844 Y-129.64
X-147.481 Y-129.925
X-147.074 Y-130.209
X-146.622 Y-130.489
X-146.125 Y-130.767
X-145.583 Y-131.035
X-144.992 Y-131.295
X-144.355 Y-131.545
X-143.67 Y-131.783
X-142.938 Y-132.005
X-142.158 Y-132.209
X-141.329 Y-132.393
X-140.455 Y-132.553
X-139.537 Y-132.688
X-138.771 Y-132.773
S5000
X-138.578 Y-132.794 Z-2.007 F333.3
X-137.588 Y-132.868 Z-2.041
X-136.573 Y-132.907 Z-2.077
X-135.548 Y-132.908 Z-2.113
X-134.524 Y-132.873 Z-2.149
X-133.516 Y-132.802 Z-2.184
X-132.537 Y-132.698 Z-2.218
X-131.595 Y-132.562 Z-2.251
X-130.698 Y-132.398 Z-2.283
X-129.847 Y-132.209 Z-2.314
X-129.049 Y-132.001 Z-2.343
X-128.3 Y-131.773 Z-2.37
X-127.604 Y-131.531 Z-2.396
X-126.957 Y-131.275 Z-2.42
X-126.36 Y-131.008 Z-2.443
X-125.814 Y-130.734 Z-2.464
X-125.315 Y-130.452 Z-2.484
X-124.944 Y-130.218 Z-2.499
S6000
X-124.863 Y-130.166 F1000
X-124.457 Y-129.878
X-124.096 Y-129.589
X-123.781 Y-129.304
X-123.508 Y-129.022
X-123.275 Y-128.744
X-123.081 Y-128.474
X-122.924 Y-128.213
X-122.801 Y-127.964
X-122.709 Y-127.722
X-122.644 Y-127.488
X-122.605 Y-127.264
X-122.589 Y-127.019
X-122.601 Y-126.778
X-122.636 Y-126.551
X-122.694 Y-126.323
X-122.782 Y-126.083
X-122.898 Y-125.835
X-123.047 Y-125.579
X-123.232 Y-125.312
X-123.456 Y-125.037
X-123.717 Y-124.759
X-124.02 Y-124.476
X-124.365 Y-124.192
X-124.754 Y-123.908
X-125.189 Y-123.624
X-125.666 Y-123.346
X-126.19 Y-123.074
X-126.76 Y-122.81
X-127.379 Y-122.555
X-128.044 Y-122.312
X-128.756 Y-122.084
X-129.517 Y-121.872
X-130.326 Y-121.68
X-131.182 Y-121.509
X-132.083 Y-121.364
X-133.026 Y-121.246
X-134.004 Y-121.158
X-135.009 Y-121.105
X-136.032 Y-121.088
X-137.058 Y-121.108
X-138.074 Y-121.163
X-139.066 Y-121.255
X-140.024 Y-121.379
X-140.941 Y-121.532
X-141.81 Y-121.71
X-142.63 Y-121.912
X-143.4 Y-122.132
X-144.118 Y-122.368
X-144.784 Y-122.619
X-145.401 Y-122.882
X-145.969 Y-123.154
X-146.488 Y-123.433
X-146.958 Y-123.716
X-147.382 Y-124.003
X-147.762 Y-124.292
X-148.095 Y-124.579
X-148.386 Y-124.864
X-148.634 Y-125.142
X-148.843 Y-125.414
X-149.016 Y-125.681
X-149.152 Y-125.935
X-149.256 Y-126.181
X-149.332 Y-126.418
X-149.381 Y-126.646
X-149.406 Y-126.87
X-149.409 Y-127.091
X-149.388 Y-127.312
X-149.343 Y-127.54
X-149.273 Y-127.775
X-149.174 Y-128.018
X-149.045 Y-128.27
X-148.882 Y-128.53
X-148.681 Y-128.8
X-148.443 Y-129.076
X-148.165 Y-129.356
X-147.844 Y-129.64
X-147.481 Y-129.925
X-147.074 Y-130.209
X-146.622 Y-130.489
X-146.125 Y-130.767
X-145.583 Y-131.035
X-144.992 Y-131.295
X-144.355 Y-131.545
X-143.67 Y-131.783
X-142.938 Y-132.005
X-142.158 Y-132.209
X-141.329 Y-132.393
X-140.455 Y-132.553
X-139.537 Y-132.688
X-138.771 Y-132.773
X-138.578 Y-132.794
X-137.588 Y-132.868
X-136.573 Y-132.907
X-135.548 Y-132.908
X-134.524 Y-132.873
X-133.516 Y-132.802
X-132.537 Y-132.698
X-131.595 Y-132.562
X-130.698 Y-132.398
X-129.847 Y-132.209
X-129.049 Y-132.001
X-128.3 Y-131.773
X-127.604 Y-131.531
X-126.957 Y-131.275
X-126.36 Y-131.008
X-125.814 Y-130.734
X-125.315 Y-130.452
X-124.944 Y-130.218
G3 X-124.846 Y-129.78 I-0.17 J0.268
G1 X-125.015 Y-129.511
X-125.053 Y-129.452 Z-2.491
X-125.089 Y-129.395 Z-2.468
X-125.121 Y-129.344 Z-2.43
X-125.148 Y-129.302 Z-2.38
X-125.168 Y-129.27 Z-2.32
X-125.181 Y-129.25 Z-2.253
X-125.185 Y-129.243 Z-2.182
G0 Z5
X-122.868 Y-62.181
G1 Z2.5 F333.3
S5000
X-122.859 Y-62.172
X-122.742 Y-62.038 Z2.493
X-122.664 Y-61.926 Z2.489
X-122.619 Y-61.845 Z2.485
X-122.6 Y-61.794 Z2.483
X-122.593 Y-61.766 Z2.482
X-122.592 Y-61.749
X-122.593 Y-61.735 Z2.481
X-122.6 Y-61.705 Z2.48
X-122.621 Y-61.65 Z2.478
X-122.665 Y-61.571 Z2.475
X-122.742 Y-61.462 Z2.47
X-122.861 Y-61.326 Z2.464
X-123.022 Y-61.172 Z2.456
X-123.229 Y-61.003 Z2.447
X-123.485 Y-60.822 Z2.436
X-123.788 Y-60.634 Z2.424
X-124.142 Y-60.441 Z2.409
X-124.545 Y-60.246 Z2.394
X-124.999 Y-60.051 Z2.377
X-125.502 Y-59.857 Z2.358
X-126.059 Y-59.667 Z2.337
X-126.67 Y-59.482 Z2.315
X-127.336 Y-59.303 Z2.291
X-128.059 Y-59.132 Z2.265
X-128.845 Y-58.97 Z2.237
X-129.695 Y-58.821 Z2.207
X-130.615 Y-58.685 Z2.174
X-131.608 Y-58.565 Z2.139
X-132.679 Y-58.466 Z2.102
X-133.828 Y-58.392 Z2.062
X-135.049 Y-58.348 Z2.019
X-136.319 Y-58.339 Z1.975
X-137.596 Y-58.367 Z1.93
X-138.832 Y-58.431 Z1.887
X-139.993 Y-58.525 Z1.846
X-141.067 Y-58.643 Z1.808
X-142.054 Y-58.781 Z1.774
X-142.96 Y-58.934 Z1.741
X-143.79 Y-59.099 Z1.712
X-144.55 Y-59.274 Z1.685
X-145.245 Y-59.457 Z1.66
X-145.878 Y-59.647 Z1.636
X-146.452 Y-59.841 Z1.615
X-146.971 Y-60.039 Z1.596
X-147.436 Y-60.237 Z1.578
X-147.847 Y-60.436 Z1.562
X-148.207 Y-60.632 Z1.548
X-148.515 Y-60.822 Z1.535
X-148.773 Y-61.004 Z1.524
X-148.982 Y-61.176 Z1.515
X-149.144 Y-61.331 Z1.507
X-149.26 Y-61.465 Z1.501
X-149.337 Y-61.574 Z1.496
X-149.38 Y-61.655 Z1.493
