(1001)
(T5  D=3.175 CR=0 - ZMIN=-3.501 - Schaftfraser)
G90 G94
G17
G21

(Bohrfrasen2)
T5
S6000 M3
G54
G0 X-249.077 Y-12.081
Z15
Z1.683
G1 Z0.001 F1000
X-248.919
X-248.888 Y-12.075
X-248.861 Y-12.057
X-248.844 Y-12.031
X-248.837 Y-12
G3 X-249.163 Y-12 Z-0.249 I-0.163 J0
X-248.837 Y-12 Z-0.499 I0.163 J0
X-249.163 Y-12 Z-0.749 I-0.163 J0
X-248.837 Y-12 Z-0.999 I0.163 J0
X-249.163 Y-12 Z-1.249 I-0.163 J0
X-248.837 Y-12 Z-1.499 I0.163 J0
X-249.163 Y-12 Z-1.749 I-0.163 J0
X-248.837 Y-12 Z-1.999 I0.163 J0
X-249.163 Y-12 Z-2.249 I-0.163 J0
X-248.837 Y-12 Z-2.499 I0.163 J0
X-249.163 Y-12 Z-2.749 I-0.163 J0
X-248.837 Y-12 Z-2.999 I0.163 J0
X-249.163 Y-12 Z-3.249 I-0.163 J0
X-248.837 Y-12 Z-3.499 I0.163 J0
X-249.163 Y-12 I-0.163 J0
X-248.837 Y-12 I0.163 J0
G1 X-248.844 Y-11.969
X-248.861 Y-11.943
X-248.888 Y-11.925
X-248.919 Y-11.919
X-249.077
G0 Z5
X-248.131 Y-18.317
Z2.001
G1 Z0.318 F1000
G18 G2 X-247.814 Z0.001 I0.318 K0
G1 X-247.655
G17 G3 X-247.337 Y-18 I0 J0.317
X-248.663 Y-18 Z-0.249 I-0.663 J0
X-247.337 Y-18 Z-0.499 I0.663 J0
X-248.663 Y-18 Z-0.749 I-0.663 J0
X-247.337 Y-18 Z-0.999 I0.663 J0
X-248.663 Y-18 Z-1.249 I-0.663 J0
X-247.337 Y-18 Z-1.499 I0.663 J0
X-248.663 Y-18 Z-1.749 I-0.663 J0
X-247.337 Y-18 Z-1.999 I0.663 J0
X-248.663 Y-18 Z-2.249 I-0.663 J0
X-247.337 Y-18 Z-2.499 I0.663 J0
X-248.663 Y-18 Z-2.749 I-0.663 J0
X-247.337 Y-18 Z-2.999 I0.663 J0
X-248.663 Y-18 Z-3.249 I-0.663 J0
X-247.337 Y-18 Z-3.499 I0.663 J0
X-248.663 Y-18 I-0.663 J0
X-247.337 Y-18 I0.663 J0
X-247.655 Y-17.683 I-0.318 J0
G1 X-247.814
G18 G3 X-248.131 Z-3.182 I0 K0.317
G0 Z5
Y-28.317
Z2.001
G1 Z0.318 F1000
G2 X-247.814 Z0.001 I0.318 K0
G1 X-247.655
G17 G3 X-247.337 Y-28 I0 J0.317
X-248.663 Y-28 Z-0.249 I-0.663 J0
X-247.337 Y-28 Z-0.499 I0.663 J0
X-248.663 Y-28 Z-0.749 I-0.663 J0
X-247.337 Y-28 Z-0.999 I0.663 J0
X-248.663 Y-28 Z-1.249 I-0.663 J0
X-247.337 Y-28 Z-1.499 I0.663 J0
X-248.663 Y-28 Z-1.749 I-0.663 J0
X-247.337 Y-28 Z-1.999 I0.663 J0
X-248.663 Y-28 Z-2.249 I-0.663 J0
X-247.337 Y-28 Z-2.499 I0.663 J0
X-248.663 Y-28 Z-2.749 I-0.663 J0
X-247.337 Y-28 Z-2.999 I0.663 J0
X-248.663 Y-28 Z-3.249 I-0.663 J0
X-247.337 Y-28 Z-3.499 I0.663 J0
X-248.663 Y-28 I-0.663 J0
X-247.337 Y-28 I0.663 J0
X-247.655 Y-27.683 I-0.318 J0
G1 X-247.814
G18 G3 X-248.131 Z-3.182 I0 K0.317
G0 Z5
Y-38.318
Z2.001
G1 Z0.318 F1000
G2 X-247.814 Z0.001 I0.318 K0
G1 X-247.655
G17 G3 X-247.337 Y-38 I0 J0.318
X-248.663 Y-38 Z-0.249 I-0.663 J0
X-247.337 Y-38 Z-0.499 I0.663 J0
X-248.663 Y-38 Z-0.749 I-0.663 J0
X-247.337 Y-38 Z-0.999 I0.663 J0
X-248.663 Y-38 Z-1.249 I-0.663 J0
X-247.337 Y-38 Z-1.499 I0.663 J0
X-248.663 Y-38 Z-1.749 I-0.663 J0
X-247.337 Y-38 Z-1.999 I0.663 J0
X-248.663 Y-38 Z-2.249 I-0.663 J0
X-247.337 Y-38 Z-2.499 I0.663 J0
X-248.663 Y-38 Z-2.749 I-0.663 J0
X-247.337 Y-38 Z-2.999 I0.663 J0
X-248.663 Y-38 Z-3.249 I-0.663 J0
X-247.337 Y-38 Z-3.499 I0.663 J0
X-248.663 Y-38 I-0.663 J0
X-247.337 Y-38 I0.663 J0
X-247.655 Y-37.682 I-0.318 J0
G1 X-247.814
G18 G3 X-248.131 Z-3.182 I0 K0.317
G0 Z5
X-238.131 Y-38.318
Z2.001
G1 Z0.318 F1000
G2 X-237.814 Z0.001 I0.318 K0
G1 X-237.655
G17 G3 X-237.337 Y-38 I0 J0.318
X-238.663 Y-38 Z-0.249 I-0.663 J0
X-237.337 Y-38 Z-0.499 I0.663 J0
X-238.663 Y-38 Z-0.749 I-0.663 J0
X-237.337 Y-38 Z-0.999 I0.663 J0
X-238.663 Y-38 Z-1.249 I-0.663 J0
X-237.337 Y-38 Z-1.499 I0.663 J0
X-238.663 Y-38 Z-1.749 I-0.663 J0
X-237.337 Y-38 Z-1.999 I0.663 J0
X-238.663 Y-38 Z-2.249 I-0.663 J0
X-237.337 Y-38 Z-2.499 I0.663 J0
X-238.663 Y-38 Z-2.749 I-0.663 J0
X-237.337 Y-38 Z-2.999 I0.663 J0
X-238.663 Y-38 Z-3.249 I-0.663 J0
X-237.337 Y-38 Z-3.499 I0.663 J0
X-238.663 Y-38 I-0.663 J0
X-237.337 Y-38 I0.663 J0
X-237.655 Y-37.682 I-0.318 J0
G1 X-237.814
G18 G3 X-238.131 Z-3.182 I0 K0.317
G0 Z5
Y-48.318
Z2.001
G1 Z0.318 F1000
G2 X-237.814 Z0.001 I0.318 K0
G1 X-237.655
G17 G3 X-237.337 Y-48 I0 J0.318
X-238.663 Y-48 Z-0.249 I-0.663 J0
X-237.337 Y-48 Z-0.499 I0.663 J0
X-238.663 Y-48 Z-0.749 I-0.663 J0
X-237.337 Y-48 Z-0.999 I0.663 J0
X-238.663 Y-48 Z-1.249 I-0.663 J0
X-237.337 Y-48 Z-1.499 I0.663 J0
X-238.663 Y-48 Z-1.749 I-0.663 J0
X-237.337 Y-48 Z-1.999 I0.663 J0
X-238.663 Y-48 Z-2.249 I-0.663 J0
X-237.337 Y-48 Z-2.499 I0.663 J0
X-238.663 Y-48 Z-2.749 I-0.663 J0
X-237.337 Y-48 Z-2.999 I0.663 J0
X-238.663 Y-48 Z-3.249 I-0.663 J0
X-237.337 Y-48 Z-3.499 I0.663 J0
X-238.663 Y-48 I-0.663 J0
X-237.337 Y-48 I0.663 J0
X-237.655 Y-47.682 I-0.318 J0
G1 X-237.814
G18 G3 X-238.131 Z-3.182 I0 K0.317
G0 Z5
X-248.131 Y-48.318
Z2.001
G1 Z0.318 F1000
G2 X-247.814 Z0.001 I0.318 K0
G1 X-247.655
G17 G3 X-247.337 Y-48 I0 J0.318
X-248.663 Y-48 Z-0.249 I-0.663 J0
X-247.337 Y-48 Z-0.499 I0.663 J0
X-248.663 Y-48 Z-0.749 I-0.663 J0
X-247.337 Y-48 Z-0.999 I0.663 J0
X-248.663 Y-48 Z-1.249 I-0.663 J0
X-247.337 Y-48 Z-1.499 I0.663 J0
X-248.663 Y-48 Z-1.749 I-0.663 J0
X-247.337 Y-48 Z-1.999 I0.663 J0
X-248.663 Y-48 Z-2.249 I-0.663 J0
X-247.337 Y-48 Z-2.499 I0.663 J0
X-248.663 Y-48 Z-2.749 I-0.663 J0
X-247.337 Y-48 Z-2.999 I0.663 J0
X-248.663 Y-48 Z-3.249 I-0.663 J0
X-247.337 Y-48 Z-3.499 I0.663 J0
X-248.663 Y-48 I-0.663 J0
X-247.337 Y-48 I0.663 J0
X-247.655 Y-47.682 I-0.318 J0
G1 X-247.814
G18 G3 X-248.131 Z-3.182 I0 K0.317
G0 Z5
X-238.131 Y-58.318
Z2.001
G1 Z0.318 F1000
G2 X-237.814 Z0.001 I0.318 K0
G1 X-237.655
G17 G3 X-237.337 Y-58 I0 J0.318
X-238.663 Y-58 Z-0.249 I-0.663 J0
X-237.337 Y-58 Z-0.499 I0.663 J0
X-238.663 Y-58 Z-0.749 I-0.663 J0
X-237.337 Y-58 Z-0.999 I0.663 J0
X-238.663 Y-58 Z-1.249 I-0.663 J0
X-237.337 Y-58 Z-1.499 I0.663 J0
X-238.663 Y-58 Z-1.749 I-0.663 J0
X-237.337 Y-58 Z-1.999 I0.663 J0
X-238.663 Y-58 Z-2.249 I-0.663 J0
X-237.337 Y-58 Z-2.499 I0.663 J0
X-238.663 Y-58 Z-2.749 I-0.663 J0
X-237.337 Y-58 Z-2.999 I0.663 J0
X-238.663 Y-58 Z-3.249 I-0.663 J0
X-237.337 Y-58 Z-3.499 I0.663 J0
X-238.663 Y-58 I-0.663 J0
X-237.337 Y-58 I0.663 J0
X-237.655 Y-57.682 I-0.318 J0
G1 X-237.814
G18 G3 X-238.131 Z-3.182 I0 K0.317
G0 Z5
X-248.131 Y-58.318
Z2.001
G1 Z0.318 F1000
G2 X-247.814 Z0.001 I0.318 K0
G1 X-247.655
G17 G3 X-247.337 Y-58 I0 J0.318
X-248.663 Y-58 Z-0.249 I-0.663 J0
X-247.337 Y-58 Z-0.499 I0.663 J0
X-248.663 Y-58 Z-0.749 I-0.663 J0
X-247.337 Y-58 Z-0.999 I0.663 J0
X-248.663 Y-58 Z-1.249 I-0.663 J0
X-247.337 Y-58 Z-1.499 I0.663 J0
X-248.663 Y-58 Z-1.749 I-0.663 J0
X-247.337 Y-58 Z-1.999 I0.663 J0
X-248.663 Y-58 Z-2.249 I-0.663 J0
X-247.337 Y-58 Z-2.499 I0.663 J0
X-248.663 Y-58 Z-2.749 I-0.663 J0
X-247.337 Y-58 Z-2.999 I0.663 J0
X-248.663 Y-58 Z-3.249 I-0.663 J0
X-247.337 Y-58 Z-3.499 I0.663 J0
X-248.663 Y-58 I-0.663 J0
X-247.337 Y-58 I0.663 J0
X-247.655 Y-57.682 I-0.318 J0
G1 X-247.814
G18 G3 X-248.131 Z-3.182 I0 K0.317
G0 Z5
X-259.078 Y-57.564
Z1.683
G1 Z0.001 F1000
X-258.919
X-258.888 Y-57.558
X-258.861 Y-57.541
X-258.844 Y-57.514
X-258.837 Y-57.483
G17 G3 X-259.162 Y-57.483 Z-0.249 I-0.163 J0
X-259.05 Y-57.638 Z-0.349 I0.162 J0
X-258.95 Y-57.329 Z-0.599 I0.05 J0.155
X-259.05 Y-57.638 Z-0.849 I-0.05 J-0.155
X-258.95 Y-57.329 Z-1.099 I0.05 J0.155
X-259.05 Y-57.638 Z-1.349 I-0.05 J-0.155
X-258.95 Y-57.638 Z-1.399 I0.05 J0.155
X-259.05 Y-57.329 Z-1.649 I-0.05 J0.155
X-258.95 Y-57.638 Z-1.899 I0.05 J-0.155
X-258.95 Y-57.329 Z-2.099 I-0.05 J0.155
X-259.05 Y-57.638 Z-2.349 I-0.05 J-0.155
X-258.95 Y-57.329 Z-2.599 I0.05 J0.155
X-259.05 Y-57.638 Z-2.849 I-0.05 J-0.155
X-258.95 Y-57.329 Z-3.099 I0.05 J0.155
X-259.05 Y-57.329 Z-3.149 I-0.05 J-0.155
X-258.95 Y-57.638 Z-3.399 I0.05 J-0.155
X-258.837 Y-57.483 Z-3.499 I-0.05 J0.155
X-259.163 Y-57.483 I-0.163 J0
X-258.837 Y-57.483 I0.163 J0
G1 X-258.844 Y-57.452
X-258.861 Y-57.426
X-258.888 Y-57.408
X-258.919 Y-57.402
X-259.078
G0 Z5
X-65.661 Y-111.403
Z1.682
G1 Z-0.001 F1000
X-65.502
X-65.471 Y-111.397
X-65.445 Y-111.38
X-65.427 Y-111.353
X-65.421 Y-111.322
G3 X-65.746 Y-111.322 Z-0.251 I-0.163 J0
X-65.421 Y-111.322 Z-0.501 I0.163 J0
X-65.746 Y-111.322 Z-0.751 I-0.163 J0
X-65.421 Y-111.322 Z-1.001 I0.163 J0
X-65.746 Y-111.322 Z-1.251 I-0.163 J0
X-65.421 Y-111.322 Z-1.501 I0.163 J0
X-65.746 Y-111.322 Z-1.751 I-0.163 J0
X-65.421 Y-111.322 Z-2.001 I0.163 J0
X-65.746 Y-111.322 Z-2.251 I-0.163 J0
X-65.421 Y-111.322 Z-2.501 I0.163 J0
X-65.746 Y-111.322 Z-2.751 I-0.163 J0
X-65.421 Y-111.322 Z-3.001 I0.163 J0
X-65.746 Y-111.322 Z-3.251 I-0.163 J0
X-65.421 Y-111.322 Z-3.501 I0.163 J0
X-65.746 Y-111.322 I-0.163 J0
X-65.421 Y-111.322 I0.163 J0
G1 X-65.427 Y-111.291
X-65.445 Y-111.265
X-65.471 Y-111.247
X-65.502 Y-111.241
X-65.661
G0 Z5
Y-88.759
Z1.682
G1 Z-0.001 F1000
X-65.502
X-65.471 Y-88.753
X-65.445 Y-88.735
X-65.427 Y-88.709
X-65.421 Y-88.678
G3 X-65.746 Y-88.678 Z-0.251 I-0.163 J0
X-65.421 Y-88.678 Z-0.501 I0.163 J0
X-65.746 Y-88.678 Z-0.751 I-0.163 J0
X-65.421 Y-88.678 Z-1.001 I0.163 J0
X-65.746 Y-88.678 Z-1.251 I-0.163 J0
X-65.421 Y-88.678 Z-1.501 I0.163 J0
X-65.746 Y-88.678 Z-1.751 I-0.163 J0
X-65.421 Y-88.678 Z-2.001 I0.163 J0
X-65.746 Y-88.678 Z-2.251 I-0.163 J0
X-65.421 Y-88.678 Z-2.501 I0.163 J0
X-65.746 Y-88.678 Z-2.751 I-0.163 J0
X-65.421 Y-88.678 Z-3.001 I0.163 J0
X-65.746 Y-88.678 Z-3.251 I-0.163 J0
X-65.421 Y-88.678 Z-3.501 I0.163 J0
X-65.746 Y-88.678 I-0.163 J0
X-65.421 Y-88.678 I0.163 J0
G1 X-65.427 Y-88.647
X-65.445 Y-88.62
X-65.471 Y-88.603
X-65.502 Y-88.597
X-65.661
G0 Z5
X-65.327 Y-63.468
Z1.682
G1 Z-0.001 F1000
X-65.169
X-65.138 Y-63.461
X-65.111 Y-63.444
X-65.094 Y-63.417
X-65.088 Y-63.386
G3 X-65.412 Y-63.386 Z-0.251 I-0.162 J0
X-65.088 Y-63.386 Z-0.501 I0.162 J0
X-65.412 Y-63.386 Z-0.751 I-0.162 J0
X-65.088 Y-63.386 Z-1.001 I0.162 J0
X-65.412 Y-63.386 Z-1.251 I-0.162 J0
X-65.088 Y-63.386 Z-1.501 I0.162 J0
X-65.412 Y-63.386 Z-1.751 I-0.162 J0
X-65.088 Y-63.386 Z-2.001 I0.162 J0
X-65.412 Y-63.386 Z-2.251 I-0.162 J0
X-65.088 Y-63.386 Z-2.501 I0.162 J0
X-65.412 Y-63.386 Z-2.751 I-0.162 J0
X-65.088 Y-63.386 Z-3.001 I0.162 J0
X-65.412 Y-63.386 Z-3.251 I-0.162 J0
X-65.088 Y-63.386 Z-3.501 I0.162 J0
X-65.412 Y-63.386 I-0.162 J0
X-65.088 Y-63.386 I0.162 J0
G1 X-65.094 Y-63.355
X-65.111 Y-63.329
X-65.138 Y-63.311
X-65.169 Y-63.305
X-65.327
G0 Z5
X-83.077 Y-57.564
Z1.682
G1 Z-0.001 F1000
X-82.919
X-82.888 Y-57.558
X-82.861 Y-57.541
X-82.844 Y-57.514
X-82.838 Y-57.483
G3 X-83.162 Y-57.483 Z-0.251 I-0.162 J0
X-82.838 Y-57.483 Z-0.501 I0.162 J0
X-83.162 Y-57.483 Z-0.751 I-0.162 J0
X-82.838 Y-57.483 Z-1.001 I0.162 J0
X-83.162 Y-57.483 Z-1.251 I-0.162 J0
X-82.838 Y-57.483 Z-1.501 I0.162 J0
X-83.162 Y-57.483 Z-1.751 I-0.162 J0
X-82.838 Y-57.483 Z-2.001 I0.162 J0
X-83.162 Y-57.483 Z-2.251 I-0.162 J0
X-82.838 Y-57.483 Z-2.501 I0.162 J0
X-83.162 Y-57.483 Z-2.751 I-0.162 J0
X-82.838 Y-57.483 Z-3.001 I0.162 J0
X-83.162 Y-57.483 Z-3.251 I-0.162 J0
X-82.838 Y-57.483 Z-3.501 I0.162 J0
X-83.162 Y-57.483 I-0.162 J0
X-82.838 Y-57.483 I0.162 J0
G1 X-82.844 Y-57.452
X-82.861 Y-57.426
X-82.888 Y-57.408
X-82.919 Y-57.402
X-83.077
G0 Z5
X-85.077 Y-74.652
Z1.682
G1 Z-0.001 F1000
X-84.919
X-84.888 Y-74.646
X-84.861 Y-74.628
X-84.844 Y-74.602
X-84.838 Y-74.571
G3 X-85.162 Y-74.571 Z-0.251 I-0.162 J0
X-84.838 Y-74.571 Z-0.501 I0.162 J0
X-85.162 Y-74.571 Z-0.751 I-0.162 J0
X-84.838 Y-74.571 Z-1.001 I0.162 J0
X-85.162 Y-74.571 Z-1.251 I-0.162 J0
X-84.838 Y-74.571 Z-1.501 I0.162 J0
X-85.162 Y-74.571 Z-1.751 I-0.162 J0
X-84.838 Y-74.571 Z-2.001 I0.162 J0
X-85.162 Y-74.571 Z-2.251 I-0.162 J0
X-84.838 Y-74.571 Z-2.501 I0.162 J0
X-85.162 Y-74.571 Z-2.751 I-0.162 J0
X-84.838 Y-74.571 Z-3.001 I0.162 J0
X-85.162 Y-74.571 Z-3.251 I-0.162 J0
X-84.838 Y-74.571 Z-3.501 I0.162 J0
X-85.162 Y-74.571 I-0.162 J0
X-84.838 Y-74.571 I0.162 J0
G1 X-84.844 Y-74.54
X-84.861 Y-74.514
X-84.888 Y-74.496
X-84.919 Y-74.49
X-85.077
G0 Z5
X-101.077 Y-74.652
Z1.683
G1 Z0.001 F1000
X-100.919
X-100.888 Y-74.646
X-100.861 Y-74.628
X-100.844 Y-74.602
X-100.838 Y-74.571
G3 X-101.162 Y-74.571 Z-0.249 I-0.162 J0
X-100.838 Y-74.571 Z-0.499 I0.162 J0
X-101.162 Y-74.571 Z-0.749 I-0.162 J0
X-100.838 Y-74.571 Z-0.999 I0.162 J0
X-101.162 Y-74.571 Z-1.249 I-0.162 J0
X-100.838 Y-74.571 Z-1.499 I0.162 J0
X-101.162 Y-74.571 Z-1.749 I-0.162 J0
X-100.838 Y-74.571 Z-1.999 I0.162 J0
X-101.162 Y-74.571 Z-2.249 I-0.162 J0
X-100.838 Y-74.571 Z-2.499 I0.162 J0
X-101.162 Y-74.571 Z-2.749 I-0.162 J0
X-100.838 Y-74.571 Z-2.999 I0.162 J0
X-101.162 Y-74.571 Z-3.249 I-0.162 J0
X-100.838 Y-74.571 Z-3.499 I0.162 J0
X-101.162 Y-74.571 I-0.162 J0
X-100.838 Y-74.571 I0.162 J0
G1 X-100.844 Y-74.54
X-100.861 Y-74.514
X-100.888 Y-74.496
X-100.919 Y-74.49
X-101.077
G0 Z5
X-103.077 Y-57.564
Z1.683
G1 Z0.001 F1000
X-102.919
X-102.888 Y-57.558
X-102.861 Y-57.541
X-102.844 Y-57.514
X-102.838 Y-57.483
G3 X-103.162 Y-57.483 Z-0.249 I-0.162 J0
X-102.838 Y-57.483 Z-0.499 I0.162 J0
X-103.162 Y-57.483 Z-0.749 I-0.162 J0
X-102.838 Y-57.483 Z-0.999 I0.162 J0
X-103.162 Y-57.483 Z-1.249 I-0.162 J0
X-102.838 Y-57.483 Z-1.499 I0.162 J0
X-103.162 Y-57.483 Z-1.749 I-0.162 J0
X-102.838 Y-57.483 Z-1.999 I0.162 J0
X-103.162 Y-57.483 Z-2.249 I-0.162 J0
X-102.838 Y-57.483 Z-2.499 I0.162 J0
X-103.162 Y-57.483 Z-2.749 I-0.162 J0
X-102.838 Y-57.483 Z-2.999 I0.162 J0
X-103.162 Y-57.483 Z-3.249 I-0.162 J0
X-102.838 Y-57.483 Z-3.499 I0.162 J0
X-103.162 Y-57.483 I-0.162 J0
X-102.838 Y-57.483 I0.162 J0
G1 X-102.844 Y-57.452
X-102.861 Y-57.426
X-102.888 Y-57.408
X-102.919 Y-57.402
X-103.077
G0 Z5
X-120.827 Y-69.831
Z1.683
G1 Z0.001 F1000
X-120.669
X-120.638 Y-69.825
X-120.611 Y-69.807
X-120.594 Y-69.781
X-120.588 Y-69.75
G3 X-120.912 Y-69.75 Z-0.249 I-0.162 J0
X-120.588 Y-69.75 Z-0.499 I0.162 J0
X-120.912 Y-69.75 Z-0.749 I-0.162 J0
X-120.588 Y-69.75 Z-0.999 I0.162 J0
X-120.912 Y-69.75 Z-1.249 I-0.162 J0
X-120.588 Y-69.75 Z-1.499 I0.162 J0
X-120.912 Y-69.75 Z-1.749 I-0.162 J0
X-120.588 Y-69.75 Z-1.999 I0.162 J0
X-120.912 Y-69.75 Z-2.249 I-0.162 J0
X-120.588 Y-69.75 Z-2.499 I0.162 J0
X-120.912 Y-69.75 Z-2.749 I-0.162 J0
X-120.588 Y-69.75 Z-2.999 I0.162 J0
X-120.912 Y-69.75 Z-3.249 I-0.162 J0
X-120.588 Y-69.75 Z-3.499 I0.162 J0
X-120.912 Y-69.75 I-0.162 J0
X-120.588 Y-69.75 I0.162 J0
G1 X-120.594 Y-69.719
X-120.611 Y-69.693
X-120.638 Y-69.675
X-120.669 Y-69.669
X-120.827
G0 Z5
X-120.494 Y-88.759
Z1.683
G1 Z0.001 F1000
X-120.335
X-120.304 Y-88.753
X-120.278 Y-88.735
X-120.26 Y-88.709
X-120.254 Y-88.678
G3 X-120.579 Y-88.678 Z-0.249 I-0.162 J0
X-120.254 Y-88.678 Z-0.499 I0.162 J0
X-120.579 Y-88.678 Z-0.749 I-0.162 J0
X-120.254 Y-88.678 Z-0.999 I0.162 J0
X-120.579 Y-88.678 Z-1.249 I-0.162 J0
X-120.254 Y-88.678 Z-1.499 I0.162 J0
X-120.579 Y-88.678 Z-1.749 I-0.162 J0
X-120.254 Y-88.678 Z-1.999 I0.162 J0
X-120.579 Y-88.678 Z-2.249 I-0.162 J0
X-120.254 Y-88.678 Z-2.499 I0.162 J0
X-120.579 Y-88.678 Z-2.749 I-0.162 J0
X-120.254 Y-88.678 Z-2.999 I0.162 J0
X-120.579 Y-88.678 Z-3.249 I-0.162 J0
X-120.254 Y-88.678 Z-3.499 I0.162 J0
X-120.579 Y-88.678 I-0.162 J0
X-120.254 Y-88.678 I0.162 J0
G1 X-120.26 Y-88.647
X-120.278 Y-88.62
X-120.304 Y-88.603
X-120.335 Y-88.597
X-120.494
G0 Z5
X-120.827 Y-100.331
Z1.683
G1 Z0.001 F1000
X-120.669
X-120.638 Y-100.325
X-120.611 Y-100.307
X-120.594 Y-100.281
X-120.588 Y-100.25
G3 X-120.912 Y-100.25 Z-0.249 I-0.162 J0
X-120.588 Y-100.25 Z-0.499 I0.162 J0
X-120.912 Y-100.25 Z-0.749 I-0.162 J0
X-120.588 Y-100.25 Z-0.999 I0.162 J0
X-120.912 Y-100.25 Z-1.249 I-0.162 J0
X-120.588 Y-100.25 Z-1.499 I0.162 J0
X-120.912 Y-100.25 Z-1.749 I-0.162 J0
X-120.588 Y-100.25 Z-1.999 I0.162 J0
X-120.912 Y-100.25 Z-2.249 I-0.162 J0
X-120.588 Y-100.25 Z-2.499 I0.162 J0
X-120.912 Y-100.25 Z-2.749 I-0.162 J0
X-120.588 Y-100.25 Z-2.999 I0.162 J0
X-120.912 Y-100.25 Z-3.249 I-0.162 J0
X-120.588 Y-100.25 Z-3.499 I0.162 J0
X-120.912 Y-100.25 I-0.162 J0
X-120.588 Y-100.25 I0.162 J0
G1 X-120.594 Y-100.219
X-120.611 Y-100.193
X-120.638 Y-100.175
X-120.669 Y-100.169
X-120.827
G0 Z5
X-120.494 Y-111.403
Z1.683
G1 Z0.001 F1000
X-120.335
X-120.304 Y-111.397
X-120.278 Y-111.38
X-120.26 Y-111.353
X-120.254 Y-111.322
G3 X-120.579 Y-111.322 Z-0.249 I-0.162 J0
X-120.254 Y-111.322 Z-0.499 I0.162 J0
X-120.579 Y-111.322 Z-0.749 I-0.162 J0
X-120.254 Y-111.322 Z-0.999 I0.162 J0
X-120.579 Y-111.322 Z-1.249 I-0.162 J0
X-120.254 Y-111.322 Z-1.499 I0.162 J0
X-120.579 Y-111.322 Z-1.749 I-0.162 J0
X-120.254 Y-111.322 Z-1.999 I0.162 J0
X-120.579 Y-111.322 Z-2.249 I-0.162 J0
X-120.254 Y-111.322 Z-2.499 I0.162 J0
X-120.579 Y-111.322 Z-2.749 I-0.162 J0
X-120.254 Y-111.322 Z-2.999 I0.162 J0
X-120.579 Y-111.322 Z-3.249 I-0.162 J0
X-120.254 Y-111.322 Z-3.499 I0.162 J0
X-120.579 Y-111.322 I-0.162 J0
X-120.254 Y-111.322 I0.162 J0
G1 X-120.26 Y-111.291
X-120.278 Y-111.265
X-120.304 Y-111.247
X-120.335 Y-111.241
X-120.494
G0 Z5
X-103.077 Y-142.598
Z1.683
G1 Z0.001 F1000
X-102.919
X-102.888 Y-142.592
X-102.861 Y-142.574
X-102.844 Y-142.548
X-102.838 Y-142.517
G3 X-103.162 Y-142.517 Z-0.249 I-0.162 J0
X-102.838 Y-142.517 Z-0.499 I0.162 J0
X-103.162 Y-142.517 Z-0.749 I-0.162 J0
X-102.838 Y-142.517 Z-0.999 I0.162 J0
X-103.162 Y-142.517 Z-1.249 I-0.162 J0
X-102.838 Y-142.517 Z-1.499 I0.162 J0
X-103.162 Y-142.517 Z-1.749 I-0.162 J0
X-102.838 Y-142.517 Z-1.999 I0.162 J0
X-103.162 Y-142.517 Z-2.249 I-0.162 J0
X-102.838 Y-142.517 Z-2.499 I0.162 J0
X-103.162 Y-142.517 Z-2.749 I-0.162 J0
X-102.838 Y-142.517 Z-2.999 I0.162 J0
X-103.162 Y-142.517 Z-3.249 I-0.162 J0
X-102.838 Y-142.517 Z-3.499 I0.162 J0
X-103.162 Y-142.517 I-0.162 J0
X-102.838 Y-142.517 I0.162 J0
G1 X-102.844 Y-142.486
X-102.861 Y-142.459
X-102.888 Y-142.442
X-102.919 Y-142.436
X-103.077
G0 Z5
X-101.077 Y-125.51
Z1.683
G1 Z0.001 F1000
X-100.919
X-100.888 Y-125.504
X-100.861 Y-125.486
X-100.844 Y-125.46
X-100.838 Y-125.429
G3 X-101.162 Y-125.429 Z-0.249 I-0.162 J0
X-100.838 Y-125.429 Z-0.499 I0.162 J0
X-101.162 Y-125.429 Z-0.749 I-0.162 J0
X-100.838 Y-125.429 Z-0.999 I0.162 J0
X-101.162 Y-125.429 Z-1.249 I-0.162 J0
X-100.838 Y-125.429 Z-1.499 I0.162 J0
X-101.162 Y-125.429 Z-1.749 I-0.162 J0
X-100.838 Y-125.429 Z-1.999 I0.162 J0
X-101.162 Y-125.429 Z-2.249 I-0.162 J0
X-100.838 Y-125.429 Z-2.499 I0.162 J0
X-101.162 Y-125.429 Z-2.749 I-0.162 J0
X-100.838 Y-125.429 Z-2.999 I0.162 J0
X-101.162 Y-125.429 Z-3.249 I-0.162 J0
X-100.838 Y-125.429 Z-3.499 I0.162 J0
X-101.162 Y-125.429 I-0.162 J0
X-100.838 Y-125.429 I0.162 J0
G1 X-100.844 Y-125.398
X-100.861 Y-125.372
X-100.888 Y-125.354
X-100.919 Y-125.348
X-101.077
G0 Z5
X-85.077 Y-125.51
Z1.682
G1 Z-0.001 F1000
X-84.919
X-84.888 Y-125.504
X-84.861 Y-125.486
X-84.844 Y-125.46
X-84.838 Y-125.429
G3 X-85.162 Y-125.429 Z-0.251 I-0.162 J0
X-84.838 Y-125.429 Z-0.501 I0.162 J0
X-85.162 Y-125.429 Z-0.751 I-0.162 J0
X-84.838 Y-125.429 Z-1.001 I0.162 J0
X-85.162 Y-125.429 Z-1.251 I-0.162 J0
X-84.838 Y-125.429 Z-1.501 I0.162 J0
X-85.162 Y-125.429 Z-1.751 I-0.162 J0
X-84.838 Y-125.429 Z-2.001 I0.162 J0
X-85.162 Y-125.429 Z-2.251 I-0.162 J0
X-84.838 Y-125.429 Z-2.501 I0.162 J0
X-85.162 Y-125.429 Z-2.751 I-0.162 J0
X-84.838 Y-125.429 Z-3.001 I0.162 J0
X-85.162 Y-125.429 Z-3.251 I-0.162 J0
X-84.838 Y-125.429 Z-3.501 I0.162 J0
X-85.162 Y-125.429 I-0.162 J0
X-84.838 Y-125.429 I0.162 J0
G1 X-84.844 Y-125.398
X-84.861 Y-125.372
X-84.888 Y-125.354
X-84.919 Y-125.348
X-85.077
G0 Z5
X-83.077 Y-142.598
Z1.682
G1 Z-0.001 F1000
X-82.919
X-82.888 Y-142.592
X-82.861 Y-142.574
X-82.844 Y-142.548
X-82.838 Y-142.517
G3 X-83.162 Y-142.517 Z-0.251 I-0.162 J0
X-82.838 Y-142.517 Z-0.501 I0.162 J0
X-83.162 Y-142.517 Z-0.751 I-0.162 J0
X-82.838 Y-142.517 Z-1.001 I0.162 J0
X-83.162 Y-142.517 Z-1.251 I-0.162 J0
X-82.838 Y-142.517 Z-1.501 I0.162 J0
X-83.162 Y-142.517 Z-1.751 I-0.162 J0
X-82.838 Y-142.517 Z-2.001 I0.162 J0
X-83.162 Y-142.517 Z-2.251 I-0.162 J0
X-82.838 Y-142.517 Z-2.501 I0.162 J0
X-83.162 Y-142.517 Z-2.751 I-0.162 J0
X-82.838 Y-142.517 Z-3.001 I0.162 J0
X-83.162 Y-142.517 Z-3.251 I-0.162 J0
X-82.838 Y-142.517 Z-3.501 I0.162 J0
X-83.162 Y-142.517 I-0.162 J0
X-82.838 Y-142.517 I0.162 J0
G1 X-82.844 Y-142.486
X-82.861 Y-142.459
X-82.888 Y-142.442
X-82.919 Y-142.436
X-83.077
G0 Z5
X-65.327 Y-136.695
Z1.682
G1 Z-0.001 F1000
X-65.169
X-65.138 Y-136.689
X-65.111 Y-136.671
X-65.094 Y-136.645
X-65.088 Y-136.614
G3 X-65.412 Y-136.614 Z-0.251 I-0.162 J0
X-65.088 Y-136.614 Z-0.501 I0.162 J0
X-65.412 Y-136.614 Z-0.751 I-0.162 J0
X-65.088 Y-136.614 Z-1.001 I0.162 J0
X-65.412 Y-136.614 Z-1.251 I-0.162 J0
X-65.088 Y-136.614 Z-1.501 I0.162 J0
X-65.412 Y-136.614 Z-1.751 I-0.162 J0
X-65.088 Y-136.614 Z-2.001 I0.162 J0
X-65.412 Y-136.614 Z-2.251 I-0.162 J0
X-65.088 Y-136.614 Z-2.501 I0.162 J0
X-65.412 Y-136.614 Z-2.751 I-0.162 J0
X-65.088 Y-136.614 Z-3.001 I0.162 J0
X-65.412 Y-136.614 Z-3.251 I-0.162 J0
X-65.088 Y-136.614 Z-3.501 I0.162 J0
X-65.412 Y-136.614 I-0.162 J0
X-65.088 Y-136.614 I0.162 J0
G1 X-65.094 Y-136.583
X-65.111 Y-136.556
X-65.138 Y-136.539
X-65.169 Y-136.532
X-65.327
G0 Z5
X-39.881 Y-152.181
Z1.999
G1 Z0.317 F1000
G18 G2 X-39.564 Z-0.001 I0.317 K0
G1 X-39.405
G17 G3 X-39.088 Y-151.864 I0 J0.318
X-60.912 Y-151.864 Z-0.251 I-10.912 J0
X-39.088 Y-151.864 Z-0.501 I10.912 J0
X-60.912 Y-151.864 Z-0.751 I-10.912 J0
X-39.088 Y-151.864 Z-1.001 I10.912 J0
X-60.912 Y-151.864 Z-1.251 I-10.912 J0
X-39.088 Y-151.864 Z-1.501 I10.912 J0
X-60.912 Y-151.864 Z-1.751 I-10.912 J0
X-39.088 Y-151.864 Z-2.001 I10.912 J0
X-60.912 Y-151.864 Z-2.251 I-10.912 J0
X-39.088 Y-151.864 Z-2.501 I10.912 J0
X-60.912 Y-151.864 Z-2.751 I-10.912 J0
X-39.088 Y-151.864 Z-3.001 I10.912 J0
X-60.912 Y-151.864 Z-3.251 I-10.912 J0
X-39.088 Y-151.864 Z-3.501 I10.912 J0
X-60.912 Y-151.864 I-10.912 J0
X-39.088 Y-151.864 I10.912 J0
X-39.405 Y-151.546 I-0.317 J0
G1 X-39.564
G18 G3 X-39.881 Z-3.183 I0 K0.318
G0 Z5
X-34.827 Y-136.695
Z1.682
G1 Z-0.001 F1000
X-34.669
X-34.638 Y-136.689
X-34.611 Y-136.671
X-34.594 Y-136.645
X-34.588 Y-136.614
G17 G3 X-34.912 Y-136.614 Z-0.251 I-0.162 J0
X-34.588 Y-136.614 Z-0.501 I0.162 J0
X-34.881 Y-136.518 Z-0.701 I-0.162 J0
X-34.619 Y-136.709 Z-0.951 I0.131 J-0.096
X-34.619 Y-136.518 Z-1.051 I-0.131 J0.096
X-34.881 Y-136.709 Z-1.301 I-0.131 J-0.096
X-34.619 Y-136.518 Z-1.551 I0.131 J0.096
X-34.881 Y-136.709 Z-1.801 I-0.131 J-0.096
X-34.619 Y-136.518 Z-2.051 I0.131 J0.096
X-34.881 Y-136.709 Z-2.301 I-0.131 J-0.096
X-34.619 Y-136.518 Z-2.551 I0.131 J0.096
X-34.881 Y-136.709 Z-2.801 I-0.131 J-0.096
X-34.619 Y-136.518 Z-3.051 I0.131 J0.096
X-34.881 Y-136.709 Z-3.301 I-0.131 J-0.096
X-34.588 Y-136.614 Z-3.501 I0.131 J0.096
X-34.912 Y-136.614 I-0.162 J0
X-34.588 Y-136.614 I0.162 J0
G1 X-34.594 Y-136.583
X-34.611 Y-136.556
X-34.638 Y-136.539
X-34.669 Y-136.532
X-34.827
G0 Z5
X-17.077 Y-142.598
Z1.682
G1 Z-0.001 F1000
X-16.919
X-16.888 Y-142.592
X-16.861 Y-142.574
X-16.844 Y-142.548
X-16.837 Y-142.517
G3 X-17.163 Y-142.517 Z-0.251 I-0.163 J0
X-16.837 Y-142.517 Z-0.501 I0.163 J0
X-17.163 Y-142.517 Z-0.751 I-0.163 J0
X-16.837 Y-142.517 Z-1.001 I0.163 J0
X-17.163 Y-142.517 Z-1.251 I-0.163 J0
X-16.837 Y-142.517 Z-1.501 I0.163 J0
X-17.163 Y-142.517 Z-1.751 I-0.163 J0
X-16.837 Y-142.517 Z-2.001 I0.163 J0
X-17.163 Y-142.517 Z-2.251 I-0.163 J0
X-16.837 Y-142.517 Z-2.501 I0.163 J0
X-17.163 Y-142.517 Z-2.751 I-0.163 J0
X-16.837 Y-142.517 Z-3.001 I0.163 J0
X-17.163 Y-142.517 Z-3.251 I-0.163 J0
X-16.837 Y-142.517 Z-3.501 I0.163 J0
X-17.163 Y-142.517 I-0.163 J0
X-16.837 Y-142.517 I0.163 J0
G1 X-16.844 Y-142.486
X-16.861 Y-142.459
X-16.888 Y-142.442
X-16.919 Y-142.436
X-17.077
G0 Z5
X-15.078 Y-125.51
Z1.682
G1 Z-0.001 F1000
X-14.919
X-14.888 Y-125.504
X-14.861 Y-125.486
X-14.844 Y-125.46
X-14.837 Y-125.429
G3 X-15.163 Y-125.429 Z-0.251 I-0.163 J0
X-14.837 Y-125.429 Z-0.501 I0.163 J0
X-15.163 Y-125.429 Z-0.751 I-0.163 J0
X-14.837 Y-125.429 Z-1.001 I0.163 J0
X-15.163 Y-125.429 Z-1.251 I-0.163 J0
X-14.837 Y-125.429 Z-1.501 I0.163 J0
X-15.163 Y-125.429 Z-1.751 I-0.163 J0
X-14.837 Y-125.429 Z-2.001 I0.163 J0
X-15.163 Y-125.429 Z-2.251 I-0.163 J0
X-14.837 Y-125.429 Z-2.501 I0.163 J0
X-15.163 Y-125.429 Z-2.751 I-0.163 J0
X-14.837 Y-125.429 Z-3.001 I0.163 J0
X-15.163 Y-125.429 Z-3.251 I-0.163 J0
X-14.837 Y-125.429 Z-3.501 I0.163 J0
X-15.163 Y-125.429 I-0.163 J0
X-14.837 Y-125.429 I0.163 J0
G1 X-14.844 Y-125.398
X-14.861 Y-125.372
X-14.888 Y-125.354
X-14.919 Y-125.348
X-15.078
G0 Z5
X-34.494 Y-111.403
Z1.682
G1 Z-0.001 F1000
X-34.335
X-34.304 Y-111.397
X-34.278 Y-111.38
X-34.26 Y-111.353
X-34.254 Y-111.322
G3 X-34.579 Y-111.322 Z-0.251 I-0.163 J0
X-34.254 Y-111.322 Z-0.501 I0.163 J0
X-34.579 Y-111.322 Z-0.751 I-0.163 J0
X-34.254 Y-111.322 Z-1.001 I0.163 J0
X-34.579 Y-111.322 Z-1.251 I-0.163 J0
X-34.254 Y-111.322 Z-1.501 I0.163 J0
X-34.579 Y-111.322 Z-1.751 I-0.163 J0
X-34.254 Y-111.322 Z-2.001 I0.163 J0
X-34.579 Y-111.322 Z-2.251 I-0.163 J0
X-34.254 Y-111.322 Z-2.501 I0.163 J0
X-34.579 Y-111.322 Z-2.751 I-0.163 J0
X-34.254 Y-111.322 Z-3.001 I0.163 J0
X-34.579 Y-111.322 Z-3.251 I-0.163 J0
X-34.254 Y-111.322 Z-3.501 I0.163 J0
X-34.579 Y-111.322 I-0.163 J0
X-34.254 Y-111.322 I0.163 J0
G1 X-34.26 Y-111.291
X-34.278 Y-111.265
X-34.304 Y-111.247
X-34.335 Y-111.241
X-34.494
G0 Z5
Y-88.759
Z1.682
G1 Z-0.001 F1000
X-34.335
X-34.304 Y-88.753
X-34.278 Y-88.735
X-34.26 Y-88.709
X-34.254 Y-88.678
G3 X-34.579 Y-88.678 Z-0.251 I-0.163 J0
X-34.254 Y-88.678 Z-0.501 I0.163 J0
X-34.579 Y-88.678 Z-0.751 I-0.163 J0
X-34.254 Y-88.678 Z-1.001 I0.163 J0
X-34.579 Y-88.678 Z-1.251 I-0.163 J0
X-34.254 Y-88.678 Z-1.501 I0.163 J0
X-34.579 Y-88.678 Z-1.751 I-0.163 J0
X-34.254 Y-88.678 Z-2.001 I0.163 J0
X-34.579 Y-88.678 Z-2.251 I-0.163 J0
X-34.254 Y-88.678 Z-2.501 I0.163 J0
X-34.579 Y-88.678 Z-2.751 I-0.163 J0
X-34.254 Y-88.678 Z-3.001 I0.163 J0
X-34.579 Y-88.678 Z-3.251 I-0.163 J0
X-34.254 Y-88.678 Z-3.501 I0.163 J0
X-34.579 Y-88.678 I-0.163 J0
X-34.254 Y-88.678 I0.163 J0
G1 X-34.26 Y-88.647
X-34.278 Y-88.62
X-34.304 Y-88.603
X-34.335 Y-88.597
X-34.494
G0 Z5
X-15.078 Y-74.652
Z1.682
G1 Z-0.001 F1000
X-14.919
X-14.888 Y-74.646
X-14.861 Y-74.628
X-14.844 Y-74.602
X-14.837 Y-74.571
G3 X-15.163 Y-74.571 Z-0.251 I-0.163 J0
X-14.837 Y-74.571 Z-0.501 I0.163 J0
X-15.163 Y-74.571 Z-0.751 I-0.163 J0
X-14.837 Y-74.571 Z-1.001 I0.163 J0
X-15.163 Y-74.571 Z-1.251 I-0.163 J0
X-14.837 Y-74.571 Z-1.501 I0.163 J0
X-15.163 Y-74.571 Z-1.751 I-0.163 J0
X-14.837 Y-74.571 Z-2.001 I0.163 J0
X-15.163 Y-74.571 Z-2.251 I-0.163 J0
X-14.837 Y-74.571 Z-2.501 I0.163 J0
X-15.163 Y-74.571 Z-2.751 I-0.163 J0
X-14.837 Y-74.571 Z-3.001 I0.163 J0
X-15.163 Y-74.571 Z-3.251 I-0.163 J0
X-14.837 Y-74.571 Z-3.501 I0.163 J0
X-15.163 Y-74.571 I-0.163 J0
X-14.837 Y-74.571 I0.163 J0
G1 X-14.844 Y-74.54
X-14.861 Y-74.514
X-14.888 Y-74.496
X-14.919 Y-74.49
X-15.078
G0 Z5
X-17.077 Y-57.564
Z1.682
G1 Z-0.001 F1000
X-16.919
X-16.888 Y-57.558
X-16.861 Y-57.541
X-16.844 Y-57.514
X-16.837 Y-57.483
G3 X-17.163 Y-57.483 Z-0.251 I-0.163 J0
X-16.837 Y-57.483 Z-0.501 I0.163 J0
X-17.163 Y-57.483 Z-0.751 I-0.163 J0
X-16.837 Y-57.483 Z-1.001 I0.163 J0
X-17.163 Y-57.483 Z-1.251 I-0.163 J0
X-16.837 Y-57.483 Z-1.501 I0.163 J0
X-17.163 Y-57.483 Z-1.751 I-0.163 J0
X-16.837 Y-57.483 Z-2.001 I0.163 J0
X-17.163 Y-57.483 Z-2.251 I-0.163 J0
X-16.837 Y-57.483 Z-2.501 I0.163 J0
X-17.163 Y-57.483 Z-2.751 I-0.163 J0
X-16.837 Y-57.483 Z-3.001 I0.163 J0
X-17.163 Y-57.483 Z-3.251 I-0.163 J0
X-16.837 Y-57.483 Z-3.501 I0.163 J0
X-17.163 Y-57.483 I-0.163 J0
X-16.837 Y-57.483 I0.163 J0
G1 X-16.844 Y-57.452
X-16.861 Y-57.426
X-16.888 Y-57.408
X-16.919 Y-57.402
X-17.077
G0 Z5
X-34.827 Y-63.468
Z1.682
G1 Z-0.001 F1000
X-34.669
X-34.638 Y-63.461
X-34.611 Y-63.444
X-34.594 Y-63.417
X-34.588 Y-63.386
G3 X-34.912 Y-63.386 Z-0.251 I-0.162 J0
X-34.588 Y-63.386 Z-0.501 I0.162 J0
X-34.912 Y-63.386 Z-0.751 I-0.162 J0
X-34.588 Y-63.386 Z-1.001 I0.162 J0
X-34.912 Y-63.386 Z-1.251 I-0.162 J0
X-34.588 Y-63.386 Z-1.501 I0.162 J0
X-34.912 Y-63.386 Z-1.751 I-0.162 J0
X-34.588 Y-63.386 Z-2.001 I0.162 J0
X-34.912 Y-63.386 Z-2.251 I-0.162 J0
X-34.588 Y-63.386 Z-2.501 I0.162 J0
X-34.912 Y-63.386 Z-2.751 I-0.162 J0
X-34.588 Y-63.386 Z-3.001 I0.162 J0
X-34.912 Y-63.386 Z-3.251 I-0.162 J0
X-34.588 Y-63.386 Z-3.501 I0.162 J0
X-34.912 Y-63.386 I-0.162 J0
X-34.588 Y-63.386 I0.162 J0
G1 X-34.594 Y-63.355
X-34.611 Y-63.329
X-34.638 Y-63.311
X-34.669 Y-63.305
X-34.827
G0 Z5
X-27.077 Y-12.081
Z1.682
G1 Z-0.001 F1000
X-26.919
X-26.888 Y-12.075
X-26.861 Y-12.057
X-26.844 Y-12.031
X-26.837 Y-12
G3 X-27.163 Y-12 Z-0.251 I-0.163 J0
X-26.837 Y-12 Z-0.501 I0.163 J0
X-27.163 Y-12 Z-0.751 I-0.163 J0
X-26.837 Y-12 Z-1.001 I0.163 J0
X-27.163 Y-12 Z-1.251 I-0.163 J0
X-26.837 Y-12 Z-1.501 I0.163 J0
X-27.163 Y-12 Z-1.751 I-0.163 J0
X-26.837 Y-12 Z-2.001 I0.163 J0
X-27.163 Y-12 Z-2.251 I-0.163 J0
X-26.837 Y-12 Z-2.501 I0.163 J0
X-27.163 Y-12 Z-2.751 I-0.163 J0
X-26.837 Y-12 Z-3.001 I0.163 J0
X-27.163 Y-12 Z-3.251 I-0.163 J0
X-26.837 Y-12 Z-3.501 I0.163 J0
X-27.163 Y-12 I-0.163 J0
X-26.837 Y-12 I0.163 J0
G1 X-26.844 Y-11.969
X-26.861 Y-11.943
X-26.888 Y-11.925
X-26.919 Y-11.919
X-27.077
G0 Z5
X-34.827 Y-32.968
Z1.682
G1 Z-0.001 F1000
X-34.669
X-34.638 Y-32.961
X-34.611 Y-32.944
X-34.594 Y-32.917
X-34.588 Y-32.886
G3 X-34.912 Y-32.886 Z-0.251 I-0.162 J0
X-34.588 Y-32.886 Z-0.501 I0.162 J0
X-34.912 Y-32.886 Z-0.751 I-0.162 J0
X-34.588 Y-32.886 Z-1.001 I0.162 J0
X-34.912 Y-32.886 Z-1.251 I-0.162 J0
X-34.588 Y-32.886 Z-1.501 I0.162 J0
X-34.912 Y-32.886 Z-1.751 I-0.162 J0
X-34.588 Y-32.886 Z-2.001 I0.162 J0
X-34.912 Y-32.886 Z-2.251 I-0.162 J0
X-34.588 Y-32.886 Z-2.501 I0.162 J0
X-34.912 Y-32.886 Z-2.751 I-0.162 J0
X-34.588 Y-32.886 Z-3.001 I0.162 J0
X-34.912 Y-32.886 Z-3.251 I-0.162 J0
X-34.588 Y-32.886 Z-3.501 I0.162 J0
X-34.912 Y-32.886 I-0.162 J0
X-34.588 Y-32.886 I0.162 J0
G1 X-34.594 Y-32.855
X-34.611 Y-32.829
X-34.638 Y-32.811
X-34.669 Y-32.805
X-34.827
G0 Z5
X-39.881 Y-48.454
Z1.999
G1 Z0.317 F1000
G18 G2 X-39.564 Z-0.001 I0.317 K0
G1 X-39.405
G17 G3 X-39.088 Y-48.136 I0 J0.318
X-60.912 Y-48.136 Z-0.251 I-10.912 J0
X-39.088 Y-48.136 Z-0.501 I10.912 J0
X-60.912 Y-48.136 Z-0.751 I-10.912 J0
X-39.088 Y-48.136 Z-1.001 I10.912 J0
X-60.912 Y-48.136 Z-1.251 I-10.912 J0
X-39.088 Y-48.136 Z-1.501 I10.912 J0
X-60.912 Y-48.136 Z-1.751 I-10.912 J0
X-39.088 Y-48.136 Z-2.001 I10.912 J0
X-60.912 Y-48.136 Z-2.251 I-10.912 J0
X-39.088 Y-48.136 Z-2.501 I10.912 J0
X-60.912 Y-48.136 Z-2.751 I-10.912 J0
X-39.088 Y-48.136 Z-3.001 I10.912 J0
X-60.912 Y-48.136 Z-3.251 I-10.912 J0
X-39.088 Y-48.136 Z-3.501 I10.912 J0
X-60.912 Y-48.136 I-10.912 J0
X-39.088 Y-48.136 I10.912 J0
X-39.405 Y-47.819 I-0.317 J0
G1 X-39.564
G18 G3 X-39.881 Z-3.183 I0 K0.318
G0 Z5
X-65.327 Y-32.968
Z1.682
G1 Z-0.001 F1000
X-65.169
X-65.138 Y-32.961
X-65.111 Y-32.944
X-65.094 Y-32.917
X-65.088 Y-32.886
G17 G3 X-65.412 Y-32.886 Z-0.251 I-0.162 J0
X-65.088 Y-32.886 Z-0.501 I0.162 J0
X-65.412 Y-32.886 Z-0.751 I-0.162 J0
X-65.088 Y-32.886 Z-1.001 I0.162 J0
X-65.412 Y-32.886 Z-1.251 I-0.162 J0
X-65.088 Y-32.886 Z-1.501 I0.162 J0
X-65.412 Y-32.886 Z-1.751 I-0.162 J0
X-65.088 Y-32.886 Z-2.001 I0.162 J0
X-65.412 Y-32.886 Z-2.251 I-0.162 J0
X-65.088 Y-32.886 Z-2.501 I0.162 J0
X-65.412 Y-32.886 Z-2.751 I-0.162 J0
X-65.088 Y-32.886 Z-3.001 I0.162 J0
X-65.412 Y-32.886 Z-3.251 I-0.162 J0
X-65.088 Y-32.886 Z-3.501 I0.162 J0
X-65.412 Y-32.886 I-0.162 J0
X-65.088 Y-32.886 I0.162 J0
G1 X-65.094 Y-32.855
X-65.111 Y-32.829
X-65.138 Y-32.811
X-65.169 Y-32.805
X-65.327
G0 Z5
X-73.077 Y-12.081
Z1.682
G1 Z-0.001 F1000
X-72.919
X-72.888 Y-12.075
X-72.861 Y-12.057
X-72.844 Y-12.031
X-72.838 Y-12
G3 X-73.162 Y-12 Z-0.251 I-0.162 J0
X-72.838 Y-12 Z-0.501 I0.162 J0
X-73.162 Y-12 Z-0.751 I-0.162 J0
X-72.838 Y-12 Z-1.001 I0.162 J0
X-73.162 Y-12 Z-1.251 I-0.162 J0
X-72.838 Y-12 Z-1.501 I0.162 J0
X-73.162 Y-12 Z-1.751 I-0.162 J0
X-72.838 Y-12 Z-2.001 I0.162 J0
X-73.162 Y-12 Z-2.251 I-0.162 J0
X-72.838 Y-12 Z-2.501 I0.162 J0
X-73.162 Y-12 Z-2.751 I-0.162 J0
X-72.838 Y-12 Z-3.001 I0.162 J0
X-73.162 Y-12 Z-3.251 I-0.162 J0
X-72.838 Y-12 Z-3.501 I0.162 J0
X-73.162 Y-12 I-0.162 J0
X-72.838 Y-12 I0.162 J0
G1 X-72.844 Y-11.969
X-72.861 Y-11.943
X-72.888 Y-11.925
X-72.919 Y-11.919
X-73.077
G0 Z5
X-113.077 Y-12.081
Z1.683
G1 Z0.001 F1000
X-112.919
X-112.888 Y-12.075
X-112.861 Y-12.057
X-112.844 Y-12.031
X-112.838 Y-12
G3 X-113.162 Y-12 Z-0.249 I-0.162 J0
X-112.838 Y-12 Z-0.499 I0.162 J0
X-113.162 Y-12 Z-0.749 I-0.162 J0
X-112.838 Y-12 Z-0.999 I0.162 J0
X-113.162 Y-12 Z-1.249 I-0.162 J0
X-112.838 Y-12 Z-1.499 I0.162 J0
X-113.162 Y-12 Z-1.749 I-0.162 J0
X-112.838 Y-12 Z-1.999 I0.162 J0
X-113.162 Y-12 Z-2.249 I-0.162 J0
X-112.838 Y-12 Z-2.499 I0.162 J0
X-113.162 Y-12 Z-2.749 I-0.162 J0
X-112.838 Y-12 Z-2.999 I0.162 J0
X-113.162 Y-12 Z-3.249 I-0.162 J0
X-112.838 Y-12 Z-3.499 I0.162 J0
X-113.162 Y-12 I-0.162 J0
X-112.838 Y-12 I0.162 J0
G1 X-112.844 Y-11.969
X-112.861 Y-11.943
X-112.888 Y-11.925
X-112.919 Y-11.919
X-113.077
G0 Z5
X-120.052 Y-18.106
Z1.683
G1 Z0.001 F1000
X-119.894
X-119.861 Y-18.101
X-119.831 Y-18.086
X-119.808 Y-18.062
X-119.793 Y-18.033
X-119.787 Y-18
G3 X-120.213 Y-18 Z-0.249 I-0.213 J0
X-119.787 Y-18 Z-0.499 I0.213 J0
X-120.213 Y-18 Z-0.749 I-0.213 J0
X-119.787 Y-18 Z-0.999 I0.213 J0
X-120.213 Y-18 Z-1.249 I-0.213 J0
X-119.787 Y-18 Z-1.499 I0.213 J0
X-120.213 Y-18 Z-1.749 I-0.213 J0
X-119.787 Y-18 Z-1.999 I0.213 J0
X-120.213 Y-18 Z-2.249 I-0.213 J0
X-119.787 Y-18 Z-2.499 I0.213 J0
X-120.213 Y-18 Z-2.749 I-0.213 J0
X-119.787 Y-18 Z-2.999 I0.213 J0
X-120.213 Y-18 Z-3.249 I-0.213 J0
X-119.787 Y-18 Z-3.499 I0.213 J0
X-120.213 Y-18 I-0.213 J0
X-119.787 Y-18 I0.213 J0
G1 X-119.793 Y-17.967
X-119.808 Y-17.938
X-119.831 Y-17.914
X-119.861 Y-17.899
X-119.894 Y-17.894
X-120.052
G0 Z5
X-152.053 Y-18.106
Z1.683
G1 Z0.001 F1000
X-151.894
X-151.861 Y-18.101
X-151.831 Y-18.086
X-151.808 Y-18.062
X-151.793 Y-18.033
X-151.788 Y-18
G3 X-152.212 Y-18 Z-0.249 I-0.212 J0
X-151.788 Y-18 Z-0.499 I0.212 J0
X-152.212 Y-18 Z-0.749 I-0.212 J0
X-151.788 Y-18 Z-0.999 I0.212 J0
X-152.212 Y-18 Z-1.249 I-0.212 J0
X-151.788 Y-18 Z-1.499 I0.212 J0
X-152.212 Y-18 Z-1.749 I-0.212 J0
X-151.788 Y-18 Z-1.999 I0.212 J0
X-152.212 Y-18 Z-2.249 I-0.212 J0
X-151.788 Y-18 Z-2.499 I0.212 J0
X-152.212 Y-18 Z-2.749 I-0.212 J0
X-151.788 Y-18 Z-2.999 I0.212 J0
X-152.212 Y-18 Z-3.249 I-0.212 J0
X-151.788 Y-18 Z-3.499 I0.212 J0
X-152.212 Y-18 I-0.212 J0
X-151.788 Y-18 I0.212 J0
G1 X-151.793 Y-17.967
X-151.808 Y-17.938
X-151.831 Y-17.914
X-151.861 Y-17.899
X-151.894 Y-17.894
X-152.053
G0 Z5
X-159.077 Y-12.081
Z1.683
G1 Z0.001 F1000
X-158.919
X-158.888 Y-12.075
X-158.861 Y-12.057
X-158.844 Y-12.031
X-158.837 Y-12
G3 X-159.163 Y-12 Z-0.249 I-0.163 J0
X-158.837 Y-12 Z-0.499 I0.163 J0
X-159.163 Y-12 Z-0.749 I-0.163 J0
X-158.837 Y-12 Z-0.999 I0.163 J0
X-159.163 Y-12 Z-1.249 I-0.163 J0
X-158.837 Y-12 Z-1.499 I0.163 J0
X-159.163 Y-12 Z-1.749 I-0.163 J0
X-158.837 Y-12 Z-1.999 I0.163 J0
X-159.163 Y-12 Z-2.249 I-0.163 J0
X-158.837 Y-12 Z-2.499 I0.163 J0
X-159.163 Y-12 Z-2.749 I-0.163 J0
X-158.837 Y-12 Z-2.999 I0.163 J0
X-159.163 Y-12 Z-3.249 I-0.163 J0
X-158.837 Y-12 Z-3.499 I0.163 J0
X-159.163 Y-12 I-0.163 J0
X-158.837 Y-12 I0.163 J0
G1 X-158.844 Y-11.969
X-158.861 Y-11.943
X-158.888 Y-11.925
X-158.919 Y-11.919
X-159.077
G0 Z5
X-203.077 Y-12.081
Z1.683
G1 Z0.001 F1000
X-202.919
X-202.888 Y-12.075
X-202.861 Y-12.057
X-202.844 Y-12.031
X-202.837 Y-12
G3 X-203.163 Y-12 Z-0.249 I-0.163 J0
X-202.837 Y-12 Z-0.499 I0.163 J0
X-203.163 Y-12 Z-0.749 I-0.163 J0
X-202.837 Y-12 Z-0.999 I0.163 J0
X-203.163 Y-12 Z-1.249 I-0.163 J0
X-202.837 Y-12 Z-1.499 I0.163 J0
X-203.163 Y-12 Z-1.749 I-0.163 J0
X-202.837 Y-12 Z-1.999 I0.163 J0
X-203.163 Y-12 Z-2.249 I-0.163 J0
X-202.837 Y-12 Z-2.499 I0.163 J0
X-203.163 Y-12 Z-2.749 I-0.163 J0
X-202.837 Y-12 Z-2.999 I0.163 J0
X-203.163 Y-12 Z-3.249 I-0.163 J0
X-202.837 Y-12 Z-3.499 I0.163 J0
X-203.163 Y-12 I-0.163 J0
X-202.837 Y-12 I0.163 J0
G1 X-202.844 Y-11.969
X-202.861 Y-11.943
X-202.888 Y-11.925
X-202.919 Y-11.919
X-203.077
G0 Z5
X-204.131 Y-18.317
Z2.001
G1 Z0.318 F1000
G18 G2 X-203.814 Z0.001 I0.318 K0
G1 X-203.655
G17 G3 X-203.337 Y-18 I0 J0.317
X-204.663 Y-18 Z-0.249 I-0.663 J0
X-203.337 Y-18 Z-0.499 I0.663 J0
X-204.663 Y-18 Z-0.749 I-0.663 J0
X-203.337 Y-18 Z-0.999 I0.663 J0
X-204.663 Y-18 Z-1.249 I-0.663 J0
X-203.337 Y-18 Z-1.499 I0.663 J0
X-204.663 Y-18 Z-1.749 I-0.663 J0
X-203.337 Y-18 Z-1.999 I0.663 J0
X-204.663 Y-18 Z-2.249 I-0.663 J0
X-203.337 Y-18 Z-2.499 I0.663 J0
X-204.663 Y-18 Z-2.749 I-0.663 J0
X-203.337 Y-18 Z-2.999 I0.663 J0
X-204.663 Y-18 Z-3.249 I-0.663 J0
X-203.337 Y-18 Z-3.499 I0.663 J0
X-204.663 Y-18 I-0.663 J0
X-203.337 Y-18 I0.663 J0
X-203.655 Y-17.683 I-0.318 J0
G1 X-203.814
G18 G3 X-204.131 Z-3.182 I0 K0.317
G0 Z5
Y-28.317
Z2.001
G1 Z0.318 F1000
G2 X-203.814 Z0.001 I0.318 K0
G1 X-203.655
G17 G3 X-203.337 Y-28 I0 J0.317
X-204.663 Y-28 Z-0.249 I-0.663 J0
X-203.337 Y-28 Z-0.499 I0.663 J0
X-204.663 Y-28 Z-0.749 I-0.663 J0
X-203.337 Y-28 Z-0.999 I0.663 J0
X-204.663 Y-28 Z-1.249 I-0.663 J0
X-203.337 Y-28 Z-1.499 I0.663 J0
X-204.663 Y-28 Z-1.749 I-0.663 J0
X-203.337 Y-28 Z-1.999 I0.663 J0
X-204.663 Y-28 Z-2.249 I-0.663 J0
X-203.337 Y-28 Z-2.499 I0.663 J0
X-204.663 Y-28 Z-2.749 I-0.663 J0
X-203.337 Y-28 Z-2.999 I0.663 J0
X-204.663 Y-28 Z-3.249 I-0.663 J0
X-203.337 Y-28 Z-3.499 I0.663 J0
X-204.663 Y-28 I-0.663 J0
X-203.337 Y-28 I0.663 J0
X-203.655 Y-27.683 I-0.318 J0
G1 X-203.814
G18 G3 X-204.131 Z-3.182 I0 K0.317
G0 Z5
Y-38.318
Z2.001
G1 Z0.318 F1000
G2 X-203.814 Z0.001 I0.318 K0
G1 X-203.655
G17 G3 X-203.337 Y-38 I0 J0.318
X-204.663 Y-38 Z-0.249 I-0.663 J0
X-203.337 Y-38 Z-0.499 I0.663 J0
X-204.663 Y-38 Z-0.749 I-0.663 J0
X-203.337 Y-38 Z-0.999 I0.663 J0
X-204.663 Y-38 Z-1.249 I-0.663 J0
X-203.337 Y-38 Z-1.499 I0.663 J0
X-204.663 Y-38 Z-1.749 I-0.663 J0
X-203.337 Y-38 Z-1.999 I0.663 J0
X-204.663 Y-38 Z-2.249 I-0.663 J0
X-203.337 Y-38 Z-2.499 I0.663 J0
X-204.663 Y-38 Z-2.749 I-0.663 J0
X-203.337 Y-38 Z-2.999 I0.663 J0
X-204.663 Y-38 Z-3.249 I-0.663 J0
X-203.337 Y-38 Z-3.499 I0.663 J0
X-204.663 Y-38 I-0.663 J0
X-203.337 Y-38 I0.663 J0
X-203.655 Y-37.682 I-0.318 J0
G1 X-203.814
G18 G3 X-204.131 Z-3.182 I0 K0.317
G0 Z5
X-214.131 Y-38.318
Z2.001
G1 Z0.318 F1000
G2 X-213.814 Z0.001 I0.318 K0
G1 X-213.655
G17 G3 X-213.337 Y-38 I0 J0.318
X-214.663 Y-38 Z-0.249 I-0.663 J0
X-213.337 Y-38 Z-0.499 I0.663 J0
X-214.663 Y-38 Z-0.749 I-0.663 J0
X-213.337 Y-38 Z-0.999 I0.663 J0
X-214.663 Y-38 Z-1.249 I-0.663 J0
X-213.337 Y-38 Z-1.499 I0.663 J0
X-214.663 Y-38 Z-1.749 I-0.663 J0
X-213.337 Y-38 Z-1.999 I0.663 J0
X-214.663 Y-38 Z-2.249 I-0.663 J0
X-213.337 Y-38 Z-2.499 I0.663 J0
X-214.663 Y-38 Z-2.749 I-0.663 J0
X-213.337 Y-38 Z-2.999 I0.663 J0
X-214.663 Y-38 Z-3.249 I-0.663 J0
X-213.337 Y-38 Z-3.499 I0.663 J0
X-214.663 Y-38 I-0.663 J0
X-213.337 Y-38 I0.663 J0
X-213.655 Y-37.682 I-0.318 J0
G1 X-213.814
G18 G3 X-214.131 Z-3.182 I0 K0.317
G0 Z5
Y-48.318
Z2.001
G1 Z0.318 F1000
G2 X-213.814 Z0.001 I0.318 K0
G1 X-213.655
G17 G3 X-213.337 Y-48 I0 J0.318
X-214.663 Y-48 Z-0.249 I-0.663 J0
X-213.337 Y-48 Z-0.499 I0.663 J0
X-214.663 Y-48 Z-0.749 I-0.663 J0
X-213.337 Y-48 Z-0.999 I0.663 J0
X-214.663 Y-48 Z-1.249 I-0.663 J0
X-213.337 Y-48 Z-1.499 I0.663 J0
X-214.663 Y-48 Z-1.749 I-0.663 J0
X-213.337 Y-48 Z-1.999 I0.663 J0
X-214.663 Y-48 Z-2.249 I-0.663 J0
X-213.337 Y-48 Z-2.499 I0.663 J0
X-214.663 Y-48 Z-2.749 I-0.663 J0
X-213.337 Y-48 Z-2.999 I0.663 J0
X-214.663 Y-48 Z-3.249 I-0.663 J0
X-213.337 Y-48 Z-3.499 I0.663 J0
X-214.663 Y-48 I-0.663 J0
X-213.337 Y-48 I0.663 J0
X-213.655 Y-47.682 I-0.318 J0
G1 X-213.814
G18 G3 X-214.131 Z-3.182 I0 K0.317
G0 Z5
X-204.131 Y-48.318
Z2.001
G1 Z0.318 F1000
G2 X-203.814 Z0.001 I0.318 K0
G1 X-203.655
G17 G3 X-203.337 Y-48 I0 J0.318
X-204.663 Y-48 Z-0.249 I-0.663 J0
X-203.337 Y-48 Z-0.499 I0.663 J0
X-204.663 Y-48 Z-0.749 I-0.663 J0
X-203.337 Y-48 Z-0.999 I0.663 J0
X-204.663 Y-48 Z-1.249 I-0.663 J0
X-203.337 Y-48 Z-1.499 I0.663 J0
X-204.663 Y-48 Z-1.749 I-0.663 J0
X-203.337 Y-48 Z-1.999 I0.663 J0
X-204.663 Y-48 Z-2.249 I-0.663 J0
X-203.337 Y-48 Z-2.499 I0.663 J0
X-204.663 Y-48 Z-2.749 I-0.663 J0
X-203.337 Y-48 Z-2.999 I0.663 J0
X-204.663 Y-48 Z-3.249 I-0.663 J0
X-203.337 Y-48 Z-3.499 I0.663 J0
X-204.663 Y-48 I-0.663 J0
X-203.337 Y-48 I0.663 J0
X-203.655 Y-47.682 I-0.318 J0
G1 X-203.814
G18 G3 X-204.131 Z-3.182 I0 K0.317
G0 Z5
X-214.131 Y-58.318
Z2.001
G1 Z0.318 F1000
G2 X-213.814 Z0.001 I0.318 K0
G1 X-213.655
G17 G3 X-213.337 Y-58 I0 J0.318
X-214.663 Y-58 Z-0.249 I-0.663 J0
X-213.337 Y-58 Z-0.499 I0.663 J0
X-214.663 Y-58 Z-0.749 I-0.663 J0
X-213.337 Y-58 Z-0.999 I0.663 J0
X-214.663 Y-58 Z-1.249 I-0.663 J0
X-213.337 Y-58 Z-1.499 I0.663 J0
X-214.663 Y-58 Z-1.749 I-0.663 J0
X-213.337 Y-58 Z-1.999 I0.663 J0
X-214.663 Y-58 Z-2.249 I-0.663 J0
X-213.337 Y-58 Z-2.499 I0.663 J0
X-214.663 Y-58 Z-2.749 I-0.663 J0
X-213.337 Y-58 Z-2.999 I0.663 J0
X-214.663 Y-58 Z-3.249 I-0.663 J0
X-213.337 Y-58 Z-3.499 I0.663 J0
X-214.663 Y-58 I-0.663 J0
X-213.337 Y-58 I0.663 J0
X-213.655 Y-57.682 I-0.318 J0
G1 X-213.814
G18 G3 X-214.131 Z-3.182 I0 K0.317
G0 Z5
X-204.131 Y-58.318
Z2.001
G1 Z0.318 F1000
G2 X-203.814 Z0.001 I0.318 K0
G1 X-203.655
G17 G3 X-203.337 Y-58 I0 J0.318
X-204.663 Y-58 Z-0.249 I-0.663 J0
X-203.337 Y-58 Z-0.499 I0.663 J0
X-204.663 Y-58 Z-0.749 I-0.663 J0
X-203.337 Y-58 Z-0.999 I0.663 J0
X-204.663 Y-58 Z-1.249 I-0.663 J0
X-203.337 Y-58 Z-1.499 I0.663 J0
X-204.663 Y-58 Z-1.749 I-0.663 J0
X-203.337 Y-58 Z-1.999 I0.663 J0
X-204.663 Y-58 Z-2.249 I-0.663 J0
X-203.337 Y-58 Z-2.499 I0.663 J0
X-204.663 Y-58 Z-2.749 I-0.663 J0
X-203.337 Y-58 Z-2.999 I0.663 J0
X-204.663 Y-58 Z-3.249 I-0.663 J0
X-203.337 Y-58 Z-3.499 I0.663 J0
X-204.663 Y-58 I-0.663 J0
X-203.337 Y-58 I0.663 J0
X-203.655 Y-57.682 I-0.318 J0
G1 X-203.814
G18 G3 X-204.131 Z-3.182 I0 K0.317
G0 Z5
X-193.077 Y-57.564
Z1.683
G1 Z0.001 F1000
X-192.919
X-192.888 Y-57.558
X-192.861 Y-57.541
X-192.844 Y-57.514
X-192.837 Y-57.483
G17 G3 X-193.163 Y-57.483 Z-0.249 I-0.163 J0
X-192.837 Y-57.483 Z-0.499 I0.163 J0
X-193.163 Y-57.483 Z-0.749 I-0.163 J0
X-192.837 Y-57.483 Z-0.999 I0.163 J0
X-193.163 Y-57.483 Z-1.249 I-0.163 J0
X-192.837 Y-57.483 Z-1.499 I0.163 J0
X-193.163 Y-57.483 Z-1.749 I-0.163 J0
X-192.837 Y-57.483 Z-1.999 I0.163 J0
X-193.163 Y-57.483 Z-2.249 I-0.163 J0
X-192.837 Y-57.483 Z-2.499 I0.163 J0
X-193.163 Y-57.483 Z-2.749 I-0.163 J0
X-192.837 Y-57.483 Z-2.999 I0.163 J0
X-193.163 Y-57.483 Z-3.249 I-0.163 J0
X-192.837 Y-57.483 Z-3.499 I0.163 J0
X-193.163 Y-57.483 I-0.163 J0
X-192.837 Y-57.483 I0.163 J0
G1 X-192.844 Y-57.452
X-192.861 Y-57.426
X-192.888 Y-57.408
X-192.919 Y-57.402
X-193.077
G0 Z5
X-169.077 Y-57.564
Z1.683
G1 Z0.001 F1000
X-168.919
X-168.888 Y-57.558
X-168.861 Y-57.541
X-168.844 Y-57.514
X-168.837 Y-57.483
G3 X-169.163 Y-57.483 Z-0.249 I-0.163 J0
X-168.837 Y-57.483 Z-0.499 I0.163 J0
X-169.163 Y-57.483 Z-0.749 I-0.163 J0
X-168.837 Y-57.483 Z-0.999 I0.163 J0
X-169.163 Y-57.483 Z-1.249 I-0.163 J0
X-168.837 Y-57.483 Z-1.499 I0.163 J0
X-169.163 Y-57.483 Z-1.749 I-0.163 J0
X-168.837 Y-57.483 Z-1.999 I0.163 J0
X-169.163 Y-57.483 Z-2.249 I-0.163 J0
X-168.837 Y-57.483 Z-2.499 I0.163 J0
X-169.163 Y-57.483 Z-2.749 I-0.163 J0
X-168.837 Y-57.483 Z-2.999 I0.163 J0
X-169.163 Y-57.483 Z-3.249 I-0.163 J0
X-168.837 Y-57.483 Z-3.499 I0.163 J0
X-169.163 Y-57.483 I-0.163 J0
X-168.837 Y-57.483 I0.163 J0
G1 X-168.844 Y-57.452
X-168.861 Y-57.426
X-168.888 Y-57.408
X-168.919 Y-57.402
X-169.077
G0 Z5
X-171.077 Y-74.652
Z1.683
G1 Z0.001 F1000
X-170.919
X-170.888 Y-74.646
X-170.861 Y-74.628
X-170.844 Y-74.602
X-170.837 Y-74.571
G3 X-171.163 Y-74.571 Z-0.249 I-0.163 J0
X-170.837 Y-74.571 Z-0.499 I0.163 J0
X-171.163 Y-74.571 Z-0.749 I-0.163 J0
X-170.837 Y-74.571 Z-0.999 I0.163 J0
X-171.163 Y-74.571 Z-1.249 I-0.163 J0
X-170.837 Y-74.571 Z-1.499 I0.163 J0
X-171.163 Y-74.571 Z-1.749 I-0.163 J0
X-170.837 Y-74.571 Z-1.999 I0.163 J0
X-171.163 Y-74.571 Z-2.249 I-0.163 J0
X-170.837 Y-74.571 Z-2.499 I0.163 J0
X-171.163 Y-74.571 Z-2.749 I-0.163 J0
X-170.837 Y-74.571 Z-2.999 I0.163 J0
X-171.163 Y-74.571 Z-3.249 I-0.163 J0
X-170.837 Y-74.571 Z-3.499 I0.163 J0
X-171.163 Y-74.571 I-0.163 J0
X-170.837 Y-74.571 I0.163 J0
G1 X-170.844 Y-74.54
X-170.861 Y-74.514
X-170.888 Y-74.496
X-170.919 Y-74.49
X-171.077
G0 Z5
X-151.327 Y-69.831
Z1.683
G1 Z0.001 F1000
X-151.169
X-151.138 Y-69.825
X-151.111 Y-69.807
X-151.094 Y-69.781
X-151.087 Y-69.75
G3 X-151.413 Y-69.75 Z-0.249 I-0.163 J0
X-151.087 Y-69.75 Z-0.499 I0.163 J0
X-151.413 Y-69.75 Z-0.749 I-0.163 J0
X-151.087 Y-69.75 Z-0.999 I0.163 J0
X-151.413 Y-69.75 Z-1.249 I-0.163 J0
X-151.087 Y-69.75 Z-1.499 I0.163 J0
X-151.413 Y-69.75 Z-1.749 I-0.163 J0
X-151.087 Y-69.75 Z-1.999 I0.163 J0
X-151.413 Y-69.75 Z-2.249 I-0.163 J0
X-151.087 Y-69.75 Z-2.499 I0.163 J0
X-151.413 Y-69.75 Z-2.749 I-0.163 J0
X-151.087 Y-69.75 Z-2.999 I0.163 J0
X-151.413 Y-69.75 Z-3.249 I-0.163 J0
X-151.087 Y-69.75 Z-3.499 I0.163 J0
X-151.413 Y-69.75 I-0.163 J0
X-151.087 Y-69.75 I0.163 J0
G1 X-151.094 Y-69.719
X-151.111 Y-69.693
X-151.138 Y-69.675
X-151.169 Y-69.669
X-151.327
G0 Z5
X-151.661 Y-88.759
Z1.683
G1 Z0.001 F1000
X-151.502
X-151.471 Y-88.753
X-151.445 Y-88.735
X-151.427 Y-88.709
X-151.421 Y-88.678
G3 X-151.746 Y-88.678 Z-0.249 I-0.162 J0
X-151.421 Y-88.678 Z-0.499 I0.162 J0
X-151.746 Y-88.678 Z-0.749 I-0.162 J0
X-151.421 Y-88.678 Z-0.999 I0.162 J0
X-151.746 Y-88.678 Z-1.249 I-0.162 J0
X-151.421 Y-88.678 Z-1.499 I0.162 J0
X-151.746 Y-88.678 Z-1.749 I-0.162 J0
X-151.421 Y-88.678 Z-1.999 I0.162 J0
X-151.746 Y-88.678 Z-2.249 I-0.162 J0
X-151.421 Y-88.678 Z-2.499 I0.162 J0
X-151.746 Y-88.678 Z-2.749 I-0.162 J0
X-151.421 Y-88.678 Z-2.999 I0.162 J0
X-151.746 Y-88.678 Z-3.249 I-0.162 J0
X-151.421 Y-88.678 Z-3.499 I0.162 J0
X-151.746 Y-88.678 I-0.162 J0
X-151.421 Y-88.678 I0.162 J0
G1 X-151.427 Y-88.647
X-151.445 Y-88.62
X-151.471 Y-88.603
X-151.502 Y-88.597
X-151.661
G0 Z5
X-151.327 Y-100.331
Z1.683
G1 Z0.001 F1000
X-151.169
X-151.138 Y-100.325
X-151.111 Y-100.307
X-151.094 Y-100.281
X-151.087 Y-100.25
G3 X-151.413 Y-100.25 Z-0.249 I-0.163 J0
X-151.087 Y-100.25 Z-0.499 I0.163 J0
X-151.413 Y-100.25 Z-0.749 I-0.163 J0
X-151.087 Y-100.25 Z-0.999 I0.163 J0
X-151.413 Y-100.25 Z-1.249 I-0.163 J0
X-151.087 Y-100.25 Z-1.499 I0.163 J0
X-151.413 Y-100.25 Z-1.749 I-0.163 J0
X-151.087 Y-100.25 Z-1.999 I0.163 J0
X-151.413 Y-100.25 Z-2.249 I-0.163 J0
X-151.087 Y-100.25 Z-2.499 I0.163 J0
X-151.413 Y-100.25 Z-2.749 I-0.163 J0
X-151.087 Y-100.25 Z-2.999 I0.163 J0
X-151.413 Y-100.25 Z-3.249 I-0.163 J0
X-151.087 Y-100.25 Z-3.499 I0.163 J0
X-151.413 Y-100.25 I-0.163 J0
X-151.087 Y-100.25 I0.163 J0
G1 X-151.094 Y-100.219
X-151.111 Y-100.193
X-151.138 Y-100.175
X-151.169 Y-100.169
X-151.327
G0 Z5
X-151.661 Y-111.403
Z1.683
G1 Z0.001 F1000
X-151.502
X-151.471 Y-111.397
X-151.445 Y-111.38
X-151.427 Y-111.353
X-151.421 Y-111.322
G3 X-151.746 Y-111.322 Z-0.249 I-0.162 J0
X-151.421 Y-111.322 Z-0.499 I0.162 J0
X-151.746 Y-111.322 Z-0.749 I-0.162 J0
X-151.421 Y-111.322 Z-0.999 I0.162 J0
X-151.746 Y-111.322 Z-1.249 I-0.162 J0
X-151.421 Y-111.322 Z-1.499 I0.162 J0
X-151.746 Y-111.322 Z-1.749 I-0.162 J0
X-151.421 Y-111.322 Z-1.999 I0.162 J0
X-151.746 Y-111.322 Z-2.249 I-0.162 J0
X-151.421 Y-111.322 Z-2.499 I0.162 J0
X-151.746 Y-111.322 Z-2.749 I-0.162 J0
X-151.421 Y-111.322 Z-2.999 I0.162 J0
X-151.746 Y-111.322 Z-3.249 I-0.162 J0
X-151.421 Y-111.322 Z-3.499 I0.162 J0
X-151.746 Y-111.322 I-0.162 J0
X-151.421 Y-111.322 I0.162 J0
G1 X-151.427 Y-111.291
X-151.445 Y-111.265
X-151.471 Y-111.247
X-151.502 Y-111.241
X-151.661
G0 Z5
X-171.077 Y-125.51
Z1.683
G1 Z0.001 F1000
X-170.919
X-170.888 Y-125.504
X-170.861 Y-125.486
X-170.844 Y-125.46
X-170.837 Y-125.429
G3 X-171.163 Y-125.429 Z-0.249 I-0.163 J0
X-170.837 Y-125.429 Z-0.499 I0.163 J0
X-171.163 Y-125.429 Z-0.749 I-0.163 J0
X-170.837 Y-125.429 Z-0.999 I0.163 J0
X-171.163 Y-125.429 Z-1.249 I-0.163 J0
X-170.837 Y-125.429 Z-1.499 I0.163 J0
X-171.163 Y-125.429 Z-1.749 I-0.163 J0
X-170.837 Y-125.429 Z-1.999 I0.163 J0
X-171.163 Y-125.429 Z-2.249 I-0.163 J0
X-170.837 Y-125.429 Z-2.499 I0.163 J0
X-171.163 Y-125.429 Z-2.749 I-0.163 J0
X-170.837 Y-125.429 Z-2.999 I0.163 J0
X-171.163 Y-125.429 Z-3.249 I-0.163 J0
X-170.837 Y-125.429 Z-3.499 I0.163 J0
X-171.163 Y-125.429 I-0.163 J0
X-170.837 Y-125.429 I0.163 J0
G1 X-170.844 Y-125.398
X-170.861 Y-125.372
X-170.888 Y-125.354
X-170.919 Y-125.348
X-171.077
G0 Z5
X-169.077 Y-142.598
Z1.683
G1 Z0.001 F1000
X-168.919
X-168.888 Y-142.592
X-168.861 Y-142.574
X-168.844 Y-142.548
X-168.837 Y-142.517
G3 X-169.163 Y-142.517 Z-0.249 I-0.163 J0
X-168.837 Y-142.517 Z-0.499 I0.163 J0
X-169.163 Y-142.517 Z-0.749 I-0.163 J0
X-168.837 Y-142.517 Z-0.999 I0.163 J0
X-169.163 Y-142.517 Z-1.249 I-0.163 J0
X-168.837 Y-142.517 Z-1.499 I0.163 J0
X-169.163 Y-142.517 Z-1.749 I-0.163 J0
X-168.837 Y-142.517 Z-1.999 I0.163 J0
X-169.163 Y-142.517 Z-2.249 I-0.163 J0
X-168.837 Y-142.517 Z-2.499 I0.163 J0
X-169.163 Y-142.517 Z-2.749 I-0.163 J0
X-168.837 Y-142.517 Z-2.999 I0.163 J0
X-169.163 Y-142.517 Z-3.249 I-0.163 J0
X-168.837 Y-142.517 Z-3.499 I0.163 J0
X-169.163 Y-142.517 I-0.163 J0
X-168.837 Y-142.517 I0.163 J0
G1 X-168.844 Y-142.486
X-168.861 Y-142.459
X-168.888 Y-142.442
X-168.919 Y-142.436
X-169.077
G0 Z5
X-193.077 Y-142.598
Z1.683
G1 Z0.001 F1000
X-192.919
X-192.888 Y-142.592
X-192.861 Y-142.574
X-192.844 Y-142.548
X-192.837 Y-142.517
G3 X-193.163 Y-142.517 Z-0.249 I-0.163 J0
X-192.837 Y-142.517 Z-0.499 I0.163 J0
X-193.163 Y-142.517 Z-0.749 I-0.163 J0
X-192.837 Y-142.517 Z-0.999 I0.163 J0
X-193.163 Y-142.517 Z-1.249 I-0.163 J0
X-192.837 Y-142.517 Z-1.499 I0.163 J0
X-193.163 Y-142.517 Z-1.749 I-0.163 J0
X-192.837 Y-142.517 Z-1.999 I0.163 J0
X-193.163 Y-142.517 Z-2.249 I-0.163 J0
X-192.837 Y-142.517 Z-2.499 I0.163 J0
X-193.163 Y-142.517 Z-2.749 I-0.163 J0
X-192.837 Y-142.517 Z-2.999 I0.163 J0
X-193.163 Y-142.517 Z-3.249 I-0.163 J0
X-192.837 Y-142.517 Z-3.499 I0.163 J0
X-193.163 Y-142.517 I-0.163 J0
X-192.837 Y-142.517 I0.163 J0
G1 X-192.844 Y-142.486
X-192.861 Y-142.459
X-192.888 Y-142.442
X-192.919 Y-142.436
X-193.077
G0 Z5
X-204.131 Y-108.317
Z2.001
G1 Z0.318 F1000
G18 G2 X-203.814 Z0.001 I0.318 K0
G1 X-203.655
G17 G3 X-203.337 Y-108 I0 J0.317
X-204.663 Y-108 Z-0.249 I-0.663 J0
X-203.337 Y-108 Z-0.499 I0.663 J0
X-204.663 Y-108 Z-0.749 I-0.663 J0
X-203.337 Y-108 Z-0.999 I0.663 J0
X-204.663 Y-108 Z-1.249 I-0.663 J0
X-203.337 Y-108 Z-1.499 I0.663 J0
X-204.663 Y-108 Z-1.749 I-0.663 J0
X-203.337 Y-108 Z-1.999 I0.663 J0
X-204.663 Y-108 Z-2.249 I-0.663 J0
X-203.337 Y-108 Z-2.499 I0.663 J0
X-204.663 Y-108 Z-2.749 I-0.663 J0
X-203.337 Y-108 Z-2.999 I0.663 J0
X-204.663 Y-108 Z-3.249 I-0.663 J0
X-203.337 Y-108 Z-3.499 I0.663 J0
X-204.663 Y-108 I-0.663 J0
X-203.337 Y-108 I0.663 J0
X-203.655 Y-107.683 I-0.318 J0
G1 X-203.814
G18 G3 X-204.131 Z-3.182 I0 K0.317
G0 Z5
Y-114.984
Z2.001
G1 Z0.318 F1000
G2 X-203.814 Z0.001 I0.318 K0
G1 X-203.655
G17 G3 X-203.337 Y-114.667 I0 J0.318
X-204.663 Y-114.667 Z-0.249 I-0.663 J0
X-203.337 Y-114.667 Z-0.499 I0.663 J0
X-204.663 Y-114.667 Z-0.749 I-0.663 J0
X-203.337 Y-114.667 Z-0.999 I0.663 J0
X-204.663 Y-114.667 Z-1.249 I-0.663 J0
X-203.337 Y-114.667 Z-1.499 I0.663 J0
X-204.663 Y-114.667 Z-1.749 I-0.663 J0
X-203.337 Y-114.667 Z-1.999 I0.663 J0
X-204.663 Y-114.667 Z-2.249 I-0.663 J0
X-203.337 Y-114.667 Z-2.499 I0.663 J0
X-204.663 Y-114.667 Z-2.749 I-0.663 J0
X-203.337 Y-114.667 Z-2.999 I0.663 J0
X-204.663 Y-114.667 Z-3.249 I-0.663 J0
X-203.337 Y-114.667 Z-3.499 I0.663 J0
X-204.663 Y-114.667 I-0.663 J0
X-203.337 Y-114.667 I0.663 J0
X-203.655 Y-114.349 I-0.318 J0
G1 X-203.814
G18 G3 X-204.131 Z-3.182 I0 K0.317
G0 Z5
Y-121.651
Z2.001
G1 Z0.318 F1000
G2 X-203.814 Z0.001 I0.318 K0
G1 X-203.655
G17 G3 X-203.337 Y-121.333 I0 J0.317
X-204.663 Y-121.333 Z-0.249 I-0.663 J0
X-203.337 Y-121.333 Z-0.499 I0.663 J0
X-204.663 Y-121.333 Z-0.749 I-0.663 J0
X-203.337 Y-121.333 Z-0.999 I0.663 J0
X-204.663 Y-121.333 Z-1.249 I-0.663 J0
X-203.337 Y-121.333 Z-1.499 I0.663 J0
X-204.663 Y-121.333 Z-1.749 I-0.663 J0
X-203.337 Y-121.333 Z-1.999 I0.663 J0
X-204.663 Y-121.333 Z-2.249 I-0.663 J0
X-203.337 Y-121.333 Z-2.499 I0.663 J0
X-204.663 Y-121.333 Z-2.749 I-0.663 J0
X-203.337 Y-121.333 Z-2.999 I0.663 J0
X-204.663 Y-121.333 Z-3.249 I-0.663 J0
X-203.337 Y-121.333 Z-3.499 I0.663 J0
X-204.663 Y-121.333 I-0.663 J0
X-203.337 Y-121.333 I0.663 J0
X-203.655 Y-121.016 I-0.318 J0
G1 X-203.814
G18 G3 X-204.131 Z-3.182 I0 K0.317
G0 Z5
Y-128.318
Z2.001
G1 Z0.318 F1000
G2 X-203.814 Z0.001 I0.318 K0
G1 X-203.655
G17 G3 X-203.337 Y-128 I0 J0.318
X-204.663 Y-128 Z-0.249 I-0.663 J0
X-203.337 Y-128 Z-0.499 I0.663 J0
X-204.663 Y-128 Z-0.749 I-0.663 J0
X-203.337 Y-128 Z-0.999 I0.663 J0
X-204.663 Y-128 Z-1.249 I-0.663 J0
X-203.337 Y-128 Z-1.499 I0.663 J0
X-204.663 Y-128 Z-1.749 I-0.663 J0
X-203.337 Y-128 Z-1.999 I0.663 J0
X-204.663 Y-128 Z-2.249 I-0.663 J0
X-203.337 Y-128 Z-2.499 I0.663 J0
X-204.663 Y-128 Z-2.749 I-0.663 J0
X-203.337 Y-128 Z-2.999 I0.663 J0
X-204.663 Y-128 Z-3.249 I-0.663 J0
X-203.337 Y-128 Z-3.499 I0.663 J0
X-204.663 Y-128 I-0.663 J0
X-203.337 Y-128 I0.663 J0
X-203.655 Y-127.683 I-0.318 J0
G1 X-203.814
G18 G3 X-204.131 Z-3.182 I0 K0.317
G0 Z5
X-214.131 Y-128.318
Z2.001
G1 Z0.318 F1000
G2 X-213.814 Z0.001 I0.318 K0
G1 X-213.655
G17 G3 X-213.337 Y-128 I0 J0.318
X-214.663 Y-128 Z-0.249 I-0.663 J0
X-213.337 Y-128 Z-0.499 I0.663 J0
X-214.663 Y-128 Z-0.749 I-0.663 J0
X-213.337 Y-128 Z-0.999 I0.663 J0
X-214.663 Y-128 Z-1.249 I-0.663 J0
X-213.337 Y-128 Z-1.499 I0.663 J0
X-214.663 Y-128 Z-1.749 I-0.663 J0
X-213.337 Y-128 Z-1.999 I0.663 J0
X-214.663 Y-128 Z-2.249 I-0.663 J0
X-213.337 Y-128 Z-2.499 I0.663 J0
X-214.663 Y-128 Z-2.749 I-0.663 J0
X-213.337 Y-128 Z-2.999 I0.663 J0
X-214.663 Y-128 Z-3.249 I-0.663 J0
X-213.337 Y-128 Z-3.499 I0.663 J0
X-214.663 Y-128 I-0.663 J0
X-213.337 Y-128 I0.663 J0
X-213.655 Y-127.683 I-0.318 J0
G1 X-213.814
G18 G3 X-214.131 Z-3.182 I0 K0.317
G0 Z5
Y-121.651
Z2.001
G1 Z0.318 F1000
G2 X-213.814 Z0.001 I0.318 K0
G1 X-213.655
G17 G3 X-213.337 Y-121.333 I0 J0.317
X-214.663 Y-121.333 Z-0.249 I-0.663 J0
X-213.337 Y-121.333 Z-0.499 I0.663 J0
X-214.663 Y-121.333 Z-0.749 I-0.663 J0
X-213.337 Y-121.333 Z-0.999 I0.663 J0
X-214.663 Y-121.333 Z-1.249 I-0.663 J0
X-213.337 Y-121.333 Z-1.499 I0.663 J0
X-214.663 Y-121.333 Z-1.749 I-0.663 J0
X-213.337 Y-121.333 Z-1.999 I0.663 J0
X-214.663 Y-121.333 Z-2.249 I-0.663 J0
X-213.337 Y-121.333 Z-2.499 I0.663 J0
X-214.663 Y-121.333 Z-2.749 I-0.663 J0
X-213.337 Y-121.333 Z-2.999 I0.663 J0
X-214.663 Y-121.333 Z-3.249 I-0.663 J0
X-213.337 Y-121.333 Z-3.499 I0.663 J0
X-214.663 Y-121.333 I-0.663 J0
X-213.337 Y-121.333 I0.663 J0
X-213.655 Y-121.016 I-0.318 J0
G1 X-213.814
G18 G3 X-214.131 Z-3.182 I0 K0.317
G0 Z5
Y-114.984
Z2.001
G1 Z0.318 F1000
G2 X-213.814 Z0.001 I0.318 K0
G1 X-213.655
G17 G3 X-213.337 Y-114.667 I0 J0.318
X-214.663 Y-114.667 Z-0.249 I-0.663 J0
X-213.337 Y-114.667 Z-0.499 I0.663 J0
X-214.663 Y-114.667 Z-0.749 I-0.663 J0
X-213.337 Y-114.667 Z-0.999 I0.663 J0
X-214.663 Y-114.667 Z-1.249 I-0.663 J0
X-213.337 Y-114.667 Z-1.499 I0.663 J0
X-214.663 Y-114.667 Z-1.749 I-0.663 J0
X-213.337 Y-114.667 Z-1.999 I0.663 J0
X-214.663 Y-114.667 Z-2.249 I-0.663 J0
X-213.337 Y-114.667 Z-2.499 I0.663 J0
X-214.663 Y-114.667 Z-2.749 I-0.663 J0
X-213.337 Y-114.667 Z-2.999 I0.663 J0
X-214.663 Y-114.667 Z-3.249 I-0.663 J0
X-213.337 Y-114.667 Z-3.499 I0.663 J0
X-214.663 Y-114.667 I-0.663 J0
X-213.337 Y-114.667 I0.663 J0
X-213.655 Y-114.349 I-0.318 J0
G1 X-213.814
G18 G3 X-214.131 Z-3.182 I0 K0.317
G0 Z5
Y-108.317
Z2.001
G1 Z0.318 F1000
G2 X-213.814 Z0.001 I0.318 K0
G1 X-213.655
G17 G3 X-213.337 Y-108 I0 J0.317
X-214.663 Y-108 Z-0.249 I-0.663 J0
X-213.337 Y-108 Z-0.499 I0.663 J0
X-214.663 Y-108 Z-0.749 I-0.663 J0
X-213.337 Y-108 Z-0.999 I0.663 J0
X-214.663 Y-108 Z-1.249 I-0.663 J0
X-213.337 Y-108 Z-1.499 I0.663 J0
X-214.663 Y-108 Z-1.749 I-0.663 J0
X-213.337 Y-108 Z-1.999 I0.663 J0
X-214.663 Y-108 Z-2.249 I-0.663 J0
X-213.337 Y-108 Z-2.499 I0.663 J0
X-214.663 Y-108 Z-2.749 I-0.663 J0
X-213.337 Y-108 Z-2.999 I0.663 J0
X-214.663 Y-108 Z-3.249 I-0.663 J0
X-213.337 Y-108 Z-3.499 I0.663 J0
X-214.663 Y-108 I-0.663 J0
X-213.337 Y-108 I0.663 J0
X-213.655 Y-107.683 I-0.318 J0
G1 X-213.814
G18 G3 X-214.131 Z-3.182 I0 K0.317
G0 Z5
X-238.131 Y-128.318
Z2.001
G1 Z0.318 F1000
G2 X-237.814 Z0.001 I0.318 K0
G1 X-237.655
G17 G3 X-237.337 Y-128 I0 J0.318
X-238.663 Y-128 Z-0.249 I-0.663 J0
X-237.337 Y-128 Z-0.499 I0.663 J0
X-238.663 Y-128 Z-0.749 I-0.663 J0
X-237.337 Y-128 Z-0.999 I0.663 J0
X-238.663 Y-128 Z-1.249 I-0.663 J0
X-237.337 Y-128 Z-1.499 I0.663 J0
X-238.663 Y-128 Z-1.749 I-0.663 J0
X-237.337 Y-128 Z-1.999 I0.663 J0
X-238.663 Y-128 Z-2.249 I-0.663 J0
X-237.337 Y-128 Z-2.499 I0.663 J0
X-238.663 Y-128 Z-2.749 I-0.663 J0
X-237.337 Y-128 Z-2.999 I0.663 J0
X-238.663 Y-128 Z-3.249 I-0.663 J0
X-237.337 Y-128 Z-3.499 I0.663 J0
X-238.663 Y-128 I-0.663 J0
X-237.337 Y-128 I0.663 J0
X-237.655 Y-127.683 I-0.318 J0
G1 X-237.814
G18 G3 X-238.131 Z-3.182 I0 K0.317
G0 Z5
Y-121.651
Z2.001
G1 Z0.318 F1000
G2 X-237.814 Z0.001 I0.318 K0
G1 X-237.655
G17 G3 X-237.337 Y-121.333 I0 J0.317
X-238.663 Y-121.333 Z-0.249 I-0.663 J0
X-237.337 Y-121.333 Z-0.499 I0.663 J0
X-238.663 Y-121.333 Z-0.749 I-0.663 J0
X-237.337 Y-121.333 Z-0.999 I0.663 J0
X-238.663 Y-121.333 Z-1.249 I-0.663 J0
X-237.337 Y-121.333 Z-1.499 I0.663 J0
X-238.663 Y-121.333 Z-1.749 I-0.663 J0
X-237.337 Y-121.333 Z-1.999 I0.663 J0
X-238.663 Y-121.333 Z-2.249 I-0.663 J0
X-237.337 Y-121.333 Z-2.499 I0.663 J0
X-238.663 Y-121.333 Z-2.749 I-0.663 J0
X-237.337 Y-121.333 Z-2.999 I0.663 J0
X-238.663 Y-121.333 Z-3.249 I-0.663 J0
X-237.337 Y-121.333 Z-3.499 I0.663 J0
X-238.663 Y-121.333 I-0.663 J0
X-237.337 Y-121.333 I0.663 J0
X-237.655 Y-121.016 I-0.318 J0
G1 X-237.814
G18 G3 X-238.131 Z-3.182 I0 K0.317
G0 Z5
Y-114.984
Z2.001
G1 Z0.318 F1000
G2 X-237.814 Z0.001 I0.318 K0
G1 X-237.655
G17 G3 X-237.337 Y-114.667 I0 J0.318
X-238.663 Y-114.667 Z-0.249 I-0.663 J0
X-237.337 Y-114.667 Z-0.499 I0.663 J0
X-238.663 Y-114.667 Z-0.749 I-0.663 J0
X-237.337 Y-114.667 Z-0.999 I0.663 J0
X-238.663 Y-114.667 Z-1.249 I-0.663 J0
X-237.337 Y-114.667 Z-1.499 I0.663 J0
X-238.663 Y-114.667 Z-1.749 I-0.663 J0
X-237.337 Y-114.667 Z-1.999 I0.663 J0
X-238.663 Y-114.667 Z-2.249 I-0.663 J0
X-237.337 Y-114.667 Z-2.499 I0.663 J0
X-238.663 Y-114.667 Z-2.749 I-0.663 J0
X-237.337 Y-114.667 Z-2.999 I0.663 J0
X-238.663 Y-114.667 Z-3.249 I-0.663 J0
X-237.337 Y-114.667 Z-3.499 I0.663 J0
X-238.663 Y-114.667 I-0.663 J0
X-237.337 Y-114.667 I0.663 J0
X-237.655 Y-114.349 I-0.318 J0
G1 X-237.814
G18 G3 X-238.131 Z-3.182 I0 K0.317
G0 Z5
Y-108.317
Z2.001
G1 Z0.318 F1000
G2 X-237.814 Z0.001 I0.318 K0
G1 X-237.655
G17 G3 X-237.337 Y-108 I0 J0.317
X-238.663 Y-108 Z-0.249 I-0.663 J0
X-237.337 Y-108 Z-0.499 I0.663 J0
X-238.663 Y-108 Z-0.749 I-0.663 J0
X-237.337 Y-108 Z-0.999 I0.663 J0
X-238.663 Y-108 Z-1.249 I-0.663 J0
X-237.337 Y-108 Z-1.499 I0.663 J0
X-238.663 Y-108 Z-1.749 I-0.663 J0
X-237.337 Y-108 Z-1.999 I0.663 J0
X-238.663 Y-108 Z-2.249 I-0.663 J0
X-237.337 Y-108 Z-2.499 I0.663 J0
X-238.663 Y-108 Z-2.749 I-0.663 J0
X-237.337 Y-108 Z-2.999 I0.663 J0
X-238.663 Y-108 Z-3.249 I-0.663 J0
X-237.337 Y-108 Z-3.499 I0.663 J0
X-238.663 Y-108 I-0.663 J0
X-237.337 Y-108 I0.663 J0
X-237.655 Y-107.683 I-0.318 J0
G1 X-237.814
G18 G3 X-238.131 Z-3.182 I0 K0.317
G0 Z5
X-248.131 Y-108.317
Z2.001
G1 Z0.318 F1000
G2 X-247.814 Z0.001 I0.318 K0
G1 X-247.655
G17 G3 X-247.337 Y-108 I0 J0.317
X-248.663 Y-108 Z-0.249 I-0.663 J0
X-247.337 Y-108 Z-0.499 I0.663 J0
X-248.663 Y-108 Z-0.749 I-0.663 J0
X-247.337 Y-108 Z-0.999 I0.663 J0
X-248.663 Y-108 Z-1.249 I-0.663 J0
X-247.337 Y-108 Z-1.499 I0.663 J0
X-248.663 Y-108 Z-1.749 I-0.663 J0
X-247.337 Y-108 Z-1.999 I0.663 J0
X-248.663 Y-108 Z-2.249 I-0.663 J0
X-247.337 Y-108 Z-2.499 I0.663 J0
X-248.663 Y-108 Z-2.749 I-0.663 J0
X-247.337 Y-108 Z-2.999 I0.663 J0
X-248.663 Y-108 Z-3.249 I-0.663 J0
X-247.337 Y-108 Z-3.499 I0.663 J0
X-248.663 Y-108 I-0.663 J0
X-247.337 Y-108 I0.663 J0
X-247.655 Y-107.683 I-0.318 J0
G1 X-247.814
G18 G3 X-248.131 Z-3.182 I0 K0.317
G0 Z5
Y-114.984
Z2.001
G1 Z0.318 F1000
G2 X-247.814 Z0.001 I0.318 K0
G1 X-247.655
G17 G3 X-247.337 Y-114.667 I0 J0.318
X-248.663 Y-114.667 Z-0.249 I-0.663 J0
X-247.337 Y-114.667 Z-0.499 I0.663 J0
X-248.663 Y-114.667 Z-0.749 I-0.663 J0
X-247.337 Y-114.667 Z-0.999 I0.663 J0
X-248.663 Y-114.667 Z-1.249 I-0.663 J0
X-247.337 Y-114.667 Z-1.499 I0.663 J0
X-248.663 Y-114.667 Z-1.749 I-0.663 J0
X-247.337 Y-114.667 Z-1.999 I0.663 J0
X-248.663 Y-114.667 Z-2.249 I-0.663 J0
X-247.337 Y-114.667 Z-2.499 I0.663 J0
X-248.663 Y-114.667 Z-2.749 I-0.663 J0
X-247.337 Y-114.667 Z-2.999 I0.663 J0
X-248.663 Y-114.667 Z-3.249 I-0.663 J0
X-247.337 Y-114.667 Z-3.499 I0.663 J0
X-248.663 Y-114.667 I-0.663 J0
X-247.337 Y-114.667 I0.663 J0
X-247.655 Y-114.349 I-0.318 J0
G1 X-247.814
G18 G3 X-248.131 Z-3.182 I0 K0.317
G0 Z5
Y-121.651
Z2.001
G1 Z0.318 F1000
G2 X-247.814 Z0.001 I0.318 K0
G1 X-247.655
G17 G3 X-247.337 Y-121.333 I0 J0.317
X-248.663 Y-121.333 Z-0.249 I-0.663 J0
X-247.337 Y-121.333 Z-0.499 I0.663 J0
X-248.663 Y-121.333 Z-0.749 I-0.663 J0
X-247.337 Y-121.333 Z-0.999 I0.663 J0
X-248.663 Y-121.333 Z-1.249 I-0.663 J0
X-247.337 Y-121.333 Z-1.499 I0.663 J0
X-248.663 Y-121.333 Z-1.749 I-0.663 J0
X-247.337 Y-121.333 Z-1.999 I0.663 J0
X-248.663 Y-121.333 Z-2.249 I-0.663 J0
X-247.337 Y-121.333 Z-2.499 I0.663 J0
X-248.663 Y-121.333 Z-2.749 I-0.663 J0
X-247.337 Y-121.333 Z-2.999 I0.663 J0
X-248.663 Y-121.333 Z-3.249 I-0.663 J0
X-247.337 Y-121.333 Z-3.499 I0.663 J0
X-248.663 Y-121.333 I-0.663 J0
X-247.337 Y-121.333 I0.663 J0
X-247.655 Y-121.016 I-0.318 J0
G1 X-247.814
G18 G3 X-248.131 Z-3.182 I0 K0.317
G0 Z5
Y-128.318
Z2.001
G1 Z0.318 F1000
G2 X-247.814 Z0.001 I0.318 K0
G1 X-247.655
G17 G3 X-247.337 Y-128 I0 J0.318
X-248.663 Y-128 Z-0.249 I-0.663 J0
X-247.337 Y-128 Z-0.499 I0.663 J0
X-248.663 Y-128 Z-0.749 I-0.663 J0
X-247.337 Y-128 Z-0.999 I0.663 J0
X-248.663 Y-128 Z-1.249 I-0.663 J0
X-247.337 Y-128 Z-1.499 I0.663 J0
X-248.663 Y-128 Z-1.749 I-0.663 J0
X-247.337 Y-128 Z-1.999 I0.663 J0
X-248.663 Y-128 Z-2.249 I-0.663 J0
X-247.337 Y-128 Z-2.499 I0.663 J0
X-248.663 Y-128 Z-2.749 I-0.663 J0
X-247.337 Y-128 Z-2.999 I0.663 J0
X-248.663 Y-128 Z-3.249 I-0.663 J0
X-247.337 Y-128 Z-3.499 I0.663 J0
X-248.663 Y-128 I-0.663 J0
X-247.337 Y-128 I0.663 J0
X-247.655 Y-127.683 I-0.318 J0
G1 X-247.814
G18 G3 X-248.131 Z-3.182 I0 K0.317
G0 Z5
X-259.078 Y-142.598
Z1.683
G1 Z0.001 F1000
X-258.919
X-258.888 Y-142.592
X-258.861 Y-142.574
X-258.844 Y-142.548
X-258.837 Y-142.517
G17 G3 X-259.162 Y-142.517 Z-0.249 I-0.163 J0
X-259.05 Y-142.671 Z-0.349 I0.162 J0
X-258.95 Y-142.362 Z-0.599 I0.05 J0.155
X-259.05 Y-142.671 Z-0.849 I-0.05 J-0.155
X-258.95 Y-142.362 Z-1.099 I0.05 J0.155
X-259.05 Y-142.671 Z-1.349 I-0.05 J-0.155
X-258.95 Y-142.362 Z-1.599 I0.05 J0.155
X-259.05 Y-142.671 Z-1.849 I-0.05 J-0.155
X-258.95 Y-142.362 Z-2.099 I0.05 J0.155
X-259.05 Y-142.671 Z-2.349 I-0.05 J-0.155
X-258.95 Y-142.362 Z-2.599 I0.05 J0.155
X-259.05 Y-142.671 Z-2.849 I-0.05 J-0.155
X-258.95 Y-142.362 Z-3.099 I0.05 J0.155
X-259.05 Y-142.671 Z-3.349 I-0.05 J-0.155
X-258.837 Y-142.517 Z-3.499 I0.05 J0.155
X-259.163 Y-142.517 I-0.163 J0
X-258.837 Y-142.517 I0.163 J0
G1 X-258.844 Y-142.486
X-258.861 Y-142.459
X-258.888 Y-142.442
X-258.919 Y-142.436
X-259.078
G0 Z5
X-249.077 Y-188.081
Z1.683
G1 Z0.001 F1000
X-248.919
X-248.888 Y-188.075
X-248.861 Y-188.057
X-248.844 Y-188.031
X-248.837 Y-188
G3 X-249.163 Y-188 Z-0.249 I-0.163 J0
X-248.837 Y-188 Z-0.499 I0.163 J0
X-249.163 Y-188 Z-0.749 I-0.163 J0
X-248.837 Y-188 Z-0.999 I0.163 J0
X-249.163 Y-188 Z-1.249 I-0.163 J0
X-248.837 Y-188 Z-1.499 I0.163 J0
X-249.163 Y-188 Z-1.749 I-0.163 J0
X-248.837 Y-188 Z-1.999 I0.163 J0
X-249.163 Y-188 Z-2.249 I-0.163 J0
X-248.837 Y-188 Z-2.499 I0.163 J0
X-249.163 Y-188 Z-2.749 I-0.163 J0
X-248.837 Y-188 Z-2.999 I0.163 J0
X-249.163 Y-188 Z-3.249 I-0.163 J0
X-248.837 Y-188 Z-3.499 I0.163 J0
X-249.163 Y-188 I-0.163 J0
X-248.837 Y-188 I0.163 J0
G1 X-248.844 Y-187.969
X-248.861 Y-187.943
X-248.888 Y-187.925
X-248.919 Y-187.919
X-249.077
G0 Z5
X-203.077 Y-188.081
Z1.683
G1 Z0.001 F1000
X-202.919
X-202.888 Y-188.075
X-202.861 Y-188.057
X-202.844 Y-188.031
X-202.837 Y-188
G3 X-203.163 Y-188 Z-0.249 I-0.163 J0
X-202.837 Y-188 Z-0.499 I0.163 J0
X-203.163 Y-188 Z-0.749 I-0.163 J0
X-202.837 Y-188 Z-0.999 I0.163 J0
X-203.163 Y-188 Z-1.249 I-0.163 J0
X-202.837 Y-188 Z-1.499 I0.163 J0
X-203.163 Y-188 Z-1.749 I-0.163 J0
X-202.837 Y-188 Z-1.999 I0.163 J0
X-203.163 Y-188 Z-2.249 I-0.163 J0
X-202.837 Y-188 Z-2.499 I0.163 J0
X-203.163 Y-188 Z-2.749 I-0.163 J0
X-202.837 Y-188 Z-2.999 I0.163 J0
X-203.163 Y-188 Z-3.249 I-0.163 J0
X-202.837 Y-188 Z-3.499 I0.163 J0
X-203.163 Y-188 I-0.163 J0
X-202.837 Y-188 I0.163 J0
G1 X-202.844 Y-187.969
X-202.861 Y-187.943
X-202.888 Y-187.925
X-202.919 Y-187.919
X-203.077
G0 Z5
X-159.077 Y-188.081
Z1.683
G1 Z0.001 F1000
X-158.919
X-158.888 Y-188.075
X-158.861 Y-188.057
X-158.844 Y-188.031
X-158.837 Y-188
G3 X-159.163 Y-188 Z-0.249 I-0.163 J0
X-158.837 Y-188 Z-0.499 I0.163 J0
X-159.163 Y-188 Z-0.749 I-0.163 J0
X-158.837 Y-188 Z-0.999 I0.163 J0
X-159.163 Y-188 Z-1.249 I-0.163 J0
X-158.837 Y-188 Z-1.499 I0.163 J0
X-159.163 Y-188 Z-1.749 I-0.163 J0
X-158.837 Y-188 Z-1.999 I0.163 J0
X-159.163 Y-188 Z-2.249 I-0.163 J0
X-158.837 Y-188 Z-2.499 I0.163 J0
X-159.163 Y-188 Z-2.749 I-0.163 J0
X-158.837 Y-188 Z-2.999 I0.163 J0
X-159.163 Y-188 Z-3.249 I-0.163 J0
X-158.837 Y-188 Z-3.499 I0.163 J0
X-159.163 Y-188 I-0.163 J0
X-158.837 Y-188 I0.163 J0
G1 X-158.844 Y-187.969
X-158.861 Y-187.943
X-158.888 Y-187.925
X-158.919 Y-187.919
X-159.077
G0 Z5
X-113.077 Y-188.081
Z1.683
G1 Z0.001 F1000
X-112.919
X-112.888 Y-188.075
X-112.861 Y-188.057
X-112.844 Y-188.031
X-112.838 Y-188
G3 X-113.162 Y-188 Z-0.249 I-0.162 J0
X-112.838 Y-188 Z-0.499 I0.162 J0
X-113.162 Y-188 Z-0.749 I-0.162 J0
X-112.838 Y-188 Z-0.999 I0.162 J0
X-113.162 Y-188 Z-1.249 I-0.162 J0
X-112.838 Y-188 Z-1.499 I0.162 J0
X-113.162 Y-188 Z-1.749 I-0.162 J0
X-112.838 Y-188 Z-1.999 I0.162 J0
X-113.162 Y-188 Z-2.249 I-0.162 J0
X-112.838 Y-188 Z-2.499 I0.162 J0
X-113.162 Y-188 Z-2.749 I-0.162 J0
X-112.838 Y-188 Z-2.999 I0.162 J0
X-113.162 Y-188 Z-3.249 I-0.162 J0
X-112.838 Y-188 Z-3.499 I0.162 J0
X-113.162 Y-188 I-0.162 J0
X-112.838 Y-188 I0.162 J0
G1 X-112.844 Y-187.969
X-112.861 Y-187.943
X-112.888 Y-187.925
X-112.919 Y-187.919
X-113.077
G0 Z5
X-73.077 Y-188.081
Z1.682
G1 Z-0.001 F1000
X-72.919
X-72.888 Y-188.075
X-72.861 Y-188.057
X-72.844 Y-188.031
X-72.838 Y-188
G3 X-73.162 Y-188 Z-0.251 I-0.162 J0
X-72.838 Y-188 Z-0.501 I0.162 J0
X-73.162 Y-188 Z-0.751 I-0.162 J0
X-72.838 Y-188 Z-1.001 I0.162 J0
X-73.162 Y-188 Z-1.251 I-0.162 J0
X-72.838 Y-188 Z-1.501 I0.162 J0
X-73.162 Y-188 Z-1.751 I-0.162 J0
X-72.838 Y-188 Z-2.001 I0.162 J0
X-73.162 Y-188 Z-2.251 I-0.162 J0
X-72.838 Y-188 Z-2.501 I0.162 J0
X-73.162 Y-188 Z-2.751 I-0.162 J0
X-72.838 Y-188 Z-3.001 I0.162 J0
X-73.162 Y-188 Z-3.251 I-0.162 J0
X-72.838 Y-188 Z-3.501 I0.162 J0
X-73.162 Y-188 I-0.162 J0
X-72.838 Y-188 I0.162 J0
G1 X-72.844 Y-187.969
X-72.861 Y-187.943
X-72.888 Y-187.925
X-72.919 Y-187.919
X-73.077
G0 Z5
X-65.327 Y-167.195
Z1.682
G1 Z-0.001 F1000
X-65.169
X-65.138 Y-167.189
X-65.111 Y-167.171
X-65.094 Y-167.145
X-65.088 Y-167.114
G3 X-65.412 Y-167.114 Z-0.251 I-0.162 J0
X-65.088 Y-167.114 Z-0.501 I0.162 J0
X-65.412 Y-167.114 Z-0.751 I-0.162 J0
X-65.088 Y-167.114 Z-1.001 I0.162 J0
X-65.412 Y-167.114 Z-1.251 I-0.162 J0
X-65.088 Y-167.114 Z-1.501 I0.162 J0
X-65.412 Y-167.114 Z-1.751 I-0.162 J0
X-65.088 Y-167.114 Z-2.001 I0.162 J0
X-65.412 Y-167.114 Z-2.251 I-0.162 J0
X-65.088 Y-167.114 Z-2.501 I0.162 J0
X-65.412 Y-167.114 Z-2.751 I-0.162 J0
X-65.088 Y-167.114 Z-3.001 I0.162 J0
X-65.412 Y-167.114 Z-3.251 I-0.162 J0
X-65.088 Y-167.114 Z-3.501 I0.162 J0
X-65.412 Y-167.114 I-0.162 J0
X-65.088 Y-167.114 I0.162 J0
G1 X-65.094 Y-167.083
X-65.111 Y-167.056
X-65.138 Y-167.039
X-65.169 Y-167.032
X-65.327
G0 Z5
X-34.827 Y-167.195
Z1.682
G1 Z-0.001 F1000
X-34.669
X-34.638 Y-167.189
X-34.611 Y-167.171
X-34.594 Y-167.145
X-34.588 Y-167.114
G3 X-34.912 Y-167.114 Z-0.251 I-0.162 J0
X-34.588 Y-167.114 Z-0.501 I0.162 J0
X-34.881 Y-167.018 Z-0.701 I-0.162 J0
X-34.619 Y-167.209 Z-0.951 I0.131 J-0.096
X-34.619 Y-167.018 Z-1.051 I-0.131 J0.096
X-34.881 Y-167.209 Z-1.301 I-0.131 J-0.096
X-34.619 Y-167.018 Z-1.551 I0.131 J0.096
X-34.881 Y-167.209 Z-1.801 I-0.131 J-0.096
X-34.619 Y-167.018 Z-2.051 I0.131 J0.096
X-34.881 Y-167.209 Z-2.301 I-0.131 J-0.096
X-34.619 Y-167.018 Z-2.551 I0.131 J0.096
X-34.881 Y-167.209 Z-2.801 I-0.131 J-0.096
X-34.619 Y-167.018 Z-3.051 I0.131 J0.096
X-34.881 Y-167.209 Z-3.301 I-0.131 J-0.096
X-34.588 Y-167.114 Z-3.501 I0.131 J0.096
X-34.912 Y-167.114 I-0.162 J0
X-34.588 Y-167.114 I0.162 J0
G1 X-34.594 Y-167.083
X-34.611 Y-167.056
X-34.638 Y-167.039
X-34.669 Y-167.032
X-34.827
G0 Z5
X-27.077 Y-188.081
Z1.682
G1 Z-0.001 F1000
X-26.919
X-26.888 Y-188.075
X-26.861 Y-188.057
X-26.844 Y-188.031
X-26.837 Y-188
G3 X-27.163 Y-188 Z-0.251 I-0.163 J0
X-26.837 Y-188 Z-0.501 I0.163 J0
X-27.163 Y-188 Z-0.751 I-0.163 J0
X-26.837 Y-188 Z-1.001 I0.163 J0
X-27.163 Y-188 Z-1.251 I-0.163 J0
X-26.837 Y-188 Z-1.501 I0.163 J0
X-27.163 Y-188 Z-1.751 I-0.163 J0
X-26.837 Y-188 Z-2.001 I0.163 J0
X-27.163 Y-188 Z-2.251 I-0.163 J0
X-26.837 Y-188 Z-2.501 I0.163 J0
X-27.163 Y-188 Z-2.751 I-0.163 J0
X-26.837 Y-188 Z-3.001 I0.163 J0
X-27.163 Y-188 Z-3.251 I-0.163 J0
X-26.837 Y-188 Z-3.501 I0.163 J0
X-27.163 Y-188 I-0.163 J0
X-26.837 Y-188 I0.163 J0
G1 X-26.844 Y-187.969
X-26.861 Y-187.943
X-26.888 Y-187.925
X-26.919 Y-187.919
X-27.077
G0 Z15

(2D-Kontur2)
X-207.408 Y-98.931
Z15
Z5
G1 Z2.5 F333.3
S5000
X-207 Y-99.167 Z2.484
X-204.258 Y-97.583 Z2.373
Y-94.417 Z2.262
X-207 Y-92.833 Z2.152
X-209.742 Y-94.417 Z2.041
Y-97.583 Z1.931
X-207 Y-99.167 Z1.82
X-204.258 Y-97.583 Z1.709
Y-94.417 Z1.599
X-207 Y-92.833 Z1.488
X-209.742 Y-94.417 Z1.378
Y-97.583 Z1.267
X-207 Y-99.167 Z1.156
X-204.258 Y-97.583 Z1.046
Y-94.417 Z0.935
X-207 Y-92.833 Z0.825
X-209.742 Y-94.417 Z0.714
Y-97.583 Z0.604
X-207 Y-99.167 Z0.493
X-204.258 Y-97.583 Z0.382
Y-94.417 Z0.272
X-207 Y-92.833 Z0.161
X-209.742 Y-94.417 Z0.051
Y-97.583 Z-0.06
X-207 Y-99.167 Z-0.171
X-204.258 Y-97.583 Z-0.281
Y-94.417 Z-0.392
X-207 Y-92.833 Z-0.502
X-209.742 Y-94.417 Z-0.613
Y-97.583 Z-0.724
X-207 Y-99.167 Z-0.834
X-204.258 Y-97.583 Z-0.945
Y-96 Z-1
S6000
Y-94.417 F1000
X-207 Y-92.833
X-209.742 Y-94.417
Y-97.583
X-207 Y-99.167
X-204.258 Y-97.583
Y-96
S5000
Y-94.417 Z-1.055 F333.3
X-207 Y-92.833 Z-1.166
X-209.742 Y-94.417 Z-1.276
Y-97.583 Z-1.387
X-207 Y-99.167 Z-1.498
X-204.258 Y-97.583 Z-1.608
Y-94.417 Z-1.719
X-207 Y-92.833 Z-1.829
X-209.742 Y-94.417 Z-1.94
Y-96.135 Z-2
S6000
Y-97.583 F1000
X-207 Y-99.167
X-204.258 Y-97.583
Y-96
Y-94.417
X-207 Y-92.833
X-209.742 Y-94.417
Y-96.135
S5000
Y-97.583 Z-2.051 F333.3
X-207 Y-99.167 Z-2.161
X-204.258 Y-97.583 Z-2.272
Y-94.417 Z-2.382
X-207 Y-92.833 Z-2.493
X-209.742 Y-94.417 Z-2.604
Y-97.583 Z-2.714
X-207 Y-99.167 Z-2.825
X-204.258 Y-97.583 Z-2.935
Y-95.73 Z-3
S6000
Y-94.417 F1000
X-207 Y-92.833
X-209.742 Y-94.417
Y-96.135
Y-97.583
X-207 Y-99.167
X-204.258 Y-97.583
Y-95.73
S5000
Y-94.417 Z-3.046 F333.3
X-207 Y-92.833 Z-3.156
X-209.742 Y-94.417 Z-3.267
Y-97.583 Z-3.378
X-207 Y-99.167 Z-3.488
X-206.724 Y-99.008 Z-3.499
S6000
X-204.258 Y-97.583 F1000
Y-95.73
Y-94.417
X-207 Y-92.833
X-209.742 Y-94.417
Y-97.583
X-207 Y-99.167
X-206.724 Y-99.008
G3 X-206.608 Y-98.574 I-0.159 J0.275
G1 X-206.767 Y-98.299
X-206.802 Y-98.238 Z-3.491
X-206.836 Y-98.18 Z-3.468
X-206.866 Y-98.128 Z-3.43
X-206.891 Y-98.084 Z-3.38
X-206.91 Y-98.051 Z-3.32
X-206.921 Y-98.031 Z-3.253
X-206.925 Y-98.024 Z-3.182
G0 Z5
X-206.592 Y-78.069
G1 Z2.5 F333.3
S5000
X-207 Y-77.833 Z2.484
X-209.742 Y-79.417 Z2.373
Y-82.583 Z2.262
X-207 Y-84.167 Z2.152
X-204.258 Y-82.583 Z2.041
Y-79.417 Z1.931
X-207 Y-77.833 Z1.82
X-209.742 Y-79.417 Z1.709
Y-82.583 Z1.599
X-207 Y-84.167 Z1.488
X-204.258 Y-82.583 Z1.378
Y-79.417 Z1.267
X-207 Y-77.833 Z1.156
X-209.742 Y-79.417 Z1.046
Y-82.583 Z0.935
X-207 Y-84.167 Z0.825
X-204.258 Y-82.583 Z0.714
Y-79.417 Z0.604
X-207 Y-77.833 Z0.493
X-209.742 Y-79.417 Z0.382
Y-82.583 Z0.272
X-207 Y-84.167 Z0.161
X-204.258 Y-82.583 Z0.051
Y-79.417 Z-0.06
X-207 Y-77.833 Z-0.171
X-209.742 Y-79.417 Z-0.281
Y-82.583 Z-0.392
X-207 Y-84.167 Z-0.502
X-204.258 Y-82.583 Z-0.613
Y-79.417 Z-0.724
X-207 Y-77.833 Z-0.834
X-209.742 Y-79.417 Z-0.945
Y-81 Z-1
S6000
Y-82.583 F1000
X-207 Y-84.167
X-204.258 Y-82.583
Y-79.417
X-207 Y-77.833
X-209.742 Y-79.417
Y-81
S5000
Y-82.583 Z-1.055 F333.3
X-207 Y-84.167 Z-1.166
X-204.258 Y-82.583 Z-1.276
Y-79.417 Z-1.387
X-207 Y-77.833 Z-1.498
X-209.742 Y-79.417 Z-1.608
Y-82.583 Z-1.719
X-207 Y-84.167 Z-1.829
X-204.258 Y-82.583 Z-1.94
Y-80.865 Z-2
S6000
Y-79.417 F1000
X-207 Y-77.833
X-209.742 Y-79.417
Y-81
Y-82.583
X-207 Y-84.167
X-204.258 Y-82.583
Y-80.865
S5000
Y-79.417 Z-2.051 F333.3
X-207 Y-77.833 Z-2.161
X-209.742 Y-79.417 Z-2.272
Y-82.583 Z-2.382
X-207 Y-84.167 Z-2.493
X-204.258 Y-82.583 Z-2.604
Y-79.417 Z-2.714
X-207 Y-77.833 Z-2.825
X-209.742 Y-79.417 Z-2.935
Y-81.27 Z-3
S6000
Y-82.583 F1000
X-207 Y-84.167
X-204.258 Y-82.583
Y-80.865
Y-79.417
X-207 Y-77.833
X-209.742 Y-79.417
Y-81.27
S5000
Y-82.583 Z-3.046 F333.3
X-207 Y-84.167 Z-3.156
X-204.258 Y-82.583 Z-3.267
Y-79.417 Z-3.378
X-207 Y-77.833 Z-3.488
X-207.276 Y-77.992 Z-3.499
S6000
X-209.742 Y-79.417 F1000
Y-81.27
Y-82.583
X-207 Y-84.167
X-204.258 Y-82.583
Y-79.417
X-207 Y-77.833
X-207.276 Y-77.992
G3 X-207.392 Y-78.426 I0.159 J-0.275
G1 X-207.233 Y-78.701
X-207.198 Y-78.762 Z-3.491
X-207.164 Y-78.82 Z-3.468
X-207.134 Y-78.872 Z-3.43
X-207.109 Y-78.916 Z-3.38
X-207.09 Y-78.949 Z-3.32
X-207.079 Y-78.969 Z-3.253
X-207.075 Y-78.976 Z-3.182
G0 Z5
X-207.408 Y-68.931
G1 Z2.5 F333.3
S5000
X-207 Y-69.167 Z2.484
X-204.258 Y-67.583 Z2.373
Y-64.417 Z2.262
X-207 Y-62.833 Z2.152
X-209.742 Y-64.417 Z2.041
Y-67.583 Z1.931
X-207 Y-69.167 Z1.82
X-204.258 Y-67.583 Z1.709
Y-64.417 Z1.599
X-207 Y-62.833 Z1.488
X-209.742 Y-64.417 Z1.378
Y-67.583 Z1.267
X-207 Y-69.167 Z1.156
X-204.258 Y-67.583 Z1.046
Y-64.417 Z0.935
X-207 Y-62.833 Z0.825
X-209.742 Y-64.417 Z0.714
Y-67.583 Z0.604
X-207 Y-69.167 Z0.493
X-204.258 Y-67.583 Z0.382
Y-64.417 Z0.272
X-207 Y-62.833 Z0.161
X-209.742 Y-64.417 Z0.051
Y-67.583 Z-0.06
X-207 Y-69.167 Z-0.171
X-204.258 Y-67.583 Z-0.281
Y-64.417 Z-0.392
X-207 Y-62.833 Z-0.502
X-209.742 Y-64.417 Z-0.613
Y-67.583 Z-0.724
X-207 Y-69.167 Z-0.834
X-204.258 Y-67.583 Z-0.945
Y-66 Z-1
S6000
Y-64.417 F1000
X-207 Y-62.833
X-209.742 Y-64.417
Y-67.583
X-207 Y-69.167
X-204.258 Y-67.583
Y-66
S5000
Y-64.417 Z-1.055 F333.3
X-207 Y-62.833 Z-1.166
X-209.742 Y-64.417 Z-1.276
Y-67.583 Z-1.387
X-207 Y-69.167 Z-1.498
X-204.258 Y-67.583 Z-1.608
Y-64.417 Z-1.719
X-207 Y-62.833 Z-1.829
X-209.742 Y-64.417 Z-1.94
Y-66.135 Z-2
S6000
Y-67.583 F1000
X-207 Y-69.167
X-204.258 Y-67.583
Y-66
Y-64.417
X-207 Y-62.833
X-209.742 Y-64.417
Y-66.135
S5000
Y-67.583 Z-2.051 F333.3
X-207 Y-69.167 Z-2.161
X-204.258 Y-67.583 Z-2.272
Y-64.417 Z-2.382
X-207 Y-62.833 Z-2.493
X-209.742 Y-64.417 Z-2.604
Y-67.583 Z-2.714
X-207 Y-69.167 Z-2.825
X-204.258 Y-67.583 Z-2.935
Y-65.73 Z-3
S6000
Y-64.417 F1000
X-207 Y-62.833
X-209.742 Y-64.417
Y-66.135
Y-67.583
X-207 Y-69.167
X-204.258 Y-67.583
Y-65.73
S5000
Y-64.417 Z-3.046 F333.3
X-207 Y-62.833 Z-3.156
X-209.742 Y-64.417 Z-3.267
Y-67.583 Z-3.378
X-207 Y-69.167 Z-3.488
X-206.724 Y-69.008 Z-3.499
S6000
X-204.258 Y-67.583 F1000
Y-65.73
Y-64.417
X-207 Y-62.833
X-209.742 Y-64.417
Y-67.583
X-207 Y-69.167
X-206.724 Y-69.008
G3 X-206.608 Y-68.574 I-0.159 J0.275
G1 X-206.767 Y-68.299
X-206.802 Y-68.238 Z-3.491
X-206.836 Y-68.18 Z-3.468
X-206.866 Y-68.128 Z-3.43
X-206.891 Y-68.084 Z-3.38
X-206.91 Y-68.051 Z-3.32
X-206.921 Y-68.031 Z-3.253
X-206.925 Y-68.024 Z-3.182
G0 Z5
X-224.408 Y-68.931
G1 Z2.5 F333.3
S5000
X-224 Y-69.167 Z2.484
X-221.258 Y-67.583 Z2.373
Y-64.417 Z2.262
X-224 Y-62.833 Z2.152
X-226.742 Y-64.417 Z2.041
Y-67.583 Z1.931
X-224 Y-69.167 Z1.82
X-221.258 Y-67.583 Z1.709
Y-64.417 Z1.599
X-224 Y-62.833 Z1.488
X-226.742 Y-64.417 Z1.378
Y-67.583 Z1.267
X-224 Y-69.167 Z1.156
X-221.258 Y-67.583 Z1.046
Y-64.417 Z0.935
X-224 Y-62.833 Z0.825
X-226.742 Y-64.417 Z0.714
Y-67.583 Z0.604
X-224 Y-69.167 Z0.493
X-221.258 Y-67.583 Z0.382
Y-64.417 Z0.272
X-224 Y-62.833 Z0.161
X-226.742 Y-64.417 Z0.051
Y-67.583 Z-0.06
X-224 Y-69.167 Z-0.171
X-221.258 Y-67.583 Z-0.281
Y-64.417 Z-0.392
X-224 Y-62.833 Z-0.502
X-226.742 Y-64.417 Z-0.613
Y-67.583 Z-0.724
X-224 Y-69.167 Z-0.834
X-221.258 Y-67.583 Z-0.945
Y-66 Z-1
S6000
Y-64.417 F1000
X-224 Y-62.833
X-226.742 Y-64.417
Y-67.583
X-224 Y-69.167
X-221.258 Y-67.583
Y-66
S5000
Y-64.417 Z-1.055 F333.3
X-224 Y-62.833 Z-1.166
X-226.742 Y-64.417 Z-1.276
Y-67.583 Z-1.387
X-224 Y-69.167 Z-1.498
X-221.258 Y-67.583 Z-1.608
Y-64.417 Z-1.719
X-224 Y-62.833 Z-1.829
X-226.742 Y-64.417 Z-1.94
Y-66.135 Z-2
S6000
Y-67.583 F1000
X-224 Y-69.167
X-221.258 Y-67.583
Y-64.417
X-224 Y-62.833
X-226.742 Y-64.417
Y-66.135
S5000
Y-67.583 Z-2.051 F333.3
X-224 Y-69.167 Z-2.161
X-221.258 Y-67.583 Z-2.272
Y-64.417 Z-2.382
X-224 Y-62.833 Z-2.493
X-226.742 Y-64.417 Z-2.604
Y-67.583 Z-2.714
X-224 Y-69.167 Z-2.825
X-221.258 Y-67.583 Z-2.935
Y-65.731 Z-3
S6000
Y-64.417 F1000
X-224 Y-62.833
X-226.742 Y-64.417
Y-66.135
Y-67.583
X-224 Y-69.167
X-221.258 Y-67.583
Y-65.731
S5000
Y-64.417 Z-3.046 F333.3
X-224 Y-62.833 Z-3.156
X-226.742 Y-64.417 Z-3.267
Y-67.583 Z-3.378
X-224 Y-69.167 Z-3.488
X-223.724 Y-69.008 Z-3.499
S6000
X-221.258 Y-67.583 F1000
Y-65.731
Y-64.417
X-224 Y-62.833
X-226.742 Y-64.417
Y-67.583
X-224 Y-69.167
X-223.724 Y-69.008
G3 X-223.608 Y-68.574 I-0.159 J0.275
G1 X-223.767 Y-68.299
X-223.802 Y-68.238 Z-3.491
X-223.836 Y-68.18 Z-3.468
X-223.866 Y-68.128 Z-3.43
X-223.891 Y-68.084 Z-3.38
X-223.91 Y-68.051 Z-3.32
X-223.922 Y-68.031 Z-3.253
X-223.926 Y-68.024 Z-3.182
G0 Z5
X-224.408 Y-83.931
G1 Z2.5 F333.3
S5000
X-224 Y-84.167 Z2.484
X-221.258 Y-82.583 Z2.373
Y-79.417 Z2.262
X-224 Y-77.833 Z2.152
X-226.742 Y-79.417 Z2.041
Y-82.583 Z1.931
X-224 Y-84.167 Z1.82
X-221.258 Y-82.583 Z1.709
Y-79.417 Z1.599
X-224 Y-77.833 Z1.488
X-226.742 Y-79.417 Z1.378
Y-82.583 Z1.267
X-224 Y-84.167 Z1.156
X-221.258 Y-82.583 Z1.046
Y-79.417 Z0.935
X-224 Y-77.833 Z0.825
X-226.742 Y-79.417 Z0.714
Y-82.583 Z0.604
X-224 Y-84.167 Z0.493
X-221.258 Y-82.583 Z0.382
Y-79.417 Z0.272
X-224 Y-77.833 Z0.161
X-226.742 Y-79.417 Z0.051
Y-82.583 Z-0.06
X-224 Y-84.167 Z-0.171
X-221.258 Y-82.583 Z-0.281
Y-79.417 Z-0.392
X-224 Y-77.833 Z-0.502
X-226.742 Y-79.417 Z-0.613
Y-82.583 Z-0.724
X-224 Y-84.167 Z-0.834
X-221.258 Y-82.583 Z-0.945
Y-81 Z-1
S6000
Y-79.417 F1000
X-224 Y-77.833
X-226.742 Y-79.417
Y-82.583
X-224 Y-84.167
X-221.258 Y-82.583
Y-81
S5000
Y-79.417 Z-1.055 F333.3
X-224 Y-77.833 Z-1.166
X-226.742 Y-79.417 Z-1.276
Y-82.583 Z-1.387
X-224 Y-84.167 Z-1.498
X-221.258 Y-82.583 Z-1.608
Y-79.417 Z-1.719
X-224 Y-77.833 Z-1.829
X-226.742 Y-79.417 Z-1.94
Y-81.135 Z-2
S6000
Y-82.583 F1000
X-224 Y-84.167
X-221.258 Y-82.583
Y-79.417
X-224 Y-77.833
X-226.742 Y-79.417
Y-81.135
S5000
Y-82.583 Z-2.051 F333.3
X-224 Y-84.167 Z-2.161
X-221.258 Y-82.583 Z-2.272
Y-79.417 Z-2.382
X-224 Y-77.833 Z-2.493
X-226.742 Y-79.417 Z-2.604
Y-82.583 Z-2.714
X-224 Y-84.167 Z-2.825
X-221.258 Y-82.583 Z-2.935
Y-80.731 Z-3
S6000
Y-79.417 F1000
X-224 Y-77.833
X-226.742 Y-79.417
Y-81.135
Y-82.583
X-224 Y-84.167
X-221.258 Y-82.583
Y-80.731
S5000
Y-79.417 Z-3.046 F333.3
X-224 Y-77.833 Z-3.156
X-226.742 Y-79.417 Z-3.267
Y-82.583 Z-3.378
X-224 Y-84.167 Z-3.488
X-223.724 Y-84.008 Z-3.499
S6000
X-221.258 Y-82.583 F1000
Y-80.731
Y-79.417
X-224 Y-77.833
X-226.742 Y-79.417
Y-82.583
X-224 Y-84.167
X-223.724 Y-84.008
G3 X-223.608 Y-83.574 I-0.159 J0.275
G1 X-223.767 Y-83.299
X-223.802 Y-83.238 Z-3.491
X-223.836 Y-83.18 Z-3.468
X-223.866 Y-83.128 Z-3.43
X-223.891 Y-83.084 Z-3.38
X-223.91 Y-83.051 Z-3.32
X-223.922 Y-83.031 Z-3.253
X-223.926 Y-83.024 Z-3.182
G0 Z5
X-224.408 Y-98.931
G1 Z2.5 F333.3
S5000
X-224 Y-99.167 Z2.484
X-221.258 Y-97.583 Z2.373
Y-94.417 Z2.262
X-224 Y-92.833 Z2.152
X-226.742 Y-94.417 Z2.041
Y-97.583 Z1.931
X-224 Y-99.167 Z1.82
X-221.258 Y-97.583 Z1.709
Y-94.417 Z1.599
X-224 Y-92.833 Z1.488
X-226.742 Y-94.417 Z1.378
Y-97.583 Z1.267
X-224 Y-99.167 Z1.156
X-221.258 Y-97.583 Z1.046
Y-94.417 Z0.935
X-224 Y-92.833 Z0.825
X-226.742 Y-94.417 Z0.714
Y-97.583 Z0.604
X-224 Y-99.167 Z0.493
X-221.258 Y-97.583 Z0.382
Y-94.417 Z0.272
X-224 Y-92.833 Z0.161
X-226.742 Y-94.417 Z0.051
Y-97.583 Z-0.06
X-224 Y-99.167 Z-0.171
X-221.258 Y-97.583 Z-0.281
Y-94.417 Z-0.392
X-224 Y-92.833 Z-0.502
X-226.742 Y-94.417 Z-0.613
Y-97.583 Z-0.724
X-224 Y-99.167 Z-0.834
X-221.258 Y-97.583 Z-0.945
Y-96 Z-1
S6000
Y-94.417 F1000
X-224 Y-92.833
X-226.742 Y-94.417
Y-97.583
X-224 Y-99.167
X-221.258 Y-97.583
Y-96
S5000
Y-94.417 Z-1.055 F333.3
X-224 Y-92.833 Z-1.166
X-226.742 Y-94.417 Z-1.276
Y-97.583 Z-1.387
X-224 Y-99.167 Z-1.498
X-221.258 Y-97.583 Z-1.608
Y-94.417 Z-1.719
X-224 Y-92.833 Z-1.829
X-226.742 Y-94.417 Z-1.94
Y-96.135 Z-2
S6000
Y-97.583 F1000
X-224 Y-99.167
X-221.258 Y-97.583
Y-94.417
X-224 Y-92.833
X-226.742 Y-94.417
Y-96.135
S5000
Y-97.583 Z-2.051 F333.3
X-224 Y-99.167 Z-2.161
X-221.258 Y-97.583 Z-2.272
Y-94.417 Z-2.382
X-224 Y-92.833 Z-2.493
X-226.742 Y-94.417 Z-2.604
Y-97.583 Z-2.714
X-224 Y-99.167 Z-2.825
X-221.258 Y-97.583 Z-2.935
Y-95.731 Z-3
S6000
Y-94.417 F1000
X-224 Y-92.833
X-226.742 Y-94.417
Y-96.135
Y-97.583
X-224 Y-99.167
X-221.258 Y-97.583
Y-95.731
S5000
Y-94.417 Z-3.046 F333.3
X-224 Y-92.833 Z-3.156
X-226.742 Y-94.417 Z-3.267
Y-97.583 Z-3.378
X-224 Y-99.167 Z-3.488
X-223.724 Y-99.008 Z-3.499
S6000
X-221.258 Y-97.583 F1000
Y-95.731
Y-94.417
X-224 Y-92.833
X-226.742 Y-94.417
Y-97.583
X-224 Y-99.167
X-223.724 Y-99.008
G3 X-223.608 Y-98.574 I-0.159 J0.275
G1 X-223.767 Y-98.299
X-223.802 Y-98.238 Z-3.491
X-223.836 Y-98.18 Z-3.468
X-223.866 Y-98.128 Z-3.43
X-223.891 Y-98.084 Z-3.38
X-223.91 Y-98.051 Z-3.32
X-223.922 Y-98.031 Z-3.253
X-223.926 Y-98.024 Z-3.182
G0 Z5
X-241.408 Y-98.931
G1 Z2.5 F333.3
S5000
X-241 Y-99.167 Z2.484
X-238.258 Y-97.583 Z2.373
Y-94.417 Z2.262
X-241 Y-92.833 Z2.152
X-243.742 Y-94.417 Z2.041
Y-97.583 Z1.931
X-241 Y-99.167 Z1.82
X-238.258 Y-97.583 Z1.709
Y-94.417 Z1.599
X-241 Y-92.833 Z1.488
X-243.742 Y-94.417 Z1.378
Y-97.583 Z1.267
X-241 Y-99.167 Z1.156
X-238.258 Y-97.583 Z1.046
Y-94.417 Z0.935
X-241 Y-92.833 Z0.825
X-243.742 Y-94.417 Z0.714
Y-97.583 Z0.604
X-241 Y-99.167 Z0.493
X-238.258 Y-97.583 Z0.382
Y-94.417 Z0.272
X-241 Y-92.833 Z0.161
X-243.742 Y-94.417 Z0.051
Y-97.583 Z-0.06
X-241 Y-99.167 Z-0.171
X-238.258 Y-97.583 Z-0.281
Y-94.417 Z-0.392
X-241 Y-92.833 Z-0.502
X-243.742 Y-94.417 Z-0.613
Y-97.583 Z-0.724
X-241 Y-99.167 Z-0.834
X-238.258 Y-97.583 Z-0.945
Y-96 Z-1
S6000
Y-94.417 F1000
X-241 Y-92.833
X-243.742 Y-94.417
Y-97.583
X-241 Y-99.167
X-238.258 Y-97.583
Y-96
S5000
Y-94.417 Z-1.055 F333.3
X-241 Y-92.833 Z-1.166
X-243.742 Y-94.417 Z-1.276
Y-97.583 Z-1.387
X-241 Y-99.167 Z-1.498
X-238.258 Y-97.583 Z-1.608
Y-94.417 Z-1.719
X-241 Y-92.833 Z-1.829
X-243.742 Y-94.417 Z-1.94
Y-96.135 Z-2
S6000
Y-97.583 F1000
X-241 Y-99.167
X-238.258 Y-97.583
Y-96
Y-94.417
X-241 Y-92.833
X-243.742 Y-94.417
Y-96.135
S5000
Y-97.583 Z-2.051 F333.3
X-241 Y-99.167 Z-2.161
X-238.258 Y-97.583 Z-2.272
Y-94.417 Z-2.382
X-241 Y-92.833 Z-2.493
X-243.742 Y-94.417 Z-2.604
Y-97.583 Z-2.714
X-241 Y-99.167 Z-2.825
X-238.258 Y-97.583 Z-2.935
Y-95.73 Z-3
S6000
Y-94.417 F1000
X-241 Y-92.833
X-243.742 Y-94.417
Y-96.135
Y-97.583
X-241 Y-99.167
X-238.258 Y-97.583
Y-95.73
S5000
Y-94.417 Z-3.046 F333.3
X-241 Y-92.833 Z-3.156
X-243.742 Y-94.417 Z-3.267
Y-97.583 Z-3.378
X-241 Y-99.167 Z-3.488
X-240.724 Y-99.008 Z-3.499
S6000
X-238.258 Y-97.583 F1000
Y-95.73
Y-94.417
X-241 Y-92.833
X-243.742 Y-94.417
Y-97.583
X-241 Y-99.167
X-240.724 Y-99.008
G3 X-240.608 Y-98.574 I-0.159 J0.275
G1 X-240.767 Y-98.299
X-240.802 Y-98.238 Z-3.491
X-240.836 Y-98.18 Z-3.468
X-240.866 Y-98.128 Z-3.43
X-240.891 Y-98.084 Z-3.38
X-240.91 Y-98.051 Z-3.32
X-240.921 Y-98.031 Z-3.253
X-240.925 Y-98.024 Z-3.182
G0 Z5
X-240.592 Y-78.069
G1 Z2.5 F333.3
S5000
X-241 Y-77.833 Z2.484
X-243.742 Y-79.417 Z2.373
Y-82.583 Z2.262
X-241 Y-84.167 Z2.152
X-238.258 Y-82.583 Z2.041
Y-79.417 Z1.931
X-241 Y-77.833 Z1.82
X-243.742 Y-79.417 Z1.709
Y-82.583 Z1.599
X-241 Y-84.167 Z1.488
X-238.258 Y-82.583 Z1.378
Y-79.417 Z1.267
X-241 Y-77.833 Z1.156
X-243.742 Y-79.417 Z1.046
Y-82.583 Z0.935
X-241 Y-84.167 Z0.825
X-238.258 Y-82.583 Z0.714
Y-79.417 Z0.604
X-241 Y-77.833 Z0.493
X-243.742 Y-79.417 Z0.382
Y-82.583 Z0.272
X-241 Y-84.167 Z0.161
X-238.258 Y-82.583 Z0.051
Y-79.417 Z-0.06
X-241 Y-77.833 Z-0.171
X-243.742 Y-79.417 Z-0.281
Y-82.583 Z-0.392
X-241 Y-84.167 Z-0.502
X-238.258 Y-82.583 Z-0.613
Y-79.417 Z-0.724
X-241 Y-77.833 Z-0.834
X-243.742 Y-79.417 Z-0.945
Y-81 Z-1
S6000
Y-82.583 F1000
X-241 Y-84.167
X-238.258 Y-82.583
Y-79.417
X-241 Y-77.833
X-243.742 Y-79.417
Y-81
S5000
Y-82.583 Z-1.055 F333.3
X-241 Y-84.167 Z-1.166
X-238.258 Y-82.583 Z-1.276
Y-79.417 Z-1.387
X-241 Y-77.833 Z-1.498
X-243.742 Y-79.417 Z-1.608
Y-82.583 Z-1.719
X-241 Y-84.167 Z-1.829
X-238.258 Y-82.583 Z-1.94
Y-80.865 Z-2
S6000
Y-79.417 F1000
X-241 Y-77.833
X-243.742 Y-79.417
Y-82.583
X-241 Y-84.167
X-238.258 Y-82.583
Y-80.865
S5000
Y-79.417 Z-2.051 F333.3
X-241 Y-77.833 Z-2.161
X-243.742 Y-79.417 Z-2.272
Y-82.583 Z-2.382
X-241 Y-84.167 Z-2.493
X-238.258 Y-82.583 Z-2.604
Y-79.417 Z-2.714
X-241 Y-77.833 Z-2.825
X-243.742 Y-79.417 Z-2.935
Y-81.269 Z-3
S6000
Y-82.583 F1000
X-241 Y-84.167
X-238.258 Y-82.583
Y-80.865
Y-79.417
X-241 Y-77.833
X-243.742 Y-79.417
Y-81.269
S5000
Y-82.583 Z-3.046 F333.3
X-241 Y-84.167 Z-3.156
X-238.258 Y-82.583 Z-3.267
Y-79.417 Z-3.378
X-241 Y-77.833 Z-3.488
X-241.276 Y-77.992 Z-3.499
S6000
X-243.742 Y-79.417 F1000
Y-81.269
Y-82.583
X-241 Y-84.167
X-238.258 Y-82.583
Y-79.417
X-241 Y-77.833
X-241.276 Y-77.992
G3 X-241.392 Y-78.426 I0.159 J-0.275
G1 X-241.233 Y-78.701
X-241.198 Y-78.762 Z-3.491
X-241.164 Y-78.82 Z-3.468
X-241.134 Y-78.872 Z-3.43
X-241.109 Y-78.916 Z-3.38
X-241.09 Y-78.949 Z-3.32
X-241.078 Y-78.969 Z-3.253
X-241.074 Y-78.976 Z-3.182
G0 Z5
X-240.592 Y-63.069
G1 Z2.5 F333.3
S5000
X-241 Y-62.833 Z2.484
X-243.742 Y-64.417 Z2.373
Y-67.583 Z2.262
X-241 Y-69.167 Z2.152
X-238.258 Y-67.583 Z2.041
Y-64.417 Z1.931
X-241 Y-62.833 Z1.82
X-243.742 Y-64.417 Z1.709
Y-67.583 Z1.599
X-241 Y-69.167 Z1.488
X-238.258 Y-67.583 Z1.378
Y-64.417 Z1.267
X-241 Y-62.833 Z1.156
X-243.742 Y-64.417 Z1.046
Y-67.583 Z0.935
X-241 Y-69.167 Z0.825
X-238.258 Y-67.583 Z0.714
Y-64.417 Z0.604
X-241 Y-62.833 Z0.493
X-243.742 Y-64.417 Z0.382
Y-67.583 Z0.272
X-241 Y-69.167 Z0.161
X-238.258 Y-67.583 Z0.051
Y-64.417 Z-0.06
X-241 Y-62.833 Z-0.171
X-243.742 Y-64.417 Z-0.281
Y-67.583 Z-0.392
X-241 Y-69.167 Z-0.502
X-238.258 Y-67.583 Z-0.613
Y-64.417 Z-0.724
X-241 Y-62.833 Z-0.834
X-243.742 Y-64.417 Z-0.945
Y-66 Z-1
S6000
Y-67.583 F1000
X-241 Y-69.167
X-238.258 Y-67.583
Y-64.417
X-241 Y-62.833
X-243.742 Y-64.417
Y-66
S5000
Y-67.583 Z-1.055 F333.3
X-241 Y-69.167 Z-1.166
X-238.258 Y-67.583 Z-1.276
Y-64.417 Z-1.387
X-241 Y-62.833 Z-1.498
X-243.742 Y-64.417 Z-1.608
Y-67.583 Z-1.719
X-241 Y-69.167 Z-1.829
X-238.258 Y-67.583 Z-1.94
Y-65.865 Z-2
S6000
Y-64.417 F1000
X-241 Y-62.833
X-243.742 Y-64.417
Y-66
Y-67.583
X-241 Y-69.167
X-238.258 Y-67.583
Y-65.865
S5000
Y-64.417 Z-2.051 F333.3
X-241 Y-62.833 Z-2.161
X-243.742 Y-64.417 Z-2.272
Y-67.583 Z-2.382
X-241 Y-69.167 Z-2.493
X-238.258 Y-67.583 Z-2.604
Y-64.417 Z-2.714
X-241 Y-62.833 Z-2.825
X-243.742 Y-64.417 Z-2.935
Y-66.27 Z-3
S6000
Y-67.583 F1000
X-241 Y-69.167
X-238.258 Y-67.583
Y-65.865
Y-64.417
X-241 Y-62.833
X-243.742 Y-64.417
Y-66.27
S5000
Y-67.583 Z-3.046 F333.3
X-241 Y-69.167 Z-3.156
X-238.258 Y-67.583 Z-3.267
Y-64.417 Z-3.378
X-241 Y-62.833 Z-3.488
X-241.276 Y-62.992 Z-3.499
S6000
X-243.742 Y-64.417 F1000
Y-66.27
Y-67.583
X-241 Y-69.167
X-238.258 Y-67.583
Y-64.417
X-241 Y-62.833
X-241.276 Y-62.992
G3 X-241.392 Y-63.426 I0.159 J-0.275
G1 X-241.233 Y-63.701
X-241.198 Y-63.762 Z-3.491
X-241.164 Y-63.82 Z-3.468
X-241.134 Y-63.872 Z-3.43
X-241.109 Y-63.916 Z-3.38
X-241.09 Y-63.949 Z-3.32
X-241.079 Y-63.969 Z-3.253
X-241.075 Y-63.976 Z-3.182
G0 Z5
X-243.742 Y-142.112
G1 Z2.5 F333.3
S5000
Y-142.583 Z2.484
X-241 Y-144.167 Z2.373
X-238.258 Y-142.583 Z2.262
Y-139.417 Z2.152
X-241 Y-137.833 Z2.041
X-243.742 Y-139.417 Z1.931
Y-142.583 Z1.82
X-241 Y-144.167 Z1.709
X-238.258 Y-142.583 Z1.599
Y-139.417 Z1.488
X-241 Y-137.833 Z1.378
X-243.742 Y-139.417 Z1.267
Y-142.583 Z1.156
X-241 Y-144.167 Z1.046
X-238.258 Y-142.583 Z0.935
Y-139.417 Z0.825
X-241 Y-137.833 Z0.714
X-243.742 Y-139.417 Z0.604
Y-142.583 Z0.493
X-241 Y-144.167 Z0.382
X-238.258 Y-142.583 Z0.272
Y-139.417 Z0.161
X-241 Y-137.833 Z0.051
X-243.742 Y-139.417 Z-0.06
Y-142.583 Z-0.171
X-241 Y-144.167 Z-0.281
X-238.258 Y-142.583 Z-0.392
Y-139.417 Z-0.502
X-241 Y-137.833 Z-0.613
X-243.742 Y-139.417 Z-0.724
Y-142.583 Z-0.834
X-241 Y-144.167 Z-0.945
X-239.629 Y-143.375 Z-1
S6000
X-238.258 Y-142.583 F1000
Y-139.417
X-241 Y-137.833
X-243.742 Y-139.417
Y-142.583
X-241 Y-144.167
X-239.629 Y-143.375
S5000
X-238.258 Y-142.583 Z-1.055 F333.3
Y-139.417 Z-1.166
X-241 Y-137.833 Z-1.276
X-243.742 Y-139.417 Z-1.387
Y-142.583 Z-1.498
X-241 Y-144.167 Z-1.608
X-238.258 Y-142.583 Z-1.719
Y-139.417 Z-1.829
X-241 Y-137.833 Z-1.94
X-242.488 Y-138.692 Z-2
S6000
X-243.742 Y-139.417 F1000
Y-142.583
X-241 Y-144.167
X-239.629 Y-143.375
X-238.258 Y-142.583
Y-139.417
X-241 Y-137.833
X-242.488 Y-138.692
S5000
X-243.742 Y-139.417 Z-2.051 F333.3
Y-142.583 Z-2.161
X-241 Y-144.167 Z-2.272
X-238.258 Y-142.583 Z-2.382
Y-139.417 Z-2.493
X-241 Y-137.833 Z-2.604
X-243.742 Y-139.417 Z-2.714
Y-142.583 Z-2.825
X-241 Y-144.167 Z-2.935
X-239.395 Y-143.24 Z-3
S6000
X-238.258 Y-142.583 F1000
Y-139.417
X-241 Y-137.833
X-242.488 Y-138.692
X-243.742 Y-139.417
Y-142.583
X-241 Y-144.167
X-239.395 Y-143.24
S5000
X-238.258 Y-142.583 Z-3.046 F333.3
Y-139.417 Z-3.156
X-241 Y-137.833 Z-3.267
X-243.742 Y-139.417 Z-3.378
Y-142.583 Z-3.488
X-243.467 Y-142.743 Z-3.499
S6000
X-241 Y-144.167 F1000
X-239.395 Y-143.24
X-238.258 Y-142.583
Y-139.417
X-241 Y-137.833
X-243.742 Y-139.417
Y-142.583
X-243.467 Y-142.743
G3 X-243.033 Y-142.626 I0.159 J0.275
G1 X-242.874 Y-142.351
X-242.839 Y-142.29 Z-3.491
X-242.805 Y-142.232 Z-3.468
X-242.775 Y-142.18 Z-3.43
X-242.75 Y-142.137 Z-3.38
X-242.731 Y-142.104 Z-3.32
X-242.72 Y-142.083 Z-3.253
X-242.716 Y-142.077 Z-3.182
G0 Z5
X-243.742 Y-156.612
G1 Z2.5 F333.3
S5000
Y-157.083 Z2.484
X-241 Y-158.667 Z2.373
X-238.258 Y-157.083 Z2.262
Y-153.917 Z2.152
X-241 Y-152.333 Z2.041
X-243.742 Y-153.917 Z1.931
Y-157.083 Z1.82
X-241 Y-158.667 Z1.709
X-238.258 Y-157.083 Z1.599
Y-153.917 Z1.488
X-241 Y-152.333 Z1.378
X-243.742 Y-153.917 Z1.267
Y-157.083 Z1.156
X-241 Y-158.667 Z1.046
X-238.258 Y-157.083 Z0.935
Y-153.917 Z0.825
X-241 Y-152.333 Z0.714
X-243.742 Y-153.917 Z0.604
Y-157.083 Z0.493
X-241 Y-158.667 Z0.382
X-238.258 Y-157.083 Z0.272
Y-153.917 Z0.161
X-241 Y-152.333 Z0.051
X-243.742 Y-153.917 Z-0.06
Y-157.083 Z-0.171
X-241 Y-158.667 Z-0.281
X-238.258 Y-157.083 Z-0.392
Y-153.917 Z-0.502
X-241 Y-152.333 Z-0.613
X-243.742 Y-153.917 Z-0.724
Y-157.083 Z-0.834
X-241 Y-158.667 Z-0.945
X-239.629 Y-157.875 Z-1
S6000
X-238.258 Y-157.083 F1000
Y-153.917
X-241 Y-152.333
X-243.742 Y-153.917
Y-157.083
X-241 Y-158.667
X-239.629 Y-157.875
S5000
X-238.258 Y-157.083 Z-1.055 F333.3
Y-153.917 Z-1.166
X-241 Y-152.333 Z-1.276
X-243.742 Y-153.917 Z-1.387
Y-157.083 Z-1.498
X-241 Y-158.667 Z-1.608
X-238.258 Y-157.083 Z-1.719
Y-153.917 Z-1.829
X-241 Y-152.333 Z-1.94
X-242.488 Y-153.192 Z-2
S6000
X-243.742 Y-153.917 F1000
Y-157.083
X-241 Y-158.667
X-239.629 Y-157.875
X-238.258 Y-157.083
Y-153.917
X-241 Y-152.333
X-242.488 Y-153.192
S5000
X-243.742 Y-153.917 Z-2.051 F333.3
Y-157.083 Z-2.161
X-241 Y-158.667 Z-2.272
X-238.258 Y-157.083 Z-2.382
Y-153.917 Z-2.493
X-241 Y-152.333 Z-2.604
X-243.742 Y-153.917 Z-2.714
Y-157.083 Z-2.825
X-241 Y-158.667 Z-2.935
X-239.395 Y-157.74 Z-3
S6000
X-238.258 Y-157.083 F1000
Y-153.917
X-241 Y-152.333
X-242.488 Y-153.192
X-243.742 Y-153.917
Y-157.083
X-241 Y-158.667
X-239.395 Y-157.74
S5000
X-238.258 Y-157.083 Z-3.046 F333.3
Y-153.917 Z-3.156
X-241 Y-152.333 Z-3.267
X-243.742 Y-153.917 Z-3.378
Y-157.083 Z-3.488
X-243.467 Y-157.243 Z-3.499
S6000
X-241 Y-158.667 F1000
X-239.395 Y-157.74
X-238.258 Y-157.083
Y-153.917
X-241 Y-152.333
X-243.742 Y-153.917
Y-157.083
X-243.467 Y-157.243
G3 X-243.033 Y-157.126 I0.159 J0.275
G1 X-242.874 Y-156.851
X-242.839 Y-156.79 Z-3.491
X-242.805 Y-156.732 Z-3.468
X-242.775 Y-156.68 Z-3.43
X-242.75 Y-156.637 Z-3.38
X-242.731 Y-156.604 Z-3.32
X-242.72 Y-156.583 Z-3.253
X-242.716 Y-156.577 Z-3.182
G0 Z5
X-240.592 Y-167.069
G1 Z2.5 F333.3
S5000
X-241 Y-166.833 Z2.484
X-243.742 Y-168.417 Z2.373
Y-171.583 Z2.262
X-241 Y-173.167 Z2.152
X-238.258 Y-171.583 Z2.041
Y-168.417 Z1.931
X-241 Y-166.833 Z1.82
X-243.742 Y-168.417 Z1.709
Y-171.583 Z1.599
X-241 Y-173.167 Z1.488
X-238.258 Y-171.583 Z1.378
Y-168.417 Z1.267
X-241 Y-166.833 Z1.156
X-243.742 Y-168.417 Z1.046
Y-171.583 Z0.935
X-241 Y-173.167 Z0.825
X-238.258 Y-171.583 Z0.714
Y-168.417 Z0.604
X-241 Y-166.833 Z0.493
X-243.742 Y-168.417 Z0.382
Y-171.583 Z0.272
X-241 Y-173.167 Z0.161
X-238.258 Y-171.583 Z0.051
Y-168.417 Z-0.06
X-241 Y-166.833 Z-0.171
X-243.742 Y-168.417 Z-0.281
Y-171.583 Z-0.392
X-241 Y-173.167 Z-0.502
X-238.258 Y-171.583 Z-0.613
Y-168.417 Z-0.724
X-241 Y-166.833 Z-0.834
X-243.742 Y-168.417 Z-0.945
Y-170 Z-1
S6000
Y-171.583 F1000
X-241 Y-173.167
X-238.258 Y-171.583
Y-168.417
X-241 Y-166.833
X-243.742 Y-168.417
Y-170
S5000
Y-171.583 Z-1.055 F333.3
X-241 Y-173.167 Z-1.166
X-238.258 Y-171.583 Z-1.276
Y-168.417 Z-1.387
X-241 Y-166.833 Z-1.498
X-243.742 Y-168.417 Z-1.608
Y-171.583 Z-1.719
X-241 Y-173.167 Z-1.829
X-238.258 Y-171.583 Z-1.94
Y-169.865 Z-2
S6000
Y-168.417 F1000
X-241 Y-166.833
X-243.742 Y-168.417
Y-171.583
X-241 Y-173.167
X-238.258 Y-171.583
Y-169.865
S5000
Y-168.417 Z-2.051 F333.3
X-241 Y-166.833 Z-2.161
X-243.742 Y-168.417 Z-2.272
Y-171.583 Z-2.382
X-241 Y-173.167 Z-2.493
X-238.258 Y-171.583 Z-2.604
Y-168.417 Z-2.714
X-241 Y-166.833 Z-2.825
X-243.742 Y-168.417 Z-2.935
Y-170.269 Z-3
S6000
Y-171.583 F1000
X-241 Y-173.167
X-238.258 Y-171.583
Y-169.865
Y-168.417
X-241 Y-166.833
X-243.742 Y-168.417
Y-170.269
S5000
Y-171.583 Z-3.046 F333.3
X-241 Y-173.167 Z-3.156
X-238.258 Y-171.583 Z-3.267
Y-168.417 Z-3.378
X-241 Y-166.833 Z-3.488
X-241.276 Y-166.992 Z-3.499
S6000
X-243.742 Y-168.417 F1000
Y-170.269
Y-171.583
X-241 Y-173.167
X-238.258 Y-171.583
Y-168.417
X-241 Y-166.833
X-241.276 Y-166.992
G3 X-241.392 Y-167.426 I0.159 J-0.275
G1 X-241.233 Y-167.701
X-241.198 Y-167.762 Z-3.491
X-241.164 Y-167.82 Z-3.468
X-241.134 Y-167.872 Z-3.43
X-241.109 Y-167.916 Z-3.38
X-241.09 Y-167.949 Z-3.32
X-241.078 Y-167.969 Z-3.253
X-241.074 Y-167.976 Z-3.182
G0 Z5
X-223.592 Y-152.569
G1 Z2.5 F333.3
S5000
X-224 Y-152.333 Z2.484
X-226.742 Y-153.917 Z2.373
Y-157.083 Z2.262
X-224 Y-158.667 Z2.152
X-221.258 Y-157.083 Z2.041
Y-153.917 Z1.931
X-224 Y-152.333 Z1.82
X-226.742 Y-153.917 Z1.709
Y-157.083 Z1.599
X-224 Y-158.667 Z1.488
X-221.258 Y-157.083 Z1.378
Y-153.917 Z1.267
X-224 Y-152.333 Z1.156
X-226.742 Y-153.917 Z1.046
Y-157.083 Z0.935
X-224 Y-158.667 Z0.825
X-221.258 Y-157.083 Z0.714
Y-153.917 Z0.604
X-224 Y-152.333 Z0.493
X-226.742 Y-153.917 Z0.382
Y-157.083 Z0.272
X-224 Y-158.667 Z0.161
X-221.258 Y-157.083 Z0.051
Y-153.917 Z-0.06
X-224 Y-152.333 Z-0.171
X-226.742 Y-153.917 Z-0.281
Y-157.083 Z-0.392
X-224 Y-158.667 Z-0.502
X-221.258 Y-157.083 Z-0.613
Y-153.917 Z-0.724
X-224 Y-152.333 Z-0.834
X-226.742 Y-153.917 Z-0.945
Y-155.5 Z-1
S6000
Y-157.083 F1000
X-224 Y-158.667
X-221.258 Y-157.083
Y-153.917
X-224 Y-152.333
X-226.742 Y-153.917
Y-155.5
S5000
Y-157.083 Z-1.055 F333.3
X-224 Y-158.667 Z-1.166
X-221.258 Y-157.083 Z-1.276
Y-153.917 Z-1.387
X-224 Y-152.333 Z-1.498
X-226.742 Y-153.917 Z-1.608
Y-157.083 Z-1.719
X-224 Y-158.667 Z-1.829
X-221.258 Y-157.083 Z-1.94
Y-155.365 Z-2
S6000
Y-153.917 F1000
X-224 Y-152.333
X-226.742 Y-153.917
Y-155.5
Y-157.083
X-224 Y-158.667
X-221.258 Y-157.083
Y-155.365
S5000
Y-153.917 Z-2.051 F333.3
X-224 Y-152.333 Z-2.161
X-226.742 Y-153.917 Z-2.272
Y-157.083 Z-2.382
X-224 Y-158.667 Z-2.493
X-221.258 Y-157.083 Z-2.604
Y-153.917 Z-2.714
X-224 Y-152.333 Z-2.825
X-226.742 Y-153.917 Z-2.935
Y-155.77 Z-3
S6000
Y-157.083 F1000
X-224 Y-158.667
X-221.258 Y-157.083
Y-155.365
Y-153.917
X-224 Y-152.333
X-226.742 Y-153.917
Y-155.77
S5000
Y-157.083 Z-3.046 F333.3
X-224 Y-158.667 Z-3.156
X-221.258 Y-157.083 Z-3.267
Y-153.917 Z-3.378
X-224 Y-152.333 Z-3.488
X-224.276 Y-152.492 Z-3.499
S6000
X-226.742 Y-153.917 F1000
Y-155.77
Y-157.083
X-224 Y-158.667
X-221.258 Y-157.083
Y-153.917
X-224 Y-152.333
X-224.276 Y-152.492
G3 X-224.392 Y-152.926 I0.159 J-0.275
G1 X-224.233 Y-153.201
X-224.198 Y-153.262 Z-3.491
X-224.164 Y-153.32 Z-3.468
X-224.134 Y-153.372 Z-3.43
X-224.109 Y-153.416 Z-3.38
X-224.09 Y-153.449 Z-3.32
X-224.079 Y-153.469 Z-3.253
X-224.075 Y-153.476 Z-3.182
G0 Z5
X-223.592 Y-138.069
G1 Z2.5 F333.3
S5000
X-224 Y-137.833 Z2.484
X-226.742 Y-139.417 Z2.373
Y-142.583 Z2.262
X-224 Y-144.167 Z2.152
X-221.258 Y-142.583 Z2.041
Y-139.417 Z1.931
X-224 Y-137.833 Z1.82
X-226.742 Y-139.417 Z1.709
Y-142.583 Z1.599
X-224 Y-144.167 Z1.488
X-221.258 Y-142.583 Z1.378
Y-139.417 Z1.267
X-224 Y-137.833 Z1.156
X-226.742 Y-139.417 Z1.046
Y-142.583 Z0.935
X-224 Y-144.167 Z0.825
X-221.258 Y-142.583 Z0.714
Y-139.417 Z0.604
X-224 Y-137.833 Z0.493
X-226.742 Y-139.417 Z0.382
Y-142.583 Z0.272
X-224 Y-144.167 Z0.161
X-221.258 Y-142.583 Z0.051
Y-139.417 Z-0.06
X-224 Y-137.833 Z-0.171
X-226.742 Y-139.417 Z-0.281
Y-142.583 Z-0.392
X-224 Y-144.167 Z-0.502
X-221.258 Y-142.583 Z-0.613
Y-139.417 Z-0.724
X-224 Y-137.833 Z-0.834
X-226.742 Y-139.417 Z-0.945
Y-141 Z-1
S6000
Y-142.583 F1000
X-224 Y-144.167
X-221.258 Y-142.583
Y-139.417
X-224 Y-137.833
X-226.742 Y-139.417
Y-141
S5000
Y-142.583 Z-1.055 F333.3
X-224 Y-144.167 Z-1.166
X-221.258 Y-142.583 Z-1.276
Y-139.417 Z-1.387
X-224 Y-137.833 Z-1.498
X-226.742 Y-139.417 Z-1.608
Y-142.583 Z-1.719
X-224 Y-144.167 Z-1.829
X-221.258 Y-142.583 Z-1.94
Y-140.865 Z-2
S6000
Y-139.417 F1000
X-224 Y-137.833
X-226.742 Y-139.417
Y-141
Y-142.583
X-224 Y-144.167
X-221.258 Y-142.583
Y-140.865
S5000
Y-139.417 Z-2.051 F333.3
X-224 Y-137.833 Z-2.161
X-226.742 Y-139.417 Z-2.272
Y-142.583 Z-2.382
X-224 Y-144.167 Z-2.493
X-221.258 Y-142.583 Z-2.604
Y-139.417 Z-2.714
X-224 Y-137.833 Z-2.825
X-226.742 Y-139.417 Z-2.935
Y-141.27 Z-3
S6000
Y-142.583 F1000
X-224 Y-144.167
X-221.258 Y-142.583
Y-140.865
Y-139.417
X-224 Y-137.833
X-226.742 Y-139.417
Y-141.27
S5000
Y-142.583 Z-3.046 F333.3
X-224 Y-144.167 Z-3.156
X-221.258 Y-142.583 Z-3.267
Y-139.417 Z-3.378
X-224 Y-137.833 Z-3.488
X-224.276 Y-137.992 Z-3.499
S6000
X-226.742 Y-139.417 F1000
Y-141.27
Y-142.583
X-224 Y-144.167
X-221.258 Y-142.583
Y-139.417
X-224 Y-137.833
X-224.276 Y-137.992
G3 X-224.392 Y-138.426 I0.159 J-0.275
G1 X-224.233 Y-138.701
X-224.198 Y-138.762 Z-3.491
X-224.164 Y-138.82 Z-3.468
X-224.134 Y-138.872 Z-3.43
X-224.109 Y-138.916 Z-3.38
X-224.09 Y-138.949 Z-3.32
X-224.079 Y-138.969 Z-3.253
X-224.075 Y-138.976 Z-3.182
G0 Z5
X-207.408 Y-143.931
G1 Z2.5 F333.3
S5000
X-207 Y-144.167 Z2.484
X-204.258 Y-142.583 Z2.373
Y-139.417 Z2.262
X-207 Y-137.833 Z2.152
X-209.742 Y-139.417 Z2.041
Y-142.583 Z1.931
X-207 Y-144.167 Z1.82
X-204.258 Y-142.583 Z1.709
Y-139.417 Z1.599
X-207 Y-137.833 Z1.488
X-209.742 Y-139.417 Z1.378
Y-142.583 Z1.267
X-207 Y-144.167 Z1.156
X-204.258 Y-142.583 Z1.046
Y-139.417 Z0.935
X-207 Y-137.833 Z0.825
X-209.742 Y-139.417 Z0.714
Y-142.583 Z0.604
X-207 Y-144.167 Z0.493
X-204.258 Y-142.583 Z0.382
Y-139.417 Z0.272
X-207 Y-137.833 Z0.161
X-209.742 Y-139.417 Z0.051
Y-142.583 Z-0.06
X-207 Y-144.167 Z-0.171
X-204.258 Y-142.583 Z-0.281
Y-139.417 Z-0.392
X-207 Y-137.833 Z-0.502
X-209.742 Y-139.417 Z-0.613
Y-142.583 Z-0.724
X-207 Y-144.167 Z-0.834
X-204.258 Y-142.583 Z-0.945
Y-141 Z-1
S6000
Y-139.417 F1000
X-207 Y-137.833
X-209.742 Y-139.417
Y-142.583
X-207 Y-144.167
X-204.258 Y-142.583
Y-141
S5000
Y-139.417 Z-1.055 F333.3
X-207 Y-137.833 Z-1.166
X-209.742 Y-139.417 Z-1.276
Y-142.583 Z-1.387
X-207 Y-144.167 Z-1.498
X-204.258 Y-142.583 Z-1.608
Y-139.417 Z-1.719
X-207 Y-137.833 Z-1.829
X-209.742 Y-139.417 Z-1.94
Y-141.135 Z-2
S6000
Y-142.583 F1000
X-207 Y-144.167
X-204.258 Y-142.583
Y-139.417
X-207 Y-137.833
X-209.742 Y-139.417
Y-141.135
S5000
Y-142.583 Z-2.051 F333.3
X-207 Y-144.167 Z-2.161
X-204.258 Y-142.583 Z-2.272
Y-139.417 Z-2.382
X-207 Y-137.833 Z-2.493
X-209.742 Y-139.417 Z-2.604
Y-142.583 Z-2.714
X-207 Y-144.167 Z-2.825
X-204.258 Y-142.583 Z-2.935
Y-140.731 Z-3
S6000
Y-139.417 F1000
X-207 Y-137.833
X-209.742 Y-139.417
Y-141.135
Y-142.583
X-207 Y-144.167
X-204.258 Y-142.583
Y-140.731
S5000
Y-139.417 Z-3.046 F333.3
X-207 Y-137.833 Z-3.156
X-209.742 Y-139.417 Z-3.267
Y-142.583 Z-3.378
X-207 Y-144.167 Z-3.488
X-206.724 Y-144.008 Z-3.499
S6000
X-204.258 Y-142.583 F1000
Y-140.731
Y-139.417
X-207 Y-137.833
X-209.742 Y-139.417
Y-142.583
X-207 Y-144.167
X-206.724 Y-144.008
G3 X-206.608 Y-143.574 I-0.159 J0.275
G1 X-206.767 Y-143.299
X-206.802 Y-143.238 Z-3.491
