(1001)
(T14  D=1.5 CR=0 - ZMIN=-2.499 - Schaftfraser)
G90 G94
G17
G21
G28 G91 Z0
G90

(Bohrfrasen3)
T14
S4000 M3
G54
G0 X-145.875 Y-145.15
Z15
Z2.001
G1 Z0.151 F400
X-145.868 Z0.104
X-145.846 Z0.062
X-145.813 Z0.029
X-145.771 Z0.008
X-145.725 Z0.001
X-145.65
X-145.604 Y-145.143
X-145.562 Y-145.121
X-145.529 Y-145.088
X-145.507 Y-145.046
X-145.5 Y-145
G3 X-146.5 Y-145 Z-0.249 I-0.5 J0 F600
X-145.5 Y-145 Z-0.499 I0.5 J0
X-146.5 Y-145 Z-0.749 I-0.5 J0
X-145.5 Y-145 Z-0.999 I0.5 J0
X-146.5 Y-145 Z-1.249 I-0.5 J0
X-145.5 Y-145 Z-1.499 I0.5 J0
X-146.5 Y-145 Z-1.749 I-0.5 J0
X-145.5 Y-145 Z-1.999 I0.5 J0
X-146.5 Y-145 Z-2.249 I-0.5 J0
X-145.5 Y-145 Z-2.499 I0.5 J0
X-146.5 Y-145 I-0.5 J0
X-145.5 Y-145 I0.5 J0
G1 X-145.507 Y-144.954
X-145.529 Y-144.912
X-145.562 Y-144.879
X-145.604 Y-144.857
X-145.65 Y-144.85
X-145.725
X-145.771 Z-2.492
X-145.813 Z-2.471
X-145.846 Z-2.438
X-145.868 Z-2.396
X-145.875 Z-2.349
G0 Z5
X-125.875 Y-145.15
Z2.001
G1 Z0.151 F400
X-125.868 Z0.104
X-125.846 Z0.062
X-125.813 Z0.029
X-125.771 Z0.008
X-125.725 Z0.001
X-125.65
X-125.604 Y-145.143
X-125.562 Y-145.121
X-125.529 Y-145.088
X-125.507 Y-145.046
X-125.5 Y-145
G3 X-126.5 Y-145 Z-0.249 I-0.5 J0 F600
X-125.5 Y-145 Z-0.499 I0.5 J0
X-126.5 Y-145 Z-0.749 I-0.5 J0
X-125.5 Y-145 Z-0.999 I0.5 J0
X-126.5 Y-145 Z-1.249 I-0.5 J0
X-125.5 Y-145 Z-1.499 I0.5 J0
X-126.5 Y-145 Z-1.749 I-0.5 J0
X-125.5 Y-145 Z-1.999 I0.5 J0
X-126.5 Y-145 Z-2.249 I-0.5 J0
X-125.5 Y-145 Z-2.499 I0.5 J0
X-126.5 Y-145 I-0.5 J0
X-125.5 Y-145 I0.5 J0
G1 X-125.507 Y-144.954
X-125.529 Y-144.912
X-125.562 Y-144.879
X-125.604 Y-144.857
X-125.65 Y-144.85
X-125.725
X-125.771 Z-2.492
X-125.813 Z-2.471
X-125.846 Z-2.438
X-125.868 Z-2.396
X-125.875 Z-2.349
G0 Z5
Y-165.15
Z2.001
G1 Z0.151 F400
X-125.868 Z0.104
X-125.846 Z0.062
X-125.813 Z0.029
X-125.771 Z0.008
X-125.725 Z0.001
X-125.65
X-125.604 Y-165.143
X-125.562 Y-165.121
X-125.529 Y-165.088
X-125.507 Y-165.046
X-125.5 Y-165
G3 X-126.5 Y-165 Z-0.249 I-0.5 J0 F600
X-125.5 Y-165 Z-0.499 I0.5 J0
X-126.5 Y-165 Z-0.749 I-0.5 J0
X-125.5 Y-165 Z-0.999 I0.5 J0
X-126.5 Y-165 Z-1.249 I-0.5 J0
X-125.5 Y-165 Z-1.499 I0.5 J0
X-126.5 Y-165 Z-1.749 I-0.5 J0
X-125.5 Y-165 Z-1.999 I0.5 J0
X-126.5 Y-165 Z-2.249 I-0.5 J0
X-125.5 Y-165 Z-2.499 I0.5 J0
X-126.5 Y-165 I-0.5 J0
X-125.5 Y-165 I0.5 J0
G1 X-125.507 Y-164.954
X-125.529 Y-164.912
X-125.562 Y-164.879
X-125.604 Y-164.857
X-125.65 Y-164.85
X-125.725
X-125.771 Z-2.492
X-125.813 Z-2.471
X-125.846 Z-2.438
X-125.868 Z-2.396
X-125.875 Z-2.349
G0 Z5
X-145.875 Y-165.15
Z2.001
G1 Z0.151 F400
X-145.868 Z0.104
X-145.846 Z0.062
X-145.813 Z0.029
X-145.771 Z0.008
X-145.725 Z0.001
X-145.65
X-145.604 Y-165.143
X-145.562 Y-165.121
X-145.529 Y-165.088
X-145.507 Y-165.046
X-145.5 Y-165
G3 X-146.5 Y-165 Z-0.249 I-0.5 J0 F600
X-145.5 Y-165 Z-0.499 I0.5 J0
X-146.5 Y-165 Z-0.749 I-0.5 J0
X-145.5 Y-165 Z-0.999 I0.5 J0
X-146.5 Y-165 Z-1.249 I-0.5 J0
X-145.5 Y-165 Z-1.499 I0.5 J0
X-146.5 Y-165 Z-1.749 I-0.5 J0
X-145.5 Y-165 Z-1.999 I0.5 J0
X-146.5 Y-165 Z-2.249 I-0.5 J0
X-145.5 Y-165 Z-2.499 I0.5 J0
X-146.5 Y-165 I-0.5 J0
X-145.5 Y-165 I0.5 J0
G1 X-145.507 Y-164.954
X-145.529 Y-164.912
X-145.562 Y-164.879
X-145.604 Y-164.857
X-145.65 Y-164.85
X-145.725
X-145.771 Z-2.492
X-145.813 Z-2.471
X-145.846 Z-2.438
X-145.868 Z-2.396
X-145.875 Z-2.349
G0 Z15
G28 G91 Z0
G90
G28 G91 X0 Y0
G90
M5
M30
