;FLAVOR:Marlin
;TIME:1148
;Filament used: 1.4415m
;Layer height: 0.12
;MINX:50.002
;MINY:44.504
;MINZ:0.3
;MAXX:69.998
;MAXY:92.48
;MAXZ:16.53
;Generated with Cura_SteamEngine 4.7.1
M104 S225
M105
M109 S225
M82 ;absolute extrusion mode
;Sliced at: Wed 21-04-2021 07:40:38
G21 ;metric values
G90 ;absolute positioning
M82 ;set extruder to absolute mode
M107 ;start with the fan off
G1 Z5.0 F1800 ;move Z to 5mm
G28 X0 Y0 F1800 ;move X/Y to min endstops
G28 Z0 ;move Z to min endstop
G92 E0 ;zero the extruded length
G1 F200 E6.0 ;extrude 6.0mm of feed stock to build pressure
G1 Z5.0 F300 ;move the platform down 5mm
G92 E0 ;zero the extruded length again
G1 F1800
;Put printing message on LCD screen
M117 Printing...
G92 E0
G92 E0
G1 F1500 E-5
;LAYER_COUNT:76
;LAYER:0
M107
G0 F1200 X56.253 Y46.329 Z0.3
;TYPE:SKIRT
G1 F1500 E0.72757
G1 F900 X56.856 Y45.734 E0.77406
G1 X57.196 Y45.463 E0.79792
G1 X57.662 Y45.143 E0.82894
G1 X58.168 Y44.891 E0.85996
G1 X58.939 Y44.648 E0.90432
G1 X59.493 Y44.537 E0.93533
G1 X60.058 Y44.504 E0.96639
G1 X60.621 Y44.552 E0.9974
G1 X61.267 Y44.698 E1.03375
G1 X61.525 Y44.774 E1.04851
G1 X62.05 Y44.984 E1.07954
G1 X62.685 Y45.37 E1.12032
G1 X63.033 Y45.633 E1.14426
G1 X63.454 Y46.01 E1.17527
G1 X63.653 Y46.232 E1.19163
G1 X64.002 Y46.651 E1.22156
G1 X64.347 Y47.134 E1.25413
G1 X64.751 Y47.818 E1.29773
G1 X65.134 Y48.581 E1.34458
G1 X65.214 Y48.76 E1.35534
G1 X65.567 Y49.606 E1.40565
G1 X65.615 Y49.726 E1.41274
G1 X65.85 Y50.345 E1.44908
G1 X66.106 Y51.081 E1.49184
G1 X66.136 Y51.17 E1.497
G1 X66.402 Y52.001 E1.54488
G1 X66.667 Y52.896 E1.59611
G1 X66.933 Y53.862 E1.65109
G1 X67.06 Y54.349 E1.67871
G1 X67.536 Y56.339 E1.791
G1 X67.671 Y56.951 E1.8254
G1 X67.83 Y57.708 E1.86785
G1 X68 Y58.566 E1.91585
G1 X68.196 Y59.612 E1.97425
G1 X68.311 Y60.266 E2.01069
G1 X68.402 Y60.802 E2.04053
G1 X68.481 Y61.314 E2.06896
G1 X68.544 Y61.681 E2.08939
G1 X68.696 Y62.68 E2.14485
G1 X68.794 Y63.37 E2.1831
G1 X68.923 Y64.312 E2.23528
G1 X69.033 Y65.18 E2.28329
G1 X69.048 Y65.317 E2.29085
G1 X69.141 Y66.075 E2.33277
G1 X69.226 Y66.851 E2.37561
G1 X69.309 Y67.643 E2.41931
G1 X69.389 Y68.464 E2.46458
G1 X69.467 Y69.316 E2.51153
G1 X69.556 Y70.385 E2.5704
G1 X69.617 Y71.193 E2.61487
G1 X69.666 Y71.914 E2.65453
G1 X69.738 Y73.057 E2.71738
G1 X69.77 Y73.624 E2.74854
G1 X69.776 Y73.809 E2.7587
G1 X69.844 Y75.136 E2.83162
G1 X69.864 Y75.594 E2.85678
G1 X69.9 Y76.524 E2.90786
G1 X69.929 Y77.46 E2.95925
G1 X69.955 Y78.476 E3.01502
G1 X69.979 Y79.745 E3.08468
G1 X69.992 Y80.819 E3.14362
G1 X69.998 Y81.806 E3.19779
G1 X69.99 Y82.524 E3.2372
G1 X69.966 Y83.097 E3.26867
G1 X69.921 Y83.655 E3.29939
G1 X69.789 Y84.482 E3.34535
G1 X69.673 Y84.98 E3.37341
G1 X69.513 Y85.535 E3.40511
G1 X69.291 Y86.156 E3.4413
G1 X69.02 Y86.784 E3.47884
G1 X68.655 Y87.478 E3.52187
G1 X68.37 Y87.943 E3.5518
G1 X68.05 Y88.406 E3.58269
G1 X67.722 Y88.827 E3.61198
G1 X67.358 Y89.247 E3.64248
G1 X67.005 Y89.612 E3.67034
G1 X66.581 Y90.006 E3.70211
G1 X66.095 Y90.404 E3.73658
G1 X65.519 Y90.818 E3.77551
G1 X64.813 Y91.245 E3.82079
G1 X64.266 Y91.523 E3.85446
G1 X63.565 Y91.823 E3.89631
G1 X62.815 Y92.076 E3.93975
G1 X62.209 Y92.234 E3.97412
G1 X61.543 Y92.363 E4.01135
G1 X60.693 Y92.457 E4.05828
G1 X60.039 Y92.48 E4.09419
G1 X59.352 Y92.46 E4.13191
G1 X58.562 Y92.377 E4.1755
G1 X58.031 Y92.285 E4.20508
G1 X57.504 Y92.164 E4.23475
G1 X56.908 Y91.99 E4.26882
G1 X56.187 Y91.726 E4.31096
G1 X55.463 Y91.39 E4.35476
G1 X54.99 Y91.131 E4.38436
G1 X54.542 Y90.857 E4.41318
G1 X54.003 Y90.479 E4.44931
G1 X53.469 Y90.051 E4.48686
G1 X52.857 Y89.474 E4.53302
G1 X52.426 Y89.002 E4.5681
G1 X51.951 Y88.409 E4.6098
G1 X51.528 Y87.783 E4.65126
G1 X51.237 Y87.282 E4.68306
G1 X51.004 Y86.833 E4.71082
G1 X50.742 Y86.238 E4.74649
G1 X50.504 Y85.593 E4.78422
G1 X50.281 Y84.795 E4.8297
G1 X50.149 Y84.136 E4.86658
G1 X50.055 Y83.434 E4.90545
G1 X50.013 Y82.652 E4.94843
G1 X50.01 Y82.533 E4.95496
G1 X50.002 Y81.733 E4.99886
G1 X50.011 Y80.42 E5.07092
G1 X50.02 Y79.802 E5.10484
G1 X50.046 Y78.442 E5.17949
G1 X50.071 Y77.436 E5.23472
G1 X50.109 Y76.282 E5.29808
G1 X50.138 Y75.54 E5.33883
G1 X50.177 Y74.628 E5.38893
G1 X50.226 Y73.693 E5.44031
G1 X50.28 Y72.753 E5.49198
G1 X50.374 Y71.323 E5.57063
G1 X50.475 Y70 E5.64345
G1 X50.535 Y69.285 E5.68282
G1 X50.612 Y68.447 E5.72901
G1 X50.658 Y67.973 E5.75514
G1 X50.741 Y67.154 E5.80032
G1 X50.825 Y66.384 E5.84282
G1 X50.933 Y65.461 E5.89382
G1 X51.02 Y64.745 E5.93341
G1 X51.155 Y63.723 E5.98998
G1 X51.317 Y62.586 E6.05301
G1 X51.418 Y61.919 E6.09003
G1 X51.515 Y61.314 E6.12365
G1 X51.696 Y60.23 E6.18397
G1 X51.785 Y59.72 E6.21238
G1 X51.914 Y59.02 E6.25144
G1 X52.104 Y58.034 E6.30655
G1 X52.245 Y57.346 E6.34509
G1 X52.377 Y56.73 E6.37966
G1 X52.531 Y56.037 E6.41862
G1 X52.602 Y55.728 E6.43602
G1 X52.751 Y55.096 E6.47166
G1 X52.857 Y54.665 E6.49601
G1 X53.064 Y53.87 E6.5411
G1 X53.355 Y52.813 E6.60126
G1 X53.584 Y52.041 E6.64545
G1 X53.858 Y51.184 E6.69483
G1 X54.089 Y50.512 E6.73383
G1 X54.13 Y50.399 E6.74042
G1 X54.404 Y49.676 E6.78286
G1 X54.452 Y49.555 E6.79
G1 X54.748 Y48.845 E6.83221
G1 X55.014 Y48.265 E6.86723
G1 X55.305 Y47.708 E6.90172
G1 X55.644 Y47.143 E6.93788
G1 X55.93 Y46.752 E6.96447
G0 F810 X56.101 Y46.517
G0 X56.253 Y46.329
G0 F1200 X56.563 Y46.582
G1 F900 X57.105 Y46.047 E7.00626
G1 X57.445 Y45.776 E7.03012
G1 X57.888 Y45.474 E7.05954
G1 X58.371 Y45.241 E7.08897
G1 X59.046 Y45.034 E7.12772
G1 X59.572 Y44.93 E7.15715
G1 X60.107 Y44.905 E7.18654
G1 X60.898 Y45.017 E7.23038
G1 X61.403 Y45.155 E7.25911
G1 X61.9 Y45.356 E7.28853
G1 X62.447 Y45.691 E7.32373
G1 X62.788 Y45.949 E7.3472
G1 X63.346 Y46.488 E7.38978
G1 X63.695 Y46.907 E7.4197
G1 X64.005 Y47.341 E7.44897
G1 X64.404 Y48.017 E7.49205
G1 X64.773 Y48.753 E7.53723
G1 X64.844 Y48.914 E7.54689
G1 X65.241 Y49.868 E7.6036
G1 X65.476 Y50.487 E7.63993
G1 X65.512 Y50.587 E7.64576
G1 X65.755 Y51.292 E7.68669
G1 X66.021 Y52.123 E7.73457
G1 X66.281 Y53.003 E7.78493
G1 X66.546 Y53.963 E7.83958
G1 X66.671 Y54.443 E7.86681
G1 X67.145 Y56.426 E7.9787
G1 X67.28 Y57.032 E8.01277
G1 X67.438 Y57.787 E8.0551
G1 X67.613 Y58.67 E8.1045
G1 X67.802 Y59.681 E8.16094
G1 X67.916 Y60.333 E8.19727
G1 X68.015 Y60.918 E8.22983
G1 X68.136 Y61.665 E8.27136
G1 X68.149 Y61.742 E8.27564
G1 X68.3 Y62.736 E8.33082
G1 X68.398 Y63.424 E8.36896
G1 X68.526 Y64.363 E8.42097
G1 X68.636 Y65.229 E8.46887
G1 X68.651 Y65.366 E8.47644
G1 X68.743 Y66.119 E8.51807
G1 X68.829 Y66.892 E8.56075
G1 X68.911 Y67.682 E8.60434
G1 X68.991 Y68.501 E8.6495
G1 X69.069 Y69.349 E8.69623
G1 X69.157 Y70.415 E8.75493
G1 X69.217 Y71.22 E8.79923
G1 X69.267 Y71.939 E8.83879
G1 X69.338 Y73.079 E8.90147
G1 X69.37 Y73.646 E8.93264
G1 X69.378 Y73.86 E8.94439
G1 X69.445 Y75.153 E9.01544
G1 X69.5 Y76.536 E9.0914
G1 X69.529 Y77.471 E9.14274
G1 X69.555 Y78.484 E9.19835
G1 X69.579 Y79.75 E9.26784
G1 X69.592 Y80.821 E9.32662
G1 X69.598 Y81.801 E9.3804
G1 X69.59 Y82.519 E9.41981
G1 X69.567 Y83.07 E9.45007
G1 X69.525 Y83.605 E9.47952
G1 X69.395 Y84.412 E9.52438
G1 X69.251 Y85.007 E9.55798
G1 X69.063 Y85.624 E9.59337
G1 X68.756 Y86.399 E9.63912
G1 X68.501 Y86.924 E9.67115
G1 X68.184 Y87.489 E9.7067
G1 X67.723 Y88.176 E9.75211
G1 X67.411 Y88.576 E9.77995
G1 X67.057 Y88.984 E9.80959
G1 X66.622 Y89.425 E9.84359
G1 X66.135 Y89.862 E9.8795
G1 X65.493 Y90.351 E9.92378
G1 X64.993 Y90.677 E9.95654
G1 X64.39 Y91.019 E9.99458
G1 X63.672 Y91.349 E10.03795
G1 X63.188 Y91.534 E10.06639
G1 X62.694 Y91.695 E10.0949
G1 X62.129 Y91.842 E10.12694
G1 X61.484 Y91.968 E10.16301
G1 X60.656 Y92.059 E10.20872
G1 X60.045 Y92.08 E10.24227
G1 X59.385 Y92.062 E10.2785
G1 X58.611 Y91.98 E10.32122
G1 X58.106 Y91.892 E10.34935
G1 X57.596 Y91.775 E10.37807
G1 X57.039 Y91.612 E10.40991
G1 X56.349 Y91.36 E10.45023
G1 X55.637 Y91.03 E10.49329
G1 X55.188 Y90.784 E10.52139
G1 X54.753 Y90.517 E10.5494
G1 X54.25 Y90.164 E10.58313
G1 X53.734 Y89.751 E10.6194
G1 X53.136 Y89.188 E10.66447
G1 X52.734 Y88.747 E10.69722
G1 X52.278 Y88.179 E10.73719
G1 X51.862 Y87.563 E10.77798
G1 X51.586 Y87.087 E10.80818
G1 X51.253 Y86.424 E10.8489
G1 X50.964 Y85.7 E10.89168
G1 X50.78 Y85.119 E10.92512
G1 X50.615 Y84.46 E10.96241
G1 X50.483 Y83.658 E11.00701
G1 X50.43 Y83.053 E11.04034
G1 X50.41 Y82.529 E11.06912
G1 X50.402 Y81.736 E11.11264
G1 X50.411 Y80.426 E11.18453
G1 X50.42 Y79.81 E11.21834
G1 X50.446 Y78.452 E11.29288
G1 X50.471 Y77.449 E11.34794
G1 X50.509 Y76.298 E11.41114
G1 X50.537 Y75.558 E11.45178
G1 X50.577 Y74.649 E11.50172
G1 X50.625 Y73.715 E11.55304
G1 X50.679 Y72.779 E11.60449
G1 X50.773 Y71.353 E11.68292
G1 X50.874 Y70.034 E11.75552
G1 X50.934 Y69.321 E11.79479
G1 X51.01 Y68.486 E11.8408
G1 X51.056 Y68.014 E11.86683
G1 X51.139 Y67.197 E11.91189
G1 X51.222 Y66.43 E11.95423
G1 X51.33 Y65.509 E12.00512
G1 X51.417 Y64.797 E12.04448
G1 X51.551 Y63.78 E12.10078
G1 X51.712 Y62.646 E12.16364
G1 X51.813 Y61.982 E12.2005
G1 X51.909 Y61.38 E12.23395
G1 X52.089 Y60.299 E12.29409
G1 X52.179 Y59.792 E12.32235
G1 X52.306 Y59.096 E12.36118
G1 X52.496 Y58.113 E12.41612
G1 X52.636 Y57.43 E12.45438
G1 X52.767 Y56.817 E12.48878
G1 X52.921 Y56.126 E12.52764
G1 X52.991 Y55.82 E12.54486
G1 X53.139 Y55.192 E12.58027
G1 X53.244 Y54.766 E12.60435
G1 X53.45 Y53.976 E12.64915
G1 X53.739 Y52.927 E12.70887
G1 X53.991 Y52.081 E12.75731
G1 X54.264 Y51.23 E12.80636
G1 X54.467 Y50.642 E12.84049
G1 X54.504 Y50.541 E12.8464
G1 X54.778 Y49.818 E12.88883
G1 X54.821 Y49.709 E12.89526
G1 X55.117 Y48.999 E12.93747
G1 X55.369 Y48.448 E12.97073
G1 X55.658 Y47.897 E13.00487
G1 X55.985 Y47.352 E13.03975
G1 X56.24 Y47.004 E13.06343
G0 F810 X56.416 Y46.763
G0 X56.563 Y46.582
G0 F1200 X56.872 Y46.836
G1 F900 X57.354 Y46.36 E13.1006
G1 X57.694 Y46.089 E13.12446
G1 X58.113 Y45.806 E13.15221
G1 X58.572 Y45.592 E13.18
G1 X59.152 Y45.419 E13.21322
G1 X59.649 Y45.324 E13.24099
G1 X60.154 Y45.308 E13.26872
G1 X60.799 Y45.404 E13.3045
G1 X61.28 Y45.536 E13.33188
G1 X61.748 Y45.728 E13.35964
G1 X62.208 Y46.012 E13.38931
G1 X62.543 Y46.264 E13.41231
G1 X63.039 Y46.744 E13.45019
G1 X63.388 Y47.163 E13.48012
G1 X63.853 Y47.86 E13.5261
G1 X64.152 Y48.388 E13.5594
G1 X64.412 Y48.925 E13.59214
G1 X64.475 Y49.068 E13.60072
G1 X64.867 Y50.01 E13.65671
G1 X65.102 Y50.629 E13.69305
G1 X65.35 Y51.342 E13.73447
G1 X65.374 Y51.413 E13.73859
G1 X65.661 Y52.313 E13.79043
G1 X65.896 Y53.109 E13.83598
G1 X66.159 Y54.065 E13.89039
G1 X66.282 Y54.536 E13.91711
G1 X66.755 Y56.512 E14.02861
G1 X66.888 Y57.114 E14.06244
G1 X67.045 Y57.867 E14.10466
G1 X67.215 Y58.719 E14.15234
G1 X67.408 Y59.751 E14.20995
G1 X67.522 Y60.4 E14.24612
G1 X67.62 Y60.979 E14.27834
G1 X67.742 Y61.733 E14.32026
G1 X67.904 Y62.792 E14.37905
G1 X68.002 Y63.478 E14.41708
G1 X68.129 Y64.415 E14.46897
G1 X68.239 Y65.278 E14.51672
G1 X68.258 Y65.446 E14.526
G1 X68.346 Y66.162 E14.56559
G1 X68.431 Y66.934 E14.60821
G1 X68.513 Y67.721 E14.65163
G1 X68.593 Y68.538 E14.69668
G1 X68.67 Y69.382 E14.74319
G1 X68.758 Y70.445 E14.80173
G1 X68.818 Y71.248 E14.84592
G1 X68.868 Y71.964 E14.88531
G1 X68.939 Y73.102 E14.94788
G1 X68.975 Y73.753 E14.98366
G1 X68.979 Y73.891 E14.99124
G1 X69.045 Y75.171 E15.06158
G1 X69.065 Y75.625 E15.08652
G1 X69.101 Y76.549 E15.13727
G1 X69.129 Y77.481 E15.18844
G1 X69.155 Y78.491 E15.24388
G1 X69.179 Y79.755 E15.31326
G1 X69.192 Y80.824 E15.37193
G1 X69.198 Y81.797 E15.42533
G1 X69.19 Y82.515 E15.46474
G1 X69.168 Y83.042 E15.49368
G1 X69.128 Y83.554 E15.52187
G1 X69.001 Y84.342 E15.56567
G1 X68.867 Y84.895 E15.5969
G1 X68.687 Y85.489 E15.63096
G1 X68.387 Y86.244 E15.67554
G1 X68.15 Y86.732 E15.70532
G1 X67.846 Y87.275 E15.73947
G1 X67.396 Y87.946 E15.78381
G1 X67.017 Y88.422 E15.8172
G1 X66.605 Y88.882 E15.85109
G1 X66.039 Y89.417 E15.89383
G1 X65.62 Y89.76 E15.92355
G1 X65.087 Y90.145 E15.95963
G1 X64.409 Y90.555 E16.00311
G1 X63.94 Y90.792 E16.03195
G1 X63.294 Y91.071 E16.07057
G1 X62.572 Y91.314 E16.11237
G1 X62.049 Y91.45 E16.14203
G1 X61.425 Y91.572 E16.17692
G1 X60.619 Y91.66 E16.22142
G1 X60.051 Y91.68 E16.25261
G1 X59.418 Y91.663 E16.28736
G1 X58.66 Y91.583 E16.32919
G1 X58.039 Y91.469 E16.36384
G1 X57.526 Y91.343 E16.39283
G1 X56.752 Y91.089 E16.43753
G1 X56.256 Y90.882 E16.46703
G1 X55.609 Y90.564 E16.50659
G1 X54.963 Y90.177 E16.54792
G1 X54.497 Y89.849 E16.57919
G1 X54 Y89.452 E16.6141
G1 X53.416 Y88.902 E16.65813
G1 X53.042 Y88.492 E16.68858
G1 X52.605 Y87.948 E16.72688
G1 X52.196 Y87.343 E16.76695
G1 X51.936 Y86.893 E16.79547
G1 X51.621 Y86.267 E16.83393
G1 X51.338 Y85.558 E16.87583
G1 X51.167 Y85.018 E16.90691
G1 X51.008 Y84.384 E16.94278
G1 X50.878 Y83.599 E16.98645
G1 X50.83 Y83.037 E17.01741
G1 X50.81 Y82.524 E17.04558
G1 X50.802 Y81.739 E17.08866
G1 X50.811 Y80.431 E17.16045
G1 X50.82 Y79.818 E17.19409
G1 X50.846 Y78.462 E17.26852
G1 X50.871 Y77.462 E17.32342
G1 X50.908 Y76.313 E17.38651
G1 X50.937 Y75.575 E17.42704
G1 X50.976 Y74.669 E17.4768
G1 X51.024 Y73.738 E17.52796
G1 X51.078 Y72.806 E17.5792
G1 X51.172 Y71.384 E17.65741
G1 X51.272 Y70.068 E17.72984
G1 X51.33 Y69.379 E17.76778
G1 X51.408 Y68.524 E17.8149
G1 X51.454 Y68.054 E17.84081
G1 X51.537 Y67.24 E17.88572
G1 X51.62 Y66.477 E17.92784
G1 X51.727 Y65.558 E17.97861
G1 X51.813 Y64.849 E18.01781
G1 X51.947 Y63.836 E18.07388
G1 X52.108 Y62.706 E18.13652
G1 X52.208 Y62.045 E18.17321
G1 X52.304 Y61.445 E18.20656
G1 X52.483 Y60.368 E18.26647
G1 X52.572 Y59.864 E18.29456
G1 X52.699 Y59.172 E18.33317
G1 X52.888 Y58.193 E18.38789
G1 X53.027 Y57.514 E18.42593
G1 X53.158 Y56.903 E18.46022
G1 X53.31 Y56.216 E18.49883
G1 X53.38 Y55.912 E18.51595
G1 X53.528 Y55.287 E18.5512
G1 X53.632 Y54.866 E18.575
G1 X53.835 Y54.082 E18.61944
G1 X54.122 Y53.041 E18.6787
G1 X54.351 Y52.269 E18.7229
G1 X54.642 Y51.361 E18.77522
G1 X54.845 Y50.773 E18.80936
G1 X55.152 Y49.96 E18.85705
G1 X55.19 Y49.863 E18.86277
G1 X55.486 Y49.153 E18.90498
G1 X55.725 Y48.632 E18.93644
G1 X56.01 Y48.087 E18.97019
G1 X56.326 Y47.561 E19.00387
G1 X56.548 Y47.259 E19.02444
G0 F810 X56.731 Y47.01
G0 X56.872 Y46.836
G1 F1500 E14.02444
;MESH:DLG_H??henruder_tr??ger.stl
G0 F1200 X54.725 Y60.099
G0 X56.722 Y60.514
;TYPE:WALL-INNER
G1 F1500 E19.752
G1 F900 X56.841 Y59.872 E19.78784
G1 X56.981 Y59.146 E19.82841
G1 X57.188 Y58.132 E19.88521
G1 X57.305 Y57.593 E19.91548
G1 X57.544 Y56.551 E19.97415
G1 X57.662 Y56.064 E20.00165
G1 X57.784 Y55.579 E20.02909
G1 X58.018 Y54.694 E20.07933
G1 X58.267 Y53.822 E20.1291
G1 X58.499 Y53.067 E20.17244
G1 X58.741 Y52.336 E20.2147
G1 X58.96 Y51.726 E20.25027
G1 X59.18 Y51.166 E20.28329
G1 X59.409 Y50.644 E20.31457
G1 X59.614 Y50.232 E20.33982
G1 X59.81 Y49.901 E20.36093
G1 X59.877 Y49.787 E20.36819
G1 X59.974 Y49.667 E20.37666
G1 X60 Y49.635 E20.37892
G1 X60.026 Y49.667
G1 X60.118 Y49.782 E20.38292
G1 X60.185 Y49.896 E20.39017
G1 X60.39 Y50.242 E20.41224
G1 X60.595 Y50.657 E20.43765
G1 X60.798 Y51.122 E20.46549
G1 X61.032 Y51.711 E20.50027
G1 X61.255 Y52.326 E20.53617
G1 X61.49 Y53.031 E20.57695
G1 X61.728 Y53.809 E20.6216
G1 X61.97 Y54.655 E20.66989
G1 X62.215 Y55.581 E20.72246
G1 X62.337 Y56.062 E20.74969
G1 X62.458 Y56.56 E20.77782
G1 X62.578 Y57.075 E20.80684
G1 X62.704 Y57.644 E20.83882
G1 X62.71 Y57.662 E20.83986
G1 X62.814 Y58.149 E20.86719
G1 X62.93 Y58.701 E20.89815
G1 X63.045 Y59.276 E20.93033
G1 X63.161 Y59.876 E20.96386
G1 X63.271 Y60.48 E20.99756
G1 X63.382 Y61.105 E21.03239
G1 X63.499 Y61.795 E21.0708
G1 X63.598 Y62.407 E21.10482
G1 X63.7 Y63.074 E21.14185
G1 X63.797 Y63.735 E21.17852
G1 X63.897 Y64.454 E21.21835
G1 X63.901 Y64.472 E21.21937
G1 X63.991 Y65.15 E21.2569
G1 X64.085 Y65.902 E21.29849
G1 X64.173 Y66.652 E21.33993
G1 X64.253 Y67.372 E21.37969
G1 X64.333 Y68.13 E21.42152
G1 X64.411 Y68.922 E21.46519
G1 X64.486 Y69.751 E21.51087
G1 X64.555 Y70.573 E21.55614
G1 X64.618 Y71.398 E21.60155
G1 X64.676 Y72.229 E21.64727
G1 X64.732 Y73.095 E21.69489
G1 X64.782 Y73.972 E21.7431
G1 X64.827 Y74.876 E21.79277
G1 X64.867 Y75.79 E21.84298
G1 X64.902 Y76.676 E21.89164
G1 X64.932 Y77.655 E21.94539
G1 X64.934 Y77.665 E21.94595
G1 X64.954 Y78.556 E21.99486
G1 X64.956 Y78.584 E21.9964
G1 X64.975 Y79.539 E22.04882
G1 X64.989 Y80.52 E22.10266
G1 X64.997 Y81.518 E22.15743
G1 X65 Y82.5 E22.21132
