(Lande_rohre)
(Bearbeiten)
(  Hersteller: ChinaCnc)
(  model: 3040T)
(  description: Generic 3-axis)
(T5  D=3.175 CR=0 - ZMIN=-0.5 - Schaftfraser)
G90 G94
G17
G21

(2D-Kontur12)
T5
S6000 M3
G54
G0 X-72.502 Y2.152
Z27
Z17
G1 Z14.5 F333.3
S5000
X-72.532 Y2.209 Z14.498
X-72.659 Y2.418 Z14.489
X-72.794 Y2.615 Z14.481
X-72.935 Y2.8 Z14.473
X-73.08 Y2.971 Z14.465
X-73.226 Y3.128 Z14.457
X-73.375 Y3.273 Z14.45
X-73.532 Y3.41 Z14.443
X-73.693 Y3.539 Z14.436
X-73.859 Y3.66 Z14.429
X-74.028 Y3.772 Z14.421
X-74.197 Y3.874 Z14.415
X-74.366 Y3.967 Z14.408
X-74.533 Y4.049 Z14.401
X-74.697 Y4.121 Z14.395
X-74.859 Y4.185 Z14.389
X-75.018 Y4.24 Z14.383
X-75.172 Y4.287 Z14.377
X-75.319 Y4.327 Z14.372
X-75.458 Y4.36 Z14.367
X-75.586 Y4.386 Z14.363
X-75.705 Y4.407 Z14.358
X-75.742 Y4.412 Z14.357
X-77.074 Z14.311
X-77.111 Y4.407 Z14.309
X-77.229 Y4.386 Z14.305
X-77.358 Y4.36 Z14.3
X-77.497 Y4.327 Z14.295
X-77.644 Y4.287 Z14.29
X-77.798 Y4.24 Z14.285
X-77.957 Y4.185 Z14.279
X-78.119 Y4.121 Z14.273
X-78.283 Y4.049 Z14.266
X-78.45 Y3.967 Z14.26
X-78.619 Y3.874 Z14.253
X-78.788 Y3.772 Z14.246
X-78.957 Y3.66 Z14.239
X-79.122 Y3.539 Z14.232
X-79.284 Y3.41 Z14.225
X-79.44 Y3.273 Z14.217
X-79.59 Y3.128 Z14.21
X-79.736 Y2.971 Z14.203
X-79.881 Y2.8 Z14.195
X-80.022 Y2.615 Z14.187
X-80.156 Y2.418 Z14.178
X-80.283 Y2.209 Z14.17
X-80.4 Y1.993 Z14.161
X-80.505 Y1.767 Z14.153
X-80.599 Y1.531 Z14.144
X-80.68 Y1.287 Z14.135
X-80.748 Y1.037 Z14.126
X-80.801 Y0.782 Z14.117
X-80.839 Y0.522 Z14.107
X-80.862 Y0.261 Z14.098
X-80.87 Y0 Z14.089
X-80.862 Y-0.261 Z14.08
X-80.839 Y-0.522 Z14.071
X-80.801 Y-0.782 Z14.062
X-80.748 Y-1.037 Z14.053
X-80.68 Y-1.287 Z14.044
X-80.599 Y-1.531 Z14.035
X-80.505 Y-1.767 Z14.026
X-80.4 Y-1.993 Z14.017
X-80.283 Y-2.209 Z14.008
X-80.156 Y-2.418 Z14
X-80.022 Y-2.615 Z13.992
X-79.881 Y-2.8 Z13.984
X-79.736 Y-2.971 Z13.976
X-79.59 Y-3.128 Z13.968
X-79.44 Y-3.273 Z13.961
X-79.284 Y-3.41 Z13.954
X-79.122 Y-3.539 Z13.946
X-78.957 Y-3.66 Z13.939
X-78.788 Y-3.772 Z13.932
X-78.619 Y-3.874 Z13.925
X-78.45 Y-3.967 Z13.919
X-78.283 Y-4.049 Z13.912
X-78.119 Y-4.121 Z13.906
X-77.957 Y-4.185 Z13.9
X-77.798 Y-4.24 Z13.894
X-77.644 Y-4.288 Z13.888
X-77.497 Y-4.327 Z13.883
X-77.358 Y-4.36 Z13.878
X-77.229 Y-4.386 Z13.873
X-77.111 Y-4.407 Z13.869
X-77.074 Y-4.412 Z13.868
X-75.742 Z13.821
X-75.705 Y-4.407 Z13.82
X-75.586 Y-4.386 Z13.816
X-75.458 Y-4.36 Z13.811
X-75.319 Y-4.327 Z13.806
X-75.172 Y-4.288 Z13.801
X-75.018 Y-4.24 Z13.795
X-74.859 Y-4.185 Z13.789
X-74.697 Y-4.121 Z13.783
X-74.533 Y-4.049 Z13.777
X-74.366 Y-3.967 Z13.771
X-74.197 Y-3.874 Z13.764
X-74.028 Y-3.772 Z13.757
X-73.859 Y-3.66 Z13.75
X-73.693 Y-3.539 Z13.743
X-73.532 Y-3.41 Z13.736
X-73.375 Y-3.273 Z13.728
X-73.226 Y-3.128 Z13.721
X-73.08 Y-2.971 Z13.713
X-72.935 Y-2.8 Z13.706
X-72.794 Y-2.615 Z13.698
X-72.659 Y-2.418 Z13.689
X-72.532 Y-2.209 Z13.681
X-72.416 Y-1.993 Z13.672
X-72.311 Y-1.767 Z13.663
X-72.217 Y-1.531 Z13.655
X-72.136 Y-1.287 Z13.646
X-72.068 Y-1.037 Z13.636
X-72.015 Y-0.781 Z13.627
X-71.977 Y-0.522 Z13.618
X-71.954 Y-0.261 Z13.609
X-71.946 Y0 Z13.6
X-71.954 Y0.261 Z13.591
X-71.977 Y0.522 Z13.582
X-72.015 Y0.781 Z13.573
X-72.068 Y1.037 Z13.563
X-72.136 Y1.287 Z13.554
X-72.217 Y1.531 Z13.545
X-72.311 Y1.767 Z13.537
X-72.416 Y1.993 Z13.528
X-72.532 Y2.209 Z13.519
X-72.659 Y2.418 Z13.511
X-72.794 Y2.615 Z13.502
X-72.935 Y2.8 Z13.494
X-73.08 Y2.971 Z13.486
X-73.226 Y3.128 Z13.479
X-73.375 Y3.273 Z13.472
X-73.532 Y3.41 Z13.464
X-73.693 Y3.539 Z13.457
X-73.859 Y3.66 Z13.45
X-74.028 Y3.772 Z13.443
X-74.197 Y3.874 Z13.436
X-74.366 Y3.967 Z13.429
X-74.533 Y4.049 Z13.423
X-74.697 Y4.121 Z13.417
X-74.859 Y4.185 Z13.41
X-75.018 Y4.24 Z13.405
X-75.172 Y4.287 Z13.399
X-75.319 Y4.327 Z13.394
X-75.458 Y4.36 Z13.389
X-75.586 Y4.386 Z13.384
X-75.705 Y4.407 Z13.38
X-75.742 Y4.412 Z13.379
X-77.074 Z13.332
X-77.111 Y4.407 Z13.331
X-77.229 Y4.386 Z13.327
X-77.358 Y4.36 Z13.322
X-77.497 Y4.327 Z13.317
X-77.644 Y4.287 Z13.312
X-77.798 Y4.24 Z13.306
X-77.957 Y4.185 Z13.3
X-78.119 Y4.121 Z13.294
X-78.283 Y4.049 Z13.288
X-78.45 Y3.967 Z13.281
X-78.619 Y3.874 Z13.275
X-78.788 Y3.772 Z13.268
X-78.957 Y3.66 Z13.261
X-79.122 Y3.539 Z13.253
X-79.284 Y3.41 Z13.246
X-79.44 Y3.273 Z13.239
X-79.59 Y3.128 Z13.232
X-79.736 Y2.971 Z13.224
X-79.881 Y2.8 Z13.216
X-80.022 Y2.615 Z13.208
X-80.156 Y2.418 Z13.2
X-80.283 Y2.209 Z13.191
X-80.4 Y1.993 Z13.183
X-80.505 Y1.767 Z13.174
X-80.599 Y1.531 Z13.165
X-80.68 Y1.287 Z13.156
X-80.748 Y1.037 Z13.147
X-80.801 Y0.782 Z13.138
X-80.839 Y0.522 Z13.129
X-80.862 Y0.261 Z13.12
X-80.87 Y0 Z13.111
X-80.862 Y-0.261 Z13.102
X-80.839 Y-0.522 Z13.092
X-80.801 Y-0.782 Z13.083
X-80.748 Y-1.037 Z13.074
X-80.68 Y-1.287 Z13.065
X-80.599 Y-1.531 Z13.056
X-80.505 Y-1.767 Z13.047
X-80.4 Y-1.993 Z13.039
X-80.283 Y-2.209 Z13.03
X-80.156 Y-2.418 Z13.021
X-80.022 Y-2.615 Z13.013
X-79.881 Y-2.8 Z13.005
X-79.736 Y-2.971 Z12.997
X-79.59 Y-3.128 Z12.99
X-79.44 Y-3.273 Z12.982
X-79.284 Y-3.41 Z12.975
X-79.122 Y-3.539 Z12.968
X-78.957 Y-3.66 Z12.961
X-78.788 Y-3.772 Z12.954
X-78.619 Y-3.874 Z12.947
X-78.45 Y-3.967 Z12.94
X-78.283 Y-4.049 Z12.934
X-78.119 Y-4.121 Z12.927
X-77.957 Y-4.185 Z12.921
X-77.798 Y-4.24 Z12.915
X-77.644 Y-4.288 Z12.91
X-77.497 Y-4.327 Z12.904
X-77.358 Y-4.36 Z12.899
X-77.229 Y-4.386 Z12.895
X-77.111 Y-4.407 Z12.891
X-77.074 Y-4.412 Z12.889
X-75.742 Z12.843
X-75.705 Y-4.407 Z12.842
X-75.586 Y-4.386 Z12.837
X-75.458 Y-4.36 Z12.833
X-75.319 Y-4.327 Z12.828
X-75.172 Y-4.288 Z12.822
X-75.018 Y-4.24 Z12.817
X-74.859 Y-4.185 Z12.811
X-74.697 Y-4.121 Z12.805
X-74.533 Y-4.049 Z12.799
X-74.366 Y-3.967 Z12.792
X-74.197 Y-3.874 Z12.785
X-74.028 Y-3.772 Z12.778
X-73.859 Y-3.66 Z12.771
X-73.693 Y-3.539 Z12.764
X-73.532 Y-3.41 Z12.757
X-73.375 Y-3.273 Z12.75
X-73.226 Y-3.128 Z12.742
X-73.08 Y-2.971 Z12.735
X-72.935 Y-2.8 Z12.727
X-72.794 Y-2.615 Z12.719
X-72.659 Y-2.418 Z12.711
X-72.532 Y-2.209 Z12.702
X-72.416 Y-1.993 Z12.694
X-72.311 Y-1.767 Z12.685
X-72.217 Y-1.531 Z12.676
X-72.136 Y-1.287 Z12.667
X-72.068 Y-1.037 Z12.658
X-72.015 Y-0.781 Z12.649
X-71.977 Y-0.522 Z12.64
X-71.954 Y-0.261 Z12.631
X-71.946 Y0 Z12.621
X-71.954 Y0.261 Z12.612
X-71.977 Y0.522 Z12.603
X-72.015 Y0.781 Z12.594
X-72.068 Y1.037 Z12.585
X-72.136 Y1.287 Z12.576
X-72.217 Y1.531 Z12.567
X-72.311 Y1.767 Z12.558
X-72.416 Y1.993 Z12.549
X-72.532 Y2.209 Z12.541
X-72.659 Y2.418 Z12.532
X-72.794 Y2.615 Z12.524
X-72.935 Y2.8 Z12.516
X-73.08 Y2.971 Z12.508
X-73.226 Y3.128 Z12.5
X-73.375 Y3.273 Z12.493
X-73.532 Y3.41 Z12.486
X-73.693 Y3.539 Z12.479
X-73.859 Y3.66 Z12.472
X-74.028 Y3.772 Z12.464
X-74.197 Y3.874 Z12.458
X-74.366 Y3.967 Z12.451
X-74.533 Y4.049 Z12.444
X-74.697 Y4.121 Z12.438
X-74.859 Y4.185 Z12.432
X-75.018 Y4.24 Z12.426
X-75.172 Y4.287 Z12.42
X-75.319 Y4.327 Z12.415
X-75.458 Y4.36 Z12.41
X-75.586 Y4.386 Z12.406
X-75.705 Y4.407 Z12.401
X-75.742 Y4.412 Z12.4
X-77.074 Z12.354
X-77.111 Y4.407 Z12.352
X-77.229 Y4.386 Z12.348
X-77.358 Y4.36 Z12.343
X-77.497 Y4.327 Z12.338
X-77.644 Y4.287 Z12.333
X-77.798 Y4.24 Z12.328
X-77.957 Y4.185 Z12.322
X-78.119 Y4.121 Z12.316
X-78.283 Y4.049 Z12.309
X-78.45 Y3.967 Z12.303
X-78.619 Y3.874 Z12.296
X-78.788 Y3.772 Z12.289
X-78.957 Y3.66 Z12.282
X-79.122 Y3.539 Z12.275
X-79.284 Y3.41 Z12.268
X-79.44 Y3.273 Z12.26
X-79.59 Y3.128 Z12.253
X-79.736 Y2.971 Z12.246
X-79.881 Y2.8 Z12.238
X-80.022 Y2.615 Z12.23
X-80.156 Y2.418 Z12.221
X-80.283 Y2.209 Z12.213
X-80.4 Y1.993 Z12.204
X-80.505 Y1.767 Z12.196
X-80.599 Y1.531 Z12.187
X-80.68 Y1.287 Z12.178
X-80.748 Y1.037 Z12.169
X-80.801 Y0.782 Z12.16
X-80.839 Y0.522 Z12.15
X-80.862 Y0.261 Z12.141
X-80.87 Y0 Z12.132
X-80.862 Y-0.261 Z12.123
X-80.839 Y-0.522 Z12.114
X-80.801 Y-0.782 Z12.105
X-80.748 Y-1.037 Z12.096
X-80.68 Y-1.287 Z12.087
X-80.599 Y-1.531 Z12.078
X-80.505 Y-1.767 Z12.069
X-80.4 Y-1.993 Z12.06
X-80.283 Y-2.209 Z12.051
X-80.156 Y-2.418 Z12.043
X-80.022 Y-2.615 Z12.035
X-79.881 Y-2.8 Z12.027
X-79.736 Y-2.971 Z12.019
X-79.59 Y-3.128 Z12.011
X-79.44 Y-3.273 Z12.004
X-79.284 Y-3.41 Z11.997
X-79.122 Y-3.539 Z11.989
X-78.957 Y-3.66 Z11.982
X-78.788 Y-3.772 Z11.975
X-78.619 Y-3.874 Z11.968
X-78.45 Y-3.967 Z11.962
X-78.283 Y-4.049 Z11.955
X-78.119 Y-4.121 Z11.949
X-77.957 Y-4.185 Z11.943
X-77.798 Y-4.24 Z11.937
X-77.644 Y-4.288 Z11.931
X-77.497 Y-4.327 Z11.926
X-77.358 Y-4.36 Z11.921
X-77.229 Y-4.386 Z11.916
X-77.111 Y-4.407 Z11.912
X-77.074 Y-4.412 Z11.911
X-75.742 Z11.864
X-75.705 Y-4.407 Z11.863
X-75.586 Y-4.386 Z11.859
X-75.458 Y-4.36 Z11.854
X-75.319 Y-4.327 Z11.849
X-75.172 Y-4.288 Z11.844
X-75.018 Y-4.24 Z11.838
X-74.859 Y-4.185 Z11.832
X-74.697 Y-4.121 Z11.826
X-74.533 Y-4.049 Z11.82
X-74.366 Y-3.967 Z11.814
X-74.197 Y-3.874 Z11.807
X-74.028 Y-3.772 Z11.8
X-73.859 Y-3.66 Z11.793
X-73.693 Y-3.539 Z11.786
X-73.532 Y-3.41 Z11.779
X-73.375 Y-3.273 Z11.771
X-73.226 Y-3.128 Z11.764
X-73.08 Y-2.971 Z11.757
X-72.935 Y-2.8 Z11.749
X-72.794 Y-2.615 Z11.741
X-72.659 Y-2.418 Z11.732
X-72.532 Y-2.209 Z11.724
X-72.416 Y-1.993 Z11.715
X-72.311 Y-1.767 Z11.706
X-72.217 Y-1.531 Z11.698
X-72.136 Y-1.287 Z11.689
X-72.068 Y-1.037 Z11.679
X-72.015 Y-0.781 Z11.67
X-71.977 Y-0.522 Z11.661
X-71.954 Y-0.261 Z11.652
X-71.946 Y0 Z11.643
X-71.954 Y0.261 Z11.634
X-71.977 Y0.522 Z11.625
X-72.015 Y0.781 Z11.616
X-72.068 Y1.037 Z11.606
X-72.136 Y1.287 Z11.597
X-72.217 Y1.531 Z11.588
X-72.311 Y1.767 Z11.58
X-72.416 Y1.993 Z11.571
X-72.532 Y2.209 Z11.562
X-72.659 Y2.418 Z11.554
X-72.794 Y2.615 Z11.545
X-72.935 Y2.8 Z11.537
X-73.08 Y2.971 Z11.529
X-73.226 Y3.128 Z11.522
X-73.375 Y3.273 Z11.515
X-73.532 Y3.41 Z11.507
X-73.693 Y3.539 Z11.5
X-73.859 Y3.66 Z11.493
X-74.028 Y3.772 Z11.486
X-74.197 Y3.874 Z11.479
X-74.366 Y3.967 Z11.472
X-74.533 Y4.049 Z11.466
X-74.697 Y4.121 Z11.46
X-74.859 Y4.185 Z11.454
X-75.018 Y4.24 Z11.448
X-75.172 Y4.287 Z11.442
X-75.319 Y4.327 Z11.437
X-75.458 Y4.36 Z11.432
X-75.586 Y4.386 Z11.427
X-75.705 Y4.407 Z11.423
X-75.742 Y4.412 Z11.422
X-76.36 Z11.4
S6000
X-77.074 F1000
X-77.111 Y4.407
X-77.229 Y4.386
X-77.358 Y4.36
X-77.497 Y4.327
X-77.644 Y4.287
X-77.798 Y4.24
X-77.957 Y4.185
X-78.119 Y4.121
X-78.283 Y4.049
X-78.45 Y3.967
X-78.619 Y3.874
X-78.788 Y3.772
X-78.957 Y3.66
X-79.122 Y3.539
X-79.284 Y3.41
X-79.44 Y3.273
X-79.59 Y3.128
X-79.736 Y2.971
X-79.881 Y2.8
X-80.022 Y2.615
X-80.156 Y2.418
X-80.283 Y2.209
X-80.4 Y1.993
X-80.505 Y1.767
X-80.599 Y1.531
X-80.68 Y1.287
X-80.748 Y1.037
X-80.801 Y0.782
X-80.839 Y0.522
X-80.862 Y0.261
X-80.87 Y0
X-80.862 Y-0.261
X-80.839 Y-0.522
X-80.801 Y-0.782
X-80.748 Y-1.037
X-80.68 Y-1.287
X-80.599 Y-1.531
X-80.505 Y-1.767
X-80.4 Y-1.993
X-80.283 Y-2.209
X-80.156 Y-2.418
X-80.022 Y-2.615
X-79.881 Y-2.8
X-79.736 Y-2.971
X-79.59 Y-3.128
X-79.44 Y-3.273
X-79.284 Y-3.41
X-79.122 Y-3.539
X-78.957 Y-3.66
X-78.788 Y-3.772
X-78.619 Y-3.874
X-78.45 Y-3.967
X-78.283 Y-4.049
X-78.119 Y-4.121
X-77.957 Y-4.185
X-77.798 Y-4.24
X-77.644 Y-4.288
X-77.497 Y-4.327
X-77.358 Y-4.36
X-77.229 Y-4.386
X-77.111 Y-4.407
X-77.074 Y-4.412
X-75.742
X-75.705 Y-4.407
X-75.586 Y-4.386
X-75.458 Y-4.36
X-75.319 Y-4.327
X-75.172 Y-4.288
X-75.018 Y-4.24
X-74.859 Y-4.185
X-74.697 Y-4.121
X-74.533 Y-4.049
X-74.366 Y-3.967
X-74.197 Y-3.874
X-74.028 Y-3.772
X-73.859 Y-3.66
X-73.693 Y-3.539
X-73.532 Y-3.41
X-73.375 Y-3.273
X-73.226 Y-3.128
X-73.08 Y-2.971
X-72.935 Y-2.8
X-72.794 Y-2.615
X-72.659 Y-2.418
X-72.532 Y-2.209
X-72.416 Y-1.993
X-72.311 Y-1.767
X-72.217 Y-1.531
X-72.136 Y-1.287
X-72.068 Y-1.037
X-72.015 Y-0.781
X-71.977 Y-0.522
X-71.954 Y-0.261
X-71.946 Y0
X-71.954 Y0.261
X-71.977 Y0.522
X-72.015 Y0.781
X-72.068 Y1.037
X-72.136 Y1.287
X-72.217 Y1.531
X-72.311 Y1.767
X-72.416 Y1.993
X-72.532 Y2.209
X-72.659 Y2.418
X-72.794 Y2.615
X-72.935 Y2.8
X-73.08 Y2.971
X-73.226 Y3.128
X-73.375 Y3.273
X-73.532 Y3.41
X-73.693 Y3.539
X-73.859 Y3.66
X-74.028 Y3.772
X-74.197 Y3.874
X-74.366 Y3.967
X-74.533 Y4.049
X-74.697 Y4.121
X-74.859 Y4.185
X-75.018 Y4.24
X-75.172 Y4.287
X-75.319 Y4.327
X-75.458 Y4.36
X-75.586 Y4.386
X-75.705 Y4.407
X-75.742 Y4.412
X-76.36
S5000
X-77.074 Z11.375 F333.3
X-77.111 Y4.407 Z11.374
X-77.229 Y4.386 Z11.37
X-77.358 Y4.36 Z11.365
X-77.497 Y4.327 Z11.36
X-77.644 Y4.287 Z11.355
X-77.798 Y4.24 Z11.349
X-77.957 Y4.185 Z11.343
X-78.119 Y4.121 Z11.337
X-78.283 Y4.049 Z11.331
X-78.45 Y3.967 Z11.324
X-78.619 Y3.874 Z11.318
X-78.788 Y3.772 Z11.311
X-78.957 Y3.66 Z11.304
X-79.122 Y3.539 Z11.296
X-79.284 Y3.41 Z11.289
X-79.44 Y3.273 Z11.282
X-79.59 Y3.128 Z11.275
X-79.736 Y2.971 Z11.267
X-79.881 Y2.8 Z11.259
X-80.022 Y2.615 Z11.251
X-80.156 Y2.418 Z11.243
X-80.283 Y2.209 Z11.234
X-80.4 Y1.993 Z11.226
X-80.505 Y1.767 Z11.217
X-80.599 Y1.531 Z11.208
X-80.68 Y1.287 Z11.199
X-80.748 Y1.037 Z11.19
X-80.801 Y0.782 Z11.181
X-80.839 Y0.522 Z11.172
X-80.862 Y0.261 Z11.163
X-80.87 Y0 Z11.154
X-80.862 Y-0.261 Z11.145
X-80.839 Y-0.522 Z11.135
X-80.801 Y-0.782 Z11.126
X-80.748 Y-1.037 Z11.117
X-80.68 Y-1.287 Z11.108
X-80.599 Y-1.531 Z11.099
X-80.505 Y-1.767 Z11.09
X-80.4 Y-1.993 Z11.082
X-80.283 Y-2.209 Z11.073
X-80.156 Y-2.418 Z11.064
X-80.022 Y-2.615 Z11.056
X-79.881 Y-2.8 Z11.048
X-79.736 Y-2.971 Z11.04
X-79.59 Y-3.128 Z11.033
X-79.44 Y-3.273 Z11.025
X-79.284 Y-3.41 Z11.018
X-79.122 Y-3.539 Z11.011
X-78.957 Y-3.66 Z11.004
X-78.788 Y-3.772 Z10.997
X-78.619 Y-3.874 Z10.99
X-78.45 Y-3.967 Z10.983
X-78.283 Y-4.049 Z10.977
X-78.119 Y-4.121 Z10.97
X-77.957 Y-4.185 Z10.964
X-77.798 Y-4.24 Z10.958
X-77.644 Y-4.288 Z10.953
X-77.497 Y-4.327 Z10.947
X-77.358 Y-4.36 Z10.942
X-77.229 Y-4.386 Z10.938
X-77.111 Y-4.407 Z10.934
X-77.074 Y-4.412 Z10.932
X-75.742 Z10.886
X-75.705 Y-4.407 Z10.885
X-75.586 Y-4.386 Z10.88
X-75.458 Y-4.36 Z10.876
X-75.319 Y-4.327 Z10.871
X-75.172 Y-4.288 Z10.865
X-75.018 Y-4.24 Z10.86
X-74.859 Y-4.185 Z10.854
X-74.697 Y-4.121 Z10.848
X-74.533 Y-4.049 Z10.842
X-74.366 Y-3.967 Z10.835
X-74.197 Y-3.874 Z10.828
X-74.028 Y-3.772 Z10.821
X-73.859 Y-3.66 Z10.814
X-73.693 Y-3.539 Z10.807
X-73.532 Y-3.41 Z10.8
X-73.531
S6000
X-73.375 Y-3.273 F1000
X-73.226 Y-3.128
X-73.08 Y-2.971
X-72.935 Y-2.8
X-72.794 Y-2.615
X-72.659 Y-2.418
X-72.532 Y-2.209
X-72.416 Y-1.993
X-72.311 Y-1.767
X-72.217 Y-1.531
X-72.136 Y-1.287
X-72.068 Y-1.037
X-72.015 Y-0.781
X-71.977 Y-0.522
X-71.954 Y-0.261
X-71.946 Y0
X-71.954 Y0.261
X-71.977 Y0.522
X-72.015 Y0.781
X-72.068 Y1.037
X-72.136 Y1.287
X-72.217 Y1.531
X-72.311 Y1.767
X-72.416 Y1.993
X-72.532 Y2.209
X-72.659 Y2.418
X-72.794 Y2.615
X-72.935 Y2.8
X-73.08 Y2.971
X-73.226 Y3.128
X-73.375 Y3.273
X-73.532 Y3.41
X-73.693 Y3.539
X-73.859 Y3.66
X-74.028 Y3.772
X-74.197 Y3.874
X-74.366 Y3.967
X-74.533 Y4.049
X-74.697 Y4.121
X-74.859 Y4.185
X-75.018 Y4.24
X-75.172 Y4.287
X-75.319 Y4.327
X-75.458 Y4.36
X-75.586 Y4.386
X-75.705 Y4.407
X-75.742 Y4.412
X-77.074
X-77.111 Y4.407
X-77.229 Y4.386
X-77.358 Y4.36
X-77.497 Y4.327
X-77.644 Y4.287
X-77.798 Y4.24
X-77.957 Y4.185
X-78.119 Y4.121
X-78.283 Y4.049
X-78.45 Y3.967
X-78.619 Y3.874
X-78.788 Y3.772
X-78.957 Y3.66
X-79.122 Y3.539
X-79.284 Y3.41
X-79.44 Y3.273
X-79.59 Y3.128
X-79.736 Y2.971
X-79.881 Y2.8
X-80.022 Y2.615
X-80.156 Y2.418
X-80.283 Y2.209
X-80.4 Y1.993
X-80.505 Y1.767
X-80.599 Y1.531
X-80.68 Y1.287
X-80.748 Y1.037
X-80.801 Y0.782
X-80.839 Y0.522
X-80.862 Y0.261
X-80.87 Y0
X-80.862 Y-0.261
X-80.839 Y-0.522
X-80.801 Y-0.782
X-80.748 Y-1.037
X-80.68 Y-1.287
X-80.599 Y-1.531
X-80.505 Y-1.767
X-80.4 Y-1.993
X-80.283 Y-2.209
X-80.156 Y-2.418
X-80.022 Y-2.615
X-79.881 Y-2.8
X-79.736 Y-2.971
X-79.59 Y-3.128
X-79.44 Y-3.273
X-79.284 Y-3.41
X-79.122 Y-3.539
X-78.957 Y-3.66
X-78.788 Y-3.772
X-78.619 Y-3.874
X-78.45 Y-3.967
X-78.283 Y-4.049
X-78.119 Y-4.121
X-77.957 Y-4.185
X-77.798 Y-4.24
X-77.644 Y-4.288
X-77.497 Y-4.327
X-77.358 Y-4.36
X-77.229 Y-4.386
X-77.111 Y-4.407
X-77.074 Y-4.412
X-75.742
X-75.705 Y-4.407
X-75.586 Y-4.386
X-75.458 Y-4.36
X-75.319 Y-4.327
X-75.172 Y-4.288
X-75.018 Y-4.24
X-74.859 Y-4.185
X-74.697 Y-4.121
X-74.533 Y-4.049
X-74.366 Y-3.967
X-74.197 Y-3.874
X-74.028 Y-3.772
X-73.859 Y-3.66
X-73.693 Y-3.539
X-73.532 Y-3.41
X-73.531
S5000
X-73.375 Y-3.273 Z10.793 F333.3
X-73.226 Y-3.128 Z10.785
X-73.08 Y-2.971 Z10.778
X-72.935 Y-2.8 Z10.77
X-72.794 Y-2.615 Z10.762
X-72.659 Y-2.418 Z10.754
X-72.532 Y-2.209 Z10.745
X-72.416 Y-1.993 Z10.737
X-72.311 Y-1.767 Z10.728
X-72.217 Y-1.531 Z10.719
X-72.136 Y-1.287 Z10.71
X-72.068 Y-1.037 Z10.701
X-72.015 Y-0.781 Z10.692
X-71.977 Y-0.522 Z10.683
X-71.954 Y-0.261 Z10.674
X-71.946 Y0 Z10.664
X-71.954 Y0.261 Z10.655
X-71.977 Y0.522 Z10.646
X-72.015 Y0.781 Z10.637
X-72.068 Y1.037 Z10.628
X-72.136 Y1.287 Z10.619
X-72.217 Y1.531 Z10.61
X-72.311 Y1.767 Z10.601
X-72.416 Y1.993 Z10.592
X-72.532 Y2.209 Z10.584
X-72.659 Y2.418 Z10.575
X-72.794 Y2.615 Z10.567
X-72.935 Y2.8 Z10.559
X-73.08 Y2.971 Z10.551
X-73.226 Y3.128 Z10.543
X-73.375 Y3.273 Z10.536
X-73.532 Y3.41 Z10.529
X-73.693 Y3.539 Z10.522
X-73.859 Y3.66 Z10.515
X-74.028 Y3.772 Z10.507
X-74.197 Y3.874 Z10.501
X-74.366 Y3.967 Z10.494
X-74.533 Y4.049 Z10.487
X-74.697 Y4.121 Z10.481
X-74.859 Y4.185 Z10.475
X-75.018 Y4.24 Z10.469
X-75.172 Y4.287 Z10.464
X-75.319 Y4.327 Z10.458
X-75.458 Y4.36 Z10.453
X-75.586 Y4.386 Z10.449
X-75.705 Y4.407 Z10.444
X-75.742 Y4.412 Z10.443
X-77.074 Z10.397
X-77.111 Y4.407 Z10.395
X-77.229 Y4.386 Z10.391
X-77.358 Y4.36 Z10.387
X-77.497 Y4.327 Z10.382
X-77.644 Y4.287 Z10.376
X-77.798 Y4.24 Z10.371
X-77.957 Y4.185 Z10.365
X-78.119 Y4.121 Z10.359
X-78.283 Y4.049 Z10.352
X-78.45 Y3.967 Z10.346
X-78.619 Y3.874 Z10.339
X-78.788 Y3.772 Z10.332
X-78.957 Y3.66 Z10.325
X-79.122 Y3.539 Z10.318
X-79.284 Y3.41 Z10.311
X-79.44 Y3.273 Z10.304
X-79.59 Y3.128 Z10.296
X-79.736 Y2.971 Z10.289
X-79.881 Y2.8 Z10.281
X-80.022 Y2.615 Z10.273
X-80.156 Y2.418 Z10.264
X-80.283 Y2.209 Z10.256
X-80.4 Y1.993 Z10.247
X-80.505 Y1.767 Z10.239
X-80.599 Y1.531 Z10.23
X-80.68 Y1.287 Z10.221
X-80.748 Y1.037 Z10.212
X-80.801 Y0.782 Z10.203
X-80.812 Y0.706 Z10.2
S6000
X-80.839 Y0.522 F1000
X-80.862 Y0.261
X-80.87 Y0
X-80.862 Y-0.261
X-80.839 Y-0.522
X-80.801 Y-0.782
X-80.748 Y-1.037
X-80.68 Y-1.287
X-80.599 Y-1.531
X-80.505 Y-1.767
X-80.4 Y-1.993
X-80.283 Y-2.209
X-80.156 Y-2.418
X-80.022 Y-2.615
X-79.881 Y-2.8
X-79.736 Y-2.971
X-79.59 Y-3.128
X-79.44 Y-3.273
X-79.284 Y-3.41
X-79.122 Y-3.539
X-78.957 Y-3.66
X-78.788 Y-3.772
X-78.619 Y-3.874
X-78.45 Y-3.967
X-78.283 Y-4.049
X-78.119 Y-4.121
X-77.957 Y-4.185
X-77.798 Y-4.24
X-77.644 Y-4.288
X-77.497 Y-4.327
X-77.358 Y-4.36
X-77.229 Y-4.386
X-77.111 Y-4.407
X-77.074 Y-4.412
X-75.742
X-75.705 Y-4.407
X-75.586 Y-4.386
X-75.458 Y-4.36
X-75.319 Y-4.327
X-75.172 Y-4.288
X-75.018 Y-4.24
X-74.859 Y-4.185
X-74.697 Y-4.121
X-74.533 Y-4.049
X-74.366 Y-3.967
X-74.197 Y-3.874
X-74.028 Y-3.772
X-73.859 Y-3.66
X-73.693 Y-3.539
X-73.532 Y-3.41
X-73.375 Y-3.273
X-73.226 Y-3.128
X-73.08 Y-2.971
X-72.935 Y-2.8
X-72.794 Y-2.615
X-72.659 Y-2.418
X-72.532 Y-2.209
X-72.416 Y-1.993
X-72.311 Y-1.767
X-72.217 Y-1.531
X-72.136 Y-1.287
X-72.068 Y-1.037
X-72.015 Y-0.781
X-71.977 Y-0.522
X-71.954 Y-0.261
X-71.946 Y0
X-71.954 Y0.261
X-71.977 Y0.522
X-72.015 Y0.781
X-72.068 Y1.037
X-72.136 Y1.287
X-72.217 Y1.531
X-72.311 Y1.767
X-72.416 Y1.993
X-72.532 Y2.209
X-72.659 Y2.418
X-72.794 Y2.615
X-72.935 Y2.8
X-73.08 Y2.971
X-73.226 Y3.128
X-73.375 Y3.273
X-73.532 Y3.41
X-73.693 Y3.539
X-73.859 Y3.66
X-74.028 Y3.772
X-74.197 Y3.874
X-74.366 Y3.967
X-74.533 Y4.049
X-74.697 Y4.121
X-74.859 Y4.185
X-75.018 Y4.24
X-75.172 Y4.287
X-75.319 Y4.327
X-75.458 Y4.36
X-75.586 Y4.386
X-75.705 Y4.407
X-75.742 Y4.412
X-77.074
X-77.111 Y4.407
X-77.229 Y4.386
X-77.358 Y4.36
X-77.497 Y4.327
X-77.644 Y4.287
X-77.798 Y4.24
X-77.957 Y4.185
X-78.119 Y4.121
X-78.283 Y4.049
X-78.45 Y3.967
X-78.619 Y3.874
X-78.788 Y3.772
X-78.957 Y3.66
X-79.122 Y3.539
X-79.284 Y3.41
X-79.44 Y3.273
X-79.59 Y3.128
X-79.736 Y2.971
X-79.881 Y2.8
X-80.022 Y2.615
X-80.156 Y2.418
X-80.283 Y2.209
X-80.4 Y1.993
X-80.505 Y1.767
X-80.599 Y1.531
X-80.68 Y1.287
X-80.748 Y1.037
X-80.801 Y0.782
X-80.812 Y0.706
S5000
X-80.839 Y0.522 Z10.194 F333.3
X-80.862 Y0.261 Z10.184
X-80.87 Y0 Z10.175
X-80.862 Y-0.261 Z10.166
X-80.839 Y-0.522 Z10.157
X-80.801 Y-0.782 Z10.148
X-80.748 Y-1.037 Z10.139
X-80.68 Y-1.287 Z10.13
X-80.599 Y-1.531 Z10.121
X-80.505 Y-1.767 Z10.112
X-80.4 Y-1.993 Z10.103
X-80.283 Y-2.209 Z10.095
X-80.156 Y-2.418 Z10.086
X-80.022 Y-2.615 Z10.078
X-79.881 Y-2.8 Z10.07
X-79.736 Y-2.971 Z10.062
X-79.59 Y-3.128 Z10.054
X-79.44 Y-3.273 Z10.047
X-79.284 Y-3.41 Z10.04
X-79.122 Y-3.539 Z10.032
X-78.957 Y-3.66 Z10.025
X-78.788 Y-3.772 Z10.018
X-78.619 Y-3.874 Z10.011
X-78.45 Y-3.967 Z10.005
X-78.283 Y-4.049 Z9.998
X-78.119 Y-4.121 Z9.992
X-77.957 Y-4.185 Z9.986
X-77.798 Y-4.24 Z9.98
X-77.644 Y-4.288 Z9.974
X-77.497 Y-4.327 Z9.969
X-77.358 Y-4.36 Z9.964
X-77.229 Y-4.386 Z9.959
X-77.111 Y-4.407 Z9.955
X-77.074 Y-4.412 Z9.954
X-75.742 Z9.907
X-75.705 Y-4.407 Z9.906
X-75.586 Y-4.386 Z9.902
X-75.458 Y-4.36 Z9.897
X-75.319 Y-4.327 Z9.892
X-75.172 Y-4.288 Z9.887
X-75.018 Y-4.24 Z9.881
X-74.859 Y-4.185 Z9.875
X-74.697 Y-4.121 Z9.869
X-74.533 Y-4.049 Z9.863
X-74.366 Y-3.967 Z9.857
X-74.197 Y-3.874 Z9.85
X-74.028 Y-3.772 Z9.843
X-73.859 Y-3.66 Z9.836
X-73.693 Y-3.539 Z9.829
X-73.532 Y-3.41 Z9.822
X-73.375 Y-3.273 Z9.814
X-73.226 Y-3.128 Z9.807
X-73.08 Y-2.971 Z9.8
X-72.935 Y-2.8 Z9.792
X-72.794 Y-2.615 Z9.784
X-72.659 Y-2.418 Z9.775
X-72.532 Y-2.209 Z9.767
X-72.416 Y-1.993 Z9.758
X-72.311 Y-1.767 Z9.749
X-72.217 Y-1.531 Z9.741
X-72.136 Y-1.287 Z9.732
X-72.068 Y-1.037 Z9.723
X-72.015 Y-0.781 Z9.713
X-71.977 Y-0.522 Z9.704
X-71.954 Y-0.261 Z9.695
X-71.946 Y0 Z9.686
X-71.954 Y0.261 Z9.677
X-71.977 Y0.522 Z9.668
X-72.015 Y0.781 Z9.659
X-72.068 Y1.037 Z9.649
X-72.136 Y1.287 Z9.64
X-72.217 Y1.531 Z9.631
X-72.311 Y1.767 Z9.623
X-72.416 Y1.993 Z9.614
X-72.532 Y2.209 Z9.605
X-72.611 Y2.338 Z9.6
S6000
X-72.659 Y2.418 F1000
X-72.794 Y2.615
X-72.935 Y2.8
X-73.08 Y2.971
X-73.226 Y3.128
X-73.375 Y3.273
X-73.532 Y3.41
X-73.693 Y3.539
X-73.859 Y3.66
X-74.028 Y3.772
X-74.197 Y3.874
X-74.366 Y3.967
X-74.533 Y4.049
X-74.697 Y4.121
X-74.859 Y4.185
X-75.018 Y4.24
X-75.172 Y4.287
X-75.319 Y4.327
X-75.458 Y4.36
X-75.586 Y4.386
X-75.705 Y4.407
X-75.742 Y4.412
X-77.074
X-77.111 Y4.407
X-77.229 Y4.386
X-77.358 Y4.36
X-77.497 Y4.327
X-77.644 Y4.287
X-77.798 Y4.24
X-77.957 Y4.185
X-78.119 Y4.121
X-78.283 Y4.049
X-78.45 Y3.967
X-78.619 Y3.874
X-78.788 Y3.772
X-78.957 Y3.66
X-79.122 Y3.539
X-79.284 Y3.41
X-79.44 Y3.273
X-79.59 Y3.128
X-79.736 Y2.971
X-79.881 Y2.8
X-80.022 Y2.615
X-80.156 Y2.418
X-80.283 Y2.209
X-80.4 Y1.993
X-80.505 Y1.767
X-80.599 Y1.531
X-80.68 Y1.287
X-80.748 Y1.037
X-80.801 Y0.782
X-80.839 Y0.522
X-80.862 Y0.261
X-80.87 Y0
X-80.862 Y-0.261
X-80.839 Y-0.522
X-80.801 Y-0.782
X-80.748 Y-1.037
X-80.68 Y-1.287
X-80.599 Y-1.531
X-80.505 Y-1.767
X-80.4 Y-1.993
X-80.283 Y-2.209
X-80.156 Y-2.418
X-80.022 Y-2.615
X-79.881 Y-2.8
X-79.736 Y-2.971
X-79.59 Y-3.128
X-79.44 Y-3.273
X-79.284 Y-3.41
X-79.122 Y-3.539
X-78.957 Y-3.66
X-78.788 Y-3.772
X-78.619 Y-3.874
X-78.45 Y-3.967
X-78.283 Y-4.049
X-78.119 Y-4.121
X-77.957 Y-4.185
X-77.798 Y-4.24
X-77.644 Y-4.288
X-77.497 Y-4.327
X-77.358 Y-4.36
X-77.229 Y-4.386
X-77.111 Y-4.407
X-77.074 Y-4.412
X-75.742
X-75.705 Y-4.407
X-75.586 Y-4.386
X-75.458 Y-4.36
X-75.319 Y-4.327
X-75.172 Y-4.288
X-75.018 Y-4.24
X-74.859 Y-4.185
X-74.697 Y-4.121
X-74.533 Y-4.049
X-74.366 Y-3.967
X-74.197 Y-3.874
X-74.028 Y-3.772
X-73.859 Y-3.66
X-73.693 Y-3.539
X-73.532 Y-3.41
X-73.375 Y-3.273
X-73.226 Y-3.128
X-73.08 Y-2.971
X-72.935 Y-2.8
X-72.794 Y-2.615
X-72.659 Y-2.418
X-72.532 Y-2.209
X-72.416 Y-1.993
X-72.311 Y-1.767
X-72.217 Y-1.531
X-72.136 Y-1.287
X-72.068 Y-1.037
X-72.015 Y-0.781
X-71.977 Y-0.522
X-71.954 Y-0.261
X-71.946 Y0
X-71.954 Y0.261
X-71.977 Y0.522
X-72.015 Y0.781
X-72.068 Y1.037
X-72.136 Y1.287
X-72.217 Y1.531
X-72.311 Y1.767
X-72.416 Y1.993
X-72.532 Y2.209
X-72.611 Y2.338
S5000
X-72.659 Y2.418 Z9.597 F333.3
X-72.794 Y2.615 Z9.588
X-72.935 Y2.8 Z9.58
X-73.08 Y2.971 Z9.572
X-73.226 Y3.128 Z9.565
X-73.375 Y3.273 Z9.558
X-73.532 Y3.41 Z9.55
X-73.693 Y3.539 Z9.543
X-73.859 Y3.66 Z9.536
X-74.028 Y3.772 Z9.529
X-74.197 Y3.874 Z9.522
X-74.366 Y3.967 Z9.515
X-74.533 Y4.049 Z9.509
X-74.697 Y4.121 Z9.503
X-74.859 Y4.185 Z9.497
X-75.018 Y4.24 Z9.491
X-75.172 Y4.287 Z9.485
X-75.319 Y4.327 Z9.48
X-75.458 Y4.36 Z9.475
X-75.586 Y4.386 Z9.47
X-75.705 Y4.407 Z9.466
X-75.742 Y4.412 Z9.465
X-77.074 Z9.418
X-77.111 Y4.407 Z9.417
X-77.229 Y4.386 Z9.413
X-77.358 Y4.36 Z9.408
X-77.497 Y4.327 Z9.403
X-77.644 Y4.287 Z9.398
X-77.798 Y4.24 Z9.392
X-77.957 Y4.185 Z9.386
X-78.119 Y4.121 Z9.38
X-78.283 Y4.049 Z9.374
X-78.45 Y3.967 Z9.367
X-78.619 Y3.874 Z9.361
X-78.788 Y3.772 Z9.354
X-78.957 Y3.66 Z9.347
X-79.122 Y3.539 Z9.34
X-79.284 Y3.41 Z9.332
X-79.44 Y3.273 Z9.325
X-79.59 Y3.128 Z9.318
X-79.736 Y2.971 Z9.31
X-79.881 Y2.8 Z9.302
X-80.022 Y2.615 Z9.294
X-80.156 Y2.418 Z9.286
X-80.283 Y2.209 Z9.277
X-80.4 Y1.993 Z9.269
X-80.505 Y1.767 Z9.26
X-80.599 Y1.531 Z9.251
X-80.68 Y1.287 Z9.242
X-80.748 Y1.037 Z9.233
X-80.801 Y0.782 Z9.224
X-80.839 Y0.522 Z9.215
X-80.862 Y0.261 Z9.206
X-80.87 Y0 Z9.197
X-80.862 Y-0.261 Z9.188
X-80.839 Y-0.522 Z9.178
X-80.801 Y-0.782 Z9.169
X-80.748 Y-1.037 Z9.16
X-80.68 Y-1.287 Z9.151
X-80.599 Y-1.531 Z9.142
X-80.505 Y-1.767 Z9.133
X-80.4 Y-1.993 Z9.125
X-80.283 Y-2.209 Z9.116
X-80.156 Y-2.418 Z9.108
X-80.022 Y-2.615 Z9.099
X-79.881 Y-2.8 Z9.091
X-79.736 Y-2.971 Z9.083
X-79.59 Y-3.128 Z9.076
X-79.44 Y-3.273 Z9.068
X-79.284 Y-3.41 Z9.061
X-79.122 Y-3.539 Z9.054
X-78.957 Y-3.66 Z9.047
X-78.788 Y-3.772 Z9.04
X-78.619 Y-3.874 Z9.033
X-78.45 Y-3.967 Z9.026
X-78.283 Y-4.049 Z9.02
X-78.119 Y-4.121 Z9.013
X-77.957 Y-4.185 Z9.007
X-77.798 Y-4.24 Z9.001
X-77.76 Y-4.252 Z9
S6000
X-77.644 Y-4.288 F1000
X-77.497 Y-4.327
X-77.358 Y-4.36
X-77.229 Y-4.386
X-77.111 Y-4.407
X-77.074 Y-4.412
X-75.742
X-75.705 Y-4.407
X-75.586 Y-4.386
X-75.458 Y-4.36
X-75.319 Y-4.327
X-75.172 Y-4.288
X-75.018 Y-4.24
X-74.859 Y-4.185
X-74.697 Y-4.121
X-74.533 Y-4.049
X-74.366 Y-3.967
X-74.197 Y-3.874
X-74.028 Y-3.772
X-73.859 Y-3.66
X-73.693 Y-3.539
X-73.532 Y-3.41
X-73.375 Y-3.273
X-73.226 Y-3.128
X-73.08 Y-2.971
X-72.935 Y-2.8
X-72.794 Y-2.615
X-72.659 Y-2.418
X-72.532 Y-2.209
X-72.416 Y-1.993
X-72.311 Y-1.767
X-72.217 Y-1.531
X-72.136 Y-1.287
X-72.068 Y-1.037
X-72.015 Y-0.781
X-71.977 Y-0.522
X-71.954 Y-0.261
X-71.946 Y0
X-71.954 Y0.261
X-71.977 Y0.522
X-72.015 Y0.781
X-72.068 Y1.037
X-72.136 Y1.287
X-72.217 Y1.531
X-72.311 Y1.767
X-72.416 Y1.993
X-72.532 Y2.209
X-72.611 Y2.338
X-72.659 Y2.418
X-72.794 Y2.615
X-72.935 Y2.8
X-73.08 Y2.971
X-73.226 Y3.128
X-73.375 Y3.273
X-73.532 Y3.41
X-73.693 Y3.539
X-73.859 Y3.66
X-74.028 Y3.772
X-74.197 Y3.874
X-74.366 Y3.967
X-74.533 Y4.049
X-74.697 Y4.121
X-74.859 Y4.185
X-75.018 Y4.24
X-75.172 Y4.287
X-75.319 Y4.327
X-75.458 Y4.36
X-75.586 Y4.386
X-75.705 Y4.407
X-75.742 Y4.412
X-77.074
X-77.111 Y4.407
X-77.229 Y4.386
X-77.358 Y4.36
X-77.497 Y4.327
X-77.644 Y4.287
X-77.798 Y4.24
X-77.957 Y4.185
X-78.119 Y4.121
X-78.283 Y4.049
X-78.45 Y3.967
X-78.619 Y3.874
X-78.788 Y3.772
X-78.957 Y3.66
X-79.122 Y3.539
X-79.284 Y3.41
X-79.44 Y3.273
X-79.59 Y3.128
X-79.736 Y2.971
X-79.881 Y2.8
X-80.022 Y2.615
X-80.156 Y2.418
X-80.283 Y2.209
X-80.4 Y1.993
X-80.505 Y1.767
X-80.599 Y1.531
X-80.68 Y1.287
X-80.748 Y1.037
X-80.801 Y0.782
X-80.839 Y0.522
X-80.862 Y0.261
X-80.87 Y0
X-80.862 Y-0.261
X-80.839 Y-0.522
X-80.801 Y-0.782
X-80.748 Y-1.037
X-80.68 Y-1.287
X-80.599 Y-1.531
X-80.505 Y-1.767
X-80.4 Y-1.993
X-80.283 Y-2.209
X-80.156 Y-2.418
X-80.022 Y-2.615
X-79.881 Y-2.8
X-79.736 Y-2.971
X-79.59 Y-3.128
X-79.44 Y-3.273
X-79.284 Y-3.41
X-79.122 Y-3.539
X-78.957 Y-3.66
X-78.788 Y-3.772
X-78.619 Y-3.874
X-78.45 Y-3.967
X-78.283 Y-4.049
X-78.119 Y-4.121
X-77.957 Y-4.185
X-77.798 Y-4.24
X-77.76 Y-4.252
S5000
X-77.644 Y-4.288 Z8.996 F333.3
X-77.497 Y-4.327 Z8.99
X-77.358 Y-4.36 Z8.985
X-77.229 Y-4.386 Z8.981
X-77.111 Y-4.407 Z8.977
X-77.074 Y-4.412 Z8.975
X-75.742 Z8.929
X-75.705 Y-4.407 Z8.928
X-75.586 Y-4.386 Z8.923
X-75.458 Y-4.36 Z8.919
X-75.319 Y-4.327 Z8.914
X-75.172 Y-4.288 Z8.908
X-75.018 Y-4.24 Z8.903
X-74.859 Y-4.185 Z8.897
X-74.697 Y-4.121 Z8.891
X-74.533 Y-4.049 Z8.885
X-74.366 Y-3.967 Z8.878
X-74.197 Y-3.874 Z8.871
X-74.028 Y-3.772 Z8.864
X-73.859 Y-3.66 Z8.857
X-73.693 Y-3.539 Z8.85
X-73.532 Y-3.41 Z8.843
X-73.375 Y-3.273 Z8.836
X-73.226 Y-3.128 Z8.828
X-73.08 Y-2.971 Z8.821
X-72.935 Y-2.8 Z8.813
X-72.794 Y-2.615 Z8.805
X-72.659 Y-2.418 Z8.797
X-72.532 Y-2.209 Z8.788
X-72.416 Y-1.993 Z8.78
X-72.311 Y-1.767 Z8.771
X-72.217 Y-1.531 Z8.762
X-72.136 Y-1.287 Z8.753
X-72.068 Y-1.037 Z8.744
X-72.015 Y-0.781 Z8.735
X-71.977 Y-0.522 Z8.726
X-71.954 Y-0.261 Z8.717
X-71.946 Y0 Z8.707
X-71.954 Y0.261 Z8.698
X-71.977 Y0.522 Z8.689
X-72.015 Y0.781 Z8.68
X-72.068 Y1.037 Z8.671
X-72.136 Y1.287 Z8.662
X-72.217 Y1.531 Z8.653
X-72.311 Y1.767 Z8.644
X-72.416 Y1.993 Z8.635
X-72.532 Y2.209 Z8.627
X-72.659 Y2.418 Z8.618
X-72.794 Y2.615 Z8.61
X-72.935 Y2.8 Z8.602
X-73.08 Y2.971 Z8.594
X-73.226 Y3.128 Z8.586
X-73.375 Y3.273 Z8.579
X-73.532 Y3.41 Z8.572
X-73.693 Y3.539 Z8.565
X-73.859 Y3.66 Z8.558
X-74.028 Y3.772 Z8.55
X-74.197 Y3.874 Z8.544
X-74.366 Y3.967 Z8.537
X-74.533 Y4.049 Z8.53
X-74.697 Y4.121 Z8.524
X-74.859 Y4.185 Z8.518
X-75.018 Y4.24 Z8.512
X-75.172 Y4.287 Z8.507
X-75.319 Y4.327 Z8.501
X-75.458 Y4.36 Z8.496
X-75.586 Y4.386 Z8.492
X-75.705 Y4.407 Z8.487
X-75.742 Y4.412 Z8.486
X-77.074 Z8.44
X-77.111 Y4.407 Z8.438
X-77.229 Y4.386 Z8.434
X-77.358 Y4.36 Z8.43
X-77.497 Y4.327 Z8.425
X-77.644 Y4.287 Z8.419
X-77.798 Y4.24 Z8.414
X-77.957 Y4.185 Z8.408
X-78.119 Y4.121 Z8.402
X-78.162 Y4.102 Z8.4
S6000
X-78.283 Y4.049 F1000
X-78.45 Y3.967
X-78.619 Y3.874
X-78.788 Y3.772
X-78.957 Y3.66
X-79.122 Y3.539
X-79.284 Y3.41
X-79.44 Y3.273
X-79.59 Y3.128
X-79.736 Y2.971
X-79.881 Y2.8
X-80.022 Y2.615
X-80.156 Y2.418
X-80.283 Y2.209
X-80.4 Y1.993
X-80.505 Y1.767
X-80.599 Y1.531
X-80.68 Y1.287
X-80.748 Y1.037
X-80.801 Y0.782
X-80.839 Y0.522
X-80.862 Y0.261
X-80.87 Y0
X-80.862 Y-0.261
X-80.839 Y-0.522
X-80.801 Y-0.782
X-80.748 Y-1.037
X-80.68 Y-1.287
X-80.599 Y-1.531
X-80.505 Y-1.767
X-80.4 Y-1.993
X-80.283 Y-2.209
X-80.156 Y-2.418
X-80.022 Y-2.615
X-79.881 Y-2.8
X-79.736 Y-2.971
X-79.59 Y-3.128
X-79.44 Y-3.273
X-79.284 Y-3.41
X-79.122 Y-3.539
X-78.957 Y-3.66
X-78.788 Y-3.772
X-78.619 Y-3.874
X-78.45 Y-3.967
X-78.283 Y-4.049
X-78.119 Y-4.121
X-77.957 Y-4.185
X-77.798 Y-4.24
X-77.644 Y-4.288
X-77.497 Y-4.327
X-77.358 Y-4.36
X-77.229 Y-4.386
X-77.111 Y-4.407
X-77.074 Y-4.412
X-75.742
X-75.705 Y-4.407
X-75.586 Y-4.386
X-75.458 Y-4.36
X-75.319 Y-4.327
X-75.172 Y-4.288
X-75.018 Y-4.24
X-74.859 Y-4.185
X-74.697 Y-4.121
X-74.533 Y-4.049
X-74.366 Y-3.967
X-74.197 Y-3.874
X-74.028 Y-3.772
X-73.859 Y-3.66
X-73.693 Y-3.539
X-73.532 Y-3.41
X-73.375 Y-3.273
X-73.226 Y-3.128
X-73.08 Y-2.971
X-72.935 Y-2.8
X-72.794 Y-2.615
X-72.659 Y-2.418
X-72.532 Y-2.209
X-72.416 Y-1.993
X-72.311 Y-1.767
X-72.217 Y-1.531
X-72.136 Y-1.287
X-72.068 Y-1.037
X-72.015 Y-0.781
X-71.977 Y-0.522
X-71.954 Y-0.261
X-71.946 Y0
X-71.954 Y0.261
X-71.977 Y0.522
X-72.015 Y0.781
X-72.068 Y1.037
X-72.136 Y1.287
X-72.217 Y1.531
X-72.311 Y1.767
X-72.416 Y1.993
X-72.532 Y2.209
X-72.659 Y2.418
X-72.794 Y2.615
X-72.935 Y2.8
X-73.08 Y2.971
X-73.226 Y3.128
X-73.375 Y3.273
X-73.532 Y3.41
X-73.693 Y3.539
X-73.859 Y3.66
X-74.028 Y3.772
X-74.197 Y3.874
X-74.366 Y3.967
X-74.533 Y4.049
X-74.697 Y4.121
X-74.859 Y4.185
X-75.018 Y4.24
X-75.172 Y4.287
X-75.319 Y4.327
X-75.458 Y4.36
X-75.586 Y4.386
X-75.705 Y4.407
X-75.742 Y4.412
X-77.074
X-77.111 Y4.407
X-77.229 Y4.386
X-77.358 Y4.36
X-77.497 Y4.327
X-77.644 Y4.287
X-77.798 Y4.24
X-77.957 Y4.185
X-78.119 Y4.121
X-78.162 Y4.102
S5000
X-78.283 Y4.049 Z8.395 F333.3
X-78.45 Y3.967 Z8.389
X-78.619 Y3.874 Z8.382
X-78.788 Y3.772 Z8.375
X-78.957 Y3.66 Z8.368
X-79.122 Y3.539 Z8.361
X-79.284 Y3.41 Z8.354
X-79.44 Y3.273 Z8.347
X-79.59 Y3.128 Z8.339
X-79.736 Y2.971 Z8.332
X-79.881 Y2.8 Z8.324
X-80.022 Y2.615 Z8.316
X-80.156 Y2.418 Z8.307
X-80.283 Y2.209 Z8.299
X-80.4 Y1.993 Z8.29
X-80.505 Y1.767 Z8.282
X-80.599 Y1.531 Z8.273
X-80.68 Y1.287 Z8.264
X-80.748 Y1.037 Z8.255
X-80.801 Y0.782 Z8.246
X-80.839 Y0.522 Z8.237
X-80.862 Y0.261 Z8.227
X-80.87 Y0 Z8.218
X-80.862 Y-0.261 Z8.209
X-80.839 Y-0.522 Z8.2
X-80.801 Y-0.782 Z8.191
X-80.748 Y-1.037 Z8.182
X-80.68 Y-1.287 Z8.173
X-80.599 Y-1.531 Z8.164
X-80.505 Y-1.767 Z8.155
X-80.4 Y-1.993 Z8.146
X-80.283 Y-2.209 Z8.138
X-80.156 Y-2.418 Z8.129
X-80.022 Y-2.615 Z8.121
X-79.881 Y-2.8 Z8.113
X-79.736 Y-2.971 Z8.105
X-79.59 Y-3.128 Z8.097
X-79.44 Y-3.273 Z8.09
X-79.284 Y-3.41 Z8.083
X-79.122 Y-3.539 Z8.075
X-78.957 Y-3.66 Z8.068
X-78.788 Y-3.772 Z8.061
X-78.619 Y-3.874 Z8.054
X-78.45 Y-3.967 Z8.048
X-78.283 Y-4.049 Z8.041
X-78.119 Y-4.121 Z8.035
X-77.957 Y-4.185 Z8.029
X-77.798 Y-4.24 Z8.023
X-77.644 Y-4.288 Z8.017
X-77.497 Y-4.327 Z8.012
X-77.358 Y-4.36 Z8.007
X-77.229 Y-4.386 Z8.002
X-77.111 Y-4.407 Z7.998
X-77.074 Y-4.412 Z7.997
X-75.742 Z7.95
X-75.705 Y-4.407 Z7.949
X-75.586 Y-4.386 Z7.945
X-75.458 Y-4.36 Z7.94
X-75.319 Y-4.327 Z7.935
X-75.172 Y-4.288 Z7.93
X-75.018 Y-4.24 Z7.924
X-74.859 Y-4.185 Z7.918
X-74.697 Y-4.121 Z7.912
X-74.533 Y-4.049 Z7.906
X-74.366 Y-3.967 Z7.9
X-74.197 Y-3.874 Z7.893
X-74.028 Y-3.772 Z7.886
X-73.859 Y-3.66 Z7.879
X-73.693 Y-3.539 Z7.872
X-73.532 Y-3.41 Z7.865
X-73.375 Y-3.273 Z7.857
X-73.226 Y-3.128 Z7.85
X-73.08 Y-2.971 Z7.843
X-72.935 Y-2.8 Z7.835
X-72.794 Y-2.615 Z7.827
X-72.659 Y-2.418 Z7.818
X-72.532 Y-2.209 Z7.81
X-72.416 Y-1.993 Z7.801
X-72.402 Y-1.964 Z7.8
S6000
X-72.311 Y-1.767 F1000
X-72.217 Y-1.531
X-72.136 Y-1.287
X-72.068 Y-1.037
X-72.015 Y-0.781
X-71.977 Y-0.522
X-71.954 Y-0.261
X-71.946 Y0
X-71.954 Y0.261
X-71.977 Y0.522
X-72.015 Y0.781
X-72.068 Y1.037
X-72.136 Y1.287
X-72.217 Y1.531
X-72.311 Y1.767
X-72.416 Y1.993
X-72.532 Y2.209
X-72.659 Y2.418
X-72.794 Y2.615
X-72.935 Y2.8
X-73.08 Y2.971
X-73.226 Y3.128
X-73.375 Y3.273
X-73.532 Y3.41
X-73.693 Y3.539
X-73.859 Y3.66
X-74.028 Y3.772
X-74.197 Y3.874
X-74.366 Y3.967
X-74.533 Y4.049
X-74.697 Y4.121
X-74.859 Y4.185
X-75.018 Y4.24
X-75.172 Y4.287
X-75.319 Y4.327
X-75.458 Y4.36
X-75.586 Y4.386
X-75.705 Y4.407
X-75.742 Y4.412
X-77.074
X-77.111 Y4.407
X-77.229 Y4.386
X-77.358 Y4.36
X-77.497 Y4.327
X-77.644 Y4.287
X-77.798 Y4.24
X-77.957 Y4.185
X-78.119 Y4.121
X-78.283 Y4.049
X-78.45 Y3.967
X-78.619 Y3.874
X-78.788 Y3.772
X-78.957 Y3.66
X-79.122 Y3.539
X-79.284 Y3.41
X-79.44 Y3.273
X-79.59 Y3.128
X-79.736 Y2.971
X-79.881 Y2.8
X-80.022 Y2.615
X-80.156 Y2.418
X-80.283 Y2.209
X-80.4 Y1.993
X-80.505 Y1.767
X-80.599 Y1.531
X-80.68 Y1.287
X-80.748 Y1.037
X-80.801 Y0.782
X-80.839 Y0.522
X-80.862 Y0.261
X-80.87 Y0
X-80.862 Y-0.261
X-80.839 Y-0.522
X-80.801 Y-0.782
X-80.748 Y-1.037
X-80.68 Y-1.287
X-80.599 Y-1.531
X-80.505 Y-1.767
X-80.4 Y-1.993
X-80.283 Y-2.209
X-80.156 Y-2.418
X-80.022 Y-2.615
X-79.881 Y-2.8
X-79.736 Y-2.971
X-79.59 Y-3.128
X-79.44 Y-3.273
X-79.284 Y-3.41
X-79.122 Y-3.539
X-78.957 Y-3.66
X-78.788 Y-3.772
X-78.619 Y-3.874
X-78.45 Y-3.967
X-78.283 Y-4.049
X-78.119 Y-4.121
X-77.957 Y-4.185
X-77.798 Y-4.24
X-77.644 Y-4.288
X-77.497 Y-4.327
X-77.358 Y-4.36
X-77.229 Y-4.386
X-77.111 Y-4.407
X-77.074 Y-4.412
X-75.742
X-75.705 Y-4.407
X-75.586 Y-4.386
X-75.458 Y-4.36
X-75.319 Y-4.327
X-75.172 Y-4.288
X-75.018 Y-4.24
X-74.859 Y-4.185
X-74.697 Y-4.121
X-74.533 Y-4.049
X-74.366 Y-3.967
X-74.197 Y-3.874
X-74.028 Y-3.772
X-73.859 Y-3.66
X-73.693 Y-3.539
X-73.532 Y-3.41
X-73.375 Y-3.273
X-73.226 Y-3.128
X-73.08 Y-2.971
X-72.935 Y-2.8
X-72.794 Y-2.615
X-72.659 Y-2.418
X-72.532 Y-2.209
X-72.416 Y-1.993
X-72.402 Y-1.964
S5000
X-72.311 Y-1.767 Z7.792 F333.3
X-72.217 Y-1.531 Z7.784
X-72.136 Y-1.287 Z7.775
X-72.068 Y-1.037 Z7.766
X-72.015 Y-0.781 Z7.756
X-71.977 Y-0.522 Z7.747
X-71.954 Y-0.261 Z7.738
X-71.946 Y0 Z7.729
X-71.954 Y0.261 Z7.72
X-71.977 Y0.522 Z7.711
X-72.015 Y0.781 Z7.702
X-72.068 Y1.037 Z7.692
X-72.136 Y1.287 Z7.683
X-72.217 Y1.531 Z7.674
X-72.311 Y1.767 Z7.666
X-72.416 Y1.993 Z7.657
X-72.532 Y2.209 Z7.648
X-72.659 Y2.418 Z7.64
X-72.794 Y2.615 Z7.631
X-72.935 Y2.8 Z7.623
X-73.08 Y2.971 Z7.615
X-73.226 Y3.128 Z7.608
X-73.375 Y3.273 Z7.601
X-73.532 Y3.41 Z7.593
X-73.693 Y3.539 Z7.586
X-73.859 Y3.66 Z7.579
X-74.028 Y3.772 Z7.572
X-74.197 Y3.874 Z7.565
X-74.366 Y3.967 Z7.558
X-74.533 Y4.049 Z7.552
X-74.697 Y4.121 Z7.546
X-74.859 Y4.185 Z7.54
X-75.018 Y4.24 Z7.534
X-75.172 Y4.287 Z7.528
X-75.319 Y4.327 Z7.523
X-75.458 Y4.36 Z7.518
X-75.586 Y4.386 Z7.513
X-75.705 Y4.407 Z7.509
X-75.742 Y4.412 Z7.508
X-77.074 Z7.461
X-77.111 Y4.407 Z7.46
X-77.229 Y4.386 Z7.456
X-77.358 Y4.36 Z7.451
X-77.497 Y4.327 Z7.446
X-77.644 Y4.287 Z7.441
X-77.798 Y4.24 Z7.435
X-77.957 Y4.185 Z7.429
X-78.119 Y4.121 Z7.423
X-78.283 Y4.049 Z7.417
X-78.45 Y3.967 Z7.41
X-78.619 Y3.874 Z7.404
X-78.788 Y3.772 Z7.397
X-78.957 Y3.66 Z7.39
X-79.122 Y3.539 Z7.383
X-79.284 Y3.41 Z7.375
X-79.44 Y3.273 Z7.368
X-79.59 Y3.128 Z7.361
X-79.736 Y2.971 Z7.353
X-79.881 Y2.8 Z7.345
X-80.022 Y2.615 Z7.337
X-80.156 Y2.418 Z7.329
X-80.283 Y2.209 Z7.32
X-80.4 Y1.993 Z7.312
X-80.505 Y1.767 Z7.303
X-80.599 Y1.531 Z7.294
X-80.68 Y1.287 Z7.285
X-80.748 Y1.037 Z7.276
X-80.801 Y0.782 Z7.267
X-80.839 Y0.522 Z7.258
X-80.862 Y0.261 Z7.249
X-80.87 Y0 Z7.24
X-80.862 Y-0.261 Z7.231
X-80.839 Y-0.522 Z7.221
X-80.801 Y-0.782 Z7.212
X-80.748 Y-1.037 Z7.203
X-80.724 Y-1.126 Z7.2
S6000
X-80.68 Y-1.287 F1000
X-80.599 Y-1.531
X-80.505 Y-1.767
X-80.4 Y-1.993
X-80.283 Y-2.209
X-80.156 Y-2.418
X-80.022 Y-2.615
X-79.881 Y-2.8
X-79.736 Y-2.971
X-79.59 Y-3.128
X-79.44 Y-3.273
X-79.284 Y-3.41
X-79.122 Y-3.539
X-78.957 Y-3.66
X-78.788 Y-3.772
X-78.619 Y-3.874
X-78.45 Y-3.967
X-78.283 Y-4.049
X-78.119 Y-4.121
X-77.957 Y-4.185
X-77.798 Y-4.24
X-77.644 Y-4.288
X-77.497 Y-4.327
X-77.358 Y-4.36
X-77.229 Y-4.386
X-77.111 Y-4.407
X-77.074 Y-4.412
X-75.742
X-75.705 Y-4.407
X-75.586 Y-4.386
X-75.458 Y-4.36
X-75.319 Y-4.327
X-75.172 Y-4.288
X-75.018 Y-4.24
X-74.859 Y-4.185
X-74.697 Y-4.121
X-74.533 Y-4.049
X-74.366 Y-3.967
X-74.197 Y-3.874
X-74.028 Y-3.772
X-73.859 Y-3.66
X-73.693 Y-3.539
X-73.532 Y-3.41
X-73.375 Y-3.273
X-73.226 Y-3.128
X-73.08 Y-2.971
X-72.935 Y-2.8
X-72.794 Y-2.615
X-72.659 Y-2.418
X-72.532 Y-2.209
X-72.416 Y-1.993
X-72.311 Y-1.767
X-72.217 Y-1.531
X-72.136 Y-1.287
X-72.068 Y-1.037
X-72.015 Y-0.781
X-71.977 Y-0.522
X-71.954 Y-0.261
X-71.946 Y0
X-71.954 Y0.261
X-71.977 Y0.522
X-72.015 Y0.781
X-72.068 Y1.037
X-72.136 Y1.287
X-72.217 Y1.531
X-72.311 Y1.767
X-72.416 Y1.993
X-72.532 Y2.209
X-72.659 Y2.418
X-72.794 Y2.615
X-72.935 Y2.8
X-73.08 Y2.971
X-73.226 Y3.128
X-73.375 Y3.273
X-73.532 Y3.41
X-73.693 Y3.539
X-73.859 Y3.66
X-74.028 Y3.772
X-74.197 Y3.874
X-74.366 Y3.967
X-74.533 Y4.049
X-74.697 Y4.121
X-74.859 Y4.185
X-75.018 Y4.24
X-75.172 Y4.287
X-75.319 Y4.327
X-75.458 Y4.36
X-75.586 Y4.386
X-75.705 Y4.407
X-75.742 Y4.412
X-77.074
X-77.111 Y4.407
X-77.229 Y4.386
X-77.358 Y4.36
X-77.497 Y4.327
X-77.644 Y4.287
X-77.798 Y4.24
X-77.957 Y4.185
X-78.119 Y4.121
X-78.283 Y4.049
X-78.45 Y3.967
X-78.619 Y3.874
X-78.788 Y3.772
X-78.957 Y3.66
X-79.122 Y3.539
X-79.284 Y3.41
X-79.44 Y3.273
X-79.59 Y3.128
X-79.736 Y2.971
X-79.881 Y2.8
X-80.022 Y2.615
X-80.156 Y2.418
X-80.283 Y2.209
X-80.4 Y1.993
X-80.505 Y1.767
X-80.599 Y1.531
X-80.68 Y1.287
X-80.748 Y1.037
X-80.801 Y0.782
X-80.839 Y0.522
X-80.862 Y0.261
X-80.87 Y0
X-80.862 Y-0.261
X-80.839 Y-0.522
X-80.801 Y-0.782
X-80.748 Y-1.037
X-80.724 Y-1.126
S5000
X-80.68 Y-1.287 Z7.194 F333.3
X-80.599 Y-1.531 Z7.185
X-80.505 Y-1.767 Z7.176
X-80.4 Y-1.993 Z7.168
X-80.283 Y-2.209 Z7.159
X-80.156 Y-2.418 Z7.151
X-80.022 Y-2.615 Z7.142
X-79.881 Y-2.8 Z7.134
X-79.736 Y-2.971 Z7.126
X-79.59 Y-3.128 Z7.119
X-79.44 Y-3.273 Z7.111
X-79.284 Y-3.41 Z7.104
X-79.122 Y-3.539 Z7.097
X-78.957 Y-3.66 Z7.09
X-78.788 Y-3.772 Z7.083
X-78.619 Y-3.874 Z7.076
X-78.45 Y-3.967 Z7.069
X-78.283 Y-4.049 Z7.063
X-78.119 Y-4.121 Z7.056
X-77.957 Y-4.185 Z7.05
X-77.798 Y-4.24 Z7.044
X-77.644 Y-4.288 Z7.039
X-77.497 Y-4.327 Z7.033
X-77.358 Y-4.36 Z7.028
X-77.229 Y-4.386 Z7.024
X-77.111 Y-4.407 Z7.02
X-77.074 Y-4.412 Z7.018
X-75.742 Z6.972
X-75.705 Y-4.407 Z6.971
X-75.586 Y-4.386 Z6.966
X-75.458 Y-4.36 Z6.962
X-75.319 Y-4.327 Z6.957
X-75.172 Y-4.288 Z6.951
X-75.018 Y-4.24 Z6.946
X-74.859 Y-4.185 Z6.94
X-74.697 Y-4.121 Z6.934
X-74.533 Y-4.049 Z6.928
X-74.366 Y-3.967 Z6.921
X-74.197 Y-3.874 Z6.914
X-74.028 Y-3.772 Z6.907
X-73.859 Y-3.66 Z6.9
X-73.693 Y-3.539 Z6.893
X-73.532 Y-3.41 Z6.886
X-73.375 Y-3.273 Z6.879
X-73.226 Y-3.128 Z6.872
X-73.08 Y-2.971 Z6.864
X-72.935 Y-2.8 Z6.856
X-72.794 Y-2.615 Z6.848
X-72.659 Y-2.418 Z6.84
X-72.532 Y-2.209 Z6.831
X-72.416 Y-1.993 Z6.823
X-72.311 Y-1.767 Z6.814
X-72.217 Y-1.531 Z6.805
X-72.136 Y-1.287 Z6.796
X-72.068 Y-1.037 Z6.787
X-72.015 Y-0.781 Z6.778
X-71.977 Y-0.522 Z6.769
X-71.954 Y-0.261 Z6.76
X-71.946 Y0 Z6.75
X-71.954 Y0.261 Z6.741
X-71.977 Y0.522 Z6.732
X-72.015 Y0.781 Z6.723
X-72.068 Y1.037 Z6.714
X-72.136 Y1.287 Z6.705
X-72.217 Y1.531 Z6.696
X-72.311 Y1.767 Z6.687
X-72.416 Y1.993 Z6.678
X-72.532 Y2.209 Z6.67
X-72.659 Y2.418 Z6.661
X-72.794 Y2.615 Z6.653
X-72.935 Y2.8 Z6.645
X-73.08 Y2.971 Z6.637
X-73.226 Y3.128 Z6.629
X-73.375 Y3.273 Z6.622
X-73.532 Y3.41 Z6.615
X-73.693 Y3.539 Z6.608
X-73.859 Y3.66 Z6.601
X-73.872 Y3.669 Z6.6
S6000
X-74.028 Y3.772 F1000
X-74.197 Y3.874
X-74.366 Y3.967
X-74.533 Y4.049
X-74.697 Y4.121
X-74.859 Y4.185
X-75.018 Y4.24
X-75.172 Y4.287
X-75.319 Y4.327
X-75.458 Y4.36
X-75.586 Y4.386
X-75.705 Y4.407
X-75.742 Y4.412
X-77.074
X-77.111 Y4.407
X-77.229 Y4.386
X-77.358 Y4.36
X-77.497 Y4.327
X-77.644 Y4.287
X-77.798 Y4.24
X-77.957 Y4.185
X-78.119 Y4.121
X-78.283 Y4.049
X-78.45 Y3.967
X-78.619 Y3.874
X-78.788 Y3.772
X-78.957 Y3.66
X-79.122 Y3.539
X-79.284 Y3.41
X-79.44 Y3.273
X-79.59 Y3.128
X-79.736 Y2.971
X-79.881 Y2.8
X-80.022 Y2.615
X-80.156 Y2.418
X-80.283 Y2.209
X-80.4 Y1.993
X-80.505 Y1.767
X-80.599 Y1.531
X-80.68 Y1.287
X-80.748 Y1.037
X-80.801 Y0.782
X-80.839 Y0.522
X-80.862 Y0.261
X-80.87 Y0
X-80.862 Y-0.261
X-80.839 Y-0.522
X-80.801 Y-0.782
X-80.748 Y-1.037
X-80.68 Y-1.287
X-80.599 Y-1.531
X-80.505 Y-1.767
X-80.4 Y-1.993
X-80.283 Y-2.209
X-80.156 Y-2.418
X-80.022 Y-2.615
X-79.881 Y-2.8
X-79.736 Y-2.971
X-79.59 Y-3.128
X-79.44 Y-3.273
X-79.284 Y-3.41
X-79.122 Y-3.539
X-78.957 Y-3.66
X-78.788 Y-3.772
X-78.619 Y-3.874
X-78.45 Y-3.967
X-78.283 Y-4.049
X-78.119 Y-4.121
X-77.957 Y-4.185
X-77.798 Y-4.24
X-77.644 Y-4.288
X-77.497 Y-4.327
X-77.358 Y-4.36
X-77.229 Y-4.386
X-77.111 Y-4.407
X-77.074 Y-4.412
X-75.742
X-75.705 Y-4.407
X-75.586 Y-4.386
X-75.458 Y-4.36
X-75.319 Y-4.327
X-75.172 Y-4.288
X-75.018 Y-4.24
X-74.859 Y-4.185
X-74.697 Y-4.121
X-74.533 Y-4.049
X-74.366 Y-3.967
X-74.197 Y-3.874
X-74.028 Y-3.772
X-73.859 Y-3.66
X-73.693 Y-3.539
X-73.532 Y-3.41
X-73.375 Y-3.273
X-73.226 Y-3.128
X-73.08 Y-2.971
X-72.935 Y-2.8
X-72.794 Y-2.615
X-72.659 Y-2.418
X-72.532 Y-2.209
X-72.416 Y-1.993
X-72.311 Y-1.767
X-72.217 Y-1.531
X-72.136 Y-1.287
X-72.068 Y-1.037
X-72.015 Y-0.781
X-71.977 Y-0.522
X-71.954 Y-0.261
X-71.946 Y0
X-71.954 Y0.261
X-71.977 Y0.522
X-72.015 Y0.781
X-72.068 Y1.037
X-72.136 Y1.287
X-72.217 Y1.531
X-72.311 Y1.767
X-72.416 Y1.993
X-72.532 Y2.209
X-72.659 Y2.418
X-72.794 Y2.615
X-72.935 Y2.8
X-73.08 Y2.971
X-73.226 Y3.128
X-73.375 Y3.273
X-73.532 Y3.41
X-73.693 Y3.539
X-73.859 Y3.66
X-73.872 Y3.669
S5000
X-74.028 Y3.772 Z6.593 F333.3
X-74.197 Y3.874 Z6.587
X-74.366 Y3.967 Z6.58
X-74.533 Y4.049 Z6.573
X-74.697 Y4.121 Z6.567
X-74.859 Y4.185 Z6.561
X-75.018 Y4.24 Z6.555
X-75.172 Y4.287 Z6.55
X-75.319 Y4.327 Z6.544
X-75.458 Y4.36 Z6.539
X-75.586 Y4.386 Z6.535
X-75.705 Y4.407 Z6.53
X-75.742 Y4.412 Z6.529
X-77.074 Z6.483
X-77.111 Y4.407 Z6.481
X-77.229 Y4.386 Z6.477
X-77.358 Y4.36 Z6.473
X-77.497 Y4.327 Z6.468
X-77.644 Y4.287 Z6.462
X-77.798 Y4.24 Z6.457
X-77.957 Y4.185 Z6.451
X-78.119 Y4.121 Z6.445
X-78.283 Y4.049 Z6.438
X-78.45 Y3.967 Z6.432
X-78.619 Y3.874 Z6.425
X-78.788 Y3.772 Z6.418
X-78.957 Y3.66 Z6.411
X-79.122 Y3.539 Z6.404
X-79.284 Y3.41 Z6.397
X-79.44 Y3.273 Z6.39
X-79.59 Y3.128 Z6.382
X-79.736 Y2.971 Z6.375
X-79.881 Y2.8 Z6.367
X-80.022 Y2.615 Z6.359
X-80.156 Y2.418 Z6.35
X-80.283 Y2.209 Z6.342
X-80.4 Y1.993 Z6.333
X-80.505 Y1.767 Z6.325
X-80.599 Y1.531 Z6.316
X-80.68 Y1.287 Z6.307
X-80.748 Y1.037 Z6.298
X-80.801 Y0.782 Z6.289
X-80.839 Y0.522 Z6.28
X-80.862 Y0.261 Z6.27
X-80.87 Y0 Z6.261
X-80.862 Y-0.261 Z6.252
X-80.839 Y-0.522 Z6.243
X-80.801 Y-0.782 Z6.234
X-80.748 Y-1.037 Z6.225
X-80.68 Y-1.287 Z6.216
X-80.599 Y-1.531 Z6.207
X-80.505 Y-1.767 Z6.198
X-80.4 Y-1.993 Z6.189
X-80.283 Y-2.209 Z6.181
X-80.156 Y-2.418 Z6.172
X-80.022 Y-2.615 Z6.164
X-79.881 Y-2.8 Z6.156
X-79.736 Y-2.971 Z6.148
X-79.59 Y-3.128 Z6.14
X-79.44 Y-3.273 Z6.133
X-79.284 Y-3.41 Z6.126
X-79.122 Y-3.539 Z6.118
X-78.957 Y-3.66 Z6.111
X-78.788 Y-3.772 Z6.104
X-78.619 Y-3.874 Z6.097
X-78.45 Y-3.967 Z6.091
X-78.283 Y-4.049 Z6.084
X-78.119 Y-4.121 Z6.078
X-77.957 Y-4.185 Z6.072
X-77.798 Y-4.24 Z6.066
X-77.644 Y-4.288 Z6.06
X-77.497 Y-4.327 Z6.055
X-77.358 Y-4.36 Z6.05
X-77.229 Y-4.386 Z6.045
X-77.111 Y-4.407 Z6.041
X-77.074 Y-4.412 Z6.04
X-75.932 Z6
S6000
X-75.742 F1000
X-75.705 Y-4.407
X-75.586 Y-4.386
X-75.458 Y-4.36
X-75.319 Y-4.327
X-75.172 Y-4.288
X-75.018 Y-4.24
X-74.859 Y-4.185
X-74.697 Y-4.121
X-74.533 Y-4.049
X-74.366 Y-3.967
X-74.197 Y-3.874
X-74.028 Y-3.772
X-73.859 Y-3.66
X-73.693 Y-3.539
X-73.532 Y-3.41
X-73.375 Y-3.273
X-73.226 Y-3.128
X-73.08 Y-2.971
X-72.935 Y-2.8
X-72.794 Y-2.615
X-72.659 Y-2.418
X-72.532 Y-2.209
X-72.416 Y-1.993
X-72.311 Y-1.767
X-72.217 Y-1.531
X-72.136 Y-1.287
X-72.068 Y-1.037
X-72.015 Y-0.781
X-71.977 Y-0.522
X-71.954 Y-0.261
X-71.946 Y0
X-71.954 Y0.261
X-71.977 Y0.522
X-72.015 Y0.781
X-72.068 Y1.037
X-72.136 Y1.287
X-72.217 Y1.531
X-72.311 Y1.767
X-72.416 Y1.993
X-72.532 Y2.209
X-72.659 Y2.418
X-72.794 Y2.615
X-72.935 Y2.8
X-73.08 Y2.971
X-73.226 Y3.128
X-73.375 Y3.273
X-73.532 Y3.41
X-73.693 Y3.539
X-73.859 Y3.66
X-74.028 Y3.772
X-74.197 Y3.874
X-74.366 Y3.967
X-74.533 Y4.049
X-74.697 Y4.121
X-74.859 Y4.185
X-75.018 Y4.24
X-75.172 Y4.287
X-75.319 Y4.327
X-75.458 Y4.36
X-75.586 Y4.386
X-75.705 Y4.407
X-75.742 Y4.412
X-77.074
X-77.111 Y4.407
X-77.229 Y4.386
X-77.358 Y4.36
X-77.497 Y4.327
X-77.644 Y4.287
X-77.798 Y4.24
X-77.957 Y4.185
X-78.119 Y4.121
X-78.283 Y4.049
X-78.45 Y3.967
X-78.619 Y3.874
X-78.788 Y3.772
X-78.957 Y3.66
X-79.122 Y3.539
X-79.284 Y3.41
X-79.44 Y3.273
X-79.59 Y3.128
X-79.736 Y2.971
X-79.881 Y2.8
X-80.022 Y2.615
X-80.156 Y2.418
X-80.283 Y2.209
X-80.4 Y1.993
X-80.505 Y1.767
X-80.599 Y1.531
X-80.68 Y1.287
X-80.748 Y1.037
X-80.801 Y0.782
X-80.839 Y0.522
X-80.862 Y0.261
X-80.87 Y0
X-80.862 Y-0.261
X-80.839 Y-0.522
X-80.801 Y-0.782
X-80.748 Y-1.037
X-80.68 Y-1.287
X-80.599 Y-1.531
X-80.505 Y-1.767
X-80.4 Y-1.993
X-80.283 Y-2.209
X-80.156 Y-2.418
X-80.022 Y-2.615
X-79.881 Y-2.8
X-79.736 Y-2.971
X-79.59 Y-3.128
X-79.44 Y-3.273
X-79.284 Y-3.41
X-79.122 Y-3.539
X-78.957 Y-3.66
X-78.788 Y-3.772
X-78.619 Y-3.874
X-78.45 Y-3.967
X-78.283 Y-4.049
X-78.119 Y-4.121
X-77.957 Y-4.185
X-77.798 Y-4.24
X-77.644 Y-4.288
X-77.497 Y-4.327
X-77.358 Y-4.36
X-77.229 Y-4.386
X-77.111 Y-4.407
X-77.074 Y-4.412
X-75.932
G0 Z27

(2D-Kontur13)
X-223.176 Y9.818
Z27
Z17
G1 Z14 F333.3
Z11.317
G19 G2 Y9.5 Z11 J-0.318 K0 F1000
G1 Y6
Y-6
G0 Z17
Y9.818
G1 Z13 F333.3
Z10.317
G2 Y9.5 Z10 J-0.318 K0 F1000
G1 Y6
Y-6
G0 Z17
Y9.818
G1 Z12 F333.3
Z9.317
G2 Y9.5 Z9 J-0.318 K0 F1000
G1 Y6
Y-6
G0 Z17
Y9.818
G1 Z11 F333.3
Z8.317
G2 Y9.5 Z8 J-0.318 K0 F1000
G1 Y6
Y-6
G0 Z17
Y9.818
G1 Z10 F333.3
Z7.317
G2 Y9.5 Z7 J-0.318 K0 F1000
G1 Y6
Y-6
G0 Z17
Y9.818
G1 Z9 F333.3
Z6.317
G2 Y9.5 Z6 J-0.318 K0 F1000
G1 Y6
Y-6
G0 Z17
Y9.818
G1 Z8 F333.3
Z5.317
G2 Y9.5 Z5 J-0.318 K0 F1000
G1 Y6
Y-6
G0 Z17
Y9.818
G1 Z7 F333.3
Z4.317
G2 Y9.5 Z4 J-0.318 K0 F1000
G1 Y6
Y-6
G0 Z17
Y9.818
G1 Z6 F333.3
Z3.317
G2 Y9.5 Z3 J-0.318 K0 F1000
G1 Y6
Y-6
G0 Z17
Y9.818
G1 Z5 F333.3
Z2.317
G2 Y9.5 Z2 J-0.318 K0 F1000
G1 Y6
Y-6
G0 Z17
Y9.818
G1 Z4 F333.3
Z1.317
G2 Y9.5 Z1 J-0.318 K0 F1000
G1 Y6
Y-6
G0 Z17
Y9.818
G1 Z3 F333.3
Z0.317
G2 Y9.5 Z0 J-0.318 K0 F1000
G1 Y6
Y-6
G0 Z17
Y9.818
G1 Z2 F333.3
Z-0.183
G2 Y9.5 Z-0.5 J-0.318 K0 F1000
G1 Y6
Y-6
G0 Z27
G17

(2D-Kontur14)
G0 X-153.176 Y-9.818
Z27
Z17
G1 Z14 F333.3
Z11.317
G19 G3 Y-9.5 Z11 J0.318 K0 F1000
G1 Y-6
Y6
G0 Z17
Y-9.818
G1 Z13 F333.3
Z10.317
G3 Y-9.5 Z10 J0.318 K0 F1000
G1 Y-6
Y6
G0 Z17
Y-9.818
G1 Z12 F333.3
Z9.317
G3 Y-9.5 Z9 J0.318 K0 F1000
G1 Y-6
Y6
G0 Z17
Y-9.818
G1 Z11 F333.3
Z8.317
G3 Y-9.5 Z8 J0.318 K0 F1000
G1 Y-6
Y6
G0 Z17
Y-9.818
G1 Z10 F333.3
Z7.317
G3 Y-9.5 Z7 J0.318 K0 F1000
G1 Y-6
Y6
G0 Z17
Y-9.818
G1 Z9 F333.3
Z6.317
G3 Y-9.5 Z6 J0.318 K0 F1000
G1 Y-6
Y6
G0 Z17
Y-9.818
G1 Z8 F333.3
Z5.317
G3 Y-9.5 Z5 J0.318 K0 F1000
G1 Y-6
Y6
G0 Z17
Y-9.818
G1 Z7 F333.3
Z4.317
G3 Y-9.5 Z4 J0.318 K0 F1000
G1 Y-6
Y6
G0 Z17
Y-9.818
G1 Z6 F333.3
Z3.317
G3 Y-9.5 Z3 J0.318 K0 F1000
G1 Y-6
Y6
G0 Z17
Y-9.818
G1 Z5 F333.3
Z2.317
G3 Y-9.5 Z2 J0.318 K0 F1000
G1 Y-6
Y6
G0 Z17
Y-9.818
G1 Z4 F333.3
Z1.317
G3 Y-9.5 Z1 J0.318 K0 F1000
G1 Y-6
Y6
G0 Z17
Y-9.818
G1 Z3 F333.3
Z0.717
G3 Y-9.5 Z0.4 J0.318 K0 F1000
G1 Y-6
Y6
G0 Z17
Y-9.818
G1 Z2.4 F333.3
Z0.117
G3 Y-9.5 Z-0.2 J0.318 K0 F1000
G1 Y-6
Y6
G0 Z27
G17
M5
M30
