(MidPlate2mm)
(Bearbeiten)
(  Hersteller: ChinaCnc)
(  model: 3040T)
(  description: Generic 3-axis)
(T5  D=3.175 CR=0 - ZMIN=-2.2 - Schaftfraser)
G90 G94
G17
G21

(Bohrfrasen6)
T5
S6000 M3
G54
G0 X-252.459 Y-86.081
Z35
Z1.683
G1 Z0 F1000
X-252.3
X-252.269 Y-86.075
X-252.243 Y-86.057
X-252.225 Y-86.031
X-252.219 Y-86
G3 X-252.544 Y-86 Z-0.25 I-0.163 J0
X-252.219 Y-86 Z-0.5 I0.163 J0
X-252.544 Y-86 Z-0.75 I-0.163 J0
X-252.219 Y-86 Z-1 I0.163 J0
X-252.544 Y-86 Z-1.25 I-0.162 J0
X-252.219 Y-86 Z-1.5 I0.162 J0
X-252.544 Y-86 Z-1.75 I-0.162 J0
X-252.219 Y-86 Z-2 I0.162 J0
X-252.513 Y-85.904 Z-2.2 I-0.162 J0
X-252.25 Y-86.096 I0.131 J-0.096
X-252.513 Y-85.904 I-0.131 J0.096
G1 X-252.526 Y-85.933
X-252.527 Y-85.965
X-252.516 Y-85.995
X-252.495 Y-86.018
X-252.366 Y-86.111
G0 Z25
X-231.209 Y-75.831
Z1.683
G1 Z0 F1000
X-231.05
X-231.019 Y-75.825
X-230.993 Y-75.807
X-230.975 Y-75.781
X-230.969 Y-75.75
G3 X-231.294 Y-75.75 Z-0.25 I-0.163 J0
X-230.969 Y-75.75 Z-0.5 I0.163 J0
X-231.294 Y-75.75 Z-0.75 I-0.163 J0
X-230.969 Y-75.75 Z-1 I0.163 J0
X-231.294 Y-75.75 Z-1.25 I-0.162 J0
X-230.969 Y-75.75 Z-1.5 I0.162 J0
X-231.294 Y-75.75 Z-1.75 I-0.162 J0
X-230.969 Y-75.75 Z-2 I0.162 J0
X-231.263 Y-75.654 Z-2.2 I-0.162 J0
X-231 Y-75.846 I0.131 J-0.096
X-231.263 Y-75.654 I-0.131 J0.096
G1 X-231.276 Y-75.683
X-231.277 Y-75.715
X-231.266 Y-75.745
X-231.245 Y-75.768
X-231.116 Y-75.861
G0 Z25
X-231.209 Y-86.831
Z1.683
G1 Z0 F1000
X-231.05
X-231.019 Y-86.825
X-230.993 Y-86.807
X-230.975 Y-86.781
X-230.969 Y-86.75
G3 X-231.294 Y-86.75 Z-0.25 I-0.163 J0
X-230.969 Y-86.75 Z-0.5 I0.163 J0
X-231.294 Y-86.75 Z-0.75 I-0.163 J0
X-230.969 Y-86.75 Z-1 I0.163 J0
X-231.294 Y-86.75 Z-1.25 I-0.162 J0
X-230.969 Y-86.75 Z-1.5 I0.162 J0
X-231.294 Y-86.75 Z-1.75 I-0.162 J0
X-230.969 Y-86.75 Z-2 I0.162 J0
X-231.263 Y-86.654 Z-2.2 I-0.162 J0
X-231 Y-86.846 I0.131 J-0.096
X-231.263 Y-86.654 I-0.131 J0.096
G1 X-231.276 Y-86.683
X-231.277 Y-86.715
X-231.266 Y-86.745
X-231.245 Y-86.768
X-231.116 Y-86.861
G0 Z25
X-236.559 Y-98.243
Z1.683
G1 Z0 F1000
X-236.4
X-236.369 Y-98.236
X-236.343 Y-98.219
X-236.325 Y-98.192
X-236.319 Y-98.161
G3 X-236.644 Y-98.161 Z-0.25 I-0.162 J0
X-236.319 Y-98.161 Z-0.5 I0.162 J0
X-236.644 Y-98.161 Z-0.75 I-0.162 J0
X-236.319 Y-98.161 Z-1 I0.162 J0
X-236.644 Y-98.161 Z-1.25 I-0.162 J0
X-236.319 Y-98.161 Z-1.5 I0.162 J0
X-236.644 Y-98.161 Z-1.75 I-0.163 J0
X-236.319 Y-98.161 Z-2 I0.163 J0
X-236.613 Y-98.066 Z-2.2 I-0.163 J0
X-236.35 Y-98.257 I0.131 J-0.096
X-236.613 Y-98.066 I-0.131 J0.096
G1 X-236.626 Y-98.095
X-236.627 Y-98.126
X-236.616 Y-98.156
X-236.595 Y-98.179
X-236.466 Y-98.273
G0 Z25
X-238.459 Y-114.081
Z1.683
G1 Z0 F1000
X-238.3
X-238.269 Y-114.075
X-238.243 Y-114.057
X-238.225 Y-114.031
X-238.219 Y-114
G3 X-238.544 Y-114 Z-0.25 I-0.163 J0
X-238.219 Y-114 Z-0.5 I0.163 J0
X-238.544 Y-114 Z-0.75 I-0.163 J0
X-238.219 Y-114 Z-1 I0.163 J0
X-238.544 Y-114 Z-1.25 I-0.162 J0
X-238.219 Y-114 Z-1.5 I0.162 J0
X-238.544 Y-114 Z-1.75 I-0.162 J0
X-238.219 Y-114 Z-2 I0.162 J0
X-238.513 Y-113.904 Z-2.2 I-0.162 J0
X-238.25 Y-114.096 I0.131 J-0.096
X-238.513 Y-113.904 I-0.131 J0.096
G1 X-238.526 Y-113.933
X-238.527 Y-113.965
X-238.516 Y-113.995
X-238.495 Y-114.018
X-238.366 Y-114.111
G0 Z25
X-231.209 Y-117.331
Z1.683
G1 Z0 F1000
X-231.05
X-231.019 Y-117.325
X-230.993 Y-117.307
X-230.975 Y-117.281
X-230.969 Y-117.25
G3 X-231.294 Y-117.25 Z-0.25 I-0.163 J0
X-230.969 Y-117.25 Z-0.5 I0.163 J0
X-231.294 Y-117.25 Z-0.75 I-0.163 J0
X-230.969 Y-117.25 Z-1 I0.163 J0
X-231.294 Y-117.25 Z-1.25 I-0.162 J0
X-230.969 Y-117.25 Z-1.5 I0.162 J0
X-231.294 Y-117.25 Z-1.75 I-0.162 J0
X-230.969 Y-117.25 Z-2 I0.162 J0
X-231.263 Y-117.154 Z-2.2 I-0.162 J0
X-231 Y-117.346 I0.131 J-0.096
X-231.263 Y-117.154 I-0.131 J0.096
G1 X-231.276 Y-117.183
X-231.277 Y-117.215
X-231.266 Y-117.245
X-231.245 Y-117.268
X-231.116 Y-117.361
G0 Z25
X-236.559 Y-129.916
Z1.683
G1 Z0 F1000
X-236.4
X-236.369 Y-129.91
X-236.343 Y-129.893
X-236.325 Y-129.866
X-236.319 Y-129.835
G3 X-236.644 Y-129.835 Z-0.25 I-0.162 J0
X-236.319 Y-129.835 Z-0.5 I0.162 J0
X-236.644 Y-129.835 Z-0.75 I-0.162 J0
X-236.319 Y-129.835 Z-1 I0.162 J0
X-236.644 Y-129.835 Z-1.25 I-0.162 J0
X-236.319 Y-129.835 Z-1.5 I0.162 J0
X-236.644 Y-129.835 Z-1.75 I-0.163 J0
X-236.319 Y-129.835 Z-2 I0.163 J0
X-236.613 Y-129.74 Z-2.2 I-0.163 J0
X-236.35 Y-129.931 I0.131 J-0.096
X-236.613 Y-129.74 I-0.131 J0.096
G1 X-236.626 Y-129.769
X-236.627 Y-129.8
X-236.616 Y-129.83
X-236.595 Y-129.853
X-236.466 Y-129.947
G0 Z25
X-231.209 Y-143.831
Z1.683
G1 Z0 F1000
X-231.05
X-231.019 Y-143.825
X-230.993 Y-143.807
X-230.975 Y-143.781
X-230.969 Y-143.75
G3 X-231.294 Y-143.75 Z-0.25 I-0.163 J0
X-230.969 Y-143.75 Z-0.5 I0.163 J0
X-231.294 Y-143.75 Z-0.75 I-0.163 J0
X-230.969 Y-143.75 Z-1 I0.163 J0
X-231.294 Y-143.75 Z-1.25 I-0.163 J0
X-230.969 Y-143.75 Z-1.5 I0.162 J0
X-231.294 Y-143.75 Z-1.75 I-0.162 J0
X-231.213 Y-143.891 Z-1.833 I0.162 J0
X-231.05 Y-143.609 Z-2.083 I0.081 J0.141
X-231.263 Y-143.654 Z-2.2 I-0.081 J-0.141
X-231 Y-143.846 I0.131 J-0.096
X-231.263 Y-143.654 I-0.131 J0.096
G1 X-231.276 Y-143.683
X-231.277 Y-143.715
X-231.266 Y-143.745
X-231.245 Y-143.768
X-231.116 Y-143.861
G0 Z25
X-252.459 Y-142.091
Z1.683
G1 Z0 F1000
X-252.3
X-252.269 Y-142.085
X-252.243 Y-142.067
X-252.225 Y-142.041
X-252.219 Y-142.01
G3 X-252.544 Y-142.01 Z-0.25 I-0.163 J0
X-252.219 Y-142.01 Z-0.5 I0.163 J0
X-252.544 Y-142.01 Z-0.75 I-0.163 J0
X-252.219 Y-142.01 Z-1 I0.163 J0
X-252.544 Y-142.01 Z-1.25 I-0.163 J0
X-252.219 Y-142.01 Z-1.5 I0.162 J0
X-252.544 Y-142.01 Z-1.75 I-0.162 J0
X-252.463 Y-142.15 Z-1.833 I0.162 J0
X-252.3 Y-141.869 Z-2.083 I0.081 J0.141
X-252.513 Y-141.914 Z-2.2 I-0.081 J-0.141
X-252.25 Y-142.105 I0.131 J-0.096
X-252.513 Y-141.914 I-0.131 J0.096
G1 X-252.526 Y-141.943
X-252.527 Y-141.975
X-252.516 Y-142.004
X-252.495 Y-142.028
X-252.366 Y-142.121
G0 Z25
X-233.459 Y-190.081
Z1.683
G1 Z0 F1000
X-233.3
X-233.269 Y-190.075
X-233.243 Y-190.057
X-233.225 Y-190.031
X-233.219 Y-190
G3 X-233.544 Y-190 Z-0.25 I-0.163 J0
X-233.219 Y-190 Z-0.5 I0.163 J0
X-233.544 Y-190 Z-0.75 I-0.163 J0
X-233.219 Y-190 Z-1 I0.163 J0
X-233.544 Y-190 Z-1.25 I-0.163 J0
X-233.219 Y-190 Z-1.5 I0.162 J0
X-233.544 Y-190 Z-1.75 I-0.162 J0
X-233.463 Y-190.141 Z-1.833 I0.162 J0
X-233.3 Y-189.859 Z-2.083 I0.081 J0.141
X-233.513 Y-189.904 Z-2.2 I-0.081 J-0.141
X-233.25 Y-190.096 I0.131 J-0.096
X-233.513 Y-189.904 I-0.131 J0.096
G1 X-233.526 Y-189.933
X-233.527 Y-189.965
X-233.516 Y-189.995
X-233.495 Y-190.018
X-233.366 Y-190.111
G0 Z25
X-231.209 Y-174.331
Z1.683
G1 Z0 F1000
X-231.05
X-231.019 Y-174.325
X-230.993 Y-174.307
X-230.975 Y-174.281
X-230.969 Y-174.25
G3 X-231.294 Y-174.25 Z-0.25 I-0.163 J0
X-230.969 Y-174.25 Z-0.5 I0.163 J0
X-231.294 Y-174.25 Z-0.75 I-0.163 J0
X-230.969 Y-174.25 Z-1 I0.163 J0
X-231.294 Y-174.25 Z-1.25 I-0.163 J0
X-230.969 Y-174.25 Z-1.5 I0.162 J0
X-231.294 Y-174.25 Z-1.75 I-0.162 J0
X-231.213 Y-174.391 Z-1.833 I0.162 J0
X-231.05 Y-174.109 Z-2.083 I0.081 J0.141
X-231.263 Y-174.154 Z-2.2 I-0.081 J-0.141
X-231 Y-174.346 I0.131 J-0.096
X-231.263 Y-174.154 I-0.131 J0.096
G1 X-231.276 Y-174.183
X-231.277 Y-174.215
X-231.266 Y-174.245
X-231.245 Y-174.268
X-231.116 Y-174.361
G0 Z25
X-200.709 Y-174.331
Z1.683
G1 Z0 F1000
X-200.55
X-200.519 Y-174.325
X-200.493 Y-174.307
X-200.475 Y-174.281
X-200.469 Y-174.25
G3 X-200.794 Y-174.25 Z-0.25 I-0.163 J0
X-200.469 Y-174.25 Z-0.5 I0.163 J0
X-200.794 Y-174.25 Z-0.75 I-0.163 J0
X-200.469 Y-174.25 Z-1 I0.163 J0
X-200.794 Y-174.25 Z-1.25 I-0.163 J0
X-200.469 Y-174.25 Z-1.5 I0.162 J0
X-200.794 Y-174.25 Z-1.75 I-0.162 J0
X-200.713 Y-174.391 Z-1.833 I0.162 J0
X-200.55 Y-174.109 Z-2.083 I0.081 J0.141
X-200.763 Y-174.154 Z-2.2 I-0.081 J-0.141
X-200.5 Y-174.346 I0.131 J-0.096
X-200.763 Y-174.154 I-0.131 J0.096
G1 X-200.776 Y-174.183
X-200.777 Y-174.215
X-200.766 Y-174.245
X-200.745 Y-174.268
X-200.616 Y-174.361
G0 Z25
X-198.459 Y-190.081
Z1.683
G1 Z0 F1000
X-198.3
X-198.269 Y-190.075
X-198.243 Y-190.057
X-198.225 Y-190.031
X-198.219 Y-190
G3 X-198.544 Y-190 Z-0.25 I-0.163 J0
X-198.219 Y-190 Z-0.5 I0.163 J0
X-198.544 Y-190 Z-0.75 I-0.163 J0
X-198.219 Y-190 Z-1 I0.163 J0
X-198.544 Y-190 Z-1.25 I-0.163 J0
X-198.219 Y-190 Z-1.5 I0.162 J0
X-198.544 Y-190 Z-1.75 I-0.162 J0
X-198.463 Y-190.141 Z-1.833 I0.162 J0
X-198.3 Y-189.859 Z-2.083 I0.081 J0.141
X-198.513 Y-189.904 Z-2.2 I-0.081 J-0.141
X-198.25 Y-190.096 I0.131 J-0.096
X-198.513 Y-189.904 I-0.131 J0.096
G1 X-198.526 Y-189.933
X-198.527 Y-189.965
X-198.516 Y-189.995
X-198.495 Y-190.018
X-198.366 Y-190.111
G0 Z25
X-179.474 Y-142.091
Z1.683
G1 Z0 F1000
X-179.316
X-179.285 Y-142.085
X-179.258 Y-142.067
X-179.241 Y-142.041
X-179.234 Y-142.01
G3 X-179.559 Y-142.01 Z-0.25 I-0.162 J0
X-179.234 Y-142.01 Z-0.5 I0.162 J0
X-179.559 Y-142.01 Z-0.75 I-0.162 J0
X-179.234 Y-142.01 Z-1 I0.162 J0
X-179.559 Y-142.01 Z-1.25 I-0.162 J0
X-179.234 Y-142.01 Z-1.5 I0.162 J0
X-179.559 Y-142.01 Z-1.75 I-0.163 J0
X-179.234 Y-142.01 Z-2 I0.163 J0
X-179.528 Y-141.914 Z-2.2 I-0.163 J0
X-179.265 Y-142.105 I0.131 J-0.096
X-179.528 Y-141.914 I-0.131 J0.096
G1 X-179.542 Y-141.943
X-179.543 Y-141.975
X-179.532 Y-142.004
X-179.51 Y-142.028
X-179.382 Y-142.121
G0 Z25
X-200.709 Y-143.831
Z1.683
G1 Z0 F1000
X-200.55
X-200.519 Y-143.825
X-200.493 Y-143.807
X-200.475 Y-143.781
X-200.469 Y-143.75
G3 X-200.794 Y-143.75 Z-0.25 I-0.163 J0
X-200.469 Y-143.75 Z-0.5 I0.163 J0
X-200.794 Y-143.75 Z-0.75 I-0.163 J0
X-200.469 Y-143.75 Z-1 I0.163 J0
X-200.794 Y-143.75 Z-1.25 I-0.163 J0
X-200.469 Y-143.75 Z-1.5 I0.162 J0
X-200.794 Y-143.75 Z-1.75 I-0.162 J0
X-200.713 Y-143.891 Z-1.833 I0.162 J0
X-200.55 Y-143.609 Z-2.083 I0.081 J0.141
X-200.763 Y-143.654 Z-2.2 I-0.081 J-0.141
X-200.5 Y-143.846 I0.131 J-0.096
X-200.763 Y-143.654 I-0.131 J0.096
G1 X-200.776 Y-143.683
X-200.777 Y-143.715
X-200.766 Y-143.745
X-200.745 Y-143.768
X-200.616 Y-143.861
G0 Z25
X-195.339 Y-129.916
Z1.683
G1 Z0 F1000
X-195.18
X-195.149 Y-129.91
X-195.123 Y-129.893
X-195.105 Y-129.866
X-195.099 Y-129.835
G3 X-195.424 Y-129.835 Z-0.25 I-0.163 J0
X-195.099 Y-129.835 Z-0.5 I0.163 J0
X-195.421 Y-129.801 Z-0.733 I-0.162 J0
X-195.103 Y-129.869 Z-0.983 I0.159 J-0.034
X-195.421 Y-129.801 Z-1.233 I-0.159 J0.034
X-195.103 Y-129.869 Z-1.483 I0.159 J-0.034
X-195.421 Y-129.801 Z-1.733 I-0.159 J0.034
X-195.343 Y-129.976 Z-1.833 I0.159 J-0.034
X-195.18 Y-129.695 Z-2.083 I0.081 J0.141
X-195.393 Y-129.74 Z-2.2 I-0.081 J-0.141
X-195.13 Y-129.931 I0.131 J-0.096
X-195.393 Y-129.74 I-0.131 J0.096
G1 X-195.406 Y-129.769
X-195.408 Y-129.8
X-195.397 Y-129.83
X-195.375 Y-129.853
X-195.247 Y-129.947
G0 Z25
X-200.709 Y-117.331
Z1.683
G1 Z0 F1000
X-200.55
X-200.519 Y-117.325
X-200.493 Y-117.307
X-200.475 Y-117.281
X-200.469 Y-117.25
G3 X-200.794 Y-117.25 Z-0.25 I-0.163 J0
X-200.469 Y-117.25 Z-0.5 I0.163 J0
X-200.794 Y-117.25 Z-0.75 I-0.163 J0
X-200.469 Y-117.25 Z-1 I0.163 J0
X-200.794 Y-117.25 Z-1.25 I-0.162 J0
X-200.469 Y-117.25 Z-1.5 I0.162 J0
X-200.794 Y-117.25 Z-1.75 I-0.162 J0
X-200.469 Y-117.25 Z-2 I0.162 J0
X-200.763 Y-117.154 Z-2.2 I-0.162 J0
X-200.5 Y-117.346 I0.131 J-0.096
X-200.763 Y-117.154 I-0.131 J0.096
G1 X-200.776 Y-117.183
X-200.777 Y-117.215
X-200.766 Y-117.245
X-200.745 Y-117.268
X-200.616 Y-117.361
G0 Z25
X-193.459 Y-114.081
Z1.683
G1 Z0 F1000
X-193.3
X-193.269 Y-114.075
X-193.243 Y-114.057
X-193.225 Y-114.031
X-193.219 Y-114
G3 X-193.544 Y-114 Z-0.25 I-0.163 J0
X-193.219 Y-114 Z-0.5 I0.163 J0
X-193.544 Y-114 Z-0.75 I-0.163 J0
X-193.219 Y-114 Z-1 I0.163 J0
X-193.544 Y-114 Z-1.25 I-0.162 J0
X-193.219 Y-114 Z-1.5 I0.162 J0
X-193.544 Y-114 Z-1.75 I-0.162 J0
X-193.219 Y-114 Z-2 I0.162 J0
X-193.513 Y-113.904 Z-2.2 I-0.162 J0
X-193.25 Y-114.096 I0.131 J-0.096
X-193.513 Y-113.904 I-0.131 J0.096
G1 X-193.526 Y-113.933
X-193.527 Y-113.965
X-193.516 Y-113.995
X-193.495 Y-114.018
X-193.366 Y-114.111
G0 Z25
X-195.339 Y-98.243
Z1.683
G1 Z0 F1000
X-195.18
X-195.149 Y-98.236
X-195.123 Y-98.219
X-195.105 Y-98.192
X-195.099 Y-98.161
G3 X-195.424 Y-98.161 Z-0.25 I-0.163 J0
X-195.099 Y-98.161 Z-0.5 I0.163 J0
X-195.424 Y-98.161 Z-0.75 I-0.163 J0
X-195.099 Y-98.161 Z-1 I0.163 J0
X-195.424 Y-98.161 Z-1.25 I-0.163 J0
X-195.099 Y-98.161 Z-1.5 I0.162 J0
X-195.424 Y-98.161 Z-1.75 I-0.162 J0
X-195.099 Y-98.161 Z-2 I0.162 J0
X-195.393 Y-98.066 Z-2.2 I-0.162 J0
X-195.13 Y-98.257 I0.131 J-0.096
X-195.393 Y-98.066 I-0.131 J0.096
G1 X-195.406 Y-98.095
X-195.408 Y-98.126
X-195.397 Y-98.156
X-195.375 Y-98.179
X-195.247 Y-98.273
G0 Z25
X-200.709 Y-86.831
Z1.683
G1 Z0 F1000
X-200.55
X-200.519 Y-86.825
X-200.493 Y-86.807
X-200.475 Y-86.781
X-200.469 Y-86.75
G3 X-200.794 Y-86.75 Z-0.25 I-0.163 J0
X-200.469 Y-86.75 Z-0.5 I0.163 J0
X-200.794 Y-86.75 Z-0.75 I-0.163 J0
X-200.469 Y-86.75 Z-1 I0.163 J0
X-200.794 Y-86.75 Z-1.25 I-0.162 J0
X-200.469 Y-86.75 Z-1.5 I0.162 J0
X-200.794 Y-86.75 Z-1.75 I-0.162 J0
X-200.469 Y-86.75 Z-2 I0.162 J0
X-200.763 Y-86.654 Z-2.2 I-0.162 J0
X-200.5 Y-86.846 I0.131 J-0.096
X-200.763 Y-86.654 I-0.131 J0.096
G1 X-200.776 Y-86.683
X-200.777 Y-86.715
X-200.766 Y-86.745
X-200.745 Y-86.768
X-200.616 Y-86.861
G0 Z25
X-200.709 Y-75.831
Z1.683
G1 Z0 F1000
X-200.55
X-200.519 Y-75.825
X-200.493 Y-75.807
X-200.475 Y-75.781
X-200.469 Y-75.75
G3 X-200.794 Y-75.75 Z-0.25 I-0.163 J0
X-200.469 Y-75.75 Z-0.5 I0.163 J0
X-200.794 Y-75.75 Z-0.75 I-0.163 J0
X-200.469 Y-75.75 Z-1 I0.163 J0
X-200.794 Y-75.75 Z-1.25 I-0.162 J0
X-200.469 Y-75.75 Z-1.5 I0.162 J0
X-200.794 Y-75.75 Z-1.75 I-0.162 J0
X-200.469 Y-75.75 Z-2 I0.162 J0
X-200.763 Y-75.654 Z-2.2 I-0.162 J0
X-200.5 Y-75.846 I0.131 J-0.096
X-200.763 Y-75.654 I-0.131 J0.096
G1 X-200.776 Y-75.683
X-200.777 Y-75.715
X-200.766 Y-75.745
X-200.745 Y-75.768
X-200.616 Y-75.861
G0 Z25
X-179.474 Y-86.081
Z1.683
G1 Z0 F1000
X-179.316
X-179.285 Y-86.075
X-179.258 Y-86.057
X-179.241 Y-86.031
X-179.234 Y-86
G3 X-179.559 Y-86 Z-0.25 I-0.162 J0
X-179.234 Y-86 Z-0.5 I0.162 J0
X-179.559 Y-86 Z-0.75 I-0.162 J0
X-179.234 Y-86 Z-1 I0.162 J0
X-179.559 Y-86 Z-1.25 I-0.162 J0
X-179.234 Y-86 Z-1.5 I0.162 J0
X-179.559 Y-86 Z-1.75 I-0.162 J0
X-179.234 Y-86 Z-2 I0.162 J0
X-179.528 Y-85.904 Z-2.2 I-0.163 J0
X-179.265 Y-86.096 I0.131 J-0.096
X-179.528 Y-85.904 I-0.131 J0.096
G1 X-179.542 Y-85.933
X-179.543 Y-85.965
X-179.532 Y-85.995
X-179.51 Y-86.018
X-179.382 Y-86.111
G0 Z25
X-198.459 Y-10.081
Z1.683
G1 Z0 F1000
X-198.3
X-198.269 Y-10.075
X-198.243 Y-10.057
X-198.225 Y-10.031
X-198.219 Y-10
G3 X-198.544 Y-10 Z-0.25 I-0.163 J0
X-198.219 Y-10 Z-0.5 I0.163 J0
X-198.544 Y-10 Z-0.75 I-0.163 J0
X-198.219 Y-10 Z-1 I0.163 J0
X-198.544 Y-10 Z-1.25 I-0.162 J0
X-198.219 Y-10 Z-1.5 I0.162 J0
X-198.544 Y-10 Z-1.75 I-0.162 J0
X-198.219 Y-10 Z-2 I0.162 J0
X-198.513 Y-9.904 Z-2.2 I-0.162 J0
X-198.25 Y-10.096 I0.131 J-0.096
X-198.513 Y-9.904 I-0.131 J0.096
G1 X-198.526 Y-9.933
X-198.527 Y-9.965
X-198.516 Y-9.995
X-198.495 Y-10.018
X-198.366 Y-10.111
G0 Z25
X-198.459 Y-35.081
Z1.683
G1 Z0 F1000
X-198.3
X-198.269 Y-35.075
X-198.243 Y-35.057
X-198.225 Y-35.031
X-198.219 Y-35
G3 X-198.544 Y-35 Z-0.25 I-0.163 J0
X-198.219 Y-35 Z-0.5 I0.163 J0
X-198.544 Y-35 Z-0.75 I-0.163 J0
X-198.219 Y-35 Z-1 I0.163 J0
X-198.544 Y-35 Z-1.25 I-0.162 J0
X-198.219 Y-35 Z-1.5 I0.162 J0
X-198.544 Y-35 Z-1.75 I-0.162 J0
X-198.219 Y-35 Z-2 I0.162 J0
X-198.513 Y-34.904 Z-2.2 I-0.162 J0
X-198.25 Y-35.096 I0.131 J-0.096
X-198.513 Y-34.904 I-0.131 J0.096
G1 X-198.526 Y-34.933
X-198.527 Y-34.965
X-198.516 Y-34.995
X-198.495 Y-35.018
X-198.366 Y-35.111
G0 Z25
X-200.709 Y-45.331
Z1.683
G1 Z0 F1000
X-200.55
X-200.519 Y-45.325
X-200.493 Y-45.307
X-200.475 Y-45.281
X-200.469 Y-45.25
G3 X-200.794 Y-45.25 Z-0.25 I-0.163 J0
X-200.469 Y-45.25 Z-0.5 I0.163 J0
X-200.794 Y-45.25 Z-0.75 I-0.163 J0
X-200.469 Y-45.25 Z-1 I0.163 J0
X-200.794 Y-45.25 Z-1.25 I-0.162 J0
X-200.469 Y-45.25 Z-1.5 I0.162 J0
X-200.794 Y-45.25 Z-1.75 I-0.162 J0
X-200.469 Y-45.25 Z-2 I0.162 J0
X-200.763 Y-45.154 Z-2.2 I-0.162 J0
X-200.5 Y-45.346 I0.131 J-0.096
X-200.763 Y-45.154 I-0.131 J0.096
G1 X-200.776 Y-45.183
X-200.777 Y-45.215
X-200.766 Y-45.245
X-200.745 Y-45.268
X-200.616 Y-45.361
G0 Z25
X-231.209 Y-45.331
Z1.683
G1 Z0 F1000
X-231.05
X-231.019 Y-45.325
X-230.993 Y-45.307
X-230.975 Y-45.281
X-230.969 Y-45.25
G3 X-231.294 Y-45.25 Z-0.25 I-0.163 J0
X-230.969 Y-45.25 Z-0.5 I0.163 J0
X-231.294 Y-45.25 Z-0.75 I-0.163 J0
X-230.969 Y-45.25 Z-1 I0.163 J0
X-231.294 Y-45.25 Z-1.25 I-0.162 J0
X-230.969 Y-45.25 Z-1.5 I0.162 J0
X-231.294 Y-45.25 Z-1.75 I-0.162 J0
X-230.969 Y-45.25 Z-2 I0.162 J0
X-231.263 Y-45.154 Z-2.2 I-0.162 J0
X-231 Y-45.346 I0.131 J-0.096
X-231.263 Y-45.154 I-0.131 J0.096
G1 X-231.276 Y-45.183
X-231.277 Y-45.215
X-231.266 Y-45.245
X-231.245 Y-45.268
X-231.116 Y-45.361
G0 Z25
X-233.459 Y-35.081
Z1.683
G1 Z0 F1000
X-233.3
X-233.269 Y-35.075
X-233.243 Y-35.057
X-233.225 Y-35.031
X-233.219 Y-35
G3 X-233.544 Y-35 Z-0.25 I-0.163 J0
X-233.219 Y-35 Z-0.5 I0.163 J0
X-233.544 Y-35 Z-0.75 I-0.163 J0
X-233.219 Y-35 Z-1 I0.163 J0
X-233.544 Y-35 Z-1.25 I-0.162 J0
X-233.219 Y-35 Z-1.5 I0.162 J0
X-233.544 Y-35 Z-1.75 I-0.162 J0
X-233.219 Y-35 Z-2 I0.162 J0
X-233.513 Y-34.904 Z-2.2 I-0.162 J0
X-233.25 Y-35.096 I0.131 J-0.096
X-233.513 Y-34.904 I-0.131 J0.096
G1 X-233.526 Y-34.933
X-233.527 Y-34.965
X-233.516 Y-34.995
X-233.495 Y-35.018
X-233.366 Y-35.111
G0 Z25
X-233.459 Y-10.081
Z1.683
G1 Z0 F1000
X-233.3
X-233.269 Y-10.075
X-233.243 Y-10.057
X-233.225 Y-10.031
X-233.219 Y-10
G3 X-233.544 Y-10 Z-0.25 I-0.163 J0
X-233.219 Y-10 Z-0.5 I0.163 J0
X-233.544 Y-10 Z-0.75 I-0.163 J0
X-233.219 Y-10 Z-1 I0.163 J0
X-233.544 Y-10 Z-1.25 I-0.162 J0
X-233.219 Y-10 Z-1.5 I0.162 J0
X-233.544 Y-10 Z-1.75 I-0.162 J0
X-233.219 Y-10 Z-2 I0.162 J0
X-233.513 Y-9.904 Z-2.2 I-0.162 J0
X-233.25 Y-10.096 I0.131 J-0.096
X-233.513 Y-9.904 I-0.131 J0.096
G1 X-233.526 Y-9.933
X-233.527 Y-9.965
X-233.516 Y-9.995
X-233.495 Y-10.018
X-233.366 Y-10.111
G0 Z35

(2D-Kontur5)
X-210.41 Y-108.642
Z35
Z5
G1 Z2.5 F333.3
S5000
X-210.457 Y-108.435 Z2.493
X-210.645 Y-107.752 Z2.468
X-210.857 Y-107.105 Z2.444
X-211.089 Y-106.497 Z2.421
X-211.34 Y-105.93 Z2.4
X-211.608 Y-105.402 Z2.379
X-211.887 Y-104.917 Z2.359
X-212.177 Y-104.474 Z2.341
X-212.475 Y-104.073 Z2.324
X-212.779 Y-103.712 Z2.307
X-213.085 Y-103.392 Z2.292
X-213.393 Y-103.111 Z2.277
X-213.702 Y-102.868 Z2.263
X-214.008 Y-102.661 Z2.25
X-214.31 Y-102.49 Z2.238
X-214.608 Y-102.351 Z2.227
X-214.903 Y-102.244 Z2.216
X-215.193 Y-102.165 Z2.205
X-215.479 Y-102.115 Z2.195
X-215.784 Y-102.089 Z2.185
X-215.857 Y-102.088 Z2.182
X-216.166 Y-102.103 Z2.171
X-216.451 Y-102.141 Z2.161
X-216.738 Y-102.207 Z2.151
X-217.028 Y-102.302 Z2.14
X-217.325 Y-102.427 Z2.129
X-217.625 Y-102.583 Z2.117
X-217.927 Y-102.773 Z2.105
X-218.232 Y-102.998 Z2.091
X-218.536 Y-103.259 Z2.077
X-218.842 Y-103.558 Z2.062
X-219.144 Y-103.897 Z2.047
X-219.442 Y-104.274 Z2.03
X-219.732 Y-104.691 Z2.012
X-220.013 Y-105.148 Z1.993
X-220.284 Y-105.646 Z1.974
X-220.539 Y-106.183 Z1.953
X-220.779 Y-106.759 Z1.931
X-220.999 Y-107.374 Z1.908
X-221.198 Y-108.027 Z1.884
X-221.373 Y-108.713 Z1.86
X-221.521 Y-109.431 Z1.834
X-221.638 Y-110.176 Z1.808
X-221.724 Y-110.945 Z1.781
X-221.777 Y-111.729 Z1.753
X-221.793 Y-112.523 Z1.726
X-221.775 Y-113.318 Z1.698
X-221.72 Y-114.106 Z1.67
X-221.631 Y-114.88 Z1.643
X-221.509 Y-115.632 Z1.616
X-221.356 Y-116.358 Z1.59
X-221.176 Y-117.052 Z1.565
X-220.971 Y-117.71 Z1.541
X-220.744 Y-118.329 Z1.518
X-220.498 Y-118.909 Z1.496
X-220.236 Y-119.447 Z1.475
X-219.959 Y-119.944 Z1.456
X-219.672 Y-120.4 Z1.437
X-219.376 Y-120.813 Z1.419
X-219.074 Y-121.186 Z1.402
X-218.768 Y-121.518 Z1.386
X-218.459 Y-121.811 Z1.372
X-218.151 Y-122.065 Z1.358
X-217.846 Y-122.281 Z1.345
X-217.541 Y-122.463 Z1.332
X-217.24 Y-122.612 Z1.321
X-216.946 Y-122.728 Z1.309
X-216.655 Y-122.814 Z1.299
X-216.367 Y-122.873 Z1.289
X-216.083 Y-122.904 Z1.279
X-215.799 Y-122.909 Z1.269
X-215.514 Y-122.889 Z1.259
X-215.228 Y-122.842 Z1.249
X-214.94 Y-122.768 Z1.238
X-214.648 Y-122.665 Z1.227
X-214.351 Y-122.531 Z1.216
X-214.05 Y-122.364 Z1.204
X-213.746 Y-122.165 Z1.191
X-213.442 Y-121.929 Z1.178
X-213.137 Y-121.658 Z1.164
X-212.832 Y-121.346 Z1.148
X-212.53 Y-120.997 Z1.132
X-212.236 Y-120.61 Z1.115
X-211.948 Y-120.18 Z1.097
X-211.669 Y-119.71 Z1.078
X-211.403 Y-119.201 Z1.058
X-211.152 Y-118.651 Z1.037
X-210.917 Y-118.063 Z1.015
X-210.703 Y-117.439 Z0.992
X-210.511 Y-116.776 Z0.968
X-210.344 Y-116.079 Z0.943
X-210.205 Y-115.353 Z0.917
X-210.096 Y-114.6 Z0.89
X-210.019 Y-113.826 Z0.863
X-209.977 Y-113.038 Z0.836
X-209.971 Y-112.245 Z0.808
X-210.001 Y-111.451 Z0.78
X-210.066 Y-110.665 Z0.753
X-210.165 Y-109.897 Z0.726
X-210.296 Y-109.152 Z0.699
X-210.457 Y-108.435 Z0.674
X-210.645 Y-107.752 Z0.649
X-210.857 Y-107.105 Z0.625
X-211.089 Y-106.497 Z0.602
X-211.34 Y-105.93 Z0.581
X-211.608 Y-105.402 Z0.56
X-211.887 Y-104.917 Z0.54
X-212.177 Y-104.474 Z0.522
X-212.475 Y-104.073 Z0.504
X-212.779 Y-103.712 Z0.488
X-213.085 Y-103.392 Z0.473
X-213.393 Y-103.111 Z0.458
X-213.702 Y-102.868 Z0.444
X-214.008 Y-102.661 Z0.431
X-214.31 Y-102.49 Z0.419
X-214.608 Y-102.351 Z0.408
X-214.903 Y-102.244 Z0.397
X-215.193 Y-102.165 Z0.386
X-215.479 Y-102.115 Z0.376
X-215.784 Y-102.089 Z0.365
X-215.857 Y-102.088 Z0.363
X-216.166 Y-102.103 Z0.352
X-216.451 Y-102.141 Z0.342
X-216.738 Y-102.207 Z0.332
X-217.028 Y-102.302 Z0.321
X-217.325 Y-102.427 Z0.31
X-217.625 Y-102.583 Z0.298
X-217.927 Y-102.773 Z0.286
X-218.232 Y-102.998 Z0.272
X-218.536 Y-103.259 Z0.258
X-218.842 Y-103.558 Z0.243
X-219.144 Y-103.897 Z0.228
X-219.442 Y-104.274 Z0.211
X-219.732 Y-104.691 Z0.193
X-220.013 Y-105.148 Z0.174
X-220.284 Y-105.646 Z0.155
X-220.539 Y-106.183 Z0.134
X-220.779 Y-106.759 Z0.112
X-220.999 Y-107.374 Z0.089
X-221.198 Y-108.027 Z0.065
X-221.373 Y-108.713 Z0.041
X-221.521 Y-109.431 Z0.015
X-221.638 Y-110.176 Z-0.011
X-221.724 Y-110.945 Z-0.038
X-221.777 Y-111.729 Z-0.066
X-221.793 Y-112.523 Z-0.094
X-221.775 Y-113.318 Z-0.121
X-221.72 Y-114.106 Z-0.149
X-221.631 Y-114.88 Z-0.176
X-221.509 Y-115.632 Z-0.203
X-221.356 Y-116.358 Z-0.229
X-221.176 Y-117.052 Z-0.254
X-220.971 Y-117.71 Z-0.278
X-220.744 Y-118.329 Z-0.301
X-220.498 Y-118.909 Z-0.323
X-220.236 Y-119.447 Z-0.344
X-219.959 Y-119.944 Z-0.364
X-219.672 Y-120.4 Z-0.382
X-219.376 Y-120.813 Z-0.4
X-219.074 Y-121.186 Z-0.417
X-218.768 Y-121.518 Z-0.433
X-218.459 Y-121.811 Z-0.447
X-218.151 Y-122.065 Z-0.461
X-217.846 Y-122.281 Z-0.474
X-217.541 Y-122.463 Z-0.487
X-217.24 Y-122.612 Z-0.499
X-216.946 Y-122.728 Z-0.51
X-216.655 Y-122.814 Z-0.52
X-216.367 Y-122.873 Z-0.53
X-216.083 Y-122.904 Z-0.54
X-215.799 Y-122.909 Z-0.55
X-215.514 Y-122.889 Z-0.56
X-215.228 Y-122.842 Z-0.57
X-214.94 Y-122.768 Z-0.581
X-214.648 Y-122.665 Z-0.592
X-214.351 Y-122.531 Z-0.603
X-214.05 Y-122.364 Z-0.615
X-213.746 Y-122.165 Z-0.628
X-213.442 Y-121.929 Z-0.641
X-213.137 Y-121.658 Z-0.655
X-212.832 Y-121.346 Z-0.671
X-212.53 Y-120.997 Z-0.687
X-212.236 Y-120.61 Z-0.704
X-211.948 Y-120.18 Z-0.722
X-211.669 Y-119.71 Z-0.741
X-211.403 Y-119.201 Z-0.761
X-211.152 Y-118.651 Z-0.782
X-210.917 Y-118.063 Z-0.804
X-210.703 Y-117.439 Z-0.827
X-210.511 Y-116.776 Z-0.851
X-210.344 Y-116.079 Z-0.876
X-210.205 Y-115.353 Z-0.902
X-210.096 Y-114.6 Z-0.929
X-210.019 Y-113.826 Z-0.956
X-209.977 Y-113.038 Z-0.983
X-209.973 Y-112.564 Z-1
S6000
X-209.971 Y-112.245 F1000
X-210.001 Y-111.451
X-210.066 Y-110.665
X-210.165 Y-109.897
X-210.296 Y-109.152
X-210.457 Y-108.435
X-210.645 Y-107.752
X-210.857 Y-107.105
X-211.089 Y-106.497
X-211.34 Y-105.93
X-211.608 Y-105.402
X-211.887 Y-104.917
X-212.177 Y-104.474
X-212.475 Y-104.073
X-212.779 Y-103.712
X-213.085 Y-103.392
X-213.393 Y-103.111
X-213.702 Y-102.868
X-214.008 Y-102.661
X-214.31 Y-102.49
X-214.608 Y-102.351
X-214.903 Y-102.244
X-215.193 Y-102.165
X-215.479 Y-102.115
X-215.784 Y-102.089
X-215.857 Y-102.088
X-216.166 Y-102.103
X-216.451 Y-102.141
X-216.738 Y-102.207
X-217.028 Y-102.302
X-217.325 Y-102.427
X-217.625 Y-102.583
X-217.927 Y-102.773
X-218.232 Y-102.998
X-218.536 Y-103.259
X-218.842 Y-103.558
X-219.144 Y-103.897
X-219.442 Y-104.274
X-219.732 Y-104.691
X-220.013 Y-105.148
X-220.284 Y-105.646
X-220.539 Y-106.183
X-220.779 Y-106.759
X-220.999 Y-107.374
X-221.198 Y-108.027
X-221.373 Y-108.713
X-221.521 Y-109.431
X-221.638 Y-110.176
X-221.724 Y-110.945
X-221.777 Y-111.729
X-221.793 Y-112.523
X-221.775 Y-113.318
X-221.72 Y-114.106
X-221.631 Y-114.88
X-221.509 Y-115.632
X-221.356 Y-116.358
X-221.176 Y-117.052
X-220.971 Y-117.71
X-220.744 Y-118.329
X-220.498 Y-118.909
X-220.236 Y-119.447
X-219.959 Y-119.944
X-219.672 Y-120.4
X-219.376 Y-120.813
X-219.074 Y-121.186
X-218.768 Y-121.518
X-218.459 Y-121.811
X-218.151 Y-122.065
X-217.846 Y-122.281
X-217.541 Y-122.463
X-217.24 Y-122.612
X-216.946 Y-122.728
X-216.655 Y-122.814
X-216.367 Y-122.873
X-216.083 Y-122.904
X-215.799 Y-122.909
X-215.514 Y-122.889
X-215.228 Y-122.842
X-214.94 Y-122.768
X-214.648 Y-122.665
X-214.351 Y-122.531
X-214.05 Y-122.364
X-213.746 Y-122.165
X-213.442 Y-121.929
X-213.137 Y-121.658
X-212.832 Y-121.346
X-212.53 Y-120.997
X-212.236 Y-120.61
X-211.948 Y-120.18
X-211.669 Y-119.71
X-211.403 Y-119.201
X-211.152 Y-118.651
X-210.917 Y-118.063
X-210.703 Y-117.439
X-210.511 Y-116.776
X-210.344 Y-116.079
X-210.205 Y-115.353
X-210.096 Y-114.6
X-210.019 Y-113.826
X-209.977 Y-113.038
X-209.973 Y-112.564
S5000
X-209.971 Y-112.245 Z-1.011 F333.3
X-210.001 Y-111.451 Z-1.039
X-210.066 Y-110.665 Z-1.066
X-210.165 Y-109.897 Z-1.093
X-210.296 Y-109.152 Z-1.12
X-210.457 Y-108.435 Z-1.146
X-210.645 Y-107.752 Z-1.17
X-210.857 Y-107.105 Z-1.194
X-211.089 Y-106.497 Z-1.217
X-211.34 Y-105.93 Z-1.238
X-211.608 Y-105.402 Z-1.259
X-211.887 Y-104.917 Z-1.279
X-212.177 Y-104.474 Z-1.297
X-212.475 Y-104.073 Z-1.315
X-212.779 Y-103.712 Z-1.331
X-213.085 Y-103.392 Z-1.347
X-213.393 Y-103.111 Z-1.361
X-213.702 Y-102.868 Z-1.375
X-214.008 Y-102.661 Z-1.388
X-214.31 Y-102.49 Z-1.4
X-214.608 Y-102.351 Z-1.411
X-214.903 Y-102.244 Z-1.422
X-215.193 Y-102.165 Z-1.433
X-215.479 Y-102.115 Z-1.443
X-215.784 Y-102.089 Z-1.454
X-215.857 Y-102.088 Z-1.456
X-216.166 Y-102.103 Z-1.467
X-216.451 Y-102.141 Z-1.477
X-216.738 Y-102.207 Z-1.487
X-217.028 Y-102.302 Z-1.498
X-217.325 Y-102.427 Z-1.509
X-217.625 Y-102.583 Z-1.521
X-217.927 Y-102.773 Z-1.533
X-218.232 Y-102.998 Z-1.547
X-218.536 Y-103.259 Z-1.561
X-218.842 Y-103.558 Z-1.576
X-219.144 Y-103.897 Z-1.591
X-219.295 Y-104.088 Z-1.6
S6000
X-219.442 Y-104.274 F1000
X-219.732 Y-104.691
X-220.013 Y-105.148
X-220.284 Y-105.646
X-220.539 Y-106.183
X-220.779 Y-106.759
X-220.999 Y-107.374
X-221.198 Y-108.027
X-221.373 Y-108.713
X-221.521 Y-109.431
X-221.638 Y-110.176
X-221.724 Y-110.945
X-221.777 Y-111.729
X-221.793 Y-112.523
X-221.775 Y-113.318
X-221.72 Y-114.106
X-221.631 Y-114.88
X-221.509 Y-115.632
X-221.356 Y-116.358
X-221.176 Y-117.052
X-220.971 Y-117.71
X-220.744 Y-118.329
X-220.498 Y-118.909
X-220.236 Y-119.447
X-219.959 Y-119.944
X-219.672 Y-120.4
X-219.376 Y-120.813
X-219.074 Y-121.186
X-218.768 Y-121.518
X-218.459 Y-121.811
X-218.151 Y-122.065
X-217.846 Y-122.281
X-217.541 Y-122.463
X-217.24 Y-122.612
X-216.946 Y-122.728
X-216.655 Y-122.814
X-216.367 Y-122.873
X-216.083 Y-122.904
X-215.799 Y-122.909
X-215.514 Y-122.889
X-215.228 Y-122.842
X-214.94 Y-122.768
X-214.648 Y-122.665
X-214.351 Y-122.531
X-214.05 Y-122.364
X-213.746 Y-122.165
X-213.442 Y-121.929
X-213.137 Y-121.658
X-212.832 Y-121.346
X-212.53 Y-120.997
X-212.236 Y-120.61
X-211.948 Y-120.18
X-211.669 Y-119.71
X-211.403 Y-119.201
X-211.152 Y-118.651
X-210.917 Y-118.063
X-210.703 Y-117.439
X-210.511 Y-116.776
X-210.344 Y-116.079
X-210.205 Y-115.353
X-210.096 Y-114.6
X-210.019 Y-113.826
X-209.977 Y-113.038
X-209.973 Y-112.564
X-209.971 Y-112.245
X-210.001 Y-111.451
X-210.066 Y-110.665
X-210.165 Y-109.897
X-210.296 Y-109.152
X-210.457 Y-108.435
X-210.645 Y-107.752
X-210.857 Y-107.105
X-211.089 Y-106.497
X-211.34 Y-105.93
X-211.608 Y-105.402
X-211.887 Y-104.917
X-212.177 Y-104.474
X-212.475 Y-104.073
X-212.779 Y-103.712
X-213.085 Y-103.392
X-213.393 Y-103.111
X-213.702 Y-102.868
X-214.008 Y-102.661
X-214.31 Y-102.49
X-214.608 Y-102.351
X-214.903 Y-102.244
X-215.193 Y-102.165
X-215.479 Y-102.115
X-215.784 Y-102.089
X-215.857 Y-102.088
X-216.166 Y-102.103
X-216.451 Y-102.141
X-216.738 Y-102.207
X-217.028 Y-102.302
X-217.325 Y-102.427
X-217.625 Y-102.583
X-217.927 Y-102.773
X-218.232 Y-102.998
X-218.536 Y-103.259
X-218.842 Y-103.558
X-219.144 Y-103.897
X-219.295 Y-104.088
S5000
X-219.442 Y-104.274 Z-1.608 F333.3
X-219.732 Y-104.691 Z-1.626
X-220.013 Y-105.148 Z-1.645
X-220.284 Y-105.646 Z-1.665
X-220.539 Y-106.183 Z-1.685
X-220.779 Y-106.759 Z-1.707
X-220.999 Y-107.374 Z-1.73
X-221.198 Y-108.027 Z-1.754
X-221.373 Y-108.713 Z-1.778
X-221.521 Y-109.431 Z-1.804
X-221.638 Y-110.176 Z-1.83
X-221.724 Y-110.945 Z-1.857
X-221.777 Y-111.729 Z-1.885
X-221.793 Y-112.523 Z-1.913
X-221.775 Y-113.318 Z-1.94
X-221.72 Y-114.106 Z-1.968
X-221.631 Y-114.88 Z-1.995
X-221.509 Y-115.632 Z-2.022
X-221.356 Y-116.358 Z-2.048
X-221.176 Y-117.052 Z-2.073
X-220.971 Y-117.71 Z-2.097
X-220.744 Y-118.329 Z-2.12
X-220.498 Y-118.909 Z-2.142
X-220.236 Y-119.447 Z-2.163
X-219.959 Y-119.944 Z-2.183
X-219.693 Y-120.367 Z-2.2
S6000
X-219.672 Y-120.4 F1000
X-219.376 Y-120.813
X-219.074 Y-121.186
X-218.768 Y-121.518
X-218.459 Y-121.811
X-218.151 Y-122.065
X-217.846 Y-122.281
X-217.541 Y-122.463
X-217.24 Y-122.612
X-216.946 Y-122.728
X-216.655 Y-122.814
X-216.367 Y-122.873
X-216.083 Y-122.904
X-215.799 Y-122.909
X-215.514 Y-122.889
X-215.228 Y-122.842
X-214.94 Y-122.768
X-214.648 Y-122.665
X-214.351 Y-122.531
X-214.05 Y-122.364
X-213.746 Y-122.165
X-213.442 Y-121.929
X-213.137 Y-121.658
X-212.832 Y-121.346
X-212.53 Y-120.997
X-212.236 Y-120.61
X-211.948 Y-120.18
X-211.669 Y-119.71
X-211.403 Y-119.201
X-211.152 Y-118.651
X-210.917 Y-118.063
X-210.703 Y-117.439
X-210.511 Y-116.776
X-210.344 Y-116.079
X-210.205 Y-115.353
X-210.096 Y-114.6
X-210.019 Y-113.826
X-209.977 Y-113.038
X-209.971 Y-112.245
X-210.001 Y-111.451
X-210.066 Y-110.665
X-210.165 Y-109.897
X-210.296 Y-109.152
X-210.457 Y-108.435
X-210.645 Y-107.752
X-210.857 Y-107.105
X-211.089 Y-106.497
X-211.34 Y-105.93
X-211.608 Y-105.402
X-211.887 Y-104.917
X-212.177 Y-104.474
X-212.475 Y-104.073
X-212.779 Y-103.712
X-213.085 Y-103.392
X-213.393 Y-103.111
X-213.702 Y-102.868
X-214.008 Y-102.661
X-214.31 Y-102.49
X-214.608 Y-102.351
X-214.903 Y-102.244
X-215.193 Y-102.165
X-215.479 Y-102.115
X-215.784 Y-102.089
X-215.857 Y-102.088
X-216.166 Y-102.103
X-216.451 Y-102.141
X-216.738 Y-102.207
X-217.028 Y-102.302
X-217.325 Y-102.427
X-217.625 Y-102.583
X-217.927 Y-102.773
X-218.232 Y-102.998
X-218.536 Y-103.259
X-218.842 Y-103.558
X-219.144 Y-103.897
X-219.295 Y-104.088
X-219.442 Y-104.274
X-219.732 Y-104.691
X-220.013 Y-105.148
X-220.284 Y-105.646
X-220.539 Y-106.183
X-220.779 Y-106.759
X-220.999 Y-107.374
X-221.198 Y-108.027
X-221.373 Y-108.713
X-221.521 Y-109.431
X-221.638 Y-110.176
X-221.724 Y-110.945
X-221.777 Y-111.729
X-221.793 Y-112.523
X-221.775 Y-113.318
X-221.72 Y-114.106
X-221.631 Y-114.88
X-221.509 Y-115.632
X-221.356 Y-116.358
X-221.176 Y-117.052
X-220.971 Y-117.71
X-220.744 Y-118.329
X-220.498 Y-118.909
X-220.236 Y-119.447
X-219.959 Y-119.944
X-219.693 Y-120.367
G0 Z25
X-228.676 Y-138.921
Z5
G1 Z2.5 F333.3
S5000
X-228.599 Y-138.99 Z2.496
X-228.343 Y-139.189 Z2.485
X-228.042 Y-139.396 Z2.472
X-227.692 Y-139.606 Z2.458
X-227.294 Y-139.819 Z2.442
X-226.846 Y-140.032 Z2.425
X-226.349 Y-140.243 Z2.406
X-225.801 Y-140.449 Z2.386
X-225.198 Y-140.651 Z2.363
X-224.542 Y-140.846 Z2.34
X-223.831 Y-141.033 Z2.314
X-223.062 Y-141.208 Z2.286
X-222.231 Y-141.371 Z2.257
X-221.335 Y-141.519 Z2.225
X-220.373 Y-141.649 Z2.191
X-219.341 Y-141.758 Z2.155
X-218.244 Y-141.841 Z2.116
X-217.084 Y-141.894 Z2.076
X-215.882 Y-141.912 Z2.034
X-214.665 Y-141.893 Z1.991
X-213.472 Y-141.838 Z1.95
X-212.332 Y-141.749 Z1.91
X-211.262 Y-141.633 Z1.872
X-210.269 Y-141.495 Z1.837
X-209.35 Y-141.337 Z1.805
X-208.504 Y-141.165 Z1.775
X-207.724 Y-140.98 Z1.747
X-207.008 Y-140.786 Z1.721
X-206.354 Y-140.584 Z1.697
X-205.758 Y-140.375 Z1.675
X-205.216 Y-140.162 Z1.654
X-204.73 Y-139.946 Z1.636
X-204.296 Y-139.73 Z1.619
X-203.913 Y-139.515 Z1.603
X-203.579 Y-139.302 Z1.59
X-203.296 Y-139.097 Z1.577
X-203.061 Y-138.901 Z1.567
X-202.87 Y-138.717 Z1.558
X-202.725 Y-138.55 Z1.55
X-202.618 Y-138.402 Z1.543
X-202.548 Y-138.279 Z1.538
X-202.505 Y-138.177 Z1.535
X-202.483 Y-138.096 Z1.532
X-202.473 Y-138.03 Z1.529
Y-137.971 Z1.527
X-202.483 Y-137.904 Z1.525
X-202.506 Y-137.822 Z1.522
X-202.548 Y-137.722 Z1.518
X-202.619 Y-137.598 Z1.513
X-202.723 Y-137.452 Z1.507
X-202.867 Y-137.286 Z1.499
X-203.054 Y-137.105 Z1.49
X-203.287 Y-136.91 Z1.48
X-203.564 Y-136.708 Z1.468
X-203.89 Y-136.499 Z1.454
X-204.265 Y-136.287 Z1.439
X-204.689 Y-136.074 Z1.422
X-205.16 Y-135.862 Z1.404
X-205.684 Y-135.653 Z1.385
X-206.259 Y-135.448 Z1.363
X-206.887 Y-135.25 Z1.34
X-207.57 Y-135.059 Z1.316
X-208.311 Y-134.878 Z1.289
X-209.111 Y-134.708 Z1.26
X-209.973 Y-134.553 Z1.23
X-210.902 Y-134.413 Z1.197
X-211.899 Y-134.294 Z1.162
X-212.965 Y-134.197 Z1.125
X-214.095 Y-134.128 Z1.085
X-215.279 Y-134.092 Z1.044
X-216.493 Z1.001
X-217.702 Y-134.13 Z0.959
X-218.871 Y-134.203 Z0.918
X-219.978 Y-134.305 Z0.879
X-221.009 Y-134.433 Z0.843
X-221.964 Y-134.582 Z0.809
X-222.846 Y-134.748 Z0.778
X-223.659 Y-134.926 Z0.749
X-224.406 Y-135.116 Z0.722
X-225.09 Y-135.315 Z0.697
X-225.715 Y-135.52 Z0.674
X-226.283 Y-135.732 Z0.653
X-226.798 Y-135.947 Z0.633
X-227.258 Y-136.163 Z0.616
X-227.666 Y-136.379 Z0.6
X-228.024 Y-136.593 Z0.585
X-228.332 Y-136.801 Z0.572
X-228.591 Y-137.002 Z0.561
X-228.803 Y-137.193 Z0.551
X-228.971 Y-137.369 Z0.542
X-229.095 Y-137.526 Z0.535
X-229.183 Y-137.662 Z0.529
X-229.239 Y-137.775 Z0.525
X-229.271 Y-137.866 Z0.522
X-229.286 Y-137.938 Z0.519
X-229.29 Y-138 Z0.517
X-229.286 Y-138.063 Z0.515
X-229.271 Y-138.134 Z0.512
X-229.239 Y-138.225 Z0.509
X-229.183 Y-138.337 Z0.505
X-229.097 Y-138.471 Z0.499
X-228.973 Y-138.628 Z0.492
X-228.809 Y-138.802 Z0.484
X-228.599 Y-138.99 Z0.474
X-228.343 Y-139.189 Z0.462
X-228.042 Y-139.396 Z0.45
X-227.692 Y-139.606 Z0.435
X-227.294 Y-139.819 Z0.42
X-226.846 Y-140.032 Z0.402
X-226.349 Y-140.243 Z0.384
X-225.801 Y-140.449 Z0.363
X-225.198 Y-140.651 Z0.341
X-224.542 Y-140.846 Z0.317
X-223.831 Y-141.033 Z0.291
X-223.062 Y-141.208 Z0.264
X-222.231 Y-141.371 Z0.234
X-221.335 Y-141.519 Z0.202
X-220.373 Y-141.649 Z0.169
X-219.341 Y-141.758 Z0.132
X-218.244 Y-141.841 Z0.094
X-217.084 Y-141.894 Z0.053
X-215.882 Y-141.912 Z0.011
X-214.665 Y-141.893 Z-0.031
X-213.472 Y-141.838 Z-0.073
X-212.332 Y-141.749 Z-0.113
X-211.262 Y-141.633 Z-0.15
X-210.269 Y-141.495 Z-0.185
X-209.35 Y-141.337 Z-0.218
X-208.504 Y-141.165 Z-0.248
X-207.724 Y-140.98 Z-0.276
X-207.008 Y-140.786 Z-0.302
X-206.354 Y-140.584 Z-0.326
X-205.758 Y-140.375 Z-0.348
X-205.216 Y-140.162 Z-0.368
X-204.73 Y-139.946 Z-0.387
X-204.296 Y-139.73 Z-0.404
X-203.913 Y-139.515 Z-0.419
X-203.579 Y-139.302 Z-0.433
X-203.296 Y-139.097 Z-0.445
X-203.061 Y-138.901 Z-0.456
X-202.87 Y-138.717 Z-0.465
X-202.725 Y-138.55 Z-0.473
X-202.618 Y-138.402 Z-0.479
X-202.548 Y-138.279 Z-0.484
X-202.505 Y-138.177 Z-0.488
X-202.483 Y-138.096 Z-0.491
X-202.473 Y-138.03 Z-0.493
Y-137.971 Z-0.495
X-202.483 Y-137.904 Z-0.498
X-202.506 Y-137.822 Z-0.501
X-202.548 Y-137.722 Z-0.504
X-202.619 Y-137.598 Z-0.509
X-202.723 Y-137.452 Z-0.516
X-202.867 Y-137.286 Z-0.523
X-203.054 Y-137.105 Z-0.532
X-203.287 Y-136.91 Z-0.543
X-203.564 Y-136.708 Z-0.555
X-203.89 Y-136.499 Z-0.569
X-204.265 Y-136.287 Z-0.584
X-204.689 Y-136.074 Z-0.6
X-205.16 Y-135.862 Z-0.618
X-205.684 Y-135.653 Z-0.638
X-206.259 Y-135.448 Z-0.659
X-206.887 Y-135.25 Z-0.682
X-207.57 Y-135.059 Z-0.707
X-208.311 Y-134.878 Z-0.734
X-209.111 Y-134.708 Z-0.762
X-209.973 Y-134.553 Z-0.793
X-210.902 Y-134.413 Z-0.826
X-211.899 Y-134.294 Z-0.861
X-212.965 Y-134.197 Z-0.898
X-214.095 Y-134.128 Z-0.938
X-215.279 Y-134.092 Z-0.979
X-215.883 Z-1
S6000
X-216.493 F1000
X-217.702 Y-134.13
X-218.871 Y-134.203
X-219.978 Y-134.305
X-221.009 Y-134.433
X-221.964 Y-134.582
X-222.846 Y-134.748
X-223.659 Y-134.926
X-224.406 Y-135.116
X-225.09 Y-135.315
X-225.715 Y-135.52
X-226.283 Y-135.732
X-226.798 Y-135.947
X-227.258 Y-136.163
X-227.666 Y-136.379
X-228.024 Y-136.593
X-228.332 Y-136.801
X-228.591 Y-137.002
X-228.803 Y-137.193
X-228.971 Y-137.369
X-229.095 Y-137.526
X-229.183 Y-137.662
X-229.239 Y-137.775
X-229.271 Y-137.866
X-229.286 Y-137.938
X-229.29 Y-138
X-229.286 Y-138.063
X-229.271 Y-138.134
X-229.239 Y-138.225
X-229.183 Y-138.337
X-229.097 Y-138.471
X-228.973 Y-138.628
X-228.809 Y-138.802
X-228.599 Y-138.99
X-228.343 Y-139.189
X-228.042 Y-139.396
X-227.692 Y-139.606
X-227.294 Y-139.819
X-226.846 Y-140.032
X-226.349 Y-140.243
X-225.801 Y-140.449
X-225.198 Y-140.651
X-224.542 Y-140.846
X-223.831 Y-141.033
X-223.062 Y-141.208
X-222.231 Y-141.371
X-221.335 Y-141.519
X-220.373 Y-141.649
X-219.341 Y-141.758
X-218.244 Y-141.841
X-217.084 Y-141.894
X-215.882 Y-141.912
X-214.665 Y-141.893
X-213.472 Y-141.838
X-212.332 Y-141.749
X-211.262 Y-141.633
X-210.269 Y-141.495
X-209.35 Y-141.337
X-208.504 Y-141.165
X-207.724 Y-140.98
X-207.008 Y-140.786
X-206.354 Y-140.584
X-205.758 Y-140.375
X-205.216 Y-140.162
X-204.73 Y-139.946
X-204.296 Y-139.73
X-203.913 Y-139.515
X-203.579 Y-139.302
X-203.296 Y-139.097
X-203.061 Y-138.901
X-202.87 Y-138.717
X-202.725 Y-138.55
X-202.618 Y-138.402
X-202.548 Y-138.279
X-202.505 Y-138.177
X-202.483 Y-138.096
X-202.473 Y-138.03
Y-137.971
X-202.483 Y-137.904
X-202.506 Y-137.822
X-202.548 Y-137.722
X-202.619 Y-137.598
X-202.723 Y-137.452
X-202.867 Y-137.286
X-203.054 Y-137.105
X-203.287 Y-136.91
X-203.564 Y-136.708
X-203.89 Y-136.499
X-204.265 Y-136.287
X-204.689 Y-136.074
X-205.16 Y-135.862
X-205.684 Y-135.653
X-206.259 Y-135.448
X-206.887 Y-135.25
X-207.57 Y-135.059
X-208.311 Y-134.878
X-209.111 Y-134.708
X-209.973 Y-134.553
X-210.902 Y-134.413
X-211.899 Y-134.294
X-212.965 Y-134.197
X-214.095 Y-134.128
X-215.279 Y-134.092
X-215.883
S5000
X-216.493 Z-1.021 F333.3
X-217.702 Y-134.13 Z-1.064
X-218.871 Y-134.203 Z-1.104
X-219.978 Y-134.305 Z-1.143
X-221.009 Y-134.433 Z-1.18
X-221.964 Y-134.582 Z-1.213
X-222.846 Y-134.748 Z-1.245
X-223.659 Y-134.926 Z-1.274
X-224.406 Y-135.116 Z-1.301
X-225.09 Y-135.315 Z-1.326
X-225.715 Y-135.52 Z-1.348
X-226.283 Y-135.732 Z-1.37
X-226.798 Y-135.947 Z-1.389
X-227.258 Y-136.163 Z-1.407
X-227.666 Y-136.379 Z-1.423
X-228.024 Y-136.593 Z-1.438
X-228.332 Y-136.801 Z-1.451
X-228.591 Y-137.002 Z-1.462
X-228.803 Y-137.193 Z-1.472
X-228.971 Y-137.369 Z-1.48
X-229.095 Y-137.526 Z-1.487
X-229.183 Y-137.662 Z-1.493
X-229.239 Y-137.775 Z-1.498
X-229.271 Y-137.866 Z-1.501
X-229.286 Y-137.938 Z-1.503
X-229.29 Y-138 Z-1.506
X-229.286 Y-138.063 Z-1.508
X-229.271 Y-138.134 Z-1.51
X-229.239 Y-138.225 Z-1.514
X-229.183 Y-138.337 Z-1.518
X-229.097 Y-138.471 Z-1.524
X-228.973 Y-138.628 Z-1.531
X-228.809 Y-138.802 Z-1.539
X-228.599 Y-138.99 Z-1.549
X-228.343 Y-139.189 Z-1.56
X-228.042 Y-139.396 Z-1.573
X-227.692 Y-139.606 Z-1.587
X-227.368 Y-139.78 Z-1.6
S6000
X-227.294 Y-139.819 F1000
X-226.846 Y-140.032
X-226.349 Y-140.243
X-225.801 Y-140.449
X-225.198 Y-140.651
X-224.542 Y-140.846
X-223.831 Y-141.033
X-223.062 Y-141.208
X-222.231 Y-141.371
X-221.335 Y-141.519
X-220.373 Y-141.649
X-219.341 Y-141.758
X-218.244 Y-141.841
X-217.084 Y-141.894
X-215.882 Y-141.912
X-214.665 Y-141.893
X-213.472 Y-141.838
X-212.332 Y-141.749
X-211.262 Y-141.633
X-210.269 Y-141.495
X-209.35 Y-141.337
X-208.504 Y-141.165
X-207.724 Y-140.98
X-207.008 Y-140.786
X-206.354 Y-140.584
X-205.758 Y-140.375
X-205.216 Y-140.162
X-204.73 Y-139.946
X-204.296 Y-139.73
X-203.913 Y-139.515
X-203.579 Y-139.302
X-203.296 Y-139.097
X-203.061 Y-138.901
X-202.87 Y-138.717
X-202.725 Y-138.55
X-202.618 Y-138.402
X-202.548 Y-138.279
X-202.505 Y-138.177
X-202.483 Y-138.096
X-202.473 Y-138.03
Y-137.971
X-202.483 Y-137.904
X-202.506 Y-137.822
X-202.548 Y-137.722
X-202.619 Y-137.598
X-202.723 Y-137.452
X-202.867 Y-137.286
X-203.054 Y-137.105
X-203.287 Y-136.91
X-203.564 Y-136.708
X-203.89 Y-136.499
X-204.265 Y-136.287
X-204.689 Y-136.074
X-205.16 Y-135.862
X-205.684 Y-135.653
X-206.259 Y-135.448
X-206.887 Y-135.25
X-207.57 Y-135.059
X-208.311 Y-134.878
X-209.111 Y-134.708
X-209.973 Y-134.553
X-210.902 Y-134.413
X-211.899 Y-134.294
X-212.965 Y-134.197
X-214.095 Y-134.128
X-215.279 Y-134.092
X-216.493
X-217.702 Y-134.13
X-218.871 Y-134.203
X-219.978 Y-134.305
X-221.009 Y-134.433
X-221.964 Y-134.582
X-222.846 Y-134.748
X-223.659 Y-134.926
X-224.406 Y-135.116
X-225.09 Y-135.315
X-225.715 Y-135.52
X-226.283 Y-135.732
X-226.798 Y-135.947
X-227.258 Y-136.163
X-227.666 Y-136.379
X-228.024 Y-136.593
X-228.332 Y-136.801
X-228.591 Y-137.002
X-228.803 Y-137.193
X-228.971 Y-137.369
X-229.095 Y-137.526
X-229.183 Y-137.662
X-229.239 Y-137.775
X-229.271 Y-137.866
X-229.286 Y-137.938
X-229.29 Y-138
X-229.286 Y-138.063
X-229.271 Y-138.134
X-229.239 Y-138.225
X-229.183 Y-138.337
X-229.097 Y-138.471
X-228.973 Y-138.628
X-228.809 Y-138.802
X-228.599 Y-138.99
X-228.343 Y-139.189
X-228.042 Y-139.396
X-227.692 Y-139.606
X-227.368 Y-139.78
S5000
X-227.294 Y-139.819 Z-1.603 F333.3
X-226.846 Y-140.032 Z-1.62
X-226.349 Y-140.243 Z-1.639
X-225.801 Y-140.449 Z-1.66
X-225.198 Y-140.651 Z-1.682
X-224.542 Y-140.846 Z-1.706
X-223.831 Y-141.033 Z-1.731
X-223.062 Y-141.208 Z-1.759
X-222.231 Y-141.371 Z-1.788
X-221.335 Y-141.519 Z-1.82
X-220.373 Y-141.649 Z-1.854
X-219.341 Y-141.758 Z-1.89
X-218.244 Y-141.841 Z-1.929
X-217.084 Y-141.894 Z-1.969
X-215.882 Y-141.912 Z-2.011
X-214.665 Y-141.893 Z-2.054
X-213.472 Y-141.838 Z-2.095
X-212.332 Y-141.749 Z-2.135
X-211.262 Y-141.633 Z-2.173
X-210.495 Y-141.527 Z-2.2
S6000
X-210.269 Y-141.495 F1000
X-209.35 Y-141.337
X-208.504 Y-141.165
X-207.724 Y-140.98
X-207.008 Y-140.786
X-206.354 Y-140.584
X-205.758 Y-140.375
X-205.216 Y-140.162
X-204.73 Y-139.946
X-204.296 Y-139.73
X-203.913 Y-139.515
X-203.579 Y-139.302
X-203.296 Y-139.097
X-203.061 Y-138.901
X-202.87 Y-138.717
X-202.725 Y-138.55
X-202.618 Y-138.402
X-202.548 Y-138.279
X-202.505 Y-138.177
X-202.483 Y-138.096
X-202.473 Y-138.03
Y-137.971
X-202.483 Y-137.904
X-202.506 Y-137.822
X-202.548 Y-137.722
X-202.619 Y-137.598
X-202.723 Y-137.452
X-202.867 Y-137.286
X-203.054 Y-137.105
X-203.287 Y-136.91
X-203.564 Y-136.708
X-203.89 Y-136.499
X-204.265 Y-136.287
X-204.689 Y-136.074
X-205.16 Y-135.862
X-205.684 Y-135.653
X-206.259 Y-135.448
X-206.887 Y-135.25
X-207.57 Y-135.059
X-208.311 Y-134.878
X-209.111 Y-134.708
X-209.973 Y-134.553
X-210.902 Y-134.413
X-211.899 Y-134.294
X-212.965 Y-134.197
X-214.095 Y-134.128
X-215.279 Y-134.092
X-216.493
X-217.702 Y-134.13
X-218.871 Y-134.203
X-219.978 Y-134.305
X-221.009 Y-134.433
X-221.964 Y-134.582
X-222.846 Y-134.748
X-223.659 Y-134.926
X-224.406 Y-135.116
X-225.09 Y-135.315
X-225.715 Y-135.52
X-226.283 Y-135.732
X-226.798 Y-135.947
X-227.258 Y-136.163
X-227.666 Y-136.379
X-228.024 Y-136.593
X-228.332 Y-136.801
X-228.591 Y-137.002
X-228.803 Y-137.193
X-228.971 Y-137.369
X-229.095 Y-137.526
X-229.183 Y-137.662
X-229.239 Y-137.775
X-229.271 Y-137.866
X-229.286 Y-137.938
X-229.29 Y-138
X-229.286 Y-138.063
X-229.271 Y-138.134
X-229.239 Y-138.225
X-229.183 Y-138.337
X-229.097 Y-138.471
X-228.973 Y-138.628
X-228.809 Y-138.802
X-228.599 Y-138.99
X-228.343 Y-139.189
X-228.042 Y-139.396
X-227.692 Y-139.606
X-227.368 Y-139.78
X-227.294 Y-139.819
X-226.846 Y-140.032
X-226.349 Y-140.243
X-225.801 Y-140.449
X-225.198 Y-140.651
X-224.542 Y-140.846
X-223.831 Y-141.033
X-223.062 Y-141.208
X-222.231 Y-141.371
X-221.335 Y-141.519
X-220.373 Y-141.649
X-219.341 Y-141.758
X-218.244 Y-141.841
X-217.084 Y-141.894
X-215.882 Y-141.912
X-214.665 Y-141.893
X-213.472 Y-141.838
X-212.332 Y-141.749
X-211.262 Y-141.633
X-210.495 Y-141.527
G0 Z25
X-213.804 Y-148.797
Z5
G1 Z2.5 F333.3
S5000
G3 X-217.958 Y-169.203 Z1.358 I-2.077 J-10.203
X-213.804 Y-148.797 Z0.215 I2.077 J10.203
X-226.241 Y-157.956 Z-0.392 I-2.077 J-10.203
X-215.881 Y-169.413 Z-1 I10.36 J-1.044
S6000
X-215.881 Y-148.587 I0 J10.413 F1000
X-215.881 Y-169.413 I0 J-10.413
S5000
X-205.501 Y-158.175 Z-1.6 I0 J10.413 F333.3
S6000
X-226.261 Y-159.825 I-10.38 J-0.825 F1000
X-205.501 Y-158.175 I10.38 J0.825
S5000
X-217.526 Y-148.718 Z-2.2 I-10.38 J-0.825 F333.3
S6000
X-214.236 Y-169.282 I1.645 J-10.282 F1000
X-217.526 Y-148.718 I-1.645 J10.282
G0 Z25
X-207.567 Y-181.128
Z5
G1 Z2.5 F333.3
S5000
X-207.9 Y-180.976 Z2.487
X-208.393 Y-180.777 Z2.469
X-208.939 Y-180.585 Z2.448
X-209.539 Y-180.401 Z2.427
X-210.191 Y-180.229 Z2.403
X-210.901 Y-180.069 Z2.378
X-211.667 Y-179.927 Z2.35
X-212.492 Y-179.804 Z2.321
X-213.374 Y-179.705 Z2.29
X-214.308 Y-179.633 Z2.258
X-215.284 Y-179.594 Z2.223
X-216.286 Y-179.591 Z2.188
X-217.284 Y-179.624 Z2.154
X-218.254 Y-179.692 Z2.12
X-219.176 Y-179.792 Z2.087
X-220.04 Y-179.918 Z2.057
X-220.839 Y-180.065 Z2.028
X-221.575 Y-180.23 Z2.002
X-222.249 Y-180.407 Z1.978
X-222.861 Y-180.597 Z1.955
X-223.417 Y-180.795 Z1.935
X-223.919 Y-181 Z1.916
X-224.366 Y-181.208 Z1.899
X-224.76 Y-181.416 Z1.883
X-225.103 Y-181.624 Z1.869
X-225.399 Y-181.828 Z1.856
X-225.645 Y-182.024 Z1.845
X-225.844 Y-182.21 Z1.836
X-226 Y-182.381 Z1.828
X-226.114 Y-182.534 Z1.821
X-226.195 Y-182.67 Z1.816
X-226.246 Y-182.781 Z1.811
X-226.274 Y-182.87 Z1.808
X-226.287 Y-182.947 Z1.805
X-226.29 Y-183.017 Z1.803
X-226.282 Y-183.09 Z1.8
X-226.263 Y-183.171 Z1.797
X-226.225 Y-183.27 Z1.794
X-226.16 Y-183.393 Z1.789
X-226.066 Y-183.535 Z1.783
X-225.934 Y-183.695 Z1.776
X-225.76 Y-183.872 Z1.767
X-225.542 Y-184.061 Z1.757
X-225.279 Y-184.258 Z1.746
X-224.97 Y-184.46 Z1.733
X-224.612 Y-184.665 Z1.718
X-224.205 Y-184.871 Z1.702
X-223.748 Y-185.073 Z1.685
X-223.241 Y-185.27 Z1.666
X-222.682 Y-185.461 Z1.645
X-222.071 Y-185.642 Z1.623
X-221.404 Y-185.811 Z1.599
X-220.682 Y-185.967 Z1.573
X-219.901 Y-186.105 Z1.545
X-219.062 Y-186.222 Z1.516
X-218.167 Y-186.315 Z1.484
X-217.22 Y-186.379 Z1.451
X-216.236 Y-186.41 Z1.417
X-215.234 Y-186.405 Z1.382
X-214.24 Y-186.362 Z1.347
X-213.279 Y-186.286 Z1.314
X-212.37 Y-186.18 Z1.282
X-211.523 Y-186.049 Z1.252
X-210.74 Y-185.897 Z1.224
X-210.02 Y-185.728 Z1.198
X-209.36 Y-185.547 Z1.174
X-208.761 Y-185.355 Z1.152
X-208.219 Y-185.156 Z1.132
X-207.731 Y-184.95 Z1.113
X-207.296 Y-184.742 Z1.097
X-206.915 Y-184.533 Z1.081
X-206.583 Y-184.326 Z1.068
X-206.3 Y-184.123 Z1.056
X-206.066 Y-183.929 Z1.045
X-205.876 Y-183.746 Z1.036
X-205.731 Y-183.58 Z1.028
X-205.626 Y-183.432 Z1.022
X-205.553 Y-183.303 Z1.017
X-205.508 Y-183.195 Z1.012
X-205.484 Y-183.11 Z1.009
X-205.471 Y-183.016 Z1.006
X-205.477 Y-182.931 Z1.003
X-205.494 Y-182.851 Z1
X-205.527 Y-182.755 Z0.997
X-205.584 Y-182.639 Z0.992
X-205.67 Y-182.502 Z0.987
X-205.793 Y-182.345 Z0.98
X-205.957 Y-182.172 Z0.971
X-206.164 Y-181.985 Z0.961
X-206.414 Y-181.791 Z0.95
X-206.714 Y-181.589 Z0.938
X-207.061 Y-181.383 Z0.924
X-207.454 Y-181.179 Z0.908
X-207.9 Y-180.976 Z0.891
X-208.393 Y-180.777 Z0.873
X-208.939 Y-180.585 Z0.852
X-209.539 Y-180.401 Z0.83
X-210.191 Y-180.229 Z0.807
X-210.901 Y-180.069 Z0.781
X-211.667 Y-179.927 Z0.754
X-212.492 Y-179.804 Z0.725
X-213.374 Y-179.705 Z0.694
X-214.308 Y-179.633 Z0.661
X-215.284 Y-179.594 Z0.627
X-216.286 Y-179.591 Z0.592
X-217.284 Y-179.624 Z0.557
X-218.254 Y-179.692 Z0.523
X-219.176 Y-179.792 Z0.491
X-220.04 Y-179.918 Z0.461
X-220.839 Y-180.065 Z0.432
X-221.575 Y-180.23 Z0.406
X-222.249 Y-180.407 Z0.382
X-222.861 Y-180.597 Z0.359
X-223.417 Y-180.795 Z0.339
X-223.919 Y-181 Z0.32
X-224.366 Y-181.208 Z0.302
X-224.76 Y-181.416 Z0.287
X-225.103 Y-181.624 Z0.273
X-225.399 Y-181.828 Z0.26
X-225.645 Y-182.024 Z0.249
X-225.844 Y-182.21 Z0.24
X-226 Y-182.381 Z0.232
X-226.114 Y-182.534 Z0.225
X-226.195 Y-182.67 Z0.22
X-226.246 Y-182.781 Z0.215
X-226.274 Y-182.87 Z0.212
X-226.287 Y-182.947 Z0.209
X-226.29 Y-183.017 Z0.207
X-226.282 Y-183.09 Z0.204
X-226.263 Y-183.171 Z0.201
X-226.225 Y-183.27 Z0.198
X-226.16 Y-183.393 Z0.193
X-226.066 Y-183.535 Z0.187
X-225.934 Y-183.695 Z0.18
X-225.76 Y-183.872 Z0.171
X-225.542 Y-184.061 Z0.161
X-225.279 Y-184.258 Z0.149
X-224.97 Y-184.46 Z0.137
X-224.612 Y-184.665 Z0.122
X-224.205 Y-184.871 Z0.106
X-223.748 Y-185.073 Z0.089
X-223.241 Y-185.27 Z0.07
X-222.682 Y-185.461 Z0.049
X-222.071 Y-185.642 Z0.027
X-221.404 Y-185.811 Z0.003
X-220.682 Y-185.967 Z-0.023
X-219.901 Y-186.105 Z-0.051
X-219.062 Y-186.222 Z-0.08
X-218.167 Y-186.315 Z-0.112
X-217.22 Y-186.379 Z-0.145
X-216.236 Y-186.41 Z-0.179
X-215.234 Y-186.405 Z-0.214
X-214.24 Y-186.362 Z-0.249
X-213.279 Y-186.286 Z-0.283
X-212.37 Y-186.18 Z-0.315
X-211.523 Y-186.049 Z-0.344
X-210.74 Y-185.897 Z-0.372
X-210.02 Y-185.728 Z-0.398
X-209.36 Y-185.547 Z-0.422
X-208.761 Y-185.355 Z-0.444
X-208.219 Y-185.156 Z-0.464
X-207.731 Y-184.95 Z-0.483
X-207.296 Y-184.742 Z-0.499
X-206.915 Y-184.533 Z-0.515
X-206.583 Y-184.326 Z-0.528
X-206.3 Y-184.123 Z-0.54
X-206.066 Y-183.929 Z-0.551
X-205.876 Y-183.746 Z-0.56
X-205.731 Y-183.58 Z-0.568
X-205.626 Y-183.432 Z-0.574
X-205.553 Y-183.303 Z-0.58
X-205.508 Y-183.195 Z-0.584
X-205.484 Y-183.11 Z-0.587
X-205.471 Y-183.016 Z-0.59
X-205.477 Y-182.931 Z-0.593
X-205.494 Y-182.851 Z-0.596
X-205.527 Y-182.755 Z-0.599
X-205.584 Y-182.639 Z-0.604
X-205.67 Y-182.502 Z-0.61
X-205.793 Y-182.345 Z-0.617
X-205.957 Y-182.172 Z-0.625
X-206.164 Y-181.985 Z-0.635
X-206.414 Y-181.791 Z-0.646
X-206.714 Y-181.589 Z-0.658
X-207.061 Y-181.383 Z-0.672
X-207.454 Y-181.179 Z-0.688
X-207.9 Y-180.976 Z-0.705
X-208.393 Y-180.777 Z-0.724
X-208.939 Y-180.585 Z-0.744
X-209.539 Y-180.401 Z-0.766
X-210.191 Y-180.229 Z-0.789
X-210.901 Y-180.069 Z-0.815
X-211.667 Y-179.927 Z-0.842
X-212.492 Y-179.804 Z-0.871
X-213.374 Y-179.705 Z-0.902
X-214.308 Y-179.633 Z-0.935
X-215.284 Y-179.594 Z-0.969
X-216.179 Y-179.591 Z-1
S6000
X-216.286 F1000
X-217.284 Y-179.624
X-218.254 Y-179.692
X-219.176 Y-179.792
X-220.04 Y-179.918
X-220.839 Y-180.065
X-221.575 Y-180.23
X-222.249 Y-180.407
X-222.861 Y-180.597
X-223.417 Y-180.795
X-223.919 Y-181
X-224.366 Y-181.208
X-224.76 Y-181.416
X-225.103 Y-181.624
X-225.399 Y-181.828
X-225.645 Y-182.024
X-225.844 Y-182.21
X-226 Y-182.381
X-226.114 Y-182.534
X-226.195 Y-182.67
X-226.246 Y-182.781
X-226.274 Y-182.87
X-226.287 Y-182.947
X-226.29 Y-183.017
X-226.282 Y-183.09
X-226.263 Y-183.171
X-226.225 Y-183.27
X-226.16 Y-183.393
X-226.066 Y-183.535
X-225.934 Y-183.695
X-225.76 Y-183.872
X-225.542 Y-184.061
X-225.279 Y-184.258
X-224.97 Y-184.46
X-224.612 Y-184.665
X-224.205 Y-184.871
X-223.748 Y-185.073
X-223.241 Y-185.27
X-222.682 Y-185.461
X-222.071 Y-185.642
X-221.404 Y-185.811
X-220.682 Y-185.967
X-219.901 Y-186.105
X-219.062 Y-186.222
X-218.167 Y-186.315
X-217.22 Y-186.379
X-216.236 Y-186.41
X-215.234 Y-186.405
X-214.24 Y-186.362
X-213.279 Y-186.286
X-212.37 Y-186.18
X-211.523 Y-186.049
X-210.74 Y-185.897
X-210.02 Y-185.728
X-209.36 Y-185.547
X-208.761 Y-185.355
X-208.219 Y-185.156
X-207.731 Y-184.95
X-207.296 Y-184.742
X-206.915 Y-184.533
X-206.583 Y-184.326
X-206.3 Y-184.123
X-206.066 Y-183.929
X-205.876 Y-183.746
X-205.731 Y-183.58
X-205.626 Y-183.432
X-205.553 Y-183.303
X-205.508 Y-183.195
X-205.484 Y-183.11
X-205.471 Y-183.016
X-205.477 Y-182.931
X-205.494 Y-182.851
X-205.527 Y-182.755
X-205.584 Y-182.639
X-205.67 Y-182.502
X-205.793 Y-182.345
X-205.957 Y-182.172
X-206.164 Y-181.985
X-206.414 Y-181.791
X-206.714 Y-181.589
X-207.061 Y-181.383
X-207.454 Y-181.179
X-207.9 Y-180.976
X-208.393 Y-180.777
X-208.939 Y-180.585
X-209.539 Y-180.401
X-210.191 Y-180.229
X-210.901 Y-180.069
X-211.667 Y-179.927
X-212.492 Y-179.804
X-213.374 Y-179.705
X-214.308 Y-179.633
X-215.284 Y-179.594
X-216.179 Y-179.591
S5000
X-216.286 Z-1.004 F333.3
X-217.284 Y-179.624 Z-1.039
X-218.254 Y-179.692 Z-1.073
X-219.176 Y-179.792 Z-1.105
X-220.04 Y-179.918 Z-1.135
X-220.839 Y-180.065 Z-1.164
X-221.575 Y-180.23 Z-1.19
X-222.249 Y-180.407 Z-1.214
X-222.861 Y-180.597 Z-1.237
X-223.417 Y-180.795 Z-1.257
X-223.919 Y-181 Z-1.276
X-224.366 Y-181.208 Z-1.294
X-224.76 Y-181.416 Z-1.309
X-225.103 Y-181.624 Z-1.323
X-225.399 Y-181.828 Z-1.336
X-225.645 Y-182.024 Z-1.347
X-225.844 Y-182.21 Z-1.356
X-226 Y-182.381 Z-1.364
X-226.114 Y-182.534 Z-1.371
X-226.195 Y-182.67 Z-1.377
X-226.246 Y-182.781 Z-1.381
X-226.274 Y-182.87 Z-1.384
X-226.287 Y-182.947 Z-1.387
X-226.29 Y-183.017 Z-1.389
X-226.282 Y-183.09 Z-1.392
X-226.263 Y-183.171 Z-1.395
X-226.225 Y-183.27 Z-1.398
X-226.16 Y-183.393 Z-1.403
X-226.066 Y-183.535 Z-1.409
X-225.934 Y-183.695 Z-1.416
X-225.76 Y-183.872 Z-1.425
X-225.542 Y-184.061 Z-1.435
X-225.279 Y-184.258 Z-1.447
X-224.97 Y-184.46 Z-1.46
X-224.612 Y-184.665 Z-1.474
X-224.205 Y-184.871 Z-1.49
X-223.748 Y-185.073 Z-1.507
X-223.241 Y-185.27 Z-1.526
X-222.682 Y-185.461 Z-1.547
X-222.071 Y-185.642 Z-1.569
X-221.404 Y-185.811 Z-1.593
X-221.215 Y-185.852 Z-1.6
S6000
X-220.682 Y-185.967 F1000
X-219.901 Y-186.105
X-219.062 Y-186.222
X-218.167 Y-186.315
X-217.22 Y-186.379
X-216.236 Y-186.41
X-215.234 Y-186.405
X-214.24 Y-186.362
X-213.279 Y-186.286
X-212.37 Y-186.18
X-211.523 Y-186.049
X-210.74 Y-185.897
X-210.02 Y-185.728
X-209.36 Y-185.547
X-208.761 Y-185.355
X-208.219 Y-185.156
X-207.731 Y-184.95
X-207.296 Y-184.742
X-206.915 Y-184.533
X-206.583 Y-184.326
X-206.3 Y-184.123
X-206.066 Y-183.929
X-205.876 Y-183.746
X-205.731 Y-183.58
X-205.626 Y-183.432
X-205.553 Y-183.303
X-205.508 Y-183.195
X-205.484 Y-183.11
X-205.471 Y-183.016
X-205.477 Y-182.931
X-205.494 Y-182.851
X-205.527 Y-182.755
X-205.584 Y-182.639
X-205.67 Y-182.502
X-205.793 Y-182.345
X-205.957 Y-182.172
X-206.164 Y-181.985
X-206.414 Y-181.791
X-206.714 Y-181.589
X-207.061 Y-181.383
X-207.454 Y-181.179
X-207.9 Y-180.976
X-208.393 Y-180.777
X-208.939 Y-180.585
X-209.539 Y-180.401
X-210.191 Y-180.229
X-210.901 Y-180.069
X-211.667 Y-179.927
X-212.492 Y-179.804
X-213.374 Y-179.705
X-214.308 Y-179.633
X-215.284 Y-179.594
X-216.179 Y-179.591
X-216.286
X-217.284 Y-179.624
X-218.254 Y-179.692
X-219.176 Y-179.792
X-220.04 Y-179.918
X-220.839 Y-180.065
X-221.575 Y-180.23
X-222.249 Y-180.407
X-222.861 Y-180.597
X-223.417 Y-180.795
X-223.919 Y-181
X-224.366 Y-181.208
X-224.76 Y-181.416
X-225.103 Y-181.624
X-225.399 Y-181.828
X-225.645 Y-182.024
X-225.844 Y-182.21
X-226 Y-182.381
X-226.114 Y-182.534
X-226.195 Y-182.67
X-226.246 Y-182.781
X-226.274 Y-182.87
X-226.287 Y-182.947
X-226.29 Y-183.017
X-226.282 Y-183.09
X-226.263 Y-183.171
X-226.225 Y-183.27
X-226.16 Y-183.393
X-226.066 Y-183.535
X-225.934 Y-183.695
X-225.76 Y-183.872
X-225.542 Y-184.061
X-225.279 Y-184.258
X-224.97 Y-184.46
X-224.612 Y-184.665
X-224.205 Y-184.871
X-223.748 Y-185.073
X-223.241 Y-185.27
X-222.682 Y-185.461
X-222.071 Y-185.642
X-221.404 Y-185.811
X-221.215 Y-185.852
S5000
X-220.682 Y-185.967 Z-1.619 F333.3
X-219.901 Y-186.105 Z-1.647
X-219.062 Y-186.222 Z-1.676
X-218.167 Y-186.315 Z-1.708
X-217.22 Y-186.379 Z-1.741
X-216.236 Y-186.41 Z-1.775
X-215.234 Y-186.405 Z-1.81
X-214.24 Y-186.362 Z-1.845
X-213.279 Y-186.286 Z-1.879
X-212.37 Y-186.18 Z-1.911
X-211.523 Y-186.049 Z-1.941
X-210.74 Y-185.897 Z-1.968
X-210.02 Y-185.728 Z-1.994
X-209.36 Y-185.547 Z-2.018
X-208.761 Y-185.355 Z-2.04
X-208.219 Y-185.156 Z-2.06
X-207.731 Y-184.95 Z-2.079
X-207.296 Y-184.742 Z-2.096
X-206.915 Y-184.533 Z-2.111
X-206.583 Y-184.326 Z-2.124
X-206.3 Y-184.123 Z-2.137
X-206.066 Y-183.929 Z-2.147
X-205.876 Y-183.746 Z-2.156
X-205.731 Y-183.58 Z-2.164
X-205.626 Y-183.432 Z-2.17
X-205.553 Y-183.303 Z-2.176
X-205.508 Y-183.195 Z-2.18
X-205.484 Y-183.11 Z-2.183
X-205.471 Y-183.016 Z-2.186
X-205.477 Y-182.931 Z-2.189
X-205.494 Y-182.851 Z-2.192
X-205.527 Y-182.755 Z-2.195
X-205.584 Y-182.639 Z-2.2
Y-182.638
S6000
X-205.67 Y-182.502 F1000
X-205.793 Y-182.345
X-205.957 Y-182.172
X-206.164 Y-181.985
X-206.414 Y-181.791
X-206.714 Y-181.589
X-207.061 Y-181.383
X-207.454 Y-181.179
X-207.9 Y-180.976
X-208.393 Y-180.777
X-208.939 Y-180.585
X-209.539 Y-180.401
X-210.191 Y-180.229
X-210.901 Y-180.069
X-211.667 Y-179.927
X-212.492 Y-179.804
X-213.374 Y-179.705
X-214.308 Y-179.633
X-215.284 Y-179.594
X-216.286 Y-179.591
X-217.284 Y-179.624
X-218.254 Y-179.692
X-219.176 Y-179.792
X-220.04 Y-179.918
X-220.839 Y-180.065
X-221.575 Y-180.23
X-222.249 Y-180.407
X-222.861 Y-180.597
X-223.417 Y-180.795
X-223.919 Y-181
X-224.366 Y-181.208
X-224.76 Y-181.416
X-225.103 Y-181.624
X-225.399 Y-181.828
X-225.645 Y-182.024
X-225.844 Y-182.21
X-226 Y-182.381
X-226.114 Y-182.534
X-226.195 Y-182.67
X-226.246 Y-182.781
X-226.274 Y-182.87
X-226.287 Y-182.947
X-226.29 Y-183.017
X-226.282 Y-183.09
X-226.263 Y-183.171
X-226.225 Y-183.27
X-226.16 Y-183.393
X-226.066 Y-183.535
X-225.934 Y-183.695
X-225.76 Y-183.872
X-225.542 Y-184.061
X-225.279 Y-184.258
X-224.97 Y-184.46
X-224.612 Y-184.665
X-224.205 Y-184.871
X-223.748 Y-185.073
X-223.241 Y-185.27
X-222.682 Y-185.461
X-222.071 Y-185.642
X-221.404 Y-185.811
X-220.682 Y-185.967
X-219.901 Y-186.105
X-219.062 Y-186.222
X-218.167 Y-186.315
X-217.22 Y-186.379
X-216.236 Y-186.41
X-215.234 Y-186.405
X-214.24 Y-186.362
X-213.279 Y-186.286
X-212.37 Y-186.18
X-211.523 Y-186.049
X-210.74 Y-185.897
X-210.02 Y-185.728
X-209.36 Y-185.547
X-208.761 Y-185.355
X-208.219 Y-185.156
X-207.731 Y-184.95
X-207.296 Y-184.742
X-206.915 Y-184.533
X-206.583 Y-184.326
X-206.3 Y-184.123
X-206.066 Y-183.929
X-205.876 Y-183.746
X-205.731 Y-183.58
X-205.626 Y-183.432
X-205.553 Y-183.303
X-205.508 Y-183.195
X-205.484 Y-183.11
X-205.471 Y-183.016
X-205.477 Y-182.931
X-205.494 Y-182.851
X-205.527 Y-182.755
X-205.584 Y-182.639
Y-182.638
G0 Z25
X-204.262 Y-79.435
Z5
G1 Z2.5 F333.3
S5000
X-204.664 Y-79.245 Z2.484
X-205.162 Y-79.034 Z2.466
X-205.712 Y-78.828 Z2.445
X-206.313 Y-78.626 Z2.423
X-206.969 Y-78.431 Z2.399
X-207.681 Y-78.245 Z2.373
X-208.452 Y-78.068 Z2.346
X-209.284 Y-77.904 Z2.316
X-210.18 Y-77.754 Z2.284
X-211.145 Y-77.621 Z2.25
X-212.179 Y-77.509 Z2.214
X-213.283 Y-77.421 Z2.175
X-214.453 Y-77.363 Z2.134
X-215.67 Y-77.338 Z2.092
X-216.909 Y-77.351 Z2.049
X-218.13 Y-77.4 Z2.006
X-219.299 Y-77.483 Z1.965
X-220.398 Y-77.595 Z1.927
X-221.42 Y-77.73 Z1.891
X-222.364 Y-77.883 Z1.857
X-223.235 Y-78.052 Z1.826
X-224.038 Y-78.234 Z1.797
X-224.774 Y-78.426 Z1.771
X-225.449 Y-78.626 Z1.746
X-226.065 Y-78.832 Z1.724
X-226.624 Y-79.044 Z1.703
X-227.129 Y-79.258 Z1.684
X-227.582 Y-79.474 Z1.666
X-227.982 Y-79.689 Z1.65
X-228.332 Y-79.901 Z1.636
X-228.631 Y-80.107 Z1.623
X-228.884 Y-80.306 Z1.612
X-229.089 Y-80.493 Z1.602
X-229.248 Y-80.664 Z1.594
X-229.365 Y-80.815 Z1.587
X-229.447 Y-80.946 Z1.582
X-229.498 Y-81.054 Z1.578
X-229.525 Y-81.136 Z1.575
X-229.537 Y-81.202 Z1.572
X-229.54 Y-81.26 Z1.57
X-229.535 Y-81.317 Z1.568
X-229.518 Y-81.39 Z1.566
X-229.483 Y-81.482 Z1.562
X-229.425 Y-81.593 Z1.558
X-229.333 Y-81.73 Z1.552
X-229.202 Y-81.889 Z1.545
X-229.03 Y-82.064 Z1.537
X-228.814 Y-82.252 Z1.527
X-228.551 Y-82.451 Z1.515
X-228.24 Y-82.657 Z1.502
X-227.881 Y-82.868 Z1.487
X-227.475 Y-83.079 Z1.471
X-227.018 Y-83.291 Z1.454
X-226.511 Y-83.501 Z1.435
X-225.953 Y-83.707 Z1.414
X-225.343 Y-83.907 Z1.391
X-224.677 Y-84.101 Z1.367
X-223.956 Y-84.286 Z1.341
X-223.175 Y-84.46 Z1.313
X-222.332 Y-84.623 Z1.283
X-221.424 Y-84.77 Z1.251
X-220.449 Y-84.899 Z1.217
X-219.402 Y-85.008 Z1.18
X-218.286 Y-85.091 Z1.141
X-217.107 Y-85.144 Z1.1
X-215.884 Y-85.162 Z1.057
X-214.646 Y-85.144 Z1.014
X-213.432 Y-85.088 Z0.971
X-212.273 Y-85 Z0.931
X-211.187 Y-84.884 Z0.893
X-210.178 Y-84.746 Z0.857
X-209.246 Y-84.589 Z0.824
X-208.387 Y-84.418 Z0.794
X-207.596 Y-84.234 Z0.765
X-206.871 Y-84.041 Z0.739
X-206.206 Y-83.84 Z0.715
X-205.6 Y-83.632 Z0.692
X-205.05 Y-83.42 Z0.672
X-204.553 Y-83.205 Z0.653
X-204.11 Y-82.99 Z0.636
X-203.719 Y-82.775 Z0.62
X-203.377 Y-82.564 Z0.606
X-203.085 Y-82.358 Z0.594
X-202.841 Y-82.161 Z0.583
X-202.644 Y-81.977 Z0.573
X-202.492 Y-81.809 Z0.565
X-202.382 Y-81.662 Z0.559
X-202.306 Y-81.535 Z0.554
X-202.26 Y-81.431 Z0.55
X-202.235 Y-81.351 Z0.547
X-202.221 Y-81.267 Z0.544
X-202.227 Y-81.194 Z0.541
X-202.241 Y-81.124 Z0.539
X-202.273 Y-81.036 Z0.536
X-202.327 Y-80.926 Z0.531
X-202.412 Y-80.794 Z0.526
X-202.536 Y-80.64 Z0.519
X-202.7 Y-80.467 Z0.511
X-202.91 Y-80.28 Z0.501
X-203.165 Y-80.082 Z0.489
X-203.466 Y-79.878 Z0.477
X-203.817 Y-79.668 Z0.462
X-204.216 Y-79.456 Z0.447
X-204.664 Y-79.245 Z0.429
X-205.162 Y-79.034 Z0.411
X-205.712 Y-78.828 Z0.39
X-206.313 Y-78.626 Z0.368
X-206.969 Y-78.431 Z0.344
X-207.681 Y-78.245 Z0.318
X-208.452 Y-78.068 Z0.291
X-209.284 Y-77.904 Z0.261
X-210.18 Y-77.754 Z0.229
X-211.145 Y-77.621 Z0.195
X-212.179 Y-77.509 Z0.159
X-213.283 Y-77.421 Z0.12
X-214.453 Y-77.363 Z0.079
X-215.67 Y-77.338 Z0.037
X-216.909 Y-77.351 Z-0.006
X-218.13 Y-77.4 Z-0.049
X-219.299 Y-77.483 Z-0.09
X-220.398 Y-77.595 Z-0.129
X-221.42 Y-77.73 Z-0.165
X-222.364 Y-77.883 Z-0.198
X-223.235 Y-78.052 Z-0.229
X-224.038 Y-78.234 Z-0.258
X-224.774 Y-78.426 Z-0.284
X-225.449 Y-78.626 Z-0.309
X-226.065 Y-78.832 Z-0.332
X-226.624 Y-79.044 Z-0.352
X-227.129 Y-79.258 Z-0.372
X-227.582 Y-79.474 Z-0.389
X-227.982 Y-79.689 Z-0.405
X-228.332 Y-79.901 Z-0.419
X-228.631 Y-80.107 Z-0.432
X-228.884 Y-80.306 Z-0.443
X-229.089 Y-80.493 Z-0.453
X-229.248 Y-80.664 Z-0.461
X-229.365 Y-80.815 Z-0.468
X-229.447 Y-80.946 Z-0.473
X-229.498 Y-81.054 Z-0.477
X-229.525 Y-81.136 Z-0.48
X-229.537 Y-81.202 Z-0.483
X-229.54 Y-81.26 Z-0.485
X-229.535 Y-81.317 Z-0.487
X-229.518 Y-81.39 Z-0.489
X-229.483 Y-81.482 Z-0.493
X-229.425 Y-81.593 Z-0.497
X-229.333 Y-81.73 Z-0.503
X-229.202 Y-81.889 Z-0.51
X-229.03 Y-82.064 Z-0.519
X-228.814 Y-82.252 Z-0.529
X-228.551 Y-82.451 Z-0.54
X-228.24 Y-82.657 Z-0.553
X-227.881 Y-82.868 Z-0.568
X-227.475 Y-83.079 Z-0.584
X-227.018 Y-83.291 Z-0.601
X-226.511 Y-83.501 Z-0.62
X-225.953 Y-83.707 Z-0.641
X-225.343 Y-83.907 Z-0.664
X-224.677 Y-84.101 Z-0.688
X-223.956 Y-84.286 Z-0.714
X-223.175 Y-84.46 Z-0.742
X-222.332 Y-84.623 Z-0.772
X-221.424 Y-84.77 Z-0.804
X-220.449 Y-84.899 Z-0.838
X-219.402 Y-85.008 Z-0.875
X-218.286 Y-85.091 Z-0.914
X-217.107 Y-85.144 Z-0.955
X-215.884 Y-85.162 Z-0.998
X-215.825 Y-85.161 Z-1
S6000
X-214.646 Y-85.144 F1000
X-213.432 Y-85.088
X-212.273 Y-85
X-211.187 Y-84.884
X-210.178 Y-84.746
X-209.246 Y-84.589
X-208.387 Y-84.418
X-207.596 Y-84.234
X-206.871 Y-84.041
X-206.206 Y-83.84
X-205.6 Y-83.632
X-205.05 Y-83.42
X-204.553 Y-83.205
X-204.11 Y-82.99
X-203.719 Y-82.775
X-203.377 Y-82.564
X-203.085 Y-82.358
X-202.841 Y-82.161
X-202.644 Y-81.977
X-202.492 Y-81.809
X-202.382 Y-81.662
X-202.306 Y-81.535
X-202.26 Y-81.431
X-202.235 Y-81.351
X-202.221 Y-81.267
X-202.227 Y-81.194
X-202.241 Y-81.124
X-202.273 Y-81.036
X-202.327 Y-80.926
X-202.412 Y-80.794
X-202.536 Y-80.64
X-202.7 Y-80.467
X-202.91 Y-80.28
X-203.165 Y-80.082
X-203.466 Y-79.878
X-203.817 Y-79.668
X-204.216 Y-79.456
X-204.664 Y-79.245
X-205.162 Y-79.034
X-205.712 Y-78.828
X-206.313 Y-78.626
X-206.969 Y-78.431
X-207.681 Y-78.245
X-208.452 Y-78.068
X-209.284 Y-77.904
X-210.18 Y-77.754
X-211.145 Y-77.621
X-212.179 Y-77.509
X-213.283 Y-77.421
X-214.453 Y-77.363
X-215.67 Y-77.338
X-216.909 Y-77.351
X-218.13 Y-77.4
X-219.299 Y-77.483
X-220.398 Y-77.595
X-221.42 Y-77.73
X-222.364 Y-77.883
X-223.235 Y-78.052
X-224.038 Y-78.234
X-224.774 Y-78.426
X-225.449 Y-78.626
X-226.065 Y-78.832
X-226.624 Y-79.044
X-227.129 Y-79.258
X-227.582 Y-79.474
X-227.982 Y-79.689
X-228.332 Y-79.901
X-228.631 Y-80.107
X-228.884 Y-80.306
X-229.089 Y-80.493
X-229.248 Y-80.664
X-229.365 Y-80.815
X-229.447 Y-80.946
X-229.498 Y-81.054
X-229.525 Y-81.136
X-229.537 Y-81.202
X-229.54 Y-81.26
X-229.535 Y-81.317
X-229.518 Y-81.39
X-229.483 Y-81.482
X-229.425 Y-81.593
X-229.333 Y-81.73
X-229.202 Y-81.889
X-229.03 Y-82.064
X-228.814 Y-82.252
X-228.551 Y-82.451
X-228.24 Y-82.657
X-227.881 Y-82.868
X-227.475 Y-83.079
X-227.018 Y-83.291
X-226.511 Y-83.501
X-225.953 Y-83.707
X-225.343 Y-83.907
X-224.677 Y-84.101
X-223.956 Y-84.286
X-223.175 Y-84.46
X-222.332 Y-84.623
X-221.424 Y-84.77
X-220.449 Y-84.899
X-219.402 Y-85.008
X-218.286 Y-85.091
X-217.107 Y-85.144
X-215.884 Y-85.162
X-215.825 Y-85.161
S5000
X-214.646 Y-85.144 Z-1.041 F333.3
X-213.432 Y-85.088 Z-1.084
X-212.273 Y-85 Z-1.124
X-211.187 Y-84.884 Z-1.162
X-210.178 Y-84.746 Z-1.198
X-209.246 Y-84.589 Z-1.231
X-208.387 Y-84.418 Z-1.261
X-207.596 Y-84.234 Z-1.29
X-206.871 Y-84.041 Z-1.316
X-206.206 Y-83.84 Z-1.34
X-205.6 Y-83.632 Z-1.363
X-205.05 Y-83.42 Z-1.383
X-204.553 Y-83.205 Z-1.402
X-204.11 Y-82.99 Z-1.419
X-203.719 Y-82.775 Z-1.435
X-203.377 Y-82.564 Z-1.449
X-203.085 Y-82.358 Z-1.461
X-202.841 Y-82.161 Z-1.472
X-202.644 Y-81.977 Z-1.482
X-202.492 Y-81.809 Z-1.49
X-202.382 Y-81.662 Z-1.496
X-202.306 Y-81.535 Z-1.501
X-202.26 Y-81.431 Z-1.505
X-202.235 Y-81.351 Z-1.508
X-202.221 Y-81.267 Z-1.511
X-202.227 Y-81.194 Z-1.514
X-202.241 Y-81.124 Z-1.516
X-202.273 Y-81.036 Z-1.52
X-202.327 Y-80.926 Z-1.524
X-202.412 Y-80.794 Z-1.529
X-202.536 Y-80.64 Z-1.536
X-202.7 Y-80.467 Z-1.545
X-202.91 Y-80.28 Z-1.554
X-203.165 Y-80.082 Z-1.566
X-203.466 Y-79.878 Z-1.578
X-203.817 Y-79.668 Z-1.593
X-204.005 Y-79.569 Z-1.6
S6000
X-204.216 Y-79.456 F1000
X-204.664 Y-79.245
X-205.162 Y-79.034
X-205.712 Y-78.828
X-206.313 Y-78.626
X-206.969 Y-78.431
X-207.681 Y-78.245
X-208.452 Y-78.068
X-209.284 Y-77.904
X-210.18 Y-77.754
X-211.145 Y-77.621
X-212.179 Y-77.509
X-213.283 Y-77.421
X-214.453 Y-77.363
X-215.67 Y-77.338
X-216.909 Y-77.351
X-218.13 Y-77.4
X-219.299 Y-77.483
X-220.398 Y-77.595
X-221.42 Y-77.73
X-222.364 Y-77.883
X-223.235 Y-78.052
X-224.038 Y-78.234
X-224.774 Y-78.426
X-225.449 Y-78.626
X-226.065 Y-78.832
X-226.624 Y-79.044
X-227.129 Y-79.258
X-227.582 Y-79.474
X-227.982 Y-79.689
X-228.332 Y-79.901
X-228.631 Y-80.107
X-228.884 Y-80.306
X-229.089 Y-80.493
X-229.248 Y-80.664
X-229.365 Y-80.815
X-229.447 Y-80.946
X-229.498 Y-81.054
X-229.525 Y-81.136
X-229.537 Y-81.202
X-229.54 Y-81.26
X-229.535 Y-81.317
X-229.518 Y-81.39
X-229.483 Y-81.482
X-229.425 Y-81.593
X-229.333 Y-81.73
X-229.202 Y-81.889
X-229.03 Y-82.064
X-228.814 Y-82.252
X-228.551 Y-82.451
X-228.24 Y-82.657
X-227.881 Y-82.868
X-227.475 Y-83.079
X-227.018 Y-83.291
X-226.511 Y-83.501
X-225.953 Y-83.707
X-225.343 Y-83.907
X-224.677 Y-84.101
X-223.956 Y-84.286
X-223.175 Y-84.46
X-222.332 Y-84.623
X-221.424 Y-84.77
X-220.449 Y-84.899
X-219.402 Y-85.008
X-218.286 Y-85.091
X-217.107 Y-85.144
X-215.884 Y-85.162
X-214.646 Y-85.144
X-213.432 Y-85.088
X-212.273 Y-85
X-211.187 Y-84.884
X-210.178 Y-84.746
X-209.246 Y-84.589
X-208.387 Y-84.418
X-207.596 Y-84.234
X-206.871 Y-84.041
X-206.206 Y-83.84
X-205.6 Y-83.632
X-205.05 Y-83.42
X-204.553 Y-83.205
X-204.11 Y-82.99
X-203.719 Y-82.775
X-203.377 Y-82.564
X-203.085 Y-82.358
X-202.841 Y-82.161
X-202.644 Y-81.977
X-202.492 Y-81.809
X-202.382 Y-81.662
X-202.306 Y-81.535
X-202.26 Y-81.431
X-202.235 Y-81.351
X-202.221 Y-81.267
X-202.227 Y-81.194
X-202.241 Y-81.124
X-202.273 Y-81.036
X-202.327 Y-80.926
X-202.412 Y-80.794
X-202.536 Y-80.64
X-202.7 Y-80.467
X-202.91 Y-80.28
X-203.165 Y-80.082
X-203.466 Y-79.878
X-203.817 Y-79.668
X-204.005 Y-79.569
S5000
X-204.216 Y-79.456 Z-1.608 F333.3
X-204.664 Y-79.245 Z-1.626
X-205.162 Y-79.034 Z-1.645
X-205.712 Y-78.828 Z-1.665
X-206.313 Y-78.626 Z-1.687
X-206.969 Y-78.431 Z-1.711
X-207.681 Y-78.245 Z-1.737
X-208.452 Y-78.068 Z-1.764
X-209.284 Y-77.904 Z-1.794
X-210.18 Y-77.754 Z-1.826
X-211.145 Y-77.621 Z-1.86
X-212.179 Y-77.509 Z-1.896
X-213.283 Y-77.421 Z-1.935
X-214.453 Y-77.363 Z-1.976
X-215.67 Y-77.338 Z-2.018
X-216.909 Y-77.351 Z-2.061
X-218.13 Y-77.4 Z-2.104
X-219.299 Y-77.483 Z-2.145
X-220.398 Y-77.595 Z-2.184
X-220.863 Y-77.656 Z-2.2
S6000
X-221.42 Y-77.73 F1000
X-222.364 Y-77.883
X-223.235 Y-78.052
X-224.038 Y-78.234
X-224.774 Y-78.426
X-225.449 Y-78.626
X-226.065 Y-78.832
X-226.624 Y-79.044
X-227.129 Y-79.258
X-227.582 Y-79.474
X-227.982 Y-79.689
X-228.332 Y-79.901
X-228.631 Y-80.107
X-228.884 Y-80.306
X-229.089 Y-80.493
X-229.248 Y-80.664
X-229.365 Y-80.815
X-229.447 Y-80.946
X-229.498 Y-81.054
X-229.525 Y-81.136
X-229.537 Y-81.202
X-229.54 Y-81.26
X-229.535 Y-81.317
X-229.518 Y-81.39
X-229.483 Y-81.482
X-229.425 Y-81.593
X-229.333 Y-81.73
X-229.202 Y-81.889
X-229.03 Y-82.064
X-228.814 Y-82.252
X-228.551 Y-82.451
X-228.24 Y-82.657
X-227.881 Y-82.868
X-227.475 Y-83.079
X-227.018 Y-83.291
X-226.511 Y-83.501
X-225.953 Y-83.707
X-225.343 Y-83.907
X-224.677 Y-84.101
X-223.956 Y-84.286
X-223.175 Y-84.46
X-222.332 Y-84.623
X-221.424 Y-84.77
X-220.449 Y-84.899
X-219.402 Y-85.008
X-218.286 Y-85.091
X-217.107 Y-85.144
X-215.884 Y-85.162
X-214.646 Y-85.144
X-213.432 Y-85.088
X-212.273 Y-85
X-211.187 Y-84.884
X-210.178 Y-84.746
X-209.246 Y-84.589
X-208.387 Y-84.418
X-207.596 Y-84.234
X-206.871 Y-84.041
X-206.206 Y-83.84
X-205.6 Y-83.632
X-205.05 Y-83.42
X-204.553 Y-83.205
X-204.11 Y-82.99
X-203.719 Y-82.775
X-203.377 Y-82.564
X-203.085 Y-82.358
X-202.841 Y-82.161
X-202.644 Y-81.977
X-202.492 Y-81.809
X-202.382 Y-81.662
X-202.306 Y-81.535
X-202.26 Y-81.431
X-202.235 Y-81.351
X-202.221 Y-81.267
X-202.227 Y-81.194
X-202.241 Y-81.124
X-202.273 Y-81.036
X-202.327 Y-80.926
X-202.412 Y-80.794
X-202.536 Y-80.64
X-202.7 Y-80.467
X-202.91 Y-80.28
X-203.165 Y-80.082
X-203.466 Y-79.878
X-203.817 Y-79.668
X-204.216 Y-79.456
X-204.664 Y-79.245
X-205.162 Y-79.034
X-205.712 Y-78.828
X-206.313 Y-78.626
X-206.969 Y-78.431
X-207.681 Y-78.245
X-208.452 Y-78.068
X-209.284 Y-77.904
X-210.18 Y-77.754
X-211.145 Y-77.621
X-212.179 Y-77.509
X-213.283 Y-77.421
X-214.453 Y-77.363
X-215.67 Y-77.338
X-216.909 Y-77.351
X-218.13 Y-77.4
X-219.299 Y-77.483
X-220.398 Y-77.595
X-220.863 Y-77.656
G0 Z25
X-217.958 Y-69.203
Z5
G1 Z2.5 F333.3
S5000
G3 X-213.804 Y-48.797 Z1.358 I2.077 J10.203
X-217.958 Y-69.203 Z0.215 I-2.077 J-10.203
X-205.521 Y-60.044 Z-0.392 I2.077 J10.203
X-215.881 Y-48.588 Z-1 I-10.36 J1.044
S6000
X-215.881 Y-69.412 I0 J-10.412 F1000
X-215.881 Y-48.588 I0 J10.412
S5000
X-226.261 Y-59.825 Z-1.6 I0 J-10.412 F333.3
S6000
X-205.501 Y-58.175 I10.38 J0.825 F1000
X-226.261 Y-59.825 I-10.38 J-0.825
S5000
X-214.236 Y-69.282 Z-2.2 I10.38 J0.825 F333.3
S6000
X-217.526 Y-48.718 I-1.645 J10.282 F1000
X-214.236 Y-69.282 I1.645 J-10.282
G0 Z35

(2D-Kontur6)
X-189.356 Y-8.093
Z35
Z5
G1 Z2.5 F333.3
S5000
G2 X-189.294 Y-9 Z2.468 I-6.525 J-0.907
G1 Y-60.496 Z0.67
X-189.291 Y-61.136 Z0.648
X-189.282 Y-61.758 Z0.626
X-189.267 Y-62.368 Z0.605
X-189.247 Y-62.963 Z0.584
X-189.22 Y-63.547 Z0.563
X-189.188 Y-64.117 Z0.543
X-189.149 Y-64.673 Z0.524
X-189.104 Y-65.219 Z0.505
X-189.055 Y-65.75 Z0.486
X-189 Y-66.267 Z0.468
X-188.938 Y-66.773 Z0.45
X-188.872 Y-67.265 Z0.433
X-188.8 Y-67.745 Z0.416
X-188.723 Y-68.21 Z0.399
X-188.64 Y-68.663 Z0.383
X-188.552 Y-69.103 Z0.368
X-188.458 Y-69.529 Z0.353
X-188.36 Y-69.942 Z0.338
X-188.257 Y-70.339 Z0.323
X-188.147 Y-70.727 Z0.309
X-188.035 Y-71.098 Z0.296
X-187.917 Y-71.454 Z0.283
X-187.795 Y-71.796 Z0.27
X-187.666 Y-72.126 Z0.258
X-187.536 Y-72.439 Z0.246
X-187.4 Y-72.737 Z0.234
X-187.261 Y-73.02 Z0.223
X-187.118 Y-73.287 Z0.213
X-186.972 Y-73.54 Z0.203
X-186.823 Y-73.775 Z0.193
X-186.671 Y-73.995 Z0.183
X-186.517 Y-74.2 Z0.175
X-186.361 Y-74.388 Z0.166
X-186.206 Y-74.558 Z0.158
X-186.048 Y-74.713 Z0.15
X-185.888 Y-74.855 Z0.143
X-185.726 Y-74.982 Z0.136
X-185.566 Y-75.094 Z0.129
X-185.402 Y-75.193 Z0.122
X-185.236 Y-75.279 Z0.116
X-185.066 Y-75.353 Z0.109
X-184.891 Y-75.416 Z0.103
X-184.71 Y-75.468 Z0.096
X-184.52 Y-75.508 Z0.089
X-184.32 Y-75.536 Z0.082
X-184.108 Y-75.553 Z0.075
X-183.884 Y-75.556 Z0.067
X-183.645 Y-75.544 Z0.059
X-183.39 Y-75.516 Z0.05
X-183.119 Y-75.472 Z0.04
X-182.832 Y-75.409 Z0.03
X-182.528 Y-75.327 Z0.019
X-182.206 Y-75.224 Z0.007
X-181.868 Y-75.099 Z-0.006
X-181.513 Y-74.952 Z-0.019
X-181.142 Y-74.781 Z-0.033
X-180.753 Y-74.586 Z-0.049
X-180.348 Y-74.366 Z-0.065
X-179.927 Y-74.121 Z-0.082
X-179.49 Y-73.85 Z-0.1
X-179.036 Y-73.553 Z-0.119
X-178.568 Y-73.231 Z-0.138
X-178.084 Y-72.881 Z-0.159
X-177.579 Y-72.501 Z-0.181
G2 X-173.421 Y-74.558 Z-0.382 I1.57 J-2.057
G1 Y-92.208 Z-0.999
X-173.422 Y-92.251 Z-1
S6000
G2 X-174.426 Y-94.256 I-2.587 J0.042 F1000
G1 X-175.227 Y-94.883
X-175.99 Y-95.504
X-176.723 Y-96.126
X-177.427 Y-96.748
X-178.1 Y-97.369
X-178.744 Y-97.99
X-179.358 Y-98.611
X-179.944 Y-99.233
X-180.502 Y-99.854
X-181.031 Y-100.474
X-181.532 Y-101.094
X-182.006 Y-101.712
X-182.453 Y-102.332
X-182.875 Y-102.951
X-183.27 Y-103.568
X-183.64 Y-104.186
X-183.985 Y-104.803
X-184.305 Y-105.419
X-184.601 Y-106.034
X-184.873 Y-106.65
X-185.122 Y-107.265
X-185.348 Y-107.879
X-185.552 Y-108.492
X-185.733 Y-109.105
X-185.893 Y-109.718
X-186.03 Y-110.331
X-186.146 Y-110.943
X-186.241 Y-111.553
X-186.314 Y-112.165
X-186.366 Y-112.779
X-186.398 Y-113.389
X-186.408 Y-114
X-186.398 Y-114.611
X-186.366 Y-115.221
X-186.314 Y-115.835
X-186.241 Y-116.447
X-186.146 Y-117.057
X-186.03 Y-117.669
X-185.893 Y-118.282
X-185.733 Y-118.895
X-185.552 Y-119.508
X-185.348 Y-120.121
X-185.122 Y-120.735
X-184.873 Y-121.35
X-184.601 Y-121.966
X-184.305 Y-122.581
X-183.985 Y-123.197
X-183.64 Y-123.814
X-183.27 Y-124.432
X-182.875 Y-125.049
X-182.453 Y-125.668
X-182.006 Y-126.288
X-181.532 Y-126.906
X-181.031 Y-127.526
X-180.502 Y-128.146
X-179.944 Y-128.767
X-179.358 Y-129.389
X-178.744 Y-130.01
X-178.1 Y-130.632
X-177.427 Y-131.253
X-176.723 Y-131.875
X-175.991 Y-132.496
X-175.227 Y-133.117
X-174.426 Y-133.744
G2 X-173.421 Y-135.791 I-1.584 J-2.047
G1 Y-153.442
G2 X-177.579 Y-155.499 I-2.587 J0
G1 X-177.925 Y-155.238
X-178.26 Y-154.995
X-178.583 Y-154.769
X-178.901 Y-154.558
X-179.21 Y-154.361
X-179.511 Y-154.179
X-179.805 Y-154.012
X-180.09 Y-153.859
X-180.364 Y-153.72
X-180.629 Y-153.597
X-180.887 Y-153.487
X-181.137 Y-153.39
X-181.375 Y-153.306
X-181.6 Y-153.237
X-181.821 Y-153.179
X-182.034 Y-153.132
X-182.234 Y-153.097
X-182.424 Y-153.072
X-182.604 Y-153.058
X-182.778 Y-153.053
X-182.943 Y-153.056
X-183.1 Y-153.068
X-183.252 Y-153.088
X-183.397 Y-153.116
X-183.537 Y-153.15
X-183.672 Y-153.192
X-183.808 Y-153.243
X-183.938 Y-153.299
X-184.068 Y-153.365
X-184.197 Y-153.439
X-184.322 Y-153.52
X-184.452 Y-153.615
X-184.582 Y-153.718
X-184.709 Y-153.83
X-184.838 Y-153.955
X-184.968 Y-154.09
X-185.095 Y-154.235
X-185.224 Y-154.394
X-185.349 Y-154.56
X-185.475 Y-154.741
X-185.601 Y-154.934
X-185.726 Y-155.139
X-185.849 Y-155.352
X-185.963 Y-155.567
X-186.203 Y-156.059
X-186.43 Y-156.582
X-186.647 Y-157.143
X-186.853 Y-157.742
X-187.05 Y-158.375
X-187.235 Y-159.042
X-187.411 Y-159.739
X-187.575 Y-160.465
X-187.73 Y-161.219
X-187.875 Y-161.997
X-188.009 Y-162.797
X-188.135 Y-163.621
X-188.252 Y-164.464
X-188.36 Y-165.324
X-188.459 Y-166.2
X-188.55 Y-167.092
X-188.634 Y-167.997
X-188.711 Y-168.914
X-188.781 Y-169.84
X-188.844 Y-170.774
X-188.954 Y-172.669
X-189.042 Y-174.577
X-189.111 Y-176.493
X-189.166 Y-178.407
X-189.208 Y-180.308
X-189.238 Y-182.188
X-189.26 Y-184.04
X-189.268 Y-184.95
X-189.274 Y-185.853
X-189.28 Y-186.744
X-189.284 Y-187.622
X-189.286 Y-188.49
X-189.288 Y-189.343
X-189.29 Y-190.183
X-189.292 Y-191.008
Y-191.051
X-189.299 Y-191.297
X-189.303 Y-191.368
X-189.321 Y-191.613
X-189.328 Y-191.691
X-189.358 Y-191.935
X-189.371 Y-192.019
X-189.414 Y-192.261
X-189.429 Y-192.333
X-189.483 Y-192.572
X-189.502 Y-192.648
X-189.568 Y-192.885
X-189.59 Y-192.957
X-189.667 Y-193.19
X-189.694 Y-193.267
X-189.783 Y-193.496
X-189.813 Y-193.568
X-189.913 Y-193.792
X-189.947 Y-193.863
X-190.058 Y-194.082
X-190.094 Y-194.148
X-190.215 Y-194.361
X-190.254 Y-194.426
X-190.385 Y-194.633
X-190.431 Y-194.702
X-190.572 Y-194.901
X-190.617 Y-194.961
X-190.768 Y-195.154
X-190.815 Y-195.211
X-190.975 Y-195.397
X-191.033 Y-195.462
X-191.203 Y-195.639
X-191.252 Y-195.687
X-191.43 Y-195.857
X-191.491 Y-195.913
X-191.676 Y-196.072
X-191.736 Y-196.121
X-191.93 Y-196.272
X-191.99 Y-196.316
X-192.19 Y-196.457
X-192.261 Y-196.504
X-192.468 Y-196.634
X-192.528 Y-196.67
X-192.741 Y-196.791
X-192.812 Y-196.83
X-193.031 Y-196.94
X-193.102 Y-196.973
X-193.326 Y-197.072
X-193.395 Y-197.101
X-193.625 Y-197.19
X-193.704 Y-197.218
X-193.936 Y-197.294
X-194.002 Y-197.314
X-194.238 Y-197.38
X-194.322 Y-197.401
X-194.561 Y-197.454
X-194.632 Y-197.468
X-194.873 Y-197.51
X-194.951 Y-197.522
X-195.194 Y-197.552
X-195.273 Y-197.559
X-195.518 Y-197.577
X-195.595 Y-197.581
X-195.84 Y-197.587
X-195.879
X-235.884
X-235.923
X-236.168 Y-197.581
X-236.245 Y-197.577
X-236.49 Y-197.559
X-236.568 Y-197.552
X-236.812 Y-197.522
X-236.889 Y-197.51
X-237.131 Y-197.468
X-237.208 Y-197.453
X-237.448 Y-197.399
X-237.528 Y-197.379
X-237.764 Y-197.313
X-237.834 Y-197.291
X-238.067 Y-197.214
X-238.136 Y-197.19
X-238.366 Y-197.102
X-238.446 Y-197.069
X-238.67 Y-196.969
X-238.736 Y-196.938
X-238.955 Y-196.828
X-239.026 Y-196.789
X-239.239 Y-196.668
X-239.304 Y-196.629
X-239.511 Y-196.498
X-239.577 Y-196.454
X-239.777 Y-196.313
X-239.836 Y-196.269
X-240.029 Y-196.119
X-240.094 Y-196.066
X-240.28 Y-195.905
X-240.337 Y-195.853
X-240.514 Y-195.684
X-240.566 Y-195.632
X-240.736 Y-195.454
X-240.789 Y-195.396
X-240.949 Y-195.211
X-240.998 Y-195.151
X-241.149 Y-194.958
X-241.196 Y-194.895
X-241.337 Y-194.695
X-241.381 Y-194.629
X-241.512 Y-194.422
X-241.551 Y-194.357
X-241.672 Y-194.144
X-241.711 Y-194.073
X-241.821 Y-193.854
X-241.852 Y-193.788
X-241.952 Y-193.564
X-241.984 Y-193.486
X-242.072 Y-193.257
X-242.097 Y-193.186
X-242.174 Y-192.953
X-242.196 Y-192.883
X-242.262 Y-192.647
X-242.281 Y-192.569
X-242.335 Y-192.33
X-242.351 Y-192.253
X-242.393 Y-192.012
X-242.405 Y-191.934
X-242.435 Y-191.691
X-242.442 Y-191.613
X-242.46 Y-191.369
X-242.464 Y-191.297
X-242.471 Y-191.051
Y-191.008
X-242.473 Y-190.183
X-242.475 Y-189.343
X-242.476 Y-188.49
X-242.479 Y-187.622
X-242.483 Y-186.744
X-242.489 Y-185.853
X-242.495 Y-184.95
X-242.503 Y-184.04
X-242.525 Y-182.188
X-242.555 Y-180.308
X-242.597 Y-178.407
X-242.651 Y-176.493
X-242.721 Y-174.578
X-242.809 Y-172.669
X-242.919 Y-170.774
X-242.982 Y-169.84
X-243.052 Y-168.914
X-243.129 Y-167.997
X-243.213 Y-167.092
X-243.304 Y-166.2
X-243.403 Y-165.324
X-243.511 Y-164.464
X-243.628 Y-163.621
X-243.754 Y-162.797
X-243.888 Y-161.997
X-244.033 Y-161.219
X-244.188 Y-160.465
X-244.352 Y-159.739
X-244.528 Y-159.042
X-244.713 Y-158.375
X-244.91 Y-157.742
X-245.116 Y-157.143
X-245.333 Y-156.582
X-245.56 Y-156.059
X-245.8 Y-155.567
X-245.914 Y-155.352
X-246.037 Y-155.139
X-246.163 Y-154.932
X-246.287 Y-154.741
X-246.413 Y-154.562
X-246.539 Y-154.394
X-246.668 Y-154.235
X-246.795 Y-154.09
X-246.925 Y-153.955
X-247.054 Y-153.83
X-247.181 Y-153.718
X-247.311 Y-153.615
X-247.441 Y-153.52
X-247.566 Y-153.439
X-247.695 Y-153.365
X-247.825 Y-153.299
X-247.955 Y-153.243
X-248.091 Y-153.192
X-248.226 Y-153.15
X-248.366 Y-153.116
X-248.511 Y-153.088
X-248.663 Y-153.068
X-248.82 Y-153.056
X-248.984 Y-153.053
X-249.158 Y-153.058
X-249.339 Y-153.072
X-249.529 Y-153.097
X-249.729 Y-153.132
X-249.941 Y-153.179
X-250.162 Y-153.237
X-250.389 Y-153.307
X-250.626 Y-153.39
X-250.876 Y-153.487
X-251.134 Y-153.597
X-251.399 Y-153.72
X-251.673 Y-153.859
X-251.958 Y-154.012
X-252.252 Y-154.179
X-252.553 Y-154.361
X-252.862 Y-154.558
X-253.18 Y-154.769
X-253.503 Y-154.995
X-253.838 Y-155.238
X-254.184 Y-155.499
G2 X-258.341 Y-153.442 I-1.57 J2.057
G1 Y-135.791
G2 X-257.336 Y-133.744 I2.587 J0
G1 X-256.536 Y-133.117
X-255.772 Y-132.495
X-255.039 Y-131.875
X-254.336 Y-131.253
X-253.663 Y-130.632
X-253.019 Y-130.01
X-252.405 Y-129.388
X-251.818 Y-128.767
X-251.262 Y-128.146
X-250.732 Y-127.526
X-250.231 Y-126.906
X-249.757 Y-126.288
X-249.31 Y-125.668
X-248.888 Y-125.049
X-248.493 Y-124.432
X-248.123 Y-123.814
X-247.778 Y-123.197
X-247.458 Y-122.581
X-247.162 Y-121.966
X-246.89 Y-121.35
X-246.641 Y-120.735
X-246.415 Y-120.121
X-246.211 Y-119.508
X-246.03 Y-118.895
X-245.87 Y-118.282
X-245.733 Y-117.669
X-245.617 Y-117.057
X-245.522 Y-116.446
X-245.449 Y-115.835
X-245.397 Y-115.223
X-245.365 Y-114.611
X-245.355 Y-114
X-245.365 Y-113.389
X-245.397 Y-112.777
X-245.449 Y-112.165
X-245.522 Y-111.554
X-245.617 Y-110.943
X-245.733 Y-110.331
X-245.87 Y-109.718
X-246.03 Y-109.105
X-246.211 Y-108.492
X-246.415 Y-107.879
X-246.641 Y-107.265
X-246.89 Y-106.65
X-247.162 Y-106.034
X-247.458 Y-105.419
X-247.778 Y-104.803
X-248.123 Y-104.186
X-248.493 Y-103.568
X-248.888 Y-102.951
X-249.31 Y-102.332
X-249.757 Y-101.712
X-250.231 Y-101.094
X-250.732 Y-100.474
X-251.262 Y-99.853
X-251.818 Y-99.233
X-252.405 Y-98.612
X-253.019 Y-97.99
X-253.663 Y-97.369
X-254.336 Y-96.747
X-255.039 Y-96.126
X-255.772 Y-95.504
X-256.536 Y-94.883
X-257.336 Y-94.257
G2 X-258.341 Y-92.209 I1.582 J2.048
G1 Y-74.558
G2 X-254.184 Y-72.501 I2.587 J0
G1 X-253.679 Y-72.881
X-253.195 Y-73.231
X-252.727 Y-73.553
X-252.273 Y-73.85
X-251.836 Y-74.121
X-251.415 Y-74.366
X-251.01 Y-74.586
X-250.621 Y-74.781
X-250.25 Y-74.952
X-249.895 Y-75.099
X-249.557 Y-75.224
X-249.235 Y-75.327
X-248.931 Y-75.409
X-248.644 Y-75.472
X-248.373 Y-75.516
X-248.118 Y-75.544
X-247.879 Y-75.556
X-247.655 Y-75.553
X-247.443 Y-75.536
X-247.243 Y-75.508
X-247.053 Y-75.468
X-246.872 Y-75.416
X-246.697 Y-75.353
X-246.527 Y-75.279
X-246.361 Y-75.193
X-246.196 Y-75.093
X-246.036 Y-74.982
X-245.876 Y-74.856
X-245.715 Y-74.713
X-245.557 Y-74.558
X-245.401 Y-74.387
X-245.244 Y-74.198
X-245.092 Y-73.997
X-244.941 Y-73.777
X-244.791 Y-73.54
X-244.645 Y-73.287
X-244.501 Y-73.019
X-244.362 Y-72.737
X-244.228 Y-72.441
X-244.097 Y-72.126
X-243.968 Y-71.796
X-243.846 Y-71.454
X-243.728 Y-71.097
X-243.615 Y-70.726
X-243.507 Y-70.341
X-243.403 Y-69.942
X-243.305 Y-69.529
X-243.211 Y-69.103
X-243.123 Y-68.663
X-243.04 Y-68.21
X-242.963 Y-67.745
X-242.89 Y-67.264
X-242.824 Y-66.773
X-242.763 Y-66.268
X-242.708 Y-65.75
X-242.659 Y-65.219
X-242.614 Y-64.673
X-242.575 Y-64.117
X-242.543 Y-63.547
X-242.516 Y-62.963
X-242.496 Y-62.368
X-242.481 Y-61.757
X-242.471 Y-61.134
X-242.469 Y-60.496
Y-9
G2 X-235.881 Y-2.412 I6.588 J0
G1 X-230.381
G2 X-226.794 Y-6 I0 J-3.588
G1 Y-34
G3 X-226.381 Y-34.412 I0.413 J0
G1 X-220.381
G2 X-216.794 Y-38 I0 J-3.588
G1 Y-40
G3 X-216.381 Y-40.412 I0.413 J0
G1 X-215.381
G3 X-214.969 Y-40 I0 J0.412
G1 Y-38
G2 X-211.381 Y-34.412 I3.588 J0
G1 X-205.381
G3 X-204.969 Y-34 I0 J0.412
G1 Y-6
G2 X-201.381 Y-2.412 I3.588 J0
G1 X-195.881
G2 X-189.294 Y-9 I0 J-6.588
G1 Y-60.496
X-189.291 Y-61.136
X-189.282 Y-61.758
X-189.267 Y-62.368
X-189.247 Y-62.963
X-189.22 Y-63.547
X-189.188 Y-64.117
X-189.149 Y-64.673
X-189.104 Y-65.219
X-189.055 Y-65.75
X-189 Y-66.267
X-188.938 Y-66.773
X-188.872 Y-67.265
X-188.8 Y-67.745
X-188.723 Y-68.21
X-188.64 Y-68.663
X-188.552 Y-69.103
X-188.458 Y-69.529
X-188.36 Y-69.942
X-188.257 Y-70.339
X-188.147 Y-70.727
X-188.035 Y-71.098
X-187.917 Y-71.454
X-187.795 Y-71.796
X-187.666 Y-72.126
X-187.536 Y-72.439
X-187.4 Y-72.737
X-187.261 Y-73.02
X-187.118 Y-73.287
X-186.972 Y-73.54
X-186.823 Y-73.775
X-186.671 Y-73.995
X-186.517 Y-74.2
X-186.361 Y-74.388
X-186.206 Y-74.558
X-186.048 Y-74.713
X-185.888 Y-74.855
X-185.726 Y-74.982
X-185.566 Y-75.094
X-185.402 Y-75.193
X-185.236 Y-75.279
X-185.066 Y-75.353
X-184.891 Y-75.416
X-184.71 Y-75.468
X-184.52 Y-75.508
X-184.32 Y-75.536
X-184.108 Y-75.553
X-183.884 Y-75.556
X-183.645 Y-75.544
X-183.39 Y-75.516
X-183.119 Y-75.472
X-182.832 Y-75.409
X-182.528 Y-75.327
X-182.206 Y-75.224
X-181.868 Y-75.099
X-181.513 Y-74.952
X-181.142 Y-74.781
X-180.753 Y-74.586
X-180.348 Y-74.366
X-179.927 Y-74.121
X-179.49 Y-73.85
X-179.036 Y-73.553
X-178.568 Y-73.231
X-178.084 Y-72.881
X-177.579 Y-72.501
G2 X-173.421 Y-74.558 I1.57 J-2.057
G1 Y-92.208
X-173.422 Y-92.251
S5000
G2 X-174.426 Y-94.256 Z-1.059 I-2.587 J0.042 F333.3
G1 X-175.227 Y-94.883 Z-1.084
X-175.99 Y-95.504 Z-1.109
X-176.723 Y-96.126 Z-1.133
X-177.427 Y-96.748 Z-1.157
X-178.1 Y-97.369 Z-1.18
X-178.744 Y-97.99 Z-1.203
X-179.358 Y-98.611 Z-1.225
X-179.944 Y-99.233 Z-1.247
X-180.502 Y-99.854 Z-1.268
X-181.031 Y-100.474 Z-1.288
X-181.532 Y-101.094 Z-1.309
X-182.006 Y-101.712 Z-1.328
X-182.453 Y-102.332 Z-1.348
X-182.875 Y-102.951 Z-1.366
X-183.27 Y-103.568 Z-1.385
X-183.64 Y-104.186 Z-1.403
X-183.985 Y-104.803 Z-1.421
X-184.305 Y-105.419 Z-1.439
X-184.601 Y-106.034 Z-1.456
X-184.873 Y-106.65 Z-1.473
X-185.122 Y-107.265 Z-1.49
X-185.348 Y-107.879 Z-1.506
X-185.552 Y-108.492 Z-1.523
X-185.733 Y-109.105 Z-1.539
X-185.813 Y-109.412 Z-1.547
Z-1.406
X-185.893 Y-109.718
X-186.03 Y-110.331
X-186.146 Y-110.943
X-186.229 Y-111.477
S6000
X-186.241 Y-111.553 F1000
X-186.314 Y-112.165
X-186.366 Y-112.779
X-186.398 Y-113.389
X-186.408 Y-114
X-186.398 Y-114.611
X-186.366 Y-115.221
X-186.314 Y-115.835
X-186.241 Y-116.447
X-186.146 Y-117.057
X-186.03 Y-117.669
X-185.893 Y-118.282
X-185.813 Y-118.588
Z-1.6 F333.3
X-185.733 Y-118.895 F1000
X-185.552 Y-119.508
X-185.348 Y-120.121
X-185.122 Y-120.735
X-184.873 Y-121.35
X-184.601 Y-121.966
X-184.305 Y-122.581
X-183.985 Y-123.197
X-183.64 Y-123.814
X-183.27 Y-124.432
X-182.875 Y-125.049
X-182.453 Y-125.668
X-182.006 Y-126.288
X-181.532 Y-126.906
X-181.031 Y-127.526
X-180.502 Y-128.146
X-179.944 Y-128.767
X-179.358 Y-129.389
X-178.744 Y-130.01
X-178.1 Y-130.632
X-177.427 Y-131.253
X-176.723 Y-131.875
X-175.991 Y-132.496
X-175.227 Y-133.117
X-174.426 Y-133.744
G2 X-173.421 Y-135.791 I-1.584 J-2.047
G1 Y-153.442
G2 X-177.579 Y-155.499 I-2.587 J0
G1 X-177.925 Y-155.238
X-178.26 Y-154.995
X-178.583 Y-154.769
X-178.901 Y-154.558
X-179.21 Y-154.361
X-179.511 Y-154.179
X-179.805 Y-154.012
X-180.09 Y-153.859
X-180.364 Y-153.72
X-180.629 Y-153.597
X-180.887 Y-153.487
X-181.137 Y-153.39
X-181.375 Y-153.306
X-181.6 Y-153.237
X-181.821 Y-153.179
X-182.034 Y-153.132
X-182.234 Y-153.097
X-182.424 Y-153.072
X-182.604 Y-153.058
X-182.778 Y-153.053
X-182.943 Y-153.056
X-183.1 Y-153.068
X-183.252 Y-153.088
X-183.397 Y-153.116
X-183.537 Y-153.15
X-183.672 Y-153.192
X-183.808 Y-153.243
X-183.938 Y-153.299
X-184.068 Y-153.365
X-184.197 Y-153.439
X-184.322 Y-153.52
X-184.452 Y-153.615
X-184.582 Y-153.718
X-184.709 Y-153.83
X-184.838 Y-153.955
X-184.968 Y-154.09
X-185.095 Y-154.235
X-185.224 Y-154.394
X-185.349 Y-154.56
X-185.475 Y-154.741
X-185.601 Y-154.934
X-185.726 Y-155.139
X-185.849 Y-155.352
X-185.963 Y-155.567
X-186.203 Y-156.059
X-186.43 Y-156.582
X-186.647 Y-157.143
X-186.78 Y-157.531
Z-1.406
X-186.853 Y-157.742
X-187.05 Y-158.375
X-187.235 Y-159.042
X-187.411 Y-159.739
X-187.575 Y-160.465
X-187.73 Y-161.219
X-187.875 Y-161.997
X-188.009 Y-162.797
X-188.135 Y-163.621
X-188.252 Y-164.464
X-188.36 Y-165.324
X-188.459 Y-166.2
X-188.494 Y-166.546
Z-1.6 F333.3
X-188.55 Y-167.092 F1000
X-188.634 Y-167.997
X-188.711 Y-168.914
X-188.781 Y-169.84
X-188.844 Y-170.774
X-188.954 Y-172.669
X-189.042 Y-174.577
X-189.111 Y-176.493
X-189.166 Y-178.407
X-189.208 Y-180.308
X-189.238 Y-182.188
X-189.26 Y-184.04
X-189.268 Y-184.95
X-189.274 Y-185.853
X-189.28 Y-186.744
X-189.284 Y-187.622
X-189.286 Y-188.49
X-189.288 Y-189.343
X-189.29 Y-190.183
X-189.292 Y-191.008
Y-191.051
X-189.299 Y-191.297
X-189.303 Y-191.368
X-189.321 Y-191.613
X-189.328 Y-191.691
X-189.358 Y-191.935
X-189.371 Y-192.019
X-189.414 Y-192.261
X-189.429 Y-192.333
X-189.483 Y-192.572
X-189.502 Y-192.648
X-189.568 Y-192.885
X-189.59 Y-192.957
X-189.667 Y-193.19
X-189.694 Y-193.267
X-189.783 Y-193.496
X-189.813 Y-193.568
X-189.913 Y-193.792
X-189.947 Y-193.863
X-190.058 Y-194.082
X-190.094 Y-194.148
X-190.215 Y-194.361
X-190.254 Y-194.426
X-190.385 Y-194.633
X-190.431 Y-194.702
X-190.572 Y-194.901
X-190.617 Y-194.961
X-190.768 Y-195.154
X-190.815 Y-195.211
X-190.975 Y-195.397
X-191.033 Y-195.462
X-191.203 Y-195.639
X-191.252 Y-195.687
X-191.43 Y-195.857
X-191.491 Y-195.913
X-191.676 Y-196.072
X-191.736 Y-196.121
X-191.93 Y-196.272
X-191.99 Y-196.316
X-192.19 Y-196.457
X-192.261 Y-196.504
X-192.468 Y-196.634
X-192.528 Y-196.67
X-192.741 Y-196.791
X-192.812 Y-196.83
X-193.031 Y-196.94
X-193.102 Y-196.973
X-193.326 Y-197.072
X-193.395 Y-197.101
X-193.625 Y-197.19
X-193.704 Y-197.218
X-193.936 Y-197.294
X-194.002 Y-197.314
X-194.238 Y-197.38
X-194.322 Y-197.401
X-194.561 Y-197.454
X-194.632 Y-197.468
X-194.873 Y-197.51
X-194.951 Y-197.522
X-195.194 Y-197.552
X-195.273 Y-197.559
X-195.518 Y-197.577
X-195.595 Y-197.581
X-195.84 Y-197.587
X-195.879
X-235.884
X-235.923
X-236.168 Y-197.581
X-236.245 Y-197.577
X-236.49 Y-197.559
X-236.568 Y-197.552
X-236.812 Y-197.522
X-236.889 Y-197.51
X-237.131 Y-197.468
X-237.208 Y-197.453
X-237.448 Y-197.399
X-237.528 Y-197.379
X-237.764 Y-197.313
X-237.834 Y-197.291
X-238.067 Y-197.214
X-238.136 Y-197.19
X-238.366 Y-197.102
X-238.446 Y-197.069
X-238.67 Y-196.969
X-238.736 Y-196.938
X-238.955 Y-196.828
X-239.026 Y-196.789
X-239.239 Y-196.668
X-239.304 Y-196.629
X-239.511 Y-196.498
X-239.577 Y-196.454
X-239.777 Y-196.313
X-239.836 Y-196.269
X-240.029 Y-196.119
X-240.094 Y-196.066
X-240.28 Y-195.905
X-240.337 Y-195.853
X-240.514 Y-195.684
X-240.566 Y-195.632
X-240.736 Y-195.454
X-240.789 Y-195.396
X-240.949 Y-195.211
X-240.998 Y-195.151
X-241.149 Y-194.958
X-241.196 Y-194.895
X-241.337 Y-194.695
X-241.381 Y-194.629
X-241.512 Y-194.422
X-241.551 Y-194.357
X-241.672 Y-194.144
X-241.711 Y-194.073
X-241.821 Y-193.854
X-241.852 Y-193.788
X-241.952 Y-193.564
X-241.984 Y-193.486
X-242.072 Y-193.257
X-242.097 Y-193.186
X-242.174 Y-192.953
X-242.196 Y-192.883
X-242.262 Y-192.647
X-242.281 Y-192.569
X-242.335 Y-192.33
X-242.351 Y-192.253
X-242.393 Y-192.012
X-242.405 Y-191.934
X-242.435 Y-191.691
X-242.442 Y-191.613
X-242.46 Y-191.369
X-242.464 Y-191.297
X-242.471 Y-191.051
Y-191.008
X-242.473 Y-190.183
X-242.475 Y-189.343
X-242.476 Y-188.49
X-242.479 Y-187.622
X-242.483 Y-186.744
X-242.489 Y-185.853
X-242.495 Y-184.95
X-242.503 Y-184.04
X-242.525 Y-182.188
X-242.555 Y-180.308
X-242.597 Y-178.407
X-242.651 Y-176.493
X-242.721 Y-174.578
X-242.809 Y-172.669
X-242.919 Y-170.774
X-242.982 Y-169.84
X-243.052 Y-168.914
X-243.129 Y-167.997
X-243.213 Y-167.092
X-243.269 Y-166.546
Z-1.406
X-243.304 Y-166.2
X-243.403 Y-165.324
X-243.511 Y-164.464
X-243.628 Y-163.621
X-243.754 Y-162.797
X-243.888 Y-161.997
X-244.033 Y-161.219
X-244.188 Y-160.465
X-244.352 Y-159.739
X-244.528 Y-159.042
X-244.713 Y-158.375
X-244.91 Y-157.742
X-244.983 Y-157.531
Z-1.6 F333.3
X-245.116 Y-157.143 F1000
X-245.333 Y-156.582
X-245.56 Y-156.059
X-245.8 Y-155.567
X-245.914 Y-155.352
X-246.037 Y-155.139
X-246.163 Y-154.932
X-246.287 Y-154.741
X-246.413 Y-154.562
X-246.539 Y-154.394
X-246.668 Y-154.235
X-246.795 Y-154.09
X-246.925 Y-153.955
X-247.054 Y-153.83
X-247.181 Y-153.718
X-247.311 Y-153.615
X-247.441 Y-153.52
X-247.566 Y-153.439
X-247.695 Y-153.365
X-247.825 Y-153.299
X-247.955 Y-153.243
X-248.091 Y-153.192
X-248.226 Y-153.15
X-248.366 Y-153.116
X-248.511 Y-153.088
X-248.663 Y-153.068
X-248.82 Y-153.056
X-248.984 Y-153.053
X-249.158 Y-153.058
X-249.339 Y-153.072
X-249.529 Y-153.097
X-249.729 Y-153.132
X-249.941 Y-153.179
X-250.162 Y-153.237
X-250.389 Y-153.307
X-250.626 Y-153.39
X-250.876 Y-153.487
X-251.134 Y-153.597
X-251.399 Y-153.72
X-251.673 Y-153.859
X-251.958 Y-154.012
X-252.252 Y-154.179
X-252.553 Y-154.361
X-252.862 Y-154.558
X-253.18 Y-154.769
X-253.503 Y-154.995
X-253.838 Y-155.238
X-254.184 Y-155.499
G2 X-258.341 Y-153.442 I-1.57 J2.057
G1 Y-135.791
G2 X-257.336 Y-133.744 I2.587 J0
G1 X-256.536 Y-133.117
X-255.772 Y-132.495
X-255.039 Y-131.875
X-254.336 Y-131.253
X-253.663 Y-130.632
X-253.019 Y-130.01
X-252.405 Y-129.388
X-251.818 Y-128.767
X-251.262 Y-128.146
X-250.732 Y-127.526
X-250.231 Y-126.906
X-249.757 Y-126.288
X-249.31 Y-125.668
X-248.888 Y-125.049
X-248.493 Y-124.432
X-248.123 Y-123.814
X-247.778 Y-123.197
X-247.458 Y-122.581
X-247.162 Y-121.966
X-246.89 Y-121.35
X-246.641 Y-120.735
X-246.415 Y-120.121
X-246.211 Y-119.508
X-246.03 Y-118.895
X-245.95 Y-118.588
Z-1.406
X-245.87 Y-118.282
X-245.733 Y-117.669
X-245.617 Y-117.057
X-245.522 Y-116.446
X-245.449 Y-115.835
X-245.397 Y-115.223
X-245.365 Y-114.611
X-245.355 Y-114
X-245.365 Y-113.389
X-245.397 Y-112.777
X-245.449 Y-112.165
X-245.522 Y-111.554
X-245.617 Y-110.943
X-245.733 Y-110.331
X-245.87 Y-109.718
X-245.95 Y-109.412
Z-1.6 F333.3
X-246.03 Y-109.105 F1000
X-246.211 Y-108.492
X-246.415 Y-107.879
X-246.641 Y-107.265
X-246.89 Y-106.65
X-247.162 Y-106.034
X-247.458 Y-105.419
X-247.778 Y-104.803
X-248.123 Y-104.186
X-248.493 Y-103.568
X-248.888 Y-102.951
X-249.31 Y-102.332
X-249.757 Y-101.712
X-250.231 Y-101.094
X-250.732 Y-100.474
X-251.262 Y-99.853
X-251.818 Y-99.233
X-252.405 Y-98.612
X-253.019 Y-97.99
X-253.663 Y-97.369
X-254.336 Y-96.747
X-255.039 Y-96.126
X-255.772 Y-95.504
X-256.536 Y-94.883
X-257.336 Y-94.257
G2 X-258.341 Y-92.209 I1.582 J2.048
G1 Y-74.558
G2 X-254.184 Y-72.501 I2.587 J0
G1 X-253.679 Y-72.881
X-253.195 Y-73.231
X-252.727 Y-73.553
X-252.273 Y-73.85
X-251.836 Y-74.121
X-251.415 Y-74.366
X-251.01 Y-74.586
X-250.621 Y-74.781
X-250.25 Y-74.952
X-249.895 Y-75.099
X-249.557 Y-75.224
X-249.235 Y-75.327
X-248.931 Y-75.409
X-248.644 Y-75.472
X-248.373 Y-75.516
X-248.118 Y-75.544
X-247.879 Y-75.556
X-247.655 Y-75.553
X-247.443 Y-75.536
X-247.243 Y-75.508
X-247.053 Y-75.468
X-246.872 Y-75.416
X-246.697 Y-75.353
X-246.527 Y-75.279
X-246.361 Y-75.193
X-246.196 Y-75.093
X-246.036 Y-74.982
X-245.876 Y-74.856
X-245.715 Y-74.713
X-245.557 Y-74.558
X-245.401 Y-74.387
X-245.244 Y-74.198
X-245.092 Y-73.997
X-244.941 Y-73.777
X-244.791 Y-73.54
X-244.645 Y-73.287
X-244.501 Y-73.019
X-244.362 Y-72.737
X-244.228 Y-72.441
X-244.097 Y-72.126
X-243.968 Y-71.796
X-243.846 Y-71.454
X-243.728 Y-71.097
X-243.615 Y-70.726
X-243.507 Y-70.341
X-243.403 Y-69.942
X-243.305 Y-69.529
X-243.211 Y-69.103
X-243.123 Y-68.663
X-243.04 Y-68.21
X-242.963 Y-67.745
X-242.89 Y-67.264
X-242.824 Y-66.773
X-242.763 Y-66.268
X-242.708 Y-65.75
X-242.659 Y-65.219
X-242.614 Y-64.673
X-242.575 Y-64.117
X-242.543 Y-63.547
X-242.516 Y-62.963
X-242.496 Y-62.368
X-242.481 Y-61.757
X-242.471 Y-61.134
X-242.469 Y-60.496
Y-39.338
Z-1.406
Y-30.163
Z-1.6 F333.3
Y-9 F1000
G2 X-235.881 Y-2.412 I6.588 J0
G1 X-230.381
G2 X-226.794 Y-6 I0 J-3.588
G1 Y-34
G3 X-226.381 Y-34.412 I0.413 J0
G1 X-220.381
G2 X-216.794 Y-38 I0 J-3.588
G1 Y-40
G3 X-216.381 Y-40.412 I0.413 J0
G1 X-215.381
G3 X-214.969 Y-40 I0 J0.412
G1 Y-38
G2 X-211.381 Y-34.412 I3.588 J0
G1 X-205.381
G3 X-204.969 Y-34 I0 J0.412
G1 Y-6
G2 X-201.381 Y-2.412 I3.588 J0
G1 X-195.881
G2 X-189.294 Y-9 I0 J-6.588
G1 Y-30.163
Z-1.406
Y-39.338
Z-1.6 F333.3
Y-60.496 F1000
X-189.291 Y-61.136
X-189.282 Y-61.758
X-189.267 Y-62.368
X-189.247 Y-62.963
X-189.22 Y-63.547
X-189.188 Y-64.117
X-189.149 Y-64.673
X-189.104 Y-65.219
X-189.055 Y-65.75
X-189 Y-66.267
X-188.938 Y-66.773
X-188.872 Y-67.265
X-188.8 Y-67.745
X-188.723 Y-68.21
X-188.64 Y-68.663
X-188.552 Y-69.103
X-188.458 Y-69.529
X-188.36 Y-69.942
X-188.257 Y-70.339
X-188.147 Y-70.727
X-188.035 Y-71.098
X-187.917 Y-71.454
X-187.795 Y-71.796
X-187.666 Y-72.126
X-187.536 Y-72.439
X-187.4 Y-72.737
X-187.261 Y-73.02
X-187.118 Y-73.287
X-186.972 Y-73.54
X-186.823 Y-73.775
X-186.671 Y-73.995
X-186.517 Y-74.2
X-186.361 Y-74.388
X-186.206 Y-74.558
X-186.048 Y-74.713
X-185.888 Y-74.855
X-185.726 Y-74.982
X-185.566 Y-75.094
X-185.402 Y-75.193
X-185.236 Y-75.279
X-185.066 Y-75.353
X-184.891 Y-75.416
X-184.71 Y-75.468
X-184.52 Y-75.508
X-184.32 Y-75.536
X-184.108 Y-75.553
X-183.884 Y-75.556
X-183.645 Y-75.544
X-183.39 Y-75.516
X-183.119 Y-75.472
X-182.832 Y-75.409
X-182.528 Y-75.327
X-182.206 Y-75.224
X-181.868 Y-75.099
X-181.513 Y-74.952
X-181.142 Y-74.781
X-180.753 Y-74.586
X-180.348 Y-74.366
X-179.927 Y-74.121
X-179.49 Y-73.85
X-179.036 Y-73.553
X-178.568 Y-73.231
X-178.084 Y-72.881
X-177.579 Y-72.501
G2 X-173.421 Y-74.558 I1.57 J-2.057
G1 Y-92.208
G2 X-174.426 Y-94.256 I-2.588 J-0.001
G1 X-175.227 Y-94.883
X-175.99 Y-95.504
X-176.723 Y-96.126
X-177.427 Y-96.748
X-178.1 Y-97.369
X-178.744 Y-97.99
X-179.358 Y-98.611
X-179.944 Y-99.233
X-180.502 Y-99.854
X-181.031 Y-100.474
X-181.532 Y-101.094
X-182.006 Y-101.712
X-182.453 Y-102.332
X-182.875 Y-102.951
X-183.27 Y-103.568
X-183.64 Y-104.186
X-183.985 Y-104.803
X-184.305 Y-105.419
X-184.601 Y-106.034
X-184.873 Y-106.65
X-185.122 Y-107.265
X-185.348 Y-107.879
X-185.552 Y-108.492
X-185.733 Y-109.105
X-185.813 Y-109.412
Z-1.406
X-185.893 Y-109.718
X-186.03 Y-110.331
X-186.146 Y-110.943
X-186.229 Y-111.477
S5000
X-186.241 Y-111.553 F333.3
X-186.314 Y-112.165
X-186.366 Y-112.779
X-186.398 Y-113.389
X-186.408 Y-114
X-186.398 Y-114.611
X-186.366 Y-115.221
X-186.314 Y-115.835
X-186.241 Y-116.447
X-186.146 Y-117.057
X-186.03 Y-117.669
X-185.893 Y-118.282
X-185.813 Y-118.588
S6000
Z-1.781
S5000
X-185.733 Y-118.895 Z-1.789
X-185.552 Y-119.508 Z-1.805
X-185.348 Y-120.121 Z-1.822
X-185.122 Y-120.735 Z-1.838
X-184.873 Y-121.35 Z-1.855
X-184.601 Y-121.966 Z-1.872
X-184.305 Y-122.581 Z-1.889
X-183.985 Y-123.197 Z-1.907
X-183.64 Y-123.814 Z-1.925
X-183.27 Y-124.432 Z-1.943
X-182.875 Y-125.049 Z-1.961
X-182.453 Y-125.668 Z-1.98
X-182.006 Y-126.288 Z-2
X-181.532 Y-126.906 Z-2.019
X-181.031 Y-127.526 Z-2.04
X-180.502 Y-128.146 Z-2.06
X-179.944 Y-128.767 Z-2.081
X-179.358 Y-129.389 Z-2.103
X-178.744 Y-130.01 Z-2.125
X-178.1 Y-130.632 Z-2.148
X-177.427 Y-131.253 Z-2.171
X-176.723 Y-131.875 Z-2.194
X-176.557 Y-132.016 Z-2.2
S6000
X-175.991 Y-132.496 F1000
X-175.227 Y-133.117
X-174.426 Y-133.744
G2 X-173.421 Y-135.791 I-1.584 J-2.047
G1 Y-153.442
G2 X-177.579 Y-155.499 I-2.587 J0
G1 X-177.925 Y-155.238
X-178.26 Y-154.995
X-178.583 Y-154.769
X-178.901 Y-154.558
X-179.21 Y-154.361
X-179.511 Y-154.179
X-179.805 Y-154.012
X-180.09 Y-153.859
X-180.364 Y-153.72
X-180.629 Y-153.597
X-180.887 Y-153.487
X-181.137 Y-153.39
X-181.375 Y-153.306
X-181.6 Y-153.237
X-181.821 Y-153.179
X-182.034 Y-153.132
X-182.234 Y-153.097
X-182.424 Y-153.072
X-182.604 Y-153.058
X-182.778 Y-153.053
X-182.943 Y-153.056
X-183.1 Y-153.068
X-183.252 Y-153.088
X-183.397 Y-153.116
X-183.537 Y-153.15
X-183.672 Y-153.192
X-183.808 Y-153.243
X-183.938 Y-153.299
X-184.068 Y-153.365
X-184.197 Y-153.439
X-184.322 Y-153.52
X-184.452 Y-153.615
X-184.582 Y-153.718
X-184.709 Y-153.83
X-184.838 Y-153.955
X-184.968 Y-154.09
X-185.095 Y-154.235
X-185.224 Y-154.394
X-185.349 Y-154.56
X-185.475 Y-154.741
X-185.601 Y-154.934
X-185.726 Y-155.139
X-185.849 Y-155.352
X-185.963 Y-155.567
X-186.203 Y-156.059
X-186.43 Y-156.582
X-186.647 Y-157.143
X-186.78 Y-157.531
Z-1.406
X-186.853 Y-157.742
X-187.05 Y-158.375
X-187.235 Y-159.042
X-187.411 Y-159.739
X-187.575 Y-160.465
X-187.73 Y-161.219
X-187.875 Y-161.997
X-188.009 Y-162.797
X-188.135 Y-163.621
X-188.252 Y-164.464
X-188.36 Y-165.324
X-188.459 Y-166.2
X-188.494 Y-166.546
Z-2.2 F333.3
X-188.55 Y-167.092 F1000
X-188.634 Y-167.997
X-188.711 Y-168.914
X-188.781 Y-169.84
X-188.844 Y-170.774
X-188.954 Y-172.669
X-189.042 Y-174.577
X-189.111 Y-176.493
X-189.166 Y-178.407
X-189.208 Y-180.308
X-189.238 Y-182.188
X-189.26 Y-184.04
X-189.268 Y-184.95
X-189.274 Y-185.853
X-189.28 Y-186.744
X-189.284 Y-187.622
X-189.286 Y-188.49
X-189.288 Y-189.343
X-189.29 Y-190.183
X-189.292 Y-191.008
Y-191.051
X-189.299 Y-191.297
X-189.303 Y-191.368
X-189.321 Y-191.613
X-189.328 Y-191.691
X-189.358 Y-191.935
X-189.371 Y-192.019
X-189.414 Y-192.261
X-189.429 Y-192.333
X-189.483 Y-192.572
X-189.502 Y-192.648
X-189.568 Y-192.885
X-189.59 Y-192.957
X-189.667 Y-193.19
X-189.694 Y-193.267
X-189.783 Y-193.496
X-189.813 Y-193.568
X-189.913 Y-193.792
X-189.947 Y-193.863
X-190.058 Y-194.082
X-190.094 Y-194.148
X-190.215 Y-194.361
X-190.254 Y-194.426
X-190.385 Y-194.633
X-190.431 Y-194.702
X-190.572 Y-194.901
X-190.617 Y-194.961
X-190.768 Y-195.154
X-190.815 Y-195.211
X-190.975 Y-195.397
X-191.033 Y-195.462
X-191.203 Y-195.639
X-191.252 Y-195.687
X-191.43 Y-195.857
X-191.491 Y-195.913
X-191.676 Y-196.072
X-191.736 Y-196.121
X-191.93 Y-196.272
X-191.99 Y-196.316
X-192.19 Y-196.457
X-192.261 Y-196.504
X-192.468 Y-196.634
X-192.528 Y-196.67
X-192.741 Y-196.791
X-192.812 Y-196.83
X-193.031 Y-196.94
X-193.102 Y-196.973
X-193.326 Y-197.072
X-193.395 Y-197.101
X-193.625 Y-197.19
X-193.704 Y-197.218
X-193.936 Y-197.294
X-194.002 Y-197.314
X-194.238 Y-197.38
X-194.322 Y-197.401
X-194.561 Y-197.454
X-194.632 Y-197.468
X-194.873 Y-197.51
X-194.951 Y-197.522
X-195.194 Y-197.552
X-195.273 Y-197.559
X-195.518 Y-197.577
X-195.595 Y-197.581
X-195.84 Y-197.587
X-195.879
X-235.884
X-235.923
X-236.168 Y-197.581
X-236.245 Y-197.577
X-236.49 Y-197.559
X-236.568 Y-197.552
X-236.812 Y-197.522
X-236.889 Y-197.51
X-237.131 Y-197.468
X-237.208 Y-197.453
X-237.448 Y-197.399
X-237.528 Y-197.379
X-237.764 Y-197.313
X-237.834 Y-197.291
X-238.067 Y-197.214
X-238.136 Y-197.19
X-238.366 Y-197.102
X-238.446 Y-197.069
X-238.67 Y-196.969
X-238.736 Y-196.938
X-238.955 Y-196.828
X-239.026 Y-196.789
X-239.239 Y-196.668
X-239.304 Y-196.629
X-239.511 Y-196.498
X-239.577 Y-196.454
X-239.777 Y-196.313
X-239.836 Y-196.269
X-240.029 Y-196.119
X-240.094 Y-196.066
X-240.28 Y-195.905
X-240.337 Y-195.853
X-240.514 Y-195.684
X-240.566 Y-195.632
X-240.736 Y-195.454
X-240.789 Y-195.396
X-240.949 Y-195.211
X-240.998 Y-195.151
X-241.149 Y-194.958
X-241.196 Y-194.895
X-241.337 Y-194.695
X-241.381 Y-194.629
X-241.512 Y-194.422
X-241.551 Y-194.357
X-241.672 Y-194.144
X-241.711 Y-194.073
