(MidPlate3mm)
(Bearbeiten)
(  Hersteller: ChinaCnc)
(  model: 3040T)
(  description: Generic 3-axis)
(T5  D=3.175 CR=0 - ZMIN=-3.2 - Schaftfraser)
G90 G94
G17
G21

(Bohrfrasen7)
T5
S6000 M3
G54
G0 X-81.373 Y-86
Z15
Z2
G1 Z0 F1000
X-81.292 Y-86.081
X-81.261 Y-86.075
X-81.234 Y-86.057
X-81.217 Y-86.031
X-81.21 Y-86
G3 X-81.535 Y-86 Z-0.25 I-0.162 J0
X-81.21 Y-86 Z-0.5 I0.162 J0
X-81.535 Y-86 Z-0.75 I-0.162 J0
X-81.21 Y-86 Z-1 I0.162 J0
X-81.535 Y-86 Z-1.25 I-0.162 J0
X-81.21 Y-86 Z-1.5 I0.162 J0
X-81.535 Y-86 Z-1.75 I-0.162 J0
X-81.21 Y-86 Z-2 I0.162 J0
X-81.535 Y-86 Z-2.25 I-0.162 J0
X-81.21 Y-86 Z-2.5 I0.162 J0
X-81.535 Y-86 Z-2.75 I-0.162 J0
X-81.21 Y-86 Z-3 I0.162 J0
X-81.504 Y-85.904 Z-3.2 I-0.162 J0
X-81.241 Y-86.096 I0.131 J-0.096
X-81.504 Y-85.904 I-0.131 J0.096
G1 X-81.518 Y-85.933
X-81.519 Y-85.965
X-81.508 Y-85.995
X-81.486 Y-86.018
X-81.373 Y-86
G0 Z5
X-60.123 Y-75.75
Z2
G1 Z0 F1000
X-60.042 Y-75.831
X-60.011 Y-75.825
X-59.984 Y-75.807
X-59.967 Y-75.781
X-59.96 Y-75.75
G3 X-60.285 Y-75.75 Z-0.25 I-0.162 J0
X-59.96 Y-75.75 Z-0.5 I0.162 J0
X-60.285 Y-75.75 Z-0.75 I-0.162 J0
X-59.96 Y-75.75 Z-1 I0.162 J0
X-60.285 Y-75.75 Z-1.25 I-0.162 J0
X-59.96 Y-75.75 Z-1.5 I0.162 J0
X-60.285 Y-75.75 Z-1.75 I-0.162 J0
X-59.96 Y-75.75 Z-2 I0.162 J0
X-60.285 Y-75.75 Z-2.25 I-0.162 J0
X-59.96 Y-75.75 Z-2.5 I0.162 J0
X-60.285 Y-75.75 Z-2.75 I-0.162 J0
X-59.96 Y-75.75 Z-3 I0.162 J0
X-60.254 Y-75.654 Z-3.2 I-0.162 J0
X-59.991 Y-75.846 I0.131 J-0.096
X-60.254 Y-75.654 I-0.131 J0.096
G1 X-60.268 Y-75.683
X-60.269 Y-75.715
X-60.258 Y-75.745
X-60.236 Y-75.768
X-60.123 Y-75.75
G0 Z5
Y-86.75
Z2
G1 Z0 F1000
X-60.042 Y-86.831
X-60.011 Y-86.825
X-59.984 Y-86.807
X-59.967 Y-86.781
X-59.96 Y-86.75
G3 X-60.285 Y-86.75 Z-0.25 I-0.162 J0
X-59.96 Y-86.75 Z-0.5 I0.162 J0
X-60.285 Y-86.75 Z-0.75 I-0.162 J0
X-59.96 Y-86.75 Z-1 I0.162 J0
X-60.285 Y-86.75 Z-1.25 I-0.162 J0
X-59.96 Y-86.75 Z-1.5 I0.162 J0
X-60.285 Y-86.75 Z-1.75 I-0.162 J0
X-59.96 Y-86.75 Z-2 I0.162 J0
X-60.285 Y-86.75 Z-2.25 I-0.162 J0
X-59.96 Y-86.75 Z-2.5 I0.162 J0
X-60.285 Y-86.75 Z-2.75 I-0.162 J0
X-59.96 Y-86.75 Z-3 I0.162 J0
X-60.254 Y-86.654 Z-3.2 I-0.162 J0
X-59.991 Y-86.846 I0.131 J-0.096
X-60.254 Y-86.654 I-0.131 J0.096
G1 X-60.268 Y-86.683
X-60.269 Y-86.715
X-60.258 Y-86.745
X-60.236 Y-86.768
X-60.123 Y-86.75
G0 Z5
X-65.473 Y-98.161
Z2
G1 Z0 F1000
X-65.392 Y-98.243
X-65.361 Y-98.236
X-65.334 Y-98.219
X-65.317 Y-98.192
X-65.31 Y-98.161
G3 X-65.635 Y-98.161 Z-0.25 I-0.162 J0
X-65.31 Y-98.161 Z-0.5 I0.162 J0
X-65.635 Y-98.161 Z-0.75 I-0.162 J0
X-65.31 Y-98.161 Z-1 I0.162 J0
X-65.635 Y-98.161 Z-1.25 I-0.162 J0
X-65.31 Y-98.161 Z-1.5 I0.162 J0
X-65.635 Y-98.161 Z-1.75 I-0.162 J0
X-65.31 Y-98.161 Z-2 I0.162 J0
X-65.635 Y-98.161 Z-2.25 I-0.162 J0
X-65.31 Y-98.161 Z-2.5 I0.162 J0
X-65.635 Y-98.161 Z-2.75 I-0.162 J0
X-65.31 Y-98.161 Z-3 I0.163 J0
X-65.604 Y-98.066 Z-3.2 I-0.163 J0
X-65.341 Y-98.257 I0.131 J-0.096
X-65.604 Y-98.066 I-0.131 J0.096
G1 X-65.618 Y-98.095
X-65.619 Y-98.126
X-65.608 Y-98.156
X-65.586 Y-98.179
X-65.473 Y-98.161
G0 Z5
X-67.373 Y-114
Z2
G1 Z0 F1000
X-67.292 Y-114.081
X-67.261 Y-114.075
X-67.234 Y-114.057
X-67.217 Y-114.031
X-67.21 Y-114
G3 X-67.535 Y-114 Z-0.25 I-0.162 J0
X-67.21 Y-114 Z-0.5 I0.162 J0
X-67.535 Y-114 Z-0.75 I-0.162 J0
X-67.21 Y-114 Z-1 I0.162 J0
X-67.535 Y-114 Z-1.25 I-0.162 J0
X-67.21 Y-114 Z-1.5 I0.162 J0
X-67.535 Y-114 Z-1.75 I-0.162 J0
X-67.21 Y-114 Z-2 I0.162 J0
X-67.535 Y-114 Z-2.25 I-0.162 J0
X-67.21 Y-114 Z-2.5 I0.162 J0
X-67.535 Y-114 Z-2.75 I-0.162 J0
X-67.21 Y-114 Z-3 I0.162 J0
X-67.504 Y-113.904 Z-3.2 I-0.162 J0
X-67.241 Y-114.096 I0.131 J-0.096
X-67.504 Y-113.904 I-0.131 J0.096
G1 X-67.518 Y-113.933
X-67.519 Y-113.965
X-67.508 Y-113.995
X-67.486 Y-114.018
X-67.373 Y-114
G0 Z5
X-60.123 Y-117.25
Z2
G1 Z0 F1000
X-60.042 Y-117.331
X-60.011 Y-117.325
X-59.984 Y-117.307
X-59.967 Y-117.281
X-59.96 Y-117.25
G3 X-60.285 Y-117.25 Z-0.25 I-0.162 J0
X-59.96 Y-117.25 Z-0.5 I0.162 J0
X-60.285 Y-117.25 Z-0.75 I-0.162 J0
X-59.96 Y-117.25 Z-1 I0.162 J0
X-60.285 Y-117.25 Z-1.25 I-0.162 J0
X-59.96 Y-117.25 Z-1.5 I0.162 J0
X-60.285 Y-117.25 Z-1.75 I-0.162 J0
X-59.96 Y-117.25 Z-2 I0.162 J0
X-60.285 Y-117.25 Z-2.25 I-0.162 J0
X-59.96 Y-117.25 Z-2.5 I0.162 J0
X-60.285 Y-117.25 Z-2.75 I-0.162 J0
X-59.96 Y-117.25 Z-3 I0.162 J0
X-60.254 Y-117.154 Z-3.2 I-0.162 J0
X-59.991 Y-117.346 I0.131 J-0.096
X-60.254 Y-117.154 I-0.131 J0.096
G1 X-60.268 Y-117.183
X-60.269 Y-117.215
X-60.258 Y-117.245
X-60.236 Y-117.268
X-60.123 Y-117.25
G0 Z5
X-65.473 Y-129.835
Z2
G1 Z0 F1000
X-65.392 Y-129.916
X-65.361 Y-129.91
X-65.334 Y-129.893
X-65.317 Y-129.866
X-65.31 Y-129.835
G3 X-65.635 Y-129.835 Z-0.25 I-0.162 J0
X-65.31 Y-129.835 Z-0.5 I0.162 J0
X-65.635 Y-129.835 Z-0.75 I-0.162 J0
X-65.31 Y-129.835 Z-1 I0.162 J0
X-65.635 Y-129.835 Z-1.25 I-0.162 J0
X-65.31 Y-129.835 Z-1.5 I0.162 J0
X-65.635 Y-129.835 Z-1.75 I-0.162 J0
X-65.31 Y-129.835 Z-2 I0.162 J0
X-65.635 Y-129.835 Z-2.25 I-0.162 J0
X-65.31 Y-129.835 Z-2.5 I0.162 J0
X-65.635 Y-129.835 Z-2.75 I-0.162 J0
X-65.31 Y-129.835 Z-3 I0.163 J0
X-65.604 Y-129.74 Z-3.2 I-0.163 J0
X-65.341 Y-129.931 I0.131 J-0.096
X-65.604 Y-129.74 I-0.131 J0.096
G1 X-65.618 Y-129.769
X-65.619 Y-129.8
X-65.608 Y-129.83
X-65.586 Y-129.853
X-65.473 Y-129.835
G0 Z5
X-60.123 Y-143.75
Z2
G1 Z0 F1000
X-60.042 Y-143.831
X-60.011 Y-143.825
X-59.984 Y-143.807
X-59.967 Y-143.781
X-59.96 Y-143.75
G3 X-60.285 Y-143.75 Z-0.25 I-0.162 J0
X-59.96 Y-143.75 Z-0.5 I0.162 J0
X-60.285 Y-143.75 Z-0.75 I-0.162 J0
X-59.96 Y-143.75 Z-1 I0.162 J0
X-60.285 Y-143.75 Z-1.25 I-0.163 J0
X-59.96 Y-143.75 Z-1.5 I0.163 J0
X-60.285 Y-143.75 Z-1.75 I-0.163 J0
X-59.96 Y-143.75 Z-2 I0.163 J0
X-60.285 Y-143.75 Z-2.25 I-0.163 J0
X-59.96 Y-143.75 Z-2.5 I0.163 J0
X-60.285 Y-143.75 Z-2.75 I-0.163 J0
X-59.96 Y-143.75 Z-3 I0.163 J0
X-60.254 Y-143.654 Z-3.2 I-0.163 J0
X-59.991 Y-143.846 I0.131 J-0.096
X-60.254 Y-143.654 I-0.131 J0.096
G1 X-60.268 Y-143.683
X-60.269 Y-143.715
X-60.258 Y-143.745
X-60.236 Y-143.768
X-60.123 Y-143.75
G0 Z5
X-81.373 Y-142.01
Z2
G1 Z0 F1000
X-81.292 Y-142.091
X-81.261 Y-142.085
X-81.234 Y-142.067
X-81.217 Y-142.041
X-81.21 Y-142.01
G3 X-81.535 Y-142.01 Z-0.25 I-0.162 J0
X-81.21 Y-142.01 Z-0.5 I0.162 J0
X-81.535 Y-142.01 Z-0.75 I-0.162 J0
X-81.21 Y-142.01 Z-1 I0.162 J0
X-81.535 Y-142.01 Z-1.25 I-0.162 J0
X-81.21 Y-142.01 Z-1.5 I0.162 J0
X-81.535 Y-142.01 Z-1.75 I-0.162 J0
X-81.21 Y-142.01 Z-2 I0.162 J0
X-81.535 Y-142.01 Z-2.25 I-0.162 J0
X-81.21 Y-142.01 Z-2.5 I0.162 J0
X-81.535 Y-142.01 Z-2.75 I-0.162 J0
X-81.21 Y-142.01 Z-3 I0.163 J0
X-81.504 Y-141.914 Z-3.2 I-0.163 J0
X-81.241 Y-142.105 I0.131 J-0.096
X-81.504 Y-141.914 I-0.131 J0.096
G1 X-81.518 Y-141.943
X-81.519 Y-141.975
X-81.508 Y-142.004
X-81.486 Y-142.028
X-81.373 Y-142.01
G0 Z5
X-62.373 Y-190
Z2
G1 Z0 F1000
X-62.292 Y-190.081
X-62.261 Y-190.075
X-62.234 Y-190.057
X-62.217 Y-190.031
X-62.21 Y-190
G3 X-62.535 Y-190 Z-0.25 I-0.162 J0
X-62.21 Y-190 Z-0.5 I0.162 J0
X-62.535 Y-190 Z-0.75 I-0.162 J0
X-62.21 Y-190 Z-1 I0.162 J0
X-62.535 Y-190 Z-1.25 I-0.163 J0
X-62.21 Y-190 Z-1.5 I0.163 J0
X-62.535 Y-190 Z-1.75 I-0.163 J0
X-62.21 Y-190 Z-2 I0.163 J0
X-62.535 Y-190 Z-2.25 I-0.163 J0
X-62.21 Y-190 Z-2.5 I0.163 J0
X-62.535 Y-190 Z-2.75 I-0.163 J0
X-62.21 Y-190 Z-3 I0.163 J0
X-62.504 Y-189.904 Z-3.2 I-0.163 J0
X-62.241 Y-190.096 I0.131 J-0.096
X-62.504 Y-189.904 I-0.131 J0.096
G1 X-62.518 Y-189.933
X-62.519 Y-189.965
X-62.508 Y-189.995
X-62.486 Y-190.018
X-62.373 Y-190
G0 Z5
X-60.123 Y-174.25
Z2
G1 Z0 F1000
X-60.042 Y-174.331
X-60.011 Y-174.325
X-59.984 Y-174.307
X-59.967 Y-174.281
X-59.96 Y-174.25
G3 X-60.285 Y-174.25 Z-0.25 I-0.162 J0
X-59.96 Y-174.25 Z-0.5 I0.162 J0
X-60.285 Y-174.25 Z-0.75 I-0.162 J0
X-59.96 Y-174.25 Z-1 I0.162 J0
X-60.285 Y-174.25 Z-1.25 I-0.163 J0
X-59.96 Y-174.25 Z-1.5 I0.163 J0
X-60.285 Y-174.25 Z-1.75 I-0.163 J0
X-59.96 Y-174.25 Z-2 I0.163 J0
X-60.285 Y-174.25 Z-2.25 I-0.163 J0
X-59.96 Y-174.25 Z-2.5 I0.163 J0
X-60.285 Y-174.25 Z-2.75 I-0.163 J0
X-59.96 Y-174.25 Z-3 I0.163 J0
X-60.254 Y-174.154 Z-3.2 I-0.163 J0
X-59.991 Y-174.346 I0.131 J-0.096
X-60.254 Y-174.154 I-0.131 J0.096
G1 X-60.268 Y-174.183
X-60.269 Y-174.215
X-60.258 Y-174.245
X-60.236 Y-174.268
X-60.123 Y-174.25
G0 Z5
X-29.623
Z2
G1 Z0 F1000
X-29.542 Y-174.331
X-29.511 Y-174.325
X-29.484 Y-174.307
X-29.467 Y-174.281
X-29.46 Y-174.25
G3 X-29.785 Y-174.25 Z-0.25 I-0.163 J0
X-29.46 Y-174.25 Z-0.5 I0.163 J0
X-29.785 Y-174.25 Z-0.75 I-0.163 J0
X-29.46 Y-174.25 Z-1 I0.163 J0
X-29.785 Y-174.25 Z-1.25 I-0.163 J0
X-29.46 Y-174.25 Z-1.5 I0.163 J0
X-29.785 Y-174.25 Z-1.75 I-0.163 J0
X-29.46 Y-174.25 Z-2 I0.163 J0
X-29.785 Y-174.25 Z-2.25 I-0.163 J0
X-29.46 Y-174.25 Z-2.5 I0.163 J0
X-29.785 Y-174.25 Z-2.75 I-0.163 J0
X-29.46 Y-174.25 Z-3 I0.163 J0
X-29.754 Y-174.154 Z-3.2 I-0.163 J0
X-29.491 Y-174.346 I0.131 J-0.096
X-29.754 Y-174.154 I-0.131 J0.096
G1 X-29.768 Y-174.183
X-29.769 Y-174.215
X-29.758 Y-174.245
X-29.736 Y-174.268
X-29.623 Y-174.25
G0 Z5
X-27.373 Y-190
Z2
G1 Z0 F1000
X-27.292 Y-190.081
X-27.261 Y-190.075
X-27.234 Y-190.057
X-27.217 Y-190.031
X-27.21 Y-190
G3 X-27.535 Y-190 Z-0.25 I-0.163 J0
X-27.21 Y-190 Z-0.5 I0.163 J0
X-27.535 Y-190 Z-0.75 I-0.163 J0
X-27.21 Y-190 Z-1 I0.163 J0
X-27.535 Y-190 Z-1.25 I-0.163 J0
X-27.21 Y-190 Z-1.5 I0.163 J0
X-27.535 Y-190 Z-1.75 I-0.163 J0
X-27.21 Y-190 Z-2 I0.163 J0
X-27.535 Y-190 Z-2.25 I-0.163 J0
X-27.21 Y-190 Z-2.5 I0.163 J0
X-27.535 Y-190 Z-2.75 I-0.163 J0
X-27.21 Y-190 Z-3 I0.163 J0
X-27.504 Y-189.904 Z-3.2 I-0.163 J0
X-27.241 Y-190.096 I0.131 J-0.096
X-27.504 Y-189.904 I-0.131 J0.096
G1 X-27.518 Y-189.933
X-27.519 Y-189.965
X-27.508 Y-189.995
X-27.486 Y-190.018
X-27.373 Y-190
G0 Z5
X-8.388 Y-142.01
Z2
G1 Z0 F1000
X-8.307 Y-142.091
X-8.276 Y-142.085
X-8.25 Y-142.067
X-8.232 Y-142.041
X-8.226 Y-142.01
G3 X-8.551 Y-142.01 Z-0.25 I-0.163 J0
X-8.226 Y-142.01 Z-0.5 I0.163 J0
X-8.551 Y-142.01 Z-0.75 I-0.163 J0
X-8.226 Y-142.01 Z-1 I0.163 J0
X-8.551 Y-142.01 Z-1.25 I-0.163 J0
X-8.226 Y-142.01 Z-1.5 I0.163 J0
X-8.551 Y-142.01 Z-1.75 I-0.163 J0
X-8.226 Y-142.01 Z-2 I0.163 J0
X-8.551 Y-142.01 Z-2.25 I-0.163 J0
X-8.226 Y-142.01 Z-2.5 I0.163 J0
X-8.551 Y-142.01 Z-2.75 I-0.163 J0
X-8.226 Y-142.01 Z-3 I0.163 J0
X-8.52 Y-141.914 Z-3.2 I-0.163 J0
X-8.257 Y-142.105 I0.131 J-0.096
X-8.52 Y-141.914 I-0.131 J0.096
G1 X-8.533 Y-141.943
X-8.534 Y-141.975
X-8.523 Y-142.004
X-8.502 Y-142.028
X-8.388 Y-142.01
G0 Z5
X-29.623 Y-143.75
Z2
G1 Z0 F1000
X-29.542 Y-143.831
X-29.511 Y-143.825
X-29.484 Y-143.807
X-29.467 Y-143.781
X-29.46 Y-143.75
G3 X-29.785 Y-143.75 Z-0.25 I-0.163 J0
X-29.46 Y-143.75 Z-0.5 I0.163 J0
X-29.785 Y-143.75 Z-0.75 I-0.163 J0
X-29.46 Y-143.75 Z-1 I0.163 J0
X-29.785 Y-143.75 Z-1.25 I-0.163 J0
X-29.46 Y-143.75 Z-1.5 I0.163 J0
X-29.785 Y-143.75 Z-1.75 I-0.163 J0
X-29.46 Y-143.75 Z-2 I0.163 J0
X-29.785 Y-143.75 Z-2.25 I-0.163 J0
X-29.46 Y-143.75 Z-2.5 I0.163 J0
X-29.785 Y-143.75 Z-2.75 I-0.163 J0
X-29.46 Y-143.75 Z-3 I0.163 J0
X-29.754 Y-143.654 Z-3.2 I-0.163 J0
X-29.491 Y-143.846 I0.131 J-0.096
X-29.754 Y-143.654 I-0.131 J0.096
G1 X-29.768 Y-143.683
X-29.769 Y-143.715
X-29.758 Y-143.745
X-29.736 Y-143.768
X-29.623 Y-143.75
G0 Z5
X-24.253 Y-129.835
Z2
G1 Z0 F1000
X-24.172 Y-129.916
X-24.141 Y-129.91
X-24.115 Y-129.893
X-24.097 Y-129.866
X-24.091 Y-129.835
G3 X-24.416 Y-129.835 Z-0.25 I-0.163 J0
X-24.091 Y-129.835 Z-0.5 I0.163 J0
X-24.416 Y-129.835 Z-0.75 I-0.163 J0
X-24.091 Y-129.835 Z-1 I0.163 J0
X-24.416 Y-129.835 Z-1.25 I-0.163 J0
X-24.091 Y-129.835 Z-1.5 I0.163 J0
X-24.416 Y-129.835 Z-1.75 I-0.163 J0
X-24.091 Y-129.835 Z-2 I0.163 J0
X-24.416 Y-129.835 Z-2.25 I-0.163 J0
X-24.091 Y-129.835 Z-2.5 I0.163 J0
X-24.416 Y-129.835 Z-2.75 I-0.163 J0
X-24.091 Y-129.835 Z-3 I0.163 J0
X-24.385 Y-129.74 Z-3.2 I-0.163 J0
X-24.122 Y-129.931 I0.131 J-0.096
X-24.385 Y-129.74 I-0.131 J0.096
G1 X-24.398 Y-129.769
X-24.399 Y-129.8
X-24.388 Y-129.83
X-24.367 Y-129.853
X-24.253 Y-129.835
G0 Z5
X-29.623 Y-117.25
Z2
G1 Z0 F1000
X-29.542 Y-117.331
X-29.511 Y-117.325
X-29.484 Y-117.307
X-29.467 Y-117.281
X-29.46 Y-117.25
G3 X-29.785 Y-117.25 Z-0.25 I-0.163 J0
X-29.46 Y-117.25 Z-0.5 I0.163 J0
X-29.785 Y-117.25 Z-0.75 I-0.163 J0
X-29.46 Y-117.25 Z-1 I0.163 J0
X-29.785 Y-117.25 Z-1.25 I-0.162 J0
X-29.46 Y-117.25 Z-1.5 I0.162 J0
X-29.785 Y-117.25 Z-1.75 I-0.162 J0
X-29.46 Y-117.25 Z-2 I0.162 J0
X-29.785 Y-117.25 Z-2.25 I-0.162 J0
X-29.46 Y-117.25 Z-2.5 I0.162 J0
X-29.785 Y-117.25 Z-2.75 I-0.162 J0
X-29.46 Y-117.25 Z-3 I0.162 J0
X-29.754 Y-117.154 Z-3.2 I-0.162 J0
X-29.491 Y-117.346 I0.131 J-0.096
X-29.754 Y-117.154 I-0.131 J0.096
G1 X-29.768 Y-117.183
X-29.769 Y-117.215
X-29.758 Y-117.245
X-29.736 Y-117.268
X-29.623 Y-117.25
G0 Z5
X-22.373 Y-114
Z2
G1 Z0 F1000
X-22.292 Y-114.081
X-22.261 Y-114.075
X-22.234 Y-114.057
X-22.217 Y-114.031
X-22.21 Y-114
G3 X-22.535 Y-114 Z-0.25 I-0.163 J0
X-22.21 Y-114 Z-0.5 I0.163 J0
X-22.535 Y-114 Z-0.75 I-0.163 J0
X-22.21 Y-114 Z-1 I0.163 J0
X-22.535 Y-114 Z-1.25 I-0.162 J0
X-22.21 Y-114 Z-1.5 I0.162 J0
X-22.535 Y-114 Z-1.75 I-0.162 J0
X-22.21 Y-114 Z-2 I0.162 J0
X-22.535 Y-114 Z-2.25 I-0.162 J0
X-22.21 Y-114 Z-2.5 I0.162 J0
X-22.535 Y-114 Z-2.75 I-0.162 J0
X-22.21 Y-114 Z-3 I0.162 J0
X-22.504 Y-113.904 Z-3.2 I-0.162 J0
X-22.241 Y-114.096 I0.131 J-0.096
X-22.504 Y-113.904 I-0.131 J0.096
G1 X-22.518 Y-113.933
X-22.519 Y-113.965
X-22.508 Y-113.995
X-22.486 Y-114.018
X-22.373 Y-114
G0 Z5
X-24.253 Y-98.161
Z2
G1 Z0 F1000
X-24.172 Y-98.243
X-24.141 Y-98.236
X-24.115 Y-98.219
X-24.097 Y-98.192
X-24.091 Y-98.161
G3 X-24.416 Y-98.161 Z-0.25 I-0.163 J0
X-24.091 Y-98.161 Z-0.5 I0.163 J0
X-24.416 Y-98.161 Z-0.75 I-0.163 J0
X-24.091 Y-98.161 Z-1 I0.163 J0
X-24.416 Y-98.161 Z-1.25 I-0.163 J0
X-24.091 Y-98.161 Z-1.5 I0.163 J0
X-24.416 Y-98.161 Z-1.75 I-0.163 J0
X-24.091 Y-98.161 Z-2 I0.163 J0
X-24.416 Y-98.161 Z-2.25 I-0.163 J0
X-24.091 Y-98.161 Z-2.5 I0.163 J0
X-24.416 Y-98.161 Z-2.75 I-0.163 J0
X-24.091 Y-98.161 Z-3 I0.163 J0
X-24.385 Y-98.066 Z-3.2 I-0.163 J0
X-24.122 Y-98.257 I0.131 J-0.096
X-24.385 Y-98.066 I-0.131 J0.096
G1 X-24.398 Y-98.095
X-24.399 Y-98.126
X-24.388 Y-98.156
X-24.367 Y-98.179
X-24.253 Y-98.161
G0 Z5
X-29.623 Y-86.75
Z2
G1 Z0 F1000
X-29.542 Y-86.831
X-29.511 Y-86.825
X-29.484 Y-86.807
X-29.467 Y-86.781
X-29.46 Y-86.75
G3 X-29.785 Y-86.75 Z-0.25 I-0.163 J0
X-29.46 Y-86.75 Z-0.5 I0.163 J0
X-29.785 Y-86.75 Z-0.75 I-0.163 J0
X-29.46 Y-86.75 Z-1 I0.163 J0
X-29.785 Y-86.75 Z-1.25 I-0.162 J0
X-29.46 Y-86.75 Z-1.5 I0.162 J0
X-29.785 Y-86.75 Z-1.75 I-0.162 J0
X-29.46 Y-86.75 Z-2 I0.162 J0
X-29.785 Y-86.75 Z-2.25 I-0.162 J0
X-29.46 Y-86.75 Z-2.5 I0.162 J0
X-29.785 Y-86.75 Z-2.75 I-0.162 J0
X-29.46 Y-86.75 Z-3 I0.162 J0
X-29.754 Y-86.654 Z-3.2 I-0.162 J0
X-29.491 Y-86.846 I0.131 J-0.096
X-29.754 Y-86.654 I-0.131 J0.096
G1 X-29.768 Y-86.683
X-29.769 Y-86.715
X-29.758 Y-86.745
X-29.736 Y-86.768
X-29.623 Y-86.75
G0 Z5
Y-75.75
Z2
G1 Z0 F1000
X-29.542 Y-75.831
X-29.511 Y-75.825
X-29.484 Y-75.807
X-29.467 Y-75.781
X-29.46 Y-75.75
G3 X-29.785 Y-75.75 Z-0.25 I-0.163 J0
X-29.46 Y-75.75 Z-0.5 I0.163 J0
X-29.785 Y-75.75 Z-0.75 I-0.163 J0
X-29.46 Y-75.75 Z-1 I0.163 J0
X-29.785 Y-75.75 Z-1.25 I-0.162 J0
X-29.46 Y-75.75 Z-1.5 I0.162 J0
X-29.785 Y-75.75 Z-1.75 I-0.162 J0
X-29.46 Y-75.75 Z-2 I0.162 J0
X-29.785 Y-75.75 Z-2.25 I-0.162 J0
X-29.46 Y-75.75 Z-2.5 I0.162 J0
X-29.785 Y-75.75 Z-2.75 I-0.162 J0
X-29.46 Y-75.75 Z-3 I0.162 J0
X-29.754 Y-75.654 Z-3.2 I-0.162 J0
X-29.491 Y-75.846 I0.131 J-0.096
X-29.754 Y-75.654 I-0.131 J0.096
G1 X-29.768 Y-75.683
X-29.769 Y-75.715
X-29.758 Y-75.745
X-29.736 Y-75.768
X-29.623 Y-75.75
G0 Z5
X-8.388 Y-86
Z2
G1 Z0 F1000
X-8.307 Y-86.081
X-8.276 Y-86.075
X-8.25 Y-86.057
X-8.232 Y-86.031
X-8.226 Y-86
G3 X-8.551 Y-86 Z-0.25 I-0.163 J0
X-8.226 Y-86 Z-0.5 I0.163 J0
X-8.551 Y-86 Z-0.75 I-0.163 J0
X-8.226 Y-86 Z-1 I0.162 J0
X-8.551 Y-86 Z-1.25 I-0.162 J0
X-8.226 Y-86 Z-1.5 I0.162 J0
X-8.551 Y-86 Z-1.75 I-0.162 J0
X-8.226 Y-86 Z-2 I0.162 J0
X-8.551 Y-86 Z-2.25 I-0.162 J0
X-8.226 Y-86 Z-2.5 I0.162 J0
X-8.551 Y-86 Z-2.75 I-0.162 J0
X-8.226 Y-86 Z-3 I0.162 J0
X-8.52 Y-85.904 Z-3.2 I-0.162 J0
X-8.257 Y-86.096 I0.131 J-0.096
X-8.52 Y-85.904 I-0.131 J0.096
G1 X-8.533 Y-85.933
X-8.534 Y-85.965
X-8.523 Y-85.995
X-8.502 Y-86.018
X-8.388 Y-86
G0 Z5
X-27.373 Y-10
Z2
G1 Z0 F1000
X-27.292 Y-10.081
X-27.261 Y-10.075
X-27.234 Y-10.057
X-27.217 Y-10.031
X-27.21 Y-10
G3 X-27.535 Y-10 Z-0.25 I-0.163 J0
X-27.21 Y-10 Z-0.5 I0.163 J0
X-27.535 Y-10 Z-0.75 I-0.163 J0
X-27.21 Y-10 Z-1 I0.163 J0
X-27.535 Y-10 Z-1.25 I-0.163 J0
X-27.21 Y-10 Z-1.5 I0.163 J0
X-27.535 Y-10 Z-1.75 I-0.163 J0
X-27.21 Y-10 Z-2 I0.163 J0
X-27.535 Y-10 Z-2.25 I-0.163 J0
X-27.21 Y-10 Z-2.5 I0.163 J0
X-27.535 Y-10 Z-2.75 I-0.163 J0
X-27.21 Y-10 Z-3 I0.163 J0
X-27.504 Y-9.904 Z-3.2 I-0.163 J0
X-27.241 Y-10.096 I0.131 J-0.096
X-27.504 Y-9.904 I-0.131 J0.096
G1 X-27.518 Y-9.933
X-27.519 Y-9.965
X-27.508 Y-9.995
X-27.486 Y-10.018
X-27.373 Y-10
G0 Z5
Y-35
Z2
G1 Z0 F1000
X-27.292 Y-35.081
X-27.261 Y-35.075
X-27.234 Y-35.057
X-27.217 Y-35.031
X-27.21 Y-35
G3 X-27.535 Y-35 Z-0.25 I-0.163 J0
X-27.21 Y-35 Z-0.5 I0.163 J0
X-27.535 Y-35 Z-0.75 I-0.163 J0
X-27.21 Y-35 Z-1 I0.163 J0
X-27.535 Y-35 Z-1.25 I-0.163 J0
X-27.21 Y-35 Z-1.5 I0.163 J0
X-27.535 Y-35 Z-1.75 I-0.163 J0
X-27.21 Y-35 Z-2 I0.163 J0
X-27.535 Y-35 Z-2.25 I-0.163 J0
X-27.21 Y-35 Z-2.5 I0.163 J0
X-27.535 Y-35 Z-2.75 I-0.163 J0
X-27.21 Y-35 Z-3 I0.163 J0
X-27.504 Y-34.904 Z-3.2 I-0.163 J0
X-27.241 Y-35.096 I0.131 J-0.096
X-27.504 Y-34.904 I-0.131 J0.096
G1 X-27.518 Y-34.933
X-27.519 Y-34.965
X-27.508 Y-34.995
X-27.486 Y-35.018
X-27.373 Y-35
G0 Z5
X-29.623 Y-45.25
Z2
G1 Z0 F1000
X-29.542 Y-45.331
X-29.511 Y-45.325
X-29.484 Y-45.307
X-29.467 Y-45.281
X-29.46 Y-45.25
G3 X-29.785 Y-45.25 Z-0.25 I-0.163 J0
X-29.46 Y-45.25 Z-0.5 I0.163 J0
X-29.785 Y-45.25 Z-0.75 I-0.163 J0
X-29.46 Y-45.25 Z-1 I0.163 J0
X-29.785 Y-45.25 Z-1.25 I-0.163 J0
X-29.46 Y-45.25 Z-1.5 I0.163 J0
X-29.785 Y-45.25 Z-1.75 I-0.163 J0
X-29.46 Y-45.25 Z-2 I0.163 J0
X-29.785 Y-45.25 Z-2.25 I-0.163 J0
X-29.46 Y-45.25 Z-2.5 I0.163 J0
X-29.785 Y-45.25 Z-2.75 I-0.163 J0
X-29.46 Y-45.25 Z-3 I0.163 J0
X-29.754 Y-45.154 Z-3.2 I-0.163 J0
X-29.491 Y-45.346 I0.131 J-0.096
X-29.754 Y-45.154 I-0.131 J0.096
G1 X-29.768 Y-45.183
X-29.769 Y-45.215
X-29.758 Y-45.245
X-29.736 Y-45.268
X-29.623 Y-45.25
G0 Z5
X-60.123
Z2
G1 Z0 F1000
X-60.042 Y-45.331
X-60.011 Y-45.325
X-59.984 Y-45.307
X-59.967 Y-45.281
X-59.96 Y-45.25
G3 X-60.285 Y-45.25 Z-0.25 I-0.162 J0
X-59.96 Y-45.25 Z-0.5 I0.162 J0
X-60.285 Y-45.25 Z-0.75 I-0.162 J0
X-59.96 Y-45.25 Z-1 I0.162 J0
X-60.285 Y-45.25 Z-1.25 I-0.162 J0
X-59.96 Y-45.25 Z-1.5 I0.162 J0
X-60.285 Y-45.25 Z-1.75 I-0.162 J0
X-59.96 Y-45.25 Z-2 I0.162 J0
X-60.285 Y-45.25 Z-2.25 I-0.163 J0
X-59.96 Y-45.25 Z-2.5 I0.163 J0
X-60.285 Y-45.25 Z-2.75 I-0.163 J0
X-59.96 Y-45.25 Z-3 I0.163 J0
X-60.254 Y-45.154 Z-3.2 I-0.163 J0
X-59.991 Y-45.346 I0.131 J-0.096
X-60.254 Y-45.154 I-0.131 J0.096
G1 X-60.268 Y-45.183
X-60.269 Y-45.215
X-60.258 Y-45.245
X-60.236 Y-45.268
X-60.123 Y-45.25
G0 Z5
X-62.373 Y-35
Z2
G1 Z0 F1000
X-62.292 Y-35.081
X-62.261 Y-35.075
X-62.234 Y-35.057
X-62.217 Y-35.031
X-62.21 Y-35
G3 X-62.535 Y-35 Z-0.25 I-0.162 J0
X-62.21 Y-35 Z-0.5 I0.162 J0
X-62.535 Y-35 Z-0.75 I-0.162 J0
X-62.21 Y-35 Z-1 I0.162 J0
X-62.535 Y-35 Z-1.25 I-0.162 J0
X-62.21 Y-35 Z-1.5 I0.162 J0
X-62.535 Y-35 Z-1.75 I-0.162 J0
X-62.21 Y-35 Z-2 I0.162 J0
X-62.535 Y-35 Z-2.25 I-0.163 J0
X-62.21 Y-35 Z-2.5 I0.163 J0
X-62.535 Y-35 Z-2.75 I-0.163 J0
X-62.21 Y-35 Z-3 I0.163 J0
X-62.504 Y-34.904 Z-3.2 I-0.163 J0
X-62.241 Y-35.096 I0.131 J-0.096
X-62.504 Y-34.904 I-0.131 J0.096
G1 X-62.518 Y-34.933
X-62.519 Y-34.965
X-62.508 Y-34.995
X-62.486 Y-35.018
X-62.373 Y-35
G0 Z5
Y-10
Z2
G1 Z0 F1000
X-62.292 Y-10.081
X-62.261 Y-10.075
X-62.234 Y-10.057
X-62.217 Y-10.031
X-62.21 Y-10
G3 X-62.535 Y-10 Z-0.25 I-0.162 J0
X-62.21 Y-10 Z-0.5 I0.162 J0
X-62.535 Y-10 Z-0.75 I-0.162 J0
X-62.21 Y-10 Z-1 I0.162 J0
X-62.535 Y-10 Z-1.25 I-0.162 J0
X-62.21 Y-10 Z-1.5 I0.162 J0
X-62.535 Y-10 Z-1.75 I-0.162 J0
X-62.21 Y-10 Z-2 I0.162 J0
X-62.535 Y-10 Z-2.25 I-0.162 J0
X-62.21 Y-10 Z-2.5 I0.162 J0
X-62.535 Y-10 Z-2.75 I-0.163 J0
X-62.21 Y-10 Z-3 I0.163 J0
X-62.504 Y-9.904 Z-3.2 I-0.163 J0
X-62.241 Y-10.096 I0.131 J-0.096
X-62.504 Y-9.904 I-0.131 J0.096
G1 X-62.518 Y-9.933
X-62.519 Y-9.965
X-62.508 Y-9.995
X-62.486 Y-10.018
X-62.373 Y-10
G0 Z15

(2D-Kontur7)
X-50.357 Y-116.313
Z15
Z5
G1 Z2.5 F333.3
S5000
X-50.348 Y-116.358 Z2.498
X-50.167 Y-117.052 Z2.473
X-49.962 Y-117.709 Z2.449
X-49.735 Y-118.329 Z2.426
X-49.489 Y-118.908 Z2.404
X-49.227 Y-119.447 Z2.383
X-48.95 Y-119.945 Z2.363
X-48.663 Y-120.4 Z2.345
X-48.368 Y-120.813 Z2.327
X-48.065 Y-121.186 Z2.31
X-47.759 Y-121.518 Z2.294
X-47.45 Y-121.811 Z2.28
X-47.142 Y-122.065 Z2.266
X-46.837 Y-122.281 Z2.253
X-46.533 Y-122.463 Z2.24
X-46.232 Y-122.612 Z2.228
X-45.937 Y-122.728 Z2.217
X-45.646 Y-122.814 Z2.207
X-45.359 Y-122.873 Z2.197
X-45.074 Y-122.904 Z2.187
X-44.79 Y-122.909 Z2.177
X-44.505 Y-122.889 Z2.167
X-44.219 Y-122.842 Z2.157
X-43.931 Y-122.768 Z2.146
X-43.64 Y-122.665 Z2.135
X-43.343 Y-122.53 Z2.124
X-43.041 Y-122.364 Z2.112
X-42.738 Y-122.165 Z2.099
X-42.433 Y-121.929 Z2.086
X-42.128 Y-121.658 Z2.072
X-41.823 Y-121.346 Z2.056
X-41.522 Y-120.997 Z2.04
X-41.227 Y-120.609 Z2.023
X-40.939 Y-120.179 Z2.005
X-40.661 Y-119.71 Z1.986
X-40.395 Y-119.201 Z1.966
X-40.143 Y-118.651 Z1.945
X-39.909 Y-118.063 Z1.923
X-39.694 Y-117.438 Z1.9
X-39.502 Y-116.776 Z1.876
X-39.335 Y-116.079 Z1.851
X-39.196 Y-115.353 Z1.825
X-39.087 Y-114.6 Z1.798
X-39.011 Y-113.827 Z1.771
X-38.969 Y-113.039 Z1.744
X-38.963 Y-112.244 Z1.716
X-38.992 Y-111.45 Z1.688
X-39.057 Y-110.665 Z1.661
X-39.156 Y-109.897 Z1.634
X-39.287 Y-109.152 Z1.607
X-39.448 Y-108.435 Z1.581
X-39.636 Y-107.752 Z1.557
X-39.848 Y-107.105 Z1.533
X-40.081 Y-106.497 Z1.51
X-40.332 Y-105.93 Z1.489
X-40.599 Y-105.403 Z1.468
X-40.879 Y-104.918 Z1.448
X-41.168 Y-104.474 Z1.43
X-41.466 Y-104.073 Z1.412
X-41.77 Y-103.713 Z1.396
X-42.077 Y-103.392 Z1.38
X-42.386 Y-103.111 Z1.366
X-42.694 Y-102.868 Z1.352
X-42.999 Y-102.661 Z1.339
X-43.302 Y-102.49 Z1.327
X-43.6 Y-102.351 Z1.316
X-43.895 Y-102.244 Z1.305
X-44.185 Y-102.165 Z1.294
X-44.471 Y-102.115 Z1.284
X-44.775 Y-102.089 Z1.273
X-44.849 Y-102.088 Z1.271
X-45.157 Y-102.103 Z1.26
X-45.443 Y-102.141 Z1.25
X-45.73 Y-102.207 Z1.24
X-46.02 Y-102.302 Z1.229
X-46.316 Y-102.427 Z1.218
X-46.616 Y-102.583 Z1.206
X-46.918 Y-102.773 Z1.194
X-47.223 Y-102.998 Z1.18
X-47.528 Y-103.259 Z1.166
X-47.833 Y-103.559 Z1.151
X-48.136 Y-103.897 Z1.136
X-48.433 Y-104.274 Z1.119
X-48.724 Y-104.691 Z1.101
X-49.005 Y-105.148 Z1.082
X-49.275 Y-105.646 Z1.062
X-49.531 Y-106.183 Z1.042
X-49.77 Y-106.76 Z1.02
X-49.991 Y-107.375 Z0.997
X-50.19 Y-108.027 Z0.973
X-50.364 Y-108.713 Z0.949
X-50.512 Y-109.431 Z0.923
X-50.63 Y-110.177 Z0.897
X-50.716 Y-110.945 Z0.87
X-50.768 Y-111.73 Z0.842
X-50.785 Y-112.523 Z0.814
X-50.766 Y-113.318 Z0.787
X-50.711 Y-114.106 Z0.759
X-50.622 Y-114.88 Z0.732
X-50.5 Y-115.633 Z0.705
X-50.348 Y-116.358 Z0.679
X-50.167 Y-117.052 Z0.654
X-49.962 Y-117.709 Z0.63
X-49.735 Y-118.329 Z0.607
X-49.489 Y-118.908 Z0.585
X-49.227 Y-119.447 Z0.564
X-48.95 Y-119.945 Z0.544
X-48.663 Y-120.4 Z0.526
X-48.368 Y-120.813 Z0.508
X-48.065 Y-121.186 Z0.491
X-47.759 Y-121.518 Z0.475
X-47.45 Y-121.811 Z0.46
X-47.142 Y-122.065 Z0.447
X-46.837 Y-122.281 Z0.433
X-46.533 Y-122.463 Z0.421
X-46.232 Y-122.612 Z0.409
X-45.937 Y-122.728 Z0.398
X-45.646 Y-122.814 Z0.388
X-45.359 Y-122.873 Z0.377
X-45.074 Y-122.904 Z0.367
X-44.79 Y-122.909 Z0.358
X-44.505 Y-122.889 Z0.348
X-44.219 Y-122.842 Z0.337
X-43.931 Y-122.768 Z0.327
X-43.64 Y-122.665 Z0.316
X-43.343 Y-122.53 Z0.305
X-43.041 Y-122.364 Z0.293
X-42.738 Y-122.165 Z0.28
X-42.433 Y-121.929 Z0.267
X-42.128 Y-121.658 Z0.252
X-41.823 Y-121.346 Z0.237
X-41.522 Y-120.997 Z0.221
X-41.227 Y-120.609 Z0.204
X-40.939 Y-120.179 Z0.186
X-40.661 Y-119.71 Z0.167
X-40.395 Y-119.201 Z0.147
X-40.143 Y-118.651 Z0.126
X-39.909 Y-118.063 Z0.104
X-39.694 Y-117.438 Z0.081
X-39.502 Y-116.776 Z0.057
X-39.335 Y-116.079 Z0.032
X-39.196 Y-115.353 Z0.006
X-39.087 Y-114.6 Z-0.021
X-39.011 Y-113.827 Z-0.048
X-38.969 Y-113.039 Z-0.076
X-38.963 Y-112.244 Z-0.103
X-38.992 Y-111.45 Z-0.131
X-39.057 Y-110.665 Z-0.159
X-39.156 Y-109.897 Z-0.186
X-39.287 Y-109.152 Z-0.212
X-39.448 Y-108.435 Z-0.238
X-39.636 Y-107.752 Z-0.262
X-39.848 Y-107.105 Z-0.286
X-40.081 Y-106.497 Z-0.309
X-40.332 Y-105.93 Z-0.331
X-40.599 Y-105.403 Z-0.351
X-40.879 Y-104.918 Z-0.371
X-41.168 Y-104.474 Z-0.389
X-41.466 Y-104.073 Z-0.407
X-41.77 Y-103.713 Z-0.423
X-42.077 Y-103.392 Z-0.439
X-42.386 Y-103.111 Z-0.453
X-42.694 Y-102.868 Z-0.467
X-42.999 Y-102.661 Z-0.48
X-43.302 Y-102.49 Z-0.492
X-43.6 Y-102.351 Z-0.503
X-43.895 Y-102.244 Z-0.514
X-44.185 Y-102.165 Z-0.525
X-44.471 Y-102.115 Z-0.535
X-44.775 Y-102.089 Z-0.546
X-44.849 Y-102.088 Z-0.548
X-45.157 Y-102.103 Z-0.559
X-45.443 Y-102.141 Z-0.569
X-45.73 Y-102.207 Z-0.579
X-46.02 Y-102.302 Z-0.59
X-46.316 Y-102.427 Z-0.601
X-46.616 Y-102.583 Z-0.613
X-46.918 Y-102.773 Z-0.626
X-47.223 Y-102.998 Z-0.639
X-47.528 Y-103.259 Z-0.653
X-47.833 Y-103.559 Z-0.668
X-48.136 Y-103.897 Z-0.684
X-48.433 Y-104.274 Z-0.7
X-48.724 Y-104.691 Z-0.718
X-49.005 Y-105.148 Z-0.737
X-49.275 Y-105.646 Z-0.757
X-49.531 Y-106.183 Z-0.777
X-49.77 Y-106.76 Z-0.799
X-49.991 Y-107.375 Z-0.822
X-50.19 Y-108.027 Z-0.846
X-50.364 Y-108.713 Z-0.871
X-50.512 Y-109.431 Z-0.896
X-50.63 Y-110.177 Z-0.922
X-50.716 Y-110.945 Z-0.949
X-50.768 Y-111.73 Z-0.977
X-50.782 Y-112.39 Z-1
S6000
X-50.785 Y-112.523 F1000
X-50.766 Y-113.318
X-50.711 Y-114.106
X-50.622 Y-114.88
X-50.5 Y-115.633
X-50.348 Y-116.358
X-50.167 Y-117.052
X-49.962 Y-117.709
X-49.735 Y-118.329
X-49.489 Y-118.908
X-49.227 Y-119.447
X-48.95 Y-119.945
X-48.663 Y-120.4
X-48.368 Y-120.813
X-48.065 Y-121.186
X-47.759 Y-121.518
X-47.45 Y-121.811
X-47.142 Y-122.065
X-46.837 Y-122.281
X-46.533 Y-122.463
X-46.232 Y-122.612
X-45.937 Y-122.728
X-45.646 Y-122.814
X-45.359 Y-122.873
X-45.074 Y-122.904
X-44.79 Y-122.909
X-44.505 Y-122.889
X-44.219 Y-122.842
X-43.931 Y-122.768
X-43.64 Y-122.665
X-43.343 Y-122.53
X-43.041 Y-122.364
X-42.738 Y-122.165
X-42.433 Y-121.929
X-42.128 Y-121.658
X-41.823 Y-121.346
X-41.522 Y-120.997
X-41.227 Y-120.609
X-40.939 Y-120.179
X-40.661 Y-119.71
X-40.395 Y-119.201
X-40.143 Y-118.651
X-39.909 Y-118.063
X-39.694 Y-117.438
X-39.502 Y-116.776
X-39.335 Y-116.079
X-39.196 Y-115.353
X-39.087 Y-114.6
X-39.011 Y-113.827
X-38.969 Y-113.039
X-38.963 Y-112.244
X-38.992 Y-111.45
X-39.057 Y-110.665
X-39.156 Y-109.897
X-39.287 Y-109.152
X-39.448 Y-108.435
X-39.636 Y-107.752
X-39.848 Y-107.105
X-40.081 Y-106.497
X-40.332 Y-105.93
X-40.599 Y-105.403
X-40.879 Y-104.918
X-41.168 Y-104.474
X-41.466 Y-104.073
X-41.77 Y-103.713
X-42.077 Y-103.392
X-42.386 Y-103.111
X-42.694 Y-102.868
X-42.999 Y-102.661
X-43.302 Y-102.49
X-43.6 Y-102.351
X-43.895 Y-102.244
X-44.185 Y-102.165
X-44.471 Y-102.115
X-44.775 Y-102.089
X-44.849 Y-102.088
X-45.157 Y-102.103
X-45.443 Y-102.141
X-45.73 Y-102.207
X-46.02 Y-102.302
X-46.316 Y-102.427
X-46.616 Y-102.583
X-46.918 Y-102.773
X-47.223 Y-102.998
X-47.528 Y-103.259
X-47.833 Y-103.559
X-48.136 Y-103.897
X-48.433 Y-104.274
X-48.724 Y-104.691
X-49.005 Y-105.148
X-49.275 Y-105.646
X-49.531 Y-106.183
X-49.77 Y-106.76
X-49.991 Y-107.375
X-50.19 Y-108.027
X-50.364 Y-108.713
X-50.512 Y-109.431
X-50.63 Y-110.177
X-50.716 Y-110.945
X-50.768 Y-111.73
X-50.782 Y-112.39
S5000
X-50.785 Y-112.523 Z-1.005 F333.3
X-50.766 Y-113.318 Z-1.032
X-50.711 Y-114.106 Z-1.06
X-50.622 Y-114.88 Z-1.087
X-50.5 Y-115.633 Z-1.114
X-50.348 Y-116.358 Z-1.14
X-50.167 Y-117.052 Z-1.165
X-49.962 Y-117.709 Z-1.189
X-49.735 Y-118.329 Z-1.212
X-49.489 Y-118.908 Z-1.234
X-49.227 Y-119.447 Z-1.255
X-48.95 Y-119.945 Z-1.275
X-48.663 Y-120.4 Z-1.293
X-48.368 Y-120.813 Z-1.311
X-48.065 Y-121.186 Z-1.328
X-47.759 Y-121.518 Z-1.344
X-47.45 Y-121.811 Z-1.359
X-47.142 Y-122.065 Z-1.373
X-46.837 Y-122.281 Z-1.386
X-46.533 Y-122.463 Z-1.398
X-46.232 Y-122.612 Z-1.41
X-45.937 Y-122.728 Z-1.421
X-45.646 Y-122.814 Z-1.431
X-45.359 Y-122.873 Z-1.442
X-45.074 Y-122.904 Z-1.452
X-44.79 Y-122.909 Z-1.462
X-44.505 Y-122.889 Z-1.471
X-44.219 Y-122.842 Z-1.482
X-43.931 Y-122.768 Z-1.492
X-43.64 Y-122.665 Z-1.503
X-43.343 Y-122.53 Z-1.514
X-43.041 Y-122.364 Z-1.526
X-42.738 Y-122.165 Z-1.539
X-42.433 Y-121.929 Z-1.552
X-42.128 Y-121.658 Z-1.567
X-41.823 Y-121.346 Z-1.582
X-41.522 Y-120.997 Z-1.598
X-41.227 Y-120.609 Z-1.615
X-40.939 Y-120.179 Z-1.633
X-40.661 Y-119.71 Z-1.652
X-40.395 Y-119.201 Z-1.672
X-40.143 Y-118.651 Z-1.693
X-39.909 Y-118.063 Z-1.715
X-39.694 Y-117.438 Z-1.738
X-39.502 Y-116.776 Z-1.762
X-39.335 Y-116.079 Z-1.787
X-39.196 Y-115.353 Z-1.813
X-39.087 Y-114.6 Z-1.84
X-39.011 Y-113.827 Z-1.867
X-38.969 Y-113.039 Z-1.895
X-38.963 Y-112.244 Z-1.922
X-38.992 Y-111.45 Z-1.95
X-39.057 Y-110.665 Z-1.978
X-39.139 Y-110.028 Z-2
S6000
X-39.156 Y-109.897 F1000
X-39.287 Y-109.152
X-39.448 Y-108.435
X-39.636 Y-107.752
X-39.848 Y-107.105
X-40.081 Y-106.497
X-40.332 Y-105.93
X-40.599 Y-105.403
X-40.879 Y-104.918
X-41.168 Y-104.474
X-41.466 Y-104.073
X-41.77 Y-103.713
X-42.077 Y-103.392
X-42.386 Y-103.111
X-42.694 Y-102.868
X-42.999 Y-102.661
X-43.302 Y-102.49
X-43.6 Y-102.351
X-43.895 Y-102.244
X-44.185 Y-102.165
X-44.471 Y-102.115
X-44.775 Y-102.089
X-44.849 Y-102.088
X-45.157 Y-102.103
X-45.443 Y-102.141
X-45.73 Y-102.207
X-46.02 Y-102.302
X-46.316 Y-102.427
X-46.616 Y-102.583
X-46.918 Y-102.773
X-47.223 Y-102.998
X-47.528 Y-103.259
X-47.833 Y-103.559
X-48.136 Y-103.897
X-48.433 Y-104.274
X-48.724 Y-104.691
X-49.005 Y-105.148
X-49.275 Y-105.646
X-49.531 Y-106.183
X-49.77 Y-106.76
X-49.991 Y-107.375
X-50.19 Y-108.027
X-50.364 Y-108.713
X-50.512 Y-109.431
X-50.63 Y-110.177
X-50.716 Y-110.945
X-50.768 Y-111.73
X-50.782 Y-112.39
X-50.785 Y-112.523
X-50.766 Y-113.318
X-50.711 Y-114.106
X-50.622 Y-114.88
X-50.5 Y-115.633
X-50.348 Y-116.358
X-50.167 Y-117.052
X-49.962 Y-117.709
X-49.735 Y-118.329
X-49.489 Y-118.908
X-49.227 Y-119.447
X-48.95 Y-119.945
X-48.663 Y-120.4
X-48.368 Y-120.813
X-48.065 Y-121.186
X-47.759 Y-121.518
X-47.45 Y-121.811
X-47.142 Y-122.065
X-46.837 Y-122.281
X-46.533 Y-122.463
X-46.232 Y-122.612
X-45.937 Y-122.728
X-45.646 Y-122.814
X-45.359 Y-122.873
X-45.074 Y-122.904
X-44.79 Y-122.909
X-44.505 Y-122.889
X-44.219 Y-122.842
X-43.931 Y-122.768
X-43.64 Y-122.665
X-43.343 Y-122.53
X-43.041 Y-122.364
X-42.738 Y-122.165
X-42.433 Y-121.929
X-42.128 Y-121.658
X-41.823 Y-121.346
X-41.522 Y-120.997
X-41.227 Y-120.609
X-40.939 Y-120.179
X-40.661 Y-119.71
X-40.395 Y-119.201
X-40.143 Y-118.651
X-39.909 Y-118.063
X-39.694 Y-117.438
X-39.502 Y-116.776
X-39.335 Y-116.079
X-39.196 Y-115.353
X-39.087 Y-114.6
X-39.011 Y-113.827
X-38.969 Y-113.039
X-38.963 Y-112.244
X-38.992 Y-111.45
X-39.057 Y-110.665
X-39.139 Y-110.028
S5000
X-39.156 Y-109.897 Z-2.005 F333.3
X-39.287 Y-109.152 Z-2.031
X-39.448 Y-108.435 Z-2.057
X-39.636 Y-107.752 Z-2.081
X-39.848 Y-107.105 Z-2.105
X-40.081 Y-106.497 Z-2.128
X-40.332 Y-105.93 Z-2.15
X-40.599 Y-105.403 Z-2.17
X-40.879 Y-104.918 Z-2.19
X-41.168 Y-104.474 Z-2.208
X-41.466 Y-104.073 Z-2.226
X-41.77 Y-103.713 Z-2.242
X-42.077 Y-103.392 Z-2.258
X-42.386 Y-103.111 Z-2.272
X-42.694 Y-102.868 Z-2.286
X-42.999 Y-102.661 Z-2.299
X-43.302 Y-102.49 Z-2.311
X-43.6 Y-102.351 Z-2.322
X-43.895 Y-102.244 Z-2.333
X-44.185 Y-102.165 Z-2.344
X-44.471 Y-102.115 Z-2.354
X-44.775 Y-102.089 Z-2.365
X-44.849 Y-102.088 Z-2.367
X-45.157 Y-102.103 Z-2.378
X-45.443 Y-102.141 Z-2.388
X-45.73 Y-102.207 Z-2.398
X-46.02 Y-102.302 Z-2.409
X-46.316 Y-102.427 Z-2.42
X-46.616 Y-102.583 Z-2.432
X-46.918 Y-102.773 Z-2.445
X-47.223 Y-102.998 Z-2.458
X-47.528 Y-103.259 Z-2.472
X-47.833 Y-103.559 Z-2.487
X-48.136 Y-103.897 Z-2.503
X-48.433 Y-104.274 Z-2.519
X-48.724 Y-104.691 Z-2.537
X-49.005 Y-105.148 Z-2.556
X-49.275 Y-105.646 Z-2.576
X-49.531 Y-106.183 Z-2.596
X-49.57 Y-106.277 Z-2.6
S6000
X-49.77 Y-106.76 F1000
X-49.991 Y-107.375
X-50.19 Y-108.027
X-50.364 Y-108.713
X-50.512 Y-109.431
X-50.63 Y-110.177
X-50.716 Y-110.945
X-50.768 Y-111.73
X-50.785 Y-112.523
X-50.766 Y-113.318
X-50.711 Y-114.106
X-50.622 Y-114.88
X-50.5 Y-115.633
X-50.348 Y-116.358
X-50.167 Y-117.052
X-49.962 Y-117.709
X-49.735 Y-118.329
X-49.489 Y-118.908
X-49.227 Y-119.447
X-48.95 Y-119.945
X-48.663 Y-120.4
X-48.368 Y-120.813
X-48.065 Y-121.186
X-47.759 Y-121.518
X-47.45 Y-121.811
X-47.142 Y-122.065
X-46.837 Y-122.281
X-46.533 Y-122.463
X-46.232 Y-122.612
X-45.937 Y-122.728
X-45.646 Y-122.814
X-45.359 Y-122.873
X-45.074 Y-122.904
X-44.79 Y-122.909
X-44.505 Y-122.889
X-44.219 Y-122.842
X-43.931 Y-122.768
X-43.64 Y-122.665
X-43.343 Y-122.53
X-43.041 Y-122.364
X-42.738 Y-122.165
X-42.433 Y-121.929
X-42.128 Y-121.658
X-41.823 Y-121.346
X-41.522 Y-120.997
X-41.227 Y-120.609
X-40.939 Y-120.179
X-40.661 Y-119.71
X-40.395 Y-119.201
X-40.143 Y-118.651
X-39.909 Y-118.063
X-39.694 Y-117.438
X-39.502 Y-116.776
X-39.335 Y-116.079
X-39.196 Y-115.353
X-39.087 Y-114.6
X-39.011 Y-113.827
X-38.969 Y-113.039
X-38.963 Y-112.244
X-38.992 Y-111.45
X-39.057 Y-110.665
X-39.139 Y-110.028
X-39.156 Y-109.897
X-39.287 Y-109.152
X-39.448 Y-108.435
X-39.636 Y-107.752
X-39.848 Y-107.105
X-40.081 Y-106.497
X-40.332 Y-105.93
X-40.599 Y-105.403
X-40.879 Y-104.918
X-41.168 Y-104.474
X-41.466 Y-104.073
X-41.77 Y-103.713
X-42.077 Y-103.392
X-42.386 Y-103.111
X-42.694 Y-102.868
X-42.999 Y-102.661
X-43.302 Y-102.49
X-43.6 Y-102.351
X-43.895 Y-102.244
X-44.185 Y-102.165
X-44.471 Y-102.115
X-44.775 Y-102.089
X-44.849 Y-102.088
X-45.157 Y-102.103
X-45.443 Y-102.141
X-45.73 Y-102.207
X-46.02 Y-102.302
X-46.316 Y-102.427
X-46.616 Y-102.583
X-46.918 Y-102.773
X-47.223 Y-102.998
X-47.528 Y-103.259
X-47.833 Y-103.559
X-48.136 Y-103.897
X-48.433 Y-104.274
X-48.724 Y-104.691
X-49.005 Y-105.148
X-49.275 Y-105.646
X-49.531 Y-106.183
X-49.57 Y-106.277
S5000
X-49.77 Y-106.76 Z-2.618 F333.3
X-49.991 Y-107.375 Z-2.641
X-50.19 Y-108.027 Z-2.665
X-50.364 Y-108.713 Z-2.69
X-50.512 Y-109.431 Z-2.715
X-50.63 Y-110.177 Z-2.742
X-50.716 Y-110.945 Z-2.769
X-50.768 Y-111.73 Z-2.796
X-50.785 Y-112.523 Z-2.824
X-50.766 Y-113.318 Z-2.851
X-50.711 Y-114.106 Z-2.879
X-50.622 Y-114.88 Z-2.906
X-50.5 Y-115.633 Z-2.933
X-50.348 Y-116.358 Z-2.959
X-50.167 Y-117.052 Z-2.984
X-49.962 Y-117.709 Z-3.008
X-49.735 Y-118.329 Z-3.031
X-49.489 Y-118.908 Z-3.053
X-49.227 Y-119.447 Z-3.074
X-48.95 Y-119.945 Z-3.094
X-48.663 Y-120.4 Z-3.113
X-48.368 Y-120.813 Z-3.13
X-48.065 Y-121.186 Z-3.147
X-47.759 Y-121.518 Z-3.163
X-47.45 Y-121.811 Z-3.178
X-47.142 Y-122.065 Z-3.192
X-46.946 Y-122.204 Z-3.2
S6000
X-46.837 Y-122.281 F1000
X-46.533 Y-122.463
X-46.232 Y-122.612
X-45.937 Y-122.728
X-45.646 Y-122.814
X-45.359 Y-122.873
X-45.074 Y-122.904
X-44.79 Y-122.909
X-44.505 Y-122.889
X-44.219 Y-122.842
X-43.931 Y-122.768
X-43.64 Y-122.665
X-43.343 Y-122.53
X-43.041 Y-122.364
X-42.738 Y-122.165
X-42.433 Y-121.929
X-42.128 Y-121.658
X-41.823 Y-121.346
X-41.522 Y-120.997
X-41.227 Y-120.609
X-40.939 Y-120.179
X-40.661 Y-119.71
X-40.395 Y-119.201
X-40.143 Y-118.651
X-39.909 Y-118.063
X-39.694 Y-117.438
X-39.502 Y-116.776
X-39.335 Y-116.079
X-39.196 Y-115.353
X-39.087 Y-114.6
X-39.011 Y-113.827
X-38.969 Y-113.039
X-38.963 Y-112.244
X-38.992 Y-111.45
X-39.057 Y-110.665
X-39.156 Y-109.897
X-39.287 Y-109.152
X-39.448 Y-108.435
X-39.636 Y-107.752
X-39.848 Y-107.105
X-40.081 Y-106.497
X-40.332 Y-105.93
X-40.599 Y-105.403
X-40.879 Y-104.918
X-41.168 Y-104.474
X-41.466 Y-104.073
X-41.77 Y-103.713
X-42.077 Y-103.392
X-42.386 Y-103.111
X-42.694 Y-102.868
X-42.999 Y-102.661
X-43.302 Y-102.49
X-43.6 Y-102.351
X-43.895 Y-102.244
X-44.185 Y-102.165
X-44.471 Y-102.115
X-44.775 Y-102.089
X-44.849 Y-102.088
X-45.157 Y-102.103
X-45.443 Y-102.141
X-45.73 Y-102.207
X-46.02 Y-102.302
X-46.316 Y-102.427
X-46.616 Y-102.583
X-46.918 Y-102.773
X-47.223 Y-102.998
X-47.528 Y-103.259
X-47.833 Y-103.559
X-48.136 Y-103.897
X-48.433 Y-104.274
X-48.724 Y-104.691
X-49.005 Y-105.148
X-49.275 Y-105.646
X-49.531 Y-106.183
X-49.77 Y-106.76
X-49.991 Y-107.375
X-50.19 Y-108.027
X-50.364 Y-108.713
X-50.512 Y-109.431
X-50.63 Y-110.177
X-50.716 Y-110.945
X-50.768 Y-111.73
X-50.785 Y-112.523
X-50.766 Y-113.318
X-50.711 Y-114.106
X-50.622 Y-114.88
X-50.5 Y-115.633
X-50.348 Y-116.358
X-50.167 Y-117.052
X-49.962 Y-117.709
X-49.735 Y-118.329
X-49.489 Y-118.908
X-49.227 Y-119.447
X-48.95 Y-119.945
X-48.663 Y-120.4
X-48.368 Y-120.813
X-48.065 Y-121.186
X-47.759 Y-121.518
X-47.45 Y-121.811
X-47.142 Y-122.065
X-46.946 Y-122.204
G0 Z5
X-32.03 Y-137.12
G1 Z2.5 F333.3
S5000
X-32.046 Y-137.104 Z2.499
X-32.279 Y-136.909 Z2.489
X-32.555 Y-136.708 Z2.477
X-32.881 Y-136.5 Z2.463
X-33.256 Y-136.287 Z2.448
X-33.68 Y-136.074 Z2.432
X-34.151 Y-135.862 Z2.414
X-34.675 Y-135.653 Z2.394
X-35.251 Y-135.448 Z2.372
X-35.878 Y-135.25 Z2.35
X-36.562 Y-135.059 Z2.325
X-37.302 Y-134.878 Z2.298
X-38.103 Y-134.708 Z2.27
X-38.965 Y-134.552 Z2.239
X-39.893 Y-134.413 Z2.206
X-40.89 Y-134.294 Z2.171
X-41.957 Y-134.197 Z2.134
X-43.087 Y-134.128 Z2.094
X-44.271 Y-134.092 Z2.053
X-45.485 Z2.01
X-46.693 Y-134.13 Z1.968
X-47.863 Y-134.203 Z1.927
X-48.969 Y-134.305 Z1.888
X-50 Y-134.433 Z1.852
X-50.955 Y-134.582 Z1.818
X-51.838 Y-134.748 Z1.787
X-52.651 Y-134.926 Z1.758
X-53.397 Y-135.116 Z1.731
X-54.082 Y-135.315 Z1.706
X-54.706 Y-135.52 Z1.683
X-55.275 Y-135.732 Z1.662
X-55.789 Y-135.947 Z1.643
X-56.249 Y-136.163 Z1.625
X-56.658 Y-136.379 Z1.609
X-57.015 Y-136.592 Z1.594
X-57.323 Y-136.801 Z1.581
X-57.583 Y-137.003 Z1.57
X-57.796 Y-137.193 Z1.56
X-57.962 Y-137.368 Z1.551
X-58.087 Y-137.526 Z1.544
X-58.175 Y-137.663 Z1.539
X-58.231 Y-137.776 Z1.534
X-58.262 Y-137.866 Z1.531
X-58.277 Y-137.938 Z1.528
X-58.282 Y-138 Z1.526
X-58.277 Y-138.062 Z1.524
X-58.262 Y-138.135 Z1.521
X-58.231 Y-138.224 Z1.518
X-58.175 Y-138.337 Z1.514
X-58.088 Y-138.472 Z1.508
X-57.965 Y-138.628 Z1.501
X-57.8 Y-138.802 Z1.493
X-57.591 Y-138.99 Z1.483
X-57.336 Y-139.189 Z1.472
X-57.033 Y-139.395 Z1.459
X-56.683 Y-139.606 Z1.445
X-56.285 Y-139.819 Z1.429
X-55.837 Y-140.032 Z1.411
X-55.34 Y-140.243 Z1.393
X-54.792 Y-140.449 Z1.372
X-54.19 Y-140.651 Z1.35
X-53.534 Y-140.846 Z1.326
X-52.823 Y-141.033 Z1.3
X-52.054 Y-141.208 Z1.273
X-51.222 Y-141.371 Z1.243
X-50.327 Y-141.519 Z1.212
X-49.365 Y-141.649 Z1.178
X-48.333 Y-141.758 Z1.141
X-47.235 Y-141.841 Z1.103
X-46.076 Y-141.894 Z1.062
X-44.873 Y-141.912 Z1.02
X-43.656 Y-141.893 Z0.978
X-42.464 Y-141.838 Z0.936
X-41.324 Y-141.749 Z0.896
X-40.254 Y-141.633 Z0.859
X-39.261 Y-141.495 Z0.824
X-38.342 Y-141.337 Z0.791
X-37.495 Y-141.165 Z0.761
X-36.716 Y-140.98 Z0.733
X-36 Y-140.786 Z0.707
X-35.346 Y-140.584 Z0.683
X-34.749 Y-140.375 Z0.661
X-34.208 Y-140.162 Z0.641
X-33.722 Y-139.946 Z0.622
X-33.288 Y-139.73 Z0.605
X-32.905 Y-139.515 Z0.59
X-32.571 Y-139.302 Z0.576
X-32.287 Y-139.097 Z0.564
X-32.052 Y-138.902 Z0.553
X-31.862 Y-138.717 Z0.544
X-31.716 Y-138.55 Z0.536
X-31.611 Y-138.403 Z0.53
X-31.54 Y-138.278 Z0.525
X-31.497 Y-138.177 Z0.521
X-31.475 Y-138.096 Z0.518
X-31.465 Y-138.03 Z0.516
Y-137.97 Z0.514
X-31.475 Y-137.904 Z0.511
X-31.497 Y-137.823 Z0.509
X-31.54 Y-137.722 Z0.505
X-31.61 Y-137.598 Z0.5
X-31.715 Y-137.451 Z0.493
X-31.859 Y-137.286 Z0.486
X-32.046 Y-137.104 Z0.477
X-32.279 Y-136.909 Z0.466
X-32.555 Y-136.708 Z0.454
X-32.881 Y-136.5 Z0.441
X-33.256 Y-136.287 Z0.426
X-33.68 Y-136.074 Z0.409
X-34.151 Y-135.862 Z0.391
X-34.675 Y-135.653 Z0.371
X-35.251 Y-135.448 Z0.35
X-35.878 Y-135.25 Z0.327
X-36.562 Y-135.059 Z0.302
X-37.302 Y-134.878 Z0.276
X-38.103 Y-134.708 Z0.247
X-38.965 Y-134.552 Z0.216
X-39.893 Y-134.413 Z0.184
X-40.89 Y-134.294 Z0.148
X-41.957 Y-134.197 Z0.111
X-43.087 Y-134.128 Z0.072
X-44.271 Y-134.092 Z0.03
X-45.485 Z-0.012
X-46.693 Y-134.13 Z-0.054
X-47.863 Y-134.203 Z-0.095
X-48.969 Y-134.305 Z-0.134
X-50 Y-134.433 Z-0.17
X-50.955 Y-134.582 Z-0.204
X-51.838 Y-134.748 Z-0.236
X-52.651 Y-134.926 Z-0.265
X-53.397 Y-135.116 Z-0.291
X-54.082 Y-135.315 Z-0.316
X-54.706 Y-135.52 Z-0.339
X-55.275 Y-135.732 Z-0.361
X-55.789 Y-135.947 Z-0.38
X-56.249 Y-136.163 Z-0.398
X-56.658 Y-136.379 Z-0.414
X-57.015 Y-136.592 Z-0.428
X-57.323 Y-136.801 Z-0.441
X-57.583 Y-137.003 Z-0.453
X-57.796 Y-137.193 Z-0.463
X-57.962 Y-137.368 Z-0.471
X-58.087 Y-137.526 Z-0.478
X-58.175 Y-137.663 Z-0.484
X-58.231 Y-137.776 Z-0.488
X-58.262 Y-137.866 Z-0.492
X-58.277 Y-137.938 Z-0.494
X-58.282 Y-138 Z-0.496
X-58.277 Y-138.062 Z-0.499
X-58.262 Y-138.135 Z-0.501
X-58.231 Y-138.224 Z-0.505
X-58.175 Y-138.337 Z-0.509
X-58.088 Y-138.472 Z-0.515
X-57.965 Y-138.628 Z-0.522
X-57.8 Y-138.802 Z-0.53
X-57.591 Y-138.99 Z-0.54
X-57.336 Y-139.189 Z-0.551
X-57.033 Y-139.395 Z-0.564
X-56.683 Y-139.606 Z-0.578
X-56.285 Y-139.819 Z-0.594
X-55.837 Y-140.032 Z-0.611
X-55.34 Y-140.243 Z-0.63
X-54.792 Y-140.449 Z-0.65
X-54.19 Y-140.651 Z-0.673
X-53.534 Y-140.846 Z-0.697
X-52.823 Y-141.033 Z-0.722
X-52.054 Y-141.208 Z-0.75
X-51.222 Y-141.371 Z-0.779
X-50.327 Y-141.519 Z-0.811
X-49.365 Y-141.649 Z-0.845
X-48.333 Y-141.758 Z-0.881
X-47.235 Y-141.841 Z-0.92
X-46.076 Y-141.894 Z-0.96
X-44.934 Y-141.911 Z-1
S6000
X-44.873 Y-141.912 F1000
X-43.656 Y-141.893
X-42.464 Y-141.838
X-41.324 Y-141.749
X-40.254 Y-141.633
X-39.261 Y-141.495
X-38.342 Y-141.337
X-37.495 Y-141.165
X-36.716 Y-140.98
X-36 Y-140.786
X-35.346 Y-140.584
X-34.749 Y-140.375
X-34.208 Y-140.162
X-33.722 Y-139.946
X-33.288 Y-139.73
X-32.905 Y-139.515
X-32.571 Y-139.302
X-32.287 Y-139.097
X-32.052 Y-138.902
X-31.862 Y-138.717
X-31.716 Y-138.55
X-31.611 Y-138.403
X-31.54 Y-138.278
X-31.497 Y-138.177
X-31.475 Y-138.096
X-31.465 Y-138.03
Y-137.97
X-31.475 Y-137.904
X-31.497 Y-137.823
X-31.54 Y-137.722
X-31.61 Y-137.598
X-31.715 Y-137.451
X-31.859 Y-137.286
X-32.046 Y-137.104
X-32.279 Y-136.909
X-32.555 Y-136.708
X-32.881 Y-136.5
X-33.256 Y-136.287
X-33.68 Y-136.074
X-34.151 Y-135.862
X-34.675 Y-135.653
X-35.251 Y-135.448
X-35.878 Y-135.25
X-36.562 Y-135.059
X-37.302 Y-134.878
X-38.103 Y-134.708
X-38.965 Y-134.552
X-39.893 Y-134.413
X-40.89 Y-134.294
X-41.957 Y-134.197
X-43.087 Y-134.128
X-44.271 Y-134.092
X-45.485
X-46.693 Y-134.13
X-47.863 Y-134.203
X-48.969 Y-134.305
X-50 Y-134.433
X-50.955 Y-134.582
X-51.838 Y-134.748
X-52.651 Y-134.926
X-53.397 Y-135.116
X-54.082 Y-135.315
X-54.706 Y-135.52
X-55.275 Y-135.732
X-55.789 Y-135.947
X-56.249 Y-136.163
X-56.658 Y-136.379
X-57.015 Y-136.592
X-57.323 Y-136.801
X-57.583 Y-137.003
X-57.796 Y-137.193
X-57.962 Y-137.368
X-58.087 Y-137.526
X-58.175 Y-137.663
X-58.231 Y-137.776
X-58.262 Y-137.866
X-58.277 Y-137.938
X-58.282 Y-138
X-58.277 Y-138.062
X-58.262 Y-138.135
X-58.231 Y-138.224
X-58.175 Y-138.337
X-58.088 Y-138.472
X-57.965 Y-138.628
X-57.8 Y-138.802
X-57.591 Y-138.99
X-57.336 Y-139.189
X-57.033 Y-139.395
X-56.683 Y-139.606
X-56.285 Y-139.819
X-55.837 Y-140.032
X-55.34 Y-140.243
X-54.792 Y-140.449
X-54.19 Y-140.651
X-53.534 Y-140.846
X-52.823 Y-141.033
X-52.054 Y-141.208
X-51.222 Y-141.371
X-50.327 Y-141.519
X-49.365 Y-141.649
X-48.333 Y-141.758
X-47.235 Y-141.841
X-46.076 Y-141.894
X-44.934 Y-141.911
S5000
X-44.873 Y-141.912 Z-1.002 F333.3
X-43.656 Y-141.893 Z-1.045
X-42.464 Y-141.838 Z-1.086
X-41.324 Y-141.749 Z-1.126
X-40.254 Y-141.633 Z-1.164
X-39.261 Y-141.495 Z-1.199
X-38.342 Y-141.337 Z-1.231
X-37.495 Y-141.165 Z-1.262
X-36.716 Y-140.98 Z-1.29
X-36 Y-140.786 Z-1.315
X-35.346 Y-140.584 Z-1.339
X-34.749 Y-140.375 Z-1.361
X-34.208 Y-140.162 Z-1.382
X-33.722 Y-139.946 Z-1.4
X-33.288 Y-139.73 Z-1.417
X-32.905 Y-139.515 Z-1.433
X-32.571 Y-139.302 Z-1.446
X-32.287 Y-139.097 Z-1.459
X-32.052 Y-138.902 Z-1.469
X-31.862 Y-138.717 Z-1.479
X-31.716 Y-138.55 Z-1.486
X-31.611 Y-138.403 Z-1.493
X-31.54 Y-138.278 Z-1.498
X-31.497 Y-138.177 Z-1.501
X-31.475 Y-138.096 Z-1.504
X-31.465 Y-138.03 Z-1.507
Y-137.97 Z-1.509
X-31.475 Y-137.904 Z-1.511
X-31.497 Y-137.823 Z-1.514
X-31.54 Y-137.722 Z-1.518
X-31.61 Y-137.598 Z-1.523
X-31.715 Y-137.451 Z-1.529
X-31.859 Y-137.286 Z-1.537
X-32.046 Y-137.104 Z-1.546
X-32.279 Y-136.909 Z-1.557
X-32.555 Y-136.708 Z-1.569
X-32.881 Y-136.5 Z-1.582
X-33.256 Y-136.287 Z-1.597
X-33.68 Y-136.074 Z-1.614
X-34.151 Y-135.862 Z-1.632
X-34.675 Y-135.653 Z-1.651
X-35.251 Y-135.448 Z-1.673
X-35.878 Y-135.25 Z-1.696
X-36.562 Y-135.059 Z-1.72
X-37.302 Y-134.878 Z-1.747
X-38.103 Y-134.708 Z-1.776
X-38.965 Y-134.552 Z-1.806
X-39.893 Y-134.413 Z-1.839
X-40.89 Y-134.294 Z-1.874
X-41.957 Y-134.197 Z-1.911
X-43.087 Y-134.128 Z-1.951
X-44.271 Y-134.092 Z-1.992
X-44.489 Z-2
S6000
X-45.485 F1000
X-46.693 Y-134.13
X-47.863 Y-134.203
X-48.969 Y-134.305
X-50 Y-134.433
X-50.955 Y-134.582
X-51.838 Y-134.748
X-52.651 Y-134.926
X-53.397 Y-135.116
X-54.082 Y-135.315
X-54.706 Y-135.52
X-55.275 Y-135.732
X-55.789 Y-135.947
X-56.249 Y-136.163
X-56.658 Y-136.379
X-57.015 Y-136.592
X-57.323 Y-136.801
X-57.583 Y-137.003
X-57.796 Y-137.193
X-57.962 Y-137.368
X-58.087 Y-137.526
X-58.175 Y-137.663
X-58.231 Y-137.776
X-58.262 Y-137.866
X-58.277 Y-137.938
X-58.282 Y-138
X-58.277 Y-138.062
X-58.262 Y-138.135
X-58.231 Y-138.224
X-58.175 Y-138.337
X-58.088 Y-138.472
X-57.965 Y-138.628
X-57.8 Y-138.802
X-57.591 Y-138.99
X-57.336 Y-139.189
X-57.033 Y-139.395
X-56.683 Y-139.606
X-56.285 Y-139.819
X-55.837 Y-140.032
X-55.34 Y-140.243
X-54.792 Y-140.449
X-54.19 Y-140.651
X-53.534 Y-140.846
X-52.823 Y-141.033
X-52.054 Y-141.208
X-51.222 Y-141.371
X-50.327 Y-141.519
X-49.365 Y-141.649
X-48.333 Y-141.758
X-47.235 Y-141.841
X-46.076 Y-141.894
X-44.934 Y-141.911
X-44.873 Y-141.912
X-43.656 Y-141.893
X-42.464 Y-141.838
X-41.324 Y-141.749
X-40.254 Y-141.633
X-39.261 Y-141.495
X-38.342 Y-141.337
X-37.495 Y-141.165
X-36.716 Y-140.98
X-36 Y-140.786
X-35.346 Y-140.584
X-34.749 Y-140.375
X-34.208 Y-140.162
X-33.722 Y-139.946
X-33.288 Y-139.73
X-32.905 Y-139.515
X-32.571 Y-139.302
X-32.287 Y-139.097
X-32.052 Y-138.902
X-31.862 Y-138.717
X-31.716 Y-138.55
X-31.611 Y-138.403
X-31.54 Y-138.278
X-31.497 Y-138.177
X-31.475 Y-138.096
X-31.465 Y-138.03
Y-137.97
X-31.475 Y-137.904
X-31.497 Y-137.823
X-31.54 Y-137.722
X-31.61 Y-137.598
X-31.715 Y-137.451
X-31.859 Y-137.286
X-32.046 Y-137.104
X-32.279 Y-136.909
X-32.555 Y-136.708
X-32.881 Y-136.5
X-33.256 Y-136.287
X-33.68 Y-136.074
X-34.151 Y-135.862
X-34.675 Y-135.653
X-35.251 Y-135.448
X-35.878 Y-135.25
X-36.562 Y-135.059
X-37.302 Y-134.878
X-38.103 Y-134.708
X-38.965 Y-134.552
X-39.893 Y-134.413
X-40.89 Y-134.294
X-41.957 Y-134.197
X-43.087 Y-134.128
X-44.271 Y-134.092
X-44.489
S5000
X-45.485 Z-2.035 F333.3
X-46.693 Y-134.13 Z-2.077
X-47.863 Y-134.203 Z-2.118
X-48.969 Y-134.305 Z-2.157
X-50 Y-134.433 Z-2.193
X-50.955 Y-134.582 Z-2.227
X-51.838 Y-134.748 Z-2.258
X-52.651 Y-134.926 Z-2.287
X-53.397 Y-135.116 Z-2.314
X-54.082 Y-135.315 Z-2.339
X-54.706 Y-135.52 Z-2.362
X-55.275 Y-135.732 Z-2.383
X-55.789 Y-135.947 Z-2.403
X-56.249 Y-136.163 Z-2.42
X-56.658 Y-136.379 Z-2.436
X-57.015 Y-136.592 Z-2.451
X-57.323 Y-136.801 Z-2.464
X-57.583 Y-137.003 Z-2.475
X-57.796 Y-137.193 Z-2.485
X-57.962 Y-137.368 Z-2.494
X-58.087 Y-137.526 Z-2.501
X-58.175 Y-137.663 Z-2.507
X-58.231 Y-137.776 Z-2.511
X-58.262 Y-137.866 Z-2.514
X-58.277 Y-137.938 Z-2.517
X-58.282 Y-138 Z-2.519
X-58.277 Y-138.062 Z-2.521
X-58.262 Y-138.135 Z-2.524
X-58.231 Y-138.224 Z-2.527
X-58.175 Y-138.337 Z-2.532
X-58.088 Y-138.472 Z-2.537
X-57.965 Y-138.628 Z-2.544
X-57.8 Y-138.802 Z-2.552
X-57.591 Y-138.99 Z-2.562
X-57.336 Y-139.189 Z-2.574
X-57.033 Y-139.395 Z-2.586
X-56.699 Y-139.597 Z-2.6
S6000
X-56.683 Y-139.606 F1000
X-56.285 Y-139.819
X-55.837 Y-140.032
X-55.34 Y-140.243
X-54.792 Y-140.449
X-54.19 Y-140.651
X-53.534 Y-140.846
X-52.823 Y-141.033
X-52.054 Y-141.208
X-51.222 Y-141.371
X-50.327 Y-141.519
X-49.365 Y-141.649
X-48.333 Y-141.758
X-47.235 Y-141.841
X-46.076 Y-141.894
X-44.873 Y-141.912
X-43.656 Y-141.893
X-42.464 Y-141.838
X-41.324 Y-141.749
X-40.254 Y-141.633
X-39.261 Y-141.495
X-38.342 Y-141.337
X-37.495 Y-141.165
X-36.716 Y-140.98
X-36 Y-140.786
X-35.346 Y-140.584
X-34.749 Y-140.375
X-34.208 Y-140.162
X-33.722 Y-139.946
X-33.288 Y-139.73
X-32.905 Y-139.515
X-32.571 Y-139.302
X-32.287 Y-139.097
X-32.052 Y-138.902
X-31.862 Y-138.717
X-31.716 Y-138.55
X-31.611 Y-138.403
X-31.54 Y-138.278
X-31.497 Y-138.177
X-31.475 Y-138.096
X-31.465 Y-138.03
Y-137.97
X-31.475 Y-137.904
X-31.497 Y-137.823
X-31.54 Y-137.722
X-31.61 Y-137.598
X-31.715 Y-137.451
X-31.859 Y-137.286
X-32.046 Y-137.104
X-32.279 Y-136.909
X-32.555 Y-136.708
X-32.881 Y-136.5
X-33.256 Y-136.287
X-33.68 Y-136.074
X-34.151 Y-135.862
X-34.675 Y-135.653
X-35.251 Y-135.448
X-35.878 Y-135.25
X-36.562 Y-135.059
X-37.302 Y-134.878
X-38.103 Y-134.708
X-38.965 Y-134.552
X-39.893 Y-134.413
X-40.89 Y-134.294
X-41.957 Y-134.197
X-43.087 Y-134.128
X-44.271 Y-134.092
X-45.485
X-46.693 Y-134.13
X-47.863 Y-134.203
X-48.969 Y-134.305
X-50 Y-134.433
X-50.955 Y-134.582
X-51.838 Y-134.748
X-52.651 Y-134.926
X-53.397 Y-135.116
X-54.082 Y-135.315
X-54.706 Y-135.52
X-55.275 Y-135.732
X-55.789 Y-135.947
X-56.249 Y-136.163
X-56.658 Y-136.379
X-57.015 Y-136.592
X-57.323 Y-136.801
X-57.583 Y-137.003
X-57.796 Y-137.193
X-57.962 Y-137.368
X-58.087 Y-137.526
X-58.175 Y-137.663
X-58.231 Y-137.776
X-58.262 Y-137.866
X-58.277 Y-137.938
X-58.282 Y-138
X-58.277 Y-138.062
X-58.262 Y-138.135
X-58.231 Y-138.224
X-58.175 Y-138.337
X-58.088 Y-138.472
X-57.965 Y-138.628
X-57.8 Y-138.802
X-57.591 Y-138.99
X-57.336 Y-139.189
X-57.033 Y-139.395
X-56.699 Y-139.597
S5000
X-56.683 Y-139.606 Z-2.601 F333.3
X-56.285 Y-139.819 Z-2.616
X-55.837 Y-140.032 Z-2.634
X-55.34 Y-140.243 Z-2.653
X-54.792 Y-140.449 Z-2.673
X-54.19 Y-140.651 Z-2.695
X-53.534 Y-140.846 Z-2.719
X-52.823 Y-141.033 Z-2.745
X-52.054 Y-141.208 Z-2.772
X-51.222 Y-141.371 Z-2.802
X-50.327 Y-141.519 Z-2.834
X-49.365 Y-141.649 Z-2.867
X-48.333 Y-141.758 Z-2.904
X-47.235 Y-141.841 Z-2.942
X-46.076 Y-141.894 Z-2.983
X-44.873 Y-141.912 Z-3.025
X-43.656 Y-141.893 Z-3.067
X-42.464 Y-141.838 Z-3.109
X-41.324 Y-141.749 Z-3.149
X-40.254 Y-141.633 Z-3.186
X-39.868 Y-141.58 Z-3.2
S6000
X-39.261 Y-141.495 F1000
X-38.342 Y-141.337
X-37.495 Y-141.165
X-36.716 Y-140.98
X-36 Y-140.786
X-35.346 Y-140.584
X-34.749 Y-140.375
X-34.208 Y-140.162
X-33.722 Y-139.946
X-33.288 Y-139.73
X-32.905 Y-139.515
X-32.571 Y-139.302
X-32.287 Y-139.097
X-32.052 Y-138.902
X-31.862 Y-138.717
X-31.716 Y-138.55
X-31.611 Y-138.403
X-31.54 Y-138.278
X-31.497 Y-138.177
X-31.475 Y-138.096
X-31.465 Y-138.03
Y-137.97
X-31.475 Y-137.904
X-31.497 Y-137.823
X-31.54 Y-137.722
X-31.61 Y-137.598
X-31.715 Y-137.451
X-31.859 Y-137.286
X-32.046 Y-137.104
X-32.279 Y-136.909
X-32.555 Y-136.708
X-32.881 Y-136.5
X-33.256 Y-136.287
X-33.68 Y-136.074
X-34.151 Y-135.862
X-34.675 Y-135.653
X-35.251 Y-135.448
X-35.878 Y-135.25
X-36.562 Y-135.059
X-37.302 Y-134.878
X-38.103 Y-134.708
X-38.965 Y-134.552
X-39.893 Y-134.413
X-40.89 Y-134.294
X-41.957 Y-134.197
X-43.087 Y-134.128
X-44.271 Y-134.092
X-45.485
X-46.693 Y-134.13
X-47.863 Y-134.203
X-48.969 Y-134.305
X-50 Y-134.433
X-50.955 Y-134.582
X-51.838 Y-134.748
X-52.651 Y-134.926
X-53.397 Y-135.116
X-54.082 Y-135.315
X-54.706 Y-135.52
X-55.275 Y-135.732
X-55.789 Y-135.947
X-56.249 Y-136.163
X-56.658 Y-136.379
X-57.015 Y-136.592
X-57.323 Y-136.801
X-57.583 Y-137.003
X-57.796 Y-137.193
X-57.962 Y-137.368
X-58.087 Y-137.526
X-58.175 Y-137.663
X-58.231 Y-137.776
X-58.262 Y-137.866
X-58.277 Y-137.938
X-58.282 Y-138
X-58.277 Y-138.062
X-58.262 Y-138.135
X-58.231 Y-138.224
X-58.175 Y-138.337
X-58.088 Y-138.472
X-57.965 Y-138.628
X-57.8 Y-138.802
X-57.591 Y-138.99
X-57.336 Y-139.189
X-57.033 Y-139.395
X-56.699 Y-139.597
X-56.683 Y-139.606
X-56.285 Y-139.819
X-55.837 Y-140.032
X-55.34 Y-140.243
X-54.792 Y-140.449
X-54.19 Y-140.651
X-53.534 Y-140.846
X-52.823 Y-141.033
X-52.054 Y-141.208
X-51.222 Y-141.371
X-50.327 Y-141.519
X-49.365 Y-141.649
X-48.333 Y-141.758
X-47.235 Y-141.841
X-46.076 Y-141.894
X-44.873 Y-141.912
X-43.656 Y-141.893
X-42.464 Y-141.838
X-41.324 Y-141.749
X-40.254 Y-141.633
X-39.868 Y-141.58
G0 Z5
X-46.95 Y-169.203
G1 Z2.5 F333.3
S5000
G3 X-42.796 Y-148.797 Z1.358 I2.077 J10.203
X-46.95 Y-169.203 Z0.215 I-2.077 J-10.203
X-34.513 Y-160.044 Z-0.392 I2.077 J10.203
X-44.873 Y-148.587 Z-1 I-10.36 J1.044
S6000
X-44.873 Y-169.413 I0 J-10.413 F1000
X-44.873 Y-148.587 I0 J10.413
S5000
X-48.845 Y-168.625 Z-2 I0 J-10.413 F333.3
S6000
X-40.901 Y-149.375 I3.972 J9.625 F1000
X-48.845 Y-168.625 I-3.972 J-9.625
S5000
X-34.963 Y-162.197 Z-2.6 I3.972 J9.625 F333.3
S6000
X-54.782 Y-155.803 I-9.909 J3.197 F1000
X-34.963 Y-162.197 I9.909 J-3.197
S5000
X-42.471 Y-148.868 Z-3.2 I-9.909 J3.197 F333.3
S6000
X-47.275 Y-169.132 I-2.402 J-10.132 F1000
X-42.471 Y-148.868 I2.402 J10.132
G0 Z5
X-33.148 Y-79.488
G1 Z2.5 F333.3
S5000
X-33.207 Y-79.456 Z2.498
X-33.656 Y-79.245 Z2.48
X-34.154 Y-79.034 Z2.461
X-34.703 Y-78.828 Z2.441
X-35.305 Y-78.626 Z2.419
X-35.961 Y-78.431 Z2.395
X-36.673 Y-78.245 Z2.369
X-37.444 Y-78.068 Z2.342
X-38.276 Y-77.904 Z2.312
X-39.172 Y-77.754 Z2.28
X-40.136 Y-77.621 Z2.246
X-41.171 Y-77.509 Z2.21
X-42.275 Y-77.421 Z2.171
X-43.444 Y-77.363 Z2.13
X-44.662 Y-77.338 Z2.088
X-45.9 Y-77.351 Z2.045
X-47.121 Y-77.4 Z2.002
X-48.291 Y-77.483 Z1.961
X-49.39 Y-77.595 Z1.922
X-50.412 Y-77.73 Z1.886
X-51.356 Y-77.883 Z1.853
X-52.227 Y-78.052 Z1.822
X-53.029 Y-78.234 Z1.793
X-53.766 Y-78.426 Z1.767
X-54.44 Y-78.626 Z1.742
X-55.056 Y-78.832 Z1.719
X-55.616 Y-79.044 Z1.699
X-56.121 Y-79.258 Z1.679
X-56.573 Y-79.474 Z1.662
X-56.973 Y-79.689 Z1.646
X-57.323 Y-79.901 Z1.632
X-57.623 Y-80.107 Z1.619
X-57.875 Y-80.306 Z1.608
X-58.08 Y-80.492 Z1.598
X-58.239 Y-80.664 Z1.59
X-58.357 Y-80.816 Z1.583
X-58.438 Y-80.946 Z1.578
X-58.489 Y-81.053 Z1.574
X-58.516 Y-81.136 Z1.571
X-58.529 Y-81.202 Z1.568
X-58.531 Y-81.259 Z1.566
X-58.526 Y-81.318 Z1.564
X-58.509 Y-81.39 Z1.562
X-58.475 Y-81.48 Z1.558
X-58.415 Y-81.594 Z1.554
X-58.324 Y-81.731 Z1.548
X-58.194 Y-81.889 Z1.541
X-58.022 Y-82.064 Z1.532
X-57.805 Y-82.252 Z1.522
X-57.542 Y-82.451 Z1.511
X-57.232 Y-82.657 Z1.498
X-56.873 Y-82.867 Z1.483
X-56.466 Y-83.079 Z1.467
X-56.01 Y-83.291 Z1.45
X-55.503 Y-83.501 Z1.431
X-54.945 Y-83.707 Z1.41
X-54.334 Y-83.907 Z1.387
X-53.669 Y-84.101 Z1.363
X-52.947 Y-84.286 Z1.337
X-52.166 Y-84.46 Z1.309
X-51.323 Y-84.623 Z1.279
X-50.416 Y-84.77 Z1.247
X-49.44 Y-84.899 Z1.213
X-48.394 Y-85.008 Z1.176
X-47.278 Y-85.091 Z1.137
X-46.099 Y-85.144 Z1.096
X-44.875 Y-85.162 Z1.053
X-43.637 Y-85.144 Z1.01
X-42.423 Y-85.088 Z0.967
X-41.264 Y-85 Z0.927
X-40.178 Y-84.884 Z0.889
X-39.169 Y-84.746 Z0.853
X-38.238 Y-84.589 Z0.82
X-37.378 Y-84.418 Z0.789
X-36.588 Y-84.234 Z0.761
X-35.862 Y-84.041 Z0.735
X-35.197 Y-83.84 Z0.711
X-34.591 Y-83.632 Z0.688
X-34.041 Y-83.42 Z0.668
X-33.545 Y-83.205 Z0.649
X-33.102 Y-82.99 Z0.632
X-32.71 Y-82.775 Z0.616
X-32.368 Y-82.564 Z0.602
X-32.077 Y-82.358 Z0.589
X-31.833 Y-82.162 Z0.579
X-31.636 Y-81.978 Z0.569
X-31.484 Y-81.809 Z0.561
X-31.372 Y-81.66 Z0.555
X-31.297 Y-81.534 Z0.55
X-31.251 Y-81.432 Z0.546
X-31.227 Y-81.351 Z0.543
X-31.213 Y-81.269 Z0.54
X-31.218 Y-81.192 Z0.537
X-31.233 Y-81.124 Z0.535
X-31.264 Y-81.037 Z0.531
X-31.318 Y-80.927 Z0.527
X-31.404 Y-80.794 Z0.522
X-31.528 Y-80.639 Z0.515
X-31.692 Y-80.467 Z0.506
X-31.901 Y-80.28 Z0.497
X-32.156 Y-80.083 Z0.485
X-32.458 Y-79.878 Z0.473
X-32.809 Y-79.668 Z0.458
X-33.207 Y-79.456 Z0.443
X-33.656 Y-79.245 Z0.425
X-34.154 Y-79.034 Z0.406
X-34.703 Y-78.828 Z0.386
X-35.305 Y-78.626 Z0.364
X-35.961 Y-78.431 Z0.34
X-36.673 Y-78.245 Z0.314
X-37.444 Y-78.068 Z0.287
X-38.276 Y-77.904 Z0.257
X-39.172 Y-77.754 Z0.225
X-40.136 Y-77.621 Z0.191
X-41.171 Y-77.509 Z0.155
X-42.275 Y-77.421 Z0.116
X-43.444 Y-77.363 Z0.075
X-44.662 Y-77.338 Z0.033
X-45.9 Y-77.351 Z-0.011
X-47.121 Y-77.4 Z-0.053
X-48.291 Y-77.483 Z-0.094
X-49.39 Y-77.595 Z-0.133
X-50.412 Y-77.73 Z-0.169
X-51.356 Y-77.883 Z-0.202
X-52.227 Y-78.052 Z-0.233
X-53.029 Y-78.234 Z-0.262
X-53.766 Y-78.426 Z-0.288
X-54.44 Y-78.626 Z-0.313
X-55.056 Y-78.832 Z-0.336
X-55.616 Y-79.044 Z-0.357
X-56.121 Y-79.258 Z-0.376
X-56.573 Y-79.474 Z-0.393
X-56.973 Y-79.689 Z-0.409
X-57.323 Y-79.901 Z-0.423
X-57.623 Y-80.107 Z-0.436
X-57.875 Y-80.306 Z-0.447
X-58.08 Y-80.492 Z-0.457
X-58.239 Y-80.664 Z-0.465
X-58.357 Y-80.816 Z-0.472
X-58.438 Y-80.946 Z-0.477
X-58.489 Y-81.053 Z-0.481
X-58.516 Y-81.136 Z-0.484
X-58.529 Y-81.202 Z-0.487
X-58.531 Y-81.259 Z-0.489
X-58.526 Y-81.318 Z-0.491
X-58.509 Y-81.39 Z-0.493
X-58.475 Y-81.48 Z-0.497
X-58.415 Y-81.594 Z-0.501
X-58.324 Y-81.731 Z-0.507
X-58.194 Y-81.889 Z-0.514
X-58.022 Y-82.064 Z-0.523
X-57.805 Y-82.252 Z-0.533
X-57.542 Y-82.451 Z-0.544
X-57.232 Y-82.657 Z-0.557
X-56.873 Y-82.867 Z-0.572
X-56.466 Y-83.079 Z-0.588
X-56.01 Y-83.291 Z-0.605
X-55.503 Y-83.501 Z-0.624
X-54.945 Y-83.707 Z-0.645
X-54.334 Y-83.907 Z-0.668
X-53.669 Y-84.101 Z-0.692
X-52.947 Y-84.286 Z-0.718
X-52.166 Y-84.46 Z-0.746
X-51.323 Y-84.623 Z-0.776
X-50.416 Y-84.77 Z-0.808
X-49.44 Y-84.899 Z-0.842
X-48.394 Y-85.008 Z-0.879
X-47.278 Y-85.091 Z-0.918
X-46.099 Y-85.144 Z-0.959
X-44.934 Y-85.161 Z-1
S6000
X-44.875 Y-85.162 F1000
X-43.637 Y-85.144
X-42.423 Y-85.088
X-41.264 Y-85
X-40.178 Y-84.884
X-39.169 Y-84.746
X-38.238 Y-84.589
X-37.378 Y-84.418
X-36.588 Y-84.234
X-35.862 Y-84.041
X-35.197 Y-83.84
X-34.591 Y-83.632
X-34.041 Y-83.42
X-33.545 Y-83.205
X-33.102 Y-82.99
X-32.71 Y-82.775
X-32.368 Y-82.564
X-32.077 Y-82.358
X-31.833 Y-82.162
X-31.636 Y-81.978
X-31.484 Y-81.809
X-31.372 Y-81.66
X-31.297 Y-81.534
X-31.251 Y-81.432
X-31.227 Y-81.351
X-31.213 Y-81.269
X-31.218 Y-81.192
X-31.233 Y-81.124
X-31.264 Y-81.037
X-31.318 Y-80.927
X-31.404 Y-80.794
X-31.528 Y-80.639
X-31.692 Y-80.467
X-31.901 Y-80.28
X-32.156 Y-80.083
X-32.458 Y-79.878
X-32.809 Y-79.668
X-33.207 Y-79.456
X-33.656 Y-79.245
X-34.154 Y-79.034
X-34.703 Y-78.828
X-35.305 Y-78.626
X-35.961 Y-78.431
X-36.673 Y-78.245
X-37.444 Y-78.068
X-38.276 Y-77.904
X-39.172 Y-77.754
X-40.136 Y-77.621
X-41.171 Y-77.509
X-42.275 Y-77.421
X-43.444 Y-77.363
X-44.662 Y-77.338
X-45.9 Y-77.351
X-47.121 Y-77.4
X-48.291 Y-77.483
X-49.39 Y-77.595
X-50.412 Y-77.73
X-51.356 Y-77.883
X-52.227 Y-78.052
X-53.029 Y-78.234
X-53.766 Y-78.426
X-54.44 Y-78.626
X-55.056 Y-78.832
X-55.616 Y-79.044
X-56.121 Y-79.258
X-56.573 Y-79.474
X-56.973 Y-79.689
X-57.323 Y-79.901
X-57.623 Y-80.107
X-57.875 Y-80.306
X-58.08 Y-80.492
X-58.239 Y-80.664
X-58.357 Y-80.816
X-58.438 Y-80.946
X-58.489 Y-81.053
X-58.516 Y-81.136
X-58.529 Y-81.202
X-58.531 Y-81.259
X-58.526 Y-81.318
X-58.509 Y-81.39
X-58.475 Y-81.48
X-58.415 Y-81.594
X-58.324 Y-81.731
X-58.194 Y-81.889
X-58.022 Y-82.064
X-57.805 Y-82.252
X-57.542 Y-82.451
X-57.232 Y-82.657
X-56.873 Y-82.867
X-56.466 Y-83.079
X-56.01 Y-83.291
X-55.503 Y-83.501
X-54.945 Y-83.707
X-54.334 Y-83.907
X-53.669 Y-84.101
X-52.947 Y-84.286
X-52.166 Y-84.46
X-51.323 Y-84.623
X-50.416 Y-84.77
X-49.44 Y-84.899
X-48.394 Y-85.008
X-47.278 Y-85.091
X-46.099 Y-85.144
X-44.934 Y-85.161
S5000
X-44.875 Y-85.162 Z-1.002 F333.3
X-43.637 Y-85.144 Z-1.045
X-42.423 Y-85.088 Z-1.088
X-41.264 Y-85 Z-1.128
X-40.178 Y-84.884 Z-1.166
X-39.169 Y-84.746 Z-1.202
X-38.238 Y-84.589 Z-1.235
X-37.378 Y-84.418 Z-1.266
X-36.588 Y-84.234 Z-1.294
X-35.862 Y-84.041 Z-1.32
X-35.197 Y-83.84 Z-1.344
X-34.591 Y-83.632 Z-1.367
X-34.041 Y-83.42 Z-1.387
X-33.545 Y-83.205 Z-1.406
X-33.102 Y-82.99 Z-1.423
X-32.71 Y-82.775 Z-1.439
X-32.368 Y-82.564 Z-1.453
X-32.077 Y-82.358 Z-1.466
X-31.833 Y-82.162 Z-1.477
X-31.636 Y-81.978 Z-1.486
X-31.484 Y-81.809 Z-1.494
X-31.372 Y-81.66 Z-1.5
X-31.297 Y-81.534 Z-1.505
X-31.251 Y-81.432 Z-1.509
X-31.227 Y-81.351 Z-1.512
X-31.213 Y-81.269 Z-1.515
X-31.218 Y-81.192 Z-1.518
X-31.233 Y-81.124 Z-1.52
X-31.264 Y-81.037 Z-1.524
X-31.318 Y-80.927 Z-1.528
X-31.404 Y-80.794 Z-1.533
X-31.528 Y-80.639 Z-1.54
X-31.692 Y-80.467 Z-1.549
X-31.901 Y-80.28 Z-1.558
X-32.156 Y-80.083 Z-1.57
X-32.458 Y-79.878 Z-1.582
X-32.809 Y-79.668 Z-1.597
X-33.207 Y-79.456 Z-1.612
X-33.656 Y-79.245 Z-1.63
X-34.154 Y-79.034 Z-1.649
X-34.703 Y-78.828 Z-1.669
X-35.305 Y-78.626 Z-1.691
X-35.961 Y-78.431 Z-1.715
X-36.673 Y-78.245 Z-1.741
X-37.444 Y-78.068 Z-1.769
X-38.276 Y-77.904 Z-1.798
X-39.172 Y-77.754 Z-1.83
X-40.136 Y-77.621 Z-1.864
X-41.171 Y-77.509 Z-1.9
X-42.275 Y-77.421 Z-1.939
X-43.444 Y-77.363 Z-1.98
X-44.023 Y-77.351 Z-2
S6000
X-44.662 Y-77.338 F1000
X-45.9 Y-77.351
X-47.121 Y-77.4
X-48.291 Y-77.483
X-49.39 Y-77.595
X-50.412 Y-77.73
X-51.356 Y-77.883
X-52.227 Y-78.052
X-53.029 Y-78.234
X-53.766 Y-78.426
X-54.44 Y-78.626
X-55.056 Y-78.832
X-55.616 Y-79.044
X-56.121 Y-79.258
X-56.573 Y-79.474
X-56.973 Y-79.689
X-57.323 Y-79.901
X-57.623 Y-80.107
X-57.875 Y-80.306
X-58.08 Y-80.492
X-58.239 Y-80.664
X-58.357 Y-80.816
X-58.438 Y-80.946
X-58.489 Y-81.053
X-58.516 Y-81.136
X-58.529 Y-81.202
X-58.531 Y-81.259
X-58.526 Y-81.318
X-58.509 Y-81.39
X-58.475 Y-81.48
X-58.415 Y-81.594
X-58.324 Y-81.731
X-58.194 Y-81.889
X-58.022 Y-82.064
X-57.805 Y-82.252
X-57.542 Y-82.451
X-57.232 Y-82.657
X-56.873 Y-82.867
X-56.466 Y-83.079
X-56.01 Y-83.291
X-55.503 Y-83.501
X-54.945 Y-83.707
X-54.334 Y-83.907
X-53.669 Y-84.101
X-52.947 Y-84.286
X-52.166 Y-84.46
X-51.323 Y-84.623
X-50.416 Y-84.77
X-49.44 Y-84.899
X-48.394 Y-85.008
X-47.278 Y-85.091
X-46.099 Y-85.144
X-44.934 Y-85.161
X-44.875 Y-85.162
X-43.637 Y-85.144
X-42.423 Y-85.088
X-41.264 Y-85
X-40.178 Y-84.884
X-39.169 Y-84.746
X-38.238 Y-84.589
X-37.378 Y-84.418
X-36.588 Y-84.234
X-35.862 Y-84.041
X-35.197 Y-83.84
X-34.591 Y-83.632
X-34.041 Y-83.42
X-33.545 Y-83.205
X-33.102 Y-82.99
X-32.71 Y-82.775
X-32.368 Y-82.564
X-32.077 Y-82.358
X-31.833 Y-82.162
X-31.636 Y-81.978
X-31.484 Y-81.809
X-31.372 Y-81.66
X-31.297 Y-81.534
X-31.251 Y-81.432
X-31.227 Y-81.351
X-31.213 Y-81.269
X-31.218 Y-81.192
X-31.233 Y-81.124
X-31.264 Y-81.037
X-31.318 Y-80.927
X-31.404 Y-80.794
X-31.528 Y-80.639
X-31.692 Y-80.467
X-31.901 Y-80.28
X-32.156 Y-80.083
X-32.458 Y-79.878
X-32.809 Y-79.668
X-33.207 Y-79.456
X-33.656 Y-79.245
X-34.154 Y-79.034
X-34.703 Y-78.828
X-35.305 Y-78.626
X-35.961 Y-78.431
X-36.673 Y-78.245
X-37.444 Y-78.068
X-38.276 Y-77.904
X-39.172 Y-77.754
X-40.136 Y-77.621
X-41.171 Y-77.509
X-42.275 Y-77.421
X-43.444 Y-77.363
X-44.023 Y-77.351
S5000
X-44.662 Y-77.338 Z-2.022 F333.3
X-45.9 Y-77.351 Z-2.066
X-47.121 Y-77.4 Z-2.108
X-48.291 Y-77.483 Z-2.149
X-49.39 Y-77.595 Z-2.188
X-50.412 Y-77.73 Z-2.224
X-51.356 Y-77.883 Z-2.257
X-52.227 Y-78.052 Z-2.288
X-53.029 Y-78.234 Z-2.317
X-53.766 Y-78.426 Z-2.343
X-54.44 Y-78.626 Z-2.368
X-55.056 Y-78.832 Z-2.391
X-55.616 Y-79.044 Z-2.412
X-56.121 Y-79.258 Z-2.431
X-56.573 Y-79.474 Z-2.448
X-56.973 Y-79.689 Z-2.464
X-57.323 Y-79.901 Z-2.478
X-57.623 Y-80.107 Z-2.491
X-57.875 Y-80.306 Z-2.502
X-58.08 Y-80.492 Z-2.512
X-58.239 Y-80.664 Z-2.52
X-58.357 Y-80.816 Z-2.527
X-58.438 Y-80.946 Z-2.532
X-58.489 Y-81.053 Z-2.536
X-58.516 Y-81.136 Z-2.539
X-58.529 Y-81.202 Z-2.542
X-58.531 Y-81.259 Z-2.544
X-58.526 Y-81.318 Z-2.546
X-58.509 Y-81.39 Z-2.548
X-58.475 Y-81.48 Z-2.552
X-58.415 Y-81.594 Z-2.556
X-58.324 Y-81.731 Z-2.562
X-58.194 Y-81.889 Z-2.569
X-58.022 Y-82.064 Z-2.578
X-57.805 Y-82.252 Z-2.588
X-57.542 Y-82.451 Z-2.599
X-57.525 Y-82.463 Z-2.6
S6000
X-57.232 Y-82.657 F1000
X-56.873 Y-82.867
X-56.466 Y-83.079
X-56.01 Y-83.291
X-55.503 Y-83.501
X-54.945 Y-83.707
X-54.334 Y-83.907
X-53.669 Y-84.101
X-52.947 Y-84.286
X-52.166 Y-84.46
X-51.323 Y-84.623
X-50.416 Y-84.77
X-49.44 Y-84.899
X-48.394 Y-85.008
X-47.278 Y-85.091
X-46.099 Y-85.144
X-44.875 Y-85.162
X-43.637 Y-85.144
X-42.423 Y-85.088
X-41.264 Y-85
X-40.178 Y-84.884
X-39.169 Y-84.746
X-38.238 Y-84.589
X-37.378 Y-84.418
X-36.588 Y-84.234
X-35.862 Y-84.041
X-35.197 Y-83.84
X-34.591 Y-83.632
X-34.041 Y-83.42
X-33.545 Y-83.205
X-33.102 Y-82.99
X-32.71 Y-82.775
X-32.368 Y-82.564
X-32.077 Y-82.358
X-31.833 Y-82.162
X-31.636 Y-81.978
X-31.484 Y-81.809
X-31.372 Y-81.66
X-31.297 Y-81.534
X-31.251 Y-81.432
X-31.227 Y-81.351
X-31.213 Y-81.269
X-31.218 Y-81.192
X-31.233 Y-81.124
X-31.264 Y-81.037
X-31.318 Y-80.927
X-31.404 Y-80.794
X-31.528 Y-80.639
X-31.692 Y-80.467
X-31.901 Y-80.28
X-32.156 Y-80.083
X-32.458 Y-79.878
X-32.809 Y-79.668
X-33.207 Y-79.456
X-33.656 Y-79.245
X-34.154 Y-79.034
X-34.703 Y-78.828
X-35.305 Y-78.626
X-35.961 Y-78.431
X-36.673 Y-78.245
X-37.444 Y-78.068
X-38.276 Y-77.904
X-39.172 Y-77.754
X-40.136 Y-77.621
X-41.171 Y-77.509
X-42.275 Y-77.421
X-43.444 Y-77.363
X-44.662 Y-77.338
X-45.9 Y-77.351
X-47.121 Y-77.4
X-48.291 Y-77.483
X-49.39 Y-77.595
X-50.412 Y-77.73
X-51.356 Y-77.883
X-52.227 Y-78.052
X-53.029 Y-78.234
X-53.766 Y-78.426
X-54.44 Y-78.626
X-55.056 Y-78.832
X-55.616 Y-79.044
X-56.121 Y-79.258
X-56.573 Y-79.474
X-56.973 Y-79.689
X-57.323 Y-79.901
X-57.623 Y-80.107
X-57.875 Y-80.306
X-58.08 Y-80.492
X-58.239 Y-80.664
X-58.357 Y-80.816
X-58.438 Y-80.946
X-58.489 Y-81.053
X-58.516 Y-81.136
X-58.529 Y-81.202
X-58.531 Y-81.259
X-58.526 Y-81.318
X-58.509 Y-81.39
X-58.475 Y-81.48
X-58.415 Y-81.594
X-58.324 Y-81.731
X-58.194 Y-81.889
X-58.022 Y-82.064
X-57.805 Y-82.252
X-57.542 Y-82.451
X-57.525 Y-82.463
S5000
X-57.232 Y-82.657 Z-2.612 F333.3
X-56.873 Y-82.867 Z-2.627
X-56.466 Y-83.079 Z-2.643
X-56.01 Y-83.291 Z-2.66
X-55.503 Y-83.501 Z-2.68
X-54.945 Y-83.707 Z-2.7
X-54.334 Y-83.907 Z-2.723
X-53.669 Y-84.101 Z-2.747
X-52.947 Y-84.286 Z-2.773
X-52.166 Y-84.46 Z-2.801
X-51.323 Y-84.623 Z-2.831
X-50.416 Y-84.77 Z-2.863
X-49.44 Y-84.899 Z-2.897
X-48.394 Y-85.008 Z-2.934
X-47.278 Y-85.091 Z-2.973
X-46.099 Y-85.144 Z-3.014
X-44.875 Y-85.162 Z-3.057
X-43.637 Y-85.144 Z-3.1
X-42.423 Y-85.088 Z-3.143
X-41.264 Y-85 Z-3.183
X-40.791 Y-84.949 Z-3.2
S6000
X-40.178 Y-84.884 F1000
X-39.169 Y-84.746
X-38.238 Y-84.589
X-37.378 Y-84.418
X-36.588 Y-84.234
X-35.862 Y-84.041
X-35.197 Y-83.84
X-34.591 Y-83.632
X-34.041 Y-83.42
X-33.545 Y-83.205
X-33.102 Y-82.99
X-32.71 Y-82.775
X-32.368 Y-82.564
X-32.077 Y-82.358
X-31.833 Y-82.162
X-31.636 Y-81.978
X-31.484 Y-81.809
X-31.372 Y-81.66
X-31.297 Y-81.534
X-31.251 Y-81.432
X-31.227 Y-81.351
X-31.213 Y-81.269
X-31.218 Y-81.192
X-31.233 Y-81.124
X-31.264 Y-81.037
X-31.318 Y-80.927
X-31.404 Y-80.794
X-31.528 Y-80.639
X-31.692 Y-80.467
X-31.901 Y-80.28
X-32.156 Y-80.083
X-32.458 Y-79.878
X-32.809 Y-79.668
X-33.207 Y-79.456
X-33.656 Y-79.245
X-34.154 Y-79.034
X-34.703 Y-78.828
X-35.305 Y-78.626
X-35.961 Y-78.431
X-36.673 Y-78.245
X-37.444 Y-78.068
X-38.276 Y-77.904
X-39.172 Y-77.754
X-40.136 Y-77.621
X-41.171 Y-77.509
X-42.275 Y-77.421
X-43.444 Y-77.363
X-44.662 Y-77.338
X-45.9 Y-77.351
X-47.121 Y-77.4
X-48.291 Y-77.483
X-49.39 Y-77.595
X-50.412 Y-77.73
X-51.356 Y-77.883
X-52.227 Y-78.052
X-53.029 Y-78.234
X-53.766 Y-78.426
X-54.44 Y-78.626
X-55.056 Y-78.832
X-55.616 Y-79.044
X-56.121 Y-79.258
X-56.573 Y-79.474
X-56.973 Y-79.689
X-57.323 Y-79.901
X-57.623 Y-80.107
X-57.875 Y-80.306
X-58.08 Y-80.492
X-58.239 Y-80.664
X-58.357 Y-80.816
X-58.438 Y-80.946
X-58.489 Y-81.053
X-58.516 Y-81.136
X-58.529 Y-81.202
X-58.531 Y-81.259
X-58.526 Y-81.318
X-58.509 Y-81.39
X-58.475 Y-81.48
X-58.415 Y-81.594
X-58.324 Y-81.731
X-58.194 Y-81.889
X-58.022 Y-82.064
X-57.805 Y-82.252
X-57.542 Y-82.451
X-57.232 Y-82.657
X-56.873 Y-82.867
X-56.466 Y-83.079
X-56.01 Y-83.291
X-55.503 Y-83.501
X-54.945 Y-83.707
X-54.334 Y-83.907
X-53.669 Y-84.101
X-52.947 Y-84.286
X-52.166 Y-84.46
X-51.323 Y-84.623
X-50.416 Y-84.77
X-49.44 Y-84.899
X-48.394 Y-85.008
X-47.278 Y-85.091
X-46.099 Y-85.144
X-44.875 Y-85.162
X-43.637 Y-85.144
X-42.423 Y-85.088
X-41.264 Y-85
X-40.791 Y-84.949
G0 Z5
X-55.076 Y-56.923
G1 Z2.5 F333.3
S5000
G3 X-34.67 Y-61.077 Z1.358 I10.203 J-2.077
X-55.076 Y-56.923 Z0.215 I-10.203 J2.077
X-45.917 Y-69.36 Z-0.392 I10.203 J-2.077
X-34.46 Y-59 Z-1 I1.044 J10.36
S6000
X-55.285 Y-59 I-10.412 J0 F1000
X-34.46 Y-59 I10.412 J0
S5000
X-54.498 Y-55.028 Z-2 I-10.412 J0 F333.3
S6000
X-35.248 Y-62.972 I9.625 J-3.972 F1000
X-54.498 Y-55.028 I-9.625 J3.972
S5000
X-48.07 Y-68.909 Z-2.6 I9.625 J-3.972 F333.3
S6000
X-41.676 Y-49.091 I3.197 J9.909 F1000
X-48.07 Y-68.909 I-3.197 J-9.909
S5000
X-34.741 Y-61.402 Z-3.2 I3.197 J9.909 F333.3
S6000
X-55.005 Y-56.598 I-10.132 J2.402 F1000
X-34.741 Y-61.402 I10.132 J-2.402
G0 Z15

(2D-Kontur8)
X-72.012 Y-169.334
Z15
Z5
G1 Z2.5 F333.3
S5000
X-72.044 Y-168.914 Z2.485
X-72.12 Y-167.997 Z2.453
X-72.204 Y-167.092 Z2.421
X-72.296 Y-166.2 Z2.39
X-72.395 Y-165.324 Z2.359
X-72.503 Y-164.463 Z2.329
X-72.619 Y-163.62 Z2.299
X-72.745 Y-162.798 Z2.27
X-72.88 Y-161.997 Z2.242
X-73.024 Y-161.219 Z2.214
X-73.179 Y-160.465 Z2.187
X-73.344 Y-159.739 Z2.161
X-73.519 Y-159.042 Z2.136
X-73.705 Y-158.376 Z2.112
X-73.901 Y-157.742 Z2.089
X-74.108 Y-157.143 Z2.067
X-74.325 Y-156.582 Z2.046
X-74.551 Y-156.059 Z2.026
X-74.791 Y-155.567 Z2.007
X-74.907 Y-155.351 Z1.998
X-75.029 Y-155.138 Z1.99
X-75.153 Y-154.934 Z1.981
X-75.279 Y-154.742 Z1.973
X-75.405 Y-154.562 Z1.966
X-75.532 Y-154.392 Z1.958
X-75.659 Y-154.235 Z1.951
X-75.787 Y-154.09 Z1.944
X-75.916 Y-153.955 Z1.938
X-76.045 Y-153.83 Z1.932
X-76.173 Y-153.717 Z1.926
X-76.302 Y-153.615 Z1.92
X-76.432 Y-153.52 Z1.914
X-76.558 Y-153.439 Z1.909
X-76.687 Y-153.365 Z1.904
X-76.815 Y-153.3 Z1.899
X-76.946 Y-153.243 Z1.894
X-77.083 Y-153.192 Z1.889
X-77.217 Y-153.15 Z1.884
X-77.357 Y-153.116 Z1.879
X-77.503 Y-153.088 Z1.874
X-77.655 Y-153.068 Z1.868
X-77.811 Y-153.056 Z1.863
X-77.976 Y-153.053 Z1.857
X-78.15 Y-153.058 Z1.851
X-78.33 Y-153.072 Z1.845
X-78.52 Y-153.097 Z1.838
X-78.72 Y-153.132 Z1.831
X-78.933 Y-153.179 Z1.823
X-79.154 Y-153.237 Z1.815
X-79.379 Y-153.306 Z1.807
X-79.617 Y-153.39 Z1.798
X-79.867 Y-153.487 Z1.789
X-80.125 Y-153.597 Z1.779
X-80.39 Y-153.72 Z1.769
X-80.664 Y-153.858 Z1.758
X-80.95 Y-154.012 Z1.747
X-81.244 Y-154.179 Z1.735
X-81.544 Y-154.361 Z1.723
X-81.854 Y-154.557 Z1.71
X-82.171 Y-154.769 Z1.697
X-82.495 Y-154.995 Z1.683
X-82.83 Y-155.238 Z1.668
X-83.176 Y-155.499 Z1.653
G2 X-87.333 Y-153.442 Z1.452 I-1.569 J2.057
G1 Y-135.791 Z0.836
G2 X-86.328 Y-133.743 Z0.754 I2.587 J0
G1 X-85.528 Y-133.117 Z0.718
X-84.764 Y-132.496 Z0.684
X-84.031 Y-131.875 Z0.65
X-83.328 Y-131.253 Z0.617
X-82.654 Y-130.632 Z0.585
X-82.011 Y-130.01 Z0.554
X-81.396 Y-129.388 Z0.524
X-80.81 Y-128.767 Z0.494
X-80.253 Y-128.146 Z0.465
X-79.724 Y-127.527 Z0.436
X-79.222 Y-126.906 Z0.408
X-78.748 Y-126.287 Z0.381
X-78.301 Y-125.668 Z0.354
X-77.88 Y-125.05 Z0.328
X-77.485 Y-124.431 Z0.303
X-77.114 Y-123.813 Z0.278
X-76.77 Y-123.197 Z0.253
X-76.45 Y-122.581 Z0.229
X-76.153 Y-121.965 Z0.205
X-75.881 Y-121.35 Z0.181
X-75.632 Y-120.735 Z0.158
X-75.406 Y-120.122 Z0.135
X-75.202 Y-119.508 Z0.113
X-75.021 Y-118.895 Z0.09
X-74.862 Y-118.283 Z0.068
X-74.724 Y-117.669 Z0.046
X-74.608 Y-117.058 Z0.025
X-74.514 Y-116.446 Z0.003
X-74.44 Y-115.834 Z-0.019
X-74.388 Y-115.222 Z-0.04
X-74.357 Y-114.612 Z-0.061
X-74.346 Y-114 Z-0.083
X-74.357 Y-113.388 Z-0.104
X-74.388 Y-112.778 Z-0.125
X-74.44 Y-112.166 Z-0.147
X-74.514 Y-111.554 Z-0.168
X-74.608 Y-110.942 Z-0.19
X-74.724 Y-110.331 Z-0.212
X-74.862 Y-109.717 Z-0.234
X-75.021 Y-109.105 Z-0.256
X-75.202 Y-108.492 Z-0.278
X-75.406 Y-107.878 Z-0.301
X-75.632 Y-107.265 Z-0.324
X-75.881 Y-106.65 Z-0.347
X-76.153 Y-106.035 Z-0.37
X-76.45 Y-105.419 Z-0.394
X-76.77 Y-104.803 Z-0.418
X-77.114 Y-104.187 Z-0.443
X-77.485 Y-103.569 Z-0.468
X-77.88 Y-102.95 Z-0.494
X-78.301 Y-102.332 Z-0.52
X-78.748 Y-101.713 Z-0.547
X-79.222 Y-101.094 Z-0.574
X-79.724 Y-100.474 Z-0.602
X-80.253 Y-99.853 Z-0.63
X-80.81 Y-99.233 Z-0.659
X-81.396 Y-98.612 Z-0.689
X-82.01 Y-97.99 Z-0.72
X-82.654 Y-97.369 Z-0.751
X-83.328 Y-96.747 Z-0.783
X-84.031 Y-96.126 Z-0.816
X-84.764 Y-95.504 Z-0.849
X-85.528 Y-94.883 Z-0.883
X-86.328 Y-94.257 Z-0.919
G2 X-87.333 Y-92.251 Z-1 I1.582 J2.048
S6000
G1 Y-92.209 F1000
Y-74.558
G2 X-83.176 Y-72.501 I2.587 J0
G1 X-82.671 Y-72.881
X-82.187 Y-73.23
X-81.718 Y-73.553
X-81.265 Y-73.85
X-80.828 Y-74.121
X-80.406 Y-74.366
X-80.001 Y-74.586
X-79.613 Y-74.781
X-79.241 Y-74.952
X-78.886 Y-75.099
X-78.548 Y-75.224
X-78.227 Y-75.327
X-77.922 Y-75.409
X-77.635 Y-75.472
X-77.365 Y-75.516
X-77.11 Y-75.544
X-76.871 Y-75.556
X-76.646 Y-75.553
X-76.434 Y-75.536
X-76.234 Y-75.508
X-76.045 Y-75.468
X-75.863 Y-75.416
X-75.688 Y-75.353
X-75.518 Y-75.279
X-75.352 Y-75.193
X-75.189 Y-75.094
X-75.027 Y-74.982
X-74.866 Y-74.855
X-74.707 Y-74.714
X-74.549 Y-74.558
X-74.392 Y-74.387
X-74.236 Y-74.199
X-74.083 Y-73.995
X-73.931 Y-73.775
X-73.782 Y-73.54
X-73.636 Y-73.288
X-73.494 Y-73.02
X-73.354 Y-72.737
X-73.219 Y-72.439
X-73.087 Y-72.125
X-72.96 Y-71.797
X-72.838 Y-71.454
X-72.72 Y-71.097
X-72.606 Y-70.726
X-72.498 Y-70.341
X-72.394 Y-69.942
X-72.296 Y-69.529
X-72.202 Y-69.103
X-72.114 Y-68.663
X-72.032 Y-68.21
X-71.954 Y-67.744
X-71.882 Y-67.265
X-71.816 Y-66.773
X-71.755 Y-66.268
X-71.699 Y-65.75
X-71.65 Y-65.218
X-71.606 Y-64.674
X-71.567 Y-64.117
X-71.535 Y-63.547
X-71.508 Y-62.963
X-71.487 Y-62.367
X-71.472 Y-61.758
X-71.463 Y-61.135
X-71.46 Y-60.496
Y-9
G2 X-64.873 Y-2.412 I6.588 J0
G1 X-59.373
G2 X-55.785 Y-6 I0 J-3.588
G1 Y-34
G3 X-55.373 Y-34.412 I0.413 J0
G1 X-49.373
G2 X-45.785 Y-38 I0 J-3.588
G1 Y-40
G3 X-45.373 Y-40.412 I0.413 J0
G1 X-44.373
G3 X-43.96 Y-40 I0 J0.412
G1 Y-38
G2 X-40.373 Y-34.412 I3.588 J0
G1 X-34.373
G3 X-33.96 Y-34 I0 J0.412
G1 Y-6
G2 X-30.373 Y-2.412 I3.587 J0
G1 X-24.873
G2 X-18.285 Y-9 I0 J-6.588
G1 Y-60.496
X-18.282 Y-61.135
X-18.273 Y-61.758
X-18.259 Y-62.367
X-18.238 Y-62.963
X-18.211 Y-63.547
X-18.179 Y-64.117
X-18.14 Y-64.674
X-18.096 Y-65.218
X-18.047 Y-65.75
X-17.991 Y-66.268
X-17.93 Y-66.773
X-17.864 Y-67.265
X-17.792 Y-67.744
X-17.714 Y-68.21
X-17.631 Y-68.663
X-17.543 Y-69.103
X-17.45 Y-69.529
X-17.352 Y-69.942
X-17.248 Y-70.341
X-17.14 Y-70.726
X-17.026 Y-71.097
X-16.908 Y-71.454
X-16.785 Y-71.797
X-16.658 Y-72.126
X-16.527 Y-72.439
X-16.392 Y-72.737
X-16.252 Y-73.02
X-16.109 Y-73.288
X-15.963 Y-73.54
X-15.815 Y-73.775
X-15.663 Y-73.995
X-15.509 Y-74.199
X-15.354 Y-74.387
X-15.197 Y-74.558
X-15.039 Y-74.714
X-14.879 Y-74.855
X-14.719 Y-74.982
X-14.557 Y-75.094
X-14.394 Y-75.193
X-14.227 Y-75.279
X-14.058 Y-75.353
X-13.883 Y-75.416
X-13.701 Y-75.468
X-13.511 Y-75.508
X-13.312 Y-75.536
X-13.1 Y-75.553
X-12.875 Y-75.556
X-12.636 Y-75.544
X-12.381 Y-75.516
X-12.111 Y-75.472
X-11.824 Y-75.409
X-11.519 Y-75.327
X-11.198 Y-75.224
X-10.86 Y-75.099
X-10.505 Y-74.952
X-10.133 Y-74.781
X-9.744 Y-74.586
X-9.339 Y-74.366
X-8.918 Y-74.121
X-8.481 Y-73.85
X-8.028 Y-73.553
X-7.559 Y-73.23
X-7.075 Y-72.881
X-6.57 Y-72.501
G2 X-2.412 Y-74.558 I1.57 J-2.057
G1 Y-92.209
G2 X-3.418 Y-94.257 I-2.587 J0
G1 X-4.218 Y-94.883
X-4.982 Y-95.504
X-5.715 Y-96.126
X-6.418 Y-96.747
X-7.092 Y-97.369
X-7.735 Y-97.99
X-8.35 Y-98.612
X-8.936 Y-99.233
X-9.493 Y-99.853
X-10.022 Y-100.474
X-10.524 Y-101.094
X-10.998 Y-101.713
X-11.445 Y-102.332
X-11.866 Y-102.95
X-12.261 Y-103.568
X-12.631 Y-104.186
X-12.976 Y-104.803
X-13.296 Y-105.419
X-13.593 Y-106.035
X-13.865 Y-106.65
X-14.114 Y-107.265
X-14.34 Y-107.878
X-14.544 Y-108.492
X-14.725 Y-109.105
X-14.884 Y-109.717
X-15.021 Y-110.331
X-15.137 Y-110.942
X-15.232 Y-111.554
X-15.305 Y-112.166
X-15.358 Y-112.777
X-15.389 Y-113.388
X-15.4 Y-114
X-15.389 Y-114.612
X-15.358 Y-115.223
X-15.305 Y-115.834
X-15.232 Y-116.446
X-15.137 Y-117.058
X-15.021 Y-117.669
X-14.884 Y-118.283
X-14.725 Y-118.895
X-14.544 Y-119.508
X-14.34 Y-120.122
X-14.114 Y-120.735
X-13.865 Y-121.35
X-13.593 Y-121.965
X-13.296 Y-122.581
X-12.976 Y-123.197
X-12.631 Y-123.814
X-12.261 Y-124.432
X-11.866 Y-125.05
X-11.445 Y-125.668
X-10.998 Y-126.287
X-10.524 Y-126.906
X-10.022 Y-127.527
X-9.493 Y-128.146
X-8.936 Y-128.767
X-8.35 Y-129.388
X-7.735 Y-130.01
X-7.091 Y-130.632
X-6.418 Y-131.253
X-5.715 Y-131.875
X-4.982 Y-132.496
X-4.218 Y-133.117
X-3.418 Y-133.743
G2 X-2.412 Y-135.791 I-1.582 J-2.048
G1 Y-153.442
G2 X-6.569 Y-155.499 I-2.587 J0
G1 X-6.916 Y-155.238
X-7.251 Y-154.995
X-7.575 Y-154.769
X-7.892 Y-154.557
X-8.201 Y-154.361
X-8.502 Y-154.179
X-8.796 Y-154.012
X-9.081 Y-153.858
X-9.356 Y-153.72
X-9.621 Y-153.597
X-9.878 Y-153.487
X-10.129 Y-153.39
X-10.367 Y-153.306
X-10.592 Y-153.237
X-10.813 Y-153.179
X-11.026 Y-153.132
X-11.226 Y-153.097
X-11.416 Y-153.072
X-11.596 Y-153.058
X-11.77 Y-153.053
X-11.935 Y-153.056
X-12.091 Y-153.068
X-12.243 Y-153.088
X-12.389 Y-153.116
X-12.528 Y-153.15
X-12.663 Y-153.192
X-12.8 Y-153.243
X-12.931 Y-153.3
X-13.059 Y-153.365
X-13.188 Y-153.439
X-13.314 Y-153.52
X-13.444 Y-153.614
X-13.572 Y-153.717
X-13.701 Y-153.83
X-13.83 Y-153.955
X-13.959 Y-154.09
X-14.087 Y-154.236
X-14.214 Y-154.392
X-14.341 Y-154.561
X-14.467 Y-154.742
X-14.593 Y-154.934
X-14.717 Y-155.138
X-14.839 Y-155.351
X-14.955 Y-155.567
X-15.194 Y-156.059
X-15.421 Y-156.582
X-15.638 Y-157.143
X-15.845 Y-157.742
X-16.041 Y-158.376
X-16.227 Y-159.042
X-16.402 Y-159.739
X-16.567 Y-160.465
X-16.722 Y-161.219
X-16.866 Y-161.997
X-17.001 Y-162.797
X-17.127 Y-163.62
X-17.243 Y-164.463
X-17.351 Y-165.324
X-17.45 Y-166.2
X-17.542 Y-167.092
X-17.625 Y-167.997
X-17.702 Y-168.914
X-17.772 Y-169.841
X-17.835 Y-170.774
X-17.945 Y-172.668
X-18.033 Y-174.578
X-18.103 Y-176.494
X-18.158 Y-178.407
X-18.199 Y-180.308
X-18.229 Y-182.188
X-18.251 Y-184.04
X-18.259 Y-184.951
X-18.265 Y-185.852
X-18.271 Y-186.743
X-18.275 Y-187.623
X-18.278 Y-188.49
X-18.28 Y-189.343
X-18.282 Y-190.183
X-18.283 Y-191.008
X-18.284 Y-191.047
X-18.29 Y-191.293
X-18.294 Y-191.371
X-18.312 Y-191.616
X-18.32 Y-191.693
X-18.351 Y-191.937
X-18.362 Y-192.015
X-18.405 Y-192.257
X-18.42 Y-192.334
X-18.474 Y-192.573
X-18.493 Y-192.647
X-18.559 Y-192.884
X-18.582 Y-192.959
X-18.659 Y-193.192
X-18.686 Y-193.266
X-18.774 Y-193.495
X-18.805 Y-193.568
X-18.905 Y-193.792
X-18.937 Y-193.861
X-19.048 Y-194.08
X-19.085 Y-194.149
X-19.206 Y-194.362
X-19.245 Y-194.427
X-19.376 Y-194.634
X-19.423 Y-194.703
X-19.564 Y-194.902
X-19.608 Y-194.96
X-19.758 Y-195.153
X-19.807 Y-195.212
X-19.967 Y-195.398
X-20.023 Y-195.46
X-20.193 Y-195.637
X-20.243 Y-195.687
X-20.421 Y-195.857
X-20.485 Y-195.915
X-20.671 Y-196.074
X-20.725 Y-196.119
X-20.919 Y-196.27
X-20.982 Y-196.317
X-21.182 Y-196.458
X-21.252 Y-196.504
X-21.458 Y-196.634
X-21.519 Y-196.67
X-21.732 Y-196.791
X-21.804 Y-196.83
X-22.023 Y-196.94
X-22.095 Y-196.974
X-22.32 Y-197.073
X-22.385 Y-197.1
X-22.614 Y-197.189
X-22.696 Y-197.218
X-22.929 Y-197.294
X-22.994 Y-197.314
X-23.23 Y-197.38
X-23.314 Y-197.401
X-23.553 Y-197.454
X-23.624 Y-197.468
X-23.865 Y-197.51
X-23.943 Y-197.522
X-24.186 Y-197.552
X-24.264 Y-197.559
X-24.509 Y-197.577
X-24.587 Y-197.581
X-24.832 Y-197.587
X-24.871
X-30.873
G2 X-34.46 Y-194 I0 J3.587
G1 Y-183.054
X-34.469 Y-182.93
X-34.485 Y-182.851
X-34.518 Y-182.756
X-34.575 Y-182.639
X-34.662 Y-182.502
X-34.785 Y-182.345
X-34.948 Y-182.172
X-35.155 Y-181.985
X-35.406 Y-181.791
X-35.706 Y-181.589
X-36.052 Y-181.383
X-36.446 Y-181.179
X-36.891 Y-180.976
X-37.385 Y-180.777
X-37.931 Y-180.585
X-38.53 Y-180.401
X-39.183 Y-180.229
X-39.892 Y-180.069
X-40.658 Y-179.927
X-41.483 Y-179.804
X-42.365 Y-179.705
X-43.299 Y-179.633
X-44.276 Y-179.594
X-45.277 Y-179.591
X-46.275 Y-179.624
X-47.246 Y-179.692
X-48.168 Y-179.792
X-49.031 Y-179.918
X-49.83 Y-180.065
X-50.566 Y-180.23
X-51.24 Y-180.407
X-51.852 Y-180.597
X-52.409 Y-180.795
X-52.91 Y-181
X-53.358 Y-181.208
X-53.751 Y-181.416
X-54.095 Y-181.624
X-54.39 Y-181.828
X-54.636 Y-182.024
X-54.836 Y-182.21
X-54.991 Y-182.381
X-55.106 Y-182.535
X-55.187 Y-182.669
X-55.237 Y-182.78
X-55.266 Y-182.871
X-55.281 Y-182.961
X-55.285 Y-183.041
Y-194
G2 X-58.873 Y-197.587 I-3.587 J0
G1 X-64.875
X-64.914
X-65.159 Y-197.581
X-65.237 Y-197.577
X-65.482 Y-197.559
X-65.56 Y-197.552
X-65.803 Y-197.522
X-65.881 Y-197.51
X-66.123 Y-197.468
X-66.2 Y-197.453
X-66.44 Y-197.399
X-66.517 Y-197.379
X-66.754 Y-197.313
X-66.826 Y-197.291
X-67.059 Y-197.214
X-67.13 Y-197.189
X-67.359 Y-197.101
X-67.436 Y-197.069
X-67.661 Y-196.969
X-67.727 Y-196.938
X-67.946 Y-196.828
X-68.018 Y-196.789
X-68.231 Y-196.668
X-68.296 Y-196.629
X-68.503 Y-196.498
X-68.568 Y-196.454
X-68.768 Y-196.313
X-68.827 Y-196.27
X-69.02 Y-196.12
X-69.087 Y-196.065
X-69.272 Y-195.904
X-69.326 Y-195.856
X-69.504 Y-195.687
X-69.56 Y-195.63
X-69.729 Y-195.452
X-69.779 Y-195.397
X-69.94 Y-195.212
X-69.991 Y-195.15
X-70.141 Y-194.957
X-70.188 Y-194.895
X-70.329 Y-194.695
X-70.373 Y-194.629
X-70.504 Y-194.422
X-70.543 Y-194.356
X-70.664 Y-194.143
X-70.701 Y-194.075
X-70.811 Y-193.856
X-70.844 Y-193.787
X-70.943 Y-193.563
X-70.974 Y-193.489
X-71.062 Y-193.26
X-71.089 Y-193.187
X-71.166 Y-192.954
X-71.188 Y-192.88
X-71.254 Y-192.644
X-71.273 Y-192.568
X-71.327 Y-192.329
X-71.342 Y-192.253
X-71.384 Y-192.012
X-71.395 Y-191.935
X-71.426 Y-191.692
X-71.433 Y-191.615
X-71.452 Y-191.371
X-71.456 Y-191.293
X-71.462 Y-191.047
X-71.463 Y-191.008
X-71.464 Y-190.183
X-71.466 Y-189.343
X-71.468 Y-188.49
X-71.471 Y-187.623
X-71.475 Y-186.743
X-71.481 Y-185.853
X-71.487 Y-184.951
X-71.495 Y-184.04
X-71.517 Y-182.188
X-71.547 Y-180.308
X-71.588 Y-178.407
X-71.643 Y-176.494
X-71.713 Y-174.578
X-71.801 Y-172.669
X-71.91 Y-170.774
X-71.974 Y-169.84
X-72.044 Y-168.914
X-72.12 Y-167.997
X-72.204 Y-167.092
X-72.296 Y-166.2
X-72.395 Y-165.324
X-72.503 Y-164.463
X-72.619 Y-163.62
X-72.745 Y-162.798
X-72.88 Y-161.997
X-73.024 Y-161.219
X-73.179 Y-160.465
X-73.344 Y-159.739
X-73.519 Y-159.042
X-73.705 Y-158.376
X-73.901 Y-157.742
X-74.108 Y-157.143
X-74.325 Y-156.582
X-74.551 Y-156.059
X-74.791 Y-155.567
X-74.907 Y-155.351
X-75.029 Y-155.138
X-75.153 Y-154.934
X-75.279 Y-154.742
X-75.405 Y-154.562
X-75.532 Y-154.392
X-75.659 Y-154.235
X-75.787 Y-154.09
X-75.916 Y-153.955
X-76.045 Y-153.83
X-76.173 Y-153.717
X-76.302 Y-153.615
X-76.432 Y-153.52
X-76.558 Y-153.439
X-76.687 Y-153.365
X-76.815 Y-153.3
X-76.946 Y-153.243
X-77.083 Y-153.192
X-77.217 Y-153.15
X-77.357 Y-153.116
X-77.503 Y-153.088
X-77.655 Y-153.068
X-77.811 Y-153.056
X-77.976 Y-153.053
X-78.15 Y-153.058
X-78.33 Y-153.072
X-78.52 Y-153.097
X-78.72 Y-153.132
X-78.933 Y-153.179
X-79.154 Y-153.237
X-79.379 Y-153.306
X-79.617 Y-153.39
X-79.867 Y-153.487
X-80.125 Y-153.597
X-80.39 Y-153.72
X-80.664 Y-153.858
X-80.95 Y-154.012
X-81.244 Y-154.179
X-81.544 Y-154.361
X-81.854 Y-154.557
X-82.171 Y-154.769
X-82.495 Y-154.995
X-82.83 Y-155.238
X-83.176 Y-155.499
G2 X-87.333 Y-153.442 I-1.569 J2.057
G1 Y-135.791
G2 X-86.328 Y-133.743 I2.587 J0
G1 X-85.528 Y-133.117
X-84.764 Y-132.496
X-84.031 Y-131.875
X-83.328 Y-131.253
X-82.654 Y-130.632
X-82.011 Y-130.01
X-81.396 Y-129.388
X-80.81 Y-128.767
X-80.253 Y-128.146
X-79.724 Y-127.527
X-79.222 Y-126.906
X-78.748 Y-126.287
X-78.301 Y-125.668
X-77.88 Y-125.05
X-77.485 Y-124.431
X-77.114 Y-123.813
X-76.77 Y-123.197
X-76.45 Y-122.581
X-76.153 Y-121.965
X-75.881 Y-121.35
X-75.632 Y-120.735
X-75.406 Y-120.122
X-75.202 Y-119.508
X-75.021 Y-118.895
X-74.862 Y-118.283
X-74.724 Y-117.669
X-74.608 Y-117.058
X-74.514 Y-116.446
X-74.44 Y-115.834
X-74.388 Y-115.222
X-74.357 Y-114.612
X-74.346 Y-114
X-74.357 Y-113.388
X-74.388 Y-112.778
X-74.44 Y-112.166
X-74.514 Y-111.554
X-74.608 Y-110.942
X-74.724 Y-110.331
X-74.862 Y-109.717
X-75.021 Y-109.105
X-75.202 Y-108.492
X-75.406 Y-107.878
X-75.632 Y-107.265
X-75.881 Y-106.65
X-76.153 Y-106.035
X-76.45 Y-105.419
X-76.77 Y-104.803
X-77.114 Y-104.187
X-77.485 Y-103.569
X-77.88 Y-102.95
X-78.301 Y-102.332
X-78.748 Y-101.713
X-79.222 Y-101.094
X-79.724 Y-100.474
X-80.253 Y-99.853
X-80.81 Y-99.233
X-81.396 Y-98.612
X-82.01 Y-97.99
X-82.654 Y-97.369
X-83.328 Y-96.747
X-84.031 Y-96.126
X-84.764 Y-95.504
X-85.528 Y-94.883
X-86.328 Y-94.257
G2 X-87.333 Y-92.251 I1.582 J2.048
S5000
G1 Y-92.209 Z-1.001 F333.3
Y-74.558 Z-1.428
G2 X-83.176 Y-72.501 Z-1.567 I2.587 J0
G1 X-82.671 Y-72.881 Z-1.583
X-82.187 Y-73.23 Z-1.597
X-81.718 Y-73.553 Z-1.611
X-81.265 Y-73.85 Z-1.624
X-80.828 Y-74.121 Z-1.636
X-80.406 Y-74.366 Z-1.648
X-80.001 Y-74.586 Z-1.659
X-79.613 Y-74.781 Z-1.67
X-79.241 Y-74.952 Z-1.68
X-78.886 Y-75.099 Z-1.689
X-78.548 Y-75.224 Z-1.698
X-78.227 Y-75.327 Z-1.706
X-77.922 Y-75.409 Z-1.714
X-77.635 Y-75.472 Z-1.721
X-77.365 Y-75.516 Z-1.727
X-77.11 Y-75.544 Z-1.734
X-76.871 Y-75.556 Z-1.739
X-76.646 Y-75.553 Z-1.745
X-76.434 Y-75.536 Z-1.75
X-76.234 Y-75.508 Z-1.755
X-76.045 Y-75.468 Z-1.76
X-75.863 Y-75.416 Z-1.764
X-75.688 Y-75.353 Z-1.769
X-75.518 Y-75.279 Z-1.773
X-75.352 Y-75.193 Z-1.778
X-75.189 Y-75.094 Z-1.782
X-75.027 Y-74.982 Z-1.787
X-74.866 Y-74.855 Z-1.792
X-74.707 Y-74.714 Z-1.797
X-74.549 Y-74.558 Z-1.803
X-74.392 Y-74.387 Z-1.808
X-74.236 Y-74.199 Z-1.814
X-74.083 Y-73.995 Z-1.82
X-73.931 Y-73.775 Z-1.827
X-73.782 Y-73.54 Z-1.833
X-73.636 Y-73.288 Z-1.84
X-73.494 Y-73.02 Z-1.848
X-73.354 Y-72.737 Z-1.855
X-73.219 Y-72.439 Z-1.863
X-73.087 Y-72.125 Z-1.872
X-72.96 Y-71.797 Z-1.88
X-72.838 Y-71.454 Z-1.889
X-72.72 Y-71.097 Z-1.898
X-72.606 Y-70.726 Z-1.907
X-72.498 Y-70.341 Z-1.917
X-72.394 Y-69.942 Z-1.927
X-72.296 Y-69.529 Z-1.937
X-72.202 Y-69.103 Z-1.948
X-72.114 Y-68.663 Z-1.959
X-72.032 Y-68.21 Z-1.97
X-71.954 Y-67.744 Z-1.981
X-71.882 Y-67.265 Z-1.993
X-71.844 Y-66.982 Z-2
S6000
X-71.816 Y-66.773 F1000
X-71.755 Y-66.268
X-71.699 Y-65.75
X-71.65 Y-65.218
X-71.606 Y-64.674
X-71.567 Y-64.117
X-71.535 Y-63.547
X-71.508 Y-62.963
X-71.487 Y-62.367
X-71.472 Y-61.758
X-71.463 Y-61.135
X-71.46 Y-60.496
Y-9
G2 X-64.873 Y-2.412 I6.588 J0
G1 X-59.373
G2 X-55.785 Y-6 I0 J-3.588
G1 Y-34
G3 X-55.373 Y-34.412 I0.413 J0
G1 X-49.373
G2 X-45.785 Y-38 I0 J-3.588
G1 Y-40
G3 X-45.373 Y-40.412 I0.413 J0
G1 X-44.373
G3 X-43.96 Y-40 I0 J0.412
G1 Y-38
G2 X-40.373 Y-34.412 I3.588 J0
G1 X-34.373
G3 X-33.96 Y-34 I0 J0.412
G1 Y-6
G2 X-30.373 Y-2.412 I3.587 J0
G1 X-24.873
G2 X-18.285 Y-9 I0 J-6.588
G1 Y-60.496
X-18.282 Y-61.135
X-18.273 Y-61.758
X-18.259 Y-62.367
X-18.238 Y-62.963
X-18.211 Y-63.547
X-18.179 Y-64.117
X-18.14 Y-64.674
X-18.096 Y-65.218
X-18.047 Y-65.75
X-17.991 Y-66.268
X-17.93 Y-66.773
X-17.864 Y-67.265
X-17.792 Y-67.744
X-17.714 Y-68.21
X-17.631 Y-68.663
X-17.543 Y-69.103
X-17.45 Y-69.529
X-17.352 Y-69.942
X-17.248 Y-70.341
X-17.14 Y-70.726
X-17.026 Y-71.097
X-16.908 Y-71.454
X-16.785 Y-71.797
X-16.658 Y-72.126
X-16.527 Y-72.439
X-16.392 Y-72.737
X-16.252 Y-73.02
X-16.109 Y-73.288
X-15.963 Y-73.54
X-15.815 Y-73.775
X-15.663 Y-73.995
X-15.509 Y-74.199
X-15.354 Y-74.387
X-15.197 Y-74.558
X-15.039 Y-74.714
X-14.879 Y-74.855
X-14.719 Y-74.982
X-14.557 Y-75.094
X-14.394 Y-75.193
X-14.227 Y-75.279
X-14.058 Y-75.353
X-13.883 Y-75.416
X-13.701 Y-75.468
X-13.511 Y-75.508
X-13.312 Y-75.536
X-13.1 Y-75.553
X-12.875 Y-75.556
X-12.636 Y-75.544
X-12.381 Y-75.516
X-12.111 Y-75.472
X-11.824 Y-75.409
X-11.519 Y-75.327
X-11.198 Y-75.224
X-10.86 Y-75.099
X-10.505 Y-74.952
X-10.133 Y-74.781
X-9.744 Y-74.586
X-9.339 Y-74.366
X-8.918 Y-74.121
X-8.481 Y-73.85
X-8.028 Y-73.553
X-7.559 Y-73.23
X-7.075 Y-72.881
X-6.57 Y-72.501
G2 X-2.412 Y-74.558 I1.57 J-2.057
G1 Y-92.209
G2 X-3.418 Y-94.257 I-2.587 J0
G1 X-4.218 Y-94.883
X-4.982 Y-95.504
X-5.715 Y-96.126
X-6.418 Y-96.747
X-7.092 Y-97.369
X-7.735 Y-97.99
X-8.35 Y-98.612
X-8.936 Y-99.233
X-9.493 Y-99.853
X-10.022 Y-100.474
X-10.524 Y-101.094
X-10.998 Y-101.713
X-11.445 Y-102.332
X-11.866 Y-102.95
X-12.261 Y-103.568
X-12.631 Y-104.186
X-12.976 Y-104.803
X-13.296 Y-105.419
X-13.593 Y-106.035
X-13.865 Y-106.65
X-14.114 Y-107.265
X-14.34 Y-107.878
X-14.544 Y-108.492
X-14.725 Y-109.105
X-14.884 Y-109.717
X-15.021 Y-110.331
X-15.137 Y-110.942
X-15.232 Y-111.554
X-15.305 Y-112.166
X-15.358 Y-112.777
X-15.389 Y-113.388
X-15.4 Y-114
X-15.389 Y-114.612
X-15.358 Y-115.223
X-15.305 Y-115.834
X-15.232 Y-116.446
X-15.137 Y-117.058
X-15.021 Y-117.669
X-14.884 Y-118.283
X-14.725 Y-118.895
X-14.544 Y-119.508
X-14.34 Y-120.122
X-14.114 Y-120.735
X-13.865 Y-121.35
X-13.593 Y-121.965
X-13.296 Y-122.581
X-12.976 Y-123.197
X-12.631 Y-123.814
X-12.261 Y-124.432
X-11.866 Y-125.05
X-11.445 Y-125.668
X-10.998 Y-126.287
X-10.524 Y-126.906
X-10.022 Y-127.527
X-9.493 Y-128.146
X-8.936 Y-128.767
X-8.35 Y-129.388
X-7.735 Y-130.01
X-7.091 Y-130.632
X-6.418 Y-131.253
X-5.715 Y-131.875
X-4.982 Y-132.496
X-4.218 Y-133.117
X-3.418 Y-133.743
G2 X-2.412 Y-135.791 I-1.582 J-2.048
G1 Y-153.442
G2 X-6.569 Y-155.499 I-2.587 J0
G1 X-6.916 Y-155.238
X-7.251 Y-154.995
X-7.575 Y-154.769
X-7.892 Y-154.557
X-8.201 Y-154.361
X-8.502 Y-154.179
X-8.796 Y-154.012
X-9.081 Y-153.858
X-9.356 Y-153.72
X-9.621 Y-153.597
X-9.878 Y-153.487
X-10.129 Y-153.39
X-10.367 Y-153.306
X-10.592 Y-153.237
X-10.813 Y-153.179
X-11.026 Y-153.132
X-11.226 Y-153.097
X-11.416 Y-153.072
X-11.596 Y-153.058
X-11.77 Y-153.053
X-11.935 Y-153.056
X-12.091 Y-153.068
X-12.243 Y-153.088
X-12.389 Y-153.116
X-12.528 Y-153.15
X-12.663 Y-153.192
X-12.8 Y-153.243
X-12.931 Y-153.3
X-13.059 Y-153.365
X-13.188 Y-153.439
X-13.314 Y-153.52
X-13.444 Y-153.614
X-13.572 Y-153.717
X-13.701 Y-153.83
X-13.83 Y-153.955
X-13.959 Y-154.09
X-14.087 Y-154.236
X-14.214 Y-154.392
X-14.341 Y-154.561
X-14.467 Y-154.742
X-14.593 Y-154.934
X-14.717 Y-155.138
X-14.839 Y-155.351
X-14.955 Y-155.567
X-15.194 Y-156.059
X-15.421 Y-156.582
X-15.638 Y-157.143
X-15.845 Y-157.742
X-16.041 Y-158.376
X-16.227 Y-159.042
X-16.402 Y-159.739
X-16.567 Y-160.465
X-16.722 Y-161.219
X-16.866 Y-161.997
X-17.001 Y-162.797
X-17.127 Y-163.62
X-17.243 Y-164.463
X-17.351 Y-165.324
X-17.45 Y-166.2
X-17.542 Y-167.092
X-17.625 Y-167.997
X-17.702 Y-168.914
X-17.772 Y-169.841
X-17.835 Y-170.774
X-17.945 Y-172.668
X-18.033 Y-174.578
X-18.103 Y-176.494
X-18.158 Y-178.407
X-18.199 Y-180.308
X-18.229 Y-182.188
X-18.251 Y-184.04
X-18.259 Y-184.951
X-18.265 Y-185.852
X-18.271 Y-186.743
X-18.275 Y-187.623
X-18.278 Y-188.49
X-18.28 Y-189.343
X-18.282 Y-190.183
X-18.283 Y-191.008
X-18.284 Y-191.047
X-18.29 Y-191.293
X-18.294 Y-191.371
X-18.312 Y-191.616
X-18.32 Y-191.693
X-18.351 Y-191.937
X-18.362 Y-192.015
X-18.405 Y-192.257
X-18.42 Y-192.334
X-18.474 Y-192.573
X-18.493 Y-192.647
X-18.559 Y-192.884
X-18.582 Y-192.959
X-18.659 Y-193.192
X-18.686 Y-193.266
X-18.774 Y-193.495
X-18.805 Y-193.568
X-18.905 Y-193.792
X-18.937 Y-193.861
X-19.048 Y-194.08
X-19.085 Y-194.149
X-19.206 Y-194.362
X-19.245 Y-194.427
X-19.376 Y-194.634
X-19.423 Y-194.703
X-19.564 Y-194.902
X-19.608 Y-194.96
X-19.758 Y-195.153
X-19.807 Y-195.212
X-19.967 Y-195.398
X-20.023 Y-195.46
X-20.193 Y-195.637
X-20.243 Y-195.687
X-20.421 Y-195.857
X-20.485 Y-195.915
X-20.671 Y-196.074
X-20.725 Y-196.119
X-20.919 Y-196.27
X-20.982 Y-196.317
X-21.182 Y-196.458
X-21.252 Y-196.504
X-21.458 Y-196.634
X-21.519 Y-196.67
X-21.732 Y-196.791
X-21.804 Y-196.83
X-22.023 Y-196.94
X-22.095 Y-196.974
X-22.32 Y-197.073
X-22.385 Y-197.1
X-22.614 Y-197.189
X-22.696 Y-197.218
X-22.929 Y-197.294
X-22.994 Y-197.314
X-23.23 Y-197.38
X-23.314 Y-197.401
X-23.553 Y-197.454
X-23.624 Y-197.468
X-23.865 Y-197.51
X-23.943 Y-197.522
X-24.186 Y-197.552
X-24.264 Y-197.559
X-24.509 Y-197.577
X-24.587 Y-197.581
X-24.832 Y-197.587
X-24.871
X-30.873
G2 X-34.46 Y-194 I0 J3.587
G1 Y-183.054
X-34.469 Y-182.93
X-34.485 Y-182.851
X-34.518 Y-182.756
X-34.575 Y-182.639
X-34.662 Y-182.502
X-34.785 Y-182.345
X-34.948 Y-182.172
X-35.155 Y-181.985
X-35.406 Y-181.791
X-35.706 Y-181.589
X-36.052 Y-181.383
X-36.446 Y-181.179
X-36.891 Y-180.976
X-37.385 Y-180.777
X-37.931 Y-180.585
X-38.53 Y-180.401
X-39.183 Y-180.229
X-39.892 Y-180.069
X-40.658 Y-179.927
X-41.483 Y-179.804
X-42.365 Y-179.705
X-43.299 Y-179.633
X-44.276 Y-179.594
X-45.277 Y-179.591
X-46.275 Y-179.624
X-47.246 Y-179.692
X-48.168 Y-179.792
X-49.031 Y-179.918
X-49.83 Y-180.065
X-50.566 Y-180.23
X-51.24 Y-180.407
X-51.852 Y-180.597
X-52.409 Y-180.795
X-52.91 Y-181
X-53.358 Y-181.208
X-53.751 Y-181.416
X-54.095 Y-181.624
X-54.39 Y-181.828
X-54.636 Y-182.024
X-54.836 Y-182.21
X-54.991 Y-182.381
X-55.106 Y-182.535
X-55.187 Y-182.669
X-55.237 Y-182.78
X-55.266 Y-182.871
X-55.281 Y-182.961
X-55.285 Y-183.041
Y-194
G2 X-58.873 Y-197.587 I-3.587 J0
G1 X-64.875
X-64.914
X-65.159 Y-197.581
X-65.237 Y-197.577
X-65.482 Y-197.559
X-65.56 Y-197.552
X-65.803 Y-197.522
X-65.881 Y-197.51
X-66.123 Y-197.468
X-66.2 Y-197.453
X-66.44 Y-197.399
X-66.517 Y-197.379
X-66.754 Y-197.313
X-66.826 Y-197.291
X-67.059 Y-197.214
X-67.13 Y-197.189
X-67.359 Y-197.101
X-67.436 Y-197.069
X-67.661 Y-196.969
X-67.727 Y-196.938
X-67.946 Y-196.828
X-68.018 Y-196.789
X-68.231 Y-196.668
X-68.296 Y-196.629
X-68.503 Y-196.498
X-68.568 Y-196.454
X-68.768 Y-196.313
X-68.827 Y-196.27
X-69.02 Y-196.12
X-69.087 Y-196.065
X-69.272 Y-195.904
X-69.326 Y-195.856
X-69.504 Y-195.687
X-69.56 Y-195.63
X-69.729 Y-195.452
X-69.779 Y-195.397
X-69.94 Y-195.212
X-69.991 Y-195.15
X-70.141 Y-194.957
X-70.188 Y-194.895
X-70.329 Y-194.695
X-70.373 Y-194.629
X-70.504 Y-194.422
X-70.543 Y-194.356
X-70.664 Y-194.143
X-70.701 Y-194.075
X-70.811 Y-193.856
X-70.844 Y-193.787
X-70.943 Y-193.563
X-70.974 Y-193.489
X-71.062 Y-193.26
X-71.089 Y-193.187
X-71.166 Y-192.954
X-71.188 Y-192.88
X-71.254 Y-192.644
X-71.273 Y-192.568
X-71.327 Y-192.329
X-71.342 Y-192.253
X-71.384 Y-192.012
X-71.395 Y-191.935
X-71.426 Y-191.692
X-71.433 Y-191.615
X-71.452 Y-191.371
X-71.456 Y-191.293
X-71.462 Y-191.047
X-71.463 Y-191.008
X-71.464 Y-190.183
X-71.466 Y-189.343
X-71.468 Y-188.49
X-71.471 Y-187.623
X-71.475 Y-186.743
X-71.481 Y-185.853
X-71.487 Y-184.951
X-71.495 Y-184.04
X-71.517 Y-182.188
X-71.547 Y-180.308
X-71.588 Y-178.407
X-71.643 Y-176.494
X-71.713 Y-174.578
X-71.801 Y-172.669
X-71.91 Y-170.774
X-71.974 Y-169.84
X-72.044 Y-168.914
X-72.12 Y-167.997
X-72.204 Y-167.092
X-72.296 Y-166.2
X-72.395 Y-165.324
X-72.503 Y-164.463
X-72.619 Y-163.62
X-72.745 Y-162.798
X-72.88 Y-161.997
X-73.024 Y-161.219
X-73.179 Y-160.465
X-73.344 Y-159.739
X-73.519 Y-159.042
X-73.705 Y-158.376
X-73.901 Y-157.742
X-74.108 Y-157.143
X-74.325 Y-156.582
X-74.551 Y-156.059
X-74.791 Y-155.567
X-74.907 Y-155.351
X-75.029 Y-155.138
X-75.153 Y-154.934
X-75.279 Y-154.742
X-75.405 Y-154.562
X-75.532 Y-154.392
X-75.659 Y-154.235
X-75.787 Y-154.09
X-75.916 Y-153.955
X-76.045 Y-153.83
X-76.173 Y-153.717
X-76.302 Y-153.615
X-76.432 Y-153.52
X-76.558 Y-153.439
X-76.687 Y-153.365
X-76.815 Y-153.3
X-76.946 Y-153.243
X-77.083 Y-153.192
X-77.217 Y-153.15
X-77.357 Y-153.116
X-77.503 Y-153.088
X-77.655 Y-153.068
X-77.811 Y-153.056
X-77.976 Y-153.053
X-78.15 Y-153.058
X-78.33 Y-153.072
X-78.52 Y-153.097
X-78.72 Y-153.132
X-78.933 Y-153.179
X-79.154 Y-153.237
X-79.379 Y-153.306
X-79.617 Y-153.39
X-79.867 Y-153.487
X-80.125 Y-153.597
X-80.39 Y-153.72
X-80.664 Y-153.858
X-80.95 Y-154.012
X-81.244 Y-154.179
X-81.544 Y-154.361
X-81.854 Y-154.557
X-82.171 Y-154.769
X-82.495 Y-154.995
X-82.83 Y-155.238
X-83.176 Y-155.499
G2 X-87.333 Y-153.442 I-1.569 J2.057
G1 Y-135.791
G2 X-86.328 Y-133.743 I2.587 J0
G1 X-85.528 Y-133.117
X-84.764 Y-132.496
X-84.031 Y-131.875
X-83.328 Y-131.253
X-82.654 Y-130.632
X-82.011 Y-130.01
X-81.396 Y-129.388
X-80.81 Y-128.767
X-80.253 Y-128.146
X-79.724 Y-127.527
X-79.222 Y-126.906
X-78.748 Y-126.287
X-78.301 Y-125.668
X-77.88 Y-125.05
X-77.485 Y-124.431
X-77.114 Y-123.813
X-76.77 Y-123.197
X-76.45 Y-122.581
X-76.153 Y-121.965
X-75.881 Y-121.35
X-75.632 Y-120.735
X-75.406 Y-120.122
X-75.202 Y-119.508
X-75.021 Y-118.895
X-74.862 Y-118.283
X-74.724 Y-117.669
X-74.608 Y-117.058
X-74.514 Y-116.446
X-74.44 Y-115.834
X-74.388 Y-115.222
X-74.357 Y-114.612
X-74.346 Y-114
X-74.357 Y-113.388
X-74.388 Y-112.778
X-74.44 Y-112.166
X-74.514 Y-111.554
X-74.608 Y-110.942
X-74.724 Y-110.331
X-74.862 Y-109.717
X-75.021 Y-109.105
X-75.202 Y-108.492
X-75.406 Y-107.878
X-75.632 Y-107.265
X-75.881 Y-106.65
X-76.153 Y-106.035
X-76.45 Y-105.419
X-76.77 Y-104.803
X-77.114 Y-104.187
X-77.485 Y-103.569
X-77.88 Y-102.95
X-78.301 Y-102.332
X-78.748 Y-101.713
X-79.222 Y-101.094
X-79.724 Y-100.474
X-80.253 Y-99.853
X-80.81 Y-99.233
X-81.396 Y-98.612
X-82.01 Y-97.99
X-82.654 Y-97.369
X-83.328 Y-96.747
X-84.031 Y-96.126
X-84.764 Y-95.504
X-85.528 Y-94.883
X-86.328 Y-94.257
G2 X-87.333 Y-92.209 I1.582 J2.048
G1 Y-74.558
G2 X-83.176 Y-72.501 I2.587 J0
G1 X-82.671 Y-72.881
X-82.187 Y-73.23
X-81.718 Y-73.553
X-81.265 Y-73.85
X-80.828 Y-74.121
X-80.406 Y-74.366
X-80.001 Y-74.586
X-79.613 Y-74.781
X-79.241 Y-74.952
X-78.886 Y-75.099
X-78.548 Y-75.224
X-78.227 Y-75.327
X-77.922 Y-75.409
X-77.635 Y-75.472
X-77.365 Y-75.516
X-77.11 Y-75.544
X-76.871 Y-75.556
X-76.646 Y-75.553
X-76.434 Y-75.536
X-76.234 Y-75.508
X-76.045 Y-75.468
X-75.863 Y-75.416
X-75.688 Y-75.353
X-75.518 Y-75.279
X-75.352 Y-75.193
X-75.189 Y-75.094
X-75.027 Y-74.982
X-74.866 Y-74.855
X-74.707 Y-74.714
X-74.549 Y-74.558
X-74.392 Y-74.387
X-74.236 Y-74.199
X-74.083 Y-73.995
X-73.931 Y-73.775
X-73.782 Y-73.54
X-73.636 Y-73.288
X-73.494 Y-73.02
X-73.354 Y-72.737
X-73.219 Y-72.439
X-73.087 Y-72.125
X-72.96 Y-71.797
X-72.838 Y-71.454
X-72.72 Y-71.097
X-72.606 Y-70.726
X-72.498 Y-70.341
X-72.394 Y-69.942
X-72.296 Y-69.529
X-72.202 Y-69.103
X-72.114 Y-68.663
X-72.032 Y-68.21
X-71.954 Y-67.744
X-71.882 Y-67.265
X-71.844 Y-66.982
S5000
X-71.816 Y-66.773 Z-2.005 F333.3
X-71.755 Y-66.268 Z-2.017
X-71.699 Y-65.75 Z-2.03
X-71.65 Y-65.218 Z-2.043
X-71.606 Y-64.674 Z-2.056
X-71.567 Y-64.117 Z-2.07
X-71.535 Y-63.547 Z-2.084
X-71.508 Y-62.963 Z-2.098
X-71.487 Y-62.367 Z-2.112
X-71.472 Y-61.758 Z-2.127
X-71.463 Y-61.135 Z-2.142
X-71.46 Y-60.496 Z-2.157
Y-39.338 Z-2.669
Z-2.206
Y-30.163
S6000
Z-2.892
S5000
Y-25.68 Z-3
S6000
Y-9 F1000
G2 X-64.873 Y-2.412 I6.588 J0
G1 X-59.373
G2 X-55.785 Y-6 I0 J-3.588
G1 Y-34
G3 X-55.373 Y-34.412 I0.413 J0
G1 X-49.373
G2 X-45.785 Y-38 I0 J-3.588
G1 Y-40
G3 X-45.373 Y-40.412 I0.413 J0
G1 X-44.373
G3 X-43.96 Y-40 I0 J0.412
G1 Y-38
G2 X-40.373 Y-34.412 I3.588 J0
G1 X-34.373
G3 X-33.96 Y-34 I0 J0.412
G1 Y-6
G2 X-30.373 Y-2.412 I3.587 J0
G1 X-24.873
G2 X-18.285 Y-9 I0 J-6.588
G1 Y-30.163
Z-2.206
Y-39.338
Z-3 F333.3
Y-60.496 F1000
X-18.282 Y-61.135
X-18.273 Y-61.758
X-18.259 Y-62.367
X-18.238 Y-62.963
X-18.211 Y-63.547
X-18.179 Y-64.117
X-18.14 Y-64.674
X-18.096 Y-65.218
X-18.047 Y-65.75
X-17.991 Y-66.268
X-17.93 Y-66.773
X-17.864 Y-67.265
X-17.792 Y-67.744
X-17.714 Y-68.21
X-17.631 Y-68.663
X-17.543 Y-69.103
X-17.45 Y-69.529
X-17.352 Y-69.942
X-17.248 Y-70.341
X-17.14 Y-70.726
X-17.026 Y-71.097
X-16.908 Y-71.454
X-16.785 Y-71.797
X-16.658 Y-72.126
X-16.527 Y-72.439
X-16.392 Y-72.737
X-16.252 Y-73.02
X-16.109 Y-73.288
X-15.963 Y-73.54
X-15.815 Y-73.775
X-15.663 Y-73.995
X-15.509 Y-74.199
X-15.354 Y-74.387
X-15.197 Y-74.558
X-15.039 Y-74.714
X-14.879 Y-74.855
X-14.719 Y-74.982
X-14.557 Y-75.094
X-14.394 Y-75.193
X-14.227 Y-75.279
X-14.058 Y-75.353
X-13.883 Y-75.416
X-13.701 Y-75.468
X-13.511 Y-75.508
X-13.312 Y-75.536
X-13.1 Y-75.553
X-12.875 Y-75.556
X-12.636 Y-75.544
X-12.381 Y-75.516
X-12.111 Y-75.472
X-11.824 Y-75.409
X-11.519 Y-75.327
X-11.198 Y-75.224
X-10.86 Y-75.099
X-10.505 Y-74.952
X-10.133 Y-74.781
X-9.744 Y-74.586
X-9.339 Y-74.366
X-8.918 Y-74.121
X-8.481 Y-73.85
X-8.028 Y-73.553
X-7.559 Y-73.23
X-7.075 Y-72.881
X-6.57 Y-72.501
G2 X-2.412 Y-74.558 I1.57 J-2.057
G1 Y-92.209
G2 X-3.418 Y-94.257 I-2.587 J0
G1 X-4.218 Y-94.883
X-4.982 Y-95.504
X-5.715 Y-96.126
X-6.418 Y-96.747
X-7.092 Y-97.369
X-7.735 Y-97.99
X-8.35 Y-98.612
X-8.936 Y-99.233
X-9.493 Y-99.853
X-10.022 Y-100.474
X-10.524 Y-101.094
X-10.998 Y-101.713
X-11.445 Y-102.332
X-11.866 Y-102.95
X-12.261 Y-103.568
X-12.631 Y-104.186
X-12.976 Y-104.803
X-13.296 Y-105.419
X-13.593 Y-106.035
X-13.865 Y-106.65
X-14.114 Y-107.265
X-14.34 Y-107.878
X-14.544 Y-108.492
X-14.725 Y-109.105
X-14.805 Y-109.412
Z-2.206
X-14.884 Y-109.717
X-15.021 Y-110.331
X-15.137 Y-110.942
X-15.232 Y-111.554
X-15.305 Y-112.166
X-15.358 Y-112.777
X-15.389 Y-113.388
X-15.4 Y-114
X-15.389 Y-114.612
X-15.358 Y-115.223
X-15.305 Y-115.834
X-15.232 Y-116.446
X-15.137 Y-117.058
X-15.021 Y-117.669
X-14.884 Y-118.283
X-14.805 Y-118.588
Z-3 F333.3
X-14.725 Y-118.895 F1000
X-14.544 Y-119.508
X-14.34 Y-120.122
X-14.114 Y-120.735
X-13.865 Y-121.35
X-13.593 Y-121.965
X-13.296 Y-122.581
X-12.976 Y-123.197
X-12.631 Y-123.814
X-12.261 Y-124.432
X-11.866 Y-125.05
X-11.445 Y-125.668
X-10.998 Y-126.287
X-10.524 Y-126.906
X-10.022 Y-127.527
X-9.493 Y-128.146
X-8.936 Y-128.767
X-8.35 Y-129.388
X-7.735 Y-130.01
X-7.091 Y-130.632
X-6.418 Y-131.253
X-5.715 Y-131.875
X-4.982 Y-132.496
X-4.218 Y-133.117
X-3.418 Y-133.743
G2 X-2.412 Y-135.791 I-1.582 J-2.048
G1 Y-153.442
G2 X-6.569 Y-155.499 I-2.587 J0
G1 X-6.916 Y-155.238
X-7.251 Y-154.995
X-7.575 Y-154.769
X-7.892 Y-154.557
X-8.201 Y-154.361
X-8.502 Y-154.179
X-8.796 Y-154.012
X-9.081 Y-153.858
X-9.356 Y-153.72
X-9.621 Y-153.597
X-9.878 Y-153.487
X-10.129 Y-153.39
X-10.367 Y-153.306
X-10.592 Y-153.237
X-10.813 Y-153.179
X-11.026 Y-153.132
X-11.226 Y-153.097
X-11.416 Y-153.072
X-11.596 Y-153.058
X-11.77 Y-153.053
X-11.935 Y-153.056
X-12.091 Y-153.068
X-12.243 Y-153.088
X-12.389 Y-153.116
X-12.528 Y-153.15
X-12.663 Y-153.192
X-12.8 Y-153.243
X-12.931 Y-153.3
X-13.059 Y-153.365
X-13.188 Y-153.439
X-13.314 Y-153.52
X-13.444 Y-153.614
X-13.572 Y-153.717
X-13.701 Y-153.83
X-13.83 Y-153.955
X-13.959 Y-154.09
X-14.087 Y-154.236
X-14.214 Y-154.392
X-14.341 Y-154.561
X-14.467 Y-154.742
X-14.593 Y-154.934
X-14.717 Y-155.138
X-14.839 Y-155.351
X-14.955 Y-155.567
X-15.194 Y-156.059
X-15.421 Y-156.582
