(MidPlate3mm)
(Bearbeiten)
(  Hersteller: ChinaCnc)
(  model: 3040T)
(  description: Generic 3-axis)
(T5  D=3.175 CR=0 - ZMIN=-3.2 - Schaftfraser)
G90 G94
G17
G21

(Bohrfrasen7)
T5
S6000 M3
G54
G0 X-81.373 Y-86
Z15
Z2
G1 Z0 F1000
X-81.292 Y-86.081
X-81.261 Y-86.075
X-81.234 Y-86.057
X-81.217 Y-86.031
X-81.21 Y-86
G3 X-81.535 Y-86 Z-0.25 I-0.162 J0
X-81.21 Y-86 Z-0.5 I0.162 J0
X-81.535 Y-86 Z-0.75 I-0.162 J0
X-81.21 Y-86 Z-1 I0.162 J0
X-81.535 Y-86 Z-1.25 I-0.162 J0
X-81.21 Y-86 Z-1.5 I0.162 J0
X-81.535 Y-86 Z-1.75 I-0.162 J0
X-81.21 Y-86 Z-2 I0.162 J0
X-81.535 Y-86 Z-2.25 I-0.162 J0
X-81.21 Y-86 Z-2.5 I0.162 J0
X-81.535 Y-86 Z-2.75 I-0.162 J0
X-81.21 Y-86 Z-3 I0.162 J0
X-81.504 Y-85.904 Z-3.2 I-0.162 J0
X-81.241 Y-86.096 I0.131 J-0.096
X-81.504 Y-85.904 I-0.131 J0.096
G1 X-81.518 Y-85.933
X-81.519 Y-85.965
X-81.508 Y-85.995
X-81.486 Y-86.018
X-81.373 Y-86
G0 Z5
X-60.123 Y-75.75
Z2
G1 Z0 F1000
X-60.042 Y-75.831
X-60.011 Y-75.825
X-59.984 Y-75.807
X-59.967 Y-75.781
X-59.96 Y-75.75
G3 X-60.285 Y-75.75 Z-0.25 I-0.162 J0
X-59.96 Y-75.75 Z-0.5 I0.162 J0
X-60.285 Y-75.75 Z-0.75 I-0.162 J0
X-59.96 Y-75.75 Z-1 I0.162 J0
X-60.285 Y-75.75 Z-1.25 I-0.162 J0
X-59.96 Y-75.75 Z-1.5 I0.162 J0
X-60.285 Y-75.75 Z-1.75 I-0.162 J0
X-59.96 Y-75.75 Z-2 I0.162 J0
X-60.285 Y-75.75 Z-2.25 I-0.162 J0
X-59.96 Y-75.75 Z-2.5 I0.162 J0
X-60.285 Y-75.75 Z-2.75 I-0.162 J0
X-59.96 Y-75.75 Z-3 I0.162 J0
X-60.254 Y-75.654 Z-3.2 I-0.162 J0
X-59.991 Y-75.846 I0.131 J-0.096
X-60.254 Y-75.654 I-0.131 J0.096
G1 X-60.268 Y-75.683
X-60.269 Y-75.715
X-60.258 Y-75.745
X-60.236 Y-75.768
X-60.123 Y-75.75
G0 Z5
Y-86.75
Z2
G1 Z0 F1000
X-60.042 Y-86.831
X-60.011 Y-86.825
X-59.984 Y-86.807
X-59.967 Y-86.781
X-59.96 Y-86.75
G3 X-60.285 Y-86.75 Z-0.25 I-0.162 J0
X-59.96 Y-86.75 Z-0.5 I0.162 J0
X-60.285 Y-86.75 Z-0.75 I-0.162 J0
X-59.96 Y-86.75 Z-1 I0.162 J0
X-60.285 Y-86.75 Z-1.25 I-0.162 J0
X-59.96 Y-86.75 Z-1.5 I0.162 J0
X-60.285 Y-86.75 Z-1.75 I-0.162 J0
X-59.96 Y-86.75 Z-2 I0.162 J0
X-60.285 Y-86.75 Z-2.25 I-0.162 J0
X-59.96 Y-86.75 Z-2.5 I0.162 J0
X-60.285 Y-86.75 Z-2.75 I-0.162 J0
X-59.96 Y-86.75 Z-3 I0.162 J0
X-60.254 Y-86.654 Z-3.2 I-0.162 J0
X-59.991 Y-86.846 I0.131 J-0.096
X-60.254 Y-86.654 I-0.131 J0.096
G1 X-60.268 Y-86.683
X-60.269 Y-86.715
X-60.258 Y-86.745
X-60.236 Y-86.768
X-60.123 Y-86.75
G0 Z5
X-65.473 Y-98.161
Z2
G1 Z0 F1000
X-65.392 Y-98.243
X-65.361 Y-98.236
X-65.334 Y-98.219
X-65.317 Y-98.192
X-65.31 Y-98.161
G3 X-65.635 Y-98.161 Z-0.25 I-0.162 J0
X-65.31 Y-98.161 Z-0.5 I0.162 J0
X-65.635 Y-98.161 Z-0.75 I-0.162 J0
X-65.31 Y-98.161 Z-1 I0.162 J0
X-65.635 Y-98.161 Z-1.25 I-0.162 J0
X-65.31 Y-98.161 Z-1.5 I0.162 J0
X-65.635 Y-98.161 Z-1.75 I-0.162 J0
X-65.31 Y-98.161 Z-2 I0.162 J0
X-65.635 Y-98.161 Z-2.25 I-0.162 J0
X-65.31 Y-98.161 Z-2.5 I0.162 J0
X-65.635 Y-98.161 Z-2.75 I-0.162 J0
X-65.31 Y-98.161 Z-3 I0.163 J0
X-65.604 Y-98.066 Z-3.2 I-0.163 J0
X-65.341 Y-98.257 I0.131 J-0.096
X-65.604 Y-98.066 I-0.131 J0.096
G1 X-65.618 Y-98.095
X-65.619 Y-98.126
X-65.608 Y-98.156
X-65.586 Y-98.179
X-65.473 Y-98.161
G0 Z5
X-67.373 Y-114
Z2
G1 Z0 F1000
X-67.292 Y-114.081
X-67.261 Y-114.075
X-67.234 Y-114.057
X-67.217 Y-114.031
X-67.21 Y-114
G3 X-67.535 Y-114 Z-0.25 I-0.162 J0
X-67.21 Y-114 Z-0.5 I0.162 J0
X-67.535 Y-114 Z-0.75 I-0.162 J0
X-67.21 Y-114 Z-1 I0.162 J0
X-67.535 Y-114 Z-1.25 I-0.162 J0
X-67.21 Y-114 Z-1.5 I0.162 J0
X-67.535 Y-114 Z-1.75 I-0.162 J0
X-67.21 Y-114 Z-2 I0.162 J0
X-67.535 Y-114 Z-2.25 I-0.162 J0
X-67.21 Y-114 Z-2.5 I0.162 J0
X-67.535 Y-114 Z-2.75 I-0.162 J0
X-67.21 Y-114 Z-3 I0.162 J0
X-67.504 Y-113.904 Z-3.2 I-0.162 J0
X-67.241 Y-114.096 I0.131 J-0.096
X-67.504 Y-113.904 I-0.131 J0.096
G1 X-67.518 Y-113.933
X-67.519 Y-113.965
X-67.508 Y-113.995
X-67.486 Y-114.018
X-67.373 Y-114
G0 Z5
X-60.123 Y-117.25
Z2
G1 Z0 F1000
X-60.042 Y-117.331
X-60.011 Y-117.325
X-59.984 Y-117.307
X-59.967 Y-117.281
X-59.96 Y-117.25
G3 X-60.285 Y-117.25 Z-0.25 I-0.162 J0
X-59.96 Y-117.25 Z-0.5 I0.162 J0
X-60.285 Y-117.25 Z-0.75 I-0.162 J0
X-59.96 Y-117.25 Z-1 I0.162 J0
X-60.285 Y-117.25 Z-1.25 I-0.162 J0
X-59.96 Y-117.25 Z-1.5 I0.162 J0
X-60.285 Y-117.25 Z-1.75 I-0.162 J0
X-59.96 Y-117.25 Z-2 I0.162 J0
X-60.285 Y-117.25 Z-2.25 I-0.162 J0
X-59.96 Y-117.25 Z-2.5 I0.162 J0
X-60.285 Y-117.25 Z-2.75 I-0.162 J0
X-59.96 Y-117.25 Z-3 I0.162 J0
X-60.254 Y-117.154 Z-3.2 I-0.162 J0
X-59.991 Y-117.346 I0.131 J-0.096
X-60.254 Y-117.154 I-0.131 J0.096
G1 X-60.268 Y-117.183
X-60.269 Y-117.215
X-60.258 Y-117.245
X-60.236 Y-117.268
X-60.123 Y-117.25
G0 Z5
X-65.473 Y-129.835
Z2
G1 Z0 F1000
X-65.392 Y-129.916
X-65.361 Y-129.91
X-65.334 Y-129.893
X-65.317 Y-129.866
X-65.31 Y-129.835
G3 X-65.635 Y-129.835 Z-0.25 I-0.162 J0
X-65.31 Y-129.835 Z-0.5 I0.162 J0
X-65.635 Y-129.835 Z-0.75 I-0.162 J0
X-65.31 Y-129.835 Z-1 I0.162 J0
X-65.635 Y-129.835 Z-1.25 I-0.162 J0
X-65.31 Y-129.835 Z-1.5 I0.162 J0
X-65.635 Y-129.835 Z-1.75 I-0.162 J0
X-65.31 Y-129.835 Z-2 I0.162 J0
X-65.635 Y-129.835 Z-2.25 I-0.162 J0
X-65.31 Y-129.835 Z-2.5 I0.162 J0
X-65.635 Y-129.835 Z-2.75 I-0.162 J0
X-65.31 Y-129.835 Z-3 I0.163 J0
X-65.604 Y-129.74 Z-3.2 I-0.163 J0
X-65.341 Y-129.931 I0.131 J-0.096
X-65.604 Y-129.74 I-0.131 J0.096
G1 X-65.618 Y-129.769
X-65.619 Y-129.8
X-65.608 Y-129.83
X-65.586 Y-129.853
X-65.473 Y-129.835
G0 Z5
X-60.123 Y-143.75
Z2
G1 Z0 F1000
X-60.042 Y-143.831
X-60.011 Y-143.825
X-59.984 Y-143.807
X-59.967 Y-143.781
X-59.96 Y-143.75
G3 X-60.285 Y-143.75 Z-0.25 I-0.162 J0
X-59.96 Y-143.75 Z-0.5 I0.162 J0
X-60.285 Y-143.75 Z-0.75 I-0.162 J0
X-59.96 Y-143.75 Z-1 I0.162 J0
X-60.285 Y-143.75 Z-1.25 I-0.163 J0
X-59.96 Y-143.75 Z-1.5 I0.163 J0
X-60.285 Y-143.75 Z-1.75 I-0.163 J0
X-59.96 Y-143.75 Z-2 I0.163 J0
X-60.285 Y-143.75 Z-2.25 I-0.163 J0
X-59.96 Y-143.75 Z-2.5 I0.163 J0
X-60.285 Y-143.75 Z-2.75 I-0.163 J0
X-59.96 Y-143.75 Z-3 I0.163 J0
X-60.254 Y-143.654 Z-3.2 I-0.163 J0
X-59.991 Y-143.846 I0.131 J-0.096
X-60.254 Y-143.654 I-0.131 J0.096
G1 X-60.268 Y-143.683
X-60.269 Y-143.715
X-60.258 Y-143.745
X-60.236 Y-143.768
X-60.123 Y-143.75
G0 Z5
X-81.373 Y-142.01
Z2
G1 Z0 F1000
X-81.292 Y-142.091
X-81.261 Y-142.085
X-81.234 Y-142.067
X-81.217 Y-142.041
X-81.21 Y-142.01
G3 X-81.535 Y-142.01 Z-0.25 I-0.162 J0
X-81.21 Y-142.01 Z-0.5 I0.162 J0
X-81.535 Y-142.01 Z-0.75 I-0.162 J0
X-81.21 Y-142.01 Z-1 I0.162 J0
X-81.535 Y-142.01 Z-1.25 I-0.162 J0
X-81.21 Y-142.01 Z-1.5 I0.162 J0
X-81.535 Y-142.01 Z-1.75 I-0.162 J0
X-81.21 Y-142.01 Z-2 I0.162 J0
X-81.535 Y-142.01 Z-2.25 I-0.162 J0
X-81.21 Y-142.01 Z-2.5 I0.162 J0
X-81.535 Y-142.01 Z-2.75 I-0.162 J0
X-81.21 Y-142.01 Z-3 I0.163 J0
X-81.504 Y-141.914 Z-3.2 I-0.163 J0
X-81.241 Y-142.105 I0.131 J-0.096
X-81.504 Y-141.914 I-0.131 J0.096
G1 X-81.518 Y-141.943
X-81.519 Y-141.975
X-81.508 Y-142.004
X-81.486 Y-142.028
X-81.373 Y-142.01
G0 Z5
X-62.373 Y-190
Z2
G1 Z0 F1000
X-62.292 Y-190.081
X-62.261 Y-190.075
X-62.234 Y-190.057
X-62.217 Y-190.031
X-62.21 Y-190
G3 X-62.535 Y-190 Z-0.25 I-0.162 J0
X-62.21 Y-190 Z-0.5 I0.162 J0
X-62.535 Y-190 Z-0.75 I-0.162 J0
X-62.21 Y-190 Z-1 I0.162 J0
X-62.535 Y-190 Z-1.25 I-0.163 J0
X-62.21 Y-190 Z-1.5 I0.163 J0
X-62.535 Y-190 Z-1.75 I-0.163 J0
X-62.21 Y-190 Z-2 I0.163 J0
X-62.535 Y-190 Z-2.25 I-0.163 J0
X-62.21 Y-190 Z-2.5 I0.163 J0
X-62.535 Y-190 Z-2.75 I-0.163 J0
X-62.21 Y-190 Z-3 I0.163 J0
X-62.504 Y-189.904 Z-3.2 I-0.163 J0
X-62.241 Y-190.096 I0.131 J-0.096
X-62.504 Y-189.904 I-0.131 J0.096
G1 X-62.518 Y-189.933
X-62.519 Y-189.965
X-62.508 Y-189.995
X-62.486 Y-190.018
X-62.373 Y-190
G0 Z5
X-60.123 Y-174.25
Z2
G1 Z0 F1000
X-60.042 Y-174.331
X-60.011 Y-174.325
X-59.984 Y-174.307
X-59.967 Y-174.281
X-59.96 Y-174.25
G3 X-60.285 Y-174.25 Z-0.25 I-0.162 J0
X-59.96 Y-174.25 Z-0.5 I0.162 J0
X-60.285 Y-174.25 Z-0.75 I-0.162 J0
X-59.96 Y-174.25 Z-1 I0.162 J0
X-60.285 Y-174.25 Z-1.25 I-0.163 J0
X-59.96 Y-174.25 Z-1.5 I0.163 J0
X-60.285 Y-174.25 Z-1.75 I-0.163 J0
X-59.96 Y-174.25 Z-2 I0.163 J0
X-60.285 Y-174.25 Z-2.25 I-0.163 J0
X-59.96 Y-174.25 Z-2.5 I0.163 J0
X-60.285 Y-174.25 Z-2.75 I-0.163 J0
X-59.96 Y-174.25 Z-3 I0.163 J0
X-60.254 Y-174.154 Z-3.2 I-0.163 J0
X-59.991 Y-174.346 I0.131 J-0.096
X-60.254 Y-174.154 I-0.131 J0.096
G1 X-60.268 Y-174.183
X-60.269 Y-174.215
X-60.258 Y-174.245
X-60.236 Y-174.268
X-60.123 Y-174.25
G0 Z5
X-29.623
Z2
G1 Z0 F1000
X-29.542 Y-174.331
X-29.511 Y-174.325
X-29.484 Y-174.307
X-29.467 Y-174.281
X-29.46 Y-174.25
G3 X-29.785 Y-174.25 Z-0.25 I-0.163 J0
X-29.46 Y-174.25 Z-0.5 I0.163 J0
X-29.785 Y-174.25 Z-0.75 I-0.163 J0
X-29.46 Y-174.25 Z-1 I0.163 J0
X-29.785 Y-174.25 Z-1.25 I-0.163 J0
X-29.46 Y-174.25 Z-1.5 I0.163 J0
X-29.785 Y-174.25 Z-1.75 I-0.163 J0
X-29.46 Y-174.25 Z-2 I0.163 J0
X-29.785 Y-174.25 Z-2.25 I-0.163 J0
X-29.46 Y-174.25 Z-2.5 I0.163 J0
X-29.785 Y-174.25 Z-2.75 I-0.163 J0
X-29.46 Y-174.25 Z-3 I0.163 J0
X-29.754 Y-174.154 Z-3.2 I-0.163 J0
X-29.491 Y-174.346 I0.131 J-0.096
X-29.754 Y-174.154 I-0.131 J0.096
G1 X-29.768 Y-174.183
X-29.769 Y-174.215
X-29.758 Y-174.245
X-29.736 Y-174.268
X-29.623 Y-174.25
G0 Z5
X-27.373 Y-190
Z2
G1 Z0 F1000
X-27.292 Y-190.081
X-27.261 Y-190.075
X-27.234 Y-190.057
X-27.217 Y-190.031
X-27.21 Y-190
G3 X-27.535 Y-190 Z-0.25 I-0.163 J0
X-27.21 Y-190 Z-0.5 I0.163 J0
X-27.535 Y-190 Z-0.75 I-0.163 J0
X-27.21 Y-190 Z-1 I0.163 J0
X-27.535 Y-190 Z-1.25 I-0.163 J0
X-27.21 Y-190 Z-1.5 I0.163 J0
X-27.535 Y-190 Z-1.75 I-0.163 J0
X-27.21 Y-190 Z-2 I0.163 J0
X-27.535 Y-190 Z-2.25 I-0.163 J0
X-27.21 Y-190 Z-2.5 I0.163 J0
X-27.535 Y-190 Z-2.75 I-0.163 J0
X-27.21 Y-190 Z-3 I0.163 J0
X-27.504 Y-189.904 Z-3.2 I-0.163 J0
X-27.241 Y-190.096 I0.131 J-0.096
X-27.504 Y-189.904 I-0.131 J0.096
G1 X-27.518 Y-189.933
X-27.519 Y-189.965
X-27.508 Y-189.995
X-27.486 Y-190.018
X-27.373 Y-190
G0 Z5
X-8.388 Y-142.01
Z2
G1 Z0 F1000
X-8.307 Y-142.091
X-8.276 Y-142.085
X-8.25 Y-142.067
X-8.232 Y-142.041
X-8.226 Y-142.01
G3 X-8.551 Y-142.01 Z-0.25 I-0.163 J0
X-8.226 Y-142.01 Z-0.5 I0.163 J0
X-8.551 Y-142.01 Z-0.75 I-0.163 J0
X-8.226 Y-142.01 Z-1 I0.163 J0
X-8.551 Y-142.01 Z-1.25 I-0.163 J0
X-8.226 Y-142.01 Z-1.5 I0.163 J0
X-8.551 Y-142.01 Z-1.75 I-0.163 J0
X-8.226 Y-142.01 Z-2 I0.163 J0
X-8.551 Y-142.01 Z-2.25 I-0.163 J0
X-8.226 Y-142.01 Z-2.5 I0.163 J0
X-8.551 Y-142.01 Z-2.75 I-0.163 J0
X-8.226 Y-142.01 Z-3 I0.163 J0
X-8.52 Y-141.914 Z-3.2 I-0.163 J0
X-8.257 Y-142.105 I0.131 J-0.096
X-8.52 Y-141.914 I-0.131 J0.096
G1 X-8.533 Y-141.943
X-8.534 Y-141.975
X-8.523 Y-142.004
X-8.502 Y-142.028
X-8.388 Y-142.01
G0 Z5
X-29.623 Y-143.75
Z2
G1 Z0 F1000
X-29.542 Y-143.831
X-29.511 Y-143.825
X-29.484 Y-143.807
X-29.467 Y-143.781
X-29.46 Y-143.75
G3 X-29.785 Y-143.75 Z-0.25 I-0.163 J0
X-29.46 Y-143.75 Z-0.5 I0.163 J0
X-29.785 Y-143.75 Z-0.75 I-0.163 J0
X-29.46 Y-143.75 Z-1 I0.163 J0
X-29.785 Y-143.75 Z-1.25 I-0.163 J0
X-29.46 Y-143.75 Z-1.5 I0.163 J0
X-29.785 Y-143.75 Z-1.75 I-0.163 J0
X-29.46 Y-143.75 Z-2 I0.163 J0
X-29.785 Y-143.75 Z-2.25 I-0.163 J0
X-29.46 Y-143.75 Z-2.5 I0.163 J0
X-29.785 Y-143.75 Z-2.75 I-0.163 J0
X-29.46 Y-143.75 Z-3 I0.163 J0
X-29.754 Y-143.654 Z-3.2 I-0.163 J0
X-29.491 Y-143.846 I0.131 J-0.096
X-29.754 Y-143.654 I-0.131 J0.096
G1 X-29.768 Y-143.683
X-29.769 Y-143.715
X-29.758 Y-143.745
X-29.736 Y-143.768
X-29.623 Y-143.75
G0 Z5
X-24.253 Y-129.835
Z2
G1 Z0 F1000
X-24.172 Y-129.916
X-24.141 Y-129.91
X-24.115 Y-129.893
X-24.097 Y-129.866
X-24.091 Y-129.835
G3 X-24.416 Y-129.835 Z-0.25 I-0.163 J0
X-24.091 Y-129.835 Z-0.5 I0.163 J0
X-24.416 Y-129.835 Z-0.75 I-0.163 J0
X-24.091 Y-129.835 Z-1 I0.163 J0
X-24.416 Y-129.835 Z-1.25 I-0.163 J0
X-24.091 Y-129.835 Z-1.5 I0.163 J0
X-24.416 Y-129.835 Z-1.75 I-0.163 J0
X-24.091 Y-129.835 Z-2 I0.163 J0
X-24.416 Y-129.835 Z-2.25 I-0.163 J0
X-24.091 Y-129.835 Z-2.5 I0.163 J0
X-24.416 Y-129.835 Z-2.75 I-0.163 J0
X-24.091 Y-129.835 Z-3 I0.163 J0
X-24.385 Y-129.74 Z-3.2 I-0.163 J0
X-24.122 Y-129.931 I0.131 J-0.096
X-24.385 Y-129.74 I-0.131 J0.096
G1 X-24.398 Y-129.769
X-24.399 Y-129.8
X-24.388 Y-129.83
X-24.367 Y-129.853
X-24.253 Y-129.835
G0 Z5
X-29.623 Y-117.25
Z2
G1 Z0 F1000
X-29.542 Y-117.331
X-29.511 Y-117.325
X-29.484 Y-117.307
X-29.467 Y-117.281
X-29.46 Y-117.25
G3 X-29.785 Y-117.25 Z-0.25 I-0.163 J0
X-29.46 Y-117.25 Z-0.5 I0.163 J0
X-29.785 Y-117.25 Z-0.75 I-0.163 J0
X-29.46 Y-117.25 Z-1 I0.163 J0
X-29.785 Y-117.25 Z-1.25 I-0.162 J0
X-29.46 Y-117.25 Z-1.5 I0.162 J0
X-29.785 Y-117.25 Z-1.75 I-0.162 J0
X-29.46 Y-117.25 Z-2 I0.162 J0
X-29.785 Y-117.25 Z-2.25 I-0.162 J0
X-29.46 Y-117.25 Z-2.5 I0.162 J0
X-29.785 Y-117.25 Z-2.75 I-0.162 J0
X-29.46 Y-117.25 Z-3 I0.162 J0
X-29.754 Y-117.154 Z-3.2 I-0.162 J0
X-29.491 Y-117.346 I0.131 J-0.096
X-29.754 Y-117.154 I-0.131 J0.096
G1 X-29.768 Y-117.183
X-29.769 Y-117.215
X-29.758 Y-117.245
X-29.736 Y-117.268
X-29.623 Y-117.25
G0 Z5
X-22.373 Y-114
Z2
G1 Z0 F1000
X-22.292 Y-114.081
X-22.261 Y-114.075
X-22.234 Y-114.057
X-22.217 Y-114.031
X-22.21 Y-114
G3 X-22.535 Y-114 Z-0.25 I-0.163 J0
X-22.21 Y-114 Z-0.5 I0.163 J0
X-22.535 Y-114 Z-0.75 I-0.163 J0
X-22.21 Y-114 Z-1 I0.163 J0
X-22.535 Y-114 Z-1.25 I-0.162 J0
X-22.21 Y-114 Z-1.5 I0.162 J0
X-22.535 Y-114 Z-1.75 I-0.162 J0
X-22.21 Y-114 Z-2 I0.162 J0
X-22.535 Y-114 Z-2.25 I-0.162 J0
X-22.21 Y-114 Z-2.5 I0.162 J0
X-22.535 Y-114 Z-2.75 I-0.162 J0
X-22.21 Y-114 Z-3 I0.162 J0
X-22.504 Y-113.904 Z-3.2 I-0.162 J0
X-22.241 Y-114.096 I0.131 J-0.096
X-22.504 Y-113.904 I-0.131 J0.096
G1 X-22.518 Y-113.933
X-22.519 Y-113.965
X-22.508 Y-113.995
X-22.486 Y-114.018
X-22.373 Y-114
G0 Z5
X-24.253 Y-98.161
Z2
G1 Z0 F1000
X-24.172 Y-98.243
X-24.141 Y-98.236
X-24.115 Y-98.219
X-24.097 Y-98.192
X-24.091 Y-98.161
G3 X-24.416 Y-98.161 Z-0.25 I-0.163 J0
X-24.091 Y-98.161 Z-0.5 I0.163 J0
X-24.416 Y-98.161 Z-0.75 I-0.163 J0
X-24.091 Y-98.161 Z-1 I0.163 J0
X-24.416 Y-98.161 Z-1.25 I-0.163 J0
X-24.091 Y-98.161 Z-1.5 I0.163 J0
X-24.416 Y-98.161 Z-1.75 I-0.163 J0
X-24.091 Y-98.161 Z-2 I0.163 J0
X-24.416 Y-98.161 Z-2.25 I-0.163 J0
X-24.091 Y-98.161 Z-2.5 I0.163 J0
X-24.416 Y-98.161 Z-2.75 I-0.163 J0
X-24.091 Y-98.161 Z-3 I0.163 J0
X-24.385 Y-98.066 Z-3.2 I-0.163 J0
X-24.122 Y-98.257 I0.131 J-0.096
X-24.385 Y-98.066 I-0.131 J0.096
G1 X-24.398 Y-98.095
X-24.399 Y-98.126
X-24.388 Y-98.156
X-24.367 Y-98.179
X-24.253 Y-98.161
G0 Z5
X-29.623 Y-86.75
Z2
G1 Z0 F1000
X-29.542 Y-86.831
X-29.511 Y-86.825
X-29.484 Y-86.807
X-29.467 Y-86.781
X-29.46 Y-86.75
G3 X-29.785 Y-86.75 Z-0.25 I-0.163 J0
X-29.46 Y-86.75 Z-0.5 I0.163 J0
X-29.785 Y-86.75 Z-0.75 I-0.163 J0
X-29.46 Y-86.75 Z-1 I0.163 J0
X-29.785 Y-86.75 Z-1.25 I-0.162 J0
X-29.46 Y-86.75 Z-1.5 I0.162 J0
X-29.785 Y-86.75 Z-1.75 I-0.162 J0
X-29.46 Y-86.75 Z-2 I0.162 J0
X-29.785 Y-86.75 Z-2.25 I-0.162 J0
X-29.46 Y-86.75 Z-2.5 I0.162 J0
X-29.785 Y-86.75 Z-2.75 I-0.162 J0
X-29.46 Y-86.75 Z-3 I0.162 J0
X-29.754 Y-86.654 Z-3.2 I-0.162 J0
X-29.491 Y-86.846 I0.131 J-0.096
X-29.754 Y-86.654 I-0.131 J0.096
G1 X-29.768 Y-86.683
X-29.769 Y-86.715
X-29.758 Y-86.745
X-29.736 Y-86.768
X-29.623 Y-86.75
G0 Z5
Y-75.75
Z2
G1 Z0 F1000
X-29.542 Y-75.831
X-29.511 Y-75.825
X-29.484 Y-75.807
X-29.467 Y-75.781
X-29.46 Y-75.75
G3 X-29.785 Y-75.75 Z-0.25 I-0.163 J0
X-29.46 Y-75.75 Z-0.5 I0.163 J0
X-29.785 Y-75.75 Z-0.75 I-0.163 J0
X-29.46 Y-75.75 Z-1 I0.163 J0
X-29.785 Y-75.75 Z-1.25 I-0.162 J0
X-29.46 Y-75.75 Z-1.5 I0.162 J0
X-29.785 Y-75.75 Z-1.75 I-0.162 J0
X-29.46 Y-75.75 Z-2 I0.162 J0
X-29.785 Y-75.75 Z-2.25 I-0.162 J0
X-29.46 Y-75.75 Z-2.5 I0.162 J0
X-29.785 Y-75.75 Z-2.75 I-0.162 J0
X-29.46 Y-75.75 Z-3 I0.162 J0
X-29.754 Y-75.654 Z-3.2 I-0.162 J0
X-29.491 Y-75.846 I0.131 J-0.096
X-29.754 Y-75.654 I-0.131 J0.096
G1 X-29.768 Y-75.683
X-29.769 Y-75.715
X-29.758 Y-75.745
X-29.736 Y-75.768
X-29.623 Y-75.75
G0 Z5
X-8.388 Y-86
Z2
G1 Z0 F1000
X-8.307 Y-86.081
X-8.276 Y-86.075
X-8.25 Y-86.057
X-8.232 Y-86.031
X-8.226 Y-86
G3 X-8.551 Y-86 Z-0.25 I-0.163 J0
X-8.226 Y-86 Z-0.5 I0.163 J0
X-8.551 Y-86 Z-0.75 I-0.163 J0
X-8.226 Y-86 Z-1 I0.162 J0
X-8.551 Y-86 Z-1.25 I-0.162 J0
X-8.226 Y-86 Z-1.5 I0.162 J0
X-8.551 Y-86 Z-1.75 I-0.162 J0
X-8.226 Y-86 Z-2 I0.162 J0
X-8.551 Y-86 Z-2.25 I-0.162 J0
X-8.226 Y-86 Z-2.5 I0.162 J0
X-8.551 Y-86 Z-2.75 I-0.162 J0
X-8.226 Y-86 Z-3 I0.162 J0
X-8.52 Y-85.904 Z-3.2 I-0.162 J0
X-8.257 Y-86.096 I0.131 J-0.096
X-8.52 Y-85.904 I-0.131 J0.096
G1 X-8.533 Y-85.933
X-8.534 Y-85.965
X-8.523 Y-85.995
X-8.502 Y-86.018
X-8.388 Y-86
G0 Z5
X-27.373 Y-10
Z2
G1 Z0 F1000
X-27.292 Y-10.081
X-27.261 Y-10.075
X-27.234 Y-10.057
X-27.217 Y-10.031
X-27.21 Y-10
G3 X-27.535 Y-10 Z-0.25 I-0.163 J0
X-27.21 Y-10 Z-0.5 I0.163 J0
X-27.535 Y-10 Z-0.75 I-0.163 J0
X-27.21 Y-10 Z-1 I0.163 J0
X-27.535 Y-10 Z-1.25 I-0.163 J0
X-27.21 Y-10 Z-1.5 I0.163 J0
X-27.535 Y-10 Z-1.75 I-0.163 J0
X-27.21 Y-10 Z-2 I0.163 J0
X-27.535 Y-10 Z-2.25 I-0.163 J0
X-27.21 Y-10 Z-2.5 I0.163 J0
X-27.535 Y-10 Z-2.75 I-0.163 J0
X-27.21 Y-10 Z-3 I0.163 J0
X-27.504 Y-9.904 Z-3.2 I-0.163 J0
X-27.241 Y-10.096 I0.131 J-0.096
X-27.504 Y-9.904 I-0.131 J0.096
G1 X-27.518 Y-9.933
X-27.519 Y-9.965
X-27.508 Y-9.995
X-27.486 Y-10.018
X-27.373 Y-10
G0 Z5
Y-35
Z2
G1 Z0 F1000
X-27.292 Y-35.081
X-27.261 Y-35.075
X-27.234 Y-35.057
X-27.217 Y-35.031
X-27.21 Y-35
G3 X-27.535 Y-35 Z-0.25 I-0.163 J0
X-27.21 Y-35 Z-0.5 I0.163 J0
X-27.535 Y-35 Z-0.75 I-0.163 J0
X-27.21 Y-35 Z-1 I0.163 J0
X-27.535 Y-35 Z-1.25 I-0.163 J0
X-27.21 Y-35 Z-1.5 I0.163 J0
X-27.535 Y-35 Z-1.75 I-0.163 J0
X-27.21 Y-35 Z-2 I0.163 J0
X-27.535 Y-35 Z-2.25 I-0.163 J0
X-27.21 Y-35 Z-2.5 I0.163 J0
X-27.535 Y-35 Z-2.75 I-0.163 J0
X-27.21 Y-35 Z-3 I0.163 J0
X-27.504 Y-34.904 Z-3.2 I-0.163 J0
X-27.241 Y-35.096 I0.131 J-0.096
X-27.504 Y-34.904 I-0.131 J0.096
G1 X-27.518 Y-34.933
X-27.519 Y-34.965
X-27.508 Y-34.995
X-27.486 Y-35.018
X-27.373 Y-35
G0 Z5
X-29.623 Y-45.25
Z2
G1 Z0 F1000
X-29.542 Y-45.331
X-29.511 Y-45.325
X-29.484 Y-45.307
X-29.467 Y-45.281
X-29.46 Y-45.25
G3 X-29.785 Y-45.25 Z-0.25 I-0.163 J0
X-29.46 Y-45.25 Z-0.5 I0.163 J0
X-29.785 Y-45.25 Z-0.75 I-0.163 J0
X-29.46 Y-45.25 Z-1 I0.163 J0
X-29.785 Y-45.25 Z-1.25 I-0.163 J0
X-29.46 Y-45.25 Z-1.5 I0.163 J0
X-29.785 Y-45.25 Z-1.75 I-0.163 J0
X-29.46 Y-45.25 Z-2 I0.163 J0
X-29.785 Y-45.25 Z-2.25 I-0.163 J0
X-29.46 Y-45.25 Z-2.5 I0.163 J0
X-29.785 Y-45.25 Z-2.75 I-0.163 J0
X-29.46 Y-45.25 Z-3 I0.163 J0
X-29.754 Y-45.154 Z-3.2 I-0.163 J0
X-29.491 Y-45.346 I0.131 J-0.096
X-29.754 Y-45.154 I-0.131 J0.096
G1 X-29.768 Y-45.183
X-29.769 Y-45.215
X-29.758 Y-45.245
X-29.736 Y-45.268
X-29.623 Y-45.25
G0 Z5
X-60.123
Z2
G1 Z0 F1000
X-60.042 Y-45.331
X-60.011 Y-45.325
X-59.984 Y-45.307
X-59.967 Y-45.281
X-59.96 Y-45.25
G3 X-60.285 Y-45.25 Z-0.25 I-0.162 J0
X-59.96 Y-45.25 Z-0.5 I0.162 J0
X-60.285 Y-45.25 Z-0.75 I-0.162 J0
X-59.96 Y-45.25 Z-1 I0.162 J0
X-60.285 Y-45.25 Z-1.25 I-0.162 J0
X-59.96 Y-45.25 Z-1.5 I0.162 J0
X-60.285 Y-45.25 Z-1.75 I-0.162 J0
X-59.96 Y-45.25 Z-2 I0.162 J0
X-60.285 Y-45.25 Z-2.25 I-0.163 J0
X-59.96 Y-45.25 Z-2.5 I0.163 J0
X-60.285 Y-45.25 Z-2.75 I-0.163 J0
X-59.96 Y-45.25 Z-3 I0.163 J0
X-60.254 Y-45.154 Z-3.2 I-0.163 J0
X-59.991 Y-45.346 I0.131 J-0.096
X-60.254 Y-45.154 I-0.131 J0.096
G1 X-60.268 Y-45.183
X-60.269 Y-45.215
X-60.258 Y-45.245
X-60.236 Y-45.268
X-60.123 Y-45.25
G0 Z5
X-62.373 Y-35
Z2
G1 Z0 F1000
X-62.292 Y-35.081
X-62.261 Y-35.075
X-62.234 Y-35.057
X-62.217 Y-35.031
X-62.21 Y-35
G3 X-62.535 Y-35 Z-0.25 I-0.162 J0
X-62.21 Y-35 Z-0.5 I0.162 J0
X-62.535 Y-35 Z-0.75 I-0.162 J0
X-62.21 Y-35 Z-1 I0.162 J0
X-62.535 Y-35 Z-1.25 I-0.162 J0
X-62.21 Y-35 Z-1.5 I0.162 J0
X-62.535 Y-35 Z-1.75 I-0.162 J0
X-62.21 Y-35 Z-2 I0.162 J0
X-62.535 Y-35 Z-2.25 I-0.163 J0
X-62.21 Y-35 Z-2.5 I0.163 J0
X-62.535 Y-35 Z-2.75 I-0.163 J0
X-62.21 Y-35 Z-3 I0.163 J0
X-62.504 Y-34.904 Z-3.2 I-0.163 J0
X-62.241 Y-35.096 I0.131 J-0.096
X-62.504 Y-34.904 I-0.131 J0.096
G1 X-62.518 Y-34.933
X-62.519 Y-34.965
X-62.508 Y-34.995
X-62.486 Y-35.018
X-62.373 Y-35
G0 Z5
Y-10
Z2
G1 Z0 F1000
X-62.292 Y-10.081
X-62.261 Y-10.075
X-62.234 Y-10.057
X-62.217 Y-10.031
X-62.21 Y-10
G3 X-62.535 Y-10 Z-0.25 I-0.162 J0
X-62.21 Y-10 Z-0.5 I0.162 J0
X-62.535 Y-10 Z-0.75 I-0.162 J0
X-62.21 Y-10 Z-1 I0.162 J0
X-62.535 Y-10 Z-1.25 I-0.162 J0
X-62.21 Y-10 Z-1.5 I0.162 J0
X-62.535 Y-10 Z-1.75 I-0.162 J0
X-62.21 Y-10 Z-2 I0.162 J0
X-62.535 Y-10 Z-2.25 I-0.162 J0
X-62.21 Y-10 Z-2.5 I0.162 J0
X-62.535 Y-10 Z-2.75 I-0.163 J0
X-62.21 Y-10 Z-3 I0.163 J0
X-62.504 Y-9.904 Z-3.2 I-0.163 J0
X-62.241 Y-10.096 I0.131 J-0.096
X-62.504 Y-9.904 I-0.131 J0.096
G1 X-62.518 Y-9.933
X-62.519 Y-9.965
X-62.508 Y-9.995
X-62.486 Y-10.018
X-62.373 Y-10
G0 Z15

(2D-Kontur7)
X-39.402 Y-108.64
Z15
Z5
G1 Z2.5 F333.3
S5000
X-39.448 Y-108.435 Z2.493
X-39.636 Y-107.752 Z2.468
X-39.848 Y-107.105 Z2.444
X-40.081 Y-106.497 Z2.421
X-40.332 Y-105.93 Z2.4
X-40.599 Y-105.403 Z2.379
X-40.879 Y-104.918 Z2.36
X-41.168 Y-104.474 Z2.341
X-41.466 Y-104.073 Z2.324
X-41.77 Y-103.713 Z2.307
X-42.077 Y-103.392 Z2.292
X-42.386 Y-103.111 Z2.277
X-42.694 Y-102.868 Z2.263
X-42.999 Y-102.661 Z2.25
X-43.302 Y-102.49 Z2.238
X-43.6 Y-102.351 Z2.227
X-43.895 Y-102.244 Z2.216
X-44.185 Y-102.165 Z2.205
X-44.471 Y-102.115 Z2.195
X-44.775 Y-102.089 Z2.185
X-44.849 Y-102.088 Z2.182
X-45.157 Y-102.103 Z2.171
X-45.443 Y-102.141 Z2.161
X-45.73 Y-102.207 Z2.151
X-46.02 Y-102.302 Z2.14
X-46.316 Y-102.427 Z2.129
X-46.616 Y-102.583 Z2.117
X-46.918 Y-102.773 Z2.105
X-47.223 Y-102.998 Z2.092
X-47.528 Y-103.259 Z2.078
X-47.833 Y-103.559 Z2.063
X-48.136 Y-103.897 Z2.047
X-48.433 Y-104.274 Z2.03
X-48.724 Y-104.691 Z2.012
X-49.005 Y-105.148 Z1.993
X-49.275 Y-105.646 Z1.974
X-49.531 Y-106.183 Z1.953
X-49.77 Y-106.76 Z1.931
X-49.991 Y-107.375 Z1.908
X-50.19 Y-108.027 Z1.884
X-50.364 Y-108.713 Z1.86
X-50.512 Y-109.431 Z1.834
X-50.63 Y-110.177 Z1.808
X-50.716 Y-110.945 Z1.781
X-50.768 Y-111.73 Z1.753
X-50.785 Y-112.523 Z1.726
X-50.766 Y-113.318 Z1.698
X-50.711 Y-114.106 Z1.67
X-50.622 Y-114.88 Z1.643
X-50.5 Y-115.633 Z1.616
X-50.348 Y-116.358 Z1.591
X-50.167 Y-117.052 Z1.566
X-49.962 Y-117.709 Z1.541
X-49.735 Y-118.329 Z1.518
X-49.489 Y-118.908 Z1.496
X-49.227 Y-119.447 Z1.475
X-48.95 Y-119.945 Z1.456
X-48.663 Y-120.4 Z1.437
X-48.368 Y-120.813 Z1.419
X-48.065 Y-121.186 Z1.402
X-47.759 Y-121.518 Z1.387
X-47.45 Y-121.811 Z1.372
X-47.142 Y-122.065 Z1.358
X-46.837 Y-122.281 Z1.345
X-46.533 Y-122.463 Z1.332
X-46.232 Y-122.612 Z1.321
X-45.937 Y-122.728 Z1.31
X-45.646 Y-122.814 Z1.299
X-45.359 Y-122.873 Z1.289
X-45.074 Y-122.904 Z1.279
X-44.79 Y-122.909 Z1.269
X-44.505 Y-122.889 Z1.259
X-44.219 Y-122.842 Z1.249
X-43.931 Y-122.768 Z1.238
X-43.64 Y-122.665 Z1.227
X-43.343 Y-122.53 Z1.216
X-43.041 Y-122.364 Z1.204
X-42.738 Y-122.165 Z1.191
X-42.433 Y-121.929 Z1.178
X-42.128 Y-121.658 Z1.164
X-41.823 Y-121.346 Z1.148
X-41.522 Y-120.997 Z1.132
X-41.227 Y-120.609 Z1.115
X-40.939 Y-120.179 Z1.097
X-40.661 Y-119.71 Z1.078
X-40.395 Y-119.201 Z1.058
X-40.143 Y-118.651 Z1.037
X-39.909 Y-118.063 Z1.015
X-39.694 Y-117.438 Z0.992
X-39.502 Y-116.776 Z0.968
X-39.335 Y-116.079 Z0.943
X-39.196 Y-115.353 Z0.917
X-39.087 Y-114.6 Z0.89
X-39.011 Y-113.827 Z0.863
X-38.969 Y-113.039 Z0.836
X-38.963 Y-112.244 Z0.808
X-38.992 Y-111.45 Z0.78
X-39.057 Y-110.665 Z0.753
X-39.156 Y-109.897 Z0.726
X-39.287 Y-109.152 Z0.699
X-39.448 Y-108.435 Z0.674
X-39.636 Y-107.752 Z0.649
X-39.848 Y-107.105 Z0.625
X-40.081 Y-106.497 Z0.602
X-40.332 Y-105.93 Z0.581
X-40.599 Y-105.403 Z0.56
X-40.879 Y-104.918 Z0.54
X-41.168 Y-104.474 Z0.522
X-41.466 Y-104.073 Z0.505
X-41.77 Y-103.713 Z0.488
X-42.077 Y-103.392 Z0.473
X-42.386 Y-103.111 Z0.458
X-42.694 Y-102.868 Z0.444
X-42.999 Y-102.661 Z0.431
X-43.302 Y-102.49 Z0.419
X-43.6 Y-102.351 Z0.408
X-43.895 Y-102.244 Z0.397
X-44.185 Y-102.165 Z0.386
X-44.471 Y-102.115 Z0.376
X-44.775 Y-102.089 Z0.366
X-44.849 Y-102.088 Z0.363
X-45.157 Y-102.103 Z0.352
X-45.443 Y-102.141 Z0.342
X-45.73 Y-102.207 Z0.332
X-46.02 Y-102.302 Z0.321
X-46.316 Y-102.427 Z0.31
X-46.616 Y-102.583 Z0.298
X-46.918 Y-102.773 Z0.286
X-47.223 Y-102.998 Z0.272
X-47.528 Y-103.259 Z0.258
X-47.833 Y-103.559 Z0.243
X-48.136 Y-103.897 Z0.228
X-48.433 Y-104.274 Z0.211
X-48.724 Y-104.691 Z0.193
X-49.005 Y-105.148 Z0.174
X-49.275 Y-105.646 Z0.155
X-49.531 Y-106.183 Z0.134
X-49.77 Y-106.76 Z0.112
X-49.991 Y-107.375 Z0.089
X-50.19 Y-108.027 Z0.065
X-50.364 Y-108.713 Z0.041
X-50.512 Y-109.431 Z0.015
X-50.63 Y-110.177 Z-0.011
X-50.716 Y-110.945 Z-0.038
X-50.768 Y-111.73 Z-0.066
X-50.785 Y-112.523 Z-0.093
X-50.766 Y-113.318 Z-0.121
X-50.711 Y-114.106 Z-0.149
X-50.622 Y-114.88 Z-0.176
X-50.5 Y-115.633 Z-0.203
X-50.348 Y-116.358 Z-0.229
X-50.167 Y-117.052 Z-0.254
X-49.962 Y-117.709 Z-0.278
X-49.735 Y-118.329 Z-0.301
X-49.489 Y-118.908 Z-0.323
X-49.227 Y-119.447 Z-0.344
X-48.95 Y-119.945 Z-0.363
X-48.663 Y-120.4 Z-0.382
X-48.368 Y-120.813 Z-0.4
X-48.065 Y-121.186 Z-0.417
X-47.759 Y-121.518 Z-0.433
X-47.45 Y-121.811 Z-0.447
X-47.142 Y-122.065 Z-0.461
X-46.837 Y-122.281 Z-0.474
X-46.533 Y-122.463 Z-0.487
X-46.232 Y-122.612 Z-0.498
X-45.937 Y-122.728 Z-0.51
X-45.646 Y-122.814 Z-0.52
X-45.359 Y-122.873 Z-0.53
X-45.074 Y-122.904 Z-0.54
X-44.79 Y-122.909 Z-0.55
X-44.505 Y-122.889 Z-0.56
X-44.219 Y-122.842 Z-0.57
X-43.931 Y-122.768 Z-0.581
X-43.64 Y-122.665 Z-0.592
X-43.343 Y-122.53 Z-0.603
X-43.041 Y-122.364 Z-0.615
X-42.738 Y-122.165 Z-0.628
X-42.433 Y-121.929 Z-0.641
X-42.128 Y-121.658 Z-0.655
X-41.823 Y-121.346 Z-0.671
X-41.522 Y-120.997 Z-0.687
X-41.227 Y-120.609 Z-0.704
X-40.939 Y-120.179 Z-0.722
X-40.661 Y-119.71 Z-0.741
X-40.395 Y-119.201 Z-0.761
X-40.143 Y-118.651 Z-0.782
X-39.909 Y-118.063 Z-0.804
X-39.694 Y-117.438 Z-0.827
X-39.502 Y-116.776 Z-0.851
X-39.335 Y-116.079 Z-0.876
X-39.196 Y-115.353 Z-0.902
X-39.087 Y-114.6 Z-0.929
X-39.011 Y-113.827 Z-0.956
X-38.969 Y-113.039 Z-0.983
X-38.965 Y-112.562 Z-1
S6000
X-38.963 Y-112.244 F1000
X-38.992 Y-111.45
X-39.057 Y-110.665
X-39.156 Y-109.897
X-39.287 Y-109.152
X-39.448 Y-108.435
X-39.636 Y-107.752
X-39.848 Y-107.105
X-40.081 Y-106.497
X-40.332 Y-105.93
X-40.599 Y-105.403
X-40.879 Y-104.918
X-41.168 Y-104.474
X-41.466 Y-104.073
X-41.77 Y-103.713
X-42.077 Y-103.392
X-42.386 Y-103.111
X-42.694 Y-102.868
X-42.999 Y-102.661
X-43.302 Y-102.49
X-43.6 Y-102.351
X-43.895 Y-102.244
X-44.185 Y-102.165
X-44.471 Y-102.115
X-44.775 Y-102.089
X-44.849 Y-102.088
X-45.157 Y-102.103
X-45.443 Y-102.141
X-45.73 Y-102.207
X-46.02 Y-102.302
X-46.316 Y-102.427
X-46.616 Y-102.583
X-46.918 Y-102.773
X-47.223 Y-102.998
X-47.528 Y-103.259
X-47.833 Y-103.559
X-48.136 Y-103.897
X-48.433 Y-104.274
X-48.724 Y-104.691
X-49.005 Y-105.148
X-49.275 Y-105.646
X-49.531 Y-106.183
X-49.77 Y-106.76
X-49.991 Y-107.375
X-50.19 Y-108.027
X-50.364 Y-108.713
X-50.512 Y-109.431
X-50.63 Y-110.177
X-50.716 Y-110.945
X-50.768 Y-111.73
X-50.785 Y-112.523
X-50.766 Y-113.318
X-50.711 Y-114.106
X-50.622 Y-114.88
X-50.5 Y-115.633
X-50.348 Y-116.358
X-50.167 Y-117.052
X-49.962 Y-117.709
X-49.735 Y-118.329
X-49.489 Y-118.908
X-49.227 Y-119.447
X-48.95 Y-119.945
X-48.663 Y-120.4
X-48.368 Y-120.813
X-48.065 Y-121.186
X-47.759 Y-121.518
X-47.45 Y-121.811
X-47.142 Y-122.065
X-46.837 Y-122.281
X-46.533 Y-122.463
X-46.232 Y-122.612
X-45.937 Y-122.728
X-45.646 Y-122.814
X-45.359 Y-122.873
X-45.074 Y-122.904
X-44.79 Y-122.909
X-44.505 Y-122.889
X-44.219 Y-122.842
X-43.931 Y-122.768
X-43.64 Y-122.665
X-43.343 Y-122.53
X-43.041 Y-122.364
X-42.738 Y-122.165
X-42.433 Y-121.929
X-42.128 Y-121.658
X-41.823 Y-121.346
X-41.522 Y-120.997
X-41.227 Y-120.609
X-40.939 Y-120.179
X-40.661 Y-119.71
X-40.395 Y-119.201
X-40.143 Y-118.651
X-39.909 Y-118.063
X-39.694 Y-117.438
X-39.502 Y-116.776
X-39.335 Y-116.079
X-39.196 Y-115.353
X-39.087 Y-114.6
X-39.011 Y-113.827
X-38.969 Y-113.039
X-38.965 Y-112.562
S5000
X-38.963 Y-112.244 Z-1.011 F333.3
X-38.992 Y-111.45 Z-1.039
X-39.057 Y-110.665 Z-1.066
X-39.156 Y-109.897 Z-1.093
X-39.287 Y-109.152 Z-1.12
X-39.448 Y-108.435 Z-1.145
X-39.636 Y-107.752 Z-1.17
X-39.848 Y-107.105 Z-1.194
X-40.081 Y-106.497 Z-1.217
X-40.332 Y-105.93 Z-1.238
X-40.599 Y-105.403 Z-1.259
X-40.879 Y-104.918 Z-1.279
X-41.168 Y-104.474 Z-1.297
X-41.466 Y-104.073 Z-1.315
X-41.77 Y-103.713 Z-1.331
X-42.077 Y-103.392 Z-1.346
X-42.386 Y-103.111 Z-1.361
X-42.694 Y-102.868 Z-1.375
X-42.999 Y-102.661 Z-1.388
X-43.302 Y-102.49 Z-1.4
X-43.6 Y-102.351 Z-1.411
X-43.895 Y-102.244 Z-1.422
X-44.185 Y-102.165 Z-1.433
X-44.471 Y-102.115 Z-1.443
X-44.775 Y-102.089 Z-1.454
X-44.849 Y-102.088 Z-1.456
X-45.157 Y-102.103 Z-1.467
X-45.443 Y-102.141 Z-1.477
X-45.73 Y-102.207 Z-1.487
X-46.02 Y-102.302 Z-1.498
X-46.316 Y-102.427 Z-1.509
X-46.616 Y-102.583 Z-1.521
X-46.918 Y-102.773 Z-1.533
X-47.223 Y-102.998 Z-1.547
X-47.528 Y-103.259 Z-1.561
X-47.833 Y-103.559 Z-1.576
X-48.136 Y-103.897 Z-1.591
X-48.433 Y-104.274 Z-1.608
X-48.724 Y-104.691 Z-1.626
X-49.005 Y-105.148 Z-1.645
X-49.275 Y-105.646 Z-1.664
X-49.531 Y-106.183 Z-1.685
X-49.77 Y-106.76 Z-1.707
X-49.991 Y-107.375 Z-1.73
X-50.19 Y-108.027 Z-1.754
X-50.364 Y-108.713 Z-1.778
X-50.512 Y-109.431 Z-1.804
X-50.63 Y-110.177 Z-1.83
X-50.716 Y-110.945 Z-1.857
X-50.768 Y-111.73 Z-1.885
X-50.785 Y-112.523 Z-1.913
X-50.766 Y-113.318 Z-1.94
X-50.711 Y-114.106 Z-1.968
X-50.622 Y-114.88 Z-1.995
X-50.6 Y-115.019 Z-2
S6000
X-50.5 Y-115.633 F1000
X-50.348 Y-116.358
X-50.167 Y-117.052
X-49.962 Y-117.709
X-49.735 Y-118.329
X-49.489 Y-118.908
X-49.227 Y-119.447
X-48.95 Y-119.945
X-48.663 Y-120.4
X-48.368 Y-120.813
X-48.065 Y-121.186
X-47.759 Y-121.518
X-47.45 Y-121.811
X-47.142 Y-122.065
X-46.837 Y-122.281
X-46.533 Y-122.463
X-46.232 Y-122.612
X-45.937 Y-122.728
X-45.646 Y-122.814
X-45.359 Y-122.873
X-45.074 Y-122.904
X-44.79 Y-122.909
X-44.505 Y-122.889
X-44.219 Y-122.842
X-43.931 Y-122.768
X-43.64 Y-122.665
X-43.343 Y-122.53
X-43.041 Y-122.364
X-42.738 Y-122.165
X-42.433 Y-121.929
X-42.128 Y-121.658
X-41.823 Y-121.346
X-41.522 Y-120.997
X-41.227 Y-120.609
X-40.939 Y-120.179
X-40.661 Y-119.71
X-40.395 Y-119.201
X-40.143 Y-118.651
X-39.909 Y-118.063
X-39.694 Y-117.438
X-39.502 Y-116.776
X-39.335 Y-116.079
X-39.196 Y-115.353
X-39.087 Y-114.6
X-39.011 Y-113.827
X-38.969 Y-113.039
X-38.965 Y-112.562
X-38.963 Y-112.244
X-38.992 Y-111.45
X-39.057 Y-110.665
X-39.156 Y-109.897
X-39.287 Y-109.152
X-39.448 Y-108.435
X-39.636 Y-107.752
X-39.848 Y-107.105
X-40.081 Y-106.497
X-40.332 Y-105.93
X-40.599 Y-105.403
X-40.879 Y-104.918
X-41.168 Y-104.474
X-41.466 Y-104.073
X-41.77 Y-103.713
X-42.077 Y-103.392
X-42.386 Y-103.111
X-42.694 Y-102.868
X-42.999 Y-102.661
X-43.302 Y-102.49
X-43.6 Y-102.351
X-43.895 Y-102.244
X-44.185 Y-102.165
X-44.471 Y-102.115
X-44.775 Y-102.089
X-44.849 Y-102.088
X-45.157 Y-102.103
X-45.443 Y-102.141
X-45.73 Y-102.207
X-46.02 Y-102.302
X-46.316 Y-102.427
X-46.616 Y-102.583
X-46.918 Y-102.773
X-47.223 Y-102.998
X-47.528 Y-103.259
X-47.833 Y-103.559
X-48.136 Y-103.897
X-48.433 Y-104.274
X-48.724 Y-104.691
X-49.005 Y-105.148
X-49.275 Y-105.646
X-49.531 Y-106.183
X-49.77 Y-106.76
X-49.991 Y-107.375
X-50.19 Y-108.027
X-50.364 Y-108.713
X-50.512 Y-109.431
X-50.63 Y-110.177
X-50.716 Y-110.945
X-50.768 Y-111.73
X-50.785 Y-112.523
X-50.766 Y-113.318
X-50.711 Y-114.106
X-50.622 Y-114.88
X-50.6 Y-115.019
S5000
X-50.5 Y-115.633 Z-2.022 F333.3
X-50.348 Y-116.358 Z-2.048
X-50.167 Y-117.052 Z-2.073
X-49.962 Y-117.709 Z-2.097
X-49.735 Y-118.329 Z-2.12
X-49.489 Y-118.908 Z-2.142
X-49.227 Y-119.447 Z-2.163
X-48.95 Y-119.945 Z-2.183
X-48.663 Y-120.4 Z-2.201
X-48.368 Y-120.813 Z-2.219
X-48.065 Y-121.186 Z-2.236
X-47.759 Y-121.518 Z-2.252
X-47.45 Y-121.811 Z-2.266
X-47.142 Y-122.065 Z-2.28
X-46.837 Y-122.281 Z-2.293
X-46.533 Y-122.463 Z-2.306
X-46.232 Y-122.612 Z-2.318
X-45.937 Y-122.728 Z-2.329
X-45.646 Y-122.814 Z-2.339
X-45.359 Y-122.873 Z-2.349
X-45.074 Y-122.904 Z-2.359
X-44.79 Y-122.909 Z-2.369
X-44.505 Y-122.889 Z-2.379
X-44.219 Y-122.842 Z-2.389
X-43.931 Y-122.768 Z-2.4
X-43.64 Y-122.665 Z-2.411
X-43.343 Y-122.53 Z-2.422
X-43.041 Y-122.364 Z-2.434
X-42.738 Y-122.165 Z-2.447
X-42.433 Y-121.929 Z-2.46
X-42.128 Y-121.658 Z-2.474
X-41.823 Y-121.346 Z-2.49
X-41.522 Y-120.997 Z-2.506
X-41.227 Y-120.609 Z-2.523
X-40.939 Y-120.179 Z-2.541
X-40.661 Y-119.71 Z-2.56
X-40.395 Y-119.201 Z-2.58
X-40.156 Y-118.679 Z-2.6
S6000
X-40.143 Y-118.651 F1000
X-39.909 Y-118.063
X-39.694 Y-117.438
X-39.502 Y-116.776
X-39.335 Y-116.079
X-39.196 Y-115.353
X-39.087 Y-114.6
X-39.011 Y-113.827
X-38.969 Y-113.039
X-38.963 Y-112.244
X-38.992 Y-111.45
X-39.057 Y-110.665
X-39.156 Y-109.897
X-39.287 Y-109.152
X-39.448 Y-108.435
X-39.636 Y-107.752
X-39.848 Y-107.105
X-40.081 Y-106.497
X-40.332 Y-105.93
X-40.599 Y-105.403
X-40.879 Y-104.918
X-41.168 Y-104.474
X-41.466 Y-104.073
X-41.77 Y-103.713
X-42.077 Y-103.392
X-42.386 Y-103.111
X-42.694 Y-102.868
X-42.999 Y-102.661
X-43.302 Y-102.49
X-43.6 Y-102.351
X-43.895 Y-102.244
X-44.185 Y-102.165
X-44.471 Y-102.115
X-44.775 Y-102.089
X-44.849 Y-102.088
X-45.157 Y-102.103
X-45.443 Y-102.141
X-45.73 Y-102.207
X-46.02 Y-102.302
X-46.316 Y-102.427
X-46.616 Y-102.583
X-46.918 Y-102.773
X-47.223 Y-102.998
X-47.528 Y-103.259
X-47.833 Y-103.559
X-48.136 Y-103.897
X-48.433 Y-104.274
X-48.724 Y-104.691
X-49.005 Y-105.148
X-49.275 Y-105.646
X-49.531 Y-106.183
X-49.77 Y-106.76
X-49.991 Y-107.375
X-50.19 Y-108.027
X-50.364 Y-108.713
X-50.512 Y-109.431
X-50.63 Y-110.177
X-50.716 Y-110.945
X-50.768 Y-111.73
X-50.785 Y-112.523
X-50.766 Y-113.318
X-50.711 Y-114.106
X-50.622 Y-114.88
X-50.5 Y-115.633
X-50.348 Y-116.358
X-50.167 Y-117.052
X-49.962 Y-117.709
X-49.735 Y-118.329
X-49.489 Y-118.908
X-49.227 Y-119.447
X-48.95 Y-119.945
X-48.663 Y-120.4
X-48.368 Y-120.813
X-48.065 Y-121.186
X-47.759 Y-121.518
X-47.45 Y-121.811
X-47.142 Y-122.065
X-46.837 Y-122.281
X-46.533 Y-122.463
X-46.232 Y-122.612
X-45.937 Y-122.728
X-45.646 Y-122.814
X-45.359 Y-122.873
X-45.074 Y-122.904
X-44.79 Y-122.909
X-44.505 Y-122.889
X-44.219 Y-122.842
X-43.931 Y-122.768
X-43.64 Y-122.665
X-43.343 Y-122.53
X-43.041 Y-122.364
X-42.738 Y-122.165
X-42.433 Y-121.929
X-42.128 Y-121.658
X-41.823 Y-121.346
X-41.522 Y-120.997
X-41.227 Y-120.609
X-40.939 Y-120.179
X-40.661 Y-119.71
X-40.395 Y-119.201
X-40.156 Y-118.679
S5000
X-40.143 Y-118.651 Z-2.601 F333.3
X-39.909 Y-118.063 Z-2.623
X-39.694 Y-117.438 Z-2.646
X-39.502 Y-116.776 Z-2.67
X-39.335 Y-116.079 Z-2.695
X-39.196 Y-115.353 Z-2.721
X-39.087 Y-114.6 Z-2.748
X-39.011 Y-113.827 Z-2.775
X-38.969 Y-113.039 Z-2.802
X-38.963 Y-112.244 Z-2.83
X-38.992 Y-111.45 Z-2.858
X-39.057 Y-110.665 Z-2.885
X-39.156 Y-109.897 Z-2.912
X-39.287 Y-109.152 Z-2.939
X-39.448 Y-108.435 Z-2.965
X-39.636 Y-107.752 Z-2.989
X-39.848 Y-107.105 Z-3.013
X-40.081 Y-106.497 Z-3.036
X-40.332 Y-105.93 Z-3.057
X-40.599 Y-105.403 Z-3.078
X-40.879 Y-104.918 Z-3.098
X-41.168 Y-104.474 Z-3.116
X-41.466 Y-104.073 Z-3.134
X-41.77 Y-103.713 Z-3.15
X-42.077 Y-103.392 Z-3.166
X-42.386 Y-103.111 Z-3.18
X-42.694 Y-102.868 Z-3.194
X-42.84 Y-102.769 Z-3.2
S6000
X-42.999 Y-102.661 F1000
X-43.302 Y-102.49
X-43.6 Y-102.351
X-43.895 Y-102.244
X-44.185 Y-102.165
X-44.471 Y-102.115
X-44.775 Y-102.089
X-44.849 Y-102.088
X-45.157 Y-102.103
X-45.443 Y-102.141
X-45.73 Y-102.207
X-46.02 Y-102.302
X-46.316 Y-102.427
X-46.616 Y-102.583
X-46.918 Y-102.773
X-47.223 Y-102.998
X-47.528 Y-103.259
X-47.833 Y-103.559
X-48.136 Y-103.897
X-48.433 Y-104.274
X-48.724 Y-104.691
X-49.005 Y-105.148
X-49.275 Y-105.646
X-49.531 Y-106.183
X-49.77 Y-106.76
X-49.991 Y-107.375
X-50.19 Y-108.027
X-50.364 Y-108.713
X-50.512 Y-109.431
X-50.63 Y-110.177
X-50.716 Y-110.945
X-50.768 Y-111.73
X-50.785 Y-112.523
X-50.766 Y-113.318
X-50.711 Y-114.106
X-50.622 Y-114.88
X-50.5 Y-115.633
X-50.348 Y-116.358
X-50.167 Y-117.052
X-49.962 Y-117.709
X-49.735 Y-118.329
X-49.489 Y-118.908
X-49.227 Y-119.447
X-48.95 Y-119.945
X-48.663 Y-120.4
X-48.368 Y-120.813
X-48.065 Y-121.186
X-47.759 Y-121.518
X-47.45 Y-121.811
X-47.142 Y-122.065
X-46.837 Y-122.281
X-46.533 Y-122.463
X-46.232 Y-122.612
X-45.937 Y-122.728
X-45.646 Y-122.814
X-45.359 Y-122.873
X-45.074 Y-122.904
X-44.79 Y-122.909
X-44.505 Y-122.889
X-44.219 Y-122.842
X-43.931 Y-122.768
X-43.64 Y-122.665
X-43.343 Y-122.53
X-43.041 Y-122.364
X-42.738 Y-122.165
X-42.433 Y-121.929
X-42.128 Y-121.658
X-41.823 Y-121.346
X-41.522 Y-120.997
X-41.227 Y-120.609
X-40.939 Y-120.179
X-40.661 Y-119.71
X-40.395 Y-119.201
X-40.156 Y-118.679
X-40.143 Y-118.651
X-39.909 Y-118.063
X-39.694 Y-117.438
X-39.502 Y-116.776
X-39.335 Y-116.079
X-39.196 Y-115.353
X-39.087 Y-114.6
X-39.011 Y-113.827
X-38.969 Y-113.039
X-38.963 Y-112.244
X-38.992 Y-111.45
X-39.057 Y-110.665
X-39.156 Y-109.897
X-39.287 Y-109.152
X-39.448 Y-108.435
X-39.636 Y-107.752
X-39.848 Y-107.105
X-40.081 Y-106.497
X-40.332 Y-105.93
X-40.599 Y-105.403
X-40.879 Y-104.918
X-41.168 Y-104.474
X-41.466 Y-104.073
X-41.77 Y-103.713
X-42.077 Y-103.392
X-42.386 Y-103.111
X-42.694 Y-102.868
X-42.84 Y-102.769
G0 Z5
X-33.148 Y-79.488
G1 Z2.5 F333.3
S5000
X-33.207 Y-79.456 Z2.498
X-33.656 Y-79.245 Z2.48
X-34.154 Y-79.034 Z2.461
X-34.703 Y-78.828 Z2.441
X-35.305 Y-78.626 Z2.419
X-35.961 Y-78.431 Z2.395
X-36.673 Y-78.245 Z2.369
X-37.444 Y-78.068 Z2.342
X-38.276 Y-77.904 Z2.312
X-39.172 Y-77.754 Z2.28
X-40.136 Y-77.621 Z2.246
X-41.171 Y-77.509 Z2.21
X-42.275 Y-77.421 Z2.171
X-43.444 Y-77.363 Z2.13
X-44.662 Y-77.338 Z2.088
X-45.9 Y-77.351 Z2.045
X-47.121 Y-77.4 Z2.002
X-48.291 Y-77.483 Z1.961
X-49.39 Y-77.595 Z1.922
X-50.412 Y-77.73 Z1.886
X-51.356 Y-77.883 Z1.853
X-52.227 Y-78.052 Z1.822
X-53.029 Y-78.234 Z1.793
X-53.766 Y-78.426 Z1.767
X-54.44 Y-78.626 Z1.742
X-55.056 Y-78.832 Z1.719
X-55.616 Y-79.044 Z1.699
X-56.121 Y-79.258 Z1.679
X-56.573 Y-79.474 Z1.662
X-56.973 Y-79.689 Z1.646
X-57.323 Y-79.901 Z1.632
X-57.623 Y-80.107 Z1.619
X-57.875 Y-80.306 Z1.608
X-58.08 Y-80.492 Z1.598
X-58.239 Y-80.664 Z1.59
X-58.357 Y-80.816 Z1.583
X-58.438 Y-80.946 Z1.578
X-58.489 Y-81.053 Z1.574
X-58.516 Y-81.136 Z1.571
X-58.529 Y-81.202 Z1.568
X-58.531 Y-81.259 Z1.566
X-58.526 Y-81.318 Z1.564
X-58.509 Y-81.39 Z1.562
X-58.475 Y-81.48 Z1.558
X-58.415 Y-81.594 Z1.554
X-58.324 Y-81.731 Z1.548
X-58.194 Y-81.889 Z1.541
X-58.022 Y-82.064 Z1.532
X-57.805 Y-82.252 Z1.522
X-57.542 Y-82.451 Z1.511
X-57.232 Y-82.657 Z1.498
X-56.873 Y-82.867 Z1.483
X-56.466 Y-83.079 Z1.467
X-56.01 Y-83.291 Z1.45
X-55.503 Y-83.501 Z1.431
X-54.945 Y-83.707 Z1.41
X-54.334 Y-83.907 Z1.387
X-53.669 Y-84.101 Z1.363
X-52.947 Y-84.286 Z1.337
X-52.166 Y-84.46 Z1.309
X-51.323 Y-84.623 Z1.279
X-50.416 Y-84.77 Z1.247
X-49.44 Y-84.899 Z1.213
X-48.394 Y-85.008 Z1.176
X-47.278 Y-85.091 Z1.137
X-46.099 Y-85.144 Z1.096
X-44.875 Y-85.162 Z1.053
X-43.637 Y-85.144 Z1.01
X-42.423 Y-85.088 Z0.967
X-41.264 Y-85 Z0.927
X-40.178 Y-84.884 Z0.889
X-39.169 Y-84.746 Z0.853
X-38.238 Y-84.589 Z0.82
X-37.378 Y-84.418 Z0.789
X-36.588 Y-84.234 Z0.761
X-35.862 Y-84.041 Z0.735
X-35.197 Y-83.84 Z0.711
X-34.591 Y-83.632 Z0.688
X-34.041 Y-83.42 Z0.668
X-33.545 Y-83.205 Z0.649
X-33.102 Y-82.99 Z0.632
X-32.71 Y-82.775 Z0.616
X-32.368 Y-82.564 Z0.602
X-32.077 Y-82.358 Z0.589
X-31.833 Y-82.162 Z0.579
X-31.636 Y-81.978 Z0.569
X-31.484 Y-81.809 Z0.561
X-31.372 Y-81.66 Z0.555
X-31.297 Y-81.534 Z0.55
X-31.251 Y-81.432 Z0.546
X-31.227 Y-81.351 Z0.543
X-31.213 Y-81.269 Z0.54
X-31.218 Y-81.192 Z0.537
X-31.233 Y-81.124 Z0.535
X-31.264 Y-81.037 Z0.531
X-31.318 Y-80.927 Z0.527
X-31.404 Y-80.794 Z0.522
X-31.528 Y-80.639 Z0.515
X-31.692 Y-80.467 Z0.506
X-31.901 Y-80.28 Z0.497
X-32.156 Y-80.083 Z0.485
X-32.458 Y-79.878 Z0.473
X-32.809 Y-79.668 Z0.458
X-33.207 Y-79.456 Z0.443
X-33.656 Y-79.245 Z0.425
X-34.154 Y-79.034 Z0.406
X-34.703 Y-78.828 Z0.386
X-35.305 Y-78.626 Z0.364
X-35.961 Y-78.431 Z0.34
X-36.673 Y-78.245 Z0.314
X-37.444 Y-78.068 Z0.287
X-38.276 Y-77.904 Z0.257
X-39.172 Y-77.754 Z0.225
X-40.136 Y-77.621 Z0.191
X-41.171 Y-77.509 Z0.155
X-42.275 Y-77.421 Z0.116
X-43.444 Y-77.363 Z0.075
X-44.662 Y-77.338 Z0.033
X-45.9 Y-77.351 Z-0.011
X-47.121 Y-77.4 Z-0.053
X-48.291 Y-77.483 Z-0.094
X-49.39 Y-77.595 Z-0.133
X-50.412 Y-77.73 Z-0.169
X-51.356 Y-77.883 Z-0.202
X-52.227 Y-78.052 Z-0.233
X-53.029 Y-78.234 Z-0.262
X-53.766 Y-78.426 Z-0.288
X-54.44 Y-78.626 Z-0.313
X-55.056 Y-78.832 Z-0.336
X-55.616 Y-79.044 Z-0.357
X-56.121 Y-79.258 Z-0.376
X-56.573 Y-79.474 Z-0.393
X-56.973 Y-79.689 Z-0.409
X-57.323 Y-79.901 Z-0.423
X-57.623 Y-80.107 Z-0.436
X-57.875 Y-80.306 Z-0.447
X-58.08 Y-80.492 Z-0.457
X-58.239 Y-80.664 Z-0.465
X-58.357 Y-80.816 Z-0.472
X-58.438 Y-80.946 Z-0.477
X-58.489 Y-81.053 Z-0.481
X-58.516 Y-81.136 Z-0.484
X-58.529 Y-81.202 Z-0.487
X-58.531 Y-81.259 Z-0.489
X-58.526 Y-81.318 Z-0.491
X-58.509 Y-81.39 Z-0.493
X-58.475 Y-81.48 Z-0.497
X-58.415 Y-81.594 Z-0.501
X-58.324 Y-81.731 Z-0.507
X-58.194 Y-81.889 Z-0.514
X-58.022 Y-82.064 Z-0.523
X-57.805 Y-82.252 Z-0.533
X-57.542 Y-82.451 Z-0.544
X-57.232 Y-82.657 Z-0.557
X-56.873 Y-82.867 Z-0.572
X-56.466 Y-83.079 Z-0.588
X-56.01 Y-83.291 Z-0.605
X-55.503 Y-83.501 Z-0.624
X-54.945 Y-83.707 Z-0.645
X-54.334 Y-83.907 Z-0.668
X-53.669 Y-84.101 Z-0.692
X-52.947 Y-84.286 Z-0.718
X-52.166 Y-84.46 Z-0.746
X-51.323 Y-84.623 Z-0.776
X-50.416 Y-84.77 Z-0.808
X-49.44 Y-84.899 Z-0.842
X-48.394 Y-85.008 Z-0.879
X-47.278 Y-85.091 Z-0.918
X-46.099 Y-85.144 Z-0.959
X-44.934 Y-85.161 Z-1
S6000
X-44.875 Y-85.162 F1000
X-43.637 Y-85.144
X-42.423 Y-85.088
X-41.264 Y-85
X-40.178 Y-84.884
X-39.169 Y-84.746
X-38.238 Y-84.589
X-37.378 Y-84.418
X-36.588 Y-84.234
X-35.862 Y-84.041
X-35.197 Y-83.84
X-34.591 Y-83.632
X-34.041 Y-83.42
X-33.545 Y-83.205
X-33.102 Y-82.99
X-32.71 Y-82.775
X-32.368 Y-82.564
X-32.077 Y-82.358
X-31.833 Y-82.162
X-31.636 Y-81.978
X-31.484 Y-81.809
X-31.372 Y-81.66
X-31.297 Y-81.534
X-31.251 Y-81.432
X-31.227 Y-81.351
X-31.213 Y-81.269
X-31.218 Y-81.192
X-31.233 Y-81.124
X-31.264 Y-81.037
X-31.318 Y-80.927
X-31.404 Y-80.794
X-31.528 Y-80.639
X-31.692 Y-80.467
X-31.901 Y-80.28
X-32.156 Y-80.083
X-32.458 Y-79.878
X-32.809 Y-79.668
X-33.207 Y-79.456
X-33.656 Y-79.245
X-34.154 Y-79.034
X-34.703 Y-78.828
X-35.305 Y-78.626
X-35.961 Y-78.431
X-36.673 Y-78.245
X-37.444 Y-78.068
X-38.276 Y-77.904
X-39.172 Y-77.754
X-40.136 Y-77.621
X-41.171 Y-77.509
X-42.275 Y-77.421
X-43.444 Y-77.363
X-44.662 Y-77.338
X-45.9 Y-77.351
X-47.121 Y-77.4
X-48.291 Y-77.483
X-49.39 Y-77.595
X-50.412 Y-77.73
X-51.356 Y-77.883
X-52.227 Y-78.052
X-53.029 Y-78.234
X-53.766 Y-78.426
X-54.44 Y-78.626
X-55.056 Y-78.832
X-55.616 Y-79.044
X-56.121 Y-79.258
X-56.573 Y-79.474
X-56.973 Y-79.689
X-57.323 Y-79.901
X-57.623 Y-80.107
X-57.875 Y-80.306
X-58.08 Y-80.492
X-58.239 Y-80.664
X-58.357 Y-80.816
X-58.438 Y-80.946
X-58.489 Y-81.053
X-58.516 Y-81.136
X-58.529 Y-81.202
X-58.531 Y-81.259
X-58.526 Y-81.318
X-58.509 Y-81.39
X-58.475 Y-81.48
X-58.415 Y-81.594
X-58.324 Y-81.731
X-58.194 Y-81.889
X-58.022 Y-82.064
X-57.805 Y-82.252
X-57.542 Y-82.451
X-57.232 Y-82.657
X-56.873 Y-82.867
X-56.466 Y-83.079
X-56.01 Y-83.291
X-55.503 Y-83.501
X-54.945 Y-83.707
X-54.334 Y-83.907
X-53.669 Y-84.101
X-52.947 Y-84.286
X-52.166 Y-84.46
X-51.323 Y-84.623
X-50.416 Y-84.77
X-49.44 Y-84.899
X-48.394 Y-85.008
X-47.278 Y-85.091
X-46.099 Y-85.144
X-44.934 Y-85.161
S5000
X-44.875 Y-85.162 Z-1.002 F333.3
X-43.637 Y-85.144 Z-1.045
X-42.423 Y-85.088 Z-1.088
X-41.264 Y-85 Z-1.128
X-40.178 Y-84.884 Z-1.166
X-39.169 Y-84.746 Z-1.202
X-38.238 Y-84.589 Z-1.235
X-37.378 Y-84.418 Z-1.266
X-36.588 Y-84.234 Z-1.294
X-35.862 Y-84.041 Z-1.32
X-35.197 Y-83.84 Z-1.344
X-34.591 Y-83.632 Z-1.367
X-34.041 Y-83.42 Z-1.387
X-33.545 Y-83.205 Z-1.406
X-33.102 Y-82.99 Z-1.423
X-32.71 Y-82.775 Z-1.439
X-32.368 Y-82.564 Z-1.453
X-32.077 Y-82.358 Z-1.466
X-31.833 Y-82.162 Z-1.477
X-31.636 Y-81.978 Z-1.486
X-31.484 Y-81.809 Z-1.494
X-31.372 Y-81.66 Z-1.5
X-31.297 Y-81.534 Z-1.505
X-31.251 Y-81.432 Z-1.509
X-31.227 Y-81.351 Z-1.512
X-31.213 Y-81.269 Z-1.515
X-31.218 Y-81.192 Z-1.518
X-31.233 Y-81.124 Z-1.52
X-31.264 Y-81.037 Z-1.524
X-31.318 Y-80.927 Z-1.528
X-31.404 Y-80.794 Z-1.533
X-31.528 Y-80.639 Z-1.54
X-31.692 Y-80.467 Z-1.549
X-31.901 Y-80.28 Z-1.558
X-32.156 Y-80.083 Z-1.57
X-32.458 Y-79.878 Z-1.582
X-32.809 Y-79.668 Z-1.597
X-33.207 Y-79.456 Z-1.612
X-33.656 Y-79.245 Z-1.63
X-34.154 Y-79.034 Z-1.649
X-34.703 Y-78.828 Z-1.669
X-35.305 Y-78.626 Z-1.691
X-35.961 Y-78.431 Z-1.715
X-36.673 Y-78.245 Z-1.741
X-37.444 Y-78.068 Z-1.769
X-38.276 Y-77.904 Z-1.798
X-39.172 Y-77.754 Z-1.83
X-40.136 Y-77.621 Z-1.864
X-41.171 Y-77.509 Z-1.9
X-42.275 Y-77.421 Z-1.939
X-43.444 Y-77.363 Z-1.98
X-44.023 Y-77.351 Z-2
S6000
X-44.662 Y-77.338 F1000
X-45.9 Y-77.351
X-47.121 Y-77.4
X-48.291 Y-77.483
X-49.39 Y-77.595
X-50.412 Y-77.73
X-51.356 Y-77.883
X-52.227 Y-78.052
X-53.029 Y-78.234
X-53.766 Y-78.426
X-54.44 Y-78.626
X-55.056 Y-78.832
X-55.616 Y-79.044
X-56.121 Y-79.258
X-56.573 Y-79.474
X-56.973 Y-79.689
X-57.323 Y-79.901
X-57.623 Y-80.107
X-57.875 Y-80.306
X-58.08 Y-80.492
X-58.239 Y-80.664
X-58.357 Y-80.816
X-58.438 Y-80.946
X-58.489 Y-81.053
X-58.516 Y-81.136
X-58.529 Y-81.202
X-58.531 Y-81.259
X-58.526 Y-81.318
X-58.509 Y-81.39
X-58.475 Y-81.48
X-58.415 Y-81.594
X-58.324 Y-81.731
X-58.194 Y-81.889
X-58.022 Y-82.064
X-57.805 Y-82.252
X-57.542 Y-82.451
X-57.232 Y-82.657
X-56.873 Y-82.867
X-56.466 Y-83.079
X-56.01 Y-83.291
X-55.503 Y-83.501
X-54.945 Y-83.707
X-54.334 Y-83.907
X-53.669 Y-84.101
X-52.947 Y-84.286
X-52.166 Y-84.46
X-51.323 Y-84.623
X-50.416 Y-84.77
X-49.44 Y-84.899
X-48.394 Y-85.008
X-47.278 Y-85.091
X-46.099 Y-85.144
X-44.934 Y-85.161
X-44.875 Y-85.162
X-43.637 Y-85.144
X-42.423 Y-85.088
X-41.264 Y-85
X-40.178 Y-84.884
X-39.169 Y-84.746
X-38.238 Y-84.589
X-37.378 Y-84.418
X-36.588 Y-84.234
X-35.862 Y-84.041
X-35.197 Y-83.84
X-34.591 Y-83.632
X-34.041 Y-83.42
X-33.545 Y-83.205
X-33.102 Y-82.99
X-32.71 Y-82.775
X-32.368 Y-82.564
X-32.077 Y-82.358
X-31.833 Y-82.162
X-31.636 Y-81.978
X-31.484 Y-81.809
X-31.372 Y-81.66
X-31.297 Y-81.534
X-31.251 Y-81.432
X-31.227 Y-81.351
X-31.213 Y-81.269
X-31.218 Y-81.192
X-31.233 Y-81.124
X-31.264 Y-81.037
X-31.318 Y-80.927
X-31.404 Y-80.794
X-31.528 Y-80.639
X-31.692 Y-80.467
X-31.901 Y-80.28
X-32.156 Y-80.083
X-32.458 Y-79.878
X-32.809 Y-79.668
X-33.207 Y-79.456
X-33.656 Y-79.245
X-34.154 Y-79.034
X-34.703 Y-78.828
X-35.305 Y-78.626
X-35.961 Y-78.431
X-36.673 Y-78.245
X-37.444 Y-78.068
X-38.276 Y-77.904
X-39.172 Y-77.754
X-40.136 Y-77.621
X-41.171 Y-77.509
X-42.275 Y-77.421
X-43.444 Y-77.363
X-44.023 Y-77.351
S5000
X-44.662 Y-77.338 Z-2.022 F333.3
X-45.9 Y-77.351 Z-2.066
X-47.121 Y-77.4 Z-2.108
X-48.291 Y-77.483 Z-2.149
X-49.39 Y-77.595 Z-2.188
X-50.412 Y-77.73 Z-2.224
X-51.356 Y-77.883 Z-2.257
X-52.227 Y-78.052 Z-2.288
X-53.029 Y-78.234 Z-2.317
X-53.766 Y-78.426 Z-2.343
X-54.44 Y-78.626 Z-2.368
X-55.056 Y-78.832 Z-2.391
X-55.616 Y-79.044 Z-2.412
X-56.121 Y-79.258 Z-2.431
X-56.573 Y-79.474 Z-2.448
X-56.973 Y-79.689 Z-2.464
X-57.323 Y-79.901 Z-2.478
X-57.623 Y-80.107 Z-2.491
X-57.875 Y-80.306 Z-2.502
X-58.08 Y-80.492 Z-2.512
X-58.239 Y-80.664 Z-2.52
X-58.357 Y-80.816 Z-2.527
X-58.438 Y-80.946 Z-2.532
X-58.489 Y-81.053 Z-2.536
X-58.516 Y-81.136 Z-2.539
X-58.529 Y-81.202 Z-2.542
X-58.531 Y-81.259 Z-2.544
X-58.526 Y-81.318 Z-2.546
X-58.509 Y-81.39 Z-2.548
X-58.475 Y-81.48 Z-2.552
X-58.415 Y-81.594 Z-2.556
X-58.324 Y-81.731 Z-2.562
X-58.194 Y-81.889 Z-2.569
X-58.022 Y-82.064 Z-2.578
X-57.805 Y-82.252 Z-2.588
X-57.542 Y-82.451 Z-2.599
X-57.525 Y-82.463 Z-2.6
S6000
X-57.232 Y-82.657 F1000
X-56.873 Y-82.867
X-56.466 Y-83.079
X-56.01 Y-83.291
X-55.503 Y-83.501
X-54.945 Y-83.707
X-54.334 Y-83.907
X-53.669 Y-84.101
X-52.947 Y-84.286
X-52.166 Y-84.46
X-51.323 Y-84.623
X-50.416 Y-84.77
X-49.44 Y-84.899
X-48.394 Y-85.008
X-47.278 Y-85.091
X-46.099 Y-85.144
X-44.875 Y-85.162
X-43.637 Y-85.144
X-42.423 Y-85.088
X-41.264 Y-85
X-40.178 Y-84.884
X-39.169 Y-84.746
X-38.238 Y-84.589
X-37.378 Y-84.418
X-36.588 Y-84.234
X-35.862 Y-84.041
X-35.197 Y-83.84
X-34.591 Y-83.632
X-34.041 Y-83.42
X-33.545 Y-83.205
X-33.102 Y-82.99
X-32.71 Y-82.775
X-32.368 Y-82.564
X-32.077 Y-82.358
X-31.833 Y-82.162
X-31.636 Y-81.978
X-31.484 Y-81.809
X-31.372 Y-81.66
X-31.297 Y-81.534
X-31.251 Y-81.432
X-31.227 Y-81.351
X-31.213 Y-81.269
X-31.218 Y-81.192
X-31.233 Y-81.124
X-31.264 Y-81.037
X-31.318 Y-80.927
X-31.404 Y-80.794
X-31.528 Y-80.639
X-31.692 Y-80.467
X-31.901 Y-80.28
X-32.156 Y-80.083
X-32.458 Y-79.878
X-32.809 Y-79.668
X-33.207 Y-79.456
X-33.656 Y-79.245
X-34.154 Y-79.034
X-34.703 Y-78.828
X-35.305 Y-78.626
X-35.961 Y-78.431
X-36.673 Y-78.245
X-37.444 Y-78.068
X-38.276 Y-77.904
X-39.172 Y-77.754
X-40.136 Y-77.621
X-41.171 Y-77.509
X-42.275 Y-77.421
X-43.444 Y-77.363
X-44.662 Y-77.338
X-45.9 Y-77.351
X-47.121 Y-77.4
X-48.291 Y-77.483
X-49.39 Y-77.595
X-50.412 Y-77.73
X-51.356 Y-77.883
X-52.227 Y-78.052
X-53.029 Y-78.234
X-53.766 Y-78.426
X-54.44 Y-78.626
X-55.056 Y-78.832
X-55.616 Y-79.044
X-56.121 Y-79.258
X-56.573 Y-79.474
X-56.973 Y-79.689
X-57.323 Y-79.901
X-57.623 Y-80.107
X-57.875 Y-80.306
X-58.08 Y-80.492
X-58.239 Y-80.664
X-58.357 Y-80.816
X-58.438 Y-80.946
X-58.489 Y-81.053
X-58.516 Y-81.136
X-58.529 Y-81.202
X-58.531 Y-81.259
X-58.526 Y-81.318
X-58.509 Y-81.39
X-58.475 Y-81.48
X-58.415 Y-81.594
X-58.324 Y-81.731
X-58.194 Y-81.889
X-58.022 Y-82.064
X-57.805 Y-82.252
X-57.542 Y-82.451
X-57.525 Y-82.463
S5000
X-57.232 Y-82.657 Z-2.612 F333.3
X-56.873 Y-82.867 Z-2.627
X-56.466 Y-83.079 Z-2.643
X-56.01 Y-83.291 Z-2.66
X-55.503 Y-83.501 Z-2.68
X-54.945 Y-83.707 Z-2.7
X-54.334 Y-83.907 Z-2.723
X-53.669 Y-84.101 Z-2.747
X-52.947 Y-84.286 Z-2.773
X-52.166 Y-84.46 Z-2.801
X-51.323 Y-84.623 Z-2.831
X-50.416 Y-84.77 Z-2.863
X-49.44 Y-84.899 Z-2.897
X-48.394 Y-85.008 Z-2.934
X-47.278 Y-85.091 Z-2.973
X-46.099 Y-85.144 Z-3.014
X-44.875 Y-85.162 Z-3.057
X-43.637 Y-85.144 Z-3.1
X-42.423 Y-85.088 Z-3.143
X-41.264 Y-85 Z-3.183
X-40.791 Y-84.949 Z-3.2
S6000
X-40.178 Y-84.884 F1000
X-39.169 Y-84.746
X-38.238 Y-84.589
X-37.378 Y-84.418
X-36.588 Y-84.234
X-35.862 Y-84.041
X-35.197 Y-83.84
X-34.591 Y-83.632
X-34.041 Y-83.42
X-33.545 Y-83.205
X-33.102 Y-82.99
X-32.71 Y-82.775
X-32.368 Y-82.564
X-32.077 Y-82.358
X-31.833 Y-82.162
X-31.636 Y-81.978
X-31.484 Y-81.809
X-31.372 Y-81.66
X-31.297 Y-81.534
X-31.251 Y-81.432
X-31.227 Y-81.351
X-31.213 Y-81.269
X-31.218 Y-81.192
X-31.233 Y-81.124
X-31.264 Y-81.037
X-31.318 Y-80.927
X-31.404 Y-80.794
X-31.528 Y-80.639
X-31.692 Y-80.467
X-31.901 Y-80.28
X-32.156 Y-80.083
X-32.458 Y-79.878
X-32.809 Y-79.668
X-33.207 Y-79.456
X-33.656 Y-79.245
X-34.154 Y-79.034
X-34.703 Y-78.828
X-35.305 Y-78.626
X-35.961 Y-78.431
X-36.673 Y-78.245
X-37.444 Y-78.068
X-38.276 Y-77.904
X-39.172 Y-77.754
X-40.136 Y-77.621
X-41.171 Y-77.509
X-42.275 Y-77.421
X-43.444 Y-77.363
X-44.662 Y-77.338
X-45.9 Y-77.351
X-47.121 Y-77.4
X-48.291 Y-77.483
X-49.39 Y-77.595
X-50.412 Y-77.73
X-51.356 Y-77.883
X-52.227 Y-78.052
X-53.029 Y-78.234
X-53.766 Y-78.426
X-54.44 Y-78.626
X-55.056 Y-78.832
X-55.616 Y-79.044
X-56.121 Y-79.258
X-56.573 Y-79.474
X-56.973 Y-79.689
X-57.323 Y-79.901
X-57.623 Y-80.107
X-57.875 Y-80.306
X-58.08 Y-80.492
X-58.239 Y-80.664
X-58.357 Y-80.816
X-58.438 Y-80.946
X-58.489 Y-81.053
X-58.516 Y-81.136
X-58.529 Y-81.202
X-58.531 Y-81.259
X-58.526 Y-81.318
X-58.509 Y-81.39
X-58.475 Y-81.48
X-58.415 Y-81.594
X-58.324 Y-81.731
X-58.194 Y-81.889
X-58.022 Y-82.064
X-57.805 Y-82.252
X-57.542 Y-82.451
X-57.232 Y-82.657
X-56.873 Y-82.867
X-56.466 Y-83.079
X-56.01 Y-83.291
X-55.503 Y-83.501
X-54.945 Y-83.707
X-54.334 Y-83.907
X-53.669 Y-84.101
X-52.947 Y-84.286
X-52.166 Y-84.46
X-51.323 Y-84.623
X-50.416 Y-84.77
X-49.44 Y-84.899
X-48.394 Y-85.008
X-47.278 Y-85.091
X-46.099 Y-85.144
X-44.875 Y-85.162
X-43.637 Y-85.144
X-42.423 Y-85.088
X-41.264 Y-85
X-40.791 Y-84.949
G0 Z5
X-46.95 Y-69.203
G1 Z2.5 F333.3
S5000
G3 X-42.796 Y-48.797 Z1.358 I2.077 J10.203
X-46.95 Y-69.203 Z0.215 I-2.077 J-10.203
X-34.513 Y-60.044 Z-0.392 I2.077 J10.203
X-44.873 Y-48.588 Z-1 I-10.36 J1.044
S6000
X-44.873 Y-69.412 I0 J-10.412 F1000
X-44.873 Y-48.588 I0 J10.412
S5000
X-48.845 Y-68.625 Z-2 I0 J-10.412 F333.3
S6000
X-40.901 Y-49.375 I3.972 J9.625 F1000
X-48.845 Y-68.625 I-3.972 J-9.625
S5000
X-34.963 Y-62.197 Z-2.6 I3.972 J9.625 F333.3
S6000
X-54.782 Y-55.803 I-9.909 J3.197 F1000
X-34.963 Y-62.197 I9.909 J-3.197
S5000
X-42.471 Y-48.868 Z-3.2 I-9.909 J3.197 F333.3
S6000
X-47.275 Y-69.132 I-2.402 J-10.132 F1000
X-42.471 Y-48.868 I2.402 J10.132
G0 Z5
X-57.668 Y-138.921
G1 Z2.5 F333.3
S5000
X-57.591 Y-138.99 Z2.496
X-57.336 Y-139.189 Z2.485
X-57.033 Y-139.395 Z2.472
X-56.683 Y-139.606 Z2.458
X-56.285 Y-139.819 Z2.442
X-55.837 Y-140.032 Z2.425
X-55.34 Y-140.243 Z2.406
X-54.792 Y-140.449 Z2.386
X-54.19 Y-140.651 Z2.363
X-53.534 Y-140.846 Z2.34
X-52.823 Y-141.033 Z2.314
X-52.054 Y-141.208 Z2.286
X-51.222 Y-141.371 Z2.257
X-50.327 Y-141.519 Z2.225
X-49.365 Y-141.649 Z2.191
X-48.333 Y-141.758 Z2.155
X-47.235 Y-141.841 Z2.116
X-46.076 Y-141.894 Z2.076
X-44.873 Y-141.912 Z2.034
X-43.656 Y-141.893 Z1.991
X-42.464 Y-141.838 Z1.95
X-41.324 Y-141.749 Z1.91
X-40.254 Y-141.633 Z1.872
X-39.261 Y-141.495 Z1.837
X-38.342 Y-141.337 Z1.805
X-37.495 Y-141.165 Z1.775
X-36.716 Y-140.98 Z1.747
X-36 Y-140.786 Z1.721
X-35.346 Y-140.584 Z1.697
X-34.749 Y-140.375 Z1.675
X-34.208 Y-140.162 Z1.654
X-33.722 Y-139.946 Z1.636
X-33.288 Y-139.73 Z1.619
X-32.905 Y-139.515 Z1.603
X-32.571 Y-139.302 Z1.59
X-32.287 Y-139.097 Z1.577
X-32.052 Y-138.902 Z1.567
X-31.862 Y-138.717 Z1.557
X-31.716 Y-138.55 Z1.55
X-31.611 Y-138.403 Z1.543
X-31.54 Y-138.278 Z1.538
X-31.497 Y-138.177 Z1.535
X-31.475 Y-138.096 Z1.532
X-31.465 Y-138.03 Z1.529
Y-137.97 Z1.527
X-31.475 Y-137.904 Z1.525
X-31.497 Y-137.823 Z1.522
X-31.54 Y-137.722 Z1.518
X-31.61 Y-137.598 Z1.513
X-31.715 Y-137.451 Z1.507
X-31.859 Y-137.286 Z1.499
X-32.046 Y-137.104 Z1.49
X-32.279 Y-136.909 Z1.48
X-32.555 Y-136.708 Z1.468
X-32.881 Y-136.5 Z1.454
X-33.256 Y-136.287 Z1.439
X-33.68 Y-136.074 Z1.422
X-34.151 Y-135.862 Z1.404
X-34.675 Y-135.653 Z1.385
X-35.251 Y-135.448 Z1.363
X-35.878 Y-135.25 Z1.34
X-36.562 Y-135.059 Z1.316
X-37.302 Y-134.878 Z1.289
X-38.103 Y-134.708 Z1.26
X-38.965 Y-134.552 Z1.23
X-39.893 Y-134.413 Z1.197
X-40.89 Y-134.294 Z1.162
X-41.957 Y-134.197 Z1.125
X-43.087 Y-134.128 Z1.085
X-44.271 Y-134.092 Z1.044
X-45.485 Z1.001
X-46.693 Y-134.13 Z0.959
X-47.863 Y-134.203 Z0.918
X-48.969 Y-134.305 Z0.879
X-50 Y-134.433 Z0.843
X-50.955 Y-134.582 Z0.809
X-51.838 Y-134.748 Z0.778
X-52.651 Y-134.926 Z0.749
X-53.397 Y-135.116 Z0.722
X-54.082 Y-135.315 Z0.697
X-54.706 Y-135.52 Z0.674
X-55.275 Y-135.732 Z0.653
X-55.789 Y-135.947 Z0.633
X-56.249 Y-136.163 Z0.616
X-56.658 Y-136.379 Z0.6
X-57.015 Y-136.592 Z0.585
X-57.323 Y-136.801 Z0.572
X-57.583 Y-137.003 Z0.561
X-57.796 Y-137.193 Z0.551
X-57.962 Y-137.368 Z0.542
X-58.087 Y-137.526 Z0.535
X-58.175 Y-137.663 Z0.529
X-58.231 Y-137.776 Z0.525
X-58.262 Y-137.866 Z0.522
X-58.277 Y-137.938 Z0.519
X-58.282 Y-138 Z0.517
X-58.277 Y-138.062 Z0.515
X-58.262 Y-138.135 Z0.512
X-58.231 Y-138.224 Z0.509
X-58.175 Y-138.337 Z0.505
X-58.088 Y-138.472 Z0.499
X-57.965 Y-138.628 Z0.492
X-57.8 Y-138.802 Z0.484
X-57.591 Y-138.99 Z0.474
X-57.336 Y-139.189 Z0.462
X-57.033 Y-139.395 Z0.45
X-56.683 Y-139.606 Z0.435
X-56.285 Y-139.819 Z0.42
X-55.837 Y-140.032 Z0.402
X-55.34 Y-140.243 Z0.383
X-54.792 Y-140.449 Z0.363
X-54.19 Y-140.651 Z0.341
X-53.534 Y-140.846 Z0.317
X-52.823 Y-141.033 Z0.291
X-52.054 Y-141.208 Z0.264
X-51.222 Y-141.371 Z0.234
X-50.327 Y-141.519 Z0.202
X-49.365 Y-141.649 Z0.169
X-48.333 Y-141.758 Z0.132
X-47.235 Y-141.841 Z0.094
X-46.076 Y-141.894 Z0.053
X-44.873 Y-141.912 Z0.011
X-43.656 Y-141.893 Z-0.031
X-42.464 Y-141.838 Z-0.073
X-41.324 Y-141.749 Z-0.113
X-40.254 Y-141.633 Z-0.15
X-39.261 Y-141.495 Z-0.185
X-38.342 Y-141.337 Z-0.218
X-37.495 Y-141.165 Z-0.248
X-36.716 Y-140.98 Z-0.276
X-36 Y-140.786 Z-0.302
X-35.346 Y-140.584 Z-0.326
X-34.749 Y-140.375 Z-0.348
X-34.208 Y-140.162 Z-0.368
X-33.722 Y-139.946 Z-0.387
X-33.288 Y-139.73 Z-0.404
X-32.905 Y-139.515 Z-0.419
X-32.571 Y-139.302 Z-0.433
X-32.287 Y-139.097 Z-0.445
X-32.052 Y-138.902 Z-0.456
X-31.862 Y-138.717 Z-0.465
X-31.716 Y-138.55 Z-0.473
X-31.611 Y-138.403 Z-0.479
X-31.54 Y-138.278 Z-0.484
X-31.497 Y-138.177 Z-0.488
X-31.475 Y-138.096 Z-0.491
X-31.465 Y-138.03 Z-0.493
Y-137.97 Z-0.495
X-31.475 Y-137.904 Z-0.498
X-31.497 Y-137.823 Z-0.501
X-31.54 Y-137.722 Z-0.504
X-31.61 Y-137.598 Z-0.509
X-31.715 Y-137.451 Z-0.516
X-31.859 Y-137.286 Z-0.523
X-32.046 Y-137.104 Z-0.532
X-32.279 Y-136.909 Z-0.543
X-32.555 Y-136.708 Z-0.555
X-32.881 Y-136.5 Z-0.569
X-33.256 Y-136.287 Z-0.584
X-33.68 Y-136.074 Z-0.6
X-34.151 Y-135.862 Z-0.618
X-34.675 Y-135.653 Z-0.638
X-35.251 Y-135.448 Z-0.659
X-35.878 Y-135.25 Z-0.682
X-36.562 Y-135.059 Z-0.707
X-37.302 Y-134.878 Z-0.734
X-38.103 Y-134.708 Z-0.762
X-38.965 Y-134.552 Z-0.793
X-39.893 Y-134.413 Z-0.826
X-40.89 Y-134.294 Z-0.861
X-41.957 Y-134.197 Z-0.898
X-43.087 Y-134.128 Z-0.938
X-44.271 Y-134.092 Z-0.979
X-44.874 Z-1
S6000
X-45.485 F1000
X-46.693 Y-134.13
X-47.863 Y-134.203
X-48.969 Y-134.305
X-50 Y-134.433
X-50.955 Y-134.582
X-51.838 Y-134.748
X-52.651 Y-134.926
X-53.397 Y-135.116
X-54.082 Y-135.315
X-54.706 Y-135.52
X-55.275 Y-135.732
X-55.789 Y-135.947
X-56.249 Y-136.163
X-56.658 Y-136.379
X-57.015 Y-136.592
X-57.323 Y-136.801
X-57.583 Y-137.003
X-57.796 Y-137.193
X-57.962 Y-137.368
X-58.087 Y-137.526
X-58.175 Y-137.663
X-58.231 Y-137.776
X-58.262 Y-137.866
X-58.277 Y-137.938
X-58.282 Y-138
X-58.277 Y-138.062
X-58.262 Y-138.135
X-58.231 Y-138.224
X-58.175 Y-138.337
X-58.088 Y-138.472
X-57.965 Y-138.628
X-57.8 Y-138.802
X-57.591 Y-138.99
X-57.336 Y-139.189
X-57.033 Y-139.395
X-56.683 Y-139.606
X-56.285 Y-139.819
X-55.837 Y-140.032
X-55.34 Y-140.243
X-54.792 Y-140.449
X-54.19 Y-140.651
X-53.534 Y-140.846
X-52.823 Y-141.033
X-52.054 Y-141.208
X-51.222 Y-141.371
X-50.327 Y-141.519
X-49.365 Y-141.649
X-48.333 Y-141.758
X-47.235 Y-141.841
X-46.076 Y-141.894
X-44.873 Y-141.912
X-43.656 Y-141.893
X-42.464 Y-141.838
X-41.324 Y-141.749
X-40.254 Y-141.633
X-39.261 Y-141.495
X-38.342 Y-141.337
X-37.495 Y-141.165
X-36.716 Y-140.98
X-36 Y-140.786
X-35.346 Y-140.584
X-34.749 Y-140.375
X-34.208 Y-140.162
X-33.722 Y-139.946
X-33.288 Y-139.73
X-32.905 Y-139.515
X-32.571 Y-139.302
X-32.287 Y-139.097
X-32.052 Y-138.902
X-31.862 Y-138.717
X-31.716 Y-138.55
X-31.611 Y-138.403
X-31.54 Y-138.278
X-31.497 Y-138.177
X-31.475 Y-138.096
X-31.465 Y-138.03
Y-137.97
X-31.475 Y-137.904
X-31.497 Y-137.823
X-31.54 Y-137.722
X-31.61 Y-137.598
X-31.715 Y-137.451
X-31.859 Y-137.286
X-32.046 Y-137.104
X-32.279 Y-136.909
X-32.555 Y-136.708
X-32.881 Y-136.5
X-33.256 Y-136.287
X-33.68 Y-136.074
X-34.151 Y-135.862
X-34.675 Y-135.653
X-35.251 Y-135.448
X-35.878 Y-135.25
X-36.562 Y-135.059
X-37.302 Y-134.878
X-38.103 Y-134.708
X-38.965 Y-134.552
X-39.893 Y-134.413
X-40.89 Y-134.294
X-41.957 Y-134.197
X-43.087 Y-134.128
X-44.271 Y-134.092
X-44.874
S5000
X-45.485 Z-1.021 F333.3
X-46.693 Y-134.13 Z-1.064
X-47.863 Y-134.203 Z-1.104
X-48.969 Y-134.305 Z-1.143
X-50 Y-134.433 Z-1.18
X-50.955 Y-134.582 Z-1.213
X-51.838 Y-134.748 Z-1.245
X-52.651 Y-134.926 Z-1.274
X-53.397 Y-135.116 Z-1.301
X-54.082 Y-135.315 Z-1.326
X-54.706 Y-135.52 Z-1.348
X-55.275 Y-135.732 Z-1.37
X-55.789 Y-135.947 Z-1.389
X-56.249 Y-136.163 Z-1.407
X-56.658 Y-136.379 Z-1.423
X-57.015 Y-136.592 Z-1.438
X-57.323 Y-136.801 Z-1.451
X-57.583 Y-137.003 Z-1.462
X-57.796 Y-137.193 Z-1.472
X-57.962 Y-137.368 Z-1.48
X-58.087 Y-137.526 Z-1.487
X-58.175 Y-137.663 Z-1.493
X-58.231 Y-137.776 Z-1.498
X-58.262 Y-137.866 Z-1.501
X-58.277 Y-137.938 Z-1.503
X-58.282 Y-138 Z-1.506
X-58.277 Y-138.062 Z-1.508
X-58.262 Y-138.135 Z-1.51
X-58.231 Y-138.224 Z-1.514
X-58.175 Y-138.337 Z-1.518
X-58.088 Y-138.472 Z-1.524
X-57.965 Y-138.628 Z-1.531
X-57.8 Y-138.802 Z-1.539
X-57.591 Y-138.99 Z-1.549
X-57.336 Y-139.189 Z-1.56
X-57.033 Y-139.395 Z-1.573
X-56.683 Y-139.606 Z-1.587
X-56.285 Y-139.819 Z-1.603
X-55.837 Y-140.032 Z-1.62
X-55.34 Y-140.243 Z-1.639
X-54.792 Y-140.449 Z-1.66
X-54.19 Y-140.651 Z-1.682
X-53.534 Y-140.846 Z-1.706
X-52.823 Y-141.033 Z-1.731
X-52.054 Y-141.208 Z-1.759
X-51.222 Y-141.371 Z-1.788
X-50.327 Y-141.519 Z-1.82
X-49.365 Y-141.649 Z-1.854
X-48.333 Y-141.758 Z-1.89
X-47.235 Y-141.841 Z-1.929
X-46.076 Y-141.894 Z-1.969
X-45.195 Y-141.907 Z-2
S6000
X-44.873 Y-141.912 F1000
X-43.656 Y-141.893
X-42.464 Y-141.838
X-41.324 Y-141.749
X-40.254 Y-141.633
X-39.261 Y-141.495
X-38.342 Y-141.337
X-37.495 Y-141.165
X-36.716 Y-140.98
X-36 Y-140.786
X-35.346 Y-140.584
X-34.749 Y-140.375
X-34.208 Y-140.162
X-33.722 Y-139.946
X-33.288 Y-139.73
X-32.905 Y-139.515
X-32.571 Y-139.302
X-32.287 Y-139.097
X-32.052 Y-138.902
X-31.862 Y-138.717
X-31.716 Y-138.55
X-31.611 Y-138.403
X-31.54 Y-138.278
X-31.497 Y-138.177
X-31.475 Y-138.096
X-31.465 Y-138.03
Y-137.97
X-31.475 Y-137.904
X-31.497 Y-137.823
X-31.54 Y-137.722
X-31.61 Y-137.598
X-31.715 Y-137.451
X-31.859 Y-137.286
X-32.046 Y-137.104
X-32.279 Y-136.909
X-32.555 Y-136.708
X-32.881 Y-136.5
X-33.256 Y-136.287
X-33.68 Y-136.074
X-34.151 Y-135.862
X-34.675 Y-135.653
X-35.251 Y-135.448
X-35.878 Y-135.25
X-36.562 Y-135.059
X-37.302 Y-134.878
X-38.103 Y-134.708
X-38.965 Y-134.552
X-39.893 Y-134.413
X-40.89 Y-134.294
X-41.957 Y-134.197
X-43.087 Y-134.128
X-44.271 Y-134.092
X-45.485
X-46.693 Y-134.13
X-47.863 Y-134.203
X-48.969 Y-134.305
X-50 Y-134.433
X-50.955 Y-134.582
X-51.838 Y-134.748
X-52.651 Y-134.926
X-53.397 Y-135.116
X-54.082 Y-135.315
X-54.706 Y-135.52
X-55.275 Y-135.732
X-55.789 Y-135.947
X-56.249 Y-136.163
X-56.658 Y-136.379
X-57.015 Y-136.592
X-57.323 Y-136.801
X-57.583 Y-137.003
X-57.796 Y-137.193
X-57.962 Y-137.368
X-58.087 Y-137.526
X-58.175 Y-137.663
X-58.231 Y-137.776
X-58.262 Y-137.866
X-58.277 Y-137.938
X-58.282 Y-138
X-58.277 Y-138.062
X-58.262 Y-138.135
X-58.231 Y-138.224
X-58.175 Y-138.337
X-58.088 Y-138.472
X-57.965 Y-138.628
X-57.8 Y-138.802
X-57.591 Y-138.99
X-57.336 Y-139.189
X-57.033 Y-139.395
X-56.683 Y-139.606
X-56.285 Y-139.819
X-55.837 Y-140.032
X-55.34 Y-140.243
X-54.792 Y-140.449
X-54.19 Y-140.651
X-53.534 Y-140.846
X-52.823 Y-141.033
X-52.054 Y-141.208
X-51.222 Y-141.371
X-50.327 Y-141.519
X-49.365 Y-141.649
X-48.333 Y-141.758
X-47.235 Y-141.841
X-46.076 Y-141.894
X-45.195 Y-141.907
S5000
X-44.873 Y-141.912 Z-2.011 F333.3
X-43.656 Y-141.893 Z-2.054
X-42.464 Y-141.838 Z-2.095
X-41.324 Y-141.749 Z-2.135
X-40.254 Y-141.633 Z-2.173
X-39.261 Y-141.495 Z-2.208
X-38.342 Y-141.337 Z-2.241
X-37.495 Y-141.165 Z-2.271
X-36.716 Y-140.98 Z-2.299
X-36 Y-140.786 Z-2.325
X-35.346 Y-140.584 Z-2.348
X-34.749 Y-140.375 Z-2.371
X-34.208 Y-140.162 Z-2.391
X-33.722 Y-139.946 Z-2.409
X-33.288 Y-139.73 Z-2.426
X-32.905 Y-139.515 Z-2.442
X-32.571 Y-139.302 Z-2.456
X-32.287 Y-139.097 Z-2.468
X-32.052 Y-138.902 Z-2.478
X-31.862 Y-138.717 Z-2.488
X-31.716 Y-138.55 Z-2.495
X-31.611 Y-138.403 Z-2.502
X-31.54 Y-138.278 Z-2.507
X-31.497 Y-138.177 Z-2.511
X-31.475 Y-138.096 Z-2.514
X-31.465 Y-138.03 Z-2.516
Y-137.97 Z-2.518
X-31.475 Y-137.904 Z-2.52
X-31.497 Y-137.823 Z-2.523
X-31.54 Y-137.722 Z-2.527
X-31.61 Y-137.598 Z-2.532
X-31.715 Y-137.451 Z-2.538
X-31.859 Y-137.286 Z-2.546
X-32.046 Y-137.104 Z-2.555
X-32.279 Y-136.909 Z-2.566
X-32.555 Y-136.708 Z-2.578
X-32.881 Y-136.5 Z-2.591
X-33.102 Y-136.375 Z-2.6
S6000
X-33.256 Y-136.287 F1000
X-33.68 Y-136.074
X-34.151 Y-135.862
X-34.675 Y-135.653
X-35.251 Y-135.448
X-35.878 Y-135.25
X-36.562 Y-135.059
X-37.302 Y-134.878
X-38.103 Y-134.708
X-38.965 Y-134.552
X-39.893 Y-134.413
X-40.89 Y-134.294
X-41.957 Y-134.197
X-43.087 Y-134.128
X-44.271 Y-134.092
X-45.485
X-46.693 Y-134.13
X-47.863 Y-134.203
X-48.969 Y-134.305
X-50 Y-134.433
X-50.955 Y-134.582
X-51.838 Y-134.748
X-52.651 Y-134.926
X-53.397 Y-135.116
X-54.082 Y-135.315
X-54.706 Y-135.52
X-55.275 Y-135.732
X-55.789 Y-135.947
X-56.249 Y-136.163
X-56.658 Y-136.379
X-57.015 Y-136.592
X-57.323 Y-136.801
X-57.583 Y-137.003
X-57.796 Y-137.193
X-57.962 Y-137.368
X-58.087 Y-137.526
X-58.175 Y-137.663
X-58.231 Y-137.776
X-58.262 Y-137.866
X-58.277 Y-137.938
X-58.282 Y-138
X-58.277 Y-138.062
X-58.262 Y-138.135
X-58.231 Y-138.224
X-58.175 Y-138.337
X-58.088 Y-138.472
X-57.965 Y-138.628
X-57.8 Y-138.802
X-57.591 Y-138.99
X-57.336 Y-139.189
X-57.033 Y-139.395
X-56.683 Y-139.606
X-56.285 Y-139.819
X-55.837 Y-140.032
X-55.34 Y-140.243
X-54.792 Y-140.449
X-54.19 Y-140.651
X-53.534 Y-140.846
X-52.823 Y-141.033
X-52.054 Y-141.208
X-51.222 Y-141.371
X-50.327 Y-141.519
X-49.365 Y-141.649
X-48.333 Y-141.758
X-47.235 Y-141.841
X-46.076 Y-141.894
X-45.195 Y-141.907
X-44.873 Y-141.912
X-43.656 Y-141.893
X-42.464 Y-141.838
X-41.324 Y-141.749
X-40.254 Y-141.633
X-39.261 Y-141.495
X-38.342 Y-141.337
X-37.495 Y-141.165
X-36.716 Y-140.98
X-36 Y-140.786
X-35.346 Y-140.584
X-34.749 Y-140.375
X-34.208 Y-140.162
X-33.722 Y-139.946
X-33.288 Y-139.73
X-32.905 Y-139.515
X-32.571 Y-139.302
X-32.287 Y-139.097
X-32.052 Y-138.902
X-31.862 Y-138.717
X-31.716 Y-138.55
X-31.611 Y-138.403
X-31.54 Y-138.278
X-31.497 Y-138.177
X-31.475 Y-138.096
X-31.465 Y-138.03
Y-137.97
X-31.475 Y-137.904
X-31.497 Y-137.823
X-31.54 Y-137.722
X-31.61 Y-137.598
X-31.715 Y-137.451
X-31.859 Y-137.286
X-32.046 Y-137.104
X-32.279 Y-136.909
X-32.555 Y-136.708
X-32.881 Y-136.5
X-33.102 Y-136.375
S5000
X-33.256 Y-136.287 Z-2.606 F333.3
X-33.68 Y-136.074 Z-2.623
X-34.151 Y-135.862 Z-2.641
X-34.675 Y-135.653 Z-2.66
X-35.251 Y-135.448 Z-2.682
X-35.878 Y-135.25 Z-2.705
X-36.562 Y-135.059 Z-2.73
X-37.302 Y-134.878 Z-2.756
X-38.103 Y-134.708 Z-2.785
X-38.965 Y-134.552 Z-2.815
X-39.893 Y-134.413 Z-2.848
X-40.89 Y-134.294 Z-2.883
X-41.957 Y-134.197 Z-2.921
X-43.087 Y-134.128 Z-2.96
X-44.271 Y-134.092 Z-3.002
X-45.485 Z-3.044
X-46.693 Y-134.13 Z-3.086
X-47.863 Y-134.203 Z-3.127
X-48.969 Y-134.305 Z-3.166
X-49.94 Y-134.426 Z-3.2
S6000
X-50 Y-134.433 F1000
X-50.955 Y-134.582
X-51.838 Y-134.748
X-52.651 Y-134.926
X-53.397 Y-135.116
X-54.082 Y-135.315
X-54.706 Y-135.52
X-55.275 Y-135.732
X-55.789 Y-135.947
X-56.249 Y-136.163
X-56.658 Y-136.379
X-57.015 Y-136.592
X-57.323 Y-136.801
X-57.583 Y-137.003
X-57.796 Y-137.193
X-57.962 Y-137.368
X-58.087 Y-137.526
X-58.175 Y-137.663
X-58.231 Y-137.776
X-58.262 Y-137.866
X-58.277 Y-137.938
X-58.282 Y-138
X-58.277 Y-138.062
X-58.262 Y-138.135
X-58.231 Y-138.224
X-58.175 Y-138.337
X-58.088 Y-138.472
X-57.965 Y-138.628
X-57.8 Y-138.802
X-57.591 Y-138.99
X-57.336 Y-139.189
X-57.033 Y-139.395
X-56.683 Y-139.606
X-56.285 Y-139.819
X-55.837 Y-140.032
X-55.34 Y-140.243
X-54.792 Y-140.449
X-54.19 Y-140.651
X-53.534 Y-140.846
X-52.823 Y-141.033
X-52.054 Y-141.208
X-51.222 Y-141.371
X-50.327 Y-141.519
X-49.365 Y-141.649
X-48.333 Y-141.758
X-47.235 Y-141.841
X-46.076 Y-141.894
X-44.873 Y-141.912
X-43.656 Y-141.893
X-42.464 Y-141.838
X-41.324 Y-141.749
X-40.254 Y-141.633
X-39.261 Y-141.495
X-38.342 Y-141.337
X-37.495 Y-141.165
X-36.716 Y-140.98
X-36 Y-140.786
X-35.346 Y-140.584
X-34.749 Y-140.375
X-34.208 Y-140.162
X-33.722 Y-139.946
X-33.288 Y-139.73
X-32.905 Y-139.515
X-32.571 Y-139.302
X-32.287 Y-139.097
X-32.052 Y-138.902
X-31.862 Y-138.717
X-31.716 Y-138.55
X-31.611 Y-138.403
X-31.54 Y-138.278
X-31.497 Y-138.177
X-31.475 Y-138.096
X-31.465 Y-138.03
Y-137.97
X-31.475 Y-137.904
X-31.497 Y-137.823
X-31.54 Y-137.722
X-31.61 Y-137.598
X-31.715 Y-137.451
X-31.859 Y-137.286
X-32.046 Y-137.104
X-32.279 Y-136.909
X-32.555 Y-136.708
X-32.881 Y-136.5
X-33.102 Y-136.375
X-33.256 Y-136.287
X-33.68 Y-136.074
X-34.151 Y-135.862
X-34.675 Y-135.653
X-35.251 Y-135.448
X-35.878 Y-135.25
X-36.562 Y-135.059
X-37.302 Y-134.878
X-38.103 Y-134.708
X-38.965 Y-134.552
X-39.893 Y-134.413
X-40.89 Y-134.294
X-41.957 Y-134.197
X-43.087 Y-134.128
X-44.271 Y-134.092
X-45.485
X-46.693 Y-134.13
X-47.863 Y-134.203
X-48.969 Y-134.305
X-49.94 Y-134.426
G0 Z5
X-42.796 Y-148.797
G1 Z2.5 F333.3
S5000
G3 X-46.95 Y-169.203 Z1.358 I-2.077 J-10.203
X-42.796 Y-148.797 Z0.215 I2.077 J10.203
X-55.233 Y-157.956 Z-0.392 I-2.077 J-10.203
X-44.873 Y-169.413 Z-1 I10.36 J-1.044
S6000
X-44.873 Y-148.587 I0 J10.413 F1000
X-44.873 Y-169.413 I0 J-10.413
S5000
X-40.901 Y-149.375 Z-2 I0 J10.413 F333.3
S6000
X-48.845 Y-168.625 I-3.972 J-9.625 F1000
X-40.901 Y-149.375 I3.972 J9.625
S5000
X-54.782 Y-155.803 Z-2.6 I-3.972 J-9.625 F333.3
S6000
X-34.963 Y-162.197 I9.909 J-3.197 F1000
X-54.782 Y-155.803 I-9.909 J3.197
S5000
X-47.275 Y-169.132 Z-3.2 I9.909 J-3.197 F333.3
S6000
X-42.471 Y-148.868 I2.402 J10.132 F1000
X-47.275 Y-169.132 I-2.402 J-10.132
G0 Z5
X-36.559 Y-181.128
G1 Z2.5 F333.3
S5000
X-36.891 Y-180.976 Z2.487
X-37.385 Y-180.777 Z2.469
X-37.931 Y-180.585 Z2.448
X-38.53 Y-180.401 Z2.427
X-39.183 Y-180.229 Z2.403
X-39.892 Y-180.069 Z2.378
X-40.658 Y-179.927 Z2.35
X-41.483 Y-179.804 Z2.321
X-42.365 Y-179.705 Z2.29
X-43.299 Y-179.633 Z2.258
X-44.276 Y-179.594 Z2.223
X-45.277 Y-179.591 Z2.188
X-46.275 Y-179.624 Z2.154
X-47.246 Y-179.692 Z2.12
X-48.168 Y-179.792 Z2.087
X-49.031 Y-179.918 Z2.057
X-49.83 Y-180.065 Z2.028
X-50.566 Y-180.23 Z2.002
X-51.24 Y-180.407 Z1.978
X-51.852 Y-180.597 Z1.955
X-52.409 Y-180.795 Z1.935
X-52.91 Y-181 Z1.916
X-53.358 Y-181.208 Z1.899
X-53.751 Y-181.416 Z1.883
X-54.095 Y-181.624 Z1.869
X-54.39 Y-181.828 Z1.856
X-54.636 Y-182.024 Z1.845
X-54.836 Y-182.21 Z1.836
X-54.991 Y-182.381 Z1.828
X-55.106 Y-182.535 Z1.821
X-55.187 Y-182.669 Z1.816
X-55.237 Y-182.78 Z1.811
X-55.266 Y-182.871 Z1.808
X-55.279 Y-182.948 Z1.805
X-55.281 Y-183.017 Z1.803
X-55.274 Y-183.088 Z1.8
X-55.254 Y-183.171 Z1.797
X-55.216 Y-183.271 Z1.794
X-55.153 Y-183.392 Z1.789
X-55.058 Y-183.535 Z1.783
X-54.925 Y-183.695 Z1.776
X-54.751 Y-183.872 Z1.767
X-54.534 Y-184.061 Z1.757
X-54.271 Y-184.258 Z1.746
X-53.961 Y-184.46 Z1.733
X-53.603 Y-184.665 Z1.718
X-53.196 Y-184.871 Z1.702
X-52.74 Y-185.073 Z1.685
X-52.233 Y-185.27 Z1.666
X-51.674 Y-185.461 Z1.645
X-51.063 Y-185.642 Z1.623
X-50.396 Y-185.811 Z1.599
X-49.673 Y-185.967 Z1.573
X-48.893 Y-186.105 Z1.545
X-48.054 Y-186.222 Z1.516
X-47.158 Y-186.315 Z1.484
X-46.212 Y-186.379 Z1.451
X-45.228 Y-186.41 Z1.417
X-44.226 Y-186.405 Z1.382
X-43.231 Y-186.362 Z1.347
X-42.271 Y-186.286 Z1.314
X-41.362 Y-186.18 Z1.282
X-40.514 Y-186.049 Z1.252
X-39.732 Y-185.897 Z1.224
X-39.011 Y-185.728 Z1.198
X-38.352 Y-185.547 Z1.174
X-37.752 Y-185.355 Z1.152
X-37.211 Y-185.156 Z1.132
X-36.723 Y-184.95 Z1.113
X-36.288 Y-184.742 Z1.097
X-35.906 Y-184.533 Z1.081
X-35.575 Y-184.326 Z1.068
X-35.292 Y-184.124 Z1.056
X-35.057 Y-183.929 Z1.045
X-34.867 Y-183.746 Z1.036
X-34.722 Y-183.579 Z1.028
X-34.617 Y-183.431 Z1.022
X-34.545 Y-183.303 Z1.017
X-34.5 Y-183.196 Z1.013
X-34.476 Y-183.109 Z1.009
X-34.463 Y-183.018 Z1.006
X-34.469 Y-182.93 Z1.003
X-34.485 Y-182.851 Z1
X-34.518 Y-182.756 Z0.997
X-34.575 Y-182.639 Z0.992
X-34.662 Y-182.502 Z0.986
X-34.785 Y-182.345 Z0.98
X-34.948 Y-182.172 Z0.971
X-35.155 Y-181.985 Z0.962
X-35.406 Y-181.791 Z0.95
X-35.706 Y-181.589 Z0.938
X-36.052 Y-181.383 Z0.924
X-36.446 Y-181.179 Z0.908
X-36.891 Y-180.976 Z0.891
X-37.385 Y-180.777 Z0.873
X-37.931 Y-180.585 Z0.852
X-38.53 Y-180.401 Z0.83
X-39.183 Y-180.229 Z0.807
X-39.892 Y-180.069 Z0.782
X-40.658 Y-179.927 Z0.754
X-41.483 Y-179.804 Z0.725
X-42.365 Y-179.705 Z0.694
X-43.299 Y-179.633 Z0.661
X-44.276 Y-179.594 Z0.627
X-45.277 Y-179.591 Z0.592
X-46.275 Y-179.624 Z0.557
X-47.246 Y-179.692 Z0.524
X-48.168 Y-179.792 Z0.491
X-49.031 Y-179.918 Z0.461
X-49.83 Y-180.065 Z0.432
X-50.566 Y-180.23 Z0.406
X-51.24 Y-180.407 Z0.382
X-51.852 Y-180.597 Z0.359
X-52.409 Y-180.795 Z0.339
X-52.91 Y-181 Z0.32
X-53.358 Y-181.208 Z0.302
X-53.751 Y-181.416 Z0.287
X-54.095 Y-181.624 Z0.273
X-54.39 Y-181.828 Z0.26
X-54.636 Y-182.024 Z0.249
X-54.836 Y-182.21 Z0.24
X-54.991 Y-182.381 Z0.232
X-55.106 Y-182.535 Z0.225
X-55.187 Y-182.669 Z0.22
X-55.237 Y-182.78 Z0.215
X-55.266 Y-182.871 Z0.212
X-55.279 Y-182.948 Z0.209
X-55.281 Y-183.017 Z0.207
X-55.274 Y-183.088 Z0.204
X-55.254 Y-183.171 Z0.201
X-55.216 Y-183.271 Z0.198
X-55.153 Y-183.392 Z0.193
X-55.058 Y-183.535 Z0.187
X-54.925 Y-183.695 Z0.18
X-54.751 Y-183.872 Z0.171
X-54.534 Y-184.061 Z0.161
X-54.271 Y-184.258 Z0.149
X-53.961 Y-184.46 Z0.137
X-53.603 Y-184.665 Z0.122
X-53.196 Y-184.871 Z0.106
X-52.74 Y-185.073 Z0.089
X-52.233 Y-185.27 Z0.07
X-51.674 Y-185.461 Z0.049
X-51.063 Y-185.642 Z0.027
X-50.396 Y-185.811 Z0.003
X-49.673 Y-185.967 Z-0.023
X-48.893 Y-186.105 Z-0.051
X-48.054 Y-186.222 Z-0.08
X-47.158 Y-186.315 Z-0.112
X-46.212 Y-186.379 Z-0.145
X-45.228 Y-186.41 Z-0.179
X-44.226 Y-186.405 Z-0.214
X-43.231 Y-186.362 Z-0.249
X-42.271 Y-186.286 Z-0.283
X-41.362 Y-186.18 Z-0.315
X-40.514 Y-186.049 Z-0.344
X-39.732 Y-185.897 Z-0.372
X-39.011 Y-185.728 Z-0.398
X-38.352 Y-185.547 Z-0.422
X-37.752 Y-185.355 Z-0.444
X-37.211 Y-185.156 Z-0.464
X-36.723 Y-184.95 Z-0.483
X-36.288 Y-184.742 Z-0.5
X-35.906 Y-184.533 Z-0.515
X-35.575 Y-184.326 Z-0.528
X-35.292 Y-184.124 Z-0.54
X-35.057 Y-183.929 Z-0.551
X-34.867 Y-183.746 Z-0.56
X-34.722 Y-183.579 Z-0.568
X-34.617 Y-183.431 Z-0.574
X-34.545 Y-183.303 Z-0.58
X-34.5 Y-183.196 Z-0.584
X-34.476 Y-183.109 Z-0.587
X-34.463 Y-183.018 Z-0.59
X-34.469 Y-182.93 Z-0.593
X-34.485 Y-182.851 Z-0.596
X-34.518 Y-182.756 Z-0.599
X-34.575 Y-182.639 Z-0.604
X-34.662 Y-182.502 Z-0.61
X-34.785 Y-182.345 Z-0.617
X-34.948 Y-182.172 Z-0.625
X-35.155 Y-181.985 Z-0.635
X-35.406 Y-181.791 Z-0.646
X-35.706 Y-181.589 Z-0.658
X-36.052 Y-181.383 Z-0.672
X-36.446 Y-181.179 Z-0.688
X-36.891 Y-180.976 Z-0.705
X-37.385 Y-180.777 Z-0.724
X-37.931 Y-180.585 Z-0.744
X-38.53 Y-180.401 Z-0.766
X-39.183 Y-180.229 Z-0.789
X-39.892 Y-180.069 Z-0.815
X-40.658 Y-179.927 Z-0.842
X-41.483 Y-179.804 Z-0.871
X-42.365 Y-179.705 Z-0.902
X-43.299 Y-179.633 Z-0.935
X-44.276 Y-179.594 Z-0.969
X-45.171 Y-179.591 Z-1
S6000
X-45.277 F1000
X-46.275 Y-179.624
X-47.246 Y-179.692
X-48.168 Y-179.792
X-49.031 Y-179.918
X-49.83 Y-180.065
X-50.566 Y-180.23
X-51.24 Y-180.407
X-51.852 Y-180.597
X-52.409 Y-180.795
X-52.91 Y-181
X-53.358 Y-181.208
X-53.751 Y-181.416
X-54.095 Y-181.624
X-54.39 Y-181.828
X-54.636 Y-182.024
X-54.836 Y-182.21
X-54.991 Y-182.381
X-55.106 Y-182.535
X-55.187 Y-182.669
X-55.237 Y-182.78
X-55.266 Y-182.871
X-55.279 Y-182.948
X-55.281 Y-183.017
X-55.274 Y-183.088
X-55.254 Y-183.171
X-55.216 Y-183.271
X-55.153 Y-183.392
X-55.058 Y-183.535
X-54.925 Y-183.695
X-54.751 Y-183.872
X-54.534 Y-184.061
X-54.271 Y-184.258
X-53.961 Y-184.46
X-53.603 Y-184.665
X-53.196 Y-184.871
X-52.74 Y-185.073
X-52.233 Y-185.27
X-51.674 Y-185.461
X-51.063 Y-185.642
X-50.396 Y-185.811
X-49.673 Y-185.967
X-48.893 Y-186.105
X-48.054 Y-186.222
X-47.158 Y-186.315
X-46.212 Y-186.379
X-45.228 Y-186.41
X-44.226 Y-186.405
X-43.231 Y-186.362
X-42.271 Y-186.286
X-41.362 Y-186.18
X-40.514 Y-186.049
X-39.732 Y-185.897
X-39.011 Y-185.728
X-38.352 Y-185.547
X-37.752 Y-185.355
X-37.211 Y-185.156
X-36.723 Y-184.95
X-36.288 Y-184.742
X-35.906 Y-184.533
X-35.575 Y-184.326
X-35.292 Y-184.124
X-35.057 Y-183.929
X-34.867 Y-183.746
X-34.722 Y-183.579
X-34.617 Y-183.431
X-34.545 Y-183.303
X-34.5 Y-183.196
X-34.476 Y-183.109
X-34.463 Y-183.018
X-34.469 Y-182.93
X-34.485 Y-182.851
X-34.518 Y-182.756
X-34.575 Y-182.639
X-34.662 Y-182.502
X-34.785 Y-182.345
X-34.948 Y-182.172
X-35.155 Y-181.985
X-35.406 Y-181.791
X-35.706 Y-181.589
X-36.052 Y-181.383
X-36.446 Y-181.179
X-36.891 Y-180.976
X-37.385 Y-180.777
X-37.931 Y-180.585
X-38.53 Y-180.401
X-39.183 Y-180.229
X-39.892 Y-180.069
X-40.658 Y-179.927
X-41.483 Y-179.804
X-42.365 Y-179.705
X-43.299 Y-179.633
X-44.276 Y-179.594
X-45.171 Y-179.591
S5000
X-45.277 Z-1.004 F333.3
X-46.275 Y-179.624 Z-1.039
X-47.246 Y-179.692 Z-1.073
X-48.168 Y-179.792 Z-1.105
X-49.031 Y-179.918 Z-1.135
X-49.83 Y-180.065 Z-1.164
X-50.566 Y-180.23 Z-1.19
X-51.24 Y-180.407 Z-1.214
X-51.852 Y-180.597 Z-1.237
X-52.409 Y-180.795 Z-1.257
X-52.91 Y-181 Z-1.276
X-53.358 Y-181.208 Z-1.294
X-53.751 Y-181.416 Z-1.309
X-54.095 Y-181.624 Z-1.323
X-54.39 Y-181.828 Z-1.336
X-54.636 Y-182.024 Z-1.347
X-54.836 Y-182.21 Z-1.356
X-54.991 Y-182.381 Z-1.364
X-55.106 Y-182.535 Z-1.371
X-55.187 Y-182.669 Z-1.376
X-55.237 Y-182.78 Z-1.381
X-55.266 Y-182.871 Z-1.384
X-55.279 Y-182.948 Z-1.387
X-55.281 Y-183.017 Z-1.389
X-55.274 Y-183.088 Z-1.392
X-55.254 Y-183.171 Z-1.395
X-55.216 Y-183.271 Z-1.398
X-55.153 Y-183.392 Z-1.403
X-55.058 Y-183.535 Z-1.409
X-54.925 Y-183.695 Z-1.416
X-54.751 Y-183.872 Z-1.425
X-54.534 Y-184.061 Z-1.435
X-54.271 Y-184.258 Z-1.447
X-53.961 Y-184.46 Z-1.46
X-53.603 Y-184.665 Z-1.474
X-53.196 Y-184.871 Z-1.49
X-52.74 Y-185.073 Z-1.507
X-52.233 Y-185.27 Z-1.526
X-51.674 Y-185.461 Z-1.547
X-51.063 Y-185.642 Z-1.569
X-50.396 Y-185.811 Z-1.593
X-49.673 Y-185.967 Z-1.619
X-48.893 Y-186.105 Z-1.647
X-48.054 Y-186.222 Z-1.676
X-47.158 Y-186.315 Z-1.708
X-46.212 Y-186.379 Z-1.741
X-45.228 Y-186.41 Z-1.775
X-44.226 Y-186.405 Z-1.81
X-43.231 Y-186.362 Z-1.845
X-42.271 Y-186.286 Z-1.879
X-41.362 Y-186.18 Z-1.911
X-40.514 Y-186.049 Z-1.941
X-39.732 Y-185.897 Z-1.968
X-39.011 Y-185.728 Z-1.994
X-38.852 Y-185.685 Z-2
S6000
X-38.352 Y-185.547 F1000
X-37.752 Y-185.355
X-37.211 Y-185.156
X-36.723 Y-184.95
X-36.288 Y-184.742
X-35.906 Y-184.533
X-35.575 Y-184.326
X-35.292 Y-184.124
X-35.057 Y-183.929
X-34.867 Y-183.746
X-34.722 Y-183.579
X-34.617 Y-183.431
X-34.545 Y-183.303
X-34.5 Y-183.196
X-34.476 Y-183.109
X-34.463 Y-183.018
X-34.469 Y-182.93
X-34.485 Y-182.851
X-34.518 Y-182.756
X-34.575 Y-182.639
X-34.662 Y-182.502
X-34.785 Y-182.345
X-34.948 Y-182.172
X-35.155 Y-181.985
X-35.406 Y-181.791
X-35.706 Y-181.589
X-36.052 Y-181.383
X-36.446 Y-181.179
X-36.891 Y-180.976
X-37.385 Y-180.777
X-37.931 Y-180.585
X-38.53 Y-180.401
X-39.183 Y-180.229
X-39.892 Y-180.069
X-40.658 Y-179.927
X-41.483 Y-179.804
X-42.365 Y-179.705
X-43.299 Y-179.633
X-44.276 Y-179.594
X-45.171 Y-179.591
X-45.277
X-46.275 Y-179.624
X-47.246 Y-179.692
X-48.168 Y-179.792
X-49.031 Y-179.918
X-49.83 Y-180.065
X-50.566 Y-180.23
X-51.24 Y-180.407
X-51.852 Y-180.597
X-52.409 Y-180.795
X-52.91 Y-181
X-53.358 Y-181.208
X-53.751 Y-181.416
X-54.095 Y-181.624
X-54.39 Y-181.828
X-54.636 Y-182.024
X-54.836 Y-182.21
X-54.991 Y-182.381
X-55.106 Y-182.535
X-55.187 Y-182.669
X-55.237 Y-182.78
X-55.266 Y-182.871
X-55.279 Y-182.948
X-55.281 Y-183.017
X-55.274 Y-183.088
X-55.254 Y-183.171
X-55.216 Y-183.271
X-55.153 Y-183.392
X-55.058 Y-183.535
X-54.925 Y-183.695
X-54.751 Y-183.872
X-54.534 Y-184.061
X-54.271 Y-184.258
X-53.961 Y-184.46
X-53.603 Y-184.665
X-53.196 Y-184.871
X-52.74 Y-185.073
X-52.233 Y-185.27
X-51.674 Y-185.461
X-51.063 Y-185.642
X-50.396 Y-185.811
X-49.673 Y-185.967
X-48.893 Y-186.105
X-48.054 Y-186.222
X-47.158 Y-186.315
X-46.212 Y-186.379
X-45.228 Y-186.41
X-44.226 Y-186.405
X-43.231 Y-186.362
X-42.271 Y-186.286
X-41.362 Y-186.18
X-40.514 Y-186.049
X-39.732 Y-185.897
X-39.011 Y-185.728
X-38.852 Y-185.685
S5000
X-38.352 Y-185.547 Z-2.018 F333.3
X-37.752 Y-185.355 Z-2.04
X-37.211 Y-185.156 Z-2.06
X-36.723 Y-184.95 Z-2.079
X-36.288 Y-184.742 Z-2.096
X-35.906 Y-184.533 Z-2.111
X-35.575 Y-184.326 Z-2.124
X-35.292 Y-184.124 Z-2.137
X-35.057 Y-183.929 Z-2.147
X-34.867 Y-183.746 Z-2.156
X-34.722 Y-183.579 Z-2.164
X-34.617 Y-183.431 Z-2.17
X-34.545 Y-183.303 Z-2.176
X-34.5 Y-183.196 Z-2.18
X-34.476 Y-183.109 Z-2.183
X-34.463 Y-183.018 Z-2.186
X-34.469 Y-182.93 Z-2.189
X-34.485 Y-182.851 Z-2.192
X-34.518 Y-182.756 Z-2.195
X-34.575 Y-182.639 Z-2.2
X-34.662 Y-182.502 Z-2.206
X-34.785 Y-182.345 Z-2.213
X-34.948 Y-182.172 Z-2.221
X-35.155 Y-181.985 Z-2.231
X-35.406 Y-181.791 Z-2.242
X-35.706 Y-181.589 Z-2.254
X-36.052 Y-181.383 Z-2.268
X-36.446 Y-181.179 Z-2.284
X-36.891 Y-180.976 Z-2.301
X-37.385 Y-180.777 Z-2.32
X-37.931 Y-180.585 Z-2.34
X-38.53 Y-180.401 Z-2.362
X-39.183 Y-180.229 Z-2.385
X-39.892 Y-180.069 Z-2.411
X-40.658 Y-179.927 Z-2.438
X-41.483 Y-179.804 Z-2.467
X-42.365 Y-179.705 Z-2.498
X-43.299 Y-179.633 Z-2.531
X-44.276 Y-179.594 Z-2.565
X-45.277 Y-179.591 Z-2.6
X-45.283
S6000
X-46.275 Y-179.624 F1000
X-47.246 Y-179.692
X-48.168 Y-179.792
X-49.031 Y-179.918
X-49.83 Y-180.065
X-50.566 Y-180.23
X-51.24 Y-180.407
X-51.852 Y-180.597
X-52.409 Y-180.795
X-52.91 Y-181
X-53.358 Y-181.208
X-53.751 Y-181.416
X-54.095 Y-181.624
X-54.39 Y-181.828
X-54.636 Y-182.024
X-54.836 Y-182.21
X-54.991 Y-182.381
X-55.106 Y-182.535
X-55.187 Y-182.669
X-55.237 Y-182.78
X-55.266 Y-182.871
X-55.279 Y-182.948
X-55.281 Y-183.017
X-55.274 Y-183.088
X-55.254 Y-183.171
X-55.216 Y-183.271
X-55.153 Y-183.392
X-55.058 Y-183.535
X-54.925 Y-183.695
X-54.751 Y-183.872
X-54.534 Y-184.061
X-54.271 Y-184.258
X-53.961 Y-184.46
X-53.603 Y-184.665
X-53.196 Y-184.871
X-52.74 Y-185.073
X-52.233 Y-185.27
X-51.674 Y-185.461
X-51.063 Y-185.642
X-50.396 Y-185.811
X-49.673 Y-185.967
X-48.893 Y-186.105
X-48.054 Y-186.222
X-47.158 Y-186.315
X-46.212 Y-186.379
X-45.228 Y-186.41
X-44.226 Y-186.405
X-43.231 Y-186.362
X-42.271 Y-186.286
X-41.362 Y-186.18
X-40.514 Y-186.049
X-39.732 Y-185.897
X-39.011 Y-185.728
X-38.352 Y-185.547
X-37.752 Y-185.355
X-37.211 Y-185.156
X-36.723 Y-184.95
X-36.288 Y-184.742
X-35.906 Y-184.533
X-35.575 Y-184.326
X-35.292 Y-184.124
X-35.057 Y-183.929
X-34.867 Y-183.746
X-34.722 Y-183.579
X-34.617 Y-183.431
X-34.545 Y-183.303
X-34.5 Y-183.196
X-34.476 Y-183.109
X-34.463 Y-183.018
X-34.469 Y-182.93
X-34.485 Y-182.851
X-34.518 Y-182.756
X-34.575 Y-182.639
X-34.662 Y-182.502
X-34.785 Y-182.345
X-34.948 Y-182.172
X-35.155 Y-181.985
X-35.406 Y-181.791
X-35.706 Y-181.589
X-36.052 Y-181.383
X-36.446 Y-181.179
X-36.891 Y-180.976
X-37.385 Y-180.777
X-37.931 Y-180.585
X-38.53 Y-180.401
X-39.183 Y-180.229
X-39.892 Y-180.069
X-40.658 Y-179.927
X-41.483 Y-179.804
X-42.365 Y-179.705
X-43.299 Y-179.633
X-44.276 Y-179.594
X-45.277 Y-179.591
X-45.283
S5000
X-46.275 Y-179.624 Z-2.635 F333.3
X-47.246 Y-179.692 Z-2.669
X-48.168 Y-179.792 Z-2.701
X-49.031 Y-179.918 Z-2.732
X-49.83 Y-180.065 Z-2.76
X-50.566 Y-180.23 Z-2.786
X-51.24 Y-180.407 Z-2.811
X-51.852 Y-180.597 Z-2.833
X-52.409 Y-180.795 Z-2.854
X-52.91 Y-181 Z-2.872
X-53.358 Y-181.208 Z-2.89
X-53.751 Y-181.416 Z-2.905
X-54.095 Y-181.624 Z-2.919
X-54.39 Y-181.828 Z-2.932
X-54.636 Y-182.024 Z-2.943
X-54.836 Y-182.21 Z-2.952
X-54.991 Y-182.381 Z-2.96
X-55.106 Y-182.535 Z-2.967
X-55.187 Y-182.669 Z-2.973
X-55.237 Y-182.78 Z-2.977
X-55.266 Y-182.871 Z-2.98
X-55.279 Y-182.948 Z-2.983
X-55.281 Y-183.017 Z-2.985
X-55.274 Y-183.088 Z-2.988
X-55.254 Y-183.171 Z-2.991
X-55.216 Y-183.271 Z-2.995
X-55.153 Y-183.392 Z-2.999
X-55.058 Y-183.535 Z-3.005
X-54.925 Y-183.695 Z-3.013
X-54.751 Y-183.872 Z-3.021
X-54.534 Y-184.061 Z-3.031
X-54.271 Y-184.258 Z-3.043
X-53.961 Y-184.46 Z-3.056
X-53.603 Y-184.665 Z-3.07
X-53.196 Y-184.871 Z-3.086
X-52.74 Y-185.073 Z-3.103
X-52.233 Y-185.27 Z-3.122
X-51.674 Y-185.461 Z-3.143
X-51.063 Y-185.642 Z-3.165
X-50.396 Y-185.811 Z-3.189
X-50.097 Y-185.876 Z-3.2
S6000
X-49.673 Y-185.967 F1000
X-48.893 Y-186.105
X-48.054 Y-186.222
X-47.158 Y-186.315
X-46.212 Y-186.379
X-45.228 Y-186.41
X-44.226 Y-186.405
X-43.231 Y-186.362
X-42.271 Y-186.286
X-41.362 Y-186.18
X-40.514 Y-186.049
X-39.732 Y-185.897
X-39.011 Y-185.728
X-38.352 Y-185.547
X-37.752 Y-185.355
X-37.211 Y-185.156
X-36.723 Y-184.95
X-36.288 Y-184.742
X-35.906 Y-184.533
X-35.575 Y-184.326
X-35.292 Y-184.124
X-35.057 Y-183.929
X-34.867 Y-183.746
X-34.722 Y-183.579
X-34.617 Y-183.431
X-34.545 Y-183.303
X-34.5 Y-183.196
X-34.476 Y-183.109
X-34.463 Y-183.018
X-34.469 Y-182.93
X-34.485 Y-182.851
X-34.518 Y-182.756
X-34.575 Y-182.639
X-34.662 Y-182.502
X-34.785 Y-182.345
X-34.948 Y-182.172
X-35.155 Y-181.985
X-35.406 Y-181.791
X-35.706 Y-181.589
X-36.052 Y-181.383
X-36.446 Y-181.179
X-36.891 Y-180.976
X-37.385 Y-180.777
X-37.931 Y-180.585
X-38.53 Y-180.401
X-39.183 Y-180.229
X-39.892 Y-180.069
X-40.658 Y-179.927
X-41.483 Y-179.804
X-42.365 Y-179.705
X-43.299 Y-179.633
X-44.276 Y-179.594
X-45.277 Y-179.591
X-46.275 Y-179.624
X-47.246 Y-179.692
X-48.168 Y-179.792
X-49.031 Y-179.918
X-49.83 Y-180.065
X-50.566 Y-180.23
X-51.24 Y-180.407
X-51.852 Y-180.597
X-52.409 Y-180.795
X-52.91 Y-181
X-53.358 Y-181.208
X-53.751 Y-181.416
X-54.095 Y-181.624
X-54.39 Y-181.828
X-54.636 Y-182.024
X-54.836 Y-182.21
X-54.991 Y-182.381
X-55.106 Y-182.535
X-55.187 Y-182.669
X-55.237 Y-182.78
X-55.266 Y-182.871
X-55.279 Y-182.948
X-55.281 Y-183.017
X-55.274 Y-183.088
X-55.254 Y-183.171
X-55.216 Y-183.271
X-55.153 Y-183.392
X-55.058 Y-183.535
X-54.925 Y-183.695
X-54.751 Y-183.872
X-54.534 Y-184.061
X-54.271 Y-184.258
X-53.961 Y-184.46
X-53.603 Y-184.665
X-53.196 Y-184.871
X-52.74 Y-185.073
X-52.233 Y-185.27
X-51.674 Y-185.461
X-51.063 Y-185.642
X-50.396 Y-185.811
X-50.097 Y-185.876
G0 Z15

(2D-Kontur8)
X-72.012 Y-169.334
Z15
Z5
G1 Z2.5 F333.3
S5000
X-72.044 Y-168.914 Z2.485
X-72.12 Y-167.997 Z2.453
X-72.204 Y-167.092 Z2.421
X-72.296 Y-166.2 Z2.39
X-72.395 Y-165.324 Z2.359
X-72.503 Y-164.463 Z2.329
X-72.619 Y-163.62 Z2.299
X-72.745 Y-162.798 Z2.27
X-72.88 Y-161.997 Z2.242
X-73.024 Y-161.219 Z2.214
X-73.179 Y-160.465 Z2.187
X-73.344 Y-159.739 Z2.161
X-73.519 Y-159.042 Z2.136
X-73.705 Y-158.376 Z2.112
X-73.901 Y-157.742 Z2.089
X-74.108 Y-157.143 Z2.067
X-74.325 Y-156.582 Z2.046
X-74.551 Y-156.059 Z2.026
X-74.791 Y-155.567 Z2.007
X-74.907 Y-155.351 Z1.998
X-75.029 Y-155.138 Z1.99
X-75.153 Y-154.934 Z1.981
X-75.279 Y-154.742 Z1.973
X-75.405 Y-154.562 Z1.966
X-75.532 Y-154.392 Z1.958
X-75.659 Y-154.235 Z1.951
X-75.787 Y-154.09 Z1.944
X-75.916 Y-153.955 Z1.938
X-76.045 Y-153.83 Z1.932
X-76.173 Y-153.717 Z1.926
X-76.302 Y-153.615 Z1.92
X-76.432 Y-153.52 Z1.914
X-76.558 Y-153.439 Z1.909
X-76.687 Y-153.365 Z1.904
X-76.815 Y-153.3 Z1.899
X-76.946 Y-153.243 Z1.894
X-77.083 Y-153.192 Z1.889
X-77.217 Y-153.15 Z1.884
X-77.357 Y-153.116 Z1.879
X-77.503 Y-153.088 Z1.874
X-77.655 Y-153.068 Z1.868
X-77.811 Y-153.056 Z1.863
X-77.976 Y-153.053 Z1.857
X-78.15 Y-153.058 Z1.851
X-78.33 Y-153.072 Z1.845
X-78.52 Y-153.097 Z1.838
X-78.72 Y-153.132 Z1.831
X-78.933 Y-153.179 Z1.823
X-79.154 Y-153.237 Z1.815
X-79.379 Y-153.306 Z1.807
X-79.617 Y-153.39 Z1.798
X-79.867 Y-153.487 Z1.789
X-80.125 Y-153.597 Z1.779
X-80.39 Y-153.72 Z1.769
X-80.664 Y-153.858 Z1.758
X-80.95 Y-154.012 Z1.747
X-81.244 Y-154.179 Z1.735
X-81.544 Y-154.361 Z1.723
X-81.854 Y-154.557 Z1.71
X-82.171 Y-154.769 Z1.697
X-82.495 Y-154.995 Z1.683
X-82.83 Y-155.238 Z1.668
X-83.176 Y-155.499 Z1.653
G2 X-87.333 Y-153.442 Z1.452 I-1.569 J2.057
G1 Y-135.791 Z0.836
G2 X-86.328 Y-133.743 Z0.754 I2.587 J0
G1 X-85.528 Y-133.117 Z0.718
X-84.764 Y-132.496 Z0.684
X-84.031 Y-131.875 Z0.65
X-83.328 Y-131.253 Z0.617
X-82.654 Y-130.632 Z0.585
X-82.011 Y-130.01 Z0.554
X-81.396 Y-129.388 Z0.524
X-80.81 Y-128.767 Z0.494
X-80.253 Y-128.146 Z0.465
X-79.724 Y-127.527 Z0.436
X-79.222 Y-126.906 Z0.408
X-78.748 Y-126.287 Z0.381
X-78.301 Y-125.668 Z0.354
X-77.88 Y-125.05 Z0.328
X-77.485 Y-124.431 Z0.303
X-77.114 Y-123.813 Z0.278
X-76.77 Y-123.197 Z0.253
X-76.45 Y-122.581 Z0.229
X-76.153 Y-121.965 Z0.205
X-75.881 Y-121.35 Z0.181
X-75.632 Y-120.735 Z0.158
X-75.406 Y-120.122 Z0.135
X-75.202 Y-119.508 Z0.113
X-75.021 Y-118.895 Z0.09
X-74.862 Y-118.283 Z0.068
X-74.724 Y-117.669 Z0.046
X-74.608 Y-117.058 Z0.025
X-74.514 Y-116.446 Z0.003
X-74.44 Y-115.834 Z-0.019
X-74.388 Y-115.222 Z-0.04
X-74.357 Y-114.612 Z-0.061
X-74.346 Y-114 Z-0.083
X-74.357 Y-113.388 Z-0.104
X-74.388 Y-112.778 Z-0.125
X-74.44 Y-112.166 Z-0.147
X-74.514 Y-111.554 Z-0.168
X-74.608 Y-110.942 Z-0.19
X-74.724 Y-110.331 Z-0.212
X-74.862 Y-109.717 Z-0.234
X-75.021 Y-109.105 Z-0.256
X-75.202 Y-108.492 Z-0.278
X-75.406 Y-107.878 Z-0.301
X-75.632 Y-107.265 Z-0.324
X-75.881 Y-106.65 Z-0.347
X-76.153 Y-106.035 Z-0.37
X-76.45 Y-105.419 Z-0.394
X-76.77 Y-104.803 Z-0.418
X-77.114 Y-104.187 Z-0.443
X-77.485 Y-103.569 Z-0.468
X-77.88 Y-102.95 Z-0.494
X-78.301 Y-102.332 Z-0.52
X-78.748 Y-101.713 Z-0.547
X-79.222 Y-101.094 Z-0.574
X-79.724 Y-100.474 Z-0.602
X-80.253 Y-99.853 Z-0.63
X-80.81 Y-99.233 Z-0.659
X-81.396 Y-98.612 Z-0.689
X-82.01 Y-97.99 Z-0.72
X-82.654 Y-97.369 Z-0.751
X-83.328 Y-96.747 Z-0.783
X-84.031 Y-96.126 Z-0.816
X-84.764 Y-95.504 Z-0.849
X-85.528 Y-94.883 Z-0.883
X-86.328 Y-94.257 Z-0.919
G2 X-87.333 Y-92.251 Z-1 I1.582 J2.048
S6000
G1 Y-92.209 F1000
Y-74.558
G2 X-83.176 Y-72.501 I2.587 J0
G1 X-82.671 Y-72.881
X-82.187 Y-73.23
X-81.718 Y-73.553
X-81.265 Y-73.85
X-80.828 Y-74.121
X-80.406 Y-74.366
X-80.001 Y-74.586
X-79.613 Y-74.781
X-79.241 Y-74.952
X-78.886 Y-75.099
X-78.548 Y-75.224
X-78.227 Y-75.327
X-77.922 Y-75.409
X-77.635 Y-75.472
X-77.365 Y-75.516
X-77.11 Y-75.544
X-76.871 Y-75.556
X-76.646 Y-75.553
X-76.434 Y-75.536
X-76.234 Y-75.508
X-76.045 Y-75.468
X-75.863 Y-75.416
X-75.688 Y-75.353
X-75.518 Y-75.279
X-75.352 Y-75.193
X-75.189 Y-75.094
X-75.027 Y-74.982
X-74.866 Y-74.855
X-74.707 Y-74.714
X-74.549 Y-74.558
X-74.392 Y-74.387
X-74.236 Y-74.199
X-74.083 Y-73.995
X-73.931 Y-73.775
X-73.782 Y-73.54
X-73.636 Y-73.288
X-73.494 Y-73.02
X-73.354 Y-72.737
X-73.219 Y-72.439
X-73.087 Y-72.125
X-72.96 Y-71.797
X-72.838 Y-71.454
X-72.72 Y-71.097
X-72.606 Y-70.726
X-72.498 Y-70.341
X-72.394 Y-69.942
X-72.296 Y-69.529
X-72.202 Y-69.103
X-72.114 Y-68.663
X-72.032 Y-68.21
X-71.954 Y-67.744
X-71.882 Y-67.265
X-71.816 Y-66.773
X-71.755 Y-66.268
X-71.699 Y-65.75
X-71.65 Y-65.218
X-71.606 Y-64.674
X-71.567 Y-64.117
X-71.535 Y-63.547
X-71.508 Y-62.963
X-71.487 Y-62.367
X-71.472 Y-61.758
X-71.463 Y-61.135
X-71.46 Y-60.496
Y-9
G2 X-64.873 Y-2.412 I6.588 J0
G1 X-59.373
G2 X-55.785 Y-6 I0 J-3.588
G1 Y-34
G3 X-55.373 Y-34.412 I0.413 J0
G1 X-49.373
G2 X-45.785 Y-38 I0 J-3.588
G1 Y-40
G3 X-45.373 Y-40.412 I0.413 J0
G1 X-44.373
G3 X-43.96 Y-40 I0 J0.412
G1 Y-38
G2 X-40.373 Y-34.412 I3.588 J0
G1 X-34.373
G3 X-33.96 Y-34 I0 J0.412
G1 Y-6
G2 X-30.373 Y-2.412 I3.587 J0
G1 X-24.873
G2 X-18.285 Y-9 I0 J-6.588
G1 Y-60.496
X-18.282 Y-61.135
X-18.273 Y-61.758
X-18.259 Y-62.367
X-18.238 Y-62.963
X-18.211 Y-63.547
X-18.179 Y-64.117
X-18.14 Y-64.674
X-18.096 Y-65.218
X-18.047 Y-65.75
X-17.991 Y-66.268
X-17.93 Y-66.773
X-17.864 Y-67.265
X-17.792 Y-67.744
X-17.714 Y-68.21
X-17.631 Y-68.663
X-17.543 Y-69.103
X-17.45 Y-69.529
X-17.352 Y-69.942
X-17.248 Y-70.341
X-17.14 Y-70.726
X-17.026 Y-71.097
X-16.908 Y-71.454
X-16.785 Y-71.797
X-16.658 Y-72.126
X-16.527 Y-72.439
X-16.392 Y-72.737
X-16.252 Y-73.02
X-16.109 Y-73.288
X-15.963 Y-73.54
X-15.815 Y-73.775
X-15.663 Y-73.995
X-15.509 Y-74.199
X-15.354 Y-74.387
X-15.197 Y-74.558
X-15.039 Y-74.714
X-14.879 Y-74.855
X-14.719 Y-74.982
X-14.557 Y-75.094
X-14.394 Y-75.193
X-14.227 Y-75.279
X-14.058 Y-75.353
X-13.883 Y-75.416
X-13.701 Y-75.468
X-13.511 Y-75.508
X-13.312 Y-75.536
X-13.1 Y-75.553
X-12.875 Y-75.556
X-12.636 Y-75.544
X-12.381 Y-75.516
X-12.111 Y-75.472
X-11.824 Y-75.409
X-11.519 Y-75.327
X-11.198 Y-75.224
X-10.86 Y-75.099
X-10.505 Y-74.952
X-10.133 Y-74.781
X-9.744 Y-74.586
X-9.339 Y-74.366
X-8.918 Y-74.121
X-8.481 Y-73.85
X-8.028 Y-73.553
X-7.559 Y-73.23
X-7.075 Y-72.881
X-6.57 Y-72.501
G2 X-2.412 Y-74.558 I1.57 J-2.057
G1 Y-92.209
G2 X-3.418 Y-94.257 I-2.587 J0
G1 X-4.218 Y-94.883
X-4.982 Y-95.504
X-5.715 Y-96.126
X-6.418 Y-96.747
X-7.092 Y-97.369
X-7.735 Y-97.99
X-8.35 Y-98.612
X-8.936 Y-99.233
X-9.493 Y-99.853
X-10.022 Y-100.474
X-10.524 Y-101.094
X-10.998 Y-101.713
X-11.445 Y-102.332
X-11.866 Y-102.95
X-12.261 Y-103.568
X-12.631 Y-104.186
X-12.976 Y-104.803
X-13.296 Y-105.419
X-13.593 Y-106.035
X-13.865 Y-106.65
X-14.114 Y-107.265
X-14.34 Y-107.878
X-14.544 Y-108.492
X-14.725 Y-109.105
X-14.884 Y-109.717
X-15.021 Y-110.331
X-15.137 Y-110.942
X-15.232 Y-111.554
X-15.305 Y-112.166
X-15.358 Y-112.777
X-15.389 Y-113.388
X-15.4 Y-114
X-15.389 Y-114.612
X-15.358 Y-115.223
X-15.305 Y-115.834
X-15.232 Y-116.446
X-15.137 Y-117.058
X-15.021 Y-117.669
X-14.884 Y-118.283
X-14.725 Y-118.895
X-14.544 Y-119.508
X-14.34 Y-120.122
X-14.114 Y-120.735
X-13.865 Y-121.35
X-13.593 Y-121.965
X-13.296 Y-122.581
X-12.976 Y-123.197
X-12.631 Y-123.814
X-12.261 Y-124.432
X-11.866 Y-125.05
X-11.445 Y-125.668
X-10.998 Y-126.287
X-10.524 Y-126.906
X-10.022 Y-127.527
X-9.493 Y-128.146
X-8.936 Y-128.767
X-8.35 Y-129.388
X-7.735 Y-130.01
X-7.091 Y-130.632
X-6.418 Y-131.253
X-5.715 Y-131.875
X-4.982 Y-132.496
X-4.218 Y-133.117
X-3.418 Y-133.743
G2 X-2.412 Y-135.791 I-1.582 J-2.048
G1 Y-153.442
G2 X-6.569 Y-155.499 I-2.587 J0
G1 X-6.916 Y-155.238
X-7.251 Y-154.995
X-7.575 Y-154.769
X-7.892 Y-154.557
X-8.201 Y-154.361
X-8.502 Y-154.179
X-8.796 Y-154.012
X-9.081 Y-153.858
X-9.356 Y-153.72
X-9.621 Y-153.597
X-9.878 Y-153.487
X-10.129 Y-153.39
X-10.367 Y-153.306
X-10.592 Y-153.237
X-10.813 Y-153.179
X-11.026 Y-153.132
X-11.226 Y-153.097
X-11.416 Y-153.072
X-11.596 Y-153.058
X-11.77 Y-153.053
X-11.935 Y-153.056
X-12.091 Y-153.068
X-12.243 Y-153.088
X-12.389 Y-153.116
X-12.528 Y-153.15
X-12.663 Y-153.192
X-12.8 Y-153.243
X-12.931 Y-153.3
X-13.059 Y-153.365
X-13.188 Y-153.439
X-13.314 Y-153.52
X-13.444 Y-153.614
X-13.572 Y-153.717
X-13.701 Y-153.83
X-13.83 Y-153.955
X-13.959 Y-154.09
X-14.087 Y-154.236
X-14.214 Y-154.392
X-14.341 Y-154.561
X-14.467 Y-154.742
X-14.593 Y-154.934
X-14.717 Y-155.138
X-14.839 Y-155.351
X-14.955 Y-155.567
X-15.194 Y-156.059
X-15.421 Y-156.582
X-15.638 Y-157.143
X-15.845 Y-157.742
X-16.041 Y-158.376
X-16.227 Y-159.042
X-16.402 Y-159.739
X-16.567 Y-160.465
X-16.722 Y-161.219
X-16.866 Y-161.997
X-17.001 Y-162.797
X-17.127 Y-163.62
X-17.243 Y-164.463
X-17.351 Y-165.324
X-17.45 Y-166.2
X-17.542 Y-167.092
X-17.625 Y-167.997
X-17.702 Y-168.914
X-17.772 Y-169.841
X-17.835 Y-170.774
X-17.945 Y-172.668
X-18.033 Y-174.578
X-18.103 Y-176.494
X-18.158 Y-178.407
X-18.199 Y-180.308
X-18.229 Y-182.188
X-18.251 Y-184.04
X-18.259 Y-184.951
X-18.265 Y-185.852
X-18.271 Y-186.743
X-18.275 Y-187.623
X-18.278 Y-188.49
X-18.28 Y-189.343
X-18.282 Y-190.183
X-18.283 Y-191.008
X-18.284 Y-191.047
X-18.29 Y-191.293
X-18.294 Y-191.371
X-18.312 Y-191.616
X-18.32 Y-191.693
X-18.351 Y-191.937
X-18.362 Y-192.015
X-18.405 Y-192.257
X-18.42 Y-192.334
X-18.474 Y-192.573
X-18.493 Y-192.647
X-18.559 Y-192.884
X-18.582 Y-192.959
X-18.659 Y-193.192
X-18.686 Y-193.266
X-18.774 Y-193.495
X-18.805 Y-193.568
X-18.905 Y-193.792
X-18.937 Y-193.861
X-19.048 Y-194.08
X-19.085 Y-194.149
X-19.206 Y-194.362
X-19.245 Y-194.427
X-19.376 Y-194.634
X-19.423 Y-194.703
X-19.564 Y-194.902
X-19.608 Y-194.96
X-19.758 Y-195.153
X-19.807 Y-195.212
X-19.967 Y-195.398
X-20.023 Y-195.46
X-20.193 Y-195.637
X-20.243 Y-195.687
X-20.421 Y-195.857
X-20.485 Y-195.915
X-20.671 Y-196.074
X-20.725 Y-196.119
X-20.919 Y-196.27
X-20.982 Y-196.317
X-21.182 Y-196.458
X-21.252 Y-196.504
X-21.458 Y-196.634
X-21.519 Y-196.67
X-21.732 Y-196.791
X-21.804 Y-196.83
X-22.023 Y-196.94
X-22.095 Y-196.974
X-22.32 Y-197.073
X-22.385 Y-197.1
X-22.614 Y-197.189
X-22.696 Y-197.218
X-22.929 Y-197.294
X-22.994 Y-197.314
X-23.23 Y-197.38
X-23.314 Y-197.401
X-23.553 Y-197.454
X-23.624 Y-197.468
X-23.865 Y-197.51
X-23.943 Y-197.522
X-24.186 Y-197.552
X-24.264 Y-197.559
X-24.509 Y-197.577
X-24.587 Y-197.581
X-24.832 Y-197.587
X-24.871
X-64.875
X-64.914
X-65.159 Y-197.581
X-65.237 Y-197.577
X-65.482 Y-197.559
X-65.56 Y-197.552
X-65.803 Y-197.522
X-65.881 Y-197.51
X-66.123 Y-197.468
X-66.2 Y-197.453
X-66.44 Y-197.399
X-66.517 Y-197.379
X-66.754 Y-197.313
X-66.826 Y-197.291
X-67.059 Y-197.214
X-67.13 Y-197.189
X-67.359 Y-197.101
X-67.436 Y-197.069
X-67.661 Y-196.969
X-67.727 Y-196.938
X-67.946 Y-196.828
X-68.018 Y-196.789
X-68.231 Y-196.668
X-68.296 Y-196.629
X-68.503 Y-196.498
X-68.568 Y-196.454
X-68.768 Y-196.313
X-68.827 Y-196.27
X-69.02 Y-196.12
X-69.087 Y-196.065
X-69.272 Y-195.904
X-69.326 Y-195.856
X-69.504 Y-195.687
X-69.56 Y-195.63
X-69.729 Y-195.452
X-69.779 Y-195.397
X-69.94 Y-195.212
X-69.991 Y-195.15
X-70.141 Y-194.957
X-70.188 Y-194.895
X-70.329 Y-194.695
X-70.373 Y-194.629
X-70.504 Y-194.422
X-70.543 Y-194.356
X-70.664 Y-194.143
X-70.701 Y-194.075
X-70.811 Y-193.856
X-70.844 Y-193.787
X-70.943 Y-193.563
X-70.974 Y-193.489
X-71.062 Y-193.26
X-71.089 Y-193.187
X-71.166 Y-192.954
X-71.188 Y-192.88
X-71.254 Y-192.644
X-71.273 Y-192.568
X-71.327 Y-192.329
X-71.342 Y-192.253
X-71.384 Y-192.012
X-71.395 Y-191.935
X-71.426 Y-191.692
X-71.433 Y-191.615
X-71.452 Y-191.371
X-71.456 Y-191.293
X-71.462 Y-191.047
X-71.463 Y-191.008
X-71.464 Y-190.183
X-71.466 Y-189.343
X-71.468 Y-188.49
X-71.471 Y-187.623
X-71.475 Y-186.743
X-71.481 Y-185.853
X-71.487 Y-184.951
X-71.495 Y-184.04
X-71.517 Y-182.188
X-71.547 Y-180.308
X-71.588 Y-178.407
X-71.643 Y-176.494
X-71.713 Y-174.578
X-71.801 Y-172.669
X-71.91 Y-170.774
X-71.974 Y-169.84
X-72.044 Y-168.914
X-72.12 Y-167.997
X-72.204 Y-167.092
X-72.296 Y-166.2
X-72.395 Y-165.324
X-72.503 Y-164.463
X-72.619 Y-163.62
X-72.745 Y-162.798
X-72.88 Y-161.997
X-73.024 Y-161.219
X-73.179 Y-160.465
X-73.344 Y-159.739
X-73.519 Y-159.042
X-73.705 Y-158.376
X-73.901 Y-157.742
X-74.108 Y-157.143
X-74.325 Y-156.582
X-74.551 Y-156.059
X-74.791 Y-155.567
X-74.907 Y-155.351
X-75.029 Y-155.138
X-75.153 Y-154.934
X-75.279 Y-154.742
X-75.405 Y-154.562
X-75.532 Y-154.392
X-75.659 Y-154.235
X-75.787 Y-154.09
X-75.916 Y-153.955
X-76.045 Y-153.83
X-76.173 Y-153.717
X-76.302 Y-153.615
X-76.432 Y-153.52
X-76.558 Y-153.439
X-76.687 Y-153.365
X-76.815 Y-153.3
X-76.946 Y-153.243
X-77.083 Y-153.192
X-77.217 Y-153.15
X-77.357 Y-153.116
X-77.503 Y-153.088
X-77.655 Y-153.068
X-77.811 Y-153.056
X-77.976 Y-153.053
X-78.15 Y-153.058
X-78.33 Y-153.072
X-78.52 Y-153.097
X-78.72 Y-153.132
X-78.933 Y-153.179
X-79.154 Y-153.237
X-79.379 Y-153.306
X-79.617 Y-153.39
X-79.867 Y-153.487
X-80.125 Y-153.597
X-80.39 Y-153.72
X-80.664 Y-153.858
X-80.95 Y-154.012
X-81.244 Y-154.179
X-81.544 Y-154.361
X-81.854 Y-154.557
X-82.171 Y-154.769
X-82.495 Y-154.995
X-82.83 Y-155.238
X-83.176 Y-155.499
G2 X-87.333 Y-153.442 I-1.569 J2.057
G1 Y-135.791
G2 X-86.328 Y-133.743 I2.587 J0
G1 X-85.528 Y-133.117
X-84.764 Y-132.496
X-84.031 Y-131.875
X-83.328 Y-131.253
X-82.654 Y-130.632
X-82.011 Y-130.01
X-81.396 Y-129.388
X-80.81 Y-128.767
X-80.253 Y-128.146
X-79.724 Y-127.527
X-79.222 Y-126.906
X-78.748 Y-126.287
X-78.301 Y-125.668
X-77.88 Y-125.05
X-77.485 Y-124.431
X-77.114 Y-123.813
X-76.77 Y-123.197
X-76.45 Y-122.581
X-76.153 Y-121.965
X-75.881 Y-121.35
X-75.632 Y-120.735
X-75.406 Y-120.122
X-75.202 Y-119.508
X-75.021 Y-118.895
X-74.862 Y-118.283
X-74.724 Y-117.669
X-74.608 Y-117.058
X-74.514 Y-116.446
X-74.44 Y-115.834
X-74.388 Y-115.222
X-74.357 Y-114.612
X-74.346 Y-114
X-74.357 Y-113.388
X-74.388 Y-112.778
X-74.44 Y-112.166
X-74.514 Y-111.554
X-74.608 Y-110.942
X-74.724 Y-110.331
X-74.862 Y-109.717
X-75.021 Y-109.105
X-75.202 Y-108.492
X-75.406 Y-107.878
X-75.632 Y-107.265
X-75.881 Y-106.65
X-76.153 Y-106.035
X-76.45 Y-105.419
X-76.77 Y-104.803
X-77.114 Y-104.187
X-77.485 Y-103.569
X-77.88 Y-102.95
X-78.301 Y-102.332
X-78.748 Y-101.713
X-79.222 Y-101.094
X-79.724 Y-100.474
X-80.253 Y-99.853
X-80.81 Y-99.233
X-81.396 Y-98.612
X-82.01 Y-97.99
X-82.654 Y-97.369
X-83.328 Y-96.747
X-84.031 Y-96.126
X-84.764 Y-95.504
X-85.528 Y-94.883
X-86.328 Y-94.257
G2 X-87.333 Y-92.251 I1.582 J2.048
S5000
G1 Y-92.209 Z-1.001 F333.3
Y-74.558 Z-1.447
G2 X-83.176 Y-72.501 Z-1.593 I2.587 J0
G1 X-82.671 Y-72.881 Z-1.609
X-82.187 Y-73.23 Z-1.624
X-81.718 Y-73.553 Z-1.638
X-81.265 Y-73.85 Z-1.652
X-80.828 Y-74.121 Z-1.665
X-80.406 Y-74.366 Z-1.677
X-80.001 Y-74.586 Z-1.689
X-79.613 Y-74.781 Z-1.7
X-79.241 Y-74.952 Z-1.71
X-78.886 Y-75.099 Z-1.72
X-78.548 Y-75.224 Z-1.729
X-78.227 Y-75.327 Z-1.737
X-77.922 Y-75.409 Z-1.745
X-77.635 Y-75.472 Z-1.753
X-77.365 Y-75.516 Z-1.76
X-77.11 Y-75.544 Z-1.766
X-76.871 Y-75.556 Z-1.772
X-76.646 Y-75.553 Z-1.778
X-76.434 Y-75.536 Z-1.783
X-76.234 Y-75.508 Z-1.788
X-76.045 Y-75.468 Z-1.793
X-75.863 Y-75.416 Z-1.798
X-75.688 Y-75.353 Z-1.803
X-75.518 Y-75.279 Z-1.807
X-75.352 Y-75.193 Z-1.812
X-75.189 Y-75.094 Z-1.817
X-75.027 Y-74.982 Z-1.822
X-74.866 Y-74.855 Z-1.827
X-74.707 Y-74.714 Z-1.833
X-74.549 Y-74.558 Z-1.838
X-74.392 Y-74.387 Z-1.844
X-74.236 Y-74.199 Z-1.85
X-74.083 Y-73.995 Z-1.857
X-73.931 Y-73.775 Z-1.863
X-73.782 Y-73.54 Z-1.87
X-73.636 Y-73.288 Z-1.878
X-73.494 Y-73.02 Z-1.886
X-73.354 Y-72.737 Z-1.893
X-73.219 Y-72.439 Z-1.902
X-73.087 Y-72.125 Z-1.91
X-72.96 Y-71.797 Z-1.919
X-72.838 Y-71.454 Z-1.928
X-72.72 Y-71.097 Z-1.938
X-72.606 Y-70.726 Z-1.948
X-72.498 Y-70.341 Z-1.958
X-72.394 Y-69.942 Z-1.968
X-72.296 Y-69.529 Z-1.979
X-72.202 Y-69.103 Z-1.99
X-72.125 Y-68.717 Z-2
S6000
X-72.114 Y-68.663 F1000
X-72.032 Y-68.21
X-71.954 Y-67.744
X-71.882 Y-67.265
X-71.816 Y-66.773
X-71.755 Y-66.268
X-71.699 Y-65.75
X-71.65 Y-65.218
X-71.606 Y-64.674
X-71.567 Y-64.117
X-71.535 Y-63.547
X-71.508 Y-62.963
X-71.487 Y-62.367
X-71.472 Y-61.758
X-71.463 Y-61.135
X-71.46 Y-60.496
Y-9
G2 X-64.873 Y-2.412 I6.588 J0
G1 X-59.373
G2 X-55.785 Y-6 I0 J-3.588
G1 Y-34
G3 X-55.373 Y-34.412 I0.413 J0
G1 X-49.373
G2 X-45.785 Y-38 I0 J-3.588
G1 Y-40
G3 X-45.373 Y-40.412 I0.413 J0
G1 X-44.373
G3 X-43.96 Y-40 I0 J0.412
G1 Y-38
G2 X-40.373 Y-34.412 I3.588 J0
G1 X-34.373
G3 X-33.96 Y-34 I0 J0.412
G1 Y-6
G2 X-30.373 Y-2.412 I3.587 J0
G1 X-24.873
G2 X-18.285 Y-9 I0 J-6.588
G1 Y-60.496
X-18.282 Y-61.135
X-18.273 Y-61.758
X-18.259 Y-62.367
X-18.238 Y-62.963
X-18.211 Y-63.547
X-18.179 Y-64.117
X-18.14 Y-64.674
X-18.096 Y-65.218
X-18.047 Y-65.75
X-17.991 Y-66.268
X-17.93 Y-66.773
X-17.864 Y-67.265
X-17.792 Y-67.744
X-17.714 Y-68.21
X-17.631 Y-68.663
X-17.543 Y-69.103
X-17.45 Y-69.529
X-17.352 Y-69.942
X-17.248 Y-70.341
X-17.14 Y-70.726
X-17.026 Y-71.097
X-16.908 Y-71.454
X-16.785 Y-71.797
X-16.658 Y-72.126
X-16.527 Y-72.439
