(Motortrager_X8)
(Bearbeiten)
(  Hersteller: ChinaCnc)
(  model: 3040T)
(  description: Generic 3-axis)
(T5  D=3.175 CR=0 - ZMIN=-1.2 - Schaftfraser)
G90 G94
G17
G21

(Bohrfrasen8)
T5
S6000 M3
G54
G0 X-16.105 Y-35.31
Z15
Z2
G1 Z0 F1000
X-16.186 Y-35.229
X-16.217 Y-35.235
X-16.244 Y-35.253
X-16.261 Y-35.279
X-16.267 Y-35.31
G3 X-15.942 Y-35.31 Z-0.25 I0.163 J0
X-16.267 Y-35.31 Z-0.5 I-0.163 J0
X-15.942 Y-35.31 Z-0.75 I0.163 J0
X-16.267 Y-35.31 Z-1 I-0.163 J0
X-15.974 Y-35.406 Z-1.2 I0.163 J0
X-16.236 Y-35.215 I-0.131 J0.096
X-15.974 Y-35.406 I0.131 J-0.096
G1 X-15.96 Y-35.377
X-15.959 Y-35.345
X-15.97 Y-35.316
X-15.991 Y-35.292
X-16.105 Y-35.31
G0 Z5
X-30.017 Y-33.168
Z2
G1 Z0 F1000
X-30.098 Y-33.087
X-30.129 Y-33.093
X-30.156 Y-33.11
X-30.173 Y-33.137
X-30.18 Y-33.168
G3 X-29.855 Y-33.168 Z-0.25 I0.163 J0
X-30.18 Y-33.168 Z-0.5 I-0.163 J0
X-29.855 Y-33.168 Z-0.75 I0.162 J0
X-30.18 Y-33.168 Z-1 I-0.162 J0
X-29.886 Y-33.263 Z-1.2 I0.162 J0
X-30.149 Y-33.072 I-0.131 J0.096
X-29.886 Y-33.263 I0.131 J-0.096
G1 X-29.872 Y-33.235
X-29.871 Y-33.203
X-29.882 Y-33.173
X-29.904 Y-33.15
X-30.017 Y-33.168
G0 Z5
X-40.604 Y-24.896
Z2
G1 Z0 F1000
X-40.685 Y-24.815
X-40.716 Y-24.821
X-40.743 Y-24.839
X-40.76 Y-24.865
X-40.767 Y-24.896
G3 X-40.442 Y-24.896 Z-0.25 I0.163 J0
X-40.767 Y-24.896 Z-0.5 I-0.163 J0
X-40.442 Y-24.896 Z-0.75 I0.163 J0
X-40.767 Y-24.896 Z-1 I-0.163 J0
X-40.473 Y-24.992 Z-1.2 I0.163 J0
X-40.735 Y-24.801 I-0.131 J0.096
X-40.473 Y-24.992 I0.131 J-0.096
G1 X-40.459 Y-24.963
X-40.458 Y-24.932
X-40.469 Y-24.902
X-40.491 Y-24.879
X-40.604 Y-24.896
G0 Z5
X-46.245 Y-12.167
Z2
G1 Z0 F1000
X-46.326 Y-12.086
X-46.357 Y-12.092
X-46.383 Y-12.11
X-46.401 Y-12.136
X-46.407 Y-12.167
G3 X-46.082 Y-12.167 Z-0.25 I0.162 J0
X-46.407 Y-12.167 Z-0.5 I-0.162 J0
X-46.082 Y-12.167 Z-0.75 I0.162 J0
X-46.407 Y-12.167 Z-1 I-0.162 J0
X-46.113 Y-12.263 Z-1.2 I0.162 J0
X-46.376 Y-12.072 I-0.131 J0.096
X-46.113 Y-12.263 I0.131 J-0.096
G1 X-46.1 Y-12.234
X-46.099 Y-12.202
X-46.11 Y-12.173
X-46.131 Y-12.149
X-46.245 Y-12.167
G0 Z5
X-32.333 Y-14.31
Z2
G1 Z0 F1000
X-32.414 Y-14.228
X-32.445 Y-14.234
X-32.471 Y-14.252
X-32.489 Y-14.278
X-32.495 Y-14.31
G3 X-32.17 Y-14.31 Z-0.25 I0.163 J0
X-32.495 Y-14.31 Z-0.5 I-0.163 J0
X-32.17 Y-14.31 Z-0.75 I0.163 J0
X-32.495 Y-14.31 Z-1 I-0.162 J0
X-32.201 Y-14.405 Z-1.2 I0.162 J0
X-32.464 Y-14.214 I-0.131 J0.096
X-32.201 Y-14.405 I0.131 J-0.096
G1 X-32.188 Y-14.376
X-32.187 Y-14.345
X-32.198 Y-14.315
X-32.219 Y-14.292
X-32.333 Y-14.31
G0 Z5
X-21.746 Y-22.581
Z2
G1 Z0 F1000
X-21.827 Y-22.5
X-21.858 Y-22.506
X-21.884 Y-22.524
X-21.902 Y-22.55
X-21.908 Y-22.581
G3 X-21.583 Y-22.581 Z-0.25 I0.162 J0
X-21.908 Y-22.581 Z-0.5 I-0.162 J0
X-21.583 Y-22.581 Z-0.75 I0.162 J0
X-21.908 Y-22.581 Z-1 I-0.162 J0
X-21.614 Y-22.676 Z-1.2 I0.162 J0
X-21.877 Y-22.485 I-0.131 J0.096
X-21.614 Y-22.676 I0.131 J-0.096
G1 X-21.601 Y-22.648
X-21.6 Y-22.616
X-21.611 Y-22.586
X-21.632 Y-22.563
X-21.746 Y-22.581
G0 Z15

(2D-Kontur10)
X-33.165 Y-20.966
Z15
Z5
G1 Z1.5 F333.3
Z1
S5000
G3 X-29.185 Y-26.511 Z0.626 I1.99 J-2.772
X-33.165 Y-20.966 Z0.251 I-1.99 J2.772
X-29.185 Y-26.511 Z-0.123 I1.99 J-2.772
X-28.423 Y-21.72 Z-0.312 I-1.99 J2.772
X-33.222 Y-21.009 Z-0.5 I-2.751 J-2.019
S6000
X-29.127 Y-26.469 I2.048 J-2.73 F1000
X-33.222 Y-21.009 I-2.048 J2.73
S5000
X-29.127 Y-26.469 Z-0.874 I2.048 J-2.73 F333.3
X-27.79 Y-23.307 Z-1 I-2.048 J2.73
S6000
X-34.56 Y-24.171 I-3.385 J-0.432 F1000
X-27.79 Y-23.307 I3.385 J0.432
S5000
X-31.967 Y-20.42 Z-1.2 I-3.385 J-0.432 F333.3
S6000
X-30.382 Y-27.058 I0.793 J-3.319 F1000
X-31.967 Y-20.42 I-0.793 J3.319
G0 Z15

(2D-Kontur11)
X-8.413 Y-31.716
Z15
Z5
G1 Z2.5 F333.3
S5000
G2 X-10.73 Y-39.118 Z2.225 I-12.591 J-0.123
X-11.122 Y-39.619 Z2.202 I-5.375 J3.808
X-28.324 Y-41.371 Z1.537 I-9.529 J8.24
G1 X-48.945 Y-25.536 Z0.629
G2 X-51.694 Y-8.466 Z-0.036 I7.672 J9.992
X-51.312 Y-7.957 Z-0.059 I5.449 J-3.701
X-40.041 Y-3.513 Z-0.5 I9.685 J-8.047
S6000
X-33.958 Y-6.017 I-1.586 J-12.492 F1000
G1 X-13.336 Y-21.852
G2 X-10.73 Y-39.118 I-7.669 J-9.987
X-11.122 Y-39.619 I-5.375 J3.808
X-28.324 Y-41.371 I-9.529 J8.24
G1 X-33.668 Y-37.267
Z-0.406
X-40.945 Y-31.679
Z-0.5 F333.3
X-48.945 Y-25.536 F1000
G2 X-51.694 Y-8.466 I7.672 J9.992
X-51.312 Y-7.957 I5.449 J-3.701
X-40.041 Y-3.513 I9.685 J-8.047
S5000
X-33.958 Y-6.017 Z-0.732 I-1.586 J-12.492 F333.3
G1 X-27.88 Y-10.684 Z-1
S6000
X-13.336 Y-21.852 F1000
G2 X-10.73 Y-39.118 I-7.669 J-9.987
X-11.122 Y-39.619 I-5.375 J3.808
X-28.324 Y-41.371 I-9.529 J8.24
G1 X-33.668 Y-37.267
Z-0.406
X-40.945 Y-31.679
Z-1 F333.3
X-48.945 Y-25.536 F1000
G2 X-51.694 Y-8.466 I7.672 J9.992
X-51.312 Y-7.957 I5.449 J-3.701
X-33.958 Y-6.017 I9.685 J-8.047
G1 X-27.88 Y-10.684
S5000
X-23.338 Y-14.172 Z-1.2 F333.3
S6000
X-13.336 Y-21.852 F1000
G2 X-10.73 Y-39.118 I-7.669 J-9.987
X-11.122 Y-39.619 I-5.375 J3.808
X-28.324 Y-41.371 I-9.529 J8.24
G1 X-33.668 Y-37.267
Z-0.406
X-40.945 Y-31.679
Z-1.2 F333.3
X-48.945 Y-25.536 F1000
G2 X-51.694 Y-8.466 I7.672 J9.992
X-51.312 Y-7.957 I5.449 J-3.701
X-33.958 Y-6.017 I9.685 J-8.047
G1 X-23.338 Y-14.172
G0 Z15

(Bohrfrasen8)
X-61.105 Y-35.31
Z15
Z2
G1 Z0 F1000
X-61.186 Y-35.229
X-61.217 Y-35.235
X-61.244 Y-35.253
X-61.261 Y-35.279
X-61.267 Y-35.31
G3 X-60.942 Y-35.31 Z-0.25 I0.163 J0
X-61.267 Y-35.31 Z-0.5 I-0.163 J0
X-60.942 Y-35.31 Z-0.75 I0.163 J0
X-61.267 Y-35.31 Z-1 I-0.163 J0
X-60.974 Y-35.406 Z-1.2 I0.163 J0
X-61.236 Y-35.215 I-0.131 J0.096
X-60.974 Y-35.406 I0.131 J-0.096
G1 X-60.96 Y-35.377
X-60.959 Y-35.345
X-60.97 Y-35.316
X-60.991 Y-35.292
X-61.105 Y-35.31
G0 Z5
X-75.017 Y-33.168
Z2
G1 Z0 F1000
X-75.098 Y-33.087
X-75.129 Y-33.093
X-75.156 Y-33.11
X-75.173 Y-33.137
X-75.18 Y-33.168
G3 X-74.855 Y-33.168 Z-0.25 I0.163 J0
X-75.18 Y-33.168 Z-0.5 I-0.163 J0
X-74.855 Y-33.168 Z-0.75 I0.162 J0
X-75.18 Y-33.168 Z-1 I-0.162 J0
X-74.886 Y-33.263 Z-1.2 I0.162 J0
X-75.149 Y-33.072 I-0.131 J0.096
X-74.886 Y-33.263 I0.131 J-0.096
G1 X-74.872 Y-33.235
X-74.871 Y-33.203
X-74.882 Y-33.173
X-74.904 Y-33.15
X-75.017 Y-33.168
G0 Z5
X-85.604 Y-24.896
Z2
G1 Z0 F1000
X-85.685 Y-24.815
X-85.716 Y-24.821
X-85.743 Y-24.839
X-85.76 Y-24.865
X-85.767 Y-24.896
G3 X-85.442 Y-24.896 Z-0.25 I0.163 J0
X-85.767 Y-24.896 Z-0.5 I-0.163 J0
X-85.442 Y-24.896 Z-0.75 I0.163 J0
X-85.767 Y-24.896 Z-1 I-0.163 J0
X-85.473 Y-24.992 Z-1.2 I0.163 J0
X-85.735 Y-24.801 I-0.131 J0.096
X-85.473 Y-24.992 I0.131 J-0.096
G1 X-85.459 Y-24.963
X-85.458 Y-24.932
X-85.469 Y-24.902
X-85.491 Y-24.879
X-85.604 Y-24.896
G0 Z5
X-91.245 Y-12.167
Z2
G1 Z0 F1000
X-91.326 Y-12.086
X-91.357 Y-12.092
X-91.383 Y-12.11
X-91.401 Y-12.136
X-91.407 Y-12.167
G3 X-91.082 Y-12.167 Z-0.25 I0.162 J0
X-91.407 Y-12.167 Z-0.5 I-0.162 J0
X-91.082 Y-12.167 Z-0.75 I0.162 J0
X-91.407 Y-12.167 Z-1 I-0.162 J0
X-91.113 Y-12.263 Z-1.2 I0.162 J0
X-91.376 Y-12.072 I-0.131 J0.096
X-91.113 Y-12.263 I0.131 J-0.096
G1 X-91.1 Y-12.234
X-91.099 Y-12.202
X-91.11 Y-12.173
X-91.131 Y-12.149
X-91.245 Y-12.167
G0 Z5
X-77.333 Y-14.31
Z2
G1 Z0 F1000
X-77.414 Y-14.228
X-77.445 Y-14.234
X-77.471 Y-14.252
X-77.489 Y-14.278
X-77.495 Y-14.31
G3 X-77.17 Y-14.31 Z-0.25 I0.163 J0
X-77.495 Y-14.31 Z-0.5 I-0.163 J0
X-77.17 Y-14.31 Z-0.75 I0.163 J0
X-77.495 Y-14.31 Z-1 I-0.162 J0
X-77.201 Y-14.405 Z-1.2 I0.162 J0
X-77.464 Y-14.214 I-0.131 J0.096
X-77.201 Y-14.405 I0.131 J-0.096
G1 X-77.188 Y-14.376
X-77.187 Y-14.345
X-77.198 Y-14.315
X-77.219 Y-14.292
X-77.333 Y-14.31
G0 Z5
X-66.746 Y-22.581
Z2
G1 Z0 F1000
X-66.827 Y-22.5
X-66.858 Y-22.506
X-66.884 Y-22.524
X-66.902 Y-22.55
X-66.908 Y-22.581
G3 X-66.583 Y-22.581 Z-0.25 I0.162 J0
X-66.908 Y-22.581 Z-0.5 I-0.162 J0
X-66.583 Y-22.581 Z-0.75 I0.162 J0
X-66.908 Y-22.581 Z-1 I-0.162 J0
X-66.614 Y-22.676 Z-1.2 I0.162 J0
X-66.877 Y-22.485 I-0.131 J0.096
X-66.614 Y-22.676 I0.131 J-0.096
G1 X-66.601 Y-22.648
X-66.6 Y-22.616
X-66.611 Y-22.586
X-66.632 Y-22.563
X-66.746 Y-22.581
G0 Z15

(2D-Kontur10)
X-78.165 Y-20.966
Z15
Z5
G1 Z1.5 F333.3
Z1
S5000
G3 X-74.185 Y-26.511 Z0.626 I1.99 J-2.772
X-78.165 Y-20.966 Z0.251 I-1.99 J2.772
X-74.185 Y-26.511 Z-0.123 I1.99 J-2.772
X-73.423 Y-21.72 Z-0.312 I-1.99 J2.772
X-78.222 Y-21.009 Z-0.5 I-2.751 J-2.019
S6000
X-74.127 Y-26.469 I2.048 J-2.73 F1000
X-78.222 Y-21.009 I-2.048 J2.73
S5000
X-74.127 Y-26.469 Z-0.874 I2.048 J-2.73 F333.3
X-72.79 Y-23.307 Z-1 I-2.048 J2.73
S6000
X-79.56 Y-24.171 I-3.385 J-0.432 F1000
X-72.79 Y-23.307 I3.385 J0.432
S5000
X-76.967 Y-20.42 Z-1.2 I-3.385 J-0.432 F333.3
S6000
X-75.382 Y-27.058 I0.793 J-3.319 F1000
X-76.967 Y-20.42 I-0.793 J3.319
G0 Z15

(2D-Kontur11)
X-53.413 Y-31.716
Z15
Z5
G1 Z2.5 F333.3
S5000
G2 X-55.73 Y-39.118 Z2.225 I-12.591 J-0.123
X-56.122 Y-39.619 Z2.202 I-5.375 J3.808
X-73.324 Y-41.371 Z1.537 I-9.529 J8.24
G1 X-93.945 Y-25.536 Z0.629
G2 X-96.694 Y-8.466 Z-0.036 I7.672 J9.992
X-96.312 Y-7.957 Z-0.059 I5.449 J-3.701
X-85.041 Y-3.513 Z-0.5 I9.685 J-8.047
S6000
X-78.958 Y-6.017 I-1.586 J-12.492 F1000
G1 X-58.336 Y-21.852
G2 X-55.73 Y-39.118 I-7.669 J-9.987
X-56.122 Y-39.619 I-5.375 J3.808
X-73.324 Y-41.371 I-9.529 J8.24
G1 X-78.668 Y-37.267
Z-0.406
X-85.945 Y-31.679
Z-0.5 F333.3
X-93.945 Y-25.536 F1000
G2 X-96.694 Y-8.466 I7.672 J9.992
X-96.312 Y-7.957 I5.449 J-3.701
X-85.041 Y-3.513 I9.685 J-8.047
S5000
X-78.958 Y-6.017 Z-0.732 I-1.586 J-12.492 F333.3
G1 X-72.88 Y-10.684 Z-1
S6000
X-58.336 Y-21.852 F1000
G2 X-55.73 Y-39.118 I-7.669 J-9.987
X-56.122 Y-39.619 I-5.375 J3.808
X-73.324 Y-41.371 I-9.529 J8.24
G1 X-78.668 Y-37.267
Z-0.406
X-85.945 Y-31.679
Z-1 F333.3
X-93.945 Y-25.536 F1000
G2 X-96.694 Y-8.466 I7.672 J9.992
X-96.312 Y-7.957 I5.449 J-3.701
X-78.958 Y-6.017 I9.685 J-8.047
G1 X-72.88 Y-10.684
S5000
X-68.338 Y-14.172 Z-1.2 F333.3
S6000
X-58.336 Y-21.852 F1000
G2 X-55.73 Y-39.118 I-7.669 J-9.987
X-56.122 Y-39.619 I-5.375 J3.808
X-73.324 Y-41.371 I-9.529 J8.24
G1 X-78.668 Y-37.267
Z-0.406
X-85.945 Y-31.679
Z-1.2 F333.3
X-93.945 Y-25.536 F1000
G2 X-96.694 Y-8.466 I7.672 J9.992
X-96.312 Y-7.957 I5.449 J-3.701
X-78.958 Y-6.017 I9.685 J-8.047
G1 X-68.338 Y-14.172
G0 Z15

(Bohrfrasen8)
X-106.105 Y-35.31
Z15
Z2
G1 Z0 F1000
X-106.186 Y-35.229
X-106.217 Y-35.235
X-106.244 Y-35.253
X-106.261 Y-35.279
X-106.267 Y-35.31
G3 X-105.942 Y-35.31 Z-0.25 I0.163 J0
X-106.267 Y-35.31 Z-0.5 I-0.163 J0
X-105.942 Y-35.31 Z-0.75 I0.163 J0
X-106.267 Y-35.31 Z-1 I-0.163 J0
X-105.974 Y-35.406 Z-1.2 I0.163 J0
X-106.236 Y-35.215 I-0.131 J0.096
X-105.974 Y-35.406 I0.131 J-0.096
G1 X-105.96 Y-35.377
X-105.959 Y-35.345
X-105.97 Y-35.316
X-105.991 Y-35.292
X-106.105 Y-35.31
G0 Z5
X-120.017 Y-33.168
Z2
G1 Z0 F1000
X-120.098 Y-33.087
X-120.129 Y-33.093
X-120.156 Y-33.11
X-120.173 Y-33.137
X-120.18 Y-33.168
G3 X-119.855 Y-33.168 Z-0.25 I0.163 J0
X-120.18 Y-33.168 Z-0.5 I-0.163 J0
X-119.855 Y-33.168 Z-0.75 I0.162 J0
X-120.18 Y-33.168 Z-1 I-0.162 J0
X-119.886 Y-33.263 Z-1.2 I0.162 J0
X-120.149 Y-33.072 I-0.131 J0.096
X-119.886 Y-33.263 I0.131 J-0.096
G1 X-119.872 Y-33.235
X-119.871 Y-33.203
X-119.882 Y-33.173
X-119.904 Y-33.15
X-120.017 Y-33.168
G0 Z5
X-130.604 Y-24.896
Z2
G1 Z0 F1000
X-130.685 Y-24.815
X-130.716 Y-24.821
X-130.743 Y-24.839
X-130.76 Y-24.865
X-130.767 Y-24.896
G3 X-130.442 Y-24.896 Z-0.25 I0.163 J0
X-130.767 Y-24.896 Z-0.5 I-0.163 J0
X-130.442 Y-24.896 Z-0.75 I0.163 J0
X-130.767 Y-24.896 Z-1 I-0.163 J0
X-130.473 Y-24.992 Z-1.2 I0.163 J0
X-130.735 Y-24.801 I-0.131 J0.096
X-130.473 Y-24.992 I0.131 J-0.096
G1 X-130.459 Y-24.963
X-130.458 Y-24.932
X-130.469 Y-24.902
X-130.491 Y-24.879
X-130.604 Y-24.896
G0 Z5
X-136.245 Y-12.167
Z2
G1 Z0 F1000
X-136.326 Y-12.086
X-136.357 Y-12.092
X-136.383 Y-12.11
X-136.401 Y-12.136
X-136.407 Y-12.167
G3 X-136.082 Y-12.167 Z-0.25 I0.162 J0
X-136.407 Y-12.167 Z-0.5 I-0.162 J0
X-136.082 Y-12.167 Z-0.75 I0.162 J0
X-136.407 Y-12.167 Z-1 I-0.162 J0
X-136.113 Y-12.263 Z-1.2 I0.162 J0
X-136.376 Y-12.072 I-0.131 J0.096
X-136.113 Y-12.263 I0.131 J-0.096
G1 X-136.1 Y-12.234
X-136.099 Y-12.202
X-136.11 Y-12.173
X-136.131 Y-12.149
X-136.245 Y-12.167
G0 Z5
X-122.333 Y-14.31
Z2
G1 Z0 F1000
X-122.414 Y-14.228
X-122.445 Y-14.234
X-122.471 Y-14.252
X-122.489 Y-14.278
X-122.495 Y-14.31
G3 X-122.17 Y-14.31 Z-0.25 I0.163 J0
X-122.495 Y-14.31 Z-0.5 I-0.163 J0
X-122.17 Y-14.31 Z-0.75 I0.163 J0
X-122.495 Y-14.31 Z-1 I-0.162 J0
X-122.201 Y-14.405 Z-1.2 I0.162 J0
X-122.464 Y-14.214 I-0.131 J0.096
X-122.201 Y-14.405 I0.131 J-0.096
G1 X-122.188 Y-14.376
X-122.187 Y-14.345
X-122.198 Y-14.315
X-122.219 Y-14.292
X-122.333 Y-14.31
G0 Z5
X-111.746 Y-22.581
Z2
G1 Z0 F1000
X-111.827 Y-22.5
X-111.858 Y-22.506
X-111.884 Y-22.524
X-111.902 Y-22.55
X-111.908 Y-22.581
G3 X-111.583 Y-22.581 Z-0.25 I0.162 J0
X-111.908 Y-22.581 Z-0.5 I-0.162 J0
X-111.583 Y-22.581 Z-0.75 I0.162 J0
X-111.908 Y-22.581 Z-1 I-0.162 J0
X-111.614 Y-22.676 Z-1.2 I0.162 J0
X-111.877 Y-22.485 I-0.131 J0.096
X-111.614 Y-22.676 I0.131 J-0.096
G1 X-111.601 Y-22.648
X-111.6 Y-22.616
X-111.611 Y-22.586
X-111.632 Y-22.563
X-111.746 Y-22.581
G0 Z15

(2D-Kontur10)
X-123.165 Y-20.966
Z15
Z5
G1 Z1.5 F333.3
Z1
S5000
G3 X-119.185 Y-26.511 Z0.626 I1.99 J-2.772
X-123.165 Y-20.966 Z0.251 I-1.99 J2.772
X-119.185 Y-26.511 Z-0.123 I1.99 J-2.772
X-118.423 Y-21.72 Z-0.312 I-1.99 J2.772
X-123.222 Y-21.009 Z-0.5 I-2.751 J-2.019
S6000
X-119.127 Y-26.469 I2.048 J-2.73 F1000
X-123.222 Y-21.009 I-2.048 J2.73
S5000
X-119.127 Y-26.469 Z-0.874 I2.048 J-2.73 F333.3
X-117.79 Y-23.307 Z-1 I-2.048 J2.73
S6000
X-124.56 Y-24.171 I-3.385 J-0.432 F1000
X-117.79 Y-23.307 I3.385 J0.432
S5000
X-121.967 Y-20.42 Z-1.2 I-3.385 J-0.432 F333.3
S6000
X-120.382 Y-27.058 I0.793 J-3.319 F1000
X-121.967 Y-20.42 I-0.793 J3.319
G0 Z15

(2D-Kontur11)
X-98.413 Y-31.716
Z15
Z5
G1 Z2.5 F333.3
S5000
G2 X-100.73 Y-39.118 Z2.225 I-12.591 J-0.123
X-101.122 Y-39.619 Z2.202 I-5.375 J3.808
X-118.324 Y-41.371 Z1.537 I-9.529 J8.24
G1 X-138.945 Y-25.536 Z0.629
G2 X-141.694 Y-8.466 Z-0.036 I7.672 J9.992
X-141.312 Y-7.957 Z-0.059 I5.449 J-3.701
X-130.041 Y-3.513 Z-0.5 I9.685 J-8.047
S6000
X-123.958 Y-6.017 I-1.586 J-12.492 F1000
G1 X-103.336 Y-21.852
G2 X-100.73 Y-39.118 I-7.669 J-9.987
X-101.122 Y-39.619 I-5.375 J3.808
X-118.324 Y-41.371 I-9.529 J8.24
G1 X-123.668 Y-37.267
Z-0.406
X-130.945 Y-31.679
Z-0.5 F333.3
X-138.945 Y-25.536 F1000
G2 X-141.694 Y-8.466 I7.672 J9.992
X-141.312 Y-7.957 I5.449 J-3.701
X-130.041 Y-3.513 I9.685 J-8.047
S5000
X-123.958 Y-6.017 Z-0.732 I-1.586 J-12.492 F333.3
G1 X-117.88 Y-10.684 Z-1
S6000
X-103.336 Y-21.852 F1000
G2 X-100.73 Y-39.118 I-7.669 J-9.987
X-101.122 Y-39.619 I-5.375 J3.808
X-118.324 Y-41.371 I-9.529 J8.24
G1 X-123.668 Y-37.267
Z-0.406
X-130.945 Y-31.679
Z-1 F333.3
X-138.945 Y-25.536 F1000
G2 X-141.694 Y-8.466 I7.672 J9.992
X-141.312 Y-7.957 I5.449 J-3.701
X-123.958 Y-6.017 I9.685 J-8.047
G1 X-117.88 Y-10.684
S5000
X-113.338 Y-14.172 Z-1.2 F333.3
S6000
X-103.336 Y-21.852 F1000
G2 X-100.73 Y-39.118 I-7.669 J-9.987
X-101.122 Y-39.619 I-5.375 J3.808
X-118.324 Y-41.371 I-9.529 J8.24
G1 X-123.668 Y-37.267
Z-0.406
X-130.945 Y-31.679
Z-1.2 F333.3
X-138.945 Y-25.536 F1000
G2 X-141.694 Y-8.466 I7.672 J9.992
X-141.312 Y-7.957 I5.449 J-3.701
X-123.958 Y-6.017 I9.685 J-8.047
G1 X-113.338 Y-14.172
G0 Z15

(Bohrfrasen8)
X-16.105 Y-80.31
Z15
Z2
G1 Z0 F1000
X-16.186 Y-80.229
X-16.217 Y-80.235
X-16.244 Y-80.253
X-16.261 Y-80.279
X-16.267 Y-80.31
G3 X-15.942 Y-80.31 Z-0.25 I0.163 J0
X-16.267 Y-80.31 Z-0.5 I-0.163 J0
X-15.942 Y-80.31 Z-0.75 I0.163 J0
X-16.267 Y-80.31 Z-1 I-0.163 J0
X-15.974 Y-80.406 Z-1.2 I0.163 J0
X-16.236 Y-80.215 I-0.131 J0.096
X-15.974 Y-80.406 I0.131 J-0.096
G1 X-15.96 Y-80.377
X-15.959 Y-80.345
X-15.97 Y-80.316
X-15.991 Y-80.292
X-16.105 Y-80.31
G0 Z5
X-30.017 Y-78.168
Z2
G1 Z0 F1000
X-30.098 Y-78.087
X-30.129 Y-78.093
X-30.156 Y-78.11
X-30.173 Y-78.137
X-30.18 Y-78.168
G3 X-29.855 Y-78.168 Z-0.25 I0.163 J0
X-30.18 Y-78.168 Z-0.5 I-0.163 J0
X-29.855 Y-78.168 Z-0.75 I0.162 J0
X-30.18 Y-78.168 Z-1 I-0.162 J0
X-29.886 Y-78.263 Z-1.2 I0.162 J0
X-30.149 Y-78.072 I-0.131 J0.096
X-29.886 Y-78.263 I0.131 J-0.096
G1 X-29.872 Y-78.235
X-29.871 Y-78.203
X-29.882 Y-78.173
X-29.904 Y-78.15
X-30.017 Y-78.168
G0 Z5
X-40.604 Y-69.896
Z2
G1 Z0 F1000
X-40.685 Y-69.815
X-40.716 Y-69.821
X-40.743 Y-69.839
X-40.76 Y-69.865
X-40.767 Y-69.896
G3 X-40.442 Y-69.896 Z-0.25 I0.163 J0
X-40.767 Y-69.896 Z-0.5 I-0.163 J0
X-40.442 Y-69.896 Z-0.75 I0.163 J0
X-40.767 Y-69.896 Z-1 I-0.163 J0
X-40.473 Y-69.992 Z-1.2 I0.163 J0
X-40.735 Y-69.801 I-0.131 J0.096
X-40.473 Y-69.992 I0.131 J-0.096
G1 X-40.459 Y-69.963
X-40.458 Y-69.932
X-40.469 Y-69.902
X-40.491 Y-69.879
X-40.604 Y-69.896
G0 Z5
X-46.245 Y-57.167
Z2
G1 Z0 F1000
X-46.326 Y-57.086
X-46.357 Y-57.092
X-46.383 Y-57.11
X-46.401 Y-57.136
X-46.407 Y-57.167
G3 X-46.082 Y-57.167 Z-0.25 I0.162 J0
X-46.407 Y-57.167 Z-0.5 I-0.162 J0
X-46.082 Y-57.167 Z-0.75 I0.162 J0
X-46.407 Y-57.167 Z-1 I-0.162 J0
X-46.113 Y-57.263 Z-1.2 I0.162 J0
X-46.376 Y-57.072 I-0.131 J0.096
X-46.113 Y-57.263 I0.131 J-0.096
G1 X-46.1 Y-57.234
X-46.099 Y-57.202
X-46.11 Y-57.173
X-46.131 Y-57.149
X-46.245 Y-57.167
G0 Z5
X-32.333 Y-59.31
Z2
G1 Z0 F1000
X-32.414 Y-59.228
X-32.445 Y-59.234
X-32.471 Y-59.252
X-32.489 Y-59.278
X-32.495 Y-59.31
G3 X-32.17 Y-59.31 Z-0.25 I0.163 J0
X-32.495 Y-59.31 Z-0.5 I-0.163 J0
X-32.17 Y-59.31 Z-0.75 I0.163 J0
X-32.495 Y-59.31 Z-1 I-0.162 J0
X-32.201 Y-59.405 Z-1.2 I0.162 J0
X-32.464 Y-59.214 I-0.131 J0.096
X-32.201 Y-59.405 I0.131 J-0.096
G1 X-32.188 Y-59.376
X-32.187 Y-59.345
X-32.198 Y-59.315
X-32.219 Y-59.292
X-32.333 Y-59.31
G0 Z5
X-21.746 Y-67.581
Z2
G1 Z0 F1000
X-21.827 Y-67.5
X-21.858 Y-67.506
X-21.884 Y-67.524
X-21.902 Y-67.55
X-21.908 Y-67.581
G3 X-21.583 Y-67.581 Z-0.25 I0.162 J0
X-21.908 Y-67.581 Z-0.5 I-0.162 J0
X-21.583 Y-67.581 Z-0.75 I0.162 J0
X-21.908 Y-67.581 Z-1 I-0.162 J0
X-21.614 Y-67.676 Z-1.2 I0.162 J0
X-21.877 Y-67.485 I-0.131 J0.096
X-21.614 Y-67.676 I0.131 J-0.096
G1 X-21.601 Y-67.648
X-21.6 Y-67.616
X-21.611 Y-67.586
X-21.632 Y-67.563
X-21.746 Y-67.581
G0 Z15

(2D-Kontur10)
X-33.165 Y-65.966
Z15
Z5
G1 Z1.5 F333.3
Z1
S5000
G3 X-29.185 Y-71.511 Z0.626 I1.99 J-2.772
X-33.165 Y-65.966 Z0.251 I-1.99 J2.772
X-29.185 Y-71.511 Z-0.123 I1.99 J-2.772
X-28.423 Y-66.72 Z-0.312 I-1.99 J2.772
X-33.222 Y-66.009 Z-0.5 I-2.751 J-2.019
S6000
X-29.127 Y-71.469 I2.048 J-2.73 F1000
X-33.222 Y-66.009 I-2.048 J2.73
S5000
X-29.127 Y-71.469 Z-0.874 I2.048 J-2.73 F333.3
X-27.79 Y-68.307 Z-1 I-2.048 J2.73
S6000
X-34.56 Y-69.171 I-3.385 J-0.432 F1000
X-27.79 Y-68.307 I3.385 J0.432
S5000
X-31.967 Y-65.42 Z-1.2 I-3.385 J-0.432 F333.3
S6000
X-30.382 Y-72.058 I0.793 J-3.319 F1000
X-31.967 Y-65.42 I-0.793 J3.319
G0 Z15

(2D-Kontur11)
X-8.413 Y-76.716
Z15
Z5
G1 Z2.5 F333.3
S5000
G2 X-10.73 Y-84.118 Z2.225 I-12.591 J-0.123
X-11.122 Y-84.619 Z2.202 I-5.375 J3.808
X-28.324 Y-86.371 Z1.537 I-9.529 J8.24
G1 X-48.945 Y-70.536 Z0.629
G2 X-51.694 Y-53.466 Z-0.036 I7.672 J9.992
X-51.312 Y-52.957 Z-0.059 I5.449 J-3.701
X-40.041 Y-48.513 Z-0.5 I9.685 J-8.047
S6000
X-33.958 Y-51.017 I-1.586 J-12.492 F1000
G1 X-13.336 Y-66.852
G2 X-10.73 Y-84.118 I-7.669 J-9.987
X-11.122 Y-84.619 I-5.375 J3.808
X-28.324 Y-86.371 I-9.529 J8.24
G1 X-33.668 Y-82.267
Z-0.406
X-40.945 Y-76.679
Z-0.5 F333.3
X-48.945 Y-70.536 F1000
G2 X-51.694 Y-53.466 I7.672 J9.992
X-51.312 Y-52.957 I5.449 J-3.701
X-40.041 Y-48.513 I9.685 J-8.047
S5000
X-33.958 Y-51.017 Z-0.732 I-1.586 J-12.492 F333.3
G1 X-27.88 Y-55.684 Z-1
S6000
X-13.336 Y-66.852 F1000
G2 X-10.73 Y-84.118 I-7.669 J-9.987
X-11.122 Y-84.619 I-5.375 J3.808
X-28.324 Y-86.371 I-9.529 J8.24
G1 X-33.668 Y-82.267
Z-0.406
X-40.945 Y-76.679
Z-1 F333.3
X-48.945 Y-70.536 F1000
G2 X-51.694 Y-53.466 I7.672 J9.992
X-51.312 Y-52.957 I5.449 J-3.701
X-33.958 Y-51.017 I9.685 J-8.047
G1 X-27.88 Y-55.684
S5000
X-23.338 Y-59.172 Z-1.2 F333.3
S6000
X-13.336 Y-66.852 F1000
G2 X-10.73 Y-84.118 I-7.669 J-9.987
X-11.122 Y-84.619 I-5.375 J3.808
X-28.324 Y-86.371 I-9.529 J8.24
G1 X-33.668 Y-82.267
Z-0.406
X-40.945 Y-76.679
Z-1.2 F333.3
X-48.945 Y-70.536 F1000
G2 X-51.694 Y-53.466 I7.672 J9.992
X-51.312 Y-52.957 I5.449 J-3.701
X-33.958 Y-51.017 I9.685 J-8.047
G1 X-23.338 Y-59.172
G0 Z15

(Bohrfrasen8)
X-61.105 Y-80.31
Z15
Z2
G1 Z0 F1000
X-61.186 Y-80.229
X-61.217 Y-80.235
X-61.244 Y-80.253
X-61.261 Y-80.279
X-61.267 Y-80.31
G3 X-60.942 Y-80.31 Z-0.25 I0.163 J0
X-61.267 Y-80.31 Z-0.5 I-0.163 J0
X-60.942 Y-80.31 Z-0.75 I0.163 J0
X-61.267 Y-80.31 Z-1 I-0.163 J0
X-60.974 Y-80.406 Z-1.2 I0.163 J0
X-61.236 Y-80.215 I-0.131 J0.096
X-60.974 Y-80.406 I0.131 J-0.096
G1 X-60.96 Y-80.377
X-60.959 Y-80.345
X-60.97 Y-80.316
X-60.991 Y-80.292
X-61.105 Y-80.31
G0 Z5
X-75.017 Y-78.168
Z2
G1 Z0 F1000
X-75.098 Y-78.087
X-75.129 Y-78.093
X-75.156 Y-78.11
X-75.173 Y-78.137
X-75.18 Y-78.168
G3 X-74.855 Y-78.168 Z-0.25 I0.163 J0
X-75.18 Y-78.168 Z-0.5 I-0.163 J0
X-74.855 Y-78.168 Z-0.75 I0.162 J0
X-75.18 Y-78.168 Z-1 I-0.162 J0
X-74.886 Y-78.263 Z-1.2 I0.162 J0
X-75.149 Y-78.072 I-0.131 J0.096
X-74.886 Y-78.263 I0.131 J-0.096
G1 X-74.872 Y-78.235
X-74.871 Y-78.203
X-74.882 Y-78.173
X-74.904 Y-78.15
X-75.017 Y-78.168
G0 Z5
X-85.604 Y-69.896
Z2
G1 Z0 F1000
X-85.685 Y-69.815
X-85.716 Y-69.821
X-85.743 Y-69.839
X-85.76 Y-69.865
X-85.767 Y-69.896
G3 X-85.442 Y-69.896 Z-0.25 I0.163 J0
X-85.767 Y-69.896 Z-0.5 I-0.163 J0
X-85.442 Y-69.896 Z-0.75 I0.163 J0
X-85.767 Y-69.896 Z-1 I-0.163 J0
X-85.473 Y-69.992 Z-1.2 I0.163 J0
X-85.735 Y-69.801 I-0.131 J0.096
X-85.473 Y-69.992 I0.131 J-0.096
G1 X-85.459 Y-69.963
X-85.458 Y-69.932
X-85.469 Y-69.902
X-85.491 Y-69.879
X-85.604 Y-69.896
G0 Z5
X-91.245 Y-57.167
Z2
G1 Z0 F1000
X-91.326 Y-57.086
X-91.357 Y-57.092
X-91.383 Y-57.11
X-91.401 Y-57.136
X-91.407 Y-57.167
G3 X-91.082 Y-57.167 Z-0.25 I0.162 J0
X-91.407 Y-57.167 Z-0.5 I-0.162 J0
X-91.082 Y-57.167 Z-0.75 I0.162 J0
X-91.407 Y-57.167 Z-1 I-0.162 J0
X-91.113 Y-57.263 Z-1.2 I0.162 J0
X-91.376 Y-57.072 I-0.131 J0.096
X-91.113 Y-57.263 I0.131 J-0.096
G1 X-91.1 Y-57.234
X-91.099 Y-57.202
X-91.11 Y-57.173
X-91.131 Y-57.149
X-91.245 Y-57.167
G0 Z5
X-77.333 Y-59.31
Z2
G1 Z0 F1000
X-77.414 Y-59.228
X-77.445 Y-59.234
X-77.471 Y-59.252
X-77.489 Y-59.278
X-77.495 Y-59.31
G3 X-77.17 Y-59.31 Z-0.25 I0.163 J0
X-77.495 Y-59.31 Z-0.5 I-0.163 J0
X-77.17 Y-59.31 Z-0.75 I0.163 J0
X-77.495 Y-59.31 Z-1 I-0.162 J0
X-77.201 Y-59.405 Z-1.2 I0.162 J0
X-77.464 Y-59.214 I-0.131 J0.096
X-77.201 Y-59.405 I0.131 J-0.096
G1 X-77.188 Y-59.376
X-77.187 Y-59.345
X-77.198 Y-59.315
X-77.219 Y-59.292
X-77.333 Y-59.31
G0 Z5
X-66.746 Y-67.581
Z2
G1 Z0 F1000
X-66.827 Y-67.5
X-66.858 Y-67.506
X-66.884 Y-67.524
X-66.902 Y-67.55
X-66.908 Y-67.581
G3 X-66.583 Y-67.581 Z-0.25 I0.162 J0
X-66.908 Y-67.581 Z-0.5 I-0.162 J0
X-66.583 Y-67.581 Z-0.75 I0.162 J0
X-66.908 Y-67.581 Z-1 I-0.162 J0
X-66.614 Y-67.676 Z-1.2 I0.162 J0
X-66.877 Y-67.485 I-0.131 J0.096
X-66.614 Y-67.676 I0.131 J-0.096
G1 X-66.601 Y-67.648
X-66.6 Y-67.616
X-66.611 Y-67.586
X-66.632 Y-67.563
X-66.746 Y-67.581
G0 Z15

(2D-Kontur10)
X-78.165 Y-65.966
Z15
Z5
G1 Z1.5 F333.3
Z1
S5000
G3 X-74.185 Y-71.511 Z0.626 I1.99 J-2.772
X-78.165 Y-65.966 Z0.251 I-1.99 J2.772
X-74.185 Y-71.511 Z-0.123 I1.99 J-2.772
X-73.423 Y-66.72 Z-0.312 I-1.99 J2.772
X-78.222 Y-66.009 Z-0.5 I-2.751 J-2.019
S6000
X-74.127 Y-71.469 I2.048 J-2.73 F1000
X-78.222 Y-66.009 I-2.048 J2.73
S5000
X-74.127 Y-71.469 Z-0.874 I2.048 J-2.73 F333.3
X-72.79 Y-68.307 Z-1 I-2.048 J2.73
S6000
X-79.56 Y-69.171 I-3.385 J-0.432 F1000
X-72.79 Y-68.307 I3.385 J0.432
S5000
X-76.967 Y-65.42 Z-1.2 I-3.385 J-0.432 F333.3
S6000
X-75.382 Y-72.058 I0.793 J-3.319 F1000
X-76.967 Y-65.42 I-0.793 J3.319
G0 Z15

(2D-Kontur11)
X-53.413 Y-76.716
Z15
Z5
G1 Z2.5 F333.3
S5000
G2 X-55.73 Y-84.118 Z2.225 I-12.591 J-0.123
X-56.122 Y-84.619 Z2.202 I-5.375 J3.808
X-73.324 Y-86.371 Z1.537 I-9.529 J8.24
G1 X-93.945 Y-70.536 Z0.629
G2 X-96.694 Y-53.466 Z-0.036 I7.672 J9.992
X-96.312 Y-52.957 Z-0.059 I5.449 J-3.701
X-85.041 Y-48.513 Z-0.5 I9.685 J-8.047
S6000
X-78.958 Y-51.017 I-1.586 J-12.492 F1000
G1 X-58.336 Y-66.852
G2 X-55.73 Y-84.118 I-7.669 J-9.987
X-56.122 Y-84.619 I-5.375 J3.808
X-73.324 Y-86.371 I-9.529 J8.24
G1 X-78.668 Y-82.267
Z-0.406
X-85.945 Y-76.679
Z-0.5 F333.3
X-93.945 Y-70.536 F1000
G2 X-96.694 Y-53.466 I7.672 J9.992
X-96.312 Y-52.957 I5.449 J-3.701
X-85.041 Y-48.513 I9.685 J-8.047
S5000
X-78.958 Y-51.017 Z-0.732 I-1.586 J-12.492 F333.3
G1 X-72.88 Y-55.684 Z-1
S6000
X-58.336 Y-66.852 F1000
G2 X-55.73 Y-84.118 I-7.669 J-9.987
X-56.122 Y-84.619 I-5.375 J3.808
X-73.324 Y-86.371 I-9.529 J8.24
G1 X-78.668 Y-82.267
Z-0.406
X-85.945 Y-76.679
Z-1 F333.3
X-93.945 Y-70.536 F1000
G2 X-96.694 Y-53.466 I7.672 J9.992
X-96.312 Y-52.957 I5.449 J-3.701
X-78.958 Y-51.017 I9.685 J-8.047
G1 X-72.88 Y-55.684
S5000
X-68.338 Y-59.172 Z-1.2 F333.3
S6000
X-58.336 Y-66.852 F1000
G2 X-55.73 Y-84.118 I-7.669 J-9.987
X-56.122 Y-84.619 I-5.375 J3.808
X-73.324 Y-86.371 I-9.529 J8.24
G1 X-78.668 Y-82.267
Z-0.406
X-85.945 Y-76.679
Z-1.2 F333.3
X-93.945 Y-70.536 F1000
G2 X-96.694 Y-53.466 I7.672 J9.992
X-96.312 Y-52.957 I5.449 J-3.701
X-78.958 Y-51.017 I9.685 J-8.047
G1 X-68.338 Y-59.172
G0 Z15

(Bohrfrasen8)
X-106.105 Y-80.31
Z15
Z2
G1 Z0 F1000
X-106.186 Y-80.229
X-106.217 Y-80.235
X-106.244 Y-80.253
X-106.261 Y-80.279
X-106.267 Y-80.31
G3 X-105.942 Y-80.31 Z-0.25 I0.163 J0
X-106.267 Y-80.31 Z-0.5 I-0.163 J0
X-105.942 Y-80.31 Z-0.75 I0.163 J0
X-106.267 Y-80.31 Z-1 I-0.163 J0
X-105.974 Y-80.406 Z-1.2 I0.163 J0
X-106.236 Y-80.215 I-0.131 J0.096
X-105.974 Y-80.406 I0.131 J-0.096
G1 X-105.96 Y-80.377
X-105.959 Y-80.345
X-105.97 Y-80.316
X-105.991 Y-80.292
X-106.105 Y-80.31
G0 Z5
X-120.017 Y-78.168
Z2
G1 Z0 F1000
X-120.098 Y-78.087
X-120.129 Y-78.093
X-120.156 Y-78.11
X-120.173 Y-78.137
X-120.18 Y-78.168
G3 X-119.855 Y-78.168 Z-0.25 I0.163 J0
X-120.18 Y-78.168 Z-0.5 I-0.163 J0
X-119.855 Y-78.168 Z-0.75 I0.162 J0
X-120.18 Y-78.168 Z-1 I-0.162 J0
X-119.886 Y-78.263 Z-1.2 I0.162 J0
X-120.149 Y-78.072 I-0.131 J0.096
X-119.886 Y-78.263 I0.131 J-0.096
G1 X-119.872 Y-78.235
X-119.871 Y-78.203
X-119.882 Y-78.173
X-119.904 Y-78.15
X-120.017 Y-78.168
G0 Z5
X-130.604 Y-69.896
Z2
G1 Z0 F1000
X-130.685 Y-69.815
X-130.716 Y-69.821
X-130.743 Y-69.839
X-130.76 Y-69.865
X-130.767 Y-69.896
G3 X-130.442 Y-69.896 Z-0.25 I0.163 J0
X-130.767 Y-69.896 Z-0.5 I-0.163 J0
X-130.442 Y-69.896 Z-0.75 I0.163 J0
X-130.767 Y-69.896 Z-1 I-0.163 J0
X-130.473 Y-69.992 Z-1.2 I0.163 J0
X-130.735 Y-69.801 I-0.131 J0.096
X-130.473 Y-69.992 I0.131 J-0.096
G1 X-130.459 Y-69.963
X-130.458 Y-69.932
X-130.469 Y-69.902
X-130.491 Y-69.879
X-130.604 Y-69.896
G0 Z5
X-136.245 Y-57.167
Z2
G1 Z0 F1000
X-136.326 Y-57.086
X-136.357 Y-57.092
X-136.383 Y-57.11
X-136.401 Y-57.136
X-136.407 Y-57.167
G3 X-136.082 Y-57.167 Z-0.25 I0.162 J0
X-136.407 Y-57.167 Z-0.5 I-0.162 J0
X-136.082 Y-57.167 Z-0.75 I0.162 J0
X-136.407 Y-57.167 Z-1 I-0.162 J0
X-136.113 Y-57.263 Z-1.2 I0.162 J0
X-136.376 Y-57.072 I-0.131 J0.096
X-136.113 Y-57.263 I0.131 J-0.096
G1 X-136.1 Y-57.234
X-136.099 Y-57.202
X-136.11 Y-57.173
X-136.131 Y-57.149
X-136.245 Y-57.167
G0 Z5
X-122.333 Y-59.31
Z2
G1 Z0 F1000
X-122.414 Y-59.228
X-122.445 Y-59.234
X-122.471 Y-59.252
X-122.489 Y-59.278
X-122.495 Y-59.31
G3 X-122.17 Y-59.31 Z-0.25 I0.163 J0
X-122.495 Y-59.31 Z-0.5 I-0.163 J0
X-122.17 Y-59.31 Z-0.75 I0.163 J0
X-122.495 Y-59.31 Z-1 I-0.162 J0
X-122.201 Y-59.405 Z-1.2 I0.162 J0
X-122.464 Y-59.214 I-0.131 J0.096
X-122.201 Y-59.405 I0.131 J-0.096
G1 X-122.188 Y-59.376
X-122.187 Y-59.345
X-122.198 Y-59.315
X-122.219 Y-59.292
X-122.333 Y-59.31
G0 Z5
X-111.746 Y-67.581
Z2
G1 Z0 F1000
X-111.827 Y-67.5
X-111.858 Y-67.506
X-111.884 Y-67.524
X-111.902 Y-67.55
X-111.908 Y-67.581
G3 X-111.583 Y-67.581 Z-0.25 I0.162 J0
X-111.908 Y-67.581 Z-0.5 I-0.162 J0
X-111.583 Y-67.581 Z-0.75 I0.162 J0
X-111.908 Y-67.581 Z-1 I-0.162 J0
X-111.614 Y-67.676 Z-1.2 I0.162 J0
X-111.877 Y-67.485 I-0.131 J0.096
X-111.614 Y-67.676 I0.131 J-0.096
G1 X-111.601 Y-67.648
X-111.6 Y-67.616
X-111.611 Y-67.586
X-111.632 Y-67.563
X-111.746 Y-67.581
G0 Z15

(2D-Kontur10)
X-123.165 Y-65.966
Z15
Z5
G1 Z1.5 F333.3
Z1
S5000
G3 X-119.185 Y-71.511 Z0.626 I1.99 J-2.772
X-123.165 Y-65.966 Z0.251 I-1.99 J2.772
X-119.185 Y-71.511 Z-0.123 I1.99 J-2.772
X-118.423 Y-66.72 Z-0.312 I-1.99 J2.772
X-123.222 Y-66.009 Z-0.5 I-2.751 J-2.019
S6000
X-119.127 Y-71.469 I2.048 J-2.73 F1000
X-123.222 Y-66.009 I-2.048 J2.73
S5000
X-119.127 Y-71.469 Z-0.874 I2.048 J-2.73 F333.3
X-117.79 Y-68.307 Z-1 I-2.048 J2.73
S6000
X-124.56 Y-69.171 I-3.385 J-0.432 F1000
X-117.79 Y-68.307 I3.385 J0.432
S5000
X-121.967 Y-65.42 Z-1.2 I-3.385 J-0.432 F333.3
S6000
X-120.382 Y-72.058 I0.793 J-3.319 F1000
X-121.967 Y-65.42 I-0.793 J3.319
G0 Z15

(2D-Kontur11)
X-98.413 Y-76.716
Z15
Z5
G1 Z2.5 F333.3
S5000
G2 X-100.73 Y-84.118 Z2.225 I-12.591 J-0.123
X-101.122 Y-84.619 Z2.202 I-5.375 J3.808
X-118.324 Y-86.371 Z1.537 I-9.529 J8.24
G1 X-138.945 Y-70.536 Z0.629
G2 X-141.694 Y-53.466 Z-0.036 I7.672 J9.992
X-141.312 Y-52.957 Z-0.059 I5.449 J-3.701
X-130.041 Y-48.513 Z-0.5 I9.685 J-8.047
S6000
X-123.958 Y-51.017 I-1.586 J-12.492 F1000
G1 X-103.336 Y-66.852
G2 X-100.73 Y-84.118 I-7.669 J-9.987
X-101.122 Y-84.619 I-5.375 J3.808
X-118.324 Y-86.371 I-9.529 J8.24
G1 X-123.668 Y-82.267
Z-0.406
X-130.945 Y-76.679
Z-0.5 F333.3
X-138.945 Y-70.536 F1000
G2 X-141.694 Y-53.466 I7.672 J9.992
X-141.312 Y-52.957 I5.449 J-3.701
X-130.041 Y-48.513 I9.685 J-8.047
S5000
X-123.958 Y-51.017 Z-0.732 I-1.586 J-12.492 F333.3
G1 X-117.88 Y-55.684 Z-1
S6000
X-103.336 Y-66.852 F1000
G2 X-100.73 Y-84.118 I-7.669 J-9.987
X-101.122 Y-84.619 I-5.375 J3.808
X-118.324 Y-86.371 I-9.529 J8.24
G1 X-123.668 Y-82.267
Z-0.406
X-130.945 Y-76.679
Z-1 F333.3
X-138.945 Y-70.536 F1000
G2 X-141.694 Y-53.466 I7.672 J9.992
X-141.312 Y-52.957 I5.449 J-3.701
X-123.958 Y-51.017 I9.685 J-8.047
G1 X-117.88 Y-55.684
S5000
X-113.338 Y-59.172 Z-1.2 F333.3
S6000
X-103.336 Y-66.852 F1000
G2 X-100.73 Y-84.118 I-7.669 J-9.987
X-101.122 Y-84.619 I-5.375 J3.808
X-118.324 Y-86.371 I-9.529 J8.24
G1 X-123.668 Y-82.267
Z-0.406
X-130.945 Y-76.679
Z-1.2 F333.3
X-138.945 Y-70.536 F1000
G2 X-141.694 Y-53.466 I7.672 J9.992
X-141.312 Y-52.957 I5.449 J-3.701
X-123.958 Y-51.017 I9.685 J-8.047
G1 X-113.338 Y-59.172
G0 Z15

(Bohrfrasen8)
X-16.105 Y-125.31
Z15
Z2
G1 Z0 F1000
X-16.186 Y-125.229
X-16.217 Y-125.235
X-16.244 Y-125.253
X-16.261 Y-125.279
X-16.267 Y-125.31
G3 X-15.942 Y-125.31 Z-0.25 I0.163 J0
X-16.267 Y-125.31 Z-0.5 I-0.163 J0
X-15.942 Y-125.31 Z-0.75 I0.163 J0
X-16.267 Y-125.31 Z-1 I-0.163 J0
X-15.974 Y-125.406 Z-1.2 I0.163 J0
X-16.236 Y-125.215 I-0.131 J0.096
X-15.974 Y-125.406 I0.131 J-0.096
G1 X-15.96 Y-125.377
X-15.959 Y-125.345
X-15.97 Y-125.316
X-15.991 Y-125.292
X-16.105 Y-125.31
G0 Z5
X-30.017 Y-123.168
Z2
G1 Z0 F1000
X-30.098 Y-123.087
X-30.129 Y-123.093
X-30.156 Y-123.11
X-30.173 Y-123.137
X-30.18 Y-123.168
G3 X-29.855 Y-123.168 Z-0.25 I0.163 J0
X-30.18 Y-123.168 Z-0.5 I-0.163 J0
X-29.855 Y-123.168 Z-0.75 I0.162 J0
X-30.18 Y-123.168 Z-1 I-0.162 J0
X-29.886 Y-123.263 Z-1.2 I0.162 J0
X-30.149 Y-123.072 I-0.131 J0.096
X-29.886 Y-123.263 I0.131 J-0.096
G1 X-29.872 Y-123.235
X-29.871 Y-123.203
X-29.882 Y-123.173
X-29.904 Y-123.15
X-30.017 Y-123.168
G0 Z5
X-40.604 Y-114.896
Z2
G1 Z0 F1000
X-40.685 Y-114.815
X-40.716 Y-114.821
X-40.743 Y-114.839
X-40.76 Y-114.865
X-40.767 Y-114.896
G3 X-40.442 Y-114.896 Z-0.25 I0.163 J0
X-40.767 Y-114.896 Z-0.5 I-0.163 J0
X-40.442 Y-114.896 Z-0.75 I0.163 J0
X-40.767 Y-114.896 Z-1 I-0.163 J0
X-40.473 Y-114.992 Z-1.2 I0.163 J0
X-40.735 Y-114.801 I-0.131 J0.096
X-40.473 Y-114.992 I0.131 J-0.096
G1 X-40.459 Y-114.963
X-40.458 Y-114.932
X-40.469 Y-114.902
X-40.491 Y-114.879
X-40.604 Y-114.896
G0 Z5
X-46.245 Y-102.167
Z2
G1 Z0 F1000
X-46.326 Y-102.086
X-46.357 Y-102.092
X-46.383 Y-102.11
X-46.401 Y-102.136
X-46.407 Y-102.167
G3 X-46.082 Y-102.167 Z-0.25 I0.162 J0
X-46.407 Y-102.167 Z-0.5 I-0.162 J0
X-46.082 Y-102.167 Z-0.75 I0.162 J0
X-46.407 Y-102.167 Z-1 I-0.162 J0
X-46.113 Y-102.263 Z-1.2 I0.162 J0
X-46.376 Y-102.072 I-0.131 J0.096
X-46.113 Y-102.263 I0.131 J-0.096
G1 X-46.1 Y-102.234
X-46.099 Y-102.202
X-46.11 Y-102.173
X-46.131 Y-102.149
X-46.245 Y-102.167
G0 Z5
X-32.333 Y-104.31
Z2
G1 Z0 F1000
X-32.414 Y-104.228
X-32.445 Y-104.234
X-32.471 Y-104.252
X-32.489 Y-104.278
X-32.495 Y-104.31
G3 X-32.17 Y-104.31 Z-0.25 I0.163 J0
X-32.495 Y-104.31 Z-0.5 I-0.163 J0
X-32.17 Y-104.31 Z-0.75 I0.163 J0
X-32.495 Y-104.31 Z-1 I-0.162 J0
X-32.201 Y-104.405 Z-1.2 I0.162 J0
X-32.464 Y-104.214 I-0.131 J0.096
X-32.201 Y-104.405 I0.131 J-0.096
G1 X-32.188 Y-104.376
X-32.187 Y-104.345
X-32.198 Y-104.315
X-32.219 Y-104.292
X-32.333 Y-104.31
G0 Z5
X-21.746 Y-112.581
Z2
G1 Z0 F1000
X-21.827 Y-112.5
X-21.858 Y-112.506
X-21.884 Y-112.524
X-21.902 Y-112.55
X-21.908 Y-112.581
G3 X-21.583 Y-112.581 Z-0.25 I0.162 J0
X-21.908 Y-112.581 Z-0.5 I-0.162 J0
X-21.583 Y-112.581 Z-0.75 I0.162 J0
X-21.908 Y-112.581 Z-1 I-0.162 J0
X-21.614 Y-112.676 Z-1.2 I0.162 J0
X-21.877 Y-112.485 I-0.131 J0.096
X-21.614 Y-112.676 I0.131 J-0.096
G1 X-21.601 Y-112.648
X-21.6 Y-112.616
X-21.611 Y-112.586
X-21.632 Y-112.563
X-21.746 Y-112.581
G0 Z15

(2D-Kontur10)
X-33.165 Y-110.966
Z15
Z5
G1 Z1.5 F333.3
Z1
S5000
G3 X-29.185 Y-116.511 Z0.626 I1.99 J-2.772
X-33.165 Y-110.966 Z0.251 I-1.99 J2.772
X-29.185 Y-116.511 Z-0.123 I1.99 J-2.772
X-28.423 Y-111.72 Z-0.312 I-1.99 J2.772
X-33.222 Y-111.009 Z-0.5 I-2.751 J-2.019
S6000
X-29.127 Y-116.469 I2.048 J-2.73 F1000
X-33.222 Y-111.009 I-2.048 J2.73
S5000
X-29.127 Y-116.469 Z-0.874 I2.048 J-2.73 F333.3
X-27.79 Y-113.307 Z-1 I-2.048 J2.73
S6000
X-34.56 Y-114.171 I-3.385 J-0.432 F1000
X-27.79 Y-113.307 I3.385 J0.432
S5000
X-31.967 Y-110.42 Z-1.2 I-3.385 J-0.432 F333.3
S6000
X-30.382 Y-117.058 I0.793 J-3.319 F1000
X-31.967 Y-110.42 I-0.793 J3.319
G0 Z15

(2D-Kontur11)
X-8.413 Y-121.716
Z15
Z5
G1 Z2.5 F333.3
S5000
G2 X-10.73 Y-129.118 Z2.225 I-12.591 J-0.123
X-11.122 Y-129.619 Z2.202 I-5.375 J3.808
X-28.324 Y-131.371 Z1.537 I-9.529 J8.24
G1 X-48.945 Y-115.536 Z0.629
G2 X-51.694 Y-98.466 Z-0.036 I7.672 J9.992
X-51.312 Y-97.957 Z-0.059 I5.449 J-3.701
X-40.041 Y-93.513 Z-0.5 I9.685 J-8.047
S6000
X-33.958 Y-96.017 I-1.586 J-12.492 F1000
G1 X-13.336 Y-111.852
G2 X-10.73 Y-129.118 I-7.669 J-9.987
X-11.122 Y-129.619 I-5.375 J3.808
X-28.324 Y-131.371 I-9.529 J8.24
G1 X-33.668 Y-127.267
Z-0.406
X-40.945 Y-121.679
Z-0.5 F333.3
X-48.945 Y-115.536 F1000
G2 X-51.694 Y-98.466 I7.672 J9.992
X-51.312 Y-97.957 I5.449 J-3.701
X-40.041 Y-93.513 I9.685 J-8.047
S5000
X-33.958 Y-96.017 Z-0.732 I-1.586 J-12.492 F333.3
G1 X-27.88 Y-100.684 Z-1
S6000
X-13.336 Y-111.852 F1000
G2 X-10.73 Y-129.118 I-7.669 J-9.987
X-11.122 Y-129.619 I-5.375 J3.808
X-28.324 Y-131.371 I-9.529 J8.24
G1 X-33.668 Y-127.267
Z-0.406
X-40.945 Y-121.679
Z-1 F333.3
X-48.945 Y-115.536 F1000
G2 X-51.694 Y-98.466 I7.672 J9.992
X-51.312 Y-97.957 I5.449 J-3.701
X-33.958 Y-96.017 I9.685 J-8.047
G1 X-27.88 Y-100.684
S5000
X-23.338 Y-104.172 Z-1.2 F333.3
S6000
X-13.336 Y-111.852 F1000
G2 X-10.73 Y-129.118 I-7.669 J-9.987
X-11.122 Y-129.619 I-5.375 J3.808
X-28.324 Y-131.371 I-9.529 J8.24
G1 X-33.668 Y-127.267
Z-0.406
X-40.945 Y-121.679
Z-1.2 F333.3
X-48.945 Y-115.536 F1000
G2 X-51.694 Y-98.466 I7.672 J9.992
X-51.312 Y-97.957 I5.449 J-3.701
X-33.958 Y-96.017 I9.685 J-8.047
G1 X-23.338 Y-104.172
G0 Z15

(Bohrfrasen8)
X-61.105 Y-125.31
Z15
Z2
G1 Z0 F1000
X-61.186 Y-125.229
X-61.217 Y-125.235
X-61.244 Y-125.253
X-61.261 Y-125.279
X-61.267 Y-125.31
G3 X-60.942 Y-125.31 Z-0.25 I0.163 J0
X-61.267 Y-125.31 Z-0.5 I-0.163 J0
X-60.942 Y-125.31 Z-0.75 I0.163 J0
X-61.267 Y-125.31 Z-1 I-0.163 J0
X-60.974 Y-125.406 Z-1.2 I0.163 J0
X-61.236 Y-125.215 I-0.131 J0.096
X-60.974 Y-125.406 I0.131 J-0.096
G1 X-60.96 Y-125.377
X-60.959 Y-125.345
X-60.97 Y-125.316
X-60.991 Y-125.292
X-61.105 Y-125.31
G0 Z5
X-75.017 Y-123.168
Z2
G1 Z0 F1000
X-75.098 Y-123.087
X-75.129 Y-123.093
X-75.156 Y-123.11
X-75.173 Y-123.137
X-75.18 Y-123.168
G3 X-74.855 Y-123.168 Z-0.25 I0.163 J0
X-75.18 Y-123.168 Z-0.5 I-0.163 J0
X-74.855 Y-123.168 Z-0.75 I0.162 J0
X-75.18 Y-123.168 Z-1 I-0.162 J0
X-74.886 Y-123.263 Z-1.2 I0.162 J0
X-75.149 Y-123.072 I-0.131 J0.096
X-74.886 Y-123.263 I0.131 J-0.096
G1 X-74.872 Y-123.235
X-74.871 Y-123.203
X-74.882 Y-123.173
X-74.904 Y-123.15
X-75.017 Y-123.168
G0 Z5
X-85.604 Y-114.896
Z2
G1 Z0 F1000
X-85.685 Y-114.815
X-85.716 Y-114.821
X-85.743 Y-114.839
X-85.76 Y-114.865
X-85.767 Y-114.896
G3 X-85.442 Y-114.896 Z-0.25 I0.163 J0
X-85.767 Y-114.896 Z-0.5 I-0.163 J0
X-85.442 Y-114.896 Z-0.75 I0.163 J0
X-85.767 Y-114.896 Z-1 I-0.163 J0
X-85.473 Y-114.992 Z-1.2 I0.163 J0
X-85.735 Y-114.801 I-0.131 J0.096
X-85.473 Y-114.992 I0.131 J-0.096
G1 X-85.459 Y-114.963
X-85.458 Y-114.932
X-85.469 Y-114.902
X-85.491 Y-114.879
X-85.604 Y-114.896
G0 Z5
X-91.245 Y-102.167
Z2
G1 Z0 F1000
X-91.326 Y-102.086
X-91.357 Y-102.092
X-91.383 Y-102.11
X-91.401 Y-102.136
X-91.407 Y-102.167
G3 X-91.082 Y-102.167 Z-0.25 I0.162 J0
X-91.407 Y-102.167 Z-0.5 I-0.162 J0
X-91.082 Y-102.167 Z-0.75 I0.162 J0
X-91.407 Y-102.167 Z-1 I-0.162 J0
X-91.113 Y-102.263 Z-1.2 I0.162 J0
X-91.376 Y-102.072 I-0.131 J0.096
X-91.113 Y-102.263 I0.131 J-0.096
G1 X-91.1 Y-102.234
X-91.099 Y-102.202
X-91.11 Y-102.173
X-91.131 Y-102.149
X-91.245 Y-102.167
G0 Z5
X-77.333 Y-104.31
Z2
G1 Z0 F1000
X-77.414 Y-104.228
X-77.445 Y-104.234
X-77.471 Y-104.252
X-77.489 Y-104.278
X-77.495 Y-104.31
G3 X-77.17 Y-104.31 Z-0.25 I0.163 J0
X-77.495 Y-104.31 Z-0.5 I-0.163 J0
X-77.17 Y-104.31 Z-0.75 I0.163 J0
X-77.495 Y-104.31 Z-1 I-0.162 J0
X-77.201 Y-104.405 Z-1.2 I0.162 J0
X-77.464 Y-104.214 I-0.131 J0.096
X-77.201 Y-104.405 I0.131 J-0.096
G1 X-77.188 Y-104.376
X-77.187 Y-104.345
X-77.198 Y-104.315
X-77.219 Y-104.292
X-77.333 Y-104.31
G0 Z5
X-66.746 Y-112.581
Z2
G1 Z0 F1000
X-66.827 Y-112.5
X-66.858 Y-112.506
X-66.884 Y-112.524
X-66.902 Y-112.55
X-66.908 Y-112.581
G3 X-66.583 Y-112.581 Z-0.25 I0.162 J0
X-66.908 Y-112.581 Z-0.5 I-0.162 J0
X-66.583 Y-112.581 Z-0.75 I0.162 J0
X-66.908 Y-112.581 Z-1 I-0.162 J0
X-66.614 Y-112.676 Z-1.2 I0.162 J0
X-66.877 Y-112.485 I-0.131 J0.096
X-66.614 Y-112.676 I0.131 J-0.096
G1 X-66.601 Y-112.648
X-66.6 Y-112.616
X-66.611 Y-112.586
X-66.632 Y-112.563
X-66.746 Y-112.581
G0 Z15

(2D-Kontur10)
X-78.165 Y-110.966
Z15
Z5
G1 Z1.5 F333.3
Z1
S5000
G3 X-74.185 Y-116.511 Z0.626 I1.99 J-2.772
X-78.165 Y-110.966 Z0.251 I-1.99 J2.772
X-74.185 Y-116.511 Z-0.123 I1.99 J-2.772
X-73.423 Y-111.72 Z-0.312 I-1.99 J2.772
X-78.222 Y-111.009 Z-0.5 I-2.751 J-2.019
S6000
X-74.127 Y-116.469 I2.048 J-2.73 F1000
X-78.222 Y-111.009 I-2.048 J2.73
S5000
X-74.127 Y-116.469 Z-0.874 I2.048 J-2.73 F333.3
X-72.79 Y-113.307 Z-1 I-2.048 J2.73
S6000
X-79.56 Y-114.171 I-3.385 J-0.432 F1000
X-72.79 Y-113.307 I3.385 J0.432
S5000
X-76.967 Y-110.42 Z-1.2 I-3.385 J-0.432 F333.3
S6000
X-75.382 Y-117.058 I0.793 J-3.319 F1000
X-76.967 Y-110.42 I-0.793 J3.319
G0 Z15

(2D-Kontur11)
X-53.413 Y-121.716
Z15
Z5
G1 Z2.5 F333.3
S5000
G2 X-55.73 Y-129.118 Z2.225 I-12.591 J-0.123
X-56.122 Y-129.619 Z2.202 I-5.375 J3.808
X-73.324 Y-131.371 Z1.537 I-9.529 J8.24
G1 X-93.945 Y-115.536 Z0.629
G2 X-96.694 Y-98.466 Z-0.036 I7.672 J9.992
X-96.312 Y-97.957 Z-0.059 I5.449 J-3.701
X-85.041 Y-93.513 Z-0.5 I9.685 J-8.047
S6000
X-78.958 Y-96.017 I-1.586 J-12.492 F1000
G1 X-58.336 Y-111.852
G2 X-55.73 Y-129.118 I-7.669 J-9.987
X-56.122 Y-129.619 I-5.375 J3.808
X-73.324 Y-131.371 I-9.529 J8.24
G1 X-78.668 Y-127.267
Z-0.406
X-85.945 Y-121.679
Z-0.5 F333.3
X-93.945 Y-115.536 F1000
G2 X-96.694 Y-98.466 I7.672 J9.992
X-96.312 Y-97.957 I5.449 J-3.701
X-85.041 Y-93.513 I9.685 J-8.047
S5000
X-78.958 Y-96.017 Z-0.732 I-1.586 J-12.492 F333.3
G1 X-72.88 Y-100.684 Z-1
S6000
X-58.336 Y-111.852 F1000
G2 X-55.73 Y-129.118 I-7.669 J-9.987
X-56.122 Y-129.619 I-5.375 J3.808
X-73.324 Y-131.371 I-9.529 J8.24
G1 X-78.668 Y-127.267
Z-0.406
X-85.945 Y-121.679
Z-1 F333.3
X-93.945 Y-115.536 F1000
G2 X-96.694 Y-98.466 I7.672 J9.992
X-96.312 Y-97.957 I5.449 J-3.701
X-78.958 Y-96.017 I9.685 J-8.047
G1 X-72.88 Y-100.684
S5000
X-68.338 Y-104.172 Z-1.2 F333.3
S6000
X-58.336 Y-111.852 F1000
G2 X-55.73 Y-129.118 I-7.669 J-9.987
X-56.122 Y-129.619 I-5.375 J3.808
X-73.324 Y-131.371 I-9.529 J8.24
G1 X-78.668 Y-127.267
Z-0.406
X-85.945 Y-121.679
Z-1.2 F333.3
X-93.945 Y-115.536 F1000
G2 X-96.694 Y-98.466 I7.672 J9.992
X-96.312 Y-97.957 I5.449 J-3.701
X-78.958 Y-96.017 I9.685 J-8.047
G1 X-68.338 Y-104.172
G0 Z15

(Bohrfrasen8)
X-106.105 Y-125.31
Z15
Z2
G1 Z0 F1000
X-106.186 Y-125.229
X-106.217 Y-125.235
X-106.244 Y-125.253
X-106.261 Y-125.279
X-106.267 Y-125.31
G3 X-105.942 Y-125.31 Z-0.25 I0.163 J0
X-106.267 Y-125.31 Z-0.5 I-0.163 J0
X-105.942 Y-125.31 Z-0.75 I0.163 J0
X-106.267 Y-125.31 Z-1 I-0.163 J0
X-105.974 Y-125.406 Z-1.2 I0.163 J0
X-106.236 Y-125.215 I-0.131 J0.096
X-105.974 Y-125.406 I0.131 J-0.096
G1 X-105.96 Y-125.377
X-105.959 Y-125.345
X-105.97 Y-125.316
X-105.991 Y-125.292
X-106.105 Y-125.31
G0 Z5
X-120.017 Y-123.168
Z2
G1 Z0 F1000
X-120.098 Y-123.087
X-120.129 Y-123.093
X-120.156 Y-123.11
X-120.173 Y-123.137
X-120.18 Y-123.168
G3 X-119.855 Y-123.168 Z-0.25 I0.163 J0
X-120.18 Y-123.168 Z-0.5 I-0.163 J0
X-119.855 Y-123.168 Z-0.75 I0.162 J0
X-120.18 Y-123.168 Z-1 I-0.162 J0
X-119.886 Y-123.263 Z-1.2 I0.162 J0
X-120.149 Y-123.072 I-0.131 J0.096
X-119.886 Y-123.263 I0.131 J-0.096
G1 X-119.872 Y-123.235
X-119.871 Y-123.203
X-119.882 Y-123.173
X-119.904 Y-123.15
X-120.017 Y-123.168
G0 Z5
X-130.604 Y-114.896
Z2
G1 Z0 F1000
X-130.685 Y-114.815
X-130.716 Y-114.821
X-130.743 Y-114.839
X-130.76 Y-114.865
X-130.767 Y-114.896
G3 X-130.442 Y-114.896 Z-0.25 I0.163 J0
X-130.767 Y-114.896 Z-0.5 I-0.163 J0
X-130.442 Y-114.896 Z-0.75 I0.163 J0
X-130.767 Y-114.896 Z-1 I-0.163 J0
X-130.473 Y-114.992 Z-1.2 I0.163 J0
X-130.735 Y-114.801 I-0.131 J0.096
X-130.473 Y-114.992 I0.131 J-0.096
G1 X-130.459 Y-114.963
X-130.458 Y-114.932
X-130.469 Y-114.902
X-130.491 Y-114.879
X-130.604 Y-114.896
G0 Z5
X-136.245 Y-102.167
Z2
G1 Z0 F1000
X-136.326 Y-102.086
X-136.357 Y-102.092
X-136.383 Y-102.11
X-136.401 Y-102.136
X-136.407 Y-102.167
G3 X-136.082 Y-102.167 Z-0.25 I0.162 J0
X-136.407 Y-102.167 Z-0.5 I-0.162 J0
X-136.082 Y-102.167 Z-0.75 I0.162 J0
X-136.407 Y-102.167 Z-1 I-0.162 J0
X-136.113 Y-102.263 Z-1.2 I0.162 J0
X-136.376 Y-102.072 I-0.131 J0.096
X-136.113 Y-102.263 I0.131 J-0.096
G1 X-136.1 Y-102.234
X-136.099 Y-102.202
X-136.11 Y-102.173
X-136.131 Y-102.149
X-136.245 Y-102.167
G0 Z5
X-122.333 Y-104.31
Z2
G1 Z0 F1000
X-122.414 Y-104.228
X-122.445 Y-104.234
X-122.471 Y-104.252
X-122.489 Y-104.278
X-122.495 Y-104.31
G3 X-122.17 Y-104.31 Z-0.25 I0.163 J0
X-122.495 Y-104.31 Z-0.5 I-0.163 J0
X-122.17 Y-104.31 Z-0.75 I0.163 J0
X-122.495 Y-104.31 Z-1 I-0.162 J0
X-122.201 Y-104.405 Z-1.2 I0.162 J0
X-122.464 Y-104.214 I-0.131 J0.096
X-122.201 Y-104.405 I0.131 J-0.096
G1 X-122.188 Y-104.376
X-122.187 Y-104.345
X-122.198 Y-104.315
X-122.219 Y-104.292
X-122.333 Y-104.31
G0 Z5
X-111.746 Y-112.581
Z2
G1 Z0 F1000
X-111.827 Y-112.5
X-111.858 Y-112.506
X-111.884 Y-112.524
X-111.902 Y-112.55
X-111.908 Y-112.581
G3 X-111.583 Y-112.581 Z-0.25 I0.162 J0
X-111.908 Y-112.581 Z-0.5 I-0.162 J0
X-111.583 Y-112.581 Z-0.75 I0.162 J0
X-111.908 Y-112.581 Z-1 I-0.162 J0
X-111.614 Y-112.676 Z-1.2 I0.162 J0
X-111.877 Y-112.485 I-0.131 J0.096
X-111.614 Y-112.676 I0.131 J-0.096
G1 X-111.601 Y-112.648
X-111.6 Y-112.616
X-111.611 Y-112.586
X-111.632 Y-112.563
X-111.746 Y-112.581
G0 Z15

(2D-Kontur10)
X-123.165 Y-110.966
Z15
Z5
G1 Z1.5 F333.3
Z1
S5000
G3 X-119.185 Y-116.511 Z0.626 I1.99 J-2.772
X-123.165 Y-110.966 Z0.251 I-1.99 J2.772
X-119.185 Y-116.511 Z-0.123 I1.99 J-2.772
X-118.423 Y-111.72 Z-0.312 I-1.99 J2.772
X-123.222 Y-111.009 Z-0.5 I-2.751 J-2.019
S6000
X-119.127 Y-116.469 I2.048 J-2.73 F1000
X-123.222 Y-111.009 I-2.048 J2.73
S5000
X-119.127 Y-116.469 Z-0.874 I2.048 J-2.73 F333.3
X-117.79 Y-113.307 Z-1 I-2.048 J2.73
S6000
X-124.56 Y-114.171 I-3.385 J-0.432 F1000
X-117.79 Y-113.307 I3.385 J0.432
S5000
X-121.967 Y-110.42 Z-1.2 I-3.385 J-0.432 F333.3
S6000
X-120.382 Y-117.058 I0.793 J-3.319 F1000
X-121.967 Y-110.42 I-0.793 J3.319
G0 Z15

(2D-Kontur11)
X-98.413 Y-121.716
Z15
Z5
G1 Z2.5 F333.3
S5000
G2 X-100.73 Y-129.118 Z2.225 I-12.591 J-0.123
X-101.122 Y-129.619 Z2.202 I-5.375 J3.808
X-118.324 Y-131.371 Z1.537 I-9.529 J8.24
G1 X-138.945 Y-115.536 Z0.629
G2 X-141.694 Y-98.466 Z-0.036 I7.672 J9.992
X-141.312 Y-97.957 Z-0.059 I5.449 J-3.701
X-130.041 Y-93.513 Z-0.5 I9.685 J-8.047
S6000
X-123.958 Y-96.017 I-1.586 J-12.492 F1000
G1 X-103.336 Y-111.852
G2 X-100.73 Y-129.118 I-7.669 J-9.987
X-101.122 Y-129.619 I-5.375 J3.808
X-118.324 Y-131.371 I-9.529 J8.24
G1 X-123.668 Y-127.267
Z-0.406
X-130.945 Y-121.679
Z-0.5 F333.3
X-138.945 Y-115.536 F1000
G2 X-141.694 Y-98.466 I7.672 J9.992
X-141.312 Y-97.957 I5.449 J-3.701
X-130.041 Y-93.513 I9.685 J-8.047
S5000
X-123.958 Y-96.017 Z-0.732 I-1.586 J-12.492 F333.3
G1 X-117.88 Y-100.684 Z-1
S6000
X-103.336 Y-111.852 F1000
G2 X-100.73 Y-129.118 I-7.669 J-9.987
X-101.122 Y-129.619 I-5.375 J3.808
X-118.324 Y-131.371 I-9.529 J8.24
G1 X-123.668 Y-127.267
Z-0.406
X-130.945 Y-121.679
Z-1 F333.3
X-138.945 Y-115.536 F1000
G2 X-141.694 Y-98.466 I7.672 J9.992
X-141.312 Y-97.957 I5.449 J-3.701
X-123.958 Y-96.017 I9.685 J-8.047
G1 X-117.88 Y-100.684
S5000
X-113.338 Y-104.172 Z-1.2 F333.3
S6000
X-103.336 Y-111.852 F1000
G2 X-100.73 Y-129.118 I-7.669 J-9.987
X-101.122 Y-129.619 I-5.375 J3.808
X-118.324 Y-131.371 I-9.529 J8.24
G1 X-123.668 Y-127.267
Z-0.406
X-130.945 Y-121.679
Z-1.2 F333.3
X-138.945 Y-115.536 F1000
G2 X-141.694 Y-98.466 I7.672 J9.992
X-141.312 Y-97.957 I5.449 J-3.701
X-123.958 Y-96.017 I9.685 J-8.047
G1 X-113.338 Y-104.172
G0 Z15
M5
M30
