(Rohr_Arm_X8)
(Bearbeiten)
(  Hersteller: ChinaCnc)
(  model: 3040T)
(  description: Generic 3-axis)
(T5  D=3.175 CR=0 - ZMIN=-0.5 - Schaftfraser)
G90 G94
G17
G21

(Bohrfrasen1)
T5
S6000 M3
G54
G0 X-9.875 Y-0.047
Z47
Z15
G1 Z13 F1000
X-9.956 Y-0.128
X-9.95 Y-0.159
X-9.932 Y-0.185
X-9.906 Y-0.203
X-9.875 Y-0.209
G3 X-9.875 Y0.116 Z12.75 I0 J0.162
X-9.875 Y-0.209 Z12.5 I0 J-0.163
X-9.875 Y0.116 Z12.25 I0 J0.163
X-9.875 Y-0.209 Z12 I0 J-0.163
X-9.875 Y0.116 Z11.75 I0 J0.163
X-9.875 Y-0.209 Z11.5 I0 J-0.163
X-9.875 Y0.116 Z11.25 I0 J0.163
X-9.875 Y-0.209 Z11 I0 J-0.163
X-9.875 Y0.116 Z10.75 I0 J0.163
X-9.875 Y-0.209 Z10.5 I0 J-0.163
X-9.875 Y0.116 Z10.25 I0 J0.163
X-9.875 Y-0.209 Z10 I0 J-0.163
X-9.875 Y0.116 Z9.75 I0 J0.163
X-9.995 Y0.063 Z9.684 I0 J-0.163
X-9.755 Y-0.156 I0.12 J-0.109
X-9.995 Y0.063 I-0.12 J0.109
G1 X-10.012 Y0.036
X-10.016 Y0.004
X-10.009 Y-0.027
X-9.99 Y-0.052
X-9.875 Y-0.047
G0 Z37
X-29.875 Y-0.04
Z15
G1 Z13 F1000
X-29.956 Y-0.121
X-29.95 Y-0.152
X-29.932 Y-0.179
X-29.906 Y-0.196
X-29.875 Y-0.203
G3 X-29.875 Y0.122 Z12.75 I0 J0.162
X-29.875 Y-0.203 Z12.5 I0 J-0.162
X-29.875 Y0.122 Z12.25 I0 J0.162
X-29.875 Y-0.203 Z12 I0 J-0.162
X-29.875 Y0.122 Z11.75 I0 J0.162
X-29.875 Y-0.203 Z11.5 I0 J-0.162
X-29.875 Y0.122 Z11.25 I0 J0.162
X-29.875 Y-0.203 Z11 I0 J-0.162
X-29.875 Y0.122 Z10.75 I0 J0.162
X-29.875 Y-0.203 Z10.5 I0 J-0.162
X-29.875 Y0.122 Z10.25 I0 J0.162
X-29.875 Y-0.203 Z10 I0 J-0.162
X-29.875 Y0.122 Z9.75 I0 J0.162
X-29.995 Y0.069 Z9.684 I0 J-0.162
X-29.755 Y-0.149 I0.12 J-0.109
X-29.995 Y0.069 I-0.12 J0.109
G1 X-30.012 Y0.042
X-30.016 Y0.011
X-30.009 Y-0.02
X-29.99 Y-0.045
X-29.875 Y-0.04
G0 Z47

(Bohrfrasen2)
X-9.875 Y-0.047
Z47
Z4.316
G1 Z2.316 F1000
X-9.956 Y-0.128
X-9.95 Y-0.159
X-9.932 Y-0.185
X-9.906 Y-0.203
X-9.875 Y-0.209
G3 X-9.875 Y0.116 Z2.066 I0 J0.162
X-9.875 Y-0.209 Z1.816 I0 J-0.163
X-9.875 Y0.116 Z1.566 I0 J0.163
X-9.875 Y-0.209 Z1.316 I0 J-0.163
X-9.875 Y0.116 Z1.066 I0 J0.163
X-9.875 Y-0.209 Z0.816 I0 J-0.163
X-9.875 Y0.116 Z0.566 I0 J0.163
X-9.875 Y-0.209 Z0.316 I0 J-0.163
X-9.875 Y0.116 Z0.066 I0 J0.163
X-9.875 Y-0.209 Z-0.184 I0 J-0.163
X-9.875 Y0.116 Z-0.434 I0 J0.163
X-9.995 Y0.063 Z-0.5 I0 J-0.163
X-9.755 Y-0.156 I0.12 J-0.109
X-9.995 Y0.063 I-0.12 J0.109
G1 X-10.012 Y0.036
X-10.016 Y0.004
X-10.009 Y-0.027
X-9.99 Y-0.052
X-9.875 Y-0.047
G0 Z37
X-29.875 Y-0.04
Z4.316
G1 Z2.316 F1000
X-29.956 Y-0.121
X-29.95 Y-0.152
X-29.932 Y-0.179
X-29.906 Y-0.196
X-29.875 Y-0.203
G3 X-29.875 Y0.122 Z2.066 I0 J0.162
X-29.875 Y-0.203 Z1.816 I0 J-0.162
X-29.875 Y0.122 Z1.566 I0 J0.162
X-29.875 Y-0.203 Z1.316 I0 J-0.162
X-29.875 Y0.122 Z1.066 I0 J0.162
X-29.875 Y-0.203 Z0.816 I0 J-0.162
X-29.875 Y0.122 Z0.566 I0 J0.162
X-29.875 Y-0.203 Z0.316 I0 J-0.162
X-29.875 Y0.122 Z0.066 I0 J0.162
X-29.875 Y-0.203 Z-0.184 I0 J-0.162
X-29.875 Y0.122 Z-0.434 I0 J0.162
X-29.995 Y0.069 Z-0.5 I0 J-0.162
X-29.755 Y-0.149 I0.12 J-0.109
X-29.995 Y0.069 I-0.12 J0.109
G1 X-30.012 Y0.042
X-30.016 Y0.011
X-30.009 Y-0.02
X-29.99 Y-0.045
X-29.875 Y-0.04
G0 Z47

(Bohrfrasen3)
X-141.386 Y-0.003
Z47
Z15
G1 Z13 F1000
X-141.468 Y-0.084
X-141.461 Y-0.115
X-141.444 Y-0.142
X-141.417 Y-0.159
X-141.386 Y-0.165
G3 X-141.386 Y0.16 Z12.75 I0 J0.162
X-141.386 Y-0.165 Z12.5 I0 J-0.163
X-141.386 Y0.16 Z12.25 I0 J0.163
X-141.386 Y-0.165 Z12 I0 J-0.163
X-141.386 Y0.16 Z11.75 I0 J0.163
X-141.386 Y-0.165 Z11.5 I0 J-0.163
X-141.386 Y0.16 Z11.25 I0 J0.163
X-141.386 Y-0.165 Z11 I0 J-0.163
X-141.386 Y0.16 Z10.75 I0 J0.163
X-141.386 Y-0.165 Z10.5 I0 J-0.163
X-141.386 Y0.16 Z10.25 I0 J0.163
X-141.386 Y-0.165 Z10 I0 J-0.163
X-141.386 Y0.16 Z9.75 I0 J0.163
X-141.506 Y0.107 Z9.684 I0 J-0.163
X-141.266 Y-0.112 I0.12 J-0.109
X-141.506 Y0.107 I-0.12 J0.109
G1 X-141.523 Y0.079
X-141.528 Y0.048
X-141.52 Y0.017
X-141.501 Y-0.008
X-141.386 Y-0.003
G0 Z37
X-179.386 Y0.01
Z15
G1 Z13 F1000
X-179.468 Y-0.071
X-179.461 Y-0.103
X-179.444 Y-0.129
X-179.417 Y-0.147
X-179.386 Y-0.153
G3 X-179.386 Y0.172 Z12.75 I0 J0.162
X-179.386 Y-0.153 Z12.5 I0 J-0.162
X-179.386 Y0.172 Z12.25 I0 J0.162
X-179.386 Y-0.153 Z12 I0 J-0.162
X-179.386 Y0.172 Z11.75 I0 J0.162
X-179.386 Y-0.153 Z11.5 I0 J-0.162
X-179.386 Y0.172 Z11.25 I0 J0.162
X-179.386 Y-0.153 Z11 I0 J-0.162
X-179.386 Y0.172 Z10.75 I0 J0.162
X-179.386 Y-0.153 Z10.5 I0 J-0.162
X-179.386 Y0.172 Z10.25 I0 J0.162
X-179.386 Y-0.153 Z10 I0 J-0.162
X-179.386 Y0.172 Z9.75 I0 J0.162
X-179.506 Y0.119 Z9.684 I0 J-0.162
X-179.266 Y-0.1 I0.12 J-0.109
X-179.506 Y0.119 I-0.12 J0.109
G1 X-179.523 Y0.092
X-179.528 Y0.061
X-179.52 Y0.03
X-179.501 Y0.004
X-179.386 Y0.01
G0 Z47

(Bohrfrasen4)
X-141.386 Y-0.003
Z47
Z4.316
G1 Z2.316 F1000
X-141.468 Y-0.084
X-141.461 Y-0.115
X-141.444 Y-0.142
X-141.417 Y-0.159
X-141.386 Y-0.165
G3 X-141.386 Y0.16 Z2.066 I0 J0.162
X-141.386 Y-0.165 Z1.816 I0 J-0.163
X-141.386 Y0.16 Z1.566 I0 J0.163
X-141.386 Y-0.165 Z1.316 I0 J-0.163
X-141.386 Y0.16 Z1.066 I0 J0.163
X-141.386 Y-0.165 Z0.816 I0 J-0.163
X-141.386 Y0.16 Z0.566 I0 J0.163
X-141.386 Y-0.165 Z0.316 I0 J-0.163
X-141.386 Y0.16 Z0.066 I0 J0.163
X-141.386 Y-0.165 Z-0.184 I0 J-0.163
X-141.386 Y0.16 Z-0.434 I0 J0.163
X-141.506 Y0.107 Z-0.5 I0 J-0.163
X-141.266 Y-0.112 I0.12 J-0.109
X-141.506 Y0.107 I-0.12 J0.109
G1 X-141.523 Y0.079
X-141.528 Y0.048
X-141.52 Y0.017
X-141.501 Y-0.008
X-141.386 Y-0.003
G0 Z37
X-179.386 Y0.01
Z4.316
G1 Z2.316 F1000
X-179.468 Y-0.071
X-179.461 Y-0.103
X-179.444 Y-0.129
X-179.417 Y-0.147
X-179.386 Y-0.153
G3 X-179.386 Y0.172 Z2.066 I0 J0.162
X-179.386 Y-0.153 Z1.816 I0 J-0.162
X-179.386 Y0.172 Z1.566 I0 J0.162
X-179.386 Y-0.153 Z1.316 I0 J-0.162
X-179.386 Y0.172 Z1.066 I0 J0.162
X-179.386 Y-0.153 Z0.816 I0 J-0.162
X-179.386 Y0.172 Z0.566 I0 J0.162
X-179.386 Y-0.153 Z0.316 I0 J-0.162
X-179.386 Y0.172 Z0.066 I0 J0.162
X-179.386 Y-0.153 Z-0.184 I0 J-0.162
X-179.386 Y0.172 Z-0.434 I0 J0.162
X-179.506 Y0.119 Z-0.5 I0 J-0.162
X-179.266 Y-0.1 I0.12 J-0.109
X-179.506 Y0.119 I-0.12 J0.109
G1 X-179.523 Y0.092
X-179.528 Y0.061
X-179.52 Y0.03
X-179.501 Y0.004
X-179.386 Y0.01
G0 Z47

(2D-Kontur1)
X-186.477 Y-9.805
Z47
Z17.5
G1 Z14.5 F333.3
Z11.817
Y-9.797 Z11.747 F1000
Y-9.774 Z11.68
Y-9.736 Z11.62
Y-9.686 Z11.569
Y-9.626 Z11.531
Y-9.558 Z11.508
Y-9.488 Z11.5
X-186.475 Y-5.988
X-186.471 Y6.012
X-186.47 Y9.512
Y9.583 Z11.508
Y9.65 Z11.531
Y9.71 Z11.569
Y9.76 Z11.62
Y9.798 Z11.68
Y9.822 Z11.747
Y9.83 Z11.817
G0 Z37
X-186.477 Y-9.805
Z17.5
G1 Z13.5 F333.3
Z10.817
Y-9.797 Z10.747 F1000
Y-9.774 Z10.68
Y-9.736 Z10.62
Y-9.686 Z10.569
Y-9.626 Z10.531
Y-9.558 Z10.508
Y-9.488 Z10.5
X-186.475 Y-5.988
X-186.471 Y6.012
X-186.47 Y9.512
Y9.583 Z10.508
Y9.65 Z10.531
Y9.71 Z10.569
Y9.76 Z10.62
Y9.798 Z10.68
Y9.822 Z10.747
Y9.83 Z10.817
G0 Z37
X-186.477 Y-9.805
Z17.5
G1 Z12.5 F333.3
Z9.817
Y-9.797 Z9.747 F1000
Y-9.774 Z9.68
Y-9.736 Z9.62
Y-9.686 Z9.569
Y-9.626 Z9.531
Y-9.558 Z9.508
Y-9.488 Z9.5
X-186.475 Y-5.988
X-186.471 Y6.012
X-186.47 Y9.512
Y9.583 Z9.508
Y9.65 Z9.531
Y9.71 Z9.569
Y9.76 Z9.62
Y9.798 Z9.68
Y9.822 Z9.747
Y9.83 Z9.817
G0 Z37
X-186.477 Y-9.805
Z17.5
G1 Z11.5 F333.3
Z8.817
Y-9.797 Z8.747 F1000
Y-9.774 Z8.68
Y-9.736 Z8.62
Y-9.686 Z8.569
Y-9.626 Z8.531
Y-9.558 Z8.508
Y-9.488 Z8.5
X-186.475 Y-5.988
X-186.471 Y6.012
X-186.47 Y9.512
Y9.583 Z8.508
Y9.65 Z8.531
Y9.71 Z8.569
Y9.76 Z8.62
Y9.798 Z8.68
Y9.822 Z8.747
Y9.83 Z8.817
G0 Z37
X-186.477 Y-9.805
Z17.5
G1 Z10.5 F333.3
Z7.817
Y-9.797 Z7.747 F1000
Y-9.774 Z7.68
Y-9.736 Z7.62
Y-9.686 Z7.569
Y-9.626 Z7.531
Y-9.558 Z7.508
Y-9.488 Z7.5
X-186.475 Y-5.988
X-186.471 Y6.012
X-186.47 Y9.512
Y9.583 Z7.508
Y9.65 Z7.531
Y9.71 Z7.569
Y9.76 Z7.62
Y9.798 Z7.68
Y9.822 Z7.747
Y9.83 Z7.817
G0 Z37
X-186.477 Y-9.805
Z17.5
G1 Z9.5 F333.3
Z6.817
Y-9.797 Z6.747 F1000
Y-9.774 Z6.68
Y-9.736 Z6.62
Y-9.686 Z6.569
Y-9.626 Z6.531
Y-9.558 Z6.508
Y-9.488 Z6.5
X-186.475 Y-5.988
X-186.471 Y6.012
X-186.47 Y9.512
Y9.583 Z6.508
Y9.65 Z6.531
Y9.71 Z6.569
Y9.76 Z6.62
Y9.798 Z6.68
Y9.822 Z6.747
Y9.83 Z6.817
G0 Z37
X-186.477 Y-9.805
Z17.5
G1 Z8.5 F333.3
Z5.817
Y-9.797 Z5.747 F1000
Y-9.774 Z5.68
Y-9.736 Z5.62
Y-9.686 Z5.569
Y-9.626 Z5.531
Y-9.558 Z5.508
Y-9.488 Z5.5
X-186.475 Y-5.988
X-186.471 Y6.012
X-186.47 Y9.512
Y9.583 Z5.508
Y9.65 Z5.531
Y9.71 Z5.569
Y9.76 Z5.62
Y9.798 Z5.68
Y9.822 Z5.747
Y9.83 Z5.817
G0 Z37
X-186.477 Y-9.805
Z17.5
G1 Z7.5 F333.3
Z4.817
Y-9.797 Z4.747 F1000
Y-9.774 Z4.68
Y-9.736 Z4.62
Y-9.686 Z4.569
Y-9.626 Z4.531
Y-9.558 Z4.508
Y-9.488 Z4.5
X-186.475 Y-5.988
X-186.471 Y6.012
X-186.47 Y9.512
Y9.583 Z4.508
Y9.65 Z4.531
Y9.71 Z4.569
Y9.76 Z4.62
Y9.798 Z4.68
Y9.822 Z4.747
Y9.83 Z4.817
G0 Z37
X-186.477 Y-9.805
Z17.5
G1 Z6.5 F333.3
Z3.817
Y-9.797 Z3.747 F1000
Y-9.774 Z3.68
Y-9.736 Z3.62
Y-9.686 Z3.569
Y-9.626 Z3.531
Y-9.558 Z3.508
Y-9.488 Z3.5
X-186.475 Y-5.988
X-186.471 Y6.012
X-186.47 Y9.512
Y9.583 Z3.508
Y9.65 Z3.531
Y9.71 Z3.569
Y9.76 Z3.62
Y9.798 Z3.68
Y9.822 Z3.747
Y9.83 Z3.817
G0 Z37
X-186.477 Y-9.805
Z17.5
G1 Z5.5 F333.3
Z2.817
Y-9.797 Z2.747 F1000
Y-9.774 Z2.68
Y-9.736 Z2.62
Y-9.686 Z2.569
Y-9.626 Z2.531
Y-9.558 Z2.508
Y-9.488 Z2.5
X-186.475 Y-5.988
X-186.471 Y6.012
X-186.47 Y9.512
Y9.583 Z2.508
Y9.65 Z2.531
Y9.71 Z2.569
Y9.76 Z2.62
Y9.798 Z2.68
Y9.822 Z2.747
Y9.83 Z2.817
G0 Z37
X-186.477 Y-9.805
Z17.5
G1 Z4.5 F333.3
Z1.817
Y-9.797 Z1.747 F1000
Y-9.774 Z1.68
Y-9.736 Z1.62
Y-9.686 Z1.569
Y-9.626 Z1.531
Y-9.558 Z1.508
Y-9.488 Z1.5
X-186.475 Y-5.988
X-186.471 Y6.012
X-186.47 Y9.512
Y9.583 Z1.508
Y9.65 Z1.531
Y9.71 Z1.569
Y9.76 Z1.62
Y9.798 Z1.68
Y9.822 Z1.747
Y9.83 Z1.817
G0 Z37
X-186.477 Y-9.805
Z17.5
G1 Z3.5 F333.3
Z0.817
Y-9.797 Z0.747 F1000
Y-9.774 Z0.68
Y-9.736 Z0.62
Y-9.686 Z0.569
Y-9.626 Z0.531
Y-9.558 Z0.508
Y-9.488 Z0.5
X-186.475 Y-5.988
X-186.471 Y6.012
X-186.47 Y9.512
Y9.583 Z0.508
Y9.65 Z0.531
Y9.71 Z0.569
Y9.76 Z0.62
Y9.798 Z0.68
Y9.822 Z0.747
Y9.83 Z0.817
G0 Z37
X-186.477 Y-9.805
Z17.5
G1 Z2.5 F333.3
Z-0.183
Y-9.797 Z-0.253 F1000
Y-9.774 Z-0.32
Y-9.736 Z-0.38
Y-9.686 Z-0.431
Y-9.626 Z-0.469
Y-9.558 Z-0.492
Y-9.488 Z-0.5
X-186.475 Y-5.988
X-186.471 Y6.012
X-186.47 Y9.512
Y9.583 Z-0.492
Y9.65 Z-0.469
Y9.71 Z-0.431
Y9.76 Z-0.38
Y9.798 Z-0.32
Y9.822 Z-0.253
Y9.83 Z-0.183
G0 Z47
M5
M30
