(Rohr_Arm_X8)
(Bearbeiten)
(  Hersteller: ChinaCnc)
(  model: 3040T)
(  description: Generic 3-axis)
(T5  D=3.175 CR=0 - ZMIN=-12.5 - Schaftfraser)
G90 G94
G17
G21

(Bohrfrasen1)
T5
S6000 M3
G54
G0 X-9.875 Y-0.047
Z35
Z3
G1 Z1 F1000
X-9.956 Y-0.128
X-9.95 Y-0.159
X-9.932 Y-0.185
X-9.906 Y-0.203
X-9.875 Y-0.209
G3 X-9.875 Y0.116 Z0.75 I0 J0.162
X-9.875 Y-0.209 Z0.5 I0 J-0.163
X-9.875 Y0.116 Z0.25 I0 J0.163
X-9.875 Y-0.209 Z0 I0 J-0.163
X-9.875 Y0.116 Z-0.25 I0 J0.163
X-9.875 Y-0.209 Z-0.5 I0 J-0.163
X-9.875 Y0.116 Z-0.75 I0 J0.163
X-9.875 Y-0.209 Z-1 I0 J-0.163
X-9.875 Y0.116 Z-1.25 I0 J0.163
X-9.875 Y-0.209 Z-1.5 I0 J-0.163
X-9.875 Y0.116 Z-1.75 I0 J0.163
X-9.875 Y-0.209 Z-2 I0 J-0.163
X-9.875 Y0.116 Z-2.25 I0 J0.163
X-9.995 Y0.063 Z-2.316 I0 J-0.163
X-9.755 Y-0.156 I0.12 J-0.109
X-9.995 Y0.063 I-0.12 J0.109
G1 X-10.012 Y0.036
X-10.016 Y0.004
X-10.009 Y-0.027
X-9.99 Y-0.052
X-9.875 Y-0.047
G0 Z25
X-29.875 Y-0.04
Z3
G1 Z1 F1000
X-29.956 Y-0.121
X-29.95 Y-0.152
X-29.932 Y-0.179
X-29.906 Y-0.196
X-29.875 Y-0.203
G3 X-29.875 Y0.122 Z0.75 I0 J0.162
X-29.875 Y-0.203 Z0.5 I0 J-0.162
X-29.875 Y0.122 Z0.25 I0 J0.162
X-29.875 Y-0.203 Z0 I0 J-0.162
X-29.875 Y0.122 Z-0.25 I0 J0.162
X-29.875 Y-0.203 Z-0.5 I0 J-0.162
X-29.875 Y0.122 Z-0.75 I0 J0.162
X-29.875 Y-0.203 Z-1 I0 J-0.162
X-29.875 Y0.122 Z-1.25 I0 J0.162
X-29.875 Y-0.203 Z-1.5 I0 J-0.162
X-29.875 Y0.122 Z-1.75 I0 J0.162
X-29.875 Y-0.203 Z-2 I0 J-0.162
X-29.875 Y0.122 Z-2.25 I0 J0.162
X-29.995 Y0.069 Z-2.316 I0 J-0.162
X-29.755 Y-0.149 I0.12 J-0.109
X-29.995 Y0.069 I-0.12 J0.109
G1 X-30.012 Y0.042
X-30.016 Y0.011
X-30.009 Y-0.02
X-29.99 Y-0.045
X-29.875 Y-0.04
G0 Z35

(Bohrfrasen2)
X-9.875 Y-0.047
Z35
Z-7.684
G1 Z-9.684 F1000
X-9.956 Y-0.128
X-9.95 Y-0.159
X-9.932 Y-0.185
X-9.906 Y-0.203
X-9.875 Y-0.209
G3 X-9.875 Y0.116 Z-9.934 I0 J0.162
X-9.875 Y-0.209 Z-10.184 I0 J-0.163
X-9.875 Y0.116 Z-10.434 I0 J0.163
X-9.875 Y-0.209 Z-10.684 I0 J-0.163
X-9.875 Y0.116 Z-10.934 I0 J0.163
X-9.875 Y-0.209 Z-11.184 I0 J-0.163
X-9.875 Y0.116 Z-11.434 I0 J0.163
X-9.875 Y-0.209 Z-11.684 I0 J-0.163
X-9.875 Y0.116 Z-11.934 I0 J0.163
X-9.875 Y-0.209 Z-12.184 I0 J-0.163
X-9.875 Y0.116 Z-12.434 I0 J0.163
X-9.995 Y0.063 Z-12.5 I0 J-0.163
X-9.755 Y-0.156 I0.12 J-0.109
X-9.995 Y0.063 I-0.12 J0.109
G1 X-10.012 Y0.036
X-10.016 Y0.004
X-10.009 Y-0.027
X-9.99 Y-0.052
X-9.875 Y-0.047
G0 Z25
X-29.875 Y-0.04
Z-7.684
G1 Z-9.684 F1000
X-29.956 Y-0.121
X-29.95 Y-0.152
X-29.932 Y-0.179
X-29.906 Y-0.196
X-29.875 Y-0.203
G3 X-29.875 Y0.122 Z-9.934 I0 J0.162
X-29.875 Y-0.203 Z-10.184 I0 J-0.162
X-29.875 Y0.122 Z-10.434 I0 J0.162
X-29.875 Y-0.203 Z-10.684 I0 J-0.162
X-29.875 Y0.122 Z-10.934 I0 J0.162
X-29.875 Y-0.203 Z-11.184 I0 J-0.162
X-29.875 Y0.122 Z-11.434 I0 J0.162
X-29.875 Y-0.203 Z-11.684 I0 J-0.162
X-29.875 Y0.122 Z-11.934 I0 J0.162
X-29.875 Y-0.203 Z-12.184 I0 J-0.162
X-29.875 Y0.122 Z-12.434 I0 J0.162
X-29.995 Y0.069 Z-12.5 I0 J-0.162
X-29.755 Y-0.149 I0.12 J-0.109
X-29.995 Y0.069 I-0.12 J0.109
G1 X-30.012 Y0.042
X-30.016 Y0.011
X-30.009 Y-0.02
X-29.99 Y-0.045
X-29.875 Y-0.04
G0 Z35

(Bohrfrasen3)
X-141.386 Y-0.003
Z35
Z3
G1 Z1 F1000
X-141.468 Y-0.084
X-141.461 Y-0.115
X-141.444 Y-0.142
X-141.417 Y-0.159
X-141.386 Y-0.165
G3 X-141.386 Y0.16 Z0.75 I0 J0.162
X-141.386 Y-0.165 Z0.5 I0 J-0.163
X-141.386 Y0.16 Z0.25 I0 J0.163
X-141.386 Y-0.165 Z0 I0 J-0.163
X-141.386 Y0.16 Z-0.25 I0 J0.163
X-141.386 Y-0.165 Z-0.5 I0 J-0.163
X-141.386 Y0.16 Z-0.75 I0 J0.163
X-141.386 Y-0.165 Z-1 I0 J-0.163
X-141.386 Y0.16 Z-1.25 I0 J0.163
X-141.386 Y-0.165 Z-1.5 I0 J-0.163
X-141.386 Y0.16 Z-1.75 I0 J0.163
X-141.386 Y-0.165 Z-2 I0 J-0.163
X-141.386 Y0.16 Z-2.25 I0 J0.163
X-141.506 Y0.107 Z-2.316 I0 J-0.163
X-141.266 Y-0.112 I0.12 J-0.109
X-141.506 Y0.107 I-0.12 J0.109
G1 X-141.523 Y0.079
X-141.528 Y0.048
X-141.52 Y0.017
X-141.501 Y-0.008
X-141.386 Y-0.003
G0 Z25
X-179.386 Y0.01
Z3
G1 Z1 F1000
X-179.468 Y-0.071
X-179.461 Y-0.103
X-179.444 Y-0.129
X-179.417 Y-0.147
X-179.386 Y-0.153
G3 X-179.386 Y0.172 Z0.75 I0 J0.162
X-179.386 Y-0.153 Z0.5 I0 J-0.162
X-179.386 Y0.172 Z0.25 I0 J0.162
X-179.386 Y-0.153 Z0 I0 J-0.162
X-179.386 Y0.172 Z-0.25 I0 J0.162
X-179.386 Y-0.153 Z-0.5 I0 J-0.162
X-179.386 Y0.172 Z-0.75 I0 J0.162
X-179.386 Y-0.153 Z-1 I0 J-0.162
X-179.386 Y0.172 Z-1.25 I0 J0.162
X-179.386 Y-0.153 Z-1.5 I0 J-0.162
X-179.386 Y0.172 Z-1.75 I0 J0.162
X-179.386 Y-0.153 Z-2 I0 J-0.162
X-179.386 Y0.172 Z-2.25 I0 J0.162
X-179.506 Y0.119 Z-2.316 I0 J-0.162
X-179.266 Y-0.1 I0.12 J-0.109
X-179.506 Y0.119 I-0.12 J0.109
G1 X-179.523 Y0.092
X-179.528 Y0.061
X-179.52 Y0.03
X-179.501 Y0.004
X-179.386 Y0.01
G0 Z35

(Bohrfrasen4)
X-141.386 Y-0.003
Z35
Z-7.684
G1 Z-9.684 F1000
X-141.468 Y-0.084
X-141.461 Y-0.115
X-141.444 Y-0.142
X-141.417 Y-0.159
X-141.386 Y-0.165
G3 X-141.386 Y0.16 Z-9.934 I0 J0.162
X-141.386 Y-0.165 Z-10.184 I0 J-0.163
X-141.386 Y0.16 Z-10.434 I0 J0.163
X-141.386 Y-0.165 Z-10.684 I0 J-0.163
X-141.386 Y0.16 Z-10.934 I0 J0.163
X-141.386 Y-0.165 Z-11.184 I0 J-0.163
X-141.386 Y0.16 Z-11.434 I0 J0.163
X-141.386 Y-0.165 Z-11.684 I0 J-0.163
X-141.386 Y0.16 Z-11.934 I0 J0.163
X-141.386 Y-0.165 Z-12.184 I0 J-0.163
X-141.386 Y0.16 Z-12.434 I0 J0.163
X-141.506 Y0.107 Z-12.5 I0 J-0.163
X-141.266 Y-0.112 I0.12 J-0.109
X-141.506 Y0.107 I-0.12 J0.109
G1 X-141.523 Y0.079
X-141.528 Y0.048
X-141.52 Y0.017
X-141.501 Y-0.008
X-141.386 Y-0.003
G0 Z25
X-179.386 Y0.01
Z-7.684
G1 Z-9.684 F1000
X-179.468 Y-0.071
X-179.461 Y-0.103
X-179.444 Y-0.129
X-179.417 Y-0.147
X-179.386 Y-0.153
G3 X-179.386 Y0.172 Z-9.934 I0 J0.162
X-179.386 Y-0.153 Z-10.184 I0 J-0.162
X-179.386 Y0.172 Z-10.434 I0 J0.162
X-179.386 Y-0.153 Z-10.684 I0 J-0.162
X-179.386 Y0.172 Z-10.934 I0 J0.162
X-179.386 Y-0.153 Z-11.184 I0 J-0.162
X-179.386 Y0.172 Z-11.434 I0 J0.162
X-179.386 Y-0.153 Z-11.684 I0 J-0.162
X-179.386 Y0.172 Z-11.934 I0 J0.162
X-179.386 Y-0.153 Z-12.184 I0 J-0.162
X-179.386 Y0.172 Z-12.434 I0 J0.162
X-179.506 Y0.119 Z-12.5 I0 J-0.162
X-179.266 Y-0.1 I0.12 J-0.109
X-179.506 Y0.119 I-0.12 J0.109
G1 X-179.523 Y0.092
X-179.528 Y0.061
X-179.52 Y0.03
X-179.501 Y0.004
X-179.386 Y0.01
G0 Z35

(2D-Kontur1)
X-186.477 Y-9.805
Z35
Z5.5
G1 Z2.5 F333.3
Z-0.183
Y-9.797 Z-0.253 F1000
Y-9.774 Z-0.32
Y-9.736 Z-0.38
Y-9.686 Z-0.431
Y-9.626 Z-0.469
Y-9.558 Z-0.492
Y-9.488 Z-0.5
X-186.475 Y-5.988
X-186.471 Y6.012
X-186.47 Y9.512
Y9.583 Z-0.492
Y9.65 Z-0.469
Y9.71 Z-0.431
Y9.76 Z-0.38
Y9.798 Z-0.32
Y9.822 Z-0.253
Y9.83 Z-0.183
G0 Z25
X-186.477 Y-9.805
Z5.5
G1 Z1.5 F333.3
Z-1.183
Y-9.797 Z-1.253 F1000
Y-9.774 Z-1.32
Y-9.736 Z-1.38
Y-9.686 Z-1.431
Y-9.626 Z-1.469
Y-9.558 Z-1.492
Y-9.488 Z-1.5
X-186.475 Y-5.988
X-186.471 Y6.012
X-186.47 Y9.512
Y9.583 Z-1.492
Y9.65 Z-1.469
Y9.71 Z-1.431
Y9.76 Z-1.38
Y9.798 Z-1.32
Y9.822 Z-1.253
Y9.83 Z-1.183
G0 Z25
X-186.477 Y-9.805
Z5.5
G1 Z0.5 F333.3
Z-2.183
Y-9.797 Z-2.253 F1000
Y-9.774 Z-2.32
Y-9.736 Z-2.38
Y-9.686 Z-2.431
Y-9.626 Z-2.469
Y-9.558 Z-2.492
Y-9.488 Z-2.5
X-186.475 Y-5.988
X-186.471 Y6.012
X-186.47 Y9.512
Y9.583 Z-2.492
Y9.65 Z-2.469
Y9.71 Z-2.431
Y9.76 Z-2.38
Y9.798 Z-2.32
Y9.822 Z-2.253
Y9.83 Z-2.183
G0 Z25
X-186.477 Y-9.805
Z5.5
G1 Z-0.5 F333.3
Z-3.183
Y-9.797 Z-3.253 F1000
Y-9.774 Z-3.32
Y-9.736 Z-3.38
Y-9.686 Z-3.431
Y-9.626 Z-3.469
Y-9.558 Z-3.492
Y-9.488 Z-3.5
X-186.475 Y-5.988
X-186.471 Y6.012
X-186.47 Y9.512
Y9.583 Z-3.492
Y9.65 Z-3.469
Y9.71 Z-3.431
Y9.76 Z-3.38
Y9.798 Z-3.32
Y9.822 Z-3.253
Y9.83 Z-3.183
G0 Z25
X-186.477 Y-9.805
Z5.5
G1 Z-1.5 F333.3
Z-4.183
Y-9.797 Z-4.253 F1000
Y-9.774 Z-4.32
Y-9.736 Z-4.38
Y-9.686 Z-4.431
Y-9.626 Z-4.469
Y-9.558 Z-4.492
Y-9.488 Z-4.5
X-186.475 Y-5.988
X-186.471 Y6.012
X-186.47 Y9.512
Y9.583 Z-4.492
Y9.65 Z-4.469
Y9.71 Z-4.431
Y9.76 Z-4.38
Y9.798 Z-4.32
Y9.822 Z-4.253
Y9.83 Z-4.183
G0 Z25
X-186.477 Y-9.805
Z5.5
G1 Z-2.5 F333.3
Z-5.183
Y-9.797 Z-5.253 F1000
Y-9.774 Z-5.32
Y-9.736 Z-5.38
Y-9.686 Z-5.431
Y-9.626 Z-5.469
Y-9.558 Z-5.492
Y-9.488 Z-5.5
X-186.475 Y-5.988
X-186.471 Y6.012
X-186.47 Y9.512
Y9.583 Z-5.492
Y9.65 Z-5.469
Y9.71 Z-5.431
Y9.76 Z-5.38
Y9.798 Z-5.32
Y9.822 Z-5.253
Y9.83 Z-5.183
G0 Z25
X-186.477 Y-9.805
Z5.5
G1 Z-3.5 F333.3
Z-6.183
Y-9.797 Z-6.253 F1000
Y-9.774 Z-6.32
Y-9.736 Z-6.38
Y-9.686 Z-6.431
Y-9.626 Z-6.469
Y-9.558 Z-6.492
Y-9.488 Z-6.5
X-186.475 Y-5.988
X-186.471 Y6.012
X-186.47 Y9.512
Y9.583 Z-6.492
Y9.65 Z-6.469
Y9.71 Z-6.431
Y9.76 Z-6.38
Y9.798 Z-6.32
Y9.822 Z-6.253
Y9.83 Z-6.183
G0 Z25
X-186.477 Y-9.805
Z5.5
G1 Z-4.5 F333.3
Z-7.183
Y-9.797 Z-7.253 F1000
Y-9.774 Z-7.32
Y-9.736 Z-7.38
Y-9.686 Z-7.431
Y-9.626 Z-7.469
Y-9.558 Z-7.492
Y-9.488 Z-7.5
X-186.475 Y-5.988
X-186.471 Y6.012
X-186.47 Y9.512
Y9.583 Z-7.492
Y9.65 Z-7.469
Y9.71 Z-7.431
Y9.76 Z-7.38
Y9.798 Z-7.32
Y9.822 Z-7.253
Y9.83 Z-7.183
G0 Z25
X-186.477 Y-9.805
Z5.5
G1 Z-5.5 F333.3
Z-8.183
Y-9.797 Z-8.253 F1000
Y-9.774 Z-8.32
Y-9.736 Z-8.38
Y-9.686 Z-8.431
Y-9.626 Z-8.469
Y-9.558 Z-8.492
Y-9.488 Z-8.5
X-186.475 Y-5.988
X-186.471 Y6.012
X-186.47 Y9.512
Y9.583 Z-8.492
Y9.65 Z-8.469
Y9.71 Z-8.431
Y9.76 Z-8.38
Y9.798 Z-8.32
Y9.822 Z-8.253
Y9.83 Z-8.183
G0 Z25
X-186.477 Y-9.805
Z5.5
G1 Z-6.5 F333.3
Z-9.183
Y-9.797 Z-9.253 F1000
Y-9.774 Z-9.32
Y-9.736 Z-9.38
Y-9.686 Z-9.431
Y-9.626 Z-9.469
Y-9.558 Z-9.492
Y-9.488 Z-9.5
X-186.475 Y-5.988
X-186.471 Y6.012
X-186.47 Y9.512
Y9.583 Z-9.492
Y9.65 Z-9.469
Y9.71 Z-9.431
Y9.76 Z-9.38
Y9.798 Z-9.32
Y9.822 Z-9.253
Y9.83 Z-9.183
G0 Z25
X-186.477 Y-9.805
Z5.5
G1 Z-7.5 F333.3
Z-10.183
Y-9.797 Z-10.253 F1000
Y-9.774 Z-10.32
Y-9.736 Z-10.38
Y-9.686 Z-10.431
Y-9.626 Z-10.469
Y-9.558 Z-10.492
Y-9.488 Z-10.5
X-186.475 Y-5.988
X-186.471 Y6.012
X-186.47 Y9.512
Y9.583 Z-10.492
Y9.65 Z-10.469
Y9.71 Z-10.431
Y9.76 Z-10.38
Y9.798 Z-10.32
Y9.822 Z-10.253
Y9.83 Z-10.183
G0 Z25
X-186.477 Y-9.805
Z5.5
G1 Z-8.5 F333.3
Z-11.183
Y-9.797 Z-11.253 F1000
Y-9.774 Z-11.32
Y-9.736 Z-11.38
Y-9.686 Z-11.431
Y-9.626 Z-11.469
Y-9.558 Z-11.492
Y-9.488 Z-11.5
X-186.475 Y-5.988
X-186.471 Y6.012
X-186.47 Y9.512
Y9.583 Z-11.492
Y9.65 Z-11.469
Y9.71 Z-11.431
Y9.76 Z-11.38
Y9.798 Z-11.32
Y9.822 Z-11.253
Y9.83 Z-11.183
G0 Z25
X-186.477 Y-9.805
Z5.5
G1 Z-9.5 F333.3
Z-12.183
Y-9.797 Z-12.253 F1000
Y-9.774 Z-12.32
Y-9.736 Z-12.38
Y-9.686 Z-12.431
Y-9.626 Z-12.469
Y-9.558 Z-12.492
Y-9.488 Z-12.5
X-186.475 Y-5.988
X-186.471 Y6.012
X-186.47 Y9.512
Y9.583 Z-12.492
Y9.65 Z-12.469
Y9.71 Z-12.431
Y9.76 Z-12.38
Y9.798 Z-12.32
Y9.822 Z-12.253
Y9.83 Z-12.183
G0 Z35
M5
M30
