(Top_Bottom_X8)
(Bearbeiten)
(  Hersteller: ChinaCnc)
(  model: 3040T)
(  description: Generic 3-axis)
(T5  D=3.175 CR=0 - ZMIN=-2.2 - Schaftfraser)
G90 G94
G17
G21

(Bohrfrasen5)
T5
S6000 M3
G54
G0 X-143.377 Y-190
Z30
Z2
G1 Z0 F1000
X-143.296 Y-190.081
X-143.265 Y-190.075
X-143.238 Y-190.057
X-143.221 Y-190.031
X-143.215 Y-190
G3 X-143.54 Y-190 Z-0.25 I-0.163 J0
X-143.215 Y-190 Z-0.5 I0.163 J0
X-143.54 Y-190 Z-0.75 I-0.163 J0
X-143.215 Y-190 Z-1 I0.163 J0
X-143.54 Y-190 Z-1.25 I-0.163 J0
X-143.215 Y-190 Z-1.5 I0.162 J0
X-143.54 Y-190 Z-1.75 I-0.162 J0
X-143.215 Y-190 Z-2 I0.162 J0
X-143.509 Y-189.904 Z-2.2 I-0.162 J0
X-143.246 Y-190.096 I0.131 J-0.096
X-143.509 Y-189.904 I-0.131 J0.096
G1 X-143.522 Y-189.933
X-143.523 Y-189.965
X-143.512 Y-189.995
X-143.491 Y-190.018
X-143.377 Y-190
G0 Z20
X-140.877 Y-181
Z2
G1 Z0 F1000
X-139.632 Y-181.318
G3 X-139.315 Y-181 I0 J0.318
X-142.44 Y-181 Z-0.25 I-1.563 J0
X-139.315 Y-181 Z-0.5 I1.562 J0
X-142.44 Y-181 Z-0.75 I-1.562 J0
X-139.315 Y-181 Z-1 I1.562 J0
X-142.44 Y-181 Z-1.25 I-1.562 J0
X-139.315 Y-181 Z-1.5 I1.562 J0
X-142.44 Y-181 Z-1.75 I-1.562 J0
X-139.315 Y-181 Z-2 I1.562 J0
X-142.141 Y-180.082 Z-2.2 I-1.562 J0
X-139.613 Y-181.918 I1.264 J-0.918
X-142.141 Y-180.082 I-1.264 J0.918
X-142.071 Y-180.525 I0.257 J-0.187
G1 X-140.877 Y-181
G0 Z20
X-130.877
Z2
G1 Z0 F1000
X-129.632 Y-181.318
G3 X-129.315 Y-181 I0 J0.318
X-132.44 Y-181 Z-0.25 I-1.563 J0
X-129.315 Y-181 Z-0.5 I1.562 J0
X-132.44 Y-181 Z-0.75 I-1.562 J0
X-129.315 Y-181 Z-1 I1.562 J0
X-132.44 Y-181 Z-1.25 I-1.562 J0
X-129.315 Y-181 Z-1.5 I1.562 J0
X-132.44 Y-181 Z-1.75 I-1.562 J0
X-129.315 Y-181 Z-2 I1.562 J0
X-132.141 Y-180.082 Z-2.2 I-1.562 J0
X-129.613 Y-181.918 I1.264 J-0.918
X-132.141 Y-180.082 I-1.264 J0.918
X-132.071 Y-180.525 I0.257 J-0.187
G1 X-130.877 Y-181
G0 Z20
X-120.877
Z2
G1 Z0 F1000
X-119.632 Y-181.318
G3 X-119.315 Y-181 I0 J0.318
X-122.44 Y-181 Z-0.25 I-1.563 J0
X-119.315 Y-181 Z-0.5 I1.562 J0
X-122.44 Y-181 Z-0.75 I-1.562 J0
X-119.315 Y-181 Z-1 I1.562 J0
X-122.44 Y-181 Z-1.25 I-1.562 J0
X-119.315 Y-181 Z-1.5 I1.562 J0
X-122.44 Y-181 Z-1.75 I-1.562 J0
X-119.315 Y-181 Z-2 I1.562 J0
X-122.141 Y-180.082 Z-2.2 I-1.562 J0
X-119.613 Y-181.918 I1.264 J-0.918
X-122.141 Y-180.082 I-1.264 J0.918
X-122.071 Y-180.525 I0.257 J-0.187
G1 X-120.877 Y-181
G0 Z20
X-110.877
Z2
G1 Z0 F1000
X-109.632 Y-181.318
G3 X-109.315 Y-181 I0 J0.318
X-112.44 Y-181 Z-0.25 I-1.563 J0
X-109.315 Y-181 Z-0.5 I1.562 J0
X-112.44 Y-181 Z-0.75 I-1.562 J0
X-109.315 Y-181 Z-1 I1.562 J0
X-112.44 Y-181 Z-1.25 I-1.562 J0
X-109.315 Y-181 Z-1.5 I1.562 J0
X-112.44 Y-181 Z-1.75 I-1.562 J0
X-109.315 Y-181 Z-2 I1.562 J0
X-112.141 Y-180.082 Z-2.2 I-1.562 J0
X-109.613 Y-181.918 I1.264 J-0.918
X-112.141 Y-180.082 I-1.264 J0.918
X-112.071 Y-180.525 I0.257 J-0.187
G1 X-110.877 Y-181
G0 Z20
X-108.377 Y-190
Z2
G1 Z0 F1000
X-108.296 Y-190.081
X-108.265 Y-190.075
X-108.238 Y-190.057
X-108.221 Y-190.031
X-108.215 Y-190
G3 X-108.54 Y-190 Z-0.25 I-0.163 J0
X-108.215 Y-190 Z-0.5 I0.163 J0
X-108.54 Y-190 Z-0.75 I-0.163 J0
X-108.215 Y-190 Z-1 I0.163 J0
X-108.54 Y-190 Z-1.25 I-0.163 J0
X-108.215 Y-190 Z-1.5 I0.163 J0
X-108.54 Y-190 Z-1.75 I-0.163 J0
X-108.215 Y-190 Z-2 I0.163 J0
X-108.509 Y-189.904 Z-2.2 I-0.163 J0
X-108.246 Y-190.096 I0.131 J-0.096
X-108.509 Y-189.904 I-0.131 J0.096
G1 X-108.522 Y-189.933
X-108.523 Y-189.965
X-108.512 Y-189.995
X-108.491 Y-190.018
X-108.377 Y-190
G0 Z20
X-63.373
Z2
G1 Z0 F1000
X-63.292 Y-190.081
X-63.261 Y-190.075
X-63.234 Y-190.057
X-63.217 Y-190.031
X-63.21 Y-190
G3 X-63.535 Y-190 Z-0.25 I-0.162 J0
X-63.21 Y-190 Z-0.5 I0.162 J0
X-63.535 Y-190 Z-0.75 I-0.162 J0
X-63.21 Y-190 Z-1 I0.163 J0
X-63.535 Y-190 Z-1.25 I-0.163 J0
X-63.21 Y-190 Z-1.5 I0.163 J0
X-63.535 Y-190 Z-1.75 I-0.163 J0
X-63.21 Y-190 Z-2 I0.163 J0
X-63.504 Y-189.904 Z-2.2 I-0.163 J0
X-63.241 Y-190.096 I0.131 J-0.096
X-63.504 Y-189.904 I-0.131 J0.096
G1 X-63.518 Y-189.933
X-63.519 Y-189.965
X-63.508 Y-189.995
X-63.486 Y-190.018
X-63.373 Y-190
G0 Z20
X-28.373
Z2
G1 Z0 F1000
X-28.292 Y-190.081
X-28.261 Y-190.075
X-28.234 Y-190.057
X-28.217 Y-190.031
X-28.21 Y-190
G3 X-28.535 Y-190 Z-0.25 I-0.163 J0
X-28.21 Y-190 Z-0.5 I0.163 J0
X-28.535 Y-190 Z-0.75 I-0.163 J0
X-28.21 Y-190 Z-1 I0.163 J0
X-28.535 Y-190 Z-1.25 I-0.163 J0
X-28.21 Y-190 Z-1.5 I0.163 J0
X-28.535 Y-190 Z-1.75 I-0.163 J0
X-28.21 Y-190 Z-2 I0.163 J0
X-28.504 Y-189.904 Z-2.2 I-0.163 J0
X-28.241 Y-190.096 I0.131 J-0.096
X-28.504 Y-189.904 I-0.131 J0.096
G1 X-28.518 Y-189.933
X-28.519 Y-189.965
X-28.508 Y-189.995
X-28.486 Y-190.018
X-28.373 Y-190
G0 Z20
X-18.873 Y-149.86
Z2
G1 Z0 F1000
X-18.979 Y-149.754
X-19.012 Y-149.759
X-19.042 Y-149.774
X-19.065 Y-149.798
X-19.08 Y-149.827
X-19.085 Y-149.86
G3 X-18.66 Y-149.86 Z-0.25 I0.212 J0
X-19.085 Y-149.86 Z-0.5 I-0.213 J0
X-18.66 Y-149.86 Z-0.75 I0.213 J0
X-19.085 Y-149.86 Z-1 I-0.213 J0
X-18.66 Y-149.86 Z-1.25 I0.213 J0
X-19.085 Y-149.86 Z-1.5 I-0.213 J0
X-18.66 Y-149.86 Z-1.75 I0.213 J0
X-19.085 Y-149.86 Z-2 I-0.213 J0
X-18.701 Y-149.985 Z-2.2 I0.213 J0
X-19.045 Y-149.735 I-0.172 J0.125
X-18.701 Y-149.985 I0.172 J-0.125
G1 X-18.686 Y-149.955
X-18.681 Y-149.922
X-18.686 Y-149.89
X-18.701 Y-149.86
X-18.725 Y-149.836
X-18.873 Y-149.86
G0 Z20
X-9.373 Y-142.028
Z2
G1 Z0 F1000
X-9.284 Y-142.116
X-9.25 Y-142.11
X-9.221 Y-142.09
X-9.202 Y-142.062
X-9.195 Y-142.028
G3 X-9.55 Y-142.028 Z-0.25 I-0.177 J0
X-9.195 Y-142.028 Z-0.5 I0.177 J0
X-9.55 Y-142.028 Z-0.75 I-0.177 J0
X-9.195 Y-142.028 Z-1 I0.177 J0
X-9.55 Y-142.028 Z-1.25 I-0.177 J0
X-9.195 Y-142.028 Z-1.5 I0.177 J0
X-9.55 Y-142.028 Z-1.75 I-0.177 J0
X-9.195 Y-142.028 Z-2 I0.177 J0
X-9.517 Y-141.923 Z-2.2 I-0.177 J0
X-9.229 Y-142.132 I0.144 J-0.104
X-9.517 Y-141.923 I-0.144 J0.104
G1 X-9.531 Y-141.955
X-9.532 Y-141.989
X-9.52 Y-142.022
X-9.497 Y-142.047
X-9.373 Y-142.028
G0 Z20
X-25.251 Y-129.84
Z2
G1 Z0 F1000
X-25.163 Y-129.929
X-25.129 Y-129.922
X-25.1 Y-129.903
X-25.081 Y-129.874
X-25.074 Y-129.84
G3 X-25.429 Y-129.84 Z-0.25 I-0.177 J0
X-25.074 Y-129.84 Z-0.5 I0.177 J0
X-25.429 Y-129.84 Z-0.75 I-0.177 J0
X-25.074 Y-129.84 Z-1 I0.177 J0
X-25.429 Y-129.84 Z-1.25 I-0.177 J0
X-25.074 Y-129.84 Z-1.5 I0.177 J0
X-25.429 Y-129.84 Z-1.75 I-0.177 J0
X-25.074 Y-129.84 Z-2 I0.177 J0
X-25.395 Y-129.736 Z-2.2 I-0.177 J0
X-25.108 Y-129.944 I0.144 J-0.104
X-25.395 Y-129.736 I-0.144 J0.104
G1 X-25.409 Y-129.767
X-25.411 Y-129.802
X-25.399 Y-129.834
X-25.375 Y-129.86
X-25.251 Y-129.84
G0 Z20
Y-98.161
Z2
G1 Z0 F1000
X-25.163 Y-98.249
X-25.129 Y-98.243
X-25.1 Y-98.223
X-25.081 Y-98.195
X-25.074 Y-98.161
G3 X-25.429 Y-98.161 Z-0.25 I-0.177 J0
X-25.074 Y-98.161 Z-0.5 I0.177 J0
X-25.429 Y-98.161 Z-0.75 I-0.177 J0
X-25.074 Y-98.161 Z-1 I0.177 J0
X-25.429 Y-98.161 Z-1.25 I-0.177 J0
X-25.074 Y-98.161 Z-1.5 I0.177 J0
X-25.429 Y-98.161 Z-1.75 I-0.177 J0
X-25.074 Y-98.161 Z-2 I0.177 J0
X-25.395 Y-98.056 Z-2.2 I-0.177 J0
X-25.108 Y-98.265 I0.144 J-0.104
X-25.395 Y-98.056 I-0.144 J0.104
G1 X-25.409 Y-98.088
X-25.411 Y-98.122
X-25.399 Y-98.155
X-25.375 Y-98.18
X-25.251 Y-98.161
G0 Z20
X-9.373 Y-86
Z2
G1 Z0 F1000
X-9.284 Y-86.089
X-9.25 Y-86.082
X-9.221 Y-86.063
X-9.202 Y-86.034
X-9.195 Y-86
G3 X-9.55 Y-86 Z-0.25 I-0.177 J0
X-9.195 Y-86 Z-0.5 I0.177 J0
X-9.55 Y-86 Z-0.75 I-0.177 J0
X-9.195 Y-86 Z-1 I0.177 J0
X-9.55 Y-86 Z-1.25 I-0.177 J0
X-9.195 Y-86 Z-1.5 I0.177 J0
X-9.55 Y-86 Z-1.75 I-0.177 J0
X-9.195 Y-86 Z-2 I0.177 J0
X-9.517 Y-85.896 Z-2.2 I-0.177 J0
X-9.229 Y-86.104 I0.144 J-0.104
X-9.517 Y-85.896 I-0.144 J0.104
G1 X-9.531 Y-85.927
X-9.532 Y-85.962
X-9.52 Y-85.994
X-9.497 Y-86.02
X-9.373 Y-86
G0 Z20
X-18.873 Y-78.14
Z2
G1 Z0 F1000
X-18.979 Y-78.034
X-19.012 Y-78.039
X-19.042 Y-78.054
X-19.065 Y-78.078
X-19.08 Y-78.107
X-19.085 Y-78.14
G3 X-18.66 Y-78.14 Z-0.25 I0.212 J0
X-19.085 Y-78.14 Z-0.5 I-0.213 J0
X-18.66 Y-78.14 Z-0.75 I0.213 J0
X-19.085 Y-78.14 Z-1 I-0.213 J0
X-18.66 Y-78.14 Z-1.25 I0.213 J0
X-19.085 Y-78.14 Z-1.5 I-0.213 J0
X-18.66 Y-78.14 Z-1.75 I0.213 J0
X-19.085 Y-78.14 Z-2 I-0.213 J0
X-18.701 Y-78.265 Z-2.2 I0.213 J0
X-19.045 Y-78.015 I-0.172 J0.125
X-18.701 Y-78.265 I0.172 J-0.125
G1 X-18.686 Y-78.235
X-18.681 Y-78.202
X-18.686 Y-78.17
X-18.701 Y-78.14
X-18.725 Y-78.116
X-18.873 Y-78.14
G0 Z20
X-72.873
Z2
G1 Z0 F1000
X-72.979 Y-78.034
X-73.012 Y-78.039
X-73.042 Y-78.054
X-73.065 Y-78.078
X-73.08 Y-78.107
X-73.085 Y-78.14
G3 X-72.66 Y-78.14 Z-0.25 I0.213 J0
X-73.085 Y-78.14 Z-0.5 I-0.213 J0
X-72.66 Y-78.14 Z-0.75 I0.213 J0
X-73.085 Y-78.14 Z-1 I-0.213 J0
X-72.66 Y-78.14 Z-1.25 I0.213 J0
X-73.085 Y-78.14 Z-1.5 I-0.213 J0
X-72.66 Y-78.14 Z-1.75 I0.213 J0
X-73.085 Y-78.14 Z-2 I-0.213 J0
X-72.701 Y-78.265 Z-2.2 I0.213 J0
X-73.045 Y-78.015 I-0.172 J0.125
X-72.701 Y-78.265 I0.172 J-0.125
G1 X-72.686 Y-78.235
X-72.681 Y-78.202
X-72.686 Y-78.17
X-72.701 Y-78.14
X-72.725 Y-78.116
X-72.873 Y-78.14
G0 Z20
X-82.373 Y-86
Z2
G1 Z0 F1000
X-82.284 Y-86.089
X-82.25 Y-86.082
X-82.221 Y-86.063
X-82.202 Y-86.034
X-82.195 Y-86
G3 X-82.55 Y-86 Z-0.25 I-0.178 J0
X-82.195 Y-86 Z-0.5 I0.178 J0
X-82.55 Y-86 Z-0.75 I-0.178 J0
X-82.195 Y-86 Z-1 I0.178 J0
X-82.55 Y-86 Z-1.25 I-0.178 J0
X-82.195 Y-86 Z-1.5 I0.178 J0
X-82.55 Y-86 Z-1.75 I-0.178 J0
X-82.195 Y-86 Z-2 I0.178 J0
X-82.517 Y-85.896 Z-2.2 I-0.178 J0
X-82.229 Y-86.104 I0.144 J-0.104
X-82.517 Y-85.896 I-0.144 J0.104
G1 X-82.531 Y-85.927
X-82.532 Y-85.962
X-82.52 Y-85.994
X-82.497 Y-86.02
X-82.373 Y-86
G0 Z20
X-66.478 Y-98.161
Z2
G1 Z0 F1000
X-66.389 Y-98.249
X-66.355 Y-98.243
X-66.327 Y-98.223
X-66.307 Y-98.195
X-66.301 Y-98.161
G3 X-66.656 Y-98.161 Z-0.25 I-0.177 J0
X-66.301 Y-98.161 Z-0.5 I0.177 J0
X-66.656 Y-98.161 Z-0.75 I-0.177 J0
X-66.301 Y-98.161 Z-1 I0.177 J0
X-66.656 Y-98.161 Z-1.25 I-0.177 J0
X-66.301 Y-98.161 Z-1.5 I0.177 J0
X-66.656 Y-98.161 Z-1.75 I-0.177 J0
X-66.301 Y-98.161 Z-2 I0.177 J0
X-66.622 Y-98.056 Z-2.2 I-0.177 J0
X-66.335 Y-98.265 I0.144 J-0.104
X-66.622 Y-98.056 I-0.144 J0.104
G1 X-66.636 Y-98.088
X-66.638 Y-98.122
X-66.626 Y-98.155
X-66.602 Y-98.18
X-66.478 Y-98.161
G0 Z20
Y-129.84
Z2
G1 Z0 F1000
X-66.389 Y-129.929
X-66.355 Y-129.922
X-66.327 Y-129.903
X-66.307 Y-129.874
X-66.301 Y-129.84
G3 X-66.656 Y-129.84 Z-0.25 I-0.177 J0
X-66.301 Y-129.84 Z-0.5 I0.177 J0
X-66.656 Y-129.84 Z-0.75 I-0.177 J0
X-66.301 Y-129.84 Z-1 I0.177 J0
X-66.656 Y-129.84 Z-1.25 I-0.177 J0
X-66.301 Y-129.84 Z-1.5 I0.177 J0
X-66.656 Y-129.84 Z-1.75 I-0.177 J0
X-66.301 Y-129.84 Z-2 I0.177 J0
X-66.622 Y-129.736 Z-2.2 I-0.177 J0
X-66.335 Y-129.944 I0.144 J-0.104
X-66.622 Y-129.736 I-0.144 J0.104
G1 X-66.636 Y-129.767
X-66.638 Y-129.802
X-66.626 Y-129.834
X-66.602 Y-129.86
X-66.478 Y-129.84
G0 Z20
X-82.373 Y-142.028
Z2
G1 Z0 F1000
X-82.284 Y-142.116
X-82.25 Y-142.11
X-82.221 Y-142.09
X-82.202 Y-142.062
X-82.195 Y-142.028
G3 X-82.55 Y-142.028 Z-0.25 I-0.178 J0
X-82.195 Y-142.028 Z-0.5 I0.178 J0
X-82.55 Y-142.028 Z-0.75 I-0.178 J0
X-82.195 Y-142.028 Z-1 I0.178 J0
X-82.55 Y-142.028 Z-1.25 I-0.178 J0
X-82.195 Y-142.028 Z-1.5 I0.177 J0
X-82.55 Y-142.028 Z-1.75 I-0.177 J0
X-82.195 Y-142.028 Z-2 I0.177 J0
X-82.517 Y-141.923 Z-2.2 I-0.177 J0
X-82.229 Y-142.132 I0.144 J-0.104
X-82.517 Y-141.923 I-0.144 J0.104
G1 X-82.531 Y-141.955
X-82.532 Y-141.989
X-82.52 Y-142.022
X-82.497 Y-142.047
X-82.373 Y-142.028
G0 Z20
X-72.873 Y-149.86
Z2
G1 Z0 F1000
X-72.979 Y-149.754
X-73.012 Y-149.759
X-73.042 Y-149.774
X-73.065 Y-149.798
X-73.08 Y-149.827
X-73.085 Y-149.86
G3 X-72.66 Y-149.86 Z-0.25 I0.213 J0
X-73.085 Y-149.86 Z-0.5 I-0.213 J0
X-72.66 Y-149.86 Z-0.75 I0.213 J0
X-73.085 Y-149.86 Z-1 I-0.213 J0
X-72.66 Y-149.86 Z-1.25 I0.213 J0
X-73.085 Y-149.86 Z-1.5 I-0.213 J0
X-72.66 Y-149.86 Z-1.75 I0.213 J0
X-73.085 Y-149.86 Z-2 I-0.213 J0
X-72.701 Y-149.985 Z-2.2 I0.213 J0
X-73.045 Y-149.735 I-0.172 J0.125
X-72.701 Y-149.985 I0.172 J-0.125
G1 X-72.686 Y-149.955
X-72.681 Y-149.922
X-72.686 Y-149.89
X-72.701 Y-149.86
X-72.725 Y-149.836
X-72.873 Y-149.86
G0 Z20
X-103.377 Y-114
Z2
G1 Z0 F1000
X-103.296 Y-114.081
X-103.265 Y-114.075
X-103.238 Y-114.057
X-103.221 Y-114.031
X-103.215 Y-114
G3 X-103.54 Y-114 Z-0.25 I-0.163 J0
X-103.215 Y-114 Z-0.5 I0.163 J0
X-103.54 Y-114 Z-0.75 I-0.163 J0
X-103.215 Y-114 Z-1 I0.163 J0
X-103.54 Y-114 Z-1.25 I-0.163 J0
X-103.215 Y-114 Z-1.5 I0.163 J0
X-103.54 Y-114 Z-1.75 I-0.162 J0
X-103.215 Y-114 Z-2 I0.162 J0
X-103.509 Y-113.904 Z-2.2 I-0.162 J0
X-103.246 Y-114.096 I0.131 J-0.096
X-103.509 Y-113.904 I-0.131 J0.096
G1 X-103.522 Y-113.933
X-103.523 Y-113.965
X-103.512 Y-113.995
X-103.491 Y-114.018
X-103.377 Y-114
G0 Z20
X-110.877 Y-121
Z2
G1 Z0 F1000
X-109.632 Y-121.317
G3 X-109.315 Y-121 I0 J0.317
X-112.44 Y-121 Z-0.25 I-1.563 J0
X-109.315 Y-121 Z-0.5 I1.562 J0
X-112.44 Y-121 Z-0.75 I-1.562 J0
X-109.315 Y-121 Z-1 I1.562 J0
X-112.44 Y-121 Z-1.25 I-1.562 J0
X-109.315 Y-121 Z-1.5 I1.562 J0
X-112.44 Y-121 Z-1.75 I-1.562 J0
X-109.315 Y-121 Z-2 I1.562 J0
X-112.141 Y-120.082 Z-2.2 I-1.562 J0
X-109.613 Y-121.918 I1.264 J-0.918
X-112.141 Y-120.082 I-1.264 J0.918
X-112.071 Y-120.525 I0.257 J-0.187
G1 X-110.877 Y-121
G0 Z20
X-120.877
Z2
G1 Z0 F1000
X-119.632 Y-121.317
G3 X-119.315 Y-121 I0 J0.317
X-122.44 Y-121 Z-0.25 I-1.563 J0
X-119.315 Y-121 Z-0.5 I1.562 J0
X-122.44 Y-121 Z-0.75 I-1.562 J0
X-119.315 Y-121 Z-1 I1.562 J0
X-122.44 Y-121 Z-1.25 I-1.562 J0
X-119.315 Y-121 Z-1.5 I1.562 J0
X-122.44 Y-121 Z-1.75 I-1.562 J0
X-119.315 Y-121 Z-2 I1.562 J0
X-122.141 Y-120.082 Z-2.2 I-1.562 J0
X-119.613 Y-121.918 I1.264 J-0.918
X-122.141 Y-120.082 I-1.264 J0.918
X-122.071 Y-120.525 I0.257 J-0.187
G1 X-120.877 Y-121
G0 Z20
X-130.877
Z2
G1 Z0 F1000
X-129.632 Y-121.317
G3 X-129.315 Y-121 I0 J0.317
X-132.44 Y-121 Z-0.25 I-1.563 J0
X-129.315 Y-121 Z-0.5 I1.562 J0
X-132.44 Y-121 Z-0.75 I-1.562 J0
X-129.315 Y-121 Z-1 I1.562 J0
X-132.44 Y-121 Z-1.25 I-1.562 J0
X-129.315 Y-121 Z-1.5 I1.562 J0
X-132.44 Y-121 Z-1.75 I-1.562 J0
X-129.315 Y-121 Z-2 I1.562 J0
X-132.141 Y-120.082 Z-2.2 I-1.562 J0
X-129.613 Y-121.918 I1.264 J-0.918
X-132.141 Y-120.082 I-1.264 J0.918
X-132.071 Y-120.525 I0.257 J-0.187
G1 X-130.877 Y-121
G0 Z20
X-140.877
Z2
G1 Z0 F1000
X-139.632 Y-121.317
G3 X-139.315 Y-121 I0 J0.317
X-142.44 Y-121 Z-0.25 I-1.563 J0
X-139.315 Y-121 Z-0.5 I1.562 J0
X-142.44 Y-121 Z-0.75 I-1.562 J0
X-139.315 Y-121 Z-1 I1.562 J0
X-142.44 Y-121 Z-1.25 I-1.562 J0
X-139.315 Y-121 Z-1.5 I1.562 J0
X-142.44 Y-121 Z-1.75 I-1.562 J0
X-139.315 Y-121 Z-2 I1.562 J0
X-142.141 Y-120.082 Z-2.2 I-1.562 J0
X-139.613 Y-121.918 I1.264 J-0.918
X-142.141 Y-120.082 I-1.264 J0.918
X-142.071 Y-120.525 I0.257 J-0.187
G1 X-140.877 Y-121
G0 Z20
X-148.377 Y-114
Z2
G1 Z0 F1000
X-148.296 Y-114.081
X-148.265 Y-114.075
X-148.238 Y-114.057
X-148.221 Y-114.031
X-148.215 Y-114
G3 X-148.54 Y-114 Z-0.25 I-0.163 J0
X-148.215 Y-114 Z-0.5 I0.163 J0
X-148.54 Y-114 Z-0.75 I-0.163 J0
X-148.215 Y-114 Z-1 I0.163 J0
X-148.54 Y-114 Z-1.25 I-0.162 J0
X-148.215 Y-114 Z-1.5 I0.162 J0
X-148.54 Y-114 Z-1.75 I-0.162 J0
X-148.215 Y-114 Z-2 I0.162 J0
X-148.509 Y-113.904 Z-2.2 I-0.162 J0
X-148.246 Y-114.096 I0.131 J-0.096
X-148.509 Y-113.904 I-0.131 J0.096
G1 X-148.522 Y-113.933
X-148.523 Y-113.965
X-148.512 Y-113.995
X-148.491 Y-114.018
X-148.377 Y-114
G0 Z20
X-140.877 Y-106
Z2
G1 Z0 F1000
X-139.632 Y-106.317
G3 X-139.315 Y-106 I0 J0.317
X-142.44 Y-106 Z-0.25 I-1.563 J0
X-139.315 Y-106 Z-0.5 I1.562 J0
X-142.44 Y-106 Z-0.75 I-1.562 J0
X-139.315 Y-106 Z-1 I1.562 J0
X-142.44 Y-106 Z-1.25 I-1.562 J0
X-139.315 Y-106 Z-1.5 I1.562 J0
X-142.44 Y-106 Z-1.75 I-1.562 J0
X-139.315 Y-106 Z-2 I1.562 J0
X-142.141 Y-105.082 Z-2.2 I-1.562 J0
X-139.613 Y-106.918 I1.264 J-0.918
X-142.141 Y-105.082 I-1.264 J0.918
X-142.071 Y-105.525 I0.257 J-0.187
G1 X-140.877 Y-106
G0 Z20
X-130.877
Z2
G1 Z0 F1000
X-129.632 Y-106.317
G3 X-129.315 Y-106 I0 J0.317
X-132.44 Y-106 Z-0.25 I-1.563 J0
X-129.315 Y-106 Z-0.5 I1.562 J0
X-132.44 Y-106 Z-0.75 I-1.562 J0
X-129.315 Y-106 Z-1 I1.562 J0
X-132.44 Y-106 Z-1.25 I-1.562 J0
X-129.315 Y-106 Z-1.5 I1.562 J0
X-132.44 Y-106 Z-1.75 I-1.562 J0
X-129.315 Y-106 Z-2 I1.562 J0
X-132.141 Y-105.082 Z-2.2 I-1.562 J0
X-129.613 Y-106.918 I1.264 J-0.918
X-132.141 Y-105.082 I-1.264 J0.918
X-132.071 Y-105.525 I0.257 J-0.187
G1 X-130.877 Y-106
G0 Z20
X-120.877
Z2
G1 Z0 F1000
X-119.632 Y-106.317
G3 X-119.315 Y-106 I0 J0.317
X-122.44 Y-106 Z-0.25 I-1.563 J0
X-119.315 Y-106 Z-0.5 I1.562 J0
X-122.44 Y-106 Z-0.75 I-1.562 J0
X-119.315 Y-106 Z-1 I1.562 J0
X-122.44 Y-106 Z-1.25 I-1.562 J0
X-119.315 Y-106 Z-1.5 I1.562 J0
X-122.44 Y-106 Z-1.75 I-1.562 J0
X-119.315 Y-106 Z-2 I1.562 J0
X-122.141 Y-105.082 Z-2.2 I-1.562 J0
X-119.613 Y-106.918 I1.264 J-0.918
X-122.141 Y-105.082 I-1.264 J0.918
X-122.071 Y-105.525 I0.257 J-0.187
G1 X-120.877 Y-106
G0 Z20
X-110.877
Z2
G1 Z0 F1000
X-109.632 Y-106.317
G3 X-109.315 Y-106 I0 J0.317
X-112.44 Y-106 Z-0.25 I-1.563 J0
X-109.315 Y-106 Z-0.5 I1.562 J0
X-112.44 Y-106 Z-0.75 I-1.562 J0
X-109.315 Y-106 Z-1 I1.562 J0
X-112.44 Y-106 Z-1.25 I-1.562 J0
X-109.315 Y-106 Z-1.5 I1.562 J0
X-112.44 Y-106 Z-1.75 I-1.562 J0
X-109.315 Y-106 Z-2 I1.562 J0
X-112.141 Y-105.082 Z-2.2 I-1.562 J0
X-109.613 Y-106.918 I1.264 J-0.918
X-112.141 Y-105.082 I-1.264 J0.918
X-112.071 Y-105.525 I0.257 J-0.187
G1 X-110.877 Y-106
G0 Z20
Y-91
Z2
G1 Z0 F1000
X-109.632 Y-91.317
G3 X-109.315 Y-91 I0 J0.317
X-112.44 Y-91 Z-0.25 I-1.563 J0
X-109.315 Y-91 Z-0.5 I1.562 J0
X-112.44 Y-91 Z-0.75 I-1.562 J0
X-109.315 Y-91 Z-1 I1.562 J0
X-112.44 Y-91 Z-1.25 I-1.562 J0
X-109.315 Y-91 Z-1.5 I1.562 J0
X-112.44 Y-91 Z-1.75 I-1.562 J0
X-109.315 Y-91 Z-2 I1.562 J0
X-112.141 Y-90.082 Z-2.2 I-1.562 J0
X-109.613 Y-91.918 I1.264 J-0.918
X-112.141 Y-90.082 I-1.264 J0.918
X-112.071 Y-90.525 I0.257 J-0.187
G1 X-110.877 Y-91
G0 Z20
X-120.877
Z2
G1 Z0 F1000
X-119.632 Y-91.317
G3 X-119.315 Y-91 I0 J0.317
X-122.44 Y-91 Z-0.25 I-1.563 J0
X-119.315 Y-91 Z-0.5 I1.562 J0
X-122.44 Y-91 Z-0.75 I-1.562 J0
X-119.315 Y-91 Z-1 I1.562 J0
X-122.44 Y-91 Z-1.25 I-1.562 J0
X-119.315 Y-91 Z-1.5 I1.562 J0
X-122.44 Y-91 Z-1.75 I-1.562 J0
X-119.315 Y-91 Z-2 I1.562 J0
X-122.141 Y-90.082 Z-2.2 I-1.562 J0
X-119.613 Y-91.918 I1.264 J-0.918
X-122.141 Y-90.082 I-1.264 J0.918
X-122.071 Y-90.525 I0.257 J-0.187
G1 X-120.877 Y-91
G0 Z20
X-130.877
Z2
G1 Z0 F1000
X-129.632 Y-91.317
G3 X-129.315 Y-91 I0 J0.317
X-132.44 Y-91 Z-0.25 I-1.563 J0
X-129.315 Y-91 Z-0.5 I1.562 J0
X-132.44 Y-91 Z-0.75 I-1.562 J0
X-129.315 Y-91 Z-1 I1.562 J0
X-132.44 Y-91 Z-1.25 I-1.562 J0
X-129.315 Y-91 Z-1.5 I1.562 J0
X-132.44 Y-91 Z-1.75 I-1.562 J0
X-129.315 Y-91 Z-2 I1.562 J0
X-132.141 Y-90.082 Z-2.2 I-1.562 J0
X-129.613 Y-91.918 I1.264 J-0.918
X-132.141 Y-90.082 I-1.264 J0.918
X-132.071 Y-90.525 I0.257 J-0.187
G1 X-130.877 Y-91
G0 Z20
X-140.877
Z2
G1 Z0 F1000
X-139.632 Y-91.317
G3 X-139.315 Y-91 I0 J0.317
X-142.44 Y-91 Z-0.25 I-1.563 J0
X-139.315 Y-91 Z-0.5 I1.562 J0
X-142.44 Y-91 Z-0.75 I-1.562 J0
X-139.315 Y-91 Z-1 I1.562 J0
X-142.44 Y-91 Z-1.25 I-1.562 J0
X-139.315 Y-91 Z-1.5 I1.562 J0
X-142.44 Y-91 Z-1.75 I-1.562 J0
X-139.315 Y-91 Z-2 I1.562 J0
X-142.141 Y-90.082 Z-2.2 I-1.562 J0
X-139.613 Y-91.918 I1.264 J-0.918
X-142.141 Y-90.082 I-1.264 J0.918
X-142.071 Y-90.525 I0.257 J-0.187
G1 X-140.877 Y-91
G0 Z20
Y-76
Z2
G1 Z0 F1000
X-139.632 Y-76.317
G3 X-139.315 Y-76 I0 J0.317
X-142.44 Y-76 Z-0.25 I-1.563 J0
X-139.315 Y-76 Z-0.5 I1.562 J0
X-142.44 Y-76 Z-0.75 I-1.562 J0
X-139.315 Y-76 Z-1 I1.562 J0
X-142.44 Y-76 Z-1.25 I-1.562 J0
X-139.315 Y-76 Z-1.5 I1.562 J0
X-142.44 Y-76 Z-1.75 I-1.562 J0
X-139.315 Y-76 Z-2 I1.562 J0
X-142.141 Y-75.082 Z-2.2 I-1.562 J0
X-139.613 Y-76.918 I1.264 J-0.918
X-142.141 Y-75.082 I-1.264 J0.918
X-142.071 Y-75.525 I0.257 J-0.187
G1 X-140.877 Y-76
G0 Z20
X-130.877
Z2
G1 Z0 F1000
X-129.632 Y-76.317
G3 X-129.315 Y-76 I0 J0.317
X-132.44 Y-76 Z-0.25 I-1.563 J0
X-129.315 Y-76 Z-0.5 I1.562 J0
X-132.44 Y-76 Z-0.75 I-1.562 J0
X-129.315 Y-76 Z-1 I1.562 J0
X-132.44 Y-76 Z-1.25 I-1.562 J0
X-129.315 Y-76 Z-1.5 I1.562 J0
X-132.44 Y-76 Z-1.75 I-1.562 J0
X-129.315 Y-76 Z-2 I1.562 J0
X-132.141 Y-75.082 Z-2.2 I-1.562 J0
X-129.613 Y-76.918 I1.264 J-0.918
X-132.141 Y-75.082 I-1.264 J0.918
X-132.071 Y-75.525 I0.257 J-0.187
G1 X-130.877 Y-76
G0 Z20
X-120.877
Z2
G1 Z0 F1000
X-119.632 Y-76.317
G3 X-119.315 Y-76 I0 J0.317
X-122.44 Y-76 Z-0.25 I-1.563 J0
X-119.315 Y-76 Z-0.5 I1.562 J0
X-122.44 Y-76 Z-0.75 I-1.562 J0
X-119.315 Y-76 Z-1 I1.562 J0
X-122.44 Y-76 Z-1.25 I-1.562 J0
X-119.315 Y-76 Z-1.5 I1.562 J0
X-122.44 Y-76 Z-1.75 I-1.562 J0
X-119.315 Y-76 Z-2 I1.562 J0
X-122.141 Y-75.082 Z-2.2 I-1.562 J0
X-119.613 Y-76.918 I1.264 J-0.918
X-122.141 Y-75.082 I-1.264 J0.918
X-122.071 Y-75.525 I0.257 J-0.187
G1 X-120.877 Y-76
G0 Z20
X-110.877
Z2
G1 Z0 F1000
X-109.632 Y-76.317
G3 X-109.315 Y-76 I0 J0.317
X-112.44 Y-76 Z-0.25 I-1.563 J0
X-109.315 Y-76 Z-0.5 I1.562 J0
X-112.44 Y-76 Z-0.75 I-1.562 J0
X-109.315 Y-76 Z-1 I1.562 J0
X-112.44 Y-76 Z-1.25 I-1.562 J0
X-109.315 Y-76 Z-1.5 I1.562 J0
X-112.44 Y-76 Z-1.75 I-1.562 J0
X-109.315 Y-76 Z-2 I1.562 J0
X-112.141 Y-75.082 Z-2.2 I-1.562 J0
X-109.613 Y-76.918 I1.264 J-0.918
X-112.141 Y-75.082 I-1.264 J0.918
X-112.071 Y-75.525 I0.257 J-0.187
G1 X-110.877 Y-76
G0 Z20
Y-61
Z2
G1 Z0 F1000
X-109.632 Y-61.318
G3 X-109.315 Y-61 I0 J0.318
X-112.44 Y-61 Z-0.25 I-1.563 J0
X-109.315 Y-61 Z-0.5 I1.562 J0
X-112.44 Y-61 Z-0.75 I-1.562 J0
X-109.315 Y-61 Z-1 I1.562 J0
X-112.44 Y-61 Z-1.25 I-1.562 J0
X-109.315 Y-61 Z-1.5 I1.562 J0
X-112.44 Y-61 Z-1.75 I-1.562 J0
X-109.315 Y-61 Z-2 I1.562 J0
X-112.141 Y-60.082 Z-2.2 I-1.562 J0
X-109.613 Y-61.918 I1.264 J-0.918
X-112.141 Y-60.082 I-1.264 J0.918
X-112.071 Y-60.525 I0.257 J-0.187
G1 X-110.877 Y-61
G0 Z20
X-120.877
Z2
G1 Z0 F1000
X-119.632 Y-61.318
G3 X-119.315 Y-61 I0 J0.318
X-122.44 Y-61 Z-0.25 I-1.563 J0
X-119.315 Y-61 Z-0.5 I1.562 J0
X-122.44 Y-61 Z-0.75 I-1.562 J0
X-119.315 Y-61 Z-1 I1.562 J0
X-122.44 Y-61 Z-1.25 I-1.562 J0
X-119.315 Y-61 Z-1.5 I1.562 J0
X-122.44 Y-61 Z-1.75 I-1.562 J0
X-119.315 Y-61 Z-2 I1.562 J0
X-122.141 Y-60.082 Z-2.2 I-1.562 J0
X-119.613 Y-61.918 I1.264 J-0.918
X-122.141 Y-60.082 I-1.264 J0.918
X-122.071 Y-60.525 I0.257 J-0.187
G1 X-120.877 Y-61
G0 Z20
X-130.877
Z2
G1 Z0 F1000
X-129.632 Y-61.318
G3 X-129.315 Y-61 I0 J0.318
X-132.44 Y-61 Z-0.25 I-1.563 J0
X-129.315 Y-61 Z-0.5 I1.562 J0
X-132.44 Y-61 Z-0.75 I-1.562 J0
X-129.315 Y-61 Z-1 I1.562 J0
X-132.44 Y-61 Z-1.25 I-1.562 J0
X-129.315 Y-61 Z-1.5 I1.562 J0
X-132.44 Y-61 Z-1.75 I-1.562 J0
X-129.315 Y-61 Z-2 I1.562 J0
X-132.141 Y-60.082 Z-2.2 I-1.562 J0
X-129.613 Y-61.918 I1.264 J-0.918
X-132.141 Y-60.082 I-1.264 J0.918
X-132.071 Y-60.525 I0.257 J-0.187
G1 X-130.877 Y-61
G0 Z20
X-140.877
Z2
G1 Z0 F1000
X-139.632 Y-61.318
G3 X-139.315 Y-61 I0 J0.318
X-142.44 Y-61 Z-0.25 I-1.563 J0
X-139.315 Y-61 Z-0.5 I1.562 J0
X-142.44 Y-61 Z-0.75 I-1.562 J0
X-139.315 Y-61 Z-1 I1.562 J0
X-142.44 Y-61 Z-1.25 I-1.562 J0
X-139.315 Y-61 Z-1.5 I1.562 J0
X-142.44 Y-61 Z-1.75 I-1.562 J0
X-139.315 Y-61 Z-2 I1.562 J0
X-142.141 Y-60.082 Z-2.2 I-1.562 J0
X-139.613 Y-61.918 I1.264 J-0.918
X-142.141 Y-60.082 I-1.264 J0.918
X-142.071 Y-60.525 I0.257 J-0.187
G1 X-140.877 Y-61
G0 Z20
X-143.377 Y-10
Z2
G1 Z0 F1000
X-143.296 Y-10.081
X-143.265 Y-10.075
X-143.238 Y-10.057
X-143.221 Y-10.031
X-143.215 Y-10
G3 X-143.54 Y-10 Z-0.25 I-0.163 J0
X-143.215 Y-10 Z-0.5 I0.163 J0
X-143.54 Y-10 Z-0.75 I-0.163 J0
X-143.215 Y-10 Z-1 I0.163 J0
X-143.54 Y-10 Z-1.25 I-0.162 J0
X-143.215 Y-10 Z-1.5 I0.162 J0
X-143.54 Y-10 Z-1.75 I-0.162 J0
X-143.215 Y-10 Z-2 I0.162 J0
X-143.509 Y-9.904 Z-2.2 I-0.162 J0
X-143.246 Y-10.096 I0.131 J-0.096
X-143.509 Y-9.904 I-0.131 J0.096
G1 X-143.522 Y-9.933
X-143.523 Y-9.965
X-143.512 Y-9.995
X-143.491 Y-10.018
X-143.377 Y-10
G0 Z20
Y-35
Z2
G1 Z0 F1000
X-143.296 Y-35.081
X-143.265 Y-35.075
X-143.238 Y-35.057
X-143.221 Y-35.031
X-143.215 Y-35
G3 X-143.54 Y-35 Z-0.25 I-0.163 J0
X-143.215 Y-35 Z-0.5 I0.163 J0
X-143.54 Y-35 Z-0.75 I-0.163 J0
X-143.215 Y-35 Z-1 I0.163 J0
X-143.54 Y-35 Z-1.25 I-0.162 J0
X-143.215 Y-35 Z-1.5 I0.162 J0
X-143.54 Y-35 Z-1.75 I-0.162 J0
X-143.215 Y-35 Z-2 I0.162 J0
X-143.509 Y-34.904 Z-2.2 I-0.162 J0
X-143.246 Y-35.096 I0.131 J-0.096
X-143.509 Y-34.904 I-0.131 J0.096
G1 X-143.522 Y-34.933
X-143.523 Y-34.965
X-143.512 Y-34.995
X-143.491 Y-35.018
X-143.377 Y-35
G0 Z20
X-140.877 Y-46
Z2
G1 Z0 F1000
X-139.632 Y-46.318
G3 X-139.315 Y-46 I0 J0.318
X-142.44 Y-46 Z-0.25 I-1.563 J0
X-139.315 Y-46 Z-0.5 I1.562 J0
X-142.44 Y-46 Z-0.75 I-1.562 J0
X-139.315 Y-46 Z-1 I1.562 J0
X-142.44 Y-46 Z-1.25 I-1.562 J0
X-139.315 Y-46 Z-1.5 I1.562 J0
X-142.44 Y-46 Z-1.75 I-1.562 J0
X-139.315 Y-46 Z-2 I1.562 J0
X-142.141 Y-45.082 Z-2.2 I-1.562 J0
X-139.613 Y-46.918 I1.264 J-0.918
X-142.141 Y-45.082 I-1.264 J0.918
X-142.071 Y-45.525 I0.257 J-0.187
G1 X-140.877 Y-46
G0 Z20
X-130.877
Z2
G1 Z0 F1000
X-129.632 Y-46.318
G3 X-129.315 Y-46 I0 J0.318
X-132.44 Y-46 Z-0.25 I-1.563 J0
X-129.315 Y-46 Z-0.5 I1.562 J0
X-132.44 Y-46 Z-0.75 I-1.562 J0
X-129.315 Y-46 Z-1 I1.562 J0
X-132.44 Y-46 Z-1.25 I-1.562 J0
X-129.315 Y-46 Z-1.5 I1.562 J0
X-132.44 Y-46 Z-1.75 I-1.562 J0
X-129.315 Y-46 Z-2 I1.562 J0
X-132.141 Y-45.082 Z-2.2 I-1.562 J0
X-129.613 Y-46.918 I1.264 J-0.918
X-132.141 Y-45.082 I-1.264 J0.918
X-132.071 Y-45.525 I0.257 J-0.187
G1 X-130.877 Y-46
G0 Z20
X-120.877
Z2
G1 Z0 F1000
X-119.632 Y-46.318
G3 X-119.315 Y-46 I0 J0.318
X-122.44 Y-46 Z-0.25 I-1.563 J0
X-119.315 Y-46 Z-0.5 I1.562 J0
X-122.44 Y-46 Z-0.75 I-1.562 J0
X-119.315 Y-46 Z-1 I1.562 J0
X-122.44 Y-46 Z-1.25 I-1.562 J0
X-119.315 Y-46 Z-1.5 I1.562 J0
X-122.44 Y-46 Z-1.75 I-1.562 J0
X-119.315 Y-46 Z-2 I1.562 J0
X-122.141 Y-45.082 Z-2.2 I-1.562 J0
X-119.613 Y-46.918 I1.264 J-0.918
X-122.141 Y-45.082 I-1.264 J0.918
X-122.071 Y-45.525 I0.257 J-0.187
G1 X-120.877 Y-46
G0 Z20
X-110.877
Z2
G1 Z0 F1000
X-109.632 Y-46.318
G3 X-109.315 Y-46 I0 J0.318
X-112.44 Y-46 Z-0.25 I-1.563 J0
X-109.315 Y-46 Z-0.5 I1.562 J0
X-112.44 Y-46 Z-0.75 I-1.562 J0
X-109.315 Y-46 Z-1 I1.562 J0
X-112.44 Y-46 Z-1.25 I-1.562 J0
X-109.315 Y-46 Z-1.5 I1.562 J0
X-112.44 Y-46 Z-1.75 I-1.562 J0
X-109.315 Y-46 Z-2 I1.562 J0
X-112.141 Y-45.082 Z-2.2 I-1.562 J0
X-109.613 Y-46.918 I1.264 J-0.918
X-112.141 Y-45.082 I-1.264 J0.918
X-112.071 Y-45.525 I0.257 J-0.187
G1 X-110.877 Y-46
G0 Z20
X-108.377 Y-35
Z2
G1 Z0 F1000
X-108.296 Y-35.081
X-108.265 Y-35.075
X-108.238 Y-35.057
X-108.221 Y-35.031
X-108.215 Y-35
G3 X-108.54 Y-35 Z-0.25 I-0.163 J0
X-108.215 Y-35 Z-0.5 I0.163 J0
X-108.54 Y-35 Z-0.75 I-0.163 J0
X-108.215 Y-35 Z-1 I0.163 J0
X-108.54 Y-35 Z-1.25 I-0.163 J0
X-108.215 Y-35 Z-1.5 I0.163 J0
X-108.54 Y-35 Z-1.75 I-0.163 J0
X-108.215 Y-35 Z-2 I0.162 J0
X-108.509 Y-34.904 Z-2.2 I-0.162 J0
X-108.246 Y-35.096 I0.131 J-0.096
X-108.509 Y-34.904 I-0.131 J0.096
G1 X-108.522 Y-34.933
X-108.523 Y-34.965
X-108.512 Y-34.995
X-108.491 Y-35.018
X-108.377 Y-35
G0 Z20
Y-10
Z2
G1 Z0 F1000
X-108.296 Y-10.081
X-108.265 Y-10.075
X-108.238 Y-10.057
X-108.221 Y-10.031
X-108.215 Y-10
G3 X-108.54 Y-10 Z-0.25 I-0.163 J0
X-108.215 Y-10 Z-0.5 I0.163 J0
X-108.54 Y-10 Z-0.75 I-0.163 J0
X-108.215 Y-10 Z-1 I0.163 J0
X-108.54 Y-10 Z-1.25 I-0.163 J0
X-108.215 Y-10 Z-1.5 I0.163 J0
X-108.54 Y-10 Z-1.75 I-0.163 J0
X-108.215 Y-10 Z-2 I0.162 J0
X-108.509 Y-9.904 Z-2.2 I-0.162 J0
X-108.246 Y-10.096 I0.131 J-0.096
X-108.509 Y-9.904 I-0.131 J0.096
G1 X-108.522 Y-9.933
X-108.523 Y-9.965
X-108.512 Y-9.995
X-108.491 Y-10.018
X-108.377 Y-10
G0 Z20
X-63.373
Z2
G1 Z0 F1000
X-63.292 Y-10.081
X-63.261 Y-10.075
X-63.234 Y-10.057
X-63.217 Y-10.031
X-63.21 Y-10
G3 X-63.535 Y-10 Z-0.25 I-0.162 J0
X-63.21 Y-10 Z-0.5 I0.162 J0
X-63.535 Y-10 Z-0.75 I-0.162 J0
X-63.21 Y-10 Z-1 I0.162 J0
X-63.535 Y-10 Z-1.25 I-0.162 J0
X-63.21 Y-10 Z-1.5 I0.162 J0
X-63.535 Y-10 Z-1.75 I-0.162 J0
X-63.21 Y-10 Z-2 I0.163 J0
X-63.504 Y-9.904 Z-2.2 I-0.163 J0
X-63.241 Y-10.096 I0.131 J-0.096
X-63.504 Y-9.904 I-0.131 J0.096
G1 X-63.518 Y-9.933
X-63.519 Y-9.965
X-63.508 Y-9.995
X-63.486 Y-10.018
X-63.373 Y-10
G0 Z20
Y-35
Z2
G1 Z0 F1000
X-63.292 Y-35.081
X-63.261 Y-35.075
X-63.234 Y-35.057
X-63.217 Y-35.031
X-63.21 Y-35
G3 X-63.535 Y-35 Z-0.25 I-0.162 J0
X-63.21 Y-35 Z-0.5 I0.162 J0
X-63.535 Y-35 Z-0.75 I-0.162 J0
X-63.21 Y-35 Z-1 I0.162 J0
X-63.535 Y-35 Z-1.25 I-0.162 J0
X-63.21 Y-35 Z-1.5 I0.163 J0
X-63.535 Y-35 Z-1.75 I-0.163 J0
X-63.21 Y-35 Z-2 I0.163 J0
X-63.504 Y-34.904 Z-2.2 I-0.163 J0
X-63.241 Y-35.096 I0.131 J-0.096
X-63.504 Y-34.904 I-0.131 J0.096
G1 X-63.518 Y-34.933
X-63.519 Y-34.965
X-63.508 Y-34.995
X-63.486 Y-35.018
X-63.373 Y-35
G0 Z20
X-28.373
Z2
G1 Z0 F1000
X-28.292 Y-35.081
X-28.261 Y-35.075
X-28.234 Y-35.057
X-28.217 Y-35.031
X-28.21 Y-35
G3 X-28.535 Y-35 Z-0.25 I-0.163 J0
X-28.21 Y-35 Z-0.5 I0.163 J0
X-28.535 Y-35 Z-0.75 I-0.163 J0
X-28.21 Y-35 Z-1 I0.163 J0
X-28.535 Y-35 Z-1.25 I-0.163 J0
X-28.21 Y-35 Z-1.5 I0.163 J0
X-28.535 Y-35 Z-1.75 I-0.163 J0
X-28.21 Y-35 Z-2 I0.163 J0
X-28.504 Y-34.904 Z-2.2 I-0.163 J0
X-28.241 Y-35.096 I0.131 J-0.096
X-28.504 Y-34.904 I-0.131 J0.096
G1 X-28.518 Y-34.933
X-28.519 Y-34.965
X-28.508 Y-34.995
X-28.486 Y-35.018
X-28.373 Y-35
G0 Z20
Y-10
Z2
G1 Z0 F1000
X-28.292 Y-10.081
X-28.261 Y-10.075
X-28.234 Y-10.057
X-28.217 Y-10.031
X-28.21 Y-10
G3 X-28.535 Y-10 Z-0.25 I-0.163 J0
X-28.21 Y-10 Z-0.5 I0.163 J0
X-28.535 Y-10 Z-0.75 I-0.163 J0
X-28.21 Y-10 Z-1 I0.163 J0
X-28.535 Y-10 Z-1.25 I-0.163 J0
X-28.21 Y-10 Z-1.5 I0.163 J0
X-28.535 Y-10 Z-1.75 I-0.163 J0
X-28.21 Y-10 Z-2 I0.163 J0
X-28.504 Y-9.904 Z-2.2 I-0.163 J0
X-28.241 Y-10.096 I0.131 J-0.096
X-28.504 Y-9.904 I-0.131 J0.096
G1 X-28.518 Y-9.933
X-28.519 Y-9.965
X-28.508 Y-9.995
X-28.486 Y-10.018
X-28.373 Y-10
G0 Z30

(2D-Kontur2)
Z35
X-55.7 Y-81.759
Z5
G1 Z2.5 F333.3
S5000
X-51.46 Y-85.014 Z2.313
Y-84.017 Z2.279
X-61.285 Y-76.473 Z1.846
Y-77.47 Z1.811
X-51.46 Y-85.014 Z1.379
Y-84.017 Z1.344
X-61.285 Y-76.473 Z0.911
Y-77.47 Z0.876
X-51.46 Y-85.014 Z0.444
Y-84.017 Z0.409
X-61.285 Y-76.473 Z-0.024
Y-77.47 Z-0.058
X-51.46 Y-85.014 Z-0.491
Y-84.017 Z-0.526
X-61.285 Y-76.473 Z-0.958
Y-77.47 Z-0.993
X-61.131 Y-77.588 Z-1
S6000
X-51.46 Y-85.014 F1000
Y-84.017
X-61.285 Y-76.473
Y-77.47
X-61.131 Y-77.588
S5000
X-51.46 Y-85.014 Z-1.426 F333.3
Y-84.017 Z-1.461
X-54.627 Y-81.585 Z-1.6
S6000
X-61.285 Y-76.473 F1000
Y-77.47
X-51.46 Y-85.014
Y-84.017
X-54.627 Y-81.585
S5000
X-61.285 Y-76.473 Z-1.893 F333.3
Y-77.47 Z-1.928
X-55.107 Y-82.214 Z-2.2
S6000
X-51.46 Y-85.014 F1000
Y-84.017
X-61.285 Y-76.473
Y-77.47
X-55.107 Y-82.214
X-55.065 Y-82.241 Z-2.196
X-55.021 Y-82.261 Z-2.184
X-54.977 Y-82.273 Z-2.165
X-54.935 Y-82.279 Z-2.139
X-54.897 Z-2.107
X-54.865 Y-82.276 Z-2.069
X-54.839 Y-82.271 Z-2.027
X-54.821 Y-82.266 Z-1.981
X-54.81 Y-82.262 Z-1.932
X-54.806 Y-82.261 Z-1.883
G0 Z25
X-55.7 Y-70.059
Z5
G1 Z2.5 F333.3
S5000
X-51.46 Y-73.314 Z2.313
Y-72.317 Z2.279
X-61.285 Y-64.773 Z1.846
Y-65.77 Z1.811
X-51.46 Y-73.314 Z1.379
Y-72.317 Z1.344
X-61.285 Y-64.773 Z0.911
Y-65.77 Z0.876
X-51.46 Y-73.314 Z0.444
Y-72.317 Z0.409
X-61.285 Y-64.773 Z-0.024
Y-65.77 Z-0.058
X-51.46 Y-73.314 Z-0.491
Y-72.317 Z-0.526
X-61.285 Y-64.773 Z-0.958
Y-65.77 Z-0.993
X-61.131 Y-65.888 Z-1
S6000
X-51.46 Y-73.314 F1000
Y-72.317
X-61.285 Y-64.773
Y-65.77
X-61.131 Y-65.888
S5000
X-51.46 Y-73.314 Z-1.426 F333.3
Y-72.317 Z-1.461
X-54.627 Y-69.885 Z-1.6
S6000
X-61.285 Y-64.773 F1000
Y-65.77
X-51.46 Y-73.314
Y-72.317
X-54.627 Y-69.885
S5000
X-61.285 Y-64.773 Z-1.893 F333.3
Y-65.77 Z-1.928
X-55.107 Y-70.514 Z-2.2
S6000
X-51.46 Y-73.314 F1000
Y-72.317
X-61.285 Y-64.773
Y-65.77
X-55.107 Y-70.514
X-55.065 Y-70.541 Z-2.196
X-55.021 Y-70.561 Z-2.184
X-54.977 Y-70.573 Z-2.165
X-54.935 Y-70.579 Z-2.139
X-54.897 Z-2.107
X-54.865 Y-70.576 Z-2.069
X-54.839 Y-70.571 Z-2.027
X-54.821 Y-70.566 Z-1.981
X-54.81 Y-70.562 Z-1.932
X-54.806 Y-70.561 Z-1.883
G0 Z25
X-57.281 Y-57.144
Z5
G1 Z2.5 F333.3
S5000
X-51.46 Y-61.614 Z2.244
Y-60.617 Z2.209
X-61.285 Y-53.073 Z1.776
Y-54.07 Z1.742
X-51.46 Y-61.614 Z1.309
Y-60.617 Z1.274
X-61.285 Y-53.073 Z0.842
Y-54.07 Z0.807
X-51.46 Y-61.614 Z0.374
Y-60.617 Z0.339
X-61.285 Y-53.073 Z-0.093
Y-54.07 Z-0.128
X-51.46 Y-61.614 Z-0.561
Y-60.617 Z-0.595
X-60.649 Y-53.561 Z-1
S6000
X-61.285 Y-53.073 F1000
Y-54.07
X-51.46 Y-61.614
Y-60.617
X-60.649 Y-53.561
S5000
X-61.285 Y-53.073 Z-1.028 F333.3
Y-54.07 Z-1.063
X-51.46 Y-61.614 Z-1.495
Y-60.617 Z-1.53
X-53.045 Y-59.4 Z-1.6
S6000
X-60.649 Y-53.561 F1000
X-61.285 Y-53.073
Y-54.07
X-51.46 Y-61.614
Y-60.617
X-53.045 Y-59.4
S5000
X-61.285 Y-53.073 Z-1.963 F333.3
Y-54.07 Z-1.998
X-56.688 Y-57.599 Z-2.2
S6000
X-51.46 Y-61.614 F1000
Y-60.617
X-61.285 Y-53.073
Y-54.07
X-56.688 Y-57.599
X-56.647 Y-57.626 Z-2.196
X-56.603 Y-57.646 Z-2.184
X-56.558 Y-57.659 Z-2.165
X-56.516 Y-57.664 Z-2.139
X-56.478 Y-57.665 Z-2.107
X-56.446 Y-57.661 Z-2.069
X-56.421 Y-57.656 Z-2.027
X-56.402 Y-57.651 Z-1.981
X-56.391 Y-57.648 Z-1.932
X-56.388 Y-57.646 Z-1.883
G0 Z25
X-56.737 Y-44.865
Z5
G1 Z2.5 F333.3
S5000
X-61.285 Y-41.373 Z2.3
Y-42.37 Z2.265
X-51.46 Y-49.914 Z1.832
Y-48.917 Z1.798
X-61.285 Y-41.373 Z1.365
Y-42.37 Z1.33
X-51.46 Y-49.914 Z0.898
Y-48.917 Z0.863
X-61.285 Y-41.373 Z0.43
Y-42.37 Z0.395
X-51.46 Y-49.914 Z-0.037
Y-48.917 Z-0.072
X-61.285 Y-41.373 Z-0.505
Y-42.37 Z-0.539
X-51.46 Y-49.914 Z-0.972
Y-49.112 Z-1
S6000
Y-48.917 F1000
X-61.285 Y-41.373
Y-42.37
X-51.46 Y-49.914
Y-49.112
S5000
Y-48.917 Z-1.007 F333.3
X-61.285 Y-41.373 Z-1.439
Y-42.37 Z-1.474
X-58.428 Y-44.564 Z-1.6
S6000
X-51.46 Y-49.914 F1000
Y-49.112
Y-48.917
X-61.285 Y-41.373
Y-42.37
X-58.428 Y-44.564
S5000
X-51.46 Y-49.914 Z-1.907 F333.3
Y-48.917 Z-1.942
X-57.33 Y-44.41 Z-2.2
S6000
X-61.285 Y-41.373 F1000
Y-42.37
X-51.46 Y-49.914
Y-48.917
X-57.33 Y-44.41
X-57.371 Y-44.383 Z-2.196
X-57.415 Y-44.363 Z-2.184
X-57.46 Y-44.351 Z-2.165
X-57.502 Y-44.345 Z-2.139
X-57.54 Z-2.107
X-57.572 Y-44.348 Z-2.069
X-57.597 Y-44.353 Z-2.027
X-57.616 Y-44.358 Z-1.981
X-57.627 Y-44.362 Z-1.932
X-57.63 Y-44.363 Z-1.883
G0 Z25
X-55.465 Y-34.142
Z5
G1 Z2.5 F333.3
S5000
X-61.285 Y-29.673 Z2.244
Y-30.67 Z2.209
X-51.46 Y-38.214 Z1.776
Y-37.217 Z1.742
X-61.285 Y-29.673 Z1.309
Y-30.67 Z1.274
X-51.46 Y-38.214 Z0.842
Y-37.217 Z0.807
X-61.285 Y-29.673 Z0.374
Y-30.67 Z0.339
X-51.46 Y-38.214 Z-0.093
Y-37.217 Z-0.128
X-61.285 Y-29.673 Z-0.561
Y-30.67 Z-0.595
X-52.097 Y-37.725 Z-1
S6000
X-51.46 Y-38.214 F1000
Y-37.217
X-61.285 Y-29.673
Y-30.67
X-52.097 Y-37.725
S5000
X-51.46 Y-38.214 Z-1.028 F333.3
Y-37.217 Z-1.063
X-61.285 Y-29.673 Z-1.495
Y-30.67 Z-1.53
X-59.7 Y-31.887 Z-1.6
S6000
X-52.097 Y-37.725 F1000
X-51.46 Y-38.214
Y-37.217
X-61.285 Y-29.673
Y-30.67
X-59.7 Y-31.887
S5000
X-51.46 Y-38.214 Z-1.963 F333.3
Y-37.217 Z-1.998
X-56.057 Y-33.687 Z-2.2
S6000
X-61.285 Y-29.673 F1000
Y-30.67
X-51.46 Y-38.214
Y-37.217
X-56.057 Y-33.687
X-56.099 Y-33.66 Z-2.196
X-56.143 Y-33.64 Z-2.184
X-56.187 Y-33.628 Z-2.165
X-56.229 Y-33.622 Z-2.139
X-56.267 Z-2.107
X-56.299 Y-33.625 Z-2.069
X-56.325 Y-33.63 Z-2.027
X-56.343 Y-33.635 Z-1.981
X-56.354 Y-33.639 Z-1.932
X-56.358 Y-33.64 Z-1.883
G0 Z25
X-55.465 Y-22.442
Z5
G1 Z2.5 F333.3
S5000
X-61.285 Y-17.973 Z2.244
Y-18.97 Z2.209
X-51.46 Y-26.514 Z1.776
Y-25.517 Z1.742
X-61.285 Y-17.973 Z1.309
Y-18.97 Z1.274
X-51.46 Y-26.514 Z0.842
Y-25.517 Z0.807
X-61.285 Y-17.973 Z0.374
Y-18.97 Z0.339
X-51.46 Y-26.514 Z-0.093
Y-25.517 Z-0.128
X-61.285 Y-17.973 Z-0.561
Y-18.97 Z-0.595
X-52.097 Y-26.025 Z-1
S6000
X-51.46 Y-26.514 F1000
Y-25.517
X-61.285 Y-17.973
Y-18.97
X-52.097 Y-26.025
S5000
X-51.46 Y-26.514 Z-1.028 F333.3
Y-25.517 Z-1.063
X-61.285 Y-17.973 Z-1.495
Y-18.97 Z-1.53
X-59.7 Y-20.187 Z-1.6
S6000
X-52.097 Y-26.025 F1000
X-51.46 Y-26.514
Y-25.517
X-61.285 Y-17.973
Y-18.97
X-59.7 Y-20.187
S5000
X-51.46 Y-26.514 Z-1.963 F333.3
Y-25.517 Z-1.998
X-56.057 Y-21.987 Z-2.2
S6000
X-61.285 Y-17.973 F1000
Y-18.97
X-51.46 Y-26.514
Y-25.517
X-56.057 Y-21.987
X-56.099 Y-21.96 Z-2.196
X-56.143 Y-21.94 Z-2.184
X-56.187 Y-21.928 Z-2.165
X-56.229 Y-21.922 Z-2.139
X-56.267 Z-2.107
X-56.299 Y-21.925 Z-2.069
X-56.325 Y-21.93 Z-2.027
X-56.343 Y-21.935 Z-1.981
X-56.354 Y-21.939 Z-1.932
X-56.358 Y-21.94 Z-1.883
G0 Z25
X-36.528 Y-22.631
Z5
G1 Z2.5 F333.3
S5000
X-40.285 Y-25.517 Z2.335
Y-26.514 Z2.3
X-30.46 Y-18.97 Z1.867
Y-17.973 Z1.832
X-40.285 Y-25.517 Z1.4
Y-26.514 Z1.365
X-30.46 Y-18.97 Z0.932
Y-17.973 Z0.898
X-40.285 Y-25.517 Z0.465
Y-26.514 Z0.43
X-30.46 Y-18.97 Z-0.002
Y-17.973 Z-0.037
X-40.285 Y-25.517 Z-0.47
Y-26.514 Z-0.505
X-30.46 Y-18.97 Z-0.937
Y-17.973 Z-0.972
X-31.097 Y-18.461 Z-1
S6000
X-40.285 Y-25.517 F1000
Y-26.514
X-30.46 Y-18.97
Y-17.973
X-31.097 Y-18.461
S5000
X-40.285 Y-25.517 Z-1.405 F333.3
Y-26.514 Z-1.439
X-36.637 Y-23.713 Z-1.6
S6000
X-30.46 Y-18.97 F1000
Y-17.973
X-40.285 Y-25.517
Y-26.514
X-36.637 Y-23.713
S5000
X-30.46 Y-18.97 Z-1.872 F333.3
Y-17.973 Z-1.907
X-37.12 Y-23.087 Z-2.2
S6000
X-40.285 Y-25.517 F1000
Y-26.514
X-30.46 Y-18.97
Y-17.973
X-37.12 Y-23.087
X-37.157 Y-23.12 Z-2.196
X-37.188 Y-23.157 Z-2.184
X-37.211 Y-23.197 Z-2.165
X-37.228 Y-23.236 Z-2.139
X-37.238 Y-23.273 Z-2.107
X-37.243 Y-23.305 Z-2.069
X-37.244 Y-23.33 Z-2.027
Y-23.35 Z-1.981
Y-23.361 Z-1.932
X-37.243 Y-23.365 Z-1.883
G0 Z25
X-35.255 Y-33.354
Z5
G1 Z2.5 F333.3
S5000
X-40.285 Y-37.217 Z2.279
Y-38.214 Z2.244
X-30.46 Y-30.67 Z1.811
Y-29.673 Z1.776
X-40.285 Y-37.217 Z1.344
Y-38.214 Z1.309
X-30.46 Y-30.67 Z0.876
Y-29.673 Z0.842
X-40.285 Y-37.217 Z0.409
Y-38.214 Z0.374
X-30.46 Y-30.67 Z-0.058
Y-29.673 Z-0.093
X-40.285 Y-37.217 Z-0.526
Y-38.214 Z-0.561
X-30.46 Y-30.67 Z-0.993
Y-30.475 Z-1
S6000
Y-29.673 F1000
X-40.285 Y-37.217
Y-38.214
X-30.46 Y-30.67
Y-30.475
S5000
Y-29.673 Z-1.028 F333.3
X-40.285 Y-37.217 Z-1.461
Y-38.214 Z-1.495
X-37.91 Y-36.39 Z-1.6
S6000
X-30.46 Y-30.67 F1000
Y-29.673
X-40.285 Y-37.217
Y-38.214
X-37.91 Y-36.39
S5000
X-30.46 Y-30.67 Z-1.928 F333.3
Y-29.673 Z-1.963
X-35.848 Y-33.81 Z-2.2
S6000
X-40.285 Y-37.217 F1000
Y-38.214
X-30.46 Y-30.67
Y-29.673
X-35.848 Y-33.81
X-35.885 Y-33.843 Z-2.196
X-35.916 Y-33.88 Z-2.184
X-35.939 Y-33.92 Z-2.165
X-35.955 Y-33.959 Z-2.139
X-35.965 Y-33.996 Z-2.107
X-35.97 Y-34.028 Z-2.069
X-35.972 Y-34.054 Z-2.027
Y-34.073 Z-1.981
X-35.971 Y-34.084 Z-1.932
Y-34.088 Z-1.883
G0 Z25
X-35.8 Y-46.469
Z5
G1 Z2.5 F333.3
S5000
X-30.46 Y-42.37 Z2.265
Y-41.373 Z2.23
X-40.285 Y-48.917 Z1.798
Y-49.914 Z1.763
X-30.46 Y-42.37 Z1.33
Y-41.373 Z1.295
X-40.285 Y-48.917 Z0.863
Y-49.914 Z0.828
X-30.46 Y-42.37 Z0.395
Y-41.373 Z0.361
X-40.285 Y-48.917 Z-0.072
Y-49.914 Z-0.107
X-30.46 Y-42.37 Z-0.539
Y-41.373 Z-0.574
X-40.131 Y-48.798 Z-1
S6000
X-40.285 Y-48.917 F1000
Y-49.914
X-30.46 Y-42.37
Y-41.373
X-40.131 Y-48.798
S5000
X-40.285 Y-48.917 Z-1.007 F333.3
Y-49.914 Z-1.042
X-30.46 Y-42.37 Z-1.474
Y-41.373 Z-1.509
X-32.527 Y-42.959 Z-1.6
S6000
X-40.131 Y-48.798 F1000
X-40.285 Y-48.917
Y-49.914
X-30.46 Y-42.37
Y-41.373
X-32.527 Y-42.959
S5000
X-40.285 Y-48.917 Z-1.942 F333.3
Y-49.914 Z-1.976
X-35.207 Y-46.014 Z-2.2
S6000
X-30.46 Y-42.37 F1000
Y-41.373
X-40.285 Y-48.917
Y-49.914
X-35.207 Y-46.014
X-35.17 Y-45.981 Z-2.196
X-35.139 Y-45.943 Z-2.184
X-35.116 Y-45.904 Z-2.165
X-35.1 Y-45.865 Z-2.139
X-35.09 Y-45.828 Z-2.107
X-35.085 Y-45.796 Z-2.069
X-35.083 Y-45.77 Z-2.027
Y-45.751 Z-1.981
X-35.084 Y-45.74 Z-1.932
Y-45.736 Z-1.883
G0 Z25
X-35.8 Y-58.169
Z5
G1 Z2.5 F333.3
S5000
X-30.46 Y-54.07 Z2.265
Y-53.073 Z2.23
X-40.285 Y-60.617 Z1.798
Y-61.614 Z1.763
X-30.46 Y-54.07 Z1.33
Y-53.073 Z1.295
X-40.285 Y-60.617 Z0.863
Y-61.614 Z0.828
X-30.46 Y-54.07 Z0.395
Y-53.073 Z0.361
X-40.285 Y-60.617 Z-0.072
Y-61.614 Z-0.107
X-30.46 Y-54.07 Z-0.539
Y-53.073 Z-0.574
X-40.131 Y-60.498 Z-1
S6000
X-40.285 Y-60.617 F1000
Y-61.614
X-30.46 Y-54.07
Y-53.073
X-40.131 Y-60.498
S5000
X-40.285 Y-60.617 Z-1.007 F333.3
Y-61.614 Z-1.042
X-30.46 Y-54.07 Z-1.474
Y-53.073 Z-1.509
X-32.527 Y-54.659 Z-1.6
S6000
X-40.131 Y-60.498 F1000
X-40.285 Y-60.617
Y-61.614
X-30.46 Y-54.07
Y-53.073
X-32.527 Y-54.659
S5000
X-40.285 Y-60.617 Z-1.942 F333.3
Y-61.614 Z-1.976
X-35.207 Y-57.714 Z-2.2
S6000
X-30.46 Y-54.07 F1000
Y-53.073
X-40.285 Y-60.617
Y-61.614
X-35.207 Y-57.714
X-35.17 Y-57.681 Z-2.196
X-35.139 Y-57.643 Z-2.184
X-35.116 Y-57.604 Z-2.165
X-35.1 Y-57.565 Z-2.139
X-35.09 Y-57.528 Z-2.107
X-35.085 Y-57.496 Z-2.069
X-35.083 Y-57.47 Z-2.027
Y-57.451 Z-1.981
X-35.084 Y-57.44 Z-1.932
Y-57.436 Z-1.883
G0 Z25
X-34.218 Y-68.655
Z5
G1 Z2.5 F333.3
S5000
X-30.46 Y-65.77 Z2.335
Y-64.773 Z2.3
X-40.285 Y-72.317 Z1.867
Y-73.314 Z1.832
X-30.46 Y-65.77 Z1.4
Y-64.773 Z1.365
X-40.285 Y-72.317 Z0.932
Y-73.314 Z0.898
X-30.46 Y-65.77 Z0.465
Y-64.773 Z0.43
X-40.285 Y-72.317 Z-0.002
Y-73.314 Z-0.037
X-30.46 Y-65.77 Z-0.47
Y-64.773 Z-0.505
X-40.285 Y-72.317 Z-0.937
Y-73.314 Z-0.972
X-39.649 Y-72.825 Z-1
S6000
X-30.46 Y-65.77 F1000
Y-64.773
X-40.285 Y-72.317
Y-73.314
X-39.649 Y-72.825
S5000
X-30.46 Y-65.77 Z-1.405 F333.3
Y-64.773 Z-1.439
X-34.109 Y-67.574 Z-1.6
S6000
X-40.285 Y-72.317 F1000
Y-73.314
X-30.46 Y-65.77
Y-64.773
X-34.109 Y-67.574
S5000
X-40.285 Y-72.317 Z-1.872 F333.3
Y-73.314 Z-1.907
X-33.625 Y-68.2 Z-2.2
S6000
X-30.46 Y-65.77 F1000
Y-64.773
X-40.285 Y-72.317
Y-73.314
X-33.625 Y-68.2
X-33.588 Y-68.167 Z-2.196
X-33.558 Y-68.129 Z-2.184
X-33.535 Y-68.09 Z-2.165
X-33.518 Y-68.05 Z-2.139
X-33.508 Y-68.014 Z-2.107
X-33.503 Y-67.982 Z-2.069
X-33.501 Y-67.956 Z-2.027
Y-67.937 Z-1.981
X-33.502 Y-67.925 Z-1.932
Y-67.921 Z-1.883
G0 Z25
X-36.528 Y-81.131
Z5
G1 Z2.5 F333.3
S5000
X-40.285 Y-84.017 Z2.335
Y-85.014 Z2.3
X-30.46 Y-77.47 Z1.867
Y-76.473 Z1.832
X-40.285 Y-84.017 Z1.4
Y-85.014 Z1.365
X-30.46 Y-77.47 Z0.932
Y-76.473 Z0.898
X-40.285 Y-84.017 Z0.465
Y-85.014 Z0.43
X-30.46 Y-77.47 Z-0.002
Y-76.473 Z-0.037
X-40.285 Y-84.017 Z-0.47
Y-85.014 Z-0.505
X-30.46 Y-77.47 Z-0.937
Y-76.473 Z-0.972
X-31.097 Y-76.961 Z-1
S6000
X-40.285 Y-84.017 F1000
Y-85.014
X-30.46 Y-77.47
Y-76.473
X-31.097 Y-76.961
S5000
X-40.285 Y-84.017 Z-1.405 F333.3
Y-85.014 Z-1.439
X-36.637 Y-82.213 Z-1.6
S6000
X-30.46 Y-77.47 F1000
Y-76.473
X-40.285 Y-84.017
Y-85.014
X-36.637 Y-82.213
S5000
X-30.46 Y-77.47 Z-1.872 F333.3
Y-76.473 Z-1.907
X-37.12 Y-81.587 Z-2.2
S6000
X-40.285 Y-84.017 F1000
Y-85.014
X-30.46 Y-77.47
Y-76.473
X-37.12 Y-81.587
X-37.157 Y-81.62 Z-2.196
X-37.188 Y-81.657 Z-2.184
X-37.211 Y-81.697 Z-2.165
X-37.228 Y-81.736 Z-2.139
X-37.238 Y-81.773 Z-2.107
X-37.243 Y-81.805 Z-2.069
X-37.244 Y-81.83 Z-2.027
Y-81.85 Z-1.981
Y-81.861 Z-1.932
X-37.243 Y-81.865 Z-1.883
G0 Z25
X-34.464 Y-147.456
Z5
G1 Z2.5 F333.3
S5000
X-40.285 Y-142.986 Z2.244
Y-143.983 Z2.209
X-30.46 Y-151.528 Z1.776
Y-150.531 Z1.742
X-40.285 Y-142.986 Z1.309
Y-143.983 Z1.274
X-30.46 Y-151.528 Z0.842
Y-150.531 Z0.807
X-40.285 Y-142.986 Z0.374
Y-143.983 Z0.339
X-30.46 Y-151.528 Z-0.093
Y-150.531 Z-0.128
X-40.285 Y-142.986 Z-0.561
Y-143.983 Z-0.595
X-31.097 Y-151.039 Z-1
S6000
X-30.46 Y-151.528 F1000
Y-150.531
X-40.285 Y-142.986
Y-143.983
X-31.097 Y-151.039
S5000
X-30.46 Y-151.528 Z-1.028 F333.3
Y-150.531 Z-1.063
X-40.285 Y-142.986 Z-1.495
Y-143.983 Z-1.53
X-38.7 Y-145.201 Z-1.6
S6000
X-31.097 Y-151.039 F1000
X-30.46 Y-151.528
Y-150.531
X-40.285 Y-142.986
Y-143.983
X-38.7 Y-145.201
S5000
X-30.46 Y-151.528 Z-1.963 F333.3
Y-150.531 Z-1.998
X-35.057 Y-147.001 Z-2.2
S6000
X-40.285 Y-142.986 F1000
Y-143.983
X-30.46 Y-151.528
Y-150.531
X-35.057 Y-147.001
X-35.099 Y-146.974 Z-2.196
X-35.143 Y-146.954 Z-2.184
X-35.187 Y-146.941 Z-2.165
X-35.23 Y-146.936 Z-2.139
X-35.267 Y-146.935 Z-2.107
X-35.3 Y-146.939 Z-2.069
X-35.325 Y-146.944 Z-2.027
X-35.344 Y-146.949 Z-1.981
X-35.355 Y-146.952 Z-1.932
X-35.358 Y-146.954 Z-1.883
G0 Z25
X-34.464 Y-157.956
Z5
G1 Z2.5 F333.3
S5000
X-40.285 Y-153.486 Z2.244
Y-154.483 Z2.209
X-30.46 Y-162.028 Z1.776
Y-161.031 Z1.742
X-40.285 Y-153.486 Z1.309
Y-154.483 Z1.274
X-30.46 Y-162.028 Z0.842
Y-161.031 Z0.807
X-40.285 Y-153.486 Z0.374
Y-154.483 Z0.339
X-30.46 Y-162.028 Z-0.093
Y-161.031 Z-0.128
X-40.285 Y-153.486 Z-0.561
Y-154.483 Z-0.595
X-31.097 Y-161.539 Z-1
S6000
X-30.46 Y-162.028 F1000
Y-161.031
X-40.285 Y-153.486
Y-154.483
X-31.097 Y-161.539
S5000
X-30.46 Y-162.028 Z-1.028 F333.3
Y-161.031 Z-1.063
X-40.285 Y-153.486 Z-1.495
Y-154.483 Z-1.53
X-38.7 Y-155.701 Z-1.6
S6000
X-31.097 Y-161.539 F1000
X-30.46 Y-162.028
Y-161.031
X-40.285 Y-153.486
Y-154.483
X-38.7 Y-155.701
S5000
X-30.46 Y-162.028 Z-1.963 F333.3
Y-161.031 Z-1.998
X-35.057 Y-157.501 Z-2.2
S6000
X-40.285 Y-153.486 F1000
Y-154.483
X-30.46 Y-162.028
Y-161.031
X-35.057 Y-157.501
X-35.099 Y-157.474 Z-2.196
X-35.143 Y-157.454 Z-2.184
X-35.187 Y-157.441 Z-2.165
X-35.23 Y-157.436 Z-2.139
X-35.267 Y-157.435 Z-2.107
X-35.3 Y-157.439 Z-2.069
X-35.325 Y-157.444 Z-2.027
X-35.344 Y-157.449 Z-1.981
X-35.355 Y-157.452 Z-1.932
X-35.358 Y-157.454 Z-1.883
G0 Z25
X-34.464 Y-168.456
Z5
G1 Z2.5 F333.3
S5000
X-40.285 Y-163.986 Z2.244
Y-164.983 Z2.209
X-30.46 Y-172.528 Z1.776
Y-171.531 Z1.742
X-40.285 Y-163.986 Z1.309
Y-164.983 Z1.274
X-30.46 Y-172.528 Z0.842
Y-171.531 Z0.807
X-40.285 Y-163.986 Z0.374
Y-164.983 Z0.339
X-30.46 Y-172.528 Z-0.093
Y-171.531 Z-0.128
X-40.285 Y-163.986 Z-0.561
Y-164.983 Z-0.595
X-31.097 Y-172.039 Z-1
S6000
X-30.46 Y-172.528 F1000
Y-171.531
X-40.285 Y-163.986
Y-164.983
X-31.097 Y-172.039
S5000
X-30.46 Y-172.528 Z-1.028 F333.3
Y-171.531 Z-1.063
X-40.285 Y-163.986 Z-1.495
Y-164.983 Z-1.53
X-38.7 Y-166.201 Z-1.6
S6000
X-31.097 Y-172.039 F1000
X-30.46 Y-172.528
Y-171.531
X-40.285 Y-163.986
Y-164.983
X-38.7 Y-166.201
S5000
X-30.46 Y-172.528 Z-1.963 F333.3
Y-171.531 Z-1.998
X-35.057 Y-168.001 Z-2.2
S6000
X-40.285 Y-163.986 F1000
Y-164.983
X-30.46 Y-172.528
Y-171.531
X-35.057 Y-168.001
X-35.099 Y-167.974 Z-2.196
X-35.143 Y-167.954 Z-2.184
X-35.187 Y-167.941 Z-2.165
X-35.23 Y-167.936 Z-2.139
X-35.267 Y-167.935 Z-2.107
X-35.3 Y-167.939 Z-2.069
X-35.325 Y-167.944 Z-2.027
X-35.344 Y-167.949 Z-1.981
X-35.355 Y-167.952 Z-1.932
X-35.358 Y-167.954 Z-1.883
G0 Z25
X-34.464 Y-178.956
Z5
G1 Z2.5 F333.3
S5000
X-40.285 Y-174.486 Z2.244
Y-175.483 Z2.209
X-30.46 Y-183.028 Z1.776
Y-182.031 Z1.742
X-40.285 Y-174.486 Z1.309
Y-175.483 Z1.274
X-30.46 Y-183.028 Z0.842
Y-182.031 Z0.807
X-40.285 Y-174.486 Z0.374
Y-175.483 Z0.339
X-30.46 Y-183.028 Z-0.093
Y-182.031 Z-0.128
X-40.285 Y-174.486 Z-0.561
Y-175.483 Z-0.595
X-31.097 Y-182.539 Z-1
S6000
X-30.46 Y-183.028 F1000
Y-182.031
X-40.285 Y-174.486
Y-175.483
X-31.097 Y-182.539
S5000
X-30.46 Y-183.028 Z-1.028 F333.3
Y-182.031 Z-1.063
X-40.285 Y-174.486 Z-1.495
Y-175.483 Z-1.53
X-38.7 Y-176.701 Z-1.6
S6000
X-31.097 Y-182.539 F1000
X-30.46 Y-183.028
Y-182.031
X-40.285 Y-174.486
Y-175.483
X-38.7 Y-176.701
S5000
X-30.46 Y-183.028 Z-1.963 F333.3
Y-182.031 Z-1.998
X-35.057 Y-178.501 Z-2.2
S6000
X-40.285 Y-174.486 F1000
Y-175.483
X-30.46 Y-183.028
Y-182.031
X-35.057 Y-178.501
X-35.099 Y-178.474 Z-2.196
X-35.143 Y-178.454 Z-2.184
X-35.187 Y-178.441 Z-2.165
X-35.23 Y-178.436 Z-2.139
X-35.267 Y-178.435 Z-2.107
X-35.3 Y-178.439 Z-2.069
X-35.325 Y-178.444 Z-2.027
X-35.344 Y-178.449 Z-1.981
X-35.355 Y-178.452 Z-1.932
X-35.358 Y-178.454 Z-1.883
G0 Z25
X-56.255 Y-178.168
Z5
G1 Z2.5 F333.3
S5000
X-61.285 Y-182.031 Z2.279
Y-183.028 Z2.244
X-51.46 Y-175.483 Z1.811
Y-174.486 Z1.776
X-61.285 Y-182.031 Z1.344
Y-183.028 Z1.309
X-51.46 Y-175.483 Z0.876
Y-174.486 Z0.842
X-61.285 Y-182.031 Z0.409
Y-183.028 Z0.374
X-51.46 Y-175.483 Z-0.058
Y-174.486 Z-0.093
X-61.285 Y-182.031 Z-0.526
Y-183.028 Z-0.561
X-51.46 Y-175.483 Z-0.993
Y-175.289 Z-1
S6000
Y-174.486 F1000
X-61.285 Y-182.031
Y-183.028
X-51.46 Y-175.483
Y-175.289
S5000
Y-174.486 Z-1.028 F333.3
X-61.285 Y-182.031 Z-1.461
Y-183.028 Z-1.495
X-58.91 Y-181.203 Z-1.6
S6000
X-51.46 Y-175.483 F1000
Y-174.486
X-61.285 Y-182.031
Y-183.028
X-58.91 Y-181.203
S5000
X-51.46 Y-175.483 Z-1.928 F333.3
Y-174.486 Z-1.963
X-56.848 Y-178.623 Z-2.2
S6000
X-61.285 Y-182.031 F1000
Y-183.028
X-51.46 Y-175.483
Y-174.486
X-56.848 Y-178.623
X-56.885 Y-178.657 Z-2.196
X-56.916 Y-178.694 Z-2.184
X-56.939 Y-178.734 Z-2.165
X-56.955 Y-178.773 Z-2.139
X-56.965 Y-178.809 Z-2.107
X-56.971 Y-178.841 Z-2.069
X-56.972 Y-178.867 Z-2.027
Y-178.886 Z-1.981
Y-178.898 Z-1.932
X-56.971 Y-178.902 Z-1.883
G0 Z25
X-56.491 Y-168.846
Z5
G1 Z2.5 F333.3
S5000
X-51.46 Y-164.983 Z2.279
Y-163.986 Z2.244
X-61.285 Y-171.531 Z1.811
Y-172.528 Z1.776
X-51.46 Y-164.983 Z1.344
Y-163.986 Z1.309
X-61.285 Y-171.531 Z0.876
Y-172.528 Z0.842
X-51.46 Y-164.983 Z0.409
Y-163.986 Z0.374
X-61.285 Y-171.531 Z-0.058
Y-172.528 Z-0.093
X-51.46 Y-164.983 Z-0.526
Y-163.986 Z-0.561
X-61.285 Y-171.531 Z-0.993
Y-171.725 Z-1
S6000
Y-172.528 F1000
X-51.46 Y-164.983
Y-163.986
X-61.285 Y-171.531
Y-171.725
S5000
Y-172.528 Z-1.028 F333.3
X-51.46 Y-164.983 Z-1.461
Y-163.986 Z-1.495
X-53.836 Y-165.811 Z-1.6
S6000
X-61.285 Y-171.531 F1000
Y-172.528
X-51.46 Y-164.983
Y-163.986
X-53.836 Y-165.811
S5000
X-61.285 Y-171.531 Z-1.928 F333.3
Y-172.528 Z-1.963
X-55.898 Y-168.391 Z-2.2
S6000
X-51.46 Y-164.983 F1000
Y-163.986
X-61.285 Y-171.531
Y-172.528
X-55.898 Y-168.391
X-55.861 Y-168.357 Z-2.196
X-55.83 Y-168.32 Z-2.184
X-55.807 Y-168.28 Z-2.165
X-55.79 Y-168.241 Z-2.139
X-55.78 Y-168.205 Z-2.107
X-55.775 Y-168.173 Z-2.069
X-55.774 Y-168.147 Z-2.027
Y-168.128 Z-1.981
Y-168.116 Z-1.932
X-55.775 Y-168.112 Z-1.883
G0 Z25
X-56.255 Y-157.168
Z5
G1 Z2.5 F333.3
S5000
X-61.285 Y-161.031 Z2.279
Y-162.028 Z2.244
X-51.46 Y-154.483 Z1.811
Y-153.486 Z1.776
X-61.285 Y-161.031 Z1.344
Y-162.028 Z1.309
X-51.46 Y-154.483 Z0.876
Y-153.486 Z0.842
X-61.285 Y-161.031 Z0.409
Y-162.028 Z0.374
X-51.46 Y-154.483 Z-0.058
Y-153.486 Z-0.093
X-61.285 Y-161.031 Z-0.526
Y-162.028 Z-0.561
X-51.46 Y-154.483 Z-0.993
Y-154.289 Z-1
S6000
Y-153.486 F1000
X-61.285 Y-161.031
Y-162.028
X-51.46 Y-154.483
Y-154.289
S5000
Y-153.486 Z-1.028 F333.3
X-61.285 Y-161.031 Z-1.461
Y-162.028 Z-1.495
X-58.91 Y-160.203 Z-1.6
S6000
X-51.46 Y-154.483 F1000
Y-153.486
X-61.285 Y-161.031
Y-162.028
X-58.91 Y-160.203
S5000
X-51.46 Y-154.483 Z-1.928 F333.3
Y-153.486 Z-1.963
X-56.848 Y-157.623 Z-2.2
S6000
X-61.285 Y-161.031 F1000
Y-162.028
X-51.46 Y-154.483
Y-153.486
X-56.848 Y-157.623
X-56.885 Y-157.657 Z-2.196
X-56.916 Y-157.694 Z-2.184
X-56.939 Y-157.734 Z-2.165
X-56.955 Y-157.773 Z-2.139
X-56.965 Y-157.809 Z-2.107
X-56.971 Y-157.841 Z-2.069
X-56.972 Y-157.867 Z-2.027
Y-157.886 Z-1.981
Y-157.898 Z-1.932
X-56.971 Y-157.902 Z-1.883
G0 Z25
X-56.255 Y-146.668
Z5
G1 Z2.5 F333.3
S5000
X-61.285 Y-150.531 Z2.279
Y-151.528 Z2.244
X-51.46 Y-143.983 Z1.811
Y-142.986 Z1.776
X-61.285 Y-150.531 Z1.344
Y-151.528 Z1.309
X-51.46 Y-143.983 Z0.876
Y-142.986 Z0.842
X-61.285 Y-150.531 Z0.409
Y-151.528 Z0.374
X-51.46 Y-143.983 Z-0.058
Y-142.986 Z-0.093
X-61.285 Y-150.531 Z-0.526
Y-151.528 Z-0.561
X-51.46 Y-143.983 Z-0.993
Y-143.789 Z-1
S6000
Y-142.986 F1000
X-61.285 Y-150.531
Y-151.528
X-51.46 Y-143.983
Y-143.789
S5000
Y-142.986 Z-1.028 F333.3
X-61.285 Y-150.531 Z-1.461
Y-151.528 Z-1.495
X-58.91 Y-149.703 Z-1.6
S6000
X-51.46 Y-143.983 F1000
Y-142.986
X-61.285 Y-150.531
Y-151.528
X-58.91 Y-149.703
S5000
X-51.46 Y-143.983 Z-1.928 F333.3
Y-142.986 Z-1.963
X-56.848 Y-147.123 Z-2.2
S6000
X-61.285 Y-150.531 F1000
Y-151.528
X-51.46 Y-143.983
Y-142.986
X-56.848 Y-147.123
X-56.885 Y-147.157 Z-2.196
X-56.916 Y-147.194 Z-2.184
X-56.939 Y-147.234 Z-2.165
X-56.955 Y-147.273 Z-2.139
X-56.965 Y-147.309 Z-2.107
X-56.971 Y-147.341 Z-2.069
X-56.972 Y-147.367 Z-2.027
Y-147.386 Z-1.981
Y-147.398 Z-1.932
X-56.971 Y-147.402 Z-1.883
G0 Z25
X-119.994 Y-135.709
Z5
G1 Z2.5 F333.3
S5000
X-111.465 Y-144.238 Z2.079
Y-141.658 Z1.989
X-120.289 Y-132.833 Z1.553
Y-135.413 Z1.463
X-111.465 Y-144.238 Z1.027
Y-141.658 Z0.937
X-120.289 Y-132.833 Z0.501
Y-135.413 Z0.411
X-111.465 Y-144.238 Z-0.025
Y-141.658 Z-0.115
X-120.289 Y-132.833 Z-0.551
Y-135.413 Z-0.641
X-113.022 Y-142.681 Z-1
S6000
X-111.465 Y-144.238 F1000
Y-141.658
X-120.289 Y-132.833
Y-135.413
X-113.022 Y-142.681
S5000
X-111.465 Y-144.238 Z-1.077 F333.3
Y-141.658 Z-1.167
X-120.231 Y-132.891 Z-1.6
S6000
X-120.289 Y-132.833 F1000
Y-135.413
X-113.022 Y-142.681
X-111.465 Y-144.238
Y-141.658
X-120.231 Y-132.891
S5000
X-120.289 Y-132.833 Z-1.603 F333.3
Y-135.413 Z-1.693
X-111.465 Y-144.238 Z-2.129
Y-142.2 Z-2.2
S6000
Y-141.658 F1000
X-120.231 Y-132.891
X-120.289 Y-132.833
Y-135.413
X-111.465 Y-144.238
Y-142.2
G3 X-111.782 Y-141.883 I-0.317 J0
G1 X-112.1
G18 G3 X-112.417 Z-1.883 I0 K0.317
G0 Z25
X-116.878 Y-151.825
Z5
G1 Z2.5 F333.3
S5000
X-111.465 Y-157.238 Z2.233
Y-154.658 Z2.143
X-120.289 Y-145.833 Z1.707
Y-148.413 Z1.617
X-111.465 Y-157.238 Z1.181
Y-154.658 Z1.091
X-120.289 Y-145.833 Z0.655
Y-148.413 Z0.565
X-111.465 Y-157.238 Z0.129
Y-154.658 Z0.039
X-120.289 Y-145.833 Z-0.397
Y-148.413 Z-0.487
X-111.465 Y-157.238 Z-0.923
Y-155.036 Z-1
S6000
Y-154.658 F1000
X-120.289 Y-145.833
Y-148.413
X-111.465 Y-157.238
Y-155.036
S5000
Y-154.658 Z-1.013 F333.3
X-120.289 Y-145.833 Z-1.449
Y-148.413 Z-1.539
X-119.057 Y-149.646 Z-1.6
S6000
X-111.465 Y-157.238 F1000
Y-155.036
Y-154.658
X-120.289 Y-145.833
Y-148.413
X-119.057 Y-149.646
S5000
X-111.465 Y-157.238 Z-1.975 F333.3
Y-154.658 Z-2.065
X-114.196 Y-151.926 Z-2.2
S6000
X-120.289 Y-145.833 F1000
Y-148.413
X-111.465 Y-157.238
Y-154.658
X-114.196 Y-151.926
G17 G3 X-114.645 Y-151.926 I-0.225 J-0.225
G1 X-114.87 Y-152.151
X-114.919 Y-152.201 Z-2.192
X-114.967 Y-152.248 Z-2.169
X-115.009 Y-152.291 Z-2.131
X-115.045 Y-152.326 Z-2.08
X-115.072 Y-152.353 Z-2.02
X-115.088 Y-152.369 Z-1.953
X-115.094 Y-152.375 Z-1.883
G0 Z25
X-114.876 Y-164.246
Z5
G1 Z2.5 F333.3
S5000
X-120.289 Y-158.833 Z2.233
Y-161.413 Z2.143
X-111.465 Y-170.238 Z1.707
Y-167.658 Z1.617
X-120.289 Y-158.833 Z1.181
Y-161.413 Z1.091
X-111.465 Y-170.238 Z0.655
Y-167.658 Z0.565
X-120.289 Y-158.833 Z0.129
Y-161.413 Z0.039
X-111.465 Y-170.238 Z-0.397
Y-167.658 Z-0.487
X-120.289 Y-158.833 Z-0.923
Y-161.035 Z-1
S6000
Y-161.413 F1000
X-111.465 Y-170.238
Y-167.658
X-120.289 Y-158.833
Y-161.035
S5000
Y-161.413 Z-1.013 F333.3
X-111.465 Y-170.238 Z-1.449
Y-167.658 Z-1.539
X-112.697 Y-166.425 Z-1.6
S6000
X-120.289 Y-158.833 F1000
Y-161.035
Y-161.413
X-111.465 Y-170.238
Y-167.658
X-112.697 Y-166.425
S5000
X-120.289 Y-158.833 Z-1.975 F333.3
Y-161.413 Z-2.065
X-117.558 Y-164.145 Z-2.2
S6000
X-111.465 Y-170.238 F1000
Y-167.658
X-120.289 Y-158.833
Y-161.413
X-117.558 Y-164.145
G3 X-117.109 Y-164.145 I0.225 J0.225
G1 X-116.884 Y-163.92
X-116.835 Y-163.87 Z-2.192
X-116.787 Y-163.823 Z-2.169
X-116.745 Y-163.78 Z-2.131
X-116.709 Y-163.745 Z-2.08
X-116.682 Y-163.718 Z-2.02
X-116.666 Y-163.702 Z-1.953
X-116.66 Y-163.696 Z-1.883
G0 Z25
X-138.169 Y-168.118
Z5
G1 Z2.5 F333.3
S5000
X-131.464 Y-161.413 Z2.169
Y-158.833 Z2.079
X-140.29 Y-167.658 Z1.643
Y-170.238 Z1.553
X-131.464 Y-161.413 Z1.117
Y-158.833 Z1.027
X-140.29 Y-167.658 Z0.591
Y-170.238 Z0.501
X-131.464 Y-161.413 Z0.065
Y-158.833 Z-0.025
X-140.29 Y-167.658 Z-0.461
Y-170.238 Z-0.551
X-131.464 Y-161.413 Z-0.987
Y-161.035 Z-1
S6000
Y-158.833 F1000
X-140.29 Y-167.658
Y-170.238
X-131.464 Y-161.413
Y-161.035
S5000
Y-158.833 Z-1.077 F333.3
X-140.29 Y-167.658 Z-1.513
Y-170.156 Z-1.6
S6000
Y-170.238 F1000
X-131.464 Y-161.413
Y-158.833
X-140.29 Y-167.658
Y-170.156
S5000
Y-170.238 Z-1.603 F333.3
X-131.464 Y-161.413 Z-2.039
Y-158.833 Z-2.129
X-132.906 Y-160.274 Z-2.2
S6000
X-140.29 Y-167.658 F1000
Y-170.156
Y-170.238
X-131.464 Y-161.413
Y-158.833
X-132.906 Y-160.274
G3 X-132.906 Y-160.723 I0.225 J-0.225
G1 X-132.681 Y-160.947
X-132.631 Y-160.997 Z-2.192
X-132.584 Y-161.045 Z-2.169
X-132.541 Y-161.087 Z-2.131
X-132.506 Y-161.123 Z-2.08
X-132.479 Y-161.149 Z-2.02
X-132.462 Y-161.166 Z-1.953
X-132.457 Y-161.172 Z-1.883
G0 Z25
X-133.585 Y-147.953
Z5
G1 Z2.5 F333.3
S5000
X-140.29 Y-154.658 Z2.169
Y-157.238 Z2.079
X-131.464 Y-148.413 Z1.643
Y-145.833 Z1.553
X-140.29 Y-154.658 Z1.117
Y-157.238 Z1.027
X-131.464 Y-148.413 Z0.591
Y-145.833 Z0.501
X-140.29 Y-154.658 Z0.065
Y-157.238 Z-0.025
X-131.464 Y-148.413 Z-0.461
Y-145.833 Z-0.551
X-140.29 Y-154.658 Z-0.987
Y-155.036 Z-1
S6000
Y-157.238 F1000
X-131.464 Y-148.413
Y-145.833
X-140.29 Y-154.658
Y-155.036
S5000
Y-157.238 Z-1.077 F333.3
X-131.464 Y-148.413 Z-1.513
Y-145.915 Z-1.6
S6000
Y-145.833 F1000
X-140.29 Y-154.658
Y-157.238
X-131.464 Y-148.413
Y-145.915
S5000
Y-145.833 Z-1.603 F333.3
X-140.29 Y-154.658 Z-2.039
Y-157.238 Z-2.129
X-138.848 Y-155.797 Z-2.2
S6000
X-131.464 Y-148.413 F1000
Y-145.915
Y-145.833
X-140.29 Y-154.658
Y-157.238
X-138.848 Y-155.797
G3 X-138.848 Y-155.348 I-0.225 J0.225
G1 X-139.073 Y-155.124
X-139.123 Y-155.074 Z-2.192
X-139.17 Y-155.026 Z-2.169
X-139.213 Y-154.984 Z-2.131
X-139.248 Y-154.948 Z-2.08
X-139.275 Y-154.922 Z-2.02
X-139.292 Y-154.905 Z-1.953
X-139.297 Y-154.899 Z-1.883
G0 Z25
X-138.169 Y-142.118
Z5
G1 Z2.5 F333.3
S5000
X-131.464 Y-135.413 Z2.169
Y-132.833 Z2.079
X-140.29 Y-141.658 Z1.643
Y-144.238 Z1.553
X-131.464 Y-135.413 Z1.117
Y-132.833 Z1.027
X-140.29 Y-141.658 Z0.591
Y-144.238 Z0.501
X-131.464 Y-135.413 Z0.065
Y-132.833 Z-0.025
X-140.29 Y-141.658 Z-0.461
Y-144.238 Z-0.551
X-131.464 Y-135.413 Z-0.987
Y-135.035 Z-1
S6000
Y-132.833 F1000
X-140.29 Y-141.658
Y-144.238
X-131.464 Y-135.413
Y-135.035
S5000
Y-132.833 Z-1.077 F333.3
X-140.29 Y-141.658 Z-1.513
Y-144.156 Z-1.6
S6000
Y-144.238 F1000
X-131.464 Y-135.413
Y-132.833
X-140.29 Y-141.658
Y-144.156
S5000
Y-144.238 Z-1.603 F333.3
X-131.464 Y-135.413 Z-2.039
Y-132.833 Z-2.129
X-132.906 Y-134.274 Z-2.2
S6000
X-140.29 Y-141.658 F1000
Y-144.156
Y-144.238
X-131.464 Y-135.413
Y-132.833
X-132.906 Y-134.274
G3 X-132.906 Y-134.723 I0.225 J-0.225
G1 X-132.681 Y-134.947
X-132.631 Y-134.997 Z-2.192
X-132.584 Y-135.045 Z-2.169
X-132.541 Y-135.087 Z-2.131
X-132.506 Y-135.123 Z-2.08
X-132.479 Y-135.149 Z-2.02
X-132.462 Y-135.166 Z-1.953
X-132.457 Y-135.172 Z-1.883
G0 Z35

(2D-Kontur3)
X-56.076 Y-111.923
Z35
Z5
G1 Z2.5 F333.3
S5000
G3 X-35.67 Y-116.077 Z1.358 I10.203 J-2.077
X-56.076 Y-111.923 Z0.215 I-10.203 J2.077
X-46.917 Y-124.36 Z-0.392 I10.203 J-2.077
X-35.46 Y-114 Z-1 I1.044 J10.36
S6000
X-56.285 Y-114 I-10.412 J0 F1000
X-35.46 Y-114 I10.412 J0
S5000
X-46.698 Y-103.62 Z-1.6 I-10.412 J0 F333.3
S6000
X-45.048 Y-124.38 I0.825 J-10.38 F1000
X-46.698 Y-103.62 I-0.825 J10.38
S5000
X-56.155 Y-115.645 Z-2.2 I0.825 J-10.38 F333.3
S6000
X-35.591 Y-112.355 I10.282 J1.645 F1000
X-56.155 Y-115.645 I-10.282 J-1.645
X-55.791 Y-115.908 I0.314 J0.05
G1 X-55.477 Y-115.858
X-55.408 Y-115.847 Z-2.192
X-55.341 Y-115.836 Z-2.169
X-55.282 Y-115.827 Z-2.131
X-55.232 Y-115.819 Z-2.08
X-55.195 Y-115.813 Z-2.02
X-55.172 Y-115.809 Z-1.953
X-55.164 Y-115.808 Z-1.883
G0 Z35

(2D-Kontur4)
X-135.695 Y-197.587
Z35
Z5
G1 Z2.5 F333.3
S5000
X-145.879 Z2.144
X-145.918 Z2.143
X-146.164 Y-197.581 Z2.134
X-146.242 Y-197.577 Z2.132
X-146.486 Y-197.559 Z2.123
X-146.564 Y-197.552 Z2.12
X-146.807 Y-197.522 Z2.112
X-146.885 Y-197.51 Z2.109
X-147.126 Y-197.468 Z2.101
X-147.197 Y-197.454 Z2.098
X-147.436 Y-197.401 Z2.089
X-147.52 Y-197.38 Z2.086
X-147.756 Y-197.314 Z2.078
X-147.82 Y-197.294 Z2.076
X-148.053 Y-197.218 Z2.067
X-148.136 Y-197.189 Z2.064
X-148.365 Y-197.1 Z2.055
X-148.429 Y-197.073 Z2.053
X-148.654 Y-196.974 Z2.044
X-148.728 Y-196.94 Z2.041
X-148.947 Y-196.83 Z2.033
X-149.018 Y-196.791 Z2.03
X-149.231 Y-196.67 Z2.022
X-149.291 Y-196.634 Z2.019
X-149.498 Y-196.504 Z2.011
X-149.569 Y-196.457 Z2.008
X-149.769 Y-196.316 Z1.999
X-149.832 Y-196.269 Z1.996
X-150.025 Y-196.118 Z1.988
X-150.079 Y-196.075 Z1.985
X-150.265 Y-195.916 Z1.977
X-150.329 Y-195.857 Z1.974
X-150.507 Y-195.687 Z1.965
X-150.556 Y-195.639 Z1.963
X-150.726 Y-195.462 Z1.954
X-150.784 Y-195.397 Z1.951
X-150.944 Y-195.211 Z1.943
X-150.991 Y-195.154 Z1.94
X-151.142 Y-194.961 Z1.931
X-151.187 Y-194.901 Z1.929
X-151.328 Y-194.702 Z1.92
X-151.374 Y-194.633 Z1.917
X-151.505 Y-194.426 Z1.909
X-151.544 Y-194.361 Z1.906
X-151.665 Y-194.148 Z1.898
X-151.701 Y-194.082 Z1.895
X-151.812 Y-193.863 Z1.886
X-151.846 Y-193.792 Z1.884
X-151.946 Y-193.568 Z1.875
X-151.978 Y-193.49 Z1.872
X-152.066 Y-193.261 Z1.864
X-152.089 Y-193.196 Z1.861
X-152.167 Y-192.963 Z1.853
X-152.191 Y-192.885 Z1.85
X-152.257 Y-192.648 Z1.841
X-152.276 Y-192.572 Z1.838
X-152.33 Y-192.333 Z1.83
X-152.346 Y-192.254 Z1.827
X-152.388 Y-192.012 Z1.819
X-152.399 Y-191.941 Z1.816
X-152.43 Y-191.697 Z1.807
X-152.438 Y-191.613 Z1.804
X-152.456 Y-191.368 Z1.796
X-152.46 Y-191.291 Z1.793
X-152.466 Y-191.045 Z1.785
X-152.467 Y-191.006 Z1.783
Y-164.005 Z0.84
X-152.471 Y-163.234 Z0.813
X-152.485 Y-162.476 Z0.787
X-152.508 Y-161.724 Z0.761
X-152.538 Y-160.98 Z0.735
X-152.578 Y-160.246 Z0.709
X-152.626 Y-159.517 Z0.683
X-152.683 Y-158.795 Z0.658
X-152.748 Y-158.08 Z0.633
X-152.822 Y-157.371 Z0.608
X-152.902 Y-156.672 Z0.584
X-153.089 Y-155.276 Z0.534
X-153.304 Y-153.901 Z0.486
X-153.546 Y-152.538 Z0.438
X-153.814 Y-151.185 Z0.389
X-154.105 Y-149.835 Z0.341
X-154.415 Y-148.484 Z0.293
X-154.743 Y-147.127 Z0.244
X-155.085 Y-145.761 Z0.195
X-155.439 Y-144.379 Z0.145
X-155.8 Y-142.979 Z0.094
X-155.801 Y-142.977
X-156.166 Y-141.557 Z0.043
X-156.167 Y-141.552
X-156.532 Y-140.111 Z-0.009
X-156.534 Y-140.101
X-156.896 Y-138.633 Z-0.062
X-156.9 Y-138.619 Z-0.063
X-157.255 Y-137.122 Z-0.116
X-157.259 Y-137.105 Z-0.117
X-157.604 Y-135.575 Z-0.172
X-157.608 Y-135.555
X-157.939 Y-133.991 Z-0.228
X-157.942 Y-133.974 Z-0.229
X-158.102 Y-133.177 Z-0.257
X-158.105 Y-133.165 Z-0.258
X-158.26 Y-132.359 Z-0.286
X-158.262 Y-132.348 Z-0.287
X-158.413 Y-131.532 Z-0.316
X-158.416 Y-131.517
X-158.561 Y-130.691 Z-0.345
X-158.563 Y-130.677 Z-0.346
X-158.702 Y-129.84 Z-0.376
X-158.704 Y-129.828
X-158.838 Y-128.981 Z-0.406
X-158.84 Y-128.966
X-158.967 Y-128.109 Z-0.437
X-158.969 Y-128.095
X-159.09 Y-127.228 Z-0.468
X-159.092 Y-127.214
X-159.206 Y-126.337 Z-0.499
X-159.208 Y-126.32 Z-0.5
X-159.314 Y-125.433 Z-0.531
X-159.316 Y-125.421
X-159.416 Y-124.524 Z-0.563
X-159.418 Y-124.507 Z-0.564
X-159.509 Y-123.601 Z-0.595
X-159.51 Y-123.587 Z-0.596
X-159.594 Y-122.672 Z-0.628
X-159.595 Y-122.656
X-159.67 Y-121.733 Z-0.661
X-159.671 Y-121.718
X-159.738 Y-120.787 Z-0.694
X-159.739 Y-120.771
X-159.797 Y-119.833 Z-0.727
X-159.798 Y-119.819 Z-0.728
X-159.848 Y-118.875 Z-0.761
X-159.849 Y-118.859
X-159.89 Y-117.909 Z-0.795
X-159.891 Y-117.887
X-159.946 Y-115.973 Z-0.862
Y-115.942 Z-0.863
X-159.964 Y-114.015 Z-0.931
Y-113.985 Z-0.932
X-159.946 Y-112.051 Z-0.999
Y-112.026 Z-1
S6000
Y-112.021 F1000
X-159.891 Y-110.087
X-159.89 Y-110.057
X-159.799 Y-108.129
X-159.797 Y-108.101
X-159.672 Y-106.187
X-159.67 Y-106.157
X-159.511 Y-104.262
X-159.509 Y-104.242
X-159.418 Y-103.304
X-159.416 Y-103.288
X-159.316 Y-102.356
X-159.315 Y-102.344
X-159.209 Y-101.419
X-159.207 Y-101.404
X-159.093 Y-100.487
X-159.092 Y-100.473
X-158.971 Y-99.565
X-158.969 Y-99.553
X-158.842 Y-98.652
X-158.84 Y-98.638
X-158.706 Y-97.746
X-158.704 Y-97.735
X-158.565 Y-96.853
X-158.563 Y-96.84
X-158.418 Y-95.966
X-158.416 Y-95.953
X-158.265 Y-95.088
X-158.263 Y-95.078
X-158.108 Y-94.222
X-158.106 Y-94.211
X-157.946 Y-93.364
X-157.943 Y-93.35
X-157.612 Y-91.684
X-157.608 Y-91.665
X-157.263 Y-90.036
X-157.259 Y-90.018
X-156.903 Y-88.424
X-156.901 Y-88.412
X-156.54 Y-86.852
X-156.537 Y-86.84
X-156.171 Y-85.313
X-156.169 Y-85.307
X-155.804 Y-83.811
X-155.803 Y-83.807
X-155.441 Y-82.34
X-155.087 Y-80.903
X-154.743 Y-79.494
X-154.414 Y-78.113
X-154.102 Y-76.757
X-153.811 Y-75.423
X-153.543 Y-74.109
X-153.3 Y-72.811
X-153.084 Y-71.527
X-152.898 Y-70.256
X-152.744 Y-68.994
X-152.623 Y-67.739
X-152.535 Y-66.49
X-152.483 Y-65.244
X-152.464 Y-63.988
Y-9
G2 X-145.877 Y-2.412 I6.587 J0
G1 X-105.877
G2 X-99.289 Y-9 I0 J-6.588
G1 Y-63.989
X-99.272 Y-65.244
X-99.219 Y-66.489
X-99.131 Y-67.739
X-99.01 Y-68.994
X-98.855 Y-70.256
X-98.67 Y-71.528
X-98.455 Y-72.811
X-98.212 Y-74.108
X-97.943 Y-75.423
X-97.652 Y-76.757
X-97.34 Y-78.113
X-97.011 Y-79.494
X-96.668 Y-80.903
X-96.313 Y-82.34
X-95.951 Y-83.807
X-95.95 Y-83.81
X-95.585 Y-85.307
X-95.583 Y-85.314
X-95.218 Y-86.841
X-95.215 Y-86.852
X-94.853 Y-88.412
X-94.85 Y-88.425
X-94.495 Y-90.019
X-94.492 Y-90.036
X-94.147 Y-91.665
X-94.143 Y-91.684
X-93.811 Y-93.349
X-93.808 Y-93.364
X-93.649 Y-94.211
X-93.647 Y-94.222
X-93.491 Y-95.077
X-93.489 Y-95.089
X-93.339 Y-95.954
X-93.337 Y-95.965
X-93.192 Y-96.839
X-93.19 Y-96.852
X-93.05 Y-97.735
X-93.048 Y-97.747
X-92.915 Y-98.639
X-92.913 Y-98.652
X-92.785 Y-99.552
X-92.784 Y-99.565
X-92.663 Y-100.474
X-92.661 Y-100.487
X-92.547 Y-101.404
X-92.546 Y-101.418
X-92.439 Y-102.343
X-92.437 Y-102.357
X-92.338 Y-103.289
X-92.337 Y-103.303
X-92.245 Y-104.241
X-92.243 Y-104.262
X-92.084 Y-106.157
X-92.082 Y-106.186
X-91.957 Y-108.1
X-91.955 Y-108.129
X-91.865 Y-110.057
X-91.863 Y-110.087
X-91.809 Y-112.021
X-91.808 Y-112.051
X-91.79 Y-113.985
Y-114.015
X-91.808 Y-115.942
X-91.809 Y-115.972
X-91.863 Y-117.886
X-91.864 Y-117.909
X-91.905 Y-118.859
X-91.906 Y-118.874
X-91.956 Y-119.818
Y-119.834
X-92.015 Y-120.772
X-92.016 Y-120.787
X-92.083 Y-121.718
X-92.084 Y-121.733
X-92.159 Y-122.656
X-92.161 Y-122.671
X-92.244 Y-123.586
X-92.246 Y-123.602
X-92.337 Y-124.508
X-92.339 Y-124.522
X-92.438 Y-125.42
X-92.44 Y-125.434
X-92.546 Y-126.321
X-92.548 Y-126.336
X-92.662 Y-127.213
X-92.664 Y-127.228
X-92.785 Y-128.095
X-92.787 Y-128.109
X-92.914 Y-128.966
X-92.916 Y-128.98
X-93.05 Y-129.827
X-93.052 Y-129.841
X-93.191 Y-130.678
X-93.194 Y-130.692
X-93.339 Y-131.518
X-93.341 Y-131.531
X-93.492 Y-132.347
X-93.494 Y-132.359
X-93.649 Y-133.165
X-93.652 Y-133.177
X-93.811 Y-133.974
X-93.815 Y-133.991
X-94.146 Y-135.555
X-94.151 Y-135.575
X-94.496 Y-137.105
X-94.5 Y-137.122
X-94.855 Y-138.619
X-94.858 Y-138.633
X-95.22 Y-140.101
X-95.222 Y-140.111
X-95.587 Y-141.552
X-95.589 Y-141.557
X-95.954 Y-142.977
Y-142.979
X-96.316 Y-144.379
X-96.669 Y-145.761
X-97.011 Y-147.127
X-97.339 Y-148.484
X-97.65 Y-149.835
X-97.94 Y-151.185
X-98.208 Y-152.538
X-98.45 Y-153.901
X-98.665 Y-155.276
X-98.852 Y-156.673
X-98.933 Y-157.371
X-99.006 Y-158.079
X-99.071 Y-158.795
X-99.128 Y-159.517
X-99.176 Y-160.246
X-99.216 Y-160.981
X-99.247 Y-161.725
X-99.27 Y-162.475
X-99.283 Y-163.233
X-99.287 Y-164.005
Y-191.006
X-99.288 Y-191.045
X-99.294 Y-191.291
X-99.298 Y-191.375
X-99.317 Y-191.619
X-99.324 Y-191.691
X-99.354 Y-191.934
X-99.366 Y-192.012
X-99.408 Y-192.253
X-99.424 Y-192.33
X-99.478 Y-192.569
X-99.495 Y-192.641
X-99.56 Y-192.877
X-99.584 Y-192.953
X-99.661 Y-193.186
X-99.688 Y-193.263
X-99.777 Y-193.492
X-99.807 Y-193.564
X-99.907 Y-193.788
X-99.938 Y-193.854
X-100.048 Y-194.073
X-100.087 Y-194.144
X-100.208 Y-194.357
X-100.247 Y-194.422
X-100.378 Y-194.629
X-100.422 Y-194.695
X-100.563 Y-194.895
X-100.61 Y-194.958
X-100.761 Y-195.151
X-100.81 Y-195.211
X-100.97 Y-195.396
X-101.02 Y-195.451
X-101.189 Y-195.629
X-101.247 Y-195.687
X-101.425 Y-195.856
X-101.479 Y-195.905
X-101.665 Y-196.066
X-101.73 Y-196.119
X-101.923 Y-196.269
X-101.982 Y-196.313
X-102.182 Y-196.454
X-102.245 Y-196.497
X-102.451 Y-196.628
X-102.519 Y-196.668
X-102.732 Y-196.789
X-102.803 Y-196.828
X-103.022 Y-196.938
X-103.09 Y-196.97
X-103.315 Y-197.07
X-103.391 Y-197.101
X-103.62 Y-197.189
X-103.691 Y-197.214
X-103.924 Y-197.291
X-103.996 Y-197.313
X-104.233 Y-197.379
X-104.311 Y-197.399
X-104.551 Y-197.453
X-104.628 Y-197.468
X-104.87 Y-197.51
X-104.947 Y-197.522
X-105.191 Y-197.552
X-105.268 Y-197.559
X-105.512 Y-197.577
X-105.59 Y-197.581
X-105.836 Y-197.587
X-105.875
X-145.879
X-145.918
X-146.164 Y-197.581
X-146.242 Y-197.577
X-146.486 Y-197.559
X-146.564 Y-197.552
X-146.807 Y-197.522
X-146.885 Y-197.51
X-147.126 Y-197.468
X-147.197 Y-197.454
X-147.436 Y-197.401
X-147.52 Y-197.38
X-147.756 Y-197.314
X-147.82 Y-197.294
X-148.053 Y-197.218
X-148.136 Y-197.189
X-148.365 Y-197.1
X-148.429 Y-197.073
X-148.654 Y-196.974
X-148.728 Y-196.94
X-148.947 Y-196.83
X-149.018 Y-196.791
X-149.231 Y-196.67
X-149.291 Y-196.634
X-149.498 Y-196.504
X-149.569 Y-196.457
X-149.769 Y-196.316
X-149.832 Y-196.269
X-150.025 Y-196.118
X-150.079 Y-196.075
X-150.265 Y-195.916
X-150.329 Y-195.857
X-150.507 Y-195.687
X-150.556 Y-195.639
X-150.726 Y-195.462
X-150.784 Y-195.397
X-150.944 Y-195.211
X-150.991 Y-195.154
X-151.142 Y-194.961
X-151.187 Y-194.901
X-151.328 Y-194.702
X-151.374 Y-194.633
X-151.505 Y-194.426
X-151.544 Y-194.361
X-151.665 Y-194.148
X-151.701 Y-194.082
X-151.812 Y-193.863
X-151.846 Y-193.792
X-151.946 Y-193.568
X-151.978 Y-193.49
X-152.066 Y-193.261
X-152.089 Y-193.196
X-152.167 Y-192.963
X-152.191 Y-192.885
X-152.257 Y-192.648
X-152.276 Y-192.572
X-152.33 Y-192.333
X-152.346 Y-192.254
X-152.388 Y-192.012
X-152.399 Y-191.941
X-152.43 Y-191.697
X-152.438 Y-191.613
X-152.456 Y-191.368
X-152.46 Y-191.291
X-152.466 Y-191.045
X-152.467 Y-191.006
Y-164.005
X-152.471 Y-163.234
X-152.485 Y-162.476
X-152.508 Y-161.724
X-152.538 Y-160.98
X-152.578 Y-160.246
X-152.626 Y-159.517
X-152.683 Y-158.795
X-152.748 Y-158.08
X-152.822 Y-157.371
X-152.902 Y-156.672
X-153.089 Y-155.276
X-153.304 Y-153.901
X-153.546 Y-152.538
X-153.814 Y-151.185
X-154.105 Y-149.835
X-154.415 Y-148.484
X-154.743 Y-147.127
X-155.085 Y-145.761
X-155.439 Y-144.379
X-155.8 Y-142.979
X-155.801 Y-142.977
X-156.166 Y-141.557
X-156.167 Y-141.552
X-156.532 Y-140.111
X-156.534 Y-140.101
X-156.896 Y-138.633
X-156.9 Y-138.619
X-157.255 Y-137.122
X-157.259 Y-137.105
X-157.604 Y-135.575
X-157.608 Y-135.555
X-157.939 Y-133.991
X-157.942 Y-133.974
X-158.102 Y-133.177
X-158.105 Y-133.165
X-158.26 Y-132.359
X-158.262 Y-132.348
X-158.413 Y-131.532
X-158.416 Y-131.517
X-158.561 Y-130.691
X-158.563 Y-130.677
X-158.702 Y-129.84
X-158.704 Y-129.828
X-158.838 Y-128.981
X-158.84 Y-128.966
X-158.967 Y-128.109
X-158.969 Y-128.095
X-159.09 Y-127.228
X-159.092 Y-127.214
X-159.206 Y-126.337
X-159.208 Y-126.32
X-159.314 Y-125.433
X-159.316 Y-125.421
X-159.416 Y-124.524
X-159.418 Y-124.507
X-159.509 Y-123.601
X-159.51 Y-123.587
X-159.594 Y-122.672
X-159.595 Y-122.656
X-159.67 Y-121.733
X-159.671 Y-121.718
X-159.738 Y-120.787
X-159.739 Y-120.771
X-159.797 Y-119.833
X-159.798 Y-119.819
X-159.848 Y-118.875
X-159.849 Y-118.859
X-159.89 Y-117.909
X-159.891 Y-117.887
X-159.946 Y-115.973
Y-115.942
X-159.964 Y-114.015
Y-113.985
X-159.946 Y-112.051
Y-112.026
S5000
Y-112.021 F333.3
X-159.891 Y-110.087 Z-1.064
X-159.89 Y-110.057 Z-1.065
X-159.799 Y-108.129 Z-1.128
X-159.797 Y-108.101 Z-1.129
X-159.672 Y-106.187 Z-1.192
X-159.67 Y-106.157 Z-1.193
X-159.511 Y-104.262 Z-1.255
X-159.509 Y-104.242 Z-1.256
X-159.418 Y-103.304 Z-1.286
X-159.416 Y-103.288 Z-1.287
X-159.316 Y-102.356 Z-1.318
X-159.315 Y-102.344
X-159.209 Y-101.419 Z-1.349
X-159.207 Y-101.404
X-159.093 Y-100.487 Z-1.379
X-159.092 Y-100.473 Z-1.38
X-158.971 Y-99.565 Z-1.41
X-158.969 Y-99.553
X-158.842 Y-98.652 Z-1.44
X-158.84 Y-98.638 Z-1.441
X-158.706 Y-97.746 Z-1.47
X-158.704 Y-97.735
X-158.565 Y-96.853 Z-1.5
X-158.563 Y-96.84
X-158.418 Y-95.966 Z-1.529
X-158.416 Y-95.953 Z-1.53
X-158.265 Y-95.088 Z-1.558
X-158.263 Y-95.078 Z-1.559
X-158.108 Y-94.222 Z-1.587
X-158.106 Y-94.211 Z-1.588
X-158.036 Y-93.839 Z-1.6
S6000
X-157.946 Y-93.364 F1000
X-157.943 Y-93.35
X-157.612 Y-91.684
X-157.608 Y-91.665
X-157.263 Y-90.036
X-157.259 Y-90.018
X-157.206 Y-89.779
Z-1.406
X-156.903 Y-88.424
X-156.901 Y-88.412
X-156.54 Y-86.852
X-156.537 Y-86.84
X-156.171 Y-85.313
X-156.169 Y-85.307
X-155.804 Y-83.811
X-155.803 Y-83.807
X-155.441 Y-82.34
X-155.087 Y-80.903
X-155.075 Y-80.855
Z-1.6 F333.3
X-154.743 Y-79.494 F1000
X-154.414 Y-78.113
X-154.102 Y-76.757
X-153.811 Y-75.423
X-153.543 Y-74.109
X-153.3 Y-72.811
X-153.084 Y-71.527
X-152.898 Y-70.256
X-152.744 Y-68.994
X-152.623 Y-67.739
X-152.535 Y-66.49
X-152.483 Y-65.244
X-152.464 Y-63.988
Y-41.088
Z-1.406
Y-31.913
Z-1.6 F333.3
Y-9 F1000
G2 X-145.877 Y-2.412 I6.587 J0
G1 X-105.877
G2 X-99.289 Y-9 I0 J-6.588
G1 Y-31.913
Z-1.406
Y-41.088
Z-1.6 F333.3
Y-63.989 F1000
X-99.272 Y-65.244
X-99.219 Y-66.489
X-99.131 Y-67.739
X-99.01 Y-68.994
X-98.855 Y-70.256
X-98.67 Y-71.528
X-98.455 Y-72.811
X-98.212 Y-74.108
X-97.943 Y-75.423
X-97.652 Y-76.757
X-97.34 Y-78.113
X-97.011 Y-79.494
X-96.679 Y-80.855
Z-1.406
X-96.668 Y-80.903
X-96.313 Y-82.34
X-95.951 Y-83.807
X-95.95 Y-83.81
X-95.585 Y-85.307
X-95.583 Y-85.314
X-95.218 Y-86.841
X-95.215 Y-86.852
X-94.853 Y-88.412
X-94.85 Y-88.425
X-94.549 Y-89.779
Z-1.6 F333.3
X-94.495 Y-90.019 F1000
X-94.492 Y-90.036
X-94.147 Y-91.665
X-94.143 Y-91.684
X-93.811 Y-93.349
X-93.808 Y-93.364
X-93.649 Y-94.211
X-93.647 Y-94.222
X-93.491 Y-95.077
X-93.489 Y-95.089
X-93.339 Y-95.954
X-93.337 Y-95.965
X-93.192 Y-96.839
X-93.19 Y-96.852
X-93.05 Y-97.735
X-93.048 Y-97.747
X-92.915 Y-98.639
X-92.913 Y-98.652
X-92.785 Y-99.552
X-92.784 Y-99.565
X-92.663 Y-100.474
X-92.661 Y-100.487
X-92.547 Y-101.404
X-92.546 Y-101.418
X-92.439 Y-102.343
X-92.437 Y-102.357
X-92.338 Y-103.289
X-92.337 Y-103.303
X-92.245 Y-104.241
X-92.243 Y-104.262
X-92.084 Y-106.157
X-92.082 Y-106.186
X-91.957 Y-108.1
X-91.955 Y-108.129
X-91.865 Y-110.057
X-91.863 Y-110.087
X-91.809 Y-112.021
X-91.808 Y-112.051
X-91.79 Y-113.985
Y-114.015
X-91.808 Y-115.942
X-91.809 Y-115.972
X-91.863 Y-117.886
X-91.864 Y-117.909
X-91.905 Y-118.859
X-91.906 Y-118.874
X-91.956 Y-119.818
Y-119.834
X-92.015 Y-120.772
X-92.016 Y-120.787
X-92.083 Y-121.718
X-92.084 Y-121.733
X-92.159 Y-122.656
X-92.161 Y-122.671
X-92.244 Y-123.586
X-92.246 Y-123.602
X-92.337 Y-124.508
X-92.339 Y-124.522
X-92.438 Y-125.42
X-92.44 Y-125.434
X-92.546 Y-126.321
X-92.548 Y-126.336
X-92.662 Y-127.213
X-92.664 Y-127.228
X-92.785 Y-128.095
X-92.787 Y-128.109
X-92.914 Y-128.966
X-92.916 Y-128.98
X-93.05 Y-129.827
X-93.052 Y-129.841
X-93.191 Y-130.678
X-93.194 Y-130.692
X-93.339 Y-131.518
X-93.341 Y-131.531
X-93.492 Y-132.347
X-93.494 Y-132.359
X-93.649 Y-133.165
X-93.652 Y-133.177
X-93.811 Y-133.974
X-93.815 Y-133.991
X-94.146 Y-135.555
X-94.151 Y-135.575
X-94.494 Y-137.1
Z-1.406
X-94.496 Y-137.105
X-94.5 Y-137.122
X-94.855 Y-138.619
X-94.858 Y-138.633
X-95.22 Y-140.101
X-95.222 Y-140.111
X-95.587 Y-141.552
X-95.589 Y-141.557
X-95.954 Y-142.977
Y-142.979
X-96.316 Y-144.379
X-96.669 Y-145.761
X-96.729 Y-145.999
Z-1.6 F333.3
X-97.011 Y-147.127 F1000
X-97.339 Y-148.484
X-97.65 Y-149.835
X-97.94 Y-151.185
X-98.208 Y-152.538
X-98.45 Y-153.901
X-98.665 Y-155.276
X-98.852 Y-156.673
X-98.933 Y-157.371
X-99.006 Y-158.079
X-99.071 Y-158.795
X-99.128 Y-159.517
X-99.176 Y-160.246
X-99.216 Y-160.981
X-99.247 Y-161.725
X-99.27 Y-162.475
X-99.283 Y-163.233
X-99.287 Y-164.005
Y-191.006
X-99.288 Y-191.045
X-99.294 Y-191.291
X-99.298 Y-191.375
X-99.317 Y-191.619
X-99.324 Y-191.691
X-99.354 Y-191.934
X-99.366 Y-192.012
X-99.408 Y-192.253
X-99.424 Y-192.33
X-99.478 Y-192.569
X-99.495 Y-192.641
X-99.56 Y-192.877
X-99.584 Y-192.953
X-99.661 Y-193.186
X-99.688 Y-193.263
X-99.777 Y-193.492
X-99.807 Y-193.564
X-99.907 Y-193.788
X-99.938 Y-193.854
X-100.048 Y-194.073
X-100.087 Y-194.144
X-100.208 Y-194.357
X-100.247 Y-194.422
X-100.378 Y-194.629
X-100.422 Y-194.695
X-100.563 Y-194.895
X-100.61 Y-194.958
X-100.761 Y-195.151
X-100.81 Y-195.211
X-100.97 Y-195.396
X-101.02 Y-195.451
X-101.189 Y-195.629
X-101.247 Y-195.687
X-101.425 Y-195.856
X-101.479 Y-195.905
X-101.665 Y-196.066
X-101.73 Y-196.119
X-101.923 Y-196.269
X-101.982 Y-196.313
X-102.182 Y-196.454
X-102.245 Y-196.497
X-102.451 Y-196.628
X-102.519 Y-196.668
X-102.732 Y-196.789
X-102.803 Y-196.828
X-103.022 Y-196.938
X-103.09 Y-196.97
X-103.315 Y-197.07
X-103.391 Y-197.101
X-103.62 Y-197.189
X-103.691 Y-197.214
X-103.924 Y-197.291
X-103.996 Y-197.313
X-104.233 Y-197.379
X-104.311 Y-197.399
X-104.551 Y-197.453
X-104.628 Y-197.468
X-104.87 Y-197.51
X-104.947 Y-197.522
X-105.191 Y-197.552
X-105.268 Y-197.559
X-105.512 Y-197.577
X-105.59 Y-197.581
X-105.836 Y-197.587
X-105.875
X-145.879
X-145.918
X-146.164 Y-197.581
X-146.242 Y-197.577
X-146.486 Y-197.559
X-146.564 Y-197.552
X-146.807 Y-197.522
X-146.885 Y-197.51
X-147.126 Y-197.468
X-147.197 Y-197.454
X-147.436 Y-197.401
X-147.52 Y-197.38
X-147.756 Y-197.314
X-147.82 Y-197.294
X-148.053 Y-197.218
X-148.136 Y-197.189
X-148.365 Y-197.1
X-148.429 Y-197.073
X-148.654 Y-196.974
X-148.728 Y-196.94
X-148.947 Y-196.83
X-149.018 Y-196.791
X-149.231 Y-196.67
X-149.291 Y-196.634
X-149.498 Y-196.504
X-149.569 Y-196.457
X-149.769 Y-196.316
X-149.832 Y-196.269
X-150.025 Y-196.118
X-150.079 Y-196.075
X-150.265 Y-195.916
X-150.329 Y-195.857
X-150.507 Y-195.687
X-150.556 Y-195.639
X-150.726 Y-195.462
X-150.784 Y-195.397
X-150.944 Y-195.211
X-150.991 Y-195.154
X-151.142 Y-194.961
X-151.187 Y-194.901
X-151.328 Y-194.702
X-151.374 Y-194.633
X-151.505 Y-194.426
X-151.544 Y-194.361
X-151.665 Y-194.148
X-151.701 Y-194.082
X-151.812 Y-193.863
X-151.846 Y-193.792
X-151.946 Y-193.568
X-151.978 Y-193.49
X-152.066 Y-193.261
X-152.089 Y-193.196
X-152.167 Y-192.963
X-152.191 Y-192.885
X-152.257 Y-192.648
X-152.276 Y-192.572
X-152.33 Y-192.333
X-152.346 Y-192.254
X-152.388 Y-192.012
X-152.399 Y-191.941
X-152.43 Y-191.697
X-152.438 Y-191.613
X-152.456 Y-191.368
X-152.46 Y-191.291
X-152.466 Y-191.045
X-152.467 Y-191.006
Y-164.005
X-152.471 Y-163.234
X-152.485 Y-162.476
X-152.508 Y-161.724
X-152.538 Y-160.98
X-152.578 Y-160.246
X-152.626 Y-159.517
X-152.683 Y-158.795
X-152.748 Y-158.08
X-152.822 Y-157.371
X-152.902 Y-156.672
X-153.089 Y-155.276
X-153.304 Y-153.901
X-153.546 Y-152.538
X-153.814 Y-151.185
X-154.105 Y-149.835
X-154.415 Y-148.484
X-154.743 Y-147.127
X-155.025 Y-145.999
Z-1.406
X-155.085 Y-145.761
X-155.439 Y-144.379
X-155.8 Y-142.979
X-155.801 Y-142.977
X-156.166 Y-141.557
X-156.167 Y-141.552
X-156.532 Y-140.111
X-156.534 Y-140.101
X-156.896 Y-138.633
X-156.9 Y-138.619
X-157.255 Y-137.122
X-157.259 Y-137.105
X-157.26 Y-137.1
Z-1.6 F333.3
X-157.604 Y-135.575 F1000
X-157.608 Y-135.555
X-157.939 Y-133.991
X-157.942 Y-133.974
X-158.102 Y-133.177
X-158.105 Y-133.165
X-158.26 Y-132.359
X-158.262 Y-132.348
X-158.413 Y-131.532
X-158.416 Y-131.517
X-158.561 Y-130.691
X-158.563 Y-130.677
X-158.702 Y-129.84
X-158.704 Y-129.828
X-158.838 Y-128.981
X-158.84 Y-128.966
X-158.967 Y-128.109
X-158.969 Y-128.095
X-159.09 Y-127.228
X-159.092 Y-127.214
X-159.206 Y-126.337
X-159.208 Y-126.32
X-159.314 Y-125.433
X-159.316 Y-125.421
X-159.416 Y-124.524
X-159.418 Y-124.507
X-159.509 Y-123.601
X-159.51 Y-123.587
X-159.594 Y-122.672
X-159.595 Y-122.656
X-159.67 Y-121.733
X-159.671 Y-121.718
X-159.738 Y-120.787
X-159.739 Y-120.771
X-159.797 Y-119.833
X-159.798 Y-119.819
X-159.848 Y-118.875
X-159.849 Y-118.859
X-159.89 Y-117.909
X-159.891 Y-117.887
X-159.946 Y-115.973
Y-115.942
X-159.964 Y-114.015
Y-113.985
X-159.946 Y-112.051
Y-112.021
X-159.891 Y-110.087
X-159.89 Y-110.057
X-159.799 Y-108.129
X-159.797 Y-108.101
X-159.672 Y-106.187
X-159.67 Y-106.157
X-159.511 Y-104.262
X-159.509 Y-104.242
X-159.418 Y-103.304
X-159.416 Y-103.288
X-159.316 Y-102.356
X-159.315 Y-102.344
X-159.209 Y-101.419
X-159.207 Y-101.404
X-159.093 Y-100.487
X-159.092 Y-100.473
X-158.971 Y-99.565
X-158.969 Y-99.553
X-158.842 Y-98.652
X-158.84 Y-98.638
X-158.706 Y-97.746
X-158.704 Y-97.735
X-158.565 Y-96.853
X-158.563 Y-96.84
X-158.418 Y-95.966
X-158.416 Y-95.953
X-158.265 Y-95.088
X-158.263 Y-95.078
X-158.108 Y-94.222
X-158.106 Y-94.211
X-158.036 Y-93.839
S5000
X-157.946 Y-93.364 Z-1.616 F333.3
X-157.943 Y-93.35
X-157.612 Y-91.684 Z-1.672
X-157.608 Y-91.665 Z-1.673
X-157.263 Y-90.036 Z-1.727
X-157.259 Y-90.018 Z-1.728
X-157.206 Y-89.779 Z-1.736
Z-1.406
X-156.903 Y-88.424
X-156.901 Y-88.412
X-156.54 Y-86.852
X-156.537 Y-86.84
X-156.171 Y-85.313
X-156.169 Y-85.307
X-155.804 Y-83.811
X-155.803 Y-83.807
X-155.441 Y-82.34
X-155.087 Y-80.903
X-155.075 Y-80.855
S6000
Z-2.036
S5000
X-154.743 Y-79.494 Z-2.082
X-154.414 Y-78.113 Z-2.129
X-154.102 Y-76.757 Z-2.174
X-153.936 Y-75.997 Z-2.2
S6000
X-153.811 Y-75.423 F1000
X-153.543 Y-74.109
X-153.3 Y-72.811
X-153.084 Y-71.527
X-152.898 Y-70.256
X-152.744 Y-68.994
X-152.623 Y-67.739
X-152.535 Y-66.49
X-152.483 Y-65.244
X-152.464 Y-63.988
Y-41.088
Z-1.406
Y-31.913
Z-2.2 F333.3
Y-9 F1000
G2 X-145.877 Y-2.412 I6.587 J0
G1 X-105.877
G2 X-99.289 Y-9 I0 J-6.588
G1 Y-31.913
Z-1.406
Y-41.088
Z-2.2 F333.3
Y-63.989 F1000
X-99.272 Y-65.244
X-99.219 Y-66.489
X-99.131 Y-67.739
X-99.01 Y-68.994
X-98.855 Y-70.256
X-98.67 Y-71.528
X-98.455 Y-72.811
X-98.212 Y-74.108
X-97.943 Y-75.423
X-97.652 Y-76.757
X-97.34 Y-78.113
X-97.011 Y-79.494
X-96.679 Y-80.855
Z-1.406
X-96.668 Y-80.903
X-96.313 Y-82.34
X-95.951 Y-83.807
X-95.95 Y-83.81
X-95.585 Y-85.307
X-95.583 Y-85.314
X-95.218 Y-86.841
X-95.215 Y-86.852
X-94.853 Y-88.412
X-94.85 Y-88.425
X-94.549 Y-89.779
Z-2.2 F333.3
X-94.495 Y-90.019 F1000
X-94.492 Y-90.036
X-94.147 Y-91.665
X-94.143 Y-91.684
X-93.811 Y-93.349
X-93.808 Y-93.364
X-93.649 Y-94.211
X-93.647 Y-94.222
X-93.491 Y-95.077
X-93.489 Y-95.089
X-93.339 Y-95.954
X-93.337 Y-95.965
X-93.192 Y-96.839
X-93.19 Y-96.852
X-93.05 Y-97.735
X-93.048 Y-97.747
X-92.915 Y-98.639
X-92.913 Y-98.652
X-92.785 Y-99.552
X-92.784 Y-99.565
X-92.663 Y-100.474
X-92.661 Y-100.487
X-92.547 Y-101.404
X-92.546 Y-101.418
X-92.439 Y-102.343
X-92.437 Y-102.357
X-92.338 Y-103.289
X-92.337 Y-103.303
X-92.245 Y-104.241
X-92.243 Y-104.262
X-92.084 Y-106.157
X-92.082 Y-106.186
X-91.957 Y-108.1
X-91.955 Y-108.129
X-91.865 Y-110.057
X-91.863 Y-110.087
X-91.809 Y-112.021
X-91.808 Y-112.051
X-91.79 Y-113.985
Y-114.015
X-91.808 Y-115.942
X-91.809 Y-115.972
X-91.863 Y-117.886
X-91.864 Y-117.909
X-91.905 Y-118.859
X-91.906 Y-118.874
X-91.956 Y-119.818
Y-119.834
X-92.015 Y-120.772
X-92.016 Y-120.787
X-92.083 Y-121.718
X-92.084 Y-121.733
X-92.159 Y-122.656
X-92.161 Y-122.671
X-92.244 Y-123.586
X-92.246 Y-123.602
X-92.337 Y-124.508
X-92.339 Y-124.522
X-92.438 Y-125.42
X-92.44 Y-125.434
X-92.546 Y-126.321
X-92.548 Y-126.336
X-92.662 Y-127.213
X-92.664 Y-127.228
X-92.785 Y-128.095
X-92.787 Y-128.109
X-92.914 Y-128.966
X-92.916 Y-128.98
X-93.05 Y-129.827
X-93.052 Y-129.841
X-93.191 Y-130.678
X-93.194 Y-130.692
X-93.339 Y-131.518
X-93.341 Y-131.531
X-93.492 Y-132.347
X-93.494 Y-132.359
X-93.649 Y-133.165
X-93.652 Y-133.177
X-93.811 Y-133.974
X-93.815 Y-133.991
X-94.146 Y-135.555
X-94.151 Y-135.575
X-94.494 Y-137.1
Z-1.406
X-94.496 Y-137.105
X-94.5 Y-137.122
X-94.855 Y-138.619
X-94.858 Y-138.633
X-95.22 Y-140.101
X-95.222 Y-140.111
X-95.587 Y-141.552
X-95.589 Y-141.557
X-95.954 Y-142.977
Y-142.979
X-96.316 Y-144.379
X-96.669 Y-145.761
X-96.729 Y-145.999
Z-2.2 F333.3
X-97.011 Y-147.127 F1000
X-97.339 Y-148.484
X-97.65 Y-149.835
X-97.94 Y-151.185
X-98.208 Y-152.538
X-98.45 Y-153.901
X-98.665 Y-155.276
X-98.852 Y-156.673
X-98.933 Y-157.371
X-99.006 Y-158.079
X-99.071 Y-158.795
X-99.128 Y-159.517
X-99.176 Y-160.246
X-99.216 Y-160.981
X-99.247 Y-161.725
X-99.27 Y-162.475
X-99.283 Y-163.233
X-99.287 Y-164.005
Y-191.006
X-99.288 Y-191.045
X-99.294 Y-191.291
X-99.298 Y-191.375
X-99.317 Y-191.619
X-99.324 Y-191.691
X-99.354 Y-191.934
X-99.366 Y-192.012
X-99.408 Y-192.253
X-99.424 Y-192.33
X-99.478 Y-192.569
X-99.495 Y-192.641
X-99.56 Y-192.877
X-99.584 Y-192.953
X-99.661 Y-193.186
X-99.688 Y-193.263
X-99.777 Y-193.492
X-99.807 Y-193.564
X-99.907 Y-193.788
X-99.938 Y-193.854
X-100.048 Y-194.073
X-100.087 Y-194.144
X-100.208 Y-194.357
X-100.247 Y-194.422
X-100.378 Y-194.629
X-100.422 Y-194.695
X-100.563 Y-194.895
X-100.61 Y-194.958
X-100.761 Y-195.151
X-100.81 Y-195.211
X-100.97 Y-195.396
X-101.02 Y-195.451
X-101.189 Y-195.629
X-101.247 Y-195.687
X-101.425 Y-195.856
X-101.479 Y-195.905
X-101.665 Y-196.066
X-101.73 Y-196.119
X-101.923 Y-196.269
X-101.982 Y-196.313
X-102.182 Y-196.454
X-102.245 Y-196.497
X-102.451 Y-196.628
X-102.519 Y-196.668
X-102.732 Y-196.789
X-102.803 Y-196.828
X-103.022 Y-196.938
X-103.09 Y-196.97
X-103.315 Y-197.07
X-103.391 Y-197.101
X-103.62 Y-197.189
X-103.691 Y-197.214
X-103.924 Y-197.291
X-103.996 Y-197.313
X-104.233 Y-197.379
X-104.311 Y-197.399
X-104.551 Y-197.453
X-104.628 Y-197.468
X-104.87 Y-197.51
X-104.947 Y-197.522
X-105.191 Y-197.552
X-105.268 Y-197.559
X-105.512 Y-197.577
X-105.59 Y-197.581
X-105.836 Y-197.587
X-105.875
X-145.879
X-145.918
X-146.164 Y-197.581
X-146.242 Y-197.577
X-146.486 Y-197.559
X-146.564 Y-197.552
X-146.807 Y-197.522
X-146.885 Y-197.51
X-147.126 Y-197.468
X-147.197 Y-197.454
X-147.436 Y-197.401
X-147.52 Y-197.38
X-147.756 Y-197.314
X-147.82 Y-197.294
X-148.053 Y-197.218
X-148.136 Y-197.189
X-148.365 Y-197.1
X-148.429 Y-197.073
X-148.654 Y-196.974
X-148.728 Y-196.94
X-148.947 Y-196.83
X-149.018 Y-196.791
X-149.231 Y-196.67
X-149.291 Y-196.634
X-149.498 Y-196.504
X-149.569 Y-196.457
X-149.769 Y-196.316
X-149.832 Y-196.269
X-150.025 Y-196.118
X-150.079 Y-196.075
X-150.265 Y-195.916
X-150.329 Y-195.857
X-150.507 Y-195.687
X-150.556 Y-195.639
X-150.726 Y-195.462
X-150.784 Y-195.397
X-150.944 Y-195.211
X-150.991 Y-195.154
X-151.142 Y-194.961
X-151.187 Y-194.901
X-151.328 Y-194.702
X-151.374 Y-194.633
X-151.505 Y-194.426
X-151.544 Y-194.361
X-151.665 Y-194.148
X-151.701 Y-194.082
X-151.812 Y-193.863
X-151.846 Y-193.792
X-151.946 Y-193.568
X-151.978 Y-193.49
X-152.066 Y-193.261
X-152.089 Y-193.196
X-152.167 Y-192.963
X-152.191 Y-192.885
X-152.257 Y-192.648
X-152.276 Y-192.572
X-152.33 Y-192.333
X-152.346 Y-192.254
X-152.388 Y-192.012
X-152.399 Y-191.941
X-152.43 Y-191.697
X-152.438 Y-191.613
X-152.456 Y-191.368
X-152.46 Y-191.291
X-152.466 Y-191.045
X-152.467 Y-191.006
Y-164.005
X-152.471 Y-163.234
X-152.485 Y-162.476
X-152.508 Y-161.724
X-152.538 Y-160.98
X-152.578 Y-160.246
X-152.626 Y-159.517
X-152.683 Y-158.795
X-152.748 Y-158.08
X-152.822 Y-157.371
X-152.902 Y-156.672
X-153.089 Y-155.276
X-153.304 Y-153.901
X-153.546 Y-152.538
X-153.814 Y-151.185
X-154.105 Y-149.835
X-154.415 Y-148.484
X-154.743 Y-147.127
X-155.025 Y-145.999
Z-1.406
X-155.085 Y-145.761
X-155.439 Y-144.379
X-155.8 Y-142.979
X-155.801 Y-142.977
X-156.166 Y-141.557
X-156.167 Y-141.552
X-156.532 Y-140.111
X-156.534 Y-140.101
X-156.896 Y-138.633
X-156.9 Y-138.619
X-157.255 Y-137.122
X-157.259 Y-137.105
X-157.26 Y-137.1
Z-2.2 F333.3
X-157.604 Y-135.575 F1000
X-157.608 Y-135.555
X-157.939 Y-133.991
X-157.942 Y-133.974
X-158.102 Y-133.177
X-158.105 Y-133.165
X-158.26 Y-132.359
X-158.262 Y-132.348
X-158.413 Y-131.532
X-158.416 Y-131.517
X-158.561 Y-130.691
X-158.563 Y-130.677
X-158.702 Y-129.84
X-158.704 Y-129.828
X-158.838 Y-128.981
X-158.84 Y-128.966
X-158.967 Y-128.109
X-158.969 Y-128.095
X-159.09 Y-127.228
X-159.092 Y-127.214
X-159.206 Y-126.337
X-159.208 Y-126.32
X-159.314 Y-125.433
X-159.316 Y-125.421
X-159.416 Y-124.524
X-159.418 Y-124.507
X-159.509 Y-123.601
X-159.51 Y-123.587
X-159.594 Y-122.672
X-159.595 Y-122.656
X-159.67 Y-121.733
X-159.671 Y-121.718
X-159.738 Y-120.787
X-159.739 Y-120.771
X-159.797 Y-119.833
X-159.798 Y-119.819
X-159.848 Y-118.875
X-159.849 Y-118.859
X-159.89 Y-117.909
X-159.891 Y-117.887
X-159.946 Y-115.973
Y-115.942
X-159.964 Y-114.015
Y-113.985
X-159.946 Y-112.051
Y-112.021
X-159.891 Y-110.087
X-159.89 Y-110.057
X-159.799 Y-108.129
X-159.797 Y-108.101
X-159.672 Y-106.187
X-159.67 Y-106.157
X-159.511 Y-104.262
X-159.509 Y-104.242
X-159.418 Y-103.304
X-159.416 Y-103.288
X-159.316 Y-102.356
X-159.315 Y-102.344
X-159.209 Y-101.419
X-159.207 Y-101.404
X-159.093 Y-100.487
X-159.092 Y-100.473
X-158.971 Y-99.565
X-158.969 Y-99.553
X-158.842 Y-98.652
X-158.84 Y-98.638
X-158.706 Y-97.746
X-158.704 Y-97.735
X-158.565 Y-96.853
X-158.563 Y-96.84
X-158.418 Y-95.966
X-158.416 Y-95.953
X-158.265 Y-95.088
X-158.263 Y-95.078
X-158.108 Y-94.222
X-158.106 Y-94.211
X-157.946 Y-93.364
X-157.943 Y-93.35
X-157.612 Y-91.684
X-157.608 Y-91.665
X-157.263 Y-90.036
X-157.259 Y-90.018
X-157.206 Y-89.779
Z-1.406
X-156.903 Y-88.424
X-156.901 Y-88.412
X-156.54 Y-86.852
X-156.537 Y-86.84
X-156.171 Y-85.313
X-156.169 Y-85.307
X-155.804 Y-83.811
X-155.803 Y-83.807
X-155.441 Y-82.34
X-155.087 Y-80.903
X-155.075 Y-80.855
Z-2.2 F333.3
X-154.743 Y-79.494 F1000
X-154.414 Y-78.113
X-154.102 Y-76.757
X-153.936 Y-75.997
G0 Z35

(2D-Kontur4 2)
X-70.46 Y-165.961
Z35
Z5
G1 Z2.5 F333.3
S5000
Y-158.5 Z2.239
G3 X-70.873 Y-158.087 Z2.217 I-0.412 J0
G1 X-72.319 Z2.166
X-72.375 Z2.164
X-72.517 Y-158.082 Z2.159
X-72.629 Y-158.074 Z2.156
X-72.77 Y-158.059 Z2.151
X-72.882 Y-158.043 Z2.147
X-73.022 Y-158.018 Z2.142
X-73.133 Y-157.994 Z2.138
X-73.271 Y-157.959 Z2.133
X-73.382 Y-157.926 Z2.129
X-73.517 Y-157.881 Z2.124
X-73.618 Y-157.843 Z2.12
X-73.749 Y-157.789 Z2.115
X-73.851 Y-157.743 Z2.111
X-73.978 Y-157.68 Z2.106
X-74.079 Y-157.625 Z2.102
X-74.201 Y-157.553 Z2.097
X-74.3 Y-157.49 Z2.093
X-74.417 Y-157.409 Z2.088
X-74.499 Y-157.349 Z2.085
X-74.609 Y-157.261 Z2.08
X-74.703 Y-157.181 Z2.075
X-74.807 Y-157.084 Z2.07
X-74.881 Y-157.01 Z2.067
X-74.979 Y-156.907 Z2.062
X-75.056 Y-156.819 Z2.058
X-75.145 Y-156.709 Z2.053
X-75.213 Y-156.619 Z2.049
X-75.295 Y-156.503 Z2.044
X-75.357 Y-156.407 Z2.04
X-75.43 Y-156.285 Z2.035
X-75.484 Y-156.188 Z2.031
X-75.548 Y-156.061 Z2.026
X-75.561 Y-156.035 Z2.025
X-75.741 Y-155.666 Z2.011
X-75.913 Y-155.341 Z1.998
X-76.088 Y-155.039 Z1.986
X-76.267 Y-154.758 Z1.974
X-76.448 Y-154.502 Z1.963
X-76.63 Y-154.271 Z1.953
X-76.813 Y-154.062 Z1.943
X-76.998 Y-153.875 Z1.934
X-77.183 Y-153.709 Z1.925
X-77.365 Y-153.568 Z1.917
X-77.548 Y-153.446 Z1.909
X-77.736 Y-153.34 Z1.902
X-77.922 Y-153.253 Z1.895
X-78.11 Y-153.183 Z1.888
X-78.309 Y-153.128 Z1.881
X-78.517 Y-153.087 Z1.873
X-78.736 Y-153.062 Z1.865
X-78.97 Y-153.054 Z1.857
X-79.219 Y-153.063 Z1.849
X-79.486 Y-153.092 Z1.839
X-79.774 Y-153.144 Z1.829
X-80.082 Y-153.218 Z1.818
X-80.408 Y-153.316 Z1.806
X-80.753 Y-153.441 Z1.793
X-81.117 Y-153.594 Z1.779
X-81.503 Y-153.777 Z1.765
X-81.905 Y-153.987 Z1.749
X-82.324 Y-154.227 Z1.732
X-82.761 Y-154.498 Z1.714
X-83.215 Y-154.799 Z1.695
X-83.685 Y-155.132 Z1.675
X-84.178 Y-155.501 Z1.653
G2 X-88.333 Y-153.442 Z1.452 I-1.568 J2.059
G1 Y-135.791 Z0.836
G2 X-87.328 Y-133.743 Z0.754 I2.587 J0
G1 X-86.528 Y-133.117 Z0.718
X-85.764 Y-132.496 Z0.684
X-85.031 Y-131.875 Z0.65
X-84.328 Y-131.253 Z0.617
X-83.654 Y-130.632 Z0.585
X-83.011 Y-130.01 Z0.554
X-82.396 Y-129.388 Z0.524
X-81.81 Y-128.767 Z0.494
X-81.253 Y-128.146 Z0.465
X-80.724 Y-127.527 Z0.436
X-80.222 Y-126.906 Z0.408
X-79.748 Y-126.287 Z0.381
X-79.301 Y-125.668 Z0.354
X-78.88 Y-125.05 Z0.328
X-78.485 Y-124.431 Z0.303
X-78.114 Y-123.813 Z0.278
X-77.77 Y-123.197 Z0.253
X-77.45 Y-122.581 Z0.229
X-77.153 Y-121.965 Z0.205
X-76.881 Y-121.35 Z0.181
X-76.632 Y-120.735 Z0.158
X-76.406 Y-120.122 Z0.135
X-76.202 Y-119.508 Z0.113
X-76.021 Y-118.895 Z0.09
X-75.862 Y-118.283 Z0.068
X-75.724 Y-117.669 Z0.046
X-75.608 Y-117.058 Z0.025
X-75.514 Y-116.446 Z0.003
X-75.44 Y-115.834 Z-0.019
X-75.388 Y-115.222 Z-0.04
X-75.357 Y-114.612 Z-0.061
X-75.346 Y-114 Z-0.083
X-75.357 Y-113.388 Z-0.104
X-75.388 Y-112.778 Z-0.125
X-75.44 Y-112.166 Z-0.147
X-75.514 Y-111.554 Z-0.168
X-75.608 Y-110.942 Z-0.19
X-75.724 Y-110.331 Z-0.212
X-75.862 Y-109.717 Z-0.234
X-76.021 Y-109.105 Z-0.256
X-76.202 Y-108.492 Z-0.278
X-76.406 Y-107.878 Z-0.301
X-76.632 Y-107.265 Z-0.324
X-76.881 Y-106.65 Z-0.347
X-77.153 Y-106.035 Z-0.37
X-77.45 Y-105.419 Z-0.394
X-77.77 Y-104.803 Z-0.418
X-78.114 Y-104.187 Z-0.443
X-78.485 Y-103.569 Z-0.468
X-78.88 Y-102.95 Z-0.494
X-79.301 Y-102.332 Z-0.52
X-79.748 Y-101.713 Z-0.547
X-80.222 Y-101.094 Z-0.574
X-80.724 Y-100.474 Z-0.602
X-81.253 Y-99.853 Z-0.63
X-81.81 Y-99.233 Z-0.659
X-82.396 Y-98.612 Z-0.689
X-83.01 Y-97.99 Z-0.72
X-83.654 Y-97.369 Z-0.751
X-84.328 Y-96.747 Z-0.783
X-85.031 Y-96.126 Z-0.816
X-85.764 Y-95.504 Z-0.849
X-86.528 Y-94.883 Z-0.883
X-87.328 Y-94.257 Z-0.919
G2 X-88.333 Y-92.251 Z-1 I1.582 J2.048
S6000
G1 Y-92.209 F1000
Y-74.558
G2 X-84.174 Y-72.502 I2.587 J0
G1 X-83.811 Y-72.777
X-83.46 Y-73.035
X-83.116 Y-73.28
X-82.78 Y-73.511
X-82.453 Y-73.729
X-82.133 Y-73.933
X-81.822 Y-74.124
X-81.519 Y-74.302
X-81.224 Y-74.467
X-80.938 Y-74.619
X-80.66 Y-74.758
X-80.39 Y-74.885
X-80.129 Y-75
X-79.877 Y-75.103
X-79.633 Y-75.194
X-79.398 Y-75.274
X-79.172 Y-75.343
X-78.955 Y-75.401
X-78.746 Y-75.45
X-78.546 Y-75.489
X-78.354 Y-75.518
X-78.171 Y-75.539
X-77.995 Y-75.552
X-77.827 Y-75.556
X-77.667 Y-75.554
X-77.514 Y-75.545
X-77.366 Y-75.529
X-77.225 Y-75.507
X-77.088 Y-75.478
X-76.956 Y-75.445
X-76.828 Y-75.405
X-76.703 Y-75.36
X-76.58 Y-75.308
X-76.477 Y-75.259
X-76.224 Y-75.116
X-75.993 Y-74.955
X-75.764 Y-74.765
X-75.537 Y-74.545
X-75.312 Y-74.292
X-75.092 Y-74.007
X-74.875 Y-73.689
X-74.664 Y-73.337
X-74.46 Y-72.954
X-74.263 Y-72.539
X-74.074 Y-72.092
X-73.894 Y-71.615
X-73.723 Y-71.109
X-73.562 Y-70.574
X-73.406 Y-69.988
X-73.381 Y-69.907
X-73.297 Y-69.649
X-73.261 Y-69.548
X-73.217 Y-69.449
X-73.099 Y-69.205
X-73.048 Y-69.109
X-72.992 Y-69.017
X-72.841 Y-68.791
X-72.779 Y-68.704
X-72.711 Y-68.621
X-72.531 Y-68.417
X-72.457 Y-68.339
X-72.378 Y-68.265
X-72.172 Y-68.088
X-72.089 Y-68.02
X-72 Y-67.959
X-71.773 Y-67.811
X-71.681 Y-67.755
X-71.585 Y-67.706
X-71.339 Y-67.59
X-71.24 Y-67.547
X-71.138 Y-67.511
X-70.88 Y-67.43
X-70.776 Y-67.401
G3 X-70.46 Y-67 I-0.097 J0.401
G1 Y-49
G3 X-70.667 Y-48.643 I-0.413 J0
G2 X-72.46 Y-45.536 I1.794 J3.107
G1 Y-9
G2 X-65.873 Y-2.412 I6.588 J0
G1 X-25.873
G2 X-19.285 Y-9 I0 J-6.588
G1 Y-45.536
G2 X-21.079 Y-48.643 I-3.587 J0
G3 X-21.285 Y-49 I0.206 J-0.357
G1 Y-67.072
X-21.283 Y-67.14
X-21.278 Y-67.173
X-21.271 Y-67.207
X-21.261 Y-67.241
X-21.248 Y-67.273
X-21.233 Y-67.303
X-21.215 Y-67.333
X-21.195 Y-67.361
X-21.172 Y-67.387
X-21.148 Y-67.411
X-21.121 Y-67.433
X-21.093 Y-67.452
X-21.063 Y-67.47
X-21.032 Y-67.484
X-21 Y-67.496
X-20.903 Y-67.523
X-20.862 Y-67.535
X-20.602 Y-67.615
X-20.5 Y-67.65
X-20.4 Y-67.693
X-20.153 Y-67.807
X-20.056 Y-67.856
X-19.963 Y-67.911
X-19.734 Y-68.058
X-19.646 Y-68.12
X-19.562 Y-68.187
X-19.355 Y-68.363
X-19.275 Y-68.436
X-19.201 Y-68.514
X-19.02 Y-68.717
X-18.951 Y-68.8
X-18.887 Y-68.888
X-18.735 Y-69.114
X-18.678 Y-69.205
X-18.627 Y-69.3
X-18.508 Y-69.544
X-18.464 Y-69.642
X-18.426 Y-69.744
X-18.341 Y-70.002
X-18.316 Y-70.083
X-18.158 Y-70.662
X-17.996 Y-71.19
X-17.825 Y-71.689
X-17.645 Y-72.159
X-17.456 Y-72.599
X-17.259 Y-73.008
X-17.054 Y-73.385
X-16.844 Y-73.73
X-16.628 Y-74.043
X-16.408 Y-74.323
X-16.185 Y-74.57
X-15.959 Y-74.786
X-15.73 Y-74.972
X-15.5 Y-75.129
X-15.264 Y-75.26
X-15.005 Y-75.374
X-14.898 Y-75.412
X-14.769 Y-75.45
X-14.638 Y-75.483
X-14.501 Y-75.51
X-14.359 Y-75.531
X-14.212 Y-75.546
X-14.058 Y-75.555
X-13.898 Y-75.556
X-13.73 Y-75.55
X-13.555 Y-75.537
X-13.371 Y-75.515
X-13.18 Y-75.485
X-12.979 Y-75.445
X-12.771 Y-75.396
X-12.554 Y-75.337
X-12.328 Y-75.268
X-12.094 Y-75.187
X-11.851 Y-75.096
X-11.599 Y-74.993
X-11.339 Y-74.878
X-11.071 Y-74.751
X-10.794 Y-74.611
X-10.508 Y-74.46
X-10.214 Y-74.295
X-9.913 Y-74.118
X-9.603 Y-73.927
X-9.284 Y-73.724
X-8.958 Y-73.507
X-8.624 Y-73.277
X-8.283 Y-73.033
X-7.933 Y-72.776
X-7.572 Y-72.502
G2 X-3.412 Y-74.558 I1.572 J-2.056
G1 Y-92.209
G2 X-4.418 Y-94.257 I-2.587 J0
G1 X-5.218 Y-94.883
X-5.982 Y-95.504
X-6.715 Y-96.126
X-7.418 Y-96.747
X-8.092 Y-97.369
X-8.735 Y-97.99
X-9.35 Y-98.612
X-9.936 Y-99.233
X-10.493 Y-99.853
X-11.022 Y-100.474
X-11.524 Y-101.094
X-11.998 Y-101.713
X-12.445 Y-102.332
X-12.866 Y-102.95
X-13.261 Y-103.568
X-13.631 Y-104.186
X-13.976 Y-104.803
X-14.296 Y-105.419
X-14.593 Y-106.035
X-14.865 Y-106.65
X-15.114 Y-107.265
X-15.34 Y-107.878
X-15.544 Y-108.492
X-15.725 Y-109.105
X-15.884 Y-109.717
X-16.021 Y-110.331
X-16.137 Y-110.942
X-16.232 Y-111.554
X-16.305 Y-112.166
X-16.358 Y-112.777
X-16.389 Y-113.388
X-16.4 Y-114
X-16.389 Y-114.612
X-16.358 Y-115.223
X-16.305 Y-115.834
X-16.232 Y-116.446
X-16.137 Y-117.058
X-16.021 Y-117.669
X-15.884 Y-118.283
X-15.725 Y-118.895
X-15.544 Y-119.508
X-15.34 Y-120.122
X-15.114 Y-120.735
X-14.865 Y-121.35
X-14.593 Y-121.965
X-14.296 Y-122.581
X-13.976 Y-123.197
X-13.631 Y-123.814
X-13.261 Y-124.432
X-12.866 Y-125.05
X-12.445 Y-125.668
X-11.998 Y-126.287
X-11.524 Y-126.906
X-11.022 Y-127.527
X-10.493 Y-128.146
X-9.936 Y-128.767
X-9.35 Y-129.388
X-8.735 Y-130.01
X-8.091 Y-130.632
X-7.418 Y-131.253
X-6.715 Y-131.875
X-5.982 Y-132.496
X-5.218 Y-133.117
X-4.418 Y-133.743
G2 X-3.412 Y-135.791 I-1.582 J-2.048
G1 Y-153.442
G2 X-7.568 Y-155.5 I-2.587 J0
G1 X-8.061 Y-155.132
X-8.531 Y-154.799
X-8.985 Y-154.498
X-9.422 Y-154.227
X-9.841 Y-153.987
X-10.243 Y-153.777
X-10.629 Y-153.594
X-10.993 Y-153.441
X-11.338 Y-153.316
X-11.663 Y-153.218
X-11.972 Y-153.144
X-12.26 Y-153.092
X-12.527 Y-153.063
X-12.776 Y-153.054
X-13.01 Y-153.062
X-13.229 Y-153.087
X-13.437 Y-153.128
X-13.636 Y-153.183
X-13.824 Y-153.253
X-14.01 Y-153.34
X-14.198 Y-153.446
X-14.381 Y-153.568
X-14.563 Y-153.71
X-14.748 Y-153.875
X-14.932 Y-154.062
X-15.116 Y-154.27
X-15.298 Y-154.503
X-15.478 Y-154.758
X-15.657 Y-155.038
X-15.833 Y-155.341
X-16.005 Y-155.666
X-16.185 Y-156.035
X-16.197 Y-156.06
X-16.261 Y-156.187
X-16.316 Y-156.286
X-16.389 Y-156.408
X-16.452 Y-156.504
X-16.533 Y-156.62
X-16.601 Y-156.71
X-16.691 Y-156.82
X-16.763 Y-156.902
X-16.86 Y-157.006
X-16.945 Y-157.09
X-17.05 Y-157.186
X-17.129 Y-157.255
X-17.24 Y-157.344
X-17.337 Y-157.415
X-17.453 Y-157.495
X-17.545 Y-157.553
X-17.667 Y-157.625
X-17.769 Y-157.681
X-17.896 Y-157.744
X-17.997 Y-157.79
X-18.129 Y-157.844
X-18.229 Y-157.881
X-18.364 Y-157.926
X-18.475 Y-157.958
X-18.612 Y-157.993
X-18.724 Y-158.018
X-18.864 Y-158.043
X-18.976 Y-158.059
X-19.117 Y-158.074
X-19.229 Y-158.082
X-19.371 Y-158.087
X-19.427
X-20.873
G3 X-21.285 Y-158.5 I0 J-0.413
G1 Y-176.937
X-21.278 Y-177.045
X-21.267 Y-177.098
X-21.25 Y-177.149
X-21.225 Y-177.198
X-21.193 Y-177.244
X-21.157 Y-177.283
X-21.115 Y-177.319
X-20.978 Y-177.406
X-20.749 Y-177.552
X-20.66 Y-177.614
X-20.575 Y-177.681
X-20.368 Y-177.857
X-20.288 Y-177.93
X-20.213 Y-178.008
X-20.031 Y-178.211
X-19.962 Y-178.293
X-19.899 Y-178.381
X-19.746 Y-178.606
X-19.689 Y-178.697
X-19.638 Y-178.793
X-19.517 Y-179.037
X-19.473 Y-179.135
X-19.435 Y-179.235
X-19.349 Y-179.493
X-19.318 Y-179.597
X-19.295 Y-179.703
X-19.244 Y-179.97
X-19.228 Y-180.077
X-19.219 Y-180.185
X-19.205 Y-180.457
X-19.204 Y-180.562
X-19.226 Y-181.943
X-19.243 Y-183.306
X-19.256 Y-184.651
X-19.266 Y-185.974
X-19.273 Y-187.274
X-19.278 Y-188.548
X-19.281 Y-189.793
X-19.283 Y-191.009
X-19.284 Y-191.047
X-19.29 Y-191.293
X-19.294 Y-191.371
X-19.312 Y-191.616
X-19.32 Y-191.693
X-19.351 Y-191.937
X-19.362 Y-192.015
X-19.405 Y-192.257
X-19.42 Y-192.334
X-19.474 Y-192.573
X-19.493 Y-192.647
X-19.559 Y-192.884
X-19.582 Y-192.959
X-19.659 Y-193.192
X-19.686 Y-193.266
X-19.774 Y-193.495
X-19.805 Y-193.568
X-19.905 Y-193.792
X-19.937 Y-193.861
X-20.048 Y-194.08
X-20.085 Y-194.149
X-20.206 Y-194.362
X-20.245 Y-194.427
X-20.376 Y-194.634
X-20.423 Y-194.703
X-20.564 Y-194.902
X-20.608 Y-194.96
X-20.758 Y-195.153
X-20.807 Y-195.212
X-20.967 Y-195.398
X-21.023 Y-195.46
X-21.193 Y-195.637
X-21.243 Y-195.687
X-21.421 Y-195.857
X-21.485 Y-195.915
X-21.671 Y-196.074
X-21.725 Y-196.119
X-21.919 Y-196.27
X-21.982 Y-196.317
X-22.182 Y-196.458
X-22.252 Y-196.504
X-22.458 Y-196.634
X-22.519 Y-196.67
X-22.732 Y-196.791
X-22.804 Y-196.83
X-23.023 Y-196.94
X-23.095 Y-196.974
X-23.32 Y-197.073
X-23.385 Y-197.1
X-23.614 Y-197.189
X-23.696 Y-197.218
X-23.929 Y-197.294
X-23.994 Y-197.314
X-24.23 Y-197.38
X-24.314 Y-197.401
X-24.553 Y-197.454
X-24.624 Y-197.468
X-24.865 Y-197.51
X-24.943 Y-197.522
X-25.186 Y-197.552
X-25.264 Y-197.559
X-25.509 Y-197.577
X-25.587 Y-197.581
X-25.832 Y-197.587
X-25.871
X-65.875
X-65.914
X-66.159 Y-197.581
X-66.237 Y-197.577
X-66.482 Y-197.559
X-66.56 Y-197.552
X-66.803 Y-197.522
X-66.881 Y-197.51
X-67.123 Y-197.468
X-67.2 Y-197.453
X-67.44 Y-197.399
X-67.517 Y-197.379
X-67.754 Y-197.313
X-67.826 Y-197.291
X-68.059 Y-197.214
X-68.13 Y-197.189
X-68.359 Y-197.101
X-68.436 Y-197.069
X-68.661 Y-196.969
X-68.727 Y-196.938
X-68.946 Y-196.828
X-69.018 Y-196.789
X-69.231 Y-196.668
X-69.296 Y-196.629
X-69.503 Y-196.498
X-69.568 Y-196.454
X-69.768 Y-196.313
X-69.827 Y-196.27
X-70.02 Y-196.12
X-70.087 Y-196.065
X-70.272 Y-195.904
X-70.326 Y-195.856
X-70.504 Y-195.687
X-70.56 Y-195.63
X-70.729 Y-195.452
X-70.779 Y-195.397
X-70.94 Y-195.212
X-70.991 Y-195.15
X-71.141 Y-194.957
X-71.188 Y-194.895
X-71.329 Y-194.695
X-71.373 Y-194.629
X-71.504 Y-194.422
X-71.543 Y-194.356
X-71.664 Y-194.143
X-71.701 Y-194.075
X-71.811 Y-193.856
X-71.844 Y-193.787
X-71.943 Y-193.563
X-71.974 Y-193.489
X-72.062 Y-193.26
X-72.089 Y-193.187
X-72.166 Y-192.954
X-72.188 Y-192.88
X-72.254 Y-192.644
X-72.273 Y-192.568
X-72.327 Y-192.329
X-72.342 Y-192.253
X-72.384 Y-192.012
X-72.395 Y-191.935
X-72.426 Y-191.692
X-72.433 Y-191.615
X-72.452 Y-191.371
X-72.456 Y-191.293
X-72.462 Y-191.047
X-72.463 Y-191.009
X-72.465 Y-189.793
X-72.468 Y-188.548
X-72.473 Y-187.274
X-72.48 Y-185.974
X-72.49 Y-184.651
X-72.503 Y-183.306
X-72.52 Y-181.943
X-72.542 Y-180.562
X-72.541 Y-180.456
X-72.527 Y-180.184
X-72.518 Y-180.077
X-72.501 Y-179.97
X-72.451 Y-179.702
X-72.427 Y-179.596
X-72.396 Y-179.492
X-72.31 Y-179.234
X-72.272 Y-179.133
X-72.228 Y-179.035
X-72.107 Y-178.791
X-72.056 Y-178.696
X-71.999 Y-178.605
X-71.847 Y-178.38
X-71.783 Y-178.291
X-71.713 Y-178.208
X-71.531 Y-178.006
X-71.457 Y-177.929
X-71.378 Y-177.857
X-71.17 Y-177.681
X-71.086 Y-177.614
X-70.997 Y-177.553
X-70.768 Y-177.407
X-70.63 Y-177.319
X-70.589 Y-177.284
X-70.552 Y-177.243
X-70.521 Y-177.198
X-70.497 Y-177.15
X-70.478 Y-177.097
X-70.468 Y-177.044
X-70.46 Y-176.937
Y-158.5
G3 X-70.873 Y-158.087 I-0.412 J0
G1 X-72.319
X-72.375
X-72.517 Y-158.082
X-72.629 Y-158.074
X-72.77 Y-158.059
X-72.882 Y-158.043
X-73.022 Y-158.018
X-73.133 Y-157.994
X-73.271 Y-157.959
X-73.382 Y-157.926
X-73.517 Y-157.881
X-73.618 Y-157.843
