;FLAVOR:Marlin
;TIME:2006
;Filament used: 1.81265m
;Layer height: 0.15
;MINX:-40.088
;MINY:-88.569
;MINZ:0.3
;MAXX:39.512
;MAXY:-11.157
;MAXZ:4.95
;Generated with Cura_SteamEngine master
M140 S60
M105
M190 S60
M104 S200
M105
M109 S200
M82 ;absolute extrusion mode
;FLAVOR:Marlin
M82 ;absolute extrusion mode
G21
G90
M82
M107 T0
G28
G92 E0
G0 E3 F200
G92 E0 ; reset extrusion distance
M106 S255 ; Enable cooling fan full speed
G1 X-98 Y0 Z0.4 F3000 ; move to arc start
G3 X0 Y-98 I98 Z0.4 E40 F400 ; lay arc stripe 90deg
G92 E0 ; reset extrusion distance
G4 P500 ; wait for 0.5 sec
G0 Z10 E-1 ; Lift 15mm and retract 1mm filament
G4 P2000 ; wait for 5 sec
G0 Z15
M107 ; Disable cooling fan
G1 X0 Y-85 Z4 E0 F3000 ; get off the bed
G92 E0
G92 E0
G1 F1500 E-6.5
;LAYER_COUNT:32
;LAYER:0
M107
G0 F3600 X28.711 Y-11.157 Z0.3
;TYPE:SKIRT
G1 F1500 E0
G1 F1800 X-29.287 Y-11.157 E2.89353
G1 X-29.97 Y-11.187 E2.92764
G1 X-30.493 Y-11.233 E2.95383
G1 X-31.276 Y-11.342 E2.99327
G1 X-31.814 Y-11.465 E3.02081
G1 X-32.318 Y-11.599 E3.04683
G1 X-33.07 Y-11.84 E3.08622
G1 X-33.623 Y-12.074 E3.11618
G1 X-34.099 Y-12.297 E3.1424
G1 X-34.796 Y-12.667 E3.18177
G1 X-35.268 Y-12.974 E3.20987
G1 X-35.693 Y-13.272 E3.23576
G1 X-36.316 Y-13.757 E3.27515
G1 X-36.73 Y-14.143 E3.30339
G1 X-37.102 Y-14.515 E3.32964
G1 X-37.632 Y-15.101 E3.36906
G1 X-37.973 Y-15.552 E3.39726
G1 X-38.271 Y-15.977 E3.42316
G1 X-38.692 Y-16.646 E3.4626
G1 X-38.951 Y-17.152 E3.49096
G1 X-39.174 Y-17.629 E3.51723
G1 X-39.472 Y-18.36 E3.55661
G1 X-39.646 Y-18.928 E3.58625
G1 X-39.78 Y-19.432 E3.61226
G1 X-39.944 Y-20.204 E3.65164
G1 X-40.012 Y-20.749 E3.67904
G1 X-40.058 Y-21.269 E3.70508
G1 X-40.088 Y-21.956 E3.73939
G1 X-40.088 Y-22.357 E3.7594
G1 X-40.048 Y-23.146 E3.79881
G1 X-39.929 Y-23.926 E3.83818
G1 X-39.731 Y-24.691 E3.8776
G1 X-39.457 Y-25.431 E3.91697
G1 X-39.109 Y-26.14 E3.95637
G1 X-38.691 Y-26.811 E3.99581
G1 X-38.208 Y-27.435 E4.03518
G1 X-37.665 Y-28.008 E4.07456
G1 X-37.088 Y-28.504 E4.11253
G1 X-37.088 Y-80.769 E6.72004
G1 X-37.048 Y-81.558 E6.75945
G1 X-36.929 Y-82.338 E6.79882
G1 X-36.731 Y-83.103 E6.83824
G1 X-36.457 Y-83.843 E6.87761
G1 X-36.109 Y-84.552 E6.91701
G1 X-35.691 Y-85.223 E6.95645
G1 X-35.208 Y-85.847 E6.99582
G1 X-34.665 Y-86.42 E7.0352
G1 X-34.066 Y-86.935 E7.07461
G1 X-33.418 Y-87.386 E7.114
G1 X-32.727 Y-87.77 E7.15344
G1 X-32.002 Y-88.082 E7.19282
G1 X-31.249 Y-88.319 E7.2322
G1 X-30.475 Y-88.478 E7.27162
G1 X-29.69 Y-88.559 E7.311
G1 X-29.286 Y-88.569 E7.33116
G1 X-25.985 Y-88.568 E7.49585
G1 X-25.196 Y-88.528 E7.53526
G1 X-24.415 Y-88.408 E7.57468
G1 X-23.651 Y-88.21 E7.61406
G1 X-23.03 Y-87.986 E7.64699
G1 X-22.72 Y-87.859 E7.66371
G1 X-22.005 Y-87.523 E7.70312
G1 X-21.328 Y-87.116 E7.74253
G1 X-20.782 Y-86.707 E7.77656
G1 X20.215 Y-86.707 E9.82191
G1 X20.571 Y-86.989 E9.84457
G1 X21.236 Y-87.414 E9.88394
G1 X22.117 Y-87.846 E9.9329
G1 X22.426 Y-87.974 E9.94958
G1 X23.17 Y-88.239 E9.98899
G1 X23.937 Y-88.427 E10.02839
G1 X24.719 Y-88.537 E10.06778
G1 X25.411 Y-88.568 E10.10234
G1 X28.712 Y-88.568 E10.26703
G1 X29.501 Y-88.528 E10.30644
G1 X30.281 Y-88.409 E10.34581
G1 X31.046 Y-88.211 E10.38523
G1 X31.786 Y-87.937 E10.4246
G1 X32.495 Y-87.589 E10.464
G1 X33.166 Y-87.171 E10.50344
G1 X33.79 Y-86.688 E10.54281
G1 X34.363 Y-86.145 E10.5822
G1 X34.878 Y-85.546 E10.62161
G1 X35.329 Y-84.898 E10.661
G1 X35.713 Y-84.207 E10.70043
G1 X36.025 Y-83.482 E10.73981
G1 X36.262 Y-82.729 E10.7792
G1 X36.421 Y-81.955 E10.81862
G1 X36.502 Y-81.17 E10.85799
G1 X36.512 Y-80.768 E10.87805
G1 X36.512 Y-28.492 E13.48611
G1 X36.79 Y-28.277 E13.50365
G1 X37.363 Y-27.734 E13.54303
G1 X37.878 Y-27.135 E13.58244
G1 X38.329 Y-26.487 E13.62183
G1 X38.713 Y-25.796 E13.66127
G1 X39.025 Y-25.071 E13.70065
G1 X39.262 Y-24.318 E13.74003
G1 X39.421 Y-23.544 E13.77945
G1 X39.502 Y-22.759 E13.81882
G1 X39.512 Y-21.958 E13.85879
G1 X39.483 Y-21.288 E13.89225
G1 X39.438 Y-20.766 E13.91839
G1 X39.331 Y-19.984 E13.95776
G1 X39.201 Y-19.418 E13.98674
G1 X39.066 Y-18.914 E14.01277
G1 X38.824 Y-18.162 E14.05218
G1 X38.598 Y-17.629 E14.08106
G1 X38.375 Y-17.152 E14.10733
G1 X38.005 Y-16.454 E14.14675
G1 X37.695 Y-15.977 E14.17513
G1 X37.397 Y-15.552 E14.20102
G1 X36.912 Y-14.929 E14.24041
G1 X36.534 Y-14.522 E14.26813
G1 X36.163 Y-14.15 E14.29434
G1 X35.578 Y-13.62 E14.33372
G1 X35.111 Y-13.267 E14.36293
G1 X34.685 Y-12.969 E14.38886
G1 X34.016 Y-12.549 E14.42827
G1 X33.523 Y-12.297 E14.45589
G1 X33.047 Y-12.074 E14.48212
G1 X32.316 Y-11.775 E14.52152
G1 X31.742 Y-11.599 E14.55147
G1 X31.238 Y-11.465 E14.57749
G1 X30.466 Y-11.301 E14.61687
G1 X29.917 Y-11.233 E14.64447
G1 X29.394 Y-11.187 E14.67066
G1 X28.711 Y-11.157 E14.70477
G0 F3600 X28.711 Y-11.557
G1 F1800 X-29.287 Y-11.557 E17.5983
G1 X-29.935 Y-11.585 E17.63066
G1 X-30.458 Y-11.631 E17.65685
G1 X-31.22 Y-11.739 E17.69525
G1 X-31.711 Y-11.851 E17.72037
G1 X-32.215 Y-11.985 E17.74639
G1 X-32.947 Y-12.221 E17.78476
G1 X-33.453 Y-12.436 E17.81219
G1 X-33.929 Y-12.659 E17.83842
G1 X-34.608 Y-13.021 E17.8768
G1 X-35.038 Y-13.301 E17.9024
G1 X-35.463 Y-13.599 E17.9283
G1 X-36.069 Y-14.073 E17.96668
G1 X-36.448 Y-14.425 E17.99249
G1 X-36.82 Y-14.797 E18.01874
G1 X-37.334 Y-15.369 E18.0571
G1 X-37.646 Y-15.782 E18.08293
G1 X-37.944 Y-16.207 E18.10882
G1 X-38.352 Y-16.858 E18.14715
G1 X-38.589 Y-17.321 E18.1731
G1 X-38.812 Y-17.798 E18.19937
G1 X-39.101 Y-18.511 E18.23775
G1 X-39.26 Y-19.031 E18.26488
G1 X-39.394 Y-19.535 E18.2909
G1 X-39.552 Y-20.287 E18.32924
G1 X-39.613 Y-20.784 E18.35422
G1 X-39.659 Y-21.304 E18.38026
G1 X-39.688 Y-21.956 E18.41282
G1 X-39.688 Y-22.357 E18.43283
G1 X-39.648 Y-23.125 E18.4712
G1 X-39.529 Y-23.885 E18.50958
G1 X-39.331 Y-24.628 E18.54794
G1 X-39.057 Y-25.347 E18.58633
G1 X-38.71 Y-26.033 E18.62468
G1 X-38.294 Y-26.68 E18.66305
G1 X-37.813 Y-27.28 E18.70142
G1 X-37.272 Y-27.827 E18.7398
G1 X-36.688 Y-28.306 E18.77749
G1 X-36.688 Y-80.769 E21.39488
G1 X-36.648 Y-81.537 E21.43324
G1 X-36.529 Y-82.297 E21.47162
G1 X-36.331 Y-83.04 E21.50998
G1 X-36.057 Y-83.759 E21.54837
G1 X-35.71 Y-84.445 E21.58673
G1 X-35.294 Y-85.092 E21.6251
G1 X-34.813 Y-85.692 E21.66347
G1 X-34.272 Y-86.239 E21.70185
G1 X-33.677 Y-86.727 E21.74024
G1 X-33.035 Y-87.15 E21.7786
G1 X-32.352 Y-87.505 E21.817
G1 X-31.637 Y-87.786 E21.85533
G1 X-30.895 Y-87.992 E21.89375
G1 X-30.137 Y-88.12 E21.9321
G1 X-29.286 Y-88.169 E21.97463
G1 X-25.985 Y-88.168 E22.13931
G1 X-25.217 Y-88.128 E22.17768
G1 X-24.457 Y-88.008 E22.21607
G1 X-23.714 Y-87.81 E22.25443
G1 X-23.182 Y-87.616 E22.28268
G1 X-22.872 Y-87.489 E22.29939
G1 X-22.176 Y-87.16 E22.3378
G1 X-21.518 Y-86.762 E22.37617
G1 X-20.918 Y-86.307 E22.41374
G1 X20.352 Y-86.307 E24.4727
G1 X20.852 Y-86.698 E24.50437
G1 X21.504 Y-87.106 E24.54274
G1 X22.27 Y-87.477 E24.58521
G1 X22.579 Y-87.605 E24.60189
G1 X23.304 Y-87.862 E24.64027
G1 X24.052 Y-88.042 E24.67865
G1 X24.814 Y-88.144 E24.71701
G1 X25.411 Y-88.168 E24.74681
G1 X28.712 Y-88.168 E24.9115
G1 X29.48 Y-88.128 E24.94987
G1 X30.24 Y-88.009 E24.98825
G1 X30.983 Y-87.811 E25.02661
G1 X31.702 Y-87.537 E25.065
G1 X32.388 Y-87.19 E25.10335
G1 X33.035 Y-86.774 E25.14173
G1 X33.635 Y-86.293 E25.18009
G1 X34.182 Y-85.752 E25.21848
G1 X34.67 Y-85.157 E25.25687
G1 X35.093 Y-84.515 E25.29522
G1 X35.448 Y-83.832 E25.33363
G1 X35.729 Y-83.117 E25.37195
G1 X35.935 Y-82.375 E25.41037
G1 X36.063 Y-81.617 E25.44873
G1 X36.112 Y-80.768 E25.49115
G1 X36.112 Y-28.301 E28.10874
G1 X36.635 Y-27.882 E28.14218
G1 X37.182 Y-27.341 E28.18056
G1 X37.67 Y-26.746 E28.21895
G1 X38.093 Y-26.104 E28.25731
G1 X38.448 Y-25.421 E28.29571
G1 X38.729 Y-24.706 E28.33404
G1 X38.935 Y-23.964 E28.37246
G1 X39.063 Y-23.206 E28.41081
G1 X39.112 Y-22.357 E28.45324
G1 X39.112 Y-21.958 E28.47314
G1 X39.085 Y-21.322 E28.5049
G1 X39.04 Y-20.8 E28.53104
G1 X38.934 Y-20.039 E28.56937
G1 X38.815 Y-19.521 E28.59589
G1 X38.68 Y-19.017 E28.62192
G1 X38.443 Y-18.286 E28.66026
G1 X38.236 Y-17.798 E28.6867
G1 X38.013 Y-17.321 E28.71297
G1 X37.651 Y-16.642 E28.75136
G1 X37.368 Y-16.207 E28.77725
G1 X37.07 Y-15.782 E28.80315
G1 X36.596 Y-15.176 E28.84153
G1 X36.251 Y-14.804 E28.86685
G1 X35.88 Y-14.432 E28.89306
G1 X35.309 Y-13.917 E28.93142
G1 X34.882 Y-13.594 E28.95813
G1 X34.456 Y-13.296 E28.98407
G1 X33.803 Y-12.889 E29.02246
G1 X33.353 Y-12.659 E29.04767
G1 X32.877 Y-12.436 E29.07389
G1 X32.165 Y-12.146 E29.11225
G1 X31.639 Y-11.985 E29.13969
G1 X31.135 Y-11.851 E29.16571
G1 X30.383 Y-11.693 E29.20405
G1 X29.882 Y-11.631 E29.22923
G1 X29.359 Y-11.585 E29.25543
G1 X28.711 Y-11.557 E29.28779
G0 F3600 X28.711 Y-11.957
G1 F1800 X-29.287 Y-11.957 E32.18132
G1 X-29.9 Y-11.984 E32.21193
G1 X-30.423 Y-12.03 E32.23812
G1 X-31.164 Y-12.135 E32.27546
G1 X-31.609 Y-12.238 E32.29825
G1 X-32.113 Y-12.372 E32.32427
G1 X-32.824 Y-12.603 E32.36157
G1 X-33.284 Y-12.798 E32.38649
G1 X-33.76 Y-13.021 E32.41272
G1 X-34.419 Y-13.374 E32.45001
G1 X-34.809 Y-13.629 E32.47326
G1 X-35.234 Y-13.927 E32.49916
G1 X-35.822 Y-14.388 E32.53643
G1 X-36.165 Y-14.708 E32.55984
G1 X-36.537 Y-15.08 E32.58608
G1 X-37.037 Y-15.637 E32.62343
G1 X-37.318 Y-16.011 E32.64677
G1 X-37.616 Y-16.436 E32.67266
G1 X-38.013 Y-17.071 E32.71002
G1 X-38.226 Y-17.49 E32.73347
G1 X-38.449 Y-17.967 E32.75974
G1 X-38.729 Y-18.661 E32.79708
G1 X-38.873 Y-19.133 E32.8217
G1 X-39.007 Y-19.637 E32.84772
G1 X-39.16 Y-20.37 E32.88507
G1 X-39.215 Y-20.819 E32.90764
G1 X-39.261 Y-21.339 E32.93369
G1 X-39.288 Y-21.956 E32.9645
G1 X-39.288 Y-22.357 E32.9845
G1 X-39.248 Y-23.104 E33.02183
G1 X-39.129 Y-23.842 E33.05912
G1 X-38.931 Y-24.564 E33.09647
G1 X-38.658 Y-25.26 E33.13377
G1 X-38.311 Y-25.923 E33.1711
G1 X-37.896 Y-26.546 E33.20845
G1 X-37.417 Y-27.12 E33.24575
G1 X-36.88 Y-27.641 E33.28308
G1 X-36.288 Y-28.101 E33.32048
G1 X-36.288 Y-80.769 E35.9481
G1 X-36.248 Y-81.516 E35.98542
G1 X-36.129 Y-82.254 E36.02271
G1 X-35.931 Y-82.976 E36.06006
G1 X-35.658 Y-83.672 E36.09736
G1 X-35.311 Y-84.335 E36.1347
G1 X-34.896 Y-84.958 E36.17204
G1 X-34.417 Y-85.532 E36.20934
G1 X-33.88 Y-86.053 E36.24667
G1 X-33.29 Y-86.512 E36.28396
G1 X-32.654 Y-86.907 E36.32131
G1 X-31.98 Y-87.231 E36.35862
G1 X-31.275 Y-87.481 E36.39594
G1 X-30.547 Y-87.655 E36.43329
G1 X-29.805 Y-87.75 E36.47061
G1 X-29.286 Y-87.769 E36.49652
G1 X-25.985 Y-87.768 E36.6612
G1 X-25.238 Y-87.728 E36.69853
G1 X-24.499 Y-87.608 E36.73588
G1 X-23.778 Y-87.41 E36.77318
G1 X-23.023 Y-87.118 E36.81357
G1 X-22.347 Y-86.798 E36.85088
G1 X-21.709 Y-86.408 E36.88819
G1 X-21.116 Y-85.951 E36.92554
G1 X-21.07 Y-85.907 E36.92871
G1 X20.496 Y-85.907 E39.00245
G1 X20.54 Y-85.949 E39.00548
G1 X21.132 Y-86.405 E39.04276
G1 X21.77 Y-86.796 E39.0801
G1 X22.423 Y-87.107 E39.11618
G1 X22.732 Y-87.235 E39.13287
G1 X23.437 Y-87.484 E39.17017
G1 X24.165 Y-87.656 E39.20749
G1 X24.908 Y-87.75 E39.24485
G1 X25.411 Y-87.768 E39.26996
G1 X28.712 Y-87.768 E39.43465
G1 X29.459 Y-87.728 E39.47197
G1 X30.197 Y-87.609 E39.50927
G1 X30.919 Y-87.411 E39.54662
G1 X31.615 Y-87.138 E39.58392
G1 X32.278 Y-86.791 E39.62125
G1 X32.901 Y-86.376 E39.6586
G1 X33.475 Y-85.897 E39.6959
G1 X33.996 Y-85.36 E39.73322
G1 X34.455 Y-84.77 E39.77052
G1 X34.85 Y-84.134 E39.80787
G1 X35.174 Y-83.46 E39.84518
G1 X35.424 Y-82.755 E39.8825
G1 X35.598 Y-82.027 E39.91984
G1 X35.693 Y-81.285 E39.95716
G1 X35.712 Y-80.768 E39.98297
G1 X35.712 Y-28.091 E42.61104
G1 X35.901 Y-27.965 E42.62237
G1 X36.475 Y-27.486 E42.65967
G1 X36.996 Y-26.949 E42.697
G1 X37.455 Y-26.359 E42.73429
G1 X37.85 Y-25.723 E42.77164
G1 X38.174 Y-25.049 E42.80895
G1 X38.424 Y-24.344 E42.84627
G1 X38.598 Y-23.616 E42.88361
G1 X38.693 Y-22.874 E42.92093
G1 X38.712 Y-22.357 E42.94674
G1 X38.712 Y-21.958 E42.96665
G1 X38.686 Y-21.357 E42.99666
G1 X38.641 Y-20.835 E43.0228
G1 X38.537 Y-20.094 E43.06013
G1 X38.429 Y-19.625 E43.08414
G1 X38.294 Y-19.121 E43.11017
G1 X38.062 Y-18.41 E43.14749
G1 X37.873 Y-17.967 E43.17152
G1 X37.65 Y-17.49 E43.19779
G1 X37.298 Y-16.831 E43.23506
G1 X37.04 Y-16.436 E43.2586
G1 X36.742 Y-16.011 E43.28449
G1 X36.281 Y-15.423 E43.32177
G1 X35.967 Y-15.087 E43.34471
G1 X35.596 Y-14.715 E43.37093
G1 X35.041 Y-14.214 E43.40823
G1 X34.652 Y-13.922 E43.43249
G1 X34.226 Y-13.624 E43.45843
G1 X33.591 Y-13.229 E43.49574
G1 X33.184 Y-13.021 E43.51854
G1 X32.708 Y-12.798 E43.54477
G1 X32.014 Y-12.517 E43.58212
G1 X31.537 Y-12.372 E43.607
G1 X31.033 Y-12.238 E43.63301
G1 X30.3 Y-12.085 E43.67037
G1 X29.847 Y-12.03 E43.69314
G1 X29.324 Y-11.984 E43.71933
G1 X28.711 Y-11.957 E43.74994
G0 F3600 X28.711 Y-12.357
G1 F1800 X-29.287 Y-12.357 E46.64348
G1 X-29.865 Y-12.382 E46.67234
G1 X-30.388 Y-12.428 E46.69853
G1 X-31.107 Y-12.532 E46.73478
G1 X-31.506 Y-12.625 E46.75522
G1 X-32.01 Y-12.759 E46.78123
G1 X-32.7 Y-12.984 E46.81744
G1 X-33.114 Y-13.16 E46.83989
G1 X-33.59 Y-13.383 E46.86611
G1 X-34.23 Y-13.727 E46.90236
G1 X-34.579 Y-13.956 E46.92319
G1 X-35.004 Y-14.254 E46.94908
G1 X-35.575 Y-14.703 E46.98532
G1 X-35.882 Y-14.991 E47.00632
G1 X-36.254 Y-15.363 E47.03257
G1 X-36.738 Y-15.904 E47.06879
G1 X-36.991 Y-16.241 E47.08981
G1 X-37.289 Y-16.666 E47.11571
G1 X-37.673 Y-17.283 E47.15196
G1 X-37.864 Y-17.66 E47.17305
G1 X-38.087 Y-18.137 E47.19932
G1 X-38.358 Y-18.811 E47.23556
G1 X-38.486 Y-19.236 E47.2577
G1 X-38.62 Y-19.74 E47.28372
G1 X-38.768 Y-20.451 E47.31995
G1 X-38.816 Y-20.854 E47.3402
G1 X-38.862 Y-21.374 E47.36625
G1 X-38.888 Y-21.956 E47.39531
G1 X-38.888 Y-22.357 E47.41532
G1 X-38.848 Y-23.082 E47.45154
G1 X-38.729 Y-23.799 E47.4878
G1 X-38.531 Y-24.498 E47.52405
G1 X-38.258 Y-25.171 E47.56028
G1 X-37.913 Y-25.81 E47.59651
G1 X-37.499 Y-26.407 E47.63276
G1 X-37.023 Y-26.955 E47.66897
G1 X-36.489 Y-27.448 E47.70523
G1 X-35.904 Y-27.878 E47.74145
G1 X-35.888 Y-27.887 E47.74237
G1 X-35.888 Y-80.769 E50.38066
G1 X-35.848 Y-81.494 E50.41689
G1 X-35.729 Y-82.211 E50.45315
G1 X-35.531 Y-82.91 E50.48939
G1 X-35.258 Y-83.583 E50.52563
G1 X-34.913 Y-84.222 E50.56185
G1 X-34.499 Y-84.819 E50.5981
G1 X-34.023 Y-85.367 E50.63431
G1 X-33.489 Y-85.86 E50.67057
G1 X-32.904 Y-86.29 E50.70679
G1 X-32.275 Y-86.654 E50.74305
G1 X-31.61 Y-86.947 E50.77931
G1 X-30.917 Y-87.165 E50.81555
G1 X-30.205 Y-87.305 E50.85175
G1 X-29.286 Y-87.369 E50.89771
G1 X-25.985 Y-87.368 E51.0624
G1 X-25.26 Y-87.328 E51.09863
G1 X-24.543 Y-87.208 E51.13489
G1 X-23.844 Y-87.011 E51.17113
G1 X-23.175 Y-86.748 E51.20699
G1 X-22.519 Y-86.436 E51.24323
G1 X-21.901 Y-86.054 E51.27948
G1 X-21.329 Y-85.607 E51.31569
G1 X-21.227 Y-85.507 E51.32282
G1 X20.657 Y-85.507 E53.41242
G1 X20.832 Y-85.673 E53.42446
G1 X21.411 Y-86.112 E53.46071
G1 X22.035 Y-86.484 E53.49695
G1 X22.576 Y-86.738 E53.52677
G1 X22.885 Y-86.866 E53.54345
G1 X23.57 Y-87.106 E53.57967
G1 X24.278 Y-87.27 E53.61592
G1 X24.999 Y-87.355 E53.65214
G1 X25.411 Y-87.368 E53.67271
G1 X28.712 Y-87.368 E53.8374
G1 X29.437 Y-87.328 E53.87362
G1 X30.154 Y-87.209 E53.90988
G1 X30.853 Y-87.011 E53.94613
G1 X31.526 Y-86.738 E53.98236
G1 X32.165 Y-86.393 E54.01859
G1 X32.762 Y-85.979 E54.05484
G1 X33.31 Y-85.503 E54.09105
G1 X33.803 Y-84.969 E54.12731
G1 X34.233 Y-84.384 E54.16353
G1 X34.597 Y-83.755 E54.19979
G1 X34.89 Y-83.09 E54.23604
G1 X35.108 Y-82.397 E54.27229
G1 X35.248 Y-81.685 E54.30849
G1 X35.312 Y-80.768 E54.35435
G1 X35.312 Y-27.88 E56.99294
G1 X35.762 Y-27.568 E57.02026
G1 X36.31 Y-27.092 E57.05647
G1 X36.803 Y-26.558 E57.09273
G1 X37.233 Y-25.973 E57.12895
G1 X37.597 Y-25.344 E57.16521
G1 X37.89 Y-24.679 E57.20147
G1 X38.108 Y-23.986 E57.23771
G1 X38.248 Y-23.274 E57.27391
G1 X38.312 Y-22.357 E57.31977
G1 X38.312 Y-21.958 E57.33968
G1 X38.288 Y-21.391 E57.36799
G1 X38.243 Y-20.869 E57.39413
G1 X38.14 Y-20.15 E57.43037
G1 X38.042 Y-19.728 E57.45198
G1 X37.907 Y-19.224 E57.47801
G1 X37.681 Y-18.534 E57.51424
G1 X37.511 Y-18.137 E57.53578
G1 X37.288 Y-17.66 E57.56205
G1 X36.945 Y-17.02 E57.59828
G1 X36.713 Y-16.666 E57.6194
G1 X36.415 Y-16.241 E57.64529
G1 X35.966 Y-15.67 E57.68153
G1 X35.684 Y-15.369 E57.70211
G1 X35.313 Y-14.997 E57.72832
G1 X34.773 Y-14.512 E57.76453
G1 X34.423 Y-14.25 E57.78634
G1 X33.997 Y-13.952 E57.81228
G1 X33.38 Y-13.569 E57.84851
G1 X33.014 Y-13.383 E57.86899
G1 X32.538 Y-13.16 E57.89522
