(Main_1_5)
(Bearbeiten)
(  Hersteller: ChinaCnc)
(  model: 3040T)
(  description: Generic 3-axis)
(T14 D=1.5 CR=0 - ZMIN=-4.3 - Schaftfrser)
G90 G94
G17
G21
(When using Fusion 360 for Personal Use, the feedrate of)
(rapid moves is reduced to match the feedrate of cutting)
(moves, which can increase machining time. Unrestricted rapid)
(moves are available with a Fusion 360 Subscription.)

(Bohrfrsen2)
M0
(MANUAL TOOL CHANGE TO T14)
S6000 M3
G54
G0 X-151.139 Y-163.65
Z15
G1 Z2 F600
Z0.15 F400
X-151.146 Z0.104
X-151.168 Z0.062
X-151.201 Z0.029
X-151.243 Z0.007
X-151.289 Z0
X-151.364
X-151.41 Y-163.657
X-151.452 Y-163.679
X-151.485 Y-163.712
X-151.507 Y-163.754
X-151.514 Y-163.8
G3 X-150.614 Y-163.8 Z-0.042 I0.45 J0 F600
X-151.514 Y-163.8 Z-0.084 I-0.45 J0
X-150.614 Y-163.8 Z-0.126 I0.45 J0
X-151.514 Y-163.8 Z-0.168 I-0.45 J0
X-150.614 Y-163.8 Z-0.21 I0.45 J0
X-151.514 Y-163.8 Z-0.251 I-0.45 J0
X-150.614 Y-163.8 Z-0.293 I0.45 J0
X-151.514 Y-163.8 Z-0.335 I-0.45 J0
X-150.614 Y-163.8 Z-0.377 I0.45 J0
X-151.514 Y-163.8 Z-0.419 I-0.45 J0
X-150.614 Y-163.8 Z-0.461 I0.45 J0
X-151.514 Y-163.8 Z-0.503 I-0.45 J0
X-150.614 Y-163.8 Z-0.545 I0.45 J0
X-151.514 Y-163.8 Z-0.587 I-0.45 J0
X-150.614 Y-163.8 Z-0.629 I0.45 J0
X-151.514 Y-163.8 Z-0.67 I-0.45 J0
X-150.614 Y-163.8 Z-0.712 I0.45 J0
X-151.514 Y-163.8 Z-0.754 I-0.45 J0
X-150.614 Y-163.8 Z-0.796 I0.45 J0
X-151.514 Y-163.8 Z-0.838 I-0.45 J0
X-150.614 Y-163.8 Z-0.88 I0.45 J0
X-151.514 Y-163.8 Z-0.922 I-0.45 J0
X-150.614 Y-163.8 Z-0.964 I0.45 J0
X-151.514 Y-163.8 Z-1.006 I-0.45 J0
X-150.614 Y-163.8 Z-1.048 I0.45 J0
X-151.514 Y-163.8 Z-1.09 I-0.45 J0
X-150.614 Y-163.8 Z-1.131 I0.45 J0
X-151.514 Y-163.8 Z-1.173 I-0.45 J0
X-150.614 Y-163.8 Z-1.215 I0.45 J0
X-151.514 Y-163.8 Z-1.257 I-0.45 J0
X-150.614 Y-163.8 Z-1.299 I0.45 J0
X-151.514 Y-163.8 Z-1.341 I-0.45 J0
X-150.614 Y-163.8 Z-1.383 I0.45 J0
X-151.514 Y-163.8 Z-1.425 I-0.45 J0
X-150.614 Y-163.8 Z-1.467 I0.45 J0
X-151.514 Y-163.8 Z-1.509 I-0.45 J0
X-150.614 Y-163.8 Z-1.55 I0.45 J0
X-151.514 Y-163.8 Z-1.592 I-0.45 J0
X-150.614 Y-163.8 Z-1.634 I0.45 J0
X-151.514 Y-163.8 Z-1.676 I-0.45 J0
X-150.614 Y-163.8 Z-1.718 I0.45 J0
X-151.514 Y-163.8 Z-1.76 I-0.45 J0
X-150.614 Y-163.8 Z-1.802 I0.45 J0
X-151.514 Y-163.8 Z-1.844 I-0.45 J0
X-150.614 Y-163.8 Z-1.886 I0.45 J0
X-151.514 Y-163.8 Z-1.928 I-0.45 J0
X-150.614 Y-163.8 Z-1.97 I0.45 J0
X-151.514 Y-163.8 Z-2.011 I-0.45 J0
X-150.614 Y-163.8 Z-2.053 I0.45 J0
X-151.514 Y-163.8 Z-2.095 I-0.45 J0
X-150.614 Y-163.8 Z-2.137 I0.45 J0
X-151.514 Y-163.8 Z-2.179 I-0.45 J0
X-150.614 Y-163.8 Z-2.221 I0.45 J0
X-151.514 Y-163.8 Z-2.263 I-0.45 J0
X-150.614 Y-163.8 Z-2.305 I0.45 J0
X-151.514 Y-163.8 Z-2.347 I-0.45 J0
X-150.614 Y-163.8 Z-2.389 I0.45 J0
X-151.514 Y-163.8 Z-2.43 I-0.45 J0
X-150.614 Y-163.8 Z-2.472 I0.45 J0
X-151.514 Y-163.8 Z-2.514 I-0.45 J0
X-150.614 Y-163.8 Z-2.556 I0.45 J0
X-151.514 Y-163.8 Z-2.598 I-0.45 J0
X-150.614 Y-163.8 Z-2.64 I0.45 J0
X-151.514 Y-163.8 Z-2.682 I-0.45 J0
X-150.614 Y-163.8 Z-2.724 I0.45 J0
X-151.514 Y-163.8 Z-2.766 I-0.45 J0
X-150.614 Y-163.8 Z-2.808 I0.45 J0
X-151.514 Y-163.8 Z-2.85 I-0.45 J0
X-150.614 Y-163.8 Z-2.891 I0.45 J0
X-151.514 Y-163.8 Z-2.933 I-0.45 J0
X-150.614 Y-163.8 Z-2.975 I0.45 J0
X-151.514 Y-163.8 Z-3.017 I-0.45 J0
X-150.614 Y-163.8 Z-3.059 I0.45 J0
X-151.514 Y-163.8 Z-3.101 I-0.45 J0
X-150.614 Y-163.8 Z-3.143 I0.45 J0
X-151.514 Y-163.8 Z-3.185 I-0.45 J0
X-150.614 Y-163.8 Z-3.227 I0.45 J0
X-151.514 Y-163.8 Z-3.269 I-0.45 J0
X-150.614 Y-163.8 Z-3.31 I0.45 J0
X-151.514 Y-163.8 Z-3.352 I-0.45 J0
X-150.614 Y-163.8 Z-3.394 I0.45 J0
X-151.514 Y-163.8 Z-3.436 I-0.45 J0
X-150.614 Y-163.8 Z-3.478 I0.45 J0
X-151.514 Y-163.8 Z-3.52 I-0.45 J0
X-150.614 Y-163.8 Z-3.562 I0.45 J0
X-151.514 Y-163.8 Z-3.604 I-0.45 J0
X-150.614 Y-163.8 Z-3.646 I0.45 J0
X-151.514 Y-163.8 Z-3.688 I-0.45 J0
X-150.614 Y-163.8 Z-3.73 I0.45 J0
X-151.514 Y-163.8 Z-3.771 I-0.45 J0
X-150.614 Y-163.8 Z-3.813 I0.45 J0
X-151.514 Y-163.8 Z-3.855 I-0.45 J0
X-150.614 Y-163.8 Z-3.897 I0.45 J0
X-151.514 Y-163.8 Z-3.939 I-0.45 J0
X-150.614 Y-163.8 Z-3.981 I0.45 J0
X-151.514 Y-163.8 Z-4.023 I-0.45 J0
X-150.614 Y-163.8 Z-4.065 I0.45 J0
X-151.514 Y-163.8 Z-4.107 I-0.45 J0
X-150.614 Y-163.8 Z-4.149 I0.45 J0
X-151.514 Y-163.8 Z-4.19 I-0.45 J0
X-150.614 Y-163.8 Z-4.232 I0.45 J0
X-151.514 Y-163.8 Z-4.274 I-0.45 J0
X-150.907 Y-164.222 Z-4.3 I0.45 J0
X-151.221 Y-163.378 I-0.157 J0.422
X-150.907 Y-164.222 I0.157 J-0.422
G1 X-150.866 Y-164.199
X-150.835 Y-164.164
X-150.815 Y-164.122
X-150.81 Y-164.075
X-150.819 Y-164.029
X-150.845 Y-163.959
X-150.861 Y-163.915 Z-4.293
X-150.876 Y-163.876 Z-4.271
X-150.887 Y-163.845 Z-4.238
X-150.895 Y-163.825 Z-4.196
X-150.897 Y-163.818 Z-4.15
Z5
X-131.139 Y-163.65
Z2
Z0.15 F400
X-131.146 Z0.104
X-131.168 Z0.062
X-131.201 Z0.029
X-131.243 Z0.007
X-131.289 Z0
X-131.364
X-131.41 Y-163.657
X-131.452 Y-163.679
X-131.485 Y-163.712
X-131.507 Y-163.754
X-131.514 Y-163.8
G3 X-130.614 Y-163.8 Z-0.042 I0.45 J0 F600
X-131.514 Y-163.8 Z-0.084 I-0.45 J0
X-130.614 Y-163.8 Z-0.126 I0.45 J0
X-131.514 Y-163.8 Z-0.168 I-0.45 J0
X-130.614 Y-163.8 Z-0.21 I0.45 J0
X-131.514 Y-163.8 Z-0.251 I-0.45 J0
X-130.614 Y-163.8 Z-0.293 I0.45 J0
X-131.514 Y-163.8 Z-0.335 I-0.45 J0
X-130.614 Y-163.8 Z-0.377 I0.45 J0
X-131.514 Y-163.8 Z-0.419 I-0.45 J0
X-130.614 Y-163.8 Z-0.461 I0.45 J0
X-131.514 Y-163.8 Z-0.503 I-0.45 J0
X-130.614 Y-163.8 Z-0.545 I0.45 J0
X-131.514 Y-163.8 Z-0.587 I-0.45 J0
X-130.614 Y-163.8 Z-0.629 I0.45 J0
X-131.514 Y-163.8 Z-0.67 I-0.45 J0
X-130.614 Y-163.8 Z-0.712 I0.45 J0
X-131.514 Y-163.8 Z-0.754 I-0.45 J0
X-130.614 Y-163.8 Z-0.796 I0.45 J0
X-131.514 Y-163.8 Z-0.838 I-0.45 J0
X-130.614 Y-163.8 Z-0.88 I0.45 J0
X-131.514 Y-163.8 Z-0.922 I-0.45 J0
X-130.614 Y-163.8 Z-0.964 I0.45 J0
X-131.514 Y-163.8 Z-1.006 I-0.45 J0
X-130.614 Y-163.8 Z-1.048 I0.45 J0
X-131.514 Y-163.8 Z-1.09 I-0.45 J0
X-130.614 Y-163.8 Z-1.131 I0.45 J0
X-131.514 Y-163.8 Z-1.173 I-0.45 J0
X-130.614 Y-163.8 Z-1.215 I0.45 J0
X-131.514 Y-163.8 Z-1.257 I-0.45 J0
X-130.614 Y-163.8 Z-1.299 I0.45 J0
X-131.514 Y-163.8 Z-1.341 I-0.45 J0
X-130.614 Y-163.8 Z-1.383 I0.45 J0
X-131.514 Y-163.8 Z-1.425 I-0.45 J0
X-130.614 Y-163.8 Z-1.467 I0.45 J0
X-131.514 Y-163.8 Z-1.509 I-0.45 J0
X-130.614 Y-163.8 Z-1.55 I0.45 J0
X-131.514 Y-163.8 Z-1.592 I-0.45 J0
X-130.614 Y-163.8 Z-1.634 I0.45 J0
X-131.514 Y-163.8 Z-1.676 I-0.45 J0
X-130.614 Y-163.8 Z-1.718 I0.45 J0
X-131.514 Y-163.8 Z-1.76 I-0.45 J0
X-130.614 Y-163.8 Z-1.802 I0.45 J0
X-131.514 Y-163.8 Z-1.844 I-0.45 J0
X-130.614 Y-163.8 Z-1.886 I0.45 J0
X-131.514 Y-163.8 Z-1.928 I-0.45 J0
X-130.614 Y-163.8 Z-1.97 I0.45 J0
X-131.514 Y-163.8 Z-2.011 I-0.45 J0
X-130.614 Y-163.8 Z-2.053 I0.45 J0
X-131.514 Y-163.8 Z-2.095 I-0.45 J0
X-130.614 Y-163.8 Z-2.137 I0.45 J0
X-131.514 Y-163.8 Z-2.179 I-0.45 J0
X-130.614 Y-163.8 Z-2.221 I0.45 J0
X-131.514 Y-163.8 Z-2.263 I-0.45 J0
X-130.614 Y-163.8 Z-2.305 I0.45 J0
X-131.514 Y-163.8 Z-2.347 I-0.45 J0
X-130.614 Y-163.8 Z-2.389 I0.45 J0
X-131.514 Y-163.8 Z-2.43 I-0.45 J0
X-130.614 Y-163.8 Z-2.472 I0.45 J0
X-131.514 Y-163.8 Z-2.514 I-0.45 J0
X-130.614 Y-163.8 Z-2.556 I0.45 J0
X-131.514 Y-163.8 Z-2.598 I-0.45 J0
X-130.614 Y-163.8 Z-2.64 I0.45 J0
X-131.514 Y-163.8 Z-2.682 I-0.45 J0
X-130.614 Y-163.8 Z-2.724 I0.45 J0
X-131.514 Y-163.8 Z-2.766 I-0.45 J0
X-130.614 Y-163.8 Z-2.808 I0.45 J0
X-131.514 Y-163.8 Z-2.85 I-0.45 J0
X-130.614 Y-163.8 Z-2.891 I0.45 J0
X-131.514 Y-163.8 Z-2.933 I-0.45 J0
X-130.614 Y-163.8 Z-2.975 I0.45 J0
X-131.514 Y-163.8 Z-3.017 I-0.45 J0
X-130.614 Y-163.8 Z-3.059 I0.45 J0
X-131.514 Y-163.8 Z-3.101 I-0.45 J0
X-130.614 Y-163.8 Z-3.143 I0.45 J0
X-131.514 Y-163.8 Z-3.185 I-0.45 J0
X-130.614 Y-163.8 Z-3.227 I0.45 J0
X-131.514 Y-163.8 Z-3.269 I-0.45 J0
X-130.614 Y-163.8 Z-3.31 I0.45 J0
X-131.514 Y-163.8 Z-3.352 I-0.45 J0
X-130.614 Y-163.8 Z-3.394 I0.45 J0
X-131.514 Y-163.8 Z-3.436 I-0.45 J0
X-130.614 Y-163.8 Z-3.478 I0.45 J0
X-131.514 Y-163.8 Z-3.52 I-0.45 J0
X-130.614 Y-163.8 Z-3.562 I0.45 J0
X-131.514 Y-163.8 Z-3.604 I-0.45 J0
X-130.614 Y-163.8 Z-3.646 I0.45 J0
X-131.514 Y-163.8 Z-3.688 I-0.45 J0
X-130.614 Y-163.8 Z-3.73 I0.45 J0
X-131.514 Y-163.8 Z-3.771 I-0.45 J0
X-130.614 Y-163.8 Z-3.813 I0.45 J0
X-131.514 Y-163.8 Z-3.855 I-0.45 J0
X-130.614 Y-163.8 Z-3.897 I0.45 J0
X-131.514 Y-163.8 Z-3.939 I-0.45 J0
X-130.614 Y-163.8 Z-3.981 I0.45 J0
X-131.514 Y-163.8 Z-4.023 I-0.45 J0
X-130.614 Y-163.8 Z-4.065 I0.45 J0
X-131.514 Y-163.8 Z-4.107 I-0.45 J0
X-130.614 Y-163.8 Z-4.149 I0.45 J0
X-131.514 Y-163.8 Z-4.19 I-0.45 J0
X-130.614 Y-163.8 Z-4.232 I0.45 J0
X-131.514 Y-163.8 Z-4.274 I-0.45 J0
X-130.907 Y-164.222 Z-4.3 I0.45 J0
X-131.221 Y-163.378 I-0.157 J0.422
X-130.907 Y-164.222 I0.157 J-0.422
G1 X-130.866 Y-164.199
X-130.835 Y-164.164
X-130.815 Y-164.122
X-130.81 Y-164.075
X-130.819 Y-164.029
X-130.845 Y-163.959
X-130.861 Y-163.915 Z-4.293
X-130.876 Y-163.876 Z-4.271
X-130.887 Y-163.845 Z-4.238
X-130.895 Y-163.825 Z-4.196
X-130.897 Y-163.818 Z-4.15
Z5
X-131.139 Y-143.65
Z2
Z0.15 F400
X-131.146 Z0.104
X-131.168 Z0.062
X-131.201 Z0.029
X-131.243 Z0.007
X-131.289 Z0
X-131.364
X-131.41 Y-143.657
X-131.452 Y-143.679
X-131.485 Y-143.712
X-131.507 Y-143.754
X-131.514 Y-143.8
G3 X-130.614 Y-143.8 Z-0.042 I0.45 J0 F600
X-131.514 Y-143.8 Z-0.084 I-0.45 J0
X-130.614 Y-143.8 Z-0.126 I0.45 J0
X-131.514 Y-143.8 Z-0.168 I-0.45 J0
X-130.614 Y-143.8 Z-0.21 I0.45 J0
X-131.514 Y-143.8 Z-0.251 I-0.45 J0
X-130.614 Y-143.8 Z-0.293 I0.45 J0
X-131.514 Y-143.8 Z-0.335 I-0.45 J0
X-130.614 Y-143.8 Z-0.377 I0.45 J0
X-131.514 Y-143.8 Z-0.419 I-0.45 J0
X-130.614 Y-143.8 Z-0.461 I0.45 J0
X-131.514 Y-143.8 Z-0.503 I-0.45 J0
X-130.614 Y-143.8 Z-0.545 I0.45 J0
X-131.514 Y-143.8 Z-0.587 I-0.45 J0
X-130.614 Y-143.8 Z-0.629 I0.45 J0
X-131.514 Y-143.8 Z-0.67 I-0.45 J0
X-130.614 Y-143.8 Z-0.712 I0.45 J0
X-131.514 Y-143.8 Z-0.754 I-0.45 J0
X-130.614 Y-143.8 Z-0.796 I0.45 J0
X-131.514 Y-143.8 Z-0.838 I-0.45 J0
X-130.614 Y-143.8 Z-0.88 I0.45 J0
X-131.514 Y-143.8 Z-0.922 I-0.45 J0
X-130.614 Y-143.8 Z-0.964 I0.45 J0
X-131.514 Y-143.8 Z-1.006 I-0.45 J0
X-130.614 Y-143.8 Z-1.048 I0.45 J0
X-131.514 Y-143.8 Z-1.09 I-0.45 J0
X-130.614 Y-143.8 Z-1.131 I0.45 J0
X-131.514 Y-143.8 Z-1.173 I-0.45 J0
X-130.614 Y-143.8 Z-1.215 I0.45 J0
X-131.514 Y-143.8 Z-1.257 I-0.45 J0
X-130.614 Y-143.8 Z-1.299 I0.45 J0
X-131.514 Y-143.8 Z-1.341 I-0.45 J0
X-130.614 Y-143.8 Z-1.383 I0.45 J0
X-131.514 Y-143.8 Z-1.425 I-0.45 J0
X-130.614 Y-143.8 Z-1.467 I0.45 J0
X-131.514 Y-143.8 Z-1.509 I-0.45 J0
X-130.614 Y-143.8 Z-1.55 I0.45 J0
X-131.514 Y-143.8 Z-1.592 I-0.45 J0
X-130.614 Y-143.8 Z-1.634 I0.45 J0
X-131.514 Y-143.8 Z-1.676 I-0.45 J0
X-130.614 Y-143.8 Z-1.718 I0.45 J0
X-131.514 Y-143.8 Z-1.76 I-0.45 J0
X-130.614 Y-143.8 Z-1.802 I0.45 J0
X-131.514 Y-143.8 Z-1.844 I-0.45 J0
X-130.614 Y-143.8 Z-1.886 I0.45 J0
X-131.514 Y-143.8 Z-1.928 I-0.45 J0
X-130.614 Y-143.8 Z-1.97 I0.45 J0
X-131.514 Y-143.8 Z-2.011 I-0.45 J0
X-130.614 Y-143.8 Z-2.053 I0.45 J0
X-131.514 Y-143.8 Z-2.095 I-0.45 J0
X-130.614 Y-143.8 Z-2.137 I0.45 J0
X-131.514 Y-143.8 Z-2.179 I-0.45 J0
X-130.614 Y-143.8 Z-2.221 I0.45 J0
X-131.514 Y-143.8 Z-2.263 I-0.45 J0
X-130.614 Y-143.8 Z-2.305 I0.45 J0
X-131.514 Y-143.8 Z-2.347 I-0.45 J0
X-130.614 Y-143.8 Z-2.389 I0.45 J0
X-131.514 Y-143.8 Z-2.43 I-0.45 J0
X-130.614 Y-143.8 Z-2.472 I0.45 J0
X-131.514 Y-143.8 Z-2.514 I-0.45 J0
X-130.614 Y-143.8 Z-2.556 I0.45 J0
X-131.514 Y-143.8 Z-2.598 I-0.45 J0
X-130.614 Y-143.8 Z-2.64 I0.45 J0
X-131.514 Y-143.8 Z-2.682 I-0.45 J0
X-130.614 Y-143.8 Z-2.724 I0.45 J0
X-131.514 Y-143.8 Z-2.766 I-0.45 J0
X-130.614 Y-143.8 Z-2.808 I0.45 J0
X-131.514 Y-143.8 Z-2.85 I-0.45 J0
X-130.614 Y-143.8 Z-2.891 I0.45 J0
X-131.514 Y-143.8 Z-2.933 I-0.45 J0
X-130.614 Y-143.8 Z-2.975 I0.45 J0
X-131.514 Y-143.8 Z-3.017 I-0.45 J0
X-130.614 Y-143.8 Z-3.059 I0.45 J0
X-131.514 Y-143.8 Z-3.101 I-0.45 J0
X-130.614 Y-143.8 Z-3.143 I0.45 J0
X-131.514 Y-143.8 Z-3.185 I-0.45 J0
X-130.614 Y-143.8 Z-3.227 I0.45 J0
X-131.514 Y-143.8 Z-3.269 I-0.45 J0
X-130.614 Y-143.8 Z-3.31 I0.45 J0
X-131.514 Y-143.8 Z-3.352 I-0.45 J0
X-130.614 Y-143.8 Z-3.394 I0.45 J0
X-131.514 Y-143.8 Z-3.436 I-0.45 J0
X-130.614 Y-143.8 Z-3.478 I0.45 J0
X-131.514 Y-143.8 Z-3.52 I-0.45 J0
X-130.614 Y-143.8 Z-3.562 I0.45 J0
X-131.514 Y-143.8 Z-3.604 I-0.45 J0
X-130.614 Y-143.8 Z-3.646 I0.45 J0
X-131.514 Y-143.8 Z-3.688 I-0.45 J0
X-130.614 Y-143.8 Z-3.73 I0.45 J0
X-131.514 Y-143.8 Z-3.771 I-0.45 J0
X-130.614 Y-143.8 Z-3.813 I0.45 J0
X-131.514 Y-143.8 Z-3.855 I-0.45 J0
X-130.614 Y-143.8 Z-3.897 I0.45 J0
X-131.514 Y-143.8 Z-3.939 I-0.45 J0
X-130.614 Y-143.8 Z-3.981 I0.45 J0
X-131.514 Y-143.8 Z-4.023 I-0.45 J0
X-130.614 Y-143.8 Z-4.065 I0.45 J0
X-131.514 Y-143.8 Z-4.107 I-0.45 J0
X-130.614 Y-143.8 Z-4.149 I0.45 J0
X-131.514 Y-143.8 Z-4.19 I-0.45 J0
X-130.614 Y-143.8 Z-4.232 I0.45 J0
X-131.514 Y-143.8 Z-4.274 I-0.45 J0
X-130.907 Y-144.222 Z-4.3 I0.45 J0
X-131.221 Y-143.378 I-0.157 J0.422
X-130.907 Y-144.222 I0.157 J-0.422
G1 X-130.866 Y-144.199
X-130.835 Y-144.164
X-130.815 Y-144.122
X-130.81 Y-144.075
X-130.819 Y-144.029
X-130.845 Y-143.959
X-130.861 Y-143.915 Z-4.293
X-130.876 Y-143.876 Z-4.271
X-130.887 Y-143.845 Z-4.238
X-130.895 Y-143.825 Z-4.196
X-130.897 Y-143.818 Z-4.15
Z5
X-151.139 Y-143.65
Z2
Z0.15 F400
X-151.146 Z0.104
X-151.168 Z0.062
X-151.201 Z0.029
X-151.243 Z0.007
X-151.289 Z0
X-151.364
X-151.41 Y-143.657
X-151.452 Y-143.679
X-151.485 Y-143.712
X-151.507 Y-143.754
X-151.514 Y-143.8
G3 X-150.614 Y-143.8 Z-0.042 I0.45 J0 F600
X-151.514 Y-143.8 Z-0.084 I-0.45 J0
X-150.614 Y-143.8 Z-0.126 I0.45 J0
X-151.514 Y-143.8 Z-0.168 I-0.45 J0
X-150.614 Y-143.8 Z-0.21 I0.45 J0
X-151.514 Y-143.8 Z-0.251 I-0.45 J0
X-150.614 Y-143.8 Z-0.293 I0.45 J0
X-151.514 Y-143.8 Z-0.335 I-0.45 J0
X-150.614 Y-143.8 Z-0.377 I0.45 J0
X-151.514 Y-143.8 Z-0.419 I-0.45 J0
X-150.614 Y-143.8 Z-0.461 I0.45 J0
X-151.514 Y-143.8 Z-0.503 I-0.45 J0
X-150.614 Y-143.8 Z-0.545 I0.45 J0
X-151.514 Y-143.8 Z-0.587 I-0.45 J0
X-150.614 Y-143.8 Z-0.629 I0.45 J0
X-151.514 Y-143.8 Z-0.67 I-0.45 J0
X-150.614 Y-143.8 Z-0.712 I0.45 J0
X-151.514 Y-143.8 Z-0.754 I-0.45 J0
X-150.614 Y-143.8 Z-0.796 I0.45 J0
X-151.514 Y-143.8 Z-0.838 I-0.45 J0
X-150.614 Y-143.8 Z-0.88 I0.45 J0
X-151.514 Y-143.8 Z-0.922 I-0.45 J0
X-150.614 Y-143.8 Z-0.964 I0.45 J0
X-151.514 Y-143.8 Z-1.006 I-0.45 J0
X-150.614 Y-143.8 Z-1.048 I0.45 J0
X-151.514 Y-143.8 Z-1.09 I-0.45 J0
X-150.614 Y-143.8 Z-1.131 I0.45 J0
X-151.514 Y-143.8 Z-1.173 I-0.45 J0
X-150.614 Y-143.8 Z-1.215 I0.45 J0
X-151.514 Y-143.8 Z-1.257 I-0.45 J0
X-150.614 Y-143.8 Z-1.299 I0.45 J0
X-151.514 Y-143.8 Z-1.341 I-0.45 J0
X-150.614 Y-143.8 Z-1.383 I0.45 J0
X-151.514 Y-143.8 Z-1.425 I-0.45 J0
X-150.614 Y-143.8 Z-1.467 I0.45 J0
X-151.514 Y-143.8 Z-1.509 I-0.45 J0
X-150.614 Y-143.8 Z-1.55 I0.45 J0
X-151.514 Y-143.8 Z-1.592 I-0.45 J0
X-150.614 Y-143.8 Z-1.634 I0.45 J0
X-151.514 Y-143.8 Z-1.676 I-0.45 J0
X-150.614 Y-143.8 Z-1.718 I0.45 J0
X-151.514 Y-143.8 Z-1.76 I-0.45 J0
X-150.614 Y-143.8 Z-1.802 I0.45 J0
X-151.514 Y-143.8 Z-1.844 I-0.45 J0
X-150.614 Y-143.8 Z-1.886 I0.45 J0
X-151.514 Y-143.8 Z-1.928 I-0.45 J0
X-150.614 Y-143.8 Z-1.97 I0.45 J0
X-151.514 Y-143.8 Z-2.011 I-0.45 J0
X-150.614 Y-143.8 Z-2.053 I0.45 J0
X-151.514 Y-143.8 Z-2.095 I-0.45 J0
X-150.614 Y-143.8 Z-2.137 I0.45 J0
X-151.514 Y-143.8 Z-2.179 I-0.45 J0
X-150.614 Y-143.8 Z-2.221 I0.45 J0
X-151.514 Y-143.8 Z-2.263 I-0.45 J0
X-150.614 Y-143.8 Z-2.305 I0.45 J0
X-151.514 Y-143.8 Z-2.347 I-0.45 J0
X-150.614 Y-143.8 Z-2.389 I0.45 J0
X-151.514 Y-143.8 Z-2.43 I-0.45 J0
X-150.614 Y-143.8 Z-2.472 I0.45 J0
X-151.514 Y-143.8 Z-2.514 I-0.45 J0
X-150.614 Y-143.8 Z-2.556 I0.45 J0
X-151.514 Y-143.8 Z-2.598 I-0.45 J0
X-150.614 Y-143.8 Z-2.64 I0.45 J0
X-151.514 Y-143.8 Z-2.682 I-0.45 J0
X-150.614 Y-143.8 Z-2.724 I0.45 J0
X-151.514 Y-143.8 Z-2.766 I-0.45 J0
X-150.614 Y-143.8 Z-2.808 I0.45 J0
X-151.514 Y-143.8 Z-2.85 I-0.45 J0
X-150.614 Y-143.8 Z-2.891 I0.45 J0
X-151.514 Y-143.8 Z-2.933 I-0.45 J0
X-150.614 Y-143.8 Z-2.975 I0.45 J0
X-151.514 Y-143.8 Z-3.017 I-0.45 J0
X-150.614 Y-143.8 Z-3.059 I0.45 J0
X-151.514 Y-143.8 Z-3.101 I-0.45 J0
X-150.614 Y-143.8 Z-3.143 I0.45 J0
X-151.514 Y-143.8 Z-3.185 I-0.45 J0
X-150.614 Y-143.8 Z-3.227 I0.45 J0
X-151.514 Y-143.8 Z-3.269 I-0.45 J0
X-150.614 Y-143.8 Z-3.31 I0.45 J0
X-151.514 Y-143.8 Z-3.352 I-0.45 J0
X-150.614 Y-143.8 Z-3.394 I0.45 J0
X-151.514 Y-143.8 Z-3.436 I-0.45 J0
X-150.614 Y-143.8 Z-3.478 I0.45 J0
X-151.514 Y-143.8 Z-3.52 I-0.45 J0
X-150.614 Y-143.8 Z-3.562 I0.45 J0
X-151.514 Y-143.8 Z-3.604 I-0.45 J0
X-150.614 Y-143.8 Z-3.646 I0.45 J0
X-151.514 Y-143.8 Z-3.688 I-0.45 J0
X-150.614 Y-143.8 Z-3.73 I0.45 J0
X-151.514 Y-143.8 Z-3.771 I-0.45 J0
X-150.614 Y-143.8 Z-3.813 I0.45 J0
X-151.514 Y-143.8 Z-3.855 I-0.45 J0
X-150.614 Y-143.8 Z-3.897 I0.45 J0
X-151.514 Y-143.8 Z-3.939 I-0.45 J0
X-150.614 Y-143.8 Z-3.981 I0.45 J0
X-151.514 Y-143.8 Z-4.023 I-0.45 J0
X-150.614 Y-143.8 Z-4.065 I0.45 J0
X-151.514 Y-143.8 Z-4.107 I-0.45 J0
X-150.614 Y-143.8 Z-4.149 I0.45 J0
X-151.514 Y-143.8 Z-4.19 I-0.45 J0
X-150.614 Y-143.8 Z-4.232 I0.45 J0
X-151.514 Y-143.8 Z-4.274 I-0.45 J0
X-150.907 Y-144.222 Z-4.3 I0.45 J0
X-151.221 Y-143.378 I-0.157 J0.422
X-150.907 Y-144.222 I0.157 J-0.422
G1 X-150.866 Y-144.199
X-150.835 Y-144.164
X-150.815 Y-144.122
X-150.81 Y-144.075
X-150.819 Y-144.029
X-150.845 Y-143.959
X-150.861 Y-143.915 Z-4.293
X-150.876 Y-143.876 Z-4.271
X-150.887 Y-143.845 Z-4.238
X-150.895 Y-143.825 Z-4.196
X-150.897 Y-143.818 Z-4.15
Z5
X-130.989 Y-121.95
Z2
Z0.15 F400
X-130.982 Z0.104
X-130.96 Z0.062
X-130.927 Z0.029
X-130.885 Z0.007
X-130.839 Z0
X-130.764
X-130.718 Y-121.943
X-130.676 Y-121.921
X-130.643 Y-121.888
X-130.621 Y-121.846
X-130.614 Y-121.8
G3 X-131.514 Y-121.8 Z-0.042 I-0.45 J0 F600
X-130.614 Y-121.8 Z-0.084 I0.45 J0
X-131.514 Y-121.8 Z-0.126 I-0.45 J0
X-130.614 Y-121.8 Z-0.168 I0.45 J0
X-131.514 Y-121.8 Z-0.21 I-0.45 J0
X-130.614 Y-121.8 Z-0.251 I0.45 J0
X-131.514 Y-121.8 Z-0.293 I-0.45 J0
X-130.614 Y-121.8 Z-0.335 I0.45 J0
X-131.514 Y-121.8 Z-0.377 I-0.45 J0
X-130.614 Y-121.8 Z-0.419 I0.45 J0
X-131.514 Y-121.8 Z-0.461 I-0.45 J0
X-130.614 Y-121.8 Z-0.503 I0.45 J0
X-131.514 Y-121.8 Z-0.545 I-0.45 J0
X-130.614 Y-121.8 Z-0.587 I0.45 J0
X-131.514 Y-121.8 Z-0.629 I-0.45 J0
X-130.614 Y-121.8 Z-0.67 I0.45 J0
X-131.514 Y-121.8 Z-0.712 I-0.45 J0
X-130.614 Y-121.8 Z-0.754 I0.45 J0
X-131.514 Y-121.8 Z-0.796 I-0.45 J0
X-130.614 Y-121.8 Z-0.838 I0.45 J0
X-131.514 Y-121.8 Z-0.88 I-0.45 J0
X-130.614 Y-121.8 Z-0.922 I0.45 J0
X-131.514 Y-121.8 Z-0.964 I-0.45 J0
X-130.614 Y-121.8 Z-1.006 I0.45 J0
X-131.514 Y-121.8 Z-1.048 I-0.45 J0
X-130.614 Y-121.8 Z-1.09 I0.45 J0
X-131.514 Y-121.8 Z-1.131 I-0.45 J0
X-130.614 Y-121.8 Z-1.173 I0.45 J0
X-131.514 Y-121.8 Z-1.215 I-0.45 J0
X-130.614 Y-121.8 Z-1.257 I0.45 J0
X-131.514 Y-121.8 Z-1.299 I-0.45 J0
X-130.614 Y-121.8 Z-1.341 I0.45 J0
X-131.514 Y-121.8 Z-1.383 I-0.45 J0
X-130.614 Y-121.8 Z-1.425 I0.45 J0
X-131.514 Y-121.8 Z-1.467 I-0.45 J0
X-130.614 Y-121.8 Z-1.509 I0.45 J0
X-131.514 Y-121.8 Z-1.55 I-0.45 J0
X-130.614 Y-121.8 Z-1.592 I0.45 J0
X-131.514 Y-121.8 Z-1.634 I-0.45 J0
X-130.614 Y-121.8 Z-1.676 I0.45 J0
X-131.514 Y-121.8 Z-1.718 I-0.45 J0
X-130.614 Y-121.8 Z-1.76 I0.45 J0
X-131.514 Y-121.8 Z-1.802 I-0.45 J0
X-130.614 Y-121.8 Z-1.844 I0.45 J0
X-131.514 Y-121.8 Z-1.886 I-0.45 J0
X-130.614 Y-121.8 Z-1.928 I0.45 J0
X-131.514 Y-121.8 Z-1.97 I-0.45 J0
X-130.614 Y-121.8 Z-2.011 I0.45 J0
X-131.514 Y-121.8 Z-2.053 I-0.45 J0
X-130.614 Y-121.8 Z-2.095 I0.45 J0
X-131.514 Y-121.8 Z-2.137 I-0.45 J0
X-130.614 Y-121.8 Z-2.179 I0.45 J0
X-131.514 Y-121.8 Z-2.221 I-0.45 J0
X-130.614 Y-121.8 Z-2.263 I0.45 J0
X-131.514 Y-121.8 Z-2.305 I-0.45 J0
X-130.614 Y-121.8 Z-2.347 I0.45 J0
X-131.514 Y-121.8 Z-2.389 I-0.45 J0
X-130.614 Y-121.8 Z-2.43 I0.45 J0
X-131.514 Y-121.8 Z-2.472 I-0.45 J0
X-130.614 Y-121.8 Z-2.514 I0.45 J0
X-131.514 Y-121.8 Z-2.556 I-0.45 J0
X-130.614 Y-121.8 Z-2.598 I0.45 J0
X-131.514 Y-121.8 Z-2.64 I-0.45 J0
X-130.614 Y-121.8 Z-2.682 I0.45 J0
X-131.514 Y-121.8 Z-2.724 I-0.45 J0
X-130.614 Y-121.8 Z-2.766 I0.45 J0
X-131.514 Y-121.8 Z-2.808 I-0.45 J0
X-130.614 Y-121.8 Z-2.85 I0.45 J0
X-131.514 Y-121.8 Z-2.891 I-0.45 J0
X-130.614 Y-121.8 Z-2.933 I0.45 J0
X-131.514 Y-121.8 Z-2.975 I-0.45 J0
X-130.614 Y-121.8 Z-3.017 I0.45 J0
X-131.514 Y-121.8 Z-3.059 I-0.45 J0
X-130.614 Y-121.8 Z-3.101 I0.45 J0
X-131.514 Y-121.8 Z-3.143 I-0.45 J0
X-130.614 Y-121.8 Z-3.185 I0.45 J0
X-131.514 Y-121.8 Z-3.227 I-0.45 J0
X-130.614 Y-121.8 Z-3.269 I0.45 J0
X-131.514 Y-121.8 Z-3.31 I-0.45 J0
X-130.614 Y-121.8 Z-3.352 I0.45 J0
X-131.514 Y-121.8 Z-3.394 I-0.45 J0
X-130.614 Y-121.8 Z-3.436 I0.45 J0
X-131.514 Y-121.8 Z-3.478 I-0.45 J0
X-130.614 Y-121.8 Z-3.52 I0.45 J0
X-131.514 Y-121.8 Z-3.562 I-0.45 J0
X-130.614 Y-121.8 Z-3.604 I0.45 J0
X-131.514 Y-121.8 Z-3.646 I-0.45 J0
X-130.614 Y-121.8 Z-3.688 I0.45 J0
X-131.514 Y-121.8 Z-3.73 I-0.45 J0
X-130.614 Y-121.8 Z-3.771 I0.45 J0
X-131.514 Y-121.8 Z-3.813 I-0.45 J0
X-130.614 Y-121.8 Z-3.855 I0.45 J0
X-131.514 Y-121.8 Z-3.897 I-0.45 J0
X-130.614 Y-121.8 Z-3.939 I0.45 J0
X-131.514 Y-121.8 Z-3.981 I-0.45 J0
X-130.614 Y-121.8 Z-4.023 I0.45 J0
X-131.514 Y-121.8 Z-4.065 I-0.45 J0
X-130.614 Y-121.8 Z-4.107 I0.45 J0
X-131.514 Y-121.8 Z-4.149 I-0.45 J0
X-130.614 Y-121.8 Z-4.19 I0.45 J0
X-131.514 Y-121.8 Z-4.232 I-0.45 J0
X-130.614 Y-121.8 Z-4.274 I0.45 J0
X-131.221 Y-121.378 Z-4.3 I-0.45 J0
X-130.907 Y-122.222 I0.157 J-0.422
X-131.221 Y-121.378 I-0.157 J0.422
G1 X-131.262 Y-121.401
X-131.294 Y-121.436
X-131.313 Y-121.478
X-131.318 Y-121.525
X-131.309 Y-121.571
X-131.283 Y-121.641
X-131.267 Y-121.685 Z-4.293
X-131.252 Y-121.724 Z-4.271
X-131.241 Y-121.755 Z-4.238
X-131.233 Y-121.775 Z-4.196
X-131.231 Y-121.782 Z-4.15
Z5
X-151.139 Y-121.65
Z2
Z0.15 F400
X-151.146 Z0.104
X-151.168 Z0.062
X-151.201 Z0.029
X-151.243 Z0.007
X-151.289 Z0
X-151.364
X-151.41 Y-121.657
X-151.452 Y-121.679
X-151.485 Y-121.712
X-151.507 Y-121.754
X-151.514 Y-121.8
G3 X-150.614 Y-121.8 Z-0.042 I0.45 J0 F600
X-151.514 Y-121.8 Z-0.084 I-0.45 J0
X-150.614 Y-121.8 Z-0.126 I0.45 J0
X-151.514 Y-121.8 Z-0.168 I-0.45 J0
X-150.614 Y-121.8 Z-0.21 I0.45 J0
X-151.514 Y-121.8 Z-0.251 I-0.45 J0
X-150.614 Y-121.8 Z-0.293 I0.45 J0
X-151.514 Y-121.8 Z-0.335 I-0.45 J0
X-150.614 Y-121.8 Z-0.377 I0.45 J0
X-151.514 Y-121.8 Z-0.419 I-0.45 J0
X-150.614 Y-121.8 Z-0.461 I0.45 J0
X-151.514 Y-121.8 Z-0.503 I-0.45 J0
X-150.614 Y-121.8 Z-0.545 I0.45 J0
X-151.514 Y-121.8 Z-0.587 I-0.45 J0
X-150.614 Y-121.8 Z-0.629 I0.45 J0
X-151.514 Y-121.8 Z-0.67 I-0.45 J0
X-150.614 Y-121.8 Z-0.712 I0.45 J0
X-151.514 Y-121.8 Z-0.754 I-0.45 J0
X-150.614 Y-121.8 Z-0.796 I0.45 J0
X-151.514 Y-121.8 Z-0.838 I-0.45 J0
X-150.614 Y-121.8 Z-0.88 I0.45 J0
X-151.514 Y-121.8 Z-0.922 I-0.45 J0
X-150.614 Y-121.8 Z-0.964 I0.45 J0
X-151.514 Y-121.8 Z-1.006 I-0.45 J0
X-150.614 Y-121.8 Z-1.048 I0.45 J0
X-151.514 Y-121.8 Z-1.09 I-0.45 J0
X-150.614 Y-121.8 Z-1.131 I0.45 J0
X-151.514 Y-121.8 Z-1.173 I-0.45 J0
X-150.614 Y-121.8 Z-1.215 I0.45 J0
X-151.514 Y-121.8 Z-1.257 I-0.45 J0
X-150.614 Y-121.8 Z-1.299 I0.45 J0
X-151.514 Y-121.8 Z-1.341 I-0.45 J0
X-150.614 Y-121.8 Z-1.383 I0.45 J0
X-151.514 Y-121.8 Z-1.425 I-0.45 J0
X-150.614 Y-121.8 Z-1.467 I0.45 J0
X-151.514 Y-121.8 Z-1.509 I-0.45 J0
X-150.614 Y-121.8 Z-1.55 I0.45 J0
X-151.514 Y-121.8 Z-1.592 I-0.45 J0
X-150.614 Y-121.8 Z-1.634 I0.45 J0
X-151.514 Y-121.8 Z-1.676 I-0.45 J0
X-150.614 Y-121.8 Z-1.718 I0.45 J0
X-151.514 Y-121.8 Z-1.76 I-0.45 J0
X-150.614 Y-121.8 Z-1.802 I0.45 J0
X-151.514 Y-121.8 Z-1.844 I-0.45 J0
X-150.614 Y-121.8 Z-1.886 I0.45 J0
X-151.514 Y-121.8 Z-1.928 I-0.45 J0
X-150.614 Y-121.8 Z-1.97 I0.45 J0
X-151.514 Y-121.8 Z-2.011 I-0.45 J0
X-150.614 Y-121.8 Z-2.053 I0.45 J0
X-151.514 Y-121.8 Z-2.095 I-0.45 J0
X-150.614 Y-121.8 Z-2.137 I0.45 J0
X-151.514 Y-121.8 Z-2.179 I-0.45 J0
X-150.614 Y-121.8 Z-2.221 I0.45 J0
X-151.514 Y-121.8 Z-2.263 I-0.45 J0
X-150.614 Y-121.8 Z-2.305 I0.45 J0
X-151.514 Y-121.8 Z-2.347 I-0.45 J0
X-150.614 Y-121.8 Z-2.389 I0.45 J0
X-151.514 Y-121.8 Z-2.43 I-0.45 J0
X-150.614 Y-121.8 Z-2.472 I0.45 J0
X-151.514 Y-121.8 Z-2.514 I-0.45 J0
X-150.614 Y-121.8 Z-2.556 I0.45 J0
X-151.514 Y-121.8 Z-2.598 I-0.45 J0
X-150.614 Y-121.8 Z-2.64 I0.45 J0
X-151.514 Y-121.8 Z-2.682 I-0.45 J0
X-150.614 Y-121.8 Z-2.724 I0.45 J0
X-151.514 Y-121.8 Z-2.766 I-0.45 J0
X-150.614 Y-121.8 Z-2.808 I0.45 J0
X-151.514 Y-121.8 Z-2.85 I-0.45 J0
X-150.614 Y-121.8 Z-2.891 I0.45 J0
X-151.514 Y-121.8 Z-2.933 I-0.45 J0
X-150.614 Y-121.8 Z-2.975 I0.45 J0
X-151.514 Y-121.8 Z-3.017 I-0.45 J0
X-150.614 Y-121.8 Z-3.059 I0.45 J0
X-151.514 Y-121.8 Z-3.101 I-0.45 J0
X-150.614 Y-121.8 Z-3.143 I0.45 J0
X-151.514 Y-121.8 Z-3.185 I-0.45 J0
X-150.614 Y-121.8 Z-3.227 I0.45 J0
X-151.514 Y-121.8 Z-3.269 I-0.45 J0
X-150.614 Y-121.8 Z-3.31 I0.45 J0
X-151.514 Y-121.8 Z-3.352 I-0.45 J0
X-150.614 Y-121.8 Z-3.394 I0.45 J0
X-151.514 Y-121.8 Z-3.436 I-0.45 J0
X-150.614 Y-121.8 Z-3.478 I0.45 J0
X-151.514 Y-121.8 Z-3.52 I-0.45 J0
X-150.614 Y-121.8 Z-3.562 I0.45 J0
X-151.514 Y-121.8 Z-3.604 I-0.45 J0
X-150.614 Y-121.8 Z-3.646 I0.45 J0
X-151.514 Y-121.8 Z-3.688 I-0.45 J0
X-150.614 Y-121.8 Z-3.73 I0.45 J0
X-151.514 Y-121.8 Z-3.771 I-0.45 J0
X-150.614 Y-121.8 Z-3.813 I0.45 J0
X-151.514 Y-121.8 Z-3.855 I-0.45 J0
X-150.614 Y-121.8 Z-3.897 I0.45 J0
X-151.514 Y-121.8 Z-3.939 I-0.45 J0
X-150.614 Y-121.8 Z-3.981 I0.45 J0
X-151.514 Y-121.8 Z-4.023 I-0.45 J0
X-150.614 Y-121.8 Z-4.065 I0.45 J0
X-151.514 Y-121.8 Z-4.107 I-0.45 J0
X-150.614 Y-121.8 Z-4.149 I0.45 J0
X-151.514 Y-121.8 Z-4.19 I-0.45 J0
X-150.614 Y-121.8 Z-4.232 I0.45 J0
X-151.514 Y-121.8 Z-4.274 I-0.45 J0
X-150.907 Y-122.222 Z-4.3 I0.45 J0
X-151.221 Y-121.378 I-0.157 J0.422
X-150.907 Y-122.222 I0.157 J-0.422
G1 X-150.866 Y-122.199
X-150.835 Y-122.164
X-150.815 Y-122.122
X-150.81 Y-122.075
X-150.819 Y-122.029
X-150.845 Y-121.959
X-150.861 Y-121.915 Z-4.293
X-150.876 Y-121.876 Z-4.271
X-150.887 Y-121.845 Z-4.238
X-150.895 Y-121.825 Z-4.196
X-150.897 Y-121.818 Z-4.15
Z5
X-151.139 Y-101.65
Z2
Z0.15 F400
X-151.146 Z0.104
X-151.168 Z0.062
X-151.201 Z0.029
X-151.243 Z0.007
X-151.289 Z0
X-151.364
X-151.41 Y-101.657
X-151.452 Y-101.679
X-151.485 Y-101.712
X-151.507 Y-101.754
X-151.514 Y-101.8
G3 X-150.614 Y-101.8 Z-0.042 I0.45 J0 F600
X-151.514 Y-101.8 Z-0.084 I-0.45 J0
X-150.614 Y-101.8 Z-0.126 I0.45 J0
X-151.514 Y-101.8 Z-0.168 I-0.45 J0
X-150.614 Y-101.8 Z-0.21 I0.45 J0
X-151.514 Y-101.8 Z-0.251 I-0.45 J0
X-150.614 Y-101.8 Z-0.293 I0.45 J0
X-151.514 Y-101.8 Z-0.335 I-0.45 J0
X-150.614 Y-101.8 Z-0.377 I0.45 J0
X-151.514 Y-101.8 Z-0.419 I-0.45 J0
X-150.614 Y-101.8 Z-0.461 I0.45 J0
X-151.514 Y-101.8 Z-0.503 I-0.45 J0
X-150.614 Y-101.8 Z-0.545 I0.45 J0
X-151.514 Y-101.8 Z-0.587 I-0.45 J0
X-150.614 Y-101.8 Z-0.629 I0.45 J0
X-151.514 Y-101.8 Z-0.67 I-0.45 J0
X-150.614 Y-101.8 Z-0.712 I0.45 J0
X-151.514 Y-101.8 Z-0.754 I-0.45 J0
X-150.614 Y-101.8 Z-0.796 I0.45 J0
X-151.514 Y-101.8 Z-0.838 I-0.45 J0
X-150.614 Y-101.8 Z-0.88 I0.45 J0
X-151.514 Y-101.8 Z-0.922 I-0.45 J0
X-150.614 Y-101.8 Z-0.964 I0.45 J0
X-151.514 Y-101.8 Z-1.006 I-0.45 J0
X-150.614 Y-101.8 Z-1.048 I0.45 J0
X-151.514 Y-101.8 Z-1.09 I-0.45 J0
X-150.614 Y-101.8 Z-1.131 I0.45 J0
X-151.514 Y-101.8 Z-1.173 I-0.45 J0
X-150.614 Y-101.8 Z-1.215 I0.45 J0
X-151.514 Y-101.8 Z-1.257 I-0.45 J0
X-150.614 Y-101.8 Z-1.299 I0.45 J0
X-151.514 Y-101.8 Z-1.341 I-0.45 J0
X-150.614 Y-101.8 Z-1.383 I0.45 J0
X-151.514 Y-101.8 Z-1.425 I-0.45 J0
X-150.614 Y-101.8 Z-1.467 I0.45 J0
X-151.514 Y-101.8 Z-1.509 I-0.45 J0
X-150.614 Y-101.8 Z-1.55 I0.45 J0
X-151.514 Y-101.8 Z-1.592 I-0.45 J0
X-150.614 Y-101.8 Z-1.634 I0.45 J0
X-151.514 Y-101.8 Z-1.676 I-0.45 J0
X-150.614 Y-101.8 Z-1.718 I0.45 J0
X-151.514 Y-101.8 Z-1.76 I-0.45 J0
X-150.614 Y-101.8 Z-1.802 I0.45 J0
X-151.514 Y-101.8 Z-1.844 I-0.45 J0
X-150.614 Y-101.8 Z-1.886 I0.45 J0
X-151.514 Y-101.8 Z-1.928 I-0.45 J0
X-150.614 Y-101.8 Z-1.97 I0.45 J0
X-151.514 Y-101.8 Z-2.011 I-0.45 J0
X-150.614 Y-101.8 Z-2.053 I0.45 J0
X-151.514 Y-101.8 Z-2.095 I-0.45 J0
X-150.614 Y-101.8 Z-2.137 I0.45 J0
X-151.514 Y-101.8 Z-2.179 I-0.45 J0
X-150.614 Y-101.8 Z-2.221 I0.45 J0
X-151.514 Y-101.8 Z-2.263 I-0.45 J0
X-150.614 Y-101.8 Z-2.305 I0.45 J0
X-151.514 Y-101.8 Z-2.347 I-0.45 J0
X-150.614 Y-101.8 Z-2.389 I0.45 J0
X-151.514 Y-101.8 Z-2.43 I-0.45 J0
X-150.614 Y-101.8 Z-2.472 I0.45 J0
X-151.514 Y-101.8 Z-2.514 I-0.45 J0
X-150.614 Y-101.8 Z-2.556 I0.45 J0
X-151.514 Y-101.8 Z-2.598 I-0.45 J0
X-150.614 Y-101.8 Z-2.64 I0.45 J0
X-151.514 Y-101.8 Z-2.682 I-0.45 J0
X-150.614 Y-101.8 Z-2.724 I0.45 J0
X-151.514 Y-101.8 Z-2.766 I-0.45 J0
X-150.614 Y-101.8 Z-2.808 I0.45 J0
X-151.514 Y-101.8 Z-2.85 I-0.45 J0
X-150.614 Y-101.8 Z-2.891 I0.45 J0
X-151.514 Y-101.8 Z-2.933 I-0.45 J0
X-150.614 Y-101.8 Z-2.975 I0.45 J0
X-151.514 Y-101.8 Z-3.017 I-0.45 J0
X-150.614 Y-101.8 Z-3.059 I0.45 J0
X-151.514 Y-101.8 Z-3.101 I-0.45 J0
X-150.614 Y-101.8 Z-3.143 I0.45 J0
X-151.514 Y-101.8 Z-3.185 I-0.45 J0
X-150.614 Y-101.8 Z-3.227 I0.45 J0
X-151.514 Y-101.8 Z-3.269 I-0.45 J0
X-150.614 Y-101.8 Z-3.31 I0.45 J0
X-151.514 Y-101.8 Z-3.352 I-0.45 J0
X-150.614 Y-101.8 Z-3.394 I0.45 J0
X-151.514 Y-101.8 Z-3.436 I-0.45 J0
X-150.614 Y-101.8 Z-3.478 I0.45 J0
X-151.514 Y-101.8 Z-3.52 I-0.45 J0
X-150.614 Y-101.8 Z-3.562 I0.45 J0
X-151.514 Y-101.8 Z-3.604 I-0.45 J0
X-150.614 Y-101.8 Z-3.646 I0.45 J0
X-151.514 Y-101.8 Z-3.688 I-0.45 J0
X-150.614 Y-101.8 Z-3.73 I0.45 J0
X-151.514 Y-101.8 Z-3.771 I-0.45 J0
X-150.614 Y-101.8 Z-3.813 I0.45 J0
X-151.514 Y-101.8 Z-3.855 I-0.45 J0
X-150.614 Y-101.8 Z-3.897 I0.45 J0
X-151.514 Y-101.8 Z-3.939 I-0.45 J0
X-150.614 Y-101.8 Z-3.981 I0.45 J0
X-151.514 Y-101.8 Z-4.023 I-0.45 J0
X-150.614 Y-101.8 Z-4.065 I0.45 J0
X-151.514 Y-101.8 Z-4.107 I-0.45 J0
X-150.614 Y-101.8 Z-4.149 I0.45 J0
X-151.514 Y-101.8 Z-4.19 I-0.45 J0
X-150.614 Y-101.8 Z-4.232 I0.45 J0
X-151.514 Y-101.8 Z-4.274 I-0.45 J0
X-150.907 Y-102.222 Z-4.3 I0.45 J0
X-151.221 Y-101.378 I-0.157 J0.422
X-150.907 Y-102.222 I0.157 J-0.422
G1 X-150.866 Y-102.199
X-150.835 Y-102.164
X-150.815 Y-102.122
X-150.81 Y-102.075
X-150.819 Y-102.029
X-150.845 Y-101.959
X-150.861 Y-101.915 Z-4.293
X-150.876 Y-101.876 Z-4.271
X-150.887 Y-101.845 Z-4.238
X-150.895 Y-101.825 Z-4.196
X-150.897 Y-101.818 Z-4.15
Z5
X-130.989 Y-101.95
Z2
Z0.15 F400
X-130.982 Z0.104
X-130.96 Z0.062
X-130.927 Z0.029
X-130.885 Z0.007
X-130.839 Z0
X-130.764
X-130.718 Y-101.943
X-130.676 Y-101.921
X-130.643 Y-101.888
X-130.621 Y-101.846
X-130.614 Y-101.8
G3 X-131.514 Y-101.8 Z-0.042 I-0.45 J0 F600
X-130.614 Y-101.8 Z-0.084 I0.45 J0
X-131.514 Y-101.8 Z-0.126 I-0.45 J0
X-130.614 Y-101.8 Z-0.168 I0.45 J0
X-131.514 Y-101.8 Z-0.21 I-0.45 J0
X-130.614 Y-101.8 Z-0.251 I0.45 J0
X-131.514 Y-101.8 Z-0.293 I-0.45 J0
X-130.614 Y-101.8 Z-0.335 I0.45 J0
X-131.514 Y-101.8 Z-0.377 I-0.45 J0
X-130.614 Y-101.8 Z-0.419 I0.45 J0
X-131.514 Y-101.8 Z-0.461 I-0.45 J0
X-130.614 Y-101.8 Z-0.503 I0.45 J0
X-131.514 Y-101.8 Z-0.545 I-0.45 J0
X-130.614 Y-101.8 Z-0.587 I0.45 J0
X-131.514 Y-101.8 Z-0.629 I-0.45 J0
X-130.614 Y-101.8 Z-0.67 I0.45 J0
X-131.514 Y-101.8 Z-0.712 I-0.45 J0
X-130.614 Y-101.8 Z-0.754 I0.45 J0
X-131.514 Y-101.8 Z-0.796 I-0.45 J0
X-130.614 Y-101.8 Z-0.838 I0.45 J0
X-131.514 Y-101.8 Z-0.88 I-0.45 J0
X-130.614 Y-101.8 Z-0.922 I0.45 J0
X-131.514 Y-101.8 Z-0.964 I-0.45 J0
X-130.614 Y-101.8 Z-1.006 I0.45 J0
X-131.514 Y-101.8 Z-1.048 I-0.45 J0
X-130.614 Y-101.8 Z-1.09 I0.45 J0
X-131.514 Y-101.8 Z-1.131 I-0.45 J0
X-130.614 Y-101.8 Z-1.173 I0.45 J0
X-131.514 Y-101.8 Z-1.215 I-0.45 J0
X-130.614 Y-101.8 Z-1.257 I0.45 J0
X-131.514 Y-101.8 Z-1.299 I-0.45 J0
X-130.614 Y-101.8 Z-1.341 I0.45 J0
X-131.514 Y-101.8 Z-1.383 I-0.45 J0
X-130.614 Y-101.8 Z-1.425 I0.45 J0
X-131.514 Y-101.8 Z-1.467 I-0.45 J0
X-130.614 Y-101.8 Z-1.509 I0.45 J0
X-131.514 Y-101.8 Z-1.55 I-0.45 J0
X-130.614 Y-101.8 Z-1.592 I0.45 J0
X-131.514 Y-101.8 Z-1.634 I-0.45 J0
X-130.614 Y-101.8 Z-1.676 I0.45 J0
X-131.514 Y-101.8 Z-1.718 I-0.45 J0
X-130.614 Y-101.8 Z-1.76 I0.45 J0
X-131.514 Y-101.8 Z-1.802 I-0.45 J0
X-130.614 Y-101.8 Z-1.844 I0.45 J0
X-131.514 Y-101.8 Z-1.886 I-0.45 J0
X-130.614 Y-101.8 Z-1.928 I0.45 J0
X-131.514 Y-101.8 Z-1.97 I-0.45 J0
X-130.614 Y-101.8 Z-2.011 I0.45 J0
X-131.514 Y-101.8 Z-2.053 I-0.45 J0
X-130.614 Y-101.8 Z-2.095 I0.45 J0
X-131.514 Y-101.8 Z-2.137 I-0.45 J0
X-130.614 Y-101.8 Z-2.179 I0.45 J0
X-131.514 Y-101.8 Z-2.221 I-0.45 J0
X-130.614 Y-101.8 Z-2.263 I0.45 J0
X-131.514 Y-101.8 Z-2.305 I-0.45 J0
X-130.614 Y-101.8 Z-2.347 I0.45 J0
X-131.514 Y-101.8 Z-2.389 I-0.45 J0
X-130.614 Y-101.8 Z-2.43 I0.45 J0
X-131.514 Y-101.8 Z-2.472 I-0.45 J0
X-130.614 Y-101.8 Z-2.514 I0.45 J0
X-131.514 Y-101.8 Z-2.556 I-0.45 J0
X-130.614 Y-101.8 Z-2.598 I0.45 J0
X-131.514 Y-101.8 Z-2.64 I-0.45 J0
X-130.614 Y-101.8 Z-2.682 I0.45 J0
X-131.514 Y-101.8 Z-2.724 I-0.45 J0
X-130.614 Y-101.8 Z-2.766 I0.45 J0
X-131.514 Y-101.8 Z-2.808 I-0.45 J0
X-130.614 Y-101.8 Z-2.85 I0.45 J0
X-131.514 Y-101.8 Z-2.891 I-0.45 J0
X-130.614 Y-101.8 Z-2.933 I0.45 J0
X-131.514 Y-101.8 Z-2.975 I-0.45 J0
X-130.614 Y-101.8 Z-3.017 I0.45 J0
X-131.514 Y-101.8 Z-3.059 I-0.45 J0
X-130.614 Y-101.8 Z-3.101 I0.45 J0
X-131.514 Y-101.8 Z-3.143 I-0.45 J0
X-130.614 Y-101.8 Z-3.185 I0.45 J0
X-131.514 Y-101.8 Z-3.227 I-0.45 J0
X-130.614 Y-101.8 Z-3.269 I0.45 J0
X-131.514 Y-101.8 Z-3.31 I-0.45 J0
X-130.614 Y-101.8 Z-3.352 I0.45 J0
X-131.514 Y-101.8 Z-3.394 I-0.45 J0
X-130.614 Y-101.8 Z-3.436 I0.45 J0
X-131.514 Y-101.8 Z-3.478 I-0.45 J0
X-130.614 Y-101.8 Z-3.52 I0.45 J0
X-131.514 Y-101.8 Z-3.562 I-0.45 J0
X-130.614 Y-101.8 Z-3.604 I0.45 J0
X-131.514 Y-101.8 Z-3.646 I-0.45 J0
X-130.614 Y-101.8 Z-3.688 I0.45 J0
X-131.514 Y-101.8 Z-3.73 I-0.45 J0
X-130.614 Y-101.8 Z-3.771 I0.45 J0
X-131.514 Y-101.8 Z-3.813 I-0.45 J0
X-130.614 Y-101.8 Z-3.855 I0.45 J0
X-131.514 Y-101.8 Z-3.897 I-0.45 J0
X-130.614 Y-101.8 Z-3.939 I0.45 J0
X-131.514 Y-101.8 Z-3.981 I-0.45 J0
X-130.614 Y-101.8 Z-4.023 I0.45 J0
X-131.514 Y-101.8 Z-4.065 I-0.45 J0
X-130.614 Y-101.8 Z-4.107 I0.45 J0
X-131.514 Y-101.8 Z-4.149 I-0.45 J0
X-130.614 Y-101.8 Z-4.19 I0.45 J0
X-131.514 Y-101.8 Z-4.232 I-0.45 J0
X-130.614 Y-101.8 Z-4.274 I0.45 J0
X-131.221 Y-101.378 Z-4.3 I-0.45 J0
X-130.907 Y-102.222 I0.157 J-0.422
X-131.221 Y-101.378 I-0.157 J0.422
G1 X-131.262 Y-101.401
X-131.294 Y-101.436
X-131.313 Y-101.478
X-131.318 Y-101.525
X-131.309 Y-101.571
X-131.283 Y-101.641
X-131.267 Y-101.685 Z-4.293
X-131.252 Y-101.724 Z-4.271
X-131.241 Y-101.755 Z-4.238
X-131.233 Y-101.775 Z-4.196
X-131.231 Y-101.782 Z-4.15
Z15
(When using Fusion 360 for Personal Use, the feedrate of)
(rapid moves is reduced to match the feedrate of cutting)
(moves, which can increase machining time. Unrestricted rapid)
(moves are available with a Fusion 360 Subscription.)

(2D-Kontur3)
G0 Z15.5
X-210.343 Y-59.071
G1 Z15.5 F600
Z5.5
Z3.15 F300
X-210.338 Y-59.065 Z3.104 F400
X-210.325 Y-59.048 Z3.062
X-210.305 Y-59.022 Z3.029
X-210.28 Y-58.988 Z3.007
X-210.252 Y-58.951 Z3
X-210.161 Y-58.832
X-210.138 Y-58.791
X-210.13 Y-58.745
X-210.136 Y-58.698
X-210.157 Y-58.656
X-210.189 Y-58.622
X-211.049 Y-57.967 Z2.962 F1016
G3 X-211.533 Y-58.603 Z2.918 I-0.242 J-0.318
G1 X-208.948 Y-60.573 Z2.805
G3 X-208.464 Y-59.937 Z2.761 I0.242 J0.318
G1 X-211.049 Y-57.967 Z2.648
G3 X-211.533 Y-58.603 Z2.604 I-0.242 J-0.318
G1 X-208.948 Y-60.573 Z2.49
G3 X-208.464 Y-59.937 Z2.446 I0.242 J0.318
G1 X-211.049 Y-57.967 Z2.333
G3 X-211.533 Y-58.603 Z2.289 I-0.242 J-0.318
G1 X-208.948 Y-60.573 Z2.175
G3 X-208.464 Y-59.937 Z2.132 I0.242 J0.318
G1 X-211.049 Y-57.967 Z2.018
G3 X-211.533 Y-58.603 Z1.974 I-0.242 J-0.318
G1 X-208.948 Y-60.573 Z1.861
G3 X-208.464 Y-59.937 Z1.817 I0.242 J0.318
G1 X-211.049 Y-57.967 Z1.703
G3 X-211.533 Y-58.603 Z1.659 I-0.242 J-0.318
G1 X-208.948 Y-60.573 Z1.546
G3 X-208.464 Y-59.937 Z1.502 I0.242 J0.318
G1 X-211.049 Y-57.967 Z1.389
G3 X-211.533 Y-58.603 Z1.345 I-0.242 J-0.318
G1 X-208.948 Y-60.573 Z1.231
G3 X-208.464 Y-59.937 Z1.187 I0.242 J0.318
G1 X-211.049 Y-57.967 Z1.074
G3 X-211.533 Y-58.603 Z1.03 I-0.242 J-0.318
G1 X-208.948 Y-60.573 Z0.916
G3 X-208.464 Y-59.937 Z0.872 I0.242 J0.318
G1 X-211.049 Y-57.967 Z0.759
G3 X-211.533 Y-58.603 Z0.715 I-0.242 J-0.318
G1 X-208.948 Y-60.573 Z0.602
G3 X-208.464 Y-59.937 Z0.558 I0.242 J0.318
G1 X-211.049 Y-57.967 Z0.444
G3 X-211.533 Y-58.603 Z0.4 I-0.242 J-0.318
G1 X-208.948 Y-60.573 Z0.287
G3 X-208.464 Y-59.937 Z0.243 I0.242 J0.318
G1 X-211.049 Y-57.967 Z0.13
G3 X-211.533 Y-58.603 Z0.086 I-0.242 J-0.318
G1 X-208.948 Y-60.573 Z-0.028
G3 X-208.464 Y-59.937 Z-0.072 I0.242 J0.318
G1 X-211.049 Y-57.967 Z-0.185
G3 X-211.533 Y-58.603 Z-0.229 I-0.242 J-0.318
G1 X-208.948 Y-60.573 Z-0.343
G3 X-208.464 Y-59.937 Z-0.387 I0.242 J0.318
G1 X-211.049 Y-57.967 Z-0.5
G3 X-211.533 Y-58.603 I-0.242 J-0.318 F600
G1 X-208.948 Y-60.573
G3 X-208.464 Y-59.937 I0.242 J0.318
G1 X-211.049 Y-57.967
G3 X-211.533 Y-58.603 Z-0.544 I-0.242 J-0.318 F1016
G1 X-208.948 Y-60.573 Z-0.657
G3 X-208.464 Y-59.937 Z-0.701 I0.242 J0.318
G1 X-211.049 Y-57.967 Z-0.815
G3 X-211.533 Y-58.603 Z-0.859 I-0.242 J-0.318
G1 X-208.948 Y-60.573 Z-0.972
G3 X-208.464 Y-59.937 Z-1.016 I0.242 J0.318
G1 X-211.049 Y-57.967 Z-1.13
G3 X-211.533 Y-58.603 Z-1.173 I-0.242 J-0.318
G1 X-208.948 Y-60.573 Z-1.287
G3 X-208.464 Y-59.937 Z-1.331 I0.242 J0.318
G1 X-211.049 Y-57.967 Z-1.444
G3 X-211.533 Y-58.603 Z-1.488 I-0.242 J-0.318
G1 X-211.263 Y-58.809 Z-1.5
X-208.948 Y-60.573 F600
G3 X-208.464 Y-59.937 I0.242 J0.318
G1 X-211.049 Y-57.967
G3 X-211.533 Y-58.603 I-0.242 J-0.318
G1 X-211.263 Y-58.809
X-208.948 Y-60.573 Z-1.602 F1016
G3 X-208.464 Y-59.937 Z-1.646 I0.242 J0.318
G1 X-211.049 Y-57.967 Z-1.759
G3 X-211.533 Y-58.603 Z-1.803 I-0.242 J-0.318
G1 X-208.948 Y-60.573 Z-1.916
G3 X-208.464 Y-59.937 Z-1.96 I0.242 J0.318
G1 X-211.049 Y-57.967 Z-2.074
G3 X-211.533 Y-58.603 Z-2.118 I-0.242 J-0.318
G1 X-208.948 Y-60.573 Z-2.231
G3 X-208.464 Y-59.937 Z-2.275 I0.242 J0.318
G1 X-211.049 Y-57.967 Z-2.389
G3 X-211.533 Y-58.603 Z-2.432 I-0.242 J-0.318
G1 X-209.994 Y-59.777 Z-2.5
X-208.948 Y-60.573 F600
G3 X-208.464 Y-59.937 I0.242 J0.318
G1 X-211.049 Y-57.967
G3 X-211.533 Y-58.603 I-0.242 J-0.318
G1 X-209.994 Y-59.777
X-208.948 Y-60.573 Z-2.546 F1016
G3 X-208.464 Y-59.937 Z-2.59 I0.242 J0.318
G1 X-211.049 Y-57.967 Z-2.703
G3 X-211.533 Y-58.603 Z-2.747 I-0.242 J-0.318
G1 X-208.948 Y-60.573 Z-2.861
G3 X-208.464 Y-59.937 Z-2.905 I0.242 J0.318
G1 X-211.049 Y-57.967 Z-3.018
G3 X-211.533 Y-58.603 Z-3.062 I-0.242 J-0.318
G1 X-208.948 Y-60.573 Z-3.175
G3 X-208.464 Y-59.937 Z-3.219 I0.242 J0.318
G1 X-211.049 Y-57.967 Z-3.333
G3 X-211.533 Y-58.603 Z-3.377 I-0.242 J-0.318
G1 X-208.948 Y-60.573 Z-3.49
G3 X-208.684 Y-60.654 Z-3.5 I0.242 J0.318
X-208.464 Y-59.937 I-0.022 J0.399 F600
G1 X-211.049 Y-57.967
G3 X-211.533 Y-58.603 I-0.242 J-0.318
G1 X-209.994 Y-59.777
X-208.948 Y-60.573
G3 X-208.684 Y-60.654 I0.242 J0.318
X-208.464 Y-59.937 Z-3.534 I-0.022 J0.399 F1016
G1 X-211.049 Y-57.967 Z-3.648
G3 X-211.533 Y-58.603 Z-3.691 I-0.242 J-0.318
G1 X-208.948 Y-60.573 Z-3.805
G3 X-208.464 Y-59.937 Z-3.849 I0.242 J0.318
G1 X-211.049 Y-57.967 Z-3.962
G3 X-211.533 Y-58.603 Z-4.006 I-0.242 J-0.318
G1 X-208.948 Y-60.573 Z-4.12
G3 X-208.464 Y-59.937 Z-4.164 I0.242 J0.318
G1 X-211.049 Y-57.967 Z-4.277
G3 X-211.626 Y-58.067 Z-4.3 I-0.242 J-0.318
X-211.533 Y-58.603 I0.335 J-0.218 F600
G1 X-208.948 Y-60.573
G3 X-208.464 Y-59.937 I0.242 J0.318
G1 X-211.049 Y-57.967
G3 X-211.626 Y-58.067 I-0.242 J-0.318
G1 X-211.645 Y-58.11
X-211.65 Y-58.157
X-211.641 Y-58.202
X-211.617 Y-58.243
X-211.582 Y-58.275
X-211.457 Y-58.356
X-211.418 Y-58.382 Z-4.293
X-211.383 Y-58.404 Z-4.271
X-211.355 Y-58.422 Z-4.238
X-211.337 Y-58.434 Z-4.196
X-211.331 Y-58.438 Z-4.15
Z5.5
X-220.539 Y-61.017
Z3.15 F300
X-220.545 Y-61.013 Z3.104 F400
X-220.562 Y-61 Z3.062
X-220.588 Y-60.98 Z3.029
X-220.622 Y-60.955 Z3.007
X-220.659 Y-60.926 Z3
X-220.778 Y-60.836
X-220.819 Y-60.813
X-220.865 Y-60.805
X-220.912 Y-60.811
X-220.954 Y-60.831
X-220.988 Y-60.864
X-221.637 Y-61.716 Z2.963 F1016
G3 X-221.001 Y-62.201 Z2.919 I0.318 J-0.242
G1 X-219.032 Y-59.616 Z2.805
G3 X-219.107 Y-59.055 Z2.783 I-0.318 J0.243
X-219.667 Y-59.131 Z2.761 I-0.243 J-0.318
G1 X-221.637 Y-61.716 Z2.648
G3 X-221.001 Y-62.201 Z2.604 I0.318 J-0.242
G1 X-219.032 Y-59.616 Z2.49
G3 X-219.107 Y-59.055 Z2.468 I-0.318 J0.243
X-219.667 Y-59.131 Z2.447 I-0.243 J-0.318
G1 X-221.637 Y-61.716 Z2.333
G3 X-221.001 Y-62.201 Z2.289 I0.318 J-0.242
G1 X-219.032 Y-59.616 Z2.176
G3 X-219.107 Y-59.055 Z2.154 I-0.318 J0.243
X-219.667 Y-59.131 Z2.132 I-0.243 J-0.318
G1 X-221.637 Y-61.716 Z2.018
G3 X-221.001 Y-62.201 Z1.974 I0.318 J-0.242
G1 X-219.032 Y-59.616 Z1.861
G3 X-219.107 Y-59.055 Z1.839 I-0.318 J0.243
X-219.667 Y-59.131 Z1.817 I-0.243 J-0.318
G1 X-221.637 Y-61.716 Z1.703
G3 X-221.001 Y-62.201 Z1.66 I0.318 J-0.242
G1 X-219.032 Y-59.616 Z1.546
G3 X-219.107 Y-59.055 Z1.524 I-0.318 J0.243
X-219.667 Y-59.131 Z1.502 I-0.243 J-0.318
G1 X-221.637 Y-61.716 Z1.389
G3 X-221.001 Y-62.201 Z1.345 I0.318 J-0.242
G1 X-219.032 Y-59.616 Z1.231
G3 X-219.107 Y-59.055 Z1.209 I-0.318 J0.243
X-219.667 Y-59.131 Z1.187 I-0.243 J-0.318
G1 X-221.637 Y-61.716 Z1.074
G3 X-221.001 Y-62.201 Z1.03 I0.318 J-0.242
G1 X-219.032 Y-59.616 Z0.917
G3 X-219.107 Y-59.055 Z0.895 I-0.318 J0.243
X-219.667 Y-59.131 Z0.873 I-0.243 J-0.318
G1 X-221.637 Y-61.716 Z0.759
G3 X-221.001 Y-62.201 Z0.715 I0.318 J-0.242
G1 X-219.032 Y-59.616 Z0.602
G3 X-219.107 Y-59.055 Z0.58 I-0.318 J0.243
X-219.667 Y-59.131 Z0.558 I-0.243 J-0.318
G1 X-221.637 Y-61.716 Z0.444
G3 X-221.001 Y-62.201 Z0.4 I0.318 J-0.242
G1 X-219.032 Y-59.616 Z0.287
G3 X-219.107 Y-59.055 Z0.265 I-0.318 J0.243
X-219.667 Y-59.131 Z0.243 I-0.243 J-0.318
G1 X-221.637 Y-61.716 Z0.13
G3 X-221.001 Y-62.201 Z0.086 I0.318 J-0.242
G1 X-219.032 Y-59.616 Z-0.028
G3 X-219.107 Y-59.055 Z-0.05 I-0.318 J0.243
X-219.667 Y-59.131 Z-0.072 I-0.243 J-0.318
G1 X-221.637 Y-61.716 Z-0.185
G3 X-221.001 Y-62.201 Z-0.229 I0.318 J-0.242
G1 X-219.032 Y-59.616 Z-0.343
G3 X-219.107 Y-59.055 Z-0.365 I-0.318 J0.243
X-219.667 Y-59.131 Z-0.387 I-0.243 J-0.318
G1 X-221.637 Y-61.716 Z-0.5
G3 X-221.001 Y-62.201 I0.318 J-0.242 F600
G1 X-219.032 Y-59.616
G3 X-219.107 Y-59.055 I-0.318 J0.243
X-219.667 Y-59.131 I-0.243 J-0.318
G1 X-221.637 Y-61.716
G3 X-221.001 Y-62.201 Z-0.544 I0.318 J-0.242 F1016
G1 X-219.032 Y-59.616 Z-0.657
G3 X-219.107 Y-59.055 Z-0.679 I-0.318 J0.243
X-219.667 Y-59.131 Z-0.701 I-0.243 J-0.318
G1 X-221.637 Y-61.716 Z-0.815
G3 X-221.001 Y-62.201 Z-0.859 I0.318 J-0.242
G1 X-219.032 Y-59.616 Z-0.972
G3 X-219.107 Y-59.055 Z-0.994 I-0.318 J0.243
X-219.667 Y-59.131 Z-1.016 I-0.243 J-0.318
G1 X-221.637 Y-61.716 Z-1.13
G3 X-221.001 Y-62.201 Z-1.173 I0.318 J-0.242
G1 X-219.032 Y-59.616 Z-1.287
G3 X-219.107 Y-59.055 Z-1.309 I-0.318 J0.243
X-219.667 Y-59.131 Z-1.331 I-0.243 J-0.318
G1 X-221.637 Y-61.716 Z-1.444
G3 X-221.001 Y-62.201 Z-1.488 I0.318 J-0.242
G1 X-220.797 Y-61.933 Z-1.5
X-219.032 Y-59.616 F600
G3 X-219.107 Y-59.055 I-0.318 J0.243
X-219.667 Y-59.131 I-0.243 J-0.318
G1 X-221.637 Y-61.716
G3 X-221.001 Y-62.201 I0.318 J-0.242
G1 X-220.797 Y-61.933
X-219.032 Y-59.616 Z-1.602 F1016
G3 X-219.107 Y-59.055 Z-1.624 I-0.318 J0.243
X-219.667 Y-59.131 Z-1.646 I-0.243 J-0.318
G1 X-221.637 Y-61.716 Z-1.759
G3 X-221.001 Y-62.201 Z-1.803 I0.318 J-0.242
G1 X-219.032 Y-59.616 Z-1.917
G3 X-219.107 Y-59.055 Z-1.938 I-0.318 J0.243
X-219.667 Y-59.131 Z-1.96 I-0.243 J-0.318
G1 X-221.637 Y-61.716 Z-2.074
G3 X-221.001 Y-62.201 Z-2.118 I0.318 J-0.242
G1 X-219.032 Y-59.616 Z-2.231
G3 X-219.107 Y-59.055 Z-2.253 I-0.318 J0.243
X-219.667 Y-59.131 Z-2.275 I-0.243 J-0.318
G1 X-221.637 Y-61.716 Z-2.389
G3 X-221.001 Y-62.201 Z-2.433 I0.318 J-0.242
G1 X-219.831 Y-60.666 Z-2.5
X-219.032 Y-59.616 F600
G3 X-219.107 Y-59.055 I-0.318 J0.243
X-219.667 Y-59.131 I-0.243 J-0.318
G1 X-221.637 Y-61.716
G3 X-221.001 Y-62.201 I0.318 J-0.242
G1 X-219.831 Y-60.666
X-219.032 Y-59.616 Z-2.546 F1016
G3 X-219.107 Y-59.055 Z-2.568 I-0.318 J0.243
X-219.667 Y-59.131 Z-2.59 I-0.243 J-0.318
G1 X-221.637 Y-61.716 Z-2.703
G3 X-221.001 Y-62.201 Z-2.747 I0.318 J-0.242
G1 X-219.032 Y-59.616 Z-2.861
G3 X-219.107 Y-59.055 Z-2.883 I-0.318 J0.243
X-219.667 Y-59.131 Z-2.905 I-0.243 J-0.318
G1 X-221.637 Y-61.716 Z-3.018
G3 X-221.001 Y-62.201 Z-3.062 I0.318 J-0.242
G1 X-219.032 Y-59.616 Z-3.176
G3 X-219.107 Y-59.055 Z-3.198 I-0.318 J0.243
X-219.667 Y-59.131 Z-3.22 I-0.243 J-0.318
G1 X-221.637 Y-61.716 Z-3.333
G3 X-221.001 Y-62.201 Z-3.377 I0.318 J-0.242
G1 X-219.032 Y-59.616 Z-3.49
G3 X-218.95 Y-59.36 Z-3.5 I-0.318 J0.243
X-219.667 Y-59.131 I-0.4 J-0.013 F600
G1 X-221.637 Y-61.716
G3 X-221.001 Y-62.201 I0.318 J-0.242
G1 X-219.831 Y-60.666
X-219.032 Y-59.616
G3 X-218.95 Y-59.36 I-0.318 J0.243
X-219.667 Y-59.131 Z-3.534 I-0.4 J-0.013 F1016
G1 X-221.637 Y-61.716 Z-3.648
G3 X-221.001 Y-62.201 Z-3.692 I0.318 J-0.242
G1 X-219.032 Y-59.616 Z-3.805
G3 X-219.107 Y-59.055 Z-3.827 I-0.318 J0.243
X-219.667 Y-59.131 Z-3.849 I-0.243 J-0.318
G1 X-221.637 Y-61.716 Z-3.963
G3 X-221.001 Y-62.201 Z-4.007 I0.318 J-0.242
G1 X-219.032 Y-59.616 Z-4.12
G3 X-219.107 Y-59.055 Z-4.142 I-0.318 J0.243
X-219.667 Y-59.131 Z-4.164 I-0.243 J-0.318
G1 X-221.637 Y-61.716 Z-4.277
G3 X-221.546 Y-62.288 Z-4.3 I0.318 J-0.242
X-221.001 Y-62.201 I0.227 J0.33 F600
G1 X-219.032 Y-59.616
G3 X-219.107 Y-59.055 I-0.318 J0.243
X-219.667 Y-59.131 I-0.243 J-0.318
G1 X-221.637 Y-61.716
G3 X-221.546 Y-62.288 I0.318 J-0.242
G1 X-221.504 Y-62.308
X-221.457 Y-62.314
X-221.411 Y-62.306
X-221.37 Y-62.284
X-221.338 Y-62.25
X-221.252 Y-62.126
X-221.226 Y-62.088 Z-4.293
X-221.202 Y-62.054 Z-4.271
X-221.184 Y-62.026 Z-4.238
X-221.171 Y-62.009 Z-4.196
X-221.167 Y-62.003 Z-4.15
Z5.5
X-222.075 Y-50.131
Z3.15 F300
X-222.07 Y-50.125 Z3.104 F400
X-222.057 Y-50.108 Z3.062
X-222.037 Y-50.081 Z3.029
X-222.012 Y-50.048 Z3.007
X-221.984 Y-50.011 Z3
X-221.893 Y-49.892
X-221.87 Y-49.851
X-221.862 Y-49.805
X-221.868 Y-49.758
X-221.889 Y-49.716
X-221.921 Y-49.682
X-222.781 Y-49.027 Z2.962 F1016
G3 X-223.265 Y-49.663 Z2.918 I-0.242 J-0.318
G1 X-220.68 Y-51.633 Z2.805
G3 X-220.196 Y-50.997 Z2.761 I0.242 J0.318
G1 X-222.781 Y-49.027 Z2.648
G3 X-223.265 Y-49.663 Z2.604 I-0.242 J-0.318
G1 X-220.68 Y-51.633 Z2.49
G3 X-220.196 Y-50.997 Z2.446 I0.242 J0.318
G1 X-222.781 Y-49.027 Z2.333
G3 X-223.265 Y-49.663 Z2.289 I-0.242 J-0.318
G1 X-220.68 Y-51.633 Z2.175
G3 X-220.196 Y-50.997 Z2.132 I0.242 J0.318
G1 X-222.781 Y-49.027 Z2.018
G3 X-223.265 Y-49.663 Z1.974 I-0.242 J-0.318
G1 X-220.68 Y-51.633 Z1.861
G3 X-220.196 Y-50.997 Z1.817 I0.242 J0.318
G1 X-222.781 Y-49.027 Z1.703
G3 X-223.265 Y-49.663 Z1.659 I-0.242 J-0.318
G1 X-220.68 Y-51.633 Z1.546
G3 X-220.196 Y-50.997 Z1.502 I0.242 J0.318
G1 X-222.781 Y-49.027 Z1.389
G3 X-223.265 Y-49.663 Z1.345 I-0.242 J-0.318
G1 X-220.68 Y-51.633 Z1.231
G3 X-220.196 Y-50.997 Z1.187 I0.242 J0.318
G1 X-222.781 Y-49.027 Z1.074
G3 X-223.265 Y-49.663 Z1.03 I-0.242 J-0.318
G1 X-220.68 Y-51.633 Z0.916
G3 X-220.196 Y-50.997 Z0.872 I0.242 J0.318
G1 X-222.781 Y-49.027 Z0.759
G3 X-223.265 Y-49.663 Z0.715 I-0.242 J-0.318
G1 X-220.68 Y-51.633 Z0.602
G3 X-220.196 Y-50.997 Z0.558 I0.242 J0.318
G1 X-222.781 Y-49.027 Z0.444
G3 X-223.265 Y-49.663 Z0.4 I-0.242 J-0.318
G1 X-220.68 Y-51.633 Z0.287
G3 X-220.196 Y-50.997 Z0.243 I0.242 J0.318
G1 X-222.781 Y-49.027 Z0.13
G3 X-223.265 Y-49.663 Z0.086 I-0.242 J-0.318
G1 X-220.68 Y-51.633 Z-0.028
G3 X-220.196 Y-50.997 Z-0.072 I0.242 J0.318
G1 X-222.781 Y-49.027 Z-0.185
G3 X-223.265 Y-49.663 Z-0.229 I-0.242 J-0.318
G1 X-220.68 Y-51.633 Z-0.343
G3 X-220.196 Y-50.997 Z-0.387 I0.242 J0.318
G1 X-222.781 Y-49.027 Z-0.5
G3 X-223.265 Y-49.663 I-0.242 J-0.318 F600
G1 X-220.68 Y-51.633
G3 X-220.196 Y-50.997 I0.242 J0.318
G1 X-222.781 Y-49.027
G3 X-223.265 Y-49.663 Z-0.544 I-0.242 J-0.318 F1016
G1 X-220.68 Y-51.633 Z-0.657
G3 X-220.196 Y-50.997 Z-0.701 I0.242 J0.318
G1 X-222.781 Y-49.027 Z-0.815
G3 X-223.265 Y-49.663 Z-0.859 I-0.242 J-0.318
G1 X-220.68 Y-51.633 Z-0.972
G3 X-220.196 Y-50.997 Z-1.016 I0.242 J0.318
G1 X-222.781 Y-49.027 Z-1.13
G3 X-223.265 Y-49.663 Z-1.173 I-0.242 J-0.318
G1 X-220.68 Y-51.633 Z-1.287
G3 X-220.196 Y-50.997 Z-1.331 I0.242 J0.318
G1 X-222.781 Y-49.027 Z-1.444
G3 X-223.265 Y-49.663 Z-1.488 I-0.242 J-0.318
G1 X-222.995 Y-49.869 Z-1.5
X-220.68 Y-51.633 F600
G3 X-220.196 Y-50.997 I0.242 J0.318
G1 X-222.781 Y-49.027
G3 X-223.265 Y-49.663 I-0.242 J-0.318
G1 X-222.995 Y-49.869
X-220.68 Y-51.633 Z-1.602 F1016
G3 X-220.196 Y-50.997 Z-1.646 I0.242 J0.318
G1 X-222.781 Y-49.027 Z-1.759
G3 X-223.265 Y-49.663 Z-1.803 I-0.242 J-0.318
G1 X-220.68 Y-51.633 Z-1.916
G3 X-220.196 Y-50.997 Z-1.96 I0.242 J0.318
G1 X-222.781 Y-49.027 Z-2.074
G3 X-223.265 Y-49.663 Z-2.118 I-0.242 J-0.318
G1 X-220.68 Y-51.633 Z-2.231
G3 X-220.196 Y-50.997 Z-2.275 I0.242 J0.318
G1 X-222.781 Y-49.027 Z-2.389
G3 X-223.265 Y-49.663 Z-2.432 I-0.242 J-0.318
G1 X-221.726 Y-50.837 Z-2.5
X-220.68 Y-51.633 F600
G3 X-220.196 Y-50.997 I0.242 J0.318
G1 X-222.781 Y-49.027
G3 X-223.265 Y-49.663 I-0.242 J-0.318
G1 X-221.726 Y-50.837
X-220.68 Y-51.633 Z-2.546 F1016
G3 X-220.196 Y-50.997 Z-2.59 I0.242 J0.318
G1 X-222.781 Y-49.027 Z-2.703
G3 X-223.265 Y-49.663 Z-2.747 I-0.242 J-0.318
G1 X-220.68 Y-51.633 Z-2.861
G3 X-220.196 Y-50.997 Z-2.905 I0.242 J0.318
G1 X-222.781 Y-49.027 Z-3.018
G3 X-223.265 Y-49.663 Z-3.062 I-0.242 J-0.318
G1 X-220.68 Y-51.633 Z-3.175
G3 X-220.196 Y-50.997 Z-3.219 I0.242 J0.318
G1 X-222.781 Y-49.027 Z-3.333
G3 X-223.265 Y-49.663 Z-3.377 I-0.242 J-0.318
G1 X-220.68 Y-51.633 Z-3.49
G3 X-220.416 Y-51.714 Z-3.5 I0.242 J0.318
X-220.196 Y-50.997 I-0.022 J0.399 F600
G1 X-222.781 Y-49.027
G3 X-223.265 Y-49.663 I-0.242 J-0.318
G1 X-221.726 Y-50.837
X-220.68 Y-51.633
G3 X-220.416 Y-51.714 I0.242 J0.318
X-220.196 Y-50.997 Z-3.534 I-0.022 J0.399 F1016
G1 X-222.781 Y-49.027 Z-3.648
G3 X-223.265 Y-49.663 Z-3.691 I-0.242 J-0.318
G1 X-220.68 Y-51.633 Z-3.805
G3 X-220.196 Y-50.997 Z-3.849 I0.242 J0.318
G1 X-222.781 Y-49.027 Z-3.962
G3 X-223.265 Y-49.663 Z-4.006 I-0.242 J-0.318
G1 X-220.68 Y-51.633 Z-4.12
G3 X-220.196 Y-50.997 Z-4.164 I0.242 J0.318
G1 X-222.781 Y-49.027 Z-4.277
G3 X-223.358 Y-49.127 Z-4.3 I-0.242 J-0.318
X-223.265 Y-49.663 I0.335 J-0.218 F600
G1 X-220.68 Y-51.633
G3 X-220.196 Y-50.997 I0.242 J0.318
G1 X-222.781 Y-49.027
G3 X-223.358 Y-49.127 I-0.242 J-0.318
G1 X-223.377 Y-49.17
X-223.382 Y-49.216
X-223.373 Y-49.262
X-223.349 Y-49.303
X-223.314 Y-49.334
X-223.189 Y-49.416
X-223.15 Y-49.441 Z-4.293
X-223.115 Y-49.464 Z-4.271
X-223.087 Y-49.482 Z-4.238
X-223.069 Y-49.494 Z-4.196
X-223.063 Y-49.498 Z-4.15
Z5.5
X-211.604 Y-49.292
Z3.15 F300
X-211.61 Y-49.288 Z3.104 F400
X-211.627 Y-49.275 Z3.062
X-211.653 Y-49.255 Z3.029
X-211.687 Y-49.229 Z3.007
X-211.724 Y-49.201 Z3
X-211.843 Y-49.11
X-211.884 Y-49.088
X-211.93 Y-49.08
X-211.977 Y-49.086
X-212.019 Y-49.106
X-212.053 Y-49.139
X-212.697 Y-49.984 Z2.963 F1016
G3 X-212.061 Y-50.469 Z2.919 I0.318 J-0.242
G1 X-210.091 Y-47.884 Z2.805
G3 X-210.727 Y-47.399 Z2.762 I-0.318 J0.242
G1 X-212.697 Y-49.984 Z2.648
G3 X-212.061 Y-50.469 Z2.604 I0.318 J-0.242
G1 X-210.091 Y-47.884 Z2.491
G3 X-210.727 Y-47.399 Z2.447 I-0.318 J0.242
G1 X-212.697 Y-49.984 Z2.333
G3 X-212.061 Y-50.469 Z2.289 I0.318 J-0.242
G1 X-210.091 Y-47.884 Z2.176
G3 X-210.727 Y-47.399 Z2.132 I-0.318 J0.242
G1 X-212.697 Y-49.984 Z2.018
G3 X-212.061 Y-50.469 Z1.975 I0.318 J-0.242
G1 X-210.091 Y-47.884 Z1.861
G3 X-210.727 Y-47.399 Z1.817 I-0.318 J0.242
G1 X-212.697 Y-49.984 Z1.704
G3 X-212.061 Y-50.469 Z1.66 I0.318 J-0.242
G1 X-210.091 Y-47.884 Z1.546
G3 X-210.727 Y-47.399 Z1.502 I-0.318 J0.242
G1 X-212.697 Y-49.984 Z1.389
G3 X-212.061 Y-50.469 Z1.345 I0.318 J-0.242
G1 X-210.091 Y-47.884 Z1.231
G3 X-210.727 Y-47.399 Z1.188 I-0.318 J0.242
G1 X-212.697 Y-49.984 Z1.074
G3 X-212.061 Y-50.469 Z1.03 I0.318 J-0.242
G1 X-210.091 Y-47.884 Z0.917
G3 X-210.727 Y-47.399 Z0.873 I-0.318 J0.242
G1 X-212.697 Y-49.984 Z0.759
G3 X-212.061 Y-50.469 Z0.715 I0.318 J-0.242
G1 X-210.091 Y-47.884 Z0.602
G3 X-210.727 Y-47.399 Z0.558 I-0.318 J0.242
G1 X-212.697 Y-49.984 Z0.444
G3 X-212.061 Y-50.469 Z0.401 I0.318 J-0.242
G1 X-210.091 Y-47.884 Z0.287
G3 X-210.727 Y-47.399 Z0.243 I-0.318 J0.242
G1 X-212.697 Y-49.984 Z0.13
G3 X-212.061 Y-50.469 Z0.086 I0.318 J-0.242
G1 X-210.091 Y-47.884 Z-0.028
G3 X-210.727 Y-47.399 Z-0.072 I-0.318 J0.242
G1 X-212.697 Y-49.984 Z-0.185
G3 X-212.061 Y-50.469 Z-0.229 I0.318 J-0.242
G1 X-210.091 Y-47.884 Z-0.343
G3 X-210.727 Y-47.399 Z-0.387 I-0.318 J0.242
G1 X-212.697 Y-49.984 Z-0.5
G3 X-212.061 Y-50.469 I0.318 J-0.242 F600
G1 X-210.091 Y-47.884
G3 X-210.727 Y-47.399 I-0.318 J0.242
G1 X-212.697 Y-49.984
G3 X-212.061 Y-50.469 Z-0.544 I0.318 J-0.242 F1016
G1 X-210.091 Y-47.884 Z-0.657
G3 X-210.727 Y-47.399 Z-0.701 I-0.318 J0.242
G1 X-212.697 Y-49.984 Z-0.815
G3 X-212.061 Y-50.469 Z-0.859 I0.318 J-0.242
G1 X-210.091 Y-47.884 Z-0.972
G3 X-210.727 Y-47.399 Z-1.016 I-0.318 J0.242
G1 X-212.697 Y-49.984 Z-1.13
G3 X-212.061 Y-50.469 Z-1.174 I0.318 J-0.242
G1 X-210.091 Y-47.884 Z-1.287
G3 X-210.727 Y-47.399 Z-1.331 I-0.318 J0.242
G1 X-212.697 Y-49.984 Z-1.444
G3 X-212.061 Y-50.469 Z-1.488 I0.318 J-0.242
G1 X-211.858 Y-50.203 Z-1.5
X-210.091 Y-47.884 F600
G3 X-210.727 Y-47.399 I-0.318 J0.242
G1 X-212.697 Y-49.984
G3 X-212.061 Y-50.469 I0.318 J-0.242
G1 X-211.858 Y-50.203
X-210.091 Y-47.884 Z-1.602 F1016
G3 X-210.727 Y-47.399 Z-1.646 I-0.318 J0.242
G1 X-212.697 Y-49.984 Z-1.759
G3 X-212.061 Y-50.469 Z-1.803 I0.318 J-0.242
G1 X-210.091 Y-47.884 Z-1.917
G3 X-210.727 Y-47.399 Z-1.961 I-0.318 J0.242
G1 X-212.697 Y-49.984 Z-2.074
G3 X-212.061 Y-50.469 Z-2.118 I0.318 J-0.242
G1 X-210.091 Y-47.884 Z-2.231
G3 X-210.727 Y-47.399 Z-2.275 I-0.318 J0.242
G1 X-212.697 Y-49.984 Z-2.389
G3 X-212.061 Y-50.469 Z-2.433 I0.318 J-0.242
G1 X-210.893 Y-48.938 Z-2.5
X-210.091 Y-47.884 F600
G3 X-210.727 Y-47.399 I-0.318 J0.242
G1 X-212.697 Y-49.984
G3 X-212.061 Y-50.469 I0.318 J-0.242
G1 X-210.893 Y-48.938
X-210.091 Y-47.884 Z-2.546 F1016
G3 X-210.727 Y-47.399 Z-2.59 I-0.318 J0.242
G1 X-212.697 Y-49.984 Z-2.704
G3 X-212.061 Y-50.469 Z-2.748 I0.318 J-0.242
G1 X-210.091 Y-47.884 Z-2.861
G3 X-210.727 Y-47.399 Z-2.905 I-0.318 J0.242
G1 X-212.697 Y-49.984 Z-3.018
G3 X-212.061 Y-50.469 Z-3.062 I0.318 J-0.242
G1 X-210.091 Y-47.884 Z-3.176
G3 X-210.727 Y-47.399 Z-3.22 I-0.318 J0.242
G1 X-212.697 Y-49.984 Z-3.333
G3 X-212.061 Y-50.469 Z-3.377 I0.318 J-0.242
G1 X-210.091 Y-47.884 Z-3.491
G3 X-210.009 Y-47.635 Z-3.5 I-0.318 J0.242
X-210.727 Y-47.399 I-0.4 J-0.006 F600
G1 X-212.697 Y-49.984
G3 X-212.061 Y-50.469 I0.318 J-0.242
G1 X-210.893 Y-48.938
X-210.091 Y-47.884
G3 X-210.009 Y-47.635 I-0.318 J0.242
X-210.727 Y-47.399 Z-3.535 I-0.4 J-0.006 F1016
G1 X-212.697 Y-49.984 Z-3.648
G3 X-212.061 Y-50.469 Z-3.692 I0.318 J-0.242
G1 X-210.091 Y-47.884 Z-3.805
G3 X-210.727 Y-47.399 Z-3.849 I-0.318 J0.242
G1 X-212.697 Y-49.984 Z-3.963
G3 X-212.061 Y-50.469 Z-4.007 I0.318 J-0.242
G1 X-210.091 Y-47.884 Z-4.12
G3 X-210.727 Y-47.399 Z-4.164 I-0.318 J0.242
G1 X-212.697 Y-49.984 Z-4.278
G3 X-212.614 Y-50.551 Z-4.3 I0.318 J-0.242
X-212.061 Y-50.469 I0.235 J0.324 F600
G1 X-210.091 Y-47.884
G3 X-210.727 Y-47.399 I-0.318 J0.242
G1 X-212.697 Y-49.984
G3 X-212.614 Y-50.551 I0.318 J-0.242
G1 X-212.572 Y-50.572
X-212.525 Y-50.579
X-212.479 Y-50.572
X-212.437 Y-50.55
X-212.404 Y-50.517
X-212.316 Y-50.396
X-212.289 Y-50.358 Z-4.293
X-212.265 Y-50.324 Z-4.271
X-212.245 Y-50.297 Z-4.238
X-212.233 Y-50.28 Z-4.196
X-212.228 Y-50.274 Z-4.15
Z5.5
X-220.618 Y-162.644
Z3.15 F300
X-220.612 Y-162.64 Z3.104 F400
X-220.595 Y-162.627 Z3.062
X-220.569 Y-162.607 Z3.029
X-220.536 Y-162.582 Z3.007
X-220.499 Y-162.553 Z3
X-220.379 Y-162.463
X-220.347 Y-162.429
X-220.327 Y-162.386
X-220.32 Y-162.34
X-220.329 Y-162.294
X-220.351 Y-162.252
X-221.001 Y-161.399 Z2.963 F1016
G3 X-221.637 Y-161.884 Z2.919 I-0.318 J-0.243
G1 X-219.667 Y-164.469 Z2.805
G3 X-219.107 Y-164.545 Z2.783 I0.318 J0.242
X-219.031 Y-163.985 Z2.761 I-0.242 J0.318
G1 X-221.001 Y-161.399 Z2.648
G3 X-221.637 Y-161.884 Z2.604 I-0.318 J-0.243
G1 X-219.667 Y-164.469 Z2.49
G3 X-219.107 Y-164.545 Z2.468 I0.318 J0.242
X-219.031 Y-163.985 Z2.446 I-0.242 J0.318
G1 X-221.001 Y-161.399 Z2.333
G3 X-221.637 Y-161.884 Z2.289 I-0.318 J-0.243
G1 X-219.667 Y-164.469 Z2.176
G3 X-219.107 Y-164.545 Z2.154 I0.318 J0.242
X-219.031 Y-163.985 Z2.132 I-0.242 J0.318
G1 X-221.001 Y-161.399 Z2.018
G3 X-221.637 Y-161.884 Z1.974 I-0.318 J-0.243
G1 X-219.667 Y-164.469 Z1.861
G3 X-219.107 Y-164.545 Z1.839 I0.318 J0.242
X-219.031 Y-163.985 Z1.817 I-0.242 J0.318
G1 X-221.001 Y-161.399 Z1.703
G3 X-221.637 Y-161.884 Z1.66 I-0.318 J-0.243
G1 X-219.667 Y-164.469 Z1.546
G3 X-219.107 Y-164.545 Z1.524 I0.318 J0.242
X-219.031 Y-163.985 Z1.502 I-0.242 J0.318
G1 X-221.001 Y-161.399 Z1.389
G3 X-221.637 Y-161.884 Z1.345 I-0.318 J-0.243
G1 X-219.667 Y-164.469 Z1.231
G3 X-219.107 Y-164.545 Z1.209 I0.318 J0.242
X-219.031 Y-163.985 Z1.187 I-0.242 J0.318
G1 X-221.001 Y-161.399 Z1.074
G3 X-221.637 Y-161.884 Z1.03 I-0.318 J-0.243
G1 X-219.667 Y-164.469 Z0.916
G3 X-219.107 Y-164.545 Z0.895 I0.318 J0.242
X-219.031 Y-163.985 Z0.873 I-0.242 J0.318
G1 X-221.001 Y-161.399 Z0.759
G3 X-221.637 Y-161.884 Z0.715 I-0.318 J-0.243
G1 X-219.667 Y-164.469 Z0.602
G3 X-219.107 Y-164.545 Z0.58 I0.318 J0.242
X-219.031 Y-163.985 Z0.558 I-0.242 J0.318
G1 X-221.001 Y-161.399 Z0.444
G3 X-221.637 Y-161.884 Z0.4 I-0.318 J-0.243
G1 X-219.667 Y-164.469 Z0.287
G3 X-219.107 Y-164.545 Z0.265 I0.318 J0.242
X-219.031 Y-163.985 Z0.243 I-0.242 J0.318
G1 X-221.001 Y-161.399 Z0.13
G3 X-221.637 Y-161.884 Z0.086 I-0.318 J-0.243
G1 X-219.667 Y-164.469 Z-0.028
G3 X-219.107 Y-164.545 Z-0.05 I0.318 J0.242
X-219.031 Y-163.985 Z-0.072 I-0.242 J0.318
G1 X-221.001 Y-161.399 Z-0.185
G3 X-221.637 Y-161.884 Z-0.229 I-0.318 J-0.243
G1 X-219.667 Y-164.469 Z-0.343
G3 X-219.107 Y-164.545 Z-0.365 I0.318 J0.242
X-219.031 Y-163.985 Z-0.387 I-0.242 J0.318
G1 X-221.001 Y-161.399 Z-0.5
G3 X-221.637 Y-161.884 I-0.318 J-0.243 F600
G1 X-219.667 Y-164.469
G3 X-219.107 Y-164.545 I0.318 J0.242
X-219.031 Y-163.985 I-0.242 J0.318
G1 X-221.001 Y-161.399
G3 X-221.637 Y-161.884 Z-0.544 I-0.318 J-0.243 F1016
G1 X-219.667 Y-164.469 Z-0.657
G3 X-219.107 Y-164.545 Z-0.679 I0.318 J0.242
X-219.031 Y-163.985 Z-0.701 I-0.242 J0.318
G1 X-221.001 Y-161.399 Z-0.815
G3 X-221.637 Y-161.884 Z-0.859 I-0.318 J-0.243
G1 X-219.667 Y-164.469 Z-0.972
G3 X-219.107 Y-164.545 Z-0.994 I0.318 J0.242
X-219.031 Y-163.985 Z-1.016 I-0.242 J0.318
G1 X-221.001 Y-161.399 Z-1.13
G3 X-221.637 Y-161.884 Z-1.173 I-0.318 J-0.243
G1 X-219.667 Y-164.469 Z-1.287
G3 X-219.107 Y-164.545 Z-1.309 I0.318 J0.242
X-219.031 Y-163.985 Z-1.331 I-0.242 J0.318
G1 X-221.001 Y-161.399 Z-1.444
G3 X-221.637 Y-161.884 Z-1.488 I-0.318 J-0.243
G1 X-221.433 Y-162.152 Z-1.5
X-219.667 Y-164.469 F600
G3 X-219.107 Y-164.545 I0.318 J0.242
X-219.031 Y-163.985 I-0.242 J0.318
G1 X-221.001 Y-161.399
G3 X-221.637 Y-161.884 I-0.318 J-0.243
G1 X-221.433 Y-162.152
X-219.667 Y-164.469 Z-1.602 F1016
G3 X-219.107 Y-164.545 Z-1.624 I0.318 J0.242
X-219.031 Y-163.985 Z-1.646 I-0.242 J0.318
G1 X-221.001 Y-161.399 Z-1.759
G3 X-221.637 Y-161.884 Z-1.803 I-0.318 J-0.243
G1 X-219.667 Y-164.469 Z-1.917
G3 X-219.107 Y-164.545 Z-1.938 I0.318 J0.242
X-219.031 Y-163.985 Z-1.96 I-0.242 J0.318
G1 X-221.001 Y-161.399 Z-2.074
G3 X-221.637 Y-161.884 Z-2.118 I-0.318 J-0.243
G1 X-219.667 Y-164.469 Z-2.231
G3 X-219.107 Y-164.545 Z-2.253 I0.318 J0.242
X-219.031 Y-163.985 Z-2.275 I-0.242 J0.318
G1 X-221.001 Y-161.399 Z-2.389
G3 X-221.637 Y-161.884 Z-2.433 I-0.318 J-0.243
G1 X-220.467 Y-163.42 Z-2.5
X-219.667 Y-164.469 F600
G3 X-219.107 Y-164.545 I0.318 J0.242
X-219.031 Y-163.985 I-0.242 J0.318
G1 X-221.001 Y-161.399
G3 X-221.637 Y-161.884 I-0.318 J-0.243
G1 X-220.467 Y-163.42
X-219.667 Y-164.469 Z-2.546 F1016
G3 X-219.107 Y-164.545 Z-2.568 I0.318 J0.242
X-219.031 Y-163.985 Z-2.59 I-0.242 J0.318
G1 X-221.001 Y-161.399 Z-2.703
G3 X-221.637 Y-161.884 Z-2.747 I-0.318 J-0.243
G1 X-219.667 Y-164.469 Z-2.861
G3 X-219.107 Y-164.545 Z-2.883 I0.318 J0.242
X-219.031 Y-163.985 Z-2.905 I-0.242 J0.318
G1 X-221.001 Y-161.399 Z-3.018
G3 X-221.637 Y-161.884 Z-3.062 I-0.318 J-0.243
G1 X-219.667 Y-164.469 Z-3.176
G3 X-219.107 Y-164.545 Z-3.198 I0.318 J0.242
X-219.031 Y-163.985 Z-3.22 I-0.242 J0.318
G1 X-221.001 Y-161.399 Z-3.333
G3 X-221.637 Y-161.884 Z-3.377 I-0.318 J-0.243
G1 X-219.667 Y-164.469 Z-3.49
G3 X-219.442 Y-164.616 Z-3.5 I0.318 J0.242
X-219.031 Y-163.985 I0.092 J0.389 F600
G1 X-221.001 Y-161.399
G3 X-221.637 Y-161.884 I-0.318 J-0.243
G1 X-220.467 Y-163.42
X-219.667 Y-164.469
G3 X-219.442 Y-164.616 I0.318 J0.242
X-219.031 Y-163.985 Z-3.534 I0.092 J0.389 F1016
G1 X-221.001 Y-161.399 Z-3.648
G3 X-221.637 Y-161.884 Z-3.692 I-0.318 J-0.243
G1 X-219.667 Y-164.469 Z-3.805
G3 X-219.107 Y-164.545 Z-3.827 I0.318 J0.242
X-219.031 Y-163.985 Z-3.849 I-0.242 J0.318
G1 X-221.001 Y-161.399 Z-3.963
G3 X-221.637 Y-161.884 Z-4.006 I-0.318 J-0.243
G1 X-219.667 Y-164.469 Z-4.12
G3 X-219.107 Y-164.545 Z-4.142 I0.318 J0.242
X-219.031 Y-163.985 Z-4.164 I-0.242 J0.318
G1 X-221.001 Y-161.399 Z-4.277
G3 X-221.577 Y-161.336 Z-4.3 I-0.318 J-0.243
X-221.637 Y-161.884 I0.258 J-0.306 F600
G1 X-219.667 Y-164.469
G3 X-219.107 Y-164.545 I0.318 J0.242
X-219.031 Y-163.985 I-0.242 J0.318
G1 X-221.001 Y-161.399
G3 X-221.577 Y-161.336 I-0.318 J-0.243
G1 X-221.608 Y-161.372
X-221.626 Y-161.415
X-221.63 Y-161.462
X-221.619 Y-161.508
X-221.595 Y-161.548
X-221.498 Y-161.662
X-221.468 Y-161.698 Z-4.293
X-221.441 Y-161.73 Z-4.271
X-221.42 Y-161.755 Z-4.238
X-221.406 Y-161.771 Z-4.196
X-221.401 Y-161.777 Z-4.15
Z5.5
X-222.028 Y-173.559
Z3.15 F300
X-222.033 Y-173.554 Z3.104 F400
X-222.045 Y-173.537 Z3.062
X-222.066 Y-173.51 Z3.029
X-222.091 Y-173.477 Z3.007
X-222.119 Y-173.44 Z3
X-222.21 Y-173.321
X-222.244 Y-173.288
X-222.286 Y-173.268
X-222.333 Y-173.262
X-222.379 Y-173.27
X-222.42 Y-173.292
X-223.265 Y-173.937 Z2.963 F1016
G3 X-223.341 Y-174.497 Z2.941 I0.242 J-0.318
X-222.781 Y-174.573 Z2.919 I0.318 J0.242
G1 X-220.196 Y-172.603 Z2.805
G3 X-220.12 Y-172.043 Z2.784 I-0.242 J0.318
X-220.68 Y-171.967 Z2.762 I-0.318 J-0.242
G1 X-223.265 Y-173.937 Z2.648
G3 X-223.341 Y-174.497 Z2.626 I0.242 J-0.318
X-222.781 Y-174.573 Z2.604 I0.318 J0.242
G1 X-220.196 Y-172.603 Z2.491
G3 X-220.12 Y-172.043 Z2.469 I-0.242 J0.318
X-220.68 Y-171.967 Z2.447 I-0.318 J-0.242
G1 X-223.265 Y-173.937 Z2.333
G3 X-223.341 Y-174.497 Z2.311 I0.242 J-0.318
X-222.781 Y-174.573 Z2.289 I0.318 J0.242
G1 X-220.196 Y-172.603 Z2.176
G3 X-220.12 Y-172.043 Z2.154 I-0.242 J0.318
X-220.68 Y-171.967 Z2.132 I-0.318 J-0.242
G1 X-223.265 Y-173.937 Z2.018
G3 X-223.341 Y-174.497 Z1.997 I0.242 J-0.318
X-222.781 Y-174.573 Z1.975 I0.318 J0.242
G1 X-220.196 Y-172.603 Z1.861
G3 X-220.12 Y-172.043 Z1.839 I-0.242 J0.318
X-220.68 Y-171.967 Z1.817 I-0.318 J-0.242
G1 X-223.265 Y-173.937 Z1.704
G3 X-223.341 Y-174.497 Z1.682 I0.242 J-0.318
X-222.781 Y-174.573 Z1.66 I0.318 J0.242
G1 X-220.196 Y-172.603 Z1.546
G3 X-220.12 Y-172.043 Z1.524 I-0.242 J0.318
X-220.68 Y-171.967 Z1.502 I-0.318 J-0.242
G1 X-223.265 Y-173.937 Z1.389
G3 X-223.341 Y-174.497 Z1.367 I0.242 J-0.318
X-222.781 Y-174.573 Z1.345 I0.318 J0.242
G1 X-220.196 Y-172.603 Z1.231
G3 X-220.12 Y-172.043 Z1.209 I-0.242 J0.318
X-220.68 Y-171.967 Z1.188 I-0.318 J-0.242
G1 X-223.265 Y-173.937 Z1.074
G3 X-223.341 Y-174.497 Z1.052 I0.242 J-0.318
X-222.781 Y-174.573 Z1.03 I0.318 J0.242
G1 X-220.196 Y-172.603 Z0.917
G3 X-220.12 Y-172.043 Z0.895 I-0.242 J0.318
X-220.68 Y-171.967 Z0.873 I-0.318 J-0.242
G1 X-223.265 Y-173.937 Z0.759
G3 X-223.341 Y-174.497 Z0.737 I0.242 J-0.318
X-222.781 Y-174.573 Z0.715 I0.318 J0.242
G1 X-220.196 Y-172.603 Z0.602
G3 X-220.12 Y-172.043 Z0.58 I-0.242 J0.318
X-220.68 Y-171.967 Z0.558 I-0.318 J-0.242
G1 X-223.265 Y-173.937 Z0.444
G3 X-223.341 Y-174.497 Z0.422 I0.242 J-0.318
X-222.781 Y-174.573 Z0.401 I0.318 J0.242
G1 X-220.196 Y-172.603 Z0.287
G3 X-220.12 Y-172.043 Z0.265 I-0.242 J0.318
X-220.68 Y-171.967 Z0.243 I-0.318 J-0.242
G1 X-223.265 Y-173.937 Z0.13
G3 X-223.341 Y-174.497 Z0.108 I0.242 J-0.318
X-222.781 Y-174.573 Z0.086 I0.318 J0.242
G1 X-220.196 Y-172.603 Z-0.028
G3 X-220.12 Y-172.043 Z-0.05 I-0.242 J0.318
X-220.68 Y-171.967 Z-0.072 I-0.318 J-0.242
G1 X-223.265 Y-173.937 Z-0.185
G3 X-223.341 Y-174.497 Z-0.207 I0.242 J-0.318
X-222.781 Y-174.573 Z-0.229 I0.318 J0.242
G1 X-220.196 Y-172.603 Z-0.343
G3 X-220.12 Y-172.043 Z-0.365 I-0.242 J0.318
X-220.68 Y-171.967 Z-0.387 I-0.318 J-0.242
G1 X-223.265 Y-173.937 Z-0.5
G3 X-223.341 Y-174.497 I0.242 J-0.318 F600
X-222.781 Y-174.573 I0.318 J0.242
G1 X-220.196 Y-172.603
G3 X-220.12 Y-172.043 I-0.242 J0.318
X-220.68 Y-171.967 I-0.318 J-0.242
G1 X-223.265 Y-173.937
G3 X-223.341 Y-174.497 Z-0.522 I0.242 J-0.318 F1016
X-222.781 Y-174.573 Z-0.544 I0.318 J0.242
G1 X-220.196 Y-172.603 Z-0.657
G3 X-220.12 Y-172.043 Z-0.679 I-0.242 J0.318
X-220.68 Y-171.967 Z-0.701 I-0.318 J-0.242
G1 X-223.265 Y-173.937 Z-0.815
G3 X-223.341 Y-174.497 Z-0.837 I0.242 J-0.318
X-222.781 Y-174.573 Z-0.859 I0.318 J0.242
G1 X-220.196 Y-172.603 Z-0.972
G3 X-220.12 Y-172.043 Z-0.994 I-0.242 J0.318
X-220.68 Y-171.967 Z-1.016 I-0.318 J-0.242
G1 X-223.265 Y-173.937 Z-1.13
G3 X-223.341 Y-174.497 Z-1.152 I0.242 J-0.318
X-222.781 Y-174.573 Z-1.174 I0.318 J0.242
G1 X-220.196 Y-172.603 Z-1.287
G3 X-220.12 Y-172.043 Z-1.309 I-0.242 J0.318
X-220.68 Y-171.967 Z-1.331 I-0.318 J-0.242
G1 X-223.265 Y-173.937 Z-1.444
G3 X-223.341 Y-174.497 Z-1.466 I0.242 J-0.318
X-222.781 Y-174.573 Z-1.488 I0.318 J0.242
G1 X-222.515 Y-174.371 Z-1.5
X-220.196 Y-172.603 F600
G3 X-220.12 Y-172.043 I-0.242 J0.318
X-220.68 Y-171.967 I-0.318 J-0.242
G1 X-223.265 Y-173.937
G3 X-223.341 Y-174.497 I0.242 J-0.318
X-222.781 Y-174.573 I0.318 J0.242
G1 X-222.515 Y-174.371
X-220.196 Y-172.603 Z-1.602 F1016
G3 X-220.12 Y-172.043 Z-1.624 I-0.242 J0.318
X-220.68 Y-171.967 Z-1.646 I-0.318 J-0.242
G1 X-223.265 Y-173.937 Z-1.759
G3 X-223.341 Y-174.497 Z-1.781 I0.242 J-0.318
X-222.781 Y-174.573 Z-1.803 I0.318 J0.242
G1 X-220.196 Y-172.603 Z-1.917
G3 X-220.12 Y-172.043 Z-1.939 I-0.242 J0.318
X-220.68 Y-171.967 Z-1.961 I-0.318 J-0.242
G1 X-223.265 Y-173.937 Z-2.074
G3 X-223.341 Y-174.497 Z-2.096 I0.242 J-0.318
X-222.781 Y-174.573 Z-2.118 I0.318 J0.242
G1 X-220.196 Y-172.603 Z-2.231
G3 X-220.12 Y-172.043 Z-2.253 I-0.242 J0.318
X-220.68 Y-171.967 Z-2.275 I-0.318 J-0.242
G1 X-223.265 Y-173.937 Z-2.389
G3 X-223.341 Y-174.497 Z-2.411 I0.242 J-0.318
X-222.781 Y-174.573 Z-2.433 I0.318 J0.242
G1 X-221.249 Y-173.406 Z-2.5
X-220.196 Y-172.603 F600
G3 X-220.12 Y-172.043 I-0.242 J0.318
X-220.68 Y-171.967 I-0.318 J-0.242
G1 X-223.265 Y-173.937
G3 X-223.341 Y-174.497 I0.242 J-0.318
X-222.781 Y-174.573 I0.318 J0.242
G1 X-221.249 Y-173.406
X-220.196 Y-172.603 Z-2.546 F1016
G3 X-220.12 Y-172.043 Z-2.568 I-0.242 J0.318
X-220.68 Y-171.967 Z-2.59 I-0.318 J-0.242
G1 X-223.265 Y-173.937 Z-2.704
G3 X-223.341 Y-174.497 Z-2.726 I0.242 J-0.318
X-222.781 Y-174.573 Z-2.748 I0.318 J0.242
G1 X-220.196 Y-172.603 Z-2.861
G3 X-220.12 Y-172.043 Z-2.883 I-0.242 J0.318
X-220.68 Y-171.967 Z-2.905 I-0.318 J-0.242
G1 X-223.265 Y-173.937 Z-3.018
G3 X-223.341 Y-174.497 Z-3.04 I0.242 J-0.318
X-222.781 Y-174.573 Z-3.062 I0.318 J0.242
G1 X-220.196 Y-172.603 Z-3.176
G3 X-220.12 Y-172.043 Z-3.198 I-0.242 J0.318
X-220.68 Y-171.967 Z-3.22 I-0.318 J-0.242
G1 X-223.265 Y-173.937 Z-3.333
G3 X-223.341 Y-174.497 Z-3.355 I0.242 J-0.318
X-222.781 Y-174.573 Z-3.377 I0.318 J0.242
G1 X-220.196 Y-172.603 Z-3.491
G3 X-220.051 Y-172.385 Z-3.5 I-0.242 J0.318
X-220.68 Y-171.967 I-0.387 J0.1 F600
G1 X-223.265 Y-173.937
G3 X-223.341 Y-174.497 I0.242 J-0.318
X-222.781 Y-174.573 I0.318 J0.242
G1 X-221.249 Y-173.406
X-220.196 Y-172.603
G3 X-220.051 Y-172.385 I-0.242 J0.318
X-220.68 Y-171.967 Z-3.535 I-0.387 J0.1 F1016
G1 X-223.265 Y-173.937 Z-3.648
G3 X-223.341 Y-174.497 Z-3.67 I0.242 J-0.318
X-222.781 Y-174.573 Z-3.692 I0.318 J0.242
G1 X-220.196 Y-172.603 Z-3.805
G3 X-220.12 Y-172.043 Z-3.827 I-0.242 J0.318
X-220.68 Y-171.967 Z-3.849 I-0.318 J-0.242
G1 X-223.265 Y-173.937 Z-3.963
G3 X-223.341 Y-174.497 Z-3.985 I0.242 J-0.318
X-222.781 Y-174.573 Z-4.007 I0.318 J0.242
G1 X-220.196 Y-172.603 Z-4.12
G3 X-220.12 Y-172.043 Z-4.142 I-0.242 J0.318
X-220.68 Y-171.967 Z-4.164 I-0.318 J-0.242
G1 X-223.265 Y-173.937 Z-4.278
G3 X-223.335 Y-174.505 Z-4.3 I0.242 J-0.318
X-222.781 Y-174.573 I0.312 J0.25 F600
G1 X-220.196 Y-172.603
G3 X-220.12 Y-172.043 I-0.242 J0.318
X-220.68 Y-171.967 I-0.318 J-0.242
G1 X-223.265 Y-173.937
G3 X-223.335 Y-174.505 I0.242 J-0.318
G1 X-223.301 Y-174.537
X-223.258 Y-174.556
X-223.211 Y-174.561
X-223.165 Y-174.552
X-223.124 Y-174.529
X-223.007 Y-174.435
X-222.971 Y-174.406 Z-4.293
X-222.939 Y-174.38 Z-4.271
X-222.913 Y-174.359 Z-4.238
X-222.896 Y-174.346 Z-4.196
X-222.89 Y-174.341 Z-4.15
Z5.5
X-210.524 Y-175.85
Z3.15 F300
X-210.527 Y-175.857 Z3.104 F400
X-210.536 Y-175.876 Z3.062
X-210.55 Y-175.906 Z3.029
X-210.568 Y-175.944 Z3.007
X-210.587 Y-175.986 Z3
X-210.65 Y-176.122
X-210.663 Y-176.167
X-210.661 Y-176.214
X-210.645 Y-176.258
X-210.616 Y-176.295
X-210.577 Y-176.321
G3 X-210.091 Y-175.716 Z2.963 I0.168 J0.363 F1016
G1 Y-175.715
X-212.061 Y-173.131 Z2.849
G3 X-212.621 Y-173.055 Z2.827 I-0.318 J-0.242
X-212.697 Y-173.615 Z2.805 I0.242 J-0.318
G1 X-210.727 Y-176.2 Z2.692
G3 X-210.167 Y-176.276 Z2.67 I0.318 J0.242
X-210.091 Y-175.716 Z2.648 I-0.242 J0.318
G1 Y-175.715
X-212.061 Y-173.131 Z2.535
G3 X-212.621 Y-173.055 Z2.513 I-0.318 J-0.242
X-212.697 Y-173.615 Z2.491 I0.242 J-0.318
G1 X-210.727 Y-176.2 Z2.377
G3 X-210.167 Y-176.276 Z2.355 I0.318 J0.242
X-210.091 Y-175.716 Z2.333 I-0.242 J0.318
G1 Y-175.715
X-212.061 Y-173.131 Z2.22
G3 X-212.621 Y-173.055 Z2.198 I-0.318 J-0.242
X-212.697 Y-173.615 Z2.176 I0.242 J-0.318
G1 X-210.727 Y-176.2 Z2.062
G3 X-210.167 Y-176.276 Z2.04 I0.318 J0.242
X-210.091 Y-175.716 Z2.018 I-0.242 J0.318
G1 Y-175.715
X-212.061 Y-173.131 Z1.905
G3 X-212.621 Y-173.055 Z1.883 I-0.318 J-0.242
X-212.697 Y-173.615 Z1.861 I0.242 J-0.318
G1 X-210.727 Y-176.2 Z1.748
G3 X-210.167 Y-176.276 Z1.726 I0.318 J0.242
X-210.091 Y-175.716 Z1.704 I-0.242 J0.318
G1 Y-175.715
X-212.061 Y-173.131 Z1.59
G3 X-212.621 Y-173.055 Z1.568 I-0.318 J-0.242
X-212.697 Y-173.615 Z1.546 I0.242 J-0.318
G1 X-210.727 Y-176.2 Z1.433
G3 X-210.167 Y-176.276 Z1.411 I0.318 J0.242
X-210.091 Y-175.716 Z1.389 I-0.242 J0.318
G1 Y-175.715
X-212.061 Y-173.131 Z1.275
G3 X-212.621 Y-173.055 Z1.253 I-0.318 J-0.242
X-212.697 Y-173.615 Z1.231 I0.242 J-0.318
G1 X-210.727 Y-176.2 Z1.118
G3 X-210.167 Y-176.276 Z1.096 I0.318 J0.242
X-210.091 Y-175.716 Z1.074 I-0.242 J0.318
G1 Y-175.715
X-212.061 Y-173.131 Z0.961
G3 X-212.621 Y-173.055 Z0.939 I-0.318 J-0.242
X-212.697 Y-173.615 Z0.917 I0.242 J-0.318
G1 X-210.727 Y-176.2 Z0.803
G3 X-210.167 Y-176.276 Z0.781 I0.318 J0.242
X-210.091 Y-175.716 Z0.759 I-0.242 J0.318
G1 Y-175.715
X-212.061 Y-173.131 Z0.646
G3 X-212.621 Y-173.055 Z0.624 I-0.318 J-0.242
X-212.697 Y-173.615 Z0.602 I0.242 J-0.318
G1 X-210.727 Y-176.2 Z0.488
G3 X-210.167 Y-176.276 Z0.466 I0.318 J0.242
X-210.091 Y-175.716 Z0.444 I-0.242 J0.318
G1 Y-175.715
X-212.061 Y-173.131 Z0.331
G3 X-212.621 Y-173.055 Z0.309 I-0.318 J-0.242
X-212.697 Y-173.615 Z0.287 I0.242 J-0.318
G1 X-210.727 Y-176.2 Z0.174
G3 X-210.167 Y-176.276 Z0.152 I0.318 J0.242
X-210.091 Y-175.716 Z0.13 I-0.242 J0.318
G1 Y-175.715
X-212.061 Y-173.131 Z0.016
G3 X-212.621 Y-173.055 Z-0.006 I-0.318 J-0.242
X-212.697 Y-173.615 Z-0.028 I0.242 J-0.318
G1 X-210.727 Y-176.2 Z-0.141
G3 X-210.167 Y-176.276 Z-0.163 I0.318 J0.242
X-210.091 Y-175.716 Z-0.185 I-0.242 J0.318
G1 Y-175.715
X-212.061 Y-173.131 Z-0.299
G3 X-212.621 Y-173.055 Z-0.321 I-0.318 J-0.242
X-212.697 Y-173.615 Z-0.343 I0.242 J-0.318
G1 X-210.727 Y-176.2 Z-0.456
G3 X-210.167 Y-176.276 Z-0.478 I0.318 J0.242
X-210.091 Y-175.716 Z-0.5 I-0.242 J0.318
G1 Y-175.715
X-212.061 Y-173.131 F600
G3 X-212.621 Y-173.055 I-0.318 J-0.242
X-212.697 Y-173.615 I0.242 J-0.318
G1 X-210.727 Y-176.2
G3 X-210.167 Y-176.276 I0.318 J0.242
X-210.091 Y-175.716 I-0.242 J0.318
G1 Y-175.715
X-212.061 Y-173.131 Z-0.613 F1016
G3 X-212.621 Y-173.055 Z-0.635 I-0.318 J-0.242
X-212.697 Y-173.615 Z-0.657 I0.242 J-0.318
G1 X-210.727 Y-176.2 Z-0.771
G3 X-210.167 Y-176.276 Z-0.793 I0.318 J0.242
X-210.091 Y-175.716 Z-0.815 I-0.242 J0.318
G1 Y-175.715
X-212.061 Y-173.131 Z-0.928
G3 X-212.621 Y-173.055 Z-0.95 I-0.318 J-0.242
X-212.697 Y-173.615 Z-0.972 I0.242 J-0.318
G1 X-210.727 Y-176.2 Z-1.086
G3 X-210.167 Y-176.276 Z-1.108 I0.318 J0.242
X-210.091 Y-175.716 Z-1.13 I-0.242 J0.318
G1 Y-175.715
X-212.061 Y-173.131 Z-1.243
G3 X-212.621 Y-173.055 Z-1.265 I-0.318 J-0.242
X-212.697 Y-173.615 Z-1.287 I0.242 J-0.318
G1 X-210.727 Y-176.2 Z-1.401
G3 X-210.167 Y-176.276 Z-1.422 I0.318 J0.242
X-210.091 Y-175.716 Z-1.444 I-0.242 J0.318
G1 Y-175.715
X-211.055 Y-174.45 Z-1.5
X-212.061 Y-173.131 F600
G3 X-212.621 Y-173.055 I-0.318 J-0.242
X-212.697 Y-173.615 I0.242 J-0.318
G1 X-210.727 Y-176.2
G3 X-210.167 Y-176.276 I0.318 J0.242
X-210.091 Y-175.716 I-0.242 J0.318
G1 Y-175.715
X-211.055 Y-174.45
X-212.061 Y-173.131 Z-1.558 F1016
G3 X-212.621 Y-173.055 Z-1.58 I-0.318 J-0.242
X-212.697 Y-173.615 Z-1.602 I0.242 J-0.318
G1 X-210.727 Y-176.2 Z-1.715
G3 X-210.167 Y-176.276 Z-1.737 I0.318 J0.242
X-210.091 Y-175.716 Z-1.759 I-0.242 J0.318
G1 X-212.061 Y-173.131 Z-1.873
G3 X-212.621 Y-173.055 Z-1.895 I-0.318 J-0.242
X-212.697 Y-173.615 Z-1.917 I0.242 J-0.318
G1 X-210.727 Y-176.2 Z-2.03
G3 X-210.167 Y-176.276 Z-2.052 I0.318 J0.242
X-210.091 Y-175.716 Z-2.074 I-0.242 J0.318
G1 X-212.061 Y-173.131 Z-2.188
G3 X-212.621 Y-173.055 Z-2.209 I-0.318 J-0.242
X-212.697 Y-173.615 Z-2.231 I0.242 J-0.318
G1 X-210.727 Y-176.2 Z-2.345
G3 X-210.167 Y-176.276 Z-2.367 I0.318 J0.242
X-210.091 Y-175.716 Z-2.389 I-0.242 J0.318
G1 X-212.02 Y-173.184 Z-2.5
X-212.061 Y-173.131 F600
G3 X-212.621 Y-173.055 I-0.318 J-0.242
X-212.697 Y-173.615 I0.242 J-0.318
G1 X-210.727 Y-176.2
G3 X-210.167 Y-176.276 I0.318 J0.242
X-210.091 Y-175.716 I-0.242 J0.318
G1 X-211.055 Y-174.45
X-212.02 Y-173.184
X-212.061 Y-173.131 Z-2.502 F1016
G3 X-212.621 Y-173.055 Z-2.524 I-0.318 J-0.242
X-212.697 Y-173.615 Z-2.546 I0.242 J-0.318
G1 X-210.727 Y-176.2 Z-2.66
G3 X-210.167 Y-176.276 Z-2.682 I0.318 J0.242
X-210.091 Y-175.716 Z-2.704 I-0.242 J0.318
G1 X-212.061 Y-173.131 Z-2.817
G3 X-212.621 Y-173.055 Z-2.839 I-0.318 J-0.242
X-212.697 Y-173.615 Z-2.861 I0.242 J-0.318
G1 X-210.727 Y-176.2 Z-2.975
G3 X-210.167 Y-176.276 Z-2.997 I0.318 J0.242
X-210.091 Y-175.716 Z-3.018 I-0.242 J0.318
G1 X-212.061 Y-173.131 Z-3.132
G3 X-212.621 Y-173.055 Z-3.154 I-0.318 J-0.242
X-212.697 Y-173.615 Z-3.176 I0.242 J-0.318
G1 X-210.727 Y-176.2 Z-3.289
G3 X-210.167 Y-176.276 Z-3.311 I0.318 J0.242
X-210.091 Y-175.716 Z-3.333 I-0.242 J0.318
G1 X-212.061 Y-173.131 Z-3.447
G3 X-212.621 Y-173.055 Z-3.469 I-0.318 J-0.242
X-212.697 Y-173.615 Z-3.491 I0.242 J-0.318
G1 X-212.536 Y-173.828 Z-3.5
X-210.727 Y-176.2 F600
G3 X-210.167 Y-176.276 I0.318 J0.242
X-210.091 Y-175.716 I-0.242 J0.318
G1 X-212.02 Y-173.184
X-212.061 Y-173.131
G3 X-212.621 Y-173.055 I-0.318 J-0.242
X-212.697 Y-173.615 I0.242 J-0.318
G1 X-212.536 Y-173.828
X-210.727 Y-176.2 Z-3.604 F1016
G3 X-210.167 Y-176.276 Z-3.626 I0.318 J0.242
X-210.091 Y-175.716 Z-3.648 I-0.242 J0.318
G1 X-212.061 Y-173.131 Z-3.762
G3 X-212.621 Y-173.055 Z-3.784 I-0.318 J-0.242
X-212.697 Y-173.615 Z-3.805 I0.242 J-0.318
G1 X-210.727 Y-176.2 Z-3.919
G3 X-210.167 Y-176.276 Z-3.941 I0.318 J0.242
X-210.091 Y-175.716 Z-3.963 I-0.242 J0.318
G1 X-212.061 Y-173.131 Z-4.076
G3 X-212.621 Y-173.055 Z-4.098 I-0.318 J-0.242
X-212.697 Y-173.615 Z-4.12 I0.242 J-0.318
G1 X-210.727 Y-176.2 Z-4.234
G3 X-210.167 Y-176.276 Z-4.256 I0.318 J0.242
X-210.091 Y-175.716 Z-4.278 I-0.242 J0.318
G1 X-210.478 Y-175.207 Z-4.3
X-212.061 Y-173.131 F600
G3 X-212.621 Y-173.055 I-0.318 J-0.242
X-212.697 Y-173.615 I0.242 J-0.318
G1 X-210.727 Y-176.2
G3 X-210.167 Y-176.276 I0.318 J0.242
X-210.091 Y-175.716 I-0.242 J0.318
G1 X-210.478 Y-175.207
X-210.512 Y-175.175
X-210.554 Y-175.155
X-210.601 Y-175.148
X-210.647 Y-175.157
X-210.688 Y-175.179
X-210.807 Y-175.27
X-210.844 Y-175.298 Z-4.293
X-210.877 Y-175.323 Z-4.271
X-210.904 Y-175.344 Z-4.238
X-210.921 Y-175.356 Z-4.196
X-210.927 Y-175.361 Z-4.15
Z5.5
X-210.296 Y-164.619
Z3.15 F300
X-210.301 Y-164.614 Z3.104 F400
X-210.313 Y-164.597 Z3.062
X-210.334 Y-164.57 Z3.029
X-210.359 Y-164.537 Z3.007
X-210.387 Y-164.5 Z3
X-210.478 Y-164.381
X-210.512 Y-164.348
X-210.554 Y-164.328
X-210.601 Y-164.322
X-210.647 Y-164.33
X-210.688 Y-164.352
X-211.533 Y-164.997 Z2.963 F1016
G3 X-211.609 Y-165.557 Z2.941 I0.242 J-0.318
X-211.049 Y-165.633 Z2.919 I0.318 J0.242
G1 X-208.464 Y-163.663 Z2.805
G3 X-208.388 Y-163.103 Z2.784 I-0.242 J0.318
X-208.948 Y-163.027 Z2.762 I-0.318 J-0.242
G1 X-211.533 Y-164.997 Z2.648
G3 X-211.609 Y-165.557 Z2.626 I0.242 J-0.318
X-211.049 Y-165.633 Z2.604 I0.318 J0.242
G1 X-208.464 Y-163.663 Z2.491
G3 X-208.388 Y-163.103 Z2.469 I-0.242 J0.318
X-208.948 Y-163.027 Z2.447 I-0.318 J-0.242
G1 X-211.533 Y-164.997 Z2.333
G3 X-211.609 Y-165.557 Z2.311 I0.242 J-0.318
X-211.049 Y-165.633 Z2.289 I0.318 J0.242
G1 X-208.464 Y-163.663 Z2.176
G3 X-208.388 Y-163.103 Z2.154 I-0.242 J0.318
X-208.948 Y-163.027 Z2.132 I-0.318 J-0.242
G1 X-211.533 Y-164.997 Z2.018
G3 X-211.609 Y-165.557 Z1.997 I0.242 J-0.318
X-211.049 Y-165.633 Z1.975 I0.318 J0.242
G1 X-208.464 Y-163.663 Z1.861
G3 X-208.388 Y-163.103 Z1.839 I-0.242 J0.318
X-208.948 Y-163.027 Z1.817 I-0.318 J-0.242
G1 X-211.533 Y-164.997 Z1.704
G3 X-211.609 Y-165.557 Z1.682 I0.242 J-0.318
X-211.049 Y-165.633 Z1.66 I0.318 J0.242
G1 X-208.464 Y-163.663 Z1.546
G3 X-208.388 Y-163.103 Z1.524 I-0.242 J0.318
X-208.948 Y-163.027 Z1.502 I-0.318 J-0.242
G1 X-211.533 Y-164.997 Z1.389
G3 X-211.609 Y-165.557 Z1.367 I0.242 J-0.318
X-211.049 Y-165.633 Z1.345 I0.318 J0.242
G1 X-208.464 Y-163.663 Z1.231
G3 X-208.388 Y-163.103 Z1.209 I-0.242 J0.318
X-208.948 Y-163.027 Z1.188 I-0.318 J-0.242
G1 X-211.533 Y-164.997 Z1.074
G3 X-211.609 Y-165.557 Z1.052 I0.242 J-0.318
X-211.049 Y-165.633 Z1.03 I0.318 J0.242
G1 X-208.464 Y-163.663 Z0.917
G3 X-208.388 Y-163.103 Z0.895 I-0.242 J0.318
X-208.948 Y-163.027 Z0.873 I-0.318 J-0.242
G1 X-211.533 Y-164.997 Z0.759
G3 X-211.609 Y-165.557 Z0.737 I0.242 J-0.318
X-211.049 Y-165.633 Z0.715 I0.318 J0.242
G1 X-208.464 Y-163.663 Z0.602
G3 X-208.388 Y-163.103 Z0.58 I-0.242 J0.318
X-208.948 Y-163.027 Z0.558 I-0.318 J-0.242
G1 X-211.533 Y-164.997 Z0.444
G3 X-211.609 Y-165.557 Z0.422 I0.242 J-0.318
X-211.049 Y-165.633 Z0.401 I0.318 J0.242
G1 X-208.464 Y-163.663 Z0.287
G3 X-208.388 Y-163.103 Z0.265 I-0.242 J0.318
X-208.948 Y-163.027 Z0.243 I-0.318 J-0.242
G1 X-211.533 Y-164.997 Z0.13
G3 X-211.609 Y-165.557 Z0.108 I0.242 J-0.318
X-211.049 Y-165.633 Z0.086 I0.318 J0.242
G1 X-208.464 Y-163.663 Z-0.028
G3 X-208.388 Y-163.103 Z-0.05 I-0.242 J0.318
X-208.948 Y-163.027 Z-0.072 I-0.318 J-0.242
G1 X-211.533 Y-164.997 Z-0.185
G3 X-211.609 Y-165.557 Z-0.207 I0.242 J-0.318
X-211.049 Y-165.633 Z-0.229 I0.318 J0.242
G1 X-208.464 Y-163.663 Z-0.343
G3 X-208.388 Y-163.103 Z-0.365 I-0.242 J0.318
X-208.948 Y-163.027 Z-0.387 I-0.318 J-0.242
G1 X-211.533 Y-164.997 Z-0.5
G3 X-211.609 Y-165.557 I0.242 J-0.318 F600
X-211.049 Y-165.633 I0.318 J0.242
G1 X-208.464 Y-163.663
G3 X-208.388 Y-163.103 I-0.242 J0.318
X-208.948 Y-163.027 I-0.318 J-0.242
G1 X-211.533 Y-164.997
G3 X-211.609 Y-165.557 Z-0.522 I0.242 J-0.318 F1016
X-211.049 Y-165.633 Z-0.544 I0.318 J0.242
G1 X-208.464 Y-163.663 Z-0.657
G3 X-208.388 Y-163.103 Z-0.679 I-0.242 J0.318
X-208.948 Y-163.027 Z-0.701 I-0.318 J-0.242
G1 X-211.533 Y-164.997 Z-0.815
G3 X-211.609 Y-165.557 Z-0.837 I0.242 J-0.318
X-211.049 Y-165.633 Z-0.859 I0.318 J0.242
G1 X-208.464 Y-163.663 Z-0.972
G3 X-208.388 Y-163.103 Z-0.994 I-0.242 J0.318
X-208.948 Y-163.027 Z-1.016 I-0.318 J-0.242
G1 X-211.533 Y-164.997 Z-1.13
G3 X-211.609 Y-165.557 Z-1.152 I0.242 J-0.318
X-211.049 Y-165.633 Z-1.174 I0.318 J0.242
G1 X-208.464 Y-163.663 Z-1.287
G3 X-208.388 Y-163.103 Z-1.309 I-0.242 J0.318
X-208.948 Y-163.027 Z-1.331 I-0.318 J-0.242
G1 X-211.533 Y-164.997 Z-1.444
G3 X-211.609 Y-165.557 Z-1.466 I0.242 J-0.318
X-211.049 Y-165.633 Z-1.488 I0.318 J0.242
G1 X-210.783 Y-165.431 Z-1.5
X-208.464 Y-163.663 F600
G3 X-208.388 Y-163.103 I-0.242 J0.318
X-208.948 Y-163.027 I-0.318 J-0.242
G1 X-211.533 Y-164.997
G3 X-211.609 Y-165.557 I0.242 J-0.318
X-211.049 Y-165.633 I0.318 J0.242
G1 X-210.783 Y-165.431
X-208.464 Y-163.663 Z-1.602 F1016
G3 X-208.388 Y-163.103 Z-1.624 I-0.242 J0.318
X-208.948 Y-163.027 Z-1.646 I-0.318 J-0.242
G1 X-211.533 Y-164.997 Z-1.759
G3 X-211.609 Y-165.557 Z-1.781 I0.242 J-0.318
X-211.049 Y-165.633 Z-1.803 I0.318 J0.242
G1 X-208.464 Y-163.663 Z-1.917
G3 X-208.388 Y-163.103 Z-1.939 I-0.242 J0.318
X-208.948 Y-163.027 Z-1.961 I-0.318 J-0.242
G1 X-211.533 Y-164.997 Z-2.074
G3 X-211.609 Y-165.557 Z-2.096 I0.242 J-0.318
X-211.049 Y-165.633 Z-2.118 I0.318 J0.242
G1 X-208.464 Y-163.663 Z-2.231
G3 X-208.388 Y-163.103 Z-2.253 I-0.242 J0.318
X-208.948 Y-163.027 Z-2.275 I-0.318 J-0.242
G1 X-211.533 Y-164.997 Z-2.389
G3 X-211.609 Y-165.557 Z-2.411 I0.242 J-0.318
X-211.049 Y-165.633 Z-2.433 I0.318 J0.242
G1 X-209.517 Y-164.466 Z-2.5
X-208.464 Y-163.663 F600
G3 X-208.388 Y-163.103 I-0.242 J0.318
X-208.948 Y-163.027 I-0.318 J-0.242
G1 X-211.533 Y-164.997
G3 X-211.609 Y-165.557 I0.242 J-0.318
X-211.049 Y-165.633 I0.318 J0.242
G1 X-209.517 Y-164.466
X-208.464 Y-163.663 Z-2.546 F1016
G3 X-208.388 Y-163.103 Z-2.568 I-0.242 J0.318
X-208.948 Y-163.027 Z-2.59 I-0.318 J-0.242
G1 X-211.533 Y-164.997 Z-2.704
G3 X-211.609 Y-165.557 Z-2.726 I0.242 J-0.318
X-211.049 Y-165.633 Z-2.748 I0.318 J0.242
G1 X-208.464 Y-163.663 Z-2.861
G3 X-208.388 Y-163.103 Z-2.883 I-0.242 J0.318
X-208.948 Y-163.027 Z-2.905 I-0.318 J-0.242
G1 X-211.533 Y-164.997 Z-3.018
G3 X-211.609 Y-165.557 Z-3.04 I0.242 J-0.318
X-211.049 Y-165.633 Z-3.062 I0.318 J0.242
G1 X-208.464 Y-163.663 Z-3.176
G3 X-208.388 Y-163.103 Z-3.198 I-0.242 J0.318
X-208.948 Y-163.027 Z-3.22 I-0.318 J-0.242
G1 X-211.533 Y-164.997 Z-3.333
G3 X-211.609 Y-165.557 Z-3.355 I0.242 J-0.318
X-211.049 Y-165.633 Z-3.377 I0.318 J0.242
G1 X-208.464 Y-163.663 Z-3.491
G3 X-208.319 Y-163.445 Z-3.5 I-0.242 J0.318
X-208.948 Y-163.027 I-0.387 J0.1 F600
G1 X-211.533 Y-164.997
G3 X-211.609 Y-165.557 I0.242 J-0.318
X-211.049 Y-165.633 I0.318 J0.242
G1 X-209.517 Y-164.466
X-208.464 Y-163.663
G3 X-208.319 Y-163.445 I-0.242 J0.318
X-208.948 Y-163.027 Z-3.535 I-0.387 J0.1 F1016
G1 X-211.533 Y-164.997 Z-3.648
G3 X-211.609 Y-165.557 Z-3.67 I0.242 J-0.318
X-211.049 Y-165.633 Z-3.692 I0.318 J0.242
G1 X-208.464 Y-163.663 Z-3.805
G3 X-208.388 Y-163.103 Z-3.827 I-0.242 J0.318
X-208.948 Y-163.027 Z-3.849 I-0.318 J-0.242
G1 X-211.533 Y-164.997 Z-3.963
G3 X-211.609 Y-165.557 Z-3.985 I0.242 J-0.318
X-211.049 Y-165.633 Z-4.007 I0.318 J0.242
G1 X-208.464 Y-163.663 Z-4.12
G3 X-208.388 Y-163.103 Z-4.142 I-0.242 J0.318
X-208.948 Y-163.027 Z-4.164 I-0.318 J-0.242
G1 X-211.533 Y-164.997 Z-4.278
G3 X-211.603 Y-165.565 Z-4.3 I0.242 J-0.318
X-211.049 Y-165.633 I0.312 J0.25 F600
G1 X-208.464 Y-163.663
G3 X-208.388 Y-163.103 I-0.242 J0.318
X-208.948 Y-163.027 I-0.318 J-0.242
G1 X-211.533 Y-164.997
G3 X-211.603 Y-165.565 I0.242 J-0.318
G1 X-211.569 Y-165.597
X-211.526 Y-165.616
X-211.479 Y-165.621
X-211.433 Y-165.612
X-211.392 Y-165.589
X-211.275 Y-165.495
X-211.239 Y-165.466 Z-4.293
X-211.207 Y-165.44 Z-4.271
X-211.181 Y-165.419 Z-4.238
X-211.164 Y-165.406 Z-4.196
X-211.158 Y-165.401 Z-4.15
Z5.5
X-72.488 Y-164.12
Z3.15 F300
X-72.483 Y-164.114 Z3.104 F400
X-72.471 Y-164.097 Z3.062
X-72.45 Y-164.071 Z3.029
X-72.425 Y-164.037 Z3.007
X-72.397 Y-164.001 Z3
X-72.306 Y-163.881
X-72.284 Y-163.84
X-72.275 Y-163.794
X-72.282 Y-163.747
X-72.302 Y-163.705
X-72.334 Y-163.671
X-73.18 Y-163.027 Z2.963 F1016
G3 X-73.741 Y-163.102 Z2.941 I-0.243 J-0.318
X-73.665 Y-163.663 Z2.919 I0.318 J-0.243
G1 X-71.08 Y-165.633 Z2.805
G3 X-70.595 Y-164.997 Z2.762 I0.242 J0.318
G1 X-73.18 Y-163.027 Z2.648
G3 X-73.741 Y-163.102 Z2.626 I-0.243 J-0.318
X-73.665 Y-163.663 Z2.604 I0.318 J-0.243
G1 X-71.08 Y-165.633 Z2.491
G3 X-70.595 Y-164.997 Z2.447 I0.242 J0.318
G1 X-73.18 Y-163.027 Z2.333
G3 X-73.741 Y-163.102 Z2.311 I-0.243 J-0.318
X-73.665 Y-163.663 Z2.289 I0.318 J-0.243
G1 X-71.08 Y-165.633 Z2.176
G3 X-70.595 Y-164.997 Z2.132 I0.242 J0.318
G1 X-73.18 Y-163.027 Z2.018
G3 X-73.741 Y-163.102 Z1.997 I-0.243 J-0.318
X-73.665 Y-163.663 Z1.975 I0.318 J-0.243
G1 X-71.08 Y-165.633 Z1.861
G3 X-70.595 Y-164.997 Z1.817 I0.242 J0.318
G1 X-73.18 Y-163.027 Z1.704
G3 X-73.741 Y-163.102 Z1.682 I-0.243 J-0.318
X-73.665 Y-163.663 Z1.66 I0.318 J-0.243
G1 X-71.08 Y-165.633 Z1.546
G3 X-70.595 Y-164.997 Z1.502 I0.242 J0.318
G1 X-73.18 Y-163.027 Z1.389
G3 X-73.741 Y-163.102 Z1.367 I-0.243 J-0.318
X-73.665 Y-163.663 Z1.345 I0.318 J-0.243
G1 X-71.08 Y-165.633 Z1.231
G3 X-70.595 Y-164.997 Z1.188 I0.242 J0.318
G1 X-73.18 Y-163.027 Z1.074
G3 X-73.741 Y-163.102 Z1.052 I-0.243 J-0.318
X-73.665 Y-163.663 Z1.03 I0.318 J-0.243
G1 X-71.08 Y-165.633 Z0.917
G3 X-70.595 Y-164.997 Z0.873 I0.242 J0.318
G1 X-73.18 Y-163.027 Z0.759
G3 X-73.741 Y-163.102 Z0.737 I-0.243 J-0.318
X-73.665 Y-163.663 Z0.715 I0.318 J-0.243
G1 X-71.08 Y-165.633 Z0.602
G3 X-70.595 Y-164.997 Z0.558 I0.242 J0.318
G1 X-73.18 Y-163.027 Z0.444
G3 X-73.741 Y-163.102 Z0.422 I-0.243 J-0.318
X-73.665 Y-163.663 Z0.401 I0.318 J-0.243
G1 X-71.08 Y-165.633 Z0.287
G3 X-70.595 Y-164.997 Z0.243 I0.242 J0.318
G1 X-73.18 Y-163.027 Z0.13
G3 X-73.741 Y-163.102 Z0.108 I-0.243 J-0.318
X-73.665 Y-163.663 Z0.086 I0.318 J-0.243
G1 X-71.08 Y-165.633 Z-0.028
G3 X-70.595 Y-164.997 Z-0.072 I0.242 J0.318
G1 X-73.18 Y-163.027 Z-0.185
G3 X-73.741 Y-163.102 Z-0.207 I-0.243 J-0.318
X-73.665 Y-163.663 Z-0.229 I0.318 J-0.243
G1 X-71.08 Y-165.633 Z-0.343
G3 X-70.595 Y-164.997 Z-0.387 I0.242 J0.318
G1 X-73.18 Y-163.027 Z-0.5
G3 X-73.741 Y-163.102 I-0.243 J-0.318 F600
X-73.665 Y-163.663 I0.318 J-0.243
G1 X-71.08 Y-165.633
G3 X-70.595 Y-164.997 I0.242 J0.318
G1 X-73.18 Y-163.027
G3 X-73.741 Y-163.102 Z-0.522 I-0.243 J-0.318 F1016
X-73.665 Y-163.663 Z-0.544 I0.318 J-0.243
G1 X-71.08 Y-165.633 Z-0.657
G3 X-70.595 Y-164.997 Z-0.701 I0.242 J0.318
G1 X-73.18 Y-163.027 Z-0.815
G3 X-73.741 Y-163.102 Z-0.837 I-0.243 J-0.318
X-73.665 Y-163.663 Z-0.859 I0.318 J-0.243
G1 X-71.08 Y-165.633 Z-0.972
G3 X-70.595 Y-164.997 Z-1.016 I0.242 J0.318
G1 X-73.18 Y-163.027 Z-1.13
G3 X-73.741 Y-163.102 Z-1.152 I-0.243 J-0.318
X-73.665 Y-163.663 Z-1.174 I0.318 J-0.243
G1 X-71.08 Y-165.633 Z-1.287
G3 X-70.595 Y-164.997 Z-1.331 I0.242 J0.318
G1 X-73.18 Y-163.027 Z-1.444
G3 X-73.741 Y-163.102 Z-1.466 I-0.243 J-0.318
X-73.665 Y-163.663 Z-1.488 I0.318 J-0.243
G1 X-73.4 Y-163.866 Z-1.5
X-71.08 Y-165.633 F600
G3 X-70.595 Y-164.997 I0.242 J0.318
G1 X-73.18 Y-163.027
G3 X-73.741 Y-163.102 I-0.243 J-0.318
X-73.665 Y-163.663 I0.318 J-0.243
G1 X-73.4 Y-163.866
X-71.08 Y-165.633 Z-1.602 F1016
G3 X-70.595 Y-164.997 Z-1.646 I0.242 J0.318
G1 X-73.18 Y-163.027 Z-1.759
G3 X-73.741 Y-163.102 Z-1.781 I-0.243 J-0.318
X-73.665 Y-163.663 Z-1.803 I0.318 J-0.243
G1 X-71.08 Y-165.633 Z-1.917
G3 X-70.595 Y-164.997 Z-1.961 I0.242 J0.318
G1 X-73.18 Y-163.027 Z-2.074
G3 X-73.741 Y-163.102 Z-2.096 I-0.243 J-0.318
X-73.665 Y-163.663 Z-2.118 I0.318 J-0.243
G1 X-71.08 Y-165.633 Z-2.231
G3 X-70.595 Y-164.997 Z-2.275 I0.242 J0.318
G1 X-73.18 Y-163.027 Z-2.389
G3 X-73.741 Y-163.102 Z-2.411 I-0.243 J-0.318
X-73.665 Y-163.663 Z-2.433 I0.318 J-0.243
G1 X-72.134 Y-164.83 Z-2.5
X-71.08 Y-165.633 F600
G3 X-70.595 Y-164.997 I0.242 J0.318
G1 X-73.18 Y-163.027
G3 X-73.741 Y-163.102 I-0.243 J-0.318
X-73.665 Y-163.663 I0.318 J-0.243
G1 X-72.134 Y-164.83
X-71.08 Y-165.633 Z-2.546 F1016
G3 X-70.595 Y-164.997 Z-2.59 I0.242 J0.318
G1 X-73.18 Y-163.027 Z-2.704
G3 X-73.741 Y-163.102 Z-2.726 I-0.243 J-0.318
X-73.665 Y-163.663 Z-2.748 I0.318 J-0.243
G1 X-71.08 Y-165.633 Z-2.861
G3 X-70.595 Y-164.997 Z-2.905 I0.242 J0.318
G1 X-73.18 Y-163.027 Z-3.018
G3 X-73.741 Y-163.102 Z-3.04 I-0.243 J-0.318
X-73.665 Y-163.663 Z-3.062 I0.318 J-0.243
G1 X-71.08 Y-165.633 Z-3.176
G3 X-70.595 Y-164.997 Z-3.22 I0.242 J0.318
G1 X-73.18 Y-163.027 Z-3.333
G3 X-73.741 Y-163.102 Z-3.355 I-0.243 J-0.318
X-73.665 Y-163.663 Z-3.377 I0.318 J-0.243
G1 X-71.08 Y-165.633 Z-3.491
G3 X-70.831 Y-165.715 Z-3.5 I0.242 J0.318
X-70.595 Y-164.997 I-0.006 J0.4 F600
G1 X-73.18 Y-163.027
G3 X-73.741 Y-163.102 I-0.243 J-0.318
X-73.665 Y-163.663 I0.318 J-0.243
G1 X-72.134 Y-164.83
X-71.08 Y-165.633
G3 X-70.831 Y-165.715 I0.242 J0.318
X-70.595 Y-164.997 Z-3.535 I-0.006 J0.4 F1016
G1 X-73.18 Y-163.027 Z-3.648
G3 X-73.741 Y-163.102 Z-3.67 I-0.243 J-0.318
X-73.665 Y-163.663 Z-3.692 I0.318 J-0.243
G1 X-71.08 Y-165.633 Z-3.805
G3 X-70.595 Y-164.997 Z-3.849 I0.242 J0.318
G1 X-73.18 Y-163.027 Z-3.963
G3 X-73.741 Y-163.102 Z-3.985 I-0.243 J-0.318
X-73.665 Y-163.663 Z-4.007 I0.318 J-0.243
G1 X-71.08 Y-165.633 Z-4.12
G3 X-70.595 Y-164.997 Z-4.164 I0.242 J0.318
G1 X-73.18 Y-163.027 Z-4.278
G3 X-73.747 Y-163.11 Z-4.3 I-0.243 J-0.318
X-73.665 Y-163.663 I0.324 J-0.235 F600
G1 X-71.08 Y-165.633
G3 X-70.595 Y-164.997 I0.242 J0.318
G1 X-73.18 Y-163.027
G3 X-73.747 Y-163.11 I-0.243 J-0.318
G1 X-73.768 Y-163.152
X-73.775 Y-163.199
X-73.768 Y-163.245
X-73.746 Y-163.287
X-73.713 Y-163.32
X-73.592 Y-163.408
X-73.554 Y-163.435 Z-4.293
X-73.52 Y-163.459 Z-4.271
X-73.493 Y-163.479 Z-4.238
X-73.476 Y-163.491 Z-4.196
X-73.47 Y-163.496 Z-4.15
Z5.5
X-70.933 Y-175.01
Z3.15 F300
X-70.939 Y-175.005 Z3.104 F400
X-70.956 Y-174.992 Z3.062
X-70.983 Y-174.972 Z3.029
X-71.016 Y-174.947 Z3.007
X-71.053 Y-174.919 Z3
X-71.172 Y-174.828
X-71.213 Y-174.805
X-71.26 Y-174.797
X-71.306 Y-174.803
X-71.348 Y-174.824
X-71.382 Y-174.856
X-72.037 Y-175.716 Z2.962 F1016
G3 X-71.401 Y-176.2 Z2.918 I0.318 J-0.242
G1 X-69.431 Y-173.615 Z2.805
G3 X-70.067 Y-173.131 Z2.761 I-0.318 J0.242
G1 X-72.037 Y-175.716 Z2.648
G3 X-71.401 Y-176.2 Z2.604 I0.318 J-0.242
G1 X-69.431 Y-173.615 Z2.49
G3 X-70.067 Y-173.131 Z2.446 I-0.318 J0.242
G1 X-72.037 Y-175.716 Z2.333
G3 X-71.401 Y-176.2 Z2.289 I0.318 J-0.242
G1 X-69.431 Y-173.615 Z2.175
G3 X-70.067 Y-173.131 Z2.132 I-0.318 J0.242
G1 X-72.037 Y-175.716 Z2.018
G3 X-71.401 Y-176.2 Z1.974 I0.318 J-0.242
G1 X-69.431 Y-173.615 Z1.861
G3 X-70.067 Y-173.131 Z1.817 I-0.318 J0.242
G1 X-72.037 Y-175.716 Z1.703
G3 X-71.401 Y-176.2 Z1.659 I0.318 J-0.242
G1 X-69.431 Y-173.615 Z1.546
G3 X-70.067 Y-173.131 Z1.502 I-0.318 J0.242
G1 X-72.037 Y-175.716 Z1.389
G3 X-71.401 Y-176.2 Z1.345 I0.318 J-0.242
G1 X-69.431 Y-173.615 Z1.231
G3 X-70.067 Y-173.131 Z1.187 I-0.318 J0.242
G1 X-72.037 Y-175.716 Z1.074
G3 X-71.401 Y-176.2 Z1.03 I0.318 J-0.242
G1 X-69.431 Y-173.615 Z0.916
G3 X-70.067 Y-173.131 Z0.872 I-0.318 J0.242
G1 X-72.037 Y-175.716 Z0.759
G3 X-71.401 Y-176.2 Z0.715 I0.318 J-0.242
G1 X-69.431 Y-173.615 Z0.602
G3 X-70.067 Y-173.131 Z0.558 I-0.318 J0.242
G1 X-72.037 Y-175.716 Z0.444
G3 X-71.401 Y-176.2 Z0.4 I0.318 J-0.242
G1 X-69.431 Y-173.615 Z0.287
G3 X-70.067 Y-173.131 Z0.243 I-0.318 J0.242
G1 X-72.037 Y-175.716 Z0.13
G3 X-71.401 Y-176.2 Z0.086 I0.318 J-0.242
G1 X-69.431 Y-173.615 Z-0.028
G3 X-70.067 Y-173.131 Z-0.072 I-0.318 J0.242
G1 X-72.037 Y-175.716 Z-0.185
G3 X-71.401 Y-176.2 Z-0.229 I0.318 J-0.242
G1 X-69.431 Y-173.615 Z-0.343
G3 X-70.067 Y-173.131 Z-0.387 I-0.318 J0.242
G1 X-72.037 Y-175.716 Z-0.5
G3 X-71.401 Y-176.2 I0.318 J-0.242 F600
G1 X-69.431 Y-173.615
G3 X-70.067 Y-173.131 I-0.318 J0.242
G1 X-72.037 Y-175.716
G3 X-71.401 Y-176.2 Z-0.544 I0.318 J-0.242 F1016
G1 X-69.431 Y-173.615 Z-0.657
G3 X-70.067 Y-173.131 Z-0.701 I-0.318 J0.242
G1 X-72.037 Y-175.716 Z-0.815
G3 X-71.401 Y-176.2 Z-0.859 I0.318 J-0.242
G1 X-69.431 Y-173.615 Z-0.972
G3 X-70.067 Y-173.131 Z-1.016 I-0.318 J0.242
G1 X-72.037 Y-175.716 Z-1.13
G3 X-71.401 Y-176.2 Z-1.173 I0.318 J-0.242
G1 X-69.431 Y-173.615 Z-1.287
G3 X-70.067 Y-173.131 Z-1.331 I-0.318 J0.242
G1 X-72.037 Y-175.716 Z-1.444
G3 X-71.401 Y-176.2 Z-1.488 I0.318 J-0.242
G1 X-71.195 Y-175.93 Z-1.5
X-69.431 Y-173.615 F600
G3 X-70.067 Y-173.131 I-0.318 J0.242
G1 X-72.037 Y-175.716
G3 X-71.401 Y-176.2 I0.318 J-0.242
G1 X-71.195 Y-175.93
X-69.431 Y-173.615 Z-1.602 F1016
G3 X-70.067 Y-173.131 Z-1.646 I-0.318 J0.242
G1 X-72.037 Y-175.716 Z-1.759
G3 X-71.401 Y-176.2 Z-1.803 I0.318 J-0.242
G1 X-69.431 Y-173.615 Z-1.916
G3 X-70.067 Y-173.131 Z-1.96 I-0.318 J0.242
G1 X-72.037 Y-175.716 Z-2.074
G3 X-71.401 Y-176.2 Z-2.118 I0.318 J-0.242
G1 X-69.431 Y-173.615 Z-2.231
G3 X-70.067 Y-173.131 Z-2.275 I-0.318 J0.242
G1 X-72.037 Y-175.716 Z-2.389
G3 X-71.401 Y-176.2 Z-2.432 I0.318 J-0.242
G1 X-70.227 Y-174.661 Z-2.5
X-69.431 Y-173.615 F600
G3 X-70.067 Y-173.131 I-0.318 J0.242
G1 X-72.037 Y-175.716
G3 X-71.401 Y-176.2 I0.318 J-0.242
G1 X-70.227 Y-174.661
X-69.431 Y-173.615 Z-2.546 F1016
G3 X-70.067 Y-173.131 Z-2.59 I-0.318 J0.242
G1 X-72.037 Y-175.716 Z-2.703
G3 X-71.401 Y-176.2 Z-2.747 I0.318 J-0.242
G1 X-69.431 Y-173.615 Z-2.861
G3 X-70.067 Y-173.131 Z-2.905 I-0.318 J0.242
G1 X-72.037 Y-175.716 Z-3.018
G3 X-71.401 Y-176.2 Z-3.062 I0.318 J-0.242
G1 X-69.431 Y-173.615 Z-3.175
G3 X-70.067 Y-173.131 Z-3.219 I-0.318 J0.242
G1 X-72.037 Y-175.716 Z-3.333
G3 X-71.401 Y-176.2 Z-3.377 I0.318 J-0.242
G1 X-69.431 Y-173.615 Z-3.49
G3 X-69.35 Y-173.351 Z-3.5 I-0.318 J0.242
X-70.067 Y-173.131 I-0.399 J-0.022 F600
G1 X-72.037 Y-175.716
G3 X-71.401 Y-176.2 I0.318 J-0.242
G1 X-70.227 Y-174.661
X-69.431 Y-173.615
G3 X-69.35 Y-173.351 I-0.318 J0.242
X-70.067 Y-173.131 Z-3.534 I-0.399 J-0.022 F1016
G1 X-72.037 Y-175.716 Z-3.648
G3 X-71.401 Y-176.2 Z-3.691 I0.318 J-0.242
G1 X-69.431 Y-173.615 Z-3.805
G3 X-70.067 Y-173.131 Z-3.849 I-0.318 J0.242
G1 X-72.037 Y-175.716 Z-3.962
G3 X-71.401 Y-176.2 Z-4.006 I0.318 J-0.242
G1 X-69.431 Y-173.615 Z-4.12
G3 X-70.067 Y-173.131 Z-4.164 I-0.318 J0.242
G1 X-72.037 Y-175.716 Z-4.277
G3 X-71.937 Y-176.293 Z-4.3 I0.318 J-0.242
X-71.401 Y-176.2 I0.218 J0.335 F600
G1 X-69.431 Y-173.615
G3 X-70.067 Y-173.131 I-0.318 J0.242
G1 X-72.037 Y-175.716
G3 X-71.937 Y-176.293 I0.318 J-0.242
G1 X-71.894 Y-176.312
X-71.848 Y-176.317
X-71.802 Y-176.308
X-71.761 Y-176.284
X-71.73 Y-176.249
X-71.648 Y-176.124
X-71.623 Y-176.085 Z-4.293
X-71.6 Y-176.05 Z-4.271
X-71.582 Y-176.022 Z-4.238
X-71.57 Y-176.004 Z-4.196
X-71.566 Y-175.998 Z-4.15
Z5.5
X-60.756 Y-173.06
Z3.15 F300
X-60.752 Y-173.054 Z3.104 F400
X-60.739 Y-173.037 Z3.062
X-60.719 Y-173.011 Z3.029
X-60.693 Y-172.977 Z3.007
X-60.665 Y-172.94 Z3
X-60.574 Y-172.821
X-60.552 Y-172.78
X-60.544 Y-172.734
X-60.55 Y-172.687
X-60.57 Y-172.645
X-60.603 Y-172.611
X-61.448 Y-171.967 Z2.963 F1016
G3 X-61.933 Y-172.603 Z2.919 I-0.242 J-0.318
G1 X-59.348 Y-174.573 Z2.805
G3 X-58.863 Y-173.937 Z2.762 I0.242 J0.318
G1 X-61.448 Y-171.967 Z2.648
G3 X-61.933 Y-172.603 Z2.604 I-0.242 J-0.318
G1 X-59.348 Y-174.573 Z2.491
G3 X-58.863 Y-173.937 Z2.447 I0.242 J0.318
G1 X-61.448 Y-171.967 Z2.333
G3 X-61.933 Y-172.603 Z2.289 I-0.242 J-0.318
G1 X-59.348 Y-174.573 Z2.176
G3 X-58.863 Y-173.937 Z2.132 I0.242 J0.318
G1 X-61.448 Y-171.967 Z2.018
G3 X-61.933 Y-172.603 Z1.975 I-0.242 J-0.318
G1 X-59.348 Y-174.573 Z1.861
G3 X-58.863 Y-173.937 Z1.817 I0.242 J0.318
G1 X-61.448 Y-171.967 Z1.704
G3 X-61.933 Y-172.603 Z1.66 I-0.242 J-0.318
G1 X-59.348 Y-174.573 Z1.546
G3 X-58.863 Y-173.937 Z1.502 I0.242 J0.318
G1 X-61.448 Y-171.967 Z1.389
G3 X-61.933 Y-172.603 Z1.345 I-0.242 J-0.318
G1 X-59.348 Y-174.573 Z1.231
G3 X-58.863 Y-173.937 Z1.188 I0.242 J0.318
G1 X-61.448 Y-171.967 Z1.074
G3 X-61.933 Y-172.603 Z1.03 I-0.242 J-0.318
G1 X-59.348 Y-174.573 Z0.917
G3 X-58.863 Y-173.937 Z0.873 I0.242 J0.318
G1 X-61.448 Y-171.967 Z0.759
G3 X-61.933 Y-172.603 Z0.715 I-0.242 J-0.318
G1 X-59.348 Y-174.573 Z0.602
G3 X-58.863 Y-173.937 Z0.558 I0.242 J0.318
G1 X-61.448 Y-171.967 Z0.444
G3 X-61.933 Y-172.603 Z0.401 I-0.242 J-0.318
G1 X-59.348 Y-174.573 Z0.287
G3 X-58.863 Y-173.937 Z0.243 I0.242 J0.318
G1 X-61.448 Y-171.967 Z0.13
G3 X-61.933 Y-172.603 Z0.086 I-0.242 J-0.318
G1 X-59.348 Y-174.573 Z-0.028
G3 X-58.863 Y-173.937 Z-0.072 I0.242 J0.318
G1 X-61.448 Y-171.967 Z-0.185
G3 X-61.933 Y-172.603 Z-0.229 I-0.242 J-0.318
G1 X-59.348 Y-174.573 Z-0.343
G3 X-58.863 Y-173.937 Z-0.387 I0.242 J0.318
G1 X-61.448 Y-171.967 Z-0.5
G3 X-61.933 Y-172.603 I-0.242 J-0.318 F600
G1 X-59.348 Y-174.573
G3 X-58.863 Y-173.937 I0.242 J0.318
G1 X-61.448 Y-171.967
G3 X-61.933 Y-172.603 Z-0.544 I-0.242 J-0.318 F1016
G1 X-59.348 Y-174.573 Z-0.657
G3 X-58.863 Y-173.937 Z-0.701 I0.242 J0.318
G1 X-61.448 Y-171.967 Z-0.815
G3 X-61.933 Y-172.603 Z-0.859 I-0.242 J-0.318
G1 X-59.348 Y-174.573 Z-0.972
G3 X-58.863 Y-173.937 Z-1.016 I0.242 J0.318
G1 X-61.448 Y-171.967 Z-1.13
G3 X-61.933 Y-172.603 Z-1.174 I-0.242 J-0.318
G1 X-59.348 Y-174.573 Z-1.287
G3 X-58.863 Y-173.937 Z-1.331 I0.242 J0.318
G1 X-61.448 Y-171.967 Z-1.444
G3 X-61.933 Y-172.603 Z-1.488 I-0.242 J-0.318
G1 X-61.668 Y-172.806 Z-1.5
X-59.348 Y-174.573 F600
G3 X-58.863 Y-173.937 I0.242 J0.318
G1 X-61.448 Y-171.967
G3 X-61.933 Y-172.603 I-0.242 J-0.318
G1 X-61.668 Y-172.806
X-59.348 Y-174.573 Z-1.602 F1016
G3 X-58.863 Y-173.937 Z-1.646 I0.242 J0.318
G1 X-61.448 Y-171.967 Z-1.759
G3 X-61.933 Y-172.603 Z-1.803 I-0.242 J-0.318
G1 X-59.348 Y-174.573 Z-1.917
G3 X-58.863 Y-173.937 Z-1.961 I0.242 J0.318
G1 X-61.448 Y-171.967 Z-2.074
G3 X-61.933 Y-172.603 Z-2.118 I-0.242 J-0.318
G1 X-59.348 Y-174.573 Z-2.231
G3 X-58.863 Y-173.937 Z-2.275 I0.242 J0.318
G1 X-61.448 Y-171.967 Z-2.389
G3 X-61.933 Y-172.603 Z-2.433 I-0.242 J-0.318
G1 X-60.402 Y-173.771 Z-2.5
X-59.348 Y-174.573 F600
G3 X-58.863 Y-173.937 I0.242 J0.318
G1 X-61.448 Y-171.967
G3 X-61.933 Y-172.603 I-0.242 J-0.318
G1 X-60.402 Y-173.771
X-59.348 Y-174.573 Z-2.546 F1016
G3 X-58.863 Y-173.937 Z-2.59 I0.242 J0.318
G1 X-61.448 Y-171.967 Z-2.704
G3 X-61.933 Y-172.603 Z-2.748 I-0.242 J-0.318
G1 X-59.348 Y-174.573 Z-2.861
G3 X-58.863 Y-173.937 Z-2.905 I0.242 J0.318
G1 X-61.448 Y-171.967 Z-3.018
G3 X-61.933 Y-172.603 Z-3.062 I-0.242 J-0.318
G1 X-59.348 Y-174.573 Z-3.176
G3 X-58.863 Y-173.937 Z-3.22 I0.242 J0.318
G1 X-61.448 Y-171.967 Z-3.333
G3 X-61.933 Y-172.603 Z-3.377 I-0.242 J-0.318
G1 X-59.348 Y-174.573 Z-3.491
G3 X-59.099 Y-174.655 Z-3.5 I0.242 J0.318
X-58.863 Y-173.937 I-0.006 J0.4 F600
G1 X-61.448 Y-171.967
G3 X-61.933 Y-172.603 I-0.242 J-0.318
G1 X-60.402 Y-173.771
X-59.348 Y-174.573
G3 X-59.099 Y-174.655 I0.242 J0.318
X-58.863 Y-173.937 Z-3.535 I-0.006 J0.4 F1016
G1 X-61.448 Y-171.967 Z-3.648
G3 X-61.933 Y-172.603 Z-3.692 I-0.242 J-0.318
G1 X-59.348 Y-174.573 Z-3.805
G3 X-58.863 Y-173.937 Z-3.849 I0.242 J0.318
G1 X-61.448 Y-171.967 Z-3.963
G3 X-61.933 Y-172.603 Z-4.007 I-0.242 J-0.318
G1 X-59.348 Y-174.573 Z-4.12
G3 X-58.863 Y-173.937 Z-4.164 I0.242 J0.318
G1 X-61.448 Y-171.967 Z-4.278
G3 X-62.015 Y-172.05 Z-4.3 I-0.242 J-0.318
X-61.933 Y-172.603 I0.324 J-0.235 F600
G1 X-59.348 Y-174.573
G3 X-58.863 Y-173.937 I0.242 J0.318
G1 X-61.448 Y-171.967
G3 X-62.015 Y-172.05 I-0.242 J-0.318
G1 X-62.036 Y-172.092
X-62.043 Y-172.139
X-62.036 Y-172.185
X-62.015 Y-172.227
X-61.981 Y-172.26
X-61.86 Y-172.348
X-61.822 Y-172.375 Z-4.293
X-61.788 Y-172.399 Z-4.271
X-61.761 Y-172.419 Z-4.238
X-61.744 Y-172.431 Z-4.196
X-61.738 Y-172.436 Z-4.15
Z5.5
X-61.214 Y-162.091
Z3.15 F300
X-61.208 Y-162.095 Z3.104 F400
X-61.191 Y-162.108 Z3.062
X-61.165 Y-162.128 Z3.029
X-61.131 Y-162.154 Z3.007
X-61.095 Y-162.182 Z3
X-60.975 Y-162.273
X-60.934 Y-162.295
X-60.888 Y-162.303
X-60.841 Y-162.297
X-60.799 Y-162.277
X-60.765 Y-162.244
X-60.491 Y-161.884 Z2.984 F1016
G3 X-60.567 Y-161.324 Z2.962 I-0.318 J0.242
X-61.127 Y-161.4 Z2.94 I-0.242 J-0.318
G1 X-63.097 Y-163.985 Z2.827
G3 X-62.461 Y-164.469 Z2.783 I0.318 J-0.242
G1 X-60.491 Y-161.884 Z2.669
G3 X-60.567 Y-161.324 Z2.648 I-0.318 J0.242
X-61.127 Y-161.4 Z2.626 I-0.242 J-0.318
G1 X-63.097 Y-163.985 Z2.512
G3 X-62.461 Y-164.469 Z2.468 I0.318 J-0.242
G1 X-60.491 Y-161.884 Z2.355
G3 X-60.567 Y-161.324 Z2.333 I-0.318 J0.242
X-61.127 Y-161.4 Z2.311 I-0.242 J-0.318
G1 X-63.097 Y-163.985 Z2.197
G3 X-62.461 Y-164.469 Z2.153 I0.318 J-0.242
G1 X-60.491 Y-161.884 Z2.04
G3 X-60.567 Y-161.324 Z2.018 I-0.318 J0.242
X-61.127 Y-161.4 Z1.996 I-0.242 J-0.318
G1 X-63.097 Y-163.985 Z1.883
G3 X-62.461 Y-164.469 Z1.839 I0.318 J-0.242
G1 X-60.491 Y-161.884 Z1.725
G3 X-60.567 Y-161.324 Z1.703 I-0.318 J0.242
X-61.127 Y-161.4 Z1.681 I-0.242 J-0.318
G1 X-63.097 Y-163.985 Z1.568
G3 X-62.461 Y-164.469 Z1.524 I0.318 J-0.242
G1 X-60.491 Y-161.884 Z1.41
G3 X-60.567 Y-161.324 Z1.389 I-0.318 J0.242
X-61.127 Y-161.4 Z1.367 I-0.242 J-0.318
G1 X-63.097 Y-163.985 Z1.253
G3 X-62.461 Y-164.469 Z1.209 I0.318 J-0.242
G1 X-60.491 Y-161.884 Z1.096
G3 X-60.567 Y-161.324 Z1.074 I-0.318 J0.242
X-61.127 Y-161.4 Z1.052 I-0.242 J-0.318
G1 X-63.097 Y-163.985 Z0.938
G3 X-62.461 Y-164.469 Z0.894 I0.318 J-0.242
G1 X-60.491 Y-161.884 Z0.781
G3 X-60.567 Y-161.324 Z0.759 I-0.318 J0.242
X-61.127 Y-161.4 Z0.737 I-0.242 J-0.318
G1 X-63.097 Y-163.985 Z0.624
G3 X-62.461 Y-164.469 Z0.58 I0.318 J-0.242
G1 X-60.491 Y-161.884 Z0.466
G3 X-60.567 Y-161.324 Z0.444 I-0.318 J0.242
