(Main_3_175)
(Bearbeiten)
(  Hersteller: ChinaCnc)
(  model: 3040T)
(  description: Generic 3-axis)
(T5 D=3.175 CR=0 - ZMIN=-4.3 - Schaftfrser)
G90 G94
G17
G21
(When using Fusion 360 for Personal Use, the feedrate of)
(rapid moves is reduced to match the feedrate of cutting)
(moves, which can increase machining time. Unrestricted rapid)
(moves are available with a Fusion 360 Subscription.)

(Bohrfrsen4)
M0
(MANUAL TOOL CHANGE TO T5)
S6000 M3
G54
G0 X-274.206 Y-168.881
Z15
G1 Z2.682 F1000
Z1
X-274.047
X-274.016 Y-168.875
X-273.99 Y-168.857
X-273.972 Y-168.831
X-273.966 Y-168.8
G3 X-274.291 Y-168.8 Z0.939 I-0.163 J0
X-273.966 Y-168.8 Z0.878 I0.163 J0
X-274.291 Y-168.8 Z0.817 I-0.163 J0
X-273.966 Y-168.8 Z0.756 I0.163 J0
X-274.291 Y-168.8 Z0.694 I-0.163 J0
X-273.966 Y-168.8 Z0.633 I0.163 J0
X-274.291 Y-168.8 Z0.572 I-0.163 J0
X-273.966 Y-168.8 Z0.511 I0.163 J0
X-274.291 Y-168.8 Z0.45 I-0.163 J0
X-273.966 Y-168.8 Z0.389 I0.163 J0
X-274.291 Y-168.8 Z0.328 I-0.163 J0
X-273.966 Y-168.8 Z0.267 I0.163 J0
X-274.291 Y-168.8 Z0.206 I-0.163 J0
X-273.966 Y-168.8 Z0.144 I0.163 J0
X-274.291 Y-168.8 Z0.083 I-0.163 J0
X-273.966 Y-168.8 Z0.022 I0.163 J0
X-274.291 Y-168.8 Z-0.039 I-0.163 J0
X-273.966 Y-168.8 Z-0.1 I0.163 J0
X-274.291 Y-168.8 Z-0.161 I-0.163 J0
X-273.966 Y-168.8 Z-0.222 I0.163 J0
X-274.291 Y-168.8 Z-0.283 I-0.163 J0
X-273.966 Y-168.8 Z-0.344 I0.163 J0
X-274.291 Y-168.8 Z-0.406 I-0.163 J0
X-273.966 Y-168.8 Z-0.467 I0.163 J0
X-274.291 Y-168.8 Z-0.528 I-0.163 J0
X-273.966 Y-168.8 Z-0.589 I0.163 J0
X-274.291 Y-168.8 Z-0.65 I-0.163 J0
X-273.966 Y-168.8 Z-0.711 I0.163 J0
X-274.291 Y-168.8 Z-0.772 I-0.163 J0
X-273.966 Y-168.8 Z-0.833 I0.163 J0
X-274.291 Y-168.8 Z-0.894 I-0.163 J0
X-273.966 Y-168.8 Z-0.956 I0.163 J0
X-274.291 Y-168.8 Z-1.017 I-0.163 J0
X-273.966 Y-168.8 Z-1.078 I0.163 J0
X-274.291 Y-168.8 Z-1.139 I-0.163 J0
X-273.966 Y-168.8 Z-1.2 I0.163 J0
X-274.291 Y-168.8 Z-1.261 I-0.163 J0
X-273.966 Y-168.8 Z-1.322 I0.163 J0
X-274.291 Y-168.8 Z-1.383 I-0.163 J0
X-273.966 Y-168.8 Z-1.444 I0.163 J0
X-274.291 Y-168.8 Z-1.506 I-0.163 J0
X-273.966 Y-168.8 Z-1.567 I0.163 J0
X-274.291 Y-168.8 Z-1.628 I-0.163 J0
X-273.966 Y-168.8 Z-1.689 I0.163 J0
X-274.291 Y-168.8 Z-1.75 I-0.163 J0
X-273.966 Y-168.8 Z-1.811 I0.163 J0
X-274.291 Y-168.8 Z-1.872 I-0.163 J0
X-273.966 Y-168.8 Z-1.933 I0.163 J0
X-274.291 Y-168.8 Z-1.994 I-0.163 J0
X-273.966 Y-168.8 Z-2.056 I0.163 J0
X-274.291 Y-168.8 Z-2.117 I-0.163 J0
X-273.966 Y-168.8 Z-2.178 I0.163 J0
X-274.291 Y-168.8 Z-2.239 I-0.163 J0
X-273.966 Y-168.8 Z-2.3 I0.163 J0
X-274.291 Y-168.8 Z-2.361 I-0.163 J0
X-273.966 Y-168.8 Z-2.422 I0.163 J0
X-274.291 Y-168.8 Z-2.483 I-0.163 J0
X-273.966 Y-168.8 Z-2.544 I0.163 J0
X-274.291 Y-168.8 Z-2.606 I-0.163 J0
X-273.966 Y-168.8 Z-2.667 I0.163 J0
X-274.291 Y-168.8 Z-2.728 I-0.163 J0
X-273.966 Y-168.8 Z-2.789 I0.163 J0
X-274.291 Y-168.8 Z-2.85 I-0.163 J0
X-273.966 Y-168.8 Z-2.911 I0.163 J0
X-274.291 Y-168.8 Z-2.972 I-0.163 J0
X-273.966 Y-168.8 Z-3.033 I0.163 J0
X-274.291 Y-168.8 Z-3.094 I-0.163 J0
X-273.966 Y-168.8 Z-3.156 I0.163 J0
X-274.291 Y-168.8 Z-3.217 I-0.163 J0
X-273.966 Y-168.8 Z-3.278 I0.163 J0
X-274.291 Y-168.8 Z-3.339 I-0.163 J0
X-273.966 Y-168.8 Z-3.4 I0.163 J0
X-274.291 Y-168.8 Z-3.461 I-0.163 J0
X-273.966 Y-168.8 Z-3.522 I0.163 J0
X-274.291 Y-168.8 Z-3.583 I-0.163 J0
X-273.966 Y-168.8 Z-3.644 I0.163 J0
X-274.291 Y-168.8 Z-3.706 I-0.163 J0
X-273.966 Y-168.8 Z-3.767 I0.163 J0
X-274.291 Y-168.8 Z-3.828 I-0.163 J0
X-273.966 Y-168.8 Z-3.889 I0.163 J0
X-274.291 Y-168.8 Z-3.95 I-0.163 J0
X-273.966 Y-168.8 Z-4.011 I0.163 J0
X-274.291 Y-168.8 Z-4.072 I-0.163 J0
X-273.966 Y-168.8 Z-4.133 I0.163 J0
X-274.291 Y-168.8 Z-4.194 I-0.163 J0
X-273.966 Y-168.8 Z-4.256 I0.163 J0
X-274.234 Y-168.677 Z-4.3 I-0.163 J0
X-274.022 Y-168.923 I0.106 J-0.123
X-274.234 Y-168.677 I-0.106 J0.123
G1 X-274.254 Y-168.702
X-274.262 Y-168.733
X-274.258 Y-168.764
X-274.243 Y-168.792
X-274.139 Y-168.912
Z5
X-231.054 Y-180.397
Z2.682
Z1
X-230.895
X-230.864 Y-180.391
X-230.838 Y-180.373
X-230.82 Y-180.347
X-230.814 Y-180.316
G3 X-231.139 Y-180.316 Z0.939 I-0.163 J0
X-230.814 Y-180.316 Z0.878 I0.163 J0
X-231.139 Y-180.316 Z0.817 I-0.163 J0
X-230.814 Y-180.316 Z0.756 I0.163 J0
X-231.139 Y-180.316 Z0.694 I-0.163 J0
X-230.814 Y-180.316 Z0.633 I0.163 J0
X-231.139 Y-180.316 Z0.572 I-0.163 J0
X-230.814 Y-180.316 Z0.511 I0.163 J0
X-231.139 Y-180.316 Z0.45 I-0.163 J0
X-230.814 Y-180.316 Z0.389 I0.163 J0
X-231.139 Y-180.316 Z0.328 I-0.163 J0
X-230.814 Y-180.316 Z0.267 I0.163 J0
X-231.139 Y-180.316 Z0.206 I-0.163 J0
X-230.814 Y-180.316 Z0.144 I0.163 J0
X-231.139 Y-180.316 Z0.083 I-0.163 J0
X-230.814 Y-180.316 Z0.022 I0.163 J0
X-231.139 Y-180.316 Z-0.039 I-0.163 J0
X-230.814 Y-180.316 Z-0.1 I0.163 J0
X-231.139 Y-180.316 Z-0.161 I-0.163 J0
X-230.814 Y-180.316 Z-0.222 I0.163 J0
X-231.139 Y-180.316 Z-0.283 I-0.163 J0
X-230.814 Y-180.316 Z-0.344 I0.163 J0
X-231.139 Y-180.316 Z-0.406 I-0.163 J0
X-230.814 Y-180.316 Z-0.467 I0.163 J0
X-231.139 Y-180.316 Z-0.528 I-0.163 J0
X-230.814 Y-180.316 Z-0.589 I0.163 J0
X-231.139 Y-180.316 Z-0.65 I-0.163 J0
X-230.814 Y-180.316 Z-0.711 I0.163 J0
X-231.139 Y-180.316 Z-0.772 I-0.163 J0
X-230.814 Y-180.316 Z-0.833 I0.163 J0
X-231.139 Y-180.316 Z-0.894 I-0.163 J0
X-230.814 Y-180.316 Z-0.956 I0.163 J0
X-231.139 Y-180.316 Z-1.017 I-0.163 J0
X-230.814 Y-180.316 Z-1.078 I0.163 J0
X-231.139 Y-180.316 Z-1.139 I-0.163 J0
X-230.814 Y-180.316 Z-1.2 I0.163 J0
X-231.139 Y-180.316 Z-1.261 I-0.163 J0
X-230.814 Y-180.316 Z-1.322 I0.163 J0
X-231.139 Y-180.316 Z-1.383 I-0.163 J0
X-230.814 Y-180.316 Z-1.444 I0.163 J0
X-231.139 Y-180.316 Z-1.506 I-0.163 J0
X-230.814 Y-180.316 Z-1.567 I0.163 J0
X-231.139 Y-180.316 Z-1.628 I-0.163 J0
X-230.814 Y-180.316 Z-1.689 I0.163 J0
X-231.139 Y-180.316 Z-1.75 I-0.163 J0
X-230.814 Y-180.316 Z-1.811 I0.163 J0
X-231.139 Y-180.316 Z-1.872 I-0.163 J0
X-230.814 Y-180.316 Z-1.933 I0.163 J0
X-231.139 Y-180.316 Z-1.994 I-0.163 J0
X-230.814 Y-180.316 Z-2.056 I0.163 J0
X-231.139 Y-180.316 Z-2.117 I-0.163 J0
X-230.814 Y-180.316 Z-2.178 I0.163 J0
X-231.139 Y-180.316 Z-2.239 I-0.163 J0
X-230.814 Y-180.316 Z-2.3 I0.163 J0
X-231.139 Y-180.316 Z-2.361 I-0.163 J0
X-230.814 Y-180.316 Z-2.422 I0.163 J0
X-231.139 Y-180.316 Z-2.483 I-0.163 J0
X-230.814 Y-180.316 Z-2.544 I0.163 J0
X-231.139 Y-180.316 Z-2.606 I-0.163 J0
X-230.814 Y-180.316 Z-2.667 I0.163 J0
X-231.139 Y-180.316 Z-2.728 I-0.163 J0
X-230.814 Y-180.316 Z-2.789 I0.162 J0
X-231.139 Y-180.316 Z-2.85 I-0.162 J0
X-230.814 Y-180.316 Z-2.911 I0.162 J0
X-231.139 Y-180.316 Z-2.972 I-0.162 J0
X-230.814 Y-180.316 Z-3.033 I0.162 J0
X-231.139 Y-180.316 Z-3.094 I-0.162 J0
X-230.814 Y-180.316 Z-3.156 I0.162 J0
X-231.139 Y-180.316 Z-3.217 I-0.162 J0
X-230.814 Y-180.316 Z-3.278 I0.162 J0
X-231.139 Y-180.316 Z-3.339 I-0.162 J0
X-230.814 Y-180.316 Z-3.4 I0.162 J0
X-231.139 Y-180.316 Z-3.461 I-0.162 J0
X-230.814 Y-180.316 Z-3.522 I0.162 J0
X-231.139 Y-180.316 Z-3.583 I-0.162 J0
X-230.814 Y-180.316 Z-3.644 I0.162 J0
X-231.139 Y-180.316 Z-3.706 I-0.162 J0
X-230.814 Y-180.316 Z-3.767 I0.162 J0
X-231.139 Y-180.316 Z-3.828 I-0.162 J0
X-230.814 Y-180.316 Z-3.889 I0.162 J0
X-231.139 Y-180.316 Z-3.95 I-0.162 J0
X-230.814 Y-180.316 Z-4.011 I0.162 J0
X-231.139 Y-180.316 Z-4.072 I-0.162 J0
X-230.814 Y-180.316 Z-4.133 I0.162 J0
X-231.139 Y-180.316 Z-4.194 I-0.162 J0
X-230.814 Y-180.316 Z-4.256 I0.162 J0
X-231.083 Y-180.193 Z-4.3 I-0.162 J0
X-230.87 Y-180.439 I0.106 J-0.123
X-231.083 Y-180.193 I-0.106 J0.123
G1 X-231.102 Y-180.218
X-231.111 Y-180.249
X-231.107 Y-180.28
X-231.091 Y-180.308
X-230.987 Y-180.428
Z5
X-215.745 Y-169.117
Z3
Z1.317
G18 G2 X-215.428 Z1 I0.317 K0
G1 X-215.269
G17 G3 X-214.952 Y-168.8 I0 J0.317
X-216.777 Y-168.8 Z0.913 I-0.913 J0
X-214.952 Y-168.8 Z0.825 I0.913 J0
X-216.777 Y-168.8 Z0.738 I-0.913 J0
X-214.952 Y-168.8 Z0.651 I0.913 J0
X-216.777 Y-168.8 Z0.563 I-0.913 J0
X-214.952 Y-168.8 Z0.476 I0.913 J0
X-216.777 Y-168.8 Z0.389 I-0.913 J0
X-214.952 Y-168.8 Z0.302 I0.913 J0
X-216.777 Y-168.8 Z0.214 I-0.913 J0
X-214.952 Y-168.8 Z0.127 I0.913 J0
X-216.777 Y-168.8 Z0.04 I-0.913 J0
X-214.952 Y-168.8 Z-0.048 I0.913 J0
X-216.777 Y-168.8 Z-0.135 I-0.913 J0
X-214.952 Y-168.8 Z-0.222 I0.913 J0
X-216.777 Y-168.8 Z-0.31 I-0.913 J0
X-214.952 Y-168.8 Z-0.397 I0.913 J0
X-216.777 Y-168.8 Z-0.484 I-0.913 J0
X-214.952 Y-168.8 Z-0.571 I0.913 J0
X-216.777 Y-168.8 Z-0.659 I-0.913 J0
X-214.952 Y-168.8 Z-0.746 I0.913 J0
X-216.777 Y-168.8 Z-0.833 I-0.913 J0
X-214.952 Y-168.8 Z-0.921 I0.913 J0
X-216.777 Y-168.8 Z-1.008 I-0.913 J0
X-214.952 Y-168.8 Z-1.095 I0.913 J0
X-216.777 Y-168.8 Z-1.183 I-0.913 J0
X-214.952 Y-168.8 Z-1.27 I0.913 J0
X-216.777 Y-168.8 Z-1.357 I-0.913 J0
X-214.952 Y-168.8 Z-1.444 I0.913 J0
X-216.777 Y-168.8 Z-1.532 I-0.913 J0
X-214.952 Y-168.8 Z-1.619 I0.913 J0
X-216.777 Y-168.8 Z-1.706 I-0.913 J0
X-214.952 Y-168.8 Z-1.794 I0.913 J0
X-216.777 Y-168.8 Z-1.881 I-0.913 J0
X-214.952 Y-168.8 Z-1.968 I0.913 J0
X-216.777 Y-168.8 Z-2.056 I-0.913 J0
X-214.952 Y-168.8 Z-2.143 I0.913 J0
X-216.777 Y-168.8 Z-2.23 I-0.913 J0
X-214.952 Y-168.8 Z-2.317 I0.913 J0
X-216.777 Y-168.8 Z-2.405 I-0.913 J0
X-214.952 Y-168.8 Z-2.492 I0.913 J0
X-216.777 Y-168.8 Z-2.579 I-0.913 J0
X-214.952 Y-168.8 Z-2.667 I0.913 J0
X-216.777 Y-168.8 Z-2.754 I-0.913 J0
X-214.952 Y-168.8 Z-2.841 I0.913 J0
X-216.777 Y-168.8 Z-2.929 I-0.913 J0
X-214.952 Y-168.8 Z-3.016 I0.913 J0
X-216.777 Y-168.8 Z-3.103 I-0.913 J0
X-214.952 Y-168.8 Z-3.19 I0.913 J0
X-216.777 Y-168.8 Z-3.278 I-0.913 J0
X-214.952 Y-168.8 Z-3.365 I0.913 J0
X-216.777 Y-168.8 Z-3.452 I-0.913 J0
X-214.952 Y-168.8 Z-3.54 I0.913 J0
X-216.777 Y-168.8 Z-3.627 I-0.913 J0
X-214.952 Y-168.8 Z-3.714 I0.913 J0
X-216.777 Y-168.8 Z-3.802 I-0.913 J0
X-214.952 Y-168.8 Z-3.889 I0.913 J0
X-216.777 Y-168.8 Z-3.976 I-0.913 J0
X-214.952 Y-168.8 Z-4.064 I0.913 J0
X-216.777 Y-168.8 Z-4.151 I-0.913 J0
X-214.952 Y-168.8 Z-4.238 I0.913 J0
X-216.421 Y-168.077 Z-4.3 I-0.913 J0
X-215.307 Y-169.523 I0.557 J-0.723
X-216.421 Y-168.077 I-0.557 J0.723
X-216.479 Y-168.522 I0.194 J-0.252
G1 X-216.382 Y-168.648
X-216.339 Y-168.704 Z-4.292
X-216.298 Y-168.757 Z-4.269
X-216.261 Y-168.805 Z-4.231
X-216.23 Y-168.845 Z-4.18
X-216.207 Y-168.875 Z-4.12
X-216.193 Y-168.893 Z-4.053
X-216.188 Y-168.9 Z-3.983
Z5
X-200.829 Y-157.365
Z2.682
Z1
X-200.671
X-200.639 Y-157.359
X-200.613 Y-157.341
X-200.596 Y-157.315
X-200.589 Y-157.284
G3 X-200.914 Y-157.284 Z0.939 I-0.163 J0
X-200.589 Y-157.284 Z0.878 I0.163 J0
X-200.914 Y-157.284 Z0.817 I-0.163 J0
X-200.589 Y-157.284 Z0.756 I0.163 J0
X-200.914 Y-157.284 Z0.694 I-0.163 J0
X-200.589 Y-157.284 Z0.633 I0.163 J0
X-200.914 Y-157.284 Z0.572 I-0.163 J0
X-200.589 Y-157.284 Z0.511 I0.163 J0
X-200.914 Y-157.284 Z0.45 I-0.163 J0
X-200.589 Y-157.284 Z0.389 I0.163 J0
X-200.914 Y-157.284 Z0.328 I-0.163 J0
X-200.589 Y-157.284 Z0.267 I0.163 J0
X-200.914 Y-157.284 Z0.206 I-0.163 J0
X-200.589 Y-157.284 Z0.144 I0.163 J0
X-200.914 Y-157.284 Z0.083 I-0.163 J0
X-200.589 Y-157.284 Z0.022 I0.163 J0
X-200.914 Y-157.284 Z-0.039 I-0.163 J0
X-200.589 Y-157.284 Z-0.1 I0.163 J0
X-200.914 Y-157.284 Z-0.161 I-0.163 J0
X-200.589 Y-157.284 Z-0.222 I0.163 J0
X-200.914 Y-157.284 Z-0.283 I-0.163 J0
X-200.589 Y-157.284 Z-0.344 I0.163 J0
X-200.914 Y-157.284 Z-0.406 I-0.163 J0
X-200.589 Y-157.284 Z-0.467 I0.163 J0
X-200.914 Y-157.284 Z-0.528 I-0.163 J0
X-200.589 Y-157.284 Z-0.589 I0.163 J0
X-200.914 Y-157.284 Z-0.65 I-0.163 J0
X-200.589 Y-157.284 Z-0.711 I0.163 J0
X-200.914 Y-157.284 Z-0.772 I-0.163 J0
X-200.589 Y-157.284 Z-0.833 I0.163 J0
X-200.914 Y-157.284 Z-0.894 I-0.163 J0
X-200.589 Y-157.284 Z-0.956 I0.163 J0
X-200.914 Y-157.284 Z-1.017 I-0.163 J0
X-200.589 Y-157.284 Z-1.078 I0.163 J0
X-200.914 Y-157.284 Z-1.139 I-0.163 J0
X-200.589 Y-157.284 Z-1.2 I0.163 J0
X-200.914 Y-157.284 Z-1.261 I-0.163 J0
X-200.589 Y-157.284 Z-1.322 I0.163 J0
X-200.914 Y-157.284 Z-1.383 I-0.163 J0
X-200.589 Y-157.284 Z-1.444 I0.163 J0
X-200.914 Y-157.284 Z-1.506 I-0.163 J0
X-200.589 Y-157.284 Z-1.567 I0.163 J0
X-200.914 Y-157.284 Z-1.628 I-0.163 J0
X-200.589 Y-157.284 Z-1.689 I0.163 J0
X-200.914 Y-157.284 Z-1.75 I-0.163 J0
X-200.589 Y-157.284 Z-1.811 I0.163 J0
X-200.914 Y-157.284 Z-1.872 I-0.163 J0
X-200.589 Y-157.284 Z-1.933 I0.163 J0
X-200.914 Y-157.284 Z-1.994 I-0.163 J0
X-200.589 Y-157.284 Z-2.056 I0.163 J0
X-200.914 Y-157.284 Z-2.117 I-0.163 J0
X-200.589 Y-157.284 Z-2.178 I0.163 J0
X-200.914 Y-157.284 Z-2.239 I-0.163 J0
X-200.589 Y-157.284 Z-2.3 I0.163 J0
X-200.914 Y-157.284 Z-2.361 I-0.163 J0
X-200.589 Y-157.284 Z-2.422 I0.163 J0
X-200.914 Y-157.284 Z-2.483 I-0.163 J0
X-200.589 Y-157.284 Z-2.544 I0.163 J0
X-200.914 Y-157.284 Z-2.606 I-0.163 J0
X-200.589 Y-157.284 Z-2.667 I0.163 J0
X-200.914 Y-157.284 Z-2.728 I-0.163 J0
X-200.589 Y-157.284 Z-2.789 I0.162 J0
X-200.914 Y-157.284 Z-2.85 I-0.162 J0
X-200.589 Y-157.284 Z-2.911 I0.162 J0
X-200.914 Y-157.284 Z-2.972 I-0.162 J0
X-200.589 Y-157.284 Z-3.033 I0.162 J0
X-200.914 Y-157.284 Z-3.094 I-0.162 J0
X-200.589 Y-157.284 Z-3.156 I0.162 J0
X-200.914 Y-157.284 Z-3.217 I-0.162 J0
X-200.589 Y-157.284 Z-3.278 I0.162 J0
X-200.914 Y-157.284 Z-3.339 I-0.162 J0
X-200.589 Y-157.284 Z-3.4 I0.162 J0
X-200.914 Y-157.284 Z-3.461 I-0.162 J0
X-200.589 Y-157.284 Z-3.522 I0.162 J0
X-200.914 Y-157.284 Z-3.583 I-0.162 J0
X-200.589 Y-157.284 Z-3.644 I0.162 J0
X-200.914 Y-157.284 Z-3.706 I-0.162 J0
X-200.589 Y-157.284 Z-3.767 I0.162 J0
X-200.914 Y-157.284 Z-3.828 I-0.162 J0
X-200.589 Y-157.284 Z-3.889 I0.162 J0
X-200.914 Y-157.284 Z-3.95 I-0.162 J0
X-200.589 Y-157.284 Z-4.011 I0.162 J0
X-200.914 Y-157.284 Z-4.072 I-0.162 J0
X-200.589 Y-157.284 Z-4.133 I0.162 J0
X-200.914 Y-157.284 Z-4.194 I-0.162 J0
X-200.589 Y-157.284 Z-4.256 I0.162 J0
X-200.858 Y-157.161 Z-4.3 I-0.162 J0
X-200.646 Y-157.407 I0.106 J-0.123
X-200.858 Y-157.161 I-0.106 J0.123
G1 X-200.878 Y-157.186
X-200.886 Y-157.217
X-200.882 Y-157.248
X-200.866 Y-157.276
X-200.763 Y-157.396
Z5
X-182.227 Y-215.681
Z2.682
Z1
X-182.068
X-182.037 Y-215.675
X-182.011 Y-215.657
X-181.993 Y-215.631
X-181.987 Y-215.6
G3 X-182.312 Y-215.6 Z0.939 I-0.163 J0
X-181.987 Y-215.6 Z0.878 I0.163 J0
X-182.312 Y-215.6 Z0.817 I-0.163 J0
X-181.987 Y-215.6 Z0.756 I0.163 J0
X-182.312 Y-215.6 Z0.694 I-0.163 J0
X-181.987 Y-215.6 Z0.633 I0.163 J0
X-182.312 Y-215.6 Z0.572 I-0.163 J0
X-181.987 Y-215.6 Z0.511 I0.163 J0
X-182.312 Y-215.6 Z0.45 I-0.163 J0
X-181.987 Y-215.6 Z0.389 I0.163 J0
X-182.312 Y-215.6 Z0.328 I-0.163 J0
X-181.987 Y-215.6 Z0.267 I0.163 J0
X-182.312 Y-215.6 Z0.206 I-0.163 J0
X-181.987 Y-215.6 Z0.144 I0.163 J0
X-182.312 Y-215.6 Z0.083 I-0.163 J0
X-181.987 Y-215.6 Z0.022 I0.163 J0
X-182.312 Y-215.6 Z-0.039 I-0.163 J0
X-181.987 Y-215.6 Z-0.1 I0.163 J0
X-182.312 Y-215.6 Z-0.161 I-0.163 J0
X-181.987 Y-215.6 Z-0.222 I0.163 J0
X-182.312 Y-215.6 Z-0.283 I-0.163 J0
X-181.987 Y-215.6 Z-0.344 I0.163 J0
X-182.312 Y-215.6 Z-0.406 I-0.163 J0
X-181.987 Y-215.6 Z-0.467 I0.163 J0
X-182.312 Y-215.6 Z-0.528 I-0.163 J0
X-181.987 Y-215.6 Z-0.589 I0.163 J0
X-182.312 Y-215.6 Z-0.65 I-0.163 J0
X-181.987 Y-215.6 Z-0.711 I0.163 J0
X-182.312 Y-215.6 Z-0.772 I-0.163 J0
X-181.987 Y-215.6 Z-0.833 I0.163 J0
X-182.312 Y-215.6 Z-0.894 I-0.163 J0
X-181.987 Y-215.6 Z-0.956 I0.163 J0
X-182.312 Y-215.6 Z-1.017 I-0.163 J0
X-181.987 Y-215.6 Z-1.078 I0.163 J0
X-182.312 Y-215.6 Z-1.139 I-0.163 J0
X-181.987 Y-215.6 Z-1.2 I0.163 J0
X-182.312 Y-215.6 Z-1.261 I-0.163 J0
X-181.987 Y-215.6 Z-1.322 I0.163 J0
X-182.312 Y-215.6 Z-1.383 I-0.163 J0
X-181.987 Y-215.6 Z-1.444 I0.163 J0
X-182.312 Y-215.6 Z-1.506 I-0.163 J0
X-181.987 Y-215.6 Z-1.567 I0.163 J0
X-182.312 Y-215.6 Z-1.628 I-0.163 J0
X-181.987 Y-215.6 Z-1.689 I0.163 J0
X-182.312 Y-215.6 Z-1.75 I-0.163 J0
X-181.987 Y-215.6 Z-1.811 I0.163 J0
X-182.312 Y-215.6 Z-1.872 I-0.163 J0
X-181.987 Y-215.6 Z-1.933 I0.163 J0
X-182.312 Y-215.6 Z-1.994 I-0.163 J0
X-181.987 Y-215.6 Z-2.056 I0.163 J0
X-182.312 Y-215.6 Z-2.117 I-0.163 J0
X-181.987 Y-215.6 Z-2.178 I0.163 J0
X-182.312 Y-215.6 Z-2.239 I-0.163 J0
X-181.987 Y-215.6 Z-2.3 I0.163 J0
X-182.312 Y-215.6 Z-2.361 I-0.163 J0
X-181.987 Y-215.6 Z-2.422 I0.163 J0
X-182.312 Y-215.6 Z-2.483 I-0.163 J0
X-181.987 Y-215.6 Z-2.544 I0.163 J0
X-182.312 Y-215.6 Z-2.606 I-0.163 J0
X-181.987 Y-215.6 Z-2.667 I0.163 J0
X-182.312 Y-215.6 Z-2.728 I-0.163 J0
X-181.987 Y-215.6 Z-2.789 I0.162 J0
X-182.312 Y-215.6 Z-2.85 I-0.162 J0
X-181.987 Y-215.6 Z-2.911 I0.162 J0
X-182.312 Y-215.6 Z-2.972 I-0.162 J0
X-181.987 Y-215.6 Z-3.033 I0.162 J0
X-182.312 Y-215.6 Z-3.094 I-0.162 J0
X-181.987 Y-215.6 Z-3.156 I0.162 J0
X-182.312 Y-215.6 Z-3.217 I-0.162 J0
X-181.987 Y-215.6 Z-3.278 I0.162 J0
X-182.312 Y-215.6 Z-3.339 I-0.162 J0
X-181.987 Y-215.6 Z-3.4 I0.162 J0
X-182.312 Y-215.6 Z-3.461 I-0.162 J0
X-181.987 Y-215.6 Z-3.522 I0.162 J0
X-182.312 Y-215.6 Z-3.583 I-0.162 J0
X-181.987 Y-215.6 Z-3.644 I0.162 J0
X-182.312 Y-215.6 Z-3.706 I-0.162 J0
X-181.987 Y-215.6 Z-3.767 I0.162 J0
X-182.312 Y-215.6 Z-3.828 I-0.162 J0
X-181.987 Y-215.6 Z-3.889 I0.162 J0
X-182.312 Y-215.6 Z-3.95 I-0.162 J0
X-181.987 Y-215.6 Z-4.011 I0.162 J0
X-182.312 Y-215.6 Z-4.072 I-0.162 J0
X-181.987 Y-215.6 Z-4.133 I0.162 J0
X-182.312 Y-215.6 Z-4.194 I-0.162 J0
X-181.987 Y-215.6 Z-4.256 I0.162 J0
X-182.256 Y-215.477 Z-4.3 I-0.162 J0
X-182.043 Y-215.723 I0.106 J-0.123
X-182.256 Y-215.477 I-0.106 J0.123
G1 X-182.275 Y-215.502
X-182.284 Y-215.533
X-182.28 Y-215.564
X-182.264 Y-215.592
X-182.16 Y-215.712
Z5
X-156.987 Y-214.519
Z2.682
Z1
X-157.145
X-157.176 Y-214.525
X-157.203 Y-214.543
X-157.22 Y-214.569
X-157.227 Y-214.6
G3 X-156.902 Y-214.6 Z0.939 I0.163 J0
X-157.227 Y-214.6 Z0.878 I-0.163 J0
X-156.902 Y-214.6 Z0.817 I0.163 J0
X-157.227 Y-214.6 Z0.756 I-0.163 J0
X-156.902 Y-214.6 Z0.694 I0.163 J0
X-157.227 Y-214.6 Z0.633 I-0.163 J0
X-156.902 Y-214.6 Z0.572 I0.163 J0
X-157.227 Y-214.6 Z0.511 I-0.163 J0
X-156.902 Y-214.6 Z0.45 I0.163 J0
X-157.227 Y-214.6 Z0.389 I-0.163 J0
X-156.902 Y-214.6 Z0.328 I0.163 J0
X-157.227 Y-214.6 Z0.267 I-0.163 J0
X-156.902 Y-214.6 Z0.206 I0.163 J0
X-157.227 Y-214.6 Z0.144 I-0.163 J0
X-156.902 Y-214.6 Z0.083 I0.163 J0
X-157.227 Y-214.6 Z0.022 I-0.163 J0
X-156.902 Y-214.6 Z-0.039 I0.163 J0
X-157.227 Y-214.6 Z-0.1 I-0.163 J0
X-156.902 Y-214.6 Z-0.161 I0.163 J0
X-157.227 Y-214.6 Z-0.222 I-0.163 J0
X-156.902 Y-214.6 Z-0.283 I0.163 J0
X-157.227 Y-214.6 Z-0.344 I-0.163 J0
X-156.902 Y-214.6 Z-0.406 I0.163 J0
X-157.227 Y-214.6 Z-0.467 I-0.163 J0
X-156.902 Y-214.6 Z-0.528 I0.163 J0
X-157.227 Y-214.6 Z-0.589 I-0.163 J0
X-156.902 Y-214.6 Z-0.65 I0.163 J0
X-157.227 Y-214.6 Z-0.711 I-0.163 J0
X-156.902 Y-214.6 Z-0.772 I0.163 J0
X-157.227 Y-214.6 Z-0.833 I-0.163 J0
X-156.902 Y-214.6 Z-0.894 I0.163 J0
X-157.227 Y-214.6 Z-0.956 I-0.163 J0
X-156.902 Y-214.6 Z-1.017 I0.163 J0
X-157.227 Y-214.6 Z-1.078 I-0.163 J0
X-156.902 Y-214.6 Z-1.139 I0.163 J0
X-157.227 Y-214.6 Z-1.2 I-0.163 J0
X-156.902 Y-214.6 Z-1.261 I0.163 J0
X-157.227 Y-214.6 Z-1.322 I-0.163 J0
X-156.902 Y-214.6 Z-1.383 I0.163 J0
X-157.227 Y-214.6 Z-1.444 I-0.163 J0
X-156.902 Y-214.6 Z-1.506 I0.163 J0
X-157.227 Y-214.6 Z-1.567 I-0.163 J0
X-156.902 Y-214.6 Z-1.628 I0.163 J0
X-157.227 Y-214.6 Z-1.689 I-0.163 J0
X-156.902 Y-214.6 Z-1.75 I0.163 J0
X-157.227 Y-214.6 Z-1.811 I-0.163 J0
X-156.902 Y-214.6 Z-1.872 I0.163 J0
X-157.227 Y-214.6 Z-1.933 I-0.163 J0
X-156.902 Y-214.6 Z-1.994 I0.163 J0
X-157.227 Y-214.6 Z-2.056 I-0.163 J0
X-156.902 Y-214.6 Z-2.117 I0.163 J0
X-157.227 Y-214.6 Z-2.178 I-0.163 J0
X-156.902 Y-214.6 Z-2.239 I0.162 J0
X-157.227 Y-214.6 Z-2.3 I-0.162 J0
X-156.902 Y-214.6 Z-2.361 I0.162 J0
X-157.227 Y-214.6 Z-2.422 I-0.162 J0
X-156.902 Y-214.6 Z-2.483 I0.162 J0
X-157.227 Y-214.6 Z-2.544 I-0.162 J0
X-156.902 Y-214.6 Z-2.606 I0.162 J0
X-157.227 Y-214.6 Z-2.667 I-0.162 J0
X-156.902 Y-214.6 Z-2.728 I0.162 J0
X-157.227 Y-214.6 Z-2.789 I-0.162 J0
X-156.902 Y-214.6 Z-2.85 I0.162 J0
X-157.227 Y-214.6 Z-2.911 I-0.162 J0
X-156.902 Y-214.6 Z-2.972 I0.162 J0
X-157.227 Y-214.6 Z-3.033 I-0.162 J0
X-156.902 Y-214.6 Z-3.094 I0.162 J0
X-157.227 Y-214.6 Z-3.156 I-0.162 J0
X-156.902 Y-214.6 Z-3.217 I0.162 J0
X-157.227 Y-214.6 Z-3.278 I-0.162 J0
X-156.902 Y-214.6 Z-3.339 I0.162 J0
X-157.227 Y-214.6 Z-3.4 I-0.162 J0
X-156.902 Y-214.6 Z-3.461 I0.162 J0
X-157.227 Y-214.6 Z-3.522 I-0.162 J0
X-156.902 Y-214.6 Z-3.583 I0.162 J0
X-157.227 Y-214.6 Z-3.644 I-0.162 J0
X-156.902 Y-214.6 Z-3.706 I0.162 J0
X-157.227 Y-214.6 Z-3.767 I-0.162 J0
X-156.902 Y-214.6 Z-3.828 I0.162 J0
X-157.227 Y-214.6 Z-3.889 I-0.162 J0
X-156.902 Y-214.6 Z-3.95 I0.162 J0
X-157.227 Y-214.6 Z-4.011 I-0.162 J0
X-156.902 Y-214.6 Z-4.072 I0.162 J0
X-157.227 Y-214.6 Z-4.133 I-0.162 J0
X-156.902 Y-214.6 Z-4.194 I0.162 J0
X-157.227 Y-214.6 Z-4.256 I-0.162 J0
X-156.958 Y-214.723 Z-4.3 I0.162 J0
X-157.17 Y-214.477 I-0.106 J0.123
X-156.958 Y-214.723 I0.106 J-0.123
G1 X-156.938 Y-214.698
X-156.93 Y-214.667
X-156.934 Y-214.636
X-156.949 Y-214.608
X-157.053 Y-214.488
Z5
X-125.142 Y-214.681
Z2.682
Z1
X-124.983
X-124.952 Y-214.675
X-124.925 Y-214.657
X-124.908 Y-214.631
X-124.902 Y-214.6
G3 X-125.227 Y-214.6 Z0.939 I-0.162 J0
X-124.902 Y-214.6 Z0.878 I0.162 J0
X-125.227 Y-214.6 Z0.817 I-0.162 J0
X-124.902 Y-214.6 Z0.756 I0.162 J0
X-125.227 Y-214.6 Z0.694 I-0.162 J0
X-124.902 Y-214.6 Z0.633 I0.162 J0
X-125.227 Y-214.6 Z0.572 I-0.162 J0
X-124.902 Y-214.6 Z0.511 I0.162 J0
X-125.227 Y-214.6 Z0.45 I-0.162 J0
X-124.902 Y-214.6 Z0.389 I0.162 J0
X-125.227 Y-214.6 Z0.328 I-0.162 J0
X-124.902 Y-214.6 Z0.267 I0.162 J0
X-125.227 Y-214.6 Z0.206 I-0.162 J0
X-124.902 Y-214.6 Z0.144 I0.162 J0
X-125.227 Y-214.6 Z0.083 I-0.162 J0
X-124.902 Y-214.6 Z0.022 I0.162 J0
X-125.227 Y-214.6 Z-0.039 I-0.162 J0
X-124.902 Y-214.6 Z-0.1 I0.162 J0
X-125.227 Y-214.6 Z-0.161 I-0.162 J0
X-124.902 Y-214.6 Z-0.222 I0.162 J0
X-125.227 Y-214.6 Z-0.283 I-0.162 J0
X-124.902 Y-214.6 Z-0.344 I0.162 J0
X-125.227 Y-214.6 Z-0.406 I-0.162 J0
X-124.902 Y-214.6 Z-0.467 I0.162 J0
X-125.227 Y-214.6 Z-0.528 I-0.162 J0
X-124.902 Y-214.6 Z-0.589 I0.162 J0
X-125.227 Y-214.6 Z-0.65 I-0.162 J0
X-124.902 Y-214.6 Z-0.711 I0.162 J0
X-125.227 Y-214.6 Z-0.772 I-0.162 J0
X-124.902 Y-214.6 Z-0.833 I0.162 J0
X-125.227 Y-214.6 Z-0.894 I-0.162 J0
X-124.902 Y-214.6 Z-0.956 I0.162 J0
X-125.227 Y-214.6 Z-1.017 I-0.162 J0
X-124.902 Y-214.6 Z-1.078 I0.162 J0
X-125.227 Y-214.6 Z-1.139 I-0.163 J0
X-124.902 Y-214.6 Z-1.2 I0.163 J0
X-125.227 Y-214.6 Z-1.261 I-0.163 J0
X-124.902 Y-214.6 Z-1.322 I0.163 J0
X-125.227 Y-214.6 Z-1.383 I-0.163 J0
X-124.902 Y-214.6 Z-1.444 I0.163 J0
X-125.227 Y-214.6 Z-1.506 I-0.163 J0
X-124.902 Y-214.6 Z-1.567 I0.163 J0
X-125.227 Y-214.6 Z-1.628 I-0.163 J0
X-124.902 Y-214.6 Z-1.689 I0.163 J0
X-125.227 Y-214.6 Z-1.75 I-0.163 J0
X-124.902 Y-214.6 Z-1.811 I0.163 J0
X-125.227 Y-214.6 Z-1.872 I-0.163 J0
X-124.902 Y-214.6 Z-1.933 I0.163 J0
X-125.227 Y-214.6 Z-1.994 I-0.163 J0
X-124.902 Y-214.6 Z-2.056 I0.163 J0
X-125.227 Y-214.6 Z-2.117 I-0.163 J0
X-124.902 Y-214.6 Z-2.178 I0.163 J0
X-125.227 Y-214.6 Z-2.239 I-0.163 J0
X-124.902 Y-214.6 Z-2.3 I0.163 J0
X-125.227 Y-214.6 Z-2.361 I-0.163 J0
X-124.902 Y-214.6 Z-2.422 I0.163 J0
X-125.227 Y-214.6 Z-2.483 I-0.163 J0
X-124.902 Y-214.6 Z-2.544 I0.163 J0
X-125.227 Y-214.6 Z-2.606 I-0.163 J0
X-124.902 Y-214.6 Z-2.667 I0.163 J0
X-125.227 Y-214.6 Z-2.728 I-0.163 J0
X-124.902 Y-214.6 Z-2.789 I0.163 J0
X-125.227 Y-214.6 Z-2.85 I-0.163 J0
X-124.902 Y-214.6 Z-2.911 I0.163 J0
X-125.227 Y-214.6 Z-2.972 I-0.163 J0
X-124.902 Y-214.6 Z-3.033 I0.163 J0
X-125.227 Y-214.6 Z-3.094 I-0.163 J0
X-124.902 Y-214.6 Z-3.156 I0.163 J0
X-125.227 Y-214.6 Z-3.217 I-0.163 J0
X-124.902 Y-214.6 Z-3.278 I0.163 J0
X-125.227 Y-214.6 Z-3.339 I-0.163 J0
X-124.902 Y-214.6 Z-3.4 I0.163 J0
X-125.227 Y-214.6 Z-3.461 I-0.163 J0
X-124.902 Y-214.6 Z-3.522 I0.163 J0
X-125.227 Y-214.6 Z-3.583 I-0.163 J0
X-124.902 Y-214.6 Z-3.644 I0.163 J0
X-125.227 Y-214.6 Z-3.706 I-0.163 J0
X-124.902 Y-214.6 Z-3.767 I0.163 J0
X-125.227 Y-214.6 Z-3.828 I-0.163 J0
X-124.902 Y-214.6 Z-3.889 I0.163 J0
X-125.227 Y-214.6 Z-3.95 I-0.163 J0
X-124.902 Y-214.6 Z-4.011 I0.163 J0
X-125.227 Y-214.6 Z-4.072 I-0.163 J0
X-124.902 Y-214.6 Z-4.133 I0.163 J0
X-125.227 Y-214.6 Z-4.194 I-0.163 J0
X-124.902 Y-214.6 Z-4.256 I0.163 J0
X-125.17 Y-214.477 Z-4.3 I-0.163 J0
X-124.958 Y-214.723 I0.106 J-0.123
X-125.17 Y-214.477 I-0.106 J0.123
G1 X-125.19 Y-214.502
X-125.198 Y-214.533
X-125.194 Y-214.564
X-125.179 Y-214.592
X-125.075 Y-214.712
Z5
X-99.901 Y-215.519
Z2.682
Z1
X-100.06
X-100.091 Y-215.525
X-100.117 Y-215.543
X-100.135 Y-215.569
X-100.141 Y-215.6
G3 X-99.816 Y-215.6 Z0.939 I0.162 J0
X-100.141 Y-215.6 Z0.878 I-0.162 J0
X-99.816 Y-215.6 Z0.817 I0.162 J0
X-100.141 Y-215.6 Z0.756 I-0.162 J0
X-99.816 Y-215.6 Z0.694 I0.162 J0
X-100.141 Y-215.6 Z0.633 I-0.162 J0
X-99.816 Y-215.6 Z0.572 I0.162 J0
X-100.141 Y-215.6 Z0.511 I-0.162 J0
X-99.816 Y-215.6 Z0.45 I0.162 J0
X-100.141 Y-215.6 Z0.389 I-0.162 J0
X-99.816 Y-215.6 Z0.328 I0.162 J0
X-100.141 Y-215.6 Z0.267 I-0.162 J0
X-99.816 Y-215.6 Z0.206 I0.162 J0
X-100.141 Y-215.6 Z0.144 I-0.162 J0
X-99.816 Y-215.6 Z0.083 I0.162 J0
X-100.141 Y-215.6 Z0.022 I-0.162 J0
X-99.816 Y-215.6 Z-0.039 I0.162 J0
X-100.141 Y-215.6 Z-0.1 I-0.162 J0
X-99.816 Y-215.6 Z-0.161 I0.162 J0
X-100.141 Y-215.6 Z-0.222 I-0.162 J0
X-99.816 Y-215.6 Z-0.283 I0.162 J0
X-100.141 Y-215.6 Z-0.344 I-0.162 J0
X-99.816 Y-215.6 Z-0.406 I0.162 J0
X-100.141 Y-215.6 Z-0.467 I-0.162 J0
X-99.816 Y-215.6 Z-0.528 I0.162 J0
X-100.141 Y-215.6 Z-0.589 I-0.162 J0
X-99.816 Y-215.6 Z-0.65 I0.162 J0
X-100.141 Y-215.6 Z-0.711 I-0.162 J0
X-99.816 Y-215.6 Z-0.772 I0.162 J0
X-100.141 Y-215.6 Z-0.833 I-0.162 J0
X-99.816 Y-215.6 Z-0.894 I0.162 J0
X-100.141 Y-215.6 Z-0.956 I-0.162 J0
X-99.816 Y-215.6 Z-1.017 I0.162 J0
X-100.141 Y-215.6 Z-1.078 I-0.162 J0
X-99.816 Y-215.6 Z-1.139 I0.162 J0
X-100.141 Y-215.6 Z-1.2 I-0.162 J0
X-99.816 Y-215.6 Z-1.261 I0.162 J0
X-100.141 Y-215.6 Z-1.322 I-0.162 J0
X-99.816 Y-215.6 Z-1.383 I0.162 J0
X-100.141 Y-215.6 Z-1.444 I-0.162 J0
X-99.816 Y-215.6 Z-1.506 I0.162 J0
X-100.141 Y-215.6 Z-1.567 I-0.162 J0
X-99.816 Y-215.6 Z-1.628 I0.162 J0
X-100.141 Y-215.6 Z-1.689 I-0.162 J0
X-99.816 Y-215.6 Z-1.75 I0.162 J0
X-100.141 Y-215.6 Z-1.811 I-0.162 J0
X-99.816 Y-215.6 Z-1.872 I0.162 J0
X-100.141 Y-215.6 Z-1.933 I-0.162 J0
X-99.816 Y-215.6 Z-1.994 I0.162 J0
X-100.141 Y-215.6 Z-2.056 I-0.162 J0
X-99.816 Y-215.6 Z-2.117 I0.162 J0
X-100.141 Y-215.6 Z-2.178 I-0.162 J0
X-99.816 Y-215.6 Z-2.239 I0.162 J0
X-100.141 Y-215.6 Z-2.3 I-0.162 J0
X-99.816 Y-215.6 Z-2.361 I0.162 J0
X-100.141 Y-215.6 Z-2.422 I-0.162 J0
X-99.816 Y-215.6 Z-2.483 I0.162 J0
X-100.141 Y-215.6 Z-2.544 I-0.162 J0
X-99.816 Y-215.6 Z-2.606 I0.162 J0
X-100.141 Y-215.6 Z-2.667 I-0.162 J0
X-99.816 Y-215.6 Z-2.728 I0.162 J0
X-100.141 Y-215.6 Z-2.789 I-0.162 J0
X-99.816 Y-215.6 Z-2.85 I0.162 J0
X-100.141 Y-215.6 Z-2.911 I-0.162 J0
X-99.816 Y-215.6 Z-2.972 I0.162 J0
X-100.141 Y-215.6 Z-3.033 I-0.162 J0
X-99.816 Y-215.6 Z-3.094 I0.162 J0
X-100.141 Y-215.6 Z-3.156 I-0.162 J0
X-99.816 Y-215.6 Z-3.217 I0.162 J0
X-100.141 Y-215.6 Z-3.278 I-0.162 J0
X-99.816 Y-215.6 Z-3.339 I0.162 J0
X-100.141 Y-215.6 Z-3.4 I-0.162 J0
X-99.816 Y-215.6 Z-3.461 I0.162 J0
X-100.141 Y-215.6 Z-3.522 I-0.162 J0
X-99.816 Y-215.6 Z-3.583 I0.162 J0
X-100.141 Y-215.6 Z-3.644 I-0.162 J0
X-99.816 Y-215.6 Z-3.706 I0.162 J0
X-100.141 Y-215.6 Z-3.767 I-0.162 J0
X-99.816 Y-215.6 Z-3.828 I0.162 J0
X-100.141 Y-215.6 Z-3.889 I-0.162 J0
X-99.816 Y-215.6 Z-3.95 I0.162 J0
X-100.141 Y-215.6 Z-4.011 I-0.162 J0
X-99.816 Y-215.6 Z-4.072 I0.162 J0
X-100.141 Y-215.6 Z-4.133 I-0.162 J0
X-99.816 Y-215.6 Z-4.194 I0.162 J0
X-100.141 Y-215.6 Z-4.256 I-0.162 J0
X-99.872 Y-215.723 Z-4.3 I0.162 J0
X-100.085 Y-215.477 I-0.106 J0.123
X-99.872 Y-215.723 I0.106 J-0.123
G1 X-99.853 Y-215.698
X-99.844 Y-215.667
X-99.848 Y-215.636
X-99.864 Y-215.608
X-99.968 Y-215.488
Z5
X-7.923 Y-168.719
Z2.682
Z1
X-8.081
X-8.112 Y-168.725
X-8.139 Y-168.743
X-8.156 Y-168.769
X-8.163 Y-168.8
G3 X-7.837 Y-168.8 Z0.939 I0.163 J0
X-8.163 Y-168.8 Z0.878 I-0.163 J0
X-7.837 Y-168.8 Z0.817 I0.163 J0
X-8.163 Y-168.8 Z0.756 I-0.163 J0
X-7.837 Y-168.8 Z0.694 I0.163 J0
X-8.163 Y-168.8 Z0.633 I-0.163 J0
X-7.837 Y-168.8 Z0.572 I0.163 J0
X-8.163 Y-168.8 Z0.511 I-0.163 J0
X-7.837 Y-168.8 Z0.45 I0.163 J0
X-8.163 Y-168.8 Z0.389 I-0.163 J0
X-7.837 Y-168.8 Z0.328 I0.163 J0
X-8.163 Y-168.8 Z0.267 I-0.163 J0
X-7.837 Y-168.8 Z0.206 I0.163 J0
X-8.163 Y-168.8 Z0.144 I-0.163 J0
X-7.837 Y-168.8 Z0.083 I0.163 J0
X-8.163 Y-168.8 Z0.022 I-0.163 J0
X-7.837 Y-168.8 Z-0.039 I0.163 J0
X-8.163 Y-168.8 Z-0.1 I-0.163 J0
X-7.837 Y-168.8 Z-0.161 I0.163 J0
X-8.163 Y-168.8 Z-0.222 I-0.163 J0
X-7.837 Y-168.8 Z-0.283 I0.163 J0
X-8.163 Y-168.8 Z-0.344 I-0.163 J0
X-7.837 Y-168.8 Z-0.406 I0.163 J0
X-8.163 Y-168.8 Z-0.467 I-0.163 J0
X-7.837 Y-168.8 Z-0.528 I0.163 J0
X-8.163 Y-168.8 Z-0.589 I-0.163 J0
X-7.837 Y-168.8 Z-0.65 I0.163 J0
X-8.163 Y-168.8 Z-0.711 I-0.163 J0
X-7.837 Y-168.8 Z-0.772 I0.163 J0
X-8.163 Y-168.8 Z-0.833 I-0.163 J0
X-7.837 Y-168.8 Z-0.894 I0.163 J0
X-8.163 Y-168.8 Z-0.956 I-0.163 J0
X-7.837 Y-168.8 Z-1.017 I0.163 J0
X-8.163 Y-168.8 Z-1.078 I-0.163 J0
X-7.837 Y-168.8 Z-1.139 I0.163 J0
X-8.163 Y-168.8 Z-1.2 I-0.163 J0
X-7.837 Y-168.8 Z-1.261 I0.163 J0
X-8.163 Y-168.8 Z-1.322 I-0.163 J0
X-7.837 Y-168.8 Z-1.383 I0.163 J0
X-8.163 Y-168.8 Z-1.444 I-0.163 J0
X-7.837 Y-168.8 Z-1.506 I0.163 J0
X-8.163 Y-168.8 Z-1.567 I-0.163 J0
X-7.837 Y-168.8 Z-1.628 I0.163 J0
X-8.163 Y-168.8 Z-1.689 I-0.163 J0
X-7.837 Y-168.8 Z-1.75 I0.163 J0
X-8.163 Y-168.8 Z-1.811 I-0.163 J0
X-7.837 Y-168.8 Z-1.872 I0.163 J0
X-8.163 Y-168.8 Z-1.933 I-0.163 J0
X-7.837 Y-168.8 Z-1.994 I0.163 J0
X-8.163 Y-168.8 Z-2.056 I-0.163 J0
X-7.837 Y-168.8 Z-2.117 I0.163 J0
X-8.163 Y-168.8 Z-2.178 I-0.163 J0
X-7.837 Y-168.8 Z-2.239 I0.163 J0
X-8.163 Y-168.8 Z-2.3 I-0.163 J0
X-7.837 Y-168.8 Z-2.361 I0.163 J0
X-8.163 Y-168.8 Z-2.422 I-0.163 J0
X-7.837 Y-168.8 Z-2.483 I0.163 J0
X-8.163 Y-168.8 Z-2.544 I-0.163 J0
X-7.837 Y-168.8 Z-2.606 I0.163 J0
X-8.163 Y-168.8 Z-2.667 I-0.163 J0
X-7.837 Y-168.8 Z-2.728 I0.163 J0
X-8.163 Y-168.8 Z-2.789 I-0.163 J0
X-7.837 Y-168.8 Z-2.85 I0.163 J0
X-8.163 Y-168.8 Z-2.911 I-0.163 J0
X-7.837 Y-168.8 Z-2.972 I0.163 J0
X-8.163 Y-168.8 Z-3.033 I-0.163 J0
X-7.837 Y-168.8 Z-3.094 I0.163 J0
X-8.163 Y-168.8 Z-3.156 I-0.163 J0
X-7.837 Y-168.8 Z-3.217 I0.163 J0
X-8.163 Y-168.8 Z-3.278 I-0.163 J0
X-7.837 Y-168.8 Z-3.339 I0.163 J0
X-8.163 Y-168.8 Z-3.4 I-0.163 J0
X-7.837 Y-168.8 Z-3.461 I0.163 J0
X-8.163 Y-168.8 Z-3.522 I-0.163 J0
X-7.837 Y-168.8 Z-3.583 I0.163 J0
X-8.163 Y-168.8 Z-3.644 I-0.163 J0
X-7.837 Y-168.8 Z-3.706 I0.163 J0
X-8.163 Y-168.8 Z-3.767 I-0.163 J0
X-7.837 Y-168.8 Z-3.828 I0.163 J0
X-8.163 Y-168.8 Z-3.889 I-0.163 J0
X-7.837 Y-168.8 Z-3.95 I0.163 J0
X-8.163 Y-168.8 Z-4.011 I-0.163 J0
X-7.837 Y-168.8 Z-4.072 I0.163 J0
X-8.163 Y-168.8 Z-4.133 I-0.163 J0
X-7.837 Y-168.8 Z-4.194 I0.163 J0
X-8.163 Y-168.8 Z-4.256 I-0.163 J0
X-7.894 Y-168.923 Z-4.3 I0.163 J0
X-8.106 Y-168.677 I-0.106 J0.123
X-7.894 Y-168.923 I0.106 J-0.123
G1 X-7.874 Y-168.898
X-7.866 Y-168.867
X-7.87 Y-168.836
X-7.885 Y-168.808
X-7.989 Y-168.688
Z5
X-51.074 Y-180.235
Z2.682
Z1
X-51.233
X-51.264 Y-180.241
X-51.291 Y-180.259
X-51.308 Y-180.285
X-51.314 Y-180.316
G3 X-50.989 Y-180.316 Z0.939 I0.163 J0
X-51.314 Y-180.316 Z0.878 I-0.163 J0
X-50.989 Y-180.316 Z0.817 I0.163 J0
X-51.314 Y-180.316 Z0.756 I-0.163 J0
X-50.989 Y-180.316 Z0.694 I0.163 J0
X-51.314 Y-180.316 Z0.633 I-0.163 J0
X-50.989 Y-180.316 Z0.572 I0.163 J0
X-51.314 Y-180.316 Z0.511 I-0.163 J0
X-50.989 Y-180.316 Z0.45 I0.163 J0
X-51.314 Y-180.316 Z0.389 I-0.163 J0
X-50.989 Y-180.316 Z0.328 I0.163 J0
X-51.314 Y-180.316 Z0.267 I-0.163 J0
X-50.989 Y-180.316 Z0.206 I0.163 J0
X-51.314 Y-180.316 Z0.144 I-0.163 J0
X-50.989 Y-180.316 Z0.083 I0.163 J0
X-51.314 Y-180.316 Z0.022 I-0.163 J0
X-50.989 Y-180.316 Z-0.039 I0.163 J0
X-51.314 Y-180.316 Z-0.1 I-0.163 J0
X-50.989 Y-180.316 Z-0.161 I0.163 J0
X-51.314 Y-180.316 Z-0.222 I-0.163 J0
X-50.989 Y-180.316 Z-0.283 I0.163 J0
X-51.314 Y-180.316 Z-0.344 I-0.163 J0
X-50.989 Y-180.316 Z-0.406 I0.163 J0
X-51.314 Y-180.316 Z-0.467 I-0.163 J0
X-50.989 Y-180.316 Z-0.528 I0.163 J0
X-51.314 Y-180.316 Z-0.589 I-0.163 J0
X-50.989 Y-180.316 Z-0.65 I0.163 J0
X-51.314 Y-180.316 Z-0.711 I-0.163 J0
X-50.989 Y-180.316 Z-0.772 I0.163 J0
X-51.314 Y-180.316 Z-0.833 I-0.163 J0
X-50.989 Y-180.316 Z-0.894 I0.163 J0
X-51.314 Y-180.316 Z-0.956 I-0.163 J0
X-50.989 Y-180.316 Z-1.017 I0.163 J0
X-51.314 Y-180.316 Z-1.078 I-0.163 J0
X-50.989 Y-180.316 Z-1.139 I0.163 J0
X-51.314 Y-180.316 Z-1.2 I-0.163 J0
X-50.989 Y-180.316 Z-1.261 I0.163 J0
X-51.314 Y-180.316 Z-1.322 I-0.163 J0
X-50.989 Y-180.316 Z-1.383 I0.163 J0
X-51.314 Y-180.316 Z-1.444 I-0.163 J0
X-50.989 Y-180.316 Z-1.506 I0.163 J0
X-51.314 Y-180.316 Z-1.567 I-0.163 J0
X-50.989 Y-180.316 Z-1.628 I0.163 J0
X-51.314 Y-180.316 Z-1.689 I-0.163 J0
X-50.989 Y-180.316 Z-1.75 I0.163 J0
X-51.314 Y-180.316 Z-1.811 I-0.163 J0
X-50.989 Y-180.316 Z-1.872 I0.163 J0
X-51.314 Y-180.316 Z-1.933 I-0.163 J0
X-50.989 Y-180.316 Z-1.994 I0.163 J0
X-51.314 Y-180.316 Z-2.056 I-0.163 J0
X-50.989 Y-180.316 Z-2.117 I0.163 J0
X-51.314 Y-180.316 Z-2.178 I-0.163 J0
X-50.989 Y-180.316 Z-2.239 I0.163 J0
X-51.314 Y-180.316 Z-2.3 I-0.163 J0
X-50.989 Y-180.316 Z-2.361 I0.163 J0
X-51.314 Y-180.316 Z-2.422 I-0.163 J0
X-50.989 Y-180.316 Z-2.483 I0.163 J0
X-51.314 Y-180.316 Z-2.544 I-0.163 J0
X-50.989 Y-180.316 Z-2.606 I0.163 J0
X-51.314 Y-180.316 Z-2.667 I-0.163 J0
X-50.989 Y-180.316 Z-2.728 I0.163 J0
X-51.314 Y-180.316 Z-2.789 I-0.163 J0
X-50.989 Y-180.316 Z-2.85 I0.163 J0
X-51.314 Y-180.316 Z-2.911 I-0.163 J0
X-50.989 Y-180.316 Z-2.972 I0.163 J0
X-51.314 Y-180.316 Z-3.033 I-0.163 J0
X-50.989 Y-180.316 Z-3.094 I0.163 J0
X-51.314 Y-180.316 Z-3.156 I-0.163 J0
X-50.989 Y-180.316 Z-3.217 I0.163 J0
X-51.314 Y-180.316 Z-3.278 I-0.163 J0
X-50.989 Y-180.316 Z-3.339 I0.163 J0
X-51.314 Y-180.316 Z-3.4 I-0.163 J0
X-50.989 Y-180.316 Z-3.461 I0.163 J0
X-51.314 Y-180.316 Z-3.522 I-0.163 J0
X-50.989 Y-180.316 Z-3.583 I0.163 J0
X-51.314 Y-180.316 Z-3.644 I-0.163 J0
X-50.989 Y-180.316 Z-3.706 I0.163 J0
X-51.314 Y-180.316 Z-3.767 I-0.163 J0
X-50.989 Y-180.316 Z-3.828 I0.163 J0
X-51.314 Y-180.316 Z-3.889 I-0.163 J0
X-50.989 Y-180.316 Z-3.95 I0.163 J0
X-51.314 Y-180.316 Z-4.011 I-0.163 J0
X-50.989 Y-180.316 Z-4.072 I0.163 J0
X-51.314 Y-180.316 Z-4.133 I-0.163 J0
X-50.989 Y-180.316 Z-4.194 I0.163 J0
X-51.314 Y-180.316 Z-4.256 I-0.163 J0
X-51.046 Y-180.439 Z-4.3 I0.163 J0
X-51.258 Y-180.193 I-0.106 J0.123
X-51.046 Y-180.439 I0.106 J-0.123
G1 X-51.026 Y-180.414
X-51.018 Y-180.383
X-51.022 Y-180.352
X-51.037 Y-180.324
X-51.141 Y-180.204
Z5
X-66.383 Y-168.482
Z3
Z1.317
G18 G3 X-66.7 Z1 I-0.317 K0
G1 X-66.859
G17 G3 X-67.177 Y-168.8 I0 J-0.318
X-65.352 Y-168.8 Z0.913 I0.913 J0
X-67.177 Y-168.8 Z0.825 I-0.913 J0
X-65.352 Y-168.8 Z0.738 I0.913 J0
X-67.177 Y-168.8 Z0.651 I-0.913 J0
X-65.352 Y-168.8 Z0.563 I0.913 J0
X-67.177 Y-168.8 Z0.476 I-0.913 J0
X-65.352 Y-168.8 Z0.389 I0.913 J0
X-67.177 Y-168.8 Z0.302 I-0.913 J0
X-65.352 Y-168.8 Z0.214 I0.913 J0
X-67.177 Y-168.8 Z0.127 I-0.913 J0
X-65.352 Y-168.8 Z0.04 I0.913 J0
X-67.177 Y-168.8 Z-0.048 I-0.913 J0
X-65.352 Y-168.8 Z-0.135 I0.913 J0
X-67.177 Y-168.8 Z-0.222 I-0.913 J0
X-65.352 Y-168.8 Z-0.31 I0.913 J0
X-67.177 Y-168.8 Z-0.397 I-0.913 J0
X-65.352 Y-168.8 Z-0.484 I0.913 J0
X-67.177 Y-168.8 Z-0.571 I-0.913 J0
X-65.352 Y-168.8 Z-0.659 I0.913 J0
X-67.177 Y-168.8 Z-0.746 I-0.913 J0
X-65.352 Y-168.8 Z-0.833 I0.913 J0
X-67.177 Y-168.8 Z-0.921 I-0.913 J0
X-65.352 Y-168.8 Z-1.008 I0.913 J0
X-67.177 Y-168.8 Z-1.095 I-0.913 J0
X-65.352 Y-168.8 Z-1.183 I0.913 J0
X-67.177 Y-168.8 Z-1.27 I-0.913 J0
X-65.352 Y-168.8 Z-1.357 I0.913 J0
X-67.177 Y-168.8 Z-1.444 I-0.913 J0
X-65.352 Y-168.8 Z-1.532 I0.913 J0
X-67.177 Y-168.8 Z-1.619 I-0.913 J0
X-65.352 Y-168.8 Z-1.706 I0.913 J0
X-67.177 Y-168.8 Z-1.794 I-0.913 J0
X-65.352 Y-168.8 Z-1.881 I0.913 J0
X-67.177 Y-168.8 Z-1.968 I-0.913 J0
X-65.352 Y-168.8 Z-2.056 I0.913 J0
X-67.177 Y-168.8 Z-2.143 I-0.913 J0
X-65.352 Y-168.8 Z-2.23 I0.913 J0
X-67.177 Y-168.8 Z-2.317 I-0.913 J0
X-65.352 Y-168.8 Z-2.405 I0.913 J0
X-67.177 Y-168.8 Z-2.492 I-0.913 J0
X-65.352 Y-168.8 Z-2.579 I0.913 J0
X-67.177 Y-168.8 Z-2.667 I-0.913 J0
X-65.352 Y-168.8 Z-2.754 I0.913 J0
X-67.177 Y-168.8 Z-2.841 I-0.913 J0
X-65.352 Y-168.8 Z-2.929 I0.913 J0
X-67.177 Y-168.8 Z-3.016 I-0.913 J0
X-65.352 Y-168.8 Z-3.103 I0.913 J0
X-67.177 Y-168.8 Z-3.19 I-0.912 J0
X-65.352 Y-168.8 Z-3.278 I0.912 J0
X-67.177 Y-168.8 Z-3.365 I-0.912 J0
X-65.352 Y-168.8 Z-3.452 I0.912 J0
X-67.177 Y-168.8 Z-3.54 I-0.912 J0
X-65.352 Y-168.8 Z-3.627 I0.912 J0
X-67.177 Y-168.8 Z-3.714 I-0.912 J0
X-65.352 Y-168.8 Z-3.802 I0.912 J0
X-67.177 Y-168.8 Z-3.889 I-0.912 J0
X-65.352 Y-168.8 Z-3.976 I0.912 J0
X-67.177 Y-168.8 Z-4.064 I-0.912 J0
X-65.352 Y-168.8 Z-4.151 I0.912 J0
X-67.177 Y-168.8 Z-4.238 I-0.912 J0
X-65.707 Y-169.523 Z-4.3 I0.912 J0
X-66.821 Y-168.077 I-0.557 J0.723
X-65.707 Y-169.523 I0.557 J-0.723
X-65.65 Y-169.078 I-0.194 J0.252
G1 X-65.746 Y-168.952
X-65.789 Y-168.896 Z-4.292
X-65.83 Y-168.843 Z-4.269
X-65.867 Y-168.795 Z-4.231
X-65.898 Y-168.755 Z-4.18
X-65.921 Y-168.725 Z-4.12
X-65.935 Y-168.707 Z-4.053
X-65.94 Y-168.7 Z-3.983
Z5
X-81.299 Y-157.203
Z2.682
Z1
X-81.458
X-81.489 Y-157.209
X-81.515 Y-157.227
X-81.533 Y-157.253
X-81.539 Y-157.284
G3 X-81.214 Y-157.284 Z0.939 I0.163 J0
X-81.539 Y-157.284 Z0.878 I-0.163 J0
X-81.214 Y-157.284 Z0.817 I0.163 J0
X-81.539 Y-157.284 Z0.756 I-0.163 J0
X-81.214 Y-157.284 Z0.694 I0.163 J0
X-81.539 Y-157.284 Z0.633 I-0.163 J0
X-81.214 Y-157.284 Z0.572 I0.163 J0
X-81.539 Y-157.284 Z0.511 I-0.163 J0
X-81.214 Y-157.284 Z0.45 I0.163 J0
X-81.539 Y-157.284 Z0.389 I-0.163 J0
X-81.214 Y-157.284 Z0.328 I0.163 J0
X-81.539 Y-157.284 Z0.267 I-0.163 J0
X-81.214 Y-157.284 Z0.206 I0.163 J0
X-81.539 Y-157.284 Z0.144 I-0.163 J0
X-81.214 Y-157.284 Z0.083 I0.163 J0
X-81.539 Y-157.284 Z0.022 I-0.163 J0
X-81.214 Y-157.284 Z-0.039 I0.163 J0
X-81.539 Y-157.284 Z-0.1 I-0.163 J0
X-81.214 Y-157.284 Z-0.161 I0.163 J0
X-81.539 Y-157.284 Z-0.222 I-0.163 J0
X-81.214 Y-157.284 Z-0.283 I0.163 J0
X-81.539 Y-157.284 Z-0.344 I-0.163 J0
X-81.214 Y-157.284 Z-0.406 I0.163 J0
X-81.539 Y-157.284 Z-0.467 I-0.163 J0
X-81.214 Y-157.284 Z-0.528 I0.163 J0
X-81.539 Y-157.284 Z-0.589 I-0.163 J0
X-81.214 Y-157.284 Z-0.65 I0.163 J0
X-81.539 Y-157.284 Z-0.711 I-0.163 J0
X-81.214 Y-157.284 Z-0.772 I0.163 J0
X-81.539 Y-157.284 Z-0.833 I-0.163 J0
X-81.214 Y-157.284 Z-0.894 I0.163 J0
X-81.539 Y-157.284 Z-0.956 I-0.163 J0
X-81.214 Y-157.284 Z-1.017 I0.163 J0
X-81.539 Y-157.284 Z-1.078 I-0.163 J0
X-81.214 Y-157.284 Z-1.139 I0.163 J0
X-81.539 Y-157.284 Z-1.2 I-0.162 J0
X-81.214 Y-157.284 Z-1.261 I0.162 J0
X-81.539 Y-157.284 Z-1.322 I-0.162 J0
X-81.214 Y-157.284 Z-1.383 I0.162 J0
X-81.539 Y-157.284 Z-1.444 I-0.162 J0
X-81.214 Y-157.284 Z-1.506 I0.162 J0
X-81.539 Y-157.284 Z-1.567 I-0.162 J0
X-81.214 Y-157.284 Z-1.628 I0.162 J0
X-81.539 Y-157.284 Z-1.689 I-0.162 J0
X-81.214 Y-157.284 Z-1.75 I0.162 J0
X-81.539 Y-157.284 Z-1.811 I-0.162 J0
X-81.214 Y-157.284 Z-1.872 I0.162 J0
X-81.539 Y-157.284 Z-1.933 I-0.162 J0
X-81.214 Y-157.284 Z-1.994 I0.162 J0
X-81.539 Y-157.284 Z-2.056 I-0.162 J0
X-81.214 Y-157.284 Z-2.117 I0.162 J0
X-81.539 Y-157.284 Z-2.178 I-0.162 J0
X-81.214 Y-157.284 Z-2.239 I0.162 J0
X-81.539 Y-157.284 Z-2.3 I-0.162 J0
X-81.214 Y-157.284 Z-2.361 I0.162 J0
X-81.539 Y-157.284 Z-2.422 I-0.162 J0
X-81.214 Y-157.284 Z-2.483 I0.162 J0
X-81.539 Y-157.284 Z-2.544 I-0.162 J0
X-81.214 Y-157.284 Z-2.606 I0.162 J0
X-81.539 Y-157.284 Z-2.667 I-0.162 J0
X-81.214 Y-157.284 Z-2.728 I0.162 J0
X-81.539 Y-157.284 Z-2.789 I-0.162 J0
X-81.214 Y-157.284 Z-2.85 I0.162 J0
X-81.539 Y-157.284 Z-2.911 I-0.162 J0
X-81.214 Y-157.284 Z-2.972 I0.162 J0
X-81.539 Y-157.284 Z-3.033 I-0.162 J0
X-81.214 Y-157.284 Z-3.094 I0.162 J0
X-81.539 Y-157.284 Z-3.156 I-0.162 J0
X-81.214 Y-157.284 Z-3.217 I0.162 J0
X-81.539 Y-157.284 Z-3.278 I-0.162 J0
X-81.214 Y-157.284 Z-3.339 I0.162 J0
X-81.539 Y-157.284 Z-3.4 I-0.162 J0
X-81.214 Y-157.284 Z-3.461 I0.162 J0
X-81.539 Y-157.284 Z-3.522 I-0.162 J0
X-81.214 Y-157.284 Z-3.583 I0.162 J0
X-81.539 Y-157.284 Z-3.644 I-0.162 J0
X-81.214 Y-157.284 Z-3.706 I0.162 J0
X-81.539 Y-157.284 Z-3.767 I-0.162 J0
X-81.214 Y-157.284 Z-3.828 I0.162 J0
X-81.539 Y-157.284 Z-3.889 I-0.162 J0
X-81.214 Y-157.284 Z-3.95 I0.162 J0
X-81.539 Y-157.284 Z-4.011 I-0.162 J0
X-81.214 Y-157.284 Z-4.072 I0.162 J0
X-81.539 Y-157.284 Z-4.133 I-0.162 J0
X-81.214 Y-157.284 Z-4.194 I0.162 J0
X-81.539 Y-157.284 Z-4.256 I-0.162 J0
X-81.27 Y-157.407 Z-4.3 I0.162 J0
X-81.483 Y-157.161 I-0.106 J0.123
X-81.27 Y-157.407 I0.106 J-0.123
G1 X-81.251 Y-157.382
X-81.242 Y-157.351
X-81.246 Y-157.32
X-81.262 Y-157.292
X-81.366 Y-157.172
Z5
X-124.987 Y-134.219
Z2.682
Z1
X-125.145
X-125.176 Y-134.225
X-125.203 Y-134.243
X-125.22 Y-134.269
X-125.227 Y-134.3
G3 X-124.902 Y-134.3 Z0.939 I0.162 J0
X-125.227 Y-134.3 Z0.878 I-0.162 J0
X-124.902 Y-134.3 Z0.817 I0.162 J0
X-125.227 Y-134.3 Z0.756 I-0.162 J0
X-124.902 Y-134.3 Z0.694 I0.162 J0
X-125.227 Y-134.3 Z0.633 I-0.162 J0
X-124.902 Y-134.3 Z0.572 I0.162 J0
X-125.227 Y-134.3 Z0.511 I-0.162 J0
X-124.902 Y-134.3 Z0.45 I0.162 J0
X-125.227 Y-134.3 Z0.389 I-0.162 J0
X-124.902 Y-134.3 Z0.328 I0.162 J0
X-125.227 Y-134.3 Z0.267 I-0.162 J0
X-124.902 Y-134.3 Z0.206 I0.162 J0
X-125.227 Y-134.3 Z0.144 I-0.162 J0
X-124.902 Y-134.3 Z0.083 I0.162 J0
X-125.227 Y-134.3 Z0.022 I-0.162 J0
X-124.902 Y-134.3 Z-0.039 I0.162 J0
X-125.227 Y-134.3 Z-0.1 I-0.162 J0
X-124.902 Y-134.3 Z-0.161 I0.162 J0
X-125.227 Y-134.3 Z-0.222 I-0.162 J0
X-124.902 Y-134.3 Z-0.283 I0.162 J0
X-125.227 Y-134.3 Z-0.344 I-0.162 J0
X-124.902 Y-134.3 Z-0.406 I0.162 J0
X-125.227 Y-134.3 Z-0.467 I-0.162 J0
X-124.902 Y-134.3 Z-0.528 I0.162 J0
X-125.227 Y-134.3 Z-0.589 I-0.162 J0
X-124.902 Y-134.3 Z-0.65 I0.162 J0
X-125.227 Y-134.3 Z-0.711 I-0.162 J0
X-124.902 Y-134.3 Z-0.772 I0.162 J0
X-125.227 Y-134.3 Z-0.833 I-0.162 J0
X-124.902 Y-134.3 Z-0.894 I0.162 J0
X-125.227 Y-134.3 Z-0.956 I-0.162 J0
X-124.902 Y-134.3 Z-1.017 I0.162 J0
X-125.227 Y-134.3 Z-1.078 I-0.162 J0
X-124.902 Y-134.3 Z-1.139 I0.163 J0
X-125.227 Y-134.3 Z-1.2 I-0.163 J0
X-124.902 Y-134.3 Z-1.261 I0.163 J0
X-125.227 Y-134.3 Z-1.322 I-0.163 J0
X-124.902 Y-134.3 Z-1.383 I0.163 J0
X-125.227 Y-134.3 Z-1.444 I-0.163 J0
X-124.902 Y-134.3 Z-1.506 I0.163 J0
X-125.227 Y-134.3 Z-1.567 I-0.163 J0
X-124.902 Y-134.3 Z-1.628 I0.163 J0
X-125.227 Y-134.3 Z-1.689 I-0.163 J0
X-124.902 Y-134.3 Z-1.75 I0.163 J0
X-125.227 Y-134.3 Z-1.811 I-0.163 J0
X-124.902 Y-134.3 Z-1.872 I0.163 J0
X-125.227 Y-134.3 Z-1.933 I-0.163 J0
X-124.902 Y-134.3 Z-1.994 I0.163 J0
X-125.227 Y-134.3 Z-2.056 I-0.163 J0
X-124.902 Y-134.3 Z-2.117 I0.163 J0
X-125.227 Y-134.3 Z-2.178 I-0.163 J0
X-124.902 Y-134.3 Z-2.239 I0.163 J0
X-125.227 Y-134.3 Z-2.3 I-0.163 J0
X-124.902 Y-134.3 Z-2.361 I0.163 J0
X-125.227 Y-134.3 Z-2.422 I-0.163 J0
X-124.902 Y-134.3 Z-2.483 I0.163 J0
X-125.227 Y-134.3 Z-2.544 I-0.163 J0
X-124.902 Y-134.3 Z-2.606 I0.163 J0
X-125.227 Y-134.3 Z-2.667 I-0.163 J0
X-124.902 Y-134.3 Z-2.728 I0.163 J0
X-125.227 Y-134.3 Z-2.789 I-0.163 J0
X-124.902 Y-134.3 Z-2.85 I0.163 J0
X-125.227 Y-134.3 Z-2.911 I-0.163 J0
X-124.902 Y-134.3 Z-2.972 I0.163 J0
X-125.227 Y-134.3 Z-3.033 I-0.163 J0
X-124.902 Y-134.3 Z-3.094 I0.163 J0
X-125.227 Y-134.3 Z-3.156 I-0.163 J0
X-124.902 Y-134.3 Z-3.217 I0.163 J0
X-125.227 Y-134.3 Z-3.278 I-0.163 J0
X-124.902 Y-134.3 Z-3.339 I0.163 J0
X-125.227 Y-134.3 Z-3.4 I-0.163 J0
X-124.902 Y-134.3 Z-3.461 I0.163 J0
X-125.227 Y-134.3 Z-3.522 I-0.163 J0
X-124.902 Y-134.3 Z-3.583 I0.163 J0
X-125.227 Y-134.3 Z-3.644 I-0.163 J0
X-124.902 Y-134.3 Z-3.706 I0.163 J0
X-125.227 Y-134.3 Z-3.767 I-0.163 J0
X-124.902 Y-134.3 Z-3.828 I0.163 J0
X-125.227 Y-134.3 Z-3.889 I-0.163 J0
X-124.902 Y-134.3 Z-3.95 I0.163 J0
X-125.227 Y-134.3 Z-4.011 I-0.163 J0
X-124.902 Y-134.3 Z-4.072 I0.163 J0
X-125.227 Y-134.3 Z-4.133 I-0.163 J0
X-124.902 Y-134.3 Z-4.194 I0.163 J0
X-125.227 Y-134.3 Z-4.256 I-0.163 J0
X-124.958 Y-134.423 Z-4.3 I0.163 J0
X-125.17 Y-134.177 I-0.106 J0.123
X-124.958 Y-134.423 I0.106 J-0.123
G1 X-124.938 Y-134.398
X-124.93 Y-134.367
X-124.934 Y-134.336
X-124.95 Y-134.308
X-125.053 Y-134.188
Z5
X-156.987 Y-134.219
Z2.682
Z1
X-157.145
X-157.176 Y-134.225
X-157.203 Y-134.243
X-157.22 Y-134.269
X-157.227 Y-134.3
G3 X-156.902 Y-134.3 Z0.939 I0.163 J0
X-157.227 Y-134.3 Z0.878 I-0.163 J0
X-156.902 Y-134.3 Z0.817 I0.163 J0
X-157.227 Y-134.3 Z0.756 I-0.163 J0
X-156.902 Y-134.3 Z0.694 I0.163 J0
X-157.227 Y-134.3 Z0.633 I-0.163 J0
X-156.902 Y-134.3 Z0.572 I0.163 J0
X-157.227 Y-134.3 Z0.511 I-0.163 J0
X-156.902 Y-134.3 Z0.45 I0.163 J0
X-157.227 Y-134.3 Z0.389 I-0.163 J0
X-156.902 Y-134.3 Z0.328 I0.163 J0
X-157.227 Y-134.3 Z0.267 I-0.163 J0
X-156.902 Y-134.3 Z0.206 I0.163 J0
X-157.227 Y-134.3 Z0.144 I-0.163 J0
X-156.902 Y-134.3 Z0.083 I0.163 J0
X-157.227 Y-134.3 Z0.022 I-0.163 J0
X-156.902 Y-134.3 Z-0.039 I0.163 J0
X-157.227 Y-134.3 Z-0.1 I-0.163 J0
X-156.902 Y-134.3 Z-0.161 I0.163 J0
X-157.227 Y-134.3 Z-0.222 I-0.163 J0
X-156.902 Y-134.3 Z-0.283 I0.163 J0
X-157.227 Y-134.3 Z-0.344 I-0.163 J0
X-156.902 Y-134.3 Z-0.406 I0.163 J0
X-157.227 Y-134.3 Z-0.467 I-0.163 J0
X-156.902 Y-134.3 Z-0.528 I0.163 J0
X-157.227 Y-134.3 Z-0.589 I-0.163 J0
X-156.902 Y-134.3 Z-0.65 I0.163 J0
X-157.227 Y-134.3 Z-0.711 I-0.163 J0
X-156.902 Y-134.3 Z-0.772 I0.163 J0
X-157.227 Y-134.3 Z-0.833 I-0.163 J0
X-156.902 Y-134.3 Z-0.894 I0.163 J0
X-157.227 Y-134.3 Z-0.956 I-0.163 J0
X-156.902 Y-134.3 Z-1.017 I0.163 J0
X-157.227 Y-134.3 Z-1.078 I-0.163 J0
X-156.902 Y-134.3 Z-1.139 I0.163 J0
X-157.227 Y-134.3 Z-1.2 I-0.163 J0
X-156.902 Y-134.3 Z-1.261 I0.163 J0
X-157.227 Y-134.3 Z-1.322 I-0.163 J0
X-156.902 Y-134.3 Z-1.383 I0.163 J0
X-157.227 Y-134.3 Z-1.444 I-0.163 J0
X-156.902 Y-134.3 Z-1.506 I0.163 J0
X-157.227 Y-134.3 Z-1.567 I-0.163 J0
X-156.902 Y-134.3 Z-1.628 I0.163 J0
X-157.227 Y-134.3 Z-1.689 I-0.163 J0
X-156.902 Y-134.3 Z-1.75 I0.163 J0
X-157.227 Y-134.3 Z-1.811 I-0.163 J0
X-156.902 Y-134.3 Z-1.872 I0.163 J0
X-157.227 Y-134.3 Z-1.933 I-0.163 J0
X-156.902 Y-134.3 Z-1.994 I0.163 J0
X-157.227 Y-134.3 Z-2.056 I-0.163 J0
X-156.902 Y-134.3 Z-2.117 I0.163 J0
X-157.227 Y-134.3 Z-2.178 I-0.163 J0
X-156.902 Y-134.3 Z-2.239 I0.163 J0
X-157.227 Y-134.3 Z-2.3 I-0.163 J0
X-156.902 Y-134.3 Z-2.361 I0.163 J0
X-157.227 Y-134.3 Z-2.422 I-0.163 J0
X-156.902 Y-134.3 Z-2.483 I0.163 J0
X-157.227 Y-134.3 Z-2.544 I-0.163 J0
X-156.902 Y-134.3 Z-2.606 I0.163 J0
X-157.227 Y-134.3 Z-2.667 I-0.163 J0
X-156.902 Y-134.3 Z-2.728 I0.163 J0
X-157.227 Y-134.3 Z-2.789 I-0.163 J0
X-156.902 Y-134.3 Z-2.85 I0.163 J0
X-157.227 Y-134.3 Z-2.911 I-0.163 J0
X-156.902 Y-134.3 Z-2.972 I0.163 J0
X-157.227 Y-134.3 Z-3.033 I-0.163 J0
X-156.902 Y-134.3 Z-3.094 I0.163 J0
X-157.227 Y-134.3 Z-3.156 I-0.163 J0
X-156.902 Y-134.3 Z-3.217 I0.163 J0
X-157.227 Y-134.3 Z-3.278 I-0.163 J0
X-156.902 Y-134.3 Z-3.339 I0.163 J0
X-157.227 Y-134.3 Z-3.4 I-0.163 J0
X-156.902 Y-134.3 Z-3.461 I0.163 J0
X-157.227 Y-134.3 Z-3.522 I-0.163 J0
X-156.902 Y-134.3 Z-3.583 I0.163 J0
X-157.227 Y-134.3 Z-3.644 I-0.163 J0
X-156.902 Y-134.3 Z-3.706 I0.163 J0
X-157.227 Y-134.3 Z-3.767 I-0.163 J0
X-156.902 Y-134.3 Z-3.828 I0.163 J0
X-157.227 Y-134.3 Z-3.889 I-0.163 J0
X-156.902 Y-134.3 Z-3.95 I0.163 J0
X-157.227 Y-134.3 Z-4.011 I-0.163 J0
X-156.902 Y-134.3 Z-4.072 I0.163 J0
X-157.227 Y-134.3 Z-4.133 I-0.163 J0
X-156.902 Y-134.3 Z-4.194 I0.163 J0
X-157.227 Y-134.3 Z-4.256 I-0.163 J0
X-156.958 Y-134.423 Z-4.3 I0.163 J0
X-157.17 Y-134.177 I-0.106 J0.123
X-156.958 Y-134.423 I0.106 J-0.123
G1 X-156.938 Y-134.398
X-156.93 Y-134.367
X-156.934 Y-134.336
X-156.949 Y-134.308
X-157.053 Y-134.188
Z5
X-156.987 Y-89.219
Z2.682
Z1
X-157.145
X-157.176 Y-89.225
X-157.203 Y-89.243
X-157.22 Y-89.269
X-157.227 Y-89.3
G3 X-156.902 Y-89.3 Z0.939 I0.163 J0
X-157.227 Y-89.3 Z0.878 I-0.163 J0
X-156.902 Y-89.3 Z0.817 I0.163 J0
X-157.227 Y-89.3 Z0.756 I-0.163 J0
X-156.902 Y-89.3 Z0.694 I0.163 J0
X-157.227 Y-89.3 Z0.633 I-0.163 J0
X-156.902 Y-89.3 Z0.572 I0.163 J0
X-157.227 Y-89.3 Z0.511 I-0.163 J0
X-156.902 Y-89.3 Z0.45 I0.163 J0
X-157.227 Y-89.3 Z0.389 I-0.163 J0
X-156.902 Y-89.3 Z0.328 I0.163 J0
X-157.227 Y-89.3 Z0.267 I-0.163 J0
X-156.902 Y-89.3 Z0.206 I0.163 J0
X-157.227 Y-89.3 Z0.144 I-0.163 J0
X-156.902 Y-89.3 Z0.083 I0.163 J0
X-157.227 Y-89.3 Z0.022 I-0.163 J0
X-156.902 Y-89.3 Z-0.039 I0.163 J0
X-157.227 Y-89.3 Z-0.1 I-0.163 J0
X-156.902 Y-89.3 Z-0.161 I0.163 J0
X-157.227 Y-89.3 Z-0.222 I-0.163 J0
X-156.902 Y-89.3 Z-0.283 I0.163 J0
X-157.227 Y-89.3 Z-0.344 I-0.163 J0
X-156.902 Y-89.3 Z-0.406 I0.163 J0
X-157.227 Y-89.3 Z-0.467 I-0.163 J0
X-156.902 Y-89.3 Z-0.528 I0.163 J0
X-157.227 Y-89.3 Z-0.589 I-0.163 J0
X-156.902 Y-89.3 Z-0.65 I0.163 J0
X-157.227 Y-89.3 Z-0.711 I-0.163 J0
X-156.902 Y-89.3 Z-0.772 I0.163 J0
X-157.227 Y-89.3 Z-0.833 I-0.163 J0
X-156.902 Y-89.3 Z-0.894 I0.163 J0
X-157.227 Y-89.3 Z-0.956 I-0.163 J0
X-156.902 Y-89.3 Z-1.017 I0.163 J0
X-157.227 Y-89.3 Z-1.078 I-0.163 J0
X-156.902 Y-89.3 Z-1.139 I0.163 J0
X-157.227 Y-89.3 Z-1.2 I-0.163 J0
X-156.902 Y-89.3 Z-1.261 I0.163 J0
X-157.227 Y-89.3 Z-1.322 I-0.163 J0
X-156.902 Y-89.3 Z-1.383 I0.163 J0
X-157.227 Y-89.3 Z-1.444 I-0.163 J0
X-156.902 Y-89.3 Z-1.506 I0.163 J0
X-157.227 Y-89.3 Z-1.567 I-0.163 J0
X-156.902 Y-89.3 Z-1.628 I0.163 J0
X-157.227 Y-89.3 Z-1.689 I-0.163 J0
X-156.902 Y-89.3 Z-1.75 I0.163 J0
X-157.227 Y-89.3 Z-1.811 I-0.163 J0
X-156.902 Y-89.3 Z-1.872 I0.163 J0
X-157.227 Y-89.3 Z-1.933 I-0.163 J0
X-156.902 Y-89.3 Z-1.994 I0.163 J0
X-157.227 Y-89.3 Z-2.056 I-0.163 J0
X-156.902 Y-89.3 Z-2.117 I0.163 J0
X-157.227 Y-89.3 Z-2.178 I-0.163 J0
X-156.902 Y-89.3 Z-2.239 I0.163 J0
X-157.227 Y-89.3 Z-2.3 I-0.163 J0
X-156.902 Y-89.3 Z-2.361 I0.163 J0
X-157.227 Y-89.3 Z-2.422 I-0.163 J0
X-156.902 Y-89.3 Z-2.483 I0.163 J0
X-157.227 Y-89.3 Z-2.544 I-0.163 J0
X-156.902 Y-89.3 Z-2.606 I0.163 J0
X-157.227 Y-89.3 Z-2.667 I-0.163 J0
X-156.902 Y-89.3 Z-2.728 I0.163 J0
X-157.227 Y-89.3 Z-2.789 I-0.163 J0
X-156.902 Y-89.3 Z-2.85 I0.163 J0
X-157.227 Y-89.3 Z-2.911 I-0.163 J0
X-156.902 Y-89.3 Z-2.972 I0.163 J0
X-157.227 Y-89.3 Z-3.033 I-0.163 J0
X-156.902 Y-89.3 Z-3.094 I0.163 J0
X-157.227 Y-89.3 Z-3.156 I-0.163 J0
X-156.902 Y-89.3 Z-3.217 I0.163 J0
X-157.227 Y-89.3 Z-3.278 I-0.163 J0
X-156.902 Y-89.3 Z-3.339 I0.163 J0
X-157.227 Y-89.3 Z-3.4 I-0.163 J0
X-156.902 Y-89.3 Z-3.461 I0.163 J0
X-157.227 Y-89.3 Z-3.522 I-0.163 J0
X-156.902 Y-89.3 Z-3.583 I0.163 J0
X-157.227 Y-89.3 Z-3.644 I-0.163 J0
X-156.902 Y-89.3 Z-3.706 I0.163 J0
X-157.227 Y-89.3 Z-3.767 I-0.163 J0
X-156.902 Y-89.3 Z-3.828 I0.163 J0
X-157.227 Y-89.3 Z-3.889 I-0.163 J0
X-156.902 Y-89.3 Z-3.95 I0.163 J0
X-157.227 Y-89.3 Z-4.011 I-0.163 J0
X-156.902 Y-89.3 Z-4.072 I0.163 J0
X-157.227 Y-89.3 Z-4.133 I-0.163 J0
X-156.902 Y-89.3 Z-4.194 I0.163 J0
X-157.227 Y-89.3 Z-4.256 I-0.163 J0
X-156.958 Y-89.423 Z-4.3 I0.163 J0
X-157.17 Y-89.177 I-0.106 J0.123
X-156.958 Y-89.423 I0.106 J-0.123
G1 X-156.938 Y-89.398
X-156.93 Y-89.367
X-156.934 Y-89.336
X-156.949 Y-89.308
X-157.053 Y-89.188
Z5
X-124.987 Y-89.219
Z2.682
Z1
X-125.145
X-125.176 Y-89.225
X-125.203 Y-89.243
X-125.22 Y-89.269
X-125.227 Y-89.3
G3 X-124.902 Y-89.3 Z0.939 I0.162 J0
X-125.227 Y-89.3 Z0.878 I-0.162 J0
X-124.902 Y-89.3 Z0.817 I0.162 J0
X-125.227 Y-89.3 Z0.756 I-0.162 J0
X-124.902 Y-89.3 Z0.694 I0.162 J0
X-125.227 Y-89.3 Z0.633 I-0.162 J0
X-124.902 Y-89.3 Z0.572 I0.162 J0
X-125.227 Y-89.3 Z0.511 I-0.162 J0
X-124.902 Y-89.3 Z0.45 I0.162 J0
X-125.227 Y-89.3 Z0.389 I-0.162 J0
X-124.902 Y-89.3 Z0.328 I0.162 J0
X-125.227 Y-89.3 Z0.267 I-0.162 J0
X-124.902 Y-89.3 Z0.206 I0.162 J0
X-125.227 Y-89.3 Z0.144 I-0.162 J0
X-124.902 Y-89.3 Z0.083 I0.162 J0
X-125.227 Y-89.3 Z0.022 I-0.162 J0
X-124.902 Y-89.3 Z-0.039 I0.162 J0
X-125.227 Y-89.3 Z-0.1 I-0.162 J0
X-124.902 Y-89.3 Z-0.161 I0.162 J0
X-125.227 Y-89.3 Z-0.222 I-0.162 J0
X-124.902 Y-89.3 Z-0.283 I0.162 J0
X-125.227 Y-89.3 Z-0.344 I-0.162 J0
X-124.902 Y-89.3 Z-0.406 I0.162 J0
X-125.227 Y-89.3 Z-0.467 I-0.162 J0
X-124.902 Y-89.3 Z-0.528 I0.162 J0
X-125.227 Y-89.3 Z-0.589 I-0.162 J0
X-124.902 Y-89.3 Z-0.65 I0.162 J0
X-125.227 Y-89.3 Z-0.711 I-0.162 J0
X-124.902 Y-89.3 Z-0.772 I0.162 J0
X-125.227 Y-89.3 Z-0.833 I-0.162 J0
X-124.902 Y-89.3 Z-0.894 I0.162 J0
X-125.227 Y-89.3 Z-0.956 I-0.162 J0
X-124.902 Y-89.3 Z-1.017 I0.162 J0
X-125.227 Y-89.3 Z-1.078 I-0.162 J0
X-124.902 Y-89.3 Z-1.139 I0.162 J0
X-125.227 Y-89.3 Z-1.2 I-0.162 J0
X-124.902 Y-89.3 Z-1.261 I0.162 J0
X-125.227 Y-89.3 Z-1.322 I-0.162 J0
X-124.902 Y-89.3 Z-1.383 I0.162 J0
X-125.227 Y-89.3 Z-1.444 I-0.162 J0
X-124.902 Y-89.3 Z-1.506 I0.162 J0
X-125.227 Y-89.3 Z-1.567 I-0.162 J0
X-124.902 Y-89.3 Z-1.628 I0.162 J0
X-125.227 Y-89.3 Z-1.689 I-0.162 J0
X-124.902 Y-89.3 Z-1.75 I0.162 J0
X-125.227 Y-89.3 Z-1.811 I-0.162 J0
X-124.902 Y-89.3 Z-1.872 I0.162 J0
X-125.227 Y-89.3 Z-1.933 I-0.162 J0
X-124.902 Y-89.3 Z-1.994 I0.162 J0
X-125.227 Y-89.3 Z-2.056 I-0.162 J0
X-124.902 Y-89.3 Z-2.117 I0.162 J0
X-125.227 Y-89.3 Z-2.178 I-0.162 J0
X-124.902 Y-89.3 Z-2.239 I0.162 J0
X-125.227 Y-89.3 Z-2.3 I-0.162 J0
X-124.902 Y-89.3 Z-2.361 I0.162 J0
X-125.227 Y-89.3 Z-2.422 I-0.162 J0
X-124.902 Y-89.3 Z-2.483 I0.162 J0
X-125.227 Y-89.3 Z-2.544 I-0.162 J0
X-124.902 Y-89.3 Z-2.606 I0.162 J0
X-125.227 Y-89.3 Z-2.667 I-0.162 J0
X-124.902 Y-89.3 Z-2.728 I0.162 J0
X-125.227 Y-89.3 Z-2.789 I-0.162 J0
X-124.902 Y-89.3 Z-2.85 I0.162 J0
X-125.227 Y-89.3 Z-2.911 I-0.162 J0
X-124.902 Y-89.3 Z-2.972 I0.162 J0
X-125.227 Y-89.3 Z-3.033 I-0.162 J0
X-124.902 Y-89.3 Z-3.094 I0.162 J0
X-125.227 Y-89.3 Z-3.156 I-0.162 J0
X-124.902 Y-89.3 Z-3.217 I0.162 J0
X-125.227 Y-89.3 Z-3.278 I-0.162 J0
X-124.902 Y-89.3 Z-3.339 I0.162 J0
X-125.227 Y-89.3 Z-3.4 I-0.162 J0
X-124.902 Y-89.3 Z-3.461 I0.162 J0
X-125.227 Y-89.3 Z-3.522 I-0.162 J0
X-124.902 Y-89.3 Z-3.583 I0.162 J0
X-125.227 Y-89.3 Z-3.644 I-0.162 J0
X-124.902 Y-89.3 Z-3.706 I0.162 J0
X-125.227 Y-89.3 Z-3.767 I-0.162 J0
X-124.902 Y-89.3 Z-3.828 I0.162 J0
X-125.227 Y-89.3 Z-3.889 I-0.162 J0
X-124.902 Y-89.3 Z-3.95 I0.162 J0
X-125.227 Y-89.3 Z-4.011 I-0.162 J0
X-124.902 Y-89.3 Z-4.072 I0.162 J0
X-125.227 Y-89.3 Z-4.133 I-0.162 J0
X-124.902 Y-89.3 Z-4.194 I0.162 J0
X-125.227 Y-89.3 Z-4.256 I-0.162 J0
X-124.958 Y-89.423 Z-4.3 I0.162 J0
X-125.17 Y-89.177 I-0.106 J0.123
X-124.958 Y-89.423 I0.106 J-0.123
G1 X-124.938 Y-89.398
X-124.93 Y-89.367
X-124.934 Y-89.336
X-124.95 Y-89.308
X-125.053 Y-89.188
Z5
X-81.299 Y-66.235
Z2.682
Z1
X-81.458
X-81.489 Y-66.241
X-81.515 Y-66.259
X-81.533 Y-66.285
X-81.539 Y-66.316
G3 X-81.214 Y-66.316 Z0.939 I0.163 J0
X-81.539 Y-66.316 Z0.878 I-0.163 J0
X-81.214 Y-66.316 Z0.817 I0.163 J0
X-81.539 Y-66.316 Z0.756 I-0.163 J0
X-81.214 Y-66.316 Z0.694 I0.163 J0
X-81.539 Y-66.316 Z0.633 I-0.163 J0
X-81.214 Y-66.316 Z0.572 I0.163 J0
X-81.539 Y-66.316 Z0.511 I-0.163 J0
X-81.214 Y-66.316 Z0.45 I0.163 J0
X-81.539 Y-66.316 Z0.389 I-0.163 J0
X-81.214 Y-66.316 Z0.328 I0.163 J0
X-81.539 Y-66.316 Z0.267 I-0.163 J0
X-81.214 Y-66.316 Z0.206 I0.163 J0
X-81.539 Y-66.316 Z0.144 I-0.163 J0
X-81.214 Y-66.316 Z0.083 I0.163 J0
X-81.539 Y-66.316 Z0.022 I-0.163 J0
X-81.214 Y-66.316 Z-0.039 I0.163 J0
X-81.539 Y-66.316 Z-0.1 I-0.163 J0
X-81.214 Y-66.316 Z-0.161 I0.163 J0
X-81.539 Y-66.316 Z-0.222 I-0.163 J0
X-81.214 Y-66.316 Z-0.283 I0.163 J0
X-81.539 Y-66.316 Z-0.344 I-0.163 J0
X-81.214 Y-66.316 Z-0.406 I0.163 J0
X-81.539 Y-66.316 Z-0.467 I-0.163 J0
X-81.214 Y-66.316 Z-0.528 I0.163 J0
X-81.539 Y-66.316 Z-0.589 I-0.163 J0
X-81.214 Y-66.316 Z-0.65 I0.163 J0
X-81.539 Y-66.316 Z-0.711 I-0.163 J0
X-81.214 Y-66.316 Z-0.772 I0.163 J0
X-81.539 Y-66.316 Z-0.833 I-0.163 J0
X-81.214 Y-66.316 Z-0.894 I0.163 J0
X-81.539 Y-66.316 Z-0.956 I-0.163 J0
X-81.214 Y-66.316 Z-1.017 I0.163 J0
X-81.539 Y-66.316 Z-1.078 I-0.163 J0
X-81.214 Y-66.316 Z-1.139 I0.163 J0
X-81.539 Y-66.316 Z-1.2 I-0.163 J0
X-81.214 Y-66.316 Z-1.261 I0.163 J0
X-81.539 Y-66.316 Z-1.322 I-0.163 J0
X-81.214 Y-66.316 Z-1.383 I0.163 J0
X-81.539 Y-66.316 Z-1.444 I-0.163 J0
X-81.214 Y-66.316 Z-1.506 I0.163 J0
X-81.539 Y-66.316 Z-1.567 I-0.163 J0
X-81.214 Y-66.316 Z-1.628 I0.163 J0
X-81.539 Y-66.316 Z-1.689 I-0.163 J0
X-81.214 Y-66.316 Z-1.75 I0.163 J0
X-81.539 Y-66.316 Z-1.811 I-0.163 J0
X-81.214 Y-66.316 Z-1.872 I0.163 J0
X-81.539 Y-66.316 Z-1.933 I-0.163 J0
X-81.214 Y-66.316 Z-1.994 I0.163 J0
X-81.539 Y-66.316 Z-2.056 I-0.163 J0
X-81.214 Y-66.316 Z-2.117 I0.163 J0
X-81.539 Y-66.316 Z-2.178 I-0.163 J0
X-81.214 Y-66.316 Z-2.239 I0.163 J0
X-81.539 Y-66.316 Z-2.3 I-0.163 J0
X-81.214 Y-66.316 Z-2.361 I0.163 J0
X-81.539 Y-66.316 Z-2.422 I-0.163 J0
X-81.214 Y-66.316 Z-2.483 I0.162 J0
X-81.539 Y-66.316 Z-2.544 I-0.162 J0
X-81.214 Y-66.316 Z-2.606 I0.162 J0
X-81.539 Y-66.316 Z-2.667 I-0.162 J0
X-81.214 Y-66.316 Z-2.728 I0.162 J0
X-81.539 Y-66.316 Z-2.789 I-0.162 J0
X-81.214 Y-66.316 Z-2.85 I0.162 J0
X-81.539 Y-66.316 Z-2.911 I-0.162 J0
X-81.214 Y-66.316 Z-2.972 I0.162 J0
X-81.539 Y-66.316 Z-3.033 I-0.162 J0
X-81.214 Y-66.316 Z-3.094 I0.162 J0
X-81.539 Y-66.316 Z-3.156 I-0.162 J0
X-81.214 Y-66.316 Z-3.217 I0.162 J0
X-81.539 Y-66.316 Z-3.278 I-0.162 J0
X-81.214 Y-66.316 Z-3.339 I0.162 J0
X-81.539 Y-66.316 Z-3.4 I-0.162 J0
X-81.214 Y-66.316 Z-3.461 I0.162 J0
X-81.539 Y-66.316 Z-3.522 I-0.162 J0
X-81.214 Y-66.316 Z-3.583 I0.162 J0
X-81.539 Y-66.316 Z-3.644 I-0.162 J0
X-81.214 Y-66.316 Z-3.706 I0.162 J0
X-81.539 Y-66.316 Z-3.767 I-0.162 J0
X-81.214 Y-66.316 Z-3.828 I0.162 J0
X-81.539 Y-66.316 Z-3.889 I-0.162 J0
X-81.214 Y-66.316 Z-3.95 I0.162 J0
X-81.539 Y-66.316 Z-4.011 I-0.162 J0
X-81.214 Y-66.316 Z-4.072 I0.162 J0
X-81.539 Y-66.316 Z-4.133 I-0.162 J0
X-81.214 Y-66.316 Z-4.194 I0.162 J0
X-81.539 Y-66.316 Z-4.256 I-0.162 J0
X-81.27 Y-66.439 Z-4.3 I0.162 J0
X-81.483 Y-66.193 I-0.106 J0.123
X-81.27 Y-66.439 I0.106 J-0.123
G1 X-81.251 Y-66.414
X-81.242 Y-66.383
X-81.246 Y-66.352
X-81.262 Y-66.324
X-81.366 Y-66.204
Z5
X-66.383 Y-54.482
Z3
Z1.317
G18 G3 X-66.7 Z1 I-0.317 K0
G1 X-66.859
G17 G3 X-67.177 Y-54.8 I0 J-0.318
X-65.352 Y-54.8 Z0.913 I0.913 J0
X-67.177 Y-54.8 Z0.825 I-0.913 J0
X-65.352 Y-54.8 Z0.738 I0.913 J0
X-67.177 Y-54.8 Z0.651 I-0.913 J0
X-65.352 Y-54.8 Z0.563 I0.913 J0
X-67.177 Y-54.8 Z0.476 I-0.913 J0
X-65.352 Y-54.8 Z0.389 I0.913 J0
X-67.177 Y-54.8 Z0.302 I-0.913 J0
X-65.352 Y-54.8 Z0.214 I0.913 J0
X-67.177 Y-54.8 Z0.127 I-0.913 J0
X-65.352 Y-54.8 Z0.04 I0.913 J0
X-67.177 Y-54.8 Z-0.048 I-0.913 J0
X-65.352 Y-54.8 Z-0.135 I0.913 J0
X-67.177 Y-54.8 Z-0.222 I-0.913 J0
X-65.352 Y-54.8 Z-0.31 I0.913 J0
X-67.177 Y-54.8 Z-0.397 I-0.913 J0
X-65.352 Y-54.8 Z-0.484 I0.913 J0
X-67.177 Y-54.8 Z-0.571 I-0.913 J0
X-65.352 Y-54.8 Z-0.659 I0.913 J0
X-67.177 Y-54.8 Z-0.746 I-0.913 J0
X-65.352 Y-54.8 Z-0.833 I0.913 J0
X-67.177 Y-54.8 Z-0.921 I-0.913 J0
X-65.352 Y-54.8 Z-1.008 I0.913 J0
X-67.177 Y-54.8 Z-1.095 I-0.913 J0
X-65.352 Y-54.8 Z-1.183 I0.913 J0
X-67.177 Y-54.8 Z-1.27 I-0.913 J0
X-65.352 Y-54.8 Z-1.357 I0.913 J0
X-67.177 Y-54.8 Z-1.444 I-0.913 J0
X-65.352 Y-54.8 Z-1.532 I0.913 J0
X-67.177 Y-54.8 Z-1.619 I-0.913 J0
X-65.352 Y-54.8 Z-1.706 I0.913 J0
X-67.177 Y-54.8 Z-1.794 I-0.913 J0
X-65.352 Y-54.8 Z-1.881 I0.913 J0
X-67.177 Y-54.8 Z-1.968 I-0.913 J0
X-65.352 Y-54.8 Z-2.056 I0.913 J0
X-67.177 Y-54.8 Z-2.143 I-0.913 J0
X-65.352 Y-54.8 Z-2.23 I0.913 J0
X-67.177 Y-54.8 Z-2.317 I-0.913 J0
X-65.352 Y-54.8 Z-2.405 I0.913 J0
X-67.177 Y-54.8 Z-2.492 I-0.913 J0
X-65.352 Y-54.8 Z-2.579 I0.913 J0
X-67.177 Y-54.8 Z-2.667 I-0.913 J0
X-65.352 Y-54.8 Z-2.754 I0.913 J0
X-67.177 Y-54.8 Z-2.841 I-0.913 J0
X-65.352 Y-54.8 Z-2.929 I0.913 J0
X-67.177 Y-54.8 Z-3.016 I-0.913 J0
X-65.352 Y-54.8 Z-3.103 I0.913 J0
X-67.177 Y-54.8 Z-3.19 I-0.912 J0
X-65.352 Y-54.8 Z-3.278 I0.912 J0
X-67.177 Y-54.8 Z-3.365 I-0.912 J0
X-65.352 Y-54.8 Z-3.452 I0.912 J0
X-67.177 Y-54.8 Z-3.54 I-0.912 J0
X-65.352 Y-54.8 Z-3.627 I0.912 J0
X-67.177 Y-54.8 Z-3.714 I-0.912 J0
X-65.352 Y-54.8 Z-3.802 I0.912 J0
X-67.177 Y-54.8 Z-3.889 I-0.912 J0
X-65.352 Y-54.8 Z-3.976 I0.912 J0
X-67.177 Y-54.8 Z-4.064 I-0.912 J0
X-65.352 Y-54.8 Z-4.151 I0.912 J0
X-67.177 Y-54.8 Z-4.238 I-0.912 J0
X-65.707 Y-55.523 Z-4.3 I0.912 J0
X-66.821 Y-54.077 I-0.557 J0.723
X-65.707 Y-55.523 I0.557 J-0.723
X-65.65 Y-55.078 I-0.194 J0.252
G1 X-65.746 Y-54.952
X-65.789 Y-54.896 Z-4.292
X-65.83 Y-54.843 Z-4.269
X-65.867 Y-54.795 Z-4.231
X-65.898 Y-54.755 Z-4.18
X-65.921 Y-54.725 Z-4.12
X-65.935 Y-54.707 Z-4.053
X-65.94 Y-54.7 Z-3.983
Z5
X-51.074 Y-43.203
Z2.682
Z1
X-51.233
X-51.264 Y-43.209
X-51.291 Y-43.227
X-51.308 Y-43.253
X-51.314 Y-43.284
G3 X-50.989 Y-43.284 Z0.939 I0.163 J0
X-51.314 Y-43.284 Z0.878 I-0.163 J0
X-50.989 Y-43.284 Z0.817 I0.163 J0
X-51.314 Y-43.284 Z0.756 I-0.163 J0
X-50.989 Y-43.284 Z0.694 I0.163 J0
X-51.314 Y-43.284 Z0.633 I-0.163 J0
X-50.989 Y-43.284 Z0.572 I0.163 J0
X-51.314 Y-43.284 Z0.511 I-0.163 J0
X-50.989 Y-43.284 Z0.45 I0.163 J0
X-51.314 Y-43.284 Z0.389 I-0.163 J0
X-50.989 Y-43.284 Z0.328 I0.163 J0
X-51.314 Y-43.284 Z0.267 I-0.163 J0
X-50.989 Y-43.284 Z0.206 I0.163 J0
X-51.314 Y-43.284 Z0.144 I-0.163 J0
X-50.989 Y-43.284 Z0.083 I0.163 J0
X-51.314 Y-43.284 Z0.022 I-0.163 J0
X-50.989 Y-43.284 Z-0.039 I0.163 J0
X-51.314 Y-43.284 Z-0.1 I-0.163 J0
X-50.989 Y-43.284 Z-0.161 I0.163 J0
X-51.314 Y-43.284 Z-0.222 I-0.163 J0
X-50.989 Y-43.284 Z-0.283 I0.163 J0
X-51.314 Y-43.284 Z-0.344 I-0.163 J0
X-50.989 Y-43.284 Z-0.406 I0.163 J0
X-51.314 Y-43.284 Z-0.467 I-0.163 J0
X-50.989 Y-43.284 Z-0.528 I0.163 J0
X-51.314 Y-43.284 Z-0.589 I-0.163 J0
X-50.989 Y-43.284 Z-0.65 I0.163 J0
X-51.314 Y-43.284 Z-0.711 I-0.163 J0
X-50.989 Y-43.284 Z-0.772 I0.163 J0
X-51.314 Y-43.284 Z-0.833 I-0.163 J0
X-50.989 Y-43.284 Z-0.894 I0.163 J0
X-51.314 Y-43.284 Z-0.956 I-0.163 J0
X-50.989 Y-43.284 Z-1.017 I0.163 J0
X-51.314 Y-43.284 Z-1.078 I-0.163 J0
X-50.989 Y-43.284 Z-1.139 I0.163 J0
X-51.314 Y-43.284 Z-1.2 I-0.163 J0
X-50.989 Y-43.284 Z-1.261 I0.163 J0
X-51.314 Y-43.284 Z-1.322 I-0.163 J0
X-50.989 Y-43.284 Z-1.383 I0.163 J0
X-51.314 Y-43.284 Z-1.444 I-0.163 J0
X-50.989 Y-43.284 Z-1.506 I0.163 J0
X-51.314 Y-43.284 Z-1.567 I-0.163 J0
X-50.989 Y-43.284 Z-1.628 I0.163 J0
X-51.314 Y-43.284 Z-1.689 I-0.163 J0
X-50.989 Y-43.284 Z-1.75 I0.163 J0
X-51.314 Y-43.284 Z-1.811 I-0.163 J0
X-50.989 Y-43.284 Z-1.872 I0.163 J0
X-51.314 Y-43.284 Z-1.933 I-0.163 J0
X-50.989 Y-43.284 Z-1.994 I0.163 J0
X-51.314 Y-43.284 Z-2.056 I-0.163 J0
X-50.989 Y-43.284 Z-2.117 I0.163 J0
X-51.314 Y-43.284 Z-2.178 I-0.163 J0
X-50.989 Y-43.284 Z-2.239 I0.163 J0
X-51.314 Y-43.284 Z-2.3 I-0.163 J0
X-50.989 Y-43.284 Z-2.361 I0.163 J0
X-51.314 Y-43.284 Z-2.422 I-0.163 J0
X-50.989 Y-43.284 Z-2.483 I0.163 J0
X-51.314 Y-43.284 Z-2.544 I-0.163 J0
X-50.989 Y-43.284 Z-2.606 I0.163 J0
X-51.314 Y-43.284 Z-2.667 I-0.163 J0
X-50.989 Y-43.284 Z-2.728 I0.163 J0
X-51.314 Y-43.284 Z-2.789 I-0.163 J0
X-50.989 Y-43.284 Z-2.85 I0.163 J0
X-51.314 Y-43.284 Z-2.911 I-0.163 J0
X-50.989 Y-43.284 Z-2.972 I0.163 J0
X-51.314 Y-43.284 Z-3.033 I-0.163 J0
X-50.989 Y-43.284 Z-3.094 I0.163 J0
X-51.314 Y-43.284 Z-3.156 I-0.163 J0
X-50.989 Y-43.284 Z-3.217 I0.163 J0
X-51.314 Y-43.284 Z-3.278 I-0.163 J0
X-50.989 Y-43.284 Z-3.339 I0.163 J0
X-51.314 Y-43.284 Z-3.4 I-0.163 J0
X-50.989 Y-43.284 Z-3.461 I0.162 J0
X-51.314 Y-43.284 Z-3.522 I-0.162 J0
X-50.989 Y-43.284 Z-3.583 I0.162 J0
X-51.314 Y-43.284 Z-3.644 I-0.162 J0
X-50.989 Y-43.284 Z-3.706 I0.162 J0
X-51.314 Y-43.284 Z-3.767 I-0.162 J0
X-50.989 Y-43.284 Z-3.828 I0.162 J0
X-51.314 Y-43.284 Z-3.889 I-0.162 J0
X-50.989 Y-43.284 Z-3.95 I0.162 J0
X-51.314 Y-43.284 Z-4.011 I-0.162 J0
X-50.989 Y-43.284 Z-4.072 I0.162 J0
X-51.314 Y-43.284 Z-4.133 I-0.162 J0
X-50.989 Y-43.284 Z-4.194 I0.162 J0
X-51.314 Y-43.284 Z-4.256 I-0.162 J0
X-51.046 Y-43.407 Z-4.3 I0.162 J0
X-51.258 Y-43.161 I-0.106 J0.123
X-51.046 Y-43.407 I0.106 J-0.123
G1 X-51.026 Y-43.382
X-51.018 Y-43.351
X-51.022 Y-43.32
X-51.037 Y-43.292
X-51.141 Y-43.172
Z5
X-7.923 Y-54.719
Z2.682
Z1
X-8.081
X-8.112 Y-54.725
X-8.139 Y-54.743
X-8.156 Y-54.769
X-8.163 Y-54.8
G3 X-7.837 Y-54.8 Z0.939 I0.163 J0
X-8.163 Y-54.8 Z0.878 I-0.163 J0
X-7.837 Y-54.8 Z0.817 I0.163 J0
X-8.163 Y-54.8 Z0.756 I-0.163 J0
X-7.837 Y-54.8 Z0.694 I0.163 J0
X-8.163 Y-54.8 Z0.633 I-0.163 J0
X-7.837 Y-54.8 Z0.572 I0.163 J0
X-8.163 Y-54.8 Z0.511 I-0.163 J0
X-7.837 Y-54.8 Z0.45 I0.163 J0
X-8.163 Y-54.8 Z0.389 I-0.163 J0
X-7.837 Y-54.8 Z0.328 I0.163 J0
X-8.163 Y-54.8 Z0.267 I-0.163 J0
X-7.837 Y-54.8 Z0.206 I0.163 J0
X-8.163 Y-54.8 Z0.144 I-0.163 J0
X-7.837 Y-54.8 Z0.083 I0.163 J0
X-8.163 Y-54.8 Z0.022 I-0.163 J0
X-7.837 Y-54.8 Z-0.039 I0.163 J0
X-8.163 Y-54.8 Z-0.1 I-0.163 J0
X-7.837 Y-54.8 Z-0.161 I0.163 J0
X-8.163 Y-54.8 Z-0.222 I-0.163 J0
X-7.837 Y-54.8 Z-0.283 I0.163 J0
X-8.163 Y-54.8 Z-0.344 I-0.163 J0
X-7.837 Y-54.8 Z-0.406 I0.163 J0
X-8.163 Y-54.8 Z-0.467 I-0.163 J0
X-7.837 Y-54.8 Z-0.528 I0.163 J0
X-8.163 Y-54.8 Z-0.589 I-0.163 J0
X-7.837 Y-54.8 Z-0.65 I0.163 J0
X-8.163 Y-54.8 Z-0.711 I-0.163 J0
X-7.837 Y-54.8 Z-0.772 I0.163 J0
X-8.163 Y-54.8 Z-0.833 I-0.163 J0
X-7.837 Y-54.8 Z-0.894 I0.163 J0
X-8.163 Y-54.8 Z-0.956 I-0.163 J0
X-7.837 Y-54.8 Z-1.017 I0.163 J0
X-8.163 Y-54.8 Z-1.078 I-0.163 J0
X-7.837 Y-54.8 Z-1.139 I0.163 J0
X-8.163 Y-54.8 Z-1.2 I-0.163 J0
X-7.837 Y-54.8 Z-1.261 I0.163 J0
X-8.163 Y-54.8 Z-1.322 I-0.163 J0
X-7.837 Y-54.8 Z-1.383 I0.163 J0
X-8.163 Y-54.8 Z-1.444 I-0.163 J0
X-7.837 Y-54.8 Z-1.506 I0.163 J0
X-8.163 Y-54.8 Z-1.567 I-0.163 J0
X-7.837 Y-54.8 Z-1.628 I0.163 J0
X-8.163 Y-54.8 Z-1.689 I-0.163 J0
X-7.837 Y-54.8 Z-1.75 I0.163 J0
X-8.163 Y-54.8 Z-1.811 I-0.163 J0
X-7.837 Y-54.8 Z-1.872 I0.163 J0
X-8.163 Y-54.8 Z-1.933 I-0.163 J0
X-7.837 Y-54.8 Z-1.994 I0.163 J0
X-8.163 Y-54.8 Z-2.056 I-0.163 J0
X-7.837 Y-54.8 Z-2.117 I0.163 J0
X-8.163 Y-54.8 Z-2.178 I-0.163 J0
X-7.837 Y-54.8 Z-2.239 I0.163 J0
X-8.163 Y-54.8 Z-2.3 I-0.163 J0
X-7.837 Y-54.8 Z-2.361 I0.163 J0
X-8.163 Y-54.8 Z-2.422 I-0.163 J0
X-7.837 Y-54.8 Z-2.483 I0.163 J0
X-8.163 Y-54.8 Z-2.544 I-0.163 J0
X-7.837 Y-54.8 Z-2.606 I0.163 J0
X-8.163 Y-54.8 Z-2.667 I-0.163 J0
X-7.837 Y-54.8 Z-2.728 I0.163 J0
X-8.163 Y-54.8 Z-2.789 I-0.163 J0
X-7.837 Y-54.8 Z-2.85 I0.163 J0
X-8.163 Y-54.8 Z-2.911 I-0.163 J0
X-7.837 Y-54.8 Z-2.972 I0.163 J0
X-8.163 Y-54.8 Z-3.033 I-0.163 J0
X-7.837 Y-54.8 Z-3.094 I0.163 J0
X-8.163 Y-54.8 Z-3.156 I-0.163 J0
X-7.837 Y-54.8 Z-3.217 I0.163 J0
X-8.163 Y-54.8 Z-3.278 I-0.163 J0
X-7.837 Y-54.8 Z-3.339 I0.163 J0
X-8.163 Y-54.8 Z-3.4 I-0.163 J0
X-7.837 Y-54.8 Z-3.461 I0.163 J0
X-8.163 Y-54.8 Z-3.522 I-0.163 J0
X-7.837 Y-54.8 Z-3.583 I0.163 J0
X-8.163 Y-54.8 Z-3.644 I-0.163 J0
X-7.837 Y-54.8 Z-3.706 I0.163 J0
X-8.163 Y-54.8 Z-3.767 I-0.163 J0
X-7.837 Y-54.8 Z-3.828 I0.163 J0
X-8.163 Y-54.8 Z-3.889 I-0.163 J0
X-7.837 Y-54.8 Z-3.95 I0.163 J0
X-8.163 Y-54.8 Z-4.011 I-0.163 J0
X-7.837 Y-54.8 Z-4.072 I0.163 J0
X-8.163 Y-54.8 Z-4.133 I-0.163 J0
X-7.837 Y-54.8 Z-4.194 I0.163 J0
X-8.163 Y-54.8 Z-4.256 I-0.163 J0
X-7.894 Y-54.923 Z-4.3 I0.163 J0
X-8.106 Y-54.677 I-0.106 J0.123
X-7.894 Y-54.923 I0.106 J-0.123
G1 X-7.874 Y-54.898
X-7.866 Y-54.867
X-7.87 Y-54.836
X-7.885 Y-54.808
X-7.989 Y-54.688
Z5
X-99.901 Y-7.919
Z2.682
Z1
X-100.06
X-100.091 Y-7.925
X-100.117 Y-7.943
X-100.135 Y-7.969
X-100.141 Y-8
G3 X-99.816 Y-8 Z0.939 I0.162 J0
X-100.141 Y-8 Z0.878 I-0.162 J0
X-99.816 Y-8 Z0.817 I0.162 J0
X-100.141 Y-8 Z0.756 I-0.162 J0
X-99.816 Y-8 Z0.694 I0.162 J0
X-100.141 Y-8 Z0.633 I-0.162 J0
X-99.816 Y-8 Z0.572 I0.162 J0
X-100.141 Y-8 Z0.511 I-0.162 J0
X-99.816 Y-8 Z0.45 I0.162 J0
X-100.141 Y-8 Z0.389 I-0.162 J0
X-99.816 Y-8 Z0.328 I0.162 J0
X-100.141 Y-8 Z0.267 I-0.162 J0
X-99.816 Y-8 Z0.206 I0.162 J0
X-100.141 Y-8 Z0.144 I-0.162 J0
X-99.816 Y-8 Z0.083 I0.162 J0
X-100.141 Y-8 Z0.022 I-0.162 J0
X-99.816 Y-8 Z-0.039 I0.162 J0
X-100.141 Y-8 Z-0.1 I-0.162 J0
X-99.816 Y-8 Z-0.161 I0.162 J0
X-100.141 Y-8 Z-0.222 I-0.162 J0
X-99.816 Y-8 Z-0.283 I0.162 J0
X-100.141 Y-8 Z-0.344 I-0.162 J0
X-99.816 Y-8 Z-0.406 I0.162 J0
X-100.141 Y-8 Z-0.467 I-0.162 J0
X-99.816 Y-8 Z-0.528 I0.162 J0
X-100.141 Y-8 Z-0.589 I-0.162 J0
X-99.816 Y-8 Z-0.65 I0.162 J0
X-100.141 Y-8 Z-0.711 I-0.162 J0
X-99.816 Y-8 Z-0.772 I0.162 J0
X-100.141 Y-8 Z-0.833 I-0.162 J0
X-99.816 Y-8 Z-0.894 I0.162 J0
X-100.141 Y-8 Z-0.956 I-0.162 J0
X-99.816 Y-8 Z-1.017 I0.162 J0
X-100.141 Y-8 Z-1.078 I-0.162 J0
X-99.816 Y-8 Z-1.139 I0.162 J0
X-100.141 Y-8 Z-1.2 I-0.162 J0
X-99.816 Y-8 Z-1.261 I0.162 J0
X-100.141 Y-8 Z-1.322 I-0.162 J0
X-99.816 Y-8 Z-1.383 I0.162 J0
X-100.141 Y-8 Z-1.444 I-0.162 J0
X-99.816 Y-8 Z-1.506 I0.162 J0
X-100.141 Y-8 Z-1.567 I-0.162 J0
X-99.816 Y-8 Z-1.628 I0.162 J0
X-100.141 Y-8 Z-1.689 I-0.162 J0
X-99.816 Y-8 Z-1.75 I0.162 J0
X-100.141 Y-8 Z-1.811 I-0.162 J0
X-99.816 Y-8 Z-1.872 I0.162 J0
X-100.141 Y-8 Z-1.933 I-0.162 J0
X-99.816 Y-8 Z-1.994 I0.162 J0
X-100.141 Y-8 Z-2.056 I-0.162 J0
X-99.816 Y-8 Z-2.117 I0.162 J0
X-100.141 Y-8 Z-2.178 I-0.162 J0
X-99.816 Y-8 Z-2.239 I0.162 J0
X-100.141 Y-8 Z-2.3 I-0.162 J0
X-99.816 Y-8 Z-2.361 I0.162 J0
X-100.141 Y-8 Z-2.422 I-0.162 J0
X-99.816 Y-8 Z-2.483 I0.162 J0
X-100.141 Y-8 Z-2.544 I-0.162 J0
X-99.816 Y-8 Z-2.606 I0.162 J0
X-100.141 Y-8 Z-2.667 I-0.162 J0
X-99.816 Y-8 Z-2.728 I0.162 J0
X-100.141 Y-8 Z-2.789 I-0.162 J0
X-99.816 Y-8 Z-2.85 I0.162 J0
X-100.141 Y-8 Z-2.911 I-0.162 J0
X-99.816 Y-8 Z-2.972 I0.162 J0
X-100.141 Y-8 Z-3.033 I-0.162 J0
X-99.816 Y-8 Z-3.094 I0.162 J0
X-100.141 Y-8 Z-3.156 I-0.162 J0
X-99.816 Y-8 Z-3.217 I0.162 J0
X-100.141 Y-8 Z-3.278 I-0.162 J0
X-99.816 Y-8 Z-3.339 I0.162 J0
X-100.141 Y-8 Z-3.4 I-0.162 J0
X-99.816 Y-8 Z-3.461 I0.162 J0
X-100.141 Y-8 Z-3.522 I-0.162 J0
X-99.816 Y-8 Z-3.583 I0.162 J0
X-100.141 Y-8 Z-3.644 I-0.162 J0
X-99.816 Y-8 Z-3.706 I0.162 J0
X-100.141 Y-8 Z-3.767 I-0.162 J0
X-99.816 Y-8 Z-3.828 I0.162 J0
X-100.141 Y-8 Z-3.889 I-0.162 J0
X-99.816 Y-8 Z-3.95 I0.162 J0
X-100.141 Y-8 Z-4.011 I-0.162 J0
X-99.816 Y-8 Z-4.072 I0.162 J0
X-100.141 Y-8 Z-4.133 I-0.162 J0
X-99.816 Y-8 Z-4.194 I0.162 J0
X-100.141 Y-8 Z-4.256 I-0.162 J0
X-99.872 Y-8.123 Z-4.3 I0.162 J0
X-100.085 Y-7.877 I-0.106 J0.123
X-99.872 Y-8.123 I0.106 J-0.123
G1 X-99.853 Y-8.098
X-99.844 Y-8.067
X-99.848 Y-8.036
X-99.864 Y-8.008
X-99.968 Y-7.888
Z5
X-125.142 Y-9.081
Z2.682
Z1
X-124.983
X-124.952 Y-9.075
X-124.925 Y-9.057
X-124.908 Y-9.031
X-124.902 Y-9
G3 X-125.227 Y-9 Z0.939 I-0.162 J0
X-124.902 Y-9 Z0.878 I0.162 J0
X-125.227 Y-9 Z0.817 I-0.162 J0
X-124.902 Y-9 Z0.756 I0.162 J0
X-125.227 Y-9 Z0.694 I-0.162 J0
X-124.902 Y-9 Z0.633 I0.162 J0
X-125.227 Y-9 Z0.572 I-0.162 J0
X-124.902 Y-9 Z0.511 I0.162 J0
X-125.227 Y-9 Z0.45 I-0.162 J0
X-124.902 Y-9 Z0.389 I0.162 J0
X-125.227 Y-9 Z0.328 I-0.162 J0
X-124.902 Y-9 Z0.267 I0.162 J0
X-125.227 Y-9 Z0.206 I-0.162 J0
X-124.902 Y-9 Z0.144 I0.162 J0
X-125.227 Y-9 Z0.083 I-0.162 J0
X-124.902 Y-9 Z0.022 I0.162 J0
X-125.227 Y-9 Z-0.039 I-0.162 J0
X-124.902 Y-9 Z-0.1 I0.162 J0
X-125.227 Y-9 Z-0.161 I-0.162 J0
X-124.902 Y-9 Z-0.222 I0.162 J0
X-125.227 Y-9 Z-0.283 I-0.162 J0
X-124.902 Y-9 Z-0.344 I0.162 J0
X-125.227 Y-9 Z-0.406 I-0.162 J0
X-124.902 Y-9 Z-0.467 I0.162 J0
X-125.227 Y-9 Z-0.528 I-0.162 J0
X-124.902 Y-9 Z-0.589 I0.162 J0
X-125.227 Y-9 Z-0.65 I-0.162 J0
X-124.902 Y-9 Z-0.711 I0.162 J0
X-125.227 Y-9 Z-0.772 I-0.162 J0
X-124.902 Y-9 Z-0.833 I0.162 J0
X-125.227 Y-9 Z-0.894 I-0.162 J0
X-124.902 Y-9 Z-0.956 I0.162 J0
X-125.227 Y-9 Z-1.017 I-0.162 J0
X-124.902 Y-9 Z-1.078 I0.162 J0
X-125.227 Y-9 Z-1.139 I-0.162 J0
X-124.902 Y-9 Z-1.2 I0.162 J0
X-125.227 Y-9 Z-1.261 I-0.162 J0
X-124.902 Y-9 Z-1.322 I0.162 J0
X-125.227 Y-9 Z-1.383 I-0.162 J0
X-124.902 Y-9 Z-1.444 I0.162 J0
X-125.227 Y-9 Z-1.506 I-0.162 J0
X-124.902 Y-9 Z-1.567 I0.162 J0
X-125.227 Y-9 Z-1.628 I-0.162 J0
X-124.902 Y-9 Z-1.689 I0.162 J0
X-125.227 Y-9 Z-1.75 I-0.162 J0
X-124.902 Y-9 Z-1.811 I0.162 J0
X-125.227 Y-9 Z-1.872 I-0.162 J0
X-124.902 Y-9 Z-1.933 I0.162 J0
X-125.227 Y-9 Z-1.994 I-0.162 J0
X-124.902 Y-9 Z-2.056 I0.162 J0
X-125.227 Y-9 Z-2.117 I-0.162 J0
X-124.902 Y-9 Z-2.178 I0.162 J0
X-125.227 Y-9 Z-2.239 I-0.162 J0
X-124.902 Y-9 Z-2.3 I0.162 J0
X-125.227 Y-9 Z-2.361 I-0.162 J0
X-124.902 Y-9 Z-2.422 I0.162 J0
X-125.227 Y-9 Z-2.483 I-0.162 J0
X-124.902 Y-9 Z-2.544 I0.162 J0
X-125.227 Y-9 Z-2.606 I-0.162 J0
X-124.902 Y-9 Z-2.667 I0.162 J0
X-125.227 Y-9 Z-2.728 I-0.162 J0
X-124.902 Y-9 Z-2.789 I0.162 J0
X-125.227 Y-9 Z-2.85 I-0.162 J0
X-124.902 Y-9 Z-2.911 I0.162 J0
X-125.227 Y-9 Z-2.972 I-0.162 J0
X-124.902 Y-9 Z-3.033 I0.162 J0
X-125.227 Y-9 Z-3.094 I-0.162 J0
X-124.902 Y-9 Z-3.156 I0.162 J0
X-125.227 Y-9 Z-3.217 I-0.162 J0
X-124.902 Y-9 Z-3.278 I0.162 J0
X-125.227 Y-9 Z-3.339 I-0.162 J0
X-124.902 Y-9 Z-3.4 I0.162 J0
X-125.227 Y-9 Z-3.461 I-0.162 J0
X-124.902 Y-9 Z-3.522 I0.162 J0
X-125.227 Y-9 Z-3.583 I-0.162 J0
X-124.902 Y-9 Z-3.644 I0.162 J0
X-125.227 Y-9 Z-3.706 I-0.162 J0
X-124.902 Y-9 Z-3.767 I0.162 J0
X-125.227 Y-9 Z-3.828 I-0.162 J0
X-124.902 Y-9 Z-3.889 I0.162 J0
X-125.227 Y-9 Z-3.95 I-0.162 J0
X-124.902 Y-9 Z-4.011 I0.162 J0
X-125.227 Y-9 Z-4.072 I-0.162 J0
X-124.902 Y-9 Z-4.133 I0.162 J0
X-125.227 Y-9 Z-4.194 I-0.162 J0
X-124.902 Y-9 Z-4.256 I0.162 J0
X-125.17 Y-8.877 Z-4.3 I-0.162 J0
X-124.958 Y-9.123 I0.106 J-0.123
X-125.17 Y-8.877 I-0.106 J0.123
G1 X-125.19 Y-8.902
X-125.198 Y-8.933
X-125.194 Y-8.964
X-125.179 Y-8.992
X-125.075 Y-9.112
Z5
X-156.987 Y-8.919
Z2.682
Z1
X-157.145
X-157.176 Y-8.925
X-157.203 Y-8.943
X-157.22 Y-8.969
X-157.227 Y-9
G3 X-156.902 Y-9 Z0.939 I0.163 J0
X-157.227 Y-9 Z0.878 I-0.163 J0
X-156.902 Y-9 Z0.817 I0.163 J0
X-157.227 Y-9 Z0.756 I-0.163 J0
X-156.902 Y-9 Z0.694 I0.163 J0
X-157.227 Y-9 Z0.633 I-0.163 J0
X-156.902 Y-9 Z0.572 I0.163 J0
X-157.227 Y-9 Z0.511 I-0.163 J0
X-156.902 Y-9 Z0.45 I0.163 J0
X-157.227 Y-9 Z0.389 I-0.163 J0
X-156.902 Y-9 Z0.328 I0.163 J0
X-157.227 Y-9 Z0.267 I-0.163 J0
X-156.902 Y-9 Z0.206 I0.163 J0
X-157.227 Y-9 Z0.144 I-0.163 J0
X-156.902 Y-9 Z0.083 I0.163 J0
X-157.227 Y-9 Z0.022 I-0.163 J0
X-156.902 Y-9 Z-0.039 I0.163 J0
X-157.227 Y-9 Z-0.1 I-0.163 J0
X-156.902 Y-9 Z-0.161 I0.163 J0
X-157.227 Y-9 Z-0.222 I-0.163 J0
X-156.902 Y-9 Z-0.283 I0.163 J0
X-157.227 Y-9 Z-0.344 I-0.163 J0
X-156.902 Y-9 Z-0.406 I0.163 J0
X-157.227 Y-9 Z-0.467 I-0.163 J0
X-156.902 Y-9 Z-0.528 I0.163 J0
X-157.227 Y-9 Z-0.589 I-0.163 J0
X-156.902 Y-9 Z-0.65 I0.163 J0
X-157.227 Y-9 Z-0.711 I-0.163 J0
X-156.902 Y-9 Z-0.772 I0.163 J0
X-157.227 Y-9 Z-0.833 I-0.163 J0
X-156.902 Y-9 Z-0.894 I0.163 J0
X-157.227 Y-9 Z-0.956 I-0.163 J0
X-156.902 Y-9 Z-1.017 I0.163 J0
X-157.227 Y-9 Z-1.078 I-0.163 J0
X-156.902 Y-9 Z-1.139 I0.163 J0
X-157.227 Y-9 Z-1.2 I-0.163 J0
X-156.902 Y-9 Z-1.261 I0.163 J0
X-157.227 Y-9 Z-1.322 I-0.163 J0
X-156.902 Y-9 Z-1.383 I0.163 J0
X-157.227 Y-9 Z-1.444 I-0.163 J0
X-156.902 Y-9 Z-1.506 I0.163 J0
X-157.227 Y-9 Z-1.567 I-0.163 J0
X-156.902 Y-9 Z-1.628 I0.163 J0
X-157.227 Y-9 Z-1.689 I-0.163 J0
X-156.902 Y-9 Z-1.75 I0.163 J0
X-157.227 Y-9 Z-1.811 I-0.163 J0
X-156.902 Y-9 Z-1.872 I0.163 J0
X-157.227 Y-9 Z-1.933 I-0.163 J0
X-156.902 Y-9 Z-1.994 I0.163 J0
X-157.227 Y-9 Z-2.056 I-0.163 J0
X-156.902 Y-9 Z-2.117 I0.163 J0
X-157.227 Y-9 Z-2.178 I-0.163 J0
X-156.902 Y-9 Z-2.239 I0.163 J0
X-157.227 Y-9 Z-2.3 I-0.163 J0
X-156.902 Y-9 Z-2.361 I0.163 J0
X-157.227 Y-9 Z-2.422 I-0.163 J0
X-156.902 Y-9 Z-2.483 I0.163 J0
X-157.227 Y-9 Z-2.544 I-0.163 J0
X-156.902 Y-9 Z-2.606 I0.163 J0
X-157.227 Y-9 Z-2.667 I-0.163 J0
X-156.902 Y-9 Z-2.728 I0.163 J0
X-157.227 Y-9 Z-2.789 I-0.163 J0
X-156.902 Y-9 Z-2.85 I0.163 J0
X-157.227 Y-9 Z-2.911 I-0.163 J0
X-156.902 Y-9 Z-2.972 I0.163 J0
X-157.227 Y-9 Z-3.033 I-0.163 J0
X-156.902 Y-9 Z-3.094 I0.163 J0
X-157.227 Y-9 Z-3.156 I-0.163 J0
X-156.902 Y-9 Z-3.217 I0.163 J0
X-157.227 Y-9 Z-3.278 I-0.163 J0
X-156.902 Y-9 Z-3.339 I0.163 J0
X-157.227 Y-9 Z-3.4 I-0.163 J0
X-156.902 Y-9 Z-3.461 I0.163 J0
X-157.227 Y-9 Z-3.522 I-0.163 J0
X-156.902 Y-9 Z-3.583 I0.163 J0
X-157.227 Y-9 Z-3.644 I-0.163 J0
X-156.902 Y-9 Z-3.706 I0.163 J0
X-157.227 Y-9 Z-3.767 I-0.163 J0
X-156.902 Y-9 Z-3.828 I0.163 J0
X-157.227 Y-9 Z-3.889 I-0.163 J0
X-156.902 Y-9 Z-3.95 I0.163 J0
X-157.227 Y-9 Z-4.011 I-0.163 J0
X-156.902 Y-9 Z-4.072 I0.163 J0
X-157.227 Y-9 Z-4.133 I-0.163 J0
X-156.902 Y-9 Z-4.194 I0.163 J0
X-157.227 Y-9 Z-4.256 I-0.163 J0
X-156.958 Y-9.123 Z-4.3 I0.163 J0
X-157.17 Y-8.877 I-0.106 J0.123
X-156.958 Y-9.123 I0.106 J-0.123
G1 X-156.938 Y-9.098
X-156.93 Y-9.067
X-156.934 Y-9.036
X-156.949 Y-9.008
X-157.053 Y-8.888
Z5
X-182.227 Y-8.081
Z2.682
Z1
X-182.068
X-182.037 Y-8.075
X-182.011 Y-8.057
X-181.993 Y-8.031
X-181.987 Y-8
G3 X-182.312 Y-8 Z0.939 I-0.163 J0
X-181.987 Y-8 Z0.878 I0.163 J0
X-182.312 Y-8 Z0.817 I-0.163 J0
X-181.987 Y-8 Z0.756 I0.163 J0
X-182.312 Y-8 Z0.694 I-0.163 J0
X-181.987 Y-8 Z0.633 I0.163 J0
X-182.312 Y-8 Z0.572 I-0.163 J0
X-181.987 Y-8 Z0.511 I0.163 J0
X-182.312 Y-8 Z0.45 I-0.163 J0
X-181.987 Y-8 Z0.389 I0.163 J0
X-182.312 Y-8 Z0.328 I-0.163 J0
X-181.987 Y-8 Z0.267 I0.163 J0
X-182.312 Y-8 Z0.206 I-0.163 J0
X-181.987 Y-8 Z0.144 I0.163 J0
X-182.312 Y-8 Z0.083 I-0.163 J0
X-181.987 Y-8 Z0.022 I0.163 J0
X-182.312 Y-8 Z-0.039 I-0.163 J0
X-181.987 Y-8 Z-0.1 I0.163 J0
X-182.312 Y-8 Z-0.161 I-0.163 J0
X-181.987 Y-8 Z-0.222 I0.163 J0
X-182.312 Y-8 Z-0.283 I-0.163 J0
X-181.987 Y-8 Z-0.344 I0.163 J0
X-182.312 Y-8 Z-0.406 I-0.163 J0
X-181.987 Y-8 Z-0.467 I0.163 J0
X-182.312 Y-8 Z-0.528 I-0.163 J0
X-181.987 Y-8 Z-0.589 I0.163 J0
X-182.312 Y-8 Z-0.65 I-0.163 J0
X-181.987 Y-8 Z-0.711 I0.163 J0
X-182.312 Y-8 Z-0.772 I-0.163 J0
X-181.987 Y-8 Z-0.833 I0.163 J0
X-182.312 Y-8 Z-0.894 I-0.163 J0
X-181.987 Y-8 Z-0.956 I0.163 J0
X-182.312 Y-8 Z-1.017 I-0.163 J0
X-181.987 Y-8 Z-1.078 I0.163 J0
X-182.312 Y-8 Z-1.139 I-0.163 J0
X-181.987 Y-8 Z-1.2 I0.163 J0
X-182.312 Y-8 Z-1.261 I-0.163 J0
X-181.987 Y-8 Z-1.322 I0.163 J0
X-182.312 Y-8 Z-1.383 I-0.163 J0
X-181.987 Y-8 Z-1.444 I0.163 J0
X-182.312 Y-8 Z-1.506 I-0.163 J0
X-181.987 Y-8 Z-1.567 I0.163 J0
X-182.312 Y-8 Z-1.628 I-0.163 J0
X-181.987 Y-8 Z-1.689 I0.163 J0
X-182.312 Y-8 Z-1.75 I-0.163 J0
X-181.987 Y-8 Z-1.811 I0.163 J0
X-182.312 Y-8 Z-1.872 I-0.162 J0
X-181.987 Y-8 Z-1.933 I0.162 J0
X-182.312 Y-8 Z-1.994 I-0.162 J0
X-181.987 Y-8 Z-2.056 I0.162 J0
X-182.312 Y-8 Z-2.117 I-0.162 J0
X-181.987 Y-8 Z-2.178 I0.162 J0
X-182.312 Y-8 Z-2.239 I-0.162 J0
X-181.987 Y-8 Z-2.3 I0.162 J0
X-182.312 Y-8 Z-2.361 I-0.162 J0
X-181.987 Y-8 Z-2.422 I0.162 J0
X-182.312 Y-8 Z-2.483 I-0.162 J0
X-181.987 Y-8 Z-2.544 I0.162 J0
X-182.312 Y-8 Z-2.606 I-0.162 J0
X-181.987 Y-8 Z-2.667 I0.162 J0
X-182.312 Y-8 Z-2.728 I-0.162 J0
X-181.987 Y-8 Z-2.789 I0.162 J0
X-182.312 Y-8 Z-2.85 I-0.162 J0
X-181.987 Y-8 Z-2.911 I0.162 J0
X-182.312 Y-8 Z-2.972 I-0.162 J0
X-181.987 Y-8 Z-3.033 I0.162 J0
X-182.312 Y-8 Z-3.094 I-0.162 J0
X-181.987 Y-8 Z-3.156 I0.162 J0
X-182.312 Y-8 Z-3.217 I-0.162 J0
X-181.987 Y-8 Z-3.278 I0.162 J0
X-182.312 Y-8 Z-3.339 I-0.162 J0
X-181.987 Y-8 Z-3.4 I0.162 J0
X-182.312 Y-8 Z-3.461 I-0.162 J0
X-181.987 Y-8 Z-3.522 I0.162 J0
X-182.312 Y-8 Z-3.583 I-0.162 J0
X-181.987 Y-8 Z-3.644 I0.162 J0
X-182.312 Y-8 Z-3.706 I-0.162 J0
X-181.987 Y-8 Z-3.767 I0.162 J0
X-182.312 Y-8 Z-3.828 I-0.162 J0
X-181.987 Y-8 Z-3.889 I0.162 J0
X-182.312 Y-8 Z-3.95 I-0.162 J0
X-181.987 Y-8 Z-4.011 I0.162 J0
X-182.312 Y-8 Z-4.072 I-0.162 J0
X-181.987 Y-8 Z-4.133 I0.162 J0
X-182.312 Y-8 Z-4.194 I-0.162 J0
X-181.987 Y-8 Z-4.256 I0.162 J0
X-182.256 Y-7.877 Z-4.3 I-0.162 J0
X-182.043 Y-8.123 I0.106 J-0.123
X-182.256 Y-7.877 I-0.106 J0.123
G1 X-182.275 Y-7.902
X-182.284 Y-7.933
X-182.28 Y-7.964
X-182.264 Y-7.992
X-182.16 Y-8.112
Z5
X-200.829 Y-66.397
Z2.682
Z1
X-200.671
X-200.639 Y-66.391
X-200.613 Y-66.373
X-200.596 Y-66.347
X-200.589 Y-66.316
G3 X-200.914 Y-66.316 Z0.939 I-0.163 J0
X-200.589 Y-66.316 Z0.878 I0.163 J0
X-200.914 Y-66.316 Z0.817 I-0.163 J0
X-200.589 Y-66.316 Z0.756 I0.163 J0
X-200.914 Y-66.316 Z0.694 I-0.163 J0
X-200.589 Y-66.316 Z0.633 I0.163 J0
X-200.914 Y-66.316 Z0.572 I-0.163 J0
X-200.589 Y-66.316 Z0.511 I0.163 J0
X-200.914 Y-66.316 Z0.45 I-0.163 J0
X-200.589 Y-66.316 Z0.389 I0.163 J0
X-200.914 Y-66.316 Z0.328 I-0.163 J0
X-200.589 Y-66.316 Z0.267 I0.163 J0
X-200.914 Y-66.316 Z0.206 I-0.163 J0
X-200.589 Y-66.316 Z0.144 I0.163 J0
X-200.914 Y-66.316 Z0.083 I-0.163 J0
X-200.589 Y-66.316 Z0.022 I0.163 J0
X-200.914 Y-66.316 Z-0.039 I-0.163 J0
X-200.589 Y-66.316 Z-0.1 I0.163 J0
X-200.914 Y-66.316 Z-0.161 I-0.163 J0
X-200.589 Y-66.316 Z-0.222 I0.163 J0
X-200.914 Y-66.316 Z-0.283 I-0.163 J0
X-200.589 Y-66.316 Z-0.344 I0.163 J0
X-200.914 Y-66.316 Z-0.406 I-0.163 J0
X-200.589 Y-66.316 Z-0.467 I0.163 J0
X-200.914 Y-66.316 Z-0.528 I-0.163 J0
X-200.589 Y-66.316 Z-0.589 I0.163 J0
X-200.914 Y-66.316 Z-0.65 I-0.163 J0
X-200.589 Y-66.316 Z-0.711 I0.163 J0
X-200.914 Y-66.316 Z-0.772 I-0.163 J0
X-200.589 Y-66.316 Z-0.833 I0.163 J0
X-200.914 Y-66.316 Z-0.894 I-0.163 J0
X-200.589 Y-66.316 Z-0.956 I0.163 J0
X-200.914 Y-66.316 Z-1.017 I-0.163 J0
X-200.589 Y-66.316 Z-1.078 I0.163 J0
X-200.914 Y-66.316 Z-1.139 I-0.163 J0
X-200.589 Y-66.316 Z-1.2 I0.163 J0
X-200.914 Y-66.316 Z-1.261 I-0.163 J0
X-200.589 Y-66.316 Z-1.322 I0.163 J0
X-200.914 Y-66.316 Z-1.383 I-0.163 J0
X-200.589 Y-66.316 Z-1.444 I0.163 J0
X-200.914 Y-66.316 Z-1.506 I-0.163 J0
X-200.589 Y-66.316 Z-1.567 I0.163 J0
X-200.914 Y-66.316 Z-1.628 I-0.163 J0
X-200.589 Y-66.316 Z-1.689 I0.163 J0
X-200.914 Y-66.316 Z-1.75 I-0.163 J0
X-200.589 Y-66.316 Z-1.811 I0.163 J0
X-200.914 Y-66.316 Z-1.872 I-0.163 J0
X-200.589 Y-66.316 Z-1.933 I0.163 J0
X-200.914 Y-66.316 Z-1.994 I-0.163 J0
X-200.589 Y-66.316 Z-2.056 I0.163 J0
X-200.914 Y-66.316 Z-2.117 I-0.163 J0
X-200.589 Y-66.316 Z-2.178 I0.163 J0
X-200.914 Y-66.316 Z-2.239 I-0.163 J0
X-200.589 Y-66.316 Z-2.3 I0.163 J0
X-200.914 Y-66.316 Z-2.361 I-0.163 J0
X-200.589 Y-66.316 Z-2.422 I0.163 J0
X-200.914 Y-66.316 Z-2.483 I-0.163 J0
X-200.589 Y-66.316 Z-2.544 I0.163 J0
X-200.914 Y-66.316 Z-2.606 I-0.163 J0
X-200.589 Y-66.316 Z-2.667 I0.163 J0
X-200.914 Y-66.316 Z-2.728 I-0.163 J0
X-200.589 Y-66.316 Z-2.789 I0.162 J0
X-200.914 Y-66.316 Z-2.85 I-0.162 J0
X-200.589 Y-66.316 Z-2.911 I0.162 J0
X-200.914 Y-66.316 Z-2.972 I-0.162 J0
X-200.589 Y-66.316 Z-3.033 I0.162 J0
X-200.914 Y-66.316 Z-3.094 I-0.162 J0
X-200.589 Y-66.316 Z-3.156 I0.162 J0
X-200.914 Y-66.316 Z-3.217 I-0.162 J0
X-200.589 Y-66.316 Z-3.278 I0.162 J0
X-200.914 Y-66.316 Z-3.339 I-0.162 J0
X-200.589 Y-66.316 Z-3.4 I0.162 J0
X-200.914 Y-66.316 Z-3.461 I-0.162 J0
X-200.589 Y-66.316 Z-3.522 I0.162 J0
X-200.914 Y-66.316 Z-3.583 I-0.162 J0
X-200.589 Y-66.316 Z-3.644 I0.162 J0
X-200.914 Y-66.316 Z-3.706 I-0.162 J0
X-200.589 Y-66.316 Z-3.767 I0.162 J0
X-200.914 Y-66.316 Z-3.828 I-0.162 J0
X-200.589 Y-66.316 Z-3.889 I0.162 J0
X-200.914 Y-66.316 Z-3.95 I-0.162 J0
X-200.589 Y-66.316 Z-4.011 I0.162 J0
X-200.914 Y-66.316 Z-4.072 I-0.162 J0
X-200.589 Y-66.316 Z-4.133 I0.162 J0
X-200.914 Y-66.316 Z-4.194 I-0.162 J0
X-200.589 Y-66.316 Z-4.256 I0.162 J0
X-200.858 Y-66.193 Z-4.3 I-0.162 J0
X-200.646 Y-66.439 I0.106 J-0.123
X-200.858 Y-66.193 I-0.106 J0.123
G1 X-200.878 Y-66.218
X-200.886 Y-66.249
X-200.882 Y-66.28
X-200.866 Y-66.308
X-200.763 Y-66.428
Z5
X-215.745 Y-55.118
Z3
Z1.317
G18 G2 X-215.428 Z1 I0.317 K0
G1 X-215.269
G17 G3 X-214.952 Y-54.8 I0 J0.318
X-216.777 Y-54.8 Z0.913 I-0.913 J0
X-214.952 Y-54.8 Z0.825 I0.913 J0
X-216.777 Y-54.8 Z0.738 I-0.913 J0
X-214.952 Y-54.8 Z0.651 I0.913 J0
X-216.777 Y-54.8 Z0.563 I-0.913 J0
X-214.952 Y-54.8 Z0.476 I0.913 J0
X-216.777 Y-54.8 Z0.389 I-0.913 J0
X-214.952 Y-54.8 Z0.302 I0.913 J0
X-216.777 Y-54.8 Z0.214 I-0.913 J0
X-214.952 Y-54.8 Z0.127 I0.913 J0
X-216.777 Y-54.8 Z0.04 I-0.913 J0
X-214.952 Y-54.8 Z-0.048 I0.913 J0
X-216.777 Y-54.8 Z-0.135 I-0.913 J0
X-214.952 Y-54.8 Z-0.222 I0.913 J0
X-216.777 Y-54.8 Z-0.31 I-0.913 J0
X-214.952 Y-54.8 Z-0.397 I0.913 J0
X-216.777 Y-54.8 Z-0.484 I-0.913 J0
X-214.952 Y-54.8 Z-0.571 I0.913 J0
X-216.777 Y-54.8 Z-0.659 I-0.913 J0
X-214.952 Y-54.8 Z-0.746 I0.913 J0
X-216.777 Y-54.8 Z-0.833 I-0.913 J0
X-214.952 Y-54.8 Z-0.921 I0.913 J0
X-216.777 Y-54.8 Z-1.008 I-0.913 J0
X-214.952 Y-54.8 Z-1.095 I0.913 J0
X-216.777 Y-54.8 Z-1.183 I-0.913 J0
X-214.952 Y-54.8 Z-1.27 I0.913 J0
X-216.777 Y-54.8 Z-1.357 I-0.913 J0
X-214.952 Y-54.8 Z-1.444 I0.913 J0
X-216.777 Y-54.8 Z-1.532 I-0.913 J0
X-214.952 Y-54.8 Z-1.619 I0.913 J0
X-216.777 Y-54.8 Z-1.706 I-0.913 J0
X-214.952 Y-54.8 Z-1.794 I0.913 J0
X-216.777 Y-54.8 Z-1.881 I-0.913 J0
X-214.952 Y-54.8 Z-1.968 I0.913 J0
X-216.777 Y-54.8 Z-2.056 I-0.913 J0
X-214.952 Y-54.8 Z-2.143 I0.913 J0
X-216.777 Y-54.8 Z-2.23 I-0.913 J0
X-214.952 Y-54.8 Z-2.317 I0.913 J0
X-216.777 Y-54.8 Z-2.405 I-0.913 J0
X-214.952 Y-54.8 Z-2.492 I0.913 J0
X-216.777 Y-54.8 Z-2.579 I-0.913 J0
X-214.952 Y-54.8 Z-2.667 I0.913 J0
X-216.777 Y-54.8 Z-2.754 I-0.913 J0
X-214.952 Y-54.8 Z-2.841 I0.913 J0
X-216.777 Y-54.8 Z-2.929 I-0.913 J0
X-214.952 Y-54.8 Z-3.016 I0.913 J0
X-216.777 Y-54.8 Z-3.103 I-0.913 J0
X-214.952 Y-54.8 Z-3.19 I0.913 J0
X-216.777 Y-54.8 Z-3.278 I-0.913 J0
X-214.952 Y-54.8 Z-3.365 I0.913 J0
X-216.777 Y-54.8 Z-3.452 I-0.913 J0
X-214.952 Y-54.8 Z-3.54 I0.913 J0
X-216.777 Y-54.8 Z-3.627 I-0.913 J0
X-214.952 Y-54.8 Z-3.714 I0.913 J0
X-216.777 Y-54.8 Z-3.802 I-0.913 J0
X-214.952 Y-54.8 Z-3.889 I0.913 J0
X-216.777 Y-54.8 Z-3.976 I-0.913 J0
X-214.952 Y-54.8 Z-4.064 I0.913 J0
X-216.777 Y-54.8 Z-4.151 I-0.912 J0
X-214.952 Y-54.8 Z-4.238 I0.912 J0
X-216.421 Y-54.077 Z-4.3 I-0.912 J0
X-215.307 Y-55.523 I0.557 J-0.723
X-216.421 Y-54.077 I-0.557 J0.723
X-216.479 Y-54.522 I0.194 J-0.252
G1 X-216.382 Y-54.648
X-216.339 Y-54.704 Z-4.292
X-216.298 Y-54.757 Z-4.269
X-216.261 Y-54.805 Z-4.231
X-216.23 Y-54.845 Z-4.18
X-216.207 Y-54.875 Z-4.12
X-216.193 Y-54.893 Z-4.053
X-216.188 Y-54.9 Z-3.983
Z5
X-231.054 Y-43.365
Z2.682
Z1
X-230.895
X-230.864 Y-43.359
X-230.838 Y-43.341
X-230.82 Y-43.315
X-230.814 Y-43.284
G3 X-231.139 Y-43.284 Z0.939 I-0.163 J0
X-230.814 Y-43.284 Z0.878 I0.163 J0
X-231.139 Y-43.284 Z0.817 I-0.163 J0
X-230.814 Y-43.284 Z0.756 I0.163 J0
X-231.139 Y-43.284 Z0.694 I-0.163 J0
X-230.814 Y-43.284 Z0.633 I0.163 J0
X-231.139 Y-43.284 Z0.572 I-0.163 J0
X-230.814 Y-43.284 Z0.511 I0.163 J0
X-231.139 Y-43.284 Z0.45 I-0.163 J0
X-230.814 Y-43.284 Z0.389 I0.163 J0
X-231.139 Y-43.284 Z0.328 I-0.163 J0
X-230.814 Y-43.284 Z0.267 I0.163 J0
X-231.139 Y-43.284 Z0.206 I-0.163 J0
X-230.814 Y-43.284 Z0.144 I0.163 J0
X-231.139 Y-43.284 Z0.083 I-0.163 J0
X-230.814 Y-43.284 Z0.022 I0.163 J0
X-231.139 Y-43.284 Z-0.039 I-0.163 J0
X-230.814 Y-43.284 Z-0.1 I0.163 J0
X-231.139 Y-43.284 Z-0.161 I-0.163 J0
X-230.814 Y-43.284 Z-0.222 I0.163 J0
X-231.139 Y-43.284 Z-0.283 I-0.163 J0
X-230.814 Y-43.284 Z-0.344 I0.163 J0
X-231.139 Y-43.284 Z-0.406 I-0.163 J0
X-230.814 Y-43.284 Z-0.467 I0.163 J0
X-231.139 Y-43.284 Z-0.528 I-0.163 J0
X-230.814 Y-43.284 Z-0.589 I0.163 J0
X-231.139 Y-43.284 Z-0.65 I-0.163 J0
X-230.814 Y-43.284 Z-0.711 I0.163 J0
X-231.139 Y-43.284 Z-0.772 I-0.163 J0
X-230.814 Y-43.284 Z-0.833 I0.163 J0
X-231.139 Y-43.284 Z-0.894 I-0.163 J0
X-230.814 Y-43.284 Z-0.956 I0.163 J0
X-231.139 Y-43.284 Z-1.017 I-0.163 J0
X-230.814 Y-43.284 Z-1.078 I0.163 J0
X-231.139 Y-43.284 Z-1.139 I-0.163 J0
X-230.814 Y-43.284 Z-1.2 I0.163 J0
X-231.139 Y-43.284 Z-1.261 I-0.163 J0
X-230.814 Y-43.284 Z-1.322 I0.163 J0
X-231.139 Y-43.284 Z-1.383 I-0.163 J0
X-230.814 Y-43.284 Z-1.444 I0.163 J0
X-231.139 Y-43.284 Z-1.506 I-0.163 J0
X-230.814 Y-43.284 Z-1.567 I0.163 J0
X-231.139 Y-43.284 Z-1.628 I-0.163 J0
X-230.814 Y-43.284 Z-1.689 I0.163 J0
X-231.139 Y-43.284 Z-1.75 I-0.163 J0
X-230.814 Y-43.284 Z-1.811 I0.163 J0
X-231.139 Y-43.284 Z-1.872 I-0.162 J0
X-230.814 Y-43.284 Z-1.933 I0.162 J0
X-231.139 Y-43.284 Z-1.994 I-0.162 J0
X-230.814 Y-43.284 Z-2.056 I0.162 J0
X-231.139 Y-43.284 Z-2.117 I-0.162 J0
X-230.814 Y-43.284 Z-2.178 I0.162 J0
X-231.139 Y-43.284 Z-2.239 I-0.162 J0
X-230.814 Y-43.284 Z-2.3 I0.162 J0
X-231.139 Y-43.284 Z-2.361 I-0.162 J0
X-230.814 Y-43.284 Z-2.422 I0.162 J0
X-231.139 Y-43.284 Z-2.483 I-0.162 J0
X-230.814 Y-43.284 Z-2.544 I0.162 J0
X-231.139 Y-43.284 Z-2.606 I-0.162 J0
X-230.814 Y-43.284 Z-2.667 I0.162 J0
X-231.139 Y-43.284 Z-2.728 I-0.162 J0
X-230.814 Y-43.284 Z-2.789 I0.162 J0
X-231.139 Y-43.284 Z-2.85 I-0.162 J0
X-230.814 Y-43.284 Z-2.911 I0.162 J0
X-231.139 Y-43.284 Z-2.972 I-0.162 J0
X-230.814 Y-43.284 Z-3.033 I0.162 J0
X-231.139 Y-43.284 Z-3.094 I-0.162 J0
X-230.814 Y-43.284 Z-3.156 I0.162 J0
X-231.139 Y-43.284 Z-3.217 I-0.162 J0
X-230.814 Y-43.284 Z-3.278 I0.162 J0
X-231.139 Y-43.284 Z-3.339 I-0.162 J0
X-230.814 Y-43.284 Z-3.4 I0.162 J0
X-231.139 Y-43.284 Z-3.461 I-0.162 J0
X-230.814 Y-43.284 Z-3.522 I0.162 J0
X-231.139 Y-43.284 Z-3.583 I-0.162 J0
X-230.814 Y-43.284 Z-3.644 I0.162 J0
X-231.139 Y-43.284 Z-3.706 I-0.162 J0
X-230.814 Y-43.284 Z-3.767 I0.162 J0
X-231.139 Y-43.284 Z-3.828 I-0.162 J0
X-230.814 Y-43.284 Z-3.889 I0.162 J0
X-231.139 Y-43.284 Z-3.95 I-0.162 J0
X-230.814 Y-43.284 Z-4.011 I0.162 J0
X-231.139 Y-43.284 Z-4.072 I-0.162 J0
X-230.814 Y-43.284 Z-4.133 I0.162 J0
X-231.139 Y-43.284 Z-4.194 I-0.162 J0
X-230.814 Y-43.284 Z-4.256 I0.162 J0
X-231.083 Y-43.161 Z-4.3 I-0.162 J0
X-230.87 Y-43.407 I0.106 J-0.123
X-231.083 Y-43.161 I-0.106 J0.123
G1 X-231.102 Y-43.186
X-231.111 Y-43.217
X-231.107 Y-43.248
X-231.091 Y-43.276
X-230.987 Y-43.396
Z5
X-274.206 Y-54.881
Z2.682
Z1
X-274.047
X-274.016 Y-54.875
X-273.99 Y-54.857
X-273.972 Y-54.831
X-273.966 Y-54.8
G3 X-274.291 Y-54.8 Z0.939 I-0.163 J0
X-273.966 Y-54.8 Z0.878 I0.163 J0
X-274.291 Y-54.8 Z0.817 I-0.163 J0
X-273.966 Y-54.8 Z0.756 I0.163 J0
X-274.291 Y-54.8 Z0.694 I-0.163 J0
X-273.966 Y-54.8 Z0.633 I0.163 J0
X-274.291 Y-54.8 Z0.572 I-0.163 J0
X-273.966 Y-54.8 Z0.511 I0.163 J0
X-274.291 Y-54.8 Z0.45 I-0.163 J0
X-273.966 Y-54.8 Z0.389 I0.163 J0
X-274.291 Y-54.8 Z0.328 I-0.163 J0
X-273.966 Y-54.8 Z0.267 I0.163 J0
X-274.291 Y-54.8 Z0.206 I-0.163 J0
X-273.966 Y-54.8 Z0.144 I0.163 J0
X-274.291 Y-54.8 Z0.083 I-0.163 J0
X-273.966 Y-54.8 Z0.022 I0.163 J0
X-274.291 Y-54.8 Z-0.039 I-0.163 J0
X-273.966 Y-54.8 Z-0.1 I0.163 J0
X-274.291 Y-54.8 Z-0.161 I-0.163 J0
X-273.966 Y-54.8 Z-0.222 I0.163 J0
X-274.291 Y-54.8 Z-0.283 I-0.163 J0
X-273.966 Y-54.8 Z-0.344 I0.163 J0
X-274.291 Y-54.8 Z-0.406 I-0.163 J0
X-273.966 Y-54.8 Z-0.467 I0.163 J0
X-274.291 Y-54.8 Z-0.528 I-0.163 J0
X-273.966 Y-54.8 Z-0.589 I0.163 J0
X-274.291 Y-54.8 Z-0.65 I-0.163 J0
X-273.966 Y-54.8 Z-0.711 I0.163 J0
X-274.291 Y-54.8 Z-0.772 I-0.163 J0
X-273.966 Y-54.8 Z-0.833 I0.163 J0
X-274.291 Y-54.8 Z-0.894 I-0.163 J0
X-273.966 Y-54.8 Z-0.956 I0.163 J0
X-274.291 Y-54.8 Z-1.017 I-0.163 J0
X-273.966 Y-54.8 Z-1.078 I0.163 J0
X-274.291 Y-54.8 Z-1.139 I-0.163 J0
X-273.966 Y-54.8 Z-1.2 I0.163 J0
X-274.291 Y-54.8 Z-1.261 I-0.163 J0
X-273.966 Y-54.8 Z-1.322 I0.163 J0
X-274.291 Y-54.8 Z-1.383 I-0.163 J0
X-273.966 Y-54.8 Z-1.444 I0.163 J0
X-274.291 Y-54.8 Z-1.506 I-0.163 J0
X-273.966 Y-54.8 Z-1.567 I0.163 J0
X-274.291 Y-54.8 Z-1.628 I-0.163 J0
X-273.966 Y-54.8 Z-1.689 I0.163 J0
X-274.291 Y-54.8 Z-1.75 I-0.163 J0
X-273.966 Y-54.8 Z-1.811 I0.163 J0
X-274.291 Y-54.8 Z-1.872 I-0.163 J0
X-273.966 Y-54.8 Z-1.933 I0.163 J0
X-274.291 Y-54.8 Z-1.994 I-0.163 J0
X-273.966 Y-54.8 Z-2.056 I0.163 J0
X-274.291 Y-54.8 Z-2.117 I-0.163 J0
X-273.966 Y-54.8 Z-2.178 I0.163 J0
X-274.291 Y-54.8 Z-2.239 I-0.163 J0
X-273.966 Y-54.8 Z-2.3 I0.163 J0
X-274.291 Y-54.8 Z-2.361 I-0.163 J0
X-273.966 Y-54.8 Z-2.422 I0.163 J0
X-274.291 Y-54.8 Z-2.483 I-0.163 J0
X-273.966 Y-54.8 Z-2.544 I0.163 J0
X-274.291 Y-54.8 Z-2.606 I-0.163 J0
X-273.966 Y-54.8 Z-2.667 I0.163 J0
X-274.291 Y-54.8 Z-2.728 I-0.163 J0
X-273.966 Y-54.8 Z-2.789 I0.163 J0
X-274.291 Y-54.8 Z-2.85 I-0.163 J0
X-273.966 Y-54.8 Z-2.911 I0.163 J0
X-274.291 Y-54.8 Z-2.972 I-0.163 J0
X-273.966 Y-54.8 Z-3.033 I0.163 J0
X-274.291 Y-54.8 Z-3.094 I-0.163 J0
X-273.966 Y-54.8 Z-3.156 I0.163 J0
X-274.291 Y-54.8 Z-3.217 I-0.163 J0
X-273.966 Y-54.8 Z-3.278 I0.163 J0
X-274.291 Y-54.8 Z-3.339 I-0.163 J0
X-273.966 Y-54.8 Z-3.4 I0.163 J0
X-274.291 Y-54.8 Z-3.461 I-0.163 J0
X-273.966 Y-54.8 Z-3.522 I0.163 J0
X-274.291 Y-54.8 Z-3.583 I-0.163 J0
X-273.966 Y-54.8 Z-3.644 I0.163 J0
X-274.291 Y-54.8 Z-3.706 I-0.163 J0
X-273.966 Y-54.8 Z-3.767 I0.163 J0
X-274.291 Y-54.8 Z-3.828 I-0.163 J0
X-273.966 Y-54.8 Z-3.889 I0.163 J0
X-274.291 Y-54.8 Z-3.95 I-0.163 J0
X-273.966 Y-54.8 Z-4.011 I0.163 J0
X-274.291 Y-54.8 Z-4.072 I-0.163 J0
X-273.966 Y-54.8 Z-4.133 I0.163 J0
X-274.291 Y-54.8 Z-4.194 I-0.163 J0
X-273.966 Y-54.8 Z-4.256 I0.163 J0
X-274.234 Y-54.677 Z-4.3 I-0.163 J0
X-274.022 Y-54.923 I0.106 J-0.123
X-274.234 Y-54.677 I-0.106 J0.123
G1 X-274.254 Y-54.702
X-274.262 Y-54.733
X-274.258 Y-54.764
X-274.243 Y-54.792
X-274.139 Y-54.912
Z15
(When using Fusion 360 for Personal Use, the feedrate of)
(rapid moves is reduced to match the feedrate of cutting)
(moves, which can increase machining time. Unrestricted rapid)
(moves are available with a Fusion 360 Subscription.)

(2D-Kontur5)
G0 X-60.781 Y-62.338
G1 Z15 F1000
Z5
Z2.818 F333.3
X-60.774 Y-62.342 Z2.747 F1000
X-60.754 Y-62.353 Z2.68
X-60.721 Y-62.372 Z2.62
X-60.677 Y-62.397 Z2.569
X-60.625 Y-62.426 Z2.531
X-60.566 Y-62.459 Z2.508
X-60.504 Y-62.493 Z2.5
X-60.228 Y-62.649
G3 X-59.795 Y-62.527 I0.155 J0.277
S5000
X-59.884 Y-61.254 Z2.471 I-1.014 J0.569 F333.3
G1 X-61.854 Y-58.669 Z2.4
G3 X-63.704 Y-60.078 Z2.321 I-0.925 J-0.705
G1 X-61.734 Y-62.663 Z2.25
G3 X-59.884 Y-61.254 Z2.171 I0.925 J0.705
G1 X-61.854 Y-58.669 Z2.1
G3 X-63.704 Y-60.078 Z2.021 I-0.925 J-0.705
G1 X-61.734 Y-62.663 Z1.95
G3 X-59.884 Y-61.254 Z1.871 I0.925 J0.705
G1 X-61.854 Y-58.669 Z1.8
G3 X-63.704 Y-60.078 Z1.721 I-0.925 J-0.705
G1 X-61.734 Y-62.663 Z1.65
G3 X-59.884 Y-61.254 Z1.571 I0.925 J0.705
G1 X-61.854 Y-58.669 Z1.5
G3 X-63.704 Y-60.078 Z1.421 I-0.925 J-0.705
G1 X-61.734 Y-62.663 Z1.35
G3 X-59.884 Y-61.254 Z1.271 I0.925 J0.705
G1 X-61.854 Y-58.669 Z1.2
G3 X-63.704 Y-60.078 Z1.121 I-0.925 J-0.705
G1 X-61.734 Y-62.663 Z1.05
G3 X-59.884 Y-61.254 Z0.971 I0.925 J0.705
G1 X-61.854 Y-58.669 Z0.9
G3 X-63.704 Y-60.078 Z0.821 I-0.925 J-0.705
G1 X-61.734 Y-62.663 Z0.75
G3 X-59.884 Y-61.254 Z0.671 I0.925 J0.705
G1 X-61.854 Y-58.669 Z0.6
G3 X-63.704 Y-60.078 Z0.521 I-0.925 J-0.705
G1 X-61.734 Y-62.663 Z0.45
G3 X-59.884 Y-61.254 Z0.371 I0.925 J0.705
G1 X-61.854 Y-58.669 Z0.3
G3 X-63.704 Y-60.078 Z0.221 I-0.925 J-0.705
G1 X-61.734 Y-62.663 Z0.15
G3 X-59.884 Y-61.254 Z0.071 I0.925 J0.705
G1 X-61.854 Y-58.669 Z0
G3 X-63.704 Y-60.078 Z-0.079 I-0.925 J-0.705
G1 X-61.734 Y-62.663 Z-0.15
G3 X-59.884 Y-61.254 Z-0.229 I0.925 J0.705
G1 X-61.854 Y-58.669 Z-0.3
S6000
G3 X-63.704 Y-60.078 I-0.925 J-0.705 F1000
G1 X-61.734 Y-62.663
G3 X-59.884 Y-61.254 I0.925 J0.705
G1 X-61.854 Y-58.669
S5000
G3 X-63.704 Y-60.078 Z-0.379 I-0.925 J-0.705 F333.3
G1 X-61.734 Y-62.663 Z-0.45
G3 X-59.884 Y-61.254 Z-0.529 I0.925 J0.705
G1 X-61.854 Y-58.669 Z-0.6
S6000
G3 X-63.704 Y-60.078 I-0.925 J-0.705 F1000
G1 X-61.734 Y-62.663
G3 X-59.884 Y-61.254 I0.925 J0.705
G1 X-61.854 Y-58.669
S5000
G3 X-63.704 Y-60.078 Z-0.679 I-0.925 J-0.705 F333.3
G1 X-61.734 Y-62.663 Z-0.75
G3 X-59.884 Y-61.254 Z-0.829 I0.925 J0.705
G1 X-61.854 Y-58.669 Z-0.9
S6000
G3 X-63.704 Y-60.078 I-0.925 J-0.705 F1000
G1 X-61.734 Y-62.663
G3 X-59.884 Y-61.254 I0.925 J0.705
G1 X-61.854 Y-58.669
S5000
G3 X-63.704 Y-60.078 Z-0.979 I-0.925 J-0.705 F333.3
G1 X-61.734 Y-62.663 Z-1.05
G3 X-59.884 Y-61.254 Z-1.129 I0.925 J0.705
G1 X-61.854 Y-58.669 Z-1.2
S6000
G3 X-63.704 Y-60.078 I-0.925 J-0.705 F1000
G1 X-61.734 Y-62.663
G3 X-59.884 Y-61.254 I0.925 J0.705
G1 X-61.854 Y-58.669
S5000
G3 X-63.704 Y-60.078 Z-1.279 I-0.925 J-0.705 F333.3
G1 X-61.734 Y-62.663 Z-1.35
G3 X-59.884 Y-61.254 Z-1.429 I0.925 J0.705
G1 X-61.854 Y-58.669 Z-1.5
S6000
G3 X-63.704 Y-60.078 I-0.925 J-0.705 F1000
G1 X-61.734 Y-62.663
G3 X-59.884 Y-61.254 I0.925 J0.705
G1 X-61.854 Y-58.669
S5000
G3 X-63.704 Y-60.078 Z-1.579 I-0.925 J-0.705 F333.3
G1 X-61.734 Y-62.663 Z-1.65
G3 X-59.884 Y-61.254 Z-1.729 I0.925 J0.705
G1 X-61.854 Y-58.669 Z-1.8
S6000
G3 X-63.704 Y-60.078 I-0.925 J-0.705 F1000
G1 X-61.734 Y-62.663
G3 X-59.884 Y-61.254 I0.925 J0.705
G1 X-61.854 Y-58.669
S5000
G3 X-63.704 Y-60.078 Z-1.879 I-0.925 J-0.705 F333.3
G1 X-61.734 Y-62.663 Z-1.95
G3 X-59.795 Y-62.527 Z-2 I0.925 J0.705
S6000
X-59.884 Y-61.254 I-1.014 J0.569 F1000
G1 X-61.854 Y-58.669
G3 X-63.704 Y-60.078 I-0.925 J-0.705
G1 X-61.734 Y-62.663
G3 X-59.795 Y-62.527 I0.925 J0.705
X-59.917 Y-62.095 I-0.277 J0.155
G1 X-60.194 Y-61.94
X-60.255 Y-61.905 Z-1.992
X-60.314 Y-61.872 Z-1.969
X-60.366 Y-61.843 Z-1.931
X-60.41 Y-61.818 Z-1.88
X-60.443 Y-61.8 Z-1.82
X-60.464 Y-61.788 Z-1.753
X-60.471 Y-61.784 Z-1.683
Z5
X-70.684 Y-49.346
Z2.818 F333.3
X-70.69 Y-49.351 Z2.747 F1000
X-70.709 Y-49.365 Z2.68
X-70.739 Y-49.388 Z2.62
X-70.779 Y-49.419 Z2.569
X-70.827 Y-49.455 Z2.531
X-70.88 Y-49.496 Z2.508
X-70.937 Y-49.539 Z2.5
X-71.189 Y-49.731
G3 X-71.249 Y-50.176 I0.192 J-0.253
S5000
G1 X-70.674 Y-50.931 Z2.479 F333.3
G3 X-68.825 Y-49.522 Z2.4 I0.925 J0.705
G1 X-70.794 Y-46.937 Z2.329
G3 X-72.644 Y-48.346 Z2.25 I-0.925 J-0.705
G1 X-70.674 Y-50.931 Z2.179
G3 X-68.825 Y-49.522 Z2.1 I0.925 J0.705
G1 X-70.794 Y-46.937 Z2.029
G3 X-72.644 Y-48.346 Z1.95 I-0.925 J-0.705
G1 X-70.674 Y-50.931 Z1.879
G3 X-68.825 Y-49.522 Z1.8 I0.925 J0.705
G1 X-70.794 Y-46.937 Z1.729
G3 X-72.644 Y-48.346 Z1.65 I-0.925 J-0.705
G1 X-70.674 Y-50.931 Z1.579
G3 X-68.825 Y-49.522 Z1.5 I0.925 J0.705
G1 X-70.794 Y-46.937 Z1.429
G3 X-72.644 Y-48.346 Z1.35 I-0.925 J-0.705
G1 X-70.674 Y-50.931 Z1.279
G3 X-68.825 Y-49.522 Z1.2 I0.925 J0.705
G1 X-70.794 Y-46.937 Z1.129
G3 X-72.644 Y-48.346 Z1.05 I-0.925 J-0.705
G1 X-70.674 Y-50.931 Z0.979
G3 X-68.825 Y-49.522 Z0.9 I0.925 J0.705
G1 X-70.794 Y-46.937 Z0.829
G3 X-72.644 Y-48.346 Z0.75 I-0.925 J-0.705
G1 X-70.674 Y-50.931 Z0.679
G3 X-68.825 Y-49.522 Z0.6 I0.925 J0.705
G1 X-70.794 Y-46.937 Z0.529
G3 X-72.644 Y-48.346 Z0.45 I-0.925 J-0.705
G1 X-70.674 Y-50.931 Z0.379
G3 X-68.825 Y-49.522 Z0.3 I0.925 J0.705
G1 X-70.794 Y-46.937 Z0.229
G3 X-72.644 Y-48.346 Z0.15 I-0.925 J-0.705
G1 X-70.674 Y-50.931 Z0.079
G3 X-68.825 Y-49.522 Z0 I0.925 J0.705
G1 X-70.794 Y-46.937 Z-0.071
G3 X-72.644 Y-48.346 Z-0.15 I-0.925 J-0.705
G1 X-70.674 Y-50.931 Z-0.221
G3 X-68.825 Y-49.522 Z-0.3 I0.925 J0.705
S6000
G1 X-70.794 Y-46.937 F1000
G3 X-72.644 Y-48.346 I-0.925 J-0.705
G1 X-70.674 Y-50.931
G3 X-68.825 Y-49.522 I0.925 J0.705
S5000
G1 X-70.794 Y-46.937 Z-0.371 F333.3
G3 X-72.644 Y-48.346 Z-0.45 I-0.925 J-0.705
G1 X-70.674 Y-50.931 Z-0.521
G3 X-68.825 Y-49.522 Z-0.6 I0.925 J0.705
S6000
G1 X-70.794 Y-46.937 F1000
G3 X-72.644 Y-48.346 I-0.925 J-0.705
G1 X-70.674 Y-50.931
G3 X-68.825 Y-49.522 I0.925 J0.705
S5000
G1 X-70.794 Y-46.937 Z-0.671 F333.3
G3 X-72.644 Y-48.346 Z-0.75 I-0.925 J-0.705
G1 X-70.674 Y-50.931 Z-0.821
G3 X-68.825 Y-49.522 Z-0.9 I0.925 J0.705
S6000
G1 X-70.794 Y-46.937 F1000
G3 X-72.644 Y-48.346 I-0.925 J-0.705
G1 X-70.674 Y-50.931
G3 X-68.825 Y-49.522 I0.925 J0.705
S5000
G1 X-70.794 Y-46.937 Z-0.971 F333.3
G3 X-72.644 Y-48.346 Z-1.05 I-0.925 J-0.705
G1 X-70.674 Y-50.931 Z-1.121
G3 X-68.825 Y-49.522 Z-1.2 I0.925 J0.705
S6000
G1 X-70.794 Y-46.937 F1000
G3 X-72.644 Y-48.346 I-0.925 J-0.705
G1 X-70.674 Y-50.931
G3 X-68.825 Y-49.522 I0.925 J0.705
S5000
G1 X-70.794 Y-46.937 Z-1.271 F333.3
G3 X-72.644 Y-48.346 Z-1.35 I-0.925 J-0.705
G1 X-70.674 Y-50.931 Z-1.421
G3 X-68.825 Y-49.522 Z-1.5 I0.925 J0.705
S6000
G1 X-70.794 Y-46.937 F1000
G3 X-72.644 Y-48.346 I-0.925 J-0.705
G1 X-70.674 Y-50.931
G3 X-68.825 Y-49.522 I0.925 J0.705
S5000
G1 X-70.794 Y-46.937 Z-1.571 F333.3
G3 X-72.644 Y-48.346 Z-1.65 I-0.925 J-0.705
G1 X-70.674 Y-50.931 Z-1.721
G3 X-68.825 Y-49.522 Z-1.8 I0.925 J0.705
S6000
G1 X-70.794 Y-46.937 F1000
G3 X-72.644 Y-48.346 I-0.925 J-0.705
G1 X-70.674 Y-50.931
G3 X-68.825 Y-49.522 I0.925 J0.705
S5000
G1 X-70.794 Y-46.937 Z-1.871 F333.3
G3 X-72.644 Y-48.346 Z-1.95 I-0.925 J-0.705
G1 X-71.249 Y-50.176 Z-2
S6000
X-70.674 Y-50.931 F1000
G3 X-68.825 Y-49.522 I0.925 J0.705
G1 X-70.794 Y-46.937
G3 X-72.644 Y-48.346 I-0.925 J-0.705
G1 X-71.249 Y-50.176
G3 X-70.804 Y-50.236 I0.253 J0.192
G1 X-70.552 Y-50.044
X-70.496 Y-50.001 Z-1.992
X-70.442 Y-49.96 Z-1.969
X-70.394 Y-49.924 Z-1.931
X-70.354 Y-49.893 Z-1.88
X-70.324 Y-49.87 Z-1.82
X-70.306 Y-49.856 Z-1.753
X-70.299 Y-49.851 Z-1.683
Z5
X-62.178 Y-163.092
Z2.818 F333.3
X-62.185 Y-163.087 Z2.747 F1000
X-62.203 Y-163.073 Z2.68
X-62.234 Y-163.05 Z2.62
X-62.274 Y-163.02 Z2.569
X-62.321 Y-162.983 Z2.531
X-62.375 Y-162.943 Z2.508
X-62.431 Y-162.9 Z2.5
X-62.683 Y-162.707
G3 X-63.128 Y-162.767 I-0.192 J-0.253
S5000
G1 X-63.704 Y-163.522 Z2.479 F333.3
G3 X-63.484 Y-165.151 Z2.44 I0.924 J-0.705
X-61.855 Y-164.931 Z2.4 I0.704 J0.925
G1 X-59.885 Y-162.346 Z2.329
G3 X-61.734 Y-160.937 Z2.25 I-0.925 J0.704
G1 X-63.704 Y-163.522 Z2.179
G3 X-63.484 Y-165.151 Z2.14 I0.924 J-0.705
X-61.855 Y-164.931 Z2.1 I0.704 J0.925
G1 X-59.885 Y-162.346 Z2.029
G3 X-61.734 Y-160.937 Z1.95 I-0.925 J0.704
G1 X-63.704 Y-163.522 Z1.879
G3 X-63.484 Y-165.151 Z1.84 I0.924 J-0.705
X-61.855 Y-164.931 Z1.8 I0.704 J0.925
G1 X-59.885 Y-162.346 Z1.729
G3 X-61.734 Y-160.937 Z1.65 I-0.925 J0.704
G1 X-63.704 Y-163.522 Z1.579
G3 X-63.484 Y-165.151 Z1.54 I0.924 J-0.705
X-61.855 Y-164.931 Z1.5 I0.704 J0.925
