(Main_3_175)
(Bearbeiten)
(  Hersteller: ChinaCnc)
(  model: 3040T)
(  description: Generic 3-axis)
(T5 D=3.175 CR=0 - ZMIN=-7.3 - Schaftfrser)
G90 G94
G17
G21
(When using Fusion 360 for Personal Use, the feedrate of)
(rapid moves is reduced to match the feedrate of cutting)
(moves, which can increase machining time. Unrestricted rapid)
(moves are available with a Fusion 360 Subscription.)

(Bohrfrsen4)
M0
(MANUAL TOOL CHANGE TO T5)
S6000 M3
G54
G0 X-56.719 Y-276.206
Z15
G1 Z2.682 F1000
Z1
Y-276.047
X-56.725 Y-276.016
X-56.743 Y-275.99
X-56.769 Y-275.972
X-56.8 Y-275.966
G3 X-56.8 Y-276.291 Z0.939 I0 J-0.163
X-56.8 Y-275.966 Z0.878 I0 J0.163
X-56.8 Y-276.291 Z0.817 I0 J-0.163
X-56.8 Y-275.966 Z0.756 I0 J0.163
X-56.8 Y-276.291 Z0.694 I0 J-0.163
X-56.8 Y-275.966 Z0.633 I0 J0.163
X-56.8 Y-276.291 Z0.572 I0 J-0.163
X-56.8 Y-275.966 Z0.511 I0 J0.163
X-56.8 Y-276.291 Z0.45 I0 J-0.163
X-56.8 Y-275.966 Z0.389 I0 J0.163
X-56.8 Y-276.291 Z0.328 I0 J-0.163
X-56.8 Y-275.966 Z0.267 I0 J0.163
X-56.8 Y-276.291 Z0.206 I0 J-0.163
X-56.8 Y-275.966 Z0.144 I0 J0.163
X-56.8 Y-276.291 Z0.083 I0 J-0.163
X-56.8 Y-275.966 Z0.022 I0 J0.163
X-56.8 Y-276.291 Z-0.039 I0 J-0.163
X-56.8 Y-275.966 Z-0.1 I0 J0.163
X-56.8 Y-276.291 Z-0.161 I0 J-0.163
X-56.8 Y-275.966 Z-0.222 I0 J0.163
X-56.8 Y-276.291 Z-0.283 I0 J-0.163
X-56.8 Y-275.966 Z-0.344 I0 J0.163
X-56.8 Y-276.291 Z-0.406 I0 J-0.163
X-56.8 Y-275.966 Z-0.467 I0 J0.163
X-56.8 Y-276.291 Z-0.528 I0 J-0.163
X-56.8 Y-275.966 Z-0.589 I0 J0.163
X-56.8 Y-276.291 Z-0.65 I0 J-0.163
X-56.8 Y-275.966 Z-0.711 I0 J0.163
X-56.8 Y-276.291 Z-0.772 I0 J-0.163
X-56.8 Y-275.966 Z-0.833 I0 J0.163
X-56.8 Y-276.291 Z-0.894 I0 J-0.163
X-56.8 Y-275.966 Z-0.956 I0 J0.163
X-56.8 Y-276.291 Z-1.017 I0 J-0.163
X-56.8 Y-275.966 Z-1.078 I0 J0.163
X-56.8 Y-276.291 Z-1.139 I0 J-0.163
X-56.8 Y-275.966 Z-1.2 I0 J0.163
X-56.8 Y-276.291 Z-1.261 I0 J-0.163
X-56.8 Y-275.966 Z-1.322 I0 J0.163
X-56.8 Y-276.291 Z-1.383 I0 J-0.163
X-56.8 Y-275.966 Z-1.444 I0 J0.163
X-56.8 Y-276.291 Z-1.506 I0 J-0.163
X-56.8 Y-275.966 Z-1.567 I0 J0.163
X-56.8 Y-276.291 Z-1.628 I0 J-0.163
X-56.8 Y-275.966 Z-1.689 I0 J0.163
X-56.8 Y-276.291 Z-1.75 I0 J-0.163
X-56.8 Y-275.966 Z-1.811 I0 J0.163
X-56.8 Y-276.291 Z-1.872 I0 J-0.163
X-56.8 Y-275.966 Z-1.933 I0 J0.163
X-56.8 Y-276.291 Z-1.994 I0 J-0.163
X-56.8 Y-275.966 Z-2.056 I0 J0.163
X-56.8 Y-276.291 Z-2.117 I0 J-0.163
X-56.8 Y-275.966 Z-2.178 I0 J0.163
X-56.8 Y-276.291 Z-2.239 I0 J-0.163
X-56.8 Y-275.966 Z-2.3 I0 J0.163
X-56.8 Y-276.291 Z-2.361 I0 J-0.163
X-56.8 Y-275.966 Z-2.422 I0 J0.163
X-56.8 Y-276.291 Z-2.483 I0 J-0.163
X-56.8 Y-275.966 Z-2.544 I0 J0.163
X-56.8 Y-276.291 Z-2.606 I0 J-0.163
X-56.8 Y-275.966 Z-2.667 I0 J0.163
X-56.8 Y-276.291 Z-2.728 I0 J-0.163
X-56.8 Y-275.966 Z-2.789 I0 J0.163
X-56.8 Y-276.291 Z-2.85 I0 J-0.163
X-56.8 Y-275.966 Z-2.911 I0 J0.163
X-56.8 Y-276.291 Z-2.972 I0 J-0.163
X-56.8 Y-275.966 Z-3.033 I0 J0.163
X-56.8 Y-276.291 Z-3.094 I0 J-0.163
X-56.8 Y-275.966 Z-3.156 I0 J0.163
X-56.8 Y-276.291 Z-3.217 I0 J-0.163
X-56.8 Y-275.966 Z-3.278 I0 J0.163
X-56.8 Y-276.291 Z-3.339 I0 J-0.163
X-56.8 Y-275.966 Z-3.4 I0 J0.163
X-56.8 Y-276.291 Z-3.461 I0 J-0.163
X-56.8 Y-275.966 Z-3.522 I0 J0.163
X-56.8 Y-276.291 Z-3.583 I0 J-0.163
X-56.8 Y-275.966 Z-3.644 I0 J0.163
X-56.8 Y-276.291 Z-3.706 I0 J-0.163
X-56.8 Y-275.966 Z-3.767 I0 J0.163
X-56.8 Y-276.291 Z-3.828 I0 J-0.163
X-56.8 Y-275.966 Z-3.889 I0 J0.163
X-56.8 Y-276.291 Z-3.95 I0 J-0.163
X-56.8 Y-275.966 Z-4.011 I0 J0.163
X-56.8 Y-276.291 Z-4.072 I0 J-0.163
X-56.8 Y-275.966 Z-4.133 I0 J0.163
X-56.8 Y-276.291 Z-4.194 I0 J-0.163
X-56.8 Y-275.966 Z-4.256 I0 J0.163
X-56.8 Y-276.291 Z-4.317 I0 J-0.163
X-56.8 Y-275.966 Z-4.378 I0 J0.163
X-56.8 Y-276.291 Z-4.439 I0 J-0.163
X-56.8 Y-275.966 Z-4.5 I0 J0.163
X-56.8 Y-276.291 Z-4.561 I0 J-0.163
X-56.8 Y-275.966 Z-4.622 I0 J0.163
X-56.8 Y-276.291 Z-4.683 I0 J-0.163
X-56.8 Y-275.966 Z-4.744 I0 J0.163
X-56.8 Y-276.291 Z-4.806 I0 J-0.163
X-56.8 Y-275.966 Z-4.867 I0 J0.163
X-56.8 Y-276.291 Z-4.928 I0 J-0.163
X-56.8 Y-275.966 Z-4.989 I0 J0.163
X-56.8 Y-276.291 Z-5.05 I0 J-0.163
X-56.8 Y-275.966 Z-5.111 I0 J0.163
X-56.8 Y-276.291 Z-5.172 I0 J-0.163
X-56.8 Y-275.966 Z-5.233 I0 J0.163
X-56.8 Y-276.291 Z-5.294 I0 J-0.163
X-56.8 Y-275.966 Z-5.356 I0 J0.163
X-56.8 Y-276.291 Z-5.417 I0 J-0.163
X-56.8 Y-275.966 Z-5.478 I0 J0.163
X-56.8 Y-276.291 Z-5.539 I0 J-0.163
X-56.8 Y-275.966 Z-5.6 I0 J0.163
X-56.8 Y-276.291 Z-5.661 I0 J-0.163
X-56.8 Y-275.966 Z-5.722 I0 J0.163
X-56.8 Y-276.291 Z-5.783 I0 J-0.163
X-56.8 Y-275.966 Z-5.844 I0 J0.163
X-56.8 Y-276.291 Z-5.906 I0 J-0.163
X-56.8 Y-275.966 Z-5.967 I0 J0.163
X-56.8 Y-276.291 Z-6.028 I0 J-0.163
X-56.8 Y-275.966 Z-6.089 I0 J0.163
X-56.8 Y-276.291 Z-6.15 I0 J-0.163
X-56.8 Y-275.966 Z-6.211 I0 J0.163
X-56.8 Y-276.291 Z-6.272 I0 J-0.163
X-56.8 Y-275.966 Z-6.333 I0 J0.163
X-56.8 Y-276.291 Z-6.394 I0 J-0.163
X-56.8 Y-275.966 Z-6.456 I0 J0.163
X-56.8 Y-276.291 Z-6.517 I0 J-0.163
X-56.8 Y-275.966 Z-6.578 I0 J0.163
X-56.8 Y-276.291 Z-6.639 I0 J-0.163
X-56.8 Y-275.966 Z-6.7 I0 J0.163
X-56.8 Y-276.291 Z-6.761 I0 J-0.163
X-56.8 Y-275.966 Z-6.822 I0 J0.163
X-56.8 Y-276.291 Z-6.883 I0 J-0.163
X-56.8 Y-275.966 Z-6.944 I0 J0.163
X-56.8 Y-276.291 Z-7.006 I0 J-0.163
X-56.8 Y-275.966 Z-7.067 I0 J0.163
X-56.8 Y-276.291 Z-7.128 I0 J-0.163
X-56.8 Y-275.966 Z-7.189 I0 J0.163
X-56.8 Y-276.291 Z-7.25 I0 J-0.163
X-56.712 Y-275.992 Z-7.3 I0 J0.163
X-56.888 Y-276.265 I-0.088 J-0.137
X-56.712 Y-275.992 I0.088 J0.137
G1 X-56.741 Y-275.98
X-56.773
X-56.802 Y-275.993
X-56.824 Y-276.016
X-56.91 Y-276.149
Z5
X-45.203 Y-233.054
Z2.682
Z1
Y-232.895
X-45.209 Y-232.864
X-45.227 Y-232.838
X-45.253 Y-232.82
X-45.284 Y-232.814
G3 X-45.284 Y-233.139 Z0.939 I0 J-0.163
X-45.284 Y-232.814 Z0.878 I0 J0.163
X-45.284 Y-233.139 Z0.817 I0 J-0.163
X-45.284 Y-232.814 Z0.756 I0 J0.163
X-45.284 Y-233.139 Z0.694 I0 J-0.163
X-45.284 Y-232.814 Z0.633 I0 J0.163
X-45.284 Y-233.139 Z0.572 I0 J-0.163
X-45.284 Y-232.814 Z0.511 I0 J0.163
X-45.284 Y-233.139 Z0.45 I0 J-0.163
X-45.284 Y-232.814 Z0.389 I0 J0.163
X-45.284 Y-233.139 Z0.328 I0 J-0.163
X-45.284 Y-232.814 Z0.267 I0 J0.163
X-45.284 Y-233.139 Z0.206 I0 J-0.163
X-45.284 Y-232.814 Z0.144 I0 J0.163
X-45.284 Y-233.139 Z0.083 I0 J-0.163
X-45.284 Y-232.814 Z0.022 I0 J0.163
X-45.284 Y-233.139 Z-0.039 I0 J-0.163
X-45.284 Y-232.814 Z-0.1 I0 J0.163
X-45.284 Y-233.139 Z-0.161 I0 J-0.163
X-45.284 Y-232.814 Z-0.222 I0 J0.163
X-45.284 Y-233.139 Z-0.283 I0 J-0.163
X-45.284 Y-232.814 Z-0.344 I0 J0.163
X-45.284 Y-233.139 Z-0.406 I0 J-0.163
X-45.284 Y-232.814 Z-0.467 I0 J0.163
X-45.284 Y-233.139 Z-0.528 I0 J-0.163
X-45.284 Y-232.814 Z-0.589 I0 J0.163
X-45.284 Y-233.139 Z-0.65 I0 J-0.163
X-45.284 Y-232.814 Z-0.711 I0 J0.163
X-45.284 Y-233.139 Z-0.772 I0 J-0.163
X-45.284 Y-232.814 Z-0.833 I0 J0.163
X-45.284 Y-233.139 Z-0.894 I0 J-0.163
X-45.284 Y-232.814 Z-0.956 I0 J0.163
X-45.284 Y-233.139 Z-1.017 I0 J-0.163
X-45.284 Y-232.814 Z-1.078 I0 J0.163
X-45.284 Y-233.139 Z-1.139 I0 J-0.163
X-45.284 Y-232.814 Z-1.2 I0 J0.163
X-45.284 Y-233.139 Z-1.261 I0 J-0.163
X-45.284 Y-232.814 Z-1.322 I0 J0.163
X-45.284 Y-233.139 Z-1.383 I0 J-0.163
X-45.284 Y-232.814 Z-1.444 I0 J0.163
X-45.284 Y-233.139 Z-1.506 I0 J-0.163
X-45.284 Y-232.814 Z-1.567 I0 J0.163
X-45.284 Y-233.139 Z-1.628 I0 J-0.163
X-45.284 Y-232.814 Z-1.689 I0 J0.163
X-45.284 Y-233.139 Z-1.75 I0 J-0.163
X-45.284 Y-232.814 Z-1.811 I0 J0.163
X-45.284 Y-233.139 Z-1.872 I0 J-0.163
X-45.284 Y-232.814 Z-1.933 I0 J0.163
X-45.284 Y-233.139 Z-1.994 I0 J-0.163
X-45.284 Y-232.814 Z-2.056 I0 J0.163
X-45.284 Y-233.139 Z-2.117 I0 J-0.163
X-45.284 Y-232.814 Z-2.178 I0 J0.163
X-45.284 Y-233.139 Z-2.239 I0 J-0.163
X-45.284 Y-232.814 Z-2.3 I0 J0.163
X-45.284 Y-233.139 Z-2.361 I0 J-0.163
X-45.284 Y-232.814 Z-2.422 I0 J0.163
X-45.284 Y-233.139 Z-2.483 I0 J-0.163
X-45.284 Y-232.814 Z-2.544 I0 J0.163
X-45.284 Y-233.139 Z-2.606 I0 J-0.163
X-45.284 Y-232.814 Z-2.667 I0 J0.163
X-45.284 Y-233.139 Z-2.728 I0 J-0.163
X-45.284 Y-232.814 Z-2.789 I0 J0.163
X-45.284 Y-233.139 Z-2.85 I0 J-0.163
X-45.284 Y-232.814 Z-2.911 I0 J0.163
X-45.284 Y-233.139 Z-2.972 I0 J-0.163
X-45.284 Y-232.814 Z-3.033 I0 J0.163
X-45.284 Y-233.139 Z-3.094 I0 J-0.163
X-45.284 Y-232.814 Z-3.156 I0 J0.163
X-45.284 Y-233.139 Z-3.217 I0 J-0.163
X-45.284 Y-232.814 Z-3.278 I0 J0.163
X-45.284 Y-233.139 Z-3.339 I0 J-0.163
X-45.284 Y-232.814 Z-3.4 I0 J0.163
X-45.284 Y-233.139 Z-3.461 I0 J-0.163
X-45.284 Y-232.814 Z-3.522 I0 J0.163
X-45.284 Y-233.139 Z-3.583 I0 J-0.163
X-45.284 Y-232.814 Z-3.644 I0 J0.163
X-45.284 Y-233.139 Z-3.706 I0 J-0.163
X-45.284 Y-232.814 Z-3.767 I0 J0.163
X-45.284 Y-233.139 Z-3.828 I0 J-0.163
X-45.284 Y-232.814 Z-3.889 I0 J0.163
X-45.284 Y-233.139 Z-3.95 I0 J-0.163
X-45.284 Y-232.814 Z-4.011 I0 J0.163
X-45.284 Y-233.139 Z-4.072 I0 J-0.163
X-45.284 Y-232.814 Z-4.133 I0 J0.163
X-45.284 Y-233.139 Z-4.194 I0 J-0.163
X-45.284 Y-232.814 Z-4.256 I0 J0.163
X-45.284 Y-233.139 Z-4.317 I0 J-0.163
X-45.284 Y-232.814 Z-4.378 I0 J0.163
X-45.284 Y-233.139 Z-4.439 I0 J-0.163
X-45.284 Y-232.814 Z-4.5 I0 J0.163
X-45.284 Y-233.139 Z-4.561 I0 J-0.163
X-45.284 Y-232.814 Z-4.622 I0 J0.163
X-45.284 Y-233.139 Z-4.683 I0 J-0.163
X-45.284 Y-232.814 Z-4.744 I0 J0.163
X-45.284 Y-233.139 Z-4.806 I0 J-0.163
X-45.284 Y-232.814 Z-4.867 I0 J0.163
X-45.284 Y-233.139 Z-4.928 I0 J-0.163
X-45.284 Y-232.814 Z-4.989 I0 J0.163
X-45.284 Y-233.139 Z-5.05 I0 J-0.163
X-45.284 Y-232.814 Z-5.111 I0 J0.163
X-45.284 Y-233.139 Z-5.172 I0 J-0.163
X-45.284 Y-232.814 Z-5.233 I0 J0.163
X-45.284 Y-233.139 Z-5.294 I0 J-0.163
X-45.284 Y-232.814 Z-5.356 I0 J0.163
X-45.284 Y-233.139 Z-5.417 I0 J-0.163
X-45.284 Y-232.814 Z-5.478 I0 J0.163
X-45.284 Y-233.139 Z-5.539 I0 J-0.163
X-45.284 Y-232.814 Z-5.6 I0 J0.163
X-45.284 Y-233.139 Z-5.661 I0 J-0.163
X-45.284 Y-232.814 Z-5.722 I0 J0.163
X-45.284 Y-233.139 Z-5.783 I0 J-0.163
X-45.284 Y-232.814 Z-5.844 I0 J0.163
X-45.284 Y-233.139 Z-5.906 I0 J-0.163
X-45.284 Y-232.814 Z-5.967 I0 J0.163
X-45.284 Y-233.139 Z-6.028 I0 J-0.163
X-45.284 Y-232.814 Z-6.089 I0 J0.163
X-45.284 Y-233.139 Z-6.15 I0 J-0.163
X-45.284 Y-232.814 Z-6.211 I0 J0.163
X-45.284 Y-233.139 Z-6.272 I0 J-0.163
X-45.284 Y-232.814 Z-6.333 I0 J0.163
X-45.284 Y-233.139 Z-6.394 I0 J-0.163
X-45.284 Y-232.814 Z-6.456 I0 J0.163
X-45.284 Y-233.139 Z-6.517 I0 J-0.163
X-45.284 Y-232.814 Z-6.578 I0 J0.163
X-45.284 Y-233.139 Z-6.639 I0 J-0.163
X-45.284 Y-232.814 Z-6.7 I0 J0.163
X-45.284 Y-233.139 Z-6.761 I0 J-0.163
X-45.284 Y-232.814 Z-6.822 I0 J0.163
X-45.284 Y-233.139 Z-6.883 I0 J-0.163
X-45.284 Y-232.814 Z-6.944 I0 J0.163
X-45.284 Y-233.139 Z-7.006 I0 J-0.163
X-45.284 Y-232.814 Z-7.067 I0 J0.163
X-45.284 Y-233.139 Z-7.128 I0 J-0.163
X-45.284 Y-232.814 Z-7.189 I0 J0.163
X-45.284 Y-233.139 Z-7.25 I0 J-0.163
X-45.196 Y-232.84 Z-7.3 I0 J0.163
X-45.372 Y-233.113 I-0.088 J-0.137
X-45.196 Y-232.84 I0.088 J0.137
G1 X-45.225 Y-232.828
X-45.257 Y-232.829
X-45.286 Y-232.841
X-45.308 Y-232.864
X-45.394 Y-232.997
Z5
X-56.482 Y-217.745
Z3
Z1.317
G19 G3 Y-217.428 Z1 J0.317 K0
G1 Y-217.269
G17 G3 X-56.8 Y-216.952 I-0.318 J0
X-56.8 Y-218.777 Z0.913 I0 J-0.913
X-56.8 Y-216.952 Z0.825 I0 J0.913
X-56.8 Y-218.777 Z0.738 I0 J-0.913
X-56.8 Y-216.952 Z0.651 I0 J0.913
X-56.8 Y-218.777 Z0.563 I0 J-0.913
X-56.8 Y-216.952 Z0.476 I0 J0.913
X-56.8 Y-218.777 Z0.389 I0 J-0.913
X-56.8 Y-216.952 Z0.302 I0 J0.913
X-56.8 Y-218.777 Z0.214 I0 J-0.913
X-56.8 Y-216.952 Z0.127 I0 J0.913
X-56.8 Y-218.777 Z0.04 I0 J-0.913
X-56.8 Y-216.952 Z-0.048 I0 J0.913
X-56.8 Y-218.777 Z-0.135 I0 J-0.913
X-56.8 Y-216.952 Z-0.222 I0 J0.913
X-56.8 Y-218.777 Z-0.31 I0 J-0.913
X-56.8 Y-216.952 Z-0.397 I0 J0.913
X-56.8 Y-218.777 Z-0.484 I0 J-0.913
X-56.8 Y-216.952 Z-0.571 I0 J0.913
X-56.8 Y-218.777 Z-0.659 I0 J-0.913
X-56.8 Y-216.952 Z-0.746 I0 J0.913
X-56.8 Y-218.777 Z-0.833 I0 J-0.913
X-56.8 Y-216.952 Z-0.921 I0 J0.913
X-56.8 Y-218.777 Z-1.008 I0 J-0.913
X-56.8 Y-216.952 Z-1.095 I0 J0.913
X-56.8 Y-218.777 Z-1.183 I0 J-0.913
X-56.8 Y-216.952 Z-1.27 I0 J0.913
X-56.8 Y-218.777 Z-1.357 I0 J-0.913
X-56.8 Y-216.952 Z-1.444 I0 J0.913
X-56.8 Y-218.777 Z-1.532 I0 J-0.913
X-56.8 Y-216.952 Z-1.619 I0 J0.913
X-56.8 Y-218.777 Z-1.706 I0 J-0.913
X-56.8 Y-216.952 Z-1.794 I0 J0.913
X-56.8 Y-218.777 Z-1.881 I0 J-0.913
X-56.8 Y-216.952 Z-1.968 I0 J0.913
X-56.8 Y-218.777 Z-2.056 I0 J-0.913
X-56.8 Y-216.952 Z-2.143 I0 J0.913
X-56.8 Y-218.777 Z-2.23 I0 J-0.913
X-56.8 Y-216.952 Z-2.317 I0 J0.913
X-56.8 Y-218.777 Z-2.405 I0 J-0.913
X-56.8 Y-216.952 Z-2.492 I0 J0.913
X-56.8 Y-218.777 Z-2.579 I0 J-0.913
X-56.8 Y-216.952 Z-2.667 I0 J0.913
X-56.8 Y-218.777 Z-2.754 I0 J-0.913
X-56.8 Y-216.952 Z-2.841 I0 J0.913
X-56.8 Y-218.777 Z-2.929 I0 J-0.913
X-56.8 Y-216.952 Z-3.016 I0 J0.913
X-56.8 Y-218.777 Z-3.103 I0 J-0.913
X-56.8 Y-216.952 Z-3.19 I0 J0.913
X-56.8 Y-218.777 Z-3.278 I0 J-0.913
X-56.8 Y-216.952 Z-3.365 I0 J0.913
X-56.8 Y-218.777 Z-3.452 I0 J-0.913
X-56.8 Y-216.952 Z-3.54 I0 J0.913
X-56.8 Y-218.777 Z-3.627 I0 J-0.913
X-56.8 Y-216.952 Z-3.714 I0 J0.913
X-56.8 Y-218.777 Z-3.802 I0 J-0.913
X-56.8 Y-216.952 Z-3.889 I0 J0.913
X-56.8 Y-218.777 Z-3.976 I0 J-0.913
X-56.8 Y-216.952 Z-4.064 I0 J0.913
X-56.8 Y-218.777 Z-4.151 I0 J-0.913
X-56.8 Y-216.952 Z-4.238 I0 J0.913
X-56.8 Y-218.777 Z-4.325 I0 J-0.913
X-56.8 Y-216.952 Z-4.413 I0 J0.913
X-56.8 Y-218.777 Z-4.5 I0 J-0.913
X-56.8 Y-216.952 Z-4.587 I0 J0.913
X-56.8 Y-218.777 Z-4.675 I0 J-0.913
X-56.8 Y-216.952 Z-4.762 I0 J0.913
X-56.8 Y-218.777 Z-4.849 I0 J-0.913
X-56.8 Y-216.952 Z-4.937 I0 J0.913
X-56.8 Y-218.777 Z-5.024 I0 J-0.913
X-56.8 Y-216.952 Z-5.111 I0 J0.913
X-56.8 Y-218.777 Z-5.198 I0 J-0.913
X-56.8 Y-216.952 Z-5.286 I0 J0.913
X-56.8 Y-218.777 Z-5.373 I0 J-0.913
X-56.8 Y-216.952 Z-5.46 I0 J0.913
X-56.8 Y-218.777 Z-5.548 I0 J-0.913
X-56.8 Y-216.952 Z-5.635 I0 J0.913
X-56.8 Y-218.777 Z-5.722 I0 J-0.913
X-56.8 Y-216.952 Z-5.81 I0 J0.913
X-56.8 Y-218.777 Z-5.897 I0 J-0.913
X-56.8 Y-216.952 Z-5.984 I0 J0.913
X-56.8 Y-218.777 Z-6.071 I0 J-0.913
X-56.8 Y-216.952 Z-6.159 I0 J0.913
X-56.8 Y-218.777 Z-6.246 I0 J-0.913
X-56.8 Y-216.952 Z-6.333 I0 J0.913
X-56.8 Y-218.777 Z-6.421 I0 J-0.913
X-56.8 Y-216.952 Z-6.508 I0 J0.913
X-56.8 Y-218.777 Z-6.595 I0 J-0.913
X-56.8 Y-216.952 Z-6.683 I0 J0.912
X-56.8 Y-218.777 Z-6.77 I0 J-0.912
X-56.8 Y-216.952 Z-6.857 I0 J0.912
X-56.8 Y-218.777 Z-6.944 I0 J-0.912
X-56.8 Y-216.952 Z-7.032 I0 J0.912
X-56.8 Y-218.777 Z-7.119 I0 J-0.912
X-56.8 Y-216.952 Z-7.206 I0 J0.912
X-57.707 Y-217.968 Z-7.253 I0 J-0.912
X-56.594 Y-218.753 Z-7.3 I0.907 J0.103
X-57.006 Y-216.975 I-0.206 J0.889
X-56.594 Y-218.753 I0.206 J-0.889
X-56.357 Y-218.372 I-0.072 J0.309
G1 X-56.392 Y-218.218
X-56.408 Y-218.149 Z-7.292
X-56.423 Y-218.083 Z-7.269
X-56.437 Y-218.025 Z-7.231
X-56.448 Y-217.976 Z-7.18
X-56.457 Y-217.939 Z-7.12
X-56.462 Y-217.916 Z-7.053
X-56.464 Y-217.908 Z-6.983
Z5
X-68.235 Y-202.829
Z2.682
Z1
Y-202.671
X-68.241 Y-202.639
X-68.259 Y-202.613
X-68.285 Y-202.596
X-68.316 Y-202.589
G3 X-68.316 Y-202.914 Z0.939 I0 J-0.163
X-68.316 Y-202.589 Z0.878 I0 J0.163
X-68.316 Y-202.914 Z0.817 I0 J-0.163
X-68.316 Y-202.589 Z0.756 I0 J0.163
X-68.316 Y-202.914 Z0.694 I0 J-0.163
X-68.316 Y-202.589 Z0.633 I0 J0.163
X-68.316 Y-202.914 Z0.572 I0 J-0.163
X-68.316 Y-202.589 Z0.511 I0 J0.163
X-68.316 Y-202.914 Z0.45 I0 J-0.163
X-68.316 Y-202.589 Z0.389 I0 J0.163
X-68.316 Y-202.914 Z0.328 I0 J-0.163
X-68.316 Y-202.589 Z0.267 I0 J0.163
X-68.316 Y-202.914 Z0.206 I0 J-0.163
X-68.316 Y-202.589 Z0.144 I0 J0.163
X-68.316 Y-202.914 Z0.083 I0 J-0.163
X-68.316 Y-202.589 Z0.022 I0 J0.163
X-68.316 Y-202.914 Z-0.039 I0 J-0.163
X-68.316 Y-202.589 Z-0.1 I0 J0.163
X-68.316 Y-202.914 Z-0.161 I0 J-0.163
X-68.316 Y-202.589 Z-0.222 I0 J0.163
X-68.316 Y-202.914 Z-0.283 I0 J-0.163
X-68.316 Y-202.589 Z-0.344 I0 J0.163
X-68.316 Y-202.914 Z-0.406 I0 J-0.163
X-68.316 Y-202.589 Z-0.467 I0 J0.163
X-68.316 Y-202.914 Z-0.528 I0 J-0.163
X-68.316 Y-202.589 Z-0.589 I0 J0.163
X-68.316 Y-202.914 Z-0.65 I0 J-0.163
X-68.316 Y-202.589 Z-0.711 I0 J0.163
X-68.316 Y-202.914 Z-0.772 I0 J-0.163
X-68.316 Y-202.589 Z-0.833 I0 J0.163
X-68.316 Y-202.914 Z-0.894 I0 J-0.163
X-68.316 Y-202.589 Z-0.956 I0 J0.163
X-68.316 Y-202.914 Z-1.017 I0 J-0.163
X-68.316 Y-202.589 Z-1.078 I0 J0.163
X-68.316 Y-202.914 Z-1.139 I0 J-0.163
X-68.316 Y-202.589 Z-1.2 I0 J0.163
X-68.316 Y-202.914 Z-1.261 I0 J-0.163
X-68.316 Y-202.589 Z-1.322 I0 J0.163
X-68.316 Y-202.914 Z-1.383 I0 J-0.163
X-68.316 Y-202.589 Z-1.444 I0 J0.163
X-68.316 Y-202.914 Z-1.506 I0 J-0.163
X-68.316 Y-202.589 Z-1.567 I0 J0.163
X-68.316 Y-202.914 Z-1.628 I0 J-0.163
X-68.316 Y-202.589 Z-1.689 I0 J0.163
X-68.316 Y-202.914 Z-1.75 I0 J-0.163
X-68.316 Y-202.589 Z-1.811 I0 J0.163
X-68.316 Y-202.914 Z-1.872 I0 J-0.163
X-68.316 Y-202.589 Z-1.933 I0 J0.163
X-68.316 Y-202.914 Z-1.994 I0 J-0.163
X-68.316 Y-202.589 Z-2.056 I0 J0.163
X-68.316 Y-202.914 Z-2.117 I0 J-0.163
X-68.316 Y-202.589 Z-2.178 I0 J0.163
X-68.316 Y-202.914 Z-2.239 I0 J-0.163
X-68.316 Y-202.589 Z-2.3 I0 J0.163
X-68.316 Y-202.914 Z-2.361 I0 J-0.163
X-68.316 Y-202.589 Z-2.422 I0 J0.163
X-68.316 Y-202.914 Z-2.483 I0 J-0.163
X-68.316 Y-202.589 Z-2.544 I0 J0.163
X-68.316 Y-202.914 Z-2.606 I0 J-0.163
X-68.316 Y-202.589 Z-2.667 I0 J0.163
X-68.316 Y-202.914 Z-2.728 I0 J-0.163
X-68.316 Y-202.589 Z-2.789 I0 J0.163
X-68.316 Y-202.914 Z-2.85 I0 J-0.163
X-68.316 Y-202.589 Z-2.911 I0 J0.163
X-68.316 Y-202.914 Z-2.972 I0 J-0.163
X-68.316 Y-202.589 Z-3.033 I0 J0.163
X-68.316 Y-202.914 Z-3.094 I0 J-0.163
X-68.316 Y-202.589 Z-3.156 I0 J0.163
X-68.316 Y-202.914 Z-3.217 I0 J-0.163
X-68.316 Y-202.589 Z-3.278 I0 J0.163
X-68.316 Y-202.914 Z-3.339 I0 J-0.163
X-68.316 Y-202.589 Z-3.4 I0 J0.163
X-68.316 Y-202.914 Z-3.461 I0 J-0.163
X-68.316 Y-202.589 Z-3.522 I0 J0.163
X-68.316 Y-202.914 Z-3.583 I0 J-0.163
X-68.316 Y-202.589 Z-3.644 I0 J0.163
X-68.316 Y-202.914 Z-3.706 I0 J-0.163
X-68.316 Y-202.589 Z-3.767 I0 J0.163
X-68.316 Y-202.914 Z-3.828 I0 J-0.163
X-68.316 Y-202.589 Z-3.889 I0 J0.163
X-68.316 Y-202.914 Z-3.95 I0 J-0.163
X-68.316 Y-202.589 Z-4.011 I0 J0.163
X-68.316 Y-202.914 Z-4.072 I0 J-0.163
X-68.316 Y-202.589 Z-4.133 I0 J0.163
X-68.316 Y-202.914 Z-4.194 I0 J-0.163
X-68.316 Y-202.589 Z-4.256 I0 J0.163
X-68.316 Y-202.914 Z-4.317 I0 J-0.163
X-68.316 Y-202.589 Z-4.378 I0 J0.163
X-68.316 Y-202.914 Z-4.439 I0 J-0.163
X-68.316 Y-202.589 Z-4.5 I0 J0.163
X-68.316 Y-202.914 Z-4.561 I0 J-0.163
X-68.316 Y-202.589 Z-4.622 I0 J0.163
X-68.316 Y-202.914 Z-4.683 I0 J-0.163
X-68.316 Y-202.589 Z-4.744 I0 J0.163
X-68.316 Y-202.914 Z-4.806 I0 J-0.163
X-68.316 Y-202.589 Z-4.867 I0 J0.163
X-68.316 Y-202.914 Z-4.928 I0 J-0.163
X-68.316 Y-202.589 Z-4.989 I0 J0.163
X-68.316 Y-202.914 Z-5.05 I0 J-0.163
X-68.316 Y-202.589 Z-5.111 I0 J0.163
X-68.316 Y-202.914 Z-5.172 I0 J-0.163
X-68.316 Y-202.589 Z-5.233 I0 J0.163
X-68.316 Y-202.914 Z-5.294 I0 J-0.163
X-68.316 Y-202.589 Z-5.356 I0 J0.163
X-68.316 Y-202.914 Z-5.417 I0 J-0.163
X-68.316 Y-202.589 Z-5.478 I0 J0.163
X-68.316 Y-202.914 Z-5.539 I0 J-0.163
X-68.316 Y-202.589 Z-5.6 I0 J0.163
X-68.316 Y-202.914 Z-5.661 I0 J-0.163
X-68.316 Y-202.589 Z-5.722 I0 J0.163
X-68.316 Y-202.914 Z-5.783 I0 J-0.163
X-68.316 Y-202.589 Z-5.844 I0 J0.163
X-68.316 Y-202.914 Z-5.906 I0 J-0.163
X-68.316 Y-202.589 Z-5.967 I0 J0.163
X-68.316 Y-202.914 Z-6.028 I0 J-0.163
X-68.316 Y-202.589 Z-6.089 I0 J0.163
X-68.316 Y-202.914 Z-6.15 I0 J-0.163
X-68.316 Y-202.589 Z-6.211 I0 J0.163
X-68.316 Y-202.914 Z-6.272 I0 J-0.163
X-68.316 Y-202.589 Z-6.333 I0 J0.163
X-68.316 Y-202.914 Z-6.394 I0 J-0.163
X-68.316 Y-202.589 Z-6.456 I0 J0.163
X-68.316 Y-202.914 Z-6.517 I0 J-0.163
X-68.316 Y-202.589 Z-6.578 I0 J0.163
X-68.316 Y-202.914 Z-6.639 I0 J-0.163
X-68.316 Y-202.589 Z-6.7 I0 J0.163
X-68.316 Y-202.914 Z-6.761 I0 J-0.163
X-68.316 Y-202.589 Z-6.822 I0 J0.163
X-68.316 Y-202.914 Z-6.883 I0 J-0.163
X-68.316 Y-202.589 Z-6.944 I0 J0.163
X-68.316 Y-202.914 Z-7.006 I0 J-0.163
X-68.316 Y-202.589 Z-7.067 I0 J0.163
X-68.316 Y-202.914 Z-7.128 I0 J-0.163
X-68.316 Y-202.589 Z-7.189 I0 J0.163
X-68.316 Y-202.914 Z-7.25 I0 J-0.163
X-68.228 Y-202.615 Z-7.3 I0 J0.163
X-68.404 Y-202.888 I-0.088 J-0.137
X-68.228 Y-202.615 I0.088 J0.137
G1 X-68.257 Y-202.604
X-68.289
X-68.318 Y-202.617
X-68.34 Y-202.64
X-68.426 Y-202.773
Z5
X-9.919 Y-184.227
Z2.682
Z1
Y-184.068
X-9.925 Y-184.037
X-9.943 Y-184.011
X-9.969 Y-183.993
X-10 Y-183.987
G3 X-10 Y-184.312 Z0.939 I0 J-0.163
X-10 Y-183.987 Z0.878 I0 J0.163
X-10 Y-184.312 Z0.817 I0 J-0.163
X-10 Y-183.987 Z0.756 I0 J0.163
X-10 Y-184.312 Z0.694 I0 J-0.163
X-10 Y-183.987 Z0.633 I0 J0.163
X-10 Y-184.312 Z0.572 I0 J-0.163
X-10 Y-183.987 Z0.511 I0 J0.163
X-10 Y-184.312 Z0.45 I0 J-0.163
X-10 Y-183.987 Z0.389 I0 J0.163
X-10 Y-184.312 Z0.328 I0 J-0.163
X-10 Y-183.987 Z0.267 I0 J0.163
X-10 Y-184.312 Z0.206 I0 J-0.163
X-10 Y-183.987 Z0.144 I0 J0.163
X-10 Y-184.312 Z0.083 I0 J-0.163
X-10 Y-183.987 Z0.022 I0 J0.163
X-10 Y-184.312 Z-0.039 I0 J-0.163
X-10 Y-183.987 Z-0.1 I0 J0.163
X-10 Y-184.312 Z-0.161 I0 J-0.163
X-10 Y-183.987 Z-0.222 I0 J0.163
X-10 Y-184.312 Z-0.283 I0 J-0.163
X-10 Y-183.987 Z-0.344 I0 J0.163
X-10 Y-184.312 Z-0.406 I0 J-0.163
X-10 Y-183.987 Z-0.467 I0 J0.163
X-10 Y-184.312 Z-0.528 I0 J-0.163
X-10 Y-183.987 Z-0.589 I0 J0.163
X-10 Y-184.312 Z-0.65 I0 J-0.163
X-10 Y-183.987 Z-0.711 I0 J0.163
X-10 Y-184.312 Z-0.772 I0 J-0.163
X-10 Y-183.987 Z-0.833 I0 J0.163
X-10 Y-184.312 Z-0.894 I0 J-0.163
X-10 Y-183.987 Z-0.956 I0 J0.163
X-10 Y-184.312 Z-1.017 I0 J-0.163
X-10 Y-183.987 Z-1.078 I0 J0.163
X-10 Y-184.312 Z-1.139 I0 J-0.163
X-10 Y-183.987 Z-1.2 I0 J0.163
X-10 Y-184.312 Z-1.261 I0 J-0.163
X-10 Y-183.987 Z-1.322 I0 J0.163
X-10 Y-184.312 Z-1.383 I0 J-0.163
X-10 Y-183.987 Z-1.444 I0 J0.163
X-10 Y-184.312 Z-1.506 I0 J-0.163
X-10 Y-183.987 Z-1.567 I0 J0.163
X-10 Y-184.312 Z-1.628 I0 J-0.163
X-10 Y-183.987 Z-1.689 I0 J0.163
X-10 Y-184.312 Z-1.75 I0 J-0.163
X-10 Y-183.987 Z-1.811 I0 J0.163
X-10 Y-184.312 Z-1.872 I0 J-0.163
X-10 Y-183.987 Z-1.933 I0 J0.163
X-10 Y-184.312 Z-1.994 I0 J-0.163
X-10 Y-183.987 Z-2.056 I0 J0.163
X-10 Y-184.312 Z-2.117 I0 J-0.163
X-10 Y-183.987 Z-2.178 I0 J0.163
X-10 Y-184.312 Z-2.239 I0 J-0.163
X-10 Y-183.987 Z-2.3 I0 J0.163
X-10 Y-184.312 Z-2.361 I0 J-0.163
X-10 Y-183.987 Z-2.422 I0 J0.163
X-10 Y-184.312 Z-2.483 I0 J-0.163
X-10 Y-183.987 Z-2.544 I0 J0.163
X-10 Y-184.312 Z-2.606 I0 J-0.163
X-10 Y-183.987 Z-2.667 I0 J0.163
X-10 Y-184.312 Z-2.728 I0 J-0.163
X-10 Y-183.987 Z-2.789 I0 J0.163
X-10 Y-184.312 Z-2.85 I0 J-0.163
X-10 Y-183.987 Z-2.911 I0 J0.163
X-10 Y-184.312 Z-2.972 I0 J-0.163
X-10 Y-183.987 Z-3.033 I0 J0.163
X-10 Y-184.312 Z-3.094 I0 J-0.163
X-10 Y-183.987 Z-3.156 I0 J0.163
X-10 Y-184.312 Z-3.217 I0 J-0.163
X-10 Y-183.987 Z-3.278 I0 J0.163
X-10 Y-184.312 Z-3.339 I0 J-0.163
X-10 Y-183.987 Z-3.4 I0 J0.163
X-10 Y-184.312 Z-3.461 I0 J-0.163
X-10 Y-183.987 Z-3.522 I0 J0.163
X-10 Y-184.312 Z-3.583 I0 J-0.163
X-10 Y-183.987 Z-3.644 I0 J0.163
X-10 Y-184.312 Z-3.706 I0 J-0.163
X-10 Y-183.987 Z-3.767 I0 J0.163
X-10 Y-184.312 Z-3.828 I0 J-0.163
X-10 Y-183.987 Z-3.889 I0 J0.163
X-10 Y-184.312 Z-3.95 I0 J-0.163
X-10 Y-183.987 Z-4.011 I0 J0.163
X-10 Y-184.312 Z-4.072 I0 J-0.163
X-10 Y-183.987 Z-4.133 I0 J0.163
X-10 Y-184.312 Z-4.194 I0 J-0.163
X-10 Y-183.987 Z-4.256 I0 J0.163
X-10 Y-184.312 Z-4.317 I0 J-0.163
X-10 Y-183.987 Z-4.378 I0 J0.163
X-10 Y-184.312 Z-4.439 I0 J-0.163
X-10 Y-183.987 Z-4.5 I0 J0.163
X-10 Y-184.312 Z-4.561 I0 J-0.163
X-10 Y-183.987 Z-4.622 I0 J0.163
X-10 Y-184.312 Z-4.683 I0 J-0.163
X-10 Y-183.987 Z-4.744 I0 J0.163
X-10 Y-184.312 Z-4.806 I0 J-0.163
X-10 Y-183.987 Z-4.867 I0 J0.163
X-10 Y-184.312 Z-4.928 I0 J-0.163
X-10 Y-183.987 Z-4.989 I0 J0.163
X-10 Y-184.312 Z-5.05 I0 J-0.163
X-10 Y-183.987 Z-5.111 I0 J0.163
X-10 Y-184.312 Z-5.172 I0 J-0.163
X-10 Y-183.987 Z-5.233 I0 J0.163
X-10 Y-184.312 Z-5.294 I0 J-0.163
X-10 Y-183.987 Z-5.356 I0 J0.163
X-10 Y-184.312 Z-5.417 I0 J-0.163
X-10 Y-183.987 Z-5.478 I0 J0.163
X-10 Y-184.312 Z-5.539 I0 J-0.163
X-10 Y-183.987 Z-5.6 I0 J0.163
X-10 Y-184.312 Z-5.661 I0 J-0.163
X-10 Y-183.987 Z-5.722 I0 J0.163
X-10 Y-184.312 Z-5.783 I0 J-0.163
X-10 Y-183.987 Z-5.844 I0 J0.163
X-10 Y-184.312 Z-5.906 I0 J-0.163
X-10 Y-183.987 Z-5.967 I0 J0.163
X-10 Y-184.312 Z-6.028 I0 J-0.163
X-10 Y-183.987 Z-6.089 I0 J0.163
X-10 Y-184.312 Z-6.15 I0 J-0.163
X-10 Y-183.987 Z-6.211 I0 J0.163
X-10 Y-184.312 Z-6.272 I0 J-0.163
X-10 Y-183.987 Z-6.333 I0 J0.163
X-10 Y-184.312 Z-6.394 I0 J-0.163
X-10 Y-183.987 Z-6.456 I0 J0.163
X-10 Y-184.312 Z-6.517 I0 J-0.163
X-10 Y-183.987 Z-6.578 I0 J0.163
X-10 Y-184.312 Z-6.639 I0 J-0.163
X-10 Y-183.987 Z-6.7 I0 J0.163
X-10 Y-184.312 Z-6.761 I0 J-0.163
X-10 Y-183.987 Z-6.822 I0 J0.163
X-10 Y-184.312 Z-6.883 I0 J-0.163
X-10 Y-183.987 Z-6.944 I0 J0.163
X-10 Y-184.312 Z-7.006 I0 J-0.163
X-10 Y-183.987 Z-7.067 I0 J0.163
X-10 Y-184.312 Z-7.128 I0 J-0.163
X-10 Y-183.987 Z-7.189 I0 J0.163
X-10 Y-184.312 Z-7.25 I0 J-0.163
X-9.912 Y-184.013 Z-7.3 I0 J0.163
X-10.088 Y-184.286 I-0.088 J-0.137
X-9.912 Y-184.013 I0.088 J0.137
G1 X-9.941 Y-184.001
X-9.973 Y-184.002
X-10.002 Y-184.015
X-10.024 Y-184.037
X-10.11 Y-184.171
Z5
X-11.081 Y-158.987
Z2.682
Z1
Y-159.145
X-11.075 Y-159.176
X-11.057 Y-159.203
X-11.031 Y-159.22
X-11 Y-159.227
G3 X-11 Y-158.902 Z0.939 I0 J0.163
X-11 Y-159.227 Z0.878 I0 J-0.163
X-11 Y-158.902 Z0.817 I0 J0.163
X-11 Y-159.227 Z0.756 I0 J-0.163
X-11 Y-158.902 Z0.694 I0 J0.163
X-11 Y-159.227 Z0.633 I0 J-0.163
X-11 Y-158.902 Z0.572 I0 J0.163
X-11 Y-159.227 Z0.511 I0 J-0.163
X-11 Y-158.902 Z0.45 I0 J0.163
X-11 Y-159.227 Z0.389 I0 J-0.163
X-11 Y-158.902 Z0.328 I0 J0.163
X-11 Y-159.227 Z0.267 I0 J-0.163
X-11 Y-158.902 Z0.206 I0 J0.163
X-11 Y-159.227 Z0.144 I0 J-0.163
X-11 Y-158.902 Z0.083 I0 J0.163
X-11 Y-159.227 Z0.022 I0 J-0.163
X-11 Y-158.902 Z-0.039 I0 J0.163
X-11 Y-159.227 Z-0.1 I0 J-0.163
X-11 Y-158.902 Z-0.161 I0 J0.163
X-11 Y-159.227 Z-0.222 I0 J-0.163
X-11 Y-158.902 Z-0.283 I0 J0.163
X-11 Y-159.227 Z-0.344 I0 J-0.163
X-11 Y-158.902 Z-0.406 I0 J0.163
X-11 Y-159.227 Z-0.467 I0 J-0.163
X-11 Y-158.902 Z-0.528 I0 J0.163
X-11 Y-159.227 Z-0.589 I0 J-0.163
X-11 Y-158.902 Z-0.65 I0 J0.163
X-11 Y-159.227 Z-0.711 I0 J-0.163
X-11 Y-158.902 Z-0.772 I0 J0.163
X-11 Y-159.227 Z-0.833 I0 J-0.163
X-11 Y-158.902 Z-0.894 I0 J0.163
X-11 Y-159.227 Z-0.956 I0 J-0.163
X-11 Y-158.902 Z-1.017 I0 J0.163
X-11 Y-159.227 Z-1.078 I0 J-0.163
X-11 Y-158.902 Z-1.139 I0 J0.163
X-11 Y-159.227 Z-1.2 I0 J-0.163
X-11 Y-158.902 Z-1.261 I0 J0.163
X-11 Y-159.227 Z-1.322 I0 J-0.163
X-11 Y-158.902 Z-1.383 I0 J0.163
X-11 Y-159.227 Z-1.444 I0 J-0.163
X-11 Y-158.902 Z-1.506 I0 J0.163
X-11 Y-159.227 Z-1.567 I0 J-0.163
X-11 Y-158.902 Z-1.628 I0 J0.163
X-11 Y-159.227 Z-1.689 I0 J-0.163
X-11 Y-158.902 Z-1.75 I0 J0.163
X-11 Y-159.227 Z-1.811 I0 J-0.163
X-11 Y-158.902 Z-1.872 I0 J0.163
X-11 Y-159.227 Z-1.933 I0 J-0.163
X-11 Y-158.902 Z-1.994 I0 J0.163
X-11 Y-159.227 Z-2.056 I0 J-0.163
X-11 Y-158.902 Z-2.117 I0 J0.163
X-11 Y-159.227 Z-2.178 I0 J-0.163
X-11 Y-158.902 Z-2.239 I0 J0.163
X-11 Y-159.227 Z-2.3 I0 J-0.163
X-11 Y-158.902 Z-2.361 I0 J0.163
X-11 Y-159.227 Z-2.422 I0 J-0.163
X-11 Y-158.902 Z-2.483 I0 J0.163
X-11 Y-159.227 Z-2.544 I0 J-0.163
X-11 Y-158.902 Z-2.606 I0 J0.163
X-11 Y-159.227 Z-2.667 I0 J-0.163
X-11 Y-158.902 Z-2.728 I0 J0.163
X-11 Y-159.227 Z-2.789 I0 J-0.163
X-11 Y-158.902 Z-2.85 I0 J0.163
X-11 Y-159.227 Z-2.911 I0 J-0.163
X-11 Y-158.902 Z-2.972 I0 J0.162
X-11 Y-159.227 Z-3.033 I0 J-0.162
X-11 Y-158.902 Z-3.094 I0 J0.162
X-11 Y-159.227 Z-3.156 I0 J-0.162
X-11 Y-158.902 Z-3.217 I0 J0.162
X-11 Y-159.227 Z-3.278 I0 J-0.162
X-11 Y-158.902 Z-3.339 I0 J0.162
X-11 Y-159.227 Z-3.4 I0 J-0.162
X-11 Y-158.902 Z-3.461 I0 J0.162
X-11 Y-159.227 Z-3.522 I0 J-0.162
X-11 Y-158.902 Z-3.583 I0 J0.162
X-11 Y-159.227 Z-3.644 I0 J-0.162
X-11 Y-158.902 Z-3.706 I0 J0.162
X-11 Y-159.227 Z-3.767 I0 J-0.162
X-11 Y-158.902 Z-3.828 I0 J0.162
X-11 Y-159.227 Z-3.889 I0 J-0.162
X-11 Y-158.902 Z-3.95 I0 J0.162
X-11 Y-159.227 Z-4.011 I0 J-0.162
X-11 Y-158.902 Z-4.072 I0 J0.162
X-11 Y-159.227 Z-4.133 I0 J-0.162
X-11 Y-158.902 Z-4.194 I0 J0.162
X-11 Y-159.227 Z-4.256 I0 J-0.162
X-11 Y-158.902 Z-4.317 I0 J0.162
X-11 Y-159.227 Z-4.378 I0 J-0.162
X-11 Y-158.902 Z-4.439 I0 J0.162
X-11 Y-159.227 Z-4.5 I0 J-0.162
X-11 Y-158.902 Z-4.561 I0 J0.162
X-11 Y-159.227 Z-4.622 I0 J-0.162
X-11 Y-158.902 Z-4.683 I0 J0.162
X-11 Y-159.227 Z-4.744 I0 J-0.162
X-11 Y-158.902 Z-4.806 I0 J0.162
X-11 Y-159.227 Z-4.867 I0 J-0.162
X-11 Y-158.902 Z-4.928 I0 J0.162
X-11 Y-159.227 Z-4.989 I0 J-0.162
X-11 Y-158.902 Z-5.05 I0 J0.162
X-11 Y-159.227 Z-5.111 I0 J-0.162
X-11 Y-158.902 Z-5.172 I0 J0.162
X-11 Y-159.227 Z-5.233 I0 J-0.162
X-11 Y-158.902 Z-5.294 I0 J0.162
X-11 Y-159.227 Z-5.356 I0 J-0.162
X-11 Y-158.902 Z-5.417 I0 J0.162
X-11 Y-159.227 Z-5.478 I0 J-0.162
X-11 Y-158.902 Z-5.539 I0 J0.162
X-11 Y-159.227 Z-5.6 I0 J-0.162
X-11 Y-158.902 Z-5.661 I0 J0.162
X-11 Y-159.227 Z-5.722 I0 J-0.162
X-11 Y-158.902 Z-5.783 I0 J0.162
X-11 Y-159.227 Z-5.844 I0 J-0.162
X-11 Y-158.902 Z-5.906 I0 J0.162
X-11 Y-159.227 Z-5.967 I0 J-0.162
X-11 Y-158.902 Z-6.028 I0 J0.162
X-11 Y-159.227 Z-6.089 I0 J-0.162
X-11 Y-158.902 Z-6.15 I0 J0.162
X-11 Y-159.227 Z-6.211 I0 J-0.162
X-11 Y-158.902 Z-6.272 I0 J0.162
X-11 Y-159.227 Z-6.333 I0 J-0.162
X-11 Y-158.902 Z-6.394 I0 J0.162
X-11 Y-159.227 Z-6.456 I0 J-0.162
X-11 Y-158.902 Z-6.517 I0 J0.162
X-11 Y-159.227 Z-6.578 I0 J-0.162
X-11 Y-158.902 Z-6.639 I0 J0.162
X-11 Y-159.227 Z-6.7 I0 J-0.162
X-11 Y-158.902 Z-6.761 I0 J0.162
X-11 Y-159.227 Z-6.822 I0 J-0.162
X-11 Y-158.902 Z-6.883 I0 J0.162
X-11 Y-159.227 Z-6.944 I0 J-0.162
X-11 Y-158.902 Z-7.006 I0 J0.162
X-11 Y-159.227 Z-7.067 I0 J-0.162
X-11 Y-158.902 Z-7.128 I0 J0.162
X-11 Y-159.227 Z-7.189 I0 J-0.162
X-11 Y-158.902 Z-7.25 I0 J0.162
X-11.088 Y-159.201 Z-7.3 I0 J-0.162
X-10.912 Y-158.928 I0.088 J0.137
X-11.088 Y-159.201 I-0.088 J-0.137
G1 X-11.059 Y-159.212
X-11.027
X-10.998 Y-159.199
X-10.976 Y-159.176
X-10.89 Y-159.043
Z5
X-10.919 Y-127.142
Z2.682
Z1
Y-126.983
X-10.925 Y-126.952
X-10.943 Y-126.925
X-10.969 Y-126.908
X-11 Y-126.902
G3 X-11 Y-127.227 Z0.939 I0 J-0.162
X-11 Y-126.902 Z0.878 I0 J0.162
X-11 Y-127.227 Z0.817 I0 J-0.162
X-11 Y-126.902 Z0.756 I0 J0.162
X-11 Y-127.227 Z0.694 I0 J-0.162
X-11 Y-126.902 Z0.633 I0 J0.162
X-11 Y-127.227 Z0.572 I0 J-0.162
X-11 Y-126.902 Z0.511 I0 J0.162
X-11 Y-127.227 Z0.45 I0 J-0.162
X-11 Y-126.902 Z0.389 I0 J0.162
X-11 Y-127.227 Z0.328 I0 J-0.162
X-11 Y-126.902 Z0.267 I0 J0.162
X-11 Y-127.227 Z0.206 I0 J-0.162
X-11 Y-126.902 Z0.144 I0 J0.162
X-11 Y-127.227 Z0.083 I0 J-0.162
X-11 Y-126.902 Z0.022 I0 J0.162
X-11 Y-127.227 Z-0.039 I0 J-0.162
X-11 Y-126.902 Z-0.1 I0 J0.162
X-11 Y-127.227 Z-0.161 I0 J-0.162
X-11 Y-126.902 Z-0.222 I0 J0.162
X-11 Y-127.227 Z-0.283 I0 J-0.162
X-11 Y-126.902 Z-0.344 I0 J0.162
X-11 Y-127.227 Z-0.406 I0 J-0.162
X-11 Y-126.902 Z-0.467 I0 J0.162
X-11 Y-127.227 Z-0.528 I0 J-0.162
X-11 Y-126.902 Z-0.589 I0 J0.162
X-11 Y-127.227 Z-0.65 I0 J-0.162
X-11 Y-126.902 Z-0.711 I0 J0.162
X-11 Y-127.227 Z-0.772 I0 J-0.162
X-11 Y-126.902 Z-0.833 I0 J0.162
X-11 Y-127.227 Z-0.894 I0 J-0.162
X-11 Y-126.902 Z-0.956 I0 J0.162
X-11 Y-127.227 Z-1.017 I0 J-0.162
X-11 Y-126.902 Z-1.078 I0 J0.162
X-11 Y-127.227 Z-1.139 I0 J-0.162
X-11 Y-126.902 Z-1.2 I0 J0.162
X-11 Y-127.227 Z-1.261 I0 J-0.162
X-11 Y-126.902 Z-1.322 I0 J0.162
X-11 Y-127.227 Z-1.383 I0 J-0.162
X-11 Y-126.902 Z-1.444 I0 J0.162
X-11 Y-127.227 Z-1.506 I0 J-0.162
X-11 Y-126.902 Z-1.567 I0 J0.162
X-11 Y-127.227 Z-1.628 I0 J-0.162
X-11 Y-126.902 Z-1.689 I0 J0.162
X-11 Y-127.227 Z-1.75 I0 J-0.162
X-11 Y-126.902 Z-1.811 I0 J0.162
X-11 Y-127.227 Z-1.872 I0 J-0.162
X-11 Y-126.902 Z-1.933 I0 J0.162
X-11 Y-127.227 Z-1.994 I0 J-0.162
X-11 Y-126.902 Z-2.056 I0 J0.162
X-11 Y-127.227 Z-2.117 I0 J-0.162
X-11 Y-126.902 Z-2.178 I0 J0.162
X-11 Y-127.227 Z-2.239 I0 J-0.162
X-11 Y-126.902 Z-2.3 I0 J0.162
X-11 Y-127.227 Z-2.361 I0 J-0.162
X-11 Y-126.902 Z-2.422 I0 J0.162
X-11 Y-127.227 Z-2.483 I0 J-0.162
X-11 Y-126.902 Z-2.544 I0 J0.162
X-11 Y-127.227 Z-2.606 I0 J-0.162
X-11 Y-126.902 Z-2.667 I0 J0.162
X-11 Y-127.227 Z-2.728 I0 J-0.162
X-11 Y-126.902 Z-2.789 I0 J0.162
X-11 Y-127.227 Z-2.85 I0 J-0.162
X-11 Y-126.902 Z-2.911 I0 J0.162
X-11 Y-127.227 Z-2.972 I0 J-0.162
X-11 Y-126.902 Z-3.033 I0 J0.162
X-11 Y-127.227 Z-3.094 I0 J-0.162
X-11 Y-126.902 Z-3.156 I0 J0.162
X-11 Y-127.227 Z-3.217 I0 J-0.162
X-11 Y-126.902 Z-3.278 I0 J0.162
X-11 Y-127.227 Z-3.339 I0 J-0.162
X-11 Y-126.902 Z-3.4 I0 J0.162
X-11 Y-127.227 Z-3.461 I0 J-0.162
X-11 Y-126.902 Z-3.522 I0 J0.162
X-11 Y-127.227 Z-3.583 I0 J-0.162
X-11 Y-126.902 Z-3.644 I0 J0.162
X-11 Y-127.227 Z-3.706 I0 J-0.162
X-11 Y-126.902 Z-3.767 I0 J0.162
X-11 Y-127.227 Z-3.828 I0 J-0.162
X-11 Y-126.902 Z-3.889 I0 J0.162
X-11 Y-127.227 Z-3.95 I0 J-0.162
X-11 Y-126.902 Z-4.011 I0 J0.162
X-11 Y-127.227 Z-4.072 I0 J-0.162
X-11 Y-126.902 Z-4.133 I0 J0.162
X-11 Y-127.227 Z-4.194 I0 J-0.162
X-11 Y-126.902 Z-4.256 I0 J0.162
X-11 Y-127.227 Z-4.317 I0 J-0.162
X-11 Y-126.902 Z-4.378 I0 J0.162
X-11 Y-127.227 Z-4.439 I0 J-0.162
X-11 Y-126.902 Z-4.5 I0 J0.162
X-11 Y-127.227 Z-4.561 I0 J-0.162
X-11 Y-126.902 Z-4.622 I0 J0.162
X-11 Y-127.227 Z-4.683 I0 J-0.162
X-11 Y-126.902 Z-4.744 I0 J0.162
X-11 Y-127.227 Z-4.806 I0 J-0.162
X-11 Y-126.902 Z-4.867 I0 J0.162
X-11 Y-127.227 Z-4.928 I0 J-0.162
X-11 Y-126.902 Z-4.989 I0 J0.162
X-11 Y-127.227 Z-5.05 I0 J-0.162
X-11 Y-126.902 Z-5.111 I0 J0.162
X-11 Y-127.227 Z-5.172 I0 J-0.162
X-11 Y-126.902 Z-5.233 I0 J0.162
X-11 Y-127.227 Z-5.294 I0 J-0.162
X-11 Y-126.902 Z-5.356 I0 J0.162
X-11 Y-127.227 Z-5.417 I0 J-0.162
X-11 Y-126.902 Z-5.478 I0 J0.162
X-11 Y-127.227 Z-5.539 I0 J-0.162
X-11 Y-126.902 Z-5.6 I0 J0.162
X-11 Y-127.227 Z-5.661 I0 J-0.162
X-11 Y-126.902 Z-5.722 I0 J0.162
X-11 Y-127.227 Z-5.783 I0 J-0.162
X-11 Y-126.902 Z-5.844 I0 J0.162
X-11 Y-127.227 Z-5.906 I0 J-0.162
X-11 Y-126.902 Z-5.967 I0 J0.162
X-11 Y-127.227 Z-6.028 I0 J-0.162
X-11 Y-126.902 Z-6.089 I0 J0.162
X-11 Y-127.227 Z-6.15 I0 J-0.162
X-11 Y-126.902 Z-6.211 I0 J0.162
X-11 Y-127.227 Z-6.272 I0 J-0.162
X-11 Y-126.902 Z-6.333 I0 J0.162
X-11 Y-127.227 Z-6.394 I0 J-0.162
X-11 Y-126.902 Z-6.456 I0 J0.162
X-11 Y-127.227 Z-6.517 I0 J-0.162
X-11 Y-126.902 Z-6.578 I0 J0.162
X-11 Y-127.227 Z-6.639 I0 J-0.162
X-11 Y-126.902 Z-6.7 I0 J0.162
X-11 Y-127.227 Z-6.761 I0 J-0.162
X-11 Y-126.902 Z-6.822 I0 J0.162
X-11 Y-127.227 Z-6.883 I0 J-0.162
X-11 Y-126.902 Z-6.944 I0 J0.162
X-11 Y-127.227 Z-7.006 I0 J-0.162
X-11 Y-126.902 Z-7.067 I0 J0.162
X-11 Y-127.227 Z-7.128 I0 J-0.162
X-11 Y-126.902 Z-7.189 I0 J0.162
X-11 Y-127.227 Z-7.25 I0 J-0.162
X-10.912 Y-126.928 Z-7.3 I0 J0.162
X-11.088 Y-127.201 I-0.088 J-0.137
X-10.912 Y-126.928 I0.088 J0.137
G1 X-10.941 Y-126.916
X-10.973
X-11.002 Y-126.929
X-11.024 Y-126.952
X-11.11 Y-127.085
Z5
X-10.081 Y-101.901
Z2.682
Z1
Y-102.06
X-10.075 Y-102.091
X-10.057 Y-102.117
X-10.031 Y-102.135
X-10 Y-102.141
G3 X-10 Y-101.816 Z0.939 I0 J0.162
X-10 Y-102.141 Z0.878 I0 J-0.162
X-10 Y-101.816 Z0.817 I0 J0.162
X-10 Y-102.141 Z0.756 I0 J-0.162
X-10 Y-101.816 Z0.694 I0 J0.162
X-10 Y-102.141 Z0.633 I0 J-0.162
X-10 Y-101.816 Z0.572 I0 J0.162
X-10 Y-102.141 Z0.511 I0 J-0.162
X-10 Y-101.816 Z0.45 I0 J0.162
X-10 Y-102.141 Z0.389 I0 J-0.162
X-10 Y-101.816 Z0.328 I0 J0.162
X-10 Y-102.141 Z0.267 I0 J-0.162
X-10 Y-101.816 Z0.206 I0 J0.162
X-10 Y-102.141 Z0.144 I0 J-0.162
X-10 Y-101.816 Z0.083 I0 J0.162
X-10 Y-102.141 Z0.022 I0 J-0.162
X-10 Y-101.816 Z-0.039 I0 J0.162
X-10 Y-102.141 Z-0.1 I0 J-0.162
X-10 Y-101.816 Z-0.161 I0 J0.162
X-10 Y-102.141 Z-0.222 I0 J-0.162
X-10 Y-101.816 Z-0.283 I0 J0.162
X-10 Y-102.141 Z-0.344 I0 J-0.162
X-10 Y-101.816 Z-0.406 I0 J0.162
X-10 Y-102.141 Z-0.467 I0 J-0.162
X-10 Y-101.816 Z-0.528 I0 J0.162
X-10 Y-102.141 Z-0.589 I0 J-0.162
X-10 Y-101.816 Z-0.65 I0 J0.162
X-10 Y-102.141 Z-0.711 I0 J-0.162
X-10 Y-101.816 Z-0.772 I0 J0.162
X-10 Y-102.141 Z-0.833 I0 J-0.162
X-10 Y-101.816 Z-0.894 I0 J0.162
X-10 Y-102.141 Z-0.956 I0 J-0.162
X-10 Y-101.816 Z-1.017 I0 J0.162
X-10 Y-102.141 Z-1.078 I0 J-0.162
X-10 Y-101.816 Z-1.139 I0 J0.162
X-10 Y-102.141 Z-1.2 I0 J-0.162
X-10 Y-101.816 Z-1.261 I0 J0.162
X-10 Y-102.141 Z-1.322 I0 J-0.162
X-10 Y-101.816 Z-1.383 I0 J0.162
X-10 Y-102.141 Z-1.444 I0 J-0.162
X-10 Y-101.816 Z-1.506 I0 J0.162
X-10 Y-102.141 Z-1.567 I0 J-0.162
X-10 Y-101.816 Z-1.628 I0 J0.162
X-10 Y-102.141 Z-1.689 I0 J-0.162
X-10 Y-101.816 Z-1.75 I0 J0.162
X-10 Y-102.141 Z-1.811 I0 J-0.162
X-10 Y-101.816 Z-1.872 I0 J0.162
X-10 Y-102.141 Z-1.933 I0 J-0.162
X-10 Y-101.816 Z-1.994 I0 J0.162
X-10 Y-102.141 Z-2.056 I0 J-0.162
X-10 Y-101.816 Z-2.117 I0 J0.162
X-10 Y-102.141 Z-2.178 I0 J-0.162
X-10 Y-101.816 Z-2.239 I0 J0.162
X-10 Y-102.141 Z-2.3 I0 J-0.162
X-10 Y-101.816 Z-2.361 I0 J0.162
X-10 Y-102.141 Z-2.422 I0 J-0.162
X-10 Y-101.816 Z-2.483 I0 J0.162
X-10 Y-102.141 Z-2.544 I0 J-0.162
X-10 Y-101.816 Z-2.606 I0 J0.162
X-10 Y-102.141 Z-2.667 I0 J-0.162
X-10 Y-101.816 Z-2.728 I0 J0.162
X-10 Y-102.141 Z-2.789 I0 J-0.162
X-10 Y-101.816 Z-2.85 I0 J0.162
X-10 Y-102.141 Z-2.911 I0 J-0.162
X-10 Y-101.816 Z-2.972 I0 J0.162
X-10 Y-102.141 Z-3.033 I0 J-0.162
X-10 Y-101.816 Z-3.094 I0 J0.162
X-10 Y-102.141 Z-3.156 I0 J-0.162
X-10 Y-101.816 Z-3.217 I0 J0.162
X-10 Y-102.141 Z-3.278 I0 J-0.162
X-10 Y-101.816 Z-3.339 I0 J0.162
X-10 Y-102.141 Z-3.4 I0 J-0.162
X-10 Y-101.816 Z-3.461 I0 J0.162
X-10 Y-102.141 Z-3.522 I0 J-0.162
X-10 Y-101.816 Z-3.583 I0 J0.162
X-10 Y-102.141 Z-3.644 I0 J-0.162
X-10 Y-101.816 Z-3.706 I0 J0.162
X-10 Y-102.141 Z-3.767 I0 J-0.162
X-10 Y-101.816 Z-3.828 I0 J0.162
X-10 Y-102.141 Z-3.889 I0 J-0.162
X-10 Y-101.816 Z-3.95 I0 J0.162
X-10 Y-102.141 Z-4.011 I0 J-0.162
X-10 Y-101.816 Z-4.072 I0 J0.162
X-10 Y-102.141 Z-4.133 I0 J-0.162
X-10 Y-101.816 Z-4.194 I0 J0.162
X-10 Y-102.141 Z-4.256 I0 J-0.162
X-10 Y-101.816 Z-4.317 I0 J0.162
X-10 Y-102.141 Z-4.378 I0 J-0.162
X-10 Y-101.816 Z-4.439 I0 J0.162
X-10 Y-102.141 Z-4.5 I0 J-0.162
X-10 Y-101.816 Z-4.561 I0 J0.162
X-10 Y-102.141 Z-4.622 I0 J-0.162
X-10 Y-101.816 Z-4.683 I0 J0.162
X-10 Y-102.141 Z-4.744 I0 J-0.162
X-10 Y-101.816 Z-4.806 I0 J0.162
X-10 Y-102.141 Z-4.867 I0 J-0.162
X-10 Y-101.816 Z-4.928 I0 J0.162
X-10 Y-102.141 Z-4.989 I0 J-0.162
X-10 Y-101.816 Z-5.05 I0 J0.162
X-10 Y-102.141 Z-5.111 I0 J-0.162
X-10 Y-101.816 Z-5.172 I0 J0.162
X-10 Y-102.141 Z-5.233 I0 J-0.162
X-10 Y-101.816 Z-5.294 I0 J0.162
X-10 Y-102.141 Z-5.356 I0 J-0.162
X-10 Y-101.816 Z-5.417 I0 J0.162
X-10 Y-102.141 Z-5.478 I0 J-0.162
X-10 Y-101.816 Z-5.539 I0 J0.162
X-10 Y-102.141 Z-5.6 I0 J-0.162
X-10 Y-101.816 Z-5.661 I0 J0.162
X-10 Y-102.141 Z-5.722 I0 J-0.162
X-10 Y-101.816 Z-5.783 I0 J0.162
X-10 Y-102.141 Z-5.844 I0 J-0.162
X-10 Y-101.816 Z-5.906 I0 J0.162
X-10 Y-102.141 Z-5.967 I0 J-0.162
X-10 Y-101.816 Z-6.028 I0 J0.162
X-10 Y-102.141 Z-6.089 I0 J-0.162
X-10 Y-101.816 Z-6.15 I0 J0.162
X-10 Y-102.141 Z-6.211 I0 J-0.162
X-10 Y-101.816 Z-6.272 I0 J0.162
X-10 Y-102.141 Z-6.333 I0 J-0.162
X-10 Y-101.816 Z-6.394 I0 J0.162
X-10 Y-102.141 Z-6.456 I0 J-0.162
X-10 Y-101.816 Z-6.517 I0 J0.162
X-10 Y-102.141 Z-6.578 I0 J-0.162
X-10 Y-101.816 Z-6.639 I0 J0.162
X-10 Y-102.141 Z-6.7 I0 J-0.162
X-10 Y-101.816 Z-6.761 I0 J0.162
X-10 Y-102.141 Z-6.822 I0 J-0.162
X-10 Y-101.816 Z-6.883 I0 J0.162
X-10 Y-102.141 Z-6.944 I0 J-0.162
X-10 Y-101.816 Z-7.006 I0 J0.162
X-10 Y-102.141 Z-7.067 I0 J-0.162
X-10 Y-101.816 Z-7.128 I0 J0.162
X-10 Y-102.141 Z-7.189 I0 J-0.162
X-10 Y-101.816 Z-7.25 I0 J0.162
X-10.088 Y-102.115 Z-7.3 I0 J-0.162
X-9.912 Y-101.842 I0.088 J0.137
X-10.088 Y-102.115 I-0.088 J-0.137
G1 X-10.059 Y-102.127
X-10.027 Y-102.126
X-9.998 Y-102.114
X-9.976 Y-102.091
X-9.89 Y-101.957
Z5
X-56.881 Y-9.922
Z2.682
Z1
Y-10.081
X-56.875 Y-10.112
X-56.857 Y-10.139
X-56.831 Y-10.156
X-56.8 Y-10.163
G3 X-56.8 Y-9.837 Z0.939 I0 J0.163
X-56.8 Y-10.163 Z0.878 I0 J-0.163
X-56.8 Y-9.837 Z0.817 I0 J0.163
X-56.8 Y-10.163 Z0.756 I0 J-0.163
X-56.8 Y-9.837 Z0.694 I0 J0.163
X-56.8 Y-10.163 Z0.633 I0 J-0.163
X-56.8 Y-9.837 Z0.572 I0 J0.163
X-56.8 Y-10.163 Z0.511 I0 J-0.163
X-56.8 Y-9.837 Z0.45 I0 J0.163
X-56.8 Y-10.163 Z0.389 I0 J-0.163
X-56.8 Y-9.837 Z0.328 I0 J0.163
X-56.8 Y-10.163 Z0.267 I0 J-0.163
X-56.8 Y-9.837 Z0.206 I0 J0.163
X-56.8 Y-10.163 Z0.144 I0 J-0.163
X-56.8 Y-9.837 Z0.083 I0 J0.163
X-56.8 Y-10.163 Z0.022 I0 J-0.163
X-56.8 Y-9.837 Z-0.039 I0 J0.163
X-56.8 Y-10.163 Z-0.1 I0 J-0.163
X-56.8 Y-9.837 Z-0.161 I0 J0.163
X-56.8 Y-10.163 Z-0.222 I0 J-0.163
X-56.8 Y-9.837 Z-0.283 I0 J0.163
X-56.8 Y-10.163 Z-0.344 I0 J-0.163
X-56.8 Y-9.837 Z-0.406 I0 J0.163
X-56.8 Y-10.163 Z-0.467 I0 J-0.163
X-56.8 Y-9.837 Z-0.528 I0 J0.163
X-56.8 Y-10.163 Z-0.589 I0 J-0.163
X-56.8 Y-9.837 Z-0.65 I0 J0.163
X-56.8 Y-10.163 Z-0.711 I0 J-0.163
X-56.8 Y-9.837 Z-0.772 I0 J0.163
X-56.8 Y-10.163 Z-0.833 I0 J-0.163
X-56.8 Y-9.837 Z-0.894 I0 J0.163
X-56.8 Y-10.163 Z-0.956 I0 J-0.163
X-56.8 Y-9.837 Z-1.017 I0 J0.163
X-56.8 Y-10.163 Z-1.078 I0 J-0.163
X-56.8 Y-9.837 Z-1.139 I0 J0.163
X-56.8 Y-10.163 Z-1.2 I0 J-0.163
X-56.8 Y-9.837 Z-1.261 I0 J0.163
X-56.8 Y-10.163 Z-1.322 I0 J-0.163
X-56.8 Y-9.837 Z-1.383 I0 J0.163
X-56.8 Y-10.163 Z-1.444 I0 J-0.163
X-56.8 Y-9.837 Z-1.506 I0 J0.163
X-56.8 Y-10.163 Z-1.567 I0 J-0.163
X-56.8 Y-9.837 Z-1.628 I0 J0.163
X-56.8 Y-10.163 Z-1.689 I0 J-0.163
X-56.8 Y-9.837 Z-1.75 I0 J0.163
X-56.8 Y-10.163 Z-1.811 I0 J-0.163
X-56.8 Y-9.837 Z-1.872 I0 J0.163
X-56.8 Y-10.163 Z-1.933 I0 J-0.163
X-56.8 Y-9.837 Z-1.994 I0 J0.163
X-56.8 Y-10.163 Z-2.056 I0 J-0.163
X-56.8 Y-9.837 Z-2.117 I0 J0.163
X-56.8 Y-10.163 Z-2.178 I0 J-0.163
X-56.8 Y-9.837 Z-2.239 I0 J0.163
X-56.8 Y-10.163 Z-2.3 I0 J-0.163
X-56.8 Y-9.837 Z-2.361 I0 J0.163
X-56.8 Y-10.163 Z-2.422 I0 J-0.163
X-56.8 Y-9.837 Z-2.483 I0 J0.163
X-56.8 Y-10.163 Z-2.544 I0 J-0.163
X-56.8 Y-9.837 Z-2.606 I0 J0.163
X-56.8 Y-10.163 Z-2.667 I0 J-0.163
X-56.8 Y-9.837 Z-2.728 I0 J0.163
X-56.8 Y-10.163 Z-2.789 I0 J-0.163
X-56.8 Y-9.837 Z-2.85 I0 J0.163
X-56.8 Y-10.163 Z-2.911 I0 J-0.163
X-56.8 Y-9.837 Z-2.972 I0 J0.163
X-56.8 Y-10.163 Z-3.033 I0 J-0.163
X-56.8 Y-9.837 Z-3.094 I0 J0.163
X-56.8 Y-10.163 Z-3.156 I0 J-0.163
X-56.8 Y-9.837 Z-3.217 I0 J0.163
X-56.8 Y-10.163 Z-3.278 I0 J-0.163
X-56.8 Y-9.837 Z-3.339 I0 J0.163
X-56.8 Y-10.163 Z-3.4 I0 J-0.163
X-56.8 Y-9.837 Z-3.461 I0 J0.163
X-56.8 Y-10.163 Z-3.522 I0 J-0.163
X-56.8 Y-9.837 Z-3.583 I0 J0.163
X-56.8 Y-10.163 Z-3.644 I0 J-0.163
X-56.8 Y-9.837 Z-3.706 I0 J0.163
X-56.8 Y-10.163 Z-3.767 I0 J-0.163
X-56.8 Y-9.837 Z-3.828 I0 J0.163
X-56.8 Y-10.163 Z-3.889 I0 J-0.163
X-56.8 Y-9.837 Z-3.95 I0 J0.163
X-56.8 Y-10.163 Z-4.011 I0 J-0.163
X-56.8 Y-9.837 Z-4.072 I0 J0.163
X-56.8 Y-10.163 Z-4.133 I0 J-0.163
X-56.8 Y-9.837 Z-4.194 I0 J0.163
X-56.8 Y-10.163 Z-4.256 I0 J-0.163
X-56.8 Y-9.837 Z-4.317 I0 J0.163
X-56.8 Y-10.163 Z-4.378 I0 J-0.163
X-56.8 Y-9.837 Z-4.439 I0 J0.163
X-56.8 Y-10.163 Z-4.5 I0 J-0.163
X-56.8 Y-9.837 Z-4.561 I0 J0.163
X-56.8 Y-10.163 Z-4.622 I0 J-0.163
X-56.8 Y-9.837 Z-4.683 I0 J0.163
X-56.8 Y-10.163 Z-4.744 I0 J-0.163
X-56.8 Y-9.837 Z-4.806 I0 J0.163
X-56.8 Y-10.163 Z-4.867 I0 J-0.163
X-56.8 Y-9.837 Z-4.928 I0 J0.163
X-56.8 Y-10.163 Z-4.989 I0 J-0.163
X-56.8 Y-9.837 Z-5.05 I0 J0.163
X-56.8 Y-10.163 Z-5.111 I0 J-0.163
X-56.8 Y-9.837 Z-5.172 I0 J0.163
X-56.8 Y-10.163 Z-5.233 I0 J-0.163
X-56.8 Y-9.837 Z-5.294 I0 J0.163
X-56.8 Y-10.163 Z-5.356 I0 J-0.163
X-56.8 Y-9.837 Z-5.417 I0 J0.163
X-56.8 Y-10.163 Z-5.478 I0 J-0.163
X-56.8 Y-9.837 Z-5.539 I0 J0.163
X-56.8 Y-10.163 Z-5.6 I0 J-0.163
X-56.8 Y-9.837 Z-5.661 I0 J0.163
X-56.8 Y-10.163 Z-5.722 I0 J-0.163
X-56.8 Y-9.837 Z-5.783 I0 J0.163
X-56.8 Y-10.163 Z-5.844 I0 J-0.163
X-56.8 Y-9.837 Z-5.906 I0 J0.163
X-56.8 Y-10.163 Z-5.967 I0 J-0.163
X-56.8 Y-9.837 Z-6.028 I0 J0.163
X-56.8 Y-10.163 Z-6.089 I0 J-0.163
X-56.8 Y-9.837 Z-6.15 I0 J0.163
X-56.8 Y-10.163 Z-6.211 I0 J-0.163
X-56.8 Y-9.837 Z-6.272 I0 J0.163
X-56.8 Y-10.163 Z-6.333 I0 J-0.163
X-56.8 Y-9.837 Z-6.394 I0 J0.163
X-56.8 Y-10.163 Z-6.456 I0 J-0.163
X-56.8 Y-9.837 Z-6.517 I0 J0.163
X-56.8 Y-10.163 Z-6.578 I0 J-0.163
X-56.8 Y-9.837 Z-6.639 I0 J0.163
X-56.8 Y-10.163 Z-6.7 I0 J-0.163
X-56.8 Y-9.837 Z-6.761 I0 J0.163
X-56.8 Y-10.163 Z-6.822 I0 J-0.163
X-56.8 Y-9.837 Z-6.883 I0 J0.163
X-56.8 Y-10.163 Z-6.944 I0 J-0.163
X-56.8 Y-9.837 Z-7.006 I0 J0.163
X-56.8 Y-10.163 Z-7.067 I0 J-0.163
X-56.8 Y-9.837 Z-7.128 I0 J0.163
X-56.8 Y-10.163 Z-7.189 I0 J-0.163
X-56.8 Y-9.837 Z-7.25 I0 J0.163
X-56.888 Y-10.137 Z-7.3 I0 J-0.163
X-56.712 Y-9.863 I0.088 J0.137
X-56.888 Y-10.137 I-0.088 J-0.137
G1 X-56.859 Y-10.148
X-56.827
X-56.798 Y-10.135
X-56.776 Y-10.112
X-56.69 Y-9.979
Z5
X-45.365 Y-53.074
Z2.682
Z1
Y-53.233
X-45.359 Y-53.264
X-45.341 Y-53.291
X-45.315 Y-53.308
X-45.284 Y-53.314
G3 X-45.284 Y-52.989 Z0.939 I0 J0.163
X-45.284 Y-53.314 Z0.878 I0 J-0.163
X-45.284 Y-52.989 Z0.817 I0 J0.163
X-45.284 Y-53.314 Z0.756 I0 J-0.163
X-45.284 Y-52.989 Z0.694 I0 J0.163
X-45.284 Y-53.314 Z0.633 I0 J-0.163
X-45.284 Y-52.989 Z0.572 I0 J0.163
X-45.284 Y-53.314 Z0.511 I0 J-0.163
X-45.284 Y-52.989 Z0.45 I0 J0.163
X-45.284 Y-53.314 Z0.389 I0 J-0.163
X-45.284 Y-52.989 Z0.328 I0 J0.163
X-45.284 Y-53.314 Z0.267 I0 J-0.163
X-45.284 Y-52.989 Z0.206 I0 J0.163
X-45.284 Y-53.314 Z0.144 I0 J-0.163
X-45.284 Y-52.989 Z0.083 I0 J0.163
X-45.284 Y-53.314 Z0.022 I0 J-0.163
X-45.284 Y-52.989 Z-0.039 I0 J0.163
X-45.284 Y-53.314 Z-0.1 I0 J-0.163
X-45.284 Y-52.989 Z-0.161 I0 J0.163
X-45.284 Y-53.314 Z-0.222 I0 J-0.163
X-45.284 Y-52.989 Z-0.283 I0 J0.163
X-45.284 Y-53.314 Z-0.344 I0 J-0.163
X-45.284 Y-52.989 Z-0.406 I0 J0.163
X-45.284 Y-53.314 Z-0.467 I0 J-0.163
X-45.284 Y-52.989 Z-0.528 I0 J0.163
X-45.284 Y-53.314 Z-0.589 I0 J-0.163
X-45.284 Y-52.989 Z-0.65 I0 J0.163
X-45.284 Y-53.314 Z-0.711 I0 J-0.163
X-45.284 Y-52.989 Z-0.772 I0 J0.163
X-45.284 Y-53.314 Z-0.833 I0 J-0.163
X-45.284 Y-52.989 Z-0.894 I0 J0.163
X-45.284 Y-53.314 Z-0.956 I0 J-0.163
X-45.284 Y-52.989 Z-1.017 I0 J0.163
X-45.284 Y-53.314 Z-1.078 I0 J-0.163
X-45.284 Y-52.989 Z-1.139 I0 J0.163
X-45.284 Y-53.314 Z-1.2 I0 J-0.163
X-45.284 Y-52.989 Z-1.261 I0 J0.163
X-45.284 Y-53.314 Z-1.322 I0 J-0.163
X-45.284 Y-52.989 Z-1.383 I0 J0.163
X-45.284 Y-53.314 Z-1.444 I0 J-0.163
X-45.284 Y-52.989 Z-1.506 I0 J0.163
X-45.284 Y-53.314 Z-1.567 I0 J-0.163
X-45.284 Y-52.989 Z-1.628 I0 J0.163
X-45.284 Y-53.314 Z-1.689 I0 J-0.163
X-45.284 Y-52.989 Z-1.75 I0 J0.163
X-45.284 Y-53.314 Z-1.811 I0 J-0.163
X-45.284 Y-52.989 Z-1.872 I0 J0.163
X-45.284 Y-53.314 Z-1.933 I0 J-0.163
X-45.284 Y-52.989 Z-1.994 I0 J0.163
X-45.284 Y-53.314 Z-2.056 I0 J-0.163
X-45.284 Y-52.989 Z-2.117 I0 J0.163
X-45.284 Y-53.314 Z-2.178 I0 J-0.163
X-45.284 Y-52.989 Z-2.239 I0 J0.163
X-45.284 Y-53.314 Z-2.3 I0 J-0.163
X-45.284 Y-52.989 Z-2.361 I0 J0.163
X-45.284 Y-53.314 Z-2.422 I0 J-0.163
X-45.284 Y-52.989 Z-2.483 I0 J0.163
X-45.284 Y-53.314 Z-2.544 I0 J-0.163
X-45.284 Y-52.989 Z-2.606 I0 J0.163
X-45.284 Y-53.314 Z-2.667 I0 J-0.163
X-45.284 Y-52.989 Z-2.728 I0 J0.163
X-45.284 Y-53.314 Z-2.789 I0 J-0.163
X-45.284 Y-52.989 Z-2.85 I0 J0.163
X-45.284 Y-53.314 Z-2.911 I0 J-0.163
X-45.284 Y-52.989 Z-2.972 I0 J0.163
X-45.284 Y-53.314 Z-3.033 I0 J-0.163
X-45.284 Y-52.989 Z-3.094 I0 J0.163
X-45.284 Y-53.314 Z-3.156 I0 J-0.163
X-45.284 Y-52.989 Z-3.217 I0 J0.163
X-45.284 Y-53.314 Z-3.278 I0 J-0.163
X-45.284 Y-52.989 Z-3.339 I0 J0.163
X-45.284 Y-53.314 Z-3.4 I0 J-0.163
X-45.284 Y-52.989 Z-3.461 I0 J0.163
X-45.284 Y-53.314 Z-3.522 I0 J-0.163
X-45.284 Y-52.989 Z-3.583 I0 J0.163
X-45.284 Y-53.314 Z-3.644 I0 J-0.163
X-45.284 Y-52.989 Z-3.706 I0 J0.163
X-45.284 Y-53.314 Z-3.767 I0 J-0.163
X-45.284 Y-52.989 Z-3.828 I0 J0.163
X-45.284 Y-53.314 Z-3.889 I0 J-0.163
X-45.284 Y-52.989 Z-3.95 I0 J0.163
X-45.284 Y-53.314 Z-4.011 I0 J-0.163
X-45.284 Y-52.989 Z-4.072 I0 J0.163
X-45.284 Y-53.314 Z-4.133 I0 J-0.163
X-45.284 Y-52.989 Z-4.194 I0 J0.163
X-45.284 Y-53.314 Z-4.256 I0 J-0.163
X-45.284 Y-52.989 Z-4.317 I0 J0.163
X-45.284 Y-53.314 Z-4.378 I0 J-0.163
X-45.284 Y-52.989 Z-4.439 I0 J0.163
X-45.284 Y-53.314 Z-4.5 I0 J-0.163
X-45.284 Y-52.989 Z-4.561 I0 J0.163
X-45.284 Y-53.314 Z-4.622 I0 J-0.163
X-45.284 Y-52.989 Z-4.683 I0 J0.163
X-45.284 Y-53.314 Z-4.744 I0 J-0.163
X-45.284 Y-52.989 Z-4.806 I0 J0.163
X-45.284 Y-53.314 Z-4.867 I0 J-0.163
X-45.284 Y-52.989 Z-4.928 I0 J0.163
X-45.284 Y-53.314 Z-4.989 I0 J-0.163
X-45.284 Y-52.989 Z-5.05 I0 J0.163
X-45.284 Y-53.314 Z-5.111 I0 J-0.163
X-45.284 Y-52.989 Z-5.172 I0 J0.163
X-45.284 Y-53.314 Z-5.233 I0 J-0.163
X-45.284 Y-52.989 Z-5.294 I0 J0.163
X-45.284 Y-53.314 Z-5.356 I0 J-0.163
X-45.284 Y-52.989 Z-5.417 I0 J0.163
X-45.284 Y-53.314 Z-5.478 I0 J-0.163
X-45.284 Y-52.989 Z-5.539 I0 J0.163
X-45.284 Y-53.314 Z-5.6 I0 J-0.163
X-45.284 Y-52.989 Z-5.661 I0 J0.163
X-45.284 Y-53.314 Z-5.722 I0 J-0.163
X-45.284 Y-52.989 Z-5.783 I0 J0.163
X-45.284 Y-53.314 Z-5.844 I0 J-0.163
X-45.284 Y-52.989 Z-5.906 I0 J0.163
X-45.284 Y-53.314 Z-5.967 I0 J-0.163
X-45.284 Y-52.989 Z-6.028 I0 J0.163
X-45.284 Y-53.314 Z-6.089 I0 J-0.163
X-45.284 Y-52.989 Z-6.15 I0 J0.163
X-45.284 Y-53.314 Z-6.211 I0 J-0.163
X-45.284 Y-52.989 Z-6.272 I0 J0.163
X-45.284 Y-53.314 Z-6.333 I0 J-0.163
X-45.284 Y-52.989 Z-6.394 I0 J0.163
X-45.284 Y-53.314 Z-6.456 I0 J-0.163
X-45.284 Y-52.989 Z-6.517 I0 J0.163
X-45.284 Y-53.314 Z-6.578 I0 J-0.163
X-45.284 Y-52.989 Z-6.639 I0 J0.163
X-45.284 Y-53.314 Z-6.7 I0 J-0.163
X-45.284 Y-52.989 Z-6.761 I0 J0.163
X-45.284 Y-53.314 Z-6.822 I0 J-0.163
X-45.284 Y-52.989 Z-6.883 I0 J0.163
X-45.284 Y-53.314 Z-6.944 I0 J-0.163
X-45.284 Y-52.989 Z-7.006 I0 J0.163
X-45.284 Y-53.314 Z-7.067 I0 J-0.163
X-45.284 Y-52.989 Z-7.128 I0 J0.163
X-45.284 Y-53.314 Z-7.189 I0 J-0.163
X-45.284 Y-52.989 Z-7.25 I0 J0.163
X-45.372 Y-53.288 Z-7.3 I0 J-0.163
X-45.196 Y-53.015 I0.088 J0.137
X-45.372 Y-53.288 I-0.088 J-0.137
G1 X-45.343 Y-53.3
X-45.311
X-45.282 Y-53.287
X-45.26 Y-53.264
X-45.174 Y-53.131
Z5
X-57.118 Y-68.383
Z3
Z1.317
G19 G2 Y-68.7 Z1 J-0.317 K0
G1 Y-68.859
G17 G3 X-56.8 Y-69.177 I0.318 J0
X-56.8 Y-67.352 Z0.913 I0 J0.913
X-56.8 Y-69.177 Z0.825 I0 J-0.913
X-56.8 Y-67.352 Z0.738 I0 J0.913
X-56.8 Y-69.177 Z0.651 I0 J-0.913
X-56.8 Y-67.352 Z0.563 I0 J0.913
X-56.8 Y-69.177 Z0.476 I0 J-0.913
X-56.8 Y-67.352 Z0.389 I0 J0.913
X-56.8 Y-69.177 Z0.302 I0 J-0.913
X-56.8 Y-67.352 Z0.214 I0 J0.913
X-56.8 Y-69.177 Z0.127 I0 J-0.913
X-56.8 Y-67.352 Z0.04 I0 J0.913
X-56.8 Y-69.177 Z-0.048 I0 J-0.913
X-56.8 Y-67.352 Z-0.135 I0 J0.913
X-56.8 Y-69.177 Z-0.222 I0 J-0.913
X-56.8 Y-67.352 Z-0.31 I0 J0.913
X-56.8 Y-69.177 Z-0.397 I0 J-0.913
X-56.8 Y-67.352 Z-0.484 I0 J0.913
X-56.8 Y-69.177 Z-0.571 I0 J-0.913
X-56.8 Y-67.352 Z-0.659 I0 J0.913
X-56.8 Y-69.177 Z-0.746 I0 J-0.913
X-56.8 Y-67.352 Z-0.833 I0 J0.913
X-56.8 Y-69.177 Z-0.921 I0 J-0.913
X-56.8 Y-67.352 Z-1.008 I0 J0.913
X-56.8 Y-69.177 Z-1.095 I0 J-0.913
X-56.8 Y-67.352 Z-1.183 I0 J0.913
X-56.8 Y-69.177 Z-1.27 I0 J-0.913
X-56.8 Y-67.352 Z-1.357 I0 J0.913
X-56.8 Y-69.177 Z-1.444 I0 J-0.913
X-56.8 Y-67.352 Z-1.532 I0 J0.913
X-56.8 Y-69.177 Z-1.619 I0 J-0.913
X-56.8 Y-67.352 Z-1.706 I0 J0.913
X-56.8 Y-69.177 Z-1.794 I0 J-0.913
X-56.8 Y-67.352 Z-1.881 I0 J0.913
X-56.8 Y-69.177 Z-1.968 I0 J-0.913
X-56.8 Y-67.352 Z-2.056 I0 J0.913
X-56.8 Y-69.177 Z-2.143 I0 J-0.913
X-56.8 Y-67.352 Z-2.23 I0 J0.913
X-56.8 Y-69.177 Z-2.317 I0 J-0.913
X-56.8 Y-67.352 Z-2.405 I0 J0.913
X-56.8 Y-69.177 Z-2.492 I0 J-0.913
X-56.8 Y-67.352 Z-2.579 I0 J0.913
X-56.8 Y-69.177 Z-2.667 I0 J-0.913
X-56.8 Y-67.352 Z-2.754 I0 J0.913
X-56.8 Y-69.177 Z-2.841 I0 J-0.913
X-56.8 Y-67.352 Z-2.929 I0 J0.913
X-56.8 Y-69.177 Z-3.016 I0 J-0.913
X-56.8 Y-67.352 Z-3.103 I0 J0.913
X-56.8 Y-69.177 Z-3.19 I0 J-0.913
X-56.8 Y-67.352 Z-3.278 I0 J0.913
X-56.8 Y-69.177 Z-3.365 I0 J-0.913
X-56.8 Y-67.352 Z-3.452 I0 J0.913
X-56.8 Y-69.177 Z-3.54 I0 J-0.913
X-56.8 Y-67.352 Z-3.627 I0 J0.913
X-56.8 Y-69.177 Z-3.714 I0 J-0.913
X-56.8 Y-67.352 Z-3.802 I0 J0.913
X-56.8 Y-69.177 Z-3.889 I0 J-0.913
X-56.8 Y-67.352 Z-3.976 I0 J0.913
X-56.8 Y-69.177 Z-4.064 I0 J-0.913
X-56.8 Y-67.352 Z-4.151 I0 J0.913
X-56.8 Y-69.177 Z-4.238 I0 J-0.913
X-56.8 Y-67.352 Z-4.325 I0 J0.913
X-56.8 Y-69.177 Z-4.413 I0 J-0.913
X-56.8 Y-67.352 Z-4.5 I0 J0.913
X-56.8 Y-69.177 Z-4.587 I0 J-0.913
X-56.8 Y-67.352 Z-4.675 I0 J0.913
X-56.8 Y-69.177 Z-4.762 I0 J-0.913
X-56.8 Y-67.352 Z-4.849 I0 J0.913
X-56.8 Y-69.177 Z-4.937 I0 J-0.913
X-56.8 Y-67.352 Z-5.024 I0 J0.913
X-56.8 Y-69.177 Z-5.111 I0 J-0.913
X-56.8 Y-67.352 Z-5.198 I0 J0.913
X-56.8 Y-69.177 Z-5.286 I0 J-0.913
X-56.8 Y-67.352 Z-5.373 I0 J0.913
X-56.8 Y-69.177 Z-5.46 I0 J-0.913
X-56.8 Y-67.352 Z-5.548 I0 J0.913
X-56.8 Y-69.177 Z-5.635 I0 J-0.913
X-56.8 Y-67.352 Z-5.722 I0 J0.913
X-56.8 Y-69.177 Z-5.81 I0 J-0.913
X-56.8 Y-67.352 Z-5.897 I0 J0.913
X-56.8 Y-69.177 Z-5.984 I0 J-0.913
X-56.8 Y-67.352 Z-6.071 I0 J0.913
X-56.8 Y-69.177 Z-6.159 I0 J-0.913
X-56.8 Y-67.352 Z-6.246 I0 J0.913
X-56.8 Y-69.177 Z-6.333 I0 J-0.913
X-56.8 Y-67.352 Z-6.421 I0 J0.913
X-56.8 Y-69.177 Z-6.508 I0 J-0.913
X-56.8 Y-67.352 Z-6.595 I0 J0.913
X-56.8 Y-69.177 Z-6.683 I0 J-0.912
X-56.8 Y-67.352 Z-6.77 I0 J0.912
X-56.8 Y-69.177 Z-6.857 I0 J-0.912
X-56.8 Y-67.352 Z-6.944 I0 J0.912
X-56.8 Y-69.177 Z-7.032 I0 J-0.912
X-56.8 Y-67.352 Z-7.119 I0 J0.912
X-56.8 Y-69.177 Z-7.206 I0 J-0.912
X-55.893 Y-68.161 Z-7.253 I0 J0.912
X-57.006 Y-67.375 Z-7.3 I-0.907 J-0.103
X-56.594 Y-69.153 I0.206 J-0.889
X-57.006 Y-67.375 I-0.206 J0.889
X-57.243 Y-67.756 I0.072 J-0.309
G1 X-57.208 Y-67.911
X-57.192 Y-67.979 Z-7.292
X-57.177 Y-68.045 Z-7.269
X-57.163 Y-68.103 Z-7.231
X-57.152 Y-68.152 Z-7.18
X-57.143 Y-68.189 Z-7.12
X-57.138 Y-68.212 Z-7.053
X-57.136 Y-68.22 Z-6.983
Z5
X-68.397 Y-83.299
Z2.682
Z1
Y-83.458
X-68.391 Y-83.489
X-68.373 Y-83.515
X-68.347 Y-83.533
X-68.316 Y-83.539
G3 X-68.316 Y-83.214 Z0.939 I0 J0.163
X-68.316 Y-83.539 Z0.878 I0 J-0.163
X-68.316 Y-83.214 Z0.817 I0 J0.163
X-68.316 Y-83.539 Z0.756 I0 J-0.163
X-68.316 Y-83.214 Z0.694 I0 J0.163
X-68.316 Y-83.539 Z0.633 I0 J-0.163
X-68.316 Y-83.214 Z0.572 I0 J0.163
X-68.316 Y-83.539 Z0.511 I0 J-0.163
X-68.316 Y-83.214 Z0.45 I0 J0.163
X-68.316 Y-83.539 Z0.389 I0 J-0.163
X-68.316 Y-83.214 Z0.328 I0 J0.163
X-68.316 Y-83.539 Z0.267 I0 J-0.163
X-68.316 Y-83.214 Z0.206 I0 J0.163
X-68.316 Y-83.539 Z0.144 I0 J-0.163
X-68.316 Y-83.214 Z0.083 I0 J0.163
X-68.316 Y-83.539 Z0.022 I0 J-0.163
X-68.316 Y-83.214 Z-0.039 I0 J0.163
X-68.316 Y-83.539 Z-0.1 I0 J-0.163
X-68.316 Y-83.214 Z-0.161 I0 J0.163
X-68.316 Y-83.539 Z-0.222 I0 J-0.163
X-68.316 Y-83.214 Z-0.283 I0 J0.163
X-68.316 Y-83.539 Z-0.344 I0 J-0.163
X-68.316 Y-83.214 Z-0.406 I0 J0.163
X-68.316 Y-83.539 Z-0.467 I0 J-0.163
X-68.316 Y-83.214 Z-0.528 I0 J0.163
X-68.316 Y-83.539 Z-0.589 I0 J-0.163
X-68.316 Y-83.214 Z-0.65 I0 J0.163
X-68.316 Y-83.539 Z-0.711 I0 J-0.163
X-68.316 Y-83.214 Z-0.772 I0 J0.163
X-68.316 Y-83.539 Z-0.833 I0 J-0.163
X-68.316 Y-83.214 Z-0.894 I0 J0.163
X-68.316 Y-83.539 Z-0.956 I0 J-0.163
X-68.316 Y-83.214 Z-1.017 I0 J0.163
X-68.316 Y-83.539 Z-1.078 I0 J-0.163
X-68.316 Y-83.214 Z-1.139 I0 J0.163
X-68.316 Y-83.539 Z-1.2 I0 J-0.163
X-68.316 Y-83.214 Z-1.261 I0 J0.163
X-68.316 Y-83.539 Z-1.322 I0 J-0.163
X-68.316 Y-83.214 Z-1.383 I0 J0.163
X-68.316 Y-83.539 Z-1.444 I0 J-0.163
X-68.316 Y-83.214 Z-1.506 I0 J0.163
X-68.316 Y-83.539 Z-1.567 I0 J-0.163
X-68.316 Y-83.214 Z-1.628 I0 J0.163
X-68.316 Y-83.539 Z-1.689 I0 J-0.163
X-68.316 Y-83.214 Z-1.75 I0 J0.163
X-68.316 Y-83.539 Z-1.811 I0 J-0.163
X-68.316 Y-83.214 Z-1.872 I0 J0.163
X-68.316 Y-83.539 Z-1.933 I0 J-0.163
X-68.316 Y-83.214 Z-1.994 I0 J0.163
X-68.316 Y-83.539 Z-2.056 I0 J-0.163
X-68.316 Y-83.214 Z-2.117 I0 J0.163
X-68.316 Y-83.539 Z-2.178 I0 J-0.163
X-68.316 Y-83.214 Z-2.239 I0 J0.163
X-68.316 Y-83.539 Z-2.3 I0 J-0.163
X-68.316 Y-83.214 Z-2.361 I0 J0.163
X-68.316 Y-83.539 Z-2.422 I0 J-0.163
X-68.316 Y-83.214 Z-2.483 I0 J0.163
X-68.316 Y-83.539 Z-2.544 I0 J-0.163
X-68.316 Y-83.214 Z-2.606 I0 J0.163
X-68.316 Y-83.539 Z-2.667 I0 J-0.163
X-68.316 Y-83.214 Z-2.728 I0 J0.163
X-68.316 Y-83.539 Z-2.789 I0 J-0.163
X-68.316 Y-83.214 Z-2.85 I0 J0.163
X-68.316 Y-83.539 Z-2.911 I0 J-0.163
X-68.316 Y-83.214 Z-2.972 I0 J0.163
X-68.316 Y-83.539 Z-3.033 I0 J-0.163
X-68.316 Y-83.214 Z-3.094 I0 J0.163
X-68.316 Y-83.539 Z-3.156 I0 J-0.163
X-68.316 Y-83.214 Z-3.217 I0 J0.163
X-68.316 Y-83.539 Z-3.278 I0 J-0.163
X-68.316 Y-83.214 Z-3.339 I0 J0.163
X-68.316 Y-83.539 Z-3.4 I0 J-0.163
X-68.316 Y-83.214 Z-3.461 I0 J0.163
X-68.316 Y-83.539 Z-3.522 I0 J-0.163
X-68.316 Y-83.214 Z-3.583 I0 J0.163
X-68.316 Y-83.539 Z-3.644 I0 J-0.163
X-68.316 Y-83.214 Z-3.706 I0 J0.163
X-68.316 Y-83.539 Z-3.767 I0 J-0.163
X-68.316 Y-83.214 Z-3.828 I0 J0.163
X-68.316 Y-83.539 Z-3.889 I0 J-0.163
X-68.316 Y-83.214 Z-3.95 I0 J0.163
X-68.316 Y-83.539 Z-4.011 I0 J-0.163
X-68.316 Y-83.214 Z-4.072 I0 J0.163
X-68.316 Y-83.539 Z-4.133 I0 J-0.163
X-68.316 Y-83.214 Z-4.194 I0 J0.163
X-68.316 Y-83.539 Z-4.256 I0 J-0.163
X-68.316 Y-83.214 Z-4.317 I0 J0.163
X-68.316 Y-83.539 Z-4.378 I0 J-0.163
X-68.316 Y-83.214 Z-4.439 I0 J0.163
X-68.316 Y-83.539 Z-4.5 I0 J-0.163
X-68.316 Y-83.214 Z-4.561 I0 J0.163
X-68.316 Y-83.539 Z-4.622 I0 J-0.163
X-68.316 Y-83.214 Z-4.683 I0 J0.163
X-68.316 Y-83.539 Z-4.744 I0 J-0.163
X-68.316 Y-83.214 Z-4.806 I0 J0.163
X-68.316 Y-83.539 Z-4.867 I0 J-0.163
X-68.316 Y-83.214 Z-4.928 I0 J0.163
X-68.316 Y-83.539 Z-4.989 I0 J-0.163
X-68.316 Y-83.214 Z-5.05 I0 J0.163
X-68.316 Y-83.539 Z-5.111 I0 J-0.163
X-68.316 Y-83.214 Z-5.172 I0 J0.163
X-68.316 Y-83.539 Z-5.233 I0 J-0.163
X-68.316 Y-83.214 Z-5.294 I0 J0.163
X-68.316 Y-83.539 Z-5.356 I0 J-0.163
X-68.316 Y-83.214 Z-5.417 I0 J0.163
X-68.316 Y-83.539 Z-5.478 I0 J-0.163
X-68.316 Y-83.214 Z-5.539 I0 J0.163
X-68.316 Y-83.539 Z-5.6 I0 J-0.163
X-68.316 Y-83.214 Z-5.661 I0 J0.163
X-68.316 Y-83.539 Z-5.722 I0 J-0.163
X-68.316 Y-83.214 Z-5.783 I0 J0.163
X-68.316 Y-83.539 Z-5.844 I0 J-0.163
X-68.316 Y-83.214 Z-5.906 I0 J0.163
X-68.316 Y-83.539 Z-5.967 I0 J-0.163
X-68.316 Y-83.214 Z-6.028 I0 J0.163
X-68.316 Y-83.539 Z-6.089 I0 J-0.163
X-68.316 Y-83.214 Z-6.15 I0 J0.163
X-68.316 Y-83.539 Z-6.211 I0 J-0.163
X-68.316 Y-83.214 Z-6.272 I0 J0.163
X-68.316 Y-83.539 Z-6.333 I0 J-0.163
X-68.316 Y-83.214 Z-6.394 I0 J0.163
X-68.316 Y-83.539 Z-6.456 I0 J-0.163
X-68.316 Y-83.214 Z-6.517 I0 J0.163
X-68.316 Y-83.539 Z-6.578 I0 J-0.163
X-68.316 Y-83.214 Z-6.639 I0 J0.163
X-68.316 Y-83.539 Z-6.7 I0 J-0.163
X-68.316 Y-83.214 Z-6.761 I0 J0.163
X-68.316 Y-83.539 Z-6.822 I0 J-0.163
X-68.316 Y-83.214 Z-6.883 I0 J0.163
X-68.316 Y-83.539 Z-6.944 I0 J-0.163
X-68.316 Y-83.214 Z-7.006 I0 J0.163
X-68.316 Y-83.539 Z-7.067 I0 J-0.163
X-68.316 Y-83.214 Z-7.128 I0 J0.163
X-68.316 Y-83.539 Z-7.189 I0 J-0.163
X-68.316 Y-83.214 Z-7.25 I0 J0.163
X-68.404 Y-83.513 Z-7.3 I0 J-0.163
X-68.228 Y-83.24 I0.088 J0.137
X-68.404 Y-83.513 I-0.088 J-0.137
G1 X-68.375 Y-83.525
X-68.343 Y-83.524
X-68.314 Y-83.511
X-68.292 Y-83.489
X-68.206 Y-83.355
Z5
X-91.381 Y-126.987
Z2.682
Z1
Y-127.145
X-91.375 Y-127.176
X-91.357 Y-127.203
X-91.331 Y-127.22
X-91.3 Y-127.227
G3 X-91.3 Y-126.902 Z0.939 I0 J0.162
X-91.3 Y-127.227 Z0.878 I0 J-0.162
X-91.3 Y-126.902 Z0.817 I0 J0.162
X-91.3 Y-127.227 Z0.756 I0 J-0.162
X-91.3 Y-126.902 Z0.694 I0 J0.162
X-91.3 Y-127.227 Z0.633 I0 J-0.162
X-91.3 Y-126.902 Z0.572 I0 J0.162
X-91.3 Y-127.227 Z0.511 I0 J-0.162
X-91.3 Y-126.902 Z0.45 I0 J0.162
X-91.3 Y-127.227 Z0.389 I0 J-0.162
X-91.3 Y-126.902 Z0.328 I0 J0.162
X-91.3 Y-127.227 Z0.267 I0 J-0.162
X-91.3 Y-126.902 Z0.206 I0 J0.162
X-91.3 Y-127.227 Z0.144 I0 J-0.162
X-91.3 Y-126.902 Z0.083 I0 J0.162
X-91.3 Y-127.227 Z0.022 I0 J-0.162
X-91.3 Y-126.902 Z-0.039 I0 J0.162
X-91.3 Y-127.227 Z-0.1 I0 J-0.162
X-91.3 Y-126.902 Z-0.161 I0 J0.162
X-91.3 Y-127.227 Z-0.222 I0 J-0.162
X-91.3 Y-126.902 Z-0.283 I0 J0.162
X-91.3 Y-127.227 Z-0.344 I0 J-0.162
X-91.3 Y-126.902 Z-0.406 I0 J0.162
X-91.3 Y-127.227 Z-0.467 I0 J-0.162
X-91.3 Y-126.902 Z-0.528 I0 J0.162
X-91.3 Y-127.227 Z-0.589 I0 J-0.162
X-91.3 Y-126.902 Z-0.65 I0 J0.162
X-91.3 Y-127.227 Z-0.711 I0 J-0.162
X-91.3 Y-126.902 Z-0.772 I0 J0.162
X-91.3 Y-127.227 Z-0.833 I0 J-0.162
X-91.3 Y-126.902 Z-0.894 I0 J0.162
X-91.3 Y-127.227 Z-0.956 I0 J-0.162
X-91.3 Y-126.902 Z-1.017 I0 J0.162
X-91.3 Y-127.227 Z-1.078 I0 J-0.162
X-91.3 Y-126.902 Z-1.139 I0 J0.162
X-91.3 Y-127.227 Z-1.2 I0 J-0.162
X-91.3 Y-126.902 Z-1.261 I0 J0.162
X-91.3 Y-127.227 Z-1.322 I0 J-0.162
X-91.3 Y-126.902 Z-1.383 I0 J0.162
X-91.3 Y-127.227 Z-1.444 I0 J-0.162
X-91.3 Y-126.902 Z-1.506 I0 J0.162
X-91.3 Y-127.227 Z-1.567 I0 J-0.162
X-91.3 Y-126.902 Z-1.628 I0 J0.162
X-91.3 Y-127.227 Z-1.689 I0 J-0.162
X-91.3 Y-126.902 Z-1.75 I0 J0.162
X-91.3 Y-127.227 Z-1.811 I0 J-0.162
X-91.3 Y-126.902 Z-1.872 I0 J0.162
X-91.3 Y-127.227 Z-1.933 I0 J-0.162
X-91.3 Y-126.902 Z-1.994 I0 J0.162
X-91.3 Y-127.227 Z-2.056 I0 J-0.162
X-91.3 Y-126.902 Z-2.117 I0 J0.162
X-91.3 Y-127.227 Z-2.178 I0 J-0.162
X-91.3 Y-126.902 Z-2.239 I0 J0.162
X-91.3 Y-127.227 Z-2.3 I0 J-0.162
X-91.3 Y-126.902 Z-2.361 I0 J0.162
X-91.3 Y-127.227 Z-2.422 I0 J-0.162
X-91.3 Y-126.902 Z-2.483 I0 J0.162
X-91.3 Y-127.227 Z-2.544 I0 J-0.162
X-91.3 Y-126.902 Z-2.606 I0 J0.162
X-91.3 Y-127.227 Z-2.667 I0 J-0.162
X-91.3 Y-126.902 Z-2.728 I0 J0.162
X-91.3 Y-127.227 Z-2.789 I0 J-0.162
X-91.3 Y-126.902 Z-2.85 I0 J0.162
X-91.3 Y-127.227 Z-2.911 I0 J-0.162
X-91.3 Y-126.902 Z-2.972 I0 J0.162
X-91.3 Y-127.227 Z-3.033 I0 J-0.162
X-91.3 Y-126.902 Z-3.094 I0 J0.162
X-91.3 Y-127.227 Z-3.156 I0 J-0.162
X-91.3 Y-126.902 Z-3.217 I0 J0.162
X-91.3 Y-127.227 Z-3.278 I0 J-0.162
X-91.3 Y-126.902 Z-3.339 I0 J0.162
X-91.3 Y-127.227 Z-3.4 I0 J-0.162
X-91.3 Y-126.902 Z-3.461 I0 J0.162
X-91.3 Y-127.227 Z-3.522 I0 J-0.162
X-91.3 Y-126.902 Z-3.583 I0 J0.162
X-91.3 Y-127.227 Z-3.644 I0 J-0.162
X-91.3 Y-126.902 Z-3.706 I0 J0.162
X-91.3 Y-127.227 Z-3.767 I0 J-0.162
X-91.3 Y-126.902 Z-3.828 I0 J0.162
X-91.3 Y-127.227 Z-3.889 I0 J-0.162
X-91.3 Y-126.902 Z-3.95 I0 J0.162
X-91.3 Y-127.227 Z-4.011 I0 J-0.162
X-91.3 Y-126.902 Z-4.072 I0 J0.162
X-91.3 Y-127.227 Z-4.133 I0 J-0.162
X-91.3 Y-126.902 Z-4.194 I0 J0.162
X-91.3 Y-127.227 Z-4.256 I0 J-0.162
X-91.3 Y-126.902 Z-4.317 I0 J0.162
X-91.3 Y-127.227 Z-4.378 I0 J-0.162
X-91.3 Y-126.902 Z-4.439 I0 J0.162
X-91.3 Y-127.227 Z-4.5 I0 J-0.162
X-91.3 Y-126.902 Z-4.561 I0 J0.162
X-91.3 Y-127.227 Z-4.622 I0 J-0.162
X-91.3 Y-126.902 Z-4.683 I0 J0.162
X-91.3 Y-127.227 Z-4.744 I0 J-0.162
X-91.3 Y-126.902 Z-4.806 I0 J0.162
X-91.3 Y-127.227 Z-4.867 I0 J-0.162
X-91.3 Y-126.902 Z-4.928 I0 J0.162
X-91.3 Y-127.227 Z-4.989 I0 J-0.162
X-91.3 Y-126.902 Z-5.05 I0 J0.162
X-91.3 Y-127.227 Z-5.111 I0 J-0.162
X-91.3 Y-126.902 Z-5.172 I0 J0.162
X-91.3 Y-127.227 Z-5.233 I0 J-0.162
X-91.3 Y-126.902 Z-5.294 I0 J0.162
X-91.3 Y-127.227 Z-5.356 I0 J-0.162
X-91.3 Y-126.902 Z-5.417 I0 J0.162
X-91.3 Y-127.227 Z-5.478 I0 J-0.162
X-91.3 Y-126.902 Z-5.539 I0 J0.162
X-91.3 Y-127.227 Z-5.6 I0 J-0.162
X-91.3 Y-126.902 Z-5.661 I0 J0.162
X-91.3 Y-127.227 Z-5.722 I0 J-0.162
X-91.3 Y-126.902 Z-5.783 I0 J0.162
X-91.3 Y-127.227 Z-5.844 I0 J-0.162
X-91.3 Y-126.902 Z-5.906 I0 J0.162
X-91.3 Y-127.227 Z-5.967 I0 J-0.162
X-91.3 Y-126.902 Z-6.028 I0 J0.162
X-91.3 Y-127.227 Z-6.089 I0 J-0.162
X-91.3 Y-126.902 Z-6.15 I0 J0.162
X-91.3 Y-127.227 Z-6.211 I0 J-0.162
X-91.3 Y-126.902 Z-6.272 I0 J0.162
X-91.3 Y-127.227 Z-6.333 I0 J-0.162
X-91.3 Y-126.902 Z-6.394 I0 J0.162
X-91.3 Y-127.227 Z-6.456 I0 J-0.162
X-91.3 Y-126.902 Z-6.517 I0 J0.162
X-91.3 Y-127.227 Z-6.578 I0 J-0.162
X-91.3 Y-126.902 Z-6.639 I0 J0.162
X-91.3 Y-127.227 Z-6.7 I0 J-0.162
X-91.3 Y-126.902 Z-6.761 I0 J0.162
X-91.3 Y-127.227 Z-6.822 I0 J-0.162
X-91.3 Y-126.902 Z-6.883 I0 J0.162
X-91.3 Y-127.227 Z-6.944 I0 J-0.162
X-91.3 Y-126.902 Z-7.006 I0 J0.162
X-91.3 Y-127.227 Z-7.067 I0 J-0.162
X-91.3 Y-126.902 Z-7.128 I0 J0.162
X-91.3 Y-127.227 Z-7.189 I0 J-0.162
X-91.3 Y-126.902 Z-7.25 I0 J0.162
X-91.388 Y-127.201 Z-7.3 I0 J-0.162
X-91.212 Y-126.928 I0.088 J0.137
X-91.388 Y-127.201 I-0.088 J-0.137
G1 X-91.359 Y-127.212
X-91.327
X-91.298 Y-127.199
X-91.276 Y-127.176
X-91.19 Y-127.043
Z5
X-91.381 Y-158.987
Z2.682
Z1
Y-159.145
X-91.375 Y-159.176
X-91.357 Y-159.203
X-91.331 Y-159.22
X-91.3 Y-159.227
G3 X-91.3 Y-158.902 Z0.939 I0 J0.163
X-91.3 Y-159.227 Z0.878 I0 J-0.163
X-91.3 Y-158.902 Z0.817 I0 J0.163
X-91.3 Y-159.227 Z0.756 I0 J-0.163
X-91.3 Y-158.902 Z0.694 I0 J0.163
X-91.3 Y-159.227 Z0.633 I0 J-0.163
X-91.3 Y-158.902 Z0.572 I0 J0.163
X-91.3 Y-159.227 Z0.511 I0 J-0.163
X-91.3 Y-158.902 Z0.45 I0 J0.163
X-91.3 Y-159.227 Z0.389 I0 J-0.163
X-91.3 Y-158.902 Z0.328 I0 J0.163
X-91.3 Y-159.227 Z0.267 I0 J-0.163
X-91.3 Y-158.902 Z0.206 I0 J0.163
X-91.3 Y-159.227 Z0.144 I0 J-0.163
X-91.3 Y-158.902 Z0.083 I0 J0.163
X-91.3 Y-159.227 Z0.022 I0 J-0.163
X-91.3 Y-158.902 Z-0.039 I0 J0.163
X-91.3 Y-159.227 Z-0.1 I0 J-0.163
X-91.3 Y-158.902 Z-0.161 I0 J0.163
X-91.3 Y-159.227 Z-0.222 I0 J-0.163
X-91.3 Y-158.902 Z-0.283 I0 J0.163
X-91.3 Y-159.227 Z-0.344 I0 J-0.163
X-91.3 Y-158.902 Z-0.406 I0 J0.163
X-91.3 Y-159.227 Z-0.467 I0 J-0.163
X-91.3 Y-158.902 Z-0.528 I0 J0.163
X-91.3 Y-159.227 Z-0.589 I0 J-0.163
X-91.3 Y-158.902 Z-0.65 I0 J0.163
X-91.3 Y-159.227 Z-0.711 I0 J-0.163
X-91.3 Y-158.902 Z-0.772 I0 J0.163
X-91.3 Y-159.227 Z-0.833 I0 J-0.163
X-91.3 Y-158.902 Z-0.894 I0 J0.163
X-91.3 Y-159.227 Z-0.956 I0 J-0.163
X-91.3 Y-158.902 Z-1.017 I0 J0.163
X-91.3 Y-159.227 Z-1.078 I0 J-0.163
X-91.3 Y-158.902 Z-1.139 I0 J0.163
X-91.3 Y-159.227 Z-1.2 I0 J-0.163
X-91.3 Y-158.902 Z-1.261 I0 J0.163
X-91.3 Y-159.227 Z-1.322 I0 J-0.163
X-91.3 Y-158.902 Z-1.383 I0 J0.163
X-91.3 Y-159.227 Z-1.444 I0 J-0.163
X-91.3 Y-158.902 Z-1.506 I0 J0.163
X-91.3 Y-159.227 Z-1.567 I0 J-0.163
X-91.3 Y-158.902 Z-1.628 I0 J0.163
X-91.3 Y-159.227 Z-1.689 I0 J-0.163
X-91.3 Y-158.902 Z-1.75 I0 J0.163
X-91.3 Y-159.227 Z-1.811 I0 J-0.163
X-91.3 Y-158.902 Z-1.872 I0 J0.163
X-91.3 Y-159.227 Z-1.933 I0 J-0.163
X-91.3 Y-158.902 Z-1.994 I0 J0.163
X-91.3 Y-159.227 Z-2.056 I0 J-0.163
X-91.3 Y-158.902 Z-2.117 I0 J0.163
X-91.3 Y-159.227 Z-2.178 I0 J-0.163
X-91.3 Y-158.902 Z-2.239 I0 J0.163
X-91.3 Y-159.227 Z-2.3 I0 J-0.162
X-91.3 Y-158.902 Z-2.361 I0 J0.162
X-91.3 Y-159.227 Z-2.422 I0 J-0.162
X-91.3 Y-158.902 Z-2.483 I0 J0.162
X-91.3 Y-159.227 Z-2.544 I0 J-0.162
X-91.3 Y-158.902 Z-2.606 I0 J0.162
X-91.3 Y-159.227 Z-2.667 I0 J-0.162
X-91.3 Y-158.902 Z-2.728 I0 J0.162
X-91.3 Y-159.227 Z-2.789 I0 J-0.162
X-91.3 Y-158.902 Z-2.85 I0 J0.162
X-91.3 Y-159.227 Z-2.911 I0 J-0.162
X-91.3 Y-158.902 Z-2.972 I0 J0.162
X-91.3 Y-159.227 Z-3.033 I0 J-0.162
X-91.3 Y-158.902 Z-3.094 I0 J0.162
X-91.3 Y-159.227 Z-3.156 I0 J-0.162
X-91.3 Y-158.902 Z-3.217 I0 J0.162
X-91.3 Y-159.227 Z-3.278 I0 J-0.162
X-91.3 Y-158.902 Z-3.339 I0 J0.162
X-91.3 Y-159.227 Z-3.4 I0 J-0.162
X-91.3 Y-158.902 Z-3.461 I0 J0.162
X-91.3 Y-159.227 Z-3.522 I0 J-0.162
X-91.3 Y-158.902 Z-3.583 I0 J0.162
X-91.3 Y-159.227 Z-3.644 I0 J-0.162
X-91.3 Y-158.902 Z-3.706 I0 J0.162
X-91.3 Y-159.227 Z-3.767 I0 J-0.162
X-91.3 Y-158.902 Z-3.828 I0 J0.162
X-91.3 Y-159.227 Z-3.889 I0 J-0.162
X-91.3 Y-158.902 Z-3.95 I0 J0.162
X-91.3 Y-159.227 Z-4.011 I0 J-0.162
X-91.3 Y-158.902 Z-4.072 I0 J0.162
X-91.3 Y-159.227 Z-4.133 I0 J-0.162
X-91.3 Y-158.902 Z-4.194 I0 J0.162
X-91.3 Y-159.227 Z-4.256 I0 J-0.162
X-91.3 Y-158.902 Z-4.317 I0 J0.162
X-91.3 Y-159.227 Z-4.378 I0 J-0.162
X-91.3 Y-158.902 Z-4.439 I0 J0.162
X-91.3 Y-159.227 Z-4.5 I0 J-0.162
X-91.3 Y-158.902 Z-4.561 I0 J0.162
X-91.3 Y-159.227 Z-4.622 I0 J-0.162
X-91.3 Y-158.902 Z-4.683 I0 J0.162
X-91.3 Y-159.227 Z-4.744 I0 J-0.162
X-91.3 Y-158.902 Z-4.806 I0 J0.162
X-91.3 Y-159.227 Z-4.867 I0 J-0.162
X-91.3 Y-158.902 Z-4.928 I0 J0.162
X-91.3 Y-159.227 Z-4.989 I0 J-0.162
X-91.3 Y-158.902 Z-5.05 I0 J0.162
X-91.3 Y-159.227 Z-5.111 I0 J-0.162
X-91.3 Y-158.902 Z-5.172 I0 J0.162
X-91.3 Y-159.227 Z-5.233 I0 J-0.162
X-91.3 Y-158.902 Z-5.294 I0 J0.162
X-91.3 Y-159.227 Z-5.356 I0 J-0.162
X-91.3 Y-158.902 Z-5.417 I0 J0.162
X-91.3 Y-159.227 Z-5.478 I0 J-0.162
X-91.3 Y-158.902 Z-5.539 I0 J0.162
X-91.3 Y-159.227 Z-5.6 I0 J-0.162
X-91.3 Y-158.902 Z-5.661 I0 J0.162
X-91.3 Y-159.227 Z-5.722 I0 J-0.162
X-91.3 Y-158.902 Z-5.783 I0 J0.162
X-91.3 Y-159.227 Z-5.844 I0 J-0.162
X-91.3 Y-158.902 Z-5.906 I0 J0.162
X-91.3 Y-159.227 Z-5.967 I0 J-0.162
X-91.3 Y-158.902 Z-6.028 I0 J0.162
X-91.3 Y-159.227 Z-6.089 I0 J-0.162
X-91.3 Y-158.902 Z-6.15 I0 J0.162
X-91.3 Y-159.227 Z-6.211 I0 J-0.162
X-91.3 Y-158.902 Z-6.272 I0 J0.162
X-91.3 Y-159.227 Z-6.333 I0 J-0.162
X-91.3 Y-158.902 Z-6.394 I0 J0.162
X-91.3 Y-159.227 Z-6.456 I0 J-0.162
X-91.3 Y-158.902 Z-6.517 I0 J0.162
X-91.3 Y-159.227 Z-6.578 I0 J-0.162
X-91.3 Y-158.902 Z-6.639 I0 J0.162
X-91.3 Y-159.227 Z-6.7 I0 J-0.162
X-91.3 Y-158.902 Z-6.761 I0 J0.162
X-91.3 Y-159.227 Z-6.822 I0 J-0.162
X-91.3 Y-158.902 Z-6.883 I0 J0.162
X-91.3 Y-159.227 Z-6.944 I0 J-0.162
X-91.3 Y-158.902 Z-7.006 I0 J0.162
X-91.3 Y-159.227 Z-7.067 I0 J-0.162
X-91.3 Y-158.902 Z-7.128 I0 J0.162
X-91.3 Y-159.227 Z-7.189 I0 J-0.162
X-91.3 Y-158.902 Z-7.25 I0 J0.162
X-91.388 Y-159.201 Z-7.3 I0 J-0.162
X-91.212 Y-158.928 I0.088 J0.137
X-91.388 Y-159.201 I-0.088 J-0.137
G1 X-91.359 Y-159.212
X-91.327
X-91.298 Y-159.199
X-91.276 Y-159.176
X-91.19 Y-159.043
Z5
X-136.381 Y-158.987
Z2.682
Z1
Y-159.145
X-136.375 Y-159.176
X-136.357 Y-159.203
X-136.331 Y-159.22
X-136.3 Y-159.227
G3 X-136.3 Y-158.902 Z0.939 I0 J0.163
X-136.3 Y-159.227 Z0.878 I0 J-0.163
X-136.3 Y-158.902 Z0.817 I0 J0.163
X-136.3 Y-159.227 Z0.756 I0 J-0.163
X-136.3 Y-158.902 Z0.694 I0 J0.163
X-136.3 Y-159.227 Z0.633 I0 J-0.163
X-136.3 Y-158.902 Z0.572 I0 J0.163
X-136.3 Y-159.227 Z0.511 I0 J-0.163
X-136.3 Y-158.902 Z0.45 I0 J0.163
X-136.3 Y-159.227 Z0.389 I0 J-0.163
X-136.3 Y-158.902 Z0.328 I0 J0.163
X-136.3 Y-159.227 Z0.267 I0 J-0.163
X-136.3 Y-158.902 Z0.206 I0 J0.163
X-136.3 Y-159.227 Z0.144 I0 J-0.163
X-136.3 Y-158.902 Z0.083 I0 J0.163
X-136.3 Y-159.227 Z0.022 I0 J-0.163
X-136.3 Y-158.902 Z-0.039 I0 J0.163
X-136.3 Y-159.227 Z-0.1 I0 J-0.163
X-136.3 Y-158.902 Z-0.161 I0 J0.163
X-136.3 Y-159.227 Z-0.222 I0 J-0.163
X-136.3 Y-158.902 Z-0.283 I0 J0.163
X-136.3 Y-159.227 Z-0.344 I0 J-0.163
X-136.3 Y-158.902 Z-0.406 I0 J0.163
X-136.3 Y-159.227 Z-0.467 I0 J-0.163
X-136.3 Y-158.902 Z-0.528 I0 J0.163
X-136.3 Y-159.227 Z-0.589 I0 J-0.163
X-136.3 Y-158.902 Z-0.65 I0 J0.163
X-136.3 Y-159.227 Z-0.711 I0 J-0.163
X-136.3 Y-158.902 Z-0.772 I0 J0.163
X-136.3 Y-159.227 Z-0.833 I0 J-0.163
X-136.3 Y-158.902 Z-0.894 I0 J0.163
X-136.3 Y-159.227 Z-0.956 I0 J-0.163
X-136.3 Y-158.902 Z-1.017 I0 J0.163
X-136.3 Y-159.227 Z-1.078 I0 J-0.163
X-136.3 Y-158.902 Z-1.139 I0 J0.163
X-136.3 Y-159.227 Z-1.2 I0 J-0.163
X-136.3 Y-158.902 Z-1.261 I0 J0.163
X-136.3 Y-159.227 Z-1.322 I0 J-0.163
X-136.3 Y-158.902 Z-1.383 I0 J0.163
X-136.3 Y-159.227 Z-1.444 I0 J-0.163
X-136.3 Y-158.902 Z-1.506 I0 J0.163
X-136.3 Y-159.227 Z-1.567 I0 J-0.163
X-136.3 Y-158.902 Z-1.628 I0 J0.163
X-136.3 Y-159.227 Z-1.689 I0 J-0.163
X-136.3 Y-158.902 Z-1.75 I0 J0.163
X-136.3 Y-159.227 Z-1.811 I0 J-0.163
X-136.3 Y-158.902 Z-1.872 I0 J0.163
X-136.3 Y-159.227 Z-1.933 I0 J-0.163
X-136.3 Y-158.902 Z-1.994 I0 J0.163
X-136.3 Y-159.227 Z-2.056 I0 J-0.163
X-136.3 Y-158.902 Z-2.117 I0 J0.163
X-136.3 Y-159.227 Z-2.178 I0 J-0.163
X-136.3 Y-158.902 Z-2.239 I0 J0.163
X-136.3 Y-159.227 Z-2.3 I0 J-0.162
X-136.3 Y-158.902 Z-2.361 I0 J0.162
X-136.3 Y-159.227 Z-2.422 I0 J-0.162
X-136.3 Y-158.902 Z-2.483 I0 J0.162
X-136.3 Y-159.227 Z-2.544 I0 J-0.162
X-136.3 Y-158.902 Z-2.606 I0 J0.162
X-136.3 Y-159.227 Z-2.667 I0 J-0.162
X-136.3 Y-158.902 Z-2.728 I0 J0.162
X-136.3 Y-159.227 Z-2.789 I0 J-0.162
X-136.3 Y-158.902 Z-2.85 I0 J0.162
X-136.3 Y-159.227 Z-2.911 I0 J-0.162
X-136.3 Y-158.902 Z-2.972 I0 J0.162
X-136.3 Y-159.227 Z-3.033 I0 J-0.162
X-136.3 Y-158.902 Z-3.094 I0 J0.162
X-136.3 Y-159.227 Z-3.156 I0 J-0.162
X-136.3 Y-158.902 Z-3.217 I0 J0.162
X-136.3 Y-159.227 Z-3.278 I0 J-0.162
X-136.3 Y-158.902 Z-3.339 I0 J0.162
X-136.3 Y-159.227 Z-3.4 I0 J-0.162
X-136.3 Y-158.902 Z-3.461 I0 J0.162
X-136.3 Y-159.227 Z-3.522 I0 J-0.162
X-136.3 Y-158.902 Z-3.583 I0 J0.162
X-136.3 Y-159.227 Z-3.644 I0 J-0.162
X-136.3 Y-158.902 Z-3.706 I0 J0.162
X-136.3 Y-159.227 Z-3.767 I0 J-0.162
X-136.3 Y-158.902 Z-3.828 I0 J0.162
X-136.3 Y-159.227 Z-3.889 I0 J-0.162
X-136.3 Y-158.902 Z-3.95 I0 J0.162
X-136.3 Y-159.227 Z-4.011 I0 J-0.162
X-136.3 Y-158.902 Z-4.072 I0 J0.162
X-136.3 Y-159.227 Z-4.133 I0 J-0.162
X-136.3 Y-158.902 Z-4.194 I0 J0.162
X-136.3 Y-159.227 Z-4.256 I0 J-0.162
X-136.3 Y-158.902 Z-4.317 I0 J0.162
X-136.3 Y-159.227 Z-4.378 I0 J-0.162
X-136.3 Y-158.902 Z-4.439 I0 J0.162
X-136.3 Y-159.227 Z-4.5 I0 J-0.162
X-136.3 Y-158.902 Z-4.561 I0 J0.162
X-136.3 Y-159.227 Z-4.622 I0 J-0.162
X-136.3 Y-158.902 Z-4.683 I0 J0.162
X-136.3 Y-159.227 Z-4.744 I0 J-0.162
X-136.3 Y-158.902 Z-4.806 I0 J0.162
X-136.3 Y-159.227 Z-4.867 I0 J-0.162
X-136.3 Y-158.902 Z-4.928 I0 J0.162
X-136.3 Y-159.227 Z-4.989 I0 J-0.162
X-136.3 Y-158.902 Z-5.05 I0 J0.162
X-136.3 Y-159.227 Z-5.111 I0 J-0.162
X-136.3 Y-158.902 Z-5.172 I0 J0.162
X-136.3 Y-159.227 Z-5.233 I0 J-0.162
X-136.3 Y-158.902 Z-5.294 I0 J0.162
X-136.3 Y-159.227 Z-5.356 I0 J-0.162
X-136.3 Y-158.902 Z-5.417 I0 J0.162
X-136.3 Y-159.227 Z-5.478 I0 J-0.162
X-136.3 Y-158.902 Z-5.539 I0 J0.162
X-136.3 Y-159.227 Z-5.6 I0 J-0.162
X-136.3 Y-158.902 Z-5.661 I0 J0.162
X-136.3 Y-159.227 Z-5.722 I0 J-0.162
X-136.3 Y-158.902 Z-5.783 I0 J0.162
X-136.3 Y-159.227 Z-5.844 I0 J-0.162
X-136.3 Y-158.902 Z-5.906 I0 J0.162
X-136.3 Y-159.227 Z-5.967 I0 J-0.162
X-136.3 Y-158.902 Z-6.028 I0 J0.162
X-136.3 Y-159.227 Z-6.089 I0 J-0.162
X-136.3 Y-158.902 Z-6.15 I0 J0.162
X-136.3 Y-159.227 Z-6.211 I0 J-0.162
X-136.3 Y-158.902 Z-6.272 I0 J0.162
X-136.3 Y-159.227 Z-6.333 I0 J-0.162
X-136.3 Y-158.902 Z-6.394 I0 J0.162
X-136.3 Y-159.227 Z-6.456 I0 J-0.162
X-136.3 Y-158.902 Z-6.517 I0 J0.162
X-136.3 Y-159.227 Z-6.578 I0 J-0.162
X-136.3 Y-158.902 Z-6.639 I0 J0.162
X-136.3 Y-159.227 Z-6.7 I0 J-0.162
X-136.3 Y-158.902 Z-6.761 I0 J0.162
X-136.3 Y-159.227 Z-6.822 I0 J-0.162
X-136.3 Y-158.902 Z-6.883 I0 J0.162
X-136.3 Y-159.227 Z-6.944 I0 J-0.162
X-136.3 Y-158.902 Z-7.006 I0 J0.162
X-136.3 Y-159.227 Z-7.067 I0 J-0.162
X-136.3 Y-158.902 Z-7.128 I0 J0.162
X-136.3 Y-159.227 Z-7.189 I0 J-0.162
X-136.3 Y-158.902 Z-7.25 I0 J0.162
X-136.388 Y-159.201 Z-7.3 I0 J-0.162
X-136.212 Y-158.928 I0.088 J0.137
X-136.388 Y-159.201 I-0.088 J-0.137
G1 X-136.359 Y-159.212
X-136.327
X-136.298 Y-159.199
X-136.276 Y-159.176
X-136.19 Y-159.043
Z5
X-136.381 Y-126.987
Z2.682
Z1
Y-127.145
X-136.375 Y-127.176
X-136.357 Y-127.203
X-136.331 Y-127.22
X-136.3 Y-127.227
G3 X-136.3 Y-126.902 Z0.939 I0 J0.162
X-136.3 Y-127.227 Z0.878 I0 J-0.162
X-136.3 Y-126.902 Z0.817 I0 J0.162
X-136.3 Y-127.227 Z0.756 I0 J-0.162
X-136.3 Y-126.902 Z0.694 I0 J0.162
X-136.3 Y-127.227 Z0.633 I0 J-0.162
X-136.3 Y-126.902 Z0.572 I0 J0.162
X-136.3 Y-127.227 Z0.511 I0 J-0.162
X-136.3 Y-126.902 Z0.45 I0 J0.162
X-136.3 Y-127.227 Z0.389 I0 J-0.162
X-136.3 Y-126.902 Z0.328 I0 J0.162
X-136.3 Y-127.227 Z0.267 I0 J-0.162
X-136.3 Y-126.902 Z0.206 I0 J0.162
X-136.3 Y-127.227 Z0.144 I0 J-0.162
X-136.3 Y-126.902 Z0.083 I0 J0.162
X-136.3 Y-127.227 Z0.022 I0 J-0.162
X-136.3 Y-126.902 Z-0.039 I0 J0.162
X-136.3 Y-127.227 Z-0.1 I0 J-0.162
X-136.3 Y-126.902 Z-0.161 I0 J0.162
X-136.3 Y-127.227 Z-0.222 I0 J-0.162
X-136.3 Y-126.902 Z-0.283 I0 J0.162
X-136.3 Y-127.227 Z-0.344 I0 J-0.162
X-136.3 Y-126.902 Z-0.406 I0 J0.162
X-136.3 Y-127.227 Z-0.467 I0 J-0.162
X-136.3 Y-126.902 Z-0.528 I0 J0.162
X-136.3 Y-127.227 Z-0.589 I0 J-0.162
X-136.3 Y-126.902 Z-0.65 I0 J0.162
X-136.3 Y-127.227 Z-0.711 I0 J-0.162
X-136.3 Y-126.902 Z-0.772 I0 J0.162
X-136.3 Y-127.227 Z-0.833 I0 J-0.162
X-136.3 Y-126.902 Z-0.894 I0 J0.162
X-136.3 Y-127.227 Z-0.956 I0 J-0.162
X-136.3 Y-126.902 Z-1.017 I0 J0.162
X-136.3 Y-127.227 Z-1.078 I0 J-0.162
X-136.3 Y-126.902 Z-1.139 I0 J0.162
X-136.3 Y-127.227 Z-1.2 I0 J-0.162
X-136.3 Y-126.902 Z-1.261 I0 J0.162
X-136.3 Y-127.227 Z-1.322 I0 J-0.162
X-136.3 Y-126.902 Z-1.383 I0 J0.162
X-136.3 Y-127.227 Z-1.444 I0 J-0.162
X-136.3 Y-126.902 Z-1.506 I0 J0.162
X-136.3 Y-127.227 Z-1.567 I0 J-0.162
X-136.3 Y-126.902 Z-1.628 I0 J0.162
X-136.3 Y-127.227 Z-1.689 I0 J-0.162
X-136.3 Y-126.902 Z-1.75 I0 J0.162
X-136.3 Y-127.227 Z-1.811 I0 J-0.162
X-136.3 Y-126.902 Z-1.872 I0 J0.162
X-136.3 Y-127.227 Z-1.933 I0 J-0.162
X-136.3 Y-126.902 Z-1.994 I0 J0.162
X-136.3 Y-127.227 Z-2.056 I0 J-0.162
X-136.3 Y-126.902 Z-2.117 I0 J0.162
X-136.3 Y-127.227 Z-2.178 I0 J-0.162
X-136.3 Y-126.902 Z-2.239 I0 J0.162
X-136.3 Y-127.227 Z-2.3 I0 J-0.162
X-136.3 Y-126.902 Z-2.361 I0 J0.162
X-136.3 Y-127.227 Z-2.422 I0 J-0.162
X-136.3 Y-126.902 Z-2.483 I0 J0.162
X-136.3 Y-127.227 Z-2.544 I0 J-0.162
X-136.3 Y-126.902 Z-2.606 I0 J0.162
X-136.3 Y-127.227 Z-2.667 I0 J-0.162
X-136.3 Y-126.902 Z-2.728 I0 J0.162
X-136.3 Y-127.227 Z-2.789 I0 J-0.162
X-136.3 Y-126.902 Z-2.85 I0 J0.162
X-136.3 Y-127.227 Z-2.911 I0 J-0.162
X-136.3 Y-126.902 Z-2.972 I0 J0.162
X-136.3 Y-127.227 Z-3.033 I0 J-0.162
X-136.3 Y-126.902 Z-3.094 I0 J0.162
X-136.3 Y-127.227 Z-3.156 I0 J-0.162
X-136.3 Y-126.902 Z-3.217 I0 J0.162
X-136.3 Y-127.227 Z-3.278 I0 J-0.162
X-136.3 Y-126.902 Z-3.339 I0 J0.162
X-136.3 Y-127.227 Z-3.4 I0 J-0.162
X-136.3 Y-126.902 Z-3.461 I0 J0.162
X-136.3 Y-127.227 Z-3.522 I0 J-0.162
X-136.3 Y-126.902 Z-3.583 I0 J0.162
X-136.3 Y-127.227 Z-3.644 I0 J-0.162
X-136.3 Y-126.902 Z-3.706 I0 J0.162
X-136.3 Y-127.227 Z-3.767 I0 J-0.162
X-136.3 Y-126.902 Z-3.828 I0 J0.162
X-136.3 Y-127.227 Z-3.889 I0 J-0.162
X-136.3 Y-126.902 Z-3.95 I0 J0.162
X-136.3 Y-127.227 Z-4.011 I0 J-0.162
X-136.3 Y-126.902 Z-4.072 I0 J0.162
X-136.3 Y-127.227 Z-4.133 I0 J-0.162
X-136.3 Y-126.902 Z-4.194 I0 J0.162
X-136.3 Y-127.227 Z-4.256 I0 J-0.162
X-136.3 Y-126.902 Z-4.317 I0 J0.162
X-136.3 Y-127.227 Z-4.378 I0 J-0.162
X-136.3 Y-126.902 Z-4.439 I0 J0.162
X-136.3 Y-127.227 Z-4.5 I0 J-0.162
X-136.3 Y-126.902 Z-4.561 I0 J0.162
X-136.3 Y-127.227 Z-4.622 I0 J-0.162
X-136.3 Y-126.902 Z-4.683 I0 J0.162
X-136.3 Y-127.227 Z-4.744 I0 J-0.162
X-136.3 Y-126.902 Z-4.806 I0 J0.162
X-136.3 Y-127.227 Z-4.867 I0 J-0.162
X-136.3 Y-126.902 Z-4.928 I0 J0.162
X-136.3 Y-127.227 Z-4.989 I0 J-0.162
X-136.3 Y-126.902 Z-5.05 I0 J0.162
X-136.3 Y-127.227 Z-5.111 I0 J-0.162
X-136.3 Y-126.902 Z-5.172 I0 J0.162
X-136.3 Y-127.227 Z-5.233 I0 J-0.162
X-136.3 Y-126.902 Z-5.294 I0 J0.162
X-136.3 Y-127.227 Z-5.356 I0 J-0.162
X-136.3 Y-126.902 Z-5.417 I0 J0.162
X-136.3 Y-127.227 Z-5.478 I0 J-0.162
X-136.3 Y-126.902 Z-5.539 I0 J0.162
X-136.3 Y-127.227 Z-5.6 I0 J-0.162
X-136.3 Y-126.902 Z-5.661 I0 J0.162
X-136.3 Y-127.227 Z-5.722 I0 J-0.162
X-136.3 Y-126.902 Z-5.783 I0 J0.162
X-136.3 Y-127.227 Z-5.844 I0 J-0.162
X-136.3 Y-126.902 Z-5.906 I0 J0.162
X-136.3 Y-127.227 Z-5.967 I0 J-0.162
X-136.3 Y-126.902 Z-6.028 I0 J0.162
X-136.3 Y-127.227 Z-6.089 I0 J-0.162
X-136.3 Y-126.902 Z-6.15 I0 J0.162
X-136.3 Y-127.227 Z-6.211 I0 J-0.162
X-136.3 Y-126.902 Z-6.272 I0 J0.162
X-136.3 Y-127.227 Z-6.333 I0 J-0.162
X-136.3 Y-126.902 Z-6.394 I0 J0.162
X-136.3 Y-127.227 Z-6.456 I0 J-0.162
X-136.3 Y-126.902 Z-6.517 I0 J0.162
X-136.3 Y-127.227 Z-6.578 I0 J-0.162
X-136.3 Y-126.902 Z-6.639 I0 J0.162
X-136.3 Y-127.227 Z-6.7 I0 J-0.162
X-136.3 Y-126.902 Z-6.761 I0 J0.162
X-136.3 Y-127.227 Z-6.822 I0 J-0.162
X-136.3 Y-126.902 Z-6.883 I0 J0.162
X-136.3 Y-127.227 Z-6.944 I0 J-0.162
X-136.3 Y-126.902 Z-7.006 I0 J0.162
X-136.3 Y-127.227 Z-7.067 I0 J-0.162
X-136.3 Y-126.902 Z-7.128 I0 J0.162
X-136.3 Y-127.227 Z-7.189 I0 J-0.162
X-136.3 Y-126.902 Z-7.25 I0 J0.162
X-136.388 Y-127.201 Z-7.3 I0 J-0.162
X-136.212 Y-126.928 I0.088 J0.137
X-136.388 Y-127.201 I-0.088 J-0.137
G1 X-136.359 Y-127.212
X-136.327
X-136.298 Y-127.199
X-136.276 Y-127.176
X-136.19 Y-127.043
Z5
X-159.365 Y-83.299
Z2.682
Z1
Y-83.458
X-159.359 Y-83.489
X-159.341 Y-83.515
X-159.315 Y-83.533
X-159.284 Y-83.539
G3 X-159.284 Y-83.214 Z0.939 I0 J0.163
X-159.284 Y-83.539 Z0.878 I0 J-0.163
X-159.284 Y-83.214 Z0.817 I0 J0.163
X-159.284 Y-83.539 Z0.756 I0 J-0.163
X-159.284 Y-83.214 Z0.694 I0 J0.163
X-159.284 Y-83.539 Z0.633 I0 J-0.163
X-159.284 Y-83.214 Z0.572 I0 J0.163
X-159.284 Y-83.539 Z0.511 I0 J-0.163
X-159.284 Y-83.214 Z0.45 I0 J0.163
X-159.284 Y-83.539 Z0.389 I0 J-0.163
X-159.284 Y-83.214 Z0.328 I0 J0.163
X-159.284 Y-83.539 Z0.267 I0 J-0.163
X-159.284 Y-83.214 Z0.206 I0 J0.163
X-159.284 Y-83.539 Z0.144 I0 J-0.163
X-159.284 Y-83.214 Z0.083 I0 J0.163
X-159.284 Y-83.539 Z0.022 I0 J-0.163
X-159.284 Y-83.214 Z-0.039 I0 J0.163
X-159.284 Y-83.539 Z-0.1 I0 J-0.163
X-159.284 Y-83.214 Z-0.161 I0 J0.163
X-159.284 Y-83.539 Z-0.222 I0 J-0.163
X-159.284 Y-83.214 Z-0.283 I0 J0.163
X-159.284 Y-83.539 Z-0.344 I0 J-0.163
X-159.284 Y-83.214 Z-0.406 I0 J0.163
X-159.284 Y-83.539 Z-0.467 I0 J-0.163
X-159.284 Y-83.214 Z-0.528 I0 J0.163
X-159.284 Y-83.539 Z-0.589 I0 J-0.163
X-159.284 Y-83.214 Z-0.65 I0 J0.163
X-159.284 Y-83.539 Z-0.711 I0 J-0.163
X-159.284 Y-83.214 Z-0.772 I0 J0.163
X-159.284 Y-83.539 Z-0.833 I0 J-0.163
X-159.284 Y-83.214 Z-0.894 I0 J0.163
X-159.284 Y-83.539 Z-0.956 I0 J-0.163
X-159.284 Y-83.214 Z-1.017 I0 J0.163
X-159.284 Y-83.539 Z-1.078 I0 J-0.163
X-159.284 Y-83.214 Z-1.139 I0 J0.163
X-159.284 Y-83.539 Z-1.2 I0 J-0.163
X-159.284 Y-83.214 Z-1.261 I0 J0.163
X-159.284 Y-83.539 Z-1.322 I0 J-0.163
X-159.284 Y-83.214 Z-1.383 I0 J0.163
X-159.284 Y-83.539 Z-1.444 I0 J-0.163
X-159.284 Y-83.214 Z-1.506 I0 J0.163
X-159.284 Y-83.539 Z-1.567 I0 J-0.163
X-159.284 Y-83.214 Z-1.628 I0 J0.163
X-159.284 Y-83.539 Z-1.689 I0 J-0.163
X-159.284 Y-83.214 Z-1.75 I0 J0.163
X-159.284 Y-83.539 Z-1.811 I0 J-0.163
X-159.284 Y-83.214 Z-1.872 I0 J0.163
X-159.284 Y-83.539 Z-1.933 I0 J-0.163
X-159.284 Y-83.214 Z-1.994 I0 J0.163
X-159.284 Y-83.539 Z-2.056 I0 J-0.163
X-159.284 Y-83.214 Z-2.117 I0 J0.163
X-159.284 Y-83.539 Z-2.178 I0 J-0.163
X-159.284 Y-83.214 Z-2.239 I0 J0.163
X-159.284 Y-83.539 Z-2.3 I0 J-0.163
X-159.284 Y-83.214 Z-2.361 I0 J0.163
X-159.284 Y-83.539 Z-2.422 I0 J-0.163
X-159.284 Y-83.214 Z-2.483 I0 J0.163
X-159.284 Y-83.539 Z-2.544 I0 J-0.163
X-159.284 Y-83.214 Z-2.606 I0 J0.163
X-159.284 Y-83.539 Z-2.667 I0 J-0.163
X-159.284 Y-83.214 Z-2.728 I0 J0.163
X-159.284 Y-83.539 Z-2.789 I0 J-0.163
X-159.284 Y-83.214 Z-2.85 I0 J0.163
X-159.284 Y-83.539 Z-2.911 I0 J-0.163
X-159.284 Y-83.214 Z-2.972 I0 J0.163
X-159.284 Y-83.539 Z-3.033 I0 J-0.163
X-159.284 Y-83.214 Z-3.094 I0 J0.163
X-159.284 Y-83.539 Z-3.156 I0 J-0.163
X-159.284 Y-83.214 Z-3.217 I0 J0.163
X-159.284 Y-83.539 Z-3.278 I0 J-0.163
X-159.284 Y-83.214 Z-3.339 I0 J0.163
X-159.284 Y-83.539 Z-3.4 I0 J-0.163
X-159.284 Y-83.214 Z-3.461 I0 J0.163
X-159.284 Y-83.539 Z-3.522 I0 J-0.163
X-159.284 Y-83.214 Z-3.583 I0 J0.163
X-159.284 Y-83.539 Z-3.644 I0 J-0.163
X-159.284 Y-83.214 Z-3.706 I0 J0.163
X-159.284 Y-83.539 Z-3.767 I0 J-0.163
X-159.284 Y-83.214 Z-3.828 I0 J0.163
X-159.284 Y-83.539 Z-3.889 I0 J-0.163
X-159.284 Y-83.214 Z-3.95 I0 J0.163
X-159.284 Y-83.539 Z-4.011 I0 J-0.163
X-159.284 Y-83.214 Z-4.072 I0 J0.163
X-159.284 Y-83.539 Z-4.133 I0 J-0.163
X-159.284 Y-83.214 Z-4.194 I0 J0.163
X-159.284 Y-83.539 Z-4.256 I0 J-0.163
X-159.284 Y-83.214 Z-4.317 I0 J0.163
X-159.284 Y-83.539 Z-4.378 I0 J-0.163
X-159.284 Y-83.214 Z-4.439 I0 J0.163
X-159.284 Y-83.539 Z-4.5 I0 J-0.163
X-159.284 Y-83.214 Z-4.561 I0 J0.163
X-159.284 Y-83.539 Z-4.622 I0 J-0.163
X-159.284 Y-83.214 Z-4.683 I0 J0.163
X-159.284 Y-83.539 Z-4.744 I0 J-0.163
X-159.284 Y-83.214 Z-4.806 I0 J0.163
X-159.284 Y-83.539 Z-4.867 I0 J-0.163
X-159.284 Y-83.214 Z-4.928 I0 J0.163
X-159.284 Y-83.539 Z-4.989 I0 J-0.163
X-159.284 Y-83.214 Z-5.05 I0 J0.163
X-159.284 Y-83.539 Z-5.111 I0 J-0.163
X-159.284 Y-83.214 Z-5.172 I0 J0.163
X-159.284 Y-83.539 Z-5.233 I0 J-0.163
X-159.284 Y-83.214 Z-5.294 I0 J0.163
X-159.284 Y-83.539 Z-5.356 I0 J-0.163
X-159.284 Y-83.214 Z-5.417 I0 J0.163
X-159.284 Y-83.539 Z-5.478 I0 J-0.163
X-159.284 Y-83.214 Z-5.539 I0 J0.163
X-159.284 Y-83.539 Z-5.6 I0 J-0.163
X-159.284 Y-83.214 Z-5.661 I0 J0.163
X-159.284 Y-83.539 Z-5.722 I0 J-0.163
X-159.284 Y-83.214 Z-5.783 I0 J0.163
X-159.284 Y-83.539 Z-5.844 I0 J-0.163
X-159.284 Y-83.214 Z-5.906 I0 J0.163
X-159.284 Y-83.539 Z-5.967 I0 J-0.163
X-159.284 Y-83.214 Z-6.028 I0 J0.163
X-159.284 Y-83.539 Z-6.089 I0 J-0.163
X-159.284 Y-83.214 Z-6.15 I0 J0.163
X-159.284 Y-83.539 Z-6.211 I0 J-0.163
X-159.284 Y-83.214 Z-6.272 I0 J0.163
X-159.284 Y-83.539 Z-6.333 I0 J-0.163
X-159.284 Y-83.214 Z-6.394 I0 J0.163
X-159.284 Y-83.539 Z-6.456 I0 J-0.163
X-159.284 Y-83.214 Z-6.517 I0 J0.163
X-159.284 Y-83.539 Z-6.578 I0 J-0.163
X-159.284 Y-83.214 Z-6.639 I0 J0.163
X-159.284 Y-83.539 Z-6.7 I0 J-0.163
X-159.284 Y-83.214 Z-6.761 I0 J0.163
X-159.284 Y-83.539 Z-6.822 I0 J-0.163
X-159.284 Y-83.214 Z-6.883 I0 J0.163
X-159.284 Y-83.539 Z-6.944 I0 J-0.163
X-159.284 Y-83.214 Z-7.006 I0 J0.163
X-159.284 Y-83.539 Z-7.067 I0 J-0.163
X-159.284 Y-83.214 Z-7.128 I0 J0.163
X-159.284 Y-83.539 Z-7.189 I0 J-0.163
X-159.284 Y-83.214 Z-7.25 I0 J0.163
X-159.372 Y-83.513 Z-7.3 I0 J-0.163
X-159.196 Y-83.24 I0.088 J0.137
X-159.372 Y-83.513 I-0.088 J-0.137
G1 X-159.343 Y-83.525
X-159.311 Y-83.524
X-159.282 Y-83.511
X-159.26 Y-83.489
X-159.174 Y-83.355
Z5
X-171.117 Y-68.383
Z3
Z1.317
G19 G2 Y-68.7 Z1 J-0.317 K0
G1 Y-68.859
G17 G3 X-170.8 Y-69.177 I0.317 J0
X-170.8 Y-67.352 Z0.913 I0 J0.913
X-170.8 Y-69.177 Z0.825 I0 J-0.913
X-170.8 Y-67.352 Z0.738 I0 J0.913
X-170.8 Y-69.177 Z0.651 I0 J-0.913
X-170.8 Y-67.352 Z0.563 I0 J0.913
X-170.8 Y-69.177 Z0.476 I0 J-0.913
X-170.8 Y-67.352 Z0.389 I0 J0.913
X-170.8 Y-69.177 Z0.302 I0 J-0.913
X-170.8 Y-67.352 Z0.214 I0 J0.913
X-170.8 Y-69.177 Z0.127 I0 J-0.913
X-170.8 Y-67.352 Z0.04 I0 J0.913
X-170.8 Y-69.177 Z-0.048 I0 J-0.913
X-170.8 Y-67.352 Z-0.135 I0 J0.913
X-170.8 Y-69.177 Z-0.222 I0 J-0.913
X-170.8 Y-67.352 Z-0.31 I0 J0.913
X-170.8 Y-69.177 Z-0.397 I0 J-0.913
X-170.8 Y-67.352 Z-0.484 I0 J0.913
X-170.8 Y-69.177 Z-0.571 I0 J-0.913
X-170.8 Y-67.352 Z-0.659 I0 J0.913
X-170.8 Y-69.177 Z-0.746 I0 J-0.913
X-170.8 Y-67.352 Z-0.833 I0 J0.913
X-170.8 Y-69.177 Z-0.921 I0 J-0.913
X-170.8 Y-67.352 Z-1.008 I0 J0.913
X-170.8 Y-69.177 Z-1.095 I0 J-0.913
X-170.8 Y-67.352 Z-1.183 I0 J0.913
X-170.8 Y-69.177 Z-1.27 I0 J-0.913
X-170.8 Y-67.352 Z-1.357 I0 J0.913
X-170.8 Y-69.177 Z-1.444 I0 J-0.913
X-170.8 Y-67.352 Z-1.532 I0 J0.913
X-170.8 Y-69.177 Z-1.619 I0 J-0.913
X-170.8 Y-67.352 Z-1.706 I0 J0.913
X-170.8 Y-69.177 Z-1.794 I0 J-0.913
X-170.8 Y-67.352 Z-1.881 I0 J0.913
X-170.8 Y-69.177 Z-1.968 I0 J-0.913
X-170.8 Y-67.352 Z-2.056 I0 J0.913
X-170.8 Y-69.177 Z-2.143 I0 J-0.913
X-170.8 Y-67.352 Z-2.23 I0 J0.913
X-170.8 Y-69.177 Z-2.317 I0 J-0.913
X-170.8 Y-67.352 Z-2.405 I0 J0.913
X-170.8 Y-69.177 Z-2.492 I0 J-0.913
X-170.8 Y-67.352 Z-2.579 I0 J0.913
X-170.8 Y-69.177 Z-2.667 I0 J-0.913
X-170.8 Y-67.352 Z-2.754 I0 J0.913
X-170.8 Y-69.177 Z-2.841 I0 J-0.913
X-170.8 Y-67.352 Z-2.929 I0 J0.913
X-170.8 Y-69.177 Z-3.016 I0 J-0.913
X-170.8 Y-67.352 Z-3.103 I0 J0.913
X-170.8 Y-69.177 Z-3.19 I0 J-0.913
X-170.8 Y-67.352 Z-3.278 I0 J0.913
X-170.8 Y-69.177 Z-3.365 I0 J-0.913
X-170.8 Y-67.352 Z-3.452 I0 J0.913
X-170.8 Y-69.177 Z-3.54 I0 J-0.913
X-170.8 Y-67.352 Z-3.627 I0 J0.913
X-170.8 Y-69.177 Z-3.714 I0 J-0.913
X-170.8 Y-67.352 Z-3.802 I0 J0.913
X-170.8 Y-69.177 Z-3.889 I0 J-0.913
X-170.8 Y-67.352 Z-3.976 I0 J0.913
X-170.8 Y-69.177 Z-4.064 I0 J-0.913
X-170.8 Y-67.352 Z-4.151 I0 J0.913
X-170.8 Y-69.177 Z-4.238 I0 J-0.913
X-170.8 Y-67.352 Z-4.325 I0 J0.913
X-170.8 Y-69.177 Z-4.413 I0 J-0.913
X-170.8 Y-67.352 Z-4.5 I0 J0.913
X-170.8 Y-69.177 Z-4.587 I0 J-0.913
X-170.8 Y-67.352 Z-4.675 I0 J0.913
X-170.8 Y-69.177 Z-4.762 I0 J-0.913
X-170.8 Y-67.352 Z-4.849 I0 J0.913
X-170.8 Y-69.177 Z-4.937 I0 J-0.913
X-170.8 Y-67.352 Z-5.024 I0 J0.913
X-170.8 Y-69.177 Z-5.111 I0 J-0.913
X-170.8 Y-67.352 Z-5.198 I0 J0.913
X-170.8 Y-69.177 Z-5.286 I0 J-0.913
X-170.8 Y-67.352 Z-5.373 I0 J0.913
X-170.8 Y-69.177 Z-5.46 I0 J-0.913
X-170.8 Y-67.352 Z-5.548 I0 J0.913
X-170.8 Y-69.177 Z-5.635 I0 J-0.913
X-170.8 Y-67.352 Z-5.722 I0 J0.913
X-170.8 Y-69.177 Z-5.81 I0 J-0.913
X-170.8 Y-67.352 Z-5.897 I0 J0.913
X-170.8 Y-69.177 Z-5.984 I0 J-0.913
X-170.8 Y-67.352 Z-6.071 I0 J0.913
X-170.8 Y-69.177 Z-6.159 I0 J-0.913
X-170.8 Y-67.352 Z-6.246 I0 J0.913
X-170.8 Y-69.177 Z-6.333 I0 J-0.913
X-170.8 Y-67.352 Z-6.421 I0 J0.913
X-170.8 Y-69.177 Z-6.508 I0 J-0.913
X-170.8 Y-67.352 Z-6.595 I0 J0.913
X-170.8 Y-69.177 Z-6.683 I0 J-0.913
X-170.8 Y-67.352 Z-6.77 I0 J0.913
X-170.8 Y-69.177 Z-6.857 I0 J-0.913
X-170.8 Y-67.352 Z-6.944 I0 J0.913
X-170.8 Y-69.177 Z-7.032 I0 J-0.913
X-170.8 Y-67.352 Z-7.119 I0 J0.913
X-170.8 Y-69.177 Z-7.206 I0 J-0.913
X-169.893 Y-68.161 Z-7.253 I0 J0.913
X-171.006 Y-67.375 Z-7.3 I-0.907 J-0.103
X-170.594 Y-69.153 I0.206 J-0.889
X-171.006 Y-67.375 I-0.206 J0.889
X-171.243 Y-67.756 I0.072 J-0.309
G1 X-171.208 Y-67.911
X-171.192 Y-67.979 Z-7.292
X-171.177 Y-68.045 Z-7.269
X-171.163 Y-68.103 Z-7.231
X-171.152 Y-68.152 Z-7.18
X-171.143 Y-68.189 Z-7.12
X-171.138 Y-68.212 Z-7.053
X-171.136 Y-68.22 Z-6.983
Z5
X-182.397 Y-53.074
Z2.682
Z1
Y-53.233
X-182.391 Y-53.264
X-182.373 Y-53.291
X-182.347 Y-53.308
X-182.316 Y-53.314
G3 X-182.316 Y-52.989 Z0.939 I0 J0.163
X-182.316 Y-53.314 Z0.878 I0 J-0.163
X-182.316 Y-52.989 Z0.817 I0 J0.163
X-182.316 Y-53.314 Z0.756 I0 J-0.163
X-182.316 Y-52.989 Z0.694 I0 J0.163
X-182.316 Y-53.314 Z0.633 I0 J-0.163
X-182.316 Y-52.989 Z0.572 I0 J0.163
X-182.316 Y-53.314 Z0.511 I0 J-0.163
X-182.316 Y-52.989 Z0.45 I0 J0.163
X-182.316 Y-53.314 Z0.389 I0 J-0.163
X-182.316 Y-52.989 Z0.328 I0 J0.163
X-182.316 Y-53.314 Z0.267 I0 J-0.163
X-182.316 Y-52.989 Z0.206 I0 J0.163
X-182.316 Y-53.314 Z0.144 I0 J-0.163
X-182.316 Y-52.989 Z0.083 I0 J0.163
X-182.316 Y-53.314 Z0.022 I0 J-0.163
X-182.316 Y-52.989 Z-0.039 I0 J0.163
X-182.316 Y-53.314 Z-0.1 I0 J-0.163
X-182.316 Y-52.989 Z-0.161 I0 J0.163
X-182.316 Y-53.314 Z-0.222 I0 J-0.163
X-182.316 Y-52.989 Z-0.283 I0 J0.163
X-182.316 Y-53.314 Z-0.344 I0 J-0.163
X-182.316 Y-52.989 Z-0.406 I0 J0.163
X-182.316 Y-53.314 Z-0.467 I0 J-0.163
X-182.316 Y-52.989 Z-0.528 I0 J0.163
X-182.316 Y-53.314 Z-0.589 I0 J-0.163
X-182.316 Y-52.989 Z-0.65 I0 J0.163
X-182.316 Y-53.314 Z-0.711 I0 J-0.163
X-182.316 Y-52.989 Z-0.772 I0 J0.163
X-182.316 Y-53.314 Z-0.833 I0 J-0.163
X-182.316 Y-52.989 Z-0.894 I0 J0.163
X-182.316 Y-53.314 Z-0.956 I0 J-0.163
X-182.316 Y-52.989 Z-1.017 I0 J0.163
X-182.316 Y-53.314 Z-1.078 I0 J-0.163
X-182.316 Y-52.989 Z-1.139 I0 J0.163
X-182.316 Y-53.314 Z-1.2 I0 J-0.163
X-182.316 Y-52.989 Z-1.261 I0 J0.163
X-182.316 Y-53.314 Z-1.322 I0 J-0.163
X-182.316 Y-52.989 Z-1.383 I0 J0.163
X-182.316 Y-53.314 Z-1.444 I0 J-0.163
X-182.316 Y-52.989 Z-1.506 I0 J0.163
X-182.316 Y-53.314 Z-1.567 I0 J-0.163
X-182.316 Y-52.989 Z-1.628 I0 J0.163
X-182.316 Y-53.314 Z-1.689 I0 J-0.163
X-182.316 Y-52.989 Z-1.75 I0 J0.163
X-182.316 Y-53.314 Z-1.811 I0 J-0.163
X-182.316 Y-52.989 Z-1.872 I0 J0.163
X-182.316 Y-53.314 Z-1.933 I0 J-0.163
X-182.316 Y-52.989 Z-1.994 I0 J0.163
X-182.316 Y-53.314 Z-2.056 I0 J-0.163
X-182.316 Y-52.989 Z-2.117 I0 J0.163
X-182.316 Y-53.314 Z-2.178 I0 J-0.163
X-182.316 Y-52.989 Z-2.239 I0 J0.163
X-182.316 Y-53.314 Z-2.3 I0 J-0.163
X-182.316 Y-52.989 Z-2.361 I0 J0.163
X-182.316 Y-53.314 Z-2.422 I0 J-0.163
X-182.316 Y-52.989 Z-2.483 I0 J0.163
X-182.316 Y-53.314 Z-2.544 I0 J-0.163
X-182.316 Y-52.989 Z-2.606 I0 J0.163
X-182.316 Y-53.314 Z-2.667 I0 J-0.163
X-182.316 Y-52.989 Z-2.728 I0 J0.163
X-182.316 Y-53.314 Z-2.789 I0 J-0.163
X-182.316 Y-52.989 Z-2.85 I0 J0.163
X-182.316 Y-53.314 Z-2.911 I0 J-0.163
X-182.316 Y-52.989 Z-2.972 I0 J0.163
X-182.316 Y-53.314 Z-3.033 I0 J-0.163
X-182.316 Y-52.989 Z-3.094 I0 J0.163
X-182.316 Y-53.314 Z-3.156 I0 J-0.163
X-182.316 Y-52.989 Z-3.217 I0 J0.163
X-182.316 Y-53.314 Z-3.278 I0 J-0.163
X-182.316 Y-52.989 Z-3.339 I0 J0.163
X-182.316 Y-53.314 Z-3.4 I0 J-0.163
X-182.316 Y-52.989 Z-3.461 I0 J0.163
X-182.316 Y-53.314 Z-3.522 I0 J-0.163
X-182.316 Y-52.989 Z-3.583 I0 J0.163
X-182.316 Y-53.314 Z-3.644 I0 J-0.163
X-182.316 Y-52.989 Z-3.706 I0 J0.163
X-182.316 Y-53.314 Z-3.767 I0 J-0.163
X-182.316 Y-52.989 Z-3.828 I0 J0.163
X-182.316 Y-53.314 Z-3.889 I0 J-0.163
X-182.316 Y-52.989 Z-3.95 I0 J0.163
X-182.316 Y-53.314 Z-4.011 I0 J-0.163
X-182.316 Y-52.989 Z-4.072 I0 J0.163
X-182.316 Y-53.314 Z-4.133 I0 J-0.163
X-182.316 Y-52.989 Z-4.194 I0 J0.163
X-182.316 Y-53.314 Z-4.256 I0 J-0.163
X-182.316 Y-52.989 Z-4.317 I0 J0.163
X-182.316 Y-53.314 Z-4.378 I0 J-0.163
X-182.316 Y-52.989 Z-4.439 I0 J0.163
X-182.316 Y-53.314 Z-4.5 I0 J-0.163
X-182.316 Y-52.989 Z-4.561 I0 J0.163
X-182.316 Y-53.314 Z-4.622 I0 J-0.163
X-182.316 Y-52.989 Z-4.683 I0 J0.163
X-182.316 Y-53.314 Z-4.744 I0 J-0.163
X-182.316 Y-52.989 Z-4.806 I0 J0.163
X-182.316 Y-53.314 Z-4.867 I0 J-0.163
X-182.316 Y-52.989 Z-4.928 I0 J0.163
X-182.316 Y-53.314 Z-4.989 I0 J-0.163
X-182.316 Y-52.989 Z-5.05 I0 J0.163
X-182.316 Y-53.314 Z-5.111 I0 J-0.163
X-182.316 Y-52.989 Z-5.172 I0 J0.163
X-182.316 Y-53.314 Z-5.233 I0 J-0.163
X-182.316 Y-52.989 Z-5.294 I0 J0.163
X-182.316 Y-53.314 Z-5.356 I0 J-0.163
X-182.316 Y-52.989 Z-5.417 I0 J0.163
X-182.316 Y-53.314 Z-5.478 I0 J-0.163
X-182.316 Y-52.989 Z-5.539 I0 J0.163
X-182.316 Y-53.314 Z-5.6 I0 J-0.163
X-182.316 Y-52.989 Z-5.661 I0 J0.163
X-182.316 Y-53.314 Z-5.722 I0 J-0.163
X-182.316 Y-52.989 Z-5.783 I0 J0.163
X-182.316 Y-53.314 Z-5.844 I0 J-0.163
X-182.316 Y-52.989 Z-5.906 I0 J0.163
X-182.316 Y-53.314 Z-5.967 I0 J-0.163
X-182.316 Y-52.989 Z-6.028 I0 J0.163
X-182.316 Y-53.314 Z-6.089 I0 J-0.163
X-182.316 Y-52.989 Z-6.15 I0 J0.163
X-182.316 Y-53.314 Z-6.211 I0 J-0.163
X-182.316 Y-52.989 Z-6.272 I0 J0.163
X-182.316 Y-53.314 Z-6.333 I0 J-0.163
X-182.316 Y-52.989 Z-6.394 I0 J0.163
X-182.316 Y-53.314 Z-6.456 I0 J-0.163
X-182.316 Y-52.989 Z-6.517 I0 J0.163
X-182.316 Y-53.314 Z-6.578 I0 J-0.163
X-182.316 Y-52.989 Z-6.639 I0 J0.163
X-182.316 Y-53.314 Z-6.7 I0 J-0.163
X-182.316 Y-52.989 Z-6.761 I0 J0.163
X-182.316 Y-53.314 Z-6.822 I0 J-0.163
X-182.316 Y-52.989 Z-6.883 I0 J0.163
X-182.316 Y-53.314 Z-6.944 I0 J-0.163
X-182.316 Y-52.989 Z-7.006 I0 J0.163
X-182.316 Y-53.314 Z-7.067 I0 J-0.163
X-182.316 Y-52.989 Z-7.128 I0 J0.163
X-182.316 Y-53.314 Z-7.189 I0 J-0.163
X-182.316 Y-52.989 Z-7.25 I0 J0.163
X-182.404 Y-53.288 Z-7.3 I0 J-0.163
X-182.228 Y-53.015 I0.088 J0.137
X-182.404 Y-53.288 I-0.088 J-0.137
G1 X-182.375 Y-53.3
X-182.343
X-182.314 Y-53.287
X-182.292 Y-53.264
X-182.206 Y-53.131
Z5
X-170.881 Y-9.922
Z2.682
Z1
Y-10.081
X-170.875 Y-10.112
X-170.857 Y-10.139
X-170.831 Y-10.156
X-170.8 Y-10.163
G3 X-170.8 Y-9.837 Z0.939 I0 J0.163
X-170.8 Y-10.163 Z0.878 I0 J-0.163
X-170.8 Y-9.837 Z0.817 I0 J0.163
X-170.8 Y-10.163 Z0.756 I0 J-0.163
X-170.8 Y-9.837 Z0.694 I0 J0.163
X-170.8 Y-10.163 Z0.633 I0 J-0.163
X-170.8 Y-9.837 Z0.572 I0 J0.163
X-170.8 Y-10.163 Z0.511 I0 J-0.163
X-170.8 Y-9.837 Z0.45 I0 J0.163
X-170.8 Y-10.163 Z0.389 I0 J-0.163
X-170.8 Y-9.837 Z0.328 I0 J0.163
X-170.8 Y-10.163 Z0.267 I0 J-0.163
X-170.8 Y-9.837 Z0.206 I0 J0.163
X-170.8 Y-10.163 Z0.144 I0 J-0.163
X-170.8 Y-9.837 Z0.083 I0 J0.163
X-170.8 Y-10.163 Z0.022 I0 J-0.163
X-170.8 Y-9.837 Z-0.039 I0 J0.163
X-170.8 Y-10.163 Z-0.1 I0 J-0.163
X-170.8 Y-9.838 Z-0.161 I0 J0.163
X-170.8 Y-10.162 Z-0.222 I0 J-0.162
X-170.8 Y-9.838 Z-0.283 I0 J0.162
X-170.8 Y-10.162 Z-0.344 I0 J-0.162
X-170.8 Y-9.838 Z-0.406 I0 J0.162
X-170.8 Y-10.162 Z-0.467 I0 J-0.162
X-170.8 Y-9.838 Z-0.528 I0 J0.162
X-170.8 Y-10.162 Z-0.589 I0 J-0.162
X-170.8 Y-9.838 Z-0.65 I0 J0.162
X-170.8 Y-10.162 Z-0.711 I0 J-0.162
X-170.8 Y-9.838 Z-0.772 I0 J0.162
X-170.8 Y-10.162 Z-0.833 I0 J-0.162
X-170.8 Y-9.838 Z-0.894 I0 J0.162
X-170.8 Y-10.162 Z-0.956 I0 J-0.162
X-170.8 Y-9.838 Z-1.017 I0 J0.162
X-170.8 Y-10.162 Z-1.078 I0 J-0.162
X-170.8 Y-9.838 Z-1.139 I0 J0.162
X-170.8 Y-10.162 Z-1.2 I0 J-0.162
X-170.8 Y-9.838 Z-1.261 I0 J0.162
X-170.8 Y-10.162 Z-1.322 I0 J-0.162
X-170.8 Y-9.838 Z-1.383 I0 J0.162
X-170.8 Y-10.162 Z-1.444 I0 J-0.162
X-170.8 Y-9.838 Z-1.506 I0 J0.162
X-170.8 Y-10.162 Z-1.567 I0 J-0.162
X-170.8 Y-9.838 Z-1.628 I0 J0.162
X-170.8 Y-10.162 Z-1.689 I0 J-0.162
X-170.8 Y-9.838 Z-1.75 I0 J0.162
X-170.8 Y-10.162 Z-1.811 I0 J-0.162
X-170.8 Y-9.838 Z-1.872 I0 J0.162
X-170.8 Y-10.162 Z-1.933 I0 J-0.162
X-170.8 Y-9.838 Z-1.994 I0 J0.162
X-170.8 Y-10.162 Z-2.056 I0 J-0.162
X-170.8 Y-9.838 Z-2.117 I0 J0.162
X-170.8 Y-10.162 Z-2.178 I0 J-0.162
X-170.8 Y-9.838 Z-2.239 I0 J0.162
X-170.8 Y-10.162 Z-2.3 I0 J-0.162
X-170.8 Y-9.838 Z-2.361 I0 J0.162
X-170.8 Y-10.162 Z-2.422 I0 J-0.162
X-170.8 Y-9.838 Z-2.483 I0 J0.162
X-170.8 Y-10.162 Z-2.544 I0 J-0.162
X-170.8 Y-9.838 Z-2.606 I0 J0.162
X-170.8 Y-10.162 Z-2.667 I0 J-0.162
X-170.8 Y-9.838 Z-2.728 I0 J0.162
X-170.8 Y-10.162 Z-2.789 I0 J-0.162
X-170.8 Y-9.838 Z-2.85 I0 J0.162
X-170.8 Y-10.162 Z-2.911 I0 J-0.162
X-170.8 Y-9.838 Z-2.972 I0 J0.162
X-170.8 Y-10.162 Z-3.033 I0 J-0.162
X-170.8 Y-9.838 Z-3.094 I0 J0.162
X-170.8 Y-10.162 Z-3.156 I0 J-0.162
X-170.8 Y-9.838 Z-3.217 I0 J0.162
X-170.8 Y-10.162 Z-3.278 I0 J-0.162
X-170.8 Y-9.838 Z-3.339 I0 J0.162
X-170.8 Y-10.162 Z-3.4 I0 J-0.162
X-170.8 Y-9.838 Z-3.461 I0 J0.162
X-170.8 Y-10.162 Z-3.522 I0 J-0.162
X-170.8 Y-9.838 Z-3.583 I0 J0.162
X-170.8 Y-10.162 Z-3.644 I0 J-0.162
X-170.8 Y-9.838 Z-3.706 I0 J0.162
X-170.8 Y-10.162 Z-3.767 I0 J-0.162
X-170.8 Y-9.838 Z-3.828 I0 J0.162
X-170.8 Y-10.162 Z-3.889 I0 J-0.162
X-170.8 Y-9.838 Z-3.95 I0 J0.162
X-170.8 Y-10.162 Z-4.011 I0 J-0.162
X-170.8 Y-9.838 Z-4.072 I0 J0.162
X-170.8 Y-10.162 Z-4.133 I0 J-0.162
X-170.8 Y-9.838 Z-4.194 I0 J0.162
X-170.8 Y-10.162 Z-4.256 I0 J-0.162
X-170.8 Y-9.838 Z-4.317 I0 J0.162
X-170.8 Y-10.162 Z-4.378 I0 J-0.162
X-170.8 Y-9.838 Z-4.439 I0 J0.162
X-170.8 Y-10.162 Z-4.5 I0 J-0.162
X-170.8 Y-9.838 Z-4.561 I0 J0.162
X-170.8 Y-10.162 Z-4.622 I0 J-0.162
X-170.8 Y-9.838 Z-4.683 I0 J0.162
X-170.8 Y-10.162 Z-4.744 I0 J-0.162
X-170.8 Y-9.838 Z-4.806 I0 J0.162
X-170.8 Y-10.162 Z-4.867 I0 J-0.162
X-170.8 Y-9.838 Z-4.928 I0 J0.162
X-170.8 Y-10.162 Z-4.989 I0 J-0.162
X-170.8 Y-9.838 Z-5.05 I0 J0.162
X-170.8 Y-10.162 Z-5.111 I0 J-0.162
X-170.8 Y-9.838 Z-5.172 I0 J0.162
X-170.8 Y-10.162 Z-5.233 I0 J-0.162
X-170.8 Y-9.838 Z-5.294 I0 J0.162
X-170.8 Y-10.162 Z-5.356 I0 J-0.162
X-170.8 Y-9.838 Z-5.417 I0 J0.162
X-170.8 Y-10.162 Z-5.478 I0 J-0.162
X-170.8 Y-9.838 Z-5.539 I0 J0.162
X-170.8 Y-10.162 Z-5.6 I0 J-0.162
X-170.8 Y-9.838 Z-5.661 I0 J0.162
X-170.8 Y-10.162 Z-5.722 I0 J-0.162
X-170.8 Y-9.838 Z-5.783 I0 J0.162
X-170.8 Y-10.162 Z-5.844 I0 J-0.162
X-170.8 Y-9.838 Z-5.906 I0 J0.162
X-170.8 Y-10.162 Z-5.967 I0 J-0.162
X-170.8 Y-9.838 Z-6.028 I0 J0.162
X-170.8 Y-10.162 Z-6.089 I0 J-0.162
X-170.8 Y-9.838 Z-6.15 I0 J0.162
X-170.8 Y-10.162 Z-6.211 I0 J-0.162
X-170.8 Y-9.838 Z-6.272 I0 J0.162
X-170.8 Y-10.162 Z-6.333 I0 J-0.162
X-170.8 Y-9.838 Z-6.394 I0 J0.162
X-170.8 Y-10.162 Z-6.456 I0 J-0.162
X-170.8 Y-9.838 Z-6.517 I0 J0.162
X-170.8 Y-10.162 Z-6.578 I0 J-0.162
X-170.8 Y-9.838 Z-6.639 I0 J0.162
X-170.8 Y-10.162 Z-6.7 I0 J-0.162
X-170.8 Y-9.838 Z-6.761 I0 J0.162
X-170.8 Y-10.162 Z-6.822 I0 J-0.162
X-170.8 Y-9.838 Z-6.883 I0 J0.162
X-170.8 Y-10.162 Z-6.944 I0 J-0.162
X-170.8 Y-9.838 Z-7.006 I0 J0.162
X-170.8 Y-10.162 Z-7.067 I0 J-0.162
X-170.8 Y-9.838 Z-7.128 I0 J0.162
X-170.8 Y-10.162 Z-7.189 I0 J-0.162
X-170.8 Y-9.838 Z-7.25 I0 J0.162
X-170.888 Y-10.137 Z-7.3 I0 J-0.162
X-170.712 Y-9.863 I0.088 J0.137
X-170.888 Y-10.137 I-0.088 J-0.137
G1 X-170.859 Y-10.148
X-170.827
X-170.798 Y-10.135
X-170.776 Y-10.112
X-170.69 Y-9.979
Z5
X-217.681 Y-101.901
Z2.682
Z1
Y-102.06
X-217.675 Y-102.091
X-217.657 Y-102.117
X-217.631 Y-102.135
X-217.6 Y-102.141
G3 X-217.6 Y-101.816 Z0.939 I0 J0.162
X-217.6 Y-102.141 Z0.878 I0 J-0.162
X-217.6 Y-101.816 Z0.817 I0 J0.162
X-217.6 Y-102.141 Z0.756 I0 J-0.162
X-217.6 Y-101.816 Z0.694 I0 J0.162
X-217.6 Y-102.141 Z0.633 I0 J-0.162
X-217.6 Y-101.816 Z0.572 I0 J0.162
X-217.6 Y-102.141 Z0.511 I0 J-0.162
X-217.6 Y-101.816 Z0.45 I0 J0.162
X-217.6 Y-102.141 Z0.389 I0 J-0.162
X-217.6 Y-101.816 Z0.328 I0 J0.162
X-217.6 Y-102.141 Z0.267 I0 J-0.162
X-217.6 Y-101.816 Z0.206 I0 J0.162
X-217.6 Y-102.141 Z0.144 I0 J-0.162
X-217.6 Y-101.816 Z0.083 I0 J0.162
X-217.6 Y-102.141 Z0.022 I0 J-0.162
X-217.6 Y-101.816 Z-0.039 I0 J0.162
X-217.6 Y-102.141 Z-0.1 I0 J-0.162
X-217.6 Y-101.816 Z-0.161 I0 J0.162
X-217.6 Y-102.141 Z-0.222 I0 J-0.162
X-217.6 Y-101.816 Z-0.283 I0 J0.162
X-217.6 Y-102.141 Z-0.344 I0 J-0.162
X-217.6 Y-101.816 Z-0.406 I0 J0.162
X-217.6 Y-102.141 Z-0.467 I0 J-0.162
X-217.6 Y-101.816 Z-0.528 I0 J0.162
X-217.6 Y-102.141 Z-0.589 I0 J-0.162
X-217.6 Y-101.816 Z-0.65 I0 J0.162
X-217.6 Y-102.141 Z-0.711 I0 J-0.162
X-217.6 Y-101.816 Z-0.772 I0 J0.162
X-217.6 Y-102.141 Z-0.833 I0 J-0.162
X-217.6 Y-101.816 Z-0.894 I0 J0.162
X-217.6 Y-102.141 Z-0.956 I0 J-0.162
X-217.6 Y-101.816 Z-1.017 I0 J0.162
X-217.6 Y-102.141 Z-1.078 I0 J-0.162
X-217.6 Y-101.816 Z-1.139 I0 J0.162
X-217.6 Y-102.141 Z-1.2 I0 J-0.162
X-217.6 Y-101.816 Z-1.261 I0 J0.162
X-217.6 Y-102.141 Z-1.322 I0 J-0.162
X-217.6 Y-101.816 Z-1.383 I0 J0.162
X-217.6 Y-102.141 Z-1.444 I0 J-0.162
X-217.6 Y-101.816 Z-1.506 I0 J0.162
X-217.6 Y-102.141 Z-1.567 I0 J-0.162
X-217.6 Y-101.816 Z-1.628 I0 J0.162
X-217.6 Y-102.141 Z-1.689 I0 J-0.162
X-217.6 Y-101.816 Z-1.75 I0 J0.162
X-217.6 Y-102.141 Z-1.811 I0 J-0.162
X-217.6 Y-101.816 Z-1.872 I0 J0.162
X-217.6 Y-102.141 Z-1.933 I0 J-0.162
