(Main_1_5)
(Bearbeiten)
(  Hersteller: ChinaCnc)
(  model: 3040T)
(  description: Generic 3-axis)
(T14 D=1.5 CR=0 - ZMIN=-4.3 - Schaftfrser)
G90 G94
G17
G21
(When using Fusion 360 for Personal Use, the feedrate of)
(rapid moves is reduced to match the feedrate of cutting)
(moves, which can increase machining time. Unrestricted rapid)
(moves are available with a Fusion 360 Subscription.)

(Bohrfrsen2)
M0
(MANUAL TOOL CHANGE TO T14)
S6000 M3
G54
G0 X-61.95 Y-153.139
Z15
G1 Z2 F600
Z0.15 F400
Y-153.146 Z0.104
Y-153.168 Z0.062
Y-153.201 Z0.029
Y-153.243 Z0.007
Y-153.289 Z0
Y-153.364
X-61.943 Y-153.41
X-61.921 Y-153.452
X-61.888 Y-153.485
X-61.846 Y-153.507
X-61.8 Y-153.514
G3 X-61.8 Y-152.614 Z-0.042 I0 J0.45 F600
X-61.8 Y-153.514 Z-0.084 I0 J-0.45
X-61.8 Y-152.614 Z-0.126 I0 J0.45
X-61.8 Y-153.514 Z-0.168 I0 J-0.45
X-61.8 Y-152.614 Z-0.21 I0 J0.45
X-61.8 Y-153.514 Z-0.251 I0 J-0.45
X-61.8 Y-152.614 Z-0.293 I0 J0.45
X-61.8 Y-153.514 Z-0.335 I0 J-0.45
X-61.8 Y-152.614 Z-0.377 I0 J0.45
X-61.8 Y-153.514 Z-0.419 I0 J-0.45
X-61.8 Y-152.614 Z-0.461 I0 J0.45
X-61.8 Y-153.514 Z-0.503 I0 J-0.45
X-61.8 Y-152.614 Z-0.545 I0 J0.45
X-61.8 Y-153.514 Z-0.587 I0 J-0.45
X-61.8 Y-152.614 Z-0.629 I0 J0.45
X-61.8 Y-153.514 Z-0.67 I0 J-0.45
X-61.8 Y-152.614 Z-0.712 I0 J0.45
X-61.8 Y-153.514 Z-0.754 I0 J-0.45
X-61.8 Y-152.614 Z-0.796 I0 J0.45
X-61.8 Y-153.514 Z-0.838 I0 J-0.45
X-61.8 Y-152.614 Z-0.88 I0 J0.45
X-61.8 Y-153.514 Z-0.922 I0 J-0.45
X-61.8 Y-152.614 Z-0.964 I0 J0.45
X-61.8 Y-153.514 Z-1.006 I0 J-0.45
X-61.8 Y-152.614 Z-1.048 I0 J0.45
X-61.8 Y-153.514 Z-1.09 I0 J-0.45
X-61.8 Y-152.614 Z-1.131 I0 J0.45
X-61.8 Y-153.514 Z-1.173 I0 J-0.45
X-61.8 Y-152.614 Z-1.215 I0 J0.45
X-61.8 Y-153.514 Z-1.257 I0 J-0.45
X-61.8 Y-152.614 Z-1.299 I0 J0.45
X-61.8 Y-153.514 Z-1.341 I0 J-0.45
X-61.8 Y-152.614 Z-1.383 I0 J0.45
X-61.8 Y-153.514 Z-1.425 I0 J-0.45
X-61.8 Y-152.614 Z-1.467 I0 J0.45
X-61.8 Y-153.514 Z-1.509 I0 J-0.45
X-61.8 Y-152.614 Z-1.55 I0 J0.45
X-61.8 Y-153.514 Z-1.592 I0 J-0.45
X-61.8 Y-152.614 Z-1.634 I0 J0.45
X-61.8 Y-153.514 Z-1.676 I0 J-0.45
X-61.8 Y-152.614 Z-1.718 I0 J0.45
X-61.8 Y-153.514 Z-1.76 I0 J-0.45
X-61.8 Y-152.614 Z-1.802 I0 J0.45
X-61.8 Y-153.514 Z-1.844 I0 J-0.45
X-61.8 Y-152.614 Z-1.886 I0 J0.45
X-61.8 Y-153.514 Z-1.928 I0 J-0.45
X-61.8 Y-152.614 Z-1.97 I0 J0.45
X-61.8 Y-153.514 Z-2.011 I0 J-0.45
X-61.8 Y-152.614 Z-2.053 I0 J0.45
X-61.8 Y-153.514 Z-2.095 I0 J-0.45
X-61.8 Y-152.614 Z-2.137 I0 J0.45
X-61.8 Y-153.514 Z-2.179 I0 J-0.45
X-61.8 Y-152.614 Z-2.221 I0 J0.45
X-61.8 Y-153.514 Z-2.263 I0 J-0.45
X-61.8 Y-152.614 Z-2.305 I0 J0.45
X-61.8 Y-153.514 Z-2.347 I0 J-0.45
X-61.8 Y-152.614 Z-2.389 I0 J0.45
X-61.8 Y-153.514 Z-2.43 I0 J-0.45
X-61.8 Y-152.614 Z-2.472 I0 J0.45
X-61.8 Y-153.514 Z-2.514 I0 J-0.45
X-61.8 Y-152.614 Z-2.556 I0 J0.45
X-61.8 Y-153.514 Z-2.598 I0 J-0.45
X-61.8 Y-152.614 Z-2.64 I0 J0.45
X-61.8 Y-153.514 Z-2.682 I0 J-0.45
X-61.8 Y-152.614 Z-2.724 I0 J0.45
X-61.8 Y-153.514 Z-2.766 I0 J-0.45
X-61.8 Y-152.614 Z-2.808 I0 J0.45
X-61.8 Y-153.514 Z-2.85 I0 J-0.45
X-61.8 Y-152.614 Z-2.891 I0 J0.45
X-61.8 Y-153.514 Z-2.933 I0 J-0.45
X-61.8 Y-152.614 Z-2.975 I0 J0.45
X-61.8 Y-153.514 Z-3.017 I0 J-0.45
X-61.8 Y-152.614 Z-3.059 I0 J0.45
X-61.8 Y-153.514 Z-3.101 I0 J-0.45
X-61.8 Y-152.614 Z-3.143 I0 J0.45
X-61.8 Y-153.514 Z-3.185 I0 J-0.45
X-61.8 Y-152.614 Z-3.227 I0 J0.45
X-61.8 Y-153.514 Z-3.269 I0 J-0.45
X-61.8 Y-152.614 Z-3.31 I0 J0.45
X-61.8 Y-153.514 Z-3.352 I0 J-0.45
X-61.8 Y-152.614 Z-3.394 I0 J0.45
X-61.8 Y-153.514 Z-3.436 I0 J-0.45
X-61.8 Y-152.614 Z-3.478 I0 J0.45
X-61.8 Y-153.514 Z-3.52 I0 J-0.45
X-61.8 Y-152.614 Z-3.562 I0 J0.45
X-61.8 Y-153.514 Z-3.604 I0 J-0.45
X-61.8 Y-152.614 Z-3.646 I0 J0.45
X-61.8 Y-153.514 Z-3.688 I0 J-0.45
X-61.8 Y-152.614 Z-3.73 I0 J0.45
X-61.8 Y-153.514 Z-3.771 I0 J-0.45
X-61.8 Y-152.614 Z-3.813 I0 J0.45
X-61.8 Y-153.514 Z-3.855 I0 J-0.45
X-61.8 Y-152.614 Z-3.897 I0 J0.45
X-61.8 Y-153.514 Z-3.939 I0 J-0.45
X-61.8 Y-152.614 Z-3.981 I0 J0.45
X-61.8 Y-153.514 Z-4.023 I0 J-0.45
X-61.8 Y-152.614 Z-4.065 I0 J0.45
X-61.8 Y-153.514 Z-4.107 I0 J-0.45
X-61.8 Y-152.614 Z-4.149 I0 J0.45
X-61.8 Y-153.514 Z-4.19 I0 J-0.45
X-61.8 Y-152.614 Z-4.232 I0 J0.45
X-61.8 Y-153.514 Z-4.274 I0 J-0.45
X-61.378 Y-152.907 Z-4.3 I0 J0.45
X-62.222 Y-153.221 I-0.422 J-0.157
X-61.378 Y-152.907 I0.422 J0.157
G1 X-61.401 Y-152.866
X-61.436 Y-152.835
X-61.478 Y-152.815
X-61.525 Y-152.81
X-61.571 Y-152.819
X-61.641 Y-152.845
X-61.685 Y-152.861 Z-4.293
X-61.724 Y-152.876 Z-4.271
X-61.755 Y-152.887 Z-4.238
X-61.775 Y-152.895 Z-4.196
X-61.782 Y-152.897 Z-4.15
Z5
X-81.95 Y-153.139
Z2
Z0.15 F400
Y-153.146 Z0.104
Y-153.168 Z0.062
Y-153.201 Z0.029
Y-153.243 Z0.007
Y-153.289 Z0
Y-153.364
X-81.943 Y-153.41
X-81.921 Y-153.452
X-81.888 Y-153.485
X-81.846 Y-153.507
X-81.8 Y-153.514
G3 X-81.8 Y-152.614 Z-0.042 I0 J0.45 F600
X-81.8 Y-153.514 Z-0.084 I0 J-0.45
X-81.8 Y-152.614 Z-0.126 I0 J0.45
X-81.8 Y-153.514 Z-0.168 I0 J-0.45
X-81.8 Y-152.614 Z-0.21 I0 J0.45
X-81.8 Y-153.514 Z-0.251 I0 J-0.45
X-81.8 Y-152.614 Z-0.293 I0 J0.45
X-81.8 Y-153.514 Z-0.335 I0 J-0.45
X-81.8 Y-152.614 Z-0.377 I0 J0.45
X-81.8 Y-153.514 Z-0.419 I0 J-0.45
X-81.8 Y-152.614 Z-0.461 I0 J0.45
X-81.8 Y-153.514 Z-0.503 I0 J-0.45
X-81.8 Y-152.614 Z-0.545 I0 J0.45
X-81.8 Y-153.514 Z-0.587 I0 J-0.45
X-81.8 Y-152.614 Z-0.629 I0 J0.45
X-81.8 Y-153.514 Z-0.67 I0 J-0.45
X-81.8 Y-152.614 Z-0.712 I0 J0.45
X-81.8 Y-153.514 Z-0.754 I0 J-0.45
X-81.8 Y-152.614 Z-0.796 I0 J0.45
X-81.8 Y-153.514 Z-0.838 I0 J-0.45
X-81.8 Y-152.614 Z-0.88 I0 J0.45
X-81.8 Y-153.514 Z-0.922 I0 J-0.45
X-81.8 Y-152.614 Z-0.964 I0 J0.45
X-81.8 Y-153.514 Z-1.006 I0 J-0.45
X-81.8 Y-152.614 Z-1.048 I0 J0.45
X-81.8 Y-153.514 Z-1.09 I0 J-0.45
X-81.8 Y-152.614 Z-1.131 I0 J0.45
X-81.8 Y-153.514 Z-1.173 I0 J-0.45
X-81.8 Y-152.614 Z-1.215 I0 J0.45
X-81.8 Y-153.514 Z-1.257 I0 J-0.45
X-81.8 Y-152.614 Z-1.299 I0 J0.45
X-81.8 Y-153.514 Z-1.341 I0 J-0.45
X-81.8 Y-152.614 Z-1.383 I0 J0.45
X-81.8 Y-153.514 Z-1.425 I0 J-0.45
X-81.8 Y-152.614 Z-1.467 I0 J0.45
X-81.8 Y-153.514 Z-1.509 I0 J-0.45
X-81.8 Y-152.614 Z-1.55 I0 J0.45
X-81.8 Y-153.514 Z-1.592 I0 J-0.45
X-81.8 Y-152.614 Z-1.634 I0 J0.45
X-81.8 Y-153.514 Z-1.676 I0 J-0.45
X-81.8 Y-152.614 Z-1.718 I0 J0.45
X-81.8 Y-153.514 Z-1.76 I0 J-0.45
X-81.8 Y-152.614 Z-1.802 I0 J0.45
X-81.8 Y-153.514 Z-1.844 I0 J-0.45
X-81.8 Y-152.614 Z-1.886 I0 J0.45
X-81.8 Y-153.514 Z-1.928 I0 J-0.45
X-81.8 Y-152.614 Z-1.97 I0 J0.45
X-81.8 Y-153.514 Z-2.011 I0 J-0.45
X-81.8 Y-152.614 Z-2.053 I0 J0.45
X-81.8 Y-153.514 Z-2.095 I0 J-0.45
X-81.8 Y-152.614 Z-2.137 I0 J0.45
X-81.8 Y-153.514 Z-2.179 I0 J-0.45
X-81.8 Y-152.614 Z-2.221 I0 J0.45
X-81.8 Y-153.514 Z-2.263 I0 J-0.45
X-81.8 Y-152.614 Z-2.305 I0 J0.45
X-81.8 Y-153.514 Z-2.347 I0 J-0.45
X-81.8 Y-152.614 Z-2.389 I0 J0.45
X-81.8 Y-153.514 Z-2.43 I0 J-0.45
X-81.8 Y-152.614 Z-2.472 I0 J0.45
X-81.8 Y-153.514 Z-2.514 I0 J-0.45
X-81.8 Y-152.614 Z-2.556 I0 J0.45
X-81.8 Y-153.514 Z-2.598 I0 J-0.45
X-81.8 Y-152.614 Z-2.64 I0 J0.45
X-81.8 Y-153.514 Z-2.682 I0 J-0.45
X-81.8 Y-152.614 Z-2.724 I0 J0.45
X-81.8 Y-153.514 Z-2.766 I0 J-0.45
X-81.8 Y-152.614 Z-2.808 I0 J0.45
X-81.8 Y-153.514 Z-2.85 I0 J-0.45
X-81.8 Y-152.614 Z-2.891 I0 J0.45
X-81.8 Y-153.514 Z-2.933 I0 J-0.45
X-81.8 Y-152.614 Z-2.975 I0 J0.45
X-81.8 Y-153.514 Z-3.017 I0 J-0.45
X-81.8 Y-152.614 Z-3.059 I0 J0.45
X-81.8 Y-153.514 Z-3.101 I0 J-0.45
X-81.8 Y-152.614 Z-3.143 I0 J0.45
X-81.8 Y-153.514 Z-3.185 I0 J-0.45
X-81.8 Y-152.614 Z-3.227 I0 J0.45
X-81.8 Y-153.514 Z-3.269 I0 J-0.45
X-81.8 Y-152.614 Z-3.31 I0 J0.45
X-81.8 Y-153.514 Z-3.352 I0 J-0.45
X-81.8 Y-152.614 Z-3.394 I0 J0.45
X-81.8 Y-153.514 Z-3.436 I0 J-0.45
X-81.8 Y-152.614 Z-3.478 I0 J0.45
X-81.8 Y-153.514 Z-3.52 I0 J-0.45
X-81.8 Y-152.614 Z-3.562 I0 J0.45
X-81.8 Y-153.514 Z-3.604 I0 J-0.45
X-81.8 Y-152.614 Z-3.646 I0 J0.45
X-81.8 Y-153.514 Z-3.688 I0 J-0.45
X-81.8 Y-152.614 Z-3.73 I0 J0.45
X-81.8 Y-153.514 Z-3.771 I0 J-0.45
X-81.8 Y-152.614 Z-3.813 I0 J0.45
X-81.8 Y-153.514 Z-3.855 I0 J-0.45
X-81.8 Y-152.614 Z-3.897 I0 J0.45
X-81.8 Y-153.514 Z-3.939 I0 J-0.45
X-81.8 Y-152.614 Z-3.981 I0 J0.45
X-81.8 Y-153.514 Z-4.023 I0 J-0.45
X-81.8 Y-152.614 Z-4.065 I0 J0.45
X-81.8 Y-153.514 Z-4.107 I0 J-0.45
X-81.8 Y-152.614 Z-4.149 I0 J0.45
X-81.8 Y-153.514 Z-4.19 I0 J-0.45
X-81.8 Y-152.614 Z-4.232 I0 J0.45
X-81.8 Y-153.514 Z-4.274 I0 J-0.45
X-81.378 Y-152.907 Z-4.3 I0 J0.45
X-82.222 Y-153.221 I-0.422 J-0.157
X-81.378 Y-152.907 I0.422 J0.157
G1 X-81.401 Y-152.866
X-81.436 Y-152.835
X-81.478 Y-152.815
X-81.525 Y-152.81
X-81.571 Y-152.819
X-81.641 Y-152.845
X-81.685 Y-152.861 Z-4.293
X-81.724 Y-152.876 Z-4.271
X-81.755 Y-152.887 Z-4.238
X-81.775 Y-152.895 Z-4.196
X-81.782 Y-152.897 Z-4.15
Z5
X-103.95 Y-153.139
Z2
Z0.15 F400
Y-153.146 Z0.104
Y-153.168 Z0.062
Y-153.201 Z0.029
Y-153.243 Z0.007
Y-153.289 Z0
Y-153.364
X-103.943 Y-153.41
X-103.921 Y-153.452
X-103.888 Y-153.485
X-103.846 Y-153.507
X-103.8 Y-153.514
G3 X-103.8 Y-152.614 Z-0.042 I0 J0.45 F600
X-103.8 Y-153.514 Z-0.084 I0 J-0.45
X-103.8 Y-152.614 Z-0.126 I0 J0.45
X-103.8 Y-153.514 Z-0.168 I0 J-0.45
X-103.8 Y-152.614 Z-0.21 I0 J0.45
X-103.8 Y-153.514 Z-0.251 I0 J-0.45
X-103.8 Y-152.614 Z-0.293 I0 J0.45
X-103.8 Y-153.514 Z-0.335 I0 J-0.45
X-103.8 Y-152.614 Z-0.377 I0 J0.45
X-103.8 Y-153.514 Z-0.419 I0 J-0.45
X-103.8 Y-152.614 Z-0.461 I0 J0.45
X-103.8 Y-153.514 Z-0.503 I0 J-0.45
X-103.8 Y-152.614 Z-0.545 I0 J0.45
X-103.8 Y-153.514 Z-0.587 I0 J-0.45
X-103.8 Y-152.614 Z-0.629 I0 J0.45
X-103.8 Y-153.514 Z-0.67 I0 J-0.45
X-103.8 Y-152.614 Z-0.712 I0 J0.45
X-103.8 Y-153.514 Z-0.754 I0 J-0.45
X-103.8 Y-152.614 Z-0.796 I0 J0.45
X-103.8 Y-153.514 Z-0.838 I0 J-0.45
X-103.8 Y-152.614 Z-0.88 I0 J0.45
X-103.8 Y-153.514 Z-0.922 I0 J-0.45
X-103.8 Y-152.614 Z-0.964 I0 J0.45
X-103.8 Y-153.514 Z-1.006 I0 J-0.45
X-103.8 Y-152.614 Z-1.048 I0 J0.45
X-103.8 Y-153.514 Z-1.09 I0 J-0.45
X-103.8 Y-152.614 Z-1.131 I0 J0.45
X-103.8 Y-153.514 Z-1.173 I0 J-0.45
X-103.8 Y-152.614 Z-1.215 I0 J0.45
X-103.8 Y-153.514 Z-1.257 I0 J-0.45
X-103.8 Y-152.614 Z-1.299 I0 J0.45
X-103.8 Y-153.514 Z-1.341 I0 J-0.45
X-103.8 Y-152.614 Z-1.383 I0 J0.45
X-103.8 Y-153.514 Z-1.425 I0 J-0.45
X-103.8 Y-152.614 Z-1.467 I0 J0.45
X-103.8 Y-153.514 Z-1.509 I0 J-0.45
X-103.8 Y-152.614 Z-1.55 I0 J0.45
X-103.8 Y-153.514 Z-1.592 I0 J-0.45
X-103.8 Y-152.614 Z-1.634 I0 J0.45
X-103.8 Y-153.514 Z-1.676 I0 J-0.45
X-103.8 Y-152.614 Z-1.718 I0 J0.45
X-103.8 Y-153.514 Z-1.76 I0 J-0.45
X-103.8 Y-152.614 Z-1.802 I0 J0.45
X-103.8 Y-153.514 Z-1.844 I0 J-0.45
X-103.8 Y-152.614 Z-1.886 I0 J0.45
X-103.8 Y-153.514 Z-1.928 I0 J-0.45
X-103.8 Y-152.614 Z-1.97 I0 J0.45
X-103.8 Y-153.514 Z-2.011 I0 J-0.45
X-103.8 Y-152.614 Z-2.053 I0 J0.45
X-103.8 Y-153.514 Z-2.095 I0 J-0.45
X-103.8 Y-152.614 Z-2.137 I0 J0.45
X-103.8 Y-153.514 Z-2.179 I0 J-0.45
X-103.8 Y-152.614 Z-2.221 I0 J0.45
X-103.8 Y-153.514 Z-2.263 I0 J-0.45
X-103.8 Y-152.614 Z-2.305 I0 J0.45
X-103.8 Y-153.514 Z-2.347 I0 J-0.45
X-103.8 Y-152.614 Z-2.389 I0 J0.45
X-103.8 Y-153.514 Z-2.43 I0 J-0.45
X-103.8 Y-152.614 Z-2.472 I0 J0.45
X-103.8 Y-153.514 Z-2.514 I0 J-0.45
X-103.8 Y-152.614 Z-2.556 I0 J0.45
X-103.8 Y-153.514 Z-2.598 I0 J-0.45
X-103.8 Y-152.614 Z-2.64 I0 J0.45
X-103.8 Y-153.514 Z-2.682 I0 J-0.45
X-103.8 Y-152.614 Z-2.724 I0 J0.45
X-103.8 Y-153.514 Z-2.766 I0 J-0.45
X-103.8 Y-152.614 Z-2.808 I0 J0.45
X-103.8 Y-153.514 Z-2.85 I0 J-0.45
X-103.8 Y-152.614 Z-2.891 I0 J0.45
X-103.8 Y-153.514 Z-2.933 I0 J-0.45
X-103.8 Y-152.614 Z-2.975 I0 J0.45
X-103.8 Y-153.514 Z-3.017 I0 J-0.45
X-103.8 Y-152.614 Z-3.059 I0 J0.45
X-103.8 Y-153.514 Z-3.101 I0 J-0.45
X-103.8 Y-152.614 Z-3.143 I0 J0.45
X-103.8 Y-153.514 Z-3.185 I0 J-0.45
X-103.8 Y-152.614 Z-3.227 I0 J0.45
X-103.8 Y-153.514 Z-3.269 I0 J-0.45
X-103.8 Y-152.614 Z-3.31 I0 J0.45
X-103.8 Y-153.514 Z-3.352 I0 J-0.45
X-103.8 Y-152.614 Z-3.394 I0 J0.45
X-103.8 Y-153.514 Z-3.436 I0 J-0.45
X-103.8 Y-152.614 Z-3.478 I0 J0.45
X-103.8 Y-153.514 Z-3.52 I0 J-0.45
X-103.8 Y-152.614 Z-3.562 I0 J0.45
X-103.8 Y-153.514 Z-3.604 I0 J-0.45
X-103.8 Y-152.614 Z-3.646 I0 J0.45
X-103.8 Y-153.514 Z-3.688 I0 J-0.45
X-103.8 Y-152.614 Z-3.73 I0 J0.45
X-103.8 Y-153.514 Z-3.771 I0 J-0.45
X-103.8 Y-152.614 Z-3.813 I0 J0.45
X-103.8 Y-153.514 Z-3.855 I0 J-0.45
X-103.8 Y-152.614 Z-3.897 I0 J0.45
X-103.8 Y-153.514 Z-3.939 I0 J-0.45
X-103.8 Y-152.614 Z-3.981 I0 J0.45
X-103.8 Y-153.514 Z-4.023 I0 J-0.45
X-103.8 Y-152.614 Z-4.065 I0 J0.45
X-103.8 Y-153.514 Z-4.107 I0 J-0.45
X-103.8 Y-152.614 Z-4.149 I0 J0.45
X-103.8 Y-153.514 Z-4.19 I0 J-0.45
X-103.8 Y-152.614 Z-4.232 I0 J0.45
X-103.8 Y-153.514 Z-4.274 I0 J-0.45
X-103.378 Y-152.907 Z-4.3 I0 J0.45
X-104.222 Y-153.221 I-0.422 J-0.157
X-103.378 Y-152.907 I0.422 J0.157
G1 X-103.401 Y-152.866
X-103.436 Y-152.835
X-103.478 Y-152.815
X-103.525 Y-152.81
X-103.571 Y-152.819
X-103.641 Y-152.845
X-103.685 Y-152.861 Z-4.293
X-103.724 Y-152.876 Z-4.271
X-103.755 Y-152.887 Z-4.238
X-103.775 Y-152.895 Z-4.196
X-103.782 Y-152.897 Z-4.15
Z5
X-123.95 Y-153.139
Z2
Z0.15 F400
Y-153.146 Z0.104
Y-153.168 Z0.062
Y-153.201 Z0.029
Y-153.243 Z0.007
Y-153.289 Z0
Y-153.364
X-123.943 Y-153.41
X-123.921 Y-153.452
X-123.888 Y-153.485
X-123.846 Y-153.507
X-123.8 Y-153.514
G3 X-123.8 Y-152.614 Z-0.042 I0 J0.45 F600
X-123.8 Y-153.514 Z-0.084 I0 J-0.45
X-123.8 Y-152.614 Z-0.126 I0 J0.45
X-123.8 Y-153.514 Z-0.168 I0 J-0.45
X-123.8 Y-152.614 Z-0.21 I0 J0.45
X-123.8 Y-153.514 Z-0.251 I0 J-0.45
X-123.8 Y-152.614 Z-0.293 I0 J0.45
X-123.8 Y-153.514 Z-0.335 I0 J-0.45
X-123.8 Y-152.614 Z-0.377 I0 J0.45
X-123.8 Y-153.514 Z-0.419 I0 J-0.45
X-123.8 Y-152.614 Z-0.461 I0 J0.45
X-123.8 Y-153.514 Z-0.503 I0 J-0.45
X-123.8 Y-152.614 Z-0.545 I0 J0.45
X-123.8 Y-153.514 Z-0.587 I0 J-0.45
X-123.8 Y-152.614 Z-0.629 I0 J0.45
X-123.8 Y-153.514 Z-0.67 I0 J-0.45
X-123.8 Y-152.614 Z-0.712 I0 J0.45
X-123.8 Y-153.514 Z-0.754 I0 J-0.45
X-123.8 Y-152.614 Z-0.796 I0 J0.45
X-123.8 Y-153.514 Z-0.838 I0 J-0.45
X-123.8 Y-152.614 Z-0.88 I0 J0.45
X-123.8 Y-153.514 Z-0.922 I0 J-0.45
X-123.8 Y-152.614 Z-0.964 I0 J0.45
X-123.8 Y-153.514 Z-1.006 I0 J-0.45
X-123.8 Y-152.614 Z-1.048 I0 J0.45
X-123.8 Y-153.514 Z-1.09 I0 J-0.45
X-123.8 Y-152.614 Z-1.131 I0 J0.45
X-123.8 Y-153.514 Z-1.173 I0 J-0.45
X-123.8 Y-152.614 Z-1.215 I0 J0.45
X-123.8 Y-153.514 Z-1.257 I0 J-0.45
X-123.8 Y-152.614 Z-1.299 I0 J0.45
X-123.8 Y-153.514 Z-1.341 I0 J-0.45
X-123.8 Y-152.614 Z-1.383 I0 J0.45
X-123.8 Y-153.514 Z-1.425 I0 J-0.45
X-123.8 Y-152.614 Z-1.467 I0 J0.45
X-123.8 Y-153.514 Z-1.509 I0 J-0.45
X-123.8 Y-152.614 Z-1.55 I0 J0.45
X-123.8 Y-153.514 Z-1.592 I0 J-0.45
X-123.8 Y-152.614 Z-1.634 I0 J0.45
X-123.8 Y-153.514 Z-1.676 I0 J-0.45
X-123.8 Y-152.614 Z-1.718 I0 J0.45
X-123.8 Y-153.514 Z-1.76 I0 J-0.45
X-123.8 Y-152.614 Z-1.802 I0 J0.45
X-123.8 Y-153.514 Z-1.844 I0 J-0.45
X-123.8 Y-152.614 Z-1.886 I0 J0.45
X-123.8 Y-153.514 Z-1.928 I0 J-0.45
X-123.8 Y-152.614 Z-1.97 I0 J0.45
X-123.8 Y-153.514 Z-2.011 I0 J-0.45
X-123.8 Y-152.614 Z-2.053 I0 J0.45
X-123.8 Y-153.514 Z-2.095 I0 J-0.45
X-123.8 Y-152.614 Z-2.137 I0 J0.45
X-123.8 Y-153.514 Z-2.179 I0 J-0.45
X-123.8 Y-152.614 Z-2.221 I0 J0.45
X-123.8 Y-153.514 Z-2.263 I0 J-0.45
X-123.8 Y-152.614 Z-2.305 I0 J0.45
X-123.8 Y-153.514 Z-2.347 I0 J-0.45
X-123.8 Y-152.614 Z-2.389 I0 J0.45
X-123.8 Y-153.514 Z-2.43 I0 J-0.45
X-123.8 Y-152.614 Z-2.472 I0 J0.45
X-123.8 Y-153.514 Z-2.514 I0 J-0.45
X-123.8 Y-152.614 Z-2.556 I0 J0.45
X-123.8 Y-153.514 Z-2.598 I0 J-0.45
X-123.8 Y-152.614 Z-2.64 I0 J0.45
X-123.8 Y-153.514 Z-2.682 I0 J-0.45
X-123.8 Y-152.614 Z-2.724 I0 J0.45
X-123.8 Y-153.514 Z-2.766 I0 J-0.45
X-123.8 Y-152.614 Z-2.808 I0 J0.45
X-123.8 Y-153.514 Z-2.85 I0 J-0.45
X-123.8 Y-152.614 Z-2.891 I0 J0.45
X-123.8 Y-153.514 Z-2.933 I0 J-0.45
X-123.8 Y-152.614 Z-2.975 I0 J0.45
X-123.8 Y-153.514 Z-3.017 I0 J-0.45
X-123.8 Y-152.614 Z-3.059 I0 J0.45
X-123.8 Y-153.514 Z-3.101 I0 J-0.45
X-123.8 Y-152.614 Z-3.143 I0 J0.45
X-123.8 Y-153.514 Z-3.185 I0 J-0.45
X-123.8 Y-152.614 Z-3.227 I0 J0.45
X-123.8 Y-153.514 Z-3.269 I0 J-0.45
X-123.8 Y-152.614 Z-3.31 I0 J0.45
X-123.8 Y-153.514 Z-3.352 I0 J-0.45
X-123.8 Y-152.614 Z-3.394 I0 J0.45
X-123.8 Y-153.514 Z-3.436 I0 J-0.45
X-123.8 Y-152.614 Z-3.478 I0 J0.45
X-123.8 Y-153.514 Z-3.52 I0 J-0.45
X-123.8 Y-152.614 Z-3.562 I0 J0.45
X-123.8 Y-153.514 Z-3.604 I0 J-0.45
X-123.8 Y-152.614 Z-3.646 I0 J0.45
X-123.8 Y-153.514 Z-3.688 I0 J-0.45
X-123.8 Y-152.614 Z-3.73 I0 J0.45
X-123.8 Y-153.514 Z-3.771 I0 J-0.45
X-123.8 Y-152.614 Z-3.813 I0 J0.45
X-123.8 Y-153.514 Z-3.855 I0 J-0.45
X-123.8 Y-152.614 Z-3.897 I0 J0.45
X-123.8 Y-153.514 Z-3.939 I0 J-0.45
X-123.8 Y-152.614 Z-3.981 I0 J0.45
X-123.8 Y-153.514 Z-4.023 I0 J-0.45
X-123.8 Y-152.614 Z-4.065 I0 J0.45
X-123.8 Y-153.514 Z-4.107 I0 J-0.45
X-123.8 Y-152.614 Z-4.149 I0 J0.45
X-123.8 Y-153.514 Z-4.19 I0 J-0.45
X-123.8 Y-152.614 Z-4.232 I0 J0.45
X-123.8 Y-153.514 Z-4.274 I0 J-0.45
X-123.378 Y-152.907 Z-4.3 I0 J0.45
X-124.222 Y-153.221 I-0.422 J-0.157
X-123.378 Y-152.907 I0.422 J0.157
G1 X-123.401 Y-152.866
X-123.436 Y-152.835
X-123.478 Y-152.815
X-123.525 Y-152.81
X-123.571 Y-152.819
X-123.641 Y-152.845
X-123.685 Y-152.861 Z-4.293
X-123.724 Y-152.876 Z-4.271
X-123.755 Y-152.887 Z-4.238
X-123.775 Y-152.895 Z-4.196
X-123.782 Y-152.897 Z-4.15
Z5
X-123.65 Y-132.989
Z2
Z0.15 F400
Y-132.982 Z0.104
Y-132.96 Z0.062
Y-132.927 Z0.029
Y-132.885 Z0.007
Y-132.839 Z0
Y-132.764
X-123.657 Y-132.718
X-123.679 Y-132.676
X-123.712 Y-132.643
X-123.754 Y-132.621
X-123.8 Y-132.614
G3 X-123.8 Y-133.514 Z-0.042 I0 J-0.45 F600
X-123.8 Y-132.614 Z-0.084 I0 J0.45
X-123.8 Y-133.514 Z-0.126 I0 J-0.45
X-123.8 Y-132.614 Z-0.168 I0 J0.45
X-123.8 Y-133.514 Z-0.21 I0 J-0.45
X-123.8 Y-132.614 Z-0.251 I0 J0.45
X-123.8 Y-133.514 Z-0.293 I0 J-0.45
X-123.8 Y-132.614 Z-0.335 I0 J0.45
X-123.8 Y-133.514 Z-0.377 I0 J-0.45
X-123.8 Y-132.614 Z-0.419 I0 J0.45
X-123.8 Y-133.514 Z-0.461 I0 J-0.45
X-123.8 Y-132.614 Z-0.503 I0 J0.45
X-123.8 Y-133.514 Z-0.545 I0 J-0.45
X-123.8 Y-132.614 Z-0.587 I0 J0.45
X-123.8 Y-133.514 Z-0.629 I0 J-0.45
X-123.8 Y-132.614 Z-0.67 I0 J0.45
X-123.8 Y-133.514 Z-0.712 I0 J-0.45
X-123.8 Y-132.614 Z-0.754 I0 J0.45
X-123.8 Y-133.514 Z-0.796 I0 J-0.45
X-123.8 Y-132.614 Z-0.838 I0 J0.45
X-123.8 Y-133.514 Z-0.88 I0 J-0.45
X-123.8 Y-132.614 Z-0.922 I0 J0.45
X-123.8 Y-133.514 Z-0.964 I0 J-0.45
X-123.8 Y-132.614 Z-1.006 I0 J0.45
X-123.8 Y-133.514 Z-1.048 I0 J-0.45
X-123.8 Y-132.614 Z-1.09 I0 J0.45
X-123.8 Y-133.514 Z-1.131 I0 J-0.45
X-123.8 Y-132.614 Z-1.173 I0 J0.45
X-123.8 Y-133.514 Z-1.215 I0 J-0.45
X-123.8 Y-132.614 Z-1.257 I0 J0.45
X-123.8 Y-133.514 Z-1.299 I0 J-0.45
X-123.8 Y-132.614 Z-1.341 I0 J0.45
X-123.8 Y-133.514 Z-1.383 I0 J-0.45
X-123.8 Y-132.614 Z-1.425 I0 J0.45
X-123.8 Y-133.514 Z-1.467 I0 J-0.45
X-123.8 Y-132.614 Z-1.509 I0 J0.45
X-123.8 Y-133.514 Z-1.55 I0 J-0.45
X-123.8 Y-132.614 Z-1.592 I0 J0.45
X-123.8 Y-133.514 Z-1.634 I0 J-0.45
X-123.8 Y-132.614 Z-1.676 I0 J0.45
X-123.8 Y-133.514 Z-1.718 I0 J-0.45
X-123.8 Y-132.614 Z-1.76 I0 J0.45
X-123.8 Y-133.514 Z-1.802 I0 J-0.45
X-123.8 Y-132.614 Z-1.844 I0 J0.45
X-123.8 Y-133.514 Z-1.886 I0 J-0.45
X-123.8 Y-132.614 Z-1.928 I0 J0.45
X-123.8 Y-133.514 Z-1.97 I0 J-0.45
X-123.8 Y-132.614 Z-2.011 I0 J0.45
X-123.8 Y-133.514 Z-2.053 I0 J-0.45
X-123.8 Y-132.614 Z-2.095 I0 J0.45
X-123.8 Y-133.514 Z-2.137 I0 J-0.45
X-123.8 Y-132.614 Z-2.179 I0 J0.45
X-123.8 Y-133.514 Z-2.221 I0 J-0.45
X-123.8 Y-132.614 Z-2.263 I0 J0.45
X-123.8 Y-133.514 Z-2.305 I0 J-0.45
X-123.8 Y-132.614 Z-2.347 I0 J0.45
X-123.8 Y-133.514 Z-2.389 I0 J-0.45
X-123.8 Y-132.614 Z-2.43 I0 J0.45
X-123.8 Y-133.514 Z-2.472 I0 J-0.45
X-123.8 Y-132.614 Z-2.514 I0 J0.45
X-123.8 Y-133.514 Z-2.556 I0 J-0.45
X-123.8 Y-132.614 Z-2.598 I0 J0.45
X-123.8 Y-133.514 Z-2.64 I0 J-0.45
X-123.8 Y-132.614 Z-2.682 I0 J0.45
X-123.8 Y-133.514 Z-2.724 I0 J-0.45
X-123.8 Y-132.614 Z-2.766 I0 J0.45
X-123.8 Y-133.514 Z-2.808 I0 J-0.45
X-123.8 Y-132.614 Z-2.85 I0 J0.45
X-123.8 Y-133.514 Z-2.891 I0 J-0.45
X-123.8 Y-132.614 Z-2.933 I0 J0.45
X-123.8 Y-133.514 Z-2.975 I0 J-0.45
X-123.8 Y-132.614 Z-3.017 I0 J0.45
X-123.8 Y-133.514 Z-3.059 I0 J-0.45
X-123.8 Y-132.614 Z-3.101 I0 J0.45
X-123.8 Y-133.514 Z-3.143 I0 J-0.45
X-123.8 Y-132.614 Z-3.185 I0 J0.45
X-123.8 Y-133.514 Z-3.227 I0 J-0.45
X-123.8 Y-132.614 Z-3.269 I0 J0.45
X-123.8 Y-133.514 Z-3.31 I0 J-0.45
X-123.8 Y-132.614 Z-3.352 I0 J0.45
X-123.8 Y-133.514 Z-3.394 I0 J-0.45
X-123.8 Y-132.614 Z-3.436 I0 J0.45
X-123.8 Y-133.514 Z-3.478 I0 J-0.45
X-123.8 Y-132.614 Z-3.52 I0 J0.45
X-123.8 Y-133.514 Z-3.562 I0 J-0.45
X-123.8 Y-132.614 Z-3.604 I0 J0.45
X-123.8 Y-133.514 Z-3.646 I0 J-0.45
X-123.8 Y-132.614 Z-3.688 I0 J0.45
X-123.8 Y-133.514 Z-3.73 I0 J-0.45
X-123.8 Y-132.614 Z-3.771 I0 J0.45
X-123.8 Y-133.514 Z-3.813 I0 J-0.45
X-123.8 Y-132.614 Z-3.855 I0 J0.45
X-123.8 Y-133.514 Z-3.897 I0 J-0.45
X-123.8 Y-132.614 Z-3.939 I0 J0.45
X-123.8 Y-133.514 Z-3.981 I0 J-0.45
X-123.8 Y-132.614 Z-4.023 I0 J0.45
X-123.8 Y-133.514 Z-4.065 I0 J-0.45
X-123.8 Y-132.614 Z-4.107 I0 J0.45
X-123.8 Y-133.514 Z-4.149 I0 J-0.45
X-123.8 Y-132.614 Z-4.19 I0 J0.45
X-123.8 Y-133.514 Z-4.232 I0 J-0.45
X-123.8 Y-132.614 Z-4.274 I0 J0.45
X-124.222 Y-133.221 Z-4.3 I0 J-0.45
X-123.378 Y-132.907 I0.422 J0.157
X-124.222 Y-133.221 I-0.422 J-0.157
G1 X-124.199 Y-133.262
X-124.164 Y-133.294
X-124.122 Y-133.313
X-124.075 Y-133.318
X-124.029 Y-133.309
X-123.959 Y-133.283
X-123.915 Y-133.267 Z-4.293
X-123.876 Y-133.252 Z-4.271
X-123.845 Y-133.241 Z-4.238
X-123.825 Y-133.233 Z-4.196
X-123.818 Y-133.231 Z-4.15
Z5
X-103.65 Y-132.989
Z2
Z0.15 F400
Y-132.982 Z0.104
Y-132.96 Z0.062
Y-132.927 Z0.029
Y-132.885 Z0.007
Y-132.839 Z0
Y-132.764
X-103.657 Y-132.718
X-103.679 Y-132.676
X-103.712 Y-132.643
X-103.754 Y-132.621
X-103.8 Y-132.614
G3 X-103.8 Y-133.514 Z-0.042 I0 J-0.45 F600
X-103.8 Y-132.614 Z-0.084 I0 J0.45
X-103.8 Y-133.514 Z-0.126 I0 J-0.45
X-103.8 Y-132.614 Z-0.168 I0 J0.45
X-103.8 Y-133.514 Z-0.21 I0 J-0.45
X-103.8 Y-132.614 Z-0.251 I0 J0.45
X-103.8 Y-133.514 Z-0.293 I0 J-0.45
X-103.8 Y-132.614 Z-0.335 I0 J0.45
X-103.8 Y-133.514 Z-0.377 I0 J-0.45
X-103.8 Y-132.614 Z-0.419 I0 J0.45
X-103.8 Y-133.514 Z-0.461 I0 J-0.45
X-103.8 Y-132.614 Z-0.503 I0 J0.45
X-103.8 Y-133.514 Z-0.545 I0 J-0.45
X-103.8 Y-132.614 Z-0.587 I0 J0.45
X-103.8 Y-133.514 Z-0.629 I0 J-0.45
X-103.8 Y-132.614 Z-0.67 I0 J0.45
X-103.8 Y-133.514 Z-0.712 I0 J-0.45
X-103.8 Y-132.614 Z-0.754 I0 J0.45
X-103.8 Y-133.514 Z-0.796 I0 J-0.45
X-103.8 Y-132.614 Z-0.838 I0 J0.45
X-103.8 Y-133.514 Z-0.88 I0 J-0.45
X-103.8 Y-132.614 Z-0.922 I0 J0.45
X-103.8 Y-133.514 Z-0.964 I0 J-0.45
X-103.8 Y-132.614 Z-1.006 I0 J0.45
X-103.8 Y-133.514 Z-1.048 I0 J-0.45
X-103.8 Y-132.614 Z-1.09 I0 J0.45
X-103.8 Y-133.514 Z-1.131 I0 J-0.45
X-103.8 Y-132.614 Z-1.173 I0 J0.45
X-103.8 Y-133.514 Z-1.215 I0 J-0.45
X-103.8 Y-132.614 Z-1.257 I0 J0.45
X-103.8 Y-133.514 Z-1.299 I0 J-0.45
X-103.8 Y-132.614 Z-1.341 I0 J0.45
X-103.8 Y-133.514 Z-1.383 I0 J-0.45
X-103.8 Y-132.614 Z-1.425 I0 J0.45
X-103.8 Y-133.514 Z-1.467 I0 J-0.45
X-103.8 Y-132.614 Z-1.509 I0 J0.45
X-103.8 Y-133.514 Z-1.55 I0 J-0.45
X-103.8 Y-132.614 Z-1.592 I0 J0.45
X-103.8 Y-133.514 Z-1.634 I0 J-0.45
X-103.8 Y-132.614 Z-1.676 I0 J0.45
X-103.8 Y-133.514 Z-1.718 I0 J-0.45
X-103.8 Y-132.614 Z-1.76 I0 J0.45
X-103.8 Y-133.514 Z-1.802 I0 J-0.45
X-103.8 Y-132.614 Z-1.844 I0 J0.45
X-103.8 Y-133.514 Z-1.886 I0 J-0.45
X-103.8 Y-132.614 Z-1.928 I0 J0.45
X-103.8 Y-133.514 Z-1.97 I0 J-0.45
X-103.8 Y-132.614 Z-2.011 I0 J0.45
X-103.8 Y-133.514 Z-2.053 I0 J-0.45
X-103.8 Y-132.614 Z-2.095 I0 J0.45
X-103.8 Y-133.514 Z-2.137 I0 J-0.45
X-103.8 Y-132.614 Z-2.179 I0 J0.45
X-103.8 Y-133.514 Z-2.221 I0 J-0.45
X-103.8 Y-132.614 Z-2.263 I0 J0.45
X-103.8 Y-133.514 Z-2.305 I0 J-0.45
X-103.8 Y-132.614 Z-2.347 I0 J0.45
X-103.8 Y-133.514 Z-2.389 I0 J-0.45
X-103.8 Y-132.614 Z-2.43 I0 J0.45
X-103.8 Y-133.514 Z-2.472 I0 J-0.45
X-103.8 Y-132.614 Z-2.514 I0 J0.45
X-103.8 Y-133.514 Z-2.556 I0 J-0.45
X-103.8 Y-132.614 Z-2.598 I0 J0.45
X-103.8 Y-133.514 Z-2.64 I0 J-0.45
X-103.8 Y-132.614 Z-2.682 I0 J0.45
X-103.8 Y-133.514 Z-2.724 I0 J-0.45
X-103.8 Y-132.614 Z-2.766 I0 J0.45
X-103.8 Y-133.514 Z-2.808 I0 J-0.45
X-103.8 Y-132.614 Z-2.85 I0 J0.45
X-103.8 Y-133.514 Z-2.891 I0 J-0.45
X-103.8 Y-132.614 Z-2.933 I0 J0.45
X-103.8 Y-133.514 Z-2.975 I0 J-0.45
X-103.8 Y-132.614 Z-3.017 I0 J0.45
X-103.8 Y-133.514 Z-3.059 I0 J-0.45
X-103.8 Y-132.614 Z-3.101 I0 J0.45
X-103.8 Y-133.514 Z-3.143 I0 J-0.45
X-103.8 Y-132.614 Z-3.185 I0 J0.45
X-103.8 Y-133.514 Z-3.227 I0 J-0.45
X-103.8 Y-132.614 Z-3.269 I0 J0.45
X-103.8 Y-133.514 Z-3.31 I0 J-0.45
X-103.8 Y-132.614 Z-3.352 I0 J0.45
X-103.8 Y-133.514 Z-3.394 I0 J-0.45
X-103.8 Y-132.614 Z-3.436 I0 J0.45
X-103.8 Y-133.514 Z-3.478 I0 J-0.45
X-103.8 Y-132.614 Z-3.52 I0 J0.45
X-103.8 Y-133.514 Z-3.562 I0 J-0.45
X-103.8 Y-132.614 Z-3.604 I0 J0.45
X-103.8 Y-133.514 Z-3.646 I0 J-0.45
X-103.8 Y-132.614 Z-3.688 I0 J0.45
X-103.8 Y-133.514 Z-3.73 I0 J-0.45
X-103.8 Y-132.614 Z-3.771 I0 J0.45
X-103.8 Y-133.514 Z-3.813 I0 J-0.45
X-103.8 Y-132.614 Z-3.855 I0 J0.45
X-103.8 Y-133.514 Z-3.897 I0 J-0.45
X-103.8 Y-132.614 Z-3.939 I0 J0.45
X-103.8 Y-133.514 Z-3.981 I0 J-0.45
X-103.8 Y-132.614 Z-4.023 I0 J0.45
X-103.8 Y-133.514 Z-4.065 I0 J-0.45
X-103.8 Y-132.614 Z-4.107 I0 J0.45
X-103.8 Y-133.514 Z-4.149 I0 J-0.45
X-103.8 Y-132.614 Z-4.19 I0 J0.45
X-103.8 Y-133.514 Z-4.232 I0 J-0.45
X-103.8 Y-132.614 Z-4.274 I0 J0.45
X-104.222 Y-133.221 Z-4.3 I0 J-0.45
X-103.378 Y-132.907 I0.422 J0.157
X-104.222 Y-133.221 I-0.422 J-0.157
G1 X-104.199 Y-133.262
X-104.164 Y-133.294
X-104.122 Y-133.313
X-104.075 Y-133.318
X-104.029 Y-133.309
X-103.959 Y-133.283
X-103.915 Y-133.267 Z-4.293
X-103.876 Y-133.252 Z-4.271
X-103.845 Y-133.241 Z-4.238
X-103.825 Y-133.233 Z-4.196
X-103.818 Y-133.231 Z-4.15
Z5
X-81.95 Y-133.139
Z2
Z0.15 F400
Y-133.146 Z0.104
Y-133.168 Z0.062
Y-133.201 Z0.029
Y-133.243 Z0.007
Y-133.289 Z0
Y-133.364
X-81.943 Y-133.41
X-81.921 Y-133.452
X-81.888 Y-133.485
X-81.846 Y-133.507
X-81.8 Y-133.514
G3 X-81.8 Y-132.614 Z-0.042 I0 J0.45 F600
X-81.8 Y-133.514 Z-0.084 I0 J-0.45
X-81.8 Y-132.614 Z-0.126 I0 J0.45
X-81.8 Y-133.514 Z-0.168 I0 J-0.45
X-81.8 Y-132.614 Z-0.21 I0 J0.45
X-81.8 Y-133.514 Z-0.251 I0 J-0.45
X-81.8 Y-132.614 Z-0.293 I0 J0.45
X-81.8 Y-133.514 Z-0.335 I0 J-0.45
X-81.8 Y-132.614 Z-0.377 I0 J0.45
X-81.8 Y-133.514 Z-0.419 I0 J-0.45
X-81.8 Y-132.614 Z-0.461 I0 J0.45
X-81.8 Y-133.514 Z-0.503 I0 J-0.45
X-81.8 Y-132.614 Z-0.545 I0 J0.45
X-81.8 Y-133.514 Z-0.587 I0 J-0.45
X-81.8 Y-132.614 Z-0.629 I0 J0.45
X-81.8 Y-133.514 Z-0.67 I0 J-0.45
X-81.8 Y-132.614 Z-0.712 I0 J0.45
X-81.8 Y-133.514 Z-0.754 I0 J-0.45
X-81.8 Y-132.614 Z-0.796 I0 J0.45
X-81.8 Y-133.514 Z-0.838 I0 J-0.45
X-81.8 Y-132.614 Z-0.88 I0 J0.45
X-81.8 Y-133.514 Z-0.922 I0 J-0.45
X-81.8 Y-132.614 Z-0.964 I0 J0.45
X-81.8 Y-133.514 Z-1.006 I0 J-0.45
X-81.8 Y-132.614 Z-1.048 I0 J0.45
X-81.8 Y-133.514 Z-1.09 I0 J-0.45
X-81.8 Y-132.614 Z-1.131 I0 J0.45
X-81.8 Y-133.514 Z-1.173 I0 J-0.45
X-81.8 Y-132.614 Z-1.215 I0 J0.45
X-81.8 Y-133.514 Z-1.257 I0 J-0.45
X-81.8 Y-132.614 Z-1.299 I0 J0.45
X-81.8 Y-133.514 Z-1.341 I0 J-0.45
X-81.8 Y-132.614 Z-1.383 I0 J0.45
X-81.8 Y-133.514 Z-1.425 I0 J-0.45
X-81.8 Y-132.614 Z-1.467 I0 J0.45
X-81.8 Y-133.514 Z-1.509 I0 J-0.45
X-81.8 Y-132.614 Z-1.55 I0 J0.45
X-81.8 Y-133.514 Z-1.592 I0 J-0.45
X-81.8 Y-132.614 Z-1.634 I0 J0.45
X-81.8 Y-133.514 Z-1.676 I0 J-0.45
X-81.8 Y-132.614 Z-1.718 I0 J0.45
X-81.8 Y-133.514 Z-1.76 I0 J-0.45
X-81.8 Y-132.614 Z-1.802 I0 J0.45
X-81.8 Y-133.514 Z-1.844 I0 J-0.45
X-81.8 Y-132.614 Z-1.886 I0 J0.45
X-81.8 Y-133.514 Z-1.928 I0 J-0.45
X-81.8 Y-132.614 Z-1.97 I0 J0.45
X-81.8 Y-133.514 Z-2.011 I0 J-0.45
X-81.8 Y-132.614 Z-2.053 I0 J0.45
X-81.8 Y-133.514 Z-2.095 I0 J-0.45
X-81.8 Y-132.614 Z-2.137 I0 J0.45
X-81.8 Y-133.514 Z-2.179 I0 J-0.45
X-81.8 Y-132.614 Z-2.221 I0 J0.45
X-81.8 Y-133.514 Z-2.263 I0 J-0.45
X-81.8 Y-132.614 Z-2.305 I0 J0.45
X-81.8 Y-133.514 Z-2.347 I0 J-0.45
X-81.8 Y-132.614 Z-2.389 I0 J0.45
X-81.8 Y-133.514 Z-2.43 I0 J-0.45
X-81.8 Y-132.614 Z-2.472 I0 J0.45
X-81.8 Y-133.514 Z-2.514 I0 J-0.45
X-81.8 Y-132.614 Z-2.556 I0 J0.45
X-81.8 Y-133.514 Z-2.598 I0 J-0.45
X-81.8 Y-132.614 Z-2.64 I0 J0.45
X-81.8 Y-133.514 Z-2.682 I0 J-0.45
X-81.8 Y-132.614 Z-2.724 I0 J0.45
X-81.8 Y-133.514 Z-2.766 I0 J-0.45
X-81.8 Y-132.614 Z-2.808 I0 J0.45
X-81.8 Y-133.514 Z-2.85 I0 J-0.45
X-81.8 Y-132.614 Z-2.891 I0 J0.45
X-81.8 Y-133.514 Z-2.933 I0 J-0.45
X-81.8 Y-132.614 Z-2.975 I0 J0.45
X-81.8 Y-133.514 Z-3.017 I0 J-0.45
X-81.8 Y-132.614 Z-3.059 I0 J0.45
X-81.8 Y-133.514 Z-3.101 I0 J-0.45
X-81.8 Y-132.614 Z-3.143 I0 J0.45
X-81.8 Y-133.514 Z-3.185 I0 J-0.45
X-81.8 Y-132.614 Z-3.227 I0 J0.45
X-81.8 Y-133.514 Z-3.269 I0 J-0.45
X-81.8 Y-132.614 Z-3.31 I0 J0.45
X-81.8 Y-133.514 Z-3.352 I0 J-0.45
X-81.8 Y-132.614 Z-3.394 I0 J0.45
X-81.8 Y-133.514 Z-3.436 I0 J-0.45
X-81.8 Y-132.614 Z-3.478 I0 J0.45
X-81.8 Y-133.514 Z-3.52 I0 J-0.45
X-81.8 Y-132.614 Z-3.562 I0 J0.45
X-81.8 Y-133.514 Z-3.604 I0 J-0.45
X-81.8 Y-132.614 Z-3.646 I0 J0.45
X-81.8 Y-133.514 Z-3.688 I0 J-0.45
X-81.8 Y-132.614 Z-3.73 I0 J0.45
X-81.8 Y-133.514 Z-3.771 I0 J-0.45
X-81.8 Y-132.614 Z-3.813 I0 J0.45
X-81.8 Y-133.514 Z-3.855 I0 J-0.45
X-81.8 Y-132.614 Z-3.897 I0 J0.45
X-81.8 Y-133.514 Z-3.939 I0 J-0.45
X-81.8 Y-132.614 Z-3.981 I0 J0.45
X-81.8 Y-133.514 Z-4.023 I0 J-0.45
X-81.8 Y-132.614 Z-4.065 I0 J0.45
X-81.8 Y-133.514 Z-4.107 I0 J-0.45
X-81.8 Y-132.614 Z-4.149 I0 J0.45
X-81.8 Y-133.514 Z-4.19 I0 J-0.45
X-81.8 Y-132.614 Z-4.232 I0 J0.45
X-81.8 Y-133.514 Z-4.274 I0 J-0.45
X-81.378 Y-132.907 Z-4.3 I0 J0.45
X-82.222 Y-133.221 I-0.422 J-0.157
X-81.378 Y-132.907 I0.422 J0.157
G1 X-81.401 Y-132.866
X-81.436 Y-132.835
X-81.478 Y-132.815
X-81.525 Y-132.81
X-81.571 Y-132.819
X-81.641 Y-132.845
X-81.685 Y-132.861 Z-4.293
X-81.724 Y-132.876 Z-4.271
X-81.755 Y-132.887 Z-4.238
X-81.775 Y-132.895 Z-4.196
X-81.782 Y-132.897 Z-4.15
Z5
X-61.95 Y-133.139
Z2
Z0.15 F400
Y-133.146 Z0.104
Y-133.168 Z0.062
Y-133.201 Z0.029
Y-133.243 Z0.007
Y-133.289 Z0
Y-133.364
X-61.943 Y-133.41
X-61.921 Y-133.452
X-61.888 Y-133.485
X-61.846 Y-133.507
X-61.8 Y-133.514
G3 X-61.8 Y-132.614 Z-0.042 I0 J0.45 F600
X-61.8 Y-133.514 Z-0.084 I0 J-0.45
X-61.8 Y-132.614 Z-0.126 I0 J0.45
X-61.8 Y-133.514 Z-0.168 I0 J-0.45
X-61.8 Y-132.614 Z-0.21 I0 J0.45
X-61.8 Y-133.514 Z-0.251 I0 J-0.45
X-61.8 Y-132.614 Z-0.293 I0 J0.45
X-61.8 Y-133.514 Z-0.335 I0 J-0.45
X-61.8 Y-132.614 Z-0.377 I0 J0.45
X-61.8 Y-133.514 Z-0.419 I0 J-0.45
X-61.8 Y-132.614 Z-0.461 I0 J0.45
X-61.8 Y-133.514 Z-0.503 I0 J-0.45
X-61.8 Y-132.614 Z-0.545 I0 J0.45
X-61.8 Y-133.514 Z-0.587 I0 J-0.45
X-61.8 Y-132.614 Z-0.629 I0 J0.45
X-61.8 Y-133.514 Z-0.67 I0 J-0.45
X-61.8 Y-132.614 Z-0.712 I0 J0.45
X-61.8 Y-133.514 Z-0.754 I0 J-0.45
X-61.8 Y-132.614 Z-0.796 I0 J0.45
X-61.8 Y-133.514 Z-0.838 I0 J-0.45
X-61.8 Y-132.614 Z-0.88 I0 J0.45
X-61.8 Y-133.514 Z-0.922 I0 J-0.45
X-61.8 Y-132.614 Z-0.964 I0 J0.45
X-61.8 Y-133.514 Z-1.006 I0 J-0.45
X-61.8 Y-132.614 Z-1.048 I0 J0.45
X-61.8 Y-133.514 Z-1.09 I0 J-0.45
X-61.8 Y-132.614 Z-1.131 I0 J0.45
X-61.8 Y-133.514 Z-1.173 I0 J-0.45
X-61.8 Y-132.614 Z-1.215 I0 J0.45
X-61.8 Y-133.514 Z-1.257 I0 J-0.45
X-61.8 Y-132.614 Z-1.299 I0 J0.45
X-61.8 Y-133.514 Z-1.341 I0 J-0.45
X-61.8 Y-132.614 Z-1.383 I0 J0.45
X-61.8 Y-133.514 Z-1.425 I0 J-0.45
X-61.8 Y-132.614 Z-1.467 I0 J0.45
X-61.8 Y-133.514 Z-1.509 I0 J-0.45
X-61.8 Y-132.614 Z-1.55 I0 J0.45
X-61.8 Y-133.514 Z-1.592 I0 J-0.45
X-61.8 Y-132.614 Z-1.634 I0 J0.45
X-61.8 Y-133.514 Z-1.676 I0 J-0.45
X-61.8 Y-132.614 Z-1.718 I0 J0.45
X-61.8 Y-133.514 Z-1.76 I0 J-0.45
X-61.8 Y-132.614 Z-1.802 I0 J0.45
X-61.8 Y-133.514 Z-1.844 I0 J-0.45
X-61.8 Y-132.614 Z-1.886 I0 J0.45
X-61.8 Y-133.514 Z-1.928 I0 J-0.45
X-61.8 Y-132.614 Z-1.97 I0 J0.45
X-61.8 Y-133.514 Z-2.011 I0 J-0.45
X-61.8 Y-132.614 Z-2.053 I0 J0.45
X-61.8 Y-133.514 Z-2.095 I0 J-0.45
X-61.8 Y-132.614 Z-2.137 I0 J0.45
X-61.8 Y-133.514 Z-2.179 I0 J-0.45
X-61.8 Y-132.614 Z-2.221 I0 J0.45
X-61.8 Y-133.514 Z-2.263 I0 J-0.45
X-61.8 Y-132.614 Z-2.305 I0 J0.45
X-61.8 Y-133.514 Z-2.347 I0 J-0.45
X-61.8 Y-132.614 Z-2.389 I0 J0.45
X-61.8 Y-133.514 Z-2.43 I0 J-0.45
X-61.8 Y-132.614 Z-2.472 I0 J0.45
X-61.8 Y-133.514 Z-2.514 I0 J-0.45
X-61.8 Y-132.614 Z-2.556 I0 J0.45
X-61.8 Y-133.514 Z-2.598 I0 J-0.45
X-61.8 Y-132.614 Z-2.64 I0 J0.45
X-61.8 Y-133.514 Z-2.682 I0 J-0.45
X-61.8 Y-132.614 Z-2.724 I0 J0.45
X-61.8 Y-133.514 Z-2.766 I0 J-0.45
X-61.8 Y-132.614 Z-2.808 I0 J0.45
X-61.8 Y-133.514 Z-2.85 I0 J-0.45
X-61.8 Y-132.614 Z-2.891 I0 J0.45
X-61.8 Y-133.514 Z-2.933 I0 J-0.45
X-61.8 Y-132.614 Z-2.975 I0 J0.45
X-61.8 Y-133.514 Z-3.017 I0 J-0.45
X-61.8 Y-132.614 Z-3.059 I0 J0.45
X-61.8 Y-133.514 Z-3.101 I0 J-0.45
X-61.8 Y-132.614 Z-3.143 I0 J0.45
X-61.8 Y-133.514 Z-3.185 I0 J-0.45
X-61.8 Y-132.614 Z-3.227 I0 J0.45
X-61.8 Y-133.514 Z-3.269 I0 J-0.45
X-61.8 Y-132.614 Z-3.31 I0 J0.45
X-61.8 Y-133.514 Z-3.352 I0 J-0.45
X-61.8 Y-132.614 Z-3.394 I0 J0.45
X-61.8 Y-133.514 Z-3.436 I0 J-0.45
X-61.8 Y-132.614 Z-3.478 I0 J0.45
X-61.8 Y-133.514 Z-3.52 I0 J-0.45
X-61.8 Y-132.614 Z-3.562 I0 J0.45
X-61.8 Y-133.514 Z-3.604 I0 J-0.45
X-61.8 Y-132.614 Z-3.646 I0 J0.45
X-61.8 Y-133.514 Z-3.688 I0 J-0.45
X-61.8 Y-132.614 Z-3.73 I0 J0.45
X-61.8 Y-133.514 Z-3.771 I0 J-0.45
X-61.8 Y-132.614 Z-3.813 I0 J0.45
X-61.8 Y-133.514 Z-3.855 I0 J-0.45
X-61.8 Y-132.614 Z-3.897 I0 J0.45
X-61.8 Y-133.514 Z-3.939 I0 J-0.45
X-61.8 Y-132.614 Z-3.981 I0 J0.45
X-61.8 Y-133.514 Z-4.023 I0 J-0.45
X-61.8 Y-132.614 Z-4.065 I0 J0.45
X-61.8 Y-133.514 Z-4.107 I0 J-0.45
X-61.8 Y-132.614 Z-4.149 I0 J0.45
X-61.8 Y-133.514 Z-4.19 I0 J-0.45
X-61.8 Y-132.614 Z-4.232 I0 J0.45
X-61.8 Y-133.514 Z-4.274 I0 J-0.45
X-61.378 Y-132.907 Z-4.3 I0 J0.45
X-62.222 Y-133.221 I-0.422 J-0.157
X-61.378 Y-132.907 I0.422 J0.157
G1 X-61.401 Y-132.866
X-61.436 Y-132.835
X-61.478 Y-132.815
X-61.525 Y-132.81
X-61.571 Y-132.819
X-61.641 Y-132.845
X-61.685 Y-132.861 Z-4.293
X-61.724 Y-132.876 Z-4.271
X-61.755 Y-132.887 Z-4.238
X-61.775 Y-132.895 Z-4.196
X-61.782 Y-132.897 Z-4.15
Z15
(When using Fusion 360 for Personal Use, the feedrate of)
(rapid moves is reduced to match the feedrate of cutting)
(moves, which can increase machining time. Unrestricted rapid)
(moves are available with a Fusion 360 Subscription.)

(2D-Kontur3)
G0 Z15.5
X-61.549 Y-211.715
G1 Z15.5 F600
Z5.5
Z3.15 F300
X-61.543 Y-211.711 Z3.104 F400
X-61.526 Y-211.698 Z3.062
X-61.5 Y-211.678 Z3.029
X-61.466 Y-211.652 Z3.007
X-61.43 Y-211.624 Z3
X-61.31 Y-211.533
X-61.278 Y-211.499
X-61.258 Y-211.457
X-61.251 Y-211.411
X-61.26 Y-211.364
X-61.282 Y-211.323
X-61.937 Y-210.464 Z2.962 F1016
G3 X-62.497 Y-210.388 Z2.94 I-0.318 J-0.242
X-62.573 Y-210.948 Z2.918 I0.242 J-0.318
G1 X-60.603 Y-213.533 Z2.805
G3 X-60.043 Y-213.609 Z2.783 I0.318 J0.242
X-59.967 Y-213.049 Z2.761 I-0.242 J0.318
G1 X-61.937 Y-210.464 Z2.648
G3 X-62.497 Y-210.388 Z2.626 I-0.318 J-0.242
X-62.573 Y-210.948 Z2.604 I0.242 J-0.318
G1 X-60.603 Y-213.533 Z2.49
G3 X-60.043 Y-213.609 Z2.468 I0.318 J0.242
X-59.967 Y-213.049 Z2.446 I-0.242 J0.318
G1 X-61.937 Y-210.464 Z2.333
G3 X-62.497 Y-210.388 Z2.311 I-0.318 J-0.242
X-62.573 Y-210.948 Z2.289 I0.242 J-0.318
G1 X-60.603 Y-213.533 Z2.175
G3 X-60.043 Y-213.609 Z2.153 I0.318 J0.242
X-59.967 Y-213.049 Z2.132 I-0.242 J0.318
G1 X-61.937 Y-210.464 Z2.018
G3 X-62.497 Y-210.388 Z1.996 I-0.318 J-0.242
X-62.573 Y-210.948 Z1.974 I0.242 J-0.318
G1 X-60.603 Y-213.533 Z1.861
G3 X-60.043 Y-213.609 Z1.839 I0.318 J0.242
X-59.967 Y-213.049 Z1.817 I-0.242 J0.318
G1 X-61.937 Y-210.464 Z1.703
G3 X-62.497 Y-210.388 Z1.681 I-0.318 J-0.242
X-62.573 Y-210.948 Z1.659 I0.242 J-0.318
G1 X-60.603 Y-213.533 Z1.546
G3 X-60.043 Y-213.609 Z1.524 I0.318 J0.242
X-59.967 Y-213.049 Z1.502 I-0.242 J0.318
G1 X-61.937 Y-210.464 Z1.389
G3 X-62.497 Y-210.388 Z1.367 I-0.318 J-0.242
X-62.573 Y-210.948 Z1.345 I0.242 J-0.318
G1 X-60.603 Y-213.533 Z1.231
G3 X-60.043 Y-213.609 Z1.209 I0.318 J0.242
X-59.967 Y-213.049 Z1.187 I-0.242 J0.318
G1 X-61.937 Y-210.464 Z1.074
G3 X-62.497 Y-210.388 Z1.052 I-0.318 J-0.242
X-62.573 Y-210.948 Z1.03 I0.242 J-0.318
G1 X-60.603 Y-213.533 Z0.916
G3 X-60.043 Y-213.609 Z0.894 I0.318 J0.242
X-59.967 Y-213.049 Z0.872 I-0.242 J0.318
G1 X-61.937 Y-210.464 Z0.759
G3 X-62.497 Y-210.388 Z0.737 I-0.318 J-0.242
X-62.573 Y-210.948 Z0.715 I0.242 J-0.318
G1 X-60.603 Y-213.533 Z0.602
G3 X-60.043 Y-213.609 Z0.58 I0.318 J0.242
X-59.967 Y-213.049 Z0.558 I-0.242 J0.318
G1 X-61.937 Y-210.464 Z0.444
G3 X-62.497 Y-210.388 Z0.422 I-0.318 J-0.242
X-62.573 Y-210.948 Z0.4 I0.242 J-0.318
G1 X-60.603 Y-213.533 Z0.287
G3 X-60.043 Y-213.609 Z0.265 I0.318 J0.242
X-59.967 Y-213.049 Z0.243 I-0.242 J0.318
G1 X-61.937 Y-210.464 Z0.13
G3 X-62.497 Y-210.388 Z0.108 I-0.318 J-0.242
X-62.573 Y-210.948 Z0.086 I0.242 J-0.318
G1 X-60.603 Y-213.533 Z-0.028
G3 X-60.043 Y-213.609 Z-0.05 I0.318 J0.242
X-59.967 Y-213.049 Z-0.072 I-0.242 J0.318
G1 X-61.937 Y-210.464 Z-0.185
G3 X-62.497 Y-210.388 Z-0.207 I-0.318 J-0.242
X-62.573 Y-210.948 Z-0.229 I0.242 J-0.318
G1 X-60.603 Y-213.533 Z-0.343
G3 X-60.043 Y-213.609 Z-0.365 I0.318 J0.242
X-59.967 Y-213.049 Z-0.387 I-0.242 J0.318
G1 X-61.937 Y-210.464 Z-0.5
G3 X-62.497 Y-210.388 I-0.318 J-0.242 F600
X-62.573 Y-210.948 I0.242 J-0.318
G1 X-60.603 Y-213.533
G3 X-60.043 Y-213.609 I0.318 J0.242
X-59.967 Y-213.049 I-0.242 J0.318
G1 X-61.937 Y-210.464
G3 X-62.497 Y-210.388 Z-0.522 I-0.318 J-0.242 F1016
X-62.573 Y-210.948 Z-0.544 I0.242 J-0.318
G1 X-60.603 Y-213.533 Z-0.657
G3 X-60.043 Y-213.609 Z-0.679 I0.318 J0.242
X-59.967 Y-213.049 Z-0.701 I-0.242 J0.318
G1 X-61.937 Y-210.464 Z-0.815
G3 X-62.497 Y-210.388 Z-0.837 I-0.318 J-0.242
X-62.573 Y-210.948 Z-0.859 I0.242 J-0.318
G1 X-60.603 Y-213.533 Z-0.972
G3 X-60.043 Y-213.609 Z-0.994 I0.318 J0.242
X-59.967 Y-213.049 Z-1.016 I-0.242 J0.318
G1 X-61.937 Y-210.464 Z-1.13
G3 X-62.497 Y-210.388 Z-1.151 I-0.318 J-0.242
X-62.573 Y-210.948 Z-1.173 I0.242 J-0.318
G1 X-60.603 Y-213.533 Z-1.287
G3 X-60.043 Y-213.609 Z-1.309 I0.318 J0.242
X-59.967 Y-213.049 Z-1.331 I-0.242 J0.318
G1 X-61.937 Y-210.464 Z-1.444
G3 X-62.497 Y-210.388 Z-1.466 I-0.318 J-0.242
X-62.573 Y-210.948 Z-1.488 I0.242 J-0.318
G1 X-62.367 Y-211.219 Z-1.5
X-60.603 Y-213.533 F600
G3 X-60.043 Y-213.609 I0.318 J0.242
X-59.967 Y-213.049 I-0.242 J0.318
G1 X-61.937 Y-210.464
G3 X-62.497 Y-210.388 I-0.318 J-0.242
X-62.573 Y-210.948 I0.242 J-0.318
G1 X-62.367 Y-211.219
X-60.603 Y-213.533 Z-1.602 F1016
G3 X-60.043 Y-213.609 Z-1.624 I0.318 J0.242
X-59.967 Y-213.049 Z-1.646 I-0.242 J0.318
G1 X-61.937 Y-210.464 Z-1.759
G3 X-62.497 Y-210.388 Z-1.781 I-0.318 J-0.242
X-62.573 Y-210.948 Z-1.803 I0.242 J-0.318
G1 X-60.603 Y-213.533 Z-1.916
G3 X-60.043 Y-213.609 Z-1.938 I0.318 J0.242
X-59.967 Y-213.049 Z-1.96 I-0.242 J0.318
G1 X-61.937 Y-210.464 Z-2.074
G3 X-62.497 Y-210.388 Z-2.096 I-0.318 J-0.242
X-62.573 Y-210.948 Z-2.118 I0.242 J-0.318
G1 X-60.603 Y-213.533 Z-2.231
G3 X-60.043 Y-213.609 Z-2.253 I0.318 J0.242
X-59.967 Y-213.049 Z-2.275 I-0.242 J0.318
G1 X-61.937 Y-210.464 Z-2.389
G3 X-62.497 Y-210.388 Z-2.41 I-0.318 J-0.242
X-62.573 Y-210.948 Z-2.432 I0.242 J-0.318
G1 X-61.4 Y-212.488 Z-2.5
X-60.603 Y-213.533 F600
G3 X-60.043 Y-213.609 I0.318 J0.242
X-59.967 Y-213.049 I-0.242 J0.318
G1 X-61.937 Y-210.464
G3 X-62.497 Y-210.388 I-0.318 J-0.242
X-62.573 Y-210.948 I0.242 J-0.318
G1 X-61.4 Y-212.488
X-60.603 Y-213.533 Z-2.546 F1016
G3 X-60.043 Y-213.609 Z-2.568 I0.318 J0.242
X-59.967 Y-213.049 Z-2.59 I-0.242 J0.318
G1 X-61.937 Y-210.464 Z-2.703
G3 X-62.497 Y-210.388 Z-2.725 I-0.318 J-0.242
X-62.573 Y-210.948 Z-2.747 I0.242 J-0.318
G1 X-60.603 Y-213.533 Z-2.861
G3 X-60.043 Y-213.609 Z-2.883 I0.318 J0.242
X-59.967 Y-213.049 Z-2.905 I-0.242 J0.318
G1 X-61.937 Y-210.464 Z-3.018
G3 X-62.497 Y-210.388 Z-3.04 I-0.318 J-0.242
X-62.573 Y-210.948 Z-3.062 I0.242 J-0.318
G1 X-60.603 Y-213.533 Z-3.175
G3 X-60.043 Y-213.609 Z-3.197 I0.318 J0.242
X-59.967 Y-213.049 Z-3.219 I-0.242 J0.318
G1 X-61.937 Y-210.464 Z-3.333
G3 X-62.497 Y-210.388 Z-3.355 I-0.318 J-0.242
X-62.573 Y-210.948 Z-3.377 I0.242 J-0.318
G1 X-60.603 Y-213.533 Z-3.49
G3 X-60.37 Y-213.682 Z-3.5 I0.318 J0.242
X-59.967 Y-213.049 I0.085 J0.391 F600
G1 X-61.937 Y-210.464
G3 X-62.497 Y-210.388 I-0.318 J-0.242
X-62.573 Y-210.948 I0.242 J-0.318
G1 X-61.4 Y-212.488
X-60.603 Y-213.533
G3 X-60.37 Y-213.682 I0.318 J0.242
X-59.967 Y-213.049 Z-3.534 I0.085 J0.391 F1016
G1 X-61.937 Y-210.464 Z-3.648
G3 X-62.497 Y-210.388 Z-3.669 I-0.318 J-0.242
X-62.573 Y-210.948 Z-3.691 I0.242 J-0.318
G1 X-60.603 Y-213.533 Z-3.805
G3 X-60.043 Y-213.609 Z-3.827 I0.318 J0.242
X-59.967 Y-213.049 Z-3.849 I-0.242 J0.318
G1 X-61.937 Y-210.464 Z-3.962
G3 X-62.497 Y-210.388 Z-3.984 I-0.318 J-0.242
X-62.573 Y-210.948 Z-4.006 I0.242 J-0.318
G1 X-60.603 Y-213.533 Z-4.12
G3 X-60.043 Y-213.609 Z-4.142 I0.318 J0.242
X-59.967 Y-213.049 Z-4.164 I-0.242 J0.318
G1 X-61.937 Y-210.464 Z-4.277
G3 X-62.52 Y-210.407 Z-4.3 I-0.318 J-0.242
X-62.573 Y-210.948 I0.265 J-0.299 F600
G1 X-60.603 Y-213.533
G3 X-60.043 Y-213.609 I0.318 J0.242
X-59.967 Y-213.049 I-0.242 J0.318
G1 X-61.937 Y-210.464
G3 X-62.52 Y-210.407 I-0.318 J-0.242
G1 X-62.55 Y-210.443
X-62.567 Y-210.487
X-62.57 Y-210.534
X-62.558 Y-210.579
X-62.533 Y-210.619
X-62.434 Y-210.731
X-62.403 Y-210.765 Z-4.293
X-62.375 Y-210.797 Z-4.271
X-62.353 Y-210.822 Z-4.238
X-62.339 Y-210.837 Z-4.196
X-62.334 Y-210.843 Z-4.15
Z5.5
X-62.957 Y-222.619
Z3.15 F300
X-62.961 Y-222.613 Z3.104 F400
X-62.974 Y-222.596 Z3.062
X-62.994 Y-222.569 Z3.029
X-63.02 Y-222.536 Z3.007
X-63.048 Y-222.499 Z3
X-63.139 Y-222.38
X-63.173 Y-222.348
X-63.215 Y-222.327
X-63.261 Y-222.321
X-63.308 Y-222.329
X-63.349 Y-222.352
X-64.201 Y-223.001 Z2.963 F1016
G3 X-63.716 Y-223.637 Z2.919 I0.243 J-0.318
G1 X-61.131 Y-221.667 Z2.805
G3 X-61.055 Y-221.107 Z2.783 I-0.242 J0.318
X-61.616 Y-221.031 Z2.761 I-0.318 J-0.242
G1 X-64.201 Y-223.001 Z2.648
G3 X-63.716 Y-223.637 Z2.604 I0.243 J-0.318
G1 X-61.131 Y-221.667 Z2.49
G3 X-61.055 Y-221.107 Z2.468 I-0.242 J0.318
X-61.616 Y-221.031 Z2.447 I-0.318 J-0.242
G1 X-64.201 Y-223.001 Z2.333
G3 X-63.716 Y-223.637 Z2.289 I0.243 J-0.318
G1 X-61.131 Y-221.667 Z2.176
G3 X-61.055 Y-221.107 Z2.154 I-0.242 J0.318
X-61.616 Y-221.031 Z2.132 I-0.318 J-0.242
G1 X-64.201 Y-223.001 Z2.018
G3 X-63.716 Y-223.637 Z1.974 I0.243 J-0.318
G1 X-61.131 Y-221.667 Z1.861
G3 X-61.055 Y-221.107 Z1.839 I-0.242 J0.318
X-61.616 Y-221.031 Z1.817 I-0.318 J-0.242
G1 X-64.201 Y-223.001 Z1.703
G3 X-63.716 Y-223.637 Z1.66 I0.243 J-0.318
G1 X-61.131 Y-221.667 Z1.546
G3 X-61.055 Y-221.107 Z1.524 I-0.242 J0.318
X-61.616 Y-221.031 Z1.502 I-0.318 J-0.242
G1 X-64.201 Y-223.001 Z1.389
G3 X-63.716 Y-223.637 Z1.345 I0.243 J-0.318
G1 X-61.131 Y-221.667 Z1.231
G3 X-61.055 Y-221.107 Z1.209 I-0.242 J0.318
X-61.616 Y-221.031 Z1.187 I-0.318 J-0.242
G1 X-64.201 Y-223.001 Z1.074
G3 X-63.716 Y-223.637 Z1.03 I0.243 J-0.318
G1 X-61.131 Y-221.667 Z0.917
G3 X-61.055 Y-221.107 Z0.895 I-0.242 J0.318
X-61.616 Y-221.031 Z0.873 I-0.318 J-0.242
G1 X-64.201 Y-223.001 Z0.759
G3 X-63.716 Y-223.637 Z0.715 I0.243 J-0.318
G1 X-61.131 Y-221.667 Z0.602
G3 X-61.055 Y-221.107 Z0.58 I-0.242 J0.318
X-61.616 Y-221.031 Z0.558 I-0.318 J-0.242
G1 X-64.201 Y-223.001 Z0.444
G3 X-63.716 Y-223.637 Z0.4 I0.243 J-0.318
G1 X-61.131 Y-221.667 Z0.287
G3 X-61.055 Y-221.107 Z0.265 I-0.242 J0.318
X-61.616 Y-221.031 Z0.243 I-0.318 J-0.242
G1 X-64.201 Y-223.001 Z0.13
G3 X-63.716 Y-223.637 Z0.086 I0.243 J-0.318
G1 X-61.131 Y-221.667 Z-0.028
G3 X-61.055 Y-221.107 Z-0.05 I-0.242 J0.318
X-61.616 Y-221.031 Z-0.072 I-0.318 J-0.242
G1 X-64.201 Y-223.001 Z-0.185
G3 X-63.716 Y-223.637 Z-0.229 I0.243 J-0.318
G1 X-61.131 Y-221.667 Z-0.343
G3 X-61.055 Y-221.107 Z-0.365 I-0.242 J0.318
X-61.616 Y-221.031 Z-0.387 I-0.318 J-0.242
G1 X-64.201 Y-223.001 Z-0.5
G3 X-63.716 Y-223.637 I0.243 J-0.318 F600
G1 X-61.131 Y-221.667
G3 X-61.055 Y-221.107 I-0.242 J0.318
X-61.616 Y-221.031 I-0.318 J-0.242
G1 X-64.201 Y-223.001
G3 X-63.716 Y-223.637 Z-0.544 I0.243 J-0.318 F1016
G1 X-61.131 Y-221.667 Z-0.657
G3 X-61.055 Y-221.107 Z-0.679 I-0.242 J0.318
X-61.616 Y-221.031 Z-0.701 I-0.318 J-0.242
G1 X-64.201 Y-223.001 Z-0.815
G3 X-63.716 Y-223.637 Z-0.859 I0.243 J-0.318
G1 X-61.131 Y-221.667 Z-0.972
G3 X-61.055 Y-221.107 Z-0.994 I-0.242 J0.318
X-61.616 Y-221.031 Z-1.016 I-0.318 J-0.242
G1 X-64.201 Y-223.001 Z-1.13
G3 X-63.716 Y-223.637 Z-1.173 I0.243 J-0.318
G1 X-61.131 Y-221.667 Z-1.287
G3 X-61.055 Y-221.107 Z-1.309 I-0.242 J0.318
X-61.616 Y-221.031 Z-1.331 I-0.318 J-0.242
G1 X-64.201 Y-223.001 Z-1.444
G3 X-63.716 Y-223.637 Z-1.488 I0.243 J-0.318
G1 X-63.448 Y-223.434 Z-1.5
X-61.131 Y-221.667 F600
G3 X-61.055 Y-221.107 I-0.242 J0.318
X-61.616 Y-221.031 I-0.318 J-0.242
G1 X-64.201 Y-223.001
G3 X-63.716 Y-223.637 I0.243 J-0.318
G1 X-63.448 Y-223.434
X-61.131 Y-221.667 Z-1.602 F1016
G3 X-61.055 Y-221.107 Z-1.624 I-0.242 J0.318
X-61.616 Y-221.031 Z-1.646 I-0.318 J-0.242
G1 X-64.201 Y-223.001 Z-1.759
G3 X-63.716 Y-223.637 Z-1.803 I0.243 J-0.318
G1 X-61.131 Y-221.667 Z-1.917
G3 X-61.055 Y-221.107 Z-1.938 I-0.242 J0.318
X-61.616 Y-221.031 Z-1.96 I-0.318 J-0.242
G1 X-64.201 Y-223.001 Z-2.074
G3 X-63.716 Y-223.637 Z-2.118 I0.243 J-0.318
G1 X-61.131 Y-221.667 Z-2.231
G3 X-61.055 Y-221.107 Z-2.253 I-0.242 J0.318
X-61.616 Y-221.031 Z-2.275 I-0.318 J-0.242
G1 X-64.201 Y-223.001 Z-2.389
G3 X-63.716 Y-223.637 Z-2.433 I0.243 J-0.318
G1 X-62.181 Y-222.468 Z-2.5
X-61.131 Y-221.667 F600
G3 X-61.055 Y-221.107 I-0.242 J0.318
X-61.616 Y-221.031 I-0.318 J-0.242
G1 X-64.201 Y-223.001
G3 X-63.716 Y-223.637 I0.243 J-0.318
G1 X-62.181 Y-222.468
X-61.131 Y-221.667 Z-2.546 F1016
G3 X-61.055 Y-221.107 Z-2.568 I-0.242 J0.318
X-61.616 Y-221.031 Z-2.59 I-0.318 J-0.242
G1 X-64.201 Y-223.001 Z-2.703
G3 X-63.716 Y-223.637 Z-2.747 I0.243 J-0.318
G1 X-61.131 Y-221.667 Z-2.861
G3 X-61.055 Y-221.107 Z-2.883 I-0.242 J0.318
X-61.616 Y-221.031 Z-2.905 I-0.318 J-0.242
G1 X-64.201 Y-223.001 Z-3.018
G3 X-63.716 Y-223.637 Z-3.062 I0.243 J-0.318
G1 X-61.131 Y-221.667 Z-3.176
G3 X-61.055 Y-221.107 Z-3.198 I-0.242 J0.318
X-61.616 Y-221.031 Z-3.22 I-0.318 J-0.242
G1 X-64.201 Y-223.001 Z-3.333
G3 X-63.716 Y-223.637 Z-3.377 I0.243 J-0.318
G1 X-61.131 Y-221.667 Z-3.49
G3 X-60.984 Y-221.443 Z-3.5 I-0.242 J0.318
X-61.616 Y-221.031 I-0.389 J0.093 F600
G1 X-64.201 Y-223.001
G3 X-63.716 Y-223.637 I0.243 J-0.318
G1 X-62.181 Y-222.468
X-61.131 Y-221.667
G3 X-60.984 Y-221.443 I-0.242 J0.318
X-61.616 Y-221.031 Z-3.534 I-0.389 J0.093 F1016
G1 X-64.201 Y-223.001 Z-3.648
G3 X-63.716 Y-223.637 Z-3.692 I0.243 J-0.318
G1 X-61.131 Y-221.667 Z-3.805
G3 X-61.055 Y-221.107 Z-3.827 I-0.242 J0.318
X-61.616 Y-221.031 Z-3.849 I-0.318 J-0.242
G1 X-64.201 Y-223.001 Z-3.963
G3 X-63.716 Y-223.637 Z-4.007 I0.243 J-0.318
G1 X-61.131 Y-221.667 Z-4.12
G3 X-61.055 Y-221.107 Z-4.142 I-0.242 J0.318
X-61.616 Y-221.031 Z-4.164 I-0.318 J-0.242
G1 X-64.201 Y-223.001 Z-4.277
G3 X-64.265 Y-223.576 Z-4.3 I0.243 J-0.318
X-63.716 Y-223.637 I0.307 J0.257 F600
G1 X-61.131 Y-221.667
G3 X-61.055 Y-221.107 I-0.242 J0.318
X-61.616 Y-221.031 I-0.318 J-0.242
G1 X-64.201 Y-223.001
G3 X-64.265 Y-223.576 I0.243 J-0.318
G1 X-64.229 Y-223.607
X-64.186 Y-223.625
X-64.14 Y-223.63
X-64.094 Y-223.619
X-64.054 Y-223.595
X-63.939 Y-223.498
X-63.903 Y-223.469 Z-4.293
X-63.871 Y-223.442 Z-4.271
X-63.846 Y-223.42 Z-4.238
X-63.829 Y-223.407 Z-4.196
X-63.824 Y-223.402 Z-4.15
Z5.5
X-51.455 Y-224.909
Z3.15 F300
X-51.458 Y-224.916 Z3.104 F400
X-51.468 Y-224.935 Z3.062
X-51.484 Y-224.964 Z3.029
X-51.503 Y-225.001 Z3.007
X-51.524 Y-225.043 Z3
X-51.593 Y-225.176
X-51.608 Y-225.22
X-51.609 Y-225.267
X-51.595 Y-225.312
X-51.567 Y-225.35
X-51.53 Y-225.378
G3 X-51.027 Y-224.781 Z2.962 I0.185 J0.355 F1016
G1 X-52.997 Y-222.196 Z2.849
G3 X-53.557 Y-222.12 Z2.827 I-0.318 J-0.242
X-53.633 Y-222.68 Z2.805 I0.242 J-0.318
G1 X-51.663 Y-225.265 Z2.691
G3 X-51.103 Y-225.341 Z2.669 I0.318 J0.242
X-51.027 Y-224.781 Z2.648 I-0.242 J0.318
G1 X-52.997 Y-222.196 Z2.534
G3 X-53.557 Y-222.12 Z2.512 I-0.318 J-0.242
X-53.633 Y-222.68 Z2.49 I0.242 J-0.318
G1 X-51.663 Y-225.265 Z2.377
G3 X-51.103 Y-225.341 Z2.355 I0.318 J0.242
X-51.027 Y-224.781 Z2.333 I-0.242 J0.318
G1 X-52.997 Y-222.196 Z2.219
G3 X-53.557 Y-222.12 Z2.197 I-0.318 J-0.242
X-53.633 Y-222.68 Z2.175 I0.242 J-0.318
G1 X-51.663 Y-225.265 Z2.062
G3 X-51.103 Y-225.341 Z2.04 I0.318 J0.242
X-51.027 Y-224.781 Z2.018 I-0.242 J0.318
G1 X-52.997 Y-222.196 Z1.905
G3 X-53.557 Y-222.12 Z1.883 I-0.318 J-0.242
X-53.633 Y-222.68 Z1.861 I0.242 J-0.318
G1 X-51.663 Y-225.265 Z1.747
G3 X-51.103 Y-225.341 Z1.725 I0.318 J0.242
X-51.027 Y-224.781 Z1.703 I-0.242 J0.318
G1 X-52.997 Y-222.196 Z1.59
G3 X-53.557 Y-222.12 Z1.568 I-0.318 J-0.242
X-53.633 Y-222.68 Z1.546 I0.242 J-0.318
G1 X-51.663 Y-225.265 Z1.432
G3 X-51.103 Y-225.341 Z1.41 I0.318 J0.242
X-51.027 Y-224.781 Z1.389 I-0.242 J0.318
G1 X-52.997 Y-222.196 Z1.275
G3 X-53.557 Y-222.12 Z1.253 I-0.318 J-0.242
X-53.633 Y-222.68 Z1.231 I0.242 J-0.318
G1 X-51.663 Y-225.265 Z1.118
G3 X-51.103 Y-225.341 Z1.096 I0.318 J0.242
X-51.027 Y-224.781 Z1.074 I-0.242 J0.318
G1 X-52.997 Y-222.196 Z0.96
G3 X-53.557 Y-222.12 Z0.938 I-0.318 J-0.242
X-53.633 Y-222.68 Z0.916 I0.242 J-0.318
G1 X-51.663 Y-225.265 Z0.803
G3 X-51.103 Y-225.341 Z0.781 I0.318 J0.242
X-51.027 Y-224.781 Z0.759 I-0.242 J0.318
G1 X-52.997 Y-222.196 Z0.646
G3 X-53.557 Y-222.12 Z0.624 I-0.318 J-0.242
X-53.633 Y-222.68 Z0.602 I0.242 J-0.318
G1 X-51.663 Y-225.265 Z0.488
G3 X-51.103 Y-225.341 Z0.466 I0.318 J0.242
X-51.027 Y-224.781 Z0.444 I-0.242 J0.318
G1 X-52.997 Y-222.196 Z0.331
G3 X-53.557 Y-222.12 Z0.309 I-0.318 J-0.242
X-53.633 Y-222.68 Z0.287 I0.242 J-0.318
G1 X-51.663 Y-225.265 Z0.173
G3 X-51.103 Y-225.341 Z0.151 I0.318 J0.242
X-51.027 Y-224.781 Z0.13 I-0.242 J0.318
G1 X-52.997 Y-222.196 Z0.016
G3 X-53.557 Y-222.12 Z-0.006 I-0.318 J-0.242
X-53.633 Y-222.68 Z-0.028 I0.242 J-0.318
G1 X-51.663 Y-225.265 Z-0.141
G3 X-51.103 Y-225.341 Z-0.163 I0.318 J0.242
X-51.027 Y-224.781 Z-0.185 I-0.242 J0.318
G1 X-52.997 Y-222.196 Z-0.299
G3 X-53.557 Y-222.12 Z-0.321 I-0.318 J-0.242
X-53.633 Y-222.68 Z-0.343 I0.242 J-0.318
G1 X-51.663 Y-225.265 Z-0.456
G3 X-51.103 Y-225.341 Z-0.478 I0.318 J0.242
X-51.027 Y-224.781 Z-0.5 I-0.242 J0.318
G1 X-52.997 Y-222.196 F600
G3 X-53.557 Y-222.12 I-0.318 J-0.242
X-53.633 Y-222.68 I0.242 J-0.318
G1 X-51.663 Y-225.265
G3 X-51.103 Y-225.341 I0.318 J0.242
X-51.027 Y-224.781 I-0.242 J0.318
G1 X-52.997 Y-222.196 Z-0.613 F1016
G3 X-53.557 Y-222.12 Z-0.635 I-0.318 J-0.242
X-53.633 Y-222.68 Z-0.657 I0.242 J-0.318
G1 X-51.663 Y-225.265 Z-0.771
G3 X-51.103 Y-225.341 Z-0.793 I0.318 J0.242
X-51.027 Y-224.781 Z-0.815 I-0.242 J0.318
G1 X-52.997 Y-222.196 Z-0.928
G3 X-53.557 Y-222.12 Z-0.95 I-0.318 J-0.242
X-53.633 Y-222.68 Z-0.972 I0.242 J-0.318
G1 X-51.663 Y-225.265 Z-1.086
G3 X-51.103 Y-225.341 Z-1.108 I0.318 J0.242
X-51.027 Y-224.781 Z-1.13 I-0.242 J0.318
G1 X-52.997 Y-222.196 Z-1.243
G3 X-53.557 Y-222.12 Z-1.265 I-0.318 J-0.242
X-53.633 Y-222.68 Z-1.287 I0.242 J-0.318
G1 X-51.663 Y-225.265 Z-1.4
G3 X-51.103 Y-225.341 Z-1.422 I0.318 J0.242
X-51.027 Y-224.781 Z-1.444 I-0.242 J0.318
G1 X-51.994 Y-223.511 Z-1.5
X-52.997 Y-222.196 F600
G3 X-53.557 Y-222.12 I-0.318 J-0.242
X-53.633 Y-222.68 I0.242 J-0.318
G1 X-51.663 Y-225.265
G3 X-51.103 Y-225.341 I0.318 J0.242
X-51.027 Y-224.781 I-0.242 J0.318
G1 X-51.994 Y-223.511
X-52.997 Y-222.196 Z-1.558 F1016
G3 X-53.557 Y-222.12 Z-1.58 I-0.318 J-0.242
X-53.633 Y-222.68 Z-1.602 I0.242 J-0.318
G1 X-51.663 Y-225.265 Z-1.715
G3 X-51.103 Y-225.341 Z-1.737 I0.318 J0.242
X-51.027 Y-224.781 Z-1.759 I-0.242 J0.318
G1 X-52.997 Y-222.196 Z-1.872
G3 X-53.557 Y-222.12 Z-1.894 I-0.318 J-0.242
X-53.633 Y-222.68 Z-1.916 I0.242 J-0.318
G1 X-51.663 Y-225.265 Z-2.03
G3 X-51.103 Y-225.341 Z-2.052 I0.318 J0.242
X-51.027 Y-224.781 Z-2.074 I-0.242 J0.318
G1 X-52.997 Y-222.196 Z-2.187
G3 X-53.557 Y-222.12 Z-2.209 I-0.318 J-0.242
X-53.633 Y-222.68 Z-2.231 I0.242 J-0.318
G1 X-51.663 Y-225.265 Z-2.345
G3 X-51.103 Y-225.341 Z-2.367 I0.318 J0.242
X-51.027 Y-224.781 Z-2.389 I-0.242 J0.318
G1 X-52.962 Y-222.241 Z-2.5
X-52.997 Y-222.196 F600
G3 X-53.557 Y-222.12 I-0.318 J-0.242
X-53.633 Y-222.68 I0.242 J-0.318
G1 X-51.663 Y-225.265
G3 X-51.103 Y-225.341 I0.318 J0.242
X-51.027 Y-224.781 I-0.242 J0.318
G1 X-51.994 Y-223.511
X-52.962 Y-222.241
X-52.997 Y-222.196 Z-2.502 F1016
G3 X-53.557 Y-222.12 Z-2.524 I-0.318 J-0.242
X-53.633 Y-222.68 Z-2.546 I0.242 J-0.318
G1 X-51.663 Y-225.265 Z-2.659
G3 X-51.103 Y-225.341 Z-2.681 I0.318 J0.242
X-51.027 Y-224.781 Z-2.703 I-0.242 J0.318
G1 X-52.997 Y-222.196 Z-2.817
G3 X-53.557 Y-222.12 Z-2.839 I-0.318 J-0.242
X-53.633 Y-222.68 Z-2.861 I0.242 J-0.318
G1 X-51.663 Y-225.265 Z-2.974
G3 X-51.103 Y-225.341 Z-2.996 I0.318 J0.242
X-51.027 Y-224.781 Z-3.018 I-0.242 J0.318
G1 X-52.997 Y-222.196 Z-3.132
G3 X-53.557 Y-222.12 Z-3.153 I-0.318 J-0.242
X-53.633 Y-222.68 Z-3.175 I0.242 J-0.318
G1 X-51.663 Y-225.265 Z-3.289
G3 X-51.103 Y-225.341 Z-3.311 I0.318 J0.242
X-51.027 Y-224.781 Z-3.333 I-0.242 J0.318
G1 X-52.997 Y-222.196 Z-3.446
G3 X-53.557 Y-222.12 Z-3.468 I-0.318 J-0.242
X-53.633 Y-222.68 Z-3.49 I0.242 J-0.318
G1 X-53.462 Y-222.905 Z-3.5
X-51.663 Y-225.265 F600
G3 X-51.103 Y-225.341 I0.318 J0.242
X-51.027 Y-224.781 I-0.242 J0.318
G1 X-52.962 Y-222.241
X-52.997 Y-222.196
G3 X-53.557 Y-222.12 I-0.318 J-0.242
X-53.633 Y-222.68 I0.242 J-0.318
G1 X-53.462 Y-222.905
X-51.663 Y-225.265 Z-3.604 F1016
G3 X-51.103 Y-225.341 Z-3.626 I0.318 J0.242
X-51.027 Y-224.781 Z-3.648 I-0.242 J0.318
G1 X-52.997 Y-222.196 Z-3.761
G3 X-53.557 Y-222.12 Z-3.783 I-0.318 J-0.242
X-53.633 Y-222.68 Z-3.805 I0.242 J-0.318
G1 X-51.663 Y-225.265 Z-3.918
G3 X-51.103 Y-225.341 Z-3.94 I0.318 J0.242
X-51.027 Y-224.781 Z-3.962 I-0.242 J0.318
G1 X-52.997 Y-222.196 Z-4.076
G3 X-53.557 Y-222.12 Z-4.098 I-0.318 J-0.242
X-53.633 Y-222.68 Z-4.12 I0.242 J-0.318
G1 X-51.663 Y-225.265 Z-4.233
G3 X-51.103 Y-225.341 Z-4.255 I0.318 J0.242
X-51.027 Y-224.781 Z-4.277 I-0.242 J0.318
G1 X-51.426 Y-224.257 Z-4.3
X-52.997 Y-222.196 F600
G3 X-53.557 Y-222.12 I-0.318 J-0.242
X-53.633 Y-222.68 I0.242 J-0.318
G1 X-51.663 Y-225.265
G3 X-51.103 Y-225.341 I0.318 J0.242
X-51.027 Y-224.781 I-0.242 J0.318
G1 X-51.426 Y-224.257
X-51.46 Y-224.225
X-51.502 Y-224.204
X-51.548 Y-224.198
X-51.595 Y-224.206
X-51.636 Y-224.229
X-51.755 Y-224.32
X-51.792 Y-224.348 Z-4.293
X-51.825 Y-224.373 Z-4.271
X-51.852 Y-224.393 Z-4.238
X-51.869 Y-224.406 Z-4.196
X-51.875 Y-224.411 Z-4.15
Z5.5
X-51.232 Y-213.683
Z3.15 F300
X-51.236 Y-213.677 Z3.104 F400
X-51.249 Y-213.661 Z3.062
X-51.269 Y-213.634 Z3.029
X-51.294 Y-213.601 Z3.007
X-51.323 Y-213.564 Z3
X-51.413 Y-213.445
X-51.447 Y-213.412
X-51.49 Y-213.392
X-51.536 Y-213.386
X-51.582 Y-213.394
X-51.624 Y-213.416
X-52.469 Y-214.061 Z2.963 F1016
G3 X-52.545 Y-214.621 Z2.941 I0.242 J-0.318
X-51.984 Y-214.697 Z2.919 I0.318 J0.242
G1 X-49.399 Y-212.727 Z2.805
G3 X-49.323 Y-212.167 Z2.784 I-0.242 J0.318
X-49.884 Y-212.091 Z2.762 I-0.318 J-0.242
G1 X-52.469 Y-214.061 Z2.648
G3 X-52.545 Y-214.621 Z2.626 I0.242 J-0.318
X-51.984 Y-214.697 Z2.604 I0.318 J0.242
G1 X-49.399 Y-212.727 Z2.491
G3 X-49.323 Y-212.167 Z2.469 I-0.242 J0.318
X-49.884 Y-212.091 Z2.447 I-0.318 J-0.242
G1 X-52.469 Y-214.061 Z2.333
G3 X-52.545 Y-214.621 Z2.311 I0.242 J-0.318
X-51.984 Y-214.697 Z2.289 I0.318 J0.242
G1 X-49.399 Y-212.727 Z2.176
G3 X-49.323 Y-212.167 Z2.154 I-0.242 J0.318
X-49.884 Y-212.091 Z2.132 I-0.318 J-0.242
G1 X-52.469 Y-214.061 Z2.018
G3 X-52.545 Y-214.621 Z1.997 I0.242 J-0.318
X-51.984 Y-214.697 Z1.975 I0.318 J0.242
G1 X-49.399 Y-212.727 Z1.861
G3 X-49.323 Y-212.167 Z1.839 I-0.242 J0.318
X-49.884 Y-212.091 Z1.817 I-0.318 J-0.242
G1 X-52.469 Y-214.061 Z1.704
G3 X-52.545 Y-214.621 Z1.682 I0.242 J-0.318
X-51.984 Y-214.697 Z1.66 I0.318 J0.242
G1 X-49.399 Y-212.727 Z1.546
G3 X-49.323 Y-212.167 Z1.524 I-0.242 J0.318
X-49.884 Y-212.091 Z1.502 I-0.318 J-0.242
G1 X-52.469 Y-214.061 Z1.389
G3 X-52.545 Y-214.621 Z1.367 I0.242 J-0.318
X-51.984 Y-214.697 Z1.345 I0.318 J0.242
G1 X-49.399 Y-212.727 Z1.231
G3 X-49.323 Y-212.167 Z1.209 I-0.242 J0.318
X-49.884 Y-212.091 Z1.188 I-0.318 J-0.242
G1 X-52.469 Y-214.061 Z1.074
G3 X-52.545 Y-214.621 Z1.052 I0.242 J-0.318
X-51.984 Y-214.697 Z1.03 I0.318 J0.242
G1 X-49.399 Y-212.727 Z0.917
G3 X-49.323 Y-212.167 Z0.895 I-0.242 J0.318
X-49.884 Y-212.091 Z0.873 I-0.318 J-0.242
G1 X-52.469 Y-214.061 Z0.759
G3 X-52.545 Y-214.621 Z0.737 I0.242 J-0.318
X-51.984 Y-214.697 Z0.715 I0.318 J0.242
G1 X-49.399 Y-212.727 Z0.602
G3 X-49.323 Y-212.167 Z0.58 I-0.242 J0.318
X-49.884 Y-212.091 Z0.558 I-0.318 J-0.242
G1 X-52.469 Y-214.061 Z0.444
G3 X-52.545 Y-214.621 Z0.422 I0.242 J-0.318
X-51.984 Y-214.697 Z0.401 I0.318 J0.242
G1 X-49.399 Y-212.727 Z0.287
G3 X-49.323 Y-212.167 Z0.265 I-0.242 J0.318
X-49.884 Y-212.091 Z0.243 I-0.318 J-0.242
G1 X-52.469 Y-214.061 Z0.13
G3 X-52.545 Y-214.621 Z0.108 I0.242 J-0.318
X-51.984 Y-214.697 Z0.086 I0.318 J0.242
G1 X-49.399 Y-212.727 Z-0.028
G3 X-49.323 Y-212.167 Z-0.05 I-0.242 J0.318
X-49.884 Y-212.091 Z-0.072 I-0.318 J-0.242
G1 X-52.469 Y-214.061 Z-0.185
G3 X-52.545 Y-214.621 Z-0.207 I0.242 J-0.318
X-51.984 Y-214.697 Z-0.229 I0.318 J0.242
G1 X-49.399 Y-212.727 Z-0.343
G3 X-49.323 Y-212.167 Z-0.365 I-0.242 J0.318
X-49.884 Y-212.091 Z-0.387 I-0.318 J-0.242
G1 X-52.469 Y-214.061 Z-0.5
G3 X-52.545 Y-214.621 I0.242 J-0.318 F600
X-51.984 Y-214.697 I0.318 J0.242
G1 X-49.399 Y-212.727
G3 X-49.323 Y-212.167 I-0.242 J0.318
X-49.884 Y-212.091 I-0.318 J-0.242
G1 X-52.469 Y-214.061
G3 X-52.545 Y-214.621 Z-0.522 I0.242 J-0.318 F1016
X-51.984 Y-214.697 Z-0.544 I0.318 J0.242
G1 X-49.399 Y-212.727 Z-0.657
G3 X-49.323 Y-212.167 Z-0.679 I-0.242 J0.318
X-49.884 Y-212.091 Z-0.701 I-0.318 J-0.242
G1 X-52.469 Y-214.061 Z-0.815
G3 X-52.545 Y-214.621 Z-0.837 I0.242 J-0.318
X-51.984 Y-214.697 Z-0.859 I0.318 J0.242
G1 X-49.399 Y-212.727 Z-0.972
G3 X-49.323 Y-212.167 Z-0.994 I-0.242 J0.318
X-49.884 Y-212.091 Z-1.016 I-0.318 J-0.242
G1 X-52.469 Y-214.061 Z-1.13
G3 X-52.545 Y-214.621 Z-1.152 I0.242 J-0.318
X-51.984 Y-214.697 Z-1.174 I0.318 J0.242
G1 X-49.399 Y-212.727 Z-1.287
G3 X-49.323 Y-212.167 Z-1.309 I-0.242 J0.318
X-49.884 Y-212.091 Z-1.331 I-0.318 J-0.242
G1 X-52.469 Y-214.061 Z-1.444
G3 X-52.545 Y-214.621 Z-1.466 I0.242 J-0.318
X-51.984 Y-214.697 Z-1.488 I0.318 J0.242
G1 X-51.718 Y-214.495 Z-1.5
X-49.399 Y-212.727 F600
G3 X-49.323 Y-212.167 I-0.242 J0.318
X-49.884 Y-212.091 I-0.318 J-0.242
G1 X-52.469 Y-214.061
G3 X-52.545 Y-214.621 I0.242 J-0.318
X-51.984 Y-214.697 I0.318 J0.242
G1 X-51.718 Y-214.495
X-49.399 Y-212.727 Z-1.602 F1016
G3 X-49.323 Y-212.167 Z-1.624 I-0.242 J0.318
X-49.884 Y-212.091 Z-1.646 I-0.318 J-0.242
G1 X-52.469 Y-214.061 Z-1.759
G3 X-52.545 Y-214.621 Z-1.781 I0.242 J-0.318
X-51.984 Y-214.697 Z-1.803 I0.318 J0.242
G1 X-49.399 Y-212.727 Z-1.917
G3 X-49.323 Y-212.167 Z-1.939 I-0.242 J0.318
X-49.884 Y-212.091 Z-1.961 I-0.318 J-0.242
G1 X-52.469 Y-214.061 Z-2.074
G3 X-52.545 Y-214.621 Z-2.096 I0.242 J-0.318
X-51.984 Y-214.697 Z-2.118 I0.318 J0.242
G1 X-49.399 Y-212.727 Z-2.231
G3 X-49.323 Y-212.167 Z-2.253 I-0.242 J0.318
X-49.884 Y-212.091 Z-2.275 I-0.318 J-0.242
G1 X-52.469 Y-214.061 Z-2.389
G3 X-52.545 Y-214.621 Z-2.411 I0.242 J-0.318
X-51.984 Y-214.697 Z-2.433 I0.318 J0.242
G1 X-50.453 Y-213.53 Z-2.5
X-49.399 Y-212.727 F600
G3 X-49.323 Y-212.167 I-0.242 J0.318
X-49.884 Y-212.091 I-0.318 J-0.242
G1 X-52.469 Y-214.061
G3 X-52.545 Y-214.621 I0.242 J-0.318
X-51.984 Y-214.697 I0.318 J0.242
G1 X-50.453 Y-213.53
X-49.399 Y-212.727 Z-2.546 F1016
G3 X-49.323 Y-212.167 Z-2.568 I-0.242 J0.318
X-49.884 Y-212.091 Z-2.59 I-0.318 J-0.242
G1 X-52.469 Y-214.061 Z-2.704
G3 X-52.545 Y-214.621 Z-2.726 I0.242 J-0.318
X-51.984 Y-214.697 Z-2.748 I0.318 J0.242
G1 X-49.399 Y-212.727 Z-2.861
G3 X-49.323 Y-212.167 Z-2.883 I-0.242 J0.318
X-49.884 Y-212.091 Z-2.905 I-0.318 J-0.242
G1 X-52.469 Y-214.061 Z-3.018
G3 X-52.545 Y-214.621 Z-3.04 I0.242 J-0.318
X-51.984 Y-214.697 Z-3.062 I0.318 J0.242
G1 X-49.399 Y-212.727 Z-3.176
G3 X-49.323 Y-212.167 Z-3.198 I-0.242 J0.318
X-49.884 Y-212.091 Z-3.22 I-0.318 J-0.242
G1 X-52.469 Y-214.061 Z-3.333
G3 X-52.545 Y-214.621 Z-3.355 I0.242 J-0.318
X-51.984 Y-214.697 Z-3.377 I0.318 J0.242
G1 X-49.399 Y-212.727 Z-3.491
G3 X-49.254 Y-212.509 Z-3.5 I-0.242 J0.318
X-49.884 Y-212.091 I-0.388 J0.1 F600
G1 X-52.469 Y-214.061
G3 X-52.545 Y-214.621 I0.242 J-0.318
X-51.984 Y-214.697 I0.318 J0.242
G1 X-50.453 Y-213.53
X-49.399 Y-212.727
G3 X-49.254 Y-212.509 I-0.242 J0.318
X-49.884 Y-212.091 Z-3.535 I-0.388 J0.1 F1016
G1 X-52.469 Y-214.061 Z-3.648
G3 X-52.545 Y-214.621 Z-3.67 I0.242 J-0.318
X-51.984 Y-214.697 Z-3.692 I0.318 J0.242
G1 X-49.399 Y-212.727 Z-3.805
G3 X-49.323 Y-212.167 Z-3.827 I-0.242 J0.318
X-49.884 Y-212.091 Z-3.849 I-0.318 J-0.242
G1 X-52.469 Y-214.061 Z-3.963
G3 X-52.545 Y-214.621 Z-3.985 I0.242 J-0.318
X-51.984 Y-214.697 Z-4.007 I0.318 J0.242
G1 X-49.399 Y-212.727 Z-4.12
G3 X-49.323 Y-212.167 Z-4.142 I-0.242 J0.318
X-49.884 Y-212.091 Z-4.164 I-0.318 J-0.242
G1 X-52.469 Y-214.061 Z-4.278
G3 X-52.539 Y-214.629 Z-4.3 I0.242 J-0.318
X-51.984 Y-214.697 I0.312 J0.25 F600
G1 X-49.399 Y-212.727
G3 X-49.323 Y-212.167 I-0.242 J0.318
X-49.884 Y-212.091 I-0.318 J-0.242
G1 X-52.469 Y-214.061
G3 X-52.539 Y-214.629 I0.242 J-0.318
G1 X-52.504 Y-214.661
X-52.461 Y-214.68
X-52.415 Y-214.685
X-52.369 Y-214.676
X-52.328 Y-214.653
X-52.211 Y-214.559
X-52.175 Y-214.53 Z-4.293
X-52.142 Y-214.504 Z-4.271
X-52.116 Y-214.483 Z-4.238
X-52.1 Y-214.469 Z-4.196
X-52.094 Y-214.465 Z-4.15
Z5.5
X-163.78 Y-223.242
Z3.15 F300
X-163.781 Y-223.249 Z3.104 F400
X-163.785 Y-223.27 Z3.062
X-163.792 Y-223.303 Z3.029
X-163.799 Y-223.344 Z3.007
X-163.808 Y-223.389 Z3
X-163.836 Y-223.537
X-163.838 Y-223.584
X-163.824 Y-223.629
X-163.798 Y-223.668
X-163.761 Y-223.696
X-163.717 Y-223.712
G3 X-163.399 Y-223.001 Z2.963 I0.075 J0.393 F1016
G1 X-165.984 Y-221.032 Z2.849
G3 X-166.545 Y-221.107 Z2.827 I-0.243 J-0.318
X-166.47 Y-221.667 Z2.805 I0.318 J-0.243
G1 X-163.884 Y-223.637 Z2.692
G3 X-163.399 Y-223.001 Z2.648 I0.242 J0.318
G1 X-165.984 Y-221.032 Z2.534
G3 X-166.545 Y-221.107 Z2.512 I-0.243 J-0.318
X-166.47 Y-221.667 Z2.49 I0.318 J-0.243
G1 X-163.884 Y-223.637 Z2.377
G3 X-163.399 Y-223.001 Z2.333 I0.242 J0.318
G1 X-165.984 Y-221.032 Z2.22
G3 X-166.545 Y-221.107 Z2.198 I-0.243 J-0.318
X-166.47 Y-221.667 Z2.176 I0.318 J-0.243
G1 X-163.884 Y-223.637 Z2.062
G3 X-163.399 Y-223.001 Z2.018 I0.242 J0.318
G1 X-165.984 Y-221.032 Z1.905
G3 X-166.545 Y-221.107 Z1.883 I-0.243 J-0.318
X-166.47 Y-221.667 Z1.861 I0.318 J-0.243
G1 X-163.884 Y-223.637 Z1.747
G3 X-163.399 Y-223.001 Z1.703 I0.242 J0.318
G1 X-165.984 Y-221.032 Z1.59
G3 X-166.545 Y-221.107 Z1.568 I-0.243 J-0.318
X-166.47 Y-221.667 Z1.546 I0.318 J-0.243
G1 X-163.884 Y-223.637 Z1.433
G3 X-163.399 Y-223.001 Z1.389 I0.242 J0.318
G1 X-165.984 Y-221.032 Z1.275
G3 X-166.545 Y-221.107 Z1.253 I-0.243 J-0.318
X-166.47 Y-221.667 Z1.231 I0.318 J-0.243
G1 X-163.884 Y-223.637 Z1.118
G3 X-163.399 Y-223.001 Z1.074 I0.242 J0.318
G1 X-165.984 Y-221.032 Z0.96
G3 X-166.545 Y-221.107 Z0.938 I-0.243 J-0.318
X-166.47 Y-221.667 Z0.917 I0.318 J-0.243
G1 X-163.884 Y-223.637 Z0.803
G3 X-163.399 Y-223.001 Z0.759 I0.242 J0.318
G1 X-165.984 Y-221.032 Z0.646
G3 X-166.545 Y-221.107 Z0.624 I-0.243 J-0.318
X-166.47 Y-221.667 Z0.602 I0.318 J-0.243
G1 X-163.884 Y-223.637 Z0.488
G3 X-163.399 Y-223.001 Z0.444 I0.242 J0.318
G1 X-165.984 Y-221.032 Z0.331
G3 X-166.545 Y-221.107 Z0.309 I-0.243 J-0.318
X-166.47 Y-221.667 Z0.287 I0.318 J-0.243
G1 X-163.884 Y-223.637 Z0.173
G3 X-163.399 Y-223.001 Z0.13 I0.242 J0.318
G1 X-165.984 Y-221.032 Z0.016
G3 X-166.545 Y-221.107 Z-0.006 I-0.243 J-0.318
X-166.47 Y-221.667 Z-0.028 I0.318 J-0.243
G1 X-163.884 Y-223.637 Z-0.141
G3 X-163.399 Y-223.001 Z-0.185 I0.242 J0.318
G1 X-165.984 Y-221.032 Z-0.299
G3 X-166.545 Y-221.107 Z-0.321 I-0.243 J-0.318
X-166.47 Y-221.667 Z-0.343 I0.318 J-0.243
G1 X-163.884 Y-223.637 Z-0.456
G3 X-163.399 Y-223.001 Z-0.5 I0.242 J0.318
G1 X-165.984 Y-221.032 F600
G3 X-166.545 Y-221.107 I-0.243 J-0.318
X-166.47 Y-221.667 I0.318 J-0.243
G1 X-163.884 Y-223.637
G3 X-163.399 Y-223.001 I0.242 J0.318
G1 X-165.984 Y-221.032 Z-0.613 F1016
G3 X-166.545 Y-221.107 Z-0.635 I-0.243 J-0.318
X-166.47 Y-221.667 Z-0.657 I0.318 J-0.243
G1 X-163.884 Y-223.637 Z-0.771
G3 X-163.399 Y-223.001 Z-0.815 I0.242 J0.318
G1 X-165.984 Y-221.032 Z-0.928
G3 X-166.545 Y-221.107 Z-0.95 I-0.243 J-0.318
X-166.47 Y-221.667 Z-0.972 I0.318 J-0.243
G1 X-163.884 Y-223.637 Z-1.086
G3 X-163.399 Y-223.001 Z-1.13 I0.242 J0.318
G1 X-165.984 Y-221.032 Z-1.243
G3 X-166.545 Y-221.107 Z-1.265 I-0.243 J-0.318
X-166.47 Y-221.667 Z-1.287 I0.318 J-0.243
G1 X-163.884 Y-223.637 Z-1.4
G3 X-163.399 Y-223.001 Z-1.444 I0.242 J0.318
G1 X-164.668 Y-222.035 Z-1.5
X-165.984 Y-221.032 F600
G3 X-166.545 Y-221.107 I-0.243 J-0.318
X-166.47 Y-221.667 I0.318 J-0.243
G1 X-163.884 Y-223.637
G3 X-163.399 Y-223.001 I0.242 J0.318
G1 X-164.668 Y-222.035
X-165.984 Y-221.032 Z-1.558 F1016
G3 X-166.545 Y-221.107 Z-1.58 I-0.243 J-0.318
X-166.47 Y-221.667 Z-1.602 I0.318 J-0.243
G1 X-163.884 Y-223.637 Z-1.715
G3 X-163.399 Y-223.001 Z-1.759 I0.242 J0.318
G1 X-165.984 Y-221.032 Z-1.873
G3 X-166.545 Y-221.107 Z-1.895 I-0.243 J-0.318
X-166.47 Y-221.667 Z-1.916 I0.318 J-0.243
G1 X-163.884 Y-223.637 Z-2.03
G3 X-163.399 Y-223.001 Z-2.074 I0.242 J0.318
G1 X-165.984 Y-221.032 Z-2.187
G3 X-166.545 Y-221.107 Z-2.209 I-0.243 J-0.318
X-166.47 Y-221.667 Z-2.231 I0.318 J-0.243
G1 X-163.884 Y-223.637 Z-2.345
G3 X-163.399 Y-223.001 Z-2.389 I0.242 J0.318
G1 X-165.936 Y-221.069 Z-2.5
X-165.984 Y-221.032 F600
G3 X-166.545 Y-221.107 I-0.243 J-0.318
X-166.47 Y-221.667 I0.318 J-0.243
G1 X-163.884 Y-223.637
G3 X-163.399 Y-223.001 I0.242 J0.318
G1 X-164.668 Y-222.035
X-165.936 Y-221.069
X-165.984 Y-221.032 Z-2.502 F1016
G3 X-166.545 Y-221.107 Z-2.524 I-0.243 J-0.318
X-166.47 Y-221.667 Z-2.546 I0.318 J-0.243
G1 X-163.884 Y-223.637 Z-2.66
G3 X-163.399 Y-223.001 Z-2.703 I0.242 J0.318
G1 X-165.984 Y-221.032 Z-2.817
G3 X-166.545 Y-221.107 Z-2.839 I-0.243 J-0.318
X-166.47 Y-221.667 Z-2.861 I0.318 J-0.243
G1 X-163.884 Y-223.637 Z-2.974
G3 X-163.399 Y-223.001 Z-3.018 I0.242 J0.318
G1 X-165.984 Y-221.032 Z-3.132
G3 X-166.545 Y-221.107 Z-3.154 I-0.243 J-0.318
X-166.47 Y-221.667 Z-3.176 I0.318 J-0.243
G1 X-163.884 Y-223.637 Z-3.289
G3 X-163.399 Y-223.001 Z-3.333 I0.242 J0.318
G1 X-165.984 Y-221.032 Z-3.446
G3 X-166.545 Y-221.107 Z-3.468 I-0.243 J-0.318
X-166.47 Y-221.667 Z-3.49 I0.318 J-0.243
G1 X-166.25 Y-221.834 Z-3.5
X-163.884 Y-223.637 F600
G3 X-163.399 Y-223.001 I0.242 J0.318
G1 X-165.936 Y-221.069
X-165.984 Y-221.032
G3 X-166.545 Y-221.107 I-0.243 J-0.318
X-166.47 Y-221.667 I0.318 J-0.243
G1 X-166.25 Y-221.834
X-163.884 Y-223.637 Z-3.604 F1016
G3 X-163.399 Y-223.001 Z-3.648 I0.242 J0.318
G1 X-165.984 Y-221.032 Z-3.761
G3 X-166.545 Y-221.107 Z-3.783 I-0.243 J-0.318
X-166.47 Y-221.667 Z-3.805 I0.318 J-0.243
G1 X-163.884 Y-223.637 Z-3.919
G3 X-163.399 Y-223.001 Z-3.963 I0.242 J0.318
G1 X-165.984 Y-221.032 Z-4.076
G3 X-166.545 Y-221.107 Z-4.098 I-0.243 J-0.318
X-166.47 Y-221.667 Z-4.12 I0.318 J-0.243
G1 X-163.884 Y-223.637 Z-4.233
G3 X-163.399 Y-223.001 Z-4.277 I0.242 J0.318
G1 X-163.916 Y-222.607 Z-4.3
X-165.984 Y-221.032 F600
G3 X-166.545 Y-221.107 I-0.243 J-0.318
X-166.47 Y-221.667 I0.318 J-0.243
G1 X-163.884 Y-223.637
G3 X-163.399 Y-223.001 I0.242 J0.318
G1 X-163.916 Y-222.607
X-163.957 Y-222.585
X-164.003 Y-222.577
X-164.05 Y-222.583
X-164.092 Y-222.603
X-164.126 Y-222.636
X-164.217 Y-222.755
X-164.245 Y-222.792 Z-4.293
X-164.27 Y-222.825 Z-4.271
X-164.29 Y-222.852 Z-4.238
X-164.303 Y-222.869 Z-4.196
X-164.308 Y-222.874 Z-4.15
Z5.5
X-174.679 Y-222.872
Z3.15 F300
X-174.673 Y-222.877 Z3.104 F400
X-174.656 Y-222.89 Z3.062
X-174.629 Y-222.91 Z3.029
X-174.596 Y-222.935 Z3.007
X-174.559 Y-222.963 Z3
X-174.44 Y-223.054
X-174.399 Y-223.076
X-174.352 Y-223.085
X-174.306 Y-223.079
X-174.264 Y-223.058
X-174.23 Y-223.026
X-173.967 Y-222.681 Z2.985 F1016
G3 X-174.042 Y-222.12 Z2.963 I-0.318 J0.243
X-174.603 Y-222.195 Z2.941 I-0.243 J-0.318
G1 X-176.573 Y-224.781 Z2.827
G3 X-175.937 Y-225.266 Z2.784 I0.318 J-0.242
G1 X-173.967 Y-222.681 Z2.67
G3 X-174.042 Y-222.12 Z2.648 I-0.318 J0.243
X-174.603 Y-222.195 Z2.626 I-0.243 J-0.318
G1 X-176.573 Y-224.781 Z2.513
G3 X-175.937 Y-225.266 Z2.469 I0.318 J-0.242
G1 X-173.967 Y-222.681 Z2.355
G3 X-174.042 Y-222.12 Z2.333 I-0.318 J0.243
X-174.603 Y-222.195 Z2.311 I-0.243 J-0.318
G1 X-176.573 Y-224.781 Z2.198
G3 X-175.937 Y-225.266 Z2.154 I0.318 J-0.242
G1 X-173.967 Y-222.681 Z2.04
G3 X-174.042 Y-222.12 Z2.018 I-0.318 J0.243
X-174.603 Y-222.195 Z1.997 I-0.243 J-0.318
G1 X-176.573 Y-224.781 Z1.883
G3 X-175.937 Y-225.266 Z1.839 I0.318 J-0.242
G1 X-173.967 Y-222.681 Z1.726
G3 X-174.042 Y-222.12 Z1.704 I-0.318 J0.243
X-174.603 Y-222.195 Z1.682 I-0.243 J-0.318
G1 X-176.573 Y-224.781 Z1.568
G3 X-175.937 Y-225.266 Z1.524 I0.318 J-0.242
G1 X-173.967 Y-222.681 Z1.411
G3 X-174.042 Y-222.12 Z1.389 I-0.318 J0.243
X-174.603 Y-222.195 Z1.367 I-0.243 J-0.318
G1 X-176.573 Y-224.781 Z1.253
G3 X-175.937 Y-225.266 Z1.209 I0.318 J-0.242
G1 X-173.967 Y-222.681 Z1.096
G3 X-174.042 Y-222.12 Z1.074 I-0.318 J0.243
X-174.603 Y-222.195 Z1.052 I-0.243 J-0.318
G1 X-176.573 Y-224.781 Z0.939
G3 X-175.937 Y-225.266 Z0.895 I0.318 J-0.242
G1 X-173.967 Y-222.681 Z0.781
G3 X-174.042 Y-222.12 Z0.759 I-0.318 J0.243
X-174.603 Y-222.195 Z0.737 I-0.243 J-0.318
G1 X-176.573 Y-224.781 Z0.624
G3 X-175.937 Y-225.266 Z0.58 I0.318 J-0.242
G1 X-173.967 Y-222.681 Z0.466
G3 X-174.042 Y-222.12 Z0.444 I-0.318 J0.243
X-174.603 Y-222.195 Z0.422 I-0.243 J-0.318
G1 X-176.573 Y-224.781 Z0.309
G3 X-175.937 Y-225.266 Z0.265 I0.318 J-0.242
G1 X-173.967 Y-222.681 Z0.152
G3 X-174.042 Y-222.12 Z0.13 I-0.318 J0.243
X-174.603 Y-222.195 Z0.108 I-0.243 J-0.318
G1 X-176.573 Y-224.781 Z-0.006
G3 X-175.937 Y-225.266 Z-0.05 I0.318 J-0.242
G1 X-173.967 Y-222.681 Z-0.163
G3 X-174.042 Y-222.12 Z-0.185 I-0.318 J0.243
X-174.603 Y-222.195 Z-0.207 I-0.243 J-0.318
G1 X-176.573 Y-224.781 Z-0.321
G3 X-175.937 Y-225.266 Z-0.365 I0.318 J-0.242
G1 X-173.967 Y-222.681 Z-0.478
G3 X-174.042 Y-222.12 Z-0.5 I-0.318 J0.243
X-174.603 Y-222.195 I-0.243 J-0.318 F600
G1 X-176.573 Y-224.781
G3 X-175.937 Y-225.266 I0.318 J-0.242
G1 X-173.967 Y-222.681
G3 X-174.042 Y-222.12 I-0.318 J0.243
X-174.603 Y-222.195 Z-0.522 I-0.243 J-0.318 F1016
G1 X-176.573 Y-224.781 Z-0.635
G3 X-175.937 Y-225.266 Z-0.679 I0.318 J-0.242
G1 X-173.967 Y-222.681 Z-0.793
G3 X-174.042 Y-222.12 Z-0.815 I-0.318 J0.243
X-174.603 Y-222.195 Z-0.837 I-0.243 J-0.318
G1 X-176.573 Y-224.781 Z-0.95
G3 X-175.937 Y-225.266 Z-0.994 I0.318 J-0.242
G1 X-173.967 Y-222.681 Z-1.108
G3 X-174.042 Y-222.12 Z-1.13 I-0.318 J0.243
X-174.603 Y-222.195 Z-1.152 I-0.243 J-0.318
G1 X-176.573 Y-224.781 Z-1.265
G3 X-175.937 Y-225.266 Z-1.309 I0.318 J-0.242
G1 X-173.967 Y-222.681 Z-1.422
G3 X-174.042 Y-222.12 Z-1.444 I-0.318 J0.243
X-174.603 Y-222.195 Z-1.466 I-0.243 J-0.318
G1 X-175.187 Y-222.961 Z-1.5
X-176.573 Y-224.781 F600
G3 X-175.937 Y-225.266 I0.318 J-0.242
G1 X-173.967 Y-222.681
G3 X-174.042 Y-222.12 I-0.318 J0.243
X-174.603 Y-222.195 I-0.243 J-0.318
G1 X-175.187 Y-222.961
X-176.573 Y-224.781 Z-1.58 F1016
G3 X-175.937 Y-225.266 Z-1.624 I0.318 J-0.242
G1 X-173.967 Y-222.681 Z-1.737
G3 X-174.042 Y-222.12 Z-1.759 I-0.318 J0.243
X-174.603 Y-222.195 Z-1.781 I-0.243 J-0.318
G1 X-176.573 Y-224.781 Z-1.895
G3 X-175.937 Y-225.266 Z-1.939 I0.318 J-0.242
G1 X-173.967 Y-222.681 Z-2.052
G3 X-174.042 Y-222.12 Z-2.074 I-0.318 J0.243
X-174.603 Y-222.195 Z-2.096 I-0.243 J-0.318
G1 X-176.573 Y-224.781 Z-2.209
G3 X-175.937 Y-225.266 Z-2.253 I0.318 J-0.242
G1 X-173.967 Y-222.681 Z-2.367
G3 X-174.042 Y-222.12 Z-2.389 I-0.318 J0.243
X-174.603 Y-222.195 Z-2.411 I-0.243 J-0.318
G1 X-176.152 Y-224.227 Z-2.5
X-176.573 Y-224.781 F600
G3 X-175.937 Y-225.266 I0.318 J-0.242
G1 X-173.967 Y-222.681
G3 X-174.042 Y-222.12 I-0.318 J0.243
X-174.603 Y-222.195 I-0.243 J-0.318
G1 X-176.152 Y-224.227
X-176.573 Y-224.781 Z-2.524 F1016
G3 X-175.937 Y-225.266 Z-2.568 I0.318 J-0.242
G1 X-173.967 Y-222.681 Z-2.682
G3 X-174.042 Y-222.12 Z-2.704 I-0.318 J0.243
X-174.603 Y-222.195 Z-2.726 I-0.243 J-0.318
G1 X-176.573 Y-224.781 Z-2.839
G3 X-175.937 Y-225.266 Z-2.883 I0.318 J-0.242
G1 X-173.967 Y-222.681 Z-2.996
G3 X-174.042 Y-222.12 Z-3.018 I-0.318 J0.243
X-174.603 Y-222.195 Z-3.04 I-0.243 J-0.318
G1 X-176.573 Y-224.781 Z-3.154
G3 X-175.937 Y-225.266 Z-3.198 I0.318 J-0.242
G1 X-173.967 Y-222.681 Z-3.311
G3 X-174.042 Y-222.12 Z-3.333 I-0.318 J0.243
X-174.603 Y-222.195 Z-3.355 I-0.243 J-0.318
G1 X-176.573 Y-224.781 Z-3.469
G3 X-176.249 Y-225.423 Z-3.5 I0.318 J-0.242
X-175.937 Y-225.266 I-0.006 J0.4 F600
G1 X-173.967 Y-222.681
G3 X-174.042 Y-222.12 I-0.318 J0.243
X-174.603 Y-222.195 I-0.243 J-0.318
G1 X-176.152 Y-224.227
X-176.573 Y-224.781
G3 X-176.249 Y-225.423 I0.318 J-0.242
X-175.937 Y-225.266 Z-3.513 I-0.006 J0.4 F1016
G1 X-173.967 Y-222.681 Z-3.626
G3 X-174.042 Y-222.12 Z-3.648 I-0.318 J0.243
X-174.603 Y-222.195 Z-3.67 I-0.243 J-0.318
G1 X-176.573 Y-224.781 Z-3.784
G3 X-175.937 Y-225.266 Z-3.827 I0.318 J-0.242
G1 X-173.967 Y-222.681 Z-3.941
G3 X-174.042 Y-222.12 Z-3.963 I-0.318 J0.243
X-174.603 Y-222.195 Z-3.985 I-0.243 J-0.318
G1 X-176.573 Y-224.781 Z-4.098
G3 X-175.937 Y-225.266 Z-4.142 I0.318 J-0.242
G1 X-173.967 Y-222.681 Z-4.256
G3 X-174.042 Y-222.12 Z-4.278 I-0.318 J0.243
X-174.603 Y-222.195 Z-4.3 I-0.243 J-0.318
G1 X-174.609 Y-222.203
X-176.573 Y-224.781 F600
G3 X-175.937 Y-225.266 I0.318 J-0.242
G1 X-173.967 Y-222.681
G3 X-174.042 Y-222.12 I-0.318 J0.243
X-174.603 Y-222.195 I-0.243 J-0.318
G1 X-174.609 Y-222.203
X-174.632 Y-222.245
X-174.64 Y-222.291
X-174.634 Y-222.337
X-174.613 Y-222.38
X-174.581 Y-222.414
X-174.462 Y-222.505
X-174.425 Y-222.533 Z-4.293
X-174.392 Y-222.558 Z-4.271
X-174.365 Y-222.578 Z-4.238
X-174.348 Y-222.591 Z-4.196
X-174.342 Y-222.595 Z-4.15
Z5.5
X-177.024 Y-213.184
Z3.15 F300
X-177.019 Y-213.178 Z3.104 F400
X-177.006 Y-213.161 Z3.062
X-176.986 Y-213.134 Z3.029
X-176.961 Y-213.101 Z3.007
X-176.933 Y-213.064 Z3
X-176.842 Y-212.945
X-176.82 Y-212.904
X-176.811 Y-212.858
X-176.817 Y-212.811
X-176.838 Y-212.769
X-176.87 Y-212.735
X-177.716 Y-212.091 Z2.963 F1016
G3 X-178.201 Y-212.727 Z2.919 I-0.242 J-0.318
G1 X-175.615 Y-214.697 Z2.805
G3 X-175.13 Y-214.061 Z2.762 I0.242 J0.318
G1 X-177.716 Y-212.091 Z2.648
G3 X-178.201 Y-212.727 Z2.604 I-0.242 J-0.318
G1 X-175.615 Y-214.697 Z2.491
G3 X-175.13 Y-214.061 Z2.447 I0.242 J0.318
G1 X-177.716 Y-212.091 Z2.333
G3 X-178.201 Y-212.727 Z2.289 I-0.242 J-0.318
G1 X-175.615 Y-214.697 Z2.176
G3 X-175.13 Y-214.061 Z2.132 I0.242 J0.318
G1 X-177.716 Y-212.091 Z2.018
G3 X-178.201 Y-212.727 Z1.975 I-0.242 J-0.318
G1 X-175.615 Y-214.697 Z1.861
G3 X-175.13 Y-214.061 Z1.817 I0.242 J0.318
G1 X-177.716 Y-212.091 Z1.704
G3 X-178.201 Y-212.727 Z1.66 I-0.242 J-0.318
G1 X-175.615 Y-214.697 Z1.546
G3 X-175.13 Y-214.061 Z1.502 I0.242 J0.318
G1 X-177.716 Y-212.091 Z1.389
G3 X-178.201 Y-212.727 Z1.345 I-0.242 J-0.318
G1 X-175.615 Y-214.697 Z1.231
G3 X-175.13 Y-214.061 Z1.188 I0.242 J0.318
G1 X-177.716 Y-212.091 Z1.074
G3 X-178.201 Y-212.727 Z1.03 I-0.242 J-0.318
G1 X-175.615 Y-214.697 Z0.917
G3 X-175.13 Y-214.061 Z0.873 I0.242 J0.318
G1 X-177.716 Y-212.091 Z0.759
G3 X-178.201 Y-212.727 Z0.715 I-0.242 J-0.318
G1 X-175.615 Y-214.697 Z0.602
G3 X-175.13 Y-214.061 Z0.558 I0.242 J0.318
G1 X-177.716 Y-212.091 Z0.444
G3 X-178.201 Y-212.727 Z0.401 I-0.242 J-0.318
G1 X-175.615 Y-214.697 Z0.287
G3 X-175.13 Y-214.061 Z0.243 I0.242 J0.318
G1 X-177.716 Y-212.091 Z0.13
G3 X-178.201 Y-212.727 Z0.086 I-0.242 J-0.318
G1 X-175.615 Y-214.697 Z-0.028
G3 X-175.13 Y-214.061 Z-0.072 I0.242 J0.318
G1 X-177.716 Y-212.091 Z-0.185
G3 X-178.201 Y-212.727 Z-0.229 I-0.242 J-0.318
G1 X-175.615 Y-214.697 Z-0.343
G3 X-175.13 Y-214.061 Z-0.387 I0.242 J0.318
G1 X-177.715 Y-212.091 Z-0.5
X-177.716 F600
G3 X-178.201 Y-212.727 I-0.242 J-0.318
G1 X-175.615 Y-214.697
G3 X-175.13 Y-214.061 I0.242 J0.318
G1 X-177.715 Y-212.091
X-177.716 F1016
G3 X-178.201 Y-212.727 Z-0.544 I-0.242 J-0.318
G1 X-175.615 Y-214.697 Z-0.657
G3 X-175.13 Y-214.061 Z-0.701 I0.242 J0.318
G1 X-177.716 Y-212.091 Z-0.815
G3 X-178.201 Y-212.727 Z-0.859 I-0.242 J-0.318
G1 X-175.615 Y-214.697 Z-0.972
G3 X-175.13 Y-214.061 Z-1.016 I0.242 J0.318
G1 X-177.716 Y-212.091 Z-1.13
G3 X-178.201 Y-212.727 Z-1.174 I-0.242 J-0.318
G1 X-175.615 Y-214.697 Z-1.287
G3 X-175.13 Y-214.061 Z-1.331 I0.242 J0.318
G1 X-177.716 Y-212.091 Z-1.444
G3 X-178.201 Y-212.727 Z-1.488 I-0.242 J-0.318
G1 X-177.935 Y-212.93 Z-1.5
X-175.615 Y-214.697 F600
G3 X-175.13 Y-214.061 I0.242 J0.318
G1 X-177.715 Y-212.091
X-177.716
G3 X-178.201 Y-212.727 I-0.242 J-0.318
G1 X-177.935 Y-212.93
X-175.615 Y-214.697 Z-1.602 F1016
G3 X-175.13 Y-214.061 Z-1.646 I0.242 J0.318
G1 X-177.716 Y-212.091 Z-1.759
G3 X-178.201 Y-212.727 Z-1.803 I-0.242 J-0.318
G1 X-175.615 Y-214.697 Z-1.917
G3 X-175.13 Y-214.061 Z-1.961 I0.242 J0.318
G1 X-177.716 Y-212.091 Z-2.074
G3 X-178.201 Y-212.727 Z-2.118 I-0.242 J-0.318
G1 X-175.615 Y-214.697 Z-2.231
G3 X-175.13 Y-214.061 Z-2.275 I0.242 J0.318
G1 X-177.716 Y-212.091 Z-2.389
G3 X-178.201 Y-212.727 Z-2.433 I-0.242 J-0.318
G1 X-176.669 Y-213.895 Z-2.5
X-175.615 Y-214.697 F600
G3 X-175.13 Y-214.061 I0.242 J0.318
G1 X-177.716 Y-212.091
G3 X-178.201 Y-212.727 I-0.242 J-0.318
G1 X-176.669 Y-213.895
X-175.615 Y-214.697 Z-2.546 F1016
G3 X-175.13 Y-214.061 Z-2.59 I0.242 J0.318
G1 X-177.716 Y-212.091 Z-2.704
G3 X-178.201 Y-212.727 Z-2.748 I-0.242 J-0.318
G1 X-175.615 Y-214.697 Z-2.861
G3 X-175.13 Y-214.061 Z-2.905 I0.242 J0.318
G1 X-177.716 Y-212.091 Z-3.018
G3 X-178.201 Y-212.727 Z-3.062 I-0.242 J-0.318
G1 X-175.615 Y-214.697 Z-3.176
G3 X-175.13 Y-214.061 Z-3.22 I0.242 J0.318
G1 X-177.716 Y-212.091 Z-3.333
G3 X-178.201 Y-212.727 Z-3.377 I-0.242 J-0.318
G1 X-175.615 Y-214.697 Z-3.491
G3 X-175.367 Y-214.779 Z-3.5 I0.242 J0.318
X-175.13 Y-214.061 I-0.006 J0.4 F600
G1 X-177.716 Y-212.091
G3 X-178.201 Y-212.727 I-0.242 J-0.318
G1 X-176.669 Y-213.895
X-175.615 Y-214.697
G3 X-175.367 Y-214.779 I0.242 J0.318
X-175.13 Y-214.061 Z-3.535 I-0.006 J0.4 F1016
G1 X-177.716 Y-212.091 Z-3.648
G3 X-178.201 Y-212.727 Z-3.692 I-0.242 J-0.318
G1 X-175.615 Y-214.697 Z-3.805
G3 X-175.13 Y-214.061 Z-3.849 I0.242 J0.318
G1 X-177.716 Y-212.091 Z-3.963
G3 X-178.201 Y-212.727 Z-4.007 I-0.242 J-0.318
G1 X-175.615 Y-214.697 Z-4.12
G3 X-175.13 Y-214.061 Z-4.164 I0.242 J0.318
G1 X-177.716 Y-212.091 Z-4.278
G3 X-178.282 Y-212.174 Z-4.3 I-0.242 J-0.318
X-178.201 Y-212.727 I0.324 J-0.235 F600
G1 X-175.615 Y-214.697
G3 X-175.13 Y-214.061 I0.242 J0.318
G1 X-177.716 Y-212.091
G3 X-178.282 Y-212.174 I-0.242 J-0.318
G1 X-178.303 Y-212.216
X-178.311 Y-212.263
X-178.303 Y-212.309
X-178.282 Y-212.351
X-178.249 Y-212.384
X-178.127 Y-212.472
X-178.09 Y-212.499 Z-4.293
X-178.056 Y-212.523 Z-4.271
X-178.029 Y-212.543 Z-4.238
X-178.012 Y-212.555 Z-4.196
X-178.006 Y-212.56 Z-4.15
Z5.5
X-166.54 Y-212.357
Z3.15 F300
X-166.546 Y-212.352 Z3.104 F400
X-166.563 Y-212.339 Z3.062
X-166.59 Y-212.319 Z3.029
X-166.623 Y-212.294 Z3.007
X-166.66 Y-212.266 Z3
X-166.779 Y-212.175
X-166.82 Y-212.153
X-166.866 Y-212.144
X-166.913 Y-212.15
X-166.955 Y-212.171
X-166.989 Y-212.203
X-167.633 Y-213.049 Z2.963 F1016
G3 X-166.997 Y-213.534 Z2.919 I0.318 J-0.242
G1 X-165.027 Y-210.948 Z2.805
G3 X-165.663 Y-210.463 Z2.762 I-0.318 J0.242
G1 X-167.633 Y-213.049 Z2.648
G3 X-166.997 Y-213.534 Z2.604 I0.318 J-0.242
G1 X-165.027 Y-210.948 Z2.491
G3 X-165.663 Y-210.463 Z2.447 I-0.318 J0.242
G1 X-167.633 Y-213.049 Z2.333
G3 X-166.997 Y-213.534 Z2.289 I0.318 J-0.242
G1 X-165.027 Y-210.948 Z2.176
G3 X-165.663 Y-210.463 Z2.132 I-0.318 J0.242
G1 X-167.633 Y-213.049 Z2.018
G3 X-166.997 Y-213.534 Z1.975 I0.318 J-0.242
G1 X-165.027 Y-210.948 Z1.861
G3 X-165.663 Y-210.463 Z1.817 I-0.318 J0.242
G1 X-167.633 Y-213.049 Z1.704
G3 X-166.997 Y-213.534 Z1.66 I0.318 J-0.242
G1 X-165.027 Y-210.948 Z1.546
G3 X-165.663 Y-210.463 Z1.502 I-0.318 J0.242
G1 X-167.633 Y-213.049 Z1.389
G3 X-166.997 Y-213.534 Z1.345 I0.318 J-0.242
G1 X-165.027 Y-210.948 Z1.231
G3 X-165.663 Y-210.463 Z1.188 I-0.318 J0.242
G1 X-167.633 Y-213.049 Z1.074
G3 X-166.997 Y-213.534 Z1.03 I0.318 J-0.242
G1 X-165.027 Y-210.948 Z0.917
G3 X-165.663 Y-210.463 Z0.873 I-0.318 J0.242
G1 X-167.633 Y-213.049 Z0.759
G3 X-166.997 Y-213.534 Z0.715 I0.318 J-0.242
G1 X-165.027 Y-210.948 Z0.602
G3 X-165.663 Y-210.463 Z0.558 I-0.318 J0.242
G1 X-167.633 Y-213.049 Z0.444
G3 X-166.997 Y-213.534 Z0.401 I0.318 J-0.242
G1 X-165.027 Y-210.948 Z0.287
G3 X-165.663 Y-210.463 Z0.243 I-0.318 J0.242
G1 X-167.633 Y-213.049 Z0.13
G3 X-166.997 Y-213.534 Z0.086 I0.318 J-0.242
G1 X-165.027 Y-210.948 Z-0.028
G3 X-165.663 Y-210.463 Z-0.072 I-0.318 J0.242
G1 X-167.633 Y-213.049 Z-0.185
G3 X-166.997 Y-213.534 Z-0.229 I0.318 J-0.242
G1 X-165.027 Y-210.948 Z-0.343
G3 X-165.663 Y-210.463 Z-0.387 I-0.318 J0.242
G1 X-167.633 Y-213.048 Z-0.5
Y-213.049 F600
G3 X-166.997 Y-213.534 I0.318 J-0.242
G1 X-165.027 Y-210.948
G3 X-165.663 Y-210.463 I-0.318 J0.242
G1 X-167.633 Y-213.048
Y-213.049 F1016
G3 X-166.997 Y-213.534 Z-0.544 I0.318 J-0.242
G1 X-165.027 Y-210.948 Z-0.657
G3 X-165.663 Y-210.463 Z-0.701 I-0.318 J0.242
G1 X-167.633 Y-213.049 Z-0.815
G3 X-166.997 Y-213.534 Z-0.859 I0.318 J-0.242
G1 X-165.027 Y-210.948 Z-0.972
G3 X-165.663 Y-210.463 Z-1.016 I-0.318 J0.242
G1 X-167.633 Y-213.049 Z-1.13
G3 X-166.997 Y-213.534 Z-1.174 I0.318 J-0.242
G1 X-165.027 Y-210.948 Z-1.287
G3 X-165.663 Y-210.463 Z-1.331 I-0.318 J0.242
G1 X-167.633 Y-213.049 Z-1.444
G3 X-166.997 Y-213.534 Z-1.488 I0.318 J-0.242
G1 X-166.794 Y-213.268 Z-1.5
X-165.027 Y-210.948 F600
G3 X-165.663 Y-210.463 I-0.318 J0.242
G1 X-167.633 Y-213.048
Y-213.049
G3 X-166.997 Y-213.534 I0.318 J-0.242
G1 X-166.794 Y-213.268
X-165.027 Y-210.948 Z-1.602 F1016
G3 X-165.663 Y-210.463 Z-1.646 I-0.318 J0.242
G1 X-167.633 Y-213.049 Z-1.759
G3 X-166.997 Y-213.534 Z-1.803 I0.318 J-0.242
G1 X-165.027 Y-210.948 Z-1.917
G3 X-165.663 Y-210.463 Z-1.961 I-0.318 J0.242
G1 X-167.633 Y-213.049 Z-2.074
G3 X-166.997 Y-213.534 Z-2.118 I0.318 J-0.242
G1 X-165.027 Y-210.948 Z-2.231
G3 X-165.663 Y-210.463 Z-2.275 I-0.318 J0.242
G1 X-167.633 Y-213.049 Z-2.389
G3 X-166.997 Y-213.534 Z-2.433 I0.318 J-0.242
G1 X-165.829 Y-212.002 Z-2.5
X-165.027 Y-210.948 F600
G3 X-165.663 Y-210.463 I-0.318 J0.242
G1 X-167.633 Y-213.049
G3 X-166.997 Y-213.534 I0.318 J-0.242
G1 X-165.829 Y-212.002
X-165.027 Y-210.948 Z-2.546 F1016
G3 X-165.663 Y-210.463 Z-2.59 I-0.318 J0.242
G1 X-167.633 Y-213.049 Z-2.704
G3 X-166.997 Y-213.534 Z-2.748 I0.318 J-0.242
G1 X-165.027 Y-210.948 Z-2.861
G3 X-165.663 Y-210.463 Z-2.905 I-0.318 J0.242
G1 X-167.633 Y-213.049 Z-3.018
G3 X-166.997 Y-213.534 Z-3.062 I0.318 J-0.242
G1 X-165.027 Y-210.948 Z-3.176
G3 X-165.663 Y-210.463 Z-3.22 I-0.318 J0.242
G1 X-167.633 Y-213.049 Z-3.333
G3 X-166.997 Y-213.534 Z-3.377 I0.318 J-0.242
G1 X-165.027 Y-210.948 Z-3.491
G3 X-164.945 Y-210.7 Z-3.5 I-0.318 J0.242
X-165.663 Y-210.463 I-0.4 J-0.006 F600
G1 X-167.633 Y-213.049
G3 X-166.997 Y-213.534 I0.318 J-0.242
G1 X-165.829 Y-212.002
X-165.027 Y-210.948
G3 X-164.945 Y-210.7 I-0.318 J0.242
X-165.663 Y-210.463 Z-3.535 I-0.4 J-0.006 F1016
G1 X-167.633 Y-213.049 Z-3.648
G3 X-166.997 Y-213.534 Z-3.692 I0.318 J-0.242
G1 X-165.027 Y-210.948 Z-3.805
G3 X-165.663 Y-210.463 Z-3.849 I-0.318 J0.242
G1 X-167.633 Y-213.049 Z-3.963
G3 X-166.997 Y-213.534 Z-4.007 I0.318 J-0.242
G1 X-165.027 Y-210.948 Z-4.12
G3 X-165.663 Y-210.463 Z-4.164 I-0.318 J0.242
G1 X-167.633 Y-213.049 Z-4.278
G3 X-167.55 Y-213.615 Z-4.3 I0.318 J-0.242
X-166.997 Y-213.534 I0.235 J0.324 F600
G1 X-165.027 Y-210.948
G3 X-165.663 Y-210.463 I-0.318 J0.242
G1 X-167.633 Y-213.049
G3 X-167.55 Y-213.615 I0.318 J-0.242
G1 X-167.508 Y-213.637
X-167.461 Y-213.644
X-167.415 Y-213.636
X-167.373 Y-213.615
X-167.34 Y-213.582
X-167.252 Y-213.46
X-167.225 Y-213.423 Z-4.293
X-167.201 Y-213.389 Z-4.271
X-167.181 Y-213.362 Z-4.238
X-167.169 Y-213.345 Z-4.196
X-167.164 Y-213.339 Z-4.15
Z5.5
X-166.619 Y-73.832
Z3.15 F300
X-166.613 Y-73.828 Z3.104 F400
X-166.597 Y-73.815 Z3.062
X-166.57 Y-73.795 Z3.029
X-166.537 Y-73.77 Z3.007
X-166.5 Y-73.742 Z3
X-166.381 Y-73.651
X-166.348 Y-73.617
X-166.328 Y-73.574
X-166.322 Y-73.528
X-166.33 Y-73.482
X-166.352 Y-73.44
X-166.997 Y-72.595 Z2.963 F1016
G3 X-167.557 Y-72.519 Z2.941 I-0.318 J-0.242
X-167.633 Y-73.08 Z2.919 I0.242 J-0.318
G1 X-165.663 Y-75.665 Z2.805
G3 X-165.027 Y-75.18 Z2.762 I0.318 J0.242
G1 X-166.997 Y-72.595 Z2.648
G3 X-167.557 Y-72.519 Z2.626 I-0.318 J-0.242
X-167.633 Y-73.08 Z2.604 I0.242 J-0.318
G1 X-165.663 Y-75.665 Z2.491
G3 X-165.027 Y-75.18 Z2.447 I0.318 J0.242
G1 X-166.997 Y-72.595 Z2.333
G3 X-167.557 Y-72.519 Z2.311 I-0.318 J-0.242
X-167.633 Y-73.08 Z2.289 I0.242 J-0.318
G1 X-165.663 Y-75.665 Z2.176
G3 X-165.027 Y-75.18 Z2.132 I0.318 J0.242
G1 X-166.997 Y-72.595 Z2.018
G3 X-167.557 Y-72.519 Z1.997 I-0.318 J-0.242
X-167.633 Y-73.08 Z1.975 I0.242 J-0.318
G1 X-165.663 Y-75.665 Z1.861
G3 X-165.027 Y-75.18 Z1.817 I0.318 J0.242
G1 X-166.997 Y-72.595 Z1.704
G3 X-167.557 Y-72.519 Z1.682 I-0.318 J-0.242
X-167.633 Y-73.08 Z1.66 I0.242 J-0.318
G1 X-165.663 Y-75.665 Z1.546
G3 X-165.027 Y-75.18 Z1.502 I0.318 J0.242
G1 X-166.997 Y-72.595 Z1.389
G3 X-167.557 Y-72.519 Z1.367 I-0.318 J-0.242
X-167.633 Y-73.08 Z1.345 I0.242 J-0.318
G1 X-165.663 Y-75.665 Z1.231
G3 X-165.027 Y-75.18 Z1.188 I0.318 J0.242
G1 X-166.997 Y-72.595 Z1.074
G3 X-167.557 Y-72.519 Z1.052 I-0.318 J-0.242
X-167.633 Y-73.08 Z1.03 I0.242 J-0.318
G1 X-165.663 Y-75.665 Z0.917
G3 X-165.027 Y-75.18 Z0.873 I0.318 J0.242
G1 X-166.997 Y-72.595 Z0.759
G3 X-167.557 Y-72.519 Z0.737 I-0.318 J-0.242
X-167.633 Y-73.08 Z0.715 I0.242 J-0.318
G1 X-165.663 Y-75.665 Z0.602
G3 X-165.027 Y-75.18 Z0.558 I0.318 J0.242
G1 X-166.997 Y-72.595 Z0.444
G3 X-167.557 Y-72.519 Z0.422 I-0.318 J-0.242
X-167.633 Y-73.08 Z0.401 I0.242 J-0.318
G1 X-165.663 Y-75.665 Z0.287
G3 X-165.027 Y-75.18 Z0.243 I0.318 J0.242
G1 X-166.997 Y-72.595 Z0.13
G3 X-167.557 Y-72.519 Z0.108 I-0.318 J-0.242
X-167.633 Y-73.08 Z0.086 I0.242 J-0.318
G1 X-165.663 Y-75.665 Z-0.028
G3 X-165.027 Y-75.18 Z-0.072 I0.318 J0.242
G1 X-166.997 Y-72.595 Z-0.185
G3 X-167.557 Y-72.519 Z-0.207 I-0.318 J-0.242
X-167.633 Y-73.08 Z-0.229 I0.242 J-0.318
G1 X-165.663 Y-75.665 Z-0.343
G3 X-165.027 Y-75.18 Z-0.387 I0.318 J0.242
G1 X-166.997 Y-72.595 Z-0.5
G3 X-167.557 Y-72.519 I-0.318 J-0.242 F600
X-167.633 Y-73.08 I0.242 J-0.318
G1 X-165.663 Y-75.665
G3 X-165.027 Y-75.18 I0.318 J0.242
G1 X-166.997 Y-72.595
G3 X-167.557 Y-72.519 Z-0.522 I-0.318 J-0.242 F1016
X-167.633 Y-73.08 Z-0.544 I0.242 J-0.318
G1 X-165.663 Y-75.665 Z-0.657
G3 X-165.027 Y-75.18 Z-0.701 I0.318 J0.242
G1 X-166.997 Y-72.595 Z-0.815
G3 X-167.557 Y-72.519 Z-0.837 I-0.318 J-0.242
X-167.633 Y-73.08 Z-0.859 I0.242 J-0.318
G1 X-165.663 Y-75.665 Z-0.972
G3 X-165.027 Y-75.18 Z-1.016 I0.318 J0.242
G1 X-166.997 Y-72.595 Z-1.13
G3 X-167.557 Y-72.519 Z-1.152 I-0.318 J-0.242
X-167.633 Y-73.08 Z-1.174 I0.242 J-0.318
G1 X-165.663 Y-75.665 Z-1.287
G3 X-165.027 Y-75.18 Z-1.331 I0.318 J0.242
G1 X-166.997 Y-72.595 Z-1.444
G3 X-167.557 Y-72.519 Z-1.466 I-0.318 J-0.242
X-167.633 Y-73.08 Z-1.488 I0.242 J-0.318
G1 X-167.431 Y-73.346 Z-1.5
X-165.663 Y-75.665 F600
G3 X-165.027 Y-75.18 I0.318 J0.242
G1 X-166.997 Y-72.595
G3 X-167.557 Y-72.519 I-0.318 J-0.242
X-167.633 Y-73.08 I0.242 J-0.318
G1 X-167.431 Y-73.346
X-165.663 Y-75.665 Z-1.602 F1016
G3 X-165.027 Y-75.18 Z-1.646 I0.318 J0.242
G1 X-166.997 Y-72.595 Z-1.759
G3 X-167.557 Y-72.519 Z-1.781 I-0.318 J-0.242
X-167.633 Y-73.08 Z-1.803 I0.242 J-0.318
G1 X-165.663 Y-75.665 Z-1.917
G3 X-165.027 Y-75.18 Z-1.961 I0.318 J0.242
G1 X-166.997 Y-72.595 Z-2.074
G3 X-167.557 Y-72.519 Z-2.096 I-0.318 J-0.242
X-167.633 Y-73.08 Z-2.118 I0.242 J-0.318
G1 X-165.663 Y-75.665 Z-2.231
G3 X-165.027 Y-75.18 Z-2.275 I0.318 J0.242
G1 X-166.997 Y-72.595 Z-2.389
G3 X-167.557 Y-72.519 Z-2.411 I-0.318 J-0.242
X-167.633 Y-73.08 Z-2.433 I0.242 J-0.318
G1 X-166.466 Y-74.612 Z-2.5
X-165.663 Y-75.665 F600
G3 X-165.027 Y-75.18 I0.318 J0.242
G1 X-166.997 Y-72.595
G3 X-167.557 Y-72.519 I-0.318 J-0.242
X-167.633 Y-73.08 I0.242 J-0.318
G1 X-166.466 Y-74.612
X-165.663 Y-75.665 Z-2.546 F1016
G3 X-165.027 Y-75.18 Z-2.59 I0.318 J0.242
G1 X-166.997 Y-72.595 Z-2.704
G3 X-167.557 Y-72.519 Z-2.726 I-0.318 J-0.242
X-167.633 Y-73.08 Z-2.748 I0.242 J-0.318
G1 X-165.663 Y-75.665 Z-2.861
G3 X-165.027 Y-75.18 Z-2.905 I0.318 J0.242
G1 X-166.997 Y-72.595 Z-3.018
G3 X-167.557 Y-72.519 Z-3.04 I-0.318 J-0.242
X-167.633 Y-73.08 Z-3.062 I0.242 J-0.318
G1 X-165.663 Y-75.665 Z-3.176
G3 X-165.027 Y-75.18 Z-3.22 I0.318 J0.242
G1 X-166.997 Y-72.595 Z-3.333
G3 X-167.557 Y-72.519 Z-3.355 I-0.318 J-0.242
X-167.633 Y-73.08 Z-3.377 I0.242 J-0.318
G1 X-165.663 Y-75.665 Z-3.491
G3 X-165.445 Y-75.81 Z-3.5 I0.318 J0.242
X-165.027 Y-75.18 I0.1 J0.388 F600
G1 X-166.997 Y-72.595
G3 X-167.557 Y-72.519 I-0.318 J-0.242
X-167.633 Y-73.08 I0.242 J-0.318
G1 X-166.466 Y-74.612
X-165.663 Y-75.665
G3 X-165.445 Y-75.81 I0.318 J0.242
X-165.027 Y-75.18 Z-3.535 I0.1 J0.388 F1016
G1 X-166.997 Y-72.595 Z-3.648
G3 X-167.557 Y-72.519 Z-3.67 I-0.318 J-0.242
X-167.633 Y-73.08 Z-3.692 I0.242 J-0.318
G1 X-165.663 Y-75.665 Z-3.805
G3 X-165.027 Y-75.18 Z-3.849 I0.318 J0.242
G1 X-166.997 Y-72.595 Z-3.963
G3 X-167.557 Y-72.519 Z-3.985 I-0.318 J-0.242
X-167.633 Y-73.08 Z-4.007 I0.242 J-0.318
G1 X-165.663 Y-75.665 Z-4.12
G3 X-165.027 Y-75.18 Z-4.164 I0.318 J0.242
G1 X-166.997 Y-72.595 Z-4.278
G3 X-167.565 Y-72.525 Z-4.3 I-0.318 J-0.242
X-167.633 Y-73.08 I0.25 J-0.312 F600
G1 X-165.663 Y-75.665
G3 X-165.027 Y-75.18 I0.318 J0.242
G1 X-166.997 Y-72.595
G3 X-167.565 Y-72.525 I-0.318 J-0.242
G1 X-167.597 Y-72.56
X-167.616 Y-72.603
X-167.621 Y-72.649
X-167.612 Y-72.695
X-167.589 Y-72.736
X-167.495 Y-72.853
X-167.466 Y-72.889 Z-4.293
X-167.44 Y-72.922 Z-4.271
X-167.419 Y-72.948 Z-4.238
X-167.405 Y-72.965 Z-4.196
X-167.401 Y-72.97 Z-4.15
Z5.5
X-176.949 Y-73.013
Z3.15 F300
X-176.953 Y-73.007 Z3.104 F400
X-176.966 Y-72.99 Z3.062
X-176.986 Y-72.964 Z3.029
X-177.012 Y-72.931 Z3.007
X-177.04 Y-72.894 Z3
X-177.131 Y-72.774
X-177.165 Y-72.742
X-177.207 Y-72.722
X-177.253 Y-72.715
X-177.3 Y-72.724
X-177.341 Y-72.746
X-178.2 Y-73.401 Z2.962 F1016
G3 X-178.276 Y-73.962 Z2.94 I0.242 J-0.318
X-177.716 Y-74.037 Z2.918 I0.318 J0.242
G1 X-175.131 Y-72.067 Z2.805
G3 X-175.055 Y-71.507 Z2.783 I-0.242 J0.318
X-175.615 Y-71.431 Z2.761 I-0.318 J-0.242
G1 X-178.2 Y-73.401 Z2.648
G3 X-178.276 Y-73.962 Z2.626 I0.242 J-0.318
X-177.716 Y-74.037 Z2.604 I0.318 J0.242
G1 X-175.131 Y-72.067 Z2.49
G3 X-175.055 Y-71.507 Z2.468 I-0.242 J0.318
X-175.615 Y-71.431 Z2.446 I-0.318 J-0.242
G1 X-178.2 Y-73.401 Z2.333
G3 X-178.276 Y-73.962 Z2.311 I0.242 J-0.318
X-177.716 Y-74.037 Z2.289 I0.318 J0.242
G1 X-175.131 Y-72.067 Z2.175
G3 X-175.055 Y-71.507 Z2.153 I-0.242 J0.318
X-175.615 Y-71.431 Z2.132 I-0.318 J-0.242
G1 X-178.2 Y-73.401 Z2.018
G3 X-178.276 Y-73.962 Z1.996 I0.242 J-0.318
X-177.716 Y-74.037 Z1.974 I0.318 J0.242
G1 X-175.131 Y-72.067 Z1.861
G3 X-175.055 Y-71.507 Z1.839 I-0.242 J0.318
X-175.615 Y-71.431 Z1.817 I-0.318 J-0.242
G1 X-178.2 Y-73.401 Z1.703
G3 X-178.276 Y-73.962 Z1.681 I0.242 J-0.318
X-177.716 Y-74.037 Z1.659 I0.318 J0.242
G1 X-175.131 Y-72.067 Z1.546
G3 X-175.055 Y-71.507 Z1.524 I-0.242 J0.318
X-175.615 Y-71.431 Z1.502 I-0.318 J-0.242
G1 X-178.2 Y-73.401 Z1.389
G3 X-178.276 Y-73.962 Z1.367 I0.242 J-0.318
X-177.716 Y-74.037 Z1.345 I0.318 J0.242
G1 X-175.131 Y-72.067 Z1.231
G3 X-175.055 Y-71.507 Z1.209 I-0.242 J0.318
X-175.615 Y-71.431 Z1.187 I-0.318 J-0.242
G1 X-178.2 Y-73.401 Z1.074
G3 X-178.276 Y-73.962 Z1.052 I0.242 J-0.318
X-177.716 Y-74.037 Z1.03 I0.318 J0.242
G1 X-175.131 Y-72.067 Z0.916
G3 X-175.055 Y-71.507 Z0.894 I-0.242 J0.318
X-175.615 Y-71.431 Z0.872 I-0.318 J-0.242
G1 X-178.2 Y-73.401 Z0.759
G3 X-178.276 Y-73.962 Z0.737 I0.242 J-0.318
X-177.716 Y-74.037 Z0.715 I0.318 J0.242
G1 X-175.131 Y-72.067 Z0.602
G3 X-175.055 Y-71.507 Z0.58 I-0.242 J0.318
X-175.615 Y-71.431 Z0.558 I-0.318 J-0.242
G1 X-178.2 Y-73.401 Z0.444
G3 X-178.276 Y-73.962 Z0.422 I0.242 J-0.318
X-177.716 Y-74.037 Z0.4 I0.318 J0.242
G1 X-175.131 Y-72.067 Z0.287
G3 X-175.055 Y-71.507 Z0.265 I-0.242 J0.318
X-175.615 Y-71.431 Z0.243 I-0.318 J-0.242
G1 X-178.2 Y-73.401 Z0.13
G3 X-178.276 Y-73.962 Z0.108 I0.242 J-0.318
X-177.716 Y-74.037 Z0.086 I0.318 J0.242
G1 X-175.131 Y-72.067 Z-0.028
G3 X-175.055 Y-71.507 Z-0.05 I-0.242 J0.318
X-175.615 Y-71.431 Z-0.072 I-0.318 J-0.242
G1 X-178.2 Y-73.401 Z-0.185
G3 X-178.276 Y-73.962 Z-0.207 I0.242 J-0.318
X-177.716 Y-74.037 Z-0.229 I0.318 J0.242
G1 X-175.131 Y-72.067 Z-0.343
G3 X-175.055 Y-71.507 Z-0.365 I-0.242 J0.318
X-175.615 Y-71.431 Z-0.387 I-0.318 J-0.242
G1 X-178.2 Y-73.401 Z-0.5
G3 X-178.276 Y-73.962 I0.242 J-0.318 F600
X-177.716 Y-74.037 I0.318 J0.242
G1 X-175.131 Y-72.067
G3 X-175.055 Y-71.507 I-0.242 J0.318
X-175.615 Y-71.431 I-0.318 J-0.242
G1 X-178.2 Y-73.401
G3 X-178.276 Y-73.962 Z-0.522 I0.242 J-0.318 F1016
X-177.716 Y-74.037 Z-0.544 I0.318 J0.242
G1 X-175.131 Y-72.067 Z-0.657
G3 X-175.055 Y-71.507 Z-0.679 I-0.242 J0.318
X-175.615 Y-71.431 Z-0.701 I-0.318 J-0.242
G1 X-178.2 Y-73.401 Z-0.815
G3 X-178.276 Y-73.962 Z-0.837 I0.242 J-0.318
X-177.716 Y-74.037 Z-0.859 I0.318 J0.242
G1 X-175.131 Y-72.067 Z-0.972
G3 X-175.055 Y-71.507 Z-0.994 I-0.242 J0.318
X-175.615 Y-71.431 Z-1.016 I-0.318 J-0.242
G1 X-178.2 Y-73.401 Z-1.13
G3 X-178.276 Y-73.962 Z-1.151 I0.242 J-0.318
X-177.716 Y-74.037 Z-1.173 I0.318 J0.242
G1 X-175.131 Y-72.067 Z-1.287
G3 X-175.055 Y-71.507 Z-1.309 I-0.242 J0.318
X-175.615 Y-71.431 Z-1.331 I-0.318 J-0.242
G1 X-178.2 Y-73.401 Z-1.444
G3 X-178.276 Y-73.962 Z-1.466 I0.242 J-0.318
X-177.716 Y-74.037 Z-1.488 I0.318 J0.242
G1 X-177.445 Y-73.831 Z-1.5
X-175.131 Y-72.067 F600
G3 X-175.055 Y-71.507 I-0.242 J0.318
X-175.615 Y-71.431 I-0.318 J-0.242
G1 X-178.2 Y-73.401
G3 X-178.276 Y-73.962 I0.242 J-0.318
X-177.716 Y-74.037 I0.318 J0.242
G1 X-177.445 Y-73.831
X-175.131 Y-72.067 Z-1.602 F1016
G3 X-175.055 Y-71.507 Z-1.624 I-0.242 J0.318
X-175.615 Y-71.431 Z-1.646 I-0.318 J-0.242
G1 X-178.2 Y-73.401 Z-1.759
G3 X-178.276 Y-73.962 Z-1.781 I0.242 J-0.318
X-177.716 Y-74.037 Z-1.803 I0.318 J0.242
G1 X-175.131 Y-72.067 Z-1.916
G3 X-175.055 Y-71.507 Z-1.938 I-0.242 J0.318
X-175.615 Y-71.431 Z-1.96 I-0.318 J-0.242
G1 X-178.2 Y-73.401 Z-2.074
G3 X-178.276 Y-73.962 Z-2.096 I0.242 J-0.318
X-177.716 Y-74.037 Z-2.118 I0.318 J0.242
G1 X-175.131 Y-72.067 Z-2.231
G3 X-175.055 Y-71.507 Z-2.253 I-0.242 J0.318
X-175.615 Y-71.431 Z-2.275 I-0.318 J-0.242
G1 X-178.2 Y-73.401 Z-2.389
G3 X-178.276 Y-73.962 Z-2.41 I0.242 J-0.318
X-177.716 Y-74.037 Z-2.432 I0.318 J0.242
G1 X-176.176 Y-72.864 Z-2.5
X-175.131 Y-72.067 F600
G3 X-175.055 Y-71.507 I-0.242 J0.318
X-175.615 Y-71.431 I-0.318 J-0.242
G1 X-178.2 Y-73.401
G3 X-178.276 Y-73.962 I0.242 J-0.318
X-177.716 Y-74.037 I0.318 J0.242
G1 X-176.176 Y-72.864
X-175.131 Y-72.067 Z-2.546 F1016
G3 X-175.055 Y-71.507 Z-2.568 I-0.242 J0.318
X-175.615 Y-71.431 Z-2.59 I-0.318 J-0.242
G1 X-178.2 Y-73.401 Z-2.703
G3 X-178.276 Y-73.962 Z-2.725 I0.242 J-0.318
X-177.716 Y-74.037 Z-2.747 I0.318 J0.242
G1 X-175.131 Y-72.067 Z-2.861
G3 X-175.055 Y-71.507 Z-2.883 I-0.242 J0.318
X-175.615 Y-71.431 Z-2.905 I-0.318 J-0.242
G1 X-178.2 Y-73.401 Z-3.018
G3 X-178.276 Y-73.962 Z-3.04 I0.242 J-0.318
X-177.716 Y-74.037 Z-3.062 I0.318 J0.242
G1 X-175.131 Y-72.067 Z-3.175
G3 X-175.055 Y-71.507 Z-3.197 I-0.242 J0.318
X-175.615 Y-71.431 Z-3.219 I-0.318 J-0.242
G1 X-178.2 Y-73.401 Z-3.333
G3 X-178.276 Y-73.962 Z-3.355 I0.242 J-0.318
X-177.716 Y-74.037 Z-3.377 I0.318 J0.242
G1 X-175.131 Y-72.067 Z-3.49
G3 X-174.982 Y-71.834 Z-3.5 I-0.242 J0.318
X-175.615 Y-71.431 I-0.391 J0.085 F600
G1 X-178.2 Y-73.401
G3 X-178.276 Y-73.962 I0.242 J-0.318
X-177.716 Y-74.037 I0.318 J0.242
G1 X-176.176 Y-72.864
X-175.131 Y-72.067
G3 X-174.982 Y-71.834 I-0.242 J0.318
X-175.615 Y-71.431 Z-3.534 I-0.391 J0.085 F1016
G1 X-178.2 Y-73.401 Z-3.648
G3 X-178.276 Y-73.962 Z-3.669 I0.242 J-0.318
X-177.716 Y-74.037 Z-3.691 I0.318 J0.242
G1 X-175.131 Y-72.067 Z-3.805
G3 X-175.055 Y-71.507 Z-3.827 I-0.242 J0.318
X-175.615 Y-71.431 Z-3.849 I-0.318 J-0.242
G1 X-178.2 Y-73.401 Z-3.962
G3 X-178.276 Y-73.962 Z-3.984 I0.242 J-0.318
X-177.716 Y-74.037 Z-4.006 I0.318 J0.242
G1 X-175.131 Y-72.067 Z-4.12
G3 X-175.055 Y-71.507 Z-4.142 I-0.242 J0.318
X-175.615 Y-71.431 Z-4.164 I-0.318 J-0.242
G1 X-178.2 Y-73.401 Z-4.277
G3 X-178.257 Y-73.985 Z-4.3 I0.242 J-0.318
X-177.716 Y-74.037 I0.299 J0.265 F600
G1 X-175.131 Y-72.067
G3 X-175.055 Y-71.507 I-0.242 J0.318
X-175.615 Y-71.431 I-0.318 J-0.242
G1 X-178.2 Y-73.401
G3 X-178.257 Y-73.985 I0.242 J-0.318
G1 X-178.221 Y-74.014
X-178.177 Y-74.031
X-178.13 Y-74.034
X-178.085 Y-74.022
X-178.045 Y-73.997
X-177.933 Y-73.898
X-177.899 Y-73.867 Z-4.293
X-177.867 Y-73.839 Z-4.271
X-177.842 Y-73.817 Z-4.238
X-177.827 Y-73.803 Z-4.196
X-177.821 Y-73.798 Z-4.15
Z5.5
X-174.4 Y-63.582
Z3.15 F300
X-174.403 Y-63.589 Z3.104 F400
X-174.412 Y-63.608 Z3.062
X-174.426 Y-63.639 Z3.029
X-174.444 Y-63.677 Z3.007
X-174.463 Y-63.719 Z3
X-174.526 Y-63.855
X-174.539 Y-63.9
X-174.537 Y-63.947
X-174.521 Y-63.991
X-174.492 Y-64.028
X-174.453 Y-64.054
G3 X-173.967 Y-63.448 Z2.963 I0.168 J0.363 F1016
G1 X-175.937 Y-60.863 Z2.849
G3 X-176.497 Y-60.787 Z2.827 I-0.318 J-0.242
X-176.573 Y-61.348 Z2.805 I0.242 J-0.318
G1 X-174.603 Y-63.933 Z2.692
G3 X-174.043 Y-64.009 Z2.67 I0.318 J0.242
X-173.967 Y-63.448 Z2.648 I-0.242 J0.318
G1 X-175.937 Y-60.863 Z2.535
G3 X-176.497 Y-60.787 Z2.513 I-0.318 J-0.242
X-176.573 Y-61.348 Z2.491 I0.242 J-0.318
G1 X-174.603 Y-63.933 Z2.377
G3 X-174.043 Y-64.009 Z2.355 I0.318 J0.242
X-173.967 Y-63.448 Z2.333 I-0.242 J0.318
G1 X-175.937 Y-60.863 Z2.22
G3 X-176.497 Y-60.787 Z2.198 I-0.318 J-0.242
X-176.573 Y-61.348 Z2.176 I0.242 J-0.318
G1 X-174.603 Y-63.933 Z2.062
G3 X-174.043 Y-64.009 Z2.04 I0.318 J0.242
X-173.967 Y-63.448 Z2.018 I-0.242 J0.318
G1 X-175.937 Y-60.863 Z1.905
G3 X-176.497 Y-60.787 Z1.883 I-0.318 J-0.242
X-176.573 Y-61.348 Z1.861 I0.242 J-0.318
G1 X-174.603 Y-63.933 Z1.748
G3 X-174.043 Y-64.009 Z1.726 I0.318 J0.242
X-173.967 Y-63.448 Z1.704 I-0.242 J0.318
G1 X-175.937 Y-60.863 Z1.59
G3 X-176.497 Y-60.787 Z1.568 I-0.318 J-0.242
X-176.573 Y-61.348 Z1.546 I0.242 J-0.318
G1 X-174.603 Y-63.933 Z1.433
G3 X-174.043 Y-64.009 Z1.411 I0.318 J0.242
X-173.967 Y-63.448 Z1.389 I-0.242 J0.318
G1 X-175.937 Y-60.863 Z1.275
G3 X-176.497 Y-60.787 Z1.253 I-0.318 J-0.242
X-176.573 Y-61.348 Z1.231 I0.242 J-0.318
G1 X-174.603 Y-63.933 Z1.118
G3 X-174.043 Y-64.009 Z1.096 I0.318 J0.242
X-173.967 Y-63.448 Z1.074 I-0.242 J0.318
G1 X-175.937 Y-60.863 Z0.961
G3 X-176.497 Y-60.787 Z0.939 I-0.318 J-0.242
X-176.573 Y-61.348 Z0.917 I0.242 J-0.318
G1 X-174.603 Y-63.933 Z0.803
G3 X-174.043 Y-64.009 Z0.781 I0.318 J0.242
X-173.967 Y-63.448 Z0.759 I-0.242 J0.318
G1 X-175.937 Y-60.863 Z0.646
G3 X-176.497 Y-60.787 Z0.624 I-0.318 J-0.242
X-176.573 Y-61.348 Z0.602 I0.242 J-0.318
G1 X-174.603 Y-63.933 Z0.488
G3 X-174.043 Y-64.009 Z0.466 I0.318 J0.242
X-173.967 Y-63.448 Z0.444 I-0.242 J0.318
G1 X-175.937 Y-60.863 Z0.331
G3 X-176.497 Y-60.787 Z0.309 I-0.318 J-0.242
X-176.573 Y-61.348 Z0.287 I0.242 J-0.318
G1 X-174.603 Y-63.933 Z0.174
G3 X-174.043 Y-64.009 Z0.152 I0.318 J0.242
X-173.967 Y-63.448 Z0.13 I-0.242 J0.318
G1 X-175.937 Y-60.863 Z0.016
G3 X-176.497 Y-60.787 Z-0.006 I-0.318 J-0.242
X-176.573 Y-61.348 Z-0.028 I0.242 J-0.318
G1 X-174.603 Y-63.933 Z-0.141
G3 X-174.043 Y-64.009 Z-0.163 I0.318 J0.242
X-173.967 Y-63.448 Z-0.185 I-0.242 J0.318
G1 X-175.937 Y-60.863 Z-0.299
G3 X-176.497 Y-60.787 Z-0.321 I-0.318 J-0.242
X-176.573 Y-61.348 Z-0.343 I0.242 J-0.318
G1 X-174.603 Y-63.933 Z-0.456
G3 X-174.043 Y-64.009 Z-0.478 I0.318 J0.242
X-173.967 Y-63.448 Z-0.5 I-0.242 J0.318
G1 X-175.937 Y-60.863 F600
G3 X-176.497 Y-60.787 I-0.318 J-0.242
X-176.573 Y-61.348 I0.242 J-0.318
G1 X-174.603 Y-63.933
G3 X-174.043 Y-64.009 I0.318 J0.242
X-173.967 Y-63.448 I-0.242 J0.318
G1 X-175.937 Y-60.863 Z-0.613 F1016
G3 X-176.497 Y-60.787 Z-0.635 I-0.318 J-0.242
X-176.573 Y-61.348 Z-0.657 I0.242 J-0.318
G1 X-174.603 Y-63.933 Z-0.771
G3 X-174.043 Y-64.009 Z-0.793 I0.318 J0.242
X-173.967 Y-63.448 Z-0.815 I-0.242 J0.318
G1 X-175.937 Y-60.863 Z-0.928
G3 X-176.497 Y-60.787 Z-0.95 I-0.318 J-0.242
X-176.573 Y-61.348 Z-0.972 I0.242 J-0.318
G1 X-174.603 Y-63.933 Z-1.086
G3 X-174.043 Y-64.009 Z-1.108 I0.318 J0.242
X-173.967 Y-63.448 Z-1.13 I-0.242 J0.318
G1 X-175.937 Y-60.863 Z-1.243
G3 X-176.497 Y-60.787 Z-1.265 I-0.318 J-0.242
X-176.573 Y-61.348 Z-1.287 I0.242 J-0.318
G1 X-174.603 Y-63.933 Z-1.401
G3 X-174.043 Y-64.009 Z-1.422 I0.318 J0.242
X-173.967 Y-63.448 Z-1.444 I-0.242 J0.318
G1 X-174.931 Y-62.182 Z-1.5
X-175.937 Y-60.863 F600
G3 X-176.497 Y-60.787 I-0.318 J-0.242
X-176.573 Y-61.348 I0.242 J-0.318
G1 X-174.603 Y-63.933
G3 X-174.043 Y-64.009 I0.318 J0.242
X-173.967 Y-63.448 I-0.242 J0.318
G1 X-174.931 Y-62.182
X-175.937 Y-60.863 Z-1.558 F1016
G3 X-176.497 Y-60.787 Z-1.58 I-0.318 J-0.242
