(Main_Cut)
(Bearbeiten)
(  Hersteller: ChinaCnc)
(  model: 3040T)
(  description: Generic 3-axis)
(T5 D=3.175 CR=0 - ZMIN=-7 - Schaftfrser)
G90 G94
G17
G21
(When using Fusion 360 for Personal Use, the feedrate of)
(rapid moves is reduced to match the feedrate of cutting)
(moves, which can increase machining time. Unrestricted rapid)
(moves are available with a Fusion 360 Subscription.)

(2D-Kontur7)
M0
(MANUAL TOOL CHANGE TO T5)
S6000 M3
G54
G0 X-208.756 Y-151.524
Z15
G1 Z5 F1000
Z2.818 F333.3
G19 G2 Y-151.842 Z2.5 J-0.318 K0 F1000
G1 Y-152.159
G17 G3 X-208.438 Y-152.477 I0.317 J0
S5000
G1 X-193.188 Z2.492 F333.3
Y-133.652 Z2.482
X-219.6 Z2.469
G2 X-223.188 Y-130.064 Z2.466 I0 J3.588
G1 Y-127.064 Z2.464
G2 X-216.6 Y-120.477 Z2.459 I6.587 J0
G1 X-208.045 Z2.455
G3 X-207.804 Y-119.729 Z2.454 I0 J0.412
G2 X-222.527 Y-104.901 Z2.443 I37.005 J51.465
X-223.188 Y-102.827 Z2.442 I2.927 J2.074
G1 Y-95.323 Z2.438
G2 X-216.463 Y-93.584 Z2.434 I3.587 J0
G3 X-170.8 Y-120.477 Z2.405 I45.663 J25.32
G1 X-138.242 Z2.388
G3 X-137.914 Y-119.814 I0 J0.413
G1 X-158.478 Y-92.828 Z2.37
X-158.765 Y-92.457
X-159.061 Y-92.087
X-159.372 Y-91.709
X-159.697 Y-91.325 Z2.369
X-160.033 Y-90.938
X-160.385 Y-90.546
X-160.747 Y-90.151
X-161.121 Y-89.753 Z2.368
X-161.507 Y-89.355
X-161.903 Y-88.956
X-162.31 Y-88.558
X-162.726 Y-88.163 Z2.367
X-163.152 Y-87.771
X-163.587 Y-87.384
X-164.03 Y-87.003 Z2.366
X-164.482 Y-86.63
X-164.941 Y-86.266
X-165.408 Y-85.912 Z2.365
X-165.882 Y-85.57
X-166.364 Y-85.241
X-166.852 Y-84.926
X-167.346 Y-84.628 Z2.364
X-167.849 Y-84.346
X-168.359 Y-84.082
X-168.875 Y-83.838 Z2.363
X-169.4 Y-83.613
X-169.933 Y-83.409
X-170.475 Y-83.226 Z2.362
X-171.027 Y-83.066
X-171.59 Y-82.928
X-172.165 Y-82.813
X-172.77 Y-82.718 Z2.361
G2 X-184.726 Y-72.606 Z2.353 I1.97 J14.454
G1 X-185.004 Y-71.72 Z2.352
X-185.279 Y-70.851
X-185.551 Y-69.999 Z2.351
X-185.82 Y-69.164
X-186.087 Y-68.342 Z2.35
X-186.35 Y-67.537
X-186.609 Y-66.748
X-186.864 Y-65.973 Z2.349
X-187.114 Y-65.214
Y-65.212
X-187.358 Y-64.468 Z2.348
X-187.36 Y-64.463
X-187.596 Y-63.734
X-187.597 Y-63.73
X-187.826 Y-63.017
X-187.828 Y-63.011
X-188.049 Y-62.313 Z2.347
X-188.053 Y-62.3
X-188.263 Y-61.617
X-188.266 Y-61.608
X-188.467 Y-60.94 Z2.346
X-188.472 Y-60.923
X-188.661 Y-60.27
X-188.666 Y-60.253
X-188.843 Y-59.614
X-188.849 Y-59.591
X-189.012 Y-58.966 Z2.345
X-189.018 Y-58.944
X-189.168 Y-58.334
X-189.175 Y-58.303
X-189.309 Y-57.708
X-189.315 Y-57.678
X-189.434 Y-57.096 Z2.344
X-189.441 Y-57.059
X-189.543 Y-56.492
X-189.55 Y-56.449
X-189.634 Y-55.896
X-189.641 Y-55.851
X-189.707 Y-55.313 Z2.343
X-189.712 Y-55.258
X-189.758 Y-54.735
X-189.762 Y-54.68
X-189.789 Y-54.17
X-189.791 Y-54.106
X-189.797 Y-53.611
Y-53.542
X-189.782 Y-53.062 Z2.342
X-189.777 Y-52.986
X-189.74 Y-52.521
X-189.732 Y-52.437
X-189.672 Y-51.987
X-189.658 Y-51.903
X-189.576 Y-51.468
X-189.556 Y-51.376 Z2.341
X-189.451 Y-50.958
X-189.424 Y-50.863
X-189.296 Y-50.461
X-189.261 Y-50.363
X-189.11 Y-49.978
X-189.067 Y-49.878
X-188.893 Y-49.51 Z2.34
X-188.843 Y-49.413
X-188.647 Y-49.063
X-188.587 Y-48.966
X-188.369 Y-48.635
X-188.303 Y-48.542
X-188.064 Y-48.231
X-187.988 Y-48.139
X-187.728 Y-47.849 Z2.339
X-187.647 Y-47.765
X-187.368 Y-47.496
X-187.281 Y-47.418
X-186.984 Y-47.171
X-186.889 Y-47.098
X-186.574 Y-46.874
X-186.473 Y-46.808
X-186.141 Y-46.608 Z2.338
X-186.039 Y-46.552
X-185.692 Y-46.376
X-185.585 Y-46.327
X-185.223 Y-46.176
X-185.115 Y-46.136
X-184.74 Y-46.01
X-184.631 Y-45.978
X-184.243 Y-45.879 Z2.337
X-184.134 Y-45.855
X-183.734 Y-45.783
X-183.628 Y-45.767
X-183.218 Y-45.721
X-183.114 Y-45.712
X-182.693 Y-45.693
X-182.594 Y-45.691 Z2.336
X-182.164 Y-45.698
X-182.069 Y-45.702
X-181.63 Y-45.736
X-181.542 Y-45.745
X-181.093 Y-45.804
X-181.011 Y-45.817
X-180.554 Y-45.902 Z2.335
X-180.48 Y-45.917
X-180.014 Y-46.027
X-179.945 Y-46.045
X-179.47 Y-46.18
X-179.408 Y-46.199
X-178.925 Y-46.357
X-178.871 Y-46.376
X-178.379 Y-46.558 Z2.334
X-178.328 Y-46.577
X-177.828 Y-46.781
X-177.786 Y-46.799
X-177.276 Y-47.025
X-177.237 Y-47.042
X-176.718 Y-47.289 Z2.333
X-176.683 Y-47.306
X-176.155 Y-47.572
X-176.126 Y-47.587
X-175.588 Y-47.873
X-175.562 Y-47.888
X-175.054 Y-48.17 Z2.332
X-174.954 Y-48.218
X-174.903 Y-48.235
X-174.85 Y-48.245
X-174.797 Y-48.248
X-174.744 Y-48.244
X-174.692 Y-48.234
X-174.641 Y-48.216
X-174.594 Y-48.192
X-174.549 Y-48.163
X-174.511 Y-48.128
X-174.475 Y-48.088
X-174.445 Y-48.043
X-174.422 Y-47.996
X-174.405 Y-47.944
X-174.394 Y-47.891
X-174.387 Y-47.787
Y-15.657 Z2.315
G3 X-175.146 Y-13.512 Z2.314 I-3.413 J0
G2 X-166.454 Y-6.488 Z2.305 I4.346 J3.512
X-166.454 Y-13.512 Z2.301 I-4.346 J-3.512
G3 X-167.212 Y-15.657 Z2.3 I2.654 J-2.145
G1 Y-51.323 Z2.282
X-167.205 Y-51.561
X-167.186 Y-51.771 Z2.281
X-167.153 Y-51.979
X-167.108 Y-52.184
X-167.05 Y-52.388
X-166.979 Y-52.589
X-166.897 Y-52.781
X-166.802 Y-52.97
X-166.695 Y-53.154
X-166.579 Y-53.328
X-166.45 Y-53.497
X-166.312 Y-53.657 Z2.28
X-166.166 Y-53.807
X-166.01 Y-53.948
X-165.844 Y-54.08
X-165.652 Y-54.215
X-165.003 Y-54.64
X-164.321 Y-55.084 Z2.279
X-163.627 Y-55.533
X-162.92 Y-55.988 Z2.278
G2 X-156.342 Y-70.2 Z2.27 I-7.88 J-12.276
G1 X-156.411 Y-70.807 Z2.269
X-156.452 Y-71.392
X-156.468 Y-71.972
X-156.46 Y-72.547
X-156.428 Y-73.117 Z2.268
X-156.372 Y-73.686
X-156.295 Y-74.252
X-156.196 Y-74.813 Z2.267
X-156.077 Y-75.376
X-155.939 Y-75.935
X-155.782 Y-76.491
X-155.609 Y-77.045 Z2.266
X-155.419 Y-77.596
X-155.215 Y-78.144
X-154.997 Y-78.689 Z2.265
X-154.768 Y-79.228
X-154.528 Y-79.762
X-154.279 Y-80.29 Z2.264
X-154.021 Y-80.812
X-153.755 Y-81.327
X-153.484 Y-81.834
X-153.21 Y-82.331 Z2.263
X-152.93 Y-82.818
X-152.647 Y-83.297
X-152.364 Y-83.764 Z2.262
X-152.079 Y-84.217
X-151.795 Y-84.659
X-151.51 Y-85.087
X-151.227 Y-85.502 Z2.261
X-150.945 Y-85.901
X-150.665 Y-86.286
X-150.385 Y-86.661
X-127.384 Y-116.844 Z2.241
X-127.069 Y-117.237
X-126.761 Y-117.583
X-126.448 Y-117.9 Z2.24
X-126.13 Y-118.189
X-125.806 Y-118.452
X-125.477 Y-118.689
X-125.138 Y-118.905
X-124.79 Y-119.103 Z2.239
X-124.436 Y-119.28
X-124.069 Y-119.44
X-123.692 Y-119.585
X-123.306 Y-119.714 Z2.238
X-122.908 Y-119.829
X-122.497 Y-119.932
X-122.078 Y-120.022
X-121.649 Y-120.1
X-121.211 Y-120.168 Z2.237
X-120.768 Y-120.226
X-119.836 Y-120.319
X-118.884 Y-120.383 Z2.236
X-117.905 Y-120.424
X-116.904 Y-120.451 Z2.235
X-115.884 Y-120.467
X-114.848 Y-120.475 Z2.234
X-113.8 Y-120.476
X-112.752 Y-120.475 Z2.233
X-111.716 Y-120.467 Z2.232
X-110.696 Y-120.451
X-109.695 Y-120.424 Z2.231
X-108.716 Y-120.383
X-107.764 Y-120.319 Z2.23
X-106.832 Y-120.226
X-106.389 Y-120.168
X-105.951 Y-120.1
X-105.522 Y-120.022 Z2.229
X-105.103 Y-119.932
X-104.692 Y-119.829
X-104.294 Y-119.714
X-103.908 Y-119.585 Z2.228
X-103.531 Y-119.44
X-103.164 Y-119.28
X-102.81 Y-119.103
X-102.462 Y-118.905
X-102.123 Y-118.689 Z2.227
X-101.794 Y-118.452
X-101.47 Y-118.189
X-101.151 Y-117.9
X-100.838 Y-117.583
X-100.531 Y-117.237 Z2.226
X-100.216 Y-116.844
X-77.215 Y-86.661 Z2.207
X-76.934 Y-86.286 Z2.206
X-76.655 Y-85.901
X-76.373 Y-85.502
X-76.09 Y-85.088
X-75.806 Y-84.659 Z2.205
X-75.521 Y-84.217
X-75.236 Y-83.763
X-74.952 Y-83.296 Z2.204
X-74.67 Y-82.819
X-74.391 Y-82.331
X-74.115 Y-81.833
X-73.844 Y-81.327 Z2.203
X-73.58 Y-80.812
X-73.322 Y-80.29
X-73.072 Y-79.762 Z2.202
X-72.832 Y-79.228
X-72.603 Y-78.688
X-72.385 Y-78.144
X-72.181 Y-77.596 Z2.201
X-71.992 Y-77.045
X-71.818 Y-76.491
X-71.661 Y-75.934 Z2.2
X-71.523 Y-75.375
X-71.404 Y-74.814
X-71.305 Y-74.251 Z2.199
X-71.228 Y-73.685
X-71.172 Y-73.117
X-71.14 Y-72.546
X-71.132 Y-71.971 Z2.198
X-71.148 Y-71.392
X-71.189 Y-70.807
X-71.258 Y-70.2 Z2.197
G2 X-64.68 Y-55.988 Z2.189 I14.459 J1.935
G1 X-63.973 Y-55.533 Z2.188
X-63.279 Y-55.084
X-62.597 Y-54.64
X-61.948 Y-54.215 Z2.187
X-61.755 Y-54.08
X-61.591 Y-53.949
X-61.434 Y-53.807
X-61.287 Y-53.657
X-61.15 Y-53.497
X-61.022 Y-53.329
X-60.904 Y-53.153 Z2.186
X-60.798 Y-52.97
X-60.704 Y-52.782
X-60.621 Y-52.588
X-60.55 Y-52.388
X-60.492 Y-52.185
X-60.447 Y-51.979
X-60.414 Y-51.77
X-60.395 Y-51.56
X-60.388 Y-51.324 Z2.185
Y-15.657 Z2.167
G3 X-61.146 Y-13.512 Z2.166 I-3.413 J0
G2 X-52.454 Y-6.488 Z2.157 I4.346 J3.512
X-52.454 Y-13.512 Z2.153 I-4.346 J-3.512
G3 X-53.213 Y-15.657 Z2.152 I2.654 J-2.145
G1 Y-47.787 Z2.135
X-53.206 Y-47.893
X-53.195 Y-47.945
X-53.178 Y-47.995
X-53.155 Y-48.043
X-53.125 Y-48.087
X-53.09 Y-48.127
X-53.05 Y-48.163
X-53.006 Y-48.192
X-52.958 Y-48.216
X-52.908 Y-48.234
X-52.856 Y-48.244
X-52.803 Y-48.248
X-52.75 Y-48.245
X-52.697 Y-48.235
X-52.646 Y-48.218
X-52.546 Y-48.17
X-52.037 Y-47.887 Z2.134
X-52.011 Y-47.873
X-51.474 Y-47.588
X-51.444 Y-47.572
X-50.916 Y-47.306
X-50.882 Y-47.289
X-50.363 Y-47.043
X-50.324 Y-47.025
X-49.815 Y-46.799 Z2.133
X-49.771 Y-46.781
X-49.27 Y-46.577
X-49.221 Y-46.558
X-48.729 Y-46.376
X-48.674 Y-46.357
X-48.191 Y-46.199 Z2.132
X-48.13 Y-46.18
X-47.655 Y-46.045
X-47.587 Y-46.027
X-47.121 Y-45.918
X-47.046 Y-45.902
X-46.589 Y-45.817 Z2.131
X-46.507 Y-45.804
X-46.058 Y-45.745
X-45.97 Y-45.736
X-45.531 Y-45.702
X-45.436 Y-45.698
X-45.006 Y-45.691
X-44.906 Y-45.693
X-44.486 Y-45.712 Z2.13
X-44.382 Y-45.721
X-43.972 Y-45.767
X-43.865 Y-45.783
X-43.465 Y-45.855
X-43.357 Y-45.879
X-42.969 Y-45.978
X-42.86 Y-46.01
X-42.485 Y-46.135 Z2.129
X-42.377 Y-46.176
X-42.015 Y-46.327
X-41.908 Y-46.376
X-41.561 Y-46.551
X-41.458 Y-46.609
X-41.126 Y-46.809
X-41.027 Y-46.874
X-40.712 Y-47.098 Z2.128
X-40.618 Y-47.17
X-40.32 Y-47.417
X-40.232 Y-47.496
X-39.953 Y-47.765
X-39.871 Y-47.85
X-39.611 Y-48.141
X-39.537 Y-48.231 Z2.127
X-39.298 Y-48.542
X-39.231 Y-48.636
X-39.013 Y-48.966
X-38.954 Y-49.063
X-38.758 Y-49.412
X-38.707 Y-49.511
X-38.533 Y-49.879 Z2.126
X-38.49 Y-49.978
X-38.339 Y-50.363
X-38.305 Y-50.46
X-38.177 Y-50.862
X-38.149 Y-50.958
X-38.044 Y-51.376
X-38.024 Y-51.468
X-37.942 Y-51.902 Z2.125
X-37.928 Y-51.989
X-37.868 Y-52.439
X-37.86 Y-52.52
X-37.823 Y-52.985
X-37.818 Y-53.061
X-37.803 Y-53.541
X-37.802 Y-53.611
X-37.809 Y-54.106 Z2.124
X-37.811 Y-54.169
X-37.837 Y-54.679
X-37.841 Y-54.736
X-37.888 Y-55.26
X-37.893 Y-55.312
X-37.959 Y-55.851 Z2.123
X-37.966 Y-55.897
X-38.05 Y-56.45
X-38.057 Y-56.491
X-38.158 Y-57.058
X-38.166 Y-57.095
X-38.284 Y-57.677 Z2.122
X-38.291 Y-57.709
X-38.426 Y-58.305
X-38.432 Y-58.333
X-38.582 Y-58.943
X-38.588 Y-58.968
X-38.752 Y-59.592 Z2.121
X-38.757 Y-59.613
X-38.934 Y-60.252
X-38.939 Y-60.27
X-39.128 Y-60.924
X-39.133 Y-60.938
X-39.333 Y-61.607 Z2.12
X-39.337 Y-61.619
X-39.548 Y-62.302
X-39.551 Y-62.312
X-39.771 Y-63.01
X-39.773 Y-63.017
X-40.002 Y-63.73 Z2.119
X-40.004 Y-63.736
X-40.241 Y-64.464
X-40.242 Y-64.468
X-40.485 Y-65.212 Z2.118
X-40.486 Y-65.213
X-40.736 Y-65.973
X-40.991 Y-66.748
X-41.25 Y-67.538 Z2.117
X-41.513 Y-68.343
X-41.78 Y-69.163 Z2.116
X-42.049 Y-69.999
X-42.321 Y-70.851 Z2.115
X-42.596 Y-71.719
X-42.873 Y-72.605 Z2.114
G2 X-54.831 Y-82.718 Z2.106 I-13.927 J4.341
G1 X-55.435 Y-82.813
X-56.01 Y-82.928 Z2.105
X-56.573 Y-83.066
X-57.125 Y-83.226
X-57.667 Y-83.409 Z2.104
X-58.2 Y-83.613
X-58.725 Y-83.838
X-59.242 Y-84.082
X-59.751 Y-84.346 Z2.103
X-60.253 Y-84.628
X-60.748 Y-84.926
X-61.237 Y-85.241 Z2.102
X-61.718 Y-85.57
X-62.192 Y-85.912
X-62.659 Y-86.266 Z2.101
X-63.118 Y-86.63
X-63.57 Y-87.003
X-64.013 Y-87.384
X-64.448 Y-87.771 Z2.1
X-64.873 Y-88.163
X-65.29 Y-88.558
X-65.697 Y-88.956 Z2.099
X-66.093 Y-89.355
X-66.479 Y-89.754
X-66.853 Y-90.151 Z2.098
X-67.216 Y-90.546
X-67.566 Y-90.938
X-67.904 Y-91.326
X-68.228 Y-91.709 Z2.097
X-68.539 Y-92.086
X-68.835 Y-92.458
X-69.122 Y-92.828
X-89.686 Y-119.814 Z2.079
G3 X-89.358 Y-120.477 I0.328 J-0.25
G1 X-56.8 Z2.062
G3 X-11.137 Y-93.584 Z2.034 I0 J52.212
G2 X-4.412 Y-95.323 Z2.029 I3.137 J-1.74
G1 Y-102.827 Z2.025
G2 X-5.072 Y-104.901 Z2.024 I-3.588 J0
X-19.796 Y-119.729 Z2.013 I-51.727 J36.637
G3 X-19.555 Y-120.477 Z2.012 I0.241 J-0.335
G1 X-11 Z2.008
G2 X-4.412 Y-127.064 Z2.003 I0 J-6.588
G1 Y-132.107 Z2
G2 X-7.831 Y-135.69 Z1.997 I-3.587 J0
G1 X-9.095 Y-135.764
X-10.312 Y-135.871 Z1.996
X-11.485 Y-136.011 Z1.995
X-12.607 Y-136.178
X-13.674 Y-136.369 Z1.994
X-14.683 Y-136.583
X-15.636 Y-136.816 Z1.993
X-16.532 Y-137.065
X-17.373 Y-137.329 Z1.992
X-18.159 Y-137.604
X-18.891 Y-137.89 Z1.991
X-19.573 Y-138.186
X-20.204 Y-138.488
X-20.785 Y-138.796 Z1.99
X-21.318 Y-139.108
X-21.803 Y-139.422
X-22.242 Y-139.738 Z1.989
X-22.634 Y-140.052
X-22.984 Y-140.366
X-23.289 Y-140.674
X-23.552 Y-140.976
X-23.775 Y-141.272 Z1.988
X-23.961 Y-141.56
X-24.11 Y-141.838
X-24.226 Y-142.106
X-24.312 Y-142.365
X-24.37 Y-142.616
X-24.402 Y-142.862 Z1.987
X-24.41 Y-143.105
X-24.394 Y-143.348
X-24.354 Y-143.595
X-24.287 Y-143.848
X-24.192 Y-144.109
X-24.066 Y-144.379
X-23.905 Y-144.659 Z1.986
X-23.709 Y-144.948
X-23.475 Y-145.244
X-23.201 Y-145.547
X-22.886 Y-145.854
X-22.527 Y-146.165 Z1.985
X-22.126 Y-146.477
X-21.68 Y-146.789
X-21.188 Y-147.099
X-20.652 Y-147.406 Z1.984
X-20.068 Y-147.708
X-19.437 Y-148.004
X-18.757 Y-148.293 Z1.983
X-18.029 Y-148.572
X-17.251 Y-148.84 Z1.982
X-16.42 Y-149.096
X-15.539 Y-149.338 Z1.981
X-14.604 Y-149.563
X-13.616 Y-149.77 Z1.98
X-12.575 Y-149.956
X-11.481 Y-150.118 Z1.979
X-10.335 Y-150.254
X-9.144 Y-150.361 Z1.978
X-7.906 Y-150.434 Z1.977
X-7.848 Y-150.437
X-7.845
G2 X-4.412 Y-154.021 Z1.975 I-0.155 J-3.584
G1 Y-159.064 Z1.972
G2 X-11 Y-165.652 Z1.967 I-6.588 J0
G1 X-19.555 Z1.962
G3 X-19.796 Y-166.399 I0 J-0.413
G2 X-5.072 Y-181.227 Z1.951 I-37.004 J-51.465
X-4.412 Y-183.301 Z1.95 I-2.928 J-2.074
G1 Y-190.805 Z1.946
G2 X-11.137 Y-192.545 Z1.941 I-3.588 J0
G3 X-56.8 Y-165.652 Z1.913 I-45.663 J-25.319
G1 X-89.358 Z1.896
G3 X-89.686 Y-166.314 Z1.895 I0 J-0.412
G1 X-69.122 Y-193.3 Z1.878
X-68.835 Y-193.671
X-68.538 Y-194.042
X-68.228 Y-194.419 Z1.877
X-67.904 Y-194.802
X-67.566 Y-195.19
X-67.216 Y-195.582 Z1.876
X-66.853 Y-195.977
X-66.479 Y-196.375
X-66.093 Y-196.773
X-65.697 Y-197.172 Z1.875
X-65.29 Y-197.57
X-64.874 Y-197.965
X-64.448 Y-198.357 Z1.874
X-64.013 Y-198.744
X-63.569 Y-199.125
X-63.118 Y-199.498
X-62.659 Y-199.863 Z1.873
X-62.192 Y-200.217
X-61.718 Y-200.558
X-61.237 Y-200.887 Z1.872
X-60.748 Y-201.202
X-60.253 Y-201.501
X-59.751 Y-201.782 Z1.871
X-59.242 Y-202.046
X-58.725 Y-202.29
X-58.2 Y-202.515
X-57.667 Y-202.719 Z1.87
X-57.124 Y-202.902
X-56.573 Y-203.062
X-56.01 Y-203.2 Z1.869
X-55.435 Y-203.316
X-54.831 Y-203.41
G2 X-42.873 Y-213.524 Z1.86 I-1.969 J-14.454
G1 X-42.596 Y-214.409
X-42.321 Y-215.277 Z1.859
X-42.049 Y-216.129
X-41.78 Y-216.965 Z1.858
X-41.513 Y-217.785
X-41.25 Y-218.591
X-40.991 Y-219.38 Z1.857
X-40.736 Y-220.155
X-40.486 Y-220.915 Z1.856
X-40.485 Y-220.917
X-40.242 Y-221.661
X-40.241 Y-221.664
X-40.004 Y-222.392 Z1.855
X-40.002 Y-222.398
X-39.773 Y-223.111
X-39.771 Y-223.118
X-39.551 Y-223.816
X-39.548 Y-223.826
X-39.337 Y-224.509 Z1.854
X-39.333 Y-224.521
X-39.132 Y-225.19
X-39.128 Y-225.204
X-38.939 Y-225.857
X-38.934 Y-225.875
X-38.757 Y-226.514 Z1.853
X-38.751 Y-226.536
X-38.588 Y-227.161
X-38.582 Y-227.185
X-38.432 Y-227.795
X-38.426 Y-227.824
X-38.291 Y-228.42 Z1.852
X-38.284 Y-228.451
X-38.166 Y-229.032
X-38.158 Y-229.069
X-38.057 Y-229.636
X-38.05 Y-229.678
X-37.966 Y-230.231 Z1.851
X-37.959 Y-230.277
X-37.893 Y-230.816
X-37.888 Y-230.868
X-37.841 Y-231.391
X-37.837 Y-231.449
X-37.811 Y-231.959 Z1.85
X-37.809 Y-232.022
X-37.802 Y-232.517
X-37.803 Y-232.588
X-37.818 Y-233.067
X-37.823 Y-233.143
X-37.86 Y-233.608
X-37.868 Y-233.689
X-37.928 Y-234.139 Z1.849
X-37.942 Y-234.226
X-38.024 Y-234.66
X-38.044 Y-234.751
X-38.149 Y-235.17
X-38.177 Y-235.266
X-38.305 Y-235.668
X-38.339 Y-235.766 Z1.848
X-38.491 Y-236.151
X-38.533 Y-236.249
X-38.707 Y-236.617
X-38.758 Y-236.717
X-38.954 Y-237.066
X-39.012 Y-237.161
X-39.23 Y-237.492 Z1.847
X-39.298 Y-237.587
X-39.537 Y-237.898
X-39.612 Y-237.988
X-39.871 Y-238.278
X-39.953 Y-238.363
X-40.232 Y-238.632
X-40.32 Y-238.71
X-40.617 Y-238.957 Z1.846
X-40.711 Y-239.03
X-41.027 Y-239.254
X-41.127 Y-239.319
X-41.458 Y-239.52
X-41.56 Y-239.576
X-41.907 Y-239.752
X-42.014 Y-239.801
X-42.376 Y-239.952 Z1.845
X-42.485 Y-239.993
X-42.861 Y-240.118
X-42.97 Y-240.15
X-43.357 Y-240.249
X-43.465 Y-240.273
X-43.864 Y-240.346
X-43.973 Y-240.362
X-44.383 Y-240.408 Z1.844
X-44.485 Y-240.416
X-44.905 Y-240.436
X-45.007 Y-240.437
X-45.437 Y-240.43
X-45.53 Y-240.426
X-45.969 Y-240.393 Z1.843
X-46.058 Y-240.384
X-46.506 Y-240.325
X-46.589 Y-240.312
X-47.046 Y-240.227
X-47.121 Y-240.211
X-47.587 Y-240.101
X-47.657 Y-240.083
X-48.131 Y-239.948 Z1.842
X-48.19 Y-239.93
X-48.673 Y-239.772
X-48.731 Y-239.752
X-49.222 Y-239.57
X-49.27 Y-239.551
X-49.771 Y-239.347 Z1.841
X-49.813 Y-239.329
X-50.323 Y-239.104
X-50.364 Y-239.085
X-50.883 Y-238.838
X-50.915 Y-238.823
X-51.443 Y-238.557
X-51.474 Y-238.541 Z1.84
X-52.012 Y-238.255
X-52.037 Y-238.241
X-52.546 Y-237.958
X-52.648 Y-237.909
X-52.697 Y-237.893
X-52.749 Y-237.883
X-52.801 Y-237.88
X-52.856 Y-237.884
X-52.909 Y-237.895
X-52.957 Y-237.911
X-53.006 Y-237.936
X-53.05 Y-237.965
X-53.09 Y-238.001
X-53.126 Y-238.041
X-53.154 Y-238.085
X-53.178 Y-238.133 Z1.839
X-53.195 Y-238.184
X-53.206 Y-238.236
X-53.213 Y-238.341
Y-270.471 Z1.823
G3 X-52.454 Y-272.616 Z1.822 I3.413 J0
G2 X-61.146 Y-279.64 Z1.813 I-4.346 J-3.512
X-61.146 Y-272.616 Z1.809 I4.346 J3.512
G3 X-60.388 Y-270.471 Z1.808 I-2.654 J2.145
G1 Y-234.804 Z1.789
X-60.395 Y-234.568
X-60.414 Y-234.358
X-60.447 Y-234.149
X-60.492 Y-233.943
X-60.55 Y-233.74
X-60.621 Y-233.54
X-60.704 Y-233.346 Z1.788
X-60.798 Y-233.158
X-60.904 Y-232.976
X-61.022 Y-232.8
X-61.15 Y-232.63
X-61.286 Y-232.472
X-61.434 Y-232.321
X-61.591 Y-232.179
X-61.755 Y-232.049
X-61.948 Y-231.913 Z1.787
X-62.597 Y-231.488
X-63.279 Y-231.045
X-63.973 Y-230.596 Z1.786
X-64.68 Y-230.14
G2 X-71.258 Y-215.928 Z1.777 I7.88 J12.276
G1 X-71.189 Y-215.321
X-71.148 Y-214.736
X-71.132 Y-214.156 Z1.776
X-71.14 Y-213.582
X-71.172 Y-213.011
X-71.228 Y-212.443
X-71.305 Y-211.877 Z1.775
X-71.404 Y-211.314
X-71.523 Y-210.753
X-71.661 Y-210.194 Z1.774
X-71.818 Y-209.638
X-71.992 Y-209.083
X-72.181 Y-208.532 Z1.773
X-72.385 Y-207.984
X-72.603 Y-207.44
X-72.832 Y-206.9
X-73.072 Y-206.367 Z1.772
X-73.322 Y-205.838
X-73.579 Y-205.316
X-73.844 Y-204.802 Z1.771
X-74.115 Y-204.295
X-74.391 Y-203.797
X-74.67 Y-203.309 Z1.77
X-74.952 Y-202.832
X-75.236 Y-202.365
X-75.521 Y-201.911
X-75.806 Y-201.47 Z1.769
X-76.091 Y-201.04
X-76.374 Y-200.626
X-76.655 Y-200.227
X-76.934 Y-199.842 Z1.768
X-77.215 Y-199.467
X-100.216 Y-169.284 Z1.749
X-100.531 Y-168.891 Z1.748
X-100.838 Y-168.545
X-101.151 Y-168.228
X-101.469 Y-167.94
X-101.794 Y-167.677 Z1.747
X-102.124 Y-167.438
X-102.462 Y-167.223
X-102.81 Y-167.025
X-103.164 Y-166.848
X-103.531 Y-166.688 Z1.746
X-103.908 Y-166.543
X-104.294 Y-166.414
X-104.692 Y-166.299
X-105.103 Y-166.196
X-105.521 Y-166.106 Z1.745
X-105.951 Y-166.028
X-106.391 Y-165.96
X-106.832 Y-165.902
X-107.763 Y-165.809 Z1.744
X-108.716 Y-165.746
X-109.695 Y-165.704 Z1.743
X-110.696 Y-165.677
X-111.716 Y-165.661 Z1.742
X-112.752 Y-165.653
X-113.8 Y-165.652 Z1.741
X-114.848 Y-165.653
X-115.884 Y-165.661 Z1.74
X-116.904 Y-165.677
X-117.905 Y-165.704 Z1.739
X-118.884 Y-165.746 Z1.738
X-119.837 Y-165.809
X-120.768 Y-165.902
X-121.209 Y-165.96 Z1.737
X-121.649 Y-166.028
X-122.079 Y-166.106
X-122.497 Y-166.196
X-122.908 Y-166.299 Z1.736
X-123.306 Y-166.414
X-123.692 Y-166.543
X-124.069 Y-166.688
X-124.436 Y-166.848
X-124.79 Y-167.025 Z1.735
X-125.138 Y-167.223
X-125.476 Y-167.438
X-125.806 Y-167.677
X-126.131 Y-167.94
X-126.448 Y-168.228 Z1.734
X-126.761 Y-168.545
X-127.069 Y-168.891
X-127.384 Y-169.284
X-150.385 Y-199.468 Z1.714
X-150.666 Y-199.842
X-150.945 Y-200.227
X-151.226 Y-200.626 Z1.713
X-151.509 Y-201.041
X-151.795 Y-201.47
X-152.079 Y-201.911
X-152.364 Y-202.365 Z1.712
X-152.647 Y-202.831
X-152.93 Y-203.31
X-153.21 Y-203.797 Z1.711
X-153.484 Y-204.294
X-153.755 Y-204.802
X-154.021 Y-205.317
X-154.279 Y-205.838 Z1.71
X-154.528 Y-206.367
X-154.768 Y-206.9
X-154.997 Y-207.44 Z1.709
X-155.215 Y-207.984
X-155.419 Y-208.532
X-155.609 Y-209.083 Z1.708
X-155.782 Y-209.638
X-155.939 Y-210.193
X-156.077 Y-210.752
X-156.196 Y-211.315 Z1.707
X-156.295 Y-211.876
X-156.372 Y-212.442
X-156.428 Y-213.011 Z1.706
X-156.46 Y-213.582
X-156.468 Y-214.156
X-156.452 Y-214.736 Z1.705
X-156.411 Y-215.321
X-156.342 Y-215.928
G2 X-162.92 Y-230.14 Z1.696 I-14.459 J-1.936
G1 X-163.627 Y-230.596
X-164.321 Y-231.045
X-165.003 Y-231.489 Z1.695
X-165.652 Y-231.913
X-165.845 Y-232.049
X-166.01 Y-232.18 Z1.694
X-166.166 Y-232.322
X-166.313 Y-232.471
X-166.449 Y-232.63
X-166.58 Y-232.801
X-166.696 Y-232.975
X-166.802 Y-233.158
X-166.897 Y-233.347
X-166.978 Y-233.539
X-167.05 Y-233.741
X-167.108 Y-233.944 Z1.693
X-167.153 Y-234.149
X-167.186 Y-234.357
X-167.205 Y-234.568
X-167.212 Y-234.805
Y-270.471 Z1.675
G3 X-166.454 Y-272.616 Z1.673 I3.413 J0
G2 X-175.146 Y-279.64 Z1.664 I-4.346 J-3.512
X-175.146 Y-272.616 Z1.661 I4.346 J3.512
G3 X-174.387 Y-270.471 Z1.659 I-2.654 J2.145
G1 Y-238.341 Z1.643
X-174.394 Y-238.237
X-174.405 Y-238.184
X-174.422 Y-238.133
X-174.445 Y-238.085
X-174.475 Y-238.041
X-174.51 Y-238
X-174.55 Y-237.965
X-174.594 Y-237.936
X-174.642 Y-237.911
X-174.691 Y-237.895
X-174.744 Y-237.884 Z1.642
X-174.798 Y-237.88
X-174.851 Y-237.883
X-174.903 Y-237.893
X-174.953 Y-237.909
X-175.053 Y-237.958
X-175.562 Y-238.241
X-175.588 Y-238.255
X-176.126 Y-238.541
X-176.157 Y-238.557
X-176.685 Y-238.823 Z1.641
X-176.717 Y-238.838
X-177.236 Y-239.085
X-177.277 Y-239.104
X-177.787 Y-239.329
X-177.828 Y-239.347
X-178.328 Y-239.551 Z1.64
X-178.377 Y-239.57
X-178.869 Y-239.752
X-178.926 Y-239.772
X-179.409 Y-239.93
X-179.469 Y-239.948
X-179.944 Y-240.083
X-180.013 Y-240.101
X-180.479 Y-240.211 Z1.639
X-180.554 Y-240.227
X-181.011 Y-240.312
X-181.094 Y-240.325
X-181.543 Y-240.384
X-181.631 Y-240.393
X-182.07 Y-240.426 Z1.638
X-182.163 Y-240.43
X-182.593 Y-240.437
X-182.694 Y-240.436
X-183.115 Y-240.416
X-183.217 Y-240.408
X-183.627 Y-240.362
X-183.735 Y-240.346
X-184.135 Y-240.273 Z1.637
X-184.242 Y-240.249
X-184.63 Y-240.15
X-184.74 Y-240.118
X-185.115 Y-239.993
X-185.224 Y-239.952
X-185.586 Y-239.801
X-185.693 Y-239.752
X-186.04 Y-239.576 Z1.636
X-186.141 Y-239.52
X-186.473 Y-239.32
X-186.574 Y-239.254
X-186.889 Y-239.03
X-186.984 Y-238.957
X-187.281 Y-238.71
X-187.368 Y-238.632
X-187.647 Y-238.363 Z1.635
X-187.727 Y-238.28
X-187.987 Y-237.99
X-188.064 Y-237.897
X-188.303 Y-237.586
X-188.37 Y-237.492
X-188.588 Y-237.161
X-188.646 Y-237.065 Z1.634
X-188.842 Y-236.716
X-188.893 Y-236.618
X-189.067 Y-236.25
X-189.11 Y-236.151
X-189.261 Y-235.766
X-189.296 Y-235.668
X-189.424 Y-235.266 Z1.633
X-189.451 Y-235.17
X-189.556 Y-234.751
X-189.576 Y-234.66
X-189.658 Y-234.226
X-189.672 Y-234.141
X-189.732 Y-233.691
X-189.74 Y-233.607
X-189.777 Y-233.142 Z1.632
X-189.782 Y-233.066
X-189.797 Y-232.587
Y-232.518
X-189.791 Y-232.023
X-189.789 Y-231.958
X-189.762 Y-231.448 Z1.631
X-189.758 Y-231.393
X-189.712 Y-230.87
X-189.707 Y-230.816
X-189.641 Y-230.277
X-189.634 Y-230.232
X-189.55 Y-229.679
X-189.543 Y-229.636
X-189.441 Y-229.069 Z1.63
X-189.434 Y-229.031
X-189.315 Y-228.45
X-189.309 Y-228.421
X-189.175 Y-227.825
X-189.168 Y-227.794
X-189.018 Y-227.184 Z1.629
X-189.012 Y-227.162
X-188.849 Y-226.537
X-188.843 Y-226.514
X-188.666 Y-225.875
X-188.661 Y-225.858
X-188.472 Y-225.205 Z1.628
X-188.467 Y-225.189
X-188.266 Y-224.52
X-188.263 Y-224.51
X-188.053 Y-223.827 Z1.627
X-188.049 Y-223.815
X-187.828 Y-223.117
X-187.826 Y-223.111
X-187.597 Y-222.398
X-187.596 Y-222.393
X-187.36 Y-221.665 Z1.626
X-187.358 Y-221.66
X-187.114 Y-220.916
Y-220.915
X-186.864 Y-220.155 Z1.625
X-186.609 Y-219.38
X-186.35 Y-218.591
X-186.088 Y-217.786 Z1.624
X-185.82 Y-216.965
X-185.551 Y-216.129 Z1.623
X-185.279 Y-215.277
X-185.004 Y-214.409 Z1.622
X-184.726 Y-213.523
G2 X-172.769 Y-203.41 Z1.613 I13.926 J-4.341
G1 X-172.165 Y-203.316
X-171.591 Y-203.2
X-171.026 Y-203.062
X-170.476 Y-202.902 Z1.612
X-169.933 Y-202.719
X-169.4 Y-202.515
X-168.875 Y-202.29 Z1.611
X-168.359 Y-202.046
X-167.849 Y-201.782
X-167.347 Y-201.501 Z1.61
X-166.853 Y-201.202
X-166.363 Y-200.887
X-165.882 Y-200.558
X-165.408 Y-200.217 Z1.609
X-164.941 Y-199.863
X-164.482 Y-199.498
X-164.03 Y-199.125 Z1.608
X-163.587 Y-198.744
X-163.152 Y-198.357
X-162.726 Y-197.965 Z1.607
X-162.31 Y-197.57
X-161.903 Y-197.172
X-161.507 Y-196.773
X-161.122 Y-196.375 Z1.606
X-160.747 Y-195.977
X-160.385 Y-195.582
X-160.034 Y-195.19 Z1.605
X-159.697 Y-194.802
X-159.372 Y-194.419
X-159.061 Y-194.042
X-158.765 Y-193.671 Z1.604
X-158.478 Y-193.3
X-137.914 Y-166.314 Z1.587
G3 X-138.242 Y-165.652 Z1.586 I-0.328 J0.25
G1 X-170.8 Z1.57
G3 X-216.463 Y-192.545 Z1.541 I0 J-52.212
G2 X-223.188 Y-190.805 Z1.536 I-3.137 J1.74
G1 Y-183.301 Z1.532
G2 X-222.527 Y-181.227 Z1.531 I3.587 J0
X-207.805 Y-166.399 Z1.52 I51.728 J-36.636
G3 X-208.045 Y-165.652 I-0.24 J0.335
G1 X-216.6 Z1.515
G2 X-223.188 Y-159.064 Z1.51 I0 J6.588
G1 Y-156.064 Z1.509
G2 X-219.6 Y-152.477 Z1.506 I3.587 J0
G1 X-193.188 Z1.492
Y-133.652 Z1.482
X-219.6 Z1.469
G2 X-223.188 Y-130.064 Z1.466 I0 J3.588
G1 Y-127.064 Z1.464
G2 X-216.6 Y-120.477 Z1.459 I6.587 J0
G1 X-208.045 Z1.455
G3 X-207.804 Y-119.729 Z1.454 I0 J0.412
G2 X-222.527 Y-104.901 Z1.443 I37.005 J51.465
X-223.188 Y-102.827 Z1.442 I2.927 J2.074
G1 Y-95.323 Z1.438
G2 X-216.463 Y-93.584 Z1.434 I3.587 J0
G3 X-170.8 Y-120.477 Z1.405 I45.663 J25.32
G1 X-138.242 Z1.388
G3 X-137.914 Y-119.814 I0 J0.413
G1 X-158.478 Y-92.828 Z1.37
X-158.765 Y-92.457
X-159.061 Y-92.087
X-159.372 Y-91.709
X-159.697 Y-91.325 Z1.369
X-160.033 Y-90.938
X-160.385 Y-90.546
X-160.747 Y-90.151
X-161.121 Y-89.753 Z1.368
X-161.507 Y-89.355
X-161.903 Y-88.956
X-162.31 Y-88.558
X-162.726 Y-88.163 Z1.367
X-163.152 Y-87.771
X-163.587 Y-87.384
X-164.03 Y-87.003 Z1.366
X-164.482 Y-86.63
X-164.941 Y-86.266
X-165.408 Y-85.912 Z1.365
X-165.882 Y-85.57
X-166.364 Y-85.241
X-166.852 Y-84.926
X-167.346 Y-84.628 Z1.364
X-167.849 Y-84.346
X-168.359 Y-84.082
X-168.875 Y-83.838 Z1.363
X-169.4 Y-83.613
X-169.933 Y-83.409
X-170.475 Y-83.226 Z1.362
X-171.027 Y-83.066
X-171.59 Y-82.928
X-172.165 Y-82.813
X-172.77 Y-82.718 Z1.361
G2 X-184.726 Y-72.606 Z1.353 I1.97 J14.454
G1 X-185.004 Y-71.72 Z1.352
X-185.279 Y-70.851
X-185.551 Y-69.999 Z1.351
X-185.82 Y-69.164
X-186.087 Y-68.342 Z1.35
X-186.35 Y-67.537
X-186.609 Y-66.748
X-186.864 Y-65.973 Z1.349
X-187.114 Y-65.214
Y-65.212
X-187.358 Y-64.468 Z1.348
X-187.36 Y-64.463
X-187.596 Y-63.734
X-187.597 Y-63.73
X-187.826 Y-63.017
X-187.828 Y-63.011
X-188.049 Y-62.313 Z1.347
X-188.053 Y-62.3
X-188.263 Y-61.617
X-188.266 Y-61.608
X-188.467 Y-60.94 Z1.346
X-188.472 Y-60.923
X-188.661 Y-60.27
X-188.666 Y-60.253
X-188.843 Y-59.614
X-188.849 Y-59.591
X-189.012 Y-58.966 Z1.345
X-189.018 Y-58.944
X-189.168 Y-58.334
X-189.175 Y-58.303
X-189.309 Y-57.708
X-189.315 Y-57.678
X-189.434 Y-57.096 Z1.344
X-189.441 Y-57.059
X-189.543 Y-56.492
X-189.55 Y-56.449
X-189.634 Y-55.896
X-189.641 Y-55.851
X-189.707 Y-55.313 Z1.343
X-189.712 Y-55.258
X-189.758 Y-54.735
X-189.762 Y-54.68
X-189.789 Y-54.17
X-189.791 Y-54.106
X-189.797 Y-53.611
Y-53.542
X-189.782 Y-53.062 Z1.342
X-189.777 Y-52.986
X-189.74 Y-52.521
X-189.732 Y-52.437
X-189.672 Y-51.987
X-189.658 Y-51.903
X-189.576 Y-51.468
X-189.556 Y-51.376 Z1.341
X-189.451 Y-50.958
X-189.424 Y-50.863
X-189.296 Y-50.461
X-189.261 Y-50.363
X-189.11 Y-49.978
X-189.067 Y-49.878
X-188.893 Y-49.51 Z1.34
X-188.843 Y-49.413
X-188.647 Y-49.063
X-188.587 Y-48.966
X-188.369 Y-48.635
X-188.303 Y-48.542
X-188.064 Y-48.231
X-187.988 Y-48.139
X-187.728 Y-47.849 Z1.339
X-187.647 Y-47.765
X-187.368 Y-47.496
X-187.281 Y-47.418
X-186.984 Y-47.171
X-186.889 Y-47.098
X-186.574 Y-46.874
X-186.473 Y-46.808
X-186.141 Y-46.608 Z1.338
X-186.039 Y-46.552
X-185.692 Y-46.376
X-185.585 Y-46.327
X-185.223 Y-46.176
X-185.115 Y-46.136
X-184.74 Y-46.01
X-184.631 Y-45.978
X-184.243 Y-45.879 Z1.337
X-184.134 Y-45.855
X-183.734 Y-45.783
X-183.628 Y-45.767
X-183.218 Y-45.721
X-183.114 Y-45.712
X-182.693 Y-45.693
X-182.594 Y-45.691 Z1.336
X-182.164 Y-45.698
X-182.069 Y-45.702
X-181.63 Y-45.736
X-181.542 Y-45.745
X-181.093 Y-45.804
X-181.011 Y-45.817
X-180.554 Y-45.902 Z1.335
X-180.48 Y-45.917
X-180.014 Y-46.027
X-179.945 Y-46.045
X-179.47 Y-46.18
X-179.408 Y-46.199
X-178.925 Y-46.357
X-178.871 Y-46.376
X-178.379 Y-46.558 Z1.334
X-178.328 Y-46.577
X-177.828 Y-46.781
X-177.786 Y-46.799
X-177.276 Y-47.025
X-177.237 Y-47.042
X-176.718 Y-47.289 Z1.333
X-176.683 Y-47.306
X-176.155 Y-47.572
X-176.126 Y-47.587
X-175.588 Y-47.873
X-175.562 Y-47.888
X-175.054 Y-48.17 Z1.332
X-174.954 Y-48.218
X-174.903 Y-48.235
X-174.85 Y-48.245
X-174.797 Y-48.248
X-174.744 Y-48.244
X-174.692 Y-48.234
X-174.641 Y-48.216
X-174.594 Y-48.192
X-174.549 Y-48.163
X-174.511 Y-48.128
X-174.475 Y-48.088
X-174.445 Y-48.043
X-174.422 Y-47.996
X-174.405 Y-47.944
X-174.394 Y-47.891
X-174.387 Y-47.787
Y-15.657 Z1.315
G3 X-175.146 Y-13.512 Z1.314 I-3.413 J0
G2 X-166.454 Y-6.488 Z1.305 I4.346 J3.512
X-166.454 Y-13.512 Z1.301 I-4.346 J-3.512
G3 X-167.212 Y-15.657 Z1.3 I2.654 J-2.145
G1 Y-51.323 Z1.282
X-167.205 Y-51.561
X-167.186 Y-51.771 Z1.281
X-167.153 Y-51.979
X-167.108 Y-52.184
X-167.05 Y-52.388
X-166.979 Y-52.589
X-166.897 Y-52.781
X-166.802 Y-52.97
X-166.695 Y-53.154
X-166.579 Y-53.328
X-166.45 Y-53.497
X-166.312 Y-53.657 Z1.28
X-166.166 Y-53.807
X-166.01 Y-53.948
X-165.844 Y-54.08
X-165.652 Y-54.215
X-165.003 Y-54.64
X-164.321 Y-55.084 Z1.279
X-163.627 Y-55.533
X-162.92 Y-55.988 Z1.278
G2 X-156.342 Y-70.2 Z1.27 I-7.88 J-12.276
G1 X-156.411 Y-70.807 Z1.269
X-156.452 Y-71.392
X-156.468 Y-71.972
X-156.46 Y-72.547
X-156.428 Y-73.117 Z1.268
X-156.372 Y-73.686
X-156.295 Y-74.252
X-156.196 Y-74.813 Z1.267
X-156.077 Y-75.376
X-155.939 Y-75.935
X-155.782 Y-76.491
X-155.609 Y-77.045 Z1.266
X-155.419 Y-77.596
X-155.215 Y-78.144
X-154.997 Y-78.689 Z1.265
X-154.768 Y-79.228
X-154.528 Y-79.762
X-154.279 Y-80.29 Z1.264
X-154.021 Y-80.812
X-153.755 Y-81.327
X-153.484 Y-81.834
X-153.21 Y-82.331 Z1.263
X-152.93 Y-82.818
X-152.647 Y-83.297
X-152.364 Y-83.764 Z1.262
X-152.079 Y-84.217
X-151.795 Y-84.659
X-151.51 Y-85.087
X-151.227 Y-85.502 Z1.261
X-150.945 Y-85.901
X-150.665 Y-86.286
X-150.385 Y-86.661
X-127.384 Y-116.844 Z1.241
X-127.069 Y-117.237
X-126.761 Y-117.583
X-126.448 Y-117.9 Z1.24
X-126.13 Y-118.189
X-125.806 Y-118.452
X-125.477 Y-118.689
X-125.138 Y-118.905
X-124.79 Y-119.103 Z1.239
X-124.436 Y-119.28
X-124.069 Y-119.44
X-123.692 Y-119.585
X-123.306 Y-119.714 Z1.238
X-122.908 Y-119.829
X-122.497 Y-119.932
X-122.078 Y-120.022
X-121.649 Y-120.1
X-121.211 Y-120.168 Z1.237
X-120.768 Y-120.226
X-119.836 Y-120.319
X-118.884 Y-120.383 Z1.236
X-117.905 Y-120.424
X-116.904 Y-120.451 Z1.235
X-115.884 Y-120.467
X-114.848 Y-120.475 Z1.234
X-113.8 Y-120.476
X-112.752 Y-120.475 Z1.233
X-111.716 Y-120.467 Z1.232
X-110.696 Y-120.451
X-109.695 Y-120.424 Z1.231
X-108.716 Y-120.383
X-107.764 Y-120.319 Z1.23
X-106.832 Y-120.226
X-106.389 Y-120.168
X-105.951 Y-120.1
X-105.522 Y-120.022 Z1.229
X-105.103 Y-119.932
X-104.692 Y-119.829
X-104.294 Y-119.714
X-103.908 Y-119.585 Z1.228
X-103.531 Y-119.44
X-103.164 Y-119.28
X-102.81 Y-119.103
X-102.462 Y-118.905
X-102.123 Y-118.689 Z1.227
X-101.794 Y-118.452
X-101.47 Y-118.189
X-101.151 Y-117.9
X-100.838 Y-117.583
X-100.531 Y-117.237 Z1.226
X-100.216 Y-116.844
X-77.215 Y-86.661 Z1.207
X-76.934 Y-86.286 Z1.206
X-76.655 Y-85.901
X-76.373 Y-85.502
X-76.09 Y-85.088
X-75.806 Y-84.659 Z1.205
X-75.521 Y-84.217
X-75.236 Y-83.763
X-74.952 Y-83.296 Z1.204
X-74.67 Y-82.819
X-74.391 Y-82.331
X-74.115 Y-81.833
X-73.844 Y-81.327 Z1.203
X-73.58 Y-80.812
X-73.322 Y-80.29
X-73.072 Y-79.762 Z1.202
X-72.832 Y-79.228
X-72.603 Y-78.688
X-72.385 Y-78.144
X-72.181 Y-77.596 Z1.201
X-71.992 Y-77.045
X-71.818 Y-76.491
X-71.661 Y-75.934 Z1.2
X-71.523 Y-75.375
X-71.404 Y-74.814
X-71.305 Y-74.251 Z1.199
X-71.228 Y-73.685
X-71.172 Y-73.117
X-71.14 Y-72.546
X-71.132 Y-71.971 Z1.198
X-71.148 Y-71.392
X-71.189 Y-70.807
X-71.258 Y-70.2 Z1.197
G2 X-64.68 Y-55.988 Z1.189 I14.459 J1.935
G1 X-63.973 Y-55.533 Z1.188
X-63.279 Y-55.084
X-62.597 Y-54.64
X-61.948 Y-54.215 Z1.187
X-61.755 Y-54.08
X-61.591 Y-53.949
X-61.434 Y-53.807
X-61.287 Y-53.657
X-61.15 Y-53.497
X-61.022 Y-53.329
X-60.904 Y-53.153 Z1.186
X-60.798 Y-52.97
X-60.704 Y-52.782
X-60.621 Y-52.588
X-60.55 Y-52.388
X-60.492 Y-52.185
X-60.447 Y-51.979
X-60.414 Y-51.77
X-60.395 Y-51.56
X-60.388 Y-51.324 Z1.185
Y-15.657 Z1.167
G3 X-61.146 Y-13.512 Z1.166 I-3.413 J0
G2 X-52.454 Y-6.488 Z1.157 I4.346 J3.512
X-52.454 Y-13.512 Z1.153 I-4.346 J-3.512
G3 X-53.213 Y-15.657 Z1.152 I2.654 J-2.145
G1 Y-47.787 Z1.135
X-53.206 Y-47.893
X-53.195 Y-47.945
X-53.178 Y-47.995
X-53.155 Y-48.043
X-53.125 Y-48.087
X-53.09 Y-48.127
X-53.05 Y-48.163
X-53.006 Y-48.192
X-52.958 Y-48.216
X-52.908 Y-48.234
X-52.856 Y-48.244
X-52.803 Y-48.248
X-52.75 Y-48.245
X-52.697 Y-48.235
X-52.646 Y-48.218
X-52.546 Y-48.17
X-52.037 Y-47.887 Z1.134
X-52.011 Y-47.873
X-51.474 Y-47.588
X-51.444 Y-47.572
X-50.916 Y-47.306
X-50.882 Y-47.289
X-50.363 Y-47.043
X-50.324 Y-47.025
X-49.815 Y-46.799 Z1.133
X-49.771 Y-46.781
X-49.27 Y-46.577
X-49.221 Y-46.558
X-48.729 Y-46.376
X-48.674 Y-46.357
X-48.191 Y-46.199 Z1.132
X-48.13 Y-46.18
X-47.655 Y-46.045
X-47.587 Y-46.027
X-47.121 Y-45.918
X-47.046 Y-45.902
X-46.589 Y-45.817 Z1.131
X-46.507 Y-45.804
X-46.058 Y-45.745
X-45.97 Y-45.736
X-45.531 Y-45.702
X-45.436 Y-45.698
X-45.006 Y-45.691
X-44.906 Y-45.693
X-44.486 Y-45.712 Z1.13
X-44.382 Y-45.721
X-43.972 Y-45.767
X-43.865 Y-45.783
X-43.465 Y-45.855
X-43.357 Y-45.879
X-42.969 Y-45.978
X-42.86 Y-46.01
X-42.485 Y-46.135 Z1.129
X-42.377 Y-46.176
X-42.015 Y-46.327
X-41.908 Y-46.376
X-41.561 Y-46.551
X-41.458 Y-46.609
X-41.126 Y-46.809
X-41.027 Y-46.874
X-40.712 Y-47.098 Z1.128
X-40.618 Y-47.17
X-40.32 Y-47.417
X-40.232 Y-47.496
X-39.953 Y-47.765
X-39.871 Y-47.85
X-39.611 Y-48.141
X-39.537 Y-48.231 Z1.127
X-39.298 Y-48.542
X-39.231 Y-48.636
X-39.013 Y-48.966
X-38.954 Y-49.063
X-38.758 Y-49.412
X-38.707 Y-49.511
X-38.533 Y-49.879 Z1.126
X-38.49 Y-49.978
X-38.339 Y-50.363
X-38.305 Y-50.46
X-38.177 Y-50.862
X-38.149 Y-50.958
X-38.044 Y-51.376
X-38.024 Y-51.468
X-37.942 Y-51.902 Z1.125
X-37.928 Y-51.989
X-37.868 Y-52.439
X-37.86 Y-52.52
X-37.823 Y-52.985
X-37.818 Y-53.061
X-37.803 Y-53.541
X-37.802 Y-53.611
X-37.809 Y-54.106 Z1.124
X-37.811 Y-54.169
X-37.837 Y-54.679
X-37.841 Y-54.736
X-37.888 Y-55.26
X-37.893 Y-55.312
X-37.959 Y-55.851 Z1.123
X-37.966 Y-55.897
X-38.05 Y-56.45
X-38.057 Y-56.491
X-38.158 Y-57.058
X-38.166 Y-57.095
X-38.284 Y-57.677 Z1.122
X-38.291 Y-57.709
X-38.426 Y-58.305
X-38.432 Y-58.333
X-38.582 Y-58.943
X-38.588 Y-58.968
X-38.752 Y-59.592 Z1.121
X-38.757 Y-59.613
X-38.934 Y-60.252
X-38.939 Y-60.27
X-39.128 Y-60.924
X-39.133 Y-60.938
X-39.333 Y-61.607 Z1.12
X-39.337 Y-61.619
X-39.548 Y-62.302
X-39.551 Y-62.312
X-39.771 Y-63.01
X-39.773 Y-63.017
X-40.002 Y-63.73 Z1.119
X-40.004 Y-63.736
X-40.241 Y-64.464
X-40.242 Y-64.468
X-40.485 Y-65.212 Z1.118
X-40.486 Y-65.213
X-40.736 Y-65.973
X-40.991 Y-66.748
X-41.25 Y-67.538 Z1.117
X-41.513 Y-68.343
X-41.78 Y-69.163 Z1.116
X-42.049 Y-69.999
X-42.321 Y-70.851 Z1.115
X-42.596 Y-71.719
X-42.873 Y-72.605 Z1.114
G2 X-54.831 Y-82.718 Z1.106 I-13.927 J4.341
G1 X-55.435 Y-82.813
X-56.01 Y-82.928 Z1.105
X-56.573 Y-83.066
X-57.125 Y-83.226
X-57.667 Y-83.409 Z1.104
X-58.2 Y-83.613
X-58.725 Y-83.838
X-59.242 Y-84.082
X-59.751 Y-84.346 Z1.103
X-60.253 Y-84.628
X-60.748 Y-84.926
X-61.237 Y-85.241 Z1.102
X-61.718 Y-85.57
X-62.192 Y-85.912
X-62.659 Y-86.266 Z1.101
X-63.118 Y-86.63
X-63.57 Y-87.003
X-64.013 Y-87.384
X-64.448 Y-87.771 Z1.1
X-64.873 Y-88.163
X-65.29 Y-88.558
X-65.697 Y-88.956 Z1.099
X-66.093 Y-89.355
X-66.479 Y-89.754
X-66.853 Y-90.151 Z1.098
X-67.216 Y-90.546
X-67.566 Y-90.938
X-67.904 Y-91.326
X-68.228 Y-91.709 Z1.097
X-68.539 Y-92.086
X-68.835 Y-92.458
X-69.122 Y-92.828
X-89.686 Y-119.814 Z1.079
G3 X-89.358 Y-120.477 I0.328 J-0.25
G1 X-56.8 Z1.062
G3 X-11.137 Y-93.584 Z1.034 I0 J52.212
G2 X-4.412 Y-95.323 Z1.029 I3.137 J-1.74
G1 Y-102.827 Z1.025
G2 X-5.072 Y-104.901 Z1.024 I-3.588 J0
X-19.796 Y-119.729 Z1.013 I-51.727 J36.637
G3 X-19.555 Y-120.477 Z1.012 I0.241 J-0.335
G1 X-11 Z1.008
G2 X-4.412 Y-127.064 Z1.003 I0 J-6.588
G1 Y-132.107 Z1
G2 X-7.831 Y-135.69 Z0.997 I-3.587 J0
G1 X-9.095 Y-135.764
X-10.312 Y-135.871 Z0.996
X-11.485 Y-136.011 Z0.995
X-12.607 Y-136.178
X-13.674 Y-136.369 Z0.994
X-14.683 Y-136.583
X-15.636 Y-136.816 Z0.993
X-16.532 Y-137.065
X-17.373 Y-137.329 Z0.992
X-18.159 Y-137.604
X-18.891 Y-137.89 Z0.991
X-19.573 Y-138.186
X-20.204 Y-138.488
X-20.785 Y-138.796 Z0.99
X-21.318 Y-139.108
X-21.803 Y-139.422
X-22.242 Y-139.738 Z0.989
X-22.634 Y-140.052
X-22.984 Y-140.366
X-23.289 Y-140.674
X-23.552 Y-140.976
X-23.775 Y-141.272 Z0.988
X-23.961 Y-141.56
X-24.11 Y-141.838
X-24.226 Y-142.106
X-24.312 Y-142.365
X-24.37 Y-142.616
X-24.402 Y-142.862 Z0.987
X-24.41 Y-143.105
X-24.394 Y-143.348
X-24.354 Y-143.595
X-24.287 Y-143.848
X-24.192 Y-144.109
X-24.066 Y-144.379
X-23.905 Y-144.659 Z0.986
X-23.709 Y-144.948
X-23.475 Y-145.244
X-23.201 Y-145.547
X-22.886 Y-145.854
X-22.527 Y-146.165 Z0.985
X-22.126 Y-146.477
X-21.68 Y-146.789
X-21.188 Y-147.099
X-20.652 Y-147.406 Z0.984
X-20.068 Y-147.708
X-19.437 Y-148.004
X-18.757 Y-148.293 Z0.983
X-18.029 Y-148.572
X-17.251 Y-148.84 Z0.982
X-16.42 Y-149.096
X-15.539 Y-149.338 Z0.981
X-14.604 Y-149.563
X-13.616 Y-149.77 Z0.98
X-12.575 Y-149.956
X-11.481 Y-150.118 Z0.979
X-10.335 Y-150.254
X-9.144 Y-150.361 Z0.978
X-7.906 Y-150.434 Z0.977
X-7.848 Y-150.437
X-7.845
G2 X-4.412 Y-154.021 Z0.975 I-0.155 J-3.584
G1 Y-159.064 Z0.972
G2 X-11 Y-165.652 Z0.967 I-6.588 J0
G1 X-19.555 Z0.962
G3 X-19.796 Y-166.399 I0 J-0.413
G2 X-5.072 Y-181.227 Z0.951 I-37.004 J-51.465
X-4.412 Y-183.301 Z0.95 I-2.928 J-2.074
G1 Y-190.805 Z0.946
G2 X-11.137 Y-192.545 Z0.941 I-3.588 J0
G3 X-56.8 Y-165.652 Z0.913 I-45.663 J-25.319
G1 X-89.358 Z0.896
G3 X-89.686 Y-166.314 Z0.895 I0 J-0.412
G1 X-69.122 Y-193.3 Z0.878
X-68.835 Y-193.671
X-68.538 Y-194.042
X-68.228 Y-194.419 Z0.877
X-67.904 Y-194.802
X-67.566 Y-195.19
X-67.216 Y-195.582 Z0.876
X-66.853 Y-195.977
X-66.479 Y-196.375
X-66.093 Y-196.773
X-65.697 Y-197.172 Z0.875
X-65.29 Y-197.57
X-64.874 Y-197.965
X-64.448 Y-198.357 Z0.874
X-64.013 Y-198.744
X-63.569 Y-199.125
X-63.118 Y-199.498
X-62.659 Y-199.863 Z0.873
X-62.192 Y-200.217
X-61.718 Y-200.558
X-61.237 Y-200.887 Z0.872
X-60.748 Y-201.202
X-60.253 Y-201.501
X-59.751 Y-201.782 Z0.871
X-59.242 Y-202.046
X-58.725 Y-202.29
X-58.2 Y-202.515
X-57.667 Y-202.719 Z0.87
X-57.124 Y-202.902
X-56.573 Y-203.062
X-56.01 Y-203.2 Z0.869
X-55.435 Y-203.316
X-54.831 Y-203.41
G2 X-42.873 Y-213.524 Z0.86 I-1.969 J-14.454
G1 X-42.596 Y-214.409
X-42.321 Y-215.277 Z0.859
X-42.049 Y-216.129
X-41.78 Y-216.965 Z0.858
X-41.513 Y-217.785
X-41.25 Y-218.591
X-40.991 Y-219.38 Z0.857
X-40.736 Y-220.155
X-40.486 Y-220.915 Z0.856
X-40.485 Y-220.917
X-40.242 Y-221.661
X-40.241 Y-221.664
X-40.004 Y-222.392 Z0.855
X-40.002 Y-222.398
X-39.773 Y-223.111
X-39.771 Y-223.118
X-39.551 Y-223.816
X-39.548 Y-223.826
X-39.337 Y-224.509 Z0.854
X-39.333 Y-224.521
X-39.132 Y-225.19
X-39.128 Y-225.204
X-38.939 Y-225.857
X-38.934 Y-225.875
X-38.757 Y-226.514 Z0.853
X-38.751 Y-226.536
X-38.588 Y-227.161
X-38.582 Y-227.185
X-38.432 Y-227.795
X-38.426 Y-227.824
X-38.291 Y-228.42 Z0.852
X-38.284 Y-228.451
X-38.166 Y-229.032
X-38.158 Y-229.069
X-38.057 Y-229.636
X-38.05 Y-229.678
X-37.966 Y-230.231 Z0.851
X-37.959 Y-230.277
X-37.893 Y-230.816
X-37.888 Y-230.868
X-37.841 Y-231.391
X-37.837 Y-231.449
X-37.811 Y-231.959 Z0.85
X-37.809 Y-232.022
X-37.802 Y-232.517
X-37.803 Y-232.588
X-37.818 Y-233.067
X-37.823 Y-233.143
X-37.86 Y-233.608
X-37.868 Y-233.689
X-37.928 Y-234.139 Z0.849
X-37.942 Y-234.226
X-38.024 Y-234.66
X-38.044 Y-234.751
X-38.149 Y-235.17
X-38.177 Y-235.266
X-38.305 Y-235.668
X-38.339 Y-235.766 Z0.848
X-38.491 Y-236.151
X-38.533 Y-236.249
X-38.707 Y-236.617
X-38.758 Y-236.717
X-38.954 Y-237.066
X-39.012 Y-237.161
X-39.23 Y-237.492 Z0.847
X-39.298 Y-237.587
X-39.537 Y-237.898
X-39.612 Y-237.988
X-39.871 Y-238.278
X-39.953 Y-238.363
X-40.232 Y-238.632
X-40.32 Y-238.71
X-40.617 Y-238.957 Z0.846
X-40.711 Y-239.03
X-41.027 Y-239.254
X-41.127 Y-239.319
X-41.458 Y-239.52
X-41.56 Y-239.576
X-41.907 Y-239.752
X-42.014 Y-239.801
X-42.376 Y-239.952 Z0.845
X-42.485 Y-239.993
X-42.861 Y-240.118
X-42.97 Y-240.15
X-43.357 Y-240.249
X-43.465 Y-240.273
X-43.864 Y-240.346
X-43.973 Y-240.362
X-44.383 Y-240.408 Z0.844
X-44.485 Y-240.416
X-44.905 Y-240.436
X-45.007 Y-240.437
X-45.437 Y-240.43
X-45.53 Y-240.426
X-45.969 Y-240.393 Z0.843
X-46.058 Y-240.384
X-46.506 Y-240.325
X-46.589 Y-240.312
X-47.046 Y-240.227
X-47.121 Y-240.211
X-47.587 Y-240.101
X-47.657 Y-240.083
X-48.131 Y-239.948 Z0.842
X-48.19 Y-239.93
X-48.673 Y-239.772
X-48.731 Y-239.752
X-49.222 Y-239.57
X-49.27 Y-239.551
X-49.771 Y-239.347 Z0.841
X-49.813 Y-239.329
X-50.323 Y-239.104
X-50.364 Y-239.085
X-50.883 Y-238.838
X-50.915 Y-238.823
X-51.443 Y-238.557
X-51.474 Y-238.541 Z0.84
X-52.012 Y-238.255
X-52.037 Y-238.241
X-52.546 Y-237.958
X-52.648 Y-237.909
X-52.697 Y-237.893
X-52.749 Y-237.883
X-52.801 Y-237.88
X-52.856 Y-237.884
X-52.909 Y-237.895
X-52.957 Y-237.911
X-53.006 Y-237.936
X-53.05 Y-237.965
X-53.09 Y-238.001
X-53.126 Y-238.041
X-53.154 Y-238.085
X-53.178 Y-238.133 Z0.839
X-53.195 Y-238.184
X-53.206 Y-238.236
X-53.213 Y-238.341
Y-270.471 Z0.823
G3 X-52.454 Y-272.616 Z0.822 I3.413 J0
G2 X-61.146 Y-279.64 Z0.813 I-4.346 J-3.512
X-61.146 Y-272.616 Z0.809 I4.346 J3.512
G3 X-60.388 Y-270.471 Z0.808 I-2.654 J2.145
G1 Y-234.804 Z0.789
X-60.395 Y-234.568
X-60.414 Y-234.358
X-60.447 Y-234.149
X-60.492 Y-233.943
X-60.55 Y-233.74
X-60.621 Y-233.54
X-60.704 Y-233.346 Z0.788
X-60.798 Y-233.158
X-60.904 Y-232.976
X-61.022 Y-232.8
X-61.15 Y-232.63
X-61.286 Y-232.472
X-61.434 Y-232.321
X-61.591 Y-232.179
X-61.755 Y-232.049
X-61.948 Y-231.913 Z0.787
X-62.597 Y-231.488
X-63.279 Y-231.045
X-63.973 Y-230.596 Z0.786
X-64.68 Y-230.14
G2 X-71.258 Y-215.928 Z0.777 I7.88 J12.276
G1 X-71.189 Y-215.321
X-71.148 Y-214.736
X-71.132 Y-214.156 Z0.776
X-71.14 Y-213.582
X-71.172 Y-213.011
X-71.228 Y-212.443
X-71.305 Y-211.877 Z0.775
X-71.404 Y-211.314
X-71.523 Y-210.753
X-71.661 Y-210.194 Z0.774
X-71.818 Y-209.638
X-71.992 Y-209.083
X-72.181 Y-208.532 Z0.773
X-72.385 Y-207.984
X-72.603 Y-207.44
X-72.832 Y-206.9
X-73.072 Y-206.367 Z0.772
X-73.322 Y-205.838
X-73.579 Y-205.316
X-73.844 Y-204.802 Z0.771
X-74.115 Y-204.295
X-74.391 Y-203.797
X-74.67 Y-203.309 Z0.77
X-74.952 Y-202.832
X-75.236 Y-202.365
X-75.521 Y-201.911
X-75.806 Y-201.47 Z0.769
X-76.091 Y-201.04
X-76.374 Y-200.626
X-76.655 Y-200.227
X-76.934 Y-199.842 Z0.768
X-77.215 Y-199.467
X-100.216 Y-169.284 Z0.749
X-100.531 Y-168.891 Z0.748
X-100.838 Y-168.545
X-101.151 Y-168.228
X-101.469 Y-167.94
X-101.794 Y-167.677 Z0.747
X-102.124 Y-167.438
X-102.462 Y-167.223
X-102.81 Y-167.025
X-103.164 Y-166.848
X-103.531 Y-166.688 Z0.746
X-103.908 Y-166.543
X-104.294 Y-166.414
X-104.692 Y-166.299
X-105.103 Y-166.196
X-105.521 Y-166.106 Z0.745
X-105.951 Y-166.028
X-106.391 Y-165.96
X-106.832 Y-165.902
X-107.763 Y-165.809 Z0.744
X-108.716 Y-165.746
X-109.695 Y-165.704 Z0.743
X-110.696 Y-165.677
X-111.716 Y-165.661 Z0.742
X-112.752 Y-165.653
X-113.8 Y-165.652 Z0.741
X-114.848 Y-165.653
X-115.884 Y-165.661 Z0.74
X-116.904 Y-165.677
X-117.905 Y-165.704 Z0.739
X-118.884 Y-165.746 Z0.738
X-119.837 Y-165.809
X-120.768 Y-165.902
X-121.209 Y-165.96 Z0.737
X-121.649 Y-166.028
X-122.079 Y-166.106
X-122.497 Y-166.196
X-122.908 Y-166.299 Z0.736
X-123.306 Y-166.414
X-123.692 Y-166.543
X-124.069 Y-166.688
X-124.436 Y-166.848
X-124.79 Y-167.025 Z0.735
X-125.138 Y-167.223
X-125.476 Y-167.438
X-125.806 Y-167.677
X-126.131 Y-167.94
X-126.448 Y-168.228 Z0.734
X-126.761 Y-168.545
X-127.069 Y-168.891
X-127.384 Y-169.284
X-150.385 Y-199.468 Z0.714
X-150.666 Y-199.842
X-150.945 Y-200.227
X-151.226 Y-200.626 Z0.713
X-151.509 Y-201.041
X-151.795 Y-201.47
X-152.079 Y-201.911
X-152.364 Y-202.365 Z0.712
X-152.647 Y-202.831
X-152.93 Y-203.31
X-153.21 Y-203.797 Z0.711
X-153.484 Y-204.294
X-153.755 Y-204.802
X-154.021 Y-205.317
X-154.279 Y-205.838 Z0.71
X-154.528 Y-206.367
X-154.768 Y-206.9
X-154.997 Y-207.44 Z0.709
X-155.215 Y-207.984
X-155.419 Y-208.532
X-155.609 Y-209.083 Z0.708
X-155.782 Y-209.638
X-155.939 Y-210.193
X-156.077 Y-210.752
X-156.196 Y-211.315 Z0.707
X-156.295 Y-211.876
X-156.372 Y-212.442
X-156.428 Y-213.011 Z0.706
X-156.46 Y-213.582
X-156.468 Y-214.156
X-156.452 Y-214.736 Z0.705
X-156.411 Y-215.321
X-156.342 Y-215.928
G2 X-162.92 Y-230.14 Z0.696 I-14.459 J-1.936
G1 X-163.627 Y-230.596
X-164.321 Y-231.045
X-165.003 Y-231.489 Z0.695
X-165.652 Y-231.913
X-165.845 Y-232.049
X-166.01 Y-232.18 Z0.694
X-166.166 Y-232.322
X-166.313 Y-232.471
X-166.449 Y-232.63
X-166.58 Y-232.801
X-166.696 Y-232.975
X-166.802 Y-233.158
X-166.897 Y-233.347
X-166.978 Y-233.539
X-167.05 Y-233.741
X-167.108 Y-233.944 Z0.693
X-167.153 Y-234.149
X-167.186 Y-234.357
X-167.205 Y-234.568
X-167.212 Y-234.805
Y-270.471 Z0.675
G3 X-166.454 Y-272.616 Z0.673 I3.413 J0
G2 X-175.146 Y-279.64 Z0.664 I-4.346 J-3.512
X-175.146 Y-272.616 Z0.661 I4.346 J3.512
G3 X-174.387 Y-270.471 Z0.659 I-2.654 J2.145
G1 Y-238.341 Z0.643
X-174.394 Y-238.237
X-174.405 Y-238.184
X-174.422 Y-238.133
X-174.445 Y-238.085
X-174.475 Y-238.041
X-174.51 Y-238
X-174.55 Y-237.965
X-174.594 Y-237.936
X-174.642 Y-237.911
X-174.691 Y-237.895
X-174.744 Y-237.884 Z0.642
X-174.798 Y-237.88
X-174.851 Y-237.883
X-174.903 Y-237.893
X-174.953 Y-237.909
X-175.053 Y-237.958
X-175.562 Y-238.241
X-175.588 Y-238.255
X-176.126 Y-238.541
X-176.157 Y-238.557
X-176.685 Y-238.823 Z0.641
X-176.717 Y-238.838
X-177.236 Y-239.085
X-177.277 Y-239.104
X-177.787 Y-239.329
X-177.828 Y-239.347
X-178.328 Y-239.551 Z0.64
X-178.377 Y-239.57
X-178.869 Y-239.752
X-178.926 Y-239.772
X-179.409 Y-239.93
X-179.469 Y-239.948
X-179.944 Y-240.083
X-180.013 Y-240.101
X-180.479 Y-240.211 Z0.639
X-180.554 Y-240.227
X-181.011 Y-240.312
X-181.094 Y-240.325
X-181.543 Y-240.384
X-181.631 Y-240.393
X-182.07 Y-240.426 Z0.638
X-182.163 Y-240.43
X-182.593 Y-240.437
X-182.694 Y-240.436
X-183.115 Y-240.416
X-183.217 Y-240.408
X-183.627 Y-240.362
X-183.735 Y-240.346
X-184.135 Y-240.273 Z0.637
X-184.242 Y-240.249
X-184.63 Y-240.15
X-184.74 Y-240.118
X-185.115 Y-239.993
X-185.224 Y-239.952
X-185.586 Y-239.801
X-185.693 Y-239.752
X-186.04 Y-239.576 Z0.636
X-186.141 Y-239.52
X-186.473 Y-239.32
X-186.574 Y-239.254
X-186.889 Y-239.03
X-186.984 Y-238.957
X-187.281 Y-238.71
X-187.368 Y-238.632
X-187.647 Y-238.363 Z0.635
X-187.727 Y-238.28
X-187.987 Y-237.99
X-188.064 Y-237.897
X-188.303 Y-237.586
X-188.37 Y-237.492
X-188.588 Y-237.161
X-188.646 Y-237.065 Z0.634
X-188.842 Y-236.716
X-188.893 Y-236.618
X-189.067 Y-236.25
X-189.11 Y-236.151
X-189.261 Y-235.766
X-189.296 Y-235.668
X-189.424 Y-235.266 Z0.633
X-189.451 Y-235.17
X-189.556 Y-234.751
X-189.576 Y-234.66
X-189.658 Y-234.226
X-189.672 Y-234.141
X-189.732 Y-233.691
X-189.74 Y-233.607
X-189.777 Y-233.142 Z0.632
X-189.782 Y-233.066
X-189.797 Y-232.587
Y-232.518
X-189.791 Y-232.023
X-189.789 Y-231.958
X-189.762 Y-231.448 Z0.631
X-189.758 Y-231.393
X-189.712 Y-230.87
X-189.707 Y-230.816
X-189.641 Y-230.277
X-189.634 Y-230.232
X-189.55 Y-229.679
X-189.543 Y-229.636
X-189.441 Y-229.069 Z0.63
X-189.434 Y-229.031
X-189.315 Y-228.45
X-189.309 Y-228.421
X-189.175 Y-227.825
X-189.168 Y-227.794
X-189.018 Y-227.184 Z0.629
X-189.012 Y-227.162
X-188.849 Y-226.537
X-188.843 Y-226.514
X-188.666 Y-225.875
X-188.661 Y-225.858
X-188.472 Y-225.205 Z0.628
X-188.467 Y-225.189
X-188.266 Y-224.52
X-188.263 Y-224.51
X-188.053 Y-223.827 Z0.627
X-188.049 Y-223.815
X-187.828 Y-223.117
X-187.826 Y-223.111
X-187.597 Y-222.398
X-187.596 Y-222.393
X-187.36 Y-221.665 Z0.626
X-187.358 Y-221.66
X-187.114 Y-220.916
Y-220.915
X-186.864 Y-220.155 Z0.625
X-186.609 Y-219.38
X-186.35 Y-218.591
X-186.088 Y-217.786 Z0.624
X-185.82 Y-216.965
X-185.551 Y-216.129 Z0.623
X-185.279 Y-215.277
X-185.004 Y-214.409 Z0.622
X-184.726 Y-213.523
G2 X-172.769 Y-203.41 Z0.613 I13.926 J-4.341
G1 X-172.165 Y-203.316
X-171.591 Y-203.2
X-171.026 Y-203.062
X-170.476 Y-202.902 Z0.612
X-169.933 Y-202.719
X-169.4 Y-202.515
X-168.875 Y-202.29 Z0.611
X-168.359 Y-202.046
X-167.849 Y-201.782
X-167.347 Y-201.501 Z0.61
X-166.853 Y-201.202
X-166.363 Y-200.887
X-165.882 Y-200.558
X-165.408 Y-200.217 Z0.609
X-164.941 Y-199.863
X-164.482 Y-199.498
X-164.03 Y-199.125 Z0.608
X-163.587 Y-198.744
X-163.152 Y-198.357
X-162.726 Y-197.965 Z0.607
X-162.31 Y-197.57
X-161.903 Y-197.172
X-161.507 Y-196.773
X-161.122 Y-196.375 Z0.606
X-160.747 Y-195.977
X-160.385 Y-195.582
X-160.034 Y-195.19 Z0.605
X-159.697 Y-194.802
X-159.372 Y-194.419
X-159.061 Y-194.042
X-158.765 Y-193.671 Z0.604
X-158.478 Y-193.3
X-137.914 Y-166.314 Z0.587
G3 X-138.242 Y-165.652 Z0.586 I-0.328 J0.25
G1 X-170.8 Z0.57
G3 X-216.463 Y-192.545 Z0.541 I0 J-52.212
G2 X-223.188 Y-190.805 Z0.536 I-3.137 J1.74
G1 Y-183.301 Z0.532
G2 X-222.527 Y-181.227 Z0.531 I3.587 J0
X-207.805 Y-166.399 Z0.52 I51.728 J-36.636
G3 X-208.045 Y-165.652 I-0.24 J0.335
G1 X-216.6 Z0.515
G2 X-223.188 Y-159.064 Z0.51 I0 J6.588
G1 Y-156.064 Z0.509
G2 X-219.6 Y-152.477 Z0.506 I3.587 J0
G1 X-193.188 Z0.492
Y-133.652 Z0.482
X-219.6 Z0.469
G2 X-223.188 Y-130.064 Z0.466 I0 J3.588
G1 Y-127.064 Z0.464
G2 X-216.6 Y-120.477 Z0.459 I6.587 J0
G1 X-208.045 Z0.455
G3 X-207.804 Y-119.729 Z0.454 I0 J0.412
G2 X-222.527 Y-104.901 Z0.443 I37.005 J51.465
X-223.188 Y-102.827 Z0.442 I2.927 J2.074
G1 Y-95.323 Z0.438
G2 X-216.463 Y-93.584 Z0.434 I3.587 J0
G3 X-170.8 Y-120.477 Z0.405 I45.663 J25.32
G1 X-138.242 Z0.388
G3 X-137.914 Y-119.814 I0 J0.413
G1 X-158.478 Y-92.828 Z0.37
X-158.765 Y-92.457
X-159.061 Y-92.087
X-159.372 Y-91.709
X-159.697 Y-91.325 Z0.369
X-160.033 Y-90.938
X-160.385 Y-90.546
X-160.747 Y-90.151
X-161.121 Y-89.753 Z0.368
X-161.507 Y-89.355
X-161.903 Y-88.956
X-162.31 Y-88.558
X-162.726 Y-88.163 Z0.367
X-163.152 Y-87.771
X-163.587 Y-87.384
X-164.03 Y-87.003 Z0.366
X-164.482 Y-86.63
X-164.941 Y-86.266
X-165.408 Y-85.912 Z0.365
X-165.882 Y-85.57
X-166.364 Y-85.241
X-166.852 Y-84.926
X-167.346 Y-84.628 Z0.364
X-167.849 Y-84.346
X-168.359 Y-84.082
X-168.875 Y-83.838 Z0.363
X-169.4 Y-83.613
X-169.933 Y-83.409
X-170.475 Y-83.226 Z0.362
X-171.027 Y-83.066
X-171.59 Y-82.928
X-172.165 Y-82.813
X-172.77 Y-82.718 Z0.361
G2 X-184.726 Y-72.606 Z0.353 I1.97 J14.454
G1 X-185.004 Y-71.72 Z0.352
X-185.279 Y-70.851
X-185.551 Y-69.999 Z0.351
X-185.82 Y-69.164
X-186.087 Y-68.342 Z0.35
X-186.35 Y-67.537
X-186.609 Y-66.748
X-186.864 Y-65.973 Z0.349
X-187.114 Y-65.214
Y-65.212
X-187.358 Y-64.468 Z0.348
X-187.36 Y-64.463
X-187.596 Y-63.734
X-187.597 Y-63.73
X-187.826 Y-63.017
X-187.828 Y-63.011
X-188.049 Y-62.313 Z0.347
X-188.053 Y-62.3
X-188.263 Y-61.617
X-188.266 Y-61.608
X-188.467 Y-60.94 Z0.346
X-188.472 Y-60.923
X-188.661 Y-60.27
X-188.666 Y-60.253
X-188.843 Y-59.614
X-188.849 Y-59.591
X-189.012 Y-58.966 Z0.345
X-189.018 Y-58.944
X-189.168 Y-58.334
X-189.175 Y-58.303
X-189.309 Y-57.708
X-189.315 Y-57.678
X-189.434 Y-57.096 Z0.344
X-189.441 Y-57.059
X-189.543 Y-56.492
X-189.55 Y-56.449
X-189.634 Y-55.896
X-189.641 Y-55.851
X-189.707 Y-55.313 Z0.343
X-189.712 Y-55.258
X-189.758 Y-54.735
X-189.762 Y-54.68
X-189.789 Y-54.17
X-189.791 Y-54.106
X-189.797 Y-53.611
Y-53.542
X-189.782 Y-53.062 Z0.342
X-189.777 Y-52.986
X-189.74 Y-52.521
X-189.732 Y-52.437
X-189.672 Y-51.987
X-189.658 Y-51.903
X-189.576 Y-51.468
X-189.556 Y-51.376 Z0.341
X-189.451 Y-50.958
X-189.424 Y-50.863
X-189.296 Y-50.461
X-189.261 Y-50.363
X-189.11 Y-49.978
X-189.067 Y-49.878
X-188.893 Y-49.51 Z0.34
X-188.843 Y-49.413
X-188.647 Y-49.063
X-188.587 Y-48.966
X-188.369 Y-48.635
X-188.303 Y-48.542
X-188.064 Y-48.231
X-187.988 Y-48.139
X-187.728 Y-47.849 Z0.339
X-187.647 Y-47.765
X-187.368 Y-47.496
X-187.281 Y-47.418
X-186.984 Y-47.171
X-186.889 Y-47.098
X-186.574 Y-46.874
X-186.473 Y-46.808
X-186.141 Y-46.608 Z0.338
X-186.039 Y-46.552
X-185.692 Y-46.376
X-185.585 Y-46.327
X-185.223 Y-46.176
X-185.115 Y-46.136
X-184.74 Y-46.01
X-184.631 Y-45.978
X-184.243 Y-45.879 Z0.337
X-184.134 Y-45.855
X-183.734 Y-45.783
X-183.628 Y-45.767
X-183.218 Y-45.721
X-183.114 Y-45.712
X-182.693 Y-45.693
X-182.594 Y-45.691 Z0.336
X-182.164 Y-45.698
X-182.069 Y-45.702
X-181.63 Y-45.736
X-181.542 Y-45.745
X-181.093 Y-45.804
X-181.011 Y-45.817
X-180.554 Y-45.902 Z0.335
X-180.48 Y-45.917
X-180.014 Y-46.027
X-179.945 Y-46.045
X-179.47 Y-46.18
X-179.408 Y-46.199
X-178.925 Y-46.357
X-178.871 Y-46.376
X-178.379 Y-46.558 Z0.334
X-178.328 Y-46.577
X-177.828 Y-46.781
X-177.786 Y-46.799
X-177.276 Y-47.025
X-177.237 Y-47.042
X-176.718 Y-47.289 Z0.333
X-176.683 Y-47.306
X-176.155 Y-47.572
X-176.126 Y-47.587
X-175.588 Y-47.873
X-175.562 Y-47.888
X-175.054 Y-48.17 Z0.332
X-174.954 Y-48.218
X-174.903 Y-48.235
X-174.85 Y-48.245
X-174.797 Y-48.248
X-174.744 Y-48.244
X-174.692 Y-48.234
X-174.641 Y-48.216
X-174.594 Y-48.192
X-174.549 Y-48.163
X-174.511 Y-48.128
X-174.475 Y-48.088
X-174.445 Y-48.043
X-174.422 Y-47.996
X-174.405 Y-47.944
X-174.394 Y-47.891
X-174.387 Y-47.787
Y-15.657 Z0.315
G3 X-175.146 Y-13.512 Z0.314 I-3.413 J0
G2 X-166.454 Y-6.488 Z0.305 I4.346 J3.512
X-166.454 Y-13.512 Z0.301 I-4.346 J-3.512
G3 X-167.212 Y-15.657 Z0.3 I2.654 J-2.145
G1 Y-51.323 Z0.282
X-167.205 Y-51.561
X-167.186 Y-51.771 Z0.281
X-167.153 Y-51.979
X-167.108 Y-52.184
X-167.05 Y-52.388
X-166.979 Y-52.589
X-166.897 Y-52.781
X-166.802 Y-52.97
X-166.695 Y-53.154
X-166.579 Y-53.328
X-166.45 Y-53.497
X-166.312 Y-53.657 Z0.28
X-166.166 Y-53.807
X-166.01 Y-53.948
X-165.844 Y-54.08
X-165.652 Y-54.215
X-165.003 Y-54.64
X-164.321 Y-55.084 Z0.279
X-163.627 Y-55.533
X-162.92 Y-55.988 Z0.278
G2 X-156.342 Y-70.2 Z0.27 I-7.88 J-12.276
G1 X-156.411 Y-70.807 Z0.269
X-156.452 Y-71.392
X-156.468 Y-71.972
X-156.46 Y-72.547
X-156.428 Y-73.117 Z0.268
X-156.372 Y-73.686
X-156.295 Y-74.252
X-156.196 Y-74.813 Z0.267
X-156.077 Y-75.376
X-155.939 Y-75.935
X-155.782 Y-76.491
X-155.609 Y-77.045 Z0.266
X-155.419 Y-77.596
X-155.215 Y-78.144
X-154.997 Y-78.689 Z0.265
X-154.768 Y-79.228
X-154.528 Y-79.762
X-154.279 Y-80.29 Z0.264
X-154.021 Y-80.812
X-153.755 Y-81.327
X-153.484 Y-81.834
X-153.21 Y-82.331 Z0.263
X-152.93 Y-82.818
X-152.647 Y-83.297
X-152.364 Y-83.764 Z0.262
X-152.079 Y-84.217
X-151.795 Y-84.659
X-151.51 Y-85.087
X-151.227 Y-85.502 Z0.261
X-150.945 Y-85.901
X-150.665 Y-86.286
X-150.385 Y-86.661
X-127.384 Y-116.844 Z0.241
X-127.069 Y-117.237
X-126.761 Y-117.583
X-126.448 Y-117.9 Z0.24
X-126.13 Y-118.189
X-125.806 Y-118.452
X-125.477 Y-118.689
X-125.138 Y-118.905
X-124.79 Y-119.103 Z0.239
X-124.436 Y-119.28
X-124.069 Y-119.44
X-123.692 Y-119.585
X-123.306 Y-119.714 Z0.238
X-122.908 Y-119.829
X-122.497 Y-119.932
X-122.078 Y-120.022
X-121.649 Y-120.1
X-121.211 Y-120.168 Z0.237
X-120.768 Y-120.226
X-119.836 Y-120.319
X-118.884 Y-120.383 Z0.236
X-117.905 Y-120.424
X-116.904 Y-120.451 Z0.235
X-115.884 Y-120.467
X-114.848 Y-120.475 Z0.234
X-113.8 Y-120.476
X-112.752 Y-120.475 Z0.233
X-111.716 Y-120.467 Z0.232
X-110.696 Y-120.451
X-109.695 Y-120.424 Z0.231
X-108.716 Y-120.383
X-107.764 Y-120.319 Z0.23
X-106.832 Y-120.226
X-106.389 Y-120.168
X-105.951 Y-120.1
X-105.522 Y-120.022 Z0.229
X-105.103 Y-119.932
X-104.692 Y-119.829
X-104.294 Y-119.714
X-103.908 Y-119.585 Z0.228
X-103.531 Y-119.44
X-103.164 Y-119.28
X-102.81 Y-119.103
X-102.462 Y-118.905
X-102.123 Y-118.689 Z0.227
X-101.794 Y-118.452
X-101.47 Y-118.189
X-101.151 Y-117.9
X-100.838 Y-117.583
X-100.531 Y-117.237 Z0.226
X-100.216 Y-116.844
X-77.215 Y-86.661 Z0.207
X-76.934 Y-86.286 Z0.206
X-76.655 Y-85.901
X-76.373 Y-85.502
X-76.09 Y-85.088
X-75.806 Y-84.659 Z0.205
X-75.521 Y-84.217
X-75.236 Y-83.763
X-74.952 Y-83.296 Z0.204
X-74.67 Y-82.819
X-74.391 Y-82.331
X-74.115 Y-81.833
X-73.844 Y-81.327 Z0.203
X-73.58 Y-80.812
X-73.322 Y-80.29
X-73.072 Y-79.762 Z0.202
X-72.832 Y-79.228
X-72.603 Y-78.688
X-72.385 Y-78.144
X-72.181 Y-77.596 Z0.201
X-71.992 Y-77.045
X-71.818 Y-76.491
X-71.661 Y-75.934 Z0.2
X-71.523 Y-75.375
X-71.404 Y-74.814
X-71.305 Y-74.251 Z0.199
X-71.228 Y-73.685
X-71.172 Y-73.117
X-71.14 Y-72.546
X-71.132 Y-71.971 Z0.198
X-71.148 Y-71.392
X-71.189 Y-70.807
X-71.258 Y-70.2 Z0.197
G2 X-64.68 Y-55.988 Z0.189 I14.459 J1.935
G1 X-63.973 Y-55.533 Z0.188
X-63.279 Y-55.084
X-62.597 Y-54.64
X-61.948 Y-54.215 Z0.187
X-61.755 Y-54.08
X-61.591 Y-53.949
X-61.434 Y-53.807
X-61.287 Y-53.657
X-61.15 Y-53.497
X-61.022 Y-53.329
X-60.904 Y-53.153 Z0.186
X-60.798 Y-52.97
X-60.704 Y-52.782
X-60.621 Y-52.588
X-60.55 Y-52.388
X-60.492 Y-52.185
X-60.447 Y-51.979
X-60.414 Y-51.77
X-60.395 Y-51.56
X-60.388 Y-51.324 Z0.185
Y-15.657 Z0.167
G3 X-61.146 Y-13.512 Z0.166 I-3.413 J0
G2 X-52.454 Y-6.488 Z0.157 I4.346 J3.512
X-52.454 Y-13.512 Z0.153 I-4.346 J-3.512
G3 X-53.213 Y-15.657 Z0.152 I2.654 J-2.145
G1 Y-47.787 Z0.135
X-53.206 Y-47.893
X-53.195 Y-47.945
X-53.178 Y-47.995
X-53.155 Y-48.043
X-53.125 Y-48.087
X-53.09 Y-48.127
X-53.05 Y-48.163
X-53.006 Y-48.192
X-52.958 Y-48.216
X-52.908 Y-48.234
X-52.856 Y-48.244
X-52.803 Y-48.248
X-52.75 Y-48.245
X-52.697 Y-48.235
X-52.646 Y-48.218
X-52.546 Y-48.17
X-52.037 Y-47.887 Z0.134
X-52.011 Y-47.873
X-51.474 Y-47.588
X-51.444 Y-47.572
X-50.916 Y-47.306
X-50.882 Y-47.289
X-50.363 Y-47.043
X-50.324 Y-47.025
X-49.815 Y-46.799 Z0.133
X-49.771 Y-46.781
X-49.27 Y-46.577
X-49.221 Y-46.558
X-48.729 Y-46.376
X-48.674 Y-46.357
X-48.191 Y-46.199 Z0.132
X-48.13 Y-46.18
X-47.655 Y-46.045
X-47.587 Y-46.027
X-47.121 Y-45.918
X-47.046 Y-45.902
X-46.589 Y-45.817 Z0.131
X-46.507 Y-45.804
X-46.058 Y-45.745
X-45.97 Y-45.736
X-45.531 Y-45.702
X-45.436 Y-45.698
X-45.006 Y-45.691
X-44.906 Y-45.693
X-44.486 Y-45.712 Z0.13
X-44.382 Y-45.721
X-43.972 Y-45.767
X-43.865 Y-45.783
X-43.465 Y-45.855
X-43.357 Y-45.879
X-42.969 Y-45.978
X-42.86 Y-46.01
X-42.485 Y-46.135 Z0.129
X-42.377 Y-46.176
X-42.015 Y-46.327
X-41.908 Y-46.376
X-41.561 Y-46.551
X-41.458 Y-46.609
X-41.126 Y-46.809
X-41.027 Y-46.874
X-40.712 Y-47.098 Z0.128
X-40.618 Y-47.17
X-40.32 Y-47.417
X-40.232 Y-47.496
X-39.953 Y-47.765
X-39.871 Y-47.85
X-39.611 Y-48.141
X-39.537 Y-48.231 Z0.127
X-39.298 Y-48.542
X-39.231 Y-48.636
X-39.013 Y-48.966
X-38.954 Y-49.063
X-38.758 Y-49.412
X-38.707 Y-49.511
X-38.533 Y-49.879 Z0.126
X-38.49 Y-49.978
X-38.339 Y-50.363
X-38.305 Y-50.46
X-38.177 Y-50.862
X-38.149 Y-50.958
X-38.044 Y-51.376
X-38.024 Y-51.468
X-37.942 Y-51.902 Z0.125
X-37.928 Y-51.989
X-37.868 Y-52.439
X-37.86 Y-52.52
X-37.823 Y-52.985
X-37.818 Y-53.061
X-37.803 Y-53.541
X-37.802 Y-53.611
X-37.809 Y-54.106 Z0.124
X-37.811 Y-54.169
X-37.837 Y-54.679
X-37.841 Y-54.736
X-37.888 Y-55.26
X-37.893 Y-55.312
X-37.959 Y-55.851 Z0.123
X-37.966 Y-55.897
X-38.05 Y-56.45
X-38.057 Y-56.491
X-38.158 Y-57.058
X-38.166 Y-57.095
X-38.284 Y-57.677 Z0.122
X-38.291 Y-57.709
X-38.426 Y-58.305
X-38.432 Y-58.333
X-38.582 Y-58.943
X-38.588 Y-58.968
X-38.752 Y-59.592 Z0.121
X-38.757 Y-59.613
X-38.934 Y-60.252
X-38.939 Y-60.27
X-39.128 Y-60.924
X-39.133 Y-60.938
X-39.333 Y-61.607 Z0.12
X-39.337 Y-61.619
X-39.548 Y-62.302
X-39.551 Y-62.312
X-39.771 Y-63.01
X-39.773 Y-63.017
X-40.002 Y-63.73 Z0.119
X-40.004 Y-63.736
X-40.241 Y-64.464
X-40.242 Y-64.468
X-40.485 Y-65.212 Z0.118
X-40.486 Y-65.213
X-40.736 Y-65.973
X-40.991 Y-66.748
X-41.25 Y-67.538 Z0.117
X-41.513 Y-68.343
X-41.78 Y-69.163 Z0.116
X-42.049 Y-69.999
X-42.321 Y-70.851 Z0.115
X-42.596 Y-71.719
X-42.873 Y-72.605 Z0.114
G2 X-54.831 Y-82.718 Z0.106 I-13.927 J4.341
G1 X-55.435 Y-82.813
X-56.01 Y-82.928 Z0.105
X-56.573 Y-83.066
X-57.125 Y-83.226
X-57.667 Y-83.409 Z0.104
X-58.2 Y-83.613
X-58.725 Y-83.838
X-59.242 Y-84.082
X-59.751 Y-84.346 Z0.103
X-60.253 Y-84.628
X-60.748 Y-84.926
X-61.237 Y-85.241 Z0.102
X-61.718 Y-85.57
X-62.192 Y-85.912
X-62.659 Y-86.266 Z0.101
X-63.118 Y-86.63
X-63.57 Y-87.003
X-64.013 Y-87.384
X-64.448 Y-87.771 Z0.1
X-64.873 Y-88.163
X-65.29 Y-88.558
X-65.697 Y-88.956 Z0.099
X-66.093 Y-89.355
X-66.479 Y-89.754
X-66.853 Y-90.151 Z0.098
X-67.216 Y-90.546
X-67.566 Y-90.938
X-67.904 Y-91.326
X-68.228 Y-91.709 Z0.097
X-68.539 Y-92.086
X-68.835 Y-92.458
X-69.122 Y-92.828
X-89.686 Y-119.814 Z0.079
G3 X-89.358 Y-120.477 I0.328 J-0.25
G1 X-56.8 Z0.062
G3 X-11.137 Y-93.584 Z0.034 I0 J52.212
G2 X-4.412 Y-95.323 Z0.029 I3.137 J-1.74
G1 Y-102.827 Z0.025
G2 X-5.072 Y-104.901 Z0.024 I-3.588 J0
X-19.796 Y-119.729 Z0.013 I-51.727 J36.637
G3 X-19.555 Y-120.477 Z0.012 I0.241 J-0.335
G1 X-11 Z0.008
G2 X-4.412 Y-127.064 Z0.003 I0 J-6.588
G1 Y-132.107 Z0
G2 X-7.831 Y-135.69 Z-0.003 I-3.587 J0
G1 X-9.095 Y-135.764
X-10.312 Y-135.871 Z-0.004
X-11.485 Y-136.011 Z-0.005
X-12.607 Y-136.178
X-13.674 Y-136.369 Z-0.006
X-14.683 Y-136.583
X-15.636 Y-136.816 Z-0.007
X-16.532 Y-137.065
X-17.373 Y-137.329 Z-0.008
X-18.159 Y-137.604
X-18.891 Y-137.89 Z-0.009
X-19.573 Y-138.186
X-20.204 Y-138.488
X-20.785 Y-138.796 Z-0.01
X-21.318 Y-139.108
X-21.803 Y-139.422
X-22.242 Y-139.738 Z-0.011
X-22.634 Y-140.052
X-22.984 Y-140.366
X-23.289 Y-140.674
X-23.552 Y-140.976
X-23.775 Y-141.272 Z-0.012
X-23.961 Y-141.56
X-24.11 Y-141.838
X-24.226 Y-142.106
X-24.312 Y-142.365
X-24.37 Y-142.616
X-24.402 Y-142.862 Z-0.013
X-24.41 Y-143.105
X-24.394 Y-143.348
X-24.354 Y-143.595
X-24.287 Y-143.848
X-24.192 Y-144.109
X-24.066 Y-144.379
X-23.905 Y-144.659 Z-0.014
X-23.709 Y-144.948
X-23.475 Y-145.244
X-23.201 Y-145.547
X-22.886 Y-145.854
X-22.527 Y-146.165 Z-0.015
X-22.126 Y-146.477
X-21.68 Y-146.789
X-21.188 Y-147.099
X-20.652 Y-147.406 Z-0.016
X-20.068 Y-147.708
X-19.437 Y-148.004
X-18.757 Y-148.293 Z-0.017
X-18.029 Y-148.572
X-17.251 Y-148.84 Z-0.018
X-16.42 Y-149.096
X-15.539 Y-149.338 Z-0.019
X-14.604 Y-149.563
X-13.616 Y-149.77 Z-0.02
X-12.575 Y-149.956
X-11.481 Y-150.118 Z-0.021
X-10.335 Y-150.254
X-9.144 Y-150.361 Z-0.022
X-7.906 Y-150.434 Z-0.023
X-7.848 Y-150.437
X-7.845
G2 X-4.412 Y-154.021 Z-0.025 I-0.155 J-3.584
G1 Y-159.064 Z-0.028
G2 X-11 Y-165.652 Z-0.033 I-6.588 J0
G1 X-19.555 Z-0.038
G3 X-19.796 Y-166.399 I0 J-0.413
G2 X-5.072 Y-181.227 Z-0.049 I-37.004 J-51.465
X-4.412 Y-183.301 Z-0.05 I-2.928 J-2.074
G1 Y-190.805 Z-0.054
G2 X-11.137 Y-192.545 Z-0.059 I-3.588 J0
G3 X-56.8 Y-165.652 Z-0.087 I-45.663 J-25.319
G1 X-89.358 Z-0.104
G3 X-89.686 Y-166.314 Z-0.105 I0 J-0.412
G1 X-69.122 Y-193.3 Z-0.122
X-68.835 Y-193.671
X-68.538 Y-194.042
X-68.228 Y-194.419 Z-0.123
X-67.904 Y-194.802
X-67.566 Y-195.19
X-67.216 Y-195.582 Z-0.124
X-66.853 Y-195.977
X-66.479 Y-196.375
X-66.093 Y-196.773
X-65.697 Y-197.172 Z-0.125
X-65.29 Y-197.57
X-64.874 Y-197.965
X-64.448 Y-198.357 Z-0.126
X-64.013 Y-198.744
X-63.569 Y-199.125
X-63.118 Y-199.498
X-62.659 Y-199.863 Z-0.127
X-62.192 Y-200.217
X-61.718 Y-200.558
X-61.237 Y-200.887 Z-0.128
X-60.748 Y-201.202
X-60.253 Y-201.501
X-59.751 Y-201.782 Z-0.129
X-59.242 Y-202.046
X-58.725 Y-202.29
X-58.2 Y-202.515
X-57.667 Y-202.719 Z-0.13
X-57.124 Y-202.902
X-56.573 Y-203.062
X-56.01 Y-203.2 Z-0.131
X-55.435 Y-203.316
X-54.831 Y-203.41
G2 X-42.873 Y-213.524 Z-0.14 I-1.969 J-14.454
G1 X-42.596 Y-214.409
X-42.321 Y-215.277 Z-0.141
X-42.049 Y-216.129
X-41.78 Y-216.965 Z-0.142
X-41.513 Y-217.785
X-41.25 Y-218.591
X-40.991 Y-219.38 Z-0.143
X-40.736 Y-220.155
X-40.486 Y-220.915 Z-0.144
X-40.485 Y-220.917
X-40.242 Y-221.661
X-40.241 Y-221.664
X-40.004 Y-222.392 Z-0.145
X-40.002 Y-222.398
X-39.773 Y-223.111
X-39.771 Y-223.118
X-39.551 Y-223.816
X-39.548 Y-223.826
X-39.337 Y-224.509 Z-0.146
X-39.333 Y-224.521
X-39.132 Y-225.19
X-39.128 Y-225.204
X-38.939 Y-225.857
X-38.934 Y-225.875
X-38.757 Y-226.514 Z-0.147
X-38.751 Y-226.536
X-38.588 Y-227.161
X-38.582 Y-227.185
X-38.432 Y-227.795
X-38.426 Y-227.824
X-38.291 Y-228.42 Z-0.148
X-38.284 Y-228.451
X-38.166 Y-229.032
X-38.158 Y-229.069
X-38.057 Y-229.636
X-38.05 Y-229.678
X-37.966 Y-230.231 Z-0.149
X-37.959 Y-230.277
X-37.893 Y-230.816
X-37.888 Y-230.868
X-37.841 Y-231.391
X-37.837 Y-231.449
X-37.811 Y-231.959 Z-0.15
X-37.809 Y-232.022
X-37.802 Y-232.517
X-37.803 Y-232.588
X-37.818 Y-233.067
X-37.823 Y-233.143
X-37.86 Y-233.608
X-37.868 Y-233.689
X-37.928 Y-234.139 Z-0.151
X-37.942 Y-234.226
X-38.024 Y-234.66
X-38.044 Y-234.751
X-38.149 Y-235.17
X-38.177 Y-235.266
X-38.305 Y-235.668
X-38.339 Y-235.766 Z-0.152
X-38.491 Y-236.151
X-38.533 Y-236.249
X-38.707 Y-236.617
X-38.758 Y-236.717
X-38.954 Y-237.066
X-39.012 Y-237.161
X-39.23 Y-237.492 Z-0.153
X-39.298 Y-237.587
X-39.537 Y-237.898
X-39.612 Y-237.988
X-39.871 Y-238.278
X-39.953 Y-238.363
X-40.232 Y-238.632
X-40.32 Y-238.71
X-40.617 Y-238.957 Z-0.154
X-40.711 Y-239.03
X-41.027 Y-239.254
X-41.127 Y-239.319
X-41.458 Y-239.52
X-41.56 Y-239.576
X-41.907 Y-239.752
X-42.014 Y-239.801
X-42.376 Y-239.952 Z-0.155
X-42.485 Y-239.993
X-42.861 Y-240.118
X-42.97 Y-240.15
X-43.357 Y-240.249
X-43.465 Y-240.273
X-43.864 Y-240.346
X-43.973 Y-240.362
X-44.383 Y-240.408 Z-0.156
X-44.485 Y-240.416
X-44.905 Y-240.436
X-45.007 Y-240.437
X-45.437 Y-240.43
X-45.53 Y-240.426
X-45.969 Y-240.393 Z-0.157
X-46.058 Y-240.384
X-46.506 Y-240.325
X-46.589 Y-240.312
X-47.046 Y-240.227
X-47.121 Y-240.211
X-47.587 Y-240.101
X-47.657 Y-240.083
X-48.131 Y-239.948 Z-0.158
X-48.19 Y-239.93
X-48.673 Y-239.772
X-48.731 Y-239.752
X-49.222 Y-239.57
X-49.27 Y-239.551
X-49.771 Y-239.347 Z-0.159
X-49.813 Y-239.329
X-50.323 Y-239.104
X-50.364 Y-239.085
X-50.883 Y-238.838
X-50.915 Y-238.823
X-51.443 Y-238.557
X-51.474 Y-238.541 Z-0.16
X-52.012 Y-238.255
X-52.037 Y-238.241
X-52.546 Y-237.958
X-52.648 Y-237.909
X-52.697 Y-237.893
X-52.749 Y-237.883
X-52.801 Y-237.88
X-52.856 Y-237.884
X-52.909 Y-237.895
X-52.957 Y-237.911
X-53.006 Y-237.936
X-53.05 Y-237.965
X-53.09 Y-238.001
X-53.126 Y-238.041
X-53.154 Y-238.085
X-53.178 Y-238.133 Z-0.161
X-53.195 Y-238.184
X-53.206 Y-238.236
X-53.213 Y-238.341
Y-270.471 Z-0.177
G3 X-52.454 Y-272.616 Z-0.178 I3.413 J0
G2 X-61.146 Y-279.64 Z-0.187 I-4.346 J-3.512
X-61.146 Y-272.616 Z-0.191 I4.346 J3.512
G3 X-60.388 Y-270.471 Z-0.192 I-2.654 J2.145
G1 Y-234.804 Z-0.211
X-60.395 Y-234.568
X-60.414 Y-234.358
X-60.447 Y-234.149
X-60.492 Y-233.943
X-60.55 Y-233.74
X-60.621 Y-233.54
X-60.704 Y-233.346 Z-0.212
X-60.798 Y-233.158
X-60.904 Y-232.976
X-61.022 Y-232.8
X-61.15 Y-232.63
X-61.286 Y-232.472
X-61.434 Y-232.321
X-61.591 Y-232.179
X-61.755 Y-232.049
X-61.948 Y-231.913 Z-0.213
X-62.597 Y-231.488
X-63.279 Y-231.045
X-63.973 Y-230.596 Z-0.214
X-64.68 Y-230.14
G2 X-71.258 Y-215.928 Z-0.223 I7.88 J12.276
G1 X-71.189 Y-215.321
X-71.148 Y-214.736
X-71.132 Y-214.156 Z-0.224
X-71.14 Y-213.582
X-71.172 Y-213.011
X-71.228 Y-212.443
X-71.305 Y-211.877 Z-0.225
X-71.404 Y-211.314
X-71.523 Y-210.753
X-71.661 Y-210.194 Z-0.226
X-71.818 Y-209.638
X-71.992 Y-209.083
X-72.181 Y-208.532 Z-0.227
X-72.385 Y-207.984
X-72.603 Y-207.44
X-72.832 Y-206.9
X-73.072 Y-206.367 Z-0.228
X-73.322 Y-205.838
X-73.579 Y-205.316
X-73.844 Y-204.802 Z-0.229
X-74.115 Y-204.295
X-74.391 Y-203.797
X-74.67 Y-203.309 Z-0.23
X-74.952 Y-202.832
X-75.236 Y-202.365
X-75.521 Y-201.911
X-75.806 Y-201.47 Z-0.231
X-76.091 Y-201.04
X-76.374 Y-200.626
X-76.655 Y-200.227
X-76.934 Y-199.842 Z-0.232
X-77.215 Y-199.467
X-100.216 Y-169.284 Z-0.251
X-100.531 Y-168.891 Z-0.252
X-100.838 Y-168.545
X-101.151 Y-168.228
X-101.469 Y-167.94
X-101.794 Y-167.677 Z-0.253
X-102.124 Y-167.438
X-102.462 Y-167.223
X-102.81 Y-167.025
X-103.164 Y-166.848
X-103.531 Y-166.688 Z-0.254
X-103.908 Y-166.543
X-104.294 Y-166.414
X-104.692 Y-166.299
X-105.103 Y-166.196
X-105.521 Y-166.106 Z-0.255
X-105.951 Y-166.028
X-106.391 Y-165.96
X-106.832 Y-165.902
X-107.763 Y-165.809 Z-0.256
X-108.716 Y-165.746
X-109.695 Y-165.704 Z-0.257
X-110.696 Y-165.677
X-111.716 Y-165.661 Z-0.258
X-112.752 Y-165.653
X-113.8 Y-165.652 Z-0.259
X-114.848 Y-165.653
X-115.884 Y-165.661 Z-0.26
X-116.904 Y-165.677
X-117.905 Y-165.704 Z-0.261
X-118.884 Y-165.746 Z-0.262
X-119.837 Y-165.809
X-120.768 Y-165.902
X-121.209 Y-165.96 Z-0.263
X-121.649 Y-166.028
X-122.079 Y-166.106
X-122.497 Y-166.196
X-122.908 Y-166.299 Z-0.264
X-123.306 Y-166.414
X-123.692 Y-166.543
X-124.069 Y-166.688
X-124.436 Y-166.848
X-124.79 Y-167.025 Z-0.265
X-125.138 Y-167.223
X-125.476 Y-167.438
X-125.806 Y-167.677
X-126.131 Y-167.94
X-126.448 Y-168.228 Z-0.266
X-126.761 Y-168.545
X-127.069 Y-168.891
X-127.384 Y-169.284
X-150.385 Y-199.468 Z-0.286
X-150.666 Y-199.842
X-150.945 Y-200.227
X-151.226 Y-200.626 Z-0.287
X-151.509 Y-201.041
X-151.795 Y-201.47
X-152.079 Y-201.911
X-152.364 Y-202.365 Z-0.288
X-152.647 Y-202.831
X-152.93 Y-203.31
X-153.21 Y-203.797 Z-0.289
X-153.484 Y-204.294
X-153.755 Y-204.802
X-154.021 Y-205.317
X-154.279 Y-205.838 Z-0.29
X-154.528 Y-206.367
X-154.768 Y-206.9
X-154.997 Y-207.44 Z-0.291
X-155.215 Y-207.984
X-155.419 Y-208.532
X-155.609 Y-209.083 Z-0.292
X-155.782 Y-209.638
X-155.939 Y-210.193
X-156.077 Y-210.752
X-156.196 Y-211.315 Z-0.293
X-156.295 Y-211.876
X-156.372 Y-212.442
X-156.428 Y-213.011 Z-0.294
X-156.46 Y-213.582
X-156.468 Y-214.156
X-156.452 Y-214.736 Z-0.295
X-156.411 Y-215.321
X-156.342 Y-215.928
G2 X-162.92 Y-230.14 Z-0.304 I-14.459 J-1.936
G1 X-163.627 Y-230.596
X-164.321 Y-231.045
X-165.003 Y-231.489 Z-0.305
X-165.652 Y-231.913
X-165.845 Y-232.049
X-166.01 Y-232.18 Z-0.306
X-166.166 Y-232.322
X-166.313 Y-232.471
X-166.449 Y-232.63
X-166.58 Y-232.801
X-166.696 Y-232.975
X-166.802 Y-233.158
X-166.897 Y-233.347
X-166.978 Y-233.539
X-167.05 Y-233.741
X-167.108 Y-233.944 Z-0.307
X-167.153 Y-234.149
X-167.186 Y-234.357
X-167.205 Y-234.568
X-167.212 Y-234.805
Y-270.471 Z-0.325
G3 X-166.454 Y-272.616 Z-0.327 I3.413 J0
G2 X-175.146 Y-279.64 Z-0.336 I-4.346 J-3.512
X-175.146 Y-272.616 Z-0.339 I4.346 J3.512
G3 X-174.387 Y-270.471 Z-0.341 I-2.654 J2.145
G1 Y-238.341 Z-0.357
X-174.394 Y-238.237
X-174.405 Y-238.184
X-174.422 Y-238.133
X-174.445 Y-238.085
X-174.475 Y-238.041
X-174.51 Y-238
X-174.55 Y-237.965
X-174.594 Y-237.936
X-174.642 Y-237.911
X-174.691 Y-237.895
X-174.744 Y-237.884 Z-0.358
X-174.798 Y-237.88
X-174.851 Y-237.883
X-174.903 Y-237.893
X-174.953 Y-237.909
X-175.053 Y-237.958
X-175.562 Y-238.241
X-175.588 Y-238.255
X-176.126 Y-238.541
X-176.157 Y-238.557
X-176.685 Y-238.823 Z-0.359
X-176.717 Y-238.838
X-177.236 Y-239.085
X-177.277 Y-239.104
X-177.787 Y-239.329
X-177.828 Y-239.347
X-178.328 Y-239.551 Z-0.36
X-178.377 Y-239.57
X-178.869 Y-239.752
X-178.926 Y-239.772
X-179.409 Y-239.93
X-179.469 Y-239.948
X-179.944 Y-240.083
X-180.013 Y-240.101
X-180.479 Y-240.211 Z-0.361
X-180.554 Y-240.227
X-181.011 Y-240.312
X-181.094 Y-240.325
X-181.543 Y-240.384
X-181.631 Y-240.393
X-182.07 Y-240.426 Z-0.362
X-182.163 Y-240.43
X-182.593 Y-240.437
X-182.694 Y-240.436
X-183.115 Y-240.416
X-183.217 Y-240.408
X-183.627 Y-240.362
X-183.735 Y-240.346
X-184.135 Y-240.273 Z-0.363
X-184.242 Y-240.249
X-184.63 Y-240.15
X-184.74 Y-240.118
X-185.115 Y-239.993
X-185.224 Y-239.952
X-185.586 Y-239.801
X-185.693 Y-239.752
X-186.04 Y-239.576 Z-0.364
X-186.141 Y-239.52
X-186.473 Y-239.32
X-186.574 Y-239.254
X-186.889 Y-239.03
X-186.984 Y-238.957
X-187.281 Y-238.71
X-187.368 Y-238.632
X-187.647 Y-238.363 Z-0.365
X-187.727 Y-238.28
X-187.987 Y-237.99
X-188.064 Y-237.897
X-188.303 Y-237.586
X-188.37 Y-237.492
X-188.588 Y-237.161
X-188.646 Y-237.065 Z-0.366
X-188.842 Y-236.716
X-188.893 Y-236.618
X-189.067 Y-236.25
X-189.11 Y-236.151
X-189.261 Y-235.766
X-189.296 Y-235.668
X-189.424 Y-235.266 Z-0.367
X-189.451 Y-235.17
X-189.556 Y-234.751
X-189.576 Y-234.66
X-189.658 Y-234.226
X-189.672 Y-234.141
X-189.732 Y-233.691
X-189.74 Y-233.607
X-189.777 Y-233.142 Z-0.368
X-189.782 Y-233.066
X-189.797 Y-232.587
Y-232.518
X-189.791 Y-232.023
X-189.789 Y-231.958
X-189.762 Y-231.448 Z-0.369
X-189.758 Y-231.393
X-189.712 Y-230.87
X-189.707 Y-230.816
X-189.641 Y-230.277
X-189.634 Y-230.232
X-189.55 Y-229.679
X-189.543 Y-229.636
X-189.441 Y-229.069 Z-0.37
X-189.434 Y-229.031
X-189.315 Y-228.45
X-189.309 Y-228.421
X-189.175 Y-227.825
X-189.168 Y-227.794
X-189.018 Y-227.184 Z-0.371
X-189.012 Y-227.162
X-188.849 Y-226.537
X-188.843 Y-226.514
X-188.666 Y-225.875
X-188.661 Y-225.858
X-188.472 Y-225.205 Z-0.372
X-188.467 Y-225.189
X-188.266 Y-224.52
X-188.263 Y-224.51
X-188.053 Y-223.827 Z-0.373
X-188.049 Y-223.815
X-187.828 Y-223.117
X-187.826 Y-223.111
X-187.597 Y-222.398
X-187.596 Y-222.393
X-187.36 Y-221.665 Z-0.374
X-187.358 Y-221.66
X-187.114 Y-220.916
Y-220.915
X-186.864 Y-220.155 Z-0.375
X-186.609 Y-219.38
X-186.35 Y-218.591
X-186.088 Y-217.786 Z-0.376
X-185.82 Y-216.965
X-185.551 Y-216.129 Z-0.377
X-185.279 Y-215.277
X-185.004 Y-214.409 Z-0.378
X-184.726 Y-213.523
G2 X-172.769 Y-203.41 Z-0.387 I13.926 J-4.341
G1 X-172.165 Y-203.316
X-171.591 Y-203.2
X-171.026 Y-203.062
X-170.476 Y-202.902 Z-0.388
X-169.933 Y-202.719
X-169.4 Y-202.515
X-168.875 Y-202.29 Z-0.389
X-168.359 Y-202.046
X-167.849 Y-201.782
X-167.347 Y-201.501 Z-0.39
X-166.853 Y-201.202
X-166.363 Y-200.887
X-165.882 Y-200.558
X-165.408 Y-200.217 Z-0.391
X-164.941 Y-199.863
X-164.482 Y-199.498
X-164.03 Y-199.125 Z-0.392
X-163.587 Y-198.744
X-163.152 Y-198.357
X-162.726 Y-197.965 Z-0.393
X-162.31 Y-197.57
X-161.903 Y-197.172
X-161.507 Y-196.773
X-161.122 Y-196.375 Z-0.394
X-160.747 Y-195.977
X-160.385 Y-195.582
X-160.034 Y-195.19 Z-0.395
X-159.697 Y-194.802
X-159.372 Y-194.419
X-159.061 Y-194.042
X-158.765 Y-193.671 Z-0.396
X-158.478 Y-193.3
X-137.914 Y-166.314 Z-0.413
G3 X-138.242 Y-165.652 Z-0.414 I-0.328 J0.25
G1 X-170.8 Z-0.43
G3 X-216.463 Y-192.545 Z-0.459 I0 J-52.212
G2 X-223.188 Y-190.805 Z-0.464 I-3.137 J1.74
G1 Y-183.301 Z-0.468
G2 X-222.527 Y-181.227 Z-0.469 I3.587 J0
X-207.805 Y-166.399 Z-0.48 I51.728 J-36.636
G3 X-208.045 Y-165.652 I-0.24 J0.335
G1 X-216.6 Z-0.485
G2 X-223.188 Y-159.064 Z-0.49 I0 J6.588
G1 Y-156.064 Z-0.491
G2 X-219.6 Y-152.477 Z-0.494 I3.587 J0
G1 X-193.188 Z-0.508
Y-133.652 Z-0.518
X-219.6 Z-0.531
G2 X-223.188 Y-130.064 Z-0.534 I0 J3.588
G1 Y-127.064 Z-0.536
G2 X-216.6 Y-120.477 Z-0.541 I6.587 J0
G1 X-208.045 Z-0.545
G3 X-207.804 Y-119.729 Z-0.546 I0 J0.412
G2 X-222.527 Y-104.901 Z-0.557 I37.005 J51.465
X-223.188 Y-102.827 Z-0.558 I2.927 J2.074
G1 Y-95.323 Z-0.562
G2 X-216.463 Y-93.584 Z-0.566 I3.587 J0
G3 X-170.8 Y-120.477 Z-0.595 I45.663 J25.32
G1 X-138.242 Z-0.612
G3 X-137.914 Y-119.814 I0 J0.413
G1 X-158.478 Y-92.828 Z-0.63
X-158.765 Y-92.457
X-159.061 Y-92.087
X-159.372 Y-91.709
X-159.697 Y-91.325 Z-0.631
X-160.033 Y-90.938
X-160.385 Y-90.546
X-160.747 Y-90.151
X-161.121 Y-89.753 Z-0.632
X-161.507 Y-89.355
X-161.903 Y-88.956
X-162.31 Y-88.558
X-162.726 Y-88.163 Z-0.633
X-163.152 Y-87.771
X-163.587 Y-87.384
X-164.03 Y-87.003 Z-0.634
X-164.482 Y-86.63
X-164.941 Y-86.266
X-165.408 Y-85.912 Z-0.635
X-165.882 Y-85.57
X-166.364 Y-85.241
X-166.852 Y-84.926
X-167.346 Y-84.628 Z-0.636
X-167.849 Y-84.346
X-168.359 Y-84.082
X-168.875 Y-83.838 Z-0.637
X-169.4 Y-83.613
X-169.933 Y-83.409
X-170.475 Y-83.226 Z-0.638
X-171.027 Y-83.066
X-171.59 Y-82.928
X-172.165 Y-82.813
X-172.77 Y-82.718 Z-0.639
G2 X-184.726 Y-72.606 Z-0.647 I1.97 J14.454
G1 X-185.004 Y-71.72 Z-0.648
X-185.279 Y-70.851
X-185.551 Y-69.999 Z-0.649
X-185.82 Y-69.164
X-186.087 Y-68.342 Z-0.65
X-186.35 Y-67.537
X-186.609 Y-66.748
X-186.864 Y-65.973 Z-0.651
X-187.114 Y-65.214
Y-65.212
X-187.358 Y-64.468 Z-0.652
X-187.36 Y-64.463
X-187.596 Y-63.734
X-187.597 Y-63.73
X-187.826 Y-63.017
X-187.828 Y-63.011
X-188.049 Y-62.313 Z-0.653
X-188.053 Y-62.3
X-188.263 Y-61.617
X-188.266 Y-61.608
X-188.467 Y-60.94 Z-0.654
X-188.472 Y-60.923
X-188.661 Y-60.27
X-188.666 Y-60.253
X-188.843 Y-59.614
X-188.849 Y-59.591
X-189.012 Y-58.966 Z-0.655
X-189.018 Y-58.944
X-189.168 Y-58.334
X-189.175 Y-58.303
X-189.309 Y-57.708
X-189.315 Y-57.678
X-189.434 Y-57.096 Z-0.656
X-189.441 Y-57.059
X-189.543 Y-56.492
X-189.55 Y-56.449
X-189.634 Y-55.896
X-189.641 Y-55.851
X-189.707 Y-55.313 Z-0.657
X-189.712 Y-55.258
X-189.758 Y-54.735
X-189.762 Y-54.68
X-189.789 Y-54.17
X-189.791 Y-54.106
X-189.797 Y-53.611
Y-53.542
X-189.782 Y-53.062 Z-0.658
X-189.777 Y-52.986
X-189.74 Y-52.521
X-189.732 Y-52.437
X-189.672 Y-51.987
X-189.658 Y-51.903
X-189.576 Y-51.468
X-189.556 Y-51.376 Z-0.659
X-189.451 Y-50.958
X-189.424 Y-50.863
X-189.296 Y-50.461
X-189.261 Y-50.363
X-189.11 Y-49.978
X-189.067 Y-49.878
X-188.893 Y-49.51 Z-0.66
X-188.843 Y-49.413
X-188.647 Y-49.063
X-188.587 Y-48.966
X-188.369 Y-48.635
X-188.303 Y-48.542
X-188.064 Y-48.231
X-187.988 Y-48.139
X-187.728 Y-47.849 Z-0.661
X-187.647 Y-47.765
X-187.368 Y-47.496
X-187.281 Y-47.418
X-186.984 Y-47.171
X-186.889 Y-47.098
X-186.574 Y-46.874
X-186.473 Y-46.808
X-186.141 Y-46.608 Z-0.662
X-186.039 Y-46.552
X-185.692 Y-46.376
X-185.585 Y-46.327
X-185.223 Y-46.176
X-185.115 Y-46.136
X-184.74 Y-46.01
X-184.631 Y-45.978
X-184.243 Y-45.879 Z-0.663
X-184.134 Y-45.855
X-183.734 Y-45.783
X-183.628 Y-45.767
X-183.218 Y-45.721
X-183.114 Y-45.712
X-182.693 Y-45.693
X-182.594 Y-45.691 Z-0.664
X-182.164 Y-45.698
X-182.069 Y-45.702
X-181.63 Y-45.736
X-181.542 Y-45.745
X-181.093 Y-45.804
X-181.011 Y-45.817
X-180.554 Y-45.902 Z-0.665
X-180.48 Y-45.917
X-180.014 Y-46.027
X-179.945 Y-46.045
X-179.47 Y-46.18
X-179.408 Y-46.199
X-178.925 Y-46.357
X-178.871 Y-46.376
X-178.379 Y-46.558 Z-0.666
X-178.328 Y-46.577
X-177.828 Y-46.781
X-177.786 Y-46.799
X-177.276 Y-47.025
X-177.237 Y-47.042
X-176.718 Y-47.289 Z-0.667
X-176.683 Y-47.306
X-176.155 Y-47.572
X-176.126 Y-47.587
X-175.588 Y-47.873
X-175.562 Y-47.888
X-175.054 Y-48.17 Z-0.668
X-174.954 Y-48.218
X-174.903 Y-48.235
X-174.85 Y-48.245
X-174.797 Y-48.248
X-174.744 Y-48.244
X-174.692 Y-48.234
X-174.641 Y-48.216
X-174.594 Y-48.192
X-174.549 Y-48.163
X-174.511 Y-48.128
X-174.475 Y-48.088
X-174.445 Y-48.043
X-174.422 Y-47.996
X-174.405 Y-47.944
X-174.394 Y-47.891
X-174.387 Y-47.787
Y-15.657 Z-0.685
G3 X-175.146 Y-13.512 Z-0.686 I-3.413 J0
G2 X-166.454 Y-6.488 Z-0.695 I4.346 J3.512
X-166.454 Y-13.512 Z-0.699 I-4.346 J-3.512
G3 X-167.212 Y-15.657 Z-0.7 I2.654 J-2.145
G1 Y-51.323 Z-0.718
X-167.205 Y-51.561
X-167.186 Y-51.771 Z-0.719
X-167.153 Y-51.979
X-167.108 Y-52.184
X-167.05 Y-52.388
X-166.979 Y-52.589
X-166.897 Y-52.781
X-166.802 Y-52.97
X-166.695 Y-53.154
X-166.579 Y-53.328
X-166.45 Y-53.497
X-166.312 Y-53.657 Z-0.72
X-166.166 Y-53.807
X-166.01 Y-53.948
X-165.844 Y-54.08
X-165.652 Y-54.215
X-165.003 Y-54.64
X-164.321 Y-55.084 Z-0.721
X-163.627 Y-55.533
X-162.92 Y-55.988 Z-0.722
G2 X-156.342 Y-70.2 Z-0.73 I-7.88 J-12.276
G1 X-156.411 Y-70.807 Z-0.731
X-156.452 Y-71.392
X-156.468 Y-71.972
X-156.46 Y-72.547
X-156.428 Y-73.117 Z-0.732
X-156.372 Y-73.686
X-156.295 Y-74.252
X-156.196 Y-74.813 Z-0.733
X-156.077 Y-75.376
X-155.939 Y-75.935
X-155.782 Y-76.491
X-155.609 Y-77.045 Z-0.734
X-155.419 Y-77.596
X-155.215 Y-78.144
X-154.997 Y-78.689 Z-0.735
X-154.768 Y-79.228
X-154.528 Y-79.762
X-154.279 Y-80.29 Z-0.736
X-154.021 Y-80.812
X-153.755 Y-81.327
X-153.484 Y-81.834
X-153.21 Y-82.331 Z-0.737
X-152.93 Y-82.818
X-152.647 Y-83.297
X-152.364 Y-83.764 Z-0.738
X-152.079 Y-84.217
X-151.795 Y-84.659
X-151.51 Y-85.087
X-151.227 Y-85.502 Z-0.739
X-150.945 Y-85.901
X-150.665 Y-86.286
X-150.385 Y-86.661
X-127.384 Y-116.844 Z-0.759
X-127.069 Y-117.237
X-126.761 Y-117.583
X-126.448 Y-117.9 Z-0.76
X-126.13 Y-118.189
X-125.806 Y-118.452
X-125.477 Y-118.689
X-125.138 Y-118.905
X-124.79 Y-119.103 Z-0.761
X-124.436 Y-119.28
X-124.069 Y-119.44
X-123.692 Y-119.585
X-123.306 Y-119.714 Z-0.762
X-122.908 Y-119.829
X-122.497 Y-119.932
X-122.078 Y-120.022
X-121.649 Y-120.1
X-121.211 Y-120.168 Z-0.763
X-120.768 Y-120.226
X-119.836 Y-120.319
X-118.884 Y-120.383 Z-0.764
X-117.905 Y-120.424
X-116.904 Y-120.451 Z-0.765
X-115.884 Y-120.467
X-114.848 Y-120.475 Z-0.766
X-113.8 Y-120.476
X-112.752 Y-120.475 Z-0.767
X-111.716 Y-120.467 Z-0.768
X-110.696 Y-120.451
X-109.695 Y-120.424 Z-0.769
X-108.716 Y-120.383
X-107.764 Y-120.319 Z-0.77
X-106.832 Y-120.226
X-106.389 Y-120.168
X-105.951 Y-120.1
X-105.522 Y-120.022 Z-0.771
X-105.103 Y-119.932
X-104.692 Y-119.829
X-104.294 Y-119.714
X-103.908 Y-119.585 Z-0.772
X-103.531 Y-119.44
X-103.164 Y-119.28
X-102.81 Y-119.103
X-102.462 Y-118.905
X-102.123 Y-118.689 Z-0.773
X-101.794 Y-118.452
X-101.47 Y-118.189
X-101.151 Y-117.9
X-100.838 Y-117.583
X-100.531 Y-117.237 Z-0.774
X-100.216 Y-116.844
X-77.215 Y-86.661 Z-0.793
X-76.934 Y-86.286 Z-0.794
X-76.655 Y-85.901
X-76.373 Y-85.502
X-76.09 Y-85.088
X-75.806 Y-84.659 Z-0.795
X-75.521 Y-84.217
X-75.236 Y-83.763
X-74.952 Y-83.296 Z-0.796
X-74.67 Y-82.819
X-74.391 Y-82.331
X-74.115 Y-81.833
X-73.844 Y-81.327 Z-0.797
X-73.58 Y-80.812
X-73.322 Y-80.29
X-73.072 Y-79.762 Z-0.798
X-72.832 Y-79.228
X-72.603 Y-78.688
X-72.385 Y-78.144
X-72.181 Y-77.596 Z-0.799
X-71.992 Y-77.045
X-71.818 Y-76.491
X-71.661 Y-75.934 Z-0.8
X-71.523 Y-75.375
X-71.404 Y-74.814
X-71.305 Y-74.251 Z-0.801
X-71.228 Y-73.685
X-71.172 Y-73.117
X-71.14 Y-72.546
X-71.132 Y-71.971 Z-0.802
X-71.148 Y-71.392
X-71.189 Y-70.807
X-71.258 Y-70.2 Z-0.803
G2 X-64.68 Y-55.988 Z-0.811 I14.459 J1.935
G1 X-63.973 Y-55.533 Z-0.812
X-63.279 Y-55.084
X-62.597 Y-54.64
X-61.948 Y-54.215 Z-0.813
X-61.755 Y-54.08
X-61.591 Y-53.949
X-61.434 Y-53.807
X-61.287 Y-53.657
X-61.15 Y-53.497
X-61.022 Y-53.329
X-60.904 Y-53.153 Z-0.814
X-60.798 Y-52.97
X-60.704 Y-52.782
X-60.621 Y-52.588
X-60.55 Y-52.388
X-60.492 Y-52.185
X-60.447 Y-51.979
X-60.414 Y-51.77
X-60.395 Y-51.56
X-60.388 Y-51.324 Z-0.815
Y-15.657 Z-0.833
G3 X-61.146 Y-13.512 Z-0.834 I-3.413 J0
G2 X-52.454 Y-6.488 Z-0.843 I4.346 J3.512
X-52.454 Y-13.512 Z-0.847 I-4.346 J-3.512
G3 X-53.213 Y-15.657 Z-0.848 I2.654 J-2.145
G1 Y-47.787 Z-0.865
X-53.206 Y-47.893
X-53.195 Y-47.945
X-53.178 Y-47.995
X-53.155 Y-48.043
X-53.125 Y-48.087
X-53.09 Y-48.127
X-53.05 Y-48.163
X-53.006 Y-48.192
X-52.958 Y-48.216
X-52.908 Y-48.234
X-52.856 Y-48.244
X-52.803 Y-48.248
X-52.75 Y-48.245
X-52.697 Y-48.235
X-52.646 Y-48.218
X-52.546 Y-48.17
X-52.037 Y-47.887 Z-0.866
X-52.011 Y-47.873
X-51.474 Y-47.588
X-51.444 Y-47.572
X-50.916 Y-47.306
X-50.882 Y-47.289
X-50.363 Y-47.043
X-50.324 Y-47.025
X-49.815 Y-46.799 Z-0.867
X-49.771 Y-46.781
X-49.27 Y-46.577
X-49.221 Y-46.558
X-48.729 Y-46.376
X-48.674 Y-46.357
X-48.191 Y-46.199 Z-0.868
X-48.13 Y-46.18
X-47.655 Y-46.045
X-47.587 Y-46.027
X-47.121 Y-45.918
X-47.046 Y-45.902
X-46.589 Y-45.817 Z-0.869
X-46.507 Y-45.804
X-46.058 Y-45.745
X-45.97 Y-45.736
X-45.531 Y-45.702
X-45.436 Y-45.698
X-45.006 Y-45.691
X-44.906 Y-45.693
X-44.486 Y-45.712 Z-0.87
X-44.382 Y-45.721
X-43.972 Y-45.767
X-43.865 Y-45.783
X-43.465 Y-45.855
X-43.357 Y-45.879
X-42.969 Y-45.978
X-42.86 Y-46.01
X-42.485 Y-46.135 Z-0.871
X-42.377 Y-46.176
X-42.015 Y-46.327
X-41.908 Y-46.376
X-41.561 Y-46.551
X-41.458 Y-46.609
X-41.126 Y-46.809
X-41.027 Y-46.874
X-40.712 Y-47.098 Z-0.872
X-40.618 Y-47.17
X-40.32 Y-47.417
X-40.232 Y-47.496
X-39.953 Y-47.765
X-39.871 Y-47.85
X-39.611 Y-48.141
X-39.537 Y-48.231 Z-0.873
X-39.298 Y-48.542
X-39.231 Y-48.636
X-39.013 Y-48.966
X-38.954 Y-49.063
X-38.758 Y-49.412
X-38.707 Y-49.511
X-38.533 Y-49.879 Z-0.874
X-38.49 Y-49.978
X-38.339 Y-50.363
X-38.305 Y-50.46
X-38.177 Y-50.862
X-38.149 Y-50.958
X-38.044 Y-51.376
X-38.024 Y-51.468
X-37.942 Y-51.902 Z-0.875
X-37.928 Y-51.989
X-37.868 Y-52.439
X-37.86 Y-52.52
X-37.823 Y-52.985
X-37.818 Y-53.061
X-37.803 Y-53.541
X-37.802 Y-53.611
X-37.809 Y-54.106 Z-0.876
X-37.811 Y-54.169
X-37.837 Y-54.679
X-37.841 Y-54.736
X-37.888 Y-55.26
X-37.893 Y-55.312
X-37.959 Y-55.851 Z-0.877
X-37.966 Y-55.897
X-38.05 Y-56.45
X-38.057 Y-56.491
X-38.158 Y-57.058
X-38.166 Y-57.095
X-38.284 Y-57.677 Z-0.878
X-38.291 Y-57.709
X-38.426 Y-58.305
X-38.432 Y-58.333
X-38.582 Y-58.943
X-38.588 Y-58.968
X-38.752 Y-59.592 Z-0.879
X-38.757 Y-59.613
X-38.934 Y-60.252
X-38.939 Y-60.27
X-39.128 Y-60.924
X-39.133 Y-60.938
X-39.333 Y-61.607 Z-0.88
X-39.337 Y-61.619
X-39.548 Y-62.302
X-39.551 Y-62.312
X-39.771 Y-63.01
X-39.773 Y-63.017
X-40.002 Y-63.73 Z-0.881
X-40.004 Y-63.736
X-40.241 Y-64.464
X-40.242 Y-64.468
X-40.485 Y-65.212 Z-0.882
X-40.486 Y-65.213
X-40.736 Y-65.973
X-40.991 Y-66.748
X-41.25 Y-67.538 Z-0.883
X-41.513 Y-68.343
X-41.78 Y-69.163 Z-0.884
X-42.049 Y-69.999
X-42.321 Y-70.851 Z-0.885
X-42.596 Y-71.719
X-42.873 Y-72.605 Z-0.886
G2 X-54.831 Y-82.718 Z-0.894 I-13.927 J4.341
G1 X-55.435 Y-82.813
X-56.01 Y-82.928 Z-0.895
X-56.573 Y-83.066
X-57.125 Y-83.226
X-57.667 Y-83.409 Z-0.896
X-58.2 Y-83.613
X-58.725 Y-83.838
X-59.242 Y-84.082
X-59.751 Y-84.346 Z-0.897
X-60.253 Y-84.628
X-60.748 Y-84.926
X-61.237 Y-85.241 Z-0.898
X-61.718 Y-85.57
X-62.192 Y-85.912
X-62.659 Y-86.266 Z-0.899
X-63.118 Y-86.63
X-63.57 Y-87.003
X-64.013 Y-87.384
X-64.448 Y-87.771 Z-0.9
X-64.873 Y-88.163
X-65.29 Y-88.558
X-65.697 Y-88.956 Z-0.901
X-66.093 Y-89.355
X-66.479 Y-89.754
X-66.853 Y-90.151 Z-0.902
X-67.216 Y-90.546
X-67.566 Y-90.938
X-67.904 Y-91.326
X-68.228 Y-91.709 Z-0.903
X-68.539 Y-92.086
X-68.835 Y-92.458
X-69.122 Y-92.828
X-89.686 Y-119.814 Z-0.921
G3 X-89.358 Y-120.477 I0.328 J-0.25
G1 X-56.8 Z-0.938
G3 X-11.137 Y-93.584 Z-0.966 I0 J52.212
G2 X-4.412 Y-95.323 Z-0.971 I3.137 J-1.74
G1 Y-102.827 Z-0.975
G2 X-5.072 Y-104.901 Z-0.976 I-3.588 J0
X-19.796 Y-119.729 Z-0.987 I-51.727 J36.637
G3 X-19.555 Y-120.477 Z-0.988 I0.241 J-0.335
G1 X-11 Z-0.992
G2 X-4.412 Y-127.064 Z-0.997 I0 J-6.588
G1 Y-132.107 Z-1
X-4.413 Y-132.185
S6000
G2 X-7.831 Y-135.69 I-3.587 J0.078 F1000
G1 X-9.095 Y-135.764
X-10.312 Y-135.871
X-11.485 Y-136.011
X-12.607 Y-136.178
X-13.674 Y-136.369
X-14.683 Y-136.583
X-15.636 Y-136.816
X-16.532 Y-137.065
X-17.373 Y-137.329
X-18.159 Y-137.604
X-18.891 Y-137.89
X-19.573 Y-138.186
X-20.204 Y-138.488
X-20.785 Y-138.796
X-21.318 Y-139.108
X-21.803 Y-139.422
X-22.242 Y-139.738
X-22.634 Y-140.052
X-22.984 Y-140.366
X-23.289 Y-140.674
X-23.552 Y-140.976
X-23.775 Y-141.272
X-23.961 Y-141.56
X-24.11 Y-141.838
X-24.226 Y-142.106
X-24.312 Y-142.365
X-24.37 Y-142.616
X-24.402 Y-142.862
X-24.41 Y-143.105
X-24.394 Y-143.348
X-24.354 Y-143.595
X-24.287 Y-143.848
X-24.192 Y-144.109
X-24.066 Y-144.379
X-23.905 Y-144.659
X-23.709 Y-144.948
X-23.475 Y-145.244
X-23.201 Y-145.547
X-22.886 Y-145.854
X-22.527 Y-146.165
X-22.126 Y-146.477
X-21.68 Y-146.789
X-21.188 Y-147.099
X-20.652 Y-147.406
X-20.068 Y-147.708
X-19.437 Y-148.004
X-18.757 Y-148.293
X-18.029 Y-148.572
X-17.251 Y-148.84
X-16.42 Y-149.096
X-15.539 Y-149.338
X-14.604 Y-149.563
X-13.616 Y-149.77
X-12.575 Y-149.956
X-11.481 Y-150.118
X-10.335 Y-150.254
X-9.144 Y-150.361
X-7.906 Y-150.434
X-7.848 Y-150.437
X-7.845
G2 X-4.412 Y-154.021 I-0.155 J-3.584
G1 Y-159.064
G2 X-11 Y-165.652 I-6.588 J0
G1 X-19.555
G3 X-19.796 Y-166.399 I0 J-0.413
G2 X-5.072 Y-181.227 I-37.004 J-51.465
X-4.412 Y-183.301 I-2.928 J-2.074
G1 Y-190.805
G2 X-11.137 Y-192.545 I-3.588 J0
G3 X-56.8 Y-165.652 I-45.663 J-25.319
G1 X-89.358
G3 X-89.686 Y-166.314 I0 J-0.412
G1 X-69.122 Y-193.3
X-68.835 Y-193.671
X-68.538 Y-194.042
X-68.228 Y-194.419
X-67.904 Y-194.802
X-67.566 Y-195.19
X-67.216 Y-195.582
X-66.853 Y-195.977
X-66.479 Y-196.375
X-66.093 Y-196.773
X-65.697 Y-197.172
X-65.29 Y-197.57
X-64.874 Y-197.965
X-64.448 Y-198.357
X-64.013 Y-198.744
X-63.569 Y-199.125
X-63.118 Y-199.498
X-62.659 Y-199.863
X-62.192 Y-200.217
X-61.718 Y-200.558
X-61.237 Y-200.887
X-60.748 Y-201.202
X-60.253 Y-201.501
X-59.751 Y-201.782
X-59.242 Y-202.046
X-58.725 Y-202.29
X-58.2 Y-202.515
X-57.667 Y-202.719
X-57.124 Y-202.902
X-56.573 Y-203.062
X-56.01 Y-203.2
X-55.435 Y-203.316
X-54.831 Y-203.41
G2 X-42.873 Y-213.524 I-1.969 J-14.454
G1 X-42.596 Y-214.409
X-42.321 Y-215.277
X-42.049 Y-216.129
X-41.78 Y-216.965
X-41.513 Y-217.785
X-41.25 Y-218.591
X-40.991 Y-219.38
X-40.736 Y-220.155
X-40.486 Y-220.915
X-40.485 Y-220.917
X-40.242 Y-221.661
X-40.241 Y-221.664
X-40.004 Y-222.392
X-40.002 Y-222.398
X-39.773 Y-223.111
X-39.771 Y-223.118
X-39.551 Y-223.816
X-39.548 Y-223.826
X-39.337 Y-224.509
X-39.333 Y-224.521
X-39.132 Y-225.19
X-39.128 Y-225.204
X-38.939 Y-225.857
X-38.934 Y-225.875
X-38.757 Y-226.514
X-38.751 Y-226.536
X-38.588 Y-227.161
X-38.582 Y-227.185
X-38.432 Y-227.795
X-38.426 Y-227.824
X-38.291 Y-228.42
X-38.284 Y-228.451
X-38.166 Y-229.032
X-38.158 Y-229.069
X-38.057 Y-229.636
X-38.05 Y-229.678
X-37.966 Y-230.231
X-37.959 Y-230.277
X-37.893 Y-230.816
X-37.888 Y-230.868
X-37.841 Y-231.391
X-37.837 Y-231.449
X-37.811 Y-231.959
X-37.809 Y-232.022
X-37.802 Y-232.517
X-37.803 Y-232.588
X-37.818 Y-233.067
X-37.823 Y-233.143
X-37.86 Y-233.608
X-37.868 Y-233.689
X-37.928 Y-234.139
X-37.942 Y-234.226
X-38.024 Y-234.66
X-38.044 Y-234.751
X-38.149 Y-235.17
X-38.177 Y-235.266
X-38.305 Y-235.668
X-38.339 Y-235.766
X-38.491 Y-236.151
X-38.533 Y-236.249
X-38.707 Y-236.617
X-38.758 Y-236.717
X-38.954 Y-237.066
X-39.012 Y-237.161
X-39.23 Y-237.492
X-39.298 Y-237.587
X-39.537 Y-237.898
X-39.612 Y-237.988
X-39.871 Y-238.278
X-39.953 Y-238.363
X-40.232 Y-238.632
X-40.32 Y-238.71
X-40.617 Y-238.957
X-40.711 Y-239.03
X-41.027 Y-239.254
X-41.127 Y-239.319
X-41.458 Y-239.52
X-41.56 Y-239.576
X-41.907 Y-239.752
X-42.014 Y-239.801
X-42.376 Y-239.952
X-42.485 Y-239.993
X-42.861 Y-240.118
X-42.97 Y-240.15
X-43.357 Y-240.249
X-43.465 Y-240.273
X-43.864 Y-240.346
X-43.973 Y-240.362
X-44.383 Y-240.408
X-44.485 Y-240.416
X-44.905 Y-240.436
X-45.007 Y-240.437
X-45.437 Y-240.43
X-45.53 Y-240.426
X-45.969 Y-240.393
X-46.058 Y-240.384
X-46.506 Y-240.325
X-46.589 Y-240.312
X-47.046 Y-240.227
X-47.121 Y-240.211
X-47.587 Y-240.101
X-47.657 Y-240.083
X-48.131 Y-239.948
X-48.19 Y-239.93
X-48.673 Y-239.772
X-48.731 Y-239.752
X-49.222 Y-239.57
X-49.27 Y-239.551
X-49.771 Y-239.347
X-49.813 Y-239.329
X-50.323 Y-239.104
X-50.364 Y-239.085
X-50.883 Y-238.838
X-50.915 Y-238.823
X-51.443 Y-238.557
X-51.474 Y-238.541
X-52.012 Y-238.255
X-52.037 Y-238.241
X-52.546 Y-237.958
X-52.648 Y-237.909
X-52.697 Y-237.893
X-52.749 Y-237.883
X-52.801 Y-237.88
X-52.856 Y-237.884
X-52.909 Y-237.895
X-52.957 Y-237.911
X-53.006 Y-237.936
X-53.05 Y-237.965
X-53.09 Y-238.001
X-53.126 Y-238.041
X-53.154 Y-238.085
X-53.178 Y-238.133
X-53.195 Y-238.184
X-53.206 Y-238.236
X-53.213 Y-238.341
Y-270.471
G3 X-52.454 Y-272.616 I3.413 J0
G2 X-61.146 Y-279.64 I-4.346 J-3.512
X-61.146 Y-272.616 I4.346 J3.512
G3 X-60.388 Y-270.471 I-2.654 J2.145
G1 Y-234.804
X-60.395 Y-234.568
X-60.414 Y-234.358
X-60.447 Y-234.149
X-60.492 Y-233.943
X-60.55 Y-233.74
X-60.621 Y-233.54
X-60.704 Y-233.346
X-60.798 Y-233.158
X-60.904 Y-232.976
X-61.022 Y-232.8
X-61.15 Y-232.63
X-61.286 Y-232.472
X-61.434 Y-232.321
X-61.591 Y-232.179
X-61.755 Y-232.049
X-61.948 Y-231.913
X-62.597 Y-231.488
X-63.279 Y-231.045
X-63.973 Y-230.596
X-64.68 Y-230.14
G2 X-71.258 Y-215.928 I7.88 J12.276
G1 X-71.189 Y-215.321
X-71.148 Y-214.736
X-71.132 Y-214.156
X-71.14 Y-213.582
X-71.172 Y-213.011
X-71.228 Y-212.443
X-71.305 Y-211.877
X-71.404 Y-211.314
X-71.523 Y-210.753
X-71.661 Y-210.194
X-71.818 Y-209.638
X-71.992 Y-209.083
X-72.181 Y-208.532
X-72.385 Y-207.984
X-72.603 Y-207.44
X-72.832 Y-206.9
X-73.072 Y-206.367
X-73.322 Y-205.838
X-73.579 Y-205.316
X-73.844 Y-204.802
X-74.115 Y-204.295
X-74.391 Y-203.797
X-74.67 Y-203.309
X-74.952 Y-202.832
X-75.236 Y-202.365
X-75.521 Y-201.911
X-75.806 Y-201.47
X-76.091 Y-201.04
X-76.374 Y-200.626
X-76.655 Y-200.227
X-76.934 Y-199.842
X-77.215 Y-199.467
X-100.216 Y-169.284
X-100.531 Y-168.891
X-100.838 Y-168.545
X-101.151 Y-168.228
X-101.469 Y-167.94
X-101.794 Y-167.677
X-102.124 Y-167.438
X-102.462 Y-167.223
X-102.81 Y-167.025
X-103.164 Y-166.848
X-103.531 Y-166.688
X-103.908 Y-166.543
X-104.294 Y-166.414
X-104.692 Y-166.299
X-105.103 Y-166.196
X-105.521 Y-166.106
X-105.951 Y-166.028
X-106.391 Y-165.96
X-106.832 Y-165.902
X-107.763 Y-165.809
X-108.716 Y-165.746
X-109.695 Y-165.704
X-110.696 Y-165.677
X-111.716 Y-165.661
X-112.752 Y-165.653
X-113.8 Y-165.652
X-114.848 Y-165.653
X-115.884 Y-165.661
X-116.904 Y-165.677
X-117.905 Y-165.704
X-118.884 Y-165.746
X-119.837 Y-165.809
X-120.768 Y-165.902
X-121.209 Y-165.96
X-121.649 Y-166.028
X-122.079 Y-166.106
X-122.497 Y-166.196
X-122.908 Y-166.299
X-123.306 Y-166.414
X-123.692 Y-166.543
X-124.069 Y-166.688
X-124.436 Y-166.848
X-124.79 Y-167.025
X-125.138 Y-167.223
X-125.476 Y-167.438
X-125.806 Y-167.677
X-126.131 Y-167.94
X-126.448 Y-168.228
X-126.761 Y-168.545
X-127.069 Y-168.891
X-127.384 Y-169.284
X-150.385 Y-199.468
X-150.666 Y-199.842
X-150.945 Y-200.227
X-151.226 Y-200.626
X-151.509 Y-201.041
X-151.795 Y-201.47
X-152.079 Y-201.911
X-152.364 Y-202.365
X-152.647 Y-202.831
X-152.93 Y-203.31
X-153.21 Y-203.797
X-153.484 Y-204.294
X-153.755 Y-204.802
X-154.021 Y-205.317
X-154.279 Y-205.838
X-154.528 Y-206.367
X-154.768 Y-206.9
X-154.997 Y-207.44
X-155.215 Y-207.984
X-155.419 Y-208.532
X-155.609 Y-209.083
X-155.782 Y-209.638
X-155.939 Y-210.193
X-156.077 Y-210.752
X-156.196 Y-211.315
X-156.295 Y-211.876
X-156.372 Y-212.442
X-156.428 Y-213.011
X-156.46 Y-213.582
X-156.468 Y-214.156
X-156.452 Y-214.736
X-156.411 Y-215.321
X-156.342 Y-215.928
G2 X-162.92 Y-230.14 I-14.459 J-1.936
G1 X-163.627 Y-230.596
X-164.321 Y-231.045
X-165.003 Y-231.489
X-165.652 Y-231.913
X-165.845 Y-232.049
X-166.01 Y-232.18
X-166.166 Y-232.322
X-166.313 Y-232.471
X-166.449 Y-232.63
X-166.58 Y-232.801
X-166.696 Y-232.975
X-166.802 Y-233.158
X-166.897 Y-233.347
X-166.978 Y-233.539
X-167.05 Y-233.741
X-167.108 Y-233.944
X-167.153 Y-234.149
X-167.186 Y-234.357
X-167.205 Y-234.568
X-167.212 Y-234.805
Y-270.471
G3 X-166.454 Y-272.616 I3.413 J0
G2 X-175.146 Y-279.64 I-4.346 J-3.512
X-175.146 Y-272.616 I4.346 J3.512
G3 X-174.387 Y-270.471 I-2.654 J2.145
G1 Y-238.341
X-174.394 Y-238.237
X-174.405 Y-238.184
X-174.422 Y-238.133
X-174.445 Y-238.085
X-174.475 Y-238.041
X-174.51 Y-238
X-174.55 Y-237.965
X-174.594 Y-237.936
X-174.642 Y-237.911
X-174.691 Y-237.895
X-174.744 Y-237.884
X-174.798 Y-237.88
X-174.851 Y-237.883
X-174.903 Y-237.893
X-174.953 Y-237.909
X-175.053 Y-237.958
X-175.562 Y-238.241
X-175.588 Y-238.255
X-176.126 Y-238.541
X-176.157 Y-238.557
X-176.685 Y-238.823
X-176.717 Y-238.838
X-177.236 Y-239.085
X-177.277 Y-239.104
X-177.787 Y-239.329
X-177.828 Y-239.347
X-178.328 Y-239.551
X-178.377 Y-239.57
X-178.869 Y-239.752
X-178.926 Y-239.772
X-179.409 Y-239.93
X-179.469 Y-239.948
X-179.944 Y-240.083
X-180.013 Y-240.101
X-180.479 Y-240.211
X-180.554 Y-240.227
X-181.011 Y-240.312
X-181.094 Y-240.325
X-181.543 Y-240.384
X-181.631 Y-240.393
X-182.07 Y-240.426
X-182.163 Y-240.43
X-182.593 Y-240.437
X-182.694 Y-240.436
X-183.115 Y-240.416
X-183.217 Y-240.408
X-183.627 Y-240.362
X-183.735 Y-240.346
X-184.135 Y-240.273
X-184.242 Y-240.249
X-184.63 Y-240.15
X-184.74 Y-240.118
X-185.115 Y-239.993
X-185.224 Y-239.952
X-185.586 Y-239.801
X-185.693 Y-239.752
X-186.04 Y-239.576
X-186.141 Y-239.52
X-186.473 Y-239.32
X-186.574 Y-239.254
X-186.889 Y-239.03
X-186.984 Y-238.957
X-187.281 Y-238.71
X-187.368 Y-238.632
X-187.647 Y-238.363
X-187.727 Y-238.28
X-187.987 Y-237.99
X-188.064 Y-237.897
X-188.303 Y-237.586
X-188.37 Y-237.492
X-188.588 Y-237.161
X-188.646 Y-237.065
X-188.842 Y-236.716
X-188.893 Y-236.618
X-189.067 Y-236.25
X-189.11 Y-236.151
X-189.261 Y-235.766
X-189.296 Y-235.668
X-189.424 Y-235.266
X-189.451 Y-235.17
X-189.556 Y-234.751
X-189.576 Y-234.66
X-189.658 Y-234.226
X-189.672 Y-234.141
X-189.732 Y-233.691
X-189.74 Y-233.607
X-189.777 Y-233.142
X-189.782 Y-233.066
X-189.797 Y-232.587
Y-232.518
X-189.791 Y-232.023
X-189.789 Y-231.958
X-189.762 Y-231.448
X-189.758 Y-231.393
X-189.712 Y-230.87
X-189.707 Y-230.816
X-189.641 Y-230.277
X-189.634 Y-230.232
X-189.55 Y-229.679
X-189.543 Y-229.636
X-189.441 Y-229.069
X-189.434 Y-229.031
X-189.315 Y-228.45
X-189.309 Y-228.421
X-189.175 Y-227.825
X-189.168 Y-227.794
X-189.018 Y-227.184
X-189.012 Y-227.162
X-188.849 Y-226.537
X-188.843 Y-226.514
X-188.666 Y-225.875
X-188.661 Y-225.858
X-188.472 Y-225.205
X-188.467 Y-225.189
X-188.266 Y-224.52
X-188.263 Y-224.51
X-188.053 Y-223.827
X-188.049 Y-223.815
X-187.828 Y-223.117
X-187.826 Y-223.111
X-187.597 Y-222.398
X-187.596 Y-222.393
X-187.36 Y-221.665
X-187.358 Y-221.66
X-187.114 Y-220.916
Y-220.915
X-186.864 Y-220.155
X-186.609 Y-219.38
X-186.35 Y-218.591
X-186.088 Y-217.786
X-185.82 Y-216.965
X-185.551 Y-216.129
X-185.279 Y-215.277
X-185.004 Y-214.409
X-184.726 Y-213.523
G2 X-172.769 Y-203.41 I13.926 J-4.341
G1 X-172.165 Y-203.316
X-171.591 Y-203.2
X-171.026 Y-203.062
X-170.476 Y-202.902
X-169.933 Y-202.719
X-169.4 Y-202.515
X-168.875 Y-202.29
X-168.359 Y-202.046
X-167.849 Y-201.782
X-167.347 Y-201.501
X-166.853 Y-201.202
X-166.363 Y-200.887
X-165.882 Y-200.558
X-165.408 Y-200.217
X-164.941 Y-199.863
X-164.482 Y-199.498
X-164.03 Y-199.125
X-163.587 Y-198.744
X-163.152 Y-198.357
X-162.726 Y-197.965
X-162.31 Y-197.57
X-161.903 Y-197.172
X-161.507 Y-196.773
X-161.122 Y-196.375
X-160.747 Y-195.977
X-160.385 Y-195.582
X-160.034 Y-195.19
X-159.697 Y-194.802
X-159.372 Y-194.419
X-159.061 Y-194.042
X-158.765 Y-193.671
X-158.478 Y-193.3
X-137.914 Y-166.314
G3 X-138.242 Y-165.652 I-0.328 J0.25
G1 X-170.8
G3 X-216.463 Y-192.545 I0 J-52.212
G2 X-223.188 Y-190.805 I-3.137 J1.74
G1 Y-183.301
G2 X-222.527 Y-181.227 I3.587 J0
X-207.805 Y-166.399 I51.728 J-36.636
G3 X-208.045 Y-165.652 I-0.24 J0.335
G1 X-216.6
G2 X-223.188 Y-159.064 I0 J6.588
G1 Y-156.064
G2 X-219.6 Y-152.477 I3.587 J0
G1 X-193.188
Y-133.652
X-219.6
G2 X-223.188 Y-130.064 I0 J3.588
G1 Y-127.064
G2 X-216.6 Y-120.477 I6.587 J0
G1 X-208.045
G3 X-207.804 Y-119.729 I0 J0.412
G2 X-222.527 Y-104.901 I37.005 J51.465
X-223.188 Y-102.827 I2.927 J2.074
G1 Y-95.323
G2 X-216.463 Y-93.584 I3.587 J0
G3 X-170.8 Y-120.477 I45.663 J25.32
G1 X-138.242
G3 X-137.914 Y-119.814 I0 J0.413
G1 X-158.478 Y-92.828
X-158.765 Y-92.457
X-159.061 Y-92.087
X-159.372 Y-91.709
X-159.697 Y-91.325
X-160.033 Y-90.938
X-160.385 Y-90.546
X-160.747 Y-90.151
X-161.121 Y-89.753
X-161.507 Y-89.355
X-161.903 Y-88.956
X-162.31 Y-88.558
X-162.726 Y-88.163
X-163.152 Y-87.771
X-163.587 Y-87.384
X-164.03 Y-87.003
X-164.482 Y-86.63
X-164.941 Y-86.266
X-165.408 Y-85.912
X-165.882 Y-85.57
X-166.364 Y-85.241
X-166.852 Y-84.926
X-167.346 Y-84.628
X-167.849 Y-84.346
X-168.359 Y-84.082
X-168.875 Y-83.838
X-169.4 Y-83.613
X-169.933 Y-83.409
X-170.475 Y-83.226
X-171.027 Y-83.066
X-171.59 Y-82.928
X-172.165 Y-82.813
X-172.77 Y-82.718
G2 X-184.726 Y-72.606 I1.97 J14.454
G1 X-185.004 Y-71.72
X-185.279 Y-70.851
X-185.551 Y-69.999
X-185.82 Y-69.164
X-186.087 Y-68.342
X-186.35 Y-67.537
X-186.609 Y-66.748
X-186.864 Y-65.973
X-187.114 Y-65.214
Y-65.212
X-187.358 Y-64.468
X-187.36 Y-64.463
X-187.596 Y-63.734
X-187.597 Y-63.73
X-187.826 Y-63.017
X-187.828 Y-63.011
X-188.049 Y-62.313
X-188.053 Y-62.3
X-188.263 Y-61.617
X-188.266 Y-61.608
X-188.467 Y-60.94
X-188.472 Y-60.923
X-188.661 Y-60.27
X-188.666 Y-60.253
X-188.843 Y-59.614
X-188.849 Y-59.591
X-189.012 Y-58.966
X-189.018 Y-58.944
X-189.168 Y-58.334
X-189.175 Y-58.303
X-189.309 Y-57.708
X-189.315 Y-57.678
X-189.434 Y-57.096
X-189.441 Y-57.059
X-189.543 Y-56.492
X-189.55 Y-56.449
X-189.634 Y-55.896
X-189.641 Y-55.851
X-189.707 Y-55.313
X-189.712 Y-55.258
X-189.758 Y-54.735
X-189.762 Y-54.68
X-189.789 Y-54.17
X-189.791 Y-54.106
X-189.797 Y-53.611
Y-53.542
X-189.782 Y-53.062
X-189.777 Y-52.986
X-189.74 Y-52.521
X-189.732 Y-52.437
X-189.672 Y-51.987
X-189.658 Y-51.903
X-189.576 Y-51.468
X-189.556 Y-51.376
X-189.451 Y-50.958
X-189.424 Y-50.863
X-189.296 Y-50.461
X-189.261 Y-50.363
X-189.11 Y-49.978
X-189.067 Y-49.878
X-188.893 Y-49.51
X-188.843 Y-49.413
X-188.647 Y-49.063
X-188.587 Y-48.966
X-188.369 Y-48.635
X-188.303 Y-48.542
X-188.064 Y-48.231
X-187.988 Y-48.139
X-187.728 Y-47.849
X-187.647 Y-47.765
X-187.368 Y-47.496
X-187.281 Y-47.418
X-186.984 Y-47.171
X-186.889 Y-47.098
X-186.574 Y-46.874
X-186.473 Y-46.808
X-186.141 Y-46.608
X-186.039 Y-46.552
X-185.692 Y-46.376
X-185.585 Y-46.327
X-185.223 Y-46.176
X-185.115 Y-46.136
X-184.74 Y-46.01
X-184.631 Y-45.978
X-184.243 Y-45.879
X-184.134 Y-45.855
X-183.734 Y-45.783
X-183.628 Y-45.767
X-183.218 Y-45.721
X-183.114 Y-45.712
X-182.693 Y-45.693
X-182.594 Y-45.691
X-182.164 Y-45.698
X-182.069 Y-45.702
X-181.63 Y-45.736
X-181.542 Y-45.745
X-181.093 Y-45.804
X-181.011 Y-45.817
X-180.554 Y-45.902
X-180.48 Y-45.917
X-180.014 Y-46.027
X-179.945 Y-46.045
X-179.47 Y-46.18
X-179.408 Y-46.199
X-178.925 Y-46.357
X-178.871 Y-46.376
X-178.379 Y-46.558
X-178.328 Y-46.577
X-177.828 Y-46.781
X-177.786 Y-46.799
X-177.276 Y-47.025
X-177.237 Y-47.042
X-176.718 Y-47.289
X-176.683 Y-47.306
X-176.155 Y-47.572
X-176.126 Y-47.587
X-175.588 Y-47.873
X-175.562 Y-47.888
X-175.054 Y-48.17
X-174.954 Y-48.218
X-174.903 Y-48.235
X-174.85 Y-48.245
X-174.797 Y-48.248
X-174.744 Y-48.244
X-174.692 Y-48.234
X-174.641 Y-48.216
X-174.594 Y-48.192
X-174.549 Y-48.163
X-174.511 Y-48.128
X-174.475 Y-48.088
X-174.445 Y-48.043
X-174.422 Y-47.996
X-174.405 Y-47.944
X-174.394 Y-47.891
X-174.387 Y-47.787
Y-15.657
G3 X-175.146 Y-13.512 I-3.413 J0
G2 X-166.454 Y-6.488 I4.346 J3.512
X-166.454 Y-13.512 I-4.346 J-3.512
G3 X-167.212 Y-15.657 I2.654 J-2.145
G1 Y-51.323
X-167.205 Y-51.561
X-167.186 Y-51.771
X-167.153 Y-51.979
X-167.108 Y-52.184
X-167.05 Y-52.388
X-166.979 Y-52.589
X-166.897 Y-52.781
X-166.802 Y-52.97
X-166.695 Y-53.154
X-166.579 Y-53.328
X-166.45 Y-53.497
X-166.312 Y-53.657
