(Main_Cut)
(Bearbeiten)
(  Hersteller: ChinaCnc)
(  model: 3040T)
(  description: Generic 3-axis)
(T5 D=3.175 CR=0 - ZMIN=-4 - Schaftfrser)
G90 G94
G17
G21
(When using Fusion 360 for Personal Use, the feedrate of)
(rapid moves is reduced to match the feedrate of cutting)
(moves, which can increase machining time. Unrestricted rapid)
(moves are available with a Fusion 360 Subscription.)

(2D-Kontur7)
M0
(MANUAL TOOL CHANGE TO T5)
S6000 M3
G54
G0 X-149.524 Y-16.844
Z15
G1 Z5 F1000
Z2.818 F333.3
G18 G3 X-149.842 Z2.5 I-0.318 K0 F1000
G1 X-150.159
G17 G3 X-150.477 Y-17.162 I0 J-0.317
S5000
G1 Y-32.412 Z2.492 F333.3
X-131.652 Z2.482
Y-6 Z2.469
G2 X-128.064 Y-2.412 Z2.466 I3.588 J0
G1 X-125.064 Z2.464
G2 X-118.477 Y-9 Z2.459 I0 J-6.588
G1 Y-17.555 Z2.455
G3 X-117.729 Y-17.796 Z2.454 I0.413 J0
G2 X-102.901 Y-3.072 Z2.443 I51.465 J-37.004
X-100.827 Y-2.412 Z2.442 I2.074 J-2.928
G1 X-93.323 Z2.438
G2 X-91.584 Y-9.137 Z2.434 I0 J-3.588
G3 X-118.477 Y-54.8 Z2.405 I25.319 J-45.662
G1 Y-87.358 Z2.388
G3 X-117.814 Y-87.686 I0.412 J0
G1 X-90.828 Y-67.122 Z2.37
X-90.458 Y-66.835
X-90.086 Y-66.539
X-89.709 Y-66.228
X-89.326 Y-65.904 Z2.369
X-88.938 Y-65.566
X-88.546 Y-65.216
X-88.151 Y-64.853
X-87.754 Y-64.479 Z2.368
X-87.355 Y-64.093
X-86.956 Y-63.697
X-86.558 Y-63.29
X-86.163 Y-62.873 Z2.367
X-85.771 Y-62.448
X-85.384 Y-62.013
X-85.003 Y-61.57 Z2.366
X-84.63 Y-61.118
X-84.266 Y-60.659
X-83.912 Y-60.192 Z2.365
X-83.57 Y-59.718
X-83.241 Y-59.237
X-82.926 Y-58.748
X-82.628 Y-58.253 Z2.364
X-82.346 Y-57.751
X-82.082 Y-57.242
X-81.838 Y-56.725 Z2.363
X-81.613 Y-56.2
X-81.409 Y-55.667
X-81.226 Y-55.125 Z2.362
X-81.066 Y-54.573
X-80.928 Y-54.01
X-80.813 Y-53.435
X-80.718 Y-52.831 Z2.361
G2 X-70.605 Y-40.873 Z2.353 I14.454 J-1.969
G1 X-69.719 Y-40.596 Z2.352
X-68.851 Y-40.321
X-67.999 Y-40.049 Z2.351
X-67.163 Y-39.78
X-66.343 Y-39.513 Z2.35
X-65.538 Y-39.25
X-64.748 Y-38.991
X-63.973 Y-38.736 Z2.349
X-63.213 Y-38.486
X-63.212 Y-38.485
X-62.468 Y-38.242 Z2.348
X-62.464 Y-38.241
X-61.736 Y-38.004
X-61.73 Y-38.002
X-61.017 Y-37.773
X-61.01 Y-37.771
X-60.312 Y-37.551 Z2.347
X-60.302 Y-37.548
X-59.619 Y-37.337
X-59.607 Y-37.333
X-58.938 Y-37.133 Z2.346
X-58.924 Y-37.128
X-58.27 Y-36.939
X-58.252 Y-36.934
X-57.613 Y-36.757
X-57.592 Y-36.752
X-56.968 Y-36.588 Z2.345
X-56.943 Y-36.582
X-56.333 Y-36.432
X-56.305 Y-36.426
X-55.709 Y-36.291
X-55.677 Y-36.284
X-55.095 Y-36.166 Z2.344
X-55.058 Y-36.158
X-54.491 Y-36.057
X-54.45 Y-36.05
X-53.897 Y-35.966
X-53.851 Y-35.959
X-53.312 Y-35.893 Z2.343
X-53.26 Y-35.888
X-52.736 Y-35.841
X-52.679 Y-35.837
X-52.169 Y-35.811
X-52.106 Y-35.809
X-51.611 Y-35.802
X-51.541 Y-35.803
X-51.061 Y-35.818 Z2.342
X-50.985 Y-35.823
X-50.52 Y-35.86
X-50.439 Y-35.868
X-49.989 Y-35.928
X-49.902 Y-35.942
X-49.468 Y-36.024
X-49.376 Y-36.044 Z2.341
X-48.958 Y-36.149
X-48.862 Y-36.177
X-48.46 Y-36.305
X-48.363 Y-36.339
X-47.978 Y-36.49
X-47.879 Y-36.533
X-47.511 Y-36.707 Z2.34
X-47.412 Y-36.758
X-47.063 Y-36.954
X-46.966 Y-37.013
X-46.636 Y-37.231
X-46.542 Y-37.298
X-46.231 Y-37.537
X-46.141 Y-37.611
X-45.85 Y-37.871 Z2.339
X-45.765 Y-37.953
X-45.496 Y-38.232
X-45.417 Y-38.32
X-45.17 Y-38.618
X-45.098 Y-38.712
X-44.874 Y-39.027
X-44.809 Y-39.126
X-44.609 Y-39.458 Z2.338
X-44.551 Y-39.561
X-44.376 Y-39.908
X-44.327 Y-40.015
X-44.176 Y-40.377
X-44.135 Y-40.485
X-44.01 Y-40.86
X-43.978 Y-40.969
X-43.879 Y-41.357 Z2.337
X-43.855 Y-41.465
X-43.783 Y-41.865
X-43.767 Y-41.972
X-43.721 Y-42.382
X-43.712 Y-42.486
X-43.693 Y-42.906
X-43.691 Y-43.006 Z2.336
X-43.698 Y-43.436
X-43.702 Y-43.531
X-43.736 Y-43.97
X-43.745 Y-44.058
X-43.804 Y-44.507
X-43.817 Y-44.589
X-43.902 Y-45.046 Z2.335
X-43.918 Y-45.121
X-44.027 Y-45.587
X-44.045 Y-45.655
X-44.18 Y-46.13
X-44.199 Y-46.191
X-44.357 Y-46.674
X-44.376 Y-46.729 Z2.334
X-44.558 Y-47.221
X-44.577 Y-47.27
X-44.781 Y-47.771
X-44.799 Y-47.815
X-45.025 Y-48.324
X-45.043 Y-48.363
X-45.289 Y-48.882 Z2.333
X-45.306 Y-48.916
X-45.572 Y-49.444
X-45.588 Y-49.474
X-45.873 Y-50.011
X-45.887 Y-50.037
X-46.17 Y-50.546 Z2.332
X-46.218 Y-50.646
X-46.235 Y-50.697
X-46.245 Y-50.75
X-46.248 Y-50.803
X-46.244 Y-50.856
X-46.234 Y-50.908
X-46.216 Y-50.958
X-46.192 Y-51.006
X-46.163 Y-51.05
X-46.127 Y-51.09
X-46.087 Y-51.125
X-46.043 Y-51.155
X-45.995 Y-51.178
X-45.945 Y-51.195
X-45.893 Y-51.206
X-45.787 Y-51.213
X-13.657 Z2.315
G3 X-11.512 Y-50.454 Z2.314 I0 J3.413
G2 X-4.488 Y-59.146 Z2.305 I3.512 J-4.346
X-11.512 Y-59.146 Z2.301 I-3.512 J4.346
G3 X-13.657 Y-58.388 Z2.3 I-2.145 J-2.654
G1 X-49.324 Z2.282
X-49.56 Y-58.395
X-49.77 Y-58.414 Z2.281
X-49.979 Y-58.447
X-50.185 Y-58.492
X-50.388 Y-58.55
X-50.588 Y-58.621
X-50.782 Y-58.704
X-50.97 Y-58.798
X-51.153 Y-58.904
X-51.329 Y-59.022
X-51.497 Y-59.15
X-51.657 Y-59.287 Z2.28
X-51.807 Y-59.434
X-51.949 Y-59.591
X-52.08 Y-59.755
X-52.215 Y-59.948
X-52.64 Y-60.597
X-53.084 Y-61.279 Z2.279
X-53.533 Y-61.973
X-53.988 Y-62.68 Z2.278
G2 X-68.2 Y-69.258 Z2.27 I-12.276 J7.88
G1 X-68.807 Y-69.189 Z2.269
X-69.392 Y-69.148
X-69.971 Y-69.132
X-70.546 Y-69.14
X-71.117 Y-69.172 Z2.268
X-71.685 Y-69.228
X-72.251 Y-69.305
X-72.814 Y-69.404 Z2.267
X-73.375 Y-69.523
X-73.934 Y-69.661
X-74.491 Y-69.818
X-75.045 Y-69.992 Z2.266
X-75.596 Y-70.181
X-76.144 Y-70.385
X-76.688 Y-70.603 Z2.265
X-77.228 Y-70.832
X-77.762 Y-71.072
X-78.29 Y-71.322 Z2.264
X-78.812 Y-71.58
X-79.327 Y-71.844
X-79.833 Y-72.115
X-80.331 Y-72.391 Z2.263
X-80.819 Y-72.67
X-81.296 Y-72.952
X-81.763 Y-73.236 Z2.262
X-82.217 Y-73.521
X-82.659 Y-73.806
X-83.088 Y-74.09
X-83.502 Y-74.373 Z2.261
X-83.901 Y-74.655
X-84.286 Y-74.934
X-84.661 Y-75.215
X-114.844 Y-98.216 Z2.241
X-115.237 Y-98.531
X-115.583 Y-98.838
X-115.9 Y-99.151 Z2.24
X-116.189 Y-99.47
X-116.452 Y-99.794
X-116.689 Y-100.123
X-116.905 Y-100.462
X-117.102 Y-100.809 Z2.239
X-117.28 Y-101.164
X-117.44 Y-101.531
X-117.585 Y-101.908
X-117.714 Y-102.294 Z2.238
X-117.829 Y-102.692
X-117.932 Y-103.103
X-118.022 Y-103.522
X-118.1 Y-103.951
X-118.168 Y-104.389 Z2.237
X-118.226 Y-104.832
X-118.319 Y-105.764
X-118.383 Y-106.716 Z2.236
X-118.424 Y-107.695
X-118.451 Y-108.696 Z2.235
X-118.467 Y-109.716
X-118.475 Y-110.752 Z2.234
X-118.476 Y-111.8
X-118.475 Y-112.848 Z2.233
X-118.467 Y-113.884 Z2.232
X-118.451 Y-114.904
X-118.424 Y-115.905 Z2.231
X-118.383 Y-116.884
X-118.319 Y-117.836 Z2.23
X-118.226 Y-118.768
X-118.168 Y-119.211
X-118.1 Y-119.649
X-118.022 Y-120.078 Z2.229
X-117.932 Y-120.497
X-117.829 Y-120.908
X-117.714 Y-121.306
X-117.585 Y-121.692 Z2.228
X-117.44 Y-122.069
X-117.28 Y-122.436
X-117.103 Y-122.79
X-116.905 Y-123.138
X-116.689 Y-123.477 Z2.227
X-116.452 Y-123.806
X-116.189 Y-124.13
X-115.9 Y-124.448
X-115.583 Y-124.761
X-115.237 Y-125.069 Z2.226
X-114.844 Y-125.384
X-84.661 Y-148.385 Z2.207
X-84.286 Y-148.665 Z2.206
X-83.901 Y-148.945
X-83.502 Y-149.227
X-83.087 Y-149.51
X-82.659 Y-149.795 Z2.205
X-82.217 Y-150.079
X-81.764 Y-150.364
X-81.297 Y-150.647 Z2.204
X-80.818 Y-150.93
X-80.331 Y-151.21
X-79.834 Y-151.484
X-79.327 Y-151.755 Z2.203
X-78.812 Y-152.021
X-78.29 Y-152.279
X-77.762 Y-152.528 Z2.202
X-77.228 Y-152.768
X-76.689 Y-152.997
X-76.144 Y-153.215
X-75.596 Y-153.419 Z2.201
X-75.045 Y-153.609
X-74.491 Y-153.782
X-73.935 Y-153.939 Z2.2
X-73.376 Y-154.077
X-72.813 Y-154.196
X-72.252 Y-154.295 Z2.199
X-71.686 Y-154.372
X-71.117 Y-154.428
X-70.547 Y-154.46
X-69.972 Y-154.468 Z2.198
X-69.392 Y-154.452
X-68.807 Y-154.411
X-68.2 Y-154.342 Z2.197
G2 X-53.988 Y-160.92 Z2.189 I1.936 J-14.459
G1 X-53.533 Y-161.627 Z2.188
X-53.084 Y-162.321
X-52.64 Y-163.003
X-52.215 Y-163.652 Z2.187
X-52.08 Y-163.844
X-51.948 Y-164.01
X-51.807 Y-164.166
X-51.657 Y-164.312
X-51.497 Y-164.45
X-51.328 Y-164.579
X-51.154 Y-164.695 Z2.186
X-50.97 Y-164.802
X-50.781 Y-164.897
X-50.589 Y-164.979
X-50.388 Y-165.05
X-50.184 Y-165.108
X-49.979 Y-165.153
X-49.771 Y-165.186
X-49.561 Y-165.205
X-49.323 Y-165.212 Z2.185
X-13.657 Z2.167
G3 X-11.512 Y-164.454 Z2.166 I0 J3.413
G2 X-4.488 Y-173.146 Z2.157 I3.512 J-4.346
X-11.512 Y-173.146 Z2.153 I-3.512 J4.346
G3 X-13.657 Y-172.387 Z2.152 I-2.145 J-2.654
G1 X-45.787 Z2.135
X-45.891 Y-172.394
X-45.944 Y-172.405
X-45.996 Y-172.422
X-46.043 Y-172.445
X-46.088 Y-172.475
X-46.128 Y-172.511
X-46.163 Y-172.549
X-46.192 Y-172.594
X-46.216 Y-172.641
X-46.234 Y-172.692
X-46.244 Y-172.744
X-46.248 Y-172.797
X-46.245 Y-172.85
X-46.235 Y-172.903
X-46.218 Y-172.954
X-46.17 Y-173.054
X-45.888 Y-173.562 Z2.134
X-45.873 Y-173.588
X-45.587 Y-174.126
X-45.572 Y-174.155
X-45.306 Y-174.683
X-45.289 Y-174.718
X-45.042 Y-175.237
X-45.025 Y-175.276
X-44.799 Y-175.786 Z2.133
X-44.781 Y-175.828
X-44.577 Y-176.328
X-44.558 Y-176.379
X-44.376 Y-176.871
X-44.357 Y-176.925
X-44.199 Y-177.408 Z2.132
X-44.18 Y-177.47
X-44.045 Y-177.945
X-44.027 Y-178.014
X-43.917 Y-178.48
X-43.902 Y-178.554
X-43.817 Y-179.011 Z2.131
X-43.804 Y-179.093
X-43.745 Y-179.542
X-43.736 Y-179.63
X-43.702 Y-180.069
X-43.698 Y-180.164
X-43.691 Y-180.594
X-43.693 Y-180.693
X-43.712 Y-181.114 Z2.13
X-43.721 Y-181.218
X-43.767 Y-181.628
X-43.783 Y-181.734
X-43.855 Y-182.134
X-43.879 Y-182.243
X-43.978 Y-182.631
X-44.01 Y-182.74
X-44.136 Y-183.115 Z2.129
X-44.176 Y-183.223
X-44.327 Y-183.585
X-44.376 Y-183.692
X-44.552 Y-184.039
X-44.608 Y-184.141
X-44.808 Y-184.473
X-44.874 Y-184.574
X-45.098 Y-184.889 Z2.128
X-45.171 Y-184.984
X-45.418 Y-185.281
X-45.496 Y-185.368
X-45.765 Y-185.647
X-45.849 Y-185.728
X-46.139 Y-185.988
X-46.231 Y-186.064 Z2.127
X-46.542 Y-186.303
X-46.635 Y-186.369
X-46.966 Y-186.587
X-47.063 Y-186.647
X-47.413 Y-186.843
X-47.51 Y-186.893
X-47.878 Y-187.067 Z2.126
X-47.978 Y-187.11
X-48.363 Y-187.261
X-48.461 Y-187.296
X-48.863 Y-187.424
X-48.958 Y-187.451
X-49.376 Y-187.556
X-49.468 Y-187.576
X-49.903 Y-187.658 Z2.125
X-49.987 Y-187.672
X-50.437 Y-187.732
X-50.521 Y-187.74
X-50.986 Y-187.777
X-51.062 Y-187.782
X-51.542 Y-187.797
X-51.611
X-52.106 Y-187.791 Z2.124
X-52.17 Y-187.789
X-52.68 Y-187.762
X-52.735 Y-187.758
X-53.258 Y-187.712
X-53.313 Y-187.707
X-53.851 Y-187.641 Z2.123
X-53.896 Y-187.634
X-54.449 Y-187.55
X-54.492 Y-187.543
X-55.059 Y-187.441
X-55.096 Y-187.434
X-55.678 Y-187.315 Z2.122
X-55.708 Y-187.309
X-56.303 Y-187.175
X-56.334 Y-187.168
X-56.944 Y-187.018
X-56.966 Y-187.012
X-57.591 Y-186.849 Z2.121
X-57.614 Y-186.843
X-58.253 Y-186.666
X-58.27 Y-186.661
X-58.923 Y-186.472
X-58.94 Y-186.467
X-59.608 Y-186.266 Z2.12
X-59.617 Y-186.263
X-60.3 Y-186.053
X-60.313 Y-186.049
X-61.011 Y-185.828
X-61.017 Y-185.826
X-61.73 Y-185.597 Z2.119
X-61.734 Y-185.596
X-62.463 Y-185.36
X-62.468 Y-185.358
X-63.212 Y-185.114 Z2.118
X-63.214
X-63.973 Y-184.864
X-64.748 Y-184.609
X-65.537 Y-184.35 Z2.117
X-66.342 Y-184.087
X-67.164 Y-183.82 Z2.116
X-67.999 Y-183.551
X-68.851 Y-183.279 Z2.115
X-69.72 Y-183.004
X-70.606 Y-182.726 Z2.114
G2 X-80.718 Y-170.77 Z2.106 I4.341 J13.926
G1 X-80.813 Y-170.165
X-80.928 Y-169.59 Z2.105
X-81.066 Y-169.027
X-81.226 Y-168.475
X-81.409 Y-167.933 Z2.104
X-81.613 Y-167.4
X-81.838 Y-166.875
X-82.082 Y-166.359
X-82.346 Y-165.849 Z2.103
X-82.628 Y-165.346
X-82.926 Y-164.852
X-83.241 Y-164.364 Z2.102
X-83.57 Y-163.882
X-83.912 Y-163.408
X-84.266 Y-162.941 Z2.101
X-84.63 Y-162.482
X-85.003 Y-162.03
X-85.384 Y-161.587
X-85.771 Y-161.152 Z2.1
X-86.163 Y-160.726
X-86.558 Y-160.31
X-86.956 Y-159.903 Z2.099
X-87.355 Y-159.507
X-87.753 Y-159.121
X-88.151 Y-158.747 Z2.098
X-88.546 Y-158.385
X-88.938 Y-158.033
X-89.325 Y-157.697
X-89.709 Y-157.372 Z2.097
X-90.087 Y-157.061
X-90.457 Y-156.765
X-90.828 Y-156.478
X-117.814 Y-135.914 Z2.079
G3 X-118.477 Y-136.242 I-0.25 J-0.328
G1 Y-168.8 Z2.062
G3 X-91.584 Y-214.463 Z2.034 I52.212 J0
G2 X-93.323 Y-221.188 Z2.029 I-1.74 J-3.137
G1 X-100.827 Z2.025
G2 X-102.901 Y-220.527 Z2.024 I0 J3.587
X-117.729 Y-205.805 Z2.013 I36.636 J51.728
G3 X-118.477 Y-206.045 Z2.012 I-0.335 J-0.24
G1 Y-214.6 Z2.008
G2 X-125.064 Y-221.188 Z2.003 I-6.588 J0
G1 X-130.107 Z2
G2 X-133.69 Y-217.768 Z1.997 I0 J3.587
G1 X-133.764 Y-216.505
X-133.871 Y-215.288 Z1.996
X-134.011 Y-214.115 Z1.995
X-134.178 Y-212.992
X-134.369 Y-211.926 Z1.994
X-134.583 Y-210.917
X-134.816 Y-209.964 Z1.993
X-135.065 Y-209.068
X-135.329 Y-208.227 Z1.992
X-135.604 Y-207.441
X-135.89 Y-206.709 Z1.991
X-136.186 Y-206.027
X-136.488 Y-205.396
X-136.796 Y-204.815 Z1.99
X-137.108 Y-204.282
X-137.422 Y-203.797
X-137.737 Y-203.359 Z1.989
X-138.052 Y-202.966
X-138.366 Y-202.616
X-138.674 Y-202.311
X-138.976 Y-202.048
X-139.272 Y-201.825 Z1.988
X-139.56 Y-201.639
X-139.838 Y-201.49
X-140.106 Y-201.374
X-140.365 Y-201.288
X-140.616 Y-201.23
X-140.861 Y-201.198 Z1.987
X-141.105 Y-201.19
X-141.349 Y-201.206
X-141.595 Y-201.246
X-141.848 Y-201.314
X-142.109 Y-201.408
X-142.378 Y-201.534
X-142.66 Y-201.695 Z1.986
X-142.948 Y-201.891
X-143.244 Y-202.124
X-143.547 Y-202.398
X-143.853 Y-202.713
X-144.165 Y-203.073 Z1.985
X-144.477 Y-203.474
X-144.789 Y-203.92
X-145.099 Y-204.412
X-145.406 Y-204.948 Z1.984
X-145.708 Y-205.532
X-146.004 Y-206.164
X-146.293 Y-206.843 Z1.983
X-146.572 Y-207.57
X-146.84 Y-208.349 Z1.982
X-147.096 Y-209.179
X-147.338 Y-210.061 Z1.981
X-147.563 Y-210.996
X-147.77 Y-211.983 Z1.98
X-147.956 Y-213.025
X-148.118 Y-214.12 Z1.979
X-148.254 Y-215.265
X-148.361 Y-216.456 Z1.978
X-148.434 Y-217.694 Z1.977
X-148.437 Y-217.752
Y-217.754
G2 X-152.021 Y-221.188 Z1.975 I-3.584 J0.154
G1 X-157.064 Z1.972
G2 X-163.652 Y-214.6 Z1.967 I0 J6.587
G1 Y-206.045 Z1.962
G3 X-164.399 Y-205.804 I-0.412 J0
G2 X-179.227 Y-220.527 Z1.951 I-51.465 J37.005
X-181.301 Y-221.188 Z1.95 I-2.074 J2.927
G1 X-188.805 Z1.946
G2 X-190.545 Y-214.463 Z1.941 I0 J3.587
G3 X-163.652 Y-168.8 Z1.913 I-25.319 J45.663
G1 Y-136.242 Z1.896
G3 X-164.314 Y-135.914 Z1.895 I-0.413 J0
G1 X-191.3 Y-156.478 Z1.878
X-191.671 Y-156.765
X-192.042 Y-157.061
X-192.419 Y-157.372 Z1.877
X-192.802 Y-157.697
X-193.19 Y-158.034
X-193.582 Y-158.385 Z1.876
X-193.977 Y-158.747
X-194.375 Y-159.122
X-194.773 Y-159.507
X-195.172 Y-159.903 Z1.875
X-195.57 Y-160.31
X-195.965 Y-160.726
X-196.357 Y-161.152 Z1.874
X-196.744 Y-161.587
X-197.125 Y-162.03
X-197.498 Y-162.482
X-197.863 Y-162.941 Z1.873
X-198.217 Y-163.408
X-198.558 Y-163.882
X-198.887 Y-164.363 Z1.872
X-199.202 Y-164.853
X-199.501 Y-165.347
X-199.782 Y-165.849 Z1.871
X-200.046 Y-166.359
X-200.29 Y-166.875
X-200.515 Y-167.4
X-200.719 Y-167.933 Z1.87
X-200.902 Y-168.476
X-201.062 Y-169.026
X-201.2 Y-169.591 Z1.869
X-201.316 Y-170.165
X-201.41 Y-170.769
G2 X-211.523 Y-182.726 Z1.86 I-14.454 J1.969
G1 X-212.409 Y-183.004
X-213.277 Y-183.279 Z1.859
X-214.129 Y-183.551
X-214.965 Y-183.82 Z1.858
X-215.785 Y-184.087
X-216.591 Y-184.35
X-217.38 Y-184.609 Z1.857
X-218.155 Y-184.864
X-218.915 Y-185.114 Z1.856
X-218.916
X-219.66 Y-185.358
X-219.665 Y-185.36
X-220.393 Y-185.596 Z1.855
X-220.398 Y-185.597
X-221.111 Y-185.826
X-221.117 Y-185.828
X-221.815 Y-186.049
X-221.827 Y-186.053
X-222.51 Y-186.263 Z1.854
X-222.52 Y-186.266
X-223.189 Y-186.467
X-223.205 Y-186.472
X-223.858 Y-186.661
X-223.875 Y-186.666
X-224.514 Y-186.843 Z1.853
X-224.537 Y-186.849
X-225.162 Y-187.012
X-225.184 Y-187.018
X-225.794 Y-187.168
X-225.825 Y-187.175
X-226.421 Y-187.309 Z1.852
X-226.45 Y-187.315
X-227.031 Y-187.434
X-227.069 Y-187.441
X-227.636 Y-187.543
X-227.679 Y-187.55
X-228.232 Y-187.634 Z1.851
X-228.277 Y-187.641
X-228.816 Y-187.707
X-228.87 Y-187.712
X-229.393 Y-187.758
X-229.448 Y-187.762
X-229.958 Y-187.789 Z1.85
X-230.023 Y-187.791
X-230.518 Y-187.797
X-230.587
X-231.066 Y-187.782
X-231.142 Y-187.777
X-231.607 Y-187.74
X-231.691 Y-187.732
X-232.141 Y-187.672 Z1.849
X-232.226 Y-187.658
X-232.66 Y-187.576
X-232.751 Y-187.556
X-233.17 Y-187.451
X-233.266 Y-187.424
X-233.668 Y-187.296
X-233.766 Y-187.261 Z1.848
X-234.151 Y-187.11
X-234.25 Y-187.067
X-234.618 Y-186.893
X-234.716 Y-186.842
X-235.065 Y-186.646
X-235.161 Y-186.588
X-235.492 Y-186.37 Z1.847
X-235.586 Y-186.303
X-235.897 Y-186.064
X-235.99 Y-185.987
X-236.28 Y-185.727
X-236.363 Y-185.647
X-236.632 Y-185.368
X-236.71 Y-185.281
X-236.957 Y-184.984 Z1.846
X-237.03 Y-184.889
X-237.254 Y-184.574
X-237.32 Y-184.473
X-237.52 Y-184.141
X-237.576 Y-184.04
X-237.752 Y-183.693
X-237.801 Y-183.586
X-237.952 Y-183.224 Z1.845
X-237.993 Y-183.115
X-238.118 Y-182.74
X-238.15 Y-182.63
X-238.249 Y-182.242
X-238.273 Y-182.135
X-238.346 Y-181.735
X-238.362 Y-181.627
X-238.408 Y-181.217 Z1.844
X-238.416 Y-181.115
X-238.436 Y-180.694
X-238.437 Y-180.593
X-238.43 Y-180.163
X-238.426 Y-180.07
X-238.393 Y-179.631 Z1.843
X-238.384 Y-179.543
X-238.325 Y-179.094
X-238.312 Y-179.011
X-238.227 Y-178.554
X-238.211 Y-178.479
X-238.101 Y-178.013
X-238.083 Y-177.944
X-237.948 Y-177.469 Z1.842
X-237.93 Y-177.409
X-237.772 Y-176.926
X-237.752 Y-176.869
X-237.57 Y-176.377
X-237.551 Y-176.328
X-237.347 Y-175.828 Z1.841
X-237.329 Y-175.787
X-237.104 Y-175.277
X-237.085 Y-175.236
X-236.838 Y-174.717
X-236.823 Y-174.685
X-236.557 Y-174.157
X-236.541 Y-174.126 Z1.84
X-236.255 Y-173.588
X-236.241 Y-173.562
X-235.958 Y-173.053
X-235.909 Y-172.953
X-235.893 Y-172.903
X-235.883 Y-172.851
X-235.88 Y-172.798
X-235.884 Y-172.744
X-235.895 Y-172.691
X-235.911 Y-172.642
X-235.936 Y-172.594
X-235.965 Y-172.55
X-236 Y-172.51
X-236.041 Y-172.475
X-236.085 Y-172.445
X-236.133 Y-172.422 Z1.839
X-236.184 Y-172.405
X-236.237 Y-172.394
X-236.341 Y-172.387
X-268.471 Z1.823
G3 X-270.616 Y-173.146 Z1.822 I0 J-3.413
G2 X-277.64 Y-164.454 Z1.813 I-3.512 J4.346
X-270.616 Y-164.454 Z1.809 I3.512 J-4.346
G3 X-268.471 Y-165.212 Z1.808 I2.145 J2.654
G1 X-232.805 Z1.789
X-232.568 Y-165.205
X-232.357 Y-165.186
X-232.149 Y-165.153
X-231.944 Y-165.108
X-231.741 Y-165.05
X-231.539 Y-164.978
X-231.347 Y-164.897 Z1.788
X-231.158 Y-164.802
X-230.975 Y-164.696
X-230.801 Y-164.58
X-230.63 Y-164.449
X-230.471 Y-164.313
X-230.322 Y-164.166
X-230.18 Y-164.01
X-230.049 Y-163.845
X-229.913 Y-163.652 Z1.787
X-229.489 Y-163.003
X-229.045 Y-162.321
X-228.596 Y-161.627 Z1.786
X-228.14 Y-160.92
G2 X-213.928 Y-154.342 Z1.777 I12.276 J-7.881
G1 X-213.321 Y-154.411
X-212.736 Y-154.452
X-212.156 Y-154.468 Z1.776
X-211.582 Y-154.46
X-211.011 Y-154.428
X-210.442 Y-154.372
X-209.876 Y-154.295 Z1.775
X-209.315 Y-154.196
X-208.752 Y-154.077
X-208.193 Y-153.939 Z1.774
X-207.638 Y-153.782
X-207.083 Y-153.609
X-206.532 Y-153.419 Z1.773
X-205.984 Y-153.215
X-205.44 Y-152.997
X-204.9 Y-152.768
X-204.367 Y-152.528 Z1.772
X-203.838 Y-152.279
X-203.317 Y-152.021
X-202.802 Y-151.755 Z1.771
X-202.294 Y-151.484
X-201.797 Y-151.21
X-201.31 Y-150.93 Z1.77
X-200.831 Y-150.647
X-200.365 Y-150.364
X-199.911 Y-150.079
X-199.47 Y-149.795 Z1.769
X-199.041 Y-149.509
X-198.626 Y-149.226
X-198.227 Y-148.945
X-197.842 Y-148.666 Z1.768
X-197.468 Y-148.385
X-167.284 Y-125.384 Z1.749
X-166.891 Y-125.069 Z1.748
X-166.545 Y-124.761
X-166.228 Y-124.448
X-165.94 Y-124.131
X-165.677 Y-123.806 Z1.747
X-165.438 Y-123.476
X-165.223 Y-123.138
X-165.025 Y-122.79
X-164.848 Y-122.436
X-164.688 Y-122.069 Z1.746
X-164.543 Y-121.692
X-164.414 Y-121.306
X-164.299 Y-120.908
X-164.196 Y-120.497
X-164.106 Y-120.079 Z1.745
X-164.028 Y-119.649
X-163.96 Y-119.209
X-163.902 Y-118.768
X-163.809 Y-117.837 Z1.744
X-163.746 Y-116.884
X-163.704 Y-115.905 Z1.743
X-163.677 Y-114.904
X-163.661 Y-113.884 Z1.742
X-163.653 Y-112.848
X-163.652 Y-111.8 Z1.741
X-163.653 Y-110.752
X-163.661 Y-109.716 Z1.74
X-163.677 Y-108.696
X-163.704 Y-107.695 Z1.739
X-163.746 Y-106.716 Z1.738
X-163.809 Y-105.763
X-163.902 Y-104.832
X-163.96 Y-104.391 Z1.737
X-164.028 Y-103.951
X-164.106 Y-103.521
X-164.196 Y-103.103
X-164.299 Y-102.692 Z1.736
X-164.414 Y-102.294
X-164.543 Y-101.908
X-164.688 Y-101.531
X-164.848 Y-101.164
X-165.026 Y-100.809 Z1.735
X-165.223 Y-100.462
X-165.438 Y-100.124
X-165.677 Y-99.794
X-165.94 Y-99.469
X-166.228 Y-99.151 Z1.734
X-166.545 Y-98.838
X-166.891 Y-98.531
X-167.284 Y-98.216
X-197.467 Y-75.215 Z1.714
X-197.842 Y-74.934
X-198.227 Y-74.655
X-198.626 Y-74.374 Z1.713
X-199.04 Y-74.091
X-199.47 Y-73.806
X-199.911 Y-73.521
X-200.365 Y-73.236 Z1.712
X-200.832 Y-72.952
X-201.309 Y-72.67
X-201.797 Y-72.391 Z1.711
X-202.295 Y-72.115
X-202.802 Y-71.844
X-203.316 Y-71.579
X-203.838 Y-71.322 Z1.71
X-204.367 Y-71.072
X-204.9 Y-70.832
X-205.44 Y-70.603 Z1.709
X-205.984 Y-70.385
X-206.532 Y-70.181
X-207.083 Y-69.992 Z1.708
X-207.638 Y-69.818
X-208.194 Y-69.661
X-208.753 Y-69.523
X-209.314 Y-69.404 Z1.707
X-209.877 Y-69.305
X-210.443 Y-69.228
X-211.011 Y-69.172 Z1.706
X-211.582 Y-69.14
X-212.156 Y-69.132
X-212.736 Y-69.148 Z1.705
X-213.321 Y-69.189
X-213.928 Y-69.258
G2 X-228.14 Y-62.68 Z1.696 I-1.936 J14.459
G1 X-228.596 Y-61.973
X-229.045 Y-61.279
X-229.488 Y-60.597 Z1.695
X-229.913 Y-59.948
X-230.049 Y-59.755
X-230.179 Y-59.591 Z1.694
X-230.321 Y-59.434
X-230.472 Y-59.286
X-230.63 Y-59.15
X-230.8 Y-59.022
X-230.976 Y-58.904
X-231.158 Y-58.798
X-231.346 Y-58.704
X-231.54 Y-58.621
X-231.74 Y-58.55
X-231.943 Y-58.492 Z1.693
X-232.149 Y-58.447
X-232.358 Y-58.414
X-232.568 Y-58.395
X-232.804 Y-58.388
X-268.471 Z1.675
G3 X-270.616 Y-59.146 Z1.673 I0 J-3.413
G2 X-277.64 Y-50.454 Z1.664 I-3.512 J4.346
X-270.616 Y-50.454 Z1.661 I3.512 J-4.346
G3 X-268.471 Y-51.213 Z1.659 I2.145 J2.654
G1 X-236.341 Z1.643
X-236.236 Y-51.206
X-236.184 Y-51.195
X-236.133 Y-51.178
X-236.085 Y-51.154
X-236.041 Y-51.126
X-236.001 Y-51.09
X-235.965 Y-51.05
X-235.936 Y-51.006
X-235.911 Y-50.957
X-235.895 Y-50.909
X-235.884 Y-50.856 Z1.642
X-235.88 Y-50.801
X-235.883 Y-50.749
X-235.893 Y-50.697
X-235.909 Y-50.648
X-235.958 Y-50.546
X-236.241 Y-50.037
X-236.255 Y-50.012
X-236.541 Y-49.474
X-236.557 Y-49.443
X-236.823 Y-48.915 Z1.641
X-236.838 Y-48.883
X-237.085 Y-48.364
X-237.104 Y-48.323
X-237.329 Y-47.813
X-237.347 Y-47.771
X-237.551 Y-47.27 Z1.64
X-237.57 Y-47.222
X-237.752 Y-46.731
X-237.772 Y-46.673
X-237.93 Y-46.19
X-237.948 Y-46.131
X-238.083 Y-45.657
X-238.101 Y-45.587
X-238.211 Y-45.121 Z1.639
X-238.227 Y-45.046
X-238.312 Y-44.589
X-238.325 Y-44.506
X-238.384 Y-44.058
X-238.393 Y-43.969
X-238.426 Y-43.53 Z1.638
X-238.43 Y-43.437
X-238.437 Y-43.007
X-238.436 Y-42.905
X-238.416 Y-42.485
X-238.408 Y-42.383
X-238.362 Y-41.973
X-238.346 Y-41.864
X-238.273 Y-41.465 Z1.637
X-238.249 Y-41.357
X-238.15 Y-40.97
X-238.118 Y-40.861
X-237.993 Y-40.485
X-237.952 Y-40.376
X-237.801 Y-40.014
X-237.752 Y-39.907
X-237.576 Y-39.56 Z1.636
X-237.52 Y-39.458
X-237.319 Y-39.127
X-237.254 Y-39.027
X-237.03 Y-38.711
X-236.957 Y-38.617
X-236.71 Y-38.32
X-236.632 Y-38.232
X-236.363 Y-37.953 Z1.635
X-236.278 Y-37.871
X-235.988 Y-37.612
X-235.898 Y-37.537
X-235.587 Y-37.298
X-235.492 Y-37.23
X-235.161 Y-37.012
X-235.066 Y-36.954 Z1.634
X-234.717 Y-36.758
X-234.617 Y-36.707
X-234.249 Y-36.533
X-234.151 Y-36.491
X-233.766 Y-36.339
X-233.668 Y-36.305
X-233.266 Y-36.177 Z1.633
X-233.17 Y-36.149
X-232.751 Y-36.044
X-232.66 Y-36.024
X-232.226 Y-35.942
X-232.139 Y-35.928
X-231.689 Y-35.868
X-231.608 Y-35.86
X-231.143 Y-35.823 Z1.632
X-231.067 Y-35.818
X-230.588 Y-35.803
X-230.517 Y-35.802
X-230.022 Y-35.809
X-229.959 Y-35.811
X-229.449 Y-35.837 Z1.631
X-229.391 Y-35.841
X-228.868 Y-35.888
X-228.816 Y-35.893
X-228.277 Y-35.959
X-228.231 Y-35.966
X-227.678 Y-36.05
X-227.636 Y-36.057
X-227.069 Y-36.158 Z1.63
X-227.032 Y-36.166
X-226.451 Y-36.284
X-226.42 Y-36.291
X-225.824 Y-36.426
X-225.795 Y-36.432
X-225.185 Y-36.582 Z1.629
X-225.161 Y-36.588
X-224.536 Y-36.751
X-224.514 Y-36.757
X-223.875 Y-36.934
X-223.857 Y-36.939
X-223.204 Y-37.128 Z1.628
X-223.19 Y-37.132
X-222.521 Y-37.333
X-222.509 Y-37.337
X-221.826 Y-37.548 Z1.627
X-221.816 Y-37.551
X-221.118 Y-37.771
X-221.111 Y-37.773
X-220.398 Y-38.002
X-220.392 Y-38.004
X-219.664 Y-38.241 Z1.626
X-219.661 Y-38.242
X-218.917 Y-38.485
X-218.915 Y-38.486
X-218.155 Y-38.736 Z1.625
X-217.38 Y-38.991
X-216.591 Y-39.25
X-215.785 Y-39.513 Z1.624
X-214.965 Y-39.78
X-214.129 Y-40.049 Z1.623
X-213.277 Y-40.321
X-212.409 Y-40.596 Z1.622
X-211.524 Y-40.873
G2 X-201.41 Y-52.831 Z1.613 I-4.34 J-13.927
G1 X-201.316 Y-53.435
X-201.2 Y-54.01
X-201.062 Y-54.573
X-200.902 Y-55.124 Z1.612
X-200.719 Y-55.667
X-200.515 Y-56.2
X-200.29 Y-56.725 Z1.611
X-200.046 Y-57.242
X-199.782 Y-57.751
X-199.501 Y-58.253 Z1.61
X-199.202 Y-58.748
X-198.887 Y-59.237
X-198.558 Y-59.718
X-198.217 Y-60.192 Z1.609
X-197.863 Y-60.659
X-197.498 Y-61.118
X-197.125 Y-61.569 Z1.608
X-196.744 Y-62.013
X-196.357 Y-62.448
X-195.965 Y-62.874 Z1.607
X-195.57 Y-63.29
X-195.172 Y-63.697
X-194.773 Y-64.093
X-194.375 Y-64.479 Z1.606
X-193.977 Y-64.853
X-193.582 Y-65.216
X-193.19 Y-65.566 Z1.605
X-192.802 Y-65.904
X-192.419 Y-66.228
X-192.042 Y-66.538
X-191.671 Y-66.835 Z1.604
X-191.3 Y-67.122
X-164.314 Y-87.686 Z1.587
G3 X-163.652 Y-87.358 Z1.586 I0.25 J0.328
G1 Y-54.8 Z1.57
G3 X-190.545 Y-9.137 Z1.541 I-52.212 J0
G2 X-188.805 Y-2.412 Z1.536 I1.74 J3.137
G1 X-181.301 Z1.532
G2 X-179.227 Y-3.072 Z1.531 I0 J-3.588
X-164.399 Y-17.796 Z1.52 I-36.637 J-51.727
G3 X-163.652 Y-17.555 I0.335 J0.241
G1 Y-9 Z1.515
G2 X-157.064 Y-2.412 Z1.51 I6.588 J0
G1 X-154.064 Z1.509
G2 X-150.477 Y-6 Z1.506 I0 J-3.588
G1 Y-32.412 Z1.492
X-131.652 Z1.482
Y-6 Z1.469
G2 X-128.064 Y-2.412 Z1.466 I3.588 J0
G1 X-125.064 Z1.464
G2 X-118.477 Y-9 Z1.459 I0 J-6.588
G1 Y-17.555 Z1.455
G3 X-117.729 Y-17.796 Z1.454 I0.413 J0
G2 X-102.901 Y-3.072 Z1.443 I51.465 J-37.004
X-100.827 Y-2.412 Z1.442 I2.074 J-2.928
G1 X-93.323 Z1.438
G2 X-91.584 Y-9.137 Z1.434 I0 J-3.588
G3 X-118.477 Y-54.8 Z1.405 I25.319 J-45.662
G1 Y-87.358 Z1.388
G3 X-117.814 Y-87.686 I0.412 J0
G1 X-90.828 Y-67.122 Z1.37
X-90.458 Y-66.835
X-90.086 Y-66.539
X-89.709 Y-66.228
X-89.326 Y-65.904 Z1.369
X-88.938 Y-65.566
X-88.546 Y-65.216
X-88.151 Y-64.853
X-87.754 Y-64.479 Z1.368
X-87.355 Y-64.093
X-86.956 Y-63.697
X-86.558 Y-63.29
X-86.163 Y-62.873 Z1.367
X-85.771 Y-62.448
X-85.384 Y-62.013
X-85.003 Y-61.57 Z1.366
X-84.63 Y-61.118
X-84.266 Y-60.659
X-83.912 Y-60.192 Z1.365
X-83.57 Y-59.718
X-83.241 Y-59.237
X-82.926 Y-58.748
X-82.628 Y-58.253 Z1.364
X-82.346 Y-57.751
X-82.082 Y-57.242
X-81.838 Y-56.725 Z1.363
X-81.613 Y-56.2
X-81.409 Y-55.667
X-81.226 Y-55.125 Z1.362
X-81.066 Y-54.573
X-80.928 Y-54.01
X-80.813 Y-53.435
X-80.718 Y-52.831 Z1.361
G2 X-70.605 Y-40.873 Z1.353 I14.454 J-1.969
G1 X-69.719 Y-40.596 Z1.352
X-68.851 Y-40.321
X-67.999 Y-40.049 Z1.351
X-67.163 Y-39.78
X-66.343 Y-39.513 Z1.35
X-65.538 Y-39.25
X-64.748 Y-38.991
X-63.973 Y-38.736 Z1.349
X-63.213 Y-38.486
X-63.212 Y-38.485
X-62.468 Y-38.242 Z1.348
X-62.464 Y-38.241
X-61.736 Y-38.004
X-61.73 Y-38.002
X-61.017 Y-37.773
X-61.01 Y-37.771
X-60.312 Y-37.551 Z1.347
X-60.302 Y-37.548
X-59.619 Y-37.337
X-59.607 Y-37.333
X-58.938 Y-37.133 Z1.346
X-58.924 Y-37.128
X-58.27 Y-36.939
X-58.252 Y-36.934
X-57.613 Y-36.757
X-57.592 Y-36.752
X-56.968 Y-36.588 Z1.345
X-56.943 Y-36.582
X-56.333 Y-36.432
X-56.305 Y-36.426
X-55.709 Y-36.291
X-55.677 Y-36.284
X-55.095 Y-36.166 Z1.344
X-55.058 Y-36.158
X-54.491 Y-36.057
X-54.45 Y-36.05
X-53.897 Y-35.966
X-53.851 Y-35.959
X-53.312 Y-35.893 Z1.343
X-53.26 Y-35.888
X-52.736 Y-35.841
X-52.679 Y-35.837
X-52.169 Y-35.811
X-52.106 Y-35.809
X-51.611 Y-35.802
X-51.541 Y-35.803
X-51.061 Y-35.818 Z1.342
X-50.985 Y-35.823
X-50.52 Y-35.86
X-50.439 Y-35.868
X-49.989 Y-35.928
X-49.902 Y-35.942
X-49.468 Y-36.024
X-49.376 Y-36.044 Z1.341
X-48.958 Y-36.149
X-48.862 Y-36.177
X-48.46 Y-36.305
X-48.363 Y-36.339
X-47.978 Y-36.49
X-47.879 Y-36.533
X-47.511 Y-36.707 Z1.34
X-47.412 Y-36.758
X-47.063 Y-36.954
X-46.966 Y-37.013
X-46.636 Y-37.231
X-46.542 Y-37.298
X-46.231 Y-37.537
X-46.141 Y-37.611
X-45.85 Y-37.871 Z1.339
X-45.765 Y-37.953
X-45.496 Y-38.232
X-45.417 Y-38.32
X-45.17 Y-38.618
X-45.098 Y-38.712
X-44.874 Y-39.027
X-44.809 Y-39.126
X-44.609 Y-39.458 Z1.338
X-44.551 Y-39.561
X-44.376 Y-39.908
X-44.327 Y-40.015
X-44.176 Y-40.377
X-44.135 Y-40.485
X-44.01 Y-40.86
X-43.978 Y-40.969
X-43.879 Y-41.357 Z1.337
X-43.855 Y-41.465
X-43.783 Y-41.865
X-43.767 Y-41.972
X-43.721 Y-42.382
X-43.712 Y-42.486
X-43.693 Y-42.906
X-43.691 Y-43.006 Z1.336
X-43.698 Y-43.436
X-43.702 Y-43.531
X-43.736 Y-43.97
X-43.745 Y-44.058
X-43.804 Y-44.507
X-43.817 Y-44.589
X-43.902 Y-45.046 Z1.335
X-43.918 Y-45.121
X-44.027 Y-45.587
X-44.045 Y-45.655
X-44.18 Y-46.13
X-44.199 Y-46.191
X-44.357 Y-46.674
X-44.376 Y-46.729 Z1.334
X-44.558 Y-47.221
X-44.577 Y-47.27
X-44.781 Y-47.771
X-44.799 Y-47.815
X-45.025 Y-48.324
X-45.043 Y-48.363
X-45.289 Y-48.882 Z1.333
X-45.306 Y-48.916
X-45.572 Y-49.444
X-45.588 Y-49.474
X-45.873 Y-50.011
X-45.887 Y-50.037
X-46.17 Y-50.546 Z1.332
X-46.218 Y-50.646
X-46.235 Y-50.697
X-46.245 Y-50.75
X-46.248 Y-50.803
X-46.244 Y-50.856
X-46.234 Y-50.908
X-46.216 Y-50.958
X-46.192 Y-51.006
X-46.163 Y-51.05
X-46.127 Y-51.09
X-46.087 Y-51.125
X-46.043 Y-51.155
X-45.995 Y-51.178
X-45.945 Y-51.195
X-45.893 Y-51.206
X-45.787 Y-51.213
X-13.657 Z1.315
G3 X-11.512 Y-50.454 Z1.314 I0 J3.413
G2 X-4.488 Y-59.146 Z1.305 I3.512 J-4.346
X-11.512 Y-59.146 Z1.301 I-3.512 J4.346
G3 X-13.657 Y-58.388 Z1.3 I-2.145 J-2.654
G1 X-49.324 Z1.282
X-49.56 Y-58.395
X-49.77 Y-58.414 Z1.281
X-49.979 Y-58.447
X-50.185 Y-58.492
X-50.388 Y-58.55
X-50.588 Y-58.621
X-50.782 Y-58.704
X-50.97 Y-58.798
X-51.153 Y-58.904
X-51.329 Y-59.022
X-51.497 Y-59.15
X-51.657 Y-59.287 Z1.28
X-51.807 Y-59.434
X-51.949 Y-59.591
X-52.08 Y-59.755
X-52.215 Y-59.948
X-52.64 Y-60.597
X-53.084 Y-61.279 Z1.279
X-53.533 Y-61.973
X-53.988 Y-62.68 Z1.278
G2 X-68.2 Y-69.258 Z1.27 I-12.276 J7.88
G1 X-68.807 Y-69.189 Z1.269
X-69.392 Y-69.148
X-69.971 Y-69.132
X-70.546 Y-69.14
X-71.117 Y-69.172 Z1.268
X-71.685 Y-69.228
X-72.251 Y-69.305
X-72.814 Y-69.404 Z1.267
X-73.375 Y-69.523
X-73.934 Y-69.661
X-74.491 Y-69.818
X-75.045 Y-69.992 Z1.266
X-75.596 Y-70.181
X-76.144 Y-70.385
X-76.688 Y-70.603 Z1.265
X-77.228 Y-70.832
X-77.762 Y-71.072
X-78.29 Y-71.322 Z1.264
X-78.812 Y-71.58
X-79.327 Y-71.844
X-79.833 Y-72.115
X-80.331 Y-72.391 Z1.263
X-80.819 Y-72.67
X-81.296 Y-72.952
X-81.763 Y-73.236 Z1.262
X-82.217 Y-73.521
X-82.659 Y-73.806
X-83.088 Y-74.09
X-83.502 Y-74.373 Z1.261
X-83.901 Y-74.655
X-84.286 Y-74.934
X-84.661 Y-75.215
X-114.844 Y-98.216 Z1.241
X-115.237 Y-98.531
X-115.583 Y-98.838
X-115.9 Y-99.151 Z1.24
X-116.189 Y-99.47
X-116.452 Y-99.794
X-116.689 Y-100.123
X-116.905 Y-100.462
X-117.102 Y-100.809 Z1.239
X-117.28 Y-101.164
X-117.44 Y-101.531
X-117.585 Y-101.908
X-117.714 Y-102.294 Z1.238
X-117.829 Y-102.692
X-117.932 Y-103.103
X-118.022 Y-103.522
X-118.1 Y-103.951
X-118.168 Y-104.389 Z1.237
X-118.226 Y-104.832
X-118.319 Y-105.764
X-118.383 Y-106.716 Z1.236
X-118.424 Y-107.695
X-118.451 Y-108.696 Z1.235
X-118.467 Y-109.716
X-118.475 Y-110.752 Z1.234
X-118.476 Y-111.8
X-118.475 Y-112.848 Z1.233
X-118.467 Y-113.884 Z1.232
X-118.451 Y-114.904
X-118.424 Y-115.905 Z1.231
X-118.383 Y-116.884
X-118.319 Y-117.836 Z1.23
X-118.226 Y-118.768
X-118.168 Y-119.211
X-118.1 Y-119.649
X-118.022 Y-120.078 Z1.229
X-117.932 Y-120.497
X-117.829 Y-120.908
X-117.714 Y-121.306
X-117.585 Y-121.692 Z1.228
X-117.44 Y-122.069
X-117.28 Y-122.436
X-117.103 Y-122.79
X-116.905 Y-123.138
X-116.689 Y-123.477 Z1.227
X-116.452 Y-123.806
X-116.189 Y-124.13
X-115.9 Y-124.448
X-115.583 Y-124.761
X-115.237 Y-125.069 Z1.226
X-114.844 Y-125.384
X-84.661 Y-148.385 Z1.207
X-84.286 Y-148.665 Z1.206
X-83.901 Y-148.945
X-83.502 Y-149.227
X-83.087 Y-149.51
X-82.659 Y-149.795 Z1.205
X-82.217 Y-150.079
X-81.764 Y-150.364
X-81.297 Y-150.647 Z1.204
X-80.818 Y-150.93
X-80.331 Y-151.21
X-79.834 Y-151.484
X-79.327 Y-151.755 Z1.203
X-78.812 Y-152.021
X-78.29 Y-152.279
X-77.762 Y-152.528 Z1.202
X-77.228 Y-152.768
X-76.689 Y-152.997
X-76.144 Y-153.215
X-75.596 Y-153.419 Z1.201
X-75.045 Y-153.609
X-74.491 Y-153.782
X-73.935 Y-153.939 Z1.2
X-73.376 Y-154.077
X-72.813 Y-154.196
X-72.252 Y-154.295 Z1.199
X-71.686 Y-154.372
X-71.117 Y-154.428
X-70.547 Y-154.46
X-69.972 Y-154.468 Z1.198
X-69.392 Y-154.452
X-68.807 Y-154.411
X-68.2 Y-154.342 Z1.197
G2 X-53.988 Y-160.92 Z1.189 I1.936 J-14.459
G1 X-53.533 Y-161.627 Z1.188
X-53.084 Y-162.321
X-52.64 Y-163.003
X-52.215 Y-163.652 Z1.187
X-52.08 Y-163.844
X-51.948 Y-164.01
X-51.807 Y-164.166
X-51.657 Y-164.312
X-51.497 Y-164.45
X-51.328 Y-164.579
X-51.154 Y-164.695 Z1.186
X-50.97 Y-164.802
X-50.781 Y-164.897
X-50.589 Y-164.979
X-50.388 Y-165.05
X-50.184 Y-165.108
X-49.979 Y-165.153
X-49.771 Y-165.186
X-49.561 Y-165.205
X-49.323 Y-165.212 Z1.185
X-13.657 Z1.167
G3 X-11.512 Y-164.454 Z1.166 I0 J3.413
G2 X-4.488 Y-173.146 Z1.157 I3.512 J-4.346
X-11.512 Y-173.146 Z1.153 I-3.512 J4.346
G3 X-13.657 Y-172.387 Z1.152 I-2.145 J-2.654
G1 X-45.787 Z1.135
X-45.891 Y-172.394
X-45.944 Y-172.405
X-45.996 Y-172.422
X-46.043 Y-172.445
X-46.088 Y-172.475
X-46.128 Y-172.511
X-46.163 Y-172.549
X-46.192 Y-172.594
X-46.216 Y-172.641
X-46.234 Y-172.692
X-46.244 Y-172.744
X-46.248 Y-172.797
X-46.245 Y-172.85
X-46.235 Y-172.903
X-46.218 Y-172.954
X-46.17 Y-173.054
X-45.888 Y-173.562 Z1.134
X-45.873 Y-173.588
X-45.587 Y-174.126
X-45.572 Y-174.155
X-45.306 Y-174.683
X-45.289 Y-174.718
X-45.042 Y-175.237
X-45.025 Y-175.276
X-44.799 Y-175.786 Z1.133
X-44.781 Y-175.828
X-44.577 Y-176.328
X-44.558 Y-176.379
X-44.376 Y-176.871
X-44.357 Y-176.925
X-44.199 Y-177.408 Z1.132
X-44.18 Y-177.47
X-44.045 Y-177.945
X-44.027 Y-178.014
X-43.917 Y-178.48
X-43.902 Y-178.554
X-43.817 Y-179.011 Z1.131
X-43.804 Y-179.093
X-43.745 Y-179.542
X-43.736 Y-179.63
X-43.702 Y-180.069
X-43.698 Y-180.164
X-43.691 Y-180.594
X-43.693 Y-180.693
X-43.712 Y-181.114 Z1.13
X-43.721 Y-181.218
X-43.767 Y-181.628
X-43.783 Y-181.734
X-43.855 Y-182.134
X-43.879 Y-182.243
X-43.978 Y-182.631
X-44.01 Y-182.74
X-44.136 Y-183.115 Z1.129
X-44.176 Y-183.223
X-44.327 Y-183.585
X-44.376 Y-183.692
X-44.552 Y-184.039
X-44.608 Y-184.141
X-44.808 Y-184.473
X-44.874 Y-184.574
X-45.098 Y-184.889 Z1.128
X-45.171 Y-184.984
X-45.418 Y-185.281
X-45.496 Y-185.368
X-45.765 Y-185.647
X-45.849 Y-185.728
X-46.139 Y-185.988
X-46.231 Y-186.064 Z1.127
X-46.542 Y-186.303
X-46.635 Y-186.369
X-46.966 Y-186.587
X-47.063 Y-186.647
X-47.413 Y-186.843
X-47.51 Y-186.893
X-47.878 Y-187.067 Z1.126
X-47.978 Y-187.11
X-48.363 Y-187.261
X-48.461 Y-187.296
X-48.863 Y-187.424
X-48.958 Y-187.451
X-49.376 Y-187.556
X-49.468 Y-187.576
X-49.903 Y-187.658 Z1.125
X-49.987 Y-187.672
X-50.437 Y-187.732
X-50.521 Y-187.74
X-50.986 Y-187.777
X-51.062 Y-187.782
X-51.542 Y-187.797
X-51.611
X-52.106 Y-187.791 Z1.124
X-52.17 Y-187.789
X-52.68 Y-187.762
X-52.735 Y-187.758
X-53.258 Y-187.712
X-53.313 Y-187.707
X-53.851 Y-187.641 Z1.123
X-53.896 Y-187.634
X-54.449 Y-187.55
X-54.492 Y-187.543
X-55.059 Y-187.441
X-55.096 Y-187.434
X-55.678 Y-187.315 Z1.122
X-55.708 Y-187.309
X-56.303 Y-187.175
X-56.334 Y-187.168
X-56.944 Y-187.018
X-56.966 Y-187.012
X-57.591 Y-186.849 Z1.121
X-57.614 Y-186.843
X-58.253 Y-186.666
X-58.27 Y-186.661
X-58.923 Y-186.472
X-58.94 Y-186.467
X-59.608 Y-186.266 Z1.12
X-59.617 Y-186.263
X-60.3 Y-186.053
X-60.313 Y-186.049
X-61.011 Y-185.828
X-61.017 Y-185.826
X-61.73 Y-185.597 Z1.119
X-61.734 Y-185.596
X-62.463 Y-185.36
X-62.468 Y-185.358
X-63.212 Y-185.114 Z1.118
X-63.214
X-63.973 Y-184.864
X-64.748 Y-184.609
X-65.537 Y-184.35 Z1.117
X-66.342 Y-184.087
X-67.164 Y-183.82 Z1.116
X-67.999 Y-183.551
X-68.851 Y-183.279 Z1.115
X-69.72 Y-183.004
X-70.606 Y-182.726 Z1.114
G2 X-80.718 Y-170.77 Z1.106 I4.341 J13.926
G1 X-80.813 Y-170.165
X-80.928 Y-169.59 Z1.105
X-81.066 Y-169.027
X-81.226 Y-168.475
X-81.409 Y-167.933 Z1.104
X-81.613 Y-167.4
X-81.838 Y-166.875
X-82.082 Y-166.359
X-82.346 Y-165.849 Z1.103
X-82.628 Y-165.346
X-82.926 Y-164.852
X-83.241 Y-164.364 Z1.102
X-83.57 Y-163.882
X-83.912 Y-163.408
X-84.266 Y-162.941 Z1.101
X-84.63 Y-162.482
X-85.003 Y-162.03
X-85.384 Y-161.587
X-85.771 Y-161.152 Z1.1
X-86.163 Y-160.726
X-86.558 Y-160.31
X-86.956 Y-159.903 Z1.099
X-87.355 Y-159.507
X-87.753 Y-159.121
X-88.151 Y-158.747 Z1.098
X-88.546 Y-158.385
X-88.938 Y-158.033
X-89.325 Y-157.697
X-89.709 Y-157.372 Z1.097
X-90.087 Y-157.061
X-90.457 Y-156.765
X-90.828 Y-156.478
X-117.814 Y-135.914 Z1.079
G3 X-118.477 Y-136.242 I-0.25 J-0.328
G1 Y-168.8 Z1.062
G3 X-91.584 Y-214.463 Z1.034 I52.212 J0
G2 X-93.323 Y-221.188 Z1.029 I-1.74 J-3.137
G1 X-100.827 Z1.025
G2 X-102.901 Y-220.527 Z1.024 I0 J3.587
X-117.729 Y-205.805 Z1.013 I36.636 J51.728
G3 X-118.477 Y-206.045 Z1.012 I-0.335 J-0.24
G1 Y-214.6 Z1.008
G2 X-125.064 Y-221.188 Z1.003 I-6.588 J0
G1 X-130.107 Z1
G2 X-133.69 Y-217.768 Z0.997 I0 J3.587
G1 X-133.764 Y-216.505
X-133.871 Y-215.288 Z0.996
X-134.011 Y-214.115 Z0.995
X-134.178 Y-212.992
X-134.369 Y-211.926 Z0.994
X-134.583 Y-210.917
X-134.816 Y-209.964 Z0.993
X-135.065 Y-209.068
X-135.329 Y-208.227 Z0.992
X-135.604 Y-207.441
X-135.89 Y-206.709 Z0.991
X-136.186 Y-206.027
X-136.488 Y-205.396
X-136.796 Y-204.815 Z0.99
X-137.108 Y-204.282
X-137.422 Y-203.797
X-137.737 Y-203.359 Z0.989
X-138.052 Y-202.966
X-138.366 Y-202.616
X-138.674 Y-202.311
X-138.976 Y-202.048
X-139.272 Y-201.825 Z0.988
X-139.56 Y-201.639
X-139.838 Y-201.49
X-140.106 Y-201.374
X-140.365 Y-201.288
X-140.616 Y-201.23
X-140.861 Y-201.198 Z0.987
X-141.105 Y-201.19
X-141.349 Y-201.206
X-141.595 Y-201.246
X-141.848 Y-201.314
X-142.109 Y-201.408
X-142.378 Y-201.534
X-142.66 Y-201.695 Z0.986
X-142.948 Y-201.891
X-143.244 Y-202.124
X-143.547 Y-202.398
X-143.853 Y-202.713
X-144.165 Y-203.073 Z0.985
X-144.477 Y-203.474
X-144.789 Y-203.92
X-145.099 Y-204.412
X-145.406 Y-204.948 Z0.984
X-145.708 Y-205.532
X-146.004 Y-206.164
X-146.293 Y-206.843 Z0.983
X-146.572 Y-207.57
X-146.84 Y-208.349 Z0.982
X-147.096 Y-209.179
X-147.338 Y-210.061 Z0.981
X-147.563 Y-210.996
X-147.77 Y-211.983 Z0.98
X-147.956 Y-213.025
X-148.118 Y-214.12 Z0.979
X-148.254 Y-215.265
X-148.361 Y-216.456 Z0.978
X-148.434 Y-217.694 Z0.977
X-148.437 Y-217.752
Y-217.754
G2 X-152.021 Y-221.188 Z0.975 I-3.584 J0.154
G1 X-157.064 Z0.972
G2 X-163.652 Y-214.6 Z0.967 I0 J6.587
G1 Y-206.045 Z0.962
G3 X-164.399 Y-205.804 I-0.412 J0
G2 X-179.227 Y-220.527 Z0.951 I-51.465 J37.005
X-181.301 Y-221.188 Z0.95 I-2.074 J2.927
G1 X-188.805 Z0.946
G2 X-190.545 Y-214.463 Z0.941 I0 J3.587
G3 X-163.652 Y-168.8 Z0.913 I-25.319 J45.663
G1 Y-136.242 Z0.896
G3 X-164.314 Y-135.914 Z0.895 I-0.413 J0
G1 X-191.3 Y-156.478 Z0.878
X-191.671 Y-156.765
X-192.042 Y-157.061
X-192.419 Y-157.372 Z0.877
X-192.802 Y-157.697
X-193.19 Y-158.034
X-193.582 Y-158.385 Z0.876
X-193.977 Y-158.747
X-194.375 Y-159.122
X-194.773 Y-159.507
X-195.172 Y-159.903 Z0.875
X-195.57 Y-160.31
X-195.965 Y-160.726
X-196.357 Y-161.152 Z0.874
X-196.744 Y-161.587
X-197.125 Y-162.03
X-197.498 Y-162.482
X-197.863 Y-162.941 Z0.873
X-198.217 Y-163.408
X-198.558 Y-163.882
X-198.887 Y-164.363 Z0.872
X-199.202 Y-164.853
X-199.501 Y-165.347
X-199.782 Y-165.849 Z0.871
X-200.046 Y-166.359
X-200.29 Y-166.875
X-200.515 Y-167.4
X-200.719 Y-167.933 Z0.87
X-200.902 Y-168.476
X-201.062 Y-169.026
X-201.2 Y-169.591 Z0.869
X-201.316 Y-170.165
X-201.41 Y-170.769
G2 X-211.523 Y-182.726 Z0.86 I-14.454 J1.969
G1 X-212.409 Y-183.004
X-213.277 Y-183.279 Z0.859
X-214.129 Y-183.551
X-214.965 Y-183.82 Z0.858
X-215.785 Y-184.087
X-216.591 Y-184.35
X-217.38 Y-184.609 Z0.857
X-218.155 Y-184.864
X-218.915 Y-185.114 Z0.856
X-218.916
X-219.66 Y-185.358
X-219.665 Y-185.36
X-220.393 Y-185.596 Z0.855
X-220.398 Y-185.597
X-221.111 Y-185.826
X-221.117 Y-185.828
X-221.815 Y-186.049
X-221.827 Y-186.053
X-222.51 Y-186.263 Z0.854
X-222.52 Y-186.266
X-223.189 Y-186.467
X-223.205 Y-186.472
X-223.858 Y-186.661
X-223.875 Y-186.666
X-224.514 Y-186.843 Z0.853
X-224.537 Y-186.849
X-225.162 Y-187.012
X-225.184 Y-187.018
X-225.794 Y-187.168
X-225.825 Y-187.175
X-226.421 Y-187.309 Z0.852
X-226.45 Y-187.315
X-227.031 Y-187.434
X-227.069 Y-187.441
X-227.636 Y-187.543
X-227.679 Y-187.55
X-228.232 Y-187.634 Z0.851
X-228.277 Y-187.641
X-228.816 Y-187.707
X-228.87 Y-187.712
X-229.393 Y-187.758
X-229.448 Y-187.762
X-229.958 Y-187.789 Z0.85
X-230.023 Y-187.791
X-230.518 Y-187.797
X-230.587
X-231.066 Y-187.782
X-231.142 Y-187.777
X-231.607 Y-187.74
X-231.691 Y-187.732
X-232.141 Y-187.672 Z0.849
X-232.226 Y-187.658
X-232.66 Y-187.576
X-232.751 Y-187.556
X-233.17 Y-187.451
X-233.266 Y-187.424
X-233.668 Y-187.296
X-233.766 Y-187.261 Z0.848
X-234.151 Y-187.11
X-234.25 Y-187.067
X-234.618 Y-186.893
X-234.716 Y-186.842
X-235.065 Y-186.646
X-235.161 Y-186.588
X-235.492 Y-186.37 Z0.847
X-235.586 Y-186.303
X-235.897 Y-186.064
X-235.99 Y-185.987
X-236.28 Y-185.727
X-236.363 Y-185.647
X-236.632 Y-185.368
X-236.71 Y-185.281
X-236.957 Y-184.984 Z0.846
X-237.03 Y-184.889
X-237.254 Y-184.574
X-237.32 Y-184.473
X-237.52 Y-184.141
X-237.576 Y-184.04
X-237.752 Y-183.693
X-237.801 Y-183.586
X-237.952 Y-183.224 Z0.845
X-237.993 Y-183.115
X-238.118 Y-182.74
X-238.15 Y-182.63
X-238.249 Y-182.242
X-238.273 Y-182.135
X-238.346 Y-181.735
X-238.362 Y-181.627
X-238.408 Y-181.217 Z0.844
X-238.416 Y-181.115
X-238.436 Y-180.694
X-238.437 Y-180.593
X-238.43 Y-180.163
X-238.426 Y-180.07
X-238.393 Y-179.631 Z0.843
X-238.384 Y-179.543
X-238.325 Y-179.094
X-238.312 Y-179.011
X-238.227 Y-178.554
X-238.211 Y-178.479
X-238.101 Y-178.013
X-238.083 Y-177.944
X-237.948 Y-177.469 Z0.842
X-237.93 Y-177.409
X-237.772 Y-176.926
X-237.752 Y-176.869
X-237.57 Y-176.377
X-237.551 Y-176.328
X-237.347 Y-175.828 Z0.841
X-237.329 Y-175.787
X-237.104 Y-175.277
X-237.085 Y-175.236
X-236.838 Y-174.717
X-236.823 Y-174.685
X-236.557 Y-174.157
X-236.541 Y-174.126 Z0.84
X-236.255 Y-173.588
X-236.241 Y-173.562
X-235.958 Y-173.053
X-235.909 Y-172.953
X-235.893 Y-172.903
X-235.883 Y-172.851
X-235.88 Y-172.798
X-235.884 Y-172.744
X-235.895 Y-172.691
X-235.911 Y-172.642
X-235.936 Y-172.594
X-235.965 Y-172.55
X-236 Y-172.51
X-236.041 Y-172.475
X-236.085 Y-172.445
X-236.133 Y-172.422 Z0.839
X-236.184 Y-172.405
X-236.237 Y-172.394
X-236.341 Y-172.387
X-268.471 Z0.823
G3 X-270.616 Y-173.146 Z0.822 I0 J-3.413
G2 X-277.64 Y-164.454 Z0.813 I-3.512 J4.346
X-270.616 Y-164.454 Z0.809 I3.512 J-4.346
G3 X-268.471 Y-165.212 Z0.808 I2.145 J2.654
G1 X-232.805 Z0.789
X-232.568 Y-165.205
X-232.357 Y-165.186
X-232.149 Y-165.153
X-231.944 Y-165.108
X-231.741 Y-165.05
X-231.539 Y-164.978
X-231.347 Y-164.897 Z0.788
X-231.158 Y-164.802
X-230.975 Y-164.696
X-230.801 Y-164.58
X-230.63 Y-164.449
X-230.471 Y-164.313
X-230.322 Y-164.166
X-230.18 Y-164.01
X-230.049 Y-163.845
X-229.913 Y-163.652 Z0.787
X-229.489 Y-163.003
X-229.045 Y-162.321
X-228.596 Y-161.627 Z0.786
X-228.14 Y-160.92
G2 X-213.928 Y-154.342 Z0.777 I12.276 J-7.881
G1 X-213.321 Y-154.411
X-212.736 Y-154.452
X-212.156 Y-154.468 Z0.776
X-211.582 Y-154.46
X-211.011 Y-154.428
X-210.442 Y-154.372
X-209.876 Y-154.295 Z0.775
X-209.315 Y-154.196
X-208.752 Y-154.077
X-208.193 Y-153.939 Z0.774
X-207.638 Y-153.782
X-207.083 Y-153.609
X-206.532 Y-153.419 Z0.773
X-205.984 Y-153.215
X-205.44 Y-152.997
X-204.9 Y-152.768
X-204.367 Y-152.528 Z0.772
X-203.838 Y-152.279
X-203.317 Y-152.021
X-202.802 Y-151.755 Z0.771
X-202.294 Y-151.484
X-201.797 Y-151.21
X-201.31 Y-150.93 Z0.77
X-200.831 Y-150.647
X-200.365 Y-150.364
X-199.911 Y-150.079
X-199.47 Y-149.795 Z0.769
X-199.041 Y-149.509
X-198.626 Y-149.226
X-198.227 Y-148.945
X-197.842 Y-148.666 Z0.768
X-197.468 Y-148.385
X-167.284 Y-125.384 Z0.749
X-166.891 Y-125.069 Z0.748
X-166.545 Y-124.761
X-166.228 Y-124.448
X-165.94 Y-124.131
X-165.677 Y-123.806 Z0.747
X-165.438 Y-123.476
X-165.223 Y-123.138
X-165.025 Y-122.79
X-164.848 Y-122.436
X-164.688 Y-122.069 Z0.746
X-164.543 Y-121.692
X-164.414 Y-121.306
X-164.299 Y-120.908
X-164.196 Y-120.497
X-164.106 Y-120.079 Z0.745
X-164.028 Y-119.649
X-163.96 Y-119.209
X-163.902 Y-118.768
X-163.809 Y-117.837 Z0.744
X-163.746 Y-116.884
X-163.704 Y-115.905 Z0.743
X-163.677 Y-114.904
X-163.661 Y-113.884 Z0.742
X-163.653 Y-112.848
X-163.652 Y-111.8 Z0.741
X-163.653 Y-110.752
X-163.661 Y-109.716 Z0.74
X-163.677 Y-108.696
X-163.704 Y-107.695 Z0.739
X-163.746 Y-106.716 Z0.738
X-163.809 Y-105.763
X-163.902 Y-104.832
X-163.96 Y-104.391 Z0.737
X-164.028 Y-103.951
X-164.106 Y-103.521
X-164.196 Y-103.103
X-164.299 Y-102.692 Z0.736
X-164.414 Y-102.294
X-164.543 Y-101.908
X-164.688 Y-101.531
X-164.848 Y-101.164
X-165.026 Y-100.809 Z0.735
X-165.223 Y-100.462
X-165.438 Y-100.124
X-165.677 Y-99.794
X-165.94 Y-99.469
X-166.228 Y-99.151 Z0.734
X-166.545 Y-98.838
X-166.891 Y-98.531
X-167.284 Y-98.216
X-197.467 Y-75.215 Z0.714
X-197.842 Y-74.934
X-198.227 Y-74.655
X-198.626 Y-74.374 Z0.713
X-199.04 Y-74.091
X-199.47 Y-73.806
X-199.911 Y-73.521
X-200.365 Y-73.236 Z0.712
X-200.832 Y-72.952
X-201.309 Y-72.67
X-201.797 Y-72.391 Z0.711
X-202.295 Y-72.115
X-202.802 Y-71.844
X-203.316 Y-71.579
X-203.838 Y-71.322 Z0.71
X-204.367 Y-71.072
X-204.9 Y-70.832
X-205.44 Y-70.603 Z0.709
X-205.984 Y-70.385
X-206.532 Y-70.181
X-207.083 Y-69.992 Z0.708
X-207.638 Y-69.818
X-208.194 Y-69.661
X-208.753 Y-69.523
X-209.314 Y-69.404 Z0.707
X-209.877 Y-69.305
X-210.443 Y-69.228
X-211.011 Y-69.172 Z0.706
X-211.582 Y-69.14
X-212.156 Y-69.132
X-212.736 Y-69.148 Z0.705
X-213.321 Y-69.189
X-213.928 Y-69.258
G2 X-228.14 Y-62.68 Z0.696 I-1.936 J14.459
G1 X-228.596 Y-61.973
X-229.045 Y-61.279
X-229.488 Y-60.597 Z0.695
X-229.913 Y-59.948
X-230.049 Y-59.755
X-230.179 Y-59.591 Z0.694
X-230.321 Y-59.434
X-230.472 Y-59.286
X-230.63 Y-59.15
X-230.8 Y-59.022
X-230.976 Y-58.904
X-231.158 Y-58.798
X-231.346 Y-58.704
X-231.54 Y-58.621
X-231.74 Y-58.55
X-231.943 Y-58.492 Z0.693
X-232.149 Y-58.447
X-232.358 Y-58.414
X-232.568 Y-58.395
X-232.804 Y-58.388
X-268.471 Z0.675
G3 X-270.616 Y-59.146 Z0.673 I0 J-3.413
G2 X-277.64 Y-50.454 Z0.664 I-3.512 J4.346
X-270.616 Y-50.454 Z0.661 I3.512 J-4.346
G3 X-268.471 Y-51.213 Z0.659 I2.145 J2.654
G1 X-236.341 Z0.643
X-236.236 Y-51.206
X-236.184 Y-51.195
X-236.133 Y-51.178
X-236.085 Y-51.154
X-236.041 Y-51.126
X-236.001 Y-51.09
X-235.965 Y-51.05
X-235.936 Y-51.006
X-235.911 Y-50.957
X-235.895 Y-50.909
X-235.884 Y-50.856 Z0.642
X-235.88 Y-50.801
X-235.883 Y-50.749
X-235.893 Y-50.697
X-235.909 Y-50.648
X-235.958 Y-50.546
X-236.241 Y-50.037
X-236.255 Y-50.012
X-236.541 Y-49.474
X-236.557 Y-49.443
X-236.823 Y-48.915 Z0.641
X-236.838 Y-48.883
X-237.085 Y-48.364
X-237.104 Y-48.323
X-237.329 Y-47.813
X-237.347 Y-47.771
X-237.551 Y-47.27 Z0.64
X-237.57 Y-47.222
X-237.752 Y-46.731
X-237.772 Y-46.673
X-237.93 Y-46.19
X-237.948 Y-46.131
X-238.083 Y-45.657
X-238.101 Y-45.587
X-238.211 Y-45.121 Z0.639
X-238.227 Y-45.046
X-238.312 Y-44.589
X-238.325 Y-44.506
X-238.384 Y-44.058
X-238.393 Y-43.969
X-238.426 Y-43.53 Z0.638
X-238.43 Y-43.437
X-238.437 Y-43.007
X-238.436 Y-42.905
X-238.416 Y-42.485
X-238.408 Y-42.383
X-238.362 Y-41.973
X-238.346 Y-41.864
X-238.273 Y-41.465 Z0.637
X-238.249 Y-41.357
X-238.15 Y-40.97
X-238.118 Y-40.861
X-237.993 Y-40.485
X-237.952 Y-40.376
X-237.801 Y-40.014
X-237.752 Y-39.907
X-237.576 Y-39.56 Z0.636
X-237.52 Y-39.458
X-237.319 Y-39.127
X-237.254 Y-39.027
X-237.03 Y-38.711
X-236.957 Y-38.617
X-236.71 Y-38.32
X-236.632 Y-38.232
X-236.363 Y-37.953 Z0.635
X-236.278 Y-37.871
X-235.988 Y-37.612
X-235.898 Y-37.537
X-235.587 Y-37.298
X-235.492 Y-37.23
X-235.161 Y-37.012
X-235.066 Y-36.954 Z0.634
X-234.717 Y-36.758
X-234.617 Y-36.707
X-234.249 Y-36.533
X-234.151 Y-36.491
X-233.766 Y-36.339
X-233.668 Y-36.305
X-233.266 Y-36.177 Z0.633
X-233.17 Y-36.149
X-232.751 Y-36.044
X-232.66 Y-36.024
X-232.226 Y-35.942
X-232.139 Y-35.928
X-231.689 Y-35.868
X-231.608 Y-35.86
X-231.143 Y-35.823 Z0.632
X-231.067 Y-35.818
X-230.588 Y-35.803
X-230.517 Y-35.802
X-230.022 Y-35.809
X-229.959 Y-35.811
X-229.449 Y-35.837 Z0.631
X-229.391 Y-35.841
X-228.868 Y-35.888
X-228.816 Y-35.893
X-228.277 Y-35.959
X-228.231 Y-35.966
X-227.678 Y-36.05
X-227.636 Y-36.057
X-227.069 Y-36.158 Z0.63
X-227.032 Y-36.166
X-226.451 Y-36.284
X-226.42 Y-36.291
X-225.824 Y-36.426
X-225.795 Y-36.432
X-225.185 Y-36.582 Z0.629
X-225.161 Y-36.588
X-224.536 Y-36.751
X-224.514 Y-36.757
X-223.875 Y-36.934
X-223.857 Y-36.939
X-223.204 Y-37.128 Z0.628
X-223.19 Y-37.132
X-222.521 Y-37.333
X-222.509 Y-37.337
X-221.826 Y-37.548 Z0.627
X-221.816 Y-37.551
X-221.118 Y-37.771
X-221.111 Y-37.773
X-220.398 Y-38.002
X-220.392 Y-38.004
X-219.664 Y-38.241 Z0.626
X-219.661 Y-38.242
X-218.917 Y-38.485
X-218.915 Y-38.486
X-218.155 Y-38.736 Z0.625
X-217.38 Y-38.991
X-216.591 Y-39.25
X-215.785 Y-39.513 Z0.624
X-214.965 Y-39.78
X-214.129 Y-40.049 Z0.623
X-213.277 Y-40.321
X-212.409 Y-40.596 Z0.622
X-211.524 Y-40.873
G2 X-201.41 Y-52.831 Z0.613 I-4.34 J-13.927
G1 X-201.316 Y-53.435
X-201.2 Y-54.01
X-201.062 Y-54.573
X-200.902 Y-55.124 Z0.612
X-200.719 Y-55.667
X-200.515 Y-56.2
X-200.29 Y-56.725 Z0.611
X-200.046 Y-57.242
X-199.782 Y-57.751
X-199.501 Y-58.253 Z0.61
X-199.202 Y-58.748
X-198.887 Y-59.237
X-198.558 Y-59.718
X-198.217 Y-60.192 Z0.609
X-197.863 Y-60.659
X-197.498 Y-61.118
X-197.125 Y-61.569 Z0.608
X-196.744 Y-62.013
X-196.357 Y-62.448
X-195.965 Y-62.874 Z0.607
X-195.57 Y-63.29
X-195.172 Y-63.697
X-194.773 Y-64.093
X-194.375 Y-64.479 Z0.606
X-193.977 Y-64.853
X-193.582 Y-65.216
X-193.19 Y-65.566 Z0.605
X-192.802 Y-65.904
X-192.419 Y-66.228
X-192.042 Y-66.538
X-191.671 Y-66.835 Z0.604
X-191.3 Y-67.122
X-164.314 Y-87.686 Z0.587
G3 X-163.652 Y-87.358 Z0.586 I0.25 J0.328
G1 Y-54.8 Z0.57
G3 X-190.545 Y-9.137 Z0.541 I-52.212 J0
G2 X-188.805 Y-2.412 Z0.536 I1.74 J3.137
G1 X-181.301 Z0.532
G2 X-179.227 Y-3.072 Z0.531 I0 J-3.588
X-164.399 Y-17.796 Z0.52 I-36.637 J-51.727
G3 X-163.652 Y-17.555 I0.335 J0.241
G1 Y-9 Z0.515
G2 X-157.064 Y-2.412 Z0.51 I6.588 J0
G1 X-154.064 Z0.509
G2 X-150.477 Y-6 Z0.506 I0 J-3.588
G1 Y-32.412 Z0.492
X-131.652 Z0.482
Y-6 Z0.469
G2 X-128.064 Y-2.412 Z0.466 I3.588 J0
G1 X-125.064 Z0.464
G2 X-118.477 Y-9 Z0.459 I0 J-6.588
G1 Y-17.555 Z0.455
G3 X-117.729 Y-17.796 Z0.454 I0.413 J0
G2 X-102.901 Y-3.072 Z0.443 I51.465 J-37.004
X-100.827 Y-2.412 Z0.442 I2.074 J-2.928
G1 X-93.323 Z0.438
G2 X-91.584 Y-9.137 Z0.434 I0 J-3.588
G3 X-118.477 Y-54.8 Z0.405 I25.319 J-45.662
G1 Y-87.358 Z0.388
G3 X-117.814 Y-87.686 I0.412 J0
G1 X-90.828 Y-67.122 Z0.37
X-90.458 Y-66.835
X-90.086 Y-66.539
X-89.709 Y-66.228
X-89.326 Y-65.904 Z0.369
X-88.938 Y-65.566
X-88.546 Y-65.216
X-88.151 Y-64.853
X-87.754 Y-64.479 Z0.368
X-87.355 Y-64.093
X-86.956 Y-63.697
X-86.558 Y-63.29
X-86.163 Y-62.873 Z0.367
X-85.771 Y-62.448
X-85.384 Y-62.013
X-85.003 Y-61.57 Z0.366
X-84.63 Y-61.118
X-84.266 Y-60.659
X-83.912 Y-60.192 Z0.365
X-83.57 Y-59.718
X-83.241 Y-59.237
X-82.926 Y-58.748
X-82.628 Y-58.253 Z0.364
X-82.346 Y-57.751
X-82.082 Y-57.242
X-81.838 Y-56.725 Z0.363
X-81.613 Y-56.2
X-81.409 Y-55.667
X-81.226 Y-55.125 Z0.362
X-81.066 Y-54.573
X-80.928 Y-54.01
X-80.813 Y-53.435
X-80.718 Y-52.831 Z0.361
G2 X-70.605 Y-40.873 Z0.353 I14.454 J-1.969
G1 X-69.719 Y-40.596 Z0.352
X-68.851 Y-40.321
X-67.999 Y-40.049 Z0.351
X-67.163 Y-39.78
X-66.343 Y-39.513 Z0.35
X-65.538 Y-39.25
X-64.748 Y-38.991
X-63.973 Y-38.736 Z0.349
X-63.213 Y-38.486
X-63.212 Y-38.485
X-62.468 Y-38.242 Z0.348
X-62.464 Y-38.241
X-61.736 Y-38.004
X-61.73 Y-38.002
X-61.017 Y-37.773
X-61.01 Y-37.771
X-60.312 Y-37.551 Z0.347
X-60.302 Y-37.548
X-59.619 Y-37.337
X-59.607 Y-37.333
X-58.938 Y-37.133 Z0.346
X-58.924 Y-37.128
X-58.27 Y-36.939
X-58.252 Y-36.934
X-57.613 Y-36.757
X-57.592 Y-36.752
X-56.968 Y-36.588 Z0.345
X-56.943 Y-36.582
X-56.333 Y-36.432
X-56.305 Y-36.426
X-55.709 Y-36.291
X-55.677 Y-36.284
X-55.095 Y-36.166 Z0.344
X-55.058 Y-36.158
X-54.491 Y-36.057
X-54.45 Y-36.05
X-53.897 Y-35.966
X-53.851 Y-35.959
X-53.312 Y-35.893 Z0.343
X-53.26 Y-35.888
X-52.736 Y-35.841
X-52.679 Y-35.837
X-52.169 Y-35.811
X-52.106 Y-35.809
X-51.611 Y-35.802
X-51.541 Y-35.803
X-51.061 Y-35.818 Z0.342
X-50.985 Y-35.823
X-50.52 Y-35.86
X-50.439 Y-35.868
X-49.989 Y-35.928
X-49.902 Y-35.942
X-49.468 Y-36.024
X-49.376 Y-36.044 Z0.341
X-48.958 Y-36.149
X-48.862 Y-36.177
X-48.46 Y-36.305
X-48.363 Y-36.339
X-47.978 Y-36.49
X-47.879 Y-36.533
X-47.511 Y-36.707 Z0.34
X-47.412 Y-36.758
X-47.063 Y-36.954
X-46.966 Y-37.013
X-46.636 Y-37.231
X-46.542 Y-37.298
X-46.231 Y-37.537
X-46.141 Y-37.611
X-45.85 Y-37.871 Z0.339
X-45.765 Y-37.953
X-45.496 Y-38.232
X-45.417 Y-38.32
X-45.17 Y-38.618
X-45.098 Y-38.712
X-44.874 Y-39.027
X-44.809 Y-39.126
X-44.609 Y-39.458 Z0.338
X-44.551 Y-39.561
X-44.376 Y-39.908
X-44.327 Y-40.015
X-44.176 Y-40.377
X-44.135 Y-40.485
X-44.01 Y-40.86
X-43.978 Y-40.969
X-43.879 Y-41.357 Z0.337
X-43.855 Y-41.465
X-43.783 Y-41.865
X-43.767 Y-41.972
X-43.721 Y-42.382
X-43.712 Y-42.486
X-43.693 Y-42.906
X-43.691 Y-43.006 Z0.336
X-43.698 Y-43.436
X-43.702 Y-43.531
X-43.736 Y-43.97
X-43.745 Y-44.058
X-43.804 Y-44.507
X-43.817 Y-44.589
X-43.902 Y-45.046 Z0.335
X-43.918 Y-45.121
X-44.027 Y-45.587
X-44.045 Y-45.655
X-44.18 Y-46.13
X-44.199 Y-46.191
X-44.357 Y-46.674
X-44.376 Y-46.729 Z0.334
X-44.558 Y-47.221
X-44.577 Y-47.27
X-44.781 Y-47.771
X-44.799 Y-47.815
X-45.025 Y-48.324
X-45.043 Y-48.363
X-45.289 Y-48.882 Z0.333
X-45.306 Y-48.916
X-45.572 Y-49.444
X-45.588 Y-49.474
X-45.873 Y-50.011
X-45.887 Y-50.037
X-46.17 Y-50.546 Z0.332
X-46.218 Y-50.646
X-46.235 Y-50.697
X-46.245 Y-50.75
X-46.248 Y-50.803
X-46.244 Y-50.856
X-46.234 Y-50.908
X-46.216 Y-50.958
X-46.192 Y-51.006
X-46.163 Y-51.05
X-46.127 Y-51.09
X-46.087 Y-51.125
X-46.043 Y-51.155
X-45.995 Y-51.178
X-45.945 Y-51.195
X-45.893 Y-51.206
X-45.787 Y-51.213
X-13.657 Z0.315
G3 X-11.512 Y-50.454 Z0.314 I0 J3.413
G2 X-4.488 Y-59.146 Z0.305 I3.512 J-4.346
X-11.512 Y-59.146 Z0.301 I-3.512 J4.346
G3 X-13.657 Y-58.388 Z0.3 I-2.145 J-2.654
G1 X-49.324 Z0.282
X-49.56 Y-58.395
X-49.77 Y-58.414 Z0.281
X-49.979 Y-58.447
X-50.185 Y-58.492
X-50.388 Y-58.55
X-50.588 Y-58.621
X-50.782 Y-58.704
X-50.97 Y-58.798
X-51.153 Y-58.904
X-51.329 Y-59.022
X-51.497 Y-59.15
X-51.657 Y-59.287 Z0.28
X-51.807 Y-59.434
X-51.949 Y-59.591
X-52.08 Y-59.755
X-52.215 Y-59.948
X-52.64 Y-60.597
X-53.084 Y-61.279 Z0.279
X-53.533 Y-61.973
X-53.988 Y-62.68 Z0.278
G2 X-68.2 Y-69.258 Z0.27 I-12.276 J7.88
G1 X-68.807 Y-69.189 Z0.269
X-69.392 Y-69.148
X-69.971 Y-69.132
X-70.546 Y-69.14
X-71.117 Y-69.172 Z0.268
X-71.685 Y-69.228
X-72.251 Y-69.305
X-72.814 Y-69.404 Z0.267
X-73.375 Y-69.523
X-73.934 Y-69.661
X-74.491 Y-69.818
X-75.045 Y-69.992 Z0.266
X-75.596 Y-70.181
X-76.144 Y-70.385
X-76.688 Y-70.603 Z0.265
X-77.228 Y-70.832
X-77.762 Y-71.072
X-78.29 Y-71.322 Z0.264
X-78.812 Y-71.58
X-79.327 Y-71.844
X-79.833 Y-72.115
X-80.331 Y-72.391 Z0.263
X-80.819 Y-72.67
X-81.296 Y-72.952
X-81.763 Y-73.236 Z0.262
X-82.217 Y-73.521
X-82.659 Y-73.806
X-83.088 Y-74.09
X-83.502 Y-74.373 Z0.261
X-83.901 Y-74.655
X-84.286 Y-74.934
X-84.661 Y-75.215
X-114.844 Y-98.216 Z0.241
X-115.237 Y-98.531
X-115.583 Y-98.838
X-115.9 Y-99.151 Z0.24
X-116.189 Y-99.47
X-116.452 Y-99.794
X-116.689 Y-100.123
X-116.905 Y-100.462
X-117.102 Y-100.809 Z0.239
X-117.28 Y-101.164
X-117.44 Y-101.531
X-117.585 Y-101.908
X-117.714 Y-102.294 Z0.238
X-117.829 Y-102.692
X-117.932 Y-103.103
X-118.022 Y-103.522
X-118.1 Y-103.951
X-118.168 Y-104.389 Z0.237
X-118.226 Y-104.832
X-118.319 Y-105.764
X-118.383 Y-106.716 Z0.236
X-118.424 Y-107.695
X-118.451 Y-108.696 Z0.235
X-118.467 Y-109.716
X-118.475 Y-110.752 Z0.234
X-118.476 Y-111.8
X-118.475 Y-112.848 Z0.233
X-118.467 Y-113.884 Z0.232
X-118.451 Y-114.904
X-118.424 Y-115.905 Z0.231
X-118.383 Y-116.884
X-118.319 Y-117.836 Z0.23
X-118.226 Y-118.768
X-118.168 Y-119.211
X-118.1 Y-119.649
X-118.022 Y-120.078 Z0.229
X-117.932 Y-120.497
X-117.829 Y-120.908
X-117.714 Y-121.306
X-117.585 Y-121.692 Z0.228
X-117.44 Y-122.069
X-117.28 Y-122.436
X-117.103 Y-122.79
X-116.905 Y-123.138
X-116.689 Y-123.477 Z0.227
X-116.452 Y-123.806
X-116.189 Y-124.13
X-115.9 Y-124.448
X-115.583 Y-124.761
X-115.237 Y-125.069 Z0.226
X-114.844 Y-125.384
X-84.661 Y-148.385 Z0.207
X-84.286 Y-148.665 Z0.206
X-83.901 Y-148.945
X-83.502 Y-149.227
X-83.087 Y-149.51
X-82.659 Y-149.795 Z0.205
X-82.217 Y-150.079
X-81.764 Y-150.364
X-81.297 Y-150.647 Z0.204
X-80.818 Y-150.93
X-80.331 Y-151.21
X-79.834 Y-151.484
X-79.327 Y-151.755 Z0.203
X-78.812 Y-152.021
X-78.29 Y-152.279
X-77.762 Y-152.528 Z0.202
X-77.228 Y-152.768
X-76.689 Y-152.997
X-76.144 Y-153.215
X-75.596 Y-153.419 Z0.201
X-75.045 Y-153.609
X-74.491 Y-153.782
X-73.935 Y-153.939 Z0.2
X-73.376 Y-154.077
X-72.813 Y-154.196
X-72.252 Y-154.295 Z0.199
X-71.686 Y-154.372
X-71.117 Y-154.428
X-70.547 Y-154.46
X-69.972 Y-154.468 Z0.198
X-69.392 Y-154.452
X-68.807 Y-154.411
X-68.2 Y-154.342 Z0.197
G2 X-53.988 Y-160.92 Z0.189 I1.936 J-14.459
G1 X-53.533 Y-161.627 Z0.188
X-53.084 Y-162.321
X-52.64 Y-163.003
X-52.215 Y-163.652 Z0.187
X-52.08 Y-163.844
X-51.948 Y-164.01
X-51.807 Y-164.166
X-51.657 Y-164.312
X-51.497 Y-164.45
X-51.328 Y-164.579
X-51.154 Y-164.695 Z0.186
X-50.97 Y-164.802
X-50.781 Y-164.897
X-50.589 Y-164.979
X-50.388 Y-165.05
X-50.184 Y-165.108
X-49.979 Y-165.153
X-49.771 Y-165.186
X-49.561 Y-165.205
X-49.323 Y-165.212 Z0.185
X-13.657 Z0.167
G3 X-11.512 Y-164.454 Z0.166 I0 J3.413
G2 X-4.488 Y-173.146 Z0.157 I3.512 J-4.346
X-11.512 Y-173.146 Z0.153 I-3.512 J4.346
G3 X-13.657 Y-172.387 Z0.152 I-2.145 J-2.654
G1 X-45.787 Z0.135
X-45.891 Y-172.394
X-45.944 Y-172.405
X-45.996 Y-172.422
X-46.043 Y-172.445
X-46.088 Y-172.475
X-46.128 Y-172.511
X-46.163 Y-172.549
X-46.192 Y-172.594
X-46.216 Y-172.641
X-46.234 Y-172.692
X-46.244 Y-172.744
X-46.248 Y-172.797
X-46.245 Y-172.85
X-46.235 Y-172.903
X-46.218 Y-172.954
X-46.17 Y-173.054
X-45.888 Y-173.562 Z0.134
X-45.873 Y-173.588
X-45.587 Y-174.126
X-45.572 Y-174.155
X-45.306 Y-174.683
X-45.289 Y-174.718
X-45.042 Y-175.237
X-45.025 Y-175.276
X-44.799 Y-175.786 Z0.133
X-44.781 Y-175.828
X-44.577 Y-176.328
X-44.558 Y-176.379
X-44.376 Y-176.871
X-44.357 Y-176.925
X-44.199 Y-177.408 Z0.132
X-44.18 Y-177.47
X-44.045 Y-177.945
X-44.027 Y-178.014
X-43.917 Y-178.48
X-43.902 Y-178.554
X-43.817 Y-179.011 Z0.131
X-43.804 Y-179.093
X-43.745 Y-179.542
X-43.736 Y-179.63
X-43.702 Y-180.069
X-43.698 Y-180.164
X-43.691 Y-180.594
X-43.693 Y-180.693
X-43.712 Y-181.114 Z0.13
X-43.721 Y-181.218
X-43.767 Y-181.628
X-43.783 Y-181.734
X-43.855 Y-182.134
X-43.879 Y-182.243
X-43.978 Y-182.631
X-44.01 Y-182.74
X-44.136 Y-183.115 Z0.129
X-44.176 Y-183.223
X-44.327 Y-183.585
X-44.376 Y-183.692
X-44.552 Y-184.039
X-44.608 Y-184.141
X-44.808 Y-184.473
X-44.874 Y-184.574
X-45.098 Y-184.889 Z0.128
X-45.171 Y-184.984
X-45.418 Y-185.281
X-45.496 Y-185.368
X-45.765 Y-185.647
X-45.849 Y-185.728
X-46.139 Y-185.988
X-46.231 Y-186.064 Z0.127
X-46.542 Y-186.303
X-46.635 Y-186.369
X-46.966 Y-186.587
X-47.063 Y-186.647
X-47.413 Y-186.843
X-47.51 Y-186.893
X-47.878 Y-187.067 Z0.126
X-47.978 Y-187.11
X-48.363 Y-187.261
X-48.461 Y-187.296
X-48.863 Y-187.424
X-48.958 Y-187.451
X-49.376 Y-187.556
X-49.468 Y-187.576
X-49.903 Y-187.658 Z0.125
X-49.987 Y-187.672
X-50.437 Y-187.732
X-50.521 Y-187.74
X-50.986 Y-187.777
X-51.062 Y-187.782
X-51.542 Y-187.797
X-51.611
X-52.106 Y-187.791 Z0.124
X-52.17 Y-187.789
X-52.68 Y-187.762
X-52.735 Y-187.758
X-53.258 Y-187.712
X-53.313 Y-187.707
X-53.851 Y-187.641 Z0.123
X-53.896 Y-187.634
X-54.449 Y-187.55
X-54.492 Y-187.543
X-55.059 Y-187.441
X-55.096 Y-187.434
X-55.678 Y-187.315 Z0.122
X-55.708 Y-187.309
X-56.303 Y-187.175
X-56.334 Y-187.168
X-56.944 Y-187.018
X-56.966 Y-187.012
X-57.591 Y-186.849 Z0.121
X-57.614 Y-186.843
X-58.253 Y-186.666
X-58.27 Y-186.661
X-58.923 Y-186.472
X-58.94 Y-186.467
X-59.608 Y-186.266 Z0.12
X-59.617 Y-186.263
X-60.3 Y-186.053
X-60.313 Y-186.049
X-61.011 Y-185.828
X-61.017 Y-185.826
X-61.73 Y-185.597 Z0.119
X-61.734 Y-185.596
X-62.463 Y-185.36
X-62.468 Y-185.358
X-63.212 Y-185.114 Z0.118
X-63.214
X-63.973 Y-184.864
X-64.748 Y-184.609
X-65.537 Y-184.35 Z0.117
X-66.342 Y-184.087
X-67.164 Y-183.82 Z0.116
X-67.999 Y-183.551
X-68.851 Y-183.279 Z0.115
X-69.72 Y-183.004
X-70.606 Y-182.726 Z0.114
G2 X-80.718 Y-170.77 Z0.106 I4.341 J13.926
G1 X-80.813 Y-170.165
X-80.928 Y-169.59 Z0.105
X-81.066 Y-169.027
X-81.226 Y-168.475
X-81.409 Y-167.933 Z0.104
X-81.613 Y-167.4
X-81.838 Y-166.875
X-82.082 Y-166.359
X-82.346 Y-165.849 Z0.103
X-82.628 Y-165.346
X-82.926 Y-164.852
X-83.241 Y-164.364 Z0.102
X-83.57 Y-163.882
X-83.912 Y-163.408
X-84.266 Y-162.941 Z0.101
X-84.63 Y-162.482
X-85.003 Y-162.03
X-85.384 Y-161.587
X-85.771 Y-161.152 Z0.1
X-86.163 Y-160.726
X-86.558 Y-160.31
X-86.956 Y-159.903 Z0.099
X-87.355 Y-159.507
X-87.753 Y-159.121
X-88.151 Y-158.747 Z0.098
X-88.546 Y-158.385
X-88.938 Y-158.033
X-89.325 Y-157.697
X-89.709 Y-157.372 Z0.097
X-90.087 Y-157.061
X-90.457 Y-156.765
X-90.828 Y-156.478
X-117.814 Y-135.914 Z0.079
G3 X-118.477 Y-136.242 I-0.25 J-0.328
G1 Y-168.8 Z0.062
G3 X-91.584 Y-214.463 Z0.034 I52.212 J0
G2 X-93.323 Y-221.188 Z0.029 I-1.74 J-3.137
G1 X-100.827 Z0.025
G2 X-102.901 Y-220.527 Z0.024 I0 J3.587
X-117.729 Y-205.805 Z0.013 I36.636 J51.728
G3 X-118.477 Y-206.045 Z0.012 I-0.335 J-0.24
G1 Y-214.6 Z0.008
G2 X-125.064 Y-221.188 Z0.003 I-6.588 J0
G1 X-130.107 Z0
G2 X-133.69 Y-217.768 Z-0.003 I0 J3.587
G1 X-133.764 Y-216.505
X-133.871 Y-215.288 Z-0.004
X-134.011 Y-214.115 Z-0.005
X-134.178 Y-212.992
X-134.369 Y-211.926 Z-0.006
X-134.583 Y-210.917
X-134.816 Y-209.964 Z-0.007
X-135.065 Y-209.068
X-135.329 Y-208.227 Z-0.008
X-135.604 Y-207.441
X-135.89 Y-206.709 Z-0.009
X-136.186 Y-206.027
X-136.488 Y-205.396
X-136.796 Y-204.815 Z-0.01
X-137.108 Y-204.282
X-137.422 Y-203.797
X-137.737 Y-203.359 Z-0.011
X-138.052 Y-202.966
X-138.366 Y-202.616
X-138.674 Y-202.311
X-138.976 Y-202.048
X-139.272 Y-201.825 Z-0.012
X-139.56 Y-201.639
X-139.838 Y-201.49
X-140.106 Y-201.374
X-140.365 Y-201.288
X-140.616 Y-201.23
X-140.861 Y-201.198 Z-0.013
X-141.105 Y-201.19
X-141.349 Y-201.206
X-141.595 Y-201.246
X-141.848 Y-201.314
X-142.109 Y-201.408
X-142.378 Y-201.534
X-142.66 Y-201.695 Z-0.014
X-142.948 Y-201.891
X-143.244 Y-202.124
X-143.547 Y-202.398
X-143.853 Y-202.713
X-144.165 Y-203.073 Z-0.015
X-144.477 Y-203.474
X-144.789 Y-203.92
X-145.099 Y-204.412
X-145.406 Y-204.948 Z-0.016
X-145.708 Y-205.532
X-146.004 Y-206.164
X-146.293 Y-206.843 Z-0.017
X-146.572 Y-207.57
X-146.84 Y-208.349 Z-0.018
X-147.096 Y-209.179
X-147.338 Y-210.061 Z-0.019
X-147.563 Y-210.996
X-147.77 Y-211.983 Z-0.02
X-147.956 Y-213.025
X-148.118 Y-214.12 Z-0.021
X-148.254 Y-215.265
X-148.361 Y-216.456 Z-0.022
X-148.434 Y-217.694 Z-0.023
X-148.437 Y-217.752
Y-217.754
G2 X-152.021 Y-221.188 Z-0.025 I-3.584 J0.154
G1 X-157.064 Z-0.028
G2 X-163.652 Y-214.6 Z-0.033 I0 J6.587
G1 Y-206.045 Z-0.038
G3 X-164.399 Y-205.804 I-0.412 J0
G2 X-179.227 Y-220.527 Z-0.049 I-51.465 J37.005
X-181.301 Y-221.188 Z-0.05 I-2.074 J2.927
G1 X-188.805 Z-0.054
G2 X-190.545 Y-214.463 Z-0.059 I0 J3.587
G3 X-163.652 Y-168.8 Z-0.087 I-25.319 J45.663
G1 Y-136.242 Z-0.104
G3 X-164.314 Y-135.914 Z-0.105 I-0.413 J0
G1 X-191.3 Y-156.478 Z-0.122
X-191.671 Y-156.765
X-192.042 Y-157.061
X-192.419 Y-157.372 Z-0.123
X-192.802 Y-157.697
X-193.19 Y-158.034
X-193.582 Y-158.385 Z-0.124
X-193.977 Y-158.747
X-194.375 Y-159.122
X-194.773 Y-159.507
X-195.172 Y-159.903 Z-0.125
X-195.57 Y-160.31
X-195.965 Y-160.726
X-196.357 Y-161.152 Z-0.126
X-196.744 Y-161.587
X-197.125 Y-162.03
X-197.498 Y-162.482
X-197.863 Y-162.941 Z-0.127
X-198.217 Y-163.408
X-198.558 Y-163.882
X-198.887 Y-164.363 Z-0.128
X-199.202 Y-164.853
X-199.501 Y-165.347
X-199.782 Y-165.849 Z-0.129
X-200.046 Y-166.359
X-200.29 Y-166.875
X-200.515 Y-167.4
X-200.719 Y-167.933 Z-0.13
X-200.902 Y-168.476
X-201.062 Y-169.026
X-201.2 Y-169.591 Z-0.131
X-201.316 Y-170.165
X-201.41 Y-170.769
G2 X-211.523 Y-182.726 Z-0.14 I-14.454 J1.969
G1 X-212.409 Y-183.004
X-213.277 Y-183.279 Z-0.141
X-214.129 Y-183.551
X-214.965 Y-183.82 Z-0.142
X-215.785 Y-184.087
X-216.591 Y-184.35
X-217.38 Y-184.609 Z-0.143
X-218.155 Y-184.864
X-218.915 Y-185.114 Z-0.144
X-218.916
X-219.66 Y-185.358
X-219.665 Y-185.36
X-220.393 Y-185.596 Z-0.145
X-220.398 Y-185.597
X-221.111 Y-185.826
X-221.117 Y-185.828
X-221.815 Y-186.049
X-221.827 Y-186.053
X-222.51 Y-186.263 Z-0.146
X-222.52 Y-186.266
X-223.189 Y-186.467
X-223.205 Y-186.472
X-223.858 Y-186.661
X-223.875 Y-186.666
X-224.514 Y-186.843 Z-0.147
X-224.537 Y-186.849
X-225.162 Y-187.012
X-225.184 Y-187.018
X-225.794 Y-187.168
X-225.825 Y-187.175
X-226.421 Y-187.309 Z-0.148
X-226.45 Y-187.315
X-227.031 Y-187.434
X-227.069 Y-187.441
X-227.636 Y-187.543
X-227.679 Y-187.55
X-228.232 Y-187.634 Z-0.149
X-228.277 Y-187.641
X-228.816 Y-187.707
X-228.87 Y-187.712
X-229.393 Y-187.758
X-229.448 Y-187.762
X-229.958 Y-187.789 Z-0.15
X-230.023 Y-187.791
X-230.518 Y-187.797
X-230.587
X-231.066 Y-187.782
X-231.142 Y-187.777
X-231.607 Y-187.74
X-231.691 Y-187.732
X-232.141 Y-187.672 Z-0.151
X-232.226 Y-187.658
X-232.66 Y-187.576
X-232.751 Y-187.556
X-233.17 Y-187.451
X-233.266 Y-187.424
X-233.668 Y-187.296
X-233.766 Y-187.261 Z-0.152
X-234.151 Y-187.11
X-234.25 Y-187.067
X-234.618 Y-186.893
X-234.716 Y-186.842
X-235.065 Y-186.646
X-235.161 Y-186.588
X-235.492 Y-186.37 Z-0.153
X-235.586 Y-186.303
X-235.897 Y-186.064
X-235.99 Y-185.987
X-236.28 Y-185.727
X-236.363 Y-185.647
X-236.632 Y-185.368
X-236.71 Y-185.281
X-236.957 Y-184.984 Z-0.154
X-237.03 Y-184.889
X-237.254 Y-184.574
X-237.32 Y-184.473
X-237.52 Y-184.141
X-237.576 Y-184.04
X-237.752 Y-183.693
X-237.801 Y-183.586
X-237.952 Y-183.224 Z-0.155
X-237.993 Y-183.115
X-238.118 Y-182.74
X-238.15 Y-182.63
X-238.249 Y-182.242
X-238.273 Y-182.135
X-238.346 Y-181.735
X-238.362 Y-181.627
X-238.408 Y-181.217 Z-0.156
X-238.416 Y-181.115
X-238.436 Y-180.694
X-238.437 Y-180.593
X-238.43 Y-180.163
X-238.426 Y-180.07
X-238.393 Y-179.631 Z-0.157
X-238.384 Y-179.543
X-238.325 Y-179.094
X-238.312 Y-179.011
X-238.227 Y-178.554
X-238.211 Y-178.479
X-238.101 Y-178.013
X-238.083 Y-177.944
X-237.948 Y-177.469 Z-0.158
X-237.93 Y-177.409
X-237.772 Y-176.926
X-237.752 Y-176.869
X-237.57 Y-176.377
X-237.551 Y-176.328
X-237.347 Y-175.828 Z-0.159
X-237.329 Y-175.787
X-237.104 Y-175.277
X-237.085 Y-175.236
X-236.838 Y-174.717
X-236.823 Y-174.685
X-236.557 Y-174.157
X-236.541 Y-174.126 Z-0.16
X-236.255 Y-173.588
X-236.241 Y-173.562
X-235.958 Y-173.053
X-235.909 Y-172.953
X-235.893 Y-172.903
X-235.883 Y-172.851
X-235.88 Y-172.798
X-235.884 Y-172.744
X-235.895 Y-172.691
X-235.911 Y-172.642
X-235.936 Y-172.594
X-235.965 Y-172.55
X-236 Y-172.51
X-236.041 Y-172.475
X-236.085 Y-172.445
X-236.133 Y-172.422 Z-0.161
X-236.184 Y-172.405
X-236.237 Y-172.394
X-236.341 Y-172.387
X-268.471 Z-0.177
G3 X-270.616 Y-173.146 Z-0.178 I0 J-3.413
G2 X-277.64 Y-164.454 Z-0.187 I-3.512 J4.346
X-270.616 Y-164.454 Z-0.191 I3.512 J-4.346
G3 X-268.471 Y-165.212 Z-0.192 I2.145 J2.654
G1 X-232.805 Z-0.211
X-232.568 Y-165.205
X-232.357 Y-165.186
X-232.149 Y-165.153
X-231.944 Y-165.108
X-231.741 Y-165.05
X-231.539 Y-164.978
X-231.347 Y-164.897 Z-0.212
X-231.158 Y-164.802
X-230.975 Y-164.696
X-230.801 Y-164.58
X-230.63 Y-164.449
X-230.471 Y-164.313
X-230.322 Y-164.166
X-230.18 Y-164.01
X-230.049 Y-163.845
X-229.913 Y-163.652 Z-0.213
X-229.489 Y-163.003
X-229.045 Y-162.321
X-228.596 Y-161.627 Z-0.214
X-228.14 Y-160.92
G2 X-213.928 Y-154.342 Z-0.223 I12.276 J-7.881
G1 X-213.321 Y-154.411
X-212.736 Y-154.452
X-212.156 Y-154.468 Z-0.224
X-211.582 Y-154.46
X-211.011 Y-154.428
X-210.442 Y-154.372
X-209.876 Y-154.295 Z-0.225
X-209.315 Y-154.196
X-208.752 Y-154.077
X-208.193 Y-153.939 Z-0.226
X-207.638 Y-153.782
X-207.083 Y-153.609
X-206.532 Y-153.419 Z-0.227
X-205.984 Y-153.215
X-205.44 Y-152.997
X-204.9 Y-152.768
X-204.367 Y-152.528 Z-0.228
X-203.838 Y-152.279
X-203.317 Y-152.021
X-202.802 Y-151.755 Z-0.229
X-202.294 Y-151.484
X-201.797 Y-151.21
X-201.31 Y-150.93 Z-0.23
X-200.831 Y-150.647
X-200.365 Y-150.364
X-199.911 Y-150.079
X-199.47 Y-149.795 Z-0.231
X-199.041 Y-149.509
X-198.626 Y-149.226
X-198.227 Y-148.945
X-197.842 Y-148.666 Z-0.232
X-197.468 Y-148.385
X-167.284 Y-125.384 Z-0.251
X-166.891 Y-125.069 Z-0.252
X-166.545 Y-124.761
X-166.228 Y-124.448
X-165.94 Y-124.131
X-165.677 Y-123.806 Z-0.253
X-165.438 Y-123.476
X-165.223 Y-123.138
X-165.025 Y-122.79
X-164.848 Y-122.436
X-164.688 Y-122.069 Z-0.254
X-164.543 Y-121.692
X-164.414 Y-121.306
X-164.299 Y-120.908
X-164.196 Y-120.497
X-164.106 Y-120.079 Z-0.255
X-164.028 Y-119.649
X-163.96 Y-119.209
X-163.902 Y-118.768
X-163.809 Y-117.837 Z-0.256
X-163.746 Y-116.884
X-163.704 Y-115.905 Z-0.257
X-163.677 Y-114.904
X-163.661 Y-113.884 Z-0.258
X-163.653 Y-112.848
X-163.652 Y-111.8 Z-0.259
X-163.653 Y-110.752
X-163.661 Y-109.716 Z-0.26
X-163.677 Y-108.696
X-163.704 Y-107.695 Z-0.261
X-163.746 Y-106.716 Z-0.262
X-163.809 Y-105.763
X-163.902 Y-104.832
X-163.96 Y-104.391 Z-0.263
X-164.028 Y-103.951
X-164.106 Y-103.521
X-164.196 Y-103.103
X-164.299 Y-102.692 Z-0.264
X-164.414 Y-102.294
X-164.543 Y-101.908
X-164.688 Y-101.531
X-164.848 Y-101.164
X-165.026 Y-100.809 Z-0.265
X-165.223 Y-100.462
X-165.438 Y-100.124
X-165.677 Y-99.794
X-165.94 Y-99.469
X-166.228 Y-99.151 Z-0.266
X-166.545 Y-98.838
X-166.891 Y-98.531
X-167.284 Y-98.216
X-197.467 Y-75.215 Z-0.286
X-197.842 Y-74.934
X-198.227 Y-74.655
X-198.626 Y-74.374 Z-0.287
X-199.04 Y-74.091
X-199.47 Y-73.806
X-199.911 Y-73.521
X-200.365 Y-73.236 Z-0.288
X-200.832 Y-72.952
X-201.309 Y-72.67
X-201.797 Y-72.391 Z-0.289
X-202.295 Y-72.115
X-202.802 Y-71.844
X-203.316 Y-71.579
X-203.838 Y-71.322 Z-0.29
X-204.367 Y-71.072
X-204.9 Y-70.832
X-205.44 Y-70.603 Z-0.291
X-205.984 Y-70.385
X-206.532 Y-70.181
X-207.083 Y-69.992 Z-0.292
X-207.638 Y-69.818
X-208.194 Y-69.661
X-208.753 Y-69.523
X-209.314 Y-69.404 Z-0.293
X-209.877 Y-69.305
X-210.443 Y-69.228
X-211.011 Y-69.172 Z-0.294
X-211.582 Y-69.14
X-212.156 Y-69.132
X-212.736 Y-69.148 Z-0.295
X-213.321 Y-69.189
X-213.928 Y-69.258
G2 X-228.14 Y-62.68 Z-0.304 I-1.936 J14.459
G1 X-228.596 Y-61.973
X-229.045 Y-61.279
X-229.488 Y-60.597 Z-0.305
X-229.913 Y-59.948
X-230.049 Y-59.755
X-230.179 Y-59.591 Z-0.306
X-230.321 Y-59.434
X-230.472 Y-59.286
X-230.63 Y-59.15
X-230.8 Y-59.022
X-230.976 Y-58.904
X-231.158 Y-58.798
X-231.346 Y-58.704
X-231.54 Y-58.621
X-231.74 Y-58.55
X-231.943 Y-58.492 Z-0.307
X-232.149 Y-58.447
X-232.358 Y-58.414
X-232.568 Y-58.395
X-232.804 Y-58.388
X-268.471 Z-0.325
G3 X-270.616 Y-59.146 Z-0.327 I0 J-3.413
G2 X-277.64 Y-50.454 Z-0.336 I-3.512 J4.346
X-270.616 Y-50.454 Z-0.339 I3.512 J-4.346
G3 X-268.471 Y-51.213 Z-0.341 I2.145 J2.654
G1 X-236.341 Z-0.357
X-236.236 Y-51.206
X-236.184 Y-51.195
X-236.133 Y-51.178
X-236.085 Y-51.154
X-236.041 Y-51.126
X-236.001 Y-51.09
X-235.965 Y-51.05
X-235.936 Y-51.006
X-235.911 Y-50.957
X-235.895 Y-50.909
X-235.884 Y-50.856 Z-0.358
X-235.88 Y-50.801
X-235.883 Y-50.749
X-235.893 Y-50.697
X-235.909 Y-50.648
X-235.958 Y-50.546
X-236.241 Y-50.037
X-236.255 Y-50.012
X-236.541 Y-49.474
X-236.557 Y-49.443
X-236.823 Y-48.915 Z-0.359
X-236.838 Y-48.883
X-237.085 Y-48.364
X-237.104 Y-48.323
X-237.329 Y-47.813
X-237.347 Y-47.771
X-237.551 Y-47.27 Z-0.36
X-237.57 Y-47.222
X-237.752 Y-46.731
X-237.772 Y-46.673
X-237.93 Y-46.19
X-237.948 Y-46.131
X-238.083 Y-45.657
X-238.101 Y-45.587
X-238.211 Y-45.121 Z-0.361
X-238.227 Y-45.046
X-238.312 Y-44.589
X-238.325 Y-44.506
X-238.384 Y-44.058
X-238.393 Y-43.969
X-238.426 Y-43.53 Z-0.362
X-238.43 Y-43.437
X-238.437 Y-43.007
X-238.436 Y-42.905
X-238.416 Y-42.485
X-238.408 Y-42.383
X-238.362 Y-41.973
X-238.346 Y-41.864
X-238.273 Y-41.465 Z-0.363
X-238.249 Y-41.357
X-238.15 Y-40.97
X-238.118 Y-40.861
X-237.993 Y-40.485
X-237.952 Y-40.376
X-237.801 Y-40.014
X-237.752 Y-39.907
X-237.576 Y-39.56 Z-0.364
X-237.52 Y-39.458
X-237.319 Y-39.127
X-237.254 Y-39.027
X-237.03 Y-38.711
X-236.957 Y-38.617
X-236.71 Y-38.32
X-236.632 Y-38.232
X-236.363 Y-37.953 Z-0.365
X-236.278 Y-37.871
X-235.988 Y-37.612
X-235.898 Y-37.537
X-235.587 Y-37.298
X-235.492 Y-37.23
X-235.161 Y-37.012
X-235.066 Y-36.954 Z-0.366
X-234.717 Y-36.758
X-234.617 Y-36.707
X-234.249 Y-36.533
X-234.151 Y-36.491
X-233.766 Y-36.339
X-233.668 Y-36.305
X-233.266 Y-36.177 Z-0.367
X-233.17 Y-36.149
X-232.751 Y-36.044
X-232.66 Y-36.024
X-232.226 Y-35.942
X-232.139 Y-35.928
X-231.689 Y-35.868
X-231.608 Y-35.86
X-231.143 Y-35.823 Z-0.368
X-231.067 Y-35.818
X-230.588 Y-35.803
X-230.517 Y-35.802
X-230.022 Y-35.809
X-229.959 Y-35.811
X-229.449 Y-35.837 Z-0.369
X-229.391 Y-35.841
X-228.868 Y-35.888
X-228.816 Y-35.893
X-228.277 Y-35.959
X-228.231 Y-35.966
X-227.678 Y-36.05
X-227.636 Y-36.057
X-227.069 Y-36.158 Z-0.37
X-227.032 Y-36.166
X-226.451 Y-36.284
X-226.42 Y-36.291
X-225.824 Y-36.426
X-225.795 Y-36.432
X-225.185 Y-36.582 Z-0.371
X-225.161 Y-36.588
X-224.536 Y-36.751
X-224.514 Y-36.757
X-223.875 Y-36.934
X-223.857 Y-36.939
X-223.204 Y-37.128 Z-0.372
X-223.19 Y-37.132
X-222.521 Y-37.333
X-222.509 Y-37.337
X-221.826 Y-37.548 Z-0.373
X-221.816 Y-37.551
X-221.118 Y-37.771
X-221.111 Y-37.773
X-220.398 Y-38.002
X-220.392 Y-38.004
X-219.664 Y-38.241 Z-0.374
X-219.661 Y-38.242
X-218.917 Y-38.485
X-218.915 Y-38.486
X-218.155 Y-38.736 Z-0.375
X-217.38 Y-38.991
X-216.591 Y-39.25
X-215.785 Y-39.513 Z-0.376
X-214.965 Y-39.78
X-214.129 Y-40.049 Z-0.377
X-213.277 Y-40.321
X-212.409 Y-40.596 Z-0.378
X-211.524 Y-40.873
G2 X-201.41 Y-52.831 Z-0.387 I-4.34 J-13.927
G1 X-201.316 Y-53.435
X-201.2 Y-54.01
X-201.062 Y-54.573
X-200.902 Y-55.124 Z-0.388
X-200.719 Y-55.667
X-200.515 Y-56.2
X-200.29 Y-56.725 Z-0.389
X-200.046 Y-57.242
X-199.782 Y-57.751
X-199.501 Y-58.253 Z-0.39
X-199.202 Y-58.748
X-198.887 Y-59.237
X-198.558 Y-59.718
X-198.217 Y-60.192 Z-0.391
X-197.863 Y-60.659
X-197.498 Y-61.118
X-197.125 Y-61.569 Z-0.392
X-196.744 Y-62.013
X-196.357 Y-62.448
X-195.965 Y-62.874 Z-0.393
X-195.57 Y-63.29
X-195.172 Y-63.697
X-194.773 Y-64.093
X-194.375 Y-64.479 Z-0.394
X-193.977 Y-64.853
X-193.582 Y-65.216
X-193.19 Y-65.566 Z-0.395
X-192.802 Y-65.904
X-192.419 Y-66.228
X-192.042 Y-66.538
X-191.671 Y-66.835 Z-0.396
X-191.3 Y-67.122
X-164.314 Y-87.686 Z-0.413
G3 X-163.652 Y-87.358 Z-0.414 I0.25 J0.328
G1 Y-54.8 Z-0.43
G3 X-190.545 Y-9.137 Z-0.459 I-52.212 J0
G2 X-188.805 Y-2.412 Z-0.464 I1.74 J3.137
G1 X-181.301 Z-0.468
G2 X-179.227 Y-3.072 Z-0.469 I0 J-3.588
X-164.399 Y-17.796 Z-0.48 I-36.637 J-51.727
G3 X-163.652 Y-17.555 I0.335 J0.241
G1 Y-9 Z-0.485
G2 X-157.064 Y-2.412 Z-0.49 I6.588 J0
G1 X-154.064 Z-0.491
G2 X-150.477 Y-6 Z-0.494 I0 J-3.588
G1 Y-32.412 Z-0.508
X-131.652 Z-0.518
Y-6 Z-0.531
G2 X-128.064 Y-2.412 Z-0.534 I3.588 J0
G1 X-125.064 Z-0.536
G2 X-118.477 Y-9 Z-0.541 I0 J-6.588
G1 Y-17.555 Z-0.545
G3 X-117.729 Y-17.796 Z-0.546 I0.413 J0
G2 X-102.901 Y-3.072 Z-0.557 I51.465 J-37.004
X-100.827 Y-2.412 Z-0.558 I2.074 J-2.928
G1 X-93.323 Z-0.562
G2 X-91.584 Y-9.137 Z-0.566 I0 J-3.588
G3 X-118.477 Y-54.8 Z-0.595 I25.319 J-45.662
G1 Y-87.358 Z-0.612
G3 X-117.814 Y-87.686 I0.412 J0
G1 X-90.828 Y-67.122 Z-0.63
X-90.458 Y-66.835
X-90.086 Y-66.539
X-89.709 Y-66.228
X-89.326 Y-65.904 Z-0.631
X-88.938 Y-65.566
X-88.546 Y-65.216
X-88.151 Y-64.853
X-87.754 Y-64.479 Z-0.632
X-87.355 Y-64.093
X-86.956 Y-63.697
X-86.558 Y-63.29
X-86.163 Y-62.873 Z-0.633
X-85.771 Y-62.448
X-85.384 Y-62.013
X-85.003 Y-61.57 Z-0.634
X-84.63 Y-61.118
X-84.266 Y-60.659
X-83.912 Y-60.192 Z-0.635
X-83.57 Y-59.718
X-83.241 Y-59.237
X-82.926 Y-58.748
X-82.628 Y-58.253 Z-0.636
X-82.346 Y-57.751
X-82.082 Y-57.242
X-81.838 Y-56.725 Z-0.637
X-81.613 Y-56.2
X-81.409 Y-55.667
X-81.226 Y-55.125 Z-0.638
X-81.066 Y-54.573
X-80.928 Y-54.01
X-80.813 Y-53.435
X-80.718 Y-52.831 Z-0.639
G2 X-70.605 Y-40.873 Z-0.647 I14.454 J-1.969
G1 X-69.719 Y-40.596 Z-0.648
X-68.851 Y-40.321
X-67.999 Y-40.049 Z-0.649
X-67.163 Y-39.78
X-66.343 Y-39.513 Z-0.65
X-65.538 Y-39.25
X-64.748 Y-38.991
X-63.973 Y-38.736 Z-0.651
X-63.213 Y-38.486
X-63.212 Y-38.485
X-62.468 Y-38.242 Z-0.652
X-62.464 Y-38.241
X-61.736 Y-38.004
X-61.73 Y-38.002
X-61.017 Y-37.773
X-61.01 Y-37.771
X-60.312 Y-37.551 Z-0.653
X-60.302 Y-37.548
X-59.619 Y-37.337
X-59.607 Y-37.333
X-58.938 Y-37.133 Z-0.654
X-58.924 Y-37.128
X-58.27 Y-36.939
X-58.252 Y-36.934
X-57.613 Y-36.757
X-57.592 Y-36.752
X-56.968 Y-36.588 Z-0.655
X-56.943 Y-36.582
X-56.333 Y-36.432
X-56.305 Y-36.426
X-55.709 Y-36.291
X-55.677 Y-36.284
X-55.095 Y-36.166 Z-0.656
X-55.058 Y-36.158
X-54.491 Y-36.057
X-54.45 Y-36.05
X-53.897 Y-35.966
X-53.851 Y-35.959
X-53.312 Y-35.893 Z-0.657
X-53.26 Y-35.888
X-52.736 Y-35.841
X-52.679 Y-35.837
X-52.169 Y-35.811
X-52.106 Y-35.809
X-51.611 Y-35.802
X-51.541 Y-35.803
X-51.061 Y-35.818 Z-0.658
X-50.985 Y-35.823
X-50.52 Y-35.86
X-50.439 Y-35.868
X-49.989 Y-35.928
X-49.902 Y-35.942
X-49.468 Y-36.024
X-49.376 Y-36.044 Z-0.659
X-48.958 Y-36.149
X-48.862 Y-36.177
X-48.46 Y-36.305
X-48.363 Y-36.339
X-47.978 Y-36.49
X-47.879 Y-36.533
X-47.511 Y-36.707 Z-0.66
X-47.412 Y-36.758
X-47.063 Y-36.954
X-46.966 Y-37.013
X-46.636 Y-37.231
X-46.542 Y-37.298
X-46.231 Y-37.537
X-46.141 Y-37.611
X-45.85 Y-37.871 Z-0.661
X-45.765 Y-37.953
X-45.496 Y-38.232
X-45.417 Y-38.32
X-45.17 Y-38.618
X-45.098 Y-38.712
X-44.874 Y-39.027
X-44.809 Y-39.126
X-44.609 Y-39.458 Z-0.662
X-44.551 Y-39.561
X-44.376 Y-39.908
X-44.327 Y-40.015
X-44.176 Y-40.377
X-44.135 Y-40.485
X-44.01 Y-40.86
X-43.978 Y-40.969
X-43.879 Y-41.357 Z-0.663
X-43.855 Y-41.465
X-43.783 Y-41.865
X-43.767 Y-41.972
X-43.721 Y-42.382
X-43.712 Y-42.486
X-43.693 Y-42.906
X-43.691 Y-43.006 Z-0.664
X-43.698 Y-43.436
X-43.702 Y-43.531
X-43.736 Y-43.97
X-43.745 Y-44.058
X-43.804 Y-44.507
X-43.817 Y-44.589
X-43.902 Y-45.046 Z-0.665
X-43.918 Y-45.121
X-44.027 Y-45.587
X-44.045 Y-45.655
X-44.18 Y-46.13
X-44.199 Y-46.191
X-44.357 Y-46.674
X-44.376 Y-46.729 Z-0.666
X-44.558 Y-47.221
X-44.577 Y-47.27
X-44.781 Y-47.771
X-44.799 Y-47.815
X-45.025 Y-48.324
X-45.043 Y-48.363
X-45.289 Y-48.882 Z-0.667
X-45.306 Y-48.916
X-45.572 Y-49.444
X-45.588 Y-49.474
X-45.873 Y-50.011
X-45.887 Y-50.037
X-46.17 Y-50.546 Z-0.668
X-46.218 Y-50.646
X-46.235 Y-50.697
X-46.245 Y-50.75
X-46.248 Y-50.803
X-46.244 Y-50.856
X-46.234 Y-50.908
X-46.216 Y-50.958
X-46.192 Y-51.006
X-46.163 Y-51.05
X-46.127 Y-51.09
X-46.087 Y-51.125
X-46.043 Y-51.155
X-45.995 Y-51.178
X-45.945 Y-51.195
X-45.893 Y-51.206
X-45.787 Y-51.213
X-13.657 Z-0.685
G3 X-11.512 Y-50.454 Z-0.686 I0 J3.413
G2 X-4.488 Y-59.146 Z-0.695 I3.512 J-4.346
X-11.512 Y-59.146 Z-0.699 I-3.512 J4.346
G3 X-13.657 Y-58.388 Z-0.7 I-2.145 J-2.654
G1 X-49.324 Z-0.718
X-49.56 Y-58.395
X-49.77 Y-58.414 Z-0.719
X-49.979 Y-58.447
X-50.185 Y-58.492
X-50.388 Y-58.55
X-50.588 Y-58.621
X-50.782 Y-58.704
X-50.97 Y-58.798
X-51.153 Y-58.904
X-51.329 Y-59.022
X-51.497 Y-59.15
X-51.657 Y-59.287 Z-0.72
X-51.807 Y-59.434
X-51.949 Y-59.591
X-52.08 Y-59.755
X-52.215 Y-59.948
X-52.64 Y-60.597
X-53.084 Y-61.279 Z-0.721
X-53.533 Y-61.973
X-53.988 Y-62.68 Z-0.722
G2 X-68.2 Y-69.258 Z-0.73 I-12.276 J7.88
G1 X-68.807 Y-69.189 Z-0.731
X-69.392 Y-69.148
X-69.971 Y-69.132
X-70.546 Y-69.14
X-71.117 Y-69.172 Z-0.732
X-71.685 Y-69.228
X-72.251 Y-69.305
X-72.814 Y-69.404 Z-0.733
X-73.375 Y-69.523
X-73.934 Y-69.661
X-74.491 Y-69.818
X-75.045 Y-69.992 Z-0.734
X-75.596 Y-70.181
X-76.144 Y-70.385
X-76.688 Y-70.603 Z-0.735
X-77.228 Y-70.832
X-77.762 Y-71.072
X-78.29 Y-71.322 Z-0.736
X-78.812 Y-71.58
X-79.327 Y-71.844
X-79.833 Y-72.115
X-80.331 Y-72.391 Z-0.737
X-80.819 Y-72.67
X-81.296 Y-72.952
X-81.763 Y-73.236 Z-0.738
X-82.217 Y-73.521
X-82.659 Y-73.806
X-83.088 Y-74.09
X-83.502 Y-74.373 Z-0.739
X-83.901 Y-74.655
X-84.286 Y-74.934
X-84.661 Y-75.215
X-114.844 Y-98.216 Z-0.759
X-115.237 Y-98.531
X-115.583 Y-98.838
X-115.9 Y-99.151 Z-0.76
X-116.189 Y-99.47
X-116.452 Y-99.794
X-116.689 Y-100.123
X-116.905 Y-100.462
X-117.102 Y-100.809 Z-0.761
X-117.28 Y-101.164
X-117.44 Y-101.531
X-117.585 Y-101.908
X-117.714 Y-102.294 Z-0.762
X-117.829 Y-102.692
X-117.932 Y-103.103
X-118.022 Y-103.522
X-118.1 Y-103.951
X-118.168 Y-104.389 Z-0.763
X-118.226 Y-104.832
X-118.319 Y-105.764
X-118.383 Y-106.716 Z-0.764
X-118.424 Y-107.695
X-118.451 Y-108.696 Z-0.765
X-118.467 Y-109.716
X-118.475 Y-110.752 Z-0.766
X-118.476 Y-111.8
X-118.475 Y-112.848 Z-0.767
X-118.467 Y-113.884 Z-0.768
X-118.451 Y-114.904
X-118.424 Y-115.905 Z-0.769
X-118.383 Y-116.884
X-118.319 Y-117.836 Z-0.77
X-118.226 Y-118.768
X-118.168 Y-119.211
X-118.1 Y-119.649
X-118.022 Y-120.078 Z-0.771
X-117.932 Y-120.497
X-117.829 Y-120.908
X-117.714 Y-121.306
X-117.585 Y-121.692 Z-0.772
X-117.44 Y-122.069
X-117.28 Y-122.436
X-117.103 Y-122.79
X-116.905 Y-123.138
X-116.689 Y-123.477 Z-0.773
X-116.452 Y-123.806
X-116.189 Y-124.13
X-115.9 Y-124.448
X-115.583 Y-124.761
X-115.237 Y-125.069 Z-0.774
X-114.844 Y-125.384
X-84.661 Y-148.385 Z-0.793
X-84.286 Y-148.665 Z-0.794
X-83.901 Y-148.945
X-83.502 Y-149.227
X-83.087 Y-149.51
X-82.659 Y-149.795 Z-0.795
X-82.217 Y-150.079
X-81.764 Y-150.364
X-81.297 Y-150.647 Z-0.796
X-80.818 Y-150.93
X-80.331 Y-151.21
X-79.834 Y-151.484
X-79.327 Y-151.755 Z-0.797
X-78.812 Y-152.021
X-78.29 Y-152.279
X-77.762 Y-152.528 Z-0.798
X-77.228 Y-152.768
X-76.689 Y-152.997
X-76.144 Y-153.215
X-75.596 Y-153.419 Z-0.799
X-75.045 Y-153.609
X-74.491 Y-153.782
X-73.935 Y-153.939 Z-0.8
X-73.376 Y-154.077
X-72.813 Y-154.196
X-72.252 Y-154.295 Z-0.801
X-71.686 Y-154.372
X-71.117 Y-154.428
X-70.547 Y-154.46
X-69.972 Y-154.468 Z-0.802
X-69.392 Y-154.452
X-68.807 Y-154.411
X-68.2 Y-154.342 Z-0.803
G2 X-53.988 Y-160.92 Z-0.811 I1.936 J-14.459
G1 X-53.533 Y-161.627 Z-0.812
X-53.084 Y-162.321
X-52.64 Y-163.003
X-52.215 Y-163.652 Z-0.813
X-52.08 Y-163.844
X-51.948 Y-164.01
X-51.807 Y-164.166
X-51.657 Y-164.312
X-51.497 Y-164.45
X-51.328 Y-164.579
X-51.154 Y-164.695 Z-0.814
X-50.97 Y-164.802
X-50.781 Y-164.897
X-50.589 Y-164.979
X-50.388 Y-165.05
X-50.184 Y-165.108
X-49.979 Y-165.153
X-49.771 Y-165.186
X-49.561 Y-165.205
X-49.323 Y-165.212 Z-0.815
X-13.657 Z-0.833
G3 X-11.512 Y-164.454 Z-0.834 I0 J3.413
G2 X-4.488 Y-173.146 Z-0.843 I3.512 J-4.346
X-11.512 Y-173.146 Z-0.847 I-3.512 J4.346
G3 X-13.657 Y-172.387 Z-0.848 I-2.145 J-2.654
G1 X-45.787 Z-0.865
X-45.891 Y-172.394
X-45.944 Y-172.405
X-45.996 Y-172.422
X-46.043 Y-172.445
X-46.088 Y-172.475
X-46.128 Y-172.511
X-46.163 Y-172.549
X-46.192 Y-172.594
X-46.216 Y-172.641
X-46.234 Y-172.692
X-46.244 Y-172.744
X-46.248 Y-172.797
X-46.245 Y-172.85
X-46.235 Y-172.903
X-46.218 Y-172.954
X-46.17 Y-173.054
X-45.888 Y-173.562 Z-0.866
X-45.873 Y-173.588
X-45.587 Y-174.126
X-45.572 Y-174.155
X-45.306 Y-174.683
X-45.289 Y-174.718
X-45.042 Y-175.237
X-45.025 Y-175.276
X-44.799 Y-175.786 Z-0.867
X-44.781 Y-175.828
X-44.577 Y-176.328
X-44.558 Y-176.379
X-44.376 Y-176.871
X-44.357 Y-176.925
X-44.199 Y-177.408 Z-0.868
X-44.18 Y-177.47
X-44.045 Y-177.945
X-44.027 Y-178.014
X-43.917 Y-178.48
X-43.902 Y-178.554
X-43.817 Y-179.011 Z-0.869
X-43.804 Y-179.093
X-43.745 Y-179.542
X-43.736 Y-179.63
X-43.702 Y-180.069
X-43.698 Y-180.164
X-43.691 Y-180.594
X-43.693 Y-180.693
X-43.712 Y-181.114 Z-0.87
X-43.721 Y-181.218
X-43.767 Y-181.628
X-43.783 Y-181.734
X-43.855 Y-182.134
X-43.879 Y-182.243
X-43.978 Y-182.631
X-44.01 Y-182.74
X-44.136 Y-183.115 Z-0.871
X-44.176 Y-183.223
X-44.327 Y-183.585
X-44.376 Y-183.692
X-44.552 Y-184.039
X-44.608 Y-184.141
X-44.808 Y-184.473
X-44.874 Y-184.574
X-45.098 Y-184.889 Z-0.872
X-45.171 Y-184.984
X-45.418 Y-185.281
X-45.496 Y-185.368
X-45.765 Y-185.647
X-45.849 Y-185.728
X-46.139 Y-185.988
X-46.231 Y-186.064 Z-0.873
X-46.542 Y-186.303
X-46.635 Y-186.369
X-46.966 Y-186.587
X-47.063 Y-186.647
X-47.413 Y-186.843
X-47.51 Y-186.893
X-47.878 Y-187.067 Z-0.874
X-47.978 Y-187.11
X-48.363 Y-187.261
X-48.461 Y-187.296
X-48.863 Y-187.424
X-48.958 Y-187.451
X-49.376 Y-187.556
X-49.468 Y-187.576
X-49.903 Y-187.658 Z-0.875
X-49.987 Y-187.672
X-50.437 Y-187.732
X-50.521 Y-187.74
X-50.986 Y-187.777
X-51.062 Y-187.782
X-51.542 Y-187.797
X-51.611
X-52.106 Y-187.791 Z-0.876
X-52.17 Y-187.789
X-52.68 Y-187.762
X-52.735 Y-187.758
X-53.258 Y-187.712
X-53.313 Y-187.707
X-53.851 Y-187.641 Z-0.877
X-53.896 Y-187.634
X-54.449 Y-187.55
X-54.492 Y-187.543
X-55.059 Y-187.441
X-55.096 Y-187.434
X-55.678 Y-187.315 Z-0.878
X-55.708 Y-187.309
X-56.303 Y-187.175
X-56.334 Y-187.168
X-56.944 Y-187.018
X-56.966 Y-187.012
X-57.591 Y-186.849 Z-0.879
X-57.614 Y-186.843
X-58.253 Y-186.666
X-58.27 Y-186.661
X-58.923 Y-186.472
X-58.94 Y-186.467
X-59.608 Y-186.266 Z-0.88
X-59.617 Y-186.263
X-60.3 Y-186.053
X-60.313 Y-186.049
X-61.011 Y-185.828
X-61.017 Y-185.826
X-61.73 Y-185.597 Z-0.881
X-61.734 Y-185.596
X-62.463 Y-185.36
X-62.468 Y-185.358
X-63.212 Y-185.114 Z-0.882
X-63.214
X-63.973 Y-184.864
X-64.748 Y-184.609
X-65.537 Y-184.35 Z-0.883
X-66.342 Y-184.087
X-67.164 Y-183.82 Z-0.884
X-67.999 Y-183.551
X-68.851 Y-183.279 Z-0.885
X-69.72 Y-183.004
X-70.606 Y-182.726 Z-0.886
G2 X-80.718 Y-170.77 Z-0.894 I4.341 J13.926
G1 X-80.813 Y-170.165
X-80.928 Y-169.59 Z-0.895
X-81.066 Y-169.027
X-81.226 Y-168.475
X-81.409 Y-167.933 Z-0.896
X-81.613 Y-167.4
X-81.838 Y-166.875
X-82.082 Y-166.359
X-82.346 Y-165.849 Z-0.897
X-82.628 Y-165.346
X-82.926 Y-164.852
X-83.241 Y-164.364 Z-0.898
X-83.57 Y-163.882
X-83.912 Y-163.408
X-84.266 Y-162.941 Z-0.899
X-84.63 Y-162.482
X-85.003 Y-162.03
X-85.384 Y-161.587
X-85.771 Y-161.152 Z-0.9
X-86.163 Y-160.726
X-86.558 Y-160.31
X-86.956 Y-159.903 Z-0.901
X-87.355 Y-159.507
X-87.753 Y-159.121
X-88.151 Y-158.747 Z-0.902
X-88.546 Y-158.385
X-88.938 Y-158.033
X-89.325 Y-157.697
X-89.709 Y-157.372 Z-0.903
X-90.087 Y-157.061
X-90.457 Y-156.765
X-90.828 Y-156.478
X-117.814 Y-135.914 Z-0.921
G3 X-118.477 Y-136.242 I-0.25 J-0.328
G1 Y-168.8 Z-0.938
G3 X-91.584 Y-214.463 Z-0.966 I52.212 J0
G2 X-93.323 Y-221.188 Z-0.971 I-1.74 J-3.137
G1 X-100.827 Z-0.975
G2 X-102.901 Y-220.527 Z-0.976 I0 J3.587
X-117.729 Y-205.805 Z-0.987 I36.636 J51.728
G3 X-118.477 Y-206.045 Z-0.988 I-0.335 J-0.24
G1 Y-214.6 Z-0.992
G2 X-125.064 Y-221.188 Z-0.997 I-6.588 J0
G1 X-130.107 Z-1
X-130.185 Y-221.187
S6000
G2 X-133.69 Y-217.768 I0.078 J3.587 F1000
G1 X-133.764 Y-216.505
X-133.871 Y-215.288
X-134.011 Y-214.115
X-134.178 Y-212.992
X-134.369 Y-211.926
X-134.583 Y-210.917
X-134.816 Y-209.964
X-135.065 Y-209.068
X-135.329 Y-208.227
X-135.604 Y-207.441
X-135.89 Y-206.709
X-136.186 Y-206.027
X-136.488 Y-205.396
X-136.796 Y-204.815
X-137.108 Y-204.282
X-137.422 Y-203.797
X-137.737 Y-203.359
X-138.052 Y-202.966
X-138.366 Y-202.616
X-138.674 Y-202.311
X-138.976 Y-202.048
X-139.272 Y-201.825
X-139.56 Y-201.639
X-139.838 Y-201.49
X-140.106 Y-201.374
X-140.365 Y-201.288
X-140.616 Y-201.23
X-140.861 Y-201.198
X-141.105 Y-201.19
X-141.349 Y-201.206
X-141.595 Y-201.246
X-141.848 Y-201.314
X-142.109 Y-201.408
X-142.378 Y-201.534
X-142.66 Y-201.695
X-142.948 Y-201.891
X-143.244 Y-202.124
X-143.547 Y-202.398
X-143.853 Y-202.713
X-144.165 Y-203.073
X-144.477 Y-203.474
X-144.789 Y-203.92
X-145.099 Y-204.412
X-145.406 Y-204.948
X-145.708 Y-205.532
X-146.004 Y-206.164
X-146.293 Y-206.843
X-146.572 Y-207.57
X-146.84 Y-208.349
X-147.096 Y-209.179
X-147.338 Y-210.061
X-147.563 Y-210.996
X-147.77 Y-211.983
X-147.956 Y-213.025
X-148.118 Y-214.12
X-148.254 Y-215.265
X-148.361 Y-216.456
X-148.434 Y-217.694
X-148.437 Y-217.752
Y-217.754
G2 X-152.021 Y-221.188 I-3.584 J0.154
G1 X-157.064
G2 X-163.652 Y-214.6 I0 J6.587
G1 Y-206.045
G3 X-164.399 Y-205.804 I-0.412 J0
G2 X-179.227 Y-220.527 I-51.465 J37.005
X-181.301 Y-221.188 I-2.074 J2.927
G1 X-188.805
G2 X-190.545 Y-214.463 I0 J3.587
G3 X-163.652 Y-168.8 I-25.319 J45.663
G1 Y-136.242
G3 X-164.314 Y-135.914 I-0.413 J0
G1 X-191.3 Y-156.478
X-191.671 Y-156.765
X-192.042 Y-157.061
X-192.419 Y-157.372
X-192.802 Y-157.697
X-193.19 Y-158.034
X-193.582 Y-158.385
X-193.977 Y-158.747
X-194.375 Y-159.122
X-194.773 Y-159.507
X-195.172 Y-159.903
X-195.57 Y-160.31
X-195.965 Y-160.726
X-196.357 Y-161.152
X-196.744 Y-161.587
X-197.125 Y-162.03
X-197.498 Y-162.482
X-197.863 Y-162.941
X-198.217 Y-163.408
X-198.558 Y-163.882
X-198.887 Y-164.363
X-199.202 Y-164.853
X-199.501 Y-165.347
X-199.782 Y-165.849
X-200.046 Y-166.359
X-200.29 Y-166.875
X-200.515 Y-167.4
X-200.719 Y-167.933
X-200.902 Y-168.476
X-201.062 Y-169.026
X-201.2 Y-169.591
X-201.316 Y-170.165
X-201.41 Y-170.769
G2 X-211.523 Y-182.726 I-14.454 J1.969
G1 X-212.409 Y-183.004
X-213.277 Y-183.279
X-214.129 Y-183.551
X-214.965 Y-183.82
X-215.785 Y-184.087
X-216.591 Y-184.35
X-217.38 Y-184.609
X-218.155 Y-184.864
X-218.915 Y-185.114
X-218.916
X-219.66 Y-185.358
X-219.665 Y-185.36
X-220.393 Y-185.596
X-220.398 Y-185.597
X-221.111 Y-185.826
X-221.117 Y-185.828
X-221.815 Y-186.049
X-221.827 Y-186.053
X-222.51 Y-186.263
X-222.52 Y-186.266
X-223.189 Y-186.467
X-223.205 Y-186.472
X-223.858 Y-186.661
X-223.875 Y-186.666
X-224.514 Y-186.843
X-224.537 Y-186.849
X-225.162 Y-187.012
X-225.184 Y-187.018
X-225.794 Y-187.168
X-225.825 Y-187.175
X-226.421 Y-187.309
X-226.45 Y-187.315
X-227.031 Y-187.434
X-227.069 Y-187.441
X-227.636 Y-187.543
X-227.679 Y-187.55
X-228.232 Y-187.634
X-228.277 Y-187.641
X-228.816 Y-187.707
X-228.87 Y-187.712
X-229.393 Y-187.758
X-229.448 Y-187.762
X-229.958 Y-187.789
X-230.023 Y-187.791
X-230.518 Y-187.797
X-230.587
X-231.066 Y-187.782
X-231.142 Y-187.777
X-231.607 Y-187.74
X-231.691 Y-187.732
X-232.141 Y-187.672
X-232.226 Y-187.658
X-232.66 Y-187.576
X-232.751 Y-187.556
X-233.17 Y-187.451
X-233.266 Y-187.424
X-233.668 Y-187.296
X-233.766 Y-187.261
X-234.151 Y-187.11
X-234.25 Y-187.067
X-234.618 Y-186.893
X-234.716 Y-186.842
X-235.065 Y-186.646
X-235.161 Y-186.588
X-235.492 Y-186.37
X-235.586 Y-186.303
X-235.897 Y-186.064
X-235.99 Y-185.987
X-236.28 Y-185.727
X-236.363 Y-185.647
X-236.632 Y-185.368
X-236.71 Y-185.281
X-236.957 Y-184.984
X-237.03 Y-184.889
X-237.254 Y-184.574
X-237.32 Y-184.473
X-237.52 Y-184.141
X-237.576 Y-184.04
X-237.752 Y-183.693
X-237.801 Y-183.586
X-237.952 Y-183.224
X-237.993 Y-183.115
X-238.118 Y-182.74
X-238.15 Y-182.63
X-238.249 Y-182.242
X-238.273 Y-182.135
X-238.346 Y-181.735
X-238.362 Y-181.627
X-238.408 Y-181.217
X-238.416 Y-181.115
X-238.436 Y-180.694
X-238.437 Y-180.593
X-238.43 Y-180.163
X-238.426 Y-180.07
X-238.393 Y-179.631
X-238.384 Y-179.543
X-238.325 Y-179.094
X-238.312 Y-179.011
X-238.227 Y-178.554
X-238.211 Y-178.479
X-238.101 Y-178.013
X-238.083 Y-177.944
X-237.948 Y-177.469
X-237.93 Y-177.409
X-237.772 Y-176.926
X-237.752 Y-176.869
X-237.57 Y-176.377
X-237.551 Y-176.328
X-237.347 Y-175.828
X-237.329 Y-175.787
X-237.104 Y-175.277
X-237.085 Y-175.236
X-236.838 Y-174.717
X-236.823 Y-174.685
X-236.557 Y-174.157
X-236.541 Y-174.126
X-236.255 Y-173.588
X-236.241 Y-173.562
X-235.958 Y-173.053
X-235.909 Y-172.953
X-235.893 Y-172.903
X-235.883 Y-172.851
X-235.88 Y-172.798
X-235.884 Y-172.744
X-235.895 Y-172.691
X-235.911 Y-172.642
X-235.936 Y-172.594
X-235.965 Y-172.55
X-236 Y-172.51
X-236.041 Y-172.475
X-236.085 Y-172.445
X-236.133 Y-172.422
X-236.184 Y-172.405
X-236.237 Y-172.394
X-236.341 Y-172.387
X-268.471
G3 X-270.616 Y-173.146 I0 J-3.413
G2 X-277.64 Y-164.454 I-3.512 J4.346
X-270.616 Y-164.454 I3.512 J-4.346
G3 X-268.471 Y-165.212 I2.145 J2.654
G1 X-232.805
X-232.568 Y-165.205
X-232.357 Y-165.186
X-232.149 Y-165.153
X-231.944 Y-165.108
X-231.741 Y-165.05
X-231.539 Y-164.978
X-231.347 Y-164.897
X-231.158 Y-164.802
X-230.975 Y-164.696
X-230.801 Y-164.58
X-230.63 Y-164.449
X-230.471 Y-164.313
X-230.322 Y-164.166
X-230.18 Y-164.01
X-230.049 Y-163.845
X-229.913 Y-163.652
X-229.489 Y-163.003
X-229.045 Y-162.321
X-228.596 Y-161.627
X-228.14 Y-160.92
G2 X-213.928 Y-154.342 I12.276 J-7.881
G1 X-213.321 Y-154.411
X-212.736 Y-154.452
X-212.156 Y-154.468
X-211.582 Y-154.46
X-211.011 Y-154.428
X-210.442 Y-154.372
X-209.876 Y-154.295
X-209.315 Y-154.196
X-208.752 Y-154.077
X-208.193 Y-153.939
X-207.638 Y-153.782
X-207.083 Y-153.609
X-206.532 Y-153.419
X-205.984 Y-153.215
X-205.44 Y-152.997
X-204.9 Y-152.768
X-204.367 Y-152.528
X-203.838 Y-152.279
X-203.317 Y-152.021
X-202.802 Y-151.755
X-202.294 Y-151.484
X-201.797 Y-151.21
X-201.31 Y-150.93
X-200.831 Y-150.647
X-200.365 Y-150.364
X-199.911 Y-150.079
X-199.47 Y-149.795
X-199.041 Y-149.509
X-198.626 Y-149.226
X-198.227 Y-148.945
X-197.842 Y-148.666
X-197.468 Y-148.385
X-167.284 Y-125.384
X-166.891 Y-125.069
X-166.545 Y-124.761
X-166.228 Y-124.448
X-165.94 Y-124.131
X-165.677 Y-123.806
X-165.438 Y-123.476
X-165.223 Y-123.138
X-165.025 Y-122.79
X-164.848 Y-122.436
X-164.688 Y-122.069
X-164.543 Y-121.692
X-164.414 Y-121.306
X-164.299 Y-120.908
X-164.196 Y-120.497
X-164.106 Y-120.079
X-164.028 Y-119.649
X-163.96 Y-119.209
X-163.902 Y-118.768
X-163.809 Y-117.837
X-163.746 Y-116.884
X-163.704 Y-115.905
X-163.677 Y-114.904
X-163.661 Y-113.884
X-163.653 Y-112.848
X-163.652 Y-111.8
X-163.653 Y-110.752
X-163.661 Y-109.716
X-163.677 Y-108.696
X-163.704 Y-107.695
X-163.746 Y-106.716
X-163.809 Y-105.763
X-163.902 Y-104.832
X-163.96 Y-104.391
X-164.028 Y-103.951
X-164.106 Y-103.521
X-164.196 Y-103.103
X-164.299 Y-102.692
X-164.414 Y-102.294
X-164.543 Y-101.908
X-164.688 Y-101.531
X-164.848 Y-101.164
X-165.026 Y-100.809
X-165.223 Y-100.462
X-165.438 Y-100.124
X-165.677 Y-99.794
X-165.94 Y-99.469
X-166.228 Y-99.151
X-166.545 Y-98.838
X-166.891 Y-98.531
X-167.284 Y-98.216
X-197.467 Y-75.215
X-197.842 Y-74.934
X-198.227 Y-74.655
X-198.626 Y-74.374
X-199.04 Y-74.091
X-199.47 Y-73.806
X-199.911 Y-73.521
X-200.365 Y-73.236
X-200.832 Y-72.952
X-201.309 Y-72.67
X-201.797 Y-72.391
X-202.295 Y-72.115
X-202.802 Y-71.844
X-203.316 Y-71.579
X-203.838 Y-71.322
X-204.367 Y-71.072
X-204.9 Y-70.832
X-205.44 Y-70.603
X-205.984 Y-70.385
X-206.532 Y-70.181
X-207.083 Y-69.992
X-207.638 Y-69.818
X-208.194 Y-69.661
X-208.753 Y-69.523
X-209.314 Y-69.404
X-209.877 Y-69.305
X-210.443 Y-69.228
X-211.011 Y-69.172
X-211.582 Y-69.14
X-212.156 Y-69.132
X-212.736 Y-69.148
X-213.321 Y-69.189
X-213.928 Y-69.258
G2 X-228.14 Y-62.68 I-1.936 J14.459
G1 X-228.596 Y-61.973
X-229.045 Y-61.279
X-229.488 Y-60.597
X-229.913 Y-59.948
X-230.049 Y-59.755
X-230.179 Y-59.591
X-230.321 Y-59.434
X-230.472 Y-59.286
X-230.63 Y-59.15
X-230.8 Y-59.022
X-230.976 Y-58.904
X-231.158 Y-58.798
X-231.346 Y-58.704
X-231.54 Y-58.621
X-231.74 Y-58.55
X-231.943 Y-58.492
X-232.149 Y-58.447
X-232.358 Y-58.414
X-232.568 Y-58.395
X-232.804 Y-58.388
X-268.471
G3 X-270.616 Y-59.146 I0 J-3.413
G2 X-277.64 Y-50.454 I-3.512 J4.346
X-270.616 Y-50.454 I3.512 J-4.346
G3 X-268.471 Y-51.213 I2.145 J2.654
G1 X-236.341
X-236.236 Y-51.206
X-236.184 Y-51.195
X-236.133 Y-51.178
X-236.085 Y-51.154
X-236.041 Y-51.126
X-236.001 Y-51.09
X-235.965 Y-51.05
X-235.936 Y-51.006
X-235.911 Y-50.957
X-235.895 Y-50.909
X-235.884 Y-50.856
X-235.88 Y-50.801
X-235.883 Y-50.749
X-235.893 Y-50.697
X-235.909 Y-50.648
X-235.958 Y-50.546
X-236.241 Y-50.037
X-236.255 Y-50.012
X-236.541 Y-49.474
X-236.557 Y-49.443
X-236.823 Y-48.915
X-236.838 Y-48.883
X-237.085 Y-48.364
X-237.104 Y-48.323
X-237.329 Y-47.813
X-237.347 Y-47.771
X-237.551 Y-47.27
X-237.57 Y-47.222
X-237.752 Y-46.731
X-237.772 Y-46.673
X-237.93 Y-46.19
X-237.948 Y-46.131
X-238.083 Y-45.657
X-238.101 Y-45.587
X-238.211 Y-45.121
X-238.227 Y-45.046
X-238.312 Y-44.589
X-238.325 Y-44.506
X-238.384 Y-44.058
X-238.393 Y-43.969
X-238.426 Y-43.53
X-238.43 Y-43.437
X-238.437 Y-43.007
X-238.436 Y-42.905
X-238.416 Y-42.485
X-238.408 Y-42.383
X-238.362 Y-41.973
X-238.346 Y-41.864
X-238.273 Y-41.465
X-238.249 Y-41.357
X-238.15 Y-40.97
X-238.118 Y-40.861
X-237.993 Y-40.485
X-237.952 Y-40.376
X-237.801 Y-40.014
X-237.752 Y-39.907
X-237.576 Y-39.56
X-237.52 Y-39.458
X-237.319 Y-39.127
X-237.254 Y-39.027
X-237.03 Y-38.711
X-236.957 Y-38.617
X-236.71 Y-38.32
X-236.632 Y-38.232
X-236.363 Y-37.953
X-236.278 Y-37.871
X-235.988 Y-37.612
X-235.898 Y-37.537
X-235.587 Y-37.298
X-235.492 Y-37.23
X-235.161 Y-37.012
X-235.066 Y-36.954
X-234.717 Y-36.758
X-234.617 Y-36.707
X-234.249 Y-36.533
X-234.151 Y-36.491
X-233.766 Y-36.339
X-233.668 Y-36.305
X-233.266 Y-36.177
X-233.17 Y-36.149
X-232.751 Y-36.044
X-232.66 Y-36.024
X-232.226 Y-35.942
X-232.139 Y-35.928
X-231.689 Y-35.868
X-231.608 Y-35.86
X-231.143 Y-35.823
X-231.067 Y-35.818
X-230.588 Y-35.803
X-230.517 Y-35.802
X-230.022 Y-35.809
X-229.959 Y-35.811
X-229.449 Y-35.837
X-229.391 Y-35.841
X-228.868 Y-35.888
X-228.816 Y-35.893
X-228.277 Y-35.959
X-228.231 Y-35.966
X-227.678 Y-36.05
X-227.636 Y-36.057
X-227.069 Y-36.158
X-227.032 Y-36.166
X-226.451 Y-36.284
X-226.42 Y-36.291
X-225.824 Y-36.426
X-225.795 Y-36.432
X-225.185 Y-36.582
X-225.161 Y-36.588
X-224.536 Y-36.751
X-224.514 Y-36.757
X-223.875 Y-36.934
X-223.857 Y-36.939
X-223.204 Y-37.128
X-223.19 Y-37.132
X-222.521 Y-37.333
X-222.509 Y-37.337
X-221.826 Y-37.548
X-221.816 Y-37.551
X-221.118 Y-37.771
X-221.111 Y-37.773
X-220.398 Y-38.002
X-220.392 Y-38.004
X-219.664 Y-38.241
X-219.661 Y-38.242
X-218.917 Y-38.485
X-218.915 Y-38.486
X-218.155 Y-38.736
X-217.38 Y-38.991
X-216.591 Y-39.25
X-215.785 Y-39.513
X-214.965 Y-39.78
X-214.129 Y-40.049
X-213.277 Y-40.321
X-212.409 Y-40.596
X-211.524 Y-40.873
G2 X-201.41 Y-52.831 I-4.34 J-13.927
G1 X-201.316 Y-53.435
X-201.2 Y-54.01
X-201.062 Y-54.573
X-200.902 Y-55.124
X-200.719 Y-55.667
X-200.515 Y-56.2
X-200.29 Y-56.725
X-200.046 Y-57.242
X-199.782 Y-57.751
X-199.501 Y-58.253
X-199.202 Y-58.748
X-198.887 Y-59.237
X-198.558 Y-59.718
X-198.217 Y-60.192
X-197.863 Y-60.659
X-197.498 Y-61.118
X-197.125 Y-61.569
X-196.744 Y-62.013
X-196.357 Y-62.448
X-195.965 Y-62.874
X-195.57 Y-63.29
X-195.172 Y-63.697
X-194.773 Y-64.093
X-194.375 Y-64.479
X-193.977 Y-64.853
X-193.582 Y-65.216
X-193.19 Y-65.566
X-192.802 Y-65.904
X-192.419 Y-66.228
X-192.042 Y-66.538
X-191.671 Y-66.835
X-191.3 Y-67.122
X-164.314 Y-87.686
G3 X-163.652 Y-87.358 I0.25 J0.328
G1 Y-54.8
G3 X-190.545 Y-9.137 I-52.212 J0
G2 X-188.805 Y-2.412 I1.74 J3.137
G1 X-181.301
G2 X-179.227 Y-3.072 I0 J-3.588
X-164.399 Y-17.796 I-36.637 J-51.727
G3 X-163.652 Y-17.555 I0.335 J0.241
G1 Y-9
G2 X-157.064 Y-2.412 I6.588 J0
G1 X-154.064
G2 X-150.477 Y-6 I0 J-3.588
G1 Y-32.412
X-131.652
Y-6
G2 X-128.064 Y-2.412 I3.588 J0
G1 X-125.064
G2 X-118.477 Y-9 I0 J-6.588
G1 Y-17.555
G3 X-117.729 Y-17.796 I0.413 J0
G2 X-102.901 Y-3.072 I51.465 J-37.004
X-100.827 Y-2.412 I2.074 J-2.928
G1 X-93.323
G2 X-91.584 Y-9.137 I0 J-3.588
G3 X-118.477 Y-54.8 I25.319 J-45.662
G1 Y-87.358
G3 X-117.814 Y-87.686 I0.412 J0
G1 X-90.828 Y-67.122
X-90.458 Y-66.835
X-90.086 Y-66.539
X-89.709 Y-66.228
X-89.326 Y-65.904
X-88.938 Y-65.566
X-88.546 Y-65.216
X-88.151 Y-64.853
X-87.754 Y-64.479
X-87.355 Y-64.093
X-86.956 Y-63.697
X-86.558 Y-63.29
X-86.163 Y-62.873
X-85.771 Y-62.448
X-85.384 Y-62.013
X-85.003 Y-61.57
X-84.63 Y-61.118
X-84.266 Y-60.659
X-83.912 Y-60.192
X-83.57 Y-59.718
X-83.241 Y-59.237
X-82.926 Y-58.748
X-82.628 Y-58.253
X-82.346 Y-57.751
X-82.082 Y-57.242
X-81.838 Y-56.725
X-81.613 Y-56.2
X-81.409 Y-55.667
X-81.226 Y-55.125
X-81.066 Y-54.573
X-80.928 Y-54.01
X-80.813 Y-53.435
X-80.718 Y-52.831
G2 X-70.605 Y-40.873 I14.454 J-1.969
G1 X-69.719 Y-40.596
X-68.851 Y-40.321
X-67.999 Y-40.049
X-67.163 Y-39.78
X-66.343 Y-39.513
X-65.538 Y-39.25
X-64.748 Y-38.991
X-63.973 Y-38.736
X-63.213 Y-38.486
X-63.212 Y-38.485
X-62.468 Y-38.242
X-62.464 Y-38.241
X-61.736 Y-38.004
X-61.73 Y-38.002
X-61.017 Y-37.773
X-61.01 Y-37.771
X-60.312 Y-37.551
X-60.302 Y-37.548
X-59.619 Y-37.337
X-59.607 Y-37.333
X-58.938 Y-37.133
X-58.924 Y-37.128
X-58.27 Y-36.939
X-58.252 Y-36.934
X-57.613 Y-36.757
X-57.592 Y-36.752
X-56.968 Y-36.588
X-56.943 Y-36.582
X-56.333 Y-36.432
X-56.305 Y-36.426
X-55.709 Y-36.291
X-55.677 Y-36.284
X-55.095 Y-36.166
X-55.058 Y-36.158
X-54.491 Y-36.057
X-54.45 Y-36.05
X-53.897 Y-35.966
X-53.851 Y-35.959
X-53.312 Y-35.893
X-53.26 Y-35.888
X-52.736 Y-35.841
X-52.679 Y-35.837
X-52.169 Y-35.811
X-52.106 Y-35.809
X-51.611 Y-35.802
X-51.541 Y-35.803
X-51.061 Y-35.818
X-50.985 Y-35.823
X-50.52 Y-35.86
X-50.439 Y-35.868
X-49.989 Y-35.928
X-49.902 Y-35.942
X-49.468 Y-36.024
X-49.376 Y-36.044
X-48.958 Y-36.149
X-48.862 Y-36.177
X-48.46 Y-36.305
X-48.363 Y-36.339
X-47.978 Y-36.49
X-47.879 Y-36.533
X-47.511 Y-36.707
X-47.412 Y-36.758
X-47.063 Y-36.954
X-46.966 Y-37.013
X-46.636 Y-37.231
X-46.542 Y-37.298
X-46.231 Y-37.537
X-46.141 Y-37.611
X-45.85 Y-37.871
X-45.765 Y-37.953
X-45.496 Y-38.232
X-45.417 Y-38.32
X-45.17 Y-38.618
X-45.098 Y-38.712
X-44.874 Y-39.027
X-44.809 Y-39.126
X-44.609 Y-39.458
X-44.551 Y-39.561
X-44.376 Y-39.908
X-44.327 Y-40.015
X-44.176 Y-40.377
X-44.135 Y-40.485
X-44.01 Y-40.86
X-43.978 Y-40.969
X-43.879 Y-41.357
X-43.855 Y-41.465
X-43.783 Y-41.865
X-43.767 Y-41.972
X-43.721 Y-42.382
X-43.712 Y-42.486
X-43.693 Y-42.906
X-43.691 Y-43.006
X-43.698 Y-43.436
X-43.702 Y-43.531
X-43.736 Y-43.97
X-43.745 Y-44.058
X-43.804 Y-44.507
X-43.817 Y-44.589
X-43.902 Y-45.046
X-43.918 Y-45.121
X-44.027 Y-45.587
X-44.045 Y-45.655
X-44.18 Y-46.13
X-44.199 Y-46.191
X-44.357 Y-46.674
X-44.376 Y-46.729
X-44.558 Y-47.221
X-44.577 Y-47.27
X-44.781 Y-47.771
X-44.799 Y-47.815
X-45.025 Y-48.324
X-45.043 Y-48.363
X-45.289 Y-48.882
X-45.306 Y-48.916
X-45.572 Y-49.444
X-45.588 Y-49.474
X-45.873 Y-50.011
X-45.887 Y-50.037
X-46.17 Y-50.546
X-46.218 Y-50.646
X-46.235 Y-50.697
X-46.245 Y-50.75
X-46.248 Y-50.803
X-46.244 Y-50.856
X-46.234 Y-50.908
X-46.216 Y-50.958
X-46.192 Y-51.006
X-46.163 Y-51.05
X-46.127 Y-51.09
X-46.087 Y-51.125
X-46.043 Y-51.155
X-45.995 Y-51.178
X-45.945 Y-51.195
X-45.893 Y-51.206
X-45.787 Y-51.213
X-13.657
G3 X-11.512 Y-50.454 I0 J3.413
G2 X-4.488 Y-59.146 I3.512 J-4.346
X-11.512 Y-59.146 I-3.512 J4.346
G3 X-13.657 Y-58.388 I-2.145 J-2.654
G1 X-49.324
X-49.56 Y-58.395
X-49.77 Y-58.414
X-49.979 Y-58.447
X-50.185 Y-58.492
X-50.388 Y-58.55
X-50.588 Y-58.621
X-50.782 Y-58.704
X-50.97 Y-58.798
X-51.153 Y-58.904
X-51.329 Y-59.022
X-51.497 Y-59.15
X-51.657 Y-59.287
X-51.807 Y-59.434
