(Motormount_1_5)
(Bearbeiten)
(  Hersteller: ChinaCnc)
(  model: 3040T)
(  description: Generic 3-axis)
(T14 D=1.5 CR=0 - ZMIN=-1.3 - Schaftfrser)
G90 G94
G17
G21
(When using Fusion 360 for Personal Use, the feedrate of)
(rapid moves is reduced to match the feedrate of cutting)
(moves, which can increase machining time. Unrestricted rapid)
(moves are available with a Fusion 360 Subscription.)

(Bohrfrsen5)
M0
(MANUAL TOOL CHANGE TO T14)
S6000 M3
G54
G0 X-39.036 Y-8.524
Z15
G1 Z2 F600
Z0.15 F400
X-39.028 Z0.104
X-39.007 Z0.062
X-38.974 Z0.029
X-38.932 Z0.007
X-38.886 Z0
X-38.811
X-38.764 Y-8.517
X-38.722 Y-8.495
X-38.689 Y-8.462
X-38.668 Y-8.42
X-38.661 Y-8.374
G3 X-40.661 Y-8.374 Z-0.061 I-1 J0 F600
X-38.661 Y-8.374 Z-0.122 I1 J0
X-40.661 Y-8.374 Z-0.183 I-1 J0
X-38.661 Y-8.374 Z-0.244 I1 J0
X-40.661 Y-8.374 Z-0.306 I-1 J0
X-38.661 Y-8.374 Z-0.367 I1 J0
X-40.661 Y-8.374 Z-0.428 I-1 J0
X-38.661 Y-8.374 Z-0.489 I1 J0
X-40.661 Y-8.374 Z-0.55 I-1 J0
X-38.661 Y-8.374 Z-0.611 I1 J0
X-40.661 Y-8.374 Z-0.672 I-1 J0
X-38.661 Y-8.374 Z-0.733 I1 J0
X-40.661 Y-8.374 Z-0.794 I-1 J0
X-38.661 Y-8.374 Z-0.856 I1 J0
X-40.661 Y-8.374 Z-0.917 I-1 J0
X-38.661 Y-8.374 Z-0.978 I1 J0
X-40.661 Y-8.374 Z-1.039 I-1 J0
X-38.661 Y-8.374 Z-1.1 I1 J0
X-40.661 Y-8.374 Z-1.161 I-1 J0
X-38.661 Y-8.374 Z-1.222 I1 J0
X-40.661 Y-8.374 Z-1.283 I-1 J0
X-40.316 Y-9.13 Z-1.3 I1 J0
X-39.006 Y-7.618 I0.655 J0.756
X-40.316 Y-9.13 I-0.655 J-0.756
G1 X-40.276 Y-9.154
X-40.23 Y-9.166
X-40.183 Y-9.162
X-40.14 Y-9.145
X-40.104 Y-9.114
X-40.055 Y-9.058
X-40.025 Y-9.023 Z-1.293
X-39.997 Y-8.991 Z-1.271
X-39.975 Y-8.966 Z-1.238
X-39.962 Y-8.95 Z-1.196
X-39.957 Y-8.944 Z-1.15
Z5
X-23.173 Y-20.04
Z2
Z0.15 F400
X-23.166 Z0.104
X-23.145 Z0.062
X-23.112 Z0.029
X-23.07 Z0.007
X-23.023 Z0
X-22.948
X-22.902 Y-20.033
X-22.86 Y-20.011
X-22.827 Y-19.978
X-22.806 Y-19.936
X-22.798 Y-19.89
G3 X-26.298 Y-19.89 Z-0.087 I-1.75 J0 F600
X-22.798 Y-19.89 Z-0.175 I1.75 J0
X-26.298 Y-19.89 Z-0.262 I-1.75 J0
X-22.798 Y-19.89 Z-0.349 I1.75 J0
X-26.298 Y-19.89 Z-0.437 I-1.75 J0
X-22.798 Y-19.89 Z-0.524 I1.75 J0
X-26.298 Y-19.89 Z-0.611 I-1.75 J0
X-22.798 Y-19.89 Z-0.698 I1.75 J0
X-26.298 Y-19.89 Z-0.786 I-1.75 J0
X-22.798 Y-19.89 Z-0.873 I1.75 J0
X-26.298 Y-19.89 Z-0.96 I-1.75 J0
X-22.798 Y-19.89 Z-1.048 I1.75 J0
X-26.298 Y-19.89 Z-1.135 I-1.75 J0
X-22.798 Y-19.89 Z-1.222 I1.75 J0
X-26.196 Y-19.302 Z-1.3 I-1.75 J0
X-22.9 Y-20.478 I1.648 J-0.588
X-26.196 Y-19.302 I-1.648 J0.588
G1 X-26.205 Y-19.348
X-26.199 Y-19.394
X-26.179 Y-19.437
X-26.147 Y-19.471
X-26.106 Y-19.493
X-26.035 Y-19.519
X-25.991 Y-19.534 Z-1.293
X-25.952 Y-19.548 Z-1.271
X-25.921 Y-19.559 Z-1.238
X-25.901 Y-19.567 Z-1.196
X-25.894 Y-19.569 Z-1.15
Z5
X-8.811 Y-31.556
Z2
Z0.15 F400
X-8.804 Z0.104
X-8.782 Z0.062
X-8.749 Z0.029
X-8.707 Z0.007
X-8.661 Z0
X-8.586
X-8.54 Y-31.549
X-8.498 Y-31.527
X-8.465 Y-31.494
X-8.443 Y-31.452
X-8.436 Y-31.406
G3 X-10.436 Y-31.406 Z-0.061 I-1 J0 F600
X-8.436 Y-31.406 Z-0.122 I1 J0
X-10.436 Y-31.406 Z-0.183 I-1 J0
X-8.436 Y-31.406 Z-0.244 I1 J0
X-10.436 Y-31.406 Z-0.306 I-1 J0
X-8.436 Y-31.406 Z-0.367 I1 J0
X-10.436 Y-31.406 Z-0.428 I-1 J0
X-8.436 Y-31.406 Z-0.489 I1 J0
X-10.436 Y-31.406 Z-0.55 I-1 J0
X-8.436 Y-31.406 Z-0.611 I1 J0
X-10.436 Y-31.406 Z-0.672 I-1 J0
X-8.436 Y-31.406 Z-0.733 I1 J0
X-10.436 Y-31.406 Z-0.794 I-1 J0
X-8.436 Y-31.406 Z-0.856 I1 J0
X-10.436 Y-31.406 Z-0.917 I-1 J0
X-8.436 Y-31.406 Z-0.978 I1 J0
X-10.436 Y-31.406 Z-1.039 I-1 J0
X-8.436 Y-31.406 Z-1.1 I1 J0
X-10.436 Y-31.406 Z-1.161 I-1 J0
X-8.436 Y-31.406 Z-1.222 I1 J0
X-10.436 Y-31.406 Z-1.283 I-1 J0
X-10.091 Y-32.162 Z-1.3 I1 J0
X-8.781 Y-30.65 I0.655 J0.756
X-10.091 Y-32.162 I-0.655 J-0.756
G1 X-10.051 Y-32.186
X-10.006 Y-32.198
X-9.959 Y-32.194
X-9.915 Y-32.177
X-9.88 Y-32.147
X-9.83 Y-32.09
X-9.8 Y-32.055 Z-1.293
X-9.773 Y-32.023 Z-1.271
X-9.751 Y-31.998 Z-1.238
X-9.737 Y-31.982 Z-1.196
X-9.732 Y-31.977 Z-1.15
Z15
(When using Fusion 360 for Personal Use, the feedrate of)
(rapid moves is reduced to match the feedrate of cutting)
(moves, which can increase machining time. Unrestricted rapid)
(moves are available with a Fusion 360 Subscription.)

(2D-Kontur8)
G0 X-19.362 Y-23.905
G1 Z15 F600
Z5
Z2.65 F300
X-19.358 Y-23.899 Z2.604 F400
X-19.345 Y-23.882 Z2.562
X-19.325 Y-23.856 Z2.529
X-19.3 Y-23.822 Z2.507
X-19.272 Y-23.785 Z2.5
X-19.181 Y-23.666
X-19.158 Y-23.625
X-19.15 Y-23.579
X-19.156 Y-23.532
X-19.177 Y-23.49
X-19.209 Y-23.456
X-19.732 Y-23.057 Z2.477 F1016
G3 X-20.217 Y-23.693 Z2.433 I-0.242 J-0.318
G1 X-17.632 Y-25.663 Z2.32
G3 X-17.147 Y-25.027 Z2.276 I0.242 J0.318
G1 X-19.732 Y-23.057 Z2.162
G3 X-20.217 Y-23.693 Z2.118 I-0.242 J-0.318
G1 X-17.632 Y-25.663 Z2.005
G3 X-17.147 Y-25.027 Z1.961 I0.242 J0.318
G1 X-19.732 Y-23.057 Z1.848
G3 X-20.217 Y-23.693 Z1.804 I-0.242 J-0.318
G1 X-17.632 Y-25.663 Z1.69
G3 X-17.147 Y-25.027 Z1.646 I0.242 J0.318
G1 X-19.732 Y-23.057 Z1.533
G3 X-20.217 Y-23.693 Z1.489 I-0.242 J-0.318
G1 X-17.632 Y-25.663 Z1.375
G3 X-17.147 Y-25.027 Z1.332 I0.242 J0.318
G1 X-19.732 Y-23.057 Z1.218
G3 X-20.217 Y-23.693 Z1.174 I-0.242 J-0.318
G1 X-17.632 Y-25.663 Z1.061
G3 X-17.147 Y-25.027 Z1.017 I0.242 J0.318
G1 X-19.732 Y-23.057 Z0.903
G3 X-20.217 Y-23.693 Z0.859 I-0.242 J-0.318
G1 X-17.632 Y-25.663 Z0.746
G3 X-17.147 Y-25.027 Z0.702 I0.242 J0.318
G1 X-19.732 Y-23.057 Z0.589
G3 X-20.217 Y-23.693 Z0.545 I-0.242 J-0.318
G1 X-17.632 Y-25.663 Z0.431
G3 X-17.147 Y-25.027 Z0.387 I0.242 J0.318
G1 X-19.732 Y-23.057 Z0.274
G3 X-20.217 Y-23.693 Z0.23 I-0.242 J-0.318
G1 X-17.632 Y-25.663 Z0.116
G3 X-17.147 Y-25.027 Z0.072 I0.242 J0.318
G1 X-19.732 Y-23.057 Z-0.041
G3 X-20.217 Y-23.693 Z-0.085 I-0.242 J-0.318
G1 X-17.632 Y-25.663 Z-0.198
G3 X-17.147 Y-25.027 Z-0.242 I0.242 J0.318
G1 X-19.732 Y-23.057 Z-0.356
G3 X-20.217 Y-23.693 Z-0.4 I-0.242 J-0.318
G1 X-17.632 Y-25.663 Z-0.513
G3 X-17.147 Y-25.027 Z-0.557 I0.242 J0.318
G1 X-19.732 Y-23.057 Z-0.67
G3 X-20.217 Y-23.693 Z-0.714 I-0.242 J-0.318
G1 X-17.632 Y-25.663 Z-0.828
G3 X-17.147 Y-25.027 Z-0.872 I0.242 J0.318
G1 X-19.732 Y-23.057 Z-0.985
G3 X-20.217 Y-23.693 Z-1.029 I-0.242 J-0.318
G1 X-17.632 Y-25.663 Z-1.143
G3 X-17.147 Y-25.027 Z-1.187 I0.242 J0.318
G1 X-19.732 Y-23.057 Z-1.3
G3 X-20.217 Y-23.693 I-0.242 J-0.318 F600
G1 X-17.632 Y-25.663
G3 X-17.147 Y-25.027 I0.242 J0.318
G1 X-19.732 Y-23.057
X-19.774 Y-23.035
X-19.82 Y-23.026
X-19.866 Y-23.033
X-19.909 Y-23.053
X-19.943 Y-23.085
X-20.034 Y-23.205
X-20.062 Y-23.242 Z-1.293
X-20.087 Y-23.275 Z-1.271
X-20.107 Y-23.301 Z-1.238
X-20.12 Y-23.318 Z-1.196
X-20.125 Y-23.324 Z-1.15
Z5
X-29.474 Y-26.437
Z2.65 F300
X-29.48 Y-26.432 Z2.604 F400
X-29.497 Y-26.419 Z2.562
X-29.523 Y-26.399 Z2.529
X-29.557 Y-26.374 Z2.507
X-29.594 Y-26.346 Z2.5
X-29.713 Y-26.255
X-29.754 Y-26.233
X-29.8 Y-26.224
X-29.847 Y-26.23
X-29.889 Y-26.251
X-29.923 Y-26.283
X-30.321 Y-26.806 Z2.477 F1016
G3 X-30.246 Y-27.367 Z2.455 I0.318 J-0.243
X-29.685 Y-27.291 Z2.433 I0.242 J0.318
G1 X-27.715 Y-24.706 Z2.32
G3 X-28.352 Y-24.221 Z2.276 I-0.318 J0.242
G1 X-30.321 Y-26.806 Z2.162
G3 X-30.246 Y-27.367 Z2.14 I0.318 J-0.243
X-29.685 Y-27.291 Z2.118 I0.242 J0.318
G1 X-27.715 Y-24.706 Z2.005
G3 X-28.352 Y-24.221 Z1.961 I-0.318 J0.242
G1 X-30.321 Y-26.806 Z1.848
G3 X-30.246 Y-27.367 Z1.826 I0.318 J-0.243
X-29.685 Y-27.291 Z1.804 I0.242 J0.318
G1 X-27.715 Y-24.706 Z1.69
G3 X-28.352 Y-24.221 Z1.646 I-0.318 J0.242
G1 X-30.321 Y-26.806 Z1.533
G3 X-30.246 Y-27.367 Z1.511 I0.318 J-0.243
X-29.685 Y-27.291 Z1.489 I0.242 J0.318
G1 X-27.715 Y-24.706 Z1.375
G3 X-28.352 Y-24.221 Z1.332 I-0.318 J0.242
G1 X-30.321 Y-26.806 Z1.218
G3 X-30.246 Y-27.367 Z1.196 I0.318 J-0.243
X-29.685 Y-27.291 Z1.174 I0.242 J0.318
G1 X-27.715 Y-24.706 Z1.061
G3 X-28.352 Y-24.221 Z1.017 I-0.318 J0.242
G1 X-30.321 Y-26.806 Z0.903
G3 X-30.246 Y-27.367 Z0.881 I0.318 J-0.243
X-29.685 Y-27.291 Z0.859 I0.242 J0.318
G1 X-27.715 Y-24.706 Z0.746
G3 X-28.352 Y-24.221 Z0.702 I-0.318 J0.242
G1 X-30.321 Y-26.806 Z0.589
G3 X-30.246 Y-27.367 Z0.567 I0.318 J-0.243
X-29.685 Y-27.291 Z0.545 I0.242 J0.318
G1 X-27.715 Y-24.706 Z0.431
G3 X-28.352 Y-24.221 Z0.387 I-0.318 J0.242
G1 X-30.321 Y-26.806 Z0.274
G3 X-30.246 Y-27.367 Z0.252 I0.318 J-0.243
X-29.685 Y-27.291 Z0.23 I0.242 J0.318
G1 X-27.715 Y-24.706 Z0.116
G3 X-28.352 Y-24.221 Z0.073 I-0.318 J0.242
G1 X-30.321 Y-26.806 Z-0.041
G3 X-30.246 Y-27.367 Z-0.063 I0.318 J-0.243
X-29.685 Y-27.291 Z-0.085 I0.242 J0.318
G1 X-27.715 Y-24.706 Z-0.198
G3 X-28.352 Y-24.221 Z-0.242 I-0.318 J0.242
G1 X-30.321 Y-26.806 Z-0.356
G3 X-30.246 Y-27.367 Z-0.378 I0.318 J-0.243
X-29.685 Y-27.291 Z-0.4 I0.242 J0.318
G1 X-27.715 Y-24.706 Z-0.513
G3 X-28.352 Y-24.221 Z-0.557 I-0.318 J0.242
G1 X-30.321 Y-26.806 Z-0.67
G3 X-30.246 Y-27.367 Z-0.692 I0.318 J-0.243
X-29.685 Y-27.291 Z-0.714 I0.242 J0.318
G1 X-27.715 Y-24.706 Z-0.828
G3 X-28.352 Y-24.221 Z-0.872 I-0.318 J0.242
G1 X-30.321 Y-26.806 Z-0.985
G3 X-30.246 Y-27.367 Z-1.007 I0.318 J-0.243
X-29.685 Y-27.291 Z-1.029 I0.242 J0.318
G1 X-27.715 Y-24.706 Z-1.143
G3 X-28.352 Y-24.221 Z-1.187 I-0.318 J0.242
G1 X-30.321 Y-26.806 Z-1.3
G3 X-30.246 Y-27.367 I0.318 J-0.243 F600
X-29.685 Y-27.291 I0.242 J0.318
G1 X-27.715 Y-24.706
G3 X-28.352 Y-24.221 I-0.318 J0.242
G1 X-30.321 Y-26.806
X-30.344 Y-26.847
X-30.352 Y-26.893
X-30.346 Y-26.94
X-30.325 Y-26.982
X-30.293 Y-27.016
X-30.174 Y-27.107
X-30.137 Y-27.135 Z-1.293
X-30.104 Y-27.161 Z-1.271
X-30.077 Y-27.181 Z-1.238
X-30.06 Y-27.194 Z-1.196
X-30.054 Y-27.198 Z-1.15
Z5
X-29.259 Y-16.483
Z2.65 F300
X-29.254 Y-16.488 Z2.604 F400
X-29.238 Y-16.502 Z2.562
X-29.214 Y-16.524 Z2.529
X-29.182 Y-16.552 Z2.507
X-29.148 Y-16.583 Z2.5
X-29.037 Y-16.684
X-28.997 Y-16.709
X-28.952 Y-16.722
X-28.905 Y-16.719
X-28.861 Y-16.702
X-28.825 Y-16.673
G3 X-28.879 Y-16.087 Z2.477 I-0.297 J0.268 F1016
G1 X-31.464 Y-14.117 Z2.363
G3 X-31.949 Y-14.753 Z2.32 I-0.242 J-0.318
G1 X-29.364 Y-16.723 Z2.206
G3 X-28.879 Y-16.087 Z2.162 I0.242 J0.318
G1 X-31.464 Y-14.117 Z2.049
G3 X-31.949 Y-14.753 Z2.005 I-0.242 J-0.318
G1 X-29.364 Y-16.723 Z1.891
G3 X-28.879 Y-16.087 Z1.847 I0.242 J0.318
G1 X-31.464 Y-14.117 Z1.734
G3 X-31.949 Y-14.753 Z1.69 I-0.242 J-0.318
G1 X-29.364 Y-16.723 Z1.577
G3 X-28.879 Y-16.087 Z1.533 I0.242 J0.318
G1 X-31.464 Y-14.117 Z1.419
G3 X-31.949 Y-14.753 Z1.375 I-0.242 J-0.318
G1 X-29.364 Y-16.723 Z1.262
G3 X-28.879 Y-16.087 Z1.218 I0.242 J0.318
G1 X-31.464 Y-14.117 Z1.104
G3 X-31.949 Y-14.753 Z1.061 I-0.242 J-0.318
G1 X-29.364 Y-16.723 Z0.947
G3 X-28.879 Y-16.087 Z0.903 I0.242 J0.318
G1 X-31.464 Y-14.117 Z0.79
G3 X-31.949 Y-14.753 Z0.746 I-0.242 J-0.318
G1 X-29.364 Y-16.723 Z0.632
G3 X-28.879 Y-16.087 Z0.588 I0.242 J0.318
G1 X-31.464 Y-14.117 Z0.475
G3 X-31.949 Y-14.753 Z0.431 I-0.242 J-0.318
G1 X-29.364 Y-16.723 Z0.318
G3 X-28.879 Y-16.087 Z0.274 I0.242 J0.318
G1 X-31.464 Y-14.117 Z0.16
G3 X-31.949 Y-14.753 Z0.116 I-0.242 J-0.318
G1 X-29.364 Y-16.723 Z0.003
G3 X-28.879 Y-16.087 Z-0.041 I0.242 J0.318
G1 X-31.464 Y-14.117 Z-0.155
G3 X-31.949 Y-14.753 Z-0.198 I-0.242 J-0.318
G1 X-29.364 Y-16.723 Z-0.312
G3 X-28.879 Y-16.087 Z-0.356 I0.242 J0.318
G1 X-31.464 Y-14.117 Z-0.469
G3 X-31.949 Y-14.753 Z-0.513 I-0.242 J-0.318
G1 X-29.364 Y-16.723 Z-0.627
G3 X-28.879 Y-16.087 Z-0.671 I0.242 J0.318
G1 X-31.464 Y-14.117 Z-0.784
G3 X-31.949 Y-14.753 Z-0.828 I-0.242 J-0.318
G1 X-29.364 Y-16.723 Z-0.941
G3 X-28.879 Y-16.087 Z-0.985 I0.242 J0.318
G1 X-31.464 Y-14.117 Z-1.099
G3 X-31.949 Y-14.753 Z-1.143 I-0.242 J-0.318
G1 X-29.364 Y-16.723 Z-1.256
G3 X-28.879 Y-16.087 Z-1.3 I0.242 J0.318
G1 X-31.464 Y-14.117 F600
G3 X-31.949 Y-14.753 I-0.242 J-0.318
G1 X-29.364 Y-16.723
G3 X-28.879 Y-16.087 I0.242 J0.318
G1 X-28.921 Y-16.064
X-28.967 Y-16.056
X-29.013 Y-16.062
X-29.056 Y-16.083
X-29.09 Y-16.115
X-29.181 Y-16.234
X-29.209 Y-16.271 Z-1.293
X-29.234 Y-16.305 Z-1.271
X-29.254 Y-16.331 Z-1.238
X-29.267 Y-16.348 Z-1.196
X-29.271 Y-16.354 Z-1.15
Z5
X-19.242 Y-12.845
Z2.65 F300
X-19.237 Y-12.849 Z2.604 F400
X-19.22 Y-12.862 Z2.562
X-19.193 Y-12.882 Z2.529
X-19.16 Y-12.907 Z2.507
X-19.123 Y-12.935 Z2.5
X-19.004 Y-13.026
X-18.962 Y-13.049
X-18.916 Y-13.057
X-18.87 Y-13.051
X-18.827 Y-13.03
X-18.794 Y-12.998
X-18.775 Y-12.974 Z2.499 F1016
G3 X-19.412 Y-12.489 Z2.455 I-0.318 J0.242
G1 X-21.381 Y-15.074 Z2.342
G3 X-21.306 Y-15.635 Z2.32 I0.318 J-0.243
X-20.745 Y-15.559 Z2.298 I0.242 J0.318
G1 X-18.775 Y-12.974 Z2.184
G3 X-19.412 Y-12.489 Z2.14 I-0.318 J0.242
G1 X-21.381 Y-15.074 Z2.027
G3 X-21.306 Y-15.635 Z2.005 I0.318 J-0.243
X-20.745 Y-15.559 Z1.983 I0.242 J0.318
G1 X-18.775 Y-12.974 Z1.869
G3 X-19.412 Y-12.489 Z1.826 I-0.318 J0.242
G1 X-21.381 Y-15.074 Z1.712
G3 X-21.306 Y-15.635 Z1.69 I0.318 J-0.243
X-20.745 Y-15.559 Z1.668 I0.242 J0.318
G1 X-18.775 Y-12.974 Z1.555
G3 X-19.412 Y-12.489 Z1.511 I-0.318 J0.242
G1 X-21.381 Y-15.074 Z1.397
G3 X-21.306 Y-15.635 Z1.375 I0.318 J-0.243
X-20.745 Y-15.559 Z1.353 I0.242 J0.318
G1 X-18.775 Y-12.974 Z1.24
G3 X-19.412 Y-12.489 Z1.196 I-0.318 J0.242
G1 X-21.381 Y-15.074 Z1.083
G3 X-21.306 Y-15.635 Z1.061 I0.318 J-0.243
X-20.745 Y-15.559 Z1.039 I0.242 J0.318
G1 X-18.775 Y-12.974 Z0.925
G3 X-19.412 Y-12.489 Z0.881 I-0.318 J0.242
G1 X-21.381 Y-15.074 Z0.768
G3 X-21.306 Y-15.635 Z0.746 I0.318 J-0.243
X-20.745 Y-15.559 Z0.724 I0.242 J0.318
G1 X-18.775 Y-12.974 Z0.61
G3 X-19.412 Y-12.489 Z0.567 I-0.318 J0.242
G1 X-21.381 Y-15.074 Z0.453
G3 X-21.306 Y-15.635 Z0.431 I0.318 J-0.243
X-20.745 Y-15.559 Z0.409 I0.242 J0.318
G1 X-18.775 Y-12.974 Z0.296
G3 X-19.412 Y-12.489 Z0.252 I-0.318 J0.242
G1 X-21.381 Y-15.074 Z0.138
G3 X-21.306 Y-15.635 Z0.116 I0.318 J-0.243
X-20.745 Y-15.559 Z0.094 I0.242 J0.318
G1 X-18.775 Y-12.974 Z-0.019
G3 X-19.412 Y-12.489 Z-0.063 I-0.318 J0.242
G1 X-21.381 Y-15.074 Z-0.176
G3 X-21.306 Y-15.635 Z-0.198 I0.318 J-0.243
X-20.745 Y-15.559 Z-0.22 I0.242 J0.318
G1 X-18.775 Y-12.974 Z-0.334
G3 X-19.412 Y-12.489 Z-0.378 I-0.318 J0.242
G1 X-21.381 Y-15.074 Z-0.491
G3 X-21.306 Y-15.635 Z-0.513 I0.318 J-0.243
X-20.745 Y-15.559 Z-0.535 I0.242 J0.318
G1 X-18.775 Y-12.974 Z-0.649
G3 X-19.412 Y-12.489 Z-0.692 I-0.318 J0.242
G1 X-21.381 Y-15.074 Z-0.806
G3 X-21.306 Y-15.635 Z-0.828 I0.318 J-0.243
X-20.745 Y-15.559 Z-0.85 I0.242 J0.318
G1 X-18.775 Y-12.974 Z-0.963
G3 X-19.412 Y-12.489 Z-1.007 I-0.318 J0.242
G1 X-21.381 Y-15.074 Z-1.121
G3 X-21.306 Y-15.635 Z-1.143 I0.318 J-0.243
X-20.745 Y-15.559 Z-1.165 I0.242 J0.318
G1 X-18.775 Y-12.974 Z-1.278
G3 X-18.851 Y-12.413 Z-1.3 I-0.318 J0.242
X-19.412 Y-12.489 I-0.242 J-0.318 F600
G1 X-21.381 Y-15.074
G3 X-21.306 Y-15.635 I0.318 J-0.243
X-20.745 Y-15.559 I0.242 J0.318
G1 X-18.775 Y-12.974
G3 X-18.851 Y-12.413 I-0.318 J0.242
G1 X-18.892 Y-12.391
X-18.938 Y-12.383
X-18.985 Y-12.389
X-19.027 Y-12.409
X-19.061 Y-12.442
X-19.152 Y-12.561
X-19.18 Y-12.598 Z-1.293
X-19.206 Y-12.631 Z-1.271
X-19.226 Y-12.658 Z-1.238
X-19.239 Y-12.675 Z-1.196
X-19.243 Y-12.68 Z-1.15
Z15
(When using Fusion 360 for Personal Use, the feedrate of)
(rapid moves is reduced to match the feedrate of cutting)
(moves, which can increase machining time. Unrestricted rapid)
(moves are available with a Fusion 360 Subscription.)

(2D-Kontur9)
G0 X-29.067 Y-33.353
G1 Z15 F600
Z5
Z2.65 F300
X-29.064 Y-33.346 Z2.604 F400
X-29.057 Y-33.326 Z2.562
X-29.046 Y-33.294 Z2.529
X-29.033 Y-33.255 Z2.507
X-29.017 Y-33.211 Z2.5
X-28.968 Y-33.069
X-28.96 Y-33.023
X-28.966 Y-32.977
X-28.987 Y-32.935
X-29.019 Y-32.901
X-29.061 Y-32.879
G2 X-38.174 Y-21.735 Z1.971 I4.512 J12.989 F1016
G1 X-38.236 Y-21.319 Z1.956
X-38.307 Y-20.915 Z1.942
X-38.388 Y-20.516 Z1.928
X-38.479 Y-20.123 Z1.914
X-38.58 Y-19.736 Z1.9
X-38.69 Y-19.355 Z1.886
X-38.81 Y-18.979 Z1.872
X-38.94 Y-18.608 Z1.858
X-39.078 Y-18.242 Z1.845
X-39.223 Y-17.886 Z1.831
X-39.545 Y-17.175 Z1.804
X-39.895 Y-16.486 Z1.777
X-40.274 Y-15.814 Z1.75
X-40.678 Y-15.159 Z1.723
X-41.103 Y-14.518 Z1.696
X-41.545 Y-13.892 Z1.67
X-41.999 Y-13.28 Z1.643
X-42.462 Y-12.681 Z1.616
X-42.927 Y-12.094 Z1.59
X-43.391 Y-11.519 Z1.565
X-43.848 Y-10.955 Z1.539
X-43.85 Y-10.954
X-44.294 Y-10.404 Z1.514
X-44.298 Y-10.398
X-44.723 Y-9.862 Z1.49
X-44.73 Y-9.853
X-45.132 Y-9.33 Z1.467
X-45.142 Y-9.316 Z1.466
X-45.515 Y-8.806 Z1.444
X-45.529 Y-8.788 Z1.443
X-45.87 Y-8.291 Z1.422
X-45.882 Y-8.273
X-46.039 Y-8.03 Z1.411
X-46.048 Y-8.016
X-46.196 Y-7.775 Z1.401
X-46.205 Y-7.759 Z1.4
X-46.343 Y-7.523 Z1.391
X-46.353 Y-7.504 Z1.39
X-46.48 Y-7.271 Z1.381
X-46.491 Y-7.251 Z1.38
X-46.607 Y-7.021 Z1.371
X-46.618 Y-6.998 Z1.37
X-46.722 Y-6.772 Z1.361
X-46.734 Y-6.746 Z1.36
X-46.827 Y-6.524 Z1.352
X-46.838 Y-6.496 Z1.351
X-46.919 Y-6.277 Z1.343
X-46.93 Y-6.245 Z1.342
X-46.998 Y-6.031 Z1.334
X-47.009 Y-5.996 Z1.333
X-47.065 Y-5.786 Z1.325
X-47.074 Y-5.748 Z1.324
X-47.118 Y-5.543 Z1.316
X-47.125 Y-5.501 Z1.315
X-47.156 Y-5.3 Z1.308
X-47.162 Y-5.255 Z1.306
X-47.18 Y-5.06 Z1.299
X-47.183 Y-5.011 Z1.298
X-47.188 Y-4.821 Z1.291
X-47.187 Y-4.77 Z1.289
X-47.18 Y-4.586 Z1.283
X-47.175 Y-4.531 Z1.281
X-47.155 Y-4.353 Z1.275
X-47.146 Y-4.296 Z1.272
X-47.112 Y-4.125 Z1.266
X-47.099 Y-4.067 Z1.264
X-47.053 Y-3.902 Z1.258
X-47.033 Y-3.842 Z1.256
X-46.975 Y-3.685 Z1.25
X-46.95 Y-3.626 Z1.248
X-46.879 Y-3.477 Z1.242
X-46.848 Y-3.419 Z1.24
X-46.765 Y-3.278 Z1.234
X-46.729 Y-3.221 Z1.232
X-46.634 Y-3.089 Z1.226
X-46.592 Y-3.036 Z1.224
X-46.486 Y-2.913 Z1.218
X-46.441 Y-2.864 Z1.216
X-46.323 Y-2.75 Z1.21
X-46.275 Y-2.706 Z1.208
X-46.146 Y-2.601 Z1.202
X-46.095 Y-2.563 Z1.2
X-45.956 Y-2.468 Z1.194
X-45.903 Y-2.435 Z1.192
X-45.754 Y-2.35 Z1.186
X-45.702 Y-2.323 Z1.184
X-45.542 Y-2.248 Z1.178
X-45.49 Y-2.226 Z1.176
X-45.321 Y-2.161 Z1.169
X-45.271 Y-2.144 Z1.167
X-45.093 Y-2.09 Z1.161
X-45.044 Y-2.077 Z1.159
X-44.857 Y-2.034 Z1.152
X-44.81 Y-2.025 Z1.151
X-44.615 Y-1.993 Z1.144
X-44.571 Y-1.987 Z1.142
X-44.367 Y-1.965 Z1.135
X-44.326 Y-1.962 Z1.134
X-44.114 Y-1.951 Z1.126
X-44.075 Z1.125
X-43.856 Z1.117
X-43.821 Y-1.952 Z1.116
X-43.594 Y-1.963 Z1.108
X-43.561 Y-1.965 Z1.107
X-43.327 Y-1.987 Z1.099
X-43.298 Y-1.99 Z1.098
X-43.057 Y-2.022 Z1.089
X-43.03 Y-2.026 Z1.088
X-42.783 Y-2.068 Z1.08
X-42.758 Y-2.073 Z1.079
X-42.505 Y-2.124 Z1.07
X-42.482 Y-2.129 Z1.069
X-42.223 Y-2.191 Z1.06
X-42.203 Y-2.196 Z1.059
X-41.937 Y-2.266 Z1.049
X-41.912 Y-2.273 Z1.048
X-41.364 Y-2.44 Z1.028
X-41.336 Y-2.449 Z1.027
X-40.766 Y-2.646 Z1.006
X-40.745 Y-2.654 Z1.005
X-40.155 Y-2.879 Z0.983
X-40.139 Y-2.885
X-39.529 Y-3.132 Z0.96
X-39.519 Y-3.137 Z0.959
X-38.891 Y-3.403 Z0.936
X-38.885 Y-3.406 Z0.935
X-38.239 Y-3.686 Z0.911
X-38.237
X-37.576 Y-3.975 Z0.886
X-36.901 Y-4.268 Z0.86
X-36.215 Y-4.558 Z0.834
X-35.519 Y-4.842 Z0.808
X-34.812 Y-5.115 Z0.781
X-34.095 Y-5.372 Z0.755
X-33.369 Y-5.609 Z0.728
X-32.634 Y-5.822 Z0.701
X-31.89 Y-6.006 Z0.674
X-31.136 Y-6.159 Z0.648
X-30.368 Y-6.278 Z0.62
X-29.987 Y-6.322 Z0.607
X-29.599 Y-6.358 Z0.593
X-29.208 Y-6.383 Z0.58
X-28.814 Y-6.399 Z0.566
X-28.418 Y-6.404 Z0.552
X-28.018 Y-6.398 Z0.538
X-27.616 Y-6.381 Z0.524
X-27.21 Y-6.353 Z0.51
X-26.801 Y-6.314 Z0.496
X-26.384 Y-6.263 Z0.481
G2 X-12.977 Y-12.463 Z-0.064 I1.835 J-13.627
G1 X-12.521 Y-13.171 Z-0.093
X-12.071 Y-13.867 Z-0.122
X-11.626 Y-14.55 Z-0.151
X-11.186 Y-15.222 Z-0.179
X-11.183 Y-15.227
X-5.233 Y-24.47 Z-0.563
X-5.208 Y-24.512 Z-0.564
X-4.904 Y-25.059 Z-0.586
X-4.897 Y-25.071 Z-0.587
X-4.611 Y-25.609 Z-0.608
X-4.604 Y-25.623 Z-0.609
X-4.338 Y-26.151 Z-0.629
X-4.33 Y-26.167 Z-0.63
X-4.083 Y-26.686 Z-0.65
X-4.075 Y-26.705 Z-0.651
X-3.849 Y-27.214 Z-0.67
X-3.841 Y-27.235 Z-0.671
X-3.637 Y-27.736 Z-0.69
X-3.628 Y-27.759 Z-0.691
X-3.446 Y-28.251 Z-0.709
X-3.437 Y-28.277 Z-0.71
X-3.279 Y-28.76 Z-0.728
X-3.27 Y-28.789 Z-0.729
X-3.135 Y-29.263 Z-0.746
X-3.127 Y-29.296 Z-0.747
X-3.017 Y-29.762 Z-0.764
X-3.009 Y-29.797 Z-0.765
X-2.925 Y-30.254 Z-0.781
X-2.918 Y-30.293 Z-0.783
X-2.859 Y-30.741 Z-0.798
X-2.855 Y-30.783 Z-0.8
X-2.822 Y-31.223 Z-0.815
X-2.82 Y-31.267 Z-0.817
X-2.813 Y-31.697 Z-0.832
Y-31.744 Z-0.833
X-2.833 Y-32.165 Z-0.848
X-2.837 Y-32.214 Z-0.85
X-2.883 Y-32.624 Z-0.864
X-2.891 Y-32.675 Z-0.866
X-2.964 Y-33.074 Z-0.88
X-2.975 Y-33.126 Z-0.882
X-3.074 Y-33.513 Z-0.896
X-3.089 Y-33.565 Z-0.898
X-3.214 Y-33.94 Z-0.912
X-3.233 Y-33.991 Z-0.914
X-3.384 Y-34.353 Z-0.927
X-3.407 Y-34.403 Z-0.929
X-3.583 Y-34.751 Z-0.943
X-3.61 Y-34.799 Z-0.945
X-3.81 Y-35.131 Z-0.958
X-3.841 Y-35.178 Z-0.96
X-4.065 Y-35.493 Z-0.974
X-4.099 Y-35.538 Z-0.976
X-4.346 Y-35.835 Z-0.989
X-4.383 Y-35.877 Z-0.991
X-4.652 Y-36.156 Z-1.005
X-4.692 Y-36.195 Z-1.007
X-4.983 Y-36.454 Z-1.02
X-5.025 Y-36.489 Z-1.022
X-5.336 Y-36.728 Z-1.036
X-5.381 Y-36.76 Z-1.038
X-5.711 Y-36.978 Z-1.052
X-5.757 Y-37.006 Z-1.054
X-6.107 Y-37.202 Z-1.068
X-6.153 Y-37.226 Z-1.069
X-6.521 Y-37.4 Z-1.084
X-6.568 Y-37.42 Z-1.085
X-6.953 Y-37.571 Z-1.1
X-6.999 Y-37.587 Z-1.102
X-7.401 Y-37.716 Z-1.116
X-7.446 Y-37.728 Z-1.118
X-7.864 Y-37.833 Z-1.133
X-7.908 Y-37.843 Z-1.135
X-8.342 Y-37.925 Z-1.15
X-8.383 Y-37.932 Z-1.151
X-8.833 Y-37.991 Z-1.167
X-8.871 Y-37.995 Z-1.169
X-9.336 Y-38.033 Z-1.185
X-9.372 Y-38.035 Z-1.186
X-9.852 Y-38.05 Z-1.203
X-9.885 Z-1.204
X-10.38 Y-38.044 Z-1.221
X-10.41 Y-38.043 Z-1.222
X-10.919 Y-38.016 Z-1.24
X-10.946 Y-38.015 Z-1.241
X-11.47 Y-37.968 Z-1.26
X-11.495 Y-37.965
X-12.033 Y-37.9 Z-1.279
X-12.055 Y-37.897 Z-1.28
X-12.608 Y-37.812 Z-1.3
X-12.618 Y-37.811
X-12.627 Y-37.809 F600
X-13.195 Y-37.707
X-13.212 Y-37.704
X-13.794 Y-37.585
X-13.809 Y-37.582
X-14.405 Y-37.447
X-14.418 Y-37.444
X-15.028 Y-37.295
X-15.04 Y-37.292
X-15.664 Y-37.128
X-15.674 Y-37.126
X-16.313 Y-36.949
X-16.322 Y-36.946
X-16.975 Y-36.757
X-16.982 Y-36.755
X-17.651 Y-36.555
X-17.656 Y-36.553
X-18.339 Y-36.342
X-18.344 Y-36.341
X-19.042 Y-36.12
X-19.045 Y-36.119
X-19.759 Y-35.89
X-19.761
X-20.49 Y-35.653
X-20.491 Y-35.652
X-21.235 Y-35.409
X-21.995 Y-35.159
X-22.771 Y-34.904
X-23.561 Y-34.644
X-24.368 Y-34.381
X-25.19 Y-34.114
X-26.027 Y-33.844
X-26.882 Y-33.571
X-27.177 Y-33.477
Z-0.925
X-27.752 Y-33.295
X-28.64 Y-33.017
G2 X-32.227 Y-31.296 I4.091 J13.127
G1 Z-1.3 F300
G2 X-35.284 Y-28.481 I7.679 J11.406 F600
G1 Z-0.925
G2 X-37.792 Y-23.586 I10.736 J8.591
G1 Z-1.3 F300
G2 X-38.174 Y-21.735 I13.244 J3.696 F600
G1 X-38.236 Y-21.319
X-38.307 Y-20.915
X-38.388 Y-20.516
X-38.479 Y-20.123
X-38.58 Y-19.736
X-38.69 Y-19.355
X-38.81 Y-18.979
X-38.94 Y-18.608
X-39.078 Y-18.242
X-39.223 Y-17.886
X-39.545 Y-17.175
X-39.895 Y-16.486
X-40.274 Y-15.814
X-40.678 Y-15.159
X-41.103 Y-14.518
X-41.545 Y-13.892
X-41.999 Y-13.28
X-42.462 Y-12.681
X-42.927 Y-12.094
X-43.391 Y-11.519
X-43.848 Y-10.955
X-43.85 Y-10.954
X-44.294 Y-10.404
X-44.298 Y-10.398
X-44.723 Y-9.862
X-44.73 Y-9.853
X-45.132 Y-9.33
X-45.142 Y-9.316
X-45.515 Y-8.806
X-45.529 Y-8.788
X-45.87 Y-8.291
X-45.882 Y-8.273
X-46.039 Y-8.03
X-46.048 Y-8.016
X-46.196 Y-7.775
X-46.205 Y-7.759
X-46.343 Y-7.523
X-46.353 Y-7.504
X-46.48 Y-7.271
X-46.491 Y-7.251
X-46.607 Y-7.021
X-46.618 Y-6.998
X-46.722 Y-6.772
X-46.734 Y-6.746
X-46.827 Y-6.524
X-46.838 Y-6.496
X-46.919 Y-6.277
X-46.93 Y-6.245
X-46.998 Y-6.031
X-47.009 Y-5.996
X-47.065 Y-5.786
X-47.074 Y-5.748
X-47.118 Y-5.543
X-47.125 Y-5.501
X-47.156 Y-5.3
X-47.162 Y-5.255
X-47.18 Y-5.06
X-47.183 Y-5.011
X-47.188 Y-4.821
X-47.187 Y-4.77
X-47.18 Y-4.586
X-47.175 Y-4.531
X-47.155 Y-4.353
X-47.146 Y-4.296
X-47.112 Y-4.125
X-47.099 Y-4.067
X-47.053 Y-3.902
X-47.033 Y-3.842
X-46.975 Y-3.685
X-46.95 Y-3.626
X-46.879 Y-3.477
X-46.848 Y-3.419
X-46.765 Y-3.278
X-46.729 Y-3.221
X-46.634 Y-3.089
X-46.592 Y-3.036
X-46.486 Y-2.913
X-46.441 Y-2.864
X-46.323 Y-2.75
X-46.275 Y-2.706
X-46.146 Y-2.601
X-46.095 Y-2.563
X-45.956 Y-2.468
X-45.903 Y-2.435
X-45.754 Y-2.35
X-45.702 Y-2.323
X-45.542 Y-2.248
X-45.49 Y-2.226
X-45.321 Y-2.161
X-45.271 Y-2.144
X-45.093 Y-2.09
X-45.044 Y-2.077
X-44.857 Y-2.034
X-44.81 Y-2.025
X-44.615 Y-1.993
X-44.571 Y-1.987
X-44.367 Y-1.965
X-44.326 Y-1.962
X-44.114 Y-1.951
X-44.075
X-43.856
X-43.821 Y-1.952
X-43.594 Y-1.963
X-43.561 Y-1.965
X-43.327 Y-1.987
X-43.298 Y-1.99
X-43.057 Y-2.022
X-43.03 Y-2.026
X-42.783 Y-2.068
X-42.758 Y-2.073
X-42.505 Y-2.124
X-42.482 Y-2.129
X-42.223 Y-2.191
X-42.203 Y-2.196
X-41.937 Y-2.266
X-41.912 Y-2.273
X-41.364 Y-2.44
X-41.336 Y-2.449
X-40.766 Y-2.646
X-40.745 Y-2.654
X-40.155 Y-2.879
X-40.139 Y-2.885
X-39.529 Y-3.132
X-39.519 Y-3.137
X-38.891 Y-3.403
X-38.885 Y-3.406
X-38.239 Y-3.686
X-38.237
X-37.576 Y-3.975
X-36.901 Y-4.268
X-36.215 Y-4.558
X-35.519 Y-4.842
X-34.812 Y-5.115
X-34.095 Y-5.372
X-33.369 Y-5.609
X-32.634 Y-5.822
X-31.89 Y-6.006
X-31.136 Y-6.159
X-30.368 Y-6.278
X-29.987 Y-6.322
X-29.599 Y-6.358
X-29.208 Y-6.383
X-29.147 Y-6.386
Z-0.925
X-28.814 Y-6.399
X-28.418 Y-6.404
X-28.018 Y-6.398
X-27.616 Y-6.381
X-27.21 Y-6.353
X-26.801 Y-6.314
X-26.384 Y-6.263
G2 X-23.626 Y-6.171 I1.835 J-13.627
G1 Z-1.3 F300
G2 X-12.977 Y-12.463 I-0.922 J-13.719 F600
G1 X-12.521 Y-13.171
X-12.071 Y-13.867
X-11.626 Y-14.55
X-11.186 Y-15.222
X-11.183 Y-15.227
X-5.233 Y-24.47
X-5.208 Y-24.512
X-4.904 Y-25.059
X-4.897 Y-25.071
X-4.611 Y-25.609
X-4.604 Y-25.623
X-4.338 Y-26.151
X-4.33 Y-26.167
X-4.083 Y-26.686
X-4.075 Y-26.705
X-3.849 Y-27.214
X-3.841 Y-27.235
X-3.637 Y-27.736
X-3.628 Y-27.759
X-3.446 Y-28.251
X-3.437 Y-28.277
X-3.279 Y-28.76
X-3.27 Y-28.789
X-3.135 Y-29.263
X-3.127 Y-29.296
X-3.017 Y-29.762
X-3.009 Y-29.797
X-2.925 Y-30.254
X-2.918 Y-30.293
X-2.859 Y-30.741
X-2.855 Y-30.783
X-2.822 Y-31.223
X-2.82 Y-31.267
X-2.813 Y-31.697
Y-31.744
X-2.833 Y-32.165
X-2.837 Y-32.214
X-2.883 Y-32.624
X-2.891 Y-32.675
X-2.964 Y-33.074
X-2.975 Y-33.126
X-3.074 Y-33.513
X-3.089 Y-33.565
X-3.214 Y-33.94
X-3.233 Y-33.991
X-3.384 Y-34.353
X-3.407 Y-34.403
X-3.583 Y-34.751
X-3.61 Y-34.799
X-3.81 Y-35.131
X-3.841 Y-35.178
X-4.065 Y-35.493
X-4.099 Y-35.538
X-4.346 Y-35.835
X-4.383 Y-35.877
X-4.652 Y-36.156
X-4.692 Y-36.195
X-4.983 Y-36.454
X-5.025 Y-36.489
X-5.336 Y-36.728
X-5.381 Y-36.76
X-5.711 Y-36.978
X-5.757 Y-37.006
X-6.107 Y-37.202
X-6.153 Y-37.226
X-6.521 Y-37.4
X-6.568 Y-37.42
X-6.953 Y-37.571
X-6.999 Y-37.587
X-7.401 Y-37.716
X-7.446 Y-37.728
X-7.864 Y-37.833
X-7.908 Y-37.843
X-8.342 Y-37.925
X-8.383 Y-37.932
X-8.833 Y-37.991
X-8.871 Y-37.995
X-9.336 Y-38.033
X-9.372 Y-38.035
X-9.852 Y-38.05
X-9.885
X-10.38 Y-38.044
X-10.41 Y-38.043
X-10.919 Y-38.016
X-10.946 Y-38.015
X-11.47 Y-37.968
X-11.495 Y-37.965
X-12.033 Y-37.9
X-12.055 Y-37.897
X-12.608 Y-37.812
X-12.618 Y-37.811
X-12.665 Y-37.81
X-12.71 Y-37.824
X-12.748 Y-37.852
X-12.776 Y-37.889
X-12.791 Y-37.934
X-12.816 Y-38.082
X-12.823 Y-38.128 Z-1.293
X-12.83 Y-38.169 Z-1.271
X-12.836 Y-38.201 Z-1.238
X-12.839 Y-38.223 Z-1.196
X-12.84 Y-38.23 Z-1.15
Z15
M5
M30
