(Top_3_175)
(Bearbeiten)
(  Hersteller: ChinaCnc)
(  model: 3040T)
(  description: Generic 3-axis)
(T5 D=3.175 CR=0 - ZMIN=-2.3 - Schaftfrser)
G90 G94
G17
G21
(When using Fusion 360 for Personal Use, the feedrate of)
(rapid moves is reduced to match the feedrate of cutting)
(moves, which can increase machining time. Unrestricted rapid)
(moves are available with a Fusion 360 Subscription.)

(Bohrfrsen6)
M0
(MANUAL TOOL CHANGE TO T5)
S6000 M3
G54
G0 X-68.081 Y-282.987
Z15
G1 Z1.683 F1000
Z0
Y-283.145
X-68.075 Y-283.176
X-68.057 Y-283.203
X-68.031 Y-283.22
X-68 Y-283.227
G3 X-68 Y-282.902 Z-0.061 I0 J0.163
X-68 Y-283.227 Z-0.122 I0 J-0.163
X-68 Y-282.902 Z-0.183 I0 J0.163
X-68 Y-283.227 Z-0.244 I0 J-0.163
X-68 Y-282.902 Z-0.306 I0 J0.163
X-68 Y-283.227 Z-0.367 I0 J-0.163
X-68 Y-282.902 Z-0.428 I0 J0.163
X-68 Y-283.227 Z-0.489 I0 J-0.163
X-68 Y-282.902 Z-0.55 I0 J0.163
X-68 Y-283.227 Z-0.611 I0 J-0.163
X-68 Y-282.902 Z-0.672 I0 J0.163
X-68 Y-283.227 Z-0.733 I0 J-0.163
X-68 Y-282.902 Z-0.794 I0 J0.163
X-68 Y-283.227 Z-0.856 I0 J-0.163
X-68 Y-282.902 Z-0.917 I0 J0.163
X-68 Y-283.227 Z-0.978 I0 J-0.163
X-68 Y-282.902 Z-1.039 I0 J0.163
X-68 Y-283.227 Z-1.1 I0 J-0.163
X-68 Y-282.902 Z-1.161 I0 J0.163
X-68 Y-283.227 Z-1.222 I0 J-0.163
X-68 Y-282.902 Z-1.283 I0 J0.163
X-68 Y-283.227 Z-1.344 I0 J-0.163
X-68 Y-282.902 Z-1.406 I0 J0.163
X-68 Y-283.227 Z-1.467 I0 J-0.163
X-68 Y-282.902 Z-1.528 I0 J0.163
X-68 Y-283.227 Z-1.589 I0 J-0.163
X-68 Y-282.902 Z-1.65 I0 J0.163
X-68 Y-283.227 Z-1.711 I0 J-0.163
X-68 Y-282.902 Z-1.772 I0 J0.163
X-68 Y-283.227 Z-1.833 I0 J-0.163
X-68 Y-282.902 Z-1.894 I0 J0.163
X-68 Y-283.227 Z-1.956 I0 J-0.163
X-68 Y-282.902 Z-2.017 I0 J0.163
X-68 Y-283.227 Z-2.078 I0 J-0.163
X-68 Y-282.902 Z-2.139 I0 J0.163
X-68 Y-283.227 Z-2.2 I0 J-0.162
X-68 Y-282.902 Z-2.261 I0 J0.162
X-68.148 Y-283.132 Z-2.3 I0 J-0.162
X-67.852 Y-282.997 I0.148 J0.067
X-68.148 Y-283.132 I-0.148 J-0.067
G1 X-68.129 Y-283.157
X-68.102 Y-283.174
X-68.071 Y-283.179
X-68.04 Y-283.172
X-67.896 Y-283.106
Z5
X-21.281 Y-191.008
Z1.683
Z0
Y-191.167
X-21.275 Y-191.198
X-21.257 Y-191.224
X-21.231 Y-191.242
X-21.2 Y-191.248
G3 X-21.2 Y-190.923 Z-0.061 I0 J0.162
X-21.2 Y-191.248 Z-0.122 I0 J-0.162
X-21.2 Y-190.923 Z-0.183 I0 J0.162
X-21.2 Y-191.248 Z-0.244 I0 J-0.162
X-21.2 Y-190.923 Z-0.306 I0 J0.162
X-21.2 Y-191.248 Z-0.367 I0 J-0.162
X-21.2 Y-190.923 Z-0.428 I0 J0.162
X-21.2 Y-191.248 Z-0.489 I0 J-0.162
X-21.2 Y-190.923 Z-0.55 I0 J0.162
X-21.2 Y-191.248 Z-0.611 I0 J-0.162
X-21.2 Y-190.923 Z-0.672 I0 J0.162
X-21.2 Y-191.248 Z-0.733 I0 J-0.162
X-21.2 Y-190.923 Z-0.794 I0 J0.162
X-21.2 Y-191.248 Z-0.856 I0 J-0.162
X-21.2 Y-190.923 Z-0.917 I0 J0.162
X-21.2 Y-191.248 Z-0.978 I0 J-0.162
X-21.2 Y-190.923 Z-1.039 I0 J0.162
X-21.2 Y-191.248 Z-1.1 I0 J-0.162
X-21.2 Y-190.923 Z-1.161 I0 J0.162
X-21.2 Y-191.248 Z-1.222 I0 J-0.162
X-21.2 Y-190.923 Z-1.283 I0 J0.162
X-21.2 Y-191.248 Z-1.344 I0 J-0.162
X-21.2 Y-190.923 Z-1.406 I0 J0.162
X-21.2 Y-191.248 Z-1.467 I0 J-0.162
X-21.2 Y-190.923 Z-1.528 I0 J0.162
X-21.2 Y-191.248 Z-1.589 I0 J-0.162
X-21.2 Y-190.923 Z-1.65 I0 J0.162
X-21.2 Y-191.248 Z-1.711 I0 J-0.162
X-21.2 Y-190.923 Z-1.772 I0 J0.162
X-21.2 Y-191.248 Z-1.833 I0 J-0.162
X-21.2 Y-190.923 Z-1.894 I0 J0.162
X-21.2 Y-191.248 Z-1.956 I0 J-0.162
X-21.2 Y-190.923 Z-2.017 I0 J0.162
X-21.2 Y-191.248 Z-2.078 I0 J-0.162
X-21.2 Y-190.923 Z-2.139 I0 J0.162
X-21.2 Y-191.248 Z-2.2 I0 J-0.162
X-21.2 Y-190.923 Z-2.261 I0 J0.162
X-21.348 Y-191.153 Z-2.3 I0 J-0.162
X-21.052 Y-191.018 I0.148 J0.067
X-21.348 Y-191.153 I-0.148 J-0.067
G1 X-21.329 Y-191.179
X-21.302 Y-191.195
X-21.271 Y-191.201
X-21.24 Y-191.193
X-21.096 Y-191.127
Z5
X-22.281 Y-165.923
Z1.683
Z0
Y-166.081
X-22.275 Y-166.112
X-22.257 Y-166.139
X-22.231 Y-166.156
X-22.2 Y-166.163
G3 X-22.2 Y-165.837 Z-0.061 I0 J0.163
X-22.2 Y-166.163 Z-0.122 I0 J-0.163
X-22.2 Y-165.837 Z-0.183 I0 J0.163
X-22.2 Y-166.163 Z-0.244 I0 J-0.163
X-22.2 Y-165.837 Z-0.306 I0 J0.163
X-22.2 Y-166.163 Z-0.367 I0 J-0.163
X-22.2 Y-165.837 Z-0.428 I0 J0.163
X-22.2 Y-166.163 Z-0.489 I0 J-0.163
X-22.2 Y-165.837 Z-0.55 I0 J0.163
X-22.2 Y-166.163 Z-0.611 I0 J-0.163
X-22.2 Y-165.837 Z-0.672 I0 J0.163
X-22.2 Y-166.163 Z-0.733 I0 J-0.163
X-22.2 Y-165.837 Z-0.794 I0 J0.163
X-22.2 Y-166.163 Z-0.856 I0 J-0.163
X-22.2 Y-165.837 Z-0.917 I0 J0.163
X-22.2 Y-166.163 Z-0.978 I0 J-0.163
X-22.2 Y-165.837 Z-1.039 I0 J0.163
X-22.2 Y-166.163 Z-1.1 I0 J-0.163
X-22.2 Y-165.837 Z-1.161 I0 J0.163
X-22.2 Y-166.163 Z-1.222 I0 J-0.163
X-22.2 Y-165.837 Z-1.283 I0 J0.163
X-22.2 Y-166.163 Z-1.344 I0 J-0.163
X-22.2 Y-165.837 Z-1.406 I0 J0.163
X-22.2 Y-166.163 Z-1.467 I0 J-0.163
X-22.2 Y-165.837 Z-1.528 I0 J0.163
X-22.2 Y-166.163 Z-1.589 I0 J-0.163
X-22.2 Y-165.837 Z-1.65 I0 J0.163
X-22.2 Y-166.163 Z-1.711 I0 J-0.163
X-22.2 Y-165.837 Z-1.772 I0 J0.163
X-22.2 Y-166.163 Z-1.833 I0 J-0.163
X-22.2 Y-165.837 Z-1.894 I0 J0.163
X-22.2 Y-166.163 Z-1.956 I0 J-0.163
X-22.2 Y-165.837 Z-2.017 I0 J0.163
X-22.2 Y-166.163 Z-2.078 I0 J-0.163
X-22.2 Y-165.837 Z-2.139 I0 J0.163
X-22.2 Y-166.163 Z-2.2 I0 J-0.163
X-22.2 Y-165.837 Z-2.261 I0 J0.163
X-22.348 Y-166.067 Z-2.3 I0 J-0.163
X-22.052 Y-165.933 I0.148 J0.067
X-22.348 Y-166.067 I-0.148 J-0.067
G1 X-22.329 Y-166.093
X-22.302 Y-166.11
X-22.271 Y-166.115
X-22.24 Y-166.108
X-22.096 Y-166.042
Z5
X-22.119 Y-134.077
Z1.683
Z0
Y-133.919
X-22.125 Y-133.888
X-22.143 Y-133.861
X-22.169 Y-133.844
X-22.2 Y-133.837
G3 X-22.2 Y-134.163 Z-0.061 I0 J-0.163
X-22.2 Y-133.837 Z-0.122 I0 J0.163
X-22.2 Y-134.163 Z-0.183 I0 J-0.163
X-22.2 Y-133.837 Z-0.244 I0 J0.163
X-22.2 Y-134.163 Z-0.306 I0 J-0.163
X-22.2 Y-133.837 Z-0.367 I0 J0.163
X-22.2 Y-134.163 Z-0.428 I0 J-0.163
X-22.2 Y-133.837 Z-0.489 I0 J0.163
X-22.2 Y-134.163 Z-0.55 I0 J-0.163
X-22.2 Y-133.837 Z-0.611 I0 J0.163
X-22.2 Y-134.163 Z-0.672 I0 J-0.163
X-22.2 Y-133.837 Z-0.733 I0 J0.163
X-22.2 Y-134.163 Z-0.794 I0 J-0.163
X-22.2 Y-133.837 Z-0.856 I0 J0.163
X-22.2 Y-134.163 Z-0.917 I0 J-0.163
X-22.2 Y-133.837 Z-0.978 I0 J0.163
X-22.2 Y-134.163 Z-1.039 I0 J-0.163
X-22.2 Y-133.837 Z-1.1 I0 J0.163
X-22.2 Y-134.163 Z-1.161 I0 J-0.163
X-22.2 Y-133.837 Z-1.222 I0 J0.163
X-22.2 Y-134.163 Z-1.283 I0 J-0.163
X-22.2 Y-133.837 Z-1.344 I0 J0.163
X-22.2 Y-134.163 Z-1.406 I0 J-0.163
X-22.2 Y-133.837 Z-1.467 I0 J0.163
X-22.2 Y-134.163 Z-1.528 I0 J-0.163
X-22.2 Y-133.837 Z-1.589 I0 J0.163
X-22.2 Y-134.163 Z-1.65 I0 J-0.163
X-22.2 Y-133.837 Z-1.711 I0 J0.163
X-22.2 Y-134.163 Z-1.772 I0 J-0.163
X-22.2 Y-133.837 Z-1.833 I0 J0.163
X-22.2 Y-134.163 Z-1.894 I0 J-0.163
X-22.2 Y-133.837 Z-1.956 I0 J0.163
X-22.2 Y-134.163 Z-2.017 I0 J-0.163
X-22.2 Y-133.837 Z-2.078 I0 J0.163
X-22.2 Y-134.163 Z-2.139 I0 J-0.163
X-22.2 Y-133.837 Z-2.2 I0 J0.163
X-22.2 Y-134.163 Z-2.261 I0 J-0.163
X-22.052 Y-133.933 Z-2.3 I0 J0.163
X-22.348 Y-134.067 I-0.148 J-0.067
X-22.052 Y-133.933 I0.148 J0.067
G1 X-22.071 Y-133.907
X-22.098 Y-133.89
X-22.129 Y-133.885
X-22.16 Y-133.892
X-22.304 Y-133.958
Z5
X-21.119 Y-108.992
Z1.683
Z0
Y-108.833
X-21.125 Y-108.802
X-21.143 Y-108.776
X-21.169 Y-108.758
X-21.2 Y-108.752
G3 X-21.2 Y-109.077 Z-0.061 I0 J-0.162
X-21.2 Y-108.752 Z-0.122 I0 J0.162
X-21.2 Y-109.077 Z-0.183 I0 J-0.162
X-21.2 Y-108.752 Z-0.244 I0 J0.162
X-21.2 Y-109.077 Z-0.306 I0 J-0.162
X-21.2 Y-108.752 Z-0.367 I0 J0.162
X-21.2 Y-109.077 Z-0.428 I0 J-0.162
X-21.2 Y-108.752 Z-0.489 I0 J0.162
X-21.2 Y-109.077 Z-0.55 I0 J-0.162
X-21.2 Y-108.752 Z-0.611 I0 J0.162
X-21.2 Y-109.077 Z-0.672 I0 J-0.162
X-21.2 Y-108.752 Z-0.733 I0 J0.162
X-21.2 Y-109.077 Z-0.794 I0 J-0.162
X-21.2 Y-108.752 Z-0.856 I0 J0.162
X-21.2 Y-109.077 Z-0.917 I0 J-0.162
X-21.2 Y-108.752 Z-0.978 I0 J0.162
X-21.2 Y-109.077 Z-1.039 I0 J-0.162
X-21.2 Y-108.752 Z-1.1 I0 J0.162
X-21.2 Y-109.077 Z-1.161 I0 J-0.162
X-21.2 Y-108.752 Z-1.222 I0 J0.162
X-21.2 Y-109.077 Z-1.283 I0 J-0.162
X-21.2 Y-108.752 Z-1.344 I0 J0.162
X-21.2 Y-109.077 Z-1.406 I0 J-0.162
X-21.2 Y-108.752 Z-1.467 I0 J0.162
X-21.2 Y-109.077 Z-1.528 I0 J-0.162
X-21.2 Y-108.752 Z-1.589 I0 J0.162
X-21.2 Y-109.077 Z-1.65 I0 J-0.162
X-21.2 Y-108.752 Z-1.711 I0 J0.162
X-21.2 Y-109.077 Z-1.772 I0 J-0.162
X-21.2 Y-108.752 Z-1.833 I0 J0.162
X-21.2 Y-109.077 Z-1.894 I0 J-0.162
X-21.2 Y-108.752 Z-1.956 I0 J0.162
X-21.2 Y-109.077 Z-2.017 I0 J-0.162
X-21.2 Y-108.752 Z-2.078 I0 J0.162
X-21.2 Y-109.077 Z-2.139 I0 J-0.162
X-21.2 Y-108.752 Z-2.2 I0 J0.162
X-21.2 Y-109.077 Z-2.261 I0 J-0.162
X-21.052 Y-108.847 Z-2.3 I0 J0.162
X-21.348 Y-108.982 I-0.148 J-0.067
X-21.052 Y-108.847 I0.148 J0.067
G1 X-21.071 Y-108.821
X-21.098 Y-108.805
X-21.129 Y-108.799
X-21.16 Y-108.807
X-21.304 Y-108.873
Z5
X-102.419 Y-134.077
Z1.683
Z0
Y-133.919
X-102.425 Y-133.888
X-102.443 Y-133.861
X-102.469 Y-133.844
X-102.5 Y-133.837
G3 X-102.5 Y-134.163 Z-0.061 I0 J-0.163
X-102.5 Y-133.837 Z-0.122 I0 J0.163
X-102.5 Y-134.163 Z-0.183 I0 J-0.163
X-102.5 Y-133.837 Z-0.244 I0 J0.163
X-102.5 Y-134.163 Z-0.306 I0 J-0.163
X-102.5 Y-133.837 Z-0.367 I0 J0.163
X-102.5 Y-134.163 Z-0.428 I0 J-0.163
X-102.5 Y-133.837 Z-0.489 I0 J0.163
X-102.5 Y-134.163 Z-0.55 I0 J-0.163
X-102.5 Y-133.837 Z-0.611 I0 J0.163
X-102.5 Y-134.163 Z-0.672 I0 J-0.163
X-102.5 Y-133.837 Z-0.733 I0 J0.163
X-102.5 Y-134.163 Z-0.794 I0 J-0.163
X-102.5 Y-133.837 Z-0.856 I0 J0.163
X-102.5 Y-134.163 Z-0.917 I0 J-0.163
X-102.5 Y-133.837 Z-0.978 I0 J0.163
X-102.5 Y-134.163 Z-1.039 I0 J-0.163
X-102.5 Y-133.837 Z-1.1 I0 J0.163
X-102.5 Y-134.163 Z-1.161 I0 J-0.163
X-102.5 Y-133.837 Z-1.222 I0 J0.163
X-102.5 Y-134.163 Z-1.283 I0 J-0.163
X-102.5 Y-133.837 Z-1.344 I0 J0.163
X-102.5 Y-134.163 Z-1.406 I0 J-0.163
X-102.5 Y-133.837 Z-1.467 I0 J0.163
X-102.5 Y-134.163 Z-1.528 I0 J-0.163
X-102.5 Y-133.837 Z-1.589 I0 J0.163
X-102.5 Y-134.163 Z-1.65 I0 J-0.163
X-102.5 Y-133.837 Z-1.711 I0 J0.163
X-102.5 Y-134.163 Z-1.772 I0 J-0.163
X-102.5 Y-133.837 Z-1.833 I0 J0.163
X-102.5 Y-134.163 Z-1.894 I0 J-0.163
X-102.5 Y-133.837 Z-1.956 I0 J0.163
X-102.5 Y-134.163 Z-2.017 I0 J-0.163
X-102.5 Y-133.837 Z-2.078 I0 J0.163
X-102.5 Y-134.162 Z-2.139 I0 J-0.163
X-102.5 Y-133.838 Z-2.2 I0 J0.162
X-102.5 Y-134.162 Z-2.261 I0 J-0.162
X-102.352 Y-133.933 Z-2.3 I0 J0.162
X-102.648 Y-134.067 I-0.148 J-0.067
X-102.352 Y-133.933 I0.148 J0.067
G1 X-102.371 Y-133.907
X-102.398 Y-133.89
X-102.429 Y-133.885
X-102.46 Y-133.892
X-102.604 Y-133.958
Z5
X-102.419 Y-166.077
Z1.683
Z0
Y-165.919
X-102.425 Y-165.888
X-102.443 Y-165.861
X-102.469 Y-165.844
X-102.5 Y-165.837
G3 X-102.5 Y-166.163 Z-0.061 I0 J-0.163
X-102.5 Y-165.837 Z-0.122 I0 J0.163
X-102.5 Y-166.163 Z-0.183 I0 J-0.163
X-102.5 Y-165.837 Z-0.244 I0 J0.163
X-102.5 Y-166.163 Z-0.306 I0 J-0.163
X-102.5 Y-165.837 Z-0.367 I0 J0.163
X-102.5 Y-166.163 Z-0.428 I0 J-0.163
X-102.5 Y-165.837 Z-0.489 I0 J0.163
X-102.5 Y-166.163 Z-0.55 I0 J-0.163
X-102.5 Y-165.837 Z-0.611 I0 J0.163
X-102.5 Y-166.163 Z-0.672 I0 J-0.163
X-102.5 Y-165.837 Z-0.733 I0 J0.163
X-102.5 Y-166.163 Z-0.794 I0 J-0.163
X-102.5 Y-165.837 Z-0.856 I0 J0.163
X-102.5 Y-166.163 Z-0.917 I0 J-0.163
X-102.5 Y-165.837 Z-0.978 I0 J0.163
X-102.5 Y-166.163 Z-1.039 I0 J-0.163
X-102.5 Y-165.837 Z-1.1 I0 J0.163
X-102.5 Y-166.163 Z-1.161 I0 J-0.163
X-102.5 Y-165.837 Z-1.222 I0 J0.163
X-102.5 Y-166.163 Z-1.283 I0 J-0.163
X-102.5 Y-165.837 Z-1.344 I0 J0.163
X-102.5 Y-166.163 Z-1.406 I0 J-0.163
X-102.5 Y-165.837 Z-1.467 I0 J0.163
X-102.5 Y-166.163 Z-1.528 I0 J-0.163
X-102.5 Y-165.837 Z-1.589 I0 J0.163
X-102.5 Y-166.163 Z-1.65 I0 J-0.163
X-102.5 Y-165.837 Z-1.711 I0 J0.163
X-102.5 Y-166.163 Z-1.772 I0 J-0.163
X-102.5 Y-165.837 Z-1.833 I0 J0.163
X-102.5 Y-166.163 Z-1.894 I0 J-0.163
X-102.5 Y-165.837 Z-1.956 I0 J0.163
X-102.5 Y-166.163 Z-2.017 I0 J-0.163
X-102.5 Y-165.837 Z-2.078 I0 J0.163
X-102.5 Y-166.162 Z-2.139 I0 J-0.163
X-102.5 Y-165.838 Z-2.2 I0 J0.162
X-102.5 Y-166.162 Z-2.261 I0 J-0.162
X-102.352 Y-165.933 Z-2.3 I0 J0.162
X-102.648 Y-166.067 I-0.148 J-0.067
X-102.352 Y-165.933 I0.148 J0.067
G1 X-102.371 Y-165.907
X-102.398 Y-165.89
X-102.429 Y-165.885
X-102.46 Y-165.892
X-102.604 Y-165.958
Z5
X-147.419 Y-166.077
Z1.683
Z0
Y-165.919
X-147.425 Y-165.888
X-147.443 Y-165.861
X-147.469 Y-165.844
X-147.5 Y-165.837
G3 X-147.5 Y-166.163 Z-0.061 I0 J-0.163
X-147.5 Y-165.837 Z-0.122 I0 J0.163
X-147.5 Y-166.163 Z-0.183 I0 J-0.163
X-147.5 Y-165.837 Z-0.244 I0 J0.163
X-147.5 Y-166.163 Z-0.306 I0 J-0.163
X-147.5 Y-165.837 Z-0.367 I0 J0.163
X-147.5 Y-166.163 Z-0.428 I0 J-0.163
X-147.5 Y-165.837 Z-0.489 I0 J0.163
X-147.5 Y-166.163 Z-0.55 I0 J-0.163
X-147.5 Y-165.837 Z-0.611 I0 J0.163
X-147.5 Y-166.163 Z-0.672 I0 J-0.163
X-147.5 Y-165.837 Z-0.733 I0 J0.163
X-147.5 Y-166.163 Z-0.794 I0 J-0.163
X-147.5 Y-165.837 Z-0.856 I0 J0.163
X-147.5 Y-166.163 Z-0.917 I0 J-0.163
X-147.5 Y-165.837 Z-0.978 I0 J0.163
X-147.5 Y-166.163 Z-1.039 I0 J-0.163
X-147.5 Y-165.837 Z-1.1 I0 J0.163
X-147.5 Y-166.163 Z-1.161 I0 J-0.163
X-147.5 Y-165.837 Z-1.222 I0 J0.163
X-147.5 Y-166.163 Z-1.283 I0 J-0.163
X-147.5 Y-165.837 Z-1.344 I0 J0.163
X-147.5 Y-166.163 Z-1.406 I0 J-0.163
X-147.5 Y-165.837 Z-1.467 I0 J0.163
X-147.5 Y-166.163 Z-1.528 I0 J-0.163
X-147.5 Y-165.837 Z-1.589 I0 J0.163
X-147.5 Y-166.163 Z-1.65 I0 J-0.163
X-147.5 Y-165.837 Z-1.711 I0 J0.163
X-147.5 Y-166.163 Z-1.772 I0 J-0.163
X-147.5 Y-165.837 Z-1.833 I0 J0.163
X-147.5 Y-166.163 Z-1.894 I0 J-0.163
X-147.5 Y-165.837 Z-1.956 I0 J0.163
X-147.5 Y-166.163 Z-2.017 I0 J-0.163
X-147.5 Y-165.837 Z-2.078 I0 J0.163
X-147.5 Y-166.162 Z-2.139 I0 J-0.163
X-147.5 Y-165.838 Z-2.2 I0 J0.162
X-147.5 Y-166.162 Z-2.261 I0 J-0.162
X-147.352 Y-165.933 Z-2.3 I0 J0.162
X-147.648 Y-166.067 I-0.148 J-0.067
X-147.352 Y-165.933 I0.148 J0.067
G1 X-147.371 Y-165.907
X-147.398 Y-165.89
X-147.429 Y-165.885
X-147.46 Y-165.892
X-147.604 Y-165.958
Z5
X-147.419 Y-134.077
Z1.683
Z0
Y-133.919
X-147.425 Y-133.888
X-147.443 Y-133.861
X-147.469 Y-133.844
X-147.5 Y-133.837
G3 X-147.5 Y-134.163 Z-0.061 I0 J-0.163
X-147.5 Y-133.837 Z-0.122 I0 J0.163
X-147.5 Y-134.163 Z-0.183 I0 J-0.163
X-147.5 Y-133.837 Z-0.244 I0 J0.163
X-147.5 Y-134.163 Z-0.306 I0 J-0.163
X-147.5 Y-133.837 Z-0.367 I0 J0.163
X-147.5 Y-134.163 Z-0.428 I0 J-0.163
X-147.5 Y-133.837 Z-0.489 I0 J0.163
X-147.5 Y-134.163 Z-0.55 I0 J-0.163
X-147.5 Y-133.837 Z-0.611 I0 J0.163
X-147.5 Y-134.163 Z-0.672 I0 J-0.163
X-147.5 Y-133.837 Z-0.733 I0 J0.163
X-147.5 Y-134.163 Z-0.794 I0 J-0.163
X-147.5 Y-133.837 Z-0.856 I0 J0.163
X-147.5 Y-134.163 Z-0.917 I0 J-0.163
X-147.5 Y-133.837 Z-0.978 I0 J0.163
X-147.5 Y-134.163 Z-1.039 I0 J-0.163
X-147.5 Y-133.837 Z-1.1 I0 J0.163
X-147.5 Y-134.163 Z-1.161 I0 J-0.163
X-147.5 Y-133.837 Z-1.222 I0 J0.163
X-147.5 Y-134.163 Z-1.283 I0 J-0.163
X-147.5 Y-133.837 Z-1.344 I0 J0.163
X-147.5 Y-134.163 Z-1.406 I0 J-0.163
X-147.5 Y-133.837 Z-1.467 I0 J0.163
X-147.5 Y-134.163 Z-1.528 I0 J-0.163
X-147.5 Y-133.837 Z-1.589 I0 J0.163
X-147.5 Y-134.163 Z-1.65 I0 J-0.163
X-147.5 Y-133.837 Z-1.711 I0 J0.163
X-147.5 Y-134.163 Z-1.772 I0 J-0.163
X-147.5 Y-133.837 Z-1.833 I0 J0.163
X-147.5 Y-134.163 Z-1.894 I0 J-0.163
X-147.5 Y-133.837 Z-1.956 I0 J0.163
X-147.5 Y-134.163 Z-2.017 I0 J-0.163
X-147.5 Y-133.837 Z-2.078 I0 J0.163
X-147.5 Y-134.162 Z-2.139 I0 J-0.163
X-147.5 Y-133.838 Z-2.2 I0 J0.162
X-147.5 Y-134.162 Z-2.261 I0 J-0.162
X-147.352 Y-133.933 Z-2.3 I0 J0.162
X-147.648 Y-134.067 I-0.148 J-0.067
X-147.352 Y-133.933 I0.148 J0.067
G1 X-147.371 Y-133.907
X-147.398 Y-133.89
X-147.429 Y-133.885
X-147.46 Y-133.892
X-147.604 Y-133.958
Z5
X-228.719 Y-108.992
Z1.683
Z0
Y-108.833
X-228.725 Y-108.802
X-228.743 Y-108.776
X-228.769 Y-108.758
X-228.8 Y-108.752
G3 X-228.8 Y-109.077 Z-0.061 I0 J-0.162
X-228.8 Y-108.752 Z-0.122 I0 J0.162
X-228.8 Y-109.077 Z-0.183 I0 J-0.162
X-228.8 Y-108.752 Z-0.244 I0 J0.162
X-228.8 Y-109.077 Z-0.306 I0 J-0.162
X-228.8 Y-108.752 Z-0.367 I0 J0.162
X-228.8 Y-109.077 Z-0.428 I0 J-0.162
X-228.8 Y-108.752 Z-0.489 I0 J0.162
X-228.8 Y-109.077 Z-0.55 I0 J-0.162
X-228.8 Y-108.752 Z-0.611 I0 J0.162
X-228.8 Y-109.077 Z-0.672 I0 J-0.162
X-228.8 Y-108.752 Z-0.733 I0 J0.162
X-228.8 Y-109.077 Z-0.794 I0 J-0.162
X-228.8 Y-108.752 Z-0.856 I0 J0.162
X-228.8 Y-109.077 Z-0.917 I0 J-0.162
X-228.8 Y-108.752 Z-0.978 I0 J0.162
X-228.8 Y-109.077 Z-1.039 I0 J-0.162
X-228.8 Y-108.752 Z-1.1 I0 J0.162
X-228.8 Y-109.077 Z-1.161 I0 J-0.162
X-228.8 Y-108.752 Z-1.222 I0 J0.162
X-228.8 Y-109.077 Z-1.283 I0 J-0.162
X-228.8 Y-108.752 Z-1.344 I0 J0.162
X-228.8 Y-109.077 Z-1.406 I0 J-0.162
X-228.8 Y-108.752 Z-1.467 I0 J0.162
X-228.8 Y-109.077 Z-1.528 I0 J-0.162
X-228.8 Y-108.752 Z-1.589 I0 J0.162
X-228.8 Y-109.077 Z-1.65 I0 J-0.162
X-228.8 Y-108.752 Z-1.711 I0 J0.162
X-228.8 Y-109.077 Z-1.772 I0 J-0.162
X-228.8 Y-108.752 Z-1.833 I0 J0.162
X-228.8 Y-109.077 Z-1.894 I0 J-0.162
X-228.8 Y-108.752 Z-1.956 I0 J0.162
X-228.8 Y-109.077 Z-2.017 I0 J-0.162
X-228.8 Y-108.752 Z-2.078 I0 J0.162
X-228.8 Y-109.077 Z-2.139 I0 J-0.162
X-228.8 Y-108.752 Z-2.2 I0 J0.162
X-228.8 Y-109.077 Z-2.261 I0 J-0.162
X-228.652 Y-108.847 Z-2.3 I0 J0.162
X-228.948 Y-108.982 I-0.148 J-0.067
X-228.652 Y-108.847 I0.148 J0.067
G1 X-228.671 Y-108.821
X-228.698 Y-108.805
X-228.729 Y-108.799
X-228.76 Y-108.807
X-228.904 Y-108.873
Z5
X-227.719 Y-134.077
Z1.683
Z0
Y-133.919
X-227.725 Y-133.888
X-227.743 Y-133.861
X-227.769 Y-133.844
X-227.8 Y-133.837
G3 X-227.8 Y-134.163 Z-0.061 I0 J-0.163
X-227.8 Y-133.837 Z-0.122 I0 J0.163
X-227.8 Y-134.163 Z-0.183 I0 J-0.163
X-227.8 Y-133.837 Z-0.244 I0 J0.163
X-227.8 Y-134.163 Z-0.306 I0 J-0.163
X-227.8 Y-133.837 Z-0.367 I0 J0.163
X-227.8 Y-134.163 Z-0.428 I0 J-0.163
X-227.8 Y-133.837 Z-0.489 I0 J0.163
X-227.8 Y-134.163 Z-0.55 I0 J-0.163
X-227.8 Y-133.837 Z-0.611 I0 J0.163
X-227.8 Y-134.163 Z-0.672 I0 J-0.163
X-227.8 Y-133.837 Z-0.733 I0 J0.163
X-227.8 Y-134.163 Z-0.794 I0 J-0.163
X-227.8 Y-133.837 Z-0.856 I0 J0.163
X-227.8 Y-134.163 Z-0.917 I0 J-0.163
X-227.8 Y-133.837 Z-0.978 I0 J0.163
X-227.8 Y-134.163 Z-1.039 I0 J-0.163
X-227.8 Y-133.837 Z-1.1 I0 J0.163
X-227.8 Y-134.163 Z-1.161 I0 J-0.163
X-227.8 Y-133.837 Z-1.222 I0 J0.163
X-227.8 Y-134.163 Z-1.283 I0 J-0.163
X-227.8 Y-133.837 Z-1.344 I0 J0.163
X-227.8 Y-134.163 Z-1.406 I0 J-0.163
X-227.8 Y-133.837 Z-1.467 I0 J0.163
X-227.8 Y-134.163 Z-1.528 I0 J-0.163
X-227.8 Y-133.837 Z-1.589 I0 J0.163
X-227.8 Y-134.163 Z-1.65 I0 J-0.163
X-227.8 Y-133.837 Z-1.711 I0 J0.163
X-227.8 Y-134.163 Z-1.772 I0 J-0.163
X-227.8 Y-133.837 Z-1.833 I0 J0.163
X-227.8 Y-134.163 Z-1.894 I0 J-0.163
X-227.8 Y-133.837 Z-1.956 I0 J0.163
X-227.8 Y-134.163 Z-2.017 I0 J-0.163
X-227.8 Y-133.837 Z-2.078 I0 J0.163
X-227.8 Y-134.162 Z-2.139 I0 J-0.163
X-227.8 Y-133.838 Z-2.2 I0 J0.162
X-227.8 Y-134.162 Z-2.261 I0 J-0.162
X-227.652 Y-133.933 Z-2.3 I0 J0.162
X-227.948 Y-134.067 I-0.148 J-0.067
X-227.652 Y-133.933 I0.148 J0.067
G1 X-227.671 Y-133.907
X-227.698 Y-133.89
X-227.729 Y-133.885
X-227.76 Y-133.892
X-227.904 Y-133.958
Z5
X-194.719 Y-137.577
Z1.683
Z0
Y-137.419
X-194.725 Y-137.388
X-194.743 Y-137.361
X-194.769 Y-137.344
X-194.8 Y-137.337
G3 X-194.8 Y-137.663 Z-0.061 I0 J-0.163
X-194.8 Y-137.337 Z-0.122 I0 J0.163
X-194.8 Y-137.663 Z-0.183 I0 J-0.163
X-194.8 Y-137.337 Z-0.244 I0 J0.163
X-194.8 Y-137.663 Z-0.306 I0 J-0.163
X-194.8 Y-137.337 Z-0.367 I0 J0.163
X-194.8 Y-137.663 Z-0.428 I0 J-0.163
X-194.8 Y-137.337 Z-0.489 I0 J0.163
X-194.8 Y-137.663 Z-0.55 I0 J-0.163
X-194.8 Y-137.337 Z-0.611 I0 J0.163
X-194.8 Y-137.663 Z-0.672 I0 J-0.163
X-194.8 Y-137.337 Z-0.733 I0 J0.163
X-194.8 Y-137.663 Z-0.794 I0 J-0.163
X-194.8 Y-137.337 Z-0.856 I0 J0.163
X-194.8 Y-137.663 Z-0.917 I0 J-0.163
X-194.8 Y-137.337 Z-0.978 I0 J0.163
X-194.8 Y-137.663 Z-1.039 I0 J-0.163
X-194.8 Y-137.337 Z-1.1 I0 J0.163
X-194.8 Y-137.663 Z-1.161 I0 J-0.163
X-194.8 Y-137.337 Z-1.222 I0 J0.163
X-194.8 Y-137.663 Z-1.283 I0 J-0.163
X-194.8 Y-137.337 Z-1.344 I0 J0.163
X-194.8 Y-137.663 Z-1.406 I0 J-0.163
X-194.8 Y-137.337 Z-1.467 I0 J0.163
X-194.8 Y-137.663 Z-1.528 I0 J-0.163
X-194.8 Y-137.337 Z-1.589 I0 J0.163
X-194.8 Y-137.663 Z-1.65 I0 J-0.163
X-194.8 Y-137.337 Z-1.711 I0 J0.163
X-194.8 Y-137.663 Z-1.772 I0 J-0.163
X-194.8 Y-137.337 Z-1.833 I0 J0.163
X-194.8 Y-137.663 Z-1.894 I0 J-0.163
X-194.8 Y-137.337 Z-1.956 I0 J0.163
X-194.8 Y-137.663 Z-2.017 I0 J-0.163
X-194.8 Y-137.337 Z-2.078 I0 J0.163
X-194.8 Y-137.662 Z-2.139 I0 J-0.163
X-194.8 Y-137.338 Z-2.2 I0 J0.162
X-194.8 Y-137.662 Z-2.261 I0 J-0.162
X-194.652 Y-137.433 Z-2.3 I0 J0.162
X-194.948 Y-137.567 I-0.148 J-0.067
X-194.652 Y-137.433 I0.148 J0.067
G1 X-194.671 Y-137.407
X-194.698 Y-137.39
X-194.729 Y-137.385
X-194.76 Y-137.392
X-194.904 Y-137.458
Z5
X-194.719 Y-162.577
Z1.683
Z0
Y-162.419
X-194.725 Y-162.388
X-194.743 Y-162.361
X-194.769 Y-162.344
X-194.8 Y-162.337
G3 X-194.8 Y-162.663 Z-0.061 I0 J-0.163
X-194.8 Y-162.337 Z-0.122 I0 J0.163
X-194.8 Y-162.663 Z-0.183 I0 J-0.163
X-194.8 Y-162.337 Z-0.244 I0 J0.163
X-194.8 Y-162.663 Z-0.306 I0 J-0.163
X-194.8 Y-162.337 Z-0.367 I0 J0.163
X-194.8 Y-162.663 Z-0.428 I0 J-0.163
X-194.8 Y-162.337 Z-0.489 I0 J0.163
X-194.8 Y-162.663 Z-0.55 I0 J-0.163
X-194.8 Y-162.337 Z-0.611 I0 J0.163
X-194.8 Y-162.663 Z-0.672 I0 J-0.163
X-194.8 Y-162.337 Z-0.733 I0 J0.163
X-194.8 Y-162.663 Z-0.794 I0 J-0.163
X-194.8 Y-162.337 Z-0.856 I0 J0.163
X-194.8 Y-162.663 Z-0.917 I0 J-0.163
X-194.8 Y-162.337 Z-0.978 I0 J0.163
X-194.8 Y-162.663 Z-1.039 I0 J-0.163
X-194.8 Y-162.337 Z-1.1 I0 J0.163
X-194.8 Y-162.663 Z-1.161 I0 J-0.163
X-194.8 Y-162.337 Z-1.222 I0 J0.163
X-194.8 Y-162.663 Z-1.283 I0 J-0.163
X-194.8 Y-162.337 Z-1.344 I0 J0.163
X-194.8 Y-162.663 Z-1.406 I0 J-0.163
X-194.8 Y-162.337 Z-1.467 I0 J0.163
X-194.8 Y-162.663 Z-1.528 I0 J-0.163
X-194.8 Y-162.337 Z-1.589 I0 J0.163
X-194.8 Y-162.663 Z-1.65 I0 J-0.163
X-194.8 Y-162.337 Z-1.711 I0 J0.163
X-194.8 Y-162.663 Z-1.772 I0 J-0.163
X-194.8 Y-162.337 Z-1.833 I0 J0.163
X-194.8 Y-162.663 Z-1.894 I0 J-0.163
X-194.8 Y-162.337 Z-1.956 I0 J0.163
X-194.8 Y-162.663 Z-2.017 I0 J-0.163
X-194.8 Y-162.337 Z-2.078 I0 J0.163
X-194.8 Y-162.662 Z-2.139 I0 J-0.163
X-194.8 Y-162.338 Z-2.2 I0 J0.162
X-194.8 Y-162.662 Z-2.261 I0 J-0.162
X-194.652 Y-162.433 Z-2.3 I0 J0.162
X-194.948 Y-162.567 I-0.148 J-0.067
X-194.652 Y-162.433 I0.148 J0.067
G1 X-194.671 Y-162.407
X-194.698 Y-162.39
X-194.729 Y-162.385
X-194.76 Y-162.392
X-194.904 Y-162.458
Z5
X-227.881 Y-165.923
Z1.683
Z0
Y-166.081
X-227.875 Y-166.112
X-227.857 Y-166.139
X-227.831 Y-166.156
X-227.8 Y-166.163
G3 X-227.8 Y-165.837 Z-0.061 I0 J0.163
X-227.8 Y-166.163 Z-0.122 I0 J-0.163
X-227.8 Y-165.837 Z-0.183 I0 J0.163
X-227.8 Y-166.163 Z-0.244 I0 J-0.163
X-227.8 Y-165.837 Z-0.306 I0 J0.163
X-227.8 Y-166.163 Z-0.367 I0 J-0.163
X-227.8 Y-165.837 Z-0.428 I0 J0.163
X-227.8 Y-166.163 Z-0.489 I0 J-0.163
X-227.8 Y-165.837 Z-0.55 I0 J0.163
X-227.8 Y-166.163 Z-0.611 I0 J-0.163
X-227.8 Y-165.837 Z-0.672 I0 J0.163
X-227.8 Y-166.163 Z-0.733 I0 J-0.163
X-227.8 Y-165.837 Z-0.794 I0 J0.163
X-227.8 Y-166.163 Z-0.856 I0 J-0.163
X-227.8 Y-165.837 Z-0.917 I0 J0.163
X-227.8 Y-166.163 Z-0.978 I0 J-0.163
X-227.8 Y-165.837 Z-1.039 I0 J0.163
X-227.8 Y-166.163 Z-1.1 I0 J-0.163
X-227.8 Y-165.837 Z-1.161 I0 J0.163
X-227.8 Y-166.163 Z-1.222 I0 J-0.163
X-227.8 Y-165.837 Z-1.283 I0 J0.163
X-227.8 Y-166.163 Z-1.344 I0 J-0.163
X-227.8 Y-165.837 Z-1.406 I0 J0.163
X-227.8 Y-166.163 Z-1.467 I0 J-0.163
X-227.8 Y-165.837 Z-1.528 I0 J0.163
X-227.8 Y-166.163 Z-1.589 I0 J-0.163
X-227.8 Y-165.837 Z-1.65 I0 J0.163
X-227.8 Y-166.163 Z-1.711 I0 J-0.163
X-227.8 Y-165.837 Z-1.772 I0 J0.163
X-227.8 Y-166.163 Z-1.833 I0 J-0.163
X-227.8 Y-165.837 Z-1.894 I0 J0.163
X-227.8 Y-166.163 Z-1.956 I0 J-0.163
X-227.8 Y-165.837 Z-2.017 I0 J0.163
X-227.8 Y-166.163 Z-2.078 I0 J-0.163
X-227.8 Y-165.838 Z-2.139 I0 J0.163
X-227.8 Y-166.162 Z-2.2 I0 J-0.162
X-227.8 Y-165.838 Z-2.261 I0 J0.162
X-227.948 Y-166.067 Z-2.3 I0 J-0.162
X-227.652 Y-165.933 I0.148 J0.067
X-227.948 Y-166.067 I-0.148 J-0.067
G1 X-227.929 Y-166.093
X-227.902 Y-166.11
X-227.871 Y-166.115
X-227.84 Y-166.108
X-227.696 Y-166.042
Z5
X-228.881 Y-191.008
Z1.683
Z0
Y-191.167
X-228.875 Y-191.198
X-228.857 Y-191.224
X-228.831 Y-191.242
X-228.8 Y-191.248
G3 X-228.8 Y-190.923 Z-0.061 I0 J0.162
X-228.8 Y-191.248 Z-0.122 I0 J-0.162
X-228.8 Y-190.923 Z-0.183 I0 J0.162
X-228.8 Y-191.248 Z-0.244 I0 J-0.162
X-228.8 Y-190.923 Z-0.306 I0 J0.162
X-228.8 Y-191.248 Z-0.367 I0 J-0.162
X-228.8 Y-190.923 Z-0.428 I0 J0.162
X-228.8 Y-191.248 Z-0.489 I0 J-0.162
X-228.8 Y-190.923 Z-0.55 I0 J0.162
X-228.8 Y-191.248 Z-0.611 I0 J-0.162
X-228.8 Y-190.923 Z-0.672 I0 J0.162
X-228.8 Y-191.248 Z-0.733 I0 J-0.162
X-228.8 Y-190.923 Z-0.794 I0 J0.162
X-228.8 Y-191.248 Z-0.856 I0 J-0.162
X-228.8 Y-190.923 Z-0.917 I0 J0.162
X-228.8 Y-191.248 Z-0.978 I0 J-0.162
X-228.8 Y-190.923 Z-1.039 I0 J0.162
X-228.8 Y-191.248 Z-1.1 I0 J-0.162
X-228.8 Y-190.923 Z-1.161 I0 J0.162
X-228.8 Y-191.248 Z-1.222 I0 J-0.162
X-228.8 Y-190.923 Z-1.283 I0 J0.162
X-228.8 Y-191.248 Z-1.344 I0 J-0.162
X-228.8 Y-190.923 Z-1.406 I0 J0.162
X-228.8 Y-191.248 Z-1.467 I0 J-0.162
X-228.8 Y-190.923 Z-1.528 I0 J0.162
X-228.8 Y-191.248 Z-1.589 I0 J-0.162
X-228.8 Y-190.923 Z-1.65 I0 J0.162
X-228.8 Y-191.248 Z-1.711 I0 J-0.162
X-228.8 Y-190.923 Z-1.772 I0 J0.162
X-228.8 Y-191.248 Z-1.833 I0 J-0.162
X-228.8 Y-190.923 Z-1.894 I0 J0.162
X-228.8 Y-191.248 Z-1.956 I0 J-0.162
X-228.8 Y-190.923 Z-2.017 I0 J0.162
X-228.8 Y-191.248 Z-2.078 I0 J-0.162
X-228.8 Y-190.923 Z-2.139 I0 J0.162
X-228.8 Y-191.248 Z-2.2 I0 J-0.162
X-228.8 Y-190.923 Z-2.261 I0 J0.162
X-228.948 Y-191.153 Z-2.3 I0 J-0.162
X-228.652 Y-191.018 I0.148 J0.067
X-228.948 Y-191.153 I-0.148 J-0.067
G1 X-228.929 Y-191.179
X-228.902 Y-191.195
X-228.871 Y-191.201
X-228.84 Y-191.193
X-228.696 Y-191.127
Z5
X-182.081 Y-282.987
Z1.683
Z0
Y-283.145
X-182.075 Y-283.176
X-182.057 Y-283.203
X-182.031 Y-283.22
X-182 Y-283.227
G3 X-182 Y-282.902 Z-0.061 I0 J0.163
X-182 Y-283.227 Z-0.122 I0 J-0.163
X-182 Y-282.902 Z-0.183 I0 J0.163
X-182 Y-283.227 Z-0.244 I0 J-0.163
X-182 Y-282.902 Z-0.306 I0 J0.163
X-182 Y-283.227 Z-0.367 I0 J-0.163
X-182 Y-282.902 Z-0.428 I0 J0.163
X-182 Y-283.227 Z-0.489 I0 J-0.163
X-182 Y-282.902 Z-0.55 I0 J0.163
X-182 Y-283.227 Z-0.611 I0 J-0.163
X-182 Y-282.902 Z-0.672 I0 J0.163
X-182 Y-283.227 Z-0.733 I0 J-0.163
X-182 Y-282.902 Z-0.794 I0 J0.163
X-182 Y-283.227 Z-0.856 I0 J-0.163
X-182 Y-282.902 Z-0.917 I0 J0.163
X-182 Y-283.227 Z-0.978 I0 J-0.163
X-182 Y-282.902 Z-1.039 I0 J0.163
X-182 Y-283.227 Z-1.1 I0 J-0.163
X-182 Y-282.902 Z-1.161 I0 J0.163
X-182 Y-283.227 Z-1.222 I0 J-0.163
X-182 Y-282.902 Z-1.283 I0 J0.163
X-182 Y-283.227 Z-1.344 I0 J-0.163
X-182 Y-282.902 Z-1.406 I0 J0.163
X-182 Y-283.227 Z-1.467 I0 J-0.163
X-182 Y-282.902 Z-1.528 I0 J0.163
X-182 Y-283.227 Z-1.589 I0 J-0.163
X-182 Y-282.902 Z-1.65 I0 J0.163
X-182 Y-283.227 Z-1.711 I0 J-0.163
X-182 Y-282.902 Z-1.772 I0 J0.163
X-182 Y-283.227 Z-1.833 I0 J-0.163
X-182 Y-282.902 Z-1.894 I0 J0.163
X-182 Y-283.227 Z-1.956 I0 J-0.163
X-182 Y-282.902 Z-2.017 I0 J0.163
X-182 Y-283.227 Z-2.078 I0 J-0.163
X-182 Y-282.902 Z-2.139 I0 J0.163
X-182 Y-283.227 Z-2.2 I0 J-0.162
X-182 Y-282.902 Z-2.261 I0 J0.162
X-182.148 Y-283.132 Z-2.3 I0 J-0.162
X-181.852 Y-282.997 I0.148 J0.067
X-182.148 Y-283.132 I-0.148 J-0.067
G1 X-182.129 Y-283.157
X-182.102 Y-283.174
X-182.071 Y-283.179
X-182.04 Y-283.172
X-181.896 Y-283.106
Z5
X-181.919 Y-17.013
Z1.683
Z0
Y-16.855
X-181.925 Y-16.824
X-181.943 Y-16.797
X-181.969 Y-16.78
X-182 Y-16.773
G3 X-182 Y-17.098 Z-0.061 I0 J-0.163
X-182 Y-16.773 Z-0.122 I0 J0.163
X-182 Y-17.098 Z-0.183 I0 J-0.163
X-182 Y-16.773 Z-0.244 I0 J0.163
X-182 Y-17.098 Z-0.306 I0 J-0.162
X-182 Y-16.773 Z-0.367 I0 J0.162
X-182 Y-17.098 Z-0.428 I0 J-0.162
X-182 Y-16.773 Z-0.489 I0 J0.162
X-182 Y-17.098 Z-0.55 I0 J-0.162
X-182 Y-16.773 Z-0.611 I0 J0.162
X-182 Y-17.098 Z-0.672 I0 J-0.162
X-182 Y-16.773 Z-0.733 I0 J0.162
X-182 Y-17.098 Z-0.794 I0 J-0.162
X-182 Y-16.773 Z-0.856 I0 J0.162
X-182 Y-17.098 Z-0.917 I0 J-0.162
X-182 Y-16.773 Z-0.978 I0 J0.162
X-182 Y-17.098 Z-1.039 I0 J-0.162
X-182 Y-16.773 Z-1.1 I0 J0.162
X-182 Y-17.098 Z-1.161 I0 J-0.162
X-182 Y-16.773 Z-1.222 I0 J0.162
X-182 Y-17.098 Z-1.283 I0 J-0.162
X-182 Y-16.773 Z-1.344 I0 J0.162
X-182 Y-17.098 Z-1.406 I0 J-0.162
X-182 Y-16.773 Z-1.467 I0 J0.162
X-182 Y-17.098 Z-1.528 I0 J-0.162
X-182 Y-16.773 Z-1.589 I0 J0.162
X-182 Y-17.098 Z-1.65 I0 J-0.162
X-182 Y-16.773 Z-1.711 I0 J0.162
X-182 Y-17.098 Z-1.772 I0 J-0.162
X-182 Y-16.773 Z-1.833 I0 J0.162
X-182 Y-17.098 Z-1.894 I0 J-0.162
X-182 Y-16.773 Z-1.956 I0 J0.162
X-182 Y-17.098 Z-2.017 I0 J-0.162
X-182 Y-16.773 Z-2.078 I0 J0.162
X-182 Y-17.098 Z-2.139 I0 J-0.162
X-182 Y-16.773 Z-2.2 I0 J0.162
X-182 Y-17.098 Z-2.261 I0 J-0.162
X-181.852 Y-16.868 Z-2.3 I0 J0.162
X-182.148 Y-17.003 I-0.148 J-0.067
X-181.852 Y-16.868 I0.148 J0.067
G1 X-181.871 Y-16.843
X-181.898 Y-16.826
X-181.929 Y-16.821
X-181.96 Y-16.828
X-182.104 Y-16.894
Z5
X-67.919 Y-17.013
Z1.683
Z0
Y-16.855
X-67.925 Y-16.824
X-67.943 Y-16.797
X-67.969 Y-16.78
X-68 Y-16.773
G3 X-68 Y-17.098 Z-0.061 I0 J-0.163
X-68 Y-16.773 Z-0.122 I0 J0.163
X-68 Y-17.098 Z-0.183 I0 J-0.163
X-68 Y-16.773 Z-0.244 I0 J0.163
X-68 Y-17.098 Z-0.306 I0 J-0.162
X-68 Y-16.773 Z-0.367 I0 J0.162
X-68 Y-17.098 Z-0.428 I0 J-0.162
X-68 Y-16.773 Z-0.489 I0 J0.162
X-68 Y-17.098 Z-0.55 I0 J-0.162
X-68 Y-16.773 Z-0.611 I0 J0.162
X-68 Y-17.098 Z-0.672 I0 J-0.162
X-68 Y-16.773 Z-0.733 I0 J0.162
X-68 Y-17.098 Z-0.794 I0 J-0.162
X-68 Y-16.773 Z-0.856 I0 J0.162
X-68 Y-17.098 Z-0.917 I0 J-0.162
X-68 Y-16.773 Z-0.978 I0 J0.162
X-68 Y-17.098 Z-1.039 I0 J-0.162
X-68 Y-16.773 Z-1.1 I0 J0.162
X-68 Y-17.098 Z-1.161 I0 J-0.162
X-68 Y-16.773 Z-1.222 I0 J0.162
X-68 Y-17.098 Z-1.283 I0 J-0.162
X-68 Y-16.773 Z-1.344 I0 J0.162
X-68 Y-17.098 Z-1.406 I0 J-0.162
X-68 Y-16.773 Z-1.467 I0 J0.162
X-68 Y-17.098 Z-1.528 I0 J-0.162
X-68 Y-16.773 Z-1.589 I0 J0.162
X-68 Y-17.098 Z-1.65 I0 J-0.162
X-68 Y-16.773 Z-1.711 I0 J0.162
X-68 Y-17.098 Z-1.772 I0 J-0.162
X-68 Y-16.773 Z-1.833 I0 J0.162
X-68 Y-17.098 Z-1.894 I0 J-0.162
X-68 Y-16.773 Z-1.956 I0 J0.162
X-68 Y-17.098 Z-2.017 I0 J-0.162
X-68 Y-16.773 Z-2.078 I0 J0.162
X-68 Y-17.098 Z-2.139 I0 J-0.162
X-68 Y-16.773 Z-2.2 I0 J0.162
X-68 Y-17.098 Z-2.261 I0 J-0.162
X-67.852 Y-16.868 Z-2.3 I0 J0.162
X-68.148 Y-17.003 I-0.148 J-0.067
X-67.852 Y-16.868 I0.148 J0.067
G1 X-67.871 Y-16.843
X-67.898 Y-16.826
X-67.929 Y-16.821
X-67.96 Y-16.828
X-68.104 Y-16.894
Z15
(When using Fusion 360 for Personal Use, the feedrate of)
(rapid moves is reduced to match the feedrate of cutting)
(moves, which can increase machining time. Unrestricted rapid)
(moves are available with a Fusion 360 Subscription.)

(2D-Kontur10)
G0 X-139.54 Y-160.068
G1 Z15 F1000
Z5
Z2 F333.3
Z-0.683
G18 G2 X-139.223 Z-1 I0.317 K0 F1000
G1 X-138.905
G17 G3 X-138.587 Y-159.75 I0 J0.318
G1 Y-138.587
X-141.913
Y-161.413
X-138.587
Y-159.75
G3 X-138.905 Y-159.432 I-0.318 J0
G1 X-139.223
G18 G3 X-139.54 Z-0.683 I0 K0.317
G1 Z5
Y-160.068
Z1 F333.3
Z-1.683
G2 X-139.223 Z-2 I0.317 K0 F1000
G1 X-138.905
G17 G3 X-138.587 Y-159.75 I0 J0.318
G1 Y-138.587
X-141.913
Y-161.413
X-138.587
Y-159.75
G3 X-138.905 Y-159.432 I-0.318 J0
G1 X-139.223
G18 G3 X-139.54 Z-1.683 I0 K0.317
G1 Z5
Y-160.068
Z0 F333.3
Z-1.983
G2 X-139.223 Z-2.3 I0.317 K0 F1000
G1 X-138.905
G17 G3 X-138.587 Y-159.75 I0 J0.318
G1 Y-138.587
X-141.913
Y-161.413
X-138.587
Y-159.75
G3 X-138.905 Y-159.432 I-0.318 J0
G1 X-139.223
G18 G3 X-139.54 Z-1.983 I0 K0.317
G1 Z5
X-155.04 Y-150.318
Z2 F333.3
Z-0.683
G2 X-154.723 Z-1 I0.317 K0 F1000
G1 X-154.405
G17 G3 X-154.087 Y-150 I0 J0.318
G1 Y-132.334
G2 X-180.413 Y-138.768 I-27.912 J57.134
G1 Y-161.232
G2 X-154.087 Y-167.666 I-1.587 J-63.568
G1 Y-150
G3 X-154.405 Y-149.682 I-0.318 J0
G1 X-154.723
G18 G3 X-155.04 Z-0.683 I0 K0.317
G1 Z5
Y-150.318
Z1 F333.3
Z-1.683
G2 X-154.723 Z-2 I0.317 K0 F1000
G1 X-154.405
G17 G3 X-154.087 Y-150 I0 J0.318
G1 Y-132.334
G2 X-180.413 Y-138.768 I-27.912 J57.134
G1 Y-161.232
G2 X-154.087 Y-167.666 I-1.587 J-63.568
G1 Y-150
G3 X-154.405 Y-149.682 I-0.318 J0
G1 X-154.723
G18 G3 X-155.04 Z-1.683 I0 K0.317
G1 Z5
Y-150.318
Z0 F333.3
Z-1.983
G2 X-154.723 Z-2.3 I0.317 K0 F1000
G1 X-154.405
G17 G3 X-154.087 Y-150 I0 J0.318
G1 Y-132.334
G2 X-180.413 Y-138.768 I-27.912 J57.134
G1 Y-161.232
G2 X-154.087 Y-167.666 I-1.587 J-63.568
G1 Y-150
G3 X-154.405 Y-149.682 I-0.318 J0
G1 X-154.723
G18 G3 X-155.04 Z-1.983 I0 K0.317
G1 Z5
X-199.946 Y-143.021
Z2 F333.3
Z-0.683
X-199.94 Y-143.016 Z-0.753 F1000
X-199.923 Y-142.999 Z-0.82
X-199.896 Y-142.973 Z-0.88
X-199.86 Y-142.937 Z-0.931
X-199.818 Y-142.895 Z-0.969
X-199.77 Y-142.848 Z-0.992
X-199.719 Y-142.798 Z-1
X-199.493 Y-142.575
G17 G3 X-199.49 Y-142.126 I-0.223 J0.226
G2 X-201.001 Y-139.724 I4.69 J4.626
G3 X-202.331 Y-138.788 I-1.33 J-0.476
G1 X-223.212
Y-161.212
X-202.331
G3 X-201.001 Y-160.277 I0 J1.412
G2 X-192.165 Y-156.462 I6.201 J-2.224
G3 X-191.587 Y-156.084 I0.165 J0.378
G1 Y-143.916
G3 X-192.165 Y-143.538 I-0.412 J0
G2 X-199.49 Y-142.126 I-2.635 J6.038
G3 X-199.939 Y-142.123 I-0.226 J-0.223
G1 X-200.165 Y-142.346
X-200.216 Y-142.396 Z-0.992
X-200.263 Y-142.443 Z-0.969
X-200.306 Y-142.485 Z-0.931
X-200.342 Y-142.52 Z-0.88
X-200.369 Y-142.547 Z-0.82
X-200.386 Y-142.563 Z-0.753
X-200.391 Y-142.569 Z-0.683
Z5
X-199.946 Y-143.021
Z1 F333.3
Z-1.683
X-199.94 Y-143.016 Z-1.753 F1000
X-199.923 Y-142.999 Z-1.82
X-199.896 Y-142.973 Z-1.88
X-199.86 Y-142.937 Z-1.931
X-199.818 Y-142.895 Z-1.969
X-199.77 Y-142.848 Z-1.992
X-199.719 Y-142.798 Z-2
X-199.493 Y-142.575
G3 X-199.49 Y-142.126 I-0.223 J0.226
G2 X-201.001 Y-139.724 I4.69 J4.626
G3 X-202.331 Y-138.788 I-1.33 J-0.476
G1 X-223.212
Y-161.212
X-202.331
G3 X-201.001 Y-160.277 I0 J1.412
G2 X-192.165 Y-156.462 I6.201 J-2.224
G3 X-191.587 Y-156.084 I0.165 J0.378
G1 Y-143.916
G3 X-192.165 Y-143.538 I-0.412 J0
G2 X-199.49 Y-142.126 I-2.635 J6.038
G3 X-199.939 Y-142.123 I-0.226 J-0.223
G1 X-200.165 Y-142.346
X-200.216 Y-142.396 Z-1.992
X-200.263 Y-142.443 Z-1.969
X-200.306 Y-142.485 Z-1.931
X-200.342 Y-142.52 Z-1.88
X-200.369 Y-142.547 Z-1.82
X-200.386 Y-142.563 Z-1.753
X-200.391 Y-142.569 Z-1.683
Z5
X-199.946 Y-143.021
Z0 F333.3
Z-1.983
X-199.94 Y-143.016 Z-2.053 F1000
X-199.923 Y-142.999 Z-2.12
X-199.896 Y-142.973 Z-2.18
X-199.86 Y-142.937 Z-2.231
X-199.818 Y-142.895 Z-2.269
X-199.77 Y-142.848 Z-2.292
X-199.719 Y-142.798 Z-2.3
X-199.493 Y-142.575
G3 X-199.49 Y-142.126 I-0.223 J0.226
G2 X-201.001 Y-139.724 I4.69 J4.626
G3 X-202.331 Y-138.788 I-1.33 J-0.476
G1 X-223.212
Y-161.212
X-202.331
G3 X-201.001 Y-160.277 I0 J1.412
G2 X-192.165 Y-156.462 I6.201 J-2.224
G3 X-191.587 Y-156.084 I0.165 J0.378
G1 Y-143.916
G3 X-192.165 Y-143.538 I-0.412 J0
G2 X-199.49 Y-142.126 I-2.635 J6.038
G3 X-199.939 Y-142.123 I-0.226 J-0.223
G1 X-200.165 Y-142.346
X-200.216 Y-142.396 Z-2.292
X-200.263 Y-142.443 Z-2.269
X-200.306 Y-142.485 Z-2.231
X-200.342 Y-142.52 Z-2.18
X-200.369 Y-142.547 Z-2.12
X-200.386 Y-142.563 Z-2.053
X-200.391 Y-142.569 Z-1.983
Z5
X-221.579 Y-126.18
Z2 F333.3
Z-0.683
X-221.574 Y-126.174 Z-0.753 F1000
X-221.56 Y-126.155 Z-0.82
X-221.537 Y-126.125 Z-0.88
X-221.506 Y-126.086 Z-0.931
X-221.468 Y-126.038 Z-0.969
X-221.427 Y-125.986 Z-0.992
X-221.383 Y-125.93 Z-1
X-221.187 Y-125.68
G3 X-221.241 Y-125.234 I-0.25 J0.196
G2 X-223.212 Y-123.624 I39.24 J50.035
G1 Y-127.412
X-219.245
G3 X-218.834 Y-127.032 I0 J0.413
G2 X-221.241 Y-125.234 I36.833 J51.833
G3 X-221.687 Y-125.288 I-0.196 J-0.25
G1 X-221.883 Y-125.538
X-221.927 Y-125.594 Z-0.992
X-221.968 Y-125.647 Z-0.969
X-222.005 Y-125.694 Z-0.931
X-222.036 Y-125.733 Z-0.88
X-222.06 Y-125.763 Z-0.82
X-222.074 Y-125.782 Z-0.753
X-222.079 Y-125.788 Z-0.683
Z5
X-221.579 Y-126.18
Z1 F333.3
Z-1.683
X-221.574 Y-126.174 Z-1.753 F1000
X-221.56 Y-126.155 Z-1.82
X-221.537 Y-126.125 Z-1.88
X-221.506 Y-126.086 Z-1.931
X-221.468 Y-126.038 Z-1.969
X-221.427 Y-125.986 Z-1.992
X-221.383 Y-125.93 Z-2
X-221.187 Y-125.68
G3 X-221.241 Y-125.234 I-0.25 J0.196
G2 X-223.212 Y-123.624 I39.24 J50.035
G1 Y-127.412
X-219.245
G3 X-218.834 Y-127.032 I0 J0.413
G2 X-221.241 Y-125.234 I36.833 J51.833
G3 X-221.687 Y-125.288 I-0.196 J-0.25
G1 X-221.883 Y-125.538
X-221.927 Y-125.594 Z-1.992
X-221.968 Y-125.647 Z-1.969
X-222.005 Y-125.694 Z-1.931
X-222.036 Y-125.733 Z-1.88
X-222.06 Y-125.763 Z-1.82
X-222.074 Y-125.782 Z-1.753
X-222.079 Y-125.788 Z-1.683
Z5
X-221.579 Y-126.18
Z0 F333.3
Z-1.983
X-221.574 Y-126.174 Z-2.053 F1000
X-221.56 Y-126.155 Z-2.12
X-221.537 Y-126.125 Z-2.18
X-221.506 Y-126.086 Z-2.231
X-221.468 Y-126.038 Z-2.269
X-221.427 Y-125.986 Z-2.292
X-221.383 Y-125.93 Z-2.3
X-221.187 Y-125.68
G3 X-221.241 Y-125.234 I-0.25 J0.196
G2 X-223.212 Y-123.624 I39.24 J50.035
G1 Y-127.412
X-219.245
G3 X-218.834 Y-127.032 I0 J0.413
G2 X-221.241 Y-125.234 I36.833 J51.833
G3 X-221.687 Y-125.288 I-0.196 J-0.25
G1 X-221.883 Y-125.538
X-221.927 Y-125.594 Z-2.292
X-221.968 Y-125.647 Z-2.269
X-222.005 Y-125.694 Z-2.231
X-222.036 Y-125.733 Z-2.18
X-222.06 Y-125.763 Z-2.12
X-222.074 Y-125.782 Z-2.053
X-222.079 Y-125.788 Z-1.983
Z5
Y-174.212
Z2 F333.3
Z-0.683
X-222.074 Y-174.218 Z-0.753 F1000
X-222.06 Y-174.237 Z-0.82
X-222.036 Y-174.267 Z-0.88
X-222.005 Y-174.306 Z-0.931
X-221.968 Y-174.353 Z-0.969
X-221.927 Y-174.406 Z-0.992
X-221.883 Y-174.462 Z-1
X-221.687 Y-174.712
G3 X-221.241 Y-174.766 I0.25 J0.196
G2 X-218.834 Y-172.968 I39.24 J-50.035
G3 X-219.245 Y-172.587 I-0.411 J-0.033
G1 X-223.212
Y-176.376
G2 X-221.241 Y-174.766 I41.212 J-48.424
G3 X-221.187 Y-174.32 I-0.196 J0.25
G1 X-221.383 Y-174.07
X-221.427 Y-174.014 Z-0.992
X-221.468 Y-173.962 Z-0.969
X-221.506 Y-173.914 Z-0.931
X-221.537 Y-173.875 Z-0.88
X-221.56 Y-173.845 Z-0.82
X-221.574 Y-173.826 Z-0.753
X-221.579 Y-173.82 Z-0.683
Z5
X-222.079 Y-174.212
Z1 F333.3
Z-1.683
X-222.074 Y-174.218 Z-1.753 F1000
X-222.06 Y-174.237 Z-1.82
X-222.036 Y-174.267 Z-1.88
X-222.005 Y-174.306 Z-1.931
X-221.968 Y-174.353 Z-1.969
X-221.927 Y-174.406 Z-1.992
X-221.883 Y-174.462 Z-2
X-221.687 Y-174.712
G3 X-221.241 Y-174.766 I0.25 J0.196
G2 X-218.834 Y-172.968 I39.24 J-50.035
G3 X-219.245 Y-172.587 I-0.411 J-0.033
G1 X-223.212
Y-176.376
G2 X-221.241 Y-174.766 I41.212 J-48.424
G3 X-221.187 Y-174.32 I-0.196 J0.25
G1 X-221.383 Y-174.07
X-221.427 Y-174.014 Z-1.992
X-221.468 Y-173.962 Z-1.969
X-221.506 Y-173.914 Z-1.931
X-221.537 Y-173.875 Z-1.88
X-221.56 Y-173.845 Z-1.82
X-221.574 Y-173.826 Z-1.753
X-221.579 Y-173.82 Z-1.683
Z5
X-222.079 Y-174.212
Z0 F333.3
Z-1.983
X-222.074 Y-174.218 Z-2.053 F1000
X-222.06 Y-174.237 Z-2.12
X-222.036 Y-174.267 Z-2.18
X-222.005 Y-174.306 Z-2.231
X-221.968 Y-174.353 Z-2.269
X-221.927 Y-174.406 Z-2.292
X-221.883 Y-174.462 Z-2.3
X-221.687 Y-174.712
G3 X-221.241 Y-174.766 I0.25 J0.196
G2 X-218.834 Y-172.968 I39.24 J-50.035
G3 X-219.245 Y-172.587 I-0.411 J-0.033
G1 X-223.212
Y-176.376
G2 X-221.241 Y-174.766 I41.212 J-48.424
G3 X-221.187 Y-174.32 I-0.196 J0.25
G1 X-221.383 Y-174.07
X-221.427 Y-174.014 Z-2.292
X-221.468 Y-173.962 Z-2.269
X-221.506 Y-173.914 Z-2.231
X-221.537 Y-173.875 Z-2.18
X-221.56 Y-173.845 Z-2.12
X-221.574 Y-173.826 Z-2.053
X-221.579 Y-173.82 Z-1.983
Z5
X-109.04 Y-160.068
Z2 F333.3
Z-0.683
G18 G2 X-108.723 Z-1 I0.317 K0 F1000
G1 X-108.405
G17 G3 X-108.088 Y-159.75 I0 J0.318
G1 Y-138.587
X-111.412
Y-161.413
X-108.088
Y-159.75
G3 X-108.405 Y-159.432 I-0.317 J0
G1 X-108.723
G18 G3 X-109.04 Z-0.683 I0 K0.317
G1 Z5
Y-160.068
Z1 F333.3
Z-1.683
G2 X-108.723 Z-2 I0.317 K0 F1000
G1 X-108.405
G17 G3 X-108.088 Y-159.75 I0 J0.318
G1 Y-138.587
X-111.412
Y-161.413
X-108.088
Y-159.75
G3 X-108.405 Y-159.432 I-0.317 J0
G1 X-108.723
G18 G3 X-109.04 Z-1.683 I0 K0.317
G1 Z5
Y-160.068
Z0 F333.3
Z-1.983
G2 X-108.723 Z-2.3 I0.317 K0 F1000
G1 X-108.405
G17 G3 X-108.088 Y-159.75 I0 J0.318
G1 Y-138.587
X-111.412
Y-161.413
X-108.088
Y-159.75
G3 X-108.405 Y-159.432 I-0.317 J0
G1 X-108.723
G18 G3 X-109.04 Z-1.983 I0 K0.317
G1 Z5
X-81.144 Y-161.612
Z2 F333.3
Z-0.683
X-81.142 Y-161.62 Z-0.753 F1000
X-81.138 Y-161.643 Z-0.82
X-81.13 Y-161.68 Z-0.88
X-81.12 Y-161.729 Z-0.931
X-81.108 Y-161.788 Z-0.969
X-81.095 Y-161.854 Z-0.992
X-81.081 Y-161.923 Z-1
X-81.018 Y-162.234
G17 G3 X-80.643 Y-162.482 I0.311 J0.063
G2 X-69.588 Y-161.232 I12.644 J-62.318
G1 Y-138.768
G2 X-95.912 Y-132.334 I1.588 J63.568
G1 Y-167.666
G2 X-80.643 Y-162.482 I27.913 J-57.134
G3 X-80.395 Y-162.108 I-0.063 J0.311
G1 X-80.459 Y-161.797
X-80.473 Y-161.728 Z-0.992
X-80.486 Y-161.662 Z-0.969
X-80.498 Y-161.603 Z-0.931
X-80.508 Y-161.553 Z-0.88
X-80.515 Y-161.516 Z-0.82
X-80.52 Y-161.493 Z-0.753
X-80.522 Y-161.486 Z-0.683
Z5
X-81.144 Y-161.612
Z1 F333.3
Z-1.683
X-81.142 Y-161.62 Z-1.753 F1000
X-81.138 Y-161.643 Z-1.82
X-81.13 Y-161.68 Z-1.88
X-81.12 Y-161.729 Z-1.931
X-81.108 Y-161.788 Z-1.969
X-81.095 Y-161.854 Z-1.992
X-81.081 Y-161.923 Z-2
X-81.018 Y-162.234
G3 X-80.643 Y-162.482 I0.311 J0.063
G2 X-69.588 Y-161.232 I12.644 J-62.318
G1 Y-138.768
G2 X-95.912 Y-132.334 I1.588 J63.568
G1 Y-167.666
G2 X-80.643 Y-162.482 I27.913 J-57.134
G3 X-80.395 Y-162.108 I-0.063 J0.311
G1 X-80.459 Y-161.797
X-80.473 Y-161.728 Z-1.992
X-80.486 Y-161.662 Z-1.969
X-80.498 Y-161.603 Z-1.931
X-80.508 Y-161.553 Z-1.88
X-80.515 Y-161.516 Z-1.82
X-80.52 Y-161.493 Z-1.753
X-80.522 Y-161.486 Z-1.683
Z5
X-81.144 Y-161.612
Z0 F333.3
Z-1.983
X-81.142 Y-161.62 Z-2.053 F1000
X-81.138 Y-161.643 Z-2.12
X-81.13 Y-161.68 Z-2.18
X-81.12 Y-161.729 Z-2.231
X-81.108 Y-161.788 Z-2.269
X-81.095 Y-161.854 Z-2.292
X-81.081 Y-161.923 Z-2.3
X-81.018 Y-162.234
G3 X-80.643 Y-162.482 I0.311 J0.063
G2 X-69.588 Y-161.232 I12.644 J-62.318
G1 Y-138.768
G2 X-95.912 Y-132.334 I1.588 J63.568
G1 Y-167.666
G2 X-80.643 Y-162.482 I27.913 J-57.134
G3 X-80.395 Y-162.108 I-0.063 J0.311
G1 X-80.459 Y-161.797
X-80.473 Y-161.728 Z-2.292
X-80.486 Y-161.662 Z-2.269
X-80.498 Y-161.603 Z-2.231
X-80.508 Y-161.553 Z-2.18
X-80.515 Y-161.516 Z-2.12
X-80.52 Y-161.493 Z-2.053
X-80.522 Y-161.486 Z-1.983
Z5
X-47.517 Y-160.26
Z2 F333.3
Z-0.683
G19 G2 Y-160.577 Z-1 J-0.318 K0 F1000
G1 Y-160.895
G17 G3 X-47.2 Y-161.212 I0.317 J0
G1 X-26.788
Y-138.788
X-58.412
Y-161.212
X-47.2
G3 X-46.882 Y-160.895 I0 J0.317
G1 Y-160.577
G19 G3 Y-160.26 Z-0.683 J0 K0.317
G1 Z5
X-47.517
Z1 F333.3
Z-1.683
G2 Y-160.577 Z-2 J-0.318 K0 F1000
G1 Y-160.895
G17 G3 X-47.2 Y-161.212 I0.317 J0
G1 X-26.788
Y-138.788
X-58.412
Y-161.212
X-47.2
G3 X-46.882 Y-160.895 I0 J0.317
G1 Y-160.577
G19 G3 Y-160.26 Z-1.683 J0 K0.317
G1 Z5
X-47.517
Z0 F333.3
Z-1.983
G2 Y-160.577 Z-2.3 J-0.318 K0 F1000
G1 Y-160.895
G17 G3 X-47.2 Y-161.212 I0.317 J0
G1 X-26.788
Y-138.788
X-58.412
Y-161.212
X-47.2
G3 X-46.882 Y-160.895 I0 J0.317
G1 Y-160.577
G19 G3 Y-160.26 Z-1.983 J0 K0.317
G1 Z5
X-27.74 Y-174.124
Z2 F333.3
Z-0.683
G18 G2 X-27.423 Z-1 I0.317 K0 F1000
G1 X-27.105
G17 G3 X-26.788 Y-173.806 I0 J0.317
G1 Y-172.587
X-30.755
G3 X-31.166 Y-172.968 I0 J-0.413
G2 X-26.788 Y-176.376 I-36.831 J-51.834
G1 Y-173.806
G3 X-27.105 Y-173.489 I-0.317 J0
G1 X-27.423
G18 G3 X-27.74 Z-0.683 I0 K0.317
G1 Z5
Y-174.124
Z1 F333.3
Z-1.683
G2 X-27.423 Z-2 I0.317 K0 F1000
G1 X-27.105
G17 G3 X-26.788 Y-173.806 I0 J0.317
G1 Y-172.587
X-30.755
G3 X-31.166 Y-172.968 I0 J-0.413
G2 X-26.788 Y-176.376 I-36.831 J-51.834
G1 Y-173.806
G3 X-27.105 Y-173.489 I-0.317 J0
G1 X-27.423
G18 G3 X-27.74 Z-1.683 I0 K0.317
G1 Z5
Y-174.124
Z0 F333.3
Z-1.983
G2 X-27.423 Z-2.3 I0.317 K0 F1000
G1 X-27.105
G17 G3 X-26.788 Y-173.806 I0 J0.317
G1 Y-172.587
X-30.755
G3 X-31.166 Y-172.968 I0 J-0.413
G2 X-26.788 Y-176.376 I-36.831 J-51.834
G1 Y-173.806
G3 X-27.105 Y-173.489 I-0.317 J0
G1 X-27.423
G18 G3 X-27.74 Z-1.983 I0 K0.317
G1 Z5
Y-126.511
Z2 F333.3
Z-0.683
G2 X-27.423 Z-1 I0.317 K0 F1000
G1 X-27.105
G17 G3 X-26.788 Y-126.194 I0 J0.317
G1 Y-123.624
G2 X-31.166 Y-127.032 I-41.21 J48.426
G3 X-30.755 Y-127.412 I0.411 J0.033
G1 X-26.788
Y-126.194
G3 X-27.105 Y-125.876 I-0.317 J0
G1 X-27.423
G18 G3 X-27.74 Z-0.683 I0 K0.317
G1 Z5
Y-126.511
Z1 F333.3
Z-1.683
G2 X-27.423 Z-2 I0.317 K0 F1000
G1 X-27.105
G17 G3 X-26.788 Y-126.194 I0 J0.317
G1 Y-123.624
G2 X-31.166 Y-127.032 I-41.21 J48.426
G3 X-30.755 Y-127.412 I0.411 J0.033
G1 X-26.788
Y-126.194
G3 X-27.105 Y-125.876 I-0.317 J0
G1 X-27.423
G18 G3 X-27.74 Z-1.683 I0 K0.317
G1 Z5
Y-126.511
Z0 F333.3
Z-1.983
G2 X-27.423 Z-2.3 I0.317 K0 F1000
G1 X-27.105
G17 G3 X-26.788 Y-126.194 I0 J0.317
G1 Y-123.624
G2 X-31.166 Y-127.032 I-41.21 J48.426
G3 X-30.755 Y-127.412 I0.411 J0.033
G1 X-26.788
Y-126.194
G3 X-27.105 Y-125.876 I-0.317 J0
G1 X-27.423
G18 G3 X-27.74 Z-1.983 I0 K0.317
G1 Z15
G17
(When using Fusion 360 for Personal Use, the feedrate of)
(rapid moves is reduced to match the feedrate of cutting)
(moves, which can increase machining time. Unrestricted rapid)
(moves are available with a Fusion 360 Subscription.)

(2D-Kontur11)
G0 X-119.607 Y-186.041
G1 Z15 F1000
Z5
Z2 F333.3
Z-0.683
X-119.601 Y-186.046 Z-0.753 F1000
X-119.582 Y-186.06 Z-0.82
X-119.552 Y-186.083 Z-0.88
X-119.512 Y-186.113 Z-0.931
X-119.464 Y-186.15 Z-0.969
X-119.411 Y-186.19 Z-0.992
X-119.354 Y-186.233 Z-1
X-119.101 Y-186.425
G3 X-118.656 Y-186.364 I0.192 J0.253
G2 X-105.691 Y-173.587 I50.655 J-38.437
G1 X-144.309
G2 X-125 Y-196.614 I-37.69 J-51.214
X-118.656 Y-186.364 I56.999 J-28.187
G3 X-118.717 Y-185.919 I-0.253 J0.192
G1 X-118.97 Y-185.727
X-119.027 Y-185.684 Z-0.992
X-119.08 Y-185.644 Z-0.969
X-119.128 Y-185.608 Z-0.931
X-119.168 Y-185.577 Z-0.88
X-119.198 Y-185.554 Z-0.82
X-119.217 Y-185.54 Z-0.753
X-119.223 Y-185.535 Z-0.683
Z5
X-119.607 Y-186.041
Z1 F333.3
Z-1.683
X-119.601 Y-186.046 Z-1.753 F1000
X-119.582 Y-186.06 Z-1.82
X-119.552 Y-186.083 Z-1.88
X-119.512 Y-186.113 Z-1.931
X-119.464 Y-186.15 Z-1.969
X-119.411 Y-186.19 Z-1.992
X-119.354 Y-186.233 Z-2
X-119.101 Y-186.425
G3 X-118.656 Y-186.364 I0.192 J0.253
G2 X-105.691 Y-173.587 I50.655 J-38.437
G1 X-144.309
G2 X-125 Y-196.614 I-37.69 J-51.214
X-118.656 Y-186.364 I56.999 J-28.187
G3 X-118.717 Y-185.919 I-0.253 J0.192
G1 X-118.97 Y-185.727
X-119.027 Y-185.684 Z-1.992
X-119.08 Y-185.644 Z-1.969
X-119.128 Y-185.608 Z-1.931
X-119.168 Y-185.577 Z-1.88
X-119.198 Y-185.554 Z-1.82
X-119.217 Y-185.54 Z-1.753
X-119.223 Y-185.535 Z-1.683
Z5
X-119.607 Y-186.041
Z0 F333.3
Z-1.983
X-119.601 Y-186.046 Z-2.053 F1000
X-119.582 Y-186.06 Z-2.12
X-119.552 Y-186.083 Z-2.18
X-119.512 Y-186.113 Z-2.231
X-119.464 Y-186.15 Z-2.269
X-119.411 Y-186.19 Z-2.292
X-119.354 Y-186.233 Z-2.3
X-119.101 Y-186.425
G3 X-118.656 Y-186.364 I0.192 J0.253
G2 X-105.691 Y-173.587 I50.655 J-38.437
G1 X-144.309
G2 X-125 Y-196.614 I-37.69 J-51.214
X-118.656 Y-186.364 I56.999 J-28.187
G3 X-118.717 Y-185.919 I-0.253 J0.192
G1 X-118.97 Y-185.727
X-119.027 Y-185.684 Z-2.292
X-119.08 Y-185.644 Z-2.269
X-119.128 Y-185.608 Z-2.231
X-119.168 Y-185.577 Z-2.18
X-119.198 Y-185.554 Z-2.12
X-119.217 Y-185.54 Z-2.053
X-119.223 Y-185.535 Z-1.983
Z5
Y-114.465
Z2 F333.3
Z-0.683
X-119.217 Y-114.46 Z-0.753 F1000
X-119.198 Y-114.446 Z-0.82
X-119.168 Y-114.423 Z-0.88
X-119.128 Y-114.392 Z-0.931
X-119.08 Y-114.356 Z-0.969
X-119.027 Y-114.316 Z-0.992
X-118.97 Y-114.273 Z-1
X-118.717 Y-114.081
G3 X-118.656 Y-113.636 I-0.192 J0.253
G2 X-125 Y-103.386 I50.655 J38.437
X-144.309 Y-126.412 I-56.999 J28.187
G1 X-105.691
G2 X-118.656 Y-113.636 I37.69 J51.214
G3 X-119.101 Y-113.575 I-0.253 J-0.192
G1 X-119.354 Y-113.767
X-119.411 Y-113.81 Z-0.992
X-119.464 Y-113.85 Z-0.969
X-119.512 Y-113.887 Z-0.931
X-119.552 Y-113.917 Z-0.88
X-119.582 Y-113.94 Z-0.82
X-119.601 Y-113.954 Z-0.753
X-119.607 Y-113.959 Z-0.683
Z5
X-119.223 Y-114.465
Z1 F333.3
Z-1.683
X-119.217 Y-114.46 Z-1.753 F1000
X-119.198 Y-114.446 Z-1.82
X-119.168 Y-114.423 Z-1.88
X-119.128 Y-114.392 Z-1.931
X-119.08 Y-114.356 Z-1.969
X-119.027 Y-114.316 Z-1.992
X-118.97 Y-114.273 Z-2
X-118.717 Y-114.081
G3 X-118.656 Y-113.636 I-0.192 J0.253
G2 X-125 Y-103.386 I50.655 J38.437
X-144.309 Y-126.412 I-56.999 J28.187
G1 X-105.691
G2 X-118.656 Y-113.636 I37.69 J51.214
G3 X-119.101 Y-113.575 I-0.253 J-0.192
G1 X-119.354 Y-113.767
X-119.411 Y-113.81 Z-1.992
X-119.464 Y-113.85 Z-1.969
X-119.512 Y-113.887 Z-1.931
X-119.552 Y-113.917 Z-1.88
X-119.582 Y-113.94 Z-1.82
X-119.601 Y-113.954 Z-1.753
X-119.607 Y-113.959 Z-1.683
Z5
X-119.223 Y-114.465
Z0 F333.3
Z-1.983
X-119.217 Y-114.46 Z-2.053 F1000
X-119.198 Y-114.446 Z-2.12
X-119.168 Y-114.423 Z-2.18
X-119.128 Y-114.392 Z-2.231
X-119.08 Y-114.356 Z-2.269
X-119.027 Y-114.316 Z-2.292
X-118.97 Y-114.273 Z-2.3
X-118.717 Y-114.081
G3 X-118.656 Y-113.636 I-0.192 J0.253
G2 X-125 Y-103.386 I50.655 J38.437
X-144.309 Y-126.412 I-56.999 J28.187
G1 X-105.691
G2 X-118.656 Y-113.636 I37.69 J51.214
G3 X-119.101 Y-113.575 I-0.253 J-0.192
G1 X-119.354 Y-113.767
X-119.411 Y-113.81 Z-2.292
X-119.464 Y-113.85 Z-2.269
X-119.512 Y-113.887 Z-2.231
X-119.552 Y-113.917 Z-2.18
X-119.582 Y-113.94 Z-2.12
X-119.601 Y-113.954 Z-2.053
X-119.607 Y-113.959 Z-1.983
Z5
X-121.713 Y-39.417
Z2 F333.3
Z-0.683
X-121.706 Y-39.421 Z-0.753 F1000
X-121.687 Y-39.434 Z-0.82
X-121.656 Y-39.456 Z-0.88
X-121.614 Y-39.484 Z-0.931
X-121.564 Y-39.517 Z-0.969
X-121.508 Y-39.555 Z-0.992
X-121.45 Y-39.594 Z-1
X-121.186 Y-39.772
G3 X-120.746 Y-39.686 I0.177 J0.263
G2 X-114.372 Y-31.692 I52.744 J-35.516
G1 X-135.628
G2 X-125 Y-47.015 I-46.371 J-43.51
X-120.746 Y-39.686 I56.999 J-28.187
G3 X-120.832 Y-39.245 I-0.263 J0.177
G1 X-121.095 Y-39.068
X-121.154 Y-39.028 Z-0.992
X-121.209 Y-38.991 Z-0.969
X-121.259 Y-38.957 Z-0.931
X-121.301 Y-38.929 Z-0.88
X-121.332 Y-38.908 Z-0.82
X-121.352 Y-38.895 Z-0.753
X-121.358 Y-38.89 Z-0.683
Z5
X-121.713 Y-39.417
Z1 F333.3
Z-1.683
X-121.706 Y-39.421 Z-1.753 F1000
X-121.687 Y-39.434 Z-1.82
X-121.656 Y-39.456 Z-1.88
X-121.614 Y-39.484 Z-1.931
X-121.564 Y-39.517 Z-1.969
X-121.508 Y-39.555 Z-1.992
X-121.45 Y-39.594 Z-2
X-121.186 Y-39.772
G3 X-120.746 Y-39.686 I0.177 J0.263
G2 X-114.372 Y-31.692 I52.744 J-35.516
G1 X-135.628
G2 X-125 Y-47.015 I-46.371 J-43.51
X-120.746 Y-39.686 I56.999 J-28.187
G3 X-120.832 Y-39.245 I-0.263 J0.177
G1 X-121.095 Y-39.068
X-121.154 Y-39.028 Z-1.992
X-121.209 Y-38.991 Z-1.969
X-121.259 Y-38.957 Z-1.931
X-121.301 Y-38.929 Z-1.88
X-121.332 Y-38.908 Z-1.82
X-121.352 Y-38.895 Z-1.753
X-121.358 Y-38.89 Z-1.683
Z5
X-121.713 Y-39.417
Z0 F333.3
Z-1.983
X-121.706 Y-39.421 Z-2.053 F1000
X-121.687 Y-39.434 Z-2.12
X-121.656 Y-39.456 Z-2.18
X-121.614 Y-39.484 Z-2.231
X-121.564 Y-39.517 Z-2.269
X-121.508 Y-39.555 Z-2.292
X-121.45 Y-39.594 Z-2.3
X-121.186 Y-39.772
G3 X-120.746 Y-39.686 I0.177 J0.263
G2 X-114.372 Y-31.692 I52.744 J-35.516
G1 X-135.628
G2 X-125 Y-47.015 I-46.371 J-43.51
X-120.746 Y-39.686 I56.999 J-28.187
G3 X-120.832 Y-39.245 I-0.263 J0.177
G1 X-121.095 Y-39.068
X-121.154 Y-39.028 Z-2.292
X-121.209 Y-38.991 Z-2.269
X-121.259 Y-38.957 Z-2.231
X-121.301 Y-38.929 Z-2.18
X-121.332 Y-38.908 Z-2.12
X-121.352 Y-38.895 Z-2.053
X-121.358 Y-38.89 Z-1.983
Z5
Y-261.11
Z2 F333.3
Z-0.683
X-121.352 Y-261.106 Z-0.753 F1000
X-121.332 Y-261.093 Z-0.82
X-121.301 Y-261.071 Z-0.88
X-121.259 Y-261.043 Z-0.931
X-121.209 Y-261.01 Z-0.969
X-121.154 Y-260.972 Z-0.992
X-121.095 Y-260.933 Z-1
X-120.832 Y-260.755
G3 X-120.746 Y-260.315 I-0.177 J0.263
G2 X-125 Y-252.986 I52.744 J35.517
X-135.628 Y-268.309 I-56.999 J28.188
G1 X-114.372
G2 X-120.746 Y-260.315 I46.37 J43.511
G3 X-121.186 Y-260.229 I-0.263 J-0.177
G1 X-121.45 Y-260.406
X-121.508 Y-260.446 Z-0.992
X-121.564 Y-260.483 Z-0.969
X-121.614 Y-260.517 Z-0.931
X-121.656 Y-260.545 Z-0.88
X-121.687 Y-260.566 Z-0.82
X-121.706 Y-260.579 Z-0.753
X-121.713 Y-260.583 Z-0.683
Z5
X-121.358 Y-261.11
Z1 F333.3
Z-1.683
X-121.352 Y-261.106 Z-1.753 F1000
X-121.332 Y-261.093 Z-1.82
X-121.301 Y-261.071 Z-1.88
X-121.259 Y-261.043 Z-1.931
X-121.209 Y-261.01 Z-1.969
X-121.154 Y-260.972 Z-1.992
X-121.095 Y-260.933 Z-2
X-120.832 Y-260.755
G3 X-120.746 Y-260.315 I-0.177 J0.263
G2 X-125 Y-252.986 I52.744 J35.517
X-135.628 Y-268.309 I-56.999 J28.188
G1 X-114.372
G2 X-120.746 Y-260.315 I46.37 J43.511
G3 X-121.186 Y-260.229 I-0.263 J-0.177
G1 X-121.45 Y-260.406
X-121.508 Y-260.446 Z-1.992
X-121.564 Y-260.483 Z-1.969
X-121.614 Y-260.517 Z-1.931
X-121.656 Y-260.545 Z-1.88
X-121.687 Y-260.566 Z-1.82
X-121.706 Y-260.579 Z-1.753
X-121.713 Y-260.583 Z-1.683
Z5
X-121.358 Y-261.11
Z0 F333.3
Z-1.983
X-121.352 Y-261.106 Z-2.053 F1000
X-121.332 Y-261.093 Z-2.12
X-121.301 Y-261.071 Z-2.18
X-121.259 Y-261.043 Z-2.231
X-121.209 Y-261.01 Z-2.269
X-121.154 Y-260.972 Z-2.292
X-121.095 Y-260.933 Z-2.3
X-120.832 Y-260.755
G3 X-120.746 Y-260.315 I-0.177 J0.263
G2 X-125 Y-252.986 I52.744 J35.517
X-135.628 Y-268.309 I-56.999 J28.188
G1 X-114.372
G2 X-120.746 Y-260.315 I46.37 J43.511
G3 X-121.186 Y-260.229 I-0.263 J-0.177
G1 X-121.45 Y-260.406
X-121.508 Y-260.446 Z-2.292
X-121.564 Y-260.483 Z-2.269
X-121.614 Y-260.517 Z-2.231
X-121.656 Y-260.545 Z-2.18
X-121.687 Y-260.566 Z-2.12
X-121.706 Y-260.579 Z-2.053
X-121.713 Y-260.583 Z-1.983
Z15
(When using Fusion 360 for Personal Use, the feedrate of)
(rapid moves is reduced to match the feedrate of cutting)
(moves, which can increase machining time. Unrestricted rapid)
(moves are available with a Fusion 360 Subscription.)

(2D-Kontur12)
G0 X-182.318 Y-276.26
G1 Z15 F1000
Z5
Z4 F333.3
Z2.818
G19 G2 Y-276.578 Z2.5 J-0.318 K0 F1000
G1 Y-276.895
G17 G3 X-182 Y-277.212 I0.318 J0
S5000
X-182 Y-172.388 Z2 I0 J52.412 F333.3
X-182 Y-277.212 Z1.5 I0 J-52.412
X-182 Y-172.388 Z1 I0 J52.412
X-182 Y-277.213 Z0.5 I0 J-52.412
X-182 Y-172.388 Z0 I0 J52.412
X-182 Y-277.213 Z-0.5 I0 J-52.413
X-182 Y-172.387 Z-1 I0 J52.413
S6000
X-182 Y-277.213 I0 J-52.413 F1000
X-182 Y-172.387 I0 J52.413
S5000
X-182 Y-277.213 Z-1.5 I0 J-52.413 F333.3
X-182 Y-172.387 Z-2 I0 J52.413
S6000
X-182 Y-277.213 I0 J-52.413 F1000
X-182 Y-172.387 I0 J52.413
S5000
X-231.847 Y-240.996 Z-2.3 I0 J-52.413 F333.3
S6000
X-132.153 Y-208.604 I49.847 J16.196 F1000
X-231.847 Y-240.996 I-49.847 J-16.196
X-231.447 Y-241.2 I0.302 J0.098
G1 X-231.145 Y-241.102
X-231.078 Y-241.08 Z-2.292
X-231.014 Y-241.06 Z-2.269
X-230.957 Y-241.041 Z-2.231
X-230.909 Y-241.025 Z-2.18
X-230.873 Y-241.014 Z-2.12
X-230.851 Y-241.006 Z-2.053
X-230.843 Y-241.004 Z-1.983
Z5
X-68.317 Y-276.26
Z4 F333.3
Z2.818
G19 G2 Y-276.578 Z2.5 J-0.318 K0 F1000
G1 Y-276.895
G17 G3 X-68 Y-277.212 I0.317 J0
S5000
X-68 Y-172.388 Z2 I0 J52.412 F333.3
X-68 Y-277.212 Z1.5 I0 J-52.412
X-68 Y-172.388 Z1 I0 J52.412
X-68 Y-277.213 Z0.5 I0 J-52.412
X-68 Y-172.388 Z0 I0 J52.412
X-68 Y-277.213 Z-0.5 I0 J-52.413
X-68 Y-172.387 Z-1 I0 J52.413
S6000
X-68 Y-277.213 I0 J-52.413 F1000
X-68 Y-172.387 I0 J52.413
S5000
X-68 Y-277.213 Z-1.5 I0 J-52.413 F333.3
X-68 Y-172.387 Z-2 I0 J52.413
S6000
X-68 Y-277.213 I0 J-52.413 F1000
X-68 Y-172.387 I0 J52.413
S5000
X-117.847 Y-240.996 Z-2.3 I0 J-52.413 F333.3
S6000
X-18.153 Y-208.604 I49.847 J16.196 F1000
X-117.847 Y-240.996 I-49.847 J-16.196
X-117.447 Y-241.2 I0.302 J0.098
G1 X-117.145 Y-241.102
X-117.078 Y-241.08 Z-2.292
X-117.014 Y-241.06 Z-2.269
X-116.957 Y-241.041 Z-2.231
X-116.909 Y-241.025 Z-2.18
X-116.873 Y-241.014 Z-2.12
X-116.851 Y-241.006 Z-2.053
X-116.843 Y-241.004 Z-1.983
Z5
X-68.317 Y-126.66
Z4 F333.3
Z2.818
G19 G2 Y-126.978 Z2.5 J-0.317 K0 F1000
G1 Y-127.295
G17 G3 X-68 Y-127.613 I0.317 J0
S5000
X-68 Y-22.787 Z2 I0 J52.413 F333.3
X-68 Y-127.613 Z1.5 I0 J-52.413
X-68 Y-22.787 Z1 I0 J52.413
X-68 Y-127.612 Z0.5 I0 J-52.413
X-68 Y-22.787 Z0 I0 J52.413
X-68 Y-127.612 Z-0.5 I0 J-52.412
X-68 Y-22.788 Z-1 I0 J52.412
S6000
X-68 Y-127.612 I0 J-52.412 F1000
X-68 Y-22.788 I0 J52.412
S5000
X-68 Y-127.612 Z-1.5 I0 J-52.412 F333.3
X-68 Y-22.788 Z-2 I0 J52.412
S6000
X-68 Y-127.612 I0 J-52.412 F1000
X-68 Y-22.788 I0 J52.412
S5000
X-117.847 Y-91.396 Z-2.3 I0 J-52.412 F333.3
S6000
X-18.153 Y-59.004 I49.847 J16.196 F1000
X-117.847 Y-91.396 I-49.847 J-16.196
X-117.447 Y-91.6 I0.302 J0.098
G1 X-117.145 Y-91.502
X-117.078 Y-91.48 Z-2.292
X-117.014 Y-91.46 Z-2.269
X-116.957 Y-91.441 Z-2.231
X-116.909 Y-91.425 Z-2.18
X-116.873 Y-91.414 Z-2.12
X-116.851 Y-91.406 Z-2.053
X-116.843 Y-91.404 Z-1.983
Z5
X-182.318 Y-126.66
Z4 F333.3
Z2.818
G19 G2 Y-126.978 Z2.5 J-0.317 K0 F1000
G1 Y-127.295
G17 G3 X-182 Y-127.613 I0.318 J0
S5000
X-182 Y-22.787 Z2 I0 J52.413 F333.3
X-182 Y-127.613 Z1.5 I0 J-52.413
X-182 Y-22.787 Z1 I0 J52.413
X-182 Y-127.612 Z0.5 I0 J-52.413
X-182 Y-22.787 Z0 I0 J52.413
X-182 Y-127.612 Z-0.5 I0 J-52.412
X-182 Y-22.788 Z-1 I0 J52.412
S6000
X-182 Y-127.612 I0 J-52.412 F1000
X-182 Y-22.788 I0 J52.412
S5000
X-182 Y-127.612 Z-1.5 I0 J-52.412 F333.3
X-182 Y-22.788 Z-2 I0 J52.412
S6000
X-182 Y-127.612 I0 J-52.412 F1000
X-182 Y-22.788 I0 J52.412
S5000
X-231.847 Y-91.396 Z-2.3 I0 J-52.412 F333.3
S6000
X-132.153 Y-59.004 I49.847 J16.196 F1000
X-231.847 Y-91.396 I-49.847 J-16.196
X-231.447 Y-91.6 I0.302 J0.098
G1 X-231.145 Y-91.502
X-231.078 Y-91.48 Z-2.292
X-231.014 Y-91.46 Z-2.269
X-230.957 Y-91.441 Z-2.231
X-230.909 Y-91.425 Z-2.18
X-230.873 Y-91.414 Z-2.12
X-230.851 Y-91.406 Z-2.053
X-230.843 Y-91.404 Z-1.983
Z15
(When using Fusion 360 for Personal Use, the feedrate of)
(rapid moves is reduced to match the feedrate of cutting)
(moves, which can increase machining time. Unrestricted rapid)
(moves are available with a Fusion 360 Subscription.)

(2D-Kontur13)
G0 X-245.855 Y-84.585
G1 Z15 F1000
Z5
Z2.818 F333.3
X-245.847 Y-84.584 Z2.747 F1000
X-245.824 Y-84.581 Z2.68
X-245.786 Y-84.576 Z2.62
X-245.736 Y-84.569 Z2.569
X-245.677 Y-84.56 Z2.531
X-245.61 Y-84.551 Z2.508
X-245.54 Y-84.541 Z2.5
X-245.226 Y-84.496
G3 X-244.956 Y-84.137 I-0.045 J0.314
S5000
G2 X-159.438 Y-15.75 Z2.36 I62.956 J8.937 F333.3
G1 X-158.267 Y-16.191 Z2.358
X-157.117 Y-16.62 Z2.357
X-155.984 Y-17.035 Z2.356
X-154.869 Y-17.438 Z2.354
X-153.771 Y-17.829 Z2.353
X-152.689 Y-18.207 Z2.352
X-151.623 Y-18.573 Z2.351
X-150.57 Y-18.927 Z2.35
X-149.53 Y-19.269 Z2.348
X-148.5 Y-19.599 Z2.347
X-147.48 Y-19.918 Z2.346
X-146.467 Y-20.224 Z2.345
X-145.46 Y-20.519 Z2.344
X-144.458 Y-20.802 Z2.343
X-143.457 Y-21.073 Z2.342
X-142.457 Y-21.332 Z2.341
X-141.456 Y-21.579 Z2.339
X-140.452 Y-21.813 Z2.338
X-139.443 Y-22.034 Z2.337
X-138.427 Y-22.242 Z2.336
X-137.401 Y-22.436 Z2.335
X-136.364 Y-22.615 Z2.334
X-135.314 Y-22.78 Z2.333
X-134.25 Y-22.93 Z2.332
X-133.168 Y-23.064 Z2.33
X-132.068 Y-23.182 Z2.329
X-130.948 Y-23.283 Z2.328
X-129.806 Y-23.366 Z2.327
X-128.642 Y-23.432 Z2.326
X-127.454 Y-23.479 Z2.324
X-126.239 Y-23.507 Z2.323
X-125 Y-23.517 Z2.322
X-123.761 Y-23.507 Z2.32
X-122.546 Y-23.479 Z2.319
X-121.358 Y-23.432 Z2.318
X-120.194 Y-23.366 Z2.317
X-119.052 Y-23.283 Z2.315
X-117.932 Y-23.182 Z2.314
X-116.832 Y-23.064 Z2.313
X-115.75 Y-22.93 Z2.312
X-114.686 Y-22.78 Z2.311
X-113.636 Y-22.615 Z2.31
X-112.599 Y-22.436 Z2.308
X-111.573 Y-22.242 Z2.307
X-110.557 Y-22.034 Z2.306
X-109.548 Y-21.813 Z2.305
X-108.544 Y-21.579 Z2.304
X-107.543 Y-21.332 Z2.303
X-106.543 Y-21.073 Z2.302
X-105.542 Y-20.802 Z2.301
X-104.54 Y-20.519 Z2.3
X-103.533 Y-20.224 Z2.299
X-102.52 Y-19.918 Z2.297
X-101.5 Y-19.599 Z2.296
X-100.471 Y-19.269 Z2.295
X-99.43 Y-18.927 Z2.294
X-98.377 Y-18.573 Z2.293
X-97.31 Y-18.207 Z2.292
X-96.229 Y-17.829 Z2.29
X-95.131 Y-17.438 Z2.289
X-94.016 Y-17.035 Z2.288
X-92.884 Y-16.62 Z2.287
X-91.733 Y-16.191 Z2.285
X-90.562 Y-15.75 Z2.284
G2 X-9.743 Y-100.686 Z2.125 I22.562 J-59.45
G1 X-10.244 Y-101.851 Z2.124
X-10.712 Y-102.985 Z2.122
X-11.149 Y-104.092 Z2.121
X-11.558 Y-105.176 Z2.12
X-11.939 Y-106.234 Z2.119
X-12.292 Y-107.272 Z2.118
X-12.619 Y-108.288 Z2.116
X-12.922 Y-109.287 Z2.115
X-13.201 Y-110.269 Z2.114
X-13.458 Y-111.237 Z2.113
X-13.694 Y-112.193 Z2.112
X-13.911 Y-113.14 Z2.111
X-14.109 Y-114.08 Z2.11
X-14.29 Y-115.016 Z2.109
X-14.456 Y-115.951 Z2.108
X-14.606 Y-116.886 Z2.107
X-14.743 Y-117.824 Z2.106
X-14.867 Y-118.771 Z2.105
X-14.979 Y-119.725 Z2.104
X-15.08 Y-120.691 Z2.103
X-15.17 Y-121.671 Z2.102
X-15.251 Y-122.668 Z2.101
X-15.322 Y-123.684 Z2.1
X-15.385 Y-124.721 Z2.099
X-15.44 Y-125.781 Z2.098
X-15.486 Y-126.866 Z2.096
X-15.525 Y-127.979 Z2.095
X-15.557 Y-129.119 Z2.094
X-15.581 Y-130.292 Z2.093
X-15.599 Y-131.495 Z2.091
X-15.609 Y-132.731 Z2.09
X-15.613 Y-134.002 Z2.089
Y-165.998 Z2.055
X-15.609 Y-167.269 Z2.053
X-15.599 Y-168.505 Z2.052
X-15.581 Y-169.708 Z2.051
X-15.557 Y-170.881 Z2.05
X-15.525 Y-172.021 Z2.048
X-15.486 Y-173.134 Z2.047
X-15.44 Y-174.219 Z2.046
X-15.385 Y-175.279 Z2.045
X-15.322 Y-176.316 Z2.044
X-15.251 Y-177.332 Z2.043
X-15.17 Y-178.329 Z2.042
X-15.08 Y-179.309 Z2.041
X-14.979 Y-180.275 Z2.039
X-14.867 Y-181.229 Z2.038
X-14.743 Y-182.176 Z2.037
X-14.606 Y-183.114 Z2.036
X-14.456 Y-184.049 Z2.035
X-14.29 Y-184.984 Z2.034
X-14.109 Y-185.92 Z2.033
X-13.911 Y-186.86 Z2.032
X-13.694 Y-187.807 Z2.031
X-13.458 Y-188.763 Z2.03
X-13.201 Y-189.731 Z2.029
X-12.922 Y-190.713 Z2.028
X-12.619 Y-191.712 Z2.027
X-12.292 Y-192.728 Z2.026
X-11.939 Y-193.766 Z2.025
X-11.558 Y-194.824 Z2.024
X-11.149 Y-195.908 Z2.022
X-10.712 Y-197.015 Z2.021
X-10.244 Y-198.149 Z2.02
X-9.743 Y-199.314 Z2.018
G2 X-90.562 Y-284.251 Z1.86 I-58.257 J-25.487
G1 X-91.733 Y-283.808 Z1.858
X-92.884 Y-283.38 Z1.857
X-94.016 Y-282.965 Z1.856
X-95.131 Y-282.562 Z1.854
X-96.229 Y-282.171 Z1.853
X-97.31 Y-281.793 Z1.852
X-98.377 Y-281.427 Z1.851
X-99.43 Y-281.073 Z1.85
X-100.471 Y-280.731 Z1.848
X-101.5 Y-280.401 Z1.847
X-102.52 Y-280.082 Z1.846
X-103.533 Y-279.775 Z1.845
X-104.539 Y-279.481 Z1.844
X-105.542 Y-279.198 Z1.843
X-106.543 Y-278.926 Z1.842
X-107.543 Y-278.667 Z1.841
X-108.543 Y-278.421 Z1.839
X-109.548 Y-278.188 Z1.838
X-110.557 Y-277.966 Z1.837
X-111.574 Y-277.759 Z1.836
X-112.6 Y-277.564 Z1.835
X-113.636 Y-277.384 Z1.834
X-114.686 Y-277.219 Z1.833
X-115.75 Y-277.07 Z1.832
X-116.832 Y-276.936 Z1.83
X-117.932 Y-276.818 Z1.829
X-119.052 Y-276.717 Z1.828
X-120.193 Y-276.634 Z1.827
X-121.359 Y-276.569 Z1.826
X-122.547 Y-276.521 Z1.824
X-123.76 Y-276.492 Z1.823
X-125 Y-276.484 Z1.822
X-126.24 Y-276.492 Z1.82
X-127.453 Y-276.521 Z1.819
X-128.641 Y-276.569 Z1.818
X-129.807 Y-276.634 Z1.817
X-130.948 Y-276.717 Z1.815
X-132.068 Y-276.818 Z1.814
X-133.168 Y-276.936 Z1.813
X-134.25 Y-277.07 Z1.812
X-135.314 Y-277.219 Z1.811
X-136.364 Y-277.384 Z1.81
X-137.4 Y-277.564 Z1.808
X-138.426 Y-277.759 Z1.807
X-139.443 Y-277.966 Z1.806
X-140.452 Y-278.188 Z1.805
X-141.457 Y-278.421 Z1.804
X-142.457 Y-278.667 Z1.803
X-143.457 Y-278.926 Z1.802
X-144.458 Y-279.198 Z1.801
X-145.461 Y-279.481 Z1.8
X-146.467 Y-279.775 Z1.799
X-147.48 Y-280.082 Z1.797
X-148.5 Y-280.401 Z1.796
X-149.529 Y-280.731 Z1.795
X-150.57 Y-281.073 Z1.794
X-151.624 Y-281.427 Z1.793
X-152.689 Y-281.793 Z1.792
X-153.771 Y-282.171 Z1.79
X-154.869 Y-282.562 Z1.789
X-155.984 Y-282.965 Z1.788
X-157.117 Y-283.38 Z1.787
X-158.267 Y-283.808 Z1.785
X-159.438 Y-284.251 Z1.784
G2 X-240.256 Y-199.313 Z1.625 I-22.562 J59.451
G1 X-239.756 Y-198.149 Z1.624
X-239.288 Y-197.016 Z1.622
X-238.851 Y-195.908 Z1.621
X-238.442 Y-194.824 Z1.62
X-238.062 Y-193.766 Z1.619
X-237.708 Y-192.727 Z1.618
X-237.38 Y-191.712 Z1.616
X-237.078 Y-190.713 Z1.615
X-236.799 Y-189.731 Z1.614
X-236.542 Y-188.763 Z1.613
X-236.306 Y-187.807 Z1.612
X-236.09 Y-186.86 Z1.611
X-235.891 Y-185.92 Z1.61
X-235.71 Y-184.984 Z1.609
X-235.544 Y-184.05 Z1.608
X-235.394 Y-183.115 Z1.607
X-235.258 Y-182.175 Z1.606
X-235.133 Y-181.229 Z1.605
X-235.021 Y-180.275 Z1.604
X-234.92 Y-179.309 Z1.603
X-234.83 Y-178.329 Z1.602
X-234.749 Y-177.332 Z1.601
X-234.677 Y-176.317 Z1.6
X-234.615 Y-175.28 Z1.599
X-234.561 Y-174.219 Z1.598
X-234.513 Y-173.134 Z1.596
X-234.475 Y-172.021 Z1.595
X-234.443 Y-170.88 Z1.594
X-234.418 Y-169.708 Z1.593
X-234.401 Y-168.505 Z1.591
X-234.39 Y-167.269 Z1.59
X-234.387 Y-165.998 Z1.589
Y-134.002 Z1.555
X-234.39 Y-132.731 Z1.553
X-234.401 Y-131.495 Z1.552
X-234.418 Y-130.292 Z1.551
X-234.443 Y-129.12 Z1.55
X-234.475 Y-127.979 Z1.548
X-234.513 Y-126.866 Z1.547
X-234.561 Y-125.781 Z1.546
X-234.615 Y-124.72 Z1.545
X-234.677 Y-123.683 Z1.544
X-234.749 Y-122.668 Z1.543
X-234.83 Y-121.671 Z1.542
X-234.92 Y-120.691 Z1.541
X-235.021 Y-119.725 Z1.539
X-235.133 Y-118.771 Z1.538
X-235.258 Y-117.825 Z1.537
X-235.394 Y-116.885 Z1.536
X-235.544 Y-115.95 Z1.535
X-235.71 Y-115.016 Z1.534
X-235.891 Y-114.08 Z1.533
X-236.09 Y-113.14 Z1.532
X-236.306 Y-112.193 Z1.531
X-236.542 Y-111.237 Z1.53
X-236.799 Y-110.269 Z1.529
X-237.078 Y-109.287 Z1.528
X-237.38 Y-108.288 Z1.527
X-237.708 Y-107.273 Z1.526
X-238.062 Y-106.234 Z1.525
X-238.442 Y-105.176 Z1.524
X-238.851 Y-104.092 Z1.522
X-239.288 Y-102.984 Z1.521
X-239.756 Y-101.851 Z1.52
X-240.256 Y-100.687 Z1.518
G2 X-159.438 Y-15.75 Z1.36 I58.256 J25.486
G1 X-158.267 Y-16.191 Z1.358
X-157.117 Y-16.62 Z1.357
X-155.984 Y-17.035 Z1.356
X-154.869 Y-17.438 Z1.354
X-153.771 Y-17.829 Z1.353
X-152.689 Y-18.207 Z1.352
X-151.623 Y-18.573 Z1.351
X-150.57 Y-18.927 Z1.35
X-149.53 Y-19.269 Z1.348
X-148.5 Y-19.599 Z1.347
X-147.48 Y-19.918 Z1.346
X-146.467 Y-20.224 Z1.345
X-145.46 Y-20.519 Z1.344
X-144.458 Y-20.802 Z1.343
X-143.457 Y-21.073 Z1.342
X-142.457 Y-21.332 Z1.341
X-141.456 Y-21.579 Z1.339
X-140.452 Y-21.813 Z1.338
X-139.443 Y-22.034 Z1.337
X-138.427 Y-22.242 Z1.336
X-137.401 Y-22.436 Z1.335
X-136.364 Y-22.615 Z1.334
X-135.314 Y-22.78 Z1.333
X-134.25 Y-22.93 Z1.332
X-133.168 Y-23.064 Z1.33
X-132.068 Y-23.182 Z1.329
X-130.948 Y-23.283 Z1.328
X-129.806 Y-23.366 Z1.327
X-128.642 Y-23.432 Z1.326
X-127.454 Y-23.479 Z1.324
X-126.239 Y-23.507 Z1.323
X-125 Y-23.517 Z1.322
X-123.761 Y-23.507 Z1.32
X-122.546 Y-23.479 Z1.319
X-121.358 Y-23.432 Z1.318
X-120.194 Y-23.366 Z1.317
X-119.052 Y-23.283 Z1.315
X-117.932 Y-23.182 Z1.314
X-116.832 Y-23.064 Z1.313
X-115.75 Y-22.93 Z1.312
X-114.686 Y-22.78 Z1.311
X-113.636 Y-22.615 Z1.31
X-112.599 Y-22.436 Z1.308
X-111.573 Y-22.242 Z1.307
X-110.557 Y-22.034 Z1.306
X-109.548 Y-21.813 Z1.305
X-108.544 Y-21.579 Z1.304
X-107.543 Y-21.332 Z1.303
X-106.543 Y-21.073 Z1.302
X-105.542 Y-20.802 Z1.301
X-104.54 Y-20.519 Z1.3
X-103.533 Y-20.224 Z1.299
X-102.52 Y-19.918 Z1.297
X-101.5 Y-19.599 Z1.296
X-100.471 Y-19.269 Z1.295
X-99.43 Y-18.927 Z1.294
X-98.377 Y-18.573 Z1.293
X-97.31 Y-18.207 Z1.292
X-96.229 Y-17.829 Z1.29
X-95.131 Y-17.438 Z1.289
X-94.016 Y-17.035 Z1.288
X-92.884 Y-16.62 Z1.287
X-91.733 Y-16.191 Z1.285
X-90.562 Y-15.75 Z1.284
G2 X-9.743 Y-100.686 Z1.125 I22.562 J-59.45
G1 X-10.244 Y-101.851 Z1.124
X-10.712 Y-102.985 Z1.122
X-11.149 Y-104.092 Z1.121
X-11.558 Y-105.176 Z1.12
X-11.939 Y-106.234 Z1.119
X-12.292 Y-107.272 Z1.118
X-12.619 Y-108.288 Z1.116
X-12.922 Y-109.287 Z1.115
X-13.201 Y-110.269 Z1.114
X-13.458 Y-111.237 Z1.113
X-13.694 Y-112.193 Z1.112
X-13.911 Y-113.14 Z1.111
X-14.109 Y-114.08 Z1.11
X-14.29 Y-115.016 Z1.109
X-14.456 Y-115.951 Z1.108
X-14.606 Y-116.886 Z1.107
X-14.743 Y-117.824 Z1.106
X-14.867 Y-118.771 Z1.105
X-14.979 Y-119.725 Z1.104
X-15.08 Y-120.691 Z1.103
X-15.17 Y-121.671 Z1.102
X-15.251 Y-122.668 Z1.101
X-15.322 Y-123.684 Z1.1
X-15.385 Y-124.721 Z1.099
X-15.44 Y-125.781 Z1.098
X-15.486 Y-126.866 Z1.096
X-15.525 Y-127.979 Z1.095
X-15.557 Y-129.119 Z1.094
X-15.581 Y-130.292 Z1.093
X-15.599 Y-131.495 Z1.091
X-15.609 Y-132.731 Z1.09
X-15.613 Y-134.002 Z1.089
Y-165.998 Z1.055
X-15.609 Y-167.269 Z1.053
X-15.599 Y-168.505 Z1.052
X-15.581 Y-169.708 Z1.051
X-15.557 Y-170.881 Z1.05
X-15.525 Y-172.021 Z1.048
X-15.486 Y-173.134 Z1.047
X-15.44 Y-174.219 Z1.046
X-15.385 Y-175.279 Z1.045
X-15.322 Y-176.316 Z1.044
X-15.251 Y-177.332 Z1.043
X-15.17 Y-178.329 Z1.042
X-15.08 Y-179.309 Z1.041
X-14.979 Y-180.275 Z1.039
X-14.867 Y-181.229 Z1.038
X-14.743 Y-182.176 Z1.037
X-14.606 Y-183.114 Z1.036
X-14.456 Y-184.049 Z1.035
X-14.29 Y-184.984 Z1.034
X-14.109 Y-185.92 Z1.033
X-13.911 Y-186.86 Z1.032
X-13.694 Y-187.807 Z1.031
X-13.458 Y-188.763 Z1.03
X-13.201 Y-189.731 Z1.029
X-12.922 Y-190.713 Z1.028
X-12.619 Y-191.712 Z1.027
X-12.292 Y-192.728 Z1.026
X-11.939 Y-193.766 Z1.025
X-11.558 Y-194.824 Z1.024
X-11.149 Y-195.908 Z1.022
X-10.712 Y-197.015 Z1.021
X-10.244 Y-198.149 Z1.02
X-9.743 Y-199.314 Z1.018
G2 X-90.562 Y-284.251 Z0.86 I-58.257 J-25.487
G1 X-91.733 Y-283.808 Z0.858
X-92.884 Y-283.38 Z0.857
X-94.016 Y-282.965 Z0.856
X-95.131 Y-282.562 Z0.854
X-96.229 Y-282.171 Z0.853
X-97.31 Y-281.793 Z0.852
X-98.377 Y-281.427 Z0.851
X-99.43 Y-281.073 Z0.85
X-100.471 Y-280.731 Z0.848
X-101.5 Y-280.401 Z0.847
X-102.52 Y-280.082 Z0.846
X-103.533 Y-279.775 Z0.845
X-104.539 Y-279.481 Z0.844
X-105.542 Y-279.198 Z0.843
X-106.543 Y-278.926 Z0.842
X-107.543 Y-278.667 Z0.841
X-108.543 Y-278.421 Z0.839
X-109.548 Y-278.188 Z0.838
X-110.557 Y-277.966 Z0.837
X-111.574 Y-277.759 Z0.836
X-112.6 Y-277.564 Z0.835
X-113.636 Y-277.384 Z0.834
X-114.686 Y-277.219 Z0.833
X-115.75 Y-277.07 Z0.832
X-116.832 Y-276.936 Z0.83
X-117.932 Y-276.818 Z0.829
X-119.052 Y-276.717 Z0.828
X-120.193 Y-276.634 Z0.827
X-121.359 Y-276.569 Z0.826
X-122.547 Y-276.521 Z0.824
X-123.76 Y-276.492 Z0.823
X-125 Y-276.484 Z0.822
X-126.24 Y-276.492 Z0.82
X-127.453 Y-276.521 Z0.819
X-128.641 Y-276.569 Z0.818
X-129.807 Y-276.634 Z0.817
X-130.948 Y-276.717 Z0.815
X-132.068 Y-276.818 Z0.814
X-133.168 Y-276.936 Z0.813
X-134.25 Y-277.07 Z0.812
X-135.314 Y-277.219 Z0.811
X-136.364 Y-277.384 Z0.81
X-137.4 Y-277.564 Z0.808
X-138.426 Y-277.759 Z0.807
X-139.443 Y-277.966 Z0.806
X-140.452 Y-278.188 Z0.805
X-141.457 Y-278.421 Z0.804
X-142.457 Y-278.667 Z0.803
X-143.457 Y-278.926 Z0.802
X-144.458 Y-279.198 Z0.801
X-145.461 Y-279.481 Z0.8
X-146.467 Y-279.775 Z0.799
X-147.48 Y-280.082 Z0.797
X-148.5 Y-280.401 Z0.796
X-149.529 Y-280.731 Z0.795
X-150.57 Y-281.073 Z0.794
X-151.624 Y-281.427 Z0.793
X-152.689 Y-281.793 Z0.792
X-153.771 Y-282.171 Z0.79
X-154.869 Y-282.562 Z0.789
X-155.984 Y-282.965 Z0.788
X-157.117 Y-283.38 Z0.787
X-158.267 Y-283.808 Z0.785
X-159.438 Y-284.251 Z0.784
G2 X-240.256 Y-199.313 Z0.625 I-22.562 J59.451
G1 X-239.756 Y-198.149 Z0.624
X-239.288 Y-197.016 Z0.622
X-238.851 Y-195.908 Z0.621
X-238.442 Y-194.824 Z0.62
X-238.062 Y-193.766 Z0.619
X-237.708 Y-192.727 Z0.618
X-237.38 Y-191.712 Z0.616
X-237.078 Y-190.713 Z0.615
X-236.799 Y-189.731 Z0.614
X-236.542 Y-188.763 Z0.613
X-236.306 Y-187.807 Z0.612
X-236.09 Y-186.86 Z0.611
X-235.891 Y-185.92 Z0.61
X-235.71 Y-184.984 Z0.609
X-235.544 Y-184.05 Z0.608
X-235.394 Y-183.115 Z0.607
X-235.258 Y-182.175 Z0.606
X-235.133 Y-181.229 Z0.605
X-235.021 Y-180.275 Z0.604
X-234.92 Y-179.309 Z0.603
X-234.83 Y-178.329 Z0.602
X-234.749 Y-177.332 Z0.601
X-234.677 Y-176.317 Z0.6
X-234.615 Y-175.28 Z0.599
X-234.561 Y-174.219 Z0.598
X-234.513 Y-173.134 Z0.596
X-234.475 Y-172.021 Z0.595
X-234.443 Y-170.88 Z0.594
X-234.418 Y-169.708 Z0.593
X-234.401 Y-168.505 Z0.591
X-234.39 Y-167.269 Z0.59
X-234.387 Y-165.998 Z0.589
Y-134.002 Z0.555
X-234.39 Y-132.731 Z0.553
X-234.401 Y-131.495 Z0.552
X-234.418 Y-130.292 Z0.551
X-234.443 Y-129.12 Z0.55
X-234.475 Y-127.979 Z0.548
X-234.513 Y-126.866 Z0.547
X-234.561 Y-125.781 Z0.546
X-234.615 Y-124.72 Z0.545
X-234.677 Y-123.683 Z0.544
X-234.749 Y-122.668 Z0.543
X-234.83 Y-121.671 Z0.542
X-234.92 Y-120.691 Z0.541
X-235.021 Y-119.725 Z0.539
X-235.133 Y-118.771 Z0.538
X-235.258 Y-117.825 Z0.537
X-235.394 Y-116.885 Z0.536
X-235.544 Y-115.95 Z0.535
X-235.71 Y-115.016 Z0.534
X-235.891 Y-114.08 Z0.533
X-236.09 Y-113.14 Z0.532
X-236.306 Y-112.193 Z0.531
X-236.542 Y-111.237 Z0.53
X-236.799 Y-110.269 Z0.529
X-237.078 Y-109.287 Z0.528
X-237.38 Y-108.288 Z0.527
X-237.708 Y-107.273 Z0.526
X-238.062 Y-106.234 Z0.525
X-238.442 Y-105.176 Z0.524
X-238.851 Y-104.092 Z0.522
X-239.288 Y-102.984 Z0.521
X-239.756 Y-101.851 Z0.52
X-240.256 Y-100.687 Z0.518
G2 X-159.438 Y-15.75 Z0.36 I58.256 J25.486
G1 X-158.267 Y-16.191 Z0.358
X-157.117 Y-16.62 Z0.357
X-155.984 Y-17.035 Z0.356
X-154.869 Y-17.438 Z0.354
X-153.771 Y-17.829 Z0.353
X-152.689 Y-18.207 Z0.352
X-151.623 Y-18.573 Z0.351
X-150.57 Y-18.927 Z0.35
X-149.53 Y-19.269 Z0.348
X-148.5 Y-19.599 Z0.347
X-147.48 Y-19.918 Z0.346
X-146.467 Y-20.224 Z0.345
X-145.46 Y-20.519 Z0.344
X-144.458 Y-20.802 Z0.343
X-143.457 Y-21.073 Z0.342
X-142.457 Y-21.332 Z0.341
X-141.456 Y-21.579 Z0.339
X-140.452 Y-21.813 Z0.338
X-139.443 Y-22.034 Z0.337
X-138.427 Y-22.242 Z0.336
X-137.401 Y-22.436 Z0.335
X-136.364 Y-22.615 Z0.334
X-135.314 Y-22.78 Z0.333
X-134.25 Y-22.93 Z0.332
X-133.168 Y-23.064 Z0.33
X-132.068 Y-23.182 Z0.329
X-130.948 Y-23.283 Z0.328
X-129.806 Y-23.366 Z0.327
X-128.642 Y-23.432 Z0.326
X-127.454 Y-23.479 Z0.324
X-126.239 Y-23.507 Z0.323
X-125 Y-23.517 Z0.322
X-123.761 Y-23.507 Z0.32
X-122.546 Y-23.479 Z0.319
X-121.358 Y-23.432 Z0.318
X-120.194 Y-23.366 Z0.317
X-119.052 Y-23.283 Z0.315
X-117.932 Y-23.182 Z0.314
X-116.832 Y-23.064 Z0.313
X-115.75 Y-22.93 Z0.312
X-114.686 Y-22.78 Z0.311
X-113.636 Y-22.615 Z0.31
X-112.599 Y-22.436 Z0.308
X-111.573 Y-22.242 Z0.307
X-110.557 Y-22.034 Z0.306
X-109.548 Y-21.813 Z0.305
X-108.544 Y-21.579 Z0.304
X-107.543 Y-21.332 Z0.303
X-106.543 Y-21.073 Z0.302
X-105.542 Y-20.802 Z0.301
X-104.54 Y-20.519 Z0.3
X-103.533 Y-20.224 Z0.299
X-102.52 Y-19.918 Z0.297
X-101.5 Y-19.599 Z0.296
X-100.471 Y-19.269 Z0.295
X-99.43 Y-18.927 Z0.294
X-98.377 Y-18.573 Z0.293
X-97.31 Y-18.207 Z0.292
X-96.229 Y-17.829 Z0.29
X-95.131 Y-17.438 Z0.289
X-94.016 Y-17.035 Z0.288
X-92.884 Y-16.62 Z0.287
X-91.733 Y-16.191 Z0.285
X-90.562 Y-15.75 Z0.284
G2 X-9.743 Y-100.686 Z0.125 I22.562 J-59.45
G1 X-10.244 Y-101.851 Z0.124
X-10.712 Y-102.985 Z0.122
X-11.149 Y-104.092 Z0.121
X-11.558 Y-105.176 Z0.12
X-11.939 Y-106.234 Z0.119
X-12.292 Y-107.272 Z0.118
X-12.619 Y-108.288 Z0.116
X-12.922 Y-109.287 Z0.115
X-13.201 Y-110.269 Z0.114
X-13.458 Y-111.237 Z0.113
X-13.694 Y-112.193 Z0.112
X-13.911 Y-113.14 Z0.111
X-14.109 Y-114.08 Z0.11
X-14.29 Y-115.016 Z0.109
X-14.456 Y-115.951 Z0.108
X-14.606 Y-116.886 Z0.107
X-14.743 Y-117.824 Z0.106
X-14.867 Y-118.771 Z0.105
X-14.979 Y-119.725 Z0.104
X-15.08 Y-120.691 Z0.103
X-15.17 Y-121.671 Z0.102
X-15.251 Y-122.668 Z0.101
X-15.322 Y-123.684 Z0.1
X-15.385 Y-124.721 Z0.099
X-15.44 Y-125.781 Z0.098
X-15.486 Y-126.866 Z0.096
X-15.525 Y-127.979 Z0.095
X-15.557 Y-129.119 Z0.094
X-15.581 Y-130.292 Z0.093
X-15.599 Y-131.495 Z0.091
X-15.609 Y-132.731 Z0.09
X-15.613 Y-134.002 Z0.089
Y-165.998 Z0.055
X-15.609 Y-167.269 Z0.053
X-15.599 Y-168.505 Z0.052
X-15.581 Y-169.708 Z0.051
X-15.557 Y-170.881 Z0.05
X-15.525 Y-172.021 Z0.048
X-15.486 Y-173.134 Z0.047
X-15.44 Y-174.219 Z0.046
X-15.385 Y-175.279 Z0.045
X-15.322 Y-176.316 Z0.044
X-15.251 Y-177.332 Z0.043
X-15.17 Y-178.329 Z0.042
X-15.08 Y-179.309 Z0.041
X-14.979 Y-180.275 Z0.039
X-14.867 Y-181.229 Z0.038
X-14.743 Y-182.176 Z0.037
X-14.606 Y-183.114 Z0.036
X-14.456 Y-184.049 Z0.035
X-14.29 Y-184.984 Z0.034
X-14.109 Y-185.92 Z0.033
X-13.911 Y-186.86 Z0.032
X-13.694 Y-187.807 Z0.031
X-13.458 Y-188.763 Z0.03
X-13.201 Y-189.731 Z0.029
X-12.922 Y-190.713 Z0.028
X-12.619 Y-191.712 Z0.027
X-12.292 Y-192.728 Z0.026
X-11.939 Y-193.766 Z0.025
X-11.558 Y-194.824 Z0.024
X-11.149 Y-195.908 Z0.022
X-10.712 Y-197.015 Z0.021
X-10.244 Y-198.149 Z0.02
X-9.743 Y-199.314 Z0.018
G2 X-90.562 Y-284.251 Z-0.14 I-58.257 J-25.487
G1 X-91.733 Y-283.808 Z-0.142
X-92.884 Y-283.38 Z-0.143
X-94.016 Y-282.965 Z-0.144
X-95.131 Y-282.562 Z-0.146
X-96.229 Y-282.171 Z-0.147
X-97.31 Y-281.793 Z-0.148
X-98.377 Y-281.427 Z-0.149
X-99.43 Y-281.073 Z-0.15
X-100.471 Y-280.731 Z-0.152
X-101.5 Y-280.401 Z-0.153
X-102.52 Y-280.082 Z-0.154
X-103.533 Y-279.775 Z-0.155
X-104.539 Y-279.481 Z-0.156
X-105.542 Y-279.198 Z-0.157
X-106.543 Y-278.926 Z-0.158
X-107.543 Y-278.667 Z-0.159
X-108.543 Y-278.421 Z-0.161
X-109.548 Y-278.188 Z-0.162
X-110.557 Y-277.966 Z-0.163
X-111.574 Y-277.759 Z-0.164
X-112.6 Y-277.564 Z-0.165
X-113.636 Y-277.384 Z-0.166
X-114.686 Y-277.219 Z-0.167
X-115.75 Y-277.07 Z-0.168
X-116.832 Y-276.936 Z-0.17
X-117.932 Y-276.818 Z-0.171
X-119.052 Y-276.717 Z-0.172
X-120.193 Y-276.634 Z-0.173
X-121.359 Y-276.569 Z-0.174
X-122.547 Y-276.521 Z-0.176
X-123.76 Y-276.492 Z-0.177
X-125 Y-276.484 Z-0.178
X-126.24 Y-276.492 Z-0.18
X-127.453 Y-276.521 Z-0.181
X-128.641 Y-276.569 Z-0.182
X-129.807 Y-276.634 Z-0.183
X-130.948 Y-276.717 Z-0.185
X-132.068 Y-276.818 Z-0.186
X-133.168 Y-276.936 Z-0.187
X-134.25 Y-277.07 Z-0.188
X-135.314 Y-277.219 Z-0.189
X-136.364 Y-277.384 Z-0.19
X-137.4 Y-277.564 Z-0.192
X-138.426 Y-277.759 Z-0.193
X-139.443 Y-277.966 Z-0.194
X-140.452 Y-278.188 Z-0.195
X-141.457 Y-278.421 Z-0.196
X-142.457 Y-278.667 Z-0.197
X-143.457 Y-278.926 Z-0.198
X-144.458 Y-279.198 Z-0.199
X-145.461 Y-279.481 Z-0.2
X-146.467 Y-279.775 Z-0.201
X-147.48 Y-280.082 Z-0.203
X-148.5 Y-280.401 Z-0.204
X-149.529 Y-280.731 Z-0.205
X-150.57 Y-281.073 Z-0.206
X-151.624 Y-281.427 Z-0.207
X-152.689 Y-281.793 Z-0.208
X-153.771 Y-282.171 Z-0.21
X-154.869 Y-282.562 Z-0.211
X-155.984 Y-282.965 Z-0.212
X-157.117 Y-283.38 Z-0.213
X-158.267 Y-283.808 Z-0.215
X-159.438 Y-284.251 Z-0.216
G2 X-240.256 Y-199.313 Z-0.375 I-22.562 J59.451
G1 X-239.756 Y-198.149 Z-0.376
X-239.288 Y-197.016 Z-0.378
X-238.851 Y-195.908 Z-0.379
X-238.442 Y-194.824 Z-0.38
X-238.062 Y-193.766 Z-0.381
X-237.708 Y-192.727 Z-0.382
X-237.38 Y-191.712 Z-0.384
X-237.078 Y-190.713 Z-0.385
X-236.799 Y-189.731 Z-0.386
X-236.542 Y-188.763 Z-0.387
X-236.306 Y-187.807 Z-0.388
X-236.09 Y-186.86 Z-0.389
X-235.891 Y-185.92 Z-0.39
X-235.71 Y-184.984 Z-0.391
X-235.544 Y-184.05 Z-0.392
X-235.394 Y-183.115 Z-0.393
X-235.258 Y-182.175 Z-0.394
X-235.133 Y-181.229 Z-0.395
X-235.021 Y-180.275 Z-0.396
X-234.92 Y-179.309 Z-0.397
X-234.83 Y-178.329 Z-0.398
X-234.749 Y-177.332 Z-0.399
X-234.677 Y-176.317 Z-0.4
X-234.615 Y-175.28 Z-0.401
X-234.561 Y-174.219 Z-0.402
X-234.513 Y-173.134 Z-0.404
X-234.475 Y-172.021 Z-0.405
X-234.443 Y-170.88 Z-0.406
X-234.418 Y-169.708 Z-0.407
X-234.401 Y-168.505 Z-0.409
X-234.39 Y-167.269 Z-0.41
X-234.387 Y-165.998 Z-0.411
Y-134.002 Z-0.445
X-234.39 Y-132.731 Z-0.447
X-234.401 Y-131.495 Z-0.448
X-234.418 Y-130.292 Z-0.449
X-234.443 Y-129.12 Z-0.45
X-234.475 Y-127.979 Z-0.452
X-234.513 Y-126.866 Z-0.453
X-234.561 Y-125.781 Z-0.454
X-234.615 Y-124.72 Z-0.455
X-234.677 Y-123.683 Z-0.456
X-234.749 Y-122.668 Z-0.457
X-234.83 Y-121.671 Z-0.458
X-234.92 Y-120.691 Z-0.459
X-235.021 Y-119.725 Z-0.461
X-235.133 Y-118.771 Z-0.462
X-235.258 Y-117.825 Z-0.463
X-235.394 Y-116.885 Z-0.464
X-235.544 Y-115.95 Z-0.465
X-235.71 Y-115.016 Z-0.466
X-235.891 Y-114.08 Z-0.467
X-236.09 Y-113.14 Z-0.468
X-236.306 Y-112.193 Z-0.469
X-236.542 Y-111.237 Z-0.47
X-236.799 Y-110.269 Z-0.471
X-237.078 Y-109.287 Z-0.472
X-237.38 Y-108.288 Z-0.473
X-237.708 Y-107.273 Z-0.474
X-238.062 Y-106.234 Z-0.475
X-238.442 Y-105.176 Z-0.476
X-238.851 Y-104.092 Z-0.478
X-239.288 Y-102.984 Z-0.479
X-239.756 Y-101.851 Z-0.48
X-240.256 Y-100.687 Z-0.482
G2 X-159.438 Y-15.75 Z-0.64 I58.256 J25.486
G1 X-158.267 Y-16.191 Z-0.642
X-157.117 Y-16.62 Z-0.643
X-155.984 Y-17.035 Z-0.644
X-154.869 Y-17.438 Z-0.646
X-153.771 Y-17.829 Z-0.647
X-152.689 Y-18.207 Z-0.648
X-151.623 Y-18.573 Z-0.649
X-150.57 Y-18.927 Z-0.65
X-149.53 Y-19.269 Z-0.652
X-148.5 Y-19.599 Z-0.653
X-147.48 Y-19.918 Z-0.654
X-146.467 Y-20.224 Z-0.655
X-145.46 Y-20.519 Z-0.656
X-144.458 Y-20.802 Z-0.657
X-143.457 Y-21.073 Z-0.658
X-142.457 Y-21.332 Z-0.659
X-141.456 Y-21.579 Z-0.661
X-140.452 Y-21.813 Z-0.662
X-139.443 Y-22.034 Z-0.663
X-138.427 Y-22.242 Z-0.664
X-137.401 Y-22.436 Z-0.665
X-136.364 Y-22.615 Z-0.666
X-135.314 Y-22.78 Z-0.667
X-134.25 Y-22.93 Z-0.668
X-133.168 Y-23.064 Z-0.67
X-132.068 Y-23.182 Z-0.671
X-130.948 Y-23.283 Z-0.672
X-129.806 Y-23.366 Z-0.673
X-128.642 Y-23.432 Z-0.674
X-127.454 Y-23.479 Z-0.676
X-126.239 Y-23.507 Z-0.677
X-125 Y-23.517 Z-0.678
X-123.761 Y-23.507 Z-0.68
X-122.546 Y-23.479 Z-0.681
X-121.358 Y-23.432 Z-0.682
X-120.194 Y-23.366 Z-0.683
X-119.052 Y-23.283 Z-0.685
X-117.932 Y-23.182 Z-0.686
X-116.832 Y-23.064 Z-0.687
X-115.75 Y-22.93 Z-0.688
X-114.686 Y-22.78 Z-0.689
X-113.636 Y-22.615 Z-0.69
X-112.599 Y-22.436 Z-0.692
X-111.573 Y-22.242 Z-0.693
X-110.557 Y-22.034 Z-0.694
X-109.548 Y-21.813 Z-0.695
X-108.544 Y-21.579 Z-0.696
X-107.543 Y-21.332 Z-0.697
X-106.543 Y-21.073 Z-0.698
X-105.542 Y-20.802 Z-0.699
X-104.54 Y-20.519 Z-0.7
X-103.533 Y-20.224 Z-0.701
X-102.52 Y-19.918 Z-0.703
X-101.5 Y-19.599 Z-0.704
X-100.471 Y-19.269 Z-0.705
X-99.43 Y-18.927 Z-0.706
X-98.377 Y-18.573 Z-0.707
X-97.31 Y-18.207 Z-0.708
X-96.229 Y-17.829 Z-0.71
X-95.131 Y-17.438 Z-0.711
X-94.016 Y-17.035 Z-0.712
X-92.884 Y-16.62 Z-0.713
X-91.733 Y-16.191 Z-0.715
X-90.562 Y-15.75 Z-0.716
G2 X-9.743 Y-100.686 Z-0.875 I22.562 J-59.45
G1 X-10.244 Y-101.851 Z-0.876
X-10.712 Y-102.985 Z-0.878
X-11.149 Y-104.092 Z-0.879
X-11.558 Y-105.176 Z-0.88
X-11.939 Y-106.234 Z-0.881
X-12.292 Y-107.272 Z-0.882
X-12.619 Y-108.288 Z-0.884
X-12.922 Y-109.287 Z-0.885
X-13.201 Y-110.269 Z-0.886
X-13.458 Y-111.237 Z-0.887
X-13.694 Y-112.193 Z-0.888
X-13.911 Y-113.14 Z-0.889
X-14.109 Y-114.08 Z-0.89
X-14.29 Y-115.016 Z-0.891
X-14.456 Y-115.951 Z-0.892
X-14.606 Y-116.886 Z-0.893
X-14.743 Y-117.824 Z-0.894
X-14.867 Y-118.771 Z-0.895
X-14.979 Y-119.725 Z-0.896
X-15.08 Y-120.691 Z-0.897
X-15.17 Y-121.671 Z-0.898
X-15.251 Y-122.668 Z-0.899
X-15.322 Y-123.684 Z-0.9
X-15.385 Y-124.721 Z-0.901
X-15.44 Y-125.781 Z-0.902
X-15.486 Y-126.866 Z-0.904
X-15.525 Y-127.979 Z-0.905
X-15.557 Y-129.119 Z-0.906
X-15.581 Y-130.292 Z-0.907
X-15.599 Y-131.495 Z-0.909
X-15.609 Y-132.731 Z-0.91
X-15.613 Y-134.002 Z-0.911
Y-165.998 Z-0.945
X-15.609 Y-167.269 Z-0.947
X-15.599 Y-168.505 Z-0.948
X-15.581 Y-169.708 Z-0.949
X-15.557 Y-170.881 Z-0.95
X-15.525 Y-172.021 Z-0.952
X-15.486 Y-173.134 Z-0.953
X-15.44 Y-174.219 Z-0.954
X-15.385 Y-175.279 Z-0.955
X-15.322 Y-176.316 Z-0.956
X-15.251 Y-177.332 Z-0.957
X-15.17 Y-178.329 Z-0.958
X-15.08 Y-179.309 Z-0.959
X-14.979 Y-180.275 Z-0.961
X-14.867 Y-181.229 Z-0.962
X-14.743 Y-182.176 Z-0.963
X-14.606 Y-183.114 Z-0.964
X-14.456 Y-184.049 Z-0.965
X-14.29 Y-184.984 Z-0.966
X-14.109 Y-185.92 Z-0.967
X-13.911 Y-186.86 Z-0.968
X-13.694 Y-187.807 Z-0.969
X-13.458 Y-188.763 Z-0.97
X-13.201 Y-189.731 Z-0.971
X-12.922 Y-190.713 Z-0.972
X-12.619 Y-191.712 Z-0.973
X-12.292 Y-192.728 Z-0.974
X-11.939 Y-193.766 Z-0.975
X-11.558 Y-194.824 Z-0.976
X-11.149 Y-195.908 Z-0.978
X-10.712 Y-197.015 Z-0.979
X-10.244 Y-198.149 Z-0.98
X-9.743 Y-199.314 Z-0.982
G2 X-5.043 Y-215.863 Z-1 I-58.257 J-25.487
S6000
X-90.562 Y-284.251 I-62.957 J-8.937 F1000
G1 X-91.733 Y-283.808
X-92.884 Y-283.38
X-94.016 Y-282.965
X-95.131 Y-282.562
X-96.229 Y-282.171
X-97.31 Y-281.793
X-98.377 Y-281.427
X-99.43 Y-281.073
X-100.471 Y-280.731
X-101.5 Y-280.401
X-102.52 Y-280.082
X-103.533 Y-279.775
X-104.539 Y-279.481
X-105.542 Y-279.198
X-106.543 Y-278.926
X-107.543 Y-278.667
X-108.543 Y-278.421
X-109.548 Y-278.188
X-110.557 Y-277.966
X-111.574 Y-277.759
X-112.6 Y-277.564
X-113.636 Y-277.384
X-114.686 Y-277.219
X-115.75 Y-277.07
X-116.832 Y-276.936
X-117.932 Y-276.818
X-119.052 Y-276.717
X-120.193 Y-276.634
X-121.359 Y-276.569
X-122.547 Y-276.521
X-123.76 Y-276.492
X-125 Y-276.484
X-126.24 Y-276.492
X-127.453 Y-276.521
X-128.641 Y-276.569
X-129.807 Y-276.634
X-130.948 Y-276.717
X-132.068 Y-276.818
X-133.168 Y-276.936
X-134.25 Y-277.07
X-135.314 Y-277.219
X-136.364 Y-277.384
X-137.4 Y-277.564
X-138.426 Y-277.759
X-139.443 Y-277.966
X-140.452 Y-278.188
X-141.457 Y-278.421
X-142.457 Y-278.667
X-143.457 Y-278.926
X-144.458 Y-279.198
X-145.461 Y-279.481
X-146.467 Y-279.775
X-147.48 Y-280.082
X-148.5 Y-280.401
X-149.529 Y-280.731
X-150.57 Y-281.073
X-151.624 Y-281.427
X-152.689 Y-281.793
X-153.771 Y-282.171
X-154.869 Y-282.562
X-155.984 Y-282.965
X-157.117 Y-283.38
X-158.267 Y-283.808
X-159.438 Y-284.251
G2 X-240.256 Y-199.313 I-22.562 J59.451
G1 X-239.756 Y-198.149
X-239.288 Y-197.016
X-238.851 Y-195.908
X-238.442 Y-194.824
X-238.062 Y-193.766
X-237.708 Y-192.727
X-237.38 Y-191.712
X-237.078 Y-190.713
X-236.799 Y-189.731
X-236.542 Y-188.763
X-236.306 Y-187.807
X-236.09 Y-186.86
X-235.891 Y-185.92
X-235.71 Y-184.984
X-235.544 Y-184.05
X-235.394 Y-183.115
X-235.258 Y-182.175
X-235.133 Y-181.229
X-235.021 Y-180.275
X-234.92 Y-179.309
X-234.83 Y-178.329
X-234.749 Y-177.332
X-234.677 Y-176.317
X-234.615 Y-175.28
X-234.561 Y-174.219
X-234.513 Y-173.134
X-234.475 Y-172.021
X-234.443 Y-170.88
X-234.418 Y-169.708
X-234.401 Y-168.505
X-234.39 Y-167.269
X-234.387 Y-165.998
Y-134.002
X-234.39 Y-132.731
X-234.401 Y-131.495
X-234.418 Y-130.292
X-234.443 Y-129.12
X-234.475 Y-127.979
X-234.513 Y-126.866
X-234.561 Y-125.781
X-234.615 Y-124.72
X-234.677 Y-123.683
X-234.749 Y-122.668
X-234.83 Y-121.671
X-234.92 Y-120.691
X-235.021 Y-119.725
X-235.133 Y-118.771
X-235.258 Y-117.825
X-235.394 Y-116.885
X-235.544 Y-115.95
X-235.71 Y-115.016
X-235.891 Y-114.08
X-236.09 Y-113.14
X-236.306 Y-112.193
X-236.542 Y-111.237
X-236.799 Y-110.269
X-237.078 Y-109.287
X-237.38 Y-108.288
X-237.708 Y-107.273
X-238.062 Y-106.234
X-238.442 Y-105.176
X-238.851 Y-104.092
X-239.288 Y-102.984
X-239.756 Y-101.851
X-240.256 Y-100.687
G2 X-159.438 Y-15.75 I58.256 J25.486
G1 X-158.267 Y-16.191
X-157.117 Y-16.62
X-155.984 Y-17.035
X-154.869 Y-17.438
X-153.771 Y-17.829
X-152.689 Y-18.207
X-151.623 Y-18.573
X-150.57 Y-18.927
X-149.53 Y-19.269
X-148.5 Y-19.599
X-147.48 Y-19.918
X-146.467 Y-20.224
X-145.46 Y-20.519
X-144.458 Y-20.802
X-143.457 Y-21.073
X-142.457 Y-21.332
X-141.456 Y-21.579
X-140.452 Y-21.813
X-139.443 Y-22.034
X-138.427 Y-22.242
X-137.401 Y-22.436
X-136.364 Y-22.615
X-135.314 Y-22.78
X-134.25 Y-22.93
X-133.168 Y-23.064
X-132.068 Y-23.182
X-130.948 Y-23.283
X-129.806 Y-23.366
X-128.642 Y-23.432
X-127.454 Y-23.479
X-126.239 Y-23.507
X-125 Y-23.517
X-123.761 Y-23.507
X-122.546 Y-23.479
X-121.358 Y-23.432
X-120.194 Y-23.366
X-119.052 Y-23.283
X-117.932 Y-23.182
X-116.832 Y-23.064
X-115.75 Y-22.93
X-114.686 Y-22.78
X-113.636 Y-22.615
X-112.599 Y-22.436
X-111.573 Y-22.242
X-110.557 Y-22.034
X-109.548 Y-21.813
X-108.544 Y-21.579
X-107.543 Y-21.332
X-106.543 Y-21.073
X-105.542 Y-20.802
X-104.54 Y-20.519
X-103.533 Y-20.224
X-102.52 Y-19.918
X-101.5 Y-19.599
X-100.471 Y-19.269
X-99.43 Y-18.927
X-98.377 Y-18.573
X-97.31 Y-18.207
X-96.229 Y-17.829
X-95.131 Y-17.438
X-94.016 Y-17.035
X-92.884 Y-16.62
X-91.733 Y-16.191
X-90.562 Y-15.75
G2 X-9.743 Y-100.686 I22.562 J-59.45
G1 X-10.244 Y-101.851
X-10.712 Y-102.985
X-11.149 Y-104.092
X-11.558 Y-105.176
X-11.939 Y-106.234
X-12.292 Y-107.272
X-12.619 Y-108.288
X-12.922 Y-109.287
X-13.201 Y-110.269
X-13.458 Y-111.237
X-13.694 Y-112.193
X-13.911 Y-113.14
X-14.109 Y-114.08
X-14.29 Y-115.016
X-14.456 Y-115.951
X-14.606 Y-116.886
X-14.743 Y-117.824
X-14.867 Y-118.771
X-14.979 Y-119.725
X-15.08 Y-120.691
X-15.17 Y-121.671
X-15.251 Y-122.668
X-15.322 Y-123.684
X-15.385 Y-124.721
X-15.44 Y-125.781
X-15.486 Y-126.866
X-15.525 Y-127.979
X-15.557 Y-129.119
X-15.581 Y-130.292
X-15.599 Y-131.495
X-15.609 Y-132.731
X-15.613 Y-134.002
Y-165.998
X-15.609 Y-167.269
X-15.599 Y-168.505
X-15.581 Y-169.708
X-15.557 Y-170.881
X-15.525 Y-172.021
X-15.486 Y-173.134
X-15.44 Y-174.219
X-15.385 Y-175.279
X-15.322 Y-176.316
X-15.251 Y-177.332
X-15.17 Y-178.329
X-15.08 Y-179.309
X-14.979 Y-180.275
X-14.867 Y-181.229
X-14.743 Y-182.176
X-14.606 Y-183.114
X-14.456 Y-184.049
X-14.29 Y-184.984
X-14.109 Y-185.92
X-13.911 Y-186.86
X-13.694 Y-187.807
X-13.458 Y-188.763
X-13.201 Y-189.731
X-12.922 Y-190.713
X-12.619 Y-191.712
X-12.292 Y-192.728
X-11.939 Y-193.766
X-11.558 Y-194.824
X-11.149 Y-195.908
X-10.712 Y-197.015
X-10.244 Y-198.149
X-9.743 Y-199.314
G2 X-5.043 Y-215.863 I-58.257 J-25.487
S5000
X-90.562 Y-284.251 Z-1.14 I-62.957 J-8.937 F333.3
G1 X-91.733 Y-283.808 Z-1.142
X-92.884 Y-283.38 Z-1.143
X-94.016 Y-282.965 Z-1.144
X-95.131 Y-282.562 Z-1.146
X-96.229 Y-282.171 Z-1.147
X-97.31 Y-281.793 Z-1.148
X-98.377 Y-281.427 Z-1.149
X-99.43 Y-281.073 Z-1.15
X-100.471 Y-280.731 Z-1.152
X-101.5 Y-280.401 Z-1.153
X-102.52 Y-280.082 Z-1.154
X-103.533 Y-279.775 Z-1.155
X-104.539 Y-279.481 Z-1.156
X-105.542 Y-279.198 Z-1.157
X-106.543 Y-278.926 Z-1.158
X-107.543 Y-278.667 Z-1.159
X-108.543 Y-278.421 Z-1.161
X-109.548 Y-278.188 Z-1.162
X-110.557 Y-277.966 Z-1.163
X-111.574 Y-277.759 Z-1.164
X-112.6 Y-277.564 Z-1.165
X-113.636 Y-277.384 Z-1.166
X-114.686 Y-277.219 Z-1.167
X-115.75 Y-277.07 Z-1.168
X-116.832 Y-276.936 Z-1.17
X-117.932 Y-276.818 Z-1.171
X-119.052 Y-276.717 Z-1.172
X-120.193 Y-276.634 Z-1.173
X-121.359 Y-276.569 Z-1.174
X-122.547 Y-276.521 Z-1.176
X-123.76 Y-276.492 Z-1.177
X-125 Y-276.484 Z-1.178
X-126.24 Y-276.492 Z-1.18
X-127.453 Y-276.521 Z-1.181
X-128.641 Y-276.569 Z-1.182
X-129.807 Y-276.634 Z-1.183
X-130.948 Y-276.717 Z-1.185
X-132.068 Y-276.818 Z-1.186
X-133.168 Y-276.936 Z-1.187
X-134.25 Y-277.07 Z-1.188
X-135.314 Y-277.219 Z-1.189
X-136.364 Y-277.384 Z-1.19
X-137.4 Y-277.564 Z-1.192
X-138.426 Y-277.759 Z-1.193
X-139.443 Y-277.966 Z-1.194
X-140.452 Y-278.188 Z-1.195
X-141.457 Y-278.421 Z-1.196
X-142.457 Y-278.667 Z-1.197
X-143.457 Y-278.926 Z-1.198
X-144.458 Y-279.198 Z-1.199
X-145.461 Y-279.481 Z-1.2
X-146.467 Y-279.775 Z-1.201
X-147.48 Y-280.082 Z-1.203
X-148.5 Y-280.401 Z-1.204
X-149.529 Y-280.731 Z-1.205
X-150.57 Y-281.073 Z-1.206
X-151.624 Y-281.427 Z-1.207
X-152.689 Y-281.793 Z-1.208
X-153.771 Y-282.171 Z-1.21
X-154.869 Y-282.562 Z-1.211
X-155.984 Y-282.965 Z-1.212
X-157.117 Y-283.38 Z-1.213
X-158.267 Y-283.808 Z-1.215
X-159.438 Y-284.251 Z-1.216
G2 X-240.256 Y-199.313 Z-1.375 I-22.562 J59.451
G1 X-239.756 Y-198.149 Z-1.376
X-239.288 Y-197.016 Z-1.378
X-238.851 Y-195.908 Z-1.379
X-238.442 Y-194.824 Z-1.38
X-238.062 Y-193.766 Z-1.381
X-237.708 Y-192.727 Z-1.382
X-237.38 Y-191.712 Z-1.384
X-237.078 Y-190.713 Z-1.385
X-236.799 Y-189.731 Z-1.386
X-236.542 Y-188.763 Z-1.387
X-236.306 Y-187.807 Z-1.388
X-236.09 Y-186.86 Z-1.389
X-235.891 Y-185.92 Z-1.39
X-235.71 Y-184.984 Z-1.391
X-235.544 Y-184.05 Z-1.392
X-235.394 Y-183.115 Z-1.393
X-235.258 Y-182.175 Z-1.394
X-235.133 Y-181.229 Z-1.395
X-235.021 Y-180.275 Z-1.396
X-234.92 Y-179.309 Z-1.397
X-234.83 Y-178.329 Z-1.398
X-234.749 Y-177.332 Z-1.399
X-234.677 Y-176.317 Z-1.4
X-234.615 Y-175.28 Z-1.401
X-234.561 Y-174.219 Z-1.402
X-234.513 Y-173.134 Z-1.404
X-234.475 Y-172.021 Z-1.405
X-234.443 Y-170.88 Z-1.406
X-234.418 Y-169.708 Z-1.407
X-234.401 Y-168.505 Z-1.409
X-234.39 Y-167.269 Z-1.41
X-234.387 Y-165.998 Z-1.411
Y-156.932 Z-1.421
Z-1.3
Y-145.757
S6000
Z-1.433
S5000
Y-134.002 Z-1.445
X-234.39 Y-132.731 Z-1.447
X-234.401 Y-131.495 Z-1.448
X-234.418 Y-130.292 Z-1.449
X-234.443 Y-129.12 Z-1.45
X-234.475 Y-127.979 Z-1.452
X-234.513 Y-126.866 Z-1.453
X-234.561 Y-125.781 Z-1.454
X-234.615 Y-124.72 Z-1.455
X-234.677 Y-123.683 Z-1.456
X-234.749 Y-122.668 Z-1.457
X-234.83 Y-121.671 Z-1.458
X-234.92 Y-120.691 Z-1.459
X-235.021 Y-119.725 Z-1.461
X-235.133 Y-118.771 Z-1.462
X-235.258 Y-117.825 Z-1.463
X-235.394 Y-116.885 Z-1.464
X-235.544 Y-115.95 Z-1.465
X-235.71 Y-115.016 Z-1.466
X-235.891 Y-114.08 Z-1.467
X-236.09 Y-113.14 Z-1.468
X-236.306 Y-112.193 Z-1.469
X-236.542 Y-111.237 Z-1.47
X-236.799 Y-110.269 Z-1.471
X-237.078 Y-109.287 Z-1.472
X-237.38 Y-108.288 Z-1.473
X-237.708 Y-107.273 Z-1.474
X-238.062 Y-106.234 Z-1.475
X-238.187 Y-105.885 Z-1.476
Z-1.3
X-238.442 Y-105.176
X-238.851 Y-104.092
X-239.288 Y-102.984
X-239.756 Y-101.851
X-240.256 Y-100.687
G2 X-242.269 Y-95.474 I58.256 J25.486
S6000
G1 Z-1.488
S5000
G2 X-159.438 Y-15.75 Z-1.64 I60.269 J20.274
G1 X-158.267 Y-16.191 Z-1.642
X-157.117 Y-16.62 Z-1.643
X-155.984 Y-17.035 Z-1.644
X-154.869 Y-17.438 Z-1.646
X-153.771 Y-17.829 Z-1.647
X-152.689 Y-18.207 Z-1.648
X-151.623 Y-18.573 Z-1.649
X-150.57 Y-18.927 Z-1.65
X-149.53 Y-19.269 Z-1.652
X-148.5 Y-19.599 Z-1.653
X-147.48 Y-19.918 Z-1.654
X-146.467 Y-20.224 Z-1.655
X-145.46 Y-20.519 Z-1.656
X-144.458 Y-20.802 Z-1.657
X-143.457 Y-21.073 Z-1.658
X-142.457 Y-21.332 Z-1.659
X-141.456 Y-21.579 Z-1.661
X-140.452 Y-21.813 Z-1.662
X-139.443 Y-22.034 Z-1.663
X-138.427 Y-22.242 Z-1.664
X-137.401 Y-22.436 Z-1.665
X-136.364 Y-22.615 Z-1.666
X-135.314 Y-22.78 Z-1.667
X-134.25 Y-22.93 Z-1.668
X-133.168 Y-23.064 Z-1.67
X-132.068 Y-23.182 Z-1.671
X-130.948 Y-23.283 Z-1.672
X-130.587 Y-23.309
Z-1.3
X-129.806 Y-23.366
X-128.642 Y-23.432
X-127.454 Y-23.479
X-126.239 Y-23.507
X-125 Y-23.517
X-123.761 Y-23.507
X-122.546 Y-23.479
X-121.358 Y-23.432
X-120.194 Y-23.366
X-119.412 Y-23.309
S6000
Z-1.684
S5000
X-119.052 Y-23.283 Z-1.685
X-117.932 Y-23.182 Z-1.686
X-116.832 Y-23.064 Z-1.687
X-115.75 Y-22.93 Z-1.688
X-114.686 Y-22.78 Z-1.689
X-113.636 Y-22.615 Z-1.69
X-112.599 Y-22.436 Z-1.692
X-111.573 Y-22.242 Z-1.693
X-110.557 Y-22.034 Z-1.694
X-109.548 Y-21.813 Z-1.695
X-108.544 Y-21.579 Z-1.696
X-107.543 Y-21.332 Z-1.697
X-106.543 Y-21.073 Z-1.698
X-105.542 Y-20.802 Z-1.699
X-104.54 Y-20.519 Z-1.7
X-103.533 Y-20.224 Z-1.701
X-102.52 Y-19.918 Z-1.703
X-101.5 Y-19.599 Z-1.704
X-100.471 Y-19.269 Z-1.705
X-99.43 Y-18.927 Z-1.706
X-98.377 Y-18.573 Z-1.707
X-97.31 Y-18.207 Z-1.708
X-96.229 Y-17.829 Z-1.71
X-95.131 Y-17.438 Z-1.711
X-94.016 Y-17.035 Z-1.712
X-92.884 Y-16.62 Z-1.713
X-91.733 Y-16.191 Z-1.715
X-90.562 Y-15.75 Z-1.716
G2 X-7.731 Y-95.474 Z-1.869 I22.562 J-59.45
G1 Z-1.3
G2 X-9.743 Y-100.686 I-60.269 J20.274
G1 X-10.244 Y-101.851
X-10.712 Y-102.985
X-11.149 Y-104.092
X-11.558 Y-105.176
X-11.813 Y-105.886
S6000
Z-1.881
S5000
X-11.939 Y-106.234
X-12.292 Y-107.272 Z-1.882
X-12.619 Y-108.288 Z-1.884
X-12.922 Y-109.287 Z-1.885
X-13.201 Y-110.269 Z-1.886
X-13.458 Y-111.237 Z-1.887
X-13.694 Y-112.193 Z-1.888
X-13.911 Y-113.14 Z-1.889
X-14.109 Y-114.08 Z-1.89
X-14.29 Y-115.016 Z-1.891
X-14.456 Y-115.951 Z-1.892
X-14.606 Y-116.886 Z-1.893
X-14.743 Y-117.824 Z-1.894
X-14.867 Y-118.771 Z-1.895
X-14.979 Y-119.725 Z-1.896
X-15.08 Y-120.691 Z-1.897
X-15.17 Y-121.671 Z-1.898
X-15.251 Y-122.668 Z-1.899
X-15.322 Y-123.684 Z-1.9
X-15.385 Y-124.721 Z-1.901
X-15.44 Y-125.781 Z-1.902
X-15.486 Y-126.866 Z-1.904
X-15.525 Y-127.979 Z-1.905
X-15.557 Y-129.119 Z-1.906
X-15.581 Y-130.292 Z-1.907
X-15.599 Y-131.495 Z-1.909
X-15.609 Y-132.731 Z-1.91
X-15.613 Y-134.002 Z-1.911
Y-165.998 Z-1.945
X-15.609 Y-167.269 Z-1.947
X-15.599 Y-168.505 Z-1.948
X-15.581 Y-169.708 Z-1.949
X-15.557 Y-170.881 Z-1.95
X-15.525 Y-172.021 Z-1.952
X-15.486 Y-173.134 Z-1.953
X-15.44 Y-174.219 Z-1.954
X-15.385 Y-175.279 Z-1.955
X-15.322 Y-176.316 Z-1.956
X-15.251 Y-177.332 Z-1.957
X-15.17 Y-178.329 Z-1.958
X-15.08 Y-179.309 Z-1.959
X-14.979 Y-180.275 Z-1.961
X-14.867 Y-181.229 Z-1.962
X-14.743 Y-182.176 Z-1.963
X-14.606 Y-183.114 Z-1.964
X-14.456 Y-184.049 Z-1.965
X-14.29 Y-184.984 Z-1.966
X-14.109 Y-185.92 Z-1.967
X-13.911 Y-186.86 Z-1.968
X-13.694 Y-187.807 Z-1.969
X-13.458 Y-188.763 Z-1.97
X-13.201 Y-189.731 Z-1.971
X-12.922 Y-190.713 Z-1.972
X-12.619 Y-191.712 Z-1.973
X-12.292 Y-192.728 Z-1.974
X-11.939 Y-193.766 Z-1.975
X-11.813 Y-194.114 Z-1.976
Z-1.3
X-11.558 Y-194.824
X-11.149 Y-195.908
X-10.712 Y-197.015
X-10.244 Y-198.149
X-9.743 Y-199.314
G2 X-7.731 Y-204.526 I-58.257 J-25.487
S6000
G1 Z-1.988
S5000
G2 X-5.043 Y-215.863 Z-2 I-60.269 J-20.274
S6000
X-90.562 Y-284.251 I-62.957 J-8.937 F1000
G1 X-91.733 Y-283.808
X-92.884 Y-283.38
X-94.016 Y-282.965
X-95.131 Y-282.562
X-96.229 Y-282.171
X-97.31 Y-281.793
X-98.377 Y-281.427
X-99.43 Y-281.073
X-100.471 Y-280.731
X-101.5 Y-280.401
X-102.52 Y-280.082
X-103.533 Y-279.775
X-104.539 Y-279.481
X-105.542 Y-279.198
X-106.543 Y-278.926
X-107.543 Y-278.667
X-108.543 Y-278.421
X-109.548 Y-278.188
X-110.557 Y-277.966
X-111.574 Y-277.759
X-112.6 Y-277.564
X-113.636 Y-277.384
X-114.686 Y-277.219
X-115.75 Y-277.07
X-116.832 Y-276.936
X-117.932 Y-276.818
X-119.052 Y-276.717
X-119.412 Y-276.691
Z-1.3
X-120.193 Y-276.634
X-121.359 Y-276.569
X-122.547 Y-276.521
X-123.76 Y-276.492
X-125 Y-276.484
X-126.24 Y-276.492
X-127.453 Y-276.521
X-128.641 Y-276.569
X-129.807 Y-276.634
X-130.587 Y-276.691
Z-2 F333.3
X-130.948 Y-276.717 F1000
X-132.068 Y-276.818
X-133.168 Y-276.936
X-134.25 Y-277.07
X-135.314 Y-277.219
X-136.364 Y-277.384
X-137.4 Y-277.564
X-138.426 Y-277.759
X-139.443 Y-277.966
X-140.452 Y-278.188
X-141.457 Y-278.421
X-142.457 Y-278.667
X-143.457 Y-278.926
X-144.458 Y-279.198
X-145.461 Y-279.481
X-146.467 Y-279.775
X-147.48 Y-280.082
X-148.5 Y-280.401
X-149.529 Y-280.731
X-150.57 Y-281.073
X-151.624 Y-281.427
X-152.689 Y-281.793
X-153.771 Y-282.171
X-154.869 Y-282.562
X-155.984 Y-282.965
X-157.117 Y-283.38
X-158.267 Y-283.808
X-159.438 Y-284.251
G2 X-240.256 Y-199.313 I-22.562 J59.451
G1 X-239.756 Y-198.149
X-239.288 Y-197.016
X-238.851 Y-195.908
X-238.442 Y-194.824
X-238.062 Y-193.766
X-237.708 Y-192.727
X-237.38 Y-191.712
X-237.078 Y-190.713
X-236.799 Y-189.731
X-236.542 Y-188.763
X-236.306 Y-187.807
X-236.09 Y-186.86
X-235.891 Y-185.92
X-235.71 Y-184.984
X-235.544 Y-184.05
X-235.394 Y-183.115
X-235.258 Y-182.175
X-235.133 Y-181.229
X-235.021 Y-180.275
X-234.92 Y-179.309
X-234.83 Y-178.329
X-234.749 Y-177.332
X-234.677 Y-176.317
X-234.615 Y-175.28
X-234.561 Y-174.219
X-234.513 Y-173.134
X-234.475 Y-172.021
X-234.443 Y-170.88
X-234.418 Y-169.708
X-234.401 Y-168.505
X-234.39 Y-167.269
X-234.387 Y-165.998
Y-156.932
Z-1.3
Y-145.757
Z-2 F333.3
Y-134.002 F1000
X-234.39 Y-132.731
X-234.401 Y-131.495
X-234.418 Y-130.292
X-234.443 Y-129.12
X-234.475 Y-127.979
X-234.513 Y-126.866
X-234.561 Y-125.781
X-234.615 Y-124.72
X-234.677 Y-123.683
X-234.749 Y-122.668
X-234.83 Y-121.671
X-234.92 Y-120.691
X-235.021 Y-119.725
X-235.133 Y-118.771
X-235.258 Y-117.825
X-235.394 Y-116.885
X-235.544 Y-115.95
X-235.71 Y-115.016
X-235.891 Y-114.08
X-236.09 Y-113.14
X-236.306 Y-112.193
X-236.542 Y-111.237
X-236.799 Y-110.269
X-237.078 Y-109.287
X-237.38 Y-108.288
X-237.708 Y-107.273
X-238.062 Y-106.234
X-238.187 Y-105.885
Z-1.3
X-238.442 Y-105.176
X-238.851 Y-104.092
X-239.288 Y-102.984
X-239.756 Y-101.851
X-240.256 Y-100.687
G2 X-242.269 Y-95.474 I58.256 J25.486
G1 Z-2 F333.3
G2 X-159.438 Y-15.75 I60.269 J20.274 F1000
G1 X-158.267 Y-16.191
X-157.117 Y-16.62
X-155.984 Y-17.035
X-154.869 Y-17.438
X-153.771 Y-17.829
X-152.689 Y-18.207
X-151.623 Y-18.573
X-150.57 Y-18.927
X-149.53 Y-19.269
X-148.5 Y-19.599
X-147.48 Y-19.918
X-146.467 Y-20.224
X-145.46 Y-20.519
X-144.458 Y-20.802
X-143.457 Y-21.073
X-142.457 Y-21.332
X-141.456 Y-21.579
X-140.452 Y-21.813
X-139.443 Y-22.034
X-138.427 Y-22.242
X-137.401 Y-22.436
X-136.364 Y-22.615
X-135.314 Y-22.78
X-134.25 Y-22.93
X-133.168 Y-23.064
X-132.068 Y-23.182
X-130.948 Y-23.283
X-130.587 Y-23.309
Z-1.3
X-129.806 Y-23.366
X-128.642 Y-23.432
X-127.454 Y-23.479
X-126.239 Y-23.507
X-125 Y-23.517
X-123.761 Y-23.507
X-122.546 Y-23.479
X-121.358 Y-23.432
X-120.194 Y-23.366
X-119.412 Y-23.309
Z-2 F333.3
X-119.052 Y-23.283 F1000
X-117.932 Y-23.182
X-116.832 Y-23.064
X-115.75 Y-22.93
X-114.686 Y-22.78
X-113.636 Y-22.615
X-112.599 Y-22.436
X-111.573 Y-22.242
X-110.557 Y-22.034
X-109.548 Y-21.813
X-108.544 Y-21.579
X-107.543 Y-21.332
X-106.543 Y-21.073
X-105.542 Y-20.802
X-104.54 Y-20.519
X-103.533 Y-20.224
X-102.52 Y-19.918
X-101.5 Y-19.599
X-100.471 Y-19.269
X-99.43 Y-18.927
X-98.377 Y-18.573
X-97.31 Y-18.207
X-96.229 Y-17.829
X-95.131 Y-17.438
X-94.016 Y-17.035
X-92.884 Y-16.62
X-91.733 Y-16.191
X-90.562 Y-15.75
G2 X-7.731 Y-95.474 I22.562 J-59.45
G1 Z-1.3
G2 X-9.743 Y-100.686 I-60.269 J20.274
G1 X-10.244 Y-101.851
X-10.712 Y-102.985
X-11.149 Y-104.092
X-11.558 Y-105.176
X-11.813 Y-105.886
Z-2 F333.3
X-11.939 Y-106.234 F1000
X-12.292 Y-107.272
X-12.619 Y-108.288
X-12.922 Y-109.287
X-13.201 Y-110.269
X-13.458 Y-111.237
X-13.694 Y-112.193
X-13.911 Y-113.14
X-14.109 Y-114.08
X-14.29 Y-115.016
X-14.456 Y-115.951
X-14.606 Y-116.886
X-14.743 Y-117.824
X-14.867 Y-118.771
X-14.979 Y-119.725
X-15.08 Y-120.691
X-15.17 Y-121.671
X-15.251 Y-122.668
X-15.322 Y-123.684
X-15.385 Y-124.721
X-15.44 Y-125.781
X-15.486 Y-126.866
X-15.525 Y-127.979
X-15.557 Y-129.119
X-15.581 Y-130.292
X-15.599 Y-131.495
X-15.609 Y-132.731
X-15.613 Y-134.002
Y-165.998
X-15.609 Y-167.269
X-15.599 Y-168.505
X-15.581 Y-169.708
X-15.557 Y-170.881
X-15.525 Y-172.021
X-15.486 Y-173.134
X-15.44 Y-174.219
X-15.385 Y-175.279
X-15.322 Y-176.316
X-15.251 Y-177.332
X-15.17 Y-178.329
X-15.08 Y-179.309
X-14.979 Y-180.275
X-14.867 Y-181.229
X-14.743 Y-182.176
X-14.606 Y-183.114
X-14.456 Y-184.049
X-14.29 Y-184.984
X-14.109 Y-185.92
X-13.911 Y-186.86
X-13.694 Y-187.807
X-13.458 Y-188.763
X-13.201 Y-189.731
X-12.922 Y-190.713
X-12.619 Y-191.712
X-12.292 Y-192.728
X-11.939 Y-193.766
X-11.813 Y-194.114
Z-1.3
X-11.558 Y-194.824
X-11.149 Y-195.908
X-10.712 Y-197.015
X-10.244 Y-198.149
X-9.743 Y-199.314
G2 X-7.731 Y-204.526 I-58.257 J-25.487
G1 Z-2 F333.3
G2 X-5.043 Y-215.863 I-60.269 J-20.274 F1000
S5000
X-90.562 Y-284.251 Z-2.14 I-62.957 J-8.937 F333.3
G1 X-91.733 Y-283.808 Z-2.142
X-92.884 Y-283.38 Z-2.143
X-94.016 Y-282.965 Z-2.144
X-95.131 Y-282.562 Z-2.146
X-96.229 Y-282.171 Z-2.147
X-97.31 Y-281.793 Z-2.148
X-98.377 Y-281.427 Z-2.149
X-99.43 Y-281.073 Z-2.15
X-100.471 Y-280.731 Z-2.152
X-101.5 Y-280.401 Z-2.153
X-102.52 Y-280.082 Z-2.154
X-103.533 Y-279.775 Z-2.155
X-104.539 Y-279.481 Z-2.156
X-105.542 Y-279.198 Z-2.157
X-106.543 Y-278.926 Z-2.158
X-107.543 Y-278.667 Z-2.159
X-108.543 Y-278.421 Z-2.161
X-109.548 Y-278.188 Z-2.162
X-110.557 Y-277.966 Z-2.163
X-111.574 Y-277.759 Z-2.164
X-112.6 Y-277.564 Z-2.165
X-113.636 Y-277.384 Z-2.166
X-114.686 Y-277.219 Z-2.167
X-115.75 Y-277.07 Z-2.168
X-116.832 Y-276.936 Z-2.17
X-117.932 Y-276.818 Z-2.171
X-119.052 Y-276.717 Z-2.172
X-119.412 Y-276.691
Z-1.3
X-120.193 Y-276.634
X-121.359 Y-276.569
X-122.547 Y-276.521
X-123.76 Y-276.492
X-125 Y-276.484
X-126.24 Y-276.492
X-127.453 Y-276.521
X-128.641 Y-276.569
