(Top_3_175)
(Bearbeiten)
(  Hersteller: ChinaCnc)
(  model: 3040T)
(  description: Generic 3-axis)
(T5 D=3.175 CR=0 - ZMIN=-2.3 - Schaftfrser)
G90 G94
G17
G21
(When using Fusion 360 for Personal Use, the feedrate of)
(rapid moves is reduced to match the feedrate of cutting)
(moves, which can increase machining time. Unrestricted rapid)
(moves are available with a Fusion 360 Subscription.)

(Bohrfrsen6)
M0
(MANUAL TOOL CHANGE TO T5)
S6000 M3
G54
G0 X-282.987 Y-179.419
Z15
G1 Z1.683 F1000
Z0
X-283.145
X-283.176 Y-179.425
X-283.203 Y-179.443
X-283.22 Y-179.469
X-283.227 Y-179.5
G3 X-282.902 Y-179.5 Z-0.061 I0.163 J0
X-283.227 Y-179.5 Z-0.122 I-0.163 J0
X-282.902 Y-179.5 Z-0.183 I0.163 J0
X-283.227 Y-179.5 Z-0.244 I-0.163 J0
X-282.902 Y-179.5 Z-0.306 I0.163 J0
X-283.227 Y-179.5 Z-0.367 I-0.163 J0
X-282.902 Y-179.5 Z-0.428 I0.163 J0
X-283.227 Y-179.5 Z-0.489 I-0.163 J0
X-282.902 Y-179.5 Z-0.55 I0.163 J0
X-283.227 Y-179.5 Z-0.611 I-0.163 J0
X-282.902 Y-179.5 Z-0.672 I0.163 J0
X-283.227 Y-179.5 Z-0.733 I-0.163 J0
X-282.902 Y-179.5 Z-0.794 I0.163 J0
X-283.227 Y-179.5 Z-0.856 I-0.163 J0
X-282.902 Y-179.5 Z-0.917 I0.163 J0
X-283.227 Y-179.5 Z-0.978 I-0.163 J0
X-282.902 Y-179.5 Z-1.039 I0.163 J0
X-283.227 Y-179.5 Z-1.1 I-0.163 J0
X-282.902 Y-179.5 Z-1.161 I0.163 J0
X-283.227 Y-179.5 Z-1.222 I-0.163 J0
X-282.902 Y-179.5 Z-1.283 I0.163 J0
X-283.227 Y-179.5 Z-1.344 I-0.163 J0
X-282.902 Y-179.5 Z-1.406 I0.163 J0
X-283.227 Y-179.5 Z-1.467 I-0.163 J0
X-282.902 Y-179.5 Z-1.528 I0.163 J0
X-283.227 Y-179.5 Z-1.589 I-0.163 J0
X-282.902 Y-179.5 Z-1.65 I0.163 J0
X-283.227 Y-179.5 Z-1.711 I-0.163 J0
X-282.902 Y-179.5 Z-1.772 I0.163 J0
X-283.227 Y-179.5 Z-1.833 I-0.163 J0
X-282.902 Y-179.5 Z-1.894 I0.163 J0
X-283.227 Y-179.5 Z-1.956 I-0.163 J0
X-282.902 Y-179.5 Z-2.017 I0.163 J0
X-283.227 Y-179.5 Z-2.078 I-0.163 J0
X-282.902 Y-179.5 Z-2.139 I0.163 J0
X-283.227 Y-179.5 Z-2.2 I-0.162 J0
X-282.902 Y-179.5 Z-2.261 I0.162 J0
X-283.132 Y-179.352 Z-2.3 I-0.162 J0
X-282.997 Y-179.648 I0.067 J-0.148
X-283.132 Y-179.352 I-0.067 J0.148
G1 X-283.157 Y-179.371
X-283.174 Y-179.398
X-283.179 Y-179.429
X-283.172 Y-179.46
X-283.106 Y-179.604
Z5
X-282.987 Y-65.419
Z1.683
Z0
X-283.145
X-283.176 Y-65.425
X-283.203 Y-65.443
X-283.22 Y-65.469
X-283.227 Y-65.5
G3 X-282.902 Y-65.5 Z-0.061 I0.163 J0
X-283.227 Y-65.5 Z-0.122 I-0.163 J0
X-282.902 Y-65.5 Z-0.183 I0.163 J0
X-283.227 Y-65.5 Z-0.244 I-0.163 J0
X-282.902 Y-65.5 Z-0.306 I0.163 J0
X-283.227 Y-65.5 Z-0.367 I-0.163 J0
X-282.902 Y-65.5 Z-0.428 I0.163 J0
X-283.227 Y-65.5 Z-0.489 I-0.163 J0
X-282.902 Y-65.5 Z-0.55 I0.163 J0
X-283.227 Y-65.5 Z-0.611 I-0.163 J0
X-282.902 Y-65.5 Z-0.672 I0.163 J0
X-283.227 Y-65.5 Z-0.733 I-0.163 J0
X-282.902 Y-65.5 Z-0.794 I0.163 J0
X-283.227 Y-65.5 Z-0.856 I-0.163 J0
X-282.902 Y-65.5 Z-0.917 I0.163 J0
X-283.227 Y-65.5 Z-0.978 I-0.163 J0
X-282.902 Y-65.5 Z-1.039 I0.163 J0
X-283.227 Y-65.5 Z-1.1 I-0.163 J0
X-282.902 Y-65.5 Z-1.161 I0.163 J0
X-283.227 Y-65.5 Z-1.222 I-0.163 J0
X-282.902 Y-65.5 Z-1.283 I0.163 J0
X-283.227 Y-65.5 Z-1.344 I-0.163 J0
X-282.902 Y-65.5 Z-1.406 I0.163 J0
X-283.227 Y-65.5 Z-1.467 I-0.163 J0
X-282.902 Y-65.5 Z-1.528 I0.163 J0
X-283.227 Y-65.5 Z-1.589 I-0.163 J0
X-282.902 Y-65.5 Z-1.65 I0.163 J0
X-283.227 Y-65.5 Z-1.711 I-0.163 J0
X-282.902 Y-65.5 Z-1.772 I0.163 J0
X-283.227 Y-65.5 Z-1.833 I-0.163 J0
X-282.902 Y-65.5 Z-1.894 I0.163 J0
X-283.227 Y-65.5 Z-1.956 I-0.163 J0
X-282.902 Y-65.5 Z-2.017 I0.163 J0
X-283.227 Y-65.5 Z-2.078 I-0.163 J0
X-282.902 Y-65.5 Z-2.139 I0.163 J0
X-283.227 Y-65.5 Z-2.2 I-0.162 J0
X-282.902 Y-65.5 Z-2.261 I0.162 J0
X-283.132 Y-65.352 Z-2.3 I-0.162 J0
X-282.997 Y-65.648 I0.067 J-0.148
X-283.132 Y-65.352 I-0.067 J0.148
G1 X-283.157 Y-65.371
X-283.174 Y-65.398
X-283.179 Y-65.429
X-283.172 Y-65.46
X-283.106 Y-65.604
Z5
X-191.008 Y-18.619
Z1.683
Z0
X-191.167
X-191.198 Y-18.625
X-191.224 Y-18.643
X-191.242 Y-18.669
X-191.248 Y-18.7
G3 X-190.923 Y-18.7 Z-0.061 I0.162 J0
X-191.248 Y-18.7 Z-0.122 I-0.162 J0
X-190.923 Y-18.7 Z-0.183 I0.162 J0
X-191.248 Y-18.7 Z-0.244 I-0.162 J0
X-190.923 Y-18.7 Z-0.306 I0.162 J0
X-191.248 Y-18.7 Z-0.367 I-0.162 J0
X-190.923 Y-18.7 Z-0.428 I0.162 J0
X-191.248 Y-18.7 Z-0.489 I-0.162 J0
X-190.923 Y-18.7 Z-0.55 I0.162 J0
X-191.248 Y-18.7 Z-0.611 I-0.162 J0
X-190.923 Y-18.7 Z-0.672 I0.162 J0
X-191.248 Y-18.7 Z-0.733 I-0.162 J0
X-190.923 Y-18.7 Z-0.794 I0.162 J0
X-191.248 Y-18.7 Z-0.856 I-0.162 J0
X-190.923 Y-18.7 Z-0.917 I0.162 J0
X-191.248 Y-18.7 Z-0.978 I-0.162 J0
X-190.923 Y-18.7 Z-1.039 I0.162 J0
X-191.248 Y-18.7 Z-1.1 I-0.162 J0
X-190.923 Y-18.7 Z-1.161 I0.162 J0
X-191.248 Y-18.7 Z-1.222 I-0.162 J0
X-190.923 Y-18.7 Z-1.283 I0.162 J0
X-191.248 Y-18.7 Z-1.344 I-0.162 J0
X-190.923 Y-18.7 Z-1.406 I0.162 J0
X-191.248 Y-18.7 Z-1.467 I-0.162 J0
X-190.923 Y-18.7 Z-1.528 I0.162 J0
X-191.248 Y-18.7 Z-1.589 I-0.162 J0
X-190.923 Y-18.7 Z-1.65 I0.162 J0
X-191.248 Y-18.7 Z-1.711 I-0.162 J0
X-190.923 Y-18.7 Z-1.772 I0.162 J0
X-191.248 Y-18.7 Z-1.833 I-0.162 J0
X-190.923 Y-18.7 Z-1.894 I0.162 J0
X-191.248 Y-18.7 Z-1.956 I-0.162 J0
X-190.923 Y-18.7 Z-2.017 I0.162 J0
X-191.248 Y-18.7 Z-2.078 I-0.162 J0
X-190.923 Y-18.7 Z-2.139 I0.162 J0
X-191.248 Y-18.7 Z-2.2 I-0.162 J0
X-190.923 Y-18.7 Z-2.261 I0.162 J0
X-191.153 Y-18.552 Z-2.3 I-0.162 J0
X-191.018 Y-18.848 I0.067 J-0.148
X-191.153 Y-18.552 I-0.067 J0.148
G1 X-191.179 Y-18.571
X-191.195 Y-18.598
X-191.201 Y-18.629
X-191.193 Y-18.66
X-191.127 Y-18.804
Z5
X-165.923 Y-19.619
Z1.683
Z0
X-166.081
X-166.112 Y-19.625
X-166.139 Y-19.643
X-166.156 Y-19.669
X-166.163 Y-19.7
G3 X-165.837 Y-19.7 Z-0.061 I0.163 J0
X-166.163 Y-19.7 Z-0.122 I-0.163 J0
X-165.837 Y-19.7 Z-0.183 I0.163 J0
X-166.163 Y-19.7 Z-0.244 I-0.163 J0
X-165.837 Y-19.7 Z-0.306 I0.163 J0
X-166.163 Y-19.7 Z-0.367 I-0.163 J0
X-165.837 Y-19.7 Z-0.428 I0.163 J0
X-166.163 Y-19.7 Z-0.489 I-0.163 J0
X-165.837 Y-19.7 Z-0.55 I0.163 J0
X-166.163 Y-19.7 Z-0.611 I-0.163 J0
X-165.837 Y-19.7 Z-0.672 I0.163 J0
X-166.163 Y-19.7 Z-0.733 I-0.163 J0
X-165.837 Y-19.7 Z-0.794 I0.163 J0
X-166.163 Y-19.7 Z-0.856 I-0.163 J0
X-165.837 Y-19.7 Z-0.917 I0.163 J0
X-166.163 Y-19.7 Z-0.978 I-0.163 J0
X-165.837 Y-19.7 Z-1.039 I0.163 J0
X-166.163 Y-19.7 Z-1.1 I-0.163 J0
X-165.837 Y-19.7 Z-1.161 I0.163 J0
X-166.163 Y-19.7 Z-1.222 I-0.163 J0
X-165.837 Y-19.7 Z-1.283 I0.163 J0
X-166.163 Y-19.7 Z-1.344 I-0.163 J0
X-165.837 Y-19.7 Z-1.406 I0.163 J0
X-166.163 Y-19.7 Z-1.467 I-0.163 J0
X-165.837 Y-19.7 Z-1.528 I0.163 J0
X-166.163 Y-19.7 Z-1.589 I-0.163 J0
X-165.837 Y-19.7 Z-1.65 I0.163 J0
X-166.163 Y-19.7 Z-1.711 I-0.163 J0
X-165.837 Y-19.7 Z-1.772 I0.163 J0
X-166.163 Y-19.7 Z-1.833 I-0.163 J0
X-165.837 Y-19.7 Z-1.894 I0.163 J0
X-166.163 Y-19.7 Z-1.956 I-0.163 J0
X-165.837 Y-19.7 Z-2.017 I0.163 J0
X-166.163 Y-19.7 Z-2.078 I-0.163 J0
X-165.837 Y-19.7 Z-2.139 I0.163 J0
X-166.163 Y-19.7 Z-2.2 I-0.163 J0
X-165.837 Y-19.7 Z-2.261 I0.163 J0
X-166.067 Y-19.552 Z-2.3 I-0.163 J0
X-165.933 Y-19.848 I0.067 J-0.148
X-166.067 Y-19.552 I-0.067 J0.148
G1 X-166.093 Y-19.571
X-166.11 Y-19.598
X-166.115 Y-19.629
X-166.108 Y-19.66
X-166.042 Y-19.804
Z5
X-134.077 Y-19.781
Z1.683
Z0
X-133.919
X-133.888 Y-19.775
X-133.861 Y-19.757
X-133.844 Y-19.731
X-133.837 Y-19.7
G3 X-134.163 Y-19.7 Z-0.061 I-0.163 J0
X-133.837 Y-19.7 Z-0.122 I0.163 J0
X-134.163 Y-19.7 Z-0.183 I-0.163 J0
X-133.837 Y-19.7 Z-0.244 I0.163 J0
X-134.163 Y-19.7 Z-0.306 I-0.163 J0
X-133.837 Y-19.7 Z-0.367 I0.163 J0
X-134.163 Y-19.7 Z-0.428 I-0.163 J0
X-133.837 Y-19.7 Z-0.489 I0.163 J0
X-134.163 Y-19.7 Z-0.55 I-0.163 J0
X-133.837 Y-19.7 Z-0.611 I0.163 J0
X-134.163 Y-19.7 Z-0.672 I-0.163 J0
X-133.837 Y-19.7 Z-0.733 I0.163 J0
X-134.163 Y-19.7 Z-0.794 I-0.163 J0
X-133.837 Y-19.7 Z-0.856 I0.163 J0
X-134.163 Y-19.7 Z-0.917 I-0.163 J0
X-133.837 Y-19.7 Z-0.978 I0.163 J0
X-134.163 Y-19.7 Z-1.039 I-0.163 J0
X-133.837 Y-19.7 Z-1.1 I0.163 J0
X-134.163 Y-19.7 Z-1.161 I-0.163 J0
X-133.837 Y-19.7 Z-1.222 I0.163 J0
X-134.163 Y-19.7 Z-1.283 I-0.163 J0
X-133.837 Y-19.7 Z-1.344 I0.163 J0
X-134.163 Y-19.7 Z-1.406 I-0.163 J0
X-133.837 Y-19.7 Z-1.467 I0.163 J0
X-134.163 Y-19.7 Z-1.528 I-0.163 J0
X-133.837 Y-19.7 Z-1.589 I0.163 J0
X-134.163 Y-19.7 Z-1.65 I-0.163 J0
X-133.837 Y-19.7 Z-1.711 I0.163 J0
X-134.163 Y-19.7 Z-1.772 I-0.163 J0
X-133.837 Y-19.7 Z-1.833 I0.163 J0
X-134.163 Y-19.7 Z-1.894 I-0.163 J0
X-133.837 Y-19.7 Z-1.956 I0.163 J0
X-134.163 Y-19.7 Z-2.017 I-0.163 J0
X-133.837 Y-19.7 Z-2.078 I0.163 J0
X-134.163 Y-19.7 Z-2.139 I-0.163 J0
X-133.837 Y-19.7 Z-2.2 I0.163 J0
X-134.163 Y-19.7 Z-2.261 I-0.163 J0
X-133.933 Y-19.848 Z-2.3 I0.163 J0
X-134.067 Y-19.552 I-0.067 J0.148
X-133.933 Y-19.848 I0.067 J-0.148
G1 X-133.907 Y-19.829
X-133.89 Y-19.802
X-133.885 Y-19.771
X-133.892 Y-19.74
X-133.958 Y-19.596
Z5
X-108.992 Y-18.781
Z1.683
Z0
X-108.833
X-108.802 Y-18.775
X-108.776 Y-18.757
X-108.758 Y-18.731
X-108.752 Y-18.7
G3 X-109.077 Y-18.7 Z-0.061 I-0.162 J0
X-108.752 Y-18.7 Z-0.122 I0.162 J0
X-109.077 Y-18.7 Z-0.183 I-0.162 J0
X-108.752 Y-18.7 Z-0.244 I0.162 J0
X-109.077 Y-18.7 Z-0.306 I-0.162 J0
X-108.752 Y-18.7 Z-0.367 I0.162 J0
X-109.077 Y-18.7 Z-0.428 I-0.162 J0
X-108.752 Y-18.7 Z-0.489 I0.162 J0
X-109.077 Y-18.7 Z-0.55 I-0.162 J0
X-108.752 Y-18.7 Z-0.611 I0.162 J0
X-109.077 Y-18.7 Z-0.672 I-0.162 J0
X-108.752 Y-18.7 Z-0.733 I0.162 J0
X-109.077 Y-18.7 Z-0.794 I-0.162 J0
X-108.752 Y-18.7 Z-0.856 I0.162 J0
X-109.077 Y-18.7 Z-0.917 I-0.162 J0
X-108.752 Y-18.7 Z-0.978 I0.162 J0
X-109.077 Y-18.7 Z-1.039 I-0.162 J0
X-108.752 Y-18.7 Z-1.1 I0.162 J0
X-109.077 Y-18.7 Z-1.161 I-0.162 J0
X-108.752 Y-18.7 Z-1.222 I0.162 J0
X-109.077 Y-18.7 Z-1.283 I-0.162 J0
X-108.752 Y-18.7 Z-1.344 I0.162 J0
X-109.077 Y-18.7 Z-1.406 I-0.162 J0
X-108.752 Y-18.7 Z-1.467 I0.162 J0
X-109.077 Y-18.7 Z-1.528 I-0.162 J0
X-108.752 Y-18.7 Z-1.589 I0.162 J0
X-109.077 Y-18.7 Z-1.65 I-0.162 J0
X-108.752 Y-18.7 Z-1.711 I0.162 J0
X-109.077 Y-18.7 Z-1.772 I-0.162 J0
X-108.752 Y-18.7 Z-1.833 I0.162 J0
X-109.077 Y-18.7 Z-1.894 I-0.162 J0
X-108.752 Y-18.7 Z-1.956 I0.162 J0
X-109.077 Y-18.7 Z-2.017 I-0.162 J0
X-108.752 Y-18.7 Z-2.078 I0.162 J0
X-109.077 Y-18.7 Z-2.139 I-0.162 J0
X-108.752 Y-18.7 Z-2.2 I0.162 J0
X-109.077 Y-18.7 Z-2.261 I-0.162 J0
X-108.847 Y-18.848 Z-2.3 I0.162 J0
X-108.982 Y-18.552 I-0.067 J0.148
X-108.847 Y-18.848 I0.067 J-0.148
G1 X-108.821 Y-18.829
X-108.805 Y-18.802
X-108.799 Y-18.771
X-108.807 Y-18.74
X-108.873 Y-18.596
Z5
X-137.577 Y-52.781
Z1.683
Z0
X-137.419
X-137.388 Y-52.775
X-137.361 Y-52.757
X-137.344 Y-52.731
X-137.337 Y-52.7
G3 X-137.663 Y-52.7 Z-0.061 I-0.163 J0
X-137.337 Y-52.7 Z-0.122 I0.163 J0
X-137.663 Y-52.7 Z-0.183 I-0.163 J0
X-137.337 Y-52.7 Z-0.244 I0.163 J0
X-137.663 Y-52.7 Z-0.306 I-0.163 J0
X-137.337 Y-52.7 Z-0.367 I0.163 J0
X-137.663 Y-52.7 Z-0.428 I-0.163 J0
X-137.337 Y-52.7 Z-0.489 I0.163 J0
X-137.663 Y-52.7 Z-0.55 I-0.163 J0
X-137.337 Y-52.7 Z-0.611 I0.163 J0
X-137.663 Y-52.7 Z-0.672 I-0.163 J0
X-137.337 Y-52.7 Z-0.733 I0.163 J0
X-137.663 Y-52.7 Z-0.794 I-0.163 J0
X-137.337 Y-52.7 Z-0.856 I0.163 J0
X-137.663 Y-52.7 Z-0.917 I-0.163 J0
X-137.337 Y-52.7 Z-0.978 I0.163 J0
X-137.663 Y-52.7 Z-1.039 I-0.163 J0
X-137.337 Y-52.7 Z-1.1 I0.163 J0
X-137.663 Y-52.7 Z-1.161 I-0.163 J0
X-137.337 Y-52.7 Z-1.222 I0.163 J0
X-137.663 Y-52.7 Z-1.283 I-0.163 J0
X-137.337 Y-52.7 Z-1.344 I0.163 J0
X-137.663 Y-52.7 Z-1.406 I-0.163 J0
X-137.337 Y-52.7 Z-1.467 I0.163 J0
X-137.663 Y-52.7 Z-1.528 I-0.163 J0
X-137.337 Y-52.7 Z-1.589 I0.163 J0
X-137.663 Y-52.7 Z-1.65 I-0.163 J0
X-137.337 Y-52.7 Z-1.711 I0.163 J0
X-137.663 Y-52.7 Z-1.772 I-0.163 J0
X-137.337 Y-52.7 Z-1.833 I0.163 J0
X-137.663 Y-52.7 Z-1.894 I-0.163 J0
X-137.337 Y-52.7 Z-1.956 I0.163 J0
X-137.663 Y-52.7 Z-2.017 I-0.163 J0
X-137.337 Y-52.7 Z-2.078 I0.163 J0
X-137.663 Y-52.7 Z-2.139 I-0.163 J0
X-137.337 Y-52.7 Z-2.2 I0.163 J0
X-137.663 Y-52.7 Z-2.261 I-0.163 J0
X-137.433 Y-52.848 Z-2.3 I0.163 J0
X-137.567 Y-52.552 I-0.067 J0.148
X-137.433 Y-52.848 I0.067 J-0.148
G1 X-137.407 Y-52.829
X-137.39 Y-52.802
X-137.385 Y-52.771
X-137.392 Y-52.74
X-137.458 Y-52.596
Z5
X-162.577 Y-52.781
Z1.683
Z0
X-162.419
X-162.388 Y-52.775
X-162.361 Y-52.757
X-162.344 Y-52.731
X-162.337 Y-52.7
G3 X-162.663 Y-52.7 Z-0.061 I-0.163 J0
X-162.337 Y-52.7 Z-0.122 I0.163 J0
X-162.663 Y-52.7 Z-0.183 I-0.163 J0
X-162.337 Y-52.7 Z-0.244 I0.163 J0
X-162.663 Y-52.7 Z-0.306 I-0.163 J0
X-162.337 Y-52.7 Z-0.367 I0.163 J0
X-162.663 Y-52.7 Z-0.428 I-0.163 J0
X-162.337 Y-52.7 Z-0.489 I0.163 J0
X-162.663 Y-52.7 Z-0.55 I-0.163 J0
X-162.337 Y-52.7 Z-0.611 I0.163 J0
X-162.663 Y-52.7 Z-0.672 I-0.163 J0
X-162.337 Y-52.7 Z-0.733 I0.163 J0
X-162.663 Y-52.7 Z-0.794 I-0.163 J0
X-162.337 Y-52.7 Z-0.856 I0.163 J0
X-162.663 Y-52.7 Z-0.917 I-0.163 J0
X-162.337 Y-52.7 Z-0.978 I0.163 J0
X-162.663 Y-52.7 Z-1.039 I-0.163 J0
X-162.337 Y-52.7 Z-1.1 I0.163 J0
X-162.663 Y-52.7 Z-1.161 I-0.163 J0
X-162.337 Y-52.7 Z-1.222 I0.163 J0
X-162.663 Y-52.7 Z-1.283 I-0.163 J0
X-162.337 Y-52.7 Z-1.344 I0.163 J0
X-162.663 Y-52.7 Z-1.406 I-0.163 J0
X-162.337 Y-52.7 Z-1.467 I0.163 J0
X-162.663 Y-52.7 Z-1.528 I-0.163 J0
X-162.337 Y-52.7 Z-1.589 I0.163 J0
X-162.663 Y-52.7 Z-1.65 I-0.163 J0
X-162.337 Y-52.7 Z-1.711 I0.163 J0
X-162.663 Y-52.7 Z-1.772 I-0.163 J0
X-162.337 Y-52.7 Z-1.833 I0.163 J0
X-162.663 Y-52.7 Z-1.894 I-0.163 J0
X-162.337 Y-52.7 Z-1.956 I0.163 J0
X-162.663 Y-52.7 Z-2.017 I-0.163 J0
X-162.337 Y-52.7 Z-2.078 I0.163 J0
X-162.663 Y-52.7 Z-2.139 I-0.163 J0
X-162.337 Y-52.7 Z-2.2 I0.163 J0
X-162.663 Y-52.7 Z-2.261 I-0.163 J0
X-162.433 Y-52.848 Z-2.3 I0.163 J0
X-162.567 Y-52.552 I-0.067 J0.148
X-162.433 Y-52.848 I0.067 J-0.148
G1 X-162.407 Y-52.829
X-162.39 Y-52.802
X-162.385 Y-52.771
X-162.392 Y-52.74
X-162.458 Y-52.596
Z5
X-166.077 Y-100.081
Z1.683
Z0
X-165.919
X-165.888 Y-100.075
X-165.861 Y-100.057
X-165.844 Y-100.031
X-165.837 Y-100
G3 X-166.163 Y-100 Z-0.061 I-0.163 J0
X-165.837 Y-100 Z-0.122 I0.163 J0
X-166.163 Y-100 Z-0.183 I-0.163 J0
X-165.837 Y-100 Z-0.244 I0.163 J0
X-166.163 Y-100 Z-0.306 I-0.163 J0
X-165.837 Y-100 Z-0.367 I0.163 J0
X-166.163 Y-100 Z-0.428 I-0.163 J0
X-165.837 Y-100 Z-0.489 I0.163 J0
X-166.163 Y-100 Z-0.55 I-0.163 J0
X-165.837 Y-100 Z-0.611 I0.163 J0
X-166.163 Y-100 Z-0.672 I-0.163 J0
X-165.837 Y-100 Z-0.733 I0.163 J0
X-166.163 Y-100 Z-0.794 I-0.163 J0
X-165.837 Y-100 Z-0.856 I0.163 J0
X-166.163 Y-100 Z-0.917 I-0.163 J0
X-165.837 Y-100 Z-0.978 I0.163 J0
X-166.163 Y-100 Z-1.039 I-0.163 J0
X-165.837 Y-100 Z-1.1 I0.163 J0
X-166.163 Y-100 Z-1.161 I-0.163 J0
X-165.837 Y-100 Z-1.222 I0.163 J0
X-166.163 Y-100 Z-1.283 I-0.163 J0
X-165.837 Y-100 Z-1.344 I0.163 J0
X-166.163 Y-100 Z-1.406 I-0.163 J0
X-165.837 Y-100 Z-1.467 I0.163 J0
X-166.163 Y-100 Z-1.528 I-0.163 J0
X-165.837 Y-100 Z-1.589 I0.163 J0
X-166.163 Y-100 Z-1.65 I-0.163 J0
X-165.837 Y-100 Z-1.711 I0.163 J0
X-166.163 Y-100 Z-1.772 I-0.163 J0
X-165.837 Y-100 Z-1.833 I0.163 J0
X-166.163 Y-100 Z-1.894 I-0.163 J0
X-165.837 Y-100 Z-1.956 I0.163 J0
X-166.163 Y-100 Z-2.017 I-0.163 J0
X-165.837 Y-100 Z-2.078 I0.163 J0
X-166.162 Y-100 Z-2.139 I-0.163 J0
X-165.838 Y-100 Z-2.2 I0.162 J0
X-166.162 Y-100 Z-2.261 I-0.162 J0
X-165.933 Y-100.148 Z-2.3 I0.162 J0
X-166.067 Y-99.852 I-0.067 J0.148
X-165.933 Y-100.148 I0.067 J-0.148
G1 X-165.907 Y-100.129
X-165.89 Y-100.102
X-165.885 Y-100.071
X-165.892 Y-100.04
X-165.958 Y-99.896
Z5
X-134.077 Y-100.081
Z1.683
Z0
X-133.919
X-133.888 Y-100.075
X-133.861 Y-100.057
X-133.844 Y-100.031
X-133.837 Y-100
G3 X-134.163 Y-100 Z-0.061 I-0.163 J0
X-133.837 Y-100 Z-0.122 I0.163 J0
X-134.163 Y-100 Z-0.183 I-0.163 J0
X-133.837 Y-100 Z-0.244 I0.163 J0
X-134.163 Y-100 Z-0.306 I-0.163 J0
X-133.837 Y-100 Z-0.367 I0.163 J0
X-134.163 Y-100 Z-0.428 I-0.163 J0
X-133.837 Y-100 Z-0.489 I0.163 J0
X-134.163 Y-100 Z-0.55 I-0.163 J0
X-133.837 Y-100 Z-0.611 I0.163 J0
X-134.163 Y-100 Z-0.672 I-0.163 J0
X-133.837 Y-100 Z-0.733 I0.163 J0
X-134.163 Y-100 Z-0.794 I-0.163 J0
X-133.837 Y-100 Z-0.856 I0.163 J0
X-134.163 Y-100 Z-0.917 I-0.163 J0
X-133.837 Y-100 Z-0.978 I0.163 J0
X-134.163 Y-100 Z-1.039 I-0.163 J0
X-133.837 Y-100 Z-1.1 I0.163 J0
X-134.163 Y-100 Z-1.161 I-0.163 J0
X-133.837 Y-100 Z-1.222 I0.163 J0
X-134.163 Y-100 Z-1.283 I-0.163 J0
X-133.837 Y-100 Z-1.344 I0.163 J0
X-134.163 Y-100 Z-1.406 I-0.163 J0
X-133.837 Y-100 Z-1.467 I0.163 J0
X-134.163 Y-100 Z-1.528 I-0.163 J0
X-133.837 Y-100 Z-1.589 I0.163 J0
X-134.163 Y-100 Z-1.65 I-0.163 J0
X-133.837 Y-100 Z-1.711 I0.163 J0
X-134.163 Y-100 Z-1.772 I-0.163 J0
X-133.837 Y-100 Z-1.833 I0.163 J0
X-134.163 Y-100 Z-1.894 I-0.163 J0
X-133.837 Y-100 Z-1.956 I0.163 J0
X-134.163 Y-100 Z-2.017 I-0.163 J0
X-133.837 Y-100 Z-2.078 I0.163 J0
X-134.162 Y-100 Z-2.139 I-0.163 J0
X-133.838 Y-100 Z-2.2 I0.162 J0
X-134.162 Y-100 Z-2.261 I-0.162 J0
X-133.933 Y-100.148 Z-2.3 I0.162 J0
X-134.067 Y-99.852 I-0.067 J0.148
X-133.933 Y-100.148 I0.067 J-0.148
G1 X-133.907 Y-100.129
X-133.89 Y-100.102
X-133.885 Y-100.071
X-133.892 Y-100.04
X-133.958 Y-99.896
Z5
X-134.077 Y-145.081
Z1.683
Z0
X-133.919
X-133.888 Y-145.075
X-133.861 Y-145.057
X-133.844 Y-145.031
X-133.837 Y-145
G3 X-134.163 Y-145 Z-0.061 I-0.163 J0
X-133.837 Y-145 Z-0.122 I0.163 J0
X-134.163 Y-145 Z-0.183 I-0.163 J0
X-133.837 Y-145 Z-0.244 I0.163 J0
X-134.163 Y-145 Z-0.306 I-0.163 J0
X-133.837 Y-145 Z-0.367 I0.163 J0
X-134.163 Y-145 Z-0.428 I-0.163 J0
X-133.837 Y-145 Z-0.489 I0.163 J0
X-134.163 Y-145 Z-0.55 I-0.163 J0
X-133.837 Y-145 Z-0.611 I0.163 J0
X-134.163 Y-145 Z-0.672 I-0.163 J0
X-133.837 Y-145 Z-0.733 I0.163 J0
X-134.163 Y-145 Z-0.794 I-0.163 J0
X-133.837 Y-145 Z-0.856 I0.163 J0
X-134.163 Y-145 Z-0.917 I-0.163 J0
X-133.837 Y-145 Z-0.978 I0.163 J0
X-134.163 Y-145 Z-1.039 I-0.163 J0
X-133.837 Y-145 Z-1.1 I0.163 J0
X-134.163 Y-145 Z-1.161 I-0.163 J0
X-133.837 Y-145 Z-1.222 I0.163 J0
X-134.163 Y-145 Z-1.283 I-0.163 J0
X-133.837 Y-145 Z-1.344 I0.163 J0
X-134.163 Y-145 Z-1.406 I-0.163 J0
X-133.837 Y-145 Z-1.467 I0.163 J0
X-134.163 Y-145 Z-1.528 I-0.163 J0
X-133.837 Y-145 Z-1.589 I0.163 J0
X-134.163 Y-145 Z-1.65 I-0.163 J0
X-133.837 Y-145 Z-1.711 I0.163 J0
X-134.163 Y-145 Z-1.772 I-0.163 J0
X-133.837 Y-145 Z-1.833 I0.163 J0
X-134.163 Y-145 Z-1.894 I-0.163 J0
X-133.837 Y-145 Z-1.956 I0.163 J0
X-134.163 Y-145 Z-2.017 I-0.163 J0
X-133.837 Y-145 Z-2.078 I0.163 J0
X-134.162 Y-145 Z-2.139 I-0.163 J0
X-133.838 Y-145 Z-2.2 I0.162 J0
X-134.162 Y-145 Z-2.261 I-0.162 J0
X-133.933 Y-145.148 Z-2.3 I0.162 J0
X-134.067 Y-144.852 I-0.067 J0.148
X-133.933 Y-145.148 I0.067 J-0.148
G1 X-133.907 Y-145.129
X-133.89 Y-145.102
X-133.885 Y-145.071
X-133.892 Y-145.04
X-133.958 Y-144.896
Z5
X-166.077 Y-145.081
Z1.683
Z0
X-165.919
X-165.888 Y-145.075
X-165.861 Y-145.057
X-165.844 Y-145.031
X-165.837 Y-145
G3 X-166.163 Y-145 Z-0.061 I-0.163 J0
X-165.837 Y-145 Z-0.122 I0.163 J0
X-166.163 Y-145 Z-0.183 I-0.163 J0
X-165.837 Y-145 Z-0.244 I0.163 J0
X-166.163 Y-145 Z-0.306 I-0.163 J0
X-165.837 Y-145 Z-0.367 I0.163 J0
X-166.163 Y-145 Z-0.428 I-0.163 J0
X-165.837 Y-145 Z-0.489 I0.163 J0
X-166.163 Y-145 Z-0.55 I-0.163 J0
X-165.837 Y-145 Z-0.611 I0.163 J0
X-166.163 Y-145 Z-0.672 I-0.163 J0
X-165.837 Y-145 Z-0.733 I0.163 J0
X-166.163 Y-145 Z-0.794 I-0.163 J0
X-165.837 Y-145 Z-0.856 I0.163 J0
X-166.163 Y-145 Z-0.917 I-0.163 J0
X-165.837 Y-145 Z-0.978 I0.163 J0
X-166.163 Y-145 Z-1.039 I-0.163 J0
X-165.837 Y-145 Z-1.1 I0.163 J0
X-166.163 Y-145 Z-1.161 I-0.163 J0
X-165.837 Y-145 Z-1.222 I0.163 J0
X-166.163 Y-145 Z-1.283 I-0.163 J0
X-165.837 Y-145 Z-1.344 I0.163 J0
X-166.163 Y-145 Z-1.406 I-0.163 J0
X-165.837 Y-145 Z-1.467 I0.163 J0
X-166.163 Y-145 Z-1.528 I-0.163 J0
X-165.837 Y-145 Z-1.589 I0.163 J0
X-166.163 Y-145 Z-1.65 I-0.163 J0
X-165.837 Y-145 Z-1.711 I0.163 J0
X-166.163 Y-145 Z-1.772 I-0.163 J0
X-165.837 Y-145 Z-1.833 I0.163 J0
X-166.163 Y-145 Z-1.894 I-0.163 J0
X-165.837 Y-145 Z-1.956 I0.163 J0
X-166.163 Y-145 Z-2.017 I-0.163 J0
X-165.837 Y-145 Z-2.078 I0.163 J0
X-166.162 Y-145 Z-2.139 I-0.163 J0
X-165.838 Y-145 Z-2.2 I0.162 J0
X-166.162 Y-145 Z-2.261 I-0.162 J0
X-165.933 Y-145.148 Z-2.3 I0.162 J0
X-166.067 Y-144.852 I-0.067 J0.148
X-165.933 Y-145.148 I0.067 J-0.148
G1 X-165.907 Y-145.129
X-165.89 Y-145.102
X-165.885 Y-145.071
X-165.892 Y-145.04
X-165.958 Y-144.896
Z5
X-191.008 Y-226.219
Z1.683
Z0
X-191.167
X-191.198 Y-226.225
X-191.224 Y-226.243
X-191.242 Y-226.269
X-191.248 Y-226.3
G3 X-190.923 Y-226.3 Z-0.061 I0.162 J0
X-191.248 Y-226.3 Z-0.122 I-0.162 J0
X-190.923 Y-226.3 Z-0.183 I0.162 J0
X-191.248 Y-226.3 Z-0.244 I-0.162 J0
X-190.923 Y-226.3 Z-0.306 I0.162 J0
X-191.248 Y-226.3 Z-0.367 I-0.162 J0
X-190.923 Y-226.3 Z-0.428 I0.162 J0
X-191.248 Y-226.3 Z-0.489 I-0.162 J0
X-190.923 Y-226.3 Z-0.55 I0.162 J0
X-191.248 Y-226.3 Z-0.611 I-0.162 J0
X-190.923 Y-226.3 Z-0.672 I0.162 J0
X-191.248 Y-226.3 Z-0.733 I-0.162 J0
X-190.923 Y-226.3 Z-0.794 I0.162 J0
X-191.248 Y-226.3 Z-0.856 I-0.162 J0
X-190.923 Y-226.3 Z-0.917 I0.162 J0
X-191.248 Y-226.3 Z-0.978 I-0.162 J0
X-190.923 Y-226.3 Z-1.039 I0.162 J0
X-191.248 Y-226.3 Z-1.1 I-0.162 J0
X-190.923 Y-226.3 Z-1.161 I0.162 J0
X-191.248 Y-226.3 Z-1.222 I-0.162 J0
X-190.923 Y-226.3 Z-1.283 I0.162 J0
X-191.248 Y-226.3 Z-1.344 I-0.162 J0
X-190.923 Y-226.3 Z-1.406 I0.162 J0
X-191.248 Y-226.3 Z-1.467 I-0.162 J0
X-190.923 Y-226.3 Z-1.528 I0.162 J0
X-191.248 Y-226.3 Z-1.589 I-0.162 J0
X-190.923 Y-226.3 Z-1.65 I0.162 J0
X-191.248 Y-226.3 Z-1.711 I-0.162 J0
X-190.923 Y-226.3 Z-1.772 I0.162 J0
X-191.248 Y-226.3 Z-1.833 I-0.162 J0
X-190.923 Y-226.3 Z-1.894 I0.162 J0
X-191.248 Y-226.3 Z-1.956 I-0.162 J0
X-190.923 Y-226.3 Z-2.017 I0.162 J0
X-191.248 Y-226.3 Z-2.078 I-0.162 J0
X-190.923 Y-226.3 Z-2.139 I0.162 J0
X-191.248 Y-226.3 Z-2.2 I-0.162 J0
X-190.923 Y-226.3 Z-2.261 I0.162 J0
X-191.153 Y-226.152 Z-2.3 I-0.162 J0
X-191.018 Y-226.448 I0.067 J-0.148
X-191.153 Y-226.152 I-0.067 J0.148
G1 X-191.179 Y-226.171
X-191.195 Y-226.198
X-191.201 Y-226.229
X-191.193 Y-226.26
X-191.127 Y-226.404
Z5
X-165.923 Y-225.219
Z1.683
Z0
X-166.081
X-166.112 Y-225.225
X-166.139 Y-225.243
X-166.156 Y-225.269
X-166.163 Y-225.3
G3 X-165.837 Y-225.3 Z-0.061 I0.163 J0
X-166.163 Y-225.3 Z-0.122 I-0.163 J0
X-165.837 Y-225.3 Z-0.183 I0.163 J0
X-166.163 Y-225.3 Z-0.244 I-0.163 J0
X-165.837 Y-225.3 Z-0.306 I0.163 J0
X-166.163 Y-225.3 Z-0.367 I-0.163 J0
X-165.837 Y-225.3 Z-0.428 I0.163 J0
X-166.163 Y-225.3 Z-0.489 I-0.163 J0
X-165.837 Y-225.3 Z-0.55 I0.163 J0
X-166.163 Y-225.3 Z-0.611 I-0.163 J0
X-165.837 Y-225.3 Z-0.672 I0.163 J0
X-166.163 Y-225.3 Z-0.733 I-0.163 J0
X-165.837 Y-225.3 Z-0.794 I0.163 J0
X-166.163 Y-225.3 Z-0.856 I-0.163 J0
X-165.837 Y-225.3 Z-0.917 I0.163 J0
X-166.163 Y-225.3 Z-0.978 I-0.163 J0
X-165.837 Y-225.3 Z-1.039 I0.163 J0
X-166.163 Y-225.3 Z-1.1 I-0.163 J0
X-165.837 Y-225.3 Z-1.161 I0.163 J0
X-166.163 Y-225.3 Z-1.222 I-0.163 J0
X-165.837 Y-225.3 Z-1.283 I0.163 J0
X-166.163 Y-225.3 Z-1.344 I-0.163 J0
X-165.837 Y-225.3 Z-1.406 I0.163 J0
X-166.163 Y-225.3 Z-1.467 I-0.163 J0
X-165.837 Y-225.3 Z-1.528 I0.163 J0
X-166.163 Y-225.3 Z-1.589 I-0.163 J0
X-165.837 Y-225.3 Z-1.65 I0.163 J0
X-166.163 Y-225.3 Z-1.711 I-0.163 J0
X-165.837 Y-225.3 Z-1.772 I0.163 J0
X-166.163 Y-225.3 Z-1.833 I-0.163 J0
X-165.837 Y-225.3 Z-1.894 I0.163 J0
X-166.163 Y-225.3 Z-1.956 I-0.163 J0
X-165.837 Y-225.3 Z-2.017 I0.163 J0
X-166.163 Y-225.3 Z-2.078 I-0.163 J0
X-165.838 Y-225.3 Z-2.139 I0.163 J0
X-166.162 Y-225.3 Z-2.2 I-0.162 J0
X-165.838 Y-225.3 Z-2.261 I0.162 J0
X-166.067 Y-225.152 Z-2.3 I-0.162 J0
X-165.933 Y-225.448 I0.067 J-0.148
X-166.067 Y-225.152 I-0.067 J0.148
G1 X-166.093 Y-225.171
X-166.11 Y-225.198
X-166.115 Y-225.229
X-166.108 Y-225.26
X-166.042 Y-225.404
Z5
X-134.077 Y-225.381
Z1.683
Z0
X-133.919
X-133.888 Y-225.375
X-133.861 Y-225.357
X-133.844 Y-225.331
X-133.837 Y-225.3
G3 X-134.163 Y-225.3 Z-0.061 I-0.163 J0
X-133.837 Y-225.3 Z-0.122 I0.163 J0
X-134.163 Y-225.3 Z-0.183 I-0.163 J0
X-133.837 Y-225.3 Z-0.244 I0.163 J0
X-134.163 Y-225.3 Z-0.306 I-0.163 J0
X-133.837 Y-225.3 Z-0.367 I0.163 J0
X-134.163 Y-225.3 Z-0.428 I-0.163 J0
X-133.837 Y-225.3 Z-0.489 I0.163 J0
X-134.163 Y-225.3 Z-0.55 I-0.163 J0
X-133.837 Y-225.3 Z-0.611 I0.163 J0
X-134.163 Y-225.3 Z-0.672 I-0.163 J0
X-133.837 Y-225.3 Z-0.733 I0.163 J0
X-134.163 Y-225.3 Z-0.794 I-0.163 J0
X-133.837 Y-225.3 Z-0.856 I0.163 J0
X-134.163 Y-225.3 Z-0.917 I-0.163 J0
X-133.837 Y-225.3 Z-0.978 I0.163 J0
X-134.163 Y-225.3 Z-1.039 I-0.163 J0
X-133.837 Y-225.3 Z-1.1 I0.163 J0
X-134.163 Y-225.3 Z-1.161 I-0.163 J0
X-133.837 Y-225.3 Z-1.222 I0.163 J0
X-134.163 Y-225.3 Z-1.283 I-0.163 J0
X-133.837 Y-225.3 Z-1.344 I0.163 J0
X-134.163 Y-225.3 Z-1.406 I-0.163 J0
X-133.837 Y-225.3 Z-1.467 I0.163 J0
X-134.163 Y-225.3 Z-1.528 I-0.163 J0
X-133.837 Y-225.3 Z-1.589 I0.163 J0
X-134.163 Y-225.3 Z-1.65 I-0.163 J0
X-133.837 Y-225.3 Z-1.711 I0.163 J0
X-134.163 Y-225.3 Z-1.772 I-0.163 J0
X-133.837 Y-225.3 Z-1.833 I0.163 J0
X-134.163 Y-225.3 Z-1.894 I-0.163 J0
X-133.837 Y-225.3 Z-1.956 I0.163 J0
X-134.163 Y-225.3 Z-2.017 I-0.163 J0
X-133.837 Y-225.3 Z-2.078 I0.163 J0
X-134.162 Y-225.3 Z-2.139 I-0.163 J0
X-133.838 Y-225.3 Z-2.2 I0.162 J0
X-134.162 Y-225.3 Z-2.261 I-0.162 J0
X-133.933 Y-225.448 Z-2.3 I0.162 J0
X-134.067 Y-225.152 I-0.067 J0.148
X-133.933 Y-225.448 I0.067 J-0.148
G1 X-133.907 Y-225.429
X-133.89 Y-225.402
X-133.885 Y-225.371
X-133.892 Y-225.34
X-133.958 Y-225.196
Z5
X-108.992 Y-226.381
Z1.683
Z0
X-108.833
X-108.802 Y-226.375
X-108.776 Y-226.357
X-108.758 Y-226.331
X-108.752 Y-226.3
G3 X-109.077 Y-226.3 Z-0.061 I-0.162 J0
X-108.752 Y-226.3 Z-0.122 I0.162 J0
X-109.077 Y-226.3 Z-0.183 I-0.162 J0
X-108.752 Y-226.3 Z-0.244 I0.162 J0
X-109.077 Y-226.3 Z-0.306 I-0.162 J0
X-108.752 Y-226.3 Z-0.367 I0.162 J0
X-109.077 Y-226.3 Z-0.428 I-0.162 J0
X-108.752 Y-226.3 Z-0.489 I0.162 J0
X-109.077 Y-226.3 Z-0.55 I-0.162 J0
X-108.752 Y-226.3 Z-0.611 I0.162 J0
X-109.077 Y-226.3 Z-0.672 I-0.162 J0
X-108.752 Y-226.3 Z-0.733 I0.162 J0
X-109.077 Y-226.3 Z-0.794 I-0.162 J0
X-108.752 Y-226.3 Z-0.856 I0.162 J0
X-109.077 Y-226.3 Z-0.917 I-0.162 J0
X-108.752 Y-226.3 Z-0.978 I0.162 J0
X-109.077 Y-226.3 Z-1.039 I-0.162 J0
X-108.752 Y-226.3 Z-1.1 I0.162 J0
X-109.077 Y-226.3 Z-1.161 I-0.162 J0
X-108.752 Y-226.3 Z-1.222 I0.162 J0
X-109.077 Y-226.3 Z-1.283 I-0.162 J0
X-108.752 Y-226.3 Z-1.344 I0.162 J0
X-109.077 Y-226.3 Z-1.406 I-0.162 J0
X-108.752 Y-226.3 Z-1.467 I0.162 J0
X-109.077 Y-226.3 Z-1.528 I-0.162 J0
X-108.752 Y-226.3 Z-1.589 I0.162 J0
X-109.077 Y-226.3 Z-1.65 I-0.162 J0
X-108.752 Y-226.3 Z-1.711 I0.162 J0
X-109.077 Y-226.3 Z-1.772 I-0.162 J0
X-108.752 Y-226.3 Z-1.833 I0.162 J0
X-109.077 Y-226.3 Z-1.894 I-0.162 J0
X-108.752 Y-226.3 Z-1.956 I0.162 J0
X-109.077 Y-226.3 Z-2.017 I-0.162 J0
X-108.752 Y-226.3 Z-2.078 I0.162 J0
X-109.077 Y-226.3 Z-2.139 I-0.162 J0
X-108.752 Y-226.3 Z-2.2 I0.162 J0
X-109.077 Y-226.3 Z-2.261 I-0.162 J0
X-108.847 Y-226.448 Z-2.3 I0.162 J0
X-108.982 Y-226.152 I-0.067 J0.148
X-108.847 Y-226.448 I0.067 J-0.148
G1 X-108.821 Y-226.429
X-108.805 Y-226.402
X-108.799 Y-226.371
X-108.807 Y-226.34
X-108.873 Y-226.196
Z5
X-17.013 Y-179.581
Z1.683
Z0
X-16.855
X-16.824 Y-179.575
X-16.797 Y-179.557
X-16.78 Y-179.531
X-16.773 Y-179.5
G3 X-17.098 Y-179.5 Z-0.061 I-0.163 J0
X-16.773 Y-179.5 Z-0.122 I0.163 J0
X-17.098 Y-179.5 Z-0.183 I-0.163 J0
X-16.773 Y-179.5 Z-0.244 I0.163 J0
X-17.098 Y-179.5 Z-0.306 I-0.162 J0
X-16.773 Y-179.5 Z-0.367 I0.162 J0
X-17.098 Y-179.5 Z-0.428 I-0.162 J0
X-16.773 Y-179.5 Z-0.489 I0.162 J0
X-17.098 Y-179.5 Z-0.55 I-0.162 J0
X-16.773 Y-179.5 Z-0.611 I0.162 J0
X-17.098 Y-179.5 Z-0.672 I-0.162 J0
X-16.773 Y-179.5 Z-0.733 I0.162 J0
X-17.098 Y-179.5 Z-0.794 I-0.162 J0
X-16.773 Y-179.5 Z-0.856 I0.162 J0
X-17.098 Y-179.5 Z-0.917 I-0.162 J0
X-16.773 Y-179.5 Z-0.978 I0.162 J0
X-17.098 Y-179.5 Z-1.039 I-0.162 J0
X-16.773 Y-179.5 Z-1.1 I0.162 J0
X-17.098 Y-179.5 Z-1.161 I-0.162 J0
X-16.773 Y-179.5 Z-1.222 I0.162 J0
X-17.098 Y-179.5 Z-1.283 I-0.162 J0
X-16.773 Y-179.5 Z-1.344 I0.162 J0
X-17.098 Y-179.5 Z-1.406 I-0.162 J0
X-16.773 Y-179.5 Z-1.467 I0.162 J0
X-17.098 Y-179.5 Z-1.528 I-0.162 J0
X-16.773 Y-179.5 Z-1.589 I0.162 J0
X-17.098 Y-179.5 Z-1.65 I-0.162 J0
X-16.773 Y-179.5 Z-1.711 I0.162 J0
X-17.098 Y-179.5 Z-1.772 I-0.162 J0
X-16.773 Y-179.5 Z-1.833 I0.162 J0
X-17.098 Y-179.5 Z-1.894 I-0.162 J0
X-16.773 Y-179.5 Z-1.956 I0.162 J0
X-17.098 Y-179.5 Z-2.017 I-0.162 J0
X-16.773 Y-179.5 Z-2.078 I0.162 J0
X-17.098 Y-179.5 Z-2.139 I-0.162 J0
X-16.773 Y-179.5 Z-2.2 I0.162 J0
X-17.098 Y-179.5 Z-2.261 I-0.162 J0
X-16.868 Y-179.648 Z-2.3 I0.162 J0
X-17.003 Y-179.352 I-0.067 J0.148
X-16.868 Y-179.648 I0.067 J-0.148
G1 X-16.843 Y-179.629
X-16.826 Y-179.602
X-16.821 Y-179.571
X-16.828 Y-179.54
X-16.894 Y-179.396
Z5
X-17.013 Y-65.581
Z1.683
Z0
X-16.855
X-16.824 Y-65.575
X-16.797 Y-65.557
X-16.78 Y-65.531
X-16.773 Y-65.5
G3 X-17.098 Y-65.5 Z-0.061 I-0.163 J0
X-16.773 Y-65.5 Z-0.122 I0.163 J0
X-17.098 Y-65.5 Z-0.183 I-0.163 J0
X-16.773 Y-65.5 Z-0.244 I0.163 J0
X-17.098 Y-65.5 Z-0.306 I-0.162 J0
X-16.773 Y-65.5 Z-0.367 I0.162 J0
X-17.098 Y-65.5 Z-0.428 I-0.162 J0
X-16.773 Y-65.5 Z-0.489 I0.162 J0
X-17.098 Y-65.5 Z-0.55 I-0.162 J0
X-16.773 Y-65.5 Z-0.611 I0.162 J0
X-17.098 Y-65.5 Z-0.672 I-0.162 J0
X-16.773 Y-65.5 Z-0.733 I0.162 J0
X-17.098 Y-65.5 Z-0.794 I-0.162 J0
X-16.773 Y-65.5 Z-0.856 I0.162 J0
X-17.098 Y-65.5 Z-0.917 I-0.162 J0
X-16.773 Y-65.5 Z-0.978 I0.162 J0
X-17.098 Y-65.5 Z-1.039 I-0.162 J0
X-16.773 Y-65.5 Z-1.1 I0.162 J0
X-17.098 Y-65.5 Z-1.161 I-0.162 J0
X-16.773 Y-65.5 Z-1.222 I0.162 J0
X-17.098 Y-65.5 Z-1.283 I-0.162 J0
X-16.773 Y-65.5 Z-1.344 I0.162 J0
X-17.098 Y-65.5 Z-1.406 I-0.162 J0
X-16.773 Y-65.5 Z-1.467 I0.162 J0
X-17.098 Y-65.5 Z-1.528 I-0.162 J0
X-16.773 Y-65.5 Z-1.589 I0.162 J0
X-17.098 Y-65.5 Z-1.65 I-0.162 J0
X-16.773 Y-65.5 Z-1.711 I0.162 J0
X-17.098 Y-65.5 Z-1.772 I-0.162 J0
X-16.773 Y-65.5 Z-1.833 I0.162 J0
X-17.098 Y-65.5 Z-1.894 I-0.162 J0
X-16.773 Y-65.5 Z-1.956 I0.162 J0
X-17.098 Y-65.5 Z-2.017 I-0.162 J0
X-16.773 Y-65.5 Z-2.078 I0.162 J0
X-17.098 Y-65.5 Z-2.139 I-0.162 J0
X-16.773 Y-65.5 Z-2.2 I0.162 J0
X-17.098 Y-65.5 Z-2.261 I-0.162 J0
X-16.868 Y-65.648 Z-2.3 I0.162 J0
X-17.003 Y-65.352 I-0.067 J0.148
X-16.868 Y-65.648 I0.067 J-0.148
G1 X-16.843 Y-65.629
X-16.826 Y-65.602
X-16.821 Y-65.571
X-16.828 Y-65.54
X-16.894 Y-65.396
Z15
(When using Fusion 360 for Personal Use, the feedrate of)
(rapid moves is reduced to match the feedrate of cutting)
(moves, which can increase machining time. Unrestricted rapid)
(moves are available with a Fusion 360 Subscription.)

(2D-Kontur10)
G0 X-139.54 Y-138.068
G1 Z15 F1000
Z5
Z2 F333.3
Z-0.683
G18 G2 X-139.223 Z-1 I0.317 K0 F1000
G1 X-138.905
G17 G3 X-138.587 Y-137.75 I0 J0.318
G1 Y-136.087
X-161.413
Y-139.413
X-138.587
Y-137.75
G3 X-138.905 Y-137.432 I-0.318 J0
G1 X-139.223
G18 G3 X-139.54 Z-0.683 I0 K0.317
G1 Z5
Y-138.068
Z1 F333.3
Z-1.683
G2 X-139.223 Z-2 I0.317 K0 F1000
G1 X-138.905
G17 G3 X-138.587 Y-137.75 I0 J0.318
G1 Y-136.087
X-161.413
Y-139.413
X-138.587
Y-137.75
G3 X-138.905 Y-137.432 I-0.318 J0
G1 X-139.223
G18 G3 X-139.54 Z-1.683 I0 K0.317
G1 Z5
Y-138.068
Z0 F333.3
Z-1.983
G2 X-139.223 Z-2.3 I0.317 K0 F1000
G1 X-138.905
G17 G3 X-138.587 Y-137.75 I0 J0.318
G1 Y-136.087
X-161.413
Y-139.413
X-138.587
Y-137.75
G3 X-138.905 Y-137.432 I-0.318 J0
G1 X-139.223
G18 G3 X-139.54 Z-1.983 I0 K0.317
G1 Z5
X-138.514 Y-166.978
Z2 F333.3
Z-0.683
X-138.507 Y-166.98 Z-0.753 F1000
X-138.484 Y-166.984 Z-0.82
X-138.447 Y-166.992 Z-0.88
X-138.397 Y-167.002 Z-0.931
X-138.338 Y-167.014 Z-0.969
X-138.273 Y-167.027 Z-0.992
X-138.203 Y-167.041 Z-1
X-137.892 Y-167.104
G17 G3 X-137.518 Y-166.856 I0.063 J0.311
G2 X-132.334 Y-151.587 I62.318 J-12.643
G1 X-167.666
G2 X-161.232 Y-177.913 I-57.134 J-27.912
G1 X-138.768
G2 X-137.518 Y-166.856 I63.568 J-1.587
G3 X-137.766 Y-166.482 I-0.311 J0.063
G1 X-138.077 Y-166.419
X-138.146 Y-166.405 Z-0.992
X-138.212 Y-166.392 Z-0.969
X-138.271 Y-166.38 Z-0.931
X-138.32 Y-166.37 Z-0.88
X-138.357 Y-166.362 Z-0.82
X-138.38 Y-166.357 Z-0.753
X-138.388 Y-166.356 Z-0.683
Z5
X-138.514 Y-166.978
Z1 F333.3
Z-1.683
X-138.507 Y-166.98 Z-1.753 F1000
X-138.484 Y-166.984 Z-1.82
X-138.447 Y-166.992 Z-1.88
X-138.397 Y-167.002 Z-1.931
X-138.338 Y-167.014 Z-1.969
X-138.273 Y-167.027 Z-1.992
X-138.203 Y-167.041 Z-2
X-137.892 Y-167.104
G3 X-137.518 Y-166.856 I0.063 J0.311
G2 X-132.334 Y-151.587 I62.318 J-12.643
G1 X-167.666
G2 X-161.232 Y-177.913 I-57.134 J-27.912
G1 X-138.768
G2 X-137.518 Y-166.856 I63.568 J-1.587
G3 X-137.766 Y-166.482 I-0.311 J0.063
G1 X-138.077 Y-166.419
X-138.146 Y-166.405 Z-1.992
X-138.212 Y-166.392 Z-1.969
X-138.271 Y-166.38 Z-1.931
X-138.32 Y-166.37 Z-1.88
X-138.357 Y-166.362 Z-1.82
X-138.38 Y-166.357 Z-1.753
X-138.388 Y-166.356 Z-1.683
Z5
X-138.514 Y-166.978
Z0 F333.3
Z-1.983
X-138.507 Y-166.98 Z-2.053 F1000
X-138.484 Y-166.984 Z-2.12
X-138.447 Y-166.992 Z-2.18
X-138.397 Y-167.002 Z-2.231
X-138.338 Y-167.014 Z-2.269
X-138.273 Y-167.027 Z-2.292
X-138.203 Y-167.041 Z-2.3
X-137.892 Y-167.104
G3 X-137.518 Y-166.856 I0.063 J0.311
G2 X-132.334 Y-151.587 I62.318 J-12.643
G1 X-167.666
G2 X-161.232 Y-177.913 I-57.134 J-27.912
G1 X-138.768
G2 X-137.518 Y-166.856 I63.568 J-1.587
G3 X-137.766 Y-166.482 I-0.311 J0.063
G1 X-138.077 Y-166.419
X-138.146 Y-166.405 Z-2.292
X-138.212 Y-166.392 Z-2.269
X-138.271 Y-166.38 Z-2.231
X-138.32 Y-166.37 Z-2.18
X-138.357 Y-166.362 Z-2.12
X-138.38 Y-166.357 Z-2.053
X-138.388 Y-166.356 Z-1.983
Z5
X-139.74 Y-209.818
Z2 F333.3
Z-0.683
G18 G2 X-139.423 Z-1 I0.318 K0 F1000
G1 X-139.105
G17 G3 X-138.788 Y-209.5 I0 J0.318
G1 Y-189.087
X-161.212
Y-220.712
X-138.788
Y-209.5
G3 X-139.105 Y-209.182 I-0.317 J0
G1 X-139.423
G18 G3 X-139.74 Z-0.683 I0 K0.317
G1 Z5
Y-209.818
Z1 F333.3
Z-1.683
G2 X-139.423 Z-2 I0.318 K0 F1000
G1 X-139.105
G17 G3 X-138.788 Y-209.5 I0 J0.318
G1 Y-189.087
X-161.212
Y-220.712
X-138.788
Y-209.5
G3 X-139.105 Y-209.182 I-0.317 J0
G1 X-139.423
G18 G3 X-139.74 Z-1.683 I0 K0.317
G1 Z5
Y-209.818
Z0 F333.3
Z-1.983
G2 X-139.423 Z-2.3 I0.318 K0 F1000
G1 X-139.105
G17 G3 X-138.788 Y-209.5 I0 J0.318
G1 Y-189.087
X-161.212
Y-220.712
X-138.788
Y-209.5
G3 X-139.105 Y-209.182 I-0.317 J0
G1 X-139.423
G18 G3 X-139.74 Z-1.983 I0 K0.317
G1 Z5
X-125.788 Y-219.579
Z2 F333.3
Z-0.683
X-125.782 Y-219.574 Z-0.753 F1000
X-125.763 Y-219.56 Z-0.82
X-125.733 Y-219.536 Z-0.88
X-125.694 Y-219.505 Z-0.931
X-125.647 Y-219.468 Z-0.969
X-125.594 Y-219.427 Z-0.992
X-125.538 Y-219.383 Z-1
X-125.288 Y-219.187
G17 G3 X-125.234 Y-218.741 I-0.196 J0.25
G2 X-127.032 Y-216.334 I50.035 J39.24
G3 X-127.412 Y-216.745 I0.033 J-0.411
G1 Y-220.712
X-123.624
G2 X-125.234 Y-218.741 I48.424 J41.212
G3 X-125.68 Y-218.687 I-0.25 J-0.196
G1 X-125.93 Y-218.883
X-125.986 Y-218.927 Z-0.992
X-126.038 Y-218.968 Z-0.969
X-126.086 Y-219.006 Z-0.931
X-126.125 Y-219.037 Z-0.88
X-126.155 Y-219.06 Z-0.82
X-126.174 Y-219.074 Z-0.753
X-126.18 Y-219.079 Z-0.683
Z5
X-125.788 Y-219.579
Z1 F333.3
Z-1.683
X-125.782 Y-219.574 Z-1.753 F1000
X-125.763 Y-219.56 Z-1.82
X-125.733 Y-219.536 Z-1.88
X-125.694 Y-219.505 Z-1.931
X-125.647 Y-219.468 Z-1.969
X-125.594 Y-219.427 Z-1.992
X-125.538 Y-219.383 Z-2
X-125.288 Y-219.187
G3 X-125.234 Y-218.741 I-0.196 J0.25
G2 X-127.032 Y-216.334 I50.035 J39.24
G3 X-127.412 Y-216.745 I0.033 J-0.411
G1 Y-220.712
X-123.624
G2 X-125.234 Y-218.741 I48.424 J41.212
G3 X-125.68 Y-218.687 I-0.25 J-0.196
G1 X-125.93 Y-218.883
X-125.986 Y-218.927 Z-1.992
X-126.038 Y-218.968 Z-1.969
X-126.086 Y-219.006 Z-1.931
X-126.125 Y-219.037 Z-1.88
X-126.155 Y-219.06 Z-1.82
X-126.174 Y-219.074 Z-1.753
X-126.18 Y-219.079 Z-1.683
Z5
X-125.788 Y-219.579
Z0 F333.3
Z-1.983
X-125.782 Y-219.574 Z-2.053 F1000
X-125.763 Y-219.56 Z-2.12
X-125.733 Y-219.536 Z-2.18
X-125.694 Y-219.505 Z-2.231
X-125.647 Y-219.468 Z-2.269
X-125.594 Y-219.427 Z-2.292
X-125.538 Y-219.383 Z-2.3
X-125.288 Y-219.187
G3 X-125.234 Y-218.741 I-0.196 J0.25
G2 X-127.032 Y-216.334 I50.035 J39.24
G3 X-127.412 Y-216.745 I0.033 J-0.411
G1 Y-220.712
X-123.624
G2 X-125.234 Y-218.741 I48.424 J41.212
G3 X-125.68 Y-218.687 I-0.25 J-0.196
G1 X-125.93 Y-218.883
X-125.986 Y-218.927 Z-2.292
X-126.038 Y-218.968 Z-2.269
X-126.086 Y-219.006 Z-2.231
X-126.125 Y-219.037 Z-2.18
X-126.155 Y-219.06 Z-2.12
X-126.174 Y-219.074 Z-2.053
X-126.18 Y-219.079 Z-1.983
Z5
X-173.54 Y-219.811
Z2 F333.3
Z-0.683
G18 G2 X-173.223 Z-1 I0.317 K0 F1000
G1 X-172.905
G17 G3 X-172.587 Y-219.494 I0 J0.317
G1 Y-216.745
G3 X-172.968 Y-216.334 I-0.413 J0
G2 X-176.376 Y-220.712 I-51.833 J36.833
G1 X-172.587
Y-219.494
G3 X-172.905 Y-219.176 I-0.318 J0
G1 X-173.223
G18 G3 X-173.54 Z-0.683 I0 K0.317
G1 Z5
Y-219.811
Z1 F333.3
Z-1.683
G2 X-173.223 Z-2 I0.317 K0 F1000
G1 X-172.905
G17 G3 X-172.587 Y-219.494 I0 J0.317
G1 Y-216.745
G3 X-172.968 Y-216.334 I-0.413 J0
G2 X-176.376 Y-220.712 I-51.833 J36.833
G1 X-172.587
Y-219.494
G3 X-172.905 Y-219.176 I-0.318 J0
G1 X-173.223
G18 G3 X-173.54 Z-1.683 I0 K0.317
G1 Z5
Y-219.811
Z0 F333.3
Z-1.983
G2 X-173.223 Z-2.3 I0.317 K0 F1000
G1 X-172.905
G17 G3 X-172.587 Y-219.494 I0 J0.317
G1 Y-216.745
G3 X-172.968 Y-216.334 I-0.413 J0
G2 X-176.376 Y-220.712 I-51.833 J36.833
G1 X-172.587
Y-219.494
G3 X-172.905 Y-219.176 I-0.318 J0
G1 X-173.223
G18 G3 X-173.54 Z-1.983 I0 K0.317
G1 Z5
X-139.54 Y-107.567
Z2 F333.3
Z-0.683
G2 X-139.223 Z-1 I0.317 K0 F1000
G1 X-138.905
G17 G3 X-138.587 Y-107.25 I0 J0.317
G1 Y-105.588
X-161.413
Y-108.912
X-138.587
Y-107.25
G3 X-138.905 Y-106.933 I-0.318 J0
G1 X-139.223
G18 G3 X-139.54 Z-0.683 I0 K0.317
G1 Z5
Y-107.567
Z1 F333.3
Z-1.683
G2 X-139.223 Z-2 I0.317 K0 F1000
G1 X-138.905
G17 G3 X-138.587 Y-107.25 I0 J0.317
G1 Y-105.588
X-161.413
Y-108.912
X-138.587
Y-107.25
G3 X-138.905 Y-106.933 I-0.318 J0
G1 X-139.223
G18 G3 X-139.54 Z-1.683 I0 K0.317
G1 Z5
Y-107.567
Z0 F333.3
Z-1.983
G2 X-139.223 Z-2.3 I0.317 K0 F1000
G1 X-138.905
G17 G3 X-138.587 Y-107.25 I0 J0.317
G1 Y-105.588
X-161.413
Y-108.912
X-138.587
Y-107.25
G3 X-138.905 Y-106.933 I-0.318 J0
G1 X-139.223
G18 G3 X-139.54 Z-1.983 I0 K0.317
G1 Z5
X-138.388 Y-78.644
Z2 F333.3
Z-0.683
X-138.38 Y-78.642 Z-0.753 F1000
X-138.357 Y-78.638 Z-0.82
X-138.32 Y-78.63 Z-0.88
X-138.271 Y-78.62 Z-0.931
X-138.212 Y-78.608 Z-0.969
X-138.146 Y-78.595 Z-0.992
X-138.077 Y-78.581 Z-1
X-137.766 Y-78.518
G17 G3 X-137.518 Y-78.143 I-0.063 J0.311
G2 X-138.768 Y-67.088 I62.318 J12.644
G1 X-161.232
G2 X-167.666 Y-93.412 I-63.568 J1.588
G1 X-132.334
G2 X-137.518 Y-78.143 I57.134 J27.913
G3 X-137.892 Y-77.895 I-0.311 J-0.063
G1 X-138.203 Y-77.959
X-138.272 Y-77.973 Z-0.992
X-138.338 Y-77.986 Z-0.969
X-138.397 Y-77.998 Z-0.931
X-138.447 Y-78.008 Z-0.88
X-138.484 Y-78.015 Z-0.82
X-138.507 Y-78.02 Z-0.753
X-138.514 Y-78.022 Z-0.683
Z5
X-138.388 Y-78.644
Z1 F333.3
Z-1.683
X-138.38 Y-78.642 Z-1.753 F1000
X-138.357 Y-78.638 Z-1.82
X-138.32 Y-78.63 Z-1.88
X-138.271 Y-78.62 Z-1.931
X-138.212 Y-78.608 Z-1.969
X-138.146 Y-78.595 Z-1.992
X-138.077 Y-78.581 Z-2
X-137.766 Y-78.518
G3 X-137.518 Y-78.143 I-0.063 J0.311
G2 X-138.768 Y-67.088 I62.318 J12.644
G1 X-161.232
G2 X-167.666 Y-93.412 I-63.568 J1.588
G1 X-132.334
G2 X-137.518 Y-78.143 I57.134 J27.913
G3 X-137.892 Y-77.895 I-0.311 J-0.063
G1 X-138.203 Y-77.959
X-138.272 Y-77.973 Z-1.992
X-138.338 Y-77.986 Z-1.969
X-138.397 Y-77.998 Z-1.931
X-138.447 Y-78.008 Z-1.88
X-138.484 Y-78.015 Z-1.82
X-138.507 Y-78.02 Z-1.753
X-138.514 Y-78.022 Z-1.683
Z5
X-138.388 Y-78.644
Z0 F333.3
Z-1.983
X-138.38 Y-78.642 Z-2.053 F1000
X-138.357 Y-78.638 Z-2.12
X-138.32 Y-78.63 Z-2.18
X-138.271 Y-78.62 Z-2.231
X-138.212 Y-78.608 Z-2.269
X-138.146 Y-78.595 Z-2.292
X-138.077 Y-78.581 Z-2.3
X-137.766 Y-78.518
G3 X-137.518 Y-78.143 I-0.063 J0.311
G2 X-138.768 Y-67.088 I62.318 J12.644
G1 X-161.232
G2 X-167.666 Y-93.412 I-63.568 J1.588
G1 X-132.334
G2 X-137.518 Y-78.143 I57.134 J27.913
G3 X-137.892 Y-77.895 I-0.311 J-0.063
G1 X-138.203 Y-77.959
X-138.272 Y-77.973 Z-2.292
X-138.338 Y-77.986 Z-2.269
X-138.397 Y-77.998 Z-2.231
X-138.447 Y-78.008 Z-2.18
X-138.484 Y-78.015 Z-2.12
X-138.507 Y-78.02 Z-2.053
X-138.514 Y-78.022 Z-1.983
Z5
X-139.74 Y-40.345
Z2 F333.3
Z-0.683
G18 G2 X-139.423 Z-1 I0.318 K0 F1000
G1 X-139.105
G17 G3 X-138.788 Y-40.027 I0 J0.317
G1 Y-24.288
X-161.212
Y-45.169
G3 X-160.277 Y-46.499 I1.412 J0
G2 X-156.462 Y-55.335 I-2.223 J-6.201
G3 X-156.084 Y-55.912 I0.378 J-0.165
G1 X-143.916
G3 X-143.538 Y-55.335 I0 J0.412
G2 X-139.723 Y-46.499 I6.038 J2.635
G3 X-138.788 Y-45.169 I-0.477 J1.33
G1 Y-40.027
G3 X-139.105 Y-39.71 I-0.317 J0
G1 X-139.423
G18 G3 X-139.74 Z-0.683 I0 K0.317
G1 Z5
Y-40.345
Z1 F333.3
Z-1.683
G2 X-139.423 Z-2 I0.318 K0 F1000
G1 X-139.105
G17 G3 X-138.788 Y-40.027 I0 J0.317
G1 Y-24.288
X-161.212
Y-45.169
G3 X-160.277 Y-46.499 I1.412 J0
G2 X-156.462 Y-55.335 I-2.223 J-6.201
G3 X-156.084 Y-55.912 I0.378 J-0.165
G1 X-143.916
G3 X-143.538 Y-55.335 I0 J0.412
G2 X-139.723 Y-46.499 I6.038 J2.635
G3 X-138.788 Y-45.169 I-0.477 J1.33
G1 Y-40.027
G3 X-139.105 Y-39.71 I-0.317 J0
G1 X-139.423
G18 G3 X-139.74 Z-1.683 I0 K0.317
G1 Z5
Y-40.345
Z0 F333.3
Z-1.983
G2 X-139.423 Z-2.3 I0.318 K0 F1000
G1 X-139.105
G17 G3 X-138.788 Y-40.027 I0 J0.317
G1 Y-24.288
X-161.212
Y-45.169
G3 X-160.277 Y-46.499 I1.412 J0
G2 X-156.462 Y-55.335 I-2.223 J-6.201
G3 X-156.084 Y-55.912 I0.378 J-0.165
G1 X-143.916
G3 X-143.538 Y-55.335 I0 J0.412
G2 X-139.723 Y-46.499 I6.038 J2.635
G3 X-138.788 Y-45.169 I-0.477 J1.33
G1 Y-40.027
G3 X-139.105 Y-39.71 I-0.317 J0
G1 X-139.423
G18 G3 X-139.74 Z-1.983 I0 K0.317
G1 Z5
X-126.18 Y-25.921
Z2 F333.3
Z-0.683
X-126.174 Y-25.925 Z-0.753 F1000
X-126.155 Y-25.94 Z-0.82
X-126.125 Y-25.963 Z-0.88
X-126.086 Y-25.994 Z-0.931
X-126.039 Y-26.031 Z-0.969
X-125.986 Y-26.073 Z-0.992
X-125.93 Y-26.116 Z-1
X-125.68 Y-26.312
G17 G3 X-125.235 Y-26.259 I0.196 J0.25
G2 X-123.624 Y-24.288 I50.036 J-39.239
G1 X-127.412
Y-28.255
G3 X-127.032 Y-28.666 I0.413 J0
G2 X-125.235 Y-26.259 I51.834 J-36.831
G3 X-125.288 Y-25.813 I-0.25 J0.196
G1 X-125.538 Y-25.617
X-125.594 Y-25.573 Z-0.992
X-125.647 Y-25.532 Z-0.969
X-125.694 Y-25.495 Z-0.931
X-125.734 Y-25.464 Z-0.88
X-125.763 Y-25.44 Z-0.82
X-125.782 Y-25.426 Z-0.753
X-125.788 Y-25.421 Z-0.683
Z5
X-126.18 Y-25.921
Z1 F333.3
Z-1.683
X-126.174 Y-25.925 Z-1.753 F1000
X-126.155 Y-25.94 Z-1.82
X-126.125 Y-25.963 Z-1.88
X-126.086 Y-25.994 Z-1.931
X-126.039 Y-26.031 Z-1.969
X-125.986 Y-26.073 Z-1.992
X-125.93 Y-26.116 Z-2
X-125.68 Y-26.312
G3 X-125.235 Y-26.259 I0.196 J0.25
G2 X-123.624 Y-24.288 I50.036 J-39.239
G1 X-127.412
Y-28.255
G3 X-127.032 Y-28.666 I0.413 J0
G2 X-125.235 Y-26.259 I51.834 J-36.831
G3 X-125.288 Y-25.813 I-0.25 J0.196
G1 X-125.538 Y-25.617
X-125.594 Y-25.573 Z-1.992
X-125.647 Y-25.532 Z-1.969
X-125.694 Y-25.495 Z-1.931
X-125.734 Y-25.464 Z-1.88
X-125.763 Y-25.44 Z-1.82
X-125.782 Y-25.426 Z-1.753
X-125.788 Y-25.421 Z-1.683
Z5
X-126.18 Y-25.921
Z0 F333.3
Z-1.983
X-126.174 Y-25.925 Z-2.053 F1000
X-126.155 Y-25.94 Z-2.12
X-126.125 Y-25.963 Z-2.18
X-126.086 Y-25.994 Z-2.231
X-126.039 Y-26.031 Z-2.269
X-125.986 Y-26.073 Z-2.292
X-125.93 Y-26.116 Z-2.3
X-125.68 Y-26.312
G3 X-125.235 Y-26.259 I0.196 J0.25
G2 X-123.624 Y-24.288 I50.036 J-39.239
G1 X-127.412
Y-28.255
G3 X-127.032 Y-28.666 I0.413 J0
G2 X-125.235 Y-26.259 I51.834 J-36.831
G3 X-125.288 Y-25.813 I-0.25 J0.196
G1 X-125.538 Y-25.617
X-125.594 Y-25.573 Z-2.292
X-125.647 Y-25.532 Z-2.269
X-125.694 Y-25.495 Z-2.231
X-125.734 Y-25.464 Z-2.18
X-125.763 Y-25.44 Z-2.12
X-125.782 Y-25.426 Z-2.053
X-125.788 Y-25.421 Z-1.983
Z5
X-173.54 Y-25.824
Z2 F333.3
Z-0.683
G18 G2 X-173.223 Z-1 I0.317 K0 F1000
G1 X-172.905
G17 G3 X-172.587 Y-25.506 I0 J0.318
G1 Y-24.288
X-176.376
G2 X-172.968 Y-28.666 I-48.426 J-41.21
G3 X-172.587 Y-28.255 I-0.033 J0.411
G1 Y-25.506
G3 X-172.905 Y-25.189 I-0.318 J0
G1 X-173.223
G18 G3 X-173.54 Z-0.683 I0 K0.317
G1 Z5
Y-25.824
Z1 F333.3
Z-1.683
G2 X-173.223 Z-2 I0.317 K0 F1000
G1 X-172.905
G17 G3 X-172.587 Y-25.506 I0 J0.318
G1 Y-24.288
X-176.376
G2 X-172.968 Y-28.666 I-48.426 J-41.21
G3 X-172.587 Y-28.255 I-0.033 J0.411
G1 Y-25.506
G3 X-172.905 Y-25.189 I-0.318 J0
G1 X-173.223
G18 G3 X-173.54 Z-1.683 I0 K0.317
G1 Z5
Y-25.824
Z0 F333.3
Z-1.983
G2 X-173.223 Z-2.3 I0.317 K0 F1000
G1 X-172.905
G17 G3 X-172.587 Y-25.506 I0 J0.318
G1 Y-24.288
X-176.376
G2 X-172.968 Y-28.666 I-48.426 J-41.21
G3 X-172.587 Y-28.255 I-0.033 J0.411
G1 Y-25.506
G3 X-172.905 Y-25.189 I-0.318 J0
G1 X-173.223
G18 G3 X-173.54 Z-1.983 I0 K0.317
G1 Z15
G17
(When using Fusion 360 for Personal Use, the feedrate of)
(rapid moves is reduced to match the feedrate of cutting)
(moves, which can increase machining time. Unrestricted rapid)
(moves are available with a Fusion 360 Subscription.)

(2D-Kontur11)
G0 X-174.54 Y-122.817
G1 Z15 F1000
Z5
Z2 F333.3
Z-0.683
G18 G2 X-174.223 Z-1 I0.317 K0 F1000
G1 X-173.905
G17 G3 X-173.587 Y-122.5 I0 J0.317
G1 Y-103.191
G2 X-196.614 Y-122.5 I-51.214 J37.69
X-173.587 Y-141.809 I-28.187 J-56.999
G1 Y-122.5
G3 X-173.905 Y-122.183 I-0.318 J0
G1 X-174.223
G18 G3 X-174.54 Z-0.683 I0 K0.317
G1 Z5
Y-122.817
Z1 F333.3
Z-1.683
G2 X-174.223 Z-2 I0.317 K0 F1000
G1 X-173.905
G17 G3 X-173.587 Y-122.5 I0 J0.317
G1 Y-103.191
G2 X-196.614 Y-122.5 I-51.214 J37.69
X-173.587 Y-141.809 I-28.187 J-56.999
G1 Y-122.5
G3 X-173.905 Y-122.183 I-0.318 J0
G1 X-174.223
G18 G3 X-174.54 Z-1.683 I0 K0.317
G1 Z5
Y-122.817
Z0 F333.3
Z-1.983
G2 X-174.223 Z-2.3 I0.317 K0 F1000
G1 X-173.905
G17 G3 X-173.587 Y-122.5 I0 J0.317
G1 Y-103.191
G2 X-196.614 Y-122.5 I-51.214 J37.69
X-173.587 Y-141.809 I-28.187 J-56.999
G1 Y-122.5
G3 X-173.905 Y-122.183 I-0.318 J0
G1 X-174.223
G18 G3 X-174.54 Z-1.983 I0 K0.317
G1 Z5
X-114.465 Y-128.277
Z2 F333.3
Z-0.683
X-114.46 Y-128.283 Z-0.753 F1000
X-114.446 Y-128.302 Z-0.82
X-114.423 Y-128.332 Z-0.88
X-114.392 Y-128.372 Z-0.931
X-114.356 Y-128.42 Z-0.969
X-114.316 Y-128.473 Z-0.992
X-114.273 Y-128.53 Z-1
X-114.081 Y-128.783
G17 G3 X-113.636 Y-128.844 I0.253 J0.192
G2 X-103.386 Y-122.5 I38.437 J-50.655
X-126.412 Y-103.191 I28.187 J56.999
G1 Y-141.809
G2 X-113.636 Y-128.844 I51.214 J-37.69
G3 X-113.575 Y-128.399 I-0.192 J0.253
G1 X-113.767 Y-128.146
X-113.81 Y-128.089 Z-0.992
X-113.85 Y-128.036 Z-0.969
X-113.887 Y-127.988 Z-0.931
X-113.917 Y-127.948 Z-0.88
X-113.94 Y-127.918 Z-0.82
X-113.954 Y-127.899 Z-0.753
X-113.959 Y-127.893 Z-0.683
Z5
X-114.465 Y-128.277
Z1 F333.3
Z-1.683
X-114.46 Y-128.283 Z-1.753 F1000
X-114.446 Y-128.302 Z-1.82
X-114.423 Y-128.332 Z-1.88
X-114.392 Y-128.372 Z-1.931
X-114.356 Y-128.42 Z-1.969
X-114.316 Y-128.473 Z-1.992
X-114.273 Y-128.53 Z-2
X-114.081 Y-128.783
G3 X-113.636 Y-128.844 I0.253 J0.192
G2 X-103.386 Y-122.5 I38.437 J-50.655
X-126.412 Y-103.191 I28.187 J56.999
G1 Y-141.809
G2 X-113.636 Y-128.844 I51.214 J-37.69
G3 X-113.575 Y-128.399 I-0.192 J0.253
G1 X-113.767 Y-128.146
X-113.81 Y-128.089 Z-1.992
X-113.85 Y-128.036 Z-1.969
X-113.887 Y-127.988 Z-1.931
X-113.917 Y-127.948 Z-1.88
X-113.94 Y-127.918 Z-1.82
X-113.954 Y-127.899 Z-1.753
X-113.959 Y-127.893 Z-1.683
Z5
X-114.465 Y-128.277
Z0 F333.3
Z-1.983
X-114.46 Y-128.283 Z-2.053 F1000
X-114.446 Y-128.302 Z-2.12
X-114.423 Y-128.332 Z-2.18
X-114.392 Y-128.372 Z-2.231
X-114.356 Y-128.42 Z-2.269
X-114.316 Y-128.473 Z-2.292
X-114.273 Y-128.53 Z-2.3
X-114.081 Y-128.783
G3 X-113.636 Y-128.844 I0.253 J0.192
G2 X-103.386 Y-122.5 I38.437 J-50.655
X-126.412 Y-103.191 I28.187 J56.999
G1 Y-141.809
G2 X-113.636 Y-128.844 I51.214 J-37.69
G3 X-113.575 Y-128.399 I-0.192 J0.253
G1 X-113.767 Y-128.146
X-113.81 Y-128.089 Z-2.292
X-113.85 Y-128.036 Z-2.269
X-113.887 Y-127.988 Z-2.231
X-113.917 Y-127.948 Z-2.18
X-113.94 Y-127.918 Z-2.12
X-113.954 Y-127.899 Z-2.053
X-113.959 Y-127.893 Z-1.983
Z5
X-32.644 Y-122.817
Z2 F333.3
Z-0.683
G18 G2 X-32.327 Z-1 I0.318 K0 F1000
G1 X-32.009
G17 G3 X-31.692 Y-122.5 I0 J0.317
G1 Y-111.872
G2 X-47.015 Y-122.5 I-43.51 J46.371
X-31.692 Y-133.128 I-28.187 J-56.999
G1 Y-122.5
G3 X-32.009 Y-122.183 I-0.317 J0
G1 X-32.327
G18 G3 X-32.644 Z-0.683 I0 K0.317
G1 Z5
Y-122.817
Z1 F333.3
Z-1.683
G2 X-32.327 Z-2 I0.318 K0 F1000
G1 X-32.009
G17 G3 X-31.692 Y-122.5 I0 J0.317
G1 Y-111.872
G2 X-47.015 Y-122.5 I-43.51 J46.371
X-31.692 Y-133.128 I-28.187 J-56.999
G1 Y-122.5
G3 X-32.009 Y-122.183 I-0.317 J0
G1 X-32.327
G18 G3 X-32.644 Z-1.683 I0 K0.317
G1 Z5
Y-122.817
Z0 F333.3
Z-1.983
G2 X-32.327 Z-2.3 I0.318 K0 F1000
G1 X-32.009
G17 G3 X-31.692 Y-122.5 I0 J0.317
G1 Y-111.872
G2 X-47.015 Y-122.5 I-43.51 J46.371
X-31.692 Y-133.128 I-28.187 J-56.999
G1 Y-122.5
G3 X-32.009 Y-122.183 I-0.317 J0
G1 X-32.327
G18 G3 X-32.644 Z-1.983 I0 K0.317
G1 Z5
X-261.11 Y-126.142
Z2 F333.3
Z-0.683
X-261.106 Y-126.148 Z-0.753 F1000
X-261.093 Y-126.168 Z-0.82
X-261.071 Y-126.199 Z-0.88
X-261.043 Y-126.241 Z-0.931
X-261.01 Y-126.291 Z-0.969
X-260.972 Y-126.346 Z-0.992
X-260.933 Y-126.405 Z-1
X-260.755 Y-126.668
G17 G3 X-260.315 Y-126.754 I0.263 J0.177
G2 X-252.986 Y-122.5 I35.517 J-52.744
X-268.309 Y-111.872 I28.188 J56.999
G1 Y-133.128
G2 X-260.315 Y-126.754 I43.511 J-46.37
G3 X-260.229 Y-126.314 I-0.177 J0.263
G1 X-260.406 Y-126.05
X-260.446 Y-125.992 Z-0.992
X-260.483 Y-125.936 Z-0.969
X-260.517 Y-125.886 Z-0.931
X-260.545 Y-125.844 Z-0.88
X-260.566 Y-125.813 Z-0.82
X-260.579 Y-125.794 Z-0.753
X-260.583 Y-125.787 Z-0.683
Z5
X-261.11 Y-126.142
Z1 F333.3
Z-1.683
X-261.106 Y-126.148 Z-1.753 F1000
X-261.093 Y-126.168 Z-1.82
X-261.071 Y-126.199 Z-1.88
X-261.043 Y-126.241 Z-1.931
X-261.01 Y-126.291 Z-1.969
X-260.972 Y-126.346 Z-1.992
X-260.933 Y-126.405 Z-2
X-260.755 Y-126.668
G3 X-260.315 Y-126.754 I0.263 J0.177
G2 X-252.986 Y-122.5 I35.517 J-52.744
X-268.309 Y-111.872 I28.188 J56.999
G1 Y-133.128
G2 X-260.315 Y-126.754 I43.511 J-46.37
G3 X-260.229 Y-126.314 I-0.177 J0.263
G1 X-260.406 Y-126.05
X-260.446 Y-125.992 Z-1.992
X-260.483 Y-125.936 Z-1.969
X-260.517 Y-125.886 Z-1.931
X-260.545 Y-125.844 Z-1.88
X-260.566 Y-125.813 Z-1.82
X-260.579 Y-125.794 Z-1.753
X-260.583 Y-125.787 Z-1.683
Z5
X-261.11 Y-126.142
Z0 F333.3
Z-1.983
X-261.106 Y-126.148 Z-2.053 F1000
X-261.093 Y-126.168 Z-2.12
X-261.071 Y-126.199 Z-2.18
X-261.043 Y-126.241 Z-2.231
X-261.01 Y-126.291 Z-2.269
X-260.972 Y-126.346 Z-2.292
X-260.933 Y-126.405 Z-2.3
X-260.755 Y-126.668
G3 X-260.315 Y-126.754 I0.263 J0.177
G2 X-252.986 Y-122.5 I35.517 J-52.744
X-268.309 Y-111.872 I28.188 J56.999
G1 Y-133.128
G2 X-260.315 Y-126.754 I43.511 J-46.37
G3 X-260.229 Y-126.314 I-0.177 J0.263
G1 X-260.406 Y-126.05
X-260.446 Y-125.992 Z-2.292
X-260.483 Y-125.936 Z-2.269
X-260.517 Y-125.886 Z-2.231
X-260.545 Y-125.844 Z-2.18
X-260.566 Y-125.813 Z-2.12
X-260.579 Y-125.794 Z-2.053
X-260.583 Y-125.787 Z-1.983
Z15
(When using Fusion 360 for Personal Use, the feedrate of)
(rapid moves is reduced to match the feedrate of cutting)
(moves, which can increase machining time. Unrestricted rapid)
(moves are available with a Fusion 360 Subscription.)

(2D-Kontur12)
G0 X-225.117 Y-116.96
G1 Z15 F1000
Z5
Z4 F333.3
Z2.818
G19 G2 Y-117.277 Z2.5 J-0.317 K0 F1000
G1 Y-117.595
G17 G3 X-224.8 Y-117.912 I0.317 J0
S5000
X-224.8 Y-13.088 Z2 I0 J52.412 F333.3
X-224.8 Y-117.912 Z1.5 I0 J-52.412
X-224.8 Y-13.088 Z1 I0 J52.412
X-224.8 Y-117.912 Z0.5 I0 J-52.412
X-224.8 Y-13.088 Z0 I0 J52.412
X-224.8 Y-117.913 Z-0.5 I0 J-52.412
X-224.8 Y-13.087 Z-1 I0 J52.413
S6000
X-224.8 Y-117.913 I0 J-52.413 F1000
X-224.8 Y-13.087 I0 J52.413
S5000
X-224.8 Y-117.913 Z-1.5 I0 J-52.413 F333.3
X-224.8 Y-13.087 Z-2 I0 J52.413
S6000
X-224.8 Y-117.913 I0 J-52.413 F1000
X-224.8 Y-13.087 I0 J52.413
S5000
X-274.647 Y-81.696 Z-2.3 I0 J-52.413 F333.3
S6000
X-174.953 Y-49.304 I49.847 J16.196 F1000
X-274.647 Y-81.696 I-49.847 J-16.196
X-274.247 Y-81.9 I0.302 J0.098
G1 X-273.945 Y-81.802
X-273.878 Y-81.78 Z-2.292
X-273.814 Y-81.76 Z-2.269
X-273.757 Y-81.741 Z-2.231
X-273.709 Y-81.725 Z-2.18
X-273.673 Y-81.714 Z-2.12
X-273.651 Y-81.706 Z-2.053
X-273.643 Y-81.704 Z-1.983
Z5
X-225.117 Y-230.96
Z4 F333.3
Z2.818
G19 G2 Y-231.277 Z2.5 J-0.317 K0 F1000
G1 Y-231.595
G17 G3 X-224.8 Y-231.913 I0.317 J0
S5000
X-224.8 Y-127.087 Z2 I0 J52.413 F333.3
X-224.8 Y-231.913 Z1.5 I0 J-52.413
X-224.8 Y-127.087 Z1 I0 J52.413
X-224.8 Y-231.913 Z0.5 I0 J-52.413
X-224.8 Y-127.087 Z0 I0 J52.413
X-224.8 Y-231.912 Z-0.5 I0 J-52.413
X-224.8 Y-127.088 Z-1 I0 J52.412
S6000
X-224.8 Y-231.912 I0 J-52.412 F1000
X-224.8 Y-127.088 I0 J52.412
S5000
X-224.8 Y-231.912 Z-1.5 I0 J-52.412 F333.3
X-224.8 Y-127.088 Z-2 I0 J52.412
S6000
X-224.8 Y-231.912 I0 J-52.412 F1000
X-224.8 Y-127.088 I0 J52.412
S5000
X-274.647 Y-195.696 Z-2.3 I0 J-52.412 F333.3
S6000
X-174.953 Y-163.304 I49.847 J16.196 F1000
X-274.647 Y-195.696 I-49.847 J-16.196
X-274.247 Y-195.9 I0.302 J0.098
G1 X-273.945 Y-195.802
X-273.878 Y-195.78 Z-2.292
X-273.814 Y-195.76 Z-2.269
X-273.757 Y-195.741 Z-2.231
X-273.709 Y-195.725 Z-2.18
X-273.673 Y-195.714 Z-2.12
X-273.651 Y-195.706 Z-2.053
X-273.643 Y-195.704 Z-1.983
Z5
X-75.518 Y-230.96
Z4 F333.3
Z2.818
G19 G2 Y-231.277 Z2.5 J-0.317 K0 F1000
G1 Y-231.595
G17 G3 X-75.2 Y-231.913 I0.318 J0
S5000
X-75.2 Y-127.087 Z2 I0 J52.413 F333.3
X-75.2 Y-231.913 Z1.5 I0 J-52.413
X-75.2 Y-127.087 Z1 I0 J52.413
X-75.2 Y-231.913 Z0.5 I0 J-52.413
X-75.2 Y-127.087 Z0 I0 J52.413
X-75.2 Y-231.912 Z-0.5 I0 J-52.413
X-75.2 Y-127.088 Z-1 I0 J52.412
S6000
X-75.2 Y-231.912 I0 J-52.412 F1000
X-75.2 Y-127.088 I0 J52.412
S5000
X-75.2 Y-231.912 Z-1.5 I0 J-52.412 F333.3
X-75.2 Y-127.088 Z-2 I0 J52.412
S6000
X-75.2 Y-231.912 I0 J-52.412 F1000
X-75.2 Y-127.088 I0 J52.412
S5000
X-125.047 Y-195.696 Z-2.3 I0 J-52.412 F333.3
S6000
X-25.353 Y-163.304 I49.847 J16.196 F1000
X-125.047 Y-195.696 I-49.847 J-16.196
X-124.647 Y-195.9 I0.302 J0.098
G1 X-124.345 Y-195.802
X-124.278 Y-195.78 Z-2.292
X-124.214 Y-195.76 Z-2.269
X-124.157 Y-195.741 Z-2.231
X-124.109 Y-195.725 Z-2.18
X-124.073 Y-195.714 Z-2.12
X-124.051 Y-195.706 Z-2.053
X-124.043 Y-195.704 Z-1.983
Z5
X-75.518 Y-116.96
Z4 F333.3
Z2.818
G19 G2 Y-117.277 Z2.5 J-0.317 K0 F1000
G1 Y-117.595
G17 G3 X-75.2 Y-117.912 I0.318 J0
S5000
X-75.2 Y-13.088 Z2 I0 J52.412 F333.3
X-75.2 Y-117.912 Z1.5 I0 J-52.412
X-75.2 Y-13.088 Z1 I0 J52.412
X-75.2 Y-117.912 Z0.5 I0 J-52.412
X-75.2 Y-13.088 Z0 I0 J52.412
X-75.2 Y-117.913 Z-0.5 I0 J-52.412
X-75.2 Y-13.087 Z-1 I0 J52.413
S6000
X-75.2 Y-117.913 I0 J-52.413 F1000
X-75.2 Y-13.087 I0 J52.413
S5000
X-75.2 Y-117.913 Z-1.5 I0 J-52.413 F333.3
X-75.2 Y-13.087 Z-2 I0 J52.413
S6000
X-75.2 Y-117.913 I0 J-52.413 F1000
X-75.2 Y-13.087 I0 J52.413
S5000
X-125.047 Y-81.696 Z-2.3 I0 J-52.413 F333.3
S6000
X-25.353 Y-49.304 I49.847 J16.196 F1000
X-125.047 Y-81.696 I-49.847 J-16.196
X-124.647 Y-81.9 I0.302 J0.098
G1 X-124.345 Y-81.802
X-124.278 Y-81.78 Z-2.292
X-124.214 Y-81.76 Z-2.269
X-124.157 Y-81.741 Z-2.231
X-124.109 Y-81.725 Z-2.18
X-124.073 Y-81.714 Z-2.12
X-124.051 Y-81.706 Z-2.053
X-124.043 Y-81.704 Z-1.983
Z15
(When using Fusion 360 for Personal Use, the feedrate of)
(rapid moves is reduced to match the feedrate of cutting)
(moves, which can increase machining time. Unrestricted rapid)
(moves are available with a Fusion 360 Subscription.)

(2D-Kontur13)
G0 X-83.957 Y-243.444
G1 Z15 F1000
Z5
Z2.818 F333.3
X-83.956 Y-243.436 Z2.747 F1000
X-83.952 Y-243.413 Z2.68
X-83.947 Y-243.375 Z2.62
X-83.94 Y-243.326 Z2.569
X-83.931 Y-243.266 Z2.531
X-83.922 Y-243.2 Z2.508
X-83.912 Y-243.13 Z2.5
X-83.867 Y-242.815
G3 X-84.137 Y-242.456 I-0.314 J0.045
S5000
G2 X-100.687 Y-237.756 Z2.482 I8.937 J62.956 F333.3
G1 X-101.851 Y-237.256 Z2.48
X-102.984 Y-236.788 Z2.479
X-104.092 Y-236.351 Z2.478
X-105.176 Y-235.942 Z2.476
X-106.234 Y-235.562 Z2.475
X-107.273 Y-235.208 Z2.474
X-108.288 Y-234.88 Z2.473
X-109.287 Y-234.578 Z2.472
X-110.269 Y-234.299 Z2.471
X-111.237 Y-234.042 Z2.47
X-112.193 Y-233.806 Z2.469
X-113.14 Y-233.59 Z2.468
X-114.08 Y-233.391 Z2.467
X-115.016 Y-233.21 Z2.466
X-115.95 Y-233.044 Z2.465
X-116.885 Y-232.894 Z2.464
X-117.825 Y-232.758 Z2.463
X-118.771 Y-232.633 Z2.462
X-119.725 Y-232.521 Z2.461
X-120.691 Y-232.42 Z2.459
X-121.671 Y-232.33 Z2.458
X-122.668 Y-232.249 Z2.457
X-123.683 Y-232.177 Z2.456
X-124.72 Y-232.115 Z2.455
X-125.781 Y-232.061 Z2.454
X-126.866 Y-232.013 Z2.453
X-127.979 Y-231.975 Z2.452
X-129.12 Y-231.943 Z2.45
X-130.292 Y-231.918 Z2.449
X-131.495 Y-231.901 Z2.448
X-132.731 Y-231.89 Z2.447
X-134.002 Y-231.887 Z2.445
X-165.998 Z2.411
X-167.269 Y-231.89 Z2.41
X-168.505 Y-231.901 Z2.409
X-169.708 Y-231.918 Z2.407
X-170.88 Y-231.943 Z2.406
X-172.021 Y-231.975 Z2.405
X-173.134 Y-232.013 Z2.404
X-174.219 Y-232.061 Z2.402
X-175.28 Y-232.115 Z2.401
X-176.317 Y-232.177 Z2.4
X-177.332 Y-232.249 Z2.399
X-178.329 Y-232.33 Z2.398
X-179.309 Y-232.42 Z2.397
X-180.275 Y-232.521 Z2.396
X-181.229 Y-232.633 Z2.395
X-182.175 Y-232.758 Z2.394
X-183.115 Y-232.894 Z2.393
X-184.05 Y-233.044 Z2.392
X-184.984 Y-233.21 Z2.391
X-185.92 Y-233.391 Z2.39
X-186.86 Y-233.59 Z2.389
X-187.807 Y-233.806 Z2.388
X-188.763 Y-234.042 Z2.387
X-189.731 Y-234.299 Z2.386
X-190.713 Y-234.578 Z2.385
X-191.712 Y-234.88 Z2.384
X-192.727 Y-235.208 Z2.382
X-193.766 Y-235.562 Z2.381
X-194.824 Y-235.942 Z2.38
X-195.908 Y-236.351 Z2.379
X-197.016 Y-236.788 Z2.378
X-198.149 Y-237.256 Z2.376
X-199.313 Y-237.756 Z2.375
G2 X-284.251 Y-156.938 Z2.216 I-25.487 J58.257
G1 X-283.808 Y-155.767 Z2.215
X-283.38 Y-154.617 Z2.213
X-282.965 Y-153.484 Z2.212
X-282.562 Y-152.369 Z2.211
X-282.171 Y-151.271 Z2.21
X-281.793 Y-150.189 Z2.208
X-281.427 Y-149.124 Z2.207
X-281.073 Y-148.07 Z2.206
X-280.731 Y-147.029 Z2.205
X-280.401 Y-146 Z2.204
X-280.082 Y-144.98 Z2.203
X-279.775 Y-143.967 Z2.201
X-279.481 Y-142.961 Z2.2
X-279.198 Y-141.958 Z2.199
X-278.926 Y-140.957 Z2.198
X-278.667 Y-139.957 Z2.197
X-278.421 Y-138.957 Z2.196
X-278.188 Y-137.952 Z2.195
X-277.966 Y-136.943 Z2.194
X-277.759 Y-135.926 Z2.193
X-277.564 Y-134.9 Z2.192
X-277.384 Y-133.864 Z2.19
X-277.219 Y-132.814 Z2.189
X-277.07 Y-131.75 Z2.188
X-276.936 Y-130.668 Z2.187
X-276.818 Y-129.568 Z2.186
X-276.717 Y-128.448 Z2.185
X-276.634 Y-127.307 Z2.183
X-276.569 Y-126.141 Z2.182
X-276.521 Y-124.953 Z2.181
X-276.492 Y-123.74 Z2.18
X-276.484 Y-122.5 Z2.178
X-276.492 Y-121.26 Z2.177
X-276.521 Y-120.047 Z2.176
X-276.569 Y-118.859 Z2.174
X-276.634 Y-117.693 Z2.173
X-276.717 Y-116.552 Z2.172
X-276.818 Y-115.432 Z2.171
X-276.936 Y-114.332 Z2.17
X-277.07 Y-113.25 Z2.168
X-277.219 Y-112.186 Z2.167
X-277.384 Y-111.136 Z2.166
X-277.564 Y-110.1 Z2.165
X-277.759 Y-109.074 Z2.164
X-277.966 Y-108.057 Z2.163
X-278.188 Y-107.048 Z2.162
X-278.421 Y-106.043 Z2.161
X-278.667 Y-105.043 Z2.159
X-278.926 Y-104.043 Z2.158
X-279.198 Y-103.042 Z2.157
X-279.481 Y-102.039 Z2.156
X-279.775 Y-101.033 Z2.155
X-280.082 Y-100.021 Z2.154
X-280.401 Y-99 Z2.153
X-280.731 Y-97.971 Z2.152
X-281.073 Y-96.93 Z2.15
X-281.427 Y-95.877 Z2.149
X-281.793 Y-94.81 Z2.148
X-282.171 Y-93.729 Z2.147
X-282.562 Y-92.631 Z2.146
X-282.965 Y-91.516 Z2.144
X-283.38 Y-90.384 Z2.143
X-283.808 Y-89.233 Z2.142
X-284.251 Y-88.062 Z2.14
G2 X-199.314 Y-7.243 Z1.982 I59.451 J22.562
G1 X-198.149 Y-7.744 Z1.98
X-197.015 Y-8.212 Z1.979
X-195.908 Y-8.649 Z1.978
X-194.824 Y-9.058 Z1.976
X-193.766 Y-9.439 Z1.975
X-192.728 Y-9.792 Z1.974
X-191.712 Y-10.119 Z1.973
X-190.713 Y-10.422 Z1.972
X-189.731 Y-10.701 Z1.971
X-188.763 Y-10.958 Z1.97
X-187.807 Y-11.194 Z1.969
X-186.86 Y-11.411 Z1.968
X-185.92 Y-11.609 Z1.967
X-184.984 Y-11.79 Z1.966
X-184.049 Y-11.956 Z1.965
X-183.114 Y-12.106 Z1.964
X-182.176 Y-12.243 Z1.963
X-181.229 Y-12.367 Z1.962
X-180.275 Y-12.479 Z1.961
X-179.309 Y-12.58 Z1.959
X-178.329 Y-12.67 Z1.958
X-177.332 Y-12.751 Z1.957
X-176.316 Y-12.822 Z1.956
X-175.279 Y-12.885 Z1.955
X-174.219 Y-12.94 Z1.954
X-173.134 Y-12.986 Z1.953
X-172.021 Y-13.025 Z1.952
X-170.881 Y-13.057 Z1.95
X-169.708 Y-13.081 Z1.949
X-168.505 Y-13.099 Z1.948
X-167.269 Y-13.109 Z1.947
X-165.998 Y-13.113 Z1.945
X-134.002 Z1.911
X-132.731 Y-13.109 Z1.91
X-131.495 Y-13.099 Z1.909
X-130.292 Y-13.081 Z1.907
X-129.119 Y-13.057 Z1.906
X-127.979 Y-13.025 Z1.905
X-126.866 Y-12.986 Z1.904
X-125.781 Y-12.94 Z1.902
X-124.721 Y-12.885 Z1.901
X-123.684 Y-12.822 Z1.9
X-122.668 Y-12.751 Z1.899
X-121.671 Y-12.67 Z1.898
X-120.691 Y-12.58 Z1.897
X-119.725 Y-12.479 Z1.896
X-118.771 Y-12.367 Z1.895
X-117.824 Y-12.243 Z1.894
X-116.886 Y-12.106 Z1.893
X-115.951 Y-11.956 Z1.892
X-115.016 Y-11.79 Z1.891
X-114.08 Y-11.609 Z1.89
X-113.14 Y-11.411 Z1.889
X-112.193 Y-11.194 Z1.888
X-111.237 Y-10.958 Z1.887
X-110.269 Y-10.701 Z1.886
X-109.287 Y-10.422 Z1.885
X-108.288 Y-10.119 Z1.884
X-107.272 Y-9.792 Z1.882
X-106.234 Y-9.439 Z1.881
X-105.176 Y-9.058 Z1.88
X-104.092 Y-8.649 Z1.879
X-102.985 Y-8.212 Z1.878
X-101.851 Y-7.744 Z1.876
X-100.686 Y-7.243 Z1.875
G2 X-15.75 Y-88.062 Z1.716 I25.486 J-58.256
G1 X-16.191 Y-89.233 Z1.715
X-16.62 Y-90.384 Z1.713
X-17.035 Y-91.516 Z1.712
X-17.438 Y-92.631 Z1.711
X-17.829 Y-93.729 Z1.71
X-18.207 Y-94.81 Z1.708
X-18.573 Y-95.877 Z1.707
X-18.927 Y-96.93 Z1.706
X-19.269 Y-97.971 Z1.705
X-19.599 Y-99 Z1.704
X-19.918 Y-100.021 Z1.703
X-20.224 Y-101.033 Z1.701
X-20.519 Y-102.04 Z1.7
X-20.802 Y-103.042 Z1.699
X-21.073 Y-104.043 Z1.698
X-21.332 Y-105.043 Z1.697
X-21.579 Y-106.044 Z1.696
X-21.813 Y-107.048 Z1.695
X-22.034 Y-108.057 Z1.694
X-22.242 Y-109.073 Z1.693
X-22.436 Y-110.099 Z1.692
X-22.615 Y-111.136 Z1.69
X-22.78 Y-112.186 Z1.689
X-22.93 Y-113.25 Z1.688
X-23.064 Y-114.332 Z1.687
X-23.182 Y-115.432 Z1.686
X-23.283 Y-116.552 Z1.685
X-23.366 Y-117.694 Z1.683
X-23.432 Y-118.858 Z1.682
X-23.479 Y-120.046 Z1.681
X-23.507 Y-121.261 Z1.68
X-23.517 Y-122.5 Z1.678
X-23.507 Y-123.739 Z1.677
X-23.479 Y-124.954 Z1.676
X-23.432 Y-126.142 Z1.674
X-23.366 Y-127.306 Z1.673
X-23.283 Y-128.448 Z1.672
X-23.182 Y-129.568 Z1.671
X-23.064 Y-130.668 Z1.67
X-22.93 Y-131.75 Z1.668
X-22.78 Y-132.814 Z1.667
X-22.615 Y-133.864 Z1.666
X-22.436 Y-134.901 Z1.665
X-22.242 Y-135.927 Z1.664
X-22.034 Y-136.943 Z1.663
X-21.813 Y-137.952 Z1.662
X-21.579 Y-138.956 Z1.661
X-21.332 Y-139.957 Z1.659
X-21.073 Y-140.957 Z1.658
X-20.802 Y-141.958 Z1.657
X-20.519 Y-142.96 Z1.656
X-20.224 Y-143.967 Z1.655
X-19.918 Y-144.98 Z1.654
X-19.599 Y-146 Z1.653
X-19.269 Y-147.03 Z1.652
X-18.927 Y-148.07 Z1.65
X-18.573 Y-149.123 Z1.649
X-18.207 Y-150.189 Z1.648
X-17.829 Y-151.271 Z1.647
X-17.438 Y-152.369 Z1.646
X-17.035 Y-153.484 Z1.644
X-16.62 Y-154.617 Z1.643
X-16.191 Y-155.767 Z1.642
X-15.75 Y-156.938 Z1.64
G2 X-100.687 Y-237.756 Z1.482 I-59.45 J-22.562
G1 X-101.851 Y-237.256 Z1.48
X-102.984 Y-236.788 Z1.479
X-104.092 Y-236.351 Z1.478
X-105.176 Y-235.942 Z1.476
X-106.234 Y-235.562 Z1.475
X-107.273 Y-235.208 Z1.474
X-108.288 Y-234.88 Z1.473
X-109.287 Y-234.578 Z1.472
X-110.269 Y-234.299 Z1.471
X-111.237 Y-234.042 Z1.47
X-112.193 Y-233.806 Z1.469
X-113.14 Y-233.59 Z1.468
X-114.08 Y-233.391 Z1.467
X-115.016 Y-233.21 Z1.466
X-115.95 Y-233.044 Z1.465
X-116.885 Y-232.894 Z1.464
X-117.825 Y-232.758 Z1.463
X-118.771 Y-232.633 Z1.462
X-119.725 Y-232.521 Z1.461
X-120.691 Y-232.42 Z1.459
X-121.671 Y-232.33 Z1.458
X-122.668 Y-232.249 Z1.457
X-123.683 Y-232.177 Z1.456
X-124.72 Y-232.115 Z1.455
X-125.781 Y-232.061 Z1.454
X-126.866 Y-232.013 Z1.453
X-127.979 Y-231.975 Z1.452
X-129.12 Y-231.943 Z1.45
X-130.292 Y-231.918 Z1.449
X-131.495 Y-231.901 Z1.448
X-132.731 Y-231.89 Z1.447
X-134.002 Y-231.887 Z1.445
X-165.998 Z1.411
X-167.269 Y-231.89 Z1.41
X-168.505 Y-231.901 Z1.409
X-169.708 Y-231.918 Z1.407
X-170.88 Y-231.943 Z1.406
X-172.021 Y-231.975 Z1.405
X-173.134 Y-232.013 Z1.404
X-174.219 Y-232.061 Z1.402
X-175.28 Y-232.115 Z1.401
X-176.317 Y-232.177 Z1.4
X-177.332 Y-232.249 Z1.399
X-178.329 Y-232.33 Z1.398
X-179.309 Y-232.42 Z1.397
X-180.275 Y-232.521 Z1.396
X-181.229 Y-232.633 Z1.395
X-182.175 Y-232.758 Z1.394
X-183.115 Y-232.894 Z1.393
X-184.05 Y-233.044 Z1.392
X-184.984 Y-233.21 Z1.391
X-185.92 Y-233.391 Z1.39
X-186.86 Y-233.59 Z1.389
X-187.807 Y-233.806 Z1.388
X-188.763 Y-234.042 Z1.387
X-189.731 Y-234.299 Z1.386
X-190.713 Y-234.578 Z1.385
X-191.712 Y-234.88 Z1.384
X-192.727 Y-235.208 Z1.382
X-193.766 Y-235.562 Z1.381
X-194.824 Y-235.942 Z1.38
X-195.908 Y-236.351 Z1.379
X-197.016 Y-236.788 Z1.378
X-198.149 Y-237.256 Z1.376
X-199.313 Y-237.756 Z1.375
G2 X-284.251 Y-156.938 Z1.216 I-25.487 J58.257
G1 X-283.808 Y-155.767 Z1.215
X-283.38 Y-154.617 Z1.213
X-282.965 Y-153.484 Z1.212
X-282.562 Y-152.369 Z1.211
X-282.171 Y-151.271 Z1.21
X-281.793 Y-150.189 Z1.208
X-281.427 Y-149.124 Z1.207
X-281.073 Y-148.07 Z1.206
X-280.731 Y-147.029 Z1.205
X-280.401 Y-146 Z1.204
X-280.082 Y-144.98 Z1.203
X-279.775 Y-143.967 Z1.201
X-279.481 Y-142.961 Z1.2
X-279.198 Y-141.958 Z1.199
X-278.926 Y-140.957 Z1.198
X-278.667 Y-139.957 Z1.197
X-278.421 Y-138.957 Z1.196
X-278.188 Y-137.952 Z1.195
X-277.966 Y-136.943 Z1.194
X-277.759 Y-135.926 Z1.193
X-277.564 Y-134.9 Z1.192
X-277.384 Y-133.864 Z1.19
X-277.219 Y-132.814 Z1.189
X-277.07 Y-131.75 Z1.188
X-276.936 Y-130.668 Z1.187
X-276.818 Y-129.568 Z1.186
X-276.717 Y-128.448 Z1.185
X-276.634 Y-127.307 Z1.183
X-276.569 Y-126.141 Z1.182
X-276.521 Y-124.953 Z1.181
X-276.492 Y-123.74 Z1.18
X-276.484 Y-122.5 Z1.178
X-276.492 Y-121.26 Z1.177
X-276.521 Y-120.047 Z1.176
X-276.569 Y-118.859 Z1.174
X-276.634 Y-117.693 Z1.173
X-276.717 Y-116.552 Z1.172
X-276.818 Y-115.432 Z1.171
X-276.936 Y-114.332 Z1.17
X-277.07 Y-113.25 Z1.168
X-277.219 Y-112.186 Z1.167
X-277.384 Y-111.136 Z1.166
X-277.564 Y-110.1 Z1.165
X-277.759 Y-109.074 Z1.164
X-277.966 Y-108.057 Z1.163
X-278.188 Y-107.048 Z1.162
X-278.421 Y-106.043 Z1.161
X-278.667 Y-105.043 Z1.159
X-278.926 Y-104.043 Z1.158
X-279.198 Y-103.042 Z1.157
X-279.481 Y-102.039 Z1.156
X-279.775 Y-101.033 Z1.155
X-280.082 Y-100.021 Z1.154
X-280.401 Y-99 Z1.153
X-280.731 Y-97.971 Z1.152
X-281.073 Y-96.93 Z1.15
X-281.427 Y-95.877 Z1.149
X-281.793 Y-94.81 Z1.148
X-282.171 Y-93.729 Z1.147
X-282.562 Y-92.631 Z1.146
X-282.965 Y-91.516 Z1.144
X-283.38 Y-90.384 Z1.143
X-283.808 Y-89.233 Z1.142
X-284.251 Y-88.062 Z1.14
G2 X-199.314 Y-7.243 Z0.982 I59.451 J22.562
G1 X-198.149 Y-7.744 Z0.98
X-197.015 Y-8.212 Z0.979
X-195.908 Y-8.649 Z0.978
X-194.824 Y-9.058 Z0.976
X-193.766 Y-9.439 Z0.975
X-192.728 Y-9.792 Z0.974
X-191.712 Y-10.119 Z0.973
X-190.713 Y-10.422 Z0.972
X-189.731 Y-10.701 Z0.971
X-188.763 Y-10.958 Z0.97
X-187.807 Y-11.194 Z0.969
X-186.86 Y-11.411 Z0.968
X-185.92 Y-11.609 Z0.967
X-184.984 Y-11.79 Z0.966
X-184.049 Y-11.956 Z0.965
X-183.114 Y-12.106 Z0.964
X-182.176 Y-12.243 Z0.963
X-181.229 Y-12.367 Z0.962
X-180.275 Y-12.479 Z0.961
X-179.309 Y-12.58 Z0.959
X-178.329 Y-12.67 Z0.958
X-177.332 Y-12.751 Z0.957
X-176.316 Y-12.822 Z0.956
X-175.279 Y-12.885 Z0.955
X-174.219 Y-12.94 Z0.954
X-173.134 Y-12.986 Z0.953
X-172.021 Y-13.025 Z0.952
X-170.881 Y-13.057 Z0.95
X-169.708 Y-13.081 Z0.949
X-168.505 Y-13.099 Z0.948
X-167.269 Y-13.109 Z0.947
X-165.998 Y-13.113 Z0.945
X-134.002 Z0.911
X-132.731 Y-13.109 Z0.91
X-131.495 Y-13.099 Z0.909
X-130.292 Y-13.081 Z0.907
X-129.119 Y-13.057 Z0.906
X-127.979 Y-13.025 Z0.905
X-126.866 Y-12.986 Z0.904
X-125.781 Y-12.94 Z0.902
X-124.721 Y-12.885 Z0.901
X-123.684 Y-12.822 Z0.9
X-122.668 Y-12.751 Z0.899
X-121.671 Y-12.67 Z0.898
X-120.691 Y-12.58 Z0.897
X-119.725 Y-12.479 Z0.896
X-118.771 Y-12.367 Z0.895
X-117.824 Y-12.243 Z0.894
X-116.886 Y-12.106 Z0.893
X-115.951 Y-11.956 Z0.892
X-115.016 Y-11.79 Z0.891
X-114.08 Y-11.609 Z0.89
X-113.14 Y-11.411 Z0.889
X-112.193 Y-11.194 Z0.888
X-111.237 Y-10.958 Z0.887
X-110.269 Y-10.701 Z0.886
X-109.287 Y-10.422 Z0.885
X-108.288 Y-10.119 Z0.884
X-107.272 Y-9.792 Z0.882
X-106.234 Y-9.439 Z0.881
X-105.176 Y-9.058 Z0.88
X-104.092 Y-8.649 Z0.879
X-102.985 Y-8.212 Z0.878
X-101.851 Y-7.744 Z0.876
X-100.686 Y-7.243 Z0.875
G2 X-15.75 Y-88.062 Z0.716 I25.486 J-58.256
G1 X-16.191 Y-89.233 Z0.715
X-16.62 Y-90.384 Z0.713
X-17.035 Y-91.516 Z0.712
X-17.438 Y-92.631 Z0.711
X-17.829 Y-93.729 Z0.71
X-18.207 Y-94.81 Z0.708
X-18.573 Y-95.877 Z0.707
X-18.927 Y-96.93 Z0.706
X-19.269 Y-97.971 Z0.705
X-19.599 Y-99 Z0.704
X-19.918 Y-100.021 Z0.703
X-20.224 Y-101.033 Z0.701
X-20.519 Y-102.04 Z0.7
X-20.802 Y-103.042 Z0.699
X-21.073 Y-104.043 Z0.698
X-21.332 Y-105.043 Z0.697
X-21.579 Y-106.044 Z0.696
X-21.813 Y-107.048 Z0.695
X-22.034 Y-108.057 Z0.694
X-22.242 Y-109.073 Z0.693
X-22.436 Y-110.099 Z0.692
X-22.615 Y-111.136 Z0.69
X-22.78 Y-112.186 Z0.689
X-22.93 Y-113.25 Z0.688
X-23.064 Y-114.332 Z0.687
X-23.182 Y-115.432 Z0.686
X-23.283 Y-116.552 Z0.685
X-23.366 Y-117.694 Z0.683
X-23.432 Y-118.858 Z0.682
X-23.479 Y-120.046 Z0.681
X-23.507 Y-121.261 Z0.68
X-23.517 Y-122.5 Z0.678
X-23.507 Y-123.739 Z0.677
X-23.479 Y-124.954 Z0.676
X-23.432 Y-126.142 Z0.674
X-23.366 Y-127.306 Z0.673
X-23.283 Y-128.448 Z0.672
X-23.182 Y-129.568 Z0.671
X-23.064 Y-130.668 Z0.67
X-22.93 Y-131.75 Z0.668
X-22.78 Y-132.814 Z0.667
X-22.615 Y-133.864 Z0.666
X-22.436 Y-134.901 Z0.665
X-22.242 Y-135.927 Z0.664
X-22.034 Y-136.943 Z0.663
X-21.813 Y-137.952 Z0.662
X-21.579 Y-138.956 Z0.661
X-21.332 Y-139.957 Z0.659
X-21.073 Y-140.957 Z0.658
X-20.802 Y-141.958 Z0.657
X-20.519 Y-142.96 Z0.656
X-20.224 Y-143.967 Z0.655
X-19.918 Y-144.98 Z0.654
X-19.599 Y-146 Z0.653
X-19.269 Y-147.03 Z0.652
X-18.927 Y-148.07 Z0.65
X-18.573 Y-149.123 Z0.649
X-18.207 Y-150.189 Z0.648
X-17.829 Y-151.271 Z0.647
X-17.438 Y-152.369 Z0.646
X-17.035 Y-153.484 Z0.644
X-16.62 Y-154.617 Z0.643
X-16.191 Y-155.767 Z0.642
X-15.75 Y-156.938 Z0.64
G2 X-100.687 Y-237.756 Z0.482 I-59.45 J-22.562
G1 X-101.851 Y-237.256 Z0.48
X-102.984 Y-236.788 Z0.479
X-104.092 Y-236.351 Z0.478
X-105.176 Y-235.942 Z0.476
X-106.234 Y-235.562 Z0.475
X-107.273 Y-235.208 Z0.474
X-108.288 Y-234.88 Z0.473
X-109.287 Y-234.578 Z0.472
X-110.269 Y-234.299 Z0.471
X-111.237 Y-234.042 Z0.47
X-112.193 Y-233.806 Z0.469
X-113.14 Y-233.59 Z0.468
X-114.08 Y-233.391 Z0.467
X-115.016 Y-233.21 Z0.466
X-115.95 Y-233.044 Z0.465
X-116.885 Y-232.894 Z0.464
X-117.825 Y-232.758 Z0.463
X-118.771 Y-232.633 Z0.462
X-119.725 Y-232.521 Z0.461
X-120.691 Y-232.42 Z0.459
X-121.671 Y-232.33 Z0.458
X-122.668 Y-232.249 Z0.457
X-123.683 Y-232.177 Z0.456
X-124.72 Y-232.115 Z0.455
X-125.781 Y-232.061 Z0.454
X-126.866 Y-232.013 Z0.453
X-127.979 Y-231.975 Z0.452
X-129.12 Y-231.943 Z0.45
X-130.292 Y-231.918 Z0.449
X-131.495 Y-231.901 Z0.448
X-132.731 Y-231.89 Z0.447
X-134.002 Y-231.887 Z0.445
X-165.998 Z0.411
X-167.269 Y-231.89 Z0.41
X-168.505 Y-231.901 Z0.409
X-169.708 Y-231.918 Z0.407
X-170.88 Y-231.943 Z0.406
X-172.021 Y-231.975 Z0.405
X-173.134 Y-232.013 Z0.404
X-174.219 Y-232.061 Z0.402
X-175.28 Y-232.115 Z0.401
X-176.317 Y-232.177 Z0.4
X-177.332 Y-232.249 Z0.399
X-178.329 Y-232.33 Z0.398
X-179.309 Y-232.42 Z0.397
X-180.275 Y-232.521 Z0.396
X-181.229 Y-232.633 Z0.395
X-182.175 Y-232.758 Z0.394
X-183.115 Y-232.894 Z0.393
X-184.05 Y-233.044 Z0.392
X-184.984 Y-233.21 Z0.391
X-185.92 Y-233.391 Z0.39
X-186.86 Y-233.59 Z0.389
X-187.807 Y-233.806 Z0.388
X-188.763 Y-234.042 Z0.387
X-189.731 Y-234.299 Z0.386
X-190.713 Y-234.578 Z0.385
X-191.712 Y-234.88 Z0.384
X-192.727 Y-235.208 Z0.382
X-193.766 Y-235.562 Z0.381
X-194.824 Y-235.942 Z0.38
X-195.908 Y-236.351 Z0.379
X-197.016 Y-236.788 Z0.378
X-198.149 Y-237.256 Z0.376
X-199.313 Y-237.756 Z0.375
G2 X-284.251 Y-156.938 Z0.216 I-25.487 J58.257
G1 X-283.808 Y-155.767 Z0.215
X-283.38 Y-154.617 Z0.213
X-282.965 Y-153.484 Z0.212
X-282.562 Y-152.369 Z0.211
X-282.171 Y-151.271 Z0.21
X-281.793 Y-150.189 Z0.208
X-281.427 Y-149.124 Z0.207
X-281.073 Y-148.07 Z0.206
X-280.731 Y-147.029 Z0.205
X-280.401 Y-146 Z0.204
X-280.082 Y-144.98 Z0.203
X-279.775 Y-143.967 Z0.201
X-279.481 Y-142.961 Z0.2
X-279.198 Y-141.958 Z0.199
X-278.926 Y-140.957 Z0.198
X-278.667 Y-139.957 Z0.197
X-278.421 Y-138.957 Z0.196
X-278.188 Y-137.952 Z0.195
X-277.966 Y-136.943 Z0.194
X-277.759 Y-135.926 Z0.193
X-277.564 Y-134.9 Z0.192
X-277.384 Y-133.864 Z0.19
X-277.219 Y-132.814 Z0.189
X-277.07 Y-131.75 Z0.188
X-276.936 Y-130.668 Z0.187
X-276.818 Y-129.568 Z0.186
X-276.717 Y-128.448 Z0.185
X-276.634 Y-127.307 Z0.183
X-276.569 Y-126.141 Z0.182
X-276.521 Y-124.953 Z0.181
X-276.492 Y-123.74 Z0.18
X-276.484 Y-122.5 Z0.178
X-276.492 Y-121.26 Z0.177
X-276.521 Y-120.047 Z0.176
X-276.569 Y-118.859 Z0.174
X-276.634 Y-117.693 Z0.173
X-276.717 Y-116.552 Z0.172
X-276.818 Y-115.432 Z0.171
X-276.936 Y-114.332 Z0.17
X-277.07 Y-113.25 Z0.168
X-277.219 Y-112.186 Z0.167
X-277.384 Y-111.136 Z0.166
X-277.564 Y-110.1 Z0.165
X-277.759 Y-109.074 Z0.164
X-277.966 Y-108.057 Z0.163
X-278.188 Y-107.048 Z0.162
X-278.421 Y-106.043 Z0.161
X-278.667 Y-105.043 Z0.159
X-278.926 Y-104.043 Z0.158
X-279.198 Y-103.042 Z0.157
X-279.481 Y-102.039 Z0.156
X-279.775 Y-101.033 Z0.155
X-280.082 Y-100.021 Z0.154
X-280.401 Y-99 Z0.153
X-280.731 Y-97.971 Z0.152
X-281.073 Y-96.93 Z0.15
X-281.427 Y-95.877 Z0.149
X-281.793 Y-94.81 Z0.148
X-282.171 Y-93.729 Z0.147
X-282.562 Y-92.631 Z0.146
X-282.965 Y-91.516 Z0.144
X-283.38 Y-90.384 Z0.143
X-283.808 Y-89.233 Z0.142
X-284.251 Y-88.062 Z0.14
G2 X-199.314 Y-7.243 Z-0.018 I59.451 J22.562
G1 X-198.149 Y-7.744 Z-0.02
X-197.015 Y-8.212 Z-0.021
X-195.908 Y-8.649 Z-0.022
X-194.824 Y-9.058 Z-0.024
X-193.766 Y-9.439 Z-0.025
X-192.728 Y-9.792 Z-0.026
X-191.712 Y-10.119 Z-0.027
X-190.713 Y-10.422 Z-0.028
X-189.731 Y-10.701 Z-0.029
X-188.763 Y-10.958 Z-0.03
X-187.807 Y-11.194 Z-0.031
X-186.86 Y-11.411 Z-0.032
X-185.92 Y-11.609 Z-0.033
X-184.984 Y-11.79 Z-0.034
X-184.049 Y-11.956 Z-0.035
X-183.114 Y-12.106 Z-0.036
X-182.176 Y-12.243 Z-0.037
X-181.229 Y-12.367 Z-0.038
X-180.275 Y-12.479 Z-0.039
X-179.309 Y-12.58 Z-0.041
X-178.329 Y-12.67 Z-0.042
X-177.332 Y-12.751 Z-0.043
X-176.316 Y-12.822 Z-0.044
X-175.279 Y-12.885 Z-0.045
X-174.219 Y-12.94 Z-0.046
X-173.134 Y-12.986 Z-0.047
X-172.021 Y-13.025 Z-0.048
X-170.881 Y-13.057 Z-0.05
X-169.708 Y-13.081 Z-0.051
X-168.505 Y-13.099 Z-0.052
X-167.269 Y-13.109 Z-0.053
X-165.998 Y-13.113 Z-0.055
X-134.002 Z-0.089
X-132.731 Y-13.109 Z-0.09
X-131.495 Y-13.099 Z-0.091
X-130.292 Y-13.081 Z-0.093
X-129.119 Y-13.057 Z-0.094
X-127.979 Y-13.025 Z-0.095
X-126.866 Y-12.986 Z-0.096
X-125.781 Y-12.94 Z-0.098
X-124.721 Y-12.885 Z-0.099
X-123.684 Y-12.822 Z-0.1
X-122.668 Y-12.751 Z-0.101
X-121.671 Y-12.67 Z-0.102
X-120.691 Y-12.58 Z-0.103
X-119.725 Y-12.479 Z-0.104
X-118.771 Y-12.367 Z-0.105
X-117.824 Y-12.243 Z-0.106
X-116.886 Y-12.106 Z-0.107
X-115.951 Y-11.956 Z-0.108
X-115.016 Y-11.79 Z-0.109
X-114.08 Y-11.609 Z-0.11
X-113.14 Y-11.411 Z-0.111
X-112.193 Y-11.194 Z-0.112
X-111.237 Y-10.958 Z-0.113
X-110.269 Y-10.701 Z-0.114
X-109.287 Y-10.422 Z-0.115
X-108.288 Y-10.119 Z-0.116
X-107.272 Y-9.792 Z-0.118
X-106.234 Y-9.439 Z-0.119
X-105.176 Y-9.058 Z-0.12
X-104.092 Y-8.649 Z-0.121
X-102.985 Y-8.212 Z-0.122
X-101.851 Y-7.744 Z-0.124
X-100.686 Y-7.243 Z-0.125
G2 X-15.75 Y-88.062 Z-0.284 I25.486 J-58.256
G1 X-16.191 Y-89.233 Z-0.285
X-16.62 Y-90.384 Z-0.287
X-17.035 Y-91.516 Z-0.288
X-17.438 Y-92.631 Z-0.289
X-17.829 Y-93.729 Z-0.29
X-18.207 Y-94.81 Z-0.292
X-18.573 Y-95.877 Z-0.293
X-18.927 Y-96.93 Z-0.294
X-19.269 Y-97.971 Z-0.295
X-19.599 Y-99 Z-0.296
X-19.918 Y-100.021 Z-0.297
X-20.224 Y-101.033 Z-0.299
X-20.519 Y-102.04 Z-0.3
X-20.802 Y-103.042 Z-0.301
X-21.073 Y-104.043 Z-0.302
X-21.332 Y-105.043 Z-0.303
X-21.579 Y-106.044 Z-0.304
X-21.813 Y-107.048 Z-0.305
X-22.034 Y-108.057 Z-0.306
X-22.242 Y-109.073 Z-0.307
X-22.436 Y-110.099 Z-0.308
X-22.615 Y-111.136 Z-0.31
X-22.78 Y-112.186 Z-0.311
X-22.93 Y-113.25 Z-0.312
X-23.064 Y-114.332 Z-0.313
X-23.182 Y-115.432 Z-0.314
X-23.283 Y-116.552 Z-0.315
X-23.366 Y-117.694 Z-0.317
X-23.432 Y-118.858 Z-0.318
X-23.479 Y-120.046 Z-0.319
X-23.507 Y-121.261 Z-0.32
X-23.517 Y-122.5 Z-0.322
X-23.507 Y-123.739 Z-0.323
X-23.479 Y-124.954 Z-0.324
X-23.432 Y-126.142 Z-0.326
X-23.366 Y-127.306 Z-0.327
X-23.283 Y-128.448 Z-0.328
X-23.182 Y-129.568 Z-0.329
X-23.064 Y-130.668 Z-0.33
X-22.93 Y-131.75 Z-0.332
X-22.78 Y-132.814 Z-0.333
X-22.615 Y-133.864 Z-0.334
X-22.436 Y-134.901 Z-0.335
X-22.242 Y-135.927 Z-0.336
X-22.034 Y-136.943 Z-0.337
X-21.813 Y-137.952 Z-0.338
X-21.579 Y-138.956 Z-0.339
X-21.332 Y-139.957 Z-0.341
X-21.073 Y-140.957 Z-0.342
X-20.802 Y-141.958 Z-0.343
X-20.519 Y-142.96 Z-0.344
X-20.224 Y-143.967 Z-0.345
X-19.918 Y-144.98 Z-0.346
X-19.599 Y-146 Z-0.347
X-19.269 Y-147.03 Z-0.348
X-18.927 Y-148.07 Z-0.35
X-18.573 Y-149.123 Z-0.351
X-18.207 Y-150.189 Z-0.352
X-17.829 Y-151.271 Z-0.353
X-17.438 Y-152.369 Z-0.354
X-17.035 Y-153.484 Z-0.356
X-16.62 Y-154.617 Z-0.357
X-16.191 Y-155.767 Z-0.358
X-15.75 Y-156.938 Z-0.36
G2 X-100.687 Y-237.756 Z-0.518 I-59.45 J-22.562
G1 X-101.851 Y-237.256 Z-0.52
X-102.984 Y-236.788 Z-0.521
X-104.092 Y-236.351 Z-0.522
X-105.176 Y-235.942 Z-0.524
X-106.234 Y-235.562 Z-0.525
X-107.273 Y-235.208 Z-0.526
X-108.288 Y-234.88 Z-0.527
X-109.287 Y-234.578 Z-0.528
X-110.269 Y-234.299 Z-0.529
X-111.237 Y-234.042 Z-0.53
X-112.193 Y-233.806 Z-0.531
X-113.14 Y-233.59 Z-0.532
X-114.08 Y-233.391 Z-0.533
X-115.016 Y-233.21 Z-0.534
X-115.95 Y-233.044 Z-0.535
X-116.885 Y-232.894 Z-0.536
X-117.825 Y-232.758 Z-0.537
X-118.771 Y-232.633 Z-0.538
X-119.725 Y-232.521 Z-0.539
X-120.691 Y-232.42 Z-0.541
X-121.671 Y-232.33 Z-0.542
X-122.668 Y-232.249 Z-0.543
X-123.683 Y-232.177 Z-0.544
X-124.72 Y-232.115 Z-0.545
X-125.781 Y-232.061 Z-0.546
X-126.866 Y-232.013 Z-0.547
X-127.979 Y-231.975 Z-0.548
X-129.12 Y-231.943 Z-0.55
X-130.292 Y-231.918 Z-0.551
X-131.495 Y-231.901 Z-0.552
X-132.731 Y-231.89 Z-0.553
X-134.002 Y-231.887 Z-0.555
X-165.998 Z-0.589
X-167.269 Y-231.89 Z-0.59
X-168.505 Y-231.901 Z-0.591
X-169.708 Y-231.918 Z-0.593
X-170.88 Y-231.943 Z-0.594
X-172.021 Y-231.975 Z-0.595
X-173.134 Y-232.013 Z-0.596
X-174.219 Y-232.061 Z-0.598
X-175.28 Y-232.115 Z-0.599
X-176.317 Y-232.177 Z-0.6
X-177.332 Y-232.249 Z-0.601
X-178.329 Y-232.33 Z-0.602
X-179.309 Y-232.42 Z-0.603
X-180.275 Y-232.521 Z-0.604
X-181.229 Y-232.633 Z-0.605
X-182.175 Y-232.758 Z-0.606
X-183.115 Y-232.894 Z-0.607
X-184.05 Y-233.044 Z-0.608
X-184.984 Y-233.21 Z-0.609
X-185.92 Y-233.391 Z-0.61
X-186.86 Y-233.59 Z-0.611
X-187.807 Y-233.806 Z-0.612
X-188.763 Y-234.042 Z-0.613
X-189.731 Y-234.299 Z-0.614
X-190.713 Y-234.578 Z-0.615
X-191.712 Y-234.88 Z-0.616
X-192.727 Y-235.208 Z-0.618
X-193.766 Y-235.562 Z-0.619
X-194.824 Y-235.942 Z-0.62
X-195.908 Y-236.351 Z-0.621
X-197.016 Y-236.788 Z-0.622
X-198.149 Y-237.256 Z-0.624
X-199.313 Y-237.756 Z-0.625
G2 X-284.251 Y-156.938 Z-0.784 I-25.487 J58.257
G1 X-283.808 Y-155.767 Z-0.785
X-283.38 Y-154.617 Z-0.787
X-282.965 Y-153.484 Z-0.788
X-282.562 Y-152.369 Z-0.789
X-282.171 Y-151.271 Z-0.79
X-281.793 Y-150.189 Z-0.792
X-281.427 Y-149.124 Z-0.793
X-281.073 Y-148.07 Z-0.794
X-280.731 Y-147.029 Z-0.795
X-280.401 Y-146 Z-0.796
X-280.082 Y-144.98 Z-0.797
X-279.775 Y-143.967 Z-0.799
X-279.481 Y-142.961 Z-0.8
X-279.198 Y-141.958 Z-0.801
X-278.926 Y-140.957 Z-0.802
X-278.667 Y-139.957 Z-0.803
X-278.421 Y-138.957 Z-0.804
X-278.188 Y-137.952 Z-0.805
X-277.966 Y-136.943 Z-0.806
X-277.759 Y-135.926 Z-0.807
X-277.564 Y-134.9 Z-0.808
X-277.384 Y-133.864 Z-0.81
X-277.219 Y-132.814 Z-0.811
X-277.07 Y-131.75 Z-0.812
X-276.936 Y-130.668 Z-0.813
X-276.818 Y-129.568 Z-0.814
X-276.717 Y-128.448 Z-0.815
X-276.634 Y-127.307 Z-0.817
X-276.569 Y-126.141 Z-0.818
X-276.521 Y-124.953 Z-0.819
X-276.492 Y-123.74 Z-0.82
X-276.484 Y-122.5 Z-0.822
X-276.492 Y-121.26 Z-0.823
X-276.521 Y-120.047 Z-0.824
X-276.569 Y-118.859 Z-0.826
X-276.634 Y-117.693 Z-0.827
X-276.717 Y-116.552 Z-0.828
X-276.818 Y-115.432 Z-0.829
X-276.936 Y-114.332 Z-0.83
X-277.07 Y-113.25 Z-0.832
X-277.219 Y-112.186 Z-0.833
X-277.384 Y-111.136 Z-0.834
X-277.564 Y-110.1 Z-0.835
X-277.759 Y-109.074 Z-0.836
X-277.966 Y-108.057 Z-0.837
X-278.188 Y-107.048 Z-0.838
X-278.421 Y-106.043 Z-0.839
X-278.667 Y-105.043 Z-0.841
X-278.926 Y-104.043 Z-0.842
X-279.198 Y-103.042 Z-0.843
X-279.481 Y-102.039 Z-0.844
X-279.775 Y-101.033 Z-0.845
X-280.082 Y-100.021 Z-0.846
X-280.401 Y-99 Z-0.847
X-280.731 Y-97.971 Z-0.848
X-281.073 Y-96.93 Z-0.85
X-281.427 Y-95.877 Z-0.851
X-281.793 Y-94.81 Z-0.852
X-282.171 Y-93.729 Z-0.853
X-282.562 Y-92.631 Z-0.854
X-282.965 Y-91.516 Z-0.856
X-283.38 Y-90.384 Z-0.857
X-283.808 Y-89.233 Z-0.858
X-284.251 Y-88.062 Z-0.86
G2 X-215.863 Y-2.543 Z-1 I59.451 J22.562
S6000
X-199.314 Y-7.243 I-8.937 J-62.957 F1000
G1 X-198.149 Y-7.744
X-197.015 Y-8.212
X-195.908 Y-8.649
X-194.824 Y-9.058
X-193.766 Y-9.439
X-192.728 Y-9.792
X-191.712 Y-10.119
X-190.713 Y-10.422
X-189.731 Y-10.701
X-188.763 Y-10.958
X-187.807 Y-11.194
X-186.86 Y-11.411
X-185.92 Y-11.609
X-184.984 Y-11.79
X-184.049 Y-11.956
X-183.114 Y-12.106
X-182.176 Y-12.243
X-181.229 Y-12.367
X-180.275 Y-12.479
X-179.309 Y-12.58
X-178.329 Y-12.67
X-177.332 Y-12.751
X-176.316 Y-12.822
X-175.279 Y-12.885
X-174.219 Y-12.94
X-173.134 Y-12.986
X-172.021 Y-13.025
X-170.881 Y-13.057
X-169.708 Y-13.081
X-168.505 Y-13.099
X-167.269 Y-13.109
X-165.998 Y-13.113
X-134.002
X-132.731 Y-13.109
X-131.495 Y-13.099
X-130.292 Y-13.081
X-129.119 Y-13.057
X-127.979 Y-13.025
X-126.866 Y-12.986
X-125.781 Y-12.94
X-124.721 Y-12.885
X-123.684 Y-12.822
X-122.668 Y-12.751
X-121.671 Y-12.67
X-120.691 Y-12.58
X-119.725 Y-12.479
X-118.771 Y-12.367
X-117.824 Y-12.243
X-116.886 Y-12.106
X-115.951 Y-11.956
X-115.016 Y-11.79
X-114.08 Y-11.609
X-113.14 Y-11.411
X-112.193 Y-11.194
X-111.237 Y-10.958
X-110.269 Y-10.701
X-109.287 Y-10.422
X-108.288 Y-10.119
X-107.272 Y-9.792
X-106.234 Y-9.439
X-105.176 Y-9.058
X-104.092 Y-8.649
X-102.985 Y-8.212
X-101.851 Y-7.744
X-100.686 Y-7.243
G2 X-15.75 Y-88.062 I25.486 J-58.256
G1 X-16.191 Y-89.233
X-16.62 Y-90.384
X-17.035 Y-91.516
X-17.438 Y-92.631
X-17.829 Y-93.729
X-18.207 Y-94.81
X-18.573 Y-95.877
X-18.927 Y-96.93
X-19.269 Y-97.971
X-19.599 Y-99
X-19.918 Y-100.021
X-20.224 Y-101.033
X-20.519 Y-102.04
X-20.802 Y-103.042
X-21.073 Y-104.043
X-21.332 Y-105.043
X-21.579 Y-106.044
X-21.813 Y-107.048
X-22.034 Y-108.057
X-22.242 Y-109.073
X-22.436 Y-110.099
X-22.615 Y-111.136
X-22.78 Y-112.186
X-22.93 Y-113.25
X-23.064 Y-114.332
X-23.182 Y-115.432
X-23.283 Y-116.552
X-23.366 Y-117.694
X-23.432 Y-118.858
X-23.479 Y-120.046
X-23.507 Y-121.261
X-23.517 Y-122.5
X-23.507 Y-123.739
X-23.479 Y-124.954
X-23.432 Y-126.142
X-23.366 Y-127.306
X-23.283 Y-128.448
X-23.182 Y-129.568
X-23.064 Y-130.668
X-22.93 Y-131.75
X-22.78 Y-132.814
X-22.615 Y-133.864
X-22.436 Y-134.901
X-22.242 Y-135.927
X-22.034 Y-136.943
X-21.813 Y-137.952
X-21.579 Y-138.956
X-21.332 Y-139.957
X-21.073 Y-140.957
X-20.802 Y-141.958
X-20.519 Y-142.96
X-20.224 Y-143.967
X-19.918 Y-144.98
X-19.599 Y-146
X-19.269 Y-147.03
X-18.927 Y-148.07
X-18.573 Y-149.123
X-18.207 Y-150.189
X-17.829 Y-151.271
X-17.438 Y-152.369
X-17.035 Y-153.484
X-16.62 Y-154.617
X-16.191 Y-155.767
X-15.75 Y-156.938
G2 X-100.687 Y-237.756 I-59.45 J-22.562
G1 X-101.851 Y-237.256
X-102.984 Y-236.788
X-104.092 Y-236.351
X-105.176 Y-235.942
X-106.234 Y-235.562
X-107.273 Y-235.208
X-108.288 Y-234.88
X-109.287 Y-234.578
X-110.269 Y-234.299
X-111.237 Y-234.042
X-112.193 Y-233.806
X-113.14 Y-233.59
X-114.08 Y-233.391
X-115.016 Y-233.21
X-115.95 Y-233.044
X-116.885 Y-232.894
X-117.825 Y-232.758
X-118.771 Y-232.633
X-119.725 Y-232.521
X-120.691 Y-232.42
X-121.671 Y-232.33
X-122.668 Y-232.249
X-123.683 Y-232.177
X-124.72 Y-232.115
X-125.781 Y-232.061
X-126.866 Y-232.013
X-127.979 Y-231.975
X-129.12 Y-231.943
X-130.292 Y-231.918
X-131.495 Y-231.901
X-132.731 Y-231.89
X-134.002 Y-231.887
X-165.998
X-167.269 Y-231.89
X-168.505 Y-231.901
X-169.708 Y-231.918
X-170.88 Y-231.943
X-172.021 Y-231.975
X-173.134 Y-232.013
X-174.219 Y-232.061
X-175.28 Y-232.115
X-176.317 Y-232.177
X-177.332 Y-232.249
X-178.329 Y-232.33
X-179.309 Y-232.42
X-180.275 Y-232.521
X-181.229 Y-232.633
X-182.175 Y-232.758
X-183.115 Y-232.894
X-184.05 Y-233.044
X-184.984 Y-233.21
X-185.92 Y-233.391
X-186.86 Y-233.59
X-187.807 Y-233.806
X-188.763 Y-234.042
X-189.731 Y-234.299
X-190.713 Y-234.578
X-191.712 Y-234.88
X-192.727 Y-235.208
X-193.766 Y-235.562
X-194.824 Y-235.942
X-195.908 Y-236.351
X-197.016 Y-236.788
X-198.149 Y-237.256
X-199.313 Y-237.756
G2 X-284.251 Y-156.938 I-25.487 J58.257
G1 X-283.808 Y-155.767
X-283.38 Y-154.617
X-282.965 Y-153.484
X-282.562 Y-152.369
X-282.171 Y-151.271
X-281.793 Y-150.189
X-281.427 Y-149.124
X-281.073 Y-148.07
X-280.731 Y-147.029
X-280.401 Y-146
X-280.082 Y-144.98
X-279.775 Y-143.967
X-279.481 Y-142.961
X-279.198 Y-141.958
X-278.926 Y-140.957
X-278.667 Y-139.957
X-278.421 Y-138.957
X-278.188 Y-137.952
X-277.966 Y-136.943
X-277.759 Y-135.926
X-277.564 Y-134.9
X-277.384 Y-133.864
X-277.219 Y-132.814
X-277.07 Y-131.75
X-276.936 Y-130.668
X-276.818 Y-129.568
X-276.717 Y-128.448
X-276.634 Y-127.307
X-276.569 Y-126.141
X-276.521 Y-124.953
X-276.492 Y-123.74
X-276.484 Y-122.5
X-276.492 Y-121.26
X-276.521 Y-120.047
X-276.569 Y-118.859
X-276.634 Y-117.693
X-276.717 Y-116.552
X-276.818 Y-115.432
X-276.936 Y-114.332
X-277.07 Y-113.25
X-277.219 Y-112.186
X-277.384 Y-111.136
X-277.564 Y-110.1
X-277.759 Y-109.074
X-277.966 Y-108.057
X-278.188 Y-107.048
X-278.421 Y-106.043
X-278.667 Y-105.043
X-278.926 Y-104.043
X-279.198 Y-103.042
X-279.481 Y-102.039
X-279.775 Y-101.033
X-280.082 Y-100.021
X-280.401 Y-99
X-280.731 Y-97.971
X-281.073 Y-96.93
X-281.427 Y-95.877
X-281.793 Y-94.81
X-282.171 Y-93.729
X-282.562 Y-92.631
X-282.965 Y-91.516
X-283.38 Y-90.384
X-283.808 Y-89.233
X-284.251 Y-88.062
G2 X-215.863 Y-2.543 I59.451 J22.562
S5000
X-199.314 Y-7.243 Z-1.018 I-8.937 J-62.957 F333.3
G1 X-198.149 Y-7.744 Z-1.02
X-197.015 Y-8.212 Z-1.021
X-195.908 Y-8.649 Z-1.022
X-194.824 Y-9.058 Z-1.024
X-193.766 Y-9.439 Z-1.025
X-192.728 Y-9.792 Z-1.026
X-191.712 Y-10.119 Z-1.027
X-190.713 Y-10.422 Z-1.028
X-189.731 Y-10.701 Z-1.029
X-188.763 Y-10.958 Z-1.03
X-187.807 Y-11.194 Z-1.031
X-186.86 Y-11.411 Z-1.032
X-185.92 Y-11.609 Z-1.033
X-184.984 Y-11.79 Z-1.034
X-184.049 Y-11.956 Z-1.035
X-183.114 Y-12.106 Z-1.036
X-182.176 Y-12.243 Z-1.037
X-181.229 Y-12.367 Z-1.038
X-180.275 Y-12.479 Z-1.039
X-179.309 Y-12.58 Z-1.041
X-178.329 Y-12.67 Z-1.042
X-177.332 Y-12.751 Z-1.043
X-176.316 Y-12.822 Z-1.044
X-175.279 Y-12.885 Z-1.045
X-174.219 Y-12.94 Z-1.046
X-173.134 Y-12.986 Z-1.047
X-172.021 Y-13.025 Z-1.048
X-170.881 Y-13.057 Z-1.05
X-169.708 Y-13.081 Z-1.051
X-168.505 Y-13.099 Z-1.052
X-167.269 Y-13.109 Z-1.053
X-165.998 Y-13.113 Z-1.055
X-134.002 Z-1.089
X-132.731 Y-13.109 Z-1.09
X-131.495 Y-13.099 Z-1.091
X-130.292 Y-13.081 Z-1.093
X-129.119 Y-13.057 Z-1.094
X-127.979 Y-13.025 Z-1.095
X-126.866 Y-12.986 Z-1.096
X-125.781 Y-12.94 Z-1.098
X-124.721 Y-12.885 Z-1.099
X-123.684 Y-12.822 Z-1.1
X-122.668 Y-12.751 Z-1.101
X-121.671 Y-12.67 Z-1.102
X-120.691 Y-12.58 Z-1.103
X-119.725 Y-12.479 Z-1.104
X-118.771 Y-12.367 Z-1.105
X-117.824 Y-12.243 Z-1.106
X-116.886 Y-12.106 Z-1.107
X-115.951 Y-11.956 Z-1.108
X-115.016 Y-11.79 Z-1.109
X-114.08 Y-11.609 Z-1.11
X-113.14 Y-11.411 Z-1.111
X-112.193 Y-11.194 Z-1.112
X-111.237 Y-10.958 Z-1.113
X-110.269 Y-10.701 Z-1.114
X-109.287 Y-10.422 Z-1.115
X-108.288 Y-10.119 Z-1.116
X-107.272 Y-9.792 Z-1.118
X-106.234 Y-9.439 Z-1.119
X-105.176 Y-9.058 Z-1.12
X-104.092 Y-8.649 Z-1.121
X-102.985 Y-8.212 Z-1.122
X-101.851 Y-7.744 Z-1.124
X-100.686 Y-7.243 Z-1.125
G2 X-15.75 Y-88.062 Z-1.284 I25.486 J-58.256
G1 X-16.191 Y-89.233 Z-1.285
X-16.62 Y-90.384 Z-1.287
X-17.035 Y-91.516 Z-1.288
X-17.438 Y-92.631 Z-1.289
X-17.829 Y-93.729 Z-1.29
X-18.207 Y-94.81 Z-1.292
X-18.573 Y-95.877 Z-1.293
X-18.927 Y-96.93 Z-1.294
X-19.269 Y-97.971 Z-1.295
X-19.599 Y-99 Z-1.296
X-19.918 Y-100.021 Z-1.297
X-20.224 Y-101.033 Z-1.299
X-20.519 Y-102.04 Z-1.3
X-20.802 Y-103.042 Z-1.301
X-21.073 Y-104.043 Z-1.302
X-21.332 Y-105.043 Z-1.303
X-21.579 Y-106.044 Z-1.304
X-21.813 Y-107.048 Z-1.305
X-22.034 Y-108.057 Z-1.306
X-22.242 Y-109.073 Z-1.307
X-22.436 Y-110.099 Z-1.308
X-22.615 Y-111.136 Z-1.31
X-22.78 Y-112.186 Z-1.311
X-22.93 Y-113.25 Z-1.312
X-23.064 Y-114.332 Z-1.313
X-23.182 Y-115.432 Z-1.314
X-23.283 Y-116.552 Z-1.315
X-23.309 Y-116.912 Z-1.316
Z-1.3
X-23.366 Y-117.694
X-23.432 Y-118.858
X-23.479 Y-120.046
X-23.507 Y-121.261
X-23.517 Y-122.5
X-23.507 Y-123.739
X-23.479 Y-124.954
X-23.432 Y-126.142
X-23.366 Y-127.306
X-23.309 Y-128.087
S6000
Z-1.328
S5000
X-23.283 Y-128.448
X-23.182 Y-129.568 Z-1.329
X-23.064 Y-130.668 Z-1.33
X-22.93 Y-131.75 Z-1.332
X-22.78 Y-132.814 Z-1.333
X-22.615 Y-133.864 Z-1.334
X-22.436 Y-134.901 Z-1.335
X-22.242 Y-135.927 Z-1.336
X-22.034 Y-136.943 Z-1.337
X-21.813 Y-137.952 Z-1.338
X-21.579 Y-138.956 Z-1.339
X-21.332 Y-139.957 Z-1.341
X-21.073 Y-140.957 Z-1.342
X-20.802 Y-141.958 Z-1.343
X-20.519 Y-142.96 Z-1.344
X-20.224 Y-143.967 Z-1.345
X-19.918 Y-144.98 Z-1.346
X-19.599 Y-146 Z-1.347
X-19.269 Y-147.03 Z-1.348
X-18.927 Y-148.07 Z-1.35
X-18.573 Y-149.123 Z-1.351
X-18.207 Y-150.189 Z-1.352
X-17.829 Y-151.271 Z-1.353
X-17.438 Y-152.369 Z-1.354
X-17.035 Y-153.484 Z-1.356
X-16.62 Y-154.617 Z-1.357
X-16.191 Y-155.767 Z-1.358
X-15.75 Y-156.938 Z-1.36
G2 X-95.474 Y-239.769 Z-1.512 I-59.45 J-22.562
G1 Z-1.3
G2 X-100.687 Y-237.756 I20.274 J60.269
G1 X-101.851 Y-237.256
X-102.984 Y-236.788
X-104.092 Y-236.351
X-105.176 Y-235.942
X-105.886 Y-235.687
S6000
Z-1.524
S5000
X-106.234 Y-235.562 Z-1.525
X-107.273 Y-235.208 Z-1.526
X-108.288 Y-234.88 Z-1.527
X-109.287 Y-234.578 Z-1.528
X-110.269 Y-234.299 Z-1.529
X-111.237 Y-234.042 Z-1.53
X-112.193 Y-233.806 Z-1.531
X-113.14 Y-233.59 Z-1.532
X-114.08 Y-233.391 Z-1.533
X-115.016 Y-233.21 Z-1.534
X-115.95 Y-233.044 Z-1.535
X-116.885 Y-232.894 Z-1.536
X-117.825 Y-232.758 Z-1.537
X-118.771 Y-232.633 Z-1.538
X-119.725 Y-232.521 Z-1.539
X-120.691 Y-232.42 Z-1.541
X-121.671 Y-232.33 Z-1.542
X-122.668 Y-232.249 Z-1.543
X-123.683 Y-232.177 Z-1.544
X-124.72 Y-232.115 Z-1.545
X-125.781 Y-232.061 Z-1.546
X-126.866 Y-232.013 Z-1.547
X-127.979 Y-231.975 Z-1.548
X-129.12 Y-231.943 Z-1.55
X-130.292 Y-231.918 Z-1.551
X-131.495 Y-231.901 Z-1.552
X-132.731 Y-231.89 Z-1.553
X-134.002 Y-231.887 Z-1.555
X-165.998 Z-1.589
X-167.269 Y-231.89 Z-1.59
X-168.505 Y-231.901 Z-1.591
X-169.708 Y-231.918 Z-1.593
X-170.88 Y-231.943 Z-1.594
X-172.021 Y-231.975 Z-1.595
X-173.134 Y-232.013 Z-1.596
X-174.219 Y-232.061 Z-1.598
X-175.28 Y-232.115 Z-1.599
X-176.317 Y-232.177 Z-1.6
X-177.332 Y-232.249 Z-1.601
X-178.329 Y-232.33 Z-1.602
X-179.309 Y-232.42 Z-1.603
X-180.275 Y-232.521 Z-1.604
X-181.229 Y-232.633 Z-1.605
X-182.175 Y-232.758 Z-1.606
X-183.115 Y-232.894 Z-1.607
X-184.05 Y-233.044 Z-1.608
X-184.984 Y-233.21 Z-1.609
X-185.92 Y-233.391 Z-1.61
X-186.86 Y-233.59 Z-1.611
X-187.807 Y-233.806 Z-1.612
X-188.763 Y-234.042 Z-1.613
X-189.731 Y-234.299 Z-1.614
X-190.713 Y-234.578 Z-1.615
X-191.712 Y-234.88 Z-1.616
X-192.727 Y-235.208 Z-1.618
X-193.766 Y-235.562 Z-1.619
X-194.114 Y-235.687
Z-1.3
X-194.824 Y-235.942
X-195.908 Y-236.351
X-197.016 Y-236.788
X-198.149 Y-237.256
X-199.313 Y-237.756
G2 X-204.526 Y-239.769 I-25.487 J58.257
S6000
G1 Z-1.631
S5000
G2 X-284.251 Y-156.938 Z-1.784 I-20.274 J60.269
G1 X-283.808 Y-155.767 Z-1.785
X-283.38 Y-154.617 Z-1.787
X-282.965 Y-153.484 Z-1.788
X-282.562 Y-152.369 Z-1.789
X-282.171 Y-151.271 Z-1.79
X-281.793 Y-150.189 Z-1.792
X-281.427 Y-149.124 Z-1.793
X-281.073 Y-148.07 Z-1.794
X-280.731 Y-147.029 Z-1.795
X-280.401 Y-146 Z-1.796
X-280.082 Y-144.98 Z-1.797
X-279.775 Y-143.967 Z-1.799
X-279.481 Y-142.961 Z-1.8
X-279.198 Y-141.958 Z-1.801
X-278.926 Y-140.957 Z-1.802
X-278.667 Y-139.957 Z-1.803
X-278.421 Y-138.957 Z-1.804
X-278.188 Y-137.952 Z-1.805
X-277.966 Y-136.943 Z-1.806
X-277.759 Y-135.926 Z-1.807
X-277.564 Y-134.9 Z-1.808
X-277.384 Y-133.864 Z-1.81
X-277.219 Y-132.814 Z-1.811
X-277.07 Y-131.75 Z-1.812
X-276.936 Y-130.668 Z-1.813
X-276.818 Y-129.568 Z-1.814
X-276.717 Y-128.448 Z-1.815
X-276.691 Y-128.087 Z-1.816
Z-1.3
X-276.634 Y-127.307
X-276.569 Y-126.141
X-276.521 Y-124.953
X-276.492 Y-123.74
X-276.484 Y-122.5
X-276.492 Y-121.26
X-276.521 Y-120.047
X-276.569 Y-118.859
X-276.634 Y-117.693
X-276.691 Y-116.912
S6000
Z-1.828
S5000
X-276.717 Y-116.552
X-276.818 Y-115.432 Z-1.829
X-276.936 Y-114.332 Z-1.83
X-277.07 Y-113.25 Z-1.832
X-277.219 Y-112.186 Z-1.833
X-277.384 Y-111.136 Z-1.834
X-277.564 Y-110.1 Z-1.835
X-277.759 Y-109.074 Z-1.836
X-277.966 Y-108.057 Z-1.837
X-278.188 Y-107.048 Z-1.838
X-278.421 Y-106.043 Z-1.839
X-278.667 Y-105.043 Z-1.841
X-278.926 Y-104.043 Z-1.842
X-279.198 Y-103.042 Z-1.843
X-279.481 Y-102.039 Z-1.844
X-279.775 Y-101.033 Z-1.845
X-280.082 Y-100.021 Z-1.846
X-280.401 Y-99 Z-1.847
X-280.731 Y-97.971 Z-1.848
X-281.073 Y-96.93 Z-1.85
X-281.427 Y-95.877 Z-1.851
X-281.793 Y-94.81 Z-1.852
X-282.171 Y-93.729 Z-1.853
X-282.562 Y-92.631 Z-1.854
X-282.965 Y-91.516 Z-1.856
X-283.38 Y-90.384 Z-1.857
X-283.808 Y-89.233 Z-1.858
X-284.251 Y-88.062 Z-1.86
G2 X-215.863 Y-2.543 Z-2 I59.451 J22.562
S6000
X-199.314 Y-7.243 I-8.937 J-62.957 F1000
G1 X-198.149 Y-7.744
X-197.015 Y-8.212
X-195.908 Y-8.649
X-194.824 Y-9.058
X-193.766 Y-9.439
X-192.728 Y-9.792
X-191.712 Y-10.119
X-190.713 Y-10.422
X-189.731 Y-10.701
X-188.763 Y-10.958
X-187.807 Y-11.194
X-186.86 Y-11.411
X-185.92 Y-11.609
X-184.984 Y-11.79
X-184.049 Y-11.956
X-183.114 Y-12.106
X-182.176 Y-12.243
X-181.229 Y-12.367
X-180.275 Y-12.479
X-179.309 Y-12.58
X-178.329 Y-12.67
X-177.332 Y-12.751
X-176.316 Y-12.822
X-175.279 Y-12.885
X-174.219 Y-12.94
X-173.134 Y-12.986
X-172.021 Y-13.025
X-170.881 Y-13.057
X-169.708 Y-13.081
X-168.505 Y-13.099
X-167.269 Y-13.109
X-165.998 Y-13.113
X-156.932
Z-1.3
X-145.757
Z-2 F333.3
X-134.002 F1000
X-132.731 Y-13.109
X-131.495 Y-13.099
X-130.292 Y-13.081
X-129.119 Y-13.057
X-127.979 Y-13.025
X-126.866 Y-12.986
X-125.781 Y-12.94
X-124.721 Y-12.885
X-123.684 Y-12.822
X-122.668 Y-12.751
X-121.671 Y-12.67
X-120.691 Y-12.58
X-119.725 Y-12.479
X-118.771 Y-12.367
X-117.824 Y-12.243
X-116.886 Y-12.106
X-115.951 Y-11.956
X-115.016 Y-11.79
X-114.08 Y-11.609
X-113.14 Y-11.411
X-112.193 Y-11.194
X-111.237 Y-10.958
X-110.269 Y-10.701
X-109.287 Y-10.422
X-108.288 Y-10.119
X-107.272 Y-9.792
X-106.234 Y-9.439
X-105.885 Y-9.313
Z-1.3
X-105.176 Y-9.058
X-104.092 Y-8.649
X-102.985 Y-8.212
X-101.851 Y-7.744
X-100.686 Y-7.243
G2 X-95.474 Y-5.231 I25.486 J-58.256
G1 Z-2 F333.3
G2 X-15.75 Y-88.062 I20.274 J-60.269 F1000
G1 X-16.191 Y-89.233
X-16.62 Y-90.384
X-17.035 Y-91.516
X-17.438 Y-92.631
X-17.829 Y-93.729
X-18.207 Y-94.81
X-18.573 Y-95.877
X-18.927 Y-96.93
X-19.269 Y-97.971
X-19.599 Y-99
X-19.918 Y-100.021
X-20.224 Y-101.033
X-20.519 Y-102.04
X-20.802 Y-103.042
X-21.073 Y-104.043
X-21.332 Y-105.043
X-21.579 Y-106.044
X-21.813 Y-107.048
X-22.034 Y-108.057
X-22.242 Y-109.073
X-22.436 Y-110.099
X-22.615 Y-111.136
X-22.78 Y-112.186
X-22.93 Y-113.25
X-23.064 Y-114.332
X-23.182 Y-115.432
X-23.283 Y-116.552
X-23.309 Y-116.912
Z-1.3
X-23.366 Y-117.694
X-23.432 Y-118.858
X-23.479 Y-120.046
X-23.507 Y-121.261
X-23.517 Y-122.5
X-23.507 Y-123.739
X-23.479 Y-124.954
X-23.432 Y-126.142
X-23.366 Y-127.306
X-23.309 Y-128.087
Z-2 F333.3
X-23.283 Y-128.448 F1000
X-23.182 Y-129.568
X-23.064 Y-130.668
X-22.93 Y-131.75
X-22.78 Y-132.814
X-22.615 Y-133.864
X-22.436 Y-134.901
X-22.242 Y-135.927
X-22.034 Y-136.943
X-21.813 Y-137.952
X-21.579 Y-138.956
X-21.332 Y-139.957
X-21.073 Y-140.957
X-20.802 Y-141.958
X-20.519 Y-142.96
X-20.224 Y-143.967
X-19.918 Y-144.98
X-19.599 Y-146
X-19.269 Y-147.03
X-18.927 Y-148.07
X-18.573 Y-149.123
X-18.207 Y-150.189
X-17.829 Y-151.271
X-17.438 Y-152.369
X-17.035 Y-153.484
X-16.62 Y-154.617
X-16.191 Y-155.767
X-15.75 Y-156.938
G2 X-95.474 Y-239.769 I-59.45 J-22.562
G1 Z-1.3
G2 X-100.687 Y-237.756 I20.274 J60.269
G1 X-101.851 Y-237.256
X-102.984 Y-236.788
X-104.092 Y-236.351
X-105.176 Y-235.942
X-105.886 Y-235.687
Z-2 F333.3
X-106.234 Y-235.562 F1000
X-107.273 Y-235.208
X-108.288 Y-234.88
X-109.287 Y-234.578
X-110.269 Y-234.299
X-111.237 Y-234.042
X-112.193 Y-233.806
X-113.14 Y-233.59
X-114.08 Y-233.391
X-115.016 Y-233.21
X-115.95 Y-233.044
X-116.885 Y-232.894
X-117.825 Y-232.758
X-118.771 Y-232.633
X-119.725 Y-232.521
X-120.691 Y-232.42
X-121.671 Y-232.33
X-122.668 Y-232.249
X-123.683 Y-232.177
X-124.72 Y-232.115
X-125.781 Y-232.061
X-126.866 Y-232.013
X-127.979 Y-231.975
X-129.12 Y-231.943
X-130.292 Y-231.918
X-131.495 Y-231.901
X-132.731 Y-231.89
X-134.002 Y-231.887
X-165.998
X-167.269 Y-231.89
X-168.505 Y-231.901
X-169.708 Y-231.918
X-170.88 Y-231.943
X-172.021 Y-231.975
X-173.134 Y-232.013
X-174.219 Y-232.061
X-175.28 Y-232.115
X-176.317 Y-232.177
X-177.332 Y-232.249
X-178.329 Y-232.33
X-179.309 Y-232.42
X-180.275 Y-232.521
X-181.229 Y-232.633
X-182.175 Y-232.758
X-183.115 Y-232.894
X-184.05 Y-233.044
X-184.984 Y-233.21
X-185.92 Y-233.391
X-186.86 Y-233.59
X-187.807 Y-233.806
X-188.763 Y-234.042
X-189.731 Y-234.299
X-190.713 Y-234.578
X-191.712 Y-234.88
X-192.727 Y-235.208
X-193.766 Y-235.562
X-194.114 Y-235.687
Z-1.3
X-194.824 Y-235.942
X-195.908 Y-236.351
X-197.016 Y-236.788
X-198.149 Y-237.256
X-199.313 Y-237.756
G2 X-204.526 Y-239.769 I-25.487 J58.257
G1 Z-2 F333.3
G2 X-284.251 Y-156.938 I-20.274 J60.269 F1000
G1 X-283.808 Y-155.767
X-283.38 Y-154.617
X-282.965 Y-153.484
X-282.562 Y-152.369
X-282.171 Y-151.271
X-281.793 Y-150.189
X-281.427 Y-149.124
X-281.073 Y-148.07
X-280.731 Y-147.029
X-280.401 Y-146
X-280.082 Y-144.98
X-279.775 Y-143.967
X-279.481 Y-142.961
X-279.198 Y-141.958
X-278.926 Y-140.957
X-278.667 Y-139.957
X-278.421 Y-138.957
X-278.188 Y-137.952
X-277.966 Y-136.943
X-277.759 Y-135.926
X-277.564 Y-134.9
X-277.384 Y-133.864
X-277.219 Y-132.814
X-277.07 Y-131.75
X-276.936 Y-130.668
X-276.818 Y-129.568
X-276.717 Y-128.448
X-276.691 Y-128.087
Z-1.3
X-276.634 Y-127.307
X-276.569 Y-126.141
X-276.521 Y-124.953
X-276.492 Y-123.74
X-276.484 Y-122.5
X-276.492 Y-121.26
X-276.521 Y-120.047
X-276.569 Y-118.859
X-276.634 Y-117.693
X-276.691 Y-116.912
Z-2 F333.3
X-276.717 Y-116.552 F1000
X-276.818 Y-115.432
X-276.936 Y-114.332
X-277.07 Y-113.25
X-277.219 Y-112.186
X-277.384 Y-111.136
X-277.564 Y-110.1
X-277.759 Y-109.074
X-277.966 Y-108.057
X-278.188 Y-107.048
X-278.421 Y-106.043
X-278.667 Y-105.043
X-278.926 Y-104.043
X-279.198 Y-103.042
X-279.481 Y-102.039
X-279.775 Y-101.033
X-280.082 Y-100.021
X-280.401 Y-99
X-280.731 Y-97.971
X-281.073 Y-96.93
X-281.427 Y-95.877
X-281.793 Y-94.81
X-282.171 Y-93.729
X-282.562 Y-92.631
X-282.965 Y-91.516
X-283.38 Y-90.384
X-283.808 Y-89.233
X-284.251 Y-88.062
G2 X-215.863 Y-2.543 I59.451 J22.562
S5000
X-199.314 Y-7.243 Z-2.018 I-8.937 J-62.957 F333.3
G1 X-198.149 Y-7.744 Z-2.02
X-197.015 Y-8.212 Z-2.021
X-195.908 Y-8.649 Z-2.022
X-194.824 Y-9.058 Z-2.024
X-193.766 Y-9.439 Z-2.025
X-192.728 Y-9.792 Z-2.026
X-191.712 Y-10.119 Z-2.027
X-190.713 Y-10.422 Z-2.028
X-189.731 Y-10.701 Z-2.029
X-188.763 Y-10.958 Z-2.03
X-187.807 Y-11.194 Z-2.031
X-186.86 Y-11.411 Z-2.032
X-185.92 Y-11.609 Z-2.033
X-184.984 Y-11.79 Z-2.034
X-184.049 Y-11.956 Z-2.035
X-183.114 Y-12.106 Z-2.036
X-182.176 Y-12.243 Z-2.037
X-181.229 Y-12.367 Z-2.038
X-180.275 Y-12.479 Z-2.039
X-179.309 Y-12.58 Z-2.041
X-178.329 Y-12.67 Z-2.042
X-177.332 Y-12.751 Z-2.043
X-176.316 Y-12.822 Z-2.044
X-175.279 Y-12.885 Z-2.045
X-174.219 Y-12.94 Z-2.046
X-173.134 Y-12.986 Z-2.047
X-172.021 Y-13.025 Z-2.048
X-170.881 Y-13.057 Z-2.05
X-169.708 Y-13.081 Z-2.051
X-168.505 Y-13.099 Z-2.052
X-167.269 Y-13.109 Z-2.053
X-165.998 Y-13.113 Z-2.055
X-156.932 Z-2.064
Z-1.3
X-145.757
S6000
Z-2.076
S5000
X-134.002 Z-2.089
X-132.731 Y-13.109 Z-2.09
X-131.495 Y-13.099 Z-2.091
X-130.292 Y-13.081 Z-2.093
X-129.119 Y-13.057 Z-2.094
X-127.979 Y-13.025 Z-2.095
X-126.866 Y-12.986 Z-2.096
X-125.781 Y-12.94 Z-2.098
X-124.721 Y-12.885 Z-2.099
X-123.684 Y-12.822 Z-2.1
X-122.668 Y-12.751 Z-2.101
X-121.671 Y-12.67 Z-2.102
X-120.691 Y-12.58 Z-2.103
X-119.725 Y-12.479 Z-2.104
X-118.771 Y-12.367 Z-2.105
X-117.824 Y-12.243 Z-2.106
X-116.886 Y-12.106 Z-2.107
X-115.951 Y-11.956 Z-2.108
X-115.016 Y-11.79 Z-2.109
X-114.08 Y-11.609 Z-2.11
X-113.14 Y-11.411 Z-2.111
X-112.193 Y-11.194 Z-2.112
X-111.237 Y-10.958 Z-2.113
X-110.269 Y-10.701 Z-2.114
X-109.287 Y-10.422 Z-2.115
X-108.288 Y-10.119 Z-2.116
X-107.272 Y-9.792 Z-2.118
X-106.234 Y-9.439 Z-2.119
X-105.885 Y-9.313
Z-1.3
X-105.176 Y-9.058
X-104.092 Y-8.649
X-102.985 Y-8.212
X-101.851 Y-7.744
X-100.686 Y-7.243
G2 X-95.474 Y-5.231 I25.486 J-58.256
S6000
G1 Z-2.131
S5000
G2 X-15.75 Y-88.062 Z-2.284 I20.274 J-60.269
G1 X-16.191 Y-89.233 Z-2.285
X-16.62 Y-90.384 Z-2.287
X-17.035 Y-91.516 Z-2.288
X-17.438 Y-92.631 Z-2.289
X-17.829 Y-93.729 Z-2.29
X-18.207 Y-94.81 Z-2.292
X-18.573 Y-95.877 Z-2.293
X-18.927 Y-96.93 Z-2.294
X-19.269 Y-97.971 Z-2.295
X-19.599 Y-99 Z-2.296
X-19.918 Y-100.021 Z-2.297
X-20.224 Y-101.033 Z-2.299
X-20.519 Y-102.04 Z-2.3
X-20.61 Y-102.363
S6000
X-20.802 Y-103.042 F1000
X-21.073 Y-104.043
X-21.332 Y-105.043
X-21.579 Y-106.044
X-21.813 Y-107.048
X-22.034 Y-108.057
X-22.242 Y-109.073
X-22.436 Y-110.099
X-22.615 Y-111.136
X-22.78 Y-112.186
X-22.93 Y-113.25
X-23.064 Y-114.332
X-23.182 Y-115.432
X-23.283 Y-116.552
X-23.309 Y-116.912
Z-1.3
X-23.366 Y-117.694
X-23.432 Y-118.858
X-23.479 Y-120.046
X-23.507 Y-121.261
X-23.517 Y-122.5
X-23.507 Y-123.739
X-23.479 Y-124.954
X-23.432 Y-126.142
X-23.366 Y-127.306
X-23.309 Y-128.087
Z-2.3 F333.3
X-23.283 Y-128.448 F1000
X-23.182 Y-129.568
X-23.064 Y-130.668
X-22.93 Y-131.75
X-22.78 Y-132.814
X-22.615 Y-133.864
X-22.436 Y-134.901
X-22.242 Y-135.927
X-22.034 Y-136.943
X-21.813 Y-137.952
X-21.579 Y-138.956
X-21.332 Y-139.957
X-21.073 Y-140.957
X-20.802 Y-141.958
X-20.519 Y-142.96
X-20.224 Y-143.967
X-19.918 Y-144.98
X-19.599 Y-146
X-19.269 Y-147.03
X-18.927 Y-148.07
X-18.573 Y-149.123
X-18.207 Y-150.189
X-17.829 Y-151.271
X-17.438 Y-152.369
