(1001)
(Bearbeiten)
(  Hersteller: ChinaCnc)
(  model: 3040T)
(  description: Generic 3-axis)
(T16  D=6 CR=0 - ZMIN=-30.2 - Schaftfraser)
G90 G94
G17
G21

(2D Adaptive24)
T16
S6000 M3
G54
G0 X20.943 Y-35.412
Z5
Z3
Z2
G1 Z-7 F333.3
X20.944 Y-35.449 F1000
X20.98 Y-35.441
X20.997 Y-35.407
X20.986 Y-35.371
X20.955 Y-35.35
X20.917 Y-35.351
X20.884 Y-35.368
X20.859 Y-35.396
X20.847 Y-35.432
X20.848 Y-35.469
X20.864 Y-35.503
X20.888 Y-35.532
X20.92 Y-35.552
X20.992 Y-35.572
X21.066 Y-35.557
X21.126 Y-35.513
X21.165 Y-35.449
X21.18 Y-35.375
X21.171 Y-35.301
X21.139 Y-35.233
X21.038 Y-35.121
X20.896 Y-35.074
X20.747 Y-35.093
X20.618 Y-35.168
X20.525 Y-35.286
X20.478 Y-35.429
X20.479 Y-35.579
X20.523 Y-35.722
X20.606 Y-35.847
X20.72 Y-35.945
X20.854 Y-36.011
X21.001 Y-36.041
X21.151 Y-36.036
X21.296 Y-35.996
X21.428 Y-35.925
X21.542 Y-35.828
X21.634 Y-35.709
X21.699 Y-35.574
X21.738 Y-35.429
X21.751 Y-35.28
X21.735 Y-35.131
X21.695 Y-34.986
X21.63 Y-34.851
X21.543 Y-34.729
X21.437 Y-34.622
X21.316 Y-34.533
X21.183 Y-34.465
X21.041 Y-34.417
X20.893 Y-34.392
X20.743 Y-34.388
X20.594 Y-34.406
X20.449 Y-34.444
X20.311 Y-34.502
X20.182 Y-34.579
X20.064 Y-34.672
X19.959 Y-34.779
X19.869 Y-34.899
X19.794 Y-35.029
X19.736 Y-35.167
X19.695 Y-35.311
X19.673 Y-35.46
X19.667 Y-35.61
X19.678 Y-35.759
X19.707 Y-35.906
X19.752 Y-36.05
X19.813 Y-36.187
X19.888 Y-36.316
X19.977 Y-36.437
X20.078 Y-36.548
X20.19 Y-36.647
X20.312 Y-36.735
X20.443 Y-36.809
X20.58 Y-36.87
X20.722 Y-36.917
X20.869 Y-36.949
X21.018 Y-36.967
X21.168 Y-36.97
X21.317 Y-36.959
X21.465 Y-36.933
X21.61 Y-36.894
X21.75 Y-36.842
X21.886 Y-36.777
X22.014 Y-36.7
X22.136 Y-36.612
X22.249 Y-36.514
X22.353 Y-36.405
X22.447 Y-36.289
X22.531 Y-36.164
X22.604 Y-36.033
X22.666 Y-35.896
X22.716 Y-35.755
X22.754 Y-35.61
X22.78 Y-35.462
X22.794 Y-35.31
X22.796 Y-35.16
X22.785 Y-35.005
X22.762 Y-34.857
X22.726 Y-34.704
X22.679 Y-34.558
X22.618 Y-34.41
X22.548 Y-34.272
X22.463 Y-34.134
X22.37 Y-34.007
X22.261 Y-33.882
X22.147 Y-33.769
X22.018 Y-33.661
X21.885 Y-33.567
X21.74 Y-33.48
X21.588 Y-33.406
X21.431 Y-33.344
X21.265 Y-33.294
X21.099 Y-33.257
X20.923 Y-33.233
X20.749 Y-33.224
X20.572 Y-33.229
X20.393 Y-33.248
X20.219 Y-33.281
X20.041 Y-33.329
X19.87 Y-33.391
X19.703 Y-33.467
X19.538 Y-33.559
X19.384 Y-33.662
X19.236 Y-33.779
X19.095 Y-33.91
X18.966 Y-34.05
X18.848 Y-34.203
X18.74 Y-34.368
X18.646 Y-34.539
X18.566 Y-34.719
X18.498 Y-34.909
X18.447 Y-35.103
X18.411 Y-35.3
X18.391 Y-35.505
X18.387 Y-35.712
X18.4 Y-35.918
X18.429 Y-36.123
X18.476 Y-36.33
X18.54 Y-36.533
X18.619 Y-36.73
X18.714 Y-36.92
X18.827 Y-37.107
X18.955 Y-37.284
X19.097 Y-37.452
X19.252 Y-37.607
X19.421 Y-37.75
X19.604 Y-37.882
X19.798 Y-38
X20.001 Y-38.101
X20.212 Y-38.187
X20.43 Y-38.255
X20.656 Y-38.306
X20.888 Y-38.34
X21.124 Y-38.355
X21.361 Y-38.35
X21.598 Y-38.327
X21.834 Y-38.284
X22.067 Y-38.223
X22.296 Y-38.142
X22.519 Y-38.043
X22.735 Y-37.924
X22.943 Y-37.788
X23.141 Y-37.635
X23.327 Y-37.465
X23.499 Y-37.279
X23.658 Y-37.079
X23.801 Y-36.865
X23.926 Y-36.64
X24.034 Y-36.403
X24.124 Y-36.157
X24.193 Y-35.903
X24.243 Y-35.643
X24.271 Y-35.377
X24.278 Y-35.109
X24.264 Y-34.839
X24.227 Y-34.57
X24.169 Y-34.303
X24.089 Y-34.04
X23.988 Y-33.783
X23.865 Y-33.532
X23.722 Y-33.292
X23.56 Y-33.062
X23.378 Y-32.844
X23.178 Y-32.641
X22.961 Y-32.453
X22.728 Y-32.283
X22.481 Y-32.13
X22.221 Y-31.997
X21.95 Y-31.885
X21.668 Y-31.794
X21.378 Y-31.726
X21.083 Y-31.681
X20.782 Y-31.659
X20.48 Y-31.662
X20.176 Y-31.69
X19.874 Y-31.742
X19.576 Y-31.818
X19.283 Y-31.919
X18.997 Y-32.043
X18.72 Y-32.191
X18.455 Y-32.362
X18.203 Y-32.554
X17.966 Y-32.767
X17.746 Y-33
X17.544 Y-33.251
X17.362 Y-33.519
X17.201 Y-33.803
X17.062 Y-34.1
X16.948 Y-34.408
X16.857 Y-34.727
X16.793 Y-35.054
X16.754 Y-35.387
X16.742 Y-35.723
X16.758 Y-36.061
X16.801 Y-36.399
X16.871 Y-36.734
X16.968 Y-37.064
X17.092 Y-37.386
X17.242 Y-37.7
X17.418 Y-38.002
X17.619 Y-38.291
X17.844 Y-38.563
X18.09 Y-38.819
X18.358 Y-39.054
X18.646 Y-39.269
X18.951 Y-39.461
X19.273 Y-39.629
X19.608 Y-39.771
X19.956 Y-39.886
X20.314 Y-39.973
X20.679 Y-40.032
X21.049 Y-40.062
X21.423 Y-40.061
X21.797 Y-40.03
X22.17 Y-39.97
X22.538 Y-39.878
X22.9 Y-39.758
X23.253 Y-39.607
X23.594 Y-39.428
X23.921 Y-39.221
X24.232 Y-38.988
X24.524 Y-38.729
X24.797 Y-38.446
X25.047 Y-38.141
X25.272 Y-37.815
X25.472 Y-37.47
X25.644 Y-37.109
X25.787 Y-36.733
X25.9 Y-36.345
X25.983 Y-35.948
X26.033 Y-35.543
X26.05 Y-35.134
X26.035 Y-34.723
X25.986 Y-34.312
X25.905 Y-33.905
X25.79 Y-33.504
X25.643 Y-33.111
X25.464 Y-32.73
X25.254 Y-32.363
X25.014 Y-32.012
X24.745 Y-31.68
X24.45 Y-31.369
X24.129 Y-31.082
X23.784 Y-30.82
X23.417 Y-30.585
X23.032 Y-30.38
X22.629 Y-30.205
X22.212 Y-30.063
X21.782 Y-29.955
X21.344 Y-29.88
X20.898 Y-29.841
X20.45 Y-29.838
X20 Y-29.871
X19.553 Y-29.941
X19.11 Y-30.046
X18.676 Y-30.188
X18.253 Y-30.364
X17.843 Y-30.575
X17.45 Y-30.819
X17.076 Y-31.095
X16.724 Y-31.401
X16.396 Y-31.736
X16.095 Y-32.098
X15.823 Y-32.484
X15.582 Y-32.893
X15.374 Y-33.321
X15.199 Y-33.767
X15.061 Y-34.227
X14.96 Y-34.698
X14.896 Y-35.178
X14.871 Y-35.664
X14.885 Y-36.152
X14.939 Y-36.639
X15.032 Y-37.123
X15.164 Y-37.599
X15.334 Y-38.065
X15.542 Y-38.518
X15.787 Y-38.954
X16.067 Y-39.371
X16.381 Y-39.766
X16.727 Y-40.135
X17.103 Y-40.478
X17.507 Y-40.79
X17.936 Y-41.07
X18.388 Y-41.315
X18.861 Y-41.524
X19.35 Y-41.695
X19.854 Y-41.827
X20.368 Y-41.919
X20.89 Y-41.969
X21.417 Y-41.977
X21.945 Y-41.942
X22.47 Y-41.865
X22.99 Y-41.746
X23.5 Y-41.584
X23.998 Y-41.382
X24.479 Y-41.139
X24.941 Y-40.858
X25.381 Y-40.539
X25.795 Y-40.184
X26.181 Y-39.796
X26.536 Y-39.376
X26.858 Y-38.928
X27.143 Y-38.454
X27.39 Y-37.956
X27.597 Y-37.439
X27.763 Y-36.904
X27.885 Y-36.356
X27.964 Y-35.798
X27.998 Y-35.233
X27.986 Y-34.666
X27.928 Y-34.099
X27.825 Y-33.537
X27.676 Y-32.982
X27.483 Y-32.44
X27.246 Y-31.912
X26.966 Y-31.404
X26.645 Y-30.918
X26.285 Y-30.458
X25.888 Y-30.026
X25.456 Y-29.626
X24.992 Y-29.261
X24.498 Y-28.934
X23.977 Y-28.646
X23.433 Y-28.399
X22.869 Y-28.197
X22.289 Y-28.04
X21.695 Y-27.929
X21.093 Y-27.866
X20.485 Y-27.852
X19.877 Y-27.887
X19.27 Y-27.971
X18.671 Y-28.103
X18.082 Y-28.284
X17.507 Y-28.513
X16.951 Y-28.787
X16.417 Y-29.107
X15.909 Y-29.469
X15.429 Y-29.873
X14.983 Y-30.315
X14.571 Y-30.793
X14.198 Y-31.304
X13.867 Y-31.846
X13.578 Y-32.414
X13.336 Y-33.005
X13.141 Y-33.616
X12.996 Y-34.242
X12.9 Y-34.881
X12.857 Y-35.527
X12.865 Y-36.176
X12.925 Y-36.825
X13.038 Y-37.469
X13.203 Y-38.104
X13.419 Y-38.726
X13.684 Y-39.33
X13.999 Y-39.913
X14.36 Y-40.47
X14.766 Y-40.999
X15.215 Y-41.494
X15.704 Y-41.954
X16.23 Y-42.374
X16.789 Y-42.752
X17.379 Y-43.085
X17.996 Y-43.37
X18.635 Y-43.606
X19.294 Y-43.79
X19.967 Y-43.921
X20.651 Y-43.998
X21.341 Y-44.02
X22.033 Y-43.986
X22.722 Y-43.897
X23.403 Y-43.752
X24.073 Y-43.552
X24.727 Y-43.299
X25.36 Y-42.992
X25.968 Y-42.635
X26.548 Y-42.229
X27.095 Y-41.777
X27.605 Y-41.28
X28.075 Y-40.743
X28.501 Y-40.168
X28.882 Y-39.559
X29.213 Y-38.919
X29.492 Y-38.253
X29.718 Y-37.564
X29.888 Y-36.858
X30.002 Y-36.138
X30.057 Y-35.409
X30.054 Y-34.676
X29.992 Y-33.943
X29.87 Y-33.216
X29.691 Y-32.498
X29.453 Y-31.796
X29.159 Y-31.112
X28.81 Y-30.453
X28.409 Y-29.821
X27.956 Y-29.222
X27.455 Y-28.66
X26.91 Y-28.139
X26.322 Y-27.661
X25.696 Y-27.231
X25.036 Y-26.851
X24.346 Y-26.525
X23.629 Y-26.254
X22.891 Y-26.041
X22.136 Y-25.888
X21.369 Y-25.795
X20.595 Y-25.764
X19.818 Y-25.796
X19.045 Y-25.89
X18.279 Y-26.046
X17.526 Y-26.263
X16.791 Y-26.542
X16.079 Y-26.879
X15.394 Y-27.273
X14.742 Y-27.723
X14.125 Y-28.224
X13.55 Y-28.775
X13.019 Y-29.372
X12.536 Y-30.012
X12.106 Y-30.69
X11.729 Y-31.402
X11.411 Y-32.144
X11.152 Y-32.911
X10.955 Y-33.699
X10.822 Y-34.503
X10.753 Y-35.316
X10.75 Y-36.135
X10.813 Y-36.953
X10.942 Y-37.766
X11.136 Y-38.568
X11.394 Y-39.354
X11.716 Y-40.119
X12.098 Y-40.858
X12.54 Y-41.565
X13.039 Y-42.236
X13.592 Y-42.867
X14.195 Y-43.453
X14.844 Y-43.99
X15.537 Y-44.474
X16.268 Y-44.903
X17.033 Y-45.272
X17.827 Y-45.58
X18.646 Y-45.823
X19.484 Y-46.001
X19.584 Y-46.014
X19.653 Y-46.021
X19.722 Y-46.025
X19.791
X20.732 Y-46.006
X21.337 Y-45.992
X21.941 Y-45.972
X22.824 Y-45.899
X23.541 Y-45.8
X24.284 Y-45.636
X25.04 Y-45.405
X25.795 Y-45.106
X26.539 Y-44.739
X27.263 Y-44.307
X27.959 Y-43.812
X28.619 Y-43.257
X29.238 Y-42.646
X29.809 Y-41.983
X30.328 Y-41.272
X30.791 Y-40.519
X31.192 Y-39.729
X31.529 Y-38.909
X31.8 Y-38.066
X32.003 Y-37.203
X32.137 Y-36.327
X32.201 Y-35.443
X32.196 Y-34.557
X32.121 Y-33.674
X31.978 Y-32.8
X31.766 Y-31.939
X31.488 Y-31.098
X31.145 Y-30.281
X30.739 Y-29.493
X30.274 Y-28.739
X29.752 Y-28.023
X29.175 Y-27.35
X28.549 Y-26.723
X27.877 Y-26.146
X27.163 Y-25.622
X26.41 Y-25.153
X25.892 Y-24.883
X25.677 Y-24.793
X25.451 Y-24.74
X25.218 Y-24.725
X23.954 Y-24.749
X22.948 Y-24.772
X19.927 Y-24.846
X17.108 Y-24.933
X16.619 Y-24.973
X16.161 Y-25.047
X15.661 Y-25.17
X15.104 Y-25.356
X14.551 Y-25.591
X13.95 Y-25.906
X13.322 Y-26.302
X12.696 Y-26.77
X12.096 Y-27.301
X11.508 Y-27.911
X10.948 Y-28.594
X10.443 Y-29.323
X9.996 Y-30.088
X9.608 Y-30.885
X9.281 Y-31.708
X9.015 Y-32.553
X8.811 Y-33.416
X8.67 Y-34.291
X8.594 Y-35.173
X8.583 Y-36.059
X8.636 Y-36.944
X8.753 Y-37.822
X8.931 Y-38.69
X9.17 Y-39.544
X9.469 Y-40.378
X9.825 Y-41.189
X10.238 Y-41.973
X10.707 Y-42.725
X11.228 Y-43.442
X11.799 Y-44.12
X12.415 Y-44.757
X13.074 Y-45.349
X13.688 Y-45.829
X13.957 Y-45.994
X14.256 Y-46.095
X14.569 Y-46.126
X14.893 Y-46.12
X19.791 Y-46.025
G3 X20.043 Y-45.964 I-0.012 J0.6
G1 X20.116 Y-45.934
X20.192 Y-45.914
X20.551 Y-45.843
X20.966 Y-45.762
G2 X21.37 Y-45.825 I0.115 J-0.589
G3 X21.941 Y-45.972 I0.572 J1.04
G1 X26.774 Y-45.811
X27.147 Y-45.78
X27.505 Y-45.721
X27.885 Y-45.627
X28.309 Y-45.484
X28.764 Y-45.289
X29.265 Y-45.025
X29.77 Y-44.705
X30.324 Y-44.287
X30.882 Y-43.791
X31.421 Y-43.229
X31.962 Y-42.566
X32.465 Y-41.837
X32.91 Y-41.071
X33.297 Y-40.274
X33.627 Y-39.451
X33.897 Y-38.607
X34.107 Y-37.747
X34.258 Y-36.873
X34.35 Y-35.992
X34.384 Y-35.107
X34.361 Y-34.221
X34.278 Y-33.338
X34.135 Y-32.464
X33.935 Y-31.601
X33.679 Y-30.752
X33.369 Y-29.922
X33.007 Y-29.114
X32.592 Y-28.331
X32.125 Y-27.577
X31.61 Y-26.856
X31.05 Y-26.17
X30.447 Y-25.521
X29.948 Y-25.047
X29.735 Y-24.881
X29.494 Y-24.759
X29.235 Y-24.685
X28.966 Y-24.663
X27.378 Y-24.684
X25.218 Y-24.725
G3 X24.966 Y-24.786 I0.011 J-0.6
G1 X24.892 Y-24.816
X24.814 Y-24.836
X24.735 Y-24.846
X24.452 Y-24.862
X18.191 Y-25.205
G2 X17.868 Y-25.131 I-0.033 J0.599
G3 X17.108 Y-24.933 I-0.767 J-1.384
G1 X16.302 Y-24.958
X15.9 Y-24.972
X13.483 Y-25.069
X13.161 Y-25.098
X12.854 Y-25.151
X12.518 Y-25.237
X12.132 Y-25.37
X11.741 Y-25.541
X11.287 Y-25.784
X10.836 Y-26.075
X10.342 Y-26.452
X9.821 Y-26.922
X9.319 Y-27.452
X8.806 Y-28.091
X8.308 Y-28.824
X7.87 Y-29.594
X7.489 Y-30.395
X7.164 Y-31.219
X6.896 Y-32.064
X6.687 Y-32.925
X6.533 Y-33.797
X6.436 Y-34.678
X6.393 Y-35.563
X6.405 Y-36.449
X6.47 Y-37.333
X6.59 Y-38.211
X6.765 Y-39.08
X6.992 Y-39.936
X7.269 Y-40.778
X7.597 Y-41.601
X7.973 Y-42.404
X8.397 Y-43.182
X8.868 Y-43.932
X9.384 Y-44.653
X9.943 Y-45.34
X10.264 Y-45.692
X10.483 Y-45.886
X10.737 Y-46.03
X11.015 Y-46.118
X11.306 Y-46.147
X14.49 Y-46.127
X14.569 Y-46.126
G3 X14.822 Y-46.066 I-0.008 J0.6
G1 X14.897 Y-46.036
X14.976 Y-46.016
X15.057 Y-46.007
X15.336 Y-45.995
X25.698 Y-45.541
G2 X26.013 Y-45.615 I0.026 J-0.599
G3 X26.774 Y-45.811 I0.763 J1.386
G1 X27.982 Y-45.771
X28.989 Y-45.726
X29.794 Y-45.689
X30.184 Y-45.652
X30.467 Y-45.601
X30.784 Y-45.518
X31.114 Y-45.402
X31.501 Y-45.231
X31.883 Y-45.024
X32.327 Y-44.733
X32.761 Y-44.398
X33.238 Y-43.964
X33.736 Y-43.432
X34.213 Y-42.83
X34.69 Y-42.12
X35.123 Y-41.347
X35.496 Y-40.544
X35.812 Y-39.716
X36.074 Y-38.869
X36.281 Y-38.008
X36.435 Y-37.135
X36.535 Y-36.255
X36.583 Y-35.37
X36.579 Y-34.484
X36.524 Y-33.599
X36.418 Y-32.72
X36.264 Y-31.847
X36.06 Y-30.985
X35.806 Y-30.136
X35.505 Y-29.302
X35.157 Y-28.487
X34.764 Y-27.693
X34.327 Y-26.922
X33.848 Y-26.176
X33.329 Y-25.458
X33.074 Y-25.146
X32.852 Y-24.928
X32.586 Y-24.764
X32.291 Y-24.664
X31.981 Y-24.631
X31.002 Y-24.637
X30.6 Y-24.641
X28.966 Y-24.663
G3 X28.408 Y-25.135 I0.029 J-0.599
G1 X28.388 Y-25.227 Z-6.993
X28.369 Y-25.316 Z-6.971
X28.351 Y-25.401 Z-6.935
X28.334 Y-25.48 Z-6.885
X28.318 Y-25.55 Z-6.824
X28.305 Y-25.61 Z-6.753
X28.295 Y-25.658 Z-6.672
X28.287 Y-25.693 Z-6.585
X28.283 Y-25.714 Z-6.494
X28.281 Y-25.722 Z-6.4
G0 Z-5.8
X14.773 Y-25.546
G1 Z-6.4 F1000
X14.766 Y-25.542 Z-6.494
X14.747 Y-25.532 Z-6.585
X14.715 Y-25.514 Z-6.672
X14.672 Y-25.491 Z-6.753
X14.618 Y-25.462 Z-6.824
X14.555 Y-25.428 Z-6.885
X14.485 Y-25.39 Z-6.935
X14.408 Y-25.348 Z-6.971
X14.328 Y-25.305 Z-6.993
X14.245 Y-25.26 Z-7
G3 X13.483 Y-25.069 I-0.753 J-1.392
G1 X10.664 Y-25.183
X10.399 Y-25.207
X10.125 Y-25.254
X9.841 Y-25.327
X9.521 Y-25.437
X9.167 Y-25.591
X8.801 Y-25.788
X8.387 Y-26.054
X7.972 Y-26.372
X7.524 Y-26.775
X7.05 Y-27.277
X6.591 Y-27.848
X6.125 Y-28.534
X5.687 Y-29.304
X5.311 Y-30.106
X4.992 Y-30.933
X4.727 Y-31.779
X4.515 Y-32.639
X4.356 Y-33.511
X4.248 Y-34.39
X4.191 Y-35.275
X4.182 Y-36.161
X4.221 Y-37.046
X4.308 Y-37.928
X4.442 Y-38.804
X4.622 Y-39.671
X4.848 Y-40.528
X5.12 Y-41.372
X5.436 Y-42.199
X5.794 Y-43.01
X6.195 Y-43.8
X6.637 Y-44.568
X7.117 Y-45.313
X7.327 Y-45.596
X7.502 Y-45.791
X7.71 Y-45.95
X7.944 Y-46.068
X8.196 Y-46.14
X8.457 Y-46.164
X9.456 Y-46.158
X11.306 Y-46.147
G3 X11.866 Y-45.679 I-0.025 J0.599
G1 X11.887 Y-45.587 Z-6.993
X11.907 Y-45.498 Z-6.971
X11.926 Y-45.413 Z-6.935
X11.944 Y-45.335 Z-6.885
X11.959 Y-45.265 Z-6.824
X11.973 Y-45.205 Z-6.753
X11.984 Y-45.157 Z-6.672
X11.991 Y-45.122 Z-6.585
X11.996 Y-45.101 Z-6.494
X11.998 Y-45.093 Z-6.4
G0 Z-5.8
X28.502 Y-45.22
G1 Z-6.4 F1000
X28.508 Y-45.224 Z-6.494
X28.528 Y-45.234 Z-6.585
X28.56 Y-45.251 Z-6.672
X28.603 Y-45.274 Z-6.753
X28.657 Y-45.303 Z-6.824
X28.72 Y-45.337 Z-6.885
X28.791 Y-45.375 Z-6.935
X28.868 Y-45.416 Z-6.971
X28.948 Y-45.459 Z-6.993
X29.031 Y-45.503 Z-7
G3 X29.794 Y-45.689 I0.745 J1.396
G1 X32.613 Y-45.56
X32.8 Y-45.542
X33.064 Y-45.495
X33.334 Y-45.424
X33.653 Y-45.312
X33.975 Y-45.169
X34.341 Y-44.971
X34.72 Y-44.724
X35.132 Y-44.405
X35.548 Y-44.026
X36.001 Y-43.541
X36.444 Y-42.983
X36.889 Y-42.321
X37.322 Y-41.548
X37.693 Y-40.743
X38.006 Y-39.914
X38.265 Y-39.066
X38.472 Y-38.205
X38.629 Y-37.333
X38.735 Y-36.453
X38.794 Y-35.569
X38.804 Y-34.683
X38.77 Y-33.797
X38.69 Y-32.915
X38.566 Y-32.037
X38.398 Y-31.167
X38.188 Y-30.307
X37.934 Y-29.458
X37.637 Y-28.623
X37.298 Y-27.804
X36.92 Y-27.002
X36.504 Y-26.22
X36.049 Y-25.459
X35.88 Y-25.215
X35.704 Y-25.008
X35.492 Y-24.84
X35.251 Y-24.715
X34.991 Y-24.639
X34.721 Y-24.614
X31.981 Y-24.631
G3 X31.405 Y-25.249 I0.025 J-0.599
G1 X32.007 Y-44.978
G3 X32.613 Y-45.56 I0.6 J0.018
G1 X34.828 Y-45.458
X35.03 Y-45.448
X35.282 Y-45.423
X35.513 Y-45.381
X35.784 Y-45.309
X36.072 Y-45.208
X36.383 Y-45.069
X36.729 Y-44.88
X37.079 Y-44.651
X37.474 Y-44.343
X37.863 Y-43.987
X38.28 Y-43.539
X38.716 Y-42.987
X39.136 Y-42.358
X39.558 Y-41.602
X39.926 Y-40.796
X40.234 Y-39.965
X40.488 Y-39.116
X40.691 Y-38.253
X40.846 Y-37.381
X40.954 Y-36.501
X41.018 Y-35.618
X41.037 Y-34.732
X41.014 Y-33.846
X40.949 Y-32.962
X40.843 Y-32.082
X40.698 Y-31.208
X40.514 Y-30.341
X40.291 Y-29.484
X40.03 Y-28.637
X39.732 Y-27.802
X39.397 Y-26.982
X39.025 Y-26.178
X38.658 Y-25.48
X38.511 Y-25.249
X38.337 Y-25.027
X38.121 Y-24.844
X37.874 Y-24.709
X37.604 Y-24.626
X37.323 Y-24.598
X34.721 Y-24.614
G3 X34.146 Y-25.222 I0.025 J-0.599
G1 X34.422 Y-44.856
G3 X35.03 Y-45.448 I0.6 J0.008
G1 X35.492 Y-45.424
X37.446 Y-45.312
X37.691 Y-45.286
X37.922 Y-45.242
X38.191 Y-45.168
X38.461 Y-45.07
X38.776 Y-44.926
X39.094 Y-44.749
X39.448 Y-44.512
X39.814 Y-44.223
X40.206 Y-43.857
X40.597 Y-43.429
X41.016 Y-42.889
X41.433 Y-42.252
X41.837 Y-41.512
X42.197 Y-40.702
X42.498 Y-39.869
X42.744 Y-39.017
X42.939 Y-38.153
X43.088 Y-37.28
X43.193 Y-36.4
X43.255 Y-35.516
X43.276 Y-34.63
X43.258 Y-33.744
X43.201 Y-32.86
X43.105 Y-31.979
X42.973 Y-31.103
X42.805 Y-30.233
X42.602 Y-29.37
X42.364 Y-28.516
X42.092 Y-27.673
X41.786 Y-26.841
X41.445 Y-26.024
X41.153 Y-25.444
X41.049 Y-25.273
X40.877 Y-25.046
X40.661 Y-24.858
X40.413 Y-24.718
X40.14 Y-24.631
X39.856 Y-24.601
X38.05 Y-24.597
X37.323 Y-24.598
G3 X36.747 Y-25.2 I0.023 J-0.6
G1 X36.833 Y-44.715
G3 X37.446 Y-45.312 I0.6 J0.003
G1 X39.863 Y-45.174
X40.022 Y-45.157
X40.171 Y-45.139
X40.319 Y-45.114
X40.465 Y-45.081
X40.61 Y-45.041
X40.753 Y-44.994
X40.893 Y-44.942
X41.031 Y-44.883
X41.167 Y-44.82
X41.301 Y-44.752
X41.432 Y-44.679
X41.561 Y-44.602
X41.687 Y-44.521
X41.811 Y-44.436
X41.932 Y-44.348
X42.051 Y-44.257
X42.167 Y-44.162
X42.281 Y-44.064
X42.393 Y-43.964
X42.501 Y-43.861
X42.608 Y-43.755
X42.712 Y-43.647
X42.814 Y-43.537
X42.914 Y-43.425
X43.011 Y-43.311
X43.106 Y-43.195
X43.198 Y-43.077
X43.289 Y-42.957
X43.378 Y-42.836
X43.464 Y-42.713
X43.548 Y-42.589
X43.63 Y-42.463
X43.71 Y-42.336
X43.788 Y-42.208
X43.864 Y-42.079
X43.938 Y-41.949
X44.01 Y-41.817
X44.08 Y-41.684
X44.148 Y-41.551
X44.215 Y-41.416
X44.28 Y-41.281
X44.343 Y-41.145
X44.404 Y-41.008
X44.464 Y-40.87
X44.521 Y-40.732
X44.577 Y-40.593
X44.632 Y-40.453
X44.685 Y-40.313
X44.736 Y-40.172
X44.786 Y-40.03
X44.834 Y-39.888
X44.88 Y-39.746
X44.925 Y-39.603
X44.969 Y-39.459
X45.011 Y-39.315
X45.052 Y-39.171
X45.091 Y-39.026
X45.129 Y-38.881
X45.165 Y-38.735
X45.2 Y-38.589
X45.234 Y-38.443
X45.266 Y-38.297
X45.297 Y-38.15
X45.327 Y-38.003
X45.355 Y-37.856
X45.382 Y-37.708
X45.408 Y-37.56
X45.433 Y-37.412
X45.456 Y-37.264
X45.478 Y-37.116
X45.499 Y-36.967
X45.518 Y-36.818
X45.536 Y-36.67
X45.554 Y-36.521
X45.57 Y-36.371
X45.584 Y-36.222
X45.598 Y-36.073
X45.61 Y-35.923
X45.622 Y-35.771
X45.633 Y-35.609
X45.642 Y-35.46
X45.649 Y-35.31
X45.656 Y-35.16
X45.661 Y-35.01
X45.666 Y-34.854
X45.669 Y-34.688
X45.672 Y-34.527
X45.673 Y-34.377
X45.672 Y-34.227
X45.67 Y-33.995
X45.664 Y-33.743
X45.659 Y-33.57
X45.653 Y-33.42
X45.646 Y-33.27
X45.637 Y-33.115
X45.627 Y-32.951
X45.615 Y-32.777
X45.602 Y-32.597
X45.589 Y-32.448
X45.576 Y-32.297
X45.56 Y-32.138
X45.542 Y-31.97
X45.522 Y-31.791
X45.5 Y-31.608
X45.481 Y-31.46
X45.46 Y-31.306
X45.437 Y-31.143
X45.411 Y-30.97
X45.382 Y-30.786
X45.352 Y-30.607
X45.326 Y-30.457
X45.298 Y-30.3
X45.267 Y-30.133
X45.232 Y-29.956
X45.193 Y-29.767
X45.158 Y-29.599
X45.125 Y-29.447
X45.088 Y-29.286
X45.048 Y-29.115
X45.004 Y-28.933
X44.957 Y-28.742
X44.918 Y-28.591
X44.878 Y-28.439
X44.834 Y-28.28
X44.786 Y-28.11
X44.734 Y-27.93
X44.68 Y-27.749
X44.637 Y-27.605
X44.592 Y-27.462
X44.546 Y-27.319
X44.498 Y-27.177
X44.449 Y-27.031
X44.399 Y-26.889
X44.349 Y-26.748
X44.297 Y-26.607
X44.244 Y-26.467
X44.189 Y-26.328
X44.132 Y-26.189
X44.073 Y-26.051
X44.012 Y-25.914
X43.95 Y-25.777
X43.884 Y-25.642
X43.817 Y-25.508
X43.746 Y-25.376
X43.716 Y-25.323
X43.545 Y-25.081
X43.328 Y-24.881
X43.073 Y-24.731
X42.792 Y-24.639
X42.498 Y-24.607
X39.856 Y-24.601
G3 X39.276 Y-25.2 I0.02 J-0.6
G1 X39.249 Y-44.574
G3 X39.863 Y-45.174 I0.6 J0
G1 X42.078 Y-45.047
X42.279 Y-45.034
X42.474 Y-45.012
X42.701 Y-44.968
X42.95 Y-44.898
X43.221 Y-44.798
X43.514 Y-44.662
X43.829 Y-44.484
X44.164 Y-44.257
X44.519 Y-43.973
X44.891 Y-43.622
X45.279 Y-43.194
X45.677 Y-42.675
X46.082 Y-42.049
X46.485 Y-41.301
X46.841 Y-40.489
X47.137 Y-39.654
X47.38 Y-38.802
X47.574 Y-37.937
X47.722 Y-37.064
X47.829 Y-36.184
X47.896 Y-35.3
X47.904 Y-35.079
X47.946 Y-34.861
X48.022 Y-34.653
X48.238 Y-34.266
X48.879 Y-33.655
X49.621 Y-33.171
X50.397 Y-32.743
X51.179 Y-32.326
X51.559 Y-32.098
X52.109 Y-31.73
X52.509 Y-31.414
X52.862 Y-31.086
X53.176 Y-30.743
X53.401 Y-30.452
X53.65 Y-30.072
X53.806 Y-29.787
X53.948 Y-29.468
X54.088 Y-29.073
X54.158 Y-28.808
X54.217 Y-28.482
X54.255 Y-28.096
X54.259 Y-27.836
X54.239 Y-27.522
X54.186 Y-27.149
X54.131 Y-26.907
X54.041 Y-26.621
X53.905 Y-26.283
X53.793 Y-26.059
X53.645 Y-25.815
X53.442 Y-25.534
X53.269 Y-25.331
X53.077 Y-25.139
X52.923 Y-25.008
X52.726 Y-24.868
X52.507 Y-24.763
X52.273 Y-24.698
X52.031 Y-24.675
X50.535 Y-24.66
X50.132 Y-24.657
X49.842 Y-24.669
X48.963 Y-24.777
X48.393 Y-24.667
X48.308 Y-24.653
X48.223 Y-24.644
X48.137 Y-24.641
G3 X47.554 Y-25.257 I0.016 J-0.6
X48.17 Y-25.84 I0.6 J0.016
X50.242 Y-24.931 I-0.081 J2.999
X50.132 Y-24.657 I-0.116 J0.113
G1 X44.494 Y-24.613
X43.89 Y-24.61
X42.498 Y-24.607
G3 X41.917 Y-25.198 I0.02 J-0.6
G1 X41.663 Y-44.426
G3 X42.279 Y-45.034 I0.6 J-0.008
G1 X42.883 Y-44.996
X44.494 Y-44.886
X44.78 Y-44.853
X45.009 Y-44.807
X45.258 Y-44.735
X45.523 Y-44.636
X45.827 Y-44.493
X46.127 Y-44.322
X46.475 Y-44.084
X46.816 Y-43.808
X47.199 Y-43.444
X47.568 Y-43.031
X47.968 Y-42.505
X48.372 Y-41.873
X48.763 Y-41.138
X49.115 Y-40.325
X49.407 Y-39.488
X49.645 Y-38.635
X49.85 Y-37.773
X50.256 Y-36.985
X50.793 Y-36.281
X51.406 Y-35.64
X52.056 Y-35.038
X52.716 Y-34.447
X53.366 Y-33.844
X53.988 Y-33.214
X54.528 Y-32.585
X54.952 Y-32.001
X55.293 Y-31.443
X55.572 Y-30.891
X55.796 Y-30.345
X55.962 Y-29.821
X56.085 Y-29.29
X56.161 Y-28.777
X56.194 Y-28.272
X56.187 Y-27.764
X56.141 Y-27.277
X56.058 Y-26.805
X55.936 Y-26.339
X55.782 Y-25.896
X55.6 Y-25.483
X55.573 Y-25.433
X55.404 Y-25.188
X55.188 Y-24.984
X54.933 Y-24.831
X54.652 Y-24.734
X54.356 Y-24.7
X52.031 Y-24.675
G3 X51.488 Y-25.052 I0.015 J-0.6
G1 X51.457 Y-25.131
X43.917 Y-44.065
G3 X44.494 Y-44.886 I0.557 J-0.222
G1 X46.91 Y-44.723
X47.059 Y-44.705
X47.286 Y-44.659
X47.538 Y-44.587
X47.8 Y-44.488
X48.105 Y-44.345
X48.404 Y-44.173
X48.749 Y-43.937
X49.09 Y-43.66
X49.468 Y-43.299
X49.837 Y-42.887
X50.234 Y-42.362
X50.632 Y-41.738
X51.048 Y-40.955
X51.423 Y-40.152
X51.862 Y-39.383
X52.365 Y-38.653
X52.917 Y-37.96
X53.5 Y-37.292
X54.694 Y-35.983
X55.279 Y-35.317
X55.839 Y-34.63
X56.363 Y-33.916
X56.842 Y-33.17
X57.266 Y-32.392
X57.603 Y-31.635
X57.861 Y-30.903
X58.053 Y-30.179
X58.182 Y-29.463
X58.252 Y-28.758
X58.264 Y-28.064
X58.222 Y-27.385
X58.132 Y-26.765
X58.016 Y-26.253
X57.888 Y-25.843
X57.789 Y-25.598
X57.662 Y-25.355
X57.49 Y-25.142
X57.28 Y-24.966
X57.039 Y-24.834
X56.778 Y-24.752
X56.506 Y-24.723
X54.356 Y-24.7
G3 X53.813 Y-25.078 I0.015 J-0.6
G1 X53.782 Y-25.156
X46.333 Y-43.901
G3 X46.91 Y-44.723 I0.558 J-0.222
G1 X49.126 Y-44.572
X49.336 Y-44.547
X49.562 Y-44.502
X49.812 Y-44.43
X50.072 Y-44.332
X50.374 Y-44.19
X50.672 Y-44.02
X51.014 Y-43.785
X51.375 Y-43.493
X51.839 Y-43.051
X52.43 Y-42.39
X52.988 Y-41.702
X53.544 Y-41.012
X54.11 Y-40.33
X54.685 Y-39.656
X55.847 Y-38.318
X56.421 Y-37.643
X56.981 Y-36.956
X57.519 Y-36.252
X58.029 Y-35.527
X58.505 Y-34.78
X58.941 Y-34.009
X59.33 Y-33.213
X59.667 Y-32.393
X59.947 Y-31.552
X60.165 Y-30.693
X60.316 Y-29.82
X60.399 Y-28.948
X60.41 Y-28.119
X60.359 Y-27.358
X60.268 Y-26.739
X60.156 Y-26.258
X60.021 Y-25.831
X59.933 Y-25.616
X59.775 Y-25.33
X59.554 Y-25.088
X59.283 Y-24.904
X58.977 Y-24.788
X58.653 Y-24.746
X56.506 Y-24.723
G3 X55.963 Y-25.101 I0.015 J-0.6
G1 X55.931 Y-25.179
X48.548 Y-43.751
G3 X49.126 Y-44.572 I0.558 J-0.222
G1 X49.528 Y-44.544
X51.542 Y-44.387
X51.705 Y-44.366
X51.956 Y-44.313
X52.252 Y-44.225
X52.601 Y-44.09
X53.018 Y-43.889
X53.549 Y-43.579
X54.259 Y-43.082
X54.942 Y-42.518
X55.595 Y-41.919
X56.226 Y-41.298
X56.841 Y-40.66
X57.44 Y-40.006
X58.021 Y-39.337
X58.583 Y-38.652
X59.122 Y-37.949
X59.636 Y-37.227
X60.122 Y-36.486
X60.575 Y-35.724
X60.992 Y-34.943
X61.368 Y-34.14
X61.698 Y-33.318
X61.981 Y-32.478
X62.214 Y-31.623
X62.394 Y-30.756
X62.52 Y-29.878
X62.586 Y-28.995
X62.587 Y-28.127
X62.524 Y-27.34
X62.425 Y-26.722
X62.308 Y-26.244
X62.162 Y-25.806
X62.085 Y-25.624
X61.926 Y-25.343
X61.705 Y-25.105
X61.436 Y-24.925
X61.133 Y-24.811
X60.812 Y-24.77
X58.653 Y-24.746
G3 X58.108 Y-25.129 I0.014 J-0.6
G1 X58.079 Y-25.203
X50.957 Y-43.571
G3 X51.542 Y-44.387 I0.559 J-0.217
G1 X54.361 Y-44.167
X54.645 Y-44.131
X54.793 Y-44.11
X54.941 Y-44.084
X55.087 Y-44.052
X55.233 Y-44.016
X55.377 Y-43.974
X55.52 Y-43.929
X55.662 Y-43.879
X55.802 Y-43.826
X55.941 Y-43.769
X56.078 Y-43.709
X56.214 Y-43.646
X56.349 Y-43.58
X56.482 Y-43.511
X56.614 Y-43.44
X56.745 Y-43.366
X56.874 Y-43.291
X57.002 Y-43.213
X57.129 Y-43.133
X57.255 Y-43.051
X57.379 Y-42.967
X57.503 Y-42.881
X57.625 Y-42.794
X57.746 Y-42.705
X57.865 Y-42.615
X57.984 Y-42.523
X58.102 Y-42.43
X58.218 Y-42.336
X58.334 Y-42.24
X58.448 Y-42.143
X58.562 Y-42.046
X58.675 Y-41.946
X58.786 Y-41.846
X58.897 Y-41.745
X59.006 Y-41.642
X59.115 Y-41.539
X59.223 Y-41.435
X59.33 Y-41.33
X59.436 Y-41.224
X59.541 Y-41.116
X59.645 Y-41.009
X59.749 Y-40.899
X59.852 Y-40.79
X59.953 Y-40.679
X60.054 Y-40.568
X60.154 Y-40.456
X60.254 Y-40.343
X60.358 Y-40.222
X60.464 Y-40.098
X60.56 Y-39.984
X60.656 Y-39.868
X60.75 Y-39.751
X60.847 Y-39.631
X60.948 Y-39.502
X61.054 Y-39.366
X61.145 Y-39.247
X61.235 Y-39.127
X61.324 Y-39.007
X61.414 Y-38.883
X61.509 Y-38.751
X61.608 Y-38.611
X61.699 Y-38.48
X61.784 Y-38.356
X61.867 Y-38.232
X61.95 Y-38.107
X62.034 Y-37.978
X62.122 Y-37.84
X62.212 Y-37.697
X62.291 Y-37.569
X62.369 Y-37.441
X62.446 Y-37.312
X62.521 Y-37.183
X62.597 Y-37.051
X62.677 Y-36.911
X62.753 Y-36.772
X62.825 Y-36.641
X62.896 Y-36.509
X62.966 Y-36.376
X63.034 Y-36.242
X63.102 Y-36.108
X63.172 Y-35.966
X63.237 Y-35.831
X63.302 Y-35.696
X63.365 Y-35.56
X63.427 Y-35.423
X63.488 Y-35.286
X63.548 Y-35.148
X63.609 Y-35.005
X63.667 Y-34.867
X63.723 Y-34.728
X63.779 Y-34.588
X63.833 Y-34.449
X63.886 Y-34.308
X63.937 Y-34.167
X63.989 Y-34.024
X64.039 Y-33.883
X64.087 Y-33.741
X64.134 Y-33.598
X64.18 Y-33.455
X64.224 Y-33.312
X64.267 Y-33.168
X64.31 Y-33.024
X64.351 Y-32.88
X64.391 Y-32.736
X64.429 Y-32.591
X64.466 Y-32.445
X64.501 Y-32.299
X64.536 Y-32.153
X64.569 Y-32.007
X64.601 Y-31.861
X64.632 Y-31.714
X64.661 Y-31.567
X64.688 Y-31.419
X64.715 Y-31.272
X64.739 Y-31.124
X64.763 Y-30.975
X64.785 Y-30.827
X64.806 Y-30.679
X64.826 Y-30.53
X64.843 Y-30.381
X64.859 Y-30.232
X64.874 Y-30.082
X64.887 Y-29.933
X64.899 Y-29.784
X64.909 Y-29.634
X64.917 Y-29.484
X64.924 Y-29.334
X64.929 Y-29.184
X64.932 Y-29.034
X64.934 Y-28.884
Y-28.734
X64.932 Y-28.584
X64.928 Y-28.434
X64.922 Y-28.285
X64.915 Y-28.135
X64.905 Y-27.985
X64.893 Y-27.836
X64.879 Y-27.686
X64.863 Y-27.537
X64.845 Y-27.388
X64.824 Y-27.24
X64.801 Y-27.091
X64.776 Y-26.944
X64.747 Y-26.796
X64.716 Y-26.65
X64.682 Y-26.504
X64.644 Y-26.358
X64.603 Y-26.214
X64.559 Y-26.071
X64.51 Y-25.929
X64.459 Y-25.788
X64.401 Y-25.643
X64.24 Y-25.363
X64.02 Y-25.128
X63.752 Y-24.949
X63.45 Y-24.837
X63.13 Y-24.796
X60.812 Y-24.77
G3 X60.261 Y-25.169 I0.014 J-0.6
G1 X60.24 Y-25.228
X53.77 Y-43.366
G3 X54.361 Y-44.167 I0.565 J-0.202
G1 X56.173 Y-44.025
X57.784 Y-43.882
X58.11 Y-43.836
X58.451 Y-43.76
X58.836 Y-43.641
X59.273 Y-43.467
X59.764 Y-43.223
X60.32 Y-42.889
X60.945 Y-42.442
X61.622 Y-41.87
X62.252 Y-41.247
X62.841 Y-40.585
X63.391 Y-39.89
X63.905 Y-39.168
X64.383 Y-38.422
X64.604 Y-38.038
X64.71 Y-37.844
X65.129 Y-37.063
X65.225 Y-36.863
X65.351 Y-36.681
X65.504 Y-36.521
X65.68 Y-36.387
X66.462 Y-35.969
X67.332 Y-35.801
X68.21 Y-35.682
X69.092 Y-35.598
X69.976 Y-35.538
X70.861 Y-35.497
X71.747 Y-35.468
X72.633 Y-35.447
X73.519 Y-35.433
X74.405 Y-35.423
X75.291 Y-35.416
X76.177 Y-35.411
X77.063 Y-35.408
X78.835 Y-35.404
X81.494 Y-35.401
X84.094 Y-35.4
X84.229 Y-35.335
X84.353 Y-35.251
X84.475 Y-35.15
X84.613 Y-35.016
X84.766 Y-34.84
X84.934 Y-34.614
X85.116 Y-34.324
X85.309 Y-33.95
X85.513 Y-33.463
X85.727 Y-32.812
X85.935 Y-31.95
X86.078 Y-31.076
X86.09 Y-30.965
X86.038 Y-30.825
X85.96 Y-30.696
X85.869 Y-30.577
X85.749 Y-30.446
X85.592 Y-30.299
X85.388 Y-30.137
X85.126 Y-29.961
X84.789 Y-29.772
X84.354 Y-29.572
X83.778 Y-29.362
X82.987 Y-29.143
X82.117 Y-28.976
X81.238 Y-28.861
X80.356 Y-28.782
X79.471 Y-28.727
X78.586 Y-28.688
X77.7 Y-28.662
X76.814 Y-28.643
X75.928 Y-28.63
X75.042 Y-28.621
X74.156 Y-28.615
X73.27 Y-28.61
X71.498 Y-28.605
X70.612 Y-28.603
X70.178 Y-28.51
X69.377 Y-28.131
X68.715 Y-27.542
X68.155 Y-26.855
X67.65 Y-26.127
X67.148 Y-25.397
X67.121 Y-25.362
X66.901 Y-25.14
X66.638 Y-24.971
X66.344 Y-24.865
X66.034 Y-24.827
X63.13 Y-24.796
G3 X62.57 Y-25.223 I0.014 J-0.6
G1 X62.561 Y-25.254
X57.178 Y-43.109
G3 X57.784 Y-43.882 I0.574 J-0.173
G1 X61.006 Y-43.594
X61.233 Y-43.562
X61.547 Y-43.492
X61.886 Y-43.388
X62.283 Y-43.229
X62.7 Y-43.022
X63.181 Y-42.734
X63.711 Y-42.354
X64.28 Y-41.873
X64.903 Y-41.255
X65.48 Y-40.582
X66.061 Y-39.913
X66.772 Y-39.385
X67.559 Y-38.977
X68.39 Y-38.669
X69.245 Y-38.438
X70.114 Y-38.266
X70.992 Y-38.139
X71.873 Y-38.047
X72.756 Y-37.979
X73.641 Y-37.929
X74.526 Y-37.893
X75.412 Y-37.867
X76.298 Y-37.849
X77.184 Y-37.835
X78.07 Y-37.825
X78.956 Y-37.818
X79.842 Y-37.813
X80.728 Y-37.809
X81.615 Y-37.807
X82.39 Y-37.795
X82.904 Y-37.746
X83.337 Y-37.67
X83.735 Y-37.566
X84.112 Y-37.434
X84.474 Y-37.274
X84.826 Y-37.083
X85.172 Y-36.858
X85.519 Y-36.59
X85.866 Y-36.274
X86.195 Y-35.923
X86.535 Y-35.497
X86.871 Y-34.997
X87.191 Y-34.427
X87.508 Y-33.739
X87.697 Y-33.223
X87.805 Y-32.833
X87.872 Y-32.488
X87.906 Y-32.173
X87.915 Y-31.87
X87.9 Y-31.577
X87.862 Y-31.287
X87.8 Y-30.996
X87.712 Y-30.704
X87.599 Y-30.413
X87.454 Y-30.117
X87.274 Y-29.81
X87.061 Y-29.507
X86.808 Y-29.203
X86.493 Y-28.881
X86.146 Y-28.578
X85.705 Y-28.253
X85.212 Y-27.946
X84.614 Y-27.638
X83.884 Y-27.333
X83.041 Y-27.059
X82.181 Y-26.847
X81.31 Y-26.686
X80.432 Y-26.563
X79.551 Y-26.47
X78.667 Y-26.4
X77.783 Y-26.348
X76.898 Y-26.309
X76.012 Y-26.28
X75.126 Y-26.259
X74.24 Y-26.243
X73.354 Y-26.232
X72.484 Y-26.063
X71.675 Y-25.701
X70.933 Y-25.217
X70.852 Y-25.155
X70.596 Y-25
X70.314 Y-24.903
X70.017 Y-24.868
X66.645 Y-24.834
X66.034 Y-24.827
G3 X65.473 Y-25.261 I0.015 J-0.6
G1 X65.465 Y-25.286
X60.397 Y-42.828
G3 X61.006 Y-43.594 I0.576 J-0.167
G1 X62.215 Y-43.486
X62.94 Y-43.416
X63.826 Y-43.325
X64.212 Y-43.266
X64.492 Y-43.199
X64.825 Y-43.092
X65.24 Y-42.919
X66.029 Y-42.515
X66.813 Y-42.102
X67.617 Y-41.73
X68.444 Y-41.412
X69.29 Y-41.148
X70.15 Y-40.935
X71.02 Y-40.765
X71.896 Y-40.632
X72.776 Y-40.528
X73.659 Y-40.448
X74.543 Y-40.387
X75.428 Y-40.341
X76.313 Y-40.305
X77.199 Y-40.278
X78.085 Y-40.258
X78.971 Y-40.243
X79.857 Y-40.231
X80.742 Y-40.212
X81.627 Y-40.164
X82.508 Y-40.065
X83.292 Y-39.914
X83.987 Y-39.721
X84.626 Y-39.486
X85.234 Y-39.206
X85.812 Y-38.881
X86.371 Y-38.505
X86.912 Y-38.074
X87.431 Y-37.587
X87.919 Y-37.049
X88.392 Y-36.436
X88.801 Y-35.808
X89.123 Y-35.213
X89.377 Y-34.638
X89.572 Y-34.078
X89.712 Y-33.542
X89.804 Y-33.021
X89.852 Y-32.51
X89.859 Y-32.006
X89.826 Y-31.507
X89.753 Y-31.011
X89.639 Y-30.518
X89.484 Y-30.029
X89.285 Y-29.54
X89.041 Y-29.058
X88.753 Y-28.586
X88.413 Y-28.119
X88.015 Y-27.654
X87.547 Y-27.19
X87.004 Y-26.732
X86.412 Y-26.308
X85.709 Y-25.886
X84.915 Y-25.493
X84.092 Y-25.162
X83.727 Y-25.043
X83.587 Y-25.005
X83.445 Y-24.982
X83.301 Y-24.974
X81.345 Y-24.963
X72.887 Y-24.895
X70.017 Y-24.868
G3 X69.468 Y-25.263 I0.015 J-0.6
G1 X69.445 Y-25.326
X63.221 Y-42.522
G3 X63.826 Y-43.325 I0.564 J-0.204
G1 X68.256 Y-42.871
X68.86 Y-42.803
X74.297 Y-42.163
X79.734 Y-41.432
X80.338 Y-41.348
X85.372 Y-40.596
X86 Y-40.469
X86.408 Y-40.353
X86.85 Y-40.186
X87.331 Y-39.96
X87.806 Y-39.688
X88.323 Y-39.335
X88.853 Y-38.906
X89.359 Y-38.424
X89.841 Y-37.885
X90.289 Y-37.294
X90.691 Y-36.665
X91.039 Y-36.012
X91.328 Y-35.345
X91.557 Y-34.67
X91.729 Y-33.99
X91.844 Y-33.308
X91.903 Y-32.625
X91.908 Y-31.942
X91.857 Y-31.259
X91.752 Y-30.58
X91.591 Y-29.906
X91.374 Y-29.241
X91.101 Y-28.586
X90.769 Y-27.942
X90.373 Y-27.304
X89.908 Y-26.674
X89.374 Y-26.061
X88.76 Y-25.461
X88.593 Y-25.322
X88.325 Y-25.147
X88.024 Y-25.037
X87.706 Y-24.998
X83.301 Y-24.974
G3 X82.724 Y-25.655 I0.018 J-0.6
G1 X84.71 Y-40.081
G3 X85.372 Y-40.596 I0.594 J0.082
G1 X85.976 Y-40.504
X86.379 Y-40.443
X88.997 Y-40.027
X89.229 Y-39.977
X89.503 Y-39.896
X89.825 Y-39.772
X90.144 Y-39.618
X90.51 Y-39.403
X90.868 Y-39.153
X91.263 Y-38.826
X91.649 Y-38.452
X92.035 Y-38.012
X92.42 Y-37.493
X92.785 Y-36.91
X93.109 Y-36.285
X93.393 Y-35.61
X93.632 Y-34.885
X93.817 Y-34.12
X93.943 Y-33.327
X94.005 Y-32.511
X94.002 Y-31.682
X93.932 Y-30.845
X93.793 Y-30.007
X93.584 Y-29.17
X93.304 Y-28.339
X92.955 Y-27.524
X92.543 Y-26.74
X92.071 Y-25.99
X91.77 Y-25.581
X91.547 Y-25.344
X91.276 Y-25.164
X90.971 Y-25.052
X90.648 Y-25.013
X89.399 Y-25.008
X87.706 Y-24.998
G3 X87.125 Y-25.65 I0.018 J-0.6
G1 X88.326 Y-39.483
G3 X88.997 Y-40.027 I0.598 J0.052
G1 X89.601 Y-39.929
X91.614 Y-39.599
X91.846 Y-39.549
X92.082 Y-39.478
X92.344 Y-39.375
X92.63 Y-39.236
X92.924 Y-39.062
X93.245 Y-38.836
X93.568 Y-38.567
X93.906 Y-38.236
X94.252 Y-37.838
X94.581 Y-37.392
X94.915 Y-36.853
X95.228 Y-36.244
X95.5 Y-35.591
X95.74 Y-34.851
X95.933 Y-34.04
X96.067 Y-33.171
X96.132 Y-32.287
X96.128 Y-31.401
X96.057 Y-30.517
X95.92 Y-29.642
X95.72 Y-28.779
X95.461 Y-27.931
X95.145 Y-27.103
X94.776 Y-26.298
X94.441 Y-25.695
X94.407 Y-25.644
X94.233 Y-25.432
X94.022 Y-25.258
X93.781 Y-25.128
X93.519 Y-25.048
X93.246 Y-25.021
X90.648 Y-25.013
G3 X90.068 Y-25.651 I0.019 J-0.6
G1 X90.939 Y-39.043
G3 X91.614 Y-39.599 I0.599 J0.039
G1 X92.42 Y-39.467
X94.031 Y-39.198
X94.205 Y-39.159
X94.428 Y-39.091
X94.675 Y-38.993
X94.928 Y-38.869
X95.216 Y-38.698
X95.497 Y-38.498
X95.812 Y-38.234
X96.112 Y-37.937
X96.44 Y-37.558
X96.751 Y-37.133
X97.063 Y-36.625
X97.371 Y-36.02
X97.636 Y-35.377
X97.876 Y-34.63
X98.072 Y-33.792
X98.204 Y-32.916
X98.269 Y-32.032
Y-31.146
X98.206 Y-30.262
X98.084 Y-29.385
X97.906 Y-28.517
X97.675 Y-27.661
X97.394 Y-26.821
X97.129 Y-26.178
X96.888 Y-25.704
X96.882 Y-25.695
X96.709 Y-25.469
X96.495 Y-25.283
X96.247 Y-25.144
X95.976 Y-25.058
X95.694 Y-25.028
X93.246 Y-25.021
G3 X92.666 Y-25.652 I0.019 J-0.6
G1 X93.353 Y-38.634
G3 X94.031 Y-39.198 I0.599 J0.032
G1 X96.045 Y-38.86
X96.246 Y-38.825
X96.454 Y-38.779
X96.675 Y-38.711
X96.902 Y-38.621
X97.154 Y-38.496
X97.424 Y-38.335
X97.701 Y-38.137
X97.998 Y-37.886
X98.295 Y-37.592
X98.606 Y-37.23
X98.915 Y-36.806
X99.217 Y-36.312
X99.52 Y-35.714
X99.783 Y-35.072
X100.021 Y-34.325
X100.217 Y-33.479
X100.347 Y-32.603
X100.411 Y-31.719
X100.414 Y-30.833
X100.36 Y-29.948
X100.251 Y-29.069
X100.09 Y-28.198
X99.878 Y-27.337
X99.646 Y-26.6
X99.432 Y-26.074
X99.297 Y-25.806
X99.129 Y-25.547
X98.909 Y-25.332
X98.647 Y-25.17
X98.356 Y-25.069
X98.05 Y-25.035
X95.694 Y-25.028
G3 X95.113 Y-25.649 I0.019 J-0.6
G1 X95.567 Y-38.252
G3 X96.246 Y-38.825 I0.6 J0.022
G1 X98.461 Y-38.449
X98.645 Y-38.408
X98.864 Y-38.34
X99.085 Y-38.252
X99.335 Y-38.129
X99.596 Y-37.972
X99.872 Y-37.775
X100.161 Y-37.531
X100.457 Y-37.238
X100.761 Y-36.884
X101.068 Y-36.462
X101.365 Y-35.976
X101.665 Y-35.384
X101.927 Y-34.743
X102.165 Y-33.993
X102.364 Y-33.136
X102.494 Y-32.259
X102.56 Y-31.375
X102.568 Y-30.489
X102.521 Y-29.604
X102.423 Y-28.724
X102.272 Y-27.85
X102.077 Y-27.034
X101.876 Y-26.417
X101.679 Y-25.946
X101.602 Y-25.796
X101.433 Y-25.541
X101.213 Y-25.329
X100.952 Y-25.17
X100.663 Y-25.071
X100.359 Y-25.038
X98.05 Y-25.035
G3 X97.469 Y-25.65 I0.02 J-0.6
G1 X97.781 Y-37.869
G3 X98.461 Y-38.449 I0.6 J0.015
G1 X100.072 Y-38.174
X100.676 Y-38.07
X100.822 Y-38.037
X101.041 Y-37.969
X101.259 Y-37.881
X101.511 Y-37.755
X101.767 Y-37.6
X102.045 Y-37.4
X102.329 Y-37.159
X102.626 Y-36.862
X102.925 Y-36.511
X103.234 Y-36.083
X103.528 Y-35.598
X103.826 Y-35.004
X104.09 Y-34.35
X104.328 Y-33.592
X104.524 Y-32.728
X104.652 Y-31.851
X104.718 Y-30.968
X104.727 Y-30.082
X104.683 Y-29.196
X104.587 Y-28.316
X104.433 Y-27.443
X104.257 Y-26.76
X104.084 Y-26.256
X103.89 Y-25.813
X103.87 Y-25.777
X103.699 Y-25.528
X103.48 Y-25.322
X103.221 Y-25.167
X102.935 Y-25.071
X102.636 Y-25.039
X100.359 Y-25.038
G3 X99.779 Y-25.648 I0.02 J-0.6
G1 X99.995 Y-37.486
G3 X100.676 Y-38.07 I0.6 J0.011
G1 X102.69 Y-37.724
X102.982 Y-37.659
X103.198 Y-37.592
X103.415 Y-37.505
X103.664 Y-37.381
X103.919 Y-37.227
X104.193 Y-37.031
X104.478 Y-36.79
X104.772 Y-36.498
X105.073 Y-36.146
X105.377 Y-35.727
X105.675 Y-35.238
X105.973 Y-34.646
X106.238 Y-33.996
X106.48 Y-33.23
X106.678 Y-32.366
X106.809 Y-31.49
X106.878 Y-30.606
X106.884 Y-30.163
X106.88 Y-29.942
X106.856 Y-29.056
X106.773 Y-28.174
X106.633 Y-27.333
X106.478 Y-26.714
X106.316 Y-26.235
X106.133 Y-25.808
X106.12 Y-25.784
X105.95 Y-25.532
X105.73 Y-25.324
X105.47 Y-25.167
X105.183 Y-25.071
X104.882 Y-25.038
X102.636 Y-25.039
G3 X102.057 Y-25.636 I0.021 J-0.6
G1 X102.009 Y-37.127
G3 X102.69 Y-37.724 I0.6 J-0.003
G1 X104.905 Y-37.343
X105.133 Y-37.291
X105.28 Y-37.258
X105.424 Y-37.215
X105.565 Y-37.165
X105.703 Y-37.108
X105.839 Y-37.044
X105.972 Y-36.974
X106.102 Y-36.898
X106.228 Y-36.818
X106.351 Y-36.732
X106.471 Y-36.642
X106.588 Y-36.549
X106.702 Y-36.451
X106.813 Y-36.349
X106.92 Y-36.245
X107.024 Y-36.137
X107.126 Y-36.026
X107.224 Y-35.913
X107.32 Y-35.798
X107.412 Y-35.679
X107.501 Y-35.559
X107.588 Y-35.436
X107.672 Y-35.312
X107.753 Y-35.186
X107.831 Y-35.058
X107.907 Y-34.928
X107.98 Y-34.797
X108.05 Y-34.665
X108.118 Y-34.531
X108.184 Y-34.396
X108.247 Y-34.26
X108.308 Y-34.123
X108.366 Y-33.985
X108.421 Y-33.845
X108.475 Y-33.705
X108.526 Y-33.564
X108.575 Y-33.423
X108.623 Y-33.28
X108.667 Y-33.137
X108.71 Y-32.993
X108.751 Y-32.849
X108.789 Y-32.704
X108.825 Y-32.558
X108.859 Y-32.412
X108.892 Y-32.266
X108.962 Y-32.056
X109.064 Y-31.859
X109.197 Y-31.682
X109.355 Y-31.527
X109.536 Y-31.399
X109.735 Y-31.302
X109.947 Y-31.237
X110.166 Y-31.206
X111.052 Y-31.223
X111.192 Y-31.277
X111.333 Y-31.33
X111.474 Y-31.38
X111.616 Y-31.429
X111.758 Y-31.477
X111.901 Y-31.523
X112.045 Y-31.566
X112.189 Y-31.606
X112.335 Y-31.643
X112.481 Y-31.676
X112.628 Y-31.707
X112.775 Y-31.735
X112.923 Y-31.761
X113.071 Y-31.784
X113.22 Y-31.802
X113.369 Y-31.817
X113.519 Y-31.826
X113.669 Y-31.832
X113.819 Y-31.835
X113.969 Y-31.834
X114.119 Y-31.829
X114.268 Y-31.82
X114.418 Y-31.806
X114.567 Y-31.787
X114.715 Y-31.763
X114.862 Y-31.735
X115.008 Y-31.703
X115.154 Y-31.667
X115.299 Y-31.627
X115.441 Y-31.581
X115.582 Y-31.529
X115.721 Y-31.473
X115.858 Y-31.412
X115.994 Y-31.348
X116.127 Y-31.279
X116.258 Y-31.206
X116.386 Y-31.127
X116.51 Y-31.044
X116.632 Y-30.955
X116.75 Y-30.863
X116.866 Y-30.768
X116.979 Y-30.669
X117.087 Y-30.565
X117.19 Y-30.457
X117.29 Y-30.344
X117.385 Y-30.228
X117.476 Y-30.109
X117.563 Y-29.987
X117.647 Y-29.862
X117.724 Y-29.734
X117.795 Y-29.602
X117.862 Y-29.467
X117.923 Y-29.33
X117.98 Y-29.192
X118.032 Y-29.051
X118.078 Y-28.908
X118.118 Y-28.764
X118.151 Y-28.617
X118.179 Y-28.47
X118.202 Y-28.322
X118.219 Y-28.173
X118.232 Y-28.023
X118.237 Y-27.873
X118.235 Y-27.723
X118.227 Y-27.574
X118.214 Y-27.424
X118.195 Y-27.275
X118.172 Y-27.127
X118.142 Y-26.98
X118.105 Y-26.835
X118.062 Y-26.691
X118.013 Y-26.549
X117.959 Y-26.409
X117.901 Y-26.271
X117.837 Y-26.135
X117.767 Y-26.003
X117.691 Y-25.874
X117.609 Y-25.748
X117.523 Y-25.625
X117.471 Y-25.556
X117.247 Y-25.321
X116.974 Y-25.145
X116.668 Y-25.035
X116.345 Y-24.999
X113.765 Y-25.014
X113.538 Y-25.026
X113.388 Y-25.036
X113.239 Y-25.055
X113.092 Y-25.082
X112.947 Y-25.121
X112.805 Y-25.171
X112.667 Y-25.229
X112.532 Y-25.295
X112.401 Y-25.368
X112.275 Y-25.448
X112.154 Y-25.538
X111.963 Y-25.649
X111.757 Y-25.73
X111.54 Y-25.777
X111.319 Y-25.789
X111.098 Y-25.766
X110.671 Y-25.651
X110.027 Y-25.246
X109.792 Y-25.127
X109.54 Y-25.055
X109.278 Y-25.031
G3 X109.303 Y-26.23 I0.022 J-0.6
G1 X113.75 Y-26.213
G3 X113.765 Y-25.014 I-0.002 J0.6
G1 X112.154 Y-25.021
X109.335 Y-25.03
X105.509 Y-25.038
X104.882
G3 X104.303 Y-25.633 I0.021 J-0.6
G1 X104.224 Y-36.744
G3 X104.905 Y-37.343 I0.6 J-0.004
G1 X107.12 Y-36.961
X107.422 Y-36.894
X107.629 Y-36.829
X107.854 Y-36.739
X108.096 Y-36.619
X108.354 Y-36.464
X108.626 Y-36.269
X109.302 Y-35.696
X110.057 Y-35.231
X110.89 Y-34.93
X111.752 Y-34.725
X112.624 Y-34.566
X113.496 Y-34.41
X114.363 Y-34.227
X115.19 Y-33.998
X115.873 Y-33.748
X116.477 Y-33.47
X117.008 Y-33.173
X117.497 Y-32.844
X117.929 Y-32.5
X118.319 Y-32.135
X118.676 Y-31.743
X118.985 Y-31.342
X119.257 Y-30.926
X119.494 Y-30.488
X119.689 Y-30.048
X119.847 Y-29.596
X119.969 Y-29.132
X120.05 Y-28.673
X120.095 Y-28.211
X120.102 Y-27.742
X120.072 Y-27.286
X120.006 Y-26.836
X119.91 Y-26.421
X119.784 Y-26.02
X119.717 Y-25.857
X119.588 Y-25.612
X119.412 Y-25.397
X119.198 Y-25.221
X118.953 Y-25.09
X118.687 Y-25.011
X118.411 Y-24.985
X116.345 Y-24.999
G3 X115.916 Y-25.206 I0.025 J-0.599
G1 X115.722 Y-25.43
X106.586 Y-35.974
G3 X107.12 Y-36.961 I0.453 J-0.393
G1 X110.946 Y-36.304
X114.772 Y-35.652
X115.98 Y-35.448
X116.587 Y-35.314
X117.086 Y-35.161
X117.598 Y-34.958
X118.106 Y-34.707
X118.605 Y-34.409
X119.091 Y-34.063
X119.558 Y-33.67
X120 Y-33.233
X120.408 Y-32.759
X120.779 Y-32.252
X121.109 Y-31.714
X121.394 Y-31.152
X121.633 Y-30.57
X121.824 Y-29.971
X121.966 Y-29.36
X122.059 Y-28.743
X122.101 Y-28.128
X122.094 Y-27.536
X122.046 Y-27.02
X121.971 Y-26.593
X121.867 Y-26.189
X121.748 Y-25.845
X121.73 Y-25.806
X121.565 Y-25.525
X121.34 Y-25.29
X121.067 Y-25.113
X120.76 Y-25.004
X120.436 Y-24.969
X118.799 Y-24.982
X118.411 Y-24.985
G3 X117.857 Y-25.426 I0.025 J-0.599
G1 X117.85 Y-25.454
X115.322 Y-34.695
X115.306 Y-34.773
X115.301 Y-34.852
Y-34.853
G3 X115.98 Y-35.448 I0.6 J0
G1 X118.799 Y-34.973
X119.605 Y-34.839
X119.863 Y-34.783
X120.128 Y-34.702
X120.426 Y-34.585
X120.728 Y-34.437
X121.059 Y-34.24
X121.396 Y-34.002
X121.738 Y-33.715
X122.096 Y-33.363
X122.436 Y-32.971
X122.766 Y-32.522
X123.082 Y-32.008
X123.374 Y-31.438
X123.627 Y-30.826
X123.834 Y-30.183
X123.992 Y-29.512
X124.095 Y-28.839
X124.141 Y-28.186
X124.135 Y-27.563
X124.09 Y-27.056
X124.01 Y-26.591
X123.911 Y-26.207
X123.785 Y-25.838
X123.764 Y-25.791
X123.599 Y-25.508
X123.374 Y-25.272
X123.099 Y-25.094
X122.791 Y-24.985
X122.466 Y-24.95
X121.216 Y-24.962
X120.436 Y-24.969
G3 X119.866 Y-25.504 I0.026 J-0.599
G1 X118.931 Y-34.18
G3 X119.605 Y-34.839 I0.597 J-0.064
G1 X122.021 Y-34.438
X122.337 Y-34.369
X122.558 Y-34.302
X122.811 Y-34.202
X123.063 Y-34.079
X123.351 Y-33.908
X123.631 Y-33.709
X123.942 Y-33.449
X124.24 Y-33.156
X124.553 Y-32.795
X124.861 Y-32.375
X125.146 Y-31.912
X125.421 Y-31.375
X125.668 Y-30.777
X125.873 Y-30.141
X126.029 Y-29.483
X126.13 Y-28.82
X126.175 Y-28.173
X126.169 Y-27.549
X126.124 Y-27.041
X126.043 Y-26.575
X125.945 Y-26.19
X125.818 Y-25.821
X125.796 Y-25.77
X125.631 Y-25.487
X125.405 Y-25.251
X125.131 Y-25.073
X124.822 Y-24.964
X124.497 Y-24.93
X122.466 Y-24.95
G3 X121.895 Y-25.51 I0.027 J-0.599
G1 X121.345 Y-33.803
G3 X122.021 Y-34.438 I0.599 J-0.04
G1 X122.827 Y-34.305
X123.632 Y-34.174
X124.347 Y-34.059
X124.548 Y-34.017
X124.766 Y-33.952
X124.988 Y-33.866
X125.236 Y-33.746
X125.492 Y-33.595
X125.766 Y-33.404
X126.046 Y-33.172
X126.34 Y-32.886
X126.624 Y-32.56
X126.921 Y-32.16
X127.193 Y-31.724
X127.452 Y-31.225
X127.688 Y-30.661
X127.889 Y-30.048
X128.042 Y-29.416
X128.143 Y-28.774
X128.191 Y-28.144
X128.188 Y-27.53
X128.145 Y-27.028
X128.068 Y-26.564
X127.972 Y-26.182
X127.848 Y-25.813
X127.822 Y-25.753
X127.69 Y-25.513
X127.513 Y-25.304
X127.299 Y-25.133
X127.056 Y-25.007
X126.793 Y-24.93
X126.52 Y-24.906
X124.497 Y-24.93
G3 X123.925 Y-25.51 I0.028 J-0.599
G1 X123.673 Y-33.445
G3 X124.347 Y-34.059 I0.6 J-0.019
G1 X126.451 Y-33.721
X126.692 Y-33.67
X126.9 Y-33.608
X127.115 Y-33.525
X127.357 Y-33.407
X127.599 Y-33.266
X127.869 Y-33.076
X128.131 Y-32.86
X128.416 Y-32.582
X128.689 Y-32.269
X128.965 Y-31.897
X129.238 Y-31.46
X129.481 Y-30.991
X129.703 Y-30.461
X129.895 Y-29.876
X130.042 Y-29.268
X130.139 Y-28.65
X130.186 Y-28.04
X130.183 Y-27.446
X130.141 Y-26.947
X130.07 Y-26.523
X129.97 Y-26.123
X129.856 Y-25.785
X129.832 Y-25.73
X129.7 Y-25.49
X129.523 Y-25.281
X129.309 Y-25.11
X129.066 Y-24.984
X128.803 Y-24.907
X128.53 Y-24.883
X126.52 Y-24.906
G3 X125.948 Y-25.492 I0.028 J-0.599
G1 X125.777 Y-33.112
G3 X126.451 Y-33.721 I0.6 J-0.013
G1 X128.622 Y-33.372
X128.779 Y-33.339
X128.978 Y-33.28
X129.193 Y-33.196
X129.425 Y-33.084
X129.665 Y-32.943
X129.922 Y-32.763
X130.183 Y-32.547
X130.452 Y-32.285
X130.725 Y-31.972
X130.985 Y-31.622
X131.247 Y-31.202
X131.487 Y-30.74
X131.698 Y-30.237
X131.88 Y-29.68
X132.021 Y-29.095
X132.115 Y-28.503
X132.16 Y-27.912
X132.157 Y-27.35
X132.116 Y-26.869
X132.049 Y-26.462
X131.951 Y-26.072
X131.839 Y-25.741
X131.825 Y-25.708
X131.692 Y-25.468
X131.516 Y-25.259
X131.302 Y-25.087
X131.059 Y-24.961
X130.796 Y-24.885
X130.523 Y-24.861
X128.53 Y-24.883
G3 X127.958 Y-25.482 I0.028 J-0.599
G1 X127.948 Y-32.777
G3 X128.622 Y-33.372 I0.6 J0
G1 X130.68 Y-33.041
X130.833 Y-33.009
X131.023 Y-32.952
X131.238 Y-32.869
X131.46 Y-32.761
X131.701 Y-32.62
X131.946 Y-32.448
X132.207 Y-32.232
X132.462 Y-31.984
X132.732 Y-31.675
X132.983 Y-31.338
X133.232 Y-30.939
X133.468 Y-30.483
X133.671 Y-29.998
X133.845 Y-29.468
X133.979 Y-28.91
X134.069 Y-28.344
X134.112 Y-27.775
X134.11 Y-27.251
X134.07 Y-26.788
X134.005 Y-26.397
X133.91 Y-26.019
X133.8 Y-25.694
X133.797 Y-25.686
X133.665 Y-25.446
X133.488 Y-25.237
X133.274 Y-25.066
X133.031 Y-24.939
X132.768 Y-24.863
X132.495 Y-24.839
X130.523 Y-24.861
G3 X129.951 Y-25.465 I0.028 J-0.599
G1 X130.006 Y-32.451
G3 X130.68 Y-33.041 I0.6 J0.005
G1 X131.284 Y-32.944
X132.09 Y-32.819
X132.694 Y-32.727
X132.841 Y-32.698
X133.027 Y-32.642
X133.241 Y-32.56
X133.457 Y-32.456
X133.697 Y-32.316
X133.934 Y-32.151
X134.192 Y-31.938
X134.44 Y-31.698
X134.702 Y-31.4
X134.949 Y-31.068
X135.188 Y-30.687
X135.416 Y-30.248
X135.617 Y-29.772
X135.783 Y-29.268
X135.913 Y-28.737
X135.999 Y-28.196
X136.041 Y-27.651
X136.04 Y-27.164
X136.003 Y-26.717
X135.941 Y-26.34
X135.85 Y-25.974
X135.783 Y-25.774
X135.662 Y-25.508
X135.487 Y-25.273
X135.268 Y-25.079
X135.013 Y-24.935
X134.734 Y-24.847
X134.443 Y-24.819
X133.097 Y-24.832
X132.495 Y-24.839
G3 X131.923 Y-25.448 I0.028 J-0.599
G1 X132.024 Y-32.141
G3 X132.694 Y-32.727 I0.6 J0.009
G1 X134.617 Y-32.435
X134.813 Y-32.395
X134.995 Y-32.343
X135.206 Y-32.263
X135.416 Y-32.163
X135.653 Y-32.027
X135.884 Y-31.868
X136.137 Y-31.662
X136.38 Y-31.43
X136.632 Y-31.146
X136.879 Y-30.82
X137.109 Y-30.459
X137.33 Y-30.04
X137.527 Y-29.582
X137.69 Y-29.097
X137.817 Y-28.592
X137.902 Y-28.076
X137.945 Y-27.569
X137.947 Y-27.097
X137.916 Y-26.689
X137.854 Y-26.298
X137.773 Y-25.962
X137.709 Y-25.766
X137.588 Y-25.498
X137.415 Y-25.261
X137.196 Y-25.066
X136.941 Y-24.92
X136.661 Y-24.831
X136.368 Y-24.803
X135.312 Y-24.811
X134.443 Y-24.819
G3 X133.87 Y-25.426 I0.026 J-0.599
G1 X133.948 Y-31.846
G3 X134.617 Y-32.435 I0.6 J0.007
G1 X136.52 Y-32.146
X136.773 Y-32.094
X136.957 Y-32.041
X137.162 Y-31.964
X137.371 Y-31.865
X137.601 Y-31.733
X137.831 Y-31.574
X138.074 Y-31.377
X138.318 Y-31.143
X138.558 Y-30.873
X138.802 Y-30.55
X139.026 Y-30.198
X139.235 Y-29.803
X139.423 Y-29.365
X139.58 Y-28.9
X139.701 Y-28.415
X139.783 Y-27.921
X139.823 Y-27.451
X139.825 Y-26.997
X139.796 Y-26.615
X139.736 Y-26.235
X139.658 Y-25.912
X139.605 Y-25.752
X139.485 Y-25.485
X139.312 Y-25.248
X139.093 Y-25.053
X138.838 Y-24.907
X138.558 Y-24.818
X138.266 Y-24.789
X136.368 Y-24.803
G3 X135.794 Y-25.408 I0.025 J-0.599
G1 X135.85 Y-31.555
G3 X136.52 Y-32.146 I0.6 J0.006
G1 X138.534 Y-31.84
X138.706 Y-31.805
X138.889 Y-31.752
X139.088 Y-31.676
X139.297 Y-31.578
X139.519 Y-31.45
X139.749 Y-31.292
X139.983 Y-31.102
X140.226 Y-30.869
X140.457 Y-30.609
X140.692 Y-30.299
X140.914 Y-29.949
X141.113 Y-29.573
X141.292 Y-29.156
X141.441 Y-28.713
X141.558 Y-28.248
X141.636 Y-27.775
X141.674 Y-27.335
X141.675 Y-26.905
X141.648 Y-26.54
X141.59 Y-26.176
X141.514 Y-25.863
X141.475 Y-25.743
X141.355 Y-25.476
X141.182 Y-25.239
X140.963 Y-25.044
X140.709 Y-24.898
X140.43 Y-24.809
X140.138 Y-24.78
X138.266 Y-24.789
G3 X137.691 Y-25.406 I0.025 J-0.599
G1 X137.864 Y-31.262
G3 X138.534 Y-31.84 I0.6 J0.018
G1 X140.35 Y-31.564
X140.615 Y-31.511
X140.798 Y-31.458
X140.989 Y-31.386
X141.197 Y-31.288
X141.41 Y-31.166
X141.639 Y-31.009
X141.862 Y-30.828
X142.1 Y-30.602
X142.326 Y-30.349
X142.549 Y-30.053
X142.765 Y-29.715
X142.96 Y-29.348
X143.13 Y-28.954
X143.273 Y-28.533
X143.384 Y-28.091
X143.46 Y-27.64
X143.495 Y-27.228
X143.498 Y-26.827
X143.471 Y-26.475
X143.417 Y-26.128
X143.344 Y-25.822
X143.316 Y-25.738
X143.197 Y-25.471
X143.024 Y-25.234
X142.806 Y-25.039
X142.552 Y-24.893
X142.273 Y-24.803
X141.982 Y-24.773
X140.547 Y-24.778
X140.138 Y-24.78
G3 X139.562 Y-25.392 I0.024 J-0.6
G1 X139.682 Y-30.981
G3 X140.35 Y-31.564 I0.6 J0.013
G1 X140.749 Y-31.505
X142.36 Y-31.277
X142.507 Y-31.249
X142.694 Y-31.192
X142.883 Y-31.118
X143.094 Y-31.015
X143.302 Y-30.891
X143.529 Y-30.731
X143.751 Y-30.546
X143.978 Y-30.324
X144.206 Y-30.061
X144.418 Y-29.773
X144.621 Y-29.445
X144.808 Y-29.081
X144.969 Y-28.693
X145.101 Y-28.284
X145.202 Y-27.86
X145.265 Y-27.449
X145.294 Y-27.053
X145.291 Y-26.695
X145.26 Y-26.347
X145.206 Y-26.029
X145.128 Y-25.725
X145.125 Y-25.715
X145.004 Y-25.453
X144.831 Y-25.22
X144.614 Y-25.029
X144.362 Y-24.886
X144.086 Y-24.798
X143.798 Y-24.768
X141.982 Y-24.773
G3 X141.405 Y-25.405 I0.023 J-0.6
G1 X141.697 Y-30.713
G3 X142.36 Y-31.277 I0.599 J0.033
G1 X144.172 Y-31.021
X144.319 Y-30.992
X144.494 Y-30.943
X144.682 Y-30.874
X144.882 Y-30.781
X145.087 Y-30.664
X145.307 Y-30.515
X145.521 Y-30.343
X145.747 Y-30.13
X145.964 Y-29.89
X146.172 Y-29.618
X146.373 Y-29.306
X146.557 Y-28.966
X146.716 Y-28.603
X146.848 Y-28.218
X146.952 Y-27.817
X147.021 Y-27.416
X147.055 Y-27.045
X147.059 Y-26.696
X147.036 Y-26.365
X146.989 Y-26.05
X146.92 Y-25.758
X146.914 Y-25.74
X146.796 Y-25.471
X146.624 Y-25.233
X146.406 Y-25.036
X146.152 Y-24.889
X145.873 Y-24.798
X145.581 Y-24.767
X143.798 Y-24.768
G3 X143.221 Y-25.402 I0.022 J-0.6
G1 X143.51 Y-30.458
G3 X144.172 Y-31.021 I0.599 J0.034
G1 X145.984 Y-30.764
X146.131 Y-30.736
X146.308 Y-30.687
X146.487 Y-30.621
X146.685 Y-30.529
X146.885 Y-30.417
X147.095 Y-30.275
X147.312 Y-30.103
X147.522 Y-29.905
X147.738 Y-29.668
X147.942 Y-29.402
X148.132 Y-29.111
X148.306 Y-28.788
X148.46 Y-28.439
X148.59 Y-28.067
X148.691 Y-27.68
X148.753 Y-27.326
X148.787 Y-26.963
X148.792 Y-26.642
X148.77 Y-26.314
X148.726 Y-26.019
X148.688 Y-25.852
X148.584 Y-25.558
X148.417 Y-25.293
X148.196 Y-25.072
X147.931 Y-24.906
X147.636 Y-24.803
X147.326 Y-24.768
X145.783 Y-24.767
X145.581
G3 X145.003 Y-25.407 I0.021 J-0.6
G1 X145.322 Y-30.207
G3 X145.984 Y-30.764 I0.599 J0.04
G1 X147.797 Y-30.508
X147.944 Y-30.479
X148.113 Y-30.43
X148.296 Y-30.361
X148.484 Y-30.271
X148.688 Y-30.154
X148.888 Y-30.015
X149.101 Y-29.842
X149.308 Y-29.643
X149.509 Y-29.417
X149.706 Y-29.155
X149.89 Y-28.866
X150.053 Y-28.555
X150.196 Y-28.222
X150.315 Y-27.867
X150.4 Y-27.525
X150.459 Y-27.166
X150.486 Y-26.851
X150.487 Y-26.525
X150.463 Y-26.226
X150.418 Y-25.939
X150.394 Y-25.84
X150.288 Y-25.549
X150.12 Y-25.288
X149.899 Y-25.07
X149.636 Y-24.907
X149.343 Y-24.805
X149.035 Y-24.77
X147.326 Y-24.768
G3 X146.748 Y-25.418 I0.02 J-0.6
G1 X147.135 Y-29.962
G3 X147.797 Y-30.508 I0.598 J0.051
G1 X149.407 Y-30.28
X149.518 Y-30.266
X149.666 Y-30.24
X149.833 Y-30.194
X150.005 Y-30.132
X150.191 Y-30.048
X150.385 Y-29.94
X150.58 Y-29.809
X150.785 Y-29.648
X150.983 Y-29.464
X151.18 Y-29.249
X151.37 Y-29.004
X151.548 Y-28.734
X151.708 Y-28.442
X151.848 Y-28.128
X151.967 Y-27.792
X152.052 Y-27.473
X152.113 Y-27.135
X152.143 Y-26.834
X152.149 Y-26.523
X152.131 Y-26.231
X152.092 Y-25.957
X152.071 Y-25.864
X151.968 Y-25.567
X151.801 Y-25.301
X151.579 Y-25.079
X151.314 Y-24.911
X151.017 Y-24.807
X150.705 Y-24.772
X149.035 Y-24.77
G3 X148.458 Y-25.427 I0.02 J-0.6
G1 X148.867 Y-29.725
G3 X149.518 Y-30.266 I0.597 J0.057
G1 X150.012 Y-30.204
X150.616 Y-30.196
X150.928
X151.078 Y-30.188
X151.381 Y-30.106
X151.656 Y-29.955
X151.888 Y-29.743
X152.063 Y-29.483
X152.173 Y-29.189
X152.21 Y-28.877
G3 X150.618 Y-27.727 I-1.243 J-0.043
X150.928 Y-30.196 I0.353 J-1.21
G1 X151.421
X151.623 Y-30.195
X151.712 Y-30.184
X151.801 Y-30.158
X151.824 Y-30.149
X151.874 Y-30.125
X151.925 Y-30.095
X151.975 Y-30.059
X152.025 Y-30.016
X152.079 Y-29.957
X152.115 Y-29.907
X152.144 Y-29.857
X152.167 Y-29.807
X152.184 Y-29.756
X152.206 Y-29.656
X152.21 Y-29.556
Y-25.538
X152.208 Y-25.337
X152.192 Y-25.237
X152.177 Y-25.187
X152.157 Y-25.136
X152.133 Y-25.09
X152.105 Y-25.043
X152.069 Y-24.996
X152.025 Y-24.95
X152.01 Y-24.935
X151.963 Y-24.898
X151.917 Y-24.867
X151.824 Y-24.819
X151.774 Y-24.8
X151.723 Y-24.787
X151.623 Y-24.773
X151.22 Y-24.772
X150.705
G3 X150.142 Y-25.237 I0.021 J-0.6
G1 X150.12 Y-25.328 Z-6.993
X150.1 Y-25.417 Z-6.971
X150.08 Y-25.502 Z-6.935
X150.062 Y-25.58 Z-6.885
X150.046 Y-25.65 Z-6.824
X150.032 Y-25.71 Z-6.753
X150.021 Y-25.758 Z-6.672
X150.013 Y-25.793 Z-6.585
X150.008 Y-25.814 Z-6.494
X150.007 Y-25.821 Z-6.4
G0 Z-5.8
X11.954 Y-25.659
G1 Z-6.4 F1000
X11.947 Y-25.656 Z-6.494
X11.928 Y-25.645 Z-6.585
X11.896 Y-25.628 Z-6.672
X11.853 Y-25.605 Z-6.753
X11.799 Y-25.576 Z-6.824
X11.736 Y-25.542 Z-6.885
X11.665 Y-25.503 Z-6.935
X11.589 Y-25.462 Z-6.971
X11.508 Y-25.418 Z-6.993
X11.426 Y-25.374 Z-7
G3 X10.664 Y-25.183 I-0.753 J-1.392
G1 X8.449 Y-25.273
X8.046 Y-25.291
X7.853 Y-25.309
X7.611 Y-25.352
X7.338 Y-25.424
X7.033 Y-25.53
X6.72 Y-25.669
X6.356 Y-25.867
X6 Y-26.099
X5.588 Y-26.417
X5.191 Y-26.778
X4.756 Y-27.243
X4.308 Y-27.805
X3.877 Y-28.447
X3.445 Y-29.217
X3.075 Y-30.022
X2.763 Y-30.852
X2.506 Y-31.7
X2.3 Y-32.562
X2.144 Y-33.434
X2.034 Y-34.313
X1.971 Y-35.197
X1.953 Y-36.083
X1.98 Y-36.969
X2.05 Y-37.852
X2.163 Y-38.731
X2.317 Y-39.604
X2.512 Y-40.468
X2.747 Y-41.322
X3.022 Y-42.165
X3.336 Y-42.993
X3.69 Y-43.806
X4.08 Y-44.601
X4.492 Y-45.345
X4.613 Y-45.527
X4.786 Y-45.739
X4.997 Y-45.913
X5.238 Y-46.043
X5.499 Y-46.124
X5.772 Y-46.152
X7.845 Y-46.163
X8.457 Y-46.164
G3 X9.034 Y-45.553 I-0.023 J0.6
G1 X8.652 Y-25.879
G3 X8.046 Y-25.291 I-0.6 J-0.012
G1 X7.845 Y-25.3
X5.63 Y-25.419
X5.394 Y-25.444
X5.163 Y-25.487
X4.889 Y-25.561
X4.614 Y-25.66
X4.299 Y-25.803
X3.968 Y-25.985
X3.614 Y-26.221
X3.234 Y-26.519
X2.841 Y-26.882
X2.437 Y-27.322
X2.009 Y-27.869
X1.589 Y-28.505
X1.177 Y-29.254
X0.814 Y-30.063
X0.51 Y-30.895
X0.26 Y-31.745
X0.061 Y-32.609
X-0.091 Y-33.482
X-0.198 Y-34.361
X-0.261 Y-35.245
X-0.283 Y-36.131
X-0.263 Y-37.017
X-0.202 Y-37.901
X-0.103 Y-38.781
X0.035 Y-39.657
X0.21 Y-40.526
X0.421 Y-41.386
X0.669 Y-42.237
X0.952 Y-43.077
X1.269 Y-43.904
X1.623 Y-44.717
X1.935 Y-45.324
X2.031 Y-45.478
X2.204 Y-45.701
X2.417 Y-45.886
X2.664 Y-46.023
X2.932 Y-46.109
X3.213 Y-46.139
X5.772 Y-46.152
G3 X6.354 Y-45.549 I-0.018 J0.6
G1 X6.241 Y-26.016
G3 X5.63 Y-25.419 I-0.6 J-0.003
G1 X3.213 Y-25.549
X3.041 Y-25.567
X2.814 Y-25.609
X2.548 Y-25.681
X2.281 Y-25.777
X1.972 Y-25.917
X1.654 Y-26.093
X1.308 Y-26.323
X0.942 Y-26.61
X0.56 Y-26.964
X0.169 Y-27.389
X-0.247 Y-27.921
X-0.653 Y-28.536
X-1.056 Y-29.269
X-1.42 Y-30.078
X-1.723 Y-30.91
X-1.971 Y-31.761
X-2.17 Y-32.624
X-2.322 Y-33.497
X-2.431 Y-34.377
X-2.499 Y-35.26
X-2.526 Y-36.146
X-2.514 Y-37.032
X-2.464 Y-37.917
X-2.378 Y-38.799
X-2.256 Y-39.676
X-2.1 Y-40.549
X-1.91 Y-41.414
X-1.686 Y-42.272
X-1.431 Y-43.12
X-1.143 Y-43.958
X-0.814 Y-44.781
X-0.55 Y-45.316
X-0.481 Y-45.43
X-0.312 Y-45.658
X-0.099 Y-45.846
X0.147 Y-45.988
X0.417 Y-46.078
X0.699 Y-46.111
X1.804 Y-46.127
X2.609 Y-46.136
X3.213 Y-46.139
G3 X3.795 Y-45.54 I-0.018 J0.6
G1 X3.825 Y-26.149
G3 X3.213 Y-25.549 I-0.6 J0
G1 X0.998 Y-25.668
X0.724 Y-25.697
X0.497 Y-25.739
X0.238 Y-25.809
X-0.024 Y-25.904
X-0.332 Y-26.043
X-0.636 Y-26.211
X-0.983 Y-26.441
X-1.332 Y-26.716
X-1.714 Y-27.07
X-2.092 Y-27.48
X-2.498 Y-28
X-2.902 Y-28.611
X-3.298 Y-29.331
X-3.661 Y-30.139
X-3.964 Y-30.972
X-4.211 Y-31.823
X-4.409 Y-32.687
X-4.562 Y-33.56
X-4.672 Y-34.439
X-4.742 Y-35.322
X-4.774 Y-36.208
X-4.769 Y-37.094
X-4.728 Y-37.979
X-4.652 Y-38.862
X-4.543 Y-39.741
X-4.401 Y-40.616
X-4.228 Y-41.485
X-4.023 Y-42.347
X-3.788 Y-43.202
X-3.519 Y-44.046
X-3.241 Y-44.776
X-3 Y-45.283
X-2.946 Y-45.376
X-2.777 Y-45.609
X-2.563 Y-45.803
X-2.315 Y-45.949
X-2.041 Y-46.041
X-1.755 Y-46.075
X0.699 Y-46.111
G3 X1.287 Y-45.521 I-0.012 J0.6
G1 X1.61 Y-26.278
G3 X0.998 Y-25.668 I-0.6 J0.01
G1 X0.193 Y-25.712
X-0.21 Y-25.735
X-1.418 Y-25.817
X-1.608 Y-25.839
X-1.842 Y-25.886
X-2.091 Y-25.957
X-2.36 Y-26.058
X-2.665 Y-26.2
X-2.969 Y-26.374
X-3.32 Y-26.614
X-3.66 Y-26.888
X-4.046 Y-27.256
X-4.417 Y-27.669
X-4.814 Y-28.191
X-5.22 Y-28.826
X-5.616 Y-29.568
X-5.968 Y-30.381
X-6.26 Y-31.218
X-6.498 Y-32.071
X-6.687 Y-32.937
X-6.832 Y-33.811
X-6.935 Y-34.691
X-7.001 Y-35.575
X-7.029 Y-36.461
X-7.023 Y-37.347
X-6.983 Y-38.232
X-6.911 Y-39.115
X-6.807 Y-39.995
X-6.673 Y-40.871
X-6.508 Y-41.742
X-6.313 Y-42.606
X-6.085 Y-43.463
X-5.817 Y-44.307
X-5.574 Y-44.917
X-5.407 Y-45.254
X-5.244 Y-45.51
X-5.029 Y-45.725
X-4.773 Y-45.888
X-4.487 Y-45.992
X-4.186 Y-46.032
X-3.633 Y-46.046
X-3.23 Y-46.053
X-1.755 Y-46.075
G3 X-1.167 Y-45.486 I-0.012 J0.6
G1 X-0.799 Y-26.428
G3 X-1.418 Y-25.817 I-0.6 J0.012
G1 X-3.633 Y-25.965
X-3.906 Y-25.998
X-4.132 Y-26.043
X-4.383 Y-26.115
X-4.645 Y-26.212
X-4.948 Y-26.355
X-5.248 Y-26.526
X-5.591 Y-26.76
X-5.934 Y-27.037
X-6.311 Y-27.396
X-6.681 Y-27.808
X-7.078 Y-28.331
X-7.475 Y-28.95
X-7.863 Y-29.678
X-8.215 Y-30.491
X-8.507 Y-31.328
X-8.745 Y-32.181
X-8.935 Y-33.047
X-9.081 Y-33.921
X-9.186 Y-34.801
X-9.255 Y-35.684
X-9.287 Y-36.57
Y-37.456
X-9.254 Y-38.341
X-9.19 Y-39.225
X-9.095 Y-40.106
X-8.971 Y-40.984
X-8.817 Y-41.856
X-8.632 Y-42.723
X-8.412 Y-43.581
X-8.153 Y-44.406
X-7.936 Y-44.943
X-7.807 Y-45.201
X-7.644 Y-45.455
X-7.429 Y-45.668
X-7.174 Y-45.83
X-6.89 Y-45.933
X-6.59 Y-45.973
X-4.186 Y-46.032
G3 X-3.593 Y-45.451 I-0.006 J0.6
G1 X-3.014 Y-26.584
G3 X-3.633 Y-25.965 I-0.6 J0.018
G1 X-6.05 Y-26.128
X-6.199 Y-26.146
X-6.43 Y-26.194
X-6.68 Y-26.268
X-6.946 Y-26.371
X-7.25 Y-26.517
X-7.551 Y-26.693
X-7.899 Y-26.935
X-8.235 Y-27.212
X-8.617 Y-27.582
X-8.982 Y-27.998
X-9.376 Y-28.526
X-9.777 Y-29.165
X-10.165 Y-29.912
X-10.51 Y-30.729
X-10.795 Y-31.568
X-11.026 Y-32.423
X-11.21 Y-33.29
X-11.352 Y-34.165
X-11.454 Y-35.045
X-11.52 Y-35.929
X-11.552 Y-36.814
X-11.551 Y-37.7
X-11.52 Y-38.586
X-11.459 Y-39.47
X-11.368 Y-40.352
X-11.249 Y-41.23
X-11.099 Y-42.103
X-10.916 Y-42.97
X-10.694 Y-43.828
X-10.465 Y-44.519
X-10.254 Y-45.019
X-10.18 Y-45.161
X-10.016 Y-45.408
X-9.804 Y-45.615
X-9.553 Y-45.772
X-9.274 Y-45.874
X-8.98 Y-45.914
X-7.459 Y-45.952
X-6.59 Y-45.973
G3 X-5.997 Y-45.391 I-0.006 J0.6
G1 X-5.431 Y-26.746
G3 X-6.05 Y-26.128 I-0.6 J0.018
G1 X-8.063 Y-26.264
X-8.265 Y-26.278
X-8.475 Y-26.305
X-8.701 Y-26.352
X-8.954 Y-26.427
X-9.214 Y-26.528
X-9.518 Y-26.674
X-9.818 Y-26.849
X-10.159 Y-27.087
X-10.501 Y-27.369
X-10.876 Y-27.731
X-11.244 Y-28.151
X-11.639 Y-28.681
X-12.033 Y-29.309
X-12.419 Y-30.051
X-12.764 Y-30.868
X-13.048 Y-31.707
X-13.281 Y-32.562
X-13.466 Y-33.429
X-13.609 Y-34.303
X-13.714 Y-35.183
X-13.782 Y-36.066
X-13.818 Y-36.952
X-13.822 Y-37.838
X-13.796 Y-38.724
X-13.741 Y-39.608
X-13.657 Y-40.49
X-13.543 Y-41.369
X-13.398 Y-42.243
X-13.217 Y-43.111
X-12.992 Y-43.968
X-12.778 Y-44.586
X-12.57 Y-45.062
X-12.557 Y-45.086
X-12.394 Y-45.325
X-12.185 Y-45.526
X-11.94 Y-45.68
X-11.668 Y-45.78
X-11.382 Y-45.821
X-9.674 Y-45.892
X-9.473 Y-45.899
X-8.98 Y-45.914
G3 X-8.383 Y-45.338 I-0.003 J0.6
G1 X-7.645 Y-26.902
G3 X-8.265 Y-26.278 I-0.6 J0.024
G1 X-10.48 Y-26.449
X-10.756 Y-26.484
X-10.982 Y-26.531
X-11.232 Y-26.605
X-11.492 Y-26.706
X-11.794 Y-26.851
X-12.09 Y-27.024
X-12.431 Y-27.262
X-12.768 Y-27.539
X-13.142 Y-27.902
X-13.507 Y-28.317
X-13.899 Y-28.844
X-14.294 Y-29.473
X-14.68 Y-30.214
X-15.024 Y-31.031
X-15.309 Y-31.87
X-15.542 Y-32.725
X-15.728 Y-33.591
X-15.872 Y-34.466
X-15.978 Y-35.345
X-16.049 Y-36.229
X-16.088 Y-37.114
X-16.095 Y-38
X-16.073 Y-38.886
X-16.022 Y-39.771
X-15.942 Y-40.653
X-15.831 Y-41.532
X-15.688 Y-42.407
X-15.505 Y-43.274
X-15.293 Y-44.057
X-15.098 Y-44.601
X-14.962 Y-44.902
X-14.804 Y-45.168
X-14.592 Y-45.392
X-14.336 Y-45.565
X-14.049 Y-45.677
X-13.744 Y-45.724
X-11.382 Y-45.821
G3 X-10.779 Y-45.252 I0.004 J0.6
G1 X-9.855 Y-27.079
G3 X-10.48 Y-26.449 I-0.599 J0.03
G1 X-11.889 Y-26.558
X-12.292 Y-26.59
X-12.896 Y-26.64
X-13.045 Y-26.659
X-13.275 Y-26.71
X-13.522 Y-26.785
X-13.787 Y-26.89
X-14.089 Y-27.038
X-14.387 Y-27.216
X-14.733 Y-27.461
X-15.067 Y-27.741
X-15.445 Y-28.113
X-15.808 Y-28.533
X-16.199 Y-29.066
X-16.597 Y-29.713
X-16.986 Y-30.475
X-17.324 Y-31.295
X-17.603 Y-32.136
X-17.83 Y-32.992
X-18.012 Y-33.859
X-18.152 Y-34.734
X-18.256 Y-35.614
X-18.325 Y-36.498
X-18.362 Y-37.383
X-18.369 Y-38.269
X-18.347 Y-39.155
X-18.295 Y-40.04
X-18.214 Y-40.922
X-18.101 Y-41.801
X-17.953 Y-42.675
X-17.76 Y-43.54
X-17.559 Y-44.205
X-17.365 Y-44.702
X-17.311 Y-44.813
X-17.156 Y-45.061
X-16.952 Y-45.272
X-16.71 Y-45.436
X-16.439 Y-45.545
X-16.15 Y-45.596
X-15.715 Y-45.627
X-15.313 Y-45.652
X-14.91 Y-45.676
X-13.744 Y-45.724
G3 X-13.141 Y-45.153 I0.004 J0.6
G1 X-12.268 Y-27.268
G3 X-12.896 Y-26.64 I-0.599 J0.029
G1 X-15.111 Y-26.823
X-15.321 Y-26.851
X-15.545 Y-26.9
X-15.796 Y-26.975
X-16.054 Y-27.077
X-16.355 Y-27.224
X-16.652 Y-27.4
X-16.99 Y-27.638
X-17.331 Y-27.923
X-17.701 Y-28.285
X-18.068 Y-28.708
X-18.46 Y-29.241
X-18.852 Y-29.874
X-19.239 Y-30.628
X-19.579 Y-31.446
X-19.86 Y-32.286
X-20.089 Y-33.142
X-20.273 Y-34.009
X-20.417 Y-34.884
X-20.523 Y-35.763
X-20.595 Y-36.646
X-20.636 Y-37.532
X-20.646 Y-38.418
X-20.626 Y-39.304
X-20.578 Y-40.188
X-20.498 Y-41.071
X-20.385 Y-41.95
X-20.232 Y-42.823
X-20.041 Y-43.642
X-19.856 Y-44.219
X-19.714 Y-44.565
X-19.565 Y-44.838
X-19.359 Y-45.07
X-19.108 Y-45.252
X-18.822 Y-45.374
X-18.517 Y-45.43
X-16.15 Y-45.596
G3 X-15.53 Y-45.032 I0.021 J0.6
G1 X-14.484 Y-27.458
G3 X-15.111 Y-26.823 I-0.599 J0.036
G1 X-15.917 Y-26.891
X-17.326 Y-27.013
X-17.61 Y-27.052
X-17.838 Y-27.103
X-18.085 Y-27.179
X-18.347 Y-27.283
X-18.648 Y-27.431
X-18.944 Y-27.608
X-19.286 Y-27.852
X-19.62 Y-28.133
X-19.995 Y-28.504
X-20.357 Y-28.925
X-20.748 Y-29.46
X-21.145 Y-30.107
X-21.532 Y-30.871
X-21.869 Y-31.691
X-22.147 Y-32.532
X-22.373 Y-33.389
X-22.555 Y-34.256
X-22.697 Y-35.131
X-22.802 Y-36.011
X-22.873 Y-36.894
X-22.912 Y-37.779
X-22.922 Y-38.665
X-22.901 Y-39.551
X-22.85 Y-40.436
X-22.767 Y-41.318
X-22.647 Y-42.196
X-22.483 Y-43.067
X-22.301 Y-43.758
X-22.123 Y-44.266
X-22.047 Y-44.437
X-21.895 Y-44.698
X-21.69 Y-44.921
X-21.442 Y-45.095
X-21.163 Y-45.211
X-20.866 Y-45.265
X-18.517 Y-45.43
G3 X-17.897 Y-44.872 I0.021 J0.6
G1 X-16.697 Y-27.654
G3 X-17.326 Y-27.013 I-0.599 J0.042
G1 X-19.743 Y-27.225
X-19.891 Y-27.246
X-20.119 Y-27.297
X-20.369 Y-27.375
X-20.63 Y-27.48
X-20.933 Y-27.631
X-21.231 Y-27.811
X-21.572 Y-28.056
X-21.911 Y-28.344
X-22.285 Y-28.717
X-22.649 Y-29.144
X-23.041 Y-29.686
X-23.438 Y-30.339
X-23.826 Y-31.112
X-24.158 Y-31.934
X-24.433 Y-32.776
X-24.658 Y-33.633
X-24.838 Y-34.501
X-24.978 Y-35.376
X-25.081 Y-36.256
X-25.151 Y-37.139
X-25.189 Y-38.025
X-25.197 Y-38.911
X-25.174 Y-39.797
X-25.119 Y-40.681
X-25.031 Y-41.563
X-24.901 Y-42.439
X-24.733 Y-43.24
X-24.564 Y-43.809
X-24.452 Y-44.101
X-24.313 Y-44.37
X-24.119 Y-44.604
X-23.879 Y-44.79
X-23.605 Y-44.92
X-23.309 Y-44.988
X-21.756 Y-45.17
X-21.152 Y-45.238
X-20.951 Y-45.259
X-20.866 Y-45.265
G3 X-20.246 Y-44.705 I0.021 J0.6
G1 X-19.112 Y-27.864
G3 X-19.743 Y-27.225 I-0.599 J0.04
G1 X-21.958 Y-27.423
X-22.168 Y-27.452
X-22.392 Y-27.502
X-22.644 Y-27.58
X-22.902 Y-27.683
X-23.203 Y-27.833
X-23.5 Y-28.011
X-23.837 Y-28.252
X-24.179 Y-28.542
X-24.547 Y-28.907
X-24.915 Y-29.336
X-25.307 Y-29.877
X-25.7 Y-30.52
X-26.087 Y-31.288
X-26.422 Y-32.108
X-26.699 Y-32.95
X-26.925 Y-33.807
X-27.107 Y-34.674
X-27.248 Y-35.549
X-27.353 Y-36.429
X-27.424 Y-37.312
X-27.463 Y-38.197
X-27.471 Y-39.084
X-27.448 Y-39.969
X-27.391 Y-40.854
X-27.296 Y-41.735
X-27.154 Y-42.609
X-26.996 Y-43.27
X-26.83 Y-43.774
X-26.794 Y-43.861
X-26.652 Y-44.12
X-26.458 Y-44.343
X-26.222 Y-44.521
X-25.954 Y-44.645
X-25.666 Y-44.711
X-23.309 Y-44.988
G3 X-22.662 Y-44.438 I0.049 J0.598
G1 X-21.327 Y-28.071
G3 X-21.958 Y-27.423 I-0.598 J0.049
G1 X-24.173 Y-27.622
X-24.447 Y-27.661
X-24.673 Y-27.711
X-24.923 Y-27.789
X-25.182 Y-27.892
X-25.483 Y-28.042
X-25.779 Y-28.22
X-26.118 Y-28.463
X-26.457 Y-28.75
X-26.827 Y-29.118
X-27.192 Y-29.544
X-27.584 Y-30.084
X-27.979 Y-30.733
X-28.367 Y-31.503
X-28.701 Y-32.323
X-28.977 Y-33.165
X-29.203 Y-34.022
X-29.384 Y-34.89
X-29.525 Y-35.765
X-29.629 Y-36.644
X-29.7 Y-37.528
X-29.737 Y-38.413
X-29.743 Y-39.299
X-29.715 Y-40.185
X-29.652 Y-41.069
X-29.544 Y-41.948
X-29.404 Y-42.692
X-29.26 Y-43.223
X-29.169 Y-43.475
X-29.039 Y-43.742
X-28.856 Y-43.976
X-28.628 Y-44.166
X-28.365 Y-44.303
X-28.079 Y-44.382
X-27.395 Y-44.493
X-27.193 Y-44.526
X-26.992 Y-44.555
X-25.666 Y-44.711
G3 X-25.019 Y-44.168 I0.049 J0.598
G1 X-23.542 Y-28.277
G3 X-24.173 Y-27.622 I-0.597 J0.056
G1 X-26.187 Y-27.804
X-26.589 Y-27.841
X-26.738 Y-27.862
X-26.967 Y-27.916
X-27.218 Y-27.995
X-27.481 Y-28.103
X-27.784 Y-28.257
X-28.083 Y-28.44
X-28.426 Y-28.691
X-28.764 Y-28.982
X-29.14 Y-29.361
X-29.504 Y-29.794
X-29.895 Y-30.343
X-30.293 Y-31.008
X-30.684 Y-31.799
X-31.011 Y-32.622
X-31.281 Y-33.466
X-31.502 Y-34.325
X-31.678 Y-35.193
X-31.814 Y-36.069
X-31.914 Y-36.949
X-31.978 Y-37.833
X-32.01 Y-38.718
X-32.007 Y-39.604
X-31.969 Y-40.49
X-31.889 Y-41.372
X-31.764 Y-42.186
X-31.632 Y-42.743
X-31.539 Y-43.031
X-31.418 Y-43.301
X-31.243 Y-43.541
X-31.021 Y-43.738
X-30.763 Y-43.884
X-30.48 Y-43.972
X-30.415 Y-43.985
X-29.811 Y-44.096
X-29.408 Y-44.163
X-28.079 Y-44.382
G3 X-27.405 Y-43.843 I0.077 J0.595
G1 X-25.958 Y-28.496
G3 X-26.589 Y-27.841 I-0.597 J0.056
G1 X-28.402 Y-28.008
X-28.804 Y-28.048
X-29.025 Y-28.081
X-29.25 Y-28.133
X-29.504 Y-28.214
X-29.762 Y-28.32
X-30.064 Y-28.472
X-30.364 Y-28.656
X-30.7 Y-28.901
X-31.047 Y-29.199
X-31.413 Y-29.569
X-31.783 Y-30.008
X-32.176 Y-30.56
X-32.569 Y-31.215
X-32.956 Y-31.998
X-33.283 Y-32.822
X-33.554 Y-33.666
X-33.774 Y-34.524
X-33.95 Y-35.392
X-34.086 Y-36.268
X-34.185 Y-37.149
X-34.247 Y-38.033
X-34.275 Y-38.918
X-34.267 Y-39.804
X-34.219 Y-40.689
X-34.12 Y-41.556
X-34.003 Y-42.155
X-33.905 Y-42.502
X-33.791 Y-42.786
X-33.618 Y-43.037
X-33.395 Y-43.246
X-33.131 Y-43.401
X-32.841 Y-43.495
X-32.429 Y-43.579
X-30.48 Y-43.972
G3 X-29.787 Y-43.446 I0.096 J0.592
G1 X-28.17 Y-28.712
G3 X-28.804 Y-28.048 I-0.596 J0.065
G1 X-29.207 Y-28.088
X-31.019 Y-28.274
X-31.384 Y-28.336
X-31.62 Y-28.397
X-31.869 Y-28.482
X-32.139 Y-28.6
X-32.443 Y-28.763
X-32.745 Y-28.957
X-33.094 Y-29.224
X-33.43 Y-29.526
X-33.808 Y-29.925
X-34.173 Y-30.378
X-34.559 Y-30.947
X-34.953 Y-31.64
X-35.328 Y-32.443
X-35.639 Y-33.272
X-35.896 Y-34.12
X-36.104 Y-34.982
X-36.267 Y-35.853
X-36.39 Y-36.73
X-36.475 Y-37.612
X-36.523 Y-38.497
X-36.532 Y-39.383
X-36.5 Y-40.269
X-36.418 Y-41.098
X-36.318 Y-41.659
X-36.248 Y-41.921
X-36.141 Y-42.201
X-35.977 Y-42.452
X-35.763 Y-42.662
X-35.509 Y-42.822
X-35.227 Y-42.924
X-33.211 Y-43.416
X-33.033 Y-43.455
X-32.841 Y-43.495
G3 X-32.145 Y-42.978 I0.101 J0.591
G1 X-30.384 Y-28.947
G3 X-31.019 Y-28.274 I-0.595 J0.075
G1 X-31.221 Y-28.298
X-32.026 Y-28.401
X-33.033 Y-28.532
X-33.164 Y-28.551
X-33.637 Y-28.628
X-33.849 Y-28.675
X-34.094 Y-28.75
X-34.346 Y-28.849
X-34.625 Y-28.986
X-34.933 Y-29.17
X-35.243 Y-29.39
X-35.596 Y-29.686
X-35.936 Y-30.021
X-36.312 Y-30.456
X-36.688 Y-30.971
X-37.068 Y-31.589
X-37.454 Y-32.345
X-37.791 Y-33.165
X-38.07 Y-34.006
X-38.296 Y-34.863
X-38.476 Y-35.73
X-38.613 Y-36.606
X-38.71 Y-37.487
X-38.767 Y-38.371
X-38.781 Y-39.257
X-38.746 Y-40.142
X-38.668 Y-40.802
X-38.589 Y-41.196
X-38.497 Y-41.486
X-38.345 Y-41.75
X-38.139 Y-41.974
X-37.89 Y-42.148
X-37.608 Y-42.265
X-36.418 Y-42.612
X-35.852 Y-42.771
X-35.227 Y-42.924
G3 X-34.509 Y-42.406 I0.122 J0.587
G1 X-32.966 Y-29.294
G3 X-33.637 Y-28.628 I-0.596 J0.07
G1 X-33.839 Y-28.662
X-35.047 Y-28.88
X-35.248 Y-28.921
X-35.852 Y-29.061
X-36.221 Y-29.154
X-36.516 Y-29.244
X-36.773 Y-29.346
X-37.028 Y-29.471
X-37.32 Y-29.645
X-37.628 Y-29.864
X-37.947 Y-30.131
X-38.293 Y-30.473
X-38.643 Y-30.878
X-39.005 Y-31.373
X-39.382 Y-31.986
X-39.757 Y-32.723
X-40.094 Y-33.542
X-40.37 Y-34.384
X-40.591 Y-35.243
X-40.763 Y-36.112
X-40.889 Y-36.989
X-40.971 Y-37.871
X-41.008 Y-38.757
X-40.99 Y-39.597
X-40.932 Y-40.166
X-40.881 Y-40.444
X-40.798 Y-40.727
X-40.657 Y-40.986
X-40.465 Y-41.21
X-40.23 Y-41.388
X-39.963 Y-41.514
X-39.276 Y-41.752
X-38.671 Y-41.955
X-37.608 Y-42.265
G3 X-36.865 Y-41.752 I0.148 J0.582
G1 X-35.499 Y-29.809
G3 X-36.221 Y-29.154 I-0.596 J0.068
G1 X-37.061 Y-29.365
X-37.262 Y-29.42
X-37.463 Y-29.484
X-38.47 Y-29.822
X-38.671 Y-29.891
X-39.074 Y-30.032
X-39.32 Y-30.133
X-39.577 Y-30.264
X-39.845 Y-30.429
X-40.128 Y-30.636
X-40.445 Y-30.909
X-40.753 Y-31.221
X-41.093 Y-31.627
X-41.431 Y-32.102
X-41.776 Y-32.681
X-42.124 Y-33.389
X-42.45 Y-34.213
X-42.711 Y-35.06
X-42.915 Y-35.922
X-43.066 Y-36.796
X-43.165 Y-37.676
X-43.204 Y-38.511
X-43.183 Y-39.146
X-43.141 Y-39.519
X-43.076 Y-39.81
X-42.95 Y-40.081
X-42.77 Y-40.319
X-42.544 Y-40.514
X-42.282 Y-40.656
X-41.893 Y-40.814
X-41.289 Y-41.053
X-41.088 Y-41.124
X-39.963 Y-41.514
G3 X-39.188 Y-40.992 I0.177 J0.573
G1 X-38.298 Y-30.656
G3 X-39.074 Y-30.032 I-0.598 J0.051
G1 X-39.276 Y-30.103
X-40.887 Y-30.786
X-41.088 Y-30.877
X-41.289 Y-30.975
X-41.692 Y-31.18
X-42.05 Y-31.363
X-42.311 Y-31.514
X-42.571 Y-31.693
X-42.833 Y-31.906
X-43.114 Y-32.175
X-43.41 Y-32.508
X-43.712 Y-32.909
X-44.02 Y-33.393
X-44.336 Y-33.991
X-44.631 Y-34.679
X-44.897 Y-35.47
X-45.112 Y-36.329
X-45.25 Y-37.162
X-45.307 Y-37.833
X-45.309 Y-38.344
X-45.294 Y-38.534
X-45.242 Y-38.819
X-45.133 Y-39.088
X-44.97 Y-39.328
X-44.762 Y-39.529
X-44.516 Y-39.683
X-44.108 Y-39.884
X-43.907 Y-39.978
X-43.303 Y-40.236
X-42.282 Y-40.656
G3 X-41.474 Y-40.113 I0.209 J0.563
G1 X-41.196 Y-31.927
G3 X-42.05 Y-31.363 I-0.6 J0.02
G1 X-42.699 Y-31.696
X-43.303 Y-32.029
X-43.539 Y-32.167
X-44.713 Y-32.87
X-45.167 Y-33.202
X-45.394 Y-33.397
X-45.649 Y-33.654
X-45.903 Y-33.957
X-46.163 Y-34.321
X-46.417 Y-34.745
X-46.662 Y-35.241
X-46.871 Y-35.767
X-47.032 Y-36.29
X-47.14 Y-36.778
X-47.197 Y-37.19
X-47.206 Y-37.347
X-47.19 Y-37.65
X-47.11 Y-37.942
X-46.969 Y-38.21
X-46.773 Y-38.442
X-46.532 Y-38.626
G3 X-45.68 Y-38.318 I0.292 J0.524
G1 X-43.863 Y-33.612
G3 X-44.713 Y-32.87 I-0.56 J0.216
G1 X-44.914 Y-33.003
X-45.317 Y-33.269
X-45.469 Y-33.372
X-46.618 Y-34.176
X-46.726 Y-34.254
X-46.878 Y-34.376
X-47.532 Y-34.924
X-47.75 Y-35.125
X-47.922 Y-35.313
X-48.076 Y-35.51
X-48.225 Y-35.736
X-48.346 Y-35.955
X-48.384 Y-36.042
X-48.481 Y-36.344
X-48.507 Y-36.66
X-48.461 Y-36.975
X-48.345 Y-37.27
X-48.165 Y-37.532
X-47.932 Y-37.747
G3 X-47.011 Y-37.386 I0.336 J0.497
G1 X-46.579 Y-35.533
G3 X-47.532 Y-34.924 I-0.584 J0.136
G1 X-48.136 Y-35.429
X-48.297 Y-35.582
X-48.337 Y-35.62
X-48.539 Y-35.822
X-48.699 Y-35.983
X-48.871 Y-36.184
X-48.91 Y-36.234
X-48.941 Y-36.284
X-48.967 Y-36.335
X-48.987 Y-36.385
X-49.011 Y-36.486
X-49.019 Y-36.586
X-49.009 Y-36.687
X-48.981 Y-36.787
X-48.941 Y-36.873
X-48.905 Y-36.93
X-48.858 Y-36.988
X-48.74 Y-37.103
X-48.638 Y-37.189
X-48.136 Y-37.597
X-47.871 Y-37.791
X-47.733 Y-37.89
X-47.532 Y-38.018
X-47.33 Y-38.143
X-46.122 Y-38.873
X-45.921 Y-38.983
X-45.501 Y-39.197
X-45.317 Y-39.29
X-44.516 Y-39.683
G3 X-43.805 Y-39.515 I0.246 J0.547
G1 X-43.746 Y-39.443 Z-6.993
X-43.688 Y-39.372 Z-6.971
X-43.633 Y-39.304 Z-6.935
X-43.583 Y-39.242 Z-6.885
X-43.537 Y-39.187 Z-6.824
X-43.499 Y-39.139 Z-6.753
X-43.468 Y-39.101 Z-6.672
X-43.445 Y-39.073 Z-6.585
X-43.431 Y-39.056 Z-6.494
X-43.426 Y-39.05 Z-6.4
G0 Z5
X20.933 Y35.412
Z3
Z2
G1 Z-7 F333.3
X20.934 Y35.449 F1000
X20.897 Y35.443
X20.879 Y35.41
X20.888 Y35.374
X20.918 Y35.351
X20.955 Y35.35
X20.989 Y35.366
X21.015 Y35.393
X21.03 Y35.427
Y35.465
X21.016 Y35.5
X20.993 Y35.529
X20.962 Y35.551
X20.891 Y35.575
X20.817 Y35.563
X20.755 Y35.522
X20.712 Y35.46
X20.694 Y35.387
X20.7 Y35.312
X20.728 Y35.243
X20.823 Y35.127
X20.963 Y35.072
X21.112 Y35.084
X21.245 Y35.153
X21.344 Y35.266
X21.398 Y35.406
X21.404 Y35.556
X21.367 Y35.701
X21.29 Y35.83
X21.182 Y35.934
X21.05 Y36.006
X20.905 Y36.043
X20.755 Y36.046
X20.609 Y36.013
X20.473 Y35.949
X20.354 Y35.857
X20.257 Y35.743
X20.186 Y35.611
X20.139 Y35.468
X20.119 Y35.32
X20.127 Y35.17
X20.161 Y35.024
X20.219 Y34.885
X20.3 Y34.759
X20.4 Y34.647
X20.517 Y34.553
X20.647 Y34.478
X20.786 Y34.423
X20.933 Y34.391
X21.082 Y34.38
X21.232 Y34.39
X21.379 Y34.422
X21.52 Y34.473
X21.652 Y34.543
X21.775 Y34.63
X21.885 Y34.732
X21.981 Y34.847
X22.062 Y34.973
X22.126 Y35.109
X22.174 Y35.251
X22.204 Y35.398
X22.217 Y35.547
X22.213 Y35.697
X22.191 Y35.846
X22.153 Y35.991
X22.099 Y36.131
X22.031 Y36.264
X21.948 Y36.389
X21.852 Y36.505
X21.745 Y36.609
X21.627 Y36.703
X21.501 Y36.783
X21.367 Y36.851
X21.227 Y36.904
X21.082 Y36.943
X20.934 Y36.969
X20.784 Y36.979
X20.634 Y36.975
X20.485 Y36.957
X20.339 Y36.925
X20.196 Y36.88
X20.058 Y36.822
X19.925 Y36.751
X19.8 Y36.669
X19.682 Y36.576
X19.573 Y36.473
X19.473 Y36.361
X19.383 Y36.241
X19.304 Y36.114
X19.236 Y35.98
X19.179 Y35.842
X19.134 Y35.698
X19.1 Y35.552
X19.079 Y35.4
X19.07 Y35.251
X19.073 Y35.096
X19.088 Y34.946
X19.117 Y34.792
X19.156 Y34.644
X19.21 Y34.493
X19.274 Y34.352
X19.352 Y34.21
X19.439 Y34.079
X19.541 Y33.948
X19.65 Y33.83
X19.773 Y33.716
X19.902 Y33.615
X20.043 Y33.522
X20.191 Y33.44
X20.344 Y33.371
X20.507 Y33.312
X20.671 Y33.268
X20.846 Y33.235
X21.019 Y33.217
X21.196 Y33.213
X21.376 Y33.224
X21.552 Y33.248
X21.732 Y33.288
X21.906 Y33.341
X22.076 Y33.409
X22.245 Y33.493
X22.404 Y33.588
X22.558 Y33.698
X22.705 Y33.822
X22.84 Y33.956
X22.966 Y34.102
X23.082 Y34.262
X23.184 Y34.428
X23.273 Y34.604
X23.35 Y34.791
X23.411 Y34.982
X23.456 Y35.177
X23.486 Y35.381
X23.5 Y35.587
X23.497 Y35.793
X23.478 Y35.999
X23.441 Y36.209
X23.388 Y36.414
X23.318 Y36.615
X23.232 Y36.81
X23.129 Y37.002
X23.01 Y37.185
X22.876 Y37.359
X22.729 Y37.522
X22.567 Y37.673
X22.391 Y37.814
X22.203 Y37.941
X22.005 Y38.052
X21.798 Y38.148
X21.583 Y38.227
X21.36 Y38.289
X21.13 Y38.334
X20.896 Y38.36
X20.658 Y38.368
X20.42 Y38.356
X20.183 Y38.325
X19.947 Y38.275
X19.715 Y38.205
X19.487 Y38.117
X19.265 Y38.009
X19.051 Y37.883
X18.846 Y37.74
X18.652 Y37.579
X18.47 Y37.402
X18.302 Y37.21
X18.149 Y37.004
X18.013 Y36.784
X17.893 Y36.553
X17.792 Y36.312
X17.71 Y36.061
X17.648 Y35.804
X17.607 Y35.54
X17.587 Y35.273
X17.588 Y35.003
X17.611 Y34.732
X17.656 Y34.462
X17.723 Y34.195
X17.812 Y33.933
X17.922 Y33.678
X18.053 Y33.43
X18.204 Y33.193
X18.375 Y32.967
X18.565 Y32.754
X18.772 Y32.556
X18.996 Y32.374
X19.236 Y32.209
X19.489 Y32.064
X19.755 Y31.938
X20.032 Y31.834
X20.318 Y31.752
X20.611 Y31.692
X20.91 Y31.656
X21.212 Y31.644
X21.516 Y31.657
X21.821 Y31.694
X22.123 Y31.756
X22.42 Y31.842
X22.712 Y31.952
X22.995 Y32.087
X23.268 Y32.244
X23.529 Y32.424
X23.776 Y32.625
X24.008 Y32.847
X24.222 Y33.088
X24.417 Y33.347
X24.592 Y33.622
X24.744 Y33.912
X24.874 Y34.215
X24.98 Y34.529
X25.061 Y34.852
X25.115 Y35.182
X25.143 Y35.518
X25.144 Y35.856
X25.118 Y36.196
X25.065 Y36.534
X24.984 Y36.868
X24.876 Y37.196
X24.741 Y37.517
X24.58 Y37.827
X24.393 Y38.125
X24.182 Y38.408
X23.948 Y38.675
X23.692 Y38.924
X23.416 Y39.152
X23.12 Y39.359
X22.807 Y39.542
X22.479 Y39.701
X22.137 Y39.833
X21.784 Y39.938
X21.422 Y40.014
X21.053 Y40.061
X20.68 Y40.079
X20.305 Y40.067
X19.93 Y40.024
X19.557 Y39.951
X19.19 Y39.848
X18.831 Y39.715
X18.481 Y39.553
X18.144 Y39.363
X17.822 Y39.145
X17.517 Y38.9
X17.232 Y38.631
X16.967 Y38.338
X16.726 Y38.024
X16.51 Y37.689
X16.32 Y37.337
X16.159 Y36.968
X16.027 Y36.587
X15.925 Y36.194
X15.855 Y35.792
X15.818 Y35.384
X15.813 Y34.972
X15.841 Y34.56
X15.903 Y34.149
X15.998 Y33.743
X16.126 Y33.344
X16.286 Y32.954
X16.478 Y32.577
X16.7 Y32.215
X16.952 Y31.87
X17.232 Y31.545
X17.539 Y31.243
X17.871 Y30.964
X18.225 Y30.712
X18.601 Y30.488
X18.994 Y30.294
X19.404 Y30.132
X19.828 Y30.002
X20.262 Y29.907
X20.705 Y29.846
X21.153 Y29.821
X21.604 Y29.832
X22.054 Y29.88
X22.501 Y29.963
X22.942 Y30.083
X23.373 Y30.239
X23.793 Y30.429
X24.197 Y30.654
X24.584 Y30.911
X24.951 Y31.2
X25.294 Y31.518
X25.612 Y31.865
X25.903 Y32.238
X26.164 Y32.634
X26.393 Y33.052
X26.589 Y33.488
X26.75 Y33.941
X26.874 Y34.407
X26.961 Y34.883
X27.009 Y35.367
X27.019 Y35.855
X26.989 Y36.345
X26.92 Y36.832
X26.812 Y37.314
X26.664 Y37.788
X26.479 Y38.25
X26.256 Y38.698
X25.996 Y39.128
X25.702 Y39.538
X25.374 Y39.924
X25.016 Y40.284
X24.627 Y40.616
X24.212 Y40.916
X23.773 Y41.183
X23.311 Y41.415
X22.831 Y41.61
X22.334 Y41.767
X21.825 Y41.883
X21.305 Y41.958
X20.78 Y41.992
X20.251 Y41.984
X19.722 Y41.932
X19.198 Y41.838
X18.68 Y41.702
X18.173 Y41.524
X17.68 Y41.305
X17.205 Y41.047
X16.75 Y40.75
X16.319 Y40.416
X15.915 Y40.047
X15.54 Y39.645
X15.197 Y39.213
X14.889 Y38.753
X14.618 Y38.269
X14.385 Y37.762
X14.194 Y37.236
X14.045 Y36.695
X13.939 Y36.141
X13.878 Y35.579
X13.862 Y35.011
X13.892 Y34.442
X13.967 Y33.875
X14.089 Y33.314
X14.255 Y32.763
X14.466 Y32.225
X14.721 Y31.703
X15.017 Y31.202
X15.354 Y30.725
X15.73 Y30.274
X16.142 Y29.854
X16.588 Y29.467
X17.066 Y29.115
X17.572 Y28.802
X18.103 Y28.53
X18.656 Y28.3
X19.228 Y28.114
X19.816 Y27.975
X20.414 Y27.883
X21.02 Y27.839
X21.63 Y27.844
X22.24 Y27.898
X22.845 Y28.001
X23.442 Y28.153
X24.027 Y28.353
X24.596 Y28.6
X25.145 Y28.893
X25.67 Y29.23
X26.169 Y29.61
X26.637 Y30.03
X27.071 Y30.487
X27.468 Y30.98
X27.826 Y31.504
X28.142 Y32.058
X28.413 Y32.636
X28.637 Y33.237
X28.813 Y33.856
X28.94 Y34.489
X29.015 Y35.132
X29.038 Y35.781
X29.01 Y36.432
X28.928 Y37.081
X28.795 Y37.723
X28.61 Y38.354
X28.374 Y38.971
X28.088 Y39.568
X27.755 Y40.143
X27.375 Y40.69
X26.951 Y41.208
X26.485 Y41.69
X25.98 Y42.136
X25.44 Y42.541
X24.867 Y42.902
X24.265 Y43.217
X23.638 Y43.484
X22.989 Y43.7
X22.323 Y43.864
X21.644 Y43.974
X20.955 Y44.029
X20.263
X19.57 Y43.974
X18.883 Y43.862
X18.204 Y43.696
X17.539 Y43.474
X16.891 Y43.199
X16.266 Y42.872
X15.668 Y42.495
X15.099 Y42.07
X14.566 Y41.599
X14.07 Y41.085
X13.616 Y40.532
X13.206 Y39.942
X12.844 Y39.319
X12.532 Y38.667
X12.273 Y37.991
X12.069 Y37.293
X11.92 Y36.58
X11.829 Y35.854
X11.797 Y35.122
X11.823 Y34.387
X11.909 Y33.655
X12.053 Y32.929
X12.256 Y32.216
X12.516 Y31.519
X12.832 Y30.843
X13.203 Y30.193
X13.626 Y29.573
X14.098 Y28.987
X14.618 Y28.439
X15.181 Y27.933
X15.785 Y27.473
X16.426 Y27.062
X17.1 Y26.702
X17.802 Y26.396
X18.529 Y26.148
X19.276 Y25.958
X20.037 Y25.828
X20.809 Y25.759
X21.586 Y25.752
X22.363 Y25.808
X23.136 Y25.927
X23.898 Y26.108
X24.646 Y26.35
X25.374 Y26.652
X26.077 Y27.012
X26.751 Y27.429
X27.391 Y27.9
X27.992 Y28.422
X28.552 Y28.992
X29.065 Y29.608
X29.529 Y30.264
X29.939 Y30.957
X30.294 Y31.682
X30.59 Y32.436
X30.825 Y33.214
X30.997 Y34.009
X31.105 Y34.819
X31.148 Y35.636
X31.126 Y36.457
X31.037 Y37.275
X30.882 Y38.085
X30.663 Y38.883
X30.379 Y39.663
X30.033 Y40.419
X29.626 Y41.147
X29.16 Y41.842
X28.639 Y42.499
X28.066 Y43.114
X27.443 Y43.682
X26.775 Y44.2
X26.066 Y44.663
X25.32 Y45.07
X24.541 Y45.416
X23.736 Y45.699
X22.907 Y45.917
X22.848 Y45.928
X22.782 Y45.938
X22.715 Y45.945
X22.648 Y45.949
X21.337 Y45.992
X20.531 Y46.011
X19.645 Y45.983
X18.921 Y45.925
X18.168 Y45.803
X17.4 Y45.615
X16.629 Y45.358
X15.866 Y45.034
X15.119 Y44.644
X14.397 Y44.189
X13.707 Y43.672
X13.056 Y43.098
X12.449 Y42.468
X11.891 Y41.788
X11.387 Y41.062
X10.941 Y40.296
X10.559 Y39.497
X10.241 Y38.67
X9.99 Y37.82
X9.808 Y36.953
X9.694 Y36.074
X9.65 Y35.189
X9.675 Y34.303
X9.77 Y33.422
X9.934 Y32.551
X10.165 Y31.696
X10.463 Y30.861
X10.824 Y30.052
X11.247 Y29.273
X11.728 Y28.529
X12.266 Y27.825
X12.856 Y27.164
X13.495 Y26.55
X14.179 Y25.987
X14.904 Y25.477
X15.434 Y25.161
X15.645 Y25.058
X15.871 Y24.992
X16.104 Y24.965
X16.906 Y24.939
X19.927 Y24.846
X23.35 Y24.762
X23.954 Y24.749
X24.156 Y24.745
X24.72 Y24.762
X25.18 Y24.814
X25.689 Y24.913
X26.254 Y25.071
X26.821 Y25.279
X27.44 Y25.565
X28.089 Y25.931
X28.736 Y26.367
X29.363 Y26.868
X29.981 Y27.449
X30.576 Y28.105
X31.117 Y28.808
X31.601 Y29.55
X32.028 Y30.326
X32.396 Y31.132
X32.704 Y31.963
X32.95 Y32.814
X33.134 Y33.681
X33.254 Y34.559
X33.309 Y35.444
X33.3 Y36.33
X33.227 Y37.213
X33.092 Y38.089
X32.896 Y38.953
X32.639 Y39.801
X32.324 Y40.629
X31.95 Y41.433
X31.52 Y42.207
X31.035 Y42.949
X30.499 Y43.654
X29.915 Y44.321
X29.286 Y44.945
X28.72 Y45.435
X28.459 Y45.614
X28.164 Y45.729
X27.851 Y45.775
X22.648 Y45.949
G3 X22.393 Y45.901 I-0.02 J-0.6
G1 X22.332 Y45.879
X21.893 Y45.745
X21.772 Y45.709
G2 X21.28 Y45.773 I-0.175 J0.574
G3 X20.531 Y46.011 I-0.837 J-1.343
G1 X15.698 Y46.105
X15.283 Y46.092
X14.92 Y46.051
X14.54 Y45.978
X14.105 Y45.857
X13.644 Y45.687
X13.124 Y45.448
X12.607 Y45.157
X12.034 Y44.771
X11.444 Y44.3
X10.878 Y43.769
X10.306 Y43.138
X9.765 Y42.436
X9.28 Y41.694
X8.851 Y40.918
X8.478 Y40.114
X8.164 Y39.286
X7.909 Y38.437
X7.712 Y37.573
X7.574 Y36.698
X7.493 Y35.816
X7.47 Y34.93
X7.507 Y34.044
X7.603 Y33.164
X7.758 Y32.291
X7.97 Y31.431
X8.236 Y30.586
X8.556 Y29.759
X8.929 Y28.955
X9.355 Y28.178
X9.832 Y27.431
X10.355 Y26.716
X10.923 Y26.036
X11.385 Y25.55
X11.588 Y25.374
X11.822 Y25.239
X12.077 Y25.152
X12.344 Y25.115
X15.9 Y24.972
X16.104 Y24.965
G3 X16.359 Y25.013 I0.02 J0.6
G1 X16.435 Y25.039
X16.513 Y25.055
X16.594 Y25.061
X16.876
X23.09 Y25.071
G2 X23.407 Y24.98 I0 J-0.6
G3 X24.156 Y24.745 I0.834 J1.345
G1 X27.378 Y24.684
X27.78 Y24.679
X28.139 Y24.692
X28.454 Y24.729
X28.791 Y24.796
X29.187 Y24.909
X29.584 Y25.058
X30.054 Y25.278
X30.516 Y25.541
X31.035 Y25.895
X31.576 Y26.332
X32.107 Y26.836
X32.656 Y27.45
X33.193 Y28.155
X33.672 Y28.9
X34.096 Y29.678
X34.465 Y30.484
X34.777 Y31.313
X35.032 Y32.162
X35.232 Y33.025
X35.377 Y33.899
X35.468 Y34.781
X35.504 Y35.666
X35.487 Y36.552
X35.413 Y37.435
X35.285 Y38.312
X35.105 Y39.18
X34.873 Y40.035
X34.59 Y40.875
X34.259 Y41.696
X33.877 Y42.496
X33.446 Y43.271
X32.969 Y44.017
X32.449 Y44.734
X32.134 Y45.118
X31.926 Y45.324
X31.679 Y45.481
X31.405 Y45.585
X31.116 Y45.629
X28.385 Y45.754
X27.982 Y45.771
X27.851 Y45.775
G3 X27.272 Y45.33 I0.001 J-0.6
G1 X27.248 Y45.239 Z-6.993
X27.224 Y45.151 Z-6.971
X27.202 Y45.067 Z-6.935
X27.181 Y44.989 Z-6.885
X27.163 Y44.92 Z-6.824
X27.147 Y44.861 Z-6.753
X27.134 Y44.813 Z-6.672
X27.125 Y44.778 Z-6.585
X27.119 Y44.757 Z-6.494
X27.118 Y44.75 Z-6.4
G0 Z-5.8
X16.957 Y45.552
G1 Z-6.4 F1000
X16.951 Y45.556 Z-6.494
X16.932 Y45.568 Z-6.585
X16.901 Y45.587 Z-6.672
X16.86 Y45.612 Z-6.753
X16.808 Y45.645 Z-6.824
X16.747 Y45.683 Z-6.885
X16.679 Y45.725 Z-6.935
X16.605 Y45.771 Z-6.971
X16.527 Y45.819 Z-6.993
X16.447 Y45.869 Z-7
G3 X15.698 Y46.105 I-0.835 J-1.344
G1 X14.691 Y46.124
X14.49 Y46.127
X12.476 Y46.14
X12.247 Y46.13
X11.962 Y46.094
X11.639 Y46.027
X11.303 Y45.929
X10.906 Y45.777
X10.514 Y45.589
X10.054 Y45.322
X9.602 Y45.009
X9.103 Y44.6
X8.578 Y44.094
X8.068 Y43.517
X7.554 Y42.831
X7.081 Y42.081
X6.666 Y41.298
X6.307 Y40.488
X6.002 Y39.656
X5.75 Y38.807
X5.551 Y37.944
X5.405 Y37.069
X5.311 Y36.188
X5.269 Y35.303
X5.278 Y34.417
X5.338 Y33.533
X5.447 Y32.654
X5.606 Y31.782
X5.815 Y30.921
X6.073 Y30.073
X6.378 Y29.241
X6.729 Y28.427
X7.125 Y27.635
X7.564 Y26.865
X8.045 Y26.121
X8.275 Y25.808
X8.487 Y25.577
X8.746 Y25.399
X9.038 Y25.284
X9.348 Y25.236
X12.344 Y25.115
G3 X12.926 Y25.557 I0.003 J0.6
G1 X12.951 Y25.647 Z-6.993
X12.975 Y25.736 Z-6.971
X12.998 Y25.819 Z-6.935
X13.019 Y25.897 Z-6.885
X13.038 Y25.966 Z-6.824
X13.054 Y26.025 Z-6.753
X13.067 Y26.072 Z-6.672
X13.077 Y26.107 Z-6.585
X13.082 Y26.128 Z-6.494
X13.084 Y26.135 Z-6.4
G0 Z-5.8
X26.518 Y25.224
G1 Z-6.4 F1000
X26.525 Y25.22 Z-6.494
X26.543 Y25.209 Z-6.585
X26.574 Y25.19 Z-6.672
X26.616 Y25.164 Z-6.753
X26.668 Y25.132 Z-6.824
X26.729 Y25.095 Z-6.885
X26.798 Y25.053 Z-6.935
X26.872 Y25.007 Z-6.971
X26.95 Y24.96 Z-6.993
X27.03 Y24.91 Z-7
G3 X27.78 Y24.679 I0.827 J1.349
G1 X30.6 Y24.641
X30.92 Y24.654
X31.2 Y24.688
X31.487 Y24.746
X31.815 Y24.841
X32.176 Y24.978
X32.556 Y25.158
X32.983 Y25.403
X33.419 Y25.703
X33.888 Y26.085
X34.391 Y26.566
X34.882 Y27.119
X35.382 Y27.78
X35.857 Y28.528
X36.273 Y29.31
X36.634 Y30.12
X36.941 Y30.951
X37.196 Y31.8
X37.4 Y32.662
X37.553 Y33.535
X37.656 Y34.415
X37.71 Y35.3
X37.715 Y36.186
X37.673 Y37.071
X37.585 Y37.952
X37.45 Y38.828
X37.268 Y39.696
X37.04 Y40.552
X36.768 Y41.395
X36.451 Y42.222
X36.09 Y43.032
X35.689 Y43.822
X35.247 Y44.59
X35.059 Y44.873
X34.894 Y45.077
X34.693 Y45.247
X34.465 Y45.377
X34.216 Y45.461
X33.956 Y45.498
X31.116 Y45.629
G3 X30.532 Y45.19 I-0.007 J-0.6
G1 X30.506 Y45.1 Z-6.993
X30.482 Y45.012 Z-6.971
X30.458 Y44.928 Z-6.935
X30.437 Y44.851 Z-6.885
X30.417 Y44.782 Z-6.824
X30.401 Y44.723 Z-6.753
X30.388 Y44.675 Z-6.672
X30.378 Y44.641 Z-6.585
X30.372 Y44.62 Z-6.494
X30.37 Y44.612 Z-6.4
G0 Z-5.8
X13.742 Y45.604
G1 Z-6.4 F1000
X13.736 Y45.608 Z-6.494
X13.717 Y45.619 Z-6.585
X13.686 Y45.638 Z-6.672
X13.644 Y45.663 Z-6.753
X13.592 Y45.695 Z-6.824
X13.531 Y45.732 Z-6.885
X13.462 Y45.773 Z-6.935
X13.387 Y45.818 Z-6.971
X13.309 Y45.865 Z-6.993
X13.229 Y45.914 Z-7
G3 X12.476 Y46.14 I-0.817 J-1.355
G1 X9.859 Y46.156
X9.614 Y46.145
X9.349 Y46.112
X9.076 Y46.055
X8.751 Y45.96
X8.424 Y45.835
X8.048 Y45.656
X7.658 Y45.429
X7.229 Y45.132
X6.794 Y44.775
X6.317 Y44.316
X5.845 Y43.781
X5.367 Y43.143
X4.894 Y42.393
X4.482 Y41.609
X4.126 Y40.797
X3.824 Y39.964
X3.572 Y39.115
X3.37 Y38.252
X3.218 Y37.379
X3.114 Y36.499
X3.057 Y35.615
X3.046 Y34.729
X3.08 Y33.843
X3.158 Y32.961
X3.28 Y32.083
X3.446 Y31.212
X3.656 Y30.352
X3.909 Y29.502
X4.204 Y28.667
X4.54 Y27.847
X4.916 Y27.044
X5.33 Y26.261
X5.476 Y26.026
X5.639 Y25.813
X5.84 Y25.634
X6.071 Y25.498
X6.324 Y25.408
X6.59 Y25.368
X7.845 Y25.3
X8.449 Y25.273
X9.348 Y25.236
G3 X9.951 Y25.821 I0.003 J0.6
G1 X10.434 Y45.542
G3 X9.859 Y46.156 I-0.6 J0.015
G1 X8.65 Y46.163
X8.046 Y46.164
X7.643 Y46.162
X7.442 Y46.161
X7.096 Y46.142
X6.861 Y46.11
X6.581 Y46.049
X6.291 Y45.96
X5.967 Y45.832
X5.615 Y45.659
X5.247 Y45.439
X4.84 Y45.151
X4.425 Y44.802
X3.989 Y44.372
X3.524 Y43.834
X3.065 Y43.206
X2.609 Y42.464
X2.207 Y41.675
X1.862 Y40.858
X1.571 Y40.022
X1.33 Y39.169
X1.137 Y38.304
X0.989 Y37.43
X0.885 Y36.55
X0.825 Y35.666
X0.807 Y34.78
X0.831 Y33.894
X0.896 Y33.011
X1.001 Y32.131
X1.146 Y31.257
X1.329 Y30.39
X1.551 Y29.532
X1.81 Y28.684
X2.106 Y27.849
X2.44 Y27.028
X2.758 Y26.359
X2.847 Y26.205
X3.009 Y25.98
X3.212 Y25.791
X3.449 Y25.646
X3.709 Y25.55
X3.984 Y25.508
X6.59 Y25.368
G3 X7.201 Y25.942 I0.011 J0.6
G1 X8.024 Y45.536
G3 X7.442 Y46.161 I-0.599 J0.025
G1 X5.026 Y46.148
X4.708 Y46.131
X4.479 Y46.1
X4.207 Y46.04
X3.931 Y45.956
X3.616 Y45.831
X3.28 Y45.666
X2.922 Y45.453
X2.533 Y45.176
X2.133 Y44.841
X1.713 Y44.426
X1.265 Y43.907
X0.828 Y43.31
X0.384 Y42.589
X-0.018 Y41.799
X-0.361 Y40.982
X-0.651 Y40.145
X-0.891 Y39.292
X-1.086 Y38.427
X-1.236 Y37.554
X-1.345 Y36.675
X-1.413 Y35.791
X-1.44 Y34.905
X-1.428 Y34.019
X-1.378 Y33.135
X-1.291 Y32.253
X-1.168 Y31.375
X-1.009 Y30.503
X-0.816 Y29.639
X-0.589 Y28.782
X-0.328 Y27.935
X-0.028 Y27.101
X0.229 Y26.522
X0.31 Y26.373
X0.471 Y26.137
X0.676 Y25.94
X0.917 Y25.788
X1.183 Y25.687
X1.465 Y25.643
X3.984 Y25.508
G3 X4.594 Y26.076 I0.011 J0.6
G1 X5.607 Y45.518
G3 X5.026 Y46.148 I-0.599 J0.031
G1 X2.609 Y46.136
X2.37 Y46.122
X2.14 Y46.09
X1.873 Y46.03
X1.603 Y45.947
X1.287 Y45.821
X0.969 Y45.663
X0.61 Y45.448
X0.241 Y45.184
X-0.161 Y44.845
X-0.564 Y44.446
X-0.999 Y43.938
X-1.436 Y43.338
X-1.869 Y42.628
X-2.269 Y41.838
X-2.61 Y41.019
X-2.896 Y40.181
X-3.135 Y39.328
X-3.328 Y38.463
X-3.478 Y37.589
X-3.588 Y36.71
X-3.659 Y35.827
X-3.692 Y34.941
X-3.689 Y34.055
X-3.649 Y33.17
X-3.575 Y32.287
X-3.468 Y31.407
X-3.327 Y30.533
X-3.155 Y29.663
X-2.95 Y28.801
X-2.711 Y27.948
X-2.447 Y27.163
X-2.221 Y26.635
X-2.167 Y26.534
X-2.01 Y26.297
X-1.807 Y26.097
X-1.569 Y25.941
X-1.304 Y25.838
X-1.023 Y25.79
X-0.21 Y25.735
X0.596 Y25.69
X1.465 Y25.643
G3 X2.075 Y26.209 I0.011 J0.6
G1 X3.19 Y45.501
G3 X2.609 Y46.136 I-0.599 J0.035
G1 X1.804 Y46.127
X0.193 Y46.103
X0.037 Y46.093
X-0.195 Y46.059
X-0.453 Y46
X-0.723 Y45.915
X-1.037 Y45.787
X-1.349 Y45.63
X-1.71 Y45.41
X-2.067 Y45.152
X-2.47 Y44.807
X-2.861 Y44.414
X-3.288 Y43.909
X-3.725 Y43.301
X-4.152 Y42.59
X-4.547 Y41.797
X-4.882 Y40.977
X-5.164 Y40.137
X-5.398 Y39.282
X-5.587 Y38.416
X-5.735 Y37.542
X-5.844 Y36.663
X-5.915 Y35.78
X-5.951 Y34.894
X-5.953 Y34.008
X-5.921 Y33.123
X-5.856 Y32.239
X-5.759 Y31.358
X-5.631 Y30.481
X-5.473 Y29.61
X-5.282 Y28.744
X-5.054 Y27.888
X-4.829 Y27.215
X-4.617 Y26.719
X-4.607 Y26.7
X-4.45 Y26.462
X-4.247 Y26.261
X-4.008 Y26.106
X-3.743 Y26.002
X-3.462 Y25.954
X-1.023 Y25.79
G3 X-0.405 Y26.353 I0.019 J0.6
G1 X0.78 Y45.466
G3 X0.193 Y46.103 I-0.599 J0.037
G1 X-2.022 Y46.071
X-2.265 Y46.055
X-2.493 Y46.021
X-2.748 Y45.963
X-3.014 Y45.879
X-3.325 Y45.753
X-3.633 Y45.598
X-3.988 Y45.381
X-4.342 Y45.124
X-4.738 Y44.786
X-5.127 Y44.395
X-5.551 Y43.895
X-5.979 Y43.298
X-6.402 Y42.594
X-6.797 Y41.801
X-7.132 Y40.981
X-7.413 Y40.14
X-7.647 Y39.286
X-7.837 Y38.42
X-7.986 Y37.547
X-8.098 Y36.668
X-8.174 Y35.785
X-8.215 Y34.9
X-8.224 Y34.014
X-8.2 Y33.128
X-8.145 Y32.243
X-8.059 Y31.361
X-7.944 Y30.483
X-7.798 Y29.609
X-7.618 Y28.741
X-7.396 Y27.883
X-7.192 Y27.282
X-7.051 Y26.956
X-6.9 Y26.69
X-6.694 Y26.464
X-6.444 Y26.287
X-6.161 Y26.169
X-5.86 Y26.115
X-3.462 Y25.954
G3 X-2.844 Y26.509 I0.019 J0.6
G1 X-1.436 Y45.426
G3 X-2.022 Y46.071 I-0.598 J0.045
G1 X-3.432 Y46.05
X-3.835 Y46.041
X-4.405 Y46.027
X-4.572 Y46.015
X-4.806 Y45.978
X-5.057 Y45.918
X-5.328 Y45.829
X-5.637 Y45.7
X-5.946 Y45.541
X-6.305 Y45.317
X-6.654 Y45.059
X-7.054 Y44.71
X-7.439 Y44.315
X-7.857 Y43.812
X-8.289 Y43.197
X-8.714 Y42.474
X-9.101 Y41.677
X-9.428 Y40.854
X-9.703 Y40.011
X-9.931 Y39.155
X-10.116 Y38.288
X-10.262 Y37.414
X-10.371 Y36.535
X-10.445 Y35.652
X-10.486 Y34.767
X-10.496 Y33.881
X-10.476 Y32.995
X-10.426 Y32.11
X-10.346 Y31.227
X-10.236 Y30.348
X-10.094 Y29.474
X-9.915 Y28.606
X-9.711 Y27.847
X-9.523 Y27.319
X-9.424 Y27.099
X-9.271 Y26.839
X-9.066 Y26.617
X-8.819 Y26.445
X-8.54 Y26.33
X-8.243 Y26.276
X-6.855 Y26.182
X-5.86 Y26.115
G3 X-5.243 Y26.669 I0.019 J0.6
G1 X-3.813 Y45.381
G3 X-4.405 Y46.027 I-0.598 J0.046
G1 X-6.654 Y45.972
X-6.864 Y45.956
X-7.092 Y45.92
X-7.345 Y45.86
X-7.61 Y45.773
X-7.919 Y45.644
X-8.224 Y45.486
X-8.577 Y45.266
X-8.929 Y45.006
X-9.322 Y44.663
X-9.707 Y44.269
X-10.126 Y43.763
X-10.551 Y43.159
X-10.971 Y42.445
X-11.358 Y41.647
X-11.686 Y40.824
X-11.961 Y39.982
X-12.19 Y39.126
X-12.376 Y38.259
X-12.524 Y37.386
X-12.635 Y36.507
X-12.713 Y35.624
X-12.759 Y34.739
X-12.775 Y33.853
X-12.761 Y32.967
X-12.718 Y32.082
X-12.645 Y31.199
X-12.541 Y30.319
X-12.403 Y29.443
X-12.224 Y28.576
X-12.033 Y27.893
X-11.849 Y27.391
X-11.793 Y27.269
X-11.641 Y27.015
X-11.438 Y26.798
X-11.195 Y26.628
X-10.921 Y26.514
X-10.629 Y26.46
X-8.243 Y26.276
G3 X-7.625 Y26.826 I0.02 J0.6
G1 X-6.062 Y45.321
G3 X-6.654 Y45.972 I-0.598 J0.051
G1 X-8.869 Y45.917
X-9.156 Y45.894
X-9.386 Y45.857
X-9.637 Y45.796
X-9.905 Y45.707
X-10.212 Y45.576
X-10.518 Y45.417
X-10.873 Y45.193
X-11.22 Y44.934
X-11.615 Y44.586
X-11.997 Y44.19
X-12.413 Y43.684
X-12.841 Y43.069
X-13.263 Y42.345
X-13.645 Y41.546
X-13.97 Y40.721
X-14.242 Y39.878
X-14.468 Y39.021
X-14.653 Y38.154
X-14.8 Y37.28
X-14.911 Y36.401
X-14.99 Y35.519
X-15.038 Y34.634
X-15.056 Y33.748
X-15.044 Y32.862
X-15.004 Y31.977
X-14.934 Y31.093
X-14.832 Y30.213
X-14.691 Y29.338
X-14.51 Y28.497
X-14.333 Y27.909
X-14.145 Y27.43
X-13.993 Y27.185
X-13.793 Y26.976
X-13.554 Y26.813
X-13.287 Y26.702
X-13.003 Y26.648
X-12.292 Y26.59
X-11.084 Y26.495
X-10.629 Y26.46
G3 X-10.007 Y27.003 I0.025 J0.599
G1 X-8.278 Y45.26
G3 X-8.869 Y45.917 I-0.597 J0.057
G1 X-9.473 Y45.899
X-9.674 Y45.892
X-11.262 Y45.826
X-11.48 Y45.806
X-11.714 Y45.766
X-11.962 Y45.702
X-12.233 Y45.608
X-12.54 Y45.474
X-12.848 Y45.309
X-13.205 Y45.078
X-13.552 Y44.813
X-13.948 Y44.456
X-14.33 Y44.05
X-14.744 Y43.535
X-15.172 Y42.904
X-15.598 Y42.153
X-15.971 Y41.349
X-16.287 Y40.521
X-16.552 Y39.676
X-16.772 Y38.817
X-16.951 Y37.949
X-17.093 Y37.075
X-17.201 Y36.195
X-17.277 Y35.312
X-17.322 Y34.427
X-17.339 Y33.541
X-17.326 Y32.655
X-17.284 Y31.77
X-17.211 Y30.887
X-17.104 Y30.007
X-16.953 Y29.134
X-16.786 Y28.437
X-16.62 Y27.93
X-16.524 Y27.698
X-16.376 Y27.431
X-16.174 Y27.202
X-15.927 Y27.023
X-15.647 Y26.901
X-15.348 Y26.843
X-13.003 Y26.648
G3 X-12.377 Y27.191 I0.029 J0.599
G1 X-10.661 Y45.169
G3 X-11.262 Y45.826 I-0.597 J0.057
G1 X-13.5 Y45.734
X-13.775 Y45.709
X-14.003 Y45.67
X-14.256 Y45.604
X-14.52 Y45.513
X-14.828 Y45.378
X-15.133 Y45.215
X-15.483 Y44.989
X-15.837 Y44.718
X-16.224 Y44.369
X-16.61 Y43.96
X-17.026 Y43.441
X-17.448 Y42.818
X-17.868 Y42.078
X-18.242 Y41.274
X-18.558 Y40.446
X-18.823 Y39.601
X-19.044 Y38.743
X-19.224 Y37.875
X-19.368 Y37.001
X-19.478 Y36.122
X-19.556 Y35.239
X-19.604 Y34.354
X-19.623 Y33.468
X-19.613 Y32.582
X-19.572 Y31.697
X-19.498 Y30.814
X-19.387 Y29.935
X-19.229 Y29.065
X-19.062 Y28.44
X-18.888 Y27.95
X-18.852 Y27.868
X-18.702 Y27.611
X-18.502 Y27.392
X-18.26 Y27.22
X-17.987 Y27.103
X-17.696 Y27.045
X-15.917 Y26.891
X-15.348 Y26.843
G3 X-14.722 Y27.381 I0.029 J0.599
G1 X-12.9 Y45.073
G3 X-13.5 Y45.734 I-0.597 J0.061
G1 X-14.91 Y45.676
X-15.313 Y45.652
X-15.735 Y45.625
X-15.917 Y45.613
X-16.151 Y45.584
X-16.393 Y45.535
X-16.642 Y45.463
X-16.921 Y45.358
X-17.228 Y45.212
X-17.544 Y45.031
X-17.904 Y44.783
X-18.254 Y44.499
X-18.649 Y44.122
X-19.04 Y43.683
X-19.449 Y43.141
X-19.873 Y42.474
X-20.288 Y41.691
X-20.64 Y40.878
X-20.938 Y40.043
X-21.188 Y39.193
X-21.394 Y38.331
X-21.562 Y37.461
X-21.694 Y36.585
X-21.793 Y35.704
X-21.86 Y34.821
X-21.898 Y33.935
X-21.906 Y33.049
X-21.884 Y32.163
X-21.829 Y31.279
X-21.739 Y30.397
X-21.602 Y29.522
X-21.447 Y28.844
X-21.291 Y28.347
X-21.198 Y28.119
X-21.053 Y27.849
X-20.852 Y27.617
X-20.606 Y27.435
X-20.326 Y27.311
X-20.026 Y27.25
X-18.535 Y27.119
X-17.696 Y27.045
G3 X-17.067 Y27.584 I0.031 J0.599
G1 X-15.299 Y44.952
G3 X-15.917 Y45.613 I-0.597 J0.061
G1 X-18.333 Y45.443
X-18.482 Y45.425
X-18.708 Y45.379
X-18.97 Y45.303
X-19.233 Y45.204
X-19.54 Y45.059
X-19.853 Y44.878
X-20.196 Y44.642
X-20.56 Y44.346
X-20.94 Y43.983
X-21.331 Y43.543
X-21.748 Y42.991
X-22.17 Y42.328
X-22.584 Y41.545
X-22.935 Y40.731
X-23.231 Y39.896
X-23.479 Y39.045
X-23.684 Y38.183
X-23.85 Y37.313
X-23.98 Y36.436
X-24.078 Y35.556
X-24.145 Y34.672
X-24.181 Y33.787
X-24.187 Y32.9
X-24.162 Y32.015
X-24.103 Y31.131
X-24.002 Y30.25
X-23.858 Y29.43
X-23.704 Y28.841
X-23.536 Y28.356
X-23.506 Y28.288
X-23.357 Y28.029
X-23.157 Y27.808
X-22.915 Y27.635
X-22.642 Y27.516
X-22.349 Y27.458
X-20.026 Y27.25
G3 X-19.396 Y27.79 I0.033 J0.599
G1 X-17.715 Y44.784
G3 X-18.333 Y45.443 I-0.597 J0.059
G1 X-20.548 Y45.287
X-20.795 Y45.257
X-21.021 Y45.211
X-21.281 Y45.136
X-21.543 Y45.037
X-21.849 Y44.893
X-22.159 Y44.714
X-22.502 Y44.478
X-22.862 Y44.185
X-23.24 Y43.824
X-23.628 Y43.388
X-24.042 Y42.841
X-24.459 Y42.185
X-24.874 Y41.402
X-25.224 Y40.588
X-25.519 Y39.752
X-25.767 Y38.901
X-25.971 Y38.039
X-26.136 Y37.168
X-26.266 Y36.292
X-26.363 Y35.411
X-26.428 Y34.527
X-26.463 Y33.642
X-26.466 Y32.756
X-26.436 Y31.87
X-26.368 Y30.987
X-26.253 Y30.108
X-26.111 Y29.399
X-25.964 Y28.883
X-25.846 Y28.569
X-25.704 Y28.289
X-25.503 Y28.049
X-25.254 Y27.859
X-24.968 Y27.729
X-24.661 Y27.666
X-22.349 Y27.458
G3 X-21.72 Y27.993 I0.033 J0.599
G1 X-19.93 Y44.623
G3 X-20.548 Y45.287 I-0.597 J0.064
G1 X-20.951 Y45.259
X-21.152 Y45.238
X-21.756 Y45.17
X-23.011 Y45.023
X-23.297 Y44.974
X-23.542 Y44.913
X-23.788 Y44.829
X-24.075 Y44.705
X-24.375 Y44.546
X-24.696 Y44.341
X-25.05 Y44.072
X-25.403 Y43.756
X-25.786 Y43.354
X-26.184 Y42.863
X-26.582 Y42.281
X-26.995 Y41.559
X-27.373 Y40.757
X-27.691 Y39.93
X-27.958 Y39.085
X-28.179 Y38.227
X-28.36 Y37.36
X-28.504 Y36.485
X-28.613 Y35.606
X-28.69 Y34.723
X-28.734 Y33.838
X-28.745 Y32.952
X-28.721 Y32.066
X-28.658 Y31.182
X-28.547 Y30.303
X-28.407 Y29.596
X-28.263 Y29.086
X-28.151 Y28.782
X-28.009 Y28.502
X-27.809 Y28.261
X-27.56 Y28.07
X-27.274 Y27.94
X-26.967 Y27.876
X-25.381 Y27.731
X-24.661 Y27.666
G3 X-24.031 Y28.203 I0.033 J0.599
G1 X-22.365 Y44.363
G3 X-23.011 Y45.023 I-0.597 J0.062
G1 X-25.381 Y44.744
X-25.661 Y44.697
X-25.885 Y44.64
X-26.149 Y44.551
X-26.414 Y44.436
X-26.713 Y44.277
X-27.036 Y44.071
X-27.367 Y43.82
X-27.732 Y43.493
X-28.101 Y43.106
X-28.488 Y42.628
X-28.895 Y42.033
X-29.306 Y41.316
X-29.683 Y40.514
X-30 Y39.686
X-30.264 Y38.841
X-30.483 Y37.982
X-30.66 Y37.114
X-30.799 Y36.238
X-30.903 Y35.358
X-30.973 Y34.475
X-31.009 Y33.59
X-31.011 Y32.704
X-30.976 Y31.818
X-30.896 Y30.936
X-30.769 Y30.113
X-30.63 Y29.534
X-30.472 Y29.047
X-30.431 Y28.949
X-30.286 Y28.686
X-30.089 Y28.46
X-29.848 Y28.281
X-29.575 Y28.158
X-29.281 Y28.095
X-28.804 Y28.048
X-28.402 Y28.008
X-26.967 Y27.876
G3 X-26.336 Y28.414 I0.034 J0.599
G1 X-24.735 Y44.085
G3 X-25.381 Y44.744 I-0.597 J0.061
G1 X-26.992 Y44.555
X-27.193 Y44.526
X-27.798 Y44.428
X-28.144 Y44.353
X-28.39 Y44.279
X-28.649 Y44.177
X-28.929 Y44.041
X-29.247 Y43.853
X-29.558 Y43.633
X-29.918 Y43.333
X-30.265 Y42.992
X-30.651 Y42.548
X-31.037 Y42.024
X-31.432 Y41.386
X-31.835 Y40.601
X-32.175 Y39.783
X-32.459 Y38.943
X-32.694 Y38.089
X-32.885 Y37.223
X-33.036 Y36.35
X-33.15 Y35.472
X-33.229 Y34.589
X-33.273 Y33.704
X-33.279 Y32.818
X-33.245 Y31.932
X-33.164 Y31.05
X-33.045 Y30.288
X-32.907 Y29.714
X-32.753 Y29.244
X-32.734 Y29.197
X-32.593 Y28.94
X-32.402 Y28.718
X-32.169 Y28.541
X-31.904 Y28.416
X-31.619 Y28.349
X-31.221 Y28.298
X-31.019 Y28.274
X-29.281 Y28.095
G3 X-28.644 Y28.634 I0.04 J0.599
G1 X-27.125 Y43.773
G3 X-27.798 Y44.428 I-0.597 J0.06
G1 X-29.61 Y44.13
X-29.811 Y44.096
X-30.415 Y43.985
X-30.642 Y43.928
X-30.879 Y43.848
X-31.154 Y43.729
X-31.426 Y43.585
X-31.737 Y43.387
X-32.063 Y43.14
X-32.403 Y42.837
X-32.763 Y42.46
X-33.142 Y41.993
X-33.518 Y41.444
X-33.91 Y40.761
X-34.288 Y39.96
X-34.603 Y39.131
X-34.864 Y38.285
X-35.077 Y37.424
X-35.247 Y36.555
X-35.377 Y35.678
X-35.469 Y34.797
X-35.523 Y33.912
X-35.537 Y33.026
X-35.51 Y32.141
X-35.435 Y31.258
X-35.323 Y30.517
X-35.192 Y29.962
X-35.089 Y29.641
X-34.966 Y29.365
X-34.787 Y29.122
X-34.56 Y28.923
X-34.295 Y28.777
X-34.005 Y28.692
X-33.839 Y28.662
X-33.436 Y28.595
X-33.164 Y28.551
X-33.033 Y28.532
X-31.619 Y28.349
G3 X-30.966 Y28.895 I0.055 J0.597
G1 X-29.73 Y43.34
G3 X-30.415 Y43.985 I-0.598 J0.051
G1 X-32.026 Y43.661
X-32.429 Y43.579
X-32.832 Y43.496
X-33.089 Y43.43
X-33.314 Y43.352
X-33.574 Y43.237
X-33.854 Y43.086
X-34.144 Y42.899
X-34.475 Y42.644
X-34.794 Y42.354
X-35.156 Y41.97
X-35.509 Y41.529
X-35.883 Y40.975
X-36.266 Y40.295
X-36.638 Y39.491
X-36.946 Y38.66
X-37.199 Y37.81
X-37.401 Y36.948
X-37.558 Y36.075
X-37.673 Y35.197
X-37.747 Y34.314
X-37.781 Y33.428
X-37.772 Y32.542
X-37.715 Y31.658
X-37.616 Y30.903
X-37.501 Y30.369
X-37.44 Y30.164
X-37.329 Y29.898
X-37.165 Y29.66
X-36.957 Y29.46
X-36.712 Y29.308
X-36.44 Y29.209
X-35.852 Y29.061
X-35.248 Y28.921
X-35.047 Y28.88
X-34.005 Y28.692
G3 X-33.322 Y29.234 I0.086 J0.594
G1 X-32.133 Y42.853
G3 X-32.832 Y43.496 I-0.598 J0.052
G1 X-33.033 Y43.455
X-33.234 Y43.41
X-35.45 Y42.869
X-35.612 Y42.821
X-35.846 Y42.73
X-36.113 Y42.601
X-36.377 Y42.446
X-36.68 Y42.234
X-36.991 Y41.977
X-37.321 Y41.656
X-37.663 Y41.266
X-38.027 Y40.775
X-38.38 Y40.209
X-38.743 Y39.508
X-39.087 Y38.691
X-39.366 Y37.85
X-39.589 Y36.993
X-39.762 Y36.124
X-39.89 Y35.247
X-39.975 Y34.365
X-40.015 Y33.479
X-40.009 Y32.593
X-39.952 Y31.768
X-39.862 Y31.164
X-39.819 Y30.98
X-39.728 Y30.715
X-39.586 Y30.472
X-39.398 Y30.263
X-39.172 Y30.096
X-38.918 Y29.977
X-38.671 Y29.891
X-38.47 Y29.822
X-37.463 Y29.484
X-37.262 Y29.42
X-37.061 Y29.365
X-36.44 Y29.209
G3 X-35.716 Y29.748 I0.126 J0.587
G1 X-34.73 Y42.234
G3 X-35.45 Y42.869 I-0.598 J0.047
G1 X-35.852 Y42.771
X-36.418 Y42.612
X-37.866 Y42.19
X-38.186 Y42.079
X-38.421 Y41.976
X-38.687 Y41.832
X-38.948 Y41.663
X-39.249 Y41.432
X-39.552 Y41.158
X-39.876 Y40.813
X-40.205 Y40.401
X-40.556 Y39.883
X-40.894 Y39.284
X-41.232 Y38.553
X-41.538 Y37.722
X-41.782 Y36.87
X-41.969 Y36.004
X-42.105 Y35.128
X-42.193 Y34.246
X-42.231 Y33.361
X-42.214 Y32.578
X-42.169 Y32.142
X-42.113 Y31.868
X-42.004 Y31.611
X-41.846 Y31.381
X-41.645 Y31.187
X-41.41 Y31.036
X-41.261 Y30.962
X-41.088 Y30.877
X-40.887 Y30.786
X-39.276 Y30.103
X-38.918 Y29.977
G3 X-38.142 Y30.495 I0.178 J0.573
G1 X-37.121 Y41.553
G3 X-37.866 Y42.19 I-0.597 J0.055
G1 X-38.671 Y41.955
X-39.276 Y41.752
X-40.484 Y41.333
X-40.767 Y41.219
X-40.999 Y41.103
X-41.265 Y40.942
X-41.524 Y40.755
X-41.816 Y40.506
X-42.115 Y40.208
X-42.428 Y39.84
X-42.744 Y39.401
X-43.076 Y38.853
X-43.392 Y38.222
X-43.698 Y37.465
X-43.962 Y36.619
X-44.163 Y35.756
X-44.304 Y34.881
X-44.381 Y34.042
X-44.388 Y33.459
X-44.382 Y33.371
X-44.338 Y33.106
X-44.244 Y32.854
X-44.103 Y32.625
X-43.921 Y32.426
X-43.705 Y32.267
X-43.504 Y32.146
X-43.303 Y32.029
X-42.699 Y31.696
X-41.893 Y31.283
X-41.41 Y31.036
G3 X-40.56 Y31.525 I0.252 J0.544
G1 X-39.71 Y40.704
G3 X-40.484 Y41.333 I-0.597 J0.055
G1 X-41.088 Y41.124
X-41.289 Y41.053
X-41.919 Y40.804
X-43.102 Y40.319
X-43.361 Y40.197
X-43.59 Y40.065
X-43.851 Y39.886
X-44.105 Y39.681
X-44.387 Y39.412
X-44.674 Y39.091
X-44.972 Y38.698
X-45.267 Y38.237
X-45.57 Y37.665
X-45.844 Y37.031
X-46.086 Y36.318
X-46.256 Y35.643
X-46.35 Y35.087
X-46.37 Y34.856
X-46.364 Y34.563
