;FLAVOR:Marlin
;TIME:797
;Filament used: 0.824688m
;Layer height: 0.24
;MINX:-23.75
;MINY:-28.045
;MINZ:0.24
;MAXX:33.75
;MAXY:28.955
;MAXZ:1.24
;Generated with Cura_SteamEngine 4.13.1
M140 S50
M105
M190 S50
M104 S215
M105
M109 S215
M82 ;absolute extrusion mode
;FLAVOR:Marlin
M82 ;absolute extrusion mode
G21
G90
M82
M107 T0
G28
G92 E0
G0 E3 F200
G92 E0 ; reset extrusion distance
M106 S255 ; Enable cooling fan full speed
G1 X-98 Y0 Z0.4 F3000 ; move to arc start
G3 X0 Y-98 I98 Z0.4 E40 F400 ; lay arc stripe 90deg
G92 E0 ; reset extrusion distance
G4 P500 ; wait for 0.5 sec
G0 Z10 E-1 ; Lift 15mm and retract 1mm filament
G4 P2000 ; wait for 5 sec
G0 Z15
M107 ; Disable cooling fan
G1 X0 Y-85 Z4 E0 F3000 ; get off the bed
G92 E0
G92 E0
G1 F1500 E-6
;LAYER_COUNT:4
;LAYER:0
M106 S102
G1 F600 Z1.24
G0 F3600 X0.25 Y16.955 Z1.24
;TYPE:SKIRT
G1 F600 Z0.24
G1 F3600 E0.71493
G1 F1200 X-5.75 Y16.955 E0.98138
G1 X-5.75 Y25.955 E1.38107
G1 X-5.79 Y26.443 E1.40281
G1 X-5.909 Y26.918 E1.42456
G1 X-6.103 Y27.367 E1.44628
G1 X-6.368 Y27.779 E1.46803
G1 X-6.696 Y28.142 E1.48976
G1 X-7.079 Y28.447 E1.5115
G1 X-7.507 Y28.685 E1.53325
G1 X-7.967 Y28.851 E1.55497
G1 X-8.75 Y28.955 E1.59005
G1 X-20.75 Y28.955 E2.12296
G1 X-21.238 Y28.915 E2.14471
G1 X-21.713 Y28.796 E2.16645
G1 X-22.162 Y28.602 E2.18817
G1 X-22.574 Y28.337 E2.20993
G1 X-22.937 Y28.009 E2.23166
G1 X-23.242 Y27.626 E2.2534
G1 X-23.48 Y27.198 E2.27515
G1 X-23.646 Y26.738 E2.29686
G1 X-23.75 Y25.955 E2.33194
G1 X-23.75 Y-25.045 E4.59683
G1 X-23.71 Y-25.533 E4.61857
G1 X-23.591 Y-26.008 E4.64032
G1 X-23.397 Y-26.457 E4.66204
G1 X-23.132 Y-26.869 E4.68379
G1 X-22.804 Y-27.232 E4.70552
G1 X-22.421 Y-27.537 E4.72726
G1 X-21.993 Y-27.775 E4.74901
G1 X-21.533 Y-27.941 E4.77073
G1 X-20.75 Y-28.045 E4.80581
G1 X-10.959 Y-28.045 E5.24062
G1 X-10.471 Y-28.005 E5.26236
G1 X-9.996 Y-27.886 E5.28411
G1 X-9.547 Y-27.692 E5.30583
G1 X-9.031 Y-27.343 E5.3335
G1 X-3.909 Y-23.045 E5.63044
G1 X13.909 Y-23.045 E6.42172
G1 X19.031 Y-27.343 E6.71866
G1 X19.43 Y-27.626 E6.74039
G1 X19.87 Y-27.84 E6.76211
G1 X20.339 Y-27.98 E6.78385
G1 X20.959 Y-28.045 E6.81154
G1 X30.75 Y-28.045 E7.24635
G1 X31.238 Y-28.005 E7.26809
G1 X31.713 Y-27.886 E7.28984
G1 X32.162 Y-27.692 E7.31156
G1 X32.574 Y-27.427 E7.33332
G1 X32.937 Y-27.099 E7.35504
G1 X33.242 Y-26.716 E7.37679
G1 X33.48 Y-26.288 E7.39853
G1 X33.646 Y-25.828 E7.42025
G1 X33.75 Y-25.045 E7.45533
G1 X33.75 Y25.955 E9.72021
G1 X33.71 Y26.443 E9.74196
G1 X33.591 Y26.918 E9.7637
G1 X33.397 Y27.367 E9.78542
G1 X33.132 Y27.779 E9.80718
G1 X32.804 Y28.142 E9.82891
G1 X32.421 Y28.447 E9.85065
G1 X31.993 Y28.685 E9.8724
G1 X31.533 Y28.851 E9.89412
G1 X30.75 Y28.955 E9.92919
G1 X3.25 Y28.955 E11.15045
G1 X2.762 Y28.915 E11.1722
G1 X2.287 Y28.796 E11.19394
G1 X1.838 Y28.602 E11.21567
G1 X1.426 Y28.337 E11.23742
G1 X1.063 Y28.009 E11.25915
G1 X0.758 Y27.626 E11.28089
G1 X0.52 Y27.198 E11.30264
G1 X0.354 Y26.738 E11.32436
G1 X0.25 Y25.955 E11.35943
G1 X0.25 Y17.62 E11.72959
G0 F1080 X0.25 Y16.955
G0 F3600 X0.65 Y16.555
G1 F1200 X-6.15 Y16.555 E12.03157
G1 X-6.15 Y25.955 E12.44902
G1 X-6.19 Y26.409 E12.46926
G1 X-6.308 Y26.849 E12.48949
G1 X-6.502 Y27.261 E12.50972
G1 X-6.765 Y27.634 E12.52998
G1 X-7.088 Y27.955 E12.55021
G1 X-7.463 Y28.214 E12.57045
G1 X-7.877 Y28.404 E12.59068
G1 X-8.318 Y28.519 E12.61092
G1 X-8.75 Y28.555 E12.63017
G1 X-20.75 Y28.555 E13.16308
G1 X-21.204 Y28.515 E13.18332
G1 X-21.644 Y28.397 E13.20355
G1 X-22.056 Y28.203 E13.22377
G1 X-22.429 Y27.94 E13.24404
G1 X-22.75 Y27.617 E13.26427
G1 X-23.009 Y27.242 E13.28451
G1 X-23.199 Y26.828 E13.30473
G1 X-23.314 Y26.387 E13.32497
G1 X-23.35 Y25.955 E13.34423
G1 X-23.35 Y-25.045 E15.60911
G1 X-23.31 Y-25.499 E15.62935
G1 X-23.192 Y-25.939 E15.64958
G1 X-22.998 Y-26.351 E15.6698
G1 X-22.735 Y-26.724 E15.69007
G1 X-22.412 Y-27.045 E15.71029
G1 X-22.037 Y-27.304 E15.73053
G1 X-21.623 Y-27.494 E15.75076
G1 X-21.182 Y-27.609 E15.771
G1 X-20.75 Y-27.645 E15.79025
G1 X-10.959 Y-27.645 E16.22507
G1 X-10.505 Y-27.605 E16.24531
G1 X-10.065 Y-27.487 E16.26554
G1 X-9.653 Y-27.293 E16.28576
G1 X-9.288 Y-27.037 E16.30556
G1 X-4.054 Y-22.645 E16.60899
G1 X14.054 Y-22.645 E17.41316
G1 X19.288 Y-27.037 E17.71659
G1 X19.661 Y-27.298 E17.73681
G1 X20.074 Y-27.49 E17.75703
G1 X20.515 Y-27.607 E17.7773
G1 X20.959 Y-27.645 E17.79709
G1 X30.75 Y-27.645 E18.2319
G1 X31.204 Y-27.605 E18.25214
G1 X31.644 Y-27.487 E18.27237
G1 X32.056 Y-27.293 E18.29259
G1 X32.429 Y-27.03 E18.31286
G1 X32.75 Y-26.707 E18.33308
G1 X33.009 Y-26.332 E18.35332
G1 X33.199 Y-25.918 E18.37355
G1 X33.314 Y-25.477 E18.39379
G1 X33.35 Y-25.045 E18.41304
G1 X33.35 Y25.955 E20.67793
G1 X33.31 Y26.409 E20.69817
G1 X33.192 Y26.849 E20.7184
G1 X32.998 Y27.261 E20.73862
G1 X32.735 Y27.634 E20.75889
G1 X32.412 Y27.955 E20.77911
G1 X32.037 Y28.214 E20.79935
G1 X31.623 Y28.404 E20.81958
G1 X31.182 Y28.519 E20.83982
G1 X30.75 Y28.555 E20.85907
G1 X3.25 Y28.555 E22.08033
G1 X2.796 Y28.515 E22.10057
G1 X2.356 Y28.397 E22.1208
G1 X1.944 Y28.203 E22.14103
G1 X1.571 Y27.94 E22.1613
G1 X1.25 Y27.617 E22.18152
G1 X0.991 Y27.242 E22.20176
G1 X0.801 Y26.828 E22.22199
G1 X0.686 Y26.387 E22.24223
G1 X0.65 Y25.955 E22.26148
G1 X0.65 Y17.22 E22.6494
G0 F1080 X0.65 Y16.555
G0 F3600 X1.05 Y16.155
G1 F1200 X-6.55 Y16.155 E22.98691
G1 X-6.55 Y25.955 E23.42212
G1 X-6.59 Y26.372 E23.44072
G1 X-6.708 Y26.774 E23.45933
G1 X-6.901 Y27.146 E23.47794
G1 X-7.16 Y27.475 E23.49654
G1 X-7.477 Y27.749 E23.51514
G1 X-7.84 Y27.958 E23.53375
G1 X-8.237 Y28.094 E23.55238
G1 X-8.75 Y28.155 E23.57532
G1 X-20.75 Y28.155 E24.10824
G1 X-21.167 Y28.115 E24.12684
G1 X-21.569 Y27.997 E24.14545
G1 X-21.941 Y27.804 E24.16406
G1 X-22.27 Y27.545 E24.18265
G1 X-22.544 Y27.228 E24.20126
G1 X-22.753 Y26.865 E24.21986
G1 X-22.889 Y26.468 E24.2385
G1 X-22.95 Y25.955 E24.26144
G1 X-22.95 Y-25.045 E26.52632
G1 X-22.91 Y-25.462 E26.54493
G1 X-22.792 Y-25.864 E26.56353
G1 X-22.599 Y-26.236 E26.58215
G1 X-22.34 Y-26.565 E26.60074
G1 X-22.023 Y-26.839 E26.61935
G1 X-21.66 Y-27.048 E26.63795
G1 X-21.263 Y-27.184 E26.65659
G1 X-20.75 Y-27.245 E26.67953
G1 X-10.959 Y-27.245 E27.11434
G1 X-10.542 Y-27.205 E27.13295
G1 X-10.14 Y-27.087 E27.15155
G1 X-9.768 Y-26.894 E27.17016
G1 X-9.545 Y-26.73 E27.18246
G1 X-4.2 Y-22.245 E27.49232
G1 X14.2 Y-22.245 E28.30945
G1 X19.545 Y-26.73 E28.61932
G1 X19.89 Y-26.968 E28.63793
G1 X20.274 Y-27.136 E28.65654
G1 X20.683 Y-27.228 E28.67516
G1 X20.959 Y-27.245 E28.68744
G1 X30.75 Y-27.245 E29.12225
G1 X31.167 Y-27.205 E29.14086
G1 X31.569 Y-27.087 E29.15946
G1 X31.941 Y-26.894 E29.17807
G1 X32.27 Y-26.635 E29.19667
G1 X32.544 Y-26.318 E29.21528
G1 X32.753 Y-25.955 E29.23388
G1 X32.889 Y-25.558 E29.25252
G1 X32.95 Y-25.045 E29.27546
G1 X32.95 Y25.955 E31.54034
G1 X32.91 Y26.372 E31.55894
G1 X32.792 Y26.774 E31.57755
G1 X32.599 Y27.146 E31.59616
G1 X32.34 Y27.475 E31.61476
G1 X32.023 Y27.749 E31.63336
G1 X31.66 Y27.958 E31.65197
G1 X31.263 Y28.094 E31.6706
G1 X30.75 Y28.155 E31.69355
G1 X3.25 Y28.155 E32.91481
G1 X2.833 Y28.115 E32.93341
G1 X2.431 Y27.997 E32.95201
G1 X2.059 Y27.804 E32.97063
G1 X1.73 Y27.545 E32.98922
G1 X1.456 Y27.228 E33.00783
G1 X1.247 Y26.865 E33.02643
G1 X1.111 Y26.468 E33.04507
G1 X1.05 Y25.955 E33.06801
G1 X1.05 Y16.82 E33.47369
G0 F1080 X1.05 Y16.155
G0 F3600 X1.45 Y15.755
G1 F1200 X-6.95 Y15.755 E33.84673
G1 X-6.95 Y25.955 E34.29971
G1 X-6.99 Y26.332 E34.31654
G1 X-7.108 Y26.692 E34.33337
G1 X-7.298 Y27.019 E34.35016
G1 X-7.553 Y27.3 E34.36701
G1 X-7.862 Y27.52 E34.38386
G1 X-8.209 Y27.672 E34.40068
G1 X-8.75 Y27.755 E34.42499
G1 X-20.75 Y27.755 E34.9579
G1 X-21.127 Y27.715 E34.97474
G1 X-21.487 Y27.597 E34.99156
G1 X-21.814 Y27.407 E35.00836
G1 X-22.095 Y27.152 E35.02521
G1 X-22.315 Y26.843 E35.04206
G1 X-22.467 Y26.496 E35.05888
G1 X-22.55 Y25.955 E35.08319
G1 X-22.55 Y-25.045 E37.34807
G1 X-22.51 Y-25.422 E37.3649
G1 X-22.392 Y-25.782 E37.38173
G1 X-22.202 Y-26.109 E37.39852
G1 X-21.947 Y-26.39 E37.41538
G1 X-21.638 Y-26.61 E37.43222
G1 X-21.291 Y-26.762 E37.44904
G1 X-20.75 Y-26.845 E37.47335
G1 X-10.959 Y-26.845 E37.90816
G1 X-10.582 Y-26.805 E37.925
G1 X-10.222 Y-26.687 E37.94182
G1 X-9.802 Y-26.424 E37.96383
G1 X-4.345 Y-21.845 E38.28019
G1 X14.345 Y-21.845 E39.1102
G1 X19.802 Y-26.424 E39.42656
G1 X20.116 Y-26.636 E39.44338
G1 X20.468 Y-26.777 E39.46022
G1 X20.959 Y-26.845 E39.48224
G1 X30.75 Y-26.845 E39.91705
G1 X31.127 Y-26.805 E39.93389
G1 X31.487 Y-26.687 E39.95071
G1 X31.814 Y-26.497 E39.96751
G1 X32.095 Y-26.242 E39.98436
G1 X32.315 Y-25.933 E40.0012
G1 X32.467 Y-25.586 E40.01803
G1 X32.55 Y-25.045 E40.04233
G1 X32.55 Y25.955 E42.30721
G1 X32.51 Y26.332 E42.32405
G1 X32.392 Y26.692 E42.34088
G1 X32.202 Y27.019 E42.35767
G1 X31.947 Y27.3 E42.37452
G1 X31.638 Y27.52 E42.39137
G1 X31.291 Y27.672 E42.40819
G1 X30.75 Y27.755 E42.4325
G1 X3.25 Y27.755 E43.65376
G1 X2.873 Y27.715 E43.67059
G1 X2.513 Y27.597 E43.68742
G1 X2.186 Y27.407 E43.70421
G1 X1.905 Y27.152 E43.72107
G1 X1.685 Y26.843 E43.73791
G1 X1.533 Y26.496 E43.75473
G1 X1.45 Y25.955 E43.77904
G1 X1.45 Y16.42 E44.20249
G0 F1080 X1.45 Y15.755
G0 F3600 X1.85 Y15.355
G1 F1200 X-7.35 Y15.355 E44.61105
G1 X-7.35 Y25.955 E45.08179
G1 X-7.39 Y26.287 E45.09664
G1 X-7.507 Y26.599 E45.11144
G1 X-7.695 Y26.876 E45.12631
G1 X-7.943 Y27.099 E45.14112
G1 X-8.237 Y27.258 E45.15596
G1 X-8.75 Y27.355 E45.17915
G1 X-20.75 Y27.355 E45.71206
G1 X-21.082 Y27.315 E45.72691
G1 X-21.394 Y27.198 E45.74171
G1 X-21.671 Y27.01 E45.75658
G1 X-21.894 Y26.762 E45.77139
G1 X-22.053 Y26.468 E45.78623
G1 X-22.15 Y25.955 E45.80942
G1 X-22.15 Y-25.045 E48.0743
G1 X-22.11 Y-25.377 E48.08915
G1 X-21.993 Y-25.689 E48.10395
G1 X-21.805 Y-25.966 E48.11882
G1 X-21.557 Y-26.189 E48.13363
G1 X-21.263 Y-26.348 E48.14847
G1 X-20.75 Y-26.445 E48.17166
G1 X-10.959 Y-26.445 E48.60647
G1 X-10.627 Y-26.405 E48.62132
G1 X-10.315 Y-26.288 E48.63612
G1 X-10.059 Y-26.117 E48.64979
G1 X-4.491 Y-21.445 E48.97258
G1 X14.491 Y-21.445 E49.81556
G1 X20.059 Y-26.117 E50.13835
G1 X20.339 Y-26.3 E50.1532
G1 X20.654 Y-26.411 E50.16803
G1 X20.959 Y-26.445 E50.18166
G1 X30.75 Y-26.445 E50.61647
G1 X31.082 Y-26.405 E50.63133
G1 X31.394 Y-26.288 E50.64612
G1 X31.671 Y-26.1 E50.66099
G1 X31.894 Y-25.852 E50.6758
G1 X32.053 Y-25.558 E50.69065
G1 X32.15 Y-25.045 E50.71383
G1 X32.15 Y25.955 E52.97871
G1 X32.11 Y26.287 E52.99356
G1 X31.993 Y26.599 E53.00836
G1 X31.805 Y26.876 E53.02323
G1 X31.557 Y27.099 E53.03804
G1 X31.263 Y27.258 E53.05288
G1 X30.75 Y27.355 E53.07607
G1 X3.25 Y27.355 E54.29733
G1 X2.918 Y27.315 E54.31218
G1 X2.606 Y27.198 E54.32698
G1 X2.329 Y27.01 E54.34185
G1 X2.106 Y26.762 E54.35666
G1 X1.947 Y26.468 E54.3715
G1 X1.85 Y25.955 E54.39469
G1 X1.85 Y16.02 E54.83589
G0 F1080 X1.85 Y15.355
G0 F3600 X2.25 Y14.955
G1 F1200 X-7.75 Y14.955 E55.27999
G1 X-7.75 Y25.955 E55.76849
G1 X-7.79 Y26.234 E55.78101
G1 X-7.906 Y26.491 E55.79353
G1 X-8.089 Y26.706 E55.80607
G1 X-8.325 Y26.86 E55.81858
G1 X-8.75 Y26.955 E55.83792
G1 X-20.75 Y26.955 E56.37084
G1 X-21.029 Y26.915 E56.38336
G1 X-21.286 Y26.799 E56.39588
G1 X-21.501 Y26.616 E56.40842
G1 X-21.655 Y26.38 E56.42093
G1 X-21.75 Y25.955 E56.44027
G1 X-21.75 Y-25.045 E58.70515
G1 X-21.71 Y-25.324 E58.71767
G1 X-21.594 Y-25.581 E58.73019
G1 X-21.411 Y-25.796 E58.74273
G1 X-21.175 Y-25.95 E58.75524
G1 X-20.75 Y-26.045 E58.77458
G1 X-10.959 Y-26.045 E59.2094
G1 X-10.68 Y-26.005 E59.22191
G1 X-10.316 Y-25.811 E59.24023
G1 X-4.636 Y-21.045 E59.56951
G1 X14.636 Y-21.045 E60.42537
G1 X20.316 Y-25.811 E60.75465
G1 X20.556 Y-25.96 E60.7672
G1 X20.959 Y-26.045 E60.78549
G1 X30.75 Y-26.045 E61.2203
G1 X31.029 Y-26.005 E61.23282
G1 X31.286 Y-25.889 E61.24534
G1 X31.501 Y-25.706 E61.25788
G1 X31.655 Y-25.47 E61.27039
G1 X31.75 Y-25.045 E61.28973
G1 X31.75 Y25.955 E63.55462
G1 X31.71 Y26.234 E63.56713
G1 X31.594 Y26.491 E63.57966
G1 X31.411 Y26.706 E63.59219
G1 X31.175 Y26.86 E63.60471
G1 X30.75 Y26.955 E63.62405
G1 X3.25 Y26.955 E64.84531
G1 X2.971 Y26.915 E64.85783
G1 X2.714 Y26.799 E64.87035
G1 X2.499 Y26.616 E64.88289
G1 X2.345 Y26.38 E64.8954
G1 X2.25 Y25.955 E64.91474
G1 X2.25 Y15.62 E65.37371
G0 F1080 X2.25 Y14.955
G0 F3600 X2.65 Y14.555
G1 F1200 X-8.15 Y14.555 E65.85333
G1 X-8.15 Y25.955 E66.3596
G1 X-8.19 Y26.17 E66.36931
G1 X-8.303 Y26.356 E66.37898
G1 X-8.476 Y26.489 E66.38867
G1 X-8.75 Y26.555 E66.40119
G1 X-20.75 Y26.555 E66.9341
G1 X-20.965 Y26.515 E66.94381
G1 X-21.151 Y26.402 E66.95348
G1 X-21.284 Y26.229 E66.96317
G1 X-21.35 Y25.955 E66.97568
G1 X-21.35 Y-25.045 E69.24057
G1 X-21.31 Y-25.26 E69.25028
G1 X-21.197 Y-25.446 E69.25994
G1 X-21.024 Y-25.579 E69.26963
G1 X-20.75 Y-25.645 E69.28215
G1 X-10.959 Y-25.645 E69.71696
G1 X-10.744 Y-25.605 E69.72668
G1 X-10.573 Y-25.505 E69.73547
G1 X-4.781 Y-20.645 E70.07125
G1 X14.781 Y-20.645 E70.93999
G1 X20.573 Y-25.505 E71.27576
G1 X20.763 Y-25.612 E71.28544
G1 X20.959 Y-25.645 E71.29427
G1 X30.75 Y-25.645 E71.72908
G1 X30.965 Y-25.605 E71.7388
G1 X31.151 Y-25.492 E71.74846
G1 X31.284 Y-25.319 E71.75815
G1 X31.35 Y-25.045 E71.77067
G1 X31.35 Y25.955 E74.03555
G1 X31.31 Y26.17 E74.04526
G1 X31.197 Y26.356 E74.05493
G1 X31.024 Y26.489 E74.06462
G1 X30.75 Y26.555 E74.07713
G1 X3.25 Y26.555 E75.29839
G1 X3.035 Y26.515 E75.30811
G1 X2.849 Y26.402 E75.31777
G1 X2.716 Y26.229 E75.32746
G1 X2.65 Y25.955 E75.33998
G1 X2.65 Y15.22 E75.81671
G0 F1080 X2.65 Y14.555
G0 F3600 X3.05 Y14.155
G1 F1200 X-8.55 Y14.155 E76.33186
G1 X-8.55 Y25.955 E76.8559
G1 X-8.589 Y26.074 E76.86146
G1 X-8.75 Y26.155 E76.86946
G1 X-20.75 Y26.155 E77.40237
G1 X-20.869 Y26.116 E77.40794
G1 X-20.95 Y25.955 E77.41594
G1 X-20.95 Y-25.045 E79.68082
G1 X-20.911 Y-25.164 E79.68638
G1 X-20.75 Y-25.245 E79.69439
G1 X-10.959 Y-25.245 E80.1292
G1 X-10.83 Y-25.198 E80.1353
G1 X-4.927 Y-20.245 E80.4775
G1 X14.927 Y-20.245 E81.35921
G1 X20.83 Y-25.198 E81.70141
G1 X20.959 Y-25.245 E81.70751
G1 X30.75 Y-25.245 E82.14232
G1 X30.869 Y-25.206 E82.14789
G1 X30.95 Y-25.045 E82.15589
G1 X30.95 Y25.955 E84.42077
G1 X30.911 Y26.074 E84.42633
G1 X30.75 Y26.155 E84.43434
G1 X3.25 Y26.155 E85.6556
G1 X3.131 Y26.116 E85.66116
G1 X3.05 Y25.955 E85.66916
G1 X3.05 Y14.82 E86.16366
G0 F1080 X3.05 Y14.155
G1 F1500 E80.16366
G1 F600 Z1.24
;MESH:Deckel-2.3mf
G0 F3600 X-8.95 Y13.755 Z1.24
;TYPE:WALL-OUTER
G1 F600 Z0.24
G1 F3600 E86.87859
G1 F1500 X-8.95 Y25.755 E87.4115
G1 X-20.55 Y25.755 E87.92665
G1 X-20.55 Y-24.845 E90.17377
G1 X-11.032 Y-24.845 E90.59646
G1 X-5.073 Y-19.845 E90.94191
G1 X15.073 Y-19.845 E91.83658
G1 X21.032 Y-24.845 E92.18204
G1 X30.55 Y-24.845 E92.60473
G1 X30.55 Y25.755 E94.85184
G1 X3.45 Y25.755 E96.05534
G1 X3.45 Y13.755 E96.58825
G1 X-8.285 Y13.755 E97.1094
G0 F1350 X-8.95 Y13.755
G0 F3600 X-8.95 Y13.955
G0 X-9.39 Y13.955
G0 X-9.35 Y13.355
;TYPE:WALL-INNER
G1 F1500 X-9.35 Y25.355 E97.64231
G1 X-20.15 Y25.355 E98.12194
G1 X-20.15 Y-24.445 E100.33353
G1 X-11.177 Y-24.445 E100.73201
G1 X-5.219 Y-19.445 E101.07743
G1 X15.219 Y-19.445 E101.98507
G1 X21.177 Y-24.445 E102.33049
G1 X30.15 Y-24.445 E102.72898
G1 X30.15 Y25.355 E104.94057
G1 X3.85 Y25.355 E106.10854
G1 X3.85 Y13.355 E106.64145
G1 X-8.685 Y13.355 E107.19812
G0 F1350 X-9.35 Y13.355
G0 F3600 X-9.75 Y12.955
G1 F1500 X-9.75 Y24.955 E107.73104
G1 X-19.75 Y24.955 E108.17513
G1 X-19.75 Y-24.045 E110.35119
G1 X-11.322 Y-24.045 E110.72548
G1 X-5.365 Y-19.045 E111.07086
G1 X15.365 Y-19.045 E111.99147
G1 X21.322 Y-24.045 E112.33685
G1 X29.75 Y-24.045 E112.71114
G1 X29.75 Y24.955 E114.8872
G1 X4.25 Y24.955 E116.01964
G1 X4.25 Y12.955 E116.55256
G1 X-9.085 Y12.955 E117.14476
