;FLAVOR:Marlin
;TIME:1982
;Filament used: 2.27189m
;Layer height: 0.24
;MINX:-23.75
;MINY:-69.54
;MINZ:0.24
;MAXX:33.75
;MAXY:36.46
;MAXZ:10.6
;Generated with Cura_SteamEngine 4.13.1
M140 S50
M105
M190 S50
M104 S215
M105
M109 S215
M82 ;absolute extrusion mode
;FLAVOR:Marlin
M82 ;absolute extrusion mode
G21
G90
M82
M107 T0
G28
G92 E0
G0 E3 F200
G92 E0 ; reset extrusion distance
M106 S255 ; Enable cooling fan full speed
G1 X-98 Y0 Z0.4 F3000 ; move to arc start
G3 X0 Y-98 I98 Z0.4 E40 F400 ; lay arc stripe 90deg
G92 E0 ; reset extrusion distance
G4 P500 ; wait for 0.5 sec
G0 Z10 E-1 ; Lift 15mm and retract 1mm filament
G4 P2000 ; wait for 5 sec
G0 Z15
M107 ; Disable cooling fan
G1 X0 Y-85 Z4 E0 F3000 ; get off the bed
G92 E0
G92 E0
G1 F1500 E-6
;LAYER_COUNT:45
;LAYER:0
M106 S102
G1 F600 Z1.24
G0 F3600 X-23.75 Y33.46 Z1.24
;TYPE:SKIRT
G1 F600 Z0.24
G1 F3600 E0.71493
G1 F1200 X-23.75 Y-66.54 E5.15587
G1 X-23.71 Y-67.028 E5.17762
G1 X-23.591 Y-67.503 E5.19936
G1 X-23.397 Y-67.952 E5.22108
G1 X-23.132 Y-68.364 E5.24284
G1 X-22.804 Y-68.727 E5.26457
G1 X-22.421 Y-69.032 E5.28631
G1 X-21.993 Y-69.27 E5.30806
G1 X-21.533 Y-69.436 E5.32977
G1 X-20.75 Y-69.54 E5.36485
G1 X30.75 Y-69.54 E7.65194
G1 X31.238 Y-69.5 E7.67368
G1 X31.713 Y-69.381 E7.69543
G1 X32.162 Y-69.187 E7.71715
G1 X32.574 Y-68.922 E7.73891
G1 X32.937 Y-68.594 E7.76063
G1 X33.242 Y-68.211 E7.78238
G1 X33.48 Y-67.783 E7.80413
G1 X33.646 Y-67.323 E7.82584
G1 X33.75 Y-66.54 E7.86092
G1 X33.75 Y33.46 E12.30187
G1 X33.71 Y33.948 E12.32361
G1 X33.591 Y34.423 E12.34536
G1 X33.397 Y34.872 E12.36708
G1 X33.132 Y35.284 E12.38883
G1 X32.804 Y35.647 E12.41056
G1 X32.421 Y35.952 E12.4323
G1 X31.993 Y36.19 E12.45405
G1 X31.533 Y36.356 E12.47577
G1 X30.75 Y36.46 E12.51085
G1 X-20.75 Y36.46 E14.79794
G1 X-21.238 Y36.42 E14.81968
G1 X-21.713 Y36.301 E14.84143
G1 X-22.162 Y36.107 E14.86315
G1 X-22.574 Y35.842 E14.8849
G1 X-22.937 Y35.514 E14.90663
G1 X-23.242 Y35.131 E14.92837
G1 X-23.48 Y34.703 E14.95012
G1 X-23.646 Y34.243 E14.97184
G1 X-23.663 Y34.119 E14.9774
G0 F1080 X-23.75 Y33.46
G0 F3600 X-23.35 Y33.46
G1 F1200 X-23.35 Y-66.54 E19.41834
G1 X-23.31 Y-66.994 E19.43858
G1 X-23.192 Y-67.434 E19.45881
G1 X-22.998 Y-67.846 E19.47904
G1 X-22.735 Y-68.219 E19.49931
G1 X-22.412 Y-68.54 E19.51953
G1 X-22.037 Y-68.799 E19.53977
G1 X-21.623 Y-68.989 E19.56
G1 X-21.182 Y-69.104 E19.58024
G1 X-20.75 Y-69.14 E19.59949
G1 X30.75 Y-69.14 E21.88658
G1 X31.204 Y-69.1 E21.90682
G1 X31.644 Y-68.982 E21.92705
G1 X32.056 Y-68.788 E21.94727
G1 X32.429 Y-68.525 E21.96754
G1 X32.75 Y-68.202 E21.98776
G1 X33.009 Y-67.827 E22.008
G1 X33.199 Y-67.413 E22.02823
G1 X33.314 Y-66.972 E22.04847
G1 X33.35 Y-66.54 E22.06772
G1 X33.35 Y33.46 E26.50867
G1 X33.31 Y33.914 E26.52891
G1 X33.192 Y34.354 E26.54914
G1 X32.998 Y34.766 E26.56936
G1 X32.735 Y35.139 E26.58963
G1 X32.412 Y35.46 E26.60985
G1 X32.037 Y35.719 E26.63009
G1 X31.623 Y35.909 E26.65032
G1 X31.182 Y36.024 E26.67056
G1 X30.75 Y36.06 E26.68981
G1 X-20.75 Y36.06 E28.9769
G1 X-21.204 Y36.02 E28.99714
G1 X-21.644 Y35.902 E29.01737
G1 X-22.056 Y35.708 E29.0376
G1 X-22.429 Y35.445 E29.05786
G1 X-22.75 Y35.122 E29.07809
G1 X-23.009 Y34.747 E29.09833
G1 X-23.199 Y34.333 E29.11856
G1 X-23.256 Y34.116 E29.12852
G0 F1080 X-23.314 Y33.892
G0 X-23.35 Y33.46
G0 F3600 X-22.95 Y33.46
G1 F1200 X-22.95 Y-66.54 E33.56947
G1 X-22.91 Y-66.957 E33.58807
G1 X-22.792 Y-67.359 E33.60668
G1 X-22.599 Y-67.731 E33.62529
G1 X-22.34 Y-68.06 E33.64388
G1 X-22.023 Y-68.334 E33.66249
G1 X-21.66 Y-68.543 E33.68109
G1 X-21.263 Y-68.679 E33.69973
G1 X-20.75 Y-68.74 E33.72267
G1 X30.75 Y-68.74 E36.00976
G1 X31.167 Y-68.7 E36.02836
G1 X31.569 Y-68.582 E36.04697
G1 X31.941 Y-68.389 E36.06558
G1 X32.27 Y-68.13 E36.08417
G1 X32.544 Y-67.813 E36.10278
G1 X32.753 Y-67.45 E36.12138
G1 X32.889 Y-67.053 E36.14002
G1 X32.95 Y-66.54 E36.16296
G1 X32.95 Y33.46 E40.60391
G1 X32.91 Y33.877 E40.62251
G1 X32.792 Y34.279 E40.64112
G1 X32.599 Y34.651 E40.65973
G1 X32.34 Y34.98 E40.67832
G1 X32.023 Y35.254 E40.69693
G1 X31.66 Y35.463 E40.71553
G1 X31.263 Y35.599 E40.73417
G1 X30.75 Y35.66 E40.75711
G1 X-20.75 Y35.66 E43.0442
G1 X-21.167 Y35.62 E43.0628
G1 X-21.569 Y35.502 E43.08141
G1 X-21.941 Y35.309 E43.10002
G1 X-22.27 Y35.05 E43.11862
G1 X-22.544 Y34.733 E43.13722
G1 X-22.753 Y34.37 E43.15583
G1 X-22.841 Y34.114 E43.16785
G0 F1080 X-22.889 Y33.973
G0 X-22.95 Y33.46
G0 F3600 X-22.55 Y33.46
G1 F1200 X-22.55 Y-66.54 E47.60879
G1 X-22.51 Y-66.917 E47.62563
G1 X-22.392 Y-67.277 E47.64245
G1 X-22.202 Y-67.604 E47.65925
G1 X-21.947 Y-67.885 E47.6761
G1 X-21.638 Y-68.105 E47.69295
G1 X-21.291 Y-68.257 E47.70977
G1 X-20.75 Y-68.34 E47.73408
G1 X30.75 Y-68.34 E50.02116
G1 X31.127 Y-68.3 E50.038
G1 X31.487 Y-68.182 E50.05483
G1 X31.814 Y-67.992 E50.07162
G1 X32.095 Y-67.737 E50.08847
G1 X32.315 Y-67.428 E50.10532
G1 X32.467 Y-67.081 E50.12214
G1 X32.55 Y-66.54 E50.14645
G1 X32.55 Y33.46 E54.58739
G1 X32.51 Y33.837 E54.60423
G1 X32.392 Y34.197 E54.62105
G1 X32.202 Y34.524 E54.63785
G1 X31.947 Y34.805 E54.6547
G1 X31.638 Y35.025 E54.67155
G1 X31.291 Y35.177 E54.68837
G1 X30.75 Y35.26 E54.71268
G1 X-20.75 Y35.26 E56.99976
G1 X-21.127 Y35.22 E57.0166
G1 X-21.487 Y35.102 E57.03343
G1 X-21.814 Y34.912 E57.05022
G1 X-22.095 Y34.657 E57.06707
G1 X-22.315 Y34.348 E57.08392
G1 X-22.42 Y34.109 E57.09551
G0 F1080 X-22.467 Y34.001
G0 X-22.55 Y33.46
G0 F3600 X-22.15 Y33.46
G1 F1200 X-22.15 Y-66.54 E61.53646
G1 X-22.11 Y-66.872 E61.55131
G1 X-21.993 Y-67.184 E61.56611
G1 X-21.805 Y-67.461 E61.58097
G1 X-21.557 Y-67.684 E61.59578
G1 X-21.263 Y-67.843 E61.61063
G1 X-20.75 Y-67.94 E61.63381
G1 X30.75 Y-67.94 E63.9209
G1 X31.082 Y-67.9 E63.93575
G1 X31.394 Y-67.783 E63.95055
G1 X31.671 Y-67.595 E63.96542
G1 X31.894 Y-67.347 E63.98023
G1 X32.053 Y-67.053 E63.99507
G1 X32.15 Y-66.54 E64.01826
G1 X32.15 Y33.46 E68.4592
G1 X32.11 Y33.792 E68.47405
G1 X31.993 Y34.104 E68.48885
G1 X31.805 Y34.381 E68.50372
G1 X31.557 Y34.604 E68.51853
G1 X31.263 Y34.763 E68.53337
G1 X30.75 Y34.86 E68.55656
G1 X-20.75 Y34.86 E70.84365
G1 X-21.082 Y34.82 E70.8585
G1 X-21.394 Y34.703 E70.87329
G1 X-21.671 Y34.515 E70.88816
G1 X-21.894 Y34.267 E70.90297
G1 X-21.985 Y34.098 E70.9115
G0 F1080 X-22.053 Y33.973
G0 X-22.15 Y33.46
G0 F3600 X-21.75 Y33.46
G1 F1200 X-21.75 Y-66.54 E75.35244
G1 X-21.71 Y-66.819 E75.36496
G1 X-21.594 Y-67.076 E75.37748
G1 X-21.411 Y-67.291 E75.39002
G1 X-21.175 Y-67.445 E75.40254
G1 X-20.75 Y-67.54 E75.42188
G1 X30.75 Y-67.54 E77.70896
G1 X31.029 Y-67.5 E77.72148
G1 X31.286 Y-67.384 E77.734
G1 X31.501 Y-67.201 E77.74654
G1 X31.655 Y-66.965 E77.75905
G1 X31.75 Y-66.54 E77.77839
G1 X31.75 Y33.46 E82.21934
G1 X31.71 Y33.739 E82.23186
G1 X31.594 Y33.996 E82.24438
G1 X31.411 Y34.211 E82.25692
G1 X31.175 Y34.365 E82.26943
G1 X30.75 Y34.46 E82.28877
G1 X-20.75 Y34.46 E84.57586
G1 X-21.029 Y34.42 E84.58838
G1 X-21.286 Y34.304 E84.6009
G1 X-21.501 Y34.121 E84.61344
G1 X-21.529 Y34.078 E84.61572
G0 F1080 X-21.655 Y33.885
G0 X-21.75 Y33.46
G0 F3600 X-21.35 Y33.46
G1 F1200 X-21.35 Y-66.54 E89.05666
G1 X-21.31 Y-66.755 E89.06637
G1 X-21.197 Y-66.941 E89.07604
G1 X-21.024 Y-67.074 E89.08573
G1 X-20.75 Y-67.14 E89.09825
G1 X30.75 Y-67.14 E91.38533
G1 X30.965 Y-67.1 E91.39505
G1 X31.151 Y-66.987 E91.40471
G1 X31.284 Y-66.814 E91.4144
G1 X31.35 Y-66.54 E91.42692
G1 X31.35 Y33.46 E95.86786
G1 X31.31 Y33.675 E95.87758
G1 X31.197 Y33.861 E95.88724
G1 X31.024 Y33.994 E95.89693
G1 X30.75 Y34.06 E95.90945
G1 X-20.75 Y34.06 E98.19654
G1 X-20.965 Y34.02 E98.20625
G1 X-21.009 Y33.993 E98.20854
G0 F1080 X-21.151 Y33.907
G0 X-21.284 Y33.734
G0 X-21.35 Y33.46
G0 F3600 X-20.95 Y33.46
G1 F1200 X-20.95 Y-66.54 E102.64949
G1 X-20.911 Y-66.659 E102.65505
G1 X-20.75 Y-66.74 E102.66305
G1 X30.75 Y-66.74 E104.95014
G1 X30.869 Y-66.701 E104.9557
G1 X30.95 Y-66.54 E104.9637
G1 X30.95 Y33.46 E109.40465
G1 X30.911 Y33.579 E109.41021
G1 X30.75 Y33.66 E109.41822
G1 X-20.39 Y33.66 E111.68932
G0 F1080 X-20.75 Y33.66
G0 X-20.869 Y33.621
G0 X-20.95 Y33.46
G1 F1500 E105.68932
G1 F600 Z1.24
G0 F3600 X-13.132 Y-22.264 Z1.24
G1 F600 Z0.24
G1 F3600 E112.40424
G1 F1200 X-13.445 Y-22.381 E112.41908
G1 X-13.721 Y-22.569 E112.43391
G1 X-13.944 Y-22.817 E112.44872
G1 X-14.103 Y-23.111 E112.46357
G1 X-14.2 Y-23.624 E112.48675
G1 X-14.2 Y-35.93 E113.03325
G1 X-14.16 Y-36.262 E113.04811
G1 X-14.043 Y-36.574 E113.0629
G1 X-13.855 Y-36.851 E113.07777
G1 X-13.607 Y-37.074 E113.09258
G1 X-13.313 Y-37.233 E113.10743
G1 X-12.989 Y-37.317 E113.12229
G1 X-12.655 Y-37.323 E113.13712
G1 X-12.33 Y-37.249 E113.15193
G1 X-11.903 Y-37.005 E113.17377
G1 X-10.807 Y-36.091 E113.23714
G1 X-4.748 Y-36.716 E113.50765
G1 X-4.508 Y-39.224 E113.61954
G1 X-4.956 Y-40.661 E113.68638
G1 X-5.609 Y-41.951 E113.75059
G1 X-8.674 Y-43.585 E113.90484
G1 X-11.901 Y-40.88 E114.09184
G1 X-12.18 Y-40.698 E114.10663
G1 X-12.495 Y-40.587 E114.12147
G1 X-12.828 Y-40.553 E114.13633
G1 X-13.159 Y-40.6 E114.15118
G1 X-13.469 Y-40.723 E114.16599
G1 X-13.741 Y-40.917 E114.18083
G1 X-13.96 Y-41.169 E114.19565
G1 X-14.113 Y-41.466 E114.21049
G1 X-14.2 Y-41.953 E114.23246
G1 X-14.2 Y-52.163 E114.68588
G1 X-14.16 Y-52.495 E114.70073
G1 X-14.043 Y-52.807 E114.71553
G1 X-13.855 Y-53.084 E114.7304
G1 X-13.607 Y-53.307 E114.74521
G1 X-13.313 Y-53.466 E114.76005
G1 X-12.8 Y-53.563 E114.78324
G1 X22.8 Y-53.563 E116.36421
G1 X23.132 Y-53.523 E116.37906
G1 X23.444 Y-53.406 E116.39386
G1 X23.721 Y-53.218 E116.40873
G1 X23.944 Y-52.97 E116.42354
G1 X24.103 Y-52.676 E116.43838
G1 X24.2 Y-52.163 E116.46157
G1 X24.2 Y-41.95 E116.91512
G1 X24.16 Y-41.618 E116.92997
G1 X24.043 Y-41.306 E116.94477
G1 X23.855 Y-41.029 E116.95964
G1 X23.607 Y-40.806 E116.97445
G1 X23.313 Y-40.647 E116.98929
G1 X22.989 Y-40.563 E117.00416
G1 X22.655 Y-40.557 E117.01899
G1 X22.33 Y-40.631 E117.0338
G1 X21.906 Y-40.873 E117.05548
G1 X19.317 Y-43.021 E117.20487
G1 X16.254 Y-42.653 E117.34188
G1 X15.479 Y-41.695 E117.3966
G1 X14.961 Y-40.703 E117.4463
G1 X14.508 Y-39.24 E117.51431
G1 X14.771 Y-36.633 E117.63067
G1 X20.81 Y-36.106 E117.89988
G1 X21.913 Y-37.009 E117.96319
G1 X22.195 Y-37.188 E117.97802
G1 X22.511 Y-37.296 E117.99285
G1 X22.844 Y-37.325 E118.0077
G1 X23.174 Y-37.275 E118.02252
G1 X23.483 Y-37.148 E118.03735
G1 X23.753 Y-36.952 E118.05217
G1 X23.969 Y-36.697 E118.06701
G1 X24.118 Y-36.398 E118.08185
G1 X24.2 Y-35.926 E118.10312
G1 X24.2 Y-23.623 E118.64949
G1 X24.16 Y-23.291 E118.66434
G1 X24.043 Y-22.979 E118.67914
G1 X23.855 Y-22.702 E118.69401
G1 X23.607 Y-22.479 E118.70882
G1 X23.313 Y-22.32 E118.72366
G1 X22.8 Y-22.223 E118.74685
G1 X-12.469 Y-22.224 E120.31313
G0 F1080 X-12.8 Y-22.224
G0 X-13.132 Y-22.264
G0 F3600 X-13.079 Y-22.664
G1 F1200 X-13.336 Y-22.78 E120.32565
G1 X-13.551 Y-22.963 E120.33819
G1 X-13.705 Y-23.199 E120.3507
G1 X-13.8 Y-23.624 E120.37004
G1 X-13.8 Y-35.93 E120.91654
G1 X-13.76 Y-36.209 E120.92906
G1 X-13.644 Y-36.466 E120.94158
G1 X-13.461 Y-36.681 E120.95412
G1 X-13.225 Y-36.835 E120.96664
G1 X-12.955 Y-36.918 E120.97918
G1 X-12.673 Y-36.922 E120.99171
G1 X-12.401 Y-36.847 E121.00424
G1 X-12.16 Y-36.698 E121.01682
G1 X-10.934 Y-35.676 E121.0877
G1 X-4.38 Y-36.351 E121.3803
G1 X-4.101 Y-39.265 E121.5103
G1 X-4.583 Y-40.81 E121.58218
G1 X-5.309 Y-42.244 E121.65355
G1 X-8.724 Y-44.065 E121.82543
G1 X-12.158 Y-41.187 E122.02441
G1 X-12.397 Y-41.038 E122.03691
G1 X-12.669 Y-40.962 E122.04946
G1 X-12.951 Y-40.964 E122.06198
G1 X-13.221 Y-41.046 E122.07451
G1 X-13.458 Y-41.2 E122.08706
G1 X-13.642 Y-41.413 E122.09956
G1 X-13.759 Y-41.67 E122.1121
G1 X-13.8 Y-41.953 E122.1248
G1 X-13.8 Y-52.163 E122.57822
G1 X-13.76 Y-52.442 E122.59074
G1 X-13.644 Y-52.699 E122.60326
G1 X-13.461 Y-52.914 E122.6158
G1 X-13.225 Y-53.068 E122.62831
G1 X-12.8 Y-53.163 E122.64765
G1 X22.8 Y-53.163 E124.22863
G1 X23.079 Y-53.123 E124.24115
G1 X23.336 Y-53.007 E124.25367
G1 X23.551 Y-52.824 E124.26621
G1 X23.705 Y-52.588 E124.27872
G1 X23.8 Y-52.163 E124.29806
G1 X23.8 Y-41.95 E124.75162
G1 X23.76 Y-41.671 E124.76413
G1 X23.644 Y-41.414 E124.77666
G1 X23.461 Y-41.199 E124.78919
G1 X23.225 Y-41.045 E124.80171
G1 X22.955 Y-40.962 E124.81425
G1 X22.673 Y-40.958 E124.82678
G1 X22.401 Y-41.033 E124.83931
G1 X22.161 Y-41.18 E124.85181
G1 X19.439 Y-43.438 E125.00887
G1 X16.045 Y-43.031 E125.16067
G1 X15.141 Y-41.913 E125.22452
G1 X14.59 Y-40.857 E125.27742
G1 X14.101 Y-39.281 E125.3507
G1 X14.406 Y-36.263 E125.48541
G1 X20.936 Y-35.693 E125.77651
G1 X22.166 Y-36.7 E125.8471
G1 X22.408 Y-36.846 E125.85965
G1 X22.68 Y-36.919 E125.87216
G1 X22.962 Y-36.913 E125.88469
G1 X23.231 Y-36.828 E125.89721
G1 X23.466 Y-36.672 E125.90974
G1 X23.648 Y-36.456 E125.92228
G1 X23.762 Y-36.198 E125.93481
G1 X23.8 Y-35.926 E125.94701
G1 X23.8 Y-23.623 E126.49338
G1 X23.76 Y-23.344 E126.50589
G1 X23.644 Y-23.087 E126.51842
G1 X23.461 Y-22.872 E126.53095
G1 X23.225 Y-22.718 E126.54347
G1 X22.8 Y-22.623 E126.56281
G1 X-12.416 Y-22.624 E128.12673
G0 F1080 X-12.8 Y-22.624
G0 X-13.079 Y-22.664
G0 F3600 X-13.015 Y-23.064
G1 F1200 X-13.201 Y-23.177 E128.1364
G1 X-13.334 Y-23.35 E128.14609
G1 X-13.4 Y-23.624 E128.1586
G1 X-13.4 Y-35.93 E128.70511
G1 X-13.36 Y-36.145 E128.71482
G1 X-13.247 Y-36.331 E128.72448
G1 X-13.074 Y-36.464 E128.73418
G1 X-12.865 Y-36.526 E128.74386
G1 X-12.647 Y-36.51 E128.75356
G1 X-12.416 Y-36.391 E128.7651
G1 X-11.125 Y-35.314 E128.83977
G1 X-10.976 Y-35.269 E128.84668
G1 X-4.014 Y-35.987 E129.1575
G1 X-3.696 Y-39.307 E129.30561
G1 X-4.211 Y-40.962 E129.38259
G1 X-5.01 Y-42.538 E129.46106
G1 X-8.756 Y-44.536 E129.6496
G1 X-8.789 Y-44.533 E129.65107
G1 X-12.415 Y-41.493 E129.8612
G1 X-12.604 Y-41.386 E129.87085
G1 X-12.82 Y-41.353 E129.88055
G1 X-13.033 Y-41.4 E129.89024
G1 X-13.215 Y-41.52 E129.89992
G1 X-13.343 Y-41.697 E129.90962
G1 X-13.4 Y-41.953 E129.92127
G1 X-13.4 Y-52.163 E130.37469
G1 X-13.36 Y-52.378 E130.3844
G1 X-13.247 Y-52.564 E130.39407
G1 X-13.074 Y-52.697 E130.40376
G1 X-12.8 Y-52.763 E130.41627
G1 X22.8 Y-52.763 E131.99725
G1 X23.015 Y-52.723 E132.00696
G1 X23.201 Y-52.61 E132.01663
G1 X23.334 Y-52.437 E132.02632
G1 X23.4 Y-52.163 E132.03883
G1 X23.4 Y-41.95 E132.49239
G1 X23.36 Y-41.735 E132.5021
G1 X23.247 Y-41.549 E132.51177
G1 X23.074 Y-41.416 E132.52146
G1 X22.865 Y-41.354 E132.53114
G1 X22.647 Y-41.37 E132.54084
G1 X22.417 Y-41.488 E132.55232
G1 X19.626 Y-43.804 E132.71339
G1 X19.483 Y-43.846 E132.72001
G1 X15.835 Y-43.408 E132.88318
G1 X14.808 Y-42.137 E132.95574
G1 X14.219 Y-41.008 E133.0123
G1 X13.695 Y-39.321 E133.09075
G1 X14.041 Y-35.894 E133.24371
G1 X21.065 Y-35.28 E133.55683
G1 X22.42 Y-36.39 E133.63462
G1 X22.611 Y-36.495 E133.6443
G1 X22.827 Y-36.525 E133.65398
G1 X23.039 Y-36.476 E133.66365
G1 X23.22 Y-36.354 E133.67334
G1 X23.346 Y-36.176 E133.68302
G1 X23.4 Y-35.926 E133.69438
G1 X23.4 Y-23.623 E134.24075
G1 X23.36 Y-23.408 E134.25046
G1 X23.247 Y-23.222 E134.26013
G1 X23.074 Y-23.089 E134.26982
G1 X22.8 Y-23.023 E134.28234
G1 X-12.353 Y-23.024 E135.84346
G0 F1080 X-12.8 Y-23.024
G0 X-13.015 Y-23.064
G0 F3600 X-12.8 Y-23.424
G1 F1200 X-12.919 Y-23.463 E135.84902
G1 X-13 Y-23.624 E135.85703
G1 X-13 Y-35.93 E136.40353
G1 X-12.961 Y-36.049 E136.40909
G1 X-12.859 Y-36.121 E136.41464
G1 X-12.672 Y-36.084 E136.4231
G1 X-11.318 Y-34.955 E136.50139
G1 X-11.016 Y-34.863 E136.51541
G1 X-3.811 Y-35.606 E136.83708
G1 X-3.631 Y-35.786 E136.84839
G1 X-3.29 Y-39.35 E137.00738
G1 X-3.839 Y-41.114 E137.08943
G1 X-4.709 Y-42.832 E137.17495
G1 X-8.676 Y-44.947 E137.3746
G1 X-8.953 Y-44.918 E137.38696
G1 X-12.672 Y-41.8 E137.60249
G1 X-12.787 Y-41.753 E137.60801
