;FLAVOR:Marlin
;TIME:4735
;Filament used: 6.19343m
;Layer height: 0.24
;MINX:-71.043
;MINY:-72.508
;MINZ:0.24
;MAXX:77.507
;MAXY:76.043
;MAXZ:18.48
;Generated with Cura_SteamEngine 4.13.1
M140 S50
M105
M190 S50
M104 S215
M105
M109 S215
M82 ;absolute extrusion mode
;FLAVOR:Marlin
M82 ;absolute extrusion mode
G21
G90
M82
M107 T0
G28
G92 E0
G0 E3 F200
G92 E0 ; reset extrusion distance
M106 S255 ; Enable cooling fan full speed
G1 X-98 Y0 Z0.4 F3000 ; move to arc start
G3 X0 Y-98 I98 Z0.4 E40 F400 ; lay arc stripe 90deg
G92 E0 ; reset extrusion distance
G4 P500 ; wait for 0.5 sec
G0 Z10 E-1 ; Lift 15mm and retract 1mm filament
G4 P2000 ; wait for 5 sec
G0 Z15
M107 ; Disable cooling fan
G1 X0 Y-85 Z4 E0 F3000 ; get off the bed
G92 E0
G92 E0
G1 F1500 E-6
;LAYER_COUNT:78
;LAYER:0
M106 S102
G1 F600 Z1.24
G0 F3600 X21.926 Y22.844 Z1.24
;TYPE:SKIRT
G1 F600 Z0.24
G1 F3600 E0.71493
G1 F1200 X21.776 Y23.113 E0.7286
G1 X21.399 Y23.569 E0.75488
G1 X21.15 Y23.816 E0.77045
G1 X20.993 Y24.091 E0.78452
G1 X20.638 Y24.519 E0.80921
G1 X18.142 Y27.013 E0.96591
G1 X17.976 Y27.482 E0.988
G1 X17.738 Y27.91 E1.00975
G1 X17.393 Y28.336 E1.0341
G1 X16.986 Y28.696 E1.05823
G1 X16.474 Y29 E1.08467
G1 X16.229 Y29.114 E1.09667
G1 X13.5 Y31.845 E1.26813
G1 X13.141 Y32.518 E1.302
G1 X12.785 Y32.946 E1.32672
G1 X12.325 Y33.405 E1.35558
G1 X11.951 Y33.721 E1.37733
G1 X11.531 Y33.972 E1.39905
G1 X10.865 Y34.198 E1.43029
G1 X10.763 Y34.57 E1.44742
G1 X10.558 Y35.014 E1.46914
G1 X10.284 Y35.42 E1.49089
G1 X10.065 Y35.663 E1.50542
G1 X-29.437 Y75.165 E3.98632
G1 X-29.81 Y75.482 E4.00806
G1 X-30.23 Y75.734 E4.02981
G1 X-30.685 Y75.914 E4.05154
G1 X-31.163 Y76.018 E4.07326
G1 X-31.652 Y76.043 E4.09501
G1 X-32.138 Y75.987 E4.11673
G1 X-32.609 Y75.854 E4.13847
G1 X-33.052 Y75.645 E4.16022
G1 X-33.455 Y75.368 E4.18194
G1 X-33.679 Y75.165 E4.19536
G1 X-70.165 Y38.678 E6.48688
G1 X-70.482 Y38.305 E6.50862
G1 X-70.734 Y37.885 E6.53037
G1 X-70.914 Y37.43 E6.5521
G1 X-71.018 Y36.952 E6.57382
G1 X-71.043 Y36.463 E6.59557
G1 X-70.987 Y35.977 E6.61729
G1 X-70.854 Y35.506 E6.63903
G1 X-70.645 Y35.063 E6.66078
G1 X-70.368 Y34.66 E6.6825
G1 X-70.165 Y34.436 E6.69592
G1 X26.708 Y-62.437 E12.77998
G1 X27.081 Y-62.754 E12.80172
G1 X27.501 Y-63.006 E12.82347
G1 X27.956 Y-63.186 E12.8452
G1 X28.434 Y-63.29 E12.86693
G1 X28.923 Y-63.315 E12.88867
G1 X29.409 Y-63.259 E12.9104
G1 X29.88 Y-63.126 E12.93213
G1 X30.323 Y-62.917 E12.95388
G1 X30.949 Y-62.438 E12.98889
G1 X32.01 Y-61.378 E13.05549
G1 X32.406 Y-60.873 E13.08399
G1 X32.574 Y-61.042 E13.09457
G1 X32.745 Y-61.337 E13.10972
G1 X33.091 Y-61.751 E13.13368
G1 X34.902 Y-63.56 E13.24735
G1 X35.275 Y-63.877 E13.26909
G1 X35.695 Y-64.129 E13.29085
G1 X36.15 Y-64.309 E13.31258
G1 X36.4 Y-64.363 E13.32393
G1 X36.569 Y-64.919 E13.34974
G1 X36.796 Y-65.353 E13.37149
G1 X37.209 Y-65.867 E13.40077
G1 X42.972 Y-71.63 E13.76272
G1 X43.345 Y-71.947 E13.78445
G1 X43.765 Y-72.199 E13.80621
G1 X44.22 Y-72.379 E13.82794
G1 X44.698 Y-72.483 E13.84966
G1 X45.187 Y-72.508 E13.87141
G1 X45.673 Y-72.452 E13.89313
G1 X46.144 Y-72.319 E13.91487
G1 X46.587 Y-72.11 E13.93662
G1 X47.215 Y-71.63 E13.97172
G1 X51.316 Y-67.528 E14.22931
G1 X51.632 Y-67.155 E14.25102
G1 X51.884 Y-66.735 E14.27278
G1 X52.064 Y-66.28 E14.29451
G1 X52.168 Y-65.802 E14.31623
G1 X52.193 Y-65.313 E14.33797
G1 X52.137 Y-64.826 E14.35974
G1 X52.004 Y-64.355 E14.38148
G1 X51.795 Y-63.913 E14.40319
G1 X51.518 Y-63.509 E14.42495
G1 X51.315 Y-63.286 E14.43834
G1 X45.391 Y-57.362 E14.81039
G1 X45.018 Y-57.045 E14.83213
G1 X44.598 Y-56.793 E14.85388
G1 X44.143 Y-56.613 E14.87561
G1 X43.908 Y-56.562 E14.88629
G1 X43.775 Y-56.109 E14.90726
G1 X43.562 Y-55.669 E14.92897
G1 X43.096 Y-55.066 E14.96281
G1 X40.052 Y-52.022 E15.15399
G1 X39.679 Y-51.705 E15.17573
G1 X39.198 Y-51.424 E15.20047
G1 X38.957 Y-51.312 E15.21227
G1 X38.718 Y-51.073 E15.22728
G1 X56.073 Y-33.717 E16.31728
G1 X56.316 Y-33.96 E16.33254
G1 X56.665 Y-34.621 E16.36574
G1 X57.027 Y-35.059 E16.39097
G1 X60.067 Y-38.097 E16.58184
G1 X60.441 Y-38.414 E16.60361
G1 X60.861 Y-38.665 E16.62534
G1 X61.316 Y-38.845 E16.64707
G1 X61.558 Y-38.898 E16.65807
G1 X61.638 Y-39.222 E16.67289
G1 X61.831 Y-39.672 E16.69463
G1 X62.094 Y-40.084 E16.71634
G1 X62.362 Y-40.391 E16.73444
G1 X68.286 Y-46.315 E17.10649
G1 X68.659 Y-46.632 E17.12823
G1 X69.079 Y-46.884 E17.14998
G1 X69.534 Y-47.064 E17.17171
G1 X70.012 Y-47.168 E17.19344
G1 X70.501 Y-47.193 E17.21518
G1 X70.987 Y-47.137 E17.23691
G1 X71.458 Y-47.004 E17.25864
G1 X71.901 Y-46.795 E17.2804
G1 X72.304 Y-46.518 E17.30211
G1 X72.528 Y-46.315 E17.31554
G1 X76.629 Y-42.214 E17.5731
G1 X76.946 Y-41.841 E17.59484
G1 X77.198 Y-41.421 E17.61659
G1 X77.378 Y-40.966 E17.63832
G1 X77.482 Y-40.488 E17.66004
G1 X77.507 Y-39.999 E17.68179
G1 X77.451 Y-39.513 E17.70351
G1 X77.318 Y-39.042 E17.72525
G1 X77.109 Y-38.599 E17.747
G1 X76.63 Y-37.972 E17.78204
G1 X70.869 Y-32.209 E18.14392
G1 X70.496 Y-31.892 E18.16566
G1 X70.076 Y-31.64 E18.18741
G1 X69.621 Y-31.46 E18.20914
G1 X69.403 Y-31.413 E18.21905
G1 X69.195 Y-30.78 E18.24864
G1 X68.949 Y-30.357 E18.27037
G1 X68.605 Y-29.945 E18.2942
G1 X66.749 Y-28.089 E18.41077
G1 X66.376 Y-27.772 E18.43251
G1 X66.043 Y-27.579 E18.4496
G1 X65.871 Y-27.407 E18.4604
G1 X66.375 Y-27.012 E18.48884
G1 X67.436 Y-25.952 E18.55544
G1 X67.753 Y-25.579 E18.57718
G1 X68.005 Y-25.16 E18.5989
G1 X68.186 Y-24.705 E18.62064
G1 X68.29 Y-24.226 E18.64241
G1 X68.315 Y-23.737 E18.66415
G1 X68.26 Y-23.251 E18.68587
G1 X68.126 Y-22.78 E18.70762
G1 X67.918 Y-22.337 E18.72936
G1 X67.641 Y-21.934 E18.75107
G1 X67.437 Y-21.709 E18.76456
G1 X38.092 Y7.636 E20.60756
G1 X37.719 Y7.953 E20.6293
G1 X37.299 Y8.205 E20.65105
G1 X36.844 Y8.385 E20.67278
G1 X36.368 Y8.489 E20.69442
G1 X36.118 Y9.079 E20.72287
G1 X35.637 Y9.708 E20.75804
G1 X34.84 Y10.504 E20.80806
G1 X34.84 Y12.646 E20.90319
G1 X34.8 Y13.134 E20.92493
G1 X34.681 Y13.609 E20.94668
G1 X34.487 Y14.058 E20.9684
G1 X34.222 Y14.47 E20.99015
G1 X33.894 Y14.833 E21.01188
G1 X33.511 Y15.138 E21.03362
G1 X33.083 Y15.376 E21.05537
G1 X32.623 Y15.542 E21.07709
G1 X31.84 Y15.646 E21.11217
G1 X30.083 Y15.646 E21.19019
G1 X26.768 Y18.963 E21.39845
G1 X26.395 Y19.279 E21.42016
G1 X26.074 Y19.468 E21.43671
G1 X25.501 Y20.044 E21.47279
G1 X25.128 Y20.361 E21.49453
G1 X24.709 Y20.614 E21.51626
G1 X24.255 Y20.795 E21.53797
G1 X23.902 Y20.872 E21.55401
G1 X22.396 Y22.375 E21.6485
G0 F1080 X21.926 Y22.844
G0 F3600 X21.605 Y22.6
G1 F1200 X21.426 Y22.916 E21.66463
G1 X20.83 Y23.571 E21.70396
G1 X20.645 Y23.891 E21.72037
G1 X20.355 Y24.236 E21.74039
G1 X17.775 Y26.815 E21.90239
G1 X17.666 Y27.187 E21.91961
G1 X17.464 Y27.595 E21.93983
G1 X17.106 Y28.056 E21.96575
G1 X16.723 Y28.393 E21.9884
G1 X15.996 Y28.781 E22.025
G1 X13.166 Y31.613 E22.2028
G1 X12.793 Y32.318 E22.23822
G1 X12.502 Y32.662 E22.25823
G1 X12.042 Y33.121 E22.28709
G1 X11.693 Y33.414 E22.30733
G1 X11.298 Y33.641 E22.32756
G1 X10.869 Y33.795 E22.3478
G1 X10.518 Y33.855 E22.36361
G1 X10.457 Y34.208 E22.37952
G1 X10.302 Y34.636 E22.39974
G1 X10.075 Y35.031 E22.41997
G1 X9.782 Y35.38 E22.44021
G1 X-29.72 Y74.882 E24.92111
G1 X-30.069 Y75.175 E24.94134
G1 X-30.464 Y75.402 E24.96158
G1 X-30.892 Y75.557 E24.98179
G1 X-31.341 Y75.635 E25.00203
G1 X-31.797 Y75.633 E25.02228
G1 X-32.245 Y75.552 E25.0425
G1 X-32.672 Y75.393 E25.06273
G1 X-33.065 Y75.163 E25.08296
G1 X-33.397 Y74.882 E25.10227
G1 X-69.883 Y38.395 E27.39379
G1 X-70.175 Y38.046 E27.414
G1 X-70.402 Y37.651 E27.43423
G1 X-70.557 Y37.223 E27.45444
G1 X-70.635 Y36.774 E27.47468
G1 X-70.633 Y36.318 E27.49493
G1 X-70.552 Y35.87 E27.51515
G1 X-70.393 Y35.443 E27.53539
G1 X-70.163 Y35.05 E27.55561
G1 X-69.882 Y34.719 E27.57489
G1 X26.991 Y-62.154 E33.65895
G1 X27.34 Y-62.447 E33.67918
G1 X27.735 Y-62.674 E33.69942
G1 X28.163 Y-62.829 E33.71963
G1 X28.612 Y-62.907 E33.73987
G1 X29.068 Y-62.905 E33.76012
G1 X29.516 Y-62.824 E33.78034
G1 X29.943 Y-62.665 E33.80057
G1 X30.336 Y-62.435 E33.8208
G1 X30.667 Y-62.155 E33.84005
G1 X31.728 Y-61.095 E33.90665
G1 X32.02 Y-60.746 E33.92686
G1 X32.302 Y-60.203 E33.95403
G1 X32.892 Y-60.795 E33.99115
G1 X33.092 Y-61.135 E34.00867
G1 X33.374 Y-61.468 E34.02805
G1 X35.185 Y-63.277 E34.14172
G1 X35.534 Y-63.57 E34.16196
G1 X35.929 Y-63.797 E34.18219
G1 X36.358 Y-63.952 E34.20245
G1 X36.75 Y-64.019 E34.22011
G1 X36.855 Y-64.542 E34.2438
G1 X37.032 Y-64.962 E34.26404
G1 X37.279 Y-65.344 E34.28424
G1 X37.492 Y-65.584 E34.29849
G1 X43.255 Y-71.347 E34.66044
G1 X43.604 Y-71.64 E34.68067
G1 X43.999 Y-71.867 E34.7009
G1 X44.427 Y-72.022 E34.72112
G1 X44.876 Y-72.1 E34.74136
G1 X45.332 Y-72.098 E34.76161
G1 X45.78 Y-72.017 E34.78183
G1 X46.207 Y-71.858 E34.80206
G1 X46.6 Y-71.628 E34.82228
G1 X46.932 Y-71.347 E34.8416
G1 X51.033 Y-67.245 E35.09919
G1 X51.325 Y-66.896 E35.1194
G1 X51.553 Y-66.501 E35.13966
G1 X51.707 Y-66.073 E35.15986
G1 X51.785 Y-65.624 E35.18009
G1 X51.783 Y-65.168 E35.20035
G1 X51.702 Y-64.72 E35.22056
G1 X51.543 Y-64.293 E35.2408
G1 X51.312 Y-63.9 E35.26104
G1 X51.032 Y-63.569 E35.2803
G1 X45.108 Y-57.645 E35.65235
G1 X44.759 Y-57.352 E35.67259
G1 X44.364 Y-57.125 E35.69282
G1 X43.936 Y-56.97 E35.71303
G1 X43.558 Y-56.904 E35.73007
G1 X43.476 Y-56.477 E35.74938
G1 X43.314 Y-56.051 E35.76962
G1 X43.079 Y-55.66 E35.78988
G1 X42.813 Y-55.349 E35.80806
G1 X39.769 Y-52.305 E35.99923
G1 X39.42 Y-52.012 E36.01947
G1 X38.722 Y-51.643 E36.05453
G1 X38.153 Y-51.073 E36.0903
G1 X56.073 Y-33.152 E37.21579
G1 X56.65 Y-33.728 E37.25199
G1 X57.014 Y-34.423 E37.28684
G1 X57.31 Y-34.776 E37.30729
G1 X60.35 Y-37.814 E37.49816
G1 X60.699 Y-38.107 E37.51839
G1 X61.094 Y-38.334 E37.53863
G1 X61.523 Y-38.489 E37.55888
G1 X61.907 Y-38.555 E37.57619
G1 X61.953 Y-38.868 E37.59024
G1 X62.096 Y-39.301 E37.61049
G1 X62.313 Y-39.702 E37.63074
G1 X62.645 Y-40.108 E37.65403
G1 X68.569 Y-46.032 E38.02608
G1 X68.918 Y-46.325 E38.04632
G1 X69.313 Y-46.552 E38.06655
G1 X69.741 Y-46.707 E38.08676
G1 X70.19 Y-46.785 E38.107
G1 X70.646 Y-46.783 E38.12725
G1 X71.094 Y-46.702 E38.14747
G1 X71.521 Y-46.543 E38.16771
G1 X71.914 Y-46.313 E38.18793
G1 X72.245 Y-46.032 E38.20721
G1 X76.346 Y-41.931 E38.46477
G1 X76.639 Y-41.582 E38.48501
G1 X76.866 Y-41.187 E38.50524
G1 X77.021 Y-40.759 E38.52546
G1 X77.099 Y-40.31 E38.5457
G1 X77.097 Y-39.854 E38.56595
G1 X77.016 Y-39.406 E38.58616
G1 X76.857 Y-38.979 E38.6064
G1 X76.627 Y-38.586 E38.62662
G1 X76.347 Y-38.255 E38.64587
G1 X70.586 Y-32.492 E39.00775
G1 X70.237 Y-32.199 E39.02799
G1 X69.842 Y-31.972 E39.04822
G1 X69.413 Y-31.817 E39.06848
G1 X69.064 Y-31.748 E39.08428
G1 X68.969 Y-31.303 E39.10449
G1 X68.798 Y-30.88 E39.12475
G1 X68.555 Y-30.495 E39.14497
G1 X68.322 Y-30.228 E39.1607
G1 X66.466 Y-28.372 E39.27727
G1 X66.117 Y-28.079 E39.29751
G1 X65.792 Y-27.893 E39.31414
G1 X65.201 Y-27.301 E39.35128
G1 X65.762 Y-27.009 E39.37937
G1 X66.093 Y-26.729 E39.39862
G1 X67.154 Y-25.669 E39.46523
G1 X67.446 Y-25.32 E39.48544
G1 X67.674 Y-24.926 E39.50565
G1 X67.829 Y-24.497 E39.52591
G1 X67.907 Y-24.048 E39.54615
G1 X67.905 Y-23.593 E39.56635
G1 X67.824 Y-23.144 E39.58662
G1 X67.666 Y-22.717 E39.60684
G1 X67.435 Y-22.324 E39.62708
G1 X67.154 Y-21.992 E39.6464
G1 X37.809 Y7.353 E41.48939
G1 X37.46 Y7.646 E41.50963
G1 X37.065 Y7.873 E41.52986
G1 X36.637 Y8.028 E41.55008
G1 X36.054 Y8.105 E41.57619
G1 X35.866 Y8.699 E41.60386
G1 X35.635 Y9.092 E41.62411
G1 X35.354 Y9.425 E41.64346
G1 X34.44 Y10.338 E41.70083
G1 X34.44 Y12.646 E41.80333
G1 X34.4 Y13.1 E41.82357
G1 X34.282 Y13.54 E41.8438
G1 X34.088 Y13.952 E41.86402
G1 X33.825 Y14.325 E41.88429
G1 X33.502 Y14.646 E41.90451
G1 X33.127 Y14.905 E41.92475
G1 X32.713 Y15.095 E41.94498
G1 X32.272 Y15.21 E41.96522
G1 X31.84 Y15.246 E41.98447
G1 X29.916 Y15.246 E42.06991
G1 X26.485 Y18.68 E42.28549
G1 X26.136 Y18.973 E42.30573
G1 X25.821 Y19.155 E42.32188
G1 X25.218 Y19.761 E42.35985
G1 X24.869 Y20.055 E42.38011
G1 X24.475 Y20.283 E42.40033
G1 X24.046 Y20.439 E42.4206
G1 X23.713 Y20.497 E42.43561
G1 X22.075 Y22.131 E42.53836
G0 F1080 X21.605 Y22.6
G0 F3600 X21.288 Y22.351
G1 F1200 X21.077 Y22.717 E42.55712
G1 X20.514 Y23.321 E42.59379
G1 X20.298 Y23.688 E42.6127
G1 X20.072 Y23.953 E42.62817
G1 X17.404 Y26.619 E42.79567
G1 X17.333 Y26.931 E42.80988
G1 X17.165 Y27.315 E42.82849
G1 X16.82 Y27.777 E42.8541
G1 X16.462 Y28.087 E42.87513
G1 X15.762 Y28.45 E42.91015
G1 X12.835 Y31.378 E43.09401
G1 X12.446 Y32.115 E43.13102
G1 X12.22 Y32.379 E43.14645
G1 X11.76 Y32.838 E43.17531
G1 X11.436 Y33.105 E43.19396
G1 X11.068 Y33.305 E43.21256
G1 X10.669 Y33.432 E43.23115
G1 X10.143 Y33.473 E43.25458
G1 X10.116 Y33.893 E43.27327
G1 X10.01 Y34.298 E43.29186
G1 X9.829 Y34.676 E43.31048
G1 X9.5 Y35.098 E43.33424
G1 X-30.002 Y74.6 E45.81514
G1 X-30.326 Y74.866 E45.83376
G1 X-30.693 Y75.067 E45.85234
G1 X-31.093 Y75.194 E45.87098
G1 X-31.509 Y75.243 E45.88958
G1 X-31.927 Y75.213 E45.90819
G1 X-32.331 Y75.104 E45.92677
G1 X-32.708 Y74.92 E45.9454
G1 X-33.114 Y74.6 E45.96836
G1 X-69.6 Y38.113 E48.25988
G1 X-69.866 Y37.789 E48.27849
G1 X-70.067 Y37.422 E48.29708
G1 X-70.194 Y37.022 E48.31571
G1 X-70.243 Y36.606 E48.33432
G1 X-70.213 Y36.188 E48.35293
G1 X-70.104 Y35.784 E48.37151
G1 X-69.92 Y35.407 E48.39014
G1 X-69.6 Y35.001 E48.4131
G1 X27.273 Y-61.872 E54.49715
G1 X27.597 Y-62.138 E54.51577
G1 X27.964 Y-62.339 E54.53435
G1 X28.364 Y-62.466 E54.55299
G1 X28.78 Y-62.515 E54.57159
G1 X29.198 Y-62.485 E54.5902
G1 X29.602 Y-62.376 E54.60879
G1 X29.979 Y-62.192 E54.62742
G1 X30.384 Y-61.872 E54.65034
G1 X31.445 Y-60.812 E54.71694
G1 X31.712 Y-60.489 E54.73555
G1 X31.913 Y-60.122 E54.75414
G1 X32.04 Y-59.722 E54.77277
G1 X32.077 Y-59.41 E54.78673
G1 X33.214 Y-60.552 E54.85829
G1 X33.438 Y-60.931 E54.87784
G1 X33.656 Y-61.185 E54.89271
G1 X35.467 Y-62.994 E55.00639
G1 X35.791 Y-63.261 E55.02503
G1 X36.159 Y-63.461 E55.04363
G1 X36.558 Y-63.588 E55.06223
G1 X37.143 Y-63.625 E55.08826
G1 X37.179 Y-64.209 E55.11424
G1 X37.306 Y-64.609 E55.13288
G1 X37.507 Y-64.977 E55.1515
G1 X37.774 Y-65.302 E55.17018
G1 X43.537 Y-71.065 E55.53212
G1 X43.861 Y-71.331 E55.55074
G1 X44.228 Y-71.532 E55.56932
G1 X44.628 Y-71.659 E55.58796
G1 X45.044 Y-71.708 E55.60656
G1 X45.462 Y-71.678 E55.62517
G1 X45.866 Y-71.569 E55.64375
G1 X46.243 Y-71.385 E55.66238
G1 X46.649 Y-71.064 E55.68537
G1 X50.75 Y-66.962 E55.94296
G1 X51.017 Y-66.639 E55.96157
G1 X51.217 Y-66.271 E55.98017
G1 X51.344 Y-65.872 E55.99877
G1 X51.393 Y-65.456 E56.01737
G1 X51.363 Y-65.038 E56.03598
G1 X51.254 Y-64.633 E56.05461
G1 X51.069 Y-64.257 E56.07322
G1 X50.75 Y-63.851 E56.09615
G1 X44.826 Y-57.927 E56.4682
G1 X44.502 Y-57.661 E56.48682
G1 X44.135 Y-57.46 E56.5054
G1 X43.735 Y-57.333 E56.52404
G1 X43.166 Y-57.295 E56.54936
G1 X43.14 Y-56.798 E56.57146
G1 X43.027 Y-56.394 E56.59009
G1 X42.84 Y-56.02 E56.60866
G1 X42.531 Y-55.631 E56.63073
G1 X39.487 Y-52.587 E56.8219
G1 X39.163 Y-52.321 E56.84052
G1 X38.489 Y-51.976 E56.87414
G1 X37.587 Y-51.074 E56.93079
G1 X56.074 Y-32.586 E58.09189
G1 X56.981 Y-33.493 E58.14886
G1 X57.362 Y-34.222 E58.18539
G1 X57.593 Y-34.493 E58.2012
G1 X60.633 Y-37.531 E58.39206
G1 X60.956 Y-37.798 E58.41067
G1 X61.324 Y-37.998 E58.42927
G1 X61.723 Y-38.125 E58.44787
G1 X62.288 Y-38.163 E58.47302
G1 X62.302 Y-38.562 E58.49075
G1 X62.397 Y-38.97 E58.50935
G1 X62.568 Y-39.353 E58.52798
G1 X62.927 Y-39.826 E58.55435
G1 X68.851 Y-45.75 E58.9264
G1 X69.175 Y-46.016 E58.94502
G1 X69.542 Y-46.217 E58.9636
G1 X69.942 Y-46.344 E58.98224
G1 X70.358 Y-46.393 E59.00084
G1 X70.776 Y-46.363 E59.01945
G1 X71.18 Y-46.254 E59.03803
G1 X71.557 Y-46.07 E59.05666
