;FLAVOR:Marlin
;TIME:3564
;Filament used: 3.85835m
;Layer height: 0.24
;MINX:41.2
;MINY:33.066
;MINZ:0.24
;MAXX:78.8
;MAXY:72.12
;MAXZ:35.52
;Generated with Cura_SteamEngine 4.7.0
M104 S210
M105
M109 S210
M82 ;absolute extrusion mode
;Sliced at: Thu 27-08-2020 11:29:14
G21 ;metric values
G90 ;absolute positioning
M82 ;set extruder to absolute mode
M107 ;start with the fan off
G1 Z5.0 F1800 ;move Z to 5mm
G28 X0 Y0 F1800 ;move X/Y to min endstops
G28 Z0 ;move Z to min endstop
G92 E0 ;zero the extruded length
G1 F200 E6.0 ;extrude 6.0mm of feed stock to build pressure
G1 Z5.0 F300 ;move the platform down 5mm
G92 E0 ;zero the extruded length again
G1 F1800
;Put printing message on LCD screen
M117 Printing...
G92 E0
G92 E0
G1 F1500 E-5
;LAYER_COUNT:149
;LAYER:0
M107
G0 F900 X42.493 Y34.953 Z0.24
;TYPE:SKIRT
G1 F1500 E0.70678
G1 F900 X42.853 Y34.517 E0.7316
G1 X43.271 Y34.136 E0.75643
G1 X43.909 Y33.71 E0.79011
G1 X44.408 Y33.445 E0.81492
G1 X44.94 Y33.254 E0.83973
G1 X45.634 Y33.124 E0.87073
G1 X46.275 Y33.075 E0.89896
G1 X46.758 Y33.069 E0.92016
G1 X49.171 Y33.066 E1.0261
G1 X52.628 Y33.073 E1.17788
G1 X66.855 Y33.073 E1.80249
G1 X70.598 Y33.067 E1.96682
G1 X73.154 Y33.069 E2.07904
G1 X73.866 Y33.079 E2.1103
G1 X74.581 Y33.154 E2.14186
G1 X74.805 Y33.198 E2.15189
G1 X75.351 Y33.346 E2.17672
G1 X75.87 Y33.569 E2.20152
G1 X76.339 Y33.854 E2.22562
G1 X76.546 Y34 E2.23674
G1 X76.984 Y34.358 E2.26157
G1 X77.437 Y34.864 E2.29139
G1 X77.592 Y35.07 E2.30271
G1 X77.899 Y35.545 E2.32754
G1 X78.116 Y36.006 E2.34991
G1 X78.225 Y36.282 E2.36294
G1 X78.451 Y37.093 E2.3999
G1 X78.549 Y37.681 E2.42607
G1 X78.61 Y38.42 E2.45863
G1 X78.616 Y38.759 E2.47351
G1 X78.62 Y42.364 E2.63178
G1 X78.618 Y47.928 E2.87606
G1 X78.619 Y62.284 E3.50634
G1 X78.621 Y63.011 E3.53826
G1 X78.615 Y66.085 E3.67322
G1 X78.607 Y66.617 E3.69658
G1 X78.594 Y66.876 E3.70796
G1 X78.538 Y67.577 E3.73884
G1 X78.454 Y68.135 E3.76361
G1 X78.245 Y68.825 E3.79526
G1 X78.105 Y69.193 E3.81255
G1 X77.867 Y69.706 E3.83738
G1 X77.559 Y70.18 E3.86219
G1 X77.165 Y70.635 E3.88862
G1 X77.003 Y70.8 E3.89877
G1 X76.58 Y71.175 E3.92359
G1 X76.108 Y71.486 E3.9484
G1 X75.592 Y71.734 E3.97354
G1 X75.061 Y71.928 E3.99836
G1 X74.437 Y72.054 E4.02631
G1 X73.963 Y72.092 E4.04719
G1 X72.782 Y72.117 E4.09905
G1 X70.83 Y72.12 E4.18475
G1 X67.373 Y72.114 E4.33652
G1 X53.144 Y72.114 E4.96122
G1 X49.402 Y72.119 E5.12551
G1 X46.844 Y72.117 E5.23781
G1 X46.152 Y72.107 E5.2682
G1 X45.507 Y72.045 E5.29665
G1 X45.266 Y72.002 E5.30739
G1 X44.718 Y71.863 E5.33221
G1 X44.195 Y71.649 E5.35702
G1 X43.693 Y71.353 E5.38261
G1 X43.482 Y71.207 E5.39387
G1 X43.041 Y70.854 E5.41867
G1 X42.546 Y70.302 E5.45123
G1 X42.379 Y70.077 E5.46353
G1 X42.075 Y69.6 E5.48836
G1 X41.842 Y69.086 E5.51314
G1 X41.745 Y68.825 E5.52536
G1 X41.549 Y68.092 E5.55867
G1 X41.456 Y67.536 E5.58342
G1 X41.401 Y67.023 E5.60608
G1 X41.384 Y66.337 E5.6362
G1 X41.38 Y62.823 E5.79048
G1 X41.382 Y57.259 E6.03476
G1 X41.381 Y42.905 E6.66495
G1 X41.379 Y42.16 E6.69765
G1 X41.386 Y39.065 E6.83354
G1 X41.394 Y38.565 E6.85549
G1 X41.406 Y38.311 E6.86665
G1 X41.462 Y37.608 E6.89762
G1 X41.612 Y36.796 E6.93387
G1 X41.798 Y36.221 E6.9604
G1 X42.017 Y35.699 E6.98525
G1 X42.131 Y35.511 E6.99491
G0 F810 X42.329 Y35.183
G0 X42.493 Y34.953
G0 F900 X42.819 Y35.185
G1 X43.162 Y34.773 E7.01844
G1 X43.562 Y34.416 E7.04198
G1 X44.12 Y34.049 E7.0713
G1 X44.595 Y33.8 E7.09485
G1 X45.102 Y33.625 E7.1184
G1 X45.673 Y33.522 E7.14387
G1 X46.28 Y33.475 E7.1706
G1 X46.759 Y33.469 E7.19163
G1 X49.17 Y33.466 E7.29748
G1 X52.627 Y33.473 E7.44926
G1 X66.855 Y33.473 E8.07391
G1 X70.598 Y33.467 E8.23824
G1 X73.149 Y33.469 E8.35024
G1 X73.861 Y33.479 E8.3815
G1 X74.504 Y33.547 E8.40989
G1 X74.728 Y33.591 E8.41991
G1 X75.245 Y33.733 E8.44345
G1 X75.735 Y33.95 E8.46698
G1 X76.316 Y34.327 E8.49739
G1 X76.73 Y34.668 E8.52093
G1 X77.118 Y35.105 E8.54659
G1 X77.273 Y35.311 E8.55791
G1 X77.562 Y35.762 E8.58143
G1 X77.853 Y36.429 E8.61338
G1 X78.056 Y37.159 E8.64664
G1 X78.154 Y37.747 E8.67281
G1 X78.211 Y38.437 E8.70321
G1 X78.216 Y38.759 E8.71735
G1 X78.22 Y42.364 E8.87562
G1 X78.218 Y47.928 E9.1199
G1 X78.219 Y62.284 E9.75017
G1 X78.221 Y63.01 E9.78205
G1 X78.215 Y66.079 E9.91679
G1 X78.207 Y66.611 E9.94015
G1 X78.196 Y66.844 E9.95039
G1 X78.14 Y67.545 E9.98126
G1 X77.989 Y68.325 E10.01614
G1 X77.731 Y69.051 E10.04997
G1 X77.503 Y69.537 E10.07354
G1 X77.059 Y70.16 E10.10713
G1 X76.718 Y70.52 E10.1289
G1 X76.315 Y70.874 E10.15245
G1 X75.863 Y71.164 E10.17602
G1 X75.429 Y71.369 E10.1971
G1 X74.925 Y71.551 E10.22062
G1 X74.39 Y71.657 E10.24457
G1 X73.955 Y71.692 E10.26373
G1 X72.782 Y71.717 E10.31524
G1 X70.831 Y71.72 E10.40089
G1 X67.374 Y71.714 E10.55267
G1 X53.144 Y71.714 E11.17741
G1 X49.402 Y71.719 E11.3417
G1 X46.85 Y71.717 E11.45374
G1 X46.158 Y71.707 E11.48412
G1 X45.578 Y71.651 E11.50971
G1 X45.337 Y71.608 E11.52045
G1 X44.817 Y71.475 E11.54402
G1 X44.323 Y71.266 E11.56757
G1 X43.71 Y70.878 E11.59942
G1 X43.293 Y70.541 E11.62296
G1 X42.867 Y70.064 E11.65104
G1 X42.7 Y69.839 E11.66334
G1 X42.414 Y69.385 E11.68689
G1 X42.12 Y68.686 E11.72019
G1 X41.943 Y68.026 E11.75019
G1 X41.85 Y67.47 E11.77494
G1 X41.79 Y66.76 E11.80622
G1 X41.784 Y66.313 E11.82585
G1 X41.78 Y62.823 E11.97907
G1 X41.782 Y57.259 E12.22335
G1 X41.781 Y42.905 E12.85354
G1 X41.779 Y42.161 E12.8862
G1 X41.785 Y39.071 E13.02186
G1 X41.793 Y38.571 E13.04382
G1 X41.804 Y38.343 E13.05384
G1 X41.86 Y37.64 E13.0848
G1 X41.996 Y36.909 E13.11744
G1 X42.177 Y36.349 E13.14328
G1 X42.386 Y35.855 E13.16683
G1 X42.455 Y35.742 E13.17264
G0 F810 X42.655 Y35.415
G0 X42.819 Y35.185
G0 F900 X43.145 Y35.417
G1 X43.47 Y35.03 E13.19483
G1 X44.058 Y34.559 E13.22791
G1 X44.331 Y34.389 E13.24203
G1 X44.78 Y34.156 E13.26424
G1 X45.26 Y33.997 E13.28644
G1 X46.019 Y33.89 E13.32009
G1 X46.719 Y33.869 E13.35083
G1 X49.169 Y33.866 E13.4584
G1 X52.626 Y33.873 E13.61017
G1 X66.856 Y33.873 E14.23492
G1 X70.598 Y33.867 E14.3992
G1 X73.143 Y33.869 E14.51094
G1 X73.855 Y33.879 E14.5422
G1 X74.427 Y33.939 E14.56745
G1 X74.651 Y33.983 E14.57747
G1 X75.138 Y34.119 E14.59967
G1 X75.597 Y34.331 E14.62187
G1 X76.085 Y34.654 E14.64756
G1 X76.474 Y34.977 E14.66976
G1 X76.953 Y35.551 E14.70258
G1 X77.224 Y35.978 E14.72479
G1 X77.481 Y36.576 E14.75336
G1 X77.661 Y37.225 E14.78293
G1 X77.759 Y37.813 E14.8091
G1 X77.811 Y38.455 E14.83738
G1 X77.816 Y38.759 E14.85073
G1 X77.82 Y42.364 E15.009
G1 X77.818 Y47.928 E15.25328
G1 X77.819 Y62.284 E15.88356
G1 X77.821 Y63.009 E15.91539
G1 X77.815 Y66.073 E16.04991
G1 X77.807 Y66.605 E16.07327
G1 X77.797 Y66.812 E16.08236
G1 X77.741 Y67.513 E16.11324
G1 X77.607 Y68.206 E16.14423
G1 X77.357 Y68.909 E16.17698
G1 X77.14 Y69.366 E16.1992
G1 X76.76 Y69.895 E16.22779
G1 X76.432 Y70.24 E16.24869
G1 X76.051 Y70.572 E16.27088
G1 X75.456 Y70.919 E16.30112
G1 X75.266 Y71.004 E16.31026
G1 X74.789 Y71.173 E16.33247
G1 X74.259 Y71.27 E16.35613
G1 X73.946 Y71.292 E16.36991
G1 X72.781 Y71.317 E16.42106
G1 X70.831 Y71.32 E16.50668
G1 X67.374 Y71.314 E16.65845
G1 X53.143 Y71.314 E17.28324
G1 X49.402 Y71.319 E17.44748
G1 X46.856 Y71.317 E17.55926
G1 X46.164 Y71.307 E17.58964
G1 X45.648 Y71.257 E17.6124
G1 X45.407 Y71.214 E17.62315
G1 X44.918 Y71.086 E17.64534
G1 X44.455 Y70.883 E17.66754
G1 X43.937 Y70.549 E17.6946
G1 X43.545 Y70.23 E17.71679
G1 X43.188 Y69.825 E17.74049
G1 X43.021 Y69.6 E17.75279
G1 X42.753 Y69.172 E17.77496
G1 X42.494 Y68.547 E17.80467
G1 X42.338 Y67.96 E17.83133
G1 X42.245 Y67.404 E17.85608
G1 X42.189 Y66.743 E17.8852
G1 X42.184 Y66.313 E17.90408
G1 X42.18 Y62.823 E18.05731
G1 X42.182 Y57.259 E18.30159
G1 X42.181 Y42.905 E18.93177
G1 X42.179 Y42.162 E18.96439
G1 X42.185 Y39.078 E19.09979
G1 X42.193 Y38.578 E19.12175
G1 X42.203 Y38.375 E19.13067
G1 X42.259 Y37.672 E19.16163
G1 X42.379 Y37.022 E19.19065
G1 X42.555 Y36.478 E19.21575
G1 X42.755 Y36.013 E19.23798
G1 X42.781 Y35.973 E19.24007
G0 F810 X43.145 Y35.417
G1 F1500 E14.24007
;MESH:Runcam_Dummy.stl
G0 F900 X44.717 Y45.862
G0 X51.519 Y45.862
G0 X60.833 Y61.518
G0 X60.833 Y62.018
;TYPE:WALL-OUTER
G1 F1500 E19.94685
G1 F900 X59.167 Y62.018 E20.01999
G1 X57.51 Y62.02 E20.09274
G1 X56.6 Y61.974 E20.13274
G1 X56.048 Y61.908 E20.15715
G1 X55.157 Y61.722 E20.19711
G1 X54.636 Y61.575 E20.22088
G1 X53.791 Y61.257 E20.26052
G1 X53.288 Y61.027 E20.2848
G1 X52.492 Y60.577 E20.32495
G1 X52.039 Y60.278 E20.34878
G1 X51.332 Y59.718 E20.38837
G1 X50.922 Y59.345 E20.41271
G1 X50.301 Y58.676 E20.45278
G1 X49.964 Y58.256 E20.47642
G1 X49.45 Y57.495 E20.51674
G1 X49.18 Y57.028 E20.54042
G1 X48.798 Y56.21 E20.58006
G1 X48.595 Y55.685 E20.60477
G1 X48.342 Y54.816 E20.64451
G1 X48.226 Y54.286 E20.66833
G1 X48.11 Y53.394 E20.70782
G1 X48.076 Y52.829 E20.73267
G1 X48.099 Y51.925 E20.77237
G1 X48.15 Y51.392 E20.79588
G1 X48.315 Y50.487 E20.83627
G1 X48.449 Y49.961 E20.8601
G1 X48.748 Y49.098 E20.9002
G1 X48.957 Y48.606 E20.92366
G1 X49.387 Y47.797 E20.96389
G1 X49.683 Y47.325 E20.98835
G1 X50.222 Y46.605 E21.02783
G1 X50.578 Y46.193 E21.05174
G1 X51.235 Y45.553 E21.09201
G1 X51.641 Y45.208 E21.1154
G1 X52.385 Y44.678 E21.1555
G1 X52.853 Y44.391 E21.17961
G1 X53.665 Y43.984 E21.21948
G1 X54.181 Y43.77 E21.24401
G1 X55.032 Y43.497 E21.28325
G1 X55.563 Y43.368 E21.30724
G1 X56.473 Y43.225 E21.34768
G1 X57.009 Y43.179 E21.3713
G1 X57.436 Y43.169 E21.39005
G1 X57.951 Y43.166 E21.41266
G1 X59.167 Y43.168 E21.46605
G1 X60.833 Y43.168 E21.53919
G1 X62.49 Y43.166 E21.61194
G1 X63.4 Y43.212 E21.65194
G1 X63.952 Y43.279 E21.67635
G1 X64.843 Y43.465 E21.71631
G1 X65.364 Y43.612 E21.74008
G1 X66.208 Y43.928 E21.77965
G1 X66.718 Y44.162 E21.80428
G1 X67.497 Y44.602 E21.84356
G1 X67.961 Y44.909 E21.86799
G1 X68.666 Y45.467 E21.90746
G1 X69.079 Y45.842 E21.93195
G1 X69.699 Y46.51 E21.97197
G1 X70.034 Y46.926 E21.99542
G1 X70.55 Y47.691 E22.03593
G1 X70.82 Y48.159 E22.05965
G1 X71.202 Y48.975 E22.0992
G1 X71.405 Y49.501 E22.12396
G1 X71.658 Y50.371 E22.16374
G1 X71.774 Y50.9 E22.18751
G1 X71.89 Y51.793 E22.22705
G1 X71.924 Y52.357 E22.25185
G1 X71.901 Y53.257 E22.29138
G1 X71.85 Y53.794 E22.31506
G1 X71.686 Y54.696 E22.35531
G1 X71.551 Y55.226 E22.37932
G1 X71.252 Y56.087 E22.41934
G1 X71.043 Y56.581 E22.44289
G1 X70.613 Y57.389 E22.48307
G1 X70.319 Y57.858 E22.50738
G1 X69.778 Y58.581 E22.54702
G1 X69.417 Y59 E22.5713
G1 X68.775 Y59.624 E22.61061
G1 X68.352 Y59.984 E22.63499
G1 X67.611 Y60.511 E22.67492
G1 X67.146 Y60.797 E22.69888
G1 X66.341 Y61.199 E22.73839
G1 X65.819 Y61.416 E22.76321
G1 X64.968 Y61.69 E22.80246
G1 X64.437 Y61.819 E22.82645
G1 X63.527 Y61.961 E22.86688
G1 X62.99 Y62.008 E22.89055
G1 X62.047 Y62.021 E22.93195
G1 X61.498 Y62.019 E22.95606
G0 F810 X60.833 Y62.018
G0 F900 X60.633 Y62.018
G0 X60.633 Y61.578
G0 X60.834 Y61.618
;TYPE:WALL-INNER
G1 X59.167 Y61.618 E23.02924
G1 X57.51 Y61.62 E23.10199
G1 X56.638 Y61.576 E23.14032
G1 X56.121 Y61.514 E23.16318
G1 X55.247 Y61.332 E23.20238
G1 X54.756 Y61.193 E23.22478
G1 X53.95 Y60.89 E23.26259
G1 X53.468 Y60.669 E23.28587
G1 X52.701 Y60.236 E23.32454
G1 X52.275 Y59.955 E23.34694
G1 X51.589 Y59.411 E23.38538
G1 X51.202 Y59.059 E23.40835
G1 X50.604 Y58.415 E23.44693
G1 X50.285 Y58.017 E23.46932
G1 X49.789 Y57.283 E23.50822
G1 X49.534 Y56.842 E23.53058
G1 X49.527 Y56.825 E23.53139
G1 X49.168 Y56.058 E23.56857
G1 X48.975 Y55.559 E23.59206
G1 X48.731 Y54.722 E23.63034
G1 X48.621 Y54.218 E23.65298
G1 X48.507 Y53.342 E23.69177
G1 X48.506 Y53.314 E23.693
G1 X48.478 Y52.85 E23.71341
G1 X48.476 Y52.827 E23.71442
G1 X48.499 Y51.945 E23.75316
G1 X48.546 Y51.455 E23.77477
G1 X48.707 Y50.571 E23.81422
G1 X48.834 Y50.072 E23.83682
G1 X49.123 Y49.237 E23.87561
G1 X49.317 Y48.781 E23.89737
G1 X49.731 Y48.003 E23.93606
G1 X50.016 Y47.548 E23.95963
G1 X50.529 Y46.862 E23.99724
G1 X50.872 Y46.465 E24.02028
G1 X51.506 Y45.848 E24.05912
G1 X51.887 Y45.524 E24.08107
G1 X52.608 Y45.01 E24.11995
G1 X53.044 Y44.743 E24.14239
G1 X53.841 Y44.343 E24.18154
G1 X54.312 Y44.148 E24.20393
G1 X55.139 Y43.883 E24.24205
G1 X55.646 Y43.76 E24.26496
G1 X56.513 Y43.624 E24.30349
G1 X57.036 Y43.579 E24.32653
G1 X57.445 Y43.569 E24.34449
G1 X57.952 Y43.566 E24.36675
G1 X59.166 Y43.568 E24.42005
G1 X60.833 Y43.568 E24.49324
G1 X62.49 Y43.566 E24.56599
G1 X63.36 Y43.61 E24.60423
G1 X63.88 Y43.673 E24.62723
G1 X64.753 Y43.855 E24.66638
G1 X65.238 Y43.992 E24.68851
G1 X66.052 Y44.297 E24.72667
G1 X66.542 Y44.522 E24.75034
G1 X67.281 Y44.939 E24.7876
G1 X67.729 Y45.236 E24.81119
G1 X68.409 Y45.774 E24.84926
G1 X68.799 Y46.128 E24.87239
G1 X69.387 Y46.761 E24.91032
G1 X69.396 Y46.773 E24.91098
G1 X69.711 Y47.163 E24.93299
G1 X70.218 Y47.915 E24.9728
G1 X70.231 Y47.939 E24.974
G1 X70.464 Y48.341 E24.9944
G1 X70.835 Y49.133 E25.0328
G1 X71.025 Y49.627 E25.05604
G1 X71.269 Y50.465 E25.09436
G1 X71.379 Y50.968 E25.11696
G1 X71.493 Y51.845 E25.15579
G1 X71.494 Y51.872 E25.15697
G1 X71.522 Y52.332 E25.17721
G1 X71.524 Y52.357 E25.17831
G1 X71.501 Y53.238 E25.217
G1 X71.454 Y53.731 E25.23874
G1 X71.294 Y54.612 E25.27805
G1 X71.166 Y55.115 E25.30084
G1 X70.877 Y55.948 E25.33955
G1 X70.683 Y56.406 E25.36139
G1 X70.266 Y57.19 E25.40037
G1 X69.99 Y57.63 E25.42318
G1 X69.465 Y58.331 E25.46163
G1 X69.128 Y58.723 E25.48432
G1 X68.504 Y59.329 E25.52251
G1 X68.106 Y59.668 E25.54547
G1 X67.394 Y60.174 E25.58382
G1 X66.949 Y60.448 E25.60676
G1 X66.169 Y60.837 E25.64503
G1 X65.705 Y61.03 E25.66709
G1 X65.687 Y61.038 E25.66795
G1 X64.857 Y61.305 E25.70623
G1 X64.355 Y61.427 E25.72891
G1 X63.474 Y61.565 E25.76806
G1 X62.977 Y61.608 E25.78997
G1 X62.042 Y61.621 E25.83102
G1 X61.499 Y61.619 E25.85486
G0 F810 X60.834 Y61.618
G0 F900 X60.835 Y61.218
G1 X59.167 Y61.218 E25.92809
G1 X57.51 Y61.22 E26.00084
G1 X56.678 Y61.178 E26.03741
G1 X56.193 Y61.12 E26.05886
G1 X55.338 Y60.942 E26.0972
G1 X54.876 Y60.811 E26.11828
G1 X54.114 Y60.525 E26.15401
G1 X53.644 Y60.309 E26.17672
G1 X52.91 Y59.895 E26.21372
G1 X52.51 Y59.631 E26.23476
G1 X51.848 Y59.106 E26.27186
G1 X51.482 Y58.773 E26.29358
G1 X50.907 Y58.154 E26.33067
G1 X50.606 Y57.778 E26.35182
G1 X50.128 Y57.071 E26.38929
G1 X49.888 Y56.656 E26.41034
G1 X49.538 Y55.906 E26.44667
G1 X49.355 Y55.433 E26.46894
G1 X49.119 Y54.625 E26.50589
G1 X49.016 Y54.152 E26.52715
G1 X48.904 Y53.29 E26.56531
G1 X48.876 Y52.825 E26.58576
G1 X48.899 Y51.965 E26.62353
G1 X48.942 Y51.518 E26.64325
G1 X49.099 Y50.655 E26.68176
G1 X49.219 Y50.183 E26.70314
G1 X49.496 Y49.381 E26.74039
G1 X49.679 Y48.952 E26.76087
G1 X50.078 Y48.202 E26.79817
G1 X50.345 Y47.776 E26.82024
G1 X50.836 Y47.119 E26.85625
G1 X51.166 Y46.737 E26.87841
G1 X51.777 Y46.143 E26.91582
G1 X52.133 Y45.84 E26.93635
G1 X52.831 Y45.342 E26.97399
G1 X53.235 Y45.095 E26.99478
G1 X54.006 Y44.708 E27.03265
G1 X54.454 Y44.523 E27.05393
G1 X55.245 Y44.269 E27.09041
G1 X55.729 Y44.152 E27.11227
G1 X56.553 Y44.023 E27.14889
G1 X57.063 Y43.979 E27.17136
G1 X57.455 Y43.969 E27.18858
G1 X57.953 Y43.966 E27.21044
G1 X59.165 Y43.968 E27.26365
G1 X60.833 Y43.968 E27.33688
G1 X62.49 Y43.966 E27.40963
G1 X63.32 Y44.008 E27.44612
G1 X63.808 Y44.067 E27.4677
G1 X64.663 Y44.245 E27.50604
G1 X65.111 Y44.372 E27.52648
G1 X65.895 Y44.666 E27.56324
G1 X66.366 Y44.882 E27.58599
G1 X67.075 Y45.282 E27.62173
G1 X67.49 Y45.557 E27.64359
G1 X68.152 Y46.081 E27.68066
G1 X68.519 Y46.414 E27.70241
G1 X69.086 Y47.024 E27.73898
G1 X69.383 Y47.393 E27.75977
G1 X69.886 Y48.139 E27.79928
G1 X70.108 Y48.523 E27.81875
G1 X70.467 Y49.291 E27.85597
G1 X70.645 Y49.753 E27.87771
G1 X70.881 Y50.562 E27.9147
G1 X70.984 Y51.034 E27.93591
G1 X71.096 Y51.897 E27.97412
G1 X71.124 Y52.357 E27.99435
G1 X71.101 Y53.218 E28.03217
G1 X71.058 Y53.67 E28.0521
G1 X70.903 Y54.526 E28.09029
G1 X70.781 Y55.004 E28.11195
G1 X70.502 Y55.809 E28.14936
G1 X70.323 Y56.231 E28.16948
G1 X69.922 Y56.984 E28.20694
G1 X69.657 Y57.407 E28.22885
G1 X69.152 Y58.081 E28.26583
G1 X68.839 Y58.446 E28.28694
G1 X68.233 Y59.034 E28.32401
G1 X67.86 Y59.352 E28.34553
G1 X67.177 Y59.837 E28.3823
G1 X66.752 Y60.099 E28.40422
G1 X65.997 Y60.475 E28.44125
G1 X65.551 Y60.662 E28.46249
G1 X64.75 Y60.919 E28.49942
G1 X64.272 Y61.035 E28.52101
G1 X63.434 Y61.166 E28.55825
