;FLAVOR:Marlin
;TIME:6368
;Filament used: 5.99495m
;Layer height: 0.24
;MINX:4.854
;MINY:1
;MINZ:0.3
;MAXX:115.168
;MAXY:118.989
;MAXZ:14.94
;Generated with Cura_SteamEngine 4.6.1
M104 S210
M105
M109 S210
M82 ;absolute extrusion mode
;Sliced at: Wed 19-08-2020 07:39:52
G21 ;metric values
G90 ;absolute positioning
M82 ;set extruder to absolute mode
M107 ;start with the fan off
G1 Z5.0 F1800 ;move Z to 5mm
G28 X0 Y0 F1800 ;move X/Y to min endstops
G28 Z0 ;move Z to min endstop
G92 E0 ;zero the extruded length
G1 F200 E6.0 ;extrude 6.0mm of feed stock to build pressure
G1 Z5.0 F300 ;move the platform down 5mm
G92 E0 ;zero the extruded length again
G1 F1800
;Put printing message on LCD screen
M117 Printing...
G92 E0
G92 E0
G1 F1500 E-5
;LAYER_COUNT:62
;LAYER:0
M107
G0 F900 X68.713 Y1.857 Z0.3
;TYPE:SKIRT
G1 F1500 E0.70678
G1 F900 X69.203 Y1.983 E0.73454
G1 X69.667 Y2.185 E0.76232
G1 X70.093 Y2.457 E0.79005
G1 X70.471 Y2.792 E0.81777
G1 X70.791 Y3.183 E0.8455
G1 X71.046 Y3.62 E0.87327
G1 X71.292 Y4.335 E0.91476
G1 X71.888 Y7.095 E1.06972
G1 X72.531 Y9.707 E1.21734
G1 X73.276 Y12.408 E1.37111
G1 X74.071 Y15.001 E1.51995
G1 X74.948 Y17.594 E1.67017
G1 X75.9 Y20.17 E1.82088
G1 X76.917 Y22.696 E1.97032
G1 X78.006 Y25.193 E2.11982
G1 X79.186 Y27.707 E2.27223
G1 X80.416 Y30.141 E2.42189
G1 X81.704 Y32.526 E2.57065
G1 X83.085 Y34.916 E2.72213
G1 X84.526 Y37.255 E2.8729
G1 X86.019 Y39.533 E3.02237
G1 X87.575 Y41.763 E3.1716
G1 X89.223 Y43.99 E3.32364
G1 X90.916 Y46.147 E3.47412
G1 X92.05 Y47.525 E3.57206
G1 X113.158 Y72.68 E5.37417
G1 X113.636 Y73.266 E5.41567
G1 X113.923 Y73.682 E5.44341
G1 X114.142 Y74.138 E5.47117
G1 X114.285 Y74.623 E5.49892
G1 X114.352 Y75.138 E5.52742
G1 X114.368 Y75.734 E5.56014
G1 X114.368 Y97.962 E6.77999
G1 X114.358 Y98.653 E6.81792
G1 X114.31 Y99.157 E6.8457
G1 X114.185 Y99.646 E6.8734
G1 X113.983 Y100.11 E6.90117
G1 X113.711 Y100.536 E6.92891
G1 X113.228 Y101.047 E6.9675
G1 X112.497 Y101.667 E7.0201
G1 X111.001 Y102.859 E7.12508
G1 X110.524 Y103.226 E7.15811
G1 X109.256 Y104.17 E7.24486
G1 X108.814 Y104.489 E7.27477
G1 X107.625 Y105.322 E7.35444
G1 X107.118 Y105.665 E7.38804
G1 X105.84 Y106.509 E7.47209
G1 X105.298 Y106.856 E7.50741
G1 X104.08 Y107.611 E7.58605
G1 X103.522 Y107.944 E7.62171
G1 X102.179 Y108.722 E7.70689
G1 X101.648 Y109.02 E7.7403
G1 X100.358 Y109.718 E7.8208
G1 X99.757 Y110.032 E7.85801
G1 X98.485 Y110.673 E7.93618
G1 X97.907 Y110.955 E7.97147
G1 X96.479 Y111.623 E8.05799
G1 X95.923 Y111.873 E8.09145
G1 X94.58 Y112.454 E8.17175
G1 X94.013 Y112.689 E8.20543
G1 X92.582 Y113.26 E8.28999
G1 X91.969 Y113.495 E8.32601
G1 X90.64 Y113.98 E8.40365
G1 X89.976 Y114.212 E8.44225
G1 X88.586 Y114.675 E8.52266
G1 X88.019 Y114.854 E8.55529
G1 X86.53 Y115.303 E8.64064
G1 X85.931 Y115.474 E8.67482
G1 X84.502 Y115.858 E8.75603
G1 X83.884 Y116.015 E8.79102
G1 X82.421 Y116.365 E8.87357
G1 X81.755 Y116.513 E8.91101
G1 X80.38 Y116.8 E8.9881
G1 X79.748 Y116.923 E9.02343
G1 X78.223 Y117.193 E9.10843
G1 X77.624 Y117.291 E9.14174
G1 X76.158 Y117.508 E9.22307
G1 X75.471 Y117.599 E9.2611
G1 X74.069 Y117.764 E9.33857
G1 X73.399 Y117.834 E9.37554
G1 X71.885 Y117.968 E9.45895
G1 X71.296 Y118.011 E9.49136
G1 X69.78 Y118.102 E9.57471
G1 X69.154 Y118.13 E9.60909
G1 X67.67 Y118.176 E9.69057
G1 X66.999 Y118.187 E9.7274
G1 X65.55 Y118.189 E9.80692
G1 X64.882 Y118.181 E9.84359
G1 X63.421 Y118.141 E9.92379
G1 X62.748 Y118.113 E9.96076
G1 X61.286 Y118.03 E10.04112
G1 X60.64 Y117.984 E10.07666
G1 X59.163 Y117.857 E10.15802
G1 X58.534 Y117.793 E10.19272
G1 X57.02 Y117.619 E10.27635
G1 X56.436 Y117.543 E10.30867
G1 X54.887 Y117.317 E10.39458
G1 X54.331 Y117.229 E10.42547
G1 X52.828 Y116.966 E10.50921
G1 X52.188 Y116.844 E10.54496
G1 X50.751 Y116.55 E10.62546
G1 X50.106 Y116.408 E10.6617
G1 X48.679 Y116.072 E10.74216
G1 X48.105 Y115.928 E10.77463
G1 X46.559 Y115.516 E10.86244
G1 X46.024 Y115.365 E10.89295
G1 X44.533 Y114.92 E10.97834
G1 X43.991 Y114.751 E11.00949
G1 X42.536 Y114.271 E11.09358
G1 X41.943 Y114.065 E11.12803
G1 X40.522 Y113.55 E11.21097
G1 X39.929 Y113.326 E11.24576
G1 X38.566 Y112.786 E11.32622
G1 X37.944 Y112.53 E11.36313
G1 X36.617 Y111.96 E11.44239
G1 X36.013 Y111.69 E11.4787
G1 X34.655 Y111.058 E11.5609
G1 X34.076 Y110.779 E11.59617
G1 X32.761 Y110.121 E11.67687
G1 X32.203 Y109.832 E11.71135
G1 X30.849 Y109.104 E11.79572
G1 X30.307 Y108.803 E11.82974
G1 X29.019 Y108.061 E11.91132
G1 X28.458 Y107.727 E11.94715
G1 X27.24 Y106.978 E12.02562
G1 X26.66 Y106.61 E12.06332
G1 X25.425 Y105.801 E12.14434
G1 X24.9 Y105.447 E12.17909
G1 X23.658 Y104.58 E12.26221
G1 X23.129 Y104.197 E12.29805
G1 X21.962 Y103.331 E12.37781
G1 X21.437 Y102.929 E12.41409
G1 X20.276 Y102.013 E12.49525
G1 X19.806 Y101.632 E12.52845
G1 X18.619 Y100.639 E12.61338
G1 X18.157 Y100.242 E12.64681
G1 X17.023 Y99.234 E12.73008
G1 X16.592 Y98.841 E12.76209
G1 X15.47 Y97.785 E12.84665
G1 X15 Y97.33 E12.88255
G1 X13.985 Y96.317 E12.96124
G1 X13.541 Y95.861 E12.99617
G1 X12.473 Y94.732 E13.08146
G1 X12.076 Y94.301 E13.11362
G1 X11.069 Y93.172 E13.19664
G1 X10.647 Y92.685 E13.23201
G1 X9.705 Y91.566 E13.31228
G1 X9.302 Y91.072 E13.34727
G1 X8.348 Y89.87 E13.43148
G1 X7.995 Y89.412 E13.46322
G1 X7.058 Y88.158 E13.54912
G1 X6.238 Y87.008 E13.62664
G1 X5.979 Y86.574 E13.65437
G1 X5.792 Y86.104 E13.68213
G1 X5.681 Y85.611 E13.70986
G1 X5.649 Y85.106 E13.73763
G1 X5.698 Y84.603 E13.76537
G1 X5.824 Y84.114 E13.79308
G1 X6.026 Y83.65 E13.82085
G1 X6.299 Y83.224 E13.84862
G1 X6.636 Y82.847 E13.87637
G1 X6.964 Y82.572 E13.89986
G1 X7.657 Y82.067 E13.94692
G1 X18.712 Y74.326 E14.68756
G1 X19.634 Y73.7 E14.74872
G1 X21.347 Y72.571 E14.86131
G1 X23.564 Y71.021 E15.00976
G1 X25.786 Y69.37 E15.16168
G1 X27.91 Y67.698 E15.31002
G1 X30.02 Y65.938 E15.46081
G1 X32.071 Y64.124 E15.61108
G1 X34.066 Y62.26 E15.76092
G1 X36.026 Y60.32 E15.91226
G1 X37.899 Y58.36 E16.06104
G1 X39.755 Y56.303 E16.21308
G1 X41.527 Y54.223 E16.36304
G1 X43.223 Y52.117 E16.51143
G1 X44.893 Y49.916 E16.66306
G1 X46.492 Y47.68 E16.81392
G1 X48.026 Y45.402 E16.96463
G1 X49.462 Y43.135 E17.1119
G1 X50.882 Y40.743 E17.26456
G1 X52.219 Y38.343 E17.41533
G1 X53.468 Y35.94 E17.56396
G1 X54.664 Y33.471 E17.71451
G1 X55.793 Y30.964 E17.8654
G1 X56.856 Y28.416 E18.01692
G1 X57.825 Y25.885 E18.16565
G1 X58.731 Y23.308 E18.31556
G1 X59.568 Y20.69 E18.46639
G1 X60.326 Y18.07 E18.61607
G1 X61.014 Y15.414 E18.76664
G1 X61.632 Y12.72 E18.91833
G1 X62.156 Y10.075 E19.06631
G1 X62.623 Y7.334 E19.2189
G1 X62.989 Y4.752 E19.36201
G1 X63.113 Y4.101 E19.39838
G1 X63.295 Y3.629 E19.42614
G1 X63.548 Y3.192 E19.45385
G1 X63.867 Y2.8 E19.48159
G1 X64.244 Y2.463 E19.50934
G1 X64.669 Y2.189 E19.53709
G1 X65.132 Y1.986 E19.56484
G1 X65.621 Y1.858 E19.59258
G1 X66.092 Y1.81 E19.61856
G1 X67.512 Y1.8 E19.69649
G1 X68.183 Y1.81 E19.73332
G0 F810 X68.21 Y1.81
G0 X68.713 Y1.857
G0 F900 X68.75 Y1.458
G1 X69.271 Y1.584 E19.76273
G1 X69.768 Y1.787 E19.79219
G1 X70.229 Y2.061 E19.82163
G1 X70.644 Y2.4 E19.85103
G1 X71.004 Y2.798 E19.88048
G1 X71.301 Y3.244 E19.90989
G1 X71.529 Y3.73 E19.93935
G1 X71.683 Y4.25 E19.96911
G1 X72.275 Y6.995 E20.12322
G1 X72.928 Y9.644 E20.27295
G1 X73.646 Y12.247 E20.42113
G1 X74.46 Y14.903 E20.57358
G1 X75.315 Y17.432 E20.72009
G1 X76.276 Y20.03 E20.87211
G1 X77.292 Y22.554 E21.02142
G1 X78.377 Y25.042 E21.17038
G1 X79.547 Y27.536 E21.32156
G1 X80.767 Y29.95 E21.47
G1 X82.059 Y32.342 E21.6192
G1 X83.414 Y34.686 E21.76778
G1 X84.868 Y37.047 E21.91995
G1 X86.355 Y39.315 E22.06878
G1 X87.909 Y41.542 E22.21781
G1 X89.543 Y43.751 E22.3686
G1 X91.198 Y45.859 E22.51568
G1 X92.379 Y47.294 E22.61767
G1 X113.465 Y72.423 E24.41792
G1 X113.946 Y73.013 E24.45969
G1 X114.253 Y73.453 E24.48914
G1 X114.491 Y73.934 E24.51859
G1 X114.655 Y74.444 E24.54799
G1 X114.751 Y75.119 E24.5854
G1 X114.768 Y75.73 E24.61895
G1 X114.768 Y97.968 E25.83935
G1 X114.758 Y98.659 E25.87728
G1 X114.71 Y99.193 E25.9067
G1 X114.583 Y99.714 E25.93613
G1 X114.381 Y100.211 E25.96557
G1 X114.107 Y100.672 E25.995
G1 X113.767 Y101.087 E26.02444
G1 X113.487 Y101.352 E26.0456
G1 X112.756 Y101.972 E26.0982
G1 X111.249 Y103.173 E26.20396
G1 X110.768 Y103.543 E26.23726
G1 X109.494 Y104.491 E26.32441
G1 X109.087 Y104.786 E26.352
G1 X107.855 Y105.649 E26.43455
G1 X107.343 Y105.996 E26.46849
G1 X106.061 Y106.843 E26.55281
G1 X105.513 Y107.193 E26.5885
G1 X104.29 Y107.951 E26.66746
G1 X103.728 Y108.288 E26.70342
G1 X102.38 Y109.068 E26.78889
G1 X101.843 Y109.369 E26.82268
G1 X100.548 Y110.07 E26.90349
G1 X99.943 Y110.387 E26.94097
G1 X98.664 Y111.031 E27.01956
G1 X98.082 Y111.315 E27.0551
G1 X96.648 Y111.985 E27.14196
G1 X96.087 Y112.238 E27.17573
G1 X94.739 Y112.821 E27.25633
G1 X94.167 Y113.059 E27.29033
G1 X92.731 Y113.632 E27.37518
G1 X92.112 Y113.869 E27.41156
G1 X90.777 Y114.356 E27.48954
G1 X90.108 Y114.59 E27.52844
G1 X88.712 Y115.054 E27.60917
G1 X88.14 Y115.235 E27.6421
G1 X86.646 Y115.686 E27.72774
G1 X86.04 Y115.859 E27.76232
G1 X84.606 Y116.245 E27.84382
G1 X83.982 Y116.403 E27.87915
G1 X82.513 Y116.754 E27.96203
G1 X81.841 Y116.903 E27.99981
G1 X80.461 Y117.191 E28.07717
G1 X79.824 Y117.315 E28.11279
G1 X78.293 Y117.587 E28.19812
G1 X77.688 Y117.685 E28.23176
G1 X76.216 Y117.903 E28.31342
G1 X75.524 Y117.995 E28.35173
G1 X74.116 Y118.161 E28.42954
G1 X73.441 Y118.232 E28.46679
G1 X71.92 Y118.366 E28.55058
G1 X71.325 Y118.41 E28.58332
G1 X69.804 Y118.502 E28.66695
G1 X69.172 Y118.53 E28.70166
G1 X67.682 Y118.575 E28.78347
G1 X67.006 Y118.587 E28.82058
G1 X65.55 Y118.589 E28.90048
G1 X64.877 Y118.581 E28.93742
G1 X63.41 Y118.541 E29.01795
G1 X62.731 Y118.513 E29.05525
G1 X61.263 Y118.429 E29.13594
G1 X60.611 Y118.383 E29.17181
G1 X59.129 Y118.256 E29.25344
G1 X58.493 Y118.191 E29.28853
G1 X56.974 Y118.016 E29.37244
G1 X56.385 Y117.94 E29.40503
G1 X54.829 Y117.713 E29.49133
G1 X54.268 Y117.624 E29.5225
G1 X52.759 Y117.36 E29.60657
G1 X52.113 Y117.237 E29.64266
G1 X50.671 Y116.942 E29.72344
G1 X50.02 Y116.798 E29.76002
G1 X48.587 Y116.461 E29.84081
G1 X48.007 Y116.316 E29.87362
G1 X46.456 Y115.902 E29.96172
G1 X45.915 Y115.75 E29.99256
G1 X44.419 Y115.303 E30.07824
G1 X43.871 Y115.132 E30.10975
G1 X42.411 Y114.651 E30.19411
G1 X41.812 Y114.443 E30.22891
G1 X40.385 Y113.926 E30.3122
G1 X39.788 Y113.7 E30.34723
G1 X38.419 Y113.158 E30.42804
G1 X37.791 Y112.9 E30.4653
G1 X36.459 Y112.327 E30.54487
G1 X35.85 Y112.055 E30.58147
G1 X34.486 Y111.421 E30.66402
G1 X33.902 Y111.139 E30.69961
G1 X32.582 Y110.478 E30.78063
G1 X32.019 Y110.187 E30.81541
G1 X30.66 Y109.457 E30.90007
G1 X30.112 Y109.152 E30.93448
G1 X28.819 Y108.408 E31.01635
G1 X28.253 Y108.071 E31.0525
G1 X27.031 Y107.319 E31.13125
G1 X26.445 Y106.947 E31.16934
G1 X25.205 Y106.135 E31.25068
G1 X24.676 Y105.778 E31.2857
G1 X23.429 Y104.908 E31.36915
G1 X22.894 Y104.521 E31.40538
G1 X21.723 Y103.652 E31.48541
G1 X21.194 Y103.247 E31.52197
G1 X20.028 Y102.327 E31.60348
G1 X19.554 Y101.942 E31.63699
G1 X18.363 Y100.946 E31.7222
G1 X17.896 Y100.545 E31.75598
G1 X16.758 Y99.533 E31.83955
G1 X16.322 Y99.136 E31.87191
G1 X15.196 Y98.077 E31.95674
G1 X14.721 Y97.617 E31.99303
G1 X13.702 Y96.6 E32.07204
G1 X13.254 Y96.14 E32.10728
G1 X12.182 Y95.007 E32.19288
G1 X11.781 Y94.572 E32.22534
G1 X10.77 Y93.438 E32.30872
G1 X10.344 Y92.946 E32.34443
G1 X9.399 Y91.823 E32.42498
G1 X8.992 Y91.325 E32.46028
G1 X8.035 Y90.119 E32.54477
G1 X7.678 Y89.657 E32.57681
G1 X6.738 Y88.397 E32.66308
G1 X6.442 Y87.987 E32.69083
G1 X5.912 Y87.239 E32.74114
G1 X5.635 Y86.78 E32.77056
G1 X5.43 Y86.284 E32.80002
G1 X5.3 Y85.764 E32.82943
G1 X5.25 Y85.23 E32.85886
G1 X5.279 Y84.695 E32.88827
G1 X5.387 Y84.169 E32.91774
G1 X5.573 Y83.666 E32.94717
G1 X5.831 Y83.196 E32.97659
G1 X6.156 Y82.769 E33.00604
G1 X6.729 Y82.249 E33.04851
G1 X7.422 Y81.744 E33.09556
G1 X18.482 Y73.998 E33.83658
G1 X19.409 Y73.369 E33.89806
G1 X21.12 Y72.242 E34.0105
G1 X23.325 Y70.7 E34.15816
G1 X25.523 Y69.067 E34.30843
G1 X27.69 Y67.361 E34.45979
G1 X29.745 Y65.647 E34.60664
G1 X31.797 Y63.832 E34.75699
G1 X33.813 Y61.949 E34.90838
G1 X35.721 Y60.06 E35.05572
G1 X37.612 Y58.081 E35.20594
G1 X39.452 Y56.042 E35.35666
G1 X41.212 Y53.976 E35.50561
G1 X42.925 Y51.849 E35.65548
G1 X44.565 Y49.687 E35.80441
G1 X46.163 Y47.453 E35.95514
G1 X47.689 Y45.186 E36.10511
G1 X49.139 Y42.897 E36.25382
G1 X50.532 Y40.551 E36.40355
G1 X51.85 Y38.185 E36.55218
G1 X53.111 Y35.759 E36.70223
G1 X54.304 Y33.297 E36.85237
G1 X55.43 Y30.795 E37.00294
G1 X56.49 Y28.256 E37.15393
G1 X57.446 Y25.757 E37.30077
G1 X58.348 Y23.19 E37.45009
G1 X59.189 Y20.562 E37.60152
G1 X59.941 Y17.964 E37.74994
G1 X60.623 Y15.33 E37.89926
G1 X61.243 Y12.625 E38.05156
G1 X61.763 Y10.001 E38.19836
G1 X62.226 Y7.283 E38.34967
G1 X62.587 Y4.736 E38.49085
G1 X62.721 Y4.019 E38.53088
G1 X62.906 Y3.516 E38.56029
G1 X63.164 Y3.046 E38.58971
G1 X63.49 Y2.619 E38.6192
G1 X63.874 Y2.246 E38.64858
G1 X64.311 Y1.934 E38.67804
G1 X64.788 Y1.69 E38.70745
G1 X65.297 Y1.52 E38.7369
G1 X66.081 Y1.41 E38.78034
G1 X67.518 Y1.4 E38.85921
G1 X68.216 Y1.41 E38.89752
G1 X68.22 Y1.411 E38.89774
G0 F810 X68.75 Y1.458
G0 F900 X68.785 Y1.058
G1 X69.335 Y1.185 E38.92872
G1 X69.863 Y1.389 E38.95978
G1 X70.357 Y1.664 E38.99081
G1 X70.806 Y2.007 E39.02182
G1 X71.203 Y2.409 E39.05283
G1 X71.54 Y2.864 E39.0839
G1 X71.808 Y3.361 E39.11489
G1 X72.004 Y3.891 E39.1459
G1 X72.667 Y6.912 E39.31563
G1 X73.307 Y9.514 E39.46269
G1 X74.04 Y12.171 E39.61395
G1 X74.835 Y14.763 E39.76273
G1 X75.698 Y17.314 E39.91053
G1 X76.642 Y19.867 E40.0599
G1 X77.659 Y22.393 E40.20934
G1 X78.748 Y24.891 E40.35889
G1 X79.902 Y27.35 E40.50796
G1 X81.118 Y29.757 E40.65595
G1 X82.408 Y32.145 E40.80491
G1 X83.782 Y34.524 E40.95567
G1 X85.166 Y36.77 E41.10045
G1 X86.701 Y39.112 E41.25413
G1 X88.226 Y41.298 E41.4004
G1 X89.863 Y43.511 E41.55147
G1 X91.507 Y45.605 E41.69757
G1 X92.688 Y47.04 E41.79956
G1 X113.771 Y72.166 E43.59957
G1 X114.256 Y72.761 E43.6417
G1 X114.582 Y73.223 E43.67273
G1 X114.838 Y73.727 E43.70375
G1 X115.021 Y74.262 E43.73478
G1 X115.127 Y74.817 E43.76579
G1 X115.165 Y75.456 E43.80092
G1 X115.168 Y97.974 E45.03669
G1 X115.158 Y98.665 E45.07462
G1 X115.109 Y99.228 E45.10563
G1 X114.982 Y99.779 E45.13666
G1 X114.779 Y100.306 E45.16766
G1 X114.503 Y100.8 E45.19871
G1 X114.161 Y101.25 E45.22973
G1 X113.745 Y101.658 E45.26171
G1 X113.014 Y102.278 E45.31431
G1 X112.623 Y102.596 E45.34197
G1 X111.497 Y103.487 E45.42077
G1 X111.012 Y103.86 E45.45434
G1 X109.733 Y104.812 E45.54184
G1 X109.321 Y105.11 E45.56975
G1 X108.084 Y105.977 E45.65265
G1 X107.567 Y106.328 E45.68694
G1 X106.281 Y107.177 E45.77151
G1 X105.728 Y107.53 E45.80751
G1 X104.501 Y108.291 E45.88675
G1 X103.933 Y108.631 E45.92308
G1 X102.58 Y109.415 E46.0089
G1 X102.038 Y109.718 E46.04297
G1 X100.739 Y110.421 E46.12403
G1 X100.128 Y110.741 E46.16188
G1 X98.844 Y111.388 E46.24079
G1 X98.257 Y111.674 E46.27662
G1 X96.818 Y112.348 E46.36383
G1 X96.251 Y112.603 E46.39795
G1 X94.897 Y113.188 E46.47889
G1 X94.32 Y113.428 E46.51319
G1 X92.879 Y114.003 E46.59833
G1 X92.255 Y114.243 E46.63502
G1 X90.914 Y114.732 E46.71335
G1 X90.24 Y114.968 E46.75254
G1 X88.839 Y115.434 E46.83357
G1 X88.26 Y115.617 E46.8669
G1 X86.761 Y116.069 E46.95282
G1 X86.15 Y116.244 E46.9877
G1 X84.71 Y116.631 E47.06953
G1 X84.08 Y116.791 E47.1052
G1 X82.606 Y117.143 E47.18837
G1 X81.928 Y117.294 E47.22649
G1 X80.543 Y117.583 E47.30413
G1 X79.9 Y117.708 E47.34008
G1 X78.362 Y117.981 E47.4258
G1 X77.752 Y118.08 E47.45972
G1 X76.275 Y118.299 E47.54166
G1 X75.576 Y118.392 E47.58036
G1 X74.163 Y118.559 E47.65844
G1 X73.482 Y118.63 E47.69602
G1 X71.955 Y118.765 E47.78014
G1 X71.355 Y118.809 E47.81316
G1 X69.828 Y118.901 E47.89711
G1 X69.189 Y118.929 E47.93221
G1 X67.694 Y118.975 E48.0143
G1 X67.012 Y118.986 E48.05173
G1 X65.551 Y118.989 E48.13191
G1 X64.872 Y118.981 E48.16917
G1 X63.399 Y118.94 E48.25004
G1 X62.715 Y118.913 E48.28761
G1 X61.24 Y118.828 E48.36869
G1 X60.583 Y118.782 E48.40483
G1 X59.094 Y118.654 E48.48685
G1 X58.453 Y118.589 E48.52221
G1 X56.928 Y118.414 E48.60645
G1 X56.333 Y118.336 E48.63938
G1 X54.772 Y118.109 E48.72595
G1 X54.204 Y118.019 E48.75751
G1 X52.69 Y117.754 E48.84186
