;FLAVOR:Marlin
;TIME:4212
;Filament used: 4.14137m
;Layer height: 0.24
;MINX:41.116
;MINY:34.962
;MINZ:0.3
;MAXX:78.8
;MAXY:73.388
;MAXZ:35.82
;Generated with Cura_SteamEngine 4.7.0
M104 S210
M105
M109 S210
M82 ;absolute extrusion mode
;Sliced at: Thu 27-08-2020 11:11:02
G21 ;metric values
G90 ;absolute positioning
M82 ;set extruder to absolute mode
M107 ;start with the fan off
G1 Z5.0 F1800 ;move Z to 5mm
G28 X0 Y0 F1800 ;move X/Y to min endstops
G28 Z0 ;move Z to min endstop
G92 E0 ;zero the extruded length
G1 F200 E6.0 ;extrude 6.0mm of feed stock to build pressure
G1 Z5.0 F300 ;move the platform down 5mm
G92 E0 ;zero the extruded length again
G1 F1800
;Put printing message on LCD screen
M117 Printing...
G92 E0
G92 E0
G1 F1500 E-5
;LAYER_COUNT:149
;LAYER:0
M107
G0 F900 X42.49 Y36.678 Z0.3
;TYPE:SKIRT
G1 F1500 E0
G1 F900 X42.865 Y36.255 E0.03102
G1 X43.296 Y35.89 E0.06202
G1 X43.799 Y35.575 E0.09459
G1 X44.046 Y35.445 E0.10991
G1 X44.564 Y35.218 E0.14094
G1 X45.108 Y35.066 E0.17194
G1 X45.776 Y34.987 E0.20886
G1 X46.378 Y34.967 E0.24191
G1 X46.879 Y34.963 E0.26941
G1 X52.779 Y34.971 E0.59319
G1 X66.905 Y34.972 E1.36842
G1 X72.953 Y34.962 E1.70033
G1 X73.768 Y34.971 E1.74506
G1 X74.231 Y34.987 E1.77048
G1 X74.793 Y35.047 E1.8015
G1 X75.341 Y35.185 E1.83251
G1 X75.984 Y35.462 E1.87093
G1 X76.257 Y35.609 E1.88795
G1 X76.735 Y35.912 E1.91901
G1 X77.165 Y36.278 E1.95
G1 X77.587 Y36.767 E1.98545
G1 X77.867 Y37.153 E2.01162
G1 X78.153 Y37.641 E2.04266
G1 X78.384 Y38.219 E2.07682
G1 X78.554 Y38.789 E2.10946
G1 X78.684 Y39.493 E2.14875
G1 X78.714 Y39.922 E2.17235
G1 X78.741 Y41.24 E2.24469
G1 X78.742 Y42.131 E2.29359
G1 X78.737 Y44.912 E2.44621
G1 X78.737 Y63.596 E3.47157
G1 X78.741 Y66.228 E3.61602
G1 X78.74 Y67.47 E3.68418
G1 X78.73 Y68.124 E3.72007
G1 X78.691 Y68.698 E3.75164
G1 X78.652 Y69.029 E3.76994
G1 X78.508 Y69.719 E3.80862
G1 X78.404 Y70.063 E3.82834
G1 X78.202 Y70.591 E3.85936
G1 X77.893 Y71.139 E3.89389
G1 X77.689 Y71.442 E3.91394
G1 X77.341 Y71.887 E3.94494
G1 X76.934 Y72.279 E3.97595
G1 X76.52 Y72.582 E4.0041
G1 X76.319 Y72.71 E4.01718
G1 X75.821 Y72.979 E4.04824
G1 X75.186 Y73.205 E4.08523
G1 X75.106 Y73.226 E4.08977
G1 X74.55 Y73.33 E4.12081
G1 X74.167 Y73.356 E4.14188
G1 X72.532 Y73.387 E4.23163
G1 X67.22 Y73.379 E4.52314
G1 X53.095 Y73.378 E5.29831
G1 X47.047 Y73.388 E5.63022
G1 X46.232 Y73.379 E5.67495
G1 X45.769 Y73.363 E5.70038
G1 X45.207 Y73.303 E5.73139
G1 X44.659 Y73.165 E5.76241
G1 X44.016 Y72.888 E5.80083
G1 X43.743 Y72.741 E5.81784
G1 X43.265 Y72.438 E5.8489
G1 X42.835 Y72.072 E5.87989
G1 X42.413 Y71.583 E5.91534
G1 X42.21 Y71.306 E5.93419
G1 X41.909 Y70.828 E5.96519
G1 X41.618 Y70.134 E6.00649
G1 X41.448 Y69.567 E6.03897
G1 X41.313 Y68.827 E6.08025
G1 X41.285 Y68.4 E6.10373
G1 X41.259 Y67.091 E6.17559
G1 X41.258 Y66.219 E6.22344
G1 X41.263 Y63.437 E6.37611
G1 X41.263 Y44.753 E7.40148
G1 X41.259 Y42.122 E7.54587
G1 X41.26 Y40.881 E7.61397
G1 X41.27 Y40.217 E7.65041
G1 X41.31 Y39.647 E7.68177
G1 X41.348 Y39.326 E7.69951
G1 X41.495 Y38.625 E7.73882
G1 X41.615 Y38.233 E7.76132
G1 X41.818 Y37.706 E7.79231
G1 X42.094 Y37.212 E7.82336
G1 X42.49 Y36.678 E7.85985
G0 X42.807 Y36.922
G1 X43.165 Y36.522 E7.88931
G1 X43.577 Y36.18 E7.91869
G1 X44.232 Y35.799 E7.96028
G1 X44.724 Y35.586 E7.9897
G1 X45.242 Y35.447 E8.01913
G1 X45.789 Y35.387 E8.04933
G1 X46.391 Y35.367 E8.08239
G1 X46.879 Y35.363 E8.10917
G1 X52.779 Y35.371 E8.43296
G1 X66.906 Y35.372 E9.20824
G1 X72.949 Y35.362 E9.53987
G1 X73.852 Y35.373 E9.58943
G1 X74.216 Y35.386 E9.60942
G1 X74.75 Y35.445 E9.6389
G1 X75.268 Y35.583 E9.66832
G1 X75.795 Y35.814 E9.6999
G1 X76.068 Y35.961 E9.71692
G1 X76.52 Y36.25 E9.74636
G1 X76.924 Y36.603 E9.7758
G1 X77.265 Y37.003 E9.80465
G1 X77.537 Y37.379 E9.83012
G1 X77.806 Y37.843 E9.85955
G1 X78.002 Y38.338 E9.88877
G1 X78.169 Y38.897 E9.92078
G1 X78.286 Y39.53 E9.95611
G1 X78.314 Y39.93 E9.97812
G1 X78.341 Y41.241 E10.05008
G1 X78.342 Y42.13 E10.09887
G1 X78.337 Y44.911 E10.25148
G1 X78.337 Y63.596 E11.2769
G1 X78.341 Y66.228 E11.42135
G1 X78.34 Y67.464 E11.48918
G1 X78.33 Y68.118 E11.52507
G1 X78.293 Y68.651 E11.55439
G1 X78.254 Y68.982 E11.57268
G1 X78.125 Y69.603 E11.60749
G1 X78.021 Y69.947 E11.62721
G1 X77.828 Y70.447 E11.65663
G1 X77.561 Y70.916 E11.68624
G1 X77.357 Y71.219 E11.70629
G1 X77.025 Y71.64 E11.73571
G1 X76.635 Y72.007 E11.7651
G1 X76.104 Y72.373 E11.80049
G1 X75.631 Y72.626 E11.82993
G1 X75.084 Y72.818 E11.86175
G1 X75.004 Y72.839 E11.86629
G1 X74.477 Y72.936 E11.89569
G1 X74.16 Y72.956 E11.91312
G1 X72.533 Y72.987 E12.00243
G1 X67.221 Y72.979 E12.29395
G1 X53.094 Y72.978 E13.06923
G1 X47.051 Y72.988 E13.40086
G1 X46.148 Y72.977 E13.45042
G1 X45.784 Y72.964 E13.47041
G1 X45.25 Y72.905 E13.49989
G1 X44.732 Y72.767 E13.52931
G1 X44.205 Y72.536 E13.56089
G1 X43.932 Y72.389 E13.57791
G1 X43.48 Y72.1 E13.60735
G1 X43.076 Y71.747 E13.63679
G1 X42.735 Y71.347 E13.66564
G1 X42.532 Y71.07 E13.68448
G1 X42.248 Y70.615 E13.71392
G1 X42 Y70.015 E13.74955
G1 X41.833 Y69.458 E13.78146
G1 X41.712 Y68.792 E13.81861
G1 X41.685 Y68.392 E13.84061
G1 X41.659 Y67.09 E13.91208
G1 X41.658 Y66.22 E13.95982
G1 X41.663 Y63.438 E14.1125
G1 X41.663 Y44.753 E15.13791
G1 X41.659 Y42.122 E15.2823
G1 X41.66 Y40.887 E15.35008
G1 X41.67 Y40.223 E15.38652
G1 X41.707 Y39.694 E15.41562
G1 X41.745 Y39.373 E15.43336
G1 X41.878 Y38.742 E15.46875
G1 X41.998 Y38.35 E15.49125
G1 X42.192 Y37.851 E15.52063
G1 X42.585 Y37.211 E15.56185
G1 X42.807 Y36.922 E15.58185
G0 X43.124 Y37.166
G1 X43.463 Y36.79 E15.60963
G1 X43.857 Y36.473 E15.63738
G1 X44.419 Y36.153 E15.67287
G1 X44.883 Y35.954 E15.70058
G1 X45.373 Y35.83 E15.72832
G1 X45.803 Y35.787 E15.75204
G1 X46.493 Y35.765 E15.78992
G1 X46.878 Y35.763 E15.81105
G1 X52.778 Y35.771 E16.13484
G1 X66.907 Y35.772 E16.91023
G1 X72.944 Y35.762 E17.24153
G1 X73.759 Y35.771 E17.28626
G1 X74.202 Y35.786 E17.31059
G1 X74.704 Y35.844 E17.33832
G1 X75.191 Y35.98 E17.36607
G1 X75.878 Y36.313 E17.40797
G1 X76.303 Y36.588 E17.43575
G1 X76.679 Y36.925 E17.46346
G1 X77.134 Y37.501 E17.50374
G1 X77.207 Y37.605 E17.51071
G1 X77.459 Y38.044 E17.53849
G1 X77.7 Y38.714 E17.57757
G1 X77.783 Y39.005 E17.59417
G1 X77.888 Y39.568 E17.6256
G1 X77.914 Y39.939 E17.64601
G1 X77.941 Y41.241 E17.71748
G1 X77.942 Y42.13 E17.76627
G1 X77.937 Y44.911 E17.91889
G1 X77.937 Y63.596 E18.94431
G1 X77.941 Y66.228 E19.08875
G1 X77.94 Y67.458 E19.15625
G1 X77.93 Y68.112 E19.19215
G1 X77.857 Y68.935 E19.23749
G1 X77.742 Y69.487 E19.26843
G1 X77.638 Y69.831 E19.28816
G1 X77.454 Y70.302 E19.31591
G1 X77.025 Y70.995 E19.36063
G1 X76.711 Y71.391 E19.38837
G1 X76.338 Y71.732 E19.4161
G1 X75.889 Y72.035 E19.44583
G1 X75.442 Y72.272 E19.4736
G1 X74.902 Y72.452 E19.50483
G1 X74.405 Y72.541 E19.53254
G1 X74.152 Y72.556 E19.54645
G1 X72.533 Y72.587 E19.63532
G1 X67.221 Y72.579 E19.92684
G1 X53.093 Y72.578 E20.70217
G1 X47.056 Y72.588 E21.03348
G1 X46.241 Y72.579 E21.07821
G1 X45.798 Y72.564 E21.10253
G1 X45.296 Y72.506 E21.13026
G1 X44.809 Y72.37 E21.15801
G1 X44.122 Y72.037 E21.19991
G1 X43.697 Y71.762 E21.22769
G1 X43.321 Y71.425 E21.2554
G1 X42.855 Y70.834 E21.2967
G1 X42.589 Y70.403 E21.3245
G1 X42.381 Y69.896 E21.35457
G1 X42.218 Y69.349 E21.3859
G1 X42.11 Y68.757 E21.41892
G1 X42.085 Y68.384 E21.43944
G1 X42.059 Y67.09 E21.51047
G1 X42.058 Y66.22 E21.55821
G1 X42.063 Y63.438 E21.71088
G1 X42.063 Y44.753 E22.7363
G1 X42.059 Y42.122 E22.88069
G1 X42.06 Y40.893 E22.94814
G1 X42.07 Y40.229 E22.98458
G1 X42.142 Y39.42 E23.02915
G1 X42.26 Y38.859 E23.06061
G1 X42.38 Y38.467 E23.08311
G1 X42.566 Y37.997 E23.11085
G1 X42.902 Y37.455 E23.14585
G1 X43.124 Y37.166 E23.16585
G1 F1500 E18.16585
;MESH:Runcam_Dummy.stl
G0 F900 X44.598 Y47.608
G0 X51.445 Y47.608
G0 X60.838 Y62.731
;TYPE:WALL-INNER
G1 F1500 E23.16585
G1 F900 X58.965 Y62.732 E23.26864
G1 X57.545 Y62.73 E23.34657
G1 X56.826 Y62.698 E23.38606
G1 X56.17 Y62.624 E23.42229
G1 X55.526 Y62.495 E23.45834
G1 X54.897 Y62.323 E23.49412
G1 X54.256 Y62.086 E23.53163
G1 X53.675 Y61.827 E23.56654
G1 X53.093 Y61.503 E23.60309
G1 X52.53 Y61.139 E23.63988
G1 X52.008 Y60.73 E23.67628
G1 X51.545 Y60.316 E23.71036
G1 X51.06 Y59.8 E23.74923
G1 X50.663 Y59.318 E23.78349
G1 X50.276 Y58.748 E23.8213
G1 X49.949 Y58.195 E23.85656
G1 X49.657 Y57.582 E23.89382
G1 X49.419 Y56.98 E23.92935
G1 X49.23 Y56.344 E23.96576
G1 X49.083 Y55.7 E24.00201
G1 X48.994 Y55.054 E24.0378
G1 X48.948 Y54.39 E24.07433
G1 X48.961 Y53.739 E24.11006
G1 X49.017 Y53.074 E24.14668
G1 X49.139 Y52.378 E24.18546
G1 X49.28 Y51.803 E24.21795
G1 X49.512 Y51.125 E24.25728
G1 X49.755 Y50.542 E24.29194
G1 X50.069 Y49.944 E24.32901
G1 X50.398 Y49.406 E24.36362
G1 X50.803 Y48.858 E24.40101
G1 X51.226 Y48.359 E24.43691
G1 X51.707 Y47.885 E24.47397
G1 X52.188 Y47.469 E24.50887
G1 X52.743 Y47.069 E24.54642
G1 X53.282 Y46.733 E24.58127
G1 X53.889 Y46.425 E24.61863
G1 X54.497 Y46.165 E24.65492
G1 X55.108 Y45.965 E24.6902
G1 X55.755 Y45.801 E24.72683
G1 X56.424 Y45.692 E24.76403
G1 X57.057 Y45.632 E24.79892
G1 X57.525 Y45.62 E24.82461
G1 X58.966 Y45.617 E24.90369
G1 X61.033 Y45.617 E25.01713
G1 X62.455 Y45.62 E25.09517
G1 X63.174 Y45.652 E25.13467
G1 X63.83 Y45.726 E25.17089
G1 X64.478 Y45.856 E25.20716
G1 X65.1 Y46.025 E25.24254
G1 X65.744 Y46.264 E25.28023
G1 X66.325 Y46.523 E25.31514
G1 X66.907 Y46.847 E25.3517
G1 X67.47 Y47.211 E25.38849
G1 X67.966 Y47.599 E25.42305
G1 X68.459 Y48.039 E25.45931
G1 X68.946 Y48.557 E25.49833
G1 X69.344 Y49.041 E25.53272
G1 X69.721 Y49.594 E25.56945
G1 X70.046 Y50.145 E25.60456
G1 X70.344 Y50.768 E25.64246
G1 X70.581 Y51.37 E25.67796
G1 X70.768 Y51.994 E25.71371
G1 X70.917 Y52.65 E25.75063
G1 X71.006 Y53.295 E25.78636
G1 X71.052 Y53.96 E25.82294
G1 X71.039 Y54.609 E25.85857
G1 X70.982 Y55.282 E25.89563
G1 X70.864 Y55.957 E25.93324
G1 X70.719 Y56.549 E25.96669
G1 X70.492 Y57.214 E26.00525
G1 X70.246 Y57.805 E26.04038
G1 X69.941 Y58.388 E26.07649
G1 X69.604 Y58.94 E26.11198
G1 X69.184 Y59.507 E26.15071
G1 X68.781 Y59.983 E26.18493
G1 X68.291 Y60.466 E26.22269
G1 X67.813 Y60.88 E26.2574
G1 X67.26 Y61.279 E26.29482
G1 X66.718 Y61.617 E26.32987
G1 X66.111 Y61.925 E26.36723
G1 X65.506 Y62.184 E26.40334
G1 X64.892 Y62.385 E26.4388
G1 X64.245 Y62.549 E26.47543
G1 X63.577 Y62.658 E26.51257
G1 X62.945 Y62.717 E26.54741
G1 X62.473 Y62.73 E26.57332
G1 X61.044 Y62.733 E26.65174
G1 X60.838 Y62.731 E26.66305
G0 X60.836 Y63.131
G1 X58.965 Y63.132 E26.76573
G1 X57.527 Y63.13 E26.84464
G1 X56.794 Y63.097 E26.88491
G1 X56.114 Y63.021 E26.92246
G1 X55.432 Y62.884 E26.96064
G1 X54.776 Y62.705 E26.99795
G1 X54.108 Y62.458 E27.03704
G1 X53.496 Y62.185 E27.07382
G1 X52.884 Y61.844 E27.11226
G1 X52.301 Y61.467 E27.15036
G1 X51.754 Y61.039 E27.18848
G1 X51.257 Y60.595 E27.22505
G1 X50.764 Y60.069 E27.26462
G1 X50.341 Y59.556 E27.30111
G1 X49.94 Y58.966 E27.34026
G1 X49.596 Y58.384 E27.37736
G1 X49.289 Y57.74 E27.41651
G1 X49.042 Y57.115 E27.45339
G1 X48.841 Y56.439 E27.4921
G1 X48.69 Y55.776 E27.52941
G1 X48.596 Y55.09 E27.56741
G1 X48.548 Y54.399 E27.60542
G1 X48.562 Y53.705 E27.64352
G1 X48.619 Y53.028 E27.6808
G1 X48.745 Y52.309 E27.72086
G1 X48.899 Y51.681 E27.75635
G1 X49.133 Y50.996 E27.79607
G1 X49.393 Y50.371 E27.83322
G1 X49.715 Y49.758 E27.87122
G1 X50.067 Y49.181 E27.90831
G1 X50.498 Y48.599 E27.94806
G1 X50.933 Y48.086 E27.98497
G1 X51.432 Y47.594 E28.02343
G1 X51.938 Y47.157 E28.06012
G1 X52.522 Y46.736 E28.09963
G1 X53.089 Y46.382 E28.13631
G1 X53.717 Y46.063 E28.17497
G1 X54.349 Y45.793 E28.21268
G1 X55.003 Y45.579 E28.25045
G1 X55.673 Y45.409 E28.28838
G1 X56.368 Y45.296 E28.32702
G1 X57.037 Y45.232 E28.3639
G1 X57.515 Y45.22 E28.39015
G1 X58.965 Y45.217 E28.46972
G1 X61.034 Y45.217 E28.58327
G1 X62.473 Y45.22 E28.66224
G1 X63.206 Y45.253 E28.7025
G1 X63.886 Y45.329 E28.74005
G1 X64.572 Y45.467 E28.77846
G1 X65.221 Y45.643 E28.81536
G1 X65.892 Y45.892 E28.85464
G1 X66.504 Y46.165 E28.89141
G1 X67.116 Y46.506 E28.92986
G1 X67.699 Y46.883 E28.96796
G1 X68.232 Y47.3 E29.0051
G1 X68.741 Y47.754 E29.04253
G1 X69.242 Y48.288 E29.08271
G1 X69.66 Y48.796 E29.11882
G1 X70.066 Y49.391 E29.15835
G1 X70.397 Y49.953 E29.19414
G1 X70.711 Y50.61 E29.2341
G1 X70.958 Y51.235 E29.27099
G1 X71.158 Y51.905 E29.30936
G1 X71.31 Y52.574 E29.34701
G1 X71.404 Y53.259 E29.38495
G1 X71.452 Y53.951 E29.42302
G1 X71.438 Y54.643 E29.461
G1 X71.38 Y55.328 E29.49873
G1 X71.257 Y56.031 E29.5379
G1 X71.1 Y56.671 E29.57406
G1 X70.869 Y57.348 E29.61332
G1 X70.61 Y57.97 E29.65029
G1 X70.282 Y58.597 E29.68913
G1 X69.933 Y59.168 E29.72585
G1 X69.501 Y59.752 E29.76572
G1 X69.074 Y60.256 E29.80197
G1 X68.567 Y60.756 E29.84105
G1 X68.062 Y61.193 E29.8777
G1 X67.481 Y61.612 E29.91701
G1 X66.911 Y61.968 E29.95389
G1 X66.283 Y62.287 E29.99254
G1 X65.651 Y62.557 E30.03026
G1 X64.997 Y62.771 E30.06802
G1 X64.327 Y62.941 E30.10596
G1 X63.633 Y63.054 E30.14455
G1 X62.964 Y63.117 E30.18142
G1 X62.484 Y63.13 E30.20777
G1 X61.041 Y63.133 E30.28697
G1 X60.836 Y63.131 E30.29822
G0 X60.834 Y63.531
;TYPE:WALL-OUTER
G1 X58.965 Y63.532 E30.40079
G1 X57.509 Y63.53 E30.48069
G1 X56.763 Y63.496 E30.52167
G1 X56.058 Y63.418 E30.5606
G1 X55.338 Y63.273 E30.6009
G1 X54.655 Y63.087 E30.63975
G1 X53.96 Y62.83 E30.68042
G1 X53.316 Y62.543 E30.71911
G1 X52.675 Y62.185 E30.7594
G1 X52.072 Y61.795 E30.79881
G1 X51.5 Y61.348 E30.83865
G1 X50.975 Y60.879 E30.87729
G1 X50.461 Y60.33 E30.91856
G1 X50.019 Y59.794 E30.95668
G1 X49.601 Y59.18 E30.99745
G1 X49.245 Y58.576 E31.03592
G1 X48.922 Y57.898 E31.07714
G1 X48.665 Y57.25 E31.1154
G1 X48.452 Y56.534 E31.15639
G1 X48.297 Y55.852 E31.19477
G1 X48.198 Y55.126 E31.23498
G1 X48.148 Y54.408 E31.27448
G1 X48.163 Y53.671 E31.31494
G1 X48.221 Y52.982 E31.35288
G1 X48.351 Y52.24 E31.39422
G1 X48.518 Y51.559 E31.4327
G1 X48.754 Y50.867 E31.47283
G1 X49.031 Y50.201 E31.51241
G1 X49.367 Y49.56 E31.55213
G1 X49.738 Y48.953 E31.59117
G1 X50.182 Y48.353 E31.63213
G1 X50.64 Y47.813 E31.67099
G1 X51.156 Y47.305 E31.71073
G1 X51.695 Y46.838 E31.74987
G1 X52.288 Y46.411 E31.78997
G1 X52.896 Y46.031 E31.82932
G1 X53.545 Y45.701 E31.86927
G1 X54.204 Y45.42 E31.90859
G1 X54.898 Y45.193 E31.94866
G1 X55.591 Y45.017 E31.9879
G1 X56.311 Y44.9 E32.02793
G1 X57.017 Y44.832 E32.06686
G1 X57.505 Y44.82 E32.09365
G1 X58.964 Y44.817 E32.17371
G1 X61.035 Y44.817 E32.28737
G1 X62.491 Y44.82 E32.36727
G1 X63.237 Y44.854 E32.40826
G1 X63.942 Y44.932 E32.44718
G1 X64.666 Y45.078 E32.48771
G1 X65.342 Y45.261 E32.52615
G1 X66.04 Y45.52 E32.56701
G1 X66.684 Y45.807 E32.6057
G1 X67.325 Y46.165 E32.64599
G1 X67.928 Y46.555 E32.6854
G1 X68.498 Y47.001 E32.72512
G1 X69.023 Y47.469 E32.76372
G1 X69.539 Y48.019 E32.8051
G1 X69.98 Y48.556 E32.84324
G1 X70.396 Y49.165 E32.88371
G1 X70.753 Y49.77 E32.92227
G1 X71.078 Y50.452 E32.96373
G1 X71.335 Y51.1 E33.00198
G1 X71.548 Y51.816 E33.04298
G1 X71.703 Y52.498 E33.08136
G1 X71.802 Y53.223 E33.12152
G1 X71.852 Y53.942 E33.16107
G1 X71.837 Y54.677 E33.20141
G1 X71.778 Y55.374 E33.2398
G1 X71.65 Y56.105 E33.28053
G1 X71.481 Y56.793 E33.31941
G1 X71.246 Y57.483 E33.35941
G1 X70.97 Y58.145 E33.39877
G1 X70.633 Y58.79 E33.43871
G1 X70.262 Y59.396 E33.4777
G1 X69.818 Y59.997 E33.51871
G1 X69.367 Y60.529 E33.55699
G1 X68.844 Y61.045 E33.5973
G1 X68.305 Y61.512 E33.63644
G1 X67.712 Y61.939 E33.67655
G1 X67.104 Y62.319 E33.71589
G1 X66.455 Y62.649 E33.75585
G1 X65.796 Y62.93 E33.79517
G1 X65.102 Y63.157 E33.83524
G1 X64.409 Y63.333 E33.87448
G1 X63.689 Y63.45 E33.91451
G1 X62.983 Y63.517 E33.95343
G1 X62.495 Y63.53 E33.98022
G1 X61.038 Y63.533 E34.06018
G1 X60.834 Y63.531 E34.07137
G0 X60.634 Y63.531
G0 X60.634 Y63.031
G0 X60.84 Y62.341
;TYPE:SKIN
G1 X58.965 Y62.342 E34.17427
G1 X57.563 Y62.34 E34.25121
G1 X56.856 Y62.308 E34.29005
G1 X56.22 Y62.237 E34.32517
G1 X55.621 Y62.117 E34.3587
G1 X55.019 Y61.953 E34.39294
G1 X54.408 Y61.726 E34.42871
G1 X53.844 Y61.475 E34.46259
G1 X53.29 Y61.167 E34.49737
G1 X52.756 Y60.821 E34.53229
G1 X52.266 Y60.437 E34.56646
G1 X51.816 Y60.035 E34.59957
G1 X51.353 Y59.542 E34.63669
G1 X50.969 Y59.076 E34.66982
G1 X50.612 Y58.549 E34.70476
G1 X50.296 Y58.015 E34.73881
G1 X50.01 Y57.414 E34.77534
