;FLAVOR:Marlin
;TIME:3112
;Filament used: 4.13925m
;Layer height: 0.24
;MINX:41.2
;MINY:34.686
;MINZ:0.3
;MAXX:78.8
;MAXY:73.112
;MAXZ:35.82
;Generated with Cura_SteamEngine 4.6.1
M104 S210
M105
M109 S210
M82 ;absolute extrusion mode
;Sliced at: Thu 27-08-2020 11:01:33
G21 ;metric values
G90 ;absolute positioning
M82 ;set extruder to absolute mode
M107 ;start with the fan off
G1 Z5.0 F1800 ;move Z to 5mm
G28 X0 Y0 F1800 ;move X/Y to min endstops
G28 Z0 ;move Z to min endstop
G92 E0 ;zero the extruded length
G1 F200 E6.0 ;extrude 6.0mm of feed stock to build pressure
G1 Z5.0 F300 ;move the platform down 5mm
G92 E0 ;zero the extruded length again
G1 F1800
;Put printing message on LCD screen
M117 Printing...
G92 E0
G92 E0
G1 F1500 E-5
;LAYER_COUNT:149
;LAYER:0
M107
G0 F900 X74.227 Y35.511 Z0.3
;TYPE:SKIRT
G1 F1500 E0.70678
G1 F900 X74.729 Y35.569 E0.73451
G1 X75.449 Y35.802 E0.77604
G1 X76.029 Y36.113 E0.81216
G1 X76.412 Y36.414 E0.83889
G1 X76.603 Y36.589 E0.85311
G1 X76.947 Y36.959 E0.88083
G1 X77.268 Y37.431 E0.91216
G1 X77.503 Y37.879 E0.93992
G1 X77.634 Y38.241 E0.96105
G1 X77.767 Y38.695 E0.98701
G1 X77.884 Y39.313 E1.02153
G1 X77.923 Y39.846 E1.05086
G1 X77.941 Y42.138 E1.17664
G1 X77.937 Y44.635 E1.31368
G1 X77.939 Y67.072 E2.545
G1 X77.929 Y67.861 E2.58831
G1 X77.89 Y68.436 E2.61993
G1 X77.773 Y69.116 E2.6578
G1 X77.577 Y69.728 E2.69307
G1 X77.448 Y70.024 E2.71079
G1 X77.108 Y70.62 E2.74844
G1 X76.677 Y71.149 E2.78589
G1 X76.293 Y71.478 E2.81364
G1 X76.047 Y71.657 E2.83034
G1 X75.616 Y71.921 E2.85807
G1 X75.148 Y72.114 E2.88586
G1 X74.657 Y72.231 E2.91356
G1 X74.285 Y72.267 E2.93407
G1 X73.179 Y72.309 E2.99481
G1 X67.361 Y72.303 E3.31409
G1 X53.267 Y72.302 E4.08756
G1 X47.096 Y72.312 E4.42622
G1 X46.242 Y72.303 E4.47309
G1 X45.774 Y72.287 E4.49879
G1 X45.271 Y72.229 E4.52658
G1 X44.785 Y72.092 E4.55429
G1 X44.399 Y71.925 E4.57737
G1 X43.958 Y71.677 E4.60513
G1 X43.584 Y71.384 E4.63121
G1 X43.388 Y71.205 E4.64578
G1 X43.043 Y70.836 E4.6735
G1 X42.719 Y70.356 E4.70528
G1 X42.486 Y69.907 E4.73304
G1 X42.349 Y69.515 E4.75583
G1 X42.216 Y69.035 E4.78316
G1 X42.109 Y68.421 E4.81737
G1 X42.076 Y67.91 E4.84547
G1 X42.059 Y65.659 E4.96901
G1 X42.063 Y63.164 E5.10593
G1 X42.061 Y40.678 E6.33994
G1 X42.072 Y39.903 E6.38248
G1 X42.113 Y39.339 E6.41351
G1 X42.227 Y38.684 E6.45
G1 X42.42 Y38.077 E6.48495
G1 X42.549 Y37.779 E6.50277
G1 X42.913 Y37.147 E6.5428
G1 X43.37 Y36.597 E6.58204
G1 X43.774 Y36.261 E6.61088
G1 X43.988 Y36.111 E6.62522
G1 X44.424 Y35.854 E6.653
G1 X44.895 Y35.669 E6.68077
G1 X45.555 Y35.542 E6.71765
G1 X46.075 Y35.498 E6.74629
G1 X52.64 Y35.496 E7.10657
G1 X66.717 Y35.497 E7.87911
G1 X72.907 Y35.486 E8.21881
G1 X73.695 Y35.501 E8.26206
G0 F810 X74.227 Y35.511
G0 F900 X74.241 Y35.111
G1 X74.774 Y35.171 E8.2915
G1 X75.292 Y35.308 E8.3209
G1 X75.756 Y35.503 E8.34853
G1 X76.225 Y35.763 E8.37795
G1 X76.682 Y36.119 E8.40975
G1 X76.873 Y36.294 E8.42396
G1 X77.24 Y36.684 E8.45335
G1 X77.606 Y37.217 E8.48883
G1 X77.858 Y37.691 E8.51829
G1 X78.018 Y38.129 E8.54389
G1 X78.151 Y38.583 E8.56985
G1 X78.282 Y39.277 E8.60861
G1 X78.323 Y39.838 E8.63948
G1 X78.341 Y42.135 E8.76554
G1 X78.337 Y44.636 E8.90279
G1 X78.339 Y67.072 E10.13406
G1 X78.329 Y67.866 E10.17764
G1 X78.289 Y68.468 E10.21075
G1 X78.164 Y69.199 E10.25145
G1 X77.943 Y69.888 E10.29116
G1 X77.814 Y70.184 E10.30888
G1 X77.432 Y70.854 E10.3512
G1 X76.983 Y71.408 E10.39034
G1 X76.528 Y71.801 E10.42333
G1 X76.282 Y71.98 E10.44003
G1 X75.826 Y72.262 E10.46945
G1 X75.333 Y72.474 E10.4989
G1 X74.815 Y72.61 E10.52829
G1 X74.301 Y72.666 E10.55667
G1 X73.195 Y72.708 E10.61741
G1 X67.36 Y72.703 E10.93763
G1 X53.268 Y72.702 E11.71099
G1 X47.097 Y72.712 E12.04965
G1 X46.237 Y72.703 E12.09684
G1 X45.759 Y72.687 E12.12309
G1 X45.226 Y72.627 E12.15253
G1 X44.708 Y72.49 E12.18193
G1 X44.231 Y72.288 E12.21036
G1 X43.762 Y72.028 E12.23979
G1 X43.314 Y71.679 E12.27095
G1 X43.118 Y71.5 E12.28552
G1 X42.75 Y71.11 E12.31495
G1 X42.379 Y70.567 E12.35104
G1 X42.13 Y70.093 E12.38042
G1 X41.964 Y69.622 E12.40783
G1 X41.831 Y69.142 E12.43516
G1 X41.71 Y68.451 E12.47366
G1 X41.676 Y67.918 E12.50297
G1 X41.659 Y65.662 E12.62678
G1 X41.663 Y63.163 E12.76393
G1 X41.661 Y40.678 E13.99789
G1 X41.672 Y39.897 E14.04075
G1 X41.714 Y39.305 E14.07332
G1 X41.835 Y38.601 E14.11252
G1 X42.053 Y37.918 E14.15187
G1 X42.182 Y37.62 E14.16969
G1 X42.431 Y37.145 E14.19912
G1 X42.717 Y36.74 E14.22633
G1 X43.067 Y36.334 E14.25575
G1 X43.545 Y35.933 E14.28999
G1 X43.759 Y35.783 E14.30433
G1 X44.22 Y35.509 E14.33376
G1 X44.716 Y35.306 E14.36317
G1 X45.237 Y35.179 E14.3926
G1 X46.041 Y35.1 E14.43694
G1 X46.35 Y35.087 E14.45391
G1 X52.64 Y35.096 E14.7991
G1 X66.717 Y35.097 E15.57164
G1 X72.907 Y35.086 E15.91134
G1 X73.709 Y35.102 E15.95536
G0 F810 X74.241 Y35.111
G0 F900 X74.256 Y34.712
G1 X74.818 Y34.772 E15.98638
G1 X75.366 Y34.911 E16.0174
G1 X75.923 Y35.14 E16.05045
G1 X76.418 Y35.412 E16.08145
G1 X76.952 Y35.824 E16.11846
G1 X77.532 Y36.409 E16.16367
G1 X77.944 Y37.004 E16.20339
G1 X78.212 Y37.502 E16.23443
G1 X78.402 Y38.016 E16.2645
G1 X78.535 Y38.47 E16.29046
G1 X78.68 Y39.242 E16.33357
G1 X78.723 Y39.83 E16.36592
G1 X78.741 Y42.133 E16.49232
G1 X78.737 Y44.636 E16.62968
G1 X78.739 Y67.072 E17.86095
G1 X78.729 Y67.872 E17.90486
G1 X78.687 Y68.5 E17.9394
G1 X78.612 Y69.014 E17.9679
G1 X78.555 Y69.282 E17.98294
G1 X78.31 Y70.048 E18.02707
G1 X78.181 Y70.344 E18.04479
G1 X77.919 Y70.845 E18.07582
G1 X77.653 Y71.232 E18.10159
G1 X77.29 Y71.666 E18.13264
G1 X76.763 Y72.124 E18.17096
G1 X76.517 Y72.303 E18.18766
G1 X76.038 Y72.603 E18.21867
G1 X75.521 Y72.832 E18.24971
G1 X74.977 Y72.985 E18.28072
G1 X74.316 Y73.066 E18.31726
G1 X73.21 Y73.108 E18.378
G1 X67.359 Y73.103 E18.6991
G1 X53.268 Y73.102 E19.47241
G1 X47.097 Y73.112 E19.81107
G1 X46.233 Y73.103 E19.85848
G1 X45.745 Y73.086 E19.88528
G1 X45.183 Y73.026 E19.9163
G1 X44.635 Y72.887 E19.94733
G1 X44.063 Y72.651 E19.98128
G1 X43.568 Y72.378 E20.01231
G1 X43.045 Y71.975 E20.04854
G1 X42.849 Y71.796 E20.06311
G1 X42.459 Y71.386 E20.09416
G1 X42.153 Y70.96 E20.12295
G1 X41.775 Y70.28 E20.16564
G1 X41.578 Y69.729 E20.19776
G1 X41.445 Y69.249 E20.22509
G1 X41.311 Y68.481 E20.26787
G1 X41.276 Y67.926 E20.29839
G1 X41.259 Y65.664 E20.42253
G1 X41.263 Y63.163 E20.55979
G1 X41.261 Y40.678 E21.79374
G1 X41.272 Y39.89 E21.83699
G1 X41.316 Y39.271 E21.87105
G1 X41.444 Y38.518 E21.91297
G1 X41.686 Y37.759 E21.95669
G1 X41.815 Y37.461 E21.97451
G1 X42.076 Y36.959 E22.00556
G1 X42.395 Y36.502 E22.03614
G1 X42.763 Y36.073 E22.06716
G1 X43.315 Y35.606 E22.10684
G1 X43.529 Y35.456 E22.12118
G1 X44.014 Y35.165 E22.15222
G1 X44.535 Y34.945 E22.18326
G1 X45.081 Y34.801 E22.21425
G1 X46.008 Y34.701 E22.26542
G1 X46.351 Y34.687 E22.28426
G1 X52.641 Y34.696 E22.62945
G1 X66.716 Y34.697 E23.40187
G1 X72.906 Y34.686 E23.74157
G1 X73.724 Y34.702 E23.78647
G0 F810 X74.256 Y34.712
G1 F1500 E18.78647
;MESH:Runcam_Dummy.stl
G0 F900 X74.05 Y38.032
G0 X74.027 Y39.116
G0 X73.704 Y39.69
;TYPE:WALL-INNER
G1 F1500 E24.49325
G1 F900 X73.725 Y39.795 E24.49913
G1 X73.742 Y41.846 E24.61169
G1 X73.737 Y44.628 E24.76436
G1 X73.737 Y49.642 E25.03953
G1 X73.737 Y49.73 E25.04436
G1 X73.737 Y50.249 E25.07284
G1 X73.737 Y50.775 E25.10171
G1 X73.738 Y50.853 E25.10599
G1 X73.718 Y50.776 E25.10614
G1 X73.558 Y50.249 E25.11437
G1 X73.373 Y49.73 E25.13535
G1 X73.34 Y49.649 E25.13994
G1 X73.163 Y49.222 E25.16531
G1 X72.932 Y48.725 E25.19538
G1 X72.678 Y48.239 E25.22548
G1 X72.397 Y47.76 E25.25595
G1 X72.094 Y47.302 E25.28609
G1 X71.774 Y46.856 E25.31622
G1 X71.43 Y46.426 E25.34644
G1 X71.068 Y46.013 E25.37657
G1 X70.685 Y45.617 E25.40681
G1 X70.284 Y45.238 E25.43709
G1 X69.866 Y44.881 E25.46726
G1 X69.436 Y44.546 E25.49717
G1 X68.985 Y44.227 E25.52749
G1 X68.517 Y43.93 E25.55791
G1 X68.041 Y43.658 E25.58799
G1 X67.553 Y43.409 E25.61806
G1 X67.052 Y43.181 E25.64827
G1 X66.54 Y42.978 E25.67849
G1 X66.019 Y42.798 E25.70874
G1 X65.491 Y42.645 E25.73891
G1 X64.957 Y42.516 E25.76906
G1 X64.416 Y42.412 E25.79929
G1 X63.87 Y42.335 E25.82955
G1 X63.323 Y42.283 E25.85971
G1 X62.776 Y42.257 E25.88976
G1 X57.486 Y42.254 E26.18007
G1 X56.932 Y42.269 E26.21048
G1 X56.386 Y42.31 E26.24053
G1 X55.839 Y42.375 E26.27076
G1 X55.295 Y42.467 E26.30104
G1 X54.759 Y42.584 E26.33115
G1 X54.228 Y42.725 E26.3613
G1 X53.703 Y42.893 E26.39155
G1 X53.188 Y43.083 E26.42168
G1 X52.681 Y43.301 E26.45196
G1 X52.188 Y43.539 E26.48201
G1 X51.704 Y43.801 E26.51221
G1 X51.229 Y44.089 E26.54269
G1 X50.57 Y44.54 E26.58652
G1 X50.132 Y44.88 E26.61695
G1 X49.714 Y45.24 E26.64722
G1 X49.315 Y45.617 E26.67735
G1 X48.932 Y46.013 E26.70758
G1 X48.57 Y46.426 E26.73772
G1 X48.226 Y46.856 E26.76794
G1 X47.904 Y47.304 E26.79822
G1 X47.604 Y47.763 E26.82831
G1 X47.323 Y48.238 E26.8586
G1 X47.069 Y48.724 E26.88869
G1 X46.837 Y49.222 E26.91884
G1 X46.659 Y49.652 E26.94438
G1 X46.627 Y49.73 E26.94901
G1 X46.442 Y50.249 E26.97925
G1 X46.288 Y50.77 E27.00906
G1 X46.262 Y50.855 E27.01394
G1 X46.262 Y50.249 E27.02648
G1 X46.262 Y49.731 E27.04667
G1 X46.262 Y49.646 E27.05114
G1 X46.261 Y40.059 E27.57727
G1 X46.261 Y40.035 E27.57859
G1 X46.286 Y39.729 E27.59544
G1 X46.296 Y39.686 E27.59786
G1 X46.32 Y39.686 E27.59918
G1 X52.633 Y39.696 E27.94563
G1 X66.905 Y39.697 E28.72887
G1 X73.172 Y39.685 E29.0728
G0 F810 X73.474 Y39.685
G0 X73.704 Y39.69
G0 F900 X73.738 Y56.94
G1 X73.738 Y57.288 E29.09189
G1 X73.738 Y57.808 E29.12043
G1 X73.738 Y58.158 E29.13964
G1 X73.739 Y67.739 E29.66544
G1 X73.739 Y67.764 E29.66681
G1 X73.714 Y68.072 E29.68377
G1 X73.705 Y68.111 E29.68596
G1 X73.68 Y68.111 E29.68733
G1 X67.366 Y68.103 E30.03384
G1 X53.095 Y68.102 E30.81702
G1 X46.526 Y68.113 E31.17753
G1 X46.296 Y68.108 E31.19015
G1 X46.275 Y68.002 E31.19608
G1 X46.258 Y65.952 E31.30859
G1 X46.263 Y63.171 E31.46121
G1 X46.263 Y58.161 E31.73615
G1 X46.263 Y57.809 E31.75547
G1 X46.263 Y57.289 E31.78401
G1 X46.262 Y56.942 E31.80305
G1 X46.359 Y57.288 E31.80588
G1 X46.532 Y57.809 E31.82027
G1 X46.657 Y58.137 E31.83645
G1 X46.728 Y58.323 E31.84737
G1 X46.951 Y58.827 E31.87762
G1 X47.194 Y59.32 E31.90778
G1 X47.462 Y59.802 E31.93805
G1 X47.752 Y60.268 E31.96817
G1 X48.064 Y60.721 E31.99836
G1 X48.396 Y61.159 E32.02852
G1 X48.748 Y61.582 E32.05872
G1 X49.121 Y61.987 E32.08893
G1 X49.514 Y62.373 E32.11916
G1 X49.922 Y62.741 E32.14932
G1 X50.347 Y63.089 E32.17946
G1 X50.791 Y63.417 E32.20976
G1 X51.247 Y63.722 E32.23986
G1 X51.717 Y64.007 E32.27003
G1 X52.202 Y64.269 E32.30028
G1 X52.697 Y64.506 E32.3304
G1 X53.203 Y64.723 E32.36061
G1 X53.72 Y64.912 E32.39082
G1 X54.242 Y65.08 E32.42092
G1 X54.776 Y65.222 E32.45124
G1 X55.313 Y65.337 E32.48138
G1 X55.856 Y65.428 E32.51159
G1 X56.403 Y65.492 E32.54182
G1 X56.952 Y65.532 E32.57203
G1 X57.488 Y65.544 E32.60145
G1 X62.512 Y65.544 E32.87716
G1 X63.048 Y65.532 E32.90658
G1 X63.597 Y65.492 E32.93679
G1 X64.144 Y65.428 E32.96702
G1 X64.687 Y65.337 E32.99723
G1 X65.224 Y65.222 E33.02737
G1 X65.758 Y65.08 E33.05769
G1 X66.28 Y64.912 E33.08779
G1 X66.797 Y64.723 E33.118
G1 X67.303 Y64.506 E33.14821
G1 X67.798 Y64.269 E33.17833
G1 X68.283 Y64.007 E33.20858
G1 X68.753 Y63.722 E33.23875
G1 X69.209 Y63.417 E33.26885
G1 X69.653 Y63.089 E33.29915
G1 X70.078 Y62.741 E33.32929
G1 X70.486 Y62.373 E33.35945
G1 X70.879 Y61.987 E33.38968
G1 X71.252 Y61.582 E33.41989
G1 X71.604 Y61.159 E33.45009
G1 X71.936 Y60.721 E33.48025
G1 X72.248 Y60.268 E33.51044
G1 X72.538 Y59.802 E33.54056
G1 X72.806 Y59.32 E33.57083
G1 X73.049 Y58.827 E33.60099
G1 X73.272 Y58.323 E33.63124
G1 X73.344 Y58.136 E33.64223
G1 X73.468 Y57.809 E33.65837
G1 X73.641 Y57.288 E33.6739
G1 X73.738 Y56.94 E33.67679
G0 X73.49 Y52.454
G0 X73.181 Y50.936
G0 X72.646 Y49.439
G0 X71.915 Y48.048
G0 X70.994 Y46.78
G0 X69.902 Y45.649
G0 X68.682 Y44.698
G0 X65.898 Y43.179
G1 X65.388 Y43.032 E33.70592
G1 X64.872 Y42.907 E33.73506
G1 X64.35 Y42.807 E33.76423
G1 X63.823 Y42.732 E33.79344
G1 X63.295 Y42.682 E33.82255
G1 X62.766 Y42.657 E33.85161
G1 X57.491 Y42.654 E34.1411
G1 X56.952 Y42.669 E34.17069
G1 X56.424 Y42.708 E34.19974
G1 X55.896 Y42.771 E34.22892
G1 X55.371 Y42.86 E34.25815
G1 X54.853 Y42.973 E34.28724
G1 X54.34 Y43.109 E34.31637
G1 X53.833 Y43.271 E34.34558
G1 X53.336 Y43.455 E34.37466
G1 X52.847 Y43.665 E34.40387
G1 X52.37 Y43.895 E34.43293
G1 X51.903 Y44.148 E34.46208
G1 X51.446 Y44.425 E34.49141
G1 X50.806 Y44.863 E34.53397
G1 X50.385 Y45.19 E34.56322
G1 X49.982 Y45.537 E34.59241
G1 X49.596 Y45.902 E34.62156
G1 X49.226 Y46.284 E34.65075
G1 X48.877 Y46.683 E34.67984
G1 X48.545 Y47.098 E34.709
G1 X48.234 Y47.53 E34.73822
G1 X47.944 Y47.974 E34.76732
G1 X47.673 Y48.433 E34.79657
G1 X47.428 Y48.901 E34.82556
G1 X47.203 Y49.383 E34.85475
G1 X47 Y49.874 E34.88391
G1 X46.822 Y50.374 E34.91304
G1 X46.667 Y50.883 E34.94224
G1 X46.537 Y51.398 E34.97139
G1 X46.431 Y51.918 E35.00051
G1 X46.349 Y52.443 E35.02967
G1 X46.293 Y52.973 E35.05892
G1 X46.262 Y53.502 E35.088
G1 X46.256 Y54.032 E35.11709
G1 X46.261 Y54.199 E35.12626
G1 X46.275 Y54.562 E35.14619
G1 X46.318 Y55.091 E35.17532
G1 X46.387 Y55.618 E35.20449
G1 X46.481 Y56.142 E35.2337
G1 X46.599 Y56.66 E35.26286
G1 X46.742 Y57.171 E35.29198
G1 X46.909 Y57.675 E35.32112
G1 X47.098 Y58.171 E35.35025
G1 X47.313 Y58.658 E35.37946
G1 X47.548 Y59.134 E35.40859
G1 X47.807 Y59.599 E35.43781
G1 X48.087 Y60.049 E35.46689
G1 X48.388 Y60.487 E35.49606
G1 X48.709 Y60.91 E35.5252
G1 X49.049 Y61.318 E35.55434
G1 X49.409 Y61.709 E35.58351
G1 X49.788 Y62.082 E35.61269
G1 X50.183 Y62.437 E35.64184
G1 X50.593 Y62.773 E35.67093
G1 X51.021 Y63.09 E35.70016
G1 X51.462 Y63.385 E35.72928
G1 X51.916 Y63.66 E35.75841
G1 X52.384 Y63.912 E35.78758
G1 X52.862 Y64.142 E35.81669
G1 X53.351 Y64.351 E35.84587
G1 X53.85 Y64.534 E35.87504
G1 X54.355 Y64.696 E35.90415
G1 X54.869 Y64.833 E35.93334
G1 X55.388 Y64.944 E35.96247
G1 X55.912 Y65.032 E35.99162
G1 X56.441 Y65.094 E36.02085
G1 X56.971 Y65.132 E36.05002
G1 X57.493 Y65.144 E36.07867
G1 X62.507 Y65.144 E36.35383
G1 X63.029 Y65.132 E36.38249
G1 X63.559 Y65.094 E36.41165
G1 X64.088 Y65.032 E36.44088
G1 X64.612 Y64.944 E36.47004
G1 X65.131 Y64.833 E36.49916
G1 X65.645 Y64.696 E36.52836
G1 X66.15 Y64.534 E36.55746
G1 X66.649 Y64.351 E36.58663
G1 X67.138 Y64.142 E36.61582
G1 X67.616 Y63.912 E36.64493
G1 X68.084 Y63.66 E36.6741
G1 X68.538 Y63.385 E36.70323
G1 X68.979 Y63.09 E36.73234
G1 X69.407 Y62.773 E36.76157
G1 X69.817 Y62.437 E36.79066
G1 X70.212 Y62.082 E36.81981
G1 X70.591 Y61.709 E36.84899
G1 X70.951 Y61.318 E36.87816
G1 X71.291 Y60.91 E36.90731
G1 X71.612 Y60.487 E36.93645
G1 X71.913 Y60.049 E36.96561
G1 X72.193 Y59.599 E36.9947
G1 X72.452 Y59.134 E37.02391
G1 X72.687 Y58.658 E37.05304
G1 X72.902 Y58.171 E37.08226
G1 X73.091 Y57.675 E37.11139
G1 X73.258 Y57.171 E37.14052
G1 X73.401 Y56.66 E37.16964
G1 X73.519 Y56.142 E37.1988
G1 X73.613 Y55.618 E37.22802
G1 X73.682 Y55.091 E37.25718
G1 X73.725 Y54.562 E37.28631
G1 X73.739 Y54.198 E37.3063
G1 X73.744 Y54.032 E37.31542
G1 X73.738 Y53.502 E37.3445
G1 X73.707 Y52.973 E37.37358
G1 X73.651 Y52.443 E37.40283
G1 X73.569 Y51.918 E37.43199
G1 X73.463 Y51.398 E37.46112
G1 X73.333 Y50.883 E37.49027
G1 X73.178 Y50.374 E37.51947
G1 X73 Y49.874 E37.54859
G1 X72.797 Y49.383 E37.57775
G1 X72.573 Y48.902 E37.60687
G1 X72.328 Y48.433 E37.63591
G1 X72.057 Y47.972 E37.66526
G1 X71.765 Y47.529 E37.69437
G1 X71.455 Y47.098 E37.72351
G1 X71.123 Y46.683 E37.75267
G1 X70.774 Y46.284 E37.78177
G1 X70.404 Y45.902 E37.81095
G1 X70.017 Y45.536 E37.84018
G1 X69.613 Y45.191 E37.86934
G1 X69.197 Y44.867 E37.89828
G1 X68.762 Y44.559 E37.92753
G1 X68.311 Y44.273 E37.95683
G1 X67.851 Y44.01 E37.98591
G1 X67.379 Y43.769 E38.015
G1 X66.895 Y43.549 E38.04417
G1 X66.401 Y43.353 E38.07334
G0 F810 X65.898 Y43.179
G0 F900 X65.777 Y43.561
;TYPE:WALL-OUTER
G1 X65.285 Y43.419 E38.10144
G1 X64.787 Y43.298 E38.12957
G1 X64.284 Y43.202 E38.15767
G1 X63.776 Y43.129 E38.18584
G1 X63.267 Y43.081 E38.21389
G1 X62.756 Y43.057 E38.24197
G1 X57.497 Y43.054 E38.53058
G1 X56.972 Y43.069 E38.5594
G1 X56.462 Y43.106 E38.58746
G1 X55.953 Y43.167 E38.6156
G1 X55.447 Y43.253 E38.64376
G1 X54.947 Y43.362 E38.67185
