;FLAVOR:Marlin
;TIME:1549
;Filament used: 1.75179m
;Layer height: 0.24
;MINX:36.253
;MINY:50.296
;MINZ:0.3
;MAXX:83.711
;MAXY:69.739
;MAXZ:29.58
;Generated with Cura_SteamEngine 4.7.1
M104 S210
M105
M109 S210
M82 ;absolute extrusion mode
;Sliced at: Thu 10-06-2021 13:39:17
G21 ;metric values
G90 ;absolute positioning
M82 ;set extruder to absolute mode
M107 ;start with the fan off
G1 Z5.0 F1800 ;move Z to 5mm
G28 X0 Y0 F1800 ;move X/Y to min endstops
G28 Z0 ;move Z to min endstop
G92 E0 ;zero the extruded length
G1 F200 E6.0 ;extrude 6.0mm of feed stock to build pressure
G1 Z5.0 F300 ;move the platform down 5mm
G92 E0 ;zero the extruded length again
G1 F1800
;Put printing message on LCD screen
M117 Printing...
G92 E0
G92 E0
G1 F1500 E-5
;LAYER_COUNT:124
;LAYER:0
M107
G0 F1080 X39.194 Y51.51 Z0.3
;TYPE:SKIRT
G1 F1500 E0.72757
G1 F900 X39.253 Y51.469 E0.73151
G1 X39.7 Y51.185 E0.76057
G1 X40.156 Y50.936 E0.78908
G1 X40.893 Y50.636 E0.83275
G1 X41.398 Y50.487 E0.86165
G1 X41.869 Y50.393 E0.88801
G1 X42.457 Y50.325 E0.92049
G1 X42.756 Y50.3 E0.93696
G1 X43.397 Y50.296 E0.97213
G1 X43.661 Y50.316 E0.98666
G1 X44.83 Y50.479 E1.05144
G1 X45.285 Y50.555 E1.07675
G1 X57.077 Y52.634 E1.73387
G1 X57.438 Y52.699 E1.754
G1 X77.196 Y56.183 E2.85503
G1 X78.078 Y56.349 E2.90429
G1 X78.603 Y56.462 E2.93376
G1 X79.284 Y56.671 E2.97285
G1 X79.668 Y56.83 E2.99566
G1 X80.444 Y57.218 E3.04327
G1 X81.042 Y57.607 E3.08242
G1 X81.451 Y57.94 E3.11137
G1 X81.873 Y58.345 E3.14347
G1 X82.235 Y58.759 E3.17365
G1 X82.616 Y59.289 E3.20947
G1 X82.881 Y59.719 E3.23719
G1 X83.148 Y60.242 E3.26941
G1 X83.408 Y60.921 E3.30931
G1 X83.571 Y61.556 E3.34529
G1 X83.589 Y61.658 E3.35098
G1 X83.674 Y62.272 E3.38499
G1 X83.711 Y62.771 E3.41245
G1 X83.695 Y63.513 E3.45318
G1 X83.685 Y63.63 E3.45963
G1 X83.596 Y64.272 E3.4952
G1 X83.582 Y64.35 E3.49955
G1 X83.422 Y65.124 E3.54292
G1 X83.383 Y65.268 E3.55111
G1 X83.206 Y65.785 E3.5811
G1 X82.892 Y66.473 E3.6226
G1 X82.615 Y66.93 E3.65193
G1 X82.233 Y67.451 E3.68738
G1 X81.754 Y67.971 E3.72618
G1 X81.28 Y68.387 E3.76079
G1 X80.855 Y68.698 E3.78969
G1 X80.377 Y68.983 E3.82023
G1 X79.812 Y69.249 E3.85451
G1 X79.334 Y69.422 E3.8824
G1 X78.782 Y69.571 E3.91378
G1 X78.07 Y69.681 E3.95332
G1 X77.958 Y69.691 E3.95949
G1 X76.922 Y69.731 E4.01639
G1 X76.071 Y69.739 E4.06309
G1 X43.505 Y69.739 E5.85029
G1 X42.867 Y69.734 E5.8853
G1 X42.485 Y69.723 E5.90627
G1 X41.738 Y69.676 E5.94735
G1 X41.235 Y69.594 E5.97532
G1 X40.55 Y69.414 E6.01419
G1 X39.941 Y69.182 E6.04995
G1 X39.379 Y68.898 E6.08451
G1 X38.627 Y68.385 E6.13447
G1 X38.15 Y67.969 E6.1692
G1 X37.773 Y67.573 E6.19921
G1 X37.394 Y67.087 E6.23303
G1 X37.11 Y66.642 E6.262
G1 X36.828 Y66.094 E6.29582
G1 X36.59 Y65.484 E6.33175
G1 X36.56 Y65.388 E6.33727
G1 X36.409 Y64.808 E6.37017
G1 X36.321 Y64.278 E6.39965
G1 X36.276 Y63.722 E6.43026
G1 X36.274 Y63.679 E6.43262
G1 X36.253 Y62.443 E6.50047
G1 X36.253 Y58.261 E6.72997
G1 X36.257 Y57.803 E6.75511
G1 X36.275 Y57.197 E6.78838
G1 X36.31 Y56.686 E6.81649
G1 X36.351 Y56.398 E6.83245
G1 X36.487 Y55.631 E6.8752
G1 X36.509 Y55.538 E6.88044
G1 X36.686 Y54.897 E6.91694
G1 X36.727 Y54.783 E6.92359
G1 X36.949 Y54.243 E6.95563
G1 X37.171 Y53.774 E6.9841
G1 X37.545 Y53.152 E7.02393
G1 X37.849 Y52.74 E7.05203
G1 X38.21 Y52.336 E7.08177
G1 X38.669 Y51.909 E7.11617
G1 X38.771 Y51.832 E7.12318
G0 F810 X39.194 Y51.51
G0 F1080 X39.468 Y51.807
G1 F900 X39.936 Y51.51 E7.1536
G1 X40.663 Y51.145 E7.19825
G1 X41.255 Y50.939 E7.23265
G1 X41.845 Y50.802 E7.26589
G1 X41.915 Y50.79 E7.26978
G1 X42.491 Y50.724 E7.3016
G1 X43.021 Y50.69 E7.33075
G1 X43.057 Y50.69 E7.33272
G1 X43.606 Y50.713 E7.36288
G1 X44.765 Y50.874 E7.42709
G1 X45.216 Y50.949 E7.45218
G1 X57.006 Y53.028 E8.10919
G1 X72.394 Y55.742 E8.96671
G1 X77.122 Y56.576 E9.23018
G1 X77.993 Y56.74 E9.27882
G1 X78.518 Y56.853 E9.30829
G1 X79.159 Y57.051 E9.34511
G1 X79.489 Y57.187 E9.3647
G1 X80.265 Y57.575 E9.41231
G1 X80.814 Y57.936 E9.44837
G1 X81.217 Y58.266 E9.47696
G1 X81.584 Y58.622 E9.50502
G1 X81.924 Y59.011 E9.53337
G1 X82.285 Y59.514 E9.56735
G1 X82.615 Y60.066 E9.60264
G1 X82.938 Y60.793 E9.6463
G1 X83.122 Y61.389 E9.68053
G1 X83.193 Y61.713 E9.69873
G1 X83.277 Y62.314 E9.73203
G1 X83.315 Y62.971 E9.76815
G1 X83.295 Y63.497 E9.79704
G1 X83.288 Y63.575 E9.80134
G1 X83.199 Y64.217 E9.83691
G1 X83.19 Y64.269 E9.8398
G1 X83.03 Y65.043 E9.88318
G1 X83.004 Y65.139 E9.88863
G1 X82.832 Y65.643 E9.91786
G1 X82.535 Y66.293 E9.95708
G1 X82.164 Y66.886 E9.99547
G1 X81.766 Y67.387 E10.03058
G1 X81.292 Y67.859 E10.06729
G1 X80.77 Y68.272 E10.10382
G1 X80.248 Y68.598 E10.13759
G1 X79.647 Y68.885 E10.17414
G1 X78.995 Y69.109 E10.21198
G1 X78.465 Y69.225 E10.24175
G1 X77.942 Y69.291 E10.27068
G1 X76.919 Y69.331 E10.32687
G1 X76.068 Y69.339 E10.37357
G1 X43.508 Y69.339 E12.16044
G1 X42.879 Y69.335 E12.19496
G1 X42.509 Y69.323 E12.21527
G1 X41.776 Y69.277 E12.25558
G1 X41.075 Y69.152 E12.29466
G1 X40.42 Y68.95 E12.33227
G1 X39.827 Y68.688 E12.36785
G1 X39.31 Y68.388 E12.40065
G1 X38.864 Y68.063 E12.43094
G1 X38.423 Y67.677 E12.4631
G1 X38.078 Y67.314 E12.49059
G1 X37.72 Y66.855 E12.52253
G1 X37.297 Y66.142 E12.56803
G1 X37.029 Y65.524 E12.605
G1 X36.947 Y65.287 E12.61876
G1 X36.807 Y64.753 E12.64905
G1 X36.717 Y64.224 E12.6785
G1 X36.675 Y63.701 E12.7073
G1 X36.653 Y62.437 E12.77667
G1 X36.653 Y58.265 E13.00563
G1 X36.657 Y57.815 E13.03033
G1 X36.674 Y57.221 E13.06294
G1 X36.709 Y56.719 E13.09055
G1 X36.744 Y56.468 E13.10446
G1 X36.88 Y55.706 E13.14694
G1 X36.895 Y55.644 E13.15044
G1 X37.067 Y55.019 E13.18602
G1 X37.097 Y54.935 E13.19091
G1 X37.314 Y54.406 E13.22229
G1 X37.54 Y53.931 E13.25116
G1 X37.859 Y53.401 E13.28511
G1 X38.162 Y52.99 E13.31313
G1 X38.71 Y52.412 E13.35684
G1 X39.041 Y52.124 E13.38092
G0 F810 X39.105 Y52.069
G0 X39.468 Y51.807
G0 F1080 X39.663 Y52.158
G1 F900 X39.682 Y52.144 E13.38221
G1 X40.14 Y51.854 E13.41196
G1 X40.828 Y51.51 E13.45418
G1 X41.377 Y51.32 E13.48606
G1 X41.926 Y51.193 E13.51698
G1 X42.524 Y51.122 E13.55003
G1 X43.032 Y51.09 E13.57796
G1 X43.551 Y51.109 E13.60647
G1 X44.699 Y51.268 E13.67007
G1 X45.146 Y51.343 E13.69494
G1 X56.935 Y53.421 E14.35189
G1 X57.301 Y53.487 E14.3723
G1 X77.048 Y56.969 E15.47272
G1 X77.909 Y57.131 E15.5208
G1 X78.456 Y57.249 E15.55151
G1 X79.034 Y57.431 E15.58476
G1 X79.31 Y57.545 E15.60115
G1 X80.086 Y57.933 E15.64876
G1 X80.587 Y58.265 E15.68175
G1 X81.099 Y58.695 E15.71844
G1 X81.51 Y59.136 E15.75152
G1 X81.842 Y59.575 E15.78173
G1 X82.166 Y60.079 E15.81461
G1 X82.43 Y60.595 E15.84642
G1 X82.653 Y61.187 E15.88113
G1 X82.791 Y61.735 E15.91215
G1 X82.797 Y61.769 E15.91404
G1 X82.879 Y62.355 E15.94651
G1 X82.915 Y62.98 E15.98087
G1 X82.896 Y63.481 E16.00838
G1 X82.892 Y63.52 E16.01054
G1 X82.799 Y64.188 E16.04755
G1 X82.639 Y64.962 E16.09092
G1 X82.626 Y65.01 E16.09365
G1 X82.458 Y65.502 E16.12218
G1 X82.177 Y66.113 E16.15909
G1 X81.831 Y66.666 E16.19489
G1 X81.459 Y67.13 E16.22753
G1 X81.017 Y67.569 E16.26172
G1 X80.528 Y67.953 E16.29584
G1 X80.044 Y68.254 E16.32712
G1 X80.003 Y68.276 E16.32967
G1 X79.482 Y68.52 E16.36124
G1 X78.874 Y68.728 E16.39651
G1 X77.964 Y68.888 E16.44721
G1 X77.927 Y68.892 E16.44926
G1 X76.915 Y68.931 E16.50483
G1 X76.064 Y68.939 E16.55154
G1 X43.51 Y68.939 E18.33808
G1 X42.89 Y68.935 E18.3721
G1 X42.534 Y68.924 E18.39165
G1 X41.813 Y68.879 E18.43129
G1 X41.158 Y68.76 E18.46783
G1 X40.547 Y68.57 E18.50294
G1 X39.996 Y68.326 E18.53601
G1 X39.519 Y68.046 E18.56637
G1 X39.102 Y67.741 E18.59472
G1 X38.697 Y67.385 E18.62431
G1 X38.158 Y66.777 E18.6689
G1 X37.834 Y66.297 E18.70068
G1 X37.545 Y65.741 E18.73507
G1 X37.344 Y65.217 E18.76587
G1 X37.334 Y65.185 E18.76771
G1 X37.19 Y64.636 E18.79886
G1 X37.089 Y63.951 E18.83686
G1 X37.074 Y63.666 E18.85252
G1 X37.053 Y62.43 E18.92036
G1 X37.053 Y58.268 E19.14877
G1 X37.057 Y57.826 E19.17303
G1 X37.074 Y57.244 E19.20498
G1 X37.11 Y56.73 E19.23326
G1 X37.138 Y56.538 E19.24391
G1 X37.273 Y55.781 E19.2861
G1 X37.28 Y55.75 E19.28785
G1 X37.448 Y55.141 E19.32252
G1 X37.467 Y55.086 E19.32571
G1 X37.679 Y54.57 E19.35633
G1 X38.037 Y53.859 E19.40001
G1 X38.367 Y53.375 E19.43216
G1 X38.739 Y52.939 E19.46361
G1 X39.206 Y52.502 E19.49871
G1 X39.238 Y52.477 E19.50094
G0 F810 X39.663 Y52.158
G0 F1080 X39.957 Y52.426
G1 F900 X40.493 Y52.098 E19.53543
G1 X40.996 Y51.861 E19.56594
G1 X41.523 Y51.683 E19.59647
G1 X42.056 Y51.565 E19.62643
G1 X42.864 Y51.485 E19.67099
G1 X43.397 Y51.487 E19.70024
G1 X43.745 Y51.518 E19.71941
G1 X44.7 Y51.671 E19.77249
G1 X56.566 Y53.762 E20.43372
G1 X56.913 Y53.825 E20.45307
G1 X72.259 Y56.53 E21.30823
G1 X77.519 Y57.458 E21.60136
G1 X78.343 Y57.623 E21.64747
G1 X78.92 Y57.804 E21.68066
G1 X79.431 Y58.029 E21.7113
G1 X79.91 Y58.281 E21.74101
G1 X80.397 Y58.607 E21.77317
G1 X80.838 Y58.985 E21.80504
G1 X81.213 Y59.388 E21.83525
G1 X81.537 Y59.82 E21.86489
G1 X81.832 Y60.281 E21.89492
G1 X82.09 Y60.789 E21.92619
G1 X82.286 Y61.318 E21.95715
G1 X82.431 Y61.906 E21.99039
G1 X82.506 Y62.534 E22.0251
G1 X82.529 Y63.161 E22.05953
G1 X82.506 Y63.539 E22.08031
G1 X82.38 Y64.337 E22.12465
G1 X82.238 Y64.958 E22.15961
G1 X82.049 Y65.482 E22.19018
G1 X81.815 Y65.964 E22.21958
G1 X81.497 Y66.463 E22.25205
G1 X81.146 Y66.896 E22.28264
G1 X80.736 Y67.297 E22.31412
G1 X80.28 Y67.652 E22.34583
G1 X79.841 Y67.921 E22.37409
G1 X79.294 Y68.177 E22.40723
G1 X78.757 Y68.356 E22.43829
G1 X78.226 Y68.469 E22.46809
G1 X77.833 Y68.514 E22.4898
G1 X76.537 Y68.539 E22.56093
G1 X43.09 Y68.539 E24.39648
G1 X42.313 Y68.528 E24.43912
G1 X41.792 Y68.486 E24.46781
G1 X41.204 Y68.371 E24.50069
G1 X40.666 Y68.199 E24.53169
G1 X40.161 Y67.972 E24.56207
G1 X39.675 Y67.685 E24.59305
G1 X39.188 Y67.313 E24.62668
G1 X38.799 Y66.938 E24.65633
G1 X38.456 Y66.526 E24.68575
G1 X38.15 Y66.067 E24.71602
G1 X37.886 Y65.551 E24.74783
G1 X37.685 Y65.014 E24.7793
G1 X37.539 Y64.409 E24.81345
G1 X37.473 Y63.871 E24.8432
G1 X37.453 Y63.293 E24.87494
G1 X37.453 Y57.981 E25.16646
G1 X37.464 Y57.227 E25.20784
G1 X37.497 Y56.779 E25.23249
G1 X37.583 Y56.241 E25.26239
G1 X37.683 Y55.725 E25.29124
G1 X37.841 Y55.189 E25.32191
G1 X38.14 Y54.494 E25.36343
G1 X38.375 Y54.052 E25.3909
G1 X38.681 Y53.606 E25.42058
G1 X39.035 Y53.193 E25.45043
G1 X39.472 Y52.787 E25.48317
G1 X39.53 Y52.743 E25.48716
G0 F810 X39.957 Y52.426
G1 F1500 E20.48716
;MESH:10_grad_Winkel.stl
G0 F1080 X70.417 Y60.507
G0 X70.259 Y62.539
;TYPE:WALL-INNER
G1 F1500 E26.21473
G1 F900 X67.982 Y62.539 E26.33969
G1 X67.981 Y62.539 E26.33974
G1 X43.453 Y62.539 E27.68582
G1 X43.454 Y58.049 E27.93223
G1 X43.454 Y58.048 E27.93228
G1 X43.454 Y57.812 E27.94524
G1 X43.687 Y57.853 E27.95325
G1 X51.618 Y59.253 E28.39523
G1 X53.806 Y59.637 E28.51714
G1 X55.302 Y59.902 E28.60052
G1 X55.648 Y59.962 E28.61979
G1 X57.144 Y60.227 E28.70317
G1 X57.49 Y60.287 E28.72244
G1 X58.986 Y60.552 E28.80582
G1 X59.332 Y60.612 E28.82509
G1 X60.828 Y60.877 E28.90847
G1 X63.016 Y61.261 E29.03038
G1 X68.016 Y62.144 E29.30902
G1 X70.259 Y62.539 E29.37175
G1 F1500 E24.37175
G0 F1080 X70.738 Y60.552
G0 X75.117 Y61.324
G0 X74.833 Y62.939
G1 F1500 E30.09931
G1 F900 X73.792 Y62.939 E30.15644
G1 X72.564 Y62.939 E30.22383
G1 X43.252 Y62.939 E31.83245
G1 X43.053 Y62.939 E31.84337
G1 X43.053 Y62.74 E31.85044
G1 X43.054 Y57.606 E32.13219
G1 X43.054 Y57.416 E32.14262
G1 X43.068 Y57.337 E32.14702
G1 X43.255 Y57.37 E32.15423
G1 X46.161 Y57.884 E32.31619
G1 X46.507 Y57.944 E32.33546
G1 X48.003 Y58.209 E32.41884
G1 X48.349 Y58.269 E32.43811
G1 X49.845 Y58.534 E32.52149
G1 X50.191 Y58.594 E32.54076
G1 X51.687 Y58.859 E32.62414
G1 X52.034 Y58.919 E32.64346
G1 X53.529 Y59.183 E32.72677
G1 X53.876 Y59.243 E32.7461
G1 X55.371 Y59.508 E32.82942
G1 X55.718 Y59.568 E32.84875
G1 X57.213 Y59.833 E32.93207
G1 X57.56 Y59.893 E32.9514
G1 X59.055 Y60.158 E33.03472
G1 X59.402 Y60.218 E33.05405
G1 X60.897 Y60.483 E33.13737
G1 X61.244 Y60.543 E33.1567
G1 X62.739 Y60.807 E33.24001
G1 X63.086 Y60.867 E33.25934
G1 X64.582 Y61.132 E33.34271
G1 X64.928 Y61.192 E33.36199
G1 X66.424 Y61.457 E33.44536
G1 X66.77 Y61.517 E33.46463
G1 X68.266 Y61.782 E33.54801
G1 X68.612 Y61.842 E33.56728
G1 X70.108 Y62.107 E33.65066
G1 X70.455 Y62.167 E33.66999
G1 X71.95 Y62.431 E33.7533
G1 X72.297 Y62.491 E33.77263
G1 X72.583 Y62.542 E33.78857
G1 X73.792 Y62.756 E33.83777
G1 X74.833 Y62.939 E33.85154
G0 F1080 X77.148 Y62.94
;TYPE:WALL-OUTER
G1 F900 X77.261 Y62.959 E33.85783
G1 X77.333 Y62.973 E33.86185
G1 X77.335 Y63.002 E33.86345
G1 X77.282 Y63.339 E33.88217
G1 X77.261 Y63.339 E33.88316
G1 X77.146 Y63.339 E33.88931
G1 X42.853 Y63.339 E35.77128
G1 X42.653 Y63.339 E35.78226
G1 X42.653 Y63.139 E35.78937
G1 X42.654 Y57.38 E36.10542
G1 X42.734 Y56.929 E36.13055
G1 X42.758 Y56.876 E36.13375
G1 X46.23 Y57.49 E36.32724
G1 X46.577 Y57.55 E36.34657
G1 X48.072 Y57.815 E36.42989
G1 X48.419 Y57.875 E36.44922
G1 X49.914 Y58.14 E36.53254
G1 X50.261 Y58.2 E36.55187
G1 X51.756 Y58.465 E36.63519
G1 X52.104 Y58.525 E36.65457
G1 X53.598 Y58.789 E36.73783
G1 X53.946 Y58.849 E36.75721
G1 X55.44 Y59.114 E36.84048
G1 X55.788 Y59.174 E36.85986
G1 X57.282 Y59.439 E36.94313
G1 X57.63 Y59.499 E36.96251
G1 X59.124 Y59.764 E37.04578
G1 X59.472 Y59.824 E37.06516
G1 X60.966 Y60.089 E37.14843
G1 X61.314 Y60.149 E37.16781
G1 X62.808 Y60.413 E37.25107
G1 X63.156 Y60.473 E37.27045
G1 X64.651 Y60.738 E37.35377
G1 X64.998 Y60.798 E37.3731
G1 X66.493 Y61.063 E37.45642
G1 X66.84 Y61.123 E37.47574
G1 X68.335 Y61.388 E37.55907
G1 X68.682 Y61.448 E37.57839
G1 X70.177 Y61.713 E37.66172
G1 X70.525 Y61.773 E37.6811
G1 X72.019 Y62.037 E37.76436
G1 X72.367 Y62.097 E37.78374
G1 X73.861 Y62.362 E37.86701
G1 X74.209 Y62.422 E37.88639
G1 X75.703 Y62.687 E37.96965
G1 X76.624 Y62.849 E38.02097
G0 F810 X77.148 Y62.94
G0 F1080 X77.261 Y62.959
G0 X77.333 Y62.973
G0 X77.333 Y62.986
G1 F1500 E33.02097
G0 F1080 X77.483 Y61.739
G0 X66.733 Y59.857
G0 X65.804 Y62.149
;TYPE:SKIN
G1 F1500 E38.74854
G1 F900 X43.843 Y62.149 E39.95374
G1 X43.844 Y58.276 E40.16629
G1 X51.55 Y59.637 E40.59573
G1 X53.738 Y60.021 E40.71765
G1 X55.234 Y60.286 E40.80102
G1 X55.58 Y60.346 E40.82029
G1 X57.076 Y60.611 E40.90367
G1 X57.422 Y60.671 E40.92294
G1 X58.918 Y60.936 E41.00632
G1 X59.264 Y60.996 E41.02559
G1 X60.76 Y61.261 E41.10897
G1 X62.948 Y61.645 E41.23088
G1 X65.281 Y62.057 E41.36089
G0 F810 X65.804 Y62.149
G0 F1080 X63.139 Y62.008
G1 F900 X62.912 Y61.781 E41.37851
G0 F1080 X62.574 Y62.008
G1 F900 X62.226 Y61.66 E41.40552
G0 F1080 X62.008 Y62.008
G1 F900 X61.54 Y61.54 E41.44184
G0 F1080 X61.442 Y62.008
G1 F900 X60.853 Y61.419 E41.48756
G0 F1080 X60.876 Y62.008
G1 F900 X60.166 Y61.297 E41.5427
G0 F1080 X59.478 Y61.175
G1 F900 X60.311 Y62.008 E41.60735
G0 F1080 X59.745 Y62.008
G1 F900 X58.793 Y61.055 E41.68127
G0 F1080 X58.105 Y60.934
G1 F900 X59.179 Y62.008 E41.76463
G0 F1080 X58.614 Y62.008
G1 F900 X57.418 Y60.812 E41.85745
G0 F1080 X56.731 Y60.691
G1 F900 X58.048 Y62.008 E41.95966
G0 F1080 X57.482 Y62.008
G1 F900 X56.044 Y60.57 E42.07127
G0 F1080 X55.357 Y60.449
G1 F900 X56.917 Y62.008 E42.1923
G0 F1080 X56.351 Y62.008
G1 F900 X54.671 Y60.328 E42.32269
G0 F1080 X53.984 Y60.206
G1 F900 X55.785 Y62.008 E42.4625
G0 F1080 X55.22 Y62.008
G1 F900 X53.297 Y60.085 E42.61175
G0 F1080 X52.611 Y59.965
G1 F900 X54.654 Y62.008 E42.77031
G0 F1080 X54.088 Y62.008
G1 F900 X51.924 Y59.844 E42.93826
G0 F1080 X51.238 Y59.723
G1 F900 X53.523 Y62.008 E43.1156
G0 F1080 X52.957 Y62.008
G1 F900 X50.551 Y59.602 E43.30233
G0 F1080 X49.864 Y59.481
G1 F900 X52.391 Y62.008 E43.49846
G0 F1080 X51.825 Y62.008
G1 F900 X49.177 Y59.359 E43.70401
G0 F1080 X48.489 Y59.237
G1 F900 X51.26 Y62.008 E43.91907
G0 F1080 X50.694 Y62.008
G1 F900 X47.803 Y59.116 E44.14348
G0 F1080 X47.115 Y58.995
G1 F900 X50.128 Y62.008 E44.37732
G0 F1080 X49.563 Y62.008
G1 F900 X46.428 Y58.873 E44.62063
G0 F1080 X45.742 Y58.752
G1 F900 X48.997 Y62.008 E44.87329
G0 F1080 X48.431 Y62.008
G1 F900 X45.054 Y58.631 E45.13539
G0 F1080 X44.367 Y58.509
G1 F900 X47.866 Y62.008 E45.40695
G0 F1080 X47.3 Y62.008
G1 F900 X43.983 Y58.691 E45.66438
G0 F1080 X43.983 Y59.256
G1 F900 X46.734 Y62.008 E45.87793
G0 F1080 X46.169 Y62.008
G1 F900 X43.983 Y59.822 E46.04759
