;FLAVOR:Marlin
;TIME:6430
;Filament used: 8.91311m
;Layer height: 0.24
;MINX:-42.437
;MINY:-46.993
;MINZ:0.24
;MAXX:52.448
;MAXY:46.993
;MAXZ:30
;TARGET_MACHINE.NAME:Unknown
;Generated with Cura_SteamEngine 5.10.0
M140 S60
M105
M190 S60
M104 S210
M105
M109 S210
;FLAVOR:Marlin
M82 ;absolute extrusion mode
G21
G90
M82
M107 T0
G28
G92 E0
G0 E3 F200
G92 E0 ; reset extrusion distance
M106 S255 ; Enable cooling fan full speed
G1 X-98 Y0 Z0.4 F3000 ; move to arc start
G3 X0 Y-98 I98 Z0.4 E40 F400 ; lay arc stripe 90deg
G92 E0 ; reset extrusion distance
G4 P500 ; wait for 0.5 sec
G0 Z10 E-1 ; Lift 15mm and retract 1mm filament
G4 P2000 ; wait for 5 sec
G0 Z15
M107 ; Disable cooling fan
G1 X0 Y-85 Z4 E0 F3000 ; get off the bed
M82 ;absolute extrusion mode
G92 E0
G92 E0
G1 F1500 E-1
;LAYER_COUNT:125
;LAYER:0
M106 S102
G0 F3600 X-28.951 Y-1.739 Z0.24
;TYPE:SKIRT
G1 F3600 E0.71493
G1 F1200 X-28.951 Y1.741 E0.84137
G1 X-28.594 Y5.206 E0.96794
G1 X-27.863 Y8.705 E1.09782
G1 X-26.81 Y12.013 E1.22396
G1 X-25.422 Y15.177 E1.3495
G1 X-23.695 Y18.228 E1.47688
G1 X-21.638 Y21.123 E1.60592
G1 X-19.383 Y23.688 E1.73002
G1 X-16.758 Y26.118 E1.85999
G1 X-13.978 Y28.204 E1.98628
G1 X-10.969 Y30.01 E2.11379
G1 X-7.817 Y31.487 E2.24027
G1 X-4.48 Y32.645 E2.36861
G1 X-1.102 Y33.443 E2.49473
G1 X2.385 Y33.897 E2.6225
G1 X5.876 Y33.981 E2.74938
G1 X9.336 Y33.717 E2.87547
G1 X12.846 Y33.077 E3.00511
G1 X16.21 Y32.098 E3.13241
G1 X19.382 Y30.805 E3.25687
G1 X22.502 Y29.147 E3.38525
G1 X25.416 Y27.186 E3.51287
G1 X28.067 Y24.976 E3.63828
G1 X30.546 Y22.43 E3.76739
G1 X32.7 Y19.708 E3.89352
G1 X34.59 Y16.737 E4.02146
G1 X36.165 Y13.582 E4.14959
G1 X37.378 Y10.367 E4.27444
G1 X38.283 Y6.929 E4.40362
G1 X38.819 Y3.481 E4.53041
G1 X38.999 Y-0.006 E4.65728
G1 X38.819 Y-3.486 E4.78389
G1 X38.283 Y-6.932 E4.91061
G1 X37.378 Y-10.367 E5.03968
G1 X36.164 Y-13.584 E5.16461
G1 X34.585 Y-16.746 E5.29303
G1 X32.704 Y-19.703 E5.42037
G1 X30.541 Y-22.433 E5.54693
G1 X28.066 Y-24.977 E5.67589
G1 X25.416 Y-27.185 E5.80122
G1 X22.502 Y-29.147 E5.92887
G1 X19.382 Y-30.805 E6.05724
G1 X16.21 Y-32.1 E6.18173
G1 X12.846 Y-33.077 E6.30901
G1 X9.336 Y-33.717 E6.43865
G1 X5.876 Y-33.981 E6.56474
G1 X2.382 Y-33.897 E6.69173
G1 X-1.099 Y-33.446 E6.81927
G1 X-4.48 Y-32.645 E6.94552
G1 X-7.817 Y-31.487 E7.07386
G1 X-10.966 Y-30.012 E7.20021
G1 X-13.978 Y-28.204 E7.32785
G1 X-16.744 Y-26.129 E7.45349
G1 X-19.391 Y-23.678 E7.58457
G1 X-21.636 Y-21.125 E7.7081
G1 X-23.695 Y-18.228 E7.83724
G1 X-25.42 Y-15.18 E7.96449
G1 X-26.81 Y-12.012 E8.0902
G1 X-27.863 Y-8.705 E8.2163
G1 X-28.594 Y-5.206 E8.34618
G1 X-28.951 Y-1.739 E8.47282
G0 F3600 X-29.351 Y-1.761
G1 F1200 X-29.351 Y1.763 E8.60087
G1 X-28.99 Y5.271 E8.729
G1 X-28.252 Y8.8 E8.86
G1 X-27.184 Y12.155 E8.98793
G1 X-25.78 Y15.357 E9.11497
G1 X-24.032 Y18.445 E9.2439
G1 X-21.955 Y21.368 E9.37419
G1 X-19.664 Y23.974 E9.50027
G1 X-17.019 Y26.423 E9.63125
G1 X-14.201 Y28.537 E9.75925
G1 X-11.159 Y30.363 E9.88816
G1 X-7.967 Y31.859 E10.01625
G1 X-4.595 Y33.029 E10.14594
G1 X-1.168 Y33.838 E10.27388
G1 X2.352 Y34.296 E10.40286
G1 X5.887 Y34.382 E10.53134
G1 X9.39 Y34.114 E10.65899
G1 X12.933 Y33.468 E10.78985
G1 X16.338 Y32.477 E10.9187
G1 X19.555 Y31.166 E11.04493
G1 X22.708 Y29.49 E11.17467
G1 X25.655 Y27.507 E11.30374
G1 X28.343 Y25.266 E11.43089
G1 X30.846 Y22.695 E11.56127
G1 X33.024 Y19.943 E11.68879
G1 X34.941 Y16.93 E11.81855
G1 X36.53 Y13.747 E11.94781
G1 X37.761 Y10.484 E12.07453
G1 X38.674 Y7.016 E12.20484
G1 X39.217 Y3.523 E12.33328
G1 X39.399 Y-0.006 E12.46168
G1 X39.217 Y-3.528 E12.58982
G1 X38.674 Y-7.019 E12.71819
G1 X37.761 Y-10.484 E12.84839
G1 X36.529 Y-13.749 E12.97519
G1 X34.936 Y-16.939 E13.10474
G1 X33.028 Y-19.938 E13.2339
G1 X30.841 Y-22.698 E13.36185
G1 X28.342 Y-25.267 E13.49207
G1 X25.655 Y-27.506 E13.61916
G1 X22.708 Y-29.49 E13.74824
G1 X19.555 Y-31.166 E13.87798
G1 X16.338 Y-32.479 E14.00423
G1 X12.933 Y-33.468 E14.13307
G1 X9.39 Y-34.114 E14.26393
G1 X5.887 Y-34.382 E14.39158
G1 X2.35 Y-34.296 E14.52013
G1 X-1.166 Y-33.841 E14.64895
G1 X-4.595 Y-33.029 E14.77699
G1 X-7.967 Y-31.859 E14.90668
G1 X-11.156 Y-30.365 E15.03464
G1 X-14.201 Y-28.537 E15.16368
G1 X-17.005 Y-26.433 E15.29106
G1 X-19.672 Y-23.964 E15.42311
G1 X-21.953 Y-21.37 E15.54862
G1 X-24.032 Y-18.445 E15.67902
G1 X-25.778 Y-15.36 E15.80782
G1 X-27.184 Y-12.154 E15.93502
G1 X-28.252 Y-8.8 E16.06291
G1 X-28.989 Y-5.271 E16.19391
G1 X-29.351 Y-1.761 E16.32212
G0 F3600 X-29.751 Y-1.783
G1 F1200 X-29.751 Y1.785 E16.45176
G1 X-29.385 Y5.336 E16.58147
G1 X-28.641 Y8.895 E16.71358
G1 X-27.558 Y12.297 E16.84331
G1 X-26.138 Y15.537 E16.97184
G1 X-24.369 Y18.662 E17.10232
G1 X-22.272 Y21.613 E17.23386
G1 X-19.945 Y24.26 E17.36192
G1 X-17.28 Y26.727 E17.49387
G1 X-14.424 Y28.87 E17.62361
G1 X-11.349 Y30.716 E17.75393
G1 X-8.117 Y32.231 E17.88362
G1 X-4.71 Y33.413 E18.01466
G1 X-1.234 Y34.233 E18.14442
G1 X2.319 Y34.695 E18.27461
G1 X5.898 Y34.783 E18.40469
G1 X9.444 Y34.511 E18.53391
G1 X13.02 Y33.859 E18.66599
G1 X16.466 Y32.856 E18.7964
G1 X19.728 Y31.527 E18.92438
G1 X22.914 Y29.833 E19.05549
G1 X25.894 Y27.828 E19.186
G1 X28.619 Y25.556 E19.31491
G1 X31.143 Y22.964 E19.44636
G1 X33.353 Y20.172 E19.57575
G1 X35.288 Y17.13 E19.70674
G1 X36.895 Y13.912 E19.83744
G1 X38.144 Y10.601 E19.96602
G1 X39.065 Y7.103 E20.09745
G1 X39.615 Y3.567 E20.22748
G1 X39.799 Y-0.006 E20.35747
G1 X39.615 Y-3.57 E20.48714
G1 X39.065 Y-7.106 E20.61717
G1 X38.144 Y-10.601 E20.7485
G1 X36.894 Y-13.914 E20.87716
G1 X35.283 Y-17.139 E21.00814
G1 X33.357 Y-20.167 E21.13854
G1 X31.141 Y-22.964 E21.2682
G1 X28.618 Y-25.557 E21.39965
G1 X25.894 Y-27.827 E21.52849
G1 X22.914 Y-29.833 E21.65902
G1 X19.728 Y-31.527 E21.79013
G1 X16.466 Y-32.858 E21.91814
G1 X13.02 Y-33.859 E22.04852
G1 X9.444 Y-34.511 E22.1806
G1 X5.898 Y-34.783 E22.30982
G1 X2.318 Y-34.695 E22.43994
G1 X-1.233 Y-34.236 E22.57004
G1 X-4.71 Y-33.413 E22.69987
G1 X-8.117 Y-32.231 E22.8309
G1 X-11.349 Y-30.716 E22.9606
G1 X-14.424 Y-28.87 E23.09091
G1 X-17.266 Y-26.738 E23.22
G1 X-19.953 Y-24.25 E23.35306
G1 X-22.27 Y-21.615 E23.48056
G1 X-24.369 Y-18.662 E23.6122
G1 X-26.136 Y-15.54 E23.74254
G1 X-27.558 Y-12.296 E23.87124
G1 X-28.641 Y-8.895 E24.00093
G1 X-29.385 Y-5.336 E24.13304
G1 X-29.751 Y-1.783 E24.26282
G0 F3600 X-30.151 Y-1.805
G1 F1200 X-30.151 Y1.807 E24.39407
G1 X-29.781 Y5.401 E24.52534
G1 X-29.03 Y8.99 E24.65858
G1 X-27.933 Y12.435 E24.78994
G1 X-26.494 Y15.72 E24.92025
G1 X-24.706 Y18.879 E25.05215
G1 X-22.589 Y21.858 E25.18494
G1 X-20.226 Y24.546 E25.31498
G1 X-17.541 Y27.032 E25.44793
G1 X-14.647 Y29.203 E25.57939
G1 X-11.539 Y31.069 E25.71111
G1 X-8.267 Y32.603 E25.84241
G1 X-4.825 Y33.797 E25.97479
G1 X-1.3 Y34.628 E26.10638
G1 X2.286 Y35.094 E26.23777
G1 X5.909 Y35.184 E26.36945
G1 X9.498 Y34.908 E26.50025
G1 X13.107 Y34.25 E26.63354
G1 X16.594 Y33.235 E26.7655
G1 X19.901 Y31.888 E26.89524
G1 X23.12 Y30.176 E27.02772
G1 X26.133 Y28.149 E27.15967
G1 X28.895 Y25.846 E27.29033
G1 X31.443 Y23.229 E27.42305
G1 X33.677 Y20.407 E27.55383
G1 X35.639 Y17.323 E27.68664
G1 X37.26 Y14.077 E27.81847
G1 X38.527 Y10.718 E27.94891
G1 X39.456 Y7.19 E28.08147
G1 X40.013 Y3.609 E28.21315
G1 X40.199 Y-0.006 E28.34468
G1 X40.013 Y-3.614 E28.47595
G1 X39.456 Y-7.192 E28.60752
G1 X38.527 Y-10.718 E28.74001
G1 X37.259 Y-14.079 E28.87053
G1 X35.634 Y-17.332 E29.00266
G1 X33.681 Y-20.402 E29.13487
G1 X31.441 Y-23.23 E29.26595
G1 X28.894 Y-25.847 E29.39864
G1 X26.133 Y-28.148 E29.52923
G1 X23.12 Y-30.176 E29.6612
G1 X19.901 Y-31.888 E29.79367
G1 X16.594 Y-33.237 E29.92345
G1 X13.107 Y-34.25 E30.05539
G1 X9.498 Y-34.908 E30.18868
G1 X5.909 Y-35.184 E30.31947
G1 X2.286 Y-35.094 E30.45115
G1 X-1.3 Y-34.631 E30.58253
G1 X-4.825 Y-33.797 E30.71415
G1 X-8.267 Y-32.603 E30.84653
G1 X-11.539 Y-31.069 E30.97783
G1 X-14.647 Y-29.203 E31.10955
G1 X-17.527 Y-27.042 E31.24038
G1 X-20.234 Y-24.536 E31.37442
G1 X-22.587 Y-21.86 E31.50389
G1 X-24.706 Y-18.879 E31.63678
G1 X-26.494 Y-15.72 E31.76867
G1 X-27.932 Y-12.438 E31.89887
G1 X-29.03 Y-8.99 E32.03035
G1 X-29.781 Y-5.401 E32.16358
G1 X-30.151 Y-1.805 E32.29493
G0 F3600 X-30.551 Y-1.827
G1 F1200 X-30.551 Y1.829 E32.42777
G1 X-30.176 Y5.466 E32.56063
G1 X-29.419 Y9.085 E32.69497
G1 X-28.308 Y12.573 E32.82798
G1 X-26.85 Y15.903 E32.96006
G1 X-25.043 Y19.096 E33.09337
G1 X-22.904 Y22.105 E33.22751
G1 X-20.511 Y24.827 E33.3592
G1 X-17.796 Y27.341 E33.49365
G1 X-14.87 Y29.536 E33.62656
G1 X-11.729 Y31.422 E33.75968
G1 X-8.417 Y32.975 E33.89259
G1 X-4.94 Y34.181 E34.02631
G1 X-1.367 Y35.023 E34.15969
G1 X2.254 Y35.493 E34.29237
G1 X5.92 Y35.585 E34.42561
G1 X9.553 Y35.305 E34.55801
G1 X13.194 Y34.641 E34.69249
G1 X16.722 Y33.614 E34.826
G1 X20.074 Y32.249 E34.9575
G1 X23.326 Y30.519 E35.09134
G1 X26.372 Y28.47 E35.22473
G1 X29.171 Y26.136 E35.35715
G1 X31.743 Y23.494 E35.49113
G1 X34.006 Y20.636 E35.62358
G1 X35.986 Y17.523 E35.75764
G1 X37.625 Y14.242 E35.8909
G1 X38.91 Y10.835 E36.0232
G1 X39.847 Y7.277 E36.15689
G1 X40.411 Y3.651 E36.29023
G1 X40.599 Y-0.006 E36.42328
G1 X40.411 Y-3.653 E36.55597
G1 X39.847 Y-7.279 E36.6893
G1 X38.91 Y-10.835 E36.82292
G1 X37.624 Y-14.244 E36.95531
G1 X35.985 Y-17.525 E37.08857
G1 X34.005 Y-20.637 E37.22259
G1 X31.741 Y-23.496 E37.3551
G1 X29.17 Y-26.137 E37.48902
G1 X26.372 Y-28.469 E37.62137
G1 X23.326 Y-30.519 E37.75478
G1 X20.074 Y-32.249 E37.88862
G1 X16.722 Y-33.616 E38.02015
G1 X13.194 Y-34.641 E38.15364
G1 X9.553 Y-35.305 E38.28812
G1 X5.92 Y-35.585 E38.42052
G1 X2.254 Y-35.493 E38.55376
G1 X-1.367 Y-35.026 E38.68642
G1 X-4.94 Y-34.181 E38.81983
G1 X-8.417 Y-32.975 E38.95355
G1 X-11.729 Y-31.422 E39.08646
G1 X-14.87 Y-29.536 E39.21958
G1 X-17.788 Y-27.347 E39.35213
G1 X-20.515 Y-24.822 E39.48717
G1 X-22.904 Y-22.105 E39.61862
G1 X-25.043 Y-19.096 E39.75276
G1 X-26.85 Y-15.903 E39.88607
G1 X-28.307 Y-12.576 E40.01804
G1 X-29.419 Y-9.085 E40.15117
G1 X-30.176 Y-5.466 E40.28551
G1 X-30.551 Y-1.827 E40.41843
G0 F3600 X-30.951 Y-1.849
G1 F1200 X-30.951 Y1.851 E40.55287
G1 X-30.571 Y5.531 E40.6873
G1 X-29.808 Y9.18 E40.82275
G1 X-28.683 Y12.711 E40.9574
G1 X-27.206 Y16.086 E41.09126
G1 X-25.38 Y19.313 E41.22599
G1 X-23.221 Y22.35 E41.36138
G1 X-20.796 Y25.108 E41.49482
G1 X-18.051 Y27.65 E41.63076
G1 X-15.093 Y29.869 E41.76512
G1 X-11.919 Y31.775 E41.89964
G1 X-8.567 Y33.346 E42.03415
G1 X-5.055 Y34.565 E42.16923
G1 X-1.434 Y35.418 E42.3044
G1 X2.222 Y35.892 E42.43835
G1 X5.931 Y35.986 E42.57316
G1 X9.608 Y35.702 E42.70716
G1 X13.281 Y35.032 E42.84282
G1 X16.85 Y33.993 E42.97788
G1 X20.247 Y32.61 E43.11115
G1 X23.532 Y30.862 E43.24636
G1 X26.611 Y28.791 E43.38119
G1 X29.447 Y26.426 E43.51536
G1 X32.043 Y23.76 E43.65057
G1 X34.335 Y20.865 E43.78473
G1 X36.333 Y17.723 E43.92003
G1 X37.99 Y14.407 E44.05472
G1 X39.293 Y10.952 E44.18889
G1 X40.238 Y7.364 E44.3237
G1 X40.809 Y3.693 E44.45869
G1 X40.999 Y-0.006 E44.59327
G1 X40.809 Y-3.695 E44.72749
G1 X40.238 Y-7.366 E44.86248
G1 X39.293 Y-10.952 E44.99723
G1 X37.989 Y-14.409 E45.13147
G1 X36.332 Y-17.725 E45.26617
G1 X34.334 Y-20.866 E45.40143
G1 X32.041 Y-23.762 E45.53565
G1 X29.446 Y-26.427 E45.6708
G1 X26.611 Y-28.79 E45.8049
G1 X23.532 Y-30.862 E45.93975
G1 X20.247 Y-32.61 E46.07496
G1 X16.85 Y-33.995 E46.20825
G1 X13.281 Y-35.032 E46.34329
G1 X9.608 Y-35.702 E46.47896
G1 X5.931 Y-35.986 E46.61296
G1 X2.222 Y-35.892 E46.74777
G1 X-1.434 Y-35.421 E46.88171
G1 X-5.055 Y-34.565 E47.0169
G1 X-8.567 Y-33.346 E47.15198
G1 X-11.919 Y-31.775 E47.28649
G1 X-15.093 Y-29.869 E47.42101
G1 X-18.049 Y-27.651 E47.55529
G1 X-20.796 Y-25.108 E47.6913
G1 X-23.221 Y-22.35 E47.82474
G1 X-25.38 Y-19.313 E47.96014
G1 X-27.206 Y-16.086 E48.09486
G1 X-28.682 Y-12.714 E48.2286
G1 X-29.808 Y-9.18 E48.36337
G1 X-30.571 Y-5.531 E48.49883
G1 X-30.951 Y-1.849 E48.63332
G0 F3600 X-31.751 Y-1.893
G1 F1200 X-31.361 Y-5.661 E48.77097
G1 X-30.586 Y-9.37 E48.90864
G1 X-29.432 Y-12.99 E49.0467
G1 X-27.918 Y-16.452 E49.18399
G1 X-26.054 Y-19.747 E49.32154
G1 X-23.855 Y-22.84 E49.45944
G1 X-21.358 Y-25.68 E49.59684
G1 X-18.571 Y-28.26 E49.73484
G1 X-15.539 Y-30.535 E49.87257
G1 X-12.299 Y-32.481 E50.0099
G1 X-8.867 Y-34.088 E50.14759
G1 X-5.285 Y-35.333 E50.28538
G1 X-1.568 Y-36.211 E50.42416
G1 X2.158 Y-36.69 E50.56065
G1 X5.953 Y-36.788 E50.69859
G1 X9.718 Y-36.496 E50.8358
G1 X13.455 Y-35.814 E50.97383
G1 X17.106 Y-34.753 E51.11198
G1 X20.593 Y-33.332 E51.24879
G1 X23.944 Y-31.548 E51.38673
G1 X27.089 Y-29.433 E51.52444
G1 X29.998 Y-27.007 E51.66207
G1 X32.641 Y-24.294 E51.7997
G1 X34.992 Y-21.324 E51.93733
G1 X37.026 Y-18.125 E52.07507
G1 X38.719 Y-14.739 E52.21262
G1 X40.059 Y-11.186 E52.3506
G1 X41.02 Y-7.538 E52.48767
G1 X41.605 Y-3.783 E52.62575
G1 X41.799 Y-0.001 E52.76335
G1 X41.605 Y3.781 E52.90095
G1 X41.02 Y7.536 E53.03904
G1 X40.059 Y11.186 E53.17618
G1 X38.72 Y14.737 E53.31407
G1 X37.027 Y18.123 E53.45163
G1 X34.993 Y21.323 E53.5894
G1 X32.643 Y24.292 E53.72698
G1 X29.999 Y27.006 E53.86465
G1 X27.089 Y29.433 E54.00234
G1 X23.944 Y31.548 E54.14005
G1 X20.593 Y33.332 E54.27798
G1 X17.106 Y34.751 E54.41477
G1 X13.455 Y35.814 E54.55294
G1 X9.718 Y36.496 E54.69097
G1 X5.953 Y36.788 E54.82818
G1 X2.158 Y36.69 E54.96612
G1 X-1.568 Y36.208 E55.10263
G1 X-5.285 Y35.333 E55.24138
G1 X-8.867 Y34.088 E55.37917
G1 X-12.299 Y32.481 E55.51686
G1 X-15.539 Y30.535 E55.65419
G1 X-18.571 Y28.26 E55.79192
G1 X-21.358 Y25.68 E55.92992
G1 X-23.855 Y22.84 E56.06732
G1 X-26.054 Y19.747 E56.20522
G1 X-27.918 Y16.452 E56.34277
G1 X-29.433 Y12.987 E56.48018
G1 X-30.586 Y9.37 E56.61812
G1 X-31.361 Y5.661 E56.75579
G1 X-31.751 Y1.895 E56.89336
G1 X-31.751 Y-1.893 E57.031
G0 F3600 X-31.351 Y-1.871
G1 F1200 X-31.351 Y1.873 E57.16704
G1 X-30.966 Y5.596 E57.30304
G1 X-30.197 Y9.275 E57.4396
G1 X-29.058 Y12.849 E57.5759
G1 X-27.562 Y16.269 E57.71153
G1 X-25.717 Y19.53 E57.84767
G1 X-23.538 Y22.595 E57.98431
G1 X-21.077 Y25.394 E58.11974
G1 X-18.312 Y27.954 E58.25665
G1 X-15.316 Y30.202 E58.39275
G1 X-12.109 Y32.128 E58.52867
G1 X-8.717 Y33.717 E58.66477
G1 X-5.17 Y34.949 E58.80121
G1 X-1.501 Y35.813 E58.93817
G1 X2.19 Y36.291 E59.0734
G1 X5.942 Y36.387 E59.20977
G1 X9.663 Y36.099 E59.34538
G1 X13.368 Y35.423 E59.48222
G1 X16.978 Y34.372 E59.61884
G1 X20.42 Y32.971 E59.75387
G1 X23.738 Y31.205 E59.89044
G1 X26.85 Y29.112 E60.02671
G1 X29.723 Y26.716 E60.16264
G1 X32.343 Y24.026 E60.29908
G1 X34.664 Y21.094 E60.43495
G1 X36.68 Y17.923 E60.57148
G1 X38.355 Y14.572 E60.70761
G1 X39.676 Y11.069 E60.84364
G1 X40.629 Y7.45 E60.97962
G1 X41.207 Y3.737 E61.11615
G1 X41.399 Y-0.006 E61.25233
G1 X41.207 Y-3.739 E61.38815
G1 X40.629 Y-7.452 E61.52469
G1 X39.676 Y-11.069 E61.6606
G1 X38.354 Y-14.574 E61.79671
G1 X36.679 Y-17.925 E61.93283
G1 X34.663 Y-21.095 E62.06933
G1 X32.341 Y-24.028 E62.20526
G1 X29.722 Y-26.717 E62.34165
G1 X26.85 Y-29.111 E62.4775
G1 X23.738 Y-31.205 E62.61379
G1 X20.42 Y-32.971 E62.75036
G1 X16.978 Y-34.374 E62.88542
G1 X13.368 Y-35.423 E63.02202
G1 X9.663 Y-36.099 E63.15886
G1 X5.942 Y-36.387 E63.29447
G1 X2.19 Y-36.291 E63.43084
G1 X-1.501 Y-35.816 E63.56606
G1 X-5.17 Y-34.949 E63.70304
G1 X-8.717 Y-33.717 E63.83948
G1 X-12.109 Y-32.128 E63.97558
G1 X-15.316 Y-30.202 E64.1115
G1 X-18.31 Y-27.955 E64.24752
G1 X-21.077 Y-25.394 E64.38451
G1 X-23.538 Y-22.595 E64.51994
G1 X-25.717 Y-19.53 E64.65658
G1 X-27.562 Y-16.269 E64.79272
G1 X-29.057 Y-12.852 E64.92824
G1 X-30.197 Y-9.275 E65.06465
G1 X-30.966 Y-5.596 E65.20121
G1 X-31.351 Y-1.871 E65.33728
G1 F1500 E64.33728
G0 F3600 X-41.409 Y-5.01
G1 F3600 E66.05221
G1 F1200 X-41.465 Y-5.179 E66.05868
