;FLAVOR:Marlin
;TIME:1286
;Filament used: 1.57185m
;Layer height: 0.24
;MINX:-19.9
;MINY:-17.75
;MINZ:0.24
;MAXX:29.9
;MAXY:17.75
;MAXZ:16.08
;TARGET_MACHINE.NAME:Unknown
;Generated with Cura_SteamEngine 5.10.0
M140 S60
M105
M190 S60
M104 S210
M105
M109 S210
;FLAVOR:Marlin
M82 ;absolute extrusion mode
G21
G90
M82
M107 T0
G28
G92 E0
G0 E3 F200
G92 E0 ; reset extrusion distance
M106 S255 ; Enable cooling fan full speed
G1 X-98 Y0 Z0.4 F3000 ; move to arc start
G3 X0 Y-98 I98 Z0.4 E40 F400 ; lay arc stripe 90deg
G92 E0 ; reset extrusion distance
G4 P500 ; wait for 0.5 sec
G0 Z10 E-1 ; Lift 15mm and retract 1mm filament
G4 P2000 ; wait for 5 sec
G0 Z15
M107 ; Disable cooling fan
G1 X0 Y-85 Z4 E0 F3000 ; get off the bed
M82 ;absolute extrusion mode
G92 E0
G92 E0
G1 F1500 E-1
;LAYER_COUNT:67
;LAYER:0
M106 S102
G0 F3600 X-8.3 Y10.75 Z0.24
;TYPE:SKIRT
G1 F3600 E0.71493
G1 F1200 X16.9 Y10.75 E1.63057
G1 X16.9 Y-10.75 E2.41177
G1 X-8.3 Y-10.75 E3.32741
G1 X-8.3 Y10.75 E4.10862
G0 F3600 X-8.7 Y11.15
G1 F1200 X17.3 Y11.15 E5.05333
G1 X17.3 Y-11.15 E5.8636
G1 X-8.7 Y-11.15 E6.80831
G1 X-8.7 Y11.15 E7.61858
G0 F3600 X-9.1 Y11.55
G1 F1200 X17.7 Y11.55 E8.59236
G1 X17.7 Y-11.55 E9.4317
G1 X-9.1 Y-11.55 E10.40547
G1 X-9.1 Y11.55 E11.24481
G0 F3600 X-9.5 Y11.95
G1 F1200 X18.1 Y11.95 E12.24766
G1 X18.1 Y-11.95 E13.11607
G1 X-9.5 Y-11.95 E14.11891
G1 X-9.5 Y11.95 E14.98732
G0 F3600 X-9.9 Y12.35
G1 F1200 X18.5 Y12.35 E16.01923
G1 X18.5 Y-12.35 E16.91671
G1 X-9.9 Y-12.35 E17.94862
G1 X-9.9 Y12.35 E18.8461
G0 F3600 X-10.3 Y12.75
G1 F1200 X-10.3 Y-12.75 E19.77264
G1 X18.9 Y-12.75 E20.83362
G1 X18.9 Y12.75 E21.76017
G1 X-10.3 Y12.75 E22.82115
G0 F3600 X-11.1 Y13.55
G1 F1200 X19.7 Y13.55 E23.94027
G1 X19.7 Y-13.55 E24.92495
G1 X-11.1 Y-13.55 E26.04407
G1 X-11.1 Y13.55 E27.02874
G0 F3600 X-10.7 Y13.15
G1 F1200 X19.3 Y13.15 E28.11879
G1 X19.3 Y-13.15 E29.07441
G1 X-10.7 Y-13.15 E30.16446
G1 X-10.7 Y13.15 E31.12007
G1 F1500 E30.12007
G0 F3600 X-16.363 Y17.75
G1 F3600 E31.83499
G1 F1200 X26.134 Y17.75 E33.37912
G1 X27.089 Y17.563 E33.41448
G1 X27.86 Y17.223 E33.4451
G1 X28.701 Y16.618 E33.48274
G1 X28.973 Y16.351 E33.49659
G1 X29.611 Y15.31 E33.54095
G1 X29.9 Y14.143 E33.58464
G1 X29.9 Y-13.966 E34.60598
G1 X29.743 Y-14.929 E34.64143
G1 X29.246 Y-15.956 E34.68289
G1 X28.674 Y-16.623 E34.71481
G1 X27.738 Y-17.337 E34.75759
G1 X27.497 Y-17.445 E34.76718
G1 X26.363 Y-17.75 E34.80985
G1 X-16.134 Y-17.75 E36.35398
G1 X-17.079 Y-17.565 E36.38897
G1 X-17.809 Y-17.255 E36.41779
G1 X-18.659 Y-16.65 E36.4557
G1 X-19.428 Y-15.706 E36.49994
G1 X-19.9 Y-14.338 E36.55252
G1 X-19.9 Y13.966 E37.58095
G1 X-19.743 Y14.929 E37.6164
G1 X-19.246 Y15.956 E37.65785
G1 X-18.674 Y16.623 E37.68978
G1 X-17.738 Y17.337 E37.73256
G1 X-17.497 Y17.445 E37.74215
G1 X-16.363 Y17.75 E37.78482
G0 F3600 X-16.311 Y17.35
G1 F1200 X26.093 Y17.35 E39.32557
G1 X26.971 Y17.178 E39.35808
G1 X27.658 Y16.875 E39.38536
G1 X28.467 Y16.293 E39.42157
G1 X28.658 Y16.099 E39.43146
G1 X29.238 Y15.153 E39.47178
G1 X29.5 Y14.095 E39.51139
G1 X29.5 Y-13.966 E40.53098
G1 X29.358 Y-14.807 E40.56197
G1 X28.909 Y-15.735 E40.59943
G1 X28.399 Y-16.329 E40.62788
G1 X27.531 Y-16.991 E40.66754
G1 X27.393 Y-17.059 E40.67313
G1 X26.311 Y-17.35 E40.71384
G1 X-16.093 Y-17.35 E42.25459
G1 X-16.963 Y-17.18 E42.2868
G1 X-17.612 Y-16.904 E42.31243
G1 X-18.383 Y-16.355 E42.34682
G1 X-19.073 Y-15.508 E42.38652
G1 X-19.5 Y-14.271 E42.43406
G1 X-19.5 Y13.966 E43.46006
G1 X-19.358 Y14.807 E43.49105
G1 X-18.909 Y15.735 E43.5285
G1 X-18.399 Y16.329 E43.55695
G1 X-17.531 Y16.991 E43.59662
G1 X-17.393 Y17.059 E43.60221
G1 X-16.311 Y17.35 E43.64292
G0 F3600 X-16.259 Y16.95
G1 F1200 X26.052 Y16.95 E45.18029
G1 X26.853 Y16.793 E45.20995
G1 X27.456 Y16.527 E45.23389
G1 X28.233 Y15.968 E45.26867
G1 X28.34 Y15.852 E45.27441
G1 X28.865 Y14.996 E45.31089
G1 X29.1 Y14.047 E45.34642
G1 X29.1 Y-13.966 E46.36427
G1 X28.973 Y-14.685 E46.3908
G1 X28.572 Y-15.514 E46.42426
G1 X28.122 Y-16.038 E46.44936
G1 X27.289 Y-16.673 E46.48742
G1 X26.259 Y-16.95 E46.52617
G1 X-16.052 Y-16.95 E48.06354
G1 X-16.849 Y-16.794 E48.09305
G1 X-17.414 Y-16.554 E48.11535
G1 X-18.107 Y-16.06 E48.14628
G1 X-18.719 Y-15.309 E48.18148
G1 X-19.1 Y-14.205 E48.22391
G1 X-19.1 Y13.966 E49.24751
G1 X-18.973 Y14.685 E49.27404
G1 X-18.572 Y15.514 E49.3075
G1 X-18.122 Y16.038 E49.33259
G1 X-17.289 Y16.673 E49.37065
G1 X-16.259 Y16.95 E49.40941
G0 F3600 X-16.207 Y16.55
G1 F1200 X26.011 Y16.55 E50.9434
G1 X26.735 Y16.408 E50.97021
G1 X27.254 Y16.179 E50.99082
G1 X27.999 Y15.643 E51.02417
G1 X28.492 Y14.839 E51.05843
G1 X28.7 Y13.999 E51.08988
G1 X28.7 Y-13.966 E52.10599
G1 X28.589 Y-14.56 E52.12794
G1 X28.235 Y-15.292 E52.15749
G1 X27.845 Y-15.747 E52.17926
G1 X27.11 Y-16.307 E52.21284
G1 X26.207 Y-16.55 E52.24681
G1 X-16.011 Y-16.55 E53.78081
G1 X-16.735 Y-16.408 E53.80761
G1 X-17.217 Y-16.204 E53.82663
G1 X-17.83 Y-15.766 E53.85401
G1 X-18.365 Y-15.11 E53.88476
G1 X-18.7 Y-14.139 E53.92208
G1 X-18.7 Y13.966 E54.94328
G1 X-18.589 Y14.56 E54.96524
G1 X-18.235 Y15.292 E54.99478
G1 X-17.845 Y15.747 E55.01656
G1 X-17.11 Y16.307 E55.05013
G1 X-16.207 Y16.55 E55.08411
G0 F3600 X-16.155 Y16.15
G1 F1200 X25.97 Y16.15 E56.61472
G1 X26.658 Y16.015 E56.6402
G1 X27.02 Y15.854 E56.65459
G1 X27.701 Y15.364 E56.68508
G1 X28.119 Y14.682 E56.71414
G1 X28.3 Y13.951 E56.7415
G1 X28.3 Y-13.966 E57.75587
G1 X28.229 Y-14.386 E57.77134
G1 X27.898 Y-15.071 E57.79899
G1 X27.568 Y-15.456 E57.81741
G1 X26.931 Y-15.941 E57.8465
G1 X26.155 Y-16.15 E57.8757
G1 X-15.97 Y-16.15 E59.40632
G1 X-16.658 Y-16.015 E59.43179
G1 X-17.02 Y-15.854 E59.44619
G1 X-17.552 Y-15.474 E59.46994
G1 X-18.01 Y-14.912 E59.49628
G1 X-18.3 Y-14.072 E59.52857
G1 X-18.3 Y13.966 E60.54733
G1 X-18.229 Y14.386 E60.56281
G1 X-17.898 Y15.071 E60.59045
G1 X-17.568 Y15.456 E60.60888
G1 X-16.931 Y15.941 E60.63797
G1 X-16.155 Y16.15 E60.66717
G0 F3600 X-16.103 Y15.75
G1 F1200 X-16.752 Y15.575 E60.69159
G1 X-17.326 Y15.138 E60.71781
G1 X-17.538 Y14.897 E60.72947
G1 X-17.844 Y14.263 E60.75505
G1 X-17.9 Y13.966 E60.76603
G1 X-17.9 Y-14.006 E61.78239
G1 X-17.656 Y-14.713 E61.80957
G1 X-17.275 Y-15.18 E61.83147
G1 X-16.845 Y-15.494 E61.85081
G1 X-16.581 Y-15.622 E61.86148
G1 X-15.929 Y-15.75 E61.88562
G1 X26.103 Y-15.75 E63.41285
G1 X26.752 Y-15.575 E63.43728
G1 X27.326 Y-15.138 E63.46349
G1 X27.538 Y-14.897 E63.47515
G1 X27.844 Y-14.263 E63.50073
G1 X27.9 Y-13.966 E63.51171
G1 X27.9 Y13.903 E64.52433
G1 X27.746 Y14.525 E64.54761
G1 X27.402 Y15.086 E64.57153
G1 X26.845 Y15.494 E64.59661
G1 X26.581 Y15.622 E64.60727
G1 X25.929 Y15.75 E64.63142
G1 X-16.103 Y15.75 E66.15865
G0 F3600 X-16.051 Y14.95
G1 F1200 X-16.394 Y14.843 E66.1717
G1 X-16.842 Y14.502 E66.19216
G1 X-17.1 Y13.966 E66.21378
G1 X-17.1 Y-13.939 E67.2277
G1 X-16.971 Y-14.289 E67.24126
G1 X-16.803 Y-14.534 E67.25205
G1 X-16.373 Y-14.848 E67.2714
G1 X-15.888 Y-14.95 E67.28941
G1 X26.051 Y-14.95 E68.81326
G1 X26.394 Y-14.843 E68.82632
G1 X26.842 Y-14.502 E68.84677
G1 X27.1 Y-13.966 E68.86839
G1 X27.1 Y13.903 E69.88101
G1 X26.991 Y14.248 E69.89415
G1 X26.804 Y14.533 E69.90654
G1 X26.373 Y14.848 E69.92594
G1 X25.888 Y14.95 E69.94395
G1 X-16.051 Y14.95 E71.4678
G0 F3600 X-16.051 Y15.35
G1 F1200 X25.888 Y15.35 E72.99165
G1 X26.455 Y15.239 E73.01265
G1 X26.609 Y15.171 E73.01876
G1 X27.102 Y14.81 E73.04097
G1 X27.372 Y14.369 E73.05975
G1 X27.5 Y13.903 E73.07731
G1 X27.5 Y-13.966 E74.08993
G1 X27.46 Y-14.139 E74.09639
G1 X27.202 Y-14.675 E74.118
G1 X27.084 Y-14.82 E74.12479
G1 X26.573 Y-15.209 E74.14813
G1 X26.051 Y-15.35 E74.16777
G1 X-15.888 Y-15.35 E75.69163
G1 X-16.455 Y-15.239 E75.71262
G1 X-16.609 Y-15.171 E75.71874
G1 X-17.039 Y-14.857 E75.73808
G1 X-17.301 Y-14.515 E75.75374
G1 X-17.5 Y-13.939 E75.77588
G1 X-17.5 Y13.966 E76.78981
G1 X-17.46 Y14.139 E76.79626
G1 X-17.202 Y14.675 E76.81788
G1 X-17.084 Y14.82 E76.82467
G1 X-16.573 Y15.209 E76.848
G1 X-16.051 Y15.35 E76.86765
G1 F1500 E75.86765
;MESH:3b_AI-on-the-edge_Bottom.stl
G0 F3600 X-16.339 Y14.096
G0 X-15.78 Y-13.748
;TYPE:WALL-INNER
G1 F3600 E77.58258
G1 F1800 X-15.9 Y-13.716 E77.58709
G1 X-15.9 Y13.687 E78.58278
G1 X-15.86 Y13.748 E78.58543
G1 X-12.3 Y13.748 E78.71478
G1 X-12.3 Y-13.748 E79.71385
G1 X-15.039 Y-13.748 E79.81337
G0 F1620 X-15.78 Y-13.748
G0 F3600 X-15.823 Y-14.148
G1 F1800 X-16.065 Y-14.095 E79.82237
G1 X-16.225 Y-13.969 E79.82977
G1 X-16.3 Y-13.801 E79.83646
G1 X-16.3 Y13.778 E80.83854
G1 X-16.198 Y13.989 E80.84705
G1 X-15.949 Y14.148 E80.85779
G1 X-11.5 Y14.148 E81.01944
G1 X-11.9 Y13.748 E81.04
G1 X-11.9 Y-13.748 E82.03907
G1 X-11.563 Y-14.149 E82.0581
G1 X-15.082 Y-14.148 E82.18596
G0 F1620 X-15.823 Y-14.148
G0 F3600 X-15.791 Y-13.841
G0 X-11.738 Y14.188
G0 X20.338 Y14.188
G0 X20.9 Y13.748
G1 F1800 X25.78 Y13.748 E82.36328
G1 X25.9 Y13.716 E82.36779
G1 X25.9 Y-13.687 E83.36348
G1 X25.86 Y-13.748 E83.36613
G1 X20.9 Y-13.748 E83.54635
G1 X20.9 Y13.007 E84.51849
G0 F1620 X20.9 Y13.748
G0 F3600 X20.163 Y14.149
G1 F1800 X25.823 Y14.148 E84.72415
G1 X26.065 Y14.095 E84.73315
G1 X26.225 Y13.969 E84.74055
G1 X26.3 Y13.801 E84.74723
G1 X26.3 Y-13.778 E85.74932
G1 X26.198 Y-13.989 E85.75783
G1 X25.949 Y-14.148 E85.76857
G1 X20.1 Y-14.148 E85.98109
G1 X20.5 Y-13.748 E86.00165
G1 X20.5 Y13.531 E86.99283
G0 F1620 X20.5 Y13.748
G0 X20.163 Y14.149
G0 F3600 X20.78 Y13.87
G0 X-15.967 Y14.242
G0 X-16.015 Y14.548
;TYPE:WALL-OUTER
G1 F1800 X-12.3 Y14.548 E87.12781
G1 F1600 X-11.3 Y14.498 E87.16874
G1 F1434.3 X19.987 Y14.496 E88.59544
G1 F1592.9 X20.9 Y14.548 E88.63299
G1 F1800 X25.866 Y14.548 E88.81343
G1 X26.24 Y14.466 E88.82734
G1 X26.528 Y14.24 E88.84064
G1 X26.7 Y13.869 E88.8555
G1 X26.7 Y-13.87 E89.8634
G1 X26.519 Y-14.244 E89.8785
G1 X26.234 Y-14.473 E89.89178
G1 X26.015 Y-14.548 E89.90019
G1 X20.9 Y-14.548 E90.08604
G1 F1600 X19.9 Y-14.498 E90.12697
G1 F1434.3 X-11.387 Y-14.496 E91.55367
G1 F1592.9 X-12.3 Y-14.548 E91.59122
G1 F1800 X-15.866 Y-14.548 E91.72079
G1 X-16.24 Y-14.466 E91.7347
G1 X-16.528 Y-14.24 E91.74801
G1 X-16.7 Y-13.869 E91.76286
G1 X-16.7 Y13.87 E92.77076
G1 X-16.582 Y14.114 E92.78061
G0 F1620 X-16.519 Y14.244
G0 X-16.234 Y14.473
G0 X-16.015 Y14.548
G0 F3600 X-15.815 Y14.548
G0 X-15.815 Y14.24
G0 X-11.81 Y-13.748
G0 X-11.5 Y-13.748
G1 F1592.9 X-11.344 Y-13.997 E92.79267
G1 F1434.3 X19.9 Y-13.998 E94.21741
G1 F1600 X20.1 Y-13.748 E94.2305
G1 F1800 X20.1 Y13.748 E95.22957
G1 F1592.9 X19.944 Y13.997 E95.24163
G1 F1434.3 X-11.3 Y13.998 E96.66637
G1 F1600 X-11.5 Y13.748 E96.67946
G1 F1800 X-11.5 Y-13.007 E97.6516
G0 F1620 X-11.5 Y-13.748
G0 F3600 X-11.394 Y-13.917
G0 X-11.394 Y-14.26
G0 X-15.52 Y13.368
;TYPE:SKIN
G1 F1500 X-15.52 Y-13.368 E98.62306
G1 X-12.68 Y-13.368 E98.72625
G1 X-12.68 Y13.368 E99.6977
G1 X-15.52 Y13.368 E99.80089
G0 F3600 X-15.117 Y13.168
G1 F1500 X-15.32 Y12.964 E99.81135
G0 F3600 X-15.32 Y12.398
G1 F1500 X-14.551 Y13.168 E99.85089
G0 F3600 X-13.985 Y13.168
G1 F1500 X-15.32 Y11.833 E99.91949
G0 F3600 X-15.32 Y11.267
G1 F1500 X-13.419 Y13.168 E100.01717
G0 F3600 X-12.88 Y13.142
G1 F1500 X-15.32 Y10.701 E100.14258
G0 F3600 X-15.32 Y10.136
G1 F1500 X-12.88 Y12.576 E100.26796
G0 F3600 X-12.88 Y12.01
G1 F1500 X-15.32 Y9.57 E100.39334
G0 F3600 X-15.32 Y9.004
G1 F1500 X-12.88 Y11.445 E100.51875
G0 F3600 X-12.88 Y10.879
G1 F1500 X-15.32 Y8.439 E100.64413
G0 F3600 X-15.32 Y7.873
G1 F1500 X-12.88 Y10.313 E100.76951
G0 F3600 X-12.88 Y9.747
G1 F1500 X-15.32 Y7.307 E100.89489
G0 F3600 X-15.32 Y6.742
G1 F1500 X-12.88 Y9.182 E101.02027
G0 F3600 X-12.88 Y8.616
G1 F1500 X-15.32 Y6.176 E101.14565
G0 F3600 X-15.32 Y5.61
G1 F1500 X-12.88 Y8.05 E101.27103
G0 F3600 X-12.88 Y7.485
G1 F1500 X-15.32 Y5.044 E101.39644
G0 F3600 X-15.32 Y4.479
G1 F1500 X-12.88 Y6.919 E101.52182
G0 F3600 X-12.88 Y6.353
G1 F1500 X-15.32 Y3.913 E101.6472
G0 F3600 X-15.32 Y3.347
G1 F1500 X-12.88 Y5.788 E101.7726
G0 F3600 X-12.88 Y5.222
G1 F1500 X-15.32 Y2.782 E101.89799
G0 F3600 X-15.32 Y2.216
G1 F1500 X-12.88 Y4.656 E102.02337
G0 F3600 X-12.88 Y4.091
G1 F1500 X-15.32 Y1.65 E102.14877
G0 F3600 X-15.32 Y1.085
G1 F1500 X-12.88 Y3.525 E102.27415
G0 F3600 X-12.88 Y2.959
G1 F1500 X-15.32 Y0.519 E102.39953
G0 F3600 X-15.32 Y-0.047
G1 F1500 X-12.88 Y2.394 E102.52494
G0 F3600 X-12.88 Y1.828
G1 F1500 X-15.32 Y-.612 E102.65032
G0 F3600 X-15.32 Y-1.178
G1 F1500 X-12.88 Y1.262 E102.7757
G0 F3600 X-12.88 Y0.697
G1 F1500 X-15.32 Y-1.744 E102.90111
G0 F3600 X-15.32 Y-2.309
G1 F1500 X-12.88 Y0.131 E103.02649
G0 F3600 X-12.88 Y-.435
G1 F1500 X-15.32 Y-2.875 E103.15187
G0 F3600 X-15.32 Y-3.441
G1 F1500 X-12.88 Y-1.001 E103.27725
G0 F3600 X-12.88 Y-1.566
G1 F1500 X-15.32 Y-4.006 E103.40263
G0 F3600 X-15.32 Y-4.572
G1 F1500 X-12.88 Y-2.132 E103.52801
G0 F3600 X-12.88 Y-2.698
G1 F1500 X-15.32 Y-5.138 E103.65339
G0 F3600 X-15.32 Y-5.704
G1 F1500 X-12.88 Y-3.263 E103.7788
G0 F3600 X-12.88 Y-3.829
G1 F1500 X-15.32 Y-6.269 E103.90418
G0 F3600 X-15.32 Y-6.835
G1 F1500 X-12.88 Y-4.395 E104.02956
G0 F3600 X-12.88 Y-4.96
G1 F1500 X-15.32 Y-7.401 E104.15496
G0 F3600 X-15.32 Y-7.966
G1 F1500 X-12.88 Y-5.526 E104.28034
G0 F3600 X-12.88 Y-6.092
G1 F1500 X-15.32 Y-8.532 E104.40572
G0 F3600 X-15.32 Y-9.098
G1 F1500 X-12.88 Y-6.657 E104.53113
G0 F3600 X-12.88 Y-7.223
G1 F1500 X-15.32 Y-9.663 E104.65651
G0 F3600 X-15.32 Y-10.229
G1 F1500 X-12.88 Y-7.789 E104.78189
G0 F3600 X-12.88 Y-8.354
G1 F1500 X-15.32 Y-10.795 E104.9073
G0 F3600 X-15.32 Y-11.36
G1 F1500 X-12.88 Y-8.92 E105.03268
G0 F3600 X-12.88 Y-9.486
G1 F1500 X-15.32 Y-11.926 E105.15806
G0 F3600 X-15.32 Y-12.492
G1 F1500 X-12.88 Y-10.052 E105.28344
G0 F3600 X-12.88 Y-10.617
G1 F1500 X-15.32 Y-13.057 E105.40882
G0 F3600 X-14.865 Y-13.168
G1 F1500 X-12.88 Y-11.183 E105.51082
G0 F3600 X-12.88 Y-11.749
G1 F1500 X-14.299 Y-13.168 E105.58374
G0 F3600 X-13.733 Y-13.168
G1 F1500 X-12.88 Y-12.314 E105.62759
G0 F3600 X-12.88 Y-12.88
G1 F1500 X-13.168 Y-13.168 E105.64239
G0 F3600 X-11.738 Y-14.188
G0 X20.338 Y-14.188
G0 X21.28 Y-13.368
G1 F1500 X25.52 Y-13.368 E105.79645
G1 X25.52 Y13.368 E106.76791
G1 X21.28 Y13.368 E106.92197
G1 X21.28 Y-13.368 E107.89342
G0 F3600 X24.733 Y-13.168
G1 F1500 X25.32 Y-12.581 E107.92358
G0 F3600 X25.32 Y-12.015
G1 F1500 X24.167 Y-13.168 E107.98283
G0 F3600 X23.602 Y-13.168
G1 F1500 X25.32 Y-11.449 E108.07114
G0 F3600 X25.32 Y-10.884
G1 F1500 X23.036 Y-13.168 E108.1885
G0 F3600 X22.47 Y-13.168
G1 F1500 X25.32 Y-10.318 E108.33495
G0 F3600 X25.32 Y-9.752
G1 F1500 X21.905 Y-13.168 E108.51046
G0 F3600 X21.48 Y-13.027
G1 F1500 X25.32 Y-9.187 E108.70778
G0 F3600 X25.32 Y-8.621
G1 F1500 X21.48 Y-12.461 E108.9051
G0 F3600 X21.48 Y-11.896
G1 F1500 X25.32 Y-8.055 E109.10244
G0 F3600 X25.32 Y-7.49
G1 F1500 X21.48 Y-11.33 E109.29976
G0 F3600 X21.48 Y-10.764
G1 F1500 X25.32 Y-6.924 E109.49708
G0 F3600 X25.32 Y-6.358
G1 F1500 X21.48 Y-10.199 E109.69443
G0 F3600 X21.48 Y-9.633
G1 F1500 X25.32 Y-5.793 E109.89175
G0 F3600 X25.32 Y-5.227
G1 F1500 X21.48 Y-9.067 E110.08907
G0 F3600 X21.48 Y-8.502
G1 F1500 X25.32 Y-4.661 E110.28642
G0 F3600 X25.32 Y-4.096
G1 F1500 X21.48 Y-7.936 E110.48374
G0 F3600 X21.48 Y-7.37
G1 F1500 X25.32 Y-3.53 E110.68106
G0 F3600 X25.32 Y-2.964
G1 F1500 X21.48 Y-6.804 E110.87838
G0 F3600 X21.48 Y-6.239
G1 F1500 X25.32 Y-2.399 E111.0757
G0 F3600 X25.32 Y-1.833
G1 F1500 X21.48 Y-5.673 E111.27302
G0 F3600 X21.48 Y-5.107
G1 F1500 X25.32 Y-1.267 E111.47034
G0 F3600 X25.32 Y-.701
G1 F1500 X21.48 Y-4.542 E111.66768
G0 F3600 X21.48 Y-3.976
G1 F1500 X25.32 Y-.136 E111.865
G0 F3600 X25.32 Y0.43
G1 F1500 X21.48 Y-3.41 E112.06232
G0 F3600 X21.48 Y-2.845
G1 F1500 X25.32 Y0.996 E112.25967
G0 F3600 X25.32 Y1.561
