;FLAVOR:Marlin
;TIME:387
;Filament used: 0.443047m
;Layer height: 0.24
;MINX:-4.5
;MINY:-16.6
;MINZ:0.24
;MAXX:14.5
;MAXY:16.6
;MAXZ:6
;TARGET_MACHINE.NAME:Unknown
;Generated with Cura_SteamEngine 5.10.0
M140 S60
M105
M190 S60
M104 S210
M105
M109 S210
;FLAVOR:Marlin
M82 ;absolute extrusion mode
G21
G90
M82
M107 T0
G28
G92 E0
G0 E3 F200
G92 E0 ; reset extrusion distance
M106 S255 ; Enable cooling fan full speed
G1 X-98 Y0 Z0.4 F3000 ; move to arc start
G3 X0 Y-98 I98 Z0.4 E40 F400 ; lay arc stripe 90deg
G92 E0 ; reset extrusion distance
G4 P500 ; wait for 0.5 sec
G0 Z10 E-1 ; Lift 15mm and retract 1mm filament
G4 P2000 ; wait for 5 sec
G0 Z15
M107 ; Disable cooling fan
G1 X0 Y-85 Z4 E0 F3000 ; get off the bed
M82 ;absolute extrusion mode
G92 E0
G92 E0
G1 F1500 E-1
;LAYER_COUNT:25
;LAYER:0
M106 S102
G0 F3600 X1.518 Y7.689 Z0.24
;TYPE:SKIRT
G1 F3600 E0.71493
G1 F1200 X1.148 Y8.112 E0.73534
G1 X0.935 Y8.25 E0.74457
G1 X1.858 Y8.25 E0.7781
G1 X1.675 Y8.038 E0.78828
G1 X1.518 Y7.689 E0.80218
G1 F1500 E-0.19782
G0 F3600 X5 Y13.029
G1 F3600 E1.51711
G1 F1200 X5 Y13.723 E1.54233
G1 X4.818 Y14.613 E1.57533
G1 X4.42 Y15.368 E1.60634
G1 X4.251 Y15.588 E1.61642
G1 X3.633 Y16.086 E1.64526
G1 X2.837 Y16.482 E1.67757
G1 X2.058 Y16.596 E1.70617
G1 X0.378 Y16.6 E1.76722
G1 X-.513 Y16.418 E1.80026
G1 X-1.268 Y16.02 E1.83127
G1 X-1.488 Y15.851 E1.84135
G1 X-1.988 Y15.231 E1.87029
G1 X-2.293 Y14.62 E1.8951
G1 X-2.347 Y14.444 E1.90179
G1 X-2.617 Y14.363 E1.91204
G1 X-3.268 Y14.02 E1.93877
G1 X-3.488 Y13.851 E1.94885
G1 X-3.986 Y13.233 E1.97769
G1 X-4.382 Y12.437 E2.01
G1 X-4.496 Y11.658 E2.0386
G1 X-4.5 Y-11.723 E2.88815
G1 X-4.318 Y-12.613 E2.92116
G1 X-3.92 Y-13.368 E2.95217
G1 X-3.751 Y-13.588 E2.96225
G1 X-3.131 Y-14.088 E2.99119
G1 X-2.52 Y-14.393 E3.016
G1 X-2.344 Y-14.447 E3.02269
G1 X-2.263 Y-14.717 E3.03293
G1 X-1.92 Y-15.368 E3.05967
G1 X-1.751 Y-15.588 E3.06975
G1 X-1.133 Y-16.086 E3.09859
G1 X-.337 Y-16.482 E3.13089
G1 X0.442 Y-16.596 E3.1595
G1 X2.122 Y-16.6 E3.22054
G1 X3.013 Y-16.418 E3.25359
G1 X3.768 Y-16.02 E3.2846
G1 X3.988 Y-15.851 E3.29468
G1 X4.486 Y-15.233 E3.32352
G1 X4.882 Y-14.437 E3.35582
G1 X4.996 Y-13.658 E3.38443
G1 X5 Y-13.148 E3.40296
G1 X5.2 Y-13.173 E3.41028
G1 X7.524 Y-13.172 E3.49472
G1 X8.415 Y-12.989 E3.52777
G1 X9.174 Y-12.589 E3.55895
G1 X9.763 Y-12.882 E3.58285
G1 X10.542 Y-12.996 E3.61146
G1 X11.622 Y-13 E3.6507
G1 X12.513 Y-12.818 E3.68374
G1 X13.268 Y-12.42 E3.71475
G1 X13.488 Y-12.251 E3.72483
G1 X13.986 Y-11.633 E3.75367
G1 X14.382 Y-10.837 E3.78598
G1 X14.496 Y-10.058 E3.81458
G1 X14.5 Y10.123 E4.54786
G1 X14.318 Y11.013 E4.58087
G1 X13.92 Y11.768 E4.61188
G1 X13.751 Y11.988 E4.62196
G1 X13.133 Y12.486 E4.6508
G1 X12.337 Y12.882 E4.6831
G1 X11.558 Y12.996 E4.71171
G1 X10.434 Y13 E4.75255
G1 X9.579 Y12.814 E4.78434
G1 X9.027 Y12.523 E4.80701
G1 X8.239 Y12.916 E4.83901
G1 X7.402 Y13.034 E4.86972
G1 X5 Y13.029 E4.957
G0 F3600 X5.135 Y12.629
G1 F1200 X4.6 Y12.542 E4.97669
G1 X4.6 Y13.682 E5.01812
G1 X4.437 Y14.478 E5.04764
G1 X4.066 Y15.182 E5.07655
G1 X3.963 Y15.307 E5.08244
G1 X3.417 Y15.747 E5.10792
G1 X2.717 Y16.095 E5.13632
G1 X2 Y16.2 E5.16265
G1 X0.418 Y16.2 E5.22013
G1 X-.378 Y16.037 E5.24966
G1 X-1.082 Y15.666 E5.27857
G1 X-1.207 Y15.563 E5.28446
G1 X-1.648 Y15.016 E5.30999
G1 X-1.935 Y14.441 E5.33334
G1 X-2.017 Y14.115 E5.34555
G1 X-2.431 Y14.009 E5.36108
G1 X-3.082 Y13.666 E5.38782
G1 X-3.207 Y13.563 E5.3937
G1 X-3.647 Y13.017 E5.41918
G1 X-3.995 Y12.317 E5.44758
G1 X-4.1 Y11.6 E5.47391
G1 X-4.1 Y-11.682 E6.31987
G1 X-3.937 Y-12.478 E6.34939
G1 X-3.566 Y-13.182 E6.3783
G1 X-3.463 Y-13.307 E6.38419
G1 X-2.916 Y-13.748 E6.40972
G1 X-2.341 Y-14.035 E6.43307
G1 X-2.015 Y-14.117 E6.44528
G1 X-1.909 Y-14.531 E6.46081
G1 X-1.566 Y-15.182 E6.48755
G1 X-1.463 Y-15.307 E6.49343
G1 X-.917 Y-15.747 E6.51891
G1 X-.217 Y-16.095 E6.54732
G1 X0.5 Y-16.2 E6.57365
G1 X2.082 Y-16.2 E6.63113
G1 X2.878 Y-16.037 E6.66065
G1 X3.582 Y-15.666 E6.68957
G1 X3.707 Y-15.563 E6.69545
G1 X4.147 Y-15.017 E6.72093
G1 X4.495 Y-14.317 E6.74933
G1 X4.6 Y-13.6 E6.77566
G1 X4.6 Y-12.685 E6.80891
G1 X5.2 Y-12.773 E6.83094
G1 X7.482 Y-12.772 E6.91386
G1 X8.28 Y-12.608 E6.94346
G1 X8.914 Y-12.274 E6.9695
G1 X9.099 Y-12.105 E6.9786
G1 X9.883 Y-12.495 E7.01042
G1 X10.6 Y-12.6 E7.03675
G1 X11.582 Y-12.6 E7.07243
G1 X12.378 Y-12.437 E7.10196
G1 X13.082 Y-12.066 E7.13087
G1 X13.207 Y-11.963 E7.13675
G1 X13.647 Y-11.417 E7.16223
G1 X13.995 Y-10.717 E7.19064
G1 X14.1 Y-10 E7.21697
G1 X14.1 Y10.082 E7.94665
G1 X13.937 Y10.878 E7.97617
G1 X13.566 Y11.582 E8.00509
G1 X13.463 Y11.707 E8.01097
G1 X12.917 Y12.147 E8.03645
G1 X12.217 Y12.495 E8.06485
G1 X11.5 Y12.6 E8.09118
G1 X10.477 Y12.6 E8.12835
G1 X9.716 Y12.434 E8.15666
G1 X9.156 Y12.139 E8.17965
G1 X9.019 Y12.03 E8.18602
G1 X8.829 Y12.177 E8.19474
G1 X8.12 Y12.529 E8.22351
G1 X7.403 Y12.634 E8.24984
G1 X5.135 Y12.629 E8.33224
G0 F3600 X5.199 Y12.234
G1 F1200 X4.639 Y12.143 E8.35286
G1 X4.2 Y11.962 E8.37011
G1 X4.2 Y13.641 E8.43112
G1 X4.056 Y14.343 E8.45716
G1 X3.712 Y14.996 E8.48397
G1 X3.201 Y15.408 E8.50782
G1 X2.595 Y15.709 E8.53241
G1 X2 Y15.8 E8.55428
G1 X0.459 Y15.8 E8.61027
G1 X-.243 Y15.656 E8.63631
G1 X-.896 Y15.312 E8.66313
G1 X-1.308 Y14.801 E8.68698
G1 X-1.577 Y14.262 E8.70887
G1 X-1.68 Y13.779 E8.72681
G1 X-2.245 Y13.655 E8.74783
G1 X-2.896 Y13.312 E8.77457
G1 X-3.308 Y12.801 E8.79842
G1 X-3.609 Y12.195 E8.823
G1 X-3.7 Y11.6 E8.84487
G1 X-3.7 Y-11.641 E9.68934
G1 X-3.556 Y-12.343 E9.71537
G1 X-3.212 Y-12.996 E9.74219
G1 X-2.701 Y-13.408 E9.76604
G1 X-2.162 Y-13.677 E9.78793
G1 X-1.679 Y-13.78 E9.80587
G1 X-1.555 Y-14.345 E9.82689
G1 X-1.212 Y-14.996 E9.85363
G1 X-.701 Y-15.408 E9.87748
G1 X-0.095 Y-15.709 E9.90206
G1 X0.5 Y-15.8 E9.92394
G1 X2.041 Y-15.8 E9.97993
G1 X2.743 Y-15.656 E10.00597
G1 X3.396 Y-15.312 E10.03278
G1 X3.808 Y-14.801 E10.05663
G1 X4.109 Y-14.195 E10.08122
G1 X4.2 Y-13.6 E10.10309
G1 X4.2 Y-12.081 E10.15828
G1 X4.662 Y-12.291 E10.17672
G1 X5.2 Y-12.373 E10.1965
G1 X7.441 Y-12.372 E10.27792
G1 X8.143 Y-12.228 E10.30396
G1 X8.727 Y-11.92 E10.32795
G1 X9.074 Y-11.551 E10.34636
G1 X9.399 Y-11.808 E10.36141
G1 X10.005 Y-12.109 E10.386
G1 X10.6 Y-12.2 E10.40787
G1 X11.541 Y-12.2 E10.44206
G1 X12.243 Y-12.056 E10.4681
G1 X12.896 Y-11.712 E10.49492
G1 X13.308 Y-11.201 E10.51877
G1 X13.609 Y-10.595 E10.54335
G1 X13.7 Y-10 E10.56522
G1 X13.7 Y10.041 E11.29341
G1 X13.556 Y10.743 E11.31945
G1 X13.212 Y11.396 E11.34627
G1 X12.701 Y11.808 E11.37012
G1 X12.095 Y12.109 E11.3947
G1 X11.5 Y12.2 E11.41657
G1 X10.521 Y12.2 E11.45215
G1 X9.855 Y12.055 E11.47691
G1 X9.343 Y11.785 E11.49794
G1 X9.028 Y11.494 E11.51353
G1 X8.651 Y11.819 E11.53161
G1 X7.998 Y12.143 E11.5581
G1 X7.403 Y12.234 E11.57997
G1 X5.199 Y12.234 E11.66005
G0 F3600 X5.199 Y11.834
G1 F1200 X4.707 Y11.749 E11.67819
G1 X4.242 Y11.543 E11.69667
G1 X3.8 Y11.133 E11.71858
G1 X3.8 Y13.6 E11.80822
G1 X3.676 Y14.206 E11.83069
G1 X3.395 Y14.738 E11.85255
G1 X3.023 Y15.05 E11.8702
G1 X2.474 Y15.323 E11.89247
G1 X2 Y15.4 E11.90992
G1 X0.5 Y15.4 E11.96442
G1 X-.106 Y15.276 E11.9869
G1 X-.638 Y14.995 E12.00876
G1 X-.95 Y14.623 E12.0264
G1 X-1.196 Y14.129 E12.04645
G1 X-1.294 Y13.67 E12.06351
G1 X-1.3 Y13.4 E12.07332
G1 X-1.573 Y13.393 E12.08324
G1 X-2.106 Y13.276 E12.10307
G1 X-2.638 Y12.995 E12.12493
G1 X-2.95 Y12.623 E12.14257
G1 X-3.223 Y12.074 E12.16485
G1 X-3.3 Y11.6 E12.1823
G1 X-3.3 Y-11.6 E13.02527
G1 X-3.176 Y-12.206 E13.04775
G1 X-2.895 Y-12.738 E13.06961
G1 X-2.523 Y-13.05 E13.08725
G1 X-2.029 Y-13.296 E13.1073
G1 X-1.57 Y-13.394 E13.12436
G1 X-1.3 Y-13.4 E13.13417
G1 X-1.293 Y-13.673 E13.14409
G1 X-1.176 Y-14.206 E13.16392
G1 X-.895 Y-14.738 E13.18578
G1 X-.523 Y-15.05 E13.20342
G1 X0.026 Y-15.323 E13.2257
G1 X0.5 Y-15.4 E13.24315
G1 X2 Y-15.4 E13.29765
G1 X2.606 Y-15.276 E13.32013
G1 X3.138 Y-14.995 E13.34199
G1 X3.45 Y-14.623 E13.35963
G1 X3.723 Y-14.074 E13.38191
G1 X3.8 Y-13.6 E13.39935
G1 X3.8 Y-11.283 E13.48354
G1 X4.121 Y-11.595 E13.49981
G1 X4.726 Y-11.896 E13.52436
G1 X5.2 Y-11.973 E13.54181
G1 X7.4 Y-11.972 E13.62175
G1 X8.006 Y-11.848 E13.64422
G1 X8.54 Y-11.566 E13.66616
G1 X8.849 Y-11.196 E13.68368
G1 X9.037 Y-10.82 E13.69895
G1 X9.255 Y-11.18 E13.71425
G1 X9.577 Y-11.45 E13.72952
G1 X10.126 Y-11.723 E13.75179
G1 X10.6 Y-11.8 E13.76924
G1 X11.5 Y-11.8 E13.80194
G1 X12.106 Y-11.676 E13.82442
G1 X12.638 Y-11.395 E13.84628
G1 X12.95 Y-11.023 E13.86392
G1 X13.223 Y-10.474 E13.8862
G1 X13.3 Y-10 E13.90365
G1 X13.3 Y10 E14.63035
G1 X13.176 Y10.606 E14.65282
G1 X12.895 Y11.138 E14.67468
G1 X12.523 Y11.45 E14.69233
G1 X11.974 Y11.723 E14.7146
G1 X11.5 Y11.8 E14.73205
G1 X10.565 Y11.8 E14.76603
G1 X9.994 Y11.676 E14.78726
G1 X9.53 Y11.431 E14.80632
G1 X9.211 Y11.113 E14.82269
G1 X9.017 Y10.757 E14.83742
G1 X8.748 Y11.214 E14.85669
G1 X8.426 Y11.484 E14.87196
G1 X7.877 Y11.757 E14.89423
G1 X7.403 Y11.834 E14.91168
G1 X5.199 Y11.834 E14.99177
G0 F3600 X5.199 Y11.434
G1 F1200 X4.78 Y11.356 E15.00725
G1 X4.413 Y11.182 E15.02201
G1 X4.119 Y10.899 E15.03684
G1 X3.88 Y10.458 E15.05506
G1 X3.803 Y10.137 E15.06706
G1 X3.778 Y9.806 E15.07912
G1 X3.6 Y9.235 E15.10085
G1 X3.465 Y9.011 E15.11035
G1 X3.075 Y8.612 E15.13063
G1 X2.517 Y8.313 E15.15363
G1 X2.04 Y7.874 E15.17718
G1 X1.822 Y7.39 E15.19647
G1 X1.778 Y6.974 E15.21167
G1 X1.8 Y6.695 E15.22184
G1 X1.8 Y3.134 E15.35123
G1 X1.714 Y2.77 E15.36482
G1 X1.415 Y2.157 E15.3896
G1 X1.292 Y1.667 E15.40796
G1 X1.288 Y1.51 E15.41366
G1 X1.387 Y1.018 E15.4319
G1 X1.713 Y0.331 E15.45953
G1 X1.8 Y-.26 E15.48123
G1 X1.8 Y-4.262 E15.62665
G1 X1.714 Y-4.63 E15.64038
G1 X1.348 Y-5.438 E15.67261
G1 X1.299 Y-6.187 E15.69988
G1 X1.377 Y-6.6 E15.71515
G1 X1.48 Y-6.847 E15.72488
G1 X1.817 Y-7.252 E15.74402
G1 X2.27 Y-7.52 E15.76314
G1 X2.832 Y-7.71 E15.7847
G1 X3.268 Y-8.029 E15.80433
G1 X3.596 Y-8.475 E15.82445
G1 X3.708 Y-8.746 E15.8351
G1 X3.8 Y-9.13 E15.84945
G1 X3.8 Y-10.173 E15.88735
G1 X3.878 Y-10.592 E15.90283
G1 X4.123 Y-11.056 E15.9219
G1 X4.355 Y-11.265 E15.93324
G1 X4.849 Y-11.511 E15.95329
G1 X5.2 Y-11.573 E15.96625
G1 X7.4 Y-11.572 E16.04618
G1 X7.819 Y-11.494 E16.06167
G1 X8.284 Y-11.248 E16.08078
G1 X8.491 Y-11.017 E16.09205
G1 X8.74 Y-10.519 E16.11228
G1 X8.8 Y-10.172 E16.12508
G1 X8.803 Y10.034 E16.85926
G1 X8.725 Y10.453 E16.87475
G1 X8.48 Y10.917 E16.89382
G1 X8.248 Y11.126 E16.90516
G1 X7.754 Y11.372 E16.92521
G1 X7.403 Y11.434 E16.93816
G1 X5.199 Y11.434 E17.01825
G0 F3600 X3.4 Y10.05
G1 F1200 X3.4 Y13.6 E17.14724
G1 X3.322 Y14.019 E17.16272
G1 X3.077 Y14.483 E17.18179
G1 X2.845 Y14.692 E17.19313
G1 X2.351 Y14.938 E17.21319
G1 X2 Y15 E17.22614
G1 X0.5 Y15 E17.28064
G1 X0.081 Y14.922 E17.29612
G1 X-.383 Y14.677 E17.31519
G1 X-.592 Y14.445 E17.32654
G1 X-.838 Y13.951 E17.34659
G1 X-.9 Y13.6 E17.35954
G1 X-.9 Y13 E17.38134
G1 X-1.5 Y13 E17.40314
G1 X-1.919 Y12.922 E17.41863
G1 X-2.383 Y12.677 E17.43769
G1 X-2.592 Y12.445 E17.44904
G1 X-2.838 Y11.951 E17.46909
G1 X-2.9 Y11.6 E17.48204
G1 X-2.9 Y-11.6 E18.32501
G1 X-2.822 Y-12.019 E18.3405
G1 X-2.577 Y-12.483 E18.35956
G1 X-2.345 Y-12.692 E18.37091
G1 X-1.851 Y-12.938 E18.39096
G1 X-1.5 Y-13 E18.40391
G1 X-.9 Y-13 E18.42571
G1 X-.9 Y-13.6 E18.44752
G1 X-.822 Y-14.019 E18.463
G1 X-.577 Y-14.483 E18.48207
G1 X-.345 Y-14.692 E18.49341
G1 X0.149 Y-14.938 E18.51346
G1 X0.5 Y-15 E18.52642
G1 X2 Y-15 E18.58092
G1 X2.419 Y-14.922 E18.5964
G1 X2.883 Y-14.677 E18.61547
G1 X3.092 Y-14.445 E18.62682
G1 X3.338 Y-13.951 E18.64687
G1 X3.4 Y-13.6 E18.65982
G1 X3.4 Y-9.3 E18.81606
G1 X3.322 Y-8.881 E18.83154
G1 X3.077 Y-8.417 E18.85061
G1 X2.845 Y-8.208 E18.86196
G1 X2.351 Y-7.962 E18.88201
G1 X2 Y-7.9 E18.89496
G1 X0.9 Y-7.9 E18.93493
G1 X0.9 Y-5.138 E19.03529
G1 X1.092 Y-4.945 E19.04518
G1 X1.338 Y-4.451 E19.06523
G1 X1.4 Y-4.1 E19.07818
G1 X1.4 Y-.2 E19.21989
G1 X1.322 Y0.219 E19.23537
G1 X1.148 Y0.586 E19.25013
G1 X0.86 Y0.884 E19.26519
G1 X0.5 Y1.084 E19.28015
G1 X0.5 Y2.006 E19.31365
G1 X0.883 Y2.223 E19.32965
G1 X1.092 Y2.455 E19.34099
G1 X1.338 Y2.949 E19.36105
G1 X1.4 Y3.3 E19.374
G1 X1.4 Y6.75 E19.49935
G1 X1.322 Y7.169 E19.51484
G1 X1.148 Y7.536 E19.5296
G1 X0.86 Y7.834 E19.54465
G1 X0.5 Y8.034 E19.55962
G1 X0.5 Y8.65 E19.582
G1 X2 Y8.65 E19.6365
G1 X2.419 Y8.728 E19.65199
G1 X2.883 Y8.973 E19.67105
G1 X3.092 Y9.205 E19.6824
G1 X3.338 Y9.699 E19.70245
G1 X3.4 Y10.05 E19.7154
G0 F3600 X3 Y10.05
G1 F1200 X3 Y13.6 E19.84439
G1 X2.93 Y13.938 E19.85693
G1 X2.793 Y14.201 E19.86771
G1 X2.655 Y14.34 E19.87483
G1 X2.273 Y14.546 E19.8906
G1 X2 Y14.6 E19.90071
G1 X0.5 Y14.6 E19.95521
G1 X0.162 Y14.53 E19.96775
G1 X-.101 Y14.393 E19.97853
G1 X-.24 Y14.255 E19.98564
G1 X-.446 Y13.873 E20.00141
G1 X-.5 Y13.6 E20.01152
G1 X-.5 Y12.6 E20.04786
G1 X-1.5 Y12.6 E20.08419
G1 X-1.838 Y12.53 E20.09674
G1 X-2.101 Y12.393 E20.10751
G1 X-2.24 Y12.255 E20.11463
G1 X-2.446 Y11.873 E20.1304
G1 X-2.5 Y11.6 E20.14051
G1 X-2.5 Y-11.6 E20.98348
G1 X-2.43 Y-11.938 E20.99602
G1 X-2.293 Y-12.201 E21.0068
G1 X-2.155 Y-12.34 E21.01392
G1 X-1.773 Y-12.546 E21.02968
G1 X-1.5 Y-12.6 E21.0398
G1 X-.5 Y-12.6 E21.07613
G1 X-.5 Y-13.6 E21.11247
G1 X-.43 Y-13.938 E21.12501
G1 X-.293 Y-14.201 E21.13578
G1 X-.155 Y-14.34 E21.1429
G1 X0.227 Y-14.546 E21.15867
G1 X0.5 Y-14.6 E21.16878
G1 X2 Y-14.6 E21.22328
G1 X2.338 Y-14.53 E21.23583
G1 X2.601 Y-14.393 E21.2466
G1 X2.74 Y-14.255 E21.25372
G1 X2.946 Y-13.873 E21.26949
G1 X3 Y-13.6 E21.2796
G1 X3 Y-9.3 E21.43584
G1 X2.93 Y-8.962 E21.44838
G1 X2.793 Y-8.699 E21.45916
G1 X2.655 Y-8.56 E21.46627
G1 X2.273 Y-8.354 E21.48204
G1 X2 Y-8.3 E21.49215
G1 X0.5 Y-8.3 E21.54666
G1 X0.5 Y-4.942 E21.66867
G1 X0.74 Y-4.755 E21.67972
G1 X0.946 Y-4.373 E21.69549
G1 X1 Y-4.1 E21.70561
G1 X1 Y-.2 E21.84731
G1 X0.93 Y0.138 E21.85985
G1 X0.793 Y0.401 E21.87063
G1 X0.655 Y0.54 E21.87775
G1 X0.385 Y0.701 E21.88917
G1 X0.1 Y0.787 E21.89999
G1 X0.1 Y2.312 E21.9554
G1 X0.338 Y2.37 E21.9643
G1 X0.601 Y2.507 E21.97507
G1 X0.74 Y2.645 E21.98219
G1 X0.946 Y3.027 E21.99796
G1 X1 Y3.3 E22.00807
G1 X1 Y6.75 E22.13343
G1 X0.93 Y7.088 E22.14597
G1 X0.793 Y7.351 E22.15674
G1 X0.655 Y7.49 E22.16386
G1 X0.385 Y7.651 E22.17528
G1 X0.1 Y7.737 E22.1861
G1 X0.1 Y9.05 E22.23381
G1 X2 Y9.05 E22.30284
G1 X2.338 Y9.12 E22.31538
G1 X2.601 Y9.257 E22.32616
G1 X2.74 Y9.395 E22.33328
G1 X2.946 Y9.777 E22.34905
G1 X3 Y10.05 E22.35916
G0 F3600 X2.2 Y10.05
G1 F1200 X2.2 Y13.6 E22.48815
G1 X2.161 Y13.719 E22.4927
G1 X2 Y13.8 E22.49925
G1 X0.5 Y13.8 E22.55375
G1 X0.381 Y13.761 E22.5583
G1 X0.3 Y13.6 E22.56485
G1 X0.3 Y11.8 E22.63025
G1 X-1.5 Y11.8 E22.69565
G1 X-1.619 Y11.761 E22.7002
G1 X-1.7 Y11.6 E22.70675
G1 X-1.7 Y-11.6 E23.54972
G1 X-1.661 Y-11.719 E23.55427
G1 X-1.5 Y-11.8 E23.56082
G1 X0.3 Y-11.8 E23.62623
G1 X0.3 Y-13.6 E23.69163
G1 X0.339 Y-13.719 E23.69618
G1 X0.5 Y-13.8 E23.70273
G1 X2 Y-13.8 E23.75723
G1 X2.119 Y-13.761 E23.76178
G1 X2.2 Y-13.6 E23.76833
G1 X2.2 Y-9.3 E23.92457
G1 X2.161 Y-9.181 E23.92912
G1 X2 Y-9.1 E23.93567
G1 X-.3 Y-9.1 E24.01924
G1 X-.3 Y-4.3 E24.19365
G1 X0.00 Y-4.3 E24.20455
G1 X0.119 Y-4.261 E24.2091
G1 X0.2 Y-4.1 E24.21565
G1 X0.2 Y-.2 E24.35735
G1 X0.161 Y-0.081 E24.3619
G1 X0.00 Y0.00 E24.36845
G1 X-.7 Y0.00 E24.39389
G1 X-.7 Y3.1 E24.50652
G1 X0.00 Y3.1 E24.53196
G1 X0.119 Y3.139 E24.53651
G1 X0.2 Y3.3 E24.54306
G1 X0.2 Y6.75 E24.66841
G1 X0.161 Y6.869 E24.67296
G1 X0.00 Y6.95 E24.67951
G1 X-.7 Y6.95 E24.70495
G1 X-.7 Y9.85 E24.81032
G1 X2 Y9.85 E24.90842
G1 X2.119 Y9.889 E24.91297
G1 X2.2 Y10.05 E24.91952
G0 F3600 X2.557 Y9.87
G1 F1200 X2.6 Y10.05 E24.92625
G1 X2.6 Y13.6 E25.05524
