;FLAVOR:Marlin
;TIME:1901
;Filament used: 1.34834m
;Layer height: 0.12
;MINX:-19.368
;MINY:-17.216
;MINZ:0.24
;MAXX:29.367
;MAXY:17.217
;MAXZ:9.36
;TARGET_MACHINE.NAME:Unknown
;Generated with Cura_SteamEngine 5.10.0
M140 S60
M105
M190 S60
M104 S210
M105
M109 S210
;FLAVOR:Marlin
M82 ;absolute extrusion mode
G21
G90
M82
M107 T0
G28
G92 E0
G0 E3 F200
G92 E0 ; reset extrusion distance
M106 S255 ; Enable cooling fan full speed
G1 X-98 Y0 Z0.4 F3000 ; move to arc start
G3 X0 Y-98 I98 Z0.4 E40 F400 ; lay arc stripe 90deg
G92 E0 ; reset extrusion distance
G4 P500 ; wait for 0.5 sec
G0 Z10 E-1 ; Lift 15mm and retract 1mm filament
G4 P2000 ; wait for 5 sec
G0 Z15
M107 ; Disable cooling fan
G1 X0 Y-85 Z4 E0 F3000 ; get off the bed
M82 ;absolute extrusion mode
G92 E0
G92 E0
G1 F1500 E-1
;LAYER_COUNT:77
;LAYER:0
M106 S102
G0 F3600 X8.224 Y0.19 Z0.24
;TYPE:SKIRT
G1 F3600 E0.71493
G1 F1200 X8.224 Y-.19 E0.72873
G1 X8.294 Y-.374 E0.73589
G1 X8.545 Y-.657 E0.74963
G1 X8.902 Y-.793 E0.76351
G1 X9.098 Y-.793 E0.77063
G1 X9.455 Y-.657 E0.78451
G1 X9.706 Y-.374 E0.79826
G1 X9.776 Y-.19 E0.80541
G1 X9.776 Y0.19 E0.81922
G1 X9.706 Y0.374 E0.82637
G1 X9.455 Y0.657 E0.84012
G1 X9.098 Y0.793 E0.854
G1 X8.719 Y0.748 E0.86786
G1 X8.545 Y0.657 E0.875
G1 X8.294 Y0.374 E0.88874
G1 X8.224 Y0.19 E0.8959
G0 F3600 X8.642 Y0.165
G1 F1200 X8.838 Y0.36 E0.90594
G1 X9.047 Y0.384 E0.91359
G1 X9.222 Y0.318 E0.92038
G1 X9.358 Y0.165 E0.92782
G1 X9.376 Y-.116 E0.93805
G1 X9.222 Y-.318 E0.94728
G1 X9.024 Y-.393 E0.95497
G1 X8.778 Y-.318 E0.96432
G1 X8.642 Y-.165 E0.97176
G1 X8.642 Y0.165 E0.98375
G1 F1500 E-0.01625
G0 F3600 X8.902 Y3.207
G1 F3600 E1.69867
G1 F1200 X9.098 Y3.207 E1.70579
G1 X9.455 Y3.343 E1.71968
G1 X9.706 Y3.626 E1.73342
G1 X9.776 Y3.81 E1.74057
G1 X9.776 Y4.19 E1.75438
G1 X9.706 Y4.374 E1.76153
G1 X9.455 Y4.657 E1.77528
G1 X9.098 Y4.793 E1.78916
G1 X8.719 Y4.748 E1.80303
G1 X8.545 Y4.657 E1.81016
G1 X8.294 Y4.374 E1.82391
G1 X8.224 Y4.19 E1.83106
G1 X8.224 Y3.81 E1.84487
G1 X8.294 Y3.626 E1.85202
G1 X8.545 Y3.343 E1.86576
G1 X8.902 Y3.207 E1.87965
G0 F3600 X9.024 Y3.607
G1 F1200 X8.778 Y3.682 E1.88899
G1 X8.642 Y3.835 E1.89643
G1 X8.642 Y4.165 E1.90842
G1 X8.838 Y4.36 E1.91846
G1 X9.047 Y4.384 E1.92611
G1 X9.222 Y4.318 E1.9329
G1 X9.358 Y4.165 E1.94034
G1 X9.376 Y3.884 E1.95057
G1 X9.222 Y3.682 E1.9598
G1 X9.024 Y3.607 E1.9675
G1 F1500 E0.9675
G0 F3600 X12.224 Y3.81
G1 F3600 E2.68242
G1 F1200 X12.294 Y3.626 E2.68957
G1 X12.545 Y3.343 E2.70332
G1 X12.902 Y3.207 E2.7172
G1 X13.098 Y3.207 E2.72432
G1 X13.455 Y3.343 E2.7382
G1 X13.706 Y3.626 E2.75195
G1 X13.776 Y3.81 E2.7591
G1 X13.776 Y4.19 E2.77291
G1 X13.706 Y4.374 E2.78006
G1 X13.455 Y4.657 E2.7938
G1 X13.098 Y4.793 E2.80769
G1 X12.719 Y4.748 E2.82155
G1 X12.545 Y4.657 E2.82869
G1 X12.294 Y4.374 E2.84243
G1 X12.224 Y4.19 E2.84959
G1 X12.224 Y3.81 E2.86339
G0 F3600 X12.642 Y3.835
G1 F1200 X12.642 Y4.165 E2.87538
G1 X12.838 Y4.36 E2.88543
G1 X13.047 Y4.384 E2.89307
G1 X13.222 Y4.318 E2.89987
G1 X13.358 Y4.165 E2.90731
G1 X13.376 Y3.884 E2.91754
G1 X13.222 Y3.682 E2.92677
G1 X13.024 Y3.607 E2.93446
G1 X12.778 Y3.682 E2.94381
G1 X12.642 Y3.835 E2.95124
G1 F1500 E1.95124
G0 F3600 X13.098 Y0.793
G1 F3600 E3.66617
G1 F1200 X12.719 Y0.748 E3.68004
G1 X12.545 Y0.657 E3.68717
G1 X12.294 Y0.374 E3.70092
G1 X12.224 Y0.19 E3.70807
G1 X12.224 Y-.19 E3.72188
G1 X12.294 Y-.374 E3.72903
G1 X12.545 Y-.657 E3.74277
G1 X12.902 Y-.793 E3.75665
G1 X13.098 Y-.793 E3.76378
G1 X13.455 Y-.657 E3.77766
G1 X13.706 Y-.374 E3.7914
G1 X13.776 Y-.19 E3.79855
G1 X13.776 Y0.19 E3.81236
G1 X13.706 Y0.374 E3.81952
G1 X13.455 Y0.657 E3.83326
G1 X13.098 Y0.793 E3.84714
G0 F3600 X13.047 Y0.384
G1 F1200 X13.222 Y0.318 E3.85394
G1 X13.358 Y0.165 E3.86137
G1 X13.376 Y-.116 E3.87161
G1 X13.222 Y-.318 E3.88083
G1 X13.024 Y-.393 E3.88853
G1 X12.778 Y-.318 E3.89787
G1 X12.642 Y-.165 E3.90531
G1 X12.642 Y0.165 E3.9173
G1 X12.838 Y0.36 E3.92735
G1 X13.047 Y0.384 E3.93499
G1 F1500 E2.93499
G0 F3600 X16.224 Y0.19
G1 F3600 E4.64992
G1 F1200 X16.224 Y-.19 E4.66372
G1 X16.294 Y-.374 E4.67088
G1 X16.545 Y-.657 E4.68462
G1 X16.902 Y-.793 E4.6985
G1 X17.098 Y-.793 E4.70562
G1 X17.455 Y-.657 E4.7195
G1 X17.706 Y-.374 E4.73325
G1 X17.776 Y-.19 E4.7404
G1 X17.776 Y0.19 E4.75421
G1 X17.706 Y0.374 E4.76136
G1 X17.455 Y0.657 E4.77511
G1 X17.098 Y0.793 E4.78899
G1 X16.719 Y0.748 E4.80286
G1 X16.545 Y0.657 E4.80999
G1 X16.294 Y0.374 E4.82374
G1 X16.224 Y0.19 E4.83089
G0 F3600 X16.642 Y0.165
G1 F1200 X16.838 Y0.36 E4.84093
G1 X17.047 Y0.384 E4.84858
G1 X17.222 Y0.318 E4.85537
G1 X17.358 Y0.165 E4.86281
G1 X17.376 Y-.116 E4.87304
G1 X17.222 Y-.318 E4.88227
G1 X17.024 Y-.393 E4.88997
G1 X16.778 Y-.318 E4.89931
G1 X16.642 Y-.165 E4.90675
G1 X16.642 Y0.165 E4.91874
G1 F1500 E3.91874
G0 F3600 X16.902 Y3.207
G1 F3600 E5.63366
G1 F1200 X17.098 Y3.207 E5.64079
G1 X17.455 Y3.343 E5.65467
G1 X17.706 Y3.626 E5.66841
G1 X17.776 Y3.81 E5.67556
G1 X17.776 Y4.19 E5.68937
G1 X17.706 Y4.374 E5.69652
G1 X17.455 Y4.657 E5.71027
G1 X17.098 Y4.793 E5.72415
G1 X16.719 Y4.748 E5.73802
G1 X16.545 Y4.657 E5.74515
G1 X16.294 Y4.374 E5.7589
G1 X16.224 Y4.19 E5.76605
G1 X16.224 Y3.81 E5.77986
G1 X16.294 Y3.626 E5.78701
G1 X16.545 Y3.343 E5.80076
G1 X16.902 Y3.207 E5.81464
G0 F3600 X17.024 Y3.607
G1 F1200 X16.778 Y3.682 E5.82398
G1 X16.642 Y3.835 E5.83142
G1 X16.642 Y4.165 E5.84341
G1 X16.838 Y4.36 E5.85346
G1 X17.047 Y4.384 E5.8611
G1 X17.222 Y4.318 E5.86789
G1 X17.358 Y4.165 E5.87533
G1 X17.376 Y3.884 E5.88556
G1 X17.222 Y3.682 E5.89479
G1 X17.024 Y3.607 E5.90249
G1 F1500 E4.90249
G0 F3600 X13.455 Y-3.343
G1 F3600 E6.61741
G1 F1200 X13.098 Y-3.207 E6.63129
G1 X12.719 Y-3.252 E6.64516
G1 X12.545 Y-3.343 E6.6523
G1 X12.294 Y-3.626 E6.66604
G1 X12.224 Y-3.81 E6.67319
G1 X12.224 Y-4.19 E6.687
G1 X12.294 Y-4.374 E6.69415
G1 X12.545 Y-4.657 E6.7079
G1 X12.902 Y-4.793 E6.72178
G1 X13.098 Y-4.793 E6.7289
G1 X13.455 Y-4.657 E6.74278
G1 X13.706 Y-4.374 E6.75653
G1 X13.776 Y-4.19 E6.76368
G1 X13.776 Y-3.81 E6.77749
G1 X13.706 Y-3.626 E6.78464
G1 X13.455 Y-3.343 E6.79838
G0 F3600 X13.222 Y-3.682
G1 F1200 X13.358 Y-3.835 E6.80582
G1 X13.376 Y-4.116 E6.81605
G1 X13.222 Y-4.318 E6.82528
G1 X13.024 Y-4.393 E6.83298
G1 X12.778 Y-4.318 E6.84232
G1 X12.642 Y-4.165 E6.84976
G1 X12.642 Y-3.835 E6.86175
G1 X12.838 Y-3.64 E6.87179
G1 X13.047 Y-3.616 E6.87944
G1 X13.222 Y-3.682 E6.88623
G1 F1500 E5.88623
G0 F3600 X16.224 Y-3.81
G1 F3600 E7.60116
G1 F1200 X16.224 Y-4.19 E7.61497
G1 X16.294 Y-4.374 E7.62212
G1 X16.545 Y-4.657 E7.63586
G1 X16.902 Y-4.793 E7.64975
G1 X17.098 Y-4.793 E7.65687
G1 X17.455 Y-4.657 E7.67075
G1 X17.706 Y-4.374 E7.68449
G1 X17.776 Y-4.19 E7.69165
G1 X17.776 Y-3.81 E7.70545
G1 X17.706 Y-3.626 E7.71261
G1 X17.455 Y-3.343 E7.72635
G1 X17.098 Y-3.207 E7.74023
G1 X16.719 Y-3.252 E7.7541
G1 X16.545 Y-3.343 E7.76123
G1 X16.294 Y-3.626 E7.77498
G1 X16.224 Y-3.81 E7.78213
G0 F3600 X16.642 Y-3.835
G1 F1200 X16.838 Y-3.64 E7.79218
G1 X17.047 Y-3.616 E7.79982
G1 X17.222 Y-3.682 E7.80662
G1 X17.358 Y-3.835 E7.81406
G1 X17.376 Y-4.116 E7.82429
G1 X17.222 Y-4.318 E7.83352
G1 X17.024 Y-4.393 E7.84121
G1 X16.778 Y-4.318 E7.85055
G1 X16.642 Y-4.165 E7.85799
G1 X16.642 Y-3.835 E7.86998
G1 F1500 E6.86998
G0 F3600 X9.776 Y-3.81
G1 F3600 E8.58491
G1 F1200 X9.706 Y-3.626 E8.59206
G1 X9.455 Y-3.343 E8.6058
G1 X9.098 Y-3.207 E8.61969
G1 X8.719 Y-3.252 E8.63355
G1 X8.545 Y-3.343 E8.64069
G1 X8.294 Y-3.626 E8.65443
G1 X8.224 Y-3.81 E8.66159
G1 X8.224 Y-4.19 E8.67539
G1 X8.294 Y-4.374 E8.68255
G1 X8.545 Y-4.657 E8.69629
G1 X8.902 Y-4.793 E8.71017
G1 X9.098 Y-4.793 E8.71729
G1 X9.455 Y-4.657 E8.73117
G1 X9.706 Y-4.374 E8.74492
G1 X9.776 Y-4.19 E8.75207
G1 X9.776 Y-3.81 E8.76588
G0 F3600 X9.358 Y-3.835
G1 F1200 X9.376 Y-4.116 E8.77611
G1 X9.222 Y-4.318 E8.78534
G1 X9.024 Y-4.393 E8.79303
G1 X8.778 Y-4.318 E8.80238
G1 X8.642 Y-4.165 E8.80982
G1 X8.642 Y-3.835 E8.82181
G1 X8.838 Y-3.64 E8.83185
G1 X9.047 Y-3.616 E8.8395
G1 X9.222 Y-3.682 E8.84629
G1 X9.358 Y-3.835 E8.85373
G1 F1500 E7.85373
G0 F3600 X9.48 Y11.07
G1 F3600 E9.56865
G1 F1200 X-10.48 Y11.07 E10.2939
G1 X-10.479 Y11.429 E10.30695
G1 X9.479 Y11.429 E11.03212
G1 X9.48 Y11.07 E11.04516
G0 F3600 X9.88 Y10.67
G1 F1200 X-10.88 Y10.67 E11.79948
G1 X-10.879 Y11.829 E11.84159
G1 X9.879 Y11.829 E12.59583
G1 X9.88 Y10.67 E12.63795
G0 F3600 X10.68 Y9.87
G1 F1200 X10.679 Y12.629 E12.73819
G1 X-11.679 Y12.629 E13.55057
G1 X-11.68 Y9.87 E13.65082
G1 X10.68 Y9.87 E14.46327
G0 F3600 X10.28 Y10.27
G1 F1200 X-11.28 Y10.27 E15.24666
G1 X-11.279 Y12.229 E15.31784
G1 X10.279 Y12.229 E16.10115
G1 X10.28 Y10.27 E16.17233
G1 F1500 E15.17233
G0 F3600 X26.277 Y17.217
G1 F3600 E16.88725
G1 F1200 X-16.362 Y17.215 E18.43654
G1 X-17.495 Y16.792 E18.48048
G1 X-18.289 Y16.261 E18.51519
G1 X-18.992 Y15.319 E18.5579
G1 X-19.367 Y14.127 E18.6033
G1 X-19.368 Y-14.126 E19.62988
G1 X-19.037 Y-15.184 E19.67016
G1 X-18.497 Y-16.041 E19.70696
G1 X-17.834 Y-16.587 E19.73817
G1 X-16.911 Y-17.056 E19.77579
G1 X-15.927 Y-17.216 E19.81201
G1 X26.362 Y-17.215 E21.34858
G1 X27.495 Y-16.792 E21.39252
G1 X28.289 Y-16.261 E21.42723
G1 X28.992 Y-15.319 E21.46994
G1 X29.367 Y-14.127 E21.51534
G1 X29.365 Y14.212 E22.54504
G1 X28.942 Y15.345 E22.58899
G1 X28.411 Y16.139 E22.62369
G1 X27.469 Y16.842 E22.6664
G1 X26.277 Y17.217 E22.7118
G0 F3600 X26.214 Y16.817
G1 F1200 X-16.289 Y16.815 E24.25615
G1 X-17.313 Y16.433 E24.29586
G1 X-18.009 Y15.967 E24.3263
G1 X-18.63 Y15.135 E24.36402
G1 X-18.967 Y14.064 E24.40482
G1 X-18.968 Y-14.064 E25.42685
G1 X-18.669 Y-15.018 E25.46317
G1 X-18.194 Y-15.772 E25.49555
G1 X-17.611 Y-16.252 E25.52299
G1 X-16.786 Y-16.672 E25.55663
G1 X-15.927 Y-16.816 E25.58828
G1 X26.289 Y-16.815 E27.1222
G1 X27.313 Y-16.433 E27.16191
G1 X28.009 Y-15.967 E27.19234
G1 X28.63 Y-15.135 E27.23007
G1 X28.967 Y-14.064 E27.27086
G1 X28.965 Y14.139 E28.29562
G1 X28.583 Y15.163 E28.33533
G1 X28.117 Y15.859 E28.36576
G1 X27.285 Y16.48 E28.40349
G1 X26.214 Y16.817 E28.44428
G0 F3600 X26.151 Y16.417
G1 F1200 X-16.216 Y16.415 E29.98369
G1 X-17.133 Y16.073 E30.01925
G1 X-17.728 Y15.675 E30.04526
G1 X-18.268 Y14.951 E30.07808
G1 X-18.567 Y14.001 E30.11427
G1 X-18.568 Y-14.001 E31.13172
G1 X-18.302 Y-14.849 E31.16401
G1 X-17.889 Y-15.505 E31.19218
G1 X-17.388 Y-15.917 E31.21575
G1 X-16.661 Y-16.287 E31.24539
G1 X-15.927 Y-16.416 E31.27246
G1 X26.216 Y-16.415 E32.80373
G1 X27.133 Y-16.073 E32.83929
G1 X27.728 Y-15.675 E32.8653
G1 X28.268 Y-14.951 E32.89812
G1 X28.567 Y-14.001 E32.93431
G1 X28.565 Y14.066 E33.95412
G1 X28.223 Y14.983 E33.98968
G1 X27.825 Y15.578 E34.01569
G1 X27.101 Y16.118 E34.04851
G1 X26.151 Y16.417 E34.0847
G0 F3600 X26.088 Y16.017
G1 F1200 X-16.143 Y16.015 E35.61916
G1 X-16.951 Y15.714 E35.65049
G1 X-17.448 Y15.381 E35.67223
G1 X-17.906 Y14.767 E35.70006
G1 X-18.167 Y13.938 E35.73164
G1 X-18.168 Y-13.938 E36.74452
G1 X-17.935 Y-14.68 E36.77278
G1 X-17.584 Y-15.238 E36.79673
G1 X-17.169 Y-15.58 E36.81627
G1 X-16.531 Y-15.904 E36.84227
G1 X-15.927 Y-16.016 E36.86459
G1 X26.143 Y-16.015 E38.3932
G1 X26.951 Y-15.714 E38.42453
G1 X27.448 Y-15.381 E38.44627
G1 X27.906 Y-14.767 E38.4741
G1 X28.167 Y-13.938 E38.50568
G1 X28.165 Y13.993 E39.52056
G1 X27.864 Y14.801 E39.55188
G1 X27.531 Y15.298 E39.57362
G1 X26.917 Y15.756 E39.60145
G1 X26.088 Y16.017 E39.63303
G0 F3600 X26.025 Y15.617
G1 F1200 X-16.07 Y15.615 E41.16256
G1 X-16.811 Y15.339 E41.19129
G1 X-17.167 Y15.088 E41.20711
G1 X-17.544 Y14.583 E41.23001
G1 X-17.767 Y13.875 E41.25698
G1 X-17.768 Y-13.875 E42.26528
G1 X-17.568 Y-14.511 E42.28951
G1 X-17.278 Y-14.972 E42.30929
G1 X-16.988 Y-15.223 E42.32323
G1 X-16.399 Y-15.522 E42.34723
G1 X-15.927 Y-15.616 E42.36472
G1 X26.07 Y-15.615 E43.89068
G1 X26.811 Y-15.339 E43.91941
G1 X27.167 Y-15.088 E43.93524
G1 X27.544 Y-14.583 E43.95814
G1 X27.767 Y-13.875 E43.98511
G1 X27.765 Y13.92 E44.99504
G1 X27.489 Y14.661 E45.02377
G1 X27.238 Y15.017 E45.0396
G1 X26.733 Y15.394 E45.0625
G1 X26.025 Y15.617 E45.08947
G0 F3600 X25.962 Y15.217
G1 F1200 X-15.998 Y15.215 E46.61409
G1 X-16.63 Y14.98 E46.63859
G1 X-16.858 Y14.834 E46.64842
G1 X-17.162 Y14.463 E46.66585
G1 X-17.367 Y13.812 E46.69065
G1 X-17.368 Y-13.812 E47.69437
G1 X-17.186 Y-14.391 E47.71642
G1 X-16.946 Y-14.749 E47.73208
G1 X-16.807 Y-14.866 E47.73868
G1 X-16.218 Y-15.165 E47.76268
G1 X-15.927 Y-15.216 E47.77342
G1 X25.998 Y-15.215 E49.29676
G1 X26.63 Y-14.98 E49.32126
G1 X26.858 Y-14.834 E49.3311
G1 X27.162 Y-14.463 E49.34853
G1 X27.367 Y-13.812 E49.37333
G1 X27.365 Y13.848 E50.37835
G1 X27.13 Y14.48 E50.40285
G1 X26.984 Y14.708 E50.41269
G1 X26.613 Y15.012 E50.43012
G1 X25.962 Y15.217 E50.45492
G0 F3600 X25.899 Y14.417
G1 F1200 X-15.926 Y14.415 E51.97463
G1 X-16.331 Y14.238 E51.99069
G1 X-16.427 Y14.134 E51.99583
G1 X-16.567 Y13.749 E52.01072
G1 X-16.568 Y-13.749 E53.00986
G1 X-16.428 Y-14.134 E53.02474
G1 X-16.332 Y-14.238 E53.02989
G1 X-15.927 Y-14.416 E53.04596
G1 X25.926 Y-14.415 E54.56669
G1 X26.331 Y-14.238 E54.58275
G1 X26.427 Y-14.134 E54.58789
G1 X26.567 Y-13.749 E54.60278
G1 X26.565 Y13.776 E55.6029
G1 X26.388 Y14.181 E55.61896
G1 X26.284 Y14.277 E55.6241
G1 X25.899 Y14.417 E55.63899
G0 F3600 X25.899 Y14.817
G1 F1200 X-15.926 Y14.815 E57.1587
G1 X-16.491 Y14.605 E57.1806
G1 X-16.625 Y14.509 E57.18659
G1 X-16.803 Y14.271 E57.19739
G1 X-16.967 Y13.749 E57.21727
G1 X-16.968 Y-13.749 E58.21641
G1 X-16.804 Y-14.271 E58.23629
G1 X-16.626 Y-14.509 E58.24709
G1 X-16.088 Y-14.782 E58.26901
G1 X-15.927 Y-14.816 E58.27499
G1 X25.926 Y-14.815 E59.79572
G1 X26.491 Y-14.605 E59.81762
G1 X26.625 Y-14.509 E59.82361
G1 X26.803 Y-14.271 E59.83441
G1 X26.967 Y-13.749 E59.85429
G1 X26.965 Y13.776 E60.85441
G1 X26.755 Y14.341 E60.87631
G1 X26.659 Y14.475 E60.8823
G1 X26.421 Y14.653 E60.8931
G1 X25.899 Y14.817 E60.91298
G1 F1500 E59.91298
G0 F3600 X-10.614 Y-7.889
G1 F3600 E61.62791
G1 F1200 X-10.752 Y-7.689 E61.63674
G1 X-10.926 Y-7.532 E61.64525
G1 X-11.143 Y-7.417 E61.65417
G1 X-11.371 Y-7.36 E61.66271
G1 X-11.613 Y-7.358 E61.67151
G1 X-11.846 Y-7.414 E61.68021
G1 X-12.06 Y-7.523 E61.68894
G1 X-12.239 Y-7.679 E61.69757
G1 X-12.38 Y-7.877 E61.7064
G1 X-12.47 Y-8.108 E61.71541
G1 X-12.498 Y-8.346 E61.72412
G1 X-12.469 Y-8.593 E61.73315
G1 X-12.382 Y-8.819 E61.74195
G1 X-12.24 Y-9.019 E61.75086
G1 X-12.057 Y-9.179 E61.7597
G1 X-11.845 Y-9.287 E61.76834
G1 X-11.613 Y-9.343 E61.77701
G1 X-11.37 Y-9.339 E61.78584
G1 X-11.142 Y-9.282 E61.79438
G1 X-10.925 Y-9.167 E61.80331
G1 X-10.751 Y-9.01 E61.81182
G1 X-10.613 Y-8.81 E61.82065
G1 X-10.529 Y-8.588 E61.82927
G1 X-10.502 Y-8.353 E61.83787
G1 X-10.531 Y-8.111 E61.84673
G1 X-10.614 Y-7.889 E61.85534
G0 F3600 X-10.972 Y-8.073
G1 F1200 X-10.922 Y-8.208 E61.86057
G1 X-10.92 Y-8.491 E61.87085
G1 X-10.97 Y-8.624 E61.87601
G1 X-11.158 Y-8.838 E61.88636
G1 X-11.284 Y-8.905 E61.89155
G1 X-11.568 Y-8.942 E61.90196
G1 X-11.832 Y-8.845 E61.91218
G1 X-12.027 Y-8.627 E61.9228
G1 X-12.078 Y-8.496 E61.92791
G1 X-12.079 Y-8.207 E61.93841
G1 X-12.025 Y-8.068 E61.94383
G1 X-11.832 Y-7.856 E61.95425
G1 X-11.567 Y-7.758 E61.96451
G1 X-11.285 Y-7.794 E61.97484
G1 X-11.159 Y-7.861 E61.98003
G1 X-10.972 Y-8.073 E61.9903
;MESH:3d_AI-on-the-edge_Cover.stl
G0 F3600 X-13.113 Y-8.348
G0 X-13.494 Y-9.266
;TYPE:WALL-INNER
G1 F1800 X-13.376 Y-9.487 E61.9994
G1 X-13.041 Y-9.911 E62.01904
G1 X-12.739 Y-10.166 E62.0334
G1 X-12.38 Y-10.362 E62.04826
G1 X-11.805 Y-10.526 E62.06999
G1 X-11.33 Y-10.536 E62.08725
G1 X-10.828 Y-10.439 E62.10583
G1 X-10.342 Y-10.216 E62.12526
G1 X-9.931 Y-9.888 E62.14436
G1 X-9.61 Y-9.475 E62.16337
