;FLAVOR:Marlin
;TIME:4643
;Filament used: 5.08004m
;Layer height: 0.24
;MINX:-24.831
;MINY:-44.061
;MINZ:0.3
;MAXX:28.537
;MAXY:16.075
;MAXZ:30.54
;Generated with Cura_SteamEngine 4.13.1
M140 S50
M105
M190 S50
M104 S215
M105
M109 S215
M82 ;absolute extrusion mode
;FLAVOR:Marlin
M82 ;absolute extrusion mode
G21
G90
M82
M107 T0
G28
G92 E0
G0 E3 F200
G92 E0 ; reset extrusion distance
M106 S255 ; Enable cooling fan full speed
G1 X-98 Y0 Z0.4 F3000 ; move to arc start
G3 X0 Y-98 I98 Z0.4 E40 F400 ; lay arc stripe 90deg
G92 E0 ; reset extrusion distance
G4 P500 ; wait for 0.5 sec
G0 Z10 E-1 ; Lift 15mm and retract 1mm filament
G4 P2000 ; wait for 5 sec
G0 Z15
M107 ; Disable cooling fan
G1 X0 Y-85 Z4 E0 F3000 ; get off the bed
G92 E0
G92 E0
G1 F1500 E-6.5
;LAYER_COUNT:128
;LAYER:0
M107
G1 F600 Z1.3
G0 F3600 X23.114 Y-24.319 Z1.3
;TYPE:SKIRT
G1 F600 Z0.3
G1 F1500 E0.12473
G1 F1350 X22.323 Y-25.678 E0.22828
G1 X21.007 Y-28.099 E0.40975
G1 X19.71 Y-30.66 E0.5988
G1 X18.538 Y-33.154 E0.78027
G1 X17.812 Y-34.819 E0.89989
G1 X17.591 Y-35.308 E0.93523
G1 X17.36 Y-35.729 E0.96685
G1 X17.032 Y-36.737 E1.03666
G1 X17.534 Y-36.184 E1.08585
G1 X17.945 Y-35.494 E1.13874
G1 X18.123 Y-35.1 E1.16721
G1 X18.892 Y-33.343 E1.29351
G1 X20.082 Y-30.81 E1.47781
G1 X21.348 Y-28.31 E1.66236
G1 X22.683 Y-25.851 E1.84662
G1 X23.745 Y-24.031 E1.98539
G1 X23.598 Y-24.098 E1.99603
G0 F1215 X23.114 Y-24.319
G0 F3600 X22.843 Y-23.99
G1 F1350 X21.977 Y-25.477 E2.10935
G1 X20.65 Y-27.918 E2.29232
G1 X19.353 Y-30.479 E2.48137
G1 X18.171 Y-32.994 E2.66438
G1 X17.446 Y-34.657 E2.78385
G1 X17.233 Y-35.13 E2.81801
G1 X16.997 Y-35.551 E2.8498
G1 X16.506 Y-37.061 E2.95436
G1 X16.103 Y-37.99 E3.02105
G1 X16.09 Y-38.01 E3.02262
G1 X16.659 Y-37.584 E3.06943
G1 X17.169 Y-37.16 E3.11311
G1 X17.537 Y-36.806 E3.14674
G1 X18.061 Y-36.12 E3.20358
G1 X18.307 Y-35.665 E3.23765
G1 X18.49 Y-35.26 E3.26692
G1 X19.256 Y-33.508 E3.39284
G1 X20.442 Y-30.985 E3.57643
G1 X21.702 Y-28.496 E3.76015
G1 X23.032 Y-26.047 E3.94368
G1 X24.44 Y-23.633 E4.12772
G1 X25.052 Y-22.659 E4.20347
G1 X24.354 Y-23.187 E4.26111
G1 X23.924 Y-23.484 E4.29553
G1 X23.336 Y-23.794 E4.3393
G0 F1215 X23.201 Y-23.865
G0 X22.843 Y-23.99
G0 F3600 X23.041 Y-23.497
G1 F1350 X22.571 Y-23.662 E4.37211
G1 X21.631 Y-25.276 E4.49511
G1 X20.293 Y-27.737 E4.67958
G1 X18.996 Y-30.298 E4.86863
G1 X17.804 Y-32.834 E5.05317
G1 X17.08 Y-34.495 E5.17249
G1 X16.875 Y-34.952 E5.20548
G1 X16.634 Y-35.374 E5.23748
G1 X16.131 Y-36.919 E5.34449
G1 X15.75 Y-37.798 E5.40758
G1 X15.306 Y-38.466 E5.4604
G1 X14.788 Y-39.052 E5.5119
G1 X14.23 Y-39.52 E5.55987
G1 X11.917 Y-41.189 E5.7477
G1 X12.546 Y-40.868 E5.79421
G1 X12.773 Y-40.741 E5.81134
G1 X13.341 Y-40.392 E5.85524
G1 X13.869 Y-40.046 E5.89681
G1 X14.702 Y-39.462 E5.96381
G1 X15.625 Y-38.825 E6.03766
G1 X16.531 Y-38.19 E6.11052
G1 X16.915 Y-37.892 E6.14253
G1 X17.425 Y-37.468 E6.18621
G1 X17.836 Y-37.073 E6.22375
G1 X18.171 Y-36.67 E6.25826
G1 X18.402 Y-36.33 E6.28533
G1 X18.669 Y-35.836 E6.32231
G1 X18.857 Y-35.42 E6.35237
G1 X19.62 Y-33.673 E6.47792
G1 X20.802 Y-31.16 E6.6608
G1 X22.056 Y-28.682 E6.8437
G1 X23.381 Y-26.243 E7.02649
G1 X24.782 Y-23.84 E7.20967
G1 X26.344 Y-21.356 E7.40291
G1 X26.645 Y-20.869 E7.44061
G1 X26.909 Y-20.362 E7.47826
G1 X27.111 Y-19.839 E7.51518
G1 X27.286 Y-19.088 E7.56596
G1 X27.337 Y-18.497 E7.60503
G1 X27.335 Y-18.372 E7.61326
G1 X27.287 Y-18.751 E7.63842
G1 X27.081 Y-19.505 E7.68989
G1 X26.768 Y-20.223 E7.74147
G1 X26.352 Y-20.886 E7.79302
G1 X25.847 Y-21.485 E7.84461
G1 X25.303 Y-21.967 E7.89248
G1 X24.12 Y-22.863 E7.99021
G1 X23.717 Y-23.141 E8.02245
G1 X23.511 Y-23.25 E8.0378
G0 F1215 X23.041 Y-23.497
G0 F3600 X22.881 Y-23.129
G1 F1350 X22.299 Y-23.334 E8.07843
G1 X21.285 Y-25.075 E8.21112
G1 X19.936 Y-27.556 E8.39709
G1 X18.639 Y-30.117 E8.58614
G1 X17.437 Y-32.674 E8.77221
G1 X16.714 Y-34.333 E8.89139
G1 X16.345 Y-35.087 E8.94667
G1 X16.271 Y-35.197 E8.9554
G1 X15.756 Y-36.777 E9.06484
G1 X15.397 Y-37.606 E9.12434
G1 X14.988 Y-38.222 E9.17303
G1 X14.508 Y-38.765 E9.22076
G1 X13.984 Y-39.204 E9.26578
G1 X11.372 Y-41.089 E9.4779
G1 X10.982 Y-41.342 E9.50852
G1 X10.346 Y-41.657 E9.55526
G1 X9.654 Y-41.88 E9.60314
G1 X8.938 Y-41.998 E9.65093
G1 X8.257 Y-42.013 E9.69578
G1 X2.41 Y-41.716 E10.08133
G1 X1.547 Y-41.588 E10.13879
G1 X0.846 Y-41.362 E10.18729
G1 X0.232 Y-41.06 E10.23236
G1 X-.124 Y-40.851 E10.25954
G1 X-2.109 Y-40.792 E10.39032
G1 X-6.027 Y-40.576 E10.64873
G1 X-6.665 Y-40.497 E10.69107
G1 X-7.365 Y-40.308 E10.73882
G1 X-8.03 Y-40.017 E10.78662
G1 X-8.076 Y-39.988 E10.7902
G1 X-8.77 Y-39.932 E10.83605
G1 X-9.301 Y-39.859 E10.87135
G1 X-9.991 Y-39.669 E10.91848
G1 X-10.655 Y-39.381 E10.96615
G1 X-11.072 Y-39.122 E10.99848
G1 X-11.552 Y-39.053 E11.03041
G1 X-12.232 Y-38.866 E11.07685
G1 X-12.895 Y-38.577 E11.12448
G1 X-13.428 Y-38.246 E11.1658
G1 X-14.08 Y-38.046 E11.21071
G1 X-14.736 Y-37.735 E11.25852
G1 X-15.303 Y-37.357 E11.3034
G1 X-18.231 Y-35.079 E11.54771
G1 X-18.783 Y-34.573 E11.59702
G1 X-19.24 Y-34.006 E11.64498
G1 X-19.606 Y-33.381 E11.69268
G1 X-19.865 Y-32.751 E11.73754
G1 X-20.785 Y-29.918 E11.9337
G1 X-20.98 Y-29.044 E11.99267
G1 X-21.016 Y-28.304 E12.04146
G1 X-20.944 Y-27.582 E12.08924
G1 X-20.782 Y-26.921 E12.13406
G1 X-20.548 Y-26.206 E12.1836
G1 X-20.55 Y-26.122 E12.18914
G1 X-20.676 Y-23.265 E12.37747
G1 X-20.688 Y-23.101 E12.3883
G1 X-21.114 Y-22.815 E12.42209
G1 X-21.758 Y-22.296 E12.47656
G1 X-22.249 Y-21.747 E12.52506
G1 X-22.649 Y-21.14 E12.57293
G1 X-22.958 Y-20.483 E12.62075
G1 X-23.153 Y-19.832 E12.6655
G1 X-23.459 Y-18.477 E12.75698
G1 X-23.549 Y-17.934 E12.79323
G1 X-23.573 Y-17.215 E12.84061
G1 X-23.491 Y-16.496 E12.88826
G1 X-23.318 Y-15.835 E12.93326
G1 X-23.349 Y-15.429 E12.96007
G1 X-23.33 Y-14.708 E13.00757
G1 X-23.217 Y-14.034 E13.05258
G1 X-23.148 Y-13.757 E13.07138
G1 X-23.205 Y-13.592 E13.08287
G1 X-23.405 Y-12.78 E13.13795
G1 X-23.463 Y-12.044 E13.18656
G1 X-23.417 Y-11.366 E13.23132
G1 X-23.303 Y-10.543 E13.28603
G1 X-23.333 Y-10.4 E13.29566
G1 X-23.379 Y-9.721 E13.34047
G1 X-23.365 Y-7.017 E13.51855
G1 X-23.321 Y-6.418 E13.5581
G1 X-23.252 Y-5.94 E13.58991
G1 X-23.396 Y-5.429 E13.62487
G1 X-23.487 Y-4.708 E13.67273
G1 X-23.478 Y-4.028 E13.71751
G1 X-23.371 Y-2.834 E13.79646
G1 X-23.32 Y-2.467 E13.82086
G1 X-23.378 Y-1.746 E13.86849
G1 X-23.332 Y-1.064 E13.91351
G1 X-23.264 Y-.572 E13.94622
G1 X-23.412 Y-0.045 E13.98227
G1 X-23.503 Y0.676 E14.03013
G1 X-23.494 Y1.356 E14.07491
G1 X-23.387 Y2.55 E14.15386
G1 X-23.318 Y2.91 E14.178
G1 X-23.349 Y3.161 E14.19465
G1 X-23.334 Y3.843 E14.23958
G1 X-23.254 Y4.663 E14.29383
G1 X-23.424 Y5.263 E14.3349
G1 X-23.516 Y5.98 E14.38251
G1 X-23.507 Y6.663 E14.42749
G1 X-23.404 Y7.821 E14.50405
G1 X-23.352 Y8.219 E14.53048
G1 X-23.228 Y8.717 E14.56428
G1 X-23.23 Y8.739 E14.56574
G1 X-23.188 Y9.478 E14.61448
G1 X-23.04 Y10.188 E14.66224
G1 X-22.791 Y10.87 E14.71006
G1 X-22.445 Y11.509 E14.75791
G1 X-22.01 Y12.088 E14.8056
G1 X-21.499 Y12.601 E14.85329
G1 X-21.303 Y12.764 E14.87007
G1 X-20.795 Y13.281 E14.91781
G1 X-20.218 Y13.719 E14.96551
G1 X-19.583 Y14.069 E15.01326
G1 X-18.904 Y14.326 E15.06107
G1 X-18.195 Y14.479 E15.10884
G1 X-17.472 Y14.529 E15.15657
G1 X-16.745 Y14.475 E15.20458
G1 X-16.082 Y14.324 E15.24936
G1 X-15.525 Y14.156 E15.28767
G1 X-14.874 Y14.52 E15.33679
G1 X-14.197 Y14.78 E15.38455
G1 X-13.488 Y14.94 E15.43241
G1 X-12.807 Y14.99 E15.47738
G1 X18.103 Y15.069 E17.51297
G1 X19.035 Y14.978 E17.57464
G1 X19.752 Y14.775 E17.62371
G1 X20.414 Y14.482 E17.67138
G1 X21.027 Y14.095 E17.71913
G1 X21.546 Y13.65 E17.76415
G1 X21.737 Y13.459 E17.78194
G1 X22.342 Y12.722 E17.84473
G1 X22.704 Y12.074 E17.89361
G1 X22.964 Y11.397 E17.94137
G1 X23.123 Y10.688 E17.98922
G1 X23.173 Y10.007 E18.03419
G1 X23.176 Y8.781 E18.11493
G1 X23.512 Y8.259 E18.15581
G1 X23.686 Y7.921 E18.18085
G1 X23.939 Y7.383 E18.22
G1 X24.139 Y6.835 E18.25841
G1 X24.327 Y6.219 E18.30083
G1 X24.395 Y5.852 E18.32541
G1 X24.486 Y5.256 E18.36511
G1 X24.509 Y4.922 E18.38716
G1 X24.516 Y4.187 E18.43557
G1 X24.495 Y-1.382 E18.80232
G1 X24.491 Y-3.254 E18.9256
G1 X24.492 Y-3.999 E18.97466
G1 X24.532 Y-10 E19.36986
G1 X24.561 Y-11.264 E19.45313
G1 X24.904 Y-11.558 E19.48288
G1 X25.383 Y-12.106 E19.53081
G1 X25.774 Y-12.716 E19.57852
G1 X26.056 Y-13.338 E19.6235
G1 X26.653 Y-14.951 E19.73677
G1 X26.864 Y-15.715 E19.78896
G1 X26.94 Y-16.401 E19.83442
G1 X26.984 Y-17.535 E19.90915
G1 X26.982 Y-17.97 E19.9378
G1 X26.894 Y-18.673 E19.98446
G1 X26.703 Y-19.372 E20.03218
G1 X26.413 Y-20.036 E20.07989
G1 X26.028 Y-20.65 E20.12762
G1 X25.56 Y-21.205 E20.17543
G1 X25.049 Y-21.657 E20.22036
G1 X23.886 Y-22.539 E20.31648
G1 X23.51 Y-22.798 E20.34655
G1 X23.352 Y-22.881 E20.3583
G0 F1215 X22.881 Y-23.129
G0 F3600 X22.721 Y-22.761
G1 F1350 X22.094 Y-22.982 E20.40208
G1 X22.034 Y-22.994 E20.40611
G1 X20.939 Y-24.874 E20.54939
G1 X19.579 Y-27.375 E20.73687
G1 X18.282 Y-29.936 E20.92592
G1 X17.07 Y-32.514 E21.11352
G1 X16.348 Y-34.171 E21.23255
G1 X16.003 Y-34.879 E21.28442
G1 X15.912 Y-35.008 E21.29481
G1 X15.382 Y-36.635 E21.4075
G1 X15.044 Y-37.414 E21.46342
G1 X14.67 Y-37.978 E21.50799
G1 X14.228 Y-38.478 E21.55194
G1 X13.738 Y-38.888 E21.59401
G1 X11.146 Y-40.759 E21.80453
G1 X10.784 Y-40.994 E21.83296
G1 X10.195 Y-41.285 E21.87622
G1 X9.559 Y-41.49 E21.92023
G1 X8.901 Y-41.599 E21.96415
G1 X8.263 Y-41.613 E22.00618
G1 X2.45 Y-41.317 E22.38949
G1 X1.638 Y-41.197 E22.44354
G1 X0.996 Y-40.99 E22.48796
G1 X0.422 Y-40.708 E22.53008
G1 X-0.011 Y-40.454 E22.56314
G1 X-2.091 Y-40.392 E22.70018
G1 X-5.991 Y-40.177 E22.9574
G1 X-6.588 Y-40.103 E22.99702
G1 X-7.232 Y-39.93 E23.04094
G1 X-7.843 Y-39.662 E23.08487
G1 X-7.948 Y-39.597 E23.09301
G1 X-8.727 Y-39.534 E23.14447
G1 X-9.22 Y-39.466 E23.17725
G1 X-9.858 Y-39.291 E23.22082
G1 X-10.469 Y-39.026 E23.26467
G1 X-10.936 Y-38.736 E23.30088
G1 X-11.469 Y-38.661 E23.33632
G1 X-12.098 Y-38.488 E23.37928
G1 X-12.709 Y-38.222 E23.42317
G1 X-13.25 Y-37.886 E23.46511
G1 X-13.311 Y-37.863 E23.4694
G1 X-13.935 Y-37.672 E23.51238
G1 X-14.538 Y-37.386 E23.55633
G1 X-15.069 Y-37.032 E23.59836
G1 X-17.973 Y-34.773 E23.84065
G1 X-18.49 Y-34.299 E23.88684
G1 X-18.91 Y-33.778 E23.93091
G1 X-19.247 Y-33.203 E23.9748
G1 X-19.489 Y-32.613 E24.0168
G1 X-20.399 Y-29.813 E24.21068
G1 X-20.582 Y-28.99 E24.26621
G1 X-20.615 Y-28.314 E24.31078
G1 X-20.549 Y-27.65 E24.35472
G1 X-20.397 Y-27.031 E24.3967
G1 X-20.146 Y-26.264 E24.44984
G1 X-20.15 Y-26.104 E24.46038
G1 X-20.276 Y-23.247 E24.64871
G1 X-20.303 Y-22.877 E24.67315
G1 X-20.877 Y-22.492 E24.71866
G1 X-21.482 Y-22.005 E24.76981
G1 X-21.931 Y-21.502 E24.81421
G1 X-22.299 Y-20.944 E24.85823
G1 X-22.583 Y-20.34 E24.90218
G1 X-22.766 Y-19.73 E24.94412
G1 X-23.066 Y-18.4 E25.03391
G1 X-23.15 Y-17.894 E25.06769
G1 X-23.172 Y-17.231 E25.11138
G1 X-23.097 Y-16.57 E25.15519
G1 X-22.935 Y-15.951 E25.19732
G1 X-22.896 Y-15.837 E25.20526
G1 X-22.948 Y-15.41 E25.23359
G1 X-22.931 Y-14.746 E25.27733
G1 X-22.825 Y-14.116 E25.3194
G1 X-22.731 Y-13.738 E25.34505
G1 X-22.821 Y-13.478 E25.36317
G1 X-23.009 Y-12.716 E25.41486
G1 X-23.062 Y-12.042 E25.45938
G1 X-23.019 Y-11.407 E25.50129
G1 X-22.897 Y-10.529 E25.55967
G1 X-22.936 Y-10.345 E25.57206
G1 X-22.979 Y-9.709 E25.61404
G1 X-22.965 Y-7.033 E25.79027
G1 X-22.923 Y-6.461 E25.82804
G1 X-22.844 Y-5.913 E25.8645
G1 X-23.003 Y-5.349 E25.90309
G1 X-23.087 Y-4.686 E25.9471
G1 X-23.078 Y-4.049 E25.98905
G1 X-22.974 Y-2.89 E26.06569
G1 X-22.901 Y-2.509 E26.09123
G1 X-22.923 Y-2.408 E26.09804
G1 X-22.977 Y-1.743 E26.14198
G1 X-22.934 Y-1.105 E26.18409
G1 X-22.856 Y-.544 E26.22139
G1 X-23.019 Y0.035 E26.261
G1 X-23.103 Y0.698 E26.30501
G1 X-23.094 Y1.335 E26.34697
G1 X-22.99 Y2.494 E26.4236
G1 X-22.913 Y2.896 E26.45055
G1 X-22.948 Y3.181 E26.46946
G1 X-22.934 Y3.819 E26.51149
G1 X-22.85 Y4.702 E26.5699
G1 X-23.031 Y5.343 E26.61377
G1 X-23.116 Y6.003 E26.65759
G1 X-23.107 Y6.642 E26.69968
G1 X-23.006 Y7.777 E26.77472
G1 X-22.958 Y8.145 E26.79916
G1 X-22.823 Y8.687 E26.83594
G1 X-22.829 Y8.747 E26.83991
G1 X-22.79 Y9.425 E26.88463
G1 X-22.654 Y10.078 E26.92856
G1 X-22.425 Y10.705 E26.97252
G1 X-22.107 Y11.293 E27.01654
G1 X-21.707 Y11.826 E27.06043
G1 X-21.237 Y12.298 E27.10429
G1 X-20.997 Y12.505 E27.12517
G1 X-20.53 Y12.98 E27.16903
G1 X-19.999 Y13.383 E27.21293
G1 X-19.415 Y13.705 E27.25685
G1 X-18.79 Y13.941 E27.30085
G1 X-18.139 Y14.082 E27.34471
G1 X-17.473 Y14.128 E27.38868
G1 X-16.805 Y14.078 E27.43279
G1 X-16.184 Y13.937 E27.47473
G1 X-15.513 Y13.735 E27.52088
G1 X-15.44 Y13.708 E27.526
G1 X-15.296 Y13.826 E27.53826
G1 X-14.704 Y14.157 E27.58293
G1 X-14.081 Y14.396 E27.62687
G1 X-13.429 Y14.543 E27.67089
G1 X-12.792 Y14.59 E27.71295
G1 X18.084 Y14.669 E29.7463
G1 X18.961 Y14.583 E29.80433
G1 X19.616 Y14.398 E29.84915
G1 X20.225 Y14.128 E29.89302
G1 X20.789 Y13.772 E29.93695
G1 X21.274 Y13.356 E29.97902
G1 X21.44 Y13.19 E29.99448
G1 X22.01 Y12.496 E30.05363
G1 X22.341 Y11.904 E30.09829
G1 X22.58 Y11.281 E30.14224
G1 X22.726 Y10.629 E30.18624
G1 X22.773 Y9.992 E30.2283
G1 X22.776 Y8.661 E30.31595
G1 X23.09 Y8.182 E30.35367
G1 X23.327 Y7.744 E30.38647
G1 X23.573 Y7.221 E30.42453
G1 X23.759 Y6.711 E30.46028
G1 X23.927 Y6.159 E30.49828
G1 X24.001 Y5.781 E30.52365
G1 X24.088 Y5.212 E30.56155
G1 X24.109 Y4.906 E30.58175
G1 X24.116 Y4.186 E30.62917
G1 X24.095 Y-1.38 E30.99572
G1 X24.091 Y-3.255 E31.1192
G1 X24.092 Y-4.002 E31.16839
G1 X24.132 Y-10.009 E31.56399
G1 X24.165 Y-11.451 E31.65898
G1 X24.622 Y-11.843 E31.69863
G1 X25.062 Y-12.347 E31.74269
G1 X25.422 Y-12.908 E31.78659
G1 X25.686 Y-13.49 E31.82868
G1 X26.272 Y-15.074 E31.9399
G1 X26.47 Y-15.791 E31.98889
G1 X26.541 Y-16.431 E32.03129
G1 X26.584 Y-17.542 E32.10451
G1 X26.582 Y-17.944 E32.13098
G1 X26.501 Y-18.595 E32.17419
G1 X26.325 Y-19.238 E32.21809
G1 X26.058 Y-19.849 E32.262
G1 X25.704 Y-20.414 E32.30591
G1 X25.273 Y-20.925 E32.34993
G1 X24.795 Y-21.347 E32.39192
G1 X23.652 Y-22.215 E32.48644
G1 X23.303 Y-22.455 E32.51433
G1 X23.192 Y-22.514 E32.52261
G0 F1215 X22.721 Y-22.761
G0 F3600 X22.561 Y-22.393
G1 F1350 X21.988 Y-22.595 E32.56262
G1 X21.779 Y-22.636 E32.57665
G1 X20.593 Y-24.673 E32.73188
G1 X19.222 Y-27.194 E32.92086
G1 X17.925 Y-29.755 E33.10991
G1 X16.703 Y-32.354 E33.29904
G1 X15.982 Y-34.009 E33.41793
G1 X15.661 Y-34.671 E33.46638
G1 X15.556 Y-34.81 E33.47785
G1 X15.008 Y-36.493 E33.59441
G1 X14.691 Y-37.222 E33.64676
G1 X14.352 Y-37.734 E33.6872
G1 X13.948 Y-38.19 E33.72732
G1 X13.492 Y-38.572 E33.7665
G1 X10.92 Y-40.429 E33.97541
G1 X10.586 Y-40.646 E34.00164
G1 X10.044 Y-40.913 E34.04143
G1 X9.464 Y-41.1 E34.08156
G1 X8.864 Y-41.2 E34.12162
G1 X8.269 Y-41.213 E34.16081
G1 X2.489 Y-40.918 E34.54195
G1 X1.729 Y-40.806 E34.59254
G1 X1.146 Y-40.618 E34.63288
G1 X0.612 Y-40.356 E34.67205
G1 X0.103 Y-40.057 E34.71093
G1 X-2.072 Y-39.992 E34.85423
G1 X-5.955 Y-39.778 E35.11033
G1 X-6.511 Y-39.709 E35.14723
G1 X-7.099 Y-39.551 E35.18732
G1 X-7.657 Y-39.307 E35.22743
G1 X-7.82 Y-39.206 E35.24006
G1 X-8.683 Y-39.136 E35.29708
G1 X-9.14 Y-39.073 E35.32746
G1 X-9.725 Y-38.913 E35.3674
G1 X-10.283 Y-38.671 E35.40745
G1 X-10.799 Y-38.35 E35.44747
G1 X-11.385 Y-38.269 E35.48643
G1 X-11.965 Y-38.11 E35.52603
G1 X-12.523 Y-37.867 E35.56612
G1 X-13.028 Y-37.553 E35.60528
G1 X-13.208 Y-37.476 E35.61817
G1 X-13.79 Y-37.298 E35.65825
G1 X-14.34 Y-37.037 E35.69834
G1 X-14.835 Y-36.707 E35.73752
G1 X-17.715 Y-34.467 E35.9778
G1 X-18.197 Y-34.025 E36.02086
G1 X-18.58 Y-33.55 E36.06105
G1 X-18.888 Y-33.025 E36.10113
G1 X-19.113 Y-32.475 E36.14027
G1 X-20.013 Y-29.708 E36.33188
