;FLAVOR:Marlin
;TIME:1363
;Filament used: 0.942685m
;Layer height: 0.2
;MINX:-51.559
;MINY:-83.369
;MINZ:0.3
;MAXX:15.1
;MAXY:-14.413
;MAXZ:15
;TARGET_MACHINE.NAME:Unknown
;Generated with Cura_SteamEngine 5.9.0
M140 S50
M105
M190 S50
M104 S220
M105
M109 S220
M82 ;absolute extrusion mode
;FLAVOR:Marlin
M82 ;absolute extrusion mode
G21
G90
M82
M107 T0
G28
G92 E0
G0 E3 F200
G92 E0 ; reset extrusion distance
M106 S255 ; Enable cooling fan full speed
G1 X-98 Y0 Z0.4 F3000 ; move to arc start
G3 X0 Y-98 I98 Z0.4 E40 F400 ; lay arc stripe 90deg
G92 E0 ; reset extrusion distance
G4 P500 ; wait for 0.5 sec
G0 Z10 E-1 ; Lift 15mm and retract 1mm filament
G4 P2000 ; wait for 5 sec
G0 Z15
M107 ; Disable cooling fan
G1 X0 Y-85 Z4 E0 F3000 ; get off the bed
G92 E0
G92 E0
G1 F1500 E-8
;LAYER_COUNT:49
;LAYER:0
M106 S102
G0 F1800 X-40.057 Y-14.502 Z0.3
;TYPE:SKIRT
G1 F3600 E0.71493
G1 F1200 X-41.041 Y-14.413 E0.76479
G1 X-42.171 Y-14.418 E0.82181
G1 X-42.98 Y-14.508 E0.86289
G1 X-44.448 Y-14.852 E0.93898
G1 X-45.335 Y-15.168 E0.9865
G1 X-46.399 Y-15.686 E1.04622
G1 X-47.043 Y-16.08 E1.08432
G1 X-47.862 Y-16.688 E1.13579
G1 X-48.405 Y-17.164 E1.17223
G1 X-49.111 Y-17.905 E1.22389
G1 X-49.603 Y-18.525 E1.26383
G1 X-50.213 Y-19.45 E1.31974
G1 X-50.743 Y-20.508 E1.37946
G1 X-51.144 Y-21.629 E1.43954
G1 X-51.362 Y-22.506 E1.48515
G1 X-51.503 Y-23.406 E1.53112
G1 X-51.559 Y-24.229 E1.57275
G1 X-51.538 Y-37.173 E2.22597
G1 X-51.404 Y-38.306 E2.28355
G1 X-51.192 Y-39.225 E2.33115
G1 X-50.624 Y-40.763 E2.41389
G1 X-50.117 Y-41.716 E2.46836
G1 X-49.519 Y-42.59 E2.5218
G1 X-48.844 Y-43.394 E2.57478
G1 X-48.377 Y-43.862 E2.60815
G1 X-47.556 Y-44.557 E2.66243
G1 X-47.026 Y-44.931 E2.69517
G1 X-46.096 Y-45.475 E2.74954
G1 X-45.412 Y-45.802 E2.7878
G1 X-43.818 Y-46.328 E2.87251
G1 X-42.974 Y-46.493 E2.91591
G1 X-41.5 Y-46.599 E2.99048
G1 X-40.695 Y-46.572 E3.03113
G1 X-39.985 Y-46.491 E3.06719
G1 X-38.928 Y-46.273 E3.12166
G1 X-38.064 Y-46.007 E3.16728
G1 X-37.134 Y-45.625 E3.21802
G1 X-36.032 Y-45.015 E3.28158
G1 X-34.866 Y-44.152 E3.35479
G1 X-34.152 Y-43.473 E3.40451
G1 X-33.308 Y-42.457 E3.47117
G1 X-32.828 Y-41.745 E3.5145
G1 X-32.167 Y-40.444 E3.58815
G1 X-31.692 Y-39.046 E3.66266
G1 X-31.438 Y-37.766 E3.72851
G1 X-31.379 Y-37.078 E3.76336
G1 X-31.366 Y-24.25 E4.41073
G1 X-31.531 Y-22.676 E4.4906
G1 X-31.832 Y-21.445 E4.55455
G1 X-32.139 Y-20.607 E4.59959
G1 X-32.773 Y-19.364 E4.67001
G1 X-33.238 Y-18.636 E4.7136
G1 X-33.653 Y-18.085 E4.74841
G1 X-34.842 Y-16.871 E4.83416
G1 X-35.623 Y-16.263 E4.88411
G1 X-36.472 Y-15.723 E4.93489
G1 X-37.359 Y-15.269 E4.98518
G1 X-38.236 Y-14.933 E5.03257
G1 X-39.29 Y-14.641 E5.08776
G1 X-40.057 Y-14.502 E5.1271
G0 F1800 X-40.128 Y-14.896
G1 F1200 X-41.04 Y-14.813 E5.17332
G1 X-42.127 Y-14.816 E5.22817
G1 X-42.936 Y-14.906 E5.26925
G1 X-44.315 Y-15.229 E5.34073
G1 X-45.16 Y-15.528 E5.38596
G1 X-46.224 Y-16.046 E5.44568
G1 X-46.805 Y-16.402 E5.48007
G1 X-47.598 Y-16.989 E5.52986
G1 X-48.141 Y-17.465 E5.5663
G1 X-48.798 Y-18.154 E5.61434
G1 X-49.27 Y-18.746 E5.65255
G1 X-49.855 Y-19.629 E5.706
G1 X-50.385 Y-20.687 E5.76572
G1 X-50.767 Y-21.763 E5.82334
G1 X-50.967 Y-22.569 E5.86525
G1 X-51.104 Y-23.434 E5.90945
G1 X-51.159 Y-24.228 E5.94961
G1 X-51.141 Y-37.127 E6.60057
G1 X-51.014 Y-38.216 E6.65589
G1 X-50.802 Y-39.135 E6.70349
G1 X-50.27 Y-40.576 E6.78101
G1 X-49.787 Y-41.49 E6.83318
G1 X-49.189 Y-42.364 E6.88662
G1 X-48.561 Y-43.111 E6.93587
G1 X-48.094 Y-43.579 E6.96924
G1 X-47.325 Y-44.23 E7.02008
G1 X-46.795 Y-44.604 E7.05282
G1 X-45.923 Y-45.114 E7.1038
G1 X-45.239 Y-45.441 E7.14206
G1 X-43.741 Y-45.935 E7.22166
G1 X-42.897 Y-46.1 E7.26506
G1 X-41.513 Y-46.199 E7.33508
G1 X-40.708 Y-46.172 E7.37573
G1 X-40.066 Y-46.099 E7.40833
G1 X-39.009 Y-45.881 E7.4628
G1 X-38.215 Y-45.637 E7.50472
G1 X-37.328 Y-45.275 E7.55306
G1 X-36.226 Y-44.665 E7.61663
G1 X-35.142 Y-43.862 E7.68471
G1 X-34.428 Y-43.183 E7.73443
G1 X-33.64 Y-42.233 E7.79672
G1 X-33.16 Y-41.521 E7.84005
G1 X-32.546 Y-40.315 E7.90835
G1 X-32.071 Y-38.917 E7.98286
G1 X-31.837 Y-37.732 E8.04382
G1 X-31.778 Y-37.044 E8.07866
G1 X-31.764 Y-24.291 E8.72225
G1 X-31.92 Y-22.77 E8.79941
G1 X-32.208 Y-21.583 E8.86105
G1 X-32.515 Y-20.745 E8.90609
G1 X-33.11 Y-19.579 E8.97215
G1 X-33.558 Y-18.877 E9.01417
G1 X-33.973 Y-18.326 E9.04899
G1 X-35.088 Y-17.187 E9.12942
G1 X-35.869 Y-16.579 E9.17937
G1 X-36.655 Y-16.079 E9.22638
G1 X-37.502 Y-15.643 E9.27446
G1 X-38.379 Y-15.307 E9.32185
G1 X-39.361 Y-15.035 E9.37328
G1 X-40.128 Y-14.896 E9.41261
G0 F1800 X-40.199 Y-15.29
G1 F1200 X-41.04 Y-15.213 E9.45523
G1 X-42.083 Y-15.214 E9.50787
G1 X-42.892 Y-15.304 E9.54895
G1 X-44.182 Y-15.606 E9.61581
G1 X-44.985 Y-15.888 E9.65876
G1 X-46.016 Y-16.388 E9.71658
G1 X-46.567 Y-16.724 E9.74915
G1 X-47.334 Y-17.29 E9.79725
G1 X-47.877 Y-17.766 E9.8337
G1 X-48.486 Y-18.404 E9.87821
G1 X-48.937 Y-18.968 E9.91465
G1 X-49.497 Y-19.808 E9.9656
G1 X-50.027 Y-20.866 E10.02531
G1 X-50.379 Y-21.86 E10.07853
G1 X-50.572 Y-22.632 E10.11869
G1 X-50.705 Y-23.462 E10.16111
G1 X-50.759 Y-24.228 E10.19986
G1 X-50.744 Y-37.081 E10.84849
G1 X-50.624 Y-38.126 E10.90157
G1 X-50.412 Y-39.045 E10.94917
G1 X-49.916 Y-40.39 E11.02151
G1 X-49.456 Y-41.265 E11.0714
G1 X-48.882 Y-42.107 E11.12283
G1 X-48.278 Y-42.828 E11.17029
G1 X-47.811 Y-43.296 E11.20366
G1 X-47.094 Y-43.903 E11.25107
G1 X-46.564 Y-44.277 E11.2838
G1 X-45.75 Y-44.753 E11.33139
G1 X-45.066 Y-45.08 E11.36965
G1 X-43.664 Y-45.542 E11.44414
G1 X-42.82 Y-45.707 E11.48754
G1 X-41.526 Y-45.799 E11.55301
G1 X-40.721 Y-45.772 E11.59366
G1 X-40.146 Y-45.707 E11.62286
G1 X-39.126 Y-45.498 E11.6754
G1 X-38.365 Y-45.266 E11.71555
G1 X-37.522 Y-44.925 E11.76144
G1 X-36.42 Y-44.315 E11.82501
G1 X-35.418 Y-43.572 E11.88796
G1 X-34.704 Y-42.893 E11.93768
G1 X-33.972 Y-42.009 E11.9956
G1 X-33.492 Y-41.297 E12.03894
G1 X-32.924 Y-40.185 E12.10195
G1 X-32.463 Y-38.839 E12.17375
G1 X-32.236 Y-37.698 E12.23246
G1 X-32.177 Y-37.01 E12.26731
G1 X-32.164 Y-24.291 E12.90918
G1 X-32.309 Y-22.864 E12.98156
G1 X-32.584 Y-21.721 E13.04089
G1 X-32.891 Y-20.883 E13.08593
G1 X-33.447 Y-19.794 E13.14763
G1 X-33.878 Y-19.118 E13.18809
G1 X-34.293 Y-18.567 E13.2229
G1 X-35.334 Y-17.503 E13.29802
G1 X-36.115 Y-16.895 E13.34797
G1 X-36.839 Y-16.434 E13.39129
G1 X-37.645 Y-16.017 E13.43708
G1 X-38.522 Y-15.681 E13.48448
G1 X-39.432 Y-15.429 E13.53213
G1 X-40.199 Y-15.29 E13.57147
G0 F1800 X-40.27 Y-15.684
G1 F1200 X-41.04 Y-15.613 E13.61049
G1 X-42.039 Y-15.612 E13.6609
G1 X-42.848 Y-15.702 E13.70198
G1 X-44.051 Y-15.984 E13.76434
G1 X-44.811 Y-16.248 E13.80494
G1 X-45.809 Y-16.73 E13.86087
G1 X-46.33 Y-17.046 E13.89162
G1 X-47.07 Y-17.591 E13.938
G1 X-47.613 Y-18.067 E13.97444
G1 X-48.174 Y-18.655 E14.01545
G1 X-48.604 Y-19.19 E14.05009
G1 X-49.164 Y-20.03 E14.10104
G1 X-49.669 Y-21.044 E14.15821
G1 X-49.991 Y-21.958 E14.20711
G1 X-50.177 Y-22.696 E14.24552
G1 X-50.306 Y-23.491 E14.28616
G1 X-50.359 Y-24.228 E14.32345
G1 X-50.346 Y-37.036 E14.96981
G1 X-50.234 Y-38.036 E15.02059
G1 X-50.022 Y-38.955 E15.06819
G1 X-49.561 Y-40.205 E15.13542
G1 X-49.125 Y-41.04 E15.18296
G1 X-48.551 Y-41.882 E15.23439
G1 X-47.995 Y-42.545 E15.27805
G1 X-47.528 Y-43.013 E15.31142
G1 X-46.863 Y-43.576 E15.35539
G1 X-46.333 Y-43.95 E15.38813
G1 X-45.577 Y-44.392 E15.43232
G1 X-44.893 Y-44.719 E15.47058
G1 X-43.587 Y-45.149 E15.53997
G1 X-42.743 Y-45.314 E15.58337
G1 X-41.539 Y-45.399 E15.64428
G1 X-40.765 Y-45.374 E15.68336
G1 X-40.226 Y-45.315 E15.71072
G1 X-39.242 Y-45.115 E15.7614
G1 X-38.514 Y-44.895 E15.79977
G1 X-37.716 Y-44.575 E15.84316
G1 X-36.614 Y-43.965 E15.90673
G1 X-35.693 Y-43.281 E15.96462
G1 X-35.012 Y-42.637 E16.01192
G1 X-34.304 Y-41.785 E16.06783
G1 X-33.824 Y-41.073 E16.11116
G1 X-33.281 Y-40.004 E16.17167
G1 X-32.855 Y-38.76 E16.23803
G1 X-32.635 Y-37.664 E16.29444
G1 X-32.576 Y-36.976 E16.32929
G1 X-32.564 Y-24.291 E16.96944
G1 X-32.698 Y-22.957 E17.0371
G1 X-32.96 Y-21.859 E17.09407
G1 X-33.267 Y-21.021 E17.1391
G1 X-33.784 Y-20.009 E17.19645
G1 X-34.198 Y-19.359 E17.23534
G1 X-34.613 Y-18.808 E17.27016
G1 X-35.58 Y-17.819 E17.33996
G1 X-36.361 Y-17.211 E17.38991
G1 X-37.024 Y-16.789 E17.42957
G1 X-37.788 Y-16.391 E17.47304
G1 X-38.665 Y-16.055 E17.52044
G1 X-39.503 Y-15.823 E17.56432
G1 X-40.27 Y-15.684 E17.60365
G0 F1800 X-40.307 Y-16.082
G1 F1200 X-41.041 Y-16.013 E17.64086
G1 X-41.995 Y-16.01 E17.689
G1 X-42.804 Y-16.1 E17.73008
G1 X-43.921 Y-16.362 E17.78798
G1 X-44.637 Y-16.608 E17.82619
G1 X-45.602 Y-17.073 E17.88025
G1 X-46.093 Y-17.369 E17.90918
G1 X-46.806 Y-17.892 E17.9538
G1 X-47.349 Y-18.368 E17.99024
G1 X-47.863 Y-18.906 E18.02779
G1 X-48.271 Y-19.412 E18.0606
G1 X-48.831 Y-20.252 E18.11154
G1 X-49.292 Y-21.178 E18.16375
G1 X-49.603 Y-22.056 E18.21075
G1 X-49.782 Y-22.761 E18.24746
G1 X-49.907 Y-23.52 E18.28628
G1 X-49.959 Y-24.228 E18.3221
G1 X-49.948 Y-36.993 E18.96629
G1 X-49.844 Y-37.946 E19.01467
G1 X-49.632 Y-38.865 E19.06227
G1 X-49.206 Y-40.021 E19.12444
G1 X-48.794 Y-40.815 E19.16958
G1 X-48.22 Y-41.657 E19.22101
G1 X-47.712 Y-42.262 E19.26088
G1 X-47.245 Y-42.73 E19.29424
G1 X-46.632 Y-43.249 E19.33477
G1 X-46.102 Y-43.623 E19.36751
G1 X-45.404 Y-44.031 E19.40831
G1 X-44.72 Y-44.358 E19.44657
G1 X-43.51 Y-44.756 E19.51085
G1 X-42.666 Y-44.921 E19.55425
G1 X-41.551 Y-44.999 E19.61066
G1 X-40.809 Y-44.976 E19.64812
G1 X-40.27 Y-44.917 E19.67548
G1 X-39.357 Y-44.732 E19.7225
G1 X-38.662 Y-44.523 E19.75912
G1 X-37.909 Y-44.224 E19.80001
G1 X-36.852 Y-43.643 E19.86088
G1 X-35.968 Y-42.99 E19.91634
G1 X-35.287 Y-42.346 E19.96364
G1 X-34.636 Y-41.561 E20.0151
G1 X-34.156 Y-40.849 E20.05844
G1 X-33.659 Y-39.873 E20.11371
G1 X-33.247 Y-38.681 E20.17736
G1 X-33.034 Y-37.63 E20.23147
G1 X-32.975 Y-36.942 E20.26632
G1 X-32.964 Y-24.291 E20.90476
G1 X-33.087 Y-23.049 E20.96774
G1 X-33.336 Y-21.997 E21.0223
G1 X-33.643 Y-21.159 E21.06734
G1 X-34.121 Y-20.224 E21.12033
G1 X-34.518 Y-19.6 E21.15766
G1 X-34.933 Y-19.049 E21.19247
G1 X-35.826 Y-18.134 E21.25699
G1 X-36.577 Y-17.548 E21.30506
G1 X-37.21 Y-17.143 E21.34298
G1 X-37.931 Y-16.765 E21.38407
G1 X-38.808 Y-16.429 E21.43146
G1 X-39.575 Y-16.216 E21.47163
G1 X-40.307 Y-16.082 E21.50919
G0 F1800 X-39.648 Y-16.609
G1 F1200 X-40.345 Y-16.48 E21.54496
G1 X-41.043 Y-16.413 E21.58035
G1 X-41.951 Y-16.408 E21.62617
G1 X-42.76 Y-16.498 E21.66725
G1 X-43.792 Y-16.741 E21.72075
G1 X-44.464 Y-16.969 E21.75656
G1 X-45.395 Y-17.416 E21.80868
G1 X-45.886 Y-17.712 E21.83761
G1 X-46.543 Y-18.193 E21.87871
G1 X-47.06 Y-18.645 E21.91336
G1 X-47.552 Y-19.158 E21.94923
G1 X-47.938 Y-19.634 E21.98016
G1 X-48.498 Y-20.474 E22.03111
G1 X-48.915 Y-21.312 E22.07834
G1 X-49.215 Y-22.155 E22.1235
G1 X-49.387 Y-22.827 E22.15851
G1 X-49.508 Y-23.55 E22.1955
G1 X-49.559 Y-24.228 E22.22981
G1 X-49.55 Y-36.951 E22.87188
G1 X-49.454 Y-37.856 E22.91781
G1 X-49.242 Y-38.775 E22.9654
G1 X-48.85 Y-39.838 E23.02258
G1 X-48.463 Y-40.59 E23.06526
G1 X-47.889 Y-41.432 E23.11669
G1 X-47.429 Y-41.979 E23.15275
G1 X-46.962 Y-42.447 E23.18612
G1 X-46.401 Y-42.922 E23.22322
G1 X-45.871 Y-43.296 E23.25595
G1 X-45.231 Y-43.67 E23.29336
G1 X-44.547 Y-43.997 E23.33162
G1 X-43.433 Y-44.363 E23.39079
G1 X-42.589 Y-44.528 E23.43419
G1 X-41.563 Y-44.599 E23.48609
G1 X-40.853 Y-44.578 E23.52194
G1 X-40.314 Y-44.519 E23.5493
G1 X-39.471 Y-44.349 E23.5927
G1 X-38.808 Y-44.151 E23.62762
G1 X-38.101 Y-43.873 E23.66596
G1 X-37.09 Y-43.321 E23.72409
G1 X-36.206 Y-42.668 E23.77955
G1 X-35.563 Y-42.056 E23.82435
G1 X-34.968 Y-41.337 E23.87145
G1 X-34.488 Y-40.625 E23.91478
G1 X-34.037 Y-39.741 E23.96486
G1 X-33.639 Y-38.601 E24.0258
G1 X-33.433 Y-37.596 E24.07757
G1 X-33.374 Y-36.908 E24.11242
G1 X-33.364 Y-24.291 E24.74914
G1 X-33.476 Y-23.14 E24.8075
G1 X-33.712 Y-22.135 E24.8596
G1 X-34.019 Y-21.297 E24.90463
G1 X-34.459 Y-20.438 E24.95334
G1 X-34.838 Y-19.841 E24.98903
G1 X-35.253 Y-19.29 E25.02384
G1 X-36.073 Y-18.449 E25.08311
G1 X-36.793 Y-17.885 E25.12927
G1 X-37.397 Y-17.497 E25.1655
G1 X-38.074 Y-17.139 E25.20415
G1 X-38.951 Y-16.803 E25.25154
G1 X-39.648 Y-16.609 E25.28805
G0 F1800 X-39.722 Y-17.002
G1 F1200 X-40.384 Y-16.878 E25.32204
G1 X-41.046 Y-16.813 E25.35561
G1 X-41.907 Y-16.806 E25.39906
G1 X-42.716 Y-16.896 E25.44014
G1 X-43.663 Y-17.12 E25.48925
G1 X-44.335 Y-17.348 E25.52506
G1 X-45.188 Y-17.759 E25.57284
G1 X-45.679 Y-18.055 E25.60178
G1 X-46.281 Y-18.495 E25.63941
G1 X-46.772 Y-18.922 E25.67224
G1 X-47.241 Y-19.41 E25.7064
G1 X-47.627 Y-19.886 E25.73733
G1 X-48.14 Y-20.653 E25.7839
G1 X-48.538 Y-21.447 E25.82872
G1 X-48.827 Y-22.254 E25.87198
G1 X-48.999 Y-22.926 E25.90698
G1 X-49.109 Y-23.581 E25.9405
G1 X-49.159 Y-24.228 E25.97325
G1 X-49.152 Y-36.91 E26.61325
G1 X-49.064 Y-37.766 E26.65667
G1 X-48.852 Y-38.685 E26.70427
G1 X-48.494 Y-39.655 E26.75645
G1 X-48.107 Y-40.407 E26.79913
G1 X-47.582 Y-41.175 E26.84608
G1 X-47.145 Y-41.697 E26.88043
G1 X-46.703 Y-42.142 E26.91208
G1 X-46.17 Y-42.595 E26.94738
G1 X-45.64 Y-42.969 E26.98012
G1 X-45.058 Y-43.309 E27.01414
G1 X-44.374 Y-43.636 E27.0524
G1 X-43.356 Y-43.97 E27.10646
G1 X-42.512 Y-44.135 E27.14986
G1 X-41.574 Y-44.199 E27.19731
G1 X-40.897 Y-44.18 E27.23149
G1 X-40.358 Y-44.121 E27.25885
G1 X-39.585 Y-43.966 E27.29864
G1 X-38.953 Y-43.778 E27.33191
G1 X-38.293 Y-43.522 E27.36764
G1 X-37.282 Y-42.97 E27.42577
G1 X-36.481 Y-42.377 E27.47606
G1 X-35.871 Y-41.8 E27.51844
G1 X-35.3 Y-41.113 E27.56352
G1 X-34.82 Y-40.401 E27.60685
G1 X-34.414 Y-39.608 E27.65181
G1 X-34.031 Y-38.52 E27.71002
G1 X-33.832 Y-37.562 E27.7594
G1 X-33.773 Y-36.874 E27.79424
G1 X-33.764 Y-24.291 E28.42925
G1 X-33.866 Y-23.23 E28.48304
G1 X-34.088 Y-22.273 E28.53262
G1 X-34.395 Y-21.435 E28.57766
G1 X-34.797 Y-20.652 E28.62207
G1 X-35.158 Y-20.082 E28.65612
G1 X-35.573 Y-19.531 E28.69093
G1 X-36.359 Y-18.729 E28.7476
G1 X-37.01 Y-18.221 E28.78928
G1 X-37.584 Y-17.851 E28.82374
G1 X-38.261 Y-17.493 E28.86239
G1 X-39.093 Y-17.177 E28.9073
G1 X-39.722 Y-17.002 E28.94025
G0 F1800 X-39.796 Y-17.395
G1 F1200 X-40.424 Y-17.276 E28.9725
G1 X-41.05 Y-17.213 E29.00426
G1 X-41.863 Y-17.204 E29.04529
G1 X-42.672 Y-17.294 E29.08636
G1 X-43.534 Y-17.499 E29.13108
G1 X-44.206 Y-17.727 E29.16689
G1 X-44.981 Y-18.102 E29.21034
G1 X-45.472 Y-18.398 E29.23927
G1 X-46.019 Y-18.797 E29.27344
G1 X-46.484 Y-19.2 E29.30449
G1 X-46.931 Y-19.663 E29.33697
G1 X-47.295 Y-20.109 E29.36602
G1 X-47.782 Y-20.832 E29.41001
G1 X-48.18 Y-21.626 E29.45484
G1 X-48.45 Y-22.388 E29.49563
G1 X-48.605 Y-22.993 E29.52715
G1 X-48.71 Y-23.613 E29.55888
G1 X-48.759 Y-24.228 E29.59002
G1 X-48.754 Y-36.87 E30.228
G1 X-48.674 Y-37.676 E30.26888
G1 X-48.462 Y-38.595 E30.31647
G1 X-48.138 Y-39.472 E30.36365
G1 X-47.751 Y-40.224 E30.40633
G1 X-47.275 Y-40.919 E30.44885
G1 X-46.861 Y-41.416 E30.48149
G1 X-46.443 Y-41.838 E30.51146
G1 X-45.938 Y-42.269 E30.54497
G1 X-45.438 Y-42.624 E30.57591
G1 X-44.885 Y-42.948 E30.60826
G1 X-44.201 Y-43.275 E30.64652
G1 X-43.279 Y-43.577 E30.69548
G1 X-42.435 Y-43.742 E30.73888
G1 X-41.585 Y-43.799 E30.78187
G1 X-40.941 Y-43.782 E30.81438
G1 X-40.402 Y-43.723 E30.84175
G1 X-39.698 Y-43.582 E30.87798
G1 X-39.098 Y-43.405 E30.90955
G1 X-38.438 Y-43.149 E30.94527
G1 X-37.519 Y-42.648 E30.99809
G1 X-36.756 Y-42.086 E31.04592
G1 X-36.146 Y-41.509 E31.08829
G1 X-35.632 Y-40.889 E31.12893
G1 X-35.152 Y-40.177 E31.17227
G1 X-34.771 Y-39.427 E31.21472
G1 X-34.422 Y-38.438 E31.26765
G1 X-34.231 Y-37.528 E31.31457
G1 X-34.172 Y-36.84 E31.34942
G1 X-34.164 Y-24.291 E31.98271
G1 X-34.256 Y-23.319 E32.03198
G1 X-34.464 Y-22.411 E32.07899
G1 X-34.771 Y-21.573 E32.12403
