;FLAVOR:Marlin
;TIME:1953
;Filament used: 2.99666m
;Layer height: 0.24
;MINX:-7.662
;MINY:-18.735
;MINZ:0.3
;MAXX:24.938
;MAXY:10.905
;MAXZ:55.78
;Generated with Cura_SteamEngine 4.13.1
M140 S50
M105
M190 S50
M104 S210
M105
M109 S210
M82 ;absolute extrusion mode
;FLAVOR:Marlin
M82 ;absolute extrusion mode
G21
G90
M82
M107 T0
G28
G92 E0
G0 E3 F200
G92 E0 ; reset extrusion distance
M106 S255 ; Enable cooling fan full speed
G1 X-98 Y0 Z0.4 F3000 ; move to arc start
G3 X0 Y-98 I98 Z0.4 E40 F400 ; lay arc stripe 90deg
G92 E0 ; reset extrusion distance
G4 P500 ; wait for 0.5 sec
G0 Z10 E-1 ; Lift 15mm and retract 1mm filament
G4 P2000 ; wait for 5 sec
G0 Z15
M107 ; Disable cooling fan
G1 X0 Y-85 Z4 E0 F3000 ; get off the bed
G92 E0
G92 E0
G1 F1500 E-6.5
;LAYER_COUNT:229
;LAYER:0
M107
G1 F600 Z1.3
G0 F3600 X-1.648 Y6.65 Z1.3
;TYPE:SKIRT
G1 F600 Z0.3
G1 F1500 E0.3326
G1 F2400 X-2.196 Y6.508 E0.36649
G1 X-2.936 Y6.234 E0.41373
G1 X-3.645 Y5.886 E0.46102
G1 X-4.316 Y5.468 E0.50835
G1 X-4.94 Y4.985 E0.55559
G1 X-5.513 Y4.442 E0.60285
G1 X-6.028 Y3.843 E0.65014
G1 X-6.479 Y3.195 E0.69741
G1 X-6.863 Y2.504 E0.74474
G1 X-7.175 Y1.779 E0.79199
G1 X-7.412 Y1.026 E0.83925
G1 X-7.571 Y0.252 E0.88656
G1 X-7.652 Y-.533 E0.9338
G1 X-7.662 Y-.935 E0.95788
G1 X-7.662 Y-10.935 E1.55656
G1 X-7.622 Y-11.724 E1.60386
G1 X-7.503 Y-12.504 E1.65109
G1 X-7.305 Y-13.269 E1.6984
G1 X-7.031 Y-14.009 E1.74564
G1 X-6.683 Y-14.718 E1.79293
G1 X-6.265 Y-15.389 E1.84026
G1 X-5.782 Y-16.013 E1.8875
G1 X-5.239 Y-16.586 E1.93476
G1 X-4.64 Y-17.101 E1.98205
G1 X-3.992 Y-17.552 E2.02932
G1 X-3.301 Y-17.936 E2.07665
G1 X-2.576 Y-18.248 E2.1239
G1 X-1.823 Y-18.485 E2.17116
G1 X-1.049 Y-18.644 E2.21846
G1 X-.264 Y-18.725 E2.26571
G1 X0.138 Y-18.735 E2.28979
G1 X17.138 Y-18.735 E3.30755
G1 X17.927 Y-18.695 E3.35484
G1 X18.707 Y-18.576 E3.40208
G1 X19.472 Y-18.378 E3.44939
G1 X20.212 Y-18.104 E3.49663
G1 X20.921 Y-17.756 E3.54391
G1 X21.592 Y-17.338 E3.59124
G1 X22.216 Y-16.855 E3.63848
G1 X22.789 Y-16.312 E3.68575
G1 X23.304 Y-15.713 E3.73304
G1 X23.755 Y-15.065 E3.7803
G1 X24.139 Y-14.374 E3.82763
G1 X24.451 Y-13.649 E3.87488
G1 X24.688 Y-12.896 E3.92215
G1 X24.847 Y-12.122 E3.96945
G1 X24.928 Y-11.337 E4.0167
G1 X24.938 Y-10.935 E4.04077
G1 X24.938 Y-.935 E4.63945
G1 X24.898 Y-.146 E4.68675
G1 X24.779 Y0.634 E4.73399
G1 X24.581 Y1.399 E4.7813
G1 X24.307 Y2.139 E4.82854
G1 X23.959 Y2.848 E4.87582
G1 X23.541 Y3.519 E4.92315
G1 X23.058 Y4.143 E4.97039
G1 X22.515 Y4.716 E5.01765
G1 X21.916 Y5.231 E5.06495
G1 X21.268 Y5.682 E5.11221
G1 X20.577 Y6.066 E5.15954
G1 X19.852 Y6.378 E5.20679
G1 X19.099 Y6.615 E5.25405
G1 X18.325 Y6.774 E5.30136
G1 X17.54 Y6.855 E5.34861
G1 X17.14 Y6.865 E5.37256
G1 X12.603 Y6.866 E5.64418
G1 X12.269 Y7.402 E5.68199
G1 X11.786 Y8.028 E5.72933
G1 X11.243 Y8.601 E5.77659
G1 X10.645 Y9.116 E5.82384
G1 X10.054 Y9.537 E5.86728
G1 X9.381 Y9.95 E5.91455
G1 X8.669 Y10.293 E5.96187
G1 X7.927 Y10.562 E6.00912
G1 X7.161 Y10.754 E6.0564
G1 X6.379 Y10.868 E6.10371
G1 X5.801 Y10.901 E6.13837
G1 X5.601 Y10.905 E6.15034
G1 X4.812 Y10.881 E6.1976
G1 X4.029 Y10.777 E6.24489
G1 X3.261 Y10.595 E6.29214
G1 X2.515 Y10.336 E6.33942
G1 X1.799 Y10.002 E6.38672
G1 X1.279 Y9.701 E6.42269
G1 X1.059 Y9.562 E6.43827
G1 X0.413 Y9.107 E6.48558
G1 X-.183 Y8.589 E6.53285
G1 X-.723 Y8.013 E6.58012
G1 X-1.203 Y7.386 E6.62739
G1 X-1.376 Y7.106 E6.6471
G0 F2160 X-1.617 Y6.714
G0 X-1.648 Y6.65
G0 F3600 X-1.313 Y6.433
G1 F2400 X-1.39 Y6.306 E6.65599
G1 X-2.133 Y6.108 E6.70202
G1 X-2.852 Y5.834 E6.74809
G1 X-3.538 Y5.487 E6.79411
G1 X-4.185 Y5.071 E6.84016
G1 X-4.785 Y4.59 E6.8862
G1 X-5.332 Y4.049 E6.93226
G1 X-5.82 Y3.454 E6.97833
G1 X-6.243 Y2.812 E7.02436
G1 X-6.598 Y2.129 E7.07044
G1 X-6.879 Y1.414 E7.11644
G1 X-7.085 Y0.672 E7.16254
G1 X-7.213 Y-0.086 E7.20856
G1 X-7.262 Y-.935 E7.25947
G1 X-7.262 Y-10.935 E7.85816
G1 X-7.222 Y-11.703 E7.9042
G1 X-7.103 Y-12.463 E7.95025
G1 X-6.905 Y-13.206 E7.99629
G1 X-6.631 Y-13.925 E8.04235
G1 X-6.284 Y-14.611 E8.08838
G1 X-5.868 Y-15.258 E8.13443
G1 X-5.387 Y-15.858 E8.18047
G1 X-4.846 Y-16.405 E8.22652
G1 X-4.251 Y-16.893 E8.2726
G1 X-3.609 Y-17.316 E8.31862
G1 X-2.926 Y-17.671 E8.36471
G1 X-2.211 Y-17.952 E8.4107
G1 X-1.469 Y-18.158 E8.4568
G1 X-.711 Y-18.286 E8.50282
G1 X0.138 Y-18.335 E8.55374
G1 X17.138 Y-18.335 E9.5715
G1 X17.906 Y-18.295 E9.61754
G1 X18.666 Y-18.176 E9.66359
G1 X19.409 Y-17.978 E9.70963
G1 X20.128 Y-17.704 E9.75569
G1 X20.814 Y-17.357 E9.80172
G1 X21.461 Y-16.941 E9.84777
G1 X22.061 Y-16.46 E9.89381
G1 X22.608 Y-15.919 E9.93987
G1 X23.096 Y-15.324 E9.98594
G1 X23.519 Y-14.682 E10.03196
G1 X23.874 Y-13.999 E10.07805
G1 X24.155 Y-13.284 E10.12404
G1 X24.361 Y-12.542 E10.17014
G1 X24.489 Y-11.784 E10.21617
G1 X24.538 Y-10.935 E10.26708
G1 X24.538 Y-.935 E10.86576
G1 X24.498 Y-.167 E10.9118
G1 X24.379 Y0.593 E10.95786
G1 X24.181 Y1.336 E11.00389
G1 X23.907 Y2.055 E11.04996
G1 X23.56 Y2.741 E11.09598
G1 X23.144 Y3.388 E11.14203
G1 X22.663 Y3.988 E11.18807
G1 X22.122 Y4.535 E11.23413
G1 X21.527 Y5.023 E11.2802
G1 X20.885 Y5.446 E11.32623
G1 X20.202 Y5.801 E11.37231
G1 X19.487 Y6.082 E11.4183
G1 X18.745 Y6.288 E11.46441
G1 X17.987 Y6.416 E11.51043
G1 X17.139 Y6.465 E11.56128
G1 X12.376 Y6.466 E11.84643
G1 X12.336 Y6.538 E11.85137
G1 X11.929 Y7.191 E11.89743
G1 X11.456 Y7.798 E11.9435
G1 X10.923 Y8.352 E11.98953
G1 X10.044 Y9.059 E12.05706
G1 X9.828 Y9.207 E12.07274
G1 X9.171 Y9.609 E12.11885
G1 X8.477 Y9.94 E12.16488
G1 X7.752 Y10.197 E12.21093
G1 X7.005 Y10.377 E12.25693
G1 X6.242 Y10.479 E12.30302
G1 X5.593 Y10.506 E12.34191
G1 X4.824 Y10.481 E12.38797
G1 X4.062 Y10.377 E12.43401
G1 X3.315 Y10.194 E12.48006
G1 X2.591 Y9.934 E12.52611
G1 X1.898 Y9.601 E12.57214
G1 X1.272 Y9.224 E12.61589
G1 X0.644 Y8.78 E12.66194
G1 X0.066 Y8.273 E12.70797
G1 X-.457 Y7.709 E12.75401
G1 X-.918 Y7.093 E12.80008
G1 X-1.04 Y6.889 E12.81431
G0 F2160 X-1.313 Y6.433
G0 F3600 X-1.347 Y5.906
G1 F2400 X-2.069 Y5.708 E12.85913
G1 X-2.765 Y5.435 E12.90389
G1 X-3.428 Y5.088 E12.94869
G1 X-4.051 Y4.673 E12.9935
G1 X-4.625 Y4.194 E13.03826
G1 X-5.146 Y3.657 E13.08305
G1 X-5.605 Y3.067 E13.12781
G1 X-6 Y2.431 E13.17263
G1 X-6.324 Y1.757 E13.2174
G1 X-6.574 Y1.052 E13.26218
G1 X-6.748 Y0.324 E13.30699
G1 X-6.843 Y-.418 E13.35178
G1 X-6.862 Y-.935 E13.38275
G1 X-6.862 Y-10.935 E13.98143
G1 X-6.822 Y-11.682 E14.02622
G1 X-6.703 Y-12.42 E14.07097
G1 X-6.505 Y-13.142 E14.11579
G1 X-6.232 Y-13.838 E14.16055
G1 X-5.885 Y-14.501 E14.20535
G1 X-5.47 Y-15.124 E14.25017
G1 X-4.991 Y-15.698 E14.29493
G1 X-4.454 Y-16.219 E14.33972
G1 X-3.864 Y-16.678 E14.38447
G1 X-3.228 Y-17.073 E14.4293
G1 X-2.554 Y-17.397 E14.47407
G1 X-1.849 Y-17.647 E14.51885
G1 X-1.121 Y-17.821 E14.56366
G1 X-.379 Y-17.916 E14.60845
G1 X0.138 Y-17.935 E14.63942
G1 X17.138 Y-17.935 E15.65718
G1 X17.885 Y-17.895 E15.70196
G1 X18.623 Y-17.776 E15.74672
G1 X19.345 Y-17.578 E15.79154
G1 X20.041 Y-17.305 E15.8363
G1 X20.704 Y-16.958 E15.8811
G1 X21.327 Y-16.543 E15.92591
G1 X21.901 Y-16.064 E15.97067
G1 X22.422 Y-15.527 E16.01547
G1 X22.881 Y-14.937 E16.06022
G1 X23.276 Y-14.301 E16.10504
G1 X23.6 Y-13.627 E16.14981
G1 X23.85 Y-12.922 E16.19459
G1 X24.024 Y-12.194 E16.23941
G1 X24.119 Y-11.452 E16.28419
G1 X24.138 Y-10.935 E16.31516
G1 X24.138 Y-.935 E16.91385
G1 X24.098 Y-.188 E16.95863
G1 X23.979 Y0.55 E17.00338
G1 X23.781 Y1.272 E17.04821
G1 X23.508 Y1.968 E17.09296
G1 X23.161 Y2.631 E17.13777
G1 X22.746 Y3.254 E17.18258
G1 X22.267 Y3.828 E17.22734
G1 X21.73 Y4.349 E17.27213
G1 X21.14 Y4.808 E17.31688
G1 X20.504 Y5.203 E17.36171
G1 X19.83 Y5.527 E17.40648
G1 X19.125 Y5.777 E17.45126
G1 X18.397 Y5.951 E17.49607
G1 X17.655 Y6.046 E17.54086
G1 X17.139 Y6.065 E17.57177
G1 X12.155 Y6.067 E17.87015
G1 X11.986 Y6.344 E17.88958
G1 X11.589 Y6.979 E17.93441
G1 X11.127 Y7.567 E17.97918
G1 X10.605 Y8.103 E18.02398
G1 X9.818 Y8.73 E18.08422
G1 X9.602 Y8.878 E18.09989
G1 X8.963 Y9.267 E18.14468
G1 X8.286 Y9.586 E18.18948
G1 X7.579 Y9.83 E18.23426
G1 X6.85 Y9.998 E18.27905
G1 X5.785 Y10.102 E18.34311
G1 X5.585 Y10.106 E18.35509
G1 X4.837 Y10.081 E18.39989
G1 X4.097 Y9.976 E18.44464
G1 X3.371 Y9.793 E18.48946
G1 X2.67 Y9.533 E18.53423
G1 X1.706 Y9.025 E18.59946
G1 X1.486 Y8.886 E18.61504
G1 X0.876 Y8.453 E18.65983
G1 X0.315 Y7.958 E18.70462
G1 X-.189 Y7.405 E18.74941
G1 X-.632 Y6.802 E18.79421
G1 X-.98 Y6.202 E18.83573
G0 F2160 X-1.007 Y6.155
G0 X-1.104 Y5.945
G0 X-1.347 Y5.906
G0 F3600 X-1.304 Y5.506
G1 F2400 X-2.003 Y5.308 E18.87923
G1 X-2.676 Y5.035 E18.92271
G1 X-3.315 Y4.69 E18.96618
G1 X-3.912 Y4.276 E19.00968
G1 X-4.46 Y3.8 E19.05313
G1 X-4.953 Y3.266 E19.09664
G1 X-5.383 Y2.681 E19.14011
G1 X-5.747 Y2.052 E19.18362
G1 X-6.04 Y1.387 E19.22712
G1 X-6.258 Y0.694 E19.27062
G1 X-6.398 Y-0.018 E19.31406
G1 X-6.462 Y-.935 E19.36909
G1 X-6.462 Y-10.935 E19.96778
G1 X-6.422 Y-11.66 E20.01125
G1 X-6.303 Y-12.377 E20.05476
G1 X-6.105 Y-13.076 E20.09825
G1 X-5.832 Y-13.749 E20.14173
G1 X-5.487 Y-14.388 E20.18521
G1 X-5.073 Y-14.985 E20.2287
G1 X-4.597 Y-15.533 E20.27216
G1 X-4.063 Y-16.026 E20.31567
G1 X-3.478 Y-16.456 E20.35914
G1 X-2.849 Y-16.82 E20.40264
G1 X-2.184 Y-17.113 E20.44615
G1 X-1.491 Y-17.331 E20.48964
G1 X-.779 Y-17.471 E20.53309
G1 X0.138 Y-17.535 E20.58812
G1 X17.138 Y-17.535 E21.60588
G1 X17.863 Y-17.495 E21.64935
G1 X18.58 Y-17.376 E21.69286
G1 X19.279 Y-17.178 E21.73636
G1 X19.952 Y-16.905 E21.77984
G1 X20.591 Y-16.56 E21.82331
G1 X21.188 Y-16.146 E21.86681
G1 X21.736 Y-15.67 E21.91026
G1 X22.229 Y-15.136 E21.95377
G1 X22.659 Y-14.551 E21.99724
G1 X23.023 Y-13.922 E22.04075
G1 X23.316 Y-13.257 E22.08425
G1 X23.534 Y-12.564 E22.12775
G1 X23.674 Y-11.852 E22.17119
G1 X23.738 Y-10.935 E22.22622
G1 X23.738 Y-.935 E22.8249
G1 X23.698 Y-.21 E22.86837
G1 X23.579 Y0.507 E22.91189
G1 X23.381 Y1.206 E22.95538
G1 X23.108 Y1.879 E22.99886
G1 X22.763 Y2.518 E23.04234
G1 X22.349 Y3.115 E23.08583
G1 X21.873 Y3.663 E23.12929
G1 X21.339 Y4.156 E23.1728
G1 X20.754 Y4.586 E23.21626
G1 X20.125 Y4.95 E23.25977
G1 X19.46 Y5.243 E23.30328
G1 X18.767 Y5.461 E23.34677
G1 X18.055 Y5.601 E23.39021
G1 X17.139 Y5.665 E23.44519
G1 X12.124 Y5.667 E23.74543
G1 X11.904 Y5.743 E23.75936
G1 X11.79 Y5.872 E23.76967
G1 X11.636 Y6.151 E23.78875
G1 X11.25 Y6.766 E23.83222
G1 X10.798 Y7.335 E23.87572
G1 X10.287 Y7.851 E23.9192
G1 X9.592 Y8.4 E23.97222
G1 X9.376 Y8.548 E23.9879
G1 X8.755 Y8.925 E24.03139
G1 X8.096 Y9.231 E24.07489
G1 X7.408 Y9.463 E24.11836
G1 X6.698 Y9.618 E24.16187
G1 X5.777 Y9.702 E24.21723
G1 X5.577 Y9.706 E24.22921
G1 X4.851 Y9.68 E24.2727
G1 X4.132 Y9.575 E24.3162
G1 X3.43 Y9.392 E24.35964
G1 X2.751 Y9.132 E24.40316
G1 X1.92 Y8.687 E24.4596
G1 X1.7 Y8.548 E24.47518
G1 X1.108 Y8.126 E24.5187
G1 X0.566 Y7.643 E24.56217
G1 X0.081 Y7.103 E24.60562
G1 X-.343 Y6.512 E24.64917
G1 X-.698 Y5.879 E24.69262
G1 X-.81 Y5.633 E24.7088
G0 F2160 X-.831 Y5.585
G0 X-1.304 Y5.506
G0 F3600 X-1.259 Y5.106
G1 F2400 X-1.934 Y4.908 E24.75091
G1 X-2.583 Y4.636 E24.79304
G1 X-3.197 Y4.291 E24.83521
G1 X-3.768 Y3.88 E24.87732
G1 X-4.289 Y3.406 E24.91949
G1 X-4.753 Y2.876 E24.96167
G1 X-5.153 Y2.297 E25.0038
G1 X-5.485 Y1.676 E25.04595
G1 X-5.745 Y1.022 E25.08809
G1 X-5.929 Y0.342 E25.13026
G1 X-6.035 Y-.354 E25.17241
G1 X-6.062 Y-.935 E25.20723
G1 X-6.062 Y-10.935 E25.80592
G1 X-6.022 Y-11.638 E25.84807
G1 X-5.903 Y-12.332 E25.89023
G1 X-5.705 Y-13.007 E25.93234
G1 X-5.433 Y-13.656 E25.97447
G1 X-5.088 Y-14.27 E26.01663
G1 X-4.677 Y-14.841 E26.05875
G1 X-4.203 Y-15.362 E26.10092
G1 X-3.673 Y-15.826 E26.14309
G1 X-3.094 Y-16.226 E26.18522
G1 X-2.473 Y-16.558 E26.22738
G1 X-1.819 Y-16.818 E26.26952
G1 X-1.139 Y-17.002 E26.31169
G1 X-.443 Y-17.108 E26.35384
G1 X0.138 Y-17.135 E26.38866
G1 X17.138 Y-17.135 E27.40642
G1 X17.841 Y-17.095 E27.44858
G1 X18.535 Y-16.976 E27.49073
G1 X19.21 Y-16.778 E27.53285
G1 X19.859 Y-16.506 E27.57497
G1 X20.473 Y-16.161 E27.61714
G1 X21.044 Y-15.75 E27.65926
G1 X21.565 Y-15.276 E27.70143
G1 X22.029 Y-14.746 E27.7436
G1 X22.429 Y-14.167 E27.78573
G1 X22.761 Y-13.546 E27.82789
G1 X23.021 Y-12.892 E27.87002
G1 X23.205 Y-12.212 E27.9122
G1 X23.311 Y-11.516 E27.95435
G1 X23.338 Y-10.935 E27.98917
G1 X23.338 Y-.935 E28.58785
G1 X23.298 Y-.232 E28.63
G1 X23.179 Y0.462 E28.67216
G1 X22.981 Y1.137 E28.71427
G1 X22.709 Y1.786 E28.7564
G1 X22.364 Y2.4 E28.79857
G1 X21.953 Y2.971 E28.84069
G1 X21.479 Y3.492 E28.88285
G1 X20.949 Y3.956 E28.92503
G1 X20.37 Y4.356 E28.96716
G1 X19.749 Y4.688 E29.00932
G1 X19.095 Y4.948 E29.05145
G1 X18.415 Y5.132 E29.09362
G1 X17.719 Y5.238 E29.13577
G1 X17.139 Y5.265 E29.17053
G1 X12.111 Y5.267 E29.47155
G1 X11.781 Y5.352 E29.49195
G1 X11.545 Y5.53 E29.50965
G1 X11.286 Y5.957 E29.53955
G1 X10.91 Y6.553 E29.58174
G1 X10.47 Y7.102 E29.62386
G1 X9.97 Y7.598 E29.66602
G1 X9.365 Y8.07 E29.71196
G1 X9.149 Y8.218 E29.72764
G1 X8.547 Y8.582 E29.76975
G1 X7.907 Y8.876 E29.81192
G1 X7.238 Y9.095 E29.85406
G1 X6.549 Y9.237 E29.89618
G1 X5.769 Y9.302 E29.94304
G1 X5.569 Y9.306 E29.95501
G1 X4.865 Y9.28 E29.99719
G1 X4.169 Y9.174 E30.03934
G1 X3.49 Y8.991 E30.08144
G1 X2.835 Y8.731 E30.12363
G1 X2.133 Y8.348 E30.17151
G1 X1.913 Y8.209 E30.18709
G1 X1.341 Y7.8 E30.22918
G1 X0.818 Y7.329 E30.27132
G1 X0.352 Y6.801 E30.31348
G1 X-0.051 Y6.224 E30.35562
G1 X-.51 Y5.324 E30.4161
G1 X-.565 Y5.225 E30.42288
G1 X-.735 Y5.195 E30.43322
G0 F2160 X-1.259 Y5.106
G0 F3600 X-1.212 Y4.706
G1 F2400 X-1.864 Y4.509 E30.47399
G1 X-2.488 Y4.237 E30.51475
G1 X-3.076 Y3.893 E30.55553
G1 X-3.62 Y3.483 E30.59631
G1 X-4.111 Y3.012 E30.63705
G1 X-4.545 Y2.487 E30.67783
G1 X-4.914 Y1.915 E30.71858
G1 X-5.213 Y1.303 E30.75936
G1 X-5.438 Y0.661 E30.80008
G1 X-5.587 Y-0.004 E30.84088
G1 X-5.662 Y-.935 E30.8968
G1 X-5.662 Y-10.935 E31.49548
G1 X-5.622 Y-11.615 E31.53626
G1 X-5.503 Y-12.285 E31.577
G1 X-5.306 Y-12.937 E31.61778
G1 X-5.034 Y-13.561 E31.65853
G1 X-4.69 Y-14.149 E31.69932
G1 X-4.28 Y-14.693 E31.7401
G1 X-3.809 Y-15.184 E31.78083
G1 X-3.284 Y-15.618 E31.82161
G1 X-2.712 Y-15.987 E31.86237
G1 X-2.1 Y-16.286 E31.90314
G1 X-1.458 Y-16.511 E31.94387
G1 X-.793 Y-16.66 E31.98467
G1 X0.138 Y-16.735 E32.04059
G1 X17.138 Y-16.735 E33.05835
G1 X17.818 Y-16.695 E33.09913
G1 X18.488 Y-16.576 E33.13987
G1 X19.14 Y-16.379 E33.18065
G1 X19.764 Y-16.107 E33.2214
G1 X20.352 Y-15.763 E33.26218
G1 X20.896 Y-15.353 E33.30297
G1 X21.387 Y-14.882 E33.3437
G1 X21.821 Y-14.357 E33.38448
G1 X22.19 Y-13.785 E33.42523
G1 X22.489 Y-13.173 E33.46601
G1 X22.714 Y-12.531 E33.50674
G1 X22.863 Y-11.866 E33.54754
G1 X22.938 Y-10.935 E33.60345
G1 X22.938 Y-.935 E34.20214
G1 X22.898 Y-.255 E34.24292
G1 X22.779 Y0.415 E34.28366
G1 X22.582 Y1.067 E34.32443
G1 X22.31 Y1.691 E34.36519
G1 X21.966 Y2.279 E34.40597
G1 X21.556 Y2.823 E34.44675
G1 X21.085 Y3.314 E34.48749
G1 X20.56 Y3.748 E34.52827
G1 X19.988 Y4.117 E34.56902
G1 X19.376 Y4.416 E34.6098
G1 X18.734 Y4.641 E34.65052
G1 X18.069 Y4.79 E34.69132
G1 X17.139 Y4.865 E34.74718
G1 X12.178 Y4.866 E35.04419
G1 X11.79 Y4.919 E35.06763
G1 X11.434 Y5.096 E35.09143
G1 X11.179 Y5.347 E35.11286
G1 X10.936 Y5.763 E35.1417
G1 X10.572 Y6.339 E35.18249
G1 X10.143 Y6.867 E35.22322
G1 X9.655 Y7.342 E35.26399
G1 X9.139 Y7.74 E35.30301
G1 X8.923 Y7.888 E35.31868
G1 X8.34 Y8.239 E35.35942
G1 X7.72 Y8.519 E35.40015
G1 X7.071 Y8.725 E35.44091
G1 X6.402 Y8.853 E35.48169
G1 X5.761 Y8.902 E35.52018
G1 X5.561 Y8.906 E35.53216
G1 X4.881 Y8.879 E35.5729
G1 X4.208 Y8.774 E35.61368
G1 X3.552 Y8.59 E35.65447
G1 X2.923 Y8.33 E35.69521
G1 X2.347 Y8.01 E35.73466
G1 X2.127 Y7.871 E35.75024
G1 X1.574 Y7.474 E35.791
