;FLAVOR:Marlin
;TIME:3450
;Filament used: 4.11914m
;Layer height: 0.24
;MINX:15.195
;MINY:-22.043
;MINZ:0.3
;MAXX:57.347
;MAXY:4.807
;MAXZ:31.06
;Generated with Cura_SteamEngine 4.13.1
M140 S50
M105
M190 S50
M104 S215
M105
M109 S215
M82 ;absolute extrusion mode
;FLAVOR:Marlin
M82 ;absolute extrusion mode
G21
G90
M82
M107 T0
G28
G92 E0
G0 E3 F200
G92 E0 ; reset extrusion distance
M106 S255 ; Enable cooling fan full speed
G1 X-98 Y0 Z0.4 F3000 ; move to arc start
G3 X0 Y-98 I98 Z0.4 E40 F400 ; lay arc stripe 90deg
G92 E0 ; reset extrusion distance
G4 P500 ; wait for 0.5 sec
G0 Z10 E-1 ; Lift 15mm and retract 1mm filament
G4 P2000 ; wait for 5 sec
G0 Z15
M107 ; Disable cooling fan
G1 X0 Y-85 Z4 E0 F3000 ; get off the bed
G92 E0
G92 E0
G1 F1500 E-8
;LAYER_COUNT:125
;LAYER:0
M107
G1 F600 Z1.3
G0 F3600 X15.197 Y0.857 Z1.3
;TYPE:SKIRT
G1 F600 Z0.3
G1 F1500 E0.24945
G1 X15.195 Y-16.074 E1.26308
G1 X15.197 Y-18.098 E1.38425
G1 X15.237 Y-18.647 E1.41721
G1 X15.357 Y-19.185 E1.45021
G1 X15.553 Y-19.7 E1.4832
G1 X15.822 Y-20.181 E1.51619
G1 X16.157 Y-20.619 E1.54921
G1 X16.552 Y-21.003 E1.58219
G1 X16.998 Y-21.326 E1.61515
G1 X17.664 Y-21.662 E1.65981
G1 X18.181 Y-21.852 E1.69279
G1 X18.685 Y-21.961 E1.72366
G1 X18.973 Y-22.003 E1.74108
G1 X19.521 Y-22.043 E1.77398
G1 X53.028 Y-22.043 E3.77999
G1 X53.59 Y-22.001 E3.81373
G1 X53.871 Y-21.959 E3.83073
G1 X54.408 Y-21.839 E3.86368
G1 X54.89 Y-21.656 E3.89454
G1 X55.126 Y-21.548 E3.91008
G1 X55.609 Y-21.283 E3.94306
G1 X56.049 Y-20.951 E3.97606
G1 X56.436 Y-20.559 E4.00904
G1 X56.762 Y-20.115 E4.04202
G1 X57.021 Y-19.629 E4.07499
G1 X57.206 Y-19.11 E4.10798
G1 X57.315 Y-18.57 E4.14096
G1 X57.345 Y-18.093 E4.16957
G1 X57.347 Y-1.162 E5.1832
G1 X57.345 Y0.861 E5.30431
G1 X57.305 Y1.41 E5.33727
G1 X57.185 Y1.948 E5.37027
G1 X56.989 Y2.463 E5.40326
G1 X56.72 Y2.944 E5.43625
G1 X56.385 Y3.382 E5.46926
G1 X55.99 Y3.766 E5.50225
G1 X55.544 Y4.089 E5.53521
G1 X54.89 Y4.42 E5.5791
G1 X54.374 Y4.613 E5.61208
G1 X53.857 Y4.725 E5.64375
G1 X53.569 Y4.767 E5.66117
G1 X53.021 Y4.807 E5.69407
G1 X19.514 Y4.807 E7.70007
G1 X18.952 Y4.765 E7.73381
G1 X18.671 Y4.723 E7.75082
G1 X18.134 Y4.603 E7.78376
G1 X17.652 Y4.42 E7.81463
G1 X17.416 Y4.312 E7.83017
G1 X16.933 Y4.047 E7.86315
G1 X16.493 Y3.715 E7.89615
G1 X16.106 Y3.323 E7.92913
G1 X15.78 Y2.879 E7.96211
G1 X15.521 Y2.393 E7.99508
G1 X15.336 Y1.874 E8.02806
G1 X15.237 Y1.388 E8.05776
G0 F1350 X15.227 Y1.334
G0 X15.197 Y0.857
G0 F3600 X15.597 Y0.857
G1 F1500 X15.595 Y-16.073 E9.07133
G1 X15.597 Y-18.097 E9.1925
G1 X15.637 Y-18.617 E9.22372
G1 X15.757 Y-19.124 E9.25491
G1 X15.952 Y-19.607 E9.2861
G1 X16.219 Y-20.055 E9.31732
G1 X16.552 Y-20.456 E9.34853
G1 X16.941 Y-20.802 E9.3797
G1 X17.593 Y-21.191 E9.42515
G1 X17.829 Y-21.298 E9.44066
G1 X18.319 Y-21.476 E9.47187
G1 X19.03 Y-21.607 E9.51516
G1 X19.521 Y-21.643 E9.54463
G1 X53.028 Y-21.643 E11.55064
G1 X53.531 Y-21.606 E11.58083
G1 X53.812 Y-21.564 E11.59784
G1 X54.32 Y-21.447 E11.62905
G1 X54.96 Y-21.185 E11.67045
G1 X55.416 Y-20.932 E11.70167
G1 X55.828 Y-20.613 E11.73287
G1 X56.186 Y-20.234 E11.76408
G1 X56.482 Y-19.806 E11.79523
G1 X56.709 Y-19.337 E11.82643
G1 X56.862 Y-18.838 E11.85768
G1 X56.945 Y-18.093 E11.90255
G1 X56.947 Y-1.163 E12.91612
G1 X56.945 Y0.86 E13.03724
G1 X56.905 Y1.38 E13.06846
G1 X56.785 Y1.887 E13.09965
G1 X56.59 Y2.37 E13.13084
G1 X56.323 Y2.818 E13.16206
G1 X55.99 Y3.219 E13.19326
G1 X55.601 Y3.565 E13.22443
G1 X54.96 Y3.949 E13.26917
G1 X54.724 Y4.057 E13.2847
G1 X54.235 Y4.237 E13.3159
G1 X53.512 Y4.371 E13.35992
G1 X53.021 Y4.407 E13.3894
G1 X19.514 Y4.407 E15.3954
G1 X19.011 Y4.37 E15.4256
G1 X18.73 Y4.328 E15.44261
G1 X18.222 Y4.211 E15.47382
G1 X17.582 Y3.949 E15.51522
G1 X17.126 Y3.696 E15.54644
G1 X16.714 Y3.377 E15.57763
G1 X16.356 Y2.998 E15.60885
G1 X16.06 Y2.57 E15.64
G1 X15.833 Y2.101 E15.67119
G1 X15.68 Y1.602 E15.70244
G1 X15.655 Y1.386 E15.71546
G0 F1350 X15.597 Y0.857
G0 F3600 X15.997 Y0.857
G1 F1500 X15.995 Y-16.073 E16.72903
G1 X15.997 Y-18.097 E16.8502
G1 X16.037 Y-18.585 E16.87952
G1 X16.157 Y-19.06 E16.90885
G1 X16.351 Y-19.509 E16.93813
G1 X16.617 Y-19.92 E16.96744
G1 X16.945 Y-20.283 E16.99673
G1 X17.329 Y-20.587 E17.02605
G1 X17.994 Y-20.933 E17.07093
G1 X18.455 Y-21.098 E17.10024
G1 X19.088 Y-21.212 E17.13875
G1 X19.521 Y-21.243 E17.16474
G1 X53.028 Y-21.243 E19.17074
G1 X53.752 Y-21.168 E19.21432
G1 X54.229 Y-21.056 E19.24365
G1 X54.793 Y-20.821 E19.28023
G1 X55.22 Y-20.582 E19.30953
G1 X55.603 Y-20.276 E19.33888
G1 X55.93 Y-19.912 E19.36817
G1 X56.194 Y-19.5 E19.39747
G1 X56.388 Y-19.051 E19.42675
G1 X56.506 Y-18.576 E19.45605
G1 X56.545 Y-18.093 E19.48506
G1 X56.547 Y-1.163 E20.49863
G1 X56.545 Y0.86 E20.61975
G1 X56.505 Y1.348 E20.64906
G1 X56.385 Y1.823 E20.67839
G1 X56.191 Y2.272 E20.70767
G1 X55.925 Y2.683 E20.73698
G1 X55.597 Y3.046 E20.76627
G1 X55.213 Y3.35 E20.79559
G1 X54.557 Y3.693 E20.83991
G1 X54.097 Y3.86 E20.86921
G1 X53.454 Y3.976 E20.90833
G1 X53.021 Y4.007 E20.93432
G1 X19.514 Y4.007 E22.94032
G1 X18.79 Y3.932 E22.9839
G1 X18.313 Y3.82 E23.01323
G1 X17.749 Y3.585 E23.04981
G1 X17.322 Y3.346 E23.07911
G1 X16.939 Y3.04 E23.10846
G1 X16.612 Y2.676 E23.13775
G1 X16.348 Y2.264 E23.16704
G1 X16.154 Y1.815 E23.19633
G1 X16.047 Y1.386 E23.2228
G0 F1350 X16.036 Y1.34
G0 X15.997 Y0.857
G0 F3600 X16.397 Y0.857
G1 F1500 X16.395 Y-16.073 E24.23637
G1 X16.397 Y-18.097 E24.35754
G1 X16.437 Y-18.55 E24.38477
G1 X16.556 Y-18.99 E24.41205
G1 X16.75 Y-19.403 E24.43937
G1 X17.013 Y-19.775 E24.46665
G1 X17.337 Y-20.095 E24.49391
G1 X17.923 Y-20.462 E24.53531
G1 X18.589 Y-20.72 E24.57806
G1 X19.146 Y-20.816 E24.6119
G1 X19.521 Y-20.843 E24.63441
G1 X53.028 Y-20.843 E26.64042
G1 X53.693 Y-20.772 E26.68046
G1 X54.391 Y-20.565 E26.72404
G1 X55.023 Y-20.232 E26.76681
G1 X55.374 Y-19.941 E26.79411
G1 X55.668 Y-19.594 E26.82133
G1 X55.898 Y-19.2 E26.84865
G1 X56.055 Y-18.772 E26.87594
G1 X56.145 Y-18.093 E26.91695
G1 X56.147 Y-1.163 E27.93052
G1 X56.145 Y0.86 E28.05163
G1 X56.105 Y1.313 E28.07886
G1 X55.986 Y1.753 E28.10614
G1 X55.792 Y2.166 E28.13346
G1 X55.529 Y2.538 E28.16074
G1 X55.205 Y2.858 E28.188
G1 X54.627 Y3.221 E28.22886
G1 X53.962 Y3.482 E28.27163
G1 X53.396 Y3.58 E28.30602
G1 X53.021 Y3.607 E28.32853
G1 X19.514 Y3.607 E30.33453
G1 X18.849 Y3.536 E30.37457
G1 X18.151 Y3.329 E30.41816
G1 X17.519 Y2.996 E30.46093
G1 X17.168 Y2.705 E30.48822
G1 X16.874 Y2.358 E30.51545
G1 X16.644 Y1.964 E30.54277
G1 X16.487 Y1.536 E30.57006
G1 X16.467 Y1.385 E30.57918
G0 F1350 X16.397 Y0.857
G0 F3600 X16.797 Y0.857
G1 F1500 X16.795 Y-16.072 E31.59269
G1 X16.797 Y-18.096 E31.71386
G1 X16.837 Y-18.513 E31.73894
G1 X16.956 Y-18.915 E31.76404
G1 X17.149 Y-19.287 E31.78913
G1 X17.409 Y-19.616 E31.81423
G1 X17.726 Y-19.89 E31.83932
G1 X18.325 Y-20.205 E31.87984
G1 X18.916 Y-20.378 E31.9167
G1 X19.521 Y-20.443 E31.95313
G1 X53.028 Y-20.443 E33.95914
G1 X53.634 Y-20.377 E33.99563
G1 X54.224 Y-20.201 E34.03249
G1 X54.823 Y-19.884 E34.07307
G1 X55.14 Y-19.609 E34.09819
G1 X55.398 Y-19.279 E34.12327
G1 X55.589 Y-18.906 E34.14836
G1 X55.706 Y-18.504 E34.17342
G1 X55.745 Y-18.093 E34.19814
G1 X55.747 Y-1.164 E35.21165
G1 X55.745 Y0.859 E35.33276
G1 X55.705 Y1.276 E35.35784
G1 X55.586 Y1.678 E35.38294
G1 X55.393 Y2.05 E35.40803
G1 X55.133 Y2.379 E35.43313
G1 X54.816 Y2.653 E35.45822
G1 X54.224 Y2.965 E35.49828
G1 X53.626 Y3.142 E35.53562
G1 X53.021 Y3.207 E35.57205
G1 X19.514 Y3.207 E37.57805
G1 X18.908 Y3.141 E37.61455
G1 X18.318 Y2.965 E37.65141
G1 X17.719 Y2.648 E37.69198
G1 X17.402 Y2.373 E37.71711
G1 X17.144 Y2.043 E37.74218
G1 X16.953 Y1.67 E37.76727
G1 X16.869 Y1.383 E37.78518
G0 F1350 X16.836 Y1.268
G0 X16.797 Y0.857
G0 F3600 X17.197 Y0.857
G1 F1500 X17.195 Y-16.072 E38.79868
G1 X17.197 Y-18.096 E38.91986
G1 X17.237 Y-18.473 E38.94256
G1 X17.356 Y-18.833 E38.96525
G1 X17.547 Y-19.16 E38.98793
G1 X17.802 Y-19.44 E39.0106
G1 X18.254 Y-19.733 E39.04285
G1 X18.49 Y-19.84 E39.05836
G1 X18.973 Y-19.982 E39.0885
G1 X19.521 Y-20.043 E39.12151
G1 X53.028 Y-20.043 E41.12752
G1 X53.575 Y-19.981 E41.16047
G1 X54.058 Y-19.838 E41.19063
G1 X54.62 Y-19.537 E41.2288
G1 X54.899 Y-19.28 E41.25151
G1 X55.117 Y-18.97 E41.2742
G1 X55.266 Y-18.621 E41.29692
G1 X55.345 Y-18.093 E41.32888
G1 X55.347 Y-1.164 E42.34239
G1 X55.345 Y0.859 E42.4635
G1 X55.305 Y1.236 E42.4862
G1 X55.186 Y1.596 E42.5089
G1 X54.995 Y1.923 E42.53157
G1 X54.74 Y2.203 E42.55424
G1 X54.294 Y2.494 E42.58613
G1 X54.058 Y2.602 E42.60166
G1 X53.569 Y2.746 E42.63218
G1 X53.021 Y2.807 E42.66519
G1 X19.514 Y2.807 E44.6712
G1 X18.967 Y2.745 E44.70416
G1 X18.484 Y2.602 E44.73431
G1 X17.922 Y2.301 E44.77248
G1 X17.643 Y2.044 E44.79519
G1 X17.425 Y1.734 E44.81788
G1 X17.276 Y1.385 E44.8406
G1 X17.275 Y1.384 E44.84068
G0 F1350 X17.197 Y0.857
G0 F3600 X17.597 Y0.857
G1 F1500 X17.595 Y-16.071 E45.85413
G1 X17.597 Y-18.095 E45.9753
G1 X17.637 Y-18.427 E45.99532
G1 X17.755 Y-18.74 E46.01535
G1 X17.943 Y-19.016 E46.03534
G1 X18.191 Y-19.239 E46.05531
G1 X18.655 Y-19.476 E46.0865
G1 X19.319 Y-19.628 E46.12728
G1 X19.521 Y-19.643 E46.13941
G1 X53.028 Y-19.643 E48.14542
G1 X53.516 Y-19.586 E48.17483
G1 X54.128 Y-19.366 E48.21377
G1 X54.413 Y-19.192 E48.23376
G1 X54.648 Y-18.955 E48.25374
G1 X54.821 Y-18.669 E48.27375
G1 X54.921 Y-18.35 E48.29376
G1 X54.945 Y-18.093 E48.30922
G1 X54.947 Y-1.165 E49.32267
G1 X54.945 Y0.858 E49.44378
G1 X54.905 Y1.19 E49.4638
G1 X54.787 Y1.503 E49.48383
G1 X54.599 Y1.779 E49.50382
G1 X54.351 Y2.002 E49.52379
G1 X53.892 Y2.238 E49.55468
G1 X53.223 Y2.392 E49.59578
G1 X53.021 Y2.407 E49.60791
G1 X19.514 Y2.407 E51.61392
G1 X19.026 Y2.35 E51.64333
G1 X18.414 Y2.13 E51.68226
G1 X18.129 Y1.956 E51.70226
G1 X17.894 Y1.719 E51.72224
G1 X17.721 Y1.433 E51.74225
G1 X17.703 Y1.375 E51.74588
G0 F1350 X17.621 Y1.114
G0 X17.597 Y0.857
G0 F3600 X17.997 Y0.857
G1 F1500 X17.995 Y-16.071 E52.75933
G1 X17.997 Y-18.095 E52.88051
G1 X18.037 Y-18.374 E52.89738
G1 X18.154 Y-18.631 E52.91429
G1 X18.337 Y-18.845 E52.93114
G1 X18.82 Y-19.112 E52.96418
G1 X19.377 Y-19.233 E52.99831
G1 X19.521 Y-19.243 E53.00695
G1 X53.028 Y-19.243 E55.01296
G1 X53.457 Y-19.19 E55.03883
G1 X53.961 Y-19.002 E55.07104
G1 X54.199 Y-18.85 E55.08795
G1 X54.384 Y-18.637 E55.10484
G1 X54.503 Y-18.381 E55.12174
G1 X54.545 Y-18.093 E55.13916
G1 X54.547 Y-1.165 E56.15261
G1 X54.545 Y0.858 E56.27372
G1 X54.505 Y1.137 E56.2906
G1 X54.388 Y1.394 E56.3075
G1 X54.205 Y1.608 E56.32436
G1 X53.725 Y1.874 E56.35722
G1 X53.165 Y1.997 E56.39154
G1 X53.021 Y2.007 E56.40018
G1 X19.514 Y2.007 E58.40619
G1 X19.085 Y1.954 E58.43207
G1 X18.581 Y1.766 E58.46427
G1 X18.343 Y1.614 E58.48118
G1 X18.158 Y1.401 E58.49807
G1 X18.14 Y1.363 E58.50059
G0 F1350 X18.039 Y1.145
G0 X17.997 Y0.857
G0 F3600 X18.397 Y0.857
G1 F1500 X18.395 Y-16.07 E59.51398
G1 X18.397 Y-18.094 E59.63515
G1 X18.437 Y-18.308 E59.64818
G1 X18.55 Y-18.495 E59.66126
G1 X18.749 Y-18.64 E59.676
G1 X19.146 Y-18.795 E59.70152
G1 X19.521 Y-18.843 E59.72415
G1 X53.028 Y-18.843 E61.73016
G1 X53.559 Y-18.747 E61.76246
G1 X53.973 Y-18.513 E61.79093
G1 X54.095 Y-18.332 E61.804
G1 X54.145 Y-18.093 E61.81862
G1 X54.147 Y-1.166 E62.83201
G1 X54.145 Y0.857 E62.95312
G1 X54.105 Y1.071 E62.96616
G1 X53.992 Y1.258 E62.97924
G1 X53.795 Y1.403 E62.99388
G1 X53.396 Y1.559 E63.01953
G1 X53.021 Y1.607 E63.04216
G1 X19.514 Y1.607 E65.04817
G1 X18.983 Y1.511 E65.08048
G1 X18.63 Y1.311 E65.10476
G0 F1350 X18.569 Y1.277
G0 X18.447 Y1.096
G0 X18.397 Y0.857
G0 F3600 X18.797 Y0.857
G1 F1500 X18.795 Y-16.07 E66.11815
G1 X18.797 Y-18.094 E66.23933
G1 X18.836 Y-18.213 E66.24683
G1 X19.15 Y-18.383 E66.2682
G1 X19.521 Y-18.443 E66.2907
G1 X53.028 Y-18.443 E68.29671
G1 X53.392 Y-18.383 E68.31879
G1 X53.628 Y-18.275 E68.33433
G1 X53.72 Y-18.19 E68.34183
G1 X53.745 Y-18.093 E68.34783
G1 X53.747 Y-1.166 E69.36122
G1 X53.745 Y0.857 E69.48233
G1 X53.706 Y0.976 E69.48983
G1 X53.392 Y1.147 E69.51123
G1 X53.021 Y1.207 E69.53373
G1 X19.514 Y1.207 E71.53974
G1 X19.197 Y1.154 E71.55898
G0 F1350 X19.15 Y1.147
G0 X18.914 Y1.039
G0 X18.822 Y0.954
G0 X18.797 Y0.857
G1 F1500 E63.55898
G1 F600 Z1.3
;MESH:Armsperre2.3mf
G0 F3600 X53.345 Y-17.975 Z1.3
;TYPE:WALL-OUTER
G1 F600 Z0.3
G1 F1500 E71.80843
G1 X53.347 Y-1.166 E72.81476
G1 X53.345 Y0.737 E72.92869
G1 X53.011 Y0.807 E72.94912
G1 X19.527 Y0.807 E74.95374
G1 X19.197 Y0.739 E74.97392
G1 X19.195 Y-16.07 E75.98024
G1 X19.197 Y-17.973 E76.09417
G1 X19.531 Y-18.043 E76.1146
G1 X52.819 Y-18.043 E78.10749
G0 F1350 X53.015 Y-18.043
G0 X53.345 Y-17.975
G0 F3600 X53.345 Y-17.775
G0 X52.905 Y-17.603
G1 F1500 E70.10749
G1 F600 Z1.3
G0 F3600 X27.446 Y-3.918 Z1.3
G1 F600 Z0.3
G1 F1500 E78.35695
G1 X28.446 Y-3.918 E78.41681
G1 X28.446 Y-.793 E78.6039
G1 X44.096 Y-.793 E79.54084
G1 X44.096 Y-3.918 E79.72793
G1 X45.096 Y-3.918 E79.7878
G1 X45.096 Y-13.318 E80.35056
G1 X44.096 Y-13.318 E80.41043
G1 X44.096 Y-16.443 E80.59751
G1 X28.446 Y-16.443 E81.53445
G1 X28.446 Y-13.318 E81.72154
G1 X27.446 Y-13.318 E81.78141
G1 X27.446 Y-4.45 E82.31232
G0 F1350 X27.446 Y-3.918
G0 F3600 X27.646 Y-3.918
G0 X28.046 Y-3.518
;TYPE:WALL-INNER
G1 F1500 X28.046 Y-.393 E82.49941
G1 X44.496 Y-.393 E83.48424
G1 X44.496 Y-3.518 E83.67133
G1 X45.496 Y-3.518 E83.7312
G1 X45.496 Y-13.718 E84.34185
G1 X44.496 Y-13.718 E84.40172
G1 X44.496 Y-16.843 E84.58881
G1 X28.046 Y-16.843 E85.57364
G1 X28.046 Y-13.718 E85.76073
G1 X27.046 Y-13.718 E85.8206
G1 X27.046 Y-3.518 E86.43126
G1 X27.514 Y-3.518 E86.45927
G0 F1350 X28.046 Y-3.518
G1 F1500 E78.45927
G1 F600 Z1.3
G0 F3600 X52.945 Y-17.643 Z1.3
G1 F600 Z0.3
G1 F1500 E86.70873
G1 X52.947 Y-1.166 E87.69517
G1 X52.945 Y0.407 E87.78935
G1 X19.597 Y0.407 E89.78583
G1 X19.595 Y-16.07 E90.77228
G1 X19.597 Y-17.643 E90.86646
G1 X52.413 Y-17.643 E92.83109
G0 F1350 X52.945 Y-17.643
G0 F3600 X52.545 Y-17.243
G1 F1500 X52.546 Y0.007 E93.86382
G1 X44.896 Y0.007 E94.32181
G1 X44.896 Y-3.118 E94.5089
G1 X45.896 Y-3.118 E94.56877
G1 X45.896 Y-14.118 E95.22732
G1 X44.896 Y-14.118 E95.28719
G1 X44.896 Y-17.243 E95.47427
G1 X27.646 Y-17.243
G1 X27.646 Y-14.118 E95.66136
G1 X26.646 Y-14.118 E95.72123
G1 X26.646 Y-3.118 E96.37978
G1 X27.646 Y-3.118 E96.43965
G1 X27.646 Y0.007 E96.62674
G1 X19.997 Y0.007 E97.08467
G1 X19.996 Y-17.243 E98.1174
G1 X27.646 Y-17.243 E98.57539
G1 X44.896 Y-17.243 E99.60812
G1 X52.013 Y-17.243 E100.0342
G0 F1350 X52.545 Y-17.243
G0 F3600 X52.145 Y-16.843
G1 F1500 X52.146 Y-.393 E101.01903
G1 X45.296 Y-.393 E101.42913
G1 X45.296 Y-2.718 E101.56832
G1 X46.296 Y-2.718 E101.62819
G1 X46.296 Y-14.518 E102.33464
G1 X45.296 Y-14.518 E102.3945
G1 X45.296 Y-16.843 E102.5337
G1 X51.613 Y-16.843 E102.91189
G0 F1350 X52.145 Y-16.843
G1 F1500 E94.91189
G1 F600 Z1.3
G0 F3600 X27.246 Y-16.843 Z1.3
G1 F600 Z0.3
G1 F1500 E103.16134
G1 X27.246 Y-14.518 E103.30053
G1 X26.246 Y-14.518 E103.3604
G1 X26.246 Y-2.718 E104.06684
G1 X27.246 Y-2.718 E104.12671
G1 X27.246 Y-.393 E104.26591
G1 X20.397 Y-.393 E104.67594
G1 X20.396 Y-16.843 E105.66078
G1 X26.714 Y-16.843 E106.03902
G0 F1350 X27.246 Y-16.843
G0 F3600 X26.856 Y-16.453
;TYPE:SKIN
G1 F1500 X26.856 Y-14.908 E106.13152
G1 X25.856 Y-14.908 E106.19139
G1 X25.856 Y-2.328 E106.94453
G1 X26.856 Y-2.328 E107.0044
G1 X26.856 Y-.783 E107.0969
G1 X20.787 Y-.783 E107.46024
G1 X20.786 Y-16.453 E108.39837
G1 X26.324 Y-16.453 E108.72992
G0 F1350 X26.856 Y-16.453
G0 F3600 X26.153 Y-16.272
G1 F1500 X26.675 Y-15.75 E108.77412
G0 F3600 X26.675 Y-15.185
G1 F1500 X25.588 Y-16.272 E108.86615
G0 F3600 X25.022 Y-16.272
G1 F1500 X26.206 Y-15.088 E108.9664
G0 F3600 X25.675 Y-15.054
