;FLAVOR:Marlin
;TIME:10362
;Filament used: 12.3277m
;Layer height: 0.24
;MINX:-69.68
;MINY:-61.872
;MINZ:0.3
;MAXX:48.767
;MAXY:72.88
;MAXZ:35
;Generated with Cura_SteamEngine 4.13.1
M140 S50
M105
M190 S50
M104 S215
M105
M109 S215
M82 ;absolute extrusion mode
;FLAVOR:Marlin
M82 ;absolute extrusion mode
G21
G90
M82
M107 T0
G28
G92 E0
G0 E3 F200
G92 E0 ; reset extrusion distance
M106 S255 ; Enable cooling fan full speed
G1 X-98 Y0 Z0.4 F3000 ; move to arc start
G3 X0 Y-98 I98 Z0.4 E40 F400 ; lay arc stripe 90deg
G92 E0 ; reset extrusion distance
G4 P500 ; wait for 0.5 sec
G0 Z10 E-1 ; Lift 15mm and retract 1mm filament
G4 P2000 ; wait for 5 sec
G0 Z15
M107 ; Disable cooling fan
G1 X0 Y-85 Z4 E0 F3000 ; get off the bed
G92 E0
G92 E0
G1 F1500 E-8
;LAYER_COUNT:125
;LAYER:0
M107
G1 F600 Z1.3
G0 F3600 X-27.53 Y-7.707 Z1.3
;TYPE:SKIRT
G1 F600 Z0.3
G1 F1500 E0.24945
G1 X-27.528 Y9.224 E1.26308
G1 X-27.53 Y11.248 E1.38425
G1 X-27.57 Y11.797 E1.41721
G1 X-27.69 Y12.335 E1.45021
G1 X-27.886 Y12.85 E1.4832
G1 X-28.155 Y13.331 E1.51619
G1 X-28.49 Y13.769 E1.54921
G1 X-28.885 Y14.153 E1.58219
G1 X-29.331 Y14.476 E1.61515
G1 X-29.997 Y14.812 E1.65981
G1 X-30.514 Y15.002 E1.69279
G1 X-31.018 Y15.111 E1.72366
G1 X-31.306 Y15.153 E1.74108
G1 X-31.854 Y15.193 E1.77398
G1 X-65.361 Y15.193 E3.77999
G1 X-65.923 Y15.151 E3.81373
G1 X-66.204 Y15.109 E3.83073
G1 X-66.741 Y14.989 E3.86368
G1 X-67.229 Y14.804 E3.89492
G1 X-67.464 Y14.696 E3.91041
G1 X-67.946 Y14.43 E3.94336
G1 X-68.386 Y14.097 E3.9764
G1 X-68.772 Y13.704 E4.00938
G1 X-69.098 Y13.26 E4.04236
G1 X-69.355 Y12.773 E4.07532
G1 X-69.54 Y12.254 E4.10831
G1 X-69.648 Y11.713 E4.14134
G1 X-69.677 Y11.246 E4.16935
G1 X-69.679 Y8.285 E4.34662
G1 X-69.678 Y-5.107 E5.14837
G1 X-69.68 Y-5.69 E5.18328
G1 X-69.677 Y-7.713 E5.30439
G1 X-69.636 Y-8.262 E5.33735
G1 X-69.516 Y-8.8 E5.37035
G1 X-69.32 Y-9.315 E5.40334
G1 X-69.051 Y-9.796 E5.43634
G1 X-68.716 Y-10.233 E5.4693
G1 X-68.321 Y-10.617 E5.50228
G1 X-67.874 Y-10.94 E5.5353
G1 X-67.229 Y-11.268 E5.57862
G1 X-66.713 Y-11.461 E5.6116
G1 X-66.19 Y-11.575 E5.64365
G1 X-65.902 Y-11.617 E5.66107
G1 X-65.354 Y-11.657 E5.69397
G1 X-31.847 Y-11.657 E7.69997
G1 X-31.285 Y-11.615 E7.73371
G1 X-31.004 Y-11.573 E7.75072
G1 X-30.467 Y-11.453 E7.78366
G1 X-29.985 Y-11.27 E7.81453
G1 X-29.749 Y-11.162 E7.83007
G1 X-29.266 Y-10.897 E7.86305
G1 X-28.826 Y-10.565 E7.89605
G1 X-28.439 Y-10.173 E7.92903
G1 X-28.113 Y-9.729 E7.96201
G1 X-27.854 Y-9.243 E7.99498
G1 X-27.669 Y-8.724 E8.02796
G1 X-27.57 Y-8.238 E8.05766
G0 F1350 X-27.56 Y-8.184
G0 X-27.53 Y-7.707
G0 F3600 X-27.93 Y-7.707
G1 F1500 X-27.928 Y9.223 E9.07123
G1 X-27.93 Y11.247 E9.1924
G1 X-27.97 Y11.767 E9.22362
G1 X-28.09 Y12.274 E9.25481
G1 X-28.285 Y12.757 E9.286
G1 X-28.552 Y13.205 E9.31722
G1 X-28.885 Y13.606 E9.34843
G1 X-29.274 Y13.952 E9.37959
G1 X-29.926 Y14.341 E9.42505
G1 X-30.162 Y14.448 E9.44056
G1 X-30.652 Y14.626 E9.47177
G1 X-31.363 Y14.757 E9.51506
G1 X-31.854 Y14.793 E9.54453
G1 X-65.361 Y14.793 E11.55053
G1 X-65.864 Y14.756 E11.58073
G1 X-66.145 Y14.714 E11.59774
G1 X-66.653 Y14.597 E11.62895
G1 X-67.297 Y14.332 E11.67064
G1 X-67.752 Y14.079 E11.70181
G1 X-68.164 Y13.759 E11.73304
G1 X-68.521 Y13.38 E11.76421
G1 X-68.817 Y12.951 E11.79542
G1 X-69.043 Y12.482 E11.82658
G1 X-69.195 Y11.983 E11.85781
G1 X-69.277 Y11.245 E11.90227
G1 X-69.279 Y8.285 E12.07948
G1 X-69.278 Y-5.107 E12.88123
G1 X-69.28 Y-5.689 E12.91608
G1 X-69.277 Y-7.712 E13.03719
G1 X-69.236 Y-8.232 E13.06842
G1 X-69.117 Y-8.739 E13.0996
G1 X-68.921 Y-9.222 E13.1308
G1 X-68.654 Y-9.669 E13.16197
G1 X-68.321 Y-10.071 E13.19323
G1 X-67.931 Y-10.416 E13.2244
G1 X-67.297 Y-10.796 E13.26865
G1 X-67.062 Y-10.904 E13.28414
G1 X-66.573 Y-11.085 E13.31535
G1 X-65.845 Y-11.221 E13.35969
G1 X-65.354 Y-11.257 E13.38916
G1 X-31.847 Y-11.257 E15.39517
G1 X-31.344 Y-11.22 E15.42536
G1 X-31.063 Y-11.178 E15.44237
G1 X-30.555 Y-11.061 E15.47358
G1 X-29.915 Y-10.799 E15.51499
G1 X-29.459 Y-10.546 E15.54621
G1 X-29.047 Y-10.227 E15.5774
G1 X-28.689 Y-9.848 E15.60861
G1 X-28.393 Y-9.42 E15.63977
G1 X-28.166 Y-8.951 E15.67096
G1 X-28.013 Y-8.452 E15.70221
G1 X-27.988 Y-8.236 E15.71523
G0 F1350 X-27.93 Y-7.707
G0 F3600 X-28.33 Y-7.707
G1 F1500 X-28.328 Y9.223 E16.7288
G1 X-28.33 Y11.247 E16.84997
G1 X-28.37 Y11.735 E16.87928
G1 X-28.49 Y12.21 E16.90861
G1 X-28.684 Y12.659 E16.9379
G1 X-28.95 Y13.07 E16.96721
G1 X-29.278 Y13.433 E16.9965
G1 X-29.662 Y13.737 E17.02582
G1 X-30.327 Y14.083 E17.0707
G1 X-30.788 Y14.248 E17.10001
G1 X-31.421 Y14.362 E17.13852
G1 X-31.854 Y14.393 E17.16451
G1 X-65.361 Y14.393 E19.17051
G1 X-66.085 Y14.318 E19.21409
G1 X-66.562 Y14.206 E19.24342
G1 X-67.13 Y13.969 E19.28027
G1 X-67.556 Y13.729 E19.30954
G1 X-67.938 Y13.423 E19.33884
G1 X-68.265 Y13.058 E19.36818
G1 X-68.529 Y12.646 E19.39748
G1 X-68.722 Y12.196 E19.42679
G1 X-68.839 Y11.721 E19.45608
G1 X-68.877 Y11.245 E19.48467
G1 X-68.879 Y8.285 E19.66188
G1 X-68.878 Y-5.107 E20.46363
G1 X-68.88 Y-5.688 E20.49842
G1 X-68.877 Y-7.711 E20.61953
G1 X-68.836 Y-8.199 E20.64885
G1 X-68.717 Y-8.674 E20.67816
G1 X-68.522 Y-9.123 E20.70747
G1 X-68.256 Y-9.534 E20.73678
G1 X-67.928 Y-9.897 E20.76607
G1 X-67.544 Y-10.201 E20.79539
G1 X-66.895 Y-10.541 E20.83926
G1 X-66.435 Y-10.708 E20.86855
G1 X-65.787 Y-10.826 E20.90799
G1 X-65.354 Y-10.857 E20.93398
G1 X-31.847 Y-10.857 E22.93998
G1 X-31.123 Y-10.782 E22.98356
G1 X-30.646 Y-10.67 E23.01289
G1 X-30.082 Y-10.435 E23.04947
G1 X-29.655 Y-10.196 E23.07877
G1 X-29.272 Y-9.89 E23.10812
G1 X-28.945 Y-9.526 E23.13741
G1 X-28.681 Y-9.114 E23.1667
G1 X-28.487 Y-8.665 E23.19599
G1 X-28.38 Y-8.236 E23.22246
G0 F1350 X-28.369 Y-8.19
G0 X-28.33 Y-7.707
G0 F3600 X-28.73 Y-7.707
G1 F1500 X-28.728 Y9.223 E24.23603
G1 X-28.73 Y11.247 E24.3572
G1 X-28.77 Y11.7 E24.38443
G1 X-28.889 Y12.14 E24.41171
G1 X-29.083 Y12.553 E24.43903
G1 X-29.346 Y12.925 E24.46631
G1 X-29.67 Y13.245 E24.49357
G1 X-30.256 Y13.612 E24.53496
G1 X-30.922 Y13.87 E24.57772
G1 X-31.479 Y13.966 E24.61156
G1 X-31.854 Y13.993 E24.63407
G1 X-65.361 Y13.993 E26.64008
G1 X-66.026 Y13.922 E26.68012
G1 X-66.728 Y13.713 E26.72397
G1 X-67.358 Y13.38 E26.76663
G1 X-67.709 Y13.088 E26.79396
G1 X-68.003 Y12.74 E26.82124
G1 X-68.231 Y12.346 E26.84849
G1 X-68.388 Y11.918 E26.87578
G1 X-68.477 Y11.245 E26.91642
G1 X-68.479 Y8.285 E27.09363
G1 X-68.478 Y-5.107 E27.89539
G1 X-68.48 Y-5.688 E27.93017
G1 X-68.477 Y-7.711 E28.05129
G1 X-68.436 Y-8.165 E28.07858
G1 X-68.317 Y-8.604 E28.10581
G1 X-68.123 Y-9.017 E28.13313
G1 X-67.86 Y-9.389 E28.1604
G1 X-67.536 Y-9.709 E28.18766
G1 X-66.963 Y-10.069 E28.22818
G1 X-66.299 Y-10.331 E28.27091
G1 X-65.729 Y-10.43 E28.30555
G1 X-65.354 Y-10.457 E28.32806
G1 X-31.847 Y-10.457 E30.33406
G1 X-31.182 Y-10.386 E30.3741
G1 X-30.484 Y-10.179 E30.41769
G1 X-29.852 Y-9.846 E30.46046
G1 X-29.501 Y-9.555 E30.48775
G1 X-29.207 Y-9.208 E30.51498
G1 X-28.977 Y-8.814 E30.54229
G1 X-28.82 Y-8.386 E30.56959
G1 X-28.8 Y-8.235 E30.57871
G0 F1350 X-28.73 Y-7.707
G0 F3600 X-29.13 Y-7.707
G1 F1500 X-29.128 Y9.222 E31.59221
G1 X-29.13 Y11.246 E31.71339
G1 X-29.17 Y11.663 E31.73847
G1 X-29.289 Y12.065 E31.76357
G1 X-29.482 Y12.437 E31.78866
G1 X-29.742 Y12.766 E31.81376
G1 X-30.059 Y13.04 E31.83885
G1 X-30.658 Y13.355 E31.87936
G1 X-31.249 Y13.528 E31.91623
G1 X-31.854 Y13.593 E31.95266
G1 X-65.361 Y13.593 E33.95866
G1 X-65.967 Y13.527 E33.99516
G1 X-66.561 Y13.35 E34.03227
G1 X-67.158 Y13.032 E34.07276
G1 X-67.474 Y12.756 E34.09788
G1 X-67.732 Y12.426 E34.12296
G1 X-67.923 Y12.053 E34.14805
G1 X-68.039 Y11.65 E34.17315
G1 X-68.077 Y11.244 E34.19757
G1 X-68.079 Y8.285 E34.37472
G1 X-68.078 Y-5.107 E35.17647
G1 X-68.08 Y-5.687 E35.2112
G1 X-68.077 Y-7.71 E35.33231
G1 X-68.036 Y-8.127 E35.35739
G1 X-67.918 Y-8.529 E35.38248
G1 X-67.725 Y-8.901 E35.40757
G1 X-67.465 Y-9.23 E35.43267
G1 X-67.147 Y-9.503 E35.45776
G1 X-66.561 Y-9.814 E35.49748
G1 X-65.959 Y-9.992 E35.53506
G1 X-65.354 Y-10.057 E35.57149
G1 X-31.847 Y-10.057 E37.5775
G1 X-31.241 Y-9.991 E37.61399
G1 X-30.651 Y-9.815 E37.65085
G1 X-30.052 Y-9.498 E37.69143
G1 X-29.735 Y-9.223 E37.71655
G1 X-29.477 Y-8.893 E37.74163
G1 X-29.286 Y-8.52 E37.76672
G1 X-29.202 Y-8.233 E37.78462
G0 F1350 X-29.169 Y-8.118
G0 X-29.13 Y-7.707
G0 F3600 X-29.53 Y-7.707
G1 F1500 X-29.528 Y9.222 E38.79813
G1 X-29.53 Y11.246 E38.9193
G1 X-29.57 Y11.623 E38.942
G1 X-29.689 Y11.983 E38.9647
G1 X-29.88 Y12.31 E38.98737
G1 X-30.135 Y12.59 E39.01004
G1 X-30.587 Y12.883 E39.04229
G1 X-30.823 Y12.99 E39.05781
G1 X-31.306 Y13.132 E39.08795
G1 X-31.854 Y13.193 E39.12096
G1 X-65.361 Y13.193 E41.12696
G1 X-65.908 Y13.131 E41.15992
G1 X-66.394 Y12.987 E41.19027
G1 X-66.954 Y12.685 E41.22836
G1 X-67.232 Y12.427 E41.25106
G1 X-67.45 Y12.117 E41.27375
G1 X-67.599 Y11.769 E41.29641
G1 X-67.677 Y11.244 E41.32819
G1 X-67.679 Y8.285 E41.50534
G1 X-67.678 Y-5.107 E42.3071
G1 X-67.68 Y-5.687 E42.34182
G1 X-67.677 Y-7.71 E42.46293
G1 X-67.637 Y-8.086 E42.48557
G1 X-67.518 Y-8.446 E42.50827
G1 X-67.327 Y-8.774 E42.53099
G1 X-67.072 Y-9.054 E42.55367
G1 X-66.629 Y-9.343 E42.58533
G1 X-66.394 Y-9.451 E42.60082
G1 X-65.902 Y-9.596 E42.63152
G1 X-65.354 Y-9.657 E42.66453
G1 X-31.847 Y-9.657 E44.67054
G1 X-31.3 Y-9.595 E44.7035
G1 X-30.817 Y-9.452 E44.73365
G1 X-30.255 Y-9.151 E44.77182
G1 X-29.976 Y-8.894 E44.79453
G1 X-29.758 Y-8.584 E44.81722
G1 X-29.609 Y-8.235 E44.83994
G1 X-29.608 Y-8.234 E44.84002
G0 F1350 X-29.53 Y-7.707
G0 F3600 X-29.93 Y-7.707
G1 F1500 X-29.928 Y9.221 E45.85347
G1 X-29.93 Y11.245 E45.97465
G1 X-29.97 Y11.577 E45.99467
G1 X-30.088 Y11.89 E46.01469
G1 X-30.276 Y12.166 E46.03469
G1 X-30.524 Y12.389 E46.05465
G1 X-30.988 Y12.626 E46.08585
G1 X-31.652 Y12.778 E46.12663
G1 X-31.854 Y12.793 E46.13875
G1 X-65.361 Y12.793 E48.14476
G1 X-65.849 Y12.736 E48.17417
G1 X-66.462 Y12.515 E48.21318
G1 X-66.746 Y12.34 E48.23316
G1 X-66.982 Y12.103 E48.25318
G1 X-67.154 Y11.817 E48.27316
G1 X-67.254 Y11.498 E48.29317
G1 X-67.277 Y11.244 E48.30844
G1 X-67.279 Y8.285 E48.48559
G1 X-67.278 Y-5.107 E49.28735
G1 X-67.28 Y-5.686 E49.32201
G1 X-67.277 Y-7.709 E49.44313
G1 X-67.237 Y-8.041 E49.46315
G1 X-67.119 Y-8.353 E49.48312
G1 X-66.93 Y-8.629 E49.50314
G1 X-66.682 Y-8.852 E49.52311
G1 X-66.227 Y-9.087 E49.55377
G1 X-65.556 Y-9.242 E49.595
G1 X-65.354 Y-9.257 E49.60712
G1 X-31.847 Y-9.257 E51.61313
G1 X-31.359 Y-9.2 E51.64254
G1 X-30.747 Y-8.98 E51.68148
G1 X-30.462 Y-8.806 E51.70147
G1 X-30.227 Y-8.569 E51.72145
G1 X-30.054 Y-8.283 E51.74146
G1 X-30.036 Y-8.225 E51.7451
G0 F1350 X-29.954 Y-7.964
G0 X-29.93 Y-7.707
G0 F3600 X-30.33 Y-7.707
G1 F1500 X-30.328 Y9.221 E52.75855
G1 X-30.33 Y11.245 E52.87972
G1 X-30.37 Y11.524 E52.8966
G1 X-30.487 Y11.781 E52.9135
G1 X-30.67 Y11.995 E52.93036
G1 X-31.153 Y12.262 E52.9634
G1 X-31.71 Y12.383 E52.99752
G1 X-31.854 Y12.393 E53.00616
G1 X-65.361 Y12.393 E55.01217
G1 X-65.79 Y12.34 E55.03805
G1 X-66.295 Y12.152 E55.07031
G1 X-66.532 Y11.999 E55.0872
G1 X-66.717 Y11.786 E55.10409
G1 X-66.835 Y11.53 E55.12096
G1 X-66.877 Y11.244 E55.13827
G1 X-66.879 Y8.286 E55.31536
G1 X-66.878 Y-5.106 E56.11712
G1 X-66.88 Y-5.685 E56.15178
G1 X-66.877 Y-7.708 E56.27289
G1 X-66.837 Y-7.988 E56.28983
G1 X-66.72 Y-8.245 E56.30673
G1 X-66.536 Y-8.459 E56.32363
G1 X-66.06 Y-8.724 E56.35624
G1 X-65.498 Y-8.847 E56.39069
G1 X-65.354 Y-8.857 E56.39933
G1 X-31.847 Y-8.857 E58.40533
G1 X-31.418 Y-8.804 E58.43121
G1 X-30.914 Y-8.616 E58.46342
G1 X-30.676 Y-8.464 E58.48032
G1 X-30.491 Y-8.251 E58.49721
G1 X-30.473 Y-8.213 E58.49973
G0 F1350 X-30.372 Y-7.995
G0 X-30.33 Y-7.707
G0 F3600 X-30.73 Y-7.707
G1 F1500 X-30.728 Y9.22 E59.51312
G1 X-30.73 Y11.244 E59.63429
G1 X-30.77 Y11.458 E59.64733
G1 X-30.883 Y11.645 E59.66041
G1 X-31.082 Y11.79 E59.67515
G1 X-31.479 Y11.945 E59.70066
G1 X-31.854 Y11.993 E59.7233
G1 X-65.361 Y11.993 E61.7293
G1 X-65.893 Y11.896 E61.76168
G1 X-66.306 Y11.663 E61.79007
G1 X-66.428 Y11.481 E61.80319
G1 X-66.477 Y11.243 E61.81773
G1 X-66.479 Y8.285 E61.99482
G1 X-66.478 Y-5.107 E62.79658
G1 X-66.48 Y-5.685 E62.83118
G1 X-66.477 Y-7.708 E62.9523
G1 X-66.437 Y-7.922 E62.96533
G1 X-66.323 Y-8.108 E62.97839
G1 X-66.128 Y-8.252 E62.9929
G1 X-65.729 Y-8.409 E63.01857
G1 X-65.354 Y-8.457 E63.04121
G1 X-31.847 Y-8.457 E65.04721
G1 X-31.316 Y-8.361 E65.07952
G1 X-30.963 Y-8.161 E65.10381
G0 F1350 X-30.902 Y-8.127
G0 X-30.78 Y-7.946
G0 X-30.73 Y-7.707
G0 F3600 X-31.13 Y-7.707
G1 F1500 X-31.128 Y9.22 E66.1172
G1 X-31.13 Y11.244 E66.23837
G1 X-31.169 Y11.363 E66.24587
G1 X-31.483 Y11.533 E66.26724
G1 X-31.854 Y11.593 E66.28974
G1 X-65.361 Y11.593 E68.29575
G1 X-65.726 Y11.533 E68.31789
G1 X-65.961 Y11.425 E68.33338
G1 X-66.052 Y11.34 E68.34083
G1 X-66.077 Y11.243 E68.34683
G1 X-66.079 Y8.285 E68.52392
G1 X-66.078 Y-5.107 E69.32568
G1 X-66.08 Y-5.684 E69.36022
G1 X-66.077 Y-7.707 E69.48133
G1 X-66.038 Y-7.826 E69.48883
G1 X-65.726 Y-7.997 E69.51013
G1 X-65.354 Y-8.057 E69.53269
G1 X-31.847 Y-8.057 E71.5387
G1 X-31.53 Y-8.004 E71.55794
G0 F1350 X-31.483 Y-7.997
G0 X-31.247 Y-7.889
G0 X-31.155 Y-7.804
G0 X-31.13 Y-7.707
G1 F1500 E63.55794
G1 F600 Z1.3
;MESH:Armsperre2.3mf(2)
G0 F3600 X-65.679 Y8.285 Z1.3
;TYPE:WALL-OUTER
G1 F600 Z0.3
G1 F1500 E71.80739
G1 X-65.678 Y-5.107 E72.60914
G1 X-65.68 Y-5.684 E72.64369
G1 X-65.677 Y-7.588 E72.75768
G1 X-65.344 Y-7.657 E72.77804
G1 X-31.86 Y-7.657 E74.78267
G1 X-31.53 Y-7.588 E74.80285
G1 X-31.528 Y9.22 E75.80911
G1 X-31.53 Y11.123 E75.92304
G1 X-31.864 Y11.193 E75.94347
G1 X-65.348 Y11.193 E77.9481
G1 X-65.677 Y11.125 E77.96822
G1 X-65.679 Y8.817 E78.10639
G0 F1350 X-65.679 Y8.285
G0 F3600 X-65.679 Y8.085
G0 X-65.239 Y8.086
G1 F1500 E70.10639
G1 F600 Z1.3
G0 F3600 X-39.779 Y6.468 Z1.3
G1 F600 Z0.3
G1 F1500 E78.35584
G1 X-39.779 Y-2.932 E78.9186
G1 X-40.779 Y-2.932 E78.97847
G1 X-40.779 Y-6.057 E79.16556
G1 X-56.429 Y-6.057 E80.1025
G1 X-56.429 Y-2.932 E80.28959
G1 X-57.429 Y-2.932 E80.34945
G1 X-57.429 Y6.468 E80.91222
G1 X-56.429 Y6.468 E80.97208
G1 X-56.429 Y9.593 E81.15917
G1 X-40.779 Y9.593 E82.09611
G1 X-40.779 Y6.468 E82.2832
G1 X-40.311 Y6.468 E82.31122
G0 F1350 X-39.779 Y6.468
G0 F3600 X-39.779 Y6.268
G0 X-39.379 Y6.868
;TYPE:WALL-INNER
G1 F1500 X-39.379 Y-3.332 E82.92187
G1 X-40.379 Y-3.332 E82.98174
G1 X-40.379 Y-6.457 E83.16883
G1 X-56.829 Y-6.457 E84.15366
G1 X-56.829 Y-3.332 E84.34075
G1 X-57.829 Y-3.332 E84.40062
G1 X-57.829 Y6.868 E85.01128
G1 X-56.829 Y6.868 E85.07114
G1 X-56.829 Y9.993 E85.25823
G1 X-40.379 Y9.993 E86.24306
G1 X-40.379 Y6.868 E86.43015
G1 X-39.911 Y6.868 E86.45817
G0 F1350 X-39.379 Y6.868
G1 F1500 E78.45817
G1 F600 Z1.3
G0 F3600 X-65.279 Y8.285 Z1.3
G1 F600 Z0.3
G1 F1500 E86.70762
G1 X-65.278 Y-5.108 E87.50944
G1 X-65.28 Y-5.683 E87.54386
G1 X-65.278 Y-7.257 E87.63809
G1 X-31.93 Y-7.257 E89.63458
G1 X-31.928 Y9.22 E90.62103
G1 X-31.93 Y10.793 E90.7152
G1 X-65.277 Y10.793 E92.71163
G1 X-65.279 Y8.817 E92.82993
G0 F1350 X-65.279 Y8.285
G0 F3600 X-64.879 Y8.285
G1 F1500 X-64.878 Y-5.109 E93.6318
G1 X-64.88 Y-5.682 E93.66611
G1 X-64.879 Y-6.857 E93.73645
G1 X-57.229 Y-6.857 E94.19445
G1 X-39.979 Y-6.857 E95.22717
G1 X-32.33 Y-6.857 E95.68511
G1 X-32.329 Y10.393 E96.71783
G1 X-39.979 Y10.393 E97.17582
G1 X-39.979 Y7.268 E97.36291
G1 X-38.979 Y7.268 E97.42278
G1 X-38.979 Y-3.732 E98.08133
G1 X-39.979 Y-3.732 E98.1412
G1 X-39.979 Y-6.857 E98.32829
G1 X-57.229 Y-6.857
G1 X-57.229 Y-3.732 E98.51538
G1 X-58.229 Y-3.732 E98.57524
G1 X-58.229 Y7.268 E99.2338
G1 X-57.229 Y7.268 E99.29366
G1 X-57.229 Y10.393 E99.48075
G1 X-64.877 Y10.393 E99.93862
G1 X-64.879 Y8.817 E100.03298
