;FLAVOR:Marlin
;TIME:2494
;Filament used: 2.09558m
;Layer height: 0.12
;MINX:30.921
;MINY:31.007
;MINZ:0.24
;MAXX:88.998
;MAXY:89.078
;MAXZ:5.45
;Generated with Cura_SteamEngine 4.7.1
M104 S210
M105
M109 S210
M82 ;absolute extrusion mode
;Sliced at: Thu 11-02-2021 08:30:29
G21 ;metric values
G90 ;absolute positioning
M82 ;set extruder to absolute mode
M107 ;start with the fan off
G1 Z5.0 F1800 ;move Z to 5mm
G28 X0 Y0 F1800 ;move X/Y to min endstops
G28 Z0 ;move Z to min endstop
G92 E0 ;zero the extruded length
G1 F200 E6.0 ;extrude 6.0mm of feed stock to build pressure
G1 Z5.0 F300 ;move the platform down 5mm
G92 E0 ;zero the extruded length again
G1 F1800
;Put printing message on LCD screen
M117 Printing...
G92 E0
G92 E0
G1 F1500 E-5
;LAYER_COUNT:41
;LAYER:0
M107
G0 F900 X57.866 Y36.112 Z0.24
;TYPE:SKIRT
G1 F1500 E0.70678
G1 F900 X58.31 Y35.666 E0.73441
G1 X61.537 Y32.439 E0.93477
G1 X62.111 Y31.881 E0.96991
G1 X62.521 Y31.554 E0.99294
G1 X62.963 Y31.309 E1.01512
G1 X63.479 Y31.12 E1.03925
G1 X63.995 Y31.015 E1.06237
G1 X64.584 Y31.007 E1.08823
G1 X65.164 Y31.115 E1.11413
G1 X65.779 Y31.367 E1.14331
G1 X66.21 Y31.627 E1.16541
G1 X66.335 Y31.724 E1.17236
G1 X67.3 Y32.65 E1.23107
G1 X87.627 Y52.978 E2.49318
G1 X88.135 Y53.504 E2.52529
G1 X88.468 Y53.924 E2.54882
G1 X88.732 Y54.428 E2.5738
G1 X88.914 Y55 E2.60015
G1 X88.998 Y55.585 E2.6261
G1 X88.976 Y56.105 E2.64895
G1 X88.844 Y56.677 E2.67472
G1 X88.563 Y57.282 E2.70401
G1 X88.253 Y57.736 E2.72814
G1 X88.207 Y57.79 E2.73126
G1 X87.516 Y58.505 E2.77491
G1 X84.043 Y61.98 E2.99061
G1 X58.33 Y87.693 E4.5871
G1 X57.749 Y88.258 E4.62268
G1 X57.35 Y88.576 E4.64508
G1 X56.908 Y88.821 E4.66727
G1 X56.413 Y88.993 E4.69027
G1 X55.851 Y89.078 E4.71523
G1 X55.316 Y89.059 E4.73873
G1 X54.823 Y88.955 E4.76085
G1 X54.293 Y88.737 E4.78601
G1 X53.837 Y88.442 E4.80986
G1 X53.349 Y87.997 E4.83885
G1 X32.307 Y66.956 E6.14529
G1 X31.742 Y66.375 E6.18087
G1 X31.422 Y65.974 E6.2034
G1 X31.179 Y65.534 E6.22546
G1 X31.004 Y65.027 E6.24901
G1 X30.921 Y64.461 E6.27413
G1 X30.942 Y63.935 E6.29724
G1 X31.047 Y63.442 E6.31937
G1 X31.263 Y62.919 E6.34421
G1 X31.568 Y62.451 E6.36873
G1 X32.006 Y61.972 E6.39723
G1 X57.396 Y36.582 E7.97366
G0 F810 X57.866 Y36.112
G0 F900 X60.746 Y38.26
;TYPE:SUPPORT
G1 X60.859 Y38.147 E7.98419
G1 X60.896 Y38.115 E7.98741
G1 X61.579 Y37.665 E8.04127
G1 X64.315 Y34.927 E8.29618
G1 X85.069 Y55.686 E10.2293
G1 X82.335 Y58.423 E10.48406
G1 X81.881 Y59.113 E10.53846
G1 X81.866 Y59.13 E10.53995
G1 X81.741 Y59.255 E10.55159
G1 X80.621 Y58.135 E10.6559
G1 X80.008 Y57.883 E10.69955
G1 X79.342 Y58.126 E10.74624
G1 X55.581 Y81.885 E12.95908
G1 X38.115 Y64.419 E14.58574
G1 X61.831 Y40.704 E16.79444
G1 X62.111 Y40.165 E16.83444
G1 X61.914 Y39.43 E16.88455
G1 X61.059 Y38.573 E16.96427
G0 F810 X60.746 Y38.26
G0 F900 X61.5 Y37.986
G1 X61.5 Y38.697 E17.0111
G0 X61.803 Y39
G1 X68.071 Y39 E17.42388
G0 X67.5 Y38.431
G1 X67.5 Y69.65 E19.47981
G0 X68.148 Y69
G1 X43.013 Y69 E21.13507
G0 X43.5 Y69.486
G1 X43.5 Y59.352 E21.80245
G0 X42.851 Y60
G1 X77.148 Y60 E24.06108
G0 X76.5 Y60.65
G1 X76.5 Y47.433 E24.93149
G0 X77.068 Y48
G1 X54.852 Y48 E26.39452
G0 X55.5 Y47.352
G1 X55.5 Y81.486 E28.64242
G0 X55.013 Y81
G1 X56.147 Y81 E28.7171
G0 X57 Y80.149
G1 X57 Y45.852 E30.97573
G0 X56.352 Y46.5
G1 X75.569 Y46.5 E32.24127
G0 X75 Y45.933
G1 X75 Y62.15 E33.30924
G0 X75.648 Y61.5
G1 X41.351 Y61.5 E35.56787
G0 X42 Y60.852
G1 X42 Y67.986 E36.03768
G0 X41.513 Y67.5
G1 X69.648 Y67.5 E37.89051
G0 X69 Y68.15
G1 X69 Y39.932 E39.74881
G0 X69.57 Y40.5
G1 X62.19 Y40.5 E40.23482
G0 X61.5 Y41.352
G1 X61.5 Y75.649 E42.49345
G0 X62.147 Y75
G1 X49.013 Y75 E43.35839
G0 X49.5 Y75.486
G1 X49.5 Y53.352 E44.81603
G0 X48.852 Y54
G1 X83.067 Y54 E47.06926
G0 X82.5 Y53.435
G1 X82.5 Y57.94 E47.36594
G0 X82.014 Y58.5
G1 X81.306 Y58.5 E47.41256
G0 X81 Y58.195
G1 X81 Y51.935 E47.82481
G0 X81.567 Y52.5
G1 X50.352 Y52.5 E49.88048
G0 X51 Y51.852
G1 X51 Y76.986 E51.53568
G0 X50.513 Y76.5
G1 X60.647 Y76.5 E52.20306
G0 X60 Y77.149
G1 X60 Y42.852 E54.46169
G0 X59.352 Y43.5
G1 X72.569 Y43.5 E55.33209
G0 X72 Y42.932
G1 X72 Y65.15 E56.79526
G0 X72.648 Y64.5
G1 X38.513 Y64.5 E59.04323
G0 X39 Y64.986
G1 X39 Y63.852 E59.11791
G0 X39.851 Y63
G1 X74.148 Y63 E61.37654
G0 X73.5 Y63.65
G1 X73.5 Y44.433 E62.64207
G0 X74.069 Y45
G1 X57.852 Y45 E63.71004
G0 X58.5 Y44.352
G1 X58.5 Y78.649 E65.96868
G0 X59.147 Y78
G1 X52.013 Y78 E66.43849
G0 X52.5 Y78.486
G1 X52.5 Y50.352 E68.29125
G0 X51.852 Y51
G1 X80.068 Y51 E70.14942
G0 X79.5 Y50.434
G1 X79.5 Y57.829 E70.63642
G0 X78.648 Y58.5
G1 X44.352 Y58.5 E72.89498
G0 X45 Y57.852
G1 X45 Y70.986 E73.75992
G0 X44.513 Y70.5
G1 X66.648 Y70.5 E75.21763
G0 X66 Y71.149
G1 X66 Y36.931 E77.47105
G0 X66.571 Y37.5
G1 X62.062 Y37.5 E77.76799
G0 X63 Y36.561
G1 X63 Y74.149 E80.24335
G0 X63.647 Y73.5
G1 X47.513 Y73.5 E81.30586
G0 X48 Y73.986
G1 X48 Y54.852 E82.56593
G0 X47.352 Y55.5
G1 X84.567 Y55.5 E85.01673
G0 X84 Y54.935
G1 X84 Y56.438 E85.11571
G0 X83.437 Y57
G1 X45.852 Y57 E87.59087
G0 X46.5 Y56.352
G1 X46.5 Y72.486 E88.65338
G0 X46.013 Y72
G1 X65.147 Y72 E89.91345
G0 X64.5 Y72.649
G1 X64.5 Y35.431 E92.36444
G0 X65.071 Y36
G1 X63.56 Y36 E92.46395
G1 F1500 E87.46395
G0 F900 X61.831 Y40.106
G0 X60.852 Y42
G1 F1500 E93.17073
G1 F900 X71.07 Y42 E93.84363
G0 X70.5 Y41.432
G1 X70.5 Y66.65 E95.50437
G0 X71.148 Y66
G1 X40.013 Y66 E97.55476
G0 X40.5 Y66.486
G1 X40.5 Y62.352 E97.82701
G0 X53.352 Y49.5
G1 X78.568 Y49.5 E99.48761
G0 X78 Y48.934
G1 X78 Y59.15 E100.16038
G0 X54 Y48.852
G1 X54 Y79.986 E102.21072
G0 X53.513 Y79.5
G1 X57.647 Y79.5 E102.48296
G1 F1500 E97.48296
;MESH:Module_Bay_Cover_A03.STL
G0 F900 X55.255 Y81.891
G0 X54.346 Y82.8
G0 X36.164 Y65.155
;TYPE:WALL-INNER
G1 F1500 E103.18974
G1 F900 X35.716 Y64.707 E103.21755
G1 X35.708 Y64.699 E103.21805
G1 X35.688 Y64.679 E103.21929
G1 X35.595 Y64.586 E103.22507
G1 X35.322 Y64.313 E103.24202
G1 X35.628 Y64.007 E103.26102
G1 X35.983 Y63.652 E103.28306
G1 X59.717 Y39.918 E104.75667
G1 X59.823 Y40.025 E104.76329
G1 X36.09 Y63.758 E105.31723
G1 X35.941 Y64.238 E105.3326
G1 X35.896 Y64.383 E105.33927
G1 X35.857 Y64.509 E105.34406
G1 X35.87 Y64.536 E105.34484
G1 X35.863 Y64.559 E105.34547
G1 X36.164 Y65.155 E105.35392
G0 X55.298 Y84.028
G1 X55.632 Y84.197 E105.37035
G1 X55.748 Y84.136 E105.37611
G1 X55.806 Y84.15 E105.37873
G1 X56.128 Y83.934 E105.39575
G1 X56.328 Y83.824 E105.40577
G1 X79.976 Y60.177 E106.87401
G1 X80.082 Y60.283 E106.8806
G1 X56.435 Y83.93 E107.43069
G1 X56.28 Y84.085 E107.4357
G1 X56.011 Y84.354 E107.44662
G1 X55.989 Y84.376 E107.44762
G1 X55.9 Y84.465 E107.45248
G1 X55.687 Y84.678 E107.4657
G1 X55.419 Y84.41 E107.48234
G1 X55.168 Y84.159 E107.49171
G1 X55.037 Y84.028 E107.49984
G1 X55.298 Y84.028 E107.50433
G0 X55.419 Y83.641
G1 X55.629 Y83.747 E107.51465
G1 X55.696 Y83.712 E107.51797
G1 X55.729 Y83.72 E107.51946
G1 X55.916 Y83.594 E107.52936
G1 X56.086 Y83.501 E107.53787
G1 X79.976 Y59.611 E109.02117
G1 X80.648 Y60.283 E109.06289
G1 X55.687 Y85.244 E110.61269
G1 X34.756 Y64.313 E111.91227
G1 X59.577 Y39.492 E113.45338
G1 X59.717 Y39.352 E113.46207
G1 X59.857 Y39.492 E113.46767
G1 X60.389 Y40.025 E113.50073
G1 X36.443 Y63.971 E114.98751
G1 X36.285 Y64.478 E115.01083
G1 X36.295 Y64.499 E115.01185
G1 X36.29 Y64.517 E115.01267
G1 X36.492 Y64.918 E115.03238
G1 X54.886 Y83.312 E116.17444
G0 F810 X55.202 Y83.628
G0 X55.368 Y83.628
G0 X55.419 Y83.641
G0 F900 X55.626 Y83.297
;TYPE:WALL-OUTER
G1 X55.645 Y83.287 E116.17538
G1 X55.653 Y83.289 E116.17575
G1 X55.705 Y83.254 E116.1785
G1 X55.843 Y83.178 E116.18541
G1 X79.948 Y59.074 E117.68203
G1 X79.981 Y59.061 E117.68359
G1 X80 Y59.069 E117.68449
G1 X81.214 Y60.283 E117.75987
G1 X55.687 Y85.81 E119.34481
G1 X34.19 Y64.313 E120.67953
G1 X59.576 Y38.927 E122.25572
G1 X59.717 Y38.786 E122.26447
G1 X59.858 Y38.927 E122.27012
G1 X60.927 Y39.997 E122.33653
G1 X60.938 Y40.036 E122.33831
G1 X60.931 Y40.049 E122.33896
G1 X36.796 Y64.184 E123.83747
G1 X36.713 Y64.45 E123.8497
G1 X36.719 Y64.463 E123.85033
G1 X36.716 Y64.474 E123.85083
G1 X36.82 Y64.68 E123.86096
G1 X55.088 Y82.948 E124.9952
G0 F810 X55.368 Y83.228
G0 X55.417 Y83.228
G0 X55.561 Y83.264
G0 X55.626 Y83.297
G0 F900 X55.645 Y83.287
G0 X55.653 Y83.289
G0 X55.705 Y83.254
G0 X55.8 Y83.202
G0 X56.011 Y83.588
G0 X56.039 Y83.641
G0 X55.037 Y83.887
;TYPE:SKIN
G1 X36.335 Y65.185 E125.57579
G0 X36.181 Y65.314
M104 S196
G1 X54.888 Y84.021 E126.15654
G0 X35.753 Y64.32
G1 X35.643 Y64.21 E126.15995
G1 F1500 E121.15995
;MESH:NONMESH
G0 F600 X35.643 Y64.21 Z0.48
G0 F900 X59.717 Y39.372
G0 X58.813 Y38.468
G0 X57.866 Y36.112
;TIME_ELAPSED:167.939003
;LAYER:1
M106 S85
;TYPE:SKIRT
G1 F1500 E126.86673
G1 F900 X58.31 Y35.666 E126.89436
G1 X61.537 Y32.439 E127.09472
G1 X62.111 Y31.881 E127.12987
G1 X62.521 Y31.554 E127.15289
G1 X62.963 Y31.309 E127.17508
G1 X63.479 Y31.12 E127.1992
G1 X63.995 Y31.015 E127.22232
G1 X64.584 Y31.007 E127.24818
G1 X65.164 Y31.115 E127.27409
G1 X65.779 Y31.367 E127.30327
G1 X66.21 Y31.627 E127.32536
G1 X66.335 Y31.724 E127.33231
G1 X67.3 Y32.65 E127.39103
G1 X87.627 Y52.978 E128.65314
G1 X88.135 Y53.504 E128.68524
G1 X88.468 Y53.924 E128.70877
G1 X88.732 Y54.428 E128.73375
G1 X88.914 Y55 E128.76011
G1 X88.998 Y55.585 E128.78605
G1 X88.976 Y56.105 E128.8089
G1 X88.844 Y56.677 E128.83468
G1 X88.563 Y57.282 E128.86396
G1 X88.253 Y57.736 E128.8881
G1 X88.207 Y57.79 E128.89121
G1 X87.516 Y58.505 E128.93487
G1 X84.043 Y61.98 E129.15056
G1 X58.33 Y87.693 E130.74705
G1 X57.749 Y88.258 E130.78263
G1 X57.35 Y88.576 E130.80503
G1 X56.908 Y88.821 E130.82722
G1 X56.413 Y88.993 E130.85023
G1 X55.851 Y89.078 E130.87518
G1 X55.316 Y89.059 E130.89868
G1 X54.823 Y88.955 E130.9208
G1 X54.293 Y88.737 E130.94596
G1 X53.837 Y88.442 E130.96981
G1 X53.349 Y87.997 E130.9988
G1 X32.307 Y66.956 E132.30524
G1 X31.742 Y66.375 E132.34082
G1 X31.422 Y65.974 E132.36335
G1 X31.179 Y65.534 E132.38542
G1 X31.004 Y65.027 E132.40896
G1 X30.921 Y64.461 E132.43408
G1 X30.942 Y63.935 E132.45719
G1 X31.047 Y63.442 E132.47932
G1 X31.263 Y62.919 E132.50416
G1 X31.568 Y62.451 E132.52869
G1 X32.006 Y61.972 E132.55718
G1 X57.396 Y36.582 E134.13362
G0 F810 X57.866 Y36.112
G0 F3000 X61.5 Y39.014
;TYPE:SUPPORT
G1 X61.892 Y39.406 E134.17013
G1 X61.854 Y39.444 E134.17366
G1 X61.868 Y39.458 E134.17497
G1 X62.056 Y40.159 E134.22276
G1 X61.789 Y40.672 E134.26085
G1 X61.5 Y40.96 E134.28772
G1 X61.5 Y76.041 E136.59798
G1 X63 Y74.541 E136.73768
G1 X63 Y36.183 E139.26375
G1 X64.315 Y34.868 E139.38622
G1 X64.5 Y35.054 E139.4035
G1 X64.5 Y73.041 E141.90513
G1 X66 Y71.541 E142.04483
G1 X66 Y36.554 E144.3489
G1 X67.5 Y38.054 E144.4886
G1 X67.5 Y70.042 E146.59517
G1 X69 Y68.542 E146.73487
G1 X69 Y39.554 E148.64388
G1 X70.5 Y41.055 E148.78363
G1 X70.5 Y67.042 E150.495
G1 X72 Y65.542 E150.6347
G1 X72 Y42.555 E152.14851
G1 X73.5 Y44.055 E152.28821
G1 X73.5 Y64.042 E153.60446
G1 X75 Y62.542 E153.74416
G1 X75 Y45.556 E154.86277
G1 X76.5 Y47.056 E155.00247
G1 X76.5 Y61.042 E155.92352
G1 X78 Y59.542 E156.06322
G1 X78 Y48.556 E156.7867
G1 X79.5 Y50.056 E156.9264
G1 X79.5 Y58.124 E157.45772
G1 X80.007 Y57.939 E157.49326
G1 X80.543 Y58.159 E157.53142
G1 X80.594 Y58.108 E157.53617
G1 X81 Y58.514 E157.57398
G1 X81 Y51.557 E158.03214
G1 X82.5 Y53.057 E158.17183
G1 X82.5 Y58.319 E158.51836
G1 X84 Y56.817 E158.65816
G1 X84 Y54.557 E158.80699
G1 X85.129 Y55.686 E158.91214
G1 X84 Y56.817 E159.01738
G0 X61.5 Y40.96
G1 X60 Y42.46 E159.15708
G1 X60 Y77.541 E161.46734
G1 X58.5 Y79.041 E161.60704
G1 X58.5 Y43.96 E163.9173
G1 X57 Y45.46 E164.057
G1 X57 Y80.541 E166.36726
G1 X55.618 Y81.922 E166.49592
G1 X55.5 Y81.804 E166.50691
G1 X55.5 Y46.96 E168.80157
G1 X54 Y48.46 E168.94127
G1 X54 Y80.304 E171.03836
G1 X52.5 Y78.804 E171.17806
G1 X52.5 Y49.96 E173.07758
G1 X51 Y51.46 E173.21728
G1 X51 Y77.304 E174.91924
G1 X49.5 Y75.804 E175.05894
G1 X49.5 Y52.96 E176.56333
G1 X48 Y54.46 E176.70303
G1 X48 Y74.304 E178.00986
G1 X46.5 Y72.804 E178.14956
G1 X46.5 Y55.96 E179.25882
G1 X45 Y57.46 E179.39852
G1 X45 Y71.304 E180.31022
G1 X43.5 Y69.804 E180.44992
G1 X43.5 Y58.96 E181.16405
G1 X42 Y60.46 E181.30375
G1 X42 Y68.304 E181.82032
G1 X40.5 Y66.804 E181.96002
G1 X40.5 Y61.96 E182.27902
G1 X39 Y63.46 E182.41872
G1 X39 Y65.304 E182.54016
G1 X38.078 Y64.382 E182.62602
G1 X39 Y63.46 E182.71189
G1 F1500 E177.71189
G0 F3000 X61.543 Y39.406
G0 X61.5 Y39.014
G1 F1500 E183.41867
G1 F3000 X60.746 Y38.26 E183.48889
G1 X60.863 Y38.143 E183.49979
G1 X60.893 Y38.117 E183.5024
G1 X61.401 Y37.783 E183.54244
G1 X61.5 Y37.683 E183.55171
G1 X61.5 Y39.014 E183.63936
G1 F1500 E178.63936
;MESH:Module_Bay_Cover_A03.STL
G0 F3000 X59.751 Y39.406
G0 X35.818 Y63.303
G0 X35.497 Y64.488
;TYPE:WALL-INNER
G1 F1500 E184.34614
G1 F2100 X35.322 Y64.313 E184.357
G1 X35.4 Y64.235 E184.36185
G1 X35.416 Y64.276
G1 X35.497 Y64.488 E184.36288
G0 F3000 X55.766 Y84.599
G1 F2100 X55.687 Y84.678 E184.36778
G1 X55.486 Y84.477 E184.38026
G1 X55.728 Y84.582 E184.38154
G1 X55.766 Y84.599
G0 F3000 X56.108 Y84.311
G1 F2100 X56.185 Y84.344 E184.38522
G1 X56.685 Y84.14 E184.40893
G1 X80.594 Y60.229 E185.89347
G1 X80.648 Y60.283 E185.89682
G1 X56.738 Y84.193 E186.17585
G1 X56.386 Y84.545 E186.18538
G1 X56.327 Y84.604 E186.18861
G1 X55.687 Y85.244 E186.22834
G1 X34.756 Y64.313 E187.52792
G1 X35.401 Y63.668 E187.56797
G1 X35.462 Y63.607 E187.57176
G1 X35.798 Y63.271 E187.59262
G1 X59.717 Y39.352 E189.07772
G1 X59.771 Y39.406 E189.08107
G1 X35.851 Y63.324 E189.36021
G1 X35.664 Y63.809 E189.37126
G1 X35.695 Y63.89 E189.37461
G1 X35.772 Y64.091 E189.38406
G1 X35.84 Y64.265 E189.39226
G1 X55.548 Y83.973 E190.61591
G0 F1890 X55.715 Y84.14
G0 X56.108 Y84.311
G0 F3000 X56.19 Y83.91
;TYPE:WALL-OUTER
G1 F1500 X56.459 Y83.8 E190.62867
G1 X80.453 Y59.804 E192.11849
G1 X80.594 Y59.663 E192.12724
G1 X80.735 Y59.804 E192.13289
G1 X81.214 Y60.283 E192.16263
G1 X55.687 Y85.81 E193.74757
G1 X34.19 Y64.313 E195.0823
G1 X59.717 Y38.786 E196.66724
G1 X60.196 Y39.265 E196.69698
G1 X60.337 Y39.406 E196.70573
G1 X60.196 Y39.547 E196.71138
G1 X36.194 Y63.547 E198.20158
G1 X36.093 Y63.809 E198.2139
G1 X36.183 Y64.042 E198.22487
G1 X55.664 Y83.523 E199.43442
G0 F1350 X55.944 Y83.803
G0 X56.19 Y83.91
G0 F3000 X56.375 Y83.835
G0 X56.54 Y84.243
G0 X56.561 Y84.298
G0 X55.54 Y84.183
G0 X55.366 Y84.357
;TYPE:SKIN
G1 F1800 X55.224 Y84.215 E199.44512
G1 X50.416 Y79.407 E199.80752
G1 X45.325 Y74.316 E200.19125
G1 X40.658 Y69.649 E200.54302
G1 X36.176 Y65.167 E200.88085
G0 F1620 X35.991 Y64.982
G0 X35.708 Y64.699
G0 X35.693 Y64.432
G0 X35.409 Y64.716
G0 F3000 X35.567 Y64.56
G1 F1500 E195.88085
;MESH:NONMESH
G0 F600 X35.567 Y64.56 Z0.72
G0 F3000 X35.624 Y63.809
G0 X59.717 Y39.372
G0 X58.813 Y38.468
G0 X57.866 Y36.112
;TIME_ELAPSED:213.564305
;LAYER:2
M106 S170
;TYPE:SKIRT
G1 F1500 E201.58763
G1 F900 X58.31 Y35.666 E201.61526
G1 X61.537 Y32.439 E201.81562
G1 X62.111 Y31.881 E201.85076
G1 X62.521 Y31.554 E201.87379
G1 X62.963 Y31.309 E201.89597
G1 X63.479 Y31.12 E201.9201
G1 X63.995 Y31.015 E201.94322
G1 X64.584 Y31.007 E201.96908
G1 X65.164 Y31.115 E201.99498
G1 X65.779 Y31.367 E202.02416
G1 X66.21 Y31.627 E202.04626
G1 X66.335 Y31.724 E202.05321
G1 X67.3 Y32.65 E202.11192
G1 X87.627 Y52.978 E203.37403
G1 X88.135 Y53.504 E203.40614
G1 X88.468 Y53.924 E203.42967
G1 X88.732 Y54.428 E203.45465
G1 X88.914 Y55 E203.481
G1 X88.998 Y55.585 E203.50695
G1 X88.976 Y56.105 E203.5298
G1 X88.844 Y56.677 E203.55557
G1 X88.563 Y57.282 E203.58486
G1 X88.253 Y57.736 E203.60899
G1 X88.207 Y57.79 E203.61211
G1 X87.516 Y58.505 E203.65576
G1 X84.043 Y61.98 E203.87146
G1 X58.33 Y87.693 E205.46795
G1 X57.749 Y88.258 E205.50353
G1 X57.35 Y88.576 E205.52593
G1 X56.908 Y88.821 E205.54812
G1 X56.413 Y88.993 E205.57112
G1 X55.851 Y89.078 E205.59608
G1 X55.316 Y89.059 E205.61958
G1 X54.823 Y88.955 E205.6417
G1 X54.293 Y88.737 E205.66686
G1 X53.837 Y88.442 E205.6907
G1 X53.349 Y87.997 E205.7197
G1 X32.307 Y66.956 E207.02614
G1 X31.742 Y66.375 E207.06172
G1 X31.422 Y65.974 E207.08424
G1 X31.179 Y65.534 E207.10631
G1 X31.004 Y65.027 E207.12986
G1 X30.921 Y64.461 E207.15497
G1 X30.942 Y63.935 E207.17809
G1 X31.047 Y63.442 E207.20022
