;FLAVOR:Marlin
;TIME:1570
;Filament used: 0.796777m
;Layer height: 0.1
;MINX:-28.05
;MINY:-16
;MINZ:0.3
;MAXX:-1.95
;MAXY:6
;MAXZ:29.98
;Generated with Cura_SteamEngine 4.13.1
M140 S50
M105
M190 S50
M104 S210
M105
M109 S210
M82 ;absolute extrusion mode
;FLAVOR:Marlin
M82 ;absolute extrusion mode
G21
G90
M82
M107 T0
G28
G92 E0
G0 E3 F200
G92 E0 ; reset extrusion distance
M106 S255 ; Enable cooling fan full speed
G1 X-98 Y0 Z0.4 F3000 ; move to arc start
G3 X0 Y-98 I98 Z0.4 E40 F400 ; lay arc stripe 90deg
G92 E0 ; reset extrusion distance
G4 P500 ; wait for 0.5 sec
G0 Z10 E-1 ; Lift 15mm and retract 1mm filament
G4 P2000 ; wait for 5 sec
G0 Z15
M107 ; Disable cooling fan
G1 X0 Y-85 Z4 E0 F3000 ; get off the bed
G92 E0
G92 E0
G1 F1500 E-6.5
;LAYER_COUNT:195
;LAYER:0
M106 S25.5
G1 F600 Z1.3
G0 F3600 X-1.95 Y3 Z1.3
;TYPE:SKIRT
G1 F600 Z0.3
G1 F1500 E0.3326
G1 F2400 X-1.99 Y3.488 E0.35947
G1 X-2.109 Y3.963 E0.38635
G1 X-2.303 Y4.412 E0.41319
G1 X-2.568 Y4.824 E0.44007
G1 X-2.896 Y5.187 E0.46692
G1 X-3.279 Y5.492 E0.49379
G1 X-3.707 Y5.73 E0.52067
G1 X-4.167 Y5.896 E0.5475
G1 X-4.95 Y6 E0.59085
G1 X-25.05 Y6 E1.69392
G1 X-25.538 Y5.96 E1.72079
G1 X-26.013 Y5.841 E1.74767
G1 X-26.462 Y5.647 E1.77451
G1 X-26.874 Y5.382 E1.80139
G1 X-27.237 Y5.054 E1.82824
G1 X-27.542 Y4.671 E1.85511
G1 X-27.78 Y4.243 E1.88199
G1 X-27.946 Y3.783 E1.90882
G1 X-28.05 Y3 E1.95217
G1 X-28.05 Y-13 E2.83024
G1 X-28.01 Y-13.488 E2.85711
G1 X-27.891 Y-13.963 E2.88398
G1 X-27.697 Y-14.412 E2.91083
G1 X-27.432 Y-14.824 E2.93771
G1 X-27.104 Y-15.187 E2.96456
G1 X-26.721 Y-15.492 E2.99143
G1 X-26.293 Y-15.73 E3.0183
G1 X-25.833 Y-15.896 E3.04514
G1 X-25.05 Y-16 E3.08849
G1 X-4.95 Y-16 E4.19156
G1 X-4.462 Y-15.96 E4.21843
G1 X-3.987 Y-15.841 E4.24531
G1 X-3.538 Y-15.647 E4.27215
G1 X-3.126 Y-15.382 E4.29903
G1 X-2.763 Y-15.054 E4.32588
G1 X-2.458 Y-14.671 E4.35275
G1 X-2.22 Y-14.243 E4.37963
G1 X-2.054 Y-13.783 E4.40646
G1 X-1.95 Y-13 E4.44981
G1 X-1.95 Y3 E5.32788
G0 F3600 X-2.35 Y3
G1 F2400 X-2.39 Y3.454 E5.35289
G1 X-2.508 Y3.894 E5.37789
G1 X-2.702 Y4.306 E5.40288
G1 X-2.965 Y4.679 E5.42793
G1 X-3.288 Y5 E5.45292
G1 X-3.663 Y5.259 E5.47793
G1 X-4.077 Y5.449 E5.50293
G1 X-4.518 Y5.564 E5.52794
G1 X-4.95 Y5.6 E5.55173
G1 X-25.05 Y5.6 E6.6548
G1 X-25.504 Y5.56 E6.67981
G1 X-25.944 Y5.442 E6.70481
G1 X-26.356 Y5.248 E6.72981
G1 X-26.729 Y4.985 E6.75485
G1 X-27.05 Y4.662 E6.77984
G1 X-27.309 Y4.287 E6.80485
G1 X-27.499 Y3.873 E6.82985
G1 X-27.614 Y3.432 E6.85486
G1 X-27.65 Y3 E6.87865
G1 X-27.65 Y-13 E7.75672
G1 X-27.61 Y-13.454 E7.78173
G1 X-27.492 Y-13.894 E7.80673
G1 X-27.298 Y-14.306 E7.83173
G1 X-27.035 Y-14.679 E7.85677
G1 X-26.712 Y-15 E7.88176
G1 X-26.337 Y-15.259 E7.90677
G1 X-25.923 Y-15.449 E7.93177
G1 X-25.482 Y-15.564 E7.95678
G1 X-25.05 Y-15.6 E7.98057
G1 X-4.95 Y-15.6 E9.08365
G1 X-4.496 Y-15.56 E9.10866
G1 X-4.056 Y-15.442 E9.13366
G1 X-3.644 Y-15.248 E9.15865
G1 X-3.271 Y-14.985 E9.1837
G1 X-2.95 Y-14.662 E9.20869
G1 X-2.691 Y-14.287 E9.2337
G1 X-2.501 Y-13.873 E9.2587
G1 X-2.386 Y-13.432 E9.28371
G1 X-2.35 Y-13 E9.3075
G1 X-2.35 Y3 E10.18556
G0 F3600 X-2.75 Y3
G1 F2400 X-2.79 Y3.417 E10.20855
G1 X-2.908 Y3.819 E10.23155
G1 X-3.101 Y4.191 E10.25455
G1 X-3.36 Y4.52 E10.27752
G1 X-3.677 Y4.794 E10.30052
G1 X-4.04 Y5.003 E10.32351
G1 X-4.437 Y5.139 E10.34654
G1 X-4.95 Y5.2 E10.37489
G1 X-25.05 Y5.2 E11.47796
G1 X-25.467 Y5.16 E11.50095
G1 X-25.869 Y5.042 E11.52394
G1 X-26.241 Y4.849 E11.54694
G1 X-26.57 Y4.59 E11.56992
G1 X-26.844 Y4.273 E11.59291
G1 X-27.053 Y3.91 E11.6159
G1 X-27.189 Y3.513 E11.63893
G1 X-27.25 Y3 E11.66728
G1 X-27.25 Y-13 E12.54535
G1 X-27.21 Y-13.417 E12.56834
G1 X-27.092 Y-13.819 E12.59133
G1 X-26.899 Y-14.191 E12.61433
G1 X-26.64 Y-14.52 E12.63731
G1 X-26.323 Y-14.794 E12.6603
G1 X-25.96 Y-15.003 E12.68329
G1 X-25.563 Y-15.139 E12.70632
G1 X-25.05 Y-15.2 E12.73467
G1 X-4.95 Y-15.2 E13.83775
G1 X-4.533 Y-15.16 E13.86074
G1 X-4.131 Y-15.042 E13.88373
G1 X-3.759 Y-14.849 E13.90673
G1 X-3.43 Y-14.59 E13.92971
G1 X-3.156 Y-14.273 E13.9527
G1 X-2.947 Y-13.91 E13.97569
G1 X-2.811 Y-13.513 E13.99872
G1 X-2.75 Y-13 E14.02707
G1 X-2.75 Y3 E14.90514
G0 F3600 X-3.15 Y3
G1 F2400 X-3.19 Y3.377 E14.92594
G1 X-3.308 Y3.737 E14.94673
G1 X-3.498 Y4.064 E14.96749
G1 X-3.753 Y4.345 E14.98831
G1 X-4.062 Y4.565 E15.00913
G1 X-4.409 Y4.717 E15.02992
G1 X-4.95 Y4.8 E15.05996
G1 X-25.05 Y4.8 E16.16303
G1 X-25.427 Y4.76 E16.18383
G1 X-25.787 Y4.642 E16.20462
G1 X-26.114 Y4.452 E16.22538
G1 X-26.395 Y4.197 E16.2462
G1 X-26.615 Y3.888 E16.26702
G1 X-26.767 Y3.541 E16.28781
G1 X-26.85 Y3 E16.31785
G1 X-26.85 Y-13 E17.19591
G1 X-26.81 Y-13.377 E17.21672
G1 X-26.692 Y-13.737 E17.23751
G1 X-26.502 Y-14.064 E17.25827
G1 X-26.247 Y-14.345 E17.27909
G1 X-25.938 Y-14.565 E17.29991
G1 X-25.591 Y-14.717 E17.3207
G1 X-25.05 Y-14.8 E17.35073
G1 X-4.95 Y-14.8 E18.45381
G1 X-4.573 Y-14.76 E18.47461
G1 X-4.213 Y-14.642 E18.4954
G1 X-3.886 Y-14.452 E18.51616
G1 X-3.605 Y-14.197 E18.53698
G1 X-3.385 Y-13.888 E18.5578
G1 X-3.233 Y-13.541 E18.57859
G1 X-3.15 Y-13 E18.60862
G1 X-3.15 Y3 E19.48669
G0 F3600 X-3.55 Y3
G1 F2400 X-3.59 Y3.332 E19.50504
G1 X-3.707 Y3.644 E19.52333
G1 X-3.895 Y3.921 E19.5417
G1 X-4.143 Y4.144 E19.56001
G1 X-4.437 Y4.303 E19.57835
G1 X-4.95 Y4.4 E19.607
G1 X-25.05 Y4.4 E20.71007
G1 X-25.382 Y4.36 E20.72842
G1 X-25.694 Y4.243 E20.74671
G1 X-25.971 Y4.055 E20.76508
G1 X-26.194 Y3.807 E20.78339
G1 X-26.353 Y3.513 E20.80173
G1 X-26.45 Y3 E20.83038
G1 X-26.45 Y-13 E21.70845
G1 X-26.41 Y-13.332 E21.7268
G1 X-26.293 Y-13.644 E21.74509
G1 X-26.105 Y-13.921 E21.76346
G1 X-25.857 Y-14.144 E21.78176
G1 X-25.563 Y-14.303 E21.8001
G1 X-25.05 Y-14.4 E21.82876
G1 X-4.95 Y-14.4 E22.93183
G1 X-4.618 Y-14.36 E22.95018
G1 X-4.306 Y-14.243 E22.96847
G1 X-4.029 Y-14.055 E22.98684
G1 X-3.806 Y-13.807 E23.00514
G1 X-3.647 Y-13.513 E23.02349
G1 X-3.55 Y-13 E23.05214
G1 X-3.55 Y3 E23.93021
G0 F3600 X-3.95 Y3
G1 F2400 X-3.99 Y3.279 E23.94567
G1 X-4.106 Y3.536 E23.96115
G1 X-4.289 Y3.751 E23.97664
G1 X-4.525 Y3.905 E23.99211
G1 X-4.95 Y4 E24.01601
G1 X-25.05 Y4 E25.11908
G1 X-25.329 Y3.96 E25.13455
G1 X-25.586 Y3.844 E25.15002
G1 X-25.801 Y3.661 E25.16551
G1 X-25.955 Y3.425 E25.18098
G1 X-26.05 Y3 E25.20488
G1 X-26.05 Y-13 E26.08295
G1 X-26.01 Y-13.279 E26.09841
G1 X-25.894 Y-13.536 E26.11389
G1 X-25.711 Y-13.751 E26.12938
G1 X-25.475 Y-13.905 E26.14485
G1 X-25.05 Y-14 E26.16875
G1 X-4.95 Y-14 E27.27182
G1 X-4.671 Y-13.96 E27.28729
G1 X-4.414 Y-13.844 E27.30276
G1 X-4.199 Y-13.661 E27.31826
G1 X-4.045 Y-13.425 E27.33372
G1 X-3.95 Y-13 E27.35762
G1 X-3.95 Y3 E28.23569
G0 F3600 X-4.35 Y3
G1 F2400 X-4.39 Y3.215 E28.24769
G1 X-4.503 Y3.401 E28.25963
G1 X-4.676 Y3.534 E28.27161
G1 X-4.95 Y3.6 E28.28708
G1 X-25.05 Y3.6 E29.39015
G1 X-25.265 Y3.56 E29.40215
G1 X-25.451 Y3.447 E29.41409
G1 X-25.584 Y3.274 E29.42607
G1 X-25.65 Y3 E29.44154
G1 X-25.65 Y-13 E30.3196
G1 X-25.61 Y-13.215 E30.3316
G1 X-25.497 Y-13.401 E30.34355
G1 X-25.324 Y-13.534 E30.35552
G1 X-25.05 Y-13.6 E30.37099
G1 X-4.95 Y-13.6 E31.47406
G1 X-4.735 Y-13.56 E31.48606
G1 X-4.549 Y-13.447 E31.49801
G1 X-4.416 Y-13.274 E31.50998
G1 X-4.35 Y-13 E31.52545
G1 X-4.35 Y3 E32.40352
G0 F3600 X-4.75 Y3
G1 F2400 X-4.789 Y3.119 E32.41039
G1 X-4.95 Y3.2 E32.42028
G1 X-25.05 Y3.2 E33.52335
G1 X-25.169 Y3.161 E33.53023
G1 X-25.25 Y3 E33.54012
G1 X-25.25 Y-13 E34.41818
G1 X-25.211 Y-13.119 E34.42506
G1 X-25.05 Y-13.2 E34.43495
G1 X-4.95 Y-13.2 E35.53802
G1 X-4.831 Y-13.161 E35.54489
G1 X-4.75 Y-13 E35.55478
G1 X-4.75 Y3 E36.43285
G1 F1500 E29.93285
G1 F600 Z1.3
;MESH:Oral_B_Head_Cover.STL
G0 F3600 X-5.15 Y-12.8 Z1.3
;TYPE:WALL-OUTER
G1 F600 Z0.3
G1 F1500 E36.76545
G1 F2400 X-5.15 Y-12.4 E36.7874
G1 X-5.15 Y2.4 E37.59962
G1 X-5.15 Y2.8 E37.62157
G1 X-5.55 Y2.8 E37.64352
G1 X-12.65 Y2.8 E38.03316
G1 X-13.05 Y2.8 E38.05511
G1 X-24.45 Y2.8 E38.68074
G1 X-24.85 Y2.8 E38.70269
G1 X-24.85 Y2.4 E38.72464
G1 X-24.85 Y-12.4 E39.53685
G1 X-24.85 Y-12.8 E39.5588
G1 X-24.45 Y-12.8 E39.58076
G1 X-13.05 Y-12.8 E40.20638
G1 X-12.65 Y-12.8 E40.22833
G1 X-5.55 Y-12.8 E40.61797
G1 X-5.15 Y-12.8 E40.63992
G0 F3600 X-5.15 Y-12.6
G0 X-5.25 Y-12.6
G0 X-12.72 Y-12.47
G0 X-12.65 Y-12.4
M104 S205
G1 F2400 X-12.65 Y-10.2 E40.76066
G1 X-13.05 Y-10.2 E40.78261
G1 X-13.05 Y-12.4 E40.90335
G1 X-24.45 Y-12.4 E41.52897
G1 X-24.45 Y2.4 E42.34118
G1 X-13.05 Y2.4 E42.9668
G1 X-13.05 Y0.2 E43.08754
G1 X-12.65 Y0.2 E43.10949
G1 X-12.65 Y2.4 E43.23022
G1 X-5.55 Y2.4 E43.61987
G1 X-5.55 Y-12.4 E44.43208
G1 X-12.65 Y-12.4 E44.82172
G0 F3600 X-12.65 Y-12.2
;MESH:NONMESH
G0 F600 X-12.65 Y-12.2 Z0.52
G0 F3600 X-12.75 Y-12.2
G0 X-5.22 Y-12.73
G0 X-5.15 Y-12.8
;TIME_ELAPSED:23.995678
;LAYER:1
M106 S255
;TYPE:WALL-OUTER
;MESH:Oral_B_Head_Cover.STL
G1 F1125.4 X-5.15 Y-12.4 E44.83636
G1 X-5.15 Y2.4 E45.37783
G1 X-5.15 Y2.8 E45.39247
G1 X-5.55 Y2.8 E45.4071
G1 X-12.65 Y2.8 E45.66686
G1 X-13.05 Y2.8 E45.6815
G1 X-24.45 Y2.8 E46.09858
G1 X-24.85 Y2.8 E46.11321
G1 X-24.85 Y2.4 E46.12785
G1 X-24.85 Y-12.4 E46.66932
G1 X-24.85 Y-12.8 E46.68396
G1 X-24.45 Y-12.8 E46.69859
G1 X-13.05 Y-12.8 E47.11567
G1 X-12.65 Y-12.8 E47.13031
G1 X-5.55 Y-12.8 E47.39007
G1 X-5.15 Y-12.8 E47.4047
G0 F5400 X-5.15 Y-12.6
G0 X-5.25 Y-12.6
G0 X-12.72 Y-12.47
G0 X-12.65 Y-12.4
G1 F1125.4 X-12.65 Y-10.2 E47.48519
G1 X-13.05 Y-10.2 E47.49983
G1 X-13.05 Y-12.4 E47.58032
G1 X-24.45 Y-12.4 E47.9974
G1 X-24.45 Y2.4 E48.53887
G1 X-13.05 Y2.4 E48.95596
G1 X-13.05 Y0.2 E49.03645
G1 X-12.65 Y0.2 E49.05108
G1 X-12.65 Y2.4 E49.13157
G1 X-5.55 Y2.4 E49.39133
G1 X-5.55 Y-12.4 E49.93281
G1 X-12.65 Y-12.4 E50.19257
G0 F5400 X-12.65 Y-12.2
;MESH:NONMESH
G0 F600 X-12.65 Y-12.2 Z0.74
G0 F5400 X-12.75 Y-12.2
G0 X-5.22 Y-12.73
G0 X-5.15 Y-12.8
;TIME_ELAPSED:32.134154
;LAYER:2
;TYPE:WALL-OUTER
;MESH:Oral_B_Head_Cover.STL
G1 F1119.2 X-5.15 Y-12.4 E50.2072
G1 X-5.15 Y2.4 E50.74868
G1 X-5.15 Y2.8 E50.76331
G1 X-5.55 Y2.8 E50.77795
G1 X-12.65 Y2.8 E51.03771
G1 X-13.05 Y2.8 E51.05234
G1 X-24.45 Y2.8 E51.46942
G1 X-24.85 Y2.8 E51.48406
G1 X-24.85 Y2.4 E51.49869
G1 X-24.85 Y-12.4 E52.04017
G1 X-24.85 Y-12.8 E52.0548
G1 X-24.45 Y-12.8 E52.06944
G1 X-13.05 Y-12.8 E52.48652
G1 X-12.65 Y-12.8 E52.50115
G1 X-5.55 Y-12.8 E52.76092
G1 X-5.15 Y-12.8 E52.77555
G0 F7200 X-5.15 Y-12.6
G0 X-5.25 Y-12.6
G0 X-12.72 Y-12.47
G0 X-12.65 Y-12.4
G1 F1119.2 X-12.65 Y-10.2 E52.85604
G1 X-13.05 Y-10.2 E52.87067
G1 X-13.05 Y-12.4 E52.95116
G1 X-24.45 Y-12.4 E53.36825
G1 X-24.45 Y2.4 E53.90972
G1 X-13.05 Y2.4 E54.3268
G1 X-13.05 Y0.2 E54.40729
G1 X-12.65 Y0.2 E54.42193
G1 X-12.65 Y2.4 E54.50242
G1 X-5.55 Y2.4 E54.76218
G1 X-5.55 Y-12.4 E55.30365
G1 X-12.65 Y-12.4 E55.56341
G0 F7200 X-12.65 Y-12.2
;MESH:NONMESH
G0 F600 X-12.65 Y-12.2 Z0.96
G0 F7200 X-12.75 Y-12.2
G0 X-5.22 Y-12.73
G0 X-5.15 Y-12.8
;TIME_ELAPSED:40.285715
;LAYER:3
;TYPE:WALL-OUTER
;MESH:Oral_B_Head_Cover.STL
G1 F1119.2 X-5.15 Y-12.4 E55.57805
G1 X-5.15 Y2.4 E56.11952
G1 X-5.15 Y2.8 E56.13416
G1 X-5.55 Y2.8 E56.14879
G1 X-12.65 Y2.8 E56.40855
G1 X-13.05 Y2.8 E56.42319
G1 X-24.45 Y2.8 E56.84027
G1 X-24.85 Y2.8 E56.85491
G1 X-24.85 Y2.4 E56.86954
G1 X-24.85 Y-12.4 E57.41102
G1 X-24.85 Y-12.8 E57.42565
G1 X-24.45 Y-12.8 E57.44028
G1 X-13.05 Y-12.8 E57.85737
G1 X-12.65 Y-12.8 E57.872
G1 X-5.55 Y-12.8 E58.13176
G1 X-5.15 Y-12.8 E58.1464
G0 F7200 X-5.15 Y-12.6
G0 X-5.25 Y-12.6
G0 X-12.72 Y-12.47
G0 X-12.65 Y-12.4
G1 F1119.2 X-12.65 Y-10.2 E58.22689
G1 X-13.05 Y-10.2 E58.24152
G1 X-13.05 Y-12.4 E58.32201
G1 X-24.45 Y-12.4 E58.73909
G1 X-24.45 Y2.4 E59.28057
G1 X-13.05 Y2.4 E59.69765
G1 X-13.05 Y0.2 E59.77814
G1 X-12.65 Y0.2 E59.79277
G1 X-12.65 Y2.4 E59.87326
G1 X-5.55 Y2.4 E60.13302
G1 X-5.55 Y-12.4 E60.6745
G1 X-12.65 Y-12.4 E60.93426
G0 F7200 X-12.65 Y-12.2
;MESH:NONMESH
G0 F600 X-12.65 Y-12.2 Z1.18
G0 F7200 X-12.75 Y-12.2
G0 X-5.22 Y-12.73
G0 X-5.15 Y-12.8
;TIME_ELAPSED:48.437276
;LAYER:4
;TYPE:WALL-OUTER
;MESH:Oral_B_Head_Cover.STL
G1 F1119.2 X-5.15 Y-12.4 E60.9489
G1 X-5.15 Y2.4 E61.49037
G1 X-5.15 Y2.8 E61.50501
G1 X-5.55 Y2.8 E61.51964
G1 X-12.65 Y2.8 E61.7794
G1 X-13.05 Y2.8 E61.79404
G1 X-24.45 Y2.8 E62.21112
G1 X-24.85 Y2.8 E62.22575
G1 X-24.85 Y2.4 E62.24039
G1 X-24.85 Y-12.4 E62.78186
G1 X-24.85 Y-12.8 E62.7965
G1 X-24.45 Y-12.8 E62.81113
G1 X-13.05 Y-12.8 E63.22821
G1 X-12.65 Y-12.8 E63.24285
G1 X-5.55 Y-12.8 E63.50261
G1 X-5.15 Y-12.8 E63.51724
G0 F7200 X-5.15 Y-12.6
G0 X-5.25 Y-12.6
G0 X-12.72 Y-12.47
G0 X-12.65 Y-12.4
G1 F1119.2 X-12.65 Y-10.2 E63.59773
G1 X-13.05 Y-10.2 E63.61237
G1 X-13.05 Y-12.4 E63.69286
G1 X-24.45 Y-12.4 E64.10994
G1 X-24.45 Y2.4 E64.65141
G1 X-13.05 Y2.4 E65.0685
G1 X-13.05 Y0.2 E65.14899
G1 X-12.65 Y0.2 E65.16362
G1 X-12.65 Y2.4 E65.24411
G1 X-5.55 Y2.4 E65.50387
G1 X-5.55 Y-12.4 E66.04535
G1 X-12.65 Y-12.4 E66.30511
G0 F7200 X-12.65 Y-12.2
;MESH:NONMESH
G0 F600 X-12.65 Y-12.2 Z1.4
G0 F7200 X-12.75 Y-12.2
G0 X-5.22 Y-12.73
G0 X-5.15 Y-12.8
;TIME_ELAPSED:56.588837
;LAYER:5
;TYPE:WALL-OUTER
;MESH:Oral_B_Head_Cover.STL
G1 F1119.2 X-5.15 Y-12.4 E66.31974
G1 X-5.15 Y2.4 E66.86122
G1 X-5.15 Y2.8 E66.87585
G1 X-5.55 Y2.8 E66.89049
G1 X-12.65 Y2.8 E67.15025
G1 X-13.05 Y2.8 E67.16488
G1 X-24.45 Y2.8 E67.58196
G1 X-24.85 Y2.8 E67.5966
G1 X-24.85 Y2.4 E67.61123
G1 X-24.85 Y-12.4 E68.15271
G1 X-24.85 Y-12.8 E68.16734
G1 X-24.45 Y-12.8 E68.18198
G1 X-13.05 Y-12.8 E68.59906
G1 X-12.65 Y-12.8 E68.61369
G1 X-5.55 Y-12.8 E68.87346
G1 X-5.15 Y-12.8 E68.88809
G0 F7200 X-5.15 Y-12.6
G0 X-5.25 Y-12.6
G0 X-12.72 Y-12.47
G0 X-12.65 Y-12.4
G1 F1119.2 X-12.65 Y-10.2 E68.96858
G1 X-13.05 Y-10.2 E68.98321
G1 X-13.05 Y-12.4 E69.0637
G1 X-24.45 Y-12.4 E69.48079
G1 X-24.45 Y2.4 E70.02226
G1 X-13.05 Y2.4 E70.43934
G1 X-13.05 Y0.2 E70.51983
G1 X-12.65 Y0.2 E70.53447
G1 X-12.65 Y2.4 E70.61496
G1 X-5.55 Y2.4 E70.87472
G1 X-5.55 Y-12.4 E71.41619
G1 X-12.65 Y-12.4 E71.67595
G0 F7200 X-12.65 Y-12.2
;MESH:NONMESH
G0 F600 X-12.65 Y-12.2 Z1.62
G0 F7200 X-12.75 Y-12.2
G0 X-5.22 Y-12.73
G0 X-5.15 Y-12.8
;TIME_ELAPSED:64.740398
;LAYER:6
;TYPE:WALL-OUTER
;MESH:Oral_B_Head_Cover.STL
G1 F1119.2 X-5.15 Y-12.4 E71.69059
G1 X-5.15 Y2.4 E72.23206
G1 X-5.15 Y2.8 E72.2467
G1 X-5.55 Y2.8 E72.26133
G1 X-12.65 Y2.8 E72.52109
G1 X-13.05 Y2.8 E72.53573
G1 X-24.45 Y2.8 E72.95281
G1 X-24.85 Y2.8 E72.96745
G1 X-24.85 Y2.4 E72.98208
G1 X-24.85 Y-12.4 E73.52356
G1 X-24.85 Y-12.8 E73.53819
G1 X-24.45 Y-12.8 E73.55282
G1 X-13.05 Y-12.8 E73.96991
G1 X-12.65 Y-12.8 E73.98454
G1 X-5.55 Y-12.8 E74.2443
G1 X-5.15 Y-12.8 E74.25894
G0 F7200 X-5.15 Y-12.6
G0 X-5.25 Y-12.6
G0 X-12.72 Y-12.47
G0 X-12.65 Y-12.4
G1 F1119.2 X-12.65 Y-10.2 E74.33943
G1 X-13.05 Y-10.2 E74.35406
G1 X-13.05 Y-12.4 E74.43455
G1 X-24.45 Y-12.4 E74.85163
G1 X-24.45 Y2.4 E75.39311
G1 X-13.05 Y2.4 E75.81019
G1 X-13.05 Y0.2 E75.89068
G1 X-12.65 Y0.2 E75.90531
G1 X-12.65 Y2.4 E75.9858
G1 X-5.55 Y2.4 E76.24556
G1 X-5.55 Y-12.4 E76.78704
G1 X-12.65 Y-12.4 E77.0468
G0 F7200 X-12.65 Y-12.2
;MESH:NONMESH
G0 F600 X-12.65 Y-12.2 Z1.84
G0 F7200 X-12.75 Y-12.2
G0 X-5.22 Y-12.73
G0 X-5.15 Y-12.8
;TIME_ELAPSED:72.891959
;LAYER:7
;TYPE:WALL-OUTER
;MESH:Oral_B_Head_Cover.STL
G1 F1119.2 X-5.15 Y-12.4 E77.06144
G1 X-5.15 Y2.4 E77.60291
G1 X-5.15 Y2.8 E77.61755
G1 X-5.55 Y2.8 E77.63218
G1 X-12.65 Y2.8 E77.89194
G1 X-13.05 Y2.8 E77.90658
G1 X-24.45 Y2.8 E78.32366
G1 X-24.85 Y2.8 E78.33829
G1 X-24.85 Y2.4 E78.35293
G1 X-24.85 Y-12.4 E78.8944
G1 X-24.85 Y-12.8 E78.90904
G1 X-24.45 Y-12.8 E78.92367
G1 X-13.05 Y-12.8 E79.34075
G1 X-12.65 Y-12.8 E79.35539
G1 X-5.55 Y-12.8 E79.61515
G1 X-5.15 Y-12.8 E79.62978
G0 F7200 X-5.15 Y-12.6
