;FLAVOR:Marlin
;TIME:5825
;Filament used: 3.81096m
;Layer height: 0.12
;MINX:-38.413
;MINY:-12.562
;MINZ:0.3
;MAXX:38.413
;MAXY:12.568
;MAXZ:35.94
;Generated with Cura_SteamEngine 4.13.1
M140 S50
M105
M190 S50
M104 S210
M105
M109 S210
M82 ;absolute extrusion mode
;FLAVOR:Marlin
M82 ;absolute extrusion mode
G21
G90
M82
M107 T0
G28
G92 E0
G0 E3 F200
G92 E0 ; reset extrusion distance
M106 S255 ; Enable cooling fan full speed
G1 X-98 Y0 Z0.4 F3000 ; move to arc start
G3 X0 Y-98 I98 Z0.4 E40 F400 ; lay arc stripe 90deg
G92 E0 ; reset extrusion distance
G4 P500 ; wait for 0.5 sec
G0 Z10 E-1 ; Lift 15mm and retract 1mm filament
G4 P2000 ; wait for 5 sec
G0 Z15
M107 ; Disable cooling fan
G1 X0 Y-85 Z4 E0 F3000 ; get off the bed
G92 E0
G92 E0
G1 F1500 E-6.5
;LAYER_COUNT:299
;LAYER:0
M106 S25.5
G1 F600 Z1.3
G0 F3600 X-.527 Y11.174 Z1.3
;TYPE:SKIRT
G1 F600 Z0.3
G1 F1500 E0.3326
G1 F2400 X-.759 Y11.489 E0.35212
G1 X-1.109 Y11.831 E0.37653
G1 X-1.474 Y12.091 E0.39889
G1 X-1.905 Y12.322 E0.42329
G1 X-2.369 Y12.48 E0.44774
G1 X-2.852 Y12.561 E0.47217
G1 X-3.573 Y12.534 E0.50817
G1 X-4.369 Y12.366 E0.54876
G1 X-4.819 Y12.174 E0.57317
G1 X-5.232 Y11.912 E0.59757
G1 X-5.597 Y11.585 E0.62202
G1 X-5.918 Y11.18 E0.6478
G1 X-6.145 Y11.489 E0.66693
G1 X-6.495 Y11.831 E0.69134
G1 X-6.867 Y12.096 E0.71413
G1 X-7.299 Y12.325 E0.73852
G1 X-7.763 Y12.482 E0.76296
G1 X-8.246 Y12.56 E0.78737
G1 X-8.958 Y12.533 E0.82292
G1 X-9.747 Y12.367 E0.86314
G1 X-10.198 Y12.175 E0.8876
G1 X-10.611 Y11.912 E0.91202
G1 X-10.976 Y11.586 E0.93644
G1 X-11.303 Y11.166 E0.963
G1 X-11.541 Y11.489 E0.98301
G1 X-11.891 Y11.831 E1.00743
G1 X-12.242 Y12.083 E1.02898
G1 X-12.674 Y12.314 E1.05342
G1 X-13.137 Y12.472 E1.07783
G1 X-13.619 Y12.553 E1.10222
G1 X-14.341 Y12.527 E1.13826
G1 X-15.095 Y12.367 E1.17671
G1 X-15.545 Y12.176 E1.2011
G1 X-15.958 Y11.914 E1.2255
G1 X-16.324 Y11.588 E1.24996
G1 X-16.669 Y11.139 E1.27821
G1 X-16.93 Y11.493 E1.30015
G1 X-17.28 Y11.835 E1.32456
G1 X-17.629 Y12.085 E1.34598
G1 X-18.06 Y12.316 E1.37038
G1 X-18.524 Y12.473 E1.39482
G1 X-19.006 Y12.554 E1.4192
G1 X-19.729 Y12.526 E1.4553
G1 X-20.454 Y12.37 E1.4923
G1 X-20.905 Y12.178 E1.51675
G1 X-21.317 Y11.915 E1.54114
G1 X-21.682 Y11.588 E1.56559
G1 X-22.048 Y11.102 E1.59594
G1 X-22.34 Y11.448 E1.61853
G1 X-22.828 Y11.844 E1.64988
G1 X-23.37 Y12.15 E1.68093
G1 X-23.833 Y12.31 E1.70537
G1 X-24.316 Y12.392 E1.72981
G1 X-25.046 Y12.367 E1.76626
G1 X-25.927 Y12.188 E1.81111
G1 X-26.377 Y11.996 E1.83552
G1 X-26.791 Y11.734 E1.85996
G1 X-27.156 Y11.408 E1.88437
G1 X-27.463 Y11.027 E1.90879
G1 X-27.705 Y10.602 E1.93318
G1 X-27.874 Y10.142 E1.95763
G1 X-27.966 Y9.661 E1.98207
G1 X-27.978 Y9.172 E2.00647
G1 X-27.911 Y8.687 E2.0309
G1 X-27.766 Y8.22 E2.05529
G1 X-27.646 Y7.988 E2.06832
G1 X-28.047 Y8.077 E2.08882
G1 X-28.46 Y8.106 E2.10947
G1 X-31.74 Y8.106 E2.27311
G1 X-32.228 Y8.066 E2.29754
G1 X-32.703 Y7.947 E2.32197
G1 X-33.152 Y7.753 E2.34637
G1 X-33.503 Y7.534 E2.36701
G1 X-36.16 Y5.605 E2.53082
G1 X-36.531 Y5.286 E2.55523
G1 X-36.845 Y4.911 E2.57963
G1 X-37.095 Y4.489 E2.6041
G1 X-37.25 Y4.105 E2.62476
G1 X-38.266 Y0.983 E2.78856
G1 X-38.379 Y0.507 E2.81297
G1 X-38.413 Y0.019 E2.83738
G1 X-38.367 Y-.469 E2.86183
G1 X-38.266 Y-.873 E2.88261
G1 X-37.25 Y-3.995 E3.0464
G1 X-37.061 Y-4.447 E3.07085
G1 X-36.801 Y-4.862 E3.09528
G1 X-36.477 Y-5.229 E3.1197
G1 X-36.16 Y-5.495 E3.14035
G1 X-33.503 Y-7.424 E3.30416
G1 X-33.084 Y-7.678 E3.3286
G1 X-32.63 Y-7.861 E3.35302
G1 X-32.152 Y-7.968 E3.37746
G1 X-31.74 Y-7.996 E3.39806
G1 X-28.46 Y-7.996 E3.5617
G1 X-27.972 Y-7.956 E3.58613
G1 X-27.497 Y-7.837 E3.61056
G1 X-27.048 Y-7.643 E3.63496
G1 X-26.343 Y-7.167 E3.6774
G1 X-26.147 Y-7.622 E3.70212
G1 X-25.882 Y-8.034 E3.72656
G1 X-25.504 Y-8.448 E3.75453
G1 X-25.131 Y-8.765 E3.77895
G1 X-24.711 Y-9.017 E3.80338
G1 X-24.256 Y-9.197 E3.8278
G1 X-23.778 Y-9.301 E3.8522
G1 X-23.383 Y-9.327 E3.87195
G1 X-18.235 Y-9.327 E4.12879
G1 X-18.242 Y-9.715 E4.14815
G1 X-18.172 Y-10.199 E4.17254
G1 X-18.023 Y-10.666 E4.197
G1 X-17.801 Y-11.102 E4.22141
G1 X-17.511 Y-11.496 E4.24582
G1 X-17.161 Y-11.838 E4.27023
G1 X-16.836 Y-12.073 E4.29024
G1 X-16.406 Y-12.307 E4.31466
G1 X-15.944 Y-12.468 E4.33907
G1 X-15.461 Y-12.551 E4.36352
G1 X-14.721 Y-12.526 E4.40046
G1 X-14.02 Y-12.373 E4.43626
G1 X-13.569 Y-12.182 E4.46069
G1 X-13.156 Y-11.919 E4.48512
G1 X-12.791 Y-11.593 E4.50954
G1 X-12.469 Y-11.184 E4.53551
G1 X-12.239 Y-11.496 E4.55485
G1 X-11.889 Y-11.838 E4.57926
G1 X-11.528 Y-12.096 E4.6014
G1 X-11.096 Y-12.326 E4.62581
G1 X-10.633 Y-12.483 E4.6502
G1 X-10.15 Y-12.562 E4.67462
G1 X-9.435 Y-12.535 E4.71032
G1 X-8.676 Y-12.374 E4.74903
G1 X-8.226 Y-12.182 E4.77344
G1 X-7.813 Y-11.919 E4.79786
G1 X-7.448 Y-11.593 E4.82228
G1 X-7.106 Y-11.151 E4.85016
G1 X-6.852 Y-11.496 E4.87154
G1 X-6.502 Y-11.838 E4.89595
G1 X-6.141 Y-12.096 E4.91809
G1 X-5.709 Y-12.326 E4.9425
G1 X-5.246 Y-12.483 E4.96689
G1 X-4.763 Y-12.562 E4.99131
G1 X-4.045 Y-12.534 E5.02716
G1 X-3.288 Y-12.373 E5.06577
G1 X-2.838 Y-12.18 E5.0902
G1 X-2.425 Y-11.917 E5.11463
G1 X-2.061 Y-11.591 E5.13901
G1 X-1.721 Y-11.151 E5.16675
G1 X-1.467 Y-11.497 E5.18816
G1 X-1.117 Y-11.839 E5.21258
G1 X-.766 Y-12.091 E5.23413
G1 X-.334 Y-12.322 E5.25857
G1 X0.129 Y-12.48 E5.28298
G1 X0.611 Y-12.561 E5.30736
G1 X1.328 Y-12.536 E5.34316
G1 X2.085 Y-12.377 E5.38175
G1 X2.536 Y-12.186 E5.40618
G1 X2.949 Y-11.925 E5.43056
G1 X3.315 Y-11.599 E5.45501
G1 X3.669 Y-11.137 E5.48405
G1 X3.934 Y-11.497 E5.50635
G1 X4.284 Y-11.839 E5.53076
G1 X4.619 Y-12.08 E5.55135
G1 X5.05 Y-12.312 E5.57577
G1 X5.513 Y-12.471 E5.6002
G1 X5.996 Y-12.552 E5.62463
G1 X6.716 Y-12.527 E5.66057
G1 X7.415 Y-12.377 E5.69624
G1 X7.866 Y-12.186 E5.72067
G1 X8.279 Y-11.924 E5.74508
G1 X8.645 Y-11.599 E5.76949
G1 X9.017 Y-11.106 E5.80031
G1 X9.305 Y-11.497 E5.82453
G1 X9.655 Y-11.839 E5.84895
G1 X10.005 Y-12.09 E5.87044
G1 X10.436 Y-12.321 E5.89483
G1 X10.9 Y-12.479 E5.91929
G1 X11.382 Y-12.56 E5.94367
G1 X12.099 Y-12.534 E5.97947
G1 X12.842 Y-12.376 E6.01736
G1 X13.293 Y-12.185 E6.0418
G1 X13.706 Y-11.923 E6.0662
G1 X14.072 Y-11.598 E6.09062
G1 X14.432 Y-11.124 E6.12031
G1 X14.707 Y-11.497 E6.14343
G1 X15.057 Y-11.839 E6.16785
G1 X15.379 Y-12.072 E6.18768
G1 X15.809 Y-12.305 E6.21208
G1 X16.271 Y-12.465 E6.23647
G1 X16.754 Y-12.548 E6.26092
G1 X17.486 Y-12.523 E6.29746
G1 X18.165 Y-12.376 E6.33212
G1 X18.615 Y-12.185 E6.35651
G1 X19.029 Y-11.923 E6.38095
G1 X19.394 Y-11.597 E6.40537
G1 X19.702 Y-11.216 E6.42981
G1 X19.943 Y-10.791 E6.45419
G1 X20.112 Y-10.331 E6.47864
G1 X20.205 Y-9.85 E6.50308
G1 X20.212 Y-9.328 E6.52912
G1 X23.383 Y-9.328 E6.68732
G1 X23.871 Y-9.288 E6.71175
G1 X24.346 Y-9.169 E6.73618
G1 X24.795 Y-8.975 E6.76058
G1 X25.207 Y-8.71 E6.78502
G1 X25.621 Y-8.332 E6.81299
G1 X25.938 Y-7.959 E6.83741
G1 X26.19 Y-7.539 E6.86185
G1 X26.411 Y-6.895 E6.89582
G1 X27.116 Y-7.357 E6.93787
G1 X27.57 Y-7.54 E6.96229
G1 X28.047 Y-7.646 E6.98667
G1 X28.46 Y-7.675 E7.00733
G1 X31.74 Y-7.675 E7.17097
G1 X32.228 Y-7.635 E7.19539
G1 X32.703 Y-7.516 E7.21982
G1 X33.152 Y-7.322 E7.24423
G1 X33.503 Y-7.103 E7.26487
G1 X36.16 Y-5.174 E7.42868
G1 X36.531 Y-4.855 E7.45309
G1 X36.845 Y-4.48 E7.47749
G1 X37.095 Y-4.058 E7.50196
G1 X37.25 Y-3.674 E7.52262
G1 X38.266 Y-.552 E7.68642
G1 X38.379 Y-0.076 E7.71082
G1 X38.413 Y0.412 E7.73523
G1 X38.367 Y0.9 E7.75968
G1 X38.266 Y1.304 E7.78046
G1 X37.25 Y4.426 E7.94426
G1 X37.061 Y4.878 E7.9687
G1 X36.801 Y5.293 E7.99313
G1 X36.477 Y5.66 E8.01756
G1 X36.16 Y5.926 E8.0382
G1 X33.503 Y7.855 E8.20201
G1 X33.084 Y8.109 E8.22646
G1 X32.63 Y8.292 E8.25088
G1 X32.152 Y8.399 E8.27531
G1 X31.74 Y8.427 E8.29592
G1 X28.46 Y8.427 E8.45956
G1 X27.972 Y8.387 E8.48398
G1 X27.497 Y8.268 E8.50841
G1 X27.048 Y8.074 E8.53282
G1 X26.697 Y7.855 E8.55346
G1 X26.202 Y7.495 E8.58399
G1 X25.882 Y8.034 E8.61527
G1 X25.504 Y8.448 E8.64323
G1 X25.131 Y8.765 E8.66766
G1 X24.711 Y9.017 E8.69209
G1 X24.256 Y9.197 E8.7165
G1 X23.778 Y9.301 E8.74091
G1 X23.386 Y9.327 E8.76051
G1 X22.253 Y9.328 E8.81704
G1 X18.224 Y9.323 E9.01804
G1 X18.231 Y9.709 E9.0373
G1 X18.161 Y10.193 E9.0617
G1 X18.012 Y10.66 E9.08616
G1 X17.79 Y11.096 E9.11057
G1 X17.5 Y11.49 E9.13497
G1 X17.15 Y11.832 E9.15939
G1 X16.828 Y12.065 E9.17922
G1 X16.398 Y12.298 E9.20362
G1 X15.936 Y12.458 E9.22801
G1 X15.453 Y12.541 E9.25246
G1 X14.719 Y12.516 E9.2891
G1 X14.041 Y12.368 E9.32372
G1 X13.591 Y12.177 E9.34811
G1 X13.177 Y11.914 E9.37258
G1 X12.812 Y11.588 E9.397
G1 X12.505 Y11.207 E9.42141
G1 X12.264 Y10.781 E9.44583
G1 X12.095 Y10.322 E9.47023
G1 X12.003 Y9.841 E9.49466
G1 X11.995 Y9.321 E9.52061
G1 X10.841 Y9.321 E9.57818
G1 X10.848 Y9.709 E9.59754
G1 X10.778 Y10.193 E9.62194
G1 X10.629 Y10.66 E9.6464
G1 X10.407 Y11.096 E9.67081
G1 X10.117 Y11.49 E9.69521
G1 X9.767 Y11.832 E9.71963
G1 X9.377 Y12.108 E9.74346
G1 X8.944 Y12.336 E9.76788
G1 X8.479 Y12.491 E9.79233
G1 X7.996 Y12.568 E9.81673
G1 X7.506 Y12.566 E9.84118
G1 X7.024 Y12.484 E9.86557
G1 X6.561 Y12.324 E9.89001
G1 X6.13 Y12.092 E9.91443
G1 X5.775 Y11.823 E9.93665
G1 X5.426 Y11.479 E9.9611
G1 X5.138 Y11.084 E9.98549
G1 X5.03 Y10.869 E9.99749
G1 X4.914 Y11.096 E10.01021
G1 X4.624 Y11.49 E10.03462
G1 X4.274 Y11.832 E10.05903
G1 X3.911 Y12.091 E10.08128
G1 X3.479 Y12.322 E10.10572
G1 X3.016 Y12.48 E10.13013
G1 X2.533 Y12.56 E10.15455
G1 X1.821 Y12.534 E10.1901
G1 X1.032 Y12.37 E10.2303
G1 X0.581 Y12.179 E10.25474
G1 X0.168 Y11.918 E10.27911
G1 X-.198 Y11.592 E10.30356
G1 X-.527 Y11.174 E10.3301
G0 F3600 X-.26 Y10.854
G1 F2400 X-.459 Y10.443 E10.35289
G1 X-.525 Y10.209 E10.36501
G1 X-.588 Y10.434 E10.37667
G1 X-.785 Y10.845 E10.39941
G1 X-1.051 Y11.215 E10.42215
G1 X-1.377 Y11.533 E10.44487
G1 X-1.691 Y11.755 E10.46405
G1 X-2.094 Y11.968 E10.48679
G1 X-2.528 Y12.107 E10.50953
G1 X-2.979 Y12.168 E10.53223
G1 X-3.51 Y12.139 E10.55876
G1 X-4.272 Y11.977 E10.59763
G1 X-4.688 Y11.79 E10.62039
G1 X-5.065 Y11.534 E10.64312
G1 X-5.391 Y11.217 E10.66581
G1 X-5.657 Y10.847 E10.68854
G1 X-5.854 Y10.436 E10.71128
G1 X-5.915 Y10.22 E10.72248
G1 X-5.974 Y10.434 E10.73355
G1 X-6.171 Y10.845 E10.75629
G1 X-6.437 Y11.215 E10.77903
G1 X-6.763 Y11.533 E10.80175
G1 X-7.083 Y11.759 E10.82129
G1 X-7.487 Y11.97 E10.84403
G1 X-7.921 Y12.108 E10.86675
G1 X-8.373 Y12.168 E10.8895
G1 X-8.895 Y12.138 E10.91558
G1 X-9.651 Y11.977 E10.95415
G1 X-10.067 Y11.791 E10.97688
G1 X-10.444 Y11.535 E10.99962
G1 X-10.77 Y11.217 E11.02234
G1 X-11.036 Y10.847 E11.04507
G1 X-11.233 Y10.436 E11.06781
G1 X-11.302 Y10.19 E11.08056
G1 X-11.37 Y10.434 E11.09319
G1 X-11.567 Y10.845 E11.11593
G1 X-11.833 Y11.215 E11.13867
G1 X-12.159 Y11.533 E11.16139
G1 X-12.46 Y11.747 E11.17981
G1 X-12.862 Y11.96 E11.20251
G1 X-13.296 Y12.099 E11.22525
G1 X-13.748 Y12.161 E11.24801
G1 X-14.278 Y12.132 E11.27449
G1 X-14.999 Y11.978 E11.31127
G1 X-15.415 Y11.792 E11.33401
G1 X-15.792 Y11.536 E11.35674
G1 X-16.118 Y11.219 E11.37943
G1 X-16.385 Y10.849 E11.40219
G1 X-16.582 Y10.438 E11.42493
G1 X-16.671 Y10.121 E11.44136
G1 X-16.759 Y10.438 E11.45777
G1 X-16.956 Y10.849 E11.48051
G1 X-17.222 Y11.219 E11.50324
G1 X-17.548 Y11.537 E11.52596
G1 X-17.845 Y11.749 E11.54417
G1 X-18.249 Y11.961 E11.56693
G1 X-18.682 Y12.1 E11.58962
G1 X-19.134 Y12.161 E11.61237
G1 X-19.666 Y12.131 E11.63896
G1 X-20.358 Y11.98 E11.67429
G1 X-20.773 Y11.794 E11.69698
G1 X-21.15 Y11.537 E11.71975
G1 X-21.476 Y11.219 E11.74247
G1 X-21.742 Y10.849 E11.7652
G1 X-21.939 Y10.438 E11.78794
G1 X-22.015 Y10.166 E11.80203
G1 X-22.288 Y10.751 E11.83424
G1 X-22.569 Y11.109 E11.85694
G1 X-23.046 Y11.509 E11.888
G1 X-23.56 Y11.797 E11.91739
G1 X-23.994 Y11.937 E11.94015
G1 X-24.445 Y12.001 E11.96287
G1 X-24.984 Y11.972 E11.9898
G1 X-25.831 Y11.798 E12.03294
G1 X-26.247 Y11.612 E12.05568
G1 X-26.624 Y11.357 E12.07838
G1 X-26.951 Y11.039 E12.10114
G1 X-27.217 Y10.669 E12.12387
G1 X-27.415 Y10.259 E12.14659
G1 X-27.538 Y9.82 E12.16933
G1 X-27.583 Y9.367 E12.19205
G1 X-27.548 Y8.913 E12.21476
G1 X-27.434 Y8.471 E12.23754
G1 X-27.17 Y7.935 E12.26734
G1 X-26.777 Y7.395 E12.30066
G1 X-26.439 Y7.089 E12.32341
G1 X-26.019 Y6.833 E12.34795
G1 X-26.053 Y6.572 E12.36108
G1 X-26.932 Y7.21 E12.41527
G1 X-27.323 Y7.444 E12.438
G1 X-27.749 Y7.607 E12.46076
G1 X-28.46 Y7.706 E12.49657
G1 X-31.74 Y7.706 E12.66021
G1 X-32.194 Y7.666 E12.68295
G1 X-32.634 Y7.548 E12.70568
G1 X-33.268 Y7.21 E12.74152
G1 X-35.925 Y5.281 E12.90533
G1 X-36.268 Y4.982 E12.92803
G1 X-36.555 Y4.628 E12.95077
G1 X-36.869 Y3.982 E12.9866
G1 X-37.885 Y0.86 E13.1504
G1 X-37.988 Y0.416 E13.17314
G1 X-38.011 Y-0.039 E13.19587
G1 X-37.885 Y-.75 E13.2319
G1 X-36.869 Y-3.872 E13.39569
G1 X-36.691 Y-4.291 E13.4184
G1 X-36.442 Y-4.672 E13.44111
G1 X-35.925 Y-5.171 E13.47696
G1 X-33.268 Y-7.1 E13.64077
G1 X-32.877 Y-7.334 E13.6635
G1 X-32.451 Y-7.497 E13.68626
G1 X-31.74 Y-7.596 E13.72207
G1 X-28.46 Y-7.596 E13.88571
G1 X-28.006 Y-7.556 E13.90845
G1 X-27.566 Y-7.438 E13.93118
G1 X-26.932 Y-7.1 E13.96702
G1 X-26.076 Y-6.479 E14.01978
G1 X-25.942 Y-7.104 E14.05167
G1 X-25.748 Y-7.516 E14.07439
G1 X-25.338 Y-8.048 E14.1079
G1 X-24.872 Y-8.458 E14.13887
G1 X-24.477 Y-8.685 E14.1616
G1 X-24.049 Y-8.84 E14.18431
G1 X-23.383 Y-8.927 E14.21782
G1 X-17.768 Y-8.927 E14.49795
G1 X-17.848 Y-9.549 E14.52924
G1 X-17.804 Y-10.002 E14.55194
G1 X-17.682 Y-10.441 E14.57468
G1 X-17.485 Y-10.852 E14.59741
G1 X-17.219 Y-11.222 E14.62015
G1 X-16.672 Y-11.702 E14.65646
G1 X-16.215 Y-11.954 E14.68249
G1 X-15.782 Y-12.095 E14.70521
G1 X-15.331 Y-12.159 E14.72794
G1 X-14.784 Y-12.131 E14.75526
G1 X-14.116 Y-11.984 E14.78939
G1 X-13.7 Y-11.798 E14.81212
G1 X-13.323 Y-11.542 E14.83486
G1 X-12.997 Y-11.224 E14.85758
G1 X-12.731 Y-10.854 E14.88031
G1 X-12.534 Y-10.443 E14.90305
G1 X-12.471 Y-10.22 E14.91461
G1 X-12.41 Y-10.441 E14.92605
G1 X-12.213 Y-10.852 E14.94879
G1 X-11.947 Y-11.222 E14.97152
G1 X-11.621 Y-11.54 E14.99424
G1 X-11.312 Y-11.759 E15.01314
G1 X-10.909 Y-11.971 E15.03586
G1 X-10.474 Y-12.109 E15.05863
G1 X-10.023 Y-12.169 E15.08132
G1 X-9.498 Y-12.14 E15.10756
G1 X-8.773 Y-11.984 E15.14455
G1 X-8.357 Y-11.798 E15.16729
G1 X-7.98 Y-11.542 E15.19002
G1 X-7.653 Y-11.224 E15.21278
G1 X-7.387 Y-10.854 E15.23551
G1 X-7.19 Y-10.444 E15.25821
G1 X-7.106 Y-10.143 E15.2738
G1 X-7.023 Y-10.441 E15.28923
G1 X-6.826 Y-10.852 E15.31197
G1 X-6.56 Y-11.222 E15.33471
G1 X-6.234 Y-11.54 E15.35743
G1 X-5.925 Y-11.759 E15.37632
G1 X-5.522 Y-11.971 E15.39904
G1 X-5.087 Y-12.109 E15.42181
G1 X-4.636 Y-12.169 E15.44451
G1 X-4.108 Y-12.139 E15.47089
G1 X-3.385 Y-11.983 E15.50779
G1 X-2.969 Y-11.796 E15.53055
G1 X-2.593 Y-11.54 E15.55324
G1 X-2.266 Y-11.222 E15.576
G1 X-2.001 Y-10.852 E15.5987
G1 X-1.804 Y-10.441 E15.62144
G1 X-1.721 Y-10.143 E15.63687
G1 X-1.638 Y-10.442 E15.65236
G1 X-1.441 Y-10.853 E15.67509
G1 X-1.175 Y-11.223 E15.69783
G1 X-.849 Y-11.541 E15.72055
G1 X-.548 Y-11.755 E15.73897
G1 X-.146 Y-11.968 E15.76167
G1 X0.288 Y-12.107 E15.78441
G1 X0.74 Y-12.169 E15.80717
G1 X1.266 Y-12.141 E15.83345
G1 X1.989 Y-11.987 E15.87033
G1 X2.406 Y-11.802 E15.89309
G1 X2.783 Y-11.547 E15.9158
G1 X3.111 Y-11.23 E15.93855
G1 X3.378 Y-10.861 E15.96128
G1 X3.576 Y-10.45 E15.98404
G1 X3.671 Y-10.113 E16.0015
G1 X3.763 Y-10.442 E16.01855
G1 X3.96 Y-10.853 E16.04129
G1 X4.226 Y-11.223 E16.06402
G1 X4.783 Y-11.71 E16.10093
G1 X5.239 Y-11.958 E16.12683
G1 X5.673 Y-12.098 E16.14958
G1 X6.125 Y-12.16 E16.17234
G1 X6.654 Y-12.132 E16.19877
G1 X7.319 Y-11.987 E16.23273
G1 X7.736 Y-11.801 E16.25551
G1 X8.113 Y-11.546 E16.27822
G1 X8.44 Y-11.229 E16.30094
G1 X8.707 Y-10.86 E16.32366
G1 X8.905 Y-10.45 E16.34638
