;FLAVOR:Marlin
;TIME:4135
;Filament used: 2.75278m
;Layer height: 0.12
;MINX:-6.5
;MINY:-15.05
;MINZ:0.3
;MAXX:16.5
;MAXY:14.95
;MAXZ:27.42
;Generated with Cura_SteamEngine 4.13.1
M140 S50
M105
M190 S50
M104 S215
M105
M109 S215
M82 ;absolute extrusion mode
;FLAVOR:Marlin
M82 ;absolute extrusion mode
G21
G90
M82
M107 T0
G28
G92 E0
G0 E3 F200
G92 E0 ; reset extrusion distance
M106 S255 ; Enable cooling fan full speed
G1 X-98 Y0 Z0.4 F3000 ; move to arc start
G3 X0 Y-98 I98 Z0.4 E40 F400 ; lay arc stripe 90deg
G92 E0 ; reset extrusion distance
G4 P500 ; wait for 0.5 sec
G0 Z10 E-1 ; Lift 15mm and retract 1mm filament
G4 P2000 ; wait for 5 sec
G0 Z15
M107 ; Disable cooling fan
G1 X0 Y-85 Z4 E0 F3000 ; get off the bed
G92 E0
G92 E0
G1 F1500 E-6.5
;LAYER_COUNT:228
;LAYER:0
M106 S25.5
G1 F600 Z1.3
G0 F3600 X-6.5 Y11.833 Z1.3
;TYPE:SKIRT
G1 F600 Z0.3
G1 F1500 E0.3326
G1 X-6.5 Y-11.933 E1.8325
G1 X-6.46 Y-12.421 E1.8634
G1 X-6.341 Y-12.896 E1.89431
G1 X-6.147 Y-13.345 E1.92517
G1 X-5.882 Y-13.757 E1.95609
G1 X-5.504 Y-14.171 E1.99147
G1 X-5.131 Y-14.488 E2.02236
G1 X-4.711 Y-14.74 E2.05328
G1 X-4.256 Y-14.92 E2.08416
G1 X-3.778 Y-15.024 E2.11503
G1 X-3.383 Y-15.05 E2.14001
G1 X2.884 Y-15.05 E2.53553
G1 X3.372 Y-15.01 E2.56643
G1 X3.847 Y-14.891 E2.59734
G1 X4.296 Y-14.697 E2.6282
G1 X4.708 Y-14.432 E2.65912
G1 X5.001 Y-14.175 E2.68372
G1 X5.369 Y-14.488 E2.71421
G1 X5.789 Y-14.74 E2.74512
G1 X6.244 Y-14.92 E2.776
G1 X6.722 Y-15.024 E2.80687
G1 X7.117 Y-15.05 E2.83186
G1 X13.383 Y-15.05 E3.22731
G1 X13.871 Y-15.01 E3.25821
G1 X14.346 Y-14.891 E3.28912
G1 X14.795 Y-14.697 E3.31998
G1 X15.207 Y-14.432 E3.3509
G1 X15.621 Y-14.054 E3.38628
G1 X15.938 Y-13.681 E3.41717
G1 X16.19 Y-13.261 E3.44809
G1 X16.37 Y-12.806 E3.47897
G1 X16.474 Y-12.328 E3.50984
G1 X16.5 Y-11.933 E3.53482
G1 X16.5 Y11.833 E5.03472
G1 X16.46 Y12.321 E5.06562
G1 X16.341 Y12.796 E5.09653
G1 X16.147 Y13.245 E5.1274
G1 X15.882 Y13.657 E5.15831
G1 X15.504 Y14.071 E5.19369
G1 X15.131 Y14.388 E5.22459
G1 X14.711 Y14.64 E5.2555
G1 X14.256 Y14.82 E5.28638
G1 X13.778 Y14.924 E5.31725
G1 X13.383 Y14.95 E5.34223
G1 X7.116 Y14.95 E5.73775
G1 X6.628 Y14.91 E5.76865
G1 X6.153 Y14.791 E5.79956
G1 X5.704 Y14.597 E5.83043
G1 X5.292 Y14.332 E5.86134
G1 X4.999 Y14.075 E5.88594
G1 X4.631 Y14.388 E5.91643
G1 X4.211 Y14.64 E5.94734
G1 X3.756 Y14.82 E5.97822
G1 X3.278 Y14.924 E6.00909
G1 X2.883 Y14.95 E6.03408
G1 X-3.383 Y14.95 E6.42953
G1 X-3.871 Y14.91 E6.46043
G1 X-4.346 Y14.791 E6.49134
G1 X-4.795 Y14.597 E6.52221
G1 X-5.207 Y14.332 E6.55312
G1 X-5.621 Y13.954 E6.5885
G1 X-5.938 Y13.581 E6.6194
G1 X-6.19 Y13.161 E6.65031
G1 X-6.37 Y12.706 E6.68119
G1 X-6.474 Y12.228 E6.71206
G1 X-6.5 Y11.833 E6.73704
G0 F3600 X-6.1 Y11.833
G1 F1500 X-6.1 Y-11.933 E8.23694
G1 X-6.06 Y-12.387 E8.26571
G1 X-5.942 Y-12.827 E8.29446
G1 X-5.748 Y-13.239 E8.3232
G1 X-5.338 Y-13.771 E8.36559
G1 X-4.872 Y-14.181 E8.40476
G1 X-4.477 Y-14.408 E8.43351
G1 X-4.049 Y-14.563 E8.46224
G1 X-3.383 Y-14.65 E8.50463
G1 X2.884 Y-14.65 E8.90014
G1 X3.338 Y-14.61 E8.92891
G1 X3.778 Y-14.492 E8.95766
G1 X4.19 Y-14.298 E8.9864
G1 X4.722 Y-13.888 E9.02879
G1 X5.007 Y-13.57 E9.05574
G1 X5.279 Y-13.888 E9.08215
G1 X5.628 Y-14.181 E9.11091
G1 X6.023 Y-14.408 E9.13966
G1 X6.451 Y-14.563 E9.16839
G1 X7.117 Y-14.65 E9.21078
G1 X13.383 Y-14.65 E9.60623
G1 X13.837 Y-14.61 E9.63499
G1 X14.277 Y-14.492 E9.66374
G1 X14.689 Y-14.298 E9.69248
G1 X15.221 Y-13.888 E9.73487
G1 X15.631 Y-13.422 E9.77404
G1 X15.858 Y-13.027 E9.8028
G1 X16.013 Y-12.599 E9.83153
G1 X16.1 Y-11.933 E9.87391
G1 X16.1 Y11.833 E11.37381
G1 X16.06 Y12.287 E11.40258
G1 X15.942 Y12.727 E11.43133
G1 X15.748 Y13.139 E11.46007
G1 X15.338 Y13.671 E11.50246
G1 X14.872 Y14.081 E11.54163
G1 X14.477 Y14.308 E11.57038
G1 X14.049 Y14.463 E11.59911
G1 X13.383 Y14.55 E11.6415
G1 X7.116 Y14.55 E12.03702
G1 X6.662 Y14.51 E12.06578
G1 X6.222 Y14.392 E12.09453
G1 X5.81 Y14.198 E12.12327
G1 X5.278 Y13.788 E12.16566
G1 X4.993 Y13.47 E12.19261
G1 X4.721 Y13.788 E12.21902
G1 X4.372 Y14.081 E12.24778
G1 X3.977 Y14.308 E12.27653
G1 X3.549 Y14.463 E12.30526
G1 X2.883 Y14.55 E12.34765
G1 X-3.383 Y14.55 E12.7431
G1 X-3.837 Y14.51 E12.77186
G1 X-4.277 Y14.392 E12.80061
G1 X-4.689 Y14.198 E12.82935
G1 X-5.221 Y13.788 E12.87174
G1 X-5.631 Y13.322 E12.91092
G1 X-5.858 Y12.927 E12.93967
G1 X-6.013 Y12.499 E12.9684
G1 X-6.1 Y11.833 E13.01078
G0 F3600 X-5.7 Y11.833
G1 F1500 X-5.7 Y-11.933 E14.51068
G1 X-5.66 Y-12.35 E14.53712
G1 X-5.542 Y-12.752 E14.56356
G1 X-5.349 Y-13.124 E14.59001
G1 X-4.939 Y-13.606 E14.62995
G1 X-4.615 Y-13.872 E14.6564
G1 X-4.248 Y-14.073 E14.68281
G1 X-3.848 Y-14.2 E14.7093
G1 X-3.383 Y-14.25 E14.73881
G1 X2.884 Y-14.25 E15.13433
G1 X3.301 Y-14.21 E15.16077
G1 X3.703 Y-14.092 E15.18721
G1 X4.075 Y-13.899 E15.21366
G1 X4.557 Y-13.489 E15.2536
G1 X4.823 Y-13.165 E15.28005
G1 X5.002 Y-12.837 E15.30363
G1 X5.151 Y-13.125 E15.3241
G1 X5.561 Y-13.606 E15.36399
G1 X5.885 Y-13.872 E15.39044
G1 X6.252 Y-14.073 E15.41685
G1 X6.652 Y-14.2 E15.44334
G1 X7.117 Y-14.25 E15.47285
G1 X13.383 Y-14.25 E15.86831
G1 X13.8 Y-14.21 E15.89475
G1 X14.202 Y-14.092 E15.92119
G1 X14.574 Y-13.899 E15.94764
G1 X15.056 Y-13.489 E15.98757
G1 X15.322 Y-13.165 E16.01403
G1 X15.523 Y-12.798 E16.04044
G1 X15.65 Y-12.398 E16.06692
G1 X15.7 Y-11.933 E16.09644
G1 X15.7 Y11.833 E17.59634
G1 X15.66 Y12.25 E17.62278
G1 X15.542 Y12.652 E17.64922
G1 X15.349 Y13.024 E17.67567
G1 X14.939 Y13.506 E17.7156
G1 X14.615 Y13.772 E17.74206
G1 X14.248 Y13.973 E17.76847
G1 X13.848 Y14.1 E17.79495
G1 X13.383 Y14.15 E17.82447
G1 X7.116 Y14.15 E18.21999
G1 X6.699 Y14.11 E18.24642
G1 X6.297 Y13.992 E18.27286
G1 X5.925 Y13.799 E18.29931
G1 X5.443 Y13.389 E18.33925
G1 X5.177 Y13.065 E18.36571
G1 X4.998 Y12.737 E18.38929
G1 X4.849 Y13.025 E18.40975
G1 X4.439 Y13.506 E18.44964
G1 X4.115 Y13.772 E18.4761
G1 X3.748 Y13.973 E18.50251
G1 X3.348 Y14.1 E18.52899
G1 X2.883 Y14.15 E18.55851
G1 X-3.383 Y14.15 E18.95396
G1 X-3.8 Y14.11 E18.9804
G1 X-4.202 Y13.992 E19.00684
G1 X-4.574 Y13.799 E19.03329
G1 X-5.056 Y13.389 E19.07323
G1 X-5.322 Y13.065 E19.09968
G1 X-5.523 Y12.698 E19.12609
G1 X-5.65 Y12.298 E19.15258
G1 X-5.7 Y11.833 E19.18209
G0 F3600 X-5.3 Y11.833
G1 F1500 X-5.3 Y-11.933 E20.68199
G1 X-5.26 Y-12.31 E20.70592
G1 X-5.142 Y-12.67 E20.72983
G1 X-4.952 Y-12.997 E20.7537
G1 X-4.656 Y-13.323 E20.78149
G1 X-4.361 Y-13.561 E20.80541
G1 X-4.023 Y-13.732 E20.82931
G1 X-3.657 Y-13.829 E20.85321
G1 X-3.383 Y-13.85 E20.87055
G1 X2.884 Y-13.85 E21.26607
G1 X3.261 Y-13.81 E21.29
G1 X3.621 Y-13.692 E21.31391
G1 X3.948 Y-13.502 E21.33777
G1 X4.274 Y-13.206 E21.36556
G1 X4.512 Y-12.911 E21.38948
G1 X4.683 Y-12.573 E21.41339
G1 X4.78 Y-12.207 E21.43729
G1 X4.801 Y-11.932 E21.45469
G1 X4.8 Y-9.666 E21.5977
G1 X4.76 Y-9.289 E21.62163
G1 X4.634 Y-8.915 E21.64654
G1 X4.867 Y-8.957 E21.66148
G1 X5.375 Y-8.913 E21.69366
G1 X5.22 Y-9.393 E21.72549
G1 X5.199 Y-9.668 E21.7429
G1 X5.2 Y-11.934 E21.88591
G1 X5.24 Y-12.311 E21.90983
G1 X5.358 Y-12.671 E21.93374
G1 X5.549 Y-12.998 E21.95764
G1 X5.844 Y-13.323 E21.98534
G1 X6.139 Y-13.561 E22.00927
G1 X6.477 Y-13.732 E22.03317
G1 X6.843 Y-13.829 E22.05707
G1 X7.117 Y-13.85 E22.07441
G1 X13.383 Y-13.85 E22.46987
G1 X13.76 Y-13.81 E22.49379
G1 X14.12 Y-13.692 E22.5177
G1 X14.447 Y-13.502 E22.54157
G1 X14.773 Y-13.206 E22.56936
G1 X15.011 Y-12.911 E22.59328
G1 X15.182 Y-12.573 E22.61719
G1 X15.279 Y-12.207 E22.64108
G1 X15.3 Y-11.933 E22.65843
G1 X15.3 Y11.833 E24.15832
G1 X15.26 Y12.21 E24.18225
G1 X15.142 Y12.57 E24.20616
G1 X14.952 Y12.897 E24.23003
G1 X14.656 Y13.223 E24.25782
G1 X14.361 Y13.461 E24.28174
G1 X14.023 Y13.632 E24.30565
G1 X13.657 Y13.729 E24.32954
G1 X13.383 Y13.75 E24.34688
G1 X7.116 Y13.75 E24.7424
G1 X6.739 Y13.71 E24.76633
G1 X6.379 Y13.592 E24.79024
G1 X6.052 Y13.402 E24.81411
G1 X5.726 Y13.106 E24.8419
G1 X5.488 Y12.811 E24.86582
G1 X5.317 Y12.473 E24.88972
G1 X5.22 Y12.107 E24.91362
G1 X5.199 Y11.832 E24.93103
G1 X5.2 Y9.566 E25.07404
G1 X5.24 Y9.189 E25.09796
G1 X5.366 Y8.815 E25.12287
G1 X5.134 Y8.857 E25.13775
G1 X4.625 Y8.813 E25.16999
G1 X4.78 Y9.293 E25.20183
G1 X4.801 Y9.568 E25.21923
G1 X4.8 Y11.834 E25.36224
G1 X4.76 Y12.211 E25.38617
G1 X4.642 Y12.571 E25.41008
G1 X4.451 Y12.898 E25.43398
G1 X4.156 Y13.223 E25.46168
G1 X3.861 Y13.461 E25.4856
G1 X3.523 Y13.632 E25.50951
G1 X3.157 Y13.729 E25.5334
G1 X2.883 Y13.75 E25.55074
G1 X-3.383 Y13.75 E25.9462
G1 X-3.76 Y13.71 E25.97013
G1 X-4.12 Y13.592 E25.99403
G1 X-4.447 Y13.402 E26.0179
G1 X-4.773 Y13.106 E26.04569
G1 X-5.011 Y12.811 E26.06961
G1 X-5.182 Y12.473 E26.09352
G1 X-5.279 Y12.107 E26.11742
G1 X-5.3 Y11.833 E26.13476
G0 F3600 X-4.9 Y11.833
G1 F1500 X-4.9 Y-11.933 E27.63466
G1 X-4.86 Y-12.265 E27.65576
G1 X-4.743 Y-12.577 E27.67679
G1 X-4.373 Y-13.04 E27.7142
G1 X-4.11 Y-13.246 E27.73528
G1 X-3.806 Y-13.385 E27.75638
G1 X-3.383 Y-13.45 E27.78339
G1 X2.884 Y-13.45 E28.1789
G1 X3.216 Y-13.41 E28.20001
G1 X3.528 Y-13.293 E28.22104
G1 X3.991 Y-12.923 E28.25844
G1 X4.197 Y-12.66 E28.27953
G1 X4.336 Y-12.356 E28.30062
G1 X4.401 Y-11.932 E28.32769
G1 X4.4 Y-9.666 E28.4707
G1 X4.36 Y-9.335 E28.49175
G1 X4.243 Y-9.022 E28.51283
G1 X3.873 Y-8.56 E28.55019
G1 X3.61 Y-8.354 E28.57127
G1 X3.306 Y-8.215 E28.59237
G1 X2.883 Y-8.15 E28.61938
G1 X0.4 Y-8.15 E28.77608
G1 X0.4 Y8.05 E29.79848
G1 X2.884 Y8.05 E29.95525
G1 X3.216 Y8.09 E29.97636
G1 X3.528 Y8.207 E29.99739
G1 X3.991 Y8.577 E30.03479
G1 X4.197 Y8.84 E30.05587
G1 X4.336 Y9.144 E30.07697
G1 X4.401 Y9.568 E30.10404
G1 X4.4 Y11.834 E30.24705
G1 X4.36 Y12.165 E30.26809
G1 X4.243 Y12.478 E30.28918
G1 X3.873 Y12.94 E30.32654
G1 X3.61 Y13.146 E30.34762
G1 X3.306 Y13.285 E30.36872
G1 X2.883 Y13.35 E30.39573
G1 X-3.383 Y13.35 E30.79118
G1 X-3.715 Y13.31 E30.81229
G1 X-4.027 Y13.193 E30.83332
G1 X-4.49 Y12.823 E30.87072
G1 X-4.696 Y12.56 E30.8918
G1 X-4.835 Y12.256 E30.9129
G1 X-4.9 Y11.833 E30.93991
G0 F3600 X-4.5 Y11.833
G1 F1500 X-4.5 Y-11.933 E32.43981
G1 X-4.46 Y-12.212 E32.4576
G1 X-4.344 Y-12.469 E32.47539
G1 X-4.09 Y-12.757 E32.49963
G1 X-3.864 Y-12.926 E32.51744
G1 X-3.6 Y-13.026 E32.53525
G1 X-3.383 Y-13.05 E32.54903
G1 X2.884 Y-13.05 E32.94455
G1 X3.163 Y-13.01 E32.96234
G1 X3.42 Y-12.894 E32.98013
G1 X3.708 Y-12.64 E33.00437
G1 X3.877 Y-12.414 E33.02218
G1 X3.977 Y-12.15 E33.03999
G1 X4.001 Y-11.933 E33.05377
G1 X4 Y-9.667 E33.19678
G1 X3.96 Y-9.387 E33.21463
G1 X3.844 Y-9.13 E33.23243
G1 X3.59 Y-8.843 E33.25661
G1 X3.364 Y-8.674 E33.27442
G1 X3.1 Y-8.574 E33.29224
G1 X2.883 Y-8.55 E33.30602
G1 X0.00 Y-8.55 E33.48797
G1 X0.00 Y8.45 E34.56086
G1 X2.884 Y8.45 E34.74287
G1 X3.163 Y8.49 E34.76066
G1 X3.42 Y8.606 E34.77845
G1 X3.708 Y8.86 E34.80269
G1 X3.877 Y9.086 E34.8205
G1 X3.977 Y9.35 E34.83832
G1 X4.001 Y9.567 E34.85209
G1 X4 Y11.833 E34.9951
G1 X3.96 Y12.113 E35.01295
G1 X3.844 Y12.37 E35.03075
G1 X3.59 Y12.657 E35.05494
G1 X3.364 Y12.826 E35.07275
G1 X3.1 Y12.926 E35.09056
G1 X2.883 Y12.95 E35.10434
G1 X-3.383 Y12.95 E35.4998
G1 X-3.662 Y12.91 E35.51758
G1 X-3.919 Y12.794 E35.53538
G1 X-4.207 Y12.54 E35.55961
G1 X-4.376 Y12.314 E35.57742
G1 X-4.476 Y12.05 E35.59524
G1 X-4.5 Y11.833 E35.60902
G0 F3600 X-4.1 Y11.833
G1 F1500 X-4.1 Y-11.933 E37.10892
G1 X-4.06 Y-12.148 E37.12272
G1 X-3.807 Y-12.474 E37.14876
G1 X-3.628 Y-12.598 E37.16251
G1 X-3.383 Y-12.65 E37.17831
G1 X2.884 Y-12.65 E37.57383
G1 X3.099 Y-12.61 E37.58763
G1 X3.425 Y-12.357 E37.61367
G1 X3.549 Y-12.178 E37.62742
G1 X3.601 Y-11.933 E37.64322
G1 X3.6 Y-9.667 E37.78623
G1 X3.56 Y-9.452 E37.80004
G1 X3.307 Y-9.126 E37.82608
G1 X3.128 Y-9.002 E37.83982
G1 X2.883 Y-8.95 E37.85563
G1 X-.4 Y-8.95 E38.06282
G1 X-.4 Y8.85 E39.1862
G1 X2.884 Y8.85 E39.39346
G1 X3.099 Y8.89 E39.40726
G1 X3.425 Y9.143 E39.4333
G1 X3.549 Y9.322 E39.44704
G1 X3.601 Y9.567 E39.46285
G1 X3.6 Y11.833 E39.60586
G1 X3.56 Y12.048 E39.61966
G1 X3.307 Y12.374 E39.64571
G1 X3.128 Y12.498 E39.65945
G1 X2.883 Y12.55 E39.67526
G1 X-3.383 Y12.55 E40.07071
G1 X-3.598 Y12.51 E40.08451
G1 X-3.924 Y12.257 E40.11055
G1 X-4.048 Y12.078 E40.1243
G1 X-4.1 Y11.833 E40.1401
G0 F3600 X-3.7 Y11.833
G1 F1500 X-3.7 Y-11.933 E41.64
G1 X-3.641 Y-12.074 E41.64965
G1 X-3.524 Y-12.191 E41.66009
G1 X-3.383 Y-12.25 E41.66974
G1 X2.884 Y-12.25 E42.06525
G1 X3.025 Y-12.191 E42.0749
G1 X3.142 Y-12.074 E42.08534
G1 X3.201 Y-11.933 E42.09499
G1 X3.2 Y-9.667 E42.238
G1 X3.141 Y-9.526 E42.24765
G1 X3.024 Y-9.409 E42.25809
G1 X2.883 Y-9.35 E42.26773
G1 X-.8 Y-9.35 E42.50017
G1 X-.8 Y9.25 E43.67404
G1 X2.884 Y9.25 E43.90654
G1 X3.025 Y9.309 E43.91619
G1 X3.142 Y9.426 E43.92663
G1 X3.201 Y9.567 E43.93628
G1 X3.2 Y11.833 E44.07929
G1 X3.141 Y11.974 E44.08893
G1 X3.024 Y12.091 E44.09937
G1 X2.883 Y12.15 E44.10902
G1 X-3.383 Y12.15 E44.50447
G1 X-3.524 Y12.091 E44.51412
G1 X-3.641 Y11.974 E44.52456
G1 X-3.7 Y11.833 E44.53421
G1 F1500 E38.03421
G1 F600 Z1.3
G0 F3600 X1.62 Y7.057 Z1.3
G1 F600 Z0.3
G1 F1500 E44.86681
G1 X1.461 Y6.763 E44.88791
G1 X1.364 Y6.25 E44.92086
G1 X1.367 Y-6.35 E45.71606
G1 X1.407 Y-6.682 E45.73716
G1 X1.524 Y-6.995 E45.75825
G1 X1.712 Y-7.271 E45.77932
G1 X1.961 Y-7.494 E45.80042
G1 X2.255 Y-7.653 E45.82151
G1 X2.767 Y-7.75 E45.8544
G1 X3.159 Y-7.775 E45.87919
G1 X3.701 Y-7.951 E45.91516
G1 X4.369 Y-8.412 E45.96638
G1 X4.683 Y-8.526 E45.98746
G1 X5.015 Y-8.562 E46.00854
G1 X5.346 Y-8.518 E46.02961
G1 X5.658 Y-8.397 E46.05073
G1 X6.295 Y-7.953 E46.09973
G1 X6.827 Y-7.778 E46.13508
G1 X7.568 Y-7.71 E46.18204
G1 X7.88 Y-7.593 E46.20307
G1 X8.157 Y-7.405 E46.2242
G1 X8.38 Y-7.157 E46.24525
G1 X8.539 Y-6.863 E46.26634
G1 X8.636 Y-6.35 E46.29929
G1 X8.633 Y6.25 E47.09449
G1 X8.593 Y6.582 E47.1156
G1 X8.476 Y6.895 E47.13668
G1 X8.288 Y7.171 E47.15776
G1 X8.039 Y7.394 E47.17886
G1 X7.745 Y7.553 E47.19995
G1 X7.233 Y7.65 E47.23284
G1 X6.841 Y7.675 E47.25763
G1 X6.304 Y7.849 E47.29325
G1 X5.632 Y8.312 E47.34476
G1 X5.318 Y8.426 E47.36584
G1 X4.986 Y8.462 E47.38691
G1 X4.654 Y8.418 E47.40805
G1 X4.343 Y8.298 E47.42909
G1 X3.705 Y7.853 E47.47818
G1 X3.173 Y7.678 E47.51352
G1 X2.432 Y7.61 E47.56049
G1 X2.12 Y7.493 E47.58152
G1 X1.843 Y7.305 E47.60264
G1 X1.62 Y7.057 E47.62369
G0 F3600 X1.859 Y6.675
G1 F1500 X1.764 Y6.25 E47.65118
G1 X1.767 Y-6.35 E48.44638
G1 X1.807 Y-6.63 E48.46423
G1 X1.923 Y-6.887 E48.48202
G1 X2.107 Y-7.101 E48.49983
G1 X2.343 Y-7.255 E48.51762
G1 X2.767 Y-7.35 E48.54504
G1 X3.217 Y-7.378 E48.5735
G1 X3.551 Y-7.457 E48.59516
G1 X3.879 Y-7.592 E48.61754
G1 X4.35 Y-7.923 E48.65387
G1 X4.588 Y-8.074 E48.67166
G1 X4.859 Y-8.152 E48.68946
G1 X5.142 Y-8.152 E48.70732
G1 X5.412 Y-8.073 E48.72507
G1 X5.817 Y-7.778 E48.7567
G1 X6.11 Y-7.596 E48.77846
G1 X6.433 Y-7.463 E48.80051
G1 X6.77 Y-7.381 E48.8224
G1 X7.515 Y-7.31 E48.86963
G1 X7.772 Y-7.194 E48.88742
G1 X7.987 Y-7.011 E48.90524
G1 X8.141 Y-6.775 E48.92303
G1 X8.236 Y-6.35 E48.95051
G1 X8.233 Y6.25 E49.74571
G1 X8.193 Y6.53 E49.76356
G1 X8.077 Y6.787 E49.78136
G1 X7.893 Y7.001 E49.79917
G1 X7.657 Y7.155 E49.81695
G1 X7.233 Y7.25 E49.84438
G1 X6.783 Y7.278 E49.87283
G1 X6.449 Y7.357 E49.89449
G1 X6.118 Y7.493 E49.91708
G1 X5.65 Y7.823 E49.95322
G1 X5.412 Y7.974 E49.97101
G1 X5.141 Y8.052 E49.9888
G1 X4.859 Y8.052 E50.0066
G1 X4.588 Y7.973 E50.02442
G1 X4.183 Y7.678 E50.05604
G1 X3.89 Y7.496 E50.07781
G1 X3.567 Y7.363 E50.09985
G1 X3.23 Y7.281 E50.12174
G1 X2.485 Y7.21 E50.16897
G1 X2.228 Y7.094 E50.18677
G1 X2.013 Y6.911 E50.20458
G1 X1.859 Y6.675 E50.22237
G0 F3600 X2.23 Y6.524
G1 F1500 X2.164 Y6.25 E50.24016
G1 X2.167 Y-6.35 E51.03536
G1 X2.207 Y-6.565 E51.04916
G1 X2.321 Y-6.751 E51.06293
