;FLAVOR:Marlin
;TIME:5868
;Filament used: 3.91406m
;Layer height: 0.12
;MINX:-7.5
;MINY:-15.05
;MINZ:0.3
;MAXX:17.5
;MAXY:14.95
;MAXZ:37.38
;Generated with Cura_SteamEngine 4.13.1
M140 S50
M105
M190 S50
M104 S215
M105
M109 S215
M82 ;absolute extrusion mode
;FLAVOR:Marlin
M82 ;absolute extrusion mode
G21
G90
M82
M107 T0
G28
G92 E0
G0 E3 F200
G92 E0 ; reset extrusion distance
M106 S255 ; Enable cooling fan full speed
G1 X-98 Y0 Z0.4 F3000 ; move to arc start
G3 X0 Y-98 I98 Z0.4 E40 F400 ; lay arc stripe 90deg
G92 E0 ; reset extrusion distance
G4 P500 ; wait for 0.5 sec
G0 Z10 E-1 ; Lift 15mm and retract 1mm filament
G4 P2000 ; wait for 5 sec
G0 Z15
M107 ; Disable cooling fan
G1 X0 Y-85 Z4 E0 F3000 ; get off the bed
G92 E0
G92 E0
G1 F1500 E-6.5
;LAYER_COUNT:311
;LAYER:0
M106 S25.5
G1 F600 Z1.3
G0 F3600 X-7.5 Y11.833 Z1.3
;TYPE:SKIRT
G1 F600 Z0.3
G1 F1500 E0.3326
G1 X-7.5 Y-11.933 E1.8325
G1 X-7.46 Y-12.421 E1.8634
G1 X-7.341 Y-12.896 E1.89431
G1 X-7.147 Y-13.345 E1.92517
G1 X-6.882 Y-13.757 E1.95609
G1 X-6.504 Y-14.171 E1.99147
G1 X-6.131 Y-14.488 E2.02236
G1 X-5.711 Y-14.74 E2.05328
G1 X-5.256 Y-14.92 E2.08416
G1 X-4.778 Y-15.024 E2.11503
G1 X-4.383 Y-15.05 E2.14001
G1 X2.884 Y-15.05 E2.59864
G1 X3.372 Y-15.01 E2.62954
G1 X3.847 Y-14.891 E2.66045
G1 X4.296 Y-14.697 E2.69132
G1 X4.708 Y-14.432 E2.72223
G1 X5 Y-14.175 E2.74678
G1 X5.368 Y-14.488 E2.77727
G1 X5.788 Y-14.74 E2.80818
G1 X6.243 Y-14.92 E2.83906
G1 X6.721 Y-15.024 E2.86994
G1 X7.116 Y-15.05 E2.89492
G1 X14.383 Y-15.05 E3.35355
G1 X14.871 Y-15.01 E3.38445
G1 X15.346 Y-14.891 E3.41535
G1 X15.795 Y-14.697 E3.44622
G1 X16.207 Y-14.432 E3.47714
G1 X16.621 Y-14.054 E3.51252
G1 X16.938 Y-13.681 E3.54341
G1 X17.19 Y-13.261 E3.57432
G1 X17.37 Y-12.806 E3.6052
G1 X17.474 Y-12.328 E3.63608
G1 X17.5 Y-11.933 E3.66106
G1 X17.5 Y11.833 E5.16096
G1 X17.46 Y12.321 E5.19186
G1 X17.341 Y12.796 E5.22276
G1 X17.147 Y13.245 E5.25363
G1 X16.882 Y13.657 E5.28455
G1 X16.504 Y14.071 E5.31993
G1 X16.131 Y14.388 E5.35082
G1 X15.711 Y14.64 E5.38174
G1 X15.256 Y14.82 E5.41262
G1 X14.778 Y14.924 E5.44349
G1 X14.383 Y14.95 E5.46847
G1 X7.116 Y14.95 E5.9271
G1 X6.628 Y14.91 E5.958
G1 X6.153 Y14.791 E5.98891
G1 X5.704 Y14.597 E6.01978
G1 X5.292 Y14.332 E6.05069
G1 X5 Y14.075 E6.07524
G1 X4.632 Y14.388 E6.10573
G1 X4.212 Y14.64 E6.13664
G1 X3.757 Y14.82 E6.16752
G1 X3.279 Y14.924 E6.1984
G1 X2.884 Y14.95 E6.22338
G1 X-4.383 Y14.95 E6.68201
G1 X-4.871 Y14.91 E6.71291
G1 X-5.346 Y14.791 E6.74381
G1 X-5.795 Y14.597 E6.77468
G1 X-6.207 Y14.332 E6.8056
G1 X-6.621 Y13.954 E6.84098
G1 X-6.938 Y13.581 E6.87187
G1 X-7.19 Y13.161 E6.90278
G1 X-7.37 Y12.706 E6.93366
G1 X-7.474 Y12.228 E6.96454
G1 X-7.5 Y11.833 E6.98952
G0 F3600 X-7.1 Y11.833
G1 F1500 X-7.1 Y-11.933 E8.48942
G1 X-7.06 Y-12.387 E8.51818
G1 X-6.942 Y-12.827 E8.54693
G1 X-6.748 Y-13.239 E8.57567
G1 X-6.338 Y-13.771 E8.61806
G1 X-5.872 Y-14.181 E8.65723
G1 X-5.477 Y-14.408 E8.68599
G1 X-5.049 Y-14.563 E8.71471
G1 X-4.383 Y-14.65 E8.7571
G1 X2.884 Y-14.65 E9.21573
G1 X3.338 Y-14.61 E9.2445
G1 X3.778 Y-14.492 E9.27325
G1 X4.19 Y-14.298 E9.30199
G1 X4.722 Y-13.888 E9.34437
G1 X5.007 Y-13.571 E9.37128
G1 X5.278 Y-13.888 E9.3976
G1 X5.627 Y-14.181 E9.42636
G1 X6.022 Y-14.408 E9.45511
G1 X6.45 Y-14.563 E9.48384
G1 X7.116 Y-14.65 E9.52623
G1 X14.383 Y-14.65 E9.98485
G1 X14.837 Y-14.61 E10.01362
G1 X15.277 Y-14.492 E10.04237
G1 X15.689 Y-14.298 E10.07111
G1 X16.221 Y-13.888 E10.1135
G1 X16.631 Y-13.422 E10.15267
G1 X16.858 Y-13.027 E10.18142
G1 X17.013 Y-12.599 E10.21015
G1 X17.1 Y-11.933 E10.25254
G1 X17.1 Y11.833 E11.75244
G1 X17.06 Y12.287 E11.7812
G1 X16.942 Y12.727 E11.80995
G1 X16.748 Y13.139 E11.83869
G1 X16.338 Y13.671 E11.88108
G1 X15.872 Y14.081 E11.92025
G1 X15.477 Y14.308 E11.94901
G1 X15.049 Y14.463 E11.97773
G1 X14.383 Y14.55 E12.02012
G1 X7.116 Y14.55 E12.47875
G1 X6.662 Y14.51 E12.50751
G1 X6.222 Y14.392 E12.53627
G1 X5.81 Y14.198 E12.56501
G1 X5.278 Y13.788 E12.60739
G1 X4.993 Y13.471 E12.6343
G1 X4.722 Y13.788 E12.66062
G1 X4.373 Y14.081 E12.68938
G1 X3.978 Y14.308 E12.71813
G1 X3.55 Y14.463 E12.74686
G1 X2.884 Y14.55 E12.78925
G1 X-4.383 Y14.55 E13.24787
G1 X-4.837 Y14.51 E13.27664
G1 X-5.277 Y14.392 E13.30539
G1 X-5.689 Y14.198 E13.33413
G1 X-6.221 Y13.788 E13.37652
G1 X-6.631 Y13.322 E13.41569
G1 X-6.858 Y12.927 E13.44444
G1 X-7.013 Y12.499 E13.47317
G1 X-7.1 Y11.833 E13.51556
G0 F3600 X-6.7 Y11.833
G1 F1500 X-6.7 Y-11.933 E15.01546
G1 X-6.66 Y-12.35 E15.0419
G1 X-6.542 Y-12.752 E15.06834
G1 X-6.349 Y-13.124 E15.09479
G1 X-5.939 Y-13.606 E15.13472
G1 X-5.615 Y-13.872 E15.16118
G1 X-5.248 Y-14.073 E15.18759
G1 X-4.848 Y-14.2 E15.21407
G1 X-4.383 Y-14.25 E15.24359
G1 X2.884 Y-14.25 E15.70222
G1 X3.301 Y-14.21 E15.72866
G1 X3.703 Y-14.092 E15.7551
G1 X4.075 Y-13.899 E15.78155
G1 X4.557 Y-13.489 E15.82148
G1 X4.823 Y-13.165 E15.84794
G1 X5.002 Y-12.838 E15.87146
G1 X5.15 Y-13.124 E15.89179
G1 X5.56 Y-13.606 E15.93172
G1 X5.884 Y-13.872 E15.95818
G1 X6.251 Y-14.073 E15.98459
G1 X6.651 Y-14.2 E16.01108
G1 X7.116 Y-14.25 E16.04059
G1 X14.383 Y-14.25 E16.49922
G1 X14.8 Y-14.21 E16.52566
G1 X15.202 Y-14.092 E16.5521
G1 X15.574 Y-13.899 E16.57855
G1 X16.056 Y-13.489 E16.61848
G1 X16.322 Y-13.165 E16.64494
G1 X16.523 Y-12.798 E16.67135
G1 X16.65 Y-12.398 E16.69783
G1 X16.7 Y-11.933 E16.72735
G1 X16.7 Y11.833 E18.22725
G1 X16.66 Y12.25 E18.25369
G1 X16.542 Y12.652 E18.28013
G1 X16.349 Y13.024 E18.30658
G1 X15.939 Y13.506 E18.34651
G1 X15.615 Y13.772 E18.37297
G1 X15.248 Y13.973 E18.39938
G1 X14.848 Y14.1 E18.42586
G1 X14.383 Y14.15 E18.45538
G1 X7.116 Y14.15 E18.91401
G1 X6.699 Y14.11 E18.94045
G1 X6.297 Y13.992 E18.96689
G1 X5.925 Y13.799 E18.99334
G1 X5.443 Y13.389 E19.03327
G1 X5.177 Y13.065 E19.05973
G1 X4.998 Y12.738 E19.08326
G1 X4.85 Y13.024 E19.10358
G1 X4.44 Y13.506 E19.14352
G1 X4.116 Y13.772 E19.16997
G1 X3.749 Y13.973 E19.19638
G1 X3.349 Y14.1 E19.22287
G1 X2.884 Y14.15 E19.25238
G1 X-4.383 Y14.15 E19.71101
G1 X-4.8 Y14.11 E19.73745
G1 X-5.202 Y13.992 E19.76389
G1 X-5.574 Y13.799 E19.79034
G1 X-6.056 Y13.389 E19.83027
G1 X-6.322 Y13.065 E19.85673
G1 X-6.523 Y12.698 E19.88314
G1 X-6.65 Y12.298 E19.90963
G1 X-6.7 Y11.833 E19.93914
G0 F3600 X-6.3 Y11.833
G1 F1500 X-6.3 Y-11.933 E21.43904
G1 X-6.26 Y-12.31 E21.46297
G1 X-6.142 Y-12.67 E21.48688
G1 X-5.952 Y-12.997 E21.51074
G1 X-5.656 Y-13.323 E21.53853
G1 X-5.361 Y-13.561 E21.56246
G1 X-5.023 Y-13.732 E21.58636
G1 X-4.657 Y-13.829 E21.61026
G1 X-4.383 Y-13.85 E21.6276
G1 X2.884 Y-13.85 E22.08623
G1 X3.261 Y-13.81 E22.11016
G1 X3.621 Y-13.692 E22.13406
G1 X3.948 Y-13.502 E22.15793
G1 X4.274 Y-13.206 E22.18572
G1 X4.512 Y-12.911 E22.20964
G1 X4.683 Y-12.573 E22.23355
G1 X4.78 Y-12.207 E22.25745
G1 X4.801 Y-11.933 E22.27479
G1 X4.801 Y-9.667 E22.4178
G1 X4.761 Y-9.29 E22.44173
G1 X4.634 Y-8.914 E22.46677
G1 X4.872 Y-8.956 E22.48202
G1 X5.375 Y-8.912 E22.51389
G1 X5.22 Y-9.393 E22.54578
G1 X5.199 Y-9.667 E22.56313
G1 X5.199 Y-11.933 E22.70614
G1 X5.239 Y-12.31 E22.73006
G1 X5.357 Y-12.67 E22.75397
G1 X5.547 Y-12.997 E22.77784
G1 X5.843 Y-13.323 E22.80563
G1 X6.138 Y-13.561 E22.82955
G1 X6.476 Y-13.732 E22.85346
G1 X6.842 Y-13.829 E22.87736
G1 X7.116 Y-13.85 E22.8947
G1 X14.383 Y-13.85 E23.35333
G1 X14.76 Y-13.81 E23.37725
G1 X15.12 Y-13.692 E23.40116
G1 X15.447 Y-13.502 E23.42503
G1 X15.773 Y-13.206 E23.45282
G1 X16.011 Y-12.911 E23.47674
G1 X16.182 Y-12.573 E23.50065
G1 X16.279 Y-12.207 E23.52454
G1 X16.3 Y-11.933 E23.54189
G1 X16.3 Y11.833 E25.04179
G1 X16.26 Y12.21 E25.06571
G1 X16.142 Y12.57 E25.08962
G1 X15.952 Y12.897 E25.11349
G1 X15.656 Y13.223 E25.14128
G1 X15.361 Y13.461 E25.1652
G1 X15.023 Y13.632 E25.18911
G1 X14.657 Y13.729 E25.213
G1 X14.383 Y13.75 E25.23035
G1 X7.116 Y13.75 E25.68897
G1 X6.739 Y13.71 E25.7129
G1 X6.379 Y13.592 E25.73681
G1 X6.052 Y13.402 E25.76068
G1 X5.726 Y13.106 E25.78847
G1 X5.488 Y12.811 E25.81239
G1 X5.317 Y12.473 E25.8363
G1 X5.22 Y12.107 E25.86019
G1 X5.199 Y11.833 E25.87754
G1 X5.199 Y9.567 E26.02054
G1 X5.239 Y9.19 E26.04447
G1 X5.366 Y8.814 E26.06952
G1 X5.128 Y8.856 E26.08477
G1 X4.625 Y8.813 E26.11663
G1 X4.78 Y9.293 E26.14847
G1 X4.801 Y9.567 E26.16581
G1 X4.801 Y11.833 E26.30882
G1 X4.761 Y12.21 E26.33274
G1 X4.643 Y12.57 E26.35665
G1 X4.453 Y12.897 E26.38052
G1 X4.157 Y13.223 E26.40831
G1 X3.862 Y13.461 E26.43223
G1 X3.524 Y13.632 E26.45614
G1 X3.158 Y13.729 E26.48004
G1 X2.884 Y13.75 E26.49738
G1 X-4.383 Y13.75 E26.95601
G1 X-4.76 Y13.71 E26.97993
G1 X-5.12 Y13.592 E27.00384
G1 X-5.447 Y13.402 E27.02771
G1 X-5.773 Y13.106 E27.0555
G1 X-6.011 Y12.811 E27.07942
G1 X-6.182 Y12.473 E27.10333
G1 X-6.279 Y12.107 E27.12722
G1 X-6.3 Y11.833 E27.14457
G0 F3600 X-5.9 Y11.833
G1 F1500 X-5.9 Y-11.933 E28.64447
G1 X-5.86 Y-12.265 E28.66557
G1 X-5.743 Y-12.577 E28.6866
G1 X-5.373 Y-13.04 E28.724
G1 X-5.11 Y-13.246 E28.74509
G1 X-4.806 Y-13.385 E28.76618
G1 X-4.383 Y-13.45 E28.79319
G1 X2.884 Y-13.45 E29.25182
G1 X3.216 Y-13.41 E29.27293
G1 X3.528 Y-13.293 E29.29396
G1 X3.991 Y-12.923 E29.33136
G1 X4.197 Y-12.66 E29.35244
G1 X4.336 Y-12.356 E29.37354
G1 X4.401 Y-11.933 E29.40055
G1 X4.401 Y-9.667 E29.54356
G1 X4.361 Y-9.335 E29.56466
G1 X4.244 Y-9.023 E29.58569
G1 X3.874 Y-8.56 E29.6231
G1 X3.611 Y-8.354 E29.64418
G1 X3.307 Y-8.215 E29.66528
G1 X2.884 Y-8.15 E29.69229
G1 X-.6 Y-8.15 E29.91217
G1 X-.6 Y8.05 E30.93457
G1 X2.884 Y8.05 E31.15445
G1 X3.216 Y8.09 E31.17555
G1 X3.528 Y8.207 E31.19658
G1 X3.991 Y8.577 E31.23399
G1 X4.197 Y8.84 E31.25507
G1 X4.336 Y9.144 E31.27616
G1 X4.401 Y9.567 E31.30317
G1 X4.401 Y11.833 E31.44618
G1 X4.361 Y12.165 E31.46729
G1 X4.244 Y12.477 E31.48832
G1 X3.874 Y12.94 E31.52572
G1 X3.611 Y13.146 E31.54681
G1 X3.307 Y13.285 E31.5679
G1 X2.884 Y13.35 E31.59491
G1 X-4.383 Y13.35 E32.05354
G1 X-4.715 Y13.31 E32.07464
G1 X-5.027 Y13.193 E32.09567
G1 X-5.49 Y12.823 E32.13308
G1 X-5.696 Y12.56 E32.15416
G1 X-5.835 Y12.256 E32.17526
G1 X-5.9 Y11.833 E32.20227
G0 F3600 X-5.5 Y11.833
G1 F1500 X-5.5 Y-11.933 E33.70217
G1 X-5.46 Y-12.212 E33.71996
G1 X-5.344 Y-12.469 E33.73775
G1 X-5.09 Y-12.757 E33.76199
G1 X-4.864 Y-12.926 E33.7798
G1 X-4.6 Y-13.026 E33.79761
G1 X-4.383 Y-13.05 E33.81139
G1 X2.884 Y-13.05 E34.27002
G1 X3.163 Y-13.01 E34.28781
G1 X3.42 Y-12.894 E34.3056
G1 X3.708 Y-12.64 E34.32984
G1 X3.877 Y-12.414 E34.34765
G1 X3.977 Y-12.15 E34.36546
G1 X4.001 Y-11.933 E34.37924
G1 X4.001 Y-9.667 E34.52225
G1 X3.961 Y-9.388 E34.54004
G1 X3.845 Y-9.131 E34.55784
G1 X3.591 Y-8.843 E34.58207
G1 X3.365 Y-8.674 E34.59988
G1 X3.101 Y-8.574 E34.6177
G1 X2.884 Y-8.55 E34.63148
G1 X-1 Y-8.55 E34.8766
G1 X-1 Y8.45 E35.94949
G1 X2.884 Y8.45 E36.19461
G1 X3.163 Y8.49 E36.2124
G1 X3.42 Y8.606 E36.23019
G1 X3.708 Y8.86 E36.25443
G1 X3.877 Y9.086 E36.27224
G1 X3.977 Y9.35 E36.29006
G1 X4.001 Y9.567 E36.30383
G1 X4.001 Y11.833 E36.44684
G1 X3.961 Y12.112 E36.46463
G1 X3.845 Y12.369 E36.48243
G1 X3.591 Y12.657 E36.50666
G1 X3.365 Y12.826 E36.52447
G1 X3.101 Y12.926 E36.54229
G1 X2.884 Y12.95 E36.55607
G1 X-4.383 Y12.95 E37.0147
G1 X-4.662 Y12.91 E37.03248
G1 X-4.919 Y12.794 E37.05028
G1 X-5.207 Y12.54 E37.07451
G1 X-5.376 Y12.314 E37.09232
G1 X-5.476 Y12.05 E37.11014
G1 X-5.5 Y11.833 E37.12392
G0 F3600 X-5.1 Y11.833
G1 F1500 X-5.1 Y-11.933 E38.62382
G1 X-5.06 Y-12.148 E38.63762
G1 X-4.807 Y-12.474 E38.66366
G1 X-4.628 Y-12.598 E38.67741
G1 X-4.383 Y-12.65 E38.69321
G1 X2.884 Y-12.65 E39.15184
G1 X3.099 Y-12.61 E39.16564
G1 X3.425 Y-12.357 E39.19169
G1 X3.549 Y-12.178 E39.20543
G1 X3.601 Y-11.933 E39.22124
G1 X3.601 Y-9.667 E39.36424
G1 X3.561 Y-9.452 E39.37805
G1 X3.308 Y-9.126 E39.40409
G1 X3.129 Y-9.002 E39.41783
G1 X2.884 Y-8.95 E39.43364
G1 X-1.4 Y-8.95 E39.70401
G1 X-1.4 Y8.85 E40.82738
G1 X2.884 Y8.85 E41.09775
G1 X3.099 Y8.89 E41.11155
G1 X3.425 Y9.143 E41.1376
G1 X3.549 Y9.322 E41.15134
G1 X3.601 Y9.567 E41.16715
G1 X3.601 Y11.833 E41.31016
G1 X3.561 Y12.048 E41.32396
G1 X3.308 Y12.374 E41.35
G1 X3.129 Y12.498 E41.36374
G1 X2.884 Y12.55 E41.37955
G1 X-4.383 Y12.55 E41.83818
G1 X-4.598 Y12.51 E41.85198
G1 X-4.924 Y12.257 E41.87802
G1 X-5.048 Y12.078 E41.89177
G1 X-5.1 Y11.833 E41.90757
G0 F3600 X-4.7 Y11.833
G1 F1500 X-4.7 Y-11.933 E43.40747
G1 X-4.641 Y-12.074 E43.41712
G1 X-4.524 Y-12.191 E43.42756
G1 X-4.383 Y-12.25 E43.43721
G1 X2.884 Y-12.25 E43.89584
G1 X3.025 Y-12.191 E43.90548
G1 X3.142 Y-12.074 E43.91592
G1 X3.201 Y-11.933 E43.92557
G1 X3.201 Y-9.667 E44.06858
G1 X3.142 Y-9.526 E44.07823
G1 X3.025 Y-9.409 E44.08867
G1 X2.884 Y-9.35 E44.09832
G1 X-1.8 Y-9.35 E44.39393
G1 X-1.8 Y9.25 E45.5678
G1 X2.884 Y9.25 E45.86341
G1 X3.025 Y9.309 E45.87305
G1 X3.142 Y9.426 E45.8835
G1 X3.201 Y9.567 E45.89314
G1 X3.201 Y11.833 E46.03615
G1 X3.142 Y11.974 E46.0458
G1 X3.025 Y12.091 E46.05624
G1 X2.884 Y12.15 E46.06589
G1 X-4.383 Y12.15 E46.52452
G1 X-4.524 Y12.091 E46.53416
G1 X-4.641 Y11.974 E46.5446
G1 X-4.7 Y11.833 E46.55425
G1 F1500 E40.05425
G1 F600 Z1.3
G0 F3600 X1.387 Y7.057 Z1.3
G1 F600 Z0.3
G1 F1500 E46.88685
G1 X1.228 Y6.763 E46.90795
G1 X1.131 Y6.249 E46.94096
G1 X1.136 Y-.542 E47.36955
G1 X1.133 Y-6.349 E47.73603
G1 X1.173 Y-6.681 E47.75714
G1 X1.29 Y-6.994 E47.77823
G1 X1.478 Y-7.27 E47.7993
G1 X1.726 Y-7.494 E47.82039
G1 X2.02 Y-7.653 E47.84149
G1 X2.533 Y-7.75 E47.87444
G1 X3.16 Y-7.775 E47.91404
G1 X3.702 Y-7.951 E47.95
G1 X4.373 Y-8.413 E48.00142
G1 X4.687 Y-8.526 E48.02248
G1 X5.019 Y-8.561 E48.04355
G1 X5.35 Y-8.516 E48.06463
G1 X5.662 Y-8.395 E48.08575
G1 X6.295 Y-7.953 E48.13447
G1 X6.827 Y-7.778 E48.16982
G1 X7.469 Y-7.75 E48.21037
G1 X7.801 Y-7.71 E48.23148
G1 X8.113 Y-7.593 E48.25251
G1 X8.39 Y-7.405 E48.27364
G1 X8.613 Y-7.157 E48.29468
G1 X8.772 Y-6.863 E48.31578
G1 X8.869 Y-6.349 E48.34879
G1 X8.865 Y0.234 E48.76425
G1 X8.868 Y6.249 E49.14386
G1 X8.828 Y6.581 E49.16497
G1 X8.711 Y6.894 E49.18606
G1 X8.523 Y7.17 E49.20713
G1 X8.275 Y7.394 E49.22822
G1 X7.981 Y7.553 E49.24932
G1 X7.468 Y7.65 E49.28227
G1 X6.84 Y7.675 E49.32193
G1 X6.303 Y7.849 E49.35756
G1 X5.628 Y8.312 E49.40922
G1 X5.313 Y8.425 E49.43034
G1 X4.981 Y8.461 E49.45141
G1 X4.65 Y8.417 E49.47249
G1 X4.339 Y8.295 E49.49357
G1 X3.705 Y7.853 E49.54235
G1 X3.173 Y7.678 E49.57769
G1 X2.531 Y7.65 E49.61825
G1 X2.199 Y7.61 E49.63935
G1 X1.887 Y7.493 E49.66038
G1 X1.61 Y7.305 E49.68151
G1 X1.387 Y7.057 E49.70256
G0 F3600 X1.626 Y6.675
G1 F1500 X1.531 Y6.249 E49.7301
G1 X1.536 Y-.542 E50.15869
G1 X1.533 Y-6.349 E50.52518
G1 X1.573 Y-6.629 E50.54303
G1 X1.689 Y-6.886 E50.56082
G1 X1.872 Y-7.1 E50.57859
G1 X2.108 Y-7.255 E50.59641
G1 X2.533 Y-7.35 E50.6239
G1 X3.218 Y-7.378 E50.66717
G1 X3.552 Y-7.457 E50.68883
G1 X3.88 Y-7.592 E50.71121
G1 X4.353 Y-7.923 E50.74765
G1 X4.592 Y-8.074 E50.76549
G1 X4.863 Y-8.152 E50.78329
G1 X5.145 Y-8.15 E50.80108
G1 X5.416 Y-8.071 E50.8189
G1 X6.11 Y-7.596 E50.87197
G1 X6.433 Y-7.463 E50.89402
G1 X6.77 Y-7.381 E50.91591
G1 X7.469 Y-7.35 E50.96007
G1 X7.748 Y-7.31 E50.97785
G1 X8.005 Y-7.194 E50.99565
G1 X8.22 Y-7.011 E51.01347
G1 X8.374 Y-6.775 E51.03125
G1 X8.469 Y-6.349 E51.0588
G1 X8.465 Y0.234 E51.47426
G1 X8.468 Y6.25 E51.85394
G1 X8.428 Y6.529 E51.87172
G1 X8.312 Y6.786 E51.88952
G1 X8.129 Y7 E51.90729
G1 X7.893 Y7.155 E51.92511
G1 X7.468 Y7.25 E51.95259
G1 X6.782 Y7.278 E51.99592
G1 X6.448 Y7.357 E52.01758
G1 X6.117 Y7.493 E52.04017
G1 X5.647 Y7.823 E52.07641
G1 X5.409 Y7.974 E52.0942
G1 X5.138 Y8.051 E52.11198
G1 X4.855 Y8.05 E52.12984
G1 X4.585 Y7.971 E52.1476
G1 X3.89 Y7.496 E52.20072
G1 X3.567 Y7.363 E52.22277
G1 X3.23 Y7.281 E52.24466
G1 X2.531 Y7.25 E52.28882
G1 X2.252 Y7.21 E52.3066
G1 X1.995 Y7.094 E52.3244
