;FLAVOR:Marlin
;TIME:2410
;Filament used: 1.18149m
;Layer height: 0.12
;MINX:-10.5
;MINY:-13.25
;MINZ:0.3
;MAXX:10.5
;MAXY:13.25
;MAXZ:31.74
;Generated with Cura_SteamEngine 4.13.1
M140 S50
M105
M190 S50
M104 S210
M105
M109 S210
M82 ;absolute extrusion mode
;FLAVOR:Marlin
M82 ;absolute extrusion mode
G21
G90
M82
M107 T0
G28
G92 E0
G0 E3 F200
G92 E0 ; reset extrusion distance
M106 S255 ; Enable cooling fan full speed
G1 X-98 Y0 Z0.4 F3000 ; move to arc start
G3 X0 Y-98 I98 Z0.4 E40 F400 ; lay arc stripe 90deg
G92 E0 ; reset extrusion distance
G4 P500 ; wait for 0.5 sec
G0 Z10 E-1 ; Lift 15mm and retract 1mm filament
G4 P2000 ; wait for 5 sec
G0 Z15
M107 ; Disable cooling fan
G1 X0 Y-85 Z4 E0 F3000 ; get off the bed
G92 E0
G92 E0
G1 F1500 E-6.5
;LAYER_COUNT:264
;LAYER:0
M106 S25.5
G1 F600 Z1.3
G0 F3600 X-2.21 Y3.884 Z1.3
;TYPE:SKIRT
G1 F600 Z0.3
G1 F1500 E0.3326
G1 F2400 X-2.25 Y4.372 E0.35703
G1 X-2.369 Y4.847 E0.38146
G1 X-2.563 Y5.296 E0.40586
G1 X-2.828 Y5.708 E0.4303
G1 X-3.086 Y6.002 E0.44982
G1 X-1.619 Y6.002 E0.523
G1 X-1.131 Y6.042 E0.54743
G1 X-.656 Y6.161 E0.57186
G1 X-.207 Y6.355 E0.59627
G1 X-0.001 Y6.487 E0.60847
G1 X0.291 Y6.312 E0.62546
G1 X0.746 Y6.132 E0.64987
G1 X1.224 Y6.028 E0.67427
G1 X1.619 Y6.002 E0.69402
G1 X3.086 Y6.002 E0.76721
G1 X2.772 Y5.632 E0.79142
G1 X2.52 Y5.212 E0.81586
G1 X2.34 Y4.757 E0.84027
G1 X2.236 Y4.279 E0.86468
G1 X2.21 Y3.884 E0.88442
G1 X2.21 Y-6.003 E1.37769
G1 X-2.21 Y-6.003 E1.5982
G1 X-2.21 Y3.884 E2.09147
G0 F3600 X-2.61 Y3.884
G1 F2400 X-2.65 Y4.338 E2.11421
G1 X-2.768 Y4.778 E2.13693
G1 X-2.962 Y5.19 E2.15965
G1 X-3.372 Y5.722 E2.19316
G1 X-3.652 Y5.976 E2.21202
G1 X-3.652 Y6.402 E2.23328
G1 X-1.619 Y6.402 E2.3347
G1 X-1.165 Y6.442 E2.35744
G1 X-.725 Y6.56 E2.38017
G1 X-.313 Y6.754 E2.40289
G1 X-0.009 Y6.988 E2.42203
G1 X0.525 Y6.644 E2.45372
G1 X0.953 Y6.489 E2.47643
G1 X1.619 Y6.402 E2.50994
G1 X3.653 Y6.402 E2.61141
G1 X3.653 Y5.965 E2.63322
G1 X3.372 Y5.722 E2.65175
G1 X3.079 Y5.373 E2.67448
G1 X2.852 Y4.978 E2.69721
G1 X2.697 Y4.55 E2.71992
G1 X2.61 Y3.884 E2.75343
G1 X2.61 Y-6.403 E3.26665
G1 X-2.61 Y-6.403 E3.52708
G1 X-2.61 Y3.884 E4.0403
G0 F3600 X-3.01 Y3.884
G1 F2400 X-3.05 Y4.301 E4.0612
G1 X-3.168 Y4.703 E4.0821
G1 X-3.361 Y5.075 E4.10301
G1 X-3.771 Y5.557 E4.13458
G1 X-4.052 Y5.788 E4.15273
G1 X-4.052 Y6.802 E4.20332
G1 X-1.619 Y6.802 E4.3247
G1 X-1.202 Y6.842 E4.3456
G1 X-.8 Y6.96 E4.3665
G1 X-.428 Y7.153 E4.38741
G1 X0.00 Y7.509 E4.41518
G1 X0.387 Y7.18 E4.44053
G1 X0.754 Y6.979 E4.4614
G1 X1.154 Y6.852 E4.48234
G1 X1.619 Y6.802 E4.50567
G1 X4.053 Y6.802 E4.6271
G1 X4.053 Y5.783 E4.67794
G1 X3.654 Y5.44 E4.70419
G1 X3.388 Y5.116 E4.72511
G1 X3.187 Y4.749 E4.74598
G1 X3.06 Y4.349 E4.76692
G1 X3.01 Y3.884 E4.79025
G1 X3.01 Y-6.803 E5.32343
G1 X-3.01 Y-6.803 E5.62377
G1 X-3.01 Y3.884 E6.15695
G0 F3600 X-3.41 Y3.884
G1 F2400 X-3.45 Y4.261 E6.17586
G1 X-3.568 Y4.621 E6.19476
G1 X-3.758 Y4.948 E6.21363
G1 X-4.054 Y5.274 E6.2356
G1 X-4.452 Y5.564 E6.26017
G1 X-4.452 Y7.202 E6.34189
G1 X-1.619 Y7.202 E6.48322
G1 X-1.242 Y7.242 E6.50214
G1 X-.882 Y7.36 E6.52104
G1 X-.555 Y7.55 E6.53991
G1 X-.229 Y7.846 E6.56188
G1 X0.004 Y8.135 E6.5804
G1 X0.346 Y7.729 E6.60688
G1 X0.641 Y7.491 E6.62579
G1 X0.979 Y7.32 E6.64469
G1 X1.345 Y7.223 E6.66358
G1 X1.619 Y7.202 E6.67729
G1 X4.453 Y7.202 E6.81868
G1 X4.453 Y5.563 E6.90045
G1 X4.054 Y5.274 E6.92503
G1 X3.699 Y4.862 E6.95216
G1 X3.528 Y4.524 E6.97106
G1 X3.431 Y4.158 E6.98995
G1 X3.41 Y3.884 E7.00366
G1 X3.41 Y-7.203 E7.55679
G1 X-3.41 Y-7.203 E7.89704
G1 X-3.41 Y3.884 E8.45017
G0 F3600 X-3.81 Y3.884
G1 F2400 X-3.85 Y4.216 E8.46686
G1 X-3.967 Y4.528 E8.48348
G1 X-4.337 Y4.991 E8.51305
G1 X-4.6 Y5.197 E8.52972
G1 X-4.852 Y5.312 E8.54354
G1 X-4.852 Y7.602 E8.65779
G1 X-1.619 Y7.602 E8.81908
G1 X-1.287 Y7.642 E8.83576
G1 X-.975 Y7.759 E8.85239
G1 X-.512 Y8.129 E8.88196
G1 X-.306 Y8.392 E8.89862
G1 X-.167 Y8.696 E8.9153
G1 X-.102 Y9.119 E8.93665
G1 X-.102 Y10.133 E8.98724
G1 X-.142 Y10.465 E9.00392
G1 X-.259 Y10.777 E9.02055
G1 X-.629 Y11.24 E9.05012
G1 X-.892 Y11.446 E9.06678
G1 X-1.196 Y11.585 E9.08346
G1 X-1.619 Y11.65 E9.10481
G1 X-7.383 Y11.65 E9.39238
G1 X-7.715 Y11.61 E9.40906
G1 X-8.027 Y11.493 E9.42569
G1 X-8.49 Y11.123 E9.45526
G1 X-8.696 Y10.86 E9.47192
G1 X-8.835 Y10.556 E9.4886
G1 X-8.9 Y10.133 E9.50995
G1 X-8.9 Y3.367 E9.84751
G1 X-8.86 Y3.035 E9.86419
G1 X-8.743 Y2.723 E9.88082
G1 X-8.373 Y2.26 E9.91039
G1 X-8.11 Y2.054 E9.92705
G1 X-7.806 Y1.915 E9.94373
G1 X-7.65 Y1.891 E9.9516
G1 X-7.65 Y-10.133 E10.55148
G1 X-7.61 Y-10.465 E10.56817
G1 X-7.493 Y-10.777 E10.58479
G1 X-7.123 Y-11.24 E10.61436
G1 X-6.86 Y-11.446 E10.63103
G1 X-6.556 Y-11.585 E10.6477
G1 X-6.133 Y-11.65 E10.66905
G1 X6.133 Y-11.65 E11.28101
G1 X6.465 Y-11.61 E11.29769
G1 X6.777 Y-11.493 E11.31432
G1 X7.24 Y-11.123 E11.34388
G1 X7.446 Y-10.86 E11.36055
G1 X7.585 Y-10.556 E11.37723
G1 X7.65 Y-10.133 E11.39858
G1 X7.65 Y1.882 E11.99801
G1 X8.027 Y2.007 E12.01783
G1 X8.49 Y2.377 E12.04739
G1 X8.696 Y2.64 E12.06406
G1 X8.835 Y2.944 E12.08074
G1 X8.9 Y3.367 E12.10209
G1 X8.9 Y10.133 E12.43965
G1 X8.86 Y10.465 E12.45633
G1 X8.743 Y10.777 E12.47295
G1 X8.373 Y11.24 E12.50252
G1 X8.11 Y11.446 E12.51919
G1 X7.806 Y11.585 E12.53587
G1 X7.383 Y11.65 E12.55722
G1 X1.619 Y11.65 E12.84479
G1 X1.287 Y11.61 E12.86147
G1 X0.975 Y11.493 E12.87809
G1 X0.512 Y11.123 E12.90766
G1 X0.306 Y10.86 E12.92433
G1 X0.167 Y10.556 E12.94101
G1 X0.102 Y10.133 E12.96236
G1 X0.102 Y9.119 E13.01295
G1 X0.142 Y8.787 E13.02963
G1 X0.259 Y8.475 E13.04625
G1 X0.629 Y8.012 E13.07582
G1 X0.892 Y7.806 E13.09249
G1 X1.196 Y7.667 E13.10917
G1 X1.619 Y7.602 E13.13052
G1 X4.853 Y7.602 E13.29186
G1 X4.853 Y5.308 E13.40631
G1 X4.683 Y5.244 E13.41537
G1 X4.22 Y4.874 E13.44494
G1 X4.014 Y4.611 E13.46161
G1 X3.875 Y4.307 E13.47829
G1 X3.81 Y3.884 E13.49964
G1 X3.81 Y-7.603 E14.07273
G1 X-3.81 Y-7.603 E14.45289
G1 X-3.81 Y3.884 E15.02598
G0 F3600 X-4.21 Y3.884
G1 F2400 X-4.25 Y4.163 E15.04004
G1 X-4.366 Y4.42 E15.05411
G1 X-4.62 Y4.708 E15.07326
G1 X-4.846 Y4.877 E15.08734
G1 X-5.252 Y4.993 E15.10841
G1 X-5.252 Y8.002 E15.25853
G1 X-1.619 Y8.002 E15.43978
G1 X-1.34 Y8.042 E15.45384
G1 X-1.083 Y8.158 E15.46791
G1 X-.795 Y8.412 E15.48707
G1 X-.626 Y8.638 E15.50115
G1 X-.526 Y8.902 E15.51523
G1 X-.502 Y9.119 E15.52612
G1 X-.502 Y10.133 E15.57671
G1 X-.542 Y10.412 E15.59077
G1 X-.658 Y10.669 E15.60484
G1 X-.912 Y10.957 E15.624
G1 X-1.138 Y11.126 E15.63808
G1 X-1.402 Y11.226 E15.65216
G1 X-1.619 Y11.25 E15.66305
G1 X-7.383 Y11.25 E15.95062
G1 X-7.662 Y11.21 E15.96468
G1 X-7.919 Y11.094 E15.97875
G1 X-8.207 Y10.84 E15.99791
G1 X-8.376 Y10.614 E16.01199
G1 X-8.476 Y10.35 E16.02607
G1 X-8.5 Y10.133 E16.03696
G1 X-8.5 Y3.367 E16.37452
G1 X-8.46 Y3.088 E16.38858
G1 X-8.344 Y2.831 E16.40265
G1 X-8.09 Y2.543 E16.42181
G1 X-7.864 Y2.374 E16.43589
G1 X-7.6 Y2.274 E16.44997
G1 X-7.25 Y2.25 E16.46747
G1 X-7.25 Y-10.133 E17.08526
G1 X-7.21 Y-10.412 E17.09933
G1 X-7.094 Y-10.669 E17.11339
G1 X-6.84 Y-10.957 E17.13255
G1 X-6.614 Y-11.126 E17.14663
G1 X-6.35 Y-11.226 E17.16072
G1 X-6.133 Y-11.25 E17.17161
G1 X6.133 Y-11.25 E17.78356
G1 X6.412 Y-11.21 E17.79762
G1 X6.669 Y-11.094 E17.81169
G1 X6.957 Y-10.84 E17.83085
G1 X7.126 Y-10.614 E17.84493
G1 X7.226 Y-10.35 E17.85901
G1 X7.25 Y-10.133 E17.8699
G1 X7.25 Y2.25 E18.48769
G1 X7.662 Y2.29 E18.50834
G1 X7.919 Y2.406 E18.52241
G1 X8.207 Y2.66 E18.54157
G1 X8.376 Y2.886 E18.55565
G1 X8.476 Y3.15 E18.56973
G1 X8.5 Y3.367 E18.58063
G1 X8.5 Y10.133 E18.91818
G1 X8.46 Y10.412 E18.93224
G1 X8.344 Y10.669 E18.94631
G1 X8.09 Y10.957 E18.96547
G1 X7.864 Y11.126 E18.97955
G1 X7.6 Y11.226 E18.99363
G1 X7.383 Y11.25 E19.00453
G1 X1.619 Y11.25 E19.29209
G1 X1.34 Y11.21 E19.30615
G1 X1.083 Y11.094 E19.32022
G1 X0.795 Y10.84 E19.33938
G1 X0.626 Y10.614 E19.35346
G1 X0.526 Y10.35 E19.36754
G1 X0.502 Y10.133 E19.37844
G1 X0.502 Y9.119 E19.42902
G1 X0.542 Y8.84 E19.44309
G1 X0.658 Y8.583 E19.45715
G1 X0.912 Y8.295 E19.47631
G1 X1.138 Y8.126 E19.49039
G1 X1.402 Y8.026 E19.50447
G1 X1.619 Y8.002 E19.51537
G1 X5.253 Y8.002 E19.69667
G1 X5.253 Y4.99 E19.84694
G1 X5.048 Y4.961 E19.85727
G1 X4.791 Y4.845 E19.87133
G1 X4.503 Y4.591 E19.89049
G1 X4.334 Y4.365 E19.90457
G1 X4.234 Y4.101 E19.91865
G1 X4.21 Y3.884 E19.92955
G1 X4.21 Y-8.003 E20.52259
G1 X-4.21 Y-8.003 E20.94267
G1 X-4.21 Y3.884 E21.53571
G0 F3600 X-4.61 Y3.884
G1 F2400 X-4.65 Y4.099 E21.54662
G1 X-4.903 Y4.425 E21.56721
G1 X-5.082 Y4.549 E21.57807
G1 X-5.327 Y4.601 E21.59057
G1 X-5.652 Y4.601 E21.60678
G1 X-5.652 Y8.402 E21.79642
G1 X-1.619 Y8.402 E21.99762
G1 X-1.404 Y8.442 E22.00853
G1 X-1.078 Y8.695 E22.02912
G1 X-.954 Y8.874 E22.03999
G1 X-.902 Y9.119 E22.05248
G1 X-.902 Y10.133 E22.10307
G1 X-.942 Y10.348 E22.11398
G1 X-1.195 Y10.674 E22.13457
G1 X-1.374 Y10.798 E22.14543
G1 X-1.619 Y10.85 E22.15793
G1 X-7.383 Y10.85 E22.44549
G1 X-7.598 Y10.81 E22.4564
G1 X-7.924 Y10.557 E22.47699
G1 X-8.048 Y10.378 E22.48786
G1 X-8.1 Y10.133 E22.50035
G1 X-8.1 Y3.367 E22.83791
G1 X-8.06 Y3.152 E22.84882
G1 X-7.807 Y2.826 E22.86941
G1 X-7.628 Y2.702 E22.88027
G1 X-7.383 Y2.65 E22.89277
G1 X-6.85 Y2.65 E22.91936
G1 X-6.85 Y-10.133 E23.5571
G1 X-6.81 Y-10.348 E23.56801
G1 X-6.557 Y-10.674 E23.5886
G1 X-6.378 Y-10.798 E23.59946
G1 X-6.133 Y-10.85 E23.61196
G1 X6.133 Y-10.85 E24.22391
G1 X6.348 Y-10.81 E24.23482
G1 X6.674 Y-10.557 E24.25541
G1 X6.798 Y-10.378 E24.26628
G1 X6.85 Y-10.133 E24.27877
G1 X6.85 Y2.65 E24.91652
G1 X7.383 Y2.65 E24.94311
G1 X7.598 Y2.69 E24.95402
G1 X7.924 Y2.943 E24.97461
G1 X8.048 Y3.122 E24.98547
G1 X8.1 Y3.367 E24.99797
G1 X8.1 Y10.133 E25.33552
G1 X8.06 Y10.348 E25.34643
G1 X7.807 Y10.674 E25.36702
G1 X7.628 Y10.798 E25.37788
G1 X7.383 Y10.85 E25.39038
G1 X1.619 Y10.85 E25.67795
G1 X1.404 Y10.81 E25.68886
G1 X1.078 Y10.557 E25.70944
G1 X0.954 Y10.378 E25.72031
G1 X0.902 Y10.133 E25.7328
G1 X0.902 Y9.119 E25.78339
G1 X0.942 Y8.904 E25.7943
G1 X1.195 Y8.578 E25.81489
G1 X1.374 Y8.454 E25.82575
G1 X1.619 Y8.402 E25.83825
G1 X5.653 Y8.402 E26.03951
G1 X5.653 Y4.601 E26.22914
G1 X5.112 Y4.561 E26.2562
G1 X4.786 Y4.308 E26.27679
G1 X4.662 Y4.129 E26.28766
G1 X4.61 Y3.884 E26.30015
G1 X4.61 Y-8.403 E26.91315
G1 X-4.61 Y-8.403 E27.37314
G1 X-4.61 Y3.884 E27.98614
G0 F3600 X-5.01 Y3.884
G1 F2400 X-5.069 Y4.025 E27.99377
G1 X-5.186 Y4.142 E28.00202
G1 X-5.327 Y4.201 E28.00965
G1 X-6.052 Y4.201 E28.04582
G1 X-6.052 Y8.802 E28.27536
G1 X-1.619 Y8.802 E28.49652
G1 X-1.478 Y8.861 E28.50415
G1 X-1.361 Y8.978 E28.51241
G1 X-1.302 Y9.119 E28.52003
G1 X-1.302 Y10.133 E28.57062
G1 X-1.361 Y10.274 E28.57824
G1 X-1.478 Y10.391 E28.5865
G1 X-1.619 Y10.45 E28.59413
G1 X-7.383 Y10.45 E28.88169
G1 X-7.524 Y10.391 E28.88932
G1 X-7.641 Y10.274 E28.89757
G1 X-7.7 Y10.133 E28.9052
G1 X-7.7 Y3.367 E29.24276
G1 X-7.641 Y3.226 E29.25038
G1 X-7.524 Y3.109 E29.25864
G1 X-7.383 Y3.05 E29.26626
G1 X-6.45 Y3.05 E29.31281
G1 X-6.45 Y-10.133 E29.97051
G1 X-6.391 Y-10.274 E29.97814
G1 X-6.274 Y-10.391 E29.98639
G1 X-6.133 Y-10.45 E29.99402
G1 X6.133 Y-10.45 E30.60597
G1 X6.274 Y-10.391 E30.6136
G1 X6.391 Y-10.274 E30.62185
G1 X6.45 Y-10.133 E30.62948
G1 X6.45 Y3.05 E31.28718
G1 X7.383 Y3.05 E31.33373
G1 X7.524 Y3.109 E31.34135
G1 X7.641 Y3.226 E31.34961
G1 X7.7 Y3.367 E31.35723
G1 X7.7 Y10.133 E31.69479
G1 X7.641 Y10.274 E31.70242
G1 X7.524 Y10.391 E31.71067
G1 X7.383 Y10.45 E31.7183
G1 X1.619 Y10.45 E32.00586
G1 X1.478 Y10.391 E32.01349
G1 X1.361 Y10.274 E32.02174
G1 X1.302 Y10.133 E32.02937
G1 X1.302 Y9.119 E32.07996
G1 X1.361 Y8.978 E32.08758
G1 X1.478 Y8.861 E32.09584
G1 X1.619 Y8.802 E32.10346
G1 X6.053 Y8.802 E32.32468
G1 X6.053 Y4.201 E32.55422
G1 X5.327 Y4.201 E32.59044
G1 X5.186 Y4.142 E32.59807
G1 X5.069 Y4.025 E32.60632
G1 X5.01 Y3.884 E32.61395
G1 X5.01 Y-8.803 E33.24691
G1 X-5.01 Y-8.803 E33.74681
G1 X-5.01 Y3.884 E34.37976
G1 F1500 E27.87976
G1 F600 Z1.3
G0 F3600 X-8.05 Y1.582 Z1.3
G1 F600 Z0.3
G1 F1500 E34.71236
G1 F2400 X-8.05 Y-10.133 E35.29683
G1 X-8.01 Y-10.51 E35.31574
G1 X-7.892 Y-10.87 E35.33464
G1 X-7.702 Y-11.197 E35.35351
G1 X-7.406 Y-11.523 E35.37548
G1 X-7.111 Y-11.761 E35.39439
G1 X-6.773 Y-11.932 E35.41329
G1 X-6.407 Y-12.029 E35.43218
G1 X-6.133 Y-12.05 E35.44589
G1 X6.133 Y-12.05 E36.05784
G1 X6.51 Y-12.01 E36.07675
G1 X6.87 Y-11.892 E36.09566
G1 X7.197 Y-11.702 E36.11452
G1 X7.523 Y-11.406 E36.13649
G1 X7.761 Y-11.111 E36.1554
G1 X7.932 Y-10.773 E36.1743
G1 X8.029 Y-10.407 E36.19319
G1 X8.05 Y-10.133 E36.2069
G1 X8.05 Y1.585 E36.79151
G1 X8.447 Y1.798 E36.81399
G1 X8.773 Y2.094 E36.83596
G1 X9.011 Y2.389 E36.85487
G1 X9.182 Y2.727 E36.87377
G1 X9.279 Y3.093 E36.89266
G1 X9.3 Y3.367 E36.90637
G1 X9.3 Y10.133 E37.24392
G1 X9.26 Y10.51 E37.26284
G1 X9.142 Y10.87 E37.28174
G1 X8.952 Y11.197 E37.30061
G1 X8.656 Y11.523 E37.32258
G1 X8.361 Y11.761 E37.34149
G1 X8.023 Y11.932 E37.36038
G1 X7.657 Y12.029 E37.37927
G1 X7.383 Y12.05 E37.39298
G1 X1.619 Y12.05 E37.68055
G1 X1.242 Y12.01 E37.69947
G1 X0.882 Y11.892 E37.71837
G1 X0.555 Y11.702 E37.73723
G1 X0.229 Y11.406 E37.7592
G1 X-0.004 Y11.117 E37.77772
G1 X-.346 Y11.523 E37.80421
G1 X-.641 Y11.761 E37.82312
G1 X-.979 Y11.932 E37.84202
G1 X-1.345 Y12.029 E37.86091
G1 X-1.619 Y12.05 E37.87462
G1 X-7.383 Y12.05 E38.16218
G1 X-7.76 Y12.01 E38.1811
G1 X-8.12 Y11.892 E38.2
G1 X-8.447 Y11.702 E38.21887
G1 X-8.773 Y11.406 E38.24083
G1 X-9.011 Y11.111 E38.25974
G1 X-9.182 Y10.773 E38.27864
G1 X-9.279 Y10.407 E38.29753
G1 X-9.3 Y10.133 E38.31124
G1 X-9.3 Y3.367 E38.6488
G1 X-9.26 Y2.99 E38.66771
G1 X-9.142 Y2.63 E38.68661
G1 X-8.952 Y2.303 E38.70548
G1 X-8.656 Y1.977 E38.72745
G1 X-8.361 Y1.739 E38.74636
G1 X-8.05 Y1.582 E38.76374
G0 F3600 X-8.45 Y1.338
G1 F2400 X-8.45 Y-10.133 E39.33603
G1 X-8.41 Y-10.55 E39.35693
G1 X-8.292 Y-10.952 E39.37783
G1 X-8.099 Y-11.324 E39.39874
G1 X-7.689 Y-11.806 E39.43031
G1 X-7.365 Y-12.072 E39.45123
G1 X-6.998 Y-12.273 E39.4721
G1 X-6.598 Y-12.4 E39.49304
G1 X-6.133 Y-12.45 E39.51637
G1 X6.133 Y-12.45 E40.12833
G1 X6.55 Y-12.41 E40.14923
G1 X6.952 Y-12.292 E40.17013
G1 X7.324 Y-12.099 E40.19104
G1 X7.806 Y-11.689 E40.22261
G1 X8.072 Y-11.365 E40.24352
G1 X8.273 Y-10.998 E40.2644
G1 X8.4 Y-10.598 E40.28533
G1 X8.45 Y-10.133 E40.30867
G1 X8.45 Y1.337 E40.88091
G1 X8.939 Y1.694 E40.91111
G1 X9.322 Y2.135 E40.94025
G1 X9.523 Y2.502 E40.96113
G1 X9.65 Y2.902 E40.98207
G1 X9.7 Y3.367 E41.0054
G1 X9.7 Y10.133 E41.34296
G1 X9.66 Y10.55 E41.36386
G1 X9.542 Y10.952 E41.38476
G1 X9.349 Y11.324 E41.40567
G1 X8.939 Y11.806 E41.43724
G1 X8.615 Y12.072 E41.45815
G1 X8.248 Y12.273 E41.47903
G1 X7.848 Y12.4 E41.49997
G1 X7.383 Y12.45 E41.5233
G1 X1.619 Y12.45 E41.81087
G1 X1.202 Y12.41 E41.83177
G1 X0.8 Y12.292 E41.85267
G1 X0.428 Y12.099 E41.87358
G1 X0.00 Y11.743 E41.90135
G1 X-.387 Y12.072 E41.92669
G1 X-.754 Y12.273 E41.94757
G1 X-1.154 Y12.4 E41.96851
G1 X-1.619 Y12.45 E41.99184
G1 X-7.383 Y12.45 E42.27941
G1 X-7.8 Y12.41 E42.3003
G1 X-8.202 Y12.292 E42.32121
G1 X-8.574 Y12.099 E42.34212
G1 X-9.056 Y11.689 E42.37369
G1 X-9.322 Y11.365 E42.3946
G1 X-9.523 Y10.998 E42.41548
G1 X-9.65 Y10.598 E42.43641
G1 X-9.7 Y10.133 E42.45975
G1 X-9.7 Y3.367 E42.7973
G1 X-9.66 Y2.95 E42.8182
G1 X-9.542 Y2.548 E42.8391
G1 X-9.349 Y2.176 E42.86001
G1 X-8.939 Y1.694 E42.89158
G1 X-8.45 Y1.338 E42.92176
G0 F3600 X-8.85 Y1.106
G1 F2400 X-8.85 Y-10.133 E43.48248
G1 X-8.81 Y-10.587 E43.50521
G1 X-8.692 Y-11.027 E43.52794
G1 X-8.498 Y-11.439 E43.55066
G1 X-8.088 Y-11.971 E43.58417
G1 X-7.622 Y-12.381 E43.61514
G1 X-7.227 Y-12.608 E43.63786
G1 X-6.799 Y-12.763 E43.66057
