;FLAVOR:Marlin
;TIME:1618
;Filament used: 1.003m
;Layer height: 0.1
;MINX:-13.25
;MINY:-5.5
;MINZ:0.3
;MAXX:13.25
;MAXY:15.5
;MAXZ:29.38
;Generated with Cura_SteamEngine 4.13.1
M140 S50
M105
M190 S50
M104 S210
M105
M109 S210
M82 ;absolute extrusion mode
;FLAVOR:Marlin
M82 ;absolute extrusion mode
G21
G90
M82
M107 T0
G28
G92 E0
G0 E3 F200
G92 E0 ; reset extrusion distance
M106 S255 ; Enable cooling fan full speed
G1 X-98 Y0 Z0.4 F3000 ; move to arc start
G3 X0 Y-98 I98 Z0.4 E40 F400 ; lay arc stripe 90deg
G92 E0 ; reset extrusion distance
G4 P500 ; wait for 0.5 sec
G0 Z10 E-1 ; Lift 15mm and retract 1mm filament
G4 P2000 ; wait for 5 sec
G0 Z15
M107 ; Disable cooling fan
G1 X0 Y-85 Z4 E0 F3000 ; get off the bed
G92 E0
G92 E0
G1 F1500 E-6.5
;LAYER_COUNT:188
;LAYER:0
M106 S25.5
G1 F600 Z1.3
G0 F3600 X-4.001 Y2.79 Z1.3
;TYPE:SKIRT
G1 F600 Z0.3
G1 F1500 E0.3326
G1 F2400 X-4.489 Y2.75 E0.35947
G1 X-4.964 Y2.631 E0.38635
G1 X-5.413 Y2.437 E0.41319
G1 X-5.825 Y2.172 E0.44007
G1 X-6.002 Y2.012 E0.45317
G1 X-6.002 Y3.499 E0.53477
G1 X-6.042 Y3.987 E0.56164
G1 X-6.161 Y4.462 E0.58851
G1 X-6.414 Y5.003 E0.62129
G1 X-6.272 Y5.258 E0.63731
G1 X-6.106 Y5.718 E0.66415
G1 X-6.002 Y6.501 E0.70749
G1 X-6.002 Y7.981 E0.78872
G1 X-5.672 Y7.718 E0.81187
G1 X-5.244 Y7.48 E0.83875
G1 X-4.784 Y7.314 E0.86559
G1 X-4.001 Y7.21 E0.90893
G1 X6.003 Y7.21 E1.45795
G1 X6.003 Y2.79 E1.70051
G1 X-4.001 Y2.79 E2.24952
G0 F3600 X-4.001 Y2.39
G1 F2400 X-4.455 Y2.35 E2.27454
G1 X-4.895 Y2.232 E2.29954
G1 X-5.307 Y2.038 E2.32453
G1 X-5.68 Y1.775 E2.34957
G1 X-6.073 Y1.348 E2.38142
G1 X-6.402 Y1.348 E2.39948
G1 X-6.402 Y3.499 E2.51752
G1 X-6.442 Y3.953 E2.54253
G1 X-6.56 Y4.393 E2.56753
G1 X-6.754 Y4.805 E2.59253
G1 X-6.891 Y5 E2.6056
G1 X-6.743 Y5.214 E2.61988
G1 X-6.553 Y5.628 E2.64488
G1 X-6.438 Y6.069 E2.66989
G1 X-6.402 Y6.501 E2.69368
G1 X-6.402 Y8.653 E2.81178
G1 X-6.072 Y8.653 E2.82989
G1 X-5.663 Y8.21 E2.86298
G1 X-5.288 Y7.951 E2.88799
G1 X-4.874 Y7.761 E2.91299
G1 X-4.433 Y7.646 E2.938
G1 X-4.001 Y7.61 E2.96179
G1 X6.403 Y7.61 E3.53276
G1 X6.403 Y2.39 E3.81923
G1 X-4.001 Y2.39 E4.39019
G0 F3600 X-4.001 Y1.99
G1 F2400 X-4.418 Y1.95 E4.41318
G1 X-4.82 Y1.832 E4.43617
G1 X-5.192 Y1.639 E4.45917
G1 X-5.521 Y1.38 E4.48215
G1 X-5.861 Y0.948 E4.51232
G1 X-6.802 Y0.948 E4.56396
G1 X-6.802 Y3.499 E4.70396
G1 X-6.842 Y3.916 E4.72695
G1 X-6.96 Y4.318 E4.74994
G1 X-7.153 Y4.69 E4.77294
G1 X-7.401 Y5.005 E4.79494
G1 X-7.208 Y5.228 E4.81112
G1 X-6.999 Y5.591 E4.83411
G1 X-6.863 Y5.988 E4.85714
G1 X-6.802 Y6.501 E4.88549
G1 X-6.802 Y9.053 E5.02554
G1 X-5.868 Y9.053 E5.0768
G1 X-5.591 Y8.69 E5.10186
G1 X-5.274 Y8.416 E5.12486
G1 X-4.911 Y8.207 E5.14784
G1 X-4.514 Y8.071 E5.17087
G1 X-4.001 Y8.01 E5.19922
G1 X6.803 Y8.01 E5.79214
G1 X6.803 Y1.99 E6.12251
G1 X-4.001 Y1.99 E6.71543
G0 F3600 X-4.001 Y1.59
G1 F2400 X-4.378 Y1.55 E6.73623
G1 X-4.738 Y1.432 E6.75702
G1 X-5.065 Y1.242 E6.77778
G1 X-5.346 Y0.987 E6.7986
G1 X-5.623 Y0.548 E6.82709
G1 X-7.202 Y0.548 E6.91374
G1 X-7.202 Y3.499 E7.07569
G1 X-7.242 Y3.876 E7.0965
G1 X-7.36 Y4.236 E7.11729
G1 X-7.55 Y4.563 E7.13804
G1 X-7.805 Y4.844 E7.15887
G1 X-8.023 Y4.999 E7.17355
G1 X-7.657 Y5.304 E7.19969
G1 X-7.437 Y5.613 E7.22051
G1 X-7.285 Y5.96 E7.2413
G1 X-7.202 Y6.501 E7.27134
G1 X-7.202 Y9.453 E7.43334
G1 X-5.631 Y9.453 E7.51956
G1 X-5.453 Y9.146 E7.53903
G1 X-5.198 Y8.865 E7.55985
G1 X-4.889 Y8.645 E7.58067
G1 X-4.542 Y8.493 E7.60146
G1 X-4.001 Y8.41 E7.6315
G1 X7.203 Y8.41 E8.24636
G1 X7.203 Y1.59 E8.62064
G1 X-4.001 Y1.59 E9.23551
G0 F3600 X-4.001 Y1.19
G1 F2400 X-4.333 Y1.15 E9.25386
G1 X-4.645 Y1.033 E9.27215
G1 X-4.922 Y0.845 E9.29052
G1 X-5.145 Y0.597 E9.30882
G1 X-5.304 Y0.303 E9.32716
G1 X-5.344 Y0.148 E9.33595
G1 X-7.602 Y0.148 E9.45987
G1 X-7.602 Y3.499 E9.64377
G1 X-7.642 Y3.831 E9.66212
G1 X-7.759 Y4.143 E9.68041
G1 X-7.947 Y4.42 E9.69878
G1 X-8.195 Y4.643 E9.71708
G1 X-8.489 Y4.802 E9.73542
G1 X-9.002 Y4.899 E9.76408
G1 X-10.25 Y4.899 E9.83256
G1 X-10.582 Y4.859 E9.85092
G1 X-10.894 Y4.742 E9.8692
G1 X-11.171 Y4.554 E9.88757
G1 X-11.394 Y4.306 E9.90588
G1 X-11.553 Y4.012 E9.92422
G1 X-11.65 Y3.499 E9.95287
G1 X-11.65 Y-2.5 E10.28209
G1 X-11.61 Y-2.832 E10.30044
G1 X-11.493 Y-3.144 E10.31873
G1 X-11.305 Y-3.421 E10.3371
G1 X-11.057 Y-3.644 E10.35541
G1 X-10.763 Y-3.803 E10.37375
G1 X-10.25 Y-3.9 E10.4024
G1 X-3.25 Y-3.9 E10.78656
G1 X-2.918 Y-3.86 E10.80491
G1 X-2.606 Y-3.743 E10.82319
G1 X-2.329 Y-3.555 E10.84157
G1 X-2.106 Y-3.307 E10.85987
G1 X-1.947 Y-3.013 E10.87821
G1 X-1.86 Y-2.65 E10.8987
G1 X10.25 Y-2.65 E11.56329
G1 X10.582 Y-2.61 E11.58164
G1 X10.894 Y-2.493 E11.59992
G1 X11.171 Y-2.305 E11.6183
G1 X11.394 Y-2.057 E11.6366
G1 X11.553 Y-1.763 E11.65494
G1 X11.65 Y-1.25 E11.68359
G1 X11.65 Y11.25 E12.36958
G1 X11.61 Y11.582 E12.38794
G1 X11.493 Y11.894 E12.40622
G1 X11.305 Y12.171 E12.42459
G1 X11.057 Y12.394 E12.4429
G1 X10.763 Y12.553 E12.46124
G1 X10.25 Y12.65 E12.48989
G1 X-1.868 Y12.65 E13.15492
G1 X-1.89 Y12.832 E13.16498
G1 X-2.007 Y13.144 E13.18327
G1 X-2.195 Y13.421 E13.20164
G1 X-2.443 Y13.644 E13.21994
G1 X-2.737 Y13.803 E13.23828
G1 X-3.25 Y13.9 E13.26694
G1 X-10.25 Y13.9 E13.65109
G1 X-10.582 Y13.86 E13.66944
G1 X-10.894 Y13.743 E13.68773
G1 X-11.171 Y13.555 E13.7061
G1 X-11.394 Y13.307 E13.7244
G1 X-11.553 Y13.013 E13.74275
G1 X-11.65 Y12.5 E13.7714
G1 X-11.65 Y6.501 E14.10062
G1 X-11.61 Y6.169 E14.11897
G1 X-11.493 Y5.857 E14.13726
G1 X-11.305 Y5.58 E14.15563
G1 X-11.057 Y5.357 E14.17393
G1 X-10.763 Y5.198 E14.19228
G1 X-10.25 Y5.101 E14.22093
G1 X-9.002 Y5.101 E14.28942
G1 X-8.67 Y5.141 E14.30777
G1 X-8.358 Y5.258 E14.32605
G1 X-8.081 Y5.446 E14.34443
G1 X-7.858 Y5.694 E14.36273
G1 X-7.699 Y5.988 E14.38107
G1 X-7.602 Y6.501 E14.40972
G1 X-7.602 Y9.853 E14.59368
G1 X-5.352 Y9.853 E14.71716
G1 X-5.244 Y9.566 E14.73399
G1 X-5.056 Y9.289 E14.75236
G1 X-4.808 Y9.066 E14.77066
G1 X-4.514 Y8.907 E14.789
G1 X-4.001 Y8.81 E14.81766
G1 X7.603 Y8.81 E15.45448
G1 X7.603 Y1.19 E15.87265
G1 X-4.001 Y1.19 E16.50947
G0 F3600 X-4.001 Y0.79
G1 F2400 X-4.28 Y0.75 E16.52494
G1 X-4.537 Y0.634 E16.54042
G1 X-4.752 Y0.451 E16.55591
G1 X-4.906 Y0.215 E16.57137
G1 X-5.001 Y-.21 E16.59527
G1 X-5.001 Y-.252 E16.59758
G1 X-8.002 Y-.252 E16.76227
G1 X-8.002 Y3.499 E16.96812
G1 X-8.042 Y3.778 E16.98359
G1 X-8.158 Y4.035 E16.99907
G1 X-8.341 Y4.25 E17.01456
G1 X-8.577 Y4.404 E17.03002
G1 X-9.002 Y4.499 E17.05392
G1 X-10.25 Y4.499 E17.12241
G1 X-10.529 Y4.459 E17.13788
G1 X-10.786 Y4.343 E17.15336
G1 X-11.001 Y4.16 E17.16885
G1 X-11.155 Y3.924 E17.18431
G1 X-11.25 Y3.499 E17.20821
G1 X-11.25 Y-2.5 E17.53743
G1 X-11.21 Y-2.779 E17.5529
G1 X-11.094 Y-3.036 E17.56838
G1 X-10.911 Y-3.251 E17.58387
G1 X-10.675 Y-3.405 E17.59934
G1 X-10.25 Y-3.5 E17.62324
G1 X-3.25 Y-3.5 E18.00739
G1 X-2.971 Y-3.46 E18.02286
G1 X-2.714 Y-3.344 E18.03833
G1 X-2.499 Y-3.161 E18.05383
G1 X-2.345 Y-2.925 E18.06929
G1 X-2.25 Y-2.5 E18.09319
G1 X-2.25 Y-2.25 E18.10691
G1 X10.25 Y-2.25 E18.7929
G1 X10.529 Y-2.21 E18.80837
G1 X10.786 Y-2.094 E18.82384
G1 X11.001 Y-1.911 E18.83934
G1 X11.155 Y-1.675 E18.8548
G1 X11.25 Y-1.25 E18.8787
G1 X11.25 Y11.25 E19.56469
G1 X11.21 Y11.529 E19.58016
G1 X11.094 Y11.786 E19.59563
G1 X10.911 Y12.001 E19.61113
G1 X10.675 Y12.155 E19.62659
G1 X10.25 Y12.25 E19.65049
G1 X-2.25 Y12.25 E20.33648
G1 X-2.29 Y12.779 E20.3656
G1 X-2.406 Y13.036 E20.38107
G1 X-2.589 Y13.251 E20.39656
G1 X-2.825 Y13.405 E20.41203
G1 X-3.25 Y13.5 E20.43593
G1 X-10.25 Y13.5 E20.82008
G1 X-10.529 Y13.46 E20.83555
G1 X-10.786 Y13.344 E20.85103
G1 X-11.001 Y13.161 E20.86652
G1 X-11.155 Y12.925 E20.88199
G1 X-11.25 Y12.5 E20.90588
G1 X-11.25 Y6.501 E21.2351
G1 X-11.21 Y6.222 E21.25057
G1 X-11.094 Y5.965 E21.26605
G1 X-10.911 Y5.75 E21.28154
G1 X-10.675 Y5.596 E21.29701
G1 X-10.25 Y5.501 E21.32091
G1 X-9.002 Y5.501 E21.38939
G1 X-8.723 Y5.541 E21.40486
G1 X-8.466 Y5.657 E21.42034
G1 X-8.251 Y5.84 E21.43583
G1 X-8.097 Y6.076 E21.4513
G1 X-8.002 Y6.501 E21.4752
G1 X-8.002 Y10.253 E21.6811
G1 X-5.001 Y10.253 E21.84579
G1 X-4.961 Y9.931 E21.8636
G1 X-4.845 Y9.674 E21.87908
G1 X-4.662 Y9.459 E21.89457
G1 X-4.426 Y9.305 E21.91004
G1 X-4.001 Y9.21 E21.93393
G1 X8.003 Y9.21 E22.5927
G1 X8.003 Y0.79 E23.05479
G1 X-4.001 Y0.79 E23.71356
G0 F3600 X-4.001 Y0.39
G1 F2400 X-4.216 Y0.35 E23.72556
G1 X-4.402 Y0.237 E23.7375
G1 X-4.535 Y0.064 E23.74948
G1 X-4.601 Y-.21 E23.76495
G1 X-4.601 Y-.652 E23.7892
G1 X-8.402 Y-.652 E23.9978
G1 X-8.402 Y3.499 E24.2256
G1 X-8.442 Y3.714 E24.2376
G1 X-8.555 Y3.9 E24.24955
G1 X-8.728 Y4.033 E24.26152
G1 X-9.002 Y4.099 E24.27699
G1 X-10.25 Y4.099 E24.34548
G1 X-10.465 Y4.059 E24.35748
G1 X-10.651 Y3.946 E24.36942
G1 X-10.784 Y3.773 E24.3814
G1 X-10.85 Y3.499 E24.39687
G1 X-10.85 Y-2.5 E24.72609
G1 X-10.81 Y-2.715 E24.73809
G1 X-10.697 Y-2.901 E24.75003
G1 X-10.524 Y-3.034 E24.76201
G1 X-10.25 Y-3.1 E24.77747
G1 X-3.25 Y-3.1 E25.16163
G1 X-3.035 Y-3.06 E25.17363
G1 X-2.849 Y-2.947 E25.18557
G1 X-2.716 Y-2.774 E25.19755
G1 X-2.65 Y-2.5 E25.21302
G1 X-2.65 Y-1.85 E25.24869
G1 X10.25 Y-1.85 E25.95663
G1 X10.465 Y-1.81 E25.96863
G1 X10.651 Y-1.697 E25.98058
G1 X10.784 Y-1.524 E25.99255
G1 X10.85 Y-1.25 E26.00802
G1 X10.85 Y11.25 E26.69401
G1 X10.81 Y11.465 E26.70601
G1 X10.697 Y11.651 E26.71795
G1 X10.524 Y11.784 E26.72993
G1 X10.25 Y11.85 E26.7454
G1 X-2.65 Y11.85 E27.45334
G1 X-2.65 Y12.5 E27.48901
G1 X-2.69 Y12.715 E27.50101
G1 X-2.803 Y12.901 E27.51295
G1 X-2.976 Y13.034 E27.52493
G1 X-3.25 Y13.1 E27.5404
G1 X-10.25 Y13.1 E27.92455
G1 X-10.465 Y13.06 E27.93655
G1 X-10.651 Y12.947 E27.9485
G1 X-10.784 Y12.774 E27.96047
G1 X-10.85 Y12.5 E27.97594
G1 X-10.85 Y6.501 E28.30516
G1 X-10.81 Y6.286 E28.31716
G1 X-10.697 Y6.1 E28.3291
G1 X-10.524 Y5.967 E28.34108
G1 X-10.25 Y5.901 E28.35655
G1 X-9.002 Y5.901 E28.42504
G1 X-8.787 Y5.941 E28.43704
G1 X-8.601 Y6.054 E28.44898
G1 X-8.468 Y6.227 E28.46096
G1 X-8.402 Y6.501 E28.47642
G1 X-8.402 Y10.653 E28.70428
G1 X-4.601 Y10.653 E28.91288
G1 X-4.601 Y10.21 E28.93719
G1 X-4.561 Y9.995 E28.94919
G1 X-4.448 Y9.809 E28.96114
G1 X-4.275 Y9.676 E28.97311
G1 X-4.001 Y9.61 E28.98858
G1 X8.403 Y9.61 E29.6693
G1 X8.403 Y0.39 E30.17529
G1 X-4.001 Y0.39 E30.85601
G0 F3600 X-4.001 Y-0.01
G1 F2400 X-4.12 Y-0.049 E30.86288
G1 X-4.201 Y-.21 E30.87277
G1 X-4.201 Y-1.052 E30.91898
G1 X-8.802 Y-1.052 E31.17148
G1 X-8.802 Y3.499 E31.42123
G1 X-8.841 Y3.618 E31.42811
G1 X-9.002 Y3.699 E31.438
G1 X-10.25 Y3.699 E31.50649
G1 X-10.369 Y3.66 E31.51336
G1 X-10.45 Y3.499 E31.52325
G1 X-10.45 Y-2.5 E31.85247
G1 X-10.411 Y-2.619 E31.85934
G1 X-10.25 Y-2.7 E31.86923
G1 X-3.25 Y-2.7 E32.25339
G1 X-3.131 Y-2.661 E32.26026
G1 X-3.05 Y-2.5 E32.27015
G1 X-3.05 Y-1.45 E32.32777
G1 X10.25 Y-1.45 E33.05767
G1 X10.369 Y-1.411 E33.06454
G1 X10.45 Y-1.25 E33.07443
G1 X10.45 Y11.25 E33.76042
G1 X10.411 Y11.369 E33.76729
G1 X10.25 Y11.45 E33.77718
G1 X-3.05 Y11.45 E34.50708
G1 X-3.05 Y12.5 E34.5647
G1 X-3.089 Y12.619 E34.57157
G1 X-3.25 Y12.7 E34.58146
G1 X-10.25 Y12.7 E34.96562
G1 X-10.369 Y12.661 E34.97249
G1 X-10.45 Y12.5 E34.98238
G1 X-10.45 Y6.501 E35.3116
G1 X-10.411 Y6.382 E35.31847
G1 X-10.25 Y6.301 E35.32837
G1 X-9.002 Y6.301 E35.39685
G1 X-8.883 Y6.34 E35.40373
G1 X-8.802 Y6.501 E35.41362
G1 X-8.802 Y11.053 E35.66343
G1 X-4.201 Y11.053 E35.91593
G1 X-4.201 Y10.21 E35.96219
G1 X-4.162 Y10.091 E35.96906
G1 X-4.001 Y10.01 E35.97895
G1 X8.803 Y10.01 E36.68163
G1 X8.803 Y-0.01 E37.23152
G1 X-4.001 Y-0.01 E37.93419
G1 F1500 E31.43419
G1 F600 Z1.3
G0 F3600 X-1.537 Y-3.05 Z1.3
G1 F600 Z0.3
G1 F1500 E38.26679
G1 F2400 X10.25 Y-3.05 E38.91365
G1 X10.627 Y-3.01 E38.93446
G1 X10.987 Y-2.892 E38.95525
G1 X11.314 Y-2.702 E38.976
G1 X11.595 Y-2.447 E38.99683
G1 X11.815 Y-2.138 E39.01765
G1 X11.967 Y-1.791 E39.03844
G1 X12.05 Y-1.25 E39.06847
G1 X12.05 Y11.25 E39.75446
G1 X12.01 Y11.627 E39.77527
G1 X11.892 Y11.987 E39.79606
G1 X11.702 Y12.314 E39.81681
G1 X11.447 Y12.595 E39.83764
G1 X11.138 Y12.815 E39.85845
G1 X10.791 Y12.967 E39.87924
G1 X10.25 Y13.05 E39.90928
G1 X-1.547 Y13.05 E40.55669
G1 X-1.608 Y13.237 E40.56749
G1 X-1.798 Y13.564 E40.58824
G1 X-2.053 Y13.845 E40.60907
G1 X-2.362 Y14.065 E40.62988
G1 X-2.709 Y14.217 E40.65067
G1 X-3.25 Y14.3 E40.68071
G1 X-10.25 Y14.3 E41.06486
G1 X-10.627 Y14.26 E41.08567
G1 X-10.987 Y14.142 E41.10646
G1 X-11.314 Y13.952 E41.12722
G1 X-11.595 Y13.697 E41.14804
G1 X-11.815 Y13.388 E41.16886
G1 X-11.967 Y13.041 E41.18965
G1 X-12.05 Y12.5 E41.21968
G1 X-12.05 Y6.501 E41.5489
G1 X-12.01 Y6.124 E41.56971
G1 X-11.892 Y5.764 E41.5905
G1 X-11.702 Y5.437 E41.61125
G1 X-11.447 Y5.156 E41.63208
G1 X-11.229 Y5.001 E41.64676
G1 X-11.595 Y4.696 E41.6729
G1 X-11.815 Y4.387 E41.69372
G1 X-11.967 Y4.04 E41.71451
G1 X-12.05 Y3.499 E41.74455
G1 X-12.05 Y-2.5 E42.07377
G1 X-12.01 Y-2.877 E42.09457
G1 X-11.892 Y-3.237 E42.11536
G1 X-11.702 Y-3.564 E42.13612
G1 X-11.447 Y-3.845 E42.15694
G1 X-11.138 Y-4.065 E42.17776
G1 X-10.791 Y-4.217 E42.19855
G1 X-10.25 Y-4.3 E42.22859
G1 X-3.25 Y-4.3 E42.61274
G1 X-2.873 Y-4.26 E42.63355
G1 X-2.513 Y-4.142 E42.65434
G1 X-2.186 Y-3.952 E42.67509
G1 X-1.905 Y-3.697 E42.69592
G1 X-1.685 Y-3.388 E42.71673
G1 X-1.537 Y-3.05 E42.73698
G0 F3600 X-1.27 Y-3.45
G1 F2400 X10.25 Y-3.45 E43.36919
G1 X10.667 Y-3.41 E43.39218
G1 X11.069 Y-3.292 E43.41517
G1 X11.441 Y-3.099 E43.43817
G1 X11.77 Y-2.84 E43.46115
G1 X12.044 Y-2.523 E43.48415
G1 X12.253 Y-2.16 E43.50713
G1 X12.389 Y-1.763 E43.53016
G1 X12.45 Y-1.25 E43.55851
G1 X12.45 Y11.25 E44.2445
G1 X12.41 Y11.667 E44.26749
G1 X12.292 Y12.069 E44.29049
G1 X12.099 Y12.441 E44.31349
G1 X11.84 Y12.77 E44.33646
G1 X11.523 Y13.044 E44.35946
G1 X11.16 Y13.253 E44.38245
G1 X10.763 Y13.389 E44.40548
G1 X10.25 Y13.45 E44.43383
G1 X-1.276 Y13.45 E45.06637
G1 X-1.401 Y13.691 E45.08126
G1 X-1.66 Y14.02 E45.10424
G1 X-1.977 Y14.294 E45.12724
G1 X-2.34 Y14.503 E45.15023
G1 X-2.737 Y14.639 E45.17326
G1 X-3.25 Y14.7 E45.20161
G1 X-10.25 Y14.7 E45.58576
G1 X-10.667 Y14.66 E45.60875
G1 X-11.069 Y14.542 E45.63174
G1 X-11.441 Y14.349 E45.65474
G1 X-11.77 Y14.09 E45.67772
G1 X-12.044 Y13.773 E45.70072
G1 X-12.253 Y13.41 E45.7237
G1 X-12.389 Y13.013 E45.74673
G1 X-12.45 Y12.5 E45.77508
G1 X-12.45 Y6.501 E46.1043
G1 X-12.41 Y6.084 E46.12729
G1 X-12.292 Y5.682 E46.15029
G1 X-12.099 Y5.31 E46.17329
G1 X-11.851 Y4.995 E46.19529
G1 X-12.044 Y4.772 E46.21147
G1 X-12.253 Y4.409 E46.23446
G1 X-12.389 Y4.012 E46.25749
G1 X-12.45 Y3.499 E46.28584
G1 X-12.45 Y-2.5 E46.61506
G1 X-12.41 Y-2.917 E46.63805
G1 X-12.292 Y-3.319 E46.66104
G1 X-12.099 Y-3.691 E46.68404
G1 X-11.84 Y-4.02 E46.70702
G1 X-11.523 Y-4.294 E46.73002
G1 X-11.16 Y-4.503 E46.753
G1 X-10.763 Y-4.639 E46.77603
G1 X-10.25 Y-4.7 E46.80438
G1 X-3.25 Y-4.7 E47.18854
G1 X-2.833 Y-4.66 E47.21153
G1 X-2.431 Y-4.542 E47.23452
G1 X-2.059 Y-4.349 E47.25752
G1 X-1.73 Y-4.09 E47.2805
G1 X-1.456 Y-3.773 E47.30349
G1 X-1.27 Y-3.45 E47.32395
G0 F3600 X-1.035 Y-3.85
G1 F2400 X10.25 Y-3.85 E47.94326
G1 X10.704 Y-3.81 E47.96827
G1 X11.144 Y-3.692 E47.99327
G1 X11.556 Y-3.498 E48.01826
G1 X11.929 Y-3.235 E48.04331
G1 X12.25 Y-2.912 E48.0683
G1 X12.509 Y-2.537 E48.09331
G1 X12.699 Y-2.123 E48.11831
G1 X12.814 Y-1.682 E48.14332
G1 X12.85 Y-1.25 E48.16711
G1 X12.85 Y11.25 E48.8531
G1 X12.81 Y11.704 E48.87811
G1 X12.692 Y12.144 E48.90311
G1 X12.498 Y12.556 E48.9281
G1 X12.235 Y12.929 E48.95315
G1 X11.912 Y13.25 E48.97814
G1 X11.537 Y13.509 E49.00315
G1 X11.123 Y13.699 E49.02815
G1 X10.682 Y13.814 E49.05316
G1 X10.25 Y13.85 E49.07695
G1 X-1.033 Y13.85 E49.69616
G1 X-1.265 Y14.179 E49.71825
G1 X-1.588 Y14.5 E49.74324
