;FLAVOR:Marlin
;TIME:2728
;Filament used: 1.43934m
;Layer height: 0.12
;MINX:-11
;MINY:-13.05
;MINZ:0.3
;MAXX:11
;MAXY:13.05
;MAXZ:29.94
;Generated with Cura_SteamEngine 4.13.1
M140 S50
M105
M190 S50
M104 S210
M105
M109 S210
M82 ;absolute extrusion mode
;FLAVOR:Marlin
M82 ;absolute extrusion mode
G21
G90
M82
M107 T0
G28
G92 E0
G0 E3 F200
G92 E0 ; reset extrusion distance
M106 S255 ; Enable cooling fan full speed
G1 X-98 Y0 Z0.4 F3000 ; move to arc start
G3 X0 Y-98 I98 Z0.4 E40 F400 ; lay arc stripe 90deg
G92 E0 ; reset extrusion distance
G4 P500 ; wait for 0.5 sec
G0 Z10 E-1 ; Lift 15mm and retract 1mm filament
G4 P2000 ; wait for 5 sec
G0 Z15
M107 ; Disable cooling fan
G1 X0 Y-85 Z4 E0 F3000 ; get off the bed
G92 E0
G92 E0
G1 F1500 E-6.5
;LAYER_COUNT:249
;LAYER:0
M106 S25.5
G1 F600 Z1.3
G0 F3600 X11 Y-9.933 Z1.3
;TYPE:SKIRT
G1 F600 Z0.3
G1 F1500 E0.3326
G1 F2400 X11 Y9.933 E1.32372
G1 X10.96 Y10.421 E1.34815
G1 X10.841 Y10.896 E1.37258
G1 X10.647 Y11.345 E1.39698
G1 X10.382 Y11.757 E1.42142
G1 X10.004 Y12.171 E1.44939
G1 X9.631 Y12.488 E1.47381
G1 X9.211 Y12.74 E1.49825
G1 X8.756 Y12.92 E1.52266
G1 X8.278 Y13.024 E1.54706
G1 X7.883 Y13.05 E1.56681
G1 X-7.883 Y13.05 E2.35338
G1 X-8.371 Y13.01 E2.37781
G1 X-8.846 Y12.891 E2.40224
G1 X-9.295 Y12.697 E2.42664
G1 X-9.707 Y12.432 E2.45108
G1 X-10.121 Y12.054 E2.47905
G1 X-10.438 Y11.681 E2.50347
G1 X-10.69 Y11.261 E2.52791
G1 X-10.87 Y10.806 E2.55232
G1 X-10.974 Y10.328 E2.57673
G1 X-11 Y9.933 E2.59648
G1 X-11 Y-9.933 E3.58759
G1 X-10.96 Y-10.421 E3.61202
G1 X-10.841 Y-10.896 E3.63645
G1 X-10.647 Y-11.345 E3.66085
G1 X-10.382 Y-11.757 E3.68529
G1 X-10.004 Y-12.171 E3.71326
G1 X-9.631 Y-12.488 E3.73768
G1 X-9.211 Y-12.74 E3.76212
G1 X-8.756 Y-12.92 E3.78653
G1 X-8.278 Y-13.024 E3.81094
G1 X-7.883 Y-13.05 E3.83069
G1 X7.883 Y-13.05 E4.61726
G1 X8.371 Y-13.01 E4.64168
G1 X8.846 Y-12.891 E4.66611
G1 X9.295 Y-12.697 E4.69052
G1 X9.707 Y-12.432 E4.71496
G1 X10.121 Y-12.054 E4.74293
G1 X10.438 Y-11.681 E4.76735
G1 X10.69 Y-11.261 E4.79178
G1 X10.87 Y-10.806 E4.81619
G1 X10.974 Y-10.328 E4.8406
G1 X11 Y-9.933 E4.86035
G0 F3600 X10.6 Y-9.933
G1 F2400 X10.6 Y9.933 E5.85147
G1 X10.56 Y10.387 E5.87421
G1 X10.442 Y10.827 E5.89693
G1 X10.248 Y11.239 E5.91965
G1 X9.838 Y11.771 E5.95316
G1 X9.372 Y12.181 E5.98413
G1 X8.977 Y12.408 E6.00686
G1 X8.549 Y12.563 E6.02957
G1 X7.883 Y12.65 E6.06308
G1 X-7.883 Y12.65 E6.84965
G1 X-8.337 Y12.61 E6.87238
G1 X-8.777 Y12.492 E6.89511
G1 X-9.189 Y12.298 E6.91783
G1 X-9.721 Y11.888 E6.95134
G1 X-10.131 Y11.422 E6.98231
G1 X-10.358 Y11.027 E7.00504
G1 X-10.513 Y10.599 E7.02775
G1 X-10.6 Y9.933 E7.06125
G1 X-10.6 Y-9.933 E8.05237
G1 X-10.56 Y-10.387 E8.07511
G1 X-10.442 Y-10.827 E8.09784
G1 X-10.248 Y-11.239 E8.12056
G1 X-9.838 Y-11.771 E8.15407
G1 X-9.372 Y-12.181 E8.18503
G1 X-8.977 Y-12.408 E8.20776
G1 X-8.549 Y-12.563 E8.23047
G1 X-7.883 Y-12.65 E8.26398
G1 X7.883 Y-12.65 E9.05055
G1 X8.337 Y-12.61 E9.07329
G1 X8.777 Y-12.492 E9.09602
G1 X9.189 Y-12.298 E9.11874
G1 X9.721 Y-11.888 E9.15224
G1 X10.131 Y-11.422 E9.18321
G1 X10.358 Y-11.027 E9.20594
G1 X10.513 Y-10.599 E9.22865
G1 X10.6 Y-9.933 E9.26216
G0 F3600 X10.2 Y-9.933
G1 F2400 X10.2 Y9.933 E10.25328
G1 X10.16 Y10.35 E10.27418
G1 X10.042 Y10.752 E10.29508
G1 X9.849 Y11.124 E10.31599
G1 X9.439 Y11.606 E10.34756
G1 X9.115 Y11.872 E10.36847
G1 X8.748 Y12.073 E10.38935
G1 X8.348 Y12.2 E10.41029
G1 X7.883 Y12.25 E10.43362
G1 X-7.883 Y12.25 E11.22019
G1 X-8.3 Y12.21 E11.24109
G1 X-8.702 Y12.092 E11.26199
G1 X-9.074 Y11.899 E11.2829
G1 X-9.556 Y11.489 E11.31447
G1 X-9.822 Y11.165 E11.33538
G1 X-10.023 Y10.798 E11.35626
G1 X-10.15 Y10.398 E11.3772
G1 X-10.2 Y9.933 E11.40053
G1 X-10.2 Y-9.933 E12.39165
G1 X-10.16 Y-10.35 E12.41255
G1 X-10.042 Y-10.752 E12.43345
G1 X-9.849 Y-11.124 E12.45436
G1 X-9.439 Y-11.606 E12.48593
G1 X-9.115 Y-11.872 E12.50684
G1 X-8.748 Y-12.073 E12.52772
G1 X-8.348 Y-12.2 E12.54866
G1 X-7.883 Y-12.25 E12.57199
G1 X7.883 Y-12.25 E13.35856
G1 X8.3 Y-12.21 E13.37946
G1 X8.702 Y-12.092 E13.40036
G1 X9.074 Y-11.899 E13.42127
G1 X9.556 Y-11.489 E13.45284
G1 X9.822 Y-11.165 E13.47375
G1 X10.023 Y-10.798 E13.49463
G1 X10.15 Y-10.398 E13.51556
G1 X10.2 Y-9.933 E13.5389
G0 F3600 X9.8 Y-9.933
G1 F2400 X9.8 Y9.933 E14.53002
G1 X9.76 Y10.31 E14.54893
G1 X9.642 Y10.67 E14.56783
G1 X9.452 Y10.997 E14.5867
G1 X9.156 Y11.323 E14.60867
G1 X8.861 Y11.561 E14.62758
G1 X8.523 Y11.732 E14.64648
G1 X8.157 Y11.829 E14.66537
G1 X7.883 Y11.85 E14.67908
G1 X-7.883 Y11.85 E15.46564
G1 X-8.26 Y11.81 E15.48456
G1 X-8.62 Y11.692 E15.50346
G1 X-8.947 Y11.502 E15.52233
G1 X-9.273 Y11.206 E15.5443
G1 X-9.511 Y10.911 E15.56321
G1 X-9.682 Y10.573 E15.5821
G1 X-9.779 Y10.207 E15.60099
G1 X-9.8 Y9.933 E15.6147
G1 X-9.8 Y-9.933 E16.60582
G1 X-9.76 Y-10.31 E16.62474
G1 X-9.642 Y-10.67 E16.64364
G1 X-9.452 Y-10.997 E16.66251
G1 X-9.156 Y-11.323 E16.68447
G1 X-8.861 Y-11.561 E16.70338
G1 X-8.523 Y-11.732 E16.72228
G1 X-8.157 Y-11.829 E16.74117
G1 X-7.883 Y-11.85 E16.75488
G1 X7.883 Y-11.85 E17.54145
G1 X8.26 Y-11.81 E17.56037
G1 X8.62 Y-11.692 E17.57927
G1 X8.947 Y-11.502 E17.59813
G1 X9.273 Y-11.206 E17.6201
G1 X9.511 Y-10.911 E17.63901
G1 X9.682 Y-10.573 E17.65791
G1 X9.779 Y-10.207 E17.6768
G1 X9.8 Y-9.933 E17.69051
G0 F3600 X9.4 Y-9.933
G1 F2400 X9.4 Y9.933 E18.68163
G1 X9.36 Y10.265 E18.69831
G1 X9.243 Y10.577 E18.71494
G1 X8.873 Y11.04 E18.74451
G1 X8.61 Y11.246 E18.76117
G1 X8.306 Y11.385 E18.77785
G1 X7.883 Y11.45 E18.7992
G1 X-7.883 Y11.45 E19.58577
G1 X-8.215 Y11.41 E19.60245
G1 X-8.527 Y11.293 E19.61908
G1 X-8.99 Y10.923 E19.64865
G1 X-9.196 Y10.66 E19.66531
G1 X-9.335 Y10.356 E19.68199
G1 X-9.4 Y9.933 E19.70334
G1 X-9.4 Y-9.933 E20.69446
G1 X-9.36 Y-10.265 E20.71114
G1 X-9.243 Y-10.577 E20.72777
G1 X-8.873 Y-11.04 E20.75734
G1 X-8.61 Y-11.246 E20.774
G1 X-8.306 Y-11.385 E20.79068
G1 X-7.883 Y-11.45 E20.81203
G1 X7.883 Y-11.45 E21.5986
G1 X8.215 Y-11.41 E21.61528
G1 X8.527 Y-11.293 E21.63191
G1 X8.99 Y-10.923 E21.66148
G1 X9.196 Y-10.66 E21.67815
G1 X9.335 Y-10.356 E21.69482
G1 X9.4 Y-9.933 E21.71617
G0 F3600 X9 Y-9.933
G1 F2400 X9 Y9.933 E22.70729
G1 X8.96 Y10.212 E22.72135
G1 X8.844 Y10.469 E22.73542
G1 X8.59 Y10.757 E22.75458
G1 X8.364 Y10.926 E22.76866
G1 X8.1 Y11.026 E22.78274
G1 X7.883 Y11.05 E22.79363
G1 X-7.883 Y11.05 E23.5802
G1 X-8.162 Y11.01 E23.59427
G1 X-8.419 Y10.894 E23.60833
G1 X-8.707 Y10.64 E23.62749
G1 X-8.876 Y10.414 E23.64157
G1 X-8.976 Y10.15 E23.65565
G1 X-9 Y9.933 E23.66655
G1 X-9 Y-9.933 E24.65766
G1 X-8.96 Y-10.212 E24.67173
G1 X-8.844 Y-10.469 E24.68579
G1 X-8.59 Y-10.757 E24.70495
G1 X-8.364 Y-10.926 E24.71903
G1 X-8.1 Y-11.026 E24.73312
G1 X-7.883 Y-11.05 E24.74401
G1 X7.883 Y-11.05 E25.53058
G1 X8.162 Y-11.01 E25.54464
G1 X8.419 Y-10.894 E25.55871
G1 X8.707 Y-10.64 E25.57786
G1 X8.876 Y-10.414 E25.59194
G1 X8.976 Y-10.15 E25.60603
G1 X9 Y-9.933 E25.61692
G0 F3600 X8.6 Y-9.933
G1 F2400 X8.6 Y9.933 E26.60804
G1 X8.56 Y10.148 E26.61895
G1 X8.307 Y10.474 E26.63954
G1 X8.128 Y10.598 E26.6504
G1 X7.883 Y10.65 E26.66289
G1 X-7.883 Y10.65 E27.44946
G1 X-8.098 Y10.61 E27.46037
G1 X-8.424 Y10.357 E27.48096
G1 X-8.548 Y10.178 E27.49183
G1 X-8.6 Y9.933 E27.50432
G1 X-8.6 Y-9.933 E28.49544
G1 X-8.56 Y-10.148 E28.50635
G1 X-8.307 Y-10.474 E28.52694
G1 X-8.128 Y-10.598 E28.5378
G1 X-7.883 Y-10.65 E28.5503
G1 X7.883 Y-10.65 E29.33687
G1 X8.098 Y-10.61 E29.34778
G1 X8.424 Y-10.357 E29.36836
G1 X8.548 Y-10.178 E29.37923
G1 X8.6 Y-9.933 E29.39172
G0 F3600 X8.2 Y-9.933
G1 F2400 X8.2 Y9.933 E30.38284
G1 X8.141 Y10.074 E30.39047
G1 X8.024 Y10.191 E30.39872
G1 X7.883 Y10.25 E30.40635
G1 X-7.883 Y10.25 E31.19292
G1 X-8.024 Y10.191 E31.20054
G1 X-8.141 Y10.074 E31.2088
G1 X-8.2 Y9.933 E31.21642
G1 X-8.2 Y-9.933 E32.20754
G1 X-8.141 Y-10.074 E32.21517
G1 X-8.024 Y-10.191 E32.22342
G1 X-7.883 Y-10.25 E32.23105
G1 X7.883 Y-10.25 E33.01762
G1 X8.024 Y-10.191 E33.02524
G1 X8.141 Y-10.074 E33.0335
G1 X8.2 Y-9.933 E33.04112
G1 F1500 E26.54112
G1 F600 Z1.3
G0 F3600 X3.712 Y-4.315 Z1.3
G1 F600 Z0.3
G1 F1500 E33.37372
G1 F2400 X4.59 Y-1.618 E33.51523
G1 X3.712 Y1.079 E33.65673
G1 X1.416 Y2.746 E33.79829
G1 X-1.416 Y2.746 E33.93958
G1 X-3.712 Y1.079 E34.08113
G1 X-4.59 Y-1.618 E34.22264
G1 X-3.712 Y-4.315 E34.36414
G1 X-1.416 Y-5.982 E34.5057
G1 X1.416 Y-5.982 E34.64699
G1 X3.712 Y-4.315 E34.78854
G0 F3600 X3.371 Y-4.069
G1 F2400 X4.168 Y-1.618 E34.91713
G1 X3.371 Y0.833 E35.04571
G1 X1.287 Y2.346 E35.17419
G1 X-1.287 Y2.346 E35.30261
G1 X-3.371 Y0.833 E35.43109
G1 X-4.168 Y-1.618 E35.55967
G1 X-3.371 Y-4.069 E35.68826
G1 X-1.287 Y-5.582 E35.81674
G1 X1.287 Y-5.582 E35.94516
G1 X3.371 Y-4.069 E36.07364
G0 F3600 X3.032 Y-3.82
G1 F2400 X3.748 Y-1.618 E36.18916
G1 X3.032 Y0.584 E36.30468
G1 X1.157 Y1.946 E36.4203
G1 X-1.157 Y1.946 E36.53575
G1 X-3.032 Y0.584 E36.65136
G1 X-3.748 Y-1.618 E36.76688
G1 X-3.032 Y-3.82 E36.8824
G1 X-1.157 Y-5.182 E36.99802
G1 X1.157 Y-5.182 E37.11347
G1 X3.032 Y-3.82 E37.22909
G0 F3600 X2.692 Y-3.572
G1 F2400 X3.328 Y-1.618 E37.33161
G1 X2.692 Y0.336 E37.43413
G1 X1.027 Y1.546 E37.53681
G1 X-1.027 Y1.546 E37.63929
G1 X-2.692 Y0.336 E37.74197
G1 X-3.328 Y-1.618 E37.84449
G1 X-2.692 Y-3.572 E37.94701
G1 X-1.027 Y-4.782 E38.0497
G1 X1.027 Y-4.782 E38.15217
G1 X2.692 Y-3.572 E38.25486
G0 F3600 X2.351 Y-3.327
G1 F2400 X2.907 Y-1.618 E38.34452
G1 X2.351 Y0.091 E38.43418
G1 X0.898 Y1.146 E38.52376
G1 X-.898 Y1.146 E38.61337
G1 X-2.351 Y0.091 E38.70295
G1 X-2.907 Y-1.618 E38.79261
G1 X-2.351 Y-3.327 E38.88227
G1 X-.898 Y-4.382 E38.97186
G1 X0.898 Y-4.382 E39.06146
G1 X2.351 Y-3.327 E39.15104
G0 F3600 X2.011 Y-3.079
G1 F2400 X2.486 Y-1.618 E39.22769
G1 X2.011 Y-.157 E39.30433
G1 X0.767 Y0.746 E39.38102
G1 X-.767 Y0.746 E39.45755
G1 X-2.011 Y-.157 E39.53425
G1 X-2.486 Y-1.618 E39.61089
G1 X-2.011 Y-3.079 E39.68754
G1 X-.767 Y-3.982 E39.76423
G1 X0.767 Y-3.982 E39.84076
G1 X2.011 Y-3.079 E39.91745
G0 F3600 X1.671 Y-2.831
G1 F2400 X2.066 Y-1.618 E39.98109
G1 X1.671 Y-.405 E40.04474
G1 X0.637 Y0.346 E40.10849
G1 X-.637 Y0.346 E40.17205
G1 X-1.671 Y-.405 E40.23581
G1 X-2.066 Y-1.618 E40.29946
G1 X-1.671 Y-2.831 E40.3631
G1 X-.637 Y-3.582 E40.42686
G1 X0.637 Y-3.582 E40.49042
G1 X1.671 Y-2.831 E40.55418
G0 F3600 X1.33 Y-2.585
G1 F2400 X1.645 Y-1.618 E40.60491
G1 X1.33 Y-.651 E40.65565
G1 X0.508 Y-0.054 E40.70634
G1 X-.508 Y-0.054 E40.75703
G1 X-1.33 Y-.651 E40.80771
G1 X-1.645 Y-1.618 E40.85845
G1 X-1.33 Y-2.585 E40.90919
G1 X-.508 Y-3.182 E40.95987
G1 X0.508 Y-3.182 E41.01056
G1 X1.33 Y-2.585 E41.06125
G0 F3600 X0.991 Y-2.337
G1 F2400 X1.225 Y-1.618 E41.09897
G1 X0.991 Y-.899 E41.13669
G1 X0.378 Y-.454 E41.17448
G1 X-.378 Y-.454 E41.2122
G1 X-.991 Y-.899 E41.24999
G1 X-1.225 Y-1.618 E41.28772
G1 X-.991 Y-2.337 E41.32544
G1 X-.378 Y-2.782 E41.36323
G1 X0.378 Y-2.782 E41.40095
G1 X0.991 Y-2.337 E41.43874
G0 F3600 X0.651 Y-2.089
G1 F2400 X0.804 Y-1.618 E41.46344
G1 X0.651 Y-1.147 E41.48815
G1 X0.247 Y-.854 E41.51305
G1 X-.247 Y-.854 E41.5377
G1 X-.651 Y-1.147 E41.56259
G1 X-.804 Y-1.618 E41.5873
G1 X-.651 Y-2.089 E41.61201
G1 X-.247 Y-2.382 E41.63691
G1 X0.247 Y-2.382 E41.66155
G1 X0.651 Y-2.089 E41.68645
G0 F3600 X0.31 Y-1.843
G1 F2400 X0.383 Y-1.618 E41.69825
G1 X0.31 Y-1.393 E41.71005
G1 X0.118 Y-1.254 E41.72188
G1 X-.118 Y-1.254 E41.73365
G1 X-.31 Y-1.393 E41.74548
G1 X-.383 Y-1.618 E41.75728
G1 X-.31 Y-1.843 E41.76908
G1 X-.118 Y-1.982 E41.78091
G1 X0.118 Y-1.982 E41.79268
G1 X0.31 Y-1.843 E41.80451
G1 F1500 E35.30451
G1 F600 Z1.3
;MESH:Oral_B_Head_Cover.STL
G0 F3600 X-7.4 Y-9.45 Z1.3
;TYPE:WALL-OUTER
G1 F600 Z0.3
G1 F1500 E42.13711
G1 F2400 X-7.4 Y1.95 E42.70586
G1 X-5.2 Y1.95 E42.81562
G1 X-5.2 Y2.35 E42.83557
G1 X-7.4 Y2.35 E42.94533
G1 X-7.4 Y9.45 E43.29955
G1 X7.4 Y9.45 E44.03793
G1 X7.4 Y2.35 E44.39215
G1 X5.2 Y2.35 E44.5019
G1 X5.2 Y1.95 E44.52186
G1 X7.4 Y1.95 E44.63162
G1 X7.4 Y-9.45 E45.20037
G1 X-7.4 Y-9.45 E45.93874
G0 F3600 X-7.4 Y-9.25
G0 X-7.5 Y-9.25
G0 X7.73 Y-9.78
G0 X7.8 Y-9.85
M104 S205
G1 F2400 X7.8 Y-9.45 E45.9587
G1 X7.8 Y1.95 E46.52745
G1 X7.8 Y2.35 E46.5474
G1 X7.8 Y9.45 E46.90162
G1 X7.8 Y9.85 E46.92158
G1 X7.4 Y9.85 E46.94153
G1 X-7.4 Y9.85 E47.67991
G1 X-7.8 Y9.85 E47.69987
G1 X-7.8 Y9.45 E47.71982
G1 X-7.8 Y2.35 E48.07404
G1 X-7.8 Y1.95 E48.094
G1 X-7.8 Y-9.45 E48.66275
G1 X-7.8 Y-9.85 E48.6827
G1 X-7.4 Y-9.85 E48.70266
G1 X7.4 Y-9.85 E49.44103
G1 X7.8 Y-9.85 E49.46099
G0 F3600 X7.8 Y-9.65
G1 F1500 E42.96099
G1 F600 Z1.3
;MESH:NONMESH
G0 F3600 X-1.413 Y2.736 Z1.3
;TIME_ELAPSED:30.251116
;LAYER:1
M106 S255
G0 F5400 X-1.413 Y2.736 Z1.42
;TYPE:SUPPORT
G1 F600 Z0.42
G1 F1500 E49.79359
G1 F2576.1 X-3.704 Y1.072 E49.8501
G1 X-4.58 Y-1.618 E49.90655
G1 X-3.704 Y-4.308 E49.96301
G1 X-1.413 Y-5.972 E50.01952
G1 X1.413 Y-5.972 E50.07591
G1 X3.704 Y-4.308 E50.13242
G1 X4.58 Y-1.618 E50.18888
G1 X3.704 Y1.072 E50.24533
G1 X1.413 Y2.736 E50.30184
G1 X-1.413 Y2.736 E50.35823
G1 F1500 E43.85823
G1 F600 Z1.42
G0 F5400 X3.2 Y0.994 Z1.42
G1 F600 Z0.42
G1 F1500 E50.69084
G1 F2576.1 X3.398 Y0.85 E50.69572
G1 X4.202 Y-1.618 E50.74752
G1 X3.398 Y-4.086 E50.79932
G1 X3.2 Y-4.229 E50.80419
G1 X3.2 Y0.994 E50.90842
G1 X1.6 Y2.156 E50.94789
G1 X1.6 Y-5.391 E51.0985
G1 X1.296 Y-5.612 E51.106
G1 X0.00 Y-5.612 E51.13186
G1 X0.00 Y2.376 E51.29127
G1 X-1.296 Y2.376 E51.31713
G1 X-1.6 Y2.155 E51.32463
G1 X-1.6 Y-5.392 E51.47524
G1 X-3.2 Y-4.23 E51.5147
G1 X-3.2 Y0.993 E51.61893
G1 X-3.398 Y0.85 E51.62381
G1 X-4.202 Y-1.618 E51.67561
G1 X-3.398 Y-4.086 E51.7274
G1 X-3.2 Y-4.23 E51.73229
G1 F1500 E45.23229
G1 F600 Z1.42
;MESH:Oral_B_Head_Cover.STL
G0 F5400 X-7.4 Y-9.45 Z1.42
;TYPE:WALL-OUTER
G1 F600 Z0.42
G1 F1500 E52.06489
G1 F1717.4 X-7.4 Y1.95 E52.29239
G1 X-5.2 Y1.95 E52.33629
G1 X-5.2 Y2.35 E52.34428
G1 X-7.4 Y2.35 E52.38818
G1 X-7.4 Y9.45 E52.52987
G1 X7.4 Y9.45 E52.82522
G1 X7.4 Y2.35 E52.96691
G1 X5.2 Y2.35 E53.01081
G1 X5.2 Y1.95 E53.01879
G1 X7.4 Y1.95 E53.0627
G1 X7.4 Y-9.45 E53.2902
G1 X-7.4 Y-9.45 E53.58555
G0 F5400 X-7.4 Y-9.25
G0 X-7.5 Y-9.25
G0 X7.73 Y-9.78
G0 X7.8 Y-9.85
G1 F1717.4 X7.8 Y-9.45 E53.59353
G1 X7.8 Y1.95 E53.82103
G1 X7.8 Y2.35 E53.82901
G1 X7.8 Y9.45 E53.9707
G1 X7.8 Y9.85 E53.97868
G1 X7.4 Y9.85 E53.98666
G1 X-7.4 Y9.85 E54.28201
G1 X-7.8 Y9.85 E54.28999
G1 X-7.8 Y9.45 E54.29798
G1 X-7.8 Y2.35 E54.43967
G1 X-7.8 Y1.95 E54.44765
G1 X-7.8 Y-9.45 E54.67515
G1 X-7.8 Y-9.85 E54.68313
G1 X-7.4 Y-9.85 E54.69111
G1 X7.4 Y-9.85 E54.98646
G1 X7.8 Y-9.85 E54.99444
G0 F5400 X7.8 Y-9.65
G1 F1500 E48.49444
G1 F600 Z1.42
;MESH:NONMESH
G0 F5400 X-1.41 Y2.726 Z1.42
;TIME_ELAPSED:40.656865
;LAYER:2
G0 F7200 X-1.41 Y2.726 Z1.54
;TYPE:SUPPORT
G1 F600 Z0.54
G1 F1500 E55.32705
G1 F3149.2 X-3.696 Y1.066 E55.38342
G1 X-4.569 Y-1.618 E55.43975
G1 X-3.696 Y-4.302 E55.49607
G1 X-1.41 Y-5.962 E55.55245
G1 X1.41 Y-5.962 E55.60873
G1 X3.696 Y-4.302 E55.66511
G1 X4.569 Y-1.618 E55.72143
G1 X3.696 Y1.066 E55.77775
G1 X1.41 Y2.726 E55.83413
G1 X-1.41 Y2.726 E55.89041
G1 F1500 E49.39041
G1 F600 Z1.54
G0 F7200 X3.2 Y0.982 Z1.54
G1 F600 Z0.54
G1 F1500 E56.22301
G1 F3149.2 X3.39 Y0.844 E56.2277
G1 X4.191 Y-1.618 E56.27936
G1 X3.39 Y-4.08 E56.33103
G1 X3.2 Y-4.217 E56.33571
G1 X3.2 Y0.982 E56.43946
G1 X1.6 Y2.144 E56.47892
G1 X1.6 Y-5.379 E56.62905
G1 X1.293 Y-5.602 E56.63662
G1 X0.00 Y-5.602 E56.66242
G1 X0.00 Y2.366 E56.82143
G1 X-1.293 Y2.366 E56.84724
G1 X-1.6 Y2.143 E56.85481
G1 X-1.6 Y-5.38 E57.00494
G1 X-3.2 Y-4.218 E57.0444
G1 X-3.2 Y0.981 E57.14815
G1 X-3.39 Y0.844 E57.15283
G1 X-4.191 Y-1.618 E57.20449
G1 X-3.39 Y-4.08 E57.25616
G1 X-3.2 Y-4.218 E57.26085
G1 F1500 E50.76085
