;FLAVOR:Marlin
;TIME:6418
;Filament used: 3.72895m
;Layer height: 0.12
;MINX:-76.846
;MINY:-11.798
;MINZ:0.3
;MAXX:73.292
;MAXY:35.473
;MAXZ:14.1
;Generated with Cura_SteamEngine 4.13.1
M140 S50
M105
M190 S50
M104 S210
M105
M109 S210
M82 ;absolute extrusion mode
;FLAVOR:Marlin
M82 ;absolute extrusion mode
G21
G90
M82
M107 T0
G28
G92 E0
G0 E3 F200
G92 E0 ; reset extrusion distance
M106 S255 ; Enable cooling fan full speed
G1 X-98 Y0 Z0.4 F3000 ; move to arc start
G3 X0 Y-98 I98 Z0.4 E40 F400 ; lay arc stripe 90deg
G92 E0 ; reset extrusion distance
G4 P500 ; wait for 0.5 sec
G0 Z10 E-1 ; Lift 15mm and retract 1mm filament
G4 P2000 ; wait for 5 sec
G0 Z15
M107 ; Disable cooling fan
G1 X0 Y-85 Z4 E0 F3000 ; get off the bed
G92 E0
G92 E0
G1 F1500 E-6.5
;LAYER_COUNT:75
;LAYER:0
M106 S25.5
G1 F600 Z1.3
G0 F3600 X18.226 Y-6.427 Z1.3
;TYPE:SKIRT
G1 F600 Z0.3
G1 F1500 E0.3326
G1 X18.251 Y-6.817 E0.3521
G1 X18.33 Y-7.42 E0.38244
G1 X18.513 Y-8.134 E0.41921
G1 X18.679 Y-8.563 E0.44216
G1 X18.925 Y-9.058 E0.46974
G1 X19.364 Y-9.726 E0.50962
G1 X19.854 Y-10.263 E0.54589
G1 X20.273 Y-10.632 E0.57374
G1 X20.626 Y-10.889 E0.59553
G1 X21.117 Y-11.179 E0.62397
G1 X21.737 Y-11.461 E0.65796
G1 X22.537 Y-11.684 E0.69939
G1 X23.088 Y-11.768 E0.7272
G1 X23.663 Y-11.798 E0.75592
G1 X30.857 Y-11.796 E1.11483
G1 X67.093 Y-11.796 E2.92265
G1 X68.864 Y-11.798 E3.01101
G1 X69.713 Y-11.711 E3.05359
G1 X70.288 Y-11.575 E3.08307
G1 X70.758 Y-11.374 E3.10857
G1 X71.172 Y-11.153 E3.13198
G1 X71.689 Y-10.803 E3.16313
G1 X72.056 Y-10.445 E3.18871
G1 X72.37 Y-10.081 E3.21269
G1 X72.708 Y-9.6 E3.24202
G1 X72.725 Y-9.57 E3.24374
G1 X72.946 Y-9.085 E3.27033
G1 X73.104 Y-8.635 E3.29413
G1 X73.259 Y-7.928 E3.33024
G1 X73.291 Y-7.454 E3.35394
G1 X73.29 Y17.786 E4.61317
G1 X73.292 Y19.541 E4.70072
G1 X73.188 Y20.463 E4.74702
G1 X73.045 Y21.035 E4.77643
G1 X73.031 Y21.074 E4.7785
G1 X72.805 Y21.56 E4.80524
G1 X72.566 Y21.974 E4.82909
G1 X72.21 Y22.467 E4.85943
G1 X71.83 Y22.834 E4.88578
G1 X71.465 Y23.129 E4.9092
G1 X70.986 Y23.445 E4.93782
G1 X70.954 Y23.462 E4.93963
G1 X70.451 Y23.673 E4.96685
G1 X70.005 Y23.814 E4.99018
G1 X69.337 Y23.945 E5.02414
G1 X68.896 Y23.97 E5.04618
G1 X65.282 Y23.967 E5.22648
G1 X25.423 Y23.967 E7.21506
G1 X23.604 Y23.969 E7.30581
G1 X22.86 Y23.911 E7.34304
G1 X22.309 Y23.804 E7.37104
G1 X21.869 Y23.675 E7.39392
G1 X21.316 Y23.451 E7.42368
G1 X20.898 Y23.231 E7.44725
G1 X20.399 Y22.901 E7.4771
G1 X20.031 Y22.601 E7.50078
G1 X19.618 Y22.191 E7.52982
G1 X19.149 Y21.6 E7.56746
G1 X18.782 Y20.955 E7.60448
G1 X18.562 Y20.441 E7.63238
G1 X18.35 Y19.739 E7.66896
G1 X18.291 Y19.372 E7.68751
G1 X18.238 Y18.832 E7.71458
G1 X18.224 Y18.536 E7.72936
G1 X18.227 Y15.011 E7.90522
G1 X18.226 Y-6.427 E8.97477
G0 F3600 X18.626 Y-6.427
G1 F1500 X18.648 Y-6.765 E8.99167
G1 X18.727 Y-7.368 E9.02201
G1 X18.886 Y-7.989 E9.05399
G1 X19.266 Y-8.847 E9.10081
G1 X19.677 Y-9.476 E9.13829
G1 X20.146 Y-9.989 E9.17297
G1 X20.862 Y-10.566 E9.21885
G1 X21.7 Y-11.011 E9.26618
G1 X22.205 Y-11.191 E9.29293
G1 X22.867 Y-11.342 E9.32681
G1 X23.502 Y-11.393 E9.35859
G1 X23.663 Y-11.398 E9.36663
G1 X30.857 Y-11.396 E9.72554
G1 X67.093 Y-11.396 E11.53336
G1 X68.864 Y-11.398 E11.62171
G1 X69.66 Y-11.315 E11.66164
G1 X70.158 Y-11.197 E11.68717
G1 X70.983 Y-10.8 E11.73285
G1 X71.431 Y-10.497 E11.75983
G1 X72.067 Y-9.819 E11.80621
G1 X72.36 Y-9.403 E11.8316
G1 X72.726 Y-8.502 E11.88012
G1 X72.861 Y-7.89 E11.91138
G1 X72.891 Y-7.454 E11.93319
G1 X72.89 Y17.786 E13.19242
G1 X72.892 Y19.541 E13.27997
G1 X72.793 Y20.404 E13.32331
G1 X72.668 Y20.899 E13.34878
G1 X72.459 Y21.36 E13.37403
G1 X72.22 Y21.774 E13.39788
G1 X71.911 Y22.201 E13.42418
G1 X71.213 Y22.818 E13.47066
G1 X70.767 Y23.109 E13.49723
G1 X69.885 Y23.433 E13.5441
G1 X69.305 Y23.546 E13.57358
G1 X68.896 Y23.57 E13.59402
G1 X65.282 Y23.567 E13.77433
G1 X25.423 Y23.567 E15.7629
G1 X23.604 Y23.569 E15.85365
G1 X22.899 Y23.513 E15.88893
G1 X21.982 Y23.291 E15.93601
G1 X21.502 Y23.097 E15.96184
G1 X21.084 Y22.877 E15.9854
G1 X20.652 Y22.591 E16.01125
G1 X20.284 Y22.291 E16.03494
G1 X19.926 Y21.936 E16.06009
G1 X19.482 Y21.378 E16.09567
G1 X19.133 Y20.764 E16.1309
G1 X18.807 Y19.899 E16.17702
G1 X18.689 Y19.333 E16.20586
G1 X18.636 Y18.793 E16.23293
G1 X18.624 Y18.537 E16.24572
G1 X18.627 Y15.012 E16.42158
G1 X18.626 Y-6.427 E17.49118
G0 F3600 X19.026 Y-6.427
G1 F1500 X19.045 Y-6.713 E17.50548
G1 X19.124 Y-7.316 E17.53582
G1 X19.259 Y-7.845 E17.56306
G1 X19.606 Y-8.637 E17.6062
G1 X19.989 Y-9.226 E17.64125
G1 X20.437 Y-9.715 E17.67434
G1 X21.097 Y-10.243 E17.7165
G1 X21.87 Y-10.649 E17.76006
G1 X22.301 Y-10.802 E17.78288
G1 X22.927 Y-10.947 E17.81494
G1 X23.527 Y-10.994 E17.84497
G1 X23.663 Y-10.998 E17.85175
G1 X30.857 Y-10.996 E18.21066
G1 X67.094 Y-10.996 E20.01853
G1 X68.865 Y-10.998 E20.10689
G1 X69.606 Y-10.918 E20.14407
G1 X70.06 Y-10.808 E20.16738
G1 X70.795 Y-10.447 E20.20823
G1 X71.199 Y-10.17 E20.23267
G1 X71.764 Y-9.558 E20.27423
G1 X72.029 Y-9.176 E20.29742
G1 X72.349 Y-8.37 E20.34069
G1 X72.463 Y-7.852 E20.36715
G1 X72.491 Y-7.454 E20.38705
G1 X72.49 Y17.786 E21.64628
G1 X72.492 Y19.541 E21.73384
G1 X72.397 Y20.345 E21.77423
G1 X72.278 Y20.803 E21.79784
G1 X71.873 Y21.574 E21.84129
G1 X71.588 Y21.963 E21.86535
G1 X70.962 Y22.507 E21.90672
G1 X70.579 Y22.756 E21.92951
G1 X69.764 Y23.052 E21.97277
G1 X69.071 Y23.163 E22.00779
G1 X68.896 Y23.17 E22.01652
G1 X65.282 Y23.167 E22.19683
G1 X25.422 Y23.167 E24.18545
G1 X23.603 Y23.169 E24.2762
G1 X22.938 Y23.114 E24.30949
G1 X22.094 Y22.907 E24.35285
G1 X21.27 Y22.523 E24.3982
G1 X20.537 Y21.981 E24.44368
G1 X19.952 Y21.34 E24.48698
G1 X19.701 Y20.969 E24.50933
G1 X19.323 Y20.196 E24.55225
G1 X19.132 Y19.569 E24.58496
G1 X19.088 Y19.294 E24.59885
G1 X19.035 Y18.754 E24.62592
G1 X19.024 Y18.537 E24.63676
G1 X19.027 Y15.012 E24.81262
G1 X19.026 Y-6.427 E25.88222
G0 F3600 X19.426 Y-6.427
G1 F1500 X19.441 Y-6.661 E25.89392
G1 X19.52 Y-7.264 E25.92426
G1 X19.632 Y-7.701 E25.94676
G1 X19.946 Y-8.427 E25.98623
G1 X20.301 Y-8.976 E26.01884
G1 X20.728 Y-9.441 E26.05034
G1 X21.333 Y-9.919 E26.08881
G1 X22.04 Y-10.287 E26.12857
G1 X22.823 Y-10.519 E26.16932
G1 X23.551 Y-10.595 E26.20583
G1 X23.663 Y-10.598 E26.21142
G1 X30.857 Y-10.596 E26.57033
G1 X67.094 Y-10.596 E28.3782
G1 X68.865 Y-10.598 E28.46656
G1 X69.553 Y-10.522 E28.50109
G1 X69.93 Y-10.429 E28.52047
G1 X70.607 Y-10.094 E28.55815
G1 X70.942 Y-9.863 E28.57845
G1 X71.461 Y-9.297 E28.61676
G1 X71.681 Y-8.978 E28.6361
G1 X71.971 Y-8.237 E28.6758
G1 X72.083 Y-7.626 E28.70679
G1 X72.091 Y-7.454 E28.71538
G1 X72.09 Y17.786 E29.97461
G1 X72.092 Y19.542 E30.06221
G1 X72.001 Y20.286 E30.09961
G1 X71.901 Y20.668 E30.11931
G1 X71.527 Y21.374 E30.15917
G1 X71.289 Y21.697 E30.17918
G1 X70.71 Y22.196 E30.21732
G1 X70.391 Y22.403 E30.23629
G1 X69.644 Y22.67 E30.27587
G1 X69.039 Y22.764 E30.30641
G1 X68.897 Y22.77 E30.3135
G1 X65.283 Y22.767 E30.49381
G1 X25.422 Y22.767 E32.48248
G1 X23.603 Y22.769 E32.57323
G1 X22.977 Y22.716 E32.60457
G1 X22.207 Y22.523 E32.64418
G1 X21.457 Y22.169 E32.68555
G1 X20.79 Y21.671 E32.72708
G1 X20.26 Y21.085 E32.7665
G1 X19.836 Y20.381 E32.8075
G1 X19.569 Y19.654 E32.84614
G1 X19.486 Y19.255 E32.86647
G1 X19.433 Y18.715 E32.89354
G1 X19.424 Y18.537 E32.90244
G1 X19.427 Y15.012 E33.0783
G1 X19.426 Y-6.427 E34.14789
G0 F3600 X19.826 Y-6.427
G1 F1500 X19.838 Y-6.609 E34.15699
G1 X19.917 Y-7.212 E34.18734
G1 X20.005 Y-7.556 E34.20505
G1 X20.286 Y-8.216 E34.24084
G1 X20.614 Y-8.727 E34.27113
G1 X21.02 Y-9.167 E34.301
G1 X21.568 Y-9.596 E34.33572
G1 X22.21 Y-9.925 E34.37171
G1 X22.919 Y-10.131 E34.40855
G1 X23.576 Y-10.195 E34.44148
G1 X23.662 Y-10.198 E34.44577
G1 X30.856 Y-10.196 E34.80468
G1 X67.094 Y-10.196 E36.6126
G1 X68.865 Y-10.198 E36.70096
G1 X69.5 Y-10.126 E36.73284
G1 X70.004 Y-9.962 E36.75929
G1 X70.659 Y-9.578 E36.79717
G1 X71.158 Y-9.035 E36.83396
G1 X71.333 Y-8.781 E36.84935
G1 X71.594 Y-8.105 E36.8855
G1 X71.685 Y-7.588 E36.91169
G1 X71.691 Y-7.454 E36.91838
G1 X71.69 Y17.786 E38.17761
G1 X71.692 Y19.542 E38.26522
G1 X71.606 Y20.227 E38.29966
G1 X71.525 Y20.533 E38.31545
G1 X71.18 Y21.174 E38.35177
G1 X70.824 Y21.59 E38.37909
G1 X70.236 Y22.032 E38.41578
G1 X69.523 Y22.289 E38.4536
G1 X69.008 Y22.366 E38.47958
G1 X68.897 Y22.37 E38.48512
G1 X65.283 Y22.367 E38.66542
G1 X25.422 Y22.367 E40.65409
G1 X23.603 Y22.369 E40.74484
G1 X23.016 Y22.318 E40.77424
G1 X22.319 Y22.139 E40.81014
G1 X21.643 Y21.815 E40.84754
G1 X21.042 Y21.361 E40.88512
G1 X20.567 Y20.83 E40.92066
G1 X20.187 Y20.19 E40.9578
G1 X19.949 Y19.531 E40.99275
G1 X19.884 Y19.216 E41.0088
G1 X19.831 Y18.676 E41.03587
G1 X19.824 Y18.538 E41.04276
G1 X19.827 Y15.013 E41.21863
G1 X19.826 Y-6.427 E42.28827
G0 F3600 X20.226 Y-6.428
G1 F1500 X20.234 Y-6.557 E42.29472
G1 X20.313 Y-7.16 E42.32506
G1 X20.544 Y-7.841 E42.36094
G1 X20.856 Y-8.378 E42.39192
G1 X21.311 Y-8.892 E42.42617
G1 X21.803 Y-9.272 E42.45719
G1 X22.38 Y-9.563 E42.48943
G1 X23.014 Y-9.742 E42.52229
G1 X23.6 Y-9.796 E42.55165
G1 X23.662 Y-9.798 E42.55475
G1 X30.856 Y-9.796 E42.91366
G1 X67.095 Y-9.796 E44.72163
G1 X68.866 Y-9.798 E44.80998
G1 X69.446 Y-9.729 E44.83912
G1 X69.816 Y-9.609 E44.85853
G1 X70.402 Y-9.272 E44.89226
G1 X70.855 Y-8.774 E44.92584
G1 X71.059 Y-8.422 E44.94614
G1 X71.268 Y-7.737 E44.98187
G1 X71.291 Y-7.454 E44.99603
G1 X71.29 Y17.786 E46.25526
G1 X71.292 Y19.543 E46.34292
G1 X71.21 Y20.168 E46.37437
G1 X71.073 Y20.56 E46.39509
G1 X70.715 Y21.138 E46.42901
G1 X70.208 Y21.574 E46.46237
G1 X69.848 Y21.766 E46.48272
G1 X69.18 Y21.951 E46.5173
G1 X68.897 Y21.97 E46.53145
G1 X65.283 Y21.967 E46.71176
G1 X25.421 Y21.967 E48.70048
G1 X23.602 Y21.969 E48.79123
G1 X23.055 Y21.92 E48.81863
G1 X22.432 Y21.756 E48.85077
G1 X21.829 Y21.461 E48.88426
G1 X21.295 Y21.051 E48.91785
G1 X20.875 Y20.574 E48.94956
G1 X20.539 Y19.999 E48.98278
G1 X20.33 Y19.409 E49.01401
G1 X20.282 Y19.177 E49.02583
G1 X20.229 Y18.637 E49.0529
G1 X20.224 Y18.538 E49.05785
G1 X20.227 Y15.013 E49.23371
G1 X20.226 Y-6.428 E50.3034
G0 F3600 X20.626 Y-6.428
G1 F1500 X20.631 Y-6.505 E50.30725
G1 X20.71 Y-7.108 E50.3376
G1 X20.917 Y-7.697 E50.36874
G1 X21.197 Y-8.168 E50.39608
G1 X21.602 Y-8.618 E50.42628
G1 X22.039 Y-8.949 E50.45363
G1 X22.55 Y-9.201 E50.48206
G1 X23.11 Y-9.354 E50.51102
G1 X23.625 Y-9.397 E50.5368
G1 X67.096 Y-9.396 E52.70558
G1 X68.867 Y-9.398 E52.79394
G1 X69.393 Y-9.333 E52.82038
G1 X69.628 Y-9.256 E52.83272
G1 X70.145 Y-8.965 E52.86231
G1 X70.552 Y-8.513 E52.89266
G1 X70.681 Y-8.29 E52.90551
G1 X70.87 Y-7.698 E52.93652
G1 X70.891 Y-7.454 E52.94873
G1 X70.89 Y17.786 E54.20796
G1 X70.892 Y19.544 E54.29567
G1 X70.814 Y20.109 E54.32413
G1 X70.727 Y20.36 E54.33738
G1 X70.416 Y20.873 E54.36731
G1 X69.956 Y21.263 E54.3974
G1 X69.728 Y21.385 E54.4103
G1 X69.148 Y21.552 E54.44041
G1 X68.898 Y21.57 E54.45291
G1 X65.284 Y21.567 E54.63322
G1 X25.421 Y21.567 E56.62199
G1 X23.602 Y21.569 E56.71274
G1 X23.094 Y21.522 E56.73819
G1 X22.544 Y21.372 E56.76664
G1 X22.016 Y21.107 E56.79611
G1 X21.548 Y20.741 E56.82575
G1 X21.183 Y20.319 E56.85359
G1 X20.89 Y19.808 E56.88297
G1 X20.711 Y19.286 E56.9105
G1 X20.68 Y19.138 E56.91805
G1 X20.627 Y18.598 E56.94512
G1 X20.624 Y18.538 E56.94812
G1 X20.627 Y15.013 E57.12398
G1 X20.626 Y-6.428 E58.19367
G0 F3600 X21.026 Y-6.427
G1 F1500 X21.107 Y-7.056 E58.22531
G1 X21.29 Y-7.552 E58.25169
G1 X21.563 Y-7.992 E58.27752
G1 X21.921 Y-8.369 E58.30346
G1 X22.307 Y-8.645 E58.32714
G1 X22.778 Y-8.86 E58.35297
G1 X23.261 Y-8.974 E58.37773
G1 X23.662 Y-8.998 E58.39777
G1 X30.856 Y-8.996 E58.75668
G1 X67.096 Y-8.996 E60.5647
G1 X68.867 Y-8.998 E60.65305
G1 X69.378 Y-8.927 E60.67879
G1 X69.853 Y-8.682 E60.70546
G1 X70.249 Y-8.252 E60.73462
G1 X70.462 Y-7.707 E60.76381
G1 X70.491 Y-7.454 E60.77652
G1 X70.49 Y17.786 E62.03575
G1 X70.492 Y19.544 E62.12346
G1 X70.419 Y20.05 E62.14896
G1 X70.141 Y20.574 E62.17856
G1 X69.705 Y20.952 E62.20734
G1 X69.161 Y21.145 E62.23614
G1 X68.898 Y21.17 E62.24932
G1 X65.284 Y21.167 E62.42963
G1 X25.42 Y21.167 E64.41845
G1 X23.581 Y21.168 E64.5102
G1 X23.097 Y21.117 E64.53448
G1 X22.62 Y20.973 E64.55934
G1 X22.169 Y20.731 E64.58487
G1 X21.773 Y20.404 E64.61049
G1 X21.457 Y20.014 E64.63553
G1 X21.227 Y19.582 E64.65995
G1 X21.078 Y19.099 E64.68517
G1 X21.024 Y18.539 E64.71324
G1 X21.027 Y15.014 E64.8891
G1 X21.026 Y-6.427 E65.9588
G1 F1500 E59.4588
G1 F600 Z1.3
G0 F3600 X31.275 Y1.8 Z1.3
G1 F600 Z0.3
G1 F1500 E66.2914
G1 X32.656 Y0.797 E66.37655
G1 X34.358 Y0.797 E66.46146
G1 X35.736 Y1.798 E66.54644
G1 X36.237 Y3.57 E66.63831
G1 X36.262 Y5.553 E66.73725
G1 X36.275 Y7.513 E66.83503
G1 X36.366 Y9.071 E66.9129
G1 X35.786 Y10.814 E67.00454
G1 X34.405 Y11.818 E67.08972
G1 X32.703 Y11.818 E67.17464
G1 X31.329 Y10.82 E67.25936
G1 X30.871 Y8.911 E67.3573
G1 X30.917 Y6.94 E67.45566
G1 X30.826 Y4.97 E67.55405
G1 X30.711 Y3.5 E67.62762
G1 X31.275 Y1.8 E67.71697
G0 F3600 X31.615 Y2.047
G1 F1500 X32.785 Y1.197 E67.78912
G1 X34.229 Y1.197 E67.86117
G1 X35.389 Y2.039 E67.93268
G1 X35.838 Y3.628 E68.01506
G1 X35.862 Y5.556 E68.11125
G1 X35.876 Y7.536 E68.21004
G1 X35.962 Y9.018 E68.2841
G1 X35.448 Y10.567 E68.36552
G1 X34.276 Y11.418 E68.43778
G1 X32.832 Y11.418 E68.50982
G1 X31.683 Y10.584 E68.58066
G1 X31.272 Y8.869 E68.66864
G1 X31.317 Y6.963 E68.76376
G1 X31.225 Y4.939 E68.86484
G1 X31.117 Y3.55 E68.93435
G1 X31.615 Y2.047 E69.01334
G0 F3600 X31.953 Y2.296
G1 F1500 X32.915 Y1.597 E69.07267
G1 X34.099 Y1.597 E69.13174
G1 X35.041 Y2.282 E69.18985
G1 X35.439 Y3.686 E69.26265
G1 X35.462 Y5.559 E69.3561
G1 X35.475 Y7.508 E69.45334
G1 X35.559 Y8.963 E69.52605
G1 X35.108 Y10.319 E69.59735
G1 X34.146 Y11.018 E69.65667
G1 X32.962 Y11.018 E69.71574
G1 X32.038 Y10.346 E69.77274
G1 X31.673 Y8.827 E69.85068
G1 X31.717 Y6.973 E69.94321
G1 X31.716 Y6.903 E69.9467
G1 X31.624 Y4.908 E70.04634
G1 X31.522 Y3.597 E70.11194
G1 X31.953 Y2.296 E70.18032
G0 F3600 X32.292 Y2.544
G1 F1500 X33.046 Y1.997 E70.22679
G1 X33.968 Y1.997 E70.27279
G1 X34.694 Y2.524 E70.31754
G1 X35.039 Y3.745 E70.38085
G1 X35.062 Y5.561 E70.47145
G1 X35.075 Y7.51 E70.56869
G1 X35.077 Y7.582 E70.57229
G1 X35.154 Y8.911 E70.6387
G1 X34.769 Y10.07 E70.69963
G1 X34.015 Y10.618 E70.74613
G1 X33.093 Y10.618 E70.79213
G1 X32.392 Y10.109 E70.83535
G1 X32.074 Y8.784 E70.90333
G1 X32.117 Y6.982 E70.99326
G1 X32.116 Y6.885 E70.9981
G1 X32.023 Y4.877 E71.09839
G1 X31.927 Y3.647 E71.15994
G1 X32.292 Y2.544 E71.2179
G0 F3600 X32.632 Y2.791
G1 F1500 X33.175 Y2.397 E71.25137
G1 X33.839 Y2.397 E71.2845
G1 X34.347 Y2.765 E71.3158
G1 X34.64 Y3.803 E71.36961
G1 X34.662 Y5.564 E71.45747
G1 X34.675 Y7.513 E71.55471
G1 X34.678 Y7.606 E71.55935
G1 X34.751 Y8.857 E71.62187
G1 X34.43 Y9.823 E71.67265
G1 X33.886 Y10.218 E71.70619
G1 X33.222 Y10.218 E71.73932
G1 X32.747 Y9.873 E71.76861
G1 X32.475 Y8.738 E71.82684
G1 X32.516 Y6.992 E71.91397
G1 X32.515 Y6.867 E71.92021
G1 X32.422 Y4.846 E72.02114
G1 X32.332 Y3.695 E72.07874
G1 X32.632 Y2.791 E72.12626
G0 F3600 X32.97 Y3.04
G1 F1500 X33.305 Y2.797 E72.14691
G1 X33.709 Y2.797 E72.16706
G1 X33.999 Y3.008 E72.18496
G1 X34.241 Y3.861 E72.22919
G1 X34.262 Y5.567 E72.31431
G1 X34.275 Y7.516 E72.41155
G1 X34.279 Y7.629 E72.41719
G1 X34.347 Y8.802 E72.47581
G1 X34.091 Y9.575 E72.51643
G1 X33.756 Y9.818 E72.53708
G1 X33.352 Y9.818 E72.55724
G1 X33.102 Y9.636 E72.57266
G1 X32.876 Y8.695 E72.62095
G1 X32.916 Y7.001 E72.70548
G1 X32.915 Y6.848 E72.71312
G1 X32.825 Y4.885 E72.81115
G1 X32.737 Y3.745 E72.8682
G1 X32.97 Y3.04 E72.90524
G0 F3600 X33.31 Y3.287
G1 F1500 X33.434 Y3.197 E72.91289
