;FLAVOR:Marlin
;TIME:4322
;Filament used: 6.91456m
;Layer height: 0.15
;MINX:-50.75
;MINY:-38.25
;MINZ:0.3
;MAXX:50.75
;MAXY:38.25
;MAXZ:8.95
;Generated with Cura_SteamEngine 4.12.1
M140 S50
M105
M190 S50
M104 S210
M105
M109 S210
M82 ;absolute extrusion mode
;FLAVOR:Marlin
M82 ;absolute extrusion mode
G21
G90
M82
M107 T0
G28
G92 E0
G0 E3 F200
G92 E0 ; reset extrusion distance
M106 S255 ; Enable cooling fan full speed
G1 X-98 Y0 Z0.4 F3000 ; move to arc start
G3 X0 Y-98 I98 Z0.4 E40 F400 ; lay arc stripe 90deg
G92 E0 ; reset extrusion distance
G4 P500 ; wait for 0.5 sec
G0 Z10 E-1 ; Lift 15mm and retract 1mm filament
G4 P2000 ; wait for 5 sec
G0 Z15
M107 ; Disable cooling fan
G1 X0 Y-85 Z4 E0 F3000 ; get off the bed
G92 E0
G92 E0
G1 F1500 E-6.5
;LAYER_COUNT:42
;LAYER:0
M106 S25.5
G1 F600 Z1.3
G0 F3600 X-48.198 Y-35.706 Z1.3
;TYPE:SKIRT
G1 F600 Z0.3
G1 F1500 E0.4989
G1 F2400 X-48.292 Y-35.669 E0.50394
G1 X-48.155 Y-35.806 E0.51361
G1 X-48.198 Y-35.706 E0.51904
G0 F3600 X-48.139 Y-35.3
G1 F2400 X-48.615 Y-35.014 E0.54674
G1 X-49.025 Y-34.665 E0.57361
G1 X-49.452 Y-34.199 E0.60514
G1 X-49.751 Y-33.734 E0.63272
G1 X-49.971 Y-33.225 E0.66038
G1 X-50.106 Y-32.686 E0.68811
G1 X-50.15 Y-32.149 E0.71499
G1 X-50.15 Y34.146 E4.02246
G1 X-50.121 Y34.584 E4.04436
G1 X-50.004 Y35.123 E4.07187
G1 X-49.8 Y35.639 E4.09956
G1 X-49.514 Y36.115 E4.12726
G1 X-49.165 Y36.525 E4.15412
G1 X-48.699 Y36.952 E4.18566
G1 X-48.234 Y37.251 E4.21324
G1 X-47.725 Y37.471 E4.2409
G1 X-47.186 Y37.606 E4.26862
G1 X-46.649 Y37.65 E4.2955
G1 X46.646 Y37.65 E8.95001
G1 X47.084 Y37.621 E8.97191
G1 X47.623 Y37.504 E8.99943
G1 X48.139 Y37.3 E9.02711
G1 X48.615 Y37.014 E9.05481
G1 X49.025 Y36.665 E9.08168
G1 X49.452 Y36.199 E9.11321
G1 X49.751 Y35.734 E9.14079
G1 X49.971 Y35.225 E9.16845
G1 X50.106 Y34.686 E9.19618
G1 X50.15 Y34.149 E9.22306
G1 X50.15 Y-34.146 E12.63031
G1 X50.121 Y-34.584 E12.65221
G1 X50.004 Y-35.123 E12.67973
G1 X49.8 Y-35.639 E12.70741
G1 X49.514 Y-36.115 E12.73511
G1 X49.165 Y-36.525 E12.76197
G1 X48.699 Y-36.952 E12.79351
G1 X48.234 Y-37.251 E12.82109
G1 X47.725 Y-37.471 E12.84875
G1 X47.186 Y-37.606 E12.87647
G1 X46.649 Y-37.65 E12.90336
G1 X-44.646 Y-37.65 E17.45808
G1 X-45.084 Y-37.621 E17.47998
G1 X-45.623 Y-37.504 E17.5075
G1 X-46.139 Y-37.3 E17.53518
G1 X-46.615 Y-37.014 E17.56288
G1 X-47.025 Y-36.665 E17.58975
G1 X-47.452 Y-36.199 E17.62128
G1 X-47.751 Y-35.734 E17.64886
G1 X-47.897 Y-35.395 E17.66728
G1 X-48.139 Y-35.3 E17.68025
G0 F3600 X-47.961 Y-34.94
G1 F2400 X-47.591 Y-35.096 E17.70028
G1 X-47.397 Y-35.545 E17.72468
G1 X-47.132 Y-35.957 E17.74912
G1 X-46.754 Y-36.371 E17.77709
G1 X-46.381 Y-36.688 E17.80151
G1 X-45.961 Y-36.94 E17.82595
G1 X-45.506 Y-37.12 E17.85036
G1 X-45.028 Y-37.224 E17.87476
G1 X-44.633 Y-37.25 E17.89451
G1 X46.633 Y-37.25 E22.44779
G1 X47.121 Y-37.21 E22.47222
G1 X47.596 Y-37.091 E22.49665
G1 X48.045 Y-36.897 E22.52105
G1 X48.457 Y-36.632 E22.54549
G1 X48.871 Y-36.254 E22.57346
G1 X49.188 Y-35.881 E22.59788
G1 X49.44 Y-35.461 E22.62232
G1 X49.62 Y-35.006 E22.64673
G1 X49.724 Y-34.528 E22.67114
G1 X49.75 Y-34.133 E22.69089
G1 X49.75 Y34.133 E26.09669
G1 X49.71 Y34.621 E26.12112
G1 X49.591 Y35.096 E26.14555
G1 X49.397 Y35.545 E26.16995
G1 X49.132 Y35.957 E26.19439
G1 X48.754 Y36.371 E26.22236
G1 X48.381 Y36.688 E26.24678
G1 X47.961 Y36.94 E26.27122
G1 X47.506 Y37.12 E26.29563
G1 X47.028 Y37.224 E26.32003
G1 X46.633 Y37.25 E26.33978
G1 X-46.633 Y37.25 E30.99284
G1 X-47.121 Y37.21 E31.01727
G1 X-47.596 Y37.091 E31.0417
G1 X-48.045 Y36.897 E31.0661
G1 X-48.457 Y36.632 E31.09054
G1 X-48.871 Y36.254 E31.11851
G1 X-49.188 Y35.881 E31.14293
G1 X-49.44 Y35.461 E31.16737
G1 X-49.62 Y35.006 E31.19178
G1 X-49.724 Y34.528 E31.21619
G1 X-49.75 Y34.133 E31.23594
G1 X-49.75 Y-32.133 E34.54196
G1 X-49.71 Y-32.621 E34.56639
G1 X-49.591 Y-33.096 E34.59082
G1 X-49.397 Y-33.545 E34.61522
G1 X-49.132 Y-33.957 E34.63966
G1 X-48.754 Y-34.371 E34.66763
G1 X-48.381 Y-34.688 E34.69205
G1 X-47.961 Y-34.94 E34.71649
G0 F3600 X-47.727 Y-34.608
G1 F2400 X-47.261 Y-34.768 E34.74107
G1 X-47.192 Y-35.027 E34.75444
G1 X-46.998 Y-35.439 E34.77716
G1 X-46.588 Y-35.971 E34.81067
G1 X-46.122 Y-36.381 E34.84164
G1 X-45.727 Y-36.608 E34.86437
G1 X-45.299 Y-36.763 E34.88708
G1 X-44.633 Y-36.85 E34.92058
G1 X46.633 Y-36.85 E39.47386
G1 X47.087 Y-36.81 E39.4966
G1 X47.527 Y-36.692 E39.51933
G1 X47.939 Y-36.498 E39.54205
G1 X48.471 Y-36.088 E39.57556
G1 X48.881 Y-35.622 E39.60652
G1 X49.108 Y-35.227 E39.62925
G1 X49.263 Y-34.799 E39.65196
G1 X49.35 Y-34.133 E39.68547
G1 X49.35 Y34.133 E43.09128
G1 X49.31 Y34.587 E43.11401
G1 X49.192 Y35.027 E43.13674
G1 X48.998 Y35.439 E43.15946
G1 X48.588 Y35.971 E43.19297
G1 X48.122 Y36.381 E43.22394
G1 X47.727 Y36.608 E43.24667
G1 X47.299 Y36.763 E43.26938
G1 X46.633 Y36.85 E43.30289
G1 X-46.633 Y36.85 E47.95595
G1 X-47.087 Y36.81 E47.97868
G1 X-47.527 Y36.692 E48.00141
G1 X-47.939 Y36.498 E48.02413
G1 X-48.471 Y36.088 E48.05764
G1 X-48.881 Y35.622 E48.08861
G1 X-49.108 Y35.227 E48.11133
G1 X-49.263 Y34.799 E48.13404
G1 X-49.35 Y34.133 E48.16755
G1 X-49.35 Y-32.133 E51.47358
G1 X-49.31 Y-32.587 E51.49632
G1 X-49.192 Y-33.027 E51.51904
G1 X-48.998 Y-33.439 E51.54176
G1 X-48.588 Y-33.971 E51.57527
G1 X-48.122 Y-34.381 E51.60624
G1 X-47.727 Y-34.608 E51.62897
G0 F3600 X-47.498 Y-34.273
G1 F2400 X-46.923 Y-34.419 E51.65856
G1 X-46.792 Y-34.952 E51.68595
G1 X-46.599 Y-35.324 E51.70686
G1 X-46.189 Y-35.806 E51.73843
G1 X-45.865 Y-36.072 E51.75934
G1 X-45.498 Y-36.273 E51.78022
G1 X-45.098 Y-36.4 E51.80115
G1 X-44.633 Y-36.45 E51.82449
G1 X46.633 Y-36.45 E56.37777
G1 X47.05 Y-36.41 E56.39867
G1 X47.452 Y-36.292 E56.41957
G1 X47.824 Y-36.099 E56.44048
G1 X48.306 Y-35.689 E56.47205
G1 X48.572 Y-35.365 E56.49296
G1 X48.773 Y-34.998 E56.51384
G1 X48.9 Y-34.598 E56.53477
G1 X48.95 Y-34.133 E56.55811
G1 X48.95 Y34.133 E59.96391
G1 X48.91 Y34.55 E59.98481
G1 X48.792 Y34.952 E60.00571
G1 X48.599 Y35.324 E60.02662
G1 X48.189 Y35.806 E60.05819
G1 X47.865 Y36.072 E60.0791
G1 X47.498 Y36.273 E60.09998
G1 X47.098 Y36.4 E60.12092
G1 X46.633 Y36.45 E60.14425
G1 X-46.633 Y36.45 E64.79731
G1 X-47.05 Y36.41 E64.81821
G1 X-47.452 Y36.292 E64.83911
G1 X-47.824 Y36.099 E64.86002
G1 X-48.306 Y35.689 E64.89159
G1 X-48.572 Y35.365 E64.91251
G1 X-48.773 Y34.998 E64.93338
G1 X-48.9 Y34.598 E64.95432
G1 X-48.95 Y34.133 E64.97765
G1 X-48.95 Y-32.133 E68.28368
G1 X-48.91 Y-32.55 E68.30458
G1 X-48.792 Y-32.952 E68.32548
G1 X-48.599 Y-33.324 E68.34639
G1 X-48.189 Y-33.806 E68.37796
G1 X-47.865 Y-34.072 E68.39887
G1 X-47.498 Y-34.273 E68.41975
G1 F1500 E61.91975
G1 F600 Z1.3
G0 F3600 X-47.114 Y-33.126 Z1.3
G1 F600 Z0.3
G1 F1500 E68.91865
G1 F2400 X-46.85 Y-33.226 E68.93273
G1 X-46.633 Y-33.25 E68.94362
G1 X-45.75 Y-33.25 E68.98768
G1 X-45.75 Y-34.133 E69.03173
G1 X-45.71 Y-34.412 E69.04579
G1 X-45.594 Y-34.669 E69.05986
G1 X-45.34 Y-34.957 E69.07902
G1 X-45.114 Y-35.126 E69.0931
G1 X-44.85 Y-35.226 E69.10718
G1 X-44.633 Y-35.25 E69.11807
G1 X46.633 Y-35.25 E73.67135
G1 X46.912 Y-35.21 E73.68541
G1 X47.169 Y-35.094 E73.69948
G1 X47.457 Y-34.84 E73.71864
G1 X47.626 Y-34.614 E73.73272
G1 X47.726 Y-34.35 E73.7468
G1 X47.75 Y-34.133 E73.75769
G1 X47.75 Y34.133 E77.1635
G1 X47.71 Y34.412 E77.17756
G1 X47.594 Y34.669 E77.19163
G1 X47.34 Y34.957 E77.21079
G1 X47.114 Y35.126 E77.22487
G1 X46.85 Y35.226 E77.23895
G1 X46.633 Y35.25 E77.24984
G1 X-46.633 Y35.25 E81.9029
G1 X-46.912 Y35.21 E81.91696
G1 X-47.169 Y35.094 E81.93103
G1 X-47.457 Y34.84 E81.95019
G1 X-47.626 Y34.614 E81.96427
G1 X-47.726 Y34.35 E81.97835
G1 X-47.75 Y34.133 E81.98924
G1 X-47.75 Y-32.133 E85.29527
G1 X-47.71 Y-32.412 E85.30933
G1 X-47.594 Y-32.669 E85.3234
G1 X-47.34 Y-32.957 E85.34256
G1 X-47.114 Y-33.126 E85.35663
G1 F1500 E78.85663
G1 F600 Z1.3
G0 F3600 X-46.392 Y-34.87 Z1.3
G1 F600 Z0.3
G1 F1500 E85.85554
G1 F2400 X-46.202 Y-35.197 E85.8744
G1 X-45.906 Y-35.523 E85.89637
G1 X-45.611 Y-35.761 E85.91528
G1 X-45.273 Y-35.932 E85.93418
G1 X-44.907 Y-36.029 E85.95307
G1 X-44.633 Y-36.05 E85.96678
G1 X46.633 Y-36.05 E90.52006
G1 X47.01 Y-36.01 E90.53897
G1 X47.37 Y-35.892 E90.55788
G1 X47.697 Y-35.702 E90.57674
G1 X48.023 Y-35.406 E90.59871
G1 X48.261 Y-35.111 E90.61762
G1 X48.432 Y-34.773 E90.63652
G1 X48.529 Y-34.407 E90.65541
G1 X48.55 Y-34.133 E90.66912
G1 X48.55 Y34.133 E94.07492
G1 X48.51 Y34.51 E94.09384
G1 X48.392 Y34.87 E94.11274
G1 X48.202 Y35.197 E94.13161
G1 X47.906 Y35.523 E94.15358
G1 X47.611 Y35.761 E94.17249
G1 X47.273 Y35.932 E94.19138
G1 X46.907 Y36.029 E94.21027
G1 X46.633 Y36.05 E94.22398
G1 X-46.633 Y36.05 E98.87704
G1 X-47.01 Y36.01 E98.89596
G1 X-47.37 Y35.892 E98.91486
G1 X-47.697 Y35.702 E98.93373
G1 X-48.023 Y35.406 E98.9557
G1 X-48.261 Y35.111 E98.97461
G1 X-48.432 Y34.773 E98.9935
G1 X-48.529 Y34.407 E99.01239
G1 X-48.55 Y34.133 E99.0261
G1 X-48.55 Y-32.133 E102.33213
G1 X-48.51 Y-32.51 E102.35104
G1 X-48.392 Y-32.87 E102.36994
G1 X-48.202 Y-33.197 E102.38881
G1 X-47.906 Y-33.523 E102.41078
G1 X-47.611 Y-33.761 E102.42969
G1 X-47.273 Y-33.932 E102.44859
G1 X-46.907 Y-34.029 E102.46748
G1 X-46.55 Y-34.05 E102.48532
G1 X-46.51 Y-34.51 E102.50836
G1 X-46.392 Y-34.87 E102.52726
G0 F3600 X-45.993 Y-34.777
G1 F2400 X-45.623 Y-35.24 E102.55683
G1 X-45.36 Y-35.446 E102.57349
G1 X-45.056 Y-35.585 E102.59017
G1 X-44.633 Y-35.65 E102.61152
G1 X46.633 Y-35.65 E107.1648
G1 X46.965 Y-35.61 E107.18148
G1 X47.277 Y-35.493 E107.19811
G1 X47.74 Y-35.123 E107.22768
G1 X47.946 Y-34.86 E107.24434
G1 X48.085 Y-34.556 E107.26102
G1 X48.15 Y-34.133 E107.28237
G1 X48.15 Y34.133 E110.68818
G1 X48.11 Y34.465 E110.70486
G1 X47.993 Y34.777 E110.72148
G1 X47.623 Y35.24 E110.75105
G1 X47.36 Y35.446 E110.76772
G1 X47.056 Y35.585 E110.7844
G1 X46.633 Y35.65 E110.80575
G1 X-46.633 Y35.65 E115.45881
G1 X-46.965 Y35.61 E115.47549
G1 X-47.277 Y35.493 E115.49211
G1 X-47.74 Y35.123 E115.52168
G1 X-47.946 Y34.86 E115.53835
G1 X-48.085 Y34.556 E115.55503
G1 X-48.15 Y34.133 E115.57638
G1 X-48.15 Y-32.133 E118.8824
G1 X-48.11 Y-32.465 E118.89909
G1 X-47.993 Y-32.777 E118.91571
G1 X-47.623 Y-33.24 E118.94528
G1 X-47.36 Y-33.446 E118.96195
G1 X-47.056 Y-33.585 E118.97862
G1 X-46.633 Y-33.65 E118.99997
G1 X-46.15 Y-33.65 E119.02407
G1 X-46.11 Y-34.465 E119.06478
G1 X-45.993 Y-34.777 E119.0814
G0 F3600 X-45.31 Y-34.348
G1 F2400 X-45.057 Y-34.674 E119.10199
G1 X-44.878 Y-34.798 E119.11286
G1 X-44.633 Y-34.85 E119.12535
G1 X46.633 Y-34.85 E123.67863
G1 X46.848 Y-34.81 E123.68954
G1 X47.174 Y-34.557 E123.71013
G1 X47.298 Y-34.378 E123.72099
G1 X47.35 Y-34.133 E123.73349
G1 X47.35 Y34.133 E127.13929
G1 X47.31 Y34.348 E127.1502
G1 X47.057 Y34.674 E127.17079
G1 X46.878 Y34.798 E127.18165
G1 X46.633 Y34.85 E127.19415
G1 X-46.633 Y34.85 E131.84721
G1 X-46.848 Y34.81 E131.85812
G1 X-47.174 Y34.557 E131.87871
G1 X-47.298 Y34.378 E131.88957
G1 X-47.35 Y34.133 E131.90207
G1 X-47.35 Y-32.133 E135.20809
G1 X-47.31 Y-32.348 E135.219
G1 X-47.057 Y-32.674 E135.23959
G1 X-46.878 Y-32.798 E135.25045
G1 X-46.633 Y-32.85 E135.26295
G1 X-45.35 Y-32.85 E135.32696
G1 X-45.35 Y-34.133 E135.39097
G1 X-45.31 Y-34.348 E135.40188
G0 F3600 X-44.891 Y-34.274
G1 F2400 X-44.774 Y-34.391 E135.41013
G1 X-44.633 Y-34.45 E135.41776
G1 X46.633 Y-34.45 E139.97104
G1 X46.774 Y-34.391 E139.97866
G1 X46.891 Y-34.274 E139.98692
G1 X46.95 Y-34.133 E139.99454
G1 X46.95 Y34.133 E143.40035
G1 X46.891 Y34.274 E143.40797
G1 X46.774 Y34.391 E143.41623
G1 X46.633 Y34.45 E143.42385
G1 X-46.633 Y34.45 E148.07691
G1 X-46.774 Y34.391 E148.08454
G1 X-46.891 Y34.274 E148.09279
G1 X-46.95 Y34.133 E148.10042
G1 X-46.95 Y-32.133 E151.40644
G1 X-46.891 Y-32.274 E151.41407
G1 X-46.774 Y-32.391 E151.42232
G1 X-46.633 Y-32.45 E151.42995
G1 X-44.95 Y-32.45 E151.51391
G1 X-44.95 Y-34.133 E151.59788
G1 X-44.891 Y-34.274 E151.6055
G1 F1500 E145.1055
G1 F600 Z1.3
G0 F3600 X-49.554 Y-34.976 Z1.3
G1 F600 Z0.3
G1 F1500 E152.10441
G1 F2400 X-47.379 Y-37.146 E152.25769
G1 X-46.957 Y-37.494 E152.28498
G1 X-46.453 Y-37.801 E152.31442
G1 X-45.924 Y-38.026 E152.3431
G1 X-45.386 Y-38.168 E152.37086
G1 X-44.862 Y-38.234 E152.39721
G1 X-44.115 Y-38.25 E152.43449
G1 X45.982 Y-38.25 E156.92944
G1 X46.716 Y-38.24 E156.96607
G1 X47.311 Y-38.182 E156.99589
G1 X47.854 Y-38.049 E157.02378
G1 X48.382 Y-37.837 E157.05217
G1 X48.838 Y-37.576 E157.07838
G1 X49.298 Y-37.219 E157.10743
G1 X49.714 Y-36.804 E157.13675
G1 X50.076 Y-36.337 E157.16623
G1 X50.349 Y-35.856 E157.19382
G1 X50.553 Y-35.342 E157.22141
G1 X50.685 Y-34.794 E157.24953
G1 X50.745 Y-34.047 E157.28692
G1 X50.75 Y-33.615 E157.30847
G1 X50.75 Y33.476 E160.65566
G1 X50.74 Y34.202 E160.69188
G1 X50.682 Y34.811 E160.7224
G1 X50.549 Y35.354 E160.75029
G1 X50.337 Y35.882 E160.77868
G1 X50.081 Y36.331 E160.80446
G1 X49.719 Y36.798 E160.83394
G1 X49.311 Y37.208 E160.8628
G1 X48.834 Y37.578 E160.89292
G1 X48.356 Y37.849 E160.92033
G1 X47.842 Y38.053 E160.94792
G1 X47.294 Y38.185 E160.97604
G1 X46.545 Y38.245 E161.01353
G1 X46.115 Y38.25 E161.03498
G1 X-45.982 Y38.25 E165.62972
G1 X-46.716 Y38.24 E165.66634
G1 X-47.311 Y38.182 E165.69617
G1 X-47.854 Y38.049 E165.72406
G1 X-48.382 Y37.837 E165.75245
G1 X-48.838 Y37.576 E165.77866
G1 X-49.241 Y37.27 E165.8039
G1 X-49.646 Y36.879 E165.83199
G1 X-50.006 Y36.439 E165.86035
G1 X-50.301 Y35.953 E165.88872
G1 X-50.526 Y35.424 E165.9174
G1 X-50.672 Y34.867 E165.94612
G1 X-50.734 Y34.362 E165.97151
G1 X-50.75 Y33.607 E166.00918
G1 X-50.75 Y-31.482 E169.25649
G1 X-50.74 Y-32.216 E169.29311
G1 X-50.682 Y-32.811 E169.32293
G1 X-50.544 Y-33.37 E169.35166
G1 X-50.337 Y-33.882 E169.37921
G1 X-50.076 Y-34.338 E169.40543
G1 X-49.769 Y-34.742 E169.43074
G1 X-49.554 Y-34.976 E169.44659
G1 F1500 E162.94659
G1 F600 Z1.3
;MESH:Rasp35inch_Deckel_v2.3mf
G0 F3600 X-44.55 Y-32.05 Z1.3
;TYPE:WALL-OUTER
G1 F600 Z0.3
G1 F1500 E169.9455
G1 F2400 X-44.55 Y-34.05 E170.04528
G1 X46.55 Y-34.05 E174.59027
G1 X46.55 Y34.05 E177.9878
G1 X-46.55 Y34.05 E182.63258
G1 X-46.55 Y-32.05 E185.93032
G1 X-44.55 Y-32.05 E186.0301
G0 F3600 X-44.55 Y-32.25
G0 X-44.15 Y-31.65
;TYPE:WALL-INNER
G1 F2400 X-44.15 Y-33.65 E186.12988
G1 X46.15 Y-33.65 E190.63496
G1 X46.15 Y33.65 E193.99257
G1 X-46.15 Y33.65 E198.59744
G1 X-46.15 Y-31.65 E201.85527
G1 X-44.15 Y-31.65 E201.95505
G0 F3600 X-43.75 Y-31.25
G1 F2400 X-43.75 Y-33.25 E202.05483
G1 X45.75 Y-33.25 E206.52
G1 X45.75 Y33.25 E209.8377
G1 X-45.75 Y33.25 E214.40266
G1 X-45.75 Y-31.25 E217.62057
G1 X-43.75 Y-31.25 E217.72035
G0 F3600 X-43.36 Y-30.86
;TYPE:SKIN
G1 F2400 X-43.36 Y-32.86 E217.82014
G1 X45.36 Y-32.86 E222.24639
G1 X45.36 Y32.86 E225.52518
G1 X-45.36 Y32.86 E230.05122
G1 X-45.36 Y-30.86 E233.23022
G1 X-43.36 Y-30.86 E233.33
G0 F3600 X-45.179 Y32.319
G1 F2400 X-44.818 Y32.68 E233.35547
G0 F3600 X-44.252 Y32.68
G1 F2400 X-45.179 Y31.753 E233.42088
G0 F3600 X-45.179 Y31.187
G1 F2400 X-43.687 Y32.68 E233.52618
G0 F3600 X-43.121 Y32.68
G1 F2400 X-45.179 Y30.621 E233.67142
G0 F3600 X-45.179 Y30.056
G1 F2400 X-42.555 Y32.68 E233.85656
G0 F3600 X-41.99 Y32.68
G1 F2400 X-45.179 Y29.49 E234.08159
G0 F3600 X-45.179 Y28.924
G1 F2400 X-41.424 Y32.68 E234.34656
G0 F3600 X-40.858 Y32.68
G1 F2400 X-45.179 Y28.359 E234.65143
G0 F3600 X-45.179 Y27.793
G1 F2400 X-40.293 Y32.68 E234.9962
G0 F3600 X-39.727 Y32.68
G1 F2400 X-45.179 Y27.227 E235.38091
G0 F3600 X-45.179 Y26.662
G1 F2400 X-39.161 Y32.68 E235.80551
G0 F3600 X-38.596 Y32.68
G1 F2400 X-45.179 Y26.096 E236.27001
G0 F3600 X-45.179 Y25.53
G1 F2400 X-38.03 Y32.68 E236.77445
G0 F3600 X-37.464 Y32.68
G1 F2400 X-45.179 Y24.965 E237.31878
G0 F3600 X-45.179 Y24.399
