;FLAVOR:Marlin
;TIME:6215
;Filament used: 2.7538m
;Layer height: 0.12
;MINX:-12.109
;MINY:-17.093
;MINZ:0.3
;MAXX:22.101
;MAXY:17.093
;MAXZ:39.9
;Generated with Cura_SteamEngine 4.13.1
M140 S50
M105
M190 S50
M104 S215
M105
M109 S215
M82 ;absolute extrusion mode
;FLAVOR:Marlin
M82 ;absolute extrusion mode
G21
G90
M82
M107 T0
G28
G92 E0
G0 E3 F200
G92 E0 ; reset extrusion distance
M106 S255 ; Enable cooling fan full speed
G1 X-98 Y0 Z0.4 F3000 ; move to arc start
G3 X0 Y-98 I98 Z0.4 E40 F400 ; lay arc stripe 90deg
G92 E0 ; reset extrusion distance
G4 P500 ; wait for 0.5 sec
G0 Z10 E-1 ; Lift 15mm and retract 1mm filament
G4 P2000 ; wait for 5 sec
G0 Z15
M107 ; Disable cooling fan
G1 X0 Y-85 Z4 E0 F3000 ; get off the bed
G92 E0
G92 E0
G1 F1500 E-6.5
;LAYER_COUNT:332
;LAYER:0
M106 S25.5
G1 F600 Z1.3
G0 F3600 X-10.954 Y6.677 Z1.3
;TYPE:SKIRT
G1 F600 Z0.3
G1 F1500 E0.3326
G1 F1200 X11.68 Y-15.955 E2.35266
G1 X12.197 Y-16.384 E2.39505
G1 X12.717 Y-16.702 E2.43352
G1 X13.57 Y-17.013 E2.49082
G1 X14.155 Y-17.093 E2.52809
G1 X14.826 Y-17.08 E2.57044
G1 X14.864 Y-17.075 E2.57286
G1 X15.403 Y-16.953 E2.60774
G1 X16.137 Y-16.672 E2.65734
G1 X16.524 Y-16.435 E2.68598
G1 X16.969 Y-16.068 E2.72238
G1 X21.073 Y-11.963 E3.08872
G1 X21.322 Y-11.68 E3.11251
G1 X21.639 Y-11.187 E3.1495
G1 X21.758 Y-10.955 E3.16596
G1 X22.009 Y-10.273 E3.21182
G1 X22.021 Y-10.222 E3.21513
G1 X22.101 Y-9.501 E3.26091
G1 X22.052 Y-8.746 E3.30866
G1 X21.98 Y-8.432 E3.32899
G1 X21.753 Y-7.852 E3.3683
G1 X21.591 Y-7.538 E3.3906
G1 X21.248 Y-7.014 E3.43012
G1 X20.943 Y-6.666 E3.45933
G1 X-1.671 Y15.948 E5.47768
G1 X-2.275 Y16.433 E5.52657
G1 X-2.888 Y16.775 E5.57087
G1 X-3.091 Y16.859 E5.58474
G1 X-3.662 Y17.031 E5.62237
G1 X-3.708 Y17.04 E5.62533
G1 X-4.426 Y17.093 E5.67077
G1 X-5.228 Y17.015 E5.72162
G1 X-5.961 Y16.754 E5.77073
G1 X-6.586 Y16.393 E5.81628
G1 X-6.963 Y16.073 E5.84749
G1 X-11.07 Y11.966 E6.21405
G1 X-11.465 Y11.479 E6.25362
G1 X-11.812 Y10.872 E6.29775
G1 X-11.993 Y10.316 E6.33465
G1 X-12.107 Y9.632 E6.37841
G1 X-12.109 Y9.599 E6.3805
G1 X-12.083 Y8.986 E6.41922
G1 X-12.051 Y8.766 E6.43325
G1 X-11.915 Y8.21 E6.46938
G1 X-11.9 Y8.167 E6.47225
G1 X-11.582 Y7.52 E6.51775
G1 X-11.203 Y6.959 E6.56048
G1 X-10.954 Y6.677 E6.58422
G0 F3600 X-10.671 Y6.959
G1 F1200 X11.963 Y-15.673 E8.60427
G1 X12.44 Y-16.065 E8.64324
G1 X12.89 Y-16.341 E8.67655
G1 X13.689 Y-16.63 E8.73018
G1 X14.193 Y-16.695 E8.76225
G1 X14.774 Y-16.684 E8.79892
G1 X15.279 Y-16.573 E8.83155
G1 X15.981 Y-16.302 E8.87905
G1 X16.3 Y-16.103 E8.90277
G1 X16.686 Y-15.785 E8.93434
G1 X20.79 Y-11.68 E9.30067
G1 X21.009 Y-11.432 E9.32156
G1 X21.283 Y-11.005 E9.35357
G1 X21.402 Y-10.773 E9.37003
G1 X21.62 Y-10.182 E9.40979
G1 X21.632 Y-10.131 E9.41309
G1 X21.701 Y-9.506 E9.45278
G1 X21.698 Y-9.238 E9.46969
G1 X21.605 Y-8.578 E9.51176
G1 X21.594 Y-8.538 E9.51437
G1 X21.398 Y-8.035 E9.54844
G1 X21.236 Y-7.721 E9.57074
G1 X20.938 Y-7.267 E9.60502
G1 X20.66 Y-6.949 E9.63167
G1 X-1.954 Y15.665 E11.65003
G1 X-2.51 Y16.109 E11.69494
G1 X-3.041 Y16.405 E11.7333
G1 X-3.244 Y16.489 E11.74717
G1 X-3.739 Y16.639 E11.77981
G1 X-3.785 Y16.648 E11.78277
G1 X-4.407 Y16.693 E11.82213
G1 X-5.175 Y16.617 E11.87083
G1 X-5.78 Y16.398 E11.91144
G1 X-6.35 Y16.07 E11.95294
G1 X-6.68 Y15.79 E11.98026
G1 X-10.787 Y11.683 E12.34682
G1 X-11.129 Y11.262 E12.38105
G1 X-11.458 Y10.682 E12.42313
G1 X-11.651 Y10.013 E12.46708
G1 X-11.709 Y9.575 E12.49496
G1 X-11.687 Y9.044 E12.5285
G1 X-11.537 Y8.342 E12.5738
G1 X-11.522 Y8.299 E12.57668
G1 X-11.247 Y7.738 E12.61611
G1 X-10.888 Y7.206 E12.65661
G1 X-10.671 Y6.959 E12.67736
G0 F3600 X-10.389 Y7.242
G1 F1200 X12.245 Y-15.39 E14.69742
G1 X12.682 Y-15.747 E14.73303
G1 X13.212 Y-16.047 E14.77147
G1 X13.805 Y-16.245 E14.81092
G1 X14.23 Y-16.296 E14.83794
G1 X14.76 Y-16.282 E14.8714
G1 X15.437 Y-16.101 E14.91562
G1 X15.984 Y-15.833 E14.95407
G1 X16.403 Y-15.502 E14.98777
G1 X20.507 Y-11.397 E15.3541
G1 X20.695 Y-11.184 E15.37203
G1 X21.047 Y-10.59 E15.41561
G1 X21.231 Y-10.09 E15.44923
G1 X21.243 Y-10.039 E15.45254
G1 X21.301 Y-9.51 E15.48613
G1 X21.298 Y-9.242 E15.50304
G1 X21.219 Y-8.684 E15.53861
G1 X21.042 Y-8.218 E15.57007
G1 X20.628 Y-7.521 E15.62123
G1 X20.378 Y-7.231 E15.64539
G1 X-2.236 Y15.383 E17.66375
G1 X-2.745 Y15.785 E17.70469
G1 X-3.194 Y16.036 E17.73715
G1 X-3.816 Y16.246 E17.77858
G1 X-3.862 Y16.255 E17.78154
G1 X-4.388 Y16.294 E17.81483
G1 X-5.119 Y16.219 E17.8612
G1 X-5.598 Y16.041 E17.89345
G1 X-6.114 Y15.747 E17.93094
G1 X-6.398 Y15.508 E17.95436
G1 X-10.505 Y11.401 E18.32092
G1 X-10.909 Y10.867 E18.36318
G1 X-11.103 Y10.495 E18.38966
G1 X-11.26 Y9.926 E18.42691
G1 X-11.31 Y9.551 E18.45079
G1 X-11.259 Y8.881 E18.49319
G1 X-11.144 Y8.43 E18.52257
G1 X-10.911 Y7.956 E18.5559
G1 X-10.574 Y7.453 E18.59411
G1 X-10.389 Y7.242 E18.61182
G0 F3600 X-10.106 Y7.525
G1 F1200 X12.528 Y-15.107 E20.63188
G1 X12.924 Y-15.429 E20.66409
G1 X13.363 Y-15.677 E20.69591
G1 X13.555 Y-15.755 E20.70899
G1 X14.064 Y-15.879 E20.74205
G1 X14.708 Y-15.886 E20.7827
G1 X15.313 Y-15.72 E20.82229
G1 X15.853 Y-15.44 E20.86068
G1 X16.12 Y-15.22 E20.88251
G1 X20.224 Y-11.115 E21.24885
G1 X20.572 Y-10.64 E21.28601
G1 X20.841 Y-9.998 E21.32994
G1 X20.901 Y-9.515 E21.36066
G1 X20.834 Y-8.79 E21.40661
G1 X20.525 Y-8.088 E21.45502
G1 X20.216 Y-7.648 E21.48895
G1 X20.095 Y-7.514 E21.50034
G1 X-2.519 Y15.1 E23.5187
G1 X-2.979 Y15.461 E23.5556
G1 X-3.55 Y15.75 E23.59599
G1 X-3.938 Y15.863 E23.6215
G1 X-4.685 Y15.879 E23.66865
G1 X-5.06 Y15.821 E23.6926
G1 X-5.633 Y15.575 E23.73196
G1 X-6.115 Y15.225 E23.76955
G1 X-10.222 Y11.118 E24.13611
G1 X-10.573 Y10.649 E24.17308
G1 X-10.745 Y10.311 E24.19701
G1 X-10.87 Y9.84 E24.22777
G1 X-10.911 Y9.527 E24.24769
G1 X-10.863 Y8.939 E24.28492
G1 X-10.767 Y8.562 E24.30948
G1 X-10.353 Y7.831 E24.3625
G1 X-10.106 Y7.525 E24.38731
G0 F3600 X-9.823 Y7.808
G1 F1200 X12.811 Y-14.824 E26.40737
G1 X13.167 Y-15.111 E26.43623
G1 X13.705 Y-15.384 E26.4743
G1 X14.305 Y-15.5 E26.51287
G1 X14.656 Y-15.489 E26.53503
G1 X15.189 Y-15.34 E26.56996
G1 X15.629 Y-15.108 E26.60135
G1 X15.837 Y-14.937 E26.61835
G1 X19.941 Y-10.832 E26.98468
G1 X20.216 Y-10.457 E27.01403
G1 X20.452 Y-9.907 E27.0518
G1 X20.498 Y-9.251 E27.09331
G1 X20.437 Y-8.856 E27.11853
G1 X20.169 Y-8.271 E27.15914
G1 X19.812 Y-7.797 E27.19659
G1 X-2.802 Y14.817 E29.21495
G1 X-3.214 Y15.137 E29.24787
G1 X-3.703 Y15.381 E29.28236
G1 X-4.015 Y15.47 E29.30284
G1 X-4.666 Y15.479 E29.34393
G1 X-4.996 Y15.424 E29.36504
G1 X-5.451 Y15.219 E29.39654
G1 X-5.832 Y14.942 E29.42627
G1 X-9.939 Y10.835 E29.79283
G1 X-10.238 Y10.431 E29.82455
G1 X-10.431 Y9.97 E29.85609
G1 X-10.511 Y9.503 E29.88599
G1 X-10.467 Y8.996 E29.91811
G1 X-10.389 Y8.694 E29.93779
G1 X-10.018 Y8.049 E29.98475
G1 X-9.823 Y7.808 E30.00432
G0 F3600 X-9.54 Y8.091
G1 F1200 X13.094 Y-14.541 E32.02437
G1 X13.582 Y-14.899 E32.06257
G1 X14.139 Y-15.083 E32.09959
G1 X14.342 Y-15.102 E32.11246
G1 X14.783 Y-15.052 E32.14047
G1 X15.314 Y-14.838 E32.1766
G1 X15.554 Y-14.654 E32.19568
G1 X19.658 Y-10.549 E32.56202
G1 X19.86 Y-10.274 E32.58356
G1 X20.062 Y-9.815 E32.61521
G1 X20.098 Y-9.256 E32.65056
G1 X20.051 Y-8.962 E32.66935
G1 X19.814 Y-8.455 E32.70467
G1 X19.529 Y-8.08 E32.73439
G1 X-3.085 Y14.534 E34.75275
G1 X-3.448 Y14.813 E34.78165
G1 X-3.856 Y15.011 E34.81027
G1 X-4.092 Y15.077 E34.82573
G1 X-4.647 Y15.08 E34.86076
G1 X-5.054 Y14.972 E34.88734
G1 X-5.432 Y14.759 E34.91472
G1 X-5.549 Y14.659 E34.92443
G1 X-9.656 Y10.552 E35.29099
G1 X-9.903 Y10.213 E35.31746
G1 X-10.088 Y9.667 E35.35385
G1 X-10.104 Y9.274 E35.37867
G1 X-10.011 Y8.826 E35.40755
G1 X-9.682 Y8.267 E35.44848
G1 X-9.54 Y8.091 E35.46276
G0 F3600 X-9.257 Y8.374
G1 F1200 X13.377 Y-14.258 E37.48281
G1 X13.814 Y-14.565 E37.51651
G1 X14.176 Y-14.684 E37.54056
G1 X14.659 Y-14.671 E37.57106
G1 X15.09 Y-14.507 E37.60016
G1 X15.271 Y-14.371 E37.61445
G1 X19.375 Y-10.266 E37.98079
G1 X19.623 Y-9.86 E38.01081
G1 X19.701 Y-9.528 E38.03233
G1 X19.666 Y-9.068 E38.06145
G1 X19.39 Y-8.533 E38.09944
G1 X19.246 Y-8.363 E38.1135
G1 X-3.368 Y14.251 E40.13186
G1 X-3.806 Y14.557 E40.16558
G1 X-4.169 Y14.685 E40.18987
G1 X-4.628 Y14.68 E40.21884
G1 X-4.872 Y14.616 E40.23476
G1 X-5.266 Y14.376 E40.26388
G1 X-9.373 Y10.269 E40.63044
G1 X-9.567 Y9.995 E40.65163
G1 X-9.698 Y9.581 E40.67903
G1 X-9.708 Y9.332 E40.69476
G1 X-9.634 Y8.957 E40.71888
G1 X-9.347 Y8.485 E40.75374
G1 X-9.257 Y8.374 E40.76276
G0 F3600 X-8.974 Y8.657
G1 F1200 X13.68 Y-13.993 E42.78451
G1 X13.965 Y-14.194 E42.80652
G1 X14.213 Y-14.286 E42.82322
G1 X14.416 Y-14.305 E42.83608
G1 X14.817 Y-14.199 E42.86226
G1 X14.988 Y-14.088 E42.87513
G1 X19.108 Y-9.966 E43.24294
G1 X19.296 Y-9.581 E43.26998
G1 X19.28 Y-9.174 E43.29568
G1 X19.08 Y-8.786 E43.32323
G1 X18.977 Y-8.66 E43.3335
G1 X-3.651 Y13.968 E45.35311
G1 X-3.959 Y14.188 E45.377
G1 X-4.293 Y14.296 E45.39915
G1 X-4.691 Y14.259 E45.42438
G1 X-4.983 Y14.093 E45.44558
G1 X-9.09 Y9.986 E45.81214
G1 X-9.259 Y9.711 E45.83251
G1 X-9.312 Y9.389 E45.8531
G1 X-9.235 Y9.046 E45.87529
G1 X-8.974 Y8.657 E45.90485
G1 F1500 E39.40485
G1 F600 Z1.3
;MESH:Clip1.3mf
G0 F3600 X18.753 Y-9.014 Z1.3
;TYPE:WALL-OUTER
G1 F600 Z0.3
G1 F1500 E46.23745
G1 F1200 X18.679 Y-8.928 E46.24461
G1 X-3.93 Y13.681 E48.26253
G1 X-4.144 Y13.834 E48.27913
G1 X-4.294 Y13.895 E48.28935
G1 X-4.565 Y13.882 E48.30647
G1 X-4.709 Y13.802 E48.31687
G1 X-8.8 Y9.71 E48.68204
G1 X-8.874 Y9.604 E48.6902
G1 X-8.913 Y9.427 E48.70164
G1 X-8.887 Y9.246 E48.71318
G1 X-8.683 Y8.931 E48.73687
G1 X13.927 Y-13.679 E50.75487
G1 X14.127 Y-13.83 E50.77068
G1 X14.29 Y-13.896 E50.78178
G1 X14.429 Y-13.905 E50.79057
G1 X14.679 Y-13.823 E50.80718
G1 X14.709 Y-13.801 E50.80953
G1 X18.8 Y-9.711 E51.17461
G1 X18.901 Y-9.515 E51.18853
G1 X18.898 Y-9.296 E51.20235
G1 X18.753 Y-9.014 E51.22236
G0 F3600 X18.679 Y-8.928
G0 X18.618 Y-8.867
G0 X18.307 Y-9.178
G0 X18.388 Y-9.203
;TYPE:WALL-INNER
G1 F1200 X-4.191 Y13.376 E53.2376
G1 X-4.363 Y13.491 E53.25066
G1 X-4.465 Y13.48 E53.25713
G1 X-8.493 Y9.451 E53.61668
G1 X-8.503 Y9.39 E53.62059
G1 X-8.371 Y9.185 E53.63597
G1 X14.192 Y-13.378 E55.64978
G1 X14.379 Y-13.5 E55.66387
G1 X14.475 Y-13.469 E55.67024
G1 X18.473 Y-9.472 E56.02702
G1 X18.499 Y-9.396 E56.03209
G1 X18.388 Y-9.203 E56.04615
G0 F3600 X17.999 Y-9.38
G1 F1200 X-4.38 Y12.999 E58.04353
G1 X-7.999 Y9.379 E58.36658
G1 X14.379 Y-12.999 E60.36387
G1 X17.999 Y-9.38 E60.68692
G0 F3600 X17.449 Y-9.38
;TYPE:SKIN
G1 F1200 X-4.38 Y12.449 E62.63522
G1 X-7.449 Y9.379 E62.90918
G1 X14.379 Y-12.449 E64.85738
G1 X17.449 Y-9.38 E65.13134
G0 F3600 X16.918 Y-9.103
G1 F1200 X14.102 Y-11.918 E65.38263
G0 F3600 X13.819 Y-11.636
G1 F1200 X16.635 Y-8.82 E65.63397
G0 F3600 X16.352 Y-8.537
G1 F1200 X13.536 Y-11.353 E65.88531
G0 F3600 X13.254 Y-11.07
G1 F1200 X16.069 Y-8.254 E66.1366
G0 F3600 X15.786 Y-7.971
G1 F1200 X12.971 Y-10.787 E66.38789
G0 F3600 X12.688 Y-10.504
G1 F1200 X15.504 Y-7.689 E66.63918
G0 F3600 X15.221 Y-7.406
G1 F1200 X12.405 Y-10.221 E66.89047
G0 F3600 X12.122 Y-9.939
G1 F1200 X14.938 Y-7.123 E67.1418
G0 F3600 X14.655 Y-6.84
G1 F1200 X11.839 Y-9.656 E67.39314
G0 F3600 X11.556 Y-9.373
G1 F1200 X14.372 Y-6.557 E67.64447
G0 F3600 X14.089 Y-6.274
G1 F1200 X11.274 Y-9.09 E67.89576
G0 F3600 X10.991 Y-8.807
G1 F1200 X13.806 Y-5.992 E68.14701
G0 F3600 X13.524 Y-5.709
G1 F1200 X10.708 Y-8.524 E68.3983
G0 F3600 X10.425 Y-8.242
G1 F1200 X13.241 Y-5.426 E68.64964
G0 F3600 X12.958 Y-5.143
G1 F1200 X10.142 Y-7.959 E68.90097
G0 F3600 X9.859 Y-7.676
G1 F1200 X12.675 Y-4.86 E69.15231
G0 F3600 X12.392 Y-4.577
G1 F1200 X9.577 Y-7.393 E69.4036
G0 F3600 X9.294 Y-7.11
G1 F1200 X12.109 Y-4.294 E69.65489
G0 F3600 X11.827 Y-4.012
G1 F1200 X9.011 Y-6.827 E69.90618
G0 F3600 X8.728 Y-6.544
G1 F1200 X11.544 Y-3.729 E70.15747
G0 F3600 X11.261 Y-3.446
G1 F1200 X8.445 Y-6.262 E70.4088
G0 F3600 X8.162 Y-5.979
G1 F1200 X10.978 Y-3.163 E70.66014
G0 F3600 X10.695 Y-2.88
G1 F1200 X7.879 Y-5.696 E70.91148
G0 F3600 X7.597 Y-5.413
G1 F1200 X10.412 Y-2.597 E71.16277
G0 F3600 X10.13 Y-2.315
G1 F1200 X7.314 Y-5.13 E71.41406
G0 F3600 X7.031 Y-4.847
G1 F1200 X9.847 Y-2.032 E71.66535
G0 F3600 X9.564 Y-1.749
G1 F1200 X6.748 Y-4.565 E71.91668
G0 F3600 X6.465 Y-4.282
G1 F1200 X9.281 Y-1.466 E72.16802
G0 F3600 X8.998 Y-1.183
G1 F1200 X6.182 Y-3.999 E72.41935
G0 F3600 X5.9 Y-3.716
G1 F1200 X8.715 Y-.9 E72.67064
G0 F3600 X8.432 Y-.618
G1 F1200 X5.617 Y-3.433 E72.92189
G0 F3600 X5.334 Y-3.15
G1 F1200 X8.15 Y-.335 E73.17318
G0 F3600 X7.867 Y-0.052
G1 F1200 X5.051 Y-2.868 E73.42452
G0 F3600 X4.768 Y-2.585
G1 F1200 X7.584 Y0.23 E73.67581
G0 F3600 X7.301 Y0.513
G1 F1200 X4.485 Y-2.302 E73.9271
G0 F3600 X4.203 Y-2.019
G1 F1200 X7.018 Y0.796 E74.17834
G0 F3600 X6.735 Y1.079
G1 F1200 X3.92 Y-1.736 E74.42959
G0 F3600 X3.637 Y-1.453
G1 F1200 X6.453 Y1.361 E74.68083
G0 F3600 X6.17 Y1.644
G1 F1200 X3.354 Y-1.17 E74.93208
G0 F3600 X3.071 Y-.888
G1 F1200 X5.887 Y1.927 E75.18337
G0 F3600 X5.604 Y2.21
G1 F1200 X2.788 Y-.605 E75.43466
G0 F3600 X2.505 Y-.322
G1 F1200 X5.321 Y2.493 E75.68595
G0 F3600 X5.038 Y2.776
G1 F1200 X2.223 Y-0.039 E75.9372
G0 F3600 X1.94 Y0.243
G1 F1200 X4.756 Y3.058 E76.18849
G0 F3600 X4.473 Y3.341
G1 F1200 X1.657 Y0.526 E76.43978
G0 F3600 X1.374 Y0.808
G1 F1200 X4.19 Y3.624 E76.69112
G0 F3600 X3.907 Y3.907
G1 F1200 X1.091 Y1.091 E76.94245
G0 F3600 X0.808 Y1.374
G1 F1200 X3.624 Y4.19 E77.19379
G0 F3600 X3.341 Y4.473
G1 F1200 X0.526 Y1.657 E77.44508
G0 F3600 X0.243 Y1.94
G1 F1200 X3.058 Y4.756 E77.69637
G0 F3600 X2.776 Y5.038
G1 F1200 X-0.039 Y2.223 E77.94761
G0 F3600 X-.322 Y2.505
G1 F1200 X2.493 Y5.321 E78.1989
G0 F3600 X2.21 Y5.604
G1 F1200 X-.605 Y2.788 E78.45019
G0 F3600 X-.888 Y3.071
G1 F1200 X1.927 Y5.887 E78.70149
G0 F3600 X1.644 Y6.17
G1 F1200 X-1.17 Y3.354 E78.95273
G0 F3600 X-1.453 Y3.637
G1 F1200 X1.361 Y6.453 E79.20398
G0 F3600 X1.079 Y6.735
G1 F1200 X-1.736 Y3.92 E79.45522
G0 F3600 X-2.019 Y4.203
G1 F1200 X0.796 Y7.018 E79.70647
G0 F3600 X0.513 Y7.301
G1 F1200 X-2.302 Y4.485 E79.95776
G0 F3600 X-2.585 Y4.768
G1 F1200 X0.23 Y7.584 E80.20905
G0 F3600 X-0.052 Y7.867
G1 F1200 X-2.868 Y5.051 E80.46039
G0 F3600 X-3.15 Y5.334
G1 F1200 X-.335 Y8.15 E80.71168
G0 F3600 X-.618 Y8.432
G1 F1200 X-3.433 Y5.617 E80.96292
G0 F3600 X-3.716 Y5.9
G1 F1200 X-.9 Y8.715 E81.21421
G0 F3600 X-1.183 Y8.998
G1 F1200 X-3.999 Y6.182 E81.46555
G0 F3600 X-4.282 Y6.465
G1 F1200 X-1.466 Y9.281 E81.71688
G0 F3600 X-1.749 Y9.564
G1 F1200 X-4.565 Y6.748 E81.96822
G0 F3600 X-4.847 Y7.031
M104 S206
G1 F1200 X-2.032 Y9.847 E82.21951
G0 F3600 X-2.315 Y10.13
G1 F1200 X-5.13 Y7.314 E82.4708
G0 F3600 X-5.413 Y7.597
G1 F1200 X-2.597 Y10.412 E82.72209
G0 F3600 X-2.88 Y10.695
G1 F1200 X-5.696 Y7.879 E82.97343
G0 F3600 X-5.979 Y8.162
G1 F1200 X-3.163 Y10.978 E83.22476
G0 F3600 X-3.446 Y11.261
G1 F1200 X-6.262 Y8.445 E83.4761
G0 F3600 X-6.544 Y8.728
G1 F1200 X-3.729 Y11.544 E83.72739
G0 F3600 X-4.012 Y11.827
G1 F1200 X-6.827 Y9.011 E83.97868
G0 F3600 X-7.11 Y9.294
G1 F1200 X-4.294 Y12.109 E84.22997
G1 X-4.224 Y12.179
G1 F1500 E77.72997
G1 F600 Z1.3
;MESH:NONMESH
G0 F3600 X-4.224 Y12.179 Z1.3
G0 X-9.398 Y7.28
;TIME_ELAPSED:71.889887
;LAYER:1
M106 S255
G0 F5400 X-9.398 Y7.28 Z1.42
;TYPE:SUPPORT
G1 F600 Z0.42
G1 F1500 E84.56257
G1 F1800 X-9.6 Y7.475 E84.56873
G1 X-9.6 Y8.078 E84.58197
G1 X-9.594 Y8.071 E84.58217
G1 X-9.064 Y7.541 E84.59863
G1 X-9.398 Y7.28 E84.60793
G0 F5400 X-9.6 Y8.078
G1 F1800 X-9.667 Y8.154 E84.61016
G1 X-10.1 Y8.813 E84.62746
G1 X-9.882 Y9.165 E84.63655
G1 X-9.913 Y9.21 E84.63775
G1 X-9.913 Y10.834 E84.6734
G1 X-9.6 Y11.147 E84.68312
