;FLAVOR:Marlin
;TIME:3474
;Filament used: 2.64245m
;Layer height: 0.2
;MINX:-70.728
;MINY:-83.127
;MINZ:0.3
;MAXX:8.402
;MAXY:0
;MAXZ:9.9
;TARGET_MACHINE.NAME:Unknown
;POSTPROCESSED
;  [CreateThumbnail]
;Generated with Cura_SteamEngine 5.11.0
;
;

M140 S65
M105
M190 S65
M104 S240
M105
M109 S240
;FLAVOR:Marlin
M82 ;absolute extrusion mode
G21
G90
M82
M107 T0
G28
G92 E0
G0 E3 F200
G92 E0 ; reset extrusion distance
M106 S255 ; Enable cooling fan full speed
G1 X-98 Y0 Z0.4 F3000 ; move to arc start
G3 X0 Y-98 I98 Z0.4 E40 F400 ; lay arc stripe 90deg
G92 E0 ; reset extrusion distance
G4 P500 ; wait for 0.5 sec
G0 Z10 E-1 ; Lift 15mm and retract 1mm filament
G4 P2000 ; wait for 5 sec
G0 Z15
M107 ; Disable cooling fan
G1 X0 Y-85 Z4 E0 F3000 ; get off the bed
M82 ;absolute extrusion mode
G92 E0
G92 E0
G1 F1500 E-6.5
;LAYER_COUNT:49
;LAYER:0
M107
G1 F600 Z2.3
G0 F3600 X0.00 Y0.00 Z2.3
G0 X-34.091 Y-7.849
;TYPE:SKIRT
G1 F600 Z0.3
G1 F1500 E0
G1 F1200 X-34.687 Y-7.286 E0.03272
G1 X-35.352 Y-6.83 E0.0649
G1 X-36.152 Y-6.612 E0.098
G1 X-36.949 Y-6.598 E0.12981
G1 X-38.314 Y-6.856 E0.18526
G1 X-39.173 Y-7.238 E0.22278
G1 X-39.882 Y-7.919 E0.26202
G1 X-66.702 Y-34.741 E1.77591
G1 X-67.295 Y-35.377 E1.81062
G1 X-67.698 Y-35.968 E1.83917
G1 X-67.912 Y-36.635 E1.86712
G1 X-68.118 Y-37.983 E1.92155
G1 X-68.097 Y-38.56 E1.9446
G1 X-67.951 Y-39.18 E1.97002
G1 X-67.556 Y-39.912 E2.00322
G1 X-66.963 Y-40.534 E2.03752
G1 X-25.621 Y-81.875 E4.37101
G1 X-25.044 Y-82.42 E4.40269
G1 X-24.389 Y-82.87 E4.4344
G1 X-23.648 Y-83.086 E4.46521
G1 X-23.11 Y-83.127 E4.48674
G1 X-22.263 Y-82.971 E4.52112
G1 X-21.621 Y-82.633 E4.55008
G1 X-21.175 Y-82.271 E4.573
G1 X7.108 Y-53.986 E6.16947
G1 X7.644 Y-53.43 E6.2003
G1 X8.036 Y-52.904 E6.22648
G1 X8.309 Y-52.239 E6.25517
G1 X8.402 Y-51.508 E6.28458
G1 X8.296 Y-50.711 E6.31667
G1 X7.965 Y-50.013 E6.34751
G1 X7.561 Y-49.5 E6.37357
G1 X-34.091 Y-7.849 E8.72456
G0 F3600 X-34.366 Y-8.14
G1 F1200 X-34.962 Y-7.577 E8.75728
G1 X-35.521 Y-7.198 E8.78424
G1 X-36.209 Y-7.011 E8.81269
G1 X-36.916 Y-6.999 E8.84091
G1 X-38.195 Y-7.24 E8.89286
G1 X-38.945 Y-7.574 E8.92563
G1 X-39.599 Y-8.202 E8.96182
G1 X-66.411 Y-35.016 E10.47526
G1 X-66.965 Y-35.603 E10.50747
G1 X-67.335 Y-36.145 E10.53367
G1 X-67.517 Y-36.697 E10.55686
G1 X-67.718 Y-37.975 E10.6085
G1 X-67.708 Y-38.468 E10.62818
G1 X-67.574 Y-39.036 E10.65147
G1 X-67.229 Y-39.676 E10.68049
G1 X-66.68 Y-40.251 E10.71222
G1 X-25.346 Y-81.584 E13.04526
G1 X-24.769 Y-82.129 E13.07694
G1 X-24.216 Y-82.504 E13.10361
G1 X-23.577 Y-82.69 E13.13017
G1 X-23.129 Y-82.724 E13.1481
G1 X-22.396 Y-82.589 E13.17785
G1 X-21.841 Y-82.297 E13.20288
G1 X-21.458 Y-81.988 E13.22252
G1 X6.821 Y-53.707 E14.81877
G1 X7.323 Y-53.191 E14.8475
G1 X7.685 Y-52.705 E14.87169
G1 X7.919 Y-52.136 E14.89624
G1 X7.999 Y-51.507 E14.92155
G1 X7.908 Y-50.825 E14.94901
G1 X7.624 Y-50.226 E14.97547
G1 X7.278 Y-49.783 E14.9979
G1 X-34.366 Y-8.14 E17.34844
G0 F3600 X-34.643 Y-8.429
G1 F1200 X-35.187 Y-7.908 E17.37851
G1 X-35.691 Y-7.566 E17.40282
G1 X-36.266 Y-7.41 E17.42659
G1 X-36.883 Y-7.4 E17.45122
G1 X-38.076 Y-7.624 E17.49967
G1 X-38.717 Y-7.91 E17.52769
G1 X-39.316 Y-8.485 E17.56083
G1 X-66.122 Y-35.292 E19.0739
G1 X-66.634 Y-35.828 E19.10348
G1 X-66.972 Y-36.324 E19.12744
G1 X-67.137 Y-36.823 E19.14842
G1 X-67.318 Y-37.976 E19.195
G1 X-67.319 Y-38.376 E19.21096
G1 X-67.197 Y-38.892 E19.23213
G1 X-66.902 Y-39.44 E19.25697
G1 X-66.397 Y-39.968 E19.28613
G1 X-25.07 Y-81.295 E21.6188
G1 X-24.544 Y-81.798 E21.64785
G1 X-24.043 Y-82.138 E21.67202
G1 X-23.506 Y-82.294 E21.69433
G1 X-23.148 Y-82.321 E21.70866
G1 X-22.529 Y-82.207 E21.73378
G1 X-22.061 Y-81.961 E21.75489
G1 X-21.741 Y-81.705 E21.77124
G1 X6.534 Y-53.428 E23.36726
G1 X7.036 Y-52.912 E23.39599
G1 X7.334 Y-52.507 E23.41606
G1 X7.529 Y-52.033 E23.43652
G1 X7.595 Y-51.51 E23.45756
G1 X7.519 Y-50.937 E23.48063
G1 X7.283 Y-50.439 E23.50263
G1 X6.995 Y-50.066 E23.52143
G1 X-34.643 Y-8.429 E25.87163
G0 F3600 X-34.922 Y-8.716
G1 F1200 X-35.412 Y-8.239 E25.89893
G1 X-35.861 Y-7.934 E25.92059
G1 X-36.272 Y-7.81 E25.93773
G1 X-36.85 Y-7.801 E25.9608
G1 X-37.957 Y-8.008 E26.00575
G1 X-38.489 Y-8.246 E26.02901
G1 X-39.033 Y-8.768 E26.0591
G1 X-65.835 Y-35.571 E27.57195
G1 X-66.303 Y-36.053 E27.59876
G1 X-66.609 Y-36.503 E27.62048
G1 X-66.757 Y-36.949 E27.63924
G1 X-66.918 Y-37.988 E27.6812
G1 X-66.927 Y-38.297 E27.69354
G1 X-66.845 Y-38.702 E27.71003
G1 X-66.576 Y-39.202 E27.73269
G1 X-66.108 Y-39.691 E27.75971
G1 X-24.791 Y-81.008 E30.09182
G1 X-24.319 Y-81.467 E30.11809
G1 X-23.87 Y-81.772 E30.13976
G1 X-23.476 Y-81.895 E30.15623
G1 X-23.167 Y-81.918 E30.1686
G1 X-22.662 Y-81.825 E30.18909
G1 X-22.309 Y-81.647 E30.20487
G1 X-22.024 Y-81.422 E30.21936
G1 X6.247 Y-53.149 E31.81516
G1 X6.749 Y-52.633 E31.84389
G1 X6.968 Y-52.345 E31.85833
G1 X7.134 Y-51.97 E31.8747
G1 X7.199 Y-51.563 E31.89115
G1 X7.131 Y-51.053 E31.91169
G1 X6.964 Y-50.681 E31.92796
G1 X6.712 Y-50.349 E31.9446
G1 X-34.922 Y-8.716 E34.29457
G0 F3600 X-35.201 Y-9.003
G1 F1200 X-35.691 Y-8.526 E34.32186
G1 X-35.993 Y-8.312 E34.33664
G1 X-36.285 Y-8.21 E34.34898
G1 X-36.776 Y-8.194 E34.36859
G1 X-37.883 Y-8.401 E34.41354
G1 X-38.262 Y-8.583 E34.43032
G1 X-38.75 Y-9.051 E34.4573
G1 X-65.548 Y-35.85 E35.96993
G1 X-66.016 Y-36.332 E35.99674
G1 X-66.231 Y-36.634 E36.01154
G1 X-66.362 Y-37.011 E36.02747
G1 X-66.518 Y-38 E36.06743
G1 X-66.527 Y-38.309 E36.07977
G1 X-66.456 Y-38.61 E36.09211
G1 X-66.287 Y-38.925 E36.10638
G1 X-65.819 Y-39.414 E36.13339
G1 X-24.512 Y-80.721 E38.46494
G1 X-24.04 Y-81.18 E38.49121
G1 X-23.738 Y-81.394 E38.50599
G1 X-23.446 Y-81.496 E38.51833
G1 X-23.137 Y-81.519 E38.5307
G1 X-22.833 Y-81.463 E38.54304
G1 X-22.554 Y-81.331 E38.55536
G1 X-22.307 Y-81.139 E38.56784
G1 X5.96 Y-52.87 E40.16341
G1 X6.462 Y-52.354 E40.19214
G1 X6.647 Y-52.106 E40.20449
G1 X6.763 Y-51.82 E40.21681
G1 X6.802 Y-51.513 E40.22916
G1 X6.761 Y-51.206 E40.24152
G1 X6.643 Y-50.92 E40.25387
G1 X6.429 Y-50.632 E40.26819
G1 X-35.201 Y-9.003 E42.61794
G1 F1500 E36.11794
;MESH:K??rper1
G0 F3600 X-36.671 Y-10.474
G0 X-36.95 Y-10.997
;TYPE:WALL-INNER
G1 F1500 E42.61794
G1 F1200 X3.561 Y-51.516 E44.90478
G1 X-23.201 Y-78.281 E46.41543
G1 X-63.715 Y-37.766 E48.70224
G1 X-36.95 Y-10.997 E50.21309
G0 F3600 X-36.95 Y-10.431
G1 F1200 X4.127 Y-51.516 E52.53188
G1 X-23.201 Y-78.847 E54.07447
G1 X-64.281 Y-37.766 E56.39323
G1 X-36.95 Y-10.431 E57.93603
G0 F3600 X-36.951 Y-10.832
G0 X-45.663 Y-23.937
G1 F1200 X-46.744 Y-23.927 E57.97917
G1 X-47.657 Y-24.106 E58.01631
G1 X-48.271 Y-24.323 E58.0423
G1 X-49.148 Y-24.855 E58.08324
G1 X-49.858 Y-25.568 E58.1234
G1 X-50.208 Y-26.107 E58.14905
G1 X-50.588 Y-26.946 E58.18581
G1 X-50.789 Y-27.974 E58.22762
G1 X-50.775 Y-29.05 E58.27057
G1 X-50.558 Y-30.11 E58.31375
G1 X-50.14 Y-31.144 E58.35826
G1 X-49.551 Y-32.12 E58.40376
G1 X-48.816 Y-32.976 E58.44879
G1 X-48.012 Y-33.663 E58.491
G1 X-47.503 Y-34.007 E58.51552
G1 X-46.563 Y-34.489 E58.55768
G1 X-45.94 Y-34.716 E58.58415
G1 X-44.888 Y-34.931 E58.627
G1 X-43.802 Y-34.948 E58.67035
G1 X-42.84 Y-34.752 E58.70954
G1 X-42.299 Y-34.552 E58.73256
G1 X-41.45 Y-34.048 E58.77196
G1 X-41.032 Y-33.68 E58.79419
G1 X-40.417 Y-32.902 E58.83377
G1 X-40.141 Y-32.37 E58.85769
G1 X-39.845 Y-31.435 E58.89684
G1 X-39.744 Y-30.361 E58.93989
G1 X-39.864 Y-29.316 E58.98187
G1 X-40.005 Y-28.748 E59.00523
G1 X-40.417 Y-27.728 E59.04914
G1 X-41.005 Y-26.765 E59.09417
G1 X-41.74 Y-25.9 E59.13948
G1 X-42.538 Y-25.215 E59.18145
G1 X-43.095 Y-24.833 E59.20841
G1 X-43.998 Y-24.384 E59.24866
G1 X-44.612 Y-24.157 E59.27479
G1 X-45.663 Y-23.937 E59.31764
G0 F3600 X-45.708 Y-24.337
G1 F1200 X-46.704 Y-24.327 E59.3574
G1 X-47.58 Y-24.498 E59.39302
G1 X-48.101 Y-24.688 E59.41515
G1 X-48.897 Y-25.171 E59.45232
G1 X-49.501 Y-25.775 E59.48641
G1 X-49.819 Y-26.219 E59.50821
G1 X-50.203 Y-27.067 E59.54536
G1 X-50.389 Y-28.013 E59.58384
G1 X-50.375 Y-29.006 E59.62348
G1 X-50.172 Y-29.998 E59.66389
G1 X-49.779 Y-30.97 E59.70573
G1 X-49.229 Y-31.881 E59.74821
G1 X-48.543 Y-32.683 E59.79033
G1 X-47.753 Y-33.358 E59.8318
G1 X-47.223 Y-33.708 E59.85715
G1 X-46.31 Y-34.163 E59.89787
G1 X-45.787 Y-34.34 E59.9199
G1 X-44.845 Y-34.533 E59.95828
G1 X-43.872 Y-34.547 E59.99712
G1 X-42.973 Y-34.373 E60.03367
G1 X-42.464 Y-34.187 E60.0553
G1 X-41.702 Y-33.731 E60.09074
G1 X-41.315 Y-33.397 E60.11114
G1 X-40.741 Y-32.659 E60.14846
G1 X-40.511 Y-32.212 E60.16852
G1 X-40.244 Y-31.366 E60.20393
G1 X-40.145 Y-30.356 E60.24443
G1 X-40.257 Y-29.388 E60.28333
G1 X-40.402 Y-28.833 E60.30622
G1 X-40.775 Y-27.907 E60.34607
G1 X-41.329 Y-27 E60.38848
G1 X-42.033 Y-26.173 E60.43183
G1 X-42.798 Y-25.519 E60.472
G1 X-43.332 Y-25.162 E60.49764
G1 X-44.176 Y-24.742 E60.53526
G1 X-44.769 Y-24.532 E60.56037
G1 X-45.708 Y-24.337 E60.59865
G0 F3600 X-45.648 Y-24.037
G0 X-44.59 Y-24.264
G0 X-44.824 Y-24.931
;TYPE:WALL-OUTER
G1 F1200 X-45.774 Y-24.736 E60.63736
G1 X-46.687 Y-24.731 E60.6738
G1 X-47.503 Y-24.891 E60.70699
G1 X-47.944 Y-25.06 E60.72584
G1 X-48.658 Y-25.498 E60.75927
G1 X-49.218 Y-26.058 E60.79088
G1 X-49.479 Y-26.437 E60.80924
G1 X-49.811 Y-27.169 E60.84132
G1 X-49.985 Y-28.029 E60.87634
G1 X-49.972 Y-28.981 E60.91434
G1 X-49.782 Y-29.896 E60.95164
G1 X-49.412 Y-30.804 E60.99078
G1 X-48.912 Y-31.632 E61.02938
G1 X-48.25 Y-32.41 E61.07015
G1 X-47.475 Y-33.067 E61.1107
G1 X-47.043 Y-33.351 E61.13134
G1 X-46.203 Y-33.775 E61.16889
G1 X-45.705 Y-33.948 E61.18993
G1 X-44.802 Y-34.135 E61.22674
G1 X-43.896 Y-34.148 E61.2629
G1 X-43.021 Y-33.972 E61.29853
G1 X-42.629 Y-33.823 E61.31526
G1 X-41.924 Y-33.399 E61.3481
G1 X-41.598 Y-33.114 E61.36538
G1 X-41.082 Y-32.449 E61.39898
G1 X-40.889 Y-32.079 E61.41563
G1 X-40.633 Y-31.272 E61.44942
G1 X-40.548 Y-30.391 E61.48475
G1 X-40.651 Y-29.46 E61.52213
G1 X-40.774 Y-28.981 E61.54187
G1 X-41.133 Y-28.086 E61.58036
G1 X-41.653 Y-27.234 E61.6202
G1 X-42.309 Y-26.463 E61.6606
G1 X-43.076 Y-25.809 E61.70083
G1 X-43.51 Y-25.52 E61.72164
G1 X-44.376 Y-25.091 E61.76022
G1 X-44.824 Y-24.931 E61.7792
G0 F3600 X-45.019 Y-24.891
G0 X-44.876 Y-24.197
G0 X-36.951 Y-10.832
G0 X-36.913 Y-9.903
G1 F1200 X4.693 Y-51.516 E64.12782
G1 X-23.201 Y-79.413 E65.70236
G1 X-64.809 Y-37.803 E68.05096
G1 X-64.793 Y-37.713 E68.0546
G1 X-37.003 Y-9.919 E69.62331
G1 X-36.913 Y-9.903 E69.62695
G0 F3600 X-36.772 Y-10.044
G0 X-36.951 Y-10.832
G0 X-45.598 Y-23.56
;TYPE:SKIN
G1 F1200 X-44.49 Y-23.796 E69.67217
G1 X-43.85 Y-24.032 E69.69939
G1 X-42.887 Y-24.514 E69.74237
G1 X-42.307 Y-24.91 E69.7704
G1 X-41.482 Y-25.614 E69.81369
G1 X-40.707 Y-26.526 E69.86146
G1 X-40.085 Y-27.539 E69.9089
G1 X-39.642 Y-28.62 E69.95553
G1 X-39.489 Y-29.232 E69.98071
G1 X-39.363 Y-30.354 E70.02577
G1 X-39.473 Y-31.512 E70.0722
G1 X-39.782 Y-32.492 E70.11321
G1 X-40.086 Y-33.096 E70.1402
G1 X-40.733 Y-33.925 E70.18217
G1 X-41.25 Y-34.365 E70.20927
G1 X-42.098 Y-34.883 E70.24893
G1 X-42.737 Y-35.117 E70.27609
G1 X-43.768 Y-35.324 E70.31806
G1 X-44.944 Y-35.305 E70.365
G1 X-46.032 Y-35.085 E70.4093
G1 X-46.71 Y-34.836 E70.43813
G1 X-47.585 Y-34.397 E70.4772
G1 X-48.177 Y-34.017 E70.50528
G1 X-49.106 Y-33.222 E70.55408
G1 X-49.872 Y-32.324 E70.60119
G1 X-50.468 Y-31.34 E70.64711
G1 X-50.914 Y-30.239 E70.69452
G1 X-51.148 Y-29.109 E70.74058
G1 X-51.165 Y-27.921 E70.788
G1 X-50.939 Y-26.805 E70.83344
G1 X-50.555 Y-25.953 E70.87074
G1 F1182.3 X-50.165 Y-25.336 E70.90031
G1 F1165 X-49.364 Y-24.536 E70.94685
G1 F1182.3 X-48.42 Y-23.971 E70.99142
G1 F1200 X-47.727 Y-23.727 E71.02074
G1 X-46.794 Y-23.547 E71.05867
G1 X-45.598 Y-23.56 E71.1064
G0 F3600 X-36.948 Y-11.535
G1 F1200 X-63.173 Y-37.764 E72.58677
G1 X-23.2 Y-77.741 E74.84313
G1 X3.021 Y-51.515 E76.3233
G1 X-36.948 Y-11.535 E78.57963
G0 F3600 X-36.828 Y-11.938
G1 F1200 X-48.923 Y-24.033 E79.26233
G1 X-48.993 Y-24.103
G0 F3600 X-47.897 Y-23.572
G1 F1200 X-36.545 Y-12.221 E79.90305
G0 F3600 X-36.263 Y-12.504
G1 F1200 X-47.177 Y-23.419 E80.51912
G0 F3600 X-46.539 Y-23.346
G1 F1200 X-35.98 Y-12.787 E81.11511
G0 F3600 X-35.697 Y-13.069
G1 F1200 X-45.98 Y-23.352 E81.69553
G0 F3600 X-45.449 Y-23.387
G1 F1200 X-35.414 Y-13.352 E82.26195
G0 F3600 X-35.131 Y-13.635
G1 F1200 X-44.983 Y-23.487 E82.81804
G0 F3600 X-44.517 Y-23.587
G1 F1200 X-34.848 Y-13.918 E83.3638
G0 F3600 X-34.566 Y-14.201
G1 F1200 X-44.093 Y-23.728 E83.90154
G0 F3600 X-43.689 Y-23.89
G1 F1200 X-34.283 Y-14.484 E84.43246
G0 F3600 X-34 Y-14.767
G1 F1200 X-43.311 Y-24.078 E84.95801
G0 F3600 X-42.933 Y-24.265
G1 F1200 X-33.717 Y-15.049 E85.4782
G0 F3600 X-33.434 Y-15.332
G1 F1200 X-42.583 Y-24.481 E85.99461
G0 F3600 X-42.246 Y-24.71
G1 F1200 X-33.151 Y-15.615 E86.50797
G0 F3600 X-32.868 Y-15.898
G1 F1200 X-41.935 Y-24.964 E87.01972
G0 F3600 X-41.629 Y-25.225
G1 F1200 X-32.586 Y-16.181 E87.53018
G0 F3600 X-32.303 Y-16.464
G1 F1200 X-41.33 Y-25.491 E88.0397
G0 F3600 X-41.07 Y-25.797
G1 F1200 X-32.02 Y-16.746 E88.55055
G0 F3600 X-31.738 Y-17.03
G1 F1200 X-40.811 Y-26.103 E89.06267
G0 F3600 X-40.55 Y-26.408
G1 F1200 X-31.455 Y-17.313 E89.57603
G0 F3600 X-31.172 Y-17.596
G1 F1200 X-40.331 Y-26.754 E90.09298
G0 F3600 X-40.116 Y-27.106
G1 F1200 X-30.889 Y-17.878 E90.61382
G0 F3600 X-30.606 Y-18.161
G1 F1200 X-39.905 Y-27.46 E91.13869
G0 F3600 X-39.741 Y-27.861
G1 F1200 X-30.324 Y-18.444 E91.67023
G0 F3600 X-30.041 Y-18.727
G1 F1200 X-39.577 Y-28.263 E92.20848
G0 F3600 X-39.421 Y-28.673
G1 F1200 X-29.758 Y-19.01 E92.7539
G0 F3600 X-29.475 Y-19.293
G1 F1200 X-39.309 Y-29.127 E93.30898
G0 F3600 X-39.245 Y-29.628
G1 F1200 X-29.192 Y-19.576 E93.87638
G0 F3600 X-28.909 Y-19.858
G1 F1200 X-39.188 Y-30.137 E94.45657
G0 F3600 X-39.196 Y-30.711
G1 F1200 X-28.627 Y-20.141 E95.05316
G0 F3600 X-28.344 Y-20.424
G1 F1200 X-39.254 Y-31.334 E95.66897
G0 F3600 X-39.447 Y-32.093
G1 F1200 X-28.061 Y-20.707 E96.31164
G0 F3600 X-27.778 Y-20.99
G1 F1200 X-39.841 Y-33.052 E96.9925
G1 X-39.911 Y-33.122
G0 F3600 X-41.603 Y-34.815
G1 F1200 X-53.722 Y-46.934 E97.67655
G0 F3600 X-53.439 Y-47.216
G1 F1200 X-27.495 Y-21.273 E99.14092
G0 F3600 X-27.212 Y-21.555
G1 F1200 X-53.156 Y-47.499 E100.60531
G0 F3600 X-52.873 Y-47.782
G1 F1200 X-26.93 Y-21.839 E102.06964
G0 F3600 X-26.647 Y-22.122
G1 F1200 X-52.59 Y-48.065 E103.53398
G0 F3600 X-52.308 Y-48.348
G1 F1200 X-26.364 Y-22.405 E104.99834
G0 F3600 X-26.082 Y-22.688
G1 F1200 X-52.025 Y-48.631 E106.46268
G0 F3600 X-51.742 Y-48.913
G1 F1200 X-25.799 Y-22.97 E107.92701
G0 F3600 X-25.516 Y-23.253
G1 F1200 X-51.459 Y-49.196 E109.39135
G0 F3600 X-51.176 Y-49.479
G1 F1200 X-25.233 Y-23.536 E110.85568
G0 F3600 X-24.95 Y-23.819
G1 F1200 X-50.893 Y-49.762 E112.32002
G0 F3600 X-50.61 Y-50.045
G1 F1200 X-24.667 Y-24.102 E113.78435
G0 F3600 X-24.385 Y-24.385
G1 F1200 X-50.328 Y-50.328 E115.24869
G0 F3600 X-50.045 Y-50.61
G1 F1200 X-24.102 Y-24.667 E116.71302
G0 F3600 X-23.819 Y-24.95
G1 F1200 X-49.762 Y-50.893 E118.17736
G0 F3600 X-49.48 Y-51.177
G1 F1200 X-23.536 Y-25.233 E119.64175
G0 F3600 X-23.253 Y-25.516
G1 F1200 X-49.197 Y-51.46 E121.10614
G0 F3600 X-48.914 Y-51.743
G1 F1200 X-22.97 Y-25.799 E122.57053
G0 F3600 X-22.688 Y-26.082
G1 F1200 X-48.631 Y-52.025 E124.03487
G0 F3600 X-48.348 Y-52.308
G1 F1200 X-22.405 Y-26.364 E125.49923
G0 F3600 X-22.122 Y-26.647
G1 F1200 X-48.066 Y-52.591 E126.96362
G0 F3600 X-47.783 Y-52.874
G1 F1200 X-21.84 Y-26.931 E128.42796
G0 F3600 X-21.557 Y-27.214
G1 F1200 X-47.5 Y-53.157 E129.89229
G0 F3600 X-47.217 Y-53.44
G1 F1200 X-21.274 Y-27.497 E131.35663
G0 F3600 X-20.991 Y-27.779
G1 F1200 X-46.934 Y-53.722 E132.82096
G0 F3600 X-46.651 Y-54.005
G1 F1200 X-20.708 Y-28.062 E134.2853
G0 F3600 X-20.425 Y-28.345
