;FLAVOR:Marlin
;TIME:92
;Filament used: 0.0452869m
;Layer height: 0.24
;MINX:-24.542
;MINY:-69.504
;MINZ:0.24
;MAXX:34.446
;MAXY:-57.491
;MAXZ:9.3
;TARGET_MACHINE.NAME:Unknown
;Generated with Cura_SteamEngine 5.10.1
M140 S45
M105
M190 S45
M104 S210
M105
M109 S210
;FLAVOR:Marlin
M82 ;absolute extrusion mode
G21
G90
M82
M107 T0
G28
G92 E0
G0 E3 F200
G92 E0 ; reset extrusion distance
M106 S255 ; Enable cooling fan full speed
G1 X-98 Y0 Z0.4 F3000 ; move to arc start
G3 X0 Y-98 I98 Z0.4 E40 F400 ; lay arc stripe 90deg
G92 E0 ; reset extrusion distance
G4 P500 ; wait for 0.5 sec
G0 Z10 E-1 ; Lift 15mm and retract 1mm filament
G4 P2000 ; wait for 5 sec
G0 Z15
M107 ; Disable cooling fan
G1 X0 Y-85 Z4 E0 F3000 ; get off the bed
M82 ;absolute extrusion mode
G92 E0
G92 E0
G1 F1500 E-1
;LAYER_COUNT:18
;LAYER:0
M106 S102
G0 F3600 X-16.604 Y-57.783 Z0.24
;TYPE:SKIRT
G1 F3600 E0.71493
G1 F1200 X-18.162 Y-57.491 E0.77252
G1 X-19.688 Y-57.585 E0.82807
G1 X-21.156 Y-58.081 E0.88438
G1 X-22.471 Y-58.961 E0.94187
G1 X-23.336 Y-59.93 E0.98906
G1 X-23.771 Y-60.584 E1.0176
G1 X-24.317 Y-61.866 E1.06823
G1 X-24.542 Y-63.391 E1.12424
G1 X-24.365 Y-64.921 E1.18021
G1 X-24.016 Y-65.884 E1.21743
G1 X-23.63 Y-66.625 E1.24778
G1 X-23.014 Y-67.484 E1.28619
G1 X-21.996 Y-68.411 E1.33622
G1 X-20.914 Y-69.02 E1.38133
G1 X-19.516 Y-69.438 E1.43435
G1 X-18.031 Y-69.499 E1.48835
G1 X-16.721 Y-69.237 E1.5369
G1 X-15.431 Y-68.663 E1.5882
G1 X-14.511 Y-67.955 E1.63038
G1 X-13.845 Y-67.289 E1.6646
G1 X-13.053 Y-66.03 E1.71865
G1 X-12.581 Y-64.542 E1.77537
G1 X-12.518 Y-63.005 E1.83126
G1 X-12.753 Y-61.868 E1.87345
G1 X-13.188 Y-60.778 E1.91609
G1 X-13.768 Y-59.808 E1.95716
G1 X-14.492 Y-59.06 E1.99498
G1 X-15.275 Y-58.431 E2.03147
G1 X-16.604 Y-57.783 E2.0852
G0 F3600 X-16.732 Y-58.166
G1 F1200 X-18.187 Y-57.893 E2.13899
G1 X-19.609 Y-57.981 E2.19075
G1 X-20.98 Y-58.444 E2.24333
G1 X-22.204 Y-59.263 E2.29684
G1 X-23.003 Y-60.152 E2.34028
G1 X-23.418 Y-60.775 E2.36747
G1 X-23.928 Y-61.974 E2.41482
G1 X-24.139 Y-63.4 E2.4672
G1 X-23.974 Y-64.825 E2.51932
G1 X-23.661 Y-65.699 E2.55305
G1 X-23.275 Y-66.44 E2.58341
G1 X-22.715 Y-67.216 E2.61818
G1 X-21.761 Y-68.084 E2.66504
G1 X-20.755 Y-68.65 E2.70699
G1 X-19.451 Y-69.04 E2.75644
G1 X-18.061 Y-69.097 E2.80699
G1 X-16.842 Y-68.853 E2.85216
G1 X-15.639 Y-68.318 E2.9
G1 X-14.794 Y-67.672 E2.93865
G1 X-14.16 Y-67.038 E2.97122
G1 X-13.418 Y-65.858 E3.02187
G1 X-12.979 Y-64.474 E3.07463
G1 X-12.92 Y-63.038 E3.12685
G1 X-13.145 Y-61.949 E3.16725
G1 X-13.531 Y-60.983 E3.20505
G1 X-14.087 Y-60.053 E3.24442
G1 X-14.742 Y-59.372 E3.27875
G1 X-15.489 Y-58.772 E3.31357
G1 X-16.732 Y-58.166 E3.36381
G0 F3600 X-16.86 Y-58.549
G1 F1200 X-18.212 Y-58.295 E3.4138
G1 X-19.53 Y-58.377 E3.46178
G1 X-20.804 Y-58.807 E3.51064
G1 X-21.938 Y-59.566 E3.56022
G1 X-22.67 Y-60.374 E3.59983
G1 X-23.065 Y-60.967 E3.62572
G1 X-23.54 Y-62.083 E3.66979
G1 X-23.736 Y-63.409 E3.7185
G1 X-23.582 Y-64.733 E3.76693
G1 X-23.306 Y-65.514 E3.79703
G1 X-22.92 Y-66.255 E3.82738
G1 X-22.417 Y-66.946 E3.85844
G1 X-21.526 Y-67.757 E3.90222
G1 X-20.596 Y-68.28 E3.94098
G1 X-19.386 Y-68.642 E3.98688
G1 X-18.09 Y-68.695 E4.03401
G1 X-16.964 Y-68.47 E4.07573
G1 X-15.847 Y-67.973 E4.12015
G1 X-15.077 Y-67.389 E4.15526
G1 X-14.475 Y-66.787 E4.1862
G1 X-13.783 Y-65.686 E4.23345
G1 X-13.377 Y-64.406 E4.28224
G1 X-13.322 Y-63.071 E4.33079
G1 X-13.537 Y-62.03 E4.36941
G1 X-13.874 Y-61.188 E4.40237
G1 X-14.407 Y-60.297 E4.44009
G1 X-14.993 Y-59.684 E4.4709
G1 X-15.705 Y-59.112 E4.50409
G1 X-16.86 Y-58.549 E4.55078
G0 F3600 X-16.988 Y-58.932
G1 F1200 X-18.237 Y-58.697 E4.59696
G1 X-19.451 Y-58.773 E4.64115
G1 X-20.628 Y-59.17 E4.68629
G1 X-21.673 Y-59.869 E4.73197
G1 X-22.337 Y-60.596 E4.76774
G1 X-22.712 Y-61.159 E4.79232
G1 X-23.152 Y-62.192 E4.83312
G1 X-23.333 Y-63.417 E4.87811
G1 X-23.19 Y-64.64 E4.92285
G1 X-22.951 Y-65.329 E4.94935
G1 X-22.565 Y-66.07 E4.97971
G1 X-22.118 Y-66.677 E5.0071
G1 X-21.291 Y-67.43 E5.04774
G1 X-20.437 Y-67.91 E5.08333
G1 X-19.321 Y-68.244 E5.12566
G1 X-18.119 Y-68.293 E5.16937
G1 X-17.086 Y-68.087 E5.20765
G1 X-16.053 Y-67.627 E5.24873
G1 X-15.36 Y-67.106 E5.28024
G1 X-14.79 Y-66.536 E5.30953
G1 X-14.148 Y-65.514 E5.35338
G1 X-13.775 Y-64.338 E5.39821
G1 X-13.724 Y-63.103 E5.44312
G1 X-13.929 Y-62.111 E5.47992
G1 X-14.217 Y-61.393 E5.50803
G1 X-14.727 Y-60.541 E5.54411
G1 X-15.244 Y-59.996 E5.57141
G1 X-15.921 Y-59.452 E5.60296
G1 X-16.988 Y-58.932 E5.64609
G0 F3600 X-17.116 Y-59.315
G1 F1200 X-18.262 Y-59.099 E5.68847
G1 X-19.372 Y-59.169 E5.72888
G1 X-20.452 Y-59.533 E5.77029
G1 X-21.409 Y-60.173 E5.81212
G1 X-22.004 Y-60.818 E5.84401
G1 X-22.359 Y-61.351 E5.86727
G1 X-22.764 Y-62.301 E5.9048
G1 X-22.93 Y-63.425 E5.94608
G1 X-22.798 Y-64.549 E5.9872
G1 X-22.573 Y-65.198 E6.01216
G1 X-22.243 Y-65.833 E6.03816
G1 X-21.82 Y-66.407 E6.06407
G1 X-21.056 Y-67.103 E6.10162
G1 X-20.278 Y-67.54 E6.13405
G1 X-19.256 Y-67.846 E6.17281
G1 X-18.148 Y-67.891 E6.2131
G1 X-17.208 Y-67.704 E6.24793
G1 X-16.259 Y-67.281 E6.28568
G1 X-15.643 Y-66.823 E6.31357
G1 X-15.105 Y-66.285 E6.34122
G1 X-14.513 Y-65.342 E6.38167
G1 X-14.173 Y-64.27 E6.42253
G1 X-14.126 Y-63.135 E6.46381
G1 X-14.321 Y-62.192 E6.4988
G1 X-14.56 Y-61.598 E6.52206
G1 X-15.045 Y-60.787 E6.5564
G1 X-15.495 Y-60.308 E6.58028
G1 X-16.137 Y-59.792 E6.61021
G1 X-17.116 Y-59.315 E6.64978
G0 F3600 X-17.244 Y-59.698
G1 F1200 X-18.287 Y-59.501 E6.68834
G1 X-19.293 Y-59.565 E6.72497
G1 X-20.276 Y-59.896 E6.76266
G1 X-21.146 Y-60.478 E6.80069
G1 X-21.671 Y-61.04 E6.82864
G1 X-22.006 Y-61.543 E6.85059
G1 X-22.376 Y-62.41 E6.88485
G1 X-22.527 Y-63.433 E6.92242
G1 X-22.406 Y-64.458 E6.95992
G1 X-22.218 Y-65.014 E6.98125
G1 X-21.888 Y-65.649 E7.00725
G1 X-21.524 Y-66.136 E7.02934
G1 X-20.821 Y-66.776 E7.06388
G1 X-20.119 Y-67.17 E7.09313
G1 X-19.191 Y-67.448 E7.12833
G1 X-18.177 Y-67.489 E7.16521
G1 X-17.33 Y-67.321 E7.19658
G1 X-16.462 Y-66.934 E7.23111
G1 X-15.926 Y-66.54 E7.25529
G1 X-15.42 Y-66.034 E7.28129
G1 X-14.878 Y-65.17 E7.31835
G1 X-14.571 Y-64.202 E7.35524
G1 X-14.528 Y-63.165 E7.39296
G1 X-14.693 Y-62.338 E7.4236
G1 X-14.903 Y-61.803 E7.44448
G1 X-15.364 Y-61.033 E7.47709
G1 X-15.746 Y-60.62 E7.49753
G1 X-16.353 Y-60.132 E7.52583
G1 X-17.244 Y-59.698 E7.56184
G0 F3600 X-17.5 Y-60.464
G1 F1200 X-18.338 Y-60.305 E7.59283
G1 X-19.137 Y-60.357 E7.62193
G1 X-19.92 Y-60.62 E7.65194
G1 X-20.625 Y-61.091 E7.68275
G1 X-21.047 Y-61.537 E7.70506
G1 X-21.285 Y-61.892 E7.72059
G1 X-21.6 Y-62.628 E7.74967
G1 X-21.721 Y-63.448 E7.77979
G1 X-21.622 Y-64.281 E7.81027
G1 X-21.504 Y-64.652 E7.82442
G1 X-21.211 Y-65.228 E7.8479
G1 X-20.957 Y-65.57 E7.86338
G1 X-20.35 Y-66.123 E7.89321
G1 X-19.803 Y-66.429 E7.91599
G1 X-19.061 Y-66.652 E7.94414
G1 X-18.234 Y-66.685 E7.97421
G1 X-17.575 Y-66.555 E7.99862
G1 X-16.867 Y-66.239 E8.02679
G1 X-16.492 Y-65.974 E8.04347
G1 X-16.048 Y-65.53 E8.06629
G1 X-15.61 Y-64.83 E8.09629
G1 X-15.367 Y-64.066 E8.12542
G1 X-15.332 Y-63.221 E8.15615
G1 X-15.443 Y-62.617 E8.17847
G1 X-15.589 Y-62.215 E8.19401
G1 X-16.007 Y-61.517 E8.22357
G1 X-16.289 Y-61.205 E8.23885
G1 X-16.78 Y-60.814 E8.26165
G1 X-17.5 Y-60.464 E8.29074
G0 F3600 X-17.372 Y-60.081
G1 F1200 X-18.312 Y-59.903 E8.3255
G1 X-19.214 Y-59.961 E8.35835
G1 X-20.1 Y-60.259 E8.39231
G1 X-20.885 Y-60.784 E8.42663
G1 X-21.338 Y-61.262 E8.45055
G1 X-21.653 Y-61.735 E8.4712
G1 X-21.988 Y-62.519 E8.50218
G1 X-22.124 Y-63.441 E8.53604
G1 X-22.014 Y-64.368 E8.56996
G1 X-21.861 Y-64.833 E8.58775
G1 X-21.568 Y-65.409 E8.61123
G1 X-21.226 Y-65.866 E8.63197
G1 X-20.586 Y-66.449 E8.66343
G1 X-19.96 Y-66.8 E8.68951
G1 X-19.126 Y-67.05 E8.72114
G1 X-18.206 Y-67.087 E8.7546
G1 X-17.452 Y-66.938 E8.78252
G1 X-16.664 Y-66.586 E8.81388
G1 X-16.209 Y-66.257 E8.83428
G1 X-15.734 Y-65.782 E8.85869
G1 X-15.244 Y-65 E8.89222
G1 X-14.969 Y-64.134 E8.92524
G1 X-14.93 Y-63.195 E8.95938
G1 X-15.067 Y-62.48 E8.98584
G1 X-15.246 Y-62.009 E9.00414
G1 X-15.685 Y-61.276 E9.03519
G1 X-16.04 Y-60.892 E9.05419
G1 X-16.567 Y-60.473 E9.07865
G1 X-17.372 Y-60.081 E9.11119
;MESH:K??rper1(1)
G0 F3600 X-17.703 Y-61.064
G0 X-17.411 Y-61.84
;TYPE:WALL-INNER
G1 F1800 X-16.966 Y-62.245 E9.13305
G1 X-16.668 Y-62.748 E9.15429
G1 X-16.533 Y-63.32 E9.17565
G1 X-16.56 Y-63.848 E9.19486
G1 X-16.714 Y-64.342 E9.21366
G1 X-16.994 Y-64.785 E9.2327
G1 X-17.452 Y-65.184 E9.25477
G1 X-17.962 Y-65.412 E9.27507
G1 X-18.307 Y-65.48 E9.28785
G1 X-18.84 Y-65.464 E9.30722
G1 X-19.347 Y-65.311 E9.32647
G1 X-19.65 Y-65.139 E9.33913
G1 X-20.068 Y-64.752 E9.35982
G1 X-20.379 Y-64.214 E9.3824
G1 X-20.445 Y-64.008 E9.39026
G1 X-20.507 Y-63.467 E9.41005
G1 X-20.433 Y-62.95 E9.42903
G1 X-20.219 Y-62.452 E9.44872
G1 X-19.835 Y-62.001 E9.47024
G1 X-19.388 Y-61.708 E9.48966
G1 X-18.902 Y-61.546 E9.50828
G1 X-18.384 Y-61.511 E9.52714
G1 X-18.094 Y-61.567 E9.53787
G0 F1620 X-17.882 Y-61.608
G0 X-17.411 Y-61.84
G0 F3600 X-16.441 Y-63.314
G0 X-16.131 Y-63.293
G1 F1800 X-16.162 Y-63.92 E9.56068
G1 X-16.349 Y-64.512 E9.58324
G1 X-16.682 Y-65.039 E9.60589
G1 X-17.018 Y-65.365 E9.6229
G1 X-17.252 Y-65.532 E9.63335
G1 X-17.84 Y-65.796 E9.65677
G1 X-18.274 Y-65.882 E9.67284
G1 X-18.906 Y-65.862 E9.69582
G1 X-19.505 Y-65.681 E9.71855
G1 X-19.887 Y-65.464 E9.73452
G1 X-20.368 Y-65.019 E9.75833
G1 X-20.538 Y-64.786 E9.76881
G1 X-20.751 Y-64.367 E9.78589
G1 X-20.838 Y-64.093 E9.79633
G1 X-20.911 Y-63.461 E9.81945
G1 X-20.821 Y-62.841 E9.84221
G1 X-20.571 Y-62.259 E9.86523
G1 X-20.416 Y-62.031 E9.87524
G1 X-20.093 Y-61.692 E9.89226
G1 X-19.564 Y-61.345 E9.91525
G1 X-18.98 Y-61.15 E9.93762
G1 X-18.358 Y-61.108 E9.96027
G1 X-17.753 Y-61.226 E9.98267
G1 X-17.194 Y-61.501 E10.0053
G1 X-16.835 Y-61.793 E10.02212
G1 X-16.642 Y-62.006 E10.03256
G1 X-16.306 Y-62.576 E10.0566
G0 F1620 X-16.304 Y-62.579
G0 X-16.215 Y-62.834
G0 X-16.131 Y-63.293
G0 F3600 X-16.442 Y-63.315
G0 X-17.852 Y-61.524
G0 X-17.625 Y-60.844
M104 S202
;TYPE:WALL-OUTER
G1 F1800 X-16.977 Y-61.162 E10.08283
G1 X-16.559 Y-61.502 E10.10241
G1 X-16.318 Y-61.768 E10.11545
G1 X-15.939 Y-62.409 E10.14251
G1 X-15.827 Y-62.732 E10.15493
G1 X-15.729 Y-63.266 E10.17466
G1 X-15.764 Y-63.992 E10.20106
G1 X-15.983 Y-64.682 E10.22737
G1 X-16.369 Y-65.293 E10.25363
G1 X-16.761 Y-65.673 E10.27347
G1 X-17.052 Y-65.881 E10.28646
G1 X-17.718 Y-66.18 E10.31299
G1 X-18.241 Y-66.283 E10.33236
G1 X-18.971 Y-66.26 E10.35889
G1 X-19.664 Y-66.051 E10.38519
G1 X-20.125 Y-65.789 E10.40446
G1 X-20.669 Y-65.286 E10.43138
G1 X-20.88 Y-64.995 E10.44444
G1 X-21.122 Y-64.519 E10.46385
G1 X-21.231 Y-64.177 E10.47689
G1 X-21.314 Y-63.455 E10.50329
G1 X-21.209 Y-62.731 E10.52988
G1 X-20.923 Y-62.065 E10.55621
G1 X-20.728 Y-61.779 E10.56879
G1 X-20.351 Y-61.383 E10.58866
G1 X-19.74 Y-60.982 E10.61521
G1 X-19.057 Y-60.754 E10.64137
G1 X-18.353 Y-60.707 E10.66701
G0 F1620 X-18.333 Y-60.706
G0 X-17.625 Y-60.844
G0 F3600 X-17.446 Y-60.932
G0 X-17.756 Y-61.572
G0 X-18.779 Y-65.085
;TYPE:SKIN
G1 F1500 X-18.334 Y-65.099 E10.68319
G1 X-18.074 Y-65.044 E10.69284
G1 X-17.653 Y-64.857 E10.70958
G1 X-17.286 Y-64.536 E10.7273
G1 X-17.06 Y-64.179 E10.74265
G1 X-16.939 Y-63.78 E10.7578
G1 X-16.914 Y-63.346 E10.7736
G1 X-17.02 Y-62.9 E10.79025
G1 X-17.271 Y-62.473 E10.80825
G1 X-17.621 Y-62.16 E10.82531
G1 X-18.002 Y-61.971 E10.84076
G1 X-18.405 Y-61.89 E10.8557
G1 X-18.828 Y-61.922 E10.87111
G1 X-19.215 Y-62.05 E10.88592
G1 X-19.586 Y-62.296 E10.9021
G1 X-19.884 Y-62.644 E10.91875
G1 X-20.061 Y-63.048 E10.93477
G1 X-20.121 Y-63.469 E10.95022
G1 X-20.02 Y-64.075 E10.97255
G1 X-19.773 Y-64.501 E10.99044
G1 X-19.416 Y-64.833 E11.00815
G1 X-19.196 Y-64.959 E11.01736
G1 X-18.779 Y-65.085 E11.03319
G0 F3600 X-17.414 Y-64.366
G1 F1500 X-17.546 Y-64.498 E11.03998
G0 F3600 X-18.507 Y-64.893
G1 F1500 X-17.123 Y-63.509 E11.11109
G0 F3600 X-17.198 Y-63.018
G1 F1500 X-18.991 Y-64.811 E11.20323
G0 F3600 X-19.358 Y-64.613
G1 F1500 X-17.398 Y-62.653 E11.30394
G0 F3600 X-17.684 Y-62.373
G1 F1500 X-19.641 Y-64.33 E11.4045
G0 F3600 X-19.836 Y-63.96
G1 F1500 X-18.048 Y-62.172 E11.49638
G0 F3600 X-18.543 Y-62.101
G1 F1500 X-19.918 Y-63.476 E11.56704
G1 X-19.988 Y-63.546
;MESH:NONMESH
G0 F600 X-19.988 Y-63.546 Z0.48
G0 F3600 X-18.747 Y-63.353
;TIME_ELAPSED:17.430198
;LAYER:1
;note -- min layer time used
M106 S255
;TYPE:WALL-INNER
;MESH:K??rper1(1)
G1 F510.6 X-18.717 Y-62.996 E11.58403
G1 F603 X-18.717 Y-62.368 E11.60926
G1 X-18.319 Y-62.38 E11.62525
G1 F588.2 X-18.319 Y-63.107 E11.65519
G1 F500 X-18.289 Y-63.353 E11.6672
G1 F442.8 X-18.16 Y-63.496 E11.67773
G1 X-18.289 Y-63.639 E11.68827
G1 F508.5 X-18.318 Y-63.944 E11.70286
G1 F600 X-18.319 Y-64.62 E11.73016
G1 F603 X-18.717 Y-64.619 E11.74614
G1 F600 X-18.718 Y-63.944 E11.77339
G1 F508.5 X-18.747 Y-63.639 E11.78799
G1 F442.8 X-18.876 Y-63.496 E11.79853
G1 X-18.747 Y-63.353 E11.80906
G0 F5400 X-18.212 Y-64.701
G0 X-17.92 Y-64.907
;TYPE:WALL-OUTER
G1 F600 X-18.277 Y-65.026 E11.82425
G1 X-18.504 Y-65.046 E11.83345
G1 X-18.885 Y-65 E11.84895
G1 X-19.116 Y-64.916 E11.85887
G1 X-19.116 Y-63.978 E11.89674
G1 X-19.146 Y-63.889 E11.90053
G1 F533.3 X-19.316 Y-63.746 E11.91062
G1 F480 X-19.981 Y-63.746 E11.94418
G1 X-20.011 Y-63.574 E11.95299
G1 X-19.971 Y-63.246 E11.96967
G1 X-19.316 Y-63.246 E12.00272
G1 F533.3 X-19.146 Y-63.103 E12.01281
G1 F600 X-19.116 Y-62.996 E12.0173
G1 X-19.116 Y-62.079 E12.05432
G1 X-18.659 Y-61.954 E12.07345
G1 X-18.148 Y-61.994 E12.09414
G1 X-17.92 Y-62.079 E12.10396
G1 X-17.92 Y-62.996 E12.14098
G1 X-17.89 Y-63.103 E12.14547
G1 F532.2 X-17.742 Y-63.246 E12.15484
G1 F478.1 X-17.051 Y-63.246 E12.18985
G1 F479 X-17.021 Y-63.418 E12.19868
G1 X-17.061 Y-63.746 E12.21539
G1 F478.1 X-17.742 Y-63.746 E12.24989
G1 F532.2 X-17.89 Y-63.889 E12.25926
G1 F600 X-17.92 Y-63.978 E12.26305
G1 X-17.92 Y-64.24 E12.27363
G0 F1890 X-17.92 Y-64.907
G0 F5400 X-18.109 Y-64.97
;MESH:NONMESH
G0 F600 X-18.109 Y-64.97 Z0.72
G0 F5400 X-18.206 Y-64.68
G0 X-18.837 Y-63.479
G0 X-18.876 Y-63.496
;TIME_ELAPSED:19.370107
;LAYER:2
;note -- min layer time used
;TYPE:WALL-INNER
;MESH:K??rper1(1)
G1 F442.8 X-18.747 Y-63.353 E12.28416
G1 F510.6 X-18.717 Y-62.996 E12.30116
G1 F603 X-18.717 Y-62.381 E12.32586
G1 X-18.319 Y-62.375 E12.34185
G1 F588.2 X-18.319 Y-63.107 E12.372
G1 F500 X-18.289 Y-63.353 E12.384
G1 F442.8 X-18.16 Y-63.496 E12.39454
G1 X-18.289 Y-63.639 E12.40507
G1 F508.5 X-18.318 Y-63.944 E12.41967
G1 F600 X-18.319 Y-64.608 E12.44648
G1 F603 X-18.537 Y-64.644 E12.45535
G1 X-18.717 Y-64.618 E12.46266
G1 F600 X-18.718 Y-63.944 E12.48987
G1 F508.5 X-18.747 Y-63.639 E12.50446
G1 F442.8 X-18.876 Y-63.496 E12.515
G0 F7200 X-18.837 Y-63.479
G0 X-17.92 Y-63.978
;TYPE:WALL-OUTER
G1 F600 X-17.92 Y-64.92 E12.55303
G1 X-18.521 Y-65.046 E12.57782
G1 X-18.751 Y-65.026 E12.58714
G1 X-19.116 Y-64.907 E12.60264
G1 X-19.116 Y-63.978 E12.64015
G1 X-19.146 Y-63.889 E12.64394
G1 F533.3 X-19.316 Y-63.746 E12.65403
G1 F480 X-19.983 Y-63.746 E12.68769
G1 X-20.011 Y-63.571 E12.69663
G1 X-19.971 Y-63.246 E12.71316
G1 X-19.316 Y-63.246 E12.74621
G1 F533.3 X-19.146 Y-63.103 E12.7563
G1 F600 X-19.116 Y-62.996 E12.76079
G1 X-19.116 Y-62.08 E12.79777
G1 X-18.884 Y-61.994 E12.80776
G1 X-18.392 Y-61.954 E12.82769
G1 X-17.92 Y-62.074 E12.84735
G1 X-17.92 Y-62.996 E12.88457
G1 X-17.89 Y-63.103 E12.88906
G1 F532.2 X-17.742 Y-63.246 E12.89843
G1 F479 X-17.052 Y-63.247 E12.93332
G1 F480 X-17.021 Y-63.426 E12.94249
G1 X-17.061 Y-63.746 E12.95876
G1 F479 X-17.375 Y-63.746 E12.97464
G0 F2160 X-17.742 Y-63.746
G0 X-17.89 Y-63.889
G0 X-17.92 Y-63.978
G0 F7200 X-17.92 Y-64.178
;MESH:NONMESH
G0 F600 X-17.92 Y-64.178 Z0.96
G0 F7200 X-18.231 Y-64.178
