;FLAVOR:Marlin
;TIME:2956
;Filament used: 3.0515m
;Layer height: 0.24
;MINX:-26.292
;MINY:-24.541
;MINZ:0.3
;MAXX:26.299
;MAXY:9.999
;MAXZ:23.86
;Generated with Cura_SteamEngine 4.13.1
M140 S50
M105
M190 S50
M104 S215
M105
M109 S215
M82 ;absolute extrusion mode
;FLAVOR:Marlin
M82 ;absolute extrusion mode
G21
G90
M82
M107 T0
G28
G92 E0
G0 E3 F200
G92 E0 ; reset extrusion distance
M106 S255 ; Enable cooling fan full speed
G1 X-98 Y0 Z0.4 F3000 ; move to arc start
G3 X0 Y-98 I98 Z0.4 E40 F400 ; lay arc stripe 90deg
G92 E0 ; reset extrusion distance
G4 P500 ; wait for 0.5 sec
G0 Z10 E-1 ; Lift 15mm and retract 1mm filament
G4 P2000 ; wait for 5 sec
G0 Z15
M107 ; Disable cooling fan
G1 X0 Y-85 Z4 E0 F3000 ; get off the bed
G92 E0
G92 E0
G1 F1500 E-6.5
;LAYER_COUNT:96
;LAYER:0
M106 S25.5
G1 F600 Z1.3
G0 F3600 X8.65 Y-2.766 Z1.3
;TYPE:SKIRT
G1 F600 Z0.3
G1 F1500 E0.3326
G1 X8.808 Y-3.316 E0.36115
G1 X9.066 Y-4.046 E0.39978
G1 X9.316 Y-4.624 E0.4312
G1 X9.662 Y-5.301 E0.46913
G1 X9.924 Y-5.739 E0.49459
G1 X10.259 Y-6.238 E0.52458
G1 X10.733 Y-6.846 E0.56304
G1 X11.159 Y-7.319 E0.5948
G1 X11.707 Y-7.841 E0.63255
G1 X12.194 Y-8.24 E0.66396
G1 X12.813 Y-8.673 E0.70165
G1 X13.36 Y-8.994 E0.73329
G1 X14.051 Y-9.328 E0.77158
G1 X14.669 Y-9.565 E0.80461
G1 X15.406 Y-9.775 E0.84284
G1 X16.007 Y-9.895 E0.87341
G1 X16.76 Y-9.981 E0.91123
G1 X17.406 Y-9.999 E0.94347
G1 X18.163 Y-9.954 E0.9813
G1 X18.78 Y-9.864 E1.01241
G1 X19.529 Y-9.689 E1.05078
G1 X20.141 Y-9.49 E1.08289
G1 X20.83 Y-9.202 E1.12015
G1 X21.402 Y-8.904 E1.15232
G1 X22.037 Y-8.507 E1.18969
G1 X22.548 Y-8.13 E1.22137
G1 X23.129 Y-7.626 E1.25974
G1 X23.562 Y-7.19 E1.2904
G1 X24.074 Y-6.592 E1.32967
G1 X24.436 Y-6.101 E1.36011
G1 X24.858 Y-5.438 E1.39931
G1 X25.146 Y-4.905 E1.42954
G1 X25.479 Y-4.183 E1.46921
G1 X25.697 Y-3.604 E1.50007
G1 X25.926 Y-2.857 E1.53905
G1 X26.068 Y-2.259 E1.56972
G1 X26.205 Y-1.447 E1.6108
G1 X26.266 Y-.867 E1.6399
G1 X26.299 Y-0.058 E1.68029
G1 X26.286 Y0.527 E1.70948
G1 X26.219 Y1.343 E1.75033
G1 X26.132 Y1.933 E1.78008
G1 X25.955 Y2.746 E1.8216
G1 X25.8 Y3.292 E1.84991
G1 X25.526 Y4.065 E1.89083
G1 X25.279 Y4.633 E1.92173
G1 X24.931 Y5.311 E1.95975
G1 X24.673 Y5.744 E1.9849
G1 X24.35 Y6.225 E2.0138
G1 X23.857 Y6.859 E2.05387
G1 X23.457 Y7.302 E2.08365
G1 X22.877 Y7.854 E2.12359
G1 X22.406 Y8.239 E2.15394
G1 X21.772 Y8.682 E2.19253
G1 X21.223 Y9.003 E2.22426
G1 X20.547 Y9.329 E2.2617
G1 X19.931 Y9.565 E2.29461
G1 X19.194 Y9.775 E2.33285
G1 X18.593 Y9.895 E2.36342
G1 X17.84 Y9.981 E2.40123
G1 X17.194 Y9.999 E2.43347
G1 X16.437 Y9.954 E2.47131
G1 X15.82 Y9.864 E2.50242
G1 X15.071 Y9.689 E2.54079
G1 X14.455 Y9.489 E2.5731
G1 X13.776 Y9.204 E2.60984
G1 X13.197 Y8.905 E2.64235
G1 X12.576 Y8.517 E2.67888
G1 X12.057 Y8.133 E2.71109
G1 X11.464 Y7.619 E2.75024
G1 X11.033 Y7.187 E2.78069
G1 X10.52 Y6.586 E2.82011
G1 X10.168 Y6.108 E2.84973
G1 X9.743 Y5.44 E2.88923
G1 X9.456 Y4.911 E2.91925
G1 X9.116 Y4.167 E2.96006
G1 X8.906 Y3.612 E2.98967
G1 X8.668 Y2.838 E3.03007
G1 X8.65 Y2.766 E3.03377
G1 X8.5 Y3.292 E3.06106
G1 X8.226 Y4.065 E3.10197
G1 X7.979 Y4.633 E3.13288
G1 X7.631 Y5.311 E3.1709
G1 X7.373 Y5.744 E3.19604
G1 X7.05 Y6.225 E3.22495
G1 X6.557 Y6.859 E3.26502
G1 X6.157 Y7.302 E3.29479
G1 X5.577 Y7.854 E3.33474
G1 X5.106 Y8.239 E3.36509
G1 X4.472 Y8.682 E3.40368
G1 X3.923 Y9.003 E3.43541
G1 X3.247 Y9.329 E3.47285
G1 X2.631 Y9.565 E3.50576
G1 X1.894 Y9.775 E3.54399
G1 X1.293 Y9.895 E3.57457
G1 X0.54 Y9.981 E3.61238
G1 X-.106 Y9.999 E3.64462
G1 X-.863 Y9.954 E3.68245
G1 X-1.48 Y9.864 E3.71356
G1 X-2.229 Y9.689 E3.75194
G1 X-2.845 Y9.489 E3.78425
G1 X-3.524 Y9.204 E3.82099
G1 X-4.103 Y8.905 E3.8535
G1 X-4.724 Y8.517 E3.89003
G1 X-5.243 Y8.133 E3.92224
G1 X-5.836 Y7.619 E3.96139
G1 X-6.267 Y7.187 E3.99184
G1 X-6.78 Y6.586 E4.03126
G1 X-7.132 Y6.108 E4.06087
G1 X-7.557 Y5.44 E4.10037
G1 X-7.844 Y4.911 E4.1304
G1 X-8.184 Y4.167 E4.17121
G1 X-8.394 Y3.612 E4.20081
G1 X-8.632 Y2.838 E4.24121
G1 X-8.65 Y2.766 E4.24492
G1 X-8.8 Y3.292 E4.27221
G1 X-9.074 Y4.065 E4.31312
G1 X-9.321 Y4.633 E4.34402
G1 X-9.669 Y5.311 E4.38204
G1 X-9.927 Y5.744 E4.40719
G1 X-10.25 Y6.225 E4.4361
G1 X-10.743 Y6.859 E4.47616
G1 X-11.143 Y7.302 E4.50594
G1 X-11.723 Y7.854 E4.54589
G1 X-12.194 Y8.239 E4.57624
G1 X-12.828 Y8.682 E4.61482
G1 X-13.377 Y9.003 E4.64655
G1 X-14.053 Y9.329 E4.684
G1 X-14.669 Y9.565 E4.71691
G1 X-15.406 Y9.775 E4.75514
G1 X-16.007 Y9.895 E4.78571
G1 X-16.76 Y9.981 E4.82353
G1 X-17.406 Y9.999 E4.85577
G1 X-18.163 Y9.954 E4.8936
G1 X-18.78 Y9.864 E4.92471
G1 X-19.529 Y9.689 E4.96308
G1 X-20.145 Y9.489 E4.99539
G1 X-20.824 Y9.204 E5.03213
G1 X-21.403 Y8.905 E5.06464
G1 X-22.024 Y8.517 E5.10118
G1 X-22.543 Y8.133 E5.13339
G1 X-23.136 Y7.619 E5.17254
G1 X-23.567 Y7.187 E5.20298
G1 X-24.08 Y6.586 E5.2424
G1 X-24.432 Y6.108 E5.27202
G1 X-24.857 Y5.44 E5.31152
G1 X-25.144 Y4.911 E5.34155
G1 X-25.484 Y4.167 E5.38236
G1 X-25.694 Y3.612 E5.41196
G1 X-25.932 Y2.838 E5.45236
G1 X-26.06 Y2.289 E5.48049
G1 X-26.155 Y1.794 E5.50563
G1 X-26.255 Y0.996 E5.54576
G1 X-26.291 Y0.414 E5.57485
G1 X-26.292 Y-.406 E5.61576
G1 X-26.255 Y-1.006 E5.64575
G1 X-26.15 Y-1.819 E5.68665
G1 X-26.039 Y-2.394 E5.71586
G1 X-25.833 Y-3.185 E5.75664
G1 X-25.647 Y-3.745 E5.78608
G1 X-25.343 Y-4.495 E5.82646
G1 X-25.086 Y-5.024 E5.8558
G1 X-24.676 Y-5.739 E5.89692
G1 X-24.341 Y-6.238 E5.9269
G1 X-23.867 Y-6.846 E5.96536
G1 X-23.441 Y-7.319 E5.99712
G1 X-22.893 Y-7.841 E6.03488
G1 X-22.406 Y-8.24 E6.06629
G1 X-21.787 Y-8.673 E6.10398
G1 X-21.24 Y-8.994 E6.13562
G1 X-20.549 Y-9.328 E6.17391
G1 X-19.931 Y-9.565 E6.20693
G1 X-19.194 Y-9.775 E6.24516
G1 X-18.593 Y-9.895 E6.27574
G1 X-17.84 Y-9.981 E6.31355
G1 X-17.194 Y-9.999 E6.34579
G1 X-16.437 Y-9.954 E6.38363
G1 X-15.82 Y-9.864 E6.41473
G1 X-15.47 Y-9.791 E6.43257
G1 X-15.923 Y-10.323 E6.46743
G1 X-16.281 Y-10.808 E6.49751
G1 X-16.69 Y-11.464 E6.53607
G1 X-16.986 Y-12.042 E6.56847
G1 X-17.278 Y-12.749 E6.60663
G1 X-17.472 Y-13.358 E6.63852
G1 X-17.636 Y-14.074 E6.67517
G1 X-17.729 Y-14.734 E6.70842
G1 X-17.77 Y-15.462 E6.7448
G1 X-17.751 Y-16.096 E6.77644
G1 X-17.662 Y-16.864 E6.81502
G1 X-17.535 Y-17.489 E6.84683
G1 X-17.317 Y-18.225 E6.88513
G1 X-17.095 Y-18.797 E6.91574
G1 X-16.768 Y-19.48 E6.95352
G1 X-16.45 Y-20.019 E6.98474
G1 X-16.001 Y-20.661 E7.02383
G1 X-15.605 Y-21.142 E7.05491
G1 X-15.067 Y-21.704 E7.09373
G1 X-14.617 Y-22.108 E7.1239
G1 X-13.99 Y-22.595 E7.16351
G1 X-13.485 Y-22.933 E7.19382
G1 X-12.804 Y-23.323 E7.23298
G1 X-12.268 Y-23.583 E7.2627
G1 X-11.803 Y-23.781 E7.28791
G1 X-11.076 Y-24.038 E7.32638
G1 X-10.487 Y-24.204 E7.35691
G1 X-9.715 Y-24.37 E7.39631
G1 X-9.108 Y-24.461 E7.42693
G1 X-8.291 Y-24.528 E7.46783
G1 X-7.697 Y-24.541 E7.49747
G1 X-6.911 Y-24.509 E7.53671
G1 X-6.291 Y-24.443 E7.56782
G1 X-5.513 Y-24.31 E7.6072
G1 X-4.931 Y-24.171 E7.63705
G1 X-4.128 Y-23.925 E7.67895
G1 X-3.587 Y-23.719 E7.70783
G1 X-2.842 Y-23.376 E7.74875
G1 X-2.333 Y-23.099 E7.77766
G1 X-1.655 Y-22.668 E7.81774
G1 X-1.162 Y-22.303 E7.84835
G1 X-.572 Y-21.795 E7.88719
G1 X-.137 Y-21.363 E7.91777
G1 X0.369 Y-20.778 E7.95636
G1 X0.734 Y-20.283 E7.98705
G1 X1.147 Y-19.622 E8.02593
G1 X1.439 Y-19.053 E8.05784
G1 X1.733 Y-18.347 E8.09599
G1 X1.932 Y-17.721 E8.12876
G1 X2.094 Y-17.02 E8.16466
G1 X2.169 Y-16.521 E8.18983
G1 X2.22 Y-15.908 E8.22052
G1 X2.219 Y-15.148 E8.25844
G1 X2.162 Y-14.498 E8.29099
G1 X2.033 Y-13.762 E8.32827
G1 X1.869 Y-13.142 E8.36027
G1 X1.614 Y-12.429 E8.39805
G1 X1.359 Y-11.863 E8.42902
G1 X0.984 Y-11.185 E8.46767
G1 X0.65 Y-10.68 E8.49788
G1 X0.172 Y-10.065 E8.53674
G1 X0.115 Y-9.999 E8.54109
G1 X0.863 Y-9.954 E8.57847
G1 X1.48 Y-9.864 E8.60958
G1 X2.229 Y-9.689 E8.64796
G1 X2.841 Y-9.49 E8.68006
G1 X3.53 Y-9.202 E8.71732
G1 X4.102 Y-8.904 E8.7495
G1 X4.737 Y-8.507 E8.78686
G1 X5.248 Y-8.13 E8.81854
G1 X5.829 Y-7.626 E8.85691
G1 X6.262 Y-7.19 E8.88757
G1 X6.774 Y-6.592 E8.92685
G1 X7.136 Y-6.101 E8.95728
G1 X7.558 Y-5.438 E8.99649
G1 X7.846 Y-4.905 E9.02671
G1 X8.179 Y-4.183 E9.06638
G1 X8.397 Y-3.604 E9.09725
G1 X8.626 Y-2.857 E9.13623
G1 X8.65 Y-2.766 E9.14092
G0 F3600 X8.271 Y-2.635
G1 F1500 X8.44 Y-1.843 E9.18132
G1 X8.522 Y-1.287 E9.20936
G1 X8.588 Y-.5 E9.24876
G1 X8.599 Y0.064 E9.27691
G1 X8.566 Y0.846 E9.31596
G1 X8.508 Y1.404 E9.34395
G1 X8.373 Y2.2 E9.38423
G1 X8.239 Y2.758 E9.41286
G1 X8.012 Y3.495 E9.45133
G1 X7.806 Y4.037 E9.48026
G1 X7.48 Y4.743 E9.51905
G1 X7.209 Y5.243 E9.54743
G1 X6.8 Y5.885 E9.5854
G1 X6.454 Y6.352 E9.6144
G1 X5.961 Y6.927 E9.65219
G1 X5.547 Y7.342 E9.68143
G1 X4.965 Y7.842 E9.71971
G1 X4.513 Y8.176 E9.74775
G1 X3.872 Y8.575 E9.78542
G1 X3.345 Y8.847 E9.81501
G1 X2.663 Y9.13 E9.85185
G1 X2.084 Y9.314 E9.88216
G1 X1.39 Y9.473 E9.91768
G1 X0.794 Y9.557 E9.94771
G1 X0.058 Y9.599 E9.98449
G1 X-.531 Y9.581 E10.01388
G1 X-1.257 Y9.497 E10.05035
G1 X-1.846 Y9.377 E10.08034
G1 X-2.549 Y9.17 E10.1169
G1 X-3.097 Y8.957 E10.14623
G1 X-3.76 Y8.638 E10.18294
G1 X-4.253 Y8.347 E10.2115
G1 X-4.887 Y7.904 E10.25008
G1 X-5.331 Y7.538 E10.27879
G1 X-5.87 Y7.023 E10.31598
G1 X-6.262 Y6.588 E10.3452
G1 X-6.733 Y5.98 E10.38357
G1 X-7.045 Y5.514 E10.41155
G1 X-7.431 Y4.84 E10.4503
G1 X-7.682 Y4.323 E10.47897
G1 X-7.982 Y3.578 E10.51904
G1 X-8.154 Y3.059 E10.54632
G1 X-8.352 Y2.284 E10.58622
G1 X-8.459 Y1.737 E10.61403
G1 X-8.557 Y0.954 E10.6534
G1 X-8.591 Y0.404 E10.68089
G1 X-8.592 Y-.398 E10.7209
G1 X-8.557 Y-.963 E10.74914
G1 X-8.454 Y-1.759 E10.78919
G1 X-8.349 Y-2.302 E10.81678
G1 X-8.148 Y-3.075 E10.85663
G1 X-7.972 Y-3.605 E10.88449
G1 X-7.676 Y-4.336 E10.92384
G1 X-7.433 Y-4.835 E10.95153
G1 X-7.035 Y-5.53 E10.99148
G1 X-6.72 Y-5.999 E11.01967
G1 X-6.257 Y-6.594 E11.05728
G1 X-5.858 Y-7.036 E11.08699
G1 X-5.76 Y-7.134 E11.0939
G1 X-6.368 Y-7.035 E11.12464
G1 X-6.939 Y-6.973 E11.15329
G1 X-7.727 Y-6.943 E11.19263
G1 X-8.267 Y-6.954 E11.21958
G1 X-9.079 Y-7.022 E11.26023
G1 X-9.633 Y-7.104 E11.28817
G1 X-10.423 Y-7.275 E11.3285
G1 X-10.94 Y-7.422 E11.35531
G1 X-11.702 Y-7.693 E11.39566
G1 X-12.224 Y-7.92 E11.42406
G1 X-12.899 Y-8.268 E11.46195
G1 X-13.408 Y-8.575 E11.4916
G1 X-14.02 Y-9.008 E11.52901
G1 X-14.466 Y-9.373 E11.55776
G1 X-15.015 Y-9.892 E11.59545
G1 X-15.412 Y-10.33 E11.62494
G1 X-15.869 Y-10.918 E11.6621
G1 X-16.188 Y-11.4 E11.69093
G1 X-16.564 Y-12.086 E11.72996
G1 X-16.793 Y-12.6 E11.75804
G1 X-17.042 Y-13.309 E11.79553
G1 X-17.19 Y-13.883 E11.8251
G1 X-17.314 Y-14.617 E11.86224
G1 X-17.361 Y-15.18 E11.89042
G1 X-17.361 Y-15.92 E11.92734
G1 X-17.307 Y-16.527 E11.95774
G1 X-17.182 Y-17.241 E11.99391
G1 X-17.03 Y-17.816 E12.02358
G1 X-16.779 Y-18.516 E12.06068
G1 X-16.553 Y-19.022 E12.08833
G1 X-16.176 Y-19.702 E12.12712
G1 X-15.868 Y-20.169 E12.15503
G1 X-15.392 Y-20.777 E12.19355
G1 X-15.003 Y-21.204 E12.22237
G1 X-14.456 Y-21.719 E12.25985
G1 X-14.003 Y-22.089 E12.28903
G1 X-13.387 Y-22.522 E12.3266
G1 X-12.9 Y-22.815 E12.35495
G1 X-12.195 Y-23.176 E12.39447
G1 X-11.663 Y-23.406 E12.42338
G1 X-10.95 Y-23.659 E12.46113
G1 X-10.396 Y-23.814 E12.48983
G1 X-9.638 Y-23.978 E12.52852
G1 X-9.067 Y-24.063 E12.55732
G1 X-8.268 Y-24.128 E12.59732
G1 X-7.706 Y-24.141 E12.62536
G1 X-6.935 Y-24.109 E12.66386
G1 X-6.351 Y-24.047 E12.69316
G1 X-5.587 Y-23.917 E12.73182
G1 X-5.039 Y-23.786 E12.75993
G1 X-4.255 Y-23.546 E12.80084
G1 X-3.746 Y-23.352 E12.82802
G1 X-3.018 Y-23.017 E12.868
G1 X-2.54 Y-22.757 E12.89514
G1 X-1.877 Y-22.336 E12.93433
G1 X-1.415 Y-21.993 E12.96303
G1 X-.839 Y-21.498 E13.00092
G1 X-.433 Y-21.093 E13.02953
G1 X0.06 Y-20.524 E13.0671
G1 X0.401 Y-20.061 E13.09578
G1 X0.802 Y-19.419 E13.13355
G1 X1.074 Y-18.89 E13.16322
G1 X1.359 Y-18.203 E13.20033
G1 X1.545 Y-17.623 E13.23072
G1 X1.702 Y-16.94 E13.26568
G1 X1.789 Y-16.317 E13.29707
G1 X1.828 Y-15.612 E13.33229
G1 X1.81 Y-15.015 E13.36209
G1 X1.725 Y-14.277 E13.39915
G1 X1.607 Y-13.696 E13.42873
G1 X1.396 Y-12.983 E13.46583
G1 X1.189 Y-12.451 E13.49431
G1 X0.861 Y-11.771 E13.53197
G1 X0.567 Y-11.272 E13.56087
G1 X0.152 Y-10.677 E13.59706
G1 X-.225 Y-10.217 E13.62673
G1 X-.766 Y-9.654 E13.66569
G1 X-.881 Y-9.547 E13.67352
G1 X-.352 Y-9.591 E13.70001
G1 X0.384 Y-9.59 E13.73672
G1 X0.976 Y-9.538 E13.76637
G1 X1.7 Y-9.411 E13.80305
G1 X2.261 Y-9.263 E13.83199
G1 X2.97 Y-9.011 E13.86953
G1 X3.509 Y-8.767 E13.89905
G1 X4.15 Y-8.412 E13.93561
G1 X4.641 Y-8.087 E13.96498
G1 X5.224 Y-7.632 E14.00188
G1 X5.656 Y-7.238 E14.03105
G1 X6.171 Y-6.694 E14.06842
G1 X6.542 Y-6.239 E14.09771
G1 X6.988 Y-5.604 E14.13642
G1 X7.28 Y-5.118 E14.16471
G1 X7.635 Y-4.426 E14.20351
G1 X7.858 Y-3.91 E14.23156
G1 X8.124 Y-3.152 E14.27163
G1 X8.271 Y-2.635 E14.29845
G0 F3600 X7.882 Y-2.542
G1 F1500 X8.047 Y-1.768 E14.33793
G1 X8.125 Y-1.244 E14.36436
G1 X8.189 Y-.476 E14.40281
G1 X8.199 Y0.055 E14.42931
G1 X8.167 Y0.821 E14.46756
G1 X8.112 Y1.346 E14.49389
G1 X7.98 Y2.124 E14.53326
G1 X7.854 Y2.648 E14.56015
G1 X7.632 Y3.37 E14.59784
G1 X7.439 Y3.878 E14.62495
G1 X7.121 Y4.567 E14.66281
G1 X6.867 Y5.035 E14.68937
G1 X6.467 Y5.663 E14.72652
G1 X6.145 Y6.099 E14.75356
G1 X5.664 Y6.659 E14.79039
G1 X5.279 Y7.046 E14.81762
G1 X4.712 Y7.532 E14.85488
G1 X4.293 Y7.842 E14.88088
G1 X3.669 Y8.23 E14.91754
G1 X3.181 Y8.482 E14.94494
G1 X2.519 Y8.757 E14.98071
G1 X1.985 Y8.926 E15.00865
G1 X1.311 Y9.081 E15.04316
G1 X0.76 Y9.159 E15.07092
G1 X0.047 Y9.199 E15.10655
G1 X-.496 Y9.183 E15.13365
G1 X-1.2 Y9.101 E15.16901
G1 X-1.744 Y8.99 E15.19671
G1 X-2.426 Y8.79 E15.23217
G1 X-2.934 Y8.592 E15.25937
G1 X-3.577 Y8.282 E15.29498
G1 X-4.034 Y8.013 E15.32144
G1 X-4.648 Y7.583 E15.35883
G1 X-5.062 Y7.242 E15.38559
G1 X-5.588 Y6.741 E15.42183
G1 X-5.952 Y6.336 E15.449
G1 X-6.411 Y5.744 E15.48637
G1 X-6.702 Y5.307 E15.51257
G1 X-7.079 Y4.649 E15.5504
G1 X-7.314 Y4.165 E15.57724
G1 X-7.607 Y3.438 E15.61635
G1 X-7.769 Y2.951 E15.64195
G1 X-7.963 Y2.194 E15.68094
G1 X-8.063 Y1.68 E15.70707
G1 X-8.159 Y0.913 E15.74563
G1 X-8.191 Y0.395 E15.77152
G1 X-8.193 Y-.39 E15.81069
G1 X-8.159 Y-.92 E15.83718
G1 X-8.059 Y-1.7 E15.87642
G1 X-7.96 Y-2.21 E15.90234
G1 X-7.763 Y-2.966 E15.94131
G1 X-7.598 Y-3.464 E15.96749
G1 X-7.309 Y-4.178 E16.00591
G1 X-7.08 Y-4.647 E16.03195
G1 X-6.694 Y-5.321 E16.0707
G1 X-6.399 Y-5.761 E16.09713
G1 X-5.947 Y-6.341 E16.13382
G1 X-5.576 Y-6.752 E16.16144
G1 X-5.054 Y-7.25 E16.19743
G1 X-4.632 Y-7.596 E16.22466
G1 X-4.045 Y-8.006 E16.26038
G1 X-3.903 Y-8.099 E16.26885
G1 X-4.406 Y-7.908 E16.29569
G1 X-5.145 Y-7.683 E16.33423
G1 X-5.664 Y-7.559 E16.36085
G1 X-6.427 Y-7.431 E16.39945
G1 X-6.962 Y-7.373 E16.4263
G1 X-7.735 Y-7.342 E16.4649
G1 X-8.243 Y-7.354 E16.49025
G1 X-9.036 Y-7.42 E16.52995
G1 X-9.558 Y-7.497 E16.55627
G1 X-10.33 Y-7.664 E16.59568
G1 X-10.815 Y-7.802 E16.62084
G1 X-11.559 Y-8.067 E16.66024
G1 X-12.049 Y-8.28 E16.68689
G1 X-12.708 Y-8.619 E16.72387
G1 X-13.184 Y-8.907 E16.75162
G1 X-13.783 Y-9.33 E16.78821
G1 X-14.199 Y-9.67 E16.81501
G1 X-14.734 Y-10.176 E16.85175
G1 X-15.103 Y-10.583 E16.87916
G1 X-15.548 Y-11.155 E16.91531
G1 X-15.843 Y-11.603 E16.94208
G1 X-16.208 Y-12.267 E16.97988
G1 X-16.42 Y-12.743 E17.00587
G1 X-16.661 Y-13.431 E17.04224
G1 X-16.798 Y-13.962 E17.0696
G1 X-16.918 Y-14.673 E17.10558
G1 X-16.961 Y-15.193 E17.13161
G1 X-16.961 Y-15.907 E17.16723
G1 X-16.912 Y-16.469 E17.19537
G1 X-16.79 Y-17.161 E17.23043
G1 X-16.65 Y-17.692 E17.25783
G1 X-16.407 Y-18.371 E17.29381
G1 X-16.197 Y-18.84 E17.31944
G1 X-15.833 Y-19.498 E17.35696
G1 X-15.546 Y-19.931 E17.38288
G1 X-15.084 Y-20.522 E17.4203
G1 X-14.721 Y-20.92 E17.44718
G1 X-14.189 Y-21.422 E17.48367
G1 X-13.766 Y-21.767 E17.5109
G1 X-13.164 Y-22.189 E17.54758
