;FLAVOR:Marlin
;TIME:1273
;Filament used: 1.72069m
;Layer height: 0.24
;MINX:-9.455
;MINY:-14.807
;MINZ:0.3
;MAXX:25.355
;MAXY:14.807
;MAXZ:20.98
;Generated with Cura_SteamEngine 4.12.1
M140 S50
M105
M190 S50
M104 S210
M105
M109 S210
M82 ;absolute extrusion mode
;FLAVOR:Marlin
M82 ;absolute extrusion mode
G21
G90
M82
M107 T0
G28
G92 E0
G0 E3 F200
G92 E0 ; reset extrusion distance
M106 S255 ; Enable cooling fan full speed
G1 X-98 Y0 Z0.4 F3000 ; move to arc start
G3 X0 Y-98 I98 Z0.4 E40 F400 ; lay arc stripe 90deg
G92 E0 ; reset extrusion distance
G4 P500 ; wait for 0.5 sec
G0 Z10 E-1 ; Lift 15mm and retract 1mm filament
G4 P2000 ; wait for 5 sec
G0 Z15
M107 ; Disable cooling fan
G1 X0 Y-85 Z4 E0 F3000 ; get off the bed
G92 E0
G92 E0
G1 F1500 E-7
;LAYER_COUNT:84
;LAYER:0
M107
G1 F600 Z1.3
G0 F3600 X7.118 Y6.2 Z1.3
;TYPE:SKIRT
G1 F600 Z0.3
G1 F1500 E0.41575
G1 F2400 X6.572 Y6.777 E0.45538
G1 X6.192 Y7.125 E0.48109
G1 X5.516 Y7.664 E0.52422
G1 X5.059 Y7.974 E0.55178
G1 X4.355 Y8.383 E0.59239
G1 X3.901 Y8.606 E0.61763
G1 X3.14 Y8.912 E0.65855
G1 X2.637 Y9.076 E0.68495
G1 X1.848 Y9.269 E0.72547
G1 X1.306 Y9.362 E0.75291
G1 X0.565 Y9.436 E0.79006
G1 X-0.036 Y9.454 E0.82006
G1 X-.798 Y9.42 E0.85811
G1 X-1.34 Y9.357 E0.88533
G1 X-1.843 Y9.272 E0.91078
G1 X-2.598 Y9.089 E0.94954
G1 X-3.174 Y8.904 E0.97972
G1 X-3.898 Y8.611 E1.01869
G1 X-4.375 Y8.377 E1.0452
G1 X-5.068 Y7.977 E1.08512
G1 X-5.535 Y7.658 E1.11333
G1 X-6.158 Y7.165 E1.15297
G1 X-6.615 Y6.747 E1.18387
G1 X-7.145 Y6.183 E1.22248
G1 X-7.485 Y5.767 E1.24928
G1 X-7.952 Y5.107 E1.28962
G1 X-8.236 Y4.635 E1.3171
G1 X-8.596 Y3.93 E1.3566
G1 X-8.811 Y3.422 E1.38412
G1 X-9.067 Y2.674 E1.42356
G1 X-9.209 Y2.134 E1.45142
G1 X-9.353 Y1.381 E1.48966
G1 X-9.419 Y0.817 E1.51799
G1 X-9.455 Y0.029 E1.55735
G1 X-9.441 Y-.525 E1.585
G1 X-9.368 Y-1.289 E1.62329
G1 X-9.273 Y-1.853 E1.65182
G1 X-9.091 Y-2.607 E1.69052
G1 X-8.918 Y-3.149 E1.7189
G1 X-8.625 Y-3.88 E1.75819
G1 X-8.392 Y-4.361 E1.78486
G1 X-7.994 Y-5.056 E1.82481
G1 X-7.68 Y-5.521 E1.85281
G1 X-7.191 Y-6.144 E1.89232
G1 X-6.829 Y-6.546 E1.91931
G1 X-6.28 Y-7.074 E1.95731
G1 X-5.825 Y-7.453 E1.98685
G1 X-5.157 Y-7.932 E2.02786
G1 X-4.695 Y-8.216 E2.05492
G1 X-4.03 Y-8.566 E2.09241
G1 X-3.556 Y-8.772 E2.11819
G1 X-3.072 Y-8.954 E2.14399
G1 X-2.328 Y-9.177 E2.18274
G1 X-1.767 Y-9.301 E2.21141
G1 X-.94 Y-9.42 E2.25309
G1 X-0.086 Y-9.467 E2.29576
G1 X0.023 Y-9.468 E2.3012
G1 X0.786 Y-9.434 E2.3393
G1 X1.328 Y-9.371 E2.36653
G1 X1.831 Y-9.286 E2.39198
G1 X2.585 Y-9.104 E2.43067
G1 X3.062 Y-8.953 E2.45563
G1 X3.581 Y-8.757 E2.48331
G1 X4.282 Y-8.434 E2.52182
G1 X4.763 Y-8.17 E2.54919
G1 X5.438 Y-7.734 E2.58928
G1 X5.839 Y-7.433 E2.6143
G1 X6.264 Y-7.076 E2.64199
G1 X6.84 Y-6.521 E2.6819
G1 X7.196 Y-6.125 E2.70846
G1 X7.683 Y-5.5 E2.74799
G1 X7.97 Y-5.123 E2.77163
G1 X8.446 Y-5.792 E2.81259
G1 X8.782 Y-6.2 E2.83896
G1 X9.328 Y-6.777 E2.87859
G1 X9.719 Y-7.135 E2.90504
G1 X10.384 Y-7.664 E2.94744
G1 X10.841 Y-7.974 E2.97499
G1 X11.545 Y-8.383 E3.01561
G1 X11.999 Y-8.606 E3.04084
G1 X12.76 Y-8.912 E3.08176
G1 X13.263 Y-9.076 E3.10816
G1 X14.052 Y-9.269 E3.14868
G1 X14.594 Y-9.362 E3.17612
G1 X15.335 Y-9.436 E3.21327
G1 X15.935 Y-9.454 E3.24322
G1 X16.698 Y-9.42 E3.28132
G1 X17.24 Y-9.357 E3.30854
G1 X17.743 Y-9.272 E3.334
G1 X18.498 Y-9.089 E3.37275
G1 X19.074 Y-8.904 E3.40294
G1 X19.798 Y-8.611 E3.4419
G1 X20.275 Y-8.377 E3.46841
G1 X20.968 Y-7.977 E3.50833
G1 X21.435 Y-7.659 E3.53652
G1 X22.058 Y-7.165 E3.57618
G1 X22.514 Y-6.748 E3.60701
G1 X23.043 Y-6.186 E3.64552
G1 X23.393 Y-5.757 E3.67314
G1 X23.853 Y-5.105 E3.71295
G1 X24.135 Y-4.636 E3.74025
G1 X24.49 Y-3.942 E3.77914
G1 X24.712 Y-3.419 E3.80749
G1 X24.967 Y-2.675 E3.84673
G1 X25.109 Y-2.134 E3.87463
G1 X25.252 Y-1.383 E3.91277
G1 X25.319 Y-.817 E3.94121
G1 X25.355 Y-0.029 E3.98056
G1 X25.341 Y0.525 E4.00821
G1 X25.268 Y1.289 E4.0465
G1 X25.173 Y1.851 E4.07493
G1 X24.983 Y2.634 E4.11513
G1 X24.818 Y3.149 E4.14211
G1 X24.525 Y3.88 E4.1814
G1 X24.292 Y4.361 E4.20807
G1 X23.894 Y5.056 E4.24802
G1 X23.58 Y5.521 E4.27602
G1 X23.091 Y6.144 E4.31553
G1 X22.731 Y6.543 E4.34234
G1 X22.158 Y7.092 E4.38193
G1 X21.721 Y7.457 E4.41034
G1 X21.057 Y7.932 E4.45107
G1 X20.595 Y8.216 E4.47812
G1 X19.93 Y8.566 E4.51562
G1 X19.456 Y8.772 E4.5414
G1 X18.972 Y8.954 E4.5672
G1 X18.228 Y9.177 E4.60595
G1 X17.667 Y9.301 E4.63461
G1 X16.84 Y9.42 E4.6763
G1 X15.986 Y9.467 E4.71897
G1 X15.447 Y9.456 E4.74586
G1 X14.67 Y9.385 E4.78479
G1 X14.069 Y9.286 E4.81518
G1 X13.315 Y9.104 E4.85387
G1 X12.838 Y8.953 E4.87884
G1 X12.319 Y8.757 E4.90651
G1 X11.618 Y8.434 E4.94502
G1 X11.137 Y8.17 E4.9724
G1 X10.46 Y7.732 E5.01262
G1 X9.977 Y7.366 E5.04286
G1 X9.377 Y6.838 E5.08273
G1 X8.981 Y6.437 E5.11085
G1 X8.488 Y5.862 E5.14864
G1 X8.153 Y5.41 E5.1767
G1 X7.946 Y5.098 E5.19538
G1 X7.456 Y5.789 E5.23765
G0 F2160 X7.454 Y5.792
G0 X7.118 Y6.2
G0 F3600 X6.87 Y5.875
G1 F2400 X6.288 Y6.496 E5.28011
G1 X5.645 Y7.062 E5.32285
G1 X5.196 Y7.401 E5.35091
G1 X4.566 Y7.807 E5.38831
G1 X4.088 Y8.071 E5.41555
G1 X3.392 Y8.389 E5.45373
G1 X2.62 Y8.663 E5.49459
G1 X2.13 Y8.797 E5.51994
G1 X1.361 Y8.95 E5.55906
G1 X0.814 Y9.016 E5.58654
G1 X0.063 Y9.053 E5.62406
G1 X-.439 Y9.043 E5.64911
G1 X-1.196 Y8.974 E5.68703
G1 X-1.758 Y8.882 E5.71544
G1 X-2.494 Y8.703 E5.75323
G1 X-3.033 Y8.53 E5.78147
G1 X-3.739 Y8.244 E5.81948
G1 X-4.483 Y7.864 E5.86116
G1 X-4.925 Y7.592 E5.88705
G1 X-5.553 Y7.145 E5.9255
G1 X-5.966 Y6.802 E5.95229
G1 X-6.574 Y6.218 E5.99435
G1 X-7.118 Y5.587 E6.03591
G1 X-7.424 Y5.177 E6.06144
G1 X-7.838 Y4.526 E6.09993
G1 X-8.086 Y4.065 E6.12604
G1 X-8.405 Y3.359 E6.16469
G1 X-8.582 Y2.881 E6.19012
G1 X-8.798 Y2.133 E6.22897
G1 X-8.903 Y1.642 E6.25402
G1 X-9.012 Y0.871 E6.29286
G1 X-9.048 Y0.364 E6.31822
G1 X-9.046 Y-.411 E6.35689
G1 X-8.971 Y-1.242 E6.39852
G1 X-8.882 Y-1.768 E6.42513
G1 X-8.705 Y-2.504 E6.4629
G1 X-8.543 Y-3.009 E6.48936
G1 X-8.257 Y-3.723 E6.52773
G1 X-7.882 Y-4.466 E6.56925
G1 X-7.61 Y-4.914 E6.5954
G1 X-7.146 Y-5.566 E6.63532
G1 X-6.614 Y-6.19 E6.67623
G1 X-6.238 Y-6.569 E6.70287
G1 X-5.653 Y-7.079 E6.74159
G1 X-5.21 Y-7.413 E6.76927
G1 X-4.578 Y-7.821 E6.8068
G1 X-4.107 Y-8.08 E6.83361
G1 X-3.4 Y-8.404 E6.87241
G1 X-2.633 Y-8.677 E6.91303
G1 X-2.142 Y-8.811 E6.93842
G1 X-1.373 Y-8.964 E6.97754
G1 X-.825 Y-9.03 E7.00508
G1 X-0.075 Y-9.067 E7.04254
G1 X0.015 Y-9.068 E7.04703
G1 X0.759 Y-9.035 E7.08419
G1 X1.264 Y-8.977 E7.10955
G1 X2.076 Y-8.824 E7.15077
G1 X2.569 Y-8.692 E7.17623
G1 X3.339 Y-8.424 E7.21691
G1 X3.803 Y-8.222 E7.24216
G1 X4.478 Y-7.873 E7.28007
G1 X4.914 Y-7.606 E7.30557
G1 X5.597 Y-7.115 E7.34754
G1 X5.994 Y-6.782 E7.37339
G1 X6.554 Y-6.24 E7.41227
G1 X7.104 Y-5.605 E7.45418
G1 X7.416 Y-5.185 E7.48029
G1 X7.826 Y-4.539 E7.51846
G1 X7.953 Y-4.309 E7.53157
G1 X8.26 Y-4.834 E7.56191
G1 X8.552 Y-5.267 E7.58796
G1 X9.03 Y-5.875 E7.62655
G1 X9.612 Y-6.496 E7.66901
G1 X10.256 Y-7.063 E7.71182
G1 X10.704 Y-7.401 E7.73982
G1 X11.334 Y-7.807 E7.77721
G1 X11.812 Y-8.071 E7.80445
G1 X12.508 Y-8.389 E7.84263
G1 X13.28 Y-8.663 E7.8835
G1 X13.77 Y-8.797 E7.90884
G1 X14.539 Y-8.95 E7.94796
G1 X15.086 Y-9.016 E7.97545
G1 X15.837 Y-9.053 E8.01296
G1 X16.34 Y-9.043 E8.03806
G1 X17.095 Y-8.974 E8.07588
G1 X17.658 Y-8.882 E8.10434
G1 X18.394 Y-8.703 E8.14213
G1 X18.933 Y-8.53 E8.17038
G1 X19.639 Y-8.244 E8.20838
G1 X20.383 Y-7.864 E8.25006
G1 X20.824 Y-7.593 E8.27588
G1 X21.454 Y-7.144 E8.31448
G1 X21.865 Y-6.802 E8.34115
G1 X22.469 Y-6.223 E8.3829
G1 X23.026 Y-5.578 E8.42541
G1 X23.328 Y-5.171 E8.4507
G1 X23.737 Y-4.528 E8.48872
G1 X23.986 Y-4.066 E8.5149
G1 X24.305 Y-3.362 E8.55346
G1 X24.482 Y-2.882 E8.57899
G1 X24.699 Y-2.132 E8.61794
G1 X24.803 Y-1.642 E8.64293
G1 X24.912 Y-.87 E8.68183
G1 X24.948 Y-.364 E8.70713
G1 X24.946 Y0.411 E8.7458
G1 X24.871 Y1.242 E8.78743
G1 X24.782 Y1.766 E8.81394
G1 X24.597 Y2.53 E8.85316
G1 X24.443 Y3.009 E8.87826
G1 X24.157 Y3.723 E8.91664
G1 X23.782 Y4.466 E8.95816
G1 X23.51 Y4.914 E8.98431
G1 X23.046 Y5.566 E9.02423
G1 X22.511 Y6.193 E9.06535
G1 X22.132 Y6.574 E9.09216
G1 X21.557 Y7.077 E9.13028
G1 X21.11 Y7.413 E9.15818
G1 X20.478 Y7.821 E9.19571
G1 X20.007 Y8.08 E9.22252
G1 X19.3 Y8.404 E9.26132
G1 X18.533 Y8.677 E9.30194
G1 X18.042 Y8.811 E9.32733
G1 X17.273 Y8.964 E9.36645
G1 X16.725 Y9.03 E9.39399
G1 X15.975 Y9.067 E9.43145
G1 X15.473 Y9.057 E9.4565
G1 X14.716 Y8.988 E9.49442
G1 X14.154 Y8.896 E9.52283
G1 X13.418 Y8.717 E9.56062
G1 X12.876 Y8.543 E9.58902
G1 X12.168 Y8.255 E9.62716
G1 X11.422 Y7.873 E9.66897
G1 X10.985 Y7.605 E9.69455
G1 X10.304 Y7.115 E9.7364
G1 X9.905 Y6.781 E9.76236
G1 X9.337 Y6.231 E9.80181
G1 X8.797 Y5.608 E9.84294
G1 X8.486 Y5.188 E9.86901
G1 X8.074 Y4.54 E9.90732
G1 X7.947 Y4.309 E9.92047
G1 X7.64 Y4.834 E9.95082
G1 X7.348 Y5.267 E9.97687
G1 X7.198 Y5.457 E9.98895
G0 F2160 X6.87 Y5.875
G0 F3600 X6.301 Y5.912
G1 F2400 X5.723 Y6.473 E10.02913
G1 X5.334 Y6.798 E10.05442
G1 X4.694 Y7.258 E10.09375
G1 X3.968 Y7.683 E10.13572
G1 X3.234 Y8.022 E10.17605
G1 X2.495 Y8.283 E10.21515
G1 X1.676 Y8.487 E10.25726
G1 X0.837 Y8.612 E10.29958
G1 X0.051 Y8.653 E10.33885
G1 X-.745 Y8.622 E10.37859
G1 X-1.599 Y8.505 E10.42159
G1 X-2.391 Y8.316 E10.46222
G1 X-2.892 Y8.155 E10.48847
G1 X-3.58 Y7.877 E10.52549
G1 X-4.293 Y7.512 E10.56545
G1 X-5 Y7.058 E10.60737
G1 X-5.647 Y6.549 E10.64844
G1 X-6.045 Y6.186 E10.67532
G1 X-6.55 Y5.649 E10.71209
G1 X-7.048 Y5.015 E10.75232
G1 X-7.496 Y4.319 E10.79361
G1 X-7.875 Y3.582 E10.83496
G1 X-8.179 Y2.822 E10.87579
G1 X-8.411 Y2.032 E10.91687
G1 X-8.564 Y1.248 E10.95672
G1 X-8.645 Y0.42 E10.99823
G1 X-8.647 Y-.401 E11.03919
G1 X-8.573 Y-1.196 E11.07902
G1 X-8.418 Y-2.019 E11.12081
G1 X-8.19 Y-2.806 E11.16168
G1 X-7.889 Y-3.566 E11.20247
G1 X-7.529 Y-4.277 E11.24223
G1 X-7.083 Y-4.98 E11.28376
G1 X-6.574 Y-5.634 E11.32511
G1 X-6.008 Y-6.235 E11.36629
G1 X-5.397 Y-6.772 E11.40688
G1 X-4.985 Y-7.082 E11.4326
G1 X-4.369 Y-7.48 E11.46919
G1 X-3.928 Y-7.722 E11.49429
G1 X-3.243 Y-8.036 E11.53188
G1 X-2.508 Y-8.297 E11.57079
G1 X-1.689 Y-8.501 E11.6129
G1 X-.847 Y-8.626 E11.65537
G1 X-0.063 Y-8.667 E11.69454
G1 X0.007 Y-8.668 E11.69803
G1 X0.733 Y-8.636 E11.73429
G1 X1.587 Y-8.519 E11.77729
G1 X2.379 Y-8.331 E11.8179
G1 X2.883 Y-8.169 E11.84431
G1 X3.572 Y-7.889 E11.88142
G1 X4.286 Y-7.522 E11.92147
G1 X4.988 Y-7.072 E11.96307
G1 X5.408 Y-6.754 E11.98935
G1 X5.981 Y-6.25 E12.02742
G1 X6.535 Y-5.666 E12.06758
G1 X7.041 Y-5.022 E12.10844
G1 X7.484 Y-4.332 E12.14935
G1 X7.863 Y-3.598 E12.19057
G1 X7.953 Y-3.391 E12.20183
G1 X8.2 Y-3.921 E12.231
G1 X8.602 Y-4.626 E12.27149
G1 X9.085 Y-5.312 E12.31334
G1 X9.599 Y-5.912 E12.35276
G1 X10.186 Y-6.481 E12.39355
G1 X10.867 Y-7.026 E12.43706
G1 X11.543 Y-7.466 E12.4773
G1 X11.989 Y-7.712 E12.50271
G1 X12.666 Y-8.022 E12.53986
G1 X13.405 Y-8.283 E12.57896
G1 X14.224 Y-8.487 E12.62107
G1 X15.063 Y-8.612 E12.66339
G1 X15.849 Y-8.653 E12.70266
G1 X16.645 Y-8.622 E12.7424
G1 X17.499 Y-8.505 E12.78541
G1 X18.291 Y-8.316 E12.82603
G1 X18.792 Y-8.155 E12.85228
G1 X19.48 Y-7.877 E12.8893
G1 X20.193 Y-7.512 E12.92926
G1 X20.898 Y-7.059 E12.97107
G1 X21.547 Y-6.549 E13.01225
G1 X21.944 Y-6.187 E13.03906
G1 X22.448 Y-5.651 E13.07576
G1 X22.952 Y-5.01 E13.11644
G1 X23.395 Y-4.321 E13.15731
G1 X23.77 Y-3.594 E13.19812
G1 X24.08 Y-2.822 E13.23963
G1 X24.312 Y-2.031 E13.28075
G1 X24.463 Y-1.25 E13.32044
G1 X24.545 Y-.42 E13.36205
G1 X24.547 Y0.401 E13.40301
G1 X24.473 Y1.196 E13.44284
G1 X24.321 Y2.006 E13.48396
G1 X24.191 Y2.494 E13.50915
G1 X23.948 Y3.19 E13.54593
G1 X23.613 Y3.933 E13.58659
G1 X23.21 Y4.64 E13.62719
G1 X22.727 Y5.326 E13.66905
G1 X22.213 Y5.926 E13.70847
G1 X21.618 Y6.501 E13.74975
G1 X20.94 Y7.044 E13.79309
G1 X20.269 Y7.48 E13.83301
G1 X19.828 Y7.722 E13.8581
G1 X19.143 Y8.036 E13.8957
G1 X18.408 Y8.297 E13.93461
G1 X17.589 Y8.501 E13.97672
G1 X16.747 Y8.626 E14.01919
G1 X15.963 Y8.667 E14.05836
G1 X15.167 Y8.636 E14.0981
G1 X14.313 Y8.519 E14.1411
G1 X13.521 Y8.331 E14.18171
G1 X13.017 Y8.169 E14.20813
G1 X12.328 Y7.889 E14.24523
G1 X11.614 Y7.522 E14.28528
G1 X10.91 Y7.071 E14.32699
G1 X10.492 Y6.754 E14.35317
G1 X9.918 Y6.249 E14.39131
G1 X9.362 Y5.663 E14.43161
G1 X8.859 Y5.023 E14.47222
G1 X8.416 Y4.333 E14.51313
G1 X8.037 Y3.598 E14.55439
G1 X7.947 Y3.39 E14.56569
G1 X7.701 Y3.919 E14.5948
G1 X7.298 Y4.626 E14.6354
G1 X6.815 Y5.312 E14.67726
G1 X6.647 Y5.508 E14.69013
G0 F2160 X6.301 Y5.912
G0 F3600 X6.253 Y5.366
G1 F2400 X5.72 Y5.932 E14.72892
G1 X5.131 Y6.448 E14.76799
G1 X4.47 Y6.926 E14.80869
G1 X3.774 Y7.332 E14.84889
G1 X3.076 Y7.654 E14.88724
G1 X2.371 Y7.903 E14.92454
G1 X1.59 Y8.097 E14.96469
G1 X0.79 Y8.214 E15.00502
G1 X0.04 Y8.254 E15.04249
G1 X-.719 Y8.223 E15.08039
G1 X-1.535 Y8.11 E15.12149
G1 X-2.288 Y7.93 E15.16012
G1 X-3.067 Y7.662 E15.20122
G1 X-3.769 Y7.34 E15.23975
G1 X-4.438 Y6.955 E15.27826
G1 X-5.072 Y6.505 E15.31705
G1 X-5.721 Y5.943 E15.35988
G1 X-6.252 Y5.382 E15.39841
G1 X-6.728 Y4.776 E15.43686
G1 X-7.154 Y4.112 E15.47622
G1 X-7.515 Y3.408 E15.51569
G1 X-7.804 Y2.684 E15.55458
G1 X-8.024 Y1.93 E15.59377
G1 X-8.169 Y1.182 E15.63178
G1 X-8.246 Y0.392 E15.67138
G1 X-8.247 Y-.39 E15.71039
G1 X-8.176 Y-1.149 E15.74843
G1 X-8.027 Y-1.934 E15.78829
G1 X-7.809 Y-2.684 E15.82725
G1 X-7.522 Y-3.409 E15.86616
G1 X-7.177 Y-4.087 E15.90411
G1 X-6.751 Y-4.757 E15.94372
G1 X-6.265 Y-5.38 E15.98314
G1 X-5.725 Y-5.952 E16.02239
G1 X-5.14 Y-6.465 E16.0612
G1 X-4.484 Y-6.939 E16.10158
G1 X-3.782 Y-7.347 E16.14209
G1 X-3.086 Y-7.668 E16.18033
G1 X-2.384 Y-7.917 E16.21749
G1 X-1.603 Y-8.11 E16.25763
G1 X-.801 Y-8.228 E16.29807
G1 X-0.052 Y-8.268 E16.33549
G1 X-0.002 Y-8.268 E16.33798
G1 X0.706 Y-8.237 E16.37334
G1 X1.523 Y-8.124 E16.41449
G1 X2.276 Y-7.944 E16.45311
G1 X3.056 Y-7.675 E16.49428
G1 X3.755 Y-7.356 E16.53261
G1 X4.425 Y-6.97 E16.57119
G1 X5.112 Y-6.478 E16.61335
G1 X5.71 Y-5.955 E16.65298
G1 X6.238 Y-5.399 E16.69123
G1 X6.72 Y-4.784 E16.73022
G1 X7.141 Y-4.126 E16.76919
G1 X7.504 Y-3.424 E16.80862
G1 X7.792 Y-2.698 E16.84758
G1 X7.953 Y-2.175 E16.87488
G1 X8.102 Y-2.668 E16.90058
G1 X8.389 Y-3.394 E16.93953
G1 X8.735 Y-4.073 E16.97755
G1 X9.161 Y-4.743 E17.01716
G1 X9.647 Y-5.366 E17.05658
G1 X10.18 Y-5.932 E17.09537
G1 X10.769 Y-6.449 E17.13447
G1 X11.43 Y-6.926 E17.17513
G1 X12.126 Y-7.332 E17.21533
G1 X12.824 Y-7.654 E17.25368
G1 X13.529 Y-7.903 E17.29098
G1 X14.31 Y-8.097 E17.33113
G1 X15.11 Y-8.214 E17.37147
G1 X15.86 Y-8.254 E17.40894
G1 X16.618 Y-8.223 E17.44679
G1 X17.435 Y-8.11 E17.48794
G1 X18.188 Y-7.93 E17.52656
G1 X18.967 Y-7.662 E17.56766
G1 X19.669 Y-7.34 E17.60619
G1 X20.338 Y-6.955 E17.6447
G1 X20.972 Y-6.505 E17.68349
G1 X21.62 Y-5.944 E17.72625
G1 X22.15 Y-5.384 E17.76472
G1 X22.631 Y-4.771 E17.80359
G1 X23.052 Y-4.114 E17.84252
G1 X23.409 Y-3.42 E17.88146
G1 X23.704 Y-2.684 E17.92102
G1 X23.925 Y-1.93 E17.96022
G1 X24.069 Y-1.183 E17.99817
G1 X24.146 Y-.392 E18.03782
G1 X24.147 Y0.39 E18.07684
G1 X24.076 Y1.149 E18.11487
G1 X23.93 Y1.921 E18.15407
G1 X23.709 Y2.685 E18.19374
G1 X23.422 Y3.409 E18.2326
G1 X23.077 Y4.087 E18.27055
G1 X22.651 Y4.757 E18.31016
G1 X22.165 Y5.38 E18.34958
G1 X21.626 Y5.951 E18.38876
G1 X21.043 Y6.464 E18.4275
G1 X20.384 Y6.939 E18.46803
G1 X19.682 Y7.347 E18.50854
G1 X18.986 Y7.668 E18.54678
G1 X18.284 Y7.917 E18.58394
G1 X17.503 Y8.11 E18.62407
G1 X16.701 Y8.228 E18.66452
G1 X15.952 Y8.268 E18.70194
G1 X15.193 Y8.237 E18.73984
G1 X14.377 Y8.124 E18.78094
G1 X13.624 Y7.944 E18.81956
G1 X12.844 Y7.675 E18.86072
G1 X12.145 Y7.356 E18.89906
G1 X11.475 Y6.97 E18.93763
G1 X10.788 Y6.478 E18.97979
