;FLAVOR:Marlin
;TIME:8743
;Filament used: 4.8366m
;Layer height: 0.12
;MINX:-33.923
;MINY:-73.499
;MINZ:0.3
;MAXX:38
;MAXY:71.971
;MAXZ:30.94
;Generated with Cura_SteamEngine 4.13.1
M140 S50
M105
M190 S50
M104 S215
M105
M109 S215
M82 ;absolute extrusion mode
;FLAVOR:Marlin
M82 ;absolute extrusion mode
G21
G90
M82
M107 T0
G28
G92 E0
G0 E3 F200
G92 E0 ; reset extrusion distance
M106 S255 ; Enable cooling fan full speed
G1 X-98 Y0 Z0.4 F3000 ; move to arc start
G3 X0 Y-98 I98 Z0.4 E40 F400 ; lay arc stripe 90deg
G92 E0 ; reset extrusion distance
G4 P500 ; wait for 0.5 sec
G0 Z10 E-1 ; Lift 15mm and retract 1mm filament
G4 P2000 ; wait for 5 sec
G0 Z15
M107 ; Disable cooling fan
G1 X0 Y-85 Z4 E0 F3000 ; get off the bed
G92 E0
G92 E0
G1 F1500 E-6.5
;LAYER_COUNT:20
;LAYER:0
M106 S25.5
G1 F600 Z1.3
G0 F3600 X25.535 Y-47.499 Z1.3
;TYPE:SKIRT
G1 F600 Z0.3
G1 F1500 E0.3326
G1 F1200 X-27.431 Y-47.499 E3.67534
G1 X-27.919 Y-47.539 E3.70625
G1 X-28.394 Y-47.658 E3.73715
G1 X-28.843 Y-47.852 E3.76802
G1 X-29.255 Y-48.117 E3.79893
G1 X-29.669 Y-48.495 E3.83432
G1 X-29.986 Y-48.868 E3.86521
G1 X-30.238 Y-49.288 E3.89612
G1 X-30.418 Y-49.743 E3.927
G1 X-30.522 Y-50.221 E3.95787
G1 X-30.548 Y-50.616 E3.98286
G1 X-30.548 Y-62.72 E4.74675
G1 X-31.303 Y-62.76 E4.79447
G1 X-31.778 Y-62.879 E4.82537
G1 X-32.227 Y-63.073 E4.85624
G1 X-32.639 Y-63.338 E4.88716
G1 X-33.036 Y-63.703 E4.92119
G1 X-33.453 Y-64.222 E4.96321
G1 X-33.684 Y-64.653 E4.99407
G1 X-33.843 Y-65.116 E5.02497
G1 X-33.923 Y-65.599 E5.05587
G1 X-33.918 Y-66.162 E5.0914
G1 X-33.813 Y-66.967 E5.14263
G1 X-33.686 Y-67.534 E5.1793
G1 X-33.591 Y-67.869 E5.20128
G1 X-33.401 Y-68.412 E5.23759
G1 X-33.26 Y-68.747 E5.26053
G1 X-32.992 Y-69.291 E5.2988
G1 X-32.825 Y-69.587 E5.32025
G1 X-32.51 Y-70.077 E5.35701
G1 X-32.294 Y-70.371 E5.38003
G1 X-31.922 Y-70.819 E5.41679
G1 X-31.687 Y-71.072 E5.43858
G1 X-31.259 Y-71.481 E5.47594
G1 X-30.995 Y-71.705 E5.49779
G1 X-30.528 Y-72.058 E5.53474
G1 X-30.23 Y-72.257 E5.55735
G1 X-29.729 Y-72.549 E5.59395
G1 X-29.417 Y-72.707 E5.61602
G1 X-28.871 Y-72.945 E5.65361
G1 X-28.535 Y-73.068 E5.67619
G1 X-27.979 Y-73.235 E5.71283
G1 X-27.636 Y-73.317 E5.73509
G1 X-27.056 Y-73.419 E5.77225
G1 X-26.715 Y-73.459 E5.79392
G1 X-26.128 Y-73.494 E5.83103
G1 X-25.949 Y-73.499 E5.84233
G1 X24.053 Y-73.499 E8.99802
G1 X24.234 Y-73.494 E9.00944
G1 X24.83 Y-73.458 E9.04713
G1 X25.179 Y-73.416 E9.06931
G1 X25.758 Y-73.312 E9.10644
G1 X26.09 Y-73.232 E9.12799
G1 X26.65 Y-73.064 E9.16489
G1 X26.992 Y-72.939 E9.18787
G1 X27.524 Y-72.706 E9.22452
G1 X27.832 Y-72.549 E9.24634
G1 X28.334 Y-72.256 E9.28302
G1 X28.632 Y-72.057 E9.30564
G1 X29.109 Y-71.696 E9.34339
G1 X29.374 Y-71.471 E9.36533
G1 X29.8 Y-71.063 E9.40256
G1 X30.04 Y-70.805 E9.4248
G1 X30.402 Y-70.366 E9.46071
G1 X30.607 Y-70.085 E9.48266
G1 X30.93 Y-69.585 E9.52023
G1 X31.106 Y-69.272 E9.54289
G1 X31.366 Y-68.739 E9.58032
G1 X31.501 Y-68.417 E9.60235
G1 X31.696 Y-67.861 E9.63954
G1 X31.794 Y-67.519 E9.66199
G1 X31.92 Y-66.952 E9.69865
G1 X32.022 Y-66.163 E9.74886
G1 X32.033 Y-65.673 E9.77979
G1 X31.964 Y-65.189 E9.81064
G1 X31.817 Y-64.722 E9.84154
G1 X31.597 Y-64.285 E9.87242
G1 X31.259 Y-63.834 E9.90799
G1 X30.782 Y-63.369 E9.95003
G1 X30.375 Y-63.097 E9.98092
G1 X29.929 Y-62.895 E10.01182
G1 X29.456 Y-62.768 E10.04273
G1 X28.919 Y-62.72 E10.07676
G1 X28.652 Y-62.72 E10.09361
G1 X28.652 Y-50.616 E10.85751
G1 X28.612 Y-50.128 E10.88841
G1 X28.493 Y-49.653 E10.91931
G1 X28.299 Y-49.204 E10.95018
G1 X28.034 Y-48.792 E10.9811
G1 X27.656 Y-48.378 E11.01648
G1 X27.283 Y-48.061 E11.04737
G1 X26.863 Y-47.809 E11.07828
G1 X26.408 Y-47.629 E11.10916
G1 X25.93 Y-47.525 E11.14004
G1 X25.535 Y-47.499 E11.16502
G0 F3600 X25.535 Y-47.899
G1 F1200 X-27.431 Y-47.899 E14.50776
G1 X-27.885 Y-47.939 E14.53652
G1 X-28.325 Y-48.057 E14.56528
G1 X-28.737 Y-48.251 E14.59402
G1 X-29.269 Y-48.661 E14.6364
G1 X-29.679 Y-49.127 E14.67558
G1 X-29.906 Y-49.522 E14.70433
G1 X-30.061 Y-49.95 E14.73306
G1 X-30.148 Y-50.616 E14.77545
G1 X-30.148 Y-63.12 E15.56459
G1 X-30.815 Y-63.12 E15.60668
G1 X-31.269 Y-63.16 E15.63545
G1 X-31.709 Y-63.278 E15.6642
G1 X-32.121 Y-63.472 E15.69294
G1 X-32.494 Y-63.735 E15.72174
G1 X-32.859 Y-64.103 E15.75445
G1 X-33.134 Y-64.466 E15.78319
G1 X-33.342 Y-64.871 E15.81193
G1 X-33.476 Y-65.306 E15.84065
G1 X-33.532 Y-65.759 E15.86946
G1 X-33.472 Y-66.581 E15.92148
G1 X-33.423 Y-66.879 E15.94053
G1 X-33.296 Y-67.446 E15.97721
G1 X-33.213 Y-67.737 E15.9963
G1 X-33.023 Y-68.28 E16.03261
G1 X-32.901 Y-68.57 E16.05247
G1 X-32.633 Y-69.114 E16.09074
G1 X-32.488 Y-69.371 E16.10936
G1 X-32.173 Y-69.861 E16.14612
G1 X-31.986 Y-70.116 E16.16608
G1 X-31.614 Y-70.564 E16.20283
G1 X-31.41 Y-70.783 E16.22172
G1 X-30.982 Y-71.192 E16.25908
G1 X-30.754 Y-71.386 E16.27798
G1 X-30.287 Y-71.739 E16.31492
G1 X-30.028 Y-71.911 E16.33454
G1 X-29.527 Y-72.203 E16.37114
G1 X-29.257 Y-72.34 E16.39025
G1 X-28.711 Y-72.578 E16.42784
G1 X-28.42 Y-72.685 E16.44741
G1 X-27.864 Y-72.852 E16.48404
G1 X-27.566 Y-72.923 E16.50338
G1 X-26.986 Y-73.025 E16.54054
G1 X-26.691 Y-73.059 E16.55929
G1 X-26.104 Y-73.094 E16.5964
G1 X-25.949 Y-73.099 E16.60618
G1 X24.053 Y-73.099 E19.76187
G1 X24.21 Y-73.094 E19.77178
G1 X24.806 Y-73.058 E19.80946
G1 X25.109 Y-73.022 E19.82872
G1 X25.688 Y-72.918 E19.86585
G1 X25.975 Y-72.849 E19.88447
G1 X26.535 Y-72.681 E19.92137
G1 X26.831 Y-72.573 E19.94126
G1 X27.363 Y-72.34 E19.97791
G1 X27.631 Y-72.204 E19.99688
G1 X28.133 Y-71.911 E20.03356
G1 X28.391 Y-71.738 E20.05317
G1 X28.868 Y-71.377 E20.09092
G1 X29.097 Y-71.182 E20.1099
G1 X29.523 Y-70.774 E20.14713
G1 X29.731 Y-70.55 E20.16642
G1 X30.093 Y-70.111 E20.20233
G1 X30.271 Y-69.868 E20.22134
G1 X30.594 Y-69.368 E20.25891
G1 X30.747 Y-69.097 E20.27855
G1 X31.007 Y-68.564 E20.31598
G1 X31.123 Y-68.284 E20.3351
G1 X31.318 Y-67.728 E20.37229
G1 X31.403 Y-67.432 E20.39173
G1 X31.529 Y-66.865 E20.42838
G1 X31.624 Y-66.121 E20.47572
G1 X31.631 Y-65.666 E20.50444
G1 X31.559 Y-65.216 E20.5332
G1 X31.41 Y-64.785 E20.56198
G1 X31.187 Y-64.388 E20.59072
G1 X30.844 Y-63.972 E20.62474
G1 X30.509 Y-63.663 E20.65351
G1 X30.125 Y-63.417 E20.68229
G1 X29.705 Y-63.242 E20.711
G1 X29.26 Y-63.142 E20.73979
G1 X28.919 Y-63.12 E20.76135
G1 X28.252 Y-63.12 E20.80345
G1 X28.252 Y-50.616 E21.59259
G1 X28.212 Y-50.162 E21.62135
G1 X28.094 Y-49.722 E21.6501
G1 X27.9 Y-49.31 E21.67884
G1 X27.49 Y-48.778 E21.72123
G1 X27.024 Y-48.368 E21.76041
G1 X26.629 Y-48.141 E21.78916
G1 X26.201 Y-47.986 E21.81789
G1 X25.535 Y-47.899 E21.86028
G0 F3600 X25.535 Y-48.299
G1 F1200 X-27.431 Y-48.299 E25.20302
G1 X-27.848 Y-48.339 E25.22946
G1 X-28.25 Y-48.457 E25.2559
G1 X-28.622 Y-48.65 E25.28235
G1 X-29.104 Y-49.06 E25.32228
G1 X-29.37 Y-49.384 E25.34874
G1 X-29.571 Y-49.751 E25.37515
G1 X-29.698 Y-50.151 E25.40163
G1 X-29.748 Y-50.616 E25.43115
G1 X-29.748 Y-63.52 E26.24553
G1 X-30.815 Y-63.52 E26.31287
G1 X-31.232 Y-63.56 E26.33931
G1 X-31.634 Y-63.678 E26.36575
G1 X-32.006 Y-63.871 E26.3922
G1 X-32.443 Y-64.241 E26.42834
G1 X-32.813 Y-64.707 E26.46589
G1 X-32.996 Y-65.084 E26.49234
G1 X-33.104 Y-65.489 E26.51879
G1 X-33.122 Y-66.079 E26.55605
G1 X-33.033 Y-66.792 E26.60139
G1 X-32.906 Y-67.359 E26.63806
G1 X-32.836 Y-67.605 E26.65421
G1 X-32.646 Y-68.148 E26.69051
G1 X-32.543 Y-68.393 E26.70729
G1 X-32.275 Y-68.937 E26.74556
G1 X-32.152 Y-69.155 E26.76136
G1 X-31.837 Y-69.645 E26.79812
G1 X-31.679 Y-69.86 E26.81496
G1 X-31.307 Y-70.308 E26.85171
G1 X-31.134 Y-70.494 E26.86774
G1 X-30.706 Y-70.903 E26.9051
G1 X-30.513 Y-71.067 E26.92109
G1 X-30.046 Y-71.42 E26.95803
G1 X-29.827 Y-71.566 E26.97464
G1 X-29.326 Y-71.858 E27.01124
G1 X-29.097 Y-71.974 E27.02744
G1 X-28.551 Y-72.212 E27.06503
G1 X-28.305 Y-72.302 E27.08156
G1 X-27.749 Y-72.469 E27.1182
G1 X-27.497 Y-72.529 E27.13455
G1 X-26.917 Y-72.631 E27.17172
G1 X-26.667 Y-72.66 E27.1876
G1 X-26.08 Y-72.695 E27.22471
G1 X-25.949 Y-72.699 E27.23298
G1 X24.053 Y-72.699 E30.38866
G1 X24.186 Y-72.695 E30.39706
G1 X24.782 Y-72.659 E30.43474
G1 X25.038 Y-72.628 E30.45102
G1 X25.617 Y-72.524 E30.48814
G1 X25.86 Y-72.466 E30.50391
G1 X26.42 Y-72.298 E30.54081
G1 X26.671 Y-72.206 E30.55768
G1 X27.203 Y-71.973 E30.59434
G1 X27.429 Y-71.858 E30.61034
G1 X27.931 Y-71.565 E30.64702
G1 X28.15 Y-71.419 E30.66363
G1 X28.627 Y-71.058 E30.70139
G1 X28.821 Y-70.893 E30.71746
G1 X29.247 Y-70.485 E30.75469
G1 X29.422 Y-70.296 E30.77094
G1 X29.784 Y-69.857 E30.80685
G1 X29.935 Y-69.651 E30.82297
G1 X30.258 Y-69.151 E30.86054
G1 X30.387 Y-68.922 E30.87713
G1 X30.647 Y-68.389 E30.91455
G1 X30.746 Y-68.152 E30.93076
G1 X30.941 Y-67.596 E30.96795
G1 X31.013 Y-67.345 E30.98443
G1 X31.139 Y-66.778 E31.02109
G1 X31.226 Y-66.08 E31.06548
G1 X31.23 Y-65.661 E31.09192
G1 X31.154 Y-65.248 E31.11843
G1 X31.001 Y-64.858 E31.14487
G1 X30.666 Y-64.372 E31.18212
G1 X30.237 Y-63.959 E31.2197
G1 X29.88 Y-63.741 E31.2461
G1 X29.487 Y-63.595 E31.27256
G1 X28.919 Y-63.52 E31.30872
G1 X27.852 Y-63.52 E31.37606
G1 X27.852 Y-50.616 E32.19044
G1 X27.812 Y-50.199 E32.21688
G1 X27.694 Y-49.797 E32.24332
G1 X27.501 Y-49.425 E32.26977
G1 X27.091 Y-48.943 E32.30971
G1 X26.767 Y-48.677 E32.33616
G1 X26.4 Y-48.476 E32.36257
G1 X26 Y-48.349 E32.38906
G1 X25.535 Y-48.299 E32.41857
G0 F3600 X25.535 Y-48.699
G1 F1200 X-27.431 Y-48.699 E35.76132
G1 X-27.808 Y-48.739 E35.78524
G1 X-28.168 Y-48.857 E35.80915
G1 X-28.495 Y-49.047 E35.83302
G1 X-28.821 Y-49.343 E35.86081
G1 X-29.059 Y-49.638 E35.88473
G1 X-29.23 Y-49.976 E35.90864
G1 X-29.327 Y-50.342 E35.93253
G1 X-29.348 Y-50.616 E35.94988
G1 X-29.348 Y-63.92 E36.78951
G1 X-30.815 Y-63.92 E36.88209
G1 X-31.192 Y-63.96 E36.90602
G1 X-31.552 Y-64.078 E36.92993
G1 X-31.879 Y-64.268 E36.95379
G1 X-32.266 Y-64.641 E36.98772
G1 X-32.49 Y-64.946 E37.0116
G1 X-32.645 Y-65.292 E37.03553
G1 X-32.724 Y-65.663 E37.05947
G1 X-32.676 Y-66.498 E37.11225
G1 X-32.642 Y-66.704 E37.12543
G1 X-32.515 Y-67.271 E37.1621
G1 X-32.458 Y-67.472 E37.17528
G1 X-32.268 Y-68.015 E37.21159
G1 X-32.184 Y-68.216 E37.22534
G1 X-31.916 Y-68.76 E37.26361
G1 X-31.815 Y-68.938 E37.27653
G1 X-31.5 Y-69.428 E37.31329
G1 X-31.371 Y-69.605 E37.32711
G1 X-30.999 Y-70.053 E37.36386
G1 X-30.858 Y-70.204 E37.3769
G1 X-30.43 Y-70.613 E37.41426
G1 X-30.271 Y-70.748 E37.42743
G1 X-29.804 Y-71.101 E37.46437
G1 X-29.625 Y-71.22 E37.47794
G1 X-29.124 Y-71.512 E37.51454
G1 X-28.937 Y-71.607 E37.52777
G1 X-28.391 Y-71.845 E37.56536
G1 X-28.19 Y-71.919 E37.57888
G1 X-27.634 Y-72.086 E37.61552
G1 X-27.428 Y-72.135 E37.62888
G1 X-26.848 Y-72.237 E37.66605
G1 X-26.643 Y-72.261 E37.67908
G1 X-26.056 Y-72.296 E37.71619
G1 X-25.949 Y-72.299 E37.72294
G1 X24.053 Y-72.299 E40.87862
G1 X24.162 Y-72.296 E40.88551
G1 X24.758 Y-72.26 E40.92319
G1 X24.967 Y-72.235 E40.93647
G1 X25.546 Y-72.131 E40.9736
G1 X25.745 Y-72.083 E40.98652
G1 X26.305 Y-71.915 E41.02342
G1 X26.51 Y-71.84 E41.03719
G1 X27.042 Y-71.607 E41.07385
G1 X27.227 Y-71.513 E41.08694
G1 X27.729 Y-71.22 E41.12363
G1 X27.908 Y-71.1 E41.13723
G1 X28.385 Y-70.739 E41.17498
G1 X28.544 Y-70.604 E41.18814
G1 X28.97 Y-70.196 E41.22537
G1 X29.114 Y-70.041 E41.23872
G1 X29.476 Y-69.602 E41.27463
G1 X29.599 Y-69.434 E41.28778
G1 X29.922 Y-68.934 E41.32534
G1 X30.028 Y-68.746 E41.33896
G1 X30.288 Y-68.213 E41.37639
G1 X30.369 Y-68.02 E41.3896
G1 X30.564 Y-67.464 E41.42679
G1 X30.622 Y-67.258 E41.44029
G1 X30.748 Y-66.691 E41.47695
G1 X30.828 Y-66.038 E41.51847
G1 X30.828 Y-65.659 E41.54239
G1 X30.748 Y-65.289 E41.56628
G1 X30.592 Y-64.943 E41.59023
G1 X30.251 Y-64.51 E41.62502
G1 X29.968 Y-64.258 E41.64893
G1 X29.639 Y-64.07 E41.67284
G1 X29.278 Y-63.956 E41.69674
G1 X28.919 Y-63.92 E41.71951
G1 X27.452 Y-63.92 E41.81209
G1 X27.452 Y-50.616 E42.65172
G1 X27.412 Y-50.239 E42.67565
G1 X27.294 Y-49.879 E42.69956
G1 X27.104 Y-49.552 E42.72343
G1 X26.808 Y-49.226 E42.75122
G1 X26.513 Y-48.988 E42.77514
G1 X26.175 Y-48.817 E42.79904
G1 X25.809 Y-48.72 E42.82294
G1 X25.535 Y-48.699 E42.84028
G0 F3600 X25.535 Y-49.099
G1 F1200 X-27.431 Y-49.099 E46.18303
G1 X-27.763 Y-49.139 E46.20413
G1 X-28.075 Y-49.256 E46.22516
G1 X-28.538 Y-49.626 E46.26256
G1 X-28.744 Y-49.889 E46.28365
G1 X-28.883 Y-50.193 E46.30474
G1 X-28.948 Y-50.616 E46.33175
G1 X-28.948 Y-64.32 E47.19663
G1 X-30.815 Y-64.32 E47.31446
G1 X-31.147 Y-64.36 E47.33556
G1 X-31.459 Y-64.477 E47.35659
G1 X-31.97 Y-64.91 E47.39886
G1 X-32.164 Y-65.182 E47.41995
G1 X-32.287 Y-65.492 E47.44099
G1 X-32.326 Y-65.996 E47.4729
G1 X-32.252 Y-66.617 E47.51237
G1 X-32.125 Y-67.184 E47.54904
G1 X-32.08 Y-67.34 E47.55928
G1 X-31.89 Y-67.883 E47.59559
G1 X-31.825 Y-68.04 E47.60631
G1 X-31.557 Y-68.584 E47.64459
G1 X-31.479 Y-68.722 E47.65459
G1 X-31.164 Y-69.212 E47.69135
G1 X-31.063 Y-69.349 E47.7021
G1 X-30.691 Y-69.797 E47.73885
G1 X-30.581 Y-69.915 E47.74903
G1 X-30.153 Y-70.324 E47.78639
G1 X-30.03 Y-70.429 E47.7966
G1 X-29.563 Y-70.782 E47.83354
G1 X-29.424 Y-70.875 E47.8441
G1 X-28.923 Y-71.167 E47.88069
G1 X-28.777 Y-71.24 E47.891
G1 X-28.231 Y-71.478 E47.92859
G1 X-28.075 Y-71.536 E47.93909
G1 X-27.519 Y-71.703 E47.97573
G1 X-27.358 Y-71.741 E47.98617
G1 X-26.778 Y-71.843 E48.02333
G1 X-26.619 Y-71.862 E48.03344
G1 X-26.032 Y-71.897 E48.07055
G1 X-25.949 Y-71.899 E48.07579
G1 X24.053 Y-71.899 E51.23147
G1 X24.137 Y-71.896 E51.23678
G1 X24.733 Y-71.86 E51.27446
G1 X24.897 Y-71.841 E51.28488
G1 X25.476 Y-71.737 E51.32201
G1 X25.63 Y-71.7 E51.332
G1 X26.19 Y-71.532 E51.3689
G1 X26.35 Y-71.473 E51.37966
G1 X26.882 Y-71.24 E51.41632
G1 X27.026 Y-71.167 E51.42651
G1 X27.528 Y-70.874 E51.46319
G1 X27.667 Y-70.781 E51.47374
G1 X28.144 Y-70.42 E51.5115
G1 X28.267 Y-70.315 E51.5217
G1 X28.693 Y-69.907 E51.55893
G1 X28.805 Y-69.787 E51.56929
G1 X29.167 Y-69.348 E51.6052
G1 X29.263 Y-69.217 E51.61545
G1 X29.586 Y-68.717 E51.65302
G1 X29.668 Y-68.571 E51.66359
G1 X29.928 Y-68.038 E51.70101
G1 X29.991 Y-67.887 E51.71134
G1 X30.186 Y-67.331 E51.74852
G1 X30.232 Y-67.172 E51.75897
G1 X30.358 Y-66.605 E51.79563
G1 X30.43 Y-65.996 E51.83433
G1 X30.425 Y-65.662 E51.85541
G1 X30.341 Y-65.339 E51.87647
G1 X30.074 Y-64.91 E51.90836
G1 X29.703 Y-64.56 E51.94055
G1 X29.406 Y-64.407 E51.96164
G1 X28.919 Y-64.32 E51.99286
G1 X27.052 Y-64.32 E52.11069
G1 X27.052 Y-50.616 E52.97556
G1 X27.012 Y-50.284 E52.99667
G1 X26.895 Y-49.972 E53.0177
G1 X26.525 Y-49.509 E53.0551
G1 X26.262 Y-49.303 E53.07619
G1 X25.958 Y-49.164 E53.09728
G1 X25.535 Y-49.099 E53.12429
G0 F3600 X25.535 Y-49.499
G1 F1200 X-27.431 Y-49.499 E56.46703
G1 X-27.71 Y-49.539 E56.48482
G1 X-27.967 Y-49.655 E56.50262
G1 X-28.255 Y-49.909 E56.52685
G1 X-28.424 Y-50.135 E56.54466
G1 X-28.524 Y-50.399 E56.56248
G1 X-28.548 Y-50.616 E56.57626
G1 X-28.548 Y-64.72 E57.46638
G1 X-30.815 Y-64.72 E57.60945
G1 X-31.094 Y-64.76 E57.62724
G1 X-31.351 Y-64.876 E57.64503
G1 X-31.674 Y-65.179 E57.67298
G1 X-31.833 Y-65.412 E57.69079
G1 X-31.919 Y-65.681 E57.70861
G1 X-31.881 Y-66.415 E57.75499
G1 X-31.862 Y-66.53 E57.76235
G1 X-31.735 Y-67.097 E57.79902
G1 X-31.703 Y-67.208 E57.80631
G1 X-31.513 Y-67.751 E57.84262
G1 X-31.466 Y-67.863 E57.85028
G1 X-31.198 Y-68.407 E57.88856
G1 X-31.142 Y-68.506 E57.89574
G1 X-30.827 Y-68.996 E57.9325
G1 X-30.755 Y-69.094 E57.94017
G1 X-30.383 Y-69.542 E57.97692
G1 X-30.305 Y-69.626 E57.98416
G1 X-29.877 Y-70.035 E58.02152
G1 X-29.789 Y-70.11 E58.02882
G1 X-29.322 Y-70.463 E58.06576
G1 X-29.223 Y-70.529 E58.07327
G1 X-28.722 Y-70.821 E58.10987
G1 X-28.618 Y-70.874 E58.11724
G1 X-28.072 Y-71.112 E58.15483
G1 X-27.96 Y-71.153 E58.16235
G1 X-27.404 Y-71.32 E58.19899
G1 X-27.289 Y-71.347 E58.20645
