;FLAVOR:Marlin
;TIME:3423
;Filament used: 1.57356m
;Layer height: 0.24
;MINX:-79.191
;MINY:-83.06
;MINZ:0.3
;MAXX:78.729
;MAXY:81.917
;MAXZ:36
;Generated with Cura_SteamEngine 4.13.1
M140 S50
M105
M190 S50
M104 S210
M105
M109 S210
M82 ;absolute extrusion mode
;FLAVOR:Marlin
M82 ;absolute extrusion mode
G21
G90
M82
M107 T0
G28
G92 E0
G0 E3 F200
G92 E0 ; reset extrusion distance
M106 S255 ; Enable cooling fan full speed
G1 X-98 Y0 Z0.4 F3000 ; move to arc start
G3 X0 Y-98 I98 Z0.4 E40 F400 ; lay arc stripe 90deg
G92 E0 ; reset extrusion distance
G4 P500 ; wait for 0.5 sec
G0 Z10 E-1 ; Lift 15mm and retract 1mm filament
G4 P2000 ; wait for 5 sec
G0 Z15
M107 ; Disable cooling fan
G1 X0 Y-85 Z4 E0 F3000 ; get off the bed
G92 E0
G92 E0
G1 F1500 E-6.5
;LAYER_COUNT:129
;LAYER:0
M106 S25.5
G1 F600 Z1.3
G0 F3600 X-53.192 Y2.341 Z1.3
;TYPE:SKIRT
G1 F600 Z0.3
G1 F1500 E0.3326
G1 F2700 X-53.201 Y2.877 E0.35935
G1 X-53.229 Y3.483 E0.38961
G1 X-53.335 Y4.14 E0.42281
G1 X-53.483 Y4.637 E0.44869
G1 X-53.573 Y4.869 E0.4611
G1 X-53.802 Y5.362 E0.48822
G1 X-54.174 Y5.957 E0.52323
G1 X-54.592 Y6.454 E0.55563
G1 X-55.089 Y6.906 E0.58914
G1 X-55.591 Y7.257 E0.6197
G1 X-56.186 Y7.567 E0.65318
G1 X-56.81 Y7.794 E0.6863
G1 X-57.451 Y7.933 E0.71903
G1 X-57.893 Y7.976 E0.74118
G1 X-59.129 Y8 E0.80286
G1 X-73.51 Y8 E1.52033
G1 X-74.035 Y7.992 E1.54652
G1 X-74.688 Y7.961 E1.57914
G1 X-75.393 Y7.842 E1.61481
G1 X-76.01 Y7.645 E1.64712
G1 X-76.595 Y7.371 E1.67935
G1 X-77.147 Y7.018 E1.71204
G1 X-77.645 Y6.599 E1.74451
G1 X-78.082 Y6.121 E1.77682
G1 X-78.465 Y5.57 E1.8103
G1 X-78.76 Y5.002 E1.84223
G1 X-78.982 Y4.391 E1.87466
G1 X-79.123 Y3.745 E1.90765
G1 X-79.169 Y3.261 E1.93191
G1 X-79.191 Y2.052 E1.99223
G1 X-79.19 Y-12.343 E2.7104
G1 X-79.182 Y-12.86 E2.7362
G1 X-79.151 Y-13.494 E2.76787
G1 X-79.043 Y-14.159 E2.80148
G1 X-78.831 Y-14.831 E2.83663
G1 X-78.565 Y-15.4 E2.86797
G1 X-78.209 Y-15.956 E2.90091
G1 X-77.792 Y-16.452 E2.93324
G1 X-77.283 Y-16.913 E2.9675
G1 X-76.757 Y-17.277 E2.99941
G1 X-76.198 Y-17.567 E3.03083
G1 X-75.562 Y-17.797 E3.06457
G1 X-74.936 Y-17.932 E3.09652
G1 X-74.468 Y-17.977 E3.11998
G1 X-73.244 Y-18 E3.18105
G1 X-58.85 Y-17.999 E3.89917
G1 X-58.322 Y-17.99 E3.92552
G1 X-57.707 Y-17.961 E3.95624
G1 X-56.982 Y-17.839 E3.99291
G1 X-56.356 Y-17.639 E4.0257
G1 X-55.793 Y-17.375 E4.05672
G1 X-55.235 Y-17.018 E4.08977
G1 X-54.738 Y-16.6 E4.12217
G1 X-54.291 Y-16.109 E4.1553
G1 X-53.938 Y-15.606 E4.18596
G1 X-53.621 Y-14.996 E4.22025
G1 X-53.396 Y-14.375 E4.25321
G1 X-53.261 Y-13.755 E4.28486
G1 X-53.215 Y-13.304 E4.30748
G1 X-53.191 Y-12.025 E4.3713
G1 X-53.192 Y2.341 E5.08802
G0 F3600 X-53.592 Y2.335
G1 F2700 X-53.601 Y2.859 E5.11417
G1 X-53.629 Y3.465 E5.14444
G1 X-53.726 Y4.058 E5.17441
G1 X-53.936 Y4.7 E5.20811
G1 X-54.165 Y5.193 E5.23523
G1 X-54.504 Y5.73 E5.26692
G1 X-54.889 Y6.186 E5.29669
G1 X-55.348 Y6.601 E5.32756
G1 X-55.809 Y6.922 E5.35559
G1 X-56.356 Y7.206 E5.38634
G1 X-56.932 Y7.413 E5.41687
G1 X-57.522 Y7.539 E5.44697
G1 X-57.901 Y7.576 E5.46597
G1 X-59.137 Y7.6 E5.52765
G1 X-73.505 Y7.6 E6.24447
G1 X-74.016 Y7.592 E6.26997
G1 X-74.669 Y7.561 E6.30258
G1 X-75.308 Y7.451 E6.33493
G1 X-75.876 Y7.268 E6.3647
G1 X-76.413 Y7.015 E6.39432
G1 X-76.92 Y6.688 E6.42442
G1 X-77.377 Y6.302 E6.45426
G1 X-77.777 Y5.861 E6.48396
G1 X-78.129 Y5.353 E6.5148
G1 X-78.398 Y4.831 E6.54409
G1 X-78.601 Y4.267 E6.574
G1 X-78.729 Y3.673 E6.60432
G1 X-78.769 Y3.253 E6.62536
G1 X-78.791 Y2.052 E6.68529
G1 X-78.79 Y-12.338 E7.40321
G1 X-78.782 Y-12.84 E7.42826
G1 X-78.751 Y-13.474 E7.45993
G1 X-78.652 Y-14.077 E7.49041
G1 X-78.455 Y-14.697 E7.52287
G1 X-78.208 Y-15.219 E7.55168
G1 X-77.879 Y-15.729 E7.58196
G1 X-77.495 Y-16.184 E7.61166
G1 X-77.025 Y-16.607 E7.64321
G1 X-76.54 Y-16.941 E7.67259
G1 X-76.027 Y-17.205 E7.70137
G1 X-75.439 Y-17.416 E7.73254
G1 X-74.864 Y-17.538 E7.76187
G1 X-74.46 Y-17.577 E7.78212
G1 X-73.244 Y-17.6 E7.84279
G1 X-58.856 Y-17.599 E8.56061
G1 X-58.341 Y-17.59 E8.58631
G1 X-57.726 Y-17.561 E8.61703
G1 X-57.068 Y-17.448 E8.65034
G1 X-56.491 Y-17.262 E8.68058
G1 X-55.974 Y-17.018 E8.7091
G1 X-55.462 Y-16.688 E8.73949
G1 X-55.006 Y-16.303 E8.76927
G1 X-54.597 Y-15.851 E8.79968
G1 X-54.274 Y-15.388 E8.82784
G1 X-53.982 Y-14.825 E8.85948
G1 X-53.777 Y-14.252 E8.88985
G1 X-53.654 Y-13.682 E8.91894
G1 X-53.615 Y-13.296 E8.93829
G1 X-53.591 Y-12.025 E9.00172
G1 X-53.592 Y2.335 E9.71814
G0 F3600 X-53.992 Y2.329
G1 F2700 X-54 Y2.84 E9.74364
G1 X-54.028 Y3.446 E9.7739
G1 X-54.118 Y3.976 E9.80072
G1 X-54.299 Y4.532 E9.82989
G1 X-54.528 Y5.025 E9.85701
G1 X-54.833 Y5.503 E9.8853
G1 X-55.186 Y5.918 E9.91248
G1 X-55.606 Y6.296 E9.94067
G1 X-56.027 Y6.587 E9.96621
G1 X-56.527 Y6.844 E9.99425
G1 X-57.054 Y7.032 E10.02217
G1 X-57.593 Y7.145 E10.04964
G1 X-57.909 Y7.176 E10.06549
G1 X-59.145 Y7.2 E10.12716
G1 X-73.5 Y7.2 E10.84334
G1 X-73.997 Y7.193 E10.86813
G1 X-74.65 Y7.162 E10.90075
G1 X-75.223 Y7.06 E10.92979
G1 X-75.743 Y6.891 E10.95706
G1 X-76.232 Y6.659 E10.98407
G1 X-76.693 Y6.359 E11.01151
G1 X-77.109 Y6.005 E11.03876
G1 X-77.472 Y5.602 E11.06582
G1 X-77.793 Y5.137 E11.09401
G1 X-78.036 Y4.661 E11.12067
G1 X-78.221 Y4.144 E11.14807
G1 X-78.336 Y3.602 E11.17571
G1 X-78.369 Y3.246 E11.19355
G1 X-78.391 Y2.052 E11.25312
G1 X-78.39 Y-12.332 E11.97075
G1 X-78.383 Y-12.821 E11.99514
G1 X-78.352 Y-13.455 E12.02681
G1 X-78.26 Y-13.994 E12.05409
G1 X-78.078 Y-14.563 E12.0839
G1 X-77.851 Y-15.039 E12.11021
G1 X-77.55 Y-15.502 E12.13776
G1 X-77.197 Y-15.916 E12.1649
G1 X-76.768 Y-16.301 E12.19366
G1 X-76.323 Y-16.605 E12.22055
G1 X-75.856 Y-16.844 E12.24672
G1 X-75.316 Y-17.035 E12.2753
G1 X-74.793 Y-17.145 E12.30196
G1 X-74.452 Y-17.177 E12.31905
G1 X-73.244 Y-17.2 E12.37932
G1 X-58.862 Y-17.199 E13.09685
G1 X-58.359 Y-17.191 E13.12194
G1 X-57.744 Y-17.162 E13.15266
G1 X-57.154 Y-17.058 E13.18255
G1 X-56.625 Y-16.885 E13.21032
G1 X-56.154 Y-16.661 E13.23634
G1 X-55.689 Y-16.359 E13.264
G1 X-55.274 Y-16.006 E13.29118
G1 X-54.902 Y-15.592 E13.31895
G1 X-54.609 Y-15.17 E13.34458
G1 X-54.344 Y-14.655 E13.37347
G1 X-54.157 Y-14.129 E13.40133
G1 X-54.047 Y-13.608 E13.42789
G1 X-54.015 Y-13.288 E13.44394
G1 X-53.991 Y-12.025 E13.50696
G1 X-53.992 Y2.329 E14.22308
G1 F1500 E7.72308
G1 F600 Z1.3
;MESH:H??tchen.3mf(3)
G0 F3600 X-57.603 Y0.547 Z1.3
;TYPE:WALL-INNER
G1 F600 Z0.3
G1 F1500 E14.55568
G1 F2700 X-57.202 Y-.129 E14.5949
G1 X-56.855 Y-.834 E14.6341
G1 X-56.561 Y-1.565 E14.67341
G1 X-56.327 Y-2.315 E14.7126
G1 X-56.192 Y-2.899 E14.74251
G1 X-56.192 Y-2.315 E14.74728
G1 X-56.192 Y-1.565 E14.77069
G1 X-56.192 Y2.945 E14.99569
G1 X-56.266 Y3.52 E15.02462
G1 X-56.463 Y3.993 E15.05018
G1 X-56.782 Y4.409 E15.07633
G1 X-57.197 Y4.727 E15.10242
G1 X-57.668 Y4.924 E15.12789
G1 X-58.26 Y5 E15.15766
G1 X-63.075 Y5 E15.39789
G1 X-64.099 Y5 E15.44897
G1 X-63.833 Y4.948 E15.4625
G1 X-63.075 Y4.737 E15.48685
G1 X-62.377 Y4.485 E15.52388
G1 X-61.661 Y4.164 E15.56303
G1 X-60.987 Y3.799 E15.60127
G1 X-60.917 Y3.758 E15.60531
G1 X-60.309 Y3.361 E15.64154
G1 X-59.766 Y2.947 E15.67561
G1 X-59.703 Y2.904 E15.67941
G1 X-59.097 Y2.363 E15.71994
G1 X-58.553 Y1.797 E15.75911
G1 X-58.053 Y1.189 E15.79838
G1 X-57.603 Y0.547 E15.83749
G0 F3600 X-56.675 Y-2.41
G0 X-56.419 Y-3.748
G0 X-56.191 Y-7.707
G1 F2700 X-56.191 Y-7.099 E15.86783
G1 X-56.333 Y-7.707 E15.87385
G1 X-56.57 Y-8.458 E15.91314
G1 X-56.83 Y-9.099 E15.94765
G1 X-56.854 Y-9.167 E15.95124
G1 X-57.211 Y-9.89 E15.99147
G1 X-57.614 Y-10.566 E16.03074
G1 X-58.067 Y-11.208 E16.06994
G1 X-58.57 Y-11.813 E16.10919
G1 X-59.114 Y-12.379 E16.14836
G1 X-59.702 Y-12.9 E16.18755
G1 X-60.327 Y-13.376 E16.22675
G1 X-60.99 Y-13.802 E16.26606
G1 X-61.682 Y-14.174 E16.30526
G1 X-62.397 Y-14.492 E16.3443
G1 X-63.093 Y-14.744 E16.38123
G1 X-63.856 Y-14.953 E16.4207
G1 X-64.096 Y-14.999 E16.43289
G1 X-63.093 Y-14.999 E16.45526
G1 X-62.68 Y-14.999 E16.47264
G1 X-58.247 Y-14.999 E16.6938
G1 X-57.666 Y-14.922 E16.72304
G1 X-57.198 Y-14.728 E16.74832
G1 X-56.782 Y-14.409 E16.77447
G1 X-56.465 Y-13.997 E16.80041
G1 X-56.266 Y-13.516 E16.82638
G1 X-56.191 Y-12.931 E16.8558
G1 X-56.191 Y-8.458 E17.07896
G1 X-56.191 Y-7.707 E17.1032
G0 F3600 X-58.354 Y-10.989
G0 X-59.364 Y-12.118
G0 X-60.535 Y-13.08
G0 X-61.841 Y-13.85
G0 X-63.202 Y-14.4
G0 X-64.735 Y-14.753
G0 X-66.191 Y-14.862
G0 X-67.702 Y-14.747
G0 X-69.178 Y-14.401
G0 X-70.581 Y-13.832
G0 X-71.884 Y-13.054
G0 X-73.048 Y-12.088
G0 X-74.054 Y-10.954
G0 X-76.051 Y-7.71
G1 F2700 X-76.19 Y-7.112 E17.13383
G1 X-76.19 Y-7.71 E17.13885
G1 X-76.19 Y-8.458 E17.17617
G1 X-76.19 Y-12.946 E17.40008
G1 X-76.113 Y-13.525 E17.42922
G1 X-75.919 Y-13.993 E17.45449
G1 X-75.6 Y-14.409 E17.48065
G1 X-75.186 Y-14.726 E17.50666
G1 X-74.713 Y-14.924 E17.53224
G1 X-74.122 Y-15 E17.56197
G1 X-69.698 Y-15 E17.78269
G1 X-69.288 Y-15 E17.80314
G1 X-68.293 Y-15 E17.85278
G1 X-68.528 Y-14.954 E17.86473
G1 X-69.288 Y-14.744 E17.88725
G1 X-70.025 Y-14.477 E17.92318
G1 X-70.742 Y-14.156 E17.96237
G1 X-71.432 Y-13.78 E18.00157
G1 X-72.092 Y-13.349 E18.0409
G1 X-72.717 Y-12.871 E18.08015
G1 X-73.299 Y-12.348 E18.11919
G1 X-73.844 Y-11.781 E18.15843
G1 X-74.342 Y-11.171 E18.19772
G1 X-74.79 Y-10.528 E18.23681
G1 X-75.16 Y-9.907 E18.27288
G1 X-75.198 Y-9.836 E18.27689
G1 X-75.519 Y-9.183 E18.3132
G1 X-75.812 Y-8.458 E18.35221
G1 X-76.051 Y-7.71 E18.37802
G0 F3600 X-76.047 Y-4.61
G0 X-75.509 Y-.793
G1 F2700 X-75.159 Y-0.091 E18.41716
G1 X-74.755 Y0.583 E18.45636
G1 X-74.302 Y1.226 E18.4956
G1 X-73.799 Y1.832 E18.53489
G1 X-73.252 Y2.393 E18.57398
G1 X-72.696 Y2.887 E18.61109
G1 X-72.071 Y3.361 E18.65022
G1 X-71.414 Y3.79 E18.68937
G1 X-70.722 Y4.165 E18.72864
G1 X-70.004 Y4.486 E18.76788
G1 X-69.264 Y4.752 E18.80711
G1 X-68.507 Y4.959 E18.84626
G1 X-68.295 Y5 E18.85703
G1 X-69.264 Y5 E18.87768
G1 X-69.7 Y5 E18.89583
G1 X-74.122 Y5 E19.11644
G1 X-74.713 Y4.924 E19.14617
G1 X-75.186 Y4.726 E19.17175
G1 X-75.6 Y4.409 E19.19776
G1 X-75.917 Y3.995 E19.22378
G1 X-76.115 Y3.522 E19.24936
G1 X-76.191 Y2.931 E19.27909
G1 X-76.191 Y-1.52 E19.50115
G1 X-76.191 Y-2.27 E19.53857
G1 X-76.191 Y-2.89 E19.5695
G1 X-76.045 Y-2.27 E19.57579
G1 X-75.804 Y-1.52 E19.60243
G1 X-75.509 Y-.793 E19.64157
G0 F3600 X-75.144 Y-.958
G1 F2700 X-74.808 Y-.283 E19.67919
G1 X-74.42 Y0.365 E19.71687
G1 X-73.984 Y0.982 E19.75456
G1 X-73.501 Y1.564 E19.7923
G1 X-72.975 Y2.104 E19.82991
G1 X-72.442 Y2.578 E19.86549
G1 X-71.841 Y3.034 E19.90313
G1 X-71.209 Y3.446 E19.94077
G1 X-70.545 Y3.806 E19.97845
G1 X-69.855 Y4.115 E20.01617
G1 X-69.144 Y4.37 E20.05385
G1 X-68.416 Y4.569 E20.09151
G1 X-67.675 Y4.712 E20.12916
G1 X-66.925 Y4.797 E20.16681
G1 X-66.169 Y4.823 E20.20455
G1 X-65.415 Y4.793 E20.2422
G1 X-64.666 Y4.704 E20.27983
G1 X-63.925 Y4.558 E20.31751
G1 X-63.197 Y4.356 E20.3552
G1 X-62.527 Y4.114 E20.39074
G1 X-61.838 Y3.805 E20.42842
G1 X-61.184 Y3.451 E20.46552
G1 X-61.128 Y3.418 E20.46876
G1 X-60.54 Y3.034 E20.5038
G1 X-60 Y2.622 E20.53768
G1 X-59.95 Y2.588 E20.5407
G1 X-59.375 Y2.075 E20.57915
G1 X-58.852 Y1.531 E20.61679
G1 X-58.372 Y0.947 E20.65451
G1 X-57.939 Y0.33 E20.69211
G1 X-57.554 Y-.32 E20.7298
G1 X-57.22 Y-.997 E20.76747
G1 X-56.938 Y-1.699 E20.80521
G1 X-56.713 Y-2.42 E20.84289
G1 X-56.543 Y-3.154 E20.88048
G1 X-56.429 Y-3.901 E20.91818
G1 X-56.374 Y-4.654 E20.95585
G1 X-56.375 Y-5.367 E20.99142
G1 X-56.437 Y-6.164 E21.0313
G1 X-56.548 Y-6.866 E21.06676
G1 X-56.719 Y-7.601 E21.10441
G1 X-56.947 Y-8.322 E21.14213
G1 X-57.201 Y-8.949 E21.17589
G1 X-57.223 Y-9.01 E21.17912
G1 X-57.563 Y-9.699 E21.21745
G1 X-57.95 Y-10.348 E21.25515
G1 X-58.385 Y-10.965 E21.29281
G1 X-58.868 Y-11.546 E21.33051
G1 X-59.391 Y-12.09 E21.36816
G1 X-59.956 Y-12.591 E21.40583
G1 X-60.557 Y-13.048 E21.4435
G1 X-61.193 Y-13.457 E21.48122
G1 X-61.858 Y-13.815 E21.5189
G1 X-62.546 Y-14.121 E21.55647
G1 X-63.214 Y-14.362 E21.5919
G1 X-63.947 Y-14.563 E21.62982
G1 X-64.677 Y-14.704 E21.66691
G1 X-64.74 Y-14.714 E21.67009
G1 X-65.478 Y-14.797 E21.70714
G1 X-66.191 Y-14.822 E21.74274
G1 X-66.945 Y-14.795 E21.78038
G1 X-67.696 Y-14.708 E21.8181
G1 X-68.437 Y-14.564 E21.85576
G1 X-69.166 Y-14.363 E21.89348
G1 X-69.875 Y-14.106 E21.93111
G1 X-70.564 Y-13.797 E21.96878
G1 X-71.227 Y-13.436 E22.00644
G1 X-71.861 Y-13.022 E22.04422
G1 X-72.461 Y-12.563 E22.08191
G1 X-73.021 Y-12.06 E22.11946
G1 X-73.544 Y-11.515 E22.15715
G1 X-74.023 Y-10.93 E22.19487
G1 X-74.454 Y-10.311 E22.2325
G1 X-74.812 Y-9.709 E22.26744
G1 X-74.843 Y-9.652 E22.27068
G1 X-75.154 Y-9.02 E22.30582
G1 X-75.435 Y-8.322 E22.34336
G1 X-75.665 Y-7.603 E22.38102
G1 X-75.837 Y-6.866 E22.41878
G1 X-75.951 Y-6.121 E22.45638
G1 X-76.009 Y-5.367 E22.49411
G1 X-76.008 Y-4.611 E22.53183
G1 X-75.949 Y-3.858 E22.56951
G1 X-75.832 Y-3.113 E22.60713
G1 X-75.659 Y-2.377 E22.64485
G1 X-75.428 Y-1.657 E22.68258
G1 X-75.144 Y-.958 E22.72022
G0 F3600 X-75.235 Y-.917
G0 X-75.697 Y-2.367
G0 X-75.988 Y-3.854
G0 X-76.048 Y-5.368
G0 X-75.876 Y-6.873
G0 X-75.472 Y-8.335
G0 X-74.846 Y-9.728
G0 X-74.054 Y-10.954
G0 X-73.048 Y-12.088
G0 X-71.884 Y-13.054
G0 X-70.581 Y-13.832
G0 X-69.178 Y-14.401
G0 X-67.702 Y-14.747
G0 X-66.191 Y-14.862
G0 X-65.33 Y-14.795
G0 X-55.972 Y-13.595
G0 X-55.876 Y-13.62
G1 F2700 X-55.791 Y-12.959 E22.75347
G1 X-55.792 Y2.973 E23.54832
G1 X-55.876 Y3.621 E23.58092
G1 X-56.115 Y4.197 E23.61203
G1 X-56.497 Y4.694 E23.6433
G1 X-56.994 Y5.076 E23.67458
G1 X-57.565 Y5.314 E23.70544
G1 X-58.232 Y5.4 E23.73899
G1 X-74.15 Y5.4 E24.53314
G1 X-74.816 Y5.314 E24.56665
G1 X-75.389 Y5.075 E24.59762
G1 X-75.885 Y4.694 E24.62883
G1 X-76.266 Y4.198 E24.66003
G1 X-76.505 Y3.625 E24.691
G1 X-76.591 Y2.959 E24.72451
G1 X-76.59 Y-12.975 E25.51946
G1 X-76.504 Y-13.626 E25.55222
G1 X-76.267 Y-14.197 E25.58306
G1 X-75.885 Y-14.694 E25.61433
G1 X-75.389 Y-15.075 E25.64554
G1 X-74.816 Y-15.314 E25.67651
G1 X-74.15 Y-15.4 E25.71001
G1 X-58.218 Y-15.399 E26.50486
G1 X-57.565 Y-15.313 E26.53772
G1 X-56.994 Y-15.076 E26.56857
G1 X-56.497 Y-14.694 E26.59984
G1 X-56.115 Y-14.198 E26.63108
G1 X-55.876 Y-13.62 E26.66228
G0 F3600 X-55.486 Y-13.724
;TYPE:WALL-OUTER
G1 F2700 X-55.391 Y-12.987 E26.69935
G1 X-55.392 Y3.002 E27.49705
G1 X-55.486 Y3.725 E27.53342
G1 X-55.765 Y4.398 E27.56977
G1 X-56.212 Y4.979 E27.60634
G1 X-56.79 Y5.424 E27.64273
G1 X-57.464 Y5.704 E27.67915
G1 X-58.204 Y5.8 E27.71637
G1 X-74.178 Y5.8 E28.51332
G1 X-74.919 Y5.704 E28.5506
G1 X-75.592 Y5.424 E28.58696
G1 X-76.17 Y4.979 E28.62336
G1 X-76.615 Y4.401 E28.65975
G1 X-76.895 Y3.728 E28.69612
G1 X-76.991 Y2.987 E28.73339
G1 X-76.99 Y-13.004 E29.53119
G1 X-76.895 Y-13.727 E29.56757
G1 X-76.615 Y-14.401 E29.60398
G1 X-76.17 Y-14.979 E29.64037
G1 X-75.592 Y-15.424 E29.67677
G1 X-74.919 Y-15.704 E29.71313
G1 X-74.178 Y-15.8 E29.75041
G1 X-58.189 Y-15.799 E30.5481
G1 X-57.464 Y-15.704 E30.58458
G1 X-56.79 Y-15.424 E30.621
G1 X-56.212 Y-14.979 E30.65739
G1 X-55.765 Y-14.399 E30.69392
G1 X-55.486 Y-13.724 E30.73036
G0 F3600 X-55.461 Y-13.526
G0 X-55.957 Y-13.464
G0 X-65.476 Y-14.836
G0 X-66.948 Y-14.834
G0 X-68.446 Y-14.602
G0 X-69.89 Y-14.143
G0 X-71.247 Y-13.47
G0 X-72.486 Y-12.593
G0 X-73.573 Y-11.541
G0 X-74.487 Y-10.332
G0 X-75.19 Y-9.036
G0 X-75.703 Y-7.613
G0 X-75.99 Y-6.125
G0 X-76.047 Y-4.61
G0 X-75.871 Y-3.106
G0 X-75.242 Y-.936
G0 X-74.779 Y-1.123
G1 F2700 X-74.457 Y-.475 E30.76646
G1 X-74.085 Y0.146 E30.80258
G1 X-73.666 Y0.738 E30.83876
G1 X-73.203 Y1.296 E30.87493
G1 X-72.698 Y1.815 E30.91106
G1 X-72.188 Y2.269 E30.94513
G1 X-71.611 Y2.707 E30.98127
G1 X-71.004 Y3.102 E31.0174
G1 X-70.368 Y3.447 E31.0535
G1 X-69.706 Y3.744 E31.0897
G1 X-69.024 Y3.988 E31.12583
