;FLAVOR:Marlin
;TIME:19836
;Filament used: 24.4798m
;Layer height: 0.25
;MINX:-83.248
;MINY:-86.922
;MINZ:0.05
;MAXX:77.458
;MAXY:91.188
;MAXZ:12.75
;TARGET_MACHINE.NAME:Unknown
;Generated with Cura_SteamEngine 5.9.0
M140 S50
M105
M190 S50
M104 S225
M105
M109 S225
M82 ;absolute extrusion mode
;FLAVOR:Marlin
M82 ;absolute extrusion mode
G21
G90
M82
M107 T0
G28
G92 E0
G0 E3 F200
G92 E0 ; reset extrusion distance
M106 S255 ; Enable cooling fan full speed
G1 X-98 Y0 Z0.4 F3000 ; move to arc start
G3 X0 Y-98 I98 Z0.4 E40 F400 ; lay arc stripe 90deg
G92 E0 ; reset extrusion distance
G4 P500 ; wait for 0.5 sec
G0 Z10 E-1 ; Lift 15mm and retract 1mm filament
G4 P2000 ; wait for 5 sec
G0 Z15
M107 ; Disable cooling fan
G1 X0 Y-85 Z4 E0 F3000 ; get off the bed
G92 E0
G92 E0
G1 F1500 E-1
;LAYER_COUNT:47
;LAYER:0
M106 S102
G1 F600 Z1.25
G0 F1500 X-4.316 Y0.195 Z1.25
;TYPE:SKIRT
G1 F600 Z0.25
G1 F3600 E0.75698
G1 F1200 X-3.735 Y-4.845 E0.97034
G1 X-3.386 Y-5.79 E1.0127
G1 X-2.728 Y-6.6 E1.05659
G1 X1.472 Y-9.721 E1.27665
G1 X10.415 Y-17.281 E1.76912
G1 X16.044 Y-22.67 E2.09683
G1 X16.783 Y-23.183 E2.13467
G1 X17.743 Y-23.432 E2.17638
G1 X18.698 Y-23.417 E2.21654
G1 X19.608 Y-23.024 E2.25823
G1 X20.346 Y-22.449 E2.29757
G1 X20.832 Y-21.614 E2.3382
G1 X21.081 Y-20.689 E2.37849
G1 X20.977 Y-19.736 E2.4188
G1 X20.73 Y-19.072 E2.4486
G1 X-2.836 Y21.74 E4.43051
G1 X-3.445 Y22.401 E4.4683
G1 X-4.288 Y22.904 E4.50959
G1 X-5.023 Y23.035 E4.54098
G1 X-5.858 Y23.048 E4.5761
G1 X-6.015 Y23.018 E4.58282
G1 X-6.796 Y22.7 E4.61829
G1 X-7.329 Y22.309 E4.64609
G1 X-7.842 Y21.739 E4.67834
G1 X-8.255 Y20.864 E4.71903
G1 X-8.346 Y19.76 E4.76561
G1 X-6.439 Y11.988 E5.10216
G1 X-4.316 Y0.195 E5.60608
G0 F1500 X-3.922 Y0.266
G1 F1200 X-3.343 Y-4.752 E5.8185
G1 X-3.034 Y-5.59 E5.85607
G1 X-2.451 Y-6.307 E5.89493
G1 X1.711 Y-9.4 E6.113
G1 X10.692 Y-16.992 E6.60756
G1 X16.272 Y-22.341 E6.93263
G1 X16.954 Y-22.814 E6.96753
G1 X17.79 Y-23.031 E7.00385
G1 X18.614 Y-23.018 E7.03851
G1 X19.402 Y-22.678 E7.0746
G1 X20.038 Y-22.182 E7.10852
G1 X20.46 Y-21.457 E7.1438
G1 X20.675 Y-20.659 E7.17855
G1 X20.584 Y-19.827 E7.21375
G1 X20.384 Y-19.272 E7.23856
G1 X-3.159 Y21.501 E9.21857
G1 X-3.698 Y22.086 E9.25202
G1 X-4.432 Y22.523 E9.28794
G1 X-5.029 Y22.635 E9.31349
G1 X-5.864 Y22.648 E9.34861
G1 X-6.596 Y22.35 E9.38184
G1 X-7.061 Y22.009 E9.40609
G1 X-7.505 Y21.516 E9.434
G1 X-7.862 Y20.759 E9.46919
G1 X-7.942 Y19.789 E9.51013
G1 X-6.045 Y12.059 E9.84485
G1 X-3.922 Y0.266 E10.34877
G0 F1500 X-3.528 Y0.337
G1 F1200 X-2.952 Y-4.657 E10.56018
G1 X-2.682 Y-5.388 E10.59296
G1 X-2.172 Y-6.016 E10.62698
G1 X1.95 Y-9.079 E10.84295
G1 X10.969 Y-16.703 E11.33959
G1 X16.549 Y-22.052 E11.66466
G1 X17.124 Y-22.445 E11.69395
G1 X17.837 Y-22.63 E11.72493
G1 X18.53 Y-22.619 E11.75408
G1 X19.196 Y-22.332 E11.78457
G1 X19.73 Y-21.915 E11.81307
G1 X20.088 Y-21.3 E11.84299
G1 X20.269 Y-20.629 E11.87222
G1 X20.186 Y-19.871 E11.90429
G1 X20.038 Y-19.472 E11.92219
G1 X-3.482 Y21.262 E13.90029
G1 X-3.951 Y21.771 E13.92939
G1 X-4.578 Y22.144 E13.96007
G1 X-5.035 Y22.235 E13.97967
G1 X-5.79 Y22.247 E14.01143
G1 X-6.4 Y21.998 E14.03913
G1 X-6.764 Y21.741 E14.05787
G1 X-7.169 Y21.292 E14.0833
G1 X-7.469 Y20.655 E14.11291
G1 X-7.538 Y19.818 E14.14823
G1 X-5.651 Y12.13 E14.48114
G1 X-3.528 Y0.337 E14.98506
G0 F1500 X-3.134 Y0.408
G1 F1200 X-2.56 Y-4.564 E15.19555
G1 X-2.331 Y-5.185 E15.22338
G1 X-1.893 Y-5.725 E15.25262
G1 X2.189 Y-8.758 E15.46649
G1 X11.246 Y-16.414 E15.96522
G1 X16.826 Y-21.763 E16.29029
G1 X17.293 Y-22.076 E16.31393
G1 X17.884 Y-22.229 E16.33961
G1 X18.446 Y-22.22 E16.36324
G1 X18.99 Y-21.986 E16.38815
G1 X19.422 Y-21.648 E16.41122
G1 X19.716 Y-21.143 E16.43579
G1 X19.863 Y-20.599 E16.45949
G1 X19.788 Y-19.915 E16.48843
G1 X19.692 Y-19.672 E16.49941
G1 X-3.805 Y21.023 E18.47561
G1 X-4.205 Y21.457 E18.50043
G1 X-4.723 Y21.765 E18.52578
G1 X-5.042 Y21.835 E18.53951
G1 X-5.715 Y21.846 E18.56782
G1 X-6.169 Y21.671 E18.58828
G1 X-6.533 Y21.414 E18.60702
G1 X-6.832 Y21.069 E18.62622
G1 X-7.076 Y20.551 E18.6503
G1 X-7.134 Y19.847 E18.68
G1 X-5.257 Y12.201 E19.0111
G1 X-3.134 Y0.408 E19.51502
G0 F1500 X-2.74 Y0.479
G1 F1200 X-2.168 Y-4.471 E19.72457
G1 X-1.98 Y-4.983 E19.74751
G1 X-1.614 Y-5.434 E19.77194
G1 X2.428 Y-8.437 E19.9837
G1 X11.523 Y-16.125 E20.48453
G1 X17.103 Y-21.474 E20.80959
G1 X17.459 Y-21.706 E20.82746
G1 X17.984 Y-21.842 E20.85027
G1 X18.36 Y-21.822 E20.86611
G1 X18.832 Y-21.619 E20.88771
G1 X19.114 Y-21.382 E20.90321
G1 X19.37 Y-20.942 E20.92461
G1 X19.457 Y-20.57 E20.94068
G1 X19.396 Y-20.012 E20.96429
G1 X19.346 Y-19.872 E20.97054
G1 X-4.131 Y20.789 E22.94508
G1 X-4.409 Y21.113 E22.96303
G1 X-4.873 Y21.389 E22.98573
G1 X-5.049 Y21.435 E22.99338
G1 X-5.645 Y21.445 E23.01845
G1 X-5.938 Y21.344 E23.03149
G1 X-6.302 Y21.087 E23.05022
G1 X-6.521 Y20.817 E23.06484
G1 X-6.683 Y20.448 E23.08179
G1 X-6.73 Y19.876 E23.10593
G1 X-4.863 Y12.272 E23.43521
G1 X-2.74 Y0.479 E23.93913
G0 F1500 X-2.346 Y0.55
G1 F1200 X-1.771 Y-4.425 E24.14974
G1 X-1.608 Y-4.835 E24.1683
G1 X-1.375 Y-5.113 E24.18355
G1 X2.667 Y-8.116 E24.39531
G1 X11.801 Y-15.836 E24.89826
G1 X17.38 Y-21.185 E25.2233
G1 X17.671 Y-21.367 E25.23773
G1 X18.067 Y-21.451 E25.25476
G1 X18.317 Y-21.424 E25.26533
G1 X18.657 Y-21.259 E25.28123
G1 X18.842 Y-21.088 E25.29182
G1 X19.015 Y-20.757 E25.30753
G1 X19.064 Y-20.496 E25.31869
G1 X19 Y-20.072 E25.33673
G1 X-4.477 Y20.589 E27.31126
G1 X-4.707 Y20.846 E27.32577
G1 X-5.062 Y21.036 E27.3427
G1 X-5.537 Y21.06 E27.3627
G1 X-5.719 Y21.009 E27.37065
G1 X-6 Y20.825 E27.38478
G1 X-6.164 Y20.636 E27.3953
G1 X-6.286 Y20.396 E27.40662
G1 X-6.342 Y19.971 E27.42465
G1 X-4.469 Y12.343 E27.75497
G1 X-2.346 Y0.55 E28.25889
G0 F1500 X-1.558 Y0.692
G1 F1200 X-.977 Y-4.333 E28.47162
G1 X-.897 Y-4.471 E28.47833
G1 X3.163 Y-7.488 E28.69105
G1 X12.339 Y-15.242 E29.19627
G1 X17.934 Y-20.607 E29.52226
G1 X18.046 Y-20.661 E29.52749
G1 X18.169 Y-20.638 E29.53275
G1 X18.254 Y-20.546 E29.53802
G1 X18.27 Y-20.406 E29.54394
G1 X-5.169 Y20.189 E31.51528
G1 X-5.262 Y20.272 E31.52052
G1 X-5.386 Y20.284 E31.52576
G1 X-5.493 Y20.22 E31.531
G1 X-5.548 Y20.088 E31.53702
G1 X-3.681 Y12.485 E31.86626
G1 X-1.558 Y0.692 E32.37018
G0 F1500 X-1.952 Y0.621
G1 F1200 X-1.374 Y-4.379 E32.58185
G1 X-1.243 Y-4.672 E32.59535
G1 X-1.136 Y-4.792 E32.60211
G1 X2.916 Y-7.803 E32.81441
G1 X12.07 Y-15.539 E33.31843
G1 X17.657 Y-20.896 E33.64395
G1 X17.872 Y-21.021 E33.65441
G1 X18.12 Y-21.054 E33.66493
G1 X18.243 Y-21.031 E33.67019
G1 X18.463 Y-20.909 E33.68077
G1 X18.548 Y-20.817 E33.68604
G1 X18.651 Y-20.591 E33.69648
G1 X18.667 Y-20.451 E33.70241
G1 X18.616 Y-20.206 E33.71293
G1 X-4.823 Y20.389 E35.68427
G1 X-4.996 Y20.57 E35.69479
G1 X-5.223 Y20.67 E35.70523
G1 X-5.524 Y20.66 E35.71789
G1 X-5.698 Y20.563 E35.72627
G1 X-5.862 Y20.374 E35.73679
G1 X-5.917 Y20.242 E35.74281
G1 X-5.936 Y19.993 E35.75331
G1 X-4.075 Y12.414 E36.08151
G1 X-1.952 Y0.621 E36.58543
G1 F1500 E35.58543
G1 F600 Z1.25
G0 F1500 X-13.337 Y-12.366 Z1.25
G1 F600 Z0.25
G1 F3600 E37.34241
G1 F1200 X-12.759 Y-23.416 E37.80774
G1 X-12.879 Y-34.664 E38.2808
G1 X-13.702 Y-45.876 E38.75358
G1 X-15.207 Y-56.823 E39.21828
G1 X-17.42 Y-67.803 E39.68932
G1 X-18.901 Y-73.329 E39.92992
G1 X-18.947 Y-74.184 E39.96593
G1 X-18.747 Y-75.075 E40.00433
G1 X-18.255 Y-75.865 E40.04347
G1 X-17.525 Y-76.514 E40.08455
G1 X-16.852 Y-76.806 E40.1154
G1 X-13.465 Y-77.722 E40.26295
G1 X-12.881 Y-77.753 E40.28755
G1 X-12.462 Y-78.487 E40.32309
G1 X-11.731 Y-79.105 E40.36335
G1 X-11.063 Y-79.397 E40.39401
G1 X-9.66 Y-79.767 E40.45503
G1 X-8.814 Y-79.801 E40.49063
G1 X-7.959 Y-79.588 E40.52769
G1 X-7.352 Y-79.239 E40.55713
G1 X-6.627 Y-79.555 E40.59039
G1 X-2.138 Y-80.752 E40.78577
G1 X-1.307 Y-80.795 E40.82077
G1 X-.42 Y-80.595 E40.859
G1 X0.37 Y-80.103 E40.89814
G1 X1.022 Y-79.369 E40.93943
G1 X1.312 Y-78.703 E40.96998
G1 X3.084 Y-72.125 E41.25648
G1 X3.111 Y-71.135 E41.29812
G1 X2.79 Y-70.127 E41.34261
G1 X2.297 Y-69.329 E41.38206
G1 X2.064 Y-68.718 E41.40956
G1 X1.923 Y-68.147 E41.43429
G1 X1.891 Y-67.544 E41.45969
G1 X1.927 Y-67.036 E41.48111
G1 X2.028 Y-66.545 E41.50219
G1 X2.18 Y-66.091 E41.52232
G1 X2.448 Y-65.536 E41.54824
G1 X2.82 Y-65.038 E41.57438
G1 X3.17 Y-64.672 E41.59568
G1 X3.531 Y-64.382 E41.61515
G1 X3.976 Y-64.105 E41.6372
G1 X4.402 Y-63.908 E41.65693
G1 X4.865 Y-63.764 E41.67733
G1 X5.409 Y-63.665 E41.70058
G1 X5.974 Y-63.636 E41.72437
G1 X6.705 Y-63.735 E41.75539
G1 X7.261 Y-63.92 E41.78004
G1 X7.86 Y-64.211 E41.80804
G1 X8.347 Y-64.573 E41.83356
G1 X8.71 Y-64.925 E41.85482
G1 X9.012 Y-65.296 E41.87494
G1 X9.257 Y-65.695 E41.89463
G1 X9.479 Y-66.178 E41.91699
G1 X9.615 Y-66.613 E41.93616
G1 X9.717 Y-67.17 E41.95997
G1 X9.738 Y-67.583 E41.97736
G1 X9.7 Y-68.1 E41.99916
G1 X9.602 Y-68.582 E42.01985
G1 X9.444 Y-69.051 E42.04066
G1 X9.239 Y-69.472 E42.06035
G1 X8.938 Y-69.937 E42.08365
G1 X8.667 Y-70.258 E42.10131
G1 X8.183 Y-70.701 E42.12891
G1 X6.859 Y-71.512 E42.1942
G1 X6.201 Y-72.269 E42.23638
G1 X5.872 Y-73.005 E42.27029
G1 X4.126 Y-79.504 E42.55329
G1 X4.08 Y-80.356 E42.58917
G1 X4.279 Y-81.236 E42.62711
G1 X4.76 Y-82.024 E42.66594
G1 X5.425 Y-82.615 E42.70335
G1 X6.175 Y-82.985 E42.73852
G1 X10.654 Y-84.179 E42.93346
G1 X11.199 Y-84.207 E42.95641
G1 X11.654 Y-84.951 E42.99309
G1 X12.359 Y-85.565 E43.0324
G1 X13.078 Y-85.866 E43.06518
G1 X14.407 Y-86.227 E43.1231
G1 X15.438 Y-86.256 E43.16648
G1 X16.329 Y-85.955 E43.20603
G1 X16.747 Y-85.672 E43.22725
G1 X17.3 Y-85.967 E43.25361
G1 X20.591 Y-86.841 E43.39681
G1 X21.35 Y-86.922 E43.42891
G1 X22.234 Y-86.787 E43.46652
G1 X22.383 Y-86.733 E43.47318
G1 X23.196 Y-86.235 E43.51328
G1 X23.788 Y-85.571 E43.55069
G1 X24.154 Y-84.829 E43.58548
G1 X26.013 Y-77.871 E43.88836
G1 X28.74 Y-64.353 E44.46831
G1 X30.007 Y-55.134 E44.85965
G1 X32.588 Y-58.767 E45.04706
G1 X38.644 Y-68.498 E45.52907
G1 X39.138 Y-69.053 E45.56032
G1 X40.084 Y-69.607 E45.60642
G1 X40.962 Y-69.726 E45.64369
G1 X41.819 Y-69.658 E45.67984
G1 X42.521 Y-69.372 E45.71172
G1 X45.538 Y-67.634 E45.85814
G1 X45.946 Y-67.25 E45.88171
G1 X46.346 Y-67.393 E45.89957
G1 X47.127 Y-67.484 E45.93264
G1 X47.4 Y-67.471 E45.94413
G1 X48.263 Y-67.216 E45.98197
G1 X49.7 Y-66.388 E46.05172
G1 X50.44 Y-65.617 E46.09666
G1 X50.797 Y-64.805 E46.13397
G1 X50.865 Y-64.437 E46.1497
G1 X51.528 Y-64.172 E46.17973
G1 X55.613 Y-61.82 E46.37796
G1 X56.225 Y-61.239 E46.41345
G1 X56.665 Y-60.538 E46.44826
G1 X56.777 Y-60.234 E46.46188
G1 X56.889 Y-59.508 E46.49277
G1 X56.834 Y-58.616 E46.53036
G1 X56.545 Y-57.891 E46.56318
G1 X53.174 Y-52.041 E46.84712
G1 X52.499 Y-51.332 E46.88829
G1 X51.629 Y-50.85 E46.93012
G1 X50.752 Y-50.642 E46.96802
G1 X50.297 Y-50.475 E46.98841
G1 X49.828 Y-50.229 E47.01068
G1 X49.46 Y-49.972 E47.02955
G1 X49.075 Y-49.625 E47.05135
G1 X48.675 Y-49.163 E47.07705
G1 X48.37 Y-48.637 E47.10262
G1 X48.128 Y-48.063 E47.12882
G1 X48.002 Y-47.457 E47.15485
G1 X47.95 Y-46.851 E47.18043
G1 X48.019 Y-46.195 E47.20817
G1 X48.15 Y-45.636 E47.23231
G1 X48.4 Y-45.077 E47.25806
G1 X48.657 Y-44.654 E47.27888
G1 X48.96 Y-44.266 E47.29958
G1 X49.418 Y-43.823 E47.32638
G1 X49.929 Y-43.482 E47.35221
G1 X50.346 Y-43.275 E47.37179
G1 X50.822 Y-43.112 E47.39295
G1 X51.295 Y-43.009 E47.41331
G1 X51.79 Y-42.967 E47.4342
G1 X52.438 Y-42.997 E47.46148
G1 X53.14 Y-43.161 E47.4918
G1 X53.68 Y-43.403 E47.51668
G1 X54.23 Y-43.735 E47.5437
G1 X54.678 Y-44.142 E47.56916
G1 X55.089 Y-44.616 E47.59554
G1 X55.389 Y-45.133 E47.62068
G1 X55.587 Y-45.606 E47.64224
G1 X55.708 Y-46.043 E47.66131
G1 X55.788 Y-46.572 E47.68381
G1 X55.797 Y-47.045 E47.70371
G1 X55.746 Y-47.527 E47.72409
G1 X55.409 Y-48.924 E47.78452
G1 X55.482 Y-50.02 E47.83072
G1 X55.794 Y-50.748 E47.86403
G1 X59.16 Y-56.575 E48.14702
G1 X59.734 Y-57.181 E48.18213
G1 X60.435 Y-57.621 E48.21693
G1 X60.739 Y-57.733 E48.23056
G1 X61.465 Y-57.845 E48.26145
G1 X62.357 Y-57.79 E48.29903
G1 X63.082 Y-57.501 E48.33186
G1 X67.146 Y-55.161 E48.52907
G1 X67.557 Y-54.774 E48.55281
G1 X67.931 Y-54.911 E48.56956
G1 X68.632 Y-55.016 E48.59937
G1 X69.207 Y-54.938 E48.62378
G1 X69.866 Y-54.743 E48.65268
G1 X71.309 Y-53.911 E48.72273
G1 X72.047 Y-53.142 E48.76755
G1 X72.404 Y-52.331 E48.80481
G1 X72.472 Y-51.962 E48.82059
G1 X73.133 Y-51.697 E48.85054
G1 X76.188 Y-49.94 E48.99875
G1 X76.792 Y-49.365 E49.03382
G1 X77.234 Y-48.662 E49.06874
G1 X77.346 Y-48.358 E49.08237
G1 X77.458 Y-47.632 E49.11326
G1 X77.403 Y-46.744 E49.15068
G1 X77.168 Y-46.129 E49.17836
G1 X1.942 Y84.192 E55.50647
G1 X1.179 Y84.925 E55.55097
G1 X0.31 Y85.325 E55.5912
G1 X-.295 Y85.396 E55.61682
G1 X-1.1 Y85.373 E55.65068
G1 X-1.903 Y85.103 E55.68631
G1 X-4.966 Y83.335 E55.83504
G1 X-5.397 Y82.941 E55.8596
G1 X-5.723 Y83.065 E55.87427
G1 X-6.325 Y83.175 E55.9
G1 X-6.991 Y83.114 E55.92813
G1 X-7.717 Y82.905 E55.9599
G1 X-9.037 Y82.145 E56.02396
G1 X-9.813 Y81.404 E56.06908
G1 X-10.216 Y80.577 E56.10777
G1 X-10.311 Y80.105 E56.12802
G1 X-10.868 Y79.928 E56.15259
G1 X-14.392 Y77.895 E56.32369
G1 X-15.761 Y80.267 E56.43886
G1 X-15.338 Y81.661 E56.50013
G1 X-15.215 Y83.396 E56.57327
G1 X-15.283 Y84.201 E56.60725
G1 X-15.536 Y85.399 E56.65874
G1 X-15.843 Y86.277 E56.69786
G1 X-16.297 Y87.193 E56.74085
G1 X-17.174 Y88.44 E56.80496
G1 X-17.747 Y89.024 E56.83937
G1 X-18.696 Y89.783 E56.89047
G1 X-19.704 Y90.376 E56.93966
G1 X-20.497 Y90.711 E56.97586
G1 X-21.669 Y91.065 E57.02735
G1 X-23.086 Y91.188 E57.08716
G1 X-24.177 Y91.161 E57.13306
G1 X-25.298 Y90.914 E57.18133
G1 X-26.463 Y90.502 E57.2333
G1 X-27.222 Y90.117 E57.26909
G1 X-28.116 Y89.517 E57.31437
G1 X-28.779 Y88.939 E57.35136
G1 X-29.576 Y88.047 E57.40166
G1 X-30.221 Y87.122 E57.44909
G1 X-30.79 Y85.783 E57.51027
G1 X-31.093 Y84.749 E57.55558
G1 X-31.218 Y83.321 E57.61587
G1 X-31.193 Y82.562 E57.6478
G1 X-30.982 Y81.175 E57.7068
G1 X-30.543 Y79.971 E57.7607
G1 X-30.232 Y79.34 E57.79028
G1 X-29.485 Y78.214 E57.84711
G1 X-29.042 Y77.705 E57.87549
G1 X-28.058 Y76.822 E57.93109
G1 X-27.258 Y76.288 E57.97154
G1 X-26.212 Y75.742 E58.02116
G1 X-24.817 Y75.335 E58.08227
G1 X-24.432 Y75.29 E58.09857
G1 X-23.049 Y72.894 E58.21491
G1 X-26.572 Y70.86 E58.38599
G1 X-26.985 Y70.484 E58.40948
G1 X-27.542 Y70.654 E58.43397
G1 X-28.431 Y70.691 E58.47139
G1 X-29.315 Y70.435 E58.51009
G1 X-30.705 Y69.629 E58.57767
G1 X-31.425 Y68.922 E58.6201
G1 X-31.823 Y68.102 E58.65843
G1 X-31.917 Y67.641 E58.67822
G1 X-32.453 Y67.466 E58.70193
G1 X-35.629 Y65.632 E58.85617
G1 X-36.225 Y65.067 E58.8907
G1 X-36.756 Y64.225 E58.93257
G1 X-36.901 Y63.362 E58.96937
G1 X-36.868 Y62.586 E59.00203
G1 X-36.577 Y61.734 E59.03989
G1 X-31.208 Y51.72 E59.51774
G1 X-29.397 Y47.757 E59.70098
G1 X-38.027 Y51.279 E60.09297
G1 X-51.104 Y55.677 E60.67318
G1 X-58.073 Y57.551 E60.97667
G1 X-58.93 Y57.597 E61.01276
G1 X-59.82 Y57.397 E61.05112
G1 X-60.61 Y56.905 E61.09026
G1 X-61.262 Y56.171 E61.13155
G1 X-61.552 Y55.505 E61.1621
G1 X-62.472 Y52.102 E61.31035
G1 X-62.47 Y51.548 E61.33365
G1 X-62.727 Y51.436 E61.34544
G1 X-63.372 Y51.003 E61.37811
G1 X-63.778 Y50.475 E61.40612
G1 X-64.104 Y49.873 E61.43491
G1 X-64.515 Y48.344 E61.50149
G1 X-64.544 Y47.325 E61.54436
G1 X-64.246 Y46.434 E61.58387
G1 X-63.987 Y46.046 E61.60349
G1 X-64.245 Y45.454 E61.63065
G1 X-65.264 Y41.684 E61.79488
G1 X-67.918 Y42.395 E61.91043
G1 X-68.552 Y43.551 E61.96588
G1 X-69.142 Y44.347 E62.00755
G1 X-69.826 Y45.06 E62.0491
G1 X-70.444 Y45.577 E62.08298
G1 X-71.461 Y46.226 E62.13372
G1 X-72.338 Y46.633 E62.17438
G1 X-73.349 Y46.953 E62.21897
G1 X-74.537 Y47.158 E62.26967
G1 X-75.482 Y47.18 E62.30943
G1 X-76.805 Y47.03 E62.36542
