;FLAVOR:Marlin
;TIME:1131
;Filament used: 0.808127m
;Layer height: 0.24
;MINX:-61.486
;MINY:-54.347
;MINZ:0.24
;MAXX:67.808
;MAXY:13.64
;MAXZ:13
;TARGET_MACHINE.NAME:Unknown
;Generated with Cura_SteamEngine 5.10.1
M140 S45
M105
M190 S45
M104 S210
M105
M109 S210
;FLAVOR:Marlin
M82 ;absolute extrusion mode
G21
G90
M82
M107 T0
G28
G92 E0
G0 E3 F200
G92 E0 ; reset extrusion distance
M106 S255 ; Enable cooling fan full speed
G1 X-98 Y0 Z0.4 F3000 ; move to arc start
G3 X0 Y-98 I98 Z0.4 E40 F400 ; lay arc stripe 90deg
G92 E0 ; reset extrusion distance
G4 P500 ; wait for 0.5 sec
G0 Z10 E-1 ; Lift 15mm and retract 1mm filament
G4 P2000 ; wait for 5 sec
G0 Z15
M107 ; Disable cooling fan
G1 X0 Y-85 Z4 E0 F3000 ; get off the bed
M82 ;absolute extrusion mode
G92 E0
G92 E0
G1 F1500 E-1
;LAYER_COUNT:33
;LAYER:0
M106 S102
G0 F3600 X53.73 Y1.989 Z0.24
;TYPE:SKIRT
G1 F3600 E0.71493
G1 F1200 X53.721 Y-4.295 E0.94325
G1 X57.808 Y-17.235 E1.43632
G1 X58.232 Y-17.976 E1.46734
G1 X58.701 Y-18.457 E1.49175
G1 X59.382 Y-18.912 E1.52151
G1 X60.471 Y-19.159 E1.56209
G1 X61.399 Y-19.058 E1.596
G1 X63.561 Y-18.368 E1.67847
G1 X64.229 Y-18.006 E1.70607
G1 X64.754 Y-17.542 E1.73153
G1 X65.266 Y-16.791 E1.76456
G1 X65.515 Y-15.697 E1.80532
G1 X65.414 Y-14.784 E1.8387
G1 X63.064 Y-7.339 E2.12237
G1 X65.378 Y-6.606 E2.21057
G1 X66.28 Y-6.052 E2.24903
G1 X67.113 Y-5.171 E2.29308
G1 X67.6 Y-4.065 E2.33699
G1 X67.752 Y-3.286 E2.36583
G1 X67.717 Y-2.09 E2.40931
G1 X67.3 Y-1.022 E2.45097
G1 X66.723 Y-.223 E2.48678
G1 X66.009 Y0.393 E2.52104
G1 X65.116 Y0.843 E2.55737
G1 X64.523 Y1.006 E2.57972
G1 X63.312 Y1.071 E2.62379
G1 X62.533 Y0.879 E2.65294
G1 X62.343 Y0.877 E2.65984
G1 X61.974 Y1.014 E2.67414
G1 X61.787 Y1.269 E2.68563
G1 X61.74 Y1.53 E2.69527
G1 X61.862 Y1.895 E2.70925
G1 X62.131 Y2.102 E2.72159
G1 X62.288 Y2.145 E2.7275
G1 X62.528 Y2.142 E2.73622
G1 X63.142 Y1.994 E2.75917
G1 X64.074 Y1.953 E2.79307
G1 X65.055 Y2.152 E2.82944
G1 X66.038 Y2.607 E2.8688
G1 X67.086 Y3.653 E2.9226
G1 X67.575 Y4.717 E2.96514
G1 X67.808 Y5.774 E3.00447
G1 X67.654 Y6.808 E3.04246
G1 X67.354 Y7.739 E3.078
G1 X66.633 Y8.772 E3.12377
G1 X65.673 Y9.476 E3.16703
G1 X65.051 Y9.754 E3.19178
G1 X63.518 Y10.081 E3.24874
G1 X62.553 Y10.154 E3.2839
G1 X60.926 Y10.036 E3.34317
G1 X59.955 Y9.811 E3.37939
G1 X58.493 Y9.236 E3.43647
G1 X57.511 Y8.662 E3.4778
G1 X56.817 Y8.137 E3.50942
G1 X56.072 Y7.429 E3.54676
G1 X55.098 Y6.182 E3.60426
G1 X54.514 Y5.12 E3.64829
G1 X54.151 Y4.192 E3.6845
G1 X53.824 Y2.826 E3.73554
G1 X53.73 Y1.989 E3.76614
G0 F3600 X54.128 Y1.944
G1 F1200 X54.121 Y-4.235 E3.99065
G1 X58.175 Y-17.071 E4.47976
G1 X58.555 Y-17.735 E4.50756
G1 X58.956 Y-18.146 E4.52842
G1 X59.544 Y-18.539 E4.55412
G1 X60.493 Y-18.754 E4.58947
G1 X61.317 Y-18.664 E4.61959
G1 X63.401 Y-17.999 E4.69908
G1 X63.999 Y-17.675 E4.72379
G1 X64.452 Y-17.275 E4.74575
G1 X64.893 Y-16.628 E4.7742
G1 X65.11 Y-15.675 E4.80971
G1 X65.02 Y-14.862 E4.83943
G1 X62.563 Y-7.078 E5.13602
G1 X65.21 Y-6.24 E5.2369
G1 X66.024 Y-5.74 E5.27161
G1 X66.776 Y-4.945 E5.31137
G1 X67.215 Y-3.947 E5.35099
G1 X67.351 Y-3.252 E5.37672
G1 X67.319 Y-2.171 E5.41602
G1 X66.945 Y-1.213 E5.45338
G1 X66.427 Y-.496 E5.48552
G1 X65.785 Y0.058 E5.51634
G1 X64.974 Y0.467 E5.54934
G1 X64.455 Y0.61 E5.5689
G1 X63.35 Y0.669 E5.60911
G1 X62.583 Y0.48 E5.63781
G1 X62.291 Y0.476 E5.64842
G1 X61.909 Y0.583 E5.66283
G1 X61.696 Y0.716 E5.67196
G1 X61.428 Y1.082 E5.68844
G1 X61.349 Y1.308 E5.69714
G1 X61.338 Y1.568 E5.7066
G1 X61.429 Y1.947 E5.72076
G1 X61.556 Y2.164 E5.72989
G1 X61.95 Y2.466 E5.74793
G1 X62.238 Y2.546 E5.75879
G1 X62.579 Y2.541 E5.77118
G1 X63.197 Y2.392 E5.79428
G1 X64.044 Y2.355 E5.82509
G1 X64.93 Y2.535 E5.85794
G1 X65.805 Y2.94 E5.89297
G1 X66.752 Y3.885 E5.94158
G1 X67.193 Y4.846 E5.98
G1 X67.401 Y5.788 E6.01505
G1 X67.258 Y6.749 E6.05036
G1 X66.992 Y7.559 E6.08133
G1 X66.343 Y8.489 E6.12254
G1 X65.47 Y9.129 E6.16187
G1 X64.927 Y9.371 E6.18347
G1 X63.486 Y9.682 E6.23704
G1 X62.581 Y9.755 E6.27003
G1 X61.016 Y9.646 E6.32703
G1 X60.045 Y9.421 E6.36324
G1 X58.694 Y8.89 E6.41599
G1 X57.751 Y8.342 E6.45562
G1 X57.091 Y7.846 E6.48562
G1 X56.386 Y7.182 E6.52081
G1 X55.448 Y5.989 E6.57595
G1 X54.887 Y4.974 E6.61809
G1 X54.524 Y4.046 E6.65429
G1 X54.222 Y2.781 E6.70155
G1 X54.128 Y1.944 E6.73215
G0 F3600 X54.526 Y1.899
G1 F1200 X54.521 Y-4.175 E6.95285
G1 X58.542 Y-16.907 E7.43799
G1 X58.876 Y-17.491 E7.46244
G1 X59.178 Y-17.813 E7.47848
G1 X59.705 Y-18.165 E7.5015
G1 X60.515 Y-18.349 E7.53168
G1 X61.235 Y-18.27 E7.558
G1 X63.244 Y-17.629 E7.63463
G1 X63.767 Y-17.346 E7.65623
G1 X64.15 Y-17.008 E7.67479
G1 X64.52 Y-16.465 E7.69867
G1 X64.705 Y-15.653 E7.72893
G1 X64.626 Y-14.94 E7.75499
G1 X62.062 Y-6.817 E8.0645
G1 X65.042 Y-5.874 E8.17807
G1 X65.768 Y-5.428 E8.20903
G1 X66.439 Y-4.719 E8.2445
G1 X66.83 Y-3.829 E8.27982
G1 X66.95 Y-3.218 E8.30244
G1 X66.921 Y-2.252 E8.33756
G1 X66.59 Y-1.404 E8.37063
G1 X66.131 Y-.769 E8.3991
G1 X65.561 Y-.277 E8.42646
G1 X64.832 Y0.091 E8.45613
G1 X64.387 Y0.213 E8.4729
G1 X63.388 Y0.267 E8.50925
G1 X62.633 Y0.081 E8.5375
G1 X62.259 Y0.076 E8.55109
G1 X61.981 Y0.125 E8.56135
G1 X61.727 Y0.224 E8.57126
G1 X61.434 Y0.408 E8.58383
G1 X61.206 Y0.668 E8.59639
G1 X61.065 Y0.91 E8.60657
G1 X60.951 Y1.235 E8.61908
G1 X60.936 Y1.588 E8.63192
G1 X60.976 Y1.863 E8.64202
G1 X61.065 Y2.117 E8.6518
G1 X61.241 Y2.417 E8.66444
G1 X61.496 Y2.654 E8.67709
G1 X61.787 Y2.837 E8.68958
G1 X62.185 Y2.947 E8.70458
G1 X62.63 Y2.94 E8.72075
G1 X63.252 Y2.79 E8.744
G1 X64.014 Y2.757 E8.77171
G1 X64.805 Y2.918 E8.80104
G1 X65.572 Y3.273 E8.83175
G1 X66.418 Y4.117 E8.87517
G1 X66.811 Y4.975 E8.90946
G1 X66.994 Y5.802 E8.94024
G1 X66.862 Y6.69 E8.97286
G1 X66.631 Y7.377 E8.99919
G1 X66.053 Y8.206 E9.03591
G1 X65.267 Y8.782 E9.07132
G1 X64.804 Y8.988 E9.08973
G1 X63.454 Y9.283 E9.13994
G1 X62.549 Y9.356 E9.17293
G1 X61.106 Y9.256 E9.22549
G1 X60.135 Y9.031 E9.26171
G1 X58.895 Y8.544 E9.31011
G1 X57.952 Y7.996 E9.34974
G1 X57.364 Y7.553 E9.37649
G1 X56.7 Y6.934 E9.40948
G1 X55.798 Y5.795 E9.46227
G1 X55.26 Y4.828 E9.50248
G1 X54.897 Y3.9 E9.53868
G1 X54.62 Y2.736 E9.58216
G1 X54.526 Y1.899 E9.61276
G0 F3600 X54.924 Y1.854
G1 F1200 X54.921 Y-4.115 E9.82965
G1 X58.909 Y-16.743 E10.31082
G1 X59.199 Y-17.25 E10.33204
G1 X59.47 Y-17.539 E10.34644
G1 X59.865 Y-17.791 E10.36346
G1 X60.537 Y-17.944 E10.38851
G1 X61.155 Y-17.876 E10.4111
G1 X63.061 Y-17.273 E10.48373
G1 X63.502 Y-17.046 E10.50176
G1 X63.885 Y-16.708 E10.52032
G1 X64.147 Y-16.303 E10.53784
G1 X64.3 Y-15.631 E10.56288
G1 X64.232 Y-15.018 E10.58529
G1 X61.637 Y-6.796 E10.89857
G1 X61.666 Y-6.597 E10.90587
G1 X61.83 Y-6.471 E10.91339
G1 X64.874 Y-5.508 E11.0294
G1 X65.515 Y-5.114 E11.05673
G1 X66.101 Y-4.495 E11.08771
G1 X66.447 Y-3.707 E11.11898
G1 X66.549 Y-3.188 E11.13819
G1 X66.523 Y-2.334 E11.16924
G1 X66.234 Y-1.594 E11.1981
G1 X65.835 Y-1.042 E11.22285
G1 X65.337 Y-.612 E11.24676
G1 X64.69 Y-.285 E11.2731
G1 X64.319 Y-.183 E11.28708
G1 X63.426 Y-.135 E11.31957
G1 X62.683 Y-.318 E11.34738
G1 X62.227 Y-.324 E11.36395
G1 X61.872 Y-.262 E11.37704
G1 X61.548 Y-.136 E11.38967
G1 X61.17 Y0.101 E11.40589
G1 X60.88 Y0.432 E11.42188
G1 X60.701 Y0.74 E11.43482
G1 X60.553 Y1.161 E11.45103
G1 X60.535 Y1.607 E11.46725
G1 X60.586 Y1.96 E11.48021
G1 X60.699 Y2.283 E11.49265
G1 X60.927 Y2.672 E11.50903
G1 X61.248 Y2.971 E11.52497
G1 X61.626 Y3.208 E11.54118
G1 X62.133 Y3.348 E11.56029
G1 X62.681 Y3.339 E11.58021
G1 X63.307 Y3.188 E11.6036
G1 X63.983 Y3.159 E11.62819
G1 X64.68 Y3.301 E11.65403
G1 X65.341 Y3.607 E11.6805
G1 X66.084 Y4.348 E11.71863
G1 X66.429 Y5.102 E11.74876
G1 X66.587 Y5.816 E11.77533
G1 X66.466 Y6.631 E11.80526
G1 X66.27 Y7.195 E11.82696
G1 X65.763 Y7.923 E11.85919
G1 X65.062 Y8.436 E11.89076
G1 X64.718 Y8.597 E11.90456
G1 X63.422 Y8.884 E11.95279
G1 X62.517 Y8.957 E11.98578
G1 X61.195 Y8.866 E12.03393
G1 X60.28 Y8.658 E12.06802
G1 X59.096 Y8.198 E12.11418
G1 X58.153 Y7.65 E12.15381
G1 X57.637 Y7.26 E12.17731
G1 X56.973 Y6.641 E12.21029
G1 X56.147 Y5.599 E12.2586
G1 X55.633 Y4.682 E12.2968
G1 X55.27 Y3.754 E12.33301
G1 X55.018 Y2.691 E12.3727
G1 X54.924 Y1.854 E12.40331
G0 F3600 X55.322 Y1.809
G1 F1200 X55.321 Y-4.055 E12.61637
G1 X59.29 Y-16.623 E13.09526
G1 X59.542 Y-17.045 E13.11312
G1 X59.753 Y-17.256 E13.12396
G1 X60.023 Y-17.417 E13.13539
G1 X60.561 Y-17.539 E13.15543
G1 X61.034 Y-17.495 E13.17269
G1 X62.94 Y-16.892 E13.24533
G1 X63.314 Y-16.693 E13.26072
G1 X63.613 Y-16.415 E13.27556
G1 X63.773 Y-16.146 E13.28693
G1 X63.895 Y-15.608 E13.30697
G1 X63.851 Y-15.138 E13.32413
G1 X61.239 Y-6.862 E13.63946
G1 X61.229 Y-6.627 E13.648
G1 X61.331 Y-6.351 E13.65869
G1 X61.641 Y-6.111 E13.67294
G1 X64.704 Y-5.143 E13.78966
G1 X65.263 Y-4.799 E13.81351
G1 X65.763 Y-4.271 E13.83993
G1 X66.081 Y-3.546 E13.8687
G1 X66.149 Y-3.2 E13.88151
G1 X66.125 Y-2.416 E13.91001
G1 X65.878 Y-1.784 E13.93466
G1 X65.539 Y-1.315 E13.95569
G1 X65.113 Y-.947 E13.97614
G1 X64.571 Y-.667 E13.99831
G1 X64.297 Y-.582 E14.00873
G1 X63.464 Y-.537 E14.03905
G1 X62.733 Y-.717 E14.0664
G1 X62.194 Y-.725 E14.08599
G1 X61.764 Y-.649 E14.10185
G1 X61.367 Y-.495 E14.11733
G1 X60.908 Y-.207 E14.13701
G1 X60.553 Y0.198 E14.15658
G1 X60.336 Y0.57 E14.17223
G1 X60.156 Y1.085 E14.19205
G1 X60.133 Y1.626 E14.21173
G1 X60.195 Y2.054 E14.22744
G1 X60.335 Y2.452 E14.24277
G1 X60.612 Y2.924 E14.26266
G1 X61.004 Y3.29 E14.28214
G1 X61.463 Y3.577 E14.30181
G1 X62.084 Y3.749 E14.32523
G1 X62.733 Y3.738 E14.34881
G1 X63.362 Y3.586 E14.37233
G1 X63.952 Y3.561 E14.39378
G1 X64.555 Y3.684 E14.41614
G1 X65.11 Y3.941 E14.43837
G1 X65.75 Y4.579 E14.4712
G1 X66.047 Y5.229 E14.49717
G1 X66.18 Y5.83 E14.51953
G1 X66.07 Y6.572 E14.54679
G1 X65.91 Y7.012 E14.5638
G1 X65.472 Y7.641 E14.59165
G1 X64.88 Y8.08 E14.61843
G1 X64.631 Y8.207 E14.62859
G1 X63.39 Y8.485 E14.6748
G1 X62.485 Y8.558 E14.70779
G1 X61.282 Y8.475 E14.7516
G1 X60.425 Y8.285 E14.7835
G1 X59.241 Y7.825 E14.82965
G1 X58.393 Y7.33 E14.86533
G1 X57.91 Y6.967 E14.88728
G1 X57.246 Y6.348 E14.92026
G1 X56.495 Y5.402 E14.96415
G1 X56.006 Y4.536 E15.00029
G1 X55.643 Y3.608 E15.03649
G1 X55.416 Y2.646 E15.07241
G1 X55.322 Y1.809 E15.10301
G0 F3600 X55.722 Y1.809
G1 F1200 X55.721 Y-3.995 E15.3139
G1 X59.658 Y-16.461 E15.78891
G1 X59.825 Y-16.762 E15.80141
G1 X60.036 Y-16.973 E15.81225
G1 X60.208 Y-17.063 E15.81931
G1 X60.637 Y-17.146 E15.83519
G1 X60.913 Y-17.114 E15.84528
G1 X62.819 Y-16.511 E15.91792
G1 X63.119 Y-16.344 E15.93039
G1 X63.329 Y-16.133 E15.94121
G1 X63.419 Y-15.961 E15.94826
G1 X63.502 Y-15.532 E15.96414
G1 X63.47 Y-15.258 E15.97416
G1 X60.841 Y-6.928 E16.29155
G1 X60.827 Y-6.593 E16.30373
G1 X60.883 Y-6.346 E16.31294
G1 X61.001 Y-6.119 E16.32223
G1 X61.172 Y-5.933 E16.33141
G1 X61.47 Y-5.746 E16.3442
G1 X64.537 Y-4.777 E16.46107
G1 X65.009 Y-4.486 E16.48121
G1 X65.425 Y-4.047 E16.50319
G1 X65.715 Y-3.385 E16.52945
G1 X65.749 Y-3.212 E16.53586
G1 X65.727 Y-2.497 E16.56185
G1 X65.524 Y-1.977 E16.58213
G1 X65.27 Y-1.611 E16.59832
G1 X64.929 Y-1.302 E16.61504
G1 X64.387 Y-1.022 E16.6372
G1 X64.225 Y-.978 E16.6433
G1 X63.502 Y-.939 E16.66961
G1 X62.783 Y-1.116 E16.69652
G1 X62.161 Y-1.126 E16.71912
G1 X61.655 Y-1.036 E16.73779
G1 X61.186 Y-.854 E16.75607
G1 X60.648 Y-.516 E16.77916
G1 X60.225 Y-0.035 E16.80243
G1 X59.97 Y0.403 E16.82085
G1 X59.759 Y1.009 E16.84416
G1 X59.731 Y1.645 E16.8673
G1 X59.804 Y2.146 E16.88569
G1 X59.972 Y2.625 E16.90414
G1 X60.297 Y3.178 E16.92744
G1 X60.757 Y3.607 E16.9503
G1 X61.3 Y3.946 E16.97356
G1 X62.034 Y4.15 E17.00124
G1 X62.785 Y4.137 E17.02853
G1 X63.456 Y3.975 E17.05361
G1 X63.872 Y3.953 E17.06875
G1 X64.428 Y4.066 E17.08936
G1 X64.88 Y4.276 E17.10747
G1 X65.416 Y4.81 E17.13496
G1 X65.683 Y5.395 E17.15833
G1 X65.773 Y5.843 E17.17493
G1 X65.674 Y6.514 E17.19958
G1 X65.582 Y6.783 E17.20991
G1 X65.18 Y7.36 E17.23546
G1 X64.642 Y7.759 E17.2598
G1 X64.494 Y7.828 E17.26573
G1 X63.358 Y8.086 E17.30806
G1 X62.453 Y8.159 E17.34105
G1 X61.369 Y8.084 E17.38053
G1 X60.512 Y7.894 E17.41242
G1 X59.442 Y7.479 E17.45412
G1 X58.632 Y7.009 E17.48815
G1 X58.183 Y6.674 E17.5085
G1 X57.519 Y6.055 E17.54149
G1 X56.843 Y5.204 E17.58098
G1 X56.379 Y4.39 E17.61502
G1 X56.016 Y3.462 E17.65123
G1 X55.806 Y2.556 E17.68502
G1 X55.722 Y1.809 E17.71234
G0 F3600 X56.522 Y1.809
G1 F1200 X56.521 Y-3.875 E17.91886
G1 X60.42 Y-16.221 E18.38929
G1 X60.493 Y-16.323 E18.39385
G1 X60.671 Y-16.352 E18.40041
G1 X62.577 Y-15.749 E18.47304
G1 X62.679 Y-15.676 E18.4776
G1 X62.708 Y-15.498 E18.48415
G1 X60.045 Y-7.06 E18.80565
G1 X60.023 Y-6.523 E18.82518
G1 X60.126 Y-6.067 E18.84217
G1 X60.341 Y-5.656 E18.85902
G1 X60.655 Y-5.313 E18.87592
G1 X61.13 Y-5.016 E18.89627
G1 X64.251 Y-4.03 E19.0152
G1 X64.507 Y-3.871 E19.02615
G1 X64.788 Y-3.555 E19.04152
G1 X64.947 Y-3.146 E19.05746
G1 X64.948 Y-2.7 E19.07367
G1 X64.858 Y-2.419 E19.08439
G1 X64.658 Y-2.118 E19.09752
G1 X64.476 Y-1.953 E19.10644
G1 X64.095 Y-1.771 E19.12179
G1 X63.635 Y-1.729 E19.13857
G1 X62.882 Y-1.914 E19.16674
G1 X62.094 Y-1.928 E19.19538
G1 X61.438 Y-1.81 E19.2196
G1 X60.824 Y-1.572 E19.24352
G1 X60.26 Y-1.218 E19.26772
G1 X60.016 Y-1.009 E19.27939
G1 X59.575 Y-.507 E19.30367
G1 X59.238 Y0.069 E19.32792
G1 X59.019 Y0.702 E19.35226
G1 X58.958 Y1.011 E19.3637
G1 X58.927 Y1.683 E19.38815
G1 X59.023 Y2.337 E19.41216
G1 X59.244 Y2.966 E19.43639
G1 X59.579 Y3.536 E19.46041
G1 X59.784 Y3.793 E19.47236
G1 X60.266 Y4.243 E19.49631
G1 X60.838 Y4.6 E19.52081
G1 X61.125 Y4.727 E19.53222
G1 X61.78 Y4.91 E19.55693
G1 X62.096 Y4.95 E19.5685
G1 X62.889 Y4.935 E19.59732
G1 X63.644 Y4.753 E19.62554
G1 X63.885 Y4.753 E19.6343
G1 X64.241 Y4.844 E19.64765
G1 X64.455 Y4.96 E19.65649
G1 X64.79 Y5.317 E19.67428
G1 X64.948 Y5.71 E19.68967
G1 X64.97 Y5.899 E19.69658
G1 X64.884 Y6.387 E19.71459
G1 X64.65 Y6.758 E19.73053
G1 X64.233 Y7.067 E19.74939
G1 X63.294 Y7.288 E19.78444
G1 X62.389 Y7.361 E19.81743
G1 X61.543 Y7.302 E19.84824
G1 X60.686 Y7.112 E19.88014
G1 X59.841 Y6.785 E19.91306
G1 X59.106 Y6.364 E19.94383
G1 X58.727 Y6.087 E19.96089
G1 X58.104 Y5.512 E19.9917
G1 X57.537 Y4.804 E20.02465
G1 X57.099 Y4.044 E20.05653
G1 X56.779 Y3.227 E20.08841
G1 X56.586 Y2.378 E20.12004
G1 X56.522 Y1.809 E20.14085
G0 F3600 X56.122 Y1.809
G1 F1200 X56.121 Y-3.935 E20.34956
G1 X60.039 Y-16.341 E20.82227
G1 X60.168 Y-16.556 E20.83138
G1 X60.301 Y-16.674 E20.83785
G1 X60.607 Y-16.747 E20.84928
G1 X60.792 Y-16.733 E20.85602
G1 X62.698 Y-16.13 E20.92865
G1 X62.912 Y-16.001 E20.93773
G1 X63.03 Y-15.868 E20.94419
G1 X63.103 Y-15.562 E20.95562
G1 X63.089 Y-15.378 E20.96233
G1 X60.443 Y-6.994 E21.28177
G1 X60.425 Y-6.558 E21.29763
G1 X60.505 Y-6.205 E21.31078
G1 X60.67 Y-5.889 E21.32373
G1 X60.913 Y-5.623 E21.33682
G1 X61.3 Y-5.381 E21.35341
G1 X64.371 Y-4.411 E21.47043
G1 X64.718 Y-4.211 E21.48498
G1 X65.087 Y-3.821 E21.50449
G1 X65.349 Y-3.224 E21.52818
G1 X65.329 Y-2.578 E21.55166
G1 X65.191 Y-2.198 E21.56635
G1 X64.991 Y-1.897 E21.57948
G1 X64.745 Y-1.657 E21.59197
G1 X64.203 Y-1.377 E21.61414
G1 X63.54 Y-1.341 E21.63826
G1 X62.833 Y-1.515 E21.66472
G1 X62.128 Y-1.527 E21.69034
G1 X61.546 Y-1.423 E21.71182
G1 X61.005 Y-1.213 E21.7329
G1 X60.388 Y-.825 E21.75939
G1 X59.899 Y-.269 E21.78629
G1 X59.604 Y0.236 E21.80754
G1 X59.362 Y0.934 E21.83439
G1 X59.329 Y1.664 E21.86094
G1 X59.414 Y2.243 E21.8822
G1 X59.607 Y2.794 E21.90341
G1 X59.911 Y3.311 E21.92521
G1 X60.079 Y3.522 E21.93501
G1 X60.51 Y3.924 E21.95642
G1 X61.136 Y4.315 E21.98324
G1 X61.858 Y4.516 E22.01047
G1 X62.118 Y4.549 E22.01999
G1 X62.837 Y4.536 E22.04612
