;FLAVOR:Marlin
;TIME:811
;Filament used: 1.15524m
;Layer height: 0.3
;MINX:-15.782
;MINY:-69.145
;MINZ:0.4
;MAXX:15.795
;MAXY:0
;MAXZ:26.8
;TARGET_MACHINE.NAME:Unknown
;Generated with Cura_SteamEngine 5.11.0
M140 S50
M105
M190 S50
M104 S220
M105
M109 S220
;FLAVOR:Marlin
M82 ;absolute extrusion mode
G21
G90
M82
M107 T0
G28
G92 E0
G0 E3 F200
G92 E0 ; reset extrusion distance
M106 S255 ; Enable cooling fan full speed
G1 X-98 Y0 Z0.4 F3000 ; move to arc start
G3 X0 Y-98 I98 Z0.4 E40 F400 ; lay arc stripe 90deg
G92 E0 ; reset extrusion distance
G4 P500 ; wait for 0.5 sec
G0 Z10 E-1 ; Lift 15mm and retract 1mm filament
G4 P2000 ; wait for 5 sec
G0 Z15
M107 ; Disable cooling fan
G1 X0 Y-85 Z4 E0 F3000 ; get off the bed
M82 ;absolute extrusion mode
G92 E0
G92 E0
G1 F1500 E-6.5
;LAYER_COUNT:89
;LAYER:0
M107
G1 F600 Z1.4
G0 F3600 X0.00 Y0.00 Z1.4
G0 X0.027 Y-37.556
;TYPE:SKIRT
G1 F600 Z0.4
G1 F1500 E0
G1 F1800 X-1.672 Y-37.642 E0.13014
G1 X-2.476 Y-37.749 E0.19218
G1 X-3.779 Y-38.027 E0.2941
G1 X-5.453 Y-38.524 E0.42769
G1 X-6.134 Y-38.79 E0.48362
G1 X-7.894 Y-39.681 E0.63452
G1 X-8.881 Y-40.301 E0.72369
G1 X-10.072 Y-41.191 E0.83743
G1 X-10.903 Y-41.928 E0.92239
G1 X-11.758 Y-42.812 E1.01647
G1 X-12.594 Y-43.824 E1.11689
G1 X-13.37 Y-44.95 E1.2215
G1 X-14.055 Y-46.149 E1.32714
G1 X-14.49 Y-47.068 E1.40492
G1 X-15.007 Y-48.434 E1.51665
G1 X-15.354 Y-49.658 E1.61397
G1 X-15.648 Y-51.271 E1.7394
G1 X-15.782 Y-52.816 E1.85803
G1 X-15.781 Y-53.896 E1.94065
G1 X-15.682 Y-55.185 E2.03954
G1 X-15.44 Y-56.673 E2.15487
G1 X-15.122 Y-57.92 E2.25332
G1 X-14.833 Y-58.777 E2.3225
G1 X-14.173 Y-60.336 E2.45201
G1 X-13.836 Y-60.982 E2.50775
G1 X-12.929 Y-62.435 E2.63878
G1 X-12.412 Y-63.135 E2.70535
G1 X-11.049 Y-64.645 E2.86096
G1 X-10.387 Y-65.262 E2.93019
G1 X-9.341 Y-66.092 E3.03233
G1 X-8.072 Y-66.934 E3.14884
G1 X-7.058 Y-67.491 E3.23734
G1 X-5.808 Y-68.048 E3.34202
G1 X-4.702 Y-68.435 E3.43166
G1 X-3.107 Y-68.845 E3.55764
G1 X-2.437 Y-68.964 E3.6097
G1 X-.466 Y-69.142 E3.76109
G1 X0.317 Y-69.145 E3.82099
G1 X1.667 Y-69.059 E3.92447
G1 X3.655 Y-68.724 E4.07869
G1 X4.416 Y-68.523 E4.13891
G1 X6.158 Y-67.907 E4.28025
G1 X6.94 Y-67.549 E4.34604
G1 X8.481 Y-66.688 E4.48108
G1 X9.218 Y-66.191 E4.54908
G1 X10.169 Y-65.445 E4.64154
G1 X11.613 Y-64.066 E4.79429
G1 X12.068 Y-63.552 E4.8468
G1 X12.971 Y-62.373 E4.96041
G1 X13.668 Y-61.277 E5.05977
G1 X14.394 Y-59.879 E5.18027
G1 X14.653 Y-59.276 E5.23048
G1 X15.254 Y-57.474 E5.37579
G1 X15.45 Y-56.673 E5.43887
G1 X15.748 Y-54.521 E5.60507
G1 X15.795 Y-53.443 E5.68761
G1 X15.758 Y-52.275 E5.77701
G1 X15.589 Y-50.855 E5.8864
G1 X15.311 Y-49.46 E5.99521
G1 X15.114 Y-48.748 E6.05173
G1 X14.68 Y-47.522 E6.15122
G1 X13.845 Y-45.759 E6.30045
G1 X13.356 Y-44.929 E6.37414
G1 X12.448 Y-43.639 E6.49482
G1 X11.663 Y-42.706 E6.58809
G1 X10.635 Y-41.673 E6.69958
G1 X10.015 Y-41.137 E6.76227
G1 X8.627 Y-40.125 E6.89368
G1 X7.701 Y-39.563 E6.97654
G1 X6.21 Y-38.83 E7.10364
G1 X5.477 Y-38.539 E7.16397
G1 X3.889 Y-38.05 E7.29108
G1 X2.847 Y-37.82 E7.37271
G1 X0.931 Y-37.586 E7.52037
G1 X0.027 Y-37.556 E7.58956
G0 F3600 X0.014 Y-37.956
G1 F1800 X-1.619 Y-38.039 E7.71464
G1 X-2.423 Y-38.146 E7.77669
G1 X-3.695 Y-38.418 E7.8762
G1 X-5.307 Y-38.897 E8.00484
G1 X-5.988 Y-39.163 E8.06077
G1 X-7.681 Y-40.02 E8.20593
G1 X-8.668 Y-40.64 E8.29509
G1 X-9.807 Y-41.491 E8.40386
G1 X-10.615 Y-42.206 E8.48639
G1 X-11.47 Y-43.09 E8.58047
G1 X-12.265 Y-44.051 E8.67588
G1 X-13.023 Y-45.149 E8.77795
G1 X-13.693 Y-46.32 E8.88116
G1 X-14.128 Y-47.239 E8.95894
G1 X-14.622 Y-48.544 E9.06568
G1 X-14.96 Y-49.73 E9.16002
G1 X-15.254 Y-51.343 E9.28544
G1 X-15.382 Y-52.816 E9.39855
G1 X-15.382 Y-53.866 E9.47887
G1 X-15.287 Y-55.121 E9.57515
G1 X-15.052 Y-56.574 E9.68775
G1 X-14.734 Y-57.821 E9.7862
G1 X-14.465 Y-58.621 E9.85076
G1 X-13.818 Y-60.151 E9.97784
G1 X-13.481 Y-60.797 E10.03358
G1 X-12.607 Y-62.197 E10.15983
G1 X-12.09 Y-62.897 E10.2264
G1 X-10.776 Y-64.352 E10.37638
G1 X-10.114 Y-64.969 E10.44561
G1 X-9.093 Y-65.778 E10.54526
G1 X-7.879 Y-66.583 E10.65669
G1 X-6.865 Y-67.14 E10.74519
G1 X-5.676 Y-67.67 E10.84477
G1 X-4.57 Y-68.057 E10.93441
G1 X-3.037 Y-68.451 E11.05549
G1 X-2.367 Y-68.57 E11.10755
G1 X-.464 Y-68.742 E11.25372
G1 X0.319 Y-68.745 E11.31362
G1 X1.601 Y-68.664 E11.41188
G1 X3.553 Y-68.337 E11.56329
G1 X4.314 Y-68.136 E11.6235
G1 X5.991 Y-67.543 E11.75957
G1 X6.773 Y-67.185 E11.82537
G1 X8.257 Y-66.356 E11.9554
G1 X8.994 Y-65.859 E12.0234
G1 X9.893 Y-65.156 E12.1107
G1 X11.313 Y-63.801 E12.26085
G1 X11.768 Y-63.287 E12.31336
G1 X12.633 Y-62.158 E12.42217
G1 X13.33 Y-61.062 E12.52153
G1 X14.026 Y-59.721 E12.6371
G1 X14.285 Y-59.118 E12.68731
G1 X14.865 Y-57.379 E12.82754
G1 X15.061 Y-56.578 E12.89063
G1 X15.348 Y-54.504 E13.0508
G1 X15.395 Y-53.426 E13.13334
G1 X15.361 Y-52.322 E13.21783
G1 X15.197 Y-50.933 E13.32483
G1 X14.925 Y-49.567 E13.43138
G1 X14.728 Y-48.855 E13.48789
G1 X14.303 Y-47.656 E13.5852
G1 X13.5 Y-45.962 E13.72861
G1 X13.011 Y-45.132 E13.80231
G1 X12.142 Y-43.897 E13.91783
G1 X11.357 Y-42.964 E14.0111
G1 X10.373 Y-41.976 E14.11777
G1 X9.753 Y-41.44 E14.18047
G1 X8.419 Y-40.467 E14.30678
G1 X7.493 Y-39.905 E14.38964
G1 X6.062 Y-39.202 E14.51161
G1 X5.329 Y-38.911 E14.57194
G1 X3.803 Y-38.441 E14.69408
G1 X2.761 Y-38.211 E14.77571
G1 X0.918 Y-37.986 E14.91775
G1 X0.014 Y-37.956 E14.98694
G0 F3600 X0.034 Y-38.356
G1 F1800 X-1.566 Y-38.436 E15.10949
G1 X-2.37 Y-38.543 E15.17154
G1 X-3.581 Y-38.801 E15.26625
G1 X-5.161 Y-39.27 E15.39233
G1 X-5.842 Y-39.536 E15.44826
G1 X-7.468 Y-40.359 E15.58767
G1 X-8.455 Y-40.979 E15.67684
G1 X-9.567 Y-41.811 E15.78308
G1 X-10.327 Y-42.484 E15.86074
G1 X-11.182 Y-43.368 E15.95482
G1 X-11.936 Y-44.279 E16.04528
G1 X-12.676 Y-45.348 E16.14474
G1 X-13.331 Y-46.491 E16.24552
G1 X-13.766 Y-47.41 E16.3233
G1 X-14.237 Y-48.654 E16.42505
G1 X-14.566 Y-49.802 E16.51641
G1 X-14.86 Y-51.415 E16.64183
G1 X-14.982 Y-52.816 E16.74941
G1 X-14.983 Y-53.836 E16.82744
G1 X-14.892 Y-55.057 E16.9211
G1 X-14.664 Y-56.475 E17.03097
G1 X-14.346 Y-57.722 E17.12942
G1 X-14.086 Y-58.493 E17.19166
G1 X-13.463 Y-59.966 E17.31401
G1 X-13.126 Y-60.612 E17.36975
G1 X-12.285 Y-61.959 E17.49122
G1 X-11.768 Y-62.659 E17.55779
G1 X-10.503 Y-64.059 E17.70214
G1 X-9.841 Y-64.676 E17.77136
G1 X-8.872 Y-65.445 E17.866
G1 X-7.686 Y-66.232 E17.97488
G1 X-6.672 Y-66.789 E18.06338
G1 X-5.544 Y-67.292 E18.15786
G1 X-4.438 Y-67.679 E18.2475
G1 X-2.967 Y-68.057 E18.36369
G1 X-2.297 Y-68.176 E18.41574
G1 X-.462 Y-68.342 E18.55669
G1 X0.321 Y-68.345 E18.61659
G1 X1.576 Y-68.265 E18.71279
G1 X3.451 Y-67.95 E18.85823
G1 X4.212 Y-67.749 E18.91844
G1 X5.824 Y-67.179 E19.04924
G1 X6.606 Y-66.821 E19.11503
G1 X8.033 Y-66.024 E19.24007
G1 X8.77 Y-65.527 E19.30807
G1 X9.646 Y-64.841 E19.39319
G1 X11.013 Y-63.536 E19.53776
G1 X11.468 Y-63.022 E19.59027
G1 X12.295 Y-61.943 E19.69427
G1 X12.992 Y-60.847 E19.79363
G1 X13.658 Y-59.563 E19.90428
G1 X13.917 Y-58.96 E19.95448
G1 X14.476 Y-57.284 E20.08964
G1 X14.672 Y-56.483 E20.15272
G1 X14.948 Y-54.487 E20.30686
G1 X14.995 Y-53.409 E20.38941
G1 X14.964 Y-52.369 E20.469
G1 X14.805 Y-51.011 E20.5736
G1 X14.539 Y-49.674 E20.67788
G1 X14.342 Y-48.962 E20.73439
G1 X13.926 Y-47.79 E20.82953
G1 X13.155 Y-46.165 E20.96712
G1 X12.666 Y-45.335 E21.04081
G1 X11.836 Y-44.154 E21.15124
G1 X11.074 Y-43.246 E21.24192
G1 X10.111 Y-42.279 E21.34632
G1 X9.491 Y-41.743 E21.40901
G1 X8.211 Y-40.809 E21.53023
G1 X7.285 Y-40.247 E21.61309
G1 X5.914 Y-39.574 E21.72992
G1 X5.181 Y-39.283 E21.79025
G1 X3.717 Y-38.832 E21.90744
G1 X2.675 Y-38.602 E21.98907
G1 X0.904 Y-38.386 E22.12555
G1 X0.034 Y-38.356 E22.19215
G0 F3600 X0.02 Y-38.756
G1 F1800 X-1.513 Y-38.833 E22.30957
G1 X-2.317 Y-38.94 E22.37161
G1 X-3.497 Y-39.192 E22.46392
G1 X-5.015 Y-39.643 E22.58506
G1 X-5.696 Y-39.909 E22.64099
G1 X-7.255 Y-40.698 E22.77465
G1 X-8.242 Y-41.318 E22.86382
G1 X-9.327 Y-42.131 E22.96753
G1 X-10.039 Y-42.762 E23.04031
G1 X-10.894 Y-43.646 E23.13439
G1 X-11.607 Y-44.507 E23.21991
G1 X-12.329 Y-45.547 E23.31676
G1 X-12.969 Y-46.662 E23.41511
G1 X-13.404 Y-47.581 E23.49289
G1 X-13.852 Y-48.764 E23.58966
G1 X-14.181 Y-49.912 E23.68101
G1 X-14.462 Y-51.45 E23.80061
G1 X-14.582 Y-52.817 E23.90559
G1 X-14.584 Y-53.807 E23.98132
G1 X-14.497 Y-54.994 E24.07237
G1 X-14.276 Y-56.377 E24.17951
G1 X-13.967 Y-57.594 E24.27556
G1 X-13.707 Y-58.365 E24.3378
G1 X-13.108 Y-59.781 E24.45542
G1 X-12.771 Y-60.427 E24.51116
G1 X-11.963 Y-61.721 E24.62786
G1 X-11.446 Y-62.421 E24.69443
G1 X-10.23 Y-63.766 E24.83314
G1 X-9.568 Y-64.383 E24.90236
G1 X-8.624 Y-65.131 E24.9945
G1 X-7.493 Y-65.881 E25.09831
G1 X-6.479 Y-66.438 E25.18682
G1 X-5.412 Y-66.914 E25.27619
G1 X-4.306 Y-67.301 E25.36583
G1 X-2.897 Y-67.663 E25.47712
G1 X-2.227 Y-67.782 E25.52917
G1 X-.46 Y-67.942 E25.6649
G1 X0.323 Y-67.945 E25.7248
G1 X1.55 Y-67.866 E25.81885
G1 X3.349 Y-67.563 E25.95841
G1 X4.11 Y-67.362 E26.01863
G1 X5.657 Y-66.815 E26.14415
G1 X6.439 Y-66.457 E26.20994
G1 X7.809 Y-65.692 E26.32998
G1 X8.546 Y-65.195 E26.39798
G1 X9.399 Y-64.526 E26.4809
G1 X10.713 Y-63.271 E26.6199
G1 X11.168 Y-62.757 E26.67242
G1 X11.957 Y-61.728 E26.77161
G1 X12.654 Y-60.632 E26.87097
G1 X13.29 Y-59.405 E26.97669
G1 X13.549 Y-58.802 E27.0269
G1 X14.087 Y-57.189 E27.15697
G1 X14.283 Y-56.388 E27.22006
G1 X14.548 Y-54.47 E27.36817
G1 X14.595 Y-53.392 E27.45072
G1 X14.564 Y-52.381 E27.52809
G1 X14.413 Y-51.089 E27.6276
G1 X14.153 Y-49.781 E27.72962
G1 X13.956 Y-49.069 E27.78613
G1 X13.564 Y-47.961 E27.87604
G1 X12.81 Y-46.368 E28.01086
G1 X12.321 Y-45.538 E28.08456
G1 X11.529 Y-44.411 E28.18993
G1 X10.79 Y-43.528 E28.27801
G1 X9.849 Y-42.582 E28.38009
G1 X9.229 Y-42.046 E28.44278
G1 X8.003 Y-41.151 E28.5589
G1 X7.108 Y-40.606 E28.63906
G1 X5.766 Y-39.946 E28.75347
G1 X5.033 Y-39.655 E28.8138
G1 X3.631 Y-39.223 E28.92602
G1 X2.589 Y-38.993 E29.00765
G1 X0.89 Y-38.786 E29.13858
G1 X0.02 Y-38.756 E29.20518
G0 F3600 X0.006 Y-39.156
G1 F1800 X-1.46 Y-39.23 E29.31747
G1 X-2.264 Y-39.337 E29.37951
G1 X-3.413 Y-39.583 E29.4694
G1 X-4.869 Y-40.016 E29.5856
G1 X-5.55 Y-40.282 E29.64153
G1 X-7.042 Y-41.037 E29.76945
G1 X-8.029 Y-41.657 E29.85861
G1 X-9.087 Y-42.451 E29.95981
G1 X-9.751 Y-43.04 E30.02771
G1 X-10.606 Y-43.924 E30.12179
G1 X-11.279 Y-44.736 E30.20246
G1 X-11.982 Y-45.746 E30.2966
G1 X-12.607 Y-46.833 E30.39252
G1 X-13.042 Y-47.752 E30.4703
G1 X-13.467 Y-48.874 E30.56208
G1 X-13.796 Y-50.022 E30.65344
G1 X-14.064 Y-51.485 E30.76722
G1 X-14.182 Y-52.818 E30.86959
G1 X-14.185 Y-53.778 E30.94303
G1 X-14.102 Y-54.931 E31.03146
G1 X-13.888 Y-56.279 E31.13587
G1 X-13.588 Y-57.466 E31.22953
G1 X-13.328 Y-58.237 E31.29177
G1 X-12.753 Y-59.596 E31.40465
G1 X-12.416 Y-60.242 E31.46039
G1 X-11.641 Y-61.483 E31.57232
G1 X-11.124 Y-62.183 E31.63889
G1 X-9.957 Y-63.473 E31.77196
G1 X-9.295 Y-64.09 E31.84119
G1 X-8.403 Y-64.798 E31.92831
G1 X-7.3 Y-65.53 E32.02957
G1 X-6.286 Y-66.087 E32.11808
G1 X-5.28 Y-66.536 E32.20235
G1 X-4.174 Y-66.923 E32.29199
G1 X-2.827 Y-67.269 E32.39838
G1 X-2.157 Y-67.388 E32.45043
G1 X-.458 Y-67.542 E32.58094
G1 X0.325 Y-67.545 E32.64083
G1 X1.484 Y-67.471 E32.72968
G1 X3.247 Y-67.176 E32.86642
G1 X4.008 Y-66.975 E32.92663
G1 X5.49 Y-66.451 E33.04688
G1 X6.272 Y-66.093 E33.11267
G1 X7.585 Y-65.36 E33.2277
G1 X8.322 Y-64.863 E33.29571
G1 X9.123 Y-64.237 E33.37347
G1 X10.413 Y-63.006 E33.50988
G1 X10.868 Y-62.492 E33.56239
G1 X11.639 Y-61.485 E33.65941
G1 X12.299 Y-60.448 E33.75344
G1 X12.922 Y-59.247 E33.85694
G1 X13.181 Y-58.644 E33.90715
G1 X13.698 Y-57.094 E34.03214
G1 X13.894 Y-56.293 E34.09522
G1 X14.148 Y-54.453 E34.23732
G1 X14.195 Y-53.375 E34.31986
G1 X14.164 Y-52.394 E34.39494
G1 X14.021 Y-51.167 E34.48944
G1 X13.767 Y-49.888 E34.58919
G1 X13.57 Y-49.176 E34.64571
G1 X13.187 Y-48.095 E34.73344
G1 X12.465 Y-46.571 E34.86244
G1 X11.976 Y-45.741 E34.93614
G1 X11.222 Y-44.668 E35.03646
G1 X10.483 Y-43.785 E35.12454
G1 X9.587 Y-42.885 E35.22169
G1 X8.967 Y-42.349 E35.28439
G1 X7.795 Y-41.493 E35.39541
G1 X6.9 Y-40.948 E35.47557
G1 X5.618 Y-40.318 E35.58484
G1 X4.885 Y-40.027 E35.64517
G1 X3.545 Y-39.614 E35.75244
G1 X2.503 Y-39.384 E35.83407
G1 X0.876 Y-39.186 E35.95945
G1 X0.006 Y-39.156 E36.02604
G0 F3600 X-0.008 Y-39.556
G1 F1800 X-1.407 Y-39.627 E36.1332
G1 X-2.211 Y-39.734 E36.19525
G1 X-3.299 Y-39.966 E36.28035
G1 X-4.723 Y-40.389 E36.39399
G1 X-5.404 Y-40.655 E36.44992
G1 X-6.83 Y-41.376 E36.57216
G1 X-7.789 Y-41.977 E36.65873
G1 X-8.822 Y-42.751 E36.75748
G1 X-9.463 Y-43.318 E36.82294
G1 X-10.318 Y-44.202 E36.91702
G1 X-10.971 Y-44.991 E36.99537
G1 X-11.635 Y-45.946 E37.08435
G1 X-12.245 Y-47.004 E37.17777
G1 X-12.68 Y-47.923 E37.25555
G1 X-13.082 Y-48.984 E37.34235
G1 X-13.411 Y-50.132 E37.4337
G1 X-13.666 Y-51.521 E37.54174
G1 X-13.782 Y-52.82 E37.6415
G1 X-13.786 Y-53.75 E37.71265
G1 X-13.707 Y-54.869 E37.79846
G1 X-13.5 Y-56.181 E37.90007
G1 X-13.209 Y-57.338 E37.99133
G1 X-12.949 Y-58.109 E38.05358
G1 X-12.398 Y-59.411 E38.16173
G1 X-12.061 Y-60.057 E38.21747
G1 X-11.319 Y-61.245 E38.32462
G1 X-10.802 Y-61.945 E38.39119
G1 X-9.684 Y-63.18 E38.51863
G1 X-9.022 Y-63.797 E38.58785
G1 X-8.155 Y-64.484 E38.67247
G1 X-7.107 Y-65.179 E38.76867
G1 X-6.093 Y-65.736 E38.85717
G1 X-5.148 Y-66.158 E38.93635
G1 X-4.042 Y-66.545 E39.02598
G1 X-2.757 Y-66.875 E39.12747
G1 X-2.087 Y-66.994 E39.17953
G1 X-.456 Y-67.142 E39.30481
G1 X0.327 Y-67.145 E39.36471
G1 X1.458 Y-67.072 E39.45141
G1 X3.145 Y-66.789 E39.58226
G1 X3.906 Y-66.588 E39.64248
G1 X5.323 Y-66.087 E39.75745
G1 X6.105 Y-65.729 E39.82324
G1 X7.361 Y-65.028 E39.93328
G1 X8.098 Y-64.531 E40.00128
G1 X8.876 Y-63.922 E40.07686
G1 X10.113 Y-62.741 E40.20769
G1 X10.568 Y-62.227 E40.2602
G1 X11.321 Y-61.242 E40.35505
G1 X11.944 Y-60.264 E40.44375
G1 X12.554 Y-59.089 E40.54503
G1 X12.813 Y-58.486 E40.59523
G1 X13.309 Y-56.999 E40.71515
G1 X13.505 Y-56.198 E40.77823
G1 X13.748 Y-54.436 E40.9143
G1 X13.795 Y-53.358 E40.99684
G1 X13.764 Y-52.407 E41.06963
G1 X13.629 Y-51.245 E41.15912
G1 X13.381 Y-49.995 E41.2566
G1 X13.184 Y-49.283 E41.31312
G1 X12.81 Y-48.229 E41.39867
G1 X12.12 Y-46.774 E41.52186
G1 X11.648 Y-45.971 E41.59311
G1 X10.915 Y-44.925 E41.69082
G1 X10.176 Y-44.042 E41.7789
G1 X9.325 Y-43.188 E41.87113
G1 X8.705 Y-42.652 E41.93383
G1 X7.587 Y-41.835 E42.03976
G1 X6.692 Y-41.29 E42.11992
G1 X5.47 Y-40.69 E42.22406
G1 X4.737 Y-40.399 E42.28439
G1 X3.459 Y-40.005 E42.38669
G1 X2.417 Y-39.775 E42.46832
G1 X0.862 Y-39.586 E42.58815
G1 X-0.008 Y-39.556 E42.65475
G0 F3600 X-0.022 Y-39.956
G1 F1800 X-1.354 Y-40.024 E42.75678
G1 X-2.158 Y-40.131 E42.81882
G1 X-3.215 Y-40.357 E42.90151
G1 X-4.577 Y-40.762 E43.01021
G1 X-5.258 Y-41.028 E43.06614
G1 X-6.618 Y-41.715 E43.18269
G1 X-7.549 Y-42.297 E43.26669
G1 X-8.582 Y-43.071 E43.36543
G1 X-9.175 Y-43.596 E43.42602
G1 X-10.03 Y-44.48 E43.5201
G1 X-10.663 Y-45.246 E43.59611
G1 X-11.289 Y-46.146 E43.67998
G1 X-11.883 Y-47.175 E43.77087
G1 X-12.318 Y-48.094 E43.84865
G1 X-12.697 Y-49.094 E43.93046
G1 X-13.026 Y-50.242 E44.02181
G1 X-13.268 Y-51.557 E44.1241
G1 X-13.382 Y-52.822 E44.22126
G1 X-13.387 Y-53.722 E44.29011
G1 X-13.312 Y-54.807 E44.37331
G1 X-13.112 Y-56.084 E44.47219
G1 X-12.83 Y-57.21 E44.56098
G1 X-12.57 Y-57.981 E44.62323
G1 X-12.043 Y-59.226 E44.72665
G1 X-11.706 Y-59.872 E44.78239
G1 X-10.997 Y-61.007 E44.88476
G1 X-10.48 Y-61.707 E44.95133
G1 X-9.411 Y-62.887 E45.07313
G1 X-8.749 Y-63.504 E45.14236
G1 X-7.934 Y-64.151 E45.22196
G1 X-6.914 Y-64.828 E45.31562
G1 X-5.9 Y-65.385 E45.40412
G1 X-5.016 Y-65.78 E45.47819
G1 X-3.91 Y-66.167 E45.56782
G1 X-2.687 Y-66.481 E45.66441
