;FLAVOR:Marlin
;TIME:7463
;Filament used: 13.7011m
;Layer height: 0.15
;MINX:-56.916
;MINY:-61.915
;MINZ:0.3
;MAXX:66.915
;MAXY:61.916
;MAXZ:36.44
;Generated with Cura_SteamEngine 4.12.1
M140 S50
M105
M190 S50
M104 S210
M105
M109 S210
M82 ;absolute extrusion mode
;FLAVOR:Marlin
M82 ;absolute extrusion mode
G21
G90
M82
M107 T0
G28
G92 E0
G0 E3 F200
G92 E0 ; reset extrusion distance
M106 S255 ; Enable cooling fan full speed
G1 X-98 Y0 Z0.4 F3000 ; move to arc start
G3 X0 Y-98 I98 Z0.4 E40 F400 ; lay arc stripe 90deg
G92 E0 ; reset extrusion distance
G4 P500 ; wait for 0.5 sec
G0 Z10 E-1 ; Lift 15mm and retract 1mm filament
G4 P2000 ; wait for 5 sec
G0 Z15
M107 ; Disable cooling fan
G1 X0 Y-85 Z4 E0 F3000 ; get off the bed
G92 E0
G92 E0
G1 F1500 E-6.5
;LAYER_COUNT:149
;LAYER:0
M106 S25.5
G1 F600 Z1.3
G0 F3600 X-54.835 Y-3.673 Z1.3
;TYPE:SKIRT
G1 F600 Z0.3
G1 F1500 E0.24945
G1 F2400 X-55.287 Y-4.14 E0.28188
G1 X-55.717 Y-4.649 E0.31512
G1 X-55.88 Y-4.867 E0.3287
G1 X-56.185 Y-5.342 E0.35686
G1 X-56.513 Y-6.054 E0.39597
G1 X-56.701 Y-6.587 E0.42417
G1 X-56.871 Y-7.522 E0.47158
G1 X-56.916 Y-8.085 E0.49976
G1 X-56.841 Y-8.992 E0.54516
G1 X-56.736 Y-9.547 E0.57334
G1 X-56.41 Y-10.451 E0.62129
G1 X-56.166 Y-10.961 E0.64949
G1 X-55.753 Y-11.566 E0.68604
G1 X-55.349 Y-12.059 E0.71784
G1 X-54.894 Y-12.534 E0.75065
G1 X-7.599 Y-59.826 E4.08747
G1 X-7.116 Y-60.294 E4.12102
G1 X-6.589 Y-60.737 E4.15537
G1 X-6.368 Y-60.9 E4.16907
G1 X-5.891 Y-61.203 E4.19726
G1 X-5.294 Y-61.478 E4.23005
G1 X-5.109 Y-61.555 E4.24005
G1 X-4.571 Y-61.728 E4.26824
G1 X-3.74 Y-61.87 E4.3103
G1 X-3.177 Y-61.915 E4.33848
G1 X-2.269 Y-61.84 E4.38394
G1 X-1.714 Y-61.735 E4.41212
G1 X-.815 Y-61.411 E4.45979
G1 X-.305 Y-61.166 E4.48802
G1 X0.309 Y-60.747 E4.5251
G1 X0.813 Y-60.329 E4.55777
G1 X1.249 Y-59.915 E4.58777
G1 X64.812 Y3.65 E9.07255
G1 X65.281 Y4.132 E9.1061
G1 X65.716 Y4.646 E9.1397
G1 X65.877 Y4.861 E9.1531
G1 X66.183 Y5.337 E9.18133
G1 X66.514 Y6.056 E9.22082
G1 X66.702 Y6.589 E9.24902
G1 X66.871 Y7.521 E9.29627
G1 X66.915 Y8.085 E9.3245
G1 X66.841 Y8.987 E9.36965
G1 X66.738 Y9.543 E9.39786
G1 X66.408 Y10.456 E9.44629
G1 X66.163 Y10.966 E9.47452
G1 X65.76 Y11.558 E9.51025
G1 X65.348 Y12.057 E9.54253
G1 X64.896 Y12.533 E9.57528
G1 X17.66 Y59.766 E12.90793
G1 X17.1 Y60.309 E12.94685
G1 X16.604 Y60.727 E12.97921
G1 X16.374 Y60.897 E12.99348
G1 X15.896 Y61.2 E13.02171
G1 X15.267 Y61.49 E13.05627
G1 X15.099 Y61.559 E13.06533
G1 X14.56 Y61.731 E13.09356
G1 X13.747 Y61.871 E13.13471
G1 X13.184 Y61.916 E13.16289
G1 X12.677 Y61.888 E13.18822
G1 X12.262 Y61.839 E13.20907
G1 X11.707 Y61.734 E13.23725
G1 X10.82 Y61.413 E13.28431
G1 X10.31 Y61.169 E13.31252
G1 X9.688 Y60.745 E13.35008
G1 X9.2 Y60.346 E13.38152
G1 X8.808 Y59.971 E13.40859
G1 X-54.835 Y-3.673 E17.89898
G0 F3600 X-54.548 Y-3.951
G1 F2400 X-55 Y-4.418 E17.93141
G1 X-55.396 Y-4.888 E17.96207
G1 X-55.559 Y-5.106 E17.97565
G1 X-55.847 Y-5.558 E18.00239
G1 X-56.146 Y-6.213 E18.03831
G1 X-56.323 Y-6.72 E18.0651
G1 X-56.476 Y-7.581 E18.10873
G1 X-56.516 Y-8.116 E18.13549
G1 X-56.444 Y-8.946 E18.17706
G1 X-56.342 Y-9.472 E18.20379
G1 X-56.038 Y-10.304 E18.24798
G1 X-55.804 Y-10.787 E18.27476
G1 X-55.432 Y-11.327 E18.30747
G1 X-55.056 Y-11.788 E18.33715
G1 X-54.608 Y-12.254 E18.3694
G1 X-7.362 Y-59.499 E21.70283
G1 X-6.838 Y-60.006 E21.7392
G1 X-6.352 Y-60.415 E21.77089
G1 X-6.131 Y-60.578 E21.78459
G1 X-5.436 Y-60.98 E21.82465
G1 X-4.959 Y-61.184 E21.85053
G1 X-4.448 Y-61.346 E21.87728
G1 X-3.681 Y-61.475 E21.91608
G1 X-3.146 Y-61.515 E21.94285
G1 X-2.315 Y-61.443 E21.98446
G1 X-1.789 Y-61.342 E22.01118
G1 X-.962 Y-61.039 E22.05512
G1 X-.479 Y-60.805 E22.0819
G1 X0.072 Y-60.425 E22.11529
G1 X0.553 Y-60.026 E22.14647
G1 X0.969 Y-59.629 E22.17516
G1 X64.525 Y3.929 E26.65945
G1 X64.994 Y4.411 E26.693
G1 X65.396 Y4.886 E26.72405
G1 X65.557 Y5.101 E26.73745
G1 X65.845 Y5.553 E26.76419
G1 X66.147 Y6.216 E26.80053
G1 X66.324 Y6.722 E26.82728
G1 X66.475 Y7.58 E26.87074
G1 X66.515 Y8.115 E26.89751
G1 X66.444 Y8.942 E26.93892
G1 X66.344 Y9.469 E26.96568
G1 X66.036 Y10.309 E27.01032
G1 X65.802 Y10.791 E27.03705
G1 X65.438 Y11.321 E27.06912
G1 X65.043 Y11.798 E27.10002
G1 X64.61 Y12.253 E27.13136
G1 X17.381 Y59.479 E30.46351
G1 X16.821 Y60.022 E30.50243
G1 X16.366 Y60.405 E30.5321
G1 X16.136 Y60.575 E30.54637
G1 X15.682 Y60.861 E30.57314
G1 X15.107 Y61.123 E30.60466
G1 X14.95 Y61.188 E30.61314
G1 X14.439 Y61.349 E30.63987
G1 X13.687 Y61.475 E30.67791
G1 X13.152 Y61.516 E30.70468
G1 X12.309 Y61.442 E30.7469
G1 X11.782 Y61.34 E30.77368
G1 X10.967 Y61.041 E30.81699
G1 X10.484 Y60.808 E30.84375
G1 X9.926 Y60.424 E30.87754
G1 X9.472 Y60.053 E30.90679
G1 X9.088 Y59.686 E30.93329
G1 X-54.548 Y-3.951 E35.42319
G0 F3600 X-54.26 Y-4.229
G1 F2400 X-54.712 Y-4.696 E35.45561
G1 X-55.076 Y-5.128 E35.4838
G1 X-55.239 Y-5.346 E35.49738
G1 X-55.609 Y-5.983 E35.53413
G1 X-55.779 Y-6.373 E35.55536
G1 X-55.944 Y-6.851 E35.58058
G1 X-56.08 Y-7.641 E35.62058
G1 X-56.116 Y-8.145 E35.64579
G1 X-56.046 Y-8.899 E35.68356
G1 X-55.948 Y-9.395 E35.70879
G1 X-55.665 Y-10.158 E35.74939
G1 X-55.444 Y-10.612 E35.77458
G1 X-55.111 Y-11.088 E35.80356
G1 X-54.762 Y-11.516 E35.83111
G1 X-54.322 Y-11.975 E35.86284
G1 X-7.043 Y-59.251 E39.19852
G1 X-6.56 Y-59.719 E39.23207
G1 X-6.114 Y-60.093 E39.26111
G1 X-5.893 Y-60.256 E39.27481
G1 X-5.276 Y-60.613 E39.31037
G1 X-4.81 Y-60.812 E39.33565
G1 X-4.092 Y-61.008 E39.37279
G1 X-3.621 Y-61.079 E39.39655
G1 X-3.117 Y-61.115 E39.42176
G1 X-2.362 Y-61.046 E39.45958
G1 X-1.866 Y-60.948 E39.48481
G1 X-1.109 Y-60.667 E39.52509
G1 X-.655 Y-60.444 E39.55033
G1 X-.166 Y-60.103 E39.58007
G1 X0.292 Y-59.722 E39.60979
G1 X0.689 Y-59.343 E39.63717
G1 X64.238 Y4.208 E44.12097
G1 X64.707 Y4.69 E44.15452
G1 X65.075 Y5.126 E44.18299
G1 X65.236 Y5.341 E44.19639
G1 X65.609 Y5.982 E44.23339
G1 X65.78 Y6.375 E44.25477
G1 X65.945 Y6.853 E44.28
G1 X66.08 Y7.639 E44.31979
G1 X66.115 Y8.144 E44.34504
G1 X66.046 Y8.897 E44.38277
G1 X65.95 Y9.393 E44.40797
G1 X65.664 Y10.161 E44.44886
G1 X65.441 Y10.615 E44.47409
G1 X65.115 Y11.084 E44.50259
G1 X64.739 Y11.538 E44.532
G1 X64.324 Y11.973 E44.56199
G1 X17.103 Y59.191 E47.89358
G1 X16.543 Y59.734 E47.9325
G1 X16.128 Y60.083 E47.95955
G1 X15.898 Y60.253 E47.97382
G1 X15.275 Y60.613 E48.00972
G1 X14.801 Y60.816 E48.03544
G1 X14.094 Y61.009 E48.07201
G1 X13.627 Y61.08 E48.09557
G1 X13.123 Y61.116 E48.12078
G1 X12.356 Y61.045 E48.15921
G1 X11.86 Y60.946 E48.18444
G1 X11.114 Y60.669 E48.22415
G1 X10.659 Y60.447 E48.2494
G1 X10.164 Y60.102 E48.2795
G1 X9.745 Y59.76 E48.30649
G1 X9.368 Y59.4 E48.33249
G1 X-54.26 Y-4.229 E52.82183
G0 F3600 X-53.973 Y-4.508
G1 F2400 X-54.425 Y-4.975 E52.85425
G1 X-54.755 Y-5.367 E52.87982
G1 X-54.918 Y-5.585 E52.8934
G1 X-55.243 Y-6.143 E52.92561
G1 X-55.564 Y-6.981 E52.97038
G1 X-55.685 Y-7.7 E53.00676
G1 X-55.697 Y-8.442 E53.04378
G1 X-55.555 Y-9.316 E53.08796
G1 X-55.293 Y-10.011 E53.12502
G1 X-54.934 Y-10.658 E53.16193
G1 X-54.605 Y-11.086 E53.18886
G1 X-54.036 Y-11.695 E53.23044
G1 X-6.764 Y-58.964 E56.56563
G1 X-6.281 Y-59.432 E56.59919
G1 X-5.877 Y-59.771 E56.6255
G1 X-5.656 Y-59.934 E56.6392
G1 X-5.115 Y-60.247 E56.67038
G1 X-4.661 Y-60.441 E56.69501
G1 X-4.032 Y-60.613 E56.72754
G1 X-3.09 Y-60.714 E56.77481
G1 X-2.408 Y-60.648 E56.80899
G1 X-1.701 Y-60.471 E56.84536
G1 X-.833 Y-60.084 E56.89277
G1 X-.403 Y-59.781 E56.91901
G1 X0.032 Y-59.418 E56.94728
G1 X0.409 Y-59.058 E56.97329
G1 X63.952 Y4.487 E61.45666
G1 X64.421 Y4.969 E61.49021
G1 X64.755 Y5.366 E61.51609
G1 X64.916 Y5.581 E61.52949
G1 X65.242 Y6.142 E61.56187
G1 X65.565 Y6.983 E61.60681
G1 X65.684 Y7.699 E61.64302
G1 X65.697 Y8.429 E61.67945
G1 X65.556 Y9.315 E61.72421
G1 X65.293 Y10.014 E61.76147
G1 X64.944 Y10.642 E61.79731
G1 X64.434 Y11.279 E61.83802
G1 X64.038 Y11.694 E61.86664
G1 X16.824 Y58.904 E65.1977
G1 X16.264 Y59.447 E65.23662
G1 X15.66 Y59.932 E65.27526
G1 X15.115 Y60.247 E65.30667
G1 X14.653 Y60.445 E65.33175
G1 X14.034 Y60.613 E65.36375
G1 X13.095 Y60.716 E65.41087
G1 X12.403 Y60.648 E65.44556
G1 X11.704 Y60.472 E65.48153
G1 X10.837 Y60.087 E65.52885
G1 X10.401 Y59.78 E65.55546
G1 X9.86 Y59.321 E65.59085
G1 X9.629 Y59.096 E65.60694
G1 X-53.973 Y-4.508 E70.09448
G0 F3600 X-53.686 Y-4.786
G1 F2400 X-54.138 Y-5.253 E70.1269
G1 X-54.598 Y-5.825 E70.16352
G1 X-54.876 Y-6.303 E70.19111
G1 X-55.046 Y-6.693 E70.21233
G1 X-55.219 Y-7.295 E70.24358
G1 X-55.289 Y-7.76 E70.26704
G1 X-55.3 Y-8.395 E70.29873
G1 X-55.252 Y-8.806 E70.31937
G1 X-55.101 Y-9.408 E70.35034
G1 X-54.921 Y-9.865 E70.37484
G1 X-54.613 Y-10.419 E70.40646
G1 X-54.291 Y-10.837 E70.43279
G1 X-53.75 Y-11.415 E70.47229
G1 X-6.486 Y-58.677 E73.80695
G1 X-6.003 Y-59.145 E73.8405
G1 X-5.419 Y-59.612 E73.87781
G1 X-4.955 Y-59.88 E73.90454
G1 X-4.511 Y-60.07 E73.92863
G1 X-3.973 Y-60.217 E73.95646
G1 X-3.502 Y-60.288 E73.98022
G1 X-2.867 Y-60.299 E74.01191
G1 X-2.454 Y-60.251 E74.03265
G1 X-1.848 Y-60.099 E74.06382
G1 X-1.403 Y-59.923 E74.08769
G1 X-.861 Y-59.622 E74.11862
G1 X-.229 Y-59.115 E74.15905
G1 X0.147 Y-58.754 E74.18505
G1 X63.665 Y4.766 E78.66666
G1 X64.134 Y5.248 E78.70021
G1 X64.596 Y5.82 E78.7369
G1 X64.876 Y6.301 E78.76466
G1 X65.047 Y6.694 E78.78605
G1 X65.22 Y7.297 E78.81734
G1 X65.289 Y7.758 E78.8406
G1 X65.3 Y8.384 E78.87183
G1 X65.252 Y8.806 E78.89302
G1 X65.098 Y9.42 E78.92461
G1 X64.921 Y9.866 E78.94854
G1 X64.622 Y10.404 E78.97925
G1 X64.13 Y11.019 E79.01854
G1 X63.752 Y11.414 E79.04582
G1 X16.546 Y58.617 E82.37635
G1 X15.986 Y59.16 E82.41527
G1 X15.423 Y59.61 E82.45123
G1 X14.955 Y59.88 E82.47818
G1 X14.504 Y60.073 E82.50266
G1 X13.974 Y60.218 E82.53007
G1 X13.507 Y60.289 E82.55364
G1 X12.865 Y60.299 E82.58567
G1 X12.45 Y60.25 E82.60652
G1 X11.851 Y60.1 E82.63733
G1 X11.407 Y59.925 E82.66114
G1 X10.861 Y59.622 E82.69229
G1 X10.439 Y59.303 E82.71868
G1 X9.928 Y58.829 E82.75345
G1 X-53.686 Y-4.786 E87.2418
G0 F3600 X-53.398 Y-5.064
G1 F2400 X-53.85 Y-5.531 E87.27423
G1 X-54.278 Y-6.064 E87.30833
G1 X-54.509 Y-6.463 E87.33133
G1 X-54.679 Y-6.853 E87.35256
G1 X-54.824 Y-7.354 E87.37858
G1 X-54.894 Y-7.819 E87.40204
G1 X-54.902 Y-8.349 E87.42848
G1 X-54.854 Y-8.76 E87.44913
G1 X-54.729 Y-9.261 E87.47489
G1 X-54.549 Y-9.718 E87.49939
G1 X-54.292 Y-10.18 E87.52577
G1 X-53.978 Y-10.588 E87.55145
G1 X-53.464 Y-11.135 E87.5889
G1 X-6.208 Y-58.389 E90.923
G1 X-5.725 Y-58.857 E90.95655
G1 X-5.181 Y-59.291 E90.99127
G1 X-4.493 Y-59.646 E91.02989
G1 X-3.913 Y-59.822 E91.06013
G1 X-3.442 Y-59.893 E91.0839
G1 X-2.913 Y-59.902 E91.11029
G1 X-2.5 Y-59.854 E91.13104
G1 X-1.995 Y-59.727 E91.15701
G1 X-1.55 Y-59.551 E91.18089
G1 X-1.099 Y-59.301 E91.20661
G1 X-.489 Y-58.811 E91.24565
G1 X-.136 Y-58.471 E91.2701
G1 X63.378 Y5.045 E95.75143
G1 X63.847 Y5.527 E95.78498
G1 X64.276 Y6.06 E95.81912
G1 X64.509 Y6.461 E95.84225
G1 X64.68 Y6.854 E95.86364
G1 X64.824 Y7.356 E95.88969
G1 X64.893 Y7.817 E95.91295
G1 X64.902 Y8.339 E95.93899
G1 X64.854 Y8.761 E95.96018
G1 X64.726 Y9.273 E95.98651
G1 X64.549 Y9.719 E96.01045
G1 X64.3 Y10.167 E96.03602
G1 X63.825 Y10.76 E96.07393
G1 X63.466 Y11.134 E96.09979
G1 X16.267 Y58.33 E99.42983
G1 X15.707 Y58.873 E99.46875
G1 X15.185 Y59.288 E99.50202
G1 X14.467 Y59.656 E99.54227
G1 X13.914 Y59.822 E99.57107
G1 X13.447 Y59.893 E99.59464
G1 X12.911 Y59.902 E99.62139
G1 X12.496 Y59.853 E99.64223
G1 X11.998 Y59.728 E99.66785
G1 X11.554 Y59.553 E99.69166
G1 X11.099 Y59.301 E99.71761
G1 X10.687 Y58.988 E99.74342
G1 X10.208 Y58.544 E99.77601
G1 X-53.398 Y-5.064 E104.26383
G0 F3600 X-53.111 Y-5.342
G1 F2400 X-53.563 Y-5.809 E104.29625
G1 X-53.957 Y-6.304 E104.32781
G1 X-54.313 Y-7.013 E104.36739
G1 X-54.428 Y-7.414 E104.38821
G1 X-54.498 Y-7.879 E104.41167
G1 X-54.505 Y-8.303 E104.43282
G1 X-54.457 Y-8.714 E104.45347
G1 X-54.357 Y-9.114 E104.47404
G1 X-54.177 Y-9.571 E104.49854
G1 X-53.828 Y-10.133 E104.53155
G1 X-53.477 Y-10.549 E104.5587
G1 X-53.165 Y-10.868 E104.58096
G1 X-5.929 Y-58.102 E107.91365
G1 X-5.446 Y-58.57 E107.9472
G1 X-4.944 Y-58.969 E107.97919
G1 X-4.333 Y-59.279 E108.01338
G1 X-3.853 Y-59.426 E108.03842
G1 X-3.382 Y-59.497 E108.06218
G1 X-2.959 Y-59.504 E108.08329
G1 X-2.546 Y-59.456 E108.10403
G1 X-2.143 Y-59.355 E108.12476
G1 X-1.698 Y-59.179 E108.14864
G1 X-1.115 Y-58.816 E108.1829
G1 X-.672 Y-58.436 E108.21202
G1 X-.419 Y-58.188 E108.22969
G1 X63.092 Y5.324 E112.71077
G1 X63.561 Y5.806 E112.74432
G1 X63.956 Y6.3 E112.77588
G1 X64.313 Y7.014 E112.81571
G1 X64.428 Y7.415 E112.83652
G1 X64.497 Y7.876 E112.85977
G1 X64.505 Y8.294 E112.88063
G1 X64.457 Y8.716 E112.90182
G1 X64.354 Y9.125 E112.92286
G1 X64.177 Y9.571 E112.9468
G1 X63.827 Y10.135 E112.97992
G1 X63.447 Y10.582 E113.00919
G1 X63.167 Y10.867 E113.02912
G1 X15.989 Y58.043 E116.35771
G1 X15.429 Y58.586 E116.39663
G1 X14.947 Y58.967 E116.42728
G1 X14.307 Y59.29 E116.46305
G1 X13.853 Y59.427 E116.48671
G1 X13.386 Y59.498 E116.51027
G1 X12.958 Y59.505 E116.53163
G1 X12.543 Y59.456 E116.55248
G1 X12.144 Y59.356 E116.573
G1 X11.7 Y59.181 E116.59681
G1 X11.114 Y58.815 E116.63128
G1 X10.677 Y58.443 E116.65991
G1 X10.478 Y58.247 E116.67385
G1 X-53.111 Y-5.342 E121.16039
G0 F3600 X-52.823 Y-5.62
G1 F2400 X-53.275 Y-6.087 E121.19282
G1 X-53.637 Y-6.543 E121.22186
G1 X-53.946 Y-7.172 E121.25683
G1 X-54.103 Y-7.938 E121.29584
G1 X-54.06 Y-8.667 E121.33227
G1 X-53.805 Y-9.425 E121.37217
G1 X-53.507 Y-9.894 E121.39989
G1 X-53.183 Y-10.278 E121.42496
G1 X-52.883 Y-10.586 E121.44641
G1 X-5.651 Y-57.815 E124.77878
G1 X-5.168 Y-58.283 E124.81233
G1 X-4.706 Y-58.647 E124.84167
G1 X-4.173 Y-58.913 E124.87139
G1 X-3.794 Y-59.031 E124.8912
G1 X-3.323 Y-59.102 E124.91496
G1 X-3.005 Y-59.107 E124.93083
G1 X-2.29 Y-58.983 E124.96703
G1 X-1.574 Y-58.657 E125.00628
G1 X-1.01 Y-58.204 E125.04237
G1 X-.701 Y-57.906 E125.06379
G1 X62.805 Y5.603 E129.54459
G1 X63.274 Y6.085 E129.57814
G1 X63.636 Y6.54 E129.60715
G1 X63.946 Y7.173 E129.64231
G1 X64.102 Y7.935 E129.68111
G1 X64.059 Y8.671 E129.7179
G1 X63.982 Y8.978 E129.73369
G1 X63.656 Y9.693 E129.77289
G1 X63.216 Y10.241 E129.80795
G1 X62.885 Y10.585 E129.83177
G1 X15.71 Y57.756 E133.16008
G1 X15.15 Y58.299 E133.199
G1 X14.709 Y58.645 E133.22696
G1 X14.148 Y58.923 E133.2582
G1 X13.793 Y59.031 E133.27671
G1 X13.326 Y59.102 E133.30028
G1 X12.59 Y59.059 E133.33706
G1 X11.847 Y58.808 E133.37618
G1 X11.352 Y58.493 E133.40546
G1 X10.95 Y58.15 E133.43182
G1 X10.76 Y57.965 E133.44505
G1 X-52.823 Y-5.62 E137.93125
G1 F1500 E131.43125
G1 F600 Z1.3
G0 F3600 X-38.559 Y-11.314 Z1.3
;TYPE:SUPPORT
G1 F600 Z0.3
G1 F1500 E138.1807
G1 F2400 X-38.418 Y-11.455 E138.19065
G1 X-38.418 Y-11.173 E138.20471
G1 X-38.559 Y-11.314 E138.21466
G1 F1500 E131.71466
G1 F600 Z1.3
G0 F3600 X-1.506 Y-48.368 Z1.3
G1 F600 Z0.3
G1 F1500 E138.46411
G1 F2400 X-1.364 Y-48.51 E138.47413
G1 X-1.222 Y-48.368 E138.48415
G1 X-1.506 Y-48.368 E138.49832
G1 F1500 E131.99832
G1 F600 Z1.3
G0 F3600 X53.368 Y6.223 Z1.3
G1 F600 Z0.3
G1 F1500 E138.74777
G1 F2400 X53.509 Y6.364 E138.75772
G1 X53.368 Y6.505 E138.76767
G1 X53.368 Y6.223 E138.78174
G1 F1500 E132.28174
G1 F600 Z1.3
G0 F3600 X16.172 Y43.418 Z1.3
G1 F600 Z0.3
G1 F1500 E139.03119
G1 F2400 X16.456 Y43.418 E139.04536
G1 X16.314 Y43.56 E139.05538
G1 X16.172 Y43.418 E139.06539
G1 F1500 E132.56539
G1 F600 Z1.3
;MESH:Rasp35inch_housing.3mf
G0 F3600 X12.58 Y56.673 Z1.3
;TYPE:WALL-INNER
G1 F600 Z0.3
G1 F1500 E139.31485
G1 F2400 X-51.673 Y-7.582 E143.84831
G1 X-51.824 Y-7.779 E143.8607
G1 X-51.919 Y-8.132 E143.87893
G1 X-51.896 Y-8.315 E143.88814
G1 X-51.824 Y-8.484 E143.8973
G1 X-51.672 Y-8.685 E143.90987
