;FLAVOR:Marlin
;TIME:6632
;Filament used: 8.58201m
;Layer height: 0.2
;MINX:-51
;MINY:-58.104
;MINZ:0.2
;MAXX:61
;MAXY:-16.504
;MAXZ:24.8
;TARGET_MACHINE.NAME:Unknown
;Generated with Cura_SteamEngine 5.8.1
M140 S50
M105
M190 S50
M104 S220
M105
M109 S220
M82 ;absolute extrusion mode
;FLAVOR:Marlin
M82 ;absolute extrusion mode
G21
G90
M82
M107 T0
G28
G92 E0
G0 E3 F200
G92 E0 ; reset extrusion distance
M106 S255 ; Enable cooling fan full speed
G1 X-98 Y0 Z0.4 F3000 ; move to arc start
G3 X0 Y-98 I98 Z0.4 E40 F400 ; lay arc stripe 90deg
G92 E0 ; reset extrusion distance
G4 P500 ; wait for 0.5 sec
G0 Z10 E-1 ; Lift 15mm and retract 1mm filament
G4 P2000 ; wait for 5 sec
G0 Z15
M107 ; Disable cooling fan
G1 X0 Y-85 Z4 E0 F3000 ; get off the bed
G92 E0
G92 E0
G1 F1500 E-1
;LAYER_COUNT:124
;LAYER:0
M106 S102
G1 F600 Z1.2
G0 F1500 X-15.749 Y-19.305 Z1.2
;TYPE:SKIRT
G1 F600 Z0.2
G1 F3600 E0.75698
G1 F1200 X-16.367 Y-18.807 E0.78902
G1 X-17.163 Y-18.411 E0.82492
G1 X-17.942 Y-18.297 E0.8567
G1 X-48.123 Y-18.293 E2.07518
G1 X-49.013 Y-18.475 E2.11185
G1 X-49.768 Y-18.873 E2.14631
G1 X-49.988 Y-19.042 E2.15751
G1 X-50.486 Y-19.66 E2.18955
G1 X-50.882 Y-20.456 E2.22544
G1 X-50.996 Y-21.235 E2.25723
G1 X-51 Y-53.44 E3.55742
G1 X-50.818 Y-54.33 E3.59409
G1 X-50.42 Y-55.085 E3.62855
G1 X-50.251 Y-55.305 E3.63975
G1 X-49.633 Y-55.803 E3.67179
G1 X-48.837 Y-56.199 E3.70768
G1 X-48.058 Y-56.313 E3.73947
G1 X-17.877 Y-56.317 E4.95794
G1 X-16.987 Y-56.135 E4.99462
G1 X-16.232 Y-55.737 E5.02908
G1 X-16.012 Y-55.568 E5.04028
G1 X-15.514 Y-54.95 E5.07232
G1 X-15.118 Y-54.154 E5.10821
G1 X-15.004 Y-53.375 E5.14
G1 X-15 Y-50.305 E5.26394
G1 X25 Y-50.305 E6.87883
G1 X25 Y-53.44 E7.0054
G1 X25.182 Y-54.33 E7.04207
G1 X25.58 Y-55.085 E7.07653
G1 X25.749 Y-55.305 E7.08773
G1 X26.367 Y-55.803 E7.11977
G1 X27.163 Y-56.199 E7.15566
G1 X27.942 Y-56.313 E7.18745
G1 X58.123 Y-56.317 E8.40592
G1 X59.013 Y-56.135 E8.4426
G1 X59.768 Y-55.737 E8.47706
G1 X59.988 Y-55.568 E8.48826
G1 X60.486 Y-54.95 E8.5203
G1 X60.882 Y-54.154 E8.55619
G1 X60.996 Y-53.375 E8.58798
G1 X61 Y-21.17 E9.88816
G1 X60.818 Y-20.28 E9.92484
G1 X60.42 Y-19.525 E9.9593
G1 X60.251 Y-19.305 E9.9705
G1 X59.633 Y-18.807 E10.00254
G1 X58.837 Y-18.411 E10.03843
G1 X58.058 Y-18.297 E10.07022
G1 X27.833 Y-18.293 E11.29047
G1 X26.979 Y-18.479 E11.32575
G1 X26.231 Y-18.873 E11.35989
G1 X26.012 Y-19.042 E11.37105
G1 X25.514 Y-19.66 E11.4031
G1 X25.118 Y-20.456 E11.43899
G1 X25.004 Y-21.235 E11.47077
G1 X25 Y-24.305 E11.59472
G1 X-15 Y-24.305 E13.20961
G1 X-15 Y-21.17 E13.33617
G1 X-15.182 Y-20.28 E13.37285
G1 X-15.336 Y-19.987 E13.38621
G0 F1080 X-15.58 Y-19.525
G0 X-15.749 Y-19.305
G0 F1500 X-16.037 Y-19.586
G1 F1200 X-15.934 Y-19.711 E13.39275
G1 X-15.563 Y-20.415 E13.42488
G1 X-15.4 Y-21.211 E13.45768
G1 X-15.4 Y-24.705 E13.59874
G1 X25.4 Y-24.705 E15.24593
G1 X25.4 Y-21.293 E15.38368
G1 X25.505 Y-20.576 E15.41294
G1 X25.853 Y-19.876 E15.4445
G1 X26.293 Y-19.33 E15.47281
G1 X26.418 Y-19.227 E15.47935
G1 X27.118 Y-18.858 E15.51129
G1 X27.877 Y-18.693 E15.54265
G1 X58 Y-18.693 E16.75878
G1 X58.717 Y-18.798 E16.78804
G1 X59.417 Y-19.146 E16.8196
G1 X59.963 Y-19.586 E16.84791
G1 X60.066 Y-19.711 E16.85445
G1 X60.437 Y-20.415 E16.88658
G1 X60.6 Y-21.211 E16.91938
G1 X60.6 Y-53.317 E18.21557
G1 X60.495 Y-54.034 E18.24483
G1 X60.147 Y-54.734 E18.27639
G1 X59.707 Y-55.28 E18.3047
G1 X59.582 Y-55.383 E18.31123
G1 X58.878 Y-55.754 E18.34336
G1 X58.082 Y-55.917 E18.37616
G1 X28 Y-55.917 E19.59064
G1 X27.283 Y-55.812 E19.6199
G1 X26.583 Y-55.464 E19.65146
G1 X26.037 Y-55.024 E19.67977
G1 X25.934 Y-54.899 E19.68631
G1 X25.563 Y-54.195 E19.71843
G1 X25.4 Y-53.399 E19.75124
G1 X25.4 Y-49.905 E19.8923
G1 X-15.4 Y-49.905 E21.53949
G1 X-15.4 Y-53.317 E21.67724
G1 X-15.505 Y-54.034 E21.70649
G1 X-15.853 Y-54.734 E21.73805
G1 X-16.293 Y-55.28 E21.76636
G1 X-16.418 Y-55.383 E21.7729
G1 X-17.122 Y-55.754 E21.80503
G1 X-17.918 Y-55.917 E21.83783
G1 X-48 Y-55.917 E23.05231
G1 X-48.717 Y-55.812 E23.08156
G1 X-49.417 Y-55.464 E23.11313
G1 X-49.963 Y-55.024 E23.14144
G1 X-50.066 Y-54.899 E23.14797
G1 X-50.437 Y-54.195 E23.1801
G1 X-50.6 Y-53.399 E23.2129
G1 X-50.6 Y-21.293 E24.5091
G1 X-50.495 Y-20.576 E24.53835
G1 X-50.147 Y-19.876 E24.56991
G1 X-49.707 Y-19.33 E24.59822
G1 X-49.582 Y-19.227 E24.60476
G1 X-48.878 Y-18.856 E24.63689
G1 X-48.082 Y-18.693 E24.66969
G1 X-18 Y-18.693 E25.88417
G1 X-17.283 Y-18.798 E25.91342
G1 X-16.671 Y-19.102 E25.94101
G0 F1080 X-16.583 Y-19.146
G0 X-16.037 Y-19.586
G0 F1500 X-16.288 Y-19.897
G1 F1200 X-16.799 Y-19.485 E25.96751
G1 X-17.405 Y-19.184 E25.99483
G1 X-18 Y-19.093 E26.01913
G1 X-48.041 Y-19.093 E27.23195
G1 X-48.743 Y-19.237 E27.26089
G1 X-49.396 Y-19.581 E27.29068
G1 X-49.808 Y-20.092 E27.31718
G1 X-50.109 Y-20.698 E27.3445
G1 X-50.2 Y-21.293 E27.3688
G1 X-50.2 Y-53.358 E28.66334
G1 X-50.056 Y-54.06 E28.69227
G1 X-49.712 Y-54.713 E28.72207
G1 X-49.201 Y-55.125 E28.74857
G1 X-48.595 Y-55.426 E28.77588
G1 X-48 Y-55.517 E28.80018
G1 X-17.959 Y-55.517 E30.01301
G1 X-17.257 Y-55.373 E30.04194
G1 X-16.604 Y-55.029 E30.07174
G1 X-16.192 Y-54.518 E30.09824
G1 X-15.891 Y-53.912 E30.12555
G1 X-15.8 Y-53.317 E30.14985
G1 X-15.8 Y-49.505 E30.30375
G1 X25.8 Y-49.505 E31.98324
G1 X25.8 Y-53.358 E32.13879
G1 X25.944 Y-54.06 E32.16772
G1 X26.288 Y-54.713 E32.19752
G1 X26.799 Y-55.125 E32.22402
G1 X27.405 Y-55.426 E32.25134
G1 X28 Y-55.517 E32.27564
G1 X58.041 Y-55.517 E33.48846
G1 X58.743 Y-55.373 E33.51739
G1 X59.396 Y-55.029 E33.54719
G1 X59.808 Y-54.518 E33.57369
G1 X60.109 Y-53.912 E33.60101
G1 X60.2 Y-53.317 E33.62531
G1 X60.2 Y-21.252 E34.91985
G1 X60.056 Y-20.55 E34.94878
G1 X59.712 Y-19.897 E34.97858
G1 X59.201 Y-19.485 E35.00508
G1 X58.595 Y-19.184 E35.03239
G1 X58 Y-19.093 E35.05669
G1 X27.921 Y-19.093 E36.27105
G1 X27.255 Y-19.238 E36.29857
G1 X26.604 Y-19.581 E36.32828
G1 X26.192 Y-20.092 E36.35478
G1 X25.891 Y-20.698 E36.38209
G1 X25.8 Y-21.293 E36.40639
G1 X25.8 Y-25.105 E36.56029
G1 X-15.8 Y-25.105 E38.23978
G1 X-15.8 Y-21.252 E38.39533
G1 X-15.932 Y-20.61 E38.42179
G0 F1080 X-15.944 Y-20.55
G0 X-16.288 Y-19.897
G0 F1500 X-16.605 Y-20.155
G1 F1200 X-16.324 Y-20.687 E38.44608
G1 X-16.2 Y-21.293 E38.47106
G1 X-16.2 Y-25.505 E38.6411
G1 X26.2 Y-25.505 E40.35289
G1 X26.2 Y-21.293 E40.52294
G1 X26.277 Y-20.819 E40.54232
G1 X26.55 Y-20.27 E40.56708
G1 X26.862 Y-19.898 E40.58668
G1 X27.394 Y-19.617 E40.61097
G1 X27.965 Y-19.493 E40.63456
G1 X58 Y-19.493 E41.84714
G1 X58.474 Y-19.57 E41.86652
G1 X59.023 Y-19.843 E41.89128
G1 X59.395 Y-20.155 E41.91088
G1 X59.676 Y-20.687 E41.93517
G1 X59.8 Y-21.293 E41.96014
G1 X59.8 Y-53.317 E43.25302
G1 X59.723 Y-53.791 E43.27241
G1 X59.45 Y-54.34 E43.29716
G1 X59.138 Y-54.712 E43.31677
G1 X58.606 Y-54.993 E43.34106
G1 X58 Y-55.117 E43.36603
G1 X28 Y-55.117 E44.57719
G1 X27.526 Y-55.04 E44.59658
G1 X26.977 Y-54.767 E44.62134
G1 X26.605 Y-54.455 E44.64094
G1 X26.324 Y-53.923 E44.66523
G1 X26.2 Y-53.317 E44.6902
G1 X26.2 Y-49.105 E44.86025
G1 X-16.2 Y-49.105 E46.57203
G1 X-16.2 Y-53.317 E46.74208
G1 X-16.277 Y-53.791 E46.76147
G1 X-16.55 Y-54.34 E46.78622
G1 X-16.862 Y-54.712 E46.80582
G1 X-17.394 Y-54.993 E46.83011
G1 X-18 Y-55.117 E46.85508
G1 X-48 Y-55.117 E48.06625
G1 X-48.474 Y-55.04 E48.08564
G1 X-49.023 Y-54.767 E48.11039
G1 X-49.395 Y-54.455 E48.12999
G1 X-49.676 Y-53.923 E48.15428
G1 X-49.8 Y-53.317 E48.17926
G1 X-49.8 Y-21.293 E49.47214
G1 X-49.723 Y-20.819 E49.49152
G1 X-49.45 Y-20.27 E49.51628
G1 X-49.138 Y-19.898 E49.53588
G1 X-48.606 Y-19.617 E49.56017
G1 X-48 Y-19.493 E49.58514
G1 X-18 Y-19.493 E50.79631
G1 X-17.526 Y-19.57 E50.8157
G1 X-17.258 Y-19.704 E50.82779
G0 F1080 X-16.977 Y-19.843
G0 X-16.605 Y-20.155
G0 F1500 X-16.923 Y-20.41
G1 F1200 X-16.678 Y-20.874 E50.84898
G1 X-16.6 Y-21.293 E50.86618
G1 X-16.6 Y-25.905 E51.05238
G1 X26.6 Y-25.905 E52.79646
G1 X26.6 Y-21.293 E52.98266
G1 X26.662 Y-20.942 E52.99705
G1 X26.908 Y-20.448 E53.01933
G1 X27.117 Y-20.216 E53.03193
G1 X27.581 Y-19.971 E53.05312
G1 X28 Y-19.893 E53.07032
G1 X58 Y-19.893 E54.28149
G1 X58.351 Y-19.955 E54.29588
G1 X58.845 Y-20.201 E54.31816
G1 X59.077 Y-20.41 E54.33077
G1 X59.322 Y-20.874 E54.35195
G1 X59.4 Y-21.293 E54.36916
G1 X59.4 Y-53.317 E55.66204
G1 X59.338 Y-53.668 E55.67643
G1 X59.092 Y-54.162 E55.69871
G1 X58.883 Y-54.394 E55.71131
G1 X58.419 Y-54.639 E55.7325
G1 X58 Y-54.717 E55.74971
G1 X28 Y-54.717 E56.96087
G1 X27.649 Y-54.655 E56.97526
G1 X27.155 Y-54.409 E56.99754
G1 X26.923 Y-54.2 E57.01015
G1 X26.678 Y-53.736 E57.03133
G1 X26.6 Y-53.317 E57.04854
G1 X26.6 Y-48.705 E57.23474
G1 X-16.6 Y-48.705 E58.97882
G1 X-16.6 Y-53.317 E59.16501
G1 X-16.662 Y-53.668 E59.1794
G1 X-16.908 Y-54.162 E59.20168
G1 X-17.117 Y-54.394 E59.21429
G1 X-17.581 Y-54.639 E59.23547
G1 X-18 Y-54.717 E59.25268
G1 X-48 Y-54.717 E60.46385
G1 X-48.351 Y-54.655 E60.47824
G1 X-48.845 Y-54.409 E60.50052
G1 X-49.077 Y-54.2 E60.51312
G1 X-49.322 Y-53.736 E60.53431
G1 X-49.4 Y-53.317 E60.55151
G1 X-49.4 Y-21.293 E61.84439
G1 X-49.338 Y-20.942 E61.85878
G1 X-49.092 Y-20.448 E61.88106
G1 X-48.883 Y-20.216 E61.89367
G1 X-48.419 Y-19.971 E61.91486
G1 X-48 Y-19.893 E61.93206
G1 X-18 Y-19.893 E63.14323
G1 X-17.649 Y-19.955 E63.15762
G1 X-17.591 Y-19.984 E63.16024
G0 F1080 X-17.155 Y-20.201
G0 X-16.923 Y-20.41
G0 F1500 X-17.207 Y-20.692
G1 F1200 X-17.345 Y-20.553 E63.16814
G1 X-17.727 Y-20.347 E63.18567
G1 X-18 Y-20.293 E63.1969
G1 X-48 Y-20.293 E64.40807
G1 X-48.338 Y-20.363 E64.422
G1 X-48.601 Y-20.5 E64.43398
G1 X-48.74 Y-20.638 E64.44188
G1 X-48.946 Y-21.02 E64.45941
G1 X-49 Y-21.293 E64.47064
G1 X-49 Y-53.317 E65.76352
G1 X-48.93 Y-53.655 E65.77746
G1 X-48.793 Y-53.918 E65.78943
G1 X-48.655 Y-54.057 E65.79734
G1 X-48.273 Y-54.263 E65.81486
G1 X-48 Y-54.317 E65.82609
G1 X-18 Y-54.317 E67.03726
G1 X-17.662 Y-54.247 E67.0512
G1 X-17.399 Y-54.11 E67.06317
G1 X-17.26 Y-53.972 E67.07108
G1 X-17.054 Y-53.59 E67.0886
G1 X-17 Y-53.317 E67.09983
G1 X-17 Y-48.305 E67.30218
G1 X27 Y-48.305 E69.07856
G1 X27 Y-53.317 E69.2809
G1 X27.07 Y-53.655 E69.29484
G1 X27.207 Y-53.918 E69.30681
G1 X27.345 Y-54.057 E69.31472
G1 X27.727 Y-54.263 E69.33224
G1 X28 Y-54.317 E69.34348
G1 X58 Y-54.317 E70.55464
G1 X58.338 Y-54.247 E70.56858
G1 X58.601 Y-54.11 E70.58055
G1 X58.74 Y-53.972 E70.58846
G1 X58.946 Y-53.59 E70.60598
G1 X59 Y-53.317 E70.61721
G1 X59 Y-21.293 E71.9101
G1 X58.93 Y-20.955 E71.92403
G1 X58.793 Y-20.692 E71.936
G1 X58.655 Y-20.553 E71.94391
G1 X58.273 Y-20.347 E71.96143
G1 X58 Y-20.293 E71.97267
G1 X28 Y-20.293 E73.18383
G1 X27.662 Y-20.363 E73.19777
G1 X27.399 Y-20.5 E73.20974
G1 X27.26 Y-20.638 E73.21765
G1 X27.054 Y-21.02 E73.23517
G1 X27 Y-21.293 E73.24641
G1 X27 Y-26.305 E73.44875
G1 X-17 Y-26.305 E75.22513
G1 X-17 Y-21.451 E75.4211
G0 F1080 X-17 Y-21.293
G0 X-17.07 Y-20.955
G0 X-17.207 Y-20.692
G0 F1500 X-17.839 Y-21.174
G1 F1200 X-18 Y-21.093 E75.42837
G1 X-48 Y-21.093 E76.63954
G1 X-48.119 Y-21.132 E76.6446
G1 X-48.2 Y-21.293 E76.65187
G1 X-48.2 Y-53.317 E77.94475
G1 X-48.161 Y-53.436 E77.94981
G1 X-48 Y-53.517 E77.95709
G1 X-18 Y-53.517 E79.16825
G1 X-17.881 Y-53.478 E79.17331
G1 X-17.8 Y-53.317 E79.18058
G1 X-17.8 Y-47.505 E79.41523
G1 X27.8 Y-47.505 E81.2562
G1 X27.8 Y-53.317 E81.49085
G1 X27.839 Y-53.436 E81.4959
G1 X28 Y-53.517 E81.50318
G1 X58 Y-53.517 E82.71434
G1 X58.119 Y-53.478 E82.7194
G1 X58.2 Y-53.317 E82.72668
G1 X58.2 Y-21.293 E84.01956
G1 X58.161 Y-21.174 E84.02461
G1 X58 Y-21.093 E84.03189
G1 X28 Y-21.093 E85.24306
G1 X27.881 Y-21.132 E85.24811
G1 X27.8 Y-21.293 E85.25539
G1 X27.8 Y-27.105 E85.49003
G1 X-17.8 Y-27.105 E87.33101
G1 X-17.8 Y-21.968 E87.5384
G0 F1080 X-17.8 Y-21.293
G0 X-17.839 Y-21.174
G0 F1500 X-17.459 Y-21.049
G1 F1200 X-17.55 Y-20.897 E87.54555
G1 X-17.82 Y-20.736 E87.55824
G1 X-18 Y-20.693 E87.56571
G1 X-48 Y-20.693 E88.77688
G1 X-48.244 Y-20.752 E88.78702
G1 X-48.396 Y-20.843 E88.79417
G1 X-48.557 Y-21.113 E88.80686
G1 X-48.6 Y-21.293 E88.81433
G1 X-48.6 Y-53.317 E90.10721
G1 X-48.541 Y-53.561 E90.11735
G1 X-48.45 Y-53.713 E90.1245
G1 X-48.18 Y-53.874 E90.13719
G1 X-48 Y-53.917 E90.14466
G1 X-18 Y-53.917 E91.35583
G1 X-17.756 Y-53.858 E91.36596
G1 X-17.604 Y-53.767 E91.37312
G1 X-17.443 Y-53.497 E91.38581
G1 X-17.4 Y-53.317 E91.39328
G1 X-17.4 Y-47.905 E91.61177
G1 X27.4 Y-47.905 E93.42045
G1 X27.4 Y-53.317 E93.63894
G1 X27.459 Y-53.561 E93.64908
G1 X27.55 Y-53.713 E93.65623
G1 X27.82 Y-53.874 E93.66892
G1 X28 Y-53.917 E93.67639
G1 X58 Y-53.917 E94.88756
G1 X58.244 Y-53.858 E94.8977
G1 X58.396 Y-53.767 E94.90485
G1 X58.557 Y-53.497 E94.91754
G1 X58.6 Y-53.317 E94.92501
G1 X58.6 Y-21.293 E96.21789
G1 X58.541 Y-21.049 E96.22803
G1 X58.45 Y-20.897 E96.23518
G1 X58.18 Y-20.736 E96.24787
G1 X58 Y-20.693 E96.25534
G1 X28 Y-20.693 E97.46651
G1 X27.756 Y-20.752 E97.47664
G1 X27.604 Y-20.843 E97.4838
G1 X27.443 Y-21.113 E97.49649
G1 X27.4 Y-21.293 E97.50396
G1 X27.4 Y-26.705 E97.72245
G1 X-17.4 Y-26.705 E99.53113
G1 X-17.4 Y-21.842 E99.72746
G0 F1080 X-17.4 Y-21.293
G0 X-17.459 Y-21.049
G1 F1500 E98.72746
G1 F600 Z1.2
;MESH:K??rper1
G0 F1500 X28.814 Y-27.886 Z1.2
;TYPE:WALL-INNER
G1 F600 Z0.2
G1 F3600 E100.48444
G1 F1200 X28.945 Y-27.632 E100.49598
G1 X29 Y-27.401 E100.50556
G1 X29 Y-22.292 E100.71183
G1 X57 Y-22.292 E101.84225
G1 X57 Y-52.316 E103.05438
G1 X29 Y-52.316 E104.18481
G1 X29 Y-47.216 E104.39071
G1 X28.914 Y-46.897 E104.40404
G1 X28.685 Y-46.574 E104.42003
G1 X28.425 Y-46.398 E104.4327
G1 X28.088 Y-46.307 E104.4468
G1 X-18.088 Y-46.307 E106.31103
G1 X-18.425 Y-46.398 E106.32512
G1 X-18.685 Y-46.574 E106.33779
G1 X-18.814 Y-46.722 E106.34572
G1 X-18.945 Y-46.976 E106.35726
G1 X-19 Y-47.207 E106.36684
G1 X-19 Y-52.316 E106.57311
G1 X-47 Y-52.316 E107.70353
G1 X-47 Y-22.292 E108.91567
G1 X-19 Y-22.292 E110.04609
G1 X-19 Y-27.392 E110.25199
G1 X-18.914 Y-27.711 E110.26533
G1 X-18.685 Y-28.034 E110.28131
G1 X-18.48 Y-28.182 E110.29152
G1 X-18.078 Y-28.302 E110.30846
G1 X28.088 Y-28.301 E112.17228
G1 X28.145 Y-28.285 E112.17467
G0 F1080 X28.425 Y-28.21
G0 X28.685 Y-28.034
G0 X28.814 Y-27.886
G0 F1500 X28.549 Y-27.549
G1 F1200 X28.596 Y-27.38 E112.18175
G1 X28.6 Y-21.892 E112.40332
G1 X57.4 Y-21.892 E113.56604
G1 X57.4 Y-52.716 E114.81047
G1 X28.6 Y-52.716 E115.97319
G1 X28.596 Y-47.228 E116.19475
G1 X28.457 Y-46.914 E116.20862
G1 X28.255 Y-46.76 E116.21887
G1 X28.047 Y-46.705 E116.22756
G1 X-18.106 Y-46.706 E118.09086
G1 X-18.319 Y-46.795 E118.10018
G1 X-18.549 Y-47.059 E118.11431
G1 X-18.596 Y-47.228 E118.1214
G1 X-18.6 Y-52.716 E118.34296
G1 X-47.4 Y-52.716 E119.50568
G1 X-47.4 Y-21.892 E120.75011
G1 X-18.6 Y-21.892 E121.91283
G1 X-18.596 Y-27.38 E122.1344
G1 X-18.457 Y-27.694 E122.14826
G1 X-18.255 Y-27.848 E122.15851
G1 X-18.047 Y-27.903 E122.1672
G1 X27.887 Y-27.902 E124.02166
G0 F1080 X28.106 Y-27.902
G0 X28.319 Y-27.813
G0 X28.549 Y-27.549
G0 F1500 X28.199 Y-27.33
;TYPE:WALL-OUTER
G1 F1200 X28.2 Y-21.492 E124.25735
G1 X57.8 Y-21.492 E125.45237
G1 X57.8 Y-53.116 E126.7291
G1 X28.2 Y-53.116 E127.92412
G1 X28.199 Y-47.278 E128.15981
G1 X28.17 Y-47.197 E128.16329
G1 X28.065 Y-47.104 E128.16895
G1 X-18.018 Y-47.104 E130.02942
G1 X-18.143 Y-47.163 E130.035
G1 X-18.199 Y-47.278 E130.04017
G1 X-18.2 Y-53.116 E130.27586
G1 X-47.8 Y-53.116 E131.47088
G1 X-47.8 Y-21.492 E132.74761
G1 X-18.2 Y-21.492 E133.94263
G1 X-18.199 Y-27.33 E134.17832
G1 X-18.107 Y-27.474 E134.18522
G1 X-18.016 Y-27.504 E134.18909
G1 X27.484 Y-27.504 E136.02603
G0 F1080 X28.018 Y-27.504
G0 X28.143 Y-27.445
G0 X28.199 Y-27.33
G0 F1500 X28.199 Y-27.13
G0 X28.9 Y-27.13
G0 X28.828 Y-28.133
