;FLAVOR:Marlin
;TIME:6068
;Filament used: 9.59325m
;Layer height: 0.24
;MINX:-40.445
;MINY:-70.971
;MINZ:0.24
;MAXX:35.76
;MAXY:56.746
;MAXZ:37
;Generated with Cura_SteamEngine 4.13.1
M140 S50
M105
M190 S50
M104 S230
M105
M109 S230
M82 ;absolute extrusion mode
;FLAVOR:Marlin
M82 ;absolute extrusion mode
G21
G90
M82
M107 T0
G28
G92 E0
G0 E3 F200
G92 E0 ; reset extrusion distance
M106 S255 ; Enable cooling fan full speed
G1 X-98 Y0 Z0.4 F3000 ; move to arc start
G3 X0 Y-98 I98 Z0.4 E40 F400 ; lay arc stripe 90deg
G92 E0 ; reset extrusion distance
G4 P500 ; wait for 0.5 sec
G0 Z10 E-1 ; Lift 15mm and retract 1mm filament
G4 P2000 ; wait for 5 sec
G0 Z15
M107 ; Disable cooling fan
G1 X0 Y-85 Z4 E0 F3000 ; get off the bed
G92 E0
G92 E0
G1 F1500 E-1
;LAYER_COUNT:133
;LAYER:0
M106 S102
G1 F600 Z1.24
G0 F1500 X7.169 Y45.727 Z1.24
;TYPE:SKIRT
G1 F600 Z0.24
G1 F3600 E0.75698
G1 F1200 X7.636 Y46.25 E0.79095
G1 X7.888 Y46.67 E0.81468
G1 X8.096 Y47.224 E0.84335
G1 X8.25 Y47.952 E0.8794
G1 X8.264 Y48.245 E0.89361
G1 X25.181 Y48.245 E1.71318
G1 X25.784 Y48.171 E1.74261
G1 X26.246 Y47.981 E1.76681
G1 X26.657 Y47.674 E1.79167
G1 X26.976 Y47.267 E1.81672
G1 X27.179 Y46.799 E1.84143
G1 X27.257 Y46.28 E1.86686
G1 X27.203 Y45.786 E1.89093
G1 X27.025 Y45.311 E1.91551
G1 X26.722 Y44.887 E1.94076
G1 X26.325 Y44.558 E1.96574
G1 X25.857 Y44.343 E1.99069
G1 X25.36 Y44.255 E2.01514
G1 X24.999 Y44.261 E2.03263
G1 X7.831 Y45.673 E2.86717
G0 F1080 X7.169 Y45.727
G0 F1500 X7.036 Y46.16
G1 F1200 X7.329 Y46.509 E2.88925
G1 X7.556 Y46.904 E2.91132
G1 X7.776 Y47.574 E2.94549
G1 X7.864 Y48.245 E2.97827
G1 X7.864 Y48.645 E2.99765
G1 X25.191 Y48.645 E3.83709
G1 X25.879 Y48.56 E3.87067
G1 X26.443 Y48.33 E3.90018
G1 X26.934 Y47.963 E3.92988
G1 X27.318 Y47.475 E3.95996
G1 X27.564 Y46.911 E3.98977
G1 X27.657 Y46.291 E4.02014
G1 X27.592 Y45.688 E4.04953
G1 X27.377 Y45.121 E4.0789
G1 X27.014 Y44.612 E4.10919
G1 X26.54 Y44.22 E4.13899
G1 X25.978 Y43.961 E4.16897
G1 X25.382 Y43.855 E4.1983
G1 X24.974 Y43.862 E4.21807
G1 X6.01 Y45.421 E5.13991
G1 X6.522 Y45.696 E5.16807
G1 X6.543 Y45.715 E5.16944
G0 F1080 X7.036 Y46.16
G0 F1500 X6.754 Y46.442
G1 F1200 X7.02 Y46.766 E5.18975
G1 X7.221 Y47.133 E5.21002
G1 X7.389 Y47.677 E5.2376
G1 X7.464 Y48.245 E5.26536
G1 X7.464 Y48.746 E5.28963
G1 X7.425 Y49.045 E5.30424
G1 X25.201 Y49.045 E6.16543
G1 X25.624 Y49.018 E6.18596
G1 X26.32 Y48.835 E6.22083
G1 X26.952 Y48.475 E6.25606
G1 X27.459 Y47.977 E6.29049
G1 X27.825 Y47.365 E6.32504
G1 X28.026 Y46.672 E6.36
G1 X28.044 Y45.955 E6.39474
G1 X27.877 Y45.254 E6.42966
G1 X27.533 Y44.614 E6.46486
G1 X27.049 Y44.095 E6.49924
G1 X26.437 Y43.71 E6.53427
G1 X25.753 Y43.494 E6.56902
G1 X25.395 Y43.454 E6.58647
G1 X24.965 Y43.462 E6.6073
G1 X-.398 Y45.547 E7.8402
G1 X4.773 Y45.547 E8.09072
G1 X5.356 Y45.626 E8.11922
G1 X5.988 Y45.841 E8.15156
G1 X6.254 Y46.006 E8.16673
G0 F1080 X6.344 Y46.061
G0 X6.754 Y46.442
G0 F1500 X6.286 Y46.54
G1 F1200 X6.709 Y47.02 E8.19772
G1 X6.937 Y47.533 E8.22492
G1 X7.064 Y48.245 E8.25996
G1 X7.064 Y48.746 E8.28423
G1 X6.94 Y49.445 E8.31862
G1 X25.227 Y49.445 E9.20457
G1 X25.667 Y49.417 E9.22593
G1 X26.091 Y49.333 E9.24687
G1 X26.469 Y49.207 E9.26617
G1 X26.845 Y49.024 E9.28643
G1 X27.196 Y48.794 E9.30676
G1 X27.498 Y48.533 E9.3261
G1 X27.769 Y48.232 E9.34572
G1 X28.008 Y47.885 E9.36613
G1 X28.195 Y47.522 E9.38592
G1 X28.333 Y47.136 E9.40578
G1 X28.424 Y46.725 E9.42617
G1 X28.459 Y46.309 E9.4464
G1 X28.443 Y45.917 E9.4654
G1 X28.372 Y45.504 E9.4857
G1 X28.25 Y45.108 E9.50578
G1 X28.079 Y44.733 E9.52575
G1 X27.864 Y44.388 E9.54544
G1 X27.601 Y44.067 E9.56555
G1 X27.301 Y43.783 E9.58556
G1 X26.969 Y43.543 E9.60541
G1 X26.607 Y43.346 E9.62537
G1 X26.217 Y43.196 E9.64562
G1 X25.826 Y43.099 E9.66513
G1 X25.416 Y43.054 E9.68511
G1 X24.94 Y43.062 E9.70818
G1 X-10.145 Y45.946 E11.41366
G1 X4.773 Y45.947 E12.13639
G1 X5.49 Y46.077 E12.17169
G1 X5.735 Y46.174 E12.18446
G0 F1080 X5.843 Y46.216
G0 X6.286 Y46.54
G0 F1500 X6.188 Y47.008
G1 F1200 X6.394 Y47.271 E12.20064
G1 X6.617 Y47.884 E12.23225
G1 X6.664 Y48.245 E12.24988
G1 X6.664 Y48.746 E12.27416
G1 X6.551 Y49.354 E12.30412
G1 X6.427 Y49.664 E12.32029
G1 X6.292 Y49.845 E12.33123
G1 X25.236 Y49.845 E13.249
G1 X25.726 Y49.814 E13.27279
G1 X26.191 Y49.722 E13.29575
G1 X26.62 Y49.579 E13.31766
G1 X27.035 Y49.377 E13.34002
G1 X27.44 Y49.111 E13.3635
G1 X27.775 Y48.822 E13.38493
G1 X28.085 Y48.478 E13.40737
G1 X28.35 Y48.093 E13.43001
G1 X28.562 Y47.68 E13.4525
G1 X28.72 Y47.241 E13.4751
G1 X28.819 Y46.793 E13.49733
G1 X28.859 Y46.319 E13.52038
G1 X28.841 Y45.871 E13.5421
G1 X28.76 Y45.404 E13.56506
G1 X28.627 Y44.97 E13.58705
G1 X28.435 Y44.548 E13.60951
G1 X28.187 Y44.151 E13.63219
G1 X27.894 Y43.792 E13.65464
G1 X27.558 Y43.475 E13.67702
G1 X27.185 Y43.205 E13.69933
G1 X26.776 Y42.983 E13.72187
G1 X26.338 Y42.814 E13.74462
G1 X25.898 Y42.705 E13.76658
G1 X25.43 Y42.654 E13.78939
G1 X24.917 Y42.662 E13.81424
G1 X-17.398 Y46.141 E15.87118
G1 X-17.98 Y46.146 E15.89938
G1 X-18.212 Y46.127 E15.91065
G1 X-18.706 Y46.044 E15.93492
G1 X-19.378 Y45.834 E15.96903
G1 X-19.588 Y45.743 E15.98012
G1 X-20.029 Y45.507 E16.00435
G1 X-20.601 Y45.091 E16.03862
G1 X-20.772 Y44.936 E16.0498
G1 X-21.116 Y44.567 E16.07424
G1 X-21.522 Y43.994 E16.10826
G1 X-21.841 Y43.332 E16.14386
G1 X-22.04 Y42.658 E16.17791
G1 X-22.129 Y41.94 E16.21296
G1 X-22.099 Y41.21 E16.24835
G1 X-21.957 Y40.525 E16.28225
G1 X-21.698 Y39.849 E16.31732
G1 X-21.447 Y39.449 E16.3402
G1 X-21.033 Y39.047 E16.36815
G1 X-20.461 Y38.795 E16.39843
G1 X-20.135 Y38.724 E16.4146
G1 X-19.515 Y38.782 E16.44477
G1 X-19.018 Y38.971 E16.47053
G1 X-18.524 Y39.334 E16.50023
G1 X-18.174 Y39.72 E16.52547
G1 X-18 Y40.005 E16.54165
G1 X-17.858 Y40.483 E16.5658
G1 X-17.841 Y41.066 E16.59406
G1 X-18.021 Y41.69 E16.62552
G1 X-18.004 Y41.872 E16.63438
G1 X-17.882 Y42.009 E16.64327
G1 X-17.625 Y42.046 E16.65585
G1 X24.37 Y37.394 E18.70281
G1 X25.146 Y37.348 E18.74047
G1 X25.296 Y37.348 E18.74774
G1 X26.074 Y37.385 E18.78547
G1 X26.221 Y37.399 E18.79262
G1 X27.011 Y37.521 E18.83135
G1 X27.155 Y37.552 E18.83849
G1 X27.914 Y37.753 E18.87653
G1 X28.053 Y37.797 E18.88359
G1 X28.79 Y38.077 E18.92178
G1 X28.924 Y38.136 E18.92888
G1 X29.621 Y38.488 E18.96671
G1 X29.749 Y38.562 E18.97387
G1 X30.412 Y38.99 E19.0121
G1 X30.531 Y39.075 E19.01919
G1 X31.145 Y39.569 E19.05737
G1 X31.253 Y39.666 E19.0644
G1 X31.802 Y40.211 E19.10188
G1 X31.903 Y40.323 E19.10918
G1 X32.407 Y40.944 E19.14793
G1 X32.492 Y41.06 E19.1549
G1 X32.921 Y41.716 E19.19287
G1 X32.994 Y41.841 E19.19988
G1 X33.349 Y42.53 E19.23743
G1 X33.41 Y42.667 E19.2447
G1 X33.698 Y43.413 E19.28344
G1 X33.743 Y43.551 E19.29047
G1 X33.948 Y44.308 E19.32847
G1 X33.979 Y44.452 E19.3356
G1 X34.102 Y45.217 E19.37314
G1 X34.118 Y45.361 E19.38016
G1 X34.162 Y46.153 E19.41859
G1 X34.162 Y46.301 E19.42576
G1 X34.123 Y47.08 E19.46355
G1 X34.108 Y47.227 E19.4707
G1 X33.984 Y48.017 E19.50945
G1 X33.953 Y48.162 E19.51663
G1 X33.75 Y48.92 E19.55465
G1 X33.705 Y49.06 E19.56177
G1 X33.423 Y49.794 E19.59986
G1 X33.365 Y49.925 E19.6068
G1 X33.013 Y50.619 E19.6445
G1 X32.939 Y50.747 E19.65167
G1 X32.507 Y51.414 E19.69017
G1 X32.421 Y51.533 E19.69728
G1 X31.926 Y52.145 E19.73541
G1 X31.824 Y52.258 E19.74279
G1 X31.267 Y52.812 E19.78085
G1 X31.164 Y52.905 E19.78757
G1 X30.562 Y53.395 E19.82518
G1 X30.44 Y53.483 E19.83246
G1 X29.773 Y53.916 E19.87099
G1 X29.648 Y53.989 E19.878
G1 X28.957 Y54.342 E19.91559
G1 X28.821 Y54.402 E19.9228
G1 X28.074 Y54.688 E19.96155
G1 X27.935 Y54.733 E19.96863
G1 X27.18 Y54.935 E20.00649
G1 X27.037 Y54.966 E20.01358
G1 X26.267 Y55.088 E20.05135
G1 X26.121 Y55.103 E20.05846
G1 X25.337 Y55.144 E20.09649
G1 X25.264 Y55.146 E20.10003
G1 X-19.746 Y55.145 E22.28062
G1 X-20.356 Y55.098 E22.31026
G1 X-21.062 Y54.938 E22.34533
G1 X-21.726 Y54.668 E22.38005
G1 X-21.936 Y54.554 E22.39163
G1 X-22.356 Y54.277 E22.416
G1 X-22.893 Y53.806 E22.45061
G1 X-23.351 Y53.248 E22.48558
G1 X-23.716 Y52.614 E22.52102
G1 X-23.809 Y52.401 E22.53228
G1 X-23.971 Y51.926 E22.5566
G1 X-24.107 Y51.227 E22.5911
G1 X-24.126 Y50.5 E22.62633
G1 X-24.107 Y50.268 E22.63761
G1 X-24.023 Y49.769 E22.66212
G1 X-23.807 Y49.086 E22.69683
G1 X-23.479 Y48.439 E22.73197
G1 X-23.047 Y47.852 E22.76728
G1 X-22.885 Y47.677 E22.77883
G1 X-22.514 Y47.339 E22.80315
G1 X-21.93 Y46.936 E22.83752
G1 X-21.271 Y46.626 E22.8728
G1 X-20.577 Y46.43 E22.90774
G1 X-19.85 Y46.351 E22.94317
G1 X-19.735 Y46.346 E22.94875
G1 X4.773 Y46.347 E24.13608
G1 X5.384 Y46.463 E24.16621
G1 X5.678 Y46.583 E24.18159
G0 F1080 X5.693 Y46.589
G0 X6.188 Y47.008
G0 F1500 X5.905 Y47.291
G1 F1200 X6.074 Y47.517 E24.19526
G1 X6.23 Y47.987 E24.21925
G1 X6.264 Y48.245 E24.23186
G1 X6.264 Y48.746 E24.25613
G1 X6.164 Y49.251 E24.28107
G1 X6.054 Y49.511 E24.29475
G1 X5.72 Y49.886 E24.31908
G1 X5.494 Y50.055 E24.33275
G1 X5.02 Y50.212 E24.35694
G1 X4.766 Y50.245 E24.36935
G1 X25.245 Y50.245 E25.36149
G1 X25.777 Y50.211 E25.38732
G1 X26.294 Y50.109 E25.41285
G1 X26.775 Y49.948 E25.43742
G1 X27.236 Y49.724 E25.46225
G1 X27.676 Y49.436 E25.48773
G1 X28.057 Y49.107 E25.51211
G1 X28.402 Y48.723 E25.53712
G1 X28.693 Y48.301 E25.56196
G1 X28.931 Y47.839 E25.58714
G1 X29.105 Y47.353 E25.61214
G1 X29.216 Y46.853 E25.63696
G1 X29.26 Y46.329 E25.66243
G1 X29.24 Y45.825 E25.68687
G1 X29.153 Y45.321 E25.71165
G1 X29 Y44.824 E25.73684
G1 X28.789 Y44.36 E25.76153
G1 X28.511 Y43.916 E25.78691
G1 X28.189 Y43.522 E25.81157
G1 X27.815 Y43.168 E25.83651
G1 X27.391 Y42.861 E25.86187
G1 X26.949 Y42.621 E25.88624
G1 X26.46 Y42.432 E25.91164
G1 X25.963 Y42.31 E25.93643
G1 X25.451 Y42.253 E25.96139
G1 X24.908 Y42.262 E25.9877
G1 X-17.431 Y45.743 E28.04581
G1 X-17.98 Y45.746 E28.0724
G1 X-18.146 Y45.732 E28.08047
G1 X-18.64 Y45.649 E28.10474
G1 X-19.249 Y45.456 E28.13569
G1 X-19.399 Y45.391 E28.14361
G1 X-19.84 Y45.155 E28.16784
G1 X-20.357 Y44.774 E28.19896
G1 X-20.479 Y44.663 E28.20695
G1 X-20.823 Y44.294 E28.23139
G1 X-21.189 Y43.771 E28.26231
G1 X-21.476 Y43.168 E28.29467
G1 X-21.653 Y42.555 E28.32558
G1 X-21.731 Y41.901 E28.35749
G1 X-21.7 Y41.238 E28.38964
G1 X-21.568 Y40.616 E28.42045
G1 X-21.328 Y40.001 E28.45243
G1 X-20.986 Y39.534 E28.48047
G1 X-20.77 Y39.352 E28.49416
G1 X-20.33 Y39.173 E28.51717
G1 X-20.053 Y39.119 E28.53084
G1 X-19.583 Y39.176 E28.55378
G1 X-19.124 Y39.376 E28.57804
G1 X-18.617 Y39.805 E28.61021
G1 X-18.346 Y40.212 E28.6339
G1 X-18.248 Y40.575 E28.65212
G1 X-18.239 Y41.023 E28.67382
G1 X-18.413 Y41.599 E28.70298
G1 X-18.418 Y41.888 E28.71698
G1 X-18.301 Y42.161 E28.73137
G1 X-18.088 Y42.355 E28.74533
G1 X-17.803 Y42.447 E28.75983
G1 X-17.607 Y42.446 E28.76933
G1 X24.343 Y37.798 E30.81411
G1 X25.17 Y37.748 E30.85424
G1 X25.277 Y37.747 E30.85943
G1 X26.055 Y37.784 E30.89716
G1 X26.16 Y37.795 E30.90228
G1 X26.95 Y37.917 E30.941
G1 X27.053 Y37.938 E30.9461
G1 X27.812 Y38.139 E30.98414
G1 X27.911 Y38.171 E30.98918
G1 X28.648 Y38.451 E31.02737
G1 X28.744 Y38.493 E31.03245
G1 X29.441 Y38.845 E31.07028
G1 X29.532 Y38.898 E31.07538
G1 X30.195 Y39.326 E31.11361
G1 X30.28 Y39.387 E31.11868
G1 X30.894 Y39.881 E31.15686
G1 X30.972 Y39.95 E31.1619
G1 X31.521 Y40.495 E31.19938
G1 X31.592 Y40.575 E31.20456
G1 X32.096 Y41.196 E31.24331
G1 X32.157 Y41.279 E31.2483
G1 X32.586 Y41.935 E31.28627
G1 X32.638 Y42.024 E31.29127
G1 X32.993 Y42.713 E31.32882
G1 X33.037 Y42.811 E31.33402
G1 X33.325 Y43.557 E31.37276
G1 X33.357 Y43.656 E31.3778
G1 X33.562 Y44.413 E31.4158
G1 X33.584 Y44.515 E31.42085
G1 X33.707 Y45.28 E31.45839
G1 X33.718 Y45.384 E31.46346
G1 X33.762 Y46.176 E31.50189
G1 X33.763 Y46.281 E31.50697
G1 X33.724 Y47.06 E31.54476
G1 X33.713 Y47.165 E31.54988
G1 X33.589 Y47.955 E31.58862
G1 X33.567 Y48.059 E31.59377
G1 X33.364 Y48.817 E31.63178
G1 X33.331 Y48.917 E31.63688
G1 X33.049 Y49.651 E31.67498
G1 X33.008 Y49.744 E31.6799
G1 X32.656 Y50.438 E31.7176
G1 X32.603 Y50.53 E31.72275
G1 X32.171 Y51.197 E31.76125
G1 X32.11 Y51.282 E31.76631
G1 X31.615 Y51.894 E31.80445
G1 X31.542 Y51.974 E31.80969
G1 X30.985 Y52.528 E31.84775
G1 X30.911 Y52.595 E31.85259
G1 X30.309 Y53.085 E31.8902
G1 X30.223 Y53.148 E31.89536
G1 X29.556 Y53.581 E31.93389
G1 X29.466 Y53.633 E31.93892
G1 X28.775 Y53.986 E31.97651
G1 X28.678 Y54.029 E31.98165
G1 X27.931 Y54.315 E32.02041
G1 X27.831 Y54.347 E32.02549
G1 X27.076 Y54.549 E32.06336
G1 X26.974 Y54.571 E32.06841
G1 X26.204 Y54.693 E32.10618
G1 X26.1 Y54.704 E32.11125
G1 X25.316 Y54.745 E32.14928
G1 X-19.746 Y54.745 E34.33239
G1 X-20.322 Y54.699 E34.36038
G1 X-20.963 Y54.55 E34.39226
G1 X-21.566 Y54.301 E34.42387
G1 X-21.716 Y54.22 E34.43213
G1 X-22.136 Y53.943 E34.4565
G1 X-22.622 Y53.512 E34.48797
G1 X-23.036 Y53.003 E34.51976
G1 X-23.364 Y52.424 E34.552
G1 X-23.43 Y52.272 E34.56002
G1 X-23.592 Y51.797 E34.58434
G1 X-23.712 Y51.161 E34.61569
G1 X-23.726 Y50.5 E34.64772
G1 X-23.712 Y50.334 E34.6558
G1 X-23.628 Y49.835 E34.68031
G1 X-23.429 Y49.217 E34.71176
G1 X-23.127 Y48.629 E34.74379
G1 X-22.731 Y48.098 E34.77588
G1 X-22.615 Y47.973 E34.78414
G1 X-22.244 Y47.635 E34.80846
G1 X-21.711 Y47.27 E34.83975
G1 X-21.111 Y46.993 E34.87177
G1 X-20.478 Y46.818 E34.90359
G1 X-19.817 Y46.749 E34.93578
G1 X-19.735 Y46.746 E34.93976
G1 X4.773 Y46.747 E36.12709
G1 X5.278 Y46.849 E36.15205
G1 X5.38 Y46.894 E36.15745
G0 F1080 X5.537 Y46.961
G0 X5.905 Y47.291
G0 F1500 X5.437 Y47.389
G1 F1200 X5.622 Y47.574 E36.17013
G1 X5.778 Y47.843 E36.18519
G1 X5.864 Y48.245 E36.20511
G1 X5.864 Y48.746 E36.22938
G1 X5.778 Y49.148 E36.2493
G1 X5.622 Y49.418 E36.2644
G1 X5.437 Y49.603 E36.27708
G1 X5.168 Y49.759 E36.29214
G1 X4.762 Y49.846 E36.31226
G1 X-19.702 Y49.847 E37.49746
G1 X-19.932 Y49.904 E37.50894
G1 X-20.08 Y50.051 E37.51904
G1 X-20.13 Y50.246 E37.5288
G1 X-20.08 Y50.441 E37.53855
G1 X-19.932 Y50.588 E37.54865
G1 X-19.693 Y50.646 E37.56057
G1 X25.256 Y50.645 E39.7382
G1 X25.826 Y50.609 E39.76587
G1 X26.403 Y50.494 E39.79437
G1 X26.92 Y50.322 E39.82077
G1 X27.434 Y50.072 E39.84846
G1 X27.92 Y49.753 E39.87662
G1 X28.339 Y49.393 E39.90339
G1 X28.714 Y48.974 E39.93063
G1 X29.039 Y48.503 E39.95835
G1 X29.296 Y48.004 E39.98555
G1 X29.49 Y47.464 E40.01334
G1 X29.611 Y46.914 E40.04063
G1 X29.661 Y46.331 E40.06897
G1 X29.639 Y45.786 E40.0954
G1 X29.542 Y45.228 E40.12284
G1 X29.374 Y44.68 E40.15061
G1 X29.14 Y44.166 E40.17797
G1 X28.843 Y43.691 E40.20511
G1 X28.477 Y43.243 E40.23313
G1 X28.072 Y42.86 E40.26014
G1 X27.611 Y42.526 E40.28772
G1 X27.109 Y42.254 E40.31538
G1 X26.577 Y42.049 E40.343
G1 X26.035 Y41.915 E40.37005
G1 X25.473 Y41.853 E40.39744
G1 X24.884 Y41.863 E40.42598
G1 X-17.464 Y45.344 E42.48452
G1 X-17.98 Y45.346 E42.50952
G1 X-18.079 Y45.338 E42.51433
G1 X-18.573 Y45.255 E42.5386
G1 X-19.12 Y45.077 E42.56647
G1 X-19.21 Y45.038 E42.57122
G1 X-19.651 Y44.802 E42.59545
G1 X-20.114 Y44.457 E42.62342
G1 X-20.187 Y44.39 E42.62822
G1 X-20.531 Y44.021 E42.65266
G1 X-20.857 Y43.548 E42.6805
G1 X-21.111 Y43.004 E42.70958
G1 X-21.267 Y42.452 E42.73737
G1 X-21.333 Y41.861 E42.76618
G1 X-21.301 Y41.265 E42.7951
G1 X-21.178 Y40.707 E42.82278
G1 X-20.959 Y40.154 E42.8516
G1 X-20.688 Y39.801 E42.87316
G1 X-20.438 Y39.634 E42.88772
G1 X-20.199 Y39.551 E42.89998
G1 X-19.899 Y39.527 E42.91456
G1 X-19.439 Y39.651 E42.93764
G1 X-19.025 Y39.958 E42.96261
G1 X-18.802 Y40.217 E42.97917
G1 X-18.688 Y40.451 E42.99178
G1 X-18.624 Y40.869 E43.01226
G1 X-18.667 Y41.115 E43.02436
G1 X-18.804 Y41.505 E43.04439
G1 X-18.833 Y41.734 E43.05557
G1 X-18.744 Y42.188 E43.07798
G1 X-18.477 Y42.566 E43.10041
G1 X-18.076 Y42.799 E43.12287
G1 X-17.848 Y42.847 E43.13416
