;FLAVOR:Marlin
;TIME:5000
;Filament used: 6.9249m
;Layer height: 0.24
;MINX:-48.935
;MINY:-33.89
;MINZ:0.12
;MAXX:48.935
;MAXY:58.189
;MAXZ:10.24
;Generated with Cura_SteamEngine 4.13.1
M140 S50
M105
M190 S50
M104 S215
M105
M109 S215
M82 ;absolute extrusion mode
;FLAVOR:Marlin
M82 ;absolute extrusion mode
G21
G90
M82
M107 T0
G28
G92 E0
G0 E3 F200
G92 E0 ; reset extrusion distance
M106 S255 ; Enable cooling fan full speed
G1 X-98 Y0 Z0.4 F3000 ; move to arc start
G3 X0 Y-98 I98 Z0.4 E40 F400 ; lay arc stripe 90deg
G92 E0 ; reset extrusion distance
G4 P500 ; wait for 0.5 sec
G0 Z10 E-1 ; Lift 15mm and retract 1mm filament
G4 P2000 ; wait for 5 sec
G0 Z15
M107 ; Disable cooling fan
G1 X0 Y-85 Z4 E0 F3000 ; get off the bed
G92 E0
G92 E0
G1 F1500 E-6.5
;LAYER_COUNT:40
;LAYER:0
M106 S25.5
G1 F600 Z1.12
G0 F3600 X-11.958 Y-4.419 Z1.12
;TYPE:SKIRT
G1 F600 Z0.12
G1 F1500 E0.3326
G1 F1800 X-11.583 Y-5.336 E0.35979
G1 X-11.252 Y-6.307 E0.38794
G1 X-10.971 Y-7.332 E0.4171
G1 X-10.773 Y-8.267 E0.44332
G1 X-10.622 Y-9.277 E0.47135
G1 X-10.532 Y-10.275 E0.49884
G1 X-10.5 Y-11.36 E0.52863
G1 X-10.5 Y-12.048 E0.54751
G1 X-11.028 Y-11.586 E0.56676
G1 X-11.821 Y-10.913 E0.5953
G1 X-12.558 Y-10.205 E0.62334
G1 X-13.265 Y-9.44 E0.65192
G1 X-13.911 Y-8.652 E0.67988
G1 X-14.483 Y-7.863 E0.70662
G1 X-15.037 Y-6.992 E0.73495
G1 X-15.536 Y-6.093 E0.76316
G1 X-15.972 Y-5.183 E0.79085
G1 X-16.354 Y-4.248 E0.81856
G1 X-16.684 Y-3.281 E0.8466
G1 X-16.963 Y-2.263 E0.87556
G1 X-17.16 Y-1.329 E0.90176
G1 X-17.315 Y-.301 E0.93028
G1 X-17.402 Y0.674 E0.95714
G1 X-17.435 Y1.753 E0.98676
G1 X-17.435 Y2.458 E1.00611
G1 X-16.906 Y1.995 E1.0254
G1 X-16.104 Y1.313 E1.05429
G1 X-15.373 Y0.611 E1.0821
G1 X-14.675 Y-.144 E1.11031
G1 X-14.041 Y-.915 E1.1377
G1 X-13.447 Y-1.736 E1.16551
G1 X-12.898 Y-2.598 E1.19355
G1 X-12.393 Y-3.509 E1.22213
G1 X-11.958 Y-4.419 E1.24981
G0 F3600 X-11.594 Y-4.252
G1 F1800 X-11.206 Y-5.201 E1.27794
G1 X-10.868 Y-6.193 E1.3067
G1 X-10.584 Y-7.228 E1.33615
G1 X-10.378 Y-8.207 E1.3636
G1 X-10.226 Y-9.217 E1.39162
G1 X-10.133 Y-10.26 E1.42036
G1 X-10.1 Y-11.348 E1.45022
G1 X-10.1 Y-13.015 E1.49597
G1 X-10.507 Y-12.587 E1.51217
G1 X-10.679 Y-12.423 E1.51869
G1 X-11.286 Y-11.891 E1.54084
G1 X-12.099 Y-11.202 E1.57008
G1 X-12.847 Y-10.482 E1.59857
G1 X-13.561 Y-9.709 E1.62745
G1 X-14.222 Y-8.903 E1.65605
G1 X-14.816 Y-8.083 E1.68383
G1 X-15.388 Y-7.184 E1.71307
G1 X-15.889 Y-6.282 E1.74138
G1 X-16.336 Y-5.35 E1.76975
G1 X-16.731 Y-4.383 E1.79841
G1 X-17.062 Y-3.414 E1.82651
G1 X-17.353 Y-2.351 E1.85675
G1 X-17.557 Y-1.387 E1.88378
G1 X-17.711 Y-.365 E1.91214
G1 X-17.802 Y0.666 E1.94054
G1 X-17.835 Y1.741 E1.97006
G1 X-17.835 Y3.426 E2.01629
G1 X-17.412 Y2.983 E2.0331
G1 X-17.245 Y2.823 E2.03945
G1 X-16.647 Y2.3 E2.06124
G1 X-15.833 Y1.608 E2.09056
G1 X-15.084 Y0.889 E2.11905
G1 X-14.386 Y0.134 E2.14726
G1 X-13.716 Y-.683 E2.17626
G1 X-13.12 Y-1.504 E2.20409
G1 X-12.551 Y-2.4 E2.23322
G1 X-12.033 Y-3.334 E2.26252
G1 X-11.594 Y-4.252 E2.29045
G0 F3600 X-11.233 Y-4.079
G1 F1800 X-10.827 Y-5.072 E2.31988
G1 X-10.492 Y-6.054 E2.34835
G1 X-10.194 Y-7.14 E2.37926
G1 X-9.985 Y-8.131 E2.40705
G1 X-9.827 Y-9.19 E2.43643
G1 X-9.733 Y-10.229 E2.46505
G1 X-9.7 Y-11.336 E2.49544
G1 X-9.7 Y-14.134 E2.57222
G1 X-9.737 Y-14.083 E2.57395
G1 X-10.183 Y-13.521 E2.59363
G1 X-10.312 Y-13.373 E2.59902
G1 X-10.797 Y-12.863 E2.61833
G1 X-10.942 Y-12.724 E2.62384
G1 X-11.545 Y-12.196 E2.64584
G1 X-12.369 Y-11.497 E2.67549
G1 X-13.128 Y-10.768 E2.70436
G1 X-13.857 Y-9.978 E2.73386
G1 X-14.542 Y-9.143 E2.7635
G1 X-15.151 Y-8.303 E2.79197
G1 X-15.734 Y-7.387 E2.82176
G1 X-16.239 Y-6.477 E2.85032
G1 X-16.71 Y-5.495 E2.8802
G1 X-17.105 Y-4.527 E2.90889
G1 X-17.443 Y-3.537 E2.93759
G1 X-17.741 Y-2.45 E2.96852
G1 X-17.952 Y-1.447 E2.99665
G1 X-18.109 Y-.409 E3.02545
G1 X-18.202 Y0.635 E3.05421
G1 X-18.235 Y1.729 E3.08424
G1 X-18.235 Y4.542 E3.16143
G1 X-18.193 Y4.484 E3.1634
G1 X-17.745 Y3.923 E3.1831
G1 X-17.617 Y3.776 E3.18845
G1 X-17.123 Y3.259 E3.20807
G1 X-16.981 Y3.124 E3.21344
G1 X-16.388 Y2.604 E3.23508
G1 X-15.563 Y1.902 E3.26481
G1 X-14.796 Y1.166 E3.29398
G1 X-14.074 Y0.385 E3.32316
G1 X-13.404 Y-.431 E3.35213
G1 X-12.791 Y-1.276 E3.38078
G1 X-12.205 Y-2.197 E3.41073
G1 X-11.679 Y-3.146 E3.4405
G1 X-11.233 Y-4.079 E3.46888
G0 F3600 X-10.865 Y-3.92
G1 F1800 X-10.459 Y-4.914 E3.49834
G1 X-10.105 Y-5.951 E3.52841
G1 X-9.804 Y-7.049 E3.55965
G1 X-9.591 Y-8.058 E3.58795
G1 X-9.431 Y-9.13 E3.61769
G1 X-9.333 Y-10.214 E3.64755
G1 X-9.3 Y-11.324 E3.67803
G1 X-9.3 Y-15.531 E3.79346
G1 X-9.563 Y-15.059 E3.80829
G1 X-9.957 Y-14.461 E3.82794
G1 X-10.05 Y-14.332 E3.8323
G1 X-10.496 Y-13.77 E3.85199
G1 X-10.602 Y-13.649 E3.85641
G1 X-11.087 Y-13.139 E3.87572
G1 X-11.206 Y-13.025 E3.88024
G1 X-11.804 Y-12.501 E3.90206
G1 X-12.631 Y-11.8 E3.9318
G1 X-13.416 Y-11.045 E3.96169
G1 X-14.169 Y-10.229 E3.99216
G1 X-14.854 Y-9.395 E4.02177
G1 X-15.477 Y-8.534 E4.05093
G1 X-16.073 Y-7.597 E4.0814
G1 X-16.602 Y-6.645 E4.11129
G1 X-17.073 Y-5.662 E4.1412
G1 X-17.476 Y-4.677 E4.1704
G1 X-17.83 Y-3.64 E4.20047
G1 X-18.131 Y-2.541 E4.23174
G1 X-18.343 Y-1.534 E4.25997
G1 X-18.506 Y-.456 E4.28989
G1 X-18.602 Y0.622 E4.31959
G1 X-18.635 Y1.717 E4.34965
G1 X-18.635 Y5.943 E4.46561
G1 X-18.369 Y5.463 E4.48066
G1 X-17.978 Y4.868 E4.5002
G1 X-17.881 Y4.734 E4.50474
G1 X-17.433 Y4.173 E4.52444
G1 X-17.327 Y4.052 E4.52885
G1 X-16.833 Y3.535 E4.54847
G1 X-16.718 Y3.425 E4.55284
G1 X-16.128 Y2.909 E4.57435
G1 X-15.3 Y2.204 E4.60419
G1 X-14.517 Y1.453 E4.63396
G1 X-13.77 Y0.645 E4.66415
G1 X-13.084 Y-.19 E4.69381
G1 X-12.465 Y-1.044 E4.72275
G1 X-11.858 Y-1.999 E4.7538
G1 X-11.319 Y-2.971 E4.7843
G1 X-10.865 Y-3.92 E4.81316
G0 F3600 X-10.495 Y-3.768
G1 F1800 X-10.078 Y-4.79 E4.84345
G1 X-9.723 Y-5.832 E4.87366
G1 X-9.418 Y-6.945 E4.90532
G1 X-9.198 Y-7.984 E4.93446
G1 X-9.031 Y-9.101 E4.96545
G1 X-8.934 Y-10.186 E4.99534
G1 X-8.9 Y-11.303 E5.02601
G1 X-8.9 Y-17.563 E5.19778
G1 X-9.113 Y-16.904 E5.21678
G1 X-9.16 Y-16.779 E5.22045
G1 X-9.447 Y-16.114 E5.24032
G1 X-9.499 Y-16.005 E5.24364
G1 X-9.833 Y-15.385 E5.26296
G1 X-9.897 Y-15.279 E5.26636
G1 X-10.291 Y-14.681 E5.28601
G1 X-10.363 Y-14.581 E5.28939
G1 X-10.809 Y-14.019 E5.30908
G1 X-10.891 Y-13.924 E5.31252
G1 X-11.376 Y-13.414 E5.33183
G1 X-11.469 Y-13.326 E5.33535
G1 X-12.062 Y-12.806 E5.35699
G1 X-12.909 Y-12.088 E5.38746
G1 X-13.705 Y-11.323 E5.41775
G1 X-14.46 Y-10.505 E5.44829
G1 X-15.173 Y-9.636 E5.47914
G1 X-15.812 Y-8.755 E5.509
G1 X-16.414 Y-7.808 E5.53979
G1 X-16.954 Y-6.836 E5.5703
G1 X-17.434 Y-5.835 E5.60077
G1 X-17.855 Y-4.806 E5.63127
G1 X-18.212 Y-3.759 E5.66163
G1 X-18.517 Y-2.645 E5.69332
G1 X-18.74 Y-1.592 E5.72285
G1 X-18.904 Y-.502 E5.7531
G1 X-19.001 Y0.591 E5.78321
G1 X-19.035 Y1.713 E5.81401
G1 X-19.035 Y7.974 E5.98581
G1 X-18.822 Y7.314 E6.00484
G1 X-18.775 Y7.189 E6.0085
G1 X-18.488 Y6.525 E6.02835
G1 X-18.436 Y6.416 E6.03167
G1 X-18.098 Y5.788 E6.05124
G1 X-18.035 Y5.683 E6.0546
G1 X-17.644 Y5.088 E6.07413
G1 X-17.568 Y4.983 E6.07769
G1 X-17.12 Y4.422 E6.09739
G1 X-17.038 Y4.329 E6.10079
G1 X-16.544 Y3.812 E6.12041
G1 X-16.454 Y3.726 E6.12383
G1 X-15.869 Y3.214 E6.14516
G1 X-15.029 Y2.499 E6.17543
G1 X-14.228 Y1.731 E6.20588
G1 X-13.473 Y0.914 E6.2364
G1 X-12.78 Y0.069 E6.26639
G1 X-12.118 Y-.843 E6.29731
G1 X-11.517 Y-1.788 E6.32804
G1 X-10.976 Y-2.764 E6.35866
G1 X-10.495 Y-3.768 E6.38921
G0 F3600 X-10.131 Y-3.601
G1 F1800 X-9.704 Y-4.648 E6.42024
G1 X-9.338 Y-5.725 E6.45145
G1 X-9.026 Y-6.859 E6.48372
G1 X-8.804 Y-7.911 E6.51323
G1 X-8.635 Y-9.039 E6.54452
G1 X-8.535 Y-10.153 E6.57521
G1 X-8.5 Y-11.333 E6.60761
G1 X-8.5 Y-21.084 E6.87517
G1 X-8.46 Y-21.363 E6.8829
G1 X-8.344 Y-21.62 E6.89064
G1 X-8.087 Y-21.91 E6.90127
G1 X-7.861 Y-22.079 E6.90902
G1 X-7.596 Y-22.177 E6.91677
G1 X-7.383 Y-22.2 E6.92265
G1 X7.383 Y-22.2 E7.32782
G1 X7.662 Y-22.16 E7.33556
G1 X7.919 Y-22.044 E7.34329
G1 X8.207 Y-21.79 E7.35383
G1 X8.376 Y-21.564 E7.36157
G1 X8.476 Y-21.3 E7.36932
G1 X8.5 Y-21.083 E7.37531
G1 X8.5 Y-11.284 E7.64419
G1 X8.532 Y-10.193 E7.67414
G1 X8.634 Y-9.044 E7.70579
G1 X8.804 Y-7.913 E7.73718
G1 X9.033 Y-6.837 E7.76736
G1 X9.332 Y-5.743 E7.79848
G1 X9.716 Y-4.614 E7.8312
G1 X10.13 Y-3.603 E7.86118
G1 X10.608 Y-2.602 E7.89162
G1 X11.192 Y-1.554 E7.92454
G1 X11.798 Y-.603 E7.95548
G1 X12.452 Y0.3 E7.98608
G1 X13.173 Y1.179 E8.01727
G1 X13.939 Y2.009 E8.04826
G1 X14.756 Y2.793 E8.07933
G1 X15.658 Y3.561 E8.11184
G1 X16.204 Y4.041 E8.13179
G1 X16.268 Y4.102 E8.13421
G1 X16.766 Y4.624 E8.15401
G1 X16.826 Y4.694 E8.15654
G1 X17.268 Y5.253 E8.17609
G1 X17.32 Y5.325 E8.17853
G1 X17.72 Y5.935 E8.19855
G1 X17.766 Y6.012 E8.20101
G1 X18.095 Y6.629 E8.2202
G1 X18.133 Y6.707 E8.22258
G1 X18.413 Y7.363 E8.24215
G1 X18.445 Y7.448 E8.24464
G1 X18.668 Y8.138 E8.26454
G1 X18.691 Y8.226 E8.26703
G1 X18.849 Y8.925 E8.2867
G1 X18.865 Y9.012 E8.28912
G1 X18.959 Y9.712 E8.3085
G1 X18.967 Y9.8 E8.31093
G1 X19 Y10.556 E8.33169
G1 X18.998 Y13.372 E8.40896
G1 X18.963 Y14.102 E8.42902
G1 X18.954 Y14.192 E8.4315
G1 X18.854 Y14.908 E8.45134
G1 X18.837 Y15.001 E8.45393
G1 X18.663 Y15.734 E8.4746
G1 X18.638 Y15.82 E8.47706
G1 X18.407 Y16.511 E8.49705
G1 X18.373 Y16.599 E8.49964
G1 X18.074 Y17.274 E8.5199
G1 X18.033 Y17.357 E8.52244
G1 X17.665 Y18.015 E8.54313
G1 X17.616 Y18.094 E8.54568
G1 X17.205 Y18.691 E8.56557
G1 X17.15 Y18.763 E8.56805
G1 X16.672 Y19.338 E8.58857
G1 X16.608 Y19.408 E8.59117
G1 X16.085 Y19.928 E8.61141
G1 X16.019 Y19.988 E8.61386
G1 X15.448 Y20.462 E8.63422
G1 X15.372 Y20.519 E8.63683
G1 X14.763 Y20.934 E8.65705
G1 X14.684 Y20.983 E8.6596
G1 X14.039 Y21.34 E8.67983
G1 X13.96 Y21.379 E8.68224
G1 X13.289 Y21.676 E8.70238
G1 X13.199 Y21.711 E8.70503
G1 X12.488 Y21.947 E8.72559
G1 X12.4 Y21.972 E8.7281
G1 X11.678 Y22.14 E8.74844
G1 X11.588 Y22.157 E8.75095
G1 X10.866 Y22.257 E8.77095
G1 X10.775 Y22.265 E8.77346
G1 X9.993 Y22.3 E8.79494
G1 X-10.071 Y22.298 E9.34548
G1 X-10.801 Y22.263 E9.36554
G1 X-10.892 Y22.254 E9.36805
G1 X-11.617 Y22.152 E9.38814
G1 X-11.709 Y22.135 E9.3907
G1 X-12.434 Y21.963 E9.41115
G1 X-12.52 Y21.938 E9.41361
G1 X-13.216 Y21.705 E9.43375
G1 X-13.306 Y21.671 E9.43639
G1 X-13.982 Y21.37 E9.45669
G1 X-14.063 Y21.329 E9.45918
G1 X-14.712 Y20.966 E9.47959
G1 X-14.79 Y20.917 E9.48212
G1 X-15.394 Y20.502 E9.50222
G1 X-15.468 Y20.447 E9.50475
G1 X-16.033 Y19.977 E9.52492
G1 X-16.101 Y19.914 E9.52746
G1 X-16.627 Y19.386 E9.54791
G1 X-16.688 Y19.319 E9.5504
G1 X-17.162 Y18.748 E9.57076
G1 X-17.219 Y18.672 E9.57337
G1 X-17.634 Y18.063 E9.59359
G1 X-17.683 Y17.984 E9.59614
G1 X-18.041 Y17.337 E9.61643
G1 X-18.08 Y17.258 E9.61885
G1 X-18.375 Y16.592 E9.63884
G1 X-18.41 Y16.502 E9.64149
G1 X-18.647 Y15.789 E9.66211
G1 X-18.672 Y15.702 E9.66459
G1 X-18.842 Y14.976 E9.68505
G1 X-18.859 Y14.883 E9.68764
G1 X-18.957 Y14.163 E9.70758
G1 X-18.965 Y14.075 E9.71001
G1 X-19 Y13.302 E9.73124
G1 X-18.998 Y10.489 E9.80843
G1 X-18.965 Y9.775 E9.82804
G1 X-18.957 Y9.685 E9.83052
G1 X-18.861 Y8.987 E9.84985
G1 X-18.845 Y8.899 E9.85231
G1 X-18.685 Y8.202 E9.87193
G1 X-18.662 Y8.119 E9.87429
G1 X-18.442 Y7.437 E9.89396
G1 X-18.408 Y7.347 E9.8966
G1 X-18.121 Y6.683 E9.91644
G1 X-18.084 Y6.606 E9.91879
G1 X-17.746 Y5.978 E9.93836
G1 X-17.701 Y5.903 E9.94076
G1 X-17.31 Y5.308 E9.96029
G1 X-17.255 Y5.233 E9.96285
G1 X-16.807 Y4.672 E9.98255
G1 X-16.749 Y4.605 E9.98498
G1 X-16.255 Y4.088 E10.0046
G1 X-16.191 Y4.027 E10.00703
G1 X-15.61 Y3.518 E10.02822
G1 X-14.758 Y2.793 E10.05892
G1 X-13.94 Y2.008 E10.09003
G1 X-13.17 Y1.176 E10.12113
G1 X-12.46 Y0.311 E10.15184
G1 X-11.797 Y-.604 E10.18285
G1 X-11.173 Y-1.585 E10.21475
G1 X-10.613 Y-2.596 E10.24646
G1 X-10.131 Y-3.601 E10.27705
G0 F3600 X-9.763 Y-3.443
G1 F1800 X-9.333 Y-4.496 E10.30826
G1 X-8.96 Y-5.591 E10.34
G1 X-8.637 Y-6.77 E10.37354
G1 X-8.409 Y-7.851 E10.40386
G1 X-8.24 Y-8.979 E10.43515
G1 X-8.135 Y-10.144 E10.46725
G1 X-8.1 Y-11.321 E10.49956
G1 X-8.1 Y-21.084 E10.76745
G1 X-8.06 Y-21.299 E10.77345
G1 X-7.805 Y-21.626 E10.78483
G1 X-7.625 Y-21.749 E10.79081
G1 X-7.383 Y-21.8 E10.7976
G1 X7.383 Y-21.8 E11.20277
G1 X7.598 Y-21.76 E11.20877
G1 X7.924 Y-21.507 E11.2201
G1 X8.048 Y-21.328 E11.22607
G1 X8.1 Y-21.083 E11.23295
G1 X8.1 Y-11.272 E11.50216
G1 X8.132 Y-10.181 E11.5321
G1 X8.238 Y-8.981 E11.56516
G1 X8.408 Y-7.855 E11.59641
G1 X8.645 Y-6.738 E11.62774
G1 X8.95 Y-5.621 E11.65951
G1 X9.337 Y-4.485 E11.69244
G1 X9.763 Y-3.443 E11.72333
G1 X10.258 Y-2.407 E11.75484
G1 X10.838 Y-1.366 E11.78754
G1 X11.464 Y-.382 E11.81954
G1 X12.135 Y0.543 E11.85089
G1 X12.877 Y1.447 E11.88299
G1 X13.659 Y2.295 E11.91464
G1 X14.486 Y3.088 E11.94608
G1 X15.394 Y3.861 E11.9788
G1 X15.94 Y4.341 E11.99875
G1 X15.978 Y4.378 E12.0002
G1 X16.476 Y4.9 E12.02
G1 X16.513 Y4.942 E12.02153
G1 X16.955 Y5.501 E12.04109
G1 X16.986 Y5.544 E12.04254
G1 X17.386 Y6.154 E12.06256
G1 X17.413 Y6.201 E12.06405
G1 X17.765 Y6.864 E12.08464
G1 X18.045 Y7.52 E12.10422
G1 X18.064 Y7.571 E12.10571
G1 X18.287 Y8.261 E12.12561
G1 X18.301 Y8.314 E12.12711
G1 X18.459 Y9.013 E12.14677
G1 X18.469 Y9.065 E12.14823
G1 X18.563 Y9.765 E12.16761
G1 X18.567 Y9.818 E12.16907
G1 X18.6 Y10.556 E12.18934
G1 X18.598 Y13.353 E12.26609
G1 X18.563 Y14.083 E12.28614
G1 X18.558 Y14.137 E12.28763
G1 X18.458 Y14.853 E12.30747
G1 X18.448 Y14.909 E12.30903
G1 X18.274 Y15.642 E12.3297
G1 X18.259 Y15.693 E12.33116
G1 X18.028 Y16.384 E12.35115
G1 X18.008 Y16.437 E12.3527
G1 X17.709 Y17.112 E12.37296
G1 X17.684 Y17.162 E12.37449
G1 X17.316 Y17.82 E12.39518
G1 X17.286 Y17.867 E12.39671
G1 X16.875 Y18.464 E12.4166
G1 X16.842 Y18.508 E12.41811
G1 X16.364 Y19.083 E12.43863
G1 X16.326 Y19.124 E12.44016
G1 X15.803 Y19.644 E12.4604
G1 X15.763 Y19.681 E12.46189
G1 X15.192 Y20.155 E12.48226
G1 X15.147 Y20.189 E12.4838
G1 X14.538 Y20.604 E12.50403
G1 X14.491 Y20.633 E12.50554
G1 X13.846 Y20.99 E12.52577
G1 X13.798 Y21.014 E12.52724
G1 X13.127 Y21.311 E12.54738
G1 X13.073 Y21.331 E12.54896
G1 X12.362 Y21.567 E12.56951
G1 X12.309 Y21.582 E12.57102
G1 X11.587 Y21.75 E12.59137
G1 X11.533 Y21.76 E12.59287
G1 X10.811 Y21.86 E12.61287
G1 X10.757 Y21.865 E12.61436
G1 X9.993 Y21.9 E12.63535
G1 X-10.052 Y21.898 E13.18537
G1 X-10.782 Y21.863 E13.20543
G1 X-10.837 Y21.858 E13.20694
G1 X-11.562 Y21.756 E13.22703
G1 X-11.617 Y21.746 E13.22857
G1 X-12.342 Y21.574 E13.24901
G1 X-12.393 Y21.559 E13.25047
G1 X-13.089 Y21.326 E13.27061
G1 X-13.143 Y21.305 E13.2722
G1 X-13.819 Y21.004 E13.29251
G1 X-13.868 Y20.98 E13.294
G1 X-14.517 Y20.617 E13.31441
G1 X-14.564 Y20.588 E13.31592
G1 X-15.168 Y20.173 E13.33603
G1 X-15.212 Y20.139 E13.33756
G1 X-15.777 Y19.669 E13.35772
G1 X-15.818 Y19.631 E13.35926
G1 X-16.344 Y19.103 E13.37971
G1 X-16.381 Y19.063 E13.3812
G1 X-16.855 Y18.492 E13.40157
G1 X-16.889 Y18.447 E13.40311
G1 X-17.304 Y17.838 E13.42334
G1 X-17.333 Y17.79 E13.42487
G1 X-17.691 Y17.143 E13.44516
G1 X-17.715 Y17.096 E13.44661
G1 X-18.01 Y16.43 E13.4666
G1 X-18.03 Y16.376 E13.46818
G1 X-18.267 Y15.663 E13.4888
G1 X-18.282 Y15.611 E13.49028
G1 X-18.452 Y14.885 E13.51074
G1 X-18.463 Y14.829 E13.51231
G1 X-18.561 Y14.109 E13.53225
G1 X-18.599 Y13.33 E13.55365
G1 X-18.599 Y10.535 E13.63034
G1 X-18.565 Y9.793 E13.65072
G1 X-18.56 Y9.739 E13.65221
G1 X-18.464 Y9.041 E13.67154
G1 X-18.455 Y8.989 E13.67299
G1 X-18.295 Y8.292 E13.69261
G1 X-18.281 Y8.242 E13.69404
G1 X-18.061 Y7.56 E13.7137
G1 X-18.041 Y7.506 E13.71528
G1 X-17.754 Y6.842 E13.73513
G1 X-17.731 Y6.796 E13.73654
G1 X-17.393 Y6.168 E13.75611
G1 X-17.366 Y6.122 E13.75758
G1 X-16.975 Y5.527 E13.77711
G1 X-16.943 Y5.483 E13.77861
