;FLAVOR:Marlin
;TIME:3308
;Filament used: 4.94096m
;Layer height: 0.24
;MINX:-27.998
;MINY:-27.997
;MINZ:0.3
;MAXX:27.988
;MAXY:27.997
;MAXZ:19.98
;Generated with Cura_SteamEngine 4.13.1
M140 S50
M105
M190 S50
M104 S210
M105
M109 S210
M82 ;absolute extrusion mode
;FLAVOR:Marlin
M82 ;absolute extrusion mode
G21
G90
M82
M107 T0
G28
G92 E0
G0 E3 F200
G92 E0 ; reset extrusion distance
M106 S255 ; Enable cooling fan full speed
G1 X-98 Y0 Z0.4 F3000 ; move to arc start
G3 X0 Y-98 I98 Z0.4 E40 F400 ; lay arc stripe 90deg
G92 E0 ; reset extrusion distance
G4 P500 ; wait for 0.5 sec
G0 Z10 E-1 ; Lift 15mm and retract 1mm filament
G4 P2000 ; wait for 5 sec
G0 Z15
M107 ; Disable cooling fan
G1 X0 Y-85 Z4 E0 F3000 ; get off the bed
G92 E0
G92 E0
G1 F1500 E-6.5
;LAYER_COUNT:84
;LAYER:0
M106 S25.5
G1 F600 Z1.3
G0 F3600 X20.978 Y18.531 Z1.3
;TYPE:SKIRT
G1 F600 Z0.3
G1 F1500 E0.3326
G1 F1800 X20.284 Y19.3 E0.38428
G1 X20.161 Y19.428 E0.39314
G1 X19.091 Y20.481 E0.46803
G1 X18.955 Y20.607 E0.47728
G1 X17.8 Y21.611 E0.55363
G1 X17.661 Y21.725 E0.5626
G1 X16.458 Y22.65 E0.63831
G1 X16.309 Y22.757 E0.64746
G1 X15.025 Y23.625 E0.72479
G1 X14.868 Y23.725 E0.73407
G1 X13.566 Y24.492 E0.80946
G1 X13.41 Y24.577 E0.81833
G1 X12.062 Y25.267 E0.89388
G1 X11.894 Y25.347 E0.90316
G1 X10.486 Y25.961 E0.97979
G1 X10.314 Y26.03 E0.98904
G1 X8.887 Y26.55 E1.06481
G1 X8.716 Y26.606 E1.07379
G1 X7.249 Y27.043 E1.15016
G1 X7.072 Y27.09 E1.15929
G1 X5.596 Y27.433 E1.23489
G1 X5.418 Y27.469 E1.24395
G1 X3.918 Y27.723 E1.31985
G1 X3.735 Y27.748 E1.32907
G1 X2.214 Y27.91 E1.40538
G1 X2.034 Y27.924 E1.41439
G1 X0.512 Y27.994 E1.4904
G1 X0.327 Y27.997 E1.49963
G1 X-1.202 Y27.973 E1.57592
G1 X-1.383 Y27.964 E1.58497
G1 X-2.903 Y27.848 E1.66102
G1 X-3.087 Y27.829 E1.67025
G1 X-4.6 Y27.619 E1.74646
G1 X-4.78 Y27.588 E1.75557
G1 X-6.266 Y27.289 E1.83119
G1 X-6.444 Y27.247 E1.84032
G1 X-7.916 Y26.856 E1.9163
G1 X-8.092 Y26.804 E1.92546
G1 X-9.549 Y26.32 E2.00205
G1 X-9.719 Y26.258 E2.01108
G1 X-11.094 Y25.707 E2.08498
G1 X-11.26 Y25.634 E2.09403
G1 X-12.679 Y24.963 E2.17234
G1 X-12.847 Y24.877 E2.18175
G1 X-14.171 Y24.146 E2.25721
G1 X-14.322 Y24.057 E2.26595
G1 X-15.632 Y23.229 E2.34327
G1 X-15.777 Y23.13 E2.35203
G1 X-17.012 Y22.237 E2.42806
G1 X-17.156 Y22.126 E2.43713
G1 X-18.334 Y21.16 E2.51314
G1 X-18.471 Y21.04 E2.52222
G1 X-19.589 Y20.004 E2.59827
G1 X-19.72 Y19.876 E2.60741
G1 X-20.774 Y18.772 E2.68356
G1 X-20.895 Y18.637 E2.6926
G1 X-21.874 Y17.479 E2.76825
G1 X-21.99 Y17.333 E2.77756
G1 X-22.899 Y16.111 E2.85354
G1 X-23.003 Y15.961 E2.86264
G1 X-23.841 Y14.679 E2.93906
G1 X-23.935 Y14.526 E2.94801
G1 X-24.687 Y13.209 E3.02368
G1 X-24.774 Y13.045 E3.03294
G1 X-25.447 Y11.676 E3.10905
G1 X-25.522 Y11.511 E3.11809
G1 X-26.111 Y10.105 E3.19414
G1 X-26.176 Y9.935 E3.20322
G1 X-26.679 Y8.495 E3.27932
G1 X-26.735 Y8.316 E3.28868
G1 X-27.146 Y6.851 E3.36459
G1 X-27.189 Y6.68 E3.37338
G1 X-27.514 Y5.189 E3.44952
G1 X-27.549 Y5.004 E3.45891
G1 X-27.78 Y3.494 E3.53512
G1 X-27.802 Y3.314 E3.54417
G1 X-27.941 Y1.796 E3.62022
G1 X-27.952 Y1.611 E3.62946
G1 X-27.998 Y0.058 E3.70698
G1 X-27.998 Y-.123 E3.71601
G1 X-27.952 Y-1.621 E3.79078
G1 X-27.94 Y-1.804 E3.79993
G1 X-27.8 Y-3.323 E3.87603
G1 X-27.778 Y-3.502 E3.88503
G1 X-27.547 Y-5.01 E3.96114
G1 X-27.514 Y-5.193 E3.97042
G1 X-27.192 Y-6.675 E4.04608
G1 X-27.147 Y-6.853 E4.05524
G1 X-26.728 Y-8.338 E4.13222
G1 X-26.674 Y-8.51 E4.14121
G1 X-26.176 Y-9.939 E4.21671
G1 X-26.109 Y-10.114 E4.22606
G1 X-25.514 Y-11.53 E4.30269
G1 X-25.439 Y-11.694 E4.31169
G1 X-24.765 Y-13.062 E4.38777
G1 X-24.678 Y-13.226 E4.39703
G1 X-23.926 Y-14.54 E4.47256
G1 X-23.833 Y-14.691 E4.48141
G1 X-23.007 Y-15.955 E4.55674
G1 X-22.902 Y-16.106 E4.56592
G1 X-21.984 Y-17.339 E4.64261
G1 X-21.87 Y-17.483 E4.65177
G1 X-20.896 Y-18.636 E4.72708
G1 X-20.773 Y-18.773 E4.73626
G1 X-19.712 Y-19.883 E4.81287
G1 X-19.581 Y-20.012 E4.82204
G1 X-18.456 Y-21.053 E4.89851
G1 X-18.32 Y-21.171 E4.90749
G1 X-17.138 Y-22.14 E4.98375
G1 X-16.991 Y-22.253 E4.993
G1 X-15.75 Y-23.148 E5.06933
G1 X-15.595 Y-23.252 E5.07864
G1 X-14.314 Y-24.06 E5.15421
G1 X-14.162 Y-24.15 E5.16302
G1 X-12.834 Y-24.882 E5.23867
G1 X-12.67 Y-24.967 E5.24789
G1 X-11.282 Y-25.624 E5.3245
G1 X-11.114 Y-25.697 E5.33364
G1 X-9.702 Y-26.263 E5.40953
G1 X-9.532 Y-26.325 E5.41856
G1 X-8.094 Y-26.803 E5.49416
G1 X-7.917 Y-26.856 E5.50338
G1 X-6.446 Y-27.246 E5.5793
G1 X-6.269 Y-27.287 E5.58837
G1 X-4.768 Y-27.589 E5.66475
G1 X-4.587 Y-27.62 E5.67392
G1 X-3.074 Y-27.829 E5.75012
G1 X-2.892 Y-27.848 E5.75925
G1 X-1.377 Y-27.964 E5.83505
G1 X-1.195 Y-27.973 E5.84414
G1 X0.336 Y-27.997 E5.92053
G1 X0.522 Y-27.994 E5.92981
G1 X2.069 Y-27.922 E6.00708
G1 X2.251 Y-27.908 E6.01618
G1 X3.748 Y-27.747 E6.0913
G1 X3.924 Y-27.723 E6.10016
G1 X5.406 Y-27.474 E6.17514
G1 X5.591 Y-27.436 E6.18456
G1 X7.082 Y-27.088 E6.26094
G1 X7.258 Y-27.042 E6.27002
G1 X8.726 Y-26.604 E6.34645
G1 X8.896 Y-26.547 E6.35539
G1 X10.308 Y-26.032 E6.43038
G1 X10.479 Y-25.964 E6.43956
G1 X11.899 Y-25.345 E6.51684
G1 X12.065 Y-25.267 E6.52599
G1 X13.396 Y-24.587 E6.60056
G1 X13.556 Y-24.499 E6.60967
G1 X14.888 Y-23.713 E6.68683
G1 X15.045 Y-23.613 E6.69612
G1 X16.324 Y-22.747 E6.77318
G1 X16.472 Y-22.64 E6.78229
G1 X17.663 Y-21.723 E6.85728
G1 X17.803 Y-21.609 E6.86629
G1 X18.96 Y-20.602 E6.94281
G1 X19.097 Y-20.475 E6.95213
G1 X20.198 Y-19.389 E7.02929
G1 X20.321 Y-19.26 E7.03818
G1 X21.303 Y-18.169 E7.11141
G1 X21.479 Y-17.96 E7.12504
G1 X22.419 Y-16.771 E7.20066
G1 X22.526 Y-16.627 E7.20961
G1 X23.383 Y-15.399 E7.28432
G1 X23.482 Y-15.248 E7.29333
G1 X24.263 Y-13.972 E7.36797
G1 X24.353 Y-13.814 E7.37704
G1 X25.075 Y-12.455 E7.45381
G1 X25.156 Y-12.29 E7.46298
G1 X25.804 Y-10.865 E7.54108
G1 X25.875 Y-10.693 E7.55037
G1 X26.423 Y-9.26 E7.62691
G1 X26.482 Y-9.085 E7.63612
G1 X26.934 Y-7.644 E7.71147
G1 X26.984 Y-7.466 E7.72069
G1 X27.354 Y-5.97 E7.79758
G1 X27.393 Y-5.792 E7.80667
G1 X27.665 Y-4.31 E7.88184
G1 X27.692 Y-4.129 E7.89097
G1 X27.873 Y-2.637 E7.96595
G1 X27.889 Y-2.46 E7.97482
G1 X27.983 Y-.908 E8.05239
G1 X27.988 Y-.718 E8.06187
G1 X27.988 Y0.745 E8.13486
G1 X27.982 Y0.927 E8.14395
G1 X27.888 Y2.474 E8.22127
G1 X27.872 Y2.655 E8.23033
G1 X27.69 Y4.148 E8.30537
G1 X27.662 Y4.329 E8.31451
G1 X27.37 Y5.905 E8.39447
G1 X27.337 Y6.053 E8.40204
G1 X26.968 Y7.526 E8.4778
G1 X26.919 Y7.701 E8.48686
G1 X26.459 Y9.157 E8.56304
G1 X26.398 Y9.329 E8.57215
G1 X25.856 Y10.739 E8.64751
G1 X25.786 Y10.906 E8.65655
G1 X25.146 Y12.312 E8.73362
G1 X25.064 Y12.478 E8.74285
G1 X24.358 Y13.805 E8.81785
G1 X24.269 Y13.961 E8.82681
G1 X23.474 Y15.261 E8.90283
G1 X23.373 Y15.416 E8.91206
G1 X22.499 Y16.665 E8.98811
G1 X22.391 Y16.81 E8.99713
G1 X21.456 Y17.988 E9.07217
G1 X21.345 Y18.12 E9.08077
G1 X20.978 Y18.531 E9.10826
G0 F3600 X20.681 Y18.263
G1 F1800 X19.987 Y19.032 E9.15994
G1 X19.881 Y19.143 E9.1676
G1 X18.811 Y20.196 E9.24249
G1 X18.693 Y20.305 E9.25051
G1 X17.538 Y21.309 E9.32686
G1 X17.417 Y21.408 E9.33466
G1 X16.214 Y22.333 E9.41037
G1 X16.085 Y22.426 E9.4183
G1 X14.801 Y23.294 E9.49562
G1 X14.665 Y23.38 E9.50365
G1 X13.363 Y24.147 E9.57904
G1 X13.228 Y24.221 E9.58672
G1 X11.88 Y24.911 E9.66227
G1 X11.734 Y24.98 E9.67033
G1 X10.326 Y25.594 E9.74696
G1 X10.177 Y25.654 E9.75498
G1 X8.75 Y26.174 E9.83075
G1 X8.602 Y26.223 E9.83853
G1 X7.135 Y26.66 E9.9149
G1 X6.982 Y26.701 E9.9228
G1 X5.506 Y27.044 E9.9984
G1 X5.351 Y27.075 E10.00628
G1 X3.851 Y27.329 E10.08219
G1 X3.692 Y27.35 E10.09019
G1 X2.171 Y27.512 E10.1665
G1 X2.015 Y27.524 E10.1743
G1 X0.493 Y27.594 E10.25032
G1 X0.333 Y27.597 E10.2583
G1 X-1.196 Y27.573 E10.33459
G1 X-1.353 Y27.565 E10.34244
G1 X-2.873 Y27.449 E10.41849
G1 X-3.032 Y27.432 E10.42647
G1 X-4.545 Y27.222 E10.50267
G1 X-4.701 Y27.196 E10.51057
G1 X-6.187 Y26.897 E10.58619
G1 X-6.341 Y26.861 E10.59408
G1 X-7.813 Y26.47 E10.67006
G1 X-7.966 Y26.424 E10.67803
G1 X-9.423 Y25.94 E10.75463
G1 X-9.57 Y25.886 E10.76244
G1 X-10.945 Y25.335 E10.83634
G1 X-11.089 Y25.272 E10.84419
G1 X-12.508 Y24.601 E10.9225
G1 X-12.654 Y24.527 E10.93066
G1 X-13.978 Y23.796 E11.00612
G1 X-14.109 Y23.719 E11.0137
G1 X-15.356 Y22.932 E11.08726
G1 X-15.542 Y22.806 E11.09847
G1 X-16.777 Y21.913 E11.17451
G1 X-16.903 Y21.816 E11.18244
G1 X-18.081 Y20.85 E11.25844
G1 X-18.199 Y20.747 E11.26626
G1 X-19.317 Y19.711 E11.3423
G1 X-19.431 Y19.599 E11.35027
G1 X-20.485 Y18.495 E11.42642
G1 X-20.59 Y18.379 E11.43423
G1 X-21.569 Y17.221 E11.50988
G1 X-21.669 Y17.094 E11.51795
G1 X-22.578 Y15.872 E11.59393
G1 X-22.668 Y15.743 E11.60178
G1 X-23.506 Y14.461 E11.67819
G1 X-23.588 Y14.327 E11.68603
G1 X-24.34 Y13.01 E11.76169
G1 X-24.415 Y12.868 E11.7697
G1 X-25.088 Y11.499 E11.84581
G1 X-25.153 Y11.357 E11.8536
G1 X-25.742 Y9.951 E11.92965
G1 X-25.799 Y9.803 E11.93756
G1 X-26.302 Y8.363 E12.01366
G1 X-26.35 Y8.208 E12.02176
G1 X-26.761 Y6.743 E12.09767
G1 X-26.798 Y6.595 E12.10528
G1 X-27.123 Y5.104 E12.18141
G1 X-27.153 Y4.943 E12.18958
G1 X-27.384 Y3.433 E12.26579
G1 X-27.403 Y3.277 E12.27363
G1 X-27.542 Y1.759 E12.34968
G1 X-27.552 Y1.599 E12.35768
G1 X-27.598 Y0.046 E12.4352
G1 X-27.598 Y-.111 E12.44303
G1 X-27.552 Y-1.609 E12.5178
G1 X-27.542 Y-1.768 E12.52575
G1 X-27.402 Y-3.287 E12.60185
G1 X-27.383 Y-3.442 E12.60964
G1 X-27.152 Y-4.95 E12.68575
G1 X-27.123 Y-5.108 E12.69377
G1 X-26.801 Y-6.59 E12.76943
G1 X-26.762 Y-6.744 E12.77736
G1 X-26.343 Y-8.229 E12.85434
G1 X-26.296 Y-8.379 E12.86218
G1 X-25.798 Y-9.808 E12.93768
G1 X-25.74 Y-9.959 E12.94575
G1 X-25.145 Y-11.375 E13.02237
G1 X-25.08 Y-11.517 E13.03017
G1 X-24.406 Y-12.885 E13.10625
G1 X-24.331 Y-13.027 E13.11426
G1 X-23.579 Y-14.341 E13.18979
G1 X-23.498 Y-14.472 E13.19748
G1 X-22.672 Y-15.736 E13.27281
G1 X-22.581 Y-15.867 E13.28077
G1 X-21.663 Y-17.1 E13.35746
G1 X-21.564 Y-17.225 E13.36541
G1 X-20.59 Y-18.378 E13.44072
G1 X-20.483 Y-18.497 E13.4487
G1 X-19.422 Y-19.607 E13.52531
G1 X-19.309 Y-19.718 E13.53321
G1 X-18.184 Y-20.759 E13.60968
G1 X-18.066 Y-20.862 E13.61749
G1 X-16.884 Y-21.831 E13.69375
G1 X-16.757 Y-21.929 E13.70175
G1 X-15.516 Y-22.824 E13.77808
G1 X-15.382 Y-22.914 E13.78614
G1 X-14.101 Y-23.722 E13.8617
G1 X-13.969 Y-23.8 E13.86935
G1 X-12.641 Y-24.532 E13.945
G1 X-12.498 Y-24.605 E13.95301
G1 X-11.11 Y-25.262 E14.02962
G1 X-10.965 Y-25.325 E14.03751
G1 X-9.553 Y-25.891 E14.11341
G1 X-9.406 Y-25.945 E14.12122
G1 X-7.968 Y-26.423 E14.19682
G1 X-7.814 Y-26.469 E14.20484
G1 X-6.343 Y-26.859 E14.28076
G1 X-6.19 Y-26.895 E14.2886
G1 X-4.689 Y-27.197 E14.36499
G1 X-4.532 Y-27.224 E14.37294
G1 X-3.019 Y-27.433 E14.44914
G1 X-2.861 Y-27.449 E14.45706
G1 X-1.346 Y-27.565 E14.53287
G1 X-1.189 Y-27.573 E14.54071
G1 X0.342 Y-27.597 E14.6171
G1 X0.504 Y-27.594 E14.62518
G1 X2.051 Y-27.522 E14.70245
G1 X2.208 Y-27.51 E14.7103
G1 X3.705 Y-27.349 E14.78542
G1 X3.858 Y-27.328 E14.79312
G1 X5.34 Y-27.079 E14.8681
G1 X5.5 Y-27.047 E14.87624
G1 X6.991 Y-26.699 E14.95262
G1 X7.143 Y-26.658 E14.96048
G1 X8.611 Y-26.22 E15.03691
G1 X8.759 Y-26.172 E15.04467
G1 X10.171 Y-25.657 E15.11965
G1 X10.319 Y-25.597 E15.12762
G1 X11.739 Y-24.978 E15.2049
G1 X11.883 Y-24.91 E15.21285
G1 X13.214 Y-24.23 E15.28742
G1 X13.352 Y-24.154 E15.29528
G1 X14.684 Y-23.368 E15.37244
G1 X14.821 Y-23.282 E15.38051
G1 X16.1 Y-22.416 E15.45757
G1 X16.228 Y-22.323 E15.46546
G1 X17.419 Y-21.406 E15.54045
G1 X17.54 Y-21.307 E15.54825
G1 X18.697 Y-20.3 E15.62478
G1 X18.816 Y-20.19 E15.63286
G1 X19.917 Y-19.104 E15.71002
G1 X20.023 Y-18.992 E15.71771
G1 X21.063 Y-17.836 E15.79529
G1 X21.166 Y-17.711 E15.80337
G1 X22.106 Y-16.522 E15.87899
G1 X22.198 Y-16.398 E15.88669
G1 X23.055 Y-15.17 E15.9614
G1 X23.141 Y-15.039 E15.96922
G1 X23.922 Y-13.763 E16.04385
G1 X24 Y-13.626 E16.05172
G1 X24.722 Y-12.267 E16.1285
G1 X24.792 Y-12.124 E16.13644
G1 X25.436 Y-10.708 E16.21405
G1 X25.502 Y-10.549 E16.22263
G1 X26.045 Y-9.128 E16.29853
G1 X26.101 Y-8.965 E16.30713
G1 X26.553 Y-7.524 E16.38247
G1 X26.596 Y-7.37 E16.39045
G1 X26.966 Y-5.874 E16.46733
G1 X26.999 Y-5.719 E16.47524
G1 X27.271 Y-4.237 E16.55041
G1 X27.295 Y-4.081 E16.55829
G1 X27.476 Y-2.589 E16.63327
G1 X27.49 Y-2.435 E16.64098
G1 X27.584 Y-.895 E16.71796
G1 X27.588 Y-.718 E16.72679
G1 X27.588 Y0.745 E16.79978
G1 X27.583 Y0.903 E16.80767
G1 X27.489 Y2.45 E16.88499
G1 X27.475 Y2.607 E16.89285
G1 X27.293 Y4.1 E16.96789
G1 X27.269 Y4.257 E16.97581
G1 X26.978 Y5.827 E17.05548
G1 X26.949 Y5.956 E17.06207
G1 X26.58 Y7.429 E17.13783
G1 X26.537 Y7.58 E17.14566
G1 X26.077 Y9.036 E17.22184
G1 X26.025 Y9.186 E17.22976
G1 X25.483 Y10.596 E17.30513
G1 X25.422 Y10.74 E17.31293
G1 X24.782 Y12.146 E17.39
G1 X24.711 Y12.29 E17.39801
G1 X24.005 Y13.617 E17.473
G1 X23.928 Y13.752 E17.48076
G1 X23.133 Y15.052 E17.55678
G1 X23.045 Y15.187 E17.56482
G1 X22.171 Y16.436 E17.64087
G1 X22.077 Y16.561 E17.64868
G1 X21.142 Y17.739 E17.72371
G1 X21.046 Y17.854 E17.73118
G1 X20.681 Y18.263 E17.75853
G0 F3600 X20.384 Y17.995
G1 F1800 X19.69 Y18.764 E17.81021
G1 X19.6 Y18.858 E17.8167
G1 X18.53 Y19.911 E17.8916
G1 X18.43 Y20.003 E17.89838
G1 X17.275 Y21.007 E17.97473
G1 X17.173 Y21.091 E17.98132
G1 X15.97 Y22.016 E18.05703
G1 X15.861 Y22.095 E18.06375
G1 X14.577 Y22.963 E18.14107
G1 X14.462 Y23.036 E18.14787
G1 X13.16 Y23.803 E18.22326
G1 X13.045 Y23.865 E18.22977
G1 X11.697 Y24.555 E18.30532
G1 X11.574 Y24.614 E18.31213
G1 X10.166 Y25.228 E18.38876
G1 X10.04 Y25.278 E18.39553
G1 X8.613 Y25.798 E18.4713
G1 X8.488 Y25.839 E18.47786
G1 X7.021 Y26.276 E18.55423
G1 X6.891 Y26.311 E18.56095
G1 X5.415 Y26.654 E18.63655
G1 X5.284 Y26.68 E18.64321
G1 X3.784 Y26.934 E18.71911
G1 X3.65 Y26.953 E18.72586
G1 X2.129 Y27.115 E18.80218
G1 X1.997 Y27.125 E18.80878
G1 X0.475 Y27.195 E18.88479
G1 X0.339 Y27.197 E18.89158
G1 X-1.19 Y27.173 E18.96787
G1 X-1.322 Y27.167 E18.97446
G1 X-2.842 Y27.051 E19.05052
G1 X-2.977 Y27.036 E19.05729
G1 X-4.49 Y26.826 E19.1335
G1 X-4.622 Y26.804 E19.14018
G1 X-6.108 Y26.505 E19.2158
G1 X-6.239 Y26.474 E19.22252
G1 X-7.711 Y26.083 E19.2985
G1 X-7.84 Y26.045 E19.30521
G1 X-9.297 Y25.561 E19.38181
G1 X-9.421 Y25.515 E19.3884
G1 X-10.796 Y24.964 E19.46231
G1 X-10.918 Y24.911 E19.46894
G1 X-12.337 Y24.24 E19.54725
G1 X-12.46 Y24.177 E19.55415
G1 X-13.784 Y23.446 E19.6296
G1 X-13.895 Y23.38 E19.63604
G1 X-15.188 Y22.564 E19.71232
G1 X-15.308 Y22.482 E19.71957
G1 X-16.543 Y21.589 E19.79561
G1 X-16.649 Y21.507 E19.80229
G1 X-17.827 Y20.541 E19.8783
G1 X-17.927 Y20.454 E19.88491
G1 X-19.045 Y19.418 E19.96095
G1 X-19.141 Y19.323 E19.96769
G1 X-20.195 Y18.219 E20.04384
G1 X-20.284 Y18.12 E20.05048
G1 X-21.263 Y16.962 E20.12614
G1 X-21.348 Y16.855 E20.13295
G1 X-22.257 Y15.633 E20.20894
G1 X-22.333 Y15.524 E20.21557
G1 X-23.171 Y14.242 E20.29198
G1 X-23.24 Y14.129 E20.29858
G1 X-23.992 Y12.812 E20.37425
G1 X-24.056 Y12.692 E20.38103
G1 X-24.729 Y11.323 E20.45714
G1 X-24.784 Y11.202 E20.46377
G1 X-25.373 Y9.796 E20.53982
G1 X-25.421 Y9.671 E20.5465
G1 X-25.924 Y8.231 E20.6226
G1 X-25.965 Y8.1 E20.62945
G1 X-26.376 Y6.635 E20.70536
G1 X-26.408 Y6.51 E20.7118
G1 X-26.733 Y5.019 E20.78793
G1 X-26.758 Y4.883 E20.79483
G1 X-26.989 Y3.373 E20.87104
G1 X-27.005 Y3.241 E20.87767
G1 X-27.144 Y1.723 E20.95372
G1 X-27.152 Y1.587 E20.96052
G1 X-27.198 Y0.034 E21.03803
G1 X-27.198 Y-0.099 E21.04467
G1 X-27.152 Y-1.597 E21.11944
G1 X-27.144 Y-1.731 E21.12614
G1 X-27.004 Y-3.25 E21.20224
G1 X-26.988 Y-3.381 E21.20882
G1 X-26.757 Y-4.889 E21.28494
G1 X-26.732 Y-5.023 E21.29174
G1 X-26.41 Y-6.505 E21.3674
G1 X-26.377 Y-6.635 E21.37409
G1 X-25.958 Y-8.12 E21.45107
G1 X-25.918 Y-8.247 E21.45771
G1 X-25.42 Y-9.676 E21.53321
