;FLAVOR:Marlin
;TIME:623
;Filament used: 1.0461m
;Layer height: 0.3
;MINX:-16.125
;MINY:-73.416
;MINZ:0.4
;MAXX:16.117
;MAXY:0
;MAXZ:23.2
;TARGET_MACHINE.NAME:Unknown
;Generated with Cura_SteamEngine 5.11.0
M140 S50
M105
M190 S50
M104 S220
M105
M109 S220
;FLAVOR:Marlin
M82 ;absolute extrusion mode
G21
G90
M82
M107 T0
G28
G92 E0
G0 E3 F200
G92 E0 ; reset extrusion distance
M106 S255 ; Enable cooling fan full speed
G1 X-98 Y0 Z0.4 F3000 ; move to arc start
G3 X0 Y-98 I98 Z0.4 E40 F400 ; lay arc stripe 90deg
G92 E0 ; reset extrusion distance
G4 P500 ; wait for 0.5 sec
G0 Z10 E-1 ; Lift 15mm and retract 1mm filament
G4 P2000 ; wait for 5 sec
G0 Z15
M107 ; Disable cooling fan
G1 X0 Y-85 Z4 E0 F3000 ; get off the bed
M82 ;absolute extrusion mode
G92 E0
G92 E0
G1 F1500 E-6.5
;LAYER_COUNT:77
;LAYER:0
M107
G1 F600 Z1.4
G0 F3600 X0.00 Y0.00 Z1.4
G0 X-.428 Y-41.178
;TYPE:SKIRT
G1 F600 Z0.4
G1 F1500 E0
G1 F1800 X-1.729 Y-41.259 E0.14958
G1 X-2.613 Y-41.379 E0.25194
G1 X-4.367 Y-41.77 E0.45815
G1 X-5.453 Y-42.123 E0.58918
G1 X-6.87 Y-42.704 E0.76492
G1 X-7.944 Y-43.262 E0.9038
G1 X-8.824 Y-43.797 E1.02197
G1 X-10.049 Y-44.683 E1.19545
G1 X-11.069 Y-45.562 E1.34996
G1 X-11.919 Y-46.431 E1.48944
G1 X-12.729 Y-47.397 E1.6341
G1 X-13.531 Y-48.527 E1.7931
G1 X-14.074 Y-49.425 E1.91352
G1 X-14.704 Y-50.672 E2.07383
G1 X-15.327 Y-52.287 E2.27246
G1 X-15.627 Y-53.312 E2.39501
G1 X-15.934 Y-54.828 E2.5725
G1 X-16.026 Y-55.529 E2.65363
G1 X-16.125 Y-57.486 E2.87848
G1 X-16.102 Y-58.171 E2.95712
G1 X-15.898 Y-59.942 E3.16168
G1 X-15.569 Y-61.466 E3.34059
G1 X-15.181 Y-62.715 E3.49066
G1 X-14.713 Y-63.885 E3.63526
G1 X-14.211 Y-64.907 E3.76592
G1 X-13.514 Y-66.081 E3.92258
G1 X-12.657 Y-67.279 E4.0916
G1 X-12.023 Y-68.035 E4.20482
G1 X-10.887 Y-69.179 E4.38982
G1 X-9.757 Y-70.127 E4.55907
G1 X-9.012 Y-70.661 E4.66425
G1 X-7.556 Y-71.534 E4.85905
G1 X-6.879 Y-71.874 E4.94598
G1 X-5.027 Y-72.614 E5.17483
G1 X-4.273 Y-72.841 E5.26518
G1 X-2.554 Y-73.214 E5.46702
G1 X-1.782 Y-73.319 E5.55643
G1 X0.168 Y-73.416 E5.78046
G1 X1.009 Y-73.385 E5.87703
G1 X2.977 Y-73.14 E6.10459
G1 X3.816 Y-72.959 E6.20308
G1 X5.476 Y-72.452 E6.40225
G1 X6.695 Y-71.956 E6.55326
G1 X7.684 Y-71.462 E6.68012
G1 X8.98 Y-70.681 E6.85374
G1 X10.16 Y-69.809 E7.02211
G1 X10.85 Y-69.214 E7.12665
G1 X12.083 Y-67.967 E7.32788
G1 X12.769 Y-67.132 E7.45188
G1 X13.586 Y-65.976 E7.61432
G1 X13.966 Y-65.351 E7.69825
G1 X14.815 Y-63.651 E7.91629
G1 X15.188 Y-62.704 E8.03308
G1 X15.65 Y-61.162 E8.2178
G1 X15.901 Y-59.975 E8.35701
G1 X16.03 Y-59.025 E8.46702
G1 X16.117 Y-56.881 E8.71325
G1 X16.062 Y-55.923 E8.82335
G1 X15.829 Y-54.221 E9.02048
G1 X15.63 Y-53.33 E9.12523
G1 X15.179 Y-51.854 E9.30233
G1 X14.759 Y-50.797 E9.43284
G1 X14.196 Y-49.65 E9.57946
G1 X13.562 Y-48.574 E9.72277
G1 X12.597 Y-47.228 E9.91281
G1 X11.729 Y-46.224 E10.0651
G1 X11.181 Y-45.67 E10.15452
G1 X9.82 Y-44.507 E10.35994
G1 X8.575 Y-43.636 E10.53429
G1 X7.458 Y-42.998 E10.6819
G1 X6.328 Y-42.46 E10.82551
G1 X5.507 Y-42.138 E10.9267
G1 X3.58 Y-41.563 E11.15746
G1 X2.777 Y-41.404 E11.25139
G1 X0.815 Y-41.19 E11.47786
G1 X-.428 Y-41.178 E11.6205
G0 F3600 X-.391 Y-41.777
G1 F1800 X-1.648 Y-41.854 E11.765
G1 X-2.532 Y-41.974 E11.86737
G1 X-4.183 Y-42.341 E12.06144
G1 X-5.226 Y-42.678 E12.18722
G1 X-6.594 Y-43.237 E12.35679
G1 X-7.632 Y-43.775 E12.49095
G1 X-8.512 Y-44.31 E12.60912
G1 X-9.657 Y-45.138 E12.77126
G1 X-10.677 Y-46.017 E12.92577
G1 X-11.459 Y-46.817 E13.05414
G1 X-12.269 Y-47.783 E13.19879
G1 X-13.018 Y-48.838 E13.34726
G1 X-13.538 Y-49.696 E13.46238
G1 X-14.168 Y-50.943 E13.6227
G1 X-14.751 Y-52.456 E13.80875
G1 X-15.051 Y-53.481 E13.9313
G1 X-15.339 Y-54.906 E14.09812
G1 X-15.431 Y-55.607 E14.17925
G1 X-15.525 Y-57.466 E14.39284
G1 X-15.502 Y-58.151 E14.47149
G1 X-15.302 Y-59.873 E14.67041
G1 X-14.996 Y-61.289 E14.83664
G1 X-14.624 Y-62.493 E14.98124
G1 X-14.174 Y-63.62 E15.12049
G1 X-13.672 Y-64.642 E15.25115
G1 X-13.026 Y-65.732 E15.39654
G1 X-12.197 Y-66.893 E15.56024
G1 X-11.563 Y-67.649 E15.67345
G1 X-10.501 Y-68.72 E15.84652
G1 X-9.406 Y-69.64 E16.01063
G1 X-8.703 Y-70.146 E16.11002
G1 X-7.247 Y-71.019 E16.30483
G1 X-6.611 Y-71.337 E16.38642
G1 X-4.854 Y-72.039 E16.60353
G1 X-4.1 Y-72.266 E16.69388
G1 X-2.473 Y-72.619 E16.88492
G1 X-1.701 Y-72.724 E16.97432
G1 X0.146 Y-72.816 E17.18652
G1 X0.987 Y-72.785 E17.28309
G1 X2.85 Y-72.553 E17.49852
G1 X3.689 Y-72.372 E17.597
G1 X5.251 Y-71.896 E17.78438
G1 X6.428 Y-71.419 E17.9301
G1 X7.374 Y-70.948 E18.05137
G1 X8.67 Y-70.167 E18.22499
G1 X9.769 Y-69.354 E18.38186
G1 X10.423 Y-68.792 E18.4808
G1 X11.656 Y-67.545 E18.68203
G1 X12.279 Y-66.785 E18.7948
G1 X13.073 Y-65.664 E18.95242
G1 X13.453 Y-65.039 E19.03636
G1 X14.257 Y-63.43 E19.24275
G1 X14.613 Y-62.532 E19.3536
G1 X15.075 Y-60.99 E19.53831
G1 X15.306 Y-59.894 E19.66684
G1 X15.435 Y-58.944 E19.77685
G1 X15.518 Y-56.915 E20.00986
G1 X15.463 Y-55.957 E20.11997
G1 X15.243 Y-54.352 E20.30586
G1 X15.044 Y-53.461 E20.41062
G1 X14.621 Y-52.076 E20.5768
G1 X14.201 Y-51.019 E20.70731
G1 X13.679 Y-49.955 E20.8433
G1 X13.045 Y-48.879 E20.98661
G1 X12.143 Y-47.62 E21.16433
G1 X11.302 Y-46.646 E21.31199
G1 X10.754 Y-46.092 E21.4014
G1 X9.476 Y-44.999 E21.59437
G1 X8.231 Y-44.128 E21.76872
G1 X7.199 Y-43.539 E21.90507
G1 X6.108 Y-43.018 E22.0438
G1 X5.335 Y-42.713 E22.13915
G1 X3.463 Y-42.152 E22.3634
G1 X2.66 Y-41.993 E22.45733
G1 X0.809 Y-41.79 E22.671
G1 X-.391 Y-41.777 E22.80871
G0 F3600 X-.355 Y-42.376
G1 F1800 X-1.567 Y-42.449 E22.94803
G1 X-2.451 Y-42.569 E23.0504
G1 X-3.999 Y-42.912 E23.23234
G1 X-5 Y-43.234 E23.353
G1 X-6.318 Y-43.77 E23.51626
G1 X-7.32 Y-44.288 E23.64569
G1 X-8.2 Y-44.823 E23.76387
G1 X-9.265 Y-45.593 E23.91467
G1 X-10.285 Y-46.472 E24.06918
G1 X-10.999 Y-47.203 E24.18643
G1 X-11.809 Y-48.169 E24.33109
G1 X-12.505 Y-49.15 E24.46911
G1 X-13.002 Y-49.967 E24.57884
G1 X-13.632 Y-51.214 E24.73915
G1 X-14.175 Y-52.625 E24.91264
G1 X-14.475 Y-53.65 E25.03519
G1 X-14.744 Y-54.984 E25.19134
G1 X-14.836 Y-55.685 E25.27247
G1 X-14.925 Y-57.446 E25.4748
G1 X-14.902 Y-58.131 E25.55344
G1 X-14.706 Y-59.803 E25.74662
G1 X-14.422 Y-61.113 E25.90043
G1 X-14.066 Y-62.271 E26.03944
G1 X-13.635 Y-63.355 E26.1733
G1 X-13.133 Y-64.377 E26.30396
G1 X-12.537 Y-65.384 E26.43823
G1 X-11.737 Y-66.507 E26.59644
G1 X-11.103 Y-67.263 E26.70966
G1 X-10.115 Y-68.261 E26.8708
G1 X-9.055 Y-69.153 E27.02977
G1 X-8.352 Y-69.659 E27.12916
G1 X-6.979 Y-70.482 E27.31285
G1 X-6.343 Y-70.8 E27.39444
G1 X-4.681 Y-71.464 E27.59981
G1 X-3.927 Y-71.691 E27.69016
G1 X-2.392 Y-72.024 E27.8704
G1 X-1.62 Y-72.129 E27.9598
G1 X0.124 Y-72.216 E28.16017
G1 X0.965 Y-72.185 E28.25673
G1 X2.723 Y-71.966 E28.46002
G1 X3.562 Y-71.785 E28.55851
G1 X5.026 Y-71.34 E28.73409
G1 X6.161 Y-70.882 E28.87453
G1 X7.064 Y-70.434 E28.9902
G1 X8.36 Y-69.653 E29.16382
G1 X9.378 Y-68.899 E29.30919
G1 X10.032 Y-68.337 E29.40814
G1 X11.193 Y-67.164 E29.59752
G1 X11.79 Y-66.438 E29.70537
G1 X12.56 Y-65.352 E29.85813
G1 X12.94 Y-64.727 E29.94207
G1 X13.699 Y-63.209 E30.13681
G1 X14.055 Y-62.311 E30.24766
G1 X14.5 Y-60.819 E30.42631
G1 X14.711 Y-59.813 E30.54426
G1 X14.84 Y-58.863 E30.65427
G1 X14.919 Y-56.949 E30.87408
G1 X14.864 Y-55.991 E30.98419
G1 X14.657 Y-54.483 E31.15886
G1 X14.458 Y-53.592 E31.26361
G1 X14.063 Y-52.298 E31.41886
G1 X13.643 Y-51.241 E31.54937
G1 X13.162 Y-50.26 E31.67474
G1 X12.528 Y-49.184 E31.81805
G1 X11.689 Y-48.012 E31.98344
G1 X10.875 Y-47.068 E32.12647
G1 X10.327 Y-46.514 E32.21589
G1 X9.131 Y-45.49 E32.39656
G1 X7.933 Y-44.649 E32.56452
G1 X6.94 Y-44.08 E32.69584
G1 X5.886 Y-43.576 E32.8299
G1 X5.162 Y-43.288 E32.91931
G1 X3.346 Y-42.741 E33.13694
G1 X2.543 Y-42.582 E33.23087
G1 X0.802 Y-42.39 E33.43186
G1 X-.355 Y-42.376 E33.56463
G0 F3600 X-.32 Y-42.975
G1 F1800 X-1.486 Y-43.044 E33.69866
G1 X-2.37 Y-43.164 E33.80103
G1 X-3.816 Y-43.483 E33.97094
G1 X-4.775 Y-43.79 E34.08649
G1 X-6.043 Y-44.303 E34.24344
G1 X-7.009 Y-44.801 E34.36815
G1 X-7.849 Y-45.31 E34.48085
G1 X-8.873 Y-46.048 E34.62569
G1 X-9.893 Y-46.927 E34.7802
G1 X-10.539 Y-47.589 E34.88633
G1 X-11.349 Y-48.555 E35.03099
G1 X-11.993 Y-49.462 E35.15863
G1 X-12.466 Y-50.238 E35.26292
G1 X-13.096 Y-51.485 E35.42323
G1 X-13.599 Y-52.794 E35.58414
G1 X-13.899 Y-53.819 E35.70669
G1 X-14.149 Y-55.062 E35.85218
G1 X-14.241 Y-55.763 E35.93331
G1 X-14.325 Y-57.426 E36.12438
G1 X-14.302 Y-58.111 E36.20302
G1 X-14.119 Y-59.677 E36.38394
G1 X-13.848 Y-60.937 E36.53183
G1 X-13.492 Y-62.095 E36.67084
G1 X-13.096 Y-63.09 E36.79373
G1 X-12.594 Y-64.112 E36.92438
G1 X-12.021 Y-65.078 E37.05326
G1 X-11.277 Y-66.121 E37.20027
G1 X-10.643 Y-66.877 E37.31349
G1 X-9.689 Y-67.838 E37.46887
G1 X-8.704 Y-68.666 E37.61653
G1 X-8.001 Y-69.172 E37.71592
G1 X-6.711 Y-69.945 E37.88848
G1 X-6.075 Y-70.263 E37.97008
G1 X-4.508 Y-70.889 E38.1637
G1 X-3.754 Y-71.116 E38.25406
G1 X-2.311 Y-71.429 E38.42349
G1 X-1.539 Y-71.534 E38.51289
G1 X0.102 Y-71.616 E38.70142
G1 X0.943 Y-71.585 E38.79799
G1 X2.596 Y-71.379 E38.98914
G1 X3.435 Y-71.198 E39.08763
G1 X4.802 Y-70.783 E39.25155
G1 X5.895 Y-70.344 E39.38671
G1 X6.754 Y-69.92 E39.49663
G1 X8.05 Y-69.139 E39.67026
G1 X8.987 Y-68.444 E39.80413
G1 X9.641 Y-67.882 E39.90307
G1 X10.73 Y-66.782 E40.08069
G1 X11.301 Y-66.09 E40.18364
G1 X12.047 Y-65.04 E40.33143
G1 X12.427 Y-64.415 E40.41537
G1 X13.141 Y-62.988 E40.59846
G1 X13.497 Y-62.09 E40.70931
G1 X13.913 Y-60.695 E40.87635
G1 X14.116 Y-59.732 E40.98928
G1 X14.245 Y-58.782 E41.09929
G1 X14.32 Y-56.983 E41.3059
G1 X14.265 Y-56.025 E41.41601
G1 X14.071 Y-54.614 E41.57944
G1 X13.872 Y-53.723 E41.6842
G1 X13.505 Y-52.52 E41.82852
G1 X13.085 Y-51.463 E41.95903
G1 X12.645 Y-50.565 E42.07378
G1 X12.011 Y-49.489 E42.21709
G1 X11.234 Y-48.403 E42.37031
G1 X10.448 Y-47.49 E42.50855
G1 X9.9 Y-46.936 E42.59797
G1 X8.785 Y-45.98 E42.7665
G1 X7.634 Y-45.169 E42.92807
G1 X6.681 Y-44.621 E43.05421
G1 X5.664 Y-44.134 E43.1836
G1 X4.94 Y-43.846 E43.27301
G1 X3.229 Y-43.33 E43.47808
G1 X2.426 Y-43.171 E43.57201
G1 X0.794 Y-42.99 E43.76043
G1 X-.32 Y-42.975 E43.88827
G0 F3600 X-.285 Y-43.574
G1 F1800 X-1.405 Y-43.639 E44.017
G1 X-2.289 Y-43.759 E44.11937
G1 X-3.634 Y-44.055 E44.27739
G1 X-4.551 Y-44.347 E44.38782
G1 X-5.769 Y-44.837 E44.53847
G1 X-6.699 Y-45.315 E44.65846
G1 X-7.498 Y-45.797 E44.76553
G1 X-8.522 Y-46.535 E44.91037
G1 X-9.464 Y-47.347 E45.05308
G1 X-10.079 Y-47.975 E45.15394
G1 X-10.889 Y-48.941 E45.2986
G1 X-11.481 Y-49.775 E45.41595
G1 X-11.93 Y-50.509 E45.51469
G1 X-12.56 Y-51.756 E45.675
G1 X-13.023 Y-52.963 E45.82334
G1 X-13.323 Y-53.988 E45.94589
G1 X-13.554 Y-55.14 E46.08071
G1 X-13.646 Y-55.841 E46.16184
G1 X-13.725 Y-57.406 E46.34165
G1 X-13.702 Y-58.091 E46.4203
G1 X-13.532 Y-59.552 E46.58907
G1 X-13.274 Y-60.761 E46.73093
G1 X-12.918 Y-61.919 E46.86994
G1 X-12.557 Y-62.825 E46.98185
G1 X-12.055 Y-63.847 E47.11251
G1 X-11.505 Y-64.771 E47.23589
G1 X-10.817 Y-65.735 E47.37179
G1 X-10.183 Y-66.491 E47.48501
G1 X-9.303 Y-67.379 E47.62846
G1 X-8.353 Y-68.179 E47.77098
G1 X-7.65 Y-68.685 E47.87037
G1 X-6.443 Y-69.408 E48.03182
G1 X-5.807 Y-69.726 E48.11341
G1 X-4.335 Y-70.314 E48.29529
G1 X-3.581 Y-70.541 E48.38565
G1 X-2.23 Y-70.834 E48.54428
G1 X-1.458 Y-70.939 E48.63368
G1 X0.08 Y-71.016 E48.81038
G1 X0.921 Y-70.985 E48.90695
G1 X2.469 Y-70.792 E49.08595
G1 X3.308 Y-70.611 E49.18444
G1 X4.579 Y-70.226 E49.33683
G1 X5.629 Y-69.806 E49.4666
G1 X6.488 Y-69.382 E49.57652
G1 X7.693 Y-68.657 E49.73789
G1 X8.596 Y-67.989 E49.86677
G1 X9.25 Y-67.427 E49.96572
G1 X10.267 Y-66.4 E50.13157
G1 X10.838 Y-65.708 E50.23452
G1 X11.534 Y-64.728 E50.37244
G1 X11.914 Y-64.103 E50.45638
G1 X12.583 Y-62.767 E50.62782
G1 X12.939 Y-61.869 E50.73867
G1 X13.326 Y-60.571 E50.89409
G1 X13.521 Y-59.651 E51.002
G1 X13.65 Y-58.701 E51.11201
G1 X13.721 Y-57.017 E51.30542
G1 X13.666 Y-56.059 E51.41553
G1 X13.485 Y-54.745 E51.56773
G1 X13.286 Y-53.854 E51.67249
G1 X12.947 Y-52.742 E51.80589
G1 X12.527 Y-51.685 E51.9364
G1 X12.128 Y-50.87 E52.04052
G1 X11.494 Y-49.794 E52.18383
G1 X10.779 Y-48.794 E52.32489
G1 X10.021 Y-47.912 E52.45834
G1 X9.473 Y-47.358 E52.54776
G1 X8.438 Y-46.47 E52.70424
G1 X7.334 Y-45.689 E52.85942
G1 X6.421 Y-45.162 E52.98038
G1 X5.442 Y-44.692 E53.10499
G1 X4.718 Y-44.404 E53.1944
G1 X3.112 Y-43.919 E53.38691
G1 X2.309 Y-43.76 E53.48084
G1 X0.785 Y-43.59 E53.6568
G1 X-.285 Y-43.574 E53.77959
G0 F3600 X-.251 Y-44.173
G1 F1800 X-1.324 Y-44.234 E53.90292
G1 X-2.208 Y-44.354 E54.00528
G1 X-3.453 Y-44.627 E54.15154
G1 X-4.328 Y-44.904 E54.25685
G1 X-5.495 Y-45.371 E54.40109
G1 X-6.389 Y-45.829 E54.51635
G1 X-7.188 Y-46.311 E54.62342
G1 X-8.17 Y-47.021 E54.76247
G1 X-9.035 Y-47.767 E54.89354
G1 X-9.65 Y-48.395 E54.9944
G1 X-10.429 Y-49.326 E55.1337
G1 X-10.97 Y-50.089 E55.24103
G1 X-11.394 Y-50.78 E55.33405
G1 X-12.024 Y-52.027 E55.49437
G1 X-12.447 Y-53.132 E55.63014
G1 X-12.747 Y-54.157 E55.75269
G1 X-12.959 Y-55.218 E55.87684
G1 X-13.051 Y-55.919 E55.95797
G1 X-13.125 Y-57.386 E56.12652
G1 X-13.102 Y-58.071 E56.20516
G1 X-12.945 Y-59.428 E56.36191
G1 X-12.7 Y-60.586 E56.49773
G1 X-12.36 Y-61.698 E56.63116
G1 X-12.018 Y-62.561 E56.73768
G1 X-11.539 Y-63.54 E56.86275
G1 X-10.989 Y-64.464 E56.98613
G1 X-10.357 Y-65.349 E57.11092
G1 X-9.723 Y-66.105 E57.22414
G1 X-8.877 Y-66.956 E57.36183
G1 X-8.002 Y-67.692 E57.49303
G1 X-7.299 Y-68.198 E57.59242
G1 X-6.175 Y-68.871 E57.74275
G1 X-5.539 Y-69.189 E57.82434
G1 X-4.162 Y-69.739 E57.99449
G1 X-3.408 Y-69.966 E58.08484
G1 X-2.149 Y-70.239 E58.23267
G1 X-1.377 Y-70.344 E58.32207
G1 X0.058 Y-70.416 E58.48694
G1 X0.899 Y-70.385 E58.58351
G1 X2.342 Y-70.205 E58.75037
G1 X3.181 Y-70.024 E58.84886
G1 X4.357 Y-69.669 E58.98982
G1 X5.363 Y-69.268 E59.11408
G1 X6.222 Y-68.844 E59.22401
G1 X7.337 Y-68.174 E59.37327
G1 X8.206 Y-67.533 E59.49718
G1 X8.824 Y-67.004 E59.59053
G1 X9.804 Y-66.018 E59.75005
G1 X10.375 Y-65.326 E59.85299
G1 X11.021 Y-64.416 E59.98105
G1 X11.401 Y-63.791 E60.06498
G1 X12.025 Y-62.546 E60.22478
G1 X12.381 Y-61.648 E60.33563
G1 X12.739 Y-60.446 E60.47954
G1 X12.926 Y-59.57 E60.58232
G1 X13.055 Y-58.62 E60.69233
G1 X13.122 Y-57.051 E60.87254
G1 X13.067 Y-56.093 E60.98265
G1 X12.899 Y-54.876 E61.12362
G1 X12.7 Y-53.985 E61.22838
G1 X12.389 Y-52.964 E61.35085
G1 X11.969 Y-51.907 E61.48136
G1 X11.611 Y-51.174 E61.57497
G1 X11.005 Y-50.142 E61.71229
G1 X10.324 Y-49.185 E61.84707
G1 X9.594 Y-48.334 E61.97573
G1 X9.046 Y-47.78 E62.06514
G1 X8.091 Y-46.959 E62.20966
G1 X7.034 Y-46.209 E62.35837
G1 X6.121 Y-45.682 E62.47934
G1 X5.22 Y-45.25 E62.594
G1 X4.496 Y-44.962 E62.6834
G1 X2.995 Y-44.508 E62.86335
G1 X2.192 Y-44.349 E62.95728
G1 X0.775 Y-44.19 E63.1209
G1 X-.251 Y-44.173 E63.23864
G0 F3600 X-.218 Y-44.772
G1 F1800 X-1.243 Y-44.829 E63.35644
G1 X-2.127 Y-44.949 E63.45881
G1 X-3.273 Y-45.199 E63.5934
G1 X-4.106 Y-45.461 E63.6936
G1 X-5.222 Y-45.906 E63.83147
G1 X-6.079 Y-46.343 E63.94185
G1 X-6.878 Y-46.825 E64.04892
G1 X-7.779 Y-47.476 E64.17648
G1 X-8.606 Y-48.187 E64.30162
G1 X-9.221 Y-48.815 E64.40248
G1 X-9.94 Y-49.674 E64.53102
G1 X-10.459 Y-50.404 E64.6338
G1 X-10.858 Y-51.051 E64.72102
G1 X-11.488 Y-52.298 E64.88134
G1 X-11.872 Y-53.302 E65.00468
G1 X-12.159 Y-54.275 E65.12109
G1 X-12.364 Y-55.296 E65.24058
G1 X-12.456 Y-55.997 E65.32171
G1 X-12.525 Y-57.366 E65.479
G1 X-12.502 Y-58.051 E65.55765
G1 X-12.358 Y-59.305 E65.70249
G1 X-12.126 Y-60.412 E65.83227
G1 X-11.802 Y-61.478 E65.96012
G1 X-11.479 Y-62.298 E66.06125
G1 X-11.023 Y-63.233 E66.18061
G1 X-10.473 Y-64.157 E66.304
G1 X-9.897 Y-64.963 E66.41768
G1 X-9.263 Y-65.719 E66.5309
G1 X-8.49 Y-66.497 E66.65674
