;FLAVOR:Marlin
;TIME:670
;Filament used: 0.496623m
;Layer height: 0.12
;MINX:-20.787
;MINY:-22.738
;MINZ:0.3
;MAXX:30.792
;MAXY:22.74
;MAXZ:1.5
;Generated with Cura_SteamEngine 4.12.1
M140 S50
M105
M190 S50
M104 S210
M105
M109 S210
M82 ;absolute extrusion mode
;FLAVOR:Marlin
M82 ;absolute extrusion mode
G21
G90
M82
M107 T0
G28
G92 E0
G0 E3 F200
G92 E0 ; reset extrusion distance
M106 S255 ; Enable cooling fan full speed
G1 X-98 Y0 Z0.4 F3000 ; move to arc start
G3 X0 Y-98 I98 Z0.4 E40 F400 ; lay arc stripe 90deg
G92 E0 ; reset extrusion distance
G4 P500 ; wait for 0.5 sec
G0 Z10 E-1 ; Lift 15mm and retract 1mm filament
G4 P2000 ; wait for 5 sec
G0 Z15
M107 ; Disable cooling fan
G1 X0 Y-85 Z4 E0 F3000 ; get off the bed
G92 E0
G92 E0
G1 F1500 E-6.5
;LAYER_COUNT:11
;LAYER:0
M107
G1 F600 Z1.3
G0 F3600 X-4.018 Y1.951 Z1.3
;TYPE:SKIRT
G1 F600 Z0.3
G1 F1500 E0.24945
G1 F1800 X-4.335 Y1.537 E0.27547
G1 X-4.64 Y1.284 E0.29524
G1 X-4.792 Y1.19 E0.30415
G1 X-19.294 Y-7.184 E1.13962
G1 X-19.697 Y-7.463 E1.16407
G1 X-20.049 Y-7.803 E1.18849
G1 X-20.34 Y-8.196 E1.21288
G1 X-20.564 Y-8.631 E1.23729
G1 X-20.715 Y-9.097 E1.26173
G1 X-20.787 Y-9.581 E1.28615
G1 X-20.78 Y-10.07 E1.31055
G1 X-20.693 Y-10.552 E1.33498
G1 X-20.53 Y-11.013 E1.35938
G1 X-20.392 Y-11.282 E1.37446
G1 X-14.642 Y-21.24 E1.94814
G1 X-14.363 Y-21.643 E1.97259
G1 X-14.023 Y-21.995 E1.99701
G1 X-13.63 Y-22.286 E2.02141
G1 X-13.195 Y-22.51 E2.04582
G1 X-12.729 Y-22.661 E2.07026
G1 X-12.245 Y-22.733 E2.09467
G1 X-11.756 Y-22.726 E2.11907
G1 X-11.274 Y-22.639 E2.1435
G1 X-10.813 Y-22.476 E2.1679
G1 X-10.544 Y-22.338 E2.18298
G1 X3.94 Y-13.976 E3.01737
G1 X4.348 Y-13.785 E3.03985
G1 X4.879 Y-13.678 E3.06687
G1 X5.371 Y-13.71 E3.09147
G1 X5.887 Y-13.884 E3.11864
G1 X6.058 Y-13.974 E3.12828
G1 X20.545 Y-22.338 E3.96285
G1 X20.988 Y-22.547 E3.98728
G1 X21.458 Y-22.682 E4.01168
G1 X21.944 Y-22.738 E4.03609
G1 X22.433 Y-22.715 E4.06051
G1 X22.912 Y-22.612 E4.08495
G1 X23.367 Y-22.433 E4.10935
G1 X23.788 Y-22.182 E4.1338
G1 X24.162 Y-21.866 E4.15823
G1 X24.643 Y-21.24 E4.19761
G1 X30.392 Y-11.281 E4.77131
G1 X30.601 Y-10.838 E4.79575
G1 X30.736 Y-10.368 E4.82015
G1 X30.792 Y-9.881 E4.8446
G1 X30.769 Y-9.393 E4.86898
G1 X30.666 Y-8.914 E4.89342
G1 X30.487 Y-8.458 E4.91786
G1 X30.236 Y-8.038 E4.94227
G1 X29.92 Y-7.664 E4.9667
G1 X29.294 Y-7.183 E5.00609
G1 X14.764 Y1.207 E5.84316
G1 X14.334 Y1.537 E5.8702
G1 X14.029 Y1.932 E5.8951
G1 X13.819 Y2.432 E5.92216
G1 X13.75 Y2.989 E5.95016
G1 X13.749 Y19.74 E6.78587
G1 X13.709 Y20.228 E6.8103
G1 X13.59 Y20.703 E6.83473
G1 X13.396 Y21.152 E6.85913
G1 X13.131 Y21.564 E6.88357
G1 X12.803 Y21.927 E6.90798
G1 X12.42 Y22.232 E6.9324
G1 X11.992 Y22.47 E6.95684
G1 X11.532 Y22.636 E6.98123
G1 X10.749 Y22.74 E7.02064
G1 X-.75 Y22.74 E7.59433
G1 X-1.238 Y22.7 E7.61876
G1 X-1.713 Y22.581 E7.64319
G1 X-2.162 Y22.387 E7.66759
G1 X-2.574 Y22.122 E7.69203
G1 X-2.937 Y21.794 E7.71644
G1 X-3.242 Y21.411 E7.74086
G1 X-3.48 Y20.983 E7.7653
G1 X-3.646 Y20.523 E7.78969
G1 X-3.75 Y19.74 E7.8291
G1 X-3.75 Y2.987 E8.66491
G1 X-3.821 Y2.424 E8.69322
G1 X-4.018 Y1.951 E8.71878
G0 F3600 X-3.537 Y2.022
G1 F1800 X-3.846 Y1.488 E8.74956
G1 X-4.175 Y1.138 E8.77353
G1 X-4.573 Y0.854 E8.79792
G1 X-19.094 Y-7.53 E9.63446
G1 X-19.467 Y-7.792 E9.6572
G1 X-19.789 Y-8.115 E9.67995
G1 X-20.049 Y-8.488 E9.70264
G1 X-20.241 Y-8.902 E9.72541
G1 X-20.357 Y-9.343 E9.74816
G1 X-20.394 Y-9.797 E9.77088
G1 X-20.351 Y-10.25 E9.79358
G1 X-20.23 Y-10.69 E9.81635
G1 X-20.046 Y-11.082 E9.83795
G1 X-14.296 Y-21.04 E10.41164
G1 X-14.034 Y-21.413 E10.43438
G1 X-13.711 Y-21.735 E10.45713
G1 X-13.338 Y-21.995 E10.47981
G1 X-12.924 Y-22.187 E10.50258
G1 X-12.483 Y-22.303 E10.52533
G1 X-12.029 Y-22.34 E10.54806
G1 X-11.576 Y-22.297 E10.57076
G1 X-11.136 Y-22.176 E10.59353
G1 X-10.744 Y-21.992 E10.61513
G1 X3.766 Y-13.614 E11.45104
G1 X4.226 Y-13.404 E11.47627
G1 X4.663 Y-13.298 E11.4987
G1 X5.158 Y-13.28 E11.52342
G1 X5.623 Y-13.358 E11.54694
G1 X6.056 Y-13.52 E11.57
G1 X6.244 Y-13.621 E11.58065
G1 X20.745 Y-21.992 E12.416
G1 X21.158 Y-22.184 E12.43872
G1 X21.598 Y-22.301 E12.46144
G1 X22.052 Y-22.34 E12.48417
G1 X22.506 Y-22.299 E12.50691
G1 X22.946 Y-22.179 E12.52967
G1 X23.358 Y-21.984 E12.55241
G1 X23.729 Y-21.721 E12.57509
G1 X24.049 Y-21.396 E12.59785
G1 X24.297 Y-21.04 E12.6195
G1 X30.046 Y-11.081 E13.1932
G1 X30.238 Y-10.668 E13.21592
G1 X30.355 Y-10.228 E13.23863
G1 X30.394 Y-9.774 E13.26137
G1 X30.353 Y-9.32 E13.28411
G1 X30.233 Y-8.88 E13.30686
G1 X30.038 Y-8.468 E13.3296
G1 X29.775 Y-8.097 E13.35229
G1 X29.45 Y-7.777 E13.37505
G1 X29.094 Y-7.529 E13.39669
G1 X14.551 Y0.868 E14.2345
G1 X14.173 Y1.139 E14.25771
G1 X13.756 Y1.612 E14.28917
G1 X13.537 Y2.023 E14.3124
G1 X13.395 Y2.486 E14.33656
G1 X13.35 Y2.975 E14.36106
G1 X13.349 Y19.74 E15.19747
G1 X13.309 Y20.194 E15.22021
G1 X13.19 Y20.634 E15.24295
G1 X12.997 Y21.046 E15.26565
G1 X12.734 Y21.419 E15.28842
G1 X12.411 Y21.74 E15.31114
G1 X12.036 Y21.999 E15.33387
G1 X11.622 Y22.189 E15.3566
G1 X11.181 Y22.304 E15.37934
G1 X10.749 Y22.34 E15.40096
G1 X-.75 Y22.34 E15.97465
G1 X-1.204 Y22.3 E15.99739
G1 X-1.644 Y22.182 E16.02012
G1 X-2.056 Y21.988 E16.04284
G1 X-2.429 Y21.725 E16.0656
G1 X-2.75 Y21.402 E16.08832
G1 X-3.009 Y21.027 E16.11106
G1 X-3.199 Y20.613 E16.13379
G1 X-3.314 Y20.172 E16.15652
G1 X-3.35 Y19.74 E16.17815
G1 X-3.35 Y3.003 E17.01316
G1 X-3.395 Y2.492 E17.03876
G1 X-3.537 Y2.022 E17.06325
G0 F3600 X-3.425 Y1.389
G1 F1800 X-3.774 Y0.964 E17.09069
G1 X-4.198 Y0.617 E17.11802
G1 X-4.385 Y0.501 E17.129
G1 X-18.894 Y-7.877 E17.96487
G1 X-19.235 Y-8.12 E17.98576
G1 X-19.524 Y-8.423 E18.00665
G1 X-19.751 Y-8.776 E18.02759
G1 X-19.906 Y-9.165 E18.04848
G1 X-19.984 Y-9.577 E18.0694
G1 X-19.984 Y-9.996 E18.0903
G1 X-19.903 Y-10.407 E18.1112
G1 X-19.699 Y-10.882 E18.13699
G1 X-13.949 Y-20.84 E18.71068
G1 X-13.706 Y-21.181 E18.73157
G1 X-13.403 Y-21.47 E18.75246
G1 X-13.05 Y-21.697 E18.77339
G1 X-12.661 Y-21.852 E18.79429
G1 X-12.249 Y-21.93 E18.81521
G1 X-11.83 Y-21.93 E18.83611
G1 X-11.419 Y-21.849 E18.85701
G1 X-10.944 Y-21.645 E18.8828
G1 X3.569 Y-13.266 E19.71887
G1 X4.104 Y-13.022 E19.7482
G1 X4.614 Y-12.901 E19.77435
G1 X5.179 Y-12.881 E19.80256
G1 X5.725 Y-12.971 E19.83017
G1 X6.229 Y-13.159 E19.857
G1 X6.461 Y-13.283 E19.87013
G1 X20.945 Y-21.645 E20.70452
G1 X21.326 Y-21.819 E20.72541
G1 X21.734 Y-21.918 E20.74636
G1 X22.152 Y-21.937 E20.76723
G1 X22.567 Y-21.877 E20.78815
G1 X22.963 Y-21.739 E20.80908
G1 X23.325 Y-21.529 E20.82995
G1 X23.641 Y-21.254 E20.85085
G1 X23.95 Y-20.84 E20.87663
G1 X29.699 Y-10.881 E21.45033
G1 X29.873 Y-10.5 E21.47122
G1 X29.972 Y-10.092 E21.49217
G1 X29.991 Y-9.674 E21.51304
G1 X29.931 Y-9.259 E21.53396
G1 X29.793 Y-8.863 E21.55489
G1 X29.583 Y-8.501 E21.57577
G1 X29.308 Y-8.185 E21.59666
G1 X28.894 Y-7.876 E21.62244
G1 X14.371 Y0.51 E22.45911
G1 X13.912 Y0.836 E22.4872
G1 X13.529 Y1.244 E22.51512
G1 X13.241 Y1.707 E22.54232
G1 X13.046 Y2.221 E22.56975
G1 X12.957 Y2.791 E22.59853
G1 X12.95 Y2.992 E22.60856
G1 X12.949 Y19.74 E23.44412
G1 X12.909 Y20.157 E23.46502
G1 X12.791 Y20.559 E23.48593
G1 X12.598 Y20.932 E23.50688
G1 X12.339 Y21.261 E23.52777
G1 X12.022 Y21.534 E23.54864
G1 X11.658 Y21.743 E23.56958
G1 X11.262 Y21.879 E23.59047
G1 X10.749 Y21.94 E23.61624
G1 X-.75 Y21.94 E24.18993
G1 X-1.167 Y21.9 E24.21083
G1 X-1.569 Y21.782 E24.23173
G1 X-1.941 Y21.589 E24.25264
G1 X-2.27 Y21.33 E24.27353
G1 X-2.544 Y21.013 E24.29444
G1 X-2.753 Y20.65 E24.31533
G1 X-2.889 Y20.253 E24.33627
G1 X-2.95 Y19.74 E24.36204
G1 X-2.95 Y2.99 E25.1977
G1 X-3.002 Y2.418 E25.22636
G1 X-3.166 Y1.873 E25.25475
G1 X-3.425 Y1.389 E25.28214
G0 F3600 X-3.09 Y1.17
G1 F1800 X-3.491 Y0.682 E25.31365
G1 X-3.979 Y0.282 E25.34513
G1 X-4.174 Y0.161 E25.35658
G1 X-18.694 Y-8.223 E26.19308
G1 X-19 Y-8.446 E26.21197
G1 X-19.253 Y-8.728 E26.23087
G1 X-19.442 Y-9.057 E26.2498
G1 X-19.557 Y-9.418 E26.2687
G1 X-19.594 Y-9.795 E26.2876
G1 X-19.551 Y-10.172 E26.30653
G1 X-19.353 Y-10.682 E26.33382
G1 X-13.603 Y-20.64 E26.9075
G1 X-13.38 Y-20.946 E26.92639
G1 X-13.098 Y-21.199 E26.9453
G1 X-12.769 Y-21.388 E26.96422
G1 X-12.408 Y-21.503 E26.98313
G1 X-12.031 Y-21.54 E27.00203
G1 X-11.654 Y-21.497 E27.02096
G1 X-11.144 Y-21.299 E27.04825
G1 X3.383 Y-12.912 E27.88512
G1 X3.969 Y-12.645 E27.91725
G1 X4.581 Y-12.501 E27.94862
G1 X5.216 Y-12.481 E27.98031
G1 X5.838 Y-12.587 E28.01179
G1 X6.416 Y-12.805 E28.04261
G1 X6.628 Y-12.918 E28.0546
G1 X21.145 Y-21.299 E28.89088
G1 X21.491 Y-21.453 E28.90978
G1 X21.862 Y-21.531 E28.92869
G1 X22.241 Y-21.529 E28.9476
G1 X22.611 Y-21.449 E28.96649
G1 X22.957 Y-21.292 E28.98544
G1 X23.261 Y-21.067 E29.00431
G1 X23.604 Y-20.64 E29.03164
G1 X29.353 Y-10.681 E29.60534
G1 X29.507 Y-10.335 E29.62423
G1 X29.585 Y-9.964 E29.64315
G1 X29.583 Y-9.585 E29.66205
G1 X29.503 Y-9.215 E29.68094
G1 X29.346 Y-8.869 E29.6999
G1 X29.121 Y-8.565 E29.71876
G1 X28.694 Y-8.222 E29.74609
G1 X14.151 Y0.175 E30.5839
G1 X13.636 Y0.546 E30.61557
G1 X13.211 Y1 E30.64659
G1 X12.884 Y1.526 E30.67749
G1 X12.658 Y2.122 E30.70929
G1 X12.557 Y2.757 E30.74137
G1 X12.55 Y2.978 E30.7524
G1 X12.549 Y19.74 E31.58866
G1 X12.509 Y20.117 E31.60758
G1 X12.391 Y20.477 E31.62648
G1 X12.2 Y20.805 E31.64541
G1 X11.945 Y21.085 E31.66431
G1 X11.637 Y21.306 E31.68322
G1 X11.29 Y21.457 E31.7021
G1 X10.749 Y21.54 E31.72941
G1 X-.75 Y21.54 E32.30309
G1 X-1.127 Y21.5 E32.32201
G1 X-1.487 Y21.382 E32.34091
G1 X-1.814 Y21.192 E32.35978
G1 X-2.095 Y20.937 E32.37871
G1 X-2.315 Y20.628 E32.39763
G1 X-2.467 Y20.281 E32.41653
G1 X-2.55 Y19.74 E32.44384
G1 X-2.55 Y2.976 E33.2802
G1 X-2.608 Y2.345 E33.31181
G1 X-2.794 Y1.725 E33.34411
G1 X-3.09 Y1.17 E33.37549
G0 F3600 X-2.755 Y0.951
G1 F1800 X-3.207 Y0.399 E33.41108
G1 X-3.749 Y-0.045 E33.44604
G1 X-3.99 Y-.195 E33.4602
G1 X-18.494 Y-8.57 E34.29578
G1 X-18.761 Y-8.77 E34.31242
G1 X-18.974 Y-9.028 E34.32911
G1 X-19.119 Y-9.329 E34.34578
G1 X-19.188 Y-9.656 E34.36245
G1 X-19.179 Y-9.99 E34.37912
G1 X-19.006 Y-10.482 E34.40514
G1 X-13.256 Y-20.44 E34.97882
G1 X-13.056 Y-20.707 E34.99547
G1 X-12.798 Y-20.92 E35.01216
G1 X-12.497 Y-21.065 E35.02883
G1 X-12.17 Y-21.134 E35.0455
G1 X-11.836 Y-21.125 E35.06217
G1 X-11.344 Y-20.952 E35.08819
G1 X3.16 Y-12.578 E35.92374
G1 X3.626 Y-12.347 E35.94969
G1 X4.32 Y-12.137 E35.98586
G1 X5 Y-12.074 E36.01993
G1 X5.684 Y-12.14 E36.05422
G1 X6.375 Y-12.348 E36.09022
G1 X6.842 Y-12.579 E36.11621
G1 X21.345 Y-20.952 E36.9517
G1 X21.652 Y-21.084 E36.96837
G1 X21.982 Y-21.139 E36.98506
G1 X22.315 Y-21.114 E37.00172
G1 X22.633 Y-21.011 E37.0184
G1 X22.917 Y-20.835 E37.03507
G1 X23.257 Y-20.44 E37.06107
G1 X29.006 Y-10.481 E37.63477
G1 X29.138 Y-10.174 E37.65144
G1 X29.193 Y-9.844 E37.66813
G1 X29.168 Y-9.511 E37.68479
G1 X29.065 Y-9.193 E37.70147
G1 X28.889 Y-8.909 E37.71814
G1 X28.494 Y-8.569 E37.74414
G1 X13.962 Y-.178 E38.58132
G1 X13.375 Y0.243 E38.61736
G1 X12.895 Y0.755 E38.65238
G1 X12.521 Y1.358 E38.68778
G1 X12.271 Y2.022 E38.72318
G1 X12.158 Y2.742 E38.75954
G1 X12.15 Y2.965 E38.77067
G1 X12.149 Y19.74 E39.60758
G1 X12.109 Y20.072 E39.62426
G1 X11.992 Y20.385 E39.64093
G1 X11.804 Y20.661 E39.65759
G1 X11.556 Y20.884 E39.67423
G1 X11.262 Y21.043 E39.69091
G1 X10.749 Y21.14 E39.71695
G1 X-.75 Y21.14 E40.29064
G1 X-1.082 Y21.1 E40.30732
G1 X-1.394 Y20.983 E40.32395
G1 X-1.671 Y20.795 E40.34065
G1 X-1.894 Y20.547 E40.35729
G1 X-2.053 Y20.253 E40.37396
G1 X-2.15 Y19.74 E40.40001
G1 X-2.15 Y2.963 E41.23702
G1 X-2.218 Y2.257 E41.27241
G1 X-2.425 Y1.57 E41.3082
G1 X-2.755 Y0.951 E41.3432
G0 F3600 X-2.282 Y0.955
G1 F1800 X-2.579 Y0.51 E41.36989
G1 X-2.917 Y0.125 E41.39545
G1 X-3.307 Y-.22 E41.42143
G1 X-3.759 Y-.523 E41.44858
G1 X-18.294 Y-8.916 E42.28594
G1 X-18.516 Y-9.09 E42.30001
G1 X-18.681 Y-9.319 E42.3141
G1 X-18.774 Y-9.585 E42.32815
G1 X-18.79 Y-9.867 E42.34225
G1 X-18.66 Y-10.282 E42.36394
G1 X-12.91 Y-20.24 E42.93762
G1 X-12.736 Y-20.462 E42.9517
G1 X-12.507 Y-20.627 E42.96578
G1 X-12.241 Y-20.72 E42.97984
G1 X-11.959 Y-20.736 E42.99393
G1 X-11.544 Y-20.606 E43.01562
G1 X2.972 Y-12.225 E43.85187
G1 X3.466 Y-11.98 E43.87938
G1 X3.967 Y-11.81 E43.90578
G1 X4.48 Y-11.708 E43.93187
G1 X5 Y-11.673 E43.95787
G1 X5.516 Y-11.707 E43.98367
G1 X6.033 Y-11.81 E44.00997
G1 X6.527 Y-11.978 E44.036
G1 X7.028 Y-12.225 E44.06387
G1 X21.545 Y-20.606 E44.90016
G1 X21.807 Y-20.711 E44.91424
G1 X22.088 Y-20.739 E44.92833
G1 X22.365 Y-20.687 E44.94239
G1 X22.617 Y-20.56 E44.95647
G1 X22.911 Y-20.24 E44.97815
G1 X28.66 Y-10.281 E45.55185
G1 X28.765 Y-10.019 E45.56593
G1 X28.793 Y-9.738 E45.58002
G1 X28.741 Y-9.461 E45.59408
G1 X28.614 Y-9.209 E45.60816
G1 X28.294 Y-8.915 E45.62984
G1 X13.732 Y-.507 E46.46875
G1 X13.114 Y-0.061 E46.50677
G1 X12.747 Y0.307 E46.5327
G1 X12.418 Y0.734 E46.55959
G1 X12.164 Y1.177 E46.58507
G1 X11.961 Y1.665 E46.61144
G1 X11.822 Y2.189 E46.63848
G1 X11.758 Y2.726 E46.66546
G1 X11.75 Y2.946 E46.67645
G1 X11.749 Y19.74 E47.5143
G1 X11.709 Y20.019 E47.52836
G1 X11.593 Y20.276 E47.54243
G1 X11.41 Y20.491 E47.55652
G1 X11.174 Y20.645 E47.57058
G1 X10.749 Y20.74 E47.5923
G1 X-.75 Y20.74 E48.16599
G1 X-1.029 Y20.7 E48.18005
G1 X-1.286 Y20.584 E48.19412
G1 X-1.501 Y20.401 E48.20821
G1 X-1.655 Y20.165 E48.22226
G1 X-1.75 Y19.74 E48.24399
G1 X-1.75 Y2.946 E49.08185
G1 X-1.784 Y2.429 E49.1077
G1 X-1.887 Y1.909 E49.13414
G1 X-2.051 Y1.428 E49.1595
G1 X-2.282 Y0.955 E49.18576
G0 F3600 X-1.937 Y0.752
G1 F1800 X-2.262 Y0.266 E49.21493
G1 X-2.64 Y-.165 E49.24353
G1 X-3.062 Y-.536 E49.27156
G1 X-3.55 Y-.864 E49.3009
G1 X-18.094 Y-9.262 E50.13878
G1 X-18.26 Y-9.404 E50.14967
G1 X-18.364 Y-9.596 E50.16057
G1 X-18.393 Y-9.812 E50.17144
G1 X-18.314 Y-10.082 E50.18548
G1 X-12.564 Y-20.04 E50.75916
G1 X-12.422 Y-20.206 E50.77006
G1 X-12.23 Y-20.31 E50.78095
G1 X-12.014 Y-20.339 E50.79182
G1 X-11.744 Y-20.26 E50.80586
G1 X2.8 Y-11.863 E51.64371
G1 X3.321 Y-11.607 E51.67267
G1 X3.855 Y-11.426 E51.7008
G1 X4.43 Y-11.311 E51.73006
G1 X5 Y-11.274 E51.75856
G1 X5.574 Y-11.311 E51.78725
G1 X6.146 Y-11.426 E51.81636
G1 X6.673 Y-11.605 E51.84413
G1 X7.216 Y-11.872 E51.87432
G1 X21.745 Y-20.26 E52.7113
G1 X21.951 Y-20.333 E52.7222
G1 X22.169 Y-20.327 E52.73308
G1 X22.37 Y-20.244 E52.74393
G1 X22.565 Y-20.04 E52.75801
G1 X28.314 Y-10.081 E53.33171
G1 X28.387 Y-9.875 E53.34261
G1 X28.381 Y-9.657 E53.35349
G1 X28.298 Y-9.455 E53.36439
G1 X28.094 Y-9.261 E53.37844
G1 X13.522 Y-.847 E54.21792
G1 X13.308 Y-.714 E54.23049
G1 X12.845 Y-.357 E54.25966
G1 X12.445 Y0.044 E54.28792
G1 X12.087 Y0.509 E54.3172
G1 X11.806 Y0.997 E54.34529
G1 X11.582 Y1.538 E54.3745
G1 X11.43 Y2.104 E54.40374
G1 X11.36 Y2.672 E54.4323
G1 X11.35 Y2.966 E54.44697
G1 X11.349 Y19.74 E55.28383
G1 X11.309 Y19.955 E55.29474
G1 X11.196 Y20.141 E55.3056
G1 X11.023 Y20.274 E55.31648
G1 X10.749 Y20.34 E55.33055
G1 X-.75 Y20.34 E55.90423
G1 X-.965 Y20.3 E55.91514
G1 X-1.151 Y20.187 E55.926
G1 X-1.284 Y20.014 E55.93689
G1 X-1.35 Y19.74 E55.95095
G1 X-1.35 Y2.966 E56.78781
G1 X-1.388 Y2.371 E56.81755
G1 X-1.501 Y1.804 E56.8464
G1 X-1.688 Y1.259 E56.87514
G1 X-1.937 Y0.752 E56.90332
G0 F3600 X-1.591 Y0.551
G1 F1800 X-1.946 Y0.02 E56.93519
G1 X-2.352 Y-.443 E56.96591
G1 X-2.824 Y-.858 E56.99727
G1 X-3.356 Y-1.214 E57.0292
G1 X-17.894 Y-9.609 E57.86675
G1 X-17.977 Y-9.702 E57.87297
G1 X-17.967 Y-9.882 E57.88196
G1 X-12.217 Y-19.84 E58.45564
G1 X-12.124 Y-19.923 E58.46186
G1 X-11.944 Y-19.913 E58.47086
G1 X2.6 Y-11.516 E59.30871
G1 X3.161 Y-11.24 E59.3399
G1 X3.753 Y-11.039 E59.37109
G1 X4.378 Y-10.914 E59.40289
G1 X5 Y-10.873 E59.43399
