;FLAVOR:Marlin
;TIME:358
;Filament used: 0.571799m
;Layer height: 0.3
;MINX:-12.789
;MINY:-83.002
;MINZ:0.4
;MAXX:17.753
;MAXY:0
;MAXZ:14
;TARGET_MACHINE.NAME:Unknown
;Generated with Cura_SteamEngine 5.11.0
M140 S50
M105
M190 S50
M104 S220
M105
M109 S220
;FLAVOR:Marlin
M82 ;absolute extrusion mode
G21
G90
M82
M107 T0
G28
G92 E0
G0 E3 F200
G92 E0 ; reset extrusion distance
M106 S255 ; Enable cooling fan full speed
G1 X-98 Y0 Z0.4 F3000 ; move to arc start
G3 X0 Y-98 I98 Z0.4 E40 F400 ; lay arc stripe 90deg
G92 E0 ; reset extrusion distance
G4 P500 ; wait for 0.5 sec
G0 Z10 E-1 ; Lift 15mm and retract 1mm filament
G4 P2000 ; wait for 5 sec
G0 Z15
M107 ; Disable cooling fan
G1 X0 Y-85 Z4 E0 F3000 ; get off the bed
M82 ;absolute extrusion mode
G92 E0
G92 E0
G1 F1500 E-6.5
;LAYER_COUNT:46
;LAYER:0
M107
G1 F600 Z1.4
G0 F3600 X0.00 Y0.00 Z1.4
G0 X2.491 Y-52.483
;TYPE:SKIRT
G1 F600 Z0.4
G1 F1500 E0
G1 F1800 X0.529 Y-52.602 E0.22555
G1 X-.704 Y-52.819 E0.36921
G1 X-2.774 Y-53.405 E0.61607
G1 X-3.654 Y-53.764 E0.72513
G1 X-5.077 Y-54.488 E0.90833
G1 X-6.46 Y-55.369 E1.09649
G1 X-7.514 Y-56.208 E1.25107
G1 X-8.361 Y-56.999 E1.38406
G1 X-9.486 Y-58.273 E1.57908
G1 X-10.646 Y-59.964 E1.81439
G1 X-11.293 Y-61.169 E1.97133
G1 X-11.786 Y-62.332 E2.11627
G1 X-12.301 Y-63.943 E2.31035
G1 X-12.517 Y-64.908 E2.42382
G1 X-12.748 Y-66.691 E2.63012
G1 X-12.789 Y-67.715 E2.74772
G1 X-12.64 Y-69.805 E2.98815
G1 X-12.438 Y-70.954 E3.12202
G1 X-12.017 Y-72.529 E3.30909
G1 X-11.632 Y-73.557 E3.43505
G1 X-10.924 Y-75.054 E3.62507
G1 X-10.37 Y-75.991 E3.74998
G1 X-9.182 Y-77.587 E3.97828
G1 X-8.002 Y-78.848 E4.17645
G1 X-7.062 Y-79.658 E4.31883
G1 X-5.57 Y-80.709 E4.52825
G1 X-4.21 Y-81.466 E4.70685
G1 X-3.212 Y-81.912 E4.83228
G1 X-2.17 Y-82.289 E4.95944
G1 X-1.054 Y-82.603 E5.09247
G1 X1.115 Y-82.955 E5.34461
G1 X1.911 Y-83.002 E5.43611
G1 X3.804 Y-82.951 E5.6534
G1 X6.075 Y-82.586 E5.91734
G1 X7.326 Y-82.226 E6.06671
G1 X8.378 Y-81.827 E6.19582
G1 X9.58 Y-81.257 E6.34847
G1 X11.078 Y-80.37 E6.54823
G1 X11.943 Y-79.728 E6.67184
G1 X13.443 Y-78.379 E6.90333
G1 X14.363 Y-77.337 E7.06283
G1 X14.932 Y-76.589 E7.17067
G1 X15.377 Y-75.924 E7.26249
G1 X16.183 Y-74.476 E7.45265
G1 X16.699 Y-73.318 E7.59812
G1 X17.016 Y-72.424 E7.70696
G1 X17.394 Y-71.008 E7.87514
G1 X17.641 Y-69.554 E8.04437
G1 X17.737 Y-68.415 E8.17553
G1 X17.753 Y-67.408 E8.2911
G1 X17.733 Y-66.893 E8.35024
G1 X17.552 Y-65.304 E8.53375
G1 X17.334 Y-64.209 E8.66186
G1 X17.037 Y-63.129 E8.79039
G1 X16.687 Y-62.149 E8.9098
G1 X16.221 Y-61.091 E9.04246
G1 X15.654 Y-60.027 E9.1808
G1 X15.074 Y-59.113 E9.30502
G1 X14.217 Y-57.973 E9.46867
G1 X13.275 Y-56.943 E9.62883
G1 X12.494 Y-56.211 E9.75166
G1 X11.782 Y-55.632 E9.85696
G1 X10.665 Y-54.858 E10.0129
G1 X9.525 Y-54.198 E10.16406
G1 X8.912 Y-53.897 E10.24242
G1 X7.313 Y-53.259 E10.43996
G1 X6.793 Y-53.096 E10.5025
G1 X4.615 Y-52.625 E10.75819
G1 X3.85 Y-52.538 E10.84654
G1 X2.491 Y-52.483 E11.00261
G0 F3600 X2.467 Y-53.083
G1 F1800 X0.633 Y-53.193 E11.21344
G1 X-.6 Y-53.41 E11.35709
G1 X-2.547 Y-53.961 E11.58928
G1 X-3.427 Y-54.32 E11.69834
G1 X-4.756 Y-54.995 E11.86938
G1 X-6.087 Y-55.839 E12.05023
G1 X-7.104 Y-56.647 E12.19927
G1 X-7.951 Y-57.438 E12.33226
G1 X-8.992 Y-58.613 E12.51239
G1 X-10.117 Y-60.248 E12.74012
G1 X-10.764 Y-61.453 E12.89706
G1 X-11.215 Y-62.515 E13.02946
G1 X-11.715 Y-64.074 E13.21732
G1 X-11.931 Y-65.039 E13.3308
G1 X-12.148 Y-66.715 E13.52472
G1 X-12.189 Y-67.739 E13.64231
G1 X-12.049 Y-69.702 E13.86813
G1 X-11.858 Y-70.799 E13.99591
G1 X-11.437 Y-72.374 E14.18298
G1 X-11.071 Y-73.345 E14.30205
G1 X-10.407 Y-74.75 E14.48037
G1 X-9.888 Y-75.634 E14.598
G1 X-8.743 Y-77.178 E14.81857
G1 X-7.61 Y-78.394 E15.00928
G1 X-6.716 Y-79.167 E15.14489
G1 X-5.224 Y-80.218 E15.35431
G1 X-3.965 Y-80.918 E15.5196
G1 X-2.967 Y-81.364 E15.64504
G1 X-2.007 Y-81.711 E15.76217
G1 X-.891 Y-82.025 E15.8952
G1 X1.152 Y-82.356 E16.13269
G1 X1.895 Y-82.402 E16.21811
G1 X3.788 Y-82.351 E16.4354
G1 X5.909 Y-82.009 E16.68193
G1 X7.16 Y-81.649 E16.8313
G1 X8.122 Y-81.284 E16.94937
G1 X9.275 Y-80.74 E17.09566
G1 X10.72 Y-79.888 E17.28814
G1 X11.585 Y-79.246 E17.41175
G1 X12.994 Y-77.981 E17.62903
G1 X13.886 Y-76.973 E17.78348
G1 X14.433 Y-76.255 E17.88705
G1 X14.878 Y-75.59 E17.97887
G1 X15.658 Y-74.185 E18.16327
G1 X16.133 Y-73.117 E18.29739
G1 X16.45 Y-72.223 E18.40624
G1 X16.802 Y-70.908 E18.56244
G1 X17.049 Y-69.454 E18.73167
G1 X17.137 Y-68.405 E18.85247
G1 X17.153 Y-67.431 E18.96425
G1 X17.133 Y-66.916 E19.02339
G1 X16.956 Y-65.372 E19.20172
G1 X16.755 Y-64.368 E19.31921
G1 X16.458 Y-63.288 E19.44774
G1 X16.138 Y-62.391 E19.55702
G1 X15.672 Y-61.333 E19.68968
G1 X15.147 Y-60.348 E19.81775
G1 X14.567 Y-59.434 E19.94197
G1 X13.738 Y-58.334 E20.10002
G1 X12.864 Y-57.38 E20.24848
G1 X12.115 Y-56.677 E20.36636
G1 X11.403 Y-56.098 E20.47166
G1 X10.324 Y-55.352 E20.62218
G1 X9.261 Y-54.737 E20.7631
G1 X8.648 Y-54.436 E20.84147
G1 X7.134 Y-53.832 E21.02851
G1 X6.614 Y-53.669 E21.09104
G1 X4.546 Y-53.221 E21.33384
G1 X3.826 Y-53.138 E21.41701
G1 X2.467 Y-53.083 E21.57308
G0 F3600 X2.443 Y-53.683
G1 F1800 X0.737 Y-53.784 E21.76918
G1 X-.496 Y-54.001 E21.91284
G1 X-2.32 Y-54.517 E22.13035
G1 X-3.2 Y-54.876 E22.23941
G1 X-4.436 Y-55.502 E22.39839
G1 X-5.714 Y-56.309 E22.57183
G1 X-6.694 Y-57.086 E22.71534
G1 X-7.541 Y-57.877 E22.84832
G1 X-8.542 Y-59.01 E23.0218
G1 X-9.588 Y-60.532 E23.23371
G1 X-10.235 Y-61.737 E23.39065
G1 X-10.644 Y-62.699 E23.5106
G1 X-11.129 Y-64.205 E23.69215
G1 X-11.345 Y-65.17 E23.80563
G1 X-11.548 Y-66.739 E23.98716
G1 X-11.589 Y-67.763 E24.10476
G1 X-11.458 Y-69.6 E24.31609
G1 X-11.278 Y-70.644 E24.43765
G1 X-10.857 Y-72.219 E24.62472
G1 X-10.51 Y-73.132 E24.7368
G1 X-9.888 Y-74.448 E24.90382
G1 X-9.405 Y-75.278 E25.01402
G1 X-8.303 Y-76.77 E25.22686
G1 X-7.216 Y-77.941 E25.41019
G1 X-6.37 Y-78.676 E25.53879
G1 X-4.878 Y-79.727 E25.74821
G1 X-3.719 Y-80.371 E25.90035
G1 X-2.763 Y-80.8 E26.02059
G1 X-1.844 Y-81.133 E26.13275
G1 X-.728 Y-81.447 E26.26578
G1 X1.191 Y-81.757 E26.48883
G1 X1.88 Y-81.802 E26.56806
G1 X3.694 Y-81.758 E26.77628
G1 X5.743 Y-81.432 E27.01435
G1 X6.994 Y-81.072 E27.16373
G1 X7.867 Y-80.741 E27.27086
G1 X8.971 Y-80.222 E27.41084
G1 X10.362 Y-79.406 E27.59589
G1 X11.227 Y-78.764 E27.7195
G1 X12.545 Y-77.583 E27.92257
G1 X13.409 Y-76.609 E28.07197
G1 X13.934 Y-75.921 E28.17128
G1 X14.379 Y-75.256 E28.26309
G1 X15.11 Y-73.94 E28.43583
G1 X15.567 Y-72.916 E28.5645
G1 X15.884 Y-72.022 E28.67335
G1 X16.211 Y-70.807 E28.81773
G1 X16.451 Y-69.403 E28.98117
G1 X16.537 Y-68.395 E29.09725
G1 X16.553 Y-67.454 E29.20525
G1 X16.533 Y-66.939 E29.26439
G1 X16.367 Y-65.489 E29.43186
G1 X16.176 Y-64.527 E29.5444
G1 X15.879 Y-63.447 E29.67293
G1 X15.589 Y-62.632 E29.77219
G1 X15.142 Y-61.614 E29.89977
G1 X14.64 Y-60.669 E30.02255
G1 X14.06 Y-59.755 E30.14677
G1 X13.295 Y-58.739 E30.2927
G1 X12.453 Y-57.817 E30.43598
G1 X11.736 Y-57.143 E30.5489
G1 X11.024 Y-56.564 E30.6542
G1 X10.023 Y-55.871 E30.7939
G1 X8.997 Y-55.276 E30.93
G1 X8.384 Y-54.975 E31.00836
G1 X6.955 Y-54.405 E31.1849
G1 X6.435 Y-54.242 E31.24743
G1 X4.476 Y-53.817 E31.47745
G1 X3.802 Y-53.738 E31.55532
G1 X2.443 Y-53.683 E31.71139
G0 F3600 X2.419 Y-54.283
G1 F1800 X0.841 Y-54.375 E31.89277
G1 X-.392 Y-54.592 E32.03643
G1 X-2.093 Y-55.073 E32.23927
G1 X-2.973 Y-55.432 E32.34832
G1 X-4.164 Y-56.037 E32.50161
G1 X-5.342 Y-56.78 E32.66142
G1 X-6.284 Y-57.525 E32.79923
G1 X-7.131 Y-58.316 E32.93222
G1 X-8.048 Y-59.351 E33.09089
G1 X-9.059 Y-60.816 E33.29514
G1 X-9.706 Y-62.021 E33.45208
G1 X-10.073 Y-62.884 E33.55969
G1 X-10.543 Y-64.336 E33.73481
G1 X-10.759 Y-65.301 E33.84828
G1 X-10.948 Y-66.763 E34.01744
G1 X-10.989 Y-67.787 E34.13504
G1 X-10.867 Y-69.499 E34.33198
G1 X-10.698 Y-70.49 E34.44734
G1 X-10.296 Y-72.006 E34.62731
G1 X-9.949 Y-72.919 E34.73938
G1 X-9.369 Y-74.146 E34.89512
G1 X-8.886 Y-74.976 E35.00531
G1 X-7.862 Y-76.363 E35.20314
G1 X-6.822 Y-77.488 E35.37894
G1 X-5.976 Y-78.223 E35.50754
G1 X-4.586 Y-79.203 E35.70269
G1 X-3.472 Y-79.824 E35.84904
G1 X-2.558 Y-80.236 E35.96408
G1 X-1.681 Y-80.555 E36.07117
G1 X-.565 Y-80.869 E36.2042
G1 X1.233 Y-81.158 E36.41316
G1 X1.867 Y-81.202 E36.48608
G1 X3.601 Y-81.165 E36.6851
G1 X5.577 Y-80.855 E36.91462
G1 X6.828 Y-80.495 E37.06399
G1 X7.613 Y-80.198 E37.1603
G1 X8.668 Y-79.704 E37.29397
G1 X10.004 Y-78.924 E37.47149
G1 X10.869 Y-78.282 E37.5951
G1 X12.097 Y-77.184 E37.78412
G1 X12.932 Y-76.245 E37.92831
G1 X13.435 Y-75.587 E38.02335
G1 X13.88 Y-74.922 E38.11516
G1 X14.585 Y-73.649 E38.28214
G1 X15.001 Y-72.715 E38.39946
G1 X15.318 Y-71.821 E38.50831
G1 X15.631 Y-70.652 E38.64717
G1 X15.853 Y-69.351 E38.79861
G1 X15.937 Y-68.384 E38.90999
G1 X15.953 Y-67.477 E39.01409
G1 X15.933 Y-66.962 E39.07323
G1 X15.771 Y-65.558 E39.2354
G1 X15.597 Y-64.686 E39.33743
G1 X15.3 Y-63.606 E39.46596
G1 X15.039 Y-62.872 E39.55535
G1 X14.612 Y-61.895 E39.6777
G1 X14.133 Y-60.99 E39.79519
G1 X13.58 Y-60.115 E39.91397
G1 X12.851 Y-59.143 E40.05339
G1 X12.041 Y-58.254 E40.19139
G1 X11.357 Y-57.609 E40.29927
G1 X10.645 Y-57.03 E40.40458
G1 X9.682 Y-56.365 E40.53886
G1 X8.733 Y-55.815 E40.66473
G1 X8.12 Y-55.514 E40.74309
G1 X6.776 Y-54.978 E40.90912
G1 X6.256 Y-54.815 E40.97165
G1 X4.405 Y-54.413 E41.189
G1 X3.778 Y-54.338 E41.26146
G1 X2.419 Y-54.283 E41.41753
G0 F3600 X2.395 Y-54.883
G1 F1800 X0.945 Y-54.966 E41.58419
G1 X-.288 Y-55.183 E41.72784
G1 X-1.866 Y-55.629 E41.91601
G1 X-2.746 Y-55.988 E42.02507
G1 X-3.845 Y-56.545 E42.16645
G1 X-4.97 Y-57.251 E42.31885
G1 X-5.874 Y-57.964 E42.45096
G1 X-6.721 Y-58.755 E42.58395
G1 X-7.555 Y-59.693 E42.72797
G1 X-8.531 Y-61.101 E42.92456
G1 X-9.154 Y-62.257 E43.07524
G1 X-9.502 Y-63.07 E43.17672
G1 X-9.957 Y-64.467 E43.34531
G1 X-10.173 Y-65.432 E43.45878
G1 X-10.348 Y-66.787 E43.61556
G1 X-10.389 Y-67.811 E43.73315
G1 X-10.275 Y-69.4 E43.91595
G1 X-10.118 Y-70.337 E44.02497
G1 X-9.735 Y-71.793 E44.19773
G1 X-9.388 Y-72.706 E44.3098
G1 X-8.85 Y-73.844 E44.45424
G1 X-8.367 Y-74.674 E44.56443
G1 X-7.42 Y-75.957 E44.74742
G1 X-6.428 Y-77.035 E44.91552
G1 X-5.582 Y-77.77 E45.04411
G1 X-4.293 Y-78.679 E45.2251
G1 X-3.224 Y-79.277 E45.36566
G1 X-2.352 Y-79.672 E45.4755
G1 X-1.518 Y-79.977 E45.5774
G1 X-.402 Y-80.291 E45.71043
G1 X1.275 Y-80.559 E45.90531
G1 X1.909 Y-80.603 E45.97823
G1 X3.509 Y-80.572 E46.16186
G1 X5.412 Y-80.278 E46.38282
G1 X6.617 Y-79.933 E46.52664
G1 X7.36 Y-79.654 E46.61771
G1 X8.367 Y-79.185 E46.74518
G1 X9.646 Y-78.442 E46.91491
G1 X10.511 Y-77.8 E47.03852
G1 X11.649 Y-76.785 E47.21349
G1 X12.456 Y-75.88 E47.35263
G1 X12.936 Y-75.253 E47.44324
G1 X13.381 Y-74.588 E47.53505
G1 X14.06 Y-73.359 E47.69617
G1 X14.435 Y-72.514 E47.80225
G1 X14.752 Y-71.62 E47.91109
G1 X15.04 Y-70.55 E48.03824
G1 X15.255 Y-69.298 E48.18401
G1 X15.337 Y-68.373 E48.29057
G1 X15.353 Y-67.5 E48.39076
G1 X15.333 Y-66.985 E48.4499
G1 X15.175 Y-65.627 E48.60678
G1 X15.018 Y-64.844 E48.69841
G1 X14.734 Y-63.806 E48.8219
G1 X14.489 Y-63.112 E48.90635
G1 X14.081 Y-62.175 E49.02362
G1 X13.625 Y-61.31 E49.13582
G1 X13.099 Y-60.474 E49.24916
G1 X12.407 Y-59.547 E49.3819
G1 X11.597 Y-58.658 E49.5199
G1 X10.978 Y-58.075 E49.61748
G1 X10.266 Y-57.496 E49.72278
G1 X9.381 Y-56.884 E49.84625
G1 X8.469 Y-56.354 E49.96729
G1 X7.856 Y-56.053 E50.04565
G1 X6.597 Y-55.551 E50.20118
G1 X6.077 Y-55.388 E50.26371
G1 X4.332 Y-55.009 E50.46861
G1 X3.754 Y-54.938 E50.53543
G1 X2.395 Y-54.883 E50.6915
G0 F3600 X2.428 Y-55.482
G1 F1800 X1.049 Y-55.557 E50.84997
G1 X-.184 Y-55.774 E50.99363
G1 X-1.639 Y-56.185 E51.16712
G1 X-2.519 Y-56.544 E51.27618
G1 X-3.527 Y-57.054 E51.40581
G1 X-4.598 Y-57.722 E51.55065
G1 X-5.502 Y-58.435 E51.68276
G1 X-6.273 Y-59.154 E51.80373
G1 X-7.107 Y-60.092 E51.94776
G1 X-8.003 Y-61.387 E52.12845
G1 X-8.602 Y-62.493 E52.27278
G1 X-8.95 Y-63.306 E52.37426
G1 X-9.371 Y-64.598 E52.53019
G1 X-9.587 Y-65.563 E52.64366
G1 X-9.748 Y-66.811 E52.78805
G1 X-9.789 Y-67.835 E52.90564
G1 X-9.683 Y-69.301 E53.0743
G1 X-9.526 Y-70.238 E53.18332
G1 X-9.174 Y-71.58 E53.34252
G1 X-8.827 Y-72.493 E53.4546
G1 X-8.33 Y-73.544 E53.588
G1 X-7.884 Y-74.318 E53.6905
G1 X-6.937 Y-75.601 E53.87349
G1 X-6.034 Y-76.582 E54.02648
G1 X-5.188 Y-77.317 E54.15508
G1 X-3.999 Y-78.156 E54.32206
G1 X-2.976 Y-78.73 E54.45666
G1 X-2.104 Y-79.125 E54.56651
G1 X-1.355 Y-79.399 E54.65803
G1 X-.239 Y-79.713 E54.79106
G1 X1.317 Y-79.96 E54.97184
G1 X1.951 Y-80.004 E55.04476
G1 X3.417 Y-79.979 E55.21301
G1 X5.32 Y-79.685 E55.43396
G1 X6.407 Y-79.371 E55.56379
G1 X7.108 Y-79.109 E55.64967
G1 X8.066 Y-78.666 E55.77078
G1 X9.345 Y-77.923 E55.94051
G1 X10.113 Y-77.351 E56.05039
G1 X11.202 Y-76.385 E56.21743
G1 X11.98 Y-75.515 E56.35135
G1 X12.437 Y-74.919 E56.43753
G1 X12.882 Y-74.254 E56.52935
G1 X13.512 Y-73.115 E56.67871
G1 X13.869 Y-72.313 E56.77944
G1 X14.186 Y-71.419 E56.88828
G1 X14.46 Y-70.395 E57.00992
G1 X14.657 Y-69.244 E57.14391
G1 X14.737 Y-68.362 E57.24554
G1 X14.753 Y-67.523 E57.34183
G1 X14.733 Y-67.008 E57.40097
G1 X14.586 Y-65.744 E57.54698
G1 X14.439 Y-65.002 E57.63378
G1 X14.168 Y-64.006 E57.75222
G1 X13.923 Y-63.312 E57.83668
G1 X13.55 Y-62.454 E57.94403
G1 X13.117 Y-61.629 E58.05094
G1 X12.617 Y-60.832 E58.1589
G1 X11.963 Y-59.951 E58.28481
G1 X11.153 Y-59.062 E58.42281
G1 X10.599 Y-58.541 E58.51008
G1 X9.887 Y-57.962 E58.61538
G1 X9.04 Y-57.378 E58.73343
G1 X8.205 Y-56.893 E58.84424
G1 X7.592 Y-56.592 E58.9226
G1 X6.418 Y-56.124 E59.06762
G1 X5.898 Y-55.961 E59.13016
G1 X4.259 Y-55.605 E59.32261
G1 X3.681 Y-55.534 E59.38943
G1 X2.428 Y-55.482 E59.53334
G0 F3600 X2.459 Y-56.081
G1 F1800 X1.152 Y-56.148 E59.68351
G1 X-0.022 Y-56.352 E59.82024
G1 X-1.412 Y-56.741 E59.98587
G1 X-2.292 Y-57.1 E60.09493
G1 X-3.211 Y-57.564 E60.21306
G1 X-4.226 Y-58.193 E60.35008
G1 X-5.13 Y-58.906 E60.48219
G1 X-5.826 Y-59.554 E60.59131
G1 X-6.614 Y-60.435 E60.72694
G1 X-7.475 Y-61.673 E60.89998
G1 X-8.074 Y-62.779 E61.0443
G1 X-8.398 Y-63.541 E61.13932
G1 X-8.785 Y-64.729 E61.28269
G1 X-9.001 Y-65.694 E61.39616
G1 X-9.148 Y-66.835 E61.52817
G1 X-9.189 Y-67.859 E61.64576
G1 X-9.091 Y-69.203 E61.80039
G1 X-8.945 Y-70.087 E61.90321
G1 X-8.613 Y-71.367 E62.05494
G1 X-8.266 Y-72.28 E62.16702
G1 X-7.81 Y-73.244 E62.28939
G1 X-7.364 Y-74.018 E62.39189
G1 X-6.455 Y-75.244 E62.56702
G1 X-5.64 Y-76.129 E62.70507
G1 X-4.794 Y-76.864 E62.83367
G1 X-3.704 Y-77.633 E62.98674
G1 X-2.728 Y-78.183 E63.11529
G1 X-1.856 Y-78.578 E63.22514
G1 X-1.192 Y-78.821 E63.30627
G1 X-0.076 Y-79.135 E63.4393
G1 X1.359 Y-79.361 E63.60599
G1 X1.993 Y-79.405 E63.67892
G1 X3.327 Y-79.386 E63.83201
G1 X5.154 Y-79.108 E64.04406
G1 X6.198 Y-78.808 E64.16871
G1 X6.856 Y-78.564 E64.24924
G1 X7.814 Y-78.121 E64.37035
G1 X8.988 Y-77.441 E64.52603
G1 X9.716 Y-76.901 E64.63004
G1 X10.755 Y-75.984 E64.78905
G1 X11.504 Y-75.149 E64.91777
G1 X11.938 Y-74.585 E64.99943
G1 X12.383 Y-73.92 E65.09124
G1 X12.987 Y-72.825 E65.23474
G1 X13.304 Y-72.111 E65.32438
G1 X13.606 Y-71.264 E65.42756
G1 X13.88 Y-70.24 E65.5492
G1 X14.06 Y-69.189 E65.67155
G1 X14.137 Y-68.35 E65.76823
G1 X14.153 Y-67.546 E65.86051
G1 X14.133 Y-67.031 E65.91965
G1 X13.997 Y-65.859 E66.05503
G1 X13.86 Y-65.159 E66.13688
G1 X13.602 Y-64.206 E66.25017
G1 X13.357 Y-63.512 E66.33462
G1 X13.018 Y-62.732 E66.43221
G1 X12.608 Y-61.947 E66.53384
G1 X12.134 Y-61.188 E66.63652
G1 X11.519 Y-60.355 E66.75533
G1 X10.709 Y-59.466 E66.89333
G1 X10.22 Y-59.007 E66.97029
G1 X9.508 Y-58.428 E67.0756
G1 X8.7 Y-57.873 E67.18808
G1 X7.941 Y-57.432 E67.28881
G1 X7.328 Y-57.131 E67.36717
G1 X6.239 Y-56.697 E67.50169
G1 X5.719 Y-56.534 E67.56422
