;FLAVOR:Marlin
;TIME:7203
;Filament used: 9.2046m
;Layer height: 0.24
;MINX:-40.123
;MINY:-40.151
;MINZ:0.3
;MAXX:39.715
;MAXY:40.892
;MAXZ:32.94
;Generated with Cura_SteamEngine 4.13.1
M140 S50
M105
M190 S50
M104 S210
M105
M109 S210
M82 ;absolute extrusion mode
;FLAVOR:Marlin
M82 ;absolute extrusion mode
G21
G90
M82
M107 T0
G28
G92 E0
G0 E3 F200
G92 E0 ; reset extrusion distance
M106 S255 ; Enable cooling fan full speed
G1 X-98 Y0 Z0.4 F3000 ; move to arc start
G3 X0 Y-98 I98 Z0.4 E40 F400 ; lay arc stripe 90deg
G92 E0 ; reset extrusion distance
G4 P500 ; wait for 0.5 sec
G0 Z10 E-1 ; Lift 15mm and retract 1mm filament
G4 P2000 ; wait for 5 sec
G0 Z15
M107 ; Disable cooling fan
G1 X0 Y-85 Z4 E0 F3000 ; get off the bed
G92 E0
G92 E0
G1 F1500 E-6.5
;LAYER_COUNT:138
;LAYER:0
M106 S25.5
G1 F600 Z1.3
G0 F3600 X1.626 Y-6.179 Z1.3
;TYPE:SKIRT
G1 F600 Z0.3
G1 F1500 E0.3326
G1 F1800 X17.454 Y9.652 E1.44946
G1 X18.184 Y9.002 E1.49822
G1 X18.575 Y8.707 E1.52266
G1 X19.009 Y8.48 E1.54709
G1 X19.647 Y8.298 E1.58019
G1 X-18.353 Y-29.702 E4.2613
G1 X-17.759 Y-28.596 E4.32393
G1 X-17.564 Y-28.147 E4.34835
G1 X-17.44 Y-27.645 E4.37415
G1 X-17.022 Y-24.996 E4.50795
G1 X-2.746 Y-10.74 E5.51449
G1 X-2.429 Y-10.367 E5.53891
G1 X-2.148 Y-9.886 E5.5667
G1 X-1.113 Y-7.67 E5.68872
G1 X0.789 Y-6.769 E5.79372
G1 X1.213 Y-6.524 E5.81816
G1 X1.626 Y-6.179 E5.845
G0 F3600 X1.343 Y-5.896
G1 F1800 X17.439 Y10.203 E6.98077
G1 X18.451 Y9.3 E7.04844
G1 X18.816 Y9.028 E7.07115
G1 X19.223 Y8.824 E7.09386
G1 X19.66 Y8.694 E7.1166
G1 X20.113 Y8.642 E7.13935
G1 X20.591 Y8.676 E7.16326
G1 X-18.9 Y-30.816 E9.9496
G1 X-18.987 Y-30.421 E9.96978
G1 X-18.916 Y-29.906 E9.99572
G1 X-18.112 Y-28.407 E10.08058
G1 X-17.932 Y-27.988 E10.10333
G1 X-17.835 Y-27.583 E10.12411
G1 X-17.397 Y-24.805 E10.26441
G1 X-3.029 Y-10.457 E11.27745
G1 X-2.736 Y-10.108 E11.30018
G1 X-2.51 Y-9.717 E11.32271
G1 X-1.414 Y-7.371 E11.4519
G1 X0.618 Y-6.408 E11.56408
G1 X1.011 Y-6.177 E11.58683
G1 X1.343 Y-5.896 E11.60853
G0 F3600 X1.061 Y-5.614
G1 F1800 X17.424 Y10.752 E12.76313
G1 X18.717 Y9.599 E12.84956
G1 X19.055 Y9.351 E12.87048
G1 X19.434 Y9.172 E12.89139
G1 X19.839 Y9.068 E12.91225
G1 X20.258 Y9.042 E12.93319
G1 X20.673 Y9.097 E12.95408
G1 X21.404 Y9.381 E12.9932
G1 X22.29 Y9.811 E13.04234
G1 X-19.377 Y-31.857 E15.98221
G1 X-19.276 Y-31.399 E16.0056
G1 X-19.274 Y-30.98 E16.02651
G1 X-19.397 Y-30.462 E16.05307
G1 X-19.302 Y-29.781 E16.08737
G1 X-18.464 Y-28.218 E16.17585
G1 X-18.302 Y-27.831 E16.19678
G1 X-18.23 Y-27.521 E16.21266
G1 X-17.772 Y-24.614 E16.35948
G1 X-3.311 Y-10.174 E17.37904
G1 X-3.044 Y-9.851 E17.39995
G1 X-2.873 Y-9.548 E17.41731
G1 X-1.716 Y-7.071 E17.5537
G1 X0.447 Y-6.046 E17.67312
G1 X0.807 Y-5.831 E17.69404
G1 X1.061 Y-5.614 E17.7107
G0 F3600 X0.778 Y-5.331
G1 F1800 X11.029 Y4.92 E18.43397
G1 X17.407 Y11.302 E18.88411
G1 X18.983 Y9.897 E18.98945
G1 X19.291 Y9.676 E19.00836
G1 X19.638 Y9.525 E19.02724
G1 X20.01 Y9.449 E19.04618
G1 X20.388 Y9.453 E19.06504
G1 X20.927 Y9.603 E19.09295
G1 X21.281 Y9.764 E19.11236
G1 X23.893 Y11.035 E19.25728
G1 X24.35 Y11.354 E19.28508
G1 X24.666 Y11.712 E19.30891
G1 X24.844 Y12.046 E19.32779
G1 X24.949 Y12.41 E19.34669
G1 X24.975 Y12.788 E19.36559
G1 X24.921 Y13.163 E19.38449
G1 X24.79 Y13.519 E19.40342
G1 X24.448 Y13.996 E19.4327
G1 X22.218 Y16.222 E19.5899
G1 X24.986 Y18.982 E19.78491
G1 X25.489 Y19.235 E19.81301
G1 X26.735 Y19.363 E19.8755
G1 X27.105 Y19.442 E19.89437
G1 X27.337 Y19.535 E19.90684
G1 X28.156 Y19.933 E19.95227
G1 X29.497 Y18.807 E20.03963
G1 X29.812 Y18.595 E20.05857
G1 X30.163 Y18.453 E20.07746
G1 X30.537 Y18.389 E20.09639
G1 X30.915 Y18.404 E20.11527
G1 X31.292 Y18.503 E20.13471
G1 X31.536 Y18.491 E20.1469
G1 X-19.616 Y-32.662 E23.75599
G1 X-19.916 Y-33.06 E23.78085
G1 X-20.092 Y-33.46 E23.80265
G1 X-20.154 Y-33.304 E23.81103
G1 X-20.419 Y-32.752 E23.84158
G1 X-20.058 Y-32.299 E23.87048
G1 X-19.854 Y-31.98 E23.88937
G1 X-19.722 Y-31.625 E23.90826
G1 X-19.667 Y-31.25 E23.92717
G1 X-19.691 Y-30.872 E23.94607
G1 X-19.804 Y-30.487 E23.96609
G1 X-19.688 Y-29.653 E24.0081
G1 X-18.817 Y-28.029 E24.10003
G1 X-18.625 Y-27.458 E24.13009
G1 X-18.146 Y-24.423 E24.28338
G1 X-3.594 Y-9.891 E25.3094
G1 X-3.356 Y-9.596 E25.32831
G1 X-3.235 Y-9.379 E25.3407
G1 X-2.017 Y-6.772 E25.48426
G1 X0.276 Y-5.685 E25.61086
G1 X0.778 Y-5.331 E25.64151
G0 F3600 X0.495 Y-5.048
G1 F1800 X17.392 Y11.852 E26.83379
G1 X19.249 Y10.196 E26.95792
G1 X19.523 Y10.005 E26.97459
G1 X19.835 Y9.884 E26.99128
G1 X20.166 Y9.841 E27.00793
G1 X20.498 Y9.877 E27.02459
G1 X21.073 Y10.109 E27.05553
G1 X23.718 Y11.395 E27.20226
G1 X24.144 Y11.711 E27.22872
G1 X24.356 Y11.969 E27.24538
G1 X24.501 Y12.27 E27.26205
G1 X24.57 Y12.597 E27.27872
G1 X24.56 Y12.931 E27.29539
G1 X24.471 Y13.253 E27.31206
G1 X24.309 Y13.545 E27.32872
G1 X24.165 Y13.713 E27.33976
G1 X21.652 Y16.223 E27.51696
G1 X24.749 Y19.311 E27.73515
G1 X25.375 Y19.625 E27.77009
G1 X26.694 Y19.761 E27.83625
G1 X27.162 Y19.895 E27.86053
G1 X28.214 Y20.407 E27.9189
G1 X29.755 Y19.113 E28.01929
G1 X30.034 Y18.93 E28.03594
G1 X30.349 Y18.819 E28.0526
G1 X30.682 Y18.785 E28.0693
G1 X31.013 Y18.831 E28.08597
G1 X31.221 Y18.914 E28.09715
G1 X31.679 Y18.909 E28.12
G1 X31.999 Y19.004 E28.13665
G1 X32.622 Y19.35 E28.17221
G1 X35.082 Y20.404 E28.30573
G1 X35.383 Y20.509 E28.32163
G1 X35.76 Y20.582 E28.34079
G1 X36.285 Y20.578 E28.36698
G1 X36.816 Y20.527 E28.3936
G1 X37.144 Y20.59 E28.41026
G1 X37.448 Y20.728 E28.42691
G1 X37.711 Y20.935 E28.44361
G1 X37.917 Y21.198 E28.46028
G1 X38.055 Y21.502 E28.47694
G1 X38.117 Y21.83 E28.49359
G1 X38.099 Y22.164 E28.51028
G1 X38.003 Y22.484 E28.52694
G1 X37.71 Y22.914 E28.5529
G1 X36.036 Y24.588 E28.67101
G1 X35.636 Y24.867 E28.69534
G1 X34.061 Y25.6 E28.78201
G1 X32.622 Y27.04 E28.88358
G1 X32.622 Y31.186 E29.09042
G1 X32.582 Y31.518 E29.10711
G1 X32.465 Y31.83 E29.12373
G1 X32.277 Y32.107 E29.14043
G1 X32.029 Y32.33 E29.15707
G1 X31.735 Y32.489 E29.17375
G1 X31.222 Y32.586 E29.1998
G1 X28.41 Y32.586 E29.34009
G1 X26.524 Y34.478 E29.47337
G1 X26.272 Y35.001 E29.50233
G1 X26 Y35.384 E29.52577
G1 X22.495 Y38.885 E29.77292
G1 X22.233 Y39.091 E29.78955
G1 X21.928 Y39.229 E29.80625
G1 X21.6 Y39.291 E29.8229
G1 X21.266 Y39.273 E29.83959
G1 X20.947 Y39.177 E29.85621
G1 X20.658 Y39.008 E29.87291
G1 X20.419 Y38.776 E29.88953
G1 X20.241 Y38.493 E29.90621
G1 X20.135 Y38.176 E29.92289
G1 X20.107 Y37.843 E29.93956
G1 X20.159 Y37.513 E29.95623
G1 X20.444 Y36.881 E29.99082
G1 X20.559 Y36.56 E30.00783
G1 X20.636 Y36.025 E30.03479
G1 X20.532 Y35.303 E30.07119
G1 X20.362 Y34.712 E30.10187
G1 X20.366 Y34.378 E30.11853
G1 X20.45 Y34.054 E30.13523
G1 X20.542 Y33.883 E30.14492
G1 X20.542 Y32.062 E30.23577
G1 X20.217 Y31.708 E30.25974
G1 X19.98 Y31.354 E30.281
G1 X18.902 Y29.047 E30.40804
G1 X18.776 Y28.583 E30.43203
G1 X18.323 Y23.676 E30.67788
G1 X15.262 Y20.606 E30.89417
G1 X12.739 Y23.114 E31.07165
G1 X12.476 Y23.319 E31.08828
G1 X12.171 Y23.457 E31.10499
G1 X11.843 Y23.518 E31.12163
G1 X11.509 Y23.5 E31.13832
G1 X11.19 Y23.403 E31.15495
G1 X10.639 Y22.993 E31.18922
G1 X10.344 Y22.581 E31.2145
G1 X9.756 Y21.33 E31.28346
G1 X8.988 Y19.687 E31.37394
G1 X8.883 Y19.369 E31.39065
G1 X8.857 Y19.036 E31.40732
G1 X8.911 Y18.707 E31.42395
G1 X9.035 Y18.404 E31.44028
G1 X9.264 Y18.071 E31.46045
G1 X10.887 Y16.32 E31.57956
G1 X9.185 Y14.626 E31.69936
G1 X-5.363 Y0.071 E32.72605
G1 X-6.35 Y0.489 E32.77952
G1 X-7.446 Y1.459 E32.85254
G1 X-7.721 Y1.649 E32.86922
G1 X-8.033 Y1.769 E32.8859
G1 X-8.364 Y1.811 E32.90254
G1 X-8.696 Y1.773 E32.91921
G1 X-8.973 Y1.677 E32.93384
G1 X-11.983 Y0.253 E33.09997
G1 X-12.393 Y-0.042 E33.12517
G1 X-12.695 Y-.414 E33.14907
G1 X-12.827 Y-.721 E33.16574
G1 X-12.883 Y-1.05 E33.18239
G1 X-12.86 Y-1.383 E33.19905
G1 X-12.758 Y-1.702 E33.21576
G1 X-12.47 Y-2.113 E33.24079
G1 X-9.74 Y-4.815 E33.43242
G1 X-23.007 Y-18.077 E34.36831
G1 X-24.684 Y-16.409 E34.48631
G1 X-24.947 Y-16.204 E34.50295
G1 X-25.252 Y-16.066 E34.51965
G1 X-25.58 Y-16.005 E34.53629
G1 X-25.914 Y-16.023 E34.55298
G1 X-26.233 Y-16.12 E34.56962
G1 X-26.521 Y-16.29 E34.5863
G1 X-26.76 Y-16.523 E34.60295
G1 X-26.926 Y-16.782 E34.6183
G1 X-27.28 Y-17.5 E34.65824
G1 X-27.88 Y-18.772 E34.7284
G1 X-31.618 Y-20.52 E34.93428
G1 X-32.03 Y-20.814 E34.95953
G1 X-32.602 Y-21.404 E35.00053
G1 X-33.58 Y-21.063 E35.0522
G1 X-33.744 Y-20.9 E35.06374
G1 X-34.029 Y-20.726 E35.08039
G1 X-34.348 Y-20.625 E35.09709
G1 X-34.681 Y-20.603 E35.11374
G1 X-35.051 Y-20.673 E35.13253
G1 X-35.53 Y-20.833 E35.15772
G1 X-35.917 Y-20.925 E35.17757
G1 X-36.437 Y-20.943 E35.20352
G1 X-36.939 Y-20.874 E35.2288
G1 X-37.273 Y-20.868 E35.24547
G1 X-37.599 Y-20.942 E35.26215
G1 X-37.899 Y-21.09 E35.27884
G1 X-38.154 Y-21.305 E35.29548
G1 X-38.351 Y-21.575 E35.31215
G1 X-38.479 Y-21.884 E35.32884
G1 X-38.53 Y-22.214 E35.3455
G1 X-38.502 Y-22.547 E35.36217
G1 X-38.395 Y-22.863 E35.37882
G1 X-38.121 Y-23.251 E35.40251
G1 X-23.226 Y-38.142 E36.45329
G1 X-22.963 Y-38.348 E36.46996
G1 X-22.659 Y-38.487 E36.48664
G1 X-22.331 Y-38.549 E36.50329
G1 X-21.997 Y-38.531 E36.51998
G1 X-21.677 Y-38.436 E36.53663
G1 X-21.389 Y-38.267 E36.55329
G1 X-21.149 Y-38.034 E36.56998
G1 X-20.971 Y-37.752 E36.58662
G1 X-20.865 Y-37.435 E36.60329
G1 X-20.847 Y-36.978 E36.62611
G1 X-20.908 Y-36.398 E36.65521
G1 X-20.89 Y-35.981 E36.67603
G1 X-20.795 Y-35.568 E36.69717
G1 X-20.448 Y-34.527 E36.75192
G1 X-20.381 Y-34.2 E36.76857
G1 X-20.393 Y-33.866 E36.78525
G1 X-20.514 Y-33.478 E36.80552
G1 X-20.889 Y-32.698 E36.8487
G1 X-20.371 Y-32.05 E36.89009
G1 X-20.195 Y-31.766 E36.90676
G1 X-20.092 Y-31.448 E36.92344
G1 X-20.066 Y-31.115 E36.9401
G1 X-20.121 Y-30.785 E36.95679
G1 X-20.218 Y-30.562 E36.96892
G1 X-20.075 Y-29.528 E37.021
G1 X-19.169 Y-27.84 E37.11658
G1 X-19.02 Y-27.396 E37.13994
G1 X-18.521 Y-24.231 E37.2998
G1 X-3.877 Y-9.608 E38.33227
G1 X-3.597 Y-9.209 E38.35659
G1 X-2.318 Y-6.471 E38.50736
G1 X0.104 Y-5.323 E38.64108
G1 X0.495 Y-5.048 E38.66493
G0 F3600 X0.212 Y-4.765
G1 F1800 X17.376 Y12.402 E39.87604
G1 X19.515 Y10.495 E40.01901
G1 X19.75 Y10.338 E40.03311
G1 X20.02 Y10.254 E40.04722
G1 X20.302 Y10.248 E40.06129
G1 X20.907 Y10.473 E40.09349
G1 X23.543 Y11.755 E40.23973
G1 X23.868 Y12 E40.26004
G1 X24.042 Y12.222 E40.27411
G1 X24.147 Y12.484 E40.28819
G1 X24.175 Y12.764 E40.30223
G1 X24.124 Y13.042 E40.31633
G1 X23.997 Y13.294 E40.33041
G1 X23.883 Y13.43 E40.33927
G1 X21.086 Y16.223 E40.53647
G1 X24.511 Y19.639 E40.7778
G1 X25.262 Y20.016 E40.81973
G1 X26.653 Y20.159 E40.88949
G1 X26.987 Y20.255 E40.90683
G1 X28.272 Y20.88 E40.97812
G1 X30.012 Y19.419 E41.09147
G1 X30.251 Y19.27 E41.10552
G1 X30.523 Y19.194 E41.11961
G1 X30.805 Y19.196 E41.13368
G1 X31.223 Y19.312 E41.15532
G1 X31.504 Y19.29 E41.16938
G1 X31.78 Y19.348 E41.18345
G1 X32.453 Y19.713 E41.22165
G1 X34.923 Y20.772 E41.35573
G1 X35.294 Y20.899 E41.37529
G1 X35.719 Y20.982 E41.3969
G1 X36.243 Y20.984 E41.42304
G1 X36.832 Y20.93 E41.45255
G1 X37.105 Y21.001 E41.46662
G1 X37.348 Y21.146 E41.48074
G1 X37.54 Y21.352 E41.49479
G1 X37.667 Y21.604 E41.50887
G1 X37.719 Y21.881 E41.52293
G1 X37.691 Y22.162 E41.53701
G1 X37.586 Y22.424 E41.5511
G1 X37.427 Y22.631 E41.56412
G1 X35.753 Y24.305 E41.68223
G1 X35.468 Y24.505 E41.6996
G1 X33.827 Y25.268 E41.78989
G1 X32.222 Y26.876 E41.90323
G1 X32.222 Y31.186 E42.11826
G1 X32.182 Y31.465 E42.13232
G1 X32.066 Y31.722 E42.14639
G1 X31.883 Y31.937 E42.16047
G1 X31.647 Y32.091 E42.17453
G1 X31.222 Y32.186 E42.19626
G1 X28.243 Y32.186 E42.34488
G1 X26.194 Y34.243 E42.48973
G1 X25.912 Y34.827 E42.52209
G1 X25.718 Y35.101 E42.53884
G1 X22.213 Y38.602 E42.78599
G1 X21.987 Y38.771 E42.80007
G1 X21.723 Y38.87 E42.81414
G1 X21.442 Y38.892 E42.8282
G1 X21.165 Y38.834 E42.84232
G1 X20.916 Y38.702 E42.85638
G1 X20.714 Y38.505 E42.87046
G1 X20.575 Y38.259 E42.88455
G1 X20.51 Y37.985 E42.8986
G1 X20.524 Y37.703 E42.91269
G1 X20.809 Y37.044 E42.94851
G1 X20.947 Y36.659 E42.96892
G1 X21.037 Y36.025 E43.00086
G1 X20.988 Y35.508 E43.02677
G1 X20.813 Y34.902 E43.05824
G1 X20.756 Y34.626 E43.0723
G1 X20.778 Y34.345 E43.08636
G1 X20.942 Y34.004 E43.10524
G1 X20.942 Y31.906 E43.20991
G1 X20.512 Y31.438 E43.24162
G1 X20.342 Y31.184 E43.25687
G1 X19.264 Y28.877 E43.38391
G1 X19.174 Y28.546 E43.40102
G1 X18.708 Y23.495 E43.65409
G1 X15.263 Y20.04 E43.8975
G1 X12.457 Y22.83 E44.09492
G1 X12.231 Y22.999 E44.109
G1 X11.967 Y23.098 E44.12306
G1 X11.685 Y23.119 E44.13717
G1 X11.409 Y23.06 E44.15125
G1 X11.058 Y22.841 E44.17189
G1 X10.706 Y22.411 E44.19962
G1 X10.118 Y21.16 E44.26858
G1 X9.35 Y19.517 E44.35906
G1 X9.268 Y19.248 E44.37309
G1 X9.264 Y18.965 E44.38721
G1 X9.394 Y18.581 E44.40744
G1 X9.558 Y18.343 E44.42186
G1 X11.442 Y16.31 E44.56014
G1 X9.468 Y14.343 E44.69917
G1 X-5.271 Y-.403 E45.73933
G1 X-6.566 Y0.147 E45.80953
G1 X-7.711 Y1.16 E45.8858
G1 X-7.947 Y1.315 E45.89989
G1 X-8.216 Y1.399 E45.91395
G1 X-8.499 Y1.403 E45.92807
G1 X-8.802 Y1.315 E45.94381
G1 X-11.812 Y-.109 E46.10993
G1 X-12.206 Y-.425 E46.13513
G1 X-12.371 Y-.654 E46.14921
G1 X-12.465 Y-.92 E46.16329
G1 X-12.482 Y-1.201 E46.17733
G1 X-12.419 Y-1.476 E46.19141
G1 X-12.188 Y-1.829 E46.21246
G1 X-9.173 Y-4.814 E46.42412
G1 X-23.006 Y-18.642 E47.39994
G1 X-24.966 Y-16.693 E47.53784
G1 X-25.192 Y-16.524 E47.55192
G1 X-25.456 Y-16.425 E47.56599
G1 X-25.738 Y-16.404 E47.5801
G1 X-26.014 Y-16.463 E47.59418
G1 X-26.262 Y-16.596 E47.60822
G1 X-26.464 Y-16.793 E47.62229
G1 X-26.568 Y-16.959 E47.63207
G1 X-26.919 Y-17.671 E47.67167
G1 X-27.58 Y-19.073 E47.749
G1 X-31.449 Y-20.882 E47.96208
G1 X-31.743 Y-21.092 E47.98011
G1 X-32.493 Y-21.866 E48.03388
G1 X-33.801 Y-21.41 E48.10299
G1 X-34.026 Y-21.188 E48.11876
G1 X-34.276 Y-21.058 E48.13281
G1 X-34.553 Y-21.003 E48.1469
G1 X-34.924 Y-21.052 E48.16557
G1 X-35.421 Y-21.218 E48.19171
G1 X-35.865 Y-21.323 E48.21448
G1 X-36.476 Y-21.342 E48.24497
G1 X-36.994 Y-21.27 E48.27107
G1 X-37.276 Y-21.272 E48.28514
G1 X-37.547 Y-21.352 E48.29923
G1 X-37.784 Y-21.504 E48.31328
G1 X-37.97 Y-21.717 E48.32739
G1 X-38.088 Y-21.973 E48.34145
G1 X-38.131 Y-22.251 E48.35548
G1 X-38.094 Y-22.531 E48.36958
G1 X-37.98 Y-22.789 E48.38365
G1 X-37.838 Y-22.968 E48.39505
G1 X-22.943 Y-37.859 E49.44583
G1 X-22.717 Y-38.029 E49.45994
G1 X-22.453 Y-38.128 E49.474
G1 X-22.172 Y-38.15 E49.48807
G1 X-21.896 Y-38.092 E49.50214
G1 X-21.647 Y-37.96 E49.5162
G1 X-21.445 Y-37.763 E49.53027
G1 X-21.305 Y-37.518 E49.54435
G1 X-21.24 Y-37.243 E49.55845
G1 X-21.3 Y-36.583 E49.59151
G1 X-21.288 Y-35.93 E49.6241
G1 X-21.182 Y-35.463 E49.64799
G1 X-20.827 Y-34.4 E49.7039
G1 X-20.777 Y-34.123 E49.71794
G1 X-20.806 Y-33.842 E49.73204
G1 X-20.875 Y-33.651 E49.74217
G1 X-21.359 Y-32.645 E49.79787
G1 X-20.684 Y-31.8 E49.85182
G1 X-20.54 Y-31.557 E49.86591
G1 X-20.471 Y-31.284 E49.87996
G1 X-20.48 Y-31.002 E49.89404
G1 X-20.63 Y-30.624 E49.91433
G1 X-20.46 Y-29.401 E49.97593
G1 X-19.522 Y-27.651 E50.07499
G1 X-19.415 Y-27.334 E50.09168
G1 X-18.896 Y-24.041 E50.258
G1 X-4.159 Y-9.325 E51.29703
G1 X-3.96 Y-9.04 E51.31437
G1 X-2.621 Y-6.172 E51.47228
G1 X-0.067 Y-4.962 E51.61328
G1 X0.212 Y-4.765 E51.63032
G0 F3600 X-0.071 Y-4.482
G1 F1800 X10.18 Y5.769 E52.35358
G1 X17.36 Y12.953 E52.86031
G1 X19.782 Y10.793 E53.02222
G1 X19.968 Y10.68 E53.03308
G1 X20.183 Y10.641 E53.04398
G1 X20.43 Y10.695 E53.05659
G1 X20.756 Y10.843 E53.07445
G1 X23.368 Y12.114 E53.21938
G1 X23.591 Y12.289 E53.23352
G1 X23.719 Y12.466 E53.24442
G1 X23.774 Y12.677 E53.25529
G1 X23.751 Y12.894 E53.26618
G1 X23.6 Y13.147 E53.28088
G1 X20.519 Y16.223 E53.49809
G1 X24.276 Y19.969 E53.76277
