;FLAVOR:Marlin
;TIME:439
;Filament used: 0.755939m
;Layer height: 0.3
;MINX:-15.898
;MINY:-74.992
;MINZ:0.4
;MAXX:17.987
;MAXY:0
;MAXZ:16.4
;TARGET_MACHINE.NAME:Unknown
;Generated with Cura_SteamEngine 5.11.0
M140 S50
M105
M190 S50
M104 S220
M105
M109 S220
;FLAVOR:Marlin
M82 ;absolute extrusion mode
G21
G90
M82
M107 T0
G28
G92 E0
G0 E3 F200
G92 E0 ; reset extrusion distance
M106 S255 ; Enable cooling fan full speed
G1 X-98 Y0 Z0.4 F3000 ; move to arc start
G3 X0 Y-98 I98 Z0.4 E40 F400 ; lay arc stripe 90deg
G92 E0 ; reset extrusion distance
G4 P500 ; wait for 0.5 sec
G0 Z10 E-1 ; Lift 15mm and retract 1mm filament
G4 P2000 ; wait for 5 sec
G0 Z15
M107 ; Disable cooling fan
G1 X0 Y-85 Z4 E0 F3000 ; get off the bed
M82 ;absolute extrusion mode
G92 E0
G92 E0
G1 F1500 E-6.5
;LAYER_COUNT:54
;LAYER:0
M107
G1 F600 Z1.4
G0 F3600 X0.00 Y0.00 Z1.4
G0 X1.016 Y-41.107
;TYPE:SKIRT
G1 F600 Z0.4
G1 F1500 E0
G1 F1800 X-.426 Y-41.168 E0.16561
G1 X-1.136 Y-41.247 E0.24759
G1 X-2.71 Y-41.527 E0.43104
G1 X-3.583 Y-41.75 E0.53443
G1 X-4.673 Y-42.1 E0.66579
G1 X-5.854 Y-42.576 E0.8119
G1 X-6.843 Y-43.056 E0.93805
G1 X-7.958 Y-43.693 E1.0854
G1 X-8.73 Y-44.209 E1.19195
G1 X-9.595 Y-44.866 E1.31659
G1 X-10.701 Y-45.834 E1.48524
G1 X-11.198 Y-46.334 E1.56614
G1 X-12.129 Y-47.398 E1.72837
G1 X-12.95 Y-48.498 E1.88587
G1 X-13.457 Y-49.286 E1.99339
G1 X-13.983 Y-50.228 E2.11719
G1 X-14.529 Y-51.384 E2.26389
G1 X-14.951 Y-52.473 E2.39791
G1 X-15.282 Y-53.529 E2.52489
G1 X-15.584 Y-54.785 E2.67312
G1 X-15.722 Y-55.597 E2.76764
G1 X-15.88 Y-57.276 E2.96115
G1 X-15.898 Y-58.249 E3.07282
G1 X-15.877 Y-58.918 E3.14962
G1 X-15.724 Y-60.486 E3.3304
G1 X-15.586 Y-61.298 E3.42491
G1 X-15.193 Y-62.88 E3.61196
G1 X-14.889 Y-63.814 E3.72467
G1 X-14.576 Y-64.61 E3.82281
G1 X-13.879 Y-66.072 E4.00866
G1 X-13.406 Y-66.896 E4.11769
G1 X-12.8 Y-67.81 E4.24352
G1 X-11.9 Y-68.977 E4.41263
G1 X-11.269 Y-69.685 E4.52145
G1 X-10.503 Y-70.446 E4.64535
G1 X-9.507 Y-71.311 E4.79673
G1 X-9.022 Y-71.682 E4.86679
G1 X-7.6 Y-72.624 E5.06252
G1 X-7.006 Y-72.959 E5.14077
G1 X-5.743 Y-73.57 E5.30177
G1 X-4.535 Y-74.045 E5.45071
G1 X-3.348 Y-74.409 E5.59318
G1 X-2.145 Y-74.689 E5.73491
G1 X-1.395 Y-74.816 E5.82219
G1 X0.201 Y-74.97 E6.00618
G1 X1.069 Y-74.992 E6.10581
G1 X2.446 Y-74.932 E6.26397
G1 X3.44 Y-74.821 E6.37874
G1 X4.574 Y-74.617 E6.51095
G1 X5.753 Y-74.323 E6.65038
G1 X6.871 Y-73.958 E6.78533
G1 X7.815 Y-73.579 E6.90206
G1 X8.852 Y-73.083 E7.03396
G1 X10.085 Y-72.38 E7.19683
G1 X10.745 Y-71.944 E7.28759
G1 X11.898 Y-71.059 E7.45438
G1 X12.741 Y-70.31 E7.58378
G1 X13.316 Y-69.734 E7.67717
G1 X14.353 Y-68.536 E7.85898
G1 X14.938 Y-67.747 E7.97169
G1 X15.627 Y-66.672 E8.1182
G1 X16.409 Y-65.197 E8.30977
G1 X16.933 Y-63.927 E8.46742
G1 X17.445 Y-62.302 E8.66292
G1 X17.722 Y-61.063 E8.8086
G1 X17.965 Y-58.953 E9.05232
G1 X17.987 Y-58.042 E9.15688
G1 X17.865 Y-55.997 E9.39196
G1 X17.606 Y-54.47 E9.56968
G1 X17.38 Y-53.554 E9.67794
G1 X16.937 Y-52.182 E9.84338
G1 X16.517 Y-51.14 E9.97229
G1 X16.09 Y-50.262 E10.08432
G1 X15.268 Y-48.839 E10.2729
G1 X14.844 Y-48.216 E10.35937
G1 X13.931 Y-47.052 E10.52912
G1 X13.145 Y-46.19 E10.66298
G1 X12.099 Y-45.199 E10.82832
G1 X10.658 Y-44.093 E11.03676
G1 X9.768 Y-43.513 E11.15866
G1 X6.833 Y-42.113 E11.53179
G1 X5.809 Y-41.786 E11.65514
G1 X4.279 Y-41.416 E11.83576
G1 X3.488 Y-41.282 E11.92782
G1 X1.729 Y-41.12 E12.13052
G1 X1.016 Y-41.107 E12.21235
G0 F3600 X1.005 Y-41.707
G1 F1800 X-.36 Y-41.764 E12.36911
G1 X-1.031 Y-41.838 E12.44657
G1 X-2.562 Y-42.109 E12.62498
G1 X-3.4 Y-42.322 E12.7242
G1 X-4.449 Y-42.657 E12.85056
G1 X-5.592 Y-43.116 E12.9919
G1 X-6.581 Y-43.596 E13.11804
G1 X-7.625 Y-44.192 E13.25598
G1 X-8.367 Y-44.687 E13.35833
G1 X-9.232 Y-45.344 E13.48297
G1 X-10.275 Y-46.257 E13.64203
G1 X-10.772 Y-46.757 E13.72293
G1 X-11.648 Y-47.757 E13.87548
G1 X-12.445 Y-48.823 E14.0282
G1 X-12.952 Y-49.611 E14.13572
G1 X-13.44 Y-50.484 E14.25049
G1 X-13.986 Y-51.64 E14.39719
G1 X-14.378 Y-52.652 E14.52172
G1 X-14.709 Y-53.708 E14.64871
G1 X-14.992 Y-54.886 E14.78772
G1 X-15.13 Y-55.698 E14.88224
G1 X-15.28 Y-57.287 E15.06538
G1 X-15.298 Y-58.23 E15.17361
G1 X-15.277 Y-58.899 E15.25041
G1 X-15.132 Y-60.385 E15.42173
G1 X-14.994 Y-61.197 E15.51625
G1 X-14.622 Y-62.694 E15.69325
G1 X-14.318 Y-63.628 E15.80596
G1 X-14.034 Y-64.352 E15.8952
G1 X-13.337 Y-65.814 E16.08105
G1 X-12.906 Y-66.564 E16.1803
G1 X-12.3 Y-67.478 E16.30614
G1 X-11.452 Y-68.578 E16.46552
G1 X-10.846 Y-69.259 E16.57012
G1 X-10.08 Y-70.02 E16.69402
G1 X-9.142 Y-70.834 E16.83653
G1 X-8.657 Y-71.205 E16.9066
G1 X-7.305 Y-72.101 E17.09271
G1 X-6.711 Y-72.436 E17.17096
G1 X-5.482 Y-73.03 E17.3276
G1 X-4.359 Y-73.471 E17.46604
G1 X-3.172 Y-73.835 E17.6085
G1 X-2.045 Y-74.097 E17.74127
G1 X-1.295 Y-74.224 E17.82856
G1 X0.216 Y-74.37 E18.00275
G1 X1.084 Y-74.392 E18.10238
G1 X2.38 Y-74.336 E18.25123
G1 X3.334 Y-74.23 E18.36138
G1 X4.468 Y-74.026 E18.49359
G1 X5.607 Y-73.741 E18.62832
G1 X6.648 Y-73.401 E18.75398
G1 X7.557 Y-73.037 E18.86634
G1 X8.555 Y-72.561 E18.99321
G1 X9.754 Y-71.879 E19.15149
G1 X10.414 Y-71.443 E19.24226
G1 X11.499 Y-70.61 E19.39922
G1 X12.342 Y-69.861 E19.52862
G1 X12.862 Y-69.341 E19.613
G1 X13.899 Y-68.143 E19.79482
G1 X14.433 Y-67.423 E19.89768
G1 X15.097 Y-66.39 E20.03859
G1 X15.854 Y-64.968 E20.22344
G1 X16.378 Y-63.698 E20.38109
G1 X16.859 Y-62.171 E20.56479
G1 X17.136 Y-60.932 E20.71048
G1 X17.365 Y-58.937 E20.9409
G1 X17.388 Y-58.078 E21.0395
G1 X17.266 Y-56.033 E21.27458
G1 X17.023 Y-54.614 E21.43978
G1 X16.797 Y-53.698 E21.54804
G1 X16.38 Y-52.406 E21.70382
G1 X15.977 Y-51.402 E21.82796
G1 X15.57 Y-50.562 E21.93507
G1 X14.771 Y-49.176 E22.11864
G1 X14.371 Y-48.586 E22.20044
G1 X13.487 Y-47.456 E22.36506
G1 X12.732 Y-46.626 E22.49381
G1 X11.686 Y-45.635 E22.65915
G1 X10.33 Y-44.596 E22.85517
G1 X9.44 Y-44.016 E22.97707
G1 X6.65 Y-42.685 E23.33178
G1 X5.626 Y-42.358 E23.45513
G1 X4.179 Y-42.008 E23.62596
G1 X3.388 Y-41.874 E23.71801
G1 X1.718 Y-41.72 E23.91046
G1 X1.005 Y-41.707 E23.99228
G0 F3600 X0.994 Y-42.307
G1 F1800 X-.296 Y-42.361 E24.14044
G1 X-.927 Y-42.429 E24.21326
G1 X-2.414 Y-42.691 E24.38652
G1 X-3.252 Y-42.904 E24.48574
G1 X-4.226 Y-43.214 E24.60303
G1 X-5.33 Y-43.656 E24.73948
G1 X-6.319 Y-44.136 E24.86563
G1 X-7.293 Y-44.692 E24.99432
G1 X-8.004 Y-45.165 E25.09231
G1 X-8.869 Y-45.822 E25.21695
G1 X-9.849 Y-46.68 E25.36641
G1 X-10.346 Y-47.18 E25.44731
G1 X-11.168 Y-48.117 E25.59033
G1 X-11.94 Y-49.148 E25.73813
G1 X-12.447 Y-49.936 E25.84565
G1 X-12.916 Y-50.776 E25.95604
G1 X-13.427 Y-51.857 E26.09325
G1 X-13.805 Y-52.831 E26.21313
G1 X-14.136 Y-53.887 E26.34012
G1 X-14.4 Y-54.987 E26.46992
G1 X-14.538 Y-55.799 E26.56444
G1 X-14.68 Y-57.299 E26.73733
G1 X-14.698 Y-58.211 E26.842
G1 X-14.677 Y-58.88 E26.9188
G1 X-14.54 Y-60.284 E27.08067
G1 X-14.402 Y-61.096 E27.17518
G1 X-14.051 Y-62.508 E27.34214
G1 X-13.747 Y-63.442 E27.45484
G1 X-13.492 Y-64.094 E27.53518
G1 X-12.816 Y-65.516 E27.71585
G1 X-12.406 Y-66.232 E27.81052
G1 X-11.8 Y-67.146 E27.93636
G1 X-11.003 Y-68.18 E28.08617
G1 X-10.423 Y-68.833 E28.18639
G1 X-9.657 Y-69.594 E28.31028
G1 X-8.777 Y-70.357 E28.44393
G1 X-8.292 Y-70.728 E28.514
G1 X-7.01 Y-71.578 E28.6905
G1 X-6.416 Y-71.913 E28.76876
G1 X-5.221 Y-72.49 E28.92103
G1 X-4.182 Y-72.898 E29.04911
G1 X-3.036 Y-73.251 E29.18671
G1 X-1.945 Y-73.505 E29.31525
G1 X-1.195 Y-73.632 E29.40253
G1 X0.231 Y-73.77 E29.56693
G1 X1.099 Y-73.792 E29.66656
G1 X2.314 Y-73.74 E29.80611
G1 X3.228 Y-73.639 E29.91162
G1 X4.362 Y-73.435 E30.04384
G1 X5.461 Y-73.159 E30.17386
G1 X6.425 Y-72.844 E30.29023
G1 X7.299 Y-72.495 E30.39822
G1 X8.297 Y-72.019 E30.5251
G1 X9.423 Y-71.378 E30.67377
G1 X10.083 Y-70.942 E30.76454
G1 X11.1 Y-70.161 E30.91168
G1 X11.943 Y-69.412 E31.04108
G1 X12.437 Y-68.917 E31.12132
G1 X13.418 Y-67.785 E31.29321
G1 X13.929 Y-67.098 E31.39145
G1 X14.568 Y-66.107 E31.52676
G1 X15.3 Y-64.738 E31.70489
G1 X15.806 Y-63.517 E31.85655
G1 X16.273 Y-62.04 E32.03431
G1 X16.55 Y-60.801 E32.17999
G1 X16.765 Y-58.919 E32.39735
G1 X16.789 Y-58.113 E32.48988
G1 X16.674 Y-56.134 E32.71734
G1 X16.44 Y-54.758 E32.8775
G1 X16.214 Y-53.842 E32.98576
G1 X15.823 Y-52.63 E33.1319
G1 X15.42 Y-51.626 E33.25604
G1 X15.05 Y-50.861 E33.35355
G1 X14.274 Y-49.513 E33.53202
G1 X13.874 Y-48.923 E33.61382
G1 X13.043 Y-47.859 E33.76873
G1 X12.319 Y-47.062 E33.89229
G1 X11.273 Y-46.071 E34.05763
G1 X10.002 Y-45.099 E34.24123
G1 X9.112 Y-44.519 E34.36313
G1 X6.467 Y-43.257 E34.69941
G1 X5.443 Y-42.93 E34.82276
G1 X4.079 Y-42.6 E34.98379
G1 X3.288 Y-42.466 E35.07585
G1 X1.707 Y-42.32 E35.25804
G1 X0.994 Y-42.307 E35.33987
G0 F3600 X0.983 Y-42.907
G1 F1800 X-.232 Y-42.958 E35.47941
G1 X-.863 Y-43.026 E35.55223
G1 X-2.266 Y-43.273 E35.7157
G1 X-3.104 Y-43.486 E35.81491
G1 X-4.004 Y-43.771 E35.92324
G1 X-5.069 Y-44.196 E36.05482
G1 X-6.022 Y-44.657 E36.1763
G1 X-6.961 Y-45.192 E36.3003
G1 X-7.641 Y-45.643 E36.39393
G1 X-8.506 Y-46.3 E36.51858
G1 X-9.423 Y-47.103 E36.65844
G1 X-9.92 Y-47.603 E36.73934
G1 X-10.688 Y-48.477 E36.87284
G1 X-11.435 Y-49.473 E37.0157
G1 X-11.942 Y-50.261 E37.12322
G1 X-12.392 Y-51.068 E37.22925
G1 X-12.868 Y-52.075 E37.35706
G1 X-13.232 Y-53.01 E37.47219
G1 X-13.563 Y-54.066 E37.59918
G1 X-13.808 Y-55.088 E37.71977
G1 X-13.946 Y-55.9 E37.81428
G1 X-14.08 Y-57.311 E37.97692
G1 X-14.098 Y-58.192 E38.07803
G1 X-14.077 Y-58.861 E38.15484
G1 X-13.948 Y-60.183 E38.30725
G1 X-13.81 Y-60.995 E38.40176
G1 X-13.48 Y-62.322 E38.55867
G1 X-13.176 Y-63.256 E38.67138
G1 X-12.933 Y-63.875 E38.74769
G1 X-12.295 Y-65.218 E38.9183
G1 X-11.905 Y-65.901 E39.00855
G1 X-11.324 Y-66.78 E39.12945
G1 X-10.554 Y-67.782 E39.27446
G1 X-9.974 Y-68.435 E39.37468
G1 X-9.264 Y-69.141 E39.48957
G1 X-8.412 Y-69.88 E39.61899
G1 X-7.927 Y-70.251 E39.68905
G1 X-6.715 Y-71.055 E39.85595
G1 X-6.121 Y-71.39 E39.9342
G1 X-4.961 Y-71.949 E40.08195
G1 X-4.005 Y-72.325 E40.19983
G1 X-2.9 Y-72.667 E40.33256
G1 X-1.845 Y-72.913 E40.45687
G1 X-1.095 Y-73.04 E40.54415
G1 X0.246 Y-73.17 E40.69875
G1 X1.114 Y-73.192 E40.79838
G1 X2.248 Y-73.144 E40.92863
G1 X3.122 Y-73.048 E41.02952
G1 X4.256 Y-72.844 E41.16173
G1 X5.275 Y-72.588 E41.28229
G1 X6.203 Y-72.286 E41.39427
G1 X7.041 Y-71.953 E41.49775
G1 X8.039 Y-71.477 E41.62462
G1 X9.092 Y-70.877 E41.76369
G1 X9.752 Y-70.441 E41.85446
G1 X10.702 Y-69.712 E41.99186
G1 X11.518 Y-68.988 E42.11704
G1 X12.012 Y-68.493 E42.19729
G1 X12.937 Y-67.426 E42.35932
G1 X13.425 Y-66.772 E42.45296
G1 X14.039 Y-65.823 E42.58266
G1 X14.746 Y-64.507 E42.75408
G1 X15.234 Y-63.335 E42.89975
G1 X15.687 Y-61.909 E43.07144
G1 X15.964 Y-60.67 E43.21712
G1 X16.165 Y-58.901 E43.42142
G1 X16.189 Y-58.095 E43.51395
G1 X16.082 Y-56.234 E43.72784
G1 X15.857 Y-54.901 E43.88297
G1 X15.643 Y-54.026 E43.98633
G1 X15.266 Y-52.853 E44.12771
G1 X14.879 Y-51.886 E44.24723
G1 X14.53 Y-51.16 E44.33966
G1 X13.777 Y-49.85 E44.51304
G1 X13.377 Y-49.26 E44.59483
G1 X12.598 Y-48.262 E44.74011
G1 X11.906 Y-47.498 E44.85839
G1 X10.86 Y-46.507 E45.02373
G1 X9.674 Y-45.602 E45.19492
G1 X8.784 Y-45.022 E45.31681
G1 X6.284 Y-43.829 E45.63467
G1 X5.26 Y-43.502 E45.75802
G1 X3.979 Y-43.192 E45.90925
G1 X3.188 Y-43.058 E46.00131
G1 X1.696 Y-42.92 E46.17325
G1 X0.983 Y-42.907 E46.25507
G0 F3600 X1.007 Y-43.507
G1 F1800 X-.169 Y-43.555 E46.39013
G1 X-.759 Y-43.617 E46.4582
G1 X-2.118 Y-43.855 E46.61652
G1 X-2.956 Y-44.068 E46.71574
G1 X-3.822 Y-44.343 E46.82
G1 X-4.808 Y-44.736 E46.94179
G1 X-5.725 Y-45.178 E47.0586
G1 X-6.63 Y-45.693 E47.17809
G1 X-7.278 Y-46.121 E47.2672
G1 X-8.143 Y-46.778 E47.39184
G1 X-8.997 Y-47.526 E47.52211
G1 X-9.494 Y-48.026 E47.603
G1 X-10.208 Y-48.838 E47.72708
G1 X-10.93 Y-49.798 E47.86491
G1 X-11.437 Y-50.586 E47.97243
G1 X-11.868 Y-51.36 E48.07409
G1 X-12.309 Y-52.293 E48.1925
G1 X-12.673 Y-53.228 E48.30763
G1 X-12.98 Y-54.206 E48.42526
G1 X-13.216 Y-55.189 E48.54126
G1 X-13.354 Y-56.001 E48.63577
G1 X-13.48 Y-57.324 E48.78827
G1 X-13.498 Y-58.173 E48.88571
G1 X-13.477 Y-58.842 E48.96251
G1 X-13.356 Y-60.082 E49.10548
G1 X-13.218 Y-60.894 E49.19999
G1 X-12.909 Y-62.136 E49.34685
G1 X-12.605 Y-63.07 E49.45956
G1 X-12.391 Y-63.618 E49.52706
G1 X-11.773 Y-64.921 E49.69254
G1 X-11.404 Y-65.57 E49.77821
G1 X-10.823 Y-66.449 E49.89911
G1 X-10.105 Y-67.384 E50.03439
G1 X-9.525 Y-68.037 E50.13461
G1 X-8.871 Y-68.688 E50.24049
G1 X-8.047 Y-69.403 E50.36568
G1 X-7.562 Y-69.774 E50.43575
G1 X-6.42 Y-70.532 E50.59303
G1 X-5.826 Y-70.867 E50.67128
G1 X-4.741 Y-71.391 E50.80954
G1 X-3.827 Y-71.752 E50.9223
G1 X-2.764 Y-72.083 E51.05006
G1 X-1.745 Y-72.321 E51.17013
G1 X-.995 Y-72.448 E51.25742
G1 X0.261 Y-72.57 E51.40222
G1 X1.129 Y-72.592 E51.50185
G1 X2.183 Y-72.548 E51.6229
G1 X3.017 Y-72.457 E51.71917
G1 X4.11 Y-72.262 E51.84657
G1 X5.089 Y-72.017 E51.96237
G1 X6.017 Y-71.715 E52.07435
G1 X6.783 Y-71.411 E52.16892
G1 X7.781 Y-70.935 E52.29579
G1 X8.761 Y-70.376 E52.42525
G1 X9.421 Y-69.94 E52.51602
G1 X10.304 Y-69.263 E52.6437
G1 X11.093 Y-68.564 E52.76465
G1 X11.587 Y-68.069 E52.8449
G1 X12.457 Y-67.066 E52.99725
G1 X12.922 Y-66.445 E53.08627
G1 X13.51 Y-65.539 E53.21021
G1 X14.217 Y-64.223 E53.38163
G1 X14.662 Y-63.152 E53.51471
G1 X15.101 Y-61.778 E53.68023
G1 X15.378 Y-60.539 E53.82591
G1 X15.565 Y-58.883 E54.01714
G1 X15.589 Y-58.077 E54.10966
G1 X15.49 Y-56.333 E54.31011
G1 X15.274 Y-55.044 E54.46008
G1 X15.06 Y-54.169 E54.56344
G1 X14.709 Y-53.075 E54.69528
G1 X14.338 Y-52.145 E54.81017
G1 X14.01 Y-51.459 E54.89742
G1 X13.28 Y-50.187 E55.06571
G1 X12.88 Y-49.597 E55.1475
G1 X12.153 Y-48.665 E55.28314
G1 X11.461 Y-47.901 E55.40142
G1 X10.495 Y-46.984 E55.55425
G1 X9.346 Y-46.105 E55.72026
G1 X8.456 Y-45.525 E55.84215
G1 X6.101 Y-44.4 E56.14163
G1 X5.118 Y-44.085 E56.26008
G1 X3.879 Y-43.784 E56.40639
G1 X3.088 Y-43.65 E56.49845
G1 X1.684 Y-43.52 E56.66024
G1 X1.007 Y-43.507 E56.73794
G0 F3600 X0.995 Y-44.107
G1 F1800 X-.106 Y-44.152 E56.86438
G1 X-.696 Y-44.214 E56.93246
G1 X-1.971 Y-44.437 E57.08098
G1 X-2.774 Y-44.64 E57.17602
G1 X-3.64 Y-44.915 E57.28028
G1 X-4.548 Y-45.277 E57.39245
G1 X-5.429 Y-45.7 E57.50459
G1 X-6.299 Y-46.194 E57.61939
G1 X-6.947 Y-46.622 E57.7085
G1 X-7.748 Y-47.23 E57.82389
G1 X-8.571 Y-47.949 E57.94929
G1 X-9.068 Y-48.449 E58.03019
G1 X-9.729 Y-49.199 E58.1449
G1 X-10.425 Y-50.123 E58.27764
G1 X-10.932 Y-50.911 E58.38516
G1 X-11.343 Y-51.651 E58.48229
G1 X-11.75 Y-52.511 E58.59147
G1 X-12.114 Y-53.446 E58.7066
G1 X-12.397 Y-54.346 E58.81486
G1 X-12.624 Y-55.29 E58.92627
G1 X-12.762 Y-56.102 E59.02078
G1 X-12.88 Y-57.337 E59.16314
G1 X-12.898 Y-58.154 E59.25691
G1 X-12.877 Y-58.823 E59.33371
G1 X-12.764 Y-59.981 E59.46722
G1 X-12.626 Y-60.793 E59.56173
G1 X-12.338 Y-61.95 E59.69855
G1 X-12.034 Y-62.884 E59.81126
G1 X-11.832 Y-63.399 E59.87473
G1 X-11.251 Y-64.624 E60.03031
G1 X-10.882 Y-65.273 E60.11598
G1 X-10.347 Y-66.084 E60.22746
G1 X-9.656 Y-66.986 E60.35784
G1 X-9.101 Y-67.612 E60.45384
G1 X-8.477 Y-68.235 E60.55502
G1 X-7.682 Y-68.926 E60.67589
G1 X-7.197 Y-69.297 E60.74596
G1 X-6.125 Y-70.009 E60.89363
G1 X-5.531 Y-70.344 E60.97188
G1 X-4.519 Y-70.833 E61.10085
G1 X-3.648 Y-71.179 E61.20839
G1 X-2.627 Y-71.499 E61.33117
G1 X-1.645 Y-71.729 E61.4469
G1 X-.895 Y-71.856 E61.53418
G1 X0.276 Y-71.97 E61.66919
G1 X1.144 Y-71.992 E61.76882
G1 X2.119 Y-71.951 E61.8808
G1 X2.913 Y-71.866 E61.97243
G1 X3.965 Y-71.68 E62.09502
G1 X4.903 Y-71.446 E62.20595
G1 X5.831 Y-71.144 E62.31793
G1 X6.525 Y-70.869 E62.40359
G1 X7.484 Y-70.413 E62.52544
G1 X8.43 Y-69.875 E62.65032
G1 X9.09 Y-69.439 E62.74108
G1 X9.906 Y-68.814 E62.85903
G1 X10.669 Y-68.139 E62.97592
