;FLAVOR:Marlin
;TIME:10379
;Filament used: 6.58603m
;Layer height: 0.2
;MINX:-92.312
;MINY:-79.786
;MINZ:0.3
;MAXX:72.256
;MAXY:68.581
;MAXZ:65
;TARGET_MACHINE.NAME:Unknown
;POSTPROCESSED
;  [CreateThumbnail]
;Generated with Cura_SteamEngine 5.11.0
;
;

M140 S50
M105
M190 S50
M104 S230
M105
M109 S230
;FLAVOR:Marlin
M82 ;absolute extrusion mode
G21
G90
M82
M107 T0
G28
G92 E0
G0 E3 F200
G92 E0 ; reset extrusion distance
M106 S255 ; Enable cooling fan full speed
G1 X-98 Y0 Z0.4 F3000 ; move to arc start
G3 X0 Y-98 I98 Z0.4 E40 F400 ; lay arc stripe 90deg
G92 E0 ; reset extrusion distance
G4 P500 ; wait for 0.5 sec
G0 Z10 E-1 ; Lift 15mm and retract 1mm filament
G4 P2000 ; wait for 5 sec
G0 Z15
M107 ; Disable cooling fan
G1 X0 Y-85 Z4 E0 F3000 ; get off the bed
M82 ;absolute extrusion mode
G92 E0
G92 E0
G1 F1500 E-6.5
;LAYER_COUNT:299
;LAYER:0
M107
G0 F3600 X40.393 Y7.398 Z0.3
;TYPE:SKIRT
G1 F1500 E0
G1 F1200 X-15.263 Y-48.298 E3.14259
G1 X-16.4 Y-49.749 E3.21617
G1 X-17.345 Y-52.005 E3.31379
G1 X-17.733 Y-54.414 E3.41118
G1 X-17.39 Y-57.203 E3.52333
G1 X-16.29 Y-59.627 E3.62957
G1 X-15.095 Y-61.099 E3.70525
G1 X1.388 Y-77.525 E4.63401
G1 X2.476 Y-78.356 E4.68865
G1 X4.651 Y-79.361 E4.78428
G1 X7.256 Y-79.786 E4.88963
G1 X10.016 Y-79.446 E5.00062
G1 X12.479 Y-78.36 E5.10805
G1 X14.187 Y-76.932 E5.19691
G1 X55.132 Y-35.99 E7.50794
G1 X55.638 Y-35.732 E7.53061
G1 X62.065 Y-29.298 E7.89357
G1 X62.369 Y-28.742 E7.91887
G1 X69.884 Y-21.172 E8.3446
G1 X70.79 Y-20.03 E8.40278
G1 X71.831 Y-17.778 E8.5018
G1 X72.256 Y-15.18 E8.60687
G1 X71.914 Y-12.379 E8.7195
G1 X70.851 Y-10.012 E8.82306
G1 X69.65 Y-8.52 E8.8995
G1 X53.267 Y7.832 E9.82335
G1 X52.058 Y8.779 E9.88465
G1 X49.839 Y9.788 E9.98194
G1 X47.256 Y10.203 E10.08636
G1 X44.469 Y9.859 E10.19844
G1 X42.053 Y8.761 E10.30435
G1 X40.393 Y7.398 E10.39008
G0 F3600 X40.676 Y7.115
G1 F1200 X-14.948 Y-48.545 E13.53076
G1 X-16.053 Y-49.955 E13.60225
G1 X-16.957 Y-52.114 E13.69567
G1 X-17.329 Y-54.422 E13.78898
G1 X-17 Y-57.095 E13.89647
G1 X-15.948 Y-59.413 E13.99807
G1 X-14.784 Y-60.847 E14.07178
G1 X1.631 Y-77.207 E14.99677
G1 X2.685 Y-78.012 E15.0497
G1 X4.769 Y-78.975 E15.14133
G1 X7.264 Y-79.382 E15.24223
G1 X9.909 Y-79.056 E15.34859
G1 X12.266 Y-78.017 E15.4514
G1 X13.904 Y-76.649 E15.53658
G1 X54.893 Y-35.663 E17.85009
G1 X55.399 Y-35.405 E17.87276
G1 X61.742 Y-29.055 E18.23098
G1 X62.046 Y-28.5 E18.25624
G1 X69.571 Y-20.923 E18.68245
G1 X70.447 Y-19.819 E18.7387
G1 X71.445 Y-17.661 E18.8336
G1 X71.852 Y-15.171 E18.9343
G1 X71.524 Y-12.488 E19.04218
G1 X70.506 Y-10.222 E19.14133
G1 X69.367 Y-8.803 E19.21395
G1 X53.02 Y7.517 E20.13588
G1 X51.848 Y8.435 E20.1953
G1 X49.723 Y9.401 E20.28847
G1 X47.248 Y9.799 E20.38852
G1 X44.579 Y9.47 E20.49585
G1 X42.266 Y8.418 E20.59727
G1 X40.676 Y7.115 E20.67931
G0 F3600 X40.959 Y6.832
G1 F1200 X-14.633 Y-48.792 E23.81807
G1 X-15.705 Y-50.16 E23.88744
G1 X-16.57 Y-52.225 E23.97679
G1 X-16.925 Y-54.43 E24.06593
G1 X-16.61 Y-56.987 E24.16876
G1 X-15.606 Y-59.199 E24.26572
G1 X-14.473 Y-60.595 E24.33747
G1 X1.874 Y-76.889 E25.25868
G1 X2.894 Y-77.668 E25.3099
G1 X4.887 Y-78.589 E25.39753
G1 X7.272 Y-78.978 E25.49398
G1 X9.802 Y-78.666 E25.59572
G1 X12.053 Y-77.674 E25.6939
G1 X13.621 Y-76.366 E25.7754
G1 X54.654 Y-35.336 E28.09139
G1 X55.16 Y-35.078 E28.11406
G1 X61.419 Y-28.812 E28.46754
G1 X61.722 Y-28.258 E28.49275
G1 X69.258 Y-20.674 E28.91947
G1 X70.104 Y-19.608 E28.97378
G1 X71.059 Y-17.543 E29.06459
G1 X71.448 Y-15.162 E29.16088
G1 X71.134 Y-12.597 E29.26402
G1 X70.161 Y-10.431 E29.35879
G1 X69.084 Y-9.086 E29.42756
G1 X52.773 Y7.202 E30.34758
G1 X51.638 Y8.091 E30.40512
G1 X49.606 Y9.015 E30.49421
G1 X47.241 Y9.395 E30.58981
G1 X44.688 Y9.08 E30.69248
G1 X42.481 Y8.077 E30.78924
G1 X40.959 Y6.832 E30.86772
G0 F3600 X41.242 Y6.549
G1 F1200 X-14.318 Y-49.039 E34.00456
G1 X-15.358 Y-50.366 E34.07185
G1 X-16.182 Y-52.334 E34.157
G1 X-16.521 Y-54.438 E34.24206
G1 X-16.22 Y-56.879 E34.34022
G1 X-15.264 Y-58.985 E34.43253
G1 X-14.162 Y-60.343 E34.50234
G1 X2.117 Y-76.571 E35.41975
G1 X3.103 Y-77.324 E35.46927
G1 X5.005 Y-78.203 E35.5529
G1 X7.28 Y-78.574 E35.6449
G1 X9.695 Y-78.276 E35.74202
G1 X11.841 Y-77.331 E35.83561
G1 X13.338 Y-76.083 E35.91339
G1 X54.415 Y-35.009 E38.23187
G1 X54.921 Y-34.751 E38.25454
G1 X61.096 Y-28.569 E38.60328
G1 X61.398 Y-28.016 E38.62843
G1 X68.945 Y-20.425 E39.05566
G1 X69.761 Y-19.397 E39.10804
G1 X70.673 Y-17.425 E39.19476
G1 X71.044 Y-15.153 E39.28664
G1 X70.744 Y-12.706 E39.38504
G1 X69.818 Y-10.643 E39.47529
G1 X68.801 Y-9.369 E39.54035
G1 X52.526 Y6.887 E40.45845
G1 X51.428 Y7.747 E40.51411
G1 X49.49 Y8.628 E40.59908
G1 X47.233 Y8.991 E40.69032
G1 X44.797 Y8.69 E40.78829
G1 X42.695 Y7.735 E40.88043
G1 X41.242 Y6.549 E40.95529
G0 F3600 X41.525 Y6.266
G1 F1200 X-14.003 Y-49.286 E44.09021
G1 X-15.01 Y-50.571 E44.15537
G1 X-15.795 Y-52.445 E44.23646
G1 X-16.117 Y-54.446 E44.31735
G1 X-15.83 Y-56.771 E44.41085
G1 X-14.922 Y-58.771 E44.49852
G1 X-13.851 Y-60.091 E44.56636
G1 X2.36 Y-76.253 E45.48
G1 X3.312 Y-76.98 E45.52781
G1 X5.123 Y-77.817 E45.60744
G1 X7.288 Y-78.17 E45.69499
G1 X9.588 Y-77.886 E45.78748
G1 X11.629 Y-76.988 E45.87648
G1 X13.055 Y-75.8 E45.95056
G1 X54.176 Y-34.682 E48.27152
G1 X54.682 Y-34.424 E48.29419
G1 X60.773 Y-28.326 E48.63819
G1 X61.075 Y-27.774 E48.6633
G1 X68.632 Y-20.176 E49.09101
G1 X69.418 Y-19.186 E49.14146
G1 X70.287 Y-17.307 E49.22409
G1 X70.64 Y-15.144 E49.31156
G1 X70.354 Y-12.815 E49.40522
G1 X69.473 Y-10.852 E49.49109
G1 X68.518 Y-9.652 E49.5523
G1 X52.279 Y6.572 E50.46848
G1 X51.217 Y7.404 E50.52232
G1 X49.375 Y8.241 E50.60308
G1 X47.225 Y8.587 E50.68999
G1 X44.906 Y8.3 E50.78325
G1 X42.909 Y7.393 E50.87079
G1 X41.525 Y6.266 E50.94203
G0 F3600 X41.808 Y5.983
G1 F1200 X-13.688 Y-49.533 E54.07503
G1 X-14.663 Y-50.777 E54.13811
G1 X-15.407 Y-52.554 E54.215
G1 X-15.713 Y-54.454 E54.29181
G1 X-15.44 Y-56.663 E54.38065
G1 X-14.58 Y-58.557 E54.46367
G1 X-13.54 Y-59.839 E54.52956
G1 X2.603 Y-75.935 E55.43941
G1 X3.521 Y-76.636 E55.48551
G1 X5.241 Y-77.431 E55.56114
G1 X7.296 Y-77.766 E55.64424
G1 X9.481 Y-77.496 E55.73211
G1 X11.417 Y-76.645 E55.81652
G1 X12.772 Y-75.517 E55.88689
G1 X53.937 Y-34.355 E58.21033
G1 X54.443 Y-34.097 E58.233
G1 X60.45 Y-28.083 E58.57226
G1 X60.752 Y-27.532 E58.59734
G1 X68.319 Y-19.927 E59.02553
G1 X69.075 Y-18.975 E59.07405
G1 X69.901 Y-17.189 E59.15258
G1 X70.236 Y-15.136 E59.23561
G1 X69.964 Y-12.924 E59.32456
G1 X69.128 Y-11.061 E59.40606
G1 X68.235 Y-9.935 E59.46342
G1 X52.032 Y6.257 E60.37767
G1 X51.007 Y7.06 E60.42964
G1 X49.258 Y7.855 E60.50632
G1 X47.218 Y8.183 E60.58879
G1 X45.015 Y7.91 E60.67739
G1 X43.121 Y7.05 E60.76041
G1 X41.808 Y5.983 E60.82794
G0 F3600 X42.091 Y5.7
G1 F1200 X-13.373 Y-49.78 E63.95901
G1 X-14.315 Y-50.982 E64.01997
G1 X-15.02 Y-52.665 E64.09279
G1 X-15.309 Y-54.462 E64.16544
G1 X-15.051 Y-56.553 E64.24953
G1 X-14.237 Y-58.344 E64.32805
G1 X-13.229 Y-59.587 E64.39192
G1 X2.846 Y-75.617 E65.29799
G1 X3.73 Y-76.292 E65.34238
G1 X5.359 Y-77.045 E65.41401
G1 X7.304 Y-77.362 E65.49267
G1 X9.374 Y-77.106 E65.57591
G1 X11.202 Y-76.303 E65.6556
G1 X12.489 Y-75.234 E65.72238
G1 X53.698 Y-34.028 E68.04831
G1 X54.204 Y-33.77 E68.07098
G1 X60.127 Y-27.84 E68.40549
G1 X60.427 Y-27.292 E68.43043
G1 X68.006 Y-19.678 E68.85921
G1 X68.732 Y-18.764 E68.9058
G1 X69.515 Y-17.071 E68.98024
G1 X69.832 Y-15.128 E69.05882
G1 X69.574 Y-13.033 E69.14307
G1 X68.783 Y-11.27 E69.22019
G1 X67.952 Y-10.218 E69.2737
G1 X51.785 Y5.942 E70.18603
G1 X50.796 Y6.717 E70.23618
G1 X49.143 Y7.468 E70.30865
G1 X47.21 Y7.779 E70.38679
G1 X45.125 Y7.521 E70.47064
G1 X43.334 Y6.707 E70.54916
G1 X42.091 Y5.7 E70.61301
G0 F3600 X42.374 Y5.417
G1 F1200 X-13.058 Y-50.027 E73.74217
G1 X-13.967 Y-51.187 E73.80099
G1 X-14.633 Y-52.777 E73.86979
G1 X-14.905 Y-54.469 E73.93819
G1 X-14.661 Y-56.444 E74.01762
G1 X-13.894 Y-58.132 E74.09162
G1 X-12.947 Y-59.304 E74.15175
G1 X3.089 Y-75.299 E75.05574
G1 X3.939 Y-75.948 E75.09842
G1 X5.477 Y-76.659 E75.16605
G1 X7.312 Y-76.958 E75.24025
G1 X9.267 Y-76.716 E75.31888
G1 X10.99 Y-75.96 E75.39398
G1 X12.206 Y-74.951 E75.45704
G1 X53.459 Y-33.701 E77.78545
G1 X53.965 Y-33.443 E77.80812
G1 X59.804 Y-27.597 E78.1379
G1 X60.103 Y-27.052 E78.16271
G1 X67.693 Y-19.429 E78.59205
G1 X68.389 Y-18.553 E78.63671
G1 X69.129 Y-16.953 E78.70707
G1 X69.428 Y-15.12 E78.78119
G1 X69.184 Y-13.142 E78.86074
G1 X68.437 Y-11.477 E78.93357
G1 X67.669 Y-10.501 E78.98314
G1 X51.538 Y5.627 E79.89356
G1 X50.586 Y6.373 E79.94183
G1 X49.026 Y7.082 E80.01023
G1 X47.203 Y7.375 E80.08392
G1 X45.234 Y7.131 E80.16311
G1 X43.546 Y6.364 E80.23711
G1 X42.374 Y5.417 E80.29725
G0 F3600 X42.657 Y5.134
G1 F1200 X-12.743 Y-50.274 E83.42449
G1 X-13.619 Y-51.392 E83.48118
G1 X-14.246 Y-52.889 E83.54595
G1 X-14.501 Y-54.476 E83.61011
G1 X-14.271 Y-56.335 E83.68487
G1 X-13.552 Y-57.918 E83.75426
G1 X-12.664 Y-59.021 E83.81078
G1 X3.332 Y-74.981 E84.71265
G1 X4.148 Y-75.604 E84.75362
G1 X5.595 Y-76.273 E84.81725
G1 X7.32 Y-76.554 E84.887
G1 X9.16 Y-76.326 E84.961
G1 X10.778 Y-75.616 E85.03153
G1 X11.923 Y-74.668 E85.09086
G1 X53.22 Y-33.374 E87.42175
G1 X53.726 Y-33.116 E87.44442
G1 X59.481 Y-27.354 E87.76946
G1 X59.778 Y-26.812 E87.79412
G1 X67.38 Y-19.18 E88.22406
G1 X68.046 Y-18.342 E88.26678
G1 X68.743 Y-16.835 E88.33305
G1 X69.024 Y-15.112 E88.40273
G1 X68.794 Y-13.251 E88.47757
G1 X68.092 Y-11.686 E88.54603
G1 X67.386 Y-10.784 E88.59175
G1 X51.291 Y5.312 E89.50025
G1 X50.376 Y6.029 E89.54664
G1 X48.909 Y6.696 E89.61096
G1 X47.196 Y6.971 E89.68021
G1 X45.343 Y6.741 E89.75473
G1 X43.76 Y6.022 E89.82413
G1 X42.657 Y5.134 E89.88064
G0 F3600 X42.94 Y4.851
G1 F1200 X-12.428 Y-50.521 E93.00596
G1 X-13.272 Y-51.598 E93.06058
G1 X-13.858 Y-52.998 E93.12115
G1 X-14.097 Y-54.484 E93.18122
G1 X-13.881 Y-56.226 E93.25128
G1 X-13.209 Y-57.706 E93.31616
G1 X-12.381 Y-58.738 E93.36896
G1 X3.575 Y-74.663 E94.26872
G1 X4.357 Y-75.26 E94.30798
G1 X5.713 Y-75.887 E94.36761
G1 X7.328 Y-76.15 E94.43292
G1 X9.053 Y-75.936 E94.50229
G1 X10.566 Y-75.272 E94.56824
G1 X11.64 Y-74.385 E94.62383
G1 X52.981 Y-33.047 E96.95721
G1 X53.487 Y-32.789 E96.97988
G1 X59.158 Y-27.111 E97.30018
G1 X59.453 Y-26.572 E97.3247
G1 X67.067 Y-18.931 E97.75523
G1 X67.703 Y-18.131 E97.79602
G1 X68.357 Y-16.717 E97.8582
G1 X68.62 Y-15.104 E97.92343
G1 X68.404 Y-13.36 E97.99357
G1 X67.746 Y-11.892 E98.05778
G1 X67.103 Y-11.067 E98.09952
G1 X51.044 Y4.997 E99.0061
G1 X50.165 Y5.686 E99.05068
G1 X48.794 Y6.309 E99.11078
G1 X47.189 Y6.567 E99.17566
G1 X45.452 Y6.351 E99.24553
G1 X43.972 Y5.679 E99.3104
G1 X42.94 Y4.851 E99.36321
G0 F3600 X43.223 Y4.568
G1 F1200 X-12.113 Y-50.768 E102.48661
G1 X-12.925 Y-51.804 E102.53915
G1 X-13.47 Y-53.107 E102.59552
G1 X-13.693 Y-54.492 E102.65151
G1 X-13.492 Y-56.116 E102.71682
G1 X-12.866 Y-57.493 E102.77719
G1 X-12.098 Y-58.455 E102.82632
G1 X3.818 Y-74.345 E103.72396
G1 X4.566 Y-74.916 E103.76152
G1 X5.831 Y-75.501 E103.81714
G1 X7.336 Y-75.746 E103.878
G1 X8.946 Y-75.546 E103.94275
G1 X10.354 Y-74.928 E104.00412
G1 X11.357 Y-74.102 E104.05598
G1 X52.742 Y-32.72 E106.39185
G1 X53.248 Y-32.462 E106.41452
G1 X58.835 Y-26.868 E106.73007
G1 X59.128 Y-26.332 E106.75445
G1 X66.754 Y-18.682 E107.18557
G1 X67.36 Y-17.92 E107.22443
G1 X67.971 Y-16.599 E107.28252
G1 X68.216 Y-15.096 E107.3433
G1 X68.014 Y-13.469 E107.40874
G1 X67.401 Y-12.101 E107.46857
G1 X66.787 Y-11.313 E107.50844
G1 X50.797 Y4.682 E108.41112
G1 X49.955 Y5.342 E108.45382
G1 X48.677 Y5.923 E108.50985
G1 X47.182 Y6.163 E108.57029
G1 X45.562 Y5.962 E108.63544
G1 X44.185 Y5.336 E108.69581
G1 X43.223 Y4.568 E108.74494
G0 F3600 X43.506 Y4.285
G1 F1200 X-11.798 Y-51.015 E111.86643
G1 X-12.578 Y-52.01 E111.91689
G1 X-13.083 Y-53.217 E111.96911
G1 X-13.289 Y-54.499 E112.02093
G1 X-13.102 Y-56.007 E112.08158
G1 X-12.523 Y-57.281 E112.13743
G1 X-11.815 Y-58.172 E112.18285
G1 X4.061 Y-74.027 E113.07837
G1 X4.775 Y-74.572 E113.11422
G1 X5.949 Y-75.115 E113.16585
G1 X7.344 Y-75.342 E113.22226
G1 X8.839 Y-75.156 E113.28239
G1 X10.142 Y-74.584 E113.33918
G1 X11.074 Y-73.819 E113.38731
G1 X52.503 Y-32.393 E115.72565
G1 X53.009 Y-32.135 E115.74832
G1 X58.512 Y-26.625 E116.05913
G1 X58.804 Y-26.092 E116.08339
G1 X66.441 Y-18.433 E116.51508
G1 X67.017 Y-17.709 E116.552
G1 X67.585 Y-16.481 E116.606
G1 X67.812 Y-15.088 E116.66234
G1 X67.624 Y-13.577 E116.72311
G1 X67.057 Y-12.311 E116.77847
G1 X66.471 Y-11.559 E116.81652
G1 X50.55 Y4.367 E117.71531
G1 X49.744 Y4.999 E117.75619
G1 X48.562 Y5.536 E117.80801
G1 X47.175 Y5.759 E117.86408
G1 X45.671 Y5.572 E117.92457
G1 X44.397 Y4.993 E117.98042
G1 X43.506 Y4.285 E118.02584
G0 F3600 X43.789 Y4.002
G1 F1200 X-11.483 Y-51.262 E121.14541
G1 X-12.231 Y-52.216 E121.19379
G1 X-12.695 Y-53.326 E121.24181
G1 X-12.885 Y-54.507 E121.28955
G1 X-12.712 Y-55.898 E121.3455
G1 X-12.18 Y-57.069 E121.39683
G1 X-11.532 Y-57.889 E121.43855
G1 X4.304 Y-73.709 E122.33195
G1 X4.984 Y-74.228 E122.36609
G1 X6.067 Y-74.729 E122.41372
G1 X7.352 Y-74.938 E122.46568
G1 X8.732 Y-74.766 E122.52118
G1 X9.93 Y-74.24 E122.5734
G1 X10.791 Y-73.536 E122.61779
G1 X52.264 Y-32.066 E124.95862
G1 X52.77 Y-31.808 E124.98129
G1 X58.189 Y-26.382 E125.28736
G1 X58.481 Y-25.849 E125.31162
G1 X66.128 Y-18.184 E125.74376
G1 X66.674 Y-17.498 E125.77875
G1 X67.199 Y-16.363 E125.82866
G1 X67.408 Y-15.08 E125.88054
G1 X67.234 Y-13.685 E125.93665
G1 X66.713 Y-12.521 E125.98755
G1 X66.155 Y-11.805 E126.02378
G1 X50.303 Y4.052 E126.91868
G1 X49.534 Y4.655 E126.95768
G1 X48.445 Y5.15 E127.00543
G1 X47.168 Y5.355 E127.05705
G1 X45.78 Y5.182 E127.11287
G1 X44.609 Y4.65 E127.16421
G1 X43.789 Y4.002 E127.20592
G0 F3600 X44.072 Y3.719
G1 F1200 X-11.2 Y-51.545 E130.32549
G1 X-11.883 Y-52.42 E130.36979
G1 X-12.307 Y-53.435 E130.41369
G1 X-12.481 Y-54.515 E130.45735
G1 X-12.323 Y-55.788 E130.50855
G1 X-11.835 Y-56.861 E130.5556
G1 X-11.249 Y-57.606 E130.59343
G1 X4.547 Y-73.391 E131.48471
G1 X5.193 Y-73.884 E131.51715
G1 X6.185 Y-74.343 E131.56077
G1 X7.36 Y-74.534 E131.60828
G1 X8.626 Y-74.376 E131.6592
G1 X9.718 Y-73.896 E131.70681
G1 X10.508 Y-73.253 E131.74747
G1 X52.025 Y-31.739 E134.09078
G1 X52.531 Y-31.481 E134.11345
G1 X57.866 Y-26.139 E134.41478
G1 X58.158 Y-25.606 E134.43904
G1 X65.815 Y-17.935 E134.87163
G1 X66.331 Y-17.287 E134.90469
G1 X66.813 Y-16.245 E134.95051
G1 X67.004 Y-15.072 E134.99794
G1 X66.845 Y-13.794 E135.04934
G1 X66.368 Y-12.73 E135.09588
G1 X65.839 Y-12.051 E135.13024
G1 X50.056 Y3.737 E136.02124
G1 X49.324 Y4.311 E136.05837
G1 X48.328 Y4.764 E136.10204
G1 X47.161 Y4.951 E136.14921
G1 X45.89 Y4.793 E136.20033
G1 X44.817 Y4.305 E136.24737
G1 X44.072 Y3.719 E136.2852
G0 F3600 X44.355 Y3.436
G1 F1200 X-10.917 Y-51.828 E139.40477
G1 X-11.535 Y-52.624 E139.44499
G1 X-11.92 Y-53.545 E139.48483
G1 X-12.077 Y-54.522 E139.52433
G1 X-11.933 Y-55.679 E139.57086
G1 X-11.491 Y-56.652 E139.61351
G1 X-10.966 Y-57.323 E139.64752
G1 X4.79 Y-73.073 E140.53669
G1 X5.402 Y-73.54 E140.56741
G1 X6.303 Y-73.957 E140.60704
G1 X7.368 Y-74.13 E140.6501
G1 X8.519 Y-73.986 E140.6964
G1 X9.506 Y-73.552 E140.73943
G1 X10.225 Y-72.97 E140.77635
G1 X51.786 Y-31.412 E143.12215
G1 X52.292 Y-31.154 E143.14482
G1 X57.543 Y-25.896 E143.44141
G1 X57.835 Y-25.363 E143.46566
G1 X65.532 Y-17.652 E143.90051
G1 X65.987 Y-17.078 E143.92974
G1 X66.427 Y-16.127 E143.97157
G1 X66.6 Y-15.064 E144.01455
G1 X66.455 Y-13.903 E144.06125
G1 X66.023 Y-12.939 E144.10341
G1 X65.523 Y-12.297 E144.13589
G1 X49.809 Y3.422 E145.023
G1 X49.113 Y3.968 E145.0583
G1 X48.213 Y4.377 E145.09776
