;FLAVOR:Marlin
;TIME:6870
;Filament used: 8.71122m
;Layer height: 0.12
;MINX:-55.38
;MINY:-65.96
;MINZ:0.5
;MAXX:56.016
;MAXY:63.436
;MAXZ:4.94
;TARGET_MACHINE.NAME:Unknown
;Generated with Cura_SteamEngine 5.11.0
M140 S50
M105
M190 S50
M104 S230
M105
M109 S230
;FLAVOR:Marlin
M82 ;absolute extrusion mode
G21
G90
M82
M107 T0
G28
G92 E0
G0 E3 F200
G92 E0 ; reset extrusion distance
M106 S255 ; Enable cooling fan full speed
G1 X-98 Y0 Z0.4 F3000 ; move to arc start
G3 X0 Y-98 I98 Z0.4 E40 F400 ; lay arc stripe 90deg
G92 E0 ; reset extrusion distance
G4 P500 ; wait for 0.5 sec
G0 Z10 E-1 ; Lift 15mm and retract 1mm filament
G4 P2000 ; wait for 5 sec
G0 Z15
M107 ; Disable cooling fan
G1 X0 Y-85 Z4 E0 F3000 ; get off the bed
M82 ;absolute extrusion mode
G92 E0
G92 E0
G1 F1500 E-6.5
;LAYER_COUNT:38
;LAYER:0
M107
G1 F600 Z1.5
G0 F3600 X0.00 Y0.00 Z1.5
G0 X-10.489 Y39.218
;TYPE:SKIRT
G1 F600 Z0.5
G1 F1500 E0
G1 F1800 X-7.931 Y39.816 E0.32765
G1 X-5.126 Y40.276 E0.68218
G1 X-2.517 Y40.53 E1.00913
G1 X0.319 Y40.624 E1.36304
G1 X3.156 Y40.53 E1.71708
G1 X5.765 Y40.276 E2.04403
G1 X8.569 Y39.816 E2.39843
G1 X11.127 Y39.218 E2.72608
G1 X13.688 Y38.444 E3.05978
G1 X16.41 Y37.421 E3.42246
G1 X18.832 Y36.323 E3.75414
G1 X21.28 Y35.008 E4.10073
G1 X23.628 Y33.552 E4.44532
G1 X25.744 Y32.032 E4.77028
G1 X27.989 Y30.19 E5.13248
G1 X29.945 Y28.363 E5.46631
G1 X31.772 Y26.406 E5.80023
G1 X33.537 Y24.258 E6.14699
G1 X35.195 Y21.943 E6.50214
G1 X36.617 Y19.651 E6.83856
G1 X37.898 Y17.263 E7.17655
G1 X39.009 Y14.812 E7.5122
G1 X40.027 Y12.103 E7.87315
G1 X40.8 Y9.545 E8.20644
G1 X41.397 Y6.989 E8.53382
G1 X41.858 Y4.181 E8.88874
G1 X42.113 Y1.566 E9.21644
G1 X42.206 Y-1.263 E9.56948
G1 X42.113 Y-4.098 E9.92327
G1 X41.858 Y-6.702 E10.24961
G1 X41.393 Y-9.526 E10.60658
G1 X40.8 Y-12.073 E10.93275
G1 X40.027 Y-14.629 E11.26581
G1 X39.003 Y-17.353 E11.62877
G1 X37.909 Y-19.766 E11.95922
G1 X36.607 Y-22.189 E12.3023
G1 X35.123 Y-24.581 E12.6534
G1 X33.549 Y-26.785 E12.99119
G1 X31.827 Y-28.877 E13.32915
G1 X29.943 Y-30.892 E13.67321
G1 X28.005 Y-32.702 E14.00395
G1 X25.811 Y-34.504 E14.35807
G1 X23.586 Y-36.097 E14.69938
G1 X21.243 Y-37.553 E15.04344
G1 X18.787 Y-38.871 E15.39109
G1 X16.433 Y-39.938 E15.71344
G1 X13.688 Y-40.969 E16.07917
G1 X11.129 Y-41.743 E16.41262
G1 X8.573 Y-42.339 E16.73997
G1 X5.762 Y-42.801 E17.09528
G1 X3.15 Y-43.056 E17.42261
G1 X0.319 Y-43.15 E17.7759
G1 X-2.511 Y-43.056 E18.12907
G1 X-5.126 Y-42.801 E18.45677
G1 X-7.933 Y-42.34 E18.81157
G1 X-10.489 Y-41.743 E19.13895
G1 X-13.05 Y-40.969 E19.47264
G1 X-15.797 Y-39.937 E19.83864
G1 X-18.169 Y-38.862 E20.16345
G1 X-20.611 Y-37.55 E20.50921
G1 X-22.913 Y-36.123 E20.84702
G1 X-25.19 Y-34.491 E21.19643
G1 X-27.345 Y-32.72 E21.54433
G1 X-29.301 Y-30.894 E21.87808
G1 X-31.141 Y-28.924 E22.2143
G1 X-32.964 Y-26.703 E22.57268
G1 X-34.459 Y-24.615 E22.89298
G1 X-35.989 Y-22.155 E23.25431
G1 X-37.286 Y-19.738 E23.59643
G1 X-38.355 Y-17.379 E23.91946
G1 X-39.388 Y-14.629 E24.28585
G1 X-40.161 Y-12.073 E24.61891
G1 X-40.754 Y-9.526 E24.94508
G1 X-41.219 Y-6.702 E25.30205
G1 X-41.475 Y-4.087 E25.62977
G1 X-41.568 Y-1.263 E25.98218
G1 X-41.475 Y1.56 E26.33447
G1 X-41.219 Y4.178 E26.66256
G1 X-40.756 Y6.994 E27.01851
G1 X-40.161 Y9.548 E27.34558
G1 X-39.388 Y12.103 E27.67852
G1 X-38.367 Y14.822 E28.04077
G1 X-37.269 Y17.244 E28.37245
G1 X-35.97 Y19.666 E28.71524
G1 X-34.547 Y21.959 E29.05183
G1 X-32.906 Y24.248 E29.40312
G1 X-31.12 Y26.423 E29.75414
G1 X-29.312 Y28.358 E30.08444
G1 X-27.349 Y30.191 E30.41942
G1 X-25.213 Y31.949 E30.76446
G1 X-22.926 Y33.586 E31.11525
G1 X-20.607 Y35.027 E31.45578
G1 X-18.186 Y36.326 E31.79846
G1 X-15.771 Y37.421 E32.12919
G1 X-13.05 Y38.444 E32.49176
G1 X-10.489 Y39.218 E32.82545
G0 F3600 X-10.647 Y39.797
G1 F1800 X-8.044 Y40.405 E33.15885
G1 X-5.205 Y40.871 E33.51769
G1 X-2.548 Y41.13 E33.85065
G1 X0.319 Y41.225 E34.20844
G1 X3.187 Y41.13 E34.56635
G1 X5.844 Y40.871 E34.89931
G1 X8.682 Y40.405 E35.25802
G1 X11.285 Y39.797 E35.59142
G1 X13.888 Y39.01 E35.9306
G1 X16.631 Y37.979 E36.29609
G1 X19.108 Y36.856 E36.6353
G1 X21.574 Y35.532 E36.9844
G1 X23.959 Y34.053 E37.33443
G1 X26.118 Y32.502 E37.66599
G1 X28.388 Y30.639 E38.03226
G1 X30.37 Y28.788 E38.37051
G1 X32.221 Y26.806 E38.70876
G1 X34.009 Y24.629 E39.06012
G1 X35.689 Y22.284 E39.41992
G1 X37.141 Y19.945 E39.76329
G1 X38.431 Y17.539 E40.10379
G1 X39.567 Y15.033 E40.44697
G1 X40.593 Y12.303 E40.81073
G1 X41.379 Y9.703 E41.14951
G1 X41.986 Y7.102 E41.48263
G1 X42.453 Y4.26 E41.84186
G1 X42.713 Y1.597 E42.17558
G1 X42.807 Y-1.263 E42.53249
G1 X42.713 Y-4.129 E42.89014
G1 X42.453 Y-6.784 E43.22287
G1 X41.983 Y-9.636 E43.58339
G1 X41.379 Y-12.23 E43.91558
G1 X40.593 Y-14.829 E44.25424
G1 X39.561 Y-17.574 E44.62001
G1 X38.442 Y-20.042 E44.958
G1 X37.131 Y-22.483 E45.30358
G1 X35.623 Y-24.914 E45.66039
G1 X34.028 Y-27.146 E46.00255
G1 X32.274 Y-29.277 E46.3468
G1 X30.367 Y-31.317 E46.6951
G1 X28.396 Y-33.158 E47.03149
G1 X26.182 Y-34.977 E47.38888
G1 X23.913 Y-36.601 E47.7369
G1 X21.545 Y-38.072 E48.0846
G1 X19.063 Y-39.404 E48.43593
G1 X16.654 Y-40.496 E48.76582
G1 X13.888 Y-41.535 E49.13435
G1 X11.287 Y-42.322 E49.47328
G1 X8.686 Y-42.928 E49.80638
G1 X5.841 Y-43.396 E50.166
G1 X3.181 Y-43.656 E50.49935
G1 X0.319 Y-43.751 E50.85651
G1 X-2.542 Y-43.656 E51.21354
G1 X-5.205 Y-43.396 E51.54727
G1 X-8.046 Y-42.929 E51.90637
G1 X-10.647 Y-42.322 E52.2395
G1 X-13.25 Y-41.535 E52.57867
G1 X-16.018 Y-40.495 E52.94747
G1 X-18.445 Y-39.395 E53.27982
G1 X-20.905 Y-38.074 E53.62809
G1 X-23.246 Y-36.622 E53.97167
G1 X-25.561 Y-34.963 E54.3269
G1 X-27.736 Y-33.176 E54.678
G1 X-29.725 Y-31.319 E55.01739
G1 X-31.597 Y-29.315 E55.35943
G1 X-33.436 Y-27.074 E55.72101
G1 X-34.963 Y-24.942 E56.04809
G1 X-36.508 Y-22.457 E56.41306
G1 X-37.819 Y-20.014 E56.75886
G1 X-38.913 Y-17.6 E57.08942
G1 X-39.954 Y-14.829 E57.45862
G1 X-40.74 Y-12.23 E57.79728
G1 X-41.344 Y-9.636 E58.12948
G1 X-41.814 Y-6.784 E58.48999
G1 X-42.075 Y-4.118 E58.8241
G1 X-42.169 Y-1.263 E59.18038
G1 X-42.075 Y1.591 E59.53654
G1 X-41.814 Y4.257 E59.87065
G1 X-41.345 Y7.107 E60.2309
G1 X-40.74 Y9.705 E60.56361
G1 X-39.954 Y12.303 E60.90215
G1 X-38.925 Y15.043 E61.2672
G1 X-37.805 Y17.513 E61.60547
G1 X-36.486 Y19.974 E61.95372
G1 X-35.046 Y22.293 E62.29419
G1 X-33.384 Y24.612 E62.65004
G1 X-31.576 Y26.814 E63.0054
G1 X-29.736 Y28.783 E63.34152
G1 X-27.749 Y30.639 E63.68065
G1 X-25.574 Y32.428 E64.03191
G1 X-23.253 Y34.09 E64.38796
G1 X-20.909 Y35.546 E64.73213
G1 X-18.45 Y36.866 E65.08022
G1 X-16.005 Y37.974 E65.41503
G1 X-13.25 Y39.01 E65.78214
G1 X-10.647 Y39.797 E66.12132
G0 F3600 X-10.805 Y40.376
G1 F1800 X-8.157 Y40.994 E66.46046
G1 X-5.284 Y41.466 E66.8236
G1 X-2.579 Y41.73 E67.16259
G1 X0.319 Y41.826 E67.52424
G1 X3.218 Y41.73 E67.88602
G1 X5.923 Y41.466 E68.22501
G1 X8.795 Y40.994 E68.58802
G1 X11.443 Y40.376 E68.92717
G1 X14.088 Y39.576 E69.27183
G1 X16.852 Y38.537 E69.64012
G1 X19.384 Y37.389 E69.98687
G1 X21.868 Y36.056 E70.33848
G1 X24.289 Y34.554 E70.69383
G1 X26.492 Y32.972 E71.03211
G1 X28.779 Y31.095 E71.40113
G1 X30.795 Y29.213 E71.74511
G1 X32.677 Y27.197 E72.0891
G1 X34.487 Y24.993 E72.44481
G1 X36.184 Y22.625 E72.80817
G1 X37.661 Y20.246 E73.15743
G1 X38.974 Y17.796 E73.50412
G1 X40.12 Y15.267 E73.85043
G1 X41.159 Y12.503 E74.21872
G1 X41.958 Y9.861 E74.56299
G1 X42.575 Y7.215 E74.90186
G1 X43.048 Y4.339 E75.26539
G1 X43.313 Y1.628 E75.60513
G1 X43.408 Y-1.263 E75.96591
G1 X43.313 Y-4.16 E76.32743
G1 X43.048 Y-6.866 E76.66656
G1 X42.573 Y-9.747 E77.03074
G1 X41.958 Y-12.387 E77.36883
G1 X41.159 Y-15.029 E77.7131
G1 X40.119 Y-17.795 E78.08167
G1 X38.975 Y-20.318 E78.42719
G1 X37.655 Y-22.777 E78.77528
G1 X36.123 Y-25.247 E79.1378
G1 X34.507 Y-27.507 E79.48433
G1 X32.721 Y-29.677 E79.83487
G1 X30.791 Y-31.742 E80.1874
G1 X28.787 Y-33.614 E80.52944
G1 X26.553 Y-35.449 E80.89003
G1 X24.24 Y-37.105 E81.24483
G1 X21.847 Y-38.591 E81.59617
G1 X19.339 Y-39.937 E81.95118
G1 X16.875 Y-41.054 E82.28861
G1 X14.088 Y-42.101 E82.65994
G1 X11.444 Y-42.901 E83.00448
G1 X8.799 Y-43.517 E83.3432
G1 X5.92 Y-43.991 E83.70712
G1 X3.212 Y-44.256 E84.04649
G1 X0.319 Y-44.352 E84.40752
G1 X-2.573 Y-44.256 E84.76843
G1 X-5.284 Y-43.991 E85.10817
G1 X-8.159 Y-43.518 E85.47158
G1 X-10.805 Y-42.901 E85.81045
G1 X-13.45 Y-42.101 E86.15511
G1 X-16.239 Y-41.053 E86.52672
G1 X-18.721 Y-39.928 E86.8666
G1 X-21.199 Y-38.598 E87.21738
G1 X-23.579 Y-37.121 E87.56674
G1 X-25.932 Y-35.435 E87.92778
G1 X-28.127 Y-33.632 E88.28207
G1 X-30.149 Y-31.744 E88.62711
G1 X-32.053 Y-29.706 E88.97498
G1 X-33.909 Y-27.445 E89.33983
G1 X-35.467 Y-25.269 E89.67362
G1 X-37.027 Y-22.759 E90.04222
G1 X-38.352 Y-20.29 E90.39171
G1 X-39.471 Y-17.821 E90.72981
G1 X-40.52 Y-15.029 E91.10181
G1 X-41.319 Y-12.387 E91.44608
G1 X-41.934 Y-9.747 E91.78417
G1 X-42.409 Y-6.866 E92.14835
G1 X-42.675 Y-4.149 E92.48885
G1 X-42.77 Y-1.263 E92.84901
G1 X-42.675 Y1.622 E93.20903
G1 X-42.409 Y4.339 E93.54953
G1 X-41.935 Y7.217 E93.91333
G1 X-41.319 Y9.862 E94.25206
G1 X-40.52 Y12.503 E94.5962
G1 X-39.483 Y15.264 E94.96406
G1 X-38.335 Y17.796 E95.31081
G1 X-37.009 Y20.268 E95.66068
G1 X-35.545 Y22.626 E96.00686
G1 X-33.854 Y24.986 E96.36897
G1 X-32.032 Y27.205 E96.72708
G1 X-30.16 Y29.208 E97.06903
G1 X-28.149 Y31.087 E97.4123
G1 X-25.935 Y32.907 E97.76977
G1 X-23.58 Y34.594 E98.13109
G1 X-21.21 Y36.066 E98.47906
G1 X-18.726 Y37.399 E98.83067
G1 X-16.226 Y38.532 E99.17301
G1 X-13.45 Y39.576 E99.54293
G1 X-10.805 Y40.376 E99.88759
G0 F3600 X-10.963 Y40.955
G1 F1800 X-8.27 Y41.583 E100.23248
G1 X-5.363 Y42.061 E100.59993
G1 X-2.61 Y42.33 E100.94494
G1 X0.319 Y42.427 E101.31046
G1 X3.249 Y42.33 E101.6761
G1 X6.002 Y42.061 E102.02111
G1 X8.908 Y41.583 E102.38843
G1 X11.601 Y40.955 E102.73333
G1 X14.288 Y40.142 E103.08347
G1 X17.086 Y39.09 E103.4563
G1 X19.648 Y37.929 E103.80713
G1 X22.162 Y36.58 E104.16298
G1 X24.62 Y35.055 E104.52377
G1 X26.866 Y33.442 E104.86866
G1 X29.17 Y31.551 E105.24042
G1 X31.219 Y29.637 E105.59014
G1 X33.133 Y27.588 E105.93985
G1 X34.965 Y25.357 E106.29991
G1 X36.679 Y22.966 E106.66684
G1 X38.179 Y20.549 E107.02164
G1 X39.51 Y18.065 E107.37313
G1 X40.678 Y15.488 E107.72602
G1 X41.725 Y12.703 E108.09711
G1 X42.537 Y10.019 E108.44686
G1 X43.164 Y7.328 E108.79149
G1 X43.643 Y4.418 E109.15932
G1 X43.913 Y1.659 E109.50509
G1 X44.009 Y-1.263 E109.86973
G1 X43.913 Y-4.191 E110.23512
G1 X43.643 Y-6.948 E110.58064
G1 X43.163 Y-9.858 E110.94849
G1 X42.537 Y-12.545 E111.2926
G1 X41.725 Y-15.229 E111.64235
G1 X40.672 Y-18.029 E112.01546
G1 X39.516 Y-20.58 E112.36478
G1 X38.179 Y-23.07 E112.71729
G1 X36.623 Y-25.579 E113.08552
G1 X34.986 Y-27.868 E113.43651
G1 X33.168 Y-30.077 E113.79334
G1 X31.215 Y-32.166 E114.15002
G1 X29.178 Y-34.07 E114.49779
G1 X26.924 Y-35.921 E114.86157
G1 X24.567 Y-37.609 E115.22316
G1 X22.153 Y-39.108 E115.57758
G1 X19.603 Y-40.477 E115.93856
G1 X17.109 Y-41.607 E116.28007
G1 X14.288 Y-42.667 E116.65594
G1 X11.601 Y-43.48 E117.00608
G1 X8.909 Y-44.107 E117.35083
G1 X6.002 Y-44.586 E117.71829
G1 X3.243 Y-44.856 E118.06405
G1 X0.319 Y-44.953 E118.42895
G1 X-2.604 Y-44.856 E118.79373
G1 X-5.363 Y-44.586 E119.13949
G1 X-8.272 Y-44.107 E119.5072
G1 X-10.963 Y-43.48 E119.85183
G1 X-13.65 Y-42.667 E120.20197
G1 X-16.46 Y-41.611 E120.57638
G1 X-18.997 Y-40.461 E120.9238
G1 X-21.496 Y-39.12 E121.27753
G1 X-23.914 Y-37.619 E121.6325
G1 X-26.303 Y-35.907 E121.99908
G1 X-28.518 Y-34.088 E122.35656
G1 X-30.581 Y-32.162 E122.70858
G1 X-32.502 Y-30.105 E123.05962
G1 X-34.381 Y-27.816 E123.42899
G1 X-35.971 Y-25.596 E123.76957
G1 X-37.546 Y-23.061 E124.1418
G1 X-38.885 Y-20.566 E124.49498
G1 X-40.029 Y-18.042 E124.84061
G1 X-41.086 Y-15.229 E125.21541
G1 X-41.898 Y-12.545 E125.56516
G1 X-42.524 Y-9.858 E125.90927
G1 X-43.004 Y-6.948 E126.27713
G1 X-43.275 Y-4.18 E126.62402
G1 X-43.371 Y-1.263 E126.98804
G1 X-43.275 Y1.653 E127.35194
G1 X-43.004 Y4.421 E127.69883
G1 X-42.525 Y7.327 E128.06617
G1 X-41.898 Y10.019 E128.41092
G1 X-41.086 Y12.703 E128.76067
G1 X-40.036 Y15.498 E129.13306
G1 X-38.875 Y18.06 E129.48389
G1 X-37.532 Y20.562 E129.83807
G1 X-36.044 Y22.959 E130.18996
G1 X-34.326 Y25.357 E130.55788
G1 X-32.488 Y27.596 E130.91919
G1 X-30.584 Y29.633 E131.26696
G1 X-28.54 Y31.543 E131.61588
G1 X-26.306 Y33.379 E131.97654
G1 X-23.907 Y35.098 E132.34464
G1 X-21.512 Y36.586 E132.69632
G1 X-19.002 Y37.932 E133.05156
G1 X-16.447 Y39.09 E133.40143
G1 X-13.65 Y40.142 E133.77415
G1 X-10.963 Y40.955 E134.12429
G0 F3600 X-11.121 Y41.534
G1 F1800 X-8.383 Y42.172 E134.47494
G1 X-5.442 Y42.656 E134.84669
G1 X-2.641 Y42.93 E135.19771
G1 X0.319 Y43.028 E135.5671
G1 X3.28 Y42.93 E135.93662
G1 X6.081 Y42.656 E136.28764
G1 X9.021 Y42.172 E136.65927
G1 X11.759 Y41.534 E137.00992
G1 X14.488 Y40.708 E137.36554
G1 X17.307 Y39.648 E137.74118
G1 X19.924 Y38.462 E138.09954
G1 X22.456 Y37.104 E138.4579
G1 X24.95 Y35.556 E138.82401
G1 X27.24 Y33.912 E139.17562
G1 X29.561 Y32.007 E139.55013
G1 X31.644 Y30.062 E139.90558
G1 X33.589 Y27.979 E140.26104
G1 X35.443 Y25.721 E140.62544
G1 X37.178 Y23.3 E140.99693
G1 X38.695 Y20.857 E141.3556
G1 X40.046 Y18.334 E141.71256
G1 X41.236 Y15.709 E142.07204
G1 X42.291 Y12.903 E142.44594
G1 X43.116 Y10.177 E142.80117
G1 X43.754 Y7.438 E143.15194
G1 X44.238 Y4.5 E143.52332
G1 X44.513 Y1.69 E143.87547
G1 X44.61 Y-1.263 E144.24398
G1 X44.513 Y-4.222 E144.61325
G1 X44.238 Y-7.03 E144.96515
G1 X43.753 Y-9.969 E145.33668
G1 X43.116 Y-12.703 E145.68681
G1 X42.291 Y-15.429 E146.04204
G1 X41.23 Y-18.25 E146.41795
G1 X40.049 Y-20.856 E146.77481
G1 X38.703 Y-23.364 E147.12982
G1 X37.123 Y-25.912 E147.50376
G1 X35.465 Y-28.229 E147.85912
G1 X33.615 Y-30.477 E148.22224
G1 X31.639 Y-32.59 E148.58307
G1 X29.569 Y-34.526 E148.93657
G1 X27.298 Y-36.391 E149.3031
G1 X24.894 Y-38.113 E149.67193
G1 X22.455 Y-39.628 E150.03004
G1 X19.879 Y-41.01 E150.39465
G1 X17.333 Y-42.164 E150.7433
G1 X14.488 Y-43.233 E151.12237
G1 X11.759 Y-44.059 E151.47799
G1 X9.02 Y-44.697 E151.82876
G1 X6.084 Y-45.181 E152.1999
G1 X3.274 Y-45.456 E152.55205
G1 X0.319 Y-45.554 E152.92082
G1 X-2.635 Y-45.456 E153.28946
G1 X-5.445 Y-45.181 E153.64161
G1 X-8.382 Y-44.697 E154.01287
G1 X-11.121 Y-44.059 E154.36364
G1 X-13.85 Y-43.233 E154.71927
G1 X-16.681 Y-42.169 E155.09648
G1 X-19.273 Y-40.994 E155.45143
G1 X-21.79 Y-39.644 E155.80767
G1 X-24.255 Y-38.114 E156.16953
G1 X-26.667 Y-36.385 E156.53968
G1 X-28.909 Y-34.544 E156.90151
G1 X-31.005 Y-32.587 E157.25917
G1 X-32.958 Y-30.496 E157.61603
G1 X-34.853 Y-28.187 E157.98859
G1 X-36.479 Y-25.917 E158.33686
G1 X-38.065 Y-23.363 E158.71183
G1 X-39.418 Y-20.842 E159.06869
G1 X-40.587 Y-18.263 E159.42186
G1 X-41.652 Y-15.429 E159.79947
G1 X-42.477 Y-12.703 E160.1547
G1 X-43.114 Y-9.969 E160.50483
G1 X-43.599 Y-7.03 E160.87636
G1 X-43.875 Y-4.211 E161.22964
G1 X-43.972 Y-1.263 E161.59753
G1 X-43.875 Y1.684 E161.96529
G1 X-43.599 Y4.503 E162.31858
G1 X-43.115 Y7.438 E162.68959
G1 X-42.477 Y10.177 E163.04036
G1 X-41.652 Y12.903 E163.39559
G1 X-40.594 Y15.719 E163.77079
G1 X-39.408 Y18.336 E164.12915
G1 X-38.056 Y20.856 E164.48584
G1 X-36.539 Y23.3 E164.84461
G1 X-34.804 Y25.721 E165.21611
G1 X-32.944 Y27.987 E165.58175
G1 X-31.008 Y30.058 E165.93535
G1 X-28.931 Y31.999 E166.28992
G1 X-26.67 Y33.857 E166.65492
G1 X-24.248 Y35.593 E167.02659
G1 X-21.806 Y37.109 E167.38509
G1 X-19.278 Y38.465 E167.74289
G1 X-16.668 Y39.648 E168.1003
G1 X-13.85 Y40.708 E168.47582
G1 X-11.121 Y41.534 E168.83145
G0 F3600 X-11.279 Y42.113
G1 F1800 X-8.493 Y42.762 E169.18824
G1 X-5.524 Y43.251 E169.56354
G1 X-2.672 Y43.53 E169.92095
