;FLAVOR:Marlin
;TIME:6411
;Filament used: 2.25293m
;Layer height: 0.1
;MINX:-48.187
;MINY:-18.012
;MINZ:0.24
;MAXX:77.279
;MAXY:17.988
;MAXZ:35.5
;Generated with Cura_SteamEngine 4.13.1
M140 S50
M105
M190 S50
M104 S210
M105
M109 S210
M82 ;absolute extrusion mode
;FLAVOR:Marlin
M82 ;absolute extrusion mode
G21
G90
M82
M107 T0
G28
G92 E0
G0 E3 F200
G92 E0 ; reset extrusion distance
M106 S255 ; Enable cooling fan full speed
G1 X-98 Y0 Z0.4 F3000 ; move to arc start
G3 X0 Y-98 I98 Z0.4 E40 F400 ; lay arc stripe 90deg
G92 E0 ; reset extrusion distance
G4 P500 ; wait for 0.5 sec
G0 Z10 E-1 ; Lift 15mm and retract 1mm filament
G4 P2000 ; wait for 5 sec
G0 Z15
M107 ; Disable cooling fan
G1 X0 Y-85 Z4 E0 F3000 ; get off the bed
G92 E0
G92 E0
G1 F1500 E-6
;LAYER_COUNT:304
;LAYER:0
M106 S102
G1 F600 Z1.24
G0 F3600 X56.287 Y14.988 Z1.24
;TYPE:SKIRT
G1 F600 Z0.24
G1 F3600 E0.71493
G1 F1200 X56.287 Y-15.012 E2.04721
G1 X56.327 Y-15.5 E2.06895
G1 X56.446 Y-15.975 E2.0907
G1 X56.64 Y-16.424 E2.11242
G1 X56.905 Y-16.836 E2.13418
G1 X57.233 Y-17.199 E2.1559
G1 X57.616 Y-17.504 E2.17765
G1 X58.044 Y-17.742 E2.19939
G1 X58.504 Y-17.908 E2.22111
G1 X59.287 Y-18.012 E2.25619
G1 X62.287 Y-18.012 E2.38942
G1 X62.775 Y-17.972 E2.41116
G1 X63.25 Y-17.853 E2.43291
G1 X63.699 Y-17.659 E2.45463
G1 X64.111 Y-17.394 E2.47639
G1 X64.474 Y-17.066 E2.49811
G1 X64.779 Y-16.683 E2.51986
G1 X65.017 Y-16.255 E2.5416
G1 X65.183 Y-15.795 E2.56332
G1 X65.287 Y-15.038 E2.59726
G1 X65.294 Y-14.17 E2.6358
G1 X65.316 Y-13.378 E2.67099
G1 X65.353 Y-12.599 E2.70562
G1 X65.404 Y-11.876 E2.73781
G1 X65.463 Y-11.266 E2.76503
G1 X65.533 Y-10.711 E2.78987
G1 X65.625 Y-10.138 E2.81564
G1 X65.805 Y-9.277 E2.85471
G1 X66.026 Y-8.542 E2.88879
G1 X66.244 Y-8.018 E2.91399
G1 X66.561 Y-7.479 E2.94176
G1 X66.945 Y-7.078 E2.96642
G1 X67.419 Y-6.806 E2.99069
G1 X67.974 Y-6.635 E3.01648
G1 X68.677 Y-6.536 E3.04801
G1 X69.285 Y-6.512 E3.07503
G1 X74.279 Y-6.512 E3.29681
G1 X74.767 Y-6.472 E3.31856
G1 X75.242 Y-6.353 E3.3403
G1 X75.691 Y-6.159 E3.36202
G1 X76.103 Y-5.894 E3.38378
G1 X76.466 Y-5.566 E3.40551
G1 X76.771 Y-5.183 E3.42725
G1 X77.009 Y-4.755 E3.449
G1 X77.175 Y-4.295 E3.47072
G1 X77.279 Y-3.512 E3.50579
G1 X77.279 Y3.488 E3.81666
G1 X77.239 Y3.976 E3.8384
G1 X77.12 Y4.451 E3.86015
G1 X76.926 Y4.9 E3.88187
G1 X76.661 Y5.312 E3.90363
G1 X76.333 Y5.675 E3.92535
G1 X75.95 Y5.98 E3.9471
G1 X75.522 Y6.218 E3.96884
G1 X75.062 Y6.384 E3.99056
G1 X74.279 Y6.488 E4.02564
G1 X69.28 Y6.488 E4.24764
G1 X68.653 Y6.513 E4.27551
G1 X67.961 Y6.615 E4.30657
G1 X67.409 Y6.787 E4.33225
G1 X66.949 Y7.051 E4.3558
G1 X66.655 Y7.336 E4.37399
G1 X66.362 Y7.767 E4.39713
G1 X66.132 Y8.247 E4.42077
G1 X65.91 Y8.878 E4.45048
G1 X65.708 Y9.683 E4.48733
G1 X65.62 Y10.14 E4.508
G1 X65.533 Y10.69 E4.53273
G1 X65.461 Y11.267 E4.55855
G1 X65.404 Y11.861 E4.58505
G1 X65.352 Y12.593 E4.61764
G1 X65.315 Y13.375 E4.65241
G1 X65.294 Y14.155 E4.68706
G1 X65.286 Y15.018 E4.72539
G1 X65.241 Y15.505 E4.74711
G1 X65.118 Y15.979 E4.76886
G1 X64.919 Y16.426 E4.79059
G1 X64.65 Y16.835 E4.81233
G1 X64.318 Y17.195 E4.83407
G1 X63.932 Y17.496 E4.85581
G1 X63.503 Y17.73 E4.87751
G1 X63.04 Y17.892 E4.8993
G1 X62.286 Y17.988 E4.93305
G1 X59.287 Y17.988 E5.06624
G1 X58.799 Y17.948 E5.08798
G1 X58.324 Y17.829 E5.10973
G1 X57.875 Y17.635 E5.13145
G1 X57.463 Y17.37 E5.1532
G1 X57.1 Y17.042 E5.17493
G1 X56.795 Y16.659 E5.19667
G1 X56.557 Y16.231 E5.21842
G1 X56.391 Y15.771 E5.24014
G1 X56.374 Y15.647 E5.2457
G0 F1080 X56.287 Y14.988
G0 F3600 X56.687 Y14.988
G1 F1200 X56.687 Y-15.012 E6.57798
G1 X56.727 Y-15.466 E6.59822
G1 X56.845 Y-15.906 E6.61845
G1 X57.039 Y-16.318 E6.63868
G1 X57.302 Y-16.691 E6.65894
G1 X57.625 Y-17.012 E6.67917
G1 X58 Y-17.271 E6.69941
G1 X58.414 Y-17.461 E6.71964
G1 X58.855 Y-17.576 E6.73988
G1 X59.287 Y-17.612 E6.75913
G1 X62.287 Y-17.612 E6.89236
G1 X62.741 Y-17.572 E6.9126
G1 X63.181 Y-17.454 E6.93283
G1 X63.593 Y-17.26 E6.95305
G1 X63.966 Y-16.997 E6.97332
G1 X64.287 Y-16.674 E6.99354
G1 X64.546 Y-16.299 E7.01378
G1 X64.736 Y-15.885 E7.03401
G1 X64.851 Y-15.444 E7.05425
G1 X64.887 Y-15.034 E7.07253
G1 X64.895 Y-14.13 E7.11267
G1 X64.917 Y-13.329 E7.14826
G1 X64.952 Y-12.603 E7.18054
G1 X65.005 Y-11.852 E7.21397
G1 X65.064 Y-11.244 E7.2411
G1 X65.141 Y-10.628 E7.26867
G1 X65.227 Y-10.089 E7.29291
G1 X65.324 Y-9.591 E7.31544
G1 X65.536 Y-8.754 E7.35379
G1 X65.762 Y-8.116 E7.38384
G1 X65.999 Y-7.615 E7.40846
G1 X66.352 Y-7.098 E7.43626
G1 X66.71 Y-6.754 E7.45831
G1 X67.112 Y-6.506 E7.47928
G1 X67.643 Y-6.307 E7.50447
G1 X68.362 Y-6.165 E7.53701
G1 X68.958 Y-6.119 E7.56356
G1 X69.329 Y-6.112 E7.58004
G1 X74.279 Y-6.112 E7.79987
G1 X74.733 Y-6.072 E7.82011
G1 X75.173 Y-5.954 E7.84034
G1 X75.585 Y-5.76 E7.86056
G1 X75.958 Y-5.497 E7.88083
G1 X76.279 Y-5.174 E7.90105
G1 X76.538 Y-4.799 E7.92129
G1 X76.728 Y-4.385 E7.94152
G1 X76.843 Y-3.944 E7.96176
G1 X76.879 Y-3.512 E7.98101
G1 X76.879 Y3.488 E8.29188
G1 X76.839 Y3.942 E8.31212
G1 X76.721 Y4.382 E8.33235
G1 X76.527 Y4.794 E8.35257
G1 X76.264 Y5.167 E8.37284
G1 X75.941 Y5.488 E8.39306
G1 X75.566 Y5.747 E8.4133
G1 X75.152 Y5.937 E8.43353
G1 X74.711 Y6.052 E8.45377
G1 X74.279 Y6.088 E8.47302
G1 X69.327 Y6.088 E8.69294
G1 X68.635 Y6.113 E8.72369
G1 X68.092 Y6.181 E8.74799
G1 X67.445 Y6.345 E8.77763
G1 X66.954 Y6.566 E8.80155
G1 X66.587 Y6.832 E8.82168
G1 X66.232 Y7.226 E8.84523
G1 X65.877 Y7.833 E8.87646
G1 X65.64 Y8.413 E8.90428
G1 X65.422 Y9.146 E8.93824
G1 X65.222 Y10.086 E8.98092
G1 X65.14 Y10.61 E9.00448
G1 X65.065 Y11.216 E9.03159
G1 X65.005 Y11.833 E9.05912
G1 X64.951 Y12.6 E9.09327
G1 X64.916 Y13.328 E9.12564
G1 X64.895 Y14.099 E9.15989
G1 X64.886 Y15.014 E9.20053
G1 X64.841 Y15.467 E9.22074
G1 X64.719 Y15.906 E9.24098
G1 X64.521 Y16.316 E9.2612
G1 X64.255 Y16.686 E9.28143
G1 X63.928 Y17.004 E9.30169
G1 X63.551 Y17.259 E9.3219
G1 X63.135 Y17.445 E9.34214
G1 X62.693 Y17.556 E9.36238
G1 X62.286 Y17.588 E9.38051
G1 X59.287 Y17.588 E9.51369
G1 X58.833 Y17.548 E9.53393
G1 X58.393 Y17.43 E9.55416
G1 X57.981 Y17.236 E9.57439
G1 X57.608 Y16.973 E9.59466
G1 X57.287 Y16.65 E9.61488
G1 X57.028 Y16.275 E9.63512
G1 X56.838 Y15.861 E9.65535
G1 X56.781 Y15.644 E9.66531
G0 F1080 X56.723 Y15.42
G0 X56.687 Y14.988
G0 F3600 X57.087 Y14.988
G1 F1200 X57.087 Y-15.012 E10.99759
G1 X57.127 Y-15.429 E11.0162
G1 X57.245 Y-15.831 E11.0348
G1 X57.438 Y-16.203 E11.05342
G1 X57.697 Y-16.532 E11.07201
G1 X58.014 Y-16.806 E11.09062
G1 X58.377 Y-17.015 E11.10922
G1 X58.774 Y-17.151 E11.12786
G1 X59.287 Y-17.212 E11.1508
G1 X62.287 Y-17.212 E11.28403
G1 X62.704 Y-17.172 E11.30263
G1 X63.106 Y-17.054 E11.32124
G1 X63.478 Y-16.861 E11.33985
G1 X63.807 Y-16.602 E11.35844
G1 X64.081 Y-16.285 E11.37705
G1 X64.29 Y-15.922 E11.39565
G1 X64.426 Y-15.525 E11.41429
G1 X64.487 Y-15.031 E11.43639
G1 X64.495 Y-14.116 E11.47703
G1 X64.518 Y-13.299 E11.51333
G1 X64.553 Y-12.575 E11.54552
G1 X64.606 Y-11.822 E11.57904
G1 X64.667 Y-11.192 E11.60715
G1 X64.745 Y-10.576 E11.63472
G1 X64.835 Y-10.011 E11.66013
G1 X64.93 Y-9.516 E11.68252
G1 X65.144 Y-8.671 E11.72123
G1 X65.386 Y-7.979 E11.75378
G1 X65.654 Y-7.413 E11.78159
G1 X66.051 Y-6.833 E11.81281
G1 X66.455 Y-6.445 E11.83768
G1 X66.946 Y-6.142 E11.86331
G1 X67.551 Y-5.917 E11.89197
G1 X68.042 Y-5.808 E11.91431
G1 X68.622 Y-5.737 E11.94026
G1 X69.321 Y-5.712 E11.97132
G1 X74.279 Y-5.712 E12.1915
G1 X74.696 Y-5.672 E12.2101
G1 X75.098 Y-5.554 E12.22871
G1 X75.47 Y-5.361 E12.24732
G1 X75.799 Y-5.102 E12.26592
G1 X76.073 Y-4.785 E12.28452
G1 X76.282 Y-4.422 E12.30313
G1 X76.418 Y-4.025 E12.32176
G1 X76.479 Y-3.512 E12.34471
G1 X76.479 Y3.488 E12.65557
G1 X76.439 Y3.905 E12.67418
G1 X76.321 Y4.307 E12.69278
G1 X76.128 Y4.679 E12.71139
G1 X75.869 Y5.008 E12.72999
G1 X75.552 Y5.282 E12.74859
G1 X75.189 Y5.491 E12.7672
G1 X74.792 Y5.627 E12.78583
G1 X74.279 Y5.688 E12.80878
G1 X69.319 Y5.688 E13.02905
G1 X68.594 Y5.715 E13.06127
G1 X68.019 Y5.788 E13.08701
G1 X67.311 Y5.968 E13.11945
G1 X66.766 Y6.213 E13.14598
G1 X66.322 Y6.532 E13.17026
G1 X65.914 Y6.983 E13.19727
G1 X65.643 Y7.409 E13.21969
G1 X65.394 Y7.935 E13.24554
G1 X65.147 Y8.637 E13.27859
G1 X65.034 Y9.047 E13.29747
G1 X64.919 Y9.545 E13.32017
G1 X64.83 Y10.004 E13.34094
G1 X64.743 Y10.563 E13.36606
G1 X64.67 Y11.144 E13.39206
G1 X64.606 Y11.805 E13.42156
G1 X64.552 Y12.572 E13.4557
G1 X64.517 Y13.291 E13.48767
G1 X64.495 Y14.095 E13.52339
G1 X64.486 Y15.01 E13.56403
G1 X64.442 Y15.426 E13.5826
G1 X64.32 Y15.827 E13.60122
G1 X64.124 Y16.198 E13.61985
G1 X63.861 Y16.524 E13.63845
G1 X63.541 Y16.795 E13.65708
G1 X63.176 Y17 E13.67567
G1 X62.778 Y17.132 E13.69429
G1 X62.286 Y17.188 E13.71628
G1 X59.287 Y17.188 E13.84946
G1 X58.87 Y17.148 E13.86807
G1 X58.468 Y17.03 E13.88667
G1 X58.096 Y16.837 E13.90528
G1 X57.767 Y16.578 E13.92388
G1 X57.493 Y16.261 E13.94249
G1 X57.284 Y15.898 E13.96109
G1 X57.196 Y15.642 E13.97311
G0 F1080 X57.148 Y15.501
G0 X57.087 Y14.988
G0 F3600 X57.487 Y14.988
G1 F1200 X57.487 Y-15.012 E15.30539
G1 X57.527 Y-15.389 E15.32223
G1 X57.645 Y-15.749 E15.33905
G1 X57.835 Y-16.076 E15.35585
G1 X58.09 Y-16.357 E15.3727
G1 X58.399 Y-16.577 E15.38955
G1 X58.746 Y-16.729 E15.40637
G1 X59.287 Y-16.812 E15.43068
G1 X62.287 Y-16.812 E15.5639
G1 X62.664 Y-16.772 E15.58074
G1 X63.024 Y-16.654 E15.59757
G1 X63.351 Y-16.464 E15.61436
G1 X63.632 Y-16.209 E15.63121
G1 X63.852 Y-15.9 E15.64806
G1 X64.004 Y-15.553 E15.66488
G1 X64.087 Y-15.028 E15.68849
G1 X64.095 Y-14.102 E15.72961
G1 X64.117 Y-13.32 E15.76435
G1 X64.154 Y-12.547 E15.79872
G1 X64.207 Y-11.796 E15.83215
G1 X64.27 Y-11.137 E15.86155
G1 X64.348 Y-10.524 E15.889
G1 X64.442 Y-9.933 E15.91557
G1 X64.537 Y-9.441 E15.93783
G1 X64.768 Y-8.531 E15.97952
G1 X65.017 Y-7.825 E16.01277
G1 X65.304 Y-7.218 E16.04258
G1 X65.592 Y-6.771 E16.0662
G1 X66.063 Y-6.25 E16.09739
G1 X66.56 Y-5.894 E16.12454
G1 X67.193 Y-5.609 E16.15537
G1 X67.723 Y-5.461 E16.1798
G1 X68.273 Y-5.37 E16.20456
G1 X68.923 Y-5.32 E16.23351
G1 X69.314 Y-5.312 E16.25088
G1 X74.279 Y-5.312 E16.47137
G1 X74.656 Y-5.272 E16.48821
G1 X75.016 Y-5.154 E16.50503
G1 X75.343 Y-4.964 E16.52183
G1 X75.624 Y-4.709 E16.53868
G1 X75.844 Y-4.4 E16.55553
G1 X75.996 Y-4.053 E16.57235
G1 X76.079 Y-3.512 E16.59666
G1 X76.079 Y3.488 E16.90752
G1 X76.039 Y3.865 E16.92436
G1 X75.921 Y4.225 E16.94118
G1 X75.731 Y4.552 E16.95798
G1 X75.476 Y4.833 E16.97483
G1 X75.167 Y5.053 E16.99168
G1 X74.82 Y5.205 E17.0085
G1 X74.279 Y5.288 E17.03281
G1 X69.312 Y5.288 E17.25339
G1 X68.574 Y5.315 E17.28618
G1 X67.949 Y5.394 E17.31416
G1 X67.419 Y5.515 E17.3383
G1 X66.746 Y5.77 E17.37026
G1 X66.218 Y6.098 E17.39787
G1 X65.738 Y6.56 E17.42746
G1 X65.355 Y7.114 E17.45736
G1 X65.019 Y7.795 E17.49109
G1 X64.766 Y8.513 E17.5249
G1 X64.646 Y8.948 E17.54494
G1 X64.528 Y9.458 E17.56818
G1 X64.437 Y9.933 E17.58966
G1 X64.346 Y10.508 E17.61551
G1 X64.272 Y11.105 E17.64223
G1 X64.207 Y11.776 E17.67217
G1 X64.153 Y12.543 E17.70631
G1 X64.116 Y13.317 E17.74073
G1 X64.095 Y14.091 E17.77511
G1 X64.086 Y15.006 E17.81575
G1 X64.042 Y15.382 E17.83256
G1 X63.921 Y15.741 E17.84938
G1 X63.727 Y16.067 E17.86623
G1 X63.469 Y16.344 E17.88304
G1 X63.159 Y16.562 E17.89987
G1 X62.81 Y16.71 E17.91671
G1 X62.286 Y16.788 E17.94023
G1 X59.287 Y16.788 E18.07342
G1 X58.91 Y16.748 E18.09026
G1 X58.55 Y16.63 E18.10708
G1 X58.223 Y16.44 E18.12387
G1 X57.942 Y16.185 E18.14073
G1 X57.722 Y15.876 E18.15757
G1 X57.617 Y15.637 E18.16916
G0 F1080 X57.57 Y15.529
G0 X57.487 Y14.988
G0 F3600 X57.887 Y14.988
G1 F1200 X57.887 Y-15.012 E19.50145
G1 X57.927 Y-15.344 E19.5163
G1 X58.044 Y-15.656 E19.5311
G1 X58.232 Y-15.933 E19.54596
G1 X58.48 Y-16.156 E19.56078
G1 X58.774 Y-16.315 E19.57562
G1 X59.287 Y-16.412 E19.5988
G1 X62.287 Y-16.412 E19.73203
G1 X62.619 Y-16.372 E19.74688
G1 X62.931 Y-16.255 E19.76168
G1 X63.208 Y-16.067 E19.77655
G1 X63.431 Y-15.819 E19.79136
G1 X63.59 Y-15.525 E19.8062
G1 X63.687 Y-15.024 E19.82887
G1 X63.695 Y-14.098 E19.86999
G1 X63.717 Y-13.301 E19.9054
G1 X63.755 Y-12.519 E19.94017
G1 X63.808 Y-11.769 E19.97356
G1 X63.874 Y-11.078 E20.00438
G1 X63.949 Y-10.485 E20.03093
G1 X64.045 Y-9.884 E20.05796
G1 X64.151 Y-9.337 E20.0827
G1 X64.384 Y-8.419 E20.12476
G1 X64.653 Y-7.655 E20.16073
G1 X64.955 Y-7.024 E20.1918
G1 X65.27 Y-6.533 E20.2177
G1 X65.601 Y-6.139 E20.24056
G1 X65.979 Y-5.801 E20.26308
G1 X66.589 Y-5.425 E20.2949
G1 X67.055 Y-5.233 E20.31728
G1 X67.628 Y-5.072 E20.34371
G1 X68.216 Y-4.974 E20.37019
G1 X68.918 Y-4.919 E20.40146
G1 X69.306 Y-4.912 E20.41869
G1 X74.279 Y-4.912 E20.63954
G1 X74.611 Y-4.872 E20.65439
G1 X74.923 Y-4.755 E20.66919
G1 X75.2 Y-4.567 E20.68406
G1 X75.423 Y-4.319 E20.69887
G1 X75.582 Y-4.025 E20.71371
G1 X75.679 Y-3.512 E20.7369
G1 X75.679 Y3.488 E21.04776
G1 X75.639 Y3.82 E21.06261
G1 X75.522 Y4.132 E21.07741
G1 X75.334 Y4.409 E21.09228
G1 X75.086 Y4.632 E21.10709
G1 X74.792 Y4.791 E21.12193
G1 X74.279 Y4.888 E21.14512
G1 X69.305 Y4.888 E21.36601
G1 X68.533 Y4.917 E21.40032
G1 X67.897 Y4.997 E21.42879
G1 X67.316 Y5.128 E21.45524
G1 X66.804 Y5.305 E21.47929
G1 X66.173 Y5.638 E21.51098
G1 X65.599 Y6.117 E21.54418
G1 X65.265 Y6.514 E21.56722
G1 X64.995 Y6.935 E21.58943
G1 X64.653 Y7.633 E21.62395
G1 X64.381 Y8.404 E21.66026
G1 X64.144 Y9.342 E21.70322
G1 X64.038 Y9.892 E21.7281
G1 X63.95 Y10.458 E21.75353
G1 X63.874 Y11.067 E21.78079
G1 X63.805 Y11.784 E21.81278
G1 X63.754 Y12.515 E21.84532
G1 X63.716 Y13.298 E21.88013
G1 X63.695 Y14.087 E21.91519
G1 X63.686 Y15.002 E21.95582
G1 X63.643 Y15.333 E21.97065
G1 X63.522 Y15.645 E21.98551
G1 X63.332 Y15.919 E22.00031
G1 X63.081 Y16.14 E22.01517
G1 X62.786 Y16.296 E22.02999
G1 X62.286 Y16.388 E22.05256
G1 X59.287 Y16.388 E22.18575
G1 X58.955 Y16.348 E22.2006
G1 X58.643 Y16.231 E22.2154
G1 X58.366 Y16.043 E22.23026
G1 X58.143 Y15.795 E22.24507
G1 X58.052 Y15.626 E22.2536
G0 F1080 X57.984 Y15.501
G0 X57.887 Y14.988
G0 F3600 X58.287 Y14.988
G1 F1200 X58.287 Y-15.012 E23.58588
G1 X58.327 Y-15.291 E23.5984
G1 X58.443 Y-15.548 E23.61092
G1 X58.626 Y-15.763 E23.62346
G1 X58.862 Y-15.917 E23.63597
G1 X59.287 Y-16.012 E23.65531
G1 X62.287 Y-16.012 E23.78854
G1 X62.566 Y-15.972 E23.80106
G1 X62.823 Y-15.856 E23.81358
G1 X63.038 Y-15.673 E23.82612
G1 X63.192 Y-15.437 E23.83863
G1 X63.287 Y-15.021 E23.85758
G1 X63.295 Y-14.114 E23.89787
G1 X63.318 Y-13.282 E23.93483
G1 X63.356 Y-12.491 E23.97
G1 X63.409 Y-11.727 E24.00401
G1 X63.473 Y-11.063 E24.03363
G1 X63.554 Y-10.422 E24.06232
G1 X63.652 Y-9.806 E24.09002
G1 X63.757 Y-9.263 E24.11459
G1 X63.999 Y-8.307 E24.15838
G1 X64.277 Y-7.518 E24.19553
G1 X64.603 Y-6.833 E24.22922
G1 X64.946 Y-6.297 E24.25748
G1 X65.317 Y-5.856 E24.28307
G1 X65.724 Y-5.492 E24.30732
G1 X66.165 Y-5.198 E24.33086
G1 X66.658 Y-4.956 E24.35525
G1 X67.199 Y-4.769 E24.38067
G1 X67.836 Y-4.625 E24.40967
G1 X68.53 Y-4.54 E24.44072
G1 X69.298 Y-4.512 E24.47485
G1 X74.279 Y-4.512 E24.69606
G1 X74.558 Y-4.472 E24.70857
G1 X74.815 Y-4.356 E24.72109
G1 X75.03 Y-4.173 E24.73363
G1 X75.184 Y-3.937 E24.74615
G1 X75.279 Y-3.512 E24.76549
G1 X75.279 Y3.488 E25.07635
G1 X75.239 Y3.767 E25.08887
G1 X75.123 Y4.024 E25.10139
G1 X74.94 Y4.239 E25.11393
G1 X74.704 Y4.393 E25.12645
G1 X74.279 Y4.488 E25.14579
G1 X69.297 Y4.488 E25.36703
G1 X68.515 Y4.517 E25.40179
G1 X67.824 Y4.603 E25.43271
G1 X67.205 Y4.744 E25.4609
G1 X66.656 Y4.934 E25.4867
G1 X66.162 Y5.175 E25.51111
G1 X65.725 Y5.469 E25.5345
G1 X65.322 Y5.828 E25.55847
G1 X64.939 Y6.282 E25.58485
G1 X64.663 Y6.711 E25.6075
G1 X64.284 Y7.477 E25.64546
G1 X63.995 Y8.3 E25.68419
G1 X63.866 Y8.767 E25.70571
