;FLAVOR:Marlin
;TIME:1994
;Filament used: 2.03457m
;Layer height: 0.24
;MINX:-16.486
;MINY:-24.75
;MINZ:0.3
;MAXX:26.486
;MAXY:24.75
;MAXZ:5.1
;Generated with Cura_SteamEngine 4.13.1
M140 S50
M105
M190 S50
M104 S215
M105
M109 S215
M82 ;absolute extrusion mode
;FLAVOR:Marlin
M82 ;absolute extrusion mode
G21
G90
M82
M107 T0
G28
G92 E0
G0 E3 F200
G92 E0 ; reset extrusion distance
M106 S255 ; Enable cooling fan full speed
G1 X-98 Y0 Z0.4 F3000 ; move to arc start
G3 X0 Y-98 I98 Z0.4 E40 F400 ; lay arc stripe 90deg
G92 E0 ; reset extrusion distance
G4 P500 ; wait for 0.5 sec
G0 Z10 E-1 ; Lift 15mm and retract 1mm filament
G4 P2000 ; wait for 5 sec
G0 Z15
M107 ; Disable cooling fan
G1 X0 Y-85 Z4 E0 F3000 ; get off the bed
G92 E0
G92 E0
G1 F1500 E-6.5
;LAYER_COUNT:22
;LAYER:0
M106 S25.5
G1 F600 Z1.3
G0 F3600 X-1.05 Y0.391 Z1.3
;TYPE:SKIRT
G1 F600 Z0.3
G1 F1500 E0.3326
G1 F1200 X-1.176 Y0.057 E0.35513
G1 X-1.387 Y-.248 E0.37854
G1 X-1.656 Y-.483 E0.40108
G1 X-1.966 Y-.646 E0.42318
G1 X-2.315 Y-.733 E0.44588
G1 X-2.604 Y-.75 E0.46415
G1 X-3.172 Y-.735 E0.50001
G1 X-3.546 Y-.642 E0.52434
G1 X-3.841 Y-.485 E0.54543
G1 X-4.113 Y-.248 E0.56819
G1 X-4.326 Y0.06 E0.59183
G1 X-4.451 Y0.393 E0.61428
G1 X-4.5 Y0.848 E0.64316
G1 X-4.499 Y5.269 E0.92217
G1 X-4.03 Y5.322 E0.95196
G1 X-3.533 Y5.425 E0.98399
G1 X-3.226 Y5.516 E1.0042
G1 X-2.719 Y5.718 E1.03864
G1 X-2.192 Y5.995 E1.07622
G1 X-1.571 Y6.452 E1.12488
G1 X-1.268 Y6.735 E1.15104
G1 X-1 Y4.906 E1.26771
G1 X-1 Y0.842 E1.52419
G1 X-1.05 Y0.391 E1.55283
G0 F3600 X-.661 Y0.294
G1 F1200 X-.823 Y-.132 E1.58159
G1 X-1.086 Y-.513 E1.61081
G1 X-1.425 Y-.81 E1.63925
G1 X-1.822 Y-1.02 E1.6676
G1 X-2.276 Y-1.132 E1.69711
G1 X-2.58 Y-1.15 E1.71633
G1 X-3.229 Y-1.132 E1.7573
G1 X-3.684 Y-1.018 E1.78691
G1 X-4.069 Y-.815 E1.81438
G1 X-4.41 Y-.517 E1.84296
G1 X-4.682 Y-.124 E1.87312
G1 X-4.839 Y0.296 E1.90142
G1 X-4.9 Y0.824 E1.93496
G1 X-4.899 Y5.651 E2.2396
G1 X-4.077 Y5.719 E2.29165
G1 X-3.34 Y5.899 E2.33953
G1 X-2.556 Y6.25 E2.39375
G1 X-2.1 Y6.542 E2.42792
G1 X-1.666 Y6.898 E2.46335
G1 X-1.199 Y7.414 E2.50727
G1 X-1.004 Y7.693 E2.52875
G1 X-.6 Y4.93 E2.70498
G1 X-.6 Y0.834 E2.96348
G1 X-.661 Y0.294 E2.99778
G0 F3600 X-.271 Y0.203
G1 F1200 X-.467 Y-.316 E3.03279
G1 X-.782 Y-.773 E3.06782
G1 X-1.207 Y-1.147 E3.10355
G1 X-1.679 Y-1.395 E3.1372
G1 X-2.228 Y-1.529 E3.17287
G1 X-2.572 Y-1.55 E3.19462
G1 X-3.277 Y-1.529 E3.23913
G1 X-3.822 Y-1.394 E3.27457
G1 X-4.296 Y-1.145 E3.30836
G1 X-4.719 Y-.772 E3.34395
G1 X-5.034 Y-.318 E3.37882
G1 X-5.228 Y0.199 E3.41367
G1 X-5.3 Y0.818 E3.453
G1 X-5.299 Y6.05 E3.7832
G1 X-4.543 Y6.067 E3.83092
G1 X-3.761 Y6.192 E3.8809
G1 X-3.081 Y6.431 E3.92639
G1 X-2.603 Y6.681 E3.96044
G1 X-2.069 Y7.078 E4.00243
G1 X-1.503 Y7.675 E4.05435
G1 X-1.072 Y8.355 E4.10516
G1 X-.798 Y9.047 E4.15213
G1 X-.2 Y4.96 E4.41281
G1 X-.2 Y0.825 E4.67378
G1 X-.271 Y0.203 E4.71329
G0 F3600 X0.117 Y0.102
G1 F1200 X-.11 Y-.499 E4.75383
G1 X-.481 Y-1.038 E4.79513
G1 X-.976 Y-1.474 E4.83676
G1 X-1.542 Y-1.771 E4.8771
G1 X-2.173 Y-1.926 E4.91811
G1 X-2.94 Y-1.95 E4.96654
G1 X-3.649 Y-1.867 E5.01159
G1 X-4.254 Y-1.639 E5.05239
G1 X-4.793 Y-1.264 E5.09383
G1 X-5.221 Y-.779 E5.13465
G1 X-5.521 Y-.209 E5.1753
G1 X-5.677 Y0.428 E5.21669
G1 X-5.7 Y0.811 E5.24091
G1 X-5.699 Y6.2 E5.58102
G1 X-5.647 Y6.375 E5.59254
G1 X-5.54 Y6.44 E5.60044
G1 X-5.422 Y6.45 E5.60791
G1 X-4.801 Y6.451 E5.6471
G1 X-4.172 Y6.514 E5.687
G1 X-3.567 Y6.666 E5.72637
G1 X-2.919 Y6.963 E5.77136
G1 X-2.319 Y7.391 E5.81787
G1 X-1.807 Y7.935 E5.86502
G1 X-1.42 Y8.552 E5.91098
G1 X-1.161 Y9.22 E5.9562
G1 X-1.035 Y9.906 E6.00022
G1 X-1.038 Y10.635 E6.04622
G1 X-1.055 Y10.804 E6.05694
G1 X-2.258 Y19.027 E6.58143
G1 X-2.381 Y19.608 E6.61891
G1 X-2.606 Y20.277 E6.66346
G1 X-2.929 Y20.927 E6.70926
G1 X-3.333 Y21.522 E6.75465
G1 X-3.827 Y22.068 E6.80112
G1 X-4.388 Y22.536 E6.84723
G1 X-4.983 Y22.911 E6.89162
G1 X-5.638 Y23.209 E6.93703
G1 X-6.329 Y23.416 E6.98256
G1 X-7.062 Y23.528 E7.02935
G1 X-7.783 Y23.539 E7.07486
G1 X-8.489 Y23.454 E7.11974
G1 X-9.189 Y23.272 E7.16539
G1 X-9.873 Y22.986 E7.21218
G1 X-10.473 Y22.635 E7.25605
G1 X-11.062 Y22.169 E7.30345
G1 X-11.557 Y21.656 E7.34844
G1 X-11.637 Y21.563 E7.35618
G1 X-13.497 Y19.249 E7.54355
G1 X-13.566 Y19.157 E7.55081
G1 X-13.891 Y18.695 E7.58646
G1 X-14.009 Y18.503 E7.60068
G1 X-14.27 Y18.011 E7.63583
G1 X-14.359 Y17.817 E7.6493
G1 X-14.566 Y17.282 E7.6855
G1 X-14.634 Y17.066 E7.69979
G1 X-14.771 Y16.514 E7.73569
G1 X-14.811 Y16.298 E7.74955
G1 X-14.877 Y15.758 E7.78388
G1 X-14.886 Y15.653 E7.79054
G1 X-15.288 Y9.236 E8.19631
G1 X-15.272 Y8.857 E8.22025
G1 X-15.177 Y8.49 E8.24418
G1 X-15.007 Y8.151 E8.26811
G1 X-14.693 Y7.771 E8.29922
G1 X-14.407 Y7.522 E8.32316
G1 X-14.075 Y7.338 E8.34711
G1 X-13.713 Y7.228 E8.37099
G1 X-13.374 Y7.196 E8.39248
G1 X-12.3 Y7.196 E8.46026
G1 X-12.3 Y-1.95 E9.03747
G1 X-12.883 Y-1.95 E9.07427
G1 X-13.26 Y-1.99 E9.09819
G1 X-13.62 Y-2.108 E9.1221
G1 X-13.947 Y-2.298 E9.14597
G1 X-14.273 Y-2.594 E9.17376
G1 X-14.511 Y-2.889 E9.19768
G1 X-14.682 Y-3.227 E9.22159
G1 X-14.779 Y-3.593 E9.24549
G1 X-14.8 Y-3.867 E9.26283
G1 X-14.8 Y-21.633 E10.38406
G1 X-14.76 Y-22.01 E10.40799
G1 X-14.642 Y-22.37 E10.4319
G1 X-14.452 Y-22.697 E10.45576
G1 X-14.156 Y-23.023 E10.48355
G1 X-13.861 Y-23.261 E10.50748
G1 X-13.523 Y-23.432 E10.53138
G1 X-13.157 Y-23.529 E10.55528
G1 X-12.883 Y-23.55 E10.57262
G1 X22.883 Y-23.55 E12.82985
G1 X23.26 Y-23.51 E12.85378
G1 X23.62 Y-23.392 E12.87769
G1 X23.947 Y-23.202 E12.90156
G1 X24.273 Y-22.906 E12.92935
G1 X24.511 Y-22.611 E12.95327
G1 X24.682 Y-22.273 E12.97717
G1 X24.779 Y-21.907 E13.00107
G1 X24.8 Y-21.633 E13.01841
G1 X24.8 Y-3.867 E14.13965
G1 X24.76 Y-3.49 E14.16357
G1 X24.642 Y-3.13 E14.18748
G1 X24.452 Y-2.803 E14.21135
G1 X24.156 Y-2.477 E14.23914
G1 X23.861 Y-2.239 E14.26306
G1 X23.523 Y-2.068 E14.28697
G1 X23.157 Y-1.971 E14.31086
G1 X22.883 Y-1.95 E14.32821
G1 X22.3 Y-1.95 E14.365
G1 X22.3 Y7.196 E14.94221
G1 X23.374 Y7.196 E15.01
G1 X23.751 Y7.236 E15.03392
G1 X24.111 Y7.354 E15.05783
G1 X24.438 Y7.544 E15.0817
G1 X24.811 Y7.898 E15.11415
G1 X25.038 Y8.201 E15.13805
G1 X25.197 Y8.545 E15.16196
G1 X25.28 Y8.915 E15.1859
G1 X25.288 Y9.235 E15.2061
G1 X24.886 Y15.663 E15.61257
G1 X24.876 Y15.773 E15.61954
G1 X24.809 Y16.311 E15.65376
G1 X24.768 Y16.531 E15.66788
G1 X24.624 Y17.099 E15.70486
G1 X24.555 Y17.313 E15.71905
G1 X24.349 Y17.839 E15.7547
G1 X24.26 Y18.033 E15.76817
G1 X23.999 Y18.52 E15.80304
G1 X23.881 Y18.71 E15.81716
G1 X23.552 Y19.175 E15.85311
G1 X23.486 Y19.263 E15.86005
G1 X21.625 Y21.577 E16.04746
G1 X21.221 Y22.019 E16.08525
G1 X20.679 Y22.488 E16.13048
G1 X20.065 Y22.884 E16.1766
G1 X19.432 Y23.184 E16.2208
G1 X18.723 Y23.404 E16.26765
G1 X18.009 Y23.522 E16.31333
G1 X17.286 Y23.542 E16.35897
G1 X16.576 Y23.466 E16.40404
G1 X15.865 Y23.288 E16.4503
G1 X15.204 Y23.024 E16.49522
G1 X14.568 Y22.661 E16.54143
G1 X13.997 Y22.223 E16.58685
G1 X13.49 Y21.71 E16.63237
G1 X13.059 Y21.139 E16.67752
G1 X12.705 Y20.503 E16.72346
G1 X12.441 Y19.819 E16.76973
G1 X12.278 Y19.139 E16.81386
G1 X12.257 Y19.02 E16.82149
G1 X11.054 Y10.791 E17.34635
G1 X11.035 Y10.503 E17.36456
G1 X11.044 Y9.928 E17.40086
G1 X11.116 Y9.438 E17.43211
G1 X11.256 Y8.944 E17.46452
G1 X11.441 Y8.509 E17.49435
G1 X11.728 Y8.034 E17.52938
G1 X12.071 Y7.629 E17.56287
G1 X12.612 Y7.16 E17.60806
G1 X13.246 Y6.795 E17.65423
G1 X13.915 Y6.563 E17.69892
G1 X14.631 Y6.459 E17.74458
G1 X14.807 Y6.45 E17.7557
G1 X15.444 Y6.449 E17.7959
G1 X15.657 Y6.36 E17.81047
G1 X15.7 Y6.187 E17.82172
G1 X15.7 Y0.817 E18.16063
G1 X15.617 Y0.102 E18.20605
G1 X15.39 Y-.499 E18.2466
G1 X15.019 Y-1.038 E18.2879
G1 X14.524 Y-1.474 E18.32953
G1 X13.958 Y-1.771 E18.36987
G1 X13.327 Y-1.926 E18.41087
G1 X12.56 Y-1.95 E18.4593
G1 X11.851 Y-1.867 E18.50435
G1 X11.246 Y-1.639 E18.54516
G1 X10.707 Y-1.264 E18.5866
G1 X10.279 Y-.779 E18.62742
G1 X9.979 Y-.209 E18.66807
G1 X9.825 Y0.417 E18.70876
G1 X9.8 Y0.817 E18.73405
G1 X9.8 Y4.993 E18.9976
G1 X12.145 Y21.025 E20.02017
G1 X12.16 Y21.404 E20.04411
G1 X12.096 Y21.778 E20.06805
G1 X11.954 Y22.129 E20.09195
G1 X11.709 Y22.494 E20.11969
G1 X11.452 Y22.772 E20.14359
G1 X11.142 Y22.991 E20.16754
G1 X10.794 Y23.14 E20.19143
G1 X10.524 Y23.2 E20.20889
G1 X8.251 Y23.531 E20.35385
G1 X7.992 Y23.55 E20.37024
G1 X6.117 Y23.55 E20.48857
G1 X5.74 Y23.51 E20.5125
G1 X5.38 Y23.392 E20.53641
G1 X4.995 Y23.153 E20.56501
G1 X4.523 Y23.432 E20.59961
G1 X4.157 Y23.529 E20.62351
G1 X3.882 Y23.55 E20.64091
G1 X1.993 Y23.549 E20.76013
G1 X1.734 Y23.53 E20.77652
G1 X-.525 Y23.2 E20.9206
G1 X-.892 Y23.106 E20.94451
G1 X-1.232 Y22.937 E20.96847
G1 X-1.528 Y22.701 E20.99237
G1 X-1.808 Y22.361 E21.02016
G1 X-2.001 Y22.035 E21.04407
G1 X-2.121 Y21.675 E21.06802
G1 X-2.164 Y21.299 E21.09191
G1 X-2.145 Y21.026 E21.10918
G1 X0.2 Y4.991 E22.13193
G1 X0.2 Y0.817 E22.39535
G1 X0.117 Y0.102 E22.44078
G0 F3600 X0.507 Y0.011
G1 F1200 X0.239 Y-.695 E22.48844
G1 X-.181 Y-1.304 E22.53513
G1 X-.749 Y-1.804 E22.58289
G1 X-1.397 Y-2.145 E22.6291
G1 X-2.133 Y-2.325 E22.67692
G1 X-2.964 Y-2.35 E22.72939
G1 X-3.746 Y-2.255 E22.7791
G1 X-4.441 Y-1.992 E22.826
G1 X-5.062 Y-1.561 E22.87371
G1 X-5.551 Y-1.006 E22.92039
G1 X-5.897 Y-.346 E22.96742
G1 X-6.075 Y0.381 E23.01466
G1 X-6.1 Y0.805 E23.04146
G1 X-6.099 Y6.213 E23.38277
G1 X-6.062 Y6.447 E23.39772
G1 X-5.956 Y6.632 E23.41117
G1 X-5.704 Y6.81 E23.43065
G1 X-5.443 Y6.85 E23.44731
G1 X-4.802 Y6.851 E23.48776
G1 X-4.22 Y6.911 E23.52469
G1 X-3.681 Y7.05 E23.55982
G1 X-3.1 Y7.319 E23.60023
G1 X-2.568 Y7.704 E23.64167
G1 X-2.111 Y8.195 E23.684
G1 X-1.768 Y8.748 E23.72507
G1 X-1.54 Y9.348 E23.76558
G1 X-1.431 Y9.961 E23.80488
G1 X-1.438 Y10.614 E23.84609
G1 X-1.451 Y10.746 E23.85446
G1 X-2.654 Y18.969 E24.37895
G1 X-2.771 Y19.522 E24.41462
G1 X-2.982 Y20.142 E24.45595
G1 X-3.283 Y20.74 E24.4982
G1 X-3.659 Y21.29 E24.54025
G1 X-4.117 Y21.793 E24.58318
G1 X-4.636 Y22.222 E24.62568
G1 X-5.189 Y22.568 E24.66685
G1 X-5.795 Y22.841 E24.7088
G1 X-6.436 Y23.031 E24.75099
G1 X-7.113 Y23.132 E24.79419
G1 X-7.78 Y23.139 E24.83629
G1 X-8.432 Y23.058 E24.87775
G1 X-9.08 Y22.887 E24.92005
G1 X-9.71 Y22.621 E24.96321
G1 X-10.263 Y22.294 E25.00375
G1 X-10.807 Y21.861 E25.04763
G1 X-11.263 Y21.384 E25.08928
G1 X-11.325 Y21.312 E25.09528
G1 X-13.185 Y18.998 E25.28264
G1 X-13.239 Y18.927 E25.28827
G1 X-13.564 Y18.465 E25.32392
G1 X-13.656 Y18.315 E25.33503
G1 X-13.917 Y17.823 E25.37018
G1 X-13.986 Y17.672 E25.38066
G1 X-14.193 Y17.137 E25.41686
G1 X-14.246 Y16.969 E25.42798
G1 X-14.383 Y16.417 E25.46387
G1 X-14.414 Y16.25 E25.47459
G1 X-14.48 Y15.71 E25.50892
G1 X-14.487 Y15.628 E25.51412
G1 X-14.889 Y9.211 E25.9199
G1 X-14.87 Y8.877 E25.94101
G1 X-14.773 Y8.557 E25.96211
G1 X-14.4 Y8.043 E26.00219
G1 X-14.145 Y7.827 E26.02328
G1 X-13.846 Y7.678 E26.04437
G1 X-13.374 Y7.596 E26.0746
G1 X-11.9 Y7.596 E26.16763
G1 X-11.9 Y-2.35 E26.79533
G1 X-12.883 Y-2.35 E26.85737
G1 X-13.215 Y-2.39 E26.87847
G1 X-13.527 Y-2.507 E26.8995
G1 X-13.99 Y-2.877 E26.93691
G1 X-14.196 Y-3.14 E26.95799
G1 X-14.335 Y-3.444 E26.97909
G1 X-14.4 Y-3.867 E27.0061
G1 X-14.4 Y-21.633 E28.12733
G1 X-14.36 Y-21.965 E28.14843
G1 X-14.243 Y-22.277 E28.16946
G1 X-13.873 Y-22.74 E28.20687
G1 X-13.61 Y-22.946 E28.22795
G1 X-13.306 Y-23.085 E28.24905
G1 X-12.883 Y-23.15 E28.27606
G1 X22.883 Y-23.15 E30.53329
G1 X23.215 Y-23.11 E30.55439
G1 X23.527 Y-22.993 E30.57542
G1 X23.99 Y-22.623 E30.61283
G1 X24.196 Y-22.36 E30.63391
G1 X24.335 Y-22.056 E30.65501
G1 X24.4 Y-21.633 E30.68202
G1 X24.4 Y-3.867 E31.80325
G1 X24.36 Y-3.535 E31.82435
G1 X24.243 Y-3.223 E31.84538
G1 X23.873 Y-2.76 E31.88279
G1 X23.61 Y-2.554 E31.90387
G1 X23.306 Y-2.415 E31.92497
G1 X22.883 Y-2.35 E31.95198
G1 X21.9 Y-2.35 E32.01401
G1 X21.9 Y7.596 E32.64172
G1 X23.374 Y7.596 E32.73474
G1 X23.706 Y7.636 E32.75585
G1 X24.018 Y7.753 E32.77688
G1 X24.518 Y8.17 E32.81797
G1 X24.714 Y8.44 E32.83902
G1 X24.841 Y8.749 E32.86011
G1 X24.889 Y9.21 E32.88936
G1 X24.487 Y15.638 E33.29583
G1 X24.479 Y15.724 E33.30128
G1 X24.412 Y16.262 E33.3355
G1 X24.38 Y16.433 E33.34648
G1 X24.236 Y17.001 E33.38346
G1 X24.183 Y17.168 E33.39452
G1 X23.977 Y17.694 E33.43017
G1 X23.907 Y17.844 E33.44061
G1 X23.646 Y18.331 E33.47548
G1 X23.555 Y18.479 E33.48645
G1 X23.226 Y18.944 E33.5224
G1 X23.174 Y19.012 E33.5278
G1 X21.313 Y21.326 E33.71521
G1 X20.928 Y21.748 E33.75126
G1 X20.424 Y22.18 E33.79315
G1 X19.857 Y22.543 E33.83564
G1 X19.269 Y22.818 E33.87661
G1 X18.614 Y23.019 E33.91985
G1 X17.953 Y23.126 E33.96211
G1 X17.284 Y23.142 E34.00434
G1 X16.628 Y23.069 E34.046
G1 X15.972 Y22.903 E34.08871
G1 X15.361 Y22.656 E34.1303
G1 X14.774 Y22.318 E34.17305
G1 X14.247 Y21.911 E34.21507
G1 X13.781 Y21.436 E34.25707
G1 X13.384 Y20.905 E34.29891
G1 X13.059 Y20.317 E34.34131
G1 X12.818 Y19.684 E34.38406
G1 X12.669 Y19.055 E34.42485
G1 X12.653 Y18.963 E34.43074
G1 X11.45 Y10.734 E34.95561
G1 X11.435 Y10.509 E34.96984
G1 X11.444 Y9.934 E35.00613
G1 X11.501 Y9.547 E35.03082
G1 X11.641 Y9.053 E35.06322
G1 X11.787 Y8.71 E35.08675
G1 X12.051 Y8.27 E35.11913
G1 X12.473 Y7.788 E35.15956
G1 X12.95 Y7.408 E35.19805
G1 X13.428 Y7.152 E35.23227
G1 X14.03 Y6.946 E35.27243
G1 X14.671 Y6.857 E35.31327
G1 X14.808 Y6.85 E35.32193
G1 X15.455 Y6.849 E35.36276
G1 X15.723 Y6.787 E35.38012
G1 X15.954 Y6.634 E35.39761
G1 X16.086 Y6.357 E35.41698
G1 X16.1 Y6.197 E35.42711
G1 X16.1 Y0.792 E35.76823
G1 X16.007 Y0.011 E35.81787
G1 X15.739 Y-.695 E35.86552
G1 X15.319 Y-1.304 E35.91221
G1 X14.751 Y-1.804 E35.95997
G1 X14.103 Y-2.145 E36.00618
G1 X13.367 Y-2.325 E36.054
G1 X12.536 Y-2.35 E36.10647
G1 X11.754 Y-2.255 E36.15619
G1 X11.059 Y-1.992 E36.20308
G1 X10.438 Y-1.561 E36.25079
G1 X9.949 Y-1.006 E36.29747
G1 X9.603 Y-.346 E36.3445
G1 X9.426 Y0.378 E36.39154
G1 X9.4 Y0.793 E36.41778
G1 X9.4 Y5.024 E36.68481
G1 X11.749 Y21.083 E37.70909
G1 X11.758 Y21.417 E37.73018
G1 X11.687 Y21.744 E37.7513
G1 X11.388 Y22.255 E37.78866
G1 X11.158 Y22.497 E37.80973
G1 X10.877 Y22.678 E37.83083
G1 X10.467 Y22.804 E37.8579
G1 X8.194 Y23.135 E38.00286
G1 X7.992 Y23.15 E38.01565
G1 X6.117 Y23.15 E38.13398
G1 X5.785 Y23.11 E38.15508
G1 X5.473 Y22.993 E38.17611
G1 X5.01 Y22.623 E38.21352
G1 X4.61 Y22.946 E38.24597
G1 X4.306 Y23.085 E38.26706
G1 X3.882 Y23.15 E38.29413
G1 X1.993 Y23.149 E38.41335
G1 X1.792 Y23.134 E38.42607
G1 X-.467 Y22.804 E38.57015
G1 X-.79 Y22.717 E38.59126
G1 X-1.082 Y22.556 E38.61231
G1 X-1.487 Y22.122 E38.64977
G1 X-1.653 Y21.832 E38.67086
G1 X-1.746 Y21.511 E38.69195
G1 X-1.749 Y21.083 E38.71896
G1 X0.6 Y5.021 E39.74344
G1 X0.6 Y0.792 E40.01033
G1 X0.507 Y0.011 E40.05997
G0 F3600 X0.972 Y0.322
G1 F1200 X0.767 Y-.499 E40.11338
G1 X0.597 Y-.876 E40.13948
G1 X0.378 Y-1.238 E40.16618
G1 X0.116 Y-1.573 E40.19302
G1 X-.173 Y-1.862 E40.21881
G1 X-.521 Y-2.134 E40.24669
G1 X-.874 Y-2.348 E40.27274
G1 X-1.254 Y-2.519 E40.29904
G1 X-2.078 Y-2.723 E40.35261
G1 X-2.972 Y-2.75 E40.40906
G1 X-3.423 Y-2.723 E40.43757
G1 X-3.837 Y-2.646 E40.46415
G1 X-4.254 Y-2.516 E40.49172
G1 X-4.982 Y-2.132 E40.54366
G1 X-5.327 Y-1.862 E40.57131
G1 X-5.614 Y-1.575 E40.59693
G1 X-6.098 Y-.876 E40.65058
G1 X-6.27 Y-.494 E40.67702
G1 X-6.474 Y0.333 E40.73078
G1 X-6.5 Y0.781 E40.7591
G1 X-6.499 Y6.236 E41.10337
G1 X-6.438 Y6.59 E41.12604
G1 X-6.264 Y6.888 E41.14782
G1 X-5.991 Y7.117 E41.17031
G1 X-5.673 Y7.233 E41.19167
G1 X-5.466 Y7.25 E41.20478
G1 X-4.803 Y7.251 E41.24662
G1 X-4.267 Y7.308 E41.28064
G1 X-3.626 Y7.501 E41.32289
G1 X-3.097 Y7.794 E41.36106
G1 X-2.666 Y8.162 E41.39682
G1 X-2.303 Y8.614 E41.43341
