;FLAVOR:Marlin
;TIME:5052
;Filament used: 6.34866m
;Layer height: 0.24
;MINX:-25.816
;MINY:-33.226
;MINZ:0.24
;MAXX:41.138
;MAXY:40.828
;MAXZ:48
;Generated with Cura_SteamEngine 4.13.1
M140 S50
M105
M190 S50
M104 S210
M105
M109 S210
M82 ;absolute extrusion mode
;FLAVOR:Marlin
M82 ;absolute extrusion mode
G21
G90
M82
M107 T0
G28
G92 E0
G0 E3 F200
G92 E0 ; reset extrusion distance
M106 S255 ; Enable cooling fan full speed
G1 X-98 Y0 Z0.4 F3000 ; move to arc start
G3 X0 Y-98 I98 Z0.4 E40 F400 ; lay arc stripe 90deg
G92 E0 ; reset extrusion distance
G4 P500 ; wait for 0.5 sec
G0 Z10 E-1 ; Lift 15mm and retract 1mm filament
G4 P2000 ; wait for 5 sec
G0 Z15
M107 ; Disable cooling fan
G1 X0 Y-85 Z4 E0 F3000 ; get off the bed
G92 E0
G92 E0
G1 F1500 E-6
;LAYER_COUNT:215
;LAYER:0
M106 S102
G1 F600 Z1.24
G0 F3600 X20.007 Y-8.449 Z1.24
;TYPE:SKIRT
G1 F600 Z0.24
G1 F3600 E0.71493
G1 F1200 X29.141 Y-4.19 E1.16249
G1 X29.35 Y-4.082 E1.17294
G1 X29.969 Y-3.732 E1.20452
G1 X30.366 Y-3.464 E1.22579
G1 X30.941 Y-3.004 E1.25849
G1 X31.282 Y-2.685 E1.27923
G1 X31.759 Y-2.163 E1.31063
G1 X32.043 Y-1.798 E1.33117
G1 X32.444 Y-1.194 E1.36336
G1 X32.678 Y-.772 E1.38479
G1 X32.978 Y-.109 E1.41711
G1 X33.135 Y0.323 E1.43752
G1 X33.326 Y1.009 E1.46915
G1 X33.417 Y1.477 E1.49032
G1 X33.499 Y2.202 E1.52272
G1 X33.515 Y2.673 E1.54365
G1 X33.483 Y3.387 E1.57539
G1 X33.426 Y3.851 E1.59615
G1 X33.282 Y4.559 E1.62824
G1 X33.153 Y5.01 E1.64907
G1 X32.9 Y5.688 E1.68121
G1 X32.833 Y5.853 E1.68912
G1 X32.158 Y7.379 E1.76322
G1 X31.596 Y8.806 E1.83133
G1 X31.14 Y10.14 E1.89394
G1 X30.748 Y11.469 E1.95547
G1 X30.44 Y12.712 E2.01234
G1 X30.428 Y12.772 E2.01506
G1 X34.604 Y8.597 E2.2773
G1 X34.977 Y8.28 E2.29904
G1 X35.397 Y8.028 E2.32079
G1 X35.852 Y7.848 E2.34252
G1 X36.33 Y7.744 E2.36424
G1 X36.819 Y7.719 E2.38599
G1 X37.306 Y7.775 E2.40776
G1 X37.776 Y7.908 E2.42945
G1 X38.219 Y8.117 E2.4512
G1 X38.622 Y8.394 E2.47292
G1 X38.846 Y8.597 E2.48634
G1 X40.26 Y10.011 E2.57515
G1 X40.577 Y10.384 E2.59689
G1 X40.829 Y10.804 E2.61864
G1 X41.009 Y11.259 E2.64037
G1 X41.113 Y11.737 E2.6621
G1 X41.138 Y12.226 E2.68384
G1 X41.082 Y12.712 E2.70557
G1 X40.949 Y13.183 E2.7273
G1 X40.74 Y13.626 E2.74905
G1 X40.463 Y14.029 E2.77077
G1 X40.26 Y14.253 E2.7842
G1 X14.562 Y39.95 E4.39811
G1 X14.189 Y40.267 E4.41985
G1 X13.769 Y40.519 E4.4416
G1 X13.314 Y40.699 E4.46333
G1 X12.836 Y40.803 E4.48506
G1 X12.347 Y40.828 E4.5068
G1 X11.861 Y40.772 E4.52853
G1 X11.39 Y40.639 E4.55026
G1 X10.947 Y40.43 E4.57202
G1 X10.544 Y40.153 E4.59373
G1 X10.32 Y39.95 E4.60716
G1 X8.906 Y38.536 E4.69596
G1 X8.589 Y38.163 E4.7177
G1 X8.337 Y37.743 E4.73945
G1 X8.157 Y37.288 E4.76118
G1 X8.053 Y36.81 E4.78291
G1 X8.028 Y36.321 E4.80465
G1 X8.084 Y35.835 E4.82638
G1 X8.217 Y35.364 E4.84811
G1 X8.426 Y34.921 E4.86987
G1 X8.906 Y34.293 E4.90497
G1 X14.478 Y28.722 E5.25488
G1 X15.164 Y28.013 E5.2987
G1 X15.688 Y27.431 E5.33348
G1 X16.091 Y26.934 E5.36189
G1 X15.6 Y26.638 E5.38735
G1 X14.867 Y26.244 E5.42431
G1 X14.493 Y26.059 E5.44284
G1 X13.993 Y25.82 E5.46745
G1 X-24.084 Y8.065 E7.33323
G1 X-24.509 Y7.823 E7.35495
G1 X-24.889 Y7.514 E7.3767
G1 X-25.214 Y7.148 E7.39843
G1 X-25.475 Y6.734 E7.42017
G1 X-25.666 Y6.283 E7.44192
G1 X-25.78 Y5.807 E7.46366
G1 X-25.816 Y5.319 E7.48539
G1 X-25.761 Y4.776 E7.50962
G1 X-25.204 Y1.898 E7.63981
G1 X-25.224 Y1.644 E7.65112
G1 X-25.317 Y1.332 E7.66558
G1 X-25.448 Y0.787 E7.69047
G1 X-25.528 Y0.222 E7.71581
G1 X-25.554 Y-.353 E7.74138
G1 X-25.524 Y-.935 E7.76726
G1 X-25.438 Y-1.507 E7.79294
G1 X-25.299 Y-2.063 E7.8184
G1 X-25.102 Y-2.619 E7.84459
G1 X-24.993 Y-2.885 E7.85736
G1 X-19.134 Y-15.447 E8.47292
G1 X-18.801 Y-16.053 E8.50363
G1 X-18.268 Y-16.786 E8.54388
G1 X-17.614 Y-17.442 E8.58502
G1 X-17.261 Y-17.724 E8.60508
G1 X-16.685 Y-18.117 E8.63605
G1 X-16.627 Y-18.22 E8.6413
G1 X-15.095 Y-21.507 E8.80235
G1 X-14.853 Y-21.932 E8.82407
G1 X-14.545 Y-22.313 E8.84582
G1 X-14.179 Y-22.638 E8.86756
G1 X-13.683 Y-22.934 E8.89321
G1 X-13.645 Y-23.497 E8.91827
G1 X-13.522 Y-23.971 E8.94002
G1 X-13.226 Y-24.567 E8.96957
G1 X-13.538 Y-24.976 E8.99242
G1 X-13.734 Y-25.335 E9.01058
G1 X-14.024 Y-25.967 E9.04146
G1 X-14.191 Y-26.427 E9.0632
G1 X-14.281 Y-26.908 E9.08493
G1 X-14.292 Y-27.397 E9.10665
G1 X-14.223 Y-27.882 E9.1284
G1 X-13.978 Y-28.565 E9.16063
G1 X-13.624 Y-29.18 E9.19214
G1 X-13.314 Y-29.539 E9.21321
G1 X-12.554 Y-31.17 E9.29312
G1 X-12.263 Y-31.682 E9.31927
G1 X-11.974 Y-32.078 E9.34104
G1 X-11.625 Y-32.421 E9.36277
G1 X-11.225 Y-32.703 E9.38451
G1 X-10.669 Y-32.958 E9.41167
G1 X-9.853 Y-33.193 E9.44938
G1 X-9.14 Y-33.226 E9.48108
G1 X-8.387 Y-33.13 E9.51479
G1 X-7.922 Y-32.976 E9.53654
G1 X-7.489 Y-32.749 E9.55826
G1 X-7.116 Y-32.457 E9.57929
G1 X-6.383 Y-32.074 E9.61602
G1 X-5.957 Y-31.724 E9.6405
G1 X-3.494 Y-29.283 E9.7945
G1 X-3.344 Y-29.125 E9.80418
G1 X-2.609 Y-28.393 E9.85025
G1 X-2.291 Y-28.021 E9.87198
G1 X-2.012 Y-27.533 E9.89694
G1 X-1.59 Y-27.293 E9.9185
G1 X-1.161 Y-26.936 E9.94329
G1 X0.15 Y-25.62 E10.02578
G1 X1.296 Y-25.087 E10.08191
G1 X1.721 Y-24.845 E10.10363
G1 X2.148 Y-24.492 E10.12823
G1 X3.762 Y-22.883 E10.22944
G1 X5.408 Y-22.114 E10.31012
G1 X6.168 Y-22.004 E10.34423
G1 X6.682 Y-21.819 E10.36849
G1 X11.942 Y-19.363 E10.62629
G1 X12.367 Y-19.121 E10.64801
G1 X12.813 Y-18.747 E10.67386
G1 X12.99 Y-18.567 E10.68507
G1 X14.806 Y-17.72 E10.77406
G1 X15.361 Y-18.11 E10.80418
G1 X15.783 Y-18.358 E10.82592
G1 X16.239 Y-18.534 E10.84763
G1 X16.719 Y-18.633 E10.86939
G1 X17.359 Y-18.644 E10.89782
G1 X20.423 Y-18.364 E11.03445
G1 X20.905 Y-18.279 E11.05619
G1 X21.413 Y-18.097 E11.08015
G1 X22.499 Y-17.593 E11.13332
G1 X22.925 Y-17.352 E11.15506
G1 X23.305 Y-17.044 E11.17678
G1 X23.631 Y-16.679 E11.19852
G1 X23.893 Y-16.265 E11.22027
G1 X24.084 Y-15.814 E11.24202
G1 X24.199 Y-15.339 E11.26373
G1 X24.236 Y-14.851 E11.28546
G1 X24.193 Y-14.363 E11.30722
G1 X23.954 Y-13.603 E11.3426
G1 X23.593 Y-12.83 E11.38049
G1 X23.716 Y-12.052 E11.41547
G1 X23.698 Y-11.563 E11.4372
G1 X23.6 Y-11.083 E11.45895
G1 X23.426 Y-10.626 E11.48067
G1 X23.18 Y-10.203 E11.5024
G1 X22.868 Y-9.825 E11.52417
G1 X22.499 Y-9.504 E11.54589
G1 X22.082 Y-9.247 E11.56764
G1 X21.524 Y-9.019 E11.59441
G1 X21.28 Y-8.919 E11.60612
G1 X20.58 Y-8.716 E11.63849
G0 F1080 X20.07 Y-8.568
G0 X20.007 Y-8.449
G0 F3600 X19.516 Y-8.399
G1 F1200 X19.418 Y-8.282 E11.64527
G1 X28.972 Y-3.827 E12.11341
G1 X29.153 Y-3.734 E12.12245
G1 X29.772 Y-3.384 E12.15403
G1 X30.116 Y-3.151 E12.17248
G1 X30.691 Y-2.691 E12.20518
G1 X30.986 Y-2.415 E12.22312
G1 X31.463 Y-1.893 E12.25453
G1 X31.71 Y-1.577 E12.27234
G1 X32.111 Y-.973 E12.30453
G1 X32.314 Y-.607 E12.32312
G1 X32.614 Y0.056 E12.35544
G1 X32.75 Y0.431 E12.37315
G1 X32.941 Y1.117 E12.40478
G1 X33.02 Y1.522 E12.4231
G1 X33.102 Y2.247 E12.4555
G1 X33.115 Y2.655 E12.47363
G1 X33.083 Y3.369 E12.50537
G1 X33.034 Y3.771 E12.52336
G1 X32.89 Y4.479 E12.55544
G1 X32.778 Y4.87 E12.57351
G1 X32.525 Y5.548 E12.60564
G1 X32.467 Y5.691 E12.6125
G1 X31.795 Y7.211 E12.6863
G1 X31.222 Y8.664 E12.75566
G1 X30.753 Y10.039 E12.82018
G1 X30.365 Y11.351 E12.88094
G1 X30.05 Y12.626 E12.93927
G1 X29.802 Y13.87 E12.9956
G1 X29.785 Y13.98 E13.00054
G1 X34.887 Y8.879 E13.32094
G1 X35.236 Y8.587 E13.34115
G1 X35.631 Y8.359 E13.3614
G1 X36.059 Y8.205 E13.3816
G1 X36.508 Y8.127 E13.40184
G1 X36.964 Y8.129 E13.42209
G1 X37.412 Y8.21 E13.44231
G1 X37.839 Y8.369 E13.46254
G1 X38.232 Y8.6 E13.48279
G1 X38.563 Y8.88 E13.50204
G1 X39.977 Y10.294 E13.59085
G1 X40.27 Y10.643 E13.61108
G1 X40.497 Y11.038 E13.63132
G1 X40.652 Y11.466 E13.65153
G1 X40.73 Y11.915 E13.67177
G1 X40.728 Y12.371 E13.69202
G1 X40.647 Y12.819 E13.71224
G1 X40.488 Y13.246 E13.73247
G1 X40.258 Y13.639 E13.7527
G1 X39.977 Y13.971 E13.77201
G1 X14.279 Y39.668 E15.38593
G1 X13.93 Y39.96 E15.40614
G1 X13.535 Y40.187 E15.42637
G1 X13.107 Y40.342 E15.44659
G1 X12.658 Y40.42 E15.46682
G1 X12.202 Y40.418 E15.48707
G1 X11.754 Y40.337 E15.50729
G1 X11.327 Y40.178 E15.52753
G1 X10.934 Y39.948 E15.54775
G1 X10.603 Y39.667 E15.56703
G1 X9.189 Y38.253 E15.65584
G1 X8.896 Y37.904 E15.67607
G1 X8.669 Y37.509 E15.69631
G1 X8.514 Y37.081 E15.71652
G1 X8.436 Y36.632 E15.73676
G1 X8.438 Y36.176 E15.75701
G1 X8.519 Y35.728 E15.77723
G1 X8.678 Y35.301 E15.79746
G1 X8.908 Y34.908 E15.81769
G1 X9.189 Y34.576 E15.837
G1 X14.761 Y29.005 E16.18692
G1 X15.127 Y28.633 E16.21009
G1 X15.732 Y27.987 E16.2494
G1 X16.196 Y27.446 E16.28105
G1 X16.555 Y26.976 E16.30731
G1 X16.651 Y26.834 E16.31493
G1 X16.08 Y26.453 E16.34541
G1 X15.444 Y26.093 E16.37787
G1 X14.666 Y25.698 E16.41662
G1 X14.166 Y25.459 E16.44123
G1 X-23.915 Y7.702 E18.3072
G1 X-24.309 Y7.474 E18.32742
G1 X-24.658 Y7.181 E18.34766
G1 X-24.95 Y6.831 E18.3679
G1 X-25.176 Y6.436 E18.38811
G1 X-25.331 Y6.007 E18.40836
G1 X-25.407 Y5.558 E18.42859
G1 X-25.369 Y4.852 E18.45999
G1 X-24.807 Y1.947 E18.59139
G1 X-24.794 Y1.717 E18.60162
G1 X-24.928 Y1.239 E18.62366
G1 X-25.059 Y0.694 E18.64856
G1 X-25.128 Y0.203 E18.67058
G1 X-25.154 Y-.372 E18.69614
G1 X-25.128 Y-.876 E18.71855
G1 X-25.042 Y-1.448 E18.74424
G1 X-24.922 Y-1.929 E18.76625
G1 X-24.725 Y-2.485 E18.79245
G1 X-24.63 Y-2.716 E18.80354
G1 X-18.771 Y-15.278 E19.41911
G1 X-18.453 Y-15.855 E19.44837
G1 X-17.953 Y-16.539 E19.48599
G1 X-17.342 Y-17.149 E19.52433
G1 X-17.036 Y-17.393 E19.54172
G1 X-16.435 Y-17.802 E19.574
G1 X-16.275 Y-18.028 E19.5863
G1 X-14.733 Y-21.338 E19.74846
G1 X-14.505 Y-21.733 E19.76871
G1 X-14.212 Y-22.081 E19.78892
G1 X-13.862 Y-22.374 E19.80919
G1 X-13.467 Y-22.6 E19.8294
G1 X-13.263 Y-22.673 E19.83902
G1 X-13.278 Y-23.227 E19.86363
G1 X-13.195 Y-23.675 E19.88387
G1 X-13.036 Y-24.102 E19.9041
G1 X-12.717 Y-24.597 E19.93025
G1 X-13.218 Y-25.217 E19.96565
G1 X-13.37 Y-25.502 E19.98
G1 X-13.66 Y-26.134 E20.01088
G1 X-13.813 Y-26.563 E20.0311
G1 X-13.889 Y-27.012 E20.05133
G1 X-13.885 Y-27.468 E20.07158
G1 X-13.802 Y-27.916 E20.09181
G1 X-13.62 Y-28.385 E20.11416
G1 X-13.282 Y-28.97 E20.14416
G1 X-12.983 Y-29.305 E20.1641
G1 X-12.192 Y-31.001 E20.24721
G1 X-11.922 Y-31.474 E20.27139
G1 X-11.651 Y-31.84 E20.29162
G1 X-11.32 Y-32.154 E20.31188
G1 X-10.94 Y-32.405 E20.33211
G1 X-10.199 Y-32.695 E20.36744
G1 X-9.757 Y-32.804 E20.38766
G1 X-9.169 Y-32.827 E20.41379
G1 X-8.451 Y-32.733 E20.44595
G1 X-8.021 Y-32.583 E20.46618
G1 X-7.624 Y-32.359 E20.48642
G1 X-7.317 Y-32.109 E20.504
G1 X-6.582 Y-31.726 E20.54081
G1 X-6.239 Y-31.44 E20.56064
G1 X-3.776 Y-28.999 E20.71464
G1 X-3.635 Y-28.851 E20.72372
G1 X-2.891 Y-28.11 E20.77035
G1 X-2.598 Y-27.761 E20.79059
G1 X-2.323 Y-27.238 E20.81683
G1 X-1.79 Y-26.945 E20.84384
G1 X-1.444 Y-26.653 E20.86394
G1 X-0.083 Y-25.287 E20.94958
G1 X1.127 Y-24.724 E21.00885
G1 X1.522 Y-24.497 E21.02908
G1 X1.866 Y-24.208 E21.04903
G1 X3.528 Y-22.551 E21.15325
G1 X5.305 Y-21.722 E21.24034
G1 X6.098 Y-21.609 E21.27591
G1 X6.513 Y-21.457 E21.29554
G1 X11.773 Y-19.001 E21.55334
G1 X12.167 Y-18.773 E21.57355
G1 X12.757 Y-18.234 E21.60904
G1 X14.846 Y-17.259 E21.71142
G1 X15.591 Y-17.783 E21.75187
G1 X15.985 Y-18.011 E21.77209
G1 X16.413 Y-18.167 E21.79232
G1 X16.862 Y-18.246 E21.81256
G1 X17.323 Y-18.245 E21.83304
G1 X20.387 Y-17.965 E21.96967
G1 X20.835 Y-17.884 E21.98989
G1 X21.245 Y-17.734 E22.00928
G1 X22.331 Y-17.23 E22.06245
G1 X22.725 Y-17.003 E22.08264
G1 X23.075 Y-16.71 E22.10291
G1 X23.367 Y-16.361 E22.12312
G1 X23.595 Y-15.966 E22.14338
G1 X23.749 Y-15.538 E22.16358
G1 X23.827 Y-15.089 E22.18381
G1 X23.825 Y-14.633 E22.20407
G1 X23.744 Y-14.185 E22.22428
G1 X23.592 Y-13.772 E22.24383
G1 X23.174 Y-12.877 E22.2877
G1 X23.318 Y-12.003 E22.32703
G1 X23.292 Y-11.548 E22.34727
G1 X23.188 Y-11.104 E22.36752
G1 X23.008 Y-10.686 E22.38773
G1 X22.757 Y-10.305 E22.408
G1 X22.444 Y-9.974 E22.42823
G1 X22.078 Y-9.703 E22.44845
G1 X21.617 Y-9.479 E22.47121
G1 X21.169 Y-9.303 E22.49259
G1 X19.876 Y-8.928 E22.55238
G0 F1080 X19.783 Y-8.901
G0 X19.516 Y-8.399
G0 F3600 X19.337 Y-8.872
G1 F1200 X19.108 Y-8.52 E22.57103
G1 X18.734 Y-8.161 E22.59405
G1 X28.803 Y-3.465 E23.08745
G1 X28.956 Y-3.386 E23.09509
G1 X29.575 Y-3.036 E23.12667
G1 X29.866 Y-2.839 E23.14228
G1 X30.441 Y-2.379 E23.17498
G1 X30.691 Y-2.145 E23.19019
G1 X31.168 Y-1.623 E23.22159
G1 X31.377 Y-1.356 E23.23665
G1 X31.778 Y-.752 E23.26885
G1 X31.949 Y-.442 E23.28457
G1 X32.249 Y0.221 E23.31689
G1 X32.364 Y0.538 E23.33186
G1 X32.555 Y1.224 E23.36348
G1 X32.622 Y1.567 E23.379
G1 X32.704 Y2.292 E23.41141
G1 X32.716 Y2.638 E23.42678
G1 X32.684 Y3.352 E23.45852
G1 X32.642 Y3.691 E23.47369
G1 X32.498 Y4.399 E23.50578
G1 X32.403 Y4.73 E23.52107
G1 X32.15 Y5.408 E23.55321
G1 X32.101 Y5.529 E23.55901
G1 X31.428 Y7.051 E23.63291
G1 X30.844 Y8.533 E23.70365
G1 X30.377 Y9.9 E23.7678
G1 X29.978 Y11.249 E23.83028
G1 X29.66 Y12.538 E23.88924
G1 X29.408 Y13.801 E23.94643
G1 X29.328 Y14.322 E23.96984
G1 X29.259 Y14.859 E23.99388
G1 X29.235 Y15.095 E24.00442
G1 X35.169 Y9.162 E24.37707
G1 X35.493 Y8.896 E24.39569
G1 X35.861 Y8.695 E24.41431
G1 X36.26 Y8.568 E24.4329
G1 X36.676 Y8.519 E24.4515
G1 X37.094 Y8.549 E24.47012
G1 X37.498 Y8.658 E24.4887
G1 X37.875 Y8.842 E24.50733
G1 X38.281 Y9.162 E24.53029
G1 X39.695 Y10.576 E24.61909
G1 X39.961 Y10.9 E24.63771
G1 X40.162 Y11.267 E24.65629
G1 X40.289 Y11.667 E24.67493
G1 X40.338 Y12.083 E24.69353
G1 X40.308 Y12.501 E24.71214
G1 X40.199 Y12.905 E24.73072
G1 X40.015 Y13.282 E24.74935
G1 X39.695 Y13.688 E24.77231
G1 X13.997 Y39.385 E26.38623
G1 X13.673 Y39.651 E26.40485
G1 X13.306 Y39.852 E26.42343
G1 X12.906 Y39.979 E26.44207
G1 X12.49 Y40.028 E26.46067
G1 X12.072 Y39.998 E26.47928
G1 X11.668 Y39.889 E26.49786
G1 X11.291 Y39.705 E26.51649
G1 X10.885 Y39.385 E26.53945
G1 X9.471 Y37.971 E26.62826
G1 X9.205 Y37.647 E26.64687
G1 X9.004 Y37.28 E26.66545
G1 X8.877 Y36.88 E26.68409
G1 X8.828 Y36.464 E26.70269
G1 X8.858 Y36.046 E26.72131
G1 X8.967 Y35.642 E26.73989
G1 X9.151 Y35.265 E26.75852
G1 X9.472 Y34.859 E26.7815
G1 X15.044 Y29.288 E27.13142
G1 X15.412 Y28.914 E27.15472
G1 X16.026 Y28.258 E27.19462
G1 X16.521 Y27.681 E27.22838
G1 X16.89 Y27.196 E27.25545
G1 X17.163 Y26.746 E27.27882
G1 X16.554 Y26.28 E27.31288
G1 X15.97 Y25.927 E27.34318
G1 X15.263 Y25.548 E27.37881
G1 X14.838 Y25.337 E27.39988
G1 X14.338 Y25.098 E27.42449
G1 X-23.746 Y7.34 E29.2906
G1 X-24.107 Y7.127 E29.30922
G1 X-24.421 Y6.85 E29.32781
G1 X-24.677 Y6.519 E29.3464
G1 X-24.866 Y6.144 E29.36505
G1 X-24.98 Y5.741 E29.38365
G1 X-25.016 Y5.324 E29.40223
G1 X-24.976 Y4.928 E29.41991
G1 X-24.411 Y2.007 E29.55203
G1 X-24.397 Y1.654 E29.56772
G1 X-24.539 Y1.145 E29.59119
G1 X-24.67 Y0.6 E29.61608
G1 X-24.729 Y0.185 E29.6347
G1 X-24.755 Y-.39 E29.66026
G1 X-24.733 Y-.816 E29.6792
G1 X-24.647 Y-1.388 E29.70489
G1 X-24.545 Y-1.796 E29.72357
G1 X-24.348 Y-2.352 E29.74976
G1 X-24.268 Y-2.547 E29.75912
G1 X-18.409 Y-15.109 E30.37469
G1 X-18.105 Y-15.658 E30.40256
G1 X-17.639 Y-16.292 E30.4375
G1 X-17.07 Y-16.856 E30.47308
G1 X-16.811 Y-17.063 E30.48781
G1 X-16.182 Y-17.491 E30.52159
G1 X-16.021 Y-17.666 E30.53215
G1 X-15.913 Y-17.857 E30.5419
G1 X-14.37 Y-21.169 E30.70416
G1 X-14.158 Y-21.53 E30.72275
G1 X-13.881 Y-21.845 E30.74138
G1 X-13.549 Y-22.101 E30.76
G1 X-13.175 Y-22.29 E30.77861
G1 X-12.799 Y-22.396 E30.79596
G1 X-12.853 Y-22.588 E30.80481
G1 X-12.889 Y-23.005 E30.8234
G1 X-12.845 Y-23.422 E30.84202
G1 X-12.722 Y-23.823 E30.86065
G1 X-12.526 Y-24.193 E30.87924
G1 X-12.183 Y-24.6 E30.90288
G1 X-12.647 Y-25.119 E30.9338
G1 X-13.007 Y-25.668 E30.96295
G1 X-13.297 Y-26.3 E30.99383
G1 X-13.434 Y-26.696 E31.01244
G1 X-13.494 Y-27.111 E31.03106
G1 X-13.475 Y-27.53 E31.04969
