;FLAVOR:Marlin
;TIME:4454
;Filament used: 5.37275m
;Layer height: 0.24
;MINX:-94.374
;MINY:-7.258
;MINZ:0.24
;MAXX:91.626
;MAXY:8.735
;MAXZ:14.88
;TARGET_MACHINE.NAME:Unknown
;Generated with Cura_SteamEngine 5.10.0
M140 S60
M105
M190 S60
M104 S210
M105
M109 S210
;FLAVOR:Marlin
M82 ;absolute extrusion mode
G21
G90
M82
M107 T0
G28
G92 E0
G0 E3 F200
G92 E0 ; reset extrusion distance
M106 S255 ; Enable cooling fan full speed
G1 X-98 Y0 Z0.4 F3000 ; move to arc start
G3 X0 Y-98 I98 Z0.4 E40 F400 ; lay arc stripe 90deg
G92 E0 ; reset extrusion distance
G4 P500 ; wait for 0.5 sec
G0 Z10 E-1 ; Lift 15mm and retract 1mm filament
G4 P2000 ; wait for 5 sec
G0 Z15
M107 ; Disable cooling fan
G1 X0 Y-85 Z4 E0 F3000 ; get off the bed
M82 ;absolute extrusion mode
G92 E0
G92 E0
G1 F1500 E-1
;LAYER_COUNT:62
;LAYER:0
M107
G0 X-.999 Y0.519 Z0.24
;TYPE:SKIRT
G1 F3600 E0.71493
G1 F1200 X-.937 Y0.737 E0.72316
G1 X-.992 Y0.941 E0.73084
G1 X-1.073 Y1.047 E0.73568
G1 X-1.257 Y1.154 E0.74342
G1 X-1.49 Y1.154 E0.75188
G1 X-1.682 Y1.041 E0.75998
G1 X-1.792 Y0.852 E0.76793
G1 X-1.793 Y0.621 E0.77632
G1 X-1.749 Y0.515 E0.78049
G1 X-1.59 Y0.36 E0.78856
G1 X-1.374 Y0.298 E0.79672
G1 X-1.269 Y0.313 E0.80058
G1 X-1.071 Y0.425 E0.80884
G1 X-.999 Y0.519 E0.81314
G0 F1500 X-.649 Y0.318
G1 F1200 X-.784 Y0.141 E0.82123
G1 X-.956 Y0.01 E0.82909
G1 X-1.162 Y-0.076 E0.8372
G1 X-1.374 Y-.105 E0.84497
G1 X-1.585 Y-0.076 E0.85271
G1 X-1.79 Y0.01 E0.86079
G1 X-1.97 Y0.146 E0.86899
G1 X-2.099 Y0.314 E0.87668
G1 X-2.183 Y0.517 E0.88467
G1 X-2.211 Y0.734 E0.89262
G1 X-2.182 Y0.956 E0.90075
G1 X-2.1 Y1.154 E0.90854
G1 X-1.967 Y1.327 E0.91647
G1 X-1.792 Y1.461 E0.92448
G1 X-1.593 Y1.544 E0.93231
G1 X-1.374 Y1.572 E0.94033
G1 X-1.152 Y1.544 E0.94846
G1 X-.955 Y1.461 E0.95623
G1 X-.787 Y1.332 E0.96393
G1 X-.644 Y1.145 E0.97248
G1 X-.563 Y0.95 E0.98015
G1 X-.534 Y0.735 E0.98803
G1 X-.563 Y0.526 E0.9957
G1 X-.649 Y0.318 E1.00388
G0 F1500 X-.299 Y0.116
G1 F1200 X-.497 Y-.143 E1.01573
G1 X-.756 Y-.34 E1.02755
G1 X-1.056 Y-.465 E1.03936
G1 X-1.374 Y-.508 E1.05102
G1 X-1.691 Y-.465 E1.06264
G1 X-1.993 Y-.339 E1.07453
G1 X-2.254 Y-.141 E1.08644
G1 X-2.449 Y0.113 E1.09807
G1 X-2.573 Y0.413 E1.10987
G1 X-2.615 Y0.734 E1.12163
G1 X-2.572 Y1.06 E1.13358
G1 X-2.45 Y1.355 E1.14518
G1 X-2.252 Y1.613 E1.15699
G1 X-1.994 Y1.81 E1.16879
G1 X-1.698 Y1.934 E1.18045
G1 X-1.374 Y1.976 E1.19232
G1 X-1.049 Y1.934 E1.20423
G1 X-.752 Y1.81 E1.21592
G1 X-.501 Y1.617 E1.22742
G1 X-.296 Y1.349 E1.23968
G1 X-.174 Y1.055 E1.25125
G1 X-.131 Y0.735 E1.26298
G1 X-.174 Y0.42 E1.27453
G1 X-.299 Y0.116 E1.28648
G0 F1500 X0.401 Y-.286
G1 F1200 X0.604 Y0.204 E1.30575
G1 X0.675 Y0.735 E1.32521
G1 X0.604 Y1.265 E1.34464
G1 X0.4 Y1.757 E1.364
G1 X0.074 Y2.183 E1.38349
G1 X-.351 Y2.509 E1.40295
G1 X-.845 Y2.714 E1.42238
G1 X-1.374 Y2.784 E1.44177
G1 X-1.904 Y2.714 E1.4612
G1 X-2.397 Y2.509 E1.4806
G1 X-2.822 Y2.183 E1.50006
G1 X-3.149 Y1.757 E1.51957
G1 X-3.353 Y1.265 E1.53892
G1 X-3.423 Y0.735 E1.55835
G1 X-3.353 Y0.204 E1.57781
G1 X-3.15 Y-.286 E1.59708
G1 X-2.821 Y-.715 E1.61673
G1 X-2.399 Y-1.037 E1.63601
G1 X-1.904 Y-1.243 E1.65549
G1 X-1.374 Y-1.314 E1.67492
G1 X-.845 Y-1.243 E1.69432
G1 X-.349 Y-1.037 E1.71383
G1 X0.073 Y-.715 E1.73312
G1 X0.401 Y-.286 E1.75274
G0 F1500 X0.051 Y-0.085
G1 F1200 X-.212 Y-.429 E1.76847
G1 X-.553 Y-.689 E1.78406
G1 X-.95 Y-.854 E1.79968
G1 X-1.374 Y-.911 E1.81522
G1 X-1.798 Y-.854 E1.83077
G1 X-2.196 Y-.688 E1.84644
G1 X-2.538 Y-.427 E1.86207
G1 X-2.799 Y-0.088 E1.87761
G1 X-2.963 Y0.309 E1.89322
G1 X-3.019 Y0.735 E1.90883
G1 X-2.962 Y1.164 E1.92456
G1 X-2.801 Y1.553 E1.93985
G1 X-2.535 Y1.9 E1.95574
G1 X-2.197 Y2.159 E1.97121
G1 X-1.801 Y2.324 E1.9868
G1 X-1.374 Y2.38 E2.00245
G1 X-.946 Y2.324 E2.01813
G1 X-.552 Y2.16 E2.03364
G1 X-.213 Y1.9 E2.04916
G1 X0.052 Y1.553 E2.06503
G1 X0.215 Y1.16 E2.08049
G1 X0.272 Y0.735 E2.09607
G1 X0.215 Y0.312 E2.11157
G1 X0.051 Y-0.085 E2.12718
G1 F1500 E1.12718
G0 X66.207 Y0.621
G1 F3600 E2.84211
G1 F1200 X66.208 Y0.852 E2.8505
G1 X66.318 Y1.041 E2.85845
G1 X66.51 Y1.154 E2.86654
G1 X66.743 Y1.154 E2.87501
G1 X66.927 Y1.047 E2.88274
G1 X67.008 Y0.941 E2.88759
G1 X67.063 Y0.737 E2.89527
G1 X67.001 Y0.519 E2.9035
G1 X66.929 Y0.425 E2.9078
G1 X66.731 Y0.313 E2.91607
G1 X66.626 Y0.298 E2.91992
G1 X66.41 Y0.36 E2.92809
G1 X66.251 Y0.515 E2.93616
G1 X66.207 Y0.621 E2.94033
G0 F1500 X65.817 Y0.517
G1 F1200 X65.789 Y0.734 E2.94828
G1 X65.818 Y0.956 E2.95641
G1 X65.9 Y1.154 E2.9642
G1 X66.033 Y1.327 E2.97213
G1 X66.208 Y1.461 E2.98014
G1 X66.407 Y1.544 E2.98797
G1 X66.626 Y1.572 E2.99599
G1 X66.848 Y1.544 E3.00412
G1 X67.045 Y1.461 E3.01189
G1 X67.213 Y1.332 E3.01959
G1 X67.356 Y1.145 E3.02814
G1 X67.437 Y0.95 E3.03581
G1 X67.466 Y0.735 E3.04369
G1 X67.437 Y0.526 E3.05136
G1 X67.351 Y0.318 E3.05954
G1 X67.216 Y0.141 E3.06763
G1 X67.044 Y0.01 E3.07548
G1 X66.838 Y-0.076 E3.08359
G1 X66.626 Y-.105 E3.09137
G1 X66.415 Y-0.076 E3.09911
G1 X66.21 Y0.01 E3.10719
G1 X66.03 Y0.146 E3.11538
G1 X65.901 Y0.314 E3.12308
G1 X65.817 Y0.517 E3.13106
G0 F1500 X65.427 Y0.413
G1 F1200 X65.385 Y0.734 E3.14282
G1 X65.428 Y1.06 E3.15477
G1 X65.55 Y1.355 E3.16637
G1 X65.748 Y1.613 E3.17819
G1 X66.006 Y1.81 E3.18998
G1 X66.302 Y1.934 E3.20164
G1 X66.626 Y1.976 E3.21352
G1 X66.951 Y1.934 E3.22542
G1 X67.248 Y1.81 E3.23712
G1 X67.499 Y1.617 E3.24862
G1 X67.704 Y1.349 E3.26088
G1 X67.826 Y1.055 E3.27245
G1 X67.869 Y0.735 E3.28418
G1 X67.826 Y0.42 E3.29573
G1 X67.701 Y0.116 E3.30767
G1 X67.503 Y-.143 E3.31952
G1 X67.244 Y-.34 E3.33134
G1 X66.944 Y-.465 E3.34315
G1 X66.626 Y-.508 E3.35481
G1 X66.309 Y-.465 E3.36644
G1 X66.007 Y-.339 E3.37833
G1 X65.746 Y-.141 E3.39023
G1 X65.551 Y0.113 E3.40186
G1 X65.427 Y0.413 E3.41366
G0 F1500 X64.647 Y0.204
G1 F1200 X64.85 Y-.286 E3.43293
G1 X65.179 Y-.715 E3.45257
G1 X65.601 Y-1.037 E3.47186
G1 X66.096 Y-1.243 E3.49134
G1 X66.626 Y-1.314 E3.51077
G1 X67.155 Y-1.243 E3.53017
G1 X67.651 Y-1.037 E3.54968
G1 X68.073 Y-.715 E3.56897
G1 X68.401 Y-.286 E3.58859
G1 X68.604 Y0.204 E3.60786
G1 X68.675 Y0.735 E3.62733
G1 X68.604 Y1.265 E3.64676
G1 X68.4 Y1.757 E3.66611
G1 X68.074 Y2.183 E3.6856
G1 X67.649 Y2.509 E3.70506
G1 X67.155 Y2.714 E3.7245
G1 X66.626 Y2.784 E3.74388
G1 X66.096 Y2.714 E3.76331
G1 X65.603 Y2.509 E3.78271
G1 X65.178 Y2.183 E3.80217
G1 X64.851 Y1.757 E3.82168
G1 X64.647 Y1.265 E3.84104
G1 X64.577 Y0.735 E3.86046
G1 X64.647 Y0.204 E3.87992
G0 F1500 X65.037 Y0.309
G1 F1200 X64.981 Y0.735 E3.89553
G1 X65.038 Y1.164 E3.91126
G1 X65.199 Y1.553 E3.92656
G1 X65.465 Y1.9 E3.94244
G1 X65.803 Y2.159 E3.95792
G1 X66.199 Y2.324 E3.9735
G1 X66.626 Y2.38 E3.98915
G1 X67.054 Y2.324 E4.00484
G1 X67.448 Y2.16 E4.02034
G1 X67.787 Y1.9 E4.03587
G1 X68.052 Y1.553 E4.05173
G1 X68.215 Y1.16 E4.06719
G1 X68.272 Y0.735 E4.08277
G1 X68.215 Y0.312 E4.09828
G1 X68.051 Y-0.085 E4.11389
G1 X67.788 Y-.429 E4.12962
G1 X67.447 Y-.689 E4.1452
G1 X67.05 Y-.854 E4.16082
G1 X66.626 Y-.911 E4.17637
G1 X66.202 Y-.854 E4.19191
G1 X65.804 Y-.688 E4.20758
G1 X65.462 Y-.427 E4.22321
G1 X65.201 Y-0.088 E4.23876
G1 X65.037 Y0.309 E4.25436
G1 F1500 E3.25436
G0 X88.749 Y-7.258
G1 F3600 E4.96929
G1 F1200 X89.639 Y-7.076 E5.0023
G1 X90.394 Y-6.678 E5.03331
G1 X90.614 Y-6.509 E5.04339
G1 X91.112 Y-5.891 E5.07223
G1 X91.508 Y-5.095 E5.10453
G1 X91.622 Y-4.316 E5.13314
G1 X91.626 Y5.858 E5.50281
G1 X91.444 Y6.748 E5.53582
G1 X91.046 Y7.503 E5.56683
G1 X90.877 Y7.723 E5.57691
G1 X90.259 Y8.221 E5.60575
G1 X89.463 Y8.617 E5.63805
G1 X88.684 Y8.731 E5.66666
G1 X-91.497 Y8.735 E12.21354
G1 X-92.387 Y8.553 E12.24654
G1 X-93.142 Y8.155 E12.27755
G1 X-93.362 Y7.986 E12.28763
G1 X-93.86 Y7.368 E12.31647
G1 X-94.256 Y6.572 E12.34878
G1 X-94.37 Y5.793 E12.37738
G1 X-94.374 Y-4.38 E12.74702
G1 X-94.192 Y-5.27 E12.78003
G1 X-93.794 Y-6.025 E12.81104
G1 X-93.625 Y-6.245 E12.82112
G1 X-93.007 Y-6.743 E12.84996
G1 X-92.211 Y-7.139 E12.88226
G1 X-91.432 Y-7.253 E12.91087
G1 X88.749 Y-7.258 E19.45775
G0 F1500 X88.708 Y-6.858
G1 F1200 X89.504 Y-6.695 E19.48727
G1 X90.208 Y-6.324 E19.51618
G1 X90.333 Y-6.221 E19.52207
G1 X90.773 Y-5.675 E19.54755
G1 X91.121 Y-4.975 E19.57595
G1 X91.226 Y-4.258 E19.60228
G1 X91.226 Y5.817 E19.96836
G1 X91.063 Y6.613 E19.99788
G1 X90.692 Y7.317 E20.0268
G1 X90.589 Y7.442 E20.03268
G1 X90.043 Y7.882 E20.05816
G1 X89.343 Y8.23 E20.08656
G1 X88.626 Y8.335 E20.11289
G1 X-91.456 Y8.335 E26.65618
G1 X-92.252 Y8.172 E26.6857
G1 X-92.956 Y7.801 E26.71461
G1 X-93.081 Y7.698 E26.7205
G1 X-93.521 Y7.152 E26.74598
G1 X-93.869 Y6.452 E26.77438
G1 X-93.974 Y5.735 E26.80071
G1 X-93.974 Y-4.339 E27.16675
G1 X-93.811 Y-5.135 E27.19627
G1 X-93.44 Y-5.839 E27.22519
G1 X-93.337 Y-5.964 E27.23107
G1 X-92.791 Y-6.404 E27.25655
G1 X-92.091 Y-6.752 E27.28496
G1 X-91.374 Y-6.857 E27.31129
G1 X88.708 Y-6.858 E33.85457
G0 F1500 X88.667 Y-6.458
G1 F1200 X89.369 Y-6.314 E33.88061
G1 X90.022 Y-5.97 E33.90743
G1 X90.434 Y-5.459 E33.93128
G1 X90.735 Y-4.853 E33.95586
G1 X90.826 Y-4.258 E33.97773
G1 X90.826 Y5.776 E34.34232
G1 X90.682 Y6.478 E34.36836
G1 X90.338 Y7.131 E34.39517
G1 X89.827 Y7.543 E34.41902
G1 X89.221 Y7.844 E34.44361
G1 X88.626 Y7.935 E34.46548
G1 X-91.415 Y7.935 E41.00727
G1 X-92.117 Y7.791 E41.03331
G1 X-92.77 Y7.447 E41.06013
G1 X-93.182 Y6.936 E41.08398
G1 X-93.483 Y6.33 E41.10857
G1 X-93.574 Y5.735 E41.13044
G1 X-93.574 Y-4.298 E41.49499
G1 X-93.43 Y-5 E41.52102
G1 X-93.086 Y-5.653 E41.54784
G1 X-92.575 Y-6.065 E41.57169
G1 X-91.969 Y-6.366 E41.59628
G1 X-91.374 Y-6.457 E41.61815
G1 X88.667 Y-6.458 E48.15994
G0 F1500 X88.626 Y-6.058
G1 F1200 X-91.374 Y-6.057 E54.70024
G1 X-91.848 Y-5.98 E54.71769
G1 X-92.397 Y-5.707 E54.73997
G1 X-92.769 Y-5.395 E54.75761
G1 X-93.05 Y-4.863 E54.77947
G1 X-93.174 Y-4.257 E54.80195
G1 X-93.174 Y5.735 E55.16501
G1 X-93.097 Y6.209 E55.18246
G1 X-92.824 Y6.758 E55.20473
G1 X-92.512 Y7.13 E55.22238
G1 X-91.98 Y7.411 E55.24424
G1 X-91.374 Y7.535 E55.26671
G1 X88.626 Y7.535 E61.80702
G1 X89.1 Y7.458 E61.82446
G1 X89.649 Y7.185 E61.84674
G1 X90.021 Y6.873 E61.86438
G1 X90.302 Y6.341 E61.88624
G1 X90.426 Y5.735 E61.90872
G1 X90.426 Y-4.258 E62.27182
G1 X90.349 Y-4.732 E62.28926
G1 X90.076 Y-5.281 E62.31154
G1 X89.764 Y-5.653 E62.32918
G1 X89.232 Y-5.934 E62.35104
G1 X88.626 Y-6.058 E62.37352
G0 F1500 X88.626 Y-5.658
G1 F1200 X89.045 Y-5.58 E62.38901
G1 X89.509 Y-5.335 E62.40807
G1 X89.718 Y-5.103 E62.41942
G1 X89.964 Y-4.609 E62.43947
G1 X90.026 Y-4.258 E62.45242
G1 X90.026 Y5.735 E62.81552
G1 X89.948 Y6.154 E62.831
G1 X89.703 Y6.618 E62.85007
G1 X89.471 Y6.827 E62.86141
G1 X88.977 Y7.073 E62.88146
G1 X88.626 Y7.135 E62.89442
G1 X-91.374 Y7.135 E69.43472
G1 X-91.793 Y7.057 E69.4502
G1 X-92.257 Y6.812 E69.46927
G1 X-92.466 Y6.58 E69.48062
G1 X-92.712 Y6.086 E69.50067
G1 X-92.774 Y5.735 E69.51362
G1 X-92.774 Y-4.257 E69.87668
G1 X-92.696 Y-4.676 E69.89216
G1 X-92.451 Y-5.14 E69.91123
G1 X-92.219 Y-5.349 E69.92258
G1 X-91.725 Y-5.595 E69.94263
G1 X-91.374 Y-5.657 E69.95558
G1 X88.626 Y-5.658 E76.49588
G0 F1500 X88.626 Y-5.258
G1 F1200 X88.964 Y-5.188 E76.50842
G1 X89.227 Y-5.051 E76.5192
G1 X89.366 Y-4.913 E76.52631
G1 X89.572 Y-4.531 E76.54208
G1 X89.626 Y-4.258 E76.5522
G1 X89.626 Y5.735 E76.91529
G1 X89.556 Y6.073 E76.92783
G1 X89.419 Y6.336 E76.93861
G1 X89.281 Y6.475 E76.94573
G1 X88.899 Y6.681 E76.9615
G1 X88.626 Y6.735 E76.97161
G1 X-91.374 Y6.735 E83.51191
G1 X-91.712 Y6.665 E83.52445
G1 X-91.975 Y6.528 E83.53523
G1 X-92.114 Y6.39 E83.54234
G1 X-92.32 Y6.008 E83.55811
G1 X-92.374 Y5.735 E83.56822
G1 X-92.374 Y-4.257 E83.93128
G1 X-92.304 Y-4.595 E83.94383
G1 X-92.167 Y-4.858 E83.9546
G1 X-92.029 Y-4.997 E83.96172
G1 X-91.647 Y-5.203 E83.97749
G1 X-91.374 Y-5.257 E83.9876
G1 X88.626 Y-5.258 E90.5279
G0 F1500 X88.626 Y-4.458
G1 F1200 X88.745 Y-4.419 E90.53245
G1 X88.826 Y-4.258 E90.539
G1 X88.826 Y5.735 E90.9021
G1 X88.787 Y5.854 E90.90665
G1 X88.626 Y5.935 E90.9132
G1 X-91.374 Y5.935 E97.4535
G1 X-91.493 Y5.896 E97.45805
G1 X-91.574 Y5.735 E97.4646
G1 X-91.574 Y-4.257 E97.82766
G1 X-91.535 Y-4.376 E97.83221
G1 X-91.374 Y-4.457 E97.83876
G1 X88.626 Y-4.458 E104.37906
G0 F1500 X88.626 Y-4.858
G1 F1200 X88.87 Y-4.799 E104.38818
G1 X89.022 Y-4.708 E104.39462
G1 X89.183 Y-4.438 E104.40604
G1 X89.226 Y-4.258 E104.41276
G1 X89.226 Y5.735 E104.77586
G1 X89.167 Y5.979 E104.78498
G1 X89.076 Y6.131 E104.79142
G1 X88.806 Y6.292 E104.80284
G1 X88.626 Y6.335 E104.80956
G1 X-91.374 Y6.335 E111.34987
G1 X-91.618 Y6.276 E111.35899
G1 X-91.77 Y6.185 E111.36543
G1 X-91.931 Y5.915 E111.37685
G1 X-91.974 Y5.735 E111.38357
G1 X-91.974 Y-4.257 E111.74663
G1 X-91.915 Y-4.501 E111.75575
G1 X-91.824 Y-4.653 E111.76219
G1 X-91.554 Y-4.814 E111.77361
G1 X-91.374 Y-4.857 E111.78034
G1 X88.626 Y-4.858 E118.32064
G1 F1500 E117.32064
G0 X-68.937 Y0.737
G1 F3600 E119.03556
G1 F1200 X-68.999 Y0.519 E119.0438
G1 X-69.071 Y0.425 E119.0481
G1 X-69.269 Y0.313 E119.05637
G1 X-69.374 Y0.298 E119.06022
G1 X-69.59 Y0.36 E119.06839
G1 X-69.749 Y0.515 E119.07645
G1 X-69.793 Y0.621 E119.08062
G1 X-69.792 Y0.852 E119.08902
G1 X-69.682 Y1.041 E119.09696
G1 X-69.49 Y1.154 E119.10506
G1 X-69.257 Y1.154 E119.11352
G1 X-69.073 Y1.047 E119.12126
G1 X-68.992 Y0.941 E119.12611
G1 X-68.937 Y0.737 E119.13378
G0 F1500 X-68.534 Y0.735
G1 F1200 X-68.563 Y0.526 E119.14145
G1 X-68.649 Y0.318 E119.14963
G1 X-68.784 Y0.141 E119.15772
G1 X-68.956 Y0.01 E119.16557
G1 X-69.162 Y-0.076 E119.17368
G1 X-69.374 Y-.105 E119.18146
G1 X-69.585 Y-0.076 E119.1892
G1 X-69.79 Y0.01 E119.19727
G1 X-69.97 Y0.146 E119.20547
G1 X-70.099 Y0.314 E119.21317
G1 X-70.183 Y0.517 E119.22115
G1 X-70.211 Y0.734 E119.2291
G1 X-70.182 Y0.956 E119.23724
G1 X-70.1 Y1.154 E119.24502
G1 X-69.967 Y1.327 E119.25295
G1 X-69.792 Y1.461 E119.26096
G1 X-69.593 Y1.544 E119.26879
G1 X-69.374 Y1.572 E119.27682
G1 X-69.152 Y1.544 E119.28495
G1 X-68.955 Y1.461 E119.29271
G1 X-68.787 Y1.332 E119.30041
G1 X-68.644 Y1.145 E119.30896
G1 X-68.563 Y0.95 E119.31664
G1 X-68.534 Y0.735 E119.32452
G0 F1500 X-68.131 Y0.735
G1 F1200 X-68.174 Y0.42 E119.33607
G1 X-68.299 Y0.116 E119.34801
G1 X-68.497 Y-.143 E119.35986
G1 X-68.756 Y-.34 E119.37168
G1 X-69.056 Y-.465 E119.38349
G1 X-69.374 Y-.508 E119.39515
G1 X-69.691 Y-.465 E119.40678
G1 X-69.993 Y-.339 E119.41867
G1 X-70.254 Y-.141 E119.43057
G1 X-70.449 Y0.113 E119.4422
G1 X-70.573 Y0.413 E119.454
G1 X-70.615 Y0.734 E119.46576
G1 X-70.572 Y1.06 E119.47771
G1 X-70.45 Y1.355 E119.48931
G1 X-70.252 Y1.613 E119.50113
G1 X-69.994 Y1.81 E119.51292
G1 X-69.698 Y1.934 E119.52458
G1 X-69.374 Y1.976 E119.53645
G1 X-69.049 Y1.934 E119.54836
G1 X-68.752 Y1.81 E119.56005
G1 X-68.501 Y1.617 E119.57156
G1 X-68.296 Y1.349 E119.58382
G1 X-68.174 Y1.055 E119.59538
G1 X-68.131 Y0.735 E119.60712
G0 F1500 X-67.325 Y0.735
G1 F1200 X-67.396 Y1.265 E119.62655
G1 X-67.6 Y1.757 E119.6459
G1 X-67.926 Y2.183 E119.66539
G1 X-68.351 Y2.509 E119.68485
G1 X-68.845 Y2.714 E119.70429
G1 X-69.374 Y2.784 E119.72367
G1 X-69.904 Y2.714 E119.7431
G1 X-70.397 Y2.509 E119.7625
G1 X-70.822 Y2.183 E119.78196
G1 X-71.149 Y1.757 E119.80147
G1 X-71.353 Y1.265 E119.82083
G1 X-71.423 Y0.735 E119.84025
G1 X-71.353 Y0.204 E119.85971
G1 X-71.15 Y-.286 E119.87898
G1 X-70.821 Y-.715 E119.89863
G1 X-70.399 Y-1.037 E119.91792
G1 X-69.904 Y-1.243 E119.9374
G1 X-69.374 Y-1.314 E119.95683
G1 X-68.845 Y-1.243 E119.97622
G1 X-68.349 Y-1.037 E119.99573
G1 X-67.927 Y-.715 E120.01502
G1 X-67.599 Y-.286 E120.03464
G1 X-67.396 Y0.204 E120.05391
G1 X-67.325 Y0.735 E120.07338
G0 F1500 X-67.728 Y0.735
G1 F1200 X-67.785 Y0.312 E120.08889
G1 X-67.949 Y-0.085 E120.1045
