;FLAVOR:Marlin
;TIME:535
;Filament used: 0.588556m
;Layer height: 0.24
;MINX:-11.496
;MINY:-11.364
;MINZ:0.24
;MAXX:21.496
;MAXY:11.567
;MAXZ:9.4
;Generated with Cura_SteamEngine 4.13.1
M140 S50
M105
M190 S50
M104 S210
M105
M109 S210
M82 ;absolute extrusion mode
;FLAVOR:Marlin
M82 ;absolute extrusion mode
G21
G90
M82
M107 T0
G28
G92 E0
G0 E3 F200
G92 E0 ; reset extrusion distance
M106 S255 ; Enable cooling fan full speed
G1 X-98 Y0 Z0.4 F3000 ; move to arc start
G3 X0 Y-98 I98 Z0.4 E40 F400 ; lay arc stripe 90deg
G92 E0 ; reset extrusion distance
G4 P500 ; wait for 0.5 sec
G0 Z10 E-1 ; Lift 15mm and retract 1mm filament
G4 P2000 ; wait for 5 sec
G0 Z15
M107 ; Disable cooling fan
G1 X0 Y-85 Z4 E0 F3000 ; get off the bed
G92 E0
G92 E0
G1 F1500 E-6
;LAYER_COUNT:39
;LAYER:0
M106 S102
G1 F600 Z1.24
G0 F3600 X2.494 Y4.752 Z1.24
;TYPE:SKIRT
G1 F600 Z0.24
G1 F3600 E0.71493
G1 F1200 X2.425 Y5.579 E0.75178
G1 X2.281 Y6.295 E0.78421
G1 X2.069 Y6.981 E0.8161
G1 X1.789 Y7.637 E0.84778
G1 X1.439 Y8.27 E0.8799
G1 X1.032 Y8.857 E0.91162
G1 X0.563 Y9.4 E0.94348
G1 X0.064 Y9.874 E0.97405
G1 X-.532 Y10.333 E1.00745
G1 X-1.13 Y10.703 E1.03868
G1 X-1.785 Y11.019 E1.07098
G1 X-2.445 Y11.258 E1.10215
G1 X-3.156 Y11.436 E1.1347
G1 X-3.853 Y11.537 E1.16598
G1 X-4.565 Y11.567 E1.19763
G1 X-5.295 Y11.522 E1.23011
G1 X-6.005 Y11.403 E1.26208
G1 X-6.685 Y11.218 E1.29337
G1 X-7.373 Y10.95 E1.32616
G1 X-8.007 Y10.624 E1.35782
G1 X-8.6 Y10.24 E1.3892
G1 X-9.163 Y9.788 E1.42126
G1 X-9.68 Y9.275 E1.45361
G1 X-10.13 Y8.726 E1.48513
G1 X-10.529 Y8.119 E1.51739
G1 X-10.854 Y7.499 E1.54848
G1 X-11.124 Y6.825 E1.58072
G1 X-11.32 Y6.132 E1.6127
G1 X-11.444 Y5.427 E1.64449
G1 X-11.496 Y4.732 E1.67544
G1 X-11.474 Y3.999 E1.70801
G1 X-11.394 Y3.369 E1.73621
G1 X-11.255 Y2.737 E1.76495
G1 X-11.086 Y2.168 E1.79131
G1 X-10.976 Y1.682 E1.81344
G1 X-10.85 Y1.062 E1.84154
G1 X-10.74 Y0.566 E1.8641
G1 X-10.616 Y0.075 E1.88659
G1 X-10.48 Y-.415 E1.90917
G1 X-10.333 Y-.901 E1.93172
G1 X-10.174 Y-1.384 E1.9543
G1 X-10 Y-1.87 E1.97723
G1 X-9.657 Y-2.737 E2.01863
G1 X-9.421 Y-3.277 E2.0448
G1 X-9.206 Y-3.733 E2.06719
G1 X-8.979 Y-4.19 E2.08985
G1 X-8.735 Y-4.65 E2.11298
G1 X-8.267 Y-5.46 E2.15452
G1 X-7.962 Y-5.944 E2.17993
G1 X-7.666 Y-6.391 E2.20374
G1 X-7.125 Y-7.146 E2.24499
G1 X-6.81 Y-7.555 E2.26791
G1 X-6.741 Y-7.641 E2.27281
G1 X-6.319 Y-8.147 E2.30207
G1 X-6.088 Y-8.423 E2.31805
G1 X-5.679 Y-8.868 E2.34489
G1 X-5.4 Y-9.17 E2.36315
G1 X-4.778 Y-9.785 E2.402
G1 X-4.675 Y-9.883 E2.40831
G1 X-4.029 Y-10.464 E2.4469
G1 X-3.64 Y-10.76 E2.4686
G1 X-2.913 Y-11.116 E2.50455
G1 X-2.45 Y-11.272 E2.52625
G1 X-1.878 Y-11.357 E2.55193
G1 X-1.667 Y-11.364 E2.56131
G1 X11.666 Y-11.363 E3.15342
G1 X12.326 Y-11.289 E3.18291
G1 X13.028 Y-11.09 E3.21532
G1 X13.491 Y-10.854 E3.2384
G1 X13.611 Y-10.779 E3.24468
G1 X14.017 Y-10.475 E3.2672
G1 X14.42 Y-10.115 E3.2912
G1 X14.786 Y-9.779 E3.31327
G1 X15.405 Y-9.163 E3.35205
G1 X15.499 Y-9.065 E3.35808
G1 X16.089 Y-8.422 E3.39683
G1 X16.19 Y-8.307 E3.40363
G1 X16.747 Y-7.634 E3.44243
G1 X17.075 Y-7.212 E3.46616
G1 X17.383 Y-6.793 E3.48926
G1 X17.672 Y-6.379 E3.51168
G1 X17.998 Y-5.888 E3.53785
G1 X18.483 Y-5.096 E3.5791
G1 X18.737 Y-4.644 E3.60212
G1 X19.01 Y-4.131 E3.62793
G1 X19.245 Y-3.657 E3.65142
G1 X19.457 Y-3.194 E3.67404
G1 X19.822 Y-2.336 E3.71545
G1 X20.002 Y-1.869 E3.73767
G1 X20.175 Y-1.381 E3.76067
G1 X20.354 Y-.833 E3.78627
G1 X20.502 Y-.34 E3.80913
G1 X20.633 Y0.144 E3.83139
G1 X20.757 Y0.644 E3.85427
G1 X20.867 Y1.14 E3.87683
G1 X21.013 Y1.866 E3.90972
G1 X21.17 Y2.452 E3.93666
G1 X21.318 Y2.988 E3.96136
G1 X21.446 Y3.723 E3.99449
G1 X21.496 Y4.422 E4.02561
G1 X21.475 Y5.135 E4.05729
G1 X21.378 Y5.856 E4.0896
G1 X21.211 Y6.554 E4.12147
G1 X20.967 Y7.242 E4.15389
G1 X20.663 Y7.884 E4.18543
G1 X20.295 Y8.492 E4.21699
G1 X19.861 Y9.068 E4.24902
G1 X19.37 Y9.595 E4.28101
G1 X18.829 Y10.068 E4.31292
G1 X18.24 Y10.483 E4.34492
G1 X17.627 Y10.829 E4.37618
G1 X16.969 Y11.118 E4.4081
G1 X16.275 Y11.338 E4.44043
G1 X15.583 Y11.483 E4.47183
G1 X14.866 Y11.558 E4.50384
G1 X14.155 Y11.559 E4.53542
G1 X13.433 Y11.486 E4.56764
G1 X12.731 Y11.341 E4.59948
G1 X12.051 Y11.125 E4.63116
G1 X11.394 Y10.841 E4.66295
G1 X10.763 Y10.486 E4.6951
G1 X10.173 Y10.069 E4.72719
G1 X9.633 Y9.598 E4.75901
G1 X9.153 Y9.084 E4.79024
G1 X8.714 Y8.506 E4.82247
G1 X8.341 Y7.892 E4.85438
G1 X8.033 Y7.241 E4.88636
G1 X7.795 Y6.566 E4.91815
G1 X7.627 Y5.879 E4.94956
G1 X7.528 Y5.166 E4.98152
G1 X7.507 Y4.754 E4.99984
G1 X6.35 Y5.172 E5.05448
G1 X5.878 Y5.3 E5.07619
G1 X5.331 Y5.35 E5.10059
G1 X4.676 Y5.35 E5.12968
G1 X4.188 Y5.31 E5.15142
G1 X3.657 Y5.172 E5.17578
G1 X3.119 Y4.977 E5.2012
G0 F1080 X2.494 Y4.752
G0 F3600 X2.093 Y4.847
G1 F1200 X2.027 Y5.532 E5.23176
G1 X1.89 Y6.208 E5.26239
G1 X1.689 Y6.854 E5.29244
G1 X1.425 Y7.473 E5.32232
G1 X1.093 Y8.069 E5.35262
G1 X0.709 Y8.621 E5.38248
G1 X0.267 Y9.132 E5.41248
G1 X-.206 Y9.579 E5.44139
G1 X-.769 Y10.011 E5.4729
G1 X-1.333 Y10.358 E5.50231
G1 X-1.95 Y10.655 E5.53272
G1 X-2.573 Y10.879 E5.56212
G1 X-3.244 Y11.046 E5.59283
G1 X-3.902 Y11.14 E5.62235
G1 X-4.573 Y11.167 E5.65217
G1 X-5.261 Y11.124 E5.68278
G1 X-5.931 Y11.01 E5.71296
G1 X-6.571 Y10.834 E5.74244
G1 X-7.22 Y10.581 E5.77338
G1 X-7.816 Y10.273 E5.80317
G1 X-8.376 Y9.909 E5.83283
G1 X-8.906 Y9.481 E5.86308
G1 X-9.392 Y8.997 E5.89354
G1 X-9.814 Y8.479 E5.92322
G1 X-10.191 Y7.906 E5.95368
G1 X-10.496 Y7.321 E5.98297
G1 X-10.749 Y6.685 E6.01337
G1 X-10.933 Y6.031 E6.04354
G1 X-11.048 Y5.367 E6.07347
G1 X-11.096 Y4.711 E6.10268
G1 X-11.074 Y4.02 E6.13338
G1 X-10.999 Y3.43 E6.1598
G1 X-10.868 Y2.836 E6.18681
G1 X-10.712 Y2.316 E6.21092
G1 X-10.584 Y1.761 E6.23621
G1 X-10.46 Y1.148 E6.26399
G1 X-10.246 Y0.24 E6.30542
G1 X-10.097 Y-.299 E6.33025
G1 X-9.817 Y-1.192 E6.37181
G1 X-9.627 Y-1.727 E6.39702
G1 X-9.287 Y-2.586 E6.43805
G1 X-9.059 Y-3.108 E6.46335
G1 X-8.654 Y-3.947 E6.50472
G1 X-8.386 Y-4.454 E6.53019
G1 X-7.922 Y-5.257 E6.57138
G1 X-7.627 Y-5.724 E6.59591
G1 X-7.339 Y-6.161 E6.61915
G1 X-6.802 Y-6.91 E6.66008
G1 X-6.494 Y-7.31 E6.6825
G1 X-6.434 Y-7.385 E6.68676
G1 X-6.012 Y-7.891 E6.71602
G1 X-5.793 Y-8.152 E6.73115
G1 X-5.403 Y-8.577 E6.75677
G1 X-5.119 Y-8.886 E6.77541
G1 X-4.497 Y-9.501 E6.81425
G1 X-4.408 Y-9.585 E6.81969
G1 X-3.762 Y-10.166 E6.85827
G1 X-3.397 Y-10.44 E6.87854
G1 X-2.755 Y-10.749 E6.91018
G1 X-2.322 Y-10.892 E6.93043
G1 X-1.799 Y-10.961 E6.95386
G1 X-1.667 Y-10.964 E6.95972
G1 X11.666 Y-10.963 E7.55183
G1 X12.238 Y-10.899 E7.5774
G1 X12.907 Y-10.707 E7.6083
G1 X13.399 Y-10.44 E7.63316
G1 X13.751 Y-10.176 E7.6527
G1 X14.152 Y-9.819 E7.67655
G1 X14.504 Y-9.496 E7.69776
G1 X15.123 Y-8.88 E7.73655
G1 X15.205 Y-8.795 E7.74179
G1 X15.795 Y-8.152 E7.78055
G1 X15.882 Y-8.052 E7.78643
G1 X16.439 Y-7.379 E7.82523
G1 X16.803 Y-6.909 E7.85163
G1 X17.343 Y-6.151 E7.89296
G1 X17.658 Y-5.676 E7.91827
G1 X18.139 Y-4.891 E7.95916
G1 X18.414 Y-4.401 E7.98411
G1 X18.652 Y-3.952 E8.00668
G1 X18.881 Y-3.489 E8.02962
G1 X19.091 Y-3.032 E8.05195
G1 X19.451 Y-2.185 E8.09282
G1 X19.653 Y-1.659 E8.11785
G1 X19.953 Y-.775 E8.1593
G1 X20.116 Y-.234 E8.18439
G1 X20.351 Y0.665 E8.22566
G1 X20.462 Y1.158 E8.2481
G1 X20.621 Y1.947 E8.28385
G1 X20.778 Y2.538 E8.311
G1 X20.929 Y3.083 E8.33612
G1 X21.05 Y3.781 E8.36758
G1 X21.096 Y4.443 E8.39705
G1 X21.075 Y5.114 E8.42686
G1 X20.983 Y5.794 E8.45733
G1 X20.824 Y6.452 E8.4874
G1 X20.593 Y7.1 E8.51795
G1 X20.305 Y7.704 E8.54766
G1 X19.957 Y8.278 E8.57747
G1 X19.547 Y8.82 E8.60766
G1 X19.084 Y9.316 E8.63779
G1 X18.572 Y9.76 E8.66788
G1 X18.017 Y10.15 E8.69801
G1 X17.437 Y10.477 E8.72758
G1 X16.817 Y10.748 E8.75763
G1 X16.163 Y10.954 E8.78808
G1 X15.51 Y11.089 E8.81769
G1 X14.833 Y11.159 E8.84792
G1 X14.163 Y11.159 E8.87767
G1 X13.482 Y11.089 E8.90807
G1 X12.821 Y10.951 E8.93806
G1 X12.18 Y10.746 E8.96795
G1 X11.56 Y10.477 E8.99796
G1 X10.966 Y10.142 E9.02824
G1 X10.411 Y9.748 E9.05847
G1 X9.903 Y9.302 E9.08849
G1 X9.45 Y8.817 E9.11796
G1 X9.038 Y8.271 E9.14834
G1 X8.687 Y7.692 E9.17841
G1 X8.398 Y7.078 E9.20855
G1 X8.175 Y6.442 E9.23848
G1 X8.017 Y5.792 E9.26818
G1 X7.925 Y5.12 E9.29831
G1 X7.903 Y4.443 E9.32839
G1 X7.914 Y4.181 E9.34003
G1 X6.214 Y4.795 E9.4203
G1 X5.774 Y4.912 E9.44052
G1 X5.331 Y4.95 E9.46027
G1 X4.676 Y4.95 E9.48935
G1 X4.222 Y4.91 E9.50959
G1 X3.793 Y4.795 E9.52932
G1 X2.085 Y4.178 E9.60997
G1 X2.086 Y4.182 E9.61015
G0 F1080 X2.093 Y4.847
G0 F3600 X1.693 Y4.842
G1 F1200 X1.63 Y5.485 E9.63884
G1 X1.5 Y6.121 E9.66767
G1 X1.31 Y6.728 E9.69592
G1 X1.06 Y7.308 E9.72397
G1 X0.748 Y7.868 E9.75243
G1 X0.385 Y8.386 E9.78052
G1 X-0.03 Y8.863 E9.8086
G1 X-.475 Y9.283 E9.83578
G1 X-1.006 Y9.689 E9.86546
G1 X-1.536 Y10.014 E9.89307
G1 X-2.116 Y10.291 E9.92162
G1 X-2.701 Y10.5 E9.9492
G1 X-3.333 Y10.656 E9.97811
G1 X-3.95 Y10.743 E10.00578
G1 X-4.582 Y10.767 E10.03387
G1 X-5.227 Y10.725 E10.06258
G1 X-5.856 Y10.617 E10.09092
G1 X-6.458 Y10.451 E10.11865
G1 X-7.066 Y10.211 E10.14768
G1 X-7.626 Y9.921 E10.17569
G1 X-8.151 Y9.578 E10.20354
G1 X-8.649 Y9.175 E10.23199
G1 X-9.104 Y8.72 E10.26056
G1 X-9.499 Y8.233 E10.28841
G1 X-9.852 Y7.693 E10.31706
G1 X-10.138 Y7.142 E10.34463
G1 X-10.374 Y6.544 E10.37318
G1 X-10.546 Y5.931 E10.40145
G1 X-10.653 Y5.307 E10.42957
G1 X-10.697 Y4.689 E10.45708
G1 X-10.675 Y4.041 E10.48588
G1 X-10.603 Y3.491 E10.51051
G1 X-10.48 Y2.936 E10.53576
G1 X-10.329 Y2.432 E10.55912
G1 X-10.204 Y1.914 E10.58279
G1 X-10.192 Y1.84 E10.58612
G1 X-10.069 Y1.233 E10.61362
G1 X-9.858 Y0.337 E10.6545
G1 X-9.714 Y-.184 E10.6785
G1 X-9.437 Y-1.067 E10.7196
G1 X-9.254 Y-1.583 E10.74392
G1 X-8.916 Y-2.435 E10.78462
G1 X-8.696 Y-2.938 E10.809
G1 X-8.296 Y-3.769 E10.84996
G1 X-8.038 Y-4.257 E10.87447
G1 X-7.578 Y-5.053 E10.9153
G1 X-7.293 Y-5.505 E10.93903
G1 X-7.011 Y-5.931 E10.96172
G1 X-6.479 Y-6.674 E11.0023
G1 X-6.127 Y-7.129 E11.02785
G1 X-5.705 Y-7.635 E11.05711
G1 X-5.499 Y-7.882 E11.07139
G1 X-5.09 Y-8.327 E11.09823
G1 X-4.838 Y-8.601 E11.11477
G1 X-4.216 Y-9.216 E11.15361
G1 X-4.14 Y-9.288 E11.15826
G1 X-3.494 Y-9.869 E11.19685
G1 X-3.157 Y-10.118 E11.21545
G1 X-2.597 Y-10.381 E11.24293
G1 X-2.198 Y-10.51 E11.26155
G1 X-1.667 Y-10.564 E11.28525
G1 X11.666 Y-10.563 E11.87737
G1 X12.385 Y-10.456 E11.90965
G1 X12.783 Y-10.325 E11.92826
G1 X13.187 Y-10.101 E11.94877
G1 X13.485 Y-9.877 E11.96533
G1 X13.883 Y-9.522 E11.98901
G1 X14.222 Y-9.212 E12.00941
G1 X14.841 Y-8.596 E12.04819
G1 X14.91 Y-8.524 E12.05262
G1 X15.5 Y-7.881 E12.09138
G1 X15.574 Y-7.797 E12.09635
G1 X16.131 Y-7.124 E12.13514
G1 X16.48 Y-6.673 E12.16047
G1 X17.015 Y-5.922 E12.20142
G1 X17.318 Y-5.465 E12.22577
G1 X17.796 Y-4.686 E12.26636
G1 X18.061 Y-4.213 E12.29043
G1 X18.489 Y-3.383 E12.33191
G1 X18.726 Y-2.871 E12.35696
G1 X19.081 Y-2.034 E12.39734
G1 X19.276 Y-1.526 E12.4215
G1 X19.573 Y-.651 E12.46254
G1 X19.73 Y-.129 E12.48675
G1 X19.963 Y0.762 E12.52765
G1 X20.082 Y1.295 E12.5519
G1 X20.229 Y2.028 E12.5851
G1 X20.396 Y2.656 E12.61396
G1 X20.541 Y3.179 E12.63806
G1 X20.655 Y3.839 E12.6678
G1 X20.697 Y4.464 E12.69562
G1 X20.676 Y5.093 E12.72357
G1 X20.588 Y5.733 E12.75226
G1 X20.437 Y6.349 E12.78043
G1 X20.219 Y6.959 E12.80919
G1 X19.948 Y7.525 E12.83706
G1 X19.619 Y8.064 E12.86511
G1 X19.233 Y8.572 E12.89344
G1 X18.797 Y9.037 E12.92175
G1 X18.316 Y9.453 E12.94999
G1 X17.794 Y9.818 E12.97828
G1 X17.247 Y10.125 E13.00613
G1 X16.664 Y10.378 E13.03436
G1 X16.051 Y10.57 E13.06288
G1 X15.436 Y10.696 E13.09076
G1 X14.8 Y10.761 E13.11915
G1 X14.171 Y10.76 E13.14709
G1 X13.531 Y10.692 E13.17567
G1 X12.912 Y10.561 E13.20377
G1 X12.309 Y10.368 E13.23189
G1 X11.727 Y10.114 E13.26009
G1 X11.17 Y9.798 E13.28853
G1 X10.649 Y9.427 E13.31693
G1 X10.173 Y9.007 E13.34512
G1 X9.748 Y8.55 E13.37284
G1 X9.362 Y8.037 E13.40135
G1 X9.034 Y7.492 E13.4296
G1 X8.763 Y6.915 E13.45791
G1 X8.555 Y6.317 E13.48602
G1 X8.408 Y5.705 E13.51397
G1 X8.323 Y5.074 E13.54225
G1 X8.303 Y4.438 E13.57051
G1 X8.349 Y3.805 E13.59869
G1 X8.365 Y3.697 E13.60354
G1 X7.974 Y3.734 E13.62098
G1 X6.078 Y4.419 E13.71051
G1 X5.673 Y4.523 E13.72908
G1 X5.331 Y4.55 E13.74432
G1 X4.676 Y4.55 E13.7734
G1 X4.259 Y4.51 E13.79201
G1 X3.929 Y4.419 E13.80721
G1 X2.033 Y3.734 E13.89674
G1 X1.634 Y3.697 E13.91453
G1 X1.683 Y4.178 E13.936
G0 F1080 X1.688 Y4.233
G0 X1.693 Y4.842
G0 F3600 X1.293 Y4.838
G1 F1200 X1.233 Y5.439 E13.96283
G1 X1.11 Y6.033 E13.98977
G1 X0.93 Y6.602 E14.01627
G1 X0.696 Y7.143 E14.04245
G1 X0.402 Y7.667 E14.06913
G1 X0.062 Y8.151 E14.0954
G1 X-.326 Y8.595 E14.12158
G1 X-.745 Y8.988 E14.14709
G1 X-1.243 Y9.366 E14.17486
G1 X-1.739 Y9.669 E14.20067
G1 X-2.281 Y9.927 E14.22733
G1 X-2.829 Y10.121 E14.25314
G1 X-3.422 Y10.266 E14.28026
G1 X-3.998 Y10.346 E14.30608
G1 X-4.591 Y10.368 E14.33243
G1 X-5.193 Y10.326 E14.35923
G1 X-5.781 Y10.224 E14.38574
G1 X-6.344 Y10.067 E14.41169
G1 X-6.912 Y9.842 E14.43882
G1 X-7.435 Y9.569 E14.46502
G1 X-7.927 Y9.247 E14.49114
G1 X-8.391 Y8.869 E14.51772
G1 X-8.816 Y8.442 E14.54447
G1 X-9.184 Y7.987 E14.57046
G1 X-9.513 Y7.48 E14.5973
G1 X-9.78 Y6.964 E14.6231
G1 X-10 Y6.404 E14.64982
G1 X-10.159 Y5.83 E14.67627
G1 X-10.258 Y5.247 E14.70253
G1 X-10.297 Y4.667 E14.72835
G1 X-10.275 Y4.063 E14.75519
G1 X-10.208 Y3.552 E14.77808
G1 X-10.093 Y3.036 E14.80155
G1 X-9.943 Y2.54 E14.82457
G1 X-9.811 Y1.991 E14.84964
G1 X-9.799 Y1.919 E14.85288
G1 X-9.678 Y1.319 E14.88007
G1 X-9.47 Y0.434 E14.92044
G1 X-9.331 Y-0.068 E14.94357
G1 X-9.056 Y-.943 E14.9843
G1 X-8.88 Y-1.44 E15.00772
G1 X-8.546 Y-2.284 E15.04803
G1 X-8.334 Y-2.768 E15.07149
G1 X-7.937 Y-3.591 E15.11207
G1 X-7.69 Y-4.061 E15.13565
G1 X-7.234 Y-4.849 E15.17608
G1 X-6.959 Y-5.285 E15.19898
G1 X-6.434 Y-6.057 E15.24044
G1 X-6.127 Y-6.477 E15.26354
G1 X-5.819 Y-6.873 E15.28582
G1 X-5.411 Y-7.363 E15.31414
G1 X-5.204 Y-7.611 E15.32848
G1 X-4.795 Y-8.056 E15.35532
G1 X-4.557 Y-8.317 E15.37101
G1 X-3.935 Y-8.932 E15.40985
G1 X-3.873 Y-8.99 E15.41362
G1 X-3.227 Y-9.571 E15.45221
G1 X-2.735 Y-9.886 E15.47815
G1 X-2.077 Y-10.127 E15.50927
G1 X-1.667 Y-10.164 E15.52755
G1 X11.666 Y-10.163 E16.11967
G1 X12.297 Y-10.066 E16.14802
G1 X12.855 Y-9.836 E16.17482
G1 X13.219 Y-9.579 E16.19461
G1 X13.615 Y-9.226 E16.21817
G1 X13.94 Y-8.929 E16.23772
G1 X14.559 Y-8.313 E16.2765
G1 X15.205 Y-7.611 E16.31887
G1 X15.266 Y-7.542 E16.32296
G1 X15.823 Y-6.869 E16.36175
G1 X16.157 Y-6.437 E16.386
G1 X16.687 Y-5.694 E16.42654
G1 X16.979 Y-5.254 E16.44999
G1 X17.452 Y-4.481 E16.49023
G1 X17.708 Y-4.025 E16.51346
G1 X18.131 Y-3.204 E16.55447
G1 X18.36 Y-2.709 E16.57869
G1 X18.711 Y-1.883 E16.61855
G1 X18.898 Y-1.393 E16.64184
G1 X19.193 Y-.526 E16.68251
G1 X19.344 Y-0.023 E16.70583
G1 X19.575 Y0.859 E16.74632
G1 X19.69 Y1.373 E16.76972
G1 X19.842 Y2.128 E16.80392
G1 X20.014 Y2.774 E16.8336
G1 X20.153 Y3.275 E16.85669
G1 X20.259 Y3.897 E16.88472
G1 X20.298 Y4.485 E16.91089
G1 X20.276 Y5.072 E16.93697
G1 X20.193 Y5.671 E16.96383
G1 X20.05 Y6.247 E16.99018
G1 X19.845 Y6.817 E17.01708
G1 X19.59 Y7.346 E17.04316
G1 X19.281 Y7.85 E17.06942
G1 X18.919 Y8.324 E17.09591
G1 X18.51 Y8.758 E17.12239
G1 X18.06 Y9.146 E17.14878
G1 X17.571 Y9.486 E17.17523
G1 X17.057 Y9.773 E17.20137
G1 X16.512 Y10.008 E17.22773
G1 X15.939 Y10.186 E17.25437
G1 X15.362 Y10.303 E17.28052
G1 X14.767 Y10.362 E17.30707
G1 X14.178 Y10.36 E17.33323
G1 X13.58 Y10.295 E17.35994
G1 X13.002 Y10.172 E17.38619
G1 X12.437 Y9.989 E17.41256
G1 X11.894 Y9.75 E17.43891
G1 X11.374 Y9.454 E17.46548
G1 X10.887 Y9.105 E17.49209
G1 X10.443 Y8.712 E17.51842
G1 X10.046 Y8.282 E17.54441
G1 X9.686 Y7.802 E17.57106
G1 X9.38 Y7.292 E17.59747
