;FLAVOR:Marlin
;TIME:1900
;Filament used: 2.41131m
;Layer height: 0.24
;MINX:-14.242
;MINY:-31.885
;MINZ:0.3
;MAXX:3.658
;MAXY:-2.485
;MAXZ:42.78
;Generated with Cura_SteamEngine 4.12.1
M140 S50
M105
M190 S50
M104 S210
M105
M109 S210
M82 ;absolute extrusion mode
;FLAVOR:Marlin
M82 ;absolute extrusion mode
G21
G90
M82
M107 T0
G28
G92 E0
G0 E3 F200
G92 E0 ; reset extrusion distance
M106 S255 ; Enable cooling fan full speed
G1 X-98 Y0 Z0.4 F3000 ; move to arc start
G3 X0 Y-98 I98 Z0.4 E40 F400 ; lay arc stripe 90deg
G92 E0 ; reset extrusion distance
G4 P500 ; wait for 0.5 sec
G0 Z10 E-1 ; Lift 15mm and retract 1mm filament
G4 P2000 ; wait for 5 sec
G0 Z15
M107 ; Disable cooling fan
G1 X0 Y-85 Z4 E0 F3000 ; get off the bed
G92 E0
G92 E0
G1 F1500 E-7
;LAYER_COUNT:179
;LAYER:0
M107
G1 F600 Z1.3
G0 F3600 X1.458 Y-2.485 Z1.3
;TYPE:SKIRT
G1 F600 Z0.3
G1 F1500 E0.41575
G1 F2400 X-12.042 Y-2.485 E1.08927
G1 X-12.459 Y-2.525 E1.11017
G1 X-12.861 Y-2.643 E1.13107
G1 X-13.233 Y-2.836 E1.15198
G1 X-13.562 Y-3.095 E1.17287
G1 X-13.836 Y-3.412 E1.19377
G1 X-14.045 Y-3.775 E1.21467
G1 X-14.181 Y-4.172 E1.23561
G1 X-14.242 Y-4.685 E1.26138
G1 X-14.242 Y-29.685 E2.50864
G1 X-14.202 Y-30.102 E2.52954
G1 X-14.084 Y-30.504 E2.55044
G1 X-13.891 Y-30.876 E2.57135
G1 X-13.632 Y-31.205 E2.59224
G1 X-13.315 Y-31.479 E2.61314
G1 X-12.952 Y-31.688 E2.63404
G1 X-12.555 Y-31.824 E2.65497
G1 X-12.042 Y-31.885 E2.68075
G1 X1.458 Y-31.885 E3.35427
G1 X1.875 Y-31.845 E3.37517
G1 X2.277 Y-31.727 E3.39607
G1 X2.649 Y-31.534 E3.41698
G1 X2.978 Y-31.275 E3.43787
G1 X3.252 Y-30.958 E3.45877
G1 X3.461 Y-30.595 E3.47967
G1 X3.597 Y-30.198 E3.5006
G1 X3.658 Y-29.685 E3.52638
G1 X3.658 Y-4.685 E4.77363
G1 X3.618 Y-4.268 E4.79453
G1 X3.5 Y-3.866 E4.81543
G1 X3.307 Y-3.494 E4.83634
G1 X3.048 Y-3.165 E4.85723
G1 X2.731 Y-2.891 E4.87814
G1 X2.368 Y-2.682 E4.89903
G1 X1.986 Y-2.551 E4.91918
G0 F2160 X1.971 Y-2.546
G0 X1.458 Y-2.485
G0 F3600 X1.458 Y-2.885
G1 F2400 X-12.042 Y-2.885 E5.5927
G1 X-12.419 Y-2.925 E5.61161
G1 X-12.779 Y-3.043 E5.63051
G1 X-13.106 Y-3.233 E5.64938
G1 X-13.387 Y-3.488 E5.66831
G1 X-13.607 Y-3.797 E5.68724
G1 X-13.759 Y-4.144 E5.70614
G1 X-13.842 Y-4.685 E5.73344
G1 X-13.842 Y-29.685 E6.9807
G1 X-13.802 Y-30.062 E6.99961
G1 X-13.684 Y-30.422 E7.01851
G1 X-13.494 Y-30.749 E7.03738
G1 X-13.239 Y-31.03 E7.05631
G1 X-12.93 Y-31.25 E7.07524
G1 X-12.583 Y-31.402 E7.09414
G1 X-12.042 Y-31.485 E7.12144
G1 X1.458 Y-31.485 E7.79496
G1 X1.835 Y-31.445 E7.81388
G1 X2.195 Y-31.327 E7.83278
G1 X2.522 Y-31.137 E7.85164
G1 X2.803 Y-30.882 E7.87058
G1 X3.023 Y-30.573 E7.8895
G1 X3.175 Y-30.226 E7.9084
G1 X3.258 Y-29.685 E7.93571
G1 X3.258 Y-4.685 E9.18296
G1 X3.218 Y-4.308 E9.20187
G1 X3.1 Y-3.948 E9.22078
G1 X2.91 Y-3.621 E9.23964
G1 X2.655 Y-3.34 E9.25857
G1 X2.346 Y-3.12 E9.2775
G1 X1.999 Y-2.968 E9.2964
G1 X1.984 Y-2.965 E9.29716
G0 F2160 X1.458 Y-2.885
G0 F3600 X1.458 Y-3.285
G1 F2400 X-12.042 Y-3.285 E9.97068
G1 X-12.374 Y-3.325 E9.98736
G1 X-12.686 Y-3.442 E10.00399
G1 X-12.963 Y-3.63 E10.02069
G1 X-13.186 Y-3.878 E10.03733
G1 X-13.345 Y-4.172 E10.054
G1 X-13.442 Y-4.685 E10.08005
G1 X-13.442 Y-29.685 E11.32731
G1 X-13.402 Y-30.017 E11.34399
G1 X-13.285 Y-30.329 E11.36061
G1 X-13.097 Y-30.606 E11.37732
G1 X-12.849 Y-30.829 E11.39395
G1 X-12.555 Y-30.988 E11.41063
G1 X-12.042 Y-31.085 E11.43668
G1 X1.458 Y-31.085 E12.11019
G1 X1.79 Y-31.045 E12.12688
G1 X2.102 Y-30.928 E12.1435
G1 X2.379 Y-30.74 E12.1602
G1 X2.602 Y-30.492 E12.17684
G1 X2.761 Y-30.198 E12.19352
G1 X2.858 Y-29.685 E12.21957
G1 X2.858 Y-4.685 E13.46682
G1 X2.818 Y-4.353 E13.4835
G1 X2.701 Y-4.041 E13.50013
G1 X2.513 Y-3.764 E13.51683
G1 X2.265 Y-3.541 E13.53347
G1 X1.979 Y-3.386 E13.5497
G0 F2160 X1.971 Y-3.382
G0 X1.458 Y-3.285
G0 F3600 X1.458 Y-3.685
G1 F2400 X-12.042 Y-3.685 E14.22322
G1 X-12.321 Y-3.725 E14.23728
G1 X-12.578 Y-3.841 E14.25135
G1 X-12.793 Y-4.024 E14.26543
G1 X-12.947 Y-4.26 E14.27949
G1 X-13.042 Y-4.685 E14.30122
G1 X-13.042 Y-29.685 E15.54847
G1 X-13.002 Y-29.964 E15.56253
G1 X-12.886 Y-30.221 E15.5766
G1 X-12.703 Y-30.436 E15.59069
G1 X-12.467 Y-30.59 E15.60475
G1 X-12.042 Y-30.685 E15.62647
G1 X1.458 Y-30.685 E16.29999
G1 X1.737 Y-30.645 E16.31405
G1 X1.994 Y-30.529 E16.32812
G1 X2.209 Y-30.346 E16.34221
G1 X2.363 Y-30.11 E16.35626
G1 X2.458 Y-29.685 E16.37799
G1 X2.458 Y-4.685 E17.62525
G1 X2.418 Y-4.406 E17.63931
G1 X2.302 Y-4.149 E17.65338
G1 X2.119 Y-3.934 E17.66746
G1 X1.964 Y-3.833 E17.67669
G0 F2160 X1.883 Y-3.78
G0 X1.458 Y-3.685
G0 F3600 X1.458 Y-4.085
G1 F2400 X-12.042 Y-4.085 E18.35021
G1 X-12.257 Y-4.125 E18.36112
G1 X-12.443 Y-4.238 E18.37198
G1 X-12.576 Y-4.411 E18.38286
G1 X-12.642 Y-4.685 E18.39692
G1 X-12.642 Y-29.685 E19.64418
G1 X-12.602 Y-29.9 E19.65509
G1 X-12.489 Y-30.086 E19.66595
G1 X-12.316 Y-30.219 E19.67684
G1 X-12.042 Y-30.285 E19.6909
G1 X1.458 Y-30.285 E20.36441
G1 X1.673 Y-30.245 E20.37532
G1 X1.859 Y-30.132 E20.38618
G1 X1.992 Y-29.959 E20.39707
G1 X2.058 Y-29.685 E20.41113
G1 X2.058 Y-4.685 E21.65838
G1 X2.018 Y-4.47 E21.6693
G1 X1.922 Y-4.312 E21.67852
G0 F2160 X1.905 Y-4.284
G0 X1.732 Y-4.151
G0 X1.458 Y-4.085
G0 F3600 X1.458 Y-4.485
G1 F2400 X-12.042 Y-4.485 E22.35204
G1 X-12.161 Y-4.524 E22.35828
G1 X-12.242 Y-4.685 E22.36728
G1 X-12.242 Y-29.685 E23.61453
G1 X-12.203 Y-29.804 E23.62078
G1 X-12.042 Y-29.885 E23.62977
G1 X1.458 Y-29.885 E24.30329
G1 X1.577 Y-29.846 E24.30954
G1 X1.658 Y-29.685 E24.31853
G1 X1.658 Y-4.912 E25.55446
G0 F2160 X1.658 Y-4.685
G0 X1.619 Y-4.566
G0 X1.458 Y-4.485
G1 F1500 E18.55446
G1 F600 Z1.3
;MESH:BackupBat_Wing v2.3mf
G0 F3600 X1.258 Y-29.485 Z1.3
;TYPE:WALL-OUTER
G1 F600 Z0.3
G1 F1500 E25.97021
G1 F2400 X1.258 Y-4.885 E27.19751
G1 X-11.842 Y-4.885 E27.85107
G1 X-11.842 Y-29.485 E29.07837
G1 X0.726 Y-29.485 E29.70539
G0 F2160 X1.258 Y-29.485
G0 F3600 X1.258 Y-29.285
G0 X0.818 Y-29.045
G0 X0.858 Y-29.085
;TYPE:WALL-INNER
G1 F2400 X0.858 Y-5.285 E30.89278
G1 X-11.442 Y-5.285 E31.50642
G1 X-11.442 Y-29.085 E32.69381
G1 X0.326 Y-29.085 E33.28092
G0 F2160 X0.858 Y-29.085
G0 F3600 X0.458 Y-28.685
G1 F2400 X0.458 Y-5.685 E34.42839
G1 X-11.042 Y-5.685 E35.00213
G1 X-11.042 Y-28.685 E36.14961
G1 X-0.074 Y-28.685 E36.6968
G0 F2160 X0.458 Y-28.685
G0 F3600 X0.058 Y-28.285
G1 F2400 X0.058 Y-6.085 E37.80436
G1 X-10.642 Y-6.085 E38.33819
G1 X-10.642 Y-28.285 E39.44575
G1 X-.474 Y-28.285 E39.95304
G0 F2160 X0.058 Y-28.285
G0 F3600 X-.332 Y-27.895
;TYPE:SKIN
G1 F2400 X-.332 Y-6.475 E41.02168
G1 X-10.252 Y-6.475 E41.51659
G1 X-10.252 Y-27.895 E42.58524
G1 X-.864 Y-27.895 E43.05361
G0 F2160 X-.332 Y-27.895
G0 F3600 X-1.127 Y-27.714
G1 F2400 X-.511 Y-27.099 E43.09704
G0 F3600 X-.511 Y-26.533
G1 F2400 X-1.692 Y-27.714 E43.18036
G0 F3600 X-2.258 Y-27.714
G1 F2400 X-.511 Y-25.967 E43.30363
G0 F3600 X-.511 Y-25.402
G1 F2400 X-2.824 Y-27.714 E43.46678
G0 F3600 X-3.389 Y-27.714
G1 F2400 X-.511 Y-24.836 E43.66984
G0 F3600 X-.511 Y-24.27
G1 F2400 X-3.955 Y-27.714 E43.91284
G0 F3600 X-4.521 Y-27.714
G1 F2400 X-.511 Y-23.705 E44.19573
G0 F3600 X-.511 Y-23.139
G1 F2400 X-5.086 Y-27.714 E44.51852
G0 F3600 X-5.652 Y-27.714
G1 F2400 X-.511 Y-22.573 E44.88124
G0 F3600 X-.511 Y-22.007
G1 F2400 X-6.218 Y-27.714 E45.2839
G0 F3600 X-6.783 Y-27.714
G1 F2400 X-.511 Y-21.442 E45.72643
G0 F3600 X-.511 Y-20.876
G1 F2400 X-7.349 Y-27.714 E46.20888
G0 F3600 X-7.915 Y-27.714
G1 F2400 X-.511 Y-20.31 E46.73128
G0 F3600 X-.511 Y-19.745
G1 F2400 X-8.481 Y-27.714 E47.29357
G0 F3600 X-9.046 Y-27.714
G1 F2400 X-.511 Y-19.179 E47.89576
G0 F3600 X-.511 Y-18.613
G1 F2400 X-9.612 Y-27.714 E48.53788
G0 F3600 X-10.072 Y-27.608
G1 F2400 X-.511 Y-18.048 E49.21243
G0 F3600 X-.511 Y-17.482
G1 F2400 X-10.072 Y-27.042 E49.88697
G0 F3600 X-10.072 Y-26.476
G1 F2400 X-.511 Y-16.916 E50.56152
G0 F3600 X-.511 Y-16.351
G1 F2400 X-10.072 Y-25.911 E51.23606
G0 F3600 X-10.072 Y-25.345
G1 F2400 X-.511 Y-15.785 E51.91061
G0 F3600 X-.511 Y-15.219
G1 F2400 X-10.072 Y-24.779 E52.58515
G0 F3600 X-10.072 Y-24.214
G1 F2400 X-.511 Y-14.654 E53.2597
G0 F3600 X-.511 Y-14.088
G1 F2400 X-10.072 Y-23.648 E53.93424
G0 F3600 X-10.072 Y-23.082
G1 F2400 X-.511 Y-13.522 E54.60879
G0 F3600 X-.511 Y-12.957
G1 F2400 X-10.072 Y-22.517 E55.28333
G0 F3600 X-10.072 Y-21.951
G1 F2400 X-.511 Y-12.391 E55.95788
G0 F3600 X-.511 Y-11.825
G1 F2400 X-10.072 Y-21.385 E56.63242
G0 F3600 X-10.072 Y-20.82
G1 F2400 X-.511 Y-11.259 E57.307
G0 F3600 X-.511 Y-10.694
G1 F2400 X-10.072 Y-20.254 E57.98155
G0 F3600 X-10.072 Y-19.688
G1 F2400 X-.511 Y-10.128 E58.65609
G0 F3600 X-.511 Y-9.562
G1 F2400 X-10.072 Y-19.122 E59.33064
G0 F3600 X-10.072 Y-18.557
G1 F2400 X-.511 Y-8.997 E60.00518
G0 F3600 X-.511 Y-8.431
G1 F2400 X-10.072 Y-17.991 E60.67973
G0 F3600 X-10.072 Y-17.425
G1 F2400 X-.511 Y-7.865 E61.35427
G0 F3600 X-.511 Y-7.3
G1 F2400 X-10.072 Y-16.86 E62.02882
G0 F3600 X-10.072 Y-16.294
G1 F2400 X-.511 Y-6.734 E62.70336
G0 F3600 X-.997 Y-6.654
G1 F2400 X-10.072 Y-15.728 E63.34362
G0 F3600 X-10.072 Y-15.163
G1 F2400 X-1.563 Y-6.654 E63.94397
G0 F3600 X-2.129 Y-6.654
G1 F2400 X-10.072 Y-14.597 E64.50439
G0 F3600 X-10.072 Y-14.031
G1 F2400 X-2.694 Y-6.654 E65.02492
G0 F3600 X-3.26 Y-6.654
M104 S202
G1 F2400 X-10.072 Y-13.466 E65.50554
G0 F3600 X-10.072 Y-12.9
G1 F2400 X-3.826 Y-6.654 E65.94623
G0 F3600 X-4.391 Y-6.654
G1 F2400 X-10.072 Y-12.334 E66.34702
G0 F3600 X-10.072 Y-11.769
G1 F2400 X-4.957 Y-6.654 E66.70791
G0 F3600 X-5.523 Y-6.654
G1 F2400 X-10.072 Y-11.203 E67.02887
G0 F3600 X-10.072 Y-10.637
G1 F2400 X-6.088 Y-6.654 E67.30992
G0 F3600 X-6.654 Y-6.654
G1 F2400 X-10.072 Y-10.072 E67.55108
G0 F3600 X-10.072 Y-9.506
G1 F2400 X-7.22 Y-6.654 E67.75231
G0 F3600 X-7.785 Y-6.654
G1 F2400 X-10.072 Y-8.94 E67.91363
G0 F3600 X-10.072 Y-8.374
G1 F2400 X-8.351 Y-6.654 E68.03502
G0 F3600 X-8.917 Y-6.654
G1 F2400 X-10.072 Y-7.809 E68.11651
G0 F3600 X-10.072 Y-7.243
G1 F2400 X-9.483 Y-6.654 E68.15807
G1 X-9.413 Y-6.584
;MESH:NONMESH
G0 F600 X-9.413 Y-6.584 Z0.54
G0 F3600 X0.058 Y-28.285
;TIME_ELAPSED:39.233986
;LAYER:1
M106 S255
;TYPE:WALL-INNER
;MESH:BackupBat_Wing v2.3mf
G1 F4800 X0.058 Y-6.085 E69.04412
G1 X-10.642 Y-6.085 E69.47118
G1 X-10.642 Y-28.285 E70.35723
G1 X-.607 Y-28.285 E70.75775
G0 F4320 X0.058 Y-28.285
G0 F7200 X0.458 Y-28.685
G1 F4800 X0.458 Y-5.685 E71.67573
G1 X-11.042 Y-5.685 E72.13472
G1 X-11.042 Y-28.685 E73.0527
G1 X-.207 Y-28.685 E73.48515
G0 F4320 X0.458 Y-28.685
G0 F7200 X0.858 Y-29.085
G1 F4800 X0.858 Y-5.285 E74.43506
G1 X-11.442 Y-5.285 E74.92598
G1 X-11.442 Y-29.085 E75.87589
G1 X0.193 Y-29.085 E76.34026
G0 F4320 X0.858 Y-29.085
G0 F7200 X1.258 Y-29.485
;TYPE:WALL-OUTER
G1 F2400 X1.258 Y-4.885 E77.3221
G1 X-11.842 Y-4.885 E77.84495
G1 X-11.842 Y-29.485 E78.82679
G1 X0.593 Y-29.485 E79.3231
G0 F2160 X1.258 Y-29.485
G0 F7200 X1.258 Y-29.285
G0 X0.818 Y-29.045
G0 X0.818 Y-28.985
G0 X-.332 Y-27.895
;TYPE:SKIN
G1 F2400 X-.332 Y-6.475 E80.17802
G1 X-10.252 Y-6.475 E80.57395
G1 X-10.252 Y-27.895 E81.42886
G1 X-.997 Y-27.895 E81.79825
G0 F2160 X-.332 Y-27.895
G0 F7200 X-10.071 Y-27.263
G1 F2400 X-9.62 Y-27.714 E81.82371
G0 F7200 X-9.055 Y-27.714
G1 F2400 X-10.071 Y-26.698 E81.88106
G0 F7200 X-10.071 Y-26.132
G1 F2400 X-8.489 Y-27.714 E81.97035
G0 F7200 X-7.923 Y-27.714
G1 F2400 X-10.071 Y-25.566 E82.09159
G0 F7200 X-10.071 Y-25.001
G1 F2400 X-7.358 Y-27.714 E82.24473
G0 F7200 X-6.792 Y-27.714
G1 F2400 X-10.071 Y-24.435 E82.42981
G0 F7200 X-10.071 Y-23.869
G1 F2400 X-6.226 Y-27.714 E82.64684
G0 F7200 X-5.661 Y-27.714
G1 F2400 X-10.071 Y-23.304 E82.89575
G0 F7200 X-10.071 Y-22.738
G1 F2400 X-5.095 Y-27.714 E83.17662
G0 F7200 X-4.529 Y-27.714
G1 F2400 X-10.071 Y-22.172 E83.48944
G0 F7200 X-10.071 Y-21.607
G1 F2400 X-3.964 Y-27.714 E83.83414
G0 F7200 X-3.398 Y-27.714
G1 F2400 X-10.071 Y-21.041 E84.21079
G0 F7200 X-10.071 Y-20.475
G1 F2400 X-2.832 Y-27.714 E84.61939
G0 F7200 X-2.266 Y-27.714
G1 F2400 X-10.071 Y-19.91 E85.05991
G0 F7200 X-10.071 Y-19.344
G1 F2400 X-1.701 Y-27.714 E85.53235
G0 F7200 X-1.135 Y-27.714
G1 F2400 X-10.071 Y-18.778 E86.03674
G0 F7200 X-10.071 Y-18.212
G1 F2400 X-.569 Y-27.714 E86.57307
G0 F7200 X-.511 Y-27.206
G1 F2400 X-10.071 Y-17.647 E87.11265
G0 F7200 X-10.071 Y-17.081
G1 F2400 X-.511 Y-26.64 E87.65223
G0 F7200 X-.511 Y-26.075
G1 F2400 X-10.071 Y-16.515 E88.19184
G0 F7200 X-10.071 Y-15.95
G1 F2400 X-.511 Y-25.509 E88.73142
G0 F7200 X-.511 Y-24.943
G1 F2400 X-10.071 Y-15.384 E89.271
G0 F7200 X-10.071 Y-14.818
G1 F2400 X-.511 Y-24.378 E89.81061
G0 F7200 X-.511 Y-23.812
G1 F2400 X-10.071 Y-14.253 E90.35019
G0 F7200 X-10.071 Y-13.687
G1 F2400 X-.511 Y-23.246 E90.88977
G0 F7200 X-.511 Y-22.681
G1 F2400 X-10.071 Y-13.121 E91.42937
G0 F7200 X-10.071 Y-12.556
G1 F2400 X-.511 Y-22.115 E91.96895
G0 F7200 X-.511 Y-21.549
G1 F2400 X-10.071 Y-11.99 E92.50853
G0 F7200 X-10.071 Y-11.424
G1 F2400 X-.511 Y-20.984 E93.04814
G0 F7200 X-.511 Y-20.418
G1 F2400 X-10.071 Y-10.859 E93.58772
G0 F7200 X-10.071 Y-10.293
G1 F2400 X-.511 Y-19.852 E94.1273
G0 F7200 X-.511 Y-19.287
G1 F2400 X-10.071 Y-9.727 E94.66691
G0 F7200 X-10.071 Y-9.161
G1 F2400 X-.511 Y-18.721 E95.20652
G0 F7200 X-.511 Y-18.155
G1 F2400 X-10.071 Y-8.596 E95.74609
G0 F7200 X-10.071 Y-8.03
G1 F2400 X-.511 Y-17.589 E96.28567
G0 F7200 X-.511 Y-17.024
G1 F2400 X-10.071 Y-7.464 E96.82528
G0 F7200 X-10.071 Y-6.899
G1 F2400 X-.511 Y-16.458 E97.36486
G0 F7200 X-.511 Y-15.892
G1 F2400 X-9.751 Y-6.653 E97.88638
G0 F7200 X-9.185 Y-6.653
G1 F2400 X-.511 Y-15.327 E98.37598
G0 F7200 X-.511 Y-14.761
G1 F2400 X-8.619 Y-6.653 E98.83363
G0 F7200 X-8.053 Y-6.653
G1 F2400 X-.511 Y-14.195 E99.25933
G0 F7200 X-.511 Y-13.63
G1 F2400 X-7.488 Y-6.653 E99.65314
G0 F7200 X-6.922 Y-6.653
G1 F2400 X-.511 Y-13.064 E100.01501
G0 F7200 X-.511 Y-12.498
G1 F2400 X-6.356 Y-6.653 E100.34492
G0 F7200 X-5.791 Y-6.653
G1 F2400 X-.511 Y-11.933 E100.64295
G0 F7200 X-.511 Y-11.367
G1 F2400 X-5.225 Y-6.653 E100.90903
G0 F7200 X-4.659 Y-6.653
G1 F2400 X-.511 Y-10.801 E101.14316
G0 F7200 X-.511 Y-10.236
G1 F2400 X-4.094 Y-6.653 E101.3454
G0 F7200 X-3.528 Y-6.653
G1 F2400 X-.511 Y-9.67 E101.51569
G0 F7200 X-.511 Y-9.104
G1 F2400 X-2.962 Y-6.653 E101.65404
G0 F7200 X-2.397 Y-6.653
G1 F2400 X-.511 Y-8.539 E101.76049
G0 F7200 X-.511 Y-7.973
G1 F2400 X-1.831 Y-6.653 E101.835
G0 F7200 X-1.265 Y-6.653
G1 F2400 X-.511 Y-7.407 E101.87756
G0 F7200 X-.511 Y-6.841
G1 F2400 X-.7 Y-6.653 E101.8882
;MESH:NONMESH
G0 F600 X-.7 Y-6.653 Z0.78
G0 F7200 X0.058 Y-28.285
;TIME_ELAPSED:59.769830
;LAYER:2
;TYPE:WALL-INNER
;MESH:BackupBat_Wing v2.3mf
G1 F4800 X0.058 Y-6.085 E102.77425
G1 X-10.642 Y-6.085 E103.20131
G1 X-10.642 Y-28.285 E104.08736
G1 X-.607 Y-28.285 E104.48787
G0 F4320 X0.058 Y-28.285
G0 F7200 X0.458 Y-28.685
G1 F4800 X0.458 Y-5.685 E105.40585
G1 X-11.042 Y-5.685 E105.86484
G1 X-11.042 Y-28.685 E106.78282
G1 X-.207 Y-28.685 E107.21527
G0 F4320 X0.458 Y-28.685
G0 F7200 X0.858 Y-29.085
G1 F4800 X0.858 Y-5.285 E108.16518
G1 X-11.442 Y-5.285 E108.6561
G1 X-11.442 Y-29.085 E109.60601
G1 X0.193 Y-29.085 E110.07039
G0 F4320 X0.858 Y-29.085
G0 F7200 X1.258 Y-29.485
;TYPE:WALL-OUTER
G1 F2400 X1.258 Y-4.885 E111.05223
G1 X-11.842 Y-4.885 E111.57508
G1 X-11.842 Y-29.485 E112.55692
G1 X0.593 Y-29.485 E113.05322
G0 F2160 X1.258 Y-29.485
G0 F7200 X1.258 Y-29.285
G0 X0.818 Y-29.045
G0 X0.818 Y-28.985
G0 X-.332 Y-27.895
;TYPE:SKIN
G1 F2400 X-.332 Y-6.475 E113.90814
G1 X-10.252 Y-6.475 E114.30407
G1 X-10.252 Y-27.895 E115.15899
G1 X-.997 Y-27.895 E115.52838
G0 F2160 X-.332 Y-27.895
G0 F7200 X-1.127 Y-27.714
G1 F2400 X-.511 Y-27.099 E115.56312
G0 F7200 X-.511 Y-26.533
G1 F2400 X-1.692 Y-27.714 E115.62978
