;FLAVOR:Marlin
;TIME:10464
;Filament used: 6.56602m
;Layer height: 0.2
;MINX:-82.29
;MINY:-84.591
;MINZ:0.3
;MAXX:81.635
;MAXY:73.552
;MAXZ:65
;TARGET_MACHINE.NAME:Unknown
;POSTPROCESSED
;  [CreateThumbnail]
;Generated with Cura_SteamEngine 5.11.0
;
;

M140 S50
M105
M190 S50
M104 S230
M105
M109 S230
;FLAVOR:Marlin
M82 ;absolute extrusion mode
G21
G90
M82
M107 T0
G28
G92 E0
G0 E3 F200
G92 E0 ; reset extrusion distance
M106 S255 ; Enable cooling fan full speed
G1 X-98 Y0 Z0.4 F3000 ; move to arc start
G3 X0 Y-98 I98 Z0.4 E40 F400 ; lay arc stripe 90deg
G92 E0 ; reset extrusion distance
G4 P500 ; wait for 0.5 sec
G0 Z10 E-1 ; Lift 15mm and retract 1mm filament
G4 P2000 ; wait for 5 sec
G0 Z15
M107 ; Disable cooling fan
G1 X0 Y-85 Z4 E0 F3000 ; get off the bed
M82 ;absolute extrusion mode
G92 E0
G92 E0
G1 F1500 E-6.5
;LAYER_COUNT:299
;LAYER:0
M107
G0 F3600 X-12.832 Y-47.499 Z0.3
;TYPE:SKIRT
G1 F1500 E0
G1 F1200 X-14.079 Y-48.468 E0.06303
G1 X-15.576 Y-50.411 E0.16093
G1 X-16.671 Y-52.903 E0.26957
G1 X-16.988 Y-55.706 E0.38215
G1 X-16.612 Y-58.286 E0.48621
G1 X-15.863 Y-59.98 E0.56014
G1 X-4.021 Y-80.421 E1.503
G1 X-3.131 Y-81.573 E1.56111
G1 X-1.076 Y-83.24 E1.66672
G1 X1.49 Y-84.248 E1.77675
G1 X3.831 Y-84.591 E1.87118
G1 X5.791 Y-84.31 E1.95021
G1 X7.317 Y-83.891 E2.01337
G1 X77.846 Y-43.169 E5.26385
G1 X79.54 Y-41.65 E5.35467
G1 X80.554 Y-39.863 E5.43667
G1 X81.271 Y-38.13 E5.51152
G1 X81.635 Y-35.459 E5.61912
G1 X81.218 Y-32.807 E5.72626
G1 X80.562 Y-31.271 E5.79292
G1 X68.7 Y-10.743 E6.73919
G1 X67.809 Y-9.557 E6.7984
G1 X65.849 Y-7.991 E6.89853
G1 X63.252 Y-6.811 E7.01238
G1 X60.429 Y-6.494 E7.12576
G1 X57.839 Y-6.874 E7.23024
G1 X56.143 Y-7.624 E7.30425
G1 X-12.832 Y-47.499 E10.48412
G0 F3600 X-12.587 Y-47.815
G1 F1200 X-13.793 Y-48.752 E10.54507
G1 X-15.23 Y-50.617 E10.63904
G1 X-16.281 Y-53.009 E10.74332
G1 X-16.585 Y-55.697 E10.85129
G1 X-16.224 Y-58.174 E10.9512
G1 X-15.497 Y-59.818 E11.02294
G1 X-3.705 Y-80.176 E11.96194
G1 X-2.844 Y-81.29 E12.01813
G1 X-.87 Y-82.891 E12.11957
G1 X1.591 Y-83.858 E12.22511
G1 X3.833 Y-84.187 E12.31555
G1 X5.685 Y-83.924 E12.39021
G1 X7.164 Y-83.518 E12.45142
G1 X77.608 Y-42.845 E15.69799
G1 X79.224 Y-41.396 E15.78462
G1 X80.184 Y-39.71 E15.86205
G1 X80.882 Y-38.022 E15.93496
G1 X81.231 Y-35.464 E16.038
G1 X80.831 Y-32.919 E16.14082
G1 X80.194 Y-31.428 E16.20554
G1 X68.38 Y-10.983 E17.14798
G1 X67.519 Y-9.837 E17.20519
G1 X65.638 Y-8.334 E17.30129
G1 X63.144 Y-7.201 E17.41062
G1 X60.438 Y-6.897 E17.5193
G1 X57.951 Y-7.262 E17.61962
G1 X56.305 Y-7.99 E17.69146
G1 X-12.587 Y-47.815 E20.86746
G0 F3600 X-12.342 Y-48.131
G1 F1200 X-13.507 Y-49.036 E20.92634
G1 X-14.884 Y-50.823 E21.01638
G1 X-15.891 Y-53.115 E21.1163
G1 X-16.182 Y-55.688 E21.21964
G1 X-15.836 Y-58.062 E21.3154
G1 X-15.131 Y-59.656 E21.38496
G1 X-3.388 Y-79.931 E22.32011
G1 X-2.555 Y-81.009 E22.37449
G1 X-.664 Y-82.542 E22.47164
G1 X1.692 Y-83.468 E22.57268
G1 X3.835 Y-83.783 E22.65913
G1 X5.579 Y-83.538 E22.72942
G1 X7.011 Y-83.145 E22.78869
G1 X77.37 Y-42.521 E26.03134
G1 X78.91 Y-41.14 E26.1139
G1 X79.814 Y-39.557 E26.18666
G1 X80.493 Y-37.914 E26.25761
G1 X80.827 Y-35.469 E26.3561
G1 X80.444 Y-33.03 E26.45464
G1 X79.848 Y-31.628 E26.51544
G1 X68.06 Y-11.223 E27.45598
G1 X67.229 Y-10.117 E27.5112
G1 X65.427 Y-8.677 E27.60326
G1 X63.036 Y-7.591 E27.70808
G1 X60.447 Y-7.3 E27.81206
G1 X58.063 Y-7.65 E27.90823
G1 X56.467 Y-8.356 E27.97788
G1 X-12.342 Y-48.131 E31.15002
G0 F3600 X-12.097 Y-48.447
G1 F1200 X-13.221 Y-49.32 E31.20682
G1 X-14.538 Y-51.029 E31.29293
G1 X-15.501 Y-53.221 E31.38849
G1 X-15.779 Y-55.679 E31.48722
G1 X-15.448 Y-57.95 E31.57882
G1 X-14.765 Y-59.494 E31.6462
G1 X-3.071 Y-79.686 E32.57751
G1 X-2.266 Y-80.728 E32.63006
G1 X-.458 Y-82.193 E32.72294
G1 X1.793 Y-83.078 E32.81947
G1 X3.838 Y-83.379 E32.90197
G1 X5.473 Y-83.152 E32.96786
G1 X6.858 Y-82.772 E33.02518
G1 X77.132 Y-42.197 E36.26391
G1 X78.595 Y-40.885 E36.34234
G1 X79.444 Y-39.404 E36.41048
G1 X80.104 Y-37.806 E36.47948
G1 X80.423 Y-35.474 E36.57343
G1 X80.057 Y-33.142 E36.66764
G1 X79.48 Y-31.785 E36.72649
G1 X67.74 Y-11.463 E37.66321
G1 X66.939 Y-10.397 E37.71643
G1 X65.216 Y-9.02 E37.80446
G1 X62.928 Y-7.981 E37.90475
G1 X60.456 Y-7.703 E38.00404
G1 X58.175 Y-8.038 E38.09605
G1 X56.629 Y-8.722 E38.16353
G1 X-12.097 Y-48.447 E41.33179
G0 F3600 X-11.852 Y-48.763
G1 F1200 X-12.935 Y-49.604 E41.38652
G1 X-14.192 Y-51.235 E41.46871
G1 X-15.111 Y-53.327 E41.5599
G1 X-15.376 Y-55.67 E41.65401
G1 X-15.06 Y-57.838 E41.74146
G1 X-14.399 Y-59.332 E41.80666
G1 X-2.755 Y-79.441 E42.7341
G1 X-1.979 Y-80.445 E42.78474
G1 X-.252 Y-81.844 E42.87345
G1 X1.894 Y-82.688 E42.96549
G1 X3.842 Y-82.975 E43.04408
G1 X5.367 Y-82.766 E43.10551
G1 X6.705 Y-82.399 E43.16089
G1 X76.894 Y-41.873 E46.39571
G1 X78.279 Y-40.631 E46.46995
G1 X79.074 Y-39.251 E46.53352
G1 X79.715 Y-37.698 E46.60058
G1 X80.019 Y-35.479 E46.68997
G1 X79.67 Y-33.254 E46.77986
G1 X79.112 Y-31.942 E46.83676
G1 X67.42 Y-11.703 E47.76965
G1 X66.649 Y-10.677 E47.82087
G1 X65.005 Y-9.363 E47.90487
G1 X62.82 Y-8.371 E48.00065
G1 X60.465 Y-8.106 E48.09523
G1 X58.287 Y-8.426 E48.18309
G1 X56.791 Y-9.088 E48.24839
G1 X-11.852 Y-48.763 E51.41279
G0 F3600 X-11.607 Y-49.079
G1 F1200 X-12.649 Y-49.888 E51.46544
G1 X-13.846 Y-51.441 E51.5437
G1 X-14.721 Y-53.433 E51.63053
G1 X-14.973 Y-55.661 E51.72003
G1 X-14.672 Y-57.726 E51.80331
G1 X-14.033 Y-59.17 E51.86634
G1 X-2.438 Y-79.196 E52.78993
G1 X-1.69 Y-80.164 E52.83875
G1 X-0.046 Y-81.495 E52.92318
G1 X1.995 Y-82.298 E53.01072
G1 X3.846 Y-82.571 E53.08539
G1 X5.261 Y-82.38 E53.14238
G1 X6.552 Y-82.026 E53.19581
G1 X76.656 Y-41.549 E56.42671
G1 X77.963 Y-40.377 E56.49678
G1 X78.727 Y-39.051 E56.55786
G1 X79.326 Y-37.592 E56.62081
G1 X79.615 Y-35.484 E56.70573
G1 X79.283 Y-33.366 E56.7913
G1 X78.744 Y-32.099 E56.84625
G1 X67.1 Y-11.943 E57.77531
G1 X66.359 Y-10.957 E57.82454
G1 X64.794 Y-9.706 E57.9045
G1 X62.715 Y-8.762 E57.99563
G1 X60.471 Y-8.51 E58.08576
G1 X58.399 Y-8.814 E58.16934
G1 X56.953 Y-9.454 E58.23246
G1 X-11.607 Y-49.079 E61.39299
G0 F3600 X-11.362 Y-49.395
G1 F1200 X-12.363 Y-50.172 E61.44357
G1 X-13.5 Y-51.647 E61.5179
G1 X-14.331 Y-53.539 E61.60037
G1 X-14.57 Y-55.652 E61.68524
G1 X-14.284 Y-57.614 E61.76438
G1 X-13.667 Y-59.008 E61.82522
G1 X-2.121 Y-78.951 E62.74497
G1 X-1.401 Y-79.883 E62.79197
G1 X0.16 Y-81.146 E62.87211
G1 X2.096 Y-81.908 E62.95515
G1 X3.848 Y-82.167 E63.02584
G1 X5.155 Y-81.994 E63.07846
G1 X6.399 Y-81.653 E63.12994
G1 X76.418 Y-41.225 E66.35693
G1 X77.647 Y-40.123 E66.42281
G1 X78.38 Y-38.851 E66.48141
G1 X78.937 Y-37.487 E66.54021
G1 X79.211 Y-35.488 E66.62074
G1 X78.896 Y-33.478 E66.70194
G1 X78.376 Y-32.256 E66.75495
G1 X66.78 Y-12.183 E67.68018
G1 X66.069 Y-11.237 E67.72741
G1 X64.583 Y-10.049 E67.80335
G1 X62.607 Y-9.152 E67.88996
G1 X60.48 Y-8.913 E67.97539
G1 X58.511 Y-9.202 E68.05482
G1 X57.115 Y-9.82 E68.11575
G1 X-11.362 Y-49.395 E71.27241
G0 F3600 X-11.117 Y-49.711
G1 F1200 X-12.077 Y-50.456 E71.32091
G1 X-13.154 Y-51.853 E71.39132
G1 X-13.941 Y-53.645 E71.46943
G1 X-14.167 Y-55.643 E71.54969
G1 X-13.896 Y-57.502 E71.62467
G1 X-13.301 Y-58.846 E71.68333
G1 X-1.805 Y-78.706 E72.59921
G1 X-1.114 Y-79.6 E72.6443
G1 X0.365 Y-80.797 E72.72025
G1 X2.199 Y-81.519 E72.79891
G1 X3.85 Y-81.763 E72.86552
G1 X5.102 Y-81.597 E72.91593
G1 X6.243 Y-81.281 E72.96318
G1 X76.18 Y-40.901 E76.18638
G1 X77.331 Y-39.869 E76.24808
G1 X78.033 Y-38.651 E76.30419
G1 X78.548 Y-37.381 E76.35889
G1 X78.807 Y-35.492 E76.43499
G1 X78.509 Y-33.59 E76.51183
G1 X78.008 Y-32.413 E76.56288
G1 X66.46 Y-12.423 E77.48429
G1 X65.779 Y-11.517 E77.52952
G1 X64.372 Y-10.392 E77.60142
G1 X62.499 Y-9.542 E77.68352
G1 X60.489 Y-9.316 E77.76425
G1 X58.623 Y-9.59 E77.83952
G1 X57.277 Y-10.186 E77.89827
G1 X-11.117 Y-49.711 E81.05107
G0 F3600 X-10.872 Y-50.027
G1 F1200 X-11.791 Y-50.74 E81.0975
G1 X-12.808 Y-52.059 E81.16397
G1 X-13.551 Y-53.751 E81.23773
G1 X-13.764 Y-55.634 E81.31336
G1 X-13.508 Y-57.39 E81.38419
G1 X-12.935 Y-58.684 E81.44067
G1 X-1.488 Y-78.461 E82.3527
G1 X-.825 Y-79.319 E82.39598
G1 X0.57 Y-80.448 E82.4676
G1 X2.302 Y-81.13 E82.5419
G1 X3.852 Y-81.359 E82.60443
G1 X5.049 Y-81.2 E82.65263
G1 X6.088 Y-80.909 E82.69569
G1 X75.942 Y-40.577 E85.91506
G1 X77.015 Y-39.615 E85.97258
G1 X77.686 Y-38.451 E86.0262
G1 X78.159 Y-37.277 E86.07672
G1 X78.403 Y-35.496 E86.14847
G1 X78.122 Y-33.702 E86.22094
G1 X77.64 Y-32.57 E86.27005
G1 X66.14 Y-12.663 E87.18763
G1 X65.489 Y-11.797 E87.23087
G1 X64.161 Y-10.735 E87.29874
G1 X62.391 Y-9.932 E87.37631
G1 X60.498 Y-9.719 E87.45234
G1 X58.735 Y-9.978 E87.52346
G1 X57.439 Y-10.552 E87.58003
G1 X-10.872 Y-50.027 E90.72897
G0 F3600 X-10.627 Y-50.343
G1 F1200 X-11.505 Y-51.024 E90.77332
G1 X-12.462 Y-52.265 E90.83586
G1 X-13.161 Y-53.857 E90.90526
G1 X-13.361 Y-55.625 E90.97627
G1 X-13.12 Y-57.278 E91.04295
G1 X-12.569 Y-58.522 E91.09725
G1 X-1.171 Y-78.216 E92.00543
G1 X-.536 Y-79.038 E92.04689
G1 X0.775 Y-80.099 E92.1142
G1 X2.405 Y-80.741 E92.18412
G1 X3.854 Y-80.955 E92.24258
G1 X4.996 Y-80.803 E92.28856
G1 X5.934 Y-80.537 E92.32748
G1 X75.704 Y-40.253 E95.54298
G1 X76.699 Y-39.361 E95.59632
G1 X77.339 Y-38.251 E95.64746
G1 X77.77 Y-37.171 E95.69387
G1 X77.999 Y-35.5 E95.76119
G1 X77.735 Y-33.814 E95.8293
G1 X77.272 Y-32.727 E95.87645
G1 X65.82 Y-12.903 E96.79021
G1 X65.199 Y-12.077 E96.83145
G1 X63.95 Y-11.078 E96.89529
G1 X62.283 Y-10.322 E96.96834
G1 X60.507 Y-10.122 E97.03967
G1 X58.847 Y-10.366 E97.10664
G1 X57.601 Y-10.918 E97.16103
G1 X-10.627 Y-50.343 E100.3061
G0 F3600 X-10.382 Y-50.659
G1 F1200 X-11.219 Y-51.308 E100.34837
G1 X-12.116 Y-52.471 E100.40699
G1 X-12.771 Y-53.963 E100.47203
G1 X-12.958 Y-55.616 E100.53842
G1 X-12.732 Y-57.166 E100.60094
G1 X-12.203 Y-58.36 E100.65306
G1 X-.855 Y-77.971 E101.55738
G1 X-.249 Y-78.755 E101.59693
G1 X0.98 Y-79.75 E101.66004
G1 X2.508 Y-80.352 E101.72559
G1 X3.857 Y-80.551 E101.78001
G1 X4.887 Y-80.418 E101.82146
G1 X5.779 Y-80.165 E101.85847
G1 X75.466 Y-39.929 E105.07015
G1 X76.384 Y-39.106 E105.11936
G1 X76.967 Y-38.103 E105.16566
G1 X77.381 Y-37.065 E105.21026
G1 X77.595 Y-35.504 E105.27315
G1 X77.348 Y-33.926 E105.3369
G1 X76.904 Y-32.884 E105.3821
G1 X65.5 Y-13.143 E106.29203
G1 X64.909 Y-12.357 E106.33128
G1 X63.739 Y-11.421 E106.39108
G1 X62.178 Y-10.713 E106.45949
G1 X60.513 Y-10.526 E106.52636
G1 X58.959 Y-10.754 E106.58905
G1 X57.763 Y-11.284 E106.64126
G1 X-10.382 Y-50.659 E109.78246
G0 F3600 X-10.137 Y-50.975
G1 F1200 X-10.933 Y-51.592 E109.82266
G1 X-11.77 Y-52.677 E109.87735
G1 X-12.381 Y-54.069 E109.93802
G1 X-12.555 Y-55.607 E109.9998
G1 X-12.344 Y-57.054 E110.05816
G1 X-11.837 Y-58.198 E110.10811
G1 X-.538 Y-77.726 E111.00858
G1 X0.04 Y-78.474 E111.0463
G1 X1.186 Y-79.402 E111.10516
G1 X2.609 Y-79.962 E111.16619
G1 X3.861 Y-80.147 E111.21671
G1 X4.778 Y-80.033 E111.25359
G1 X5.624 Y-79.793 E111.28869
G1 X75.228 Y-39.605 E114.49654
G1 X76.069 Y-38.851 E114.54162
G1 X76.595 Y-37.955 E114.58309
G1 X76.992 Y-36.959 E114.62588
G1 X77.191 Y-35.508 E114.68434
G1 X76.961 Y-34.038 E114.74372
G1 X76.536 Y-33.041 E114.78698
G1 X65.18 Y-13.383 E115.69308
G1 X64.619 Y-12.637 E115.73033
G1 X63.528 Y-11.764 E115.7861
G1 X62.07 Y-11.103 E115.84999
G1 X60.522 Y-10.929 E115.91217
G1 X59.071 Y-11.142 E115.9707
G1 X57.925 Y-11.65 E116.02073
G1 X-10.137 Y-50.975 E119.15807
G0 F3600 X-9.892 Y-51.291
G1 F1200 X-10.647 Y-51.876 E119.19619
G1 X-11.424 Y-52.883 E119.24695
G1 X-11.991 Y-54.175 E119.30326
G1 X-12.152 Y-55.598 E119.36042
G1 X-11.956 Y-56.942 E119.41463
G1 X-11.471 Y-58.036 E119.46239
G1 X-.221 Y-77.481 E120.35902
G1 X0.329 Y-78.193 E120.39492
G1 X1.391 Y-79.053 E120.44947
G1 X2.712 Y-79.573 E120.50613
G1 X3.867 Y-79.743 E120.55272
G1 X4.669 Y-79.648 E120.58496
G1 X5.469 Y-79.421 E120.61815
G1 X74.99 Y-39.281 E123.82217
G1 X75.755 Y-38.595 E123.86318
G1 X76.25 Y-37.752 E123.9022
G1 X76.602 Y-36.857 E123.94059
G1 X76.787 Y-35.512 E123.99477
G1 X76.574 Y-34.15 E124.04979
G1 X76.168 Y-33.198 E124.0911
G1 X64.86 Y-13.623 E124.99337
G1 X64.329 Y-12.917 E125.02863
G1 X63.317 Y-12.107 E125.08037
G1 X61.962 Y-11.493 E125.13974
G1 X60.531 Y-11.332 E125.19722
G1 X59.183 Y-11.53 E125.2516
G1 X58.087 Y-12.016 E125.29945
G1 X-9.892 Y-51.291 E128.43291
G0 F3600 X-9.647 Y-51.607
G1 F1200 X-10.361 Y-52.16 E128.46896
G1 X-11.078 Y-53.089 E128.5158
G1 X-11.601 Y-54.281 E128.56775
G1 X-11.749 Y-55.589 E128.62029
G1 X-11.568 Y-56.831 E128.67038
G1 X-11.125 Y-57.836 E128.71422
G1 X0.095 Y-77.236 E129.60869
G1 X0.616 Y-77.91 E129.64269
G1 X1.596 Y-78.704 E129.69303
G1 X2.815 Y-79.184 E129.74532
G1 X3.875 Y-79.34 E129.78808
G1 X4.56 Y-79.263 E129.81559
G1 X5.314 Y-79.049 E129.84687
G1 X74.752 Y-38.957 E133.04707
G1 X75.442 Y-38.338 E133.08407
G1 X75.878 Y-37.605 E133.11811
G1 X76.213 Y-36.754 E133.15461
G1 X76.383 Y-35.516 E133.20449
G1 X76.187 Y-34.262 E133.25514
G1 X75.8 Y-33.355 E133.2945
G1 X64.54 Y-13.863 E134.19295
G1 X64.039 Y-13.197 E134.22621
G1 X63.106 Y-12.45 E134.27391
G1 X61.854 Y-11.883 E134.32877
G1 X60.54 Y-11.735 E134.38155
G1 X59.295 Y-11.918 E134.43177
G1 X58.249 Y-12.382 E134.47744
G1 X-9.647 Y-51.607 E137.60704
G0 F3600 X-9.402 Y-51.923
G1 F1200 X-10.075 Y-52.444 E137.64101
G1 X-10.732 Y-53.295 E137.68392
G1 X-11.211 Y-54.387 E137.73151
G1 X-11.346 Y-55.58 E137.77943
G1 X-11.179 Y-56.722 E137.8255
G1 X-10.779 Y-57.636 E137.86532
G1 X0.412 Y-76.991 E138.75765
G1 X0.905 Y-77.629 E138.78983
G1 X1.801 Y-78.355 E138.83586
G1 X2.918 Y-78.795 E138.88377
G1 X3.882 Y-78.937 E138.92266
G1 X4.451 Y-78.878 E138.94549
G1 X5.159 Y-78.677 E138.97487
G1 X74.514 Y-38.633 E142.17124
G1 X75.13 Y-38.08 E142.20428
G1 X75.506 Y-37.459 E142.23326
G1 X75.823 Y-36.653 E142.26782
G1 X75.979 Y-35.52 E142.31347
G1 X75.8 Y-34.374 E142.35977
G1 X75.432 Y-33.512 E142.39717
G1 X64.22 Y-14.104 E143.29176
G1 X63.747 Y-13.476 E143.32314
G1 X62.895 Y-12.793 E143.36672
G1 X61.749 Y-12.274 E143.41693
G1 X60.546 Y-12.139 E143.46525
G1 X59.406 Y-12.306 E143.51123
G1 X58.449 Y-12.728 E143.55298
G1 X-9.402 Y-51.923 E146.68042
G0 F3600 X-9.157 Y-52.239
G1 F1200 X-9.789 Y-52.728 E146.71231
G1 X-10.386 Y-53.501 E146.7513
G1 X-10.821 Y-54.493 E146.79453
G1 X-10.943 Y-55.571 E146.83783
G1 X-10.791 Y-56.612 E146.87982
G1 X-10.433 Y-57.436 E146.91568
G1 X0.729 Y-76.747 E147.80591
G1 X1.192 Y-77.347 E147.83616
G1 X2.006 Y-78.006 E147.87796
G1 X3.021 Y-78.406 E147.9215
G1 X3.94 Y-78.541 E147.95857
G1 X4.342 Y-78.493 E147.97473
G1 X5.004 Y-78.305 E148.0022
G1 X74.276 Y-38.309 E151.19475
G1 X74.82 Y-37.821 E151.22391
G1 X75.134 Y-37.312 E151.24778
G1 X75.434 Y-36.55 E151.28047
G1 X75.575 Y-35.524 E151.3218
G1 X75.413 Y-34.486 E151.36373
G1 X75.064 Y-33.669 E151.39919
G1 X63.901 Y-14.345 E152.2899
G1 X63.458 Y-13.757 E152.31928
G1 X62.684 Y-13.136 E152.35889
G1 X61.641 Y-12.664 E152.40458
G1 X60.556 Y-12.542 E152.44816
G1 X59.515 Y-12.695 E152.49015
G1 X58.649 Y-13.074 E152.52788
G1 X-9.157 Y-52.239 E155.65317
G0 F3600 X-8.912 Y-52.555
G1 F1200 X-9.501 Y-53.011 E155.6829
G1 X-10.041 Y-53.71 E155.71815
G1 X-10.431 Y-54.599 E155.7569
G1 X-10.54 Y-55.562 E155.79558
G1 X-10.403 Y-56.501 E155.83346
G1 X-10.066 Y-57.276 E155.86719
G1 X1.046 Y-76.503 E156.75352
G1 X1.479 Y-77.065 E156.78183
G1 X2.211 Y-77.657 E156.81941
G1 X3.124 Y-78.017 E156.85858
G1 X3.947 Y-78.137 E156.89177
G1 X4.233 Y-78.108 E156.90325
G1 X4.849 Y-77.933 E156.92881
G1 X74.038 Y-37.985 E160.11753
G1 X74.553 Y-37.523 E160.14514
G1 X74.762 Y-37.166 E160.16165
G1 X75.044 Y-36.449 E160.1924
G1 X75.171 Y-35.528 E160.22951
G1 X75.026 Y-34.598 E160.26707
