;FLAVOR:Marlin
;TIME:432
;Filament used: 0.288296m
;Layer height: 0.15
;MINX:-33.922
;MINY:-42.858
;MINZ:0.3
;MAXX:47.806
;MAXY:42.828
;MAXZ:10
;Generated with Cura_SteamEngine 4.13.1
M140 S50
M105
M190 S50
M104 S210
M105
M109 S210
M82 ;absolute extrusion mode
;FLAVOR:Marlin
M82 ;absolute extrusion mode
G21
G90
M82
M107 T0
G28
G92 E0
G0 E3 F200
G92 E0 ; reset extrusion distance
M106 S255 ; Enable cooling fan full speed
G1 X-98 Y0 Z0.4 F3000 ; move to arc start
G3 X0 Y-98 I98 Z0.4 E40 F400 ; lay arc stripe 90deg
G92 E0 ; reset extrusion distance
G4 P500 ; wait for 0.5 sec
G0 Z10 E-1 ; Lift 15mm and retract 1mm filament
G4 P2000 ; wait for 5 sec
G0 Z15
M107 ; Disable cooling fan
G1 X0 Y-85 Z4 E0 F3000 ; get off the bed
G92 E0
G92 E0
G1 F1500 E-6.5
;LAYER_COUNT:17
;LAYER:0
M106 S25.5
G1 F600 Z1.3
G0 F3600 X4.089 Y-28.983 Z1.3
;TYPE:SKIRT
G1 F600 Z0.3
G1 F1500 E0.3326
G1 X3.608 Y-29.063 E0.35693
G1 X3.053 Y-29.203 E0.38548
G1 X2.608 Y-29.352 E0.4089
G1 X2.004 Y-29.606 E0.44159
G1 X1.528 Y-29.858 E0.46846
G1 X0.913 Y-30.259 E0.50509
G1 X0.504 Y-30.58 E0.53103
G1 X0.063 Y-30.992 E0.56113
G1 X-.228 Y-31.305 E0.58246
G1 X-.616 Y-31.788 E0.61337
G1 X-.915 Y-32.238 E0.64032
G1 X-1.277 Y-32.906 E0.67823
G1 X-1.509 Y-33.455 E0.70796
G1 X-1.728 Y-34.153 E0.74446
G1 X-1.844 Y-34.69 E0.77187
G1 X-1.932 Y-35.415 E0.8083
G1 X-1.948 Y-35.966 E0.8358
G1 X-1.902 Y-36.692 E0.8721
G1 X-1.81 Y-37.271 E0.90135
G1 X-1.628 Y-37.978 E0.93777
G1 X-1.438 Y-38.506 E0.96576
G1 X-1.119 Y-39.185 E1.00319
G1 X-.835 Y-39.667 E1.0311
G1 X-.402 Y-40.266 E1.06798
G1 X-0.036 Y-40.685 E1.09573
G1 X0.488 Y-41.182 E1.13176
G1 X0.949 Y-41.543 E1.16098
G1 X1.582 Y-41.949 E1.19849
G1 X2.083 Y-42.207 E1.22661
G1 X2.772 Y-42.484 E1.26366
G1 X3.406 Y-42.673 E1.29666
G1 X3.754 Y-42.741 E1.31435
G1 X4.454 Y-42.834 E1.34958
G1 X4.957 Y-42.858 E1.37471
G1 X5.566 Y-42.836 E1.40511
G1 X6.018 Y-42.785 E1.4278
G1 X6.644 Y-42.666 E1.45959
G1 X7.149 Y-42.524 E1.48576
G1 X7.834 Y-42.264 E1.52232
G1 X8.342 Y-42.013 E1.55059
G1 X8.972 Y-41.625 E1.5875
G1 X9.428 Y-41.283 E1.61594
G1 X9.961 Y-40.8 E1.65182
G1 X10.339 Y-40.387 E1.67976
G1 X10.787 Y-39.795 E1.71679
G1 X11.079 Y-39.325 E1.7444
G1 X11.407 Y-38.668 E1.78104
G1 X11.62 Y-38.119 E1.81041
G1 X11.814 Y-37.428 E1.84622
G1 X11.913 Y-36.897 E1.87317
G1 X11.981 Y-36.171 E1.90955
G1 X11.979 Y-35.576 E1.93923
G1 X11.905 Y-34.829 E1.97668
G1 X11.799 Y-34.283 E2.00443
G1 X11.599 Y-33.599 E2.03999
G1 X11.396 Y-33.085 E2.06756
G1 X11.056 Y-32.414 E2.10509
G1 X10.744 Y-31.92 E2.13424
G1 X10.303 Y-31.349 E2.17023
G1 X9.91 Y-30.928 E2.19896
G1 X9.371 Y-30.448 E2.23497
G1 X8.897 Y-30.1 E2.26431
G1 X8.279 Y-29.731 E2.30022
G1 X7.846 Y-29.518 E2.32429
G1 X7.331 Y-29.314 E2.35193
G1 X6.903 Y-29.18 E2.3743
G1 X6.264 Y-29.032 E2.40703
G1 X5.778 Y-28.961 E2.43153
G1 X5.183 Y-28.923 E2.46128
G1 X4.739 Y-28.928 E2.48343
G1 X4.089 Y-28.983 E2.51597
G0 F3600 X4.123 Y-29.381
G1 F1500 X3.706 Y-29.451 E2.53707
G1 X3.151 Y-29.591 E2.56563
G1 X2.763 Y-29.72 E2.58602
G1 X2.159 Y-29.974 E2.61871
G1 X1.747 Y-30.193 E2.64199
G1 X1.132 Y-30.594 E2.67862
G1 X0.777 Y-30.872 E2.70112
G1 X0.336 Y-31.284 E2.73123
G1 X0.084 Y-31.556 E2.74973
G1 X-.304 Y-32.039 E2.78063
G1 X-.563 Y-32.428 E2.80395
G1 X-.925 Y-33.096 E2.84186
G1 X-1.128 Y-33.575 E2.86781
G1 X-1.347 Y-34.273 E2.90431
G1 X-1.447 Y-34.738 E2.92804
G1 X-1.535 Y-35.463 E2.96447
G1 X-1.549 Y-35.94 E2.98828
G1 X-1.503 Y-36.666 E3.02457
G1 X-1.423 Y-37.171 E3.05008
G1 X-1.241 Y-37.878 E3.0865
G1 X-1.076 Y-38.336 E3.11079
G1 X-.757 Y-39.015 E3.14822
G1 X-.511 Y-39.432 E3.17237
G1 X-0.078 Y-40.031 E3.20925
G1 X0.24 Y-40.394 E3.23333
G1 X0.764 Y-40.891 E3.26936
G1 X1.165 Y-41.207 E3.29483
G1 X1.798 Y-41.613 E3.33235
G1 X2.232 Y-41.836 E3.35669
G1 X2.921 Y-42.113 E3.39374
G1 X3.505 Y-42.286 E3.42412
G1 X3.807 Y-42.344 E3.43947
G1 X4.507 Y-42.437 E3.4747
G1 X4.943 Y-42.458 E3.49647
G1 X5.552 Y-42.436 E3.52688
G1 X5.944 Y-42.392 E3.54656
G1 X6.57 Y-42.273 E3.57835
G1 X7.007 Y-42.15 E3.601
G1 X7.692 Y-41.89 E3.63755
G1 X8.132 Y-41.673 E3.66203
G1 X8.762 Y-41.285 E3.69894
G1 X9.16 Y-40.987 E3.72375
G1 X9.693 Y-40.504 E3.75963
G1 X10.02 Y-40.146 E3.78382
G1 X10.468 Y-39.554 E3.82086
G1 X10.721 Y-39.146 E3.84481
G1 X11.049 Y-38.489 E3.88145
G1 X11.235 Y-38.011 E3.90704
G1 X11.429 Y-37.32 E3.94284
G1 X11.515 Y-36.859 E3.96624
G1 X11.583 Y-36.133 E4.00262
G1 X11.581 Y-35.616 E4.02841
G1 X11.507 Y-34.869 E4.06586
G1 X11.416 Y-34.395 E4.08994
G1 X11.216 Y-33.711 E4.1255
G1 X11.039 Y-33.266 E4.14939
G1 X10.699 Y-32.595 E4.18692
G1 X10.428 Y-32.165 E4.21227
G1 X9.987 Y-31.594 E4.24827
G1 X9.644 Y-31.226 E4.27337
G1 X9.105 Y-30.746 E4.30937
G1 X8.692 Y-30.444 E4.3349
G1 X8.074 Y-30.075 E4.37081
G1 X7.699 Y-29.89 E4.39167
G1 X7.184 Y-29.686 E4.41931
G1 X6.813 Y-29.57 E4.4387
G1 X6.174 Y-29.422 E4.47142
G1 X5.753 Y-29.36 E4.49266
G1 X5.158 Y-29.322 E4.5224
G1 X4.773 Y-29.326 E4.54161
G1 X4.123 Y-29.381 E4.57415
G0 F3600 X4.157 Y-29.78
G1 F1500 X3.804 Y-29.839 E4.59201
G1 X3.249 Y-29.979 E4.62057
G1 X2.918 Y-30.089 E4.63797
G1 X2.314 Y-30.343 E4.67066
G1 X1.965 Y-30.528 E4.69036
G1 X1.35 Y-30.929 E4.72699
G1 X1.05 Y-31.164 E4.746
G1 X0.609 Y-31.576 E4.77611
G1 X0.396 Y-31.806 E4.79175
G1 X0.008 Y-32.289 E4.82266
G1 X-.211 Y-32.619 E4.84242
G1 X-.573 Y-33.287 E4.88033
G1 X-.746 Y-33.694 E4.90239
G1 X-.965 Y-34.392 E4.93889
G1 X-1.05 Y-34.786 E4.959
G1 X-1.138 Y-35.511 E4.99543
G1 X-1.15 Y-35.915 E5.0156
G1 X-1.104 Y-36.641 E5.05189
G1 X-1.036 Y-37.071 E5.07361
G1 X-.854 Y-37.778 E5.11003
G1 X-.714 Y-38.165 E5.13056
G1 X-.395 Y-38.844 E5.16799
G1 X-.187 Y-39.198 E5.18848
G1 X0.246 Y-39.797 E5.22535
G1 X0.515 Y-40.104 E5.24571
G1 X1.039 Y-40.601 E5.28175
G1 X1.381 Y-40.87 E5.30345
G1 X2.014 Y-41.276 E5.34097
G1 X2.381 Y-41.465 E5.36157
G1 X3.07 Y-41.742 E5.39862
G1 X3.604 Y-41.898 E5.42637
G1 X3.859 Y-41.948 E5.43933
G1 X4.559 Y-42.041 E5.47456
G1 X4.928 Y-42.059 E5.493
G1 X5.537 Y-42.037 E5.5234
G1 X5.869 Y-41.999 E5.54007
G1 X6.495 Y-41.88 E5.57186
G1 X6.865 Y-41.776 E5.59104
G1 X7.55 Y-41.516 E5.62759
G1 X7.923 Y-41.332 E5.64834
G1 X8.553 Y-40.944 E5.68525
G1 X8.891 Y-40.69 E5.70635
G1 X9.424 Y-40.207 E5.74223
G1 X9.701 Y-39.905 E5.76268
G1 X10.149 Y-39.313 E5.79972
G1 X10.363 Y-38.968 E5.81997
G1 X10.691 Y-38.311 E5.85661
G1 X10.85 Y-37.903 E5.87845
G1 X11.044 Y-37.212 E5.91426
G1 X11.116 Y-36.822 E5.93405
G1 X11.184 Y-36.096 E5.97042
G1 X11.183 Y-35.655 E5.99243
G1 X11.109 Y-34.908 E6.02988
G1 X11.032 Y-34.508 E6.0502
G1 X10.832 Y-33.824 E6.08575
G1 X10.682 Y-33.447 E6.106
G1 X10.342 Y-32.776 E6.14352
G1 X10.111 Y-32.409 E6.16516
G1 X9.67 Y-31.838 E6.20115
G1 X9.378 Y-31.525 E6.22251
G1 X8.839 Y-31.045 E6.25852
G1 X8.487 Y-30.787 E6.28029
G1 X7.869 Y-30.418 E6.3162
G1 X7.551 Y-30.262 E6.33387
G1 X7.036 Y-30.058 E6.36151
G1 X6.722 Y-29.96 E6.37792
G1 X6.083 Y-29.812 E6.41064
G1 X5.727 Y-29.759 E6.4286
G1 X5.132 Y-29.721 E6.45834
G1 X4.807 Y-29.725 E6.47456
G1 X4.157 Y-29.78 E6.5071
G0 F3600 X4.19 Y-30.178
G1 F1500 X3.902 Y-30.227 E6.52168
G1 X3.347 Y-30.367 E6.55024
G1 X3.073 Y-30.458 E6.56464
G1 X2.469 Y-30.712 E6.59733
G1 X2.184 Y-30.863 E6.61342
G1 X1.569 Y-31.264 E6.65005
G1 X1.323 Y-31.457 E6.66565
G1 X0.882 Y-31.869 E6.69576
G1 X0.708 Y-32.057 E6.70854
G1 X0.32 Y-32.54 E6.73945
G1 X0.14 Y-32.809 E6.75559
G1 X-.222 Y-33.477 E6.7935
G1 X-.364 Y-33.814 E6.81174
G1 X-.583 Y-34.512 E6.84824
G1 X-.653 Y-34.834 E6.86468
G1 X-.741 Y-35.559 E6.90112
G1 X-.75 Y-35.89 E6.91764
G1 X-.704 Y-36.616 E6.95393
G1 X-.648 Y-36.972 E6.97191
G1 X-.466 Y-37.679 E7.00833
G1 X-.352 Y-37.995 E7.02509
G1 X-0.033 Y-38.674 E7.06252
G1 X0.137 Y-38.964 E7.07929
G1 X0.57 Y-39.563 E7.11616
G1 X0.79 Y-39.814 E7.13282
G1 X1.314 Y-40.311 E7.16885
G1 X1.597 Y-40.533 E7.18679
G1 X2.23 Y-40.939 E7.22431
G1 X2.531 Y-41.094 E7.2412
G1 X3.22 Y-41.371 E7.27825
G1 X3.703 Y-41.511 E7.30334
G1 X3.912 Y-41.551 E7.31395
G1 X4.612 Y-41.644 E7.34918
G1 X4.914 Y-41.659 E7.36427
G1 X5.523 Y-41.637 E7.39467
G1 X5.794 Y-41.606 E7.40828
G1 X6.42 Y-41.487 E7.44007
G1 X6.723 Y-41.402 E7.45577
G1 X7.408 Y-41.142 E7.49233
G1 X7.713 Y-40.992 E7.50928
G1 X8.343 Y-40.604 E7.5462
G1 X8.623 Y-40.394 E7.56366
G1 X9.156 Y-39.911 E7.59954
G1 X9.382 Y-39.663 E7.61628
G1 X9.83 Y-39.071 E7.65332
G1 X10.005 Y-38.789 E7.66988
G1 X10.364 Y-38.067 E7.71011
G1 X10.465 Y-37.795 E7.72458
G1 X10.659 Y-37.104 E7.76039
G1 X10.718 Y-36.785 E7.77658
G1 X10.786 Y-36.059 E7.81295
G1 X10.785 Y-35.695 E7.83111
G1 X10.711 Y-34.948 E7.86856
G1 X10.648 Y-34.62 E7.88523
G1 X10.448 Y-33.936 E7.92078
G1 X10.326 Y-33.627 E7.93736
G1 X9.986 Y-32.956 E7.97488
G1 X9.795 Y-32.654 E7.99271
G1 X9.354 Y-32.083 E8.02871
G1 X9.112 Y-31.824 E8.04639
G1 X8.573 Y-31.344 E8.0824
G1 X8.282 Y-31.131 E8.10039
G1 X7.664 Y-30.762 E8.1363
G1 X7.404 Y-30.634 E8.15076
G1 X6.889 Y-30.43 E8.17839
G1 X6.632 Y-30.349 E8.19184
G1 X5.993 Y-30.201 E8.22456
G1 X5.702 Y-30.159 E8.23923
G1 X5.107 Y-30.121 E8.26898
G1 X4.84 Y-30.123 E8.2823
G1 X4.19 Y-30.178 E8.31484
G0 F3600 X4.224 Y-30.577
G1 F1500 X4 Y-30.615 E8.32618
G1 X3.445 Y-30.755 E8.35473
G1 X3.228 Y-30.826 E8.36612
G1 X2.624 Y-31.08 E8.39881
G1 X2.402 Y-31.198 E8.41136
G1 X1.787 Y-31.599 E8.44798
G1 X1.596 Y-31.749 E8.4601
G1 X1.155 Y-32.161 E8.49021
G1 X1.02 Y-32.307 E8.50013
G1 X0.632 Y-32.79 E8.53104
G1 X0.492 Y-33 E8.54363
G1 X0.13 Y-33.668 E8.58154
G1 X0.017 Y-33.934 E8.59596
G1 X-.202 Y-34.632 E8.63245
G1 X-.256 Y-34.882 E8.64521
G1 X-.344 Y-35.607 E8.68165
G1 X-.351 Y-35.865 E8.69453
G1 X-.305 Y-36.591 E8.73082
G1 X-.261 Y-36.872 E8.74501
G1 X-0.079 Y-37.579 E8.78143
G1 X0.01 Y-37.825 E8.79448
G1 X0.329 Y-38.504 E8.83191
G1 X0.461 Y-38.729 E8.84492
G1 X0.894 Y-39.328 E8.8818
G1 X1.066 Y-39.524 E8.89481
G1 X1.59 Y-40.021 E8.93084
G1 X1.813 Y-40.196 E8.94498
G1 X2.446 Y-40.602 E8.9825
G1 X2.68 Y-40.723 E8.99564
G1 X3.369 Y-41 E9.03269
G1 X3.965 Y-41.155 E9.06342
G1 X4.665 Y-41.248 E9.09865
G1 X4.9 Y-41.259 E9.11038
G1 X5.509 Y-41.237 E9.14079
G1 X5.719 Y-41.213 E9.15133
G1 X6.345 Y-41.094 E9.18312
G1 X6.581 Y-41.028 E9.19535
G1 X7.266 Y-40.768 E9.2319
G1 X7.503 Y-40.651 E9.24509
G1 X8.133 Y-40.263 E9.282
G1 X8.354 Y-40.097 E9.29579
G1 X8.887 Y-39.614 E9.33168
G1 X9.063 Y-39.422 E9.34467
G1 X9.511 Y-38.83 E9.38171
G1 X9.648 Y-38.61 E9.39464
G1 X10 Y-37.903 E9.43404
G1 X10.08 Y-37.686 E9.44558
G1 X10.274 Y-36.995 E9.48139
G1 X10.32 Y-36.748 E9.49392
G1 X10.388 Y-36.022 E9.5303
G1 X10.387 Y-35.734 E9.54467
G1 X10.313 Y-34.987 E9.58212
G1 X10.264 Y-34.732 E9.59507
G1 X10.064 Y-34.048 E9.63063
G1 X9.969 Y-33.808 E9.6435
G1 X9.629 Y-33.137 E9.68103
G1 X9.478 Y-32.898 E9.69514
G1 X9.037 Y-32.327 E9.73113
G1 X8.846 Y-32.122 E9.74511
G1 X8.307 Y-31.642 E9.78112
G1 X8.077 Y-31.474 E9.79533
G1 X7.459 Y-31.105 E9.83124
G1 X7.257 Y-31.005 E9.84248
G1 X6.742 Y-30.801 E9.87012
G1 X6.542 Y-30.739 E9.88057
G1 X5.903 Y-30.591 E9.91329
G1 X5.676 Y-30.558 E9.92473
G1 X5.081 Y-30.52 E9.95448
G1 X4.874 Y-30.522 E9.96481
G1 X4.224 Y-30.577 E9.99735
G0 F3600 X4.258 Y-30.976
G1 F1500 X4.097 Y-31.002 E10.00549
G1 X3.542 Y-31.142 E10.03404
G1 X3.383 Y-31.195 E10.04241
G1 X2.779 Y-31.449 E10.0751
G1 X2.621 Y-31.533 E10.08402
G1 X2.006 Y-31.934 E10.12065
G1 X1.869 Y-32.041 E10.12932
G1 X1.428 Y-32.453 E10.15943
G1 X1.331 Y-32.558 E10.16657
G1 X0.943 Y-33.041 E10.19747
G1 X0.844 Y-33.191 E10.20644
G1 X0.482 Y-33.859 E10.24435
G1 X0.399 Y-34.054 E10.25492
G1 X0.18 Y-34.752 E10.29142
G1 X0.141 Y-34.931 E10.30056
G1 X0.053 Y-35.656 E10.33699
G1 X0.048 Y-35.839 E10.34613
G1 X0.094 Y-36.565 E10.38242
G1 X0.127 Y-36.772 E10.39288
G1 X0.309 Y-37.479 E10.4293
G1 X0.372 Y-37.655 E10.43863
G1 X0.691 Y-38.334 E10.47605
G1 X0.786 Y-38.495 E10.48538
G1 X1.219 Y-39.094 E10.52225
G1 X1.341 Y-39.234 E10.53152
G1 X1.865 Y-39.731 E10.56755
G1 X2.029 Y-39.86 E10.57796
G1 X2.662 Y-40.266 E10.61548
G1 X2.829 Y-40.352 E10.62485
G1 X3.518 Y-40.629 E10.6619
G1 X4.017 Y-40.758 E10.68761
G1 X4.717 Y-40.851 E10.72284
G1 X4.885 Y-40.859 E10.73123
G1 X5.494 Y-40.837 E10.76163
G1 X5.645 Y-40.82 E10.76922
G1 X6.271 Y-40.701 E10.80101
G1 X6.439 Y-40.654 E10.80971
G1 X7.124 Y-40.394 E10.84626
G1 X7.293 Y-40.31 E10.85568
G1 X7.923 Y-39.922 E10.89259
G1 X8.085 Y-39.801 E10.90268
G1 X8.618 Y-39.318 E10.93857
G1 X8.744 Y-39.18 E10.94789
G1 X9.192 Y-38.588 E10.98493
G1 X9.29 Y-38.432 E10.99412
G1 X9.635 Y-37.738 E11.03278
G1 X9.695 Y-37.578 E11.04131
G1 X9.889 Y-36.887 E11.07712
G1 X9.922 Y-36.71 E11.0861
G1 X9.99 Y-35.984 E11.12248
G1 X9.989 Y-35.773 E11.13301
G1 X9.915 Y-35.026 E11.17046
G1 X9.88 Y-34.844 E11.1797
G1 X9.68 Y-34.16 E11.21526
G1 X9.612 Y-33.989 E11.22444
G1 X9.272 Y-33.318 E11.26197
G1 X9.161 Y-33.143 E11.2723
G1 X8.72 Y-32.572 E11.3083
G1 X8.58 Y-32.421 E11.31857
G1 X8.041 Y-31.941 E11.35458
G1 X7.872 Y-31.817 E11.36504
G1 X7.254 Y-31.448 E11.40095
G1 X7.109 Y-31.377 E11.409
G1 X6.594 Y-31.173 E11.43664
G1 X6.452 Y-31.129 E11.44406
G1 X5.813 Y-30.981 E11.47678
G1 X5.651 Y-30.957 E11.48495
G1 X5.056 Y-30.919 E11.51469
G1 X4.908 Y-30.921 E11.52208
G1 X4.258 Y-30.976 E11.55462
G0 F3600 X4.291 Y-31.374
G1 F1500 X4.195 Y-31.39 E11.55948
G1 X3.608 Y-31.539 E11.58969
G1 X3.538 Y-31.564 E11.5934
G1 X2.934 Y-31.818 E11.62609
G1 X2.839 Y-31.868 E11.63145
G1 X2.224 Y-32.269 E11.66808
G1 X2.142 Y-32.334 E11.6733
G1 X1.701 Y-32.746 E11.70341
G1 X1.643 Y-32.808 E11.70764
G1 X1.255 Y-33.291 E11.73855
G1 X1.195 Y-33.381 E11.74395
G1 X0.833 Y-34.049 E11.78185
G1 X0.781 Y-34.173 E11.78856
G1 X0.562 Y-34.871 E11.82506
G1 X0.538 Y-34.979 E11.83058
G1 X0.45 Y-35.704 E11.86701
G1 X0.447 Y-35.814 E11.8725
G1 X0.493 Y-36.54 E11.9088
G1 X0.514 Y-36.673 E11.91551
G1 X0.696 Y-37.38 E11.95194
G1 X0.734 Y-37.485 E11.95751
G1 X1.053 Y-38.164 E11.99494
G1 X1.11 Y-38.261 E12.00055
G1 X1.543 Y-38.86 E12.03742
G1 X1.616 Y-38.943 E12.04294
G1 X2.14 Y-39.44 E12.07897
G1 X2.245 Y-39.523 E12.08565
G1 X2.878 Y-39.929 E12.12316
G1 X2.978 Y-39.981 E12.12879
G1 X3.667 Y-40.258 E12.16584
G1 X4.07 Y-40.362 E12.1866
G1 X4.77 Y-40.455 E12.22183
G1 X4.871 Y-40.46 E12.22688
G1 X5.48 Y-40.438 E12.25728
G1 X5.57 Y-40.427 E12.2618
G1 X6.196 Y-40.308 E12.29359
G1 X6.297 Y-40.28 E12.29882
G1 X6.982 Y-40.02 E12.33537
G1 X7.084 Y-39.97 E12.34104
G1 X7.714 Y-39.582 E12.37796
G1 X7.817 Y-39.505 E12.38437
G1 X8.35 Y-39.022 E12.42026
G1 X8.425 Y-38.939 E12.42584
G1 X8.873 Y-38.347 E12.46288
G1 X8.932 Y-38.253 E12.46841
G1 X9.27 Y-37.574 E12.50625
G1 X9.31 Y-37.47 E12.51181
G1 X9.504 Y-36.779 E12.54762
G1 X9.523 Y-36.673 E12.55299
G1 X9.591 Y-35.947 E12.58937
G1 X9.591 Y-35.813 E12.59606
G1 X9.517 Y-35.066 E12.63351
G1 X9.496 Y-34.957 E12.63905
G1 X9.296 Y-34.273 E12.6746
G1 X9.255 Y-34.17 E12.68013
G1 X8.915 Y-33.499 E12.71766
G1 X8.845 Y-33.387 E12.72425
G1 X8.404 Y-32.816 E12.76024
G1 X8.314 Y-32.72 E12.76681
G1 X7.775 Y-32.24 E12.80282
G1 X7.667 Y-32.161 E12.80949
G1 X7.049 Y-31.792 E12.8454
G1 X6.962 Y-31.749 E12.85024
G1 X6.447 Y-31.545 E12.87788
G1 X6.361 Y-31.518 E12.88238
G1 X5.722 Y-31.37 E12.9151
G1 X5.625 Y-31.356 E12.91999
G1 X5.03 Y-31.318 E12.94973
G1 X4.941 Y-31.319 E12.95418
G1 X4.291 Y-31.374 E12.98672
G0 F3600 X4.325 Y-31.773
G1 F1500 X4.293 Y-31.778 E12.98834
G1 X3.711 Y-31.926 E13.0183
G1 X3.089 Y-32.187 E13.05195
G1 X3.058 Y-32.203 E13.05369
G1 X2.443 Y-32.604 E13.09032
G1 X2.415 Y-32.626 E13.09209
G1 X1.974 Y-33.038 E13.1222
G1 X1.955 Y-33.059 E13.12362
G1 X1.567 Y-33.542 E13.15453
G1 X1.547 Y-33.572 E13.15632
G1 X1.178 Y-34.254 E13.19501
G1 X1.162 Y-34.293 E13.19711
G1 X0.943 Y-34.991 E13.23361
G1 X0.935 Y-35.027 E13.23545
G1 X0.847 Y-35.752 E13.27189
