;FLAVOR:Marlin
;TIME:261
;Filament used: 0.43414m
;Layer height: 0.24
;MINX:-19.697
;MINY:-7.7
;MINZ:0.3
;MAXX:19.69
;MAXY:7.691
;MAXZ:4.86
;Generated with Cura_SteamEngine 4.13.1
M140 S50
M105
M190 S50
M104 S210
M105
M109 S210
M82 ;absolute extrusion mode
;FLAVOR:Marlin
M82 ;absolute extrusion mode
G21
G90
M82
M107 T0
G28
G92 E0
G0 E3 F200
G92 E0 ; reset extrusion distance
M106 S255 ; Enable cooling fan full speed
G1 X-98 Y0 Z0.4 F3000 ; move to arc start
G3 X0 Y-98 I98 Z0.4 E40 F400 ; lay arc stripe 90deg
G92 E0 ; reset extrusion distance
G4 P500 ; wait for 0.5 sec
G0 Z10 E-1 ; Lift 15mm and retract 1mm filament
G4 P2000 ; wait for 5 sec
G0 Z15
M107 ; Disable cooling fan
G1 X0 Y-85 Z4 E0 F3000 ; get off the bed
G92 E0
G92 E0
G1 F1500 E-6.5
;LAYER_COUNT:21
;LAYER:0
M106 S25.5
G1 F600 Z1.3
G0 F3600 X-2.742 Y6.199 Z1.3
;TYPE:SKIRT
G1 F600 Z0.3
G1 F1500 E0.3326
G1 F2700 X-2.953 Y6.189 E0.34314
G1 X-3.855 Y6.102 E0.38835
G1 X-4.249 Y6.027 E0.40836
G1 X-5.123 Y5.777 E0.45371
G1 X-5.49 Y5.637 E0.47331
G1 X-6.111 Y5.338 E0.50769
G1 X-6.345 Y5.208 E0.52105
G1 X-6.911 Y4.845 E0.5546
G1 X-7.206 Y4.618 E0.57317
G1 X-7.889 Y3.995 E0.61929
G1 X-8.116 Y3.754 E0.63581
G1 X-8.456 Y3.334 E0.66276
G1 X-8.785 Y2.866 E0.69131
G1 X-8.843 Y2.778 E0.69656
G1 X-10.74 Y-.293 E0.87665
G1 X-10.989 Y-.602 E0.89645
G1 X-11.203 Y-.724 E0.90874
G1 X-11.461 Y-.788 E0.922
G1 X-11.728 Y-.758 E0.9354
G1 X-11.94 Y-.646 E0.94737
G1 X-12.128 Y-.478 E0.95995
G1 X-12.281 Y-.15 E0.978
G1 X-12.271 Y0.129 E0.99193
G1 X-12.217 Y0.31 E1.00135
G1 X-12.092 Y0.521 E1.01359
G1 X-11.767 Y0.873 E1.03749
G1 X-11.376 Y1.305 E1.06656
G1 X-11.301 Y1.392 E1.07229
G1 X-10.955 Y1.817 E1.09963
G1 X-10.838 Y1.975 E1.10944
G1 X-10.453 Y2.545 E1.14376
G1 X-10.293 Y2.824 E1.1598
G1 X-10.042 Y3.347 E1.18875
G1 X-9.871 Y3.851 E1.2153
G1 X-9.733 Y4.741 E1.26023
G1 X-9.789 Y5.275 E1.28702
G1 X-9.992 Y5.983 E1.32376
G1 X-10.143 Y6.27 E1.33994
G1 X-10.39 Y6.608 E1.36083
G1 X-10.803 Y6.994 E1.38903
G1 X-11.196 Y7.272 E1.41305
G1 X-11.686 Y7.481 E1.43963
G1 X-12.37 Y7.657 E1.47486
G1 X-12.676 Y7.683 E1.49018
G1 X-13.205 Y7.691 E1.51658
G1 X-13.615 Y7.658 E1.5371
G1 X-14.402 Y7.521 E1.57695
G1 X-14.761 Y7.427 E1.59547
G1 X-15.575 Y7.138 E1.63856
G1 X-15.959 Y6.962 E1.65964
G1 X-16.698 Y6.534 E1.70224
G1 X-17.015 Y6.31 E1.72161
G1 X-17.52 Y5.883 E1.7546
G1 X-17.801 Y5.6 E1.7745
G1 X-18.219 Y5.099 E1.80705
G1 X-18.426 Y4.806 E1.82495
G1 X-18.772 Y4.218 E1.85899
G1 X-18.917 Y3.924 E1.87534
G1 X-19.189 Y3.249 E1.91165
G1 X-19.401 Y2.541 E1.94852
G1 X-19.439 Y2.379 E1.95682
G1 X-19.545 Y1.849 E1.98379
G1 X-19.57 Y1.698 E1.99142
G1 X-19.638 Y1.169 E2.01803
G1 X-19.651 Y1.035 E2.02475
G1 X-19.689 Y0.465 E2.05325
G1 X-19.694 Y0.331 E2.05994
G1 X-19.697 Y-.223 E2.08758
G1 X-19.693 Y-.364 E2.09462
G1 X-19.659 Y-.942 E2.1235
G1 X-19.646 Y-1.088 E2.13081
G1 X-19.578 Y-1.628 E2.15797
G1 X-19.55 Y-1.796 E2.16646
G1 X-19.436 Y-2.35 E2.19468
G1 X-19.375 Y-2.581 E2.2066
G1 X-19.136 Y-3.324 E2.24554
G1 X-19.016 Y-3.622 E2.26157
G1 X-18.691 Y-4.282 E2.29827
G1 X-18.502 Y-4.596 E2.31656
G1 X-18.085 Y-5.175 E2.35216
G1 X-17.82 Y-5.479 E2.37228
G1 X-17.322 Y-5.955 E2.40664
G1 X-16.995 Y-6.215 E2.42749
G1 X-16.39 Y-6.612 E2.46359
G1 X-16.085 Y-6.779 E2.48094
G1 X-15.449 Y-7.065 E2.51573
G1 X-15.122 Y-7.183 E2.53307
G1 X-14.128 Y-7.452 E2.58445
G1 X-13.897 Y-7.501 E2.59623
G1 X-13.366 Y-7.585 E2.62305
G1 X-13.245 Y-7.601 E2.62914
G1 X-12.725 Y-7.654 E2.65522
G1 X-12.616 Y-7.662 E2.66067
G1 X-11.99 Y-7.693 E2.69194
G1 X-11.396 Y-7.7 E2.72157
G1 X-10.886 Y-7.69 E2.74702
G1 X-10.792 Y-7.686 E2.75172
G1 X-9.845 Y-7.627 E2.79905
G1 X-9.728 Y-7.616 E2.80492
G1 X-8.901 Y-7.52 E2.84645
G1 X-8.761 Y-7.5 E2.85351
G1 X-8.046 Y-7.37 E2.88977
G1 X-7.875 Y-7.331 E2.89852
G1 X-7.247 Y-7.164 E2.93094
G1 X-7.077 Y-7.111 E2.93982
G1 X-6.468 Y-6.895 E2.97206
G1 X-6.316 Y-6.835 E2.98021
G1 X-5.696 Y-6.562 E3.01401
G1 X-5.606 Y-6.52 E3.01896
G1 X-4.96 Y-6.2 E3.05493
G1 X8.048 Y-6.2 E3.7039
G1 X8.627 Y-6.247 E3.73288
G1 X9.142 Y-6.387 E3.75951
G1 X9.918 Y-6.718 E3.8016
G1 X10.221 Y-6.822 E3.81758
G1 X11.127 Y-7.06 E3.86431
G1 X11.563 Y-7.13 E3.88635
G1 X12.522 Y-7.193 E3.93429
G1 X12.946 Y-7.18 E3.95546
G1 X13.873 Y-7.061 E4.00208
G1 X14.278 Y-6.97 E4.02279
G1 X15.2 Y-6.668 E4.0712
G1 X15.61 Y-6.487 E4.09356
G1 X16.429 Y-6.026 E4.14044
G1 X16.775 Y-5.785 E4.16148
G1 X17.515 Y-5.156 E4.20994
G1 X17.81 Y-4.852 E4.23107
G1 X18.402 Y-4.11 E4.27843
G1 X18.644 Y-3.739 E4.30052
G1 X19.083 Y-2.897 E4.3479
G1 X19.249 Y-2.488 E4.36992
G1 X19.511 Y-1.607 E4.41578
G1 X19.591 Y-1.2 E4.43647
G1 X19.689 Y-.225 E4.48536
G1 X19.69 Y0.229 E4.50801
G1 X19.598 Y1.17 E4.55518
G1 X19.517 Y1.581 E4.57608
G1 X19.243 Y2.505 E4.62416
G1 X19.084 Y2.899 E4.64536
G1 X18.644 Y3.741 E4.69276
G1 X18.408 Y4.104 E4.71436
G1 X17.878 Y4.773 E4.75694
G1 X17.684 Y4.988 E4.77139
G1 X17.256 Y5.402 E4.80109
G1 X16.977 Y5.631 E4.8191
G1 X16.203 Y6.166 E4.86604
G1 X15.823 Y6.378 E4.88775
G1 X14.967 Y6.755 E4.93442
G1 X14.657 Y6.865 E4.95083
G1 X14.123 Y7.01 E4.97843
G1 X13.819 Y7.07 E4.99389
G1 X12.933 Y7.181 E5.03844
G1 X12.541 Y7.195 E5.05801
G1 X11.767 Y7.153 E5.09668
G1 X11.484 Y7.119 E5.1109
G1 X10.816 Y6.995 E5.1448
G1 X10.09 Y6.783 E5.18253
G1 X9.885 Y6.707 E5.19344
G1 X9.179 Y6.404 E5.23177
G1 X8.638 Y6.254 E5.25978
G1 X8.04 Y6.2 E5.28973
G1 X-2.742 Y6.199 E5.82765
G0 F3600 X-2.742 Y5.799
G1 F2700 X-2.915 Y5.791 E5.83629
G1 X-3.817 Y5.704 E5.8815
G1 X-4.139 Y5.643 E5.89785
G1 X-5.013 Y5.393 E5.9432
G1 X-5.317 Y5.277 E5.95944
G1 X-5.938 Y4.978 E5.99382
G1 X-6.129 Y4.871 E6.00474
G1 X-6.695 Y4.508 E6.03829
G1 X-6.936 Y4.323 E6.05345
G1 X-7.619 Y3.7 E6.09957
G1 X-7.805 Y3.503 E6.11309
G1 X-8.145 Y3.083 E6.14005
G1 X-8.455 Y2.64 E6.16702
G1 X-8.502 Y2.568 E6.17131
G1 X-10.412 Y-.524 E6.35263
G1 X-10.737 Y-.918 E6.37811
G1 X-11.045 Y-1.095 E6.39583
G1 X-11.477 Y-1.19 E6.4179
G1 X-11.868 Y-1.136 E6.43759
G1 X-12.171 Y-.977 E6.45466
G1 X-12.457 Y-.713 E6.47408
G1 X-12.668 Y-.26 E6.49901
G1 X-12.669 Y0.19 E6.52147
G1 X-12.585 Y0.474 E6.53624
G1 X-12.415 Y0.761 E6.55288
G1 X-12.063 Y1.141 E6.57872
G1 X-11.672 Y1.573 E6.60779
G1 X-11.611 Y1.645 E6.6125
G1 X-11.265 Y2.07 E6.63984
G1 X-11.169 Y2.198 E6.64783
G1 X-10.784 Y2.768 E6.68214
G1 X-10.653 Y2.997 E6.6953
G1 X-10.402 Y3.52 E6.72425
G1 X-10.263 Y3.932 E6.74594
G1 X-10.133 Y4.741 E6.78682
G1 X-10.178 Y5.186 E6.80913
G1 X-10.249 Y5.496 E6.825
G1 X-10.455 Y6.012 E6.85272
G1 X-10.487 Y6.066 E6.85585
G1 X-10.844 Y6.497 E6.88377
G1 X-11.358 Y6.904 E6.91648
G1 X-11.797 Y7.097 E6.94041
G1 X-12.426 Y7.261 E6.97284
G1 X-12.682 Y7.283 E6.98565
G1 X-13.211 Y7.291 E7.01205
G1 X-13.547 Y7.264 E7.02887
G1 X-14.334 Y7.127 E7.06872
G1 X-14.627 Y7.05 E7.08383
G1 X-15.441 Y6.761 E7.12693
G1 X-15.758 Y6.616 E7.14432
G1 X-16.497 Y6.188 E7.18693
G1 X-16.757 Y6.005 E7.20279
G1 X-17.262 Y5.578 E7.23578
G1 X-17.494 Y5.344 E7.25222
G1 X-17.912 Y4.843 E7.28477
G1 X-18.081 Y4.603 E7.29942
G1 X-18.427 Y4.015 E7.33346
G1 X-18.546 Y3.775 E7.34682
G1 X-18.818 Y3.1 E7.38313
G1 X-19.015 Y2.433 E7.41783
G1 X-19.047 Y2.301 E7.4246
G1 X-19.153 Y1.771 E7.45157
G1 X-19.173 Y1.647 E7.45783
G1 X-19.241 Y1.118 E7.48444
G1 X-19.252 Y1.009 E7.48991
G1 X-19.29 Y0.439 E7.51841
G1 X-19.294 Y0.329 E7.5239
G1 X-19.297 Y-.225 E7.55154
G1 X-19.294 Y-.341 E7.55733
G1 X-19.26 Y-.919 E7.58622
G1 X-19.249 Y-1.038 E7.59218
G1 X-19.181 Y-1.578 E7.61933
G1 X-19.158 Y-1.716 E7.62631
G1 X-19.044 Y-2.27 E7.65453
G1 X-18.995 Y-2.458 E7.66422
G1 X-18.756 Y-3.201 E7.70316
G1 X-18.657 Y-3.445 E7.7163
G1 X-18.332 Y-4.105 E7.753
G1 X-18.178 Y-4.362 E7.76795
G1 X-17.761 Y-4.941 E7.80355
G1 X-17.544 Y-5.19 E7.82003
G1 X-17.046 Y-5.666 E7.85439
G1 X-16.776 Y-5.881 E7.87161
G1 X-16.171 Y-6.278 E7.90772
G1 X-15.921 Y-6.415 E7.92194
G1 X-15.285 Y-6.701 E7.95673
G1 X-15.017 Y-6.796 E7.97091
G1 X-14.023 Y-7.065 E8.02229
G1 X-13.834 Y-7.106 E8.03194
G1 X-13.303 Y-7.19 E8.05876
G1 X-13.205 Y-7.203 E8.06369
G1 X-12.685 Y-7.256 E8.08977
G1 X-12.595 Y-7.263 E8.09427
G1 X-11.985 Y-7.293 E8.12474
G1 X-11.404 Y-7.3 E8.15373
G1 X-10.817 Y-7.287 E8.18302
G1 X-9.87 Y-7.228 E8.23036
G1 X-9.774 Y-7.219 E8.23517
G1 X-8.947 Y-7.123 E8.27671
G1 X-8.833 Y-7.106 E8.28246
G1 X-8.118 Y-6.976 E8.31871
G1 X-7.977 Y-6.945 E8.32592
G1 X-7.349 Y-6.778 E8.35834
G1 X-7.21 Y-6.734 E8.36561
G1 X-6.601 Y-6.518 E8.39785
G1 X-6.478 Y-6.469 E8.40445
G1 X-5.784 Y-6.162 E8.44231
G1 X-5.055 Y-5.8 E8.48292
G1 X8.068 Y-5.8 E9.13763
G1 X8.694 Y-5.851 E9.16896
G1 X9.234 Y-5.997 E9.19687
G1 X9.283 Y-6.013 E9.19944
G1 X10.074 Y-6.35 E9.24234
G1 X10.323 Y-6.435 E9.25547
G1 X11.229 Y-6.673 E9.3022
G1 X11.589 Y-6.731 E9.32039
G1 X12.548 Y-6.794 E9.36834
G1 X12.895 Y-6.783 E9.38566
G1 X13.822 Y-6.664 E9.43229
G1 X14.153 Y-6.59 E9.44921
G1 X15.075 Y-6.288 E9.49761
G1 X15.414 Y-6.139 E9.51609
G1 X16.233 Y-5.678 E9.56298
G1 X16.516 Y-5.48 E9.58021
G1 X17.256 Y-4.851 E9.62866
G1 X17.497 Y-4.603 E9.64591
G1 X18.089 Y-3.861 E9.69327
G1 X18.289 Y-3.554 E9.71155
G1 X18.728 Y-2.712 E9.75892
G1 X18.865 Y-2.374 E9.77712
G1 X19.127 Y-1.493 E9.82298
G1 X19.193 Y-1.16 E9.83991
G1 X19.291 Y-.185 E9.8888
G1 X19.291 Y0.19 E9.90751
G1 X19.199 Y1.131 E9.95468
G1 X19.134 Y1.468 E9.9718
G1 X18.86 Y2.392 E10.01989
G1 X18.729 Y2.714 E10.03723
G1 X18.289 Y3.556 E10.08463
G1 X18.095 Y3.856 E10.10245
G1 X17.565 Y4.525 E10.14503
G1 X17.405 Y4.701 E10.1569
G1 X16.977 Y5.115 E10.18661
G1 X16.749 Y5.302 E10.20132
G1 X15.975 Y5.837 E10.24826
G1 X15.662 Y6.012 E10.26615
G1 X14.806 Y6.389 E10.31281
G1 X14.552 Y6.479 E10.32626
G1 X14.018 Y6.624 E10.35386
G1 X13.77 Y6.673 E10.36648
G1 X12.884 Y6.784 E10.41102
G1 X12.562 Y6.795 E10.4271
G1 X11.788 Y6.753 E10.46577
G1 X11.557 Y6.726 E10.47737
G1 X10.889 Y6.602 E10.51127
G1 X10.21 Y6.401 E10.5466
G1 X10.043 Y6.339 E10.55549
G1 X9.312 Y6.025 E10.59518
G1 X8.715 Y5.86 E10.62608
G1 X8.054 Y5.8 E10.65919
G1 X-2.742 Y5.799 E11.19781
G0 F3600 X-2.742 Y5.399
G1 F2700 X-2.876 Y5.393 E11.2045
G1 X-3.778 Y5.306 E11.24971
G1 X-4.029 Y5.258 E11.26246
G1 X-4.903 Y5.008 E11.30781
G1 X-5.143 Y4.916 E11.32063
G1 X-5.764 Y4.617 E11.35502
G1 X-5.913 Y4.534 E11.36353
G1 X-6.479 Y4.171 E11.39707
G1 X-6.666 Y4.027 E11.40885
G1 X-7.349 Y3.404 E11.45497
G1 X-7.494 Y3.251 E11.46549
G1 X-7.834 Y2.831 E11.49245
G1 X-8.125 Y2.414 E11.51782
G1 X-8.162 Y2.358 E11.52116
G1 X-10.085 Y-.756 E11.70376
G1 X-10.428 Y-1.179 E11.73093
G1 X-10.893 Y-1.468 E11.75824
G1 X-11.308 Y-1.581 E11.7797
G1 X-11.899 Y-1.543 E11.80925
G1 X-12.402 Y-1.307 E11.83697
G1 X-12.799 Y-.926 E11.86442
G1 X-13.06 Y-.344 E11.89624
G1 X-13.067 Y0.254 E11.92608
G1 X-12.955 Y0.636 E11.94594
G1 X-12.741 Y0.996 E11.96683
G1 X-12.36 Y1.41 E11.9949
G1 X-11.921 Y1.897 E12.02761
G1 X-11.575 Y2.322 E12.05495
G1 X-11.501 Y2.422 E12.06116
G1 X-11.116 Y2.992 E12.09548
G1 X-11.014 Y3.17 E12.10571
G1 X-10.763 Y3.693 E12.13465
G1 X-10.562 Y4.456 E12.17402
G1 X-10.533 Y4.784 E12.19045
G1 X-10.639 Y5.407 E12.22197
G1 X-10.832 Y5.862 E12.24663
G1 X-11.109 Y6.197 E12.26832
G1 X-11.559 Y6.558 E12.2971
G1 X-11.908 Y6.713 E12.31615
G1 X-12.483 Y6.865 E12.34582
G1 X-12.688 Y6.883 E12.35609
G1 X-13.217 Y6.891 E12.38249
G1 X-13.478 Y6.87 E12.39555
G1 X-14.265 Y6.733 E12.4354
G1 X-14.493 Y6.673 E12.44717
G1 X-15.372 Y6.36 E12.49372
G1 X-15.558 Y6.269 E12.50405
G1 X-16.297 Y5.841 E12.54665
G1 X-16.499 Y5.699 E12.55897
G1 X-17.004 Y5.272 E12.59197
G1 X-17.187 Y5.088 E12.60491
G1 X-17.605 Y4.587 E12.63747
G1 X-17.737 Y4.4 E12.64888
G1 X-18.083 Y3.812 E12.68292
G1 X-18.175 Y3.625 E12.69332
G1 X-18.447 Y2.95 E12.72963
G1 X-18.63 Y2.325 E12.76212
G1 X-18.655 Y2.223 E12.76736
G1 X-18.761 Y1.693 E12.79432
G1 X-18.777 Y1.596 E12.79923
G1 X-18.845 Y1.067 E12.82584
G1 X-18.853 Y0.982 E12.8301
G1 X-18.891 Y0.412 E12.8586
G1 X-18.894 Y0.327 E12.86284
G1 X-18.897 Y-.227 E12.89048
G1 X-18.895 Y-.317 E12.89497
G1 X-18.861 Y-.895 E12.92386
G1 X-18.852 Y-.988 E12.92852
G1 X-18.784 Y-1.528 E12.95567
G1 X-18.766 Y-1.635 E12.96108
G1 X-18.652 Y-2.189 E12.9893
G1 X-18.614 Y-2.336 E12.99688
G1 X-18.375 Y-3.079 E13.03582
G1 X-18.298 Y-3.268 E13.046
G1 X-17.973 Y-3.928 E13.0827
G1 X-17.853 Y-4.128 E13.09434
G1 X-17.436 Y-4.707 E13.12994
G1 X-17.267 Y-4.901 E13.14277
G1 X-16.769 Y-5.377 E13.17714
G1 X-16.556 Y-5.546 E13.19071
G1 X-15.951 Y-5.943 E13.22681
G1 X-15.757 Y-6.05 E13.23786
G1 X-15.121 Y-6.336 E13.27265
G1 X-14.913 Y-6.41 E13.28367
G1 X-13.919 Y-6.679 E13.33504
G1 X-13.772 Y-6.711 E13.34255
G1 X-13.241 Y-6.795 E13.36937
G1 X-13.164 Y-6.805 E13.37324
G1 X-12.644 Y-6.858 E13.39932
G1 X-12.033 Y-6.891 E13.42985
G1 X-11.458 Y-6.9 E13.45854
G1 X-10.902 Y-6.89 E13.48628
G1 X-9.895 Y-6.828 E13.53662
G1 X-9.821 Y-6.822 E13.54032
G1 X-8.994 Y-6.726 E13.58186
G1 X-8.905 Y-6.712 E13.58635
G1 X-8.19 Y-6.582 E13.62261
G1 X-8.08 Y-6.558 E13.62822
G1 X-7.452 Y-6.391 E13.66064
G1 X-7.344 Y-6.357 E13.66629
G1 X-6.735 Y-6.141 E13.69853
G1 X-6.639 Y-6.103 E13.70368
G1 X-5.961 Y-5.803 E13.74067
G1 X-5.232 Y-5.441 E13.78128
G1 X-5.154 Y-5.4 E13.78567
G1 X8.089 Y-5.4 E14.44637
G1 X8.768 Y-5.457 E14.48036
G1 X9.359 Y-5.616 E14.5109
G1 X9.422 Y-5.637 E14.51421
G1 X10.231 Y-5.982 E14.55809
G1 X10.424 Y-6.048 E14.56827
G1 X11.33 Y-6.286 E14.615
G1 X11.615 Y-6.332 E14.6294
G1 X12.574 Y-6.395 E14.67735
G1 X12.844 Y-6.387 E14.69083
G1 X13.771 Y-6.268 E14.73745
G1 X14.029 Y-6.209 E14.75066
G1 X14.951 Y-5.907 E14.79906
G1 X15.218 Y-5.79 E14.8136
G1 X16.037 Y-5.329 E14.86049
G1 X16.257 Y-5.176 E14.87386
G1 X16.997 Y-4.547 E14.92232
G1 X17.184 Y-4.353 E14.93576
G1 X17.776 Y-3.611 E14.98312
G1 X17.934 Y-3.369 E14.99754
G1 X18.373 Y-2.527 E15.04491
G1 X18.482 Y-2.26 E15.0593
G1 X18.744 Y-1.379 E15.10515
G1 X18.795 Y-1.12 E15.11832
G1 X18.893 Y-.145 E15.16721
G1 X18.893 Y0.151 E15.18198
G1 X18.801 Y1.092 E15.22915
G1 X18.75 Y1.354 E15.24247
G1 X18.476 Y2.278 E15.29055
G1 X18.375 Y2.528 E15.304
G1 X17.935 Y3.37 E15.3514
G1 X17.781 Y3.607 E15.3655
G1 X17.251 Y4.276 E15.40808
G1 X17.127 Y4.413 E15.4173
G1 X16.699 Y4.827 E15.44701
G1 X16.522 Y4.973 E15.45845
G1 X15.748 Y5.508 E15.5054
G1 X15.5 Y5.646 E15.51955
G1 X14.644 Y6.023 E15.56622
G1 X14.447 Y6.093 E15.57665
G1 X13.913 Y6.238 E15.60426
G1 X13.72 Y6.276 E15.61407
G1 X12.834 Y6.387 E15.65862
G1 X12.584 Y6.396 E15.6711
G1 X11.81 Y6.354 E15.70977
G1 X11.63 Y6.332 E15.71882
G1 X10.962 Y6.208 E15.75271
G1 X10.331 Y6.02 E15.78556
G1 X10.201 Y5.971 E15.79249
G1 X9.451 Y5.649 E15.83321
G1 X8.782 Y5.463 E15.86786
G1 X8.079 Y5.4 E15.90307
G1 X-2.742 Y5.399 E16.44293
G0 F3600 X-2.742 Y4.999
G1 F2700 X-2.838 Y4.994 E16.44773
G1 X-3.74 Y4.907 E16.49294
G1 X-3.919 Y4.873 E16.50203
G1 X-4.793 Y4.623 E16.54738
G1 X-4.97 Y4.556 E16.55682
G1 X-5.591 Y4.257 E16.59121
G1 X-5.697 Y4.198 E16.59726
G1 X-6.263 Y3.835 E16.63081
G1 X-6.397 Y3.732 E16.63924
G1 X-7.08 Y3.109 E16.68536
G1 X-7.183 Y2.999 E16.69288
G1 X-7.523 Y2.579 E16.71984
G1 X-7.822 Y2.148 E16.74601
G1 X-9.76 Y-.989 E16.92997
G1 X-10.142 Y-1.461 E16.96026
G1 X-10.276 Y-1.575 E16.96904
G1 X-10.739 Y-1.841 E16.99568
G1 X-11.24 Y-1.977 E17.02158
G1 X-11.497 Y-1.993 E17.03443
G1 X-12.168 Y-1.882 E17.06836
G1 X-12.633 Y-1.637 E17.09458
G1 X-13.034 Y-1.277 E17.12147
G1 X-13.14 Y-1.139 E17.13015
G1 X-13.395 Y-.629 E17.15859
G1 X-13.485 Y-.211 E17.17993
G1 X-13.466 Y0.319 E17.20639
G1 X-13.325 Y0.795 E17.23115
G1 X-13.062 Y1.239 E17.2569
G1 X-12.657 Y1.678 E17.2867
G1 X-12.266 Y2.11 E17.31577
G1 X-11.886 Y2.575 E17.34573
G1 X-11.832 Y2.646 E17.35018
G1 X-11.447 Y3.216 E17.38449
G1 X-11.374 Y3.343 E17.3918
G1 X-11.123 Y3.866 E17.42074
G1 X-10.954 Y4.537 E17.45527
