;FLAVOR:Marlin
;TIME:5514
;Filament used: 4.43128m
;Layer height: 0.2
;MINX:-61.374
;MINY:-90.188
;MINZ:0.3
;MAXX:22.772
;MAXY:0
;MAXZ:24.1
;TARGET_MACHINE.NAME:Unknown
;POSTPROCESSED
;  [CreateThumbnail]
;Generated with Cura_SteamEngine 5.11.0
;
;

M140 S65
M105
M190 S65
M104 S240
M105
M109 S240
;FLAVOR:Marlin
M82 ;absolute extrusion mode
G21
G90
M82
M107 T0
G28
G92 E0
G0 E3 F200
G92 E0 ; reset extrusion distance
M106 S255 ; Enable cooling fan full speed
G1 X-98 Y0 Z0.4 F3000 ; move to arc start
G3 X0 Y-98 I98 Z0.4 E40 F400 ; lay arc stripe 90deg
G92 E0 ; reset extrusion distance
G4 P500 ; wait for 0.5 sec
G0 Z10 E-1 ; Lift 15mm and retract 1mm filament
G4 P2000 ; wait for 5 sec
G0 Z15
M107 ; Disable cooling fan
G1 X0 Y-85 Z4 E0 F3000 ; get off the bed
M82 ;absolute extrusion mode
G92 E0
G92 E0
G1 F1500 E-6.5
;LAYER_COUNT:120
;LAYER:0
M107
G1 F600 Z2.3
G0 F3600 X0.00 Y0.00 Z2.3
G0 X-27.614 Y-12.891
;TYPE:SKIRT
G1 F600 Z0.3
G1 F1500 E0
G1 F1200 X-28.185 Y-12.341 E0.03164
G1 X-28.713 Y-11.948 E0.05791
G1 X-29.501 Y-11.639 E0.0917
G1 X-30.422 Y-11.582 E0.12852
G1 X-31.689 Y-11.823 E0.18
G1 X-32.452 Y-12.098 E0.21237
G1 X-33.079 Y-12.553 E0.24329
G1 X-54.402 Y-33.874 E1.4468
G1 X-54.995 Y-34.51 E1.4815
G1 X-55.398 Y-35.101 E1.51005
G1 X-55.612 Y-35.766 E1.53793
G1 X-55.813 Y-37.045 E1.58961
G1 X-55.815 Y-37.623 E1.61268
G1 X-55.612 Y-38.437 E1.64616
G1 X-55.149 Y-39.161 E1.68046
G1 X-54.596 Y-39.734 E1.71225
G1 X-10.974 Y-83.357 E4.17449
G1 X-10.405 Y-83.905 E4.20602
G1 X-9.877 Y-84.298 E4.23229
G1 X-9.089 Y-84.607 E4.26607
G1 X-8.165 Y-84.664 E4.30302
G1 X-6.781 Y-84.401 E4.35925
G1 X-6.063 Y-84.114 E4.39011
G1 X-5.492 Y-83.678 E4.41878
G1 X15.806 Y-62.378 E5.62099
G1 X16.351 Y-61.807 E5.65249
G1 X16.719 Y-61.301 E5.67747
G1 X16.988 Y-60.625 E5.7065
G1 X17.115 Y-59.957 E5.73364
G1 X17.224 Y-59.192 E5.76448
G1 X17.217 Y-58.592 E5.78843
G1 X17.054 Y-57.914 E5.81626
G1 X16.61 Y-57.142 E5.85181
G1 X16.006 Y-56.512 E5.88664
G1 X-27.614 Y-12.891 E8.34877
G0 F3600 X-27.893 Y-13.178
G1 F1200 X-28.424 Y-12.662 E8.37832
G1 X-28.911 Y-12.3 E8.40254
G1 X-29.588 Y-12.034 E8.43157
G1 X-30.395 Y-11.984 E8.46384
G1 X-31.614 Y-12.216 E8.51337
G1 X-32.261 Y-12.454 E8.54089
G1 X-32.796 Y-12.836 E8.56712
G1 X-54.111 Y-34.149 E9.77018
G1 X-54.665 Y-34.736 E9.80239
G1 X-55.035 Y-35.278 E9.82858
G1 X-55.217 Y-35.83 E9.85178
G1 X-55.413 Y-37.047 E9.90098
G1 X-55.415 Y-37.575 E9.92206
G1 X-55.24 Y-38.276 E9.95089
G1 X-54.833 Y-38.912 E9.98103
G1 X-54.313 Y-39.451 E10.01092
G1 X-10.695 Y-83.07 E12.47294
G1 X-10.166 Y-83.584 E12.50238
G1 X-9.679 Y-83.946 E12.5266
G1 X-9.002 Y-84.212 E12.55563
G1 X-8.192 Y-84.262 E12.58802
G1 X-6.892 Y-84.015 E12.64083
G1 X-6.262 Y-83.763 E12.66791
G1 X-5.775 Y-83.395 E12.69228
G1 X15.518 Y-62.101 E13.89417
G1 X16.027 Y-61.572 E13.92347
G1 X16.365 Y-61.107 E13.94642
G1 X16.602 Y-60.511 E13.97202
G1 X16.719 Y-59.898 E13.99692
G1 X16.824 Y-59.196 E14.02525
G1 X16.818 Y-58.643 E14.04733
G1 X16.678 Y-58.063 E14.07114
G1 X16.287 Y-57.382 E14.10248
G1 X15.723 Y-56.795 E14.13497
G1 X-27.893 Y-13.178 E16.59688
G0 F3600 X-28.172 Y-13.465
G1 F1200 X-28.703 Y-12.949 E16.62643
G1 X-29.107 Y-12.652 E16.64644
G1 X-29.675 Y-12.429 E16.6708
G1 X-30.368 Y-12.386 E16.69851
G1 X-31.539 Y-12.609 E16.74609
G1 X-32.071 Y-12.81 E16.76878
G1 X-32.513 Y-13.119 E16.79031
G1 X-53.822 Y-34.425 E17.993
G1 X-54.334 Y-34.961 E18.02258
G1 X-54.672 Y-35.457 E18.04654
G1 X-54.837 Y-35.956 E18.06751
G1 X-55.018 Y-37.109 E18.1141
G1 X-55.015 Y-37.527 E18.13078
G1 X-54.868 Y-38.115 E18.15497
G1 X-54.517 Y-38.663 E18.18094
G1 X-54.03 Y-39.168 E18.20894
G1 X-10.416 Y-82.783 E20.67074
G1 X-9.887 Y-83.297 E20.70017
G1 X-9.483 Y-83.594 E20.72019
G1 X-8.915 Y-83.817 E20.74454
G1 X-8.219 Y-83.86 E20.77237
G1 X-7.006 Y-83.629 E20.82166
G1 X-6.457 Y-83.41 E20.84525
G1 X-6.058 Y-83.112 E20.86512
G1 X15.231 Y-61.822 E22.0668
G1 X15.703 Y-61.337 E22.09381
G1 X16.011 Y-60.913 E22.11472
G1 X16.216 Y-60.397 E22.13688
G1 X16.323 Y-59.839 E22.15956
G1 X16.428 Y-59.137 E22.18789
G1 X16.429 Y-58.737 E22.20385
G1 X16.302 Y-58.212 E22.22541
G1 X15.965 Y-57.625 E22.25243
G1 X15.44 Y-57.078 E22.28269
G1 X-28.172 Y-13.465 E24.74437
G0 F3600 X-28.451 Y-13.752
G1 F1200 X-28.982 Y-13.236 E24.77392
G1 X-29.268 Y-13.018 E24.78827
G1 X-29.7 Y-12.828 E24.80711
G1 X-30.343 Y-12.788 E24.83282
G1 X-31.406 Y-12.986 E24.87598
G1 X-31.846 Y-13.141 E24.8946
G1 X-32.23 Y-13.402 E24.91313
G1 X-53.535 Y-34.704 E26.11559
G1 X-54.003 Y-35.186 E26.1424
G1 X-54.309 Y-35.636 E26.16412
G1 X-54.457 Y-36.082 E26.18288
G1 X-54.618 Y-37.121 E26.22484
G1 X-54.627 Y-37.43 E26.23718
G1 X-54.496 Y-37.953 E26.2587
G1 X-54.201 Y-38.414 E26.28054
G1 X-53.747 Y-38.885 E26.30665
G1 X-10.137 Y-82.496 E28.76822
G1 X-9.608 Y-83.01 E28.79766
G1 X-9.322 Y-83.228 E28.81201
G1 X-8.89 Y-83.418 E28.83084
G1 X-8.246 Y-83.458 E28.8566
G1 X-7.12 Y-83.243 E28.90235
G1 X-6.653 Y-83.057 E28.92241
G1 X-6.341 Y-82.829 E28.93784
G1 X14.944 Y-61.543 E30.13928
G1 X15.416 Y-61.058 E30.16629
G1 X15.685 Y-60.681 E30.18478
G1 X15.823 Y-60.321 E30.20017
G1 X15.928 Y-59.778 E30.22224
G1 X16.028 Y-59.125 E30.24861
G1 X16.037 Y-58.816 E30.26094
G1 X15.955 Y-58.411 E30.27744
G1 X15.643 Y-57.868 E30.30243
G1 X15.157 Y-57.361 E30.33046
G1 X-28.451 Y-13.752 E32.79192
G0 F3600 X-28.73 Y-14.039
G1 F1200 X-29.261 Y-13.523 E32.82147
G1 X-29.508 Y-13.338 E32.83378
G1 X-29.795 Y-13.223 E32.84612
G1 X-30.319 Y-13.19 E32.86708
G1 X-31.333 Y-13.379 E32.90825
G1 X-31.627 Y-13.475 E32.92059
G1 X-31.947 Y-13.685 E32.93587
G1 X-53.248 Y-34.983 E34.1381
G1 X-53.716 Y-35.465 E34.16492
G1 X-53.931 Y-35.767 E34.17971
G1 X-54.062 Y-36.144 E34.19564
G1 X-54.218 Y-37.133 E34.2356
G1 X-54.227 Y-37.442 E34.24794
G1 X-54.156 Y-37.743 E34.26029
G1 X-53.913 Y-38.136 E34.27873
G1 X-53.464 Y-38.602 E34.30455
G1 X-9.858 Y-82.209 E36.76589
G1 X-9.329 Y-82.723 E36.79533
G1 X-9.082 Y-82.908 E36.80765
G1 X-8.795 Y-83.023 E36.81999
G1 X-8.271 Y-83.056 E36.84095
G1 X-7.258 Y-82.867 E36.88207
G1 X-6.884 Y-82.73 E36.89797
G1 X-6.624 Y-82.546 E36.91068
G1 X14.657 Y-61.264 E38.1119
G1 X15.129 Y-60.779 E38.13891
G1 X15.314 Y-60.531 E38.15126
G1 X15.43 Y-60.245 E38.16358
G1 X15.533 Y-59.716 E38.18509
G1 X15.628 Y-59.113 E38.20946
G1 X15.637 Y-58.804 E38.22179
G1 X15.566 Y-58.503 E38.23414
G1 X15.324 Y-58.112 E38.25249
G1 X14.874 Y-57.644 E38.2784
G1 X-28.73 Y-14.039 E40.73963
G1 F1500 E34.23963
;MESH:K??rper2
G0 F3600 X-30.2 Y-15.511
G0 X-13.945 Y-33.793
G0 X-14.021 Y-33.87
;TYPE:WALL-INNER
G1 F1500 E40.73963
G1 F1200 X-14.544 Y-33.934 E40.76066
G1 X-14.872 Y-34.152 E40.77638
G1 X-28.391 Y-47.671 E41.53945
G1 X-28.521 Y-47.911 E41.55034
G1 X-28.586 Y-48.15 E41.56023
G1 X-28.586 Y-48.434 E41.57156
G1 X-28.495 Y-48.732 E41.584
G1 X-28.304 Y-48.999 E41.5971
G1 X-7.8 Y-69.508 E42.75458
G1 X-7.523 Y-69.703 E42.7681
G1 X-7.182 Y-69.797 E42.78222
G1 X-6.927 Y-69.787 E42.7924
G1 X-6.657 Y-69.701 E42.80371
G1 X-6.384 Y-69.507 E42.81708
G1 X7.106 Y-56.009 E43.57874
G1 X7.292 Y-55.672 E43.5941
G1 X7.322 Y-55.173 E43.61405
G1 F973.6 X7.177 Y-54.66 E43.64028
G1 F819.1 X-13.39 Y-34.086 E45.34127
G1 F971.7 X-14.021 Y-33.87 E45.37414
G0 F3600 X-14.078 Y-34.266
G1 F1200 X-14.392 Y-34.304 E45.38677
G1 X-14.589 Y-34.435 E45.39621
G1 X-28.111 Y-47.957 E46.15945
G1 X-28.196 Y-48.289 E46.17313
G1 X-28.171 Y-48.467 E46.1803
G1 X-28.073 Y-48.665 E46.18912
G1 X-7.517 Y-69.225 E47.3495
G1 X-7.256 Y-69.378 E47.36158
G1 X-6.916 Y-69.374 E47.37515
G1 X-6.723 Y-69.281 E47.3837
G1 X6.8 Y-55.751 E48.14719
G1 X6.911 Y-55.549 E48.15639
G1 X6.929 Y-55.249 E48.16839
G1 X6.765 Y-54.939 E48.18239
G1 X-13.739 Y-34.435 E49.33972
G1 X-14.078 Y-34.266 E49.35484
G0 F3600 X-13.775 Y-33.963
G0 X-12.976 Y-33.672
G1 F819.1 X7.609 Y-54.265 E51.05736
G1 F973.6 X8.194 Y-54.71 E51.09352
G1 F1170.7 X11.528 Y-58.046 E51.28647
G1 F963.9 X11.746 Y-58.388 E51.30662
G1 F902.3 X10.913 Y-58.114 E51.35317
G1 F1081.1 X10.428 Y-58.052 E51.37483
G1 F1200 X9.651 Y-58.113 E51.40594
G1 X9.006 Y-58.386 E51.43389
G1 X8.492 Y-58.788 E51.45994
G1 X8.157 Y-59.212 E51.4815
G1 X7.874 Y-59.813 E51.50802
G1 X7.756 Y-60.468 E51.53458
G1 X7.756 Y-60.724 E51.5448
G1 X7.872 Y-61.375 E51.57119
G1 X8.161 Y-61.989 E51.59828
G1 X8.587 Y-62.487 E51.62443
G1 X8.907 Y-62.735 E51.64059
G1 X9.254 Y-62.916 E51.65621
G1 X0.46 Y-71.712 E52.15264
G1 X0.279 Y-71.367 E52.16819
G1 X-.147 Y-70.869 E52.19434
G1 X-.696 Y-70.488 E52.22102
G1 X-1.328 Y-70.264 E52.24778
G1 X-1.988 Y-70.212 E52.2742
G1 X-2.651 Y-70.333 E52.3011
G1 X-3.211 Y-70.593 E52.32574
G1 X-3.667 Y-70.952 E52.34891
G1 X-4.083 Y-71.484 E52.37586
G1 X-4.334 Y-72.109 E52.40274
G1 X-4.417 Y-72.732 E52.42783
G1 X-4.345 Y-73.4 E52.45464
G1 X-4.125 Y-73.928 E52.47747
G1 X-3.759 Y-74.462 E52.50331
G1 X-3.244 Y-74.903 E52.53037
G1 X-2.906 Y-75.079 E52.54558
G1 X-8.072 Y-80.245 E52.83717
G1 X-51.415 Y-36.898 E55.28375
G1 X-30.516 Y-15.999 E56.46338
G1 X-13.563 Y-32.951 E57.42025
G1 F971.7 X-12.976 Y-33.672 E57.46608
G0 F3600 X11.746 Y-58.388
G1 F880.7 X12.148 Y-58.749 E57.49546
G1 F874.3 X12.542 Y-59.189 E57.52782
G1 F788.2 X12.66 Y-59.344 E57.53966
G0 F3600 X12.14 Y-59.471
G1 F1200 X11.825 Y-59.071 E57.55998
G1 X11.305 Y-58.691 E57.58568
G1 X10.781 Y-58.501 E57.60793
G1 X10.223 Y-58.448 E57.6303
G1 X9.668 Y-58.54 E57.65275
G1 X9.179 Y-58.756 E57.67409
G1 X8.775 Y-59.071 E57.69454
G1 X8.475 Y-59.455 E57.71398
G1 X8.244 Y-59.965 E57.73633
G1 X8.152 Y-60.519 E57.75874
G1 X8.204 Y-61.077 E57.78111
G1 X8.424 Y-61.68 E57.80673
G1 X8.832 Y-62.171 E57.83221
G1 X9.292 Y-62.5 E57.85478
G1 X9.672 Y-62.655 E57.87116
G1 X10.015 Y-62.721 E57.8851
G1 X0.265 Y-72.474 E58.43552
G1 X0.199 Y-72.126 E58.44966
G1 X-0.037 Y-71.612 E58.47223
G1 X-.392 Y-71.185 E58.49439
G1 X-.85 Y-70.857 E58.51688
G1 X-1.379 Y-70.66 E58.53941
G1 X-1.937 Y-70.608 E58.56178
G1 X-2.497 Y-70.702 E58.58444
G1 X-2.981 Y-70.92 E58.60563
G1 X-3.385 Y-71.235 E58.62607
G1 X-3.732 Y-71.685 E58.64875
G1 X-3.946 Y-72.208 E58.67131
G1 X-4.012 Y-72.77 E58.69389
G1 X-3.936 Y-73.344 E58.717
G1 X-3.757 Y-73.771 E58.73548
G1 X-3.392 Y-74.29 E58.7608
G1 X-2.864 Y-74.664 E58.78663
G1 X-2.492 Y-74.816 E58.80267
G1 X-2.142 Y-74.881 E58.81688
G1 X-8.072 Y-80.811 E59.15159
G1 X-51.981 Y-36.898 E61.63012
G1 X-30.516 Y-15.433 E62.84169
G1 X13.391 Y-59.344 E65.32011
G1 X12.425 Y-60.311 E65.37466
G1 X12.359 Y-59.968 E65.3886
G1 X12.14 Y-59.471 E65.41028
G0 F3600 X12.384 Y-59.284
G0 X12.055 Y-60.57
;TYPE:WALL-OUTER
G1 F1200 X12.003 Y-60.17 E65.42638
G1 X11.83 Y-59.731 E65.44521
G1 X11.542 Y-59.354 E65.46415
G1 X11.203 Y-59.089 E65.48132
G1 X10.73 Y-58.897 E65.5017
G1 X10.274 Y-58.845 E65.52001
G1 X9.82 Y-58.91 E65.53832
G1 X9.427 Y-59.072 E65.55528
G1 X9.058 Y-59.354 E65.57382
G1 X8.766 Y-59.744 E65.59326
G1 X8.614 Y-60.116 E65.6093
G1 X8.549 Y-60.57 E65.62761
G1 X8.601 Y-61.026 E65.64593
G1 X8.793 Y-61.499 E65.6663
G1 X9.077 Y-61.855 E65.68448
G1 X9.444 Y-62.13 E65.70278
G1 X9.874 Y-62.299 E65.72122
G1 X10.326 Y-62.351 E65.73938
G1 X10.73 Y-62.299 E65.75564
G1 F1203 X11.202 Y-62.101 E65.77602
G1 X-.353 Y-73.657 E66.42663
G1 F1200 X-.157 Y-73.186 E66.44699
G1 X-.105 Y-72.734 E66.46515
G1 X-.157 Y-72.33 E66.48141
G1 X-.353 Y-71.857 E66.50184
G1 X-.637 Y-71.501 E66.52002
G1 X-.957 Y-71.253 E66.53618
G1 X-1.43 Y-71.057 E66.55661
G1 X-1.886 Y-71.005 E66.57493
G1 X-2.342 Y-71.071 E66.59332
G1 X-2.714 Y-71.227 E66.60942
G1 X-3.102 Y-71.518 E66.62878
G1 X-3.389 Y-71.901 E66.64788
G1 X-3.563 Y-72.332 E66.66643
G1 X-3.611 Y-72.784 E66.68457
G1 X-3.549 Y-73.239 E66.7029
G1 X-3.389 Y-73.615 E66.71921
G1 X-3.082 Y-74.019 E66.73946
G1 X-2.712 Y-74.294 E66.75786
G1 X-2.34 Y-74.446 E66.7739
G1 X-1.886 Y-74.511 E66.7922
G1 X-1.43 Y-74.459 E66.81052
G1 F1206 X-.959 Y-74.265 E66.83075
G1 X-8.021 Y-81.325 E67.22731
G1 F1200 X-8.108 Y-81.34 E67.23083
G1 X-52.509 Y-36.935 E69.73713
G1 X-52.493 Y-36.845 E69.74078
G1 X-30.567 Y-14.919 E70.97838
G1 X-30.48 Y-14.904 E70.9819
G1 X13.92 Y-59.308 E73.48814
G1 X13.905 Y-59.395 E73.49167
G1 F1203 X11.805 Y-61.498 E73.60999
G1 X12.003 Y-61.026 E73.63036
G1 F1200 X12.055 Y-60.57 E73.64868
G0 F3600 X12.03 Y-60.372
G1 F1500 E67.14868
G0 F3600 X12.573 Y-59.79
G0 X12.259 Y-60.74
G0 X11.805 Y-61.498
G1 F1500 E73.64868
G1 F1290.3 X11.522 Y-61.818 E73.66454
G1 X11.202 Y-62.101 E73.6804
G1 F1500 E67.1804
G0 F3600 X11.814 Y-62.714
G0 X0.259 Y-74.269
G0 X-.353 Y-73.657
G1 F1500 E73.6804
G1 F1286.9 X-.638 Y-73.982 E73.69648
G1 F1293.8 X-.959 Y-74.265 E73.71232
G1 F1500 E67.21232
G0 F3600 X-1.415 Y-73.527
G0 X-1.86 Y-71.876
G0 X-14.022 Y-34.718
G1 F1500 E73.71232
G1 F1200 X-14.135 Y-34.662 E73.71736
G1 X-14.265 Y-34.677 E73.72258
G1 X-27.794 Y-48.207 E74.48624
G1 X-27.759 Y-48.409 E74.49443
G1 X-7.201 Y-68.975 E75.65504
G1 X-6.985 Y-68.977 E75.66366
G1 X6.494 Y-55.493 E76.42461
G1 X6.537 Y-55.325 E76.43153
G1 X6.494 Y-55.235 E76.43551
G1 X-14.022 Y-34.718 E77.59355
G0 F3600 X-14.135 Y-34.662
G0 X-14.208 Y-34.67
G0 X-14.734 Y-34.144
G0 X-14.68 Y-33.575
;TYPE:SKIN
G1 F1200 X-14.018 Y-33.489 E77.6202
G1 X-13.592 Y-33.585 E77.63763
G1 X-13.844 Y-33.203 E77.65589
G1 X-30.515 Y-16.535 E78.59679
G1 X-50.873 Y-36.896 E79.74597
G1 X-8.072 Y-79.705 E82.16207
G1 X-3.521 Y-75.154 E82.41895
G1 X-3.793 Y-74.959 E82.4323
G1 X-4.042 Y-74.714 E82.44625
G1 X-4.458 Y-74.104 E82.47571
G1 X-4.709 Y-73.506 E82.5016
G1 X-4.796 Y-72.701 E82.53392
G1 X-4.689 Y-71.936 E82.56475
G1 X-4.386 Y-71.253 E82.59457
G1 X-3.938 Y-70.682 E82.62353
G1 X-3.436 Y-70.286 E82.64905
G1 X-2.805 Y-69.986 E82.67694
G1 X-2.025 Y-69.83 E82.70869
G1 X-1.285 Y-69.884 E82.7383
G1 X-.918 Y-69.981 E82.75345
G1 X-.24 Y-70.312 E82.78357
G1 X0.304 Y-70.784 E82.81231
G1 X0.537 Y-71.097 E82.82788
G1 X8.637 Y-62.992 E83.28522
G1 X8.32 Y-62.755 E83.30102
G1 X7.85 Y-62.211 E83.32972
G1 X7.512 Y-61.508 E83.36085
G1 X7.374 Y-60.759 E83.39125
G1 X7.428 Y-60.025 E83.42062
G1 X7.671 Y-59.306 E83.45091
G1 X7.855 Y-58.979 E83.46589
G1 X8.222 Y-58.518 E83.48941
G1 X8.814 Y-58.056 E83.51938
G1 X9.406 Y-57.807 E83.54501
G1 X10.106 Y-57.675 E83.57344
G1 X10.654 Y-57.708 E83.59535
G1 X7.758 Y-54.814 E83.75876
G1 X7.608 Y-54.751 E83.76525
G1 X7.696 Y-55.148 E83.78148
G1 X7.66 Y-55.741 E83.80519
G1 X7.394 Y-56.253 E83.82822
G1 X-6.114 Y-69.774 E84.59104
G1 X-6.501 Y-70.046 E84.60992
G1 X-6.834 Y-70.155 E84.6239
G1 X-7.211 Y-70.176 E84.63897
G1 X-7.468 Y-70.125 E84.64943
G1 X-7.958 Y-69.882 E84.67126
G1 X-28.695 Y-49.137 E85.84197
G1 X-28.918 Y-48.688 E85.86198
G1 X-28.96 Y-48.139 E85.88396
G1 X-28.878 Y-47.791 E85.89823
G1 X-28.686 Y-47.431 E85.91451
G1 X-15.142 Y-33.882 E86.67913
G1 X-14.68 Y-33.575 E86.70127
G0 F3600 X-50.532 Y-36.956
G1 F1200 X-30.454 Y-16.878 E87.83456
G0 F3600 X-30.172 Y-17.161
G1 F1200 X-50.249 Y-37.238 E88.96779
G0 F3600 X-49.966 Y-37.521
G1 F1200 X-29.889 Y-17.444 E90.10103
G0 F3600 X-29.606 Y-17.726
G1 F1200 X-49.683 Y-37.804 E91.23429
G0 F3600 X-49.401 Y-38.087
G1 F1200 X-29.323 Y-18.009 E92.36758
G0 F3600 X-29.04 Y-18.292
G1 F1200 X-49.118 Y-38.37 E93.50087
G0 F3600 X-48.835 Y-38.653
G1 F1200 X-28.757 Y-18.575 E94.63416
G0 F3600 X-28.474 Y-18.858
G1 F1200 X-48.552 Y-38.935 E95.76742
G0 F3600 X-48.269 Y-39.218
G1 F1200 X-28.192 Y-19.141 E96.90065
G0 F3600 X-27.909 Y-19.424
G1 F1200 X-47.986 Y-39.501 E98.03388
G0 F3600 X-47.704 Y-39.784
G1 F1200 X-27.626 Y-19.706 E99.16717
G0 F3600 X-27.343 Y-19.989
G1 F1200 X-47.421 Y-40.067 E100.30046
G0 F3600 X-47.138 Y-40.35
G1 F1200 X-27.06 Y-20.272 E101.43375
G0 F3600 X-26.777 Y-20.555
G1 F1200 X-46.855 Y-40.632 E102.56701
G0 F3600 X-46.572 Y-40.915
G1 F1200 X-26.495 Y-20.838 E103.70024
