;FLAVOR:Marlin
;TIME:7645
;Filament used: 7.95833m
;Layer height: 0.2
;MINX:-29.289
;MINY:-75.465
;MINZ:0.3
;MAXX:52.469
;MAXY:80.136
;MAXZ:57
;TARGET_MACHINE.NAME:Unknown
;Generated with Cura_SteamEngine 5.10.1
M140 S60
M105
M190 S60
M104 S200
M105
M109 S200
;FLAVOR:Marlin
M82 ;absolute extrusion mode
G21
G90
M82
M107 T0
G28
G92 E0
G0 E3 F200
G92 E0 ; reset extrusion distance
M106 S255 ; Enable cooling fan full speed
G1 X-98 Y0 Z0.4 F3000 ; move to arc start
G3 X0 Y-98 I98 Z0.4 E40 F400 ; lay arc stripe 90deg
G92 E0 ; reset extrusion distance
G4 P500 ; wait for 0.5 sec
G0 Z10 E-1 ; Lift 15mm and retract 1mm filament
G4 P2000 ; wait for 5 sec
G0 Z15
M107 ; Disable cooling fan
G1 X0 Y-85 Z4 E0 F3000 ; get off the bed
M82 ;absolute extrusion mode
G92 E0
G92 E0
G1 F1500 E-6.5
;LAYER_COUNT:59
;LAYER:0
M107
G0 F3600 X39.669 Y2.926 Z0.3
;TYPE:SKIRT
G1 F1500 E0
G1 F1800 X40.438 Y0.81 E0.11232
G1 X41.877 Y-.911 E0.22424
G1 X43.853 Y-2.052 E0.33808
G1 X46.069 Y-2.44 E0.45032
G1 X48.285 Y-2.052 E0.56256
G1 X50.246 Y-.919 E0.67555
G1 X51.701 Y0.815 E0.78848
G1 X52.469 Y2.931 E0.90078
G1 X52.469 Y5.187 E1.01334
G1 X51.702 Y7.298 E1.12539
G1 X50.258 Y9.026 E1.23774
G1 X48.285 Y10.165 E1.3514
G1 X46.069 Y10.554 E1.46365
G1 X43.847 Y10.165 E1.57619
G1 X41.889 Y9.028 E1.68915
G1 X40.442 Y7.314 E1.80106
G1 X39.669 Y5.184 E1.91411
G1 X39.669 Y2.926 E2.02676
G0 F3600 X40.069 Y2.997
G1 F1800 X40.791 Y1.012 E2.13214
G1 X42.138 Y-.6 E2.23694
G1 X43.991 Y-1.67 E2.34369
G1 X46.069 Y-2.034 E2.44894
G1 X48.147 Y-1.67 E2.55419
G1 X49.985 Y-.608 E2.6601
G1 X51.349 Y1.017 E2.76595
G1 X52.069 Y3.001 E2.87124
G1 X52.069 Y5.116 E2.97676
G1 X51.349 Y7.097 E3.08192
G1 X49.997 Y8.715 E3.18711
G1 X48.147 Y9.783 E3.29369
G1 X46.069 Y10.148 E3.39895
G1 X43.987 Y9.783 E3.5044
G1 X42.15 Y8.717 E3.61036
G1 X40.793 Y7.109 E3.71534
G1 X40.069 Y5.114 E3.82122
G1 X40.069 Y2.997 E3.92684
G0 F3600 X40.469 Y3.068
G1 F1800 X41.143 Y1.215 E4.02521
G1 X42.401 Y-.29 E4.12307
G1 X44.129 Y-1.288 E4.22262
G1 X46.069 Y-1.628 E4.32089
G1 X48.009 Y-1.288 E4.41915
G1 X49.724 Y-.297 E4.51797
G1 X50.997 Y1.219 E4.61673
G1 X51.669 Y3.071 E4.71502
G1 X51.669 Y5.045 E4.8135
G1 X50.996 Y6.896 E4.91177
G1 X49.736 Y8.404 E5.00981
G1 X48.009 Y9.401 E5.10929
G1 X46.069 Y9.742 E5.20756
G1 X44.127 Y9.401 E5.30593
G1 X42.411 Y8.406 E5.40489
G1 X41.145 Y6.905 E5.50286
G1 X40.469 Y5.043 E5.60169
G1 X40.469 Y3.068 E5.70022
G0 F3600 X40.869 Y3.139
G1 F1800 X41.495 Y1.418 E5.79159
G1 X42.664 Y0.02 E5.8825
G1 X44.267 Y-.906 E5.97486
G1 X46.069 Y-1.222 E6.06614
G1 X47.871 Y-.906 E6.15741
G1 X49.463 Y0.014 E6.24914
G1 X50.645 Y1.421 E6.34082
G1 X51.269 Y3.141 E6.43211
G1 X51.269 Y4.974 E6.52355
G1 X50.643 Y6.695 E6.61492
G1 X49.475 Y8.093 E6.7058
G1 X47.871 Y9.019 E6.79821
G1 X46.069 Y9.336 E6.88949
G1 X44.267 Y9.019 E6.98077
G1 X42.672 Y8.095 E7.07273
G1 X41.497 Y6.701 E7.16369
G1 X40.869 Y4.972 E7.25547
G1 X40.869 Y3.139 E7.34691
G0 F3600 X41.269 Y3.21
G1 F1800 X41.847 Y1.621 E7.43127
G1 X42.927 Y0.33 E7.51525
G1 X44.405 Y-.524 E7.60041
G1 X46.069 Y-.816 E7.68469
G1 X47.733 Y-.524 E7.76898
G1 X49.202 Y0.325 E7.85363
G1 X50.293 Y1.623 E7.93822
G1 X50.869 Y3.211 E8.0225
G1 X50.869 Y4.903 E8.10691
G1 X50.291 Y6.492 E8.19127
G1 X49.212 Y7.783 E8.27521
G1 X47.733 Y8.637 E8.36042
G1 X46.069 Y8.93 E8.44471
G1 X44.405 Y8.637 E8.52901
G1 X42.934 Y7.785 E8.61382
G1 X41.848 Y6.497 E8.69787
G1 X41.269 Y4.902 E8.78252
G1 X41.269 Y3.21 E8.86694
G0 F3600 X41.669 Y3.281
G1 F1800 X42.199 Y1.824 E8.94429
G1 X43.19 Y0.64 E9.02132
G1 X44.543 Y-.142 E9.09928
G1 X46.069 Y-.41 E9.17658
G1 X47.595 Y-.142 E9.25388
G1 X48.941 Y0.636 E9.33144
G1 X49.94 Y1.825 E9.40892
G1 X50.469 Y3.282 E9.48625
G1 X50.469 Y4.832 E9.56358
G1 X49.939 Y6.289 E9.64093
G1 X48.949 Y7.473 E9.71793
G1 X47.595 Y8.255 E9.79594
G1 X46.069 Y8.524 E9.87324
G1 X44.543 Y8.255 E9.95055
G1 X43.196 Y7.475 E10.02821
G1 X42.2 Y6.293 E10.10532
G1 X41.669 Y4.831 E10.18292
G1 X41.669 Y3.281 E10.26025
G0 F3600 X42.469 Y3.423
G1 F1800 X42.903 Y2.231 E10.32354
G1 X43.716 Y1.26 E10.38672
G1 X44.819 Y0.622 E10.45029
G1 X46.069 Y0.402 E10.51361
G1 X47.319 Y0.622 E10.57694
G1 X48.419 Y1.258 E10.64033
G1 X49.235 Y2.229 E10.70361
G1 X49.669 Y3.423 E10.76699
G1 X49.669 Y4.69 E10.8302
G1 X49.235 Y5.883 E10.89353
G1 X48.423 Y6.853 E10.95665
G1 X47.319 Y7.491 E11.02026
G1 X46.069 Y7.712 E11.08359
G1 X44.819 Y7.491 E11.14692
G1 X43.72 Y6.855 E11.21027
G1 X42.903 Y5.885 E11.27354
G1 X42.469 Y4.69 E11.33697
G1 X42.469 Y3.423 E11.40018
G0 F3600 X42.069 Y3.352
G1 F1800 X42.551 Y2.027 E11.47052
G1 X43.453 Y0.95 E11.54061
G1 X44.681 Y0.24 E11.61138
G1 X46.069 Y-0.004 E11.68169
G1 X47.457 Y0.24 E11.752
G1 X48.68 Y0.947 E11.82247
G1 X49.588 Y2.027 E11.89287
G1 X50.069 Y3.352 E11.96319
G1 X50.069 Y4.761 E12.03349
G1 X49.587 Y6.086 E12.10383
G1 X48.686 Y7.163 E12.17389
G1 X47.457 Y7.873 E12.2447
G1 X46.069 Y8.118 E12.31502
G1 X44.681 Y7.873 E12.38533
G1 X43.458 Y7.165 E12.45584
G1 X42.551 Y6.089 E12.52605
G1 X42.069 Y4.761 E12.59653
G1 X42.069 Y3.352 E12.66682
G1 F1500 E6.16682
;MESH:eimer.stl
G0 F3600 X43.098 Y3.532
G0 X46.935 Y6.432
G0 X47.035 Y6.727
;TYPE:WALL-INNER
G1 F1500 E12.66682
G1 F1800 X47.904 Y6.225 E12.71689
G1 X48.532 Y5.475 E12.7657
G1 X48.868 Y4.55 E12.81479
G1 X48.868 Y3.562 E12.86409
G1 X48.532 Y2.633 E12.91337
G1 X47.896 Y1.879 E12.96258
G1 X47.035 Y1.382 E13.01218
G1 X46.067 Y1.214 E13.0612
G1 X45.096 Y1.382 E13.11036
G1 X44.233 Y1.883 E13.16015
G1 X43.605 Y2.632 E13.20891
G1 X43.268 Y3.562 E13.25826
G1 X43.268 Y4.55 E13.30755
G1 X43.604 Y5.475 E13.35665
G1 X44.24 Y6.229 E13.40586
G1 X45.098 Y6.727 E13.45536
G1 X46.067 Y6.898 E13.50445
G1 X47.035 Y6.727 E13.55349
G0 F3600 X47.174 Y7.109
;TYPE:WALL-OUTER
G1 F1800 X48.165 Y6.536 E13.6106
G1 X48.884 Y5.678 E13.66645
G1 X49.268 Y4.62 E13.7226
G1 X49.268 Y3.492 E13.77888
G1 X48.884 Y2.43 E13.83522
G1 X48.157 Y1.568 E13.89148
G1 X47.174 Y1 E13.94812
G1 X46.067 Y0.808 E14.00417
G1 X44.958 Y1 E14.06032
G1 X43.971 Y1.572 E14.11723
G1 X43.253 Y2.43 E14.17305
G1 X42.868 Y3.492 E14.22941
G1 X42.868 Y4.62 E14.28568
G1 X43.252 Y5.678 E14.34184
G1 X43.979 Y6.54 E14.3981
G1 X44.958 Y7.109 E14.45459
G1 X46.067 Y7.304 E14.51077
G1 X47.174 Y7.109 E14.56684
G0 F3600 X47.347 Y7.009
G0 X46.898 Y6.365
;TYPE:SKIN
G1 F1800 X46.064 Y6.512 E14.60909
G1 X45.23 Y6.365 E14.65134
G1 X44.483 Y5.932 E14.69442
G1 X43.937 Y5.278 E14.73693
G1 X43.648 Y4.484 E14.77908
G1 X43.648 Y3.627 E14.82184
G1 X43.937 Y2.826 E14.86432
G1 X44.479 Y2.176 E14.90654
G1 X45.23 Y1.744 E14.94977
G1 X46.065 Y1.599 E14.99205
G1 X46.903 Y1.744 E15.03448
G1 X47.649 Y2.172 E15.07739
G1 X48.196 Y2.826 E15.11992
G1 X48.488 Y3.624 E15.16232
G1 X48.488 Y4.484 E15.20522
G1 X48.196 Y5.282 E15.24762
G1 X47.657 Y5.924 E15.28944
G1 X46.898 Y6.365 E15.33323
G0 F3600 X45.078 Y6.046
G1 F1800 X44.058 Y5.025 E15.40523
G1 X43.988 Y4.955
G0 F3600 X43.848 Y4.25
G1 F1800 X45.873 Y6.275 E15.54811
G0 F3600 X46.411 Y6.247
G1 F1800 X43.848 Y3.684 E15.72894
G0 F3600 X43.992 Y3.263
G1 F1800 X46.876 Y6.146 E15.93239
G0 F3600 X47.233 Y5.938
G1 F1800 X44.162 Y2.867 E16.14906
G0 F3600 X44.419 Y2.558
G1 F1800 X47.573 Y5.713 E16.37163
G0 F3600 X47.832 Y5.405
G1 F1800 X44.704 Y2.278 E16.59229
G0 F3600 X45.063 Y2.071
G1 F1800 X48.061 Y5.069 E16.80382
G0 F3600 X48.213 Y4.656
G1 F1800 X45.464 Y1.906 E16.99781
G0 F3600 X45.946 Y1.823
G1 F1800 X48.288 Y4.165 E17.16305
G0 F3600 X48.253 Y3.564
G1 F1800 X46.581 Y1.892 E17.28102
G1 X46.511 Y1.822
G0 F3600 X46.494 Y1.907
;MESH:NONMESH
G0 F600 X46.494 Y1.907 Z0.5
G0 F3600 X46.936 Y6.434
G0 X47.055 Y6.776
;TIME_ELAPSED:15.412980
;LAYER:1
;note -- min layer time used
M106 S255
;TYPE:WALL-INNER
;MESH:eimer.stl
G1 F1191.5 X47.932 Y6.272 E17.31466
G1 X48.576 Y5.503 E17.34802
G1 X48.919 Y4.558 E17.38146
G1 X48.919 Y3.551 E17.41495
G1 X48.576 Y2.608 E17.44833
G1 X47.932 Y1.835 E17.48179
G1 X47.056 Y1.333 E17.51537
G1 X46.068 Y1.158 E17.54875
G1 X45.081 Y1.333 E17.58209
G1 X44.204 Y1.84 E17.61578
G1 X43.56 Y2.609 E17.64914
G1 X43.216 Y3.55 E17.68246
G1 X43.216 Y4.558 E17.71599
G1 X43.56 Y5.503 E17.74944
G1 X44.204 Y6.273 E17.78282
G1 X45.081 Y6.779 E17.8165
G1 X46.066 Y6.954 E17.84977
G1 X47.055 Y6.776 E17.8832
G0 F5400 X46.952 Y6.483
G0 X46.069 Y6.64
G0 X46.067 Y7.36
;TYPE:WALL-OUTER
G1 F1191.5 X47.194 Y7.157 E17.92129
G1 X48.193 Y6.584 E17.95959
G1 X48.928 Y5.706 E17.99767
G1 X49.319 Y4.628 E18.03581
G1 X49.319 Y3.48 E18.074
G1 X48.928 Y2.406 E18.11201
G1 X48.193 Y1.524 E18.1502
G1 X47.194 Y0.951 E18.1885
G1 X46.068 Y0.752 E18.22653
G1 X44.942 Y0.951 E18.26456
G1 X43.943 Y1.528 E18.30294
G1 X43.208 Y2.406 E18.34102
G1 X42.816 Y3.48 E18.37905
G1 X42.816 Y4.628 E18.41723
G1 X43.208 Y5.706 E18.45538
G1 X43.943 Y6.584 E18.49346
G1 X44.942 Y7.161 E18.53183
G1 X46.067 Y7.36 E18.56983
G0 F5400 X46.263 Y7.325
G0 X46.14 Y6.626
G0 X46.918 Y6.413
;TYPE:SKIN
G1 F1191.5 X46.065 Y6.568 E18.59867
G1 X45.214 Y6.413 E18.62744
G1 X44.451 Y5.976 E18.65668
G1 X43.892 Y5.31 E18.6856
G1 X43.596 Y4.492 E18.71454
G1 X43.597 Y3.616 E18.74367
G1 X43.893 Y2.802 E18.77248
G1 X44.451 Y2.132 E18.80148
G1 X45.214 Y1.695 E18.83073
G1 X46.067 Y1.544 E18.85954
G1 X46.922 Y1.695 E18.88842
G1 X47.677 Y2.128 E18.91736
G1 X48.243 Y2.806 E18.94674
G1 X48.536 Y3.615 E18.97536
G1 X48.536 Y4.493 E19.00456
G1 X48.243 Y5.306 E19.0333
G1 X47.681 Y5.976 E19.06239
G1 X46.918 Y6.413 E19.09163
G0 F5400 X47.092 Y6.083
G1 F1191.5 X48.121 Y5.053 E19.14006
G1 X48.191 Y4.983
G0 F5400 X48.336 Y4.273
G1 F1191.5 X46.283 Y6.326 E19.23663
G0 F5400 X45.738 Y6.305
G1 F1191.5 X48.336 Y3.707 E19.35883
G0 F5400 X48.201 Y3.277
G1 F1191.5 X45.265 Y6.212 E19.4969
G0 F5400 X44.906 Y6.006
G1 F1191.5 X48.038 Y2.874 E19.64422
G0 F5400 X47.781 Y2.565
G1 F1191.5 X44.556 Y5.79 E19.79592
G0 F5400 X44.298 Y5.482
G1 F1191.5 X47.515 Y2.265 E19.94724
G0 F5400 X47.156 Y2.059
G1 F1191.5 X44.051 Y5.163 E20.09326
G0 F5400 X43.901 Y4.748
G1 F1191.5 X46.777 Y1.872 E20.22854
G0 F5400 X46.296 Y1.788
G1 F1191.5 X43.797 Y4.286 E20.34606
G0 F5400 X43.797 Y3.72
G1 F1191.5 X45.707 Y1.811 E20.43588
G1 X45.777 Y1.741
G0 F5400 X44.774 Y2.178
G1 F1191.5 X44.169 Y2.783 E20.46434
G1 X44.099 Y2.853
G0 F5400 X44.128 Y2.88
;MESH:NONMESH
G0 F600 X44.128 Y2.88 Z0.7
G0 F5400 X46.952 Y6.485
G0 X47.072 Y6.815
;TIME_ELAPSED:20.736835
;LAYER:2
;note -- min layer time used
;TYPE:WALL-INNER
;MESH:eimer.stl
G1 F1207.9 X47.96 Y6.305 E20.4984
G1 X48.612 Y5.523 E20.53226
G1 X48.964 Y4.565 E20.56621
G1 X48.964 Y3.543 E20.6002
G1 X48.616 Y2.589 E20.63397
G1 X47.956 Y1.804 E20.66808
G1 X47.071 Y1.293 E20.70207
G1 X46.068 Y1.114 E20.73596
G1 X45.065 Y1.293 E20.76985
G1 X44.176 Y1.804 E20.80395
G1 X43.52 Y2.585 E20.83788
G1 X43.172 Y3.542 E20.87175
G1 X43.172 Y4.566 E20.9058
G1 X43.52 Y5.523 E20.93967
G1 X44.176 Y6.304 E20.9736
G1 X45.066 Y6.815 E21.00773
G1 X46.069 Y6.994 E21.04162
G1 X47.072 Y6.815 E21.0755
G0 F7200 X46.967 Y6.523
G0 X46.069 Y6.683
G0 X46.069 Y7.4
;TYPE:WALL-OUTER
G1 F1207.9 X47.21 Y7.197 E21.11405
G1 X48.221 Y6.616 E21.15283
G1 X48.964 Y5.726 E21.19139
G1 X49.364 Y4.636 E21.23001
G1 X49.364 Y3.472 E21.26873
G1 X48.968 Y2.386 E21.30717
G1 X48.217 Y1.492 E21.34601
G1 X47.21 Y0.911 E21.38467
G1 X46.068 Y0.708 E21.42325
G1 X44.926 Y0.911 E21.46183
G1 X43.915 Y1.492 E21.50061
G1 X43.168 Y2.382 E21.53926
G1 X42.772 Y3.472 E21.57783
G1 X42.772 Y4.636 E21.61655
G1 X43.168 Y5.726 E21.65512
G1 X43.915 Y6.616 E21.69377
G1 X44.926 Y7.197 E21.73255
G1 X46.069 Y7.4 E21.77116
G0 F7200 X46.265 Y7.365
G0 X46.143 Y6.669
G0 X46.938 Y6.449
;TYPE:SKIN
G1 F1207.9 X46.068 Y6.604 E21.80055
G1 X45.198 Y6.449 E21.82994
G1 X44.423 Y6.007 E21.85962
G1 X43.852 Y5.33 E21.88908
G1 X43.552 Y4.5 E21.91843
G1 X43.552 Y3.604 E21.94823
G1 X43.852 Y2.778 E21.97746
G1 X44.423 Y2.096 E22.00704
G1 X45.198 Y1.655 E22.0367
G1 X46.067 Y1.5 E22.06606
G1 X46.934 Y1.655 E22.09535
G1 X47.709 Y2.1 E22.12508
G1 X48.28 Y2.782 E22.15466
G1 X48.584 Y3.608 E22.18394
G1 X48.584 Y4.496 E22.21347
G1 X48.276 Y5.326 E22.24292
G1 X47.705 Y6.008 E22.2725
G1 X46.938 Y6.449 E22.30193
G0 F7200 X45.294 Y6.262
G1 F1207.9 X43.896 Y4.864 E22.36768
G0 F7200 X43.752 Y4.154
G1 F1207.9 X45.983 Y6.385 E22.47262
G0 F7200 X46.489 Y6.325
G1 F1207.9 X43.765 Y3.601 E22.60075
G0 F7200 X43.916 Y3.186
G1 F1207.9 X46.943 Y6.214 E22.74316
G0 F7200 X47.303 Y6.008
G1 F1207.9 X44.094 Y2.799 E22.8941
G0 F7200 X44.352 Y2.491
G1 F1207.9 X47.638 Y5.777 E23.04866
G0 F7200 X47.896 Y5.469
G1 F1207.9 X44.633 Y2.207 E23.20212
G0 F7200 X44.994 Y2.002
G1 F1207.9 X48.132 Y5.14 E23.34972
G0 F7200 X48.285 Y4.727
G1 F1207.9 X45.384 Y1.826 E23.48618
G0 F7200 X45.863 Y1.739
G1 F1207.9 X48.384 Y4.26 E23.60476
G0 F7200 X48.384 Y3.695
G1 F1207.9 X46.463 Y1.774 E23.69511
G1 X46.393 Y1.704
G0 F7200 X47.42 Y2.165
G1 F1207.9 X47.922 Y2.667 E23.71873
G0 F7200 X47.901 Y2.683
;MESH:NONMESH
G0 F600 X47.901 Y2.683 Z0.9
G0 F7200 X46.967 Y6.525
G0 X47.083 Y6.859
;TIME_ELAPSED:26.105862
;LAYER:3
;note -- min layer time used
;TYPE:WALL-INNER
;MESH:eimer.stl
G1 F1238.2 X47.998 Y6.33 E23.75388
G1 X48.651 Y5.544 E23.78787
G1 X49.004 Y4.574 E23.8222
G1 X49.004 Y3.534 E23.85679
G1 X48.652 Y2.565 E23.89108
G1 X47.983 Y1.772 E23.92559
G1 X47.087 Y1.254 E23.96001
G1 X46.068 Y1.074 E23.99443
G1 X45.049 Y1.253 E24.02884
G1 X44.137 Y1.782 E24.0639
G1 X43.481 Y2.568 E24.09796
G1 X43.132 Y3.533 E24.13209
G1 X43.132 Y4.575 E24.16674
G1 X43.484 Y5.547 E24.20113
G1 X44.148 Y6.337 E24.23545
G1 X45.049 Y6.859 E24.27008
G1 X46.067 Y7.038 E24.30446
G1 X47.083 Y6.859 E24.33877
G0 F7200 X46.983 Y6.563
G0 X46.069 Y6.726
G0 X46.067 Y7.444
;TYPE:WALL-OUTER
G1 F1238.2 X47.222 Y7.241 E24.37778
G1 X48.26 Y6.64 E24.41767
G1 X49.003 Y5.746 E24.45634
G1 X49.404 Y4.644 E24.49534
G1 X49.404 Y3.464 E24.53459
G1 X49.004 Y2.362 E24.57358
G1 X48.245 Y1.46 E24.61279
G1 X47.226 Y0.872 E24.65192
G1 X46.068 Y0.668 E24.69103
G1 X44.91 Y0.871 E24.73013
G1 X43.875 Y1.472 E24.76994
G1 X43.129 Y2.366 E24.80866
G1 X42.732 Y3.463 E24.84746
G1 X42.732 Y4.645 E24.88678
G1 X43.132 Y5.75 E24.92586
G1 X43.887 Y6.648 E24.96489
G1 X44.91 Y7.241 E25.00421
G1 X46.067 Y7.444 E25.04328
G0 F7200 X46.263 Y7.41
G0 X46.14 Y6.712
G0 X46.946 Y6.497
;TYPE:SKIN
G1 F1238.2 X46.064 Y6.652 E25.07307
G1 X45.182 Y6.497 E25.10285
G1 X44.391 Y6.04 E25.13324
G1 X43.817 Y5.354 E25.16299
G1 X43.512 Y4.509 E25.19287
G1 X43.512 Y3.595 E25.22327
G1 X43.813 Y2.762 E25.25273
G1 X44.387 Y2.076 E25.28248
G1 X45.182 Y1.611 E25.31311
G1 X46.067 Y1.46 E25.34297
G1 X46.95 Y1.615 E25.37279
G1 X47.733 Y2.068 E25.40287
G1 X48.316 Y2.759 E25.43294
G1 X48.624 Y3.596 E25.46261
G1 X48.624 Y4.508 E25.49294
G1 X48.32 Y5.346 E25.52259
G1 X47.745 Y6.032 E25.55236
G1 X46.946 Y6.497 E25.58311
G0 F7200 X46.866 Y6.308
G1 F1238.2 X48.266 Y4.909 E25.64894
G0 F7200 X48.424 Y4.185
G1 F1238.2 X46.18 Y6.428 E25.75447
G0 F7200 X45.664 Y6.379
G1 F1238.2 X48.421 Y3.623 E25.88412
G0 F7200 X48.269 Y3.209
G1 F1238.2 X45.2 Y6.277 E26.02846
G0 F7200 X44.842 Y6.07
G1 F1238.2 X48.099 Y2.813 E26.18165
G0 F7200 X47.84 Y2.506
G1 F1238.2 X44.494 Y5.852 E26.33904
G0 F7200 X44.237 Y5.544
G1 F1238.2 X47.574 Y2.206 E26.49603
G0 F7200 X47.216 Y1.999
G1 F1238.2 X43.985 Y5.23 E26.648
G0 F7200 X43.835 Y4.814
G1 F1238.2 X46.849 Y1.8 E26.78977
G0 F7200 X46.368 Y1.715
G1 F1238.2 X43.712 Y4.371 E26.9147
G0 F7200 X43.712 Y3.806
G1 F1238.2 X45.811 Y1.706 E27.01346
G1 X45.881 Y1.636
G0 F7200 X45.007 Y1.945
G1 F1238.2 X43.932 Y3.02 E27.06402
G1 X43.862 Y3.09
G0 F7200 X43.933 Y3.116
;MESH:NONMESH
G0 F600 X43.933 Y3.116 Z1.1
G0 F7200 X44.211 Y2.175
G0 X44.06 Y2.049
;TIME_ELAPSED:31.438058
