;FLAVOR:Marlin
;TIME:1330
;Filament used: 1.75267m
;Layer height: 0.24
;MINX:-9.25
;MINY:-70.836
;MINZ:0.24
;MAXX:19.25
;MAXY:-36.839
;MAXZ:18.96
;TARGET_MACHINE.NAME:Unknown
;Generated with Cura_SteamEngine 5.10.1
M140 S45
M105
M190 S45
M104 S210
M105
M109 S210
;FLAVOR:Marlin
M82 ;absolute extrusion mode
G21
G90
M82
M107 T0
G28
G92 E0
G0 E3 F200
G92 E0 ; reset extrusion distance
M106 S255 ; Enable cooling fan full speed
G1 X-98 Y0 Z0.4 F3000 ; move to arc start
G3 X0 Y-98 I98 Z0.4 E40 F400 ; lay arc stripe 90deg
G92 E0 ; reset extrusion distance
G4 P500 ; wait for 0.5 sec
G0 Z10 E-1 ; Lift 15mm and retract 1mm filament
G4 P2000 ; wait for 5 sec
G0 Z15
M107 ; Disable cooling fan
G1 X0 Y-85 Z4 E0 F3000 ; get off the bed
M82 ;absolute extrusion mode
G92 E0
G92 E0
G1 F1500 E-1
;LAYER_COUNT:79
;LAYER:0
M106 S102
G0 F3600 X-6.373 Y-36.839 Z0.24
;TYPE:SKIRT
G1 F3600 E0.71493
G1 F1200 X-7.263 Y-37.021 E0.74793
G1 X-8.018 Y-37.419 E0.77894
G1 X-8.238 Y-37.588 E0.78902
G1 X-8.736 Y-38.206 E0.81786
G1 X-9.132 Y-39.002 E0.85017
G1 X-9.246 Y-39.781 E0.87877
G1 X-9.25 Y-67.959 E1.90262
G1 X-9.068 Y-68.849 E1.93563
G1 X-8.67 Y-69.604 E1.96664
G1 X-8.501 Y-69.824 E1.97672
G1 X-7.883 Y-70.322 E2.00556
G1 X-7.087 Y-70.718 E2.03786
G1 X-6.308 Y-70.832 E2.06647
G1 X16.373 Y-70.836 E2.89058
G1 X17.263 Y-70.654 E2.92359
G1 X18.018 Y-70.256 E2.9546
G1 X18.238 Y-70.087 E2.96468
G1 X18.736 Y-69.469 E2.99352
G1 X19.132 Y-68.673 E3.02582
G1 X19.246 Y-67.894 E3.05443
G1 X19.25 Y-39.717 E4.07824
G1 X19.068 Y-38.827 E4.11125
G1 X18.67 Y-38.072 E4.14226
G1 X18.502 Y-37.852 E4.15232
G1 X17.876 Y-37.347 E4.18154
G1 X17.151 Y-36.989 E4.21092
G1 X16.365 Y-36.841 E4.23998
G1 X-6.373 Y-36.839 E5.06617
G0 F3600 X-6.332 Y-37.239
G1 F1200 X-7.128 Y-37.402 E5.09569
G1 X-7.832 Y-37.773 E5.12461
G1 X-7.957 Y-37.876 E5.13049
G1 X-8.397 Y-38.422 E5.15597
G1 X-8.745 Y-39.122 E5.18438
G1 X-8.85 Y-39.839 E5.21071
G1 X-8.85 Y-67.918 E6.23096
G1 X-8.687 Y-68.714 E6.26048
G1 X-8.316 Y-69.418 E6.28939
G1 X-8.213 Y-69.543 E6.29528
G1 X-7.667 Y-69.983 E6.32076
G1 X-6.967 Y-70.331 E6.34916
G1 X-6.25 Y-70.436 E6.37549
G1 X16.332 Y-70.436 E7.19601
G1 X17.128 Y-70.273 E7.22553
G1 X17.832 Y-69.902 E7.25445
G1 X17.957 Y-69.799 E7.26033
G1 X18.397 Y-69.253 E7.28581
G1 X18.745 Y-68.553 E7.31421
G1 X18.85 Y-67.836 E7.34054
G1 X18.85 Y-39.758 E8.36076
G1 X18.687 Y-38.962 E8.39028
G1 X18.316 Y-38.258 E8.4192
G1 X18.213 Y-38.133 E8.42508
G1 X17.662 Y-37.688 E8.45082
G1 X17.022 Y-37.372 E8.47675
G1 X16.328 Y-37.241 E8.50241
G1 X-6.332 Y-37.239 E9.32576
G0 F3600 X-6.291 Y-37.639
G1 F1200 X-6.993 Y-37.783 E9.3518
G1 X-7.646 Y-38.127 E9.37862
G1 X-8.058 Y-38.638 E9.40247
G1 X-8.359 Y-39.244 E9.42706
G1 X-8.45 Y-39.839 E9.44893
G1 X-8.45 Y-67.877 E10.46769
G1 X-8.306 Y-68.579 E10.49373
G1 X-7.962 Y-69.232 E10.52054
G1 X-7.451 Y-69.644 E10.54439
G1 X-6.845 Y-69.945 E10.56898
G1 X-6.25 Y-70.036 E10.59085
G1 X16.291 Y-70.036 E11.40988
G1 X16.993 Y-69.892 E11.43592
G1 X17.646 Y-69.548 E11.46273
G1 X18.058 Y-69.037 E11.48659
G1 X18.359 Y-68.431 E11.51117
G1 X18.45 Y-67.836 E11.53304
G1 X18.45 Y-39.799 E12.55177
G1 X18.306 Y-39.097 E12.5778
G1 X17.962 Y-38.444 E12.60462
G1 X17.448 Y-38.029 E12.62863
G1 X16.893 Y-37.755 E12.65112
G1 X16.291 Y-37.641 E12.67338
G1 X-6.291 Y-37.639 E13.4939
G0 F3600 X-6.25 Y-38.039
G1 F1200 X-6.856 Y-38.163 E13.51637
G1 X-7.388 Y-38.444 E13.53823
G1 X-7.7 Y-38.816 E13.55587
G1 X-7.973 Y-39.365 E13.57815
G1 X-8.05 Y-39.839 E13.5956
G1 X-8.05 Y-67.836 E14.61287
G1 X-7.926 Y-68.442 E14.63535
G1 X-7.645 Y-68.974 E14.65721
G1 X-7.273 Y-69.286 E14.67485
G1 X-6.724 Y-69.559 E14.69713
G1 X-6.25 Y-69.636 E14.71458
G1 X16.25 Y-69.636 E15.53211
G1 X16.856 Y-69.512 E15.55459
G1 X17.388 Y-69.231 E15.57645
G1 X17.7 Y-68.859 E15.59409
G1 X17.973 Y-68.31 E15.61637
G1 X18.05 Y-67.836 E15.63382
G1 X18.05 Y-39.84 E16.65105
G1 X17.926 Y-39.234 E16.67353
G1 X17.645 Y-38.702 E16.69539
G1 X17.271 Y-38.388 E16.71313
G1 X16.764 Y-38.138 E16.73367
G1 X16.253 Y-38.041 E16.75257
G1 X-6.25 Y-38.039 E17.57022
G0 F3600 X-6.25 Y-38.439
G1 F1200 X-6.669 Y-38.517 E17.5857
G1 X-7.133 Y-38.762 E17.60477
G1 X-7.342 Y-38.994 E17.61612
G1 X-7.588 Y-39.488 E17.63617
G1 X-7.65 Y-39.839 E17.64912
G1 X-7.65 Y-67.836 E18.66639
G1 X-7.572 Y-68.255 E18.68188
G1 X-7.327 Y-68.719 E18.70094
G1 X-7.095 Y-68.928 E18.71229
G1 X-6.601 Y-69.174 E18.73234
G1 X-6.25 Y-69.236 E18.74529
G1 X16.25 Y-69.236 E19.56283
G1 X16.669 Y-69.158 E19.57831
G1 X17.133 Y-68.913 E19.59738
G1 X17.342 Y-68.681 E19.60872
G1 X17.588 Y-68.187 E19.62878
G1 X17.65 Y-67.836 E19.64173
G1 X17.65 Y-39.84 E20.65896
G1 X17.572 Y-39.421 E20.67445
G1 X17.327 Y-38.957 E20.69351
G1 X17.094 Y-38.747 E20.70491
G1 X16.587 Y-38.497 E20.72545
G1 X16.253 Y-38.441 E20.73776
G1 X-6.25 Y-38.439 E21.5554
G0 F3600 X-6.25 Y-38.839
G1 F1200 X-6.588 Y-38.909 E21.56795
G1 X-6.851 Y-39.046 E21.57872
G1 X-6.99 Y-39.184 E21.58584
G1 X-7.196 Y-39.566 E21.60161
G1 X-7.25 Y-39.839 E21.61172
G1 X-7.25 Y-67.836 E22.62899
G1 X-7.18 Y-68.174 E22.64153
G1 X-7.043 Y-68.437 E22.65231
G1 X-6.905 Y-68.576 E22.65942
G1 X-6.523 Y-68.782 E22.67519
G1 X-6.25 Y-68.836 E22.6853
G1 X16.25 Y-68.836 E23.50284
G1 X16.588 Y-68.766 E23.51538
G1 X16.851 Y-68.629 E23.52616
G1 X16.99 Y-68.491 E23.53328
G1 X17.196 Y-68.109 E23.54905
G1 X17.25 Y-67.836 E23.55916
G1 X17.25 Y-39.84 E24.57639
G1 X17.18 Y-39.502 E24.58893
G1 X17.043 Y-39.239 E24.59971
G1 X16.905 Y-39.1 E24.60683
G1 X16.513 Y-38.89 E24.62298
G1 X16.253 Y-38.841 E24.6326
G1 X-6.25 Y-38.839 E25.45024
G0 F3600 X-6.25 Y-39.639
G1 F1200 X-6.369 Y-39.678 E25.4548
G1 X-6.45 Y-39.839 E25.46134
G1 X-6.45 Y-67.836 E26.47862
G1 X-6.411 Y-67.955 E26.48317
G1 X-6.25 Y-68.036 E26.48971
G1 X16.25 Y-68.036 E27.30725
G1 X16.369 Y-67.997 E27.3118
G1 X16.45 Y-67.836 E27.31835
G1 X16.45 Y-39.84 E28.33559
G1 X16.411 Y-39.721 E28.34014
G1 X16.25 Y-39.64 E28.34668
G1 X-6.25 Y-39.639 E29.16422
G0 F3600 X-6.25 Y-39.239
G1 F1200 X-6.494 Y-39.298 E29.17334
G1 X-6.646 Y-39.389 E29.17978
G1 X-6.807 Y-39.659 E29.1912
G1 X-6.85 Y-39.839 E29.19793
G1 X-6.85 Y-67.836 E30.2152
G1 X-6.791 Y-68.08 E30.22432
G1 X-6.7 Y-68.232 E30.23076
G1 X-6.43 Y-68.393 E30.24218
G1 X-6.25 Y-68.436 E30.2489
G1 X16.25 Y-68.436 E31.06644
G1 X16.494 Y-68.377 E31.07556
G1 X16.646 Y-68.286 E31.082
G1 X16.807 Y-68.016 E31.09342
G1 X16.85 Y-67.836 E31.10015
G1 X16.85 Y-39.84 E32.11738
G1 X16.791 Y-39.596 E32.1265
G1 X16.7 Y-39.444 E32.13294
G1 X16.425 Y-39.28 E32.14457
G1 X16.253 Y-39.241 E32.15098
G1 X-6.25 Y-39.239 E32.96863
G1 F1500 E31.96863
;MESH:K??rper1
G0 F3600 X-5.826 Y-40.263
G0 X15.248 Y-40.84
;TYPE:WALL-INNER
G1 F3600 E33.68355
G1 F1800 X15.248 Y-66.836 E34.62812
G1 X-5.248 Y-66.836 E35.37284
G1 X-5.248 Y-40.837 E36.31752
G1 X14.507 Y-40.84 E37.03531
G0 F1620 X15.248 Y-40.84
G0 F3600 X-5.37 Y-40.719
G0 X-5.648 Y-40.437
G1 F1800 X15.648 Y-40.44 E37.8091
G1 X15.648 Y-67.236 E38.78274
G1 X-5.648 Y-67.236 E39.55653
G1 X-5.648 Y-41.178 E40.50335
G0 F1620 X-5.648 Y-40.437
G0 F3600 X-5.369 Y-40.75
G0 X-5.77 Y-67.356
G0 X-6.048 Y-67.636
;TYPE:WALL-OUTER
G1 F1800 X-6.048 Y-40.037 E41.50616
G1 X16.048 Y-40.04 E42.30901
G1 X16.048 Y-67.636 E43.31172
G1 X-5.307 Y-67.636 E44.08765
G0 F1620 X-6.048 Y-67.636
G0 F3600 X-6.048 Y-67.436
G0 X-5.37 Y-66.956
G0 X-4.868 Y-41.217
;TYPE:SKIN
G1 F1500 X-4.868 Y-66.456 E45.00471
G1 X14.868 Y-66.456 E45.72182
G1 X14.868 Y-41.22 E46.63877
G1 X-4.868 Y-41.217 E47.35588
G0 F3600 X-4.082 Y-41.417
G1 F1500 X-4.668 Y-42.004 E47.38601
G0 F3600 X-4.668 Y-42.569
G1 F1500 X-3.516 Y-41.417 E47.44521
G0 F3600 X-2.951 Y-41.417
G1 F1500 X-4.668 Y-43.135 E47.53346
G0 F3600 X-4.668 Y-43.701
G1 F1500 X-2.385 Y-41.417 E47.6508
G0 F3600 X-1.819 Y-41.417
G1 F1500 X-4.668 Y-44.266 E47.7972
G0 F3600 X-4.668 Y-44.832
G1 F1500 X-1.254 Y-41.417 E47.97266
G0 F3600 X-.689 Y-41.418
G1 F1500 X-4.668 Y-45.398 E48.17714
G0 F3600 X-4.668 Y-45.963
G1 F1500 X-.123 Y-41.418 E48.41069
G0 F3600 X0.443 Y-41.418
G1 F1500 X-4.668 Y-46.529 E48.67332
G0 F3600 X-4.668 Y-47.095
G1 F1500 X1.008 Y-41.418 E48.96501
G0 F3600 X1.574 Y-41.418
G1 F1500 X-4.668 Y-47.66 E49.28576
G0 F3600 X-4.668 Y-48.226
G1 F1500 X2.14 Y-41.418 E49.63559
G0 F3600 X2.705 Y-41.418
G1 F1500 X-4.668 Y-48.792 E50.01448
G0 F3600 X-4.668 Y-49.357
G1 F1500 X3.27 Y-41.419 E50.42238
G0 F3600 X3.836 Y-41.419
G1 F1500 X-4.668 Y-49.923 E50.85936
G0 F3600 X-4.668 Y-50.489
G1 F1500 X4.402 Y-41.419 E51.32543
G0 F3600 X4.967 Y-41.419
G1 F1500 X-4.668 Y-51.055 E51.82055
G0 F3600 X-4.668 Y-51.62
G1 F1500 X5.533 Y-41.419 E52.34474
G0 F3600 X6.099 Y-41.419
G1 F1500 X-4.668 Y-52.186 E52.898
G0 F3600 X-4.668 Y-52.752
G1 F1500 X6.664 Y-41.419 E53.48033
G0 F3600 X7.229 Y-41.419
G1 F1500 X-4.668 Y-53.317 E54.09169
G0 F3600 X-4.668 Y-53.883
G1 F1500 X7.795 Y-41.419 E54.73213
G0 F3600 X8.361 Y-41.419
G1 F1500 X-4.668 Y-54.449 E55.40166
G0 F3600 X-4.668 Y-55.014
G1 F1500 X8.927 Y-41.419 E56.10024
G0 F3600 X9.492 Y-41.419
G1 F1500 X-4.668 Y-55.58 E56.82789
G0 F3600 X-4.668 Y-56.146
G1 F1500 X10.058 Y-41.419 E57.58462
G0 F3600 X10.624 Y-41.419
G1 F1500 X-4.668 Y-56.711 E58.3704
G0 F3600 X-4.668 Y-57.277
G1 F1500 X11.189 Y-41.42 E59.18522
G0 F3600 X11.754 Y-41.42
G1 F1500 X-4.668 Y-57.843 E60.0291
G0 F3600 X-4.668 Y-58.408
G1 F1500 X12.32 Y-41.42 E60.90204
G0 F3600 X12.886 Y-41.42
G1 F1500 X-4.668 Y-58.974 E61.80406
G0 F3600 X-4.668 Y-59.54
G1 F1500 X13.451 Y-41.42 E62.73514
G0 F3600 X14.017 Y-41.42
G1 F1500 X-4.668 Y-60.105 E63.69527
G0 F3600 X-4.668 Y-60.671
G1 F1500 X14.583 Y-41.42 E64.6845
G0 F3600 X14.668 Y-41.9
G1 F1500 X-4.668 Y-61.237 E65.67811
G0 F3600 X-4.668 Y-61.803
G1 F1500 X14.668 Y-42.466 E66.67173
G0 F3600 X14.668 Y-43.032
G1 F1500 X-4.668 Y-62.368 E67.66532
G0 F3600 X-4.668 Y-62.934
G1 F1500 X14.668 Y-43.597 E68.65893
G0 F3600 X14.668 Y-44.163
G1 F1500 X-4.668 Y-63.5 E69.65255
G0 F3600 X-4.668 Y-64.065
G1 F1500 X14.668 Y-44.729 E70.64614
G0 F3600 X14.668 Y-45.294
G1 F1500 X-4.668 Y-64.631 E71.63975
G0 F3600 X-4.668 Y-65.197
G1 F1500 X14.668 Y-45.86 E72.63337
G0 F3600 X14.668 Y-46.426
G1 F1500 X-4.668 Y-65.762 E73.62696
G0 F3600 X-4.596 Y-66.256
G1 F1500 X14.668 Y-46.991 E74.61687
G0 F3600 X14.668 Y-47.557
G1 F1500 X-4.031 Y-66.256 E75.57773
G0 F3600 X-3.465 Y-66.256
G1 F1500 X14.668 Y-48.123 E76.5095
G0 F3600 X14.668 Y-48.689
G1 F1500 X-2.899 Y-66.256 E77.41219
G0 F3600 X-2.333 Y-66.256
G1 F1500 X14.668 Y-49.254 E78.28582
G0 F3600 X14.668 Y-49.82
G1 F1500 X-1.768 Y-66.256 E79.13039
G0 F3600 X-1.202 Y-66.256
G1 F1500 X14.668 Y-50.386 E79.94588
G0 F3600 X14.668 Y-50.951
G1 F1500 X-.636 Y-66.256 E80.73231
G0 F3600 X-0.071 Y-66.256
G1 F1500 X14.668 Y-51.517 E81.48968
G0 F3600 X14.668 Y-52.083
G1 F1500 X0.495 Y-66.256 E82.21796
G0 F3600 X1.061 Y-66.256
G1 F1500 X14.668 Y-52.648 E82.91719
G0 F3600 X14.668 Y-53.214
G1 F1500 X1.626 Y-66.256 E83.58736
G0 F3600 X2.192 Y-66.256
G1 F1500 X14.668 Y-53.78 E84.22845
G0 F3600 X14.668 Y-54.345
G1 F1500 X2.758 Y-66.256 E84.84047
G0 F3600 X3.323 Y-66.256
G1 F1500 X14.668 Y-54.911 E85.42344
G0 F3600 X14.668 Y-55.477
G1 F1500 X3.889 Y-66.256 E85.97733
G0 F3600 X4.455 Y-66.256
G1 F1500 X14.668 Y-56.042 E86.50215
G0 F3600 X14.668 Y-56.608
G1 F1500 X5.02 Y-66.256 E86.99792
G0 F3600 X5.586 Y-66.256
G1 F1500 X14.668 Y-57.174 E87.4646
G0 F3600 X14.668 Y-57.74
G1 F1500 X6.152 Y-66.256 E87.9022
G0 F3600 X6.718 Y-66.256
G1 F1500 X14.668 Y-58.305 E88.31074
G0 F3600 X14.668 Y-58.871
G1 F1500 X7.283 Y-66.256 E88.69022
G0 F3600 X7.849 Y-66.256
G1 F1500 X14.668 Y-59.437 E89.04062
G0 F3600 X14.668 Y-60.002
G1 F1500 X8.415 Y-66.256 E89.36196
G0 F3600 X8.98 Y-66.256
G1 F1500 X14.668 Y-60.568 E89.65424
G0 F3600 X14.668 Y-61.134
M104 S202
G1 F1500 X9.546 Y-66.256 E89.91744
G0 F3600 X10.112 Y-66.256
G1 F1500 X14.668 Y-61.699 E90.15157
G0 F3600 X14.668 Y-62.265
G1 F1500 X10.677 Y-66.256 E90.35665
G0 F3600 X11.243 Y-66.256
G1 F1500 X14.668 Y-62.831 E90.53265
G0 F3600 X14.668 Y-63.396
G1 F1500 X11.809 Y-66.256 E90.67958
G0 F3600 X12.374 Y-66.256
G1 F1500 X14.668 Y-63.962 E90.79746
G0 F3600 X14.668 Y-64.528
G1 F1500 X12.94 Y-66.256 E90.88626
G0 F3600 X13.506 Y-66.256
G1 F1500 X14.668 Y-65.093 E90.94599
G0 F3600 X14.668 Y-65.659
G1 F1500 X14.071 Y-66.256 E90.97667
G1 X14.001 Y-66.326
;MESH:NONMESH
G0 F600 X14.001 Y-66.326 Z0.48
G0 F3600 X15.248 Y-40.844
;TIME_ELAPSED:111.972370
;LAYER:1
M106 S255
;TYPE:WALL-INNER
;MESH:K??rper1
G1 F2400 X15.248 Y-66.836 E92.02603
G1 X-5.248 Y-66.836 E92.85349
G1 X-5.248 Y-40.844 E93.90285
G1 X14.581 Y-40.844 E94.70339
G0 F2160 X15.248 Y-40.844
G0 F5400 X-5.37 Y-40.725
G0 X-5.648 Y-40.444
G1 F2400 X15.648 Y-40.444 E95.56316
G1 X15.648 Y-67.236 E96.64481
G1 X-5.648 Y-67.236 E97.50458
G1 X-5.648 Y-41.111 E98.5593
G0 F2160 X-5.648 Y-40.444
G0 F5400 X-5.369 Y-40.756
G0 X-5.77 Y-67.356
G0 X-6.048 Y-67.636
;TYPE:WALL-OUTER
G1 F2100 X-6.048 Y-40.044 E99.67325
G1 X16.048 Y-40.044 E100.56532
G1 X16.048 Y-67.636 E101.67927
G1 X-5.381 Y-67.636 E102.54441
G0 F1890 X-6.048 Y-67.636
G0 F5400 X-6.048 Y-67.436
G0 X-5.37 Y-66.956
G0 X14.868 Y-66.456
;TYPE:SKIN
G1 F1500 X14.868 Y-41.224 E103.56308
G1 X-4.868 Y-41.224 E104.35987
G1 X-4.868 Y-66.456 E105.37854
G1 X14.868 Y-66.456 E106.17532
G0 F5400 X-4.455 Y-66.256
G1 F1500 X-4.668 Y-66.042 E106.18751
G0 F5400 X-4.668 Y-65.477
G1 F1500 X-3.889 Y-66.256 E106.23199
G0 F5400 X-3.323 Y-66.256
G1 F1500 X-4.668 Y-64.911 E106.30878
G0 F5400 X-4.668 Y-64.345
G1 F1500 X-2.758 Y-66.256 E106.41786
G0 F5400 X-2.192 Y-66.256
G1 F1500 X-4.668 Y-63.78 E106.55923
G0 F5400 X-4.668 Y-63.214
G1 F1500 X-1.626 Y-66.256 E106.73291
G0 F5400 X-1.061 Y-66.256
G1 F1500 X-4.668 Y-62.648 E106.93888
G0 F5400 X-4.668 Y-62.083
G1 F1500 X-.495 Y-66.256 E107.17714
G0 F5400 X0.071 Y-66.256
G1 F1500 X-4.668 Y-61.517 E107.44771
G0 F5400 X-4.668 Y-60.951
G1 F1500 X0.636 Y-66.256 E107.75058
G0 F5400 X1.202 Y-66.256
G1 F1500 X-4.668 Y-60.386 E108.08572
G0 F5400 X-4.668 Y-59.82
G1 F1500 X1.768 Y-66.256 E108.45319
G0 F5400 X2.333 Y-66.256
G1 F1500 X-4.668 Y-59.254 E108.85294
G0 F5400 X-4.668 Y-58.688
G1 F1500 X2.899 Y-66.256 E109.285
G0 F5400 X3.465 Y-66.256
G1 F1500 X-4.668 Y-58.123 E109.74936
G0 F5400 X-4.668 Y-57.557
G1 F1500 X4.031 Y-66.256 E110.24603
G0 F5400 X4.596 Y-66.256
G1 F1500 X-4.668 Y-56.991 E110.77498
G0 F5400 X-4.668 Y-56.426
G1 F1500 X5.162 Y-66.256 E111.33623
G0 F5400 X5.728 Y-66.256
G1 F1500 X-4.668 Y-55.86 E111.92978
G0 F5400 X-4.668 Y-55.294
G1 F1500 X6.293 Y-66.256 E112.55563
G0 F5400 X6.859 Y-66.256
G1 F1500 X-4.668 Y-54.729 E113.21376
G0 F5400 X-4.668 Y-54.163
G1 F1500 X7.425 Y-66.256 E113.90421
G0 F5400 X7.99 Y-66.256
G1 F1500 X-4.668 Y-53.597 E114.62695
G0 F5400 X-4.668 Y-53.032
G1 F1500 X8.556 Y-66.256 E115.38197
G0 F5400 X9.122 Y-66.256
G1 F1500 X-4.668 Y-52.466 E116.16931
G0 F5400 X-4.668 Y-51.9
G1 F1500 X9.687 Y-66.256 E116.98894
G0 F5400 X10.253 Y-66.256
G1 F1500 X-4.668 Y-51.335 E117.84086
G0 F5400 X-4.668 Y-50.769
G1 F1500 X10.819 Y-66.256 E118.72509
G0 F5400 X11.384 Y-66.256
G1 F1500 X-4.668 Y-50.203 E119.6416
G0 F5400 X-4.668 Y-49.637
G1 F1500 X11.95 Y-66.256 E120.59043
G0 F5400 X12.516 Y-66.256
G1 F1500 X-4.668 Y-49.072 E121.57155
G0 F5400 X-4.668 Y-48.506
G1 F1500 X13.081 Y-66.256 E122.58496
G0 F5400 X13.647 Y-66.256
G1 F1500 X-4.668 Y-47.94 E123.63068
G0 F5400 X-4.668 Y-47.375
G1 F1500 X14.213 Y-66.256 E124.7087
G0 F5400 X14.668 Y-66.146
G1 F1500 X-4.668 Y-46.809 E125.81271
G0 F5400 X-4.668 Y-46.243
G1 F1500 X14.668 Y-65.58 E126.91673
G0 F5400 X14.668 Y-65.014
G1 F1500 X-4.668 Y-45.678 E128.02072
G0 F5400 X-4.668 Y-45.112
G1 F1500 X14.668 Y-64.449 E129.12473
G0 F5400 X14.668 Y-63.883
