;FLAVOR:Marlin
;TIME:6346
;Filament used: 11.3908m
;Layer height: 0.24
;MINX:-81.297
;MINY:-88.666
;MINZ:0.3
;MAXX:75.119
;MAXY:76.614
;MAXZ:23.5
;Generated with Cura_SteamEngine 4.13.1
M140 S50
M105
M190 S50
M104 S210
M105
M109 S210
M82 ;absolute extrusion mode
;FLAVOR:Marlin
M82 ;absolute extrusion mode
G21
G90
M82
M107 T0
G28
G92 E0
G0 E3 F200
G92 E0 ; reset extrusion distance
M106 S255 ; Enable cooling fan full speed
G1 X-98 Y0 Z0.4 F3000 ; move to arc start
G3 X0 Y-98 I98 Z0.4 E40 F400 ; lay arc stripe 90deg
G92 E0 ; reset extrusion distance
G4 P500 ; wait for 0.5 sec
G0 Z10 E-1 ; Lift 15mm and retract 1mm filament
G4 P2000 ; wait for 5 sec
G0 Z15
M107 ; Disable cooling fan
G1 X0 Y-85 Z4 E0 F3000 ; get off the bed
G92 E0
G92 E0
G1 F1500 E-6.5
;LAYER_COUNT:77
;LAYER:0
M106 S25.5
G1 F600 Z1.3
G0 F3600 X0.783 Y-35.696 Z1.3
;TYPE:SKIRT
G1 F600 Z0.3
G1 F1500 E0.3326
G1 F2700 X0.366 Y-35.736 E0.3535
G1 X-0.036 Y-35.854 E0.3744
G1 X-.408 Y-36.047 E0.39531
G1 X-.773 Y-36.34 E0.41866
G1 X-24.724 Y-60.293 E2.10861
G1 X-25.201 Y-60.9 E2.14712
G1 X-25.373 Y-61.282 E2.16802
G1 X-25.47 Y-61.689 E2.1889
G1 X-25.483 Y-62.233 E2.21604
G1 X-25.428 Y-62.648 E2.23693
G1 X-25.294 Y-63.046 E2.25788
G1 X-25.088 Y-63.41 E2.27875
G1 X-24.841 Y-63.705 E2.29794
G1 X-1.618 Y-86.929 E3.93649
G1 X-1.294 Y-87.195 E3.9574
G1 X-.927 Y-87.396 E3.97828
G1 X-.527 Y-87.523 E3.99921
G1 X-0.019 Y-87.578 E4.02471
G1 X0.4 Y-87.56 E4.04563
G1 X0.808 Y-87.462 E4.06656
G1 X1.189 Y-87.289 E4.08744
G1 X1.639 Y-86.958 E4.11531
G1 X1.794 Y-86.818 E4.12573
G1 X25.748 Y-62.862 E5.81588
G1 X26.014 Y-62.538 E5.8368
G1 X26.215 Y-62.17 E5.85772
G1 X26.342 Y-61.771 E5.87861
G1 X26.392 Y-61.14 E5.91019
G1 X26.352 Y-60.723 E5.93109
G1 X26.234 Y-60.321 E5.95199
G1 X26.041 Y-59.949 E5.9729
G1 X25.748 Y-59.584 E5.99625
G1 X2.505 Y-36.34 E7.6362
G1 X2.181 Y-36.074 E7.65712
G1 X1.814 Y-35.873 E7.67799
G1 X1.414 Y-35.746 E7.69893
G1 X0.783 Y-35.696 E7.73051
G0 F3600 X0.783 Y-36.096
G1 F2700 X0.406 Y-36.136 E7.74942
G1 X0.046 Y-36.254 E7.76833
G1 X-.281 Y-36.444 E7.78719
G1 X-.49 Y-36.623 E7.80092
G1 X-24.441 Y-60.576 E9.49087
G1 X-24.871 Y-61.13 E9.52585
G1 X-25.017 Y-61.48 E9.54477
G1 X-25.09 Y-62.061 E9.57399
G1 X-25.029 Y-62.593 E9.6007
G1 X-24.898 Y-62.948 E9.61958
G1 X-24.558 Y-63.422 E9.64868
G1 X-1.335 Y-86.646 E11.28723
G1 X-1.04 Y-86.884 E11.30614
G1 X-.702 Y-87.055 E11.32504
G1 X-.154 Y-87.171 E11.35298
G1 X0.38 Y-87.158 E11.37963
G1 X0.746 Y-87.059 E11.39855
G1 X1.241 Y-86.769 E11.42717
G1 X1.511 Y-86.535 E11.44499
G1 X25.465 Y-62.579 E13.13515
G1 X25.703 Y-62.284 E13.15406
G1 X25.874 Y-61.946 E13.17296
G1 X25.971 Y-61.58 E13.19185
G1 X25.992 Y-61.14 E13.21382
G1 X25.952 Y-60.763 E13.23274
G1 X25.834 Y-60.403 E13.25164
G1 X25.644 Y-60.076 E13.27051
G1 X25.465 Y-59.867 E13.28423
G1 X2.222 Y-36.623 E14.92419
G1 X1.927 Y-36.385 E14.9431
G1 X1.589 Y-36.214 E14.962
G1 X1.223 Y-36.117 E14.98089
G1 X0.783 Y-36.096 E15.00286
G0 F3600 X0.783 Y-36.496
G1 F2700 X0.451 Y-36.536 E15.01955
G1 X0.139 Y-36.653 E15.03617
G1 X-.207 Y-36.906 E15.05756
G1 X-24.158 Y-60.859 E16.7475
G1 X-24.538 Y-61.357 E16.77875
G1 X-24.653 Y-61.67 E16.79539
G1 X-24.684 Y-62.202 E16.82197
G1 X-24.631 Y-62.532 E16.83865
G1 X-24.502 Y-62.84 E16.85531
G1 X-24.275 Y-63.139 E16.87404
G1 X-1.052 Y-86.363 E18.51258
G1 X-.789 Y-86.569 E18.52925
G1 X-.485 Y-86.708 E18.54593
G1 X0.022 Y-86.779 E18.57147
G1 X0.356 Y-86.756 E18.58817
G1 X0.674 Y-86.655 E18.60482
G1 X1.13 Y-86.341 E18.63244
G1 X1.228 Y-86.252 E18.63904
G1 X25.182 Y-62.296 E20.3292
G1 X25.388 Y-62.033 E20.34586
G1 X25.527 Y-61.729 E20.36254
G1 X25.592 Y-61.14 E20.3921
G1 X25.552 Y-60.808 E20.40879
G1 X25.435 Y-60.496 E20.42541
G1 X25.182 Y-60.15 E20.4468
G1 X1.939 Y-36.906 E22.08675
G1 X1.676 Y-36.7 E22.10342
G1 X1.372 Y-36.561 E22.12009
G1 X0.783 Y-36.496 E22.14966
G0 F3600 X0.783 Y-36.896
G1 F2700 X0.504 Y-36.936 E22.16372
G1 X0.247 Y-37.052 E22.17779
G1 X0.076 Y-37.189 E22.18872
G1 X-23.875 Y-61.142 E23.87866
G1 X-24.201 Y-61.578 E23.90582
G1 X-24.281 Y-61.848 E23.91987
G1 X-24.284 Y-62.187 E23.93678
G1 X-24.234 Y-62.465 E23.95088
G1 X-24.108 Y-62.717 E23.96493
G1 X-23.992 Y-62.856 E23.97396
G1 X-.769 Y-86.08 E25.61251
G1 X-.543 Y-86.249 E25.62659
G1 X-.113 Y-86.372 E25.6489
G1 X0.324 Y-86.354 E25.67072
G1 X0.731 Y-86.152 E25.69339
G1 X0.945 Y-85.969 E25.70744
G1 X24.899 Y-62.013 E27.39759
G1 X25.068 Y-61.787 E27.41167
G1 X25.168 Y-61.523 E27.42576
G1 X25.192 Y-61.14 E27.4449
G1 X25.152 Y-60.861 E27.45896
G1 X25.036 Y-60.604 E27.47303
G1 X24.899 Y-60.433 E27.48396
G1 X1.656 Y-37.189 E29.12392
G1 X1.43 Y-37.02 E29.13799
G1 X1.167 Y-36.92 E29.15203
G1 X0.783 Y-36.896 E29.17123
G0 F3600 X0.783 Y-37.296
G1 F2700 X0.568 Y-37.336 E29.18214
G1 X0.359 Y-37.472 E29.19458
G1 X-23.623 Y-61.458 E30.88678
G1 X-23.856 Y-61.789 E30.90697
G1 X-23.885 Y-62.172 E30.92614
G1 X-23.837 Y-62.385 E30.93703
G1 X-23.709 Y-62.573 E30.94838
G1 X-.486 Y-85.797 E32.58692
G1 X-.307 Y-85.921 E32.59778
G1 X0.063 Y-85.98 E32.61648
G1 X0.28 Y-85.952 E32.62739
G1 X0.662 Y-85.686 E32.65062
G1 X24.616 Y-61.73 E34.34077
G1 X24.74 Y-61.55 E34.35168
G1 X24.792 Y-61.14 E34.37229
G1 X24.752 Y-60.925 E34.3832
G1 X24.616 Y-60.716 E34.39564
G1 X1.373 Y-37.472 E36.0356
G1 X1.194 Y-37.348 E36.04646
G1 X0.783 Y-37.296 E36.06713
G0 F3600 X0.783 Y-37.696
G1 F2700 X0.642 Y-37.755 E36.07476
G1 X-23.32 Y-61.719 E37.76548
G1 X-23.443 Y-61.862 E37.77489
G1 X-23.491 Y-62 E37.78218
G1 X-23.485 Y-62.157 E37.79001
G1 X-23.426 Y-62.29 E37.79727
G1 X-.203 Y-85.514 E39.43582
G1 X-0.072 Y-85.573 E39.44298
G1 X0.084 Y-85.581 E39.45078
G1 X0.221 Y-85.535 E39.45799
G1 X0.379 Y-85.403 E39.46826
G1 X24.333 Y-61.447 E41.15841
G1 X24.392 Y-61.306 E41.16604
G1 X24.392 Y-61.14 E41.17432
G1 X24.333 Y-60.999 E41.18195
G1 X1.09 Y-37.755 E42.8219
G1 X0.949 Y-37.696 E42.82953
G1 X0.783 Y-37.696 E42.83781
G1 F1500 E36.33781
G1 F600 Z1.3
G0 F3600 X0.196 Y-43.435 Z1.3
;TYPE:SUPPORT
G1 F600 Z0.3
G1 F1500 E43.17041
G1 F2700 X-2.174 Y-45.805 E43.33763
G1 X-1.86 Y-46.118 E43.35975
G1 X-1.86 Y-47.278 E43.41762
G1 X-3.105 Y-48.523 E43.50546
G1 X-4.265 Y-48.523 E43.56333
G1 X-4.578 Y-48.209 E43.58545
G1 X-13.488 Y-57.119 E44.2141
G1 X-13.174 Y-57.432 E44.23622
G1 X-13.174 Y-58.592 E44.29409
G1 X-14.419 Y-59.837 E44.38193
G1 X-15.579 Y-59.837 E44.43981
G1 X-15.892 Y-59.523 E44.46192
G1 X-18.262 Y-61.893 E44.62914
G1 X-15.892 Y-64.263 E44.79636
G1 X-15.579 Y-63.949 E44.81848
G1 X-14.419 Y-63.949 E44.87635
G1 X-13.174 Y-65.194 E44.96419
G1 X-13.174 Y-66.354 E45.02206
G1 X-13.488 Y-66.667 E45.04418
G1 X-4.578 Y-75.576 E45.6728
G1 X-4.265 Y-75.262 E45.69491
G1 X-3.103 Y-75.262 E45.75289
G1 X-1.861 Y-76.51 E45.84073
G1 X-1.861 Y-77.668 E45.8985
G1 X-2.174 Y-77.98 E45.92055
G1 X0.196 Y-80.35 E46.08777
G1 X2.566 Y-77.98 E46.25498
G1 X2.252 Y-77.667 E46.2771
G1 X2.252 Y-76.507 E46.33497
G1 X3.497 Y-75.262 E46.42282
G1 X4.657 Y-75.262 E46.48069
G1 X4.97 Y-75.576 E46.50281
G1 X13.879 Y-66.667 E47.13139
G1 X13.565 Y-66.354 E47.15351
G1 X13.565 Y-65.192 E47.21148
G1 X14.813 Y-63.95 E47.29932
G1 X15.971 Y-63.95 E47.35709
G1 X16.283 Y-64.263 E47.37914
G1 X18.653 Y-61.893 E47.54636
G1 X16.283 Y-59.523 E47.71357
G1 X15.97 Y-59.837 E47.73569
G1 X14.81 Y-59.837 E47.79357
G1 X13.565 Y-58.592 E47.88141
G1 X13.565 Y-57.432 E47.93928
G1 X13.879 Y-57.119 E47.9614
G1 X4.97 Y-48.209 E48.59001
G1 X4.657 Y-48.523 E48.61213
G1 X3.497 Y-48.523 E48.67
G1 X2.252 Y-47.278 E48.75785
G1 X2.252 Y-46.118 E48.81572
G1 X2.566 Y-45.805 E48.83784
G1 X0.196 Y-43.435 E49.00505
G1 F1500 E42.50505
G1 F600 Z1.3
G0 F3600 X3.85 Y-52.298 Z1.3
G1 F600 Z0.3
G1 F1500 E49.33765
G1 F2700 X4.414 Y-52.298 E49.36579
G1 X9.787 Y-57.675 E49.74503
G1 X9.787 Y-58.239 E49.77317
G1 X7.918 Y-60.105 E49.90493
G1 X7.915 Y-60.115 E49.90545
G1 X7.955 Y-60.76 E49.93769
G1 X7.92 Y-61.534 E49.97634
G1 X7.803 Y-62.26 E50.01303
G1 X7.604 Y-62.986 E50.05059
G1 X7.311 Y-63.695 E50.08886
G1 X6.931 Y-64.391 E50.12842
G1 X6.525 Y-64.972 E50.16379
G1 X6.028 Y-65.541 E50.20148
G1 X5.48 Y-66.037 E50.23835
G1 X4.863 Y-66.483 E50.27634
G1 X4.175 Y-66.864 E50.31557
G1 X3.516 Y-67.14 E50.35122
G1 X2.761 Y-67.365 E50.39052
G1 X2.015 Y-67.488 E50.42824
G1 X1.261 Y-67.531 E50.46592
G1 X0.514 Y-67.491 E50.50324
G1 X-.175 Y-67.376 E50.53809
G1 X-.936 Y-67.161 E50.57754
G1 X-1.656 Y-66.865 E50.61638
G1 X-2.328 Y-66.489 E50.6548
G1 X-2.912 Y-66.082 E50.69031
G1 X-3.493 Y-65.562 E50.72921
G1 X-3.977 Y-65.019 E50.7655
G1 X-4.433 Y-64.375 E50.80487
G1 X-4.789 Y-63.731 E50.84158
G1 X-5.076 Y-63.028 E50.87947
G1 X-5.279 Y-62.315 E50.91645
G1 X-5.404 Y-61.562 E50.95453
G1 X-5.443 Y-60.855 E50.98986
G1 X-5.398 Y-60.036 E51.03078
G1 X-5.266 Y-59.297 E51.06823
G1 X-5.067 Y-58.612 E51.10382
G1 X-4.761 Y-57.885 E51.14317
G1 X-4.399 Y-57.231 E51.18047
G1 X-3.943 Y-56.609 E51.21894
G1 X-3.467 Y-56.079 E51.25448
G1 X-2.876 Y-55.56 E51.29372
G1 X-2.275 Y-55.137 E51.33039
G1 X-1.585 Y-54.763 E51.36955
G1 X-.922 Y-54.496 E51.4052
G1 X-.18 Y-54.288 E51.44365
G1 X0.567 Y-54.17 E51.48138
G1 X1.308 Y-54.133 E51.51839
G1 X1.977 Y-54.174 E51.55183
G1 X3.85 Y-52.298 E51.68409
G1 F1500 E45.18409
G1 F600 Z1.3
G0 F3600 X2.667 Y-53.256 Z1.3
G1 F600 Z0.3
G1 F1500 E52.01669
G1 F2700 X2.667 Y-47.92 E52.28291
G1 X2.752 Y-48.006
G1 X-2.36 Y-48.006 E52.53794
G0 F3600 X-2.667 Y-48.312
G1 F2700 X-2.667 Y-55.217 E52.88244
G1 F1500 E46.38244
G1 F600 Z1.3
G0 F3600 X-3.615 Y-56.007 Z1.3
G1 F600 Z0.3
G1 F1500 E53.21504
G1 F2700 X-12.15 Y-56.007 E53.64085
G1 F1500 E47.14085
G1 F600 Z1.3
G0 F3600 X-10.668 Y-54.524 Z1.3
G1 F600 Z0.3
G1 F1500 E53.97345
G1 F2700 X-10.668 Y-69.262 E54.70873
G1 X-10.586 Y-69.342
G1 X10.978 Y-69.342 E55.78457
G0 F3600 X10.668 Y-69.653
G1 F2700 X10.668 Y-54.132 E56.55891
G1 F1500 E50.05891
G1 F600 Z1.3
G0 F3600 X9.874 Y-53.34 Z1.3
G1 F600 Z0.3
G1 F1500 E56.89151
G1 F2700 X5.682 Y-53.34 E57.10065
G0 F3600 X5.334 Y-52.992
G1 F2700 X5.334 Y-48.798 E57.30989
G1 F1500 E50.80989
G1 F600 Z1.3
G0 F3600 X7.207 Y-50.673 Z1.3
G1 F600 Z0.3
G1 F1500 E57.64249
G1 F2700 X-6.816 Y-50.673 E58.3421
G1 F1500 E51.8421
G1 F600 Z1.3
G0 F3600 X-8.001 Y-51.857 Z1.3
G1 F600 Z0.3
G1 F1500 E58.67471
G1 F2700 X-8.001 Y-71.929 E59.6761
G1 X-7.919 Y-72.009
G1 X8.311 Y-72.009 E60.48582
G0 F3600 X8.001 Y-72.32
G1 F2700 X8.001 Y-62.041 E60.99864
G0 F3600 X8.087 Y-61.341
G1 F2700 X17.875 Y-61.341 E61.48697
G1 F1500 E54.98697
G1 F600 Z1.3
G0 F3600 X16.002 Y-59.997 Z1.3
G1 F600 Z0.3
G1 F1500 E61.81957
G1 F2700 X16.002 Y-63.79 E62.0088
G1 F1500 E55.5088
G1 F600 Z1.3
G0 F3600 X14.527 Y-64.008 Z1.3
G1 F600 Z0.3
G1 F1500 E62.3414
G1 F2700 X7.321 Y-64.008 E62.70091
G1 F1500 E56.20091
G1 F600 Z1.3
G0 F3600 X5.334 Y-66.341 Z1.3
G1 F600 Z0.3
G1 F1500 E63.03351
G1 F2700 X5.334 Y-74.987 E63.46486
G0 F3600 X5.644 Y-74.676
G1 F2700 X-5.252 Y-74.676 E64.00847
G1 X-5.334 Y-74.596
G1 X-5.334 Y-62.705 E64.60171
G1 F1500 E58.10171
G1 F600 Z1.3
G0 F3600 X-5.576 Y-61.341 Z1.3
G1 F600 Z0.3
G1 F1500 E64.93431
G1 F2700 X-17.484 Y-61.341 E65.52841
G1 F1500 E59.02841
G1 F600 Z1.3
G0 F3600 X-16.002 Y-59.858 Z1.3
G1 F600 Z0.3
G1 F1500 E65.86101
G1 F2700 X-16.002 Y-63.928 E66.06406
G1 F1500 E59.56406
G1 F600 Z1.3
G0 F3600 X-14.132 Y-64.008 Z1.3
G1 F600 Z0.3
G1 F1500 E66.39666
G1 F2700 X-4.818 Y-64.008 E66.86134
G1 F1500 E60.36134
G1 F600 Z1.3
G0 F3600 X-2.667 Y-66.447 Z1.3
G1 F600 Z0.3
G1 F1500 E67.19394
G1 F2700 X-2.667 Y-75.473 E67.64425
G1 F1500 E61.14425
G1 F600 Z1.3
G0 F3600 X-1.7 Y-77.343 Z1.3
G1 F600 Z0.3
G1 F1500 E67.97685
G1 F2700 X2.091 Y-77.343 E68.16598
G1 F1500 E61.66598
G1 F600 Z1.3
G0 F3600 X2.667 Y-75.865 Z1.3
G1 F600 Z0.3
G1 F1500 E68.49859
G1 F2700 X2.667 Y-67.543 E68.91377
G1 F1500 E62.41377
G1 F600 Z1.3
G0 F3600 X4.845 Y-66.675 Z1.3
G1 F600 Z0.3
G1 F1500 E69.24637
G1 F2700 X13.645 Y-66.675 E69.68541
G0 F3600 X13.335 Y-66.986
G1 F2700 X13.335 Y-56.799 E70.19364
G1 F1500 E63.69364
G1 F600 Z1.3
G0 F3600 X12.541 Y-56.007 Z1.3
G1 F600 Z0.3
G1 F1500 E70.52624
G1 F2700 X8.347 Y-56.007 E70.73548
G0 F3600 X8.001 Y-55.661
G1 F2700 X8.001 Y-51.465 E70.94482
G1 F1500 E64.44482
G1 F600 Z1.3
G0 F3600 X2.583 Y-53.34 Z1.3
G1 F600 Z0.3
G1 F1500 E71.27742
G1 F2700 X-9.483 Y-53.34 E71.87939
G1 F1500 E65.37939
G1 F600 Z1.3
G0 F3600 X-5.334 Y-49.19 Z1.3
G1 F600 Z0.3
G1 F1500 E72.212
G1 F2700 X-5.334 Y-58.956 E72.69922
G0 F3600 X-5.25 Y-58.674
G1 F2700 X-13.028 Y-58.674 E73.08727
G0 F3600 X-13.335 Y-58.98
G1 F2700 X-13.335 Y-64.806 E73.37793
G1 F1500 E66.87793
G1 F600 Z1.3
G0 F3600 X-13.253 Y-66.675 Z1.3
G1 F600 Z0.3
G1 F1500 E73.71053
G1 F2700 X-2.322 Y-66.675 E74.25588
G1 F1500 E67.75588
G1 F600 Z1.3
G0 F3600 X0.00 Y-67.567 Z1.3
G1 F600 Z0.3
G1 F1500 E74.58848
G1 F2700 X0.00 Y-79.929 E75.20523
G1 X0.081 Y-80.01
G1 X0.31 Y-80.01 E75.21665
G1 F1500 E68.71665
G1 F600 Z1.3
G0 F3600 X9.577 Y-58.674 Z1.3
G1 F600 Z0.3
G1 F1500 E75.54925
G1 F2700 X13.419 Y-58.674 E75.74093
G1 F1500 E69.24093
G1 F600 Z1.3
G0 F3600 X0.00 Y-54.097 Z1.3
G1 F600 Z0.3
G1 F1500 E76.07353
G1 F2700 X0.00 Y-43.856 E76.58446
G1 F1500 E70.08446
G1 F600 Z1.3
G0 F3600 X-1.483 Y-45.339 Z1.3
G1 F600 Z0.3
G1 F1500 E76.91706
G1 F2700 X1.874 Y-45.339 E77.08454
G1 F1500 E70.58454
G1 F600 Z1.3
;MESH:Duplo_Eisenbahn_adapter.3mf(2)
G0 F3600 X-4.153 Y-45.806 Z1.3
;TYPE:WALL-OUTER
G1 F600 Z0.3
G1 F1500 E77.41714
G1 F2700 X0.196 Y-41.457 E77.72399
G1 X4.545 Y-45.806 E78.03083
G1 X3.652 Y-46.698 E78.0938
G1 X4.077 Y-47.123 E78.12379
G1 X4.969 Y-46.23 E78.18676
G1 X15.858 Y-57.12 E78.95507
G1 X14.965 Y-58.012 E79.01804
G1 X15.39 Y-58.437 E79.04803
G1 X16.282 Y-57.544 E79.111
G1 X20.631 Y-61.893 E79.41784
G1 X16.282 Y-66.242 E79.72469
G1 X15.391 Y-65.35 E79.78759
G1 X14.965 Y-65.774 E79.81758
G1 X15.858 Y-66.666 E79.88055
G1 X4.969 Y-77.555 E80.64883
G1 X4.077 Y-76.662 E80.7118
G1 X3.652 Y-77.087 E80.74178
G1 X4.545 Y-77.979 E80.80475
G1 X0.196 Y-82.328 E81.1116
G1 X-4.153 Y-77.979 E81.41844
G1 X-3.261 Y-77.088 E81.48134
G1 X-3.685 Y-76.662 E81.51133
G1 X-4.577 Y-77.555 E81.5743
G1 X-15.467 Y-66.666 E82.34261
G1 X-14.574 Y-65.774 E82.40558
G1 X-14.999 Y-65.349 E82.43557
G1 X-15.891 Y-66.242 E82.49854
G1 X-20.24 Y-61.893 E82.80539
G1 X-15.891 Y-57.544 E83.11223
G1 X-14.999 Y-58.437 E83.1752
G1 X-14.574 Y-58.012 E83.20519
G1 X-15.467 Y-57.12 E83.26816
G1 X-4.577 Y-46.23 E84.03651
G1 X-3.685 Y-47.123 E84.09948
G1 X-3.26 Y-46.698 E84.12946
G1 X-4.153 Y-45.806 E84.19243
G0 F3600 X-4.012 Y-45.665
G0 X-4.25 Y-45.789
G0 X0.196 Y-41.134
G0 X23.61 Y-61.223
G0 X23.992 Y-61.223
G1 F2700 X0.866 Y-38.096 E85.82413
G1 X-23.024 Y-61.987 E87.50974
G1 X-23.088 Y-62.062 E87.51466
G1 X0.026 Y-85.177 E89.14551
G1 X0.101 Y-85.116 E89.15033
G1 X23.992 Y-61.223 E90.83604
G0 F3600 X23.851 Y-61.082
G0 X23.426 Y-61.223
;TYPE:WALL-INNER
G1 F2700 X0.866 Y-38.662 E92.42781
G1 X-22.528 Y-62.057 E94.07842
G1 X0.033 Y-84.618 E95.67022
G1 X23.426 Y-61.223 E97.32079
G0 F3600 X0.196 Y-41.134
G0 X-20.806 Y-61.893
G1 F2700 X0.196 Y-40.891 E98.80259
G1 X21.197 Y-61.893 E100.28436
G1 X0.196 Y-82.894 E101.7661
G1 X-20.806 Y-61.893 E103.24787
G0 F3600 X-21.372 Y-61.893
G1 F2700 X0.196 Y-40.325 E104.76961
G1 X21.763 Y-61.893 E106.29131
G1 X0.196 Y-83.46 E107.81298
G1 X-21.372 Y-61.893 E109.33468
G0 F3600 X0.196 Y-41.134
G0 X22.86 Y-61.223
G1 F2700 X0.866 Y-39.228 E110.88651
G1 X-0.017 Y-40.111 E110.94881
G1 X-21.585 Y-61.679 E112.09392
G1 X-21.962 Y-62.057 E112.12056
G1 X0.033 Y-84.052 E113.67242
G1 X0.41 Y-83.675 E113.69902
G1 X21.976 Y-62.107 E114.84789
G1 X22.86 Y-61.223 E114.91026
G0 F3600 X22.31 Y-61.223
;TYPE:SKIN
G1 F2700 X0.866 Y-39.778 E116.42329
