;FLAVOR:Marlin
;TIME:1044
;Filament used: 2.66981m
;Layer height: 0.3
;MINX:-95.338
;MINY:-95.306
;MINZ:0.4
;MAXX:95.338
;MAXY:95.35
;MAXZ:10
;TARGET_MACHINE.NAME:Unknown
;Generated with Cura_SteamEngine 5.11.0
M140 S50
M105
M190 S50
M104 S220
M105
M109 S220
;FLAVOR:Marlin
M82 ;absolute extrusion mode
G21
G90
M82
M107 T0
G28
G92 E0
G0 E3 F200
G92 E0 ; reset extrusion distance
M106 S255 ; Enable cooling fan full speed
G1 X-98 Y0 Z0.4 F3000 ; move to arc start
G3 X0 Y-98 I98 Z0.4 E40 F400 ; lay arc stripe 90deg
G92 E0 ; reset extrusion distance
G4 P500 ; wait for 0.5 sec
G0 Z10 E-1 ; Lift 15mm and retract 1mm filament
G4 P2000 ; wait for 5 sec
G0 Z15
M107 ; Disable cooling fan
G1 X0 Y-85 Z4 E0 F3000 ; get off the bed
M82 ;absolute extrusion mode
G92 E0
G92 E0
G1 F1500 E-6.5
;LAYER_COUNT:33
;LAYER:0
M107
G1 F600 Z1.4
G0 F3600 X0.00 Y0.00 Z1.4
G0 X64.601 Y58.104
;TYPE:SKIRT
G1 F600 Z0.4
G1 F1500 E0
G1 F1800 X67.97 Y54.129 E0.59791
G1 X71.011 Y50.08 E1.17897
G1 X73.997 Y45.556 E1.80096
G1 X76.483 Y41.254 E2.3711
G1 X78.825 Y36.566 E2.97243
G1 X80.916 Y31.677 E3.58259
G1 X82.639 Y26.854 E4.17027
G1 X84.091 Y21.877 E4.76518
G1 X85.256 Y16.778 E5.36535
G1 X86.096 Y11.715 E5.95426
G1 X86.673 Y6.267 E6.5829
G1 X86.889 Y1.289 E7.15465
G1 X86.804 Y-4 E7.76163
G1 X86.446 Y-8.855 E8.32024
G1 X85.712 Y-14.263 E8.94648
G1 X84.706 Y-19.349 E9.5414
G1 X83.405 Y-24.362 E10.13568
G1 X81.805 Y-29.286 E10.72978
G1 X79.809 Y-34.38 E11.35757
G1 X77.76 Y-38.801 E11.91671
G1 X75.271 Y-43.417 E12.51848
G1 X72.577 Y-47.783 E13.10716
G1 X69.443 Y-52.232 E13.73162
G1 X66.272 Y-56.203 E14.31474
G1 X62.808 Y-60.059 E14.90952
G1 X59.139 Y-63.672 E15.50039
G1 X55.186 Y-67.119 E16.10222
G1 X51.128 Y-70.26 E16.69106
G1 X46.764 Y-73.235 E17.29711
G1 X42.271 Y-75.918 E17.89759
G1 X37.701 Y-78.296 E18.48873
G1 X33.04 Y-80.372 E19.07422
G1 X27.972 Y-82.271 E19.69525
G1 X23.184 Y-83.749 E20.27024
G1 X17.98 Y-85.016 E20.88483
G1 X13.083 Y-85.907 E21.45597
G1 X7.748 Y-86.546 E22.07253
G1 X2.594 Y-86.857 E22.66501
G1 X-2.594 Y-86.857 E23.26032
G1 X-7.748 Y-86.546 E23.85281
G1 X-13.083 Y-85.907 E24.46936
G1 X-17.98 Y-85.016 E25.0405
G1 X-23.184 Y-83.749 E25.65509
G1 X-27.972 Y-82.271 E26.23008
G1 X-33.04 Y-80.372 E26.85111
G1 X-37.701 Y-78.296 E27.4366
G1 X-42.271 Y-75.918 E28.02774
G1 X-46.764 Y-73.235 E28.62823
G1 X-51.128 Y-70.26 E29.23428
G1 X-55.186 Y-67.119 E29.82311
G1 X-59.139 Y-63.672 E30.42494
G1 X-62.808 Y-60.059 E31.01581
G1 X-66.272 Y-56.203 E31.6106
G1 X-69.443 Y-52.232 E32.19371
G1 X-72.577 Y-47.783 E32.81817
G1 X-75.271 Y-43.417 E33.40686
G1 X-77.76 Y-38.801 E34.00863
G1 X-79.809 Y-34.38 E34.56776
G1 X-81.805 Y-29.286 E35.19555
G1 X-83.405 Y-24.362 E35.78965
G1 X-84.706 Y-19.349 E36.38394
G1 X-85.712 Y-14.263 E36.97885
G1 X-86.446 Y-8.855 E37.60509
G1 X-86.804 Y-4 E38.1637
G1 X-86.889 Y1.289 E38.77068
G1 X-86.673 Y6.267 E39.34243
G1 X-86.096 Y11.715 E39.97107
G1 X-85.256 Y16.778 E40.55998
G1 X-84.091 Y21.877 E41.16016
G1 X-82.639 Y26.854 E41.75506
G1 X-80.916 Y31.677 E42.34274
G1 X-78.825 Y36.566 E42.9529
G1 X-76.483 Y41.254 E43.55423
G1 X-73.997 Y45.556 E44.12437
G1 X-71.011 Y50.08 E44.74637
G1 X-67.97 Y54.129 E45.32743
G1 X-64.601 Y58.104 E45.92533
G1 X-60.911 Y61.962 E46.53792
G1 X-57.173 Y65.436 E47.12348
G1 X-53.122 Y68.768 E47.72537
G1 X-49.037 Y71.74 E48.30504
G1 X-44.482 Y74.643 E48.92484
G1 X-40.096 Y77.089 E49.50109
G1 X-35.302 Y79.398 E50.11167
G1 X-30.566 Y81.344 E50.69921
G1 X-25.494 Y83.073 E51.31409
G1 X-20.703 Y84.394 E51.88436
G1 X-15.415 Y85.519 E52.50473
G1 X-10.552 Y86.248 E53.06898
G1 X-5.148 Y86.743 E53.69167
G1 X0.00 Y86.893 E54.28264
G1 X5.148 Y86.743 E54.87361
G1 X10.552 Y86.248 E55.4963
G1 X15.415 Y85.519 E56.06055
G1 X20.703 Y84.394 E56.68092
G1 X25.494 Y83.073 E57.25119
G1 X30.566 Y81.344 E57.86608
G1 X35.302 Y79.398 E58.45361
G1 X40.096 Y77.089 E59.06419
G1 X44.482 Y74.643 E59.64044
G1 X49.037 Y71.74 E60.26024
G1 X53.122 Y68.768 E60.83992
G1 X57.173 Y65.436 E61.4418
G1 X60.911 Y61.962 E62.02736
G1 X64.601 Y58.104 E62.63995
G0 F3600 X65.045 Y58.509
G1 F1800 X68.437 Y54.507 E63.24193
G1 X71.506 Y50.42 E63.8284
G1 X74.498 Y45.887 E64.45164
G1 X77.017 Y41.528 E65.02934
G1 X79.371 Y36.816 E65.63375
G1 X81.473 Y31.901 E66.24714
G1 X83.21 Y27.04 E66.83947
G1 X84.673 Y22.026 E67.43881
G1 X85.845 Y16.896 E68.04263
G1 X86.692 Y11.791 E68.63642
G1 X87.27 Y6.33 E69.26656
G1 X87.489 Y1.299 E69.8444
G1 X87.404 Y-4.019 E70.4547
G1 X87.041 Y-8.936 E71.02045
G1 X86.305 Y-14.362 E71.64877
G1 X85.292 Y-19.479 E72.24733
G1 X83.981 Y-24.534 E72.84657
G1 X82.371 Y-29.486 E73.44408
G1 X80.368 Y-34.599 E74.07419
G1 X78.293 Y-39.077 E74.64052
G1 X75.789 Y-43.721 E75.24593
G1 X73.075 Y-48.119 E75.83895
G1 X69.934 Y-52.578 E76.4648
G1 X66.731 Y-56.59 E77.05389
G1 X63.235 Y-60.481 E77.65412
G1 X59.556 Y-64.104 E78.24661
G1 X55.569 Y-67.581 E78.85364
G1 X51.471 Y-70.753 E79.44828
G1 X47.089 Y-73.74 E80.05682
G1 X42.568 Y-76.44 E80.66106
G1 X37.961 Y-78.837 E81.25698
G1 X33.261 Y-80.93 E81.84735
G1 X28.175 Y-82.836 E82.47059
G1 X23.338 Y-84.329 E83.05146
G1 X18.112 Y-85.602 E83.66866
G1 X13.163 Y-86.502 E84.24586
G1 X7.804 Y-87.144 E84.86519
G1 X2.613 Y-87.457 E85.46193
G1 X-2.613 Y-87.457 E86.0616
G1 X-7.804 Y-87.144 E86.65833
G1 X-13.163 Y-86.502 E87.27766
G1 X-18.112 Y-85.602 E87.85486
G1 X-23.338 Y-84.329 E88.47207
G1 X-28.175 Y-82.836 E89.05294
G1 X-33.261 Y-80.93 E89.67618
G1 X-37.961 Y-78.837 E90.26655
G1 X-42.568 Y-76.44 E90.86247
G1 X-47.089 Y-73.74 E91.46671
G1 X-51.471 Y-70.753 E92.07524
G1 X-55.569 Y-67.581 E92.66989
G1 X-59.556 Y-64.104 E93.27692
G1 X-63.235 Y-60.481 E93.86941
G1 X-66.731 Y-56.59 E94.46964
G1 X-69.934 Y-52.578 E95.05872
G1 X-73.075 Y-48.119 E95.68458
G1 X-75.789 Y-43.721 E96.2776
G1 X-78.293 Y-39.077 E96.88301
G1 X-80.368 Y-34.599 E97.44933
G1 X-82.371 Y-29.486 E98.07945
G1 X-83.981 Y-24.534 E98.67696
G1 X-85.292 Y-19.479 E99.2762
G1 X-86.305 Y-14.362 E99.87475
G1 X-87.041 Y-8.936 E100.50307
G1 X-87.404 Y-4.019 E101.06882
G1 X-87.489 Y1.299 E101.67913
G1 X-87.27 Y6.33 E102.25697
G1 X-86.692 Y11.791 E102.88711
G1 X-85.845 Y16.896 E103.4809
G1 X-84.673 Y22.026 E104.08472
G1 X-83.21 Y27.04 E104.68406
G1 X-81.473 Y31.901 E105.27639
G1 X-79.371 Y36.816 E105.88978
G1 X-77.017 Y41.528 E106.49419
G1 X-74.498 Y45.887 E107.07189
G1 X-71.506 Y50.42 E107.69513
G1 X-68.437 Y54.507 E108.2816
G1 X-65.045 Y58.509 E108.88358
G1 X-61.338 Y62.385 E109.49901
G1 X-57.574 Y65.883 E110.08863
G1 X-53.486 Y69.245 E110.69598
G1 X-49.369 Y72.24 E111.28017
G1 X-44.796 Y75.155 E111.90245
G1 X-40.367 Y77.625 E112.48436
G1 X-35.55 Y79.945 E113.09787
G1 X-30.774 Y81.907 E113.69034
G1 X-25.683 Y83.643 E114.30755
G1 X-20.834 Y84.98 E114.88472
G1 X-15.53 Y86.108 E115.50696
G1 X-10.609 Y86.846 E116.07794
G1 X-5.189 Y87.342 E116.70247
G1 X0.00 Y87.493 E117.29815
G1 X5.189 Y87.342 E117.89383
G1 X10.609 Y86.846 E118.51836
G1 X15.53 Y86.108 E119.08934
G1 X20.834 Y84.98 E119.71157
G1 X25.683 Y83.643 E120.28875
G1 X30.774 Y81.907 E120.90596
G1 X35.55 Y79.945 E121.49843
G1 X40.367 Y77.625 E122.11194
G1 X44.796 Y75.155 E122.69384
G1 X49.369 Y72.24 E123.31613
G1 X53.486 Y69.245 E123.90032
G1 X57.574 Y65.883 E124.50767
G1 X61.338 Y62.385 E125.09729
G1 X65.045 Y58.509 E125.71272
G0 F3600 X65.489 Y58.914
G1 F1800 X68.904 Y54.885 E126.31877
G1 X71.996 Y50.767 E126.90967
G1 X75.012 Y46.197 E127.53797
G1 X77.544 Y41.815 E128.1187
G1 X79.917 Y37.066 E128.72788
G1 X82.03 Y32.125 E129.34452
G1 X83.781 Y27.226 E129.94149
G1 X85.255 Y22.175 E130.54526
G1 X86.434 Y17.014 E131.15272
G1 X87.288 Y11.867 E131.7514
G1 X87.867 Y6.393 E132.38304
G1 X88.089 Y1.309 E132.96697
G1 X88.004 Y-4.038 E133.5806
G1 X87.636 Y-9.017 E134.15349
G1 X86.898 Y-14.458 E134.78354
G1 X85.878 Y-19.613 E135.38654
G1 X84.558 Y-24.701 E135.9897
G1 X82.936 Y-29.691 E136.59178
G1 X80.927 Y-34.818 E137.22364
G1 X78.826 Y-39.353 E137.79715
G1 X76.307 Y-44.025 E138.40621
G1 X73.573 Y-48.455 E139.00356
G1 X70.425 Y-52.924 E139.63082
G1 X67.19 Y-56.977 E140.22587
G1 X63.67 Y-60.894 E140.83016
G1 X59.964 Y-64.544 E141.42703
G1 X55.952 Y-68.043 E142.03788
G1 X51.814 Y-71.246 E142.63833
G1 X47.414 Y-74.245 E143.24935
G1 X42.865 Y-76.962 E143.85735
G1 X38.221 Y-79.378 E144.45804
G1 X33.482 Y-81.488 E145.05329
G1 X28.378 Y-83.401 E145.67875
G1 X23.492 Y-84.909 E146.2655
G1 X18.244 Y-86.187 E146.88529
G1 X13.243 Y-87.097 E147.46857
G1 X7.86 Y-87.742 E148.09067
G1 X2.632 Y-88.057 E148.69166
G1 X-2.632 Y-88.057 E149.29569
G1 X-7.86 Y-87.742 E149.89668
G1 X-13.243 Y-87.097 E150.51878
G1 X-18.244 Y-86.187 E151.10206
G1 X-23.492 Y-84.909 E151.72185
G1 X-28.378 Y-83.401 E152.3086
G1 X-33.482 Y-81.488 E152.93406
G1 X-38.221 Y-79.378 E153.52931
G1 X-42.865 Y-76.962 E154.13
G1 X-47.414 Y-74.245 E154.738
G1 X-51.814 Y-71.246 E155.34902
G1 X-55.952 Y-68.043 E155.94947
G1 X-59.964 Y-64.544 E156.56032
G1 X-63.67 Y-60.894 E157.1572
G1 X-67.19 Y-56.977 E157.76148
G1 X-70.425 Y-52.924 E158.35653
G1 X-73.573 Y-48.455 E158.98379
G1 X-76.307 Y-44.025 E159.58114
G1 X-78.826 Y-39.353 E160.1902
G1 X-80.927 Y-34.818 E160.76371
G1 X-82.936 Y-29.691 E161.39557
G1 X-84.558 Y-24.701 E161.99765
G1 X-85.878 Y-19.613 E162.60082
G1 X-86.898 Y-14.458 E163.20381
G1 X-87.636 Y-9.017 E163.83387
G1 X-88.004 Y-4.038 E164.40675
G1 X-88.089 Y1.309 E165.02038
G1 X-87.867 Y6.393 E165.60432
G1 X-87.288 Y11.867 E166.23595
G1 X-86.434 Y17.014 E166.83463
G1 X-85.255 Y22.175 E167.4421
G1 X-83.781 Y27.226 E168.04586
G1 X-82.03 Y32.125 E168.64284
G1 X-79.917 Y37.066 E169.25947
G1 X-77.544 Y41.815 E169.86865
G1 X-75.012 Y46.197 E170.44938
G1 X-71.996 Y50.767 E171.07768
G1 X-68.904 Y54.885 E171.66858
G1 X-65.489 Y58.914 E172.27463
G1 X-61.765 Y62.808 E172.8929
G1 X-57.975 Y66.33 E173.48658
G1 X-53.85 Y69.722 E174.0994
G1 X-49.701 Y72.74 E174.68811
G1 X-45.11 Y75.667 E175.31288
G1 X-40.638 Y78.161 E175.90043
G1 X-35.798 Y80.492 E176.51687
G1 X-30.982 Y82.47 E177.11428
G1 X-25.872 Y84.213 E177.73382
G1 X-20.965 Y85.566 E178.31789
G1 X-15.645 Y86.697 E178.94199
G1 X-10.666 Y87.444 E179.51971
G1 X-5.23 Y87.941 E180.14608
G1 X0.00 Y88.093 E180.74647
G1 X5.23 Y87.941 E181.34685
G1 X10.666 Y87.444 E181.97322
G1 X15.645 Y86.697 E182.55094
G1 X20.965 Y85.566 E183.17504
G1 X25.872 Y84.213 E183.75912
G1 X30.982 Y82.47 E184.37865
G1 X35.798 Y80.492 E184.97607
G1 X40.638 Y78.161 E185.5925
G1 X45.11 Y75.667 E186.18005
G1 X49.701 Y72.74 E186.80482
G1 X53.85 Y69.722 E187.39354
G1 X57.975 Y66.33 E188.00635
G1 X61.765 Y62.808 E188.60003
G1 X65.489 Y58.914 E189.2183
G0 F3600 X65.933 Y59.319
G1 F1800 X69.371 Y55.263 E189.82842
G1 X72.486 Y51.114 E190.42375
G1 X75.518 Y46.519 E191.05546
G1 X78.078 Y42.089 E191.64256
G1 X80.463 Y37.316 E192.25482
G1 X82.587 Y32.349 E192.8747
G1 X84.352 Y27.412 E193.47632
G1 X85.837 Y22.324 E194.08451
G1 X87.023 Y17.132 E194.69563
G1 X87.884 Y11.943 E195.29919
G1 X88.464 Y6.456 E195.93232
G1 X88.689 Y1.318 E196.52246
G1 X88.604 Y-4.057 E197.1393
G1 X88.231 Y-9.098 E197.71933
G1 X87.491 Y-14.554 E198.35112
G1 X86.464 Y-19.747 E198.95854
G1 X85.135 Y-24.868 E199.56563
G1 X83.501 Y-29.896 E200.17228
G1 X81.486 Y-35.037 E200.8059
G1 X79.359 Y-39.629 E201.3866
G1 X76.825 Y-44.329 E201.9993
G1 X74.071 Y-48.791 E202.60098
G1 X70.916 Y-53.27 E203.22964
G1 X67.649 Y-57.364 E203.83065
G1 X64.105 Y-61.307 E204.439
G1 X60.372 Y-64.984 E205.04026
G1 X56.335 Y-68.505 E205.65493
G1 X52.157 Y-71.739 E206.26119
G1 X47.739 Y-74.75 E206.87468
G1 X43.162 Y-77.484 E207.48645
G1 X38.481 Y-79.919 E208.09191
G1 X33.703 Y-82.046 E208.69204
G1 X28.581 Y-83.966 E209.31971
G1 X23.646 Y-85.489 E209.91235
G1 X18.376 Y-86.773 E210.53476
G1 X13.323 Y-87.692 E211.12409
G1 X7.916 Y-88.34 E211.74897
G1 X2.651 Y-88.657 E212.35421
G1 X-2.651 Y-88.657 E212.9626
G1 X-7.916 Y-88.34 E213.56784
G1 X-13.323 Y-87.692 E214.19272
G1 X-18.376 Y-86.773 E214.78205
G1 X-23.646 Y-85.489 E215.40445
G1 X-28.581 Y-83.966 E215.99709
G1 X-33.703 Y-82.046 E216.62476
G1 X-38.481 Y-79.919 E217.22489
G1 X-43.162 Y-77.484 E217.83035
G1 X-47.739 Y-74.75 E218.44212
G1 X-52.157 Y-71.739 E219.05561
G1 X-56.335 Y-68.505 E219.66187
G1 X-60.372 Y-64.984 E220.27654
G1 X-64.105 Y-61.307 E220.8778
G1 X-67.649 Y-57.364 E221.48615
G1 X-70.916 Y-53.27 E222.08717
G1 X-74.071 Y-48.791 E222.71583
G1 X-76.825 Y-44.329 E223.3175
G1 X-79.359 Y-39.629 E223.9302
G1 X-81.486 Y-35.037 E224.51091
G1 X-83.501 Y-29.896 E225.14452
G1 X-85.135 Y-24.868 E225.75117
G1 X-86.464 Y-19.747 E226.35826
G1 X-87.491 Y-14.554 E226.96568
G1 X-88.231 Y-9.098 E227.59748
G1 X-88.604 Y-4.057 E228.1775
G1 X-88.689 Y1.318 E228.79434
G1 X-88.464 Y6.456 E229.38448
G1 X-87.884 Y11.943 E230.01761
G1 X-87.023 Y17.132 E230.62117
G1 X-85.837 Y22.324 E231.23229
G1 X-84.352 Y27.412 E231.84048
G1 X-82.587 Y32.349 E232.44211
G1 X-80.463 Y37.316 E233.06198
G1 X-78.078 Y42.089 E233.67424
G1 X-75.518 Y46.519 E234.26134
G1 X-72.486 Y51.114 E234.89305
G1 X-69.371 Y55.263 E235.48838
G1 X-65.933 Y59.319 E236.0985
G1 X-62.192 Y63.231 E236.71961
G1 X-58.376 Y66.777 E237.31735
G1 X-54.214 Y70.199 E237.93563
G1 X-50.033 Y73.24 E238.52887
G1 X-45.424 Y76.179 E239.15612
G1 X-40.909 Y78.697 E239.74932
G1 X-36.046 Y81.039 E240.36868
G1 X-31.19 Y83.033 E240.97104
G1 X-26.061 Y84.783 E241.5929
G1 X-21.096 Y86.152 E242.18388
G1 X-15.76 Y87.286 E242.80985
G1 X-10.723 Y88.042 E243.3943
G1 X-5.271 Y88.54 E244.02251
G1 X0.00 Y88.693 E244.6276
G1 X5.271 Y88.54 E245.23269
G1 X10.723 Y88.042 E245.8609
G1 X15.76 Y87.286 E246.44535
G1 X21.096 Y86.152 E247.07132
G1 X26.061 Y84.783 E247.6623
G1 X31.19 Y83.033 E248.28415
G1 X36.046 Y81.039 E248.88652
G1 X40.909 Y78.697 E249.50587
G1 X45.424 Y76.179 E250.09908
G1 X50.033 Y73.24 E250.72633
G1 X54.214 Y70.199 E251.31957
G1 X58.376 Y66.777 E251.93784
G1 X62.192 Y63.231 E252.53559
G1 X65.933 Y59.319 E253.1567
G0 F3600 X66.377 Y59.724
G1 F1800 X69.838 Y55.641 E253.77089
G1 X72.981 Y51.453 E254.37173
G1 X76.019 Y46.85 E255.00458
G1 X78.612 Y42.363 E255.59924
G1 X81.009 Y37.566 E256.21458
G1 X83.144 Y32.573 E256.83769
G1 X84.923 Y27.598 E257.44396
G1 X86.419 Y22.473 E258.05658
G1 X87.612 Y17.25 E258.67135
G1 X88.48 Y12.019 E259.2798
G1 X89.061 Y6.519 E259.91442
G1 X89.289 Y1.327 E260.51076
G1 X89.204 Y-4.076 E261.13082
G1 X88.826 Y-9.179 E261.71798
G1 X88.084 Y-14.65 E262.35151
G1 X87.05 Y-19.881 E262.96337
G1 X85.711 Y-25.04 E263.57497
G1 X84.067 Y-30.096 E264.18503
G1 X82.045 Y-35.256 E264.82096
G1 X79.892 Y-39.905 E265.40885
G1 X77.343 Y-44.633 E266.0252
G1 X74.569 Y-49.127 E266.63121
G1 X71.407 Y-53.616 E267.26127
G1 X68.108 Y-57.751 E267.86825
G1 X64.54 Y-61.72 E268.48066
G1 X60.78 Y-65.424 E269.0863
G1 X56.718 Y-68.967 E269.70479
G1 X52.5 Y-72.232 E270.31686
G1 X48.064 Y-75.255 E270.93284
G1 X43.459 Y-78.006 E271.54836
G1 X38.741 Y-80.46 E272.15859
G1 X33.924 Y-82.604 E272.76361
G1 X28.784 Y-84.531 E273.39349
G1 X23.8 Y-86.069 E273.99201
G1 X18.508 Y-87.359 E274.61703
G1 X13.403 Y-88.287 E275.21242
G1 X7.972 Y-88.938 E275.84007
G1 X2.67 Y-89.257 E276.44956
G1 X-2.67 Y-89.257 E277.06231
G1 X-7.972 Y-88.938 E277.67181
G1 X-13.403 Y-88.287 E278.29946
G1 X-18.508 Y-87.359 E278.89485
G1 X-23.8 Y-86.069 E279.51987
G1 X-28.784 Y-84.531 E280.11838
G1 X-33.924 Y-82.604 E280.74827
G1 X-38.741 Y-80.46 E281.35329
G1 X-43.459 Y-78.006 E281.96352
G1 X-48.064 Y-75.255 E282.57904
G1 X-52.5 Y-72.232 E283.19502
G1 X-56.718 Y-68.967 E283.80709
G1 X-60.78 Y-65.424 E284.42558
G1 X-64.54 Y-61.72 E285.03122
G1 X-68.108 Y-57.751 E285.64362
G1 X-71.407 Y-53.616 E286.25061
G1 X-74.569 Y-49.127 E286.88067
G1 X-77.343 Y-44.633 E287.48668
G1 X-79.892 Y-39.905 E288.10303
G1 X-82.045 Y-35.256 E288.69092
