;FLAVOR:Marlin
;TIME:6264
;Filament used: 2.723m
;Layer height: 0.1
;MINX:-41.58
;MINY:-54.9
;MINZ:0.3
;MAXX:50.353
;MAXY:59.391
;MAXZ:23
;Generated with Cura_SteamEngine 4.13.1
M140 S50
M105
M190 S50
M104 S210
M105
M109 S210
M82 ;absolute extrusion mode
;FLAVOR:Marlin
M82 ;absolute extrusion mode
G21
G90
M82
M107 T0
G28
G92 E0
G0 E3 F200
G92 E0 ; reset extrusion distance
M106 S255 ; Enable cooling fan full speed
G1 X-98 Y0 Z0.4 F3000 ; move to arc start
G3 X0 Y-98 I98 Z0.4 E40 F400 ; lay arc stripe 90deg
G92 E0 ; reset extrusion distance
G4 P500 ; wait for 0.5 sec
G0 Z10 E-1 ; Lift 15mm and retract 1mm filament
G4 P2000 ; wait for 5 sec
G0 Z15
M107 ; Disable cooling fan
G1 X0 Y-85 Z4 E0 F3000 ; get off the bed
G92 E0
G92 E0
G1 F1500 E-6.5
;LAYER_COUNT:178
;LAYER:0
M106 S25.5
G1 F600 Z1.3
G0 F3600 X-21.991 Y38.118 Z1.3
;TYPE:SKIRT
G1 F600 Z0.3
G1 F1500 E0.3326
G1 F1200 X-21.313 Y38.619 E0.37466
G1 X-20.777 Y39.161 E0.41269
G1 X-20.282 Y39.839 E0.45457
G1 X-19.881 Y40.708 E0.50232
G1 X-19.747 Y41.107 E0.52332
G1 X-19.667 Y41.514 E0.54401
G1 X-19.603 Y42.025 E0.5697
G1 X-19.58 Y42.398 E0.58835
G1 X-19.582 Y54.426 E1.18843
G1 X-19.676 Y55.315 E1.23303
G1 X-19.728 Y55.594 E1.24719
G1 X-19.881 Y56.075 E1.27237
G1 X-20.274 Y56.934 E1.3195
G1 X-20.475 Y57.229 E1.33731
G1 X-20.788 Y57.635 E1.36288
G1 X-21.12 Y57.999 E1.38746
G1 X-21.767 Y58.513 E1.42869
G1 X-22.154 Y58.762 E1.45165
G1 X-22.462 Y58.909 E1.46867
G1 X-22.928 Y59.1 E1.4938
G1 X-23.299 Y59.224 E1.51331
G1 X-23.728 Y59.308 E1.53512
G1 X-24.233 Y59.369 E1.5605
G1 X-24.593 Y59.391 E1.57849
G1 X-36.59 Y59.391 E2.17703
G1 X-36.982 Y59.365 E2.19663
G1 X-37.483 Y59.299 E2.22184
G1 X-37.843 Y59.229 E2.24014
G1 X-38.282 Y59.083 E2.26322
G1 X-38.746 Y58.887 E2.28835
G1 X-39.432 Y58.486 E2.32799
G1 X-40.171 Y57.87 E2.37599
G1 X-40.699 Y57.208 E2.41823
G1 X-40.949 Y56.821 E2.44122
G1 X-41.095 Y56.516 E2.45809
G1 X-41.287 Y56.049 E2.48328
G1 X-41.412 Y55.675 E2.50295
G1 X-41.495 Y55.255 E2.52431
G1 X-41.557 Y54.755 E2.54945
G1 X-41.58 Y54.386 E2.56789
G1 X-41.578 Y42.375 E3.16712
G1 X-41.491 Y41.502 E3.21089
G1 X-41.419 Y41.132 E3.2297
G1 X-41.273 Y40.693 E3.25278
G1 X-41.077 Y40.229 E3.27791
G1 X-40.912 Y39.897 E3.29641
G1 X-40.377 Y39.154 E3.34209
G1 X-39.811 Y38.588 E3.38202
G1 X-39.131 Y38.092 E3.42401
G1 X-38.262 Y37.692 E3.47174
G1 X-37.818 Y37.548 E3.49503
G1 X-37.47 Y37.482 E3.5127
G1 X-36.953 Y37.416 E3.5387
G1 X-36.573 Y37.392 E3.5577
G1 X-24.562 Y37.394 E4.15693
G1 X-23.677 Y37.485 E4.20131
G1 X-23.29 Y37.562 E4.221
G1 X-22.834 Y37.721 E4.24509
G1 X-22.33 Y37.943 E4.27257
G1 X-21.991 Y38.118 E4.2916
G0 F3600 X-22.491 Y38.309
G1 F1200 X-21.906 Y38.66 E4.32564
G1 X-21.333 Y39.136 E4.3628
G1 X-20.792 Y39.798 E4.40545
G1 X-20.442 Y40.403 E4.44032
G1 X-20.14 Y41.185 E4.48215
G1 X-20.064 Y41.564 E4.50143
G1 X-20 Y42.075 E4.52712
G1 X-19.98 Y42.398 E4.54327
G1 X-19.982 Y54.426 E5.14335
G1 X-20.072 Y55.26 E5.1852
G1 X-20.25 Y55.922 E5.2194
G1 X-20.616 Y56.726 E5.26347
G1 X-20.792 Y56.984 E5.27905
G1 X-21.105 Y57.39 E5.30463
G1 X-21.612 Y57.893 E5.34026
G1 X-22.327 Y58.4 E5.38399
G1 X-22.614 Y58.539 E5.3999
G1 X-23.08 Y58.73 E5.42503
G1 X-23.776 Y58.911 E5.4609
G1 X-24.281 Y58.972 E5.48628
G1 X-24.593 Y58.991 E5.50188
G1 X-36.59 Y58.991 E6.10041
G1 X-36.93 Y58.969 E6.11741
G1 X-37.431 Y58.903 E6.14262
G1 X-38.127 Y58.714 E6.1786
G1 X-38.591 Y58.518 E6.20373
G1 X-39.187 Y58.169 E6.23819
G1 X-39.88 Y57.595 E6.28308
G1 X-40.381 Y56.966 E6.3232
G1 X-40.725 Y56.364 E6.35779
G1 X-40.917 Y55.897 E6.38298
G1 X-41.098 Y55.206 E6.41862
G1 X-41.16 Y54.706 E6.44375
G1 X-41.18 Y54.386 E6.45975
G1 X-41.178 Y42.375 E7.05898
G1 X-41.094 Y41.553 E7.1002
G1 X-40.904 Y40.848 E7.13663
G1 X-40.708 Y40.384 E7.16176
G1 X-40.358 Y39.784 E7.19642
G1 X-39.889 Y39.199 E7.23382
G1 X-39.171 Y38.602 E7.28041
G1 X-38.563 Y38.25 E7.31546
G1 X-37.745 Y37.942 E7.35907
G1 X-37.419 Y37.879 E7.37563
G1 X-36.902 Y37.813 E7.40163
G1 X-36.573 Y37.792 E7.41808
G1 X-24.562 Y37.794 E8.01731
G1 X-23.729 Y37.881 E8.0591
G1 X-23.39 Y37.949 E8.07635
G1 X-22.995 Y38.087 E8.09722
G1 X-22.491 Y38.309 E8.1247
G0 F3600 X-22.652 Y38.675
G1 F1200 X-22.154 Y38.974 E8.15368
G1 X-21.615 Y39.418 E8.18852
G1 X-21.11 Y40.041 E8.22853
G1 X-20.811 Y40.557 E8.25828
G1 X-20.527 Y41.289 E8.29745
G1 X-20.461 Y41.614 E8.314
G1 X-20.397 Y42.125 E8.33969
G1 X-20.38 Y42.398 E8.35334
G1 X-20.382 Y54.426 E8.95342
G1 X-20.468 Y55.206 E8.99257
G1 X-20.62 Y55.77 E9.02171
G1 X-20.958 Y56.518 E9.06266
G1 X-21.109 Y56.74 E9.07605
G1 X-21.422 Y57.146 E9.10163
G1 X-21.854 Y57.574 E9.13197
G1 X-22.52 Y58.05 E9.17281
G1 X-22.766 Y58.169 E9.18644
G1 X-23.232 Y58.36 E9.21157
G1 X-23.824 Y58.514 E9.24209
G1 X-24.329 Y58.575 E9.26747
G1 X-24.593 Y58.591 E9.28066
G1 X-36.59 Y58.591 E9.87919
G1 X-36.877 Y58.572 E9.89354
G1 X-37.378 Y58.506 E9.91875
G1 X-37.971 Y58.346 E9.9494
G1 X-38.435 Y58.15 E9.97453
G1 X-38.943 Y57.853 E10.00388
G1 X-39.59 Y57.32 E10.04571
G1 X-40.062 Y56.724 E10.08364
G1 X-40.355 Y56.212 E10.11307
G1 X-40.547 Y55.745 E10.13826
G1 X-40.701 Y55.157 E10.16858
G1 X-40.763 Y54.657 E10.19372
G1 X-40.78 Y54.386 E10.20727
G1 X-40.778 Y42.375 E10.8065
G1 X-40.697 Y41.604 E10.84517
G1 X-40.536 Y41.004 E10.87617
G1 X-40.34 Y40.54 E10.9013
G1 X-40.041 Y40.029 E10.93083
G1 X-39.599 Y39.474 E10.96623
G1 X-38.928 Y38.919 E11.00967
G1 X-38.41 Y38.619 E11.03954
G1 X-37.648 Y38.33 E11.0802
G1 X-37.369 Y38.276 E11.09438
G1 X-36.852 Y38.21 E11.12038
G1 X-36.573 Y38.192 E11.13433
G1 X-24.562 Y38.194 E11.73356
G1 X-23.782 Y38.278 E11.7727
G1 X-23.156 Y38.453 E11.80513
G1 X-22.652 Y38.675 E11.8326
G0 F3600 X-22.813 Y39.041
G1 F1200 X-22.402 Y39.288 E11.85652
G1 X-21.898 Y39.701 E11.88903
G1 X-21.427 Y40.285 E11.92646
G1 X-21.18 Y40.71 E11.95099
G1 X-20.913 Y41.393 E11.98757
G1 X-20.858 Y41.663 E12.00132
G1 X-20.794 Y42.174 E12.02701
G1 X-20.78 Y42.398 E12.03821
G1 X-20.782 Y54.426 E12.63829
G1 X-20.865 Y55.152 E12.67475
G1 X-20.99 Y55.617 E12.69877
G1 X-21.299 Y56.31 E12.73662
G1 X-21.425 Y56.496 E12.74783
G1 X-21.738 Y56.902 E12.77341
G1 X-22.095 Y57.255 E12.79846
G1 X-22.713 Y57.699 E12.83642
G1 X-22.917 Y57.799 E12.84776
G1 X-23.383 Y57.99 E12.87288
G1 X-23.872 Y58.117 E12.89809
G1 X-24.377 Y58.178 E12.92346
G1 X-24.593 Y58.191 E12.93426
G1 X-36.59 Y58.191 E13.53279
G1 X-36.825 Y58.176 E13.54454
G1 X-37.326 Y58.11 E13.56975
G1 X-37.815 Y57.977 E13.59503
G1 X-38.279 Y57.781 E13.62016
G1 X-38.699 Y57.536 E13.64442
G1 X-39.3 Y57.045 E13.68314
G1 X-39.743 Y56.483 E13.71884
G1 X-39.985 Y56.059 E13.7432
G1 X-40.177 Y55.592 E13.76839
G1 X-40.304 Y55.108 E13.79335
G1 X-40.366 Y54.608 E13.81849
G1 X-40.38 Y54.386 E13.82959
G1 X-40.378 Y42.375 E14.42882
G1 X-40.3 Y41.655 E14.46495
G1 X-40.167 Y41.16 E14.49052
G1 X-39.971 Y40.696 E14.51565
G1 X-39.725 Y40.273 E14.54006
G1 X-39.309 Y39.749 E14.57344
G1 X-38.684 Y39.236 E14.61378
G1 X-38.257 Y38.989 E14.63839
G1 X-37.551 Y38.718 E14.67612
G1 X-37.318 Y38.672 E14.68797
G1 X-36.801 Y38.606 E14.71397
G1 X-36.573 Y38.592 E14.72537
G1 X-24.562 Y38.594 E15.3246
G1 X-23.834 Y38.675 E15.36115
G1 X-23.317 Y38.819 E15.38792
G1 X-22.813 Y39.041 E15.4154
G0 F3600 X-22.975 Y39.407
G1 F1200 X-22.65 Y39.602 E15.43431
G1 X-22.181 Y39.984 E15.46448
G1 X-21.744 Y40.529 E15.49934
G1 X-21.549 Y40.864 E15.51867
G1 X-21.299 Y41.497 E15.55263
G1 X-21.255 Y41.713 E15.56363
G1 X-21.191 Y42.224 E15.58932
G1 X-21.18 Y42.398 E15.59802
G1 X-21.182 Y54.426 E16.1981
G1 X-21.261 Y55.097 E16.2318
G1 X-21.359 Y55.464 E16.25075
G1 X-21.641 Y56.102 E16.28556
G1 X-21.742 Y56.252 E16.29458
G1 X-22.055 Y56.658 E16.32015
G1 X-22.337 Y56.937 E16.33994
G1 X-22.905 Y57.349 E16.37495
G1 X-23.069 Y57.428 E16.38403
G1 X-23.535 Y57.619 E16.40916
G1 X-23.92 Y57.72 E16.42902
G1 X-24.425 Y57.781 E16.45439
G1 X-24.593 Y57.791 E16.46279
G1 X-36.59 Y57.791 E17.06132
G1 X-36.773 Y57.779 E17.07047
G1 X-37.274 Y57.713 E17.09568
G1 X-37.66 Y57.609 E17.11563
G1 X-38.124 Y57.413 E17.14076
G1 X-38.454 Y57.219 E17.15986
G1 X-39.009 Y56.77 E17.19547
G1 X-39.425 Y56.241 E17.22905
G1 X-39.615 Y55.907 E17.24822
G1 X-39.807 Y55.44 E17.27341
G1 X-39.907 Y55.058 E17.29311
G1 X-39.969 Y54.558 E17.31825
G1 X-39.98 Y54.386 E17.32684
G1 X-39.978 Y42.375 E17.92608
G1 X-39.904 Y41.706 E17.95966
G1 X-39.799 Y41.315 E17.97985
G1 X-39.603 Y40.851 E18.00498
G1 X-39.408 Y40.517 E18.02428
G1 X-39.018 Y40.024 E18.05564
G1 X-38.441 Y39.553 E18.0928
G1 X-38.104 Y39.359 E18.1122
G1 X-37.454 Y39.106 E18.147
G1 X-37.267 Y39.069 E18.15651
G1 X-36.75 Y39.003 E18.18251
G1 X-36.573 Y38.992 E18.19136
G1 X-24.562 Y38.994 E18.79059
G1 X-23.887 Y39.071 E18.82448
G1 X-23.479 Y39.185 E18.84562
G1 X-22.975 Y39.407 E18.87309
G0 F3600 X-23.136 Y39.773
G1 F1200 X-22.898 Y39.916 E18.88695
G1 X-22.464 Y40.267 E18.91479
G1 X-22.061 Y40.773 E18.94707
G1 X-21.919 Y41.018 E18.96119
G1 X-21.685 Y41.601 E18.99254
G1 X-21.652 Y41.763 E19.00078
G1 X-21.588 Y42.274 E19.02648
G1 X-21.58 Y42.398 E19.03268
G1 X-21.582 Y54.426 E19.63276
G1 X-21.657 Y55.043 E19.66376
G1 X-21.729 Y55.311 E19.67761
G1 X-21.983 Y55.894 E19.70934
G1 X-22.059 Y56.008 E19.71617
G1 X-22.372 Y56.414 E19.74175
G1 X-22.579 Y56.618 E19.75625
G1 X-23.098 Y56.998 E19.78834
G1 X-23.221 Y57.058 E19.79517
G1 X-23.687 Y57.249 E19.82029
G1 X-23.968 Y57.323 E19.83479
G1 X-24.473 Y57.384 E19.86017
G1 X-24.593 Y57.391 E19.86616
G1 X-36.59 Y57.391 E20.4647
G1 X-36.721 Y57.382 E20.47125
G1 X-37.222 Y57.316 E20.49646
G1 X-37.504 Y57.24 E20.51103
G1 X-37.968 Y57.044 E20.53616
G1 X-38.21 Y56.903 E20.55013
G1 X-38.719 Y56.495 E20.58268
G1 X-39.106 Y55.999 E20.61406
G1 X-39.245 Y55.755 E20.62807
G1 X-39.437 Y55.288 E20.65327
G1 X-39.51 Y55.009 E20.66765
G1 X-39.572 Y54.509 E20.69279
G1 X-39.58 Y54.386 E20.69894
G1 X-39.578 Y42.375 E21.29817
G1 X-39.507 Y41.757 E21.32921
G1 X-39.43 Y41.471 E21.34398
G1 X-39.234 Y41.007 E21.36911
G1 X-39.092 Y40.762 E21.38324
G1 X-38.728 Y40.299 E21.41262
G1 X-38.197 Y39.871 E21.44665
G1 X-37.951 Y39.728 E21.46084
G1 X-37.357 Y39.494 E21.4927
G1 X-37.217 Y39.466 E21.49982
G1 X-36.7 Y39.4 E21.52582
G1 X-36.573 Y39.392 E21.53217
G1 X-24.562 Y39.394 E22.1314
G1 X-23.939 Y39.468 E22.1627
G1 X-23.64 Y39.551 E22.17818
G1 X-23.136 Y39.773 E22.20566
G0 F3600 X-23.297 Y40.139
G1 F1200 X-22.799 Y40.503 E22.23643
G1 X-22.378 Y41.016 E22.26954
G1 X-22.097 Y41.63 E22.30323
G1 X-22.049 Y41.812 E22.31262
G1 X-21.985 Y42.323 E22.33831
G1 X-21.98 Y42.398 E22.34206
G1 X-21.982 Y54.426 E22.94214
G1 X-22.054 Y54.989 E22.97046
G1 X-22.283 Y55.603 E23.00315
G1 X-22.376 Y55.763 E23.01239
G1 X-22.689 Y56.169 E23.03796
G1 X-23.217 Y56.6 E23.07197
G1 X-23.372 Y56.688 E23.08086
G1 X-23.838 Y56.879 E23.10598
G1 X-24.016 Y56.926 E23.11517
G1 X-24.521 Y56.987 E23.14055
G1 X-24.593 Y56.991 E23.14414
G1 X-36.59 Y56.991 E23.74268
G1 X-36.668 Y56.986 E23.74658
G1 X-37.169 Y56.92 E23.77179
G1 X-37.348 Y56.872 E23.78103
G1 X-37.812 Y56.676 E23.80616
G1 X-38.36 Y56.282 E23.83984
G1 X-38.787 Y55.758 E23.87356
G1 X-38.875 Y55.603 E23.88245
G1 X-39.067 Y55.136 E23.90764
G1 X-39.113 Y54.96 E23.91672
G1 X-39.175 Y54.46 E23.94185
G1 X-39.18 Y54.386 E23.94555
G1 X-39.178 Y42.375 E24.54479
G1 X-39.11 Y41.808 E24.57328
G1 X-39.062 Y41.627 E24.58262
G1 X-38.866 Y41.163 E24.60775
G1 X-38.477 Y40.62 E24.64107
G1 X-37.953 Y40.188 E24.67495
G1 X-37.344 Y39.91 E24.70835
G1 X-37.166 Y39.863 E24.71754
G1 X-36.649 Y39.797 E24.74354
G1 X-36.573 Y39.792 E24.74734
G1 X-24.562 Y39.794 E25.34657
G1 X-23.991 Y39.864 E25.37527
G1 X-23.801 Y39.917 E25.38511
G1 X-23.297 Y40.139 E25.41259
G0 F3600 X-23.458 Y40.505
G1 F1200 X-23.047 Y40.817 E25.43833
G1 X-22.695 Y41.26 E25.46656
G1 X-22.466 Y41.784 E25.49509
G1 X-22.446 Y41.862 E25.49911
G1 X-22.38 Y42.398 E25.52605
G1 X-22.382 Y54.426 E26.12613
G1 X-22.45 Y54.934 E26.1517
G1 X-22.652 Y55.45 E26.17935
G1 X-22.693 Y55.519 E26.18335
G1 X-23.006 Y55.925 E26.20893
G1 X-23.459 Y56.281 E26.23767
G1 X-23.524 Y56.318 E26.2414
G1 X-24.013 Y56.517 E26.26774
G1 X-24.064 Y56.529 E26.27036
G1 X-24.569 Y56.59 E26.29573
G1 X-36.59 Y56.591 E26.89546
G1 X-37.117 Y56.523 E26.92197
G1 X-37.193 Y56.503 E26.92589
G1 X-37.657 Y56.307 E26.95102
G1 X-38.115 Y55.965 E26.97954
G1 X-38.468 Y55.516 E27.00804
G1 X-38.505 Y55.451 E27.01177
G1 X-38.705 Y54.961 E27.03817
G1 X-38.716 Y54.911 E27.04073
G1 X-38.78 Y54.386 E27.06711
G1 X-38.778 Y42.375 E27.66634
G1 X-38.713 Y41.859 E27.69229
G1 X-38.693 Y41.782 E27.69626
G1 X-38.487 Y41.298 E27.7225
G1 X-38.16 Y40.865 E27.74957
G1 X-37.71 Y40.505 E27.77832
G1 X-37.191 Y40.279 E27.80656
G1 X-37.115 Y40.26 E27.81047
G1 X-36.573 Y40.192 E27.83773
G1 X-24.562 Y40.194 E28.43696
G1 X-24.044 Y40.261 E28.46302
G1 X-23.962 Y40.283 E28.46725
G1 X-23.458 Y40.505 E28.49473
G1 F1500 E21.99473
G1 F600 Z1.3
;MESH:T??rst??tze.3mf(2)
G0 F3600 X-24.127 Y56.133 Z1.3
;TYPE:WALL-OUTER
G1 F600 Z0.3
G1 F1500 E28.82733
G1 F1200 X-24.611 Y56.192 E28.85165
G1 X-36.583 Y56.191 E29.44894
G1 X-37.05 Y56.129 E29.47244
G1 X-37.488 Y55.944 E29.49616
G1 X-37.859 Y55.658 E29.51953
G1 X-38.141 Y55.286 E29.54282
G1 X-38.321 Y54.846 E29.56654
G1 X-38.38 Y54.379 E29.59002
G1 X-38.379 Y42.393 E30.18801
G1 X-38.318 Y41.924 E30.2116
G1 X-38.133 Y41.484 E30.23542
G1 X-37.851 Y41.118 E30.25847
G1 X-37.478 Y40.832 E30.28192
G1 X-37.05 Y40.655 E30.30503
G1 X-36.567 Y40.592 E30.32933
G1 X-24.581 Y40.593 E30.92731
G1 X-24.111 Y40.655 E30.95096
G1 X-23.63 Y40.867 E30.97719
G1 X-23.306 Y41.122 E30.99776
G1 X-23.022 Y41.492 E31.02103
G1 X-22.841 Y41.927 E31.04453
G1 X-22.78 Y42.405 E31.06857
G1 X-22.781 Y54.407 E31.66736
G1 X-22.844 Y54.866 E31.69047
G1 X-23.018 Y55.286 E31.71315
G1 X-23.315 Y55.671 E31.73741
G1 X-23.689 Y55.954 E31.76081
G1 X-24.127 Y56.133 E31.78442
G0 F3600 X-24.325 Y56.157
G0 X-24.377 Y55.72
G0 X-24.384 Y55.66
G0 X-31.236 Y51.488
G0 X-31.031 Y51.033
G1 F1200 X-30.516 Y51.091 E31.81027
G1 X-30.005 Y50.993 E31.83623
G1 X-29.55 Y50.745 E31.86208
G1 X-29.189 Y50.37 E31.88805
G1 X-28.959 Y49.905 E31.91393
G1 X-28.879 Y49.392 E31.93984
G1 X-28.959 Y48.879 E31.96574
G1 X-29.189 Y48.413 E31.99167
G1 X-29.55 Y48.039 E32.0176
G1 X-30.005 Y47.792 E32.04343
G1 X-30.511 Y47.693 E32.06915
G1 X-31.031 Y47.753 E32.09527
G1 X-31.502 Y47.963 E32.12099
G1 X-31.893 Y48.31 E32.14708
G1 X-32.158 Y48.757 E32.173
G1 X-32.276 Y49.263 E32.19892
G1 X-32.236 Y49.78 E32.22479
G1 X-32.042 Y50.261 E32.25067
G1 X-31.886 Y50.482 E32.26416
G1 X-31.505 Y50.819 E32.28954
G1 X-31.031 Y51.033 E32.31549
G0 F3600 X-30.833 Y51.055
G0 X-31.138 Y51.423
;TYPE:WALL-INNER
G1 F1200 X-30.5 Y51.495 E32.34752
G1 X-29.868 Y51.374 E32.37962
G1 X-29.305 Y51.067 E32.41162
G1 X-28.858 Y50.603 E32.44376
G1 X-28.573 Y50.027 E32.47582
G1 X-28.474 Y49.392 E32.50788
G1 X-28.573 Y48.757 E32.53995
G1 X-28.858 Y48.18 E32.57205
G1 X-29.305 Y47.717 E32.60416
G1 X-29.868 Y47.411 E32.63613
G1 X-30.495 Y47.289 E32.668
G1 X-31.138 Y47.363 E32.70029
G1 X-31.721 Y47.623 E32.73214
G1 X-32.205 Y48.052 E32.7644
G1 X-32.534 Y48.606 E32.79655
G1 X-32.68 Y49.232 E32.82862
G1 X-32.63 Y49.872 E32.86065
G1 X-32.396 Y50.454 E32.89194
G1 X-32.186 Y50.751 E32.91009
G1 X-31.725 Y51.159 E32.9408
G1 X-31.138 Y51.423 E32.97291
G0 F3600 X-31.245 Y51.813
G1 F1200 X-30.484 Y51.899 E33.01112
G1 X-29.731 Y51.755 E33.04937
G1 X-29.06 Y51.389 E33.0875
G1 X-28.527 Y50.836 E33.12582
G1 X-28.187 Y50.149 E33.16406
G1 X-28.069 Y49.392 E33.20228
G1 X-28.187 Y48.635 E33.24051
G1 X-28.527 Y47.947 E33.27879
G1 X-29.06 Y47.395 E33.31708
G1 X-29.731 Y47.03 E33.35519
G1 X-30.479 Y46.885 E33.3932
G1 X-31.245 Y46.973 E33.43167
G1 X-31.94 Y47.283 E33.46963
G1 X-32.517 Y47.794 E33.50808
