;FLAVOR:Marlin
;TIME:6678
;Filament used: 7.68863m
;Layer height: 0.24
;MINX:-36.249
;MINY:-86.25
;MINZ:0.24
;MAXX:39.751
;MAXY:-0.25
;MAXZ:10.08
;TARGET_MACHINE.NAME:Unknown
;Generated with Cura_SteamEngine 5.10.0
M140 S60
M105
M190 S60
M104 S210
M105
M109 S210
;FLAVOR:Marlin
M82 ;absolute extrusion mode
G21
G90
M82
M107 T0
G28
G92 E0
G0 E3 F200
G92 E0 ; reset extrusion distance
M106 S255 ; Enable cooling fan full speed
G1 X-98 Y0 Z0.4 F3000 ; move to arc start
G3 X0 Y-98 I98 Z0.4 E40 F400 ; lay arc stripe 90deg
G92 E0 ; reset extrusion distance
G4 P500 ; wait for 0.5 sec
G0 Z10 E-1 ; Lift 15mm and retract 1mm filament
G4 P2000 ; wait for 5 sec
G0 Z15
M107 ; Disable cooling fan
G1 X0 Y-85 Z4 E0 F3000 ; get off the bed
M82 ;absolute extrusion mode
G92 E0
G92 E0
G1 F1500 E-1
;LAYER_COUNT:42
;LAYER:0
M107
G0 X-18.249 Y-11.25 Z0.24
;TYPE:SKIRT
G1 F3600 E0.71493
G1 F1200 X21.751 Y-11.25 E2.16833
G1 X21.751 Y-15.25 E2.31367
G1 X-18.249 Y-15.25 E3.76707
G1 X-18.249 Y-11.25 E3.91241
G0 F1500 X-18.649 Y-10.85
G1 F1200 X22.151 Y-10.85 E5.39488
G1 X22.151 Y-15.65 E5.56928
G1 X-18.649 Y-15.65 E7.05175
G1 X-18.649 Y-10.85 E7.22616
G0 F1500 X-19.049 Y-10.45
G1 F1200 X-19.049 Y-16.05 E7.42964
G1 X22.551 Y-16.05 E8.94117
G1 X22.551 Y-10.45 E9.14465
G1 X-19.049 Y-10.45 E10.65619
G0 F1500 X-19.449 Y-10.05
G1 F1200 X22.951 Y-10.05 E12.19679
G1 X22.951 Y-16.45 E12.42933
G1 X-19.449 Y-16.45 E13.96994
G1 X-19.449 Y-10.05 E14.20248
G0 F1500 X-19.849 Y-9.65
G1 F1200 X-19.849 Y-16.85 E14.4641
G1 X23.351 Y-16.85 E16.03377
G1 X23.351 Y-9.65 E16.29538
G1 X-19.849 Y-9.65 E17.86505
G0 F1500 X-20.249 Y-9.25
G1 F1200 X23.751 Y-9.25 E19.46379
G1 X23.751 Y-17.25 E19.75447
G1 X-20.249 Y-17.25 E21.35321
G1 X-20.249 Y-9.25 E21.64389
G0 F1500 X-21.049 Y-8.45
G1 F1200 X-21.049 Y-18.05 E21.99271
G1 X24.551 Y-18.05 E23.64959
G1 X24.551 Y-8.45 E23.9984
G1 X-21.049 Y-8.45 E25.65528
G0 F1500 X-20.649 Y-8.85
G1 F1200 X24.151 Y-8.85 E27.28309
G1 X24.151 Y-17.65 E27.60284
G1 X-20.649 Y-17.65 E29.23065
G1 X-20.649 Y-8.85 E29.55039
G1 F1500 E28.55039
G0 X-25.915 Y-8.234
G1 F3600 E30.26532
G1 F1200 X-25.963 Y-8.408 E30.27188
G1 X-26.086 Y-8.533 E30.27825
G1 X-26.253 Y-8.578 E30.28453
G1 X-26.412 Y-8.533 E30.29054
G1 X-26.534 Y-8.411 E30.29681
G1 X-26.577 Y-8.244 E30.30307
G1 X-26.533 Y-8.085 E30.30907
G1 X-26.362 Y-7.934 E30.31736
G1 X-26.166 Y-7.933 E30.32448
G1 X-26.018 Y-8.018 E30.33068
G1 X-25.915 Y-8.234 E30.33937
G0 F1500 X-25.508 Y-8.261
G1 F1200 X-25.604 Y-8.614 E30.35267
G1 X-25.878 Y-8.891 E30.36682
G1 X-26.255 Y-8.992 E30.38101
G1 X-26.621 Y-8.89 E30.39481
G1 X-26.894 Y-8.616 E30.40886
G1 X-26.991 Y-8.239 E30.42301
G1 X-26.891 Y-7.876 E30.43669
G1 X-26.618 Y-7.608 E30.45059
G1 X-26.443 Y-7.534 E30.45749
G1 X-26.06 Y-7.532 E30.47141
G1 X-25.725 Y-7.726 E30.48548
G1 X-25.535 Y-8.053 E30.49922
G1 X-25.508 Y-8.261 E30.50684
G0 F1500 X-24.701 Y-8.254
G1 F1200 X-24.754 Y-7.848 E30.52172
G1 X-24.908 Y-7.477 E30.53631
G1 X-25.153 Y-7.156 E30.55098
G1 X-25.476 Y-6.909 E30.56576
G1 X-25.849 Y-6.754 E30.58044
G1 X-26.244 Y-6.701 E30.59492
G1 X-26.649 Y-6.754 E30.60976
G1 X-27.024 Y-6.91 E30.62452
G1 X-27.344 Y-7.155 E30.63916
G1 X-27.591 Y-7.477 E30.6539
G1 X-27.745 Y-7.848 E30.6685
G1 X-27.798 Y-8.245 E30.68305
G1 X-27.745 Y-8.652 E30.69797
G1 X-27.592 Y-9.021 E30.71248
G1 X-27.343 Y-9.346 E30.72736
G1 X-27.024 Y-9.589 E30.74193
G1 X-26.649 Y-9.745 E30.75669
G1 X-26.253 Y-9.798 E30.7712
G1 X-25.849 Y-9.745 E30.78601
G1 X-25.476 Y-9.59 E30.80068
G1 X-25.155 Y-9.344 E30.81538
G1 X-24.907 Y-9.021 E30.83018
G1 X-24.754 Y-8.652 E30.84469
G1 X-24.701 Y-8.254 E30.85928
G0 F1500 X-25.104 Y-8.257
G1 F1200 X-25.143 Y-8.548 E30.86995
G1 X-25.255 Y-8.817 E30.88053
G1 X-25.442 Y-9.06 E30.89168
G1 X-25.677 Y-9.241 E30.90245
G1 X-25.95 Y-9.354 E30.91319
G1 X-26.256 Y-9.395 E30.92441
G1 X-26.543 Y-9.356 E30.93493
G1 X-26.824 Y-9.239 E30.94599
G1 X-27.056 Y-9.062 E30.95659
G1 X-27.244 Y-8.817 E30.96781
G1 X-27.354 Y-8.551 E30.97827
G1 X-27.395 Y-8.242 E30.9896
G1 X-27.356 Y-7.953 E31.0002
G1 X-27.242 Y-7.678 E31.01101
G1 X-27.061 Y-7.442 E31.02182
G1 X-26.821 Y-7.259 E31.03279
G1 X-26.546 Y-7.144 E31.04362
G1 X-26.241 Y-7.104 E31.05479
G1 X-25.954 Y-7.143 E31.06532
G1 X-25.68 Y-7.257 E31.0761
G1 X-25.439 Y-7.441 E31.08712
G1 X-25.256 Y-7.681 E31.09808
G1 X-25.145 Y-7.949 E31.10862
G1 X-25.104 Y-8.257 E31.11991
G1 F1500 E30.11991
G0 X-33.416 Y-.25
G1 F3600 E31.83484
G1 F1200 X-34.27 Y-.436 E31.8666
G1 X-35.018 Y-.83 E31.89731
G1 X-35.237 Y-.999 E31.90737
G1 X-35.735 Y-1.617 E31.9362
G1 X-36.131 Y-2.413 E31.96851
G1 X-36.245 Y-3.192 E31.99711
G1 X-36.249 Y-83.373 E34.91049
G1 X-36.067 Y-84.263 E34.9435
G1 X-35.669 Y-85.018 E34.97451
G1 X-35.5 Y-85.238 E34.98459
G1 X-34.882 Y-85.736 E35.01343
G1 X-34.086 Y-86.132 E35.04573
G1 X-33.307 Y-86.246 E35.07434
G1 X36.874 Y-86.25 E37.62437
G1 X37.764 Y-86.068 E37.65738
G1 X38.519 Y-85.67 E37.68839
G1 X38.739 Y-85.501 E37.69847
G1 X39.237 Y-84.883 E37.7273
G1 X39.633 Y-84.087 E37.75961
G1 X39.747 Y-83.308 E37.78822
G1 X39.751 Y-3.127 E40.70159
G1 X39.569 Y-2.237 E40.7346
G1 X39.171 Y-1.482 E40.76561
G1 X39.002 Y-1.262 E40.77569
G1 X38.384 Y-.764 E40.80453
G1 X37.588 Y-.368 E40.83683
G1 X36.809 Y-.254 E40.86544
G1 X-33.416 Y-.25 E43.41707
G0 F1500 X-33.372 Y-.65
G1 F1200 X-34.131 Y-.815 E43.44529
G1 X-34.831 Y-1.184 E43.47404
G1 X-34.956 Y-1.287 E43.47993
G1 X-35.396 Y-1.833 E43.50541
G1 X-35.744 Y-2.533 E43.53381
G1 X-35.849 Y-3.25 E43.56014
G1 X-35.849 Y-83.332 E46.46992
G1 X-35.686 Y-84.128 E46.49944
G1 X-35.315 Y-84.832 E46.52836
G1 X-35.212 Y-84.957 E46.53424
G1 X-34.666 Y-85.397 E46.55972
G1 X-33.966 Y-85.745 E46.58813
G1 X-33.249 Y-85.85 E46.61446
G1 X36.833 Y-85.85 E49.16089
G1 X37.629 Y-85.687 E49.19041
G1 X38.333 Y-85.316 E49.21932
G1 X38.458 Y-85.213 E49.22521
G1 X38.898 Y-84.667 E49.25069
G1 X39.246 Y-83.967 E49.27909
G1 X39.351 Y-83.25 E49.30542
G1 X39.351 Y-3.168 E52.2152
G1 X39.188 Y-2.372 E52.24473
G1 X38.817 Y-1.668 E52.27364
G1 X38.714 Y-1.543 E52.27953
G1 X38.168 Y-1.103 E52.30501
G1 X37.468 Y-.755 E52.33341
G1 X36.751 Y-.65 E52.35974
G1 X-33.372 Y-.65 E54.90766
G0 F1500 X-33.328 Y-1.05
G1 F1200 X-33.994 Y-1.195 E54.93243
G1 X-34.645 Y-1.538 E54.95916
G1 X-35.057 Y-2.049 E54.98301
G1 X-35.358 Y-2.655 E55.0076
G1 X-35.449 Y-3.25 E55.02947
G1 X-35.449 Y-83.291 E57.93776
G1 X-35.305 Y-83.993 E57.9638
G1 X-34.961 Y-84.646 E57.99062
G1 X-34.45 Y-85.058 E58.01447
G1 X-33.844 Y-85.359 E58.03905
G1 X-33.249 Y-85.45 E58.06092
G1 X36.792 Y-85.45 E60.60586
G1 X37.494 Y-85.306 E60.6319
G1 X38.147 Y-84.962 E60.65872
G1 X38.559 Y-84.451 E60.68257
G1 X38.86 Y-83.845 E60.70716
G1 X38.951 Y-83.25 E60.72903
G1 X38.951 Y-3.209 E63.63732
G1 X38.807 Y-2.507 E63.66336
G1 X38.463 Y-1.854 E63.69017
G1 X37.952 Y-1.442 E63.71402
G1 X37.346 Y-1.141 E63.73861
G1 X36.751 Y-1.05 E63.76048
G1 X-33.328 Y-1.05 E66.3068
G0 F1500 X-33.284 Y-1.45
G1 F1200 X36.751 Y-1.45 E68.85153
G1 X37.225 Y-1.527 E68.86897
G1 X37.774 Y-1.8 E68.89125
G1 X38.146 Y-2.112 E68.90889
G1 X38.427 Y-2.644 E68.93075
G1 X38.551 Y-3.25 E68.95323
G1 X38.551 Y-83.25 E71.86003
G1 X38.474 Y-83.724 E71.87748
G1 X38.201 Y-84.273 E71.89976
G1 X37.889 Y-84.645 E71.9174
G1 X37.357 Y-84.926 E71.93926
G1 X36.751 Y-85.05 E71.96174
G1 X-33.249 Y-85.05 E74.50519
G1 X-33.723 Y-84.973 E74.52264
G1 X-34.272 Y-84.7 E74.54491
G1 X-34.644 Y-84.388 E74.56255
G1 X-34.925 Y-83.856 E74.58442
G1 X-35.049 Y-83.25 E74.60689
G1 X-35.049 Y-3.25 E77.51369
G1 X-34.972 Y-2.776 E77.53114
G1 X-34.699 Y-2.227 E77.55342
G1 X-34.387 Y-1.855 E77.57106
G1 X-33.855 Y-1.574 E77.59292
G1 X-33.284 Y-1.45 E77.61415
G0 F1500 X-33.249 Y-1.85
G1 F1200 X36.751 Y-1.85 E80.1576
G1 X37.102 Y-1.912 E80.17055
G1 X37.596 Y-2.158 E80.19061
G1 X37.828 Y-2.367 E80.20195
G1 X38.073 Y-2.831 E80.22102
G1 X38.151 Y-3.25 E80.2365
G1 X38.151 Y-83.25 E83.1433
G1 X38.089 Y-83.601 E83.15626
G1 X37.843 Y-84.095 E83.17631
G1 X37.634 Y-84.327 E83.18765
G1 X37.17 Y-84.572 E83.20672
G1 X36.751 Y-84.65 E83.2222
G1 X-33.249 Y-84.65 E85.76566
G1 X-33.6 Y-84.588 E85.77861
G1 X-34.094 Y-84.342 E85.79866
G1 X-34.326 Y-84.133 E85.81
G1 X-34.571 Y-83.669 E85.82907
G1 X-34.649 Y-83.25 E85.84456
G1 X-34.649 Y-3.25 E88.75136
G1 X-34.587 Y-2.899 E88.76431
G1 X-34.341 Y-2.405 E88.78436
G1 X-34.132 Y-2.173 E88.79571
G1 X-33.668 Y-1.928 E88.81477
G1 X-33.249 Y-1.85 E88.83026
G0 F1500 X-33.249 Y-2.25
G1 F1200 X-33.587 Y-2.32 E88.8428
G1 X-33.85 Y-2.457 E88.85357
G1 X-33.989 Y-2.595 E88.86069
G1 X-34.195 Y-2.977 E88.87646
G1 X-34.249 Y-3.25 E88.88657
G1 X-34.249 Y-83.25 E91.79337
G1 X-34.179 Y-83.588 E91.80592
G1 X-34.042 Y-83.851 E91.81669
G1 X-33.904 Y-83.99 E91.82381
G1 X-33.522 Y-84.196 E91.83958
G1 X-33.249 Y-84.25 E91.84969
G1 X36.751 Y-84.25 E94.39314
G1 X37.089 Y-84.18 E94.40568
G1 X37.352 Y-84.043 E94.41646
G1 X37.491 Y-83.905 E94.42357
G1 X37.697 Y-83.523 E94.43934
G1 X37.751 Y-83.25 E94.44945
G1 X37.751 Y-3.25 E97.35626
G1 X37.681 Y-2.912 E97.3688
G1 X37.544 Y-2.649 E97.37957
G1 X37.406 Y-2.51 E97.38669
G1 X37.024 Y-2.304 E97.40246
G1 X36.751 Y-2.25 E97.41257
G1 X-33.249 Y-2.25 E99.95602
G0 F1500 X-33.249 Y-3.05
G1 F1200 X-33.368 Y-3.089 E99.96057
G1 X-33.449 Y-3.25 E99.96712
G1 X-33.449 Y-83.25 E102.87392
G1 X-33.41 Y-83.369 E102.87847
G1 X-33.249 Y-83.45 E102.88502
G1 X36.751 Y-83.45 E105.42847
G1 X36.87 Y-83.411 E105.43302
G1 X36.951 Y-83.25 E105.43957
G1 X36.951 Y-3.25 E108.34637
G1 X36.912 Y-3.131 E108.35092
G1 X36.751 Y-3.05 E108.35747
G1 X-33.249 Y-3.05 E110.90092
G0 F1500 X-33.249 Y-2.65
G1 F1200 X-33.493 Y-2.709 E110.91004
G1 X-33.645 Y-2.8 E110.91648
G1 X-33.806 Y-3.07 E110.9279
G1 X-33.849 Y-3.25 E110.93463
G1 X-33.849 Y-83.25 E113.84143
G1 X-33.79 Y-83.494 E113.85055
G1 X-33.699 Y-83.646 E113.85699
G1 X-33.429 Y-83.807 E113.86841
G1 X-33.249 Y-83.85 E113.87513
G1 X36.751 Y-83.85 E116.41858
G1 X36.995 Y-83.791 E116.42771
G1 X37.147 Y-83.7 E116.43414
G1 X37.308 Y-83.43 E116.44556
G1 X37.351 Y-83.25 E116.45229
G1 X37.351 Y-3.25 E119.35909
G1 X37.292 Y-3.006 E119.36821
G1 X37.201 Y-2.854 E119.37465
G1 X36.931 Y-2.693 E119.38607
G1 X36.751 Y-2.65 E119.3928
G1 X-33.249 Y-2.65 E121.93625
G1 F1500 E120.93625
G0 X-26.362 Y-30.934
G1 F3600 E122.65117
G1 F1200 X-26.166 Y-30.933 E122.65829
G1 X-26.018 Y-31.018 E122.66449
G1 X-25.915 Y-31.234 E122.67319
G1 X-25.963 Y-31.408 E122.67975
G1 X-26.086 Y-31.533 E122.68612
G1 X-26.253 Y-31.578 E122.6924
G1 X-26.412 Y-31.533 E122.69841
G1 X-26.534 Y-31.411 E122.70468
G1 X-26.577 Y-31.244 E122.71094
G1 X-26.533 Y-31.085 E122.71694
G1 X-26.362 Y-30.934 E122.72523
G0 F1500 X-26.443 Y-30.534
G1 F1200 X-26.06 Y-30.532 E122.73914
G1 X-25.725 Y-30.726 E122.75321
G1 X-25.535 Y-31.053 E122.76695
G1 X-25.508 Y-31.261 E122.77457
G1 X-25.604 Y-31.614 E122.78786
G1 X-25.878 Y-31.891 E122.80202
G1 X-26.255 Y-31.992 E122.8162
G1 X-26.621 Y-31.89 E122.83001
G1 X-26.894 Y-31.616 E122.84406
G1 X-26.991 Y-31.239 E122.85821
G1 X-26.891 Y-30.876 E122.87189
G1 X-26.618 Y-30.608 E122.88579
G1 X-26.443 Y-30.534 E122.89269
G0 F1500 X-26.649 Y-29.754
G1 F1200 X-27.024 Y-29.91 E122.90745
G1 X-27.344 Y-30.155 E122.92209
G1 X-27.591 Y-30.477 E122.93684
G1 X-27.745 Y-30.848 E122.95143
G1 X-27.798 Y-31.245 E122.96599
G1 X-27.745 Y-31.652 E122.9809
G1 X-27.592 Y-32.021 E122.99541
G1 X-27.343 Y-32.346 E123.01029
G1 X-27.024 Y-32.589 E123.02486
G1 X-26.649 Y-32.745 E123.03962
G1 X-26.253 Y-32.798 E123.05414
G1 X-25.849 Y-32.745 E123.06894
G1 X-25.476 Y-32.59 E123.08362
G1 X-25.155 Y-32.344 E123.09831
G1 X-24.907 Y-32.021 E123.11311
G1 X-24.754 Y-31.652 E123.12762
G1 X-24.701 Y-31.254 E123.14221
G1 X-24.754 Y-30.848 E123.15709
G1 X-24.908 Y-30.477 E123.17169
G1 X-25.153 Y-30.156 E123.18636
G1 X-25.476 Y-29.909 E123.20113
G1 X-25.849 Y-29.754 E123.21581
G1 X-26.244 Y-29.701 E123.23029
G1 X-26.649 Y-29.754 E123.24513
G0 F1500 X-26.546 Y-30.144
G1 F1200 X-26.241 Y-30.104 E123.25631
G1 X-25.954 Y-30.143 E123.26683
G1 X-25.68 Y-30.257 E123.27762
G1 X-25.439 Y-30.441 E123.28863
G1 X-25.256 Y-30.681 E123.2996
G1 X-25.145 Y-30.949 E123.31014
G1 X-25.104 Y-31.257 E123.32143
G1 X-25.143 Y-31.548 E123.3321
G1 X-25.255 Y-31.817 E123.34268
G1 X-25.442 Y-32.06 E123.35383
G1 X-25.677 Y-32.241 E123.3646
G1 X-25.95 Y-32.354 E123.37534
G1 X-26.256 Y-32.395 E123.38656
G1 X-26.543 Y-32.356 E123.39708
G1 X-26.824 Y-32.239 E123.40814
G1 X-27.056 Y-32.062 E123.41874
G1 X-27.244 Y-31.817 E123.42996
G1 X-27.354 Y-31.551 E123.44042
G1 X-27.395 Y-31.242 E123.45175
G1 X-27.356 Y-30.953 E123.46235
G1 X-27.242 Y-30.678 E123.47316
G1 X-27.061 Y-30.442 E123.48397
G1 X-26.821 Y-30.259 E123.49493
G1 X-26.546 Y-30.144 E123.50577
G1 F1500 E122.50577
G0 X-26.362 Y-53.934
G1 F3600 E124.22069
G1 F1200 X-26.166 Y-53.933 E124.22781
G1 X-26.018 Y-54.018 E124.23401
G1 X-25.915 Y-54.234 E124.24271
G1 X-25.963 Y-54.408 E124.24927
G1 X-26.086 Y-54.533 E124.25564
G1 X-26.253 Y-54.578 E124.26192
G1 X-26.412 Y-54.533 E124.26793
G1 X-26.534 Y-54.411 E124.2742
G1 X-26.577 Y-54.244 E124.28046
G1 X-26.533 Y-54.085 E124.28646
G1 X-26.362 Y-53.934 E124.29475
G0 F1500 X-26.443 Y-53.534
G1 F1200 X-26.06 Y-53.532 E124.30866
G1 X-25.725 Y-53.726 E124.32273
G1 X-25.535 Y-54.053 E124.33647
G1 X-25.508 Y-54.261 E124.34409
G1 X-25.604 Y-54.614 E124.35738
G1 X-25.878 Y-54.891 E124.37154
G1 X-26.255 Y-54.992 E124.38572
G1 X-26.621 Y-54.89 E124.39953
G1 X-26.894 Y-54.616 E124.41358
G1 X-26.991 Y-54.239 E124.42773
G1 X-26.891 Y-53.876 E124.44141
G1 X-26.618 Y-53.608 E124.45531
G1 X-26.443 Y-53.534 E124.46221
G0 F1500 X-26.649 Y-52.754
G1 F1200 X-27.024 Y-52.91 E124.47697
G1 X-27.344 Y-53.155 E124.49161
G1 X-27.591 Y-53.477 E124.50636
G1 X-27.745 Y-53.848 E124.52095
G1 X-27.798 Y-54.245 E124.53551
G1 X-27.745 Y-54.652 E124.55042
G1 X-27.592 Y-55.021 E124.56493
G1 X-27.343 Y-55.346 E124.57981
G1 X-27.024 Y-55.589 E124.59438
G1 X-26.649 Y-55.745 E124.60914
G1 X-26.253 Y-55.798 E124.62366
G1 X-25.849 Y-55.745 E124.63846
G1 X-25.476 Y-55.59 E124.65314
G1 X-25.155 Y-55.344 E124.66783
G1 X-24.907 Y-55.021 E124.68263
G1 X-24.754 Y-54.652 E124.69714
G1 X-24.701 Y-54.254 E124.71173
G1 X-24.754 Y-53.848 E124.72661
G1 X-24.908 Y-53.477 E124.7412
G1 X-25.153 Y-53.156 E124.75588
G1 X-25.476 Y-52.909 E124.77065
G1 X-25.849 Y-52.754 E124.78533
G1 X-26.244 Y-52.701 E124.79981
G1 X-26.649 Y-52.754 E124.81465
G0 F1500 X-26.546 Y-53.144
G1 F1200 X-26.241 Y-53.104 E124.82583
G1 X-25.954 Y-53.143 E124.83635
G1 X-25.68 Y-53.257 E124.84713
G1 X-25.439 Y-53.441 E124.85815
G1 X-25.256 Y-53.681 E124.86912
G1 X-25.145 Y-53.949 E124.87966
G1 X-25.104 Y-54.257 E124.89095
G1 X-25.143 Y-54.548 E124.90162
G1 X-25.255 Y-54.817 E124.9122
G1 X-25.442 Y-55.06 E124.92334
G1 X-25.677 Y-55.241 E124.93412
G1 X-25.95 Y-55.354 E124.94486
G1 X-26.256 Y-55.395 E124.95608
G1 X-26.543 Y-55.356 E124.9666
G1 X-26.824 Y-55.239 E124.97766
G1 X-27.056 Y-55.062 E124.98826
G1 X-27.244 Y-54.817 E124.99948
G1 X-27.354 Y-54.551 E125.00994
G1 X-27.395 Y-54.242 E125.02127
G1 X-27.356 Y-53.953 E125.03186
G1 X-27.242 Y-53.678 E125.04268
G1 X-27.061 Y-53.442 E125.05349
G1 X-26.821 Y-53.259 E125.06445
G1 X-26.546 Y-53.144 E125.07528
G1 F1500 E124.07528
G0 X-26.362 Y-76.934
G1 F3600 E125.79021
G1 F1200 X-26.166 Y-76.933 E125.79733
G1 X-26.018 Y-77.018 E125.80353
G1 X-25.915 Y-77.234 E125.81223
G1 X-25.963 Y-77.408 E125.81879
G1 X-26.086 Y-77.533 E125.82516
G1 X-26.253 Y-77.578 E125.83144
G1 X-26.412 Y-77.533 E125.83745
G1 X-26.534 Y-77.411 E125.84372
G1 X-26.577 Y-77.244 E125.84998
G1 X-26.533 Y-77.085 E125.85598
G1 X-26.362 Y-76.934 E125.86426
G0 F1500 X-26.443 Y-76.534
G1 F1200 X-26.06 Y-76.532 E125.87818
