;FLAVOR:Marlin
;TIME:5400
;Filament used: 6.95034m
;Layer height: 0.24
;MINX:-40.393
;MINY:-39.207
;MINZ:0.3
;MAXX:39.206
;MAXY:40.386
;MAXZ:30.82
;Generated with Cura_SteamEngine 4.13.1
M140 S50
M105
M190 S50
M104 S216
M105
M109 S216
M82 ;absolute extrusion mode
;FLAVOR:Marlin
M82 ;absolute extrusion mode
G21
G90
M82
M107 T0
G28
G92 E0
G0 E3 F200
G92 E0 ; reset extrusion distance
M106 S255 ; Enable cooling fan full speed
G1 X-98 Y0 Z0.4 F3000 ; move to arc start
G3 X0 Y-98 I98 Z0.4 E40 F400 ; lay arc stripe 90deg
G92 E0 ; reset extrusion distance
G4 P500 ; wait for 0.5 sec
G0 Z10 E-1 ; Lift 15mm and retract 1mm filament
G4 P2000 ; wait for 5 sec
G0 Z15
M107 ; Disable cooling fan
G1 X0 Y-85 Z4 E0 F3000 ; get off the bed
G92 E0
G92 E0
G1 F1500 E-6.5
;LAYER_COUNT:109
;LAYER:0
M106 S25.5
G1 F600 Z1.3
G0 F3600 X-2.972 Y-4.623 Z1.3
;TYPE:SKIRT
G1 F600 Z0.3
G1 F1500 E0.3326
G1 F1200 X9.752 Y-17.349 E1.62546
G1 X20.785 Y-28.379 E2.74626
G1 X21.158 Y-28.695 E2.78138
G1 X21.578 Y-28.947 E2.81657
G1 X21.955 Y-29.096 E2.84569
G1 X22.139 Y-29.485 E2.8766
G1 X19.801 Y-31.824 E3.11419
G1 X6.743 Y-18.766 E4.44088
G1 X6.924 Y-18.175 E4.48529
G1 X6.974 Y-17.631 E4.52454
G1 X6.934 Y-16.752 E4.58775
G1 X6.815 Y-16.277 E4.62293
G1 X6.621 Y-15.828 E4.65807
G1 X6.356 Y-15.416 E4.69326
G1 X6.028 Y-15.053 E4.72841
G1 X5.645 Y-14.748 E4.76358
G1 X5.217 Y-14.51 E4.79877
G1 X4.757 Y-14.344 E4.8339
G1 X3.974 Y-14.24 E4.89065
G1 X3.097 Y-14.28 E4.95372
G1 X2.45 Y-14.473 E5.00222
G1 X-14.557 Y2.534 E6.73013
G1 X-14.93 Y2.851 E6.7653
G1 X-15.35 Y3.103 E6.80049
G1 X-15.805 Y3.283 E6.83564
G1 X-16.283 Y3.387 E6.87078
G1 X-16.844 Y3.413 E6.91113
G1 X-17.332 Y3.373 E6.94631
G1 X-17.807 Y3.254 E6.98148
G1 X-18.067 Y3.141 E7.00185
G1 X-17.928 Y3.492 E7.02897
G1 X-17.824 Y3.97 E7.06412
G1 X-17.798 Y4.533 E7.10461
G1 X-17.838 Y5.021 E7.13978
G1 X-17.957 Y5.496 E7.17496
G1 X-18.151 Y5.945 E7.2101
G1 X-18.416 Y6.357 E7.2453
G1 X-18.677 Y6.654 E7.2737
G1 X-28.98 Y16.957 E8.32048
G1 X-29.488 Y17.368 E8.36743
G1 X-30.505 Y18.026 E8.45445
G1 X-30.329 Y18.411 E8.48486
G1 X-30.2 Y18.883 E8.52002
G1 X-30.15 Y19.525 E8.56628
G1 X-30.149 Y20.083 E8.60637
G1 X-30.061 Y20.683 E8.64993
G1 X-29.86 Y21.318 E8.69778
G1 X-29.564 Y21.896 E8.74443
G1 X-29.207 Y22.385 E8.78793
G1 X-28.867 Y22.753 E8.82393
G1 X-27.934 Y23.687 E8.91877
G1 X-28.017 Y23.126 E8.95951
G1 X-28.063 Y22.298 E9.01909
G1 X-28.051 Y21.809 E9.05423
G1 X-27.916 Y21.189 E9.09982
G1 X-27.581 Y20.304 E9.1678
G1 X-27.089 Y19.561 E9.23182
G1 X-26.76 Y19.172 E9.26842
G1 X-15.354 Y7.754 E10.42788
G1 X-2.972 Y-4.623 E11.68563
G0 F3600 X-2.689 Y-4.34
G1 F1200 X10.035 Y-17.066 E12.97849
G1 X21.068 Y-28.096 E14.09929
G1 X21.417 Y-28.388 E14.13198
G1 X21.812 Y-28.616 E14.16474
G1 X22.244 Y-28.77 E14.19769
G1 X22.621 Y-29.569 E14.26116
G1 X19.801 Y-32.39 E14.54772
G1 X6.373 Y-18.962 E15.91201
G1 X6.254 Y-18.862 E15.92317
G1 X6.486 Y-18.302 E15.96672
G1 X6.574 Y-17.631 E16.01534
G1 X6.534 Y-16.786 E16.07611
G1 X6.416 Y-16.346 E16.10884
G1 X6.222 Y-15.934 E16.14156
G1 X5.959 Y-15.561 E16.17435
G1 X5.636 Y-15.24 E16.20706
G1 X5.261 Y-14.981 E16.2398
G1 X4.847 Y-14.791 E16.27253
G1 X4.406 Y-14.676 E16.30527
G1 X3.585 Y-14.64 E16.36431
G1 X3.131 Y-14.68 E16.39705
G1 X2.691 Y-14.798 E16.42978
G1 X2.345 Y-14.961 E16.45726
G1 X2.253 Y-14.842 E16.46806
G1 X-14.84 Y2.251 E18.20471
G1 X-15.189 Y2.544 E18.23744
G1 X-15.584 Y2.771 E18.27017
G1 X-16.012 Y2.926 E18.30288
G1 X-16.678 Y3.013 E18.35113
G1 X-17.298 Y2.973 E18.39576
G1 X-17.738 Y2.855 E18.42849
G1 X-18.15 Y2.661 E18.46121
G1 X-18.682 Y2.251 E18.50946
G1 X-18.841 Y2.092 E18.52562
G1 X-19.117 Y2.371 E18.55381
G1 X-18.668 Y2.877 E18.60241
G1 X-18.44 Y3.271 E18.63511
G1 X-18.285 Y3.7 E18.66788
G1 X-18.198 Y4.367 E18.71621
G1 X-18.238 Y4.987 E18.76084
G1 X-18.356 Y5.427 E18.79357
G1 X-18.55 Y5.839 E18.82629
G1 X-18.96 Y6.371 E18.87454
G1 X-29.263 Y16.674 E19.92132
G1 X-29.706 Y17.032 E19.96224
G1 X-31.054 Y17.904 E20.07758
G1 X-30.782 Y18.358 E20.1156
G1 X-30.631 Y18.788 E20.14834
G1 X-30.55 Y19.513 E20.20075
G1 X-30.549 Y20.114 E20.24393
G1 X-30.449 Y20.785 E20.29267
G1 X-30.226 Y21.479 E20.34504
G1 X-29.905 Y22.105 E20.39558
G1 X-29.514 Y22.641 E20.44324
G1 X-29.136 Y23.051 E20.48331
G1 X-27.055 Y25.131 E20.69468
G1 X-27.231 Y24.745 E20.72516
G1 X-27.402 Y24.235 E20.76381
G1 X-27.56 Y23.526 E20.81599
G1 X-27.618 Y23.104 E20.84659
G1 X-27.664 Y22.276 E20.90617
G1 X-27.649 Y21.821 E20.93888
G1 X-27.536 Y21.315 E20.97612
G1 X-27.212 Y20.462 E21.04168
G1 X-26.762 Y19.792 E21.09966
G1 X-26.477 Y19.454 E21.13142
G1 X-15.071 Y8.037 E22.29083
G1 X-2.689 Y-4.34 E23.54858
G0 F3600 X-2.406 Y-4.057
G1 F1200 X10.318 Y-16.783 E24.84144
G1 X21.351 Y-27.813 E25.96224
G1 X21.674 Y-28.08 E25.99234
G1 X22.042 Y-28.28 E26.02243
G1 X22.518 Y-28.416 E26.058
G1 X23.103 Y-29.653 E26.1563
G1 X20.011 Y-32.746 E26.4705
G1 X19.822 Y-32.975 E26.49183
G1 X6.091 Y-19.244 E27.8869
G1 X5.721 Y-18.953 E27.92072
G1 X5.866 Y-18.753 E27.93847
G1 X6.045 Y-18.374 E27.96858
G1 X6.148 Y-17.968 E27.99867
G1 X6.174 Y-17.24 E28.051
G1 X6.134 Y-16.823 E28.0811
G1 X6.016 Y-16.421 E28.1112
G1 X5.823 Y-16.049 E28.14131
G1 X5.564 Y-15.72 E28.17139
G1 X5.247 Y-15.446 E28.20149
G1 X4.884 Y-15.237 E28.23158
G1 X4.487 Y-15.101 E28.26173
G1 X3.974 Y-15.04 E28.29884
G1 X3.168 Y-15.08 E28.35682
G1 X2.766 Y-15.198 E28.38692
G1 X2.266 Y-15.492 E28.42859
G1 X1.971 Y-15.124 E28.46247
G1 X-15.122 Y1.969 E30.19912
G1 X-15.446 Y2.235 E30.22923
G1 X-15.813 Y2.436 E30.2593
G1 X-16.213 Y2.563 E30.28945
G1 X-16.844 Y2.613 E30.33492
G1 X-17.261 Y2.573 E30.36502
G1 X-17.663 Y2.455 E30.39512
G1 X-18.035 Y2.262 E30.42522
G1 X-18.4 Y1.969 E30.45885
G1 X-18.892 Y1.477 E30.50884
G1 X-19.158 Y1.86 E30.54234
G1 X-19.463 Y2.146 E30.57237
G1 X-19.736 Y2.318 E30.59556
G1 X-19.243 Y2.81 E30.64559
G1 X-18.976 Y3.134 E30.67576
G1 X-18.775 Y3.501 E30.70582
G1 X-18.648 Y3.901 E30.73597
G1 X-18.598 Y4.533 E30.78151
G1 X-18.638 Y4.95 E30.81161
G1 X-18.756 Y5.352 E30.84171
G1 X-18.949 Y5.724 E30.87182
G1 X-19.242 Y6.089 E30.90544
G1 X-29.545 Y16.392 E31.95222
G1 X-29.923 Y16.696 E31.98707
G1 X-31.664 Y17.823 E32.13607
G1 X-31.468 Y18.015 E32.15578
G1 X-31.229 Y18.359 E32.18587
G1 X-31.06 Y18.743 E32.21601
G1 X-30.967 Y19.152 E32.24615
G1 X-30.96 Y19.845 E32.29594
G1 X-30.901 Y20.568 E32.34805
G1 X-30.734 Y21.263 E32.3994
G1 X-30.436 Y21.98 E32.45518
G1 X-30.067 Y22.587 E32.50622
G1 X-29.815 Y22.905 E32.53537
G1 X-29.43 Y23.322 E32.57614
G1 X-23.325 Y29.429 E33.19651
G1 X-22.803 Y29.899 E33.24697
G1 X-22.308 Y30.248 E33.29048
G1 X-21.665 Y30.579 E33.34244
G1 X-21.264 Y30.727 E33.37315
G1 X-20.774 Y30.86 E33.40962
G1 X-20.665 Y30.881 E33.4176
G1 X-20.113 Y30.946 E33.45753
G1 X-19.518 Y30.949 E33.50028
G1 X-19.1 Y30.971 E33.53035
G1 X-18.693 Y31.072 E33.56047
G1 X-18.313 Y31.248 E33.59056
G1 X-17.973 Y31.493 E33.62067
G1 X-17.82 Y31.655 E33.63668
G1 X-16.687 Y29.905 E33.78645
G1 X-16.396 Y29.545 E33.8197
G1 X-6.091 Y19.24 E34.86669
G1 X-5.767 Y18.974 E34.89681
G1 X-5.4 Y18.773 E34.92687
G1 X-5 Y18.646 E34.95702
G1 X-4.369 Y18.596 E35.00249
G1 X-3.952 Y18.636 E35.03259
G1 X-3.55 Y18.754 E35.06269
G1 X-3.178 Y18.947 E35.09279
G1 X-2.813 Y19.24 E35.12642
G1 X-2.321 Y19.732 E35.17641
G1 X-2.056 Y19.351 E35.20975
G1 X-1.751 Y19.065 E35.23979
G1 X-1.477 Y18.892 E35.26307
G1 X-1.971 Y18.398 E35.31326
G1 X-2.237 Y18.074 E35.34337
G1 X-2.438 Y17.707 E35.37344
G1 X-2.565 Y17.307 E35.40359
G1 X-2.615 Y16.676 E35.44906
G1 X-2.575 Y16.259 E35.47916
G1 X-2.457 Y15.857 E35.50925
G1 X-2.264 Y15.485 E35.53936
G1 X-1.971 Y15.12 E35.57299
G1 X15.122 Y-1.973 E37.30963
G1 X15.446 Y-2.239 E37.33975
G1 X15.813 Y-2.44 E37.36981
G1 X16.213 Y-2.567 E37.39996
G1 X16.844 Y-2.617 E37.44544
G1 X17.261 Y-2.577 E37.47553
G1 X17.663 Y-2.459 E37.50563
G1 X18.035 Y-2.266 E37.53574
G1 X18.4 Y-1.973 E37.56936
G1 X18.892 Y-1.481 E37.61935
G1 X19.158 Y-1.864 E37.65285
G1 X19.463 Y-2.15 E37.68289
G1 X19.736 Y-2.322 E37.70607
G1 X19.242 Y-2.816 E37.75626
G1 X18.976 Y-3.14 E37.78638
G1 X18.775 Y-3.507 E37.81644
G1 X18.648 Y-3.907 E37.84659
G1 X18.598 Y-4.538 E37.89206
G1 X18.638 Y-4.955 E37.92216
G1 X18.756 Y-5.357 E37.95226
G1 X18.949 Y-5.729 E37.98237
G1 X19.242 Y-6.094 E38.01599
G1 X32.969 Y-19.82 E39.4106
G1 X32.741 Y-20.014 E39.43211
G1 X29.725 Y-23.033 E39.73869
G1 X28.006 Y-21.61 E39.89901
G1 X27.753 Y-21.262 E39.92992
G1 X27.328 Y-20.878 E39.97107
G1 X-18.558 Y25.021 E44.63373
G1 X-18.558 Y25.335 E44.65629
G1 X-18.638 Y25.747 E44.68644
G1 X-18.794 Y26.136 E44.71655
G1 X-19.021 Y26.488 E44.74664
G1 X-19.368 Y26.838 E44.78205
G1 X-19.878 Y27.249 E44.82911
G1 X-20.227 Y27.48 E44.85918
G1 X-20.922 Y27.758 E44.91295
G1 X-21.327 Y27.865 E44.94305
G1 X-21.746 Y27.894 E44.97322
G1 X-22.161 Y27.843 E45.00326
G1 X-22.56 Y27.714 E45.03338
G1 X-22.927 Y27.512 E45.06348
G1 X-23.29 Y27.189 E45.09839
G1 X-24.519 Y26.832 E45.19033
G1 X-24.955 Y26.653 E45.22419
G1 X-25.593 Y26.307 E45.27633
G1 X-25.94 Y26.073 E45.3064
G1 X-26.237 Y25.777 E45.33653
G1 X-26.547 Y25.283 E45.37842
G1 X-26.867 Y24.579 E45.43398
G1 X-27.011 Y24.148 E45.46663
G1 X-27.169 Y23.439 E45.51881
G1 X-27.219 Y23.082 E45.54471
G1 X-27.265 Y22.254 E45.60429
G1 X-27.248 Y21.835 E45.63441
G1 X-27.013 Y21.006 E45.69632
G1 X-26.721 Y20.428 E45.74284
G1 X-26.194 Y19.737 E45.80527
G1 X-14.788 Y8.32 E46.96468
G1 X-2.406 Y-4.057 E48.22243
G0 F3600 X-2.124 Y-3.774
G1 F1200 X10.6 Y-16.5 E49.51529
G1 X21.633 Y-27.53 E50.63609
G1 X21.928 Y-27.768 E50.66332
G1 X22.266 Y-27.939 E50.69053
G1 X22.784 Y-28.043 E50.72849
G1 X23.585 Y-29.736 E50.86304
G1 X20.294 Y-33.028 E51.19746
G1 X20.056 Y-33.323 E51.22469
G1 X19.88 Y-33.68 E51.25329
G1 X19.632 Y-33.351 E51.28288
G1 X5.808 Y-19.527 E52.6874
G1 X5.513 Y-19.289 E52.71463
G1 X5.027 Y-19.079 E52.75267
G1 X5.412 Y-18.714 E52.79078
G1 X5.607 Y-18.389 E52.81801
G1 X5.729 Y-18.03 E52.84525
G1 X5.774 Y-17.24 E52.90209
G1 X5.734 Y-16.863 E52.92933
G1 X5.616 Y-16.503 E52.95655
G1 X5.426 Y-16.176 E52.98372
G1 X5.171 Y-15.895 E53.01098
G1 X4.862 Y-15.675 E53.03823
G1 X4.515 Y-15.523 E53.06545
G1 X3.974 Y-15.44 E53.10477
G1 X3.208 Y-15.48 E53.15987
G1 X2.848 Y-15.598 E53.18709
G1 X2.521 Y-15.788 E53.21426
G1 X2.24 Y-16.043 E53.24152
G1 X2.137 Y-16.187 E53.25424
G1 X2.057 Y-15.943 E53.27269
G1 X1.867 Y-15.616 E53.29986
G1 X1.688 Y-15.407 E53.31963
G1 X-15.405 Y1.686 E55.05627
G1 X-15.7 Y1.924 E55.0835
G1 X-16.038 Y2.095 E55.11072
G1 X-16.404 Y2.192 E55.13792
G1 X-16.844 Y2.213 E55.16956
G1 X-17.221 Y2.173 E55.1968
G1 X-17.581 Y2.055 E55.22402
G1 X-17.908 Y1.865 E55.25119
G1 X-18.117 Y1.686 E55.27096
G1 X-19.012 Y0.791 E55.36189
G1 X-19.043 Y0.753 E55.36541
G1 X-19.151 Y1.108 E55.39207
G1 X-19.335 Y1.44 E55.41934
G1 X-19.584 Y1.725 E55.44653
G1 X-19.888 Y1.952 E55.47378
G1 X-20.232 Y2.11 E55.50098
G1 X-20.464 Y2.162 E55.51806
G1 X-20.422 Y2.198 E55.52204
G1 X-19.526 Y3.093 E55.61302
G1 X-19.287 Y3.388 E55.64029
G1 X-19.116 Y3.726 E55.66751
G1 X-19.019 Y4.092 E55.69471
G1 X-18.998 Y4.533 E55.72643
G1 X-19.038 Y4.91 E55.75366
G1 X-19.156 Y5.27 E55.78088
G1 X-19.346 Y5.597 E55.80805
G1 X-19.525 Y5.806 E55.82782
G1 X-29.828 Y16.109 E56.8746
G1 X-30.14 Y16.36 E56.90337
G1 X-32.185 Y17.683 E57.07835
G1 X-32.418 Y17.8 E57.09708
G1 X-32.21 Y17.898 E57.1136
G1 X-31.909 Y18.129 E57.14086
G1 X-31.664 Y18.417 E57.16802
G1 X-31.484 Y18.751 E57.19528
G1 X-31.378 Y19.114 E57.22245
G1 X-31.361 Y19.851 E57.27541
G1 X-31.297 Y20.626 E57.33128
G1 X-31.114 Y21.39 E57.38772
G1 X-30.795 Y22.157 E57.4474
G1 X-30.39 Y22.823 E57.5034
G1 X-30.117 Y23.17 E57.53511
G1 X-29.736 Y23.581 E57.57538
G1 X-23.592 Y29.727 E58.19971
G1 X-23.054 Y30.211 E58.2517
G1 X-22.522 Y30.587 E58.2985
G1 X-21.823 Y30.948 E58.35502
G1 X-21.38 Y31.111 E58.38893
G1 X-20.875 Y31.248 E58.42652
G1 X-20.73 Y31.276 E58.43713
G1 X-20.137 Y31.345 E58.48002
G1 X-19.501 Y31.349 E58.52571
G1 X-19.123 Y31.372 E58.55292
G1 X-18.758 Y31.475 E58.58017
G1 X-18.423 Y31.651 E58.60735
G1 X-18.132 Y31.894 E58.63459
G1 X-17.898 Y32.192 E58.66181
G1 X-17.798 Y32.398 E58.67826
G1 X-17.683 Y32.18 E58.69597
G1 X-16.351 Y30.123 E58.87202
G1 X-16.113 Y29.828 E58.89925
G1 X-5.808 Y19.523 E59.94624
G1 X-5.513 Y19.285 E59.97347
G1 X-5.175 Y19.114 E60.00068
G1 X-4.809 Y19.017 E60.02789
G1 X-4.369 Y18.996 E60.05953
G1 X-3.992 Y19.036 E60.08677
G1 X-3.632 Y19.154 E60.11399
G1 X-3.305 Y19.344 E60.14116
G1 X-3.096 Y19.523 E60.16093
G1 X-2.201 Y20.418 E60.25186
G1 X-2.17 Y20.456 E60.25538
G1 X-2.062 Y20.103 E60.2819
G1 X-1.879 Y19.771 E60.30914
G1 X-1.63 Y19.486 E60.33632
G1 X-1.326 Y19.259 E60.36358
G1 X-.982 Y19.1 E60.39081
G1 X-.749 Y19.048 E60.40796
G1 X-.793 Y19.01 E60.41214
G1 X-1.688 Y18.115 E60.50307
G1 X-1.926 Y17.82 E60.5303
G1 X-2.097 Y17.482 E60.55751
G1 X-2.194 Y17.116 E60.58471
G1 X-2.215 Y16.676 E60.61636
G1 X-2.175 Y16.299 E60.6436
G1 X-2.057 Y15.939 E60.67081
G1 X-1.867 Y15.612 E60.69798
G1 X-1.688 Y15.403 E60.71775
G1 X15.405 Y-1.69 E62.4544
G1 X15.7 Y-1.928 E62.48163
G1 X16.038 Y-2.099 E62.50884
G1 X16.404 Y-2.196 E62.53604
G1 X16.844 Y-2.217 E62.56769
G1 X17.221 Y-2.177 E62.59493
G1 X17.581 Y-2.059 E62.62214
G1 X17.908 Y-1.869 E62.64931
G1 X18.117 Y-1.69 E62.66908
G1 X19.012 Y-.795 E62.76001
G1 X19.043 Y-.757 E62.76354
G1 X19.151 Y-1.112 E62.79019
G1 X19.335 Y-1.444 E62.81746
G1 X19.584 Y-1.729 E62.84465
G1 X19.888 Y-1.956 E62.87191
G1 X20.232 Y-2.114 E62.89911
G1 X20.464 Y-2.166 E62.91619
G1 X20.421 Y-2.203 E62.92026
G1 X19.525 Y-3.099 E63.0113
G1 X19.287 Y-3.394 E63.03853
G1 X19.116 Y-3.732 E63.06574
G1 X19.019 Y-4.098 E63.09294
G1 X18.998 Y-4.538 E63.12459
G1 X19.038 Y-4.915 E63.15182
G1 X19.156 Y-5.275 E63.17904
G1 X19.346 Y-5.602 E63.20621
G1 X19.525 Y-5.811 E63.22598
G1 X33.349 Y-19.634 E64.63044
G1 X33.675 Y-19.89 E64.66022
G1 X33.449 Y-19.981 E64.67773
G1 X33.024 Y-20.297 E64.71577
G1 X29.75 Y-23.573 E65.04851
G1 X27.695 Y-21.872 E65.24016
G1 X27.429 Y-21.5 E65.27302
G1 X27.059 Y-21.174 E65.30845
G1 X-18.976 Y24.874 E69.98625
G1 X-18.949 Y25.063 E69.99997
G1 X-18.976 Y25.441 E70.02719
G1 X-19.081 Y25.805 E70.05441
G1 X-19.261 Y26.139 E70.08167
G1 X-19.619 Y26.527 E70.11959
G1 X-20.129 Y26.938 E70.16665
G1 X-20.632 Y27.224 E70.20822
G1 X-21.429 Y27.476 E70.26827
G1 X-21.807 Y27.491 E70.29545
G1 X-22.181 Y27.426 E70.32272
G1 X-22.532 Y27.284 E70.34992
G1 X-22.846 Y27.072 E70.37714
G1 X-23.074 Y26.835 E70.40077
G1 X-24.408 Y26.448 E70.50056
G1 X-24.764 Y26.301 E70.52823
G1 X-25.402 Y25.955 E70.58037
G1 X-25.714 Y25.741 E70.60755
G1 X-25.975 Y25.465 E70.63484
G1 X-26.183 Y25.118 E70.6639
G1 X-26.503 Y24.414 E70.71946
G1 X-26.621 Y24.061 E70.7462
G1 X-26.779 Y23.352 E70.79839
G1 X-26.819 Y23.06 E70.81956
G1 X-26.865 Y22.232 E70.87914
G1 X-26.846 Y21.853 E70.9064
G1 X-26.633 Y21.131 E70.96048
G1 X-26.394 Y20.659 E70.99849
G1 X-25.911 Y20.02 E71.05603
G1 X-14.506 Y8.603 E72.21539
G1 X-2.124 Y-3.774 E73.47314
G0 F3600 X-1.841 Y-3.49
G1 F1200 X10.883 Y-16.216 E74.766
G1 X21.916 Y-27.246 E75.8868
G1 X22.178 Y-27.453 E75.91079
G1 X22.482 Y-27.591 E75.93477
G1 X22.81 Y-27.654 E75.95877
G1 X23.037 Y-27.642 E75.9751
G1 X24.067 Y-29.82 E76.14818
G1 X20.577 Y-33.311 E76.50282
G1 X20.371 Y-33.574 E76.52682
G1 X20.232 Y-33.878 E76.55083
G1 X20.17 Y-34.206 E76.57481
G1 X20.181 Y-34.5 E76.59595
G1 X20.3 Y-35.331 E76.65626
G1 X20.386 Y-35.985 E76.70365
G1 X20.525 Y-36.289 E76.72766
G1 X20.731 Y-36.551 E76.75161
G1 X20.994 Y-36.757 E76.77561
G1 X21.299 Y-36.895 E76.79966
G1 X21.627 Y-36.957 E76.82364
G1 X21.961 Y-36.939 E76.84767
G1 X22.281 Y-36.843 E76.87167
G1 X22.71 Y-36.55 E76.90899
G1 X27.095 Y-32.164 E77.35456
