;FLAVOR:Marlin
;TIME:4800
;Filament used: 2.4771m
;Layer height: 0.12
;MINX:-21.975
;MINY:-32.68
;MINZ:0.3
;MAXX:21.979
;MAXY:13.431
;MAXZ:30.59
;Generated with Cura_SteamEngine 4.12.1
M140 S40
M105
M190 S40
M104 S210
M105
M109 S210
M82 ;absolute extrusion mode
;FLAVOR:Marlin
M82 ;absolute extrusion mode
G21
G90
M82
M107 T0
G28
G92 E0
G0 E3 F200
G92 E0 ; reset extrusion distance
M106 S255 ; Enable cooling fan full speed
G1 X-98 Y0 Z0.4 F3000 ; move to arc start
G3 X0 Y-98 I98 Z0.4 E40 F400 ; lay arc stripe 90deg
G92 E0 ; reset extrusion distance
G4 P500 ; wait for 0.5 sec
G0 Z10 E-1 ; Lift 15mm and retract 1mm filament
G4 P2000 ; wait for 5 sec
G0 Z15
M107 ; Disable cooling fan
G1 X0 Y-85 Z4 E0 F3000 ; get off the bed
G92 E0
G92 E0
G1 F1500 E-6.5
;LAYER_COUNT:278
;LAYER:0
M107
G1 F600 Z1.3
G0 F3600 X-13.206 Y13.431 Z1.3
;TYPE:SKIRT
G1 F600 Z0.3
G1 F1500 E0
G1 F1800 X-13.883 Y13.42 E0.03378
G1 X-14.354 Y13.372 E0.0574
G1 X-14.81 Y13.246 E0.081
G1 X-15.238 Y13.045 E0.10459
G1 X-15.626 Y12.775 E0.12818
G1 X-15.963 Y12.443 E0.15178
G1 X-16.239 Y12.06 E0.17533
G1 X-16.422 Y11.698 E0.19557
G1 X-16.914 Y10.519 E0.2593
G1 X-17.103 Y10.047 E0.28467
G1 X-18.209 Y7.505 E0.42297
G1 X-19.349 Y5.062 E0.55747
G1 X-19.509 Y4.617 E0.58107
G1 X-19.604 Y3.965 E0.61394
G1 X-19.611 Y3.696 E0.62736
G1 X-19.638 Y1.421 E0.74087
G1 X-19.747 Y-1.321 E0.87778
G1 X-19.935 Y-4.077 E1.01559
G1 X-19.974 Y-4.506 E1.03709
G1 X-20.038 Y-5.321 E1.07787
G1 X-20.045 Y-5.726 E1.09808
G1 X-19.992 Y-8.237 E1.22338
G1 X-19.994 Y-9.766 E1.29966
G1 X-20.002 Y-10.688 E1.34566
G1 X-19.96 Y-11.371 E1.3798
G1 X-19.787 Y-14.153 E1.51887
G1 X-19.752 Y-15.306 E1.57642
G1 X-19.743 Y-15.385 E1.58038
G1 X-19.69 Y-16.737 E1.64789
G1 X-19.632 Y-17.206 E1.67146
G1 X-19.495 Y-17.659 E1.69507
G1 X-19.124 Y-18.318 E1.7328
G1 X-17.409 Y-20.582 E1.8745
G1 X-15.801 Y-22.834 E2.01256
G1 X-14.285 Y-25.091 E2.1482
G1 X-12.814 Y-27.422 E2.28572
G1 X-11.679 Y-29.325 E2.39626
G1 X-11.398 Y-29.809 E2.42418
G1 X-11.127 Y-30.196 E2.44776
G1 X-10.658 Y-30.641 E2.48001
G1 X-9.961 Y-31.164 E2.52348
G1 X-9.122 Y-31.774 E2.57524
G1 X-8.585 Y-32.153 E2.60803
G1 X-8.177 Y-32.392 E2.63162
G1 X-7.734 Y-32.559 E2.65524
G1 X-7.018 Y-32.665 E2.69135
G1 X-6.143 Y-32.68 E2.73501
G1 X-5.231 Y-32.68 E2.78051
G1 X-4.521 Y-32.669 E2.81594
G1 X-4.129 Y-32.635 E2.83557
G1 X-3.531 Y-32.541 E2.86577
G1 X-1.892 Y-32.26 E2.94873
G1 X0.822 Y-31.874 E3.08549
G1 X3.55 Y-31.563 E3.22248
G1 X6.28 Y-31.33 E3.35917
G1 X9.088 Y-31.171 E3.49949
G1 X10.225 Y-31.123 E3.55626
G1 X10.618 Y-31.079 E3.57599
G1 X11.074 Y-30.955 E3.59957
G1 X11.722 Y-30.619 E3.63599
G1 X12.486 Y-30.083 E3.68255
G1 X13.102 Y-29.636 E3.72052
G1 X13.693 Y-29.194 E3.75734
G1 X14.046 Y-28.88 E3.78091
G1 X14.342 Y-28.511 E3.80451
G1 X14.605 Y-28.018 E3.83238
G1 X15.13 Y-26.743 E3.90118
G1 X16.234 Y-24.166 E4.04104
G1 X17.382 Y-21.684 E4.17748
G1 X18.078 Y-20.263 E4.25642
G1 X19.357 Y-17.792 E4.39523
G1 X20.456 Y-15.819 E4.5079
G1 X20.715 Y-15.342 E4.53498
G1 X21.024 Y-14.591 E4.5755
G1 X21.354 Y-13.626 E4.62638
G1 X21.477 Y-13.119 E4.65241
G1 X21.545 Y-12.389 E4.68899
G1 X21.56 Y-11.805 E4.71813
G1 X21.559 Y9.962 E5.80409
G1 X21.549 Y10.66 E5.83892
G1 X21.502 Y11.131 E5.86253
G1 X21.377 Y11.587 E5.88612
G1 X21.177 Y12.015 E5.90969
G1 X20.907 Y12.404 E5.93332
G1 X20.576 Y12.741 E5.95688
G1 X20.193 Y13.019 E5.98049
G1 X19.769 Y13.228 E6.00408
G1 X19.316 Y13.362 E6.02765
G1 X18.533 Y13.429 E6.06685
G1 X-12.674 Y13.431 E7.62378
G0 F1620 X-13.206 Y13.431
G0 F3600 X-13.2 Y13.031
G1 F1800 X-13.877 Y13.02 E7.65756
G1 X-14.312 Y12.973 E7.67938
G1 X-14.732 Y12.847 E7.70126
G1 X-15.121 Y12.648 E7.72306
G1 X-15.468 Y12.381 E7.7449
G1 X-15.761 Y12.056 E7.76673
G1 X-16.053 Y11.544 E7.79614
G1 X-16.543 Y10.37 E7.85961
G1 X-16.741 Y9.875 E7.88621
G1 X-17.844 Y7.339 E8.02418
G1 X-18.985 Y4.895 E8.15874
G1 X-19.131 Y4.482 E8.1806
G1 X-19.204 Y3.955 E8.20714
G1 X-19.211 Y3.691 E8.22032
G1 X-19.238 Y1.4 E8.33462
G1 X-19.348 Y-1.364 E8.47263
G1 X-19.535 Y-4.106 E8.60974
G1 X-19.576 Y-4.537 E8.63134
G1 X-19.64 Y-5.352 E8.67213
G1 X-19.645 Y-5.717 E8.69034
G1 X-19.592 Y-8.238 E8.81614
G1 X-19.594 Y-9.767 E8.89242
G1 X-19.602 Y-10.692 E8.93857
G1 X-19.387 Y-14.116 E9.10973
G1 X-19.352 Y-15.294 E9.16853
G1 X-19.343 Y-15.368 E9.17225
G1 X-19.29 Y-16.721 E9.2398
G1 X-19.233 Y-17.155 E9.26164
G1 X-19.098 Y-17.571 E9.28346
G1 X-18.805 Y-18.076 E9.31259
G1 X-17.08 Y-20.353 E9.45511
G1 X-15.487 Y-22.584 E9.59187
G1 X-13.958 Y-24.86 E9.72867
G1 X-12.454 Y-27.244 E9.8693
G1 X-11.349 Y-29.097 E9.97693
G1 X-11.052 Y-29.608 E10.00642
G1 X-10.798 Y-29.965 E10.02828
G1 X-10.418 Y-30.321 E10.05426
G1 X-9.726 Y-30.841 E10.09744
G1 X-8.891 Y-31.447 E10.14892
G1 X-8.354 Y-31.826 E10.18171
G1 X-7.975 Y-32.045 E10.20355
G1 X-7.562 Y-32.191 E10.2254
G1 X-7.011 Y-32.265 E10.25314
G1 X-6.136 Y-32.28 E10.2968
G1 X-5.237 Y-32.28 E10.34165
G1 X-4.527 Y-32.269 E10.37707
G1 X-4.191 Y-32.24 E10.3939
G1 X-3.599 Y-32.147 E10.4238
G1 X-1.95 Y-31.865 E10.50726
G1 X0.761 Y-31.478 E10.64388
G1 X3.538 Y-31.162 E10.78332
G1 X6.26 Y-30.93 E10.91962
G1 X9.032 Y-30.774 E11.05813
G1 X10.208 Y-30.724 E11.11685
G1 X10.546 Y-30.685 E11.13383
G1 X10.968 Y-30.568 E11.15568
G1 X11.492 Y-30.291 E11.18525
G1 X12.251 Y-29.76 E11.23146
G1 X12.862 Y-29.316 E11.26914
G1 X13.453 Y-28.874 E11.30596
G1 X13.779 Y-28.581 E11.32783
G1 X14.045 Y-28.234 E11.34964
G1 X14.235 Y-27.865 E11.37035
G1 X14.762 Y-26.585 E11.43941
G1 X15.862 Y-24.018 E11.57874
G1 X17.013 Y-21.529 E11.71555
G1 X17.736 Y-20.052 E11.79759
G1 X18.989 Y-17.631 E11.9336
G1 X20.104 Y-15.628 E12.04797
G1 X20.363 Y-15.151 E12.07505
G1 X20.65 Y-14.451 E12.11279
G1 X20.976 Y-13.497 E12.16309
G1 X21.11 Y-12.83 E12.19703
G1 X21.151 Y-12.263 E12.22539
G1 X21.16 Y-11.783 E12.24934
G1 X21.159 Y9.956 E13.33391
G1 X21.149 Y10.654 E13.36873
G1 X21.103 Y11.09 E13.39061
G1 X20.978 Y11.509 E13.41242
G1 X20.78 Y11.899 E13.43424
G1 X20.513 Y12.247 E13.45612
G1 X20.189 Y12.54 E13.47792
G1 X19.816 Y12.77 E13.49978
G1 X19.408 Y12.928 E13.52161
G1 X18.827 Y13.019 E13.55095
G1 X18.442 Y13.03 E13.57016
G1 X-12.668 Y13.031 E15.12225
G0 F1620 X-13.2 Y13.031
G0 F3600 X-13.193 Y12.631
G1 F1800 X-13.87 Y12.62 E15.15603
G1 X-14.267 Y12.573 E15.17597
G1 X-14.647 Y12.449 E15.19591
G1 X-14.994 Y12.252 E15.21582
G1 X-15.296 Y11.989 E15.2358
G1 X-15.539 Y11.672 E15.25573
G1 X-15.684 Y11.39 E15.27155
G1 X-16.171 Y10.221 E15.33473
G1 X-16.357 Y9.756 E15.35971
G1 X-17.473 Y7.19 E15.49932
G1 X-18.622 Y4.728 E15.63486
G1 X-18.752 Y4.35 E15.65481
G1 X-18.81 Y3.715 E15.68662
G1 X-18.838 Y1.37 E15.80362
G1 X-18.948 Y-1.371 E15.94048
G1 X-19.134 Y-4.113 E16.07759
G1 X-19.177 Y-4.568 E16.10039
G1 X-19.241 Y-5.383 E16.14118
G1 X-19.246 Y-5.709 E16.15745
G1 X-19.192 Y-8.283 E16.28589
G1 X-19.194 Y-9.767 E16.35993
G1 X-19.202 Y-10.695 E16.40623
G1 X-18.987 Y-14.11 E16.57694
G1 X-18.952 Y-15.282 E16.63544
G1 X-18.943 Y-15.35 E16.63886
G1 X-18.89 Y-16.705 E16.70651
G1 X-18.835 Y-17.101 E16.72646
G1 X-18.702 Y-17.478 E16.7464
G1 X-18.486 Y-17.835 E16.76722
G1 X-16.768 Y-20.102 E16.90913
G1 X-15.139 Y-22.385 E17.04905
G1 X-13.605 Y-24.67 E17.18636
G1 X-12.142 Y-26.988 E17.32311
G1 X-10.992 Y-28.916 E17.43511
G1 X-10.706 Y-29.407 E17.46346
G1 X-10.472 Y-29.731 E17.4834
G1 X-10.178 Y-30.001 E17.50331
G1 X-9.491 Y-30.517 E17.54618
G1 X-8.66 Y-31.12 E17.5974
G1 X-8.123 Y-31.499 E17.63019
G1 X-7.775 Y-31.696 E17.65014
G1 X-7.396 Y-31.819 E17.67002
G1 X-7.004 Y-31.865 E17.68971
G1 X-6.129 Y-31.88 E17.73337
G1 X-5.243 Y-31.88 E17.77758
G1 X-4.533 Y-31.869 E17.813
G1 X-4.254 Y-31.845 E17.82697
G1 X-3.666 Y-31.752 E17.85667
G1 X-2.031 Y-31.472 E17.93943
G1 X0.726 Y-31.079 E18.07837
G1 X3.46 Y-30.768 E18.21565
G1 X6.237 Y-30.531 E18.3547
G1 X9.043 Y-30.373 E18.49491
G1 X10.191 Y-30.324 E18.55224
G1 X10.475 Y-30.292 E18.5665
G1 X10.859 Y-30.181 E18.58644
G1 X11.263 Y-29.963 E18.60934
G1 X12.017 Y-29.436 E18.65524
G1 X12.623 Y-28.996 E18.6926
G1 X13.214 Y-28.554 E18.72942
G1 X13.508 Y-28.284 E18.74933
G1 X13.743 Y-27.96 E18.7693
G1 X13.865 Y-27.713 E18.78305
G1 X14.394 Y-26.428 E18.85237
G1 X15.495 Y-23.859 E18.99182
G1 X16.67 Y-21.317 E19.13153
G1 X17.356 Y-19.917 E19.20931
G1 X18.649 Y-17.419 E19.34964
G1 X19.753 Y-15.437 E19.46283
G1 X20.012 Y-14.96 E19.48991
G1 X20.275 Y-14.311 E19.52485
G1 X20.597 Y-13.368 E19.57456
G1 X20.711 Y-12.799 E19.60351
G1 X20.752 Y-12.248 E19.63108
G1 X20.76 Y-11.783 E19.65428
G1 X20.759 Y9.951 E20.73859
G1 X20.749 Y10.649 E20.77342
G1 X20.703 Y11.046 E20.79336
G1 X20.58 Y11.425 E20.81324
G1 X20.383 Y11.773 E20.83319
G1 X20.121 Y12.075 E20.85313
G1 X19.805 Y12.319 E20.87305
G1 X19.446 Y12.495 E20.893
G1 X18.814 Y12.619 E20.92513
G1 X18.442 Y12.63 E20.9437
G1 X-12.661 Y12.631 E22.49543
G0 F1620 X-13.193 Y12.631
G0 F3600 X-13.187 Y12.231
G1 F1800 X-13.864 Y12.22 E22.52921
G1 X-14.218 Y12.174 E22.54702
G1 X-14.554 Y12.051 E22.56487
G1 X-14.853 Y11.857 E22.58266
G1 X-15.102 Y11.601 E22.60047
G1 X-15.315 Y11.236 E22.62156
G1 X-15.8 Y10.072 E22.68447
G1 X-16 Y9.573 E22.71129
G1 X-17.101 Y7.041 E22.84904
G1 X-18.259 Y4.56 E22.98563
G1 X-18.371 Y4.221 E23.00345
G1 X-18.41 Y3.705 E23.02926
G1 X-18.437 Y1.411 E23.14372
G1 X-18.55 Y-1.416 E23.28487
G1 X-18.736 Y-4.151 E23.42164
G1 X-18.778 Y-4.6 E23.44413
G1 X-18.842 Y-5.415 E23.48492
G1 X-18.846 Y-5.701 E23.49919
G1 X-18.792 Y-8.275 E23.62764
G1 X-18.794 Y-9.768 E23.70212
G1 X-18.802 Y-10.698 E23.74852
G1 X-18.762 Y-11.297 E23.77847
G1 X-18.586 Y-14.119 E23.91954
G1 X-18.552 Y-15.27 E23.97698
G1 X-18.545 Y-15.323 E23.97965
G1 X-18.491 Y-16.69 E24.0479
G1 X-18.437 Y-17.043 E24.06572
G1 X-18.306 Y-17.375 E24.08353
G1 X-18.167 Y-17.593 E24.09643
G1 X-16.439 Y-19.874 E24.23919
G1 X-14.832 Y-22.125 E24.37718
G1 X-13.278 Y-24.439 E24.51624
G1 X-11.79 Y-26.796 E24.6553
G1 X-10.648 Y-28.711 E24.76654
G1 X-10.36 Y-29.206 E24.79511
G1 X-10.147 Y-29.493 E24.81295
G1 X-9.938 Y-29.682 E24.827
G1 X-9.255 Y-30.193 E24.86956
G1 X-8.43 Y-30.793 E24.92045
G1 X-7.893 Y-31.172 E24.95325
G1 X-7.58 Y-31.344 E24.97106
G1 X-7.236 Y-31.443 E24.98892
G1 X-6.997 Y-31.465 E25.0009
G1 X-6.122 Y-31.48 E25.04456
G1 X-5.249 Y-31.48 E25.08811
G1 X-4.539 Y-31.469 E25.12354
G1 X-4.316 Y-31.45 E25.1347
G1 X-3.734 Y-31.358 E25.1641
G1 X-2.089 Y-31.076 E25.24737
G1 X0.661 Y-30.684 E25.38595
G1 X3.452 Y-30.367 E25.52609
G1 X6.216 Y-30.131 E25.66449
G1 X8.998 Y-29.975 E25.8035
G1 X10.174 Y-29.925 E25.86222
G1 X10.745 Y-29.795 E25.89144
G1 X11.034 Y-29.635 E25.90792
G1 X11.782 Y-29.112 E25.95346
G1 X12.383 Y-28.675 E25.99053
G1 X12.974 Y-28.233 E26.02735
G1 X13.235 Y-27.989 E26.04517
G1 X13.496 Y-27.561 E26.07018
G1 X14.027 Y-26.27 E26.13983
G1 X15.136 Y-23.683 E26.28025
G1 X16.306 Y-21.152 E26.41936
G1 X17.001 Y-19.733 E26.49819
G1 X18.296 Y-17.232 E26.6387
G1 X19.401 Y-15.246 E26.75209
G1 X19.66 Y-14.769 E26.77917
G1 X19.9 Y-14.171 E26.81132
G1 X20.218 Y-13.239 E26.86045
G1 X20.312 Y-12.769 E26.88436
G1 X20.352 Y-12.234 E26.91112
G1 X20.36 Y-11.783 E26.93363
G1 X20.359 Y9.945 E28.01764
G1 X20.349 Y10.643 E28.05247
G1 X20.304 Y10.997 E28.07027
G1 X20.181 Y11.333 E28.08812
G1 X19.988 Y11.633 E28.10592
G1 X19.732 Y11.882 E28.12374
G1 X19.427 Y12.069 E28.14159
G1 X19.089 Y12.183 E28.15938
G1 X18.494 Y12.229 E28.18916
G1 X-12.655 Y12.231 E29.74319
G0 F1620 X-13.187 Y12.231
G0 F3600 X-13.18 Y11.831
G1 F1800 X-13.857 Y11.82 E29.77697
G1 X-14.163 Y11.775 E29.7924
G1 X-14.448 Y11.654 E29.80784
G1 X-14.692 Y11.463 E29.8233
G1 X-14.945 Y11.082 E29.84612
G1 X-15.429 Y9.923 E29.90878
G1 X-15.637 Y9.404 E29.93668
G1 X-16.738 Y6.872 E30.07442
G1 X-17.895 Y4.393 E30.21091
G1 X-18.005 Y3.923 E30.23499
G1 X-18.011 Y3.677 E30.24727
G1 X-18.038 Y1.361 E30.36282
G1 X-18.15 Y-1.432 E30.50228
G1 X-18.338 Y-4.188 E30.64009
G1 X-18.379 Y-4.631 E30.66229
G1 X-18.443 Y-5.446 E30.70308
G1 X-18.446 Y-5.692 E30.71535
G1 X-18.392 Y-8.266 E30.8438
G1 X-18.394 Y-9.768 E30.91873
G1 X-18.402 Y-10.702 E30.96533
G1 X-18.362 Y-11.288 E30.99463
G1 X-18.187 Y-14.094 E31.1349
G1 X-18.152 Y-15.258 E31.193
G1 X-18.145 Y-15.304 E31.19532
G1 X-18.091 Y-16.674 E31.26372
G1 X-18.039 Y-16.979 E31.27916
G1 X-17.848 Y-17.352 E31.30006
G1 X-16.128 Y-19.623 E31.44219
G1 X-14.488 Y-21.92 E31.583
G1 X-12.941 Y-24.224 E31.72145
G1 X-11.455 Y-26.578 E31.86034
G1 X-10.304 Y-28.506 E31.97236
G1 X-10.014 Y-29.005 E32.00116
G1 X-9.697 Y-29.362 E32.02498
G1 X-9.02 Y-29.87 E32.0672
G1 X-8.199 Y-30.466 E32.11782
G1 X-7.662 Y-30.845 E32.15061
G1 X-7.388 Y-30.99 E32.16608
G1 X-6.991 Y-31.065 E32.18623
G1 X-6.116 Y-31.08 E32.22989
G1 X-5.255 Y-31.08 E32.27285
G1 X-4.545 Y-31.069 E32.30828
G1 X-4.378 Y-31.054 E32.31664
G1 X-3.801 Y-30.964 E32.34578
G1 X-2.136 Y-30.679 E32.43005
G1 X0.627 Y-30.285 E32.56929
G1 X3.379 Y-29.972 E32.70747
G1 X6.193 Y-29.732 E32.84838
G1 X8.981 Y-29.575 E32.98769
G1 X10.157 Y-29.525 E33.04641
G1 X10.626 Y-29.411 E33.07049
G1 X10.805 Y-29.307 E33.08082
G1 X11.547 Y-28.788 E33.126
G1 X12.144 Y-28.355 E33.16279
G1 X12.735 Y-27.913 E33.19961
G1 X12.956 Y-27.697 E33.21503
G1 X13.126 Y-27.409 E33.23171
G1 X13.659 Y-26.113 E33.30162
G1 X14.769 Y-23.523 E33.44221
G1 X15.935 Y-21.002 E33.58078
G1 X16.646 Y-19.549 E33.66149
G1 X17.946 Y-17.038 E33.80255
G1 X19.05 Y-15.056 E33.91574
G1 X19.309 Y-14.579 E33.94282
G1 X19.525 Y-14.031 E33.97221
G1 X19.84 Y-13.11 E34.02077
G1 X19.914 Y-12.738 E34.03969
G1 X19.952 Y-12.219 E34.06565
G1 X19.96 Y-11.783 E34.08741
G1 X19.959 Y9.939 E35.17112
G1 X19.949 Y10.637 E35.20595
G1 X19.905 Y10.943 E35.22137
G1 X19.784 Y11.228 E35.23682
G1 X19.594 Y11.472 E35.25225
G1 X19.348 Y11.66 E35.2677
G1 X19.063 Y11.778 E35.28309
G1 X18.481 Y11.829 E35.31223
G1 X-12.648 Y11.831 E36.86527
G0 F1620 X-13.18 Y11.831
G1 F1500 E30.36527
G1 F600 Z1.3
G0 F3600 X-4.266 Y-25.605 Z1.3
G1 F600 Z0.3
G1 F1500 E36.86527
G1 F1800 X-5.52 Y-25.657 E36.92788
G1 X-6.086 Y-26.075 E36.96299
G1 X-6.127 Y-26.202 E36.96964
G1 X-6.091 Y-26.313 E36.97547
G1 X-5.861 Y-26.48 E36.98965
G1 X-5.2 Y-26.48 E37.02262
G1 X-4.862 Y-26.35 E37.04069
G1 X-4.182 Y-25.856 E37.08262
G1 X-4.139 Y-25.763 E37.08774
G0 F1620 X-4.109 Y-25.696
G0 X-4.266 Y-25.605
G0 F3600 X-4.019 Y-25.291
G1 F1800 X-4.145 Y-25.199 E37.09552
G1 X-5.615 Y-25.26 E37.16892
G1 X-5.676 Y-25.274 E37.17204
G1 X-6.426 Y-25.829 E37.21859
G1 X-6.547 Y-26.202 E37.23815
G1 X-6.43 Y-26.561 E37.25699
G1 X-5.991 Y-26.88 E37.28407
G1 X-5.123 Y-26.88 E37.32737
G1 X-4.671 Y-26.706 E37.35153
G1 X-3.855 Y-26.113 E37.40186
G1 X-3.557 Y-25.562 E37.43311
G1 X-3.56 Y-25.56 E37.43329
G0 F1620 X-4.019 Y-25.291
G0 F3600 X-4.022 Y-24.794
G1 F1800 X-5.677 Y-24.863 E37.51593
G1 X-5.846 Y-24.903 E37.5246
G1 X-6.768 Y-25.585 E37.58181
G1 X-6.968 Y-26.202 E37.61417
G1 X-6.772 Y-26.807 E37.6459
G1 X-6.12 Y-27.28 E37.68609
G1 X-5.05 Y-27.28 E37.73947
G1 X-4.478 Y-27.06 E37.77004
G1 X-3.531 Y-26.371 E37.82847
G1 X-3.392 Y-26.046 E37.84611
G1 X-3.144 Y-25.664 E37.86883
G1 X-2.877 Y-25.38 E37.88827
G1 X-3.431 Y-25.183 E37.91761
G1 X-3.578 Y-25.086 E37.9264
G0 F1620 X-4.022 Y-24.794
G0 F3600 X-3.548 Y-24.644
G1 F1800 X-3.899 Y-24.389 E37.94804
G1 X-5.728 Y-24.464 E38.03937
G1 X-6.02 Y-24.533 E38.05434
G1 X-7.107 Y-25.338 E38.12182
G1 X-7.388 Y-26.202 E38.16715
G1 X-7.111 Y-27.055 E38.21189
G1 X-6.25 Y-27.68 E38.26497
G1 X-4.976 Y-27.68 E38.32853
G1 X-4.284 Y-27.413 E38.36553
G1 X-3.202 Y-26.627 E38.43226
G1 X-3.023 Y-26.205 E38.45512
G1 X-2.787 Y-25.859 E38.47602
G1 X-2.489 Y-25.564 E38.49694
G1 X-2.14 Y-25.332 E38.51785
G1 X-1.754 Y-25.169 E38.53875
G1 X-1.382 Y-25.087 E38.55776
G1 X0.524 Y-24.839 E38.65365
G1 X1.052 Y-24.372 E38.68882
