;FLAVOR:Marlin
;TIME:1858
;Filament used: 1.8611m
;Layer height: 0.24
;MINX:-16.486
;MINY:-21.75
;MINZ:0.3
;MAXX:26.486
;MAXY:21.75
;MAXZ:5.1
;Generated with Cura_SteamEngine 4.13.1
M140 S50
M105
M190 S50
M104 S215
M105
M109 S215
M82 ;absolute extrusion mode
;FLAVOR:Marlin
M82 ;absolute extrusion mode
G21
G90
M82
M107 T0
G28
G92 E0
G0 E3 F200
G92 E0 ; reset extrusion distance
M106 S255 ; Enable cooling fan full speed
G1 X-98 Y0 Z0.4 F3000 ; move to arc start
G3 X0 Y-98 I98 Z0.4 E40 F400 ; lay arc stripe 90deg
G92 E0 ; reset extrusion distance
G4 P500 ; wait for 0.5 sec
G0 Z10 E-1 ; Lift 15mm and retract 1mm filament
G4 P2000 ; wait for 5 sec
G0 Z15
M107 ; Disable cooling fan
G1 X0 Y-85 Z4 E0 F3000 ; get off the bed
G92 E0
G92 E0
G1 F1500 E-6.5
;LAYER_COUNT:22
;LAYER:0
M106 S25.5
G1 F600 Z1.3
G0 F3600 X-13.5 Y3.007 Z1.3
;TYPE:SKIRT
G1 F600 Z0.3
G1 F1500 E0.3326
G1 F1200 X-13.5 Y-3.822 E0.76359
G1 X-13.846 Y-3.909 E0.7861
G1 X-14.295 Y-4.103 E0.81697
G1 X-14.707 Y-4.368 E0.84789
G1 X-15.121 Y-4.746 E0.88327
G1 X-15.438 Y-5.119 E0.91416
G1 X-15.69 Y-5.539 E0.94507
G1 X-15.87 Y-5.994 E0.97595
G1 X-15.974 Y-6.472 E1.00683
G1 X-16 Y-6.867 E1.03181
G1 X-16 Y-18.633 E1.77438
G1 X-15.96 Y-19.121 E1.80528
G1 X-15.841 Y-19.596 E1.83618
G1 X-15.647 Y-20.045 E1.86705
G1 X-15.382 Y-20.457 E1.89797
G1 X-15.004 Y-20.871 E1.93335
G1 X-14.631 Y-21.188 E1.96424
G1 X-14.211 Y-21.44 E1.99515
G1 X-13.756 Y-21.62 E2.02603
G1 X-13.278 Y-21.724 E2.05691
G1 X-12.883 Y-21.75 E2.08189
G1 X22.883 Y-21.75 E4.33912
G1 X23.371 Y-21.71 E4.37002
G1 X23.846 Y-21.591 E4.40093
G1 X24.295 Y-21.397 E4.4318
G1 X24.707 Y-21.132 E4.46271
G1 X25.121 Y-20.754 E4.49809
G1 X25.438 Y-20.381 E4.52898
G1 X25.69 Y-19.961 E4.5599
G1 X25.87 Y-19.506 E4.59078
G1 X25.974 Y-19.028 E4.62165
G1 X26 Y-18.633 E4.64663
G1 X26 Y-6.867 E5.3892
G1 X25.96 Y-6.379 E5.4201
G1 X25.841 Y-5.904 E5.451
G1 X25.647 Y-5.455 E5.48187
G1 X25.382 Y-5.043 E5.51279
G1 X25.004 Y-4.629 E5.54817
G1 X24.631 Y-4.312 E5.57906
G1 X24.211 Y-4.06 E5.60997
G1 X23.756 Y-3.88 E5.64086
G1 X23.5 Y-3.824 E5.65739
G1 X23.5 Y3.006 E6.08844
G1 X23.862 Y3.036 E6.11137
G1 X24.337 Y3.155 E6.14227
G1 X24.786 Y3.349 E6.17314
G1 X25.198 Y3.614 E6.20406
G1 X25.572 Y3.954 E6.23596
G1 X25.993 Y4.466 E6.27779
G1 X26.229 Y4.894 E6.30864
G1 X26.392 Y5.356 E6.33955
G1 X26.478 Y5.838 E6.37045
G1 X26.486 Y6.311 E6.40031
G1 X26.084 Y12.73 E6.80621
G1 X26.051 Y13.027 E6.82507
G1 X25.902 Y13.937 E6.88327
G1 X25.74 Y14.532 E6.92219
G1 X25.398 Y15.418 E6.98213
G1 X25.118 Y15.968 E7.02108
G1 X24.612 Y16.75 E7.07986
G1 X24.432 Y16.998 E7.0992
G1 X22.562 Y19.327 E7.2877
G1 X22.083 Y19.852 E7.33255
G1 X21.78 Y20.133 E7.35863
G1 X21.383 Y20.454 E7.39085
G1 X20.678 Y20.914 E7.44398
G1 X19.885 Y21.292 E7.49942
G1 X19.413 Y21.454 E7.53092
G1 X18.849 Y21.597 E7.56764
G1 X18.184 Y21.709 E7.6102
G1 X17.598 Y21.736 E7.64722
G1 X16.818 Y21.698 E7.6965
G1 X16.268 Y21.62 E7.73156
G1 X15.664 Y21.476 E7.77075
G1 X15.187 Y21.319 E7.80244
G1 X14.355 Y20.934 E7.8603
G1 X13.629 Y20.467 E7.91478
G1 X13.188 Y20.107 E7.95071
G1 X12.843 Y20.505 E7.98395
G1 X12.464 Y20.815 E8.01485
G1 X12.04 Y21.059 E8.04572
G1 X11.582 Y21.231 E8.0766
G1 X11.193 Y21.315 E8.10172
G1 X8.425 Y21.719 E8.27826
G1 X7.992 Y21.75 E8.30566
G1 X5.717 Y21.75 E8.44923
G1 X5.229 Y21.71 E8.48014
G1 X5.003 Y21.653 E8.49485
G1 X4.678 Y21.724 E8.51584
G1 X4.282 Y21.75 E8.54089
G1 X1.993 Y21.749 E8.68535
G1 X1.56 Y21.717 E8.71275
G1 X-1.194 Y21.314 E8.88841
G1 X-1.671 Y21.204 E8.9193
G1 X-2.124 Y21.018 E8.95021
G1 X-2.54 Y20.761 E8.98107
G1 X-2.909 Y20.439 E9.01198
G1 X-3.189 Y20.107 E9.03939
G1 X-3.36 Y20.249 E9.05341
G1 X-3.887 Y20.638 E9.09475
G1 X-4.358 Y20.922 E9.12946
G1 X-5.031 Y21.249 E9.17669
G1 X-5.582 Y21.456 E9.21383
G1 X-6.455 Y21.661 E9.27043
G1 X-7.325 Y21.743 E9.32558
G1 X-7.788 Y21.739 E9.3548
G1 X-8.304 Y21.69 E9.38751
G1 X-8.974 Y21.567 E9.4305
G1 X-9.514 Y21.414 E9.46592
G1 X-10.207 Y21.146 E9.51282
G1 X-10.71 Y20.897 E9.54824
G1 X-11.45 Y20.407 E9.60425
G1 X-12.117 Y19.818 E9.66041
G1 X-12.572 Y19.314 E9.70326
G1 X-14.435 Y16.996 E9.89095
G1 X-14.616 Y16.746 E9.91042
G1 X-15.108 Y15.985 E9.96761
G1 X-15.396 Y15.42 E10.00764
G1 X-15.741 Y14.528 E10.068
G1 X-15.905 Y13.925 E10.10744
G1 X-16.053 Y13.01 E10.16593
G1 X-16.085 Y12.718 E10.18447
G1 X-16.486 Y6.31 E10.58968
G1 X-16.477 Y5.821 E10.62055
G1 X-16.388 Y5.34 E10.65142
G1 X-16.222 Y4.879 E10.68234
G1 X-15.983 Y4.452 E10.71322
G1 X-15.572 Y3.954 E10.75397
G1 X-15.21 Y3.624 E10.78489
G1 X-14.8 Y3.357 E10.81577
G1 X-14.352 Y3.16 E10.84665
G1 X-13.878 Y3.039 E10.87753
G1 X-13.5 Y3.007 E10.90147
G0 F3600 X-13.686 Y3.415
G1 F1200 X-13.1 Y3.396 E10.93847
G1 X-13.1 Y-4.169 E11.41591
G1 X-13.337 Y-4.19 E11.43092
G1 X-13.777 Y-4.308 E11.45967
G1 X-14.189 Y-4.502 E11.48841
G1 X-14.721 Y-4.912 E11.5308
G1 X-15.131 Y-5.378 E11.56997
G1 X-15.358 Y-5.773 E11.59873
G1 X-15.513 Y-6.201 E11.62745
G1 X-15.6 Y-6.867 E11.66984
G1 X-15.6 Y-18.633 E12.41241
G1 X-15.56 Y-19.087 E12.44117
G1 X-15.442 Y-19.527 E12.46992
G1 X-15.248 Y-19.939 E12.49866
G1 X-14.838 Y-20.471 E12.54105
G1 X-14.372 Y-20.881 E12.58022
G1 X-13.977 Y-21.108 E12.60898
G1 X-13.549 Y-21.263 E12.6377
G1 X-12.883 Y-21.35 E12.68009
G1 X22.883 Y-21.35 E14.93733
G1 X23.337 Y-21.31 E14.96609
G1 X23.777 Y-21.192 E14.99484
G1 X24.189 Y-20.998 E15.02358
G1 X24.721 Y-20.588 E15.06597
G1 X25.131 Y-20.122 E15.10514
G1 X25.358 Y-19.727 E15.13389
G1 X25.513 Y-19.299 E15.16262
G1 X25.6 Y-18.633 E15.20501
G1 X25.6 Y-6.867 E15.94758
G1 X25.56 Y-6.413 E15.97634
G1 X25.442 Y-5.973 E16.00509
G1 X25.248 Y-5.561 E16.03383
G1 X24.838 Y-5.029 E16.07622
G1 X24.372 Y-4.619 E16.11539
G1 X23.977 Y-4.392 E16.14414
G1 X23.549 Y-4.237 E16.17287
G1 X23.1 Y-4.178 E16.20145
G1 X23.1 Y3.396 E16.67946
G1 X23.828 Y3.436 E16.72547
G1 X24.268 Y3.554 E16.75422
G1 X24.68 Y3.748 E16.78296
G1 X25.053 Y4.011 E16.81176
G1 X25.397 Y4.353 E16.84238
G1 X25.676 Y4.713 E16.87112
G1 X25.889 Y5.116 E16.89989
G1 X26.028 Y5.55 E16.92865
G1 X26.087 Y6.286 E16.97525
G1 X25.685 Y12.705 E17.38115
G1 X25.656 Y12.962 E17.39748
G1 X25.507 Y13.872 E17.45567
G1 X25.367 Y14.388 E17.48941
G1 X25.025 Y15.274 E17.54935
G1 X24.782 Y15.75 E17.58308
G1 X24.276 Y16.532 E17.64186
G1 X24.12 Y16.748 E17.65868
G1 X22.25 Y19.077 E17.84718
G1 X21.791 Y19.578 E17.89006
G1 X21.529 Y19.822 E17.91266
G1 X21.132 Y20.143 E17.94488
G1 X20.47 Y20.572 E17.99466
G1 X19.723 Y20.926 E18.04683
G1 X19.315 Y21.066 E18.07406
G1 X18.751 Y21.209 E18.11078
G1 X18.128 Y21.313 E18.15064
G1 X17.617 Y21.337 E18.18293
G1 X16.837 Y21.299 E18.23221
G1 X16.361 Y21.231 E18.26256
G1 X15.757 Y21.087 E18.30174
G1 X14.884 Y20.756 E18.36067
G1 X14.162 Y20.351 E18.41291
G1 X13.506 Y19.856 E18.46478
G1 X13.109 Y19.472 E18.49964
G1 X12.846 Y19.898 E18.53123
G1 X12.543 Y20.239 E18.56002
G1 X12.185 Y20.521 E18.58878
G1 X11.783 Y20.736 E18.61755
G1 X11.136 Y20.919 E18.65999
G1 X8.368 Y21.323 E18.83653
G1 X7.992 Y21.35 E18.86032
G1 X5.717 Y21.35 E19.0039
G1 X5.263 Y21.31 E19.03266
G1 X5.008 Y21.242 E19.04932
G1 X4.949 Y21.263 E19.05327
G1 X4.282 Y21.35 E19.09572
G1 X1.993 Y21.349 E19.24018
G1 X1.618 Y21.322 E19.26391
G1 X-1.136 Y20.919 E19.43957
G1 X-1.58 Y20.813 E19.46838
G1 X-1.998 Y20.632 E19.49713
G1 X-2.378 Y20.381 E19.52587
G1 X-2.846 Y19.898 E19.56831
G1 X-3.121 Y19.481 E19.59984
G1 X-3.598 Y19.927 E19.64105
G1 X-4.125 Y20.316 E19.68239
G1 X-4.533 Y20.563 E19.71249
G1 X-5.206 Y20.89 E19.75971
G1 X-5.686 Y21.069 E19.79205
G1 X-6.504 Y21.264 E19.84512
G1 X-7.321 Y21.343 E19.89692
G1 X-8.231 Y21.296 E19.95443
G1 X-8.901 Y21.173 E19.99742
G1 X-9.37 Y21.041 E20.02817
G1 X-10.063 Y20.773 E20.07506
G1 X-10.501 Y20.556 E20.10591
G1 X-11.194 Y20.099 E20.1583
G1 X-11.823 Y19.547 E20.21111
G1 X-12.261 Y19.064 E20.25226
G1 X-14.124 Y16.746 E20.43995
G1 X-14.28 Y16.529 E20.45681
G1 X-14.772 Y15.768 E20.51401
G1 X-15.023 Y15.276 E20.54886
G1 X-15.368 Y14.384 E20.60922
G1 X-15.51 Y13.861 E20.64342
G1 X-15.658 Y12.946 E20.70192
G1 X-15.686 Y12.693 E20.71799
G1 X-16.087 Y6.285 E21.12319
G1 X-16.075 Y5.83 E21.15192
G1 X-15.985 Y5.383 E21.1807
G1 X-15.817 Y4.96 E21.20942
G1 X-15.397 Y4.353 E21.256
G1 X-14.941 Y3.921 E21.29565
G1 X-14.554 Y3.679 E21.32445
G1 X-14.132 Y3.509 E21.35317
G1 X-13.686 Y3.415 E21.38193
G0 F3600 X-13.374 Y3.796
G1 F1200 X-12.7 Y3.796 E21.42447
G1 X-12.7 Y-4.55 E21.95119
G1 X-13.3 Y-4.59 E21.98915
G1 X-13.702 Y-4.708 E22.01559
G1 X-14.074 Y-4.901 E22.04204
G1 X-14.556 Y-5.311 E22.08197
G1 X-14.822 Y-5.635 E22.10843
G1 X-15.023 Y-6.002 E22.13484
G1 X-15.15 Y-6.402 E22.16132
G1 X-15.2 Y-6.867 E22.19084
G1 X-15.2 Y-18.633 E22.9334
G1 X-15.16 Y-19.05 E22.95984
G1 X-15.042 Y-19.452 E22.98628
G1 X-14.849 Y-19.824 E23.01273
G1 X-14.439 Y-20.306 E23.05267
G1 X-14.115 Y-20.572 E23.07912
G1 X-13.748 Y-20.773 E23.10553
G1 X-13.348 Y-20.9 E23.13202
G1 X-12.883 Y-20.95 E23.16153
G1 X22.883 Y-20.95 E25.41877
G1 X23.3 Y-20.91 E25.4452
G1 X23.702 Y-20.792 E25.47165
G1 X24.074 Y-20.599 E25.49809
G1 X24.556 Y-20.189 E25.53803
G1 X24.822 Y-19.865 E25.56449
G1 X25.023 Y-19.498 E25.59089
G1 X25.15 Y-19.098 E25.61738
G1 X25.2 Y-18.633 E25.6469
G1 X25.2 Y-6.867 E26.38946
G1 X25.16 Y-6.45 E26.4159
G1 X25.042 Y-6.048 E26.44234
G1 X24.849 Y-5.676 E26.46879
G1 X24.439 Y-5.194 E26.50873
G1 X24.115 Y-4.928 E26.53518
G1 X23.748 Y-4.727 E26.56159
G1 X23.348 Y-4.6 E26.58808
G1 X22.7 Y-4.55 E26.62909
G1 X22.7 Y3.796 E27.15582
G1 X23.374 Y3.796 E27.19836
G1 X23.791 Y3.836 E27.2248
G1 X24.193 Y3.954 E27.25124
G1 X24.565 Y4.147 E27.27769
G1 X24.986 Y4.499 E27.31232
G1 X25.358 Y4.958 E27.34961
G1 X25.545 Y5.333 E27.37605
G1 X25.658 Y5.737 E27.40253
G1 X25.688 Y6.261 E27.43565
G1 X25.286 Y12.68 E27.84156
G1 X25.261 Y12.897 E27.85534
G1 X25.112 Y13.807 E27.91354
G1 X24.993 Y14.244 E27.94212
G1 X24.651 Y15.13 E28.00206
G1 X24.446 Y15.533 E28.03059
G1 X23.94 Y16.315 E28.08938
G1 X23.808 Y16.497 E28.10357
G1 X21.938 Y18.826 E28.29207
G1 X21.499 Y19.305 E28.33307
G1 X21.277 Y19.511 E28.35219
G1 X20.88 Y19.832 E28.38441
G1 X20.263 Y20.23 E28.43075
G1 X19.562 Y20.56 E28.47964
G1 X19.217 Y20.679 E28.50268
G1 X18.653 Y20.822 E28.5394
G1 X18.071 Y20.917 E28.57661
G1 X17.637 Y20.937 E28.60403
G1 X16.857 Y20.899 E28.65332
G1 X16.454 Y20.842 E28.67901
G1 X15.85 Y20.698 E28.71819
G1 X15.041 Y20.388 E28.77287
G1 X14.368 Y20.008 E28.82165
G1 X13.756 Y19.544 E28.87012
G1 X13.2 Y18.987 E28.91979
G1 X12.995 Y18.736 E28.94024
G1 X12.861 Y19.124 E28.96614
G1 X12.525 Y19.66 E29.00607
G1 X12.244 Y19.97 E29.03248
G1 X11.909 Y20.222 E29.05893
G1 X11.532 Y20.406 E29.08541
G1 X11.078 Y20.523 E29.115
G1 X8.31 Y20.927 E29.29154
G1 X7.992 Y20.95 E29.31166
G1 X5.717 Y20.95 E29.45524
G1 X5.3 Y20.91 E29.48168
G1 X4.997 Y20.821 E29.50161
G1 X4.748 Y20.9 E29.51809
G1 X4.282 Y20.95 E29.54767
G1 X1.993 Y20.949 E29.69213
G1 X1.675 Y20.926 E29.71225
G1 X-1.079 Y20.523 E29.88791
G1 X-1.486 Y20.423 E29.91436
G1 X-1.866 Y20.248 E29.94077
G1 X-2.207 Y20.003 E29.96727
G1 X-2.624 Y19.527 E30.0072
G1 X-2.841 Y19.168 E30.03368
G1 X-2.995 Y18.722 E30.06346
G1 X-3.166 Y18.942 E30.08104
G1 X-3.517 Y19.32 E30.1136
G1 X-3.835 Y19.605 E30.14055
G1 X-4.362 Y19.994 E30.18189
G1 X-4.708 Y20.203 E30.2074
G1 X-5.381 Y20.53 E30.25462
G1 X-5.79 Y20.683 E30.28218
G1 X-6.554 Y20.867 E30.33177
G1 X-7.318 Y20.943 E30.38023
G1 X-8.159 Y20.903 E30.43337
G1 X-8.829 Y20.78 E30.47636
G1 X-9.226 Y20.668 E30.50239
G1 X-9.919 Y20.4 E30.54928
G1 X-10.683 Y19.975 E30.60446
G1 X-11.319 Y19.476 E30.65548
G1 X-11.851 Y18.927 E30.70372
G1 X-11.949 Y18.813 E30.71321
G1 X-13.812 Y16.495 E30.90089
G1 X-13.945 Y16.311 E30.91522
G1 X-14.437 Y15.55 E30.97241
G1 X-14.65 Y15.132 E31.00202
G1 X-14.995 Y14.24 E31.06238
G1 X-15.115 Y13.797 E31.09135
G1 X-15.263 Y12.882 E31.14984
G1 X-15.287 Y12.668 E31.16343
G1 X-15.688 Y6.26 E31.56864
G1 X-15.674 Y5.842 E31.59504
G1 X-15.581 Y5.433 E31.62151
G1 X-15.412 Y5.049 E31.64799
G1 X-15.104 Y4.626 E31.68101
G1 X-14.673 Y4.22 E31.71838
G1 X-14.312 Y4.006 E31.74486
G1 X-13.918 Y3.864 E31.77129
G1 X-13.374 Y3.796 E31.80589
G0 F3600 X-13.374 Y4.196
G1 F1200 X-12.3 Y4.196 E31.87368
G1 X-12.3 Y-4.95 E32.45089
G1 X-12.883 Y-4.95 E32.48768
G1 X-13.26 Y-4.99 E32.51161
G1 X-13.62 Y-5.108 E32.53552
G1 X-13.947 Y-5.298 E32.55939
G1 X-14.273 Y-5.594 E32.58718
G1 X-14.511 Y-5.889 E32.6111
G1 X-14.682 Y-6.227 E32.635
G1 X-14.779 Y-6.593 E32.6589
G1 X-14.8 Y-6.867 E32.67624
G1 X-14.8 Y-18.633 E33.41881
G1 X-14.76 Y-19.01 E33.44274
G1 X-14.642 Y-19.37 E33.46665
G1 X-14.452 Y-19.697 E33.49051
G1 X-14.156 Y-20.023 E33.5183
G1 X-13.861 Y-20.261 E33.54222
G1 X-13.523 Y-20.432 E33.56613
G1 X-13.157 Y-20.529 E33.59003
G1 X-12.883 Y-20.55 E33.60737
G1 X22.883 Y-20.55 E35.8646
G1 X23.26 Y-20.51 E35.88853
G1 X23.62 Y-20.392 E35.91244
G1 X23.947 Y-20.202 E35.93631
G1 X24.273 Y-19.906 E35.9641
G1 X24.511 Y-19.611 E35.98802
G1 X24.682 Y-19.273 E36.01192
G1 X24.779 Y-18.907 E36.03582
G1 X24.8 Y-18.633 E36.05316
G1 X24.8 Y-6.867 E36.79573
G1 X24.76 Y-6.49 E36.81965
G1 X24.642 Y-6.13 E36.84356
G1 X24.452 Y-5.803 E36.86743
G1 X24.156 Y-5.477 E36.89522
G1 X23.861 Y-5.239 E36.91914
G1 X23.523 Y-5.068 E36.94305
G1 X23.157 Y-4.971 E36.96694
G1 X22.883 Y-4.95 E36.98429
G1 X22.3 Y-4.95 E37.02108
G1 X22.3 Y4.196 E37.5983
G1 X23.374 Y4.196 E37.66608
G1 X23.751 Y4.236 E37.69
G1 X24.111 Y4.354 E37.71391
G1 X24.438 Y4.544 E37.73778
G1 X24.811 Y4.898 E37.77024
G1 X25.038 Y5.201 E37.79413
G1 X25.197 Y5.545 E37.81805
G1 X25.28 Y5.915 E37.84198
G1 X25.288 Y6.236 E37.86224
G1 X24.886 Y12.655 E38.26815
G1 X24.866 Y12.833 E38.27945
G1 X24.717 Y13.743 E38.33765
G1 X24.62 Y14.1 E38.36099
G1 X24.278 Y14.986 E38.42093
G1 X24.11 Y15.316 E38.4443
G1 X23.604 Y16.098 E38.50309
G1 X23.497 Y16.247 E38.51466
G1 X21.627 Y18.576 E38.70317
G1 X21.207 Y19.031 E38.74224
G1 X21.026 Y19.2 E38.75787
G1 X20.629 Y19.521 E38.79009
G1 X20.055 Y19.889 E38.83312
G1 X19.401 Y20.193 E38.87864
G1 X19.118 Y20.291 E38.89754
G1 X18.554 Y20.434 E38.93426
G1 X18.015 Y20.521 E38.96872
G1 X17.656 Y20.538 E38.9914
G1 X16.876 Y20.5 E39.04069
G1 X16.547 Y20.453 E39.06166
G1 X15.943 Y20.309 E39.10085
G1 X15.197 Y20.02 E39.15134
G1 X14.574 Y19.665 E39.19659
G1 X14.005 Y19.231 E39.24176
G1 X13.49 Y18.712 E39.2879
G1 X13.058 Y18.136 E39.33334
G1 X12.704 Y17.5 E39.37928
G1 X12.497 Y16.974 E39.41495
G1 X12.64 Y17.952 E39.47733
G1 X12.655 Y18.331 E39.50127
G1 X12.591 Y18.705 E39.52522
G1 X12.449 Y19.056 E39.54911
G1 X12.204 Y19.421 E39.57686
G1 X11.947 Y19.699 E39.60075
G1 X11.637 Y19.918 E39.6247
G1 X11.289 Y20.067 E39.64859
G1 X11.02 Y20.127 E39.66599
G1 X8.252 Y20.531 E39.84253
G1 X7.992 Y20.55 E39.85898
G1 X5.717 Y20.55 E40.00256
G1 X5.34 Y20.51 E40.02649
G1 X4.993 Y20.396 E40.04954
G1 X4.557 Y20.529 E40.07831
G1 X4.282 Y20.55 E40.09571
G1 X1.993 Y20.549 E40.24017
G1 X1.733 Y20.53 E40.25663
G1 X-1.021 Y20.127 E40.43229
G1 X-1.388 Y20.033 E40.4562
G1 X-1.727 Y19.864 E40.4801
G1 X-2.023 Y19.628 E40.50399
G1 X-2.303 Y19.288 E40.53179
G1 X-2.496 Y18.962 E40.5557
G1 X-2.616 Y18.602 E40.57965
G1 X-2.659 Y18.226 E40.60353
G1 X-2.64 Y17.952 E40.62087
G1 X-2.495 Y16.963 E40.68395
G1 X-2.74 Y17.551 E40.72415
G1 X-2.888 Y17.833 E40.74425
G1 X-3.264 Y18.418 E40.78814
G1 X-3.459 Y18.67 E40.80825
G1 X-3.81 Y19.048 E40.84081
G1 X-4.073 Y19.283 E40.86306
G1 X-4.6 Y19.672 E40.9044
G1 X-4.882 Y19.843 E40.92522
G1 X-5.555 Y20.17 E40.97244
G1 X-6.358 Y20.422 E41.02555
G1 X-7.076 Y20.529 E41.07137
G1 X-7.778 Y20.539 E41.11568
G1 X-8.087 Y20.509 E41.13527
G1 X-8.757 Y20.386 E41.17826
G1 X-9.081 Y20.295 E41.1995
G1 X-9.774 Y20.027 E41.24639
G1 X-10.474 Y19.634 E41.29706
