;FLAVOR:Marlin
;TIME:3959
;Filament used: 2.87711m
;Layer height: 0.2
;MINX:-17.8
;MINY:-78.204
;MINZ:0.3
;MAXX:17.8
;MAXY:0
;MAXZ:44.9
;TARGET_MACHINE.NAME:Unknown
;POSTPROCESSED
;  [CreateThumbnail]
;Generated with Cura_SteamEngine 5.11.0
;
;

M140 S65
M105
M190 S65
M104 S240
M105
M109 S240
;FLAVOR:Marlin
M82 ;absolute extrusion mode
G21
G90
M82
M107 T0
G28
G92 E0
G0 E3 F200
G92 E0 ; reset extrusion distance
M106 S255 ; Enable cooling fan full speed
G1 X-98 Y0 Z0.4 F3000 ; move to arc start
G3 X0 Y-98 I98 Z0.4 E40 F400 ; lay arc stripe 90deg
G92 E0 ; reset extrusion distance
G4 P500 ; wait for 0.5 sec
G0 Z10 E-1 ; Lift 15mm and retract 1mm filament
G4 P2000 ; wait for 5 sec
G0 Z15
M107 ; Disable cooling fan
G1 X0 Y-85 Z4 E0 F3000 ; get off the bed
M82 ;absolute extrusion mode
G92 E0
G92 E0
G1 F1500 E-6.5
;LAYER_COUNT:224
;LAYER:0
M107
G1 F600 Z2.3
G0 F3600 X0.00 Y0.00 Z2.3
G0 X-14.335 Y-42.603
;TYPE:SKIRT
G1 F600 Z0.3
G1 F1500 E0
G1 F1200 X-15.087 Y-42.617 E0.03002
G1 X-15.731 Y-42.711 E0.05599
G1 X-16.396 Y-42.988 E0.08475
G1 X-16.98 Y-43.442 E0.11427
G1 X-17.465 Y-44.077 E0.14616
G1 X-17.723 Y-44.793 E0.17654
G1 X-17.784 Y-45.204 E0.19312
G1 X-17.8 Y-74.784 E1.37372
G1 X-17.774 Y-75.625 E1.4073
G1 X-17.663 Y-76.213 E1.43119
G1 X-17.405 Y-76.811 E1.45718
G1 X-16.907 Y-77.452 E1.48958
G1 X-16.242 Y-77.902 E1.52163
G1 X-15.543 Y-78.137 E1.55106
G1 X-15.204 Y-78.188 E1.56474
G1 X14.335 Y-78.204 E2.74371
G1 X15.087 Y-78.19 E2.77373
G1 X15.731 Y-78.096 E2.7997
G1 X16.396 Y-77.819 E2.82845
G1 X16.98 Y-77.365 E2.85798
G1 X17.465 Y-76.73 E2.88987
G1 X17.723 Y-76.014 E2.92025
G1 X17.784 Y-75.604 E2.93679
G1 X17.8 Y-46.097 E4.11448
G1 X17.786 Y-45.316 E4.14565
G1 X17.692 Y-44.672 E4.17163
G1 X17.416 Y-44.01 E4.20026
G1 X16.975 Y-43.437 E4.22911
G1 X16.404 Y-42.995 E4.25793
G1 X15.751 Y-42.717 E4.28626
G1 X15.155 Y-42.617 E4.31038
G1 X-14.335 Y-42.603 E5.48739
G0 F3600 X-14.328 Y-43.003
G1 F1200 X-15.08 Y-43.017 E5.51741
G1 X-15.622 Y-43.099 E5.53929
G1 X-16.193 Y-43.337 E5.56398
G1 X-16.693 Y-43.725 E5.58924
G1 X-17.111 Y-44.273 E5.61675
G1 X-17.332 Y-44.887 E5.64279
G1 X-17.388 Y-45.263 E5.65796
G1 X-17.4 Y-74.772 E6.83573
G1 X-17.374 Y-75.613 E6.86931
G1 X-17.279 Y-76.095 E6.88892
G1 X-17.059 Y-76.605 E6.91109
G1 X-16.63 Y-77.157 E6.93899
G1 X-16.064 Y-77.54 E6.96627
G1 X-15.483 Y-77.741 E6.99081
G1 X-15.144 Y-77.792 E7.00449
G1 X14.328 Y-77.804 E8.18078
G1 X15.08 Y-77.79 E8.2108
G1 X15.622 Y-77.708 E8.23268
G1 X16.193 Y-77.47 E8.25737
G1 X16.693 Y-77.082 E8.28263
G1 X17.111 Y-76.534 E8.31014
G1 X17.332 Y-75.92 E8.33618
G1 X17.388 Y-75.545 E8.35132
G1 X17.4 Y-46.104 E9.52637
G1 X17.386 Y-45.323 E9.55755
G1 X17.304 Y-44.781 E9.57942
G1 X17.067 Y-44.213 E9.60399
G1 X16.689 Y-43.721 E9.62875
G1 X16.201 Y-43.343 E9.65339
G1 X15.64 Y-43.104 E9.67773
G1 X15.089 Y-43.012 E9.70002
G1 X-14.328 Y-43.003 E10.87412
G0 F3600 X-14.322 Y-43.403
G1 F1200 X-15.02 Y-43.413 E10.90198
G1 X-15.516 Y-43.488 E10.922
G1 X-15.99 Y-43.686 E10.9425
G1 X-16.407 Y-44.009 E10.96356
G1 X-16.756 Y-44.467 E10.98654
G1 X-16.941 Y-44.981 E11.00834
G1 X-16.992 Y-45.322 E11.0221
G1 X-17 Y-74.762 E12.19712
G1 X-16.98 Y-75.542 E12.22826
G1 X-16.907 Y-75.947 E12.24468
G1 X-16.743 Y-76.36 E12.26242
G1 X-16.353 Y-76.862 E12.28779
G1 X-15.884 Y-77.179 E12.31039
G1 X-15.423 Y-77.345 E12.32994
G1 X-15.084 Y-77.396 E12.34362
G1 X14.322 Y-77.404 E13.51728
G1 X15.02 Y-77.394 E13.54514
G1 X15.516 Y-77.319 E13.56516
G1 X15.99 Y-77.121 E13.58567
G1 X16.407 Y-76.798 E13.60672
G1 X16.756 Y-76.34 E13.6297
G1 X16.941 Y-75.826 E13.6515
G1 X16.992 Y-75.486 E13.66523
G1 X17 Y-46.11 E14.83769
G1 X16.99 Y-45.383 E14.8667
G1 X16.915 Y-44.887 E14.88673
G1 X16.717 Y-44.413 E14.90723
G1 X16.405 Y-44.006 E14.9277
G1 X15.998 Y-43.691 E14.94824
G1 X15.529 Y-43.491 E14.96859
G1 X15.023 Y-43.407 E14.98906
G1 X-14.322 Y-43.403 E16.16028
G0 F3600 X-14.316 Y-43.803
G1 F1200 X-15.014 Y-43.813 E16.18814
G1 X-15.371 Y-43.861 E16.20252
G1 X-15.755 Y-44.01 E16.21896
G1 X-16.089 Y-44.252 E16.23542
G1 X-16.401 Y-44.661 E16.25595
G1 X-16.545 Y-45.04 E16.27214
G1 X-16.596 Y-45.381 E16.2859
G1 X-16.6 Y-74.754 E17.45824
G1 X-16.586 Y-75.471 E17.48686
G1 X-16.513 Y-75.876 E17.50328
G1 X-16.392 Y-76.16 E17.51561
G1 X-16.077 Y-76.566 E17.53611
G1 X-15.742 Y-76.805 E17.55254
G1 X-15.363 Y-76.949 E17.56872
G1 X-15.024 Y-77 E17.5824
G1 X14.316 Y-77.004 E18.75343
G1 X15.014 Y-76.994 E18.78129
G1 X15.371 Y-76.946 E18.79566
G1 X15.755 Y-76.797 E18.8121
G1 X16.089 Y-76.555 E18.82857
G1 X16.401 Y-76.146 E18.8491
G1 X16.545 Y-75.767 E18.86528
G1 X16.596 Y-75.427 E18.879
G1 X16.6 Y-46.116 E20.04887
G1 X16.59 Y-45.389 E20.07789
G1 X16.542 Y-45.032 E20.09226
G1 X16.393 Y-44.648 E20.1087
G1 X16.152 Y-44.316 E20.12508
G1 X15.833 Y-44.055 E20.14153
G1 X15.458 Y-43.885 E20.15796
G1 X15.023 Y-43.807 E20.1756
G1 X-14.316 Y-43.803 E21.34658
G0 F3600 X-14.31 Y-44.203
G1 F1200 X-15.008 Y-44.213 E21.37444
G1 X-15.314 Y-44.257 E21.38678
G1 X-15.599 Y-44.378 E21.39914
G1 X-15.843 Y-44.568 E21.41148
G1 X-16.031 Y-44.814 E21.42384
G1 X-16.149 Y-45.099 E21.43615
G1 X-16.2 Y-45.44 E21.44991
G1 X-16.2 Y-74.748 E22.61966
G1 X-16.19 Y-75.413 E22.6462
G1 X-16.145 Y-75.719 E22.65855
G1 X-16.024 Y-76.003 E22.67087
G1 X-15.834 Y-76.248 E22.68324
G1 X-15.589 Y-76.435 E22.69554
G1 X-15.303 Y-76.553 E22.70789
G1 X-14.964 Y-76.604 E22.72157
G1 X14.31 Y-76.604 E23.88996
G1 X15.008 Y-76.594 E23.91782
G1 X15.314 Y-76.55 E23.93016
G1 X15.599 Y-76.429 E23.94252
G1 X15.843 Y-76.239 E23.95486
G1 X16.031 Y-75.993 E23.96722
G1 X16.149 Y-75.708 E23.97953
G1 X16.2 Y-75.368 E23.99325
G1 X16.2 Y-46.122 E25.16053
G1 X16.19 Y-45.395 E25.18954
G1 X16.146 Y-45.089 E25.20188
G1 X16.025 Y-44.805 E25.2142
G1 X15.836 Y-44.561 E25.22652
G1 X15.59 Y-44.373 E25.23888
G1 X15.304 Y-44.254 E25.25124
G1 X14.964 Y-44.203 E25.26497
G1 X-14.31 Y-44.203 E26.43335
G1 F1500 E19.93335
;MESH:K??rper1
G0 F3600 X-14.31 Y-45.833
G0 X14 Y-46.4
;TYPE:WALL-INNER
G1 F1500 E26.43335
G1 F1200 X14 Y-74.403 E27.55101
G1 X-14 Y-74.403 E28.66856
G1 X-14 Y-46.4 E29.78622
G1 X14 Y-46.4 E30.90376
G0 F3600 X14.4 Y-46
G1 F1200 X14.4 Y-74.803 E32.05335
G1 X-14.4 Y-74.803 E33.20282
G1 X-14.4 Y-46 E34.35241
G1 X14.4 Y-46 E35.50188
G0 F3600 X14.8 Y-45.6
;TYPE:WALL-OUTER
G1 F1200 X14.8 Y-75.203 E36.6834
G1 X-14.8 Y-75.203 E37.8648
G1 X-14.8 Y-45.6 E39.04632
G1 X14.8 Y-45.6 E40.22772
G0 F3600 X14.8 Y-45.8
G0 X14.12 Y-46.283
G0 X13.62 Y-46.78
;TYPE:SKIN
G1 F1200 X-13.62 Y-46.78 E41.31492
G1 X-13.62 Y-74.02 E42.40213
G1 X13.62 Y-74.02 E43.48934
G1 X13.62 Y-46.78 E44.57655
G0 F3600 X-13.42 Y-47.361
G1 F1200 X-13.039 Y-46.98 E44.59805
G0 F3600 X-12.473 Y-46.98
G1 F1200 X-13.42 Y-47.927 E44.6515
G0 F3600 X-13.42 Y-48.493
G1 F1200 X-11.908 Y-46.98 E44.73688
G0 F3600 X-11.342 Y-46.98
G1 F1200 X-13.42 Y-49.058 E44.85417
G0 F3600 X-13.42 Y-49.624
G1 F1200 X-10.776 Y-46.98 E45.00341
G0 F3600 X-10.211 Y-46.98
G1 F1200 X-13.42 Y-50.19 E45.18456
G0 F3600 X-13.42 Y-50.755
G1 F1200 X-9.645 Y-46.98 E45.39764
G0 F3600 X-9.079 Y-46.98
G1 F1200 X-13.42 Y-51.321 E45.64267
G0 F3600 X-13.42 Y-51.887
G1 F1200 X-8.514 Y-46.98 E45.91961
G0 F3600 X-7.948 Y-46.98
G1 F1200 X-13.42 Y-52.452 E46.22847
G0 F3600 X-13.42 Y-53.018
G1 F1200 X-7.382 Y-46.98 E46.56928
G0 F3600 X-6.817 Y-46.98
G1 F1200 X-13.42 Y-53.584 E46.94201
G0 F3600 X-13.42 Y-54.15
G1 F1200 X-6.251 Y-46.98 E47.34669
G0 F3600 X-5.685 Y-46.98
G1 F1200 X-13.42 Y-54.715 E47.78329
G0 F3600 X-13.42 Y-55.281
G1 F1200 X-5.119 Y-46.98 E48.25183
G0 F3600 X-4.554 Y-46.98
G1 F1200 X-13.42 Y-55.847 E48.7523
G0 F3600 X-13.42 Y-56.412
G1 F1200 X-3.988 Y-46.98 E49.28468
G0 F3600 X-3.422 Y-46.98
G1 F1200 X-13.42 Y-56.978 E49.84901
G0 F3600 X-13.42 Y-57.544
G1 F1200 X-2.857 Y-46.98 E50.44526
G0 F3600 X-2.291 Y-46.98
G1 F1200 X-13.42 Y-58.109 E51.07343
G0 F3600 X-13.42 Y-58.675
G1 F1200 X-1.725 Y-46.98 E51.73354
G0 F3600 X-1.16 Y-46.98
G1 F1200 X-13.42 Y-59.241 E52.42558
G0 F3600 X-13.42 Y-59.806
G1 F1200 X-.594 Y-46.98 E53.14953
G0 F3600 X-0.028 Y-46.98
G1 F1200 X-13.42 Y-60.372 E53.90544
G0 F3600 X-13.42 Y-60.938
G1 F1200 X0.537 Y-46.98 E54.69326
G0 F3600 X1.103 Y-46.98
G1 F1200 X-13.42 Y-61.503 E55.513
G0 F3600 X-13.42 Y-62.069
G1 F1200 X1.669 Y-46.98 E56.36469
G0 F3600 X2.234 Y-46.98
G1 F1200 X-13.42 Y-62.635 E57.2483
G0 F3600 X-13.42 Y-63.2
G1 F1200 X2.8 Y-46.98 E58.16382
G0 F3600 X3.366 Y-46.98
G1 F1200 X-13.42 Y-63.766 E59.1113
G0 F3600 X-13.42 Y-64.332
G1 F1200 X3.932 Y-46.98 E60.09072
G0 F3600 X4.497 Y-46.98
G1 F1200 X-13.42 Y-64.898 E61.10206
G0 F3600 X-13.42 Y-65.463
G1 F1200 X5.063 Y-46.98 E62.14532
G0 F3600 X5.629 Y-46.98
G1 F1200 X-13.42 Y-66.029 E63.22053
G0 F3600 X-13.42 Y-66.595
G1 F1200 X6.194 Y-46.98 E64.32765
G0 F3600 X6.76 Y-46.98
G1 F1200 X-13.42 Y-67.16 E65.4667
G0 F3600 X-13.42 Y-67.726
G1 F1200 X7.326 Y-46.98 E66.6377
G0 F3600 X7.891 Y-46.98
G1 F1200 X-13.42 Y-68.292 E67.84061
G0 F3600 X-13.42 Y-68.857
G1 F1200 X8.457 Y-46.98 E69.07544
G0 F3600 X9.023 Y-46.98
G1 F1200 X-13.42 Y-69.423 E70.34222
G0 F3600 X-13.42 Y-69.989
G1 F1200 X9.588 Y-46.98 E71.64092
G0 F3600 X10.154 Y-46.98
G1 F1200 X-13.42 Y-70.554 E72.97154
G0 F3600 X-13.42 Y-71.12
G1 F1200 X10.72 Y-46.98 E74.3341
G0 F3600 X11.285 Y-46.98
G1 F1200 X-13.42 Y-71.686 E75.72859
G0 F3600 X-13.42 Y-72.251
G1 F1200 X11.851 Y-46.98 E77.15499
G0 F3600 X12.417 Y-46.98
G1 F1200 X-13.42 Y-72.817 E78.61335
G0 F3600 X-13.42 Y-73.383
G1 F1200 X12.982 Y-46.98 E80.10362
G0 F3600 X13.42 Y-47.108
G1 F1200 X-13.291 Y-73.82 E81.61133
G0 F3600 X-12.726 Y-73.82
G1 F1200 X13.42 Y-47.674 E83.08712
G0 F3600 X13.42 Y-48.24
G1 F1200 X-12.16 Y-73.82 E84.53097
G0 F3600 X-11.594 Y-73.82
G1 F1200 X13.42 Y-48.805 E85.94289
G0 F3600 X13.42 Y-49.371
G1 F1200 X-11.029 Y-73.82 E87.3229
G0 F3600 X-10.463 Y-73.82
G1 F1200 X13.42 Y-49.937 E88.67096
G0 F3600 X13.42 Y-50.502
G1 F1200 X-9.897 Y-73.82 E89.9871
G0 F3600 X-9.332 Y-73.82
G1 F1200 X13.42 Y-51.068 E91.27132
G0 F3600 X13.42 Y-51.634
G1 F1200 X-8.766 Y-73.82 E92.5236
G0 F3600 X-8.2 Y-73.82
G1 F1200 X13.42 Y-52.199 E93.74395
G0 F3600 X13.42 Y-52.765
G1 F1200 X-7.635 Y-73.82 E94.93239
G0 F3600 X-7.069 Y-73.82
G1 F1200 X13.42 Y-53.331 E96.08887
G0 F3600 X13.42 Y-53.896
G1 F1200 X-6.503 Y-73.82 E97.21344
G0 F3600 X-5.938 Y-73.82
G1 F1200 X13.42 Y-54.462 E98.30609
G0 F3600 X13.42 Y-55.028
G1 F1200 X-5.372 Y-73.82 E99.36679
G0 F3600 X-4.806 Y-73.82
G1 F1200 X13.42 Y-55.593 E100.39558
G0 F3600 X13.42 Y-56.159
G1 F1200 X-4.241 Y-73.82 E101.39244
G0 F3600 X-3.675 Y-73.82
G1 F1200 X13.42 Y-56.725 E102.35735
G0 F3600 X13.42 Y-57.29
G1 F1200 X-3.109 Y-73.82 E103.29035
G0 F3600 X-2.543 Y-73.82
G1 F1200 X13.42 Y-57.856 E104.1914
G0 F3600 X13.42 Y-58.422
G1 F1200 X-1.978 Y-73.82 E105.06053
G0 F3600 X-1.412 Y-73.82
G1 F1200 X13.42 Y-58.988 E105.89771
G0 F3600 X13.42 Y-59.553
G1 F1200 X-.846 Y-73.82 E106.70297
G0 F3600 X-.281 Y-73.82
G1 F1200 X13.42 Y-60.119 E107.47632
G0 F3600 X13.42 Y-60.685
G1 F1200 X0.285 Y-73.82 E108.21771
G0 F3600 X0.851 Y-73.82
G1 F1200 X13.42 Y-61.25 E108.92719
G0 F3600 X13.42 Y-61.816
G1 F1200 X1.416 Y-73.82 E109.60475
G0 F3600 X1.982 Y-73.82
G1 F1200 X13.42 Y-62.382 E110.25036
G0 F3600 X13.42 Y-62.947
G1 F1200 X2.548 Y-73.82 E110.86405
G0 F3600 X3.113 Y-73.82
G1 F1200 X13.42 Y-63.513 E111.44582
G0 F3600 X13.42 Y-64.079
G1 F1200 X3.679 Y-73.82 E111.99565
G0 F3600 X4.245 Y-73.82
G1 F1200 X13.42 Y-64.644 E112.51355
G0 F3600 X13.42 Y-65.21
G1 F1200 X4.81 Y-73.82 E112.99954
G0 F3600 X5.376 Y-73.82
G1 F1200 X13.42 Y-65.776 E113.45357
G0 F3600 X13.42 Y-66.341
G1 F1200 X5.942 Y-73.82 E113.87569
G0 F3600 X6.508 Y-73.82
G1 F1200 X13.42 Y-66.907 E114.26586
G0 F3600 X13.42 Y-67.473
G1 F1200 X7.073 Y-73.82 E114.62412
G0 F3600 X7.639 Y-73.82
G1 F1200 X13.42 Y-68.039 E114.95042
G0 F3600 X13.42 Y-68.604
G1 F1200 X8.205 Y-73.82 E115.24481
G0 F3600 X8.77 Y-73.82
G1 F1200 X13.42 Y-69.17 E115.50727
G0 F3600 X13.42 Y-69.736
G1 F1200 X9.336 Y-73.82 E115.73779
G0 F3600 X9.902 Y-73.82
M104 S235
G1 F1200 X13.42 Y-70.301 E115.93639
G0 F3600 X13.42 Y-70.867
G1 F1200 X10.467 Y-73.82 E116.10307
G0 F3600 X11.033 Y-73.82
G1 F1200 X13.42 Y-71.433 E116.2378
G0 F3600 X13.42 Y-71.998
G1 F1200 X11.599 Y-73.82 E116.34062
G0 F3600 X12.164 Y-73.82
G1 F1200 X13.42 Y-72.564 E116.41151
G0 F3600 X13.42 Y-73.13
G1 F1200 X12.73 Y-73.82 E116.45046
G0 F3600 X13.296 Y-73.82
G1 F1200 X13.42 Y-73.695 E116.45748
G1 F1500 E109.95748
;MESH:NONMESH
G0 F600 X13.42 Y-73.695 Z0.5
G0 F3600 X-14.31 Y-45.833
G0 X-14.31 Y-44.203
;TIME_ELAPSED:153.363016
;LAYER:1
M106 S255
;TYPE:SKIRT
G1 F1500 E116.45748
G1 F1200 X-15.008 Y-44.213 E116.4807
G1 X-15.314 Y-44.257 E116.49099
G1 X-15.599 Y-44.378 E116.50128
G1 X-15.843 Y-44.568 E116.51157
G1 X-16.031 Y-44.814 E116.52187
G1 X-16.149 Y-45.099 E116.53213
G1 X-16.2 Y-45.44 E116.54359
G1 X-16.2 Y-74.748 E117.51838
G1 X-16.19 Y-75.413 E117.5405
G1 X-16.145 Y-75.719 E117.55079
G1 X-16.024 Y-76.003 E117.56106
G1 X-15.834 Y-76.248 E117.57137
G1 X-15.589 Y-76.435 E117.58162
G1 X-15.303 Y-76.553 E117.59191
G1 X-14.964 Y-76.604 E117.60331
G1 X14.31 Y-76.604 E118.57697
G1 X15.008 Y-76.594 E118.60019
G1 X15.314 Y-76.55 E118.61047
G1 X15.599 Y-76.429 E118.62077
G1 X15.843 Y-76.239 E118.63105
G1 X16.031 Y-75.993 E118.64135
G1 X16.149 Y-75.708 E118.65161
G1 X16.2 Y-75.368 E118.66305
G1 X16.2 Y-46.122 E119.63577
G1 X16.19 Y-45.395 E119.65995
G1 X16.146 Y-45.089 E119.67024
G1 X16.025 Y-44.805 E119.6805
G1 X15.836 Y-44.561 E119.69077
G1 X15.59 Y-44.373 E119.70107
G1 X15.304 Y-44.254 E119.71137
G1 X14.964 Y-44.203 E119.7228
G1 X-14.31 Y-44.203 E120.69646
G1 F1500 E114.19646
;MESH:K??rper1
G0 F5400 X-14.31 Y-45.833
G0 X14 Y-46.4
;TYPE:WALL-INNER
G1 F1500 E120.69646
G1 F1800 X14 Y-74.403 E121.62785
G1 X-14 Y-74.403 E122.55913
G1 X-14 Y-46.4 E123.49051
G1 X14 Y-46.4 E124.4218
G0 F5400 X14.4 Y-46
G1 F1800 X14.4 Y-74.803 E125.37979
G1 X-14.4 Y-74.803 E126.33768
G1 X-14.4 Y-46 E127.29567
G1 X14.4 Y-46 E128.25356
G0 F5400 X14.8 Y-45.6
;TYPE:WALL-OUTER
G1 F1200 X14.8 Y-75.203 E129.23816
G1 X-14.8 Y-75.203 E130.22266
G1 X-14.8 Y-45.6 E131.20726
G1 X14.8 Y-45.6 E132.19176
G0 F5400 X14.8 Y-45.8
G0 X14.12 Y-46.283
G0 X13.62 Y-46.78
;TYPE:SKIN
G1 F1200 X-13.62 Y-46.78 E133.09777
G1 X-13.62 Y-74.02 E134.00378
G1 X13.62 Y-74.02 E134.90978
G1 X13.62 Y-46.78 E135.81579
G0 F5400 X13.039 Y-46.98
G1 F1200 X13.419 Y-47.361 E135.83369
G0 F5400 X13.419 Y-47.926
G1 F1200 X12.473 Y-46.98 E135.87818
G0 F5400 X11.908 Y-46.98
G1 F1200 X13.419 Y-48.492 E135.94928
G0 F5400 X13.419 Y-49.058
G1 F1200 X11.342 Y-46.98 E136.047
G0 F5400 X10.776 Y-46.98
G1 F1200 X13.419 Y-49.623 E136.17132
G0 F5400 X13.419 Y-50.189
G1 F1200 X10.211 Y-46.98 E136.32223
G0 F5400 X9.645 Y-46.98
G1 F1200 X13.419 Y-50.755 E136.49978
G0 F5400 X13.419 Y-51.32
G1 F1200 X9.079 Y-46.98 E136.70392
G0 F5400 X8.514 Y-46.98
G1 F1200 X13.419 Y-51.886 E136.93466
G0 F5400 X13.419 Y-52.452
G1 F1200 X7.948 Y-46.98 E137.19202
G0 F5400 X7.382 Y-46.98
G1 F1200 X13.419 Y-53.017 E137.47598
G0 F5400 X13.419 Y-53.583
G1 F1200 X6.817 Y-46.98 E137.78654
G0 F5400 X6.251 Y-46.98
G1 F1200 X13.419 Y-54.149 E138.12373
G0 F5400 X13.419 Y-54.715
G1 F1200 X5.685 Y-46.98 E138.48753
G0 F5400 X5.119 Y-46.98
G1 F1200 X13.419 Y-55.28 E138.87794
G0 F5400 X13.419 Y-55.846
G1 F1200 X4.554 Y-46.98 E139.29495
G0 F5400 X3.988 Y-46.98
G1 F1200 X13.419 Y-56.412 E139.73857
G0 F5400 X13.419 Y-56.977
G1 F1200 X3.422 Y-46.98 E140.2088
G0 F5400 X2.857 Y-46.98
G1 F1200 X13.419 Y-57.543 E140.70563
G0 F5400 X13.419 Y-58.109
G1 F1200 X2.291 Y-46.98 E141.22908
G0 F5400 X1.725 Y-46.98
G1 F1200 X13.419 Y-58.674 E141.77913
