;FLAVOR:Marlin
;TIME:7017
;Filament used: 4.95316m
;Layer height: 0.2
;MINX:-67.86
;MINY:-62.272
;MINZ:0.3
;MAXX:74.827
;MAXY:53.491
;MAXZ:5.1
;TARGET_MACHINE.NAME:Unknown
;POSTPROCESSED
;  [CreateThumbnail]
;Generated with Cura_SteamEngine 5.11.0
;
;

M140 S65
M105
M190 S65
M104 S240
M105
M109 S240
;FLAVOR:Marlin
M82 ;absolute extrusion mode
G21
G90
M82
M107 T0
G28
G92 E0
G0 E3 F200
G92 E0 ; reset extrusion distance
M106 S255 ; Enable cooling fan full speed
G1 X-98 Y0 Z0.4 F3000 ; move to arc start
G3 X0 Y-98 I98 Z0.4 E40 F400 ; lay arc stripe 90deg
G92 E0 ; reset extrusion distance
G4 P500 ; wait for 0.5 sec
G0 Z10 E-1 ; Lift 15mm and retract 1mm filament
G4 P2000 ; wait for 5 sec
G0 Z15
M107 ; Disable cooling fan
G1 X0 Y-85 Z4 E0 F3000 ; get off the bed
M82 ;absolute extrusion mode
G92 E0
G92 E0
G1 F1500 E-6.5
;LAYER_COUNT:19
;LAYER:0
M107
G1 F600 Z2.3
G0 F3600 X0.00 Y0.00 Z2.3
G0 X-20.155 Y44.15
;TYPE:SKIRT
G1 F600 Z0.3
G1 F1500 E0
G1 F1200 X-22.653 Y43.054 E0.10887
G1 X-25.273 Y41.989 E0.22175
G1 X-27.834 Y41.031 E0.33089
G1 X-30.383 Y40.157 E0.43844
G1 X-33.043 Y39.331 E0.5496
G1 X-35.679 Y38.592 E0.65887
G1 X-38.321 Y37.933 E0.76755
G1 X-41.057 Y37.331 E0.87936
G1 X-43.745 Y36.818 E0.98858
G1 X-46.425 Y36.389 E1.09691
G1 X-49.205 Y36.02 E1.20883
G1 X-51.906 Y35.741 E1.31721
G1 X-54.633 Y35.535 E1.42636
G1 X-57.426 Y35.404 E1.53796
G1 X-60.617 Y35.351 E1.66534
G1 X-61.961 Y35.351 E1.71898
G1 X-62.827 Y35.332 E1.75355
G1 X-63.709 Y35.246 E1.78892
G1 X-64.763 Y34.908 E1.8331
G1 X-65.68 Y34.38 E1.87533
G1 X-66.296 Y33.902 E1.90645
G1 X-67.001 Y33.05 E1.95059
G1 X-67.449 Y32.154 E1.99057
G1 X-67.733 Y31.276 E2.0274
G1 X-67.855 Y30.173 E2.07169
G1 X-67.86 Y-41.167 E4.91903
G1 X-67.848 Y-41.901 E4.94832
G1 X-67.77 Y-42.697 E4.98025
G1 X-67.559 Y-43.604 E5.01741
G1 X-67.043 Y-44.687 E5.06529
G1 X-66.337 Y-45.549 E5.10977
G1 X-65.557 Y-46.186 E5.14996
G1 X-64.681 Y-46.637 E5.18928
G1 X-63.639 Y-46.925 E5.23243
G1 X-62.615 Y-47.045 E5.27358
G1 X-59.94 Y-47.046 E5.38035
G1 X-57.172 Y-47.086 E5.49083
G1 X-54.378 Y-47.204 E5.60245
G1 X-51.647 Y-47.398 E5.71172
G1 X-48.943 Y-47.666 E5.82017
G1 X-46.172 Y-48.02 E5.93167
G1 X-43.477 Y-48.443 E6.04055
G1 X-40.792 Y-48.944 E6.14956
G1 X-38.107 Y-49.522 E6.25918
G1 X-35.41 Y-50.183 E6.37001
G1 X-32.732 Y-50.916 E6.48083
G1 X-30.182 Y-51.7 E6.58731
G1 X-27.516 Y-52.599 E6.6996
G1 X-24.989 Y-53.53 E6.80708
G1 X-22.414 Y-54.566 E6.91786
G1 X-19.869 Y-55.673 E7.02863
G1 X-17.393 Y-56.833 E7.13776
G1 X-14.947 Y-58.065 E7.24707
G1 X-12.498 Y-59.388 E7.35817
G1 X-8.834 Y-61.531 E7.52758
G1 X-8.192 Y-61.863 E7.55643
G1 X-7.145 Y-62.152 E7.59978
G1 X-6.119 Y-62.272 E7.64101
G1 X65.124 Y-62.272 E10.48447
G1 X65.918 Y-62.259 E10.51617
G1 X66.666 Y-62.186 E10.54616
G1 X67.599 Y-61.969 E10.58439
G1 X68.74 Y-61.424 E10.63486
G1 X69.671 Y-60.587 E10.68483
G1 X70.175 Y-59.964 E10.71681
G1 X70.612 Y-59.124 E10.75461
G1 X70.896 Y-58.126 E10.79602
G1 X71.03 Y-57.033 E10.83997
G1 X71.031 Y-21.259 E12.26779
G1 X71.071 Y-18.532 E12.37664
G1 X71.189 Y-15.738 E12.48825
G1 X71.379 Y-13.039 E12.59624
G1 X71.651 Y-10.303 E12.70598
G1 X72.003 Y-7.554 E12.8166
G1 X72.424 Y-4.852 E12.92574
G1 X72.926 Y-2.155 E13.03523
G1 X73.496 Y0.49 E13.14322
G1 X74.513 Y4.521 E13.30915
G1 X74.675 Y5.111 E13.33357
G1 X74.826 Y6.333 E13.38271
G1 X74.827 Y47.585 E15.02917
G1 X74.813 Y48.404 E15.06186
G1 X74.748 Y49.082 E15.08905
G1 X74.525 Y50.054 E15.12885
G1 X74.017 Y51.119 E15.17594
G1 X73.359 Y51.934 E15.21775
G1 X72.55 Y52.613 E15.2599
G1 X71.67 Y53.074 E15.29956
G1 X70.695 Y53.351 E15.34001
G1 X69.538 Y53.491 E15.38652
G1 X-1.668 Y53.49 E18.22851
G1 X-2.531 Y53.471 E18.26296
G1 X-3.365 Y53.39 E18.29641
G1 X-4.468 Y53.036 E18.34264
G1 X-5.127 Y52.698 E18.3722
G1 X-8.109 Y50.724 E18.51493
G1 X-10.454 Y49.268 E18.6251
G1 X-12.857 Y47.868 E18.7361
G1 X-15.275 Y46.549 E18.84603
G1 X-17.692 Y45.318 E18.95429
G1 X-20.155 Y44.15 E19.06309
G0 F3600 X-19.994 Y43.784
G1 F1200 X-22.502 Y42.683 E19.17241
G1 X-25.122 Y41.618 E19.28529
G1 X-27.694 Y40.656 E19.39489
G1 X-30.264 Y39.775 E19.50332
G1 X-32.924 Y38.949 E19.61449
G1 X-35.582 Y38.204 E19.72466
G1 X-38.235 Y37.542 E19.8338
G1 X-40.971 Y36.94 E19.94561
G1 X-43.67 Y36.425 E20.05527
G1 X-46.372 Y35.992 E20.16449
G1 X-49.152 Y35.623 E20.27642
G1 X-51.871 Y35.342 E20.38552
G1 X-54.614 Y35.135 E20.49531
G1 X-57.407 Y35.004 E20.60691
G1 X-60.61 Y34.951 E20.73477
G1 X-61.952 Y34.951 E20.78833
G1 X-62.818 Y34.932 E20.8229
G1 X-63.627 Y34.852 E20.85535
G1 X-64.603 Y34.539 E20.89625
G1 X-65.435 Y34.064 E20.93449
G1 X-66.016 Y33.613 E20.96385
G1 X-66.664 Y32.83 E21.00441
G1 X-67.068 Y32.031 E21.04015
G1 X-67.339 Y31.192 E21.07534
G1 X-67.457 Y30.129 E21.11802
G1 X-67.46 Y-41.16 E23.96332
G1 X-67.448 Y-41.894 E23.99262
G1 X-67.38 Y-42.606 E24.02117
G1 X-67.178 Y-43.474 E24.05674
G1 X-66.702 Y-44.473 E24.10091
G1 X-66.056 Y-45.262 E24.1416
G1 X-65.335 Y-45.85 E24.17874
G1 X-64.537 Y-46.262 E24.21458
G1 X-63.533 Y-46.539 E24.25615
G1 X-62.615 Y-46.645 E24.29303
G1 X-59.934 Y-46.646 E24.40004
G1 X-57.155 Y-46.686 E24.51097
G1 X-54.361 Y-46.804 E24.62258
G1 X-51.616 Y-46.999 E24.73241
G1 X-48.892 Y-47.269 E24.84167
G1 X-46.121 Y-47.623 E24.95316
G1 X-43.415 Y-48.048 E25.06249
G1 X-40.706 Y-48.553 E25.17247
G1 X-38.012 Y-49.133 E25.28246
G1 X-35.315 Y-49.794 E25.39329
G1 X-32.626 Y-50.531 E25.50457
G1 X-30.054 Y-51.321 E25.61196
G1 X-27.388 Y-52.22 E25.72425
G1 X-24.84 Y-53.159 E25.83263
G1 X-22.254 Y-54.199 E25.94388
G1 X-19.709 Y-55.306 E26.05465
G1 X-17.223 Y-56.471 E26.16423
G1 X-14.757 Y-57.713 E26.27443
G1 X-12.308 Y-59.036 E26.38552
G1 X-8.65 Y-61.176 E26.55467
G1 X-8.048 Y-61.487 E26.58172
G1 X-7.038 Y-61.766 E26.62354
G1 X-6.119 Y-61.872 E26.66046
G1 X65.117 Y-61.872 E29.50364
G1 X65.911 Y-61.859 E29.53534
G1 X66.575 Y-61.796 E29.56196
G1 X67.468 Y-61.588 E29.59855
G1 X68.517 Y-61.087 E29.64495
G1 X69.36 Y-60.335 E29.69004
G1 X69.84 Y-59.742 E29.72049
G1 X70.237 Y-58.978 E29.75485
G1 X70.511 Y-58.016 E29.79478
G1 X70.63 Y-57.033 E29.8343
G1 X70.631 Y-21.259 E31.26211
G1 X70.671 Y-18.515 E31.37164
G1 X70.789 Y-15.721 E31.48326
G1 X70.981 Y-12.999 E31.59217
G1 X71.254 Y-10.252 E31.70235
G1 X71.606 Y-7.503 E31.81296
G1 X72.031 Y-4.779 E31.923
G1 X72.535 Y-2.071 E32.03294
G1 X73.108 Y0.588 E32.1415
G1 X74.127 Y4.627 E32.30775
G1 X74.289 Y5.217 E32.33217
G1 X74.426 Y6.333 E32.37705
G1 X74.427 Y47.578 E34.02323
G1 X74.413 Y48.397 E34.05592
G1 X74.358 Y48.992 E34.07977
G1 X74.144 Y49.923 E34.1179
G1 X73.676 Y50.905 E34.16131
G1 X73.072 Y51.653 E34.19969
G1 X72.327 Y52.278 E34.2385
G1 X71.522 Y52.7 E34.27477
G1 X70.586 Y52.966 E34.31361
G1 X69.538 Y53.091 E34.35574
G1 X-1.659 Y53.09 E37.19736
G1 X-2.522 Y53.071 E37.23182
G1 X-3.281 Y52.996 E37.26226
G1 X-4.285 Y52.68 E37.30427
G1 X-4.944 Y52.342 E37.33383
G1 X-7.898 Y50.384 E37.47527
G1 X-10.243 Y48.928 E37.58544
G1 X-12.656 Y47.522 E37.69691
G1 X-15.083 Y46.198 E37.80725
G1 X-17.51 Y44.962 E37.91595
G1 X-19.994 Y43.784 E38.02568
G0 F3600 X-19.833 Y43.418
G1 F1200 X-22.351 Y42.312 E38.13545
G1 X-24.971 Y41.247 E38.24832
G1 X-27.554 Y40.281 E38.35839
G1 X-30.145 Y39.393 E38.46771
G1 X-32.805 Y38.567 E38.57888
G1 X-35.485 Y37.816 E38.68996
G1 X-38.149 Y37.151 E38.79955
G1 X-40.885 Y36.549 E38.91136
G1 X-43.595 Y36.032 E39.02147
G1 X-46.319 Y35.595 E39.13158
G1 X-49.099 Y35.226 E39.24351
G1 X-51.836 Y34.943 E39.35334
G1 X-54.595 Y34.735 E39.46377
G1 X-57.388 Y34.604 E39.57536
G1 X-60.603 Y34.551 E39.7037
G1 X-61.944 Y34.551 E39.75722
G1 X-62.779 Y34.534 E39.79055
G1 X-63.545 Y34.458 E39.82128
G1 X-64.442 Y34.171 E39.85887
G1 X-65.19 Y33.748 E39.89316
G1 X-65.736 Y33.324 E39.92075
G1 X-66.326 Y32.611 E39.95769
G1 X-66.687 Y31.908 E39.98923
G1 X-66.945 Y31.108 E40.02278
G1 X-67.059 Y30.085 E40.06386
G1 X-67.06 Y-41.153 E42.90713
G1 X-67.048 Y-41.887 E42.93643
G1 X-66.99 Y-42.515 E42.9616
G1 X-66.797 Y-43.344 E42.99557
G1 X-66.362 Y-44.257 E43.03593
G1 X-65.772 Y-44.977 E43.07309
G1 X-65.112 Y-45.516 E43.1071
G1 X-64.395 Y-45.886 E43.1393
G1 X-63.427 Y-46.153 E43.17938
G1 X-62.615 Y-46.245 E43.21199
G1 X-59.928 Y-46.246 E43.31924
G1 X-57.138 Y-46.286 E43.4306
G1 X-54.344 Y-46.404 E43.54222
G1 X-51.585 Y-46.6 E43.65261
G1 X-48.841 Y-46.872 E43.76267
G1 X-46.07 Y-47.226 E43.87416
G1 X-43.353 Y-47.653 E43.98394
G1 X-40.62 Y-48.162 E44.09489
G1 X-37.917 Y-48.744 E44.20525
G1 X-35.22 Y-49.405 E44.31608
G1 X-32.52 Y-50.146 E44.42782
G1 X-29.926 Y-50.942 E44.53612
G1 X-27.26 Y-51.841 E44.64841
G1 X-24.691 Y-52.788 E44.75769
G1 X-22.094 Y-53.832 E44.86941
G1 X-19.549 Y-54.939 E44.98018
G1 X-17.053 Y-56.109 E45.0902
G1 X-14.567 Y-57.361 E45.20129
G1 X-12.118 Y-58.684 E45.31239
G1 X-8.466 Y-60.821 E45.48127
G1 X-7.903 Y-61.112 E45.50656
G1 X-6.932 Y-61.38 E45.54677
G1 X-6.119 Y-61.472 E45.57942
G1 X65.11 Y-61.472 E48.42233
G1 X65.904 Y-61.459 E48.45402
G1 X66.484 Y-61.406 E48.47727
G1 X67.337 Y-61.207 E48.51223
G1 X68.292 Y-60.751 E48.55446
G1 X69.049 Y-60.083 E48.59476
G1 X69.503 Y-59.522 E48.62356
G1 X69.863 Y-58.83 E48.6547
G1 X70.126 Y-57.906 E48.69304
G1 X70.23 Y-57.033 E48.72813
G1 X70.231 Y-21.259 E50.15595
G1 X70.271 Y-18.498 E50.26616
G1 X70.389 Y-15.704 E50.37777
G1 X70.583 Y-12.959 E50.4876
G1 X70.857 Y-10.201 E50.59822
G1 X71.209 Y-7.452 E50.70884
G1 X71.638 Y-4.706 E50.81976
G1 X72.144 Y-1.987 E50.93015
G1 X72.72 Y0.686 E51.03928
G1 X73.741 Y4.733 E51.20587
G1 X73.903 Y5.323 E51.23029
G1 X74.026 Y6.333 E51.2709
G1 X74.027 Y47.571 E52.9168
G1 X74.014 Y48.363 E52.94841
G1 X73.968 Y48.902 E52.97
G1 X73.763 Y49.792 E53.00645
G1 X73.335 Y50.691 E53.04619
G1 X72.788 Y51.369 E53.08096
G1 X72.101 Y51.945 E53.11674
G1 X71.374 Y52.326 E53.1495
G1 X70.477 Y52.581 E53.18672
G1 X69.538 Y52.691 E53.22446
G1 X-1.651 Y52.69 E56.06576
G1 X-2.483 Y52.673 E56.09898
G1 X-3.201 Y52.602 E56.12777
G1 X-4.104 Y52.324 E56.16548
G1 X-4.723 Y52.009 E56.1932
G1 X-7.687 Y50.044 E56.33514
G1 X-10.032 Y48.588 E56.44531
G1 X-12.455 Y47.176 E56.55724
G1 X-14.891 Y45.847 E56.66799
G1 X-17.328 Y44.606 E56.77714
G1 X-19.833 Y43.418 E56.8878
G0 F3600 X-19.672 Y43.052
G1 F1200 X-22.2 Y41.941 E56.99801
G1 X-24.82 Y40.876 E57.11089
G1 X-27.414 Y39.906 E57.22142
G1 X-30.026 Y39.011 E57.33162
G1 X-32.686 Y38.185 E57.44279
G1 X-35.388 Y37.428 E57.55478
G1 X-38.063 Y36.76 E57.66483
G1 X-40.799 Y36.158 E57.77664
G1 X-43.52 Y35.639 E57.8872
G1 X-46.266 Y35.198 E57.9982
G1 X-49.046 Y34.829 E58.11013
G1 X-51.801 Y34.544 E58.22068
G1 X-54.576 Y34.335 E58.33175
G1 X-57.369 Y34.204 E58.44334
G1 X-60.596 Y34.151 E58.57216
G1 X-61.937 Y34.151 E58.62568
G1 X-62.739 Y34.136 E58.65769
G1 X-63.463 Y34.064 E58.68673
G1 X-64.282 Y33.802 E58.72105
G1 X-64.945 Y33.432 E58.75136
G1 X-65.456 Y33.035 E58.77718
G1 X-65.989 Y32.391 E58.81055
G1 X-66.331 Y31.725 E58.84043
G1 X-66.551 Y31.028 E58.8696
G1 X-66.661 Y30.041 E58.90924
G1 X-66.66 Y-41.147 E61.75051
G1 X-66.649 Y-41.853 E61.77869
G1 X-66.6 Y-42.425 E61.8016
G1 X-66.417 Y-43.213 E61.83389
G1 X-66.022 Y-44.041 E61.8705
G1 X-65.488 Y-44.692 E61.90411
G1 X-64.89 Y-45.181 E61.93494
G1 X-64.249 Y-45.512 E61.96373
G1 X-63.381 Y-45.756 E61.99972
G1 X-62.615 Y-45.845 E62.0305
G1 X-59.922 Y-45.846 E62.13798
G1 X-57.121 Y-45.886 E62.24979
G1 X-54.327 Y-46.004 E62.3614
G1 X-51.554 Y-46.201 E62.47236
G1 X-48.79 Y-46.475 E62.58321
G1 X-46.019 Y-46.829 E62.69471
G1 X-43.291 Y-47.258 E62.80493
G1 X-40.534 Y-47.771 E62.91685
G1 X-37.822 Y-48.355 E63.02758
G1 X-35.125 Y-49.016 E63.13841
G1 X-32.414 Y-49.761 E63.25062
G1 X-29.798 Y-50.563 E63.35983
G1 X-27.132 Y-51.462 E63.47212
G1 X-24.542 Y-52.417 E63.58229
G1 X-21.934 Y-53.465 E63.69448
G1 X-19.389 Y-54.572 E63.80525
G1 X-16.883 Y-55.747 E63.91571
G1 X-14.377 Y-57.009 E64.0277
G1 X-11.928 Y-58.332 E64.1388
G1 X-8.282 Y-60.466 E64.30741
G1 X-7.756 Y-60.738 E64.33104
G1 X-6.886 Y-60.983 E64.36712
G1 X-6.119 Y-61.072 E64.39794
G1 X65.104 Y-61.072 E67.2406
G1 X65.87 Y-61.06 E67.27118
G1 X66.393 Y-61.016 E67.29212
G1 X67.206 Y-60.826 E67.32545
G1 X68.067 Y-60.415 E67.36353
G1 X68.738 Y-59.831 E67.39903
G1 X69.168 Y-59.3 E67.4263
G1 X69.489 Y-58.682 E67.4541
G1 X69.729 Y-57.857 E67.48839
G1 X69.83 Y-57.033 E67.52152
G1 X69.831 Y-21.259 E68.94934
G1 X69.871 Y-18.481 E69.06023
G1 X69.989 Y-15.687 E69.17184
G1 X70.185 Y-12.919 E69.28259
G1 X70.46 Y-10.15 E69.39365
G1 X70.812 Y-7.401 E69.50427
G1 X71.245 Y-4.633 E69.61609
G1 X71.753 Y-1.903 E69.72692
G1 X72.332 Y0.784 E69.83663
G1 X73.355 Y4.839 E70.00354
G1 X73.517 Y5.429 E70.02796
G1 X73.626 Y6.333 E70.0643
G1 X73.627 Y47.565 E71.70996
G1 X73.615 Y48.329 E71.74046
G1 X73.569 Y48.868 E71.76205
G1 X73.383 Y49.659 E71.79448
G1 X72.994 Y50.477 E71.83063
G1 X72.504 Y51.085 E71.8618
G1 X71.875 Y51.612 E71.89455
G1 X71.226 Y51.952 E71.92379
G1 X70.368 Y52.196 E71.95939
G1 X69.538 Y52.291 E71.99274
G1 X-1.644 Y52.29 E74.83376
G1 X-2.444 Y52.275 E74.8657
G1 X-3.122 Y52.208 E74.89289
G1 X-3.924 Y51.967 E74.92632
G1 X-4.502 Y51.676 E74.95214
G1 X-7.476 Y49.704 E75.09457
G1 X-9.821 Y48.248 E75.20473
G1 X-12.254 Y46.83 E75.31713
G1 X-14.699 Y45.496 E75.42829
G1 X-17.146 Y44.25 E75.53789
G1 X-19.672 Y43.052 E75.64947
G0 F3600 X-19.511 Y42.686
G1 F1200 X-22.049 Y41.57 E75.76013
G1 X-24.669 Y40.505 E75.87301
G1 X-27.274 Y39.531 E75.98401
G1 X-29.907 Y38.629 E76.0951
G1 X-32.567 Y37.803 E76.20626
G1 X-35.291 Y37.04 E76.31917
G1 X-37.977 Y36.369 E76.42967
G1 X-40.713 Y35.767 E76.54148
G1 X-43.453 Y35.245 E76.6528
G1 X-46.213 Y34.801 E76.76438
G1 X-48.993 Y34.432 E76.87631
G1 X-51.766 Y34.145 E76.98757
G1 X-54.557 Y33.935 E77.09928
G1 X-57.35 Y33.804 E77.21088
G1 X-60.589 Y33.751 E77.34017
G1 X-61.93 Y33.751 E77.3937
G1 X-62.699 Y33.738 E77.42439
G1 X-63.381 Y33.67 E77.45175
G1 X-64.124 Y33.433 E77.48288
G1 X-64.7 Y33.116 E77.50912
G1 X-65.176 Y32.746 E77.53318
G1 X-65.652 Y32.171 E77.56297
G1 X-65.975 Y31.542 E77.59119
G1 X-66.158 Y30.945 E77.61611
G1 X-66.261 Y30.041 E77.65243
G1 X-66.26 Y-41.141 E80.49346
G1 X-66.25 Y-41.822 E80.52064
G1 X-66.21 Y-42.335 E80.54118
G1 X-66.037 Y-43.082 E80.57178
G1 X-65.682 Y-43.825 E80.60465
G1 X-65.204 Y-44.407 E80.6347
G1 X-64.666 Y-44.847 E80.66244
G1 X-64.102 Y-45.138 E80.68777
G1 X-63.333 Y-45.359 E80.71971
G1 X-62.615 Y-45.445 E80.74857
G1 X-59.916 Y-45.446 E80.85629
G1 X-57.104 Y-45.486 E80.96854
G1 X-54.31 Y-45.604 E81.08015
G1 X-51.519 Y-45.802 E81.19183
G1 X-48.739 Y-46.078 E81.30333
G1 X-45.968 Y-46.432 E81.41482
G1 X-43.229 Y-46.863 E81.52549
G1 X-40.448 Y-47.38 E81.63839
G1 X-37.727 Y-47.966 E81.74948
G1 X-35.03 Y-48.627 E81.86031
G1 X-32.308 Y-49.376 E81.97298
G1 X-29.67 Y-50.184 E82.0831
G1 X-27.004 Y-51.083 E82.19539
G1 X-24.393 Y-52.046 E82.30647
G1 X-21.774 Y-53.098 E82.41911
G1 X-19.229 Y-54.205 E82.52988
G1 X-16.713 Y-55.385 E82.6408
G1 X-14.187 Y-56.657 E82.75368
G1 X-11.738 Y-57.98 E82.86477
G1 X-8.098 Y-60.111 E83.03312
G1 X-7.607 Y-60.365 E83.05518
G1 X-6.838 Y-60.586 E83.08712
G1 X-6.119 Y-60.672 E83.11602
G1 X65.098 Y-60.672 E85.95844
G1 X65.836 Y-60.661 E85.9879
G1 X66.359 Y-60.617 E86.00885
G1 X67.073 Y-60.446 E86.03815
G1 X67.845 Y-60.078 E86.07229
G1 X68.427 Y-59.579 E86.10288
G1 X68.833 Y-59.078 E86.12862
G1 X69.116 Y-58.533 E86.15313
G1 X69.345 Y-57.745 E86.18588
G1 X69.43 Y-57.033 E86.2145
G1 X69.431 Y-21.259 E87.64232
G1 X69.471 Y-18.464 E87.75389
G1 X69.589 Y-15.67 E87.8655
G1 X69.787 Y-12.879 E87.97718
G1 X70.063 Y-10.099 E88.08868
G1 X70.415 Y-7.35 E88.19929
G1 X70.852 Y-4.56 E88.312
G1 X71.362 Y-1.819 E88.42328
G1 X71.944 Y0.882 E88.53356
G1 X72.969 Y4.945 E88.7008
G1 X73.131 Y5.535 E88.72522
G1 X73.226 Y6.333 E88.7573
