;FLAVOR:Marlin
;TIME:9235
;Filament used: 7.32048m
;Layer height: 0.24
;MINX:-33.439
;MINY:-69.696
;MINZ:0.3
;MAXX:44.527
;MAXY:-8.858
;MAXZ:36.78
;TARGET_MACHINE.NAME:Unknown
;Generated with Cura_SteamEngine 5.8.1
M104 S228
M105
M109 S228
M82 ;absolute extrusion mode
;FLAVOR:Marlin
M82 ;absolute extrusion mode
G21
G90
M82
M107 T0
G28
G92 E0
G0 E3 F200
G92 E0 ; reset extrusion distance
M106 S255 ; Enable cooling fan full speed
G1 X-98 Y0 Z0.4 F3000 ; move to arc start
G3 X0 Y-98 I98 Z0.4 E40 F400 ; lay arc stripe 90deg
G92 E0 ; reset extrusion distance
G4 P500 ; wait for 0.5 sec
G0 Z10 E-1 ; Lift 15mm and retract 1mm filament
G4 P2000 ; wait for 5 sec
G0 Z15
M107 ; Disable cooling fan
G1 X0 Y-85 Z4 E0 F3000 ; get off the bed
G92 E0
G92 E0
G1 F1500 E-6.5
;LAYER_COUNT:153
;LAYER:0
M106 S51
G1 F600 Z1.3
G0 F4800 X-2.41 Y-9.405 Z1.3
;TYPE:SKIRT
G1 F600 Z0.3
G1 F1500 E0.54048
G1 F1200 X-3.68 Y-9.026 E0.6066
G1 X-4.766 Y-8.865 E0.66137
G1 X-5.998 Y-8.858 E0.72284
G1 X-7.05 Y-8.998 E0.77578
G1 X-8.381 Y-9.381 E0.84488
G1 X-9.304 Y-9.798 E0.89541
G1 X-10.106 Y-10.284 E0.9422
G1 X-11.281 Y-11.26 E1.0184
G1 X-12.08 Y-12.175 E1.07901
G1 X-12.512 Y-12.815 E1.11753
G1 X-13.732 Y-14.925 E1.23913
G1 X-14.842 Y-15.382 E1.29902
G1 X-15.597 Y-15.907 E1.3449
G1 X-16.017 Y-16.405 E1.3774
G1 X-23.837 Y-29.927 E2.1567
G1 X-24.115 Y-30.803 E2.20256
G1 X-24.142 Y-31.521 E2.2384
G1 X-23.988 Y-32.694 E2.29743
G1 X-28.076 Y-39.769 E2.70508
G1 X-28.311 Y-40.553 E2.74592
G1 X-28.553 Y-40.613 E2.75836
G1 X-29.318 Y-40.983 E2.80075
G1 X-29.87 Y-41.536 E2.83973
G1 X-30.386 Y-42.248 E2.8836
G1 X-30.705 Y-42.55 E2.90552
G1 X-31.336 Y-43.029 E2.94504
G1 X-32.159 Y-43.841 E3.00272
G1 X-33.172 Y-45.589 E3.10352
G1 X-33.439 Y-46.788 E3.1648
G1 X-33.392 Y-47.855 E3.21809
G1 X-33.04 Y-49.023 E3.27895
G1 X-32.486 Y-49.861 E3.32906
G1 X-31.723 Y-50.615 E3.38258
G1 X-30.119 Y-51.535 E3.47483
G1 X-29.082 Y-51.834 E3.52868
G1 X-28.576 Y-51.898 E3.55412
G1 X-27.828 Y-51.911 E3.59145
G1 X-27.4 Y-51.954 E3.61291
G1 X-26.489 Y-52.264 E3.66092
G1 X-3.147 Y-65.752 E5.00589
G1 X-2.726 Y-66.105 E5.0333
G1 X-2.444 Y-66.43 E5.05477
G1 X-1.821 Y-67.475 E5.11547
G1 X-.977 Y-68.372 E5.17692
G1 X0.676 Y-69.322 E5.27203
G1 X1.707 Y-69.646 E5.32595
G1 X2.715 Y-69.69 E5.37629
G1 X3.903 Y-69.448 E5.43677
G1 X4.969 Y-68.862 E5.49746
G1 X5.816 Y-68.056 E5.5558
G1 X6.644 Y-66.62 E5.63849
G1 X7.078 Y-65.543 E5.69642
G1 X7.222 Y-64.087 E5.76942
G1 X7.393 Y-63.443 E5.80266
G1 X16.902 Y-68.925 E6.35026
G1 X17.628 Y-69.251 E6.38996
G1 X19.085 Y-69.634 E6.46512
G1 X20.109 Y-69.696 E6.5163
G1 X21.316 Y-69.598 E6.57672
G1 X22.58 Y-69.212 E6.64266
G1 X23.377 Y-68.828 E6.68679
G1 X24.483 Y-68.073 E6.7536
G1 X25.297 Y-67.22 E6.81243
G1 X25.937 Y-66.317 E6.86764
G1 X26.201 Y-65.859 E6.89402
G1 X26.558 Y-65.316 E6.92644
G1 X26.952 Y-64.85 E6.95688
G1 X27.382 Y-64.45 E6.98618
G1 X27.872 Y-64.091 E7.01649
G1 X28.386 Y-63.803 E7.04588
G1 X28.91 Y-63.584 E7.07422
G1 X29.499 Y-63.417 E7.10476
G1 X30.059 Y-63.328 E7.13305
G1 X30.678 Y-63.306 E7.16395
G1 X31.254 Y-63.35 E7.19277
G1 X31.857 Y-63.473 E7.22348
G1 X32.428 Y-63.66 E7.25345
G1 X33.314 Y-64.041 E7.30157
G1 X33.587 Y-64.106 E7.31557
G1 X33.62 Y-64.313 E7.32603
G1 X33.823 Y-64.918 E7.35786
G1 X34.428 Y-65.777 E7.41028
G1 X35.214 Y-66.31 E7.45766
G1 X35.995 Y-66.646 E7.50008
G1 X37.262 Y-67.367 E7.57281
G1 X38.194 Y-67.64 E7.62126
G1 X40.314 Y-67.639 E7.72703
G1 X41.801 Y-67.105 E7.80585
G1 X42.48 Y-66.699 E7.84532
G1 X43.553 Y-65.633 E7.92078
G1 X43.872 Y-65.119 E7.95096
G1 X44.389 Y-63.904 E8.01684
G1 X44.527 Y-62.851 E8.06982
G1 X44.515 Y-61.278 E8.1483
G1 X44.316 Y-60.443 E8.19113
G1 X44.168 Y-60.081 E8.21064
G1 X43.675 Y-59.421 E8.25174
G1 X42.958 Y-58.876 E8.29667
G1 X42.241 Y-58.6 E8.335
G1 X41.538 Y-58.515 E8.37033
G1 X41.538 Y-28.168 E9.88434
G1 X41.356 Y-27.278 E9.92967
G1 X40.958 Y-26.523 E9.97225
G1 X40.789 Y-26.303 E9.98609
G1 X40.171 Y-25.805 E10.02568
G1 X39.375 Y-25.409 E10.07004
G1 X38.596 Y-25.295 E10.10932
G1 X35.915 Y-25.291 E10.24307
G1 X35.025 Y-25.473 E10.28839
G1 X34.27 Y-25.871 E10.33097
G1 X34.05 Y-26.04 E10.34482
G1 X33.552 Y-26.658 E10.38441
G1 X33.156 Y-27.454 E10.42877
G1 X33.042 Y-28.233 E10.46805
G1 X33.038 Y-29.763 E10.54438
G1 X-1.496 Y-9.828 E12.53374
G1 X-2.41 Y-9.405 E12.58399
G0 F4800 X-2.526 Y-9.788
G1 F1200 X-3.739 Y-9.422 E12.6472
G1 X-4.825 Y-9.261 E12.70197
G1 X-5.945 Y-9.255 E12.75785
G1 X-6.997 Y-9.395 E12.8108
G1 X-8.216 Y-9.746 E12.87408
G1 X-9.139 Y-10.163 E12.92461
G1 X-9.851 Y-10.592 E12.96609
G1 X-10.98 Y-11.524 E13.03912
G1 X-11.748 Y-12.399 E13.09721
G1 X-12.18 Y-13.039 E13.13573
G1 X-13.454 Y-15.243 E13.26274
G1 X-14.652 Y-15.736 E13.32737
G1 X-15.323 Y-16.203 E13.36816
G1 X-15.711 Y-16.663 E13.39818
G1 X-23.469 Y-30.089 E14.17179
G1 X-23.717 Y-30.87 E14.21267
G1 X-23.745 Y-31.469 E14.24259
G1 X-23.574 Y-32.775 E14.3083
G1 X-27.706 Y-39.928 E14.72043
G1 X-27.899 Y-40.572 E14.75397
G1 X-27.925 Y-40.885 E14.76964
G1 X-28.379 Y-40.973 E14.79271
G1 X-29.082 Y-41.313 E14.83167
G1 X-29.546 Y-41.771 E14.8642
G1 X-30.082 Y-42.51 E14.90974
G1 X-30.447 Y-42.856 E14.93483
G1 X-31.055 Y-43.314 E14.97281
G1 X-31.84 Y-44.088 E15.02781
G1 X-32.796 Y-45.738 E15.12295
G1 X-33.037 Y-46.82 E15.17825
G1 X-32.994 Y-47.789 E15.22664
G1 X-32.674 Y-48.851 E15.28198
G1 X-32.176 Y-49.605 E15.32706
G1 X-31.478 Y-50.294 E15.37599
G1 X-29.963 Y-51.163 E15.46313
G1 X-29.029 Y-51.437 E15.51169
G1 X-28.569 Y-51.498 E15.53484
G1 X-27.805 Y-51.511 E15.57296
G1 X-27.313 Y-51.561 E15.59763
G1 X-26.326 Y-51.897 E15.64965
G1 X-2.917 Y-65.423 E16.99847
G1 X-2.444 Y-65.82 E17.02928
G1 X-2.12 Y-66.194 E17.05396
G1 X-1.5 Y-67.232 E17.11428
G1 X-.727 Y-68.054 E17.17058
G1 X0.836 Y-68.953 E17.26054
G1 X1.777 Y-69.248 E17.30974
G1 X2.685 Y-69.288 E17.35508
G1 X3.762 Y-69.068 E17.40992
G1 X4.731 Y-68.536 E17.46507
G1 X5.498 Y-67.806 E17.5179
G1 X6.297 Y-66.42 E17.59771
G1 X6.686 Y-65.445 E17.65009
G1 X6.826 Y-64.025 E17.72127
G1 X6.93 Y-63.538 E17.74612
G1 X7.183 Y-62.86 E17.78222
G1 X17.069 Y-68.561 E18.35157
G1 X17.73 Y-68.864 E18.38785
G1 X19.15 Y-69.237 E18.46109
G1 X20.077 Y-69.297 E18.50744
G1 X21.24 Y-69.203 E18.56565
G1 X22.463 Y-68.829 E18.62946
G1 X23.151 Y-68.498 E18.66755
G1 X24.224 Y-67.765 E18.73238
G1 X24.971 Y-66.988 E18.78615
G1 X25.59 Y-66.117 E18.83946
G1 X25.855 Y-65.657 E18.86595
G1 X26.239 Y-65.074 E18.90077
G1 X26.663 Y-64.572 E18.93356
G1 X27.127 Y-64.14 E18.96519
G1 X27.652 Y-63.755 E18.99767
G1 X28.207 Y-63.444 E19.02941
G1 X28.78 Y-63.205 E19.06038
G1 X29.412 Y-63.026 E19.09315
G1 X30.022 Y-62.929 E19.12397
G1 X30.686 Y-62.905 E19.15712
G1 X31.309 Y-62.953 E19.18829
G1 X31.956 Y-63.085 E19.22123
G1 X32.568 Y-63.285 E19.25335
G1 X33.472 Y-63.674 E19.30245
G1 X33.951 Y-63.772 E19.32685
G1 X33.999 Y-64.186 E19.34764
G1 X34.183 Y-64.735 E19.37653
G1 X34.712 Y-65.486 E19.42236
G1 X35.406 Y-65.957 E19.4642
G1 X36.173 Y-66.286 E19.50584
G1 X37.421 Y-66.997 E19.5775
G1 X38.251 Y-67.24 E19.62064
G1 X40.246 Y-67.239 E19.72017
G1 X41.629 Y-66.742 E19.79349
G1 X42.231 Y-66.382 E19.82849
G1 X43.238 Y-65.382 E19.89929
G1 X43.504 Y-64.962 E19.92409
G1 X43.999 Y-63.799 E19.98715
G1 X44.13 Y-62.799 E20.03747
G1 X44.115 Y-61.326 E20.11096
G1 X43.927 Y-60.536 E20.15147
G1 X43.817 Y-60.279 E20.16542
G1 X43.387 Y-59.704 E20.20124
G1 X42.762 Y-59.229 E20.24041
G1 X42.144 Y-58.991 E20.27345
G1 X41.556 Y-58.92 E20.303
G1 X41.138 Y-58.971 E20.324
G1 X41.138 Y-28.209 E21.85873
G1 X40.975 Y-27.413 E21.89926
G1 X40.604 Y-26.709 E21.93896
G1 X40.501 Y-26.584 E21.94704
G1 X39.955 Y-26.144 E21.98203
G1 X39.255 Y-25.796 E22.02103
G1 X38.538 Y-25.691 E22.05718
G1 X35.956 Y-25.691 E22.186
G1 X35.16 Y-25.854 E22.22654
G1 X34.456 Y-26.225 E22.26624
G1 X34.331 Y-26.328 E22.27432
G1 X33.891 Y-26.874 E22.3093
G1 X33.543 Y-27.574 E22.3483
G1 X33.438 Y-28.291 E22.38446
G1 X33.438 Y-30.455 E22.49242
G1 X-1.665 Y-10.19 E24.5146
G1 X-2.526 Y-9.788 E24.562
G0 F4800 X-2.643 Y-10.171
G1 F1200 X-3.798 Y-9.818 E24.62226
G1 X-4.884 Y-9.657 E24.67703
G1 X-5.892 Y-9.652 E24.72732
G1 X-6.944 Y-9.792 E24.78027
G1 X-8.051 Y-10.111 E24.83774
G1 X-8.974 Y-10.528 E24.88827
G1 X-9.643 Y-10.934 E24.92732
G1 X-10.68 Y-11.789 E24.99437
G1 X-11.416 Y-12.623 E25.04986
G1 X-11.848 Y-13.263 E25.08839
G1 X-13.176 Y-15.561 E25.2208
G1 X-14.459 Y-16.089 E25.29002
G1 X-15.052 Y-16.502 E25.32607
G1 X-15.365 Y-16.863 E25.34991
G1 X-23.101 Y-30.251 E26.12133
G1 X-23.32 Y-30.941 E26.15745
G1 X-23.348 Y-31.417 E26.18123
G1 X-23.16 Y-32.856 E26.25364
G1 X-27.336 Y-40.087 E26.67023
G1 X-27.516 Y-40.687 E26.70148
G1 X-27.539 Y-41.229 E26.72855
G1 X-28.205 Y-41.333 E26.76218
G1 X-28.847 Y-41.644 E26.79777
G1 X-29.222 Y-42.006 E26.82377
G1 X-29.78 Y-42.776 E26.87121
G1 X-30.19 Y-43.164 E26.89938
G1 X-30.814 Y-43.634 E26.93835
G1 X-31.521 Y-44.334 E26.98799
G1 X-32.419 Y-45.885 E27.0774
G1 X-32.635 Y-46.852 E27.12683
G1 X-32.596 Y-47.723 E27.17033
G1 X-32.308 Y-48.679 E27.22014
G1 X-31.866 Y-49.349 E27.26019
G1 X-31.233 Y-49.973 E27.30453
G1 X-29.803 Y-50.793 E27.38677
G1 X-28.976 Y-51.04 E27.42983
G1 X-28.516 Y-51.101 E27.45298
G1 X-27.781 Y-51.111 E27.48966
G1 X-27.226 Y-51.168 E27.51749
G1 X-26.163 Y-51.53 E27.57352
G1 X-2.687 Y-65.094 E28.92618
G1 X-2.162 Y-65.535 E28.96039
G1 X-1.792 Y-65.961 E28.98854
G1 X-1.177 Y-66.992 E29.04843
G1 X-.478 Y-67.735 E29.09932
G1 X0.999 Y-68.585 E29.18434
G1 X1.846 Y-68.85 E29.22862
G1 X2.655 Y-68.886 E29.26902
G1 X3.621 Y-68.688 E29.31822
G1 X4.493 Y-68.209 E29.36785
G1 X5.18 Y-67.556 E29.41514
G1 X5.95 Y-66.22 E29.49207
G1 X6.294 Y-65.349 E29.53879
G1 X6.43 Y-63.963 E29.60827
G1 X6.546 Y-63.423 E29.63583
G1 X6.765 Y-62.835 E29.66713
G1 X6.884 Y-62.226 E29.69809
G1 X17.236 Y-68.197 E30.29431
G1 X17.897 Y-68.5 E30.33058
G1 X19.213 Y-68.84 E30.39839
G1 X20.045 Y-68.898 E30.44
G1 X21.165 Y-68.807 E30.49606
G1 X22.292 Y-68.467 E30.55479
G1 X22.925 Y-68.168 E30.58972
G1 X23.963 Y-67.459 E30.65243
G1 X24.645 Y-66.756 E30.7013
G1 X25.243 Y-65.917 E30.7527
G1 X25.509 Y-65.455 E30.7793
G1 X25.919 Y-64.832 E30.81651
G1 X26.37 Y-64.298 E30.85138
G1 X26.873 Y-63.83 E30.88565
G1 X27.434 Y-63.419 E30.92035
G1 X28.032 Y-63.084 E30.95455
G1 X28.65 Y-62.826 E30.98796
G1 X29.325 Y-62.635 E31.02296
G1 X29.985 Y-62.53 E31.0563
G1 X30.694 Y-62.504 E31.09169
G1 X31.363 Y-62.556 E31.12517
G1 X32.058 Y-62.697 E31.16055
G1 X32.705 Y-62.909 E31.19452
G1 X33.59 Y-63.29 E31.24259
G1 X34.146 Y-63.404 E31.27091
G1 X34.316 Y-63.408 E31.27939
G1 X34.383 Y-64.073 E31.31273
G1 X34.51 Y-64.505 E31.3352
G1 X34.996 Y-65.195 E31.37731
G1 X35.602 Y-65.606 E31.41384
G1 X36.358 Y-65.931 E31.45489
G1 X37.579 Y-66.626 E31.52498
G1 X38.309 Y-66.84 E31.56294
G1 X40.178 Y-66.839 E31.65618
G1 X41.457 Y-66.379 E31.72399
G1 X41.982 Y-66.065 E31.75451
G1 X42.924 Y-65.13 E31.82073
G1 X43.136 Y-64.805 E31.84009
G1 X43.609 Y-63.694 E31.90033
G1 X43.733 Y-62.747 E31.94798
G1 X43.715 Y-61.374 E32.01648
G1 X43.538 Y-60.628 E32.05474
G1 X43.469 Y-60.481 E32.06284
G1 X43.099 Y-59.987 E32.09363
G1 X42.566 Y-59.582 E32.12703
G1 X42.044 Y-59.381 E32.15493
G1 X41.605 Y-59.317 E32.17707
G1 X40.93 Y-59.4 E32.211
G1 X40.738 Y-59.469 E32.22117
G1 X40.738 Y-28.25 E33.7787
G1 X40.594 Y-27.548 E33.81445
G1 X40.25 Y-26.895 E33.85127
G1 X39.739 Y-26.483 E33.88402
G1 X39.133 Y-26.182 E33.91778
G1 X38.538 Y-26.091 E33.94781
G1 X35.997 Y-26.091 E34.07458
G1 X35.295 Y-26.235 E34.11033
G1 X34.642 Y-26.579 E34.14715
G1 X34.23 Y-27.09 E34.1799
G1 X33.929 Y-27.696 E34.21366
G1 X33.838 Y-28.291 E34.24369
G1 X33.838 Y-31.147 E34.38617
G1 X-1.836 Y-10.552 E36.44126
G1 X-2.643 Y-10.171 E36.48578
G0 F4800 X-2.814 Y-10.533
G1 F1200 X-3.858 Y-10.213 E36.54026
G1 X-4.887 Y-10.057 E36.59218
G1 X-5.839 Y-10.049 E36.63968
G1 X-6.891 Y-10.189 E36.69262
G1 X-7.887 Y-10.476 E36.74434
G1 X-8.766 Y-10.87 E36.79239
G1 X-9.435 Y-11.276 E36.83144
G1 X-10.425 Y-12.097 E36.8956
G1 X-11.084 Y-12.847 E36.94541
G1 X-11.516 Y-13.487 E36.98393
G1 X-12.898 Y-15.879 E37.12176
G1 X-14.266 Y-16.442 E37.19556
G1 X-14.783 Y-16.802 E37.22699
G1 X-15.019 Y-17.063 E37.24455
G1 X-22.733 Y-30.413 E38.01378
G1 X-22.923 Y-31.013 E38.04518
G1 X-22.951 Y-31.365 E38.06279
G1 X-22.746 Y-32.938 E38.14193
G1 X-26.966 Y-40.246 E38.56295
G1 X-27.118 Y-40.752 E38.58931
G1 X-27.14 Y-41.276 E38.61548
G1 X-27.034 Y-41.68 E38.63631
G1 X-27.497 Y-41.624 E38.65958
G1 X-28.085 Y-41.719 E38.6893
G1 X-28.616 Y-41.976 E38.71873
G1 X-28.898 Y-42.241 E38.73804
G1 X-29.478 Y-43.042 E38.78737
G1 X-29.933 Y-43.472 E38.81861
G1 X-30.573 Y-43.954 E38.85858
G1 X-31.2 Y-44.579 E38.90275
G1 X-32.043 Y-46.034 E38.98664
G1 X-32.233 Y-46.884 E39.03009
G1 X-32.198 Y-47.657 E39.0687
G1 X-31.943 Y-48.506 E39.11292
G1 X-31.554 Y-49.094 E39.1481
G1 X-30.988 Y-49.652 E39.18775
G1 X-29.646 Y-50.422 E39.26494
G1 X-28.923 Y-50.643 E39.30266
G1 X-28.463 Y-50.704 E39.32581
G1 X-27.757 Y-50.711 E39.36103
G1 X-27.139 Y-50.775 E39.39203
G1 X-26.307 Y-51.058 E39.43588
G1 X-25.838 Y-51.256 E39.46127
G1 X-2.454 Y-64.767 E40.80864
G1 X-1.88 Y-65.25 E40.84607
G1 X-1.466 Y-65.725 E40.8775
G1 X-.854 Y-66.752 E40.93715
G1 X-.228 Y-67.417 E40.98271
G1 X1.159 Y-68.215 E41.06255
G1 X1.916 Y-68.452 E41.10212
G1 X2.625 Y-68.484 E41.13753
G1 X3.48 Y-68.309 E41.18107
G1 X4.255 Y-67.883 E41.22519
G1 X4.862 Y-67.306 E41.26697
G1 X5.603 Y-66.02 E41.34102
G1 X5.902 Y-65.253 E41.38209
G1 X6.034 Y-63.899 E41.44996
G1 X6.162 Y-63.307 E41.48018
G1 X6.372 Y-62.758 E41.5095
G1 X6.479 Y-62.209 E41.53741
G1 X6.402 Y-61.613 E41.56739
G1 X6.345 Y-61.453 E41.57586
G1 X17.403 Y-67.833 E42.21279
G1 X18.064 Y-68.136 E42.24907
G1 X19.243 Y-68.441 E42.30982
G1 X20.013 Y-68.499 E42.34835
G1 X21.093 Y-68.411 E42.40241
G1 X22.121 Y-68.105 E42.45592
G1 X22.754 Y-67.806 E42.49084
G1 X23.702 Y-67.153 E42.54827
G1 X24.358 Y-66.477 E42.59527
G1 X24.896 Y-65.717 E42.64173
G1 X25.163 Y-65.253 E42.66843
G1 X25.6 Y-64.59 E42.70805
G1 X26.081 Y-64.02 E42.74526
G1 X26.615 Y-63.523 E42.78165
G1 X27.216 Y-63.083 E42.81881
G1 X27.857 Y-62.724 E42.85547
G1 X28.52 Y-62.447 E42.89132
G1 X29.238 Y-62.244 E42.92854
G1 X29.948 Y-62.131 E42.96441
G1 X30.702 Y-62.103 E43.00205
G1 X31.418 Y-62.159 E43.03788
G1 X32.157 Y-62.309 E43.0755
G1 X32.845 Y-62.534 E43.11162
G1 X33.707 Y-62.905 E43.15844
G1 X34.227 Y-63.012 E43.18492
G1 X34.635 Y-63 E43.20529
G1 X34.86 Y-62.938 E43.21693
G1 X34.725 Y-63.48 E43.2448
G1 X34.781 Y-64.033 E43.27253
G1 X34.875 Y-64.328 E43.28797
G1 X35.28 Y-64.904 E43.3231
G1 X35.794 Y-65.253 E43.3541
G1 X36.529 Y-65.568 E43.39399
G1 X37.734 Y-66.255 E43.4632
G1 X38.366 Y-66.44 E43.49605
G1 X40.11 Y-66.439 E43.58306
G1 X41.285 Y-66.016 E43.64536
G1 X41.733 Y-65.748 E43.67141
G1 X42.642 Y-64.846 E43.7353
G1 X42.768 Y-64.648 E43.747
G1 X43.22 Y-63.586 E43.80459
G1 X43.333 Y-62.752 E43.84658
G1 X43.316 Y-61.423 E43.91289
G1 X43.149 Y-60.721 E43.94889
G1 X42.813 Y-60.273 E43.97682
G1 X42.368 Y-59.935 E44.0047
G1 X41.969 Y-59.774 E44.02617
G1 X41.654 Y-59.714 E44.04217
G1 X40.979 Y-59.797 E44.0761
G1 X40.531 Y-60.01 E44.10084
G1 X40.338 Y-60.185 E44.11384
G1 X40.338 Y-28.291 E45.70504
G1 X40.214 Y-27.685 E45.7359
G1 X39.933 Y-27.153 E45.76592
G1 X39.561 Y-26.841 E45.79014
G1 X39.012 Y-26.568 E45.82073
G1 X38.538 Y-26.491 E45.84469
G1 X36.038 Y-26.491 E45.96941
G1 X35.432 Y-26.615 E46.00027
G1 X34.9 Y-26.896 E46.03029
G1 X34.588 Y-27.268 E46.05451
G1 X34.315 Y-27.817 E46.0851
G1 X34.238 Y-28.291 E46.10906
G1 X34.238 Y-31.839 E46.28607
G1 X-2.007 Y-10.914 E48.37405
G1 X-2.814 Y-10.533 E48.41858
G1 F1500 E41.91858
G1 F600 Z1.3
G0 F4800 X35.553 Y-62.571 Z1.3
G1 F600 Z0.3
