;FLAVOR:Marlin
;TIME:3618
;Filament used: 3.37113m
;Layer height: 0.15
;MINX:-70.755
;MINY:-75.761
;MINZ:0.3
;MAXX:80.755
;MAXY:75.755
;MAXZ:5.05
;Generated with Cura_SteamEngine 4.13.1
M140 S50
M105
M190 S50
M104 S210
M105
M109 S210
M82 ;absolute extrusion mode
;FLAVOR:Marlin
M82 ;absolute extrusion mode
G21
G90
M82
M107 T0
G28
G92 E0
G0 E3 F200
G92 E0 ; reset extrusion distance
M106 S255 ; Enable cooling fan full speed
G1 X-98 Y0 Z0.4 F3000 ; move to arc start
G3 X0 Y-98 I98 Z0.4 E40 F400 ; lay arc stripe 90deg
G92 E0 ; reset extrusion distance
G4 P500 ; wait for 0.5 sec
G0 Z10 E-1 ; Lift 15mm and retract 1mm filament
G4 P2000 ; wait for 5 sec
G0 Z15
M107 ; Disable cooling fan
G1 X0 Y-85 Z4 E0 F3000 ; get off the bed
G92 E0
G92 E0
G1 F1500 E-6.5
;LAYER_COUNT:26
;LAYER:0
M106 S25.5
G1 F600 Z1.3
G0 F3600 X65.107 Y-61.819 Z1.3
;TYPE:SKIRT
G1 F600 Z0.3
G1 F1500 E0.3326
G1 F1800 X63.192 Y-63.84 E0.4715
G1 X61.274 Y-65.983 E0.61499
G1 X60.137 Y-67.329 E0.70289
G1 X60.325 Y-67.727 E0.72485
G1 X61.591 Y-66.228 E0.82274
G1 X63.471 Y-64.128 E0.96336
G1 X65.411 Y-62.086 E1.10388
G1 X67.407 Y-60.097 E1.24446
G1 X69.459 Y-58.166 E1.38504
G1 X71.573 Y-56.296 E1.52585
G1 X72.75 Y-55.323 E1.60204
G1 X72.324 Y-55.155 E1.62488
G1 X71.292 Y-56.009 E1.69171
G1 X69.257 Y-57.81 E1.82729
G1 X67.034 Y-59.898 E1.97945
G1 X65.107 Y-61.819 E2.11519
G0 F3600 X64.825 Y-61.536
G1 F1800 X62.894 Y-63.573 E2.25523
G1 X60.976 Y-65.716 E2.39871
G1 X59.665 Y-67.268 E2.50007
G1 X59.978 Y-67.929 E2.53655
G1 X60.154 Y-68.549 E2.56871
G1 X61.893 Y-66.491 E2.70313
G1 X63.765 Y-64.399 E2.84319
G1 X65.697 Y-62.365 E2.98314
G1 X67.685 Y-60.384 E3.12316
G1 X69.729 Y-58.462 E3.26314
G1 X71.833 Y-56.6 E3.40331
G1 X73.582 Y-55.154 E3.51653
G1 X73.201 Y-55.071 E3.53598
G1 X72.502 Y-54.795 E3.57347
G1 X72.288 Y-54.666 E3.58594
G1 X71.037 Y-55.701 E3.66695
G1 X68.959 Y-57.542 E3.80545
G1 X66.798 Y-59.57 E3.9533
G1 X64.825 Y-61.536 E4.09226
G0 F3600 X64.543 Y-61.253
G1 F1800 X62.596 Y-63.306 E4.23342
G1 X60.678 Y-65.449 E4.37691
G1 X59.165 Y-67.24 E4.49388
G1 X59.309 Y-67.45 E4.50658
G1 X59.602 Y-68.07 E4.54079
G1 X59.789 Y-68.73 E4.57501
G1 X59.866 Y-69.411 E4.60921
G1 X59.859 Y-69.556 E4.61645
G1 X60.393 Y-68.886 E4.65919
G1 X62.195 Y-66.753 E4.7985
G1 X64.059 Y-64.67 E4.93796
G1 X65.983 Y-62.644 E5.07735
G1 X67.963 Y-60.671 E5.2168
G1 X69.999 Y-58.758 E5.35618
G1 X72.093 Y-56.904 E5.49572
G1 X74.563 Y-54.861 E5.65563
G1 X73.989 Y-54.833 E5.68431
G1 X73.318 Y-54.687 E5.71857
G1 X72.68 Y-54.435 E5.75279
G1 X72.252 Y-54.177 E5.77772
G1 X70.782 Y-55.393 E5.8729
G1 X68.685 Y-57.25 E6.01264
G1 X66.525 Y-59.279 E6.16049
G1 X64.543 Y-61.253 E6.30005
G0 F3600 X64.261 Y-60.97
G1 F1800 X62.298 Y-63.039 E6.44234
G1 X60.38 Y-65.182 E6.58582
G1 X58.662 Y-67.215 E6.71862
G1 X58.961 Y-67.65 E6.74495
G1 X59.226 Y-68.211 E6.77591
G1 X59.395 Y-68.808 E6.80686
G1 X59.465 Y-69.424 E6.83779
G1 X59.434 Y-70.045 E6.86881
G1 X59.302 Y-70.651 E6.89975
G1 X59.114 Y-71.126 E6.92524
G1 X59.197 Y-71.029 E6.93161
G1 X60.702 Y-69.14 E7.05211
G1 X62.497 Y-67.015 E7.19088
G1 X64.353 Y-64.941 E7.32974
G1 X66.269 Y-62.923 E7.46857
G1 X68.241 Y-60.959 E7.60742
G1 X70.269 Y-59.054 E7.74624
G1 X72.353 Y-57.208 E7.88513
G1 X75.282 Y-54.786 E8.07475
G1 X76.149 Y-54.098 E8.12997
G1 X75.874 Y-54.227 E8.14512
G1 X75.279 Y-54.396 E8.17598
G1 X74.663 Y-54.466 E8.20691
G1 X74.042 Y-54.435 E8.23793
G1 X73.435 Y-54.303 E8.26892
G1 X72.858 Y-54.075 E8.29987
G1 X72.327 Y-53.755 E8.3308
G1 X72.232 Y-53.675 E8.337
G1 X70.527 Y-55.085 E8.44738
G1 X68.386 Y-56.982 E8.59009
G1 X66.289 Y-58.95 E8.73357
G1 X64.261 Y-60.97 E8.87637
G0 F3600 X63.979 Y-60.687
G1 F1800 X62 Y-62.772 E9.01979
G1 X60.082 Y-64.915 E9.16327
G1 X58.227 Y-67.11 E9.30665
G1 X58.141 Y-67.219 E9.31358
G1 X58.303 Y-67.399 E9.32566
G1 X58.613 Y-67.85 E9.35296
G1 X58.85 Y-68.352 E9.38066
G1 X59.001 Y-68.886 E9.40834
G1 X59.064 Y-69.437 E9.43601
G1 X59.036 Y-69.992 E9.46374
G1 X58.918 Y-70.534 E9.49141
G1 X58.714 Y-71.05 E9.51909
G1 X58.428 Y-71.526 E9.5468
G1 X58.079 Y-71.936 E9.57366
G1 X56.434 Y-73.582 E9.68976
G1 X56.183 Y-73.809 E9.70664
G1 X55.731 Y-74.12 E9.73402
G1 X55.229 Y-74.357 E9.76171
G1 X54.695 Y-74.508 E9.7894
G1 X54.144 Y-74.571 E9.81707
G1 X53.589 Y-74.543 E9.84479
G1 X53.047 Y-74.425 E9.87246
G1 X52.531 Y-74.221 E9.90015
G1 X52.055 Y-73.935 E9.92785
G1 X51.645 Y-73.586 E9.95471
G1 X-68.581 Y46.641 E18.43734
G1 X-68.808 Y46.892 E18.45423
G1 X-69.119 Y47.344 E18.4816
G1 X-69.356 Y47.846 E18.50929
G1 X-69.507 Y48.38 E18.53698
G1 X-69.57 Y48.931 E18.56465
G1 X-69.542 Y49.486 E18.59237
G1 X-69.424 Y50.028 E18.62005
G1 X-69.22 Y50.544 E18.64773
G1 X-68.934 Y51.02 E18.67543
G1 X-68.585 Y51.43 E18.7023
G1 X-66.94 Y53.076 E18.81839
G1 X-66.689 Y53.303 E18.83528
G1 X-66.237 Y53.615 E18.86268
G1 X-65.734 Y53.851 E18.8904
G1 X-65.201 Y54.002 E18.91804
G1 X-64.65 Y54.065 E18.94571
G1 X-64.095 Y54.037 E18.97343
G1 X-63.552 Y53.919 E19.00115
G1 X-63.036 Y53.715 E19.02883
G1 X-62.561 Y53.429 E19.0565
G1 X-62.236 Y53.153 E19.07777
G1 X-60.272 Y54.777 E19.20491
G1 X-58.112 Y56.69 E19.34886
G1 X-56.016 Y58.659 E19.49234
G1 X-53.979 Y60.687 E19.63574
G1 X-52 Y62.772 E19.77916
G1 X-50.082 Y64.915 E19.92264
G1 X-48.227 Y67.11 E20.06602
G1 X-48.141 Y67.219 E20.07294
G1 X-48.303 Y67.399 E20.08503
G1 X-48.613 Y67.85 E20.11233
G1 X-48.85 Y68.352 E20.14003
G1 X-49.001 Y68.886 E20.16771
G1 X-49.064 Y69.437 E20.19538
G1 X-49.036 Y69.992 E20.2231
G1 X-48.918 Y70.534 E20.25078
G1 X-48.714 Y71.05 E20.27846
G1 X-48.428 Y71.526 E20.30616
G1 X-48.079 Y71.936 E20.33303
G1 X-46.434 Y73.582 E20.44913
G1 X-46.183 Y73.809 E20.46601
G1 X-45.731 Y74.12 E20.49338
G1 X-45.229 Y74.357 E20.52108
G1 X-44.695 Y74.508 E20.54876
G1 X-44.144 Y74.571 E20.57643
G1 X-43.589 Y74.543 E20.60416
G1 X-43.047 Y74.425 E20.63183
G1 X-42.531 Y74.221 E20.65951
G1 X-42.055 Y73.935 E20.68722
G1 X-41.645 Y73.586 E20.71408
G1 X78.581 Y-46.641 E29.19671
G1 X78.808 Y-46.892 E29.21359
G1 X79.119 Y-47.344 E29.24097
G1 X79.356 Y-47.846 E29.26866
G1 X79.507 Y-48.38 E29.29635
G1 X79.57 Y-48.931 E29.32402
G1 X79.542 Y-49.486 E29.35174
G1 X79.424 Y-50.028 E29.37941
G1 X79.22 Y-50.544 E29.4071
G1 X78.934 Y-51.02 E29.4348
G1 X78.585 Y-51.43 E29.46166
G1 X76.94 Y-53.076 E29.57776
G1 X76.689 Y-53.303 E29.59465
G1 X76.237 Y-53.615 E29.62205
G1 X75.734 Y-53.851 E29.64977
G1 X75.201 Y-54.002 E29.6774
G1 X74.65 Y-54.065 E29.70507
G1 X74.095 Y-54.037 E29.7328
G1 X73.552 Y-53.919 E29.76052
G1 X73.036 Y-53.715 E29.7882
G1 X72.561 Y-53.429 E29.81586
G1 X72.236 Y-53.153 E29.83714
G1 X70.272 Y-54.777 E29.96428
G1 X68.112 Y-56.69 E30.10823
G1 X66.016 Y-58.659 E30.2517
G1 X63.979 Y-60.687 E30.39511
G1 F1500 E23.89511
G1 F600 Z1.3
G0 F3600 X66.555 Y-63.202 Z1.3
G1 F600 Z0.3
G1 F1500 E30.72771
G1 F1800 X68.519 Y-61.247 E30.86596
G1 X70.539 Y-59.35 E31.00421
G1 X72.613 Y-57.512 E31.14247
G1 X75.534 Y-55.097 E31.33156
G1 X76.475 Y-54.35 E31.3915
G1 X76.934 Y-53.929 E31.42257
G1 X77.121 Y-53.745 E31.43566
G1 X79.079 Y-51.787 E31.57381
G1 X79.667 Y-51.183 E31.61586
G1 X80.015 Y-50.761 E31.64315
G1 X80.322 Y-50.257 E31.67259
G1 X80.547 Y-49.728 E31.70127
G1 X80.689 Y-49.19 E31.72903
G1 X80.755 Y-48.666 E31.75538
G1 X80.744 Y-48.075 E31.78487
G1 X80.656 Y-47.529 E31.81246
G1 X80.49 Y-46.992 E31.84051
G1 X80.242 Y-46.469 E31.86938
G1 X79.931 Y-45.999 E31.8975
G1 X79.435 Y-45.446 E31.93456
G1 X79.276 Y-45.284 E31.94589
G1 X-40.097 Y74.089 E40.3683
G1 X-40.691 Y74.667 E40.40965
G1 X-41.113 Y75.015 E40.43693
G1 X-41.615 Y75.321 E40.46627
G1 X-42.146 Y75.547 E40.49506
G1 X-42.684 Y75.689 E40.52282
G1 X-43.208 Y75.755 E40.54917
G1 X-43.799 Y75.744 E40.57866
G1 X-44.355 Y75.654 E40.60676
G1 X-44.882 Y75.49 E40.63429
G1 X-45.405 Y75.242 E40.66317
G1 X-45.875 Y74.931 E40.69129
G1 X-46.428 Y74.435 E40.72835
G1 X-46.615 Y74.251 E40.74144
G1 X-48.583 Y72.283 E40.88029
G1 X-49.161 Y71.689 E40.92164
G1 X-49.502 Y71.288 E40.9479
G1 X-51.011 Y69.394 E41.06872
G1 X-52.799 Y67.277 E41.20696
G1 X-54.647 Y65.212 E41.34522
G1 X-56.555 Y63.202 E41.48348
G1 X-58.519 Y61.247 E41.62173
G1 X-60.539 Y59.35 E41.75999
G1 X-62.613 Y57.512 E41.89824
G1 X-65.534 Y55.097 E42.08733
G1 X-66.475 Y54.35 E42.14727
G1 X-66.934 Y53.929 E42.17834
G1 X-67.121 Y53.745 E42.19143
G1 X-69.089 Y51.777 E42.33028
G1 X-69.667 Y51.183 E42.37163
G1 X-70.019 Y50.755 E42.39928
G1 X-70.322 Y50.257 E42.42836
G1 X-70.547 Y49.728 E42.45704
G1 X-70.693 Y49.171 E42.48577
G1 X-70.755 Y48.666 E42.51116
G1 X-70.744 Y48.075 E42.54065
G1 X-70.654 Y47.519 E42.56875
G1 X-70.49 Y46.992 E42.59628
G1 X-70.242 Y46.469 E42.62516
G1 X-69.93 Y45.998 E42.65334
G1 X-69.435 Y45.446 E42.69034
G1 X-69.251 Y45.259 E42.70342
G1 X50.097 Y-74.089 E51.12407
G1 X50.691 Y-74.667 E51.16542
G1 X51.113 Y-75.015 E51.19271
G1 X51.617 Y-75.322 E51.22215
G1 X52.146 Y-75.547 E51.25083
G1 X52.684 Y-75.689 E51.27859
G1 X53.208 Y-75.755 E51.30494
G1 X53.467 Y-75.761 E51.31786
G1 X54.027 Y-75.718 E51.34589
G1 X54.578 Y-75.595 E51.37405
G1 X55.116 Y-75.391 E51.40276
G1 X55.609 Y-75.119 E51.43085
G1 X56.038 Y-74.798 E51.45758
G1 X56.428 Y-74.435 E51.48416
G1 X56.602 Y-74.264 E51.49633
G1 X58.583 Y-72.283 E51.6361
G1 X59.161 Y-71.689 E51.67745
G1 X59.502 Y-71.288 E51.70371
G1 X61.011 Y-69.394 E51.82453
G1 X62.799 Y-67.277 E51.96278
G1 X64.647 Y-65.212 E52.10103
G1 X66.555 Y-63.202 E52.23929
G1 F1500 E45.73929
G1 F600 Z1.3
G0 F3600 X57.786 Y-67.423 Z1.3
G1 F600 Z0.3
G1 F1500 E52.5719
G1 F1800 X50.715 Y-60.351 E53.07083
G1 X65.351 Y-45.715 E54.10348
G1 X72.421 Y-52.786 E54.60234
G1 X72.795 Y-53.103 E54.6268
G1 X73.214 Y-53.355 E54.65119
G1 X73.669 Y-53.535 E54.6756
G1 X74.148 Y-53.639 E54.70006
G1 X74.637 Y-53.664 E54.72449
G1 X75.123 Y-53.608 E54.74889
G1 X75.594 Y-53.475 E54.77331
G1 X76.037 Y-53.267 E54.79773
G1 X76.664 Y-52.786 E54.83715
G1 X78.291 Y-51.159 E54.95195
G1 X78.608 Y-50.786 E54.97637
G1 X78.86 Y-50.366 E55.0008
G1 X79.04 Y-49.911 E55.02522
G1 X79.144 Y-49.433 E55.04962
G1 X79.169 Y-48.944 E55.07405
G1 X79.113 Y-48.458 E55.09846
G1 X78.98 Y-47.987 E55.12287
G1 X78.771 Y-47.544 E55.14731
G1 X78.494 Y-47.141 E55.17171
G1 X78.291 Y-46.917 E55.18679
G1 X-41.916 Y73.292 E63.66811
G1 X-42.289 Y73.609 E63.69254
G1 X-42.709 Y73.861 E63.71697
G1 X-43.164 Y74.041 E63.74138
G1 X-43.642 Y74.145 E63.76579
G1 X-44.131 Y74.17 E63.79022
G1 X-44.617 Y74.114 E63.81462
G1 X-45.088 Y73.981 E63.83904
G1 X-45.531 Y73.772 E63.86348
G1 X-45.934 Y73.495 E63.88788
G1 X-46.158 Y73.292 E63.90296
G1 X-47.785 Y71.665 E64.01775
G1 X-48.102 Y71.292 E64.04217
G1 X-48.354 Y70.872 E64.06661
G1 X-48.534 Y70.417 E64.09102
G1 X-48.638 Y69.939 E64.11543
G1 X-48.663 Y69.45 E64.13986
G1 X-48.607 Y68.964 E64.16426
G1 X-48.474 Y68.493 E64.18868
G1 X-48.265 Y68.05 E64.21312
G1 X-47.786 Y67.423 E64.25248
G1 X-40.715 Y60.351 E64.75141
G1 X-55.351 Y45.715 E65.78406
G1 X-62.421 Y52.786 E66.28293
G1 X-62.795 Y53.103 E66.30738
G1 X-63.214 Y53.355 E66.33178
G1 X-63.669 Y53.535 E66.35619
G1 X-64.148 Y53.639 E66.38064
G1 X-64.637 Y53.664 E66.40507
G1 X-65.123 Y53.608 E66.42948
G1 X-65.594 Y53.475 E66.4539
G1 X-66.037 Y53.267 E66.47831
G1 X-66.664 Y52.786 E66.51774
G1 X-68.291 Y51.159 E66.63253
G1 X-68.608 Y50.786 E66.65695
G1 X-68.86 Y50.366 E66.68139
G1 X-69.04 Y49.911 E66.7058
G1 X-69.144 Y49.433 E66.73021
G1 X-69.169 Y48.944 E66.75464
G1 X-69.113 Y48.458 E66.77904
G1 X-68.98 Y47.987 E66.80346
G1 X-68.771 Y47.544 E66.8279
G1 X-68.494 Y47.141 E66.85229
G1 X-68.291 Y46.917 E66.86738
G1 X51.916 Y-73.292 E75.3487
G1 X52.289 Y-73.609 E75.37312
G1 X52.709 Y-73.861 E75.39756
G1 X53.164 Y-74.041 E75.42197
G1 X53.642 Y-74.145 E75.44637
G1 X54.131 Y-74.17 E75.4708
G1 X54.617 Y-74.114 E75.49521
G1 X55.088 Y-73.981 E75.51963
G1 X55.531 Y-73.772 E75.54406
G1 X55.934 Y-73.495 E75.56846
G1 X56.158 Y-73.292 E75.58354
G1 X57.785 Y-71.665 E75.69834
G1 X58.102 Y-71.292 E75.72276
G1 X58.354 Y-70.872 E75.7472
G1 X58.534 Y-70.417 E75.77161
G1 X58.638 Y-69.939 E75.79601
G1 X58.663 Y-69.45 E75.82044
G1 X58.607 Y-68.964 E75.84485
G1 X58.474 Y-68.493 E75.86926
G1 X58.265 Y-68.05 E75.8937
G1 X57.786 Y-67.423 E75.93307
G0 F3600 X57.783 Y-68.037
G1 F1800 X57.503 Y-67.706 E75.9547
G1 X50.149 Y-60.351 E76.4736
G1 X65.351 Y-45.149 E77.54618
G1 X72.704 Y-52.503 E78.06501
G1 X73.053 Y-52.796 E78.08774
G1 X73.448 Y-53.023 E78.11047
G1 X73.877 Y-53.178 E78.13323
G1 X74.326 Y-53.256 E78.15597
G1 X74.781 Y-53.254 E78.17867
G1 X75.23 Y-53.173 E78.20143
G1 X75.657 Y-53.014 E78.22416
G1 X76.05 Y-52.784 E78.24688
G1 X76.381 Y-52.503 E78.26854
G1 X78.008 Y-50.876 E78.38333
G1 X78.301 Y-50.527 E78.40607
G1 X78.528 Y-50.132 E78.4288
G1 X78.683 Y-49.704 E78.45151
G1 X78.761 Y-49.255 E78.47424
G1 X78.759 Y-48.799 E78.49699
G1 X78.678 Y-48.351 E78.51971
G1 X78.519 Y-47.924 E78.54244
G1 X78.289 Y-47.531 E78.56516
G1 X78.008 Y-47.2 E78.58682
G1 X-42.199 Y73.009 E87.06814
G1 X-42.548 Y73.302 E87.09088
G1 X-42.943 Y73.529 E87.11361
G1 X-43.371 Y73.684 E87.13632
G1 X-43.82 Y73.762 E87.15905
G1 X-44.276 Y73.76 E87.1818
G1 X-44.724 Y73.679 E87.20452
G1 X-45.151 Y73.52 E87.22725
G1 X-45.544 Y73.29 E87.24996
G1 X-45.875 Y73.009 E87.27163
G1 X-47.502 Y71.382 E87.38642
G1 X-47.795 Y71.033 E87.40915
G1 X-48.022 Y70.638 E87.43188
G1 X-48.177 Y70.21 E87.45459
G1 X-48.255 Y69.761 E87.47733
G1 X-48.253 Y69.305 E87.50008
G1 X-48.172 Y68.857 E87.52279
G1 X-48.013 Y68.43 E87.54553
G1 X-47.783 Y68.037 E87.56824
G1 X-47.503 Y67.706 E87.58987
G1 X-40.149 Y60.351 E88.10877
G1 X-55.351 Y45.149 E89.18136
G1 X-62.704 Y52.503 E89.70019
G1 X-63.053 Y52.796 E89.72292
G1 X-63.448 Y53.023 E89.74565
G1 X-63.877 Y53.178 E89.76841
G1 X-64.326 Y53.256 E89.79114
G1 X-64.781 Y53.254 E89.81384
G1 X-65.23 Y53.173 E89.8366
G1 X-65.657 Y53.014 E89.85934
G1 X-66.05 Y52.784 E89.88205
G1 X-66.381 Y52.503 E89.90372
G1 X-68.008 Y50.876 E90.01851
G1 X-68.301 Y50.527 E90.04124
G1 X-68.528 Y50.132 E90.06397
G1 X-68.683 Y49.704 E90.08668
G1 X-68.761 Y49.255 E90.10942
G1 X-68.759 Y48.799 E90.13217
G1 X-68.678 Y48.351 E90.15488
G1 X-68.519 Y47.924 E90.17761
G1 X-68.289 Y47.531 E90.20033
G1 X-68.008 Y47.2 E90.22199
G1 X52.199 Y-73.009 E98.70332
G1 X52.548 Y-73.302 E98.72605
G1 X52.943 Y-73.529 E98.74878
G1 X53.371 Y-73.684 E98.77149
G1 X53.82 Y-73.762 E98.79423
G1 X54.276 Y-73.76 E98.81698
G1 X54.724 Y-73.679 E98.83969
G1 X55.151 Y-73.52 E98.86242
G1 X55.544 Y-73.29 E98.88514
G1 X55.875 Y-73.009 E98.9068
G1 X57.502 Y-71.382 E99.0216
G1 X57.795 Y-71.033 E99.04433
G1 X58.022 Y-70.638 E99.06706
G1 X58.177 Y-70.21 E99.08977
G1 X58.255 Y-69.761 E99.11251
G1 X58.253 Y-69.305 E99.13526
G1 X58.172 Y-68.857 E99.15797
G1 X58.013 Y-68.43 E99.1807
G1 X57.783 Y-68.037 E99.20342
G0 F3600 X57.22 Y-67.989
G1 F1800 X49.584 Y-60.352 E99.74222
G1 X65.352 Y-44.584 E100.85473
G1 X72.987 Y-52.22 E101.39346
G1 X73.31 Y-52.487 E101.41437
G1 X73.678 Y-52.688 E101.43529
G1 X74.077 Y-52.815 E101.45618
G1 X74.494 Y-52.864 E101.47712
G1 X74.912 Y-52.834 E101.49803
G1 X75.316 Y-52.725 E101.51891
G1 X75.693 Y-52.541 E101.53984
G1 X76.099 Y-52.221 E101.56563
G1 X77.726 Y-50.594 E101.68042
G1 X77.992 Y-50.27 E101.70134
G1 X78.193 Y-49.903 E101.72221
G1 X78.32 Y-49.503 E101.74315
G1 X78.369 Y-49.087 E101.76405
G1 X78.339 Y-48.669 E101.78495
G1 X78.23 Y-48.265 E101.80583
G1 X78.046 Y-47.888 E101.82676
G1 X77.726 Y-47.482 E101.85255
G1 X-42.481 Y72.727 E110.33387
G1 X-42.805 Y72.993 E110.35479
G1 X-43.172 Y73.194 E110.37566
G1 X-43.572 Y73.321 E110.3966
G1 X-43.988 Y73.37 E110.4175
G1 X-44.406 Y73.34 E110.43841
G1 X-44.81 Y73.231 E110.45928
G1 X-45.187 Y73.047 E110.48021
G1 X-45.593 Y72.727 E110.506
