;FLAVOR:Marlin
;TIME:3726
;Filament used: 3.74806m
;Layer height: 0.15
;MINX:-29.788
;MINY:-84.658
;MINZ:0.3
;MAXX:35.899
;MAXY:87.917
;MAXZ:16
;Generated with Cura_SteamEngine 4.13.1
M140 S50
M105
M190 S50
M104 S210
M105
M109 S210
M82 ;absolute extrusion mode
;FLAVOR:Marlin
M82 ;absolute extrusion mode
G21
G90
M82
M107 T0
G28
G92 E0
G0 E3 F200
G92 E0 ; reset extrusion distance
M106 S255 ; Enable cooling fan full speed
G1 X-98 Y0 Z0.4 F3000 ; move to arc start
G3 X0 Y-98 I98 Z0.4 E40 F400 ; lay arc stripe 90deg
G92 E0 ; reset extrusion distance
G4 P500 ; wait for 0.5 sec
G0 Z10 E-1 ; Lift 15mm and retract 1mm filament
G4 P2000 ; wait for 5 sec
G0 Z15
M107 ; Disable cooling fan
G1 X0 Y-85 Z4 E0 F3000 ; get off the bed
G92 E0
G92 E0
G1 F1500 E-6.5
;LAYER_COUNT:73
;LAYER:0
M106 S25.5
G1 F600 Z1.3
G0 F3600 X-8.393 Y33.051 Z1.3
;TYPE:SKIRT
G1 F600 Z0.3
G1 F1500 E0.3326
G1 F2400 X12.806 Y33.051 E1.39022
G1 X12.951 Y33.055 E1.39746
G1 X13.919 Y33.102 E1.44581
G1 X14.206 Y33.129 E1.46019
G1 X15.167 Y33.269 E1.50864
G1 X15.458 Y33.326 E1.52344
G1 X16.396 Y33.559 E1.57166
G1 X16.668 Y33.641 E1.58583
G1 X17.584 Y33.963 E1.63427
G1 X17.857 Y34.074 E1.64897
G1 X18.734 Y34.483 E1.69725
G1 X18.99 Y34.618 E1.71169
G1 X19.824 Y35.11 E1.76
G1 X20.066 Y35.269 E1.77445
G1 X20.85 Y35.84 E1.82283
G1 X21.083 Y36.028 E1.83777
G1 X21.806 Y36.674 E1.88614
G1 X22.009 Y36.873 E1.90032
G1 X22.668 Y37.585 E1.94873
G1 X22.852 Y37.804 E1.963
G1 X23.439 Y38.574 E2.0113
G1 X23.605 Y38.816 E2.02594
G1 X24.114 Y39.64 E2.07426
G1 X24.257 Y39.899 E2.08902
G1 X24.683 Y40.77 E2.1374
G1 X24.742 Y40.899 E2.14447
G1 X33.141 Y60.363 E3.20209
G1 X33.195 Y60.495 E3.2092
G1 X33.53 Y61.385 E3.25665
G1 X33.617 Y61.653 E3.2707
G1 X33.866 Y62.567 E3.31797
G1 X33.927 Y62.847 E3.33226
G1 X34.088 Y63.782 E3.3796
G1 X34.124 Y64.066 E3.39388
G1 X34.195 Y65.012 E3.44121
G1 X34.202 Y65.297 E3.45543
G1 X34.183 Y66.245 E3.50274
G1 X34.165 Y66.526 E3.51678
G1 X34.057 Y67.469 E3.56414
G1 X34.01 Y67.756 E3.57865
G1 X33.811 Y68.686 E3.6261
G1 X33.741 Y68.952 E3.63982
G1 X33.459 Y69.855 E3.68701
G1 X33.358 Y70.129 E3.70158
G1 X32.988 Y71.004 E3.74898
G1 X32.865 Y71.261 E3.76319
G1 X32.415 Y72.095 E3.81047
G1 X32.27 Y72.336 E3.82451
G1 X31.742 Y73.127 E3.87195
G1 X31.573 Y73.356 E3.88615
G1 X30.975 Y74.09 E3.93339
G1 X30.786 Y74.3 E3.94748
G1 X30.12 Y74.976 E3.99482
G1 X29.907 Y75.173 E4.0093
G1 X29.177 Y75.783 E4.05676
G1 X28.952 Y75.953 E4.07083
G1 X28.172 Y76.489 E4.11805
G1 X27.93 Y76.64 E4.13228
G1 X27.1 Y77.101 E4.17965
G1 X26.974 Y77.167 E4.18674
G1 X7.975 Y86.571 E5.24436
G1 X7.848 Y86.63 E5.25135
G1 X7.006 Y86.999 E5.29721
G1 X6.751 Y87.097 E5.31084
G1 X5.878 Y87.388 E5.35675
G1 X5.613 Y87.463 E5.37049
G1 X4.72 Y87.672 E5.41625
G1 X4.447 Y87.723 E5.43011
G1 X3.535 Y87.849 E5.47604
G1 X3.265 Y87.874 E5.48957
G1 X2.348 Y87.917 E5.53536
G1 X2.066 Y87.917 E5.54943
G1 X1.149 Y87.874 E5.59523
G1 X0.883 Y87.849 E5.60856
G1 X-0.029 Y87.724 E5.65449
G1 X-.309 Y87.672 E5.6687
G1 X-1.202 Y87.462 E5.71446
G1 X-1.463 Y87.388 E5.728
G1 X-2.337 Y87.097 E5.77396
G1 X-2.596 Y86.998 E5.78779
G1 X-3.436 Y86.629 E5.83356
G1 X-3.56 Y86.571 E5.84039
G1 X-22.561 Y77.167 E6.8981
G1 X-22.687 Y77.101 E6.9052
G1 X-23.517 Y76.64 E6.95257
G1 X-23.759 Y76.489 E6.9668
G1 X-24.539 Y75.953 E7.01401
G1 X-24.765 Y75.782 E7.02815
G1 X-25.494 Y75.172 E7.07558
G1 X-25.706 Y74.976 E7.08998
G1 X-26.371 Y74.301 E7.13725
G1 X-26.561 Y74.09 E7.15142
G1 X-27.161 Y73.353 E7.19883
G1 X-27.329 Y73.125 E7.21296
G1 X-27.856 Y72.336 E7.2603
G1 X-27.999 Y72.098 E7.27415
G1 X-28.451 Y71.263 E7.32152
G1 X-28.578 Y70.999 E7.33614
G1 X-28.946 Y70.125 E7.38345
G1 X-29.044 Y69.858 E7.39764
G1 X-29.327 Y68.955 E7.44485
G1 X-29.398 Y68.683 E7.45887
G1 X-29.596 Y67.753 E7.50631
G1 X-29.642 Y67.473 E7.52047
G1 X-29.751 Y66.532 E7.56773
G1 X-29.77 Y66.244 E7.58213
G1 X-29.788 Y65.295 E7.62948
G1 X-29.781 Y65.013 E7.64356
G1 X-29.71 Y64.068 E7.69084
G1 X-29.675 Y63.785 E7.70506
G1 X-29.514 Y62.848 E7.75249
G1 X-29.452 Y62.57 E7.76671
G1 X-29.204 Y61.656 E7.81395
G1 X-29.117 Y61.387 E7.82806
G1 X-28.783 Y60.498 E7.87544
G1 X-28.729 Y60.364 E7.88265
G1 X-20.328 Y40.898 E8.94039
G1 X-20.268 Y40.768 E8.94753
G1 X-19.843 Y39.9 E8.99575
G1 X-19.702 Y39.644 E9.01033
G1 X-19.193 Y38.819 E9.05869
G1 X-19.027 Y38.577 E9.07334
G1 X-18.44 Y37.806 E9.12168
G1 X-18.255 Y37.585 E9.13606
G1 X-17.596 Y36.873 E9.18446
G1 X-17.393 Y36.674 E9.19864
G1 X-16.671 Y36.029 E9.24694
G1 X-16.439 Y35.841 E9.26184
G1 X-15.654 Y35.269 E9.3103
G1 X-15.41 Y35.11 E9.32483
G1 X-14.577 Y34.619 E9.37307
G1 X-14.323 Y34.485 E9.3874
G1 X-13.445 Y34.075 E9.43574
G1 X-13.171 Y33.963 E9.45051
G1 X-12.255 Y33.641 E9.49895
G1 X-11.982 Y33.559 E9.51317
G1 X-11.043 Y33.326 E9.56144
G1 X-10.753 Y33.269 E9.57618
G1 X-9.792 Y33.129 E9.62464
G1 X-9.506 Y33.102 E9.63897
G1 X-8.539 Y33.055 E9.68727
G1 X-8.393 Y33.051 E9.69455
G0 F3600 X-8.393 Y33.451
G1 F2400 X12.806 Y33.451 E10.75218
G1 X12.932 Y33.454 E10.75847
G1 X13.9 Y33.501 E10.80682
G1 X14.149 Y33.525 E10.8193
G1 X15.11 Y33.665 E10.86775
G1 X15.362 Y33.715 E10.88056
G1 X16.3 Y33.948 E10.92878
G1 X16.535 Y34.018 E10.94102
G1 X17.451 Y34.34 E10.98946
G1 X17.688 Y34.437 E11.00223
G1 X18.565 Y34.846 E11.05051
G1 X18.787 Y34.963 E11.06303
G1 X19.621 Y35.455 E11.11134
G1 X19.831 Y35.592 E11.12385
G1 X20.615 Y36.163 E11.17224
G1 X20.816 Y36.326 E11.18515
G1 X21.539 Y36.972 E11.23352
G1 X21.715 Y37.145 E11.24583
G1 X22.374 Y37.857 E11.29423
G1 X22.534 Y38.047 E11.30663
G1 X23.121 Y38.817 E11.35493
G1 X23.265 Y39.027 E11.36764
G1 X23.774 Y39.851 E11.41596
G1 X23.898 Y40.075 E11.42873
G1 X24.324 Y40.946 E11.4771
G1 X24.375 Y41.058 E11.48324
G1 X32.774 Y60.522 E12.54086
G1 X32.82 Y60.636 E12.54699
G1 X33.155 Y61.526 E12.59443
G1 X33.231 Y61.759 E12.60666
G1 X33.48 Y62.673 E12.65392
G1 X33.533 Y62.915 E12.66628
G1 X33.694 Y63.85 E12.71361
G1 X33.725 Y64.096 E12.72598
G1 X33.796 Y65.042 E12.77331
G1 X33.802 Y65.289 E12.78564
G1 X33.783 Y66.237 E12.83295
G1 X33.767 Y66.481 E12.84515
G1 X33.659 Y67.424 E12.8925
G1 X33.618 Y67.672 E12.90504
G1 X33.419 Y68.602 E12.95249
G1 X33.359 Y68.833 E12.9644
G1 X33.077 Y69.736 E13.01159
G1 X32.99 Y69.974 E13.02423
G1 X32.62 Y70.849 E13.07163
G1 X32.513 Y71.071 E13.08393
G1 X32.063 Y71.905 E13.1312
G1 X31.937 Y72.113 E13.14334
G1 X31.409 Y72.904 E13.19078
G1 X31.263 Y73.103 E13.2031
G1 X30.665 Y73.837 E13.25033
G1 X30.501 Y74.02 E13.26259
G1 X29.835 Y74.696 E13.30994
G1 X29.65 Y74.866 E13.32247
G1 X28.92 Y75.476 E13.36993
G1 X28.726 Y75.624 E13.38211
G1 X27.946 Y76.16 E13.42932
G1 X27.735 Y76.29 E13.44169
G1 X26.905 Y76.751 E13.48905
G1 X26.796 Y76.808 E13.49519
G1 X7.797 Y86.212 E14.55281
G1 X7.688 Y86.263 E14.55882
G1 X6.846 Y86.632 E14.60468
G1 X6.624 Y86.718 E14.61656
G1 X5.751 Y87.009 E14.66247
G1 X5.521 Y87.074 E14.67439
G1 X4.628 Y87.283 E14.72015
G1 X4.392 Y87.327 E14.73213
G1 X3.48 Y87.453 E14.77806
G1 X3.246 Y87.474 E14.78978
G1 X2.329 Y87.517 E14.83558
G1 X2.085 Y87.517 E14.84775
G1 X1.168 Y87.474 E14.89355
G1 X0.937 Y87.453 E14.90512
G1 X0.025 Y87.328 E14.95105
G1 X-.217 Y87.283 E14.96333
G1 X-1.11 Y87.073 E15.0091
G1 X-1.336 Y87.009 E15.02081
G1 X-2.21 Y86.718 E15.06677
G1 X-2.435 Y86.631 E15.07881
G1 X-3.275 Y86.262 E15.12458
G1 X-3.382 Y86.212 E15.13047
G1 X-22.383 Y76.808 E16.18818
G1 X-22.492 Y76.751 E16.19432
G1 X-23.322 Y76.29 E16.24169
G1 X-23.533 Y76.16 E16.25405
G1 X-24.313 Y75.624 E16.30127
G1 X-24.509 Y75.475 E16.31355
G1 X-25.238 Y74.865 E16.36098
G1 X-25.421 Y74.696 E16.3734
G1 X-26.086 Y74.021 E16.42068
G1 X-26.25 Y73.837 E16.43297
G1 X-26.85 Y73.1 E16.48039
G1 X-26.996 Y72.903 E16.49262
G1 X-27.523 Y72.114 E16.53996
G1 X-27.647 Y71.908 E16.55195
G1 X-28.099 Y71.073 E16.59932
G1 X-28.209 Y70.844 E16.612
G1 X-28.577 Y69.97 E16.65931
G1 X-28.662 Y69.739 E16.67159
G1 X-28.945 Y68.836 E16.7188
G1 X-29.007 Y68.599 E16.73102
G1 X-29.205 Y67.669 E16.77846
G1 X-29.245 Y67.427 E16.7907
G1 X-29.354 Y66.486 E16.83796
G1 X-29.371 Y66.236 E16.85046
G1 X-29.389 Y65.287 E16.89781
G1 X-29.382 Y65.043 E16.90999
G1 X-29.311 Y64.098 E16.95727
G1 X-29.28 Y63.853 E16.96959
G1 X-29.119 Y62.916 E17.01702
G1 X-29.066 Y62.675 E17.02933
G1 X-28.818 Y61.761 E17.07658
G1 X-28.743 Y61.528 E17.08879
G1 X-28.409 Y60.639 E17.13617
G1 X-28.362 Y60.523 E17.14242
G1 X-19.961 Y41.057 E18.20016
G1 X-19.909 Y40.944 E18.20637
G1 X-19.484 Y40.076 E18.25459
G1 X-19.362 Y39.854 E18.26722
G1 X-18.853 Y39.029 E18.31559
G1 X-18.709 Y38.819 E18.32829
G1 X-18.122 Y38.048 E18.37664
G1 X-17.961 Y37.857 E18.3891
G1 X-17.302 Y37.145 E18.4375
G1 X-17.126 Y36.972 E18.44981
G1 X-16.404 Y36.327 E18.49811
G1 X-16.203 Y36.165 E18.51099
G1 X-15.418 Y35.593 E18.55945
G1 X-15.207 Y35.454 E18.57206
G1 X-14.374 Y34.963 E18.6203
G1 X-14.154 Y34.847 E18.63271
G1 X-13.276 Y34.437 E18.68105
G1 X-13.038 Y34.34 E18.69387
G1 X-12.122 Y34.018 E18.74231
G1 X-11.886 Y33.948 E18.75459
G1 X-10.947 Y33.715 E18.80286
G1 X-10.696 Y33.665 E18.81563
G1 X-9.735 Y33.525 E18.86408
G1 X-9.486 Y33.501 E18.87656
G1 X-8.519 Y33.454 E18.92486
G1 X-8.393 Y33.451 E18.93115
G0 F3600 X-8.393 Y33.851
G1 F2400 X12.806 Y33.851 E19.98877
G1 X12.913 Y33.854 E19.99411
G1 X13.881 Y33.901 E20.04246
G1 X14.091 Y33.921 E20.05299
G1 X15.052 Y34.061 E20.10144
G1 X15.265 Y34.103 E20.11227
G1 X16.203 Y34.336 E20.16049
G1 X16.403 Y34.396 E20.17091
G1 X17.319 Y34.718 E20.21935
G1 X17.519 Y34.799 E20.23011
G1 X18.396 Y35.208 E20.27839
G1 X18.584 Y35.307 E20.28899
G1 X19.418 Y35.799 E20.3373
G1 X19.595 Y35.916 E20.34788
G1 X20.379 Y36.487 E20.39627
G1 X20.55 Y36.624 E20.4072
G1 X21.273 Y37.27 E20.45558
G1 X21.422 Y37.417 E20.46602
G1 X22.081 Y38.129 E20.51442
G1 X22.216 Y38.289 E20.52486
G1 X22.803 Y39.059 E20.57317
G1 X22.925 Y39.237 E20.58394
G1 X23.434 Y40.061 E20.63226
G1 X23.538 Y40.25 E20.64302
G1 X23.964 Y41.121 E20.69139
G1 X24.008 Y41.216 E20.69661
G1 X32.407 Y60.68 E21.75423
G1 X32.446 Y60.777 E21.75944
G1 X32.781 Y61.667 E21.80689
G1 X32.845 Y61.864 E21.81722
G1 X33.094 Y62.778 E21.86448
G1 X33.139 Y62.983 E21.87495
G1 X33.3 Y63.918 E21.92229
G1 X33.326 Y64.126 E21.93275
G1 X33.397 Y65.072 E21.98008
G1 X33.403 Y65.281 E21.99051
G1 X33.384 Y66.229 E22.03781
G1 X33.37 Y66.435 E22.04811
G1 X33.262 Y67.378 E22.09547
G1 X33.227 Y67.588 E22.10609
G1 X33.028 Y68.518 E22.15354
G1 X32.977 Y68.714 E22.16364
G1 X32.695 Y69.617 E22.21084
G1 X32.621 Y69.818 E22.22152
G1 X32.251 Y70.693 E22.26892
G1 X32.161 Y70.881 E22.27932
G1 X31.711 Y71.715 E22.3266
G1 X31.605 Y71.891 E22.33685
G1 X31.077 Y72.682 E22.38429
G1 X30.953 Y72.851 E22.39475
G1 X30.355 Y73.585 E22.44199
G1 X30.216 Y73.739 E22.45234
G1 X29.55 Y74.415 E22.49968
G1 X29.394 Y74.559 E22.51027
G1 X28.664 Y75.169 E22.55773
G1 X28.499 Y75.294 E22.56806
G1 X27.719 Y75.83 E22.61528
G1 X27.541 Y75.94 E22.62572
G1 X26.711 Y76.401 E22.67308
G1 X26.619 Y76.45 E22.67828
G1 X7.62 Y85.854 E23.73591
G1 X7.527 Y85.897 E23.74102
G1 X6.685 Y86.266 E23.78688
G1 X6.498 Y86.338 E23.79688
G1 X5.625 Y86.629 E23.84279
G1 X5.43 Y86.684 E23.8529
G1 X4.537 Y86.893 E23.89865
G1 X4.337 Y86.93 E23.9088
G1 X3.425 Y87.056 E23.95473
G1 X3.227 Y87.075 E23.96466
G1 X2.31 Y87.118 E24.01046
G1 X2.104 Y87.118 E24.02073
G1 X1.187 Y87.075 E24.06653
G1 X0.991 Y87.057 E24.07635
G1 X0.079 Y86.932 E24.12228
G1 X-.126 Y86.894 E24.13268
G1 X-1.019 Y86.684 E24.17845
G1 X-1.21 Y86.629 E24.18836
G1 X-2.084 Y86.338 E24.23432
G1 X-2.274 Y86.265 E24.24448
G1 X-3.114 Y85.896 E24.29025
G1 X-3.205 Y85.854 E24.29525
G1 X-22.206 Y76.45 E25.35296
G1 X-22.298 Y76.401 E25.35816
G1 X-23.128 Y75.94 E25.40553
G1 X-23.306 Y75.83 E25.41597
G1 X-24.086 Y75.294 E25.46318
G1 X-24.252 Y75.168 E25.47358
G1 X-24.981 Y74.558 E25.521
G1 X-25.136 Y74.415 E25.53153
G1 X-25.801 Y73.74 E25.5788
G1 X-25.94 Y73.585 E25.58919
G1 X-26.54 Y72.848 E25.6366
G1 X-26.663 Y72.681 E25.64695
G1 X-27.19 Y71.892 E25.69428
G1 X-27.296 Y71.717 E25.70449
G1 X-27.748 Y70.882 E25.75186
G1 X-27.841 Y70.689 E25.76255
G1 X-28.209 Y69.815 E25.80986
G1 X-28.28 Y69.619 E25.82026
G1 X-28.563 Y68.716 E25.86747
G1 X-28.616 Y68.516 E25.8778
G1 X-28.814 Y67.586 E25.92523
G1 X-28.847 Y67.381 E25.93559
G1 X-28.956 Y66.44 E25.98285
G1 X-28.971 Y66.229 E25.99341
G1 X-28.989 Y65.28 E26.04076
G1 X-28.983 Y65.073 E26.05109
G1 X-28.912 Y64.128 E26.09837
G1 X-28.886 Y63.92 E26.10883
G1 X-28.725 Y62.983 E26.15626
G1 X-28.68 Y62.78 E26.16664
G1 X-28.432 Y61.866 E26.21388
G1 X-28.368 Y61.668 E26.22426
G1 X-28.034 Y60.779 E26.27164
G1 X-27.995 Y60.681 E26.27691
G1 X-19.594 Y41.215 E27.33465
G1 X-19.55 Y41.12 E27.33987
G1 X-19.125 Y40.252 E27.38809
G1 X-19.021 Y40.064 E27.39881
G1 X-18.512 Y39.239 E27.44717
G1 X-18.39 Y39.061 E27.45794
G1 X-17.803 Y38.29 E27.50628
G1 X-17.668 Y38.129 E27.51677
G1 X-17.009 Y37.417 E27.56517
G1 X-16.86 Y37.27 E27.57561
G1 X-16.138 Y36.625 E27.62391
G1 X-15.968 Y36.488 E27.6348
G1 X-15.183 Y35.916 E27.68326
G1 X-15.004 Y35.799 E27.69393
G1 X-14.171 Y35.308 E27.74217
G1 X-13.985 Y35.21 E27.75266
G1 X-13.107 Y34.8 E27.80101
G1 X-12.906 Y34.718 E27.81184
G1 X-11.99 Y34.396 E27.86028
G1 X-11.79 Y34.336 E27.87069
G1 X-10.851 Y34.103 E27.91896
G1 X-10.638 Y34.061 E27.92979
G1 X-9.677 Y33.921 E27.97824
G1 X-9.467 Y33.901 E27.98877
G1 X-8.5 Y33.854 E28.03707
G1 X-8.393 Y33.851 E28.04241
G0 F3600 X-8.393 Y34.251
G1 F2400 X12.806 Y34.251 E29.10003
G1 X12.893 Y34.253 E29.10437
G1 X13.861 Y34.3 E29.15272
G1 X14.033 Y34.317 E29.16135
G1 X14.994 Y34.457 E29.2098
G1 X15.169 Y34.491 E29.21869
G1 X16.107 Y34.724 E29.26691
G1 X16.27 Y34.773 E29.2754
G1 X17.186 Y35.095 E29.32384
G1 X17.35 Y35.162 E29.33268
G1 X18.227 Y35.571 E29.38096
G1 X18.381 Y35.652 E29.38964
G1 X19.215 Y36.144 E29.43795
G1 X19.36 Y36.239 E29.4466
G1 X20.144 Y36.81 E29.49499
G1 X20.283 Y36.923 E29.50392
G1 X21.006 Y37.569 E29.55229
G1 X21.128 Y37.688 E29.5608
G1 X21.787 Y38.4 E29.6092
G1 X21.897 Y38.532 E29.61777
G1 X22.484 Y39.302 E29.66608
G1 X22.584 Y39.447 E29.67486
G1 X23.093 Y40.271 E29.72318
G1 X23.179 Y40.426 E29.73203
G1 X23.605 Y41.297 E29.7804
G1 X23.641 Y41.375 E29.78469
G1 X32.04 Y60.839 E30.8423
G1 X32.072 Y60.918 E30.84655
G1 X32.407 Y61.808 E30.894
G1 X32.459 Y61.969 E30.90244
G1 X32.708 Y62.883 E30.9497
G1 X32.745 Y63.051 E30.95828
G1 X32.906 Y63.986 E31.00562
G1 X32.927 Y64.156 E31.01416
G1 X32.998 Y65.102 E31.06149
G1 X33.003 Y65.273 E31.07003
G1 X32.984 Y66.221 E31.11733
G1 X32.972 Y66.39 E31.12578
G1 X32.864 Y67.333 E31.17314
G1 X32.836 Y67.505 E31.18183
G1 X32.637 Y68.435 E31.22928
G1 X32.595 Y68.595 E31.23753
G1 X32.313 Y69.498 E31.28473
G1 X32.253 Y69.662 E31.29344
G1 X31.883 Y70.537 E31.34084
G1 X31.809 Y70.691 E31.34936
G1 X31.359 Y71.525 E31.39664
G1 X31.272 Y71.669 E31.40503
G1 X30.744 Y72.46 E31.45248
G1 X30.642 Y72.598 E31.46104
G1 X30.044 Y73.332 E31.50828
G1 X29.931 Y73.458 E31.51672
G1 X29.265 Y74.134 E31.56406
G1 X29.137 Y74.252 E31.57275
G1 X28.407 Y74.862 E31.62021
G1 X28.272 Y74.964 E31.62865
G1 X27.492 Y75.5 E31.67587
G1 X27.347 Y75.591 E31.68441
G1 X26.517 Y76.052 E31.73178
G1 X7.442 Y85.495 E32.79366
G1 X7.367 Y85.531 E32.79781
G1 X6.525 Y85.9 E32.84368
G1 X6.371 Y85.959 E32.8519
G1 X5.498 Y86.25 E32.89781
G1 X5.339 Y86.295 E32.90606
G1 X4.446 Y86.504 E32.95181
G1 X4.282 Y86.534 E32.96013
G1 X3.37 Y86.66 E33.00606
G1 X3.208 Y86.675 E33.01418
G1 X2.291 Y86.718 E33.05998
G1 X2.123 Y86.718 E33.06836
G1 X1.206 Y86.675 E33.11416
G1 X1.046 Y86.66 E33.12218
G1 X0.134 Y86.535 E33.1681
G1 X-0.034 Y86.504 E33.17663
G1 X-.927 Y86.294 E33.22239
G1 X-1.084 Y86.25 E33.23053
G1 X-1.958 Y85.959 E33.27649
G1 X-2.113 Y85.899 E33.28478
