;FLAVOR:Marlin
;TIME:1084
;Filament used: 1.61521m
;Layer height: 0.1
;MINX:-19.661
;MINY:-83.297
;MINZ:0.2
;MAXX:29.761
;MAXY:-33.876
;MAXZ:8.31
;TARGET_MACHINE.NAME:Unknown
;Generated with Cura_SteamEngine 5.8.1
M140 S50
M105
M190 S50
M104 S230
M105
M109 S230
M82 ;absolute extrusion mode
;FLAVOR:Marlin
M82 ;absolute extrusion mode
G21
G90
M82
M107 T0
G28
G92 E0
G0 E3 F200
G92 E0 ; reset extrusion distance
M106 S255 ; Enable cooling fan full speed
G1 X-98 Y0 Z0.4 F3000 ; move to arc start
G3 X0 Y-98 I98 Z0.4 E40 F400 ; lay arc stripe 90deg
G92 E0 ; reset extrusion distance
G4 P500 ; wait for 0.5 sec
G0 Z10 E-1 ; Lift 15mm and retract 1mm filament
G4 P2000 ; wait for 5 sec
G0 Z15
M107 ; Disable cooling fan
G1 X0 Y-85 Z4 E0 F3000 ; get off the bed
G92 E0
G92 E0
G1 F1500 E-1
;LAYER_COUNT:34
;LAYER:0
M106 S102
G1 F600 Z1.2
G0 F1500 X3.926 Y-33.924 Z1.2
;TYPE:SKIRT
G1 F600 Z0.2
G1 F3600 E0.75698
G1 F1200 X3.249 Y-34.001 E0.78449
G1 X2.578 Y-34.114 E0.81196
G1 X2.054 Y-34.229 E0.83362
G1 X1.236 Y-34.459 E0.86792
G1 X0.582 Y-34.683 E0.89583
G1 X-0.011 Y-34.924 E0.92167
G1 X-.652 Y-35.224 E0.95025
G1 X-1.238 Y-35.539 E0.97711
G1 X-1.865 Y-35.922 E1.00677
G1 X-2.418 Y-36.301 E1.03383
G1 X-2.886 Y-36.656 E1.05755
G1 X-3.485 Y-37.171 E1.08944
G1 X-3.927 Y-37.589 E1.114
G1 X-15.998 Y-49.666 E1.80337
G1 X-16.465 Y-50.159 E1.83078
G1 X-16.867 Y-50.635 E1.85594
G1 X-17.321 Y-51.238 E1.88641
G1 X-17.711 Y-51.821 E1.91473
G1 X-18.031 Y-52.355 E1.93986
G1 X-18.346 Y-52.952 E1.96711
G1 X-18.665 Y-53.644 E1.99788
G1 X-18.864 Y-54.143 E2.01956
G1 X-19.132 Y-54.946 E2.05374
G1 X-19.309 Y-55.594 E2.08086
G1 X-19.425 Y-56.117 E2.10249
G1 X-19.56 Y-56.954 E2.13672
G1 X-19.618 Y-57.487 E2.15836
G1 X-19.661 Y-58.325 E2.19224
G1 X-19.654 Y-59.018 E2.22022
G1 X-19.612 Y-59.71 E2.24821
G1 X-19.537 Y-60.376 E2.27526
G1 X-19.451 Y-60.905 E2.2969
G1 X-19.265 Y-61.728 E2.33097
G1 X-19.079 Y-62.399 E2.35908
G1 X-18.893 Y-62.946 E2.3824
G1 X-18.597 Y-63.682 E2.41443
G1 X-18.324 Y-64.266 E2.44046
G1 X-18.004 Y-64.864 E2.46784
G1 X-17.621 Y-65.494 E2.4976
G1 X-17.294 Y-65.974 E2.52105
G1 X-16.813 Y-66.602 E2.55299
G1 X-16.393 Y-67.095 E2.57914
G1 X-15.954 Y-67.556 E2.60484
G1 X-3.869 Y-79.635 E3.29466
G1 X-3.36 Y-80.117 E3.32296
G1 X-2.935 Y-80.476 E3.34542
G1 X-2.292 Y-80.961 E3.37793
G1 X-1.749 Y-81.329 E3.40442
G1 X-1.198 Y-81.657 E3.4303
G1 X-.525 Y-82.009 E3.46097
G1 X0.108 Y-82.301 E3.48911
G1 X0.629 Y-82.508 E3.51174
G1 X1.392 Y-82.762 E3.54421
G1 X2.072 Y-82.945 E3.57264
G1 X2.747 Y-83.089 E3.6005
G1 X3.418 Y-83.196 E3.62794
G1 X3.95 Y-83.254 E3.64954
G1 X4.776 Y-83.297 E3.68293
G1 X5.324 Y-83.297 E3.70506
G1 X6.173 Y-83.249 E3.73939
G1 X6.825 Y-83.176 E3.76588
G1 X7.522 Y-83.059 E3.79441
G1 X8.047 Y-82.944 E3.81611
G1 X8.861 Y-82.716 E3.85024
G1 X9.41 Y-82.529 E3.87365
G1 X10.147 Y-82.233 E3.90571
G1 X10.712 Y-81.969 E3.93089
G1 X11.35 Y-81.627 E3.96012
G1 X11.911 Y-81.287 E3.9866
G1 X12.52 Y-80.872 E4.01635
G1 X12.947 Y-80.548 E4.03799
G1 X13.584 Y-80.002 E4.07186
G1 X14.026 Y-79.584 E4.09643
G1 X26.099 Y-67.504 E4.78593
G1 X26.576 Y-67 E4.81395
G1 X27.023 Y-66.469 E4.84197
G1 X27.377 Y-65.999 E4.86573
G1 X27.809 Y-65.352 E4.89713
G1 X28.14 Y-64.798 E4.92319
G1 X28.473 Y-64.161 E4.95221
G1 X28.756 Y-63.546 E4.97954
G1 X29.003 Y-62.919 E5.00675
G1 X29.232 Y-62.22 E5.03644
G1 X29.408 Y-61.566 E5.06378
G1 X29.552 Y-60.895 E5.09149
G1 X29.66 Y-60.22 E5.11909
G1 X29.718 Y-59.687 E5.14073
G1 X29.761 Y-58.847 E5.17469
G1 X29.754 Y-58.154 E5.20267
G1 X29.715 Y-57.463 E5.23061
G1 X29.646 Y-56.848 E5.2556
G1 X29.522 Y-56.114 E5.28565
G1 X29.407 Y-55.59 E5.30731
G1 X29.18 Y-54.775 E5.34146
G1 X28.993 Y-54.226 E5.36488
G1 X28.697 Y-53.49 E5.39691
G1 X28.453 Y-52.965 E5.42028
G1 X28.08 Y-52.267 E5.45223
G1 X27.776 Y-51.766 E5.47589
G1 X27.336 Y-51.116 E5.50758
G1 X27.012 Y-50.689 E5.52922
G1 X26.465 Y-50.052 E5.56312
G1 X26.047 Y-49.61 E5.58768
G1 X13.967 Y-37.537 E6.27718
G1 X13.462 Y-37.06 E6.30523
G1 X12.929 Y-36.613 E6.33331
G1 X12.392 Y-36.211 E6.36039
G1 X11.866 Y-35.856 E6.38601
G1 X11.226 Y-35.476 E6.41606
G1 X10.721 Y-35.209 E6.43913
G1 X9.992 Y-34.874 E6.47152
G1 X9.385 Y-34.634 E6.49787
G1 X8.727 Y-34.416 E6.52585
G1 X8.029 Y-34.228 E6.55504
G1 X7.357 Y-34.084 E6.58278
G1 X6.682 Y-33.976 E6.61038
G1 X6.149 Y-33.918 E6.63203
G1 X5.31 Y-33.876 E6.66594
G1 X4.725 Y-33.882 E6.68956
G0 F1080 X4.622 Y-33.883
G0 X3.926 Y-33.924
G0 F1500 X3.971 Y-34.321
G1 F1200 X3.315 Y-34.396 E6.71622
G1 X2.664 Y-34.505 E6.74286
G1 X2.14 Y-34.62 E6.76452
G1 X1.366 Y-34.837 E6.79698
G1 X0.733 Y-35.054 E6.82399
G1 X0.14 Y-35.295 E6.84983
G1 X-.463 Y-35.577 E6.87671
G1 X-1.03 Y-35.881 E6.90268
G1 X-1.639 Y-36.252 E6.93147
G1 X-2.176 Y-36.62 E6.95775
G1 X-2.644 Y-36.975 E6.98147
G1 X-3.21 Y-37.461 E7.01159
G1 X-3.644 Y-37.872 E7.03572
G1 X-15.708 Y-49.941 E7.72466
G1 X-16.159 Y-50.417 E7.75113
G1 X-16.561 Y-50.893 E7.77628
G1 X-16.989 Y-51.461 E7.805
G1 X-17.368 Y-52.027 E7.8325
G1 X-17.677 Y-52.542 E7.85674
G1 X-17.992 Y-53.139 E7.884
G1 X-18.293 Y-53.792 E7.91302
G1 X-18.492 Y-54.291 E7.93471
G1 X-18.746 Y-55.052 E7.9671
G1 X-18.918 Y-55.681 E7.99343
G1 X-19.034 Y-56.204 E8.01506
G1 X-19.162 Y-56.997 E8.04749
G1 X-19.22 Y-57.53 E8.06913
G1 X-19.261 Y-58.321 E8.10111
G1 X-19.255 Y-58.994 E8.12828
G1 X-19.215 Y-59.665 E8.15542
G1 X-19.142 Y-60.312 E8.1817
G1 X-19.056 Y-60.841 E8.20334
G1 X-18.88 Y-61.621 E8.23562
G1 X-18.7 Y-62.27 E8.26281
G1 X-18.514 Y-62.817 E8.28614
G1 X-18.234 Y-63.513 E8.31643
G1 X-17.971 Y-64.077 E8.34155
G1 X-17.651 Y-64.675 E8.36893
G1 X-17.291 Y-65.269 E8.39698
G1 X-16.976 Y-65.731 E8.41955
G1 X-16.508 Y-66.343 E8.45065
G1 X-16.103 Y-66.819 E8.47589
G1 X-15.671 Y-67.273 E8.50119
G1 X-3.594 Y-79.345 E9.19058
G1 X-3.102 Y-79.811 E9.21794
G1 X-2.677 Y-80.17 E9.2404
G1 X-2.068 Y-80.63 E9.27121
G1 X-1.544 Y-80.985 E9.29676
G1 X-.993 Y-81.313 E9.32265
G1 X-.358 Y-81.646 E9.3516
G1 X0.256 Y-81.929 E9.37889
G1 X0.755 Y-82.128 E9.40058
G1 X1.518 Y-82.382 E9.43305
G1 X2.156 Y-82.554 E9.45973
G1 X2.81 Y-82.694 E9.48673
G1 X3.461 Y-82.798 E9.51334
G1 X3.993 Y-82.856 E9.53495
G1 X4.776 Y-82.897 E9.5666
G1 X5.324 Y-82.897 E9.58873
G1 X6.128 Y-82.851 E9.62124
G1 X6.78 Y-82.778 E9.64773
G1 X7.436 Y-82.668 E9.67458
G1 X7.961 Y-82.553 E9.69628
G1 X8.732 Y-82.337 E9.7286
G1 X9.281 Y-82.15 E9.75202
G1 X9.978 Y-81.87 E9.78234
G1 X10.523 Y-81.616 E9.80662
G1 X11.161 Y-81.274 E9.83584
G1 X11.686 Y-80.957 E9.8606
G1 X12.278 Y-80.553 E9.88954
G1 X12.705 Y-80.229 E9.91118
G1 X13.309 Y-79.712 E9.94328
G1 X13.743 Y-79.301 E9.96741
G1 X25.809 Y-67.229 E10.65649
G1 X26.27 Y-66.742 E10.68356
G1 X26.703 Y-66.228 E10.71069
G1 X27.057 Y-65.758 E10.73445
G1 X27.466 Y-65.147 E10.76413
G1 X27.786 Y-64.612 E10.7893
G1 X28.11 Y-63.994 E10.81747
G1 X28.384 Y-63.399 E10.84392
G1 X28.623 Y-62.794 E10.87018
G1 X28.846 Y-62.116 E10.899
G1 X29.017 Y-61.482 E10.92551
G1 X29.157 Y-60.832 E10.95235
G1 X29.262 Y-60.177 E10.97913
G1 X29.32 Y-59.644 E11.00078
G1 X29.361 Y-58.851 E11.03284
G1 X29.355 Y-58.177 E11.06005
G1 X29.317 Y-57.508 E11.0871
G1 X29.248 Y-56.893 E11.11208
G1 X29.131 Y-56.2 E11.14046
G1 X29.016 Y-55.676 E11.16212
G1 X28.801 Y-54.904 E11.19447
G1 X28.614 Y-54.355 E11.21789
G1 X28.334 Y-53.659 E11.24817
G1 X28.09 Y-53.134 E11.27155
G1 X27.738 Y-52.475 E11.30171
G1 X27.434 Y-51.974 E11.32537
G1 X27.017 Y-51.358 E11.3554
G1 X26.693 Y-50.931 E11.37704
G1 X26.175 Y-50.327 E11.40916
G1 X25.764 Y-49.893 E11.43329
G1 X13.692 Y-37.827 E12.12237
G1 X13.205 Y-37.366 E12.14945
G1 X12.689 Y-36.933 E12.17664
G1 X12.168 Y-36.543 E12.20292
G1 X11.642 Y-36.188 E12.22854
G1 X11.039 Y-35.83 E12.25685
G1 X10.534 Y-35.563 E12.27991
G1 X9.845 Y-35.246 E12.31053
G1 X9.259 Y-35.014 E12.33597
G1 X8.601 Y-34.796 E12.36396
G1 X7.945 Y-34.619 E12.39139
G1 X7.294 Y-34.479 E12.41827
G1 X6.639 Y-34.374 E12.44505
G1 X6.106 Y-34.316 E12.4667
G1 X5.314 Y-34.276 E12.49872
G1 X4.77 Y-34.281 E12.52068
G0 F1080 X4.645 Y-34.282
G0 X3.971 Y-34.321
G0 F1500 X4.016 Y-34.718
G1 F1200 X3.381 Y-34.79 E12.54648
G1 X2.75 Y-34.896 E12.57231
G1 X2.226 Y-35.011 E12.59397
G1 X1.496 Y-35.215 E12.62457
G1 X0.884 Y-35.425 E12.65069
G1 X0.291 Y-35.666 E12.67654
G1 X-.274 Y-35.93 E12.70171
G1 X-.822 Y-36.223 E12.7268
G1 X-1.413 Y-36.582 E12.75472
G1 X-1.934 Y-36.939 E12.78022
G1 X-2.402 Y-37.294 E12.80393
G1 X-2.935 Y-37.752 E12.8323
G1 X-3.361 Y-38.155 E12.85598
G1 X-15.418 Y-50.216 E13.54449
G1 X-15.853 Y-50.675 E13.57002
G1 X-16.255 Y-51.151 E13.59517
G1 X-16.657 Y-51.684 E13.62212
G1 X-17.025 Y-52.233 E13.64881
G1 X-17.323 Y-52.729 E13.67217
G1 X-17.638 Y-53.326 E13.69942
G1 X-17.921 Y-53.94 E13.72671
G1 X-18.12 Y-54.439 E13.7484
G1 X-18.36 Y-55.157 E13.77897
G1 X-18.527 Y-55.768 E13.80454
G1 X-18.643 Y-56.291 E13.82617
G1 X-18.764 Y-57.04 E13.8568
G1 X-18.822 Y-57.573 E13.87844
G1 X-18.861 Y-58.318 E13.90856
G1 X-18.856 Y-58.971 E13.93492
G1 X-18.818 Y-59.62 E13.96117
G1 X-18.747 Y-60.248 E13.98669
G1 X-18.661 Y-60.777 E14.00832
G1 X-18.495 Y-61.514 E14.03882
G1 X-18.321 Y-62.141 E14.06509
G1 X-18.135 Y-62.688 E14.08842
G1 X-17.871 Y-63.344 E14.11697
G1 X-17.618 Y-63.888 E14.14119
G1 X-17.298 Y-64.486 E14.16857
G1 X-16.96 Y-65.044 E14.19491
G1 X-16.658 Y-65.488 E14.21659
G1 X-16.203 Y-66.084 E14.24686
G1 X-15.798 Y-66.56 E14.27209
G1 X-15.388 Y-66.99 E14.29608
G1 X-3.319 Y-79.055 E14.98504
G1 X-2.844 Y-79.505 E15.01146
G1 X-2.419 Y-79.864 E15.03392
G1 X-1.844 Y-80.299 E15.06303
G1 X-1.339 Y-80.641 E15.08765
G1 X-.788 Y-80.969 E15.11354
G1 X-.19 Y-81.283 E15.14081
G1 X0.404 Y-81.557 E15.16722
G1 X0.903 Y-81.756 E15.18891
G1 X1.623 Y-81.996 E15.21955
G1 X2.24 Y-82.163 E15.24535
G1 X2.873 Y-82.299 E15.27149
G1 X3.504 Y-82.4 E15.29729
G1 X4.036 Y-82.458 E15.3189
G1 X4.776 Y-82.497 E15.34881
G1 X5.324 Y-82.497 E15.37094
G1 X6.083 Y-82.454 E15.40163
G1 X6.714 Y-82.383 E15.42726
G1 X7.35 Y-82.277 E15.4533
G1 X7.875 Y-82.162 E15.47499
G1 X8.603 Y-81.958 E15.50552
G1 X9.152 Y-81.771 E15.52893
G1 X9.809 Y-81.507 E15.55752
G1 X10.334 Y-81.263 E15.58089
G1 X10.955 Y-80.931 E15.60932
G1 X11.461 Y-80.626 E15.63317
G1 X12.036 Y-80.234 E15.66127
G1 X12.463 Y-79.91 E15.68291
G1 X13.034 Y-79.421 E15.71326
G1 X13.46 Y-79.018 E15.73693
G1 X25.519 Y-66.954 E16.42558
G1 X25.964 Y-66.484 E16.45171
G1 X26.383 Y-65.987 E16.47796
G1 X26.737 Y-65.517 E16.50171
G1 X27.123 Y-64.941 E16.52971
G1 X27.432 Y-64.426 E16.55395
G1 X27.747 Y-63.827 E16.58128
G1 X28.012 Y-63.252 E16.60684
G1 X28.243 Y-62.669 E16.63215
G1 X28.46 Y-62.011 E16.66013
G1 X28.626 Y-61.398 E16.68577
G1 X28.762 Y-60.768 E16.71179
G1 X28.864 Y-60.134 E16.73771
G1 X28.922 Y-59.601 E16.75936
G1 X28.961 Y-58.854 E16.78956
G1 X28.956 Y-58.2 E16.81596
G1 X28.919 Y-57.553 E16.84212
G1 X28.85 Y-56.938 E16.86711
G1 X28.74 Y-56.286 E16.8938
G1 X28.625 Y-55.762 E16.91546
G1 X28.422 Y-55.033 E16.94601
G1 X28.235 Y-54.484 E16.96943
G1 X27.971 Y-53.828 E16.99798
G1 X27.727 Y-53.303 E17.02135
G1 X27.396 Y-52.683 E17.04972
G1 X27.092 Y-52.182 E17.07338
G1 X26.698 Y-51.6 E17.10176
G1 X26.374 Y-51.173 E17.1234
G1 X25.884 Y-50.602 E17.15377
G1 X25.481 Y-50.176 E17.17745
G1 X13.417 Y-38.117 E17.8661
G1 X12.947 Y-37.672 E17.89223
G1 X12.449 Y-37.253 E17.91851
G1 X11.944 Y-36.874 E17.944
G1 X11.438 Y-36.532 E17.96865
G1 X10.852 Y-36.184 E17.99617
G1 X10.347 Y-35.917 E18.01923
G1 X9.697 Y-35.618 E18.04812
G1 X9.133 Y-35.394 E18.07262
G1 X8.475 Y-35.176 E18.1006
G1 X7.861 Y-35.01 E18.12628
G1 X7.231 Y-34.874 E18.1523
G1 X6.596 Y-34.772 E18.17827
G1 X6.063 Y-34.714 E18.19991
G1 X5.317 Y-34.676 E18.23007
G1 X4.815 Y-34.68 E18.25034
G0 F1080 X4.668 Y-34.681
G0 X4.016 Y-34.718
G0 F1500 X4.061 Y-35.115
G1 F1200 X3.447 Y-35.184 E18.27528
G1 X2.836 Y-35.287 E18.3003
G1 X2.312 Y-35.402 E18.32195
G1 X1.626 Y-35.593 E18.3507
G1 X1.034 Y-35.796 E18.37597
G1 X0.46 Y-36.029 E18.40098
G1 X-0.085 Y-36.283 E18.42525
G1 X-.633 Y-36.576 E18.45034
G1 X-1.187 Y-36.912 E18.4765
G1 X-1.692 Y-37.258 E18.50121
G1 X-2.16 Y-37.613 E18.52493
G1 X-2.66 Y-38.042 E18.55153
G1 X-3.078 Y-38.438 E18.57477
G1 X-15.128 Y-50.491 E19.26285
G1 X-15.547 Y-50.933 E19.28744
G1 X-15.949 Y-51.409 E19.3126
G1 X-16.325 Y-51.907 E19.33779
G1 X-16.682 Y-52.439 E19.36365
G1 X-16.969 Y-52.916 E19.38613
G1 X-17.284 Y-53.513 E19.41338
G1 X-17.549 Y-54.088 E19.43894
G1 X-17.748 Y-54.587 E19.46063
G1 X-17.974 Y-55.263 E19.48941
G1 X-18.136 Y-55.855 E19.51418
G1 X-18.252 Y-56.378 E19.53581
G1 X-18.366 Y-57.083 E19.56464
G1 X-18.424 Y-57.616 E19.58629
G1 X-18.461 Y-58.315 E19.61455
G1 X-18.457 Y-58.948 E19.64011
G1 X-18.421 Y-59.575 E19.66546
G1 X-18.352 Y-60.184 E19.6902
G1 X-18.266 Y-60.713 E19.71184
G1 X-18.11 Y-61.407 E19.74056
G1 X-17.942 Y-62.012 E19.76591
G1 X-17.756 Y-62.559 E19.78923
G1 X-17.508 Y-63.175 E19.81604
G1 X-17.255 Y-63.719 E19.84027
G1 X-16.956 Y-64.279 E19.86589
G1 X-16.629 Y-64.819 E19.89138
G1 X-16.327 Y-65.263 E19.91306
G1 X-15.899 Y-65.825 E19.94158
G1 X-15.508 Y-66.284 E19.96592
G1 X-15.105 Y-66.707 E19.98951
G1 X-3.044 Y-78.765 E20.67805
G1 X-2.586 Y-79.199 E20.70352
G1 X-2.161 Y-79.558 E20.72598
G1 X-1.619 Y-79.968 E20.75342
G1 X-1.134 Y-80.297 E20.77708
G1 X-.583 Y-80.625 E20.80297
G1 X-0.023 Y-80.92 E20.82852
G1 X0.552 Y-81.185 E20.85408
G1 X1.051 Y-81.384 E20.87577
G1 X1.728 Y-81.61 E20.90458
G1 X2.324 Y-81.772 E20.92952
G1 X2.936 Y-81.904 E20.95479
G1 X3.547 Y-82.002 E20.97978
G1 X4.079 Y-82.06 E21.00138
G1 X4.776 Y-82.097 E21.02956
G1 X5.324 Y-82.097 E21.05169
G1 X6.038 Y-82.057 E21.08056
G1 X6.649 Y-81.988 E21.10538
G1 X7.264 Y-81.886 E21.13055
G1 X7.789 Y-81.771 E21.15225
G1 X8.474 Y-81.579 E21.18097
G1 X9.023 Y-81.392 E21.20438
G1 X9.64 Y-81.144 E21.23123
G1 X10.165 Y-80.9 E21.2546
G1 X10.749 Y-80.588 E21.28133
G1 X11.236 Y-80.295 E21.30428
G1 X11.794 Y-79.915 E21.33153
G1 X12.221 Y-79.591 E21.35317
G1 X12.759 Y-79.131 E21.38175
G1 X13.177 Y-78.735 E21.405
G1 X25.229 Y-66.679 E22.09322
G1 X25.658 Y-66.226 E22.11841
G1 X26.063 Y-65.746 E22.14376
G1 X26.417 Y-65.276 E22.16752
G1 X26.78 Y-64.735 E22.19382
G1 X27.078 Y-64.239 E22.21718
G1 X27.384 Y-63.659 E22.24366
G1 X27.64 Y-63.104 E22.26833
G1 X27.863 Y-62.543 E22.2927
G1 X28.074 Y-61.906 E22.3198
G1 X28.235 Y-61.313 E22.3446
G1 X28.367 Y-60.704 E22.36976
G1 X28.466 Y-60.091 E22.39483
G1 X28.524 Y-59.558 E22.41648
G1 X28.561 Y-58.857 E22.44482
G1 X28.557 Y-58.223 E22.47041
G1 X28.521 Y-57.598 E22.49569
G1 X28.452 Y-56.983 E22.52067
G1 X28.349 Y-56.372 E22.54569
G1 X28.234 Y-55.848 E22.56735
G1 X28.043 Y-55.162 E22.59609
G1 X27.856 Y-54.613 E22.61951
G1 X27.608 Y-53.997 E22.64632
G1 X27.364 Y-53.472 E22.66969
G1 X27.054 Y-52.891 E22.69628
G1 X26.75 Y-52.39 E22.71994
G1 X26.379 Y-51.842 E22.74665
G1 X26.055 Y-51.415 E22.76829
G1 X25.594 Y-50.877 E22.7969
G1 X25.198 Y-50.459 E22.82014
G1 X13.142 Y-38.407 E23.50837
G1 X12.689 Y-37.978 E23.53355
G1 X12.209 Y-37.573 E23.55891
G1 X11.719 Y-37.205 E23.58365
G1 X11.234 Y-36.876 E23.60731
G1 X10.665 Y-36.538 E23.63403
G1 X10.16 Y-36.271 E23.65709
G1 X9.549 Y-35.99 E23.68424
G1 X9.007 Y-35.774 E23.7078
G1 X8.37 Y-35.562 E23.7349
G1 X7.776 Y-35.401 E23.75975
G1 X7.167 Y-35.269 E23.78491
G1 X6.553 Y-35.17 E23.81001
G1 X6.02 Y-35.112 E23.83166
G1 X5.32 Y-35.076 E23.85996
G1 X4.86 Y-35.079 E23.87853
G0 F1080 X4.69 Y-35.08
G0 X4.061 Y-35.115
G0 F1500 X4.106 Y-35.512
G1 F1200 X3.513 Y-35.579 E23.90262
G1 X2.922 Y-35.678 E23.92681
G1 X2.398 Y-35.793 E23.94847
G1 X1.755 Y-35.972 E23.97542
G1 X1.184 Y-36.167 E23.99978
G1 X0.629 Y-36.392 E24.02396
G1 X0.104 Y-36.636 E24.04733
G1 X-.444 Y-36.929 E24.07242
G1 X-.961 Y-37.242 E24.09682
G1 X-1.45 Y-37.577 E24.12075
