;FLAVOR:Marlin
;TIME:4512
;Filament used: 4.37364m
;Layer height: 0.24
;MINX:-40.066
;MINY:-57.631
;MINZ:0.24
;MAXX:50.08
;MAXY:57.686
;MAXZ:2.16
;Generated with Cura_SteamEngine 4.13.1
M140 S50
M105
M190 S50
M104 S215
M105
M109 S215
M82 ;absolute extrusion mode
;FLAVOR:Marlin
M82 ;absolute extrusion mode
G21
G90
M82
M107 T0
G28
G92 E0
G0 E3 F200
G92 E0 ; reset extrusion distance
M106 S255 ; Enable cooling fan full speed
G1 X-98 Y0 Z0.4 F3000 ; move to arc start
G3 X0 Y-98 I98 Z0.4 E40 F400 ; lay arc stripe 90deg
G92 E0 ; reset extrusion distance
G4 P500 ; wait for 0.5 sec
G0 Z10 E-1 ; Lift 15mm and retract 1mm filament
G4 P2000 ; wait for 5 sec
G0 Z15
M107 ; Disable cooling fan
G1 X0 Y-85 Z4 E0 F3000 ; get off the bed
G92 E0
G92 E0
G1 F1500 E-6
;LAYER_COUNT:10
;LAYER:0
M106 S102
G1 F600 Z1.24
G0 F3600 X-14.001 Y0.569 Z1.24
;TYPE:SKIRT
G1 F600 Z0.24
G1 F3600 E0.71493
G1 F1200 X-14.433 Y-2.173 E0.8382
G1 X-14.926 Y-4.817 E0.95764
G1 X-15.519 Y-7.557 E1.08214
G1 X-16.166 Y-10.194 E1.20272
G1 X-16.902 Y-12.857 E1.32542
G1 X-17.722 Y-15.528 E1.4495
G1 X-18.588 Y-18.089 E1.56956
G1 X-19.538 Y-20.656 E1.69111
G1 X-20.576 Y-23.237 E1.81466
G1 X-21.668 Y-25.743 E1.93605
G1 X-22.836 Y-28.23 E2.05807
G1 X-24.075 Y-30.684 E2.18016
G1 X-25.39 Y-33.117 E2.30298
G1 X-26.756 Y-35.48 E2.42419
G1 X-28.196 Y-37.815 E2.54602
G1 X-29.72 Y-40.14 E2.66947
G1 X-31.273 Y-42.366 E2.79001
G1 X-33.299 Y-45.086 E2.94063
G1 X-39.067 Y-52.553 E3.35965
G1 X-39.508 Y-53.141 E3.39229
G1 X-39.759 Y-53.542 E3.4133
G1 X-39.938 Y-53.979 E3.43427
G1 X-40.042 Y-54.441 E3.4553
G1 X-40.066 Y-54.913 E3.47629
G1 X-40.011 Y-55.383 E3.49731
G1 X-39.878 Y-55.836 E3.51827
G1 X-39.669 Y-56.261 E3.53931
G1 X-39.393 Y-56.644 E3.56027
G1 X-39.056 Y-56.976 E3.58128
G1 X-38.668 Y-57.246 E3.60227
G1 X-38.24 Y-57.447 E3.62327
G1 X-37.784 Y-57.573 E3.64428
G1 X-37.246 Y-57.624 E3.66828
G1 X-36.736 Y-57.631 E3.69093
G1 X-30.897 Y-57.631 E3.95024
G1 X-30.2 Y-57.621 E3.98119
G1 X-29.969 Y-57.608 E3.99147
G1 X-29.284 Y-57.541 E4.02203
G1 X-27.838 Y-57.376 E4.08667
G1 X-25.099 Y-57.142 E4.20875
G1 X-23.458 Y-57.039 E4.28177
G1 X-22.305 Y-56.977 E4.33304
G1 X-18.898 Y-56.803 E4.48455
G1 X-14.053 Y-56.56 E4.69998
G1 X-12.062 Y-56.457 E4.78852
G1 X-9.635 Y-56.328 E4.89645
G1 X-7.876 Y-56.23 E4.97469
G1 X-4.048 Y-56.005 E5.14498
G1 X-.235 Y-55.756 E5.31468
G1 X3.206 Y-55.506 E5.46789
G1 X3.7 Y-55.467 E5.4899
G1 X6.916 Y-55.2 E5.63321
G1 X7.74 Y-55.126 E5.66995
G1 X10.791 Y-54.831 E5.80608
G1 X11.716 Y-54.733 E5.84738
G1 X14.653 Y-54.397 E5.97867
G1 X15.43 Y-54.303 E6.01342
G1 X16.516 Y-54.161 E6.06206
G1 X17.281 Y-54.056 E6.09635
G1 X18.368 Y-53.901 E6.14512
G1 X19.048 Y-53.798 E6.17566
G1 X20.052 Y-53.64 E6.22079
G1 X20.907 Y-53.497 E6.25929
G1 X21.635 Y-53.37 E6.29211
G1 X22.694 Y-53.175 E6.33993
G1 X23.3 Y-53.056 E6.36736
G1 X24.268 Y-52.856 E6.41125
G1 X24.711 Y-52.761 E6.43137
G1 X26.126 Y-52.432 E6.49589
G1 X27.521 Y-52.066 E6.55994
G1 X28.979 Y-51.635 E6.62746
G1 X29.877 Y-51.338 E6.66946
G1 X30.142 Y-51.244 E6.68195
G1 X30.954 Y-50.934 E6.72055
G1 X31.786 Y-50.58 E6.7607
G1 X31.872 Y-50.541 E6.76489
G1 X32.615 Y-50.184 E6.8015
G1 X33.106 Y-49.929 E6.82607
G1 X33.841 Y-49.488 E6.86414
G1 X33.989 Y-49.389 E6.87204
G1 X34.709 Y-48.873 E6.91138
G1 X35.008 Y-48.63 E6.92849
G1 X35.493 Y-48.181 E6.95784
G1 X35.866 Y-47.787 E6.98194
G1 X36.294 Y-47.249 E7.01247
G1 X36.572 Y-46.826 E7.03495
G1 X36.873 Y-46.262 E7.06334
G1 X37.102 Y-45.708 E7.08996
G1 X37.254 Y-45.185 E7.11415
G1 X37.371 Y-44.624 E7.1396
G1 X37.459 Y-43.86 E7.17375
G1 X37.809 Y-41.15 E7.2951
G1 X38.244 Y-38.401 E7.4187
G1 X38.75 Y-35.701 E7.54069
G1 X39.319 Y-33.072 E7.66015
G1 X39.984 Y-30.372 E7.78364
G1 X40.728 Y-27.685 E7.90746
G1 X41.525 Y-25.09 E8.02801
G1 X42.403 Y-22.498 E8.14955
G1 X43.374 Y-19.877 E8.27367
G1 X44.392 Y-17.351 E8.39462
G1 X45.483 Y-14.85 E8.5158
G1 X46.667 Y-12.332 E8.63936
G1 X47.907 Y-9.879 E8.76143
G1 X48.875 Y-8.091 E8.85172
G1 X49.157 Y-7.549 E8.87886
G1 X49.211 Y-7.441 E8.88422
G1 X49.44 Y-6.95 E8.90828
G1 X49.712 Y-6.185 E8.94433
G1 X49.893 Y-5.517 E8.97507
G1 X50.009 Y-4.85 E9.00514
G1 X50.065 Y-4.317 E9.02894
G1 X50.08 Y-3.645 E9.05879
G1 X50.058 Y-3.074 E9.08416
G1 X49.936 Y-2.182 E9.12415
G1 X49.836 Y-1.685 E9.14666
G1 X49.375 Y0.377 E9.24049
G1 X48.851 Y3.066 E9.36216
G1 X48.393 Y5.838 E9.48693
G1 X48.028 Y8.511 E9.60674
G1 X47.731 Y11.27 E9.72997
G1 X47.515 Y14.001 E9.85163
G1 X47.375 Y16.741 E9.97347
G1 X47.314 Y19.467 E10.09456
G1 X47.33 Y22.255 E10.21838
G1 X47.421 Y24.948 E10.33804
G1 X47.594 Y27.729 E10.46178
G1 X47.845 Y30.489 E10.58486
G1 X48.167 Y33.181 E10.70526
G1 X48.576 Y35.935 E10.8289
G1 X49.048 Y38.603 E10.94923
G1 X49.346 Y40.097 E11.01688
G1 X49.578 Y41.211 E11.06742
G1 X49.653 Y41.713 E11.08996
G1 X49.666 Y41.816 E11.09457
G1 X49.715 Y42.315 E11.11684
G1 X49.722 Y43.046 E11.1493
G1 X49.669 Y43.817 E11.18362
G1 X49.575 Y44.387 E11.20928
G1 X49.433 Y45.03 E11.23852
G1 X49.263 Y45.56 E11.26324
G1 X49.06 Y46.104 E11.28902
G1 X48.663 Y46.92 E11.32932
G1 X48.543 Y47.132 E11.34014
G1 X48.159 Y47.743 E11.37219
G1 X47.795 Y48.262 E11.40034
G1 X47.286 Y48.877 E11.43579
G1 X47.167 Y49.008 E11.44365
G1 X46.46 Y49.733 E11.48863
G1 X45.763 Y50.356 E11.53014
G1 X45.269 Y50.758 E11.55843
G1 X44.789 Y51.118 E11.58507
G1 X44.374 Y51.405 E11.60748
G1 X43.469 Y51.989 E11.65531
G1 X43.006 Y52.266 E11.67927
G1 X42.288 Y52.667 E11.71579
G1 X41.579 Y53.036 E11.75129
G1 X41.074 Y53.282 E11.77624
G1 X40.179 Y53.691 E11.81994
G1 X39.95 Y53.788 E11.83098
G1 X38.306 Y54.437 E11.90947
G1 X38.203 Y54.476 E11.91436
G1 X36.843 Y54.952 E11.97835
G1 X35.283 Y55.435 E12.05088
G1 X35.192 Y55.462 E12.05509
G1 X33.598 Y55.894 E12.12843
G1 X32.018 Y56.268 E12.20054
G1 X30.46 Y56.588 E12.27117
G1 X30.181 Y56.64 E12.28378
G1 X28.752 Y56.889 E12.34819
G1 X28.457 Y56.935 E12.36145
G1 X27.012 Y57.144 E12.42629
G1 X26.695 Y57.185 E12.44049
G1 X25.265 Y57.351 E12.50442
G1 X24.901 Y57.387 E12.52066
G1 X23.468 Y57.513 E12.58455
G1 X23.14 Y57.536 E12.59915
G1 X21.646 Y57.623 E12.66561
G1 X21.289 Y57.639 E12.68148
G1 X19.892 Y57.681 E12.74355
G1 X19.558 Y57.685 E12.75838
G1 X17.984 Y57.686 E12.82828
G1 X17.796 Y57.682 E12.83663
G1 X16.146 Y57.632 E12.90994
G1 X14.316 Y57.519 E12.99137
G1 X12.66 Y57.362 E13.06524
G1 X10.929 Y57.139 E13.14275
G1 X10.824 Y57.123 E13.14746
G1 X9.24 Y56.856 E13.2188
G1 X9.134 Y56.836 E13.22359
G1 X7.376 Y56.47 E13.30334
G1 X7.279 Y56.448 E13.30775
G1 X6.265 Y56.198 E13.35413
G1 X5.765 Y56.061 E13.37716
G1 X4.622 Y55.724 E13.43008
G1 X4.156 Y55.572 E13.45185
G1 X3.264 Y55.266 E13.49372
G1 X2.674 Y55.044 E13.52172
G1 X1.858 Y54.718 E13.56074
G1 X1.169 Y54.42 E13.59408
G1 X0.453 Y54.089 E13.62911
G1 X-.189 Y53.77 E13.66095
G1 X-.918 Y53.381 E13.69764
G1 X-1.651 Y52.96 E13.73518
G1 X-2.128 Y52.667 E13.76004
G1 X-3.06 Y52.054 E13.80958
G1 X-3.352 Y51.845 E13.82553
G1 X-4.308 Y51.122 E13.87876
G1 X-4.534 Y50.937 E13.89173
G1 X-5.448 Y50.141 E13.94555
G1 X-5.852 Y49.765 E13.97006
G1 X-6.406 Y49.202 E14.00514
G1 X-6.908 Y48.659 E14.03798
G1 X-7.429 Y48.042 E14.07385
G1 X-7.916 Y47.426 E14.10872
G1 X-8.301 Y46.892 E14.13795
G1 X-8.797 Y46.153 E14.17748
G1 X-9.145 Y45.582 E14.20717
G1 X-9.598 Y44.782 E14.248
G1 X-9.913 Y44.156 E14.27912
G1 X-10.226 Y43.49 E14.3118
G1 X-10.545 Y42.722 E14.34874
G1 X-10.839 Y41.947 E14.38555
G1 X-11.088 Y41.193 E14.42081
G1 X-11.229 Y40.715 E14.44294
G1 X-11.545 Y39.501 E14.49865
G1 X-11.648 Y39.037 E14.51976
G1 X-11.859 Y37.915 E14.57046
G1 X-11.94 Y37.397 E14.59374
G1 X-11.953 Y37.306 E14.59783
G1 X-12.085 Y36.202 E14.6472
G1 X-12.146 Y35.507 E14.67819
G1 X-12.196 Y34.668 E14.71551
G1 X-12.205 Y34.474 E14.72414
G1 X-12.228 Y33.69 E14.75897
G1 X-12.23 Y32.926 E14.7929
G1 X-12.226 Y32.611 E14.80689
G1 X-12.183 Y30.929 E14.88161
G1 X-12.142 Y29.802 E14.93169
G1 X-12.119 Y27.024 E15.05507
G1 X-12.172 Y24.335 E15.17451
G1 X-12.306 Y21.546 E15.29851
G1 X-12.515 Y18.815 E15.42014
G1 X-12.808 Y16.035 E15.54429
G1 X-12.941 Y15.028 E15.58939
G1 X-13.004 Y14.479 E15.61393
G1 X-13.022 Y14.202 E15.62626
G1 X-13.063 Y11.474 E15.74742
G1 X-13.179 Y8.784 E15.867
G1 X-13.378 Y6.017 E15.9902
G1 X-13.651 Y3.29 E16.11191
G1 X-13.917 Y1.228 E16.20424
G0 F1080 X-14.001 Y0.569
G0 F3600 X-13.601 Y0.539
G1 F1200 X-14.039 Y-2.242 E16.32926
G1 X-14.535 Y-4.901 E16.44938
G1 X-15.123 Y-7.617 E16.57279
G1 X-15.789 Y-10.332 E16.69694
G1 X-16.519 Y-12.976 E16.81875
G1 X-17.319 Y-15.581 E16.93977
G1 X-18.225 Y-18.26 E17.06536
G1 X-19.174 Y-20.827 E17.1869
G1 X-20.202 Y-23.38 E17.30913
G1 X-21.297 Y-25.895 E17.43094
G1 X-22.475 Y-28.401 E17.55392
G1 X-23.723 Y-30.876 E17.67701
G1 X-25.035 Y-33.301 E17.79946
G1 X-26.412 Y-35.684 E17.92168
G1 X-27.871 Y-38.049 E18.04509
G1 X-29.385 Y-40.359 E18.16775
G1 X-30.952 Y-42.604 E18.28933
G1 X-33.008 Y-45.365 E18.44221
G1 X-38.771 Y-52.825 E18.86084
G1 X-39.188 Y-53.381 E18.89171
G1 X-39.418 Y-53.754 E18.91117
G1 X-39.576 Y-54.162 E18.9306
G1 X-39.657 Y-54.592 E18.95003
G1 X-39.659 Y-55.03 E18.96948
G1 X-39.581 Y-55.46 E18.98889
G1 X-39.427 Y-55.87 E19.00834
G1 X-39.2 Y-56.245 E19.02781
G1 X-38.91 Y-56.572 E19.04722
G1 X-38.564 Y-56.841 E19.06668
G1 X-38.176 Y-57.043 E19.08611
G1 X-37.757 Y-57.171 E19.10556
G1 X-37.23 Y-57.224 E19.12908
G1 X-36.732 Y-57.231 E19.1512
G1 X-30.903 Y-57.231 E19.41006
G1 X-30.206 Y-57.221 E19.44102
G1 X-30.008 Y-57.21 E19.44983
G1 X-29.33 Y-57.144 E19.48008
G1 X-27.85 Y-56.975 E19.54623
G1 X-25.114 Y-56.741 E19.66818
G1 X-23.505 Y-56.641 E19.73977
G1 X-22.327 Y-56.578 E19.79216
G1 X-18.915 Y-56.403 E19.94389
G1 X-14.074 Y-56.161 E20.15914
G1 X-12.083 Y-56.058 E20.24768
G1 X-9.657 Y-55.928 E20.35557
G1 X-7.899 Y-55.831 E20.43376
G1 X-4.074 Y-55.606 E20.60392
G1 X-.264 Y-55.357 E20.77348
G1 X3.175 Y-55.108 E20.92661
G1 X3.667 Y-55.069 E20.94852
G1 X6.88 Y-54.801 E21.09171
G1 X7.701 Y-54.728 E21.12831
G1 X10.749 Y-54.433 E21.2643
G1 X11.67 Y-54.336 E21.30543
G1 X14.605 Y-54 E21.43662
G1 X15.378 Y-53.906 E21.47121
G1 X16.462 Y-53.765 E21.51975
G1 X17.224 Y-53.66 E21.55391
G1 X18.308 Y-53.505 E21.60254
G1 X18.985 Y-53.403 E21.63295
G1 X19.986 Y-53.245 E21.67795
G1 X20.839 Y-53.102 E21.71636
G1 X21.562 Y-52.976 E21.74895
G1 X22.617 Y-52.782 E21.79659
G1 X23.22 Y-52.664 E21.82388
G1 X24.183 Y-52.465 E21.86755
G1 X24.62 Y-52.371 E21.8874
G1 X26.025 Y-52.045 E21.95145
G1 X27.407 Y-51.683 E22.01489
G1 X28.865 Y-51.252 E22.08241
G1 X29.798 Y-50.942 E22.12607
G1 X29.999 Y-50.87 E22.13556
G1 X30.868 Y-50.538 E22.17687
G1 X31.625 Y-50.214 E22.21344
G1 X32.441 Y-49.823 E22.25362
G1 X32.912 Y-49.579 E22.27718
G1 X33.629 Y-49.149 E22.3143
G1 X33.756 Y-49.064 E22.32109
G1 X34.476 Y-48.548 E22.36043
G1 X34.736 Y-48.336 E22.37533
G1 X35.278 Y-47.833 E22.40817
G1 X35.553 Y-47.538 E22.42608
G1 X35.975 Y-47.007 E22.4562
G1 X36.22 Y-46.637 E22.47591
G1 X36.516 Y-46.083 E22.5038
G1 X36.718 Y-45.595 E22.52725
G1 X36.866 Y-45.086 E22.5508
G1 X36.973 Y-44.579 E22.57381
G1 X37.057 Y-43.847 E22.60653
G1 X37.41 Y-41.11 E22.72908
G1 X37.849 Y-38.336 E22.85381
G1 X38.35 Y-35.661 E22.97467
G1 X38.94 Y-32.937 E23.09845
G1 X39.598 Y-30.266 E23.22061
G1 X40.336 Y-27.598 E23.34354
G1 X41.147 Y-24.959 E23.46615
G1 X42.035 Y-22.336 E23.58913
G1 X42.987 Y-19.768 E23.71076
G1 X44.018 Y-17.208 E23.83332
G1 X45.132 Y-14.655 E23.95702
G1 X46.299 Y-12.174 E24.07878
G1 X47.55 Y-9.7 E24.2019
G1 X48.52 Y-7.907 E24.29243
G1 X48.802 Y-7.365 E24.31956
G1 X48.848 Y-7.271 E24.32421
G1 X49.077 Y-6.78 E24.34827
G1 X49.332 Y-6.059 E24.38223
G1 X49.499 Y-5.448 E24.41036
G1 X49.613 Y-4.793 E24.43989
G1 X49.665 Y-4.308 E24.46155
G1 X49.68 Y-3.648 E24.49087
G1 X49.661 Y-3.122 E24.51424
G1 X49.541 Y-2.242 E24.55368
G1 X49.446 Y-1.772 E24.57498
G1 X48.984 Y0.292 E24.66891
G1 X48.452 Y3.023 E24.79247
G1 X48.004 Y5.739 E24.91471
G1 X47.628 Y8.485 E25.0378
G1 X47.337 Y11.185 E25.1584
G1 X47.116 Y13.983 E25.28305
G1 X46.974 Y16.763 E25.40667
G1 X46.914 Y19.453 E25.52616
G1 X46.93 Y22.236 E25.64975
G1 X47.025 Y25.033 E25.77403
G1 X47.194 Y27.754 E25.89511
G1 X47.444 Y30.506 E26.01782
G1 X47.773 Y33.251 E26.1406
G1 X48.179 Y35.992 E26.26365
G1 X48.66 Y38.708 E26.38615
G1 X48.951 Y40.157 E26.45178
G1 X49.187 Y41.292 E26.50326
G1 X49.268 Y41.855 E26.52852
G1 X49.317 Y42.354 E26.55079
G1 X49.322 Y43.041 E26.5813
G1 X49.274 Y43.753 E26.61299
G1 X49.182 Y44.313 E26.6382
G1 X49.052 Y44.908 E26.66524
G1 X48.885 Y45.428 E26.6895
G1 X48.696 Y45.938 E26.71365
G1 X48.307 Y46.738 E26.75316
G1 X48.204 Y46.919 E26.7624
G1 X47.82 Y47.53 E26.79445
G1 X47.484 Y48.011 E26.82051
G1 X46.982 Y48.617 E26.85546
G1 X46.88 Y48.729 E26.86218
G1 X46.232 Y49.395 E26.90345
G1 X45.504 Y50.052 E26.947
G1 X44.956 Y50.496 E26.97832
G1 X44.554 Y50.794 E27.00054
G1 X44.083 Y51.118 E27.02593
G1 X43.186 Y51.694 E27.07327
G1 X42.81 Y51.917 E27.09269
G1 X42.103 Y52.312 E27.12865
G1 X41.403 Y52.676 E27.16369
G1 X40.907 Y52.918 E27.1882
G1 X40.02 Y53.324 E27.23152
G1 X39.803 Y53.416 E27.24199
G1 X38.159 Y54.065 E27.32048
G1 X38.071 Y54.098 E27.32465
G1 X36.711 Y54.574 E27.38864
G1 X36.626 Y54.602 E27.39262
G1 X35.087 Y55.076 E27.46413
G1 X33.583 Y55.485 E27.53335
G1 X31.926 Y55.878 E27.60898
G1 X30.339 Y56.204 E27.68093
G1 X30.112 Y56.246 E27.69118
G1 X28.689 Y56.494 E27.75533
G1 X28.4 Y56.539 E27.76832
G1 X26.96 Y56.748 E27.83293
G1 X26.649 Y56.788 E27.84686
G1 X25.224 Y56.953 E27.91057
G1 X24.867 Y56.989 E27.9265
G1 X23.439 Y57.114 E27.99016
G1 X23.116 Y57.137 E28.00454
G1 X21.628 Y57.224 E28.07073
G1 X21.277 Y57.239 E28.08634
G1 X19.886 Y57.281 E28.14814
G1 X19.558 Y57.285 E28.16271
G1 X17.992 Y57.286 E28.23225
G1 X16.246 Y57.236 E28.30982
G1 X16.171 Y57.233 E28.31316
G1 X14.434 Y57.127 E28.39044
G1 X12.697 Y56.963 E28.46792
G1 X12.615 Y56.954 E28.47158
G1 X10.89 Y56.729 E28.54884
G1 X9.306 Y56.462 E28.62018
G1 X9.216 Y56.445 E28.62424
G1 X7.458 Y56.079 E28.70399
G1 X6.434 Y55.829 E28.7508
G1 X5.878 Y55.677 E28.7764
G1 X4.746 Y55.344 E28.8288
G1 X4.286 Y55.193 E28.8503
G1 X3.402 Y54.89 E28.8918
G1 X2.817 Y54.67 E28.91956
G1 X2.079 Y54.377 E28.95482
G1 X1.39 Y54.081 E28.98812
G1 X0.631 Y53.73 E29.02526
G1 X-0.071 Y53.38 E29.06009
G1 X-.719 Y53.034 E29.09272
G1 X-1.442 Y52.619 E29.12974
G1 X-1.909 Y52.333 E29.15406
G1 X-2.758 Y51.776 E29.19915
G1 X-3.111 Y51.526 E29.21836
G1 X-4.057 Y50.81 E29.27105
G1 X-4.271 Y50.635 E29.28332
G1 X-5.185 Y49.839 E29.33715
G1 X-5.578 Y49.473 E29.361
G1 X-6.117 Y48.926 E29.3951
G1 X-6.657 Y48.339 E29.43052
G1 X-7.12 Y47.788 E29.46249
G1 X-7.55 Y47.246 E29.49321
G1 X-7.975 Y46.66 E29.52536
G1 X-8.459 Y45.94 E29.56389
G1 X-8.801 Y45.378 E29.5931
G1 X-9.216 Y44.647 E29.63043
G1 X-9.554 Y43.979 E29.66368
G1 X-9.864 Y43.32 E29.69602
G1 X-10.174 Y42.573 E29.73194
G1 X-10.461 Y41.814 E29.76797
G1 X-10.707 Y41.073 E29.80265
G1 X-10.842 Y40.615 E29.82385
G1 X-11.158 Y39.401 E29.87956
G1 X-11.255 Y38.964 E29.89944
G1 X-11.466 Y37.842 E29.95014
G1 X-11.545 Y37.336 E29.97289
G1 X-11.556 Y37.258 E29.97638
G1 X-11.679 Y36.239 E30.02197
G1 X-11.747 Y35.483 E30.05567
G1 X-11.796 Y34.649 E30.09278
G1 X-11.805 Y34.462 E30.10109
G1 X-11.828 Y33.689 E30.13543
G1 X-11.83 Y32.931 E30.1691
G1 X-11.826 Y32.621 E30.18286
G1 X-11.783 Y30.943 E30.25741
G1 X-11.742 Y29.819 E30.30736
G1 X-11.719 Y27.056 E30.43007
G1 X-11.775 Y24.248 E30.55479
G1 X-11.906 Y21.531 E30.67559
G1 X-12.117 Y18.778 E30.79821
G1 X-12.41 Y15.993 E30.92257
G1 X-12.543 Y14.983 E30.96781
G1 X-12.606 Y14.434 E30.99235
G1 X-12.622 Y14.196 E31.00295
G1 X-12.663 Y11.5 E31.12269
G1 X-12.782 Y8.739 E31.24542
G1 X-12.979 Y5.984 E31.36808
G1 X-13.255 Y3.231 E31.49095
