;FLAVOR:Marlin
;TIME:2868
;Filament used: 2.93622m
;Layer height: 0.2
;MINX:-21.873
;MINY:-26.719
;MINZ:0.3
;MAXX:31.767
;MAXY:26.913
;MAXZ:14.1
;TARGET_MACHINE.NAME:Unknown
;Generated with Cura_SteamEngine 5.10.1
M140 S60
M105
M190 S60
M104 S200
M105
M109 S200
;FLAVOR:Marlin
M82 ;absolute extrusion mode
G21
G90
M82
M107 T0
G28
G92 E0
G0 E3 F200
G92 E0 ; reset extrusion distance
M106 S255 ; Enable cooling fan full speed
G1 X-98 Y0 Z0.4 F3000 ; move to arc start
G3 X0 Y-98 I98 Z0.4 E40 F400 ; lay arc stripe 90deg
G92 E0 ; reset extrusion distance
G4 P500 ; wait for 0.5 sec
G0 Z10 E-1 ; Lift 15mm and retract 1mm filament
G4 P2000 ; wait for 5 sec
G0 Z15
M107 ; Disable cooling fan
G1 X0 Y-85 Z4 E0 F3000 ; get off the bed
M82 ;absolute extrusion mode
G92 E0
G92 E0
G1 F1500 E-6.5
;LAYER_COUNT:70
;LAYER:0
M107
G0 F3600 X-21.832 Y1.192 Z0.3
;TYPE:SKIRT
G1 F1500 E0
G1 F1800 X-21.867 Y0.779 E0.02068
G1 X-21.873 Y-.741 E0.09651
G1 X-21.794 Y-1.883 E0.15362
G1 X-21.77 Y-2.099 E0.16447
G1 X-21.604 Y-4.208 E0.27001
G1 X-21.593 Y-4.48 E0.28359
G1 X-21.423 Y-6.592 E0.3893
G1 X-21.293 Y-7.763 E0.44808
G1 X-21.003 Y-8.595 E0.49204
G1 X-20.652 Y-9.135 E0.52417
G1 X-20.469 Y-9.342 E0.53795
G1 X-20.269 Y-10.582 E0.60062
G1 X-19.704 Y-11.658 E0.66125
G1 X-19.164 Y-12.23 E0.70049
G1 X-18.945 Y-13.139 E0.74714
G1 X-18.482 Y-14 E0.79592
G1 X-17.878 Y-14.617 E0.83899
G1 X-17.619 Y-14.813 E0.8552
G1 X-17.35 Y-15.691 E0.90101
G1 X-16.842 Y-16.599 E0.95292
G1 X-16.309 Y-17.066 E0.98827
G1 X-16.166 Y-17.165 E0.99695
G1 X-15.93 Y-17.57 E1.02033
G1 X-15.445 Y-18.135 E1.05748
G1 X-14.948 Y-18.47 E1.08739
G1 X-14.691 Y-18.873 E1.11123
G1 X-14.135 Y-19.475 E1.15212
G1 X-13.603 Y-19.785 E1.18283
G1 X-13.274 Y-20.273 E1.2122
G1 X-12.738 Y-20.786 E1.24921
G1 X-12.262 Y-21.058 E1.27656
G1 X-12.004 Y-21.393 E1.29766
G1 X-11.529 Y-21.821 E1.32956
G1 X-10.85 Y-22.211 E1.36862
G1 X-9.931 Y-22.507 E1.41679
G1 X-9.662 Y-22.828 E1.43769
G1 X-9.217 Y-23.19 E1.46631
G1 X-8.416 Y-23.687 E1.51334
G1 X-7.389 Y-23.947 E1.56619
G1 X-7.194 Y-24.171 E1.58101
G1 X-6.616 Y-24.663 E1.61888
G1 X-5.638 Y-25.089 E1.6721
G1 X-4.837 Y-25.21 E1.71251
G1 X-4.455 Y-25.314 E1.73226
G1 X-4.136 Y-25.591 E1.75334
G1 X-3.637 Y-25.878 E1.78206
G1 X-3.006 Y-26.107 E1.81555
G1 X-2.133 Y-26.214 E1.85943
G1 X-1.827 Y-26.267 E1.87492
G1 X-1.049 Y-26.352 E1.91397
G1 X-.87 Y-26.387 E1.92307
G1 X0.56 Y-26.556 E1.99491
G1 X1.59 Y-26.64 E2.04647
G1 X1.948 Y-26.648 E2.06433
G1 X3.117 Y-26.703 E2.12272
G1 X3.334 Y-26.692 E2.13356
G1 X4.43 Y-26.719 E2.18825
G1 X4.671 Y-26.707 E2.20029
G1 X5.513 Y-26.699 E2.2423
G1 X5.854 Y-26.706 E2.25932
G1 X7.196 Y-26.669 E2.3263
G1 X8.421 Y-26.597 E2.38752
G1 X9.83 Y-26.452 E2.45818
G1 X10.102 Y-26.404 E2.47196
G1 X10.944 Y-26.305 E2.51426
G1 X11.261 Y-26.257 E2.53025
G1 X11.997 Y-26.175 E2.5672
G1 X12.872 Y-26.049 E2.61131
G1 X13.718 Y-25.74 E2.65624
G1 X14.29 Y-25.322 E2.69158
G1 X14.405 Y-25.208 E2.69966
G1 X15.105 Y-25.018 E2.73585
G1 X15.803 Y-24.846 E2.77172
G1 X16.584 Y-24.441 E2.81561
G1 X17.067 Y-24.006 E2.84804
G1 X17.14 Y-23.924 E2.85351
G1 X18.644 Y-23.445 E2.93226
G1 X19.407 Y-22.855 E2.98038
G1 X19.611 Y-22.622 E2.99583
G1 X21.039 Y-22.048 E3.07261
G1 X21.76 Y-21.505 E3.11765
G1 X22.1 Y-21.075 E3.14499
G1 X22.598 Y-20.788 E3.17367
G1 X23.151 Y-20.283 E3.21103
G1 X23.482 Y-19.798 E3.24033
G1 X23.94 Y-19.498 E3.26764
G1 X24.502 Y-18.967 E3.30622
G1 X24.806 Y-18.46 E3.33571
G1 X25.252 Y-18.151 E3.36278
G1 X25.781 Y-17.6 E3.40089
G1 X26.067 Y-17.095 E3.42984
G1 X26.502 Y-16.745 E3.4577
G1 X27.027 Y-16.109 E3.49884
G1 X27.562 Y-14.866 E3.56635
G1 X27.764 Y-14.72 E3.57879
G1 X28.424 Y-14.091 E3.62427
G1 X28.848 Y-13.187 E3.67409
G1 X28.996 Y-12.543 E3.70706
G1 X29.143 Y-12.077 E3.73143
G1 X29.382 Y-11.85 E3.74788
G1 X29.896 Y-11.175 E3.79021
G1 X30.186 Y-10.296 E3.83639
G1 X30.265 Y-9.664 E3.86816
G1 X30.359 Y-9.248 E3.88944
G1 X30.575 Y-8.989 E3.90626
G1 X30.977 Y-8.329 E3.94482
G1 X31.151 Y-7.612 E3.98163
G1 X31.24 Y-6.754 E4.02466
G1 X31.295 Y-6.094 E4.05771
G1 X31.34 Y-5.704 E4.07729
G1 X31.41 Y-4.926 E4.11626
G1 X31.464 Y-4.473 E4.13902
G1 X31.637 Y-2.141 E4.25569
G1 X31.699 Y-.729 E4.3262
G1 X31.738 Y-.364 E4.34451
G1 X31.767 Y0.692 E4.39722
G1 X31.71 Y1.834 E4.45426
G1 X31.695 Y2.324 E4.47872
G1 X31.567 Y3.492 E4.53734
G1 X31.538 Y3.669 E4.54629
G1 X31.457 Y4.601 E4.59296
G1 X31.423 Y4.857 E4.60585
G1 X31.257 Y6.803 E4.70329
G1 X31.119 Y7.95 E4.76092
G1 X30.832 Y8.797 E4.80554
G1 X30.418 Y9.398 E4.84195
G1 X30.228 Y9.594 E4.85557
G1 X29.883 Y11.062 E4.9308
G1 X29.523 Y11.688 E4.96683
G1 X29.165 Y12.13 E4.99521
G1 X29.005 Y12.283 E5.00625
G1 X28.653 Y13.529 E5.07085
G1 X28.296 Y14.191 E5.10837
G1 X27.989 Y14.584 E5.13325
G1 X27.667 Y14.86 E5.15441
G1 X27.15 Y16.121 E5.2224
G1 X26.582 Y16.912 E5.27099
G1 X26.098 Y17.29 E5.30163
G1 X25.801 Y17.845 E5.33303
G1 X25.192 Y18.466 E5.37642
G1 X24.8 Y18.735 E5.40014
G1 X24.524 Y19.169 E5.4258
G1 X23.933 Y19.794 E5.46872
G1 X23.441 Y20.082 E5.49716
G1 X23.11 Y20.524 E5.52471
G1 X22.588 Y21.011 E5.56033
G1 X22.11 Y21.292 E5.58799
G1 X21.836 Y21.633 E5.60981
G1 X21.151 Y22.254 E5.65594
G1 X20.234 Y22.638 E5.70554
G1 X19.735 Y22.863 E5.73285
G1 X19.578 Y23.055 E5.74522
G1 X18.928 Y23.641 E5.78888
G1 X18.216 Y23.947 E5.82755
G1 X17.032 Y24.282 E5.88894
G1 X16.807 Y24.502 E5.90464
G1 X16.208 Y24.936 E5.94154
G1 X15.538 Y25.169 E5.97693
G1 X14.396 Y25.404 E6.0351
G1 X14.074 Y25.683 E6.05635
G1 X13.457 Y26.074 E6.0928
G1 X12.785 Y26.26 E6.12758
G1 X11.683 Y26.416 E6.18311
G1 X9.431 Y26.676 E6.29621
G1 X8.144 Y26.769 E6.36059
G1 X7.936 Y26.775 E6.37097
G1 X6.781 Y26.851 E6.42871
G1 X5.545 Y26.913 E6.49046
G1 X4.005 Y26.894 E6.56729
G1 X3.78 Y26.871 E6.57858
G1 X2.848 Y26.82 E6.62514
G1 X0.511 Y26.652 E6.74204
G1 X0.125 Y26.651 E6.7613
G1 X-1.05 Y26.556 E6.82011
G1 X-1.344 Y26.503 E6.83501
G1 X-2.113 Y26.403 E6.8737
G1 X-2.995 Y26.273 E6.91818
G1 X-3.828 Y25.971 E6.96239
G1 X-4.349 Y25.602 E6.99424
G1 X-4.553 Y25.411 E7.00818
G1 X-5.871 Y25.103 E7.07571
G1 X-6.555 Y24.754 E7.11402
G1 X-6.957 Y24.457 E7.13895
G1 X-7.208 Y24.19 E7.15723
G1 X-7.726 Y24.015 E7.18451
G1 X-8.33 Y23.858 E7.21565
G1 X-9.251 Y23.4 E7.26696
G1 X-9.764 Y22.855 E7.30431
G1 X-9.842 Y22.752 E7.31075
G1 X-11.07 Y22.266 E7.37664
G1 X-11.886 Y21.729 E7.42537
G1 X-12.249 Y21.239 E7.4558
G1 X-12.739 Y20.966 E7.48378
G1 X-13.333 Y20.42 E7.52403
G1 X-13.629 Y19.983 E7.55037
G1 X-14.039 Y19.735 E7.57427
G1 X-14.691 Y19.139 E7.61834
G1 X-15.004 Y18.626 E7.64833
G1 X-15.368 Y18.371 E7.6705
G1 X-16.016 Y17.747 E7.71538
G1 X-16.285 Y17.213 E7.74521
G1 X-16.723 Y16.842 E7.77385
G1 X-17.243 Y16.124 E7.81808
G1 X-17.747 Y14.836 E7.88708
G1 X-18.14 Y14.492 E7.91314
G1 X-18.699 Y13.743 E7.95976
G1 X-18.94 Y12.936 E8.00178
G1 X-19.169 Y12.267 E8.03706
G1 X-19.362 Y12.086 E8.05026
G1 X-19.875 Y11.435 E8.09161
G1 X-20.099 Y10.844 E8.12314
G1 X-20.412 Y9.519 E8.19107
G1 X-20.619 Y9.288 E8.20654
G1 X-20.94 Y8.787 E8.23623
G1 X-21.226 Y7.972 E8.27932
G1 X-21.344 Y7.035 E8.32644
G1 X-21.454 Y5.934 E8.38164
G1 X-21.654 Y3.738 E8.49165
G1 X-21.772 Y2.167 E8.57025
G1 X-21.832 Y1.192 E8.61898
G0 F3600 X-21.433 Y1.167
G1 F1800 X-21.467 Y0.777 E8.63851
G1 X-21.474 Y-.713 E8.71285
G1 X-21.396 Y-1.839 E8.76916
G1 X-21.372 Y-2.055 E8.78001
G1 X-21.205 Y-4.177 E8.8862
G1 X-21.194 Y-4.448 E8.89973
G1 X-21.025 Y-6.548 E9.00484
G1 X-20.9 Y-7.674 E9.06136
G1 X-20.64 Y-8.42 E9.10077
G1 X-20.317 Y-8.917 E9.13035
G1 X-20.138 Y-9.11 E9.14348
G1 X-20.033 Y-9.532 E9.16517
G1 X-19.884 Y-10.455 E9.21182
G1 X-19.375 Y-11.424 E9.26643
G1 X-18.952 Y-11.879 E9.29742
G1 X-18.845 Y-11.97 E9.30443
G1 X-18.731 Y-12.316 E9.3226
G1 X-18.567 Y-12.998 E9.3576
G1 X-18.158 Y-13.759 E9.4007
G1 X-17.592 Y-14.337 E9.44106
G1 X-17.276 Y-14.568 E9.46059
G1 X-16.981 Y-15.532 E9.51089
G1 X-16.528 Y-16.342 E9.55719
G1 X-16.045 Y-16.765 E9.58922
G1 X-15.865 Y-16.884 E9.59998
G1 X-15.626 Y-17.309 E9.62431
G1 X-15.141 Y-17.874 E9.66146
G1 X-14.657 Y-18.181 E9.69005
G1 X-14.397 Y-18.602 E9.71474
G1 X-13.841 Y-19.204 E9.75562
G1 X-13.323 Y-19.481 E9.78493
G1 X-12.997 Y-19.984 E9.81483
G1 X-12.461 Y-20.497 E9.85185
G1 X-11.993 Y-20.748 E9.87834
G1 X-11.736 Y-21.096 E9.89993
G1 X-11.293 Y-21.495 E9.92967
G1 X-10.689 Y-21.842 E9.96442
G1 X-9.694 Y-22.163 E10.01658
G1 X-9.408 Y-22.519 E10.03937
G1 X-9.006 Y-22.85 E10.06535
G1 X-8.258 Y-23.314 E10.10926
G1 X-7.165 Y-23.591 E10.16552
G1 X-6.935 Y-23.866 E10.1834
G1 X-6.402 Y-24.319 E10.2183
G1 X-5.523 Y-24.702 E10.26613
G1 X-4.753 Y-24.819 E10.30499
G1 X-4.257 Y-24.953 E10.33062
G1 X-3.933 Y-25.247 E10.35245
G1 X-3.501 Y-25.502 E10.37748
G1 X-2.913 Y-25.715 E10.40868
G1 X-2.078 Y-25.818 E10.45065
G1 X-1.784 Y-25.869 E10.46554
G1 X-.987 Y-25.956 E10.50554
G1 X-.793 Y-25.994 E10.5154
G1 X0.593 Y-26.157 E10.58503
G1 X1.623 Y-26.241 E10.63658
G1 X1.967 Y-26.248 E10.65375
G1 X3.098 Y-26.303 E10.71024
G1 X3.325 Y-26.292 E10.72158
G1 X4.41 Y-26.319 E10.77573
G1 X4.651 Y-26.307 E10.78777
G1 X5.518 Y-26.299 E10.83102
G1 X5.843 Y-26.306 E10.84724
G1 X7.173 Y-26.27 E10.91362
G1 X8.371 Y-26.2 E10.97349
G1 X8.624 Y-26.168 E10.98621
G1 X9.76 Y-26.058 E11.04315
G1 X10.037 Y-26.009 E11.05719
G1 X10.885 Y-25.909 E11.09979
G1 X11.211 Y-25.86 E11.11623
G1 X11.94 Y-25.779 E11.15283
G1 X12.773 Y-25.659 E11.19481
G1 X13.529 Y-25.383 E11.23497
G1 X14.009 Y-25.037 E11.26449
G1 X14.199 Y-24.85 E11.27779
G1 X15 Y-24.632 E11.3192
G1 X15.661 Y-24.469 E11.35317
G1 X16.354 Y-24.11 E11.39211
G1 X16.799 Y-23.709 E11.42199
G1 X16.908 Y-23.578 E11.43049
G1 X18.455 Y-23.086 E11.51148
G1 X19.13 Y-22.564 E11.55405
G1 X19.391 Y-22.266 E11.57382
G1 X19.927 Y-22.064 E11.60239
G1 X20.84 Y-21.697 E11.65149
G1 X21.478 Y-21.217 E11.69132
G1 X21.835 Y-20.765 E11.72005
G1 X22.328 Y-20.493 E11.74815
G1 X22.881 Y-19.988 E11.78551
G1 X23.194 Y-19.507 E11.81414
G1 X23.665 Y-19.207 E11.842
G1 X24.227 Y-18.676 E11.88057
G1 X24.504 Y-18.18 E11.90892
G1 X24.963 Y-17.874 E11.93644
G1 X25.492 Y-17.323 E11.97454
G1 X25.754 Y-16.832 E12.00231
G1 X26.194 Y-16.49 E12.03011
G1 X26.683 Y-15.898 E12.06842
G1 X27.24 Y-14.602 E12.1388
G1 X27.488 Y-14.431 E12.15383
G1 X28.093 Y-13.854 E12.19554
G1 X28.467 Y-13.057 E12.23946
G1 X28.61 Y-12.436 E12.27125
G1 X28.793 Y-11.854 E12.30169
G1 X29.064 Y-11.608 E12.31995
G1 X29.537 Y-10.987 E12.35889
G1 X29.794 Y-10.208 E12.39982
G1 X29.87 Y-9.599 E12.43044
G1 X29.991 Y-9.061 E12.45795
G1 X30.233 Y-8.781 E12.47641
G1 X30.603 Y-8.173 E12.51192
G1 X30.753 Y-7.571 E12.54287
G1 X30.841 Y-6.721 E12.58551
G1 X30.896 Y-6.061 E12.61855
G1 X30.942 Y-5.668 E12.63829
G1 X31.013 Y-4.879 E12.67781
G1 X31.065 Y-4.443 E12.69972
G1 X31.237 Y-2.123 E12.81578
G1 X31.3 Y-.698 E12.88694
G1 X31.338 Y-.353 E12.90426
G1 X31.367 Y0.703 E12.95696
G1 X31.31 Y1.823 E13.01291
G1 X31.297 Y2.281 E13.03577
G1 X31.172 Y3.428 E13.09334
G1 X31.14 Y3.625 E13.10329
G1 X31.06 Y4.548 E13.14951
G1 X31.026 Y4.804 E13.1624
G1 X30.86 Y6.755 E13.26009
G1 X30.727 Y7.86 E13.31561
G1 X30.471 Y8.617 E13.35548
G1 X30.131 Y9.119 E13.38573
G1 X29.902 Y9.355 E13.40213
G1 X29.739 Y9.928 E13.43186
G1 X29.507 Y10.913 E13.48234
G1 X29.212 Y11.436 E13.5123
G1 X28.854 Y11.878 E13.54068
G1 X28.65 Y12.067 E13.55455
G1 X28.28 Y13.378 E13.62251
G1 X27.944 Y14.001 E13.65783
G1 X27.677 Y14.334 E13.67912
G1 X27.335 Y14.614 E13.70117
G1 X26.798 Y15.926 E13.7719
G1 X26.257 Y16.679 E13.81816
G1 X25.788 Y17.021 E13.84712
G1 X25.475 Y17.606 E13.88022
G1 X24.906 Y18.186 E13.92075
G1 X24.504 Y18.451 E13.94477
G1 X24.234 Y18.894 E13.97066
G1 X23.683 Y19.476 E14.01064
G1 X23.167 Y19.779 E14.04049
G1 X22.837 Y20.231 E14.06842
G1 X22.346 Y20.689 E14.10191
G1 X21.842 Y20.986 E14.1311
G1 X21.567 Y21.337 E14.15335
G1 X20.933 Y21.912 E14.19605
G1 X20.08 Y22.269 E14.24218
G1 X19.485 Y22.538 E14.27476
G1 X19.269 Y22.801 E14.29174
G1 X18.712 Y23.298 E14.32898
G1 X18.107 Y23.562 E14.36191
G1 X16.822 Y23.926 E14.42854
G1 X16.572 Y24.178 E14.44625
G1 X16.02 Y24.578 E14.48026
G1 X15.458 Y24.777 E14.51001
G1 X14.639 Y24.945 E14.55172
G1 X14.161 Y25.077 E14.57646
G1 X13.86 Y25.345 E14.59656
G1 X13.293 Y25.704 E14.63005
G1 X12.729 Y25.864 E14.65929
G1 X11.637 Y26.019 E14.71432
G1 X9.402 Y26.277 E14.82657
G1 X8.132 Y26.369 E14.89009
G1 X7.924 Y26.375 E14.90047
G1 X6.755 Y26.452 E14.95892
G1 X5.55 Y26.513 E15.01912
G1 X4.046 Y26.496 E15.09416
G1 X3.821 Y26.473 E15.10544
G1 X2.877 Y26.421 E15.15261
G1 X0.526 Y26.252 E15.2702
G1 X0.157 Y26.252 E15.28861
G1 X-.98 Y26.162 E15.34551
G1 X-1.288 Y26.107 E15.36112
G1 X-2.054 Y26.007 E15.39966
G1 X-2.899 Y25.882 E15.44228
G1 X-3.639 Y25.614 E15.48154
G1 X-4.118 Y25.275 E15.51082
G1 X-4.316 Y25.081 E15.52465
G1 X-4.863 Y24.927 E15.553
G1 X-5.733 Y24.724 E15.59757
G1 X-6.317 Y24.432 E15.63015
G1 X-6.719 Y24.135 E15.65508
G1 X-6.981 Y23.844 E15.67462
G1 X-7.607 Y23.633 E15.70758
G1 X-8.189 Y23.482 E15.73757
G1 X-9.009 Y23.074 E15.78327
G1 X-9.473 Y22.581 E15.81704
G1 X-9.585 Y22.424 E15.82667
G1 X-10.885 Y21.909 E15.89643
G1 X-11.608 Y21.433 E15.93961
G1 X-11.979 Y20.932 E15.97071
G1 X-12.503 Y20.64 E16.00064
G1 X-13.062 Y20.126 E16.03853
G1 X-13.347 Y19.683 E16.06481
G1 X-13.769 Y19.44 E16.0891
G1 X-14.421 Y18.844 E16.13317
G1 X-14.702 Y18.347 E16.16166
G1 X-15.09 Y18.083 E16.18507
G1 X-15.69 Y17.505 E16.22664
G1 X-15.966 Y16.957 E16.25725
G1 X-16.399 Y16.607 E16.28502
G1 X-16.888 Y15.932 E16.32661
G1 X-17.41 Y14.597 E16.39812
G1 X-17.819 Y14.253 E16.42479
G1 X-18.337 Y13.559 E16.46799
G1 X-18.561 Y12.807 E16.50714
G1 X-18.823 Y12.04 E16.54757
G1 X-19.048 Y11.839 E16.56263
G1 X-19.522 Y11.237 E16.60085
G1 X-19.725 Y10.702 E16.6294
G1 X-19.872 Y10.042 E16.66314
G1 X-20.049 Y9.323 E16.70008
G1 X-20.282 Y9.072 E16.71716
G1 X-20.58 Y8.607 E16.74472
G1 X-20.834 Y7.883 E16.783
G1 X-20.946 Y6.995 E16.82765
G1 X-21.056 Y5.898 E16.88265
G1 X-21.255 Y3.708 E16.99236
G1 X-21.373 Y2.142 E17.07071
G1 X-21.433 Y1.167 E17.11945
G0 F3600 X-21.034 Y1.142
G1 F1800 X-21.067 Y0.775 E17.13783
G1 X-21.075 Y-.685 E17.21067
G1 X-20.998 Y-1.795 E17.26618
G1 X-20.974 Y-2.011 E17.27703
G1 X-20.806 Y-4.146 E17.38387
G1 X-20.795 Y-4.416 E17.39735
G1 X-20.627 Y-6.504 E17.50186
G1 X-20.507 Y-7.585 E17.55612
G1 X-20.277 Y-8.245 E17.59099
G1 X-19.982 Y-8.699 E17.618
G1 X-19.776 Y-8.907 E17.63261
G1 X-19.64 Y-9.455 E17.66078
G1 X-19.499 Y-10.328 E17.7049
G1 X-19.046 Y-11.191 E17.75352
G1 X-18.659 Y-11.607 E17.78187
G1 X-18.503 Y-11.73 E17.79178
G1 X-18.346 Y-12.206 E17.81679
G1 X-18.19 Y-12.856 E17.85014
G1 X-17.834 Y-13.518 E17.88764
G1 X-17.306 Y-14.057 E17.92528
G1 X-16.934 Y-14.321 E17.94804
G1 X-16.612 Y-15.373 E18.00293
G1 X-16.213 Y-16.087 E18.04373
G1 X-15.782 Y-16.464 E18.0723
G1 X-15.566 Y-16.6 E18.08503
G1 X-15.296 Y-17.08 E18.11251
G1 X-14.877 Y-17.568 E18.1446
G1 X-14.362 Y-17.894 E18.17501
G1 X-14.103 Y-18.331 E18.20035
G1 X-13.594 Y-18.882 E18.23778
G1 X-13.04 Y-19.179 E18.26914
G1 X-12.72 Y-19.695 E18.29943
G1 X-12.224 Y-20.17 E18.33369
G1 X-11.721 Y-20.439 E18.36215
G1 X-11.468 Y-20.799 E18.3841
G1 X-11.057 Y-21.169 E18.41169
G1 X-10.528 Y-21.473 E18.44213
G1 X-9.453 Y-21.82 E18.49849
G1 X-9.151 Y-22.212 E18.52317
G1 X-8.795 Y-22.51 E18.54634
G1 X-8.1 Y-22.941 E18.58714
G1 X-7.34 Y-23.133 E18.62624
G1 X-6.897 Y-23.284 E18.64959
G1 X-6.676 Y-23.561 E18.66727
G1 X-6.189 Y-23.975 E18.69916
G1 X-5.408 Y-24.315 E18.74166
G1 X-4.666 Y-24.428 E18.7791
G1 X-4.057 Y-24.593 E18.81058
G1 X-3.724 Y-24.906 E18.83338
G1 X-3.365 Y-25.126 E18.85439
G1 X-2.82 Y-25.323 E18.8833
G1 X-2.019 Y-25.422 E18.92357
G1 X-1.741 Y-25.471 E18.93765
G1 X-.925 Y-25.56 E18.9786
G1 X-.716 Y-25.601 E18.98923
