;FLAVOR:Marlin
;TIME:486
;Filament used: 0.830083m
;Layer height: 0.24
;MINX:-9.195
;MINY:-19.995
;MINZ:0.3
;MAXX:9.195
;MAXY:19.943
;MAXZ:11.34
;Generated with Cura_SteamEngine 4.13.1
M140 S50
M105
M190 S50
M104 S210
M105
M109 S210
M82 ;absolute extrusion mode
;FLAVOR:Marlin
M82 ;absolute extrusion mode
G21
G90
M82
M107 T0
G28
G92 E0
G0 E3 F200
G92 E0 ; reset extrusion distance
M106 S255 ; Enable cooling fan full speed
G1 X-98 Y0 Z0.4 F3000 ; move to arc start
G3 X0 Y-98 I98 Z0.4 E40 F400 ; lay arc stripe 90deg
G92 E0 ; reset extrusion distance
G4 P500 ; wait for 0.5 sec
G0 Z10 E-1 ; Lift 15mm and retract 1mm filament
G4 P2000 ; wait for 5 sec
G0 Z15
M107 ; Disable cooling fan
G1 X0 Y-85 Z4 E0 F3000 ; get off the bed
G92 E0
G92 E0
G1 F1500 E-6.5
;LAYER_COUNT:48
;LAYER:0
M106 S25.5
G1 F600 Z1.3
G0 F3600 X-5.639 Y4.525 Z1.3
;TYPE:SKIRT
G1 F600 Z0.3
G1 F1500 E0.3326
G1 F2400 X-6.347 Y-3.765 E0.7477
G1 X-6.814 Y-4.2 E0.77954
G1 X-7.385 Y-4.938 E0.82609
G1 X-7.612 Y-5.388 E0.85124
G1 X-7.84 Y-5.992 E0.88344
G1 X-7.957 Y-6.187 E0.89479
G1 X-8.206 Y-6.645 E0.9208
G1 X-8.366 Y-6.991 E0.93982
G1 X-8.737 Y-7.945 E0.99088
G1 X-8.848 Y-8.293 E1.00911
G1 X-8.98 Y-8.812 E1.03583
G1 X-9.051 Y-9.187 E1.05487
G1 X-9.173 Y-10.184 E1.10498
G1 X-9.195 Y-10.559 E1.12372
G1 X-9.193 Y-11.101 E1.15076
G1 X-9.169 Y-11.468 E1.16911
G1 X-9.044 Y-12.453 E1.21864
G1 X-8.972 Y-12.826 E1.2376
G1 X-8.837 Y-13.348 E1.2645
G1 X-8.767 Y-13.581 E1.27663
G1 X-8.599 Y-14.065 E1.30219
G1 X-8.504 Y-14.305 E1.31507
G1 X-8.29 Y-14.784 E1.34125
G1 X-7.941 Y-15.441 E1.37836
G1 X-7.832 Y-15.622 E1.3889
G1 X-7.723 Y-15.98 E1.40757
G1 X-7.491 Y-16.457 E1.43404
G1 X-7.259 Y-16.842 E1.45646
G1 X-6.941 Y-17.276 E1.4833
G1 X-6.255 Y-17.905 E1.52974
G1 X-5.837 Y-18.2 E1.55526
G1 X-4.993 Y-18.579 E1.60142
G1 X-4.615 Y-18.755 E1.62222
G1 X-4.159 Y-19.003 E1.64812
G1 X-3.814 Y-19.164 E1.66711
G1 X-2.856 Y-19.537 E1.7184
G1 X-2.476 Y-19.656 E1.73827
G1 X-1.891 Y-19.798 E1.7683
G1 X-1.539 Y-19.862 E1.78615
G1 X-.602 Y-19.974 E1.83323
G1 X-.235 Y-19.995 E1.85157
G1 X0.296 Y-19.993 E1.87806
G1 X0.66 Y-19.969 E1.89626
G1 X1.651 Y-19.844 E1.9461
G1 X2.035 Y-19.77 E1.96561
G1 X2.559 Y-19.633 E1.99263
G1 X2.852 Y-19.54 E2.00796
G1 X3.53 Y-19.286 E2.04408
G1 X3.837 Y-19.151 E2.06082
G1 X4.565 Y-18.781 E2.10156
G1 X4.821 Y-18.632 E2.11634
G1 X5.192 Y-18.519 E2.13568
G1 X5.657 Y-18.291 E2.16152
G1 X6.424 Y-17.786 E2.20734
G1 X6.449 Y-17.765 E2.20897
G1 X6.81 Y-17.405 E2.2344
G1 X7.386 Y-16.662 E2.2813
G1 X7.617 Y-16.202 E2.30699
G1 X7.844 Y-15.601 E2.33904
G1 X7.958 Y-15.41 E2.35013
G1 X8.214 Y-14.937 E2.37697
G1 X8.372 Y-14.596 E2.39572
G1 X8.736 Y-13.66 E2.44582
G1 X8.847 Y-13.312 E2.46404
G1 X8.98 Y-12.789 E2.49097
G1 X9.051 Y-12.414 E2.51001
G1 X9.173 Y-11.416 E2.56017
G1 X9.195 Y-11.041 E2.57891
G1 X9.193 Y-10.499 E2.60595
G1 X9.169 Y-10.132 E2.6243
G1 X9.044 Y-9.147 E2.67384
G1 X8.972 Y-8.774 E2.69279
G1 X8.837 Y-8.252 E2.71969
G1 X8.767 Y-8.018 E2.73187
G1 X8.598 Y-7.532 E2.75754
G1 X8.504 Y-7.294 E2.77031
G1 X8.292 Y-6.819 E2.79626
G1 X8.182 Y-6.598 E2.80858
G1 X7.941 Y-6.159 E2.83356
G1 X7.825 Y-5.967 E2.84475
G1 X7.706 Y-5.578 E2.86505
G1 X7.26 Y-4.761 E2.91149
G1 X6.941 Y-4.324 E2.93848
G1 X6.348 Y-3.774 E2.97883
G1 X5.639 Y4.526 E3.39443
G1 X5.785 Y4.638 E3.40361
G1 X6.173 Y5.002 E3.43015
G1 X6.362 Y5.197 E3.4437
G1 X6.707 Y5.585 E3.4696
G1 X6.954 Y5.904 E3.48973
G1 X7.531 Y6.762 E3.54132
G1 X7.739 Y7.122 E3.56206
G1 X7.967 Y7.59 E3.58803
G1 X8.07 Y7.828 E3.60097
G1 X8.256 Y8.312 E3.62684
G1 X8.343 Y8.574 E3.64061
G1 X8.484 Y9.074 E3.66653
G1 X8.637 Y9.809 E3.70398
G1 X8.678 Y10.092 E3.71825
G1 X8.729 Y10.629 E3.74516
G1 X8.742 Y10.896 E3.7585
G1 X8.745 Y11.413 E3.78429
G1 X8.734 Y11.682 E3.79772
G1 X8.691 Y12.192 E3.82326
G1 X8.656 Y12.462 E3.83684
G1 X8.565 Y12.977 E3.86293
G1 X8.506 Y13.241 E3.87643
G1 X8.374 Y13.727 E3.90155
G1 X8.296 Y13.974 E3.91448
G1 X8.113 Y14.473 E3.94099
G1 X8.005 Y14.729 E3.95485
G1 X7.788 Y15.185 E3.98005
G1 X7.657 Y15.43 E3.99391
G1 X7.381 Y15.894 E4.02084
G1 X7.235 Y16.116 E4.0341
G1 X6.939 Y16.526 E4.05933
G1 X6.774 Y16.735 E4.07261
G1 X6.43 Y17.132 E4.09882
G1 X6.186 Y17.382 E4.11625
G1 X5.677 Y17.847 E4.15065
G1 X5.403 Y18.069 E4.16824
G1 X4.719 Y18.56 E4.21025
G1 X4.396 Y18.762 E4.22925
G1 X3.926 Y19.016 E4.25591
G1 X3.694 Y19.129 E4.26878
G1 X3.226 Y19.332 E4.29423
G1 X2.947 Y19.437 E4.3091
G1 X2.444 Y19.598 E4.33545
G1 X2.206 Y19.664 E4.34777
G1 X1.692 Y19.783 E4.3741
G1 X1.38 Y19.838 E4.3899
G1 X0.8 Y19.909 E4.41905
G1 X0.502 Y19.93 E4.43396
G1 X-0.077 Y19.943 E4.46285
G1 X-.442 Y19.929 E4.48107
G1 X-1.344 Y19.839 E4.5263
G1 X-1.736 Y19.774 E4.54612
G1 X-2.248 Y19.653 E4.57237
G1 X-2.552 Y19.564 E4.58817
G1 X-3.187 Y19.341 E4.62175
G1 X-3.533 Y19.194 E4.64051
G1 X-4.308 Y18.807 E4.68372
G1 X-4.734 Y18.548 E4.7086
G1 X-5.562 Y17.945 E4.7597
G1 X-5.883 Y17.675 E4.78063
G1 X-6.268 Y17.302 E4.80737
G1 X-6.46 Y17.098 E4.82135
G1 X-6.804 Y16.696 E4.84774
G1 X-7.008 Y16.428 E4.86455
G1 X-7.414 Y15.829 E4.90065
G1 X-7.799 Y15.164 E4.93898
G1 X-8.02 Y14.694 E4.9649
G1 X-8.126 Y14.437 E4.97877
G1 X-8.305 Y13.942 E5.00503
G1 X-8.394 Y13.652 E5.02016
G1 X-8.548 Y13.038 E5.05174
G1 X-8.617 Y12.666 E5.07062
G1 X-8.725 Y11.768 E5.11574
G1 X-8.746 Y11.376 E5.13533
G1 X-8.74 Y10.845 E5.16182
G1 X-8.725 Y10.582 E5.17496
G1 X-8.672 Y10.05 E5.20164
G1 X-8.604 Y9.644 E5.22217
G1 X-8.37 Y8.673 E5.272
G1 X-8.248 Y8.285 E5.29229
G1 X-8.052 Y7.783 E5.31918
G1 X-7.947 Y7.546 E5.33211
G1 X-7.717 Y7.08 E5.35804
G1 X-7.58 Y6.832 E5.37217
G1 X-7.309 Y6.393 E5.39791
G1 X-7.155 Y6.168 E5.41152
G1 X-6.839 Y5.747 E5.43778
G1 X-6.345 Y5.178 E5.47537
G1 X-6.149 Y4.978 E5.48934
G1 X-5.765 Y4.622 E5.51547
G1 X-5.639 Y4.525 E5.5234
G0 F3600 X-5.493 Y4.915
G1 F2400 X-5.223 Y4.708 E5.54037
G1 X-5.964 Y-3.978 E5.97529
G1 X-6.244 Y-4.188 E5.99276
G1 X-6.8 Y-4.804 E6.03416
G1 X-7.057 Y-5.168 E6.05639
G1 X-7.408 Y-5.953 E6.09929
G1 X-7.498 Y-6.198 E6.11231
G1 X-7.605 Y-6.378 E6.12275
G1 X-7.854 Y-6.836 E6.14876
G1 X-7.993 Y-7.136 E6.16526
G1 X-8.364 Y-8.09 E6.21633
G1 X-8.461 Y-8.391 E6.2321
G1 X-8.593 Y-8.91 E6.25882
G1 X-8.654 Y-9.235 E6.27532
G1 X-8.776 Y-10.232 E6.32543
G1 X-8.795 Y-10.558 E6.34172
G1 X-8.793 Y-11.1 E6.36876
G1 X-8.772 Y-11.417 E6.38461
G1 X-8.647 Y-12.402 E6.43415
G1 X-8.585 Y-12.726 E6.45061
G1 X-8.45 Y-13.248 E6.47751
G1 X-8.389 Y-13.45 E6.48803
G1 X-8.221 Y-13.934 E6.51359
G1 X-8.139 Y-14.142 E6.52475
G1 X-7.925 Y-14.621 E6.55092
G1 X-7.59 Y-15.249 E6.58643
G1 X-7.467 Y-15.451 E6.59823
G1 X-7.35 Y-15.838 E6.6184
G1 X-6.916 Y-16.636 E6.66372
G1 X-6.619 Y-17.037 E6.68862
G1 X-5.997 Y-17.599 E6.73044
G1 X-5.632 Y-17.857 E6.75274
G1 X-4.845 Y-18.208 E6.79573
G1 X-4.607 Y-18.295 E6.80837
G1 X-4.424 Y-18.404 E6.819
G1 X-3.968 Y-18.652 E6.8449
G1 X-3.669 Y-18.791 E6.86135
G1 X-2.711 Y-19.164 E6.91264
G1 X-2.381 Y-19.268 E6.9299
G1 X-1.796 Y-19.41 E6.95993
G1 X-1.492 Y-19.465 E6.97534
G1 X-.555 Y-19.577 E7.02242
G1 X-.236 Y-19.595 E7.03836
G1 X0.295 Y-19.593 E7.06486
G1 X0.61 Y-19.573 E7.0806
G1 X1.601 Y-19.448 E7.13044
G1 X1.934 Y-19.383 E7.14736
G1 X2.458 Y-19.246 E7.17438
G1 X2.712 Y-19.166 E7.18767
G1 X3.39 Y-18.912 E7.22379
G1 X3.656 Y-18.795 E7.23829
G1 X4.384 Y-18.425 E7.27903
G1 X4.658 Y-18.264 E7.29489
G1 X5.048 Y-18.146 E7.31521
G1 X5.836 Y-17.716 E7.36
G1 X6.191 Y-17.459 E7.38187
G1 X6.8 Y-16.797 E7.42674
G1 X7.058 Y-16.432 E7.44904
G1 X7.41 Y-15.64 E7.49228
G1 X7.495 Y-15.407 E7.50466
G1 X7.607 Y-15.22 E7.51553
G1 X7.863 Y-14.747 E7.54236
G1 X7.999 Y-14.451 E7.55861
G1 X8.363 Y-13.515 E7.60872
G1 X8.46 Y-13.214 E7.6245
G1 X8.593 Y-12.691 E7.65142
G1 X8.654 Y-12.365 E7.66797
G1 X8.776 Y-11.367 E7.71813
G1 X8.795 Y-11.042 E7.73437
G1 X8.793 Y-10.5 E7.76141
G1 X8.772 Y-10.183 E7.77726
G1 X8.647 Y-9.198 E7.8268
G1 X8.585 Y-8.874 E7.84325
G1 X8.45 Y-8.352 E7.87015
G1 X8.389 Y-8.149 E7.88073
G1 X8.22 Y-7.663 E7.9064
G1 X8.138 Y-7.457 E7.91746
G1 X7.926 Y-6.982 E7.94341
G1 X7.831 Y-6.791 E7.95405
G1 X7.59 Y-6.352 E7.97904
G1 X7.461 Y-6.141 E7.99138
G1 X7.335 Y-5.726 E8.01302
G1 X6.917 Y-4.967 E8.05624
G1 X6.619 Y-4.563 E8.08129
G1 X5.997 Y-4.001 E8.12311
G1 X5.964 Y-3.977 E8.12515
G1 X5.223 Y4.708 E8.56002
G1 X5.511 Y4.93 E8.57816
G1 X5.899 Y5.294 E8.6047
G1 X6.063 Y5.462 E8.61642
G1 X6.408 Y5.85 E8.64232
G1 X6.623 Y6.127 E8.65981
G1 X7.2 Y6.985 E8.7114
G1 X7.379 Y7.297 E8.72934
G1 X7.607 Y7.765 E8.75532
G1 X7.697 Y7.971 E8.76653
G1 X7.883 Y8.455 E8.7924
G1 X7.958 Y8.682 E8.80433
G1 X8.099 Y9.182 E8.83024
G1 X8.244 Y9.884 E8.86601
G1 X8.279 Y10.13 E8.8784
G1 X8.33 Y10.667 E8.90531
G1 X8.342 Y10.898 E8.91686
G1 X8.345 Y11.415 E8.94265
G1 X8.336 Y11.648 E8.95428
G1 X8.293 Y12.158 E8.97982
G1 X8.262 Y12.392 E8.99159
G1 X8.171 Y12.907 E9.01768
G1 X8.12 Y13.136 E9.02939
G1 X7.988 Y13.622 E9.05451
G1 X7.92 Y13.836 E9.06572
G1 X7.737 Y14.335 E9.09223
G1 X7.644 Y14.557 E9.10424
G1 X7.427 Y15.013 E9.12944
G1 X7.314 Y15.225 E9.14142
G1 X7.038 Y15.689 E9.16836
G1 X6.911 Y15.882 E9.17988
G1 X6.615 Y16.292 E9.20511
G1 X6.472 Y16.473 E9.21662
G1 X6.128 Y16.87 E9.24283
G1 X5.917 Y17.087 E9.25793
G1 X5.408 Y17.552 E9.29232
G1 X5.17 Y17.744 E9.30758
G1 X4.486 Y18.235 E9.34959
G1 X4.206 Y18.41 E9.36606
G1 X3.736 Y18.664 E9.39271
G1 X3.535 Y18.762 E9.40387
G1 X3.067 Y18.965 E9.42932
G1 X2.825 Y19.056 E9.44222
G1 X2.322 Y19.217 E9.46857
G1 X2.115 Y19.274 E9.47928
G1 X1.601 Y19.393 E9.5056
G1 X1.331 Y19.441 E9.51928
G1 X0.751 Y19.512 E9.54843
G1 X0.493 Y19.53 E9.56134
G1 X-0.086 Y19.543 E9.59023
G1 X-.402 Y19.531 E9.60601
G1 X-1.304 Y19.441 E9.65123
G1 X-1.644 Y19.384 E9.66843
G1 X-2.156 Y19.263 E9.69468
G1 X-2.419 Y19.186 E9.70835
G1 X-3.054 Y18.963 E9.74193
G1 X-3.355 Y18.836 E9.75823
G1 X-4.13 Y18.449 E9.80144
G1 X-4.499 Y18.225 E9.82298
G1 X-5.327 Y17.622 E9.87408
G1 X-5.605 Y17.387 E9.89224
G1 X-5.99 Y17.014 E9.91899
G1 X-6.156 Y16.837 E9.93109
G1 X-6.5 Y16.435 E9.95749
G1 X-6.677 Y16.204 E9.97201
G1 X-7.083 Y15.605 E10.00811
G1 X-7.437 Y14.993 E10.04338
G1 X-7.658 Y14.523 E10.0693
G1 X-7.75 Y14.301 E10.08128
G1 X-7.929 Y13.806 E10.10754
G1 X-8.006 Y13.555 E10.12064
G1 X-8.16 Y12.941 E10.15222
G1 X-8.219 Y12.618 E10.16861
G1 X-8.327 Y11.72 E10.21373
G1 X-8.346 Y11.381 E10.23067
G1 X-8.34 Y10.85 E10.25716
G1 X-8.327 Y10.621 E10.26861
G1 X-8.274 Y10.089 E10.29528
G1 X-8.215 Y9.738 E10.31304
G1 X-7.981 Y8.767 E10.36287
G1 X-7.875 Y8.43 E10.38049
G1 X-7.679 Y7.928 E10.40738
G1 X-7.588 Y7.723 E10.41857
G1 X-7.358 Y7.257 E10.44449
G1 X-7.239 Y7.042 E10.45675
G1 X-6.968 Y6.603 E10.48249
G1 X-6.835 Y6.408 E10.49427
G1 X-6.519 Y5.987 E10.52053
G1 X-6.047 Y5.444 E10.55643
G1 X-5.877 Y5.271 E10.56853
G1 X-5.493 Y4.915 E10.59465
G0 F3600 X-5.221 Y5.209
G1 F2400 X-4.803 Y4.909 E10.62032
G1 X-5.581 Y-4.198 E11.07632
G1 X-5.979 Y-4.487 E11.10086
G1 X-6.494 Y-5.062 E11.13937
G1 X-6.714 Y-5.374 E11.15842
G1 X-7.037 Y-6.102 E11.19815
G1 X-7.163 Y-6.417 E11.21508
G1 X-7.254 Y-6.569 E11.22392
G1 X-7.503 Y-7.027 E11.24993
G1 X-7.62 Y-7.281 E11.26388
G1 X-7.991 Y-8.235 E11.31495
G1 X-8.073 Y-8.49 E11.32831
G1 X-8.205 Y-9.009 E11.35503
G1 X-8.257 Y-9.284 E11.36899
G1 X-8.379 Y-10.281 E11.4191
G1 X-8.395 Y-10.556 E11.43285
G1 X-8.393 Y-11.098 E11.45989
G1 X-8.375 Y-11.367 E11.47334
G1 X-8.25 Y-12.352 E11.52287
G1 X-8.198 Y-12.626 E11.53679
G1 X-8.063 Y-13.148 E11.56369
G1 X-8.011 Y-13.318 E11.57256
G1 X-7.843 Y-13.802 E11.59812
G1 X-7.774 Y-13.978 E11.60755
G1 X-7.56 Y-14.457 E11.63372
G1 X-7.239 Y-15.056 E11.66763
G1 X-7.086 Y-15.33 E11.68328
G1 X-6.976 Y-15.695 E11.7023
G1 X-6.573 Y-16.429 E11.74408
G1 X-6.319 Y-16.772 E11.76537
G1 X-5.739 Y-17.294 E11.8043
G1 X-5.426 Y-17.514 E11.82339
G1 X-4.696 Y-17.837 E11.86321
G1 X-4.388 Y-17.96 E11.87976
G1 X-4.233 Y-18.053 E11.88878
G1 X-3.777 Y-18.301 E11.91467
G1 X-3.524 Y-18.418 E11.92858
G1 X-2.566 Y-18.791 E11.97987
G1 X-2.287 Y-18.879 E11.99447
G1 X-1.702 Y-19.021 E12.0245
G1 X-1.444 Y-19.067 E12.03757
G1 X-.507 Y-19.179 E12.08465
G1 X-.238 Y-19.195 E12.0981
G1 X0.293 Y-19.193 E12.12459
G1 X0.56 Y-19.176 E12.13794
G1 X1.551 Y-19.051 E12.18777
G1 X1.832 Y-18.996 E12.20206
G1 X2.356 Y-18.859 E12.22908
G1 X2.572 Y-18.791 E12.24037
G1 X3.25 Y-18.537 E12.2765
G1 X3.475 Y-18.438 E12.28876
G1 X4.203 Y-18.068 E12.3295
G1 X4.536 Y-17.885 E12.34846
G1 X4.903 Y-17.773 E12.3676
G1 X5.629 Y-17.373 E12.40896
G1 X5.934 Y-17.153 E12.42772
G1 X6.494 Y-16.539 E12.46918
G1 X6.715 Y-16.226 E12.48829
G1 X7.038 Y-15.492 E12.5283
G1 X7.16 Y-15.188 E12.54464
G1 X7.255 Y-15.029 E12.55388
G1 X7.511 Y-14.556 E12.58072
G1 X7.626 Y-14.306 E12.59445
G1 X7.99 Y-13.37 E12.64455
G1 X8.072 Y-13.115 E12.65791
G1 X8.205 Y-12.592 E12.68484
G1 X8.257 Y-12.317 E12.6988
G1 X8.379 Y-11.319 E12.74896
G1 X8.395 Y-11.044 E12.7627
G1 X8.393 Y-10.502 E12.78974
G1 X8.375 Y-10.233 E12.80319
G1 X8.25 Y-9.248 E12.85273
G1 X8.198 Y-8.974 E12.86664
G1 X8.063 Y-8.452 E12.89354
G1 X8.011 Y-8.28 E12.90251
G1 X7.842 Y-7.794 E12.92818
G1 X7.773 Y-7.62 E12.93752
G1 X7.561 Y-7.145 E12.96347
G1 X7.481 Y-6.983 E12.97248
G1 X7.24 Y-6.544 E12.99747
G1 X7.093 Y-6.301 E13.01164
G1 X6.964 Y-5.875 E13.03384
G1 X6.575 Y-5.173 E13.07388
G1 X6.319 Y-4.828 E13.09532
G1 X5.739 Y-4.307 E13.13421
G1 X5.581 Y-4.192 E13.14396
G1 X4.803 Y4.909 E13.59967
G1 X5.237 Y5.222 E13.62637
G1 X5.625 Y5.586 E13.65291
G1 X5.764 Y5.728 E13.66282
G1 X6.109 Y6.116 E13.68873
G1 X6.291 Y6.35 E13.70351
G1 X6.868 Y7.208 E13.7551
G1 X7.02 Y7.472 E13.7703
G1 X7.248 Y7.94 E13.79627
G1 X7.324 Y8.115 E13.80579
G1 X7.51 Y8.599 E13.83166
G1 X7.573 Y8.791 E13.84174
G1 X7.714 Y9.291 E13.86766
G1 X7.851 Y9.96 E13.90173
G1 X7.881 Y10.168 E13.91221
G1 X7.932 Y10.705 E13.93912
G1 X7.942 Y10.9 E13.94886
G1 X7.945 Y11.417 E13.97466
G1 X7.937 Y11.615 E13.98454
G1 X7.894 Y12.125 E14.01008
G1 X7.868 Y12.323 E14.02004
G1 X7.777 Y12.838 E14.04613
G1 X7.734 Y13.032 E14.05605
G1 X7.602 Y13.518 E14.08117
G1 X7.544 Y13.698 E14.09061
G1 X7.361 Y14.197 E14.11712
G1 X7.283 Y14.385 E14.12728
G1 X7.066 Y14.841 E14.15247
G1 X6.97 Y15.021 E14.16265
G1 X6.694 Y15.485 E14.18958
G1 X6.587 Y15.648 E14.19931
G1 X6.291 Y16.058 E14.22454
G1 X6.17 Y16.211 E14.23427
G1 X5.826 Y16.608 E14.26048
G1 X5.647 Y16.791 E14.27325
G1 X5.138 Y17.256 E14.30765
G1 X4.937 Y17.419 E14.32056
G1 X4.253 Y17.91 E14.36256
G1 X4.016 Y18.058 E14.3765
G1 X3.546 Y18.312 E14.40316
G1 X3.375 Y18.395 E14.41264
G1 X2.907 Y18.598 E14.43809
G1 X2.703 Y18.675 E14.44897
G1 X2.2 Y18.836 E14.47532
G1 X2.025 Y18.884 E14.48437
G1 X1.511 Y19.003 E14.51069
G1 X1.282 Y19.044 E14.5223
G1 X0.702 Y19.115 E14.55145
G1 X0.484 Y19.13 E14.56235
G1 X-0.095 Y19.143 E14.59125
G1 X-.362 Y19.133 E14.60458
G1 X-1.264 Y19.043 E14.6498
G1 X-1.552 Y18.995 E14.66437
G1 X-2.064 Y18.874 E14.69062
G1 X-2.287 Y18.809 E14.7022
G1 X-2.922 Y18.586 E14.73578
G1 X-3.176 Y18.478 E14.74955
G1 X-3.951 Y18.091 E14.79277
G1 X-4.263 Y17.901 E14.81099
G1 X-5.091 Y17.298 E14.8621
G1 X-5.327 Y17.1 E14.87747
G1 X-5.712 Y16.727 E14.90421
G1 X-5.853 Y16.577 E14.91448
G1 X-6.197 Y16.175 E14.94088
G1 X-6.346 Y15.979 E14.95316
G1 X-6.752 Y15.38 E14.98926
G1 X-7.075 Y14.823 E15.02139
G1 X-7.296 Y14.353 E15.0473
G1 X-7.374 Y14.165 E15.05745
G1 X-7.553 Y13.67 E15.08371
G1 X-7.618 Y13.457 E15.09482
G1 X-7.772 Y12.843 E15.1264
G1 X-7.822 Y12.571 E15.1402
G1 X-7.93 Y11.673 E15.18533
G1 X-7.946 Y11.385 E15.19972
G1 X-7.94 Y10.854 E15.22621
G1 X-7.929 Y10.661 E15.23585
G1 X-7.876 Y10.129 E15.26253
G1 X-7.826 Y9.832 E15.27755
G1 X-7.592 Y8.861 E15.32738
G1 X-7.502 Y8.576 E15.34229
G1 X-7.306 Y8.074 E15.36918
G1 X-7.23 Y7.9 E15.37865
G1 X-7 Y7.434 E15.40458
