;FLAVOR:Marlin
;TIME:1961
;Filament used: 1.305m
;Layer height: 0.1
;MINX:-65.046
;MINY:-56.761
;MINZ:0.3
;MAXX:66.648
;MAXY:-24.421
;MAXZ:2.2
;Generated with Cura_SteamEngine master
M140 S50
M105
M190 S50
M104 S230
M105
M109 S230
M82 ;absolute extrusion mode
;FLAVOR:Marlin
M82 ;absolute extrusion mode
G21
G90
M82
M107 T0
G28
G92 E0
G0 E3 F200
G92 E0 ; reset extrusion distance
M106 S255 ; Enable cooling fan full speed
G1 X-98 Y0 Z0.4 F3000 ; move to arc start
G3 X0 Y-98 I98 Z0.4 E40 F400 ; lay arc stripe 90deg
G92 E0 ; reset extrusion distance
G4 P500 ; wait for 0.5 sec
G0 Z10 E-1 ; Lift 15mm and retract 1mm filament
G4 P2000 ; wait for 5 sec
G0 Z15
M107 ; Disable cooling fan
G1 X0 Y-85 Z4 E0 F3000 ; get off the bed
G92 E0
G92 E0
G1 F1500 E-6.5
;LAYER_COUNT:20
;LAYER:0
M107
G0 F3600 X10.218 Y-27.918 Z0.3
;TYPE:SKIRT
G1 F1500 E0
G1 F1800 X9.478 Y-28.192 E0.03937
G1 X8.769 Y-28.54 E0.07877
G1 X8.098 Y-28.958 E0.11821
G1 X7.474 Y-29.441 E0.15758
G1 X6.901 Y-29.984 E0.19696
G1 X6.386 Y-30.583 E0.23638
G1 X5.935 Y-31.231 E0.27576
G1 X5.551 Y-31.922 E0.3152
G1 X5.239 Y-32.647 E0.35458
G1 X5.002 Y-33.4 E0.39396
G1 X4.843 Y-34.174 E0.43339
G1 X4.762 Y-34.959 E0.47276
G1 X4.752 Y-35.361 E0.49282
G1 X4.752 Y-48.961 E1.17133
G1 X4.792 Y-49.75 E1.21074
G1 X4.911 Y-50.53 E1.25011
G1 X5.109 Y-51.295 E1.28953
G1 X5.383 Y-52.035 E1.3289
G1 X5.731 Y-52.744 E1.3683
G1 X6.149 Y-53.415 E1.40774
G1 X6.632 Y-54.039 E1.44711
G1 X7.175 Y-54.612 E1.48649
G1 X7.774 Y-55.127 E1.5259
G1 X8.422 Y-55.578 E1.56529
G1 X9.113 Y-55.962 E1.60473
G1 X9.838 Y-56.274 E1.64411
G1 X10.591 Y-56.511 E1.68349
G1 X11.365 Y-56.67 E1.72291
G1 X12.15 Y-56.751 E1.76229
G1 X12.552 Y-56.761 E1.78235
G1 X58.848 Y-56.761 E4.09207
G1 X59.637 Y-56.721 E4.13148
G1 X60.417 Y-56.602 E4.17084
G1 X61.182 Y-56.404 E4.21027
G1 X61.922 Y-56.13 E4.24964
G1 X62.631 Y-55.782 E4.28904
G1 X63.302 Y-55.364 E4.32848
G1 X63.926 Y-54.881 E4.36785
G1 X64.499 Y-54.338 E4.40723
G1 X65.014 Y-53.739 E4.44664
G1 X65.465 Y-53.091 E4.48603
G1 X65.849 Y-52.4 E4.52547
G1 X66.161 Y-51.675 E4.56485
G1 X66.398 Y-50.922 E4.60423
G1 X66.557 Y-50.148 E4.64365
G1 X66.638 Y-49.363 E4.68303
G1 X66.648 Y-48.961 E4.70309
G1 X66.648 Y-35.361 E5.38159
G1 X66.608 Y-34.572 E5.42101
G1 X66.489 Y-33.792 E5.46037
G1 X66.291 Y-33.027 E5.4998
G1 X66.017 Y-32.287 E5.53916
G1 X65.669 Y-31.578 E5.57857
G1 X65.251 Y-30.907 E5.61801
G1 X64.768 Y-30.283 E5.65738
G1 X64.225 Y-29.71 E5.69676
G1 X63.626 Y-29.195 E5.73617
G1 X62.978 Y-28.744 E5.77556
G1 X62.287 Y-28.36 E5.815
G1 X61.562 Y-28.048 E5.85438
G1 X60.809 Y-27.811 E5.89376
G1 X60.035 Y-27.652 E5.93318
G1 X59.25 Y-27.571 E5.97255
G1 X58.848 Y-27.561 E5.99262
G1 X12.552 Y-27.561 E8.30233
G1 X11.763 Y-27.601 E8.34175
G1 X10.983 Y-27.72 E8.38111
G1 X10.218 Y-27.918 E8.42054
G0 F3600 X10.281 Y-28.318
G1 F1800 X9.562 Y-28.592 E8.45892
G1 X8.876 Y-28.939 E8.49728
G1 X8.229 Y-29.355 E8.53565
G1 X7.629 Y-29.836 E8.57402
G1 X7.082 Y-30.377 E8.6124
G1 X6.594 Y-30.972 E8.65079
G1 X6.171 Y-31.614 E8.68915
G1 X5.816 Y-32.297 E8.72755
G1 X5.535 Y-33.012 E8.76588
G1 X5.329 Y-33.754 E8.8043
G1 X5.201 Y-34.512 E8.84265
G1 X5.152 Y-35.361 E8.88508
G1 X5.152 Y-48.961 E9.56358
G1 X5.192 Y-49.729 E9.60195
G1 X5.311 Y-50.489 E9.64033
G1 X5.509 Y-51.232 E9.67869
G1 X5.783 Y-51.951 E9.71708
G1 X6.13 Y-52.637 E9.75543
G1 X6.546 Y-53.284 E9.79381
G1 X7.027 Y-53.884 E9.83218
G1 X7.568 Y-54.431 E9.87056
G1 X8.163 Y-54.919 E9.90895
G1 X8.805 Y-55.342 E9.94731
G1 X9.488 Y-55.697 E9.98571
G1 X10.203 Y-55.978 E10.02404
G1 X10.945 Y-56.184 E10.06246
G1 X11.703 Y-56.312 E10.10081
G1 X12.552 Y-56.361 E10.14323
G1 X58.848 Y-56.361 E12.45295
G1 X59.616 Y-56.321 E12.49132
G1 X60.376 Y-56.202 E12.5297
G1 X61.119 Y-56.004 E12.56806
G1 X61.838 Y-55.73 E12.60645
G1 X62.524 Y-55.383 E12.6448
G1 X63.171 Y-54.967 E12.68318
G1 X63.771 Y-54.486 E12.72154
G1 X64.318 Y-53.945 E12.75993
G1 X64.806 Y-53.35 E12.79832
G1 X65.229 Y-52.708 E12.83667
G1 X65.584 Y-52.025 E12.87508
G1 X65.865 Y-51.31 E12.9134
G1 X66.071 Y-50.568 E12.95182
G1 X66.199 Y-49.81 E12.99018
G1 X66.248 Y-48.961 E13.0326
G1 X66.248 Y-35.361 E13.71111
G1 X66.208 Y-34.593 E13.74948
G1 X66.089 Y-33.833 E13.78786
G1 X65.891 Y-33.09 E13.82622
G1 X65.617 Y-32.371 E13.8646
G1 X65.27 Y-31.685 E13.90296
G1 X64.854 Y-31.038 E13.94133
G1 X64.373 Y-30.438 E13.9797
G1 X63.832 Y-29.891 E14.01808
G1 X63.237 Y-29.403 E14.05647
G1 X62.595 Y-28.98 E14.09483
G1 X61.912 Y-28.625 E14.13323
G1 X61.197 Y-28.344 E14.17156
G1 X60.455 Y-28.138 E14.20998
G1 X59.697 Y-28.01 E14.24833
G1 X58.848 Y-27.961 E14.29076
G1 X12.552 Y-27.961 E16.60048
G1 X11.784 Y-28.001 E16.63884
G1 X11.024 Y-28.12 E16.67722
G1 X10.281 Y-28.318 E16.71558
G0 F3600 X10.345 Y-28.718
G1 F1800 X9.649 Y-28.991 E16.75288
G1 X8.986 Y-29.338 E16.79022
G1 X8.363 Y-29.753 E16.82756
G1 X7.789 Y-30.232 E16.86486
G1 X7.268 Y-30.769 E16.90219
G1 X6.809 Y-31.359 E16.93948
G1 X6.414 Y-31.995 E16.97684
G1 X6.09 Y-32.669 E17.01415
G1 X5.84 Y-33.374 E17.05146
G1 X5.666 Y-34.102 E17.08881
G1 X5.571 Y-34.844 E17.12613
G1 X5.552 Y-35.361 E17.15194
G1 X5.552 Y-48.961 E17.83044
G1 X5.592 Y-49.708 E17.86777
G1 X5.711 Y-50.446 E17.90506
G1 X5.909 Y-51.168 E17.94241
G1 X6.182 Y-51.864 E17.97971
G1 X6.529 Y-52.527 E18.01704
G1 X6.944 Y-53.15 E18.05439
G1 X7.423 Y-53.724 E18.09169
G1 X7.96 Y-54.245 E18.12902
G1 X8.55 Y-54.704 E18.16631
G1 X9.186 Y-55.099 E18.20366
G1 X9.86 Y-55.423 E18.24097
G1 X10.565 Y-55.673 E18.27829
G1 X11.293 Y-55.847 E18.31563
G1 X12.035 Y-55.942 E18.35295
G1 X12.552 Y-55.961 E18.37876
G1 X58.848 Y-55.961 E20.68848
G1 X59.595 Y-55.921 E20.7258
G1 X60.333 Y-55.802 E20.7631
G1 X61.055 Y-55.604 E20.80045
G1 X61.751 Y-55.331 E20.83775
G1 X62.414 Y-54.984 E20.87508
G1 X63.037 Y-54.569 E20.91243
G1 X63.611 Y-54.09 E20.94973
G1 X64.132 Y-53.553 E20.98705
G1 X64.591 Y-52.963 E21.02435
G1 X64.986 Y-52.327 E21.0617
G1 X65.31 Y-51.653 E21.09901
G1 X65.56 Y-50.948 E21.13633
G1 X65.734 Y-50.22 E21.17367
G1 X65.829 Y-49.478 E21.21099
G1 X65.848 Y-48.961 E21.2368
G1 X65.848 Y-35.361 E21.91531
G1 X65.808 Y-34.614 E21.95263
G1 X65.689 Y-33.876 E21.98992
G1 X65.491 Y-33.154 E22.02728
G1 X65.218 Y-32.458 E22.06457
G1 X64.871 Y-31.795 E22.10191
G1 X64.456 Y-31.172 E22.13925
G1 X63.977 Y-30.598 E22.17655
G1 X63.44 Y-30.077 E22.21388
G1 X62.85 Y-29.618 E22.25117
G1 X62.214 Y-29.223 E22.28853
G1 X61.54 Y-28.899 E22.32584
G1 X60.835 Y-28.649 E22.36315
G1 X60.107 Y-28.475 E22.4005
G1 X59.365 Y-28.38 E22.43782
G1 X58.848 Y-28.361 E22.46363
G1 X12.552 Y-28.361 E24.77335
G1 X11.805 Y-28.401 E24.81067
G1 X11.067 Y-28.52 E24.84796
G1 X10.345 Y-28.718 E24.88531
G0 F3600 X10.411 Y-29.118
G1 F1800 X9.738 Y-29.391 E24.92155
G1 X9.099 Y-29.736 E24.95778
G1 X8.502 Y-30.15 E24.99402
G1 X7.954 Y-30.626 E25.03023
G1 X7.461 Y-31.16 E25.06649
G1 X7.031 Y-31.745 E25.10271
G1 X6.667 Y-32.374 E25.13897
G1 X6.374 Y-33.039 E25.17523
G1 X6.156 Y-33.732 E25.21147
G1 X6.016 Y-34.444 E25.24767
G1 X5.952 Y-35.361 E25.29353
G1 X5.952 Y-48.961 E25.97204
G1 X5.992 Y-49.686 E26.00827
G1 X6.111 Y-50.403 E26.04453
G1 X6.309 Y-51.102 E26.08077
G1 X6.582 Y-51.775 E26.117
G1 X6.927 Y-52.414 E26.15323
G1 X7.341 Y-53.011 E26.18948
G1 X7.817 Y-53.559 E26.22569
G1 X8.351 Y-54.052 E26.26195
G1 X8.936 Y-54.482 E26.29817
G1 X9.565 Y-54.846 E26.33443
G1 X10.23 Y-55.139 E26.37069
G1 X10.923 Y-55.357 E26.40693
G1 X11.635 Y-55.497 E26.44313
G1 X12.552 Y-55.561 E26.48899
G1 X58.848 Y-55.561 E28.79871
G1 X59.573 Y-55.521 E28.83493
G1 X60.29 Y-55.402 E28.87119
G1 X60.989 Y-55.204 E28.90744
G1 X61.662 Y-54.931 E28.94367
G1 X62.301 Y-54.586 E28.9799
G1 X62.898 Y-54.172 E29.01615
G1 X63.446 Y-53.696 E29.05236
G1 X63.939 Y-53.162 E29.08862
G1 X64.369 Y-52.577 E29.12484
G1 X64.733 Y-51.948 E29.1611
G1 X65.026 Y-51.283 E29.19735
G1 X65.244 Y-50.59 E29.2336
G1 X65.384 Y-49.878 E29.2698
G1 X65.448 Y-48.961 E29.31566
G1 X65.448 Y-35.361 E29.99417
G1 X65.408 Y-34.636 E30.03039
G1 X65.289 Y-33.919 E30.06665
G1 X65.091 Y-33.22 E30.1029
G1 X64.818 Y-32.547 E30.13913
G1 X64.473 Y-31.908 E30.17536
G1 X64.059 Y-31.311 E30.21161
G1 X63.583 Y-30.763 E30.24782
G1 X63.049 Y-30.27 E30.28408
G1 X62.464 Y-29.84 E30.3203
G1 X61.835 Y-29.476 E30.35656
G1 X61.17 Y-29.183 E30.39281
G1 X60.477 Y-28.965 E30.42906
G1 X59.765 Y-28.825 E30.46526
G1 X58.848 Y-28.761 E30.51112
G1 X12.552 Y-28.761 E32.82084
G1 X11.827 Y-28.801 E32.85706
G1 X11.11 Y-28.92 E32.89332
G1 X10.411 Y-29.118 E32.92957
G0 F3600 X10.48 Y-29.518
G1 F1800 X9.831 Y-29.79 E32.96468
G1 X9.217 Y-30.135 E32.99981
G1 X8.646 Y-30.546 E33.03491
G1 X8.125 Y-31.02 E33.07005
G1 X7.661 Y-31.55 E33.1052
G1 X7.261 Y-32.129 E33.14031
G1 X6.929 Y-32.75 E33.17544
G1 X6.669 Y-33.404 E33.21055
G1 X6.485 Y-34.084 E33.24569
G1 X6.379 Y-34.78 E33.28082
G1 X6.352 Y-35.361 E33.30984
G1 X6.352 Y-48.961 E33.98834
G1 X6.392 Y-49.664 E34.02347
G1 X6.511 Y-50.358 E34.0586
G1 X6.709 Y-51.033 E34.0937
G1 X6.981 Y-51.682 E34.1288
G1 X7.326 Y-52.296 E34.16394
G1 X7.737 Y-52.867 E34.19904
G1 X8.211 Y-53.388 E34.23418
G1 X8.741 Y-53.852 E34.26932
G1 X9.32 Y-54.252 E34.30443
G1 X9.941 Y-54.584 E34.33956
G1 X10.595 Y-54.844 E34.37468
G1 X11.275 Y-55.028 E34.40982
G1 X11.971 Y-55.134 E34.44495
G1 X12.552 Y-55.161 E34.47396
G1 X58.848 Y-55.161 E36.78368
G1 X59.551 Y-55.121 E36.81881
G1 X60.245 Y-55.002 E36.85394
G1 X60.92 Y-54.804 E36.88903
G1 X61.569 Y-54.532 E36.92414
G1 X62.183 Y-54.187 E36.95928
G1 X62.754 Y-53.776 E36.99438
G1 X63.275 Y-53.302 E37.02952
G1 X63.739 Y-52.772 E37.06466
G1 X64.139 Y-52.193 E37.09977
G1 X64.471 Y-51.572 E37.1349
G1 X64.731 Y-50.918 E37.17001
G1 X64.915 Y-50.238 E37.20516
G1 X65.021 Y-49.542 E37.24028
G1 X65.048 Y-48.961 E37.2693
G1 X65.048 Y-35.361 E37.94781
G1 X65.008 Y-34.658 E37.98294
G1 X64.889 Y-33.964 E38.01807
G1 X64.691 Y-33.289 E38.05316
G1 X64.419 Y-32.64 E38.08827
G1 X64.074 Y-32.026 E38.12341
G1 X63.663 Y-31.455 E38.15851
G1 X63.189 Y-30.934 E38.19365
G1 X62.659 Y-30.47 E38.22879
G1 X62.08 Y-30.07 E38.2639
G1 X61.459 Y-29.738 E38.29903
G1 X60.805 Y-29.478 E38.33414
G1 X60.125 Y-29.294 E38.36929
G1 X59.429 Y-29.188 E38.40441
G1 X58.848 Y-29.161 E38.43343
G1 X12.552 Y-29.161 E40.74315
G1 X11.849 Y-29.201 E40.77828
G1 X11.155 Y-29.32 E40.8134
G1 X10.48 Y-29.518 E40.8485
G0 F3600 X10.55 Y-29.917
G1 F1800 X9.926 Y-30.189 E40.88246
G1 X9.338 Y-30.533 E40.91645
G1 X8.794 Y-30.943 E40.95043
G1 X8.303 Y-31.414 E40.98438
G1 X7.869 Y-31.939 E41.01836
G1 X7.5 Y-32.511 E41.05232
G1 X7.201 Y-33.123 E41.0863
G1 X6.976 Y-33.765 E41.12024
G1 X6.827 Y-34.43 E41.15424
G1 X6.752 Y-35.361 E41.20084
G1 X6.752 Y-48.961 E41.87935
G1 X6.792 Y-49.641 E41.91333
G1 X6.911 Y-50.311 E41.94728
G1 X7.108 Y-50.963 E41.98126
G1 X7.38 Y-51.587 E42.01522
G1 X7.724 Y-52.175 E42.04921
G1 X8.134 Y-52.719 E42.08319
G1 X8.605 Y-53.21 E42.11714
G1 X9.13 Y-53.644 E42.15112
G1 X9.702 Y-54.013 E42.18508
G1 X10.314 Y-54.312 E42.21906
G1 X10.956 Y-54.537 E42.253
G1 X11.621 Y-54.686 E42.287
G1 X12.552 Y-54.761 E42.3336
G1 X58.848 Y-54.761 E44.64332
G1 X59.528 Y-54.721 E44.6773
G1 X60.198 Y-54.602 E44.71125
G1 X60.85 Y-54.405 E44.74523
G1 X61.474 Y-54.133 E44.77919
G1 X62.062 Y-53.789 E44.81318
G1 X62.606 Y-53.379 E44.84716
G1 X63.097 Y-52.908 E44.88111
G1 X63.531 Y-52.383 E44.91509
G1 X63.9 Y-51.811 E44.94905
G1 X64.199 Y-51.199 E44.98303
G1 X64.424 Y-50.557 E45.01697
G1 X64.573 Y-49.892 E45.05097
G1 X64.648 Y-48.961 E45.09757
G1 X64.648 Y-35.361 E45.77608
G1 X64.608 Y-34.681 E45.81006
G1 X64.489 Y-34.011 E45.84401
G1 X64.292 Y-33.359 E45.87799
G1 X64.02 Y-32.735 E45.91195
G1 X63.676 Y-32.147 E45.94594
G1 X63.266 Y-31.603 E45.97993
G1 X62.795 Y-31.112 E46.01387
G1 X62.27 Y-30.678 E46.04785
G1 X61.698 Y-30.309 E46.08181
G1 X61.086 Y-30.01 E46.1158
G1 X60.444 Y-29.785 E46.14973
G1 X59.779 Y-29.636 E46.18373
G1 X58.848 Y-29.561 E46.23033
G1 X12.552 Y-29.561 E48.54005
G1 X11.872 Y-29.601 E48.57403
G1 X11.202 Y-29.72 E48.60798
G1 X10.55 Y-29.917 E48.64196
G0 F3600 X11.25 Y-30.12
G1 F1800 X10.623 Y-30.317 E48.67475
G1 X10.025 Y-30.589 E48.70753
G1 X9.464 Y-30.931 E48.74031
G1 X8.949 Y-31.339 E48.77309
G1 X8.487 Y-31.806 E48.80586
G1 X8.086 Y-32.326 E48.83862
G1 X7.75 Y-32.89 E48.87137
G1 X7.486 Y-33.492 E48.90417
G1 X7.296 Y-34.121 E48.93695
G1 X7.185 Y-34.768 E48.9697
G1 X7.152 Y-35.361 E48.99933
G1 X7.152 Y-48.961 E49.67784
G1 X7.192 Y-49.617 E49.71063
G1 X7.311 Y-50.263 E49.7434
G1 X7.508 Y-50.89 E49.77619
G1 X7.78 Y-51.488 E49.80896
G1 X8.122 Y-52.049 E49.84174
G1 X8.53 Y-52.564 E49.87452
G1 X8.997 Y-53.026 E49.90729
G1 X9.517 Y-53.427 E49.94006
G1 X10.081 Y-53.763 E49.97281
G1 X10.683 Y-54.027 E50.0056
G1 X11.312 Y-54.217 E50.03839
G1 X11.959 Y-54.328 E50.07114
G1 X12.552 Y-54.361 E50.10077
G1 X58.848 Y-54.361 E52.41048
G1 X59.504 Y-54.321 E52.44327
G1 X60.15 Y-54.202 E52.47604
G1 X60.777 Y-54.005 E52.50883
G1 X61.375 Y-53.733 E52.54161
G1 X61.936 Y-53.391 E52.57439
G1 X62.451 Y-52.983 E52.60717
G1 X62.913 Y-52.516 E52.63994
G1 X63.314 Y-51.996 E52.6727
G1 X63.65 Y-51.432 E52.70545
G1 X63.914 Y-50.83 E52.73825
G1 X64.104 Y-50.201 E52.77103
G1 X64.215 Y-49.554 E52.80378
G1 X64.248 Y-48.961 E52.83341
G1 X64.248 Y-35.361 E53.51192
G1 X64.208 Y-34.705 E53.54471
G1 X64.089 Y-34.059 E53.57748
G1 X63.892 Y-33.432 E53.61027
G1 X63.62 Y-32.834 E53.64304
G1 X63.278 Y-32.273 E53.67582
G1 X62.87 Y-31.758 E53.7086
G1 X62.403 Y-31.296 E53.74137
G1 X61.883 Y-30.895 E53.77414
G1 X61.319 Y-30.559 E53.80689
G1 X60.717 Y-30.295 E53.83968
G1 X60.088 Y-30.105 E53.87246
G1 X59.441 Y-29.994 E53.90521
G1 X58.848 Y-29.961 E53.93485
G1 X12.552 Y-29.961 E56.24456
G1 X11.896 Y-30.001 E56.27735
G1 X11.25 Y-30.12 E56.31012
G0 F3600 X11.3 Y-30.52
G1 F1800 X10.7 Y-30.717 E56.34163
G1 X10.128 Y-30.988 E56.37321
G1 X9.596 Y-31.328 E56.40471
G1 X9.111 Y-31.734 E56.43626
G1 X8.681 Y-32.197 E56.46779
G1 X8.312 Y-32.711 E56.49935
G1 X8.012 Y-33.267 E56.53087
G1 X7.784 Y-33.856 E56.56238
G1 X7.632 Y-34.47 E56.59394
G1 X7.552 Y-35.361 E56.63857
G1 X7.552 Y-48.961 E57.31708
G1 X7.592 Y-49.592 E57.34862
G1 X7.711 Y-50.213 E57.38017
G1 X7.908 Y-50.813 E57.41167
G1 X8.179 Y-51.385 E57.44325
G1 X8.519 Y-51.917 E57.47475
G1 X8.925 Y-52.402 E57.50631
G1 X9.388 Y-52.832 E57.53783
G1 X9.902 Y-53.201 E57.5694
G1 X10.458 Y-53.501 E57.60092
G1 X11.047 Y-53.729 E57.63243
G1 X11.661 Y-53.881 E57.66398
G1 X12.552 Y-53.961 E57.70862
G1 X58.848 Y-53.961 E60.01833
G1 X59.479 Y-53.921 E60.04988
G1 X60.1 Y-53.802 E60.08142
G1 X60.7 Y-53.605 E60.11293
G1 X61.272 Y-53.334 E60.14451
G1 X61.804 Y-52.994 E60.17601
G1 X62.289 Y-52.588 E60.20756
G1 X62.719 Y-52.125 E60.23909
G1 X63.088 Y-51.611 E60.27065
G1 X63.388 Y-51.055 E60.30217
G1 X63.616 Y-50.466 E60.33368
G1 X63.768 Y-49.852 E60.36524
G1 X63.848 Y-48.961 E60.40987
G1 X63.848 Y-35.361 E61.08838
G1 X63.808 Y-34.73 E61.11992
G1 X63.689 Y-34.109 E61.15147
G1 X63.492 Y-33.509 E61.18297
G1 X63.221 Y-32.937 E61.21455
G1 X62.881 Y-32.405 E61.24605
G1 X62.475 Y-31.92 E61.27761
G1 X62.012 Y-31.49 E61.30913
G1 X61.498 Y-31.121 E61.3407
G1 X60.942 Y-30.821 E61.37222
G1 X60.353 Y-30.593 E61.40373
G1 X59.739 Y-30.441 E61.43528
G1 X58.848 Y-30.361 E61.47992
G1 X12.552 Y-30.361 E63.78963
G1 X11.921 Y-30.401 E63.82118
G1 X11.3 Y-30.52 E63.85272
G0 F3600 X11.353 Y-30.92
G1 F1800 X10.779 Y-31.116 E63.88298
G1 X10.236 Y-31.387 E63.91326
G1 X9.733 Y-31.726 E63.94352
G1 X9.28 Y-32.128 E63.97374
G1 X8.883 Y-32.586 E64.00398
G1 X8.55 Y-33.093 E64.03424
G1 X8.286 Y-33.639 E64.0645
G1 X8.097 Y-34.215 E64.09474
G1 X7.985 Y-34.811 E64.12499
G1 X7.952 Y-35.361 E64.15248
G1 X7.952 Y-48.961 E64.83099
G1 X7.992 Y-49.566 E64.86124
G1 X8.111 Y-50.16 E64.89146
G1 X8.307 Y-50.734 E64.92172
G1 X8.578 Y-51.277 E64.952
G1 X8.917 Y-51.78 E64.98226
G1 X9.319 Y-52.233 E65.01248
G1 X9.777 Y-52.63 E65.04272
G1 X10.284 Y-52.963 E65.07298
G1 X10.83 Y-53.227 E65.10324
G1 X11.406 Y-53.416 E65.13348
G1 X12.002 Y-53.528 E65.16374
G1 X12.552 Y-53.561 E65.19123
G1 X58.848 Y-53.561 E67.50094
G1 X59.453 Y-53.521 E67.53119
G1 X60.047 Y-53.402 E67.56142
G1 X60.621 Y-53.206 E67.59168
G1 X61.164 Y-52.935 E67.62195
G1 X61.667 Y-52.596 E67.65221
G1 X62.12 Y-52.194 E67.68243
G1 X62.517 Y-51.736 E67.71267
