;FLAVOR:Marlin
;TIME:1748
;Filament used: 2.52579m
;Layer height: 0.24
;MINX:-75.05
;MINY:-62.891
;MINZ:0.24
;MAXX:76.15
;MAXY:89.638
;MAXZ:11
;TARGET_MACHINE.NAME:Unknown
;Generated with Cura_SteamEngine 5.10.1
M140 S45
M105
M190 S45
M104 S210
M105
M109 S210
;FLAVOR:Marlin
M82 ;absolute extrusion mode
G21
G90
M82
M107 T0
G28
G92 E0
G0 E3 F200
G92 E0 ; reset extrusion distance
M106 S255 ; Enable cooling fan full speed
G1 X-98 Y0 Z0.4 F3000 ; move to arc start
G3 X0 Y-98 I98 Z0.4 E40 F400 ; lay arc stripe 90deg
G92 E0 ; reset extrusion distance
G4 P500 ; wait for 0.5 sec
G0 Z10 E-1 ; Lift 15mm and retract 1mm filament
G4 P2000 ; wait for 5 sec
G0 Z15
M107 ; Disable cooling fan
G1 X0 Y-85 Z4 E0 F3000 ; get off the bed
M82 ;absolute extrusion mode
G92 E0
G92 E0
G1 F1500 E-1
;LAYER_COUNT:25
;LAYER:0
M106 S102
G0 F3600 X42.531 Y15.35 Z0.24
;TYPE:SKIRT
G1 F3600 E0.71493
G1 F1200 X42.864 Y14.529 E0.74712
G1 X43.422 Y13.388 E0.79327
G1 X43.879 Y12.6 E0.82637
G1 X44.579 Y11.564 E0.8718
G1 X45.135 Y10.855 E0.90453
G1 X45.988 Y9.911 E0.95076
G1 X46.614 Y9.308 E0.98235
G1 X47.594 Y8.486 E1.02882
G1 X48.312 Y7.965 E1.06105
G1 X49.297 Y7.349 E1.10327
G1 X50.358 Y6.786 E1.14691
G1 X51.168 Y6.426 E1.17912
G1 X52.365 Y5.992 E1.22538
G1 X53.328 Y5.719 E1.26175
G1 X54.384 Y5.498 E1.30095
G1 X55.34 Y5.362 E1.33604
G1 X56.628 Y5.274 E1.38295
G1 X57.716 Y5.282 E1.42248
G1 X58.586 Y5.343 E1.45417
G1 X59.724 Y5.499 E1.4959
G1 X60.779 Y5.72 E1.53507
G1 X61.808 Y6.013 E1.57394
G1 X62.772 Y6.361 E1.61118
G1 X63.933 Y6.877 E1.65735
G1 X64.789 Y7.335 E1.69262
G1 X65.64 Y7.863 E1.72901
G1 X66.66 Y8.605 E1.77484
G1 X67.502 Y9.317 E1.81491
G1 X68.14 Y9.933 E1.84713
G1 X68.865 Y10.732 E1.88633
G1 X69.656 Y11.746 E1.93306
G1 X70.164 Y12.503 E1.96619
G1 X70.79 Y13.585 E2.01161
G1 X71.216 Y14.465 E2.04713
G1 X71.586 Y15.375 E2.08282
G1 X71.964 Y16.542 E2.1274
G1 X72.223 Y17.597 E2.16687
G1 X72.418 Y18.74 E2.209
G1 X72.522 Y19.798 E2.24763
G1 X72.553 Y20.902 E2.28776
G1 X72.507 Y21.953 E2.32598
G1 X72.414 Y22.835 E2.35821
G1 X72.228 Y23.914 E2.39799
G1 X71.942 Y25.073 E2.44137
G1 X71.619 Y26.068 E2.47938
G1 X66.491 Y40.155 E3.02409
G1 X66.471 Y40.386 E3.03251
G1 X66.547 Y40.653 E3.0426
G1 X66.735 Y40.848 E3.05244
G1 X66.968 Y40.939 E3.06153
G1 X67.236 Y40.912 E3.07132
G1 X67.471 Y40.767 E3.08135
G1 X67.579 Y40.623 E3.08789
G1 X67.654 Y40.343 E3.09842
G1 X67.737 Y39.388 E3.13325
G1 X68.119 Y38.412 E3.17134
G1 X68.645 Y37.644 E3.20516
G1 X69.029 Y37.243 E3.22533
G1 X69.579 Y36.8 E3.25099
G1 X70.388 Y36.385 E3.28403
G1 X71.503 Y36.117 E3.3257
G1 X72.569 Y36.162 E3.36446
G1 X73.325 Y36.373 E3.39298
G1 X74.1 Y36.716 E3.42378
G1 X74.83 Y37.28 E3.4573
G1 X75.366 Y37.902 E3.48713
G1 X75.796 Y38.664 E3.51892
G1 X76.057 Y39.46 E3.54936
G1 X76.15 Y40.452 E3.58556
G1 X76.115 Y41.178 E3.61197
G1 X75.945 Y42.299 E3.65317
G1 X75.785 Y42.928 E3.67675
G1 X75.392 Y44.003 E3.71834
G1 X75.062 Y44.682 E3.74577
G1 X74.487 Y45.611 E3.78547
G1 X73.947 Y46.308 E3.81751
G1 X73.515 Y46.775 E3.84062
G1 X72.635 Y47.551 E3.88325
G1 X72.1 Y47.936 E3.9072
G1 X71.077 Y48.526 E3.95011
G1 X70.337 Y48.851 E3.97948
G1 X69.584 Y49.105 E4.00835
G1 X68.485 Y49.35 E4.04927
G1 X67.602 Y49.449 E4.08155
G1 X66.68 Y49.459 E4.11505
G1 X65.916 Y49.395 E4.14291
G1 X64.896 Y49.207 E4.1806
G1 X64.262 Y49.027 E4.20454
G1 X63.159 Y48.593 E4.24761
G1 X62.619 Y48.315 E4.26968
G1 X61.656 Y47.696 E4.31128
G1 X61.095 Y47.248 E4.33736
G1 X60.393 Y46.566 E4.37292
G1 X59.764 Y45.81 E4.40866
G1 X59.201 Y44.971 E4.44537
G1 X58.916 Y44.446 E4.46708
G1 X58.481 Y43.416 E4.5077
G1 X58.265 Y42.722 E4.53411
G1 X58.034 Y41.552 E4.57744
G1 X57.96 Y40.687 E4.60899
G1 X57.969 Y39.846 E4.63955
G1 X58.083 Y38.839 E4.67637
G1 X58.24 Y38.103 E4.70372
G1 X58.5 Y37.254 E4.73598
G1 X63.628 Y23.163 E5.28082
G1 X63.794 Y22.644 E5.30062
G1 X63.984 Y21.824 E5.33121
G1 X64.045 Y21.029 E5.36018
G1 X64.044 Y20.498 E5.37947
G1 X63.999 Y19.922 E5.40047
G1 X63.914 Y19.384 E5.42026
G1 X63.796 Y18.887 E5.43882
G1 X63.541 Y18.105 E5.4687
G1 X63.184 Y17.39 E5.49774
G1 X62.903 Y16.929 E5.51736
G1 X62.573 Y16.464 E5.53808
G1 X62.245 Y16.075 E5.55656
G1 X61.832 Y15.657 E5.57792
G1 X61.445 Y15.317 E5.59663
G1 X61.015 Y14.998 E5.61609
G1 X60.305 Y14.552 E5.64655
G1 X59.283 Y14.117 E5.68691
G1 X58.565 Y13.932 E5.71385
G1 X57.758 Y13.79 E5.74362
G1 X56.885 Y13.768 E5.77535
G1 X56.371 Y13.799 E5.79406
G1 X55.857 Y13.87 E5.81292
G1 X55.041 Y14.046 E5.84325
G1 X54.237 Y14.36 E5.87461
G1 X53.784 Y14.577 E5.89286
G1 X53.344 Y14.832 E5.91134
G1 X52.884 Y15.147 E5.9316
G1 X52.426 Y15.519 E5.95304
G1 X52.047 Y15.876 E5.97196
G1 X51.688 Y16.272 E5.99138
G1 X51.357 Y16.698 E6.01098
G1 X51.073 Y17.13 E6.02976
G1 X50.807 Y17.614 E6.04983
G1 X50.573 Y18.125 E6.07025
G1 X50.299 Y18.878 E6.09937
G1 X50.09 Y19.957 E6.1393
G1 X50.032 Y21.451 E6.19363
G1 X49.644 Y22.626 E6.23859
G1 X49.097 Y23.464 E6.27495
G1 X48.558 Y23.989 E6.30229
G1 X47.904 Y24.459 E6.33155
G1 X47.116 Y24.813 E6.36294
G1 X46.197 Y24.995 E6.39698
G1 X45.451 Y24.989 E6.42409
G1 X44.673 Y24.872 E6.45267
G1 X43.707 Y24.482 E6.49053
G1 X42.936 Y23.89 E6.52585
G1 X42.431 Y23.358 E6.5525
G1 X41.941 Y22.562 E6.58646
G1 X41.633 Y21.62 E6.62247
G1 X41.554 Y20.703 E6.65592
G1 X41.598 Y19.572 E6.69704
G1 X41.704 Y18.606 E6.73235
G1 X41.902 Y17.496 E6.77332
G1 X42.152 Y16.502 E6.81056
G1 X42.531 Y15.35 E6.85463
G0 F3600 X42.902 Y15.5
G1 F1200 X43.235 Y14.679 E6.88682
G1 X43.768 Y13.589 E6.93091
G1 X44.225 Y12.801 E6.964
G1 X44.894 Y11.811 E7.00742
G1 X45.45 Y11.102 E7.04016
G1 X46.266 Y10.199 E7.08438
G1 X46.892 Y9.596 E7.11596
G1 X47.829 Y8.81 E7.1604
G1 X48.547 Y8.289 E7.19263
G1 X49.509 Y7.688 E7.23385
G1 X50.52 Y7.152 E7.27543
G1 X51.33 Y6.792 E7.30763
G1 X52.474 Y6.377 E7.35185
G1 X53.41 Y6.111 E7.38721
G1 X54.466 Y5.89 E7.42641
G1 X55.396 Y5.758 E7.46054
G1 X56.625 Y5.674 E7.5053
G1 X57.688 Y5.681 E7.54392
G1 X58.558 Y5.742 E7.57561
G1 X59.642 Y5.891 E7.61537
G1 X60.697 Y6.112 E7.65454
G1 X61.698 Y6.398 E7.69236
G1 X62.636 Y6.737 E7.7286
G1 X63.744 Y7.23 E7.77267
G1 X64.6 Y7.688 E7.80794
G1 X65.429 Y8.203 E7.8434
G1 X66.424 Y8.928 E7.88813
G1 X67.224 Y9.605 E7.92621
G1 X67.862 Y10.221 E7.95844
G1 X68.569 Y11.001 E7.99669
G1 X69.324 Y11.969 E8.04129
G1 X69.832 Y12.726 E8.07442
G1 X70.43 Y13.759 E8.11779
G1 X70.845 Y14.616 E8.15239
G1 X71.215 Y15.526 E8.18808
G1 X71.576 Y16.638 E8.23056
G1 X71.829 Y17.665 E8.26899
G1 X72.02 Y18.779 E8.31006
G1 X72.122 Y19.81 E8.34771
G1 X72.153 Y20.885 E8.38678
G1 X72.109 Y21.911 E8.4241
G1 X72.016 Y22.793 E8.45632
G1 X71.834 Y23.846 E8.49515
G1 X71.561 Y24.95 E8.53647
G1 X71.243 Y25.931 E8.57394
G1 X66.098 Y40.065 E9.12047
G1 X66.068 Y40.405 E9.13287
G1 X66.11 Y40.656 E9.14212
G1 X66.212 Y40.881 E9.15109
G1 X66.491 Y41.171 E9.16571
G1 X66.702 Y41.285 E9.17443
G1 X66.94 Y41.344 E9.18334
G1 X67.337 Y41.304 E9.19784
G1 X67.548 Y41.214 E9.20617
G1 X67.759 Y41.048 E9.21593
G1 X67.945 Y40.802 E9.22713
G1 X68.049 Y40.414 E9.24173
G1 X68.13 Y39.484 E9.27565
G1 X68.477 Y38.597 E9.31025
G1 X68.935 Y37.919 E9.33998
G1 X69.28 Y37.555 E9.35821
G1 X69.799 Y37.137 E9.38242
G1 X70.529 Y36.762 E9.41224
G1 X71.541 Y36.519 E9.45006
G1 X72.507 Y36.56 E9.48519
G1 X73.163 Y36.739 E9.50989
G1 X73.892 Y37.062 E9.53887
G1 X74.556 Y37.575 E9.56935
G1 X75.039 Y38.135 E9.59622
G1 X75.427 Y38.823 E9.62492
G1 X75.663 Y39.543 E9.65246
G1 X75.75 Y40.433 E9.68495
G1 X75.715 Y41.159 E9.71136
G1 X75.557 Y42.2 E9.74962
G1 X75.397 Y42.829 E9.7732
G1 X75.032 Y43.828 E9.81184
G1 X74.702 Y44.507 E9.83927
G1 X74.171 Y45.366 E9.87597
G1 X73.653 Y46.036 E9.90674
G1 X73.221 Y46.503 E9.92986
G1 X72.401 Y47.226 E9.96958
G1 X71.866 Y47.611 E9.99353
G1 X70.916 Y48.16 E10.03339
G1 X70.209 Y48.472 E10.06147
G1 X69.456 Y48.726 E10.09035
G1 X68.44 Y48.952 E10.12817
G1 X67.557 Y49.051 E10.16045
G1 X66.713 Y49.06 E10.19112
G1 X65.949 Y48.996 E10.21898
G1 X65.005 Y48.822 E10.25386
G1 X64.371 Y48.642 E10.2778
G1 X63.342 Y48.237 E10.31798
G1 X62.802 Y47.959 E10.34005
G1 X61.906 Y47.383 E10.37875
G1 X61.345 Y46.935 E10.40484
G1 X60.7 Y46.31 E10.43747
G1 X60.071 Y45.554 E10.47321
G1 X59.553 Y44.78 E10.50705
G1 X59.268 Y44.255 E10.52875
G1 X58.863 Y43.297 E10.56655
G1 X58.647 Y42.603 E10.59296
G1 X58.433 Y41.518 E10.63314
G1 X58.359 Y40.653 E10.66468
G1 X58.369 Y39.851 E10.69383
G1 X58.474 Y38.922 E10.7278
G1 X58.622 Y38.22 E10.75386
G1 X58.876 Y37.391 E10.78537
G1 X64.004 Y23.3 E11.33021
G1 X64.181 Y22.748 E11.35128
G1 X64.319 Y22.153 E11.37347
G1 X64.4 Y21.635 E11.39252
G1 X64.445 Y21.046 E11.41398
G1 X64.444 Y20.479 E11.43459
G1 X64.397 Y19.878 E11.45649
G1 X64.307 Y19.31 E11.47739
G1 X64.181 Y18.779 E11.49722
G1 X63.993 Y18.201 E11.5193
G1 X63.795 Y17.717 E11.5383
G1 X63.534 Y17.196 E11.55947
G1 X63.239 Y16.711 E11.5801
G1 X62.889 Y16.218 E11.60207
G1 X62.541 Y15.805 E11.62169
G1 X62.106 Y15.364 E11.6442
G1 X61.704 Y15.011 E11.66364
G1 X61.242 Y14.669 E11.68452
G1 X60.729 Y14.346 E11.70655
G1 X60.269 Y14.102 E11.72547
G1 X59.414 Y13.738 E11.75924
G1 X58.646 Y13.54 E11.78805
G1 X58.032 Y13.432 E11.81071
G1 X57.507 Y13.383 E11.82986
G1 X56.883 Y13.368 E11.85254
G1 X56.331 Y13.401 E11.87264
G1 X55.786 Y13.476 E11.89263
G1 X55.183 Y13.606 E11.91504
G1 X54.672 Y13.76 E11.93443
G1 X54.086 Y13.989 E11.95729
G1 X53.594 Y14.224 E11.9771
G1 X53.132 Y14.492 E11.99651
G1 X52.641 Y14.829 E12.01815
G1 X52.169 Y15.212 E12.04023
G1 X51.759 Y15.598 E12.0607
G1 X51.383 Y16.013 E12.08104
G1 X51.031 Y16.466 E12.10189
G1 X50.729 Y16.925 E12.12185
G1 X50.447 Y17.439 E12.14315
G1 X50.204 Y17.969 E12.16434
G1 X49.912 Y18.771 E12.19535
G1 X49.691 Y19.911 E12.23754
G1 X49.634 Y21.379 E12.29092
G1 X49.279 Y22.453 E12.33202
G1 X48.788 Y23.207 E12.36472
G1 X48.325 Y23.664 E12.38836
G1 X47.704 Y24.11 E12.41614
G1 X46.992 Y24.43 E12.4445
G1 X46.161 Y24.595 E12.47528
G1 X45.454 Y24.589 E12.50097
G1 X44.78 Y24.484 E12.52576
G1 X43.908 Y24.132 E12.55993
G1 X43.226 Y23.614 E12.59104
G1 X42.75 Y23.113 E12.61615
G1 X42.305 Y22.39 E12.647
G1 X42.028 Y21.543 E12.67938
G1 X41.953 Y20.669 E12.71126
G1 X41.996 Y19.616 E12.74955
G1 X42.102 Y18.65 E12.78486
G1 X42.296 Y17.567 E12.82484
G1 X42.532 Y16.627 E12.86005
G1 X42.902 Y15.5 E12.90315
G0 F3600 X43.273 Y15.65
G1 F1200 X43.606 Y14.829 E12.93534
G1 X44.114 Y13.79 E12.97736
G1 X44.571 Y13.002 E13.01046
G1 X45.209 Y12.058 E13.05186
G1 X45.765 Y11.349 E13.0846
G1 X46.544 Y10.487 E13.12682
G1 X47.17 Y9.884 E13.1584
G1 X48.064 Y9.134 E13.2008
G1 X48.782 Y8.613 E13.23303
G1 X49.697 Y8.041 E13.27224
G1 X50.682 Y7.518 E13.31276
G1 X51.492 Y7.158 E13.34497
G1 X52.584 Y6.762 E13.38718
G1 X53.492 Y6.503 E13.42148
G1 X54.548 Y6.282 E13.46069
G1 X55.452 Y6.154 E13.49386
G1 X56.623 Y6.074 E13.53651
G1 X57.66 Y6.08 E13.57419
G1 X58.53 Y6.141 E13.60588
G1 X59.56 Y6.283 E13.64366
G1 X60.615 Y6.504 E13.68282
G1 X61.588 Y6.783 E13.7196
G1 X62.5 Y7.113 E13.75484
G1 X63.555 Y7.583 E13.7968
G1 X64.411 Y8.041 E13.83208
G1 X65.218 Y8.543 E13.86661
G1 X66.166 Y9.233 E13.90922
G1 X66.946 Y9.893 E13.94634
G1 X67.584 Y10.509 E13.97857
G1 X68.272 Y11.269 E14.01581
G1 X68.992 Y12.192 E14.05835
G1 X69.5 Y12.949 E14.09147
G1 X70.07 Y13.934 E14.13282
G1 X70.474 Y14.767 E14.16646
G1 X70.844 Y15.677 E14.20216
G1 X71.195 Y16.761 E14.24356
G1 X71.435 Y17.733 E14.27994
G1 X71.622 Y18.819 E14.31998
G1 X71.722 Y19.822 E14.3566
G1 X71.753 Y20.868 E14.39462
G1 X71.711 Y21.869 E14.43103
G1 X71.618 Y22.751 E14.46325
G1 X71.44 Y23.778 E14.50112
G1 X71.18 Y24.827 E14.54039
G1 X70.867 Y25.794 E14.57732
G1 X65.705 Y39.975 E15.12567
G1 X65.665 Y40.421 E15.14194
G1 X65.725 Y40.776 E15.15502
G1 X65.877 Y41.11 E15.16835
G1 X66.244 Y41.491 E15.18757
G1 X66.556 Y41.661 E15.20048
G1 X66.912 Y41.749 E15.21381
G1 X67.438 Y41.696 E15.23302
G1 X67.754 Y41.561 E15.2455
G1 X68.046 Y41.332 E15.25899
G1 X68.311 Y40.981 E15.27497
G1 X68.444 Y40.483 E15.2937
G1 X68.523 Y39.578 E15.3267
G1 X68.833 Y38.784 E15.35768
G1 X69.228 Y38.192 E15.38353
G1 X69.531 Y37.867 E15.39968
G1 X70.019 Y37.474 E15.42245
G1 X70.67 Y37.139 E15.44905
G1 X71.579 Y36.921 E15.48301
G1 X72.446 Y36.958 E15.51454
G1 X73.001 Y37.105 E15.53541
G1 X73.684 Y37.408 E15.56255
G1 X74.282 Y37.87 E15.59001
G1 X74.71 Y38.366 E15.61382
G1 X75.059 Y38.984 E15.6396
G1 X75.269 Y39.625 E15.66411
G1 X75.35 Y40.414 E15.69293
G1 X75.315 Y41.14 E15.71934
G1 X75.169 Y42.101 E15.75466
G1 X75.009 Y42.73 E15.77824
G1 X74.672 Y43.653 E15.81395
G1 X74.342 Y44.332 E15.84138
G1 X73.854 Y45.122 E15.87512
G1 X73.359 Y45.764 E15.90457
G1 X72.927 Y46.231 E15.92769
G1 X72.167 Y46.901 E15.9645
G1 X71.632 Y47.286 E15.98845
G1 X70.754 Y47.794 E16.02531
G1 X70.081 Y48.093 E16.05207
G1 X69.328 Y48.347 E16.08094
G1 X68.395 Y48.555 E16.11567
G1 X67.552 Y48.651 E16.1465
G1 X66.746 Y48.661 E16.17579
G1 X65.982 Y48.597 E16.20365
G1 X65.114 Y48.437 E16.23572
G1 X64.48 Y48.257 E16.25966
G1 X63.525 Y47.881 E16.29696
G1 X62.985 Y47.603 E16.31903
G1 X62.156 Y47.07 E16.35484
G1 X61.595 Y46.622 E16.38092
G1 X60.979 Y46.023 E16.41214
G1 X60.403 Y45.331 E16.44486
G1 X59.905 Y44.589 E16.47733
G1 X59.62 Y44.064 E16.49903
G1 X59.245 Y43.178 E16.53399
G1 X59.029 Y42.484 E16.5604
G1 X58.831 Y41.483 E16.59747
G1 X58.759 Y40.658 E16.62756
G1 X58.769 Y39.856 E16.65671
G1 X58.866 Y39.004 E16.68787
G1 X59.005 Y38.337 E16.71262
G1 X59.252 Y37.528 E16.74336
G1 X64.38 Y23.437 E17.2882
G1 X64.567 Y22.856 E17.31038
G1 X64.711 Y22.235 E17.33354
G1 X64.798 Y21.676 E17.3541
G1 X64.845 Y21.064 E17.3764
G1 X64.844 Y20.46 E17.39835
G1 X64.795 Y19.834 E17.42116
G1 X64.7 Y19.236 E17.44316
G1 X64.57 Y18.685 E17.46373
G1 X64.366 Y18.056 E17.48776
G1 X64.158 Y17.548 E17.50771
G1 X63.884 Y17.002 E17.5299
G1 X63.575 Y16.493 E17.55154
G1 X63.205 Y15.972 E17.57476
G1 X62.837 Y15.535 E17.59552
G1 X62.386 Y15.077 E17.61887
G1 X61.95 Y14.696 E17.63991
G1 X61.467 Y14.337 E17.66178
G1 X60.942 Y14.007 E17.68431
G1 X60.435 Y13.738 E17.70516
G1 X59.804 Y13.469 E17.73009
G1 X59.304 Y13.297 E17.7493
G1 X58.725 Y13.148 E17.77102
G1 X58.091 Y13.036 E17.79441
G1 X57.525 Y12.983 E17.81507
G1 X56.88 Y12.968 E17.83851
G1 X56.293 Y13.003 E17.85988
G1 X55.71 Y13.083 E17.88126
G1 X55.086 Y13.218 E17.90446
G1 X54.534 Y13.384 E17.9254
G1 X53.935 Y13.618 E17.94877
G1 X53.404 Y13.871 E17.97014
G1 X52.913 Y14.156 E17.99077
G1 X52.404 Y14.506 E18.01321
G1 X51.904 Y14.911 E18.03659
G1 X51.477 Y15.314 E18.05793
G1 X51.078 Y15.754 E18.07951
G1 X50.705 Y16.234 E18.1016
G1 X50.382 Y16.725 E18.12295
G1 X50.089 Y17.258 E18.14505
G1 X49.836 Y17.81 E18.16712
G1 X49.622 Y18.4 E18.18992
G1 X49.477 Y18.915 E18.20936
G1 X49.292 Y19.864 E18.24449
G1 X49.236 Y21.307 E18.29696
G1 X48.914 Y22.281 E18.33424
G1 X48.478 Y22.951 E18.36328
G1 X48.044 Y23.379 E18.38543
G1 X47.506 Y23.76 E18.40938
G1 X46.868 Y24.047 E18.4348
G1 X46.125 Y24.195 E18.46233
G1 X45.516 Y24.194 E18.48446
G1 X44.889 Y24.096 E18.50752
G1 X44.108 Y23.781 E18.53811
G1 X43.468 Y23.295 E18.56731
G1 X43.069 Y22.869 E18.58852
G1 X42.671 Y22.221 E18.61615
G1 X42.422 Y21.461 E18.64521
G1 X42.353 Y20.685 E18.67352
G1 X42.394 Y19.659 E18.71083
G1 X42.496 Y18.721 E18.74511
G1 X42.69 Y17.638 E18.78509
G1 X42.912 Y16.752 E18.81828
G1 X43.273 Y15.65 E18.86041
G0 F3600 X43.644 Y15.8
G1 F1200 X43.977 Y14.979 E18.8926
G1 X44.46 Y13.991 E18.93256
G1 X44.917 Y13.203 E18.96566
G1 X45.524 Y12.305 E19.00504
G1 X46.08 Y11.596 E19.03778
G1 X46.822 Y10.775 E19.07799
G1 X47.448 Y10.172 E19.10957
G1 X48.299 Y9.458 E19.14994
G1 X49.017 Y8.937 E19.18217
G1 X49.909 Y8.38 E19.22038
G1 X50.844 Y7.884 E19.25884
G1 X51.654 Y7.524 E19.29105
G1 X52.694 Y7.147 E19.33124
G1 X53.574 Y6.895 E19.3645
