;FLAVOR:Marlin
;TIME:2995
;Filament used: 3.94326m
;Layer height: 0.24
;MINX:-63.831
;MINY:-72.572
;MINZ:0.24
;MAXX:65.704
;MAXY:65.18
;MAXZ:13.6
;Generated with Cura_SteamEngine 4.13.1
M140 S50
M105
M190 S50
M104 S210
M105
M109 S210
M82 ;absolute extrusion mode
;FLAVOR:Marlin
M82 ;absolute extrusion mode
G21
G90
M82
M107 T0
G28
G92 E0
G0 E3 F200
G92 E0 ; reset extrusion distance
M106 S255 ; Enable cooling fan full speed
G1 X-98 Y0 Z0.4 F3000 ; move to arc start
G3 X0 Y-98 I98 Z0.4 E40 F400 ; lay arc stripe 90deg
G92 E0 ; reset extrusion distance
G4 P500 ; wait for 0.5 sec
G0 Z10 E-1 ; Lift 15mm and retract 1mm filament
G4 P2000 ; wait for 5 sec
G0 Z15
M107 ; Disable cooling fan
G1 X0 Y-85 Z4 E0 F3000 ; get off the bed
G92 E0
G92 E0
G1 F1500 E-6
;LAYER_COUNT:35
;LAYER:0
M106 S102
G1 F600 Z1.24
G0 F3600 X-23.717 Y-30.261 Z1.24
;TYPE:SKIRT
G1 F600 Z0.24
G1 F3600 E0.71493
G1 F1200 X-24.143 Y-30.019 E0.73668
G1 X-24.602 Y-29.85 E0.7584
G1 X-25.082 Y-29.758 E0.78011
G1 X-25.407 Y-29.74 E0.79456
G1 X-39.089 Y-29.74 E1.40217
G1 X-39.577 Y-29.78 E1.42392
G1 X-40.052 Y-29.899 E1.44567
G1 X-40.501 Y-30.093 E1.46739
G1 X-40.913 Y-30.358 E1.48914
G1 X-41.276 Y-30.686 E1.51087
G1 X-41.581 Y-31.069 E1.53261
G1 X-41.902 Y-31.698 E1.56397
G1 X-42.111 Y-32.284 E1.5916
G1 X-42.349 Y-32.833 E1.61818
G1 X-42.619 Y-33.488 E1.64964
G1 X-42.717 Y-33.687 E1.65949
G1 X-42.927 Y-34.147 E1.68195
G1 X-43.211 Y-34.679 E1.70873
G1 X-43.521 Y-35.203 E1.73576
G1 X-43.611 Y-35.365 E1.74399
G1 X-43.986 Y-35.984 E1.77614
G1 X-44.317 Y-36.49 E1.80299
G1 X-44.645 Y-36.992 E1.82962
G1 X-44.887 Y-37.325 E1.8479
G1 X-45.204 Y-37.766 E1.87202
G1 X-46.152 Y-38.982 E1.94049
G1 X-46.855 Y-39.855 E1.99027
G1 X-47.916 Y-41.2 E2.06635
G1 X-48.528 Y-41.998 E2.11101
G1 X-48.951 Y-42.594 E2.14346
G1 X-49.25 Y-43.188 E2.173
G1 X-49.505 Y-43.761 E2.20085
G1 X-49.697 Y-44.387 E2.22993
G1 X-49.803 Y-45.121 E2.26286
G1 X-49.82 Y-45.705 E2.28881
G1 X-49.797 Y-46.277 E2.31423
G1 X-49.768 Y-46.596 E2.32846
G1 X-49.68 Y-47.092 E2.35083
G1 X-49.406 Y-47.928 E2.3899
G1 X-49.013 Y-48.748 E2.43028
G1 X-48.676 Y-49.256 E2.45735
G1 X-48.354 Y-49.648 E2.47988
G1 X-47.896 Y-50.104 E2.50858
G1 X-47.439 Y-50.481 E2.53489
G1 X-46.836 Y-50.898 E2.56745
G1 X-45.189 Y-51.833 E2.65156
G1 X-44.987 Y-51.994 E2.66303
G1 X-44.752 Y-52.296 E2.68002
G1 X-44.671 Y-52.553 E2.69199
G1 X-44.656 Y-52.812 E2.70351
G1 X-44.737 Y-53.152 E2.71903
G1 X-44.979 Y-53.477 E2.73703
G1 X-46.388 Y-54.906 E2.82615
G1 X-49.636 Y-58.154 E3.03014
G1 X-50.137 Y-58.665 E3.06192
G1 X-50.645 Y-59.173 E3.09382
G1 X-50.776 Y-59.305 E3.10208
G1 X-51.192 Y-59.829 E3.13179
G1 X-51.36 Y-60.098 E3.14588
G1 X-51.64 Y-60.678 E3.17448
G1 X-51.809 Y-61.233 E3.20025
G1 X-51.925 Y-61.972 E3.23347
G1 X-51.933 Y-62.497 E3.25678
G1 X-51.878 Y-63.029 E3.28054
G1 X-51.809 Y-63.6 E3.30608
G1 X-51.664 Y-64.176 E3.33246
G1 X-51.464 Y-64.934 E3.36727
G1 X-51.171 Y-65.72 E3.40452
G1 X-50.811 Y-66.483 E3.44199
G1 X-50.523 Y-66.99 E3.46788
G1 X-50.131 Y-67.642 E3.50167
G1 X-49.937 Y-67.917 E3.51661
G1 X-49.448 Y-68.535 E3.55161
G1 X-49.035 Y-69.013 E3.57967
G1 X-48.519 Y-69.544 E3.61255
G1 X-47.877 Y-70.108 E3.6505
G1 X-47.458 Y-70.413 E3.67351
G1 X-46.433 Y-71.075 E3.7277
G1 X-45.971 Y-71.329 E3.75111
G1 X-45.669 Y-71.464 E3.76581
G1 X-45.11 Y-71.706 E3.79286
G1 X-44.392 Y-71.934 E3.82631
G1 X-44.026 Y-72.075 E3.84373
G1 X-43.494 Y-72.225 E3.86828
G1 X-43.158 Y-72.287 E3.88345
G1 X-42.621 Y-72.377 E3.90763
G1 X-42.068 Y-72.428 E3.93229
G1 X-41.537 Y-72.433 E3.95588
G1 X-41.049 Y-72.39 E3.97763
G1 X-40.575 Y-72.268 E3.99937
G1 X-40.094 Y-72.054 E4.02275
G1 X-39.338 Y-71.699 E4.05984
G1 X-38.944 Y-71.408 E4.08159
G1 X-38.437 Y-70.902 E4.1134
G1 X-37.935 Y-70.4 E4.14493
G1 X-37.618 Y-70.07 E4.16525
G1 X-36.742 Y-69.193 E4.2203
G1 X-35.689 Y-68.155 E4.28596
G1 X-33.779 Y-66.245 E4.40592
G1 X-33.236 Y-65.825 E4.43641
G1 X-32.894 Y-65.68 E4.4529
G1 X-32.507 Y-65.58 E4.47065
G1 X-32.021 Y-65.576 E4.49224
G1 X-31.454 Y-65.729 E4.51832
G1 X-30.939 Y-66.027 E4.54474
G1 X-30.803 Y-66.161 E4.55322
G1 X-30.038 Y-66.93 E4.60139
G1 X-28.03 Y-68.932 E4.72731
G1 X-26.817 Y-70.132 E4.80309
G1 X-26.313 Y-70.633 E4.83465
G1 X-25.804 Y-71.142 E4.86662
G1 X-25.206 Y-71.638 E4.90112
G1 X-24.8 Y-71.911 E4.92285
G1 X-24.269 Y-72.147 E4.94865
G1 X-23.986 Y-72.246 E4.96197
G1 X-23.404 Y-72.386 E4.98855
G1 X-22.751 Y-72.444 E5.01766
G1 X-22.166 Y-72.418 E5.04367
G1 X-21.469 Y-72.304 E5.07503
G1 X-21.276 Y-72.261 E5.08381
G1 X-20.533 Y-72.07 E5.11788
G1 X-19.943 Y-71.889 E5.14529
G1 X-19.36 Y-71.691 E5.17263
G1 X-18.872 Y-71.485 E5.19616
G1 X-18.387 Y-71.247 E5.22015
G1 X-18.077 Y-71.077 E5.23585
G1 X-17.503 Y-70.73 E5.26564
G1 X-16.77 Y-70.214 E5.30545
G1 X-16.294 Y-69.81 E5.33317
G1 X-15.802 Y-69.372 E5.36243
G1 X-15.369 Y-68.895 E5.39104
G1 X-14.901 Y-68.349 E5.42297
G1 X-14.477 Y-67.789 E5.45416
G1 X-14.151 Y-67.322 E5.47946
G1 X-13.75 Y-66.6 E5.51613
G1 X-13.403 Y-65.896 E5.55099
G1 X-13.215 Y-65.412 E5.57405
G1 X-13.035 Y-64.93 E5.5969
G1 X-12.884 Y-64.407 E5.62107
G1 X-12.757 Y-63.891 E5.64467
G1 X-12.671 Y-63.498 E5.66254
G1 X-12.612 Y-62.993 E5.68512
G1 X-12.582 Y-62.764 E5.69537
G1 X-12.567 Y-62.042 E5.72744
G1 X-12.664 Y-61.36 E5.75804
G1 X-12.706 Y-61.16 E5.76711
G1 X-12.911 Y-60.562 E5.79519
G1 X-13.164 Y-60.049 E5.82059
G1 X-13.471 Y-59.587 E5.84522
G1 X-13.843 Y-59.153 E5.87061
G1 X-14.343 Y-58.653 E5.90201
G1 X-14.863 Y-58.134 E5.93464
G1 X-15.56 Y-57.433 E5.97854
G1 X-19.44 Y-53.583 E6.22128
G1 X-19.797 Y-53.033 E6.2504
G1 X-19.825 Y-52.554 E6.27171
G1 X-19.695 Y-52.21 E6.28804
G1 X-19.41 Y-51.907 E6.30651
G1 X-19.299 Y-51.82 E6.31277
G1 X-17.886 Y-51.028 E6.38471
G1 X-17.435 Y-50.755 E6.40812
G1 X-16.847 Y-50.335 E6.44021
G1 X-16.46 Y-49.974 E6.46371
G1 X-16.03 Y-49.486 E6.4926
G1 X-15.679 Y-49.021 E6.51847
G1 X-15.391 Y-48.561 E6.54257
G1 X-15.134 Y-48.01 E6.56957
G1 X-14.939 Y-47.541 E6.59213
G1 X-14.827 Y-47.025 E6.61558
G1 X-14.689 Y-46.334 E6.64687
G1 X-14.654 Y-45.846 E6.6686
G1 X-14.707 Y-44.97 E6.70757
G1 X-14.74 Y-44.705 E6.71943
G1 X-14.901 Y-44.043 E6.74969
G1 X-15.095 Y-43.451 E6.77736
G1 X-15.415 Y-42.839 E6.80803
G1 X-15.708 Y-42.343 E6.83361
G1 X-15.964 Y-42.002 E6.85255
G1 X-17.642 Y-39.814 E6.975
G1 X-17.89 Y-39.512 E6.99235
G1 X-18.51 Y-38.809 E7.03398
G1 X-19.279 Y-37.848 E7.08864
G1 X-19.579 Y-37.366 E7.11385
G1 X-20.105 Y-36.597 E7.15523
G1 X-20.525 Y-35.958 E7.18919
G1 X-20.893 Y-35.35 E7.22075
G1 X-21.268 Y-34.704 E7.25392
G1 X-21.56 Y-34.161 E7.2813
G1 X-22.162 Y-32.849 E7.3454
G1 X-22.347 Y-32.361 E7.36858
G1 X-22.558 Y-31.799 E7.39524
G1 X-22.749 Y-31.348 E7.41699
G1 X-23.011 Y-30.935 E7.43871
G1 X-23.22 Y-30.7 E7.45268
G0 F1080 X-23.336 Y-30.569
G0 X-23.717 Y-30.261
G0 F3600 X-24.048 Y-30.523
G1 F1200 X-24.456 Y-30.32 E7.47292
G1 X-24.893 Y-30.191 E7.49315
G1 X-25.407 Y-30.14 E7.51609
G1 X-39.089 Y-30.14 E8.1237
G1 X-39.543 Y-30.18 E8.14394
G1 X-39.983 Y-30.298 E8.16417
G1 X-40.395 Y-30.492 E8.18439
G1 X-40.768 Y-30.755 E8.20466
G1 X-41.089 Y-31.078 E8.22489
G1 X-41.348 Y-31.453 E8.24513
G1 X-41.647 Y-32.161 E8.27926
G1 X-41.847 Y-32.665 E8.30334
G1 X-42.096 Y-33.254 E8.33173
G1 X-42.298 Y-33.74 E8.35511
G1 X-42.353 Y-33.852 E8.36065
G1 X-42.569 Y-34.325 E8.38374
G1 X-42.868 Y-34.884 E8.41189
G1 X-43.171 Y-35.397 E8.43835
G1 X-43.266 Y-35.569 E8.44708
G1 X-43.645 Y-36.194 E8.47954
G1 X-44.054 Y-36.816 E8.5126
G1 X-44.384 Y-37.307 E8.53887
G1 X-44.871 Y-37.99 E8.57612
G1 X-45.841 Y-39.233 E8.64614
G1 X-46.541 Y-40.102 E8.6957
G1 X-47.599 Y-41.443 E8.77156
G1 X-48.226 Y-42.261 E8.81733
G1 X-48.616 Y-42.812 E8.84731
G1 X-48.875 Y-43.327 E8.87291
G1 X-49.128 Y-43.894 E8.90048
G1 X-49.306 Y-44.469 E8.92721
G1 X-49.405 Y-45.16 E8.95821
G1 X-49.421 Y-45.692 E8.98185
G1 X-49.398 Y-46.24 E9.0062
G1 X-49.293 Y-46.989 E9.03979
G1 X-49.043 Y-47.759 E9.07574
G1 X-48.836 Y-48.221 E9.09823
G1 X-48.553 Y-48.734 E9.12425
G1 X-48.212 Y-49.195 E9.14971
G1 X-47.856 Y-49.591 E9.17336
G1 X-47.453 Y-49.959 E9.1976
G1 X-46.882 Y-50.394 E9.22947
G1 X-46.639 Y-50.551 E9.24232
G1 X-44.95 Y-51.509 E9.32855
G1 X-44.697 Y-51.718 E9.34313
G1 X-44.426 Y-52.055 E9.36233
G1 X-44.273 Y-52.515 E9.38386
G1 X-44.252 Y-52.83 E9.39788
G1 X-44.355 Y-53.278 E9.4183
G1 X-44.624 Y-53.691 E9.44018
G1 X-44.694 Y-53.758 E9.44449
G1 X-46.103 Y-55.187 E9.53361
G1 X-49.353 Y-58.437 E9.73772
G1 X-49.854 Y-58.948 E9.7695
G1 X-50.361 Y-59.455 E9.80135
G1 X-50.492 Y-59.587 E9.8096
G1 X-50.852 Y-60.041 E9.83534
G1 X-51.02 Y-60.31 E9.84942
G1 X-51.264 Y-60.813 E9.87425
G1 X-51.423 Y-61.338 E9.89861
G1 X-51.527 Y-62.012 E9.92889
G1 X-51.52 Y-62.658 E9.95759
G1 X-51.468 Y-63.16 E9.98
G1 X-51.388 Y-63.659 E10.00244
G1 X-51.227 Y-64.309 E10.03218
G1 X-51.082 Y-64.816 E10.0556
G1 X-50.796 Y-65.581 E10.09187
G1 X-50.468 Y-66.278 E10.12608
G1 X-50.183 Y-66.779 E10.15167
G1 X-49.791 Y-67.431 E10.18546
G1 X-49.623 Y-67.67 E10.19843
G1 X-49.141 Y-68.278 E10.23289
G1 X-48.736 Y-68.748 E10.26044
G1 X-48.23 Y-69.267 E10.29263
G1 X-47.62 Y-69.801 E10.32864
G1 X-47.241 Y-70.077 E10.34946
G1 X-46.216 Y-70.739 E10.40365
G1 X-45.542 Y-71.083 E10.43725
G1 X-44.951 Y-71.339 E10.46585
G1 X-44.271 Y-71.552 E10.4975
G1 X-43.421 Y-71.832 E10.53724
G1 X-43.092 Y-71.892 E10.55209
G1 X-42.555 Y-71.982 E10.57627
G1 X-42.041 Y-72.029 E10.5992
G1 X-41.539 Y-72.033 E10.62149
G1 X-41.086 Y-71.99 E10.6417
G1 X-40.647 Y-71.869 E10.66192
G1 X-40.171 Y-71.653 E10.68513
G1 X-39.522 Y-71.342 E10.71709
G1 X-39.01 Y-70.915 E10.7467
G1 X-38.612 Y-70.527 E10.77139
G1 X-38.217 Y-70.116 E10.7967
G1 X-37.914 Y-69.801 E10.81611
G1 X-37.023 Y-68.909 E10.8721
G1 X-35.957 Y-67.857 E10.93861
G1 X-34.06 Y-65.96 E11.05775
G1 X-33.611 Y-65.591 E11.08356
G1 X-33.188 Y-65.357 E11.10503
G1 X-32.585 Y-65.186 E11.13286
G1 X-31.993 Y-65.169 E11.15917
G1 X-31.458 Y-65.297 E11.1836
G1 X-31.032 Y-65.495 E11.20446
G1 X-30.612 Y-65.789 E11.22723
G1 X-30.511 Y-65.887 E11.23348
G1 X-29.756 Y-66.646 E11.28102
G1 X-27.749 Y-68.647 E11.40688
G1 X-26.536 Y-69.847 E11.48265
G1 X-26.032 Y-70.348 E11.51421
G1 X-25.524 Y-70.856 E11.54612
G1 X-24.957 Y-71.325 E11.5788
G1 X-24.577 Y-71.577 E11.59904
G1 X-23.854 Y-71.868 E11.63366
G1 X-23.349 Y-71.99 E11.65673
G1 X-22.754 Y-72.044 E11.68326
G1 X-22.216 Y-72.021 E11.70717
G1 X-21.543 Y-71.911 E11.73746
G1 X-21.375 Y-71.874 E11.7451
G1 X-20.64 Y-71.685 E11.7788
G1 X-20.085 Y-71.514 E11.80459
G1 X-19.488 Y-71.312 E11.83258
G1 X-18.646 Y-70.93 E11.87364
G1 X-18.284 Y-70.735 E11.8919
G1 X-17.71 Y-70.388 E11.92169
G1 X-17.007 Y-69.891 E11.95992
G1 X-16.57 Y-69.521 E11.98535
G1 X-16.072 Y-69.077 E12.01498
G1 X-15.69 Y-68.655 E12.04026
G1 X-15.335 Y-68.243 E12.06441
G1 X-14.937 Y-67.745 E12.09272
G1 X-14.494 Y-67.115 E12.12692
G1 X-14.106 Y-66.417 E12.16239
G1 X-13.768 Y-65.732 E12.19631
G1 X-13.561 Y-65.193 E12.22195
G1 X-13.331 Y-64.534 E12.25295
G1 X-13.143 Y-63.787 E12.28716
G1 X-13.011 Y-62.98 E12.32347
G1 X-12.978 Y-62.708 E12.33564
G1 X-12.965 Y-62.082 E12.36345
G1 X-13.057 Y-61.431 E12.39265
G1 X-13.096 Y-61.249 E12.40091
G1 X-13.274 Y-60.731 E12.42524
G1 X-13.516 Y-60.239 E12.44959
G1 X-13.936 Y-59.647 E12.48182
G1 X-14.37 Y-59.193 E12.50971
G1 X-14.87 Y-58.693 E12.54111
G1 X-15.251 Y-58.314 E12.56498
G1 X-15.835 Y-57.725 E12.60182
G1 X-19.734 Y-53.855 E12.84578
G1 X-19.878 Y-53.679 E12.85588
G1 X-20.161 Y-53.204 E12.88043
G1 X-20.237 Y-52.743 E12.90118
G1 X-20.175 Y-52.337 E12.91942
G1 X-20.116 Y-52.155 E12.92792
G1 X-19.911 Y-51.838 E12.94468
G1 X-19.535 Y-51.494 E12.96732
G1 X-18.087 Y-50.682 E13.04104
G1 X-17.29 Y-50.169 E13.08313
G1 X-16.757 Y-49.705 E13.11452
G1 X-16.345 Y-49.24 E13.14211
G1 X-16.013 Y-48.801 E13.16655
G1 X-15.744 Y-48.372 E13.18904
G1 X-15.51 Y-47.875 E13.21343
G1 X-15.31 Y-47.388 E13.23681
G1 X-15.198 Y-46.868 E13.26044
G1 X-15.084 Y-46.273 E13.28734
G1 X-15.055 Y-45.818 E13.30759
G1 X-15.104 Y-45.02 E13.34309
G1 X-15.137 Y-44.755 E13.35495
G1 X-15.276 Y-44.181 E13.38118
G1 X-15.462 Y-43.61 E13.40785
G1 X-15.751 Y-43.054 E13.43568
G1 X-16.044 Y-42.56 E13.46118
G1 X-16.267 Y-42.264 E13.47764
G1 X-17.913 Y-40.116 E13.59782
G1 X-18.19 Y-39.776 E13.6173
G1 X-18.818 Y-39.064 E13.65946
G1 X-19.605 Y-38.08 E13.71542
G1 X-19.908 Y-37.594 E13.74085
G1 X-20.441 Y-36.815 E13.78277
G1 X-20.87 Y-36.162 E13.81746
G1 X-21.228 Y-35.571 E13.84815
G1 X-21.636 Y-34.867 E13.88429
G1 X-21.922 Y-34.332 E13.91123
G1 X-22.531 Y-33.004 E13.97611
G1 X-22.72 Y-32.507 E13.99972
G1 X-22.938 Y-31.925 E14.02732
G1 X-23.118 Y-31.506 E14.04757
G1 X-23.369 Y-31.126 E14.0678
G1 X-23.539 Y-30.947 E14.07876
G0 F1080 X-23.682 Y-30.795
G0 X-24.048 Y-30.523
G0 F3600 X-24.025 Y-31.029
G1 F1200 X-24.374 Y-30.798 E14.09735
G1 X-24.761 Y-30.637 E14.11596
G1 X-25.407 Y-30.54 E14.14497
G1 X-39.089 Y-30.54 E14.75258
G1 X-39.506 Y-30.58 E14.77119
G1 X-39.908 Y-30.698 E14.78979
G1 X-40.28 Y-30.891 E14.8084
G1 X-40.609 Y-31.15 E14.827
G1 X-40.883 Y-31.467 E14.84561
G1 X-41.152 Y-31.976 E14.87117
G1 X-41.365 Y-32.578 E14.89953
G1 X-41.611 Y-33.14 E14.92678
G1 X-41.892 Y-33.826 E14.9597
G1 X-41.989 Y-34.018 E14.96925
G1 X-42.207 Y-34.497 E14.99262
G1 X-42.525 Y-35.09 E15.0225
G1 X-42.821 Y-35.591 E15.04835
G1 X-42.915 Y-35.761 E15.05697
G1 X-43.313 Y-36.417 E15.09105
G1 X-43.665 Y-36.954 E15.11956
G1 X-43.989 Y-37.45 E15.14587
G1 X-44.548 Y-38.225 E15.18831
G1 X-45.551 Y-39.511 E15.26074
G1 X-46.227 Y-40.35 E15.30859
G1 X-47.281 Y-41.687 E15.38419
G1 X-47.907 Y-42.502 E15.42983
G1 X-48.28 Y-43.03 E15.45854
G1 X-48.546 Y-43.591 E15.48611
G1 X-48.835 Y-44.265 E15.51868
G1 X-48.983 Y-44.947 E15.54967
G1 X-49.021 Y-45.552 E15.57659
G1 X-49.008 Y-46.077 E15.59991
G1 X-48.907 Y-46.887 E15.63616
G1 X-48.681 Y-47.59 E15.66896
G1 X-48.469 Y-48.063 E15.69198
G1 X-48.212 Y-48.526 E15.71549
G1 X-47.9 Y-48.945 E15.73869
G1 X-47.347 Y-49.522 E15.77419
G1 X-46.942 Y-49.854 E15.79744
G1 X-46.441 Y-50.203 E15.82456
G1 X-44.763 Y-51.155 E15.91024
G1 X-44.579 Y-51.272 E15.91992
G1 X-44.132 Y-51.755 E15.94914
G1 X-43.94 Y-52.216 E15.97132
G1 X-43.873 Y-52.512 E15.9848
G1 X-43.851 Y-52.862 E16.00037
G1 X-43.971 Y-53.393 E16.02455
G1 X-44.313 Y-53.946 E16.05343
G1 X-44.41 Y-54.038 E16.05936
G1 X-45.819 Y-55.467 E16.14848
G1 X-49.071 Y-58.719 E16.35272
G1 X-49.572 Y-59.23 E16.3845
G1 X-50.078 Y-59.736 E16.41628
G1 X-50.513 Y-60.253 E16.44629
G1 X-50.887 Y-60.947 E16.4813
G1 X-51.037 Y-61.443 E16.50431
G1 X-51.13 Y-62.053 E16.53172
G1 X-51.121 Y-62.629 E16.5573
G1 X-51.069 Y-63.133 E16.5798
G1 X-50.963 Y-63.714 E16.60603
G1 X-50.836 Y-64.226 E16.62945
G1 X-50.624 Y-64.906 E16.66109
G1 X-50.421 Y-65.442 E16.68654
G1 X-50.125 Y-66.072 E16.71745
G1 X-49.761 Y-66.717 E16.75034
G1 X-49.451 Y-67.219 E16.77654
G1 X-49.309 Y-67.422 E16.78755
G1 X-48.834 Y-68.022 E16.82153
G1 X-48.437 Y-68.482 E16.84851
G1 X-47.941 Y-68.99 E16.88004
G1 X-47.363 Y-69.495 E16.91413
G1 X-47.024 Y-69.741 E16.93273
G1 X-45.999 Y-70.403 E16.98692
G1 X-45.378 Y-70.718 E17.01784
G1 X-44.792 Y-70.972 E17.04621
G1 X-44.145 Y-71.172 E17.07628
G1 X-43.349 Y-71.438 E17.11355
G1 X-43.026 Y-71.498 E17.12814
G1 X-42.489 Y-71.588 E17.15232
G1 X-41.855 Y-71.635 E17.18056
G1 X-41.125 Y-71.59 E17.21304
G1 X-40.529 Y-71.378 E17.24113
G1 X-39.708 Y-70.986 E17.28153
G1 X-39.303 Y-70.643 E17.3051
G1 X-38.937 Y-70.257 E17.32872
G1 X-38.5 Y-69.833 E17.35576
G1 X-38.195 Y-69.516 E17.3753
G1 X-37.304 Y-68.624 E17.43129
G1 X-36.239 Y-67.575 E17.49768
G1 X-34.317 Y-65.653 E17.61839
G1 X-33.817 Y-65.249 E17.64693
G1 X-33.353 Y-64.993 E17.67047
G1 X-32.658 Y-64.791 E17.70261
G1 X-32.154 Y-64.771 E17.72501
G1 X-31.833 Y-64.798 E17.73932
