;FLAVOR:Marlin
;TIME:2266
;Filament used: 3.92201m
;Layer height: 0.24
;MINX:-18.3
;MINY:-20.399
;MINZ:0.3
;MAXX:28.3
;MAXY:22.85
;MAXZ:19.3
;Generated with Cura_SteamEngine 4.13.1
M140 S50
M105
M190 S50
M104 S210
M105
M109 S210
M82 ;absolute extrusion mode
;FLAVOR:Marlin
M82 ;absolute extrusion mode
G21
G90
M82
M107 T0
G28
G92 E0
G0 E3 F200
G92 E0 ; reset extrusion distance
M106 S255 ; Enable cooling fan full speed
G1 X-98 Y0 Z0.4 F3000 ; move to arc start
G3 X0 Y-98 I98 Z0.4 E40 F400 ; lay arc stripe 90deg
G92 E0 ; reset extrusion distance
G4 P500 ; wait for 0.5 sec
G0 Z10 E-1 ; Lift 15mm and retract 1mm filament
G4 P2000 ; wait for 5 sec
G0 Z15
M107 ; Disable cooling fan
G1 X0 Y-85 Z4 E0 F3000 ; get off the bed
G92 E0
G92 E0
G1 F1500 E-6.5
;LAYER_COUNT:77
;LAYER:0
M106 S25.5
G1 F600 Z1.3
G0 F3600 X-13.752 Y-13.362 Z1.3
;TYPE:SKIRT
G1 F600 Z0.3
G1 F1500 E0.3326
G1 F2700 X-13.655 Y-14.125 E0.37097
G1 X-13.503 Y-14.516 E0.3919
G1 X-13.279 Y-14.87 E0.4128
G1 X-12.914 Y-15.25 E0.43909
G1 X-12.58 Y-15.504 E0.46002
G1 X-12.204 Y-15.689 E0.48093
G1 X-11.8 Y-15.8 E0.50183
G1 X-11.422 Y-15.833 E0.52076
G1 X21.422 Y-15.833 E2.15936
G1 X21.839 Y-15.793 E2.18026
G1 X22.241 Y-15.675 E2.20116
G1 X22.613 Y-15.482 E2.22207
G1 X23.011 Y-15.162 E2.24755
G1 X23.294 Y-14.853 E2.26845
G1 X23.513 Y-14.496 E2.28935
G1 X23.66 Y-14.104 E2.31023
G1 X23.744 Y-13.548 E2.33829
G1 X23.753 Y-13.346 E2.34837
G1 X23.752 Y20.533 E4.0386
G1 X23.712 Y20.95 E4.0595
G1 X23.594 Y21.352 E4.08041
G1 X23.401 Y21.724 E4.10131
G1 X22.991 Y22.206 E4.13288
G1 X22.667 Y22.472 E4.1538
G1 X22.3 Y22.673 E4.17467
G1 X21.9 Y22.8 E4.19561
G1 X21.435 Y22.85 E4.21894
G1 X-11.435 Y22.85 E5.85884
G1 X-11.852 Y22.81 E5.87974
G1 X-12.254 Y22.692 E5.90064
G1 X-12.626 Y22.499 E5.92155
G1 X-13.108 Y22.089 E5.95312
G1 X-13.374 Y21.765 E5.97403
G1 X-13.575 Y21.398 E5.99491
G1 X-13.702 Y20.998 E6.01584
G1 X-13.752 Y20.533 E6.03918
G1 X-13.752 Y-13.362 E7.7302
G0 F3600 X-13.352 Y-13.362
G1 F2700 X-13.26 Y-14.051 E7.76488
G1 X-13.112 Y-14.4 E7.7838
G1 X-12.758 Y-14.849 E7.81232
G1 X-12.338 Y-15.182 E7.83906
G1 X-11.994 Y-15.34 E7.85795
G1 X-11.422 Y-15.433 E7.88686
G1 X21.422 Y-15.433 E9.52545
G1 X21.799 Y-15.393 E9.54437
G1 X22.159 Y-15.275 E9.56327
G1 X22.629 Y-14.969 E9.59125
G1 X22.996 Y-14.583 E9.61782
G1 X23.184 Y-14.254 E9.63673
G1 X23.328 Y-13.696 E9.66548
G1 X23.353 Y-13.346 E9.68298
G1 X23.352 Y20.533 E11.37321
G1 X23.312 Y20.91 E11.39213
G1 X23.194 Y21.27 E11.41103
G1 X23.003 Y21.597 E11.42992
G1 X22.708 Y21.923 E11.45186
G1 X22.413 Y22.161 E11.47077
G1 X22.075 Y22.332 E11.48967
G1 X21.709 Y22.429 E11.50856
G1 X21.435 Y22.45 E11.52227
G1 X-11.435 Y22.45 E13.16216
G1 X-11.812 Y22.41 E13.18107
G1 X-12.172 Y22.292 E13.19997
G1 X-12.499 Y22.102 E13.21884
G1 X-12.825 Y21.806 E13.24081
G1 X-13.063 Y21.511 E13.25972
G1 X-13.234 Y21.173 E13.27862
G1 X-13.331 Y20.807 E13.29751
G1 X-13.352 Y20.533 E13.31122
G1 X-13.352 Y-13.362 E15.00224
G0 F3600 X-12.952 Y-13.362
G1 F2700 X-12.865 Y-13.972 E15.03299
G1 X-12.722 Y-14.274 E15.04966
G1 X-12.371 Y-14.662 E15.07576
G1 X-12.1 Y-14.858 E15.09244
G1 X-11.791 Y-14.984 E15.10909
G1 X-11.422 Y-15.033 E15.12766
G1 X21.422 Y-15.033 E16.76626
G1 X21.754 Y-14.993 E16.78294
G1 X22.066 Y-14.876 E16.79957
G1 X22.475 Y-14.569 E16.82508
G1 X22.694 Y-14.317 E16.84174
G1 X22.847 Y-14.02 E16.8584
G1 X22.947 Y-13.475 E16.88605
G1 X22.953 Y-13.346 E16.89249
G1 X22.952 Y20.533 E18.58272
G1 X22.912 Y20.865 E18.5994
G1 X22.795 Y21.178 E18.61608
G1 X22.425 Y21.64 E18.64561
G1 X22.162 Y21.846 E18.66227
G1 X21.858 Y21.985 E18.67895
G1 X21.435 Y22.05 E18.7003
G1 X-11.435 Y22.05 E20.34019
G1 X-11.767 Y22.01 E20.35687
G1 X-12.079 Y21.893 E20.3735
G1 X-12.542 Y21.523 E20.40307
G1 X-12.748 Y21.26 E20.41973
G1 X-12.887 Y20.956 E20.43641
G1 X-12.952 Y20.533 E20.45776
G1 X-12.952 Y-13.362 E22.14879
G0 F3600 X-12.552 Y-13.362
G1 F2700 X-12.471 Y-13.886 E22.17524
G1 X-12.216 Y-14.261 E22.19787
G1 X-11.868 Y-14.528 E22.21975
G1 X-11.6 Y-14.617 E22.23384
G1 X-11.422 Y-14.633 E22.24276
G1 X21.422 Y-14.633 E23.88135
G1 X21.701 Y-14.593 E23.89541
G1 X22.092 Y-14.375 E23.91775
G1 X22.387 Y-14.055 E23.93946
G1 X22.5 Y-13.797 E23.95351
G1 X22.553 Y-13.346 E23.97617
G1 X22.552 Y20.533 E25.6664
G1 X22.512 Y20.812 E25.68046
G1 X22.396 Y21.069 E25.69453
G1 X22.142 Y21.357 E25.71369
G1 X21.916 Y21.526 E25.72776
G1 X21.652 Y21.626 E25.74185
G1 X21.435 Y21.65 E25.75274
G1 X-11.435 Y21.65 E27.39263
G1 X-11.714 Y21.61 E27.40669
G1 X-11.971 Y21.494 E27.42076
G1 X-12.259 Y21.24 E27.43992
G1 X-12.428 Y21.014 E27.454
G1 X-12.528 Y20.75 E27.46808
G1 X-12.552 Y20.533 E27.47897
G1 X-12.552 Y-13.362 E29.17
G0 F3600 X-12.152 Y-13.362
G1 F2700 X-12.078 Y-13.787 E29.19152
G1 X-11.829 Y-14.074 E29.21048
G1 X-11.644 Y-14.19 E29.22138
G1 X-11.422 Y-14.233 E29.23266
G1 X21.422 Y-14.233 E30.87125
G1 X21.637 Y-14.193 E30.88216
G1 X21.938 Y-13.975 E30.9007
G1 X22.071 Y-13.802 E30.91159
G1 X22.153 Y-13.346 E30.9347
G1 X22.152 Y20.533 E32.62493
G1 X22.112 Y20.748 E32.63584
G1 X21.859 Y21.074 E32.65643
G1 X21.68 Y21.198 E32.6673
G1 X21.435 Y21.25 E32.67979
G1 X-11.435 Y21.25 E34.31968
G1 X-11.65 Y21.21 E34.33059
G1 X-11.976 Y20.957 E34.35118
G1 X-12.1 Y20.778 E34.36204
G1 X-12.152 Y20.533 E34.37454
G1 X-12.152 Y-13.362 E36.06557
G0 F3600 X-11.751 Y-13.379
G1 F2700 X-11.737 Y-13.543 E36.07378
G1 X-11.674 Y-13.673 E36.08099
G1 X-11.558 Y-13.78 E36.08886
G1 X-11.422 Y-13.833 E36.09614
G1 X21.422 Y-13.833 E37.73474
G1 X21.556 Y-13.781 E37.74191
G1 X21.67 Y-13.678 E37.74957
G1 X21.735 Y-13.548 E37.75682
G1 X21.753 Y-13.346 E37.76694
G1 X21.752 Y20.533 E39.45717
G1 X21.693 Y20.674 E39.4648
G1 X21.576 Y20.791 E39.47305
G1 X21.435 Y20.85 E39.48068
G1 X-11.435 Y20.85 E41.12057
G1 X-11.576 Y20.791 E41.12819
G1 X-11.693 Y20.674 E41.13645
G1 X-11.752 Y20.533 E41.14407
G1 X-11.751 Y-13.379 E42.83595
G1 F1500 E36.33595
G1 F600 Z1.3
G0 F3600 X-7.146 Y-8.996 Z1.3
;TYPE:SUPPORT
G1 F600 Z0.3
G1 F1500 E43.16855
G1 F2700 X-5.633 Y-8.996 E43.24404
G1 X-5.201 Y-9.284 E43.26994
G1 X-4.644 Y-10.628 E43.34252
G1 X-3.86 Y-10.628 E43.38164
G1 X-3.86 Y-9.805 E43.4227
G1 X-3.532 Y-9.477 E43.44584
G1 X-2.468 Y-9.478 E43.49892
G1 X-2.14 Y-9.806 E43.52206
G1 X-2.14 Y-10.628 E43.56307
G1 X-1.354 Y-10.628 E43.60229
G1 X-.57 Y-8.74 E43.70428
G1 X-.139 Y-8.452 E43.73014
G1 X3.999 Y-8.452 E43.93658
G1 X4.375 Y-8.588 E43.95653
G1 X5.632 Y-8.588 E44.01924
G1 X6.008 Y-8.452 E44.03919
G1 X10.137 Y-8.452 E44.24519
G1 X10.57 Y-8.74 E44.27113
G1 X11.355 Y-10.628 E44.37314
G1 X12.14 Y-10.628 E44.41231
G1 X12.14 Y-9.805 E44.45337
G1 X12.468 Y-9.477 E44.47651
G1 X13.532 Y-9.478 E44.52959
G1 X13.86 Y-9.806 E44.55274
G1 X13.86 Y-10.628 E44.59374
G1 X14.644 Y-10.628 E44.63286
G1 X15.201 Y-9.284 E44.70544
G1 X15.633 Y-8.996 E44.73134
G1 X17.146 Y-8.996 E44.80683
G1 X17.146 Y-7.483 E44.88231
G1 X17.434 Y-7.051 E44.90822
G1 X18.778 Y-6.494 E44.9808
G1 X18.778 Y-5.71 E45.01991
G1 X17.955 Y-5.71 E45.06097
G1 X17.627 Y-5.382 E45.08411
G1 X17.628 Y-4.318 E45.1372
G1 X17.956 Y-3.99 E45.16034
G1 X18.778 Y-3.99 E45.20135
G1 X18.778 Y-3.206 E45.24046
G1 X17.298 Y-2.591 E45.32042
G1 X17.01 Y-2.16 E45.34628
G1 X17.01 Y1.584 E45.53307
G1 X17.146 Y1.96 E45.55302
G1 X17.146 Y2.375 E45.57372
G1 X17.282 Y2.751 E45.59367
G1 X17.282 Y3.508 E45.63144
G1 X17.418 Y3.884 E45.65139
G1 X17.418 Y8.627 E45.88802
G1 X17.706 Y9.06 E45.91396
G1 X18.778 Y9.507 E45.97191
G1 X18.778 Y10.29 E46.01097
G1 X17.955 Y10.29 E46.05203
G1 X17.627 Y10.618 E46.07517
G1 X17.628 Y11.682 E46.12826
G1 X17.956 Y12.01 E46.1514
G1 X18.778 Y12.01 E46.19241
G1 X18.778 Y12.794 E46.23152
G1 X17.434 Y13.351 E46.3041
G1 X17.146 Y13.783 E46.33001
G1 X17.146 Y15.296 E46.40549
G1 X15.633 Y15.296 E46.48097
G1 X15.201 Y15.584 E46.50688
G1 X14.644 Y16.928 E46.57946
G1 X13.86 Y16.928 E46.61857
G1 X13.86 Y16.105 E46.65963
G1 X13.532 Y15.777 E46.68278
G1 X12.468 Y15.778 E46.73586
G1 X12.14 Y16.106 E46.759
G1 X12.14 Y17.04 E46.8056
G1 X-2.14 Y17.04 E47.51803
G1 X-2.14 Y16.105 E47.56468
G1 X-2.468 Y15.777 E47.58782
G1 X-3.532 Y15.778 E47.6409
G1 X-3.86 Y16.106 E47.66405
G1 X-3.86 Y16.928 E47.70506
G1 X-4.644 Y16.928 E47.74417
G1 X-5.201 Y15.584 E47.81675
G1 X-5.633 Y15.296 E47.84266
G1 X-7.146 Y15.296 E47.91814
G1 X-7.146 Y13.783 E47.99362
G1 X-7.434 Y13.351 E48.01953
G1 X-8.778 Y12.794 E48.09211
G1 X-8.778 Y12.01 E48.13122
G1 X-7.955 Y12.01 E48.17228
G1 X-7.627 Y11.682 E48.19542
G1 X-7.628 Y10.618 E48.24851
G1 X-7.956 Y10.29 E48.27165
G1 X-8.778 Y10.29 E48.31266
G1 X-8.778 Y9.507 E48.35172
G1 X-7.706 Y9.059 E48.40969
G1 X-7.418 Y8.626 E48.43563
G1 X-7.418 Y3.622 E48.68528
G1 X-7.282 Y3.246 E48.70523
G1 X-7.282 Y2.748 E48.73008
G1 X-7.146 Y2.372 E48.75003
G1 X-7.146 Y1.951 E48.77103
G1 X-6.874 Y1.198 E48.81097
G1 X-6.874 Y-2.1 E48.97551
G1 X-7.162 Y-2.533 E49.00145
G1 X-8.778 Y-3.205 E49.08877
G1 X-8.778 Y-3.99 E49.12793
G1 X-7.955 Y-3.99 E49.16899
G1 X-7.627 Y-4.318 E49.19214
G1 X-7.628 Y-5.382 E49.24522
G1 X-7.956 Y-5.71 E49.26836
G1 X-8.778 Y-5.71 E49.30937
G1 X-8.778 Y-6.494 E49.34848
G1 X-7.434 Y-7.051 E49.42107
G1 X-7.146 Y-7.483 E49.44697
G1 X-7.146 Y-8.996 E49.52245
G1 F1500 E43.02245
G1 F600 Z1.3
G0 F3600 X-1.56 Y-1.919 Z1.3
G1 F600 Z0.3
G1 F1500 E49.85506
G1 F2700 X-2.419 Y-.983 E49.91844
G1 X-2.982 Y0.391 E49.99252
G1 X-3.195 Y4.759 E50.2107
G1 X-2.906 Y9.539 E50.44961
G1 X-2.26 Y10.437 E50.5048
G1 X-1.648 Y10.97 E50.54529
G1 X-1.648 Y12.513 E50.62227
G1 X-1.249 Y12.912 E50.65042
G1 X11.249 Y12.912 E51.27395
G1 X11.648 Y12.513 E51.3021
G1 X11.648 Y10.971 E51.37903
G1 X12.255 Y10.436 E51.4194
G1 X12.884 Y9.588 E51.47207
G1 X13.195 Y4.658 E51.71852
G1 X13.087 Y2.539 E51.82437
G1 X12.556 Y-.827 E51.99438
G1 X11.599 Y-1.889 E52.0657
G1 X10.798 Y-2.595 E52.11897
G1 X9.963 Y-3.203 E52.1705
G1 X9.042 Y-3.719 E52.22317
G1 X8.243 Y-4.049 E52.2663
G1 X4.979 Y-4.224 E52.42938
G1 X1.68 Y-4.016 E52.59429
G1 X0.915 Y-3.688 E52.63582
G1 X0.01 Y-3.179 E52.68762
G1 X-.803 Y-2.591 E52.73768
G1 X-1.56 Y-1.919 E52.78818
G0 F3600 X-.957 Y-2.667
G1 F2700 X-7.07 Y-2.667 E53.09316
G1 F1500 E46.59316
G1 F600 Z1.3
G0 F3600 X-8.001 Y-3.056 Z1.3
G1 F600 Z0.3
G1 F1500 E53.42576
G1 F2700 X-8.001 Y-3.83 E53.46437
G1 F1500 E46.96437
G1 F600 Z1.3
G0 F3600 X-7.468 Y-5.334 Z1.3
G1 F600 Z0.3
G1 F1500 E53.79697
G1 F2700 X17.468 Y-5.333 E55.04103
G1 F1500 E48.54103
G1 F600 Z1.3
G0 F3600 X17.155 Y-2.666 Z1.3
G1 F600 Z0.3
G1 F1500 E55.37364
G1 F2700 X10.957 Y-2.666 E55.68286
G0 F3600 X10.668 Y-2.888
G1 F2700 X10.668 Y-8.613 E55.96848
G1 F1500 E49.46848
G1 F600 Z1.3
G0 F3600 X8.001 Y-8.292 Z1.3
G1 F600 Z0.3
G1 F1500 E56.30108
G1 F2700 X8.001 Y-4.222 E56.50413
G1 F1500 E50.00413
G1 F600 Z1.3
G0 F3600 X5.334 Y-4.365 Z1.3
G1 F600 Z0.3
G1 F1500 E56.83673
G1 F2700 X5.334 Y-8.428 E57.03944
G1 F1500 E50.53944
G1 F600 Z1.3
G0 F3600 X2.667 Y-8.292 Z1.3
G1 F600 Z0.3
G1 F1500 E57.37204
G1 F2700 X2.667 Y-4.237 E57.57434
G1 F1500 E51.07434
G1 F600 Z1.3
G0 F3600 X0.00 Y-3.356 Z1.3
G1 F600 Z0.3
G1 F1500 E57.90694
G1 F2700 X0.00 Y-8.292 E58.1532
G1 F1500 E51.6532
G1 F600 Z1.3
G0 F3600 X-2.667 Y-9.318 Z1.3
G1 F600 Z0.3
G1 F1500 E58.4858
G1 F2700 X-2.667 Y-.799 E58.91082
G0 F3600 X-2.995 Y0.00
G1 F2700 X-6.714 Y0.00 E59.09636
G1 F1500 E52.59636
G1 F600 Z1.3
G0 F3600 X-7.082 Y2.666 Z1.3
G1 F600 Z0.3
G1 F1500 E59.42896
G1 F2700 X-3.253 Y2.667 E59.61999
G1 F1500 E53.11999
G1 F600 Z1.3
G0 F3600 X-3.319 Y5.334 Z1.3
G1 F600 Z0.3
G1 F1500 E59.95259
G1 F2700 X-7.258 Y5.334 E60.14911
G1 F1500 E53.64911
G1 F600 Z1.3
G0 F3600 X-7.258 Y8.001 Z1.3
G1 F600 Z0.3
G1 F1500 E60.48171
G1 F2700 X-3.158 Y8.001 E60.68626
G1 F1500 E54.18626
G1 F600 Z1.3
G0 F3600 X-2.667 Y10.147 Z1.3
G1 F600 Z0.3
G1 F1500 E61.01886
G1 F2700 X-2.667 Y15.618 E61.29181
G0 F3600 X-2.015 Y16.002
G1 F2700 X12.016 Y16.002 E61.99182
G1 F1500 E55.49182
G1 F600 Z1.3
G0 F3600 X13.335 Y15.618 Z1.3
G1 F600 Z0.3
G1 F1500 E62.32442
G1 F2700 X13.335 Y4.973 E62.8555
G0 F3600 X13.313 Y5.334
G1 F2700 X17.258 Y5.334 E63.05232
G1 F1500 E56.55232
G1 F600 Z1.3
G0 F3600 X17.258 Y8.001 Z1.3
G1 F600 Z0.3
G1 F1500 E63.38492
G1 F2700 X13.145 Y8.001 E63.59012
G1 F1500 E57.09012
G1 F600 Z1.3
G0 F3600 X12.235 Y10.668 Z1.3
G1 F600 Z0.3
G1 F1500 E63.92272
G1 F2700 X17.468 Y10.668 E64.1838
G1 F1500 E57.6838
G1 F600 Z1.3
G0 F3600 X17.251 Y13.335 Z1.3
G1 F600 Z0.3
G1 F1500 E64.5164
G1 F2700 X-7.251 Y13.335 E65.73881
G0 F3600 X-8.001 Y12.942
G1 F2700 X-8.001 Y12.17 E65.77732
G1 F1500 E59.27732
G1 F600 Z1.3
G0 F3600 X-7.467 Y10.668 Z1.3
G1 F600 Z0.3
G1 F1500 E66.10992
G1 F2700 X-2.237 Y10.668 E66.37085
G1 F1500 E59.87085
G1 F600 Z1.3
G0 F3600 X0.00 Y13.072 Z1.3
G1 F600 Z0.3
G1 F1500 E66.70345
G1 F2700 X0.00 Y16.88 E66.89343
G1 F1500 E60.39343
G1 F600 Z1.3
G0 F3600 X2.667 Y16.88 Z1.3
G1 F600 Z0.3
G1 F1500 E67.22604
G1 F2700 X2.667 Y13.072 E67.41602
G1 F1500 E60.91602
G1 F600 Z1.3
G0 F3600 X5.334 Y13.072 Z1.3
G1 F600 Z0.3
G1 F1500 E67.74862
G1 F2700 X5.334 Y16.88 E67.9386
G1 F1500 E61.4386
G1 F600 Z1.3
G0 F3600 X8.001 Y16.88 Z1.3
G1 F600 Z0.3
G1 F1500 E68.2712
G1 F2700 X8.001 Y13.072 E68.46118
G1 F1500 E61.96118
G1 F600 Z1.3
G0 F3600 X10.668 Y13.072 Z1.3
G1 F600 Z0.3
G1 F1500 E68.79378
G1 F2700 X10.668 Y16.88 E68.98377
G1 F1500 E62.48377
G1 F600 Z1.3
G0 F3600 X13.983 Y16.002 Z1.3
G1 F600 Z0.3
G1 F1500 E69.31637
G1 F2700 X14.853 Y16.002 E69.35977
G1 F1500 E62.85977
G1 F600 Z1.3
G0 F3600 X16.002 Y15.136 Z1.3
G1 F600 Z0.3
G1 F1500 E69.69237
G1 F2700 X16.002 Y-8.836 E70.88834
G1 F1500 E64.38834
G1 F600 Z1.3
G0 F3600 X16.986 Y-8 Z1.3
G1 F600 Z0.3
G1 F1500 E71.22094
G1 F2700 X-6.985 Y-8.001 E72.41686
G1 F1500 E65.91686
G1 F600 Z1.3
G0 F3600 X-8.001 Y-6.643 Z1.3
G1 F600 Z0.3
G1 F1500 E72.74946
G1 F2700 X-8.001 Y-5.87 E72.78803
G1 F1500 E66.28803
G1 F600 Z1.3
G0 F3600 X-5.334 Y-9.003 Z1.3
G1 F600 Z0.3
G1 F1500 E73.12063
G1 F2700 X-5.334 Y15.302 E74.33321
G0 F3600 X-4.854 Y16.002
G1 F2700 X-3.982 Y16.002 E74.37671
G1 F1500 E67.87671
G1 F600 Z1.3
G0 F3600 X-8.001 Y10.13 Z1.3
G1 F600 Z0.3
G1 F1500 E74.70932
G1 F2700 X-8.001 Y9.356 E74.74793
G1 F1500 E68.24793
G1 F600 Z1.3
G0 F3600 X13.335 Y4.264 Z1.3
G1 F600 Z0.3
G1 F1500 E75.08053
G1 F2700 X13.335 Y-9.318 E75.75814
G1 F1500 E69.25814
G1 F600 Z1.3
G0 F3600 X12.847 Y0.00 Z1.3
G1 F600 Z0.3
G1 F1500 E76.09074
G1 F2700 X16.85 Y0.00 E76.29045
G1 F1500 E69.79045
G1 F600 Z1.3
G0 F3600 X17.082 Y2.667 Z1.3
G1 F600 Z0.3
G1 F1500 E76.62305
G1 F2700 X13.253 Y2.667 E76.81408
G1 F1500 E70.31408
G1 F600 Z1.3
;MESH:Duplo_Eisenbahn_adapter.3mf
G0 F3600 X21.344 Y-13.433 Z1.3
;TYPE:WALL-OUTER
G1 F600 Z0.3
G1 F1500 E77.14669
G1 F2700 X21.353 Y-13.341 E77.1513
G1 X21.352 Y20.45 E78.83714
G1 X-11.352 Y20.45 E80.46875
G1 X-11.352 Y-13.35 E82.15503
G1 X-11.345 Y-13.433 E82.15919
G1 X21.344 Y-13.433 E83.79005
G0 F3600 X21.353 Y-13.341
G0 X21.353 Y-13.233
G0 X21.083 Y-13.163
G0 X-9.678 Y-11.528
G0 X-9.678 Y-5.122
G0 X-9.45 Y-5.15
G1 F2700 X-8.188 Y-5.15 E83.85301
G1 X-8.187 Y-4.55 E83.88295
G1 X-9.45 Y-4.55 E83.94596
G1 X-9.45 Y10.85 E84.71427
G1 X-8.188 Y10.85 E84.77723
G1 X-8.187 Y11.45 E84.80716
G1 X-9.45 Y11.45 E84.87017
G1 X-9.45 Y17.6 E85.177
G1 X-3.3 Y17.6 E85.48382
G1 X-3.3 Y16.338 E85.54679
G1 X-2.7 Y16.337 E85.57672
G1 X-2.7 Y17.6 E85.63973
G1 X12.7 Y17.6 E86.40804
G1 X12.7 Y16.338 E86.471
G1 X13.3 Y16.337 E86.50094
G1 X13.3 Y17.6 E86.56395
G1 X19.45 Y17.6 E86.87077
G1 X19.45 Y11.45 E87.1776
G1 X18.188 Y11.45 E87.24056
G1 X18.187 Y10.85 E87.27049
G1 X19.45 Y10.85 E87.3335
G1 X19.45 Y-4.55 E88.10181
G1 X18.188 Y-4.55 E88.16477
G1 X18.187 Y-5.15 E88.19471
G1 X19.45 Y-5.15 E88.25772
