;FLAVOR:Marlin
;TIME:5964
;Filament used: 2.72888m
;Layer height: 0.12
;MINX:-1.56
;MINY:-19.824
;MINZ:0.3
;MAXX:11.56
;MAXY:19.824
;MAXZ:39.9
;Generated with Cura_SteamEngine 4.13.1
M140 S50
M105
M190 S50
M104 S215
M105
M109 S215
M82 ;absolute extrusion mode
;FLAVOR:Marlin
M82 ;absolute extrusion mode
G21
G90
M82
M107 T0
G28
G92 E0
G0 E3 F200
G92 E0 ; reset extrusion distance
M106 S255 ; Enable cooling fan full speed
G1 X-98 Y0 Z0.4 F3000 ; move to arc start
G3 X0 Y-98 I98 Z0.4 E40 F400 ; lay arc stripe 90deg
G92 E0 ; reset extrusion distance
G4 P500 ; wait for 0.5 sec
G0 Z10 E-1 ; Lift 15mm and retract 1mm filament
G4 P2000 ; wait for 5 sec
G0 Z15
M107 ; Disable cooling fan
G1 X0 Y-85 Z4 E0 F3000 ; get off the bed
G92 E0
G92 E0
G1 F1500 E-6.5
;LAYER_COUNT:332
;LAYER:0
M106 S25.5
G1 F600 Z1.3
G0 F3600 X-1.56 Y15.997 Z1.3
;TYPE:SKIRT
G1 F600 Z0.3
G1 F1500 E0.3326
G1 F1200 X-1.56 Y-16 E2.35197
G1 X-1.527 Y-16.493 E2.38315
G1 X-1.437 Y-16.996 E2.4154
G1 X-1.218 Y-17.606 E2.4563
G1 X-.918 Y-18.173 E2.49679
G1 X-.895 Y-18.207 E2.49938
G1 X-.422 Y-18.751 E2.54487
G1 X0.207 Y-19.266 E2.59618
G1 X0.878 Y-19.588 E2.64315
G1 X1.108 Y-19.665 E2.65846
G1 X1.676 Y-19.795 E2.69523
G1 X2.091 Y-19.824 E2.72149
G1 X7.903 Y-19.824 E3.08829
G1 X8.522 Y-19.759 E3.12757
G1 X9.195 Y-19.577 E3.17157
G1 X9.72 Y-19.31 E3.20874
G1 X9.905 Y-19.192 E3.22259
G1 X10.336 Y-18.859 E3.25696
G1 X10.365 Y-18.832 E3.25946
G1 X10.711 Y-18.449 E3.29204
G1 X10.84 Y-18.279 E3.30551
G1 X11.133 Y-17.808 E3.34051
G1 X11.152 Y-17.77 E3.34319
G1 X11.366 Y-17.207 E3.38121
G1 X11.448 Y-16.902 E3.40114
G1 X11.543 Y-16.338 E3.43724
G1 X11.56 Y-15.998 E3.45872
G1 X11.56 Y16.003 E5.47834
G1 X11.484 Y16.686 E5.52171
G1 X11.397 Y17.071 E5.54662
G1 X11.178 Y17.702 E5.58877
G1 X10.911 Y18.169 E5.62272
G1 X10.531 Y18.639 E5.66087
G1 X10.185 Y18.985 E5.69175
G1 X9.894 Y19.203 E5.7147
G1 X9.2 Y19.555 E5.76381
G1 X8.502 Y19.765 E5.80981
G1 X8.465 Y19.772 E5.81219
G1 X7.907 Y19.824 E5.84755
G1 X2.092 Y19.824 E6.21454
G1 X1.622 Y19.787 E6.2443
G1 X0.896 Y19.596 E6.29168
G1 X0.273 Y19.313 E6.33486
G1 X-.165 Y19.004 E6.36869
G1 X-.558 Y18.621 E6.40332
G1 X-.982 Y18.075 E6.44695
G1 X-1.005 Y18.037 E6.44976
G1 X-1.292 Y17.407 E6.49345
G1 X-1.4 Y17.073 E6.5156
G1 X-1.534 Y16.423 E6.55749
G1 X-1.56 Y15.997 E6.58442
G0 F3600 X-1.16 Y15.997
G1 F1200 X-1.16 Y-16 E8.60379
G1 X-1.129 Y-16.456 E8.63263
G1 X-1.044 Y-16.918 E8.66228
G1 X-.847 Y-17.458 E8.69856
G1 X-.587 Y-17.949 E8.73362
G1 X-.564 Y-17.983 E8.73621
G1 X-.154 Y-18.455 E8.77567
G1 X0.45 Y-18.946 E8.82479
G1 X1.005 Y-19.209 E8.86355
G1 X1.235 Y-19.286 E8.87886
G1 X1.727 Y-19.399 E8.91072
G1 X2.091 Y-19.424 E8.93375
G1 X7.903 Y-19.424 E9.30055
G1 X8.439 Y-19.368 E9.33456
G1 X9.079 Y-19.192 E9.37645
G1 X9.69 Y-18.855 E9.42049
G1 X10.093 Y-18.539 E9.45281
G1 X10.521 Y-18.038 E9.49439
G1 X10.795 Y-17.591 E9.52748
G1 X10.98 Y-17.103 E9.56042
G1 X11.144 Y-16.31 E9.61153
G1 X11.16 Y-15.998 E9.63124
G1 X11.16 Y16.003 E11.65086
G1 X11.094 Y16.598 E11.68864
G1 X11.007 Y16.983 E11.71355
G1 X10.817 Y17.53 E11.7501
G1 X10.796 Y17.574 E11.75317
G1 X10.433 Y18.136 E11.7954
G1 X9.902 Y18.7 E11.84429
G1 X9.668 Y18.873 E11.86265
G1 X9.067 Y19.178 E11.90519
G1 X8.427 Y19.372 E11.94739
G1 X7.907 Y19.424 E11.98037
G1 X2.092 Y19.424 E12.34737
G1 X1.68 Y19.391 E12.37345
G1 X1.018 Y19.216 E12.41666
G1 X0.478 Y18.97 E12.45411
G1 X0.438 Y18.946 E12.45706
G1 X-0.081 Y18.536 E12.4988
G1 X-.272 Y18.341 E12.51603
G1 X-.639 Y17.868 E12.55381
G1 X-.662 Y17.83 E12.55661
G1 X-.912 Y17.284 E12.59451
G1 X-1.02 Y16.95 E12.61667
G1 X-1.135 Y16.387 E12.65293
G1 X-1.16 Y15.997 E12.6776
G0 F3600 X-.76 Y15.997
G1 F1200 X-.76 Y-16 E14.69696
G1 X-.664 Y-16.788 E14.74706
G1 X-.476 Y-17.309 E14.78202
G1 X-.232 Y-17.759 E14.81432
G1 X0.115 Y-18.158 E14.8477
G1 X0.691 Y-18.625 E14.89449
G1 X1.362 Y-18.906 E14.94041
G1 X1.809 Y-19.006 E14.96931
G1 X2.091 Y-19.024 E14.98715
G1 X7.903 Y-19.024 E15.35395
G1 X8.561 Y-18.934 E15.39586
G1 X8.961 Y-18.809 E15.42231
G1 X9.475 Y-18.518 E15.45959
G1 X9.82 Y-18.246 E15.48731
G1 X10.203 Y-17.796 E15.52461
G1 X10.437 Y-17.412 E15.55299
G1 X10.676 Y-16.694 E15.60075
G1 X10.754 Y-16.156 E15.63505
G1 X10.76 Y-15.998 E15.64503
G1 X10.76 Y16.003 E17.66465
G1 X10.704 Y16.51 E17.69684
G1 X10.456 Y17.358 E17.7526
G1 X10.435 Y17.402 E17.75568
G1 X10.128 Y17.877 E17.79137
G1 X9.921 Y18.121 E17.81157
G1 X9.484 Y18.515 E17.8487
G1 X9.443 Y18.543 E17.85184
G1 X8.934 Y18.801 E17.88785
G1 X8.353 Y18.979 E17.9262
G1 X7.907 Y19.024 E17.95449
G1 X2.092 Y19.024 E18.32148
G1 X1.738 Y18.996 E18.34389
G1 X1.141 Y18.835 E18.38292
G1 X0.684 Y18.627 E18.41461
G1 X0.644 Y18.603 E18.41755
G1 X0.204 Y18.256 E18.45291
G1 X0.013 Y18.061 E18.47014
G1 X-.297 Y17.661 E18.50208
G1 X-.32 Y17.623 E18.50488
G1 X-.531 Y17.161 E18.53694
G1 X-.737 Y16.35 E18.58975
G1 X-.76 Y15.997 E18.61207
G0 F3600 X-.36 Y15.997
G1 F1200 X-.36 Y-16 E20.63144
G1 X-.278 Y-16.684 E20.67491
G1 X-.104 Y-17.161 E20.70696
G1 X0.099 Y-17.535 E20.73382
G1 X0.623 Y-18.078 E20.78144
G1 X0.929 Y-18.301 E20.80533
G1 X1.489 Y-18.527 E20.84345
G1 X2.091 Y-18.624 E20.88193
G1 X7.903 Y-18.624 E21.24873
G1 X8.478 Y-18.542 E21.28539
G1 X8.839 Y-18.426 E21.30932
G1 X9.26 Y-18.181 E21.34006
G1 X9.548 Y-17.953 E21.36324
G1 X9.884 Y-17.554 E21.39616
G1 X10.079 Y-17.233 E21.41987
G1 X10.289 Y-16.59 E21.46256
G1 X10.36 Y-15.998 E21.50019
G1 X10.36 Y16.003 E23.5198
G1 X10.314 Y16.422 E23.54641
G1 X10.095 Y17.185 E23.5965
G1 X9.823 Y17.618 E23.62878
G1 X9.616 Y17.862 E23.64897
G1 X9.217 Y18.212 E23.68247
G1 X8.543 Y18.515 E23.7291
G1 X8.242 Y18.593 E23.74873
G1 X7.907 Y18.624 E23.76996
G1 X2.092 Y18.624 E24.13695
G1 X1.506 Y18.532 E24.17439
G1 X0.89 Y18.284 E24.2163
G1 X0.49 Y17.977 E24.24812
G1 X0.045 Y17.454 E24.29146
G1 X-.151 Y17.038 E24.32048
G1 X-.339 Y16.314 E24.36769
G1 X-.36 Y15.997 E24.38774
G0 F3600 X0.04 Y15.997
G1 F1200 X0.04 Y-16 E26.4071
G1 X0.108 Y-16.58 E26.44396
G1 X0.267 Y-17.012 E26.47301
G1 X0.43 Y-17.31 E26.49445
G1 X0.891 Y-17.781 E26.53604
G1 X1.164 Y-17.974 E26.55714
G1 X1.616 Y-18.148 E26.58771
G1 X2.091 Y-18.224 E26.61807
G1 X7.903 Y-18.224 E26.98487
G1 X8.396 Y-18.151 E27.01632
G1 X8.86 Y-17.961 E27.04797
G1 X9.275 Y-17.661 E27.08028
G1 X9.565 Y-17.312 E27.10892
G1 X9.721 Y-17.054 E27.12795
G1 X9.903 Y-16.486 E27.16559
G1 X9.96 Y-15.998 E27.1966
G1 X9.96 Y16.003 E29.21622
G1 X9.837 Y16.719 E29.26207
G1 X9.713 Y17.057 E29.28479
G1 X9.311 Y17.604 E29.32763
G1 X8.992 Y17.882 E29.35434
G1 X8.41 Y18.137 E29.39444
G1 X7.907 Y18.224 E29.42665
G1 X2.092 Y18.224 E29.79364
G1 X1.629 Y18.151 E29.82323
G1 X1.096 Y17.941 E29.85938
G1 X0.776 Y17.697 E29.88478
G1 X0.387 Y17.247 E29.92232
G1 X0.23 Y16.915 E29.9455
G1 X0.06 Y16.278 E29.9871
G1 X0.04 Y15.997 E30.00488
G0 F3600 X0.44 Y15.997
G1 F1200 X0.44 Y-16 E32.02425
G1 X0.501 Y-16.502 E32.05616
G1 X0.739 Y-17.052 E32.09399
G1 X1.159 Y-17.485 E32.13206
G1 X1.513 Y-17.691 E32.1579
G1 X1.963 Y-17.816 E32.18738
G1 X2.091 Y-17.824 E32.19547
G1 X7.903 Y-17.824 E32.56228
G1 X8.313 Y-17.759 E32.58847
G1 X8.83 Y-17.506 E32.6248
G1 X9.118 Y-17.24 E32.64954
G1 X9.363 Y-16.875 E32.67729
G1 X9.517 Y-16.383 E32.70982
G1 X9.56 Y-15.998 E32.73427
G1 X9.56 Y16.003 E34.75389
G1 X9.446 Y16.63 E34.79411
G1 X9.352 Y16.885 E34.81126
G1 X9.006 Y17.345 E34.84759
G1 X8.766 Y17.552 E34.86759
G1 X8.277 Y17.76 E34.90113
G1 X7.907 Y17.824 E34.92483
G1 X2.092 Y17.824 E35.29182
G1 X1.751 Y17.771 E35.3136
G1 X1.262 Y17.574 E35.34687
G1 X0.871 Y17.222 E35.38007
G1 X0.706 Y17.002 E35.39743
G1 X0.503 Y16.458 E35.43407
G1 X0.44 Y15.997 E35.46344
G0 F3600 X0.84 Y15.997
G1 F1200 X0.84 Y-16 E37.4828
G1 X0.91 Y-16.465 E37.51248
G1 X1.093 Y-16.862 E37.54007
G1 X1.428 Y-17.188 E37.56957
G1 X1.64 Y-17.312 E37.58507
G1 X2.091 Y-17.424 E37.6144
G1 X7.903 Y-17.424 E37.9812
G1 X8.231 Y-17.368 E38.0022
G1 X8.615 Y-17.169 E38.02949
G1 X8.799 Y-16.999 E38.0453
G1 X9.006 Y-16.696 E38.06846
G1 X9.149 Y-16.166 E38.10311
G1 X9.16 Y-15.998 E38.11373
G1 X9.16 Y16.003 E40.13335
G1 X9.056 Y16.542 E40.168
G1 X8.908 Y16.842 E40.18911
G1 X8.54 Y17.221 E40.22245
G1 X8.056 Y17.407 E40.25517
G1 X7.907 Y17.424 E40.26464
G1 X2.092 Y17.424 E40.63163
G1 X1.632 Y17.312 E40.66151
G1 X1.347 Y17.137 E40.68261
G1 X1.049 Y16.795 E40.71124
G1 X0.856 Y16.205 E40.75042
G1 X0.84 Y15.997 E40.76358
G0 F3600 X1.24 Y15.997
G1 F1200 X1.241 Y-16.018 E42.78409
G1 X1.281 Y-16.316 E42.80306
G1 X1.456 Y-16.674 E42.82821
G1 X1.767 Y-16.933 E42.85375
G1 X2.091 Y-17.024 E42.87499
G1 X7.903 Y-17.024 E43.24179
G1 X8.215 Y-16.95 E43.26203
G1 X8.48 Y-16.757 E43.28272
G1 X8.662 Y-16.48 E43.30364
G1 X8.76 Y-15.998 E43.33468
G1 X8.759 Y16.021 E45.35544
G1 X8.63 Y16.54 E45.38919
G1 X8.315 Y16.891 E45.41895
G1 X7.907 Y17.024 E45.44603
G1 X2.092 Y17.024 E45.81303
G1 X1.713 Y16.912 E45.83797
G1 X1.414 Y16.626 E45.86408
G1 X1.255 Y16.168 E45.89468
G1 X1.24 Y15.997 E45.90551
;MESH:Clip1.3mf
G0 F3600 X1.64 Y15.987
;TYPE:WALL-OUTER
G1 F1200 X1.64 Y-15.987 E47.92342
G1 X1.658 Y-16.182 E47.93578
G1 X1.743 Y-16.395 E47.95026
G1 X1.947 Y-16.579 E47.9676
G1 X2.103 Y-16.624 E47.97784
G1 X7.895 Y-16.624 E48.34338
G1 X8.016 Y-16.602 E48.35114
G1 X8.171 Y-16.503 E48.36275
G1 X8.28 Y-16.359 E48.37415
G1 X8.355 Y-16.08 E48.39238
G1 X8.36 Y-15.989 E48.39813
G1 X8.36 Y15.993 E50.41655
G1 X8.282 Y16.342 E50.43912
G1 X8.108 Y16.547 E50.45609
G1 X7.892 Y16.624 E50.47056
G1 X2.106 Y16.624 E50.83572
G1 X1.901 Y16.559 E50.8493
G1 X1.744 Y16.399 E50.86344
G1 X1.647 Y16.099 E50.88334
G1 X1.64 Y15.987 E50.89043
G0 F3600 X1.64 Y15.787
G0 X2.08 Y15.787
G0 X2.04 Y15.976
;TYPE:WALL-INNER
G1 F1200 X2.04 Y-15.976 E52.90695
G1 X2.081 Y-16.161 E52.91891
G1 X2.159 Y-16.224 E52.92524
G1 X7.856 Y-16.224 E53.28478
G1 X7.914 Y-16.18 E53.28938
G1 X7.96 Y-15.989 E53.30178
G1 X7.96 Y15.951 E55.31754
G1 X7.872 Y16.206 E55.33457
G1 X7.823 Y16.224 E55.33786
G1 X2.167 Y16.224 E55.69482
G1 X2.096 Y16.186 E55.6999
G1 X2.04 Y15.976 E55.71362
G0 F3600 X2.44 Y15.824
G1 F1200 X2.44 Y-15.824 E57.71096
G1 X7.56 Y-15.824 E58.03409
G1 X7.56 Y15.824 E60.03143
G1 X2.44 Y15.824 E60.35456
G0 F3600 X2.83 Y15.434
;TYPE:SKIN
G1 F1200 X2.83 Y-15.434 E62.30267
G1 X7.17 Y-15.434 E62.57657
G1 X7.17 Y15.434 E64.52469
G1 X2.83 Y15.434 E64.79859
G0 F3600 X3.373 Y15.253
G1 F1200 X3.01 Y14.889 E64.83103
G0 F3600 X3.01 Y14.323
G1 F1200 X3.939 Y15.253 E64.91399
G0 F3600 X4.504 Y15.253
G1 F1200 X3.01 Y13.758 E65.04738
G0 F3600 X3.01 Y13.192
G1 F1200 X5.07 Y15.253 E65.23128
G0 F3600 X5.636 Y15.253
G1 F1200 X3.01 Y12.626 E65.46571
G0 F3600 X3.01 Y12.061
G1 F1200 X6.202 Y15.253 E65.7506
G0 F3600 X6.767 Y15.253
G1 F1200 X3.01 Y11.495 E66.08597
G0 F3600 X3.01 Y10.929
G1 F1200 X6.989 Y14.909 E66.44115
G0 F3600 X6.989 Y14.343
G1 F1200 X3.01 Y10.364 E66.79628
G0 F3600 X3.01 Y9.798
G1 F1200 X6.989 Y13.777 E67.15142
G0 F3600 X6.989 Y13.212
G1 F1200 X3.01 Y9.232 E67.5066
G0 F3600 X3.01 Y8.667
G1 F1200 X6.989 Y12.646 E67.86174
G0 F3600 X6.989 Y12.08
G1 F1200 X3.01 Y8.101 E68.21687
G0 F3600 X3.01 Y7.535
G1 F1200 X6.989 Y11.515 E68.57205
G0 F3600 X6.989 Y10.949
G1 F1200 X3.01 Y6.969 E68.92723
G0 F3600 X3.01 Y6.404
G1 F1200 X6.989 Y10.383 E69.28237
G0 F3600 X6.989 Y9.818
G1 F1200 X3.01 Y5.838 E69.63755
G0 F3600 X3.01 Y5.272
G1 F1200 X6.989 Y9.252 E69.99273
G0 F3600 X6.989 Y8.686
G1 F1200 X3.01 Y4.707 E70.34787
G0 F3600 X3.01 Y4.141
G1 F1200 X6.989 Y8.121 E70.70305
G0 F3600 X6.989 Y7.555
G1 F1200 X3.01 Y3.575 E71.05823
G0 F3600 X3.01 Y3.01
G1 F1200 X6.989 Y6.989 E71.41337
G0 F3600 X6.989 Y6.424
G1 F1200 X3.01 Y2.444 E71.76855
G0 F3600 X3.01 Y1.878
G1 F1200 X6.989 Y5.858 E72.12373
G0 F3600 X6.989 Y5.292
G1 F1200 X3.01 Y1.313 E72.47886
G0 F3600 X3.01 Y0.747
G1 F1200 X6.989 Y4.727 E72.83404
G0 F3600 X6.989 Y4.161
G1 F1200 X3.01 Y0.181 E73.18922
G0 F3600 X3.01 Y-.383
G1 F1200 X6.989 Y3.595 E73.54432
G0 F3600 X6.989 Y3.029
G1 F1200 X3.01 Y-.949 E73.89941
G0 F3600 X3.01 Y-1.515
G1 F1200 X6.989 Y2.464 E74.25454
G0 F3600 X6.989 Y1.898
G1 F1200 X3.01 Y-2.081 E74.60968
G0 F3600 X3.01 Y-2.646
G1 F1200 X6.989 Y1.332 E74.96477
G0 F3600 X6.989 Y0.767
G1 F1200 X3.01 Y-3.212 E75.31991
G0 F3600 X3.01 Y-3.778
G1 F1200 X6.989 Y0.201 E75.67504
G0 F3600 X6.989 Y-.364
G1 F1200 X3.01 Y-4.343 E76.03018
G0 F3600 X3.01 Y-4.909
G1 F1200 X6.989 Y-.929 E76.38536
G0 F3600 X6.989 Y-1.495
G1 F1200 X3.01 Y-5.475 E76.74054
G0 F3600 X3.01 Y-6.04
G1 F1200 X6.989 Y-2.061 E77.09568
G0 F3600 X6.989 Y-2.626
G1 F1200 X3.01 Y-6.606 E77.45086
G0 F3600 X3.01 Y-7.172
G1 F1200 X6.989 Y-3.192 E77.80604
G0 F3600 X6.989 Y-3.758
G1 F1200 X3.01 Y-7.737 E78.16117
G0 F3600 X3.01 Y-8.303
G1 F1200 X6.989 Y-4.323 E78.51635
G0 F3600 X6.989 Y-4.889
G1 F1200 X3.01 Y-8.869 E78.87153
G0 F3600 X3.01 Y-9.434
G1 F1200 X6.989 Y-5.455 E79.22667
G0 F3600 X6.989 Y-6.021
G1 F1200 X3.01 Y-10 E79.58181
G0 F3600 X3.01 Y-10.566
G1 F1200 X6.989 Y-6.586 E79.93699
G0 F3600 X6.989 Y-7.152
G1 F1200 X3.01 Y-11.131 E80.29212
G0 F3600 X3.01 Y-11.697
G1 F1200 X6.989 Y-7.718 E80.64726
G0 F3600 X6.989 Y-8.283
G1 F1200 X3.01 Y-12.263 E81.00244
G0 F3600 X3.01 Y-12.829
G1 F1200 X6.989 Y-8.849 E81.35762
G0 F3600 X6.989 Y-9.415
G1 F1200 X3.01 Y-13.394 E81.71276
G0 F3600 X3.01 Y-13.96
M104 S206
G1 F1200 X6.989 Y-9.98 E82.06794
G0 F3600 X6.989 Y-10.546
G1 F1200 X3.01 Y-14.526 E82.42312
G0 F3600 X3.01 Y-15.091
G1 F1200 X6.989 Y-11.112 E82.77825
G0 F3600 X6.989 Y-11.677
G1 F1200 X3.414 Y-15.253 E83.09738
G0 F3600 X3.98 Y-15.253
G1 F1200 X6.989 Y-12.243 E83.36598
G0 F3600 X6.989 Y-12.809
G1 F1200 X4.545 Y-15.253 E83.58412
G0 F3600 X5.111 Y-15.253
G1 F1200 X6.989 Y-13.374 E83.75178
G0 F3600 X6.989 Y-13.94
G1 F1200 X5.677 Y-15.253 E83.86892
G0 F3600 X6.243 Y-15.253
G1 F1200 X6.989 Y-14.506 E83.93555
G0 F3600 X6.989 Y-15.071
G1 F1200 X6.808 Y-15.253 E83.95175
G1 F1500 E77.45175
G1 F600 Z1.3
;MESH:NONMESH
G0 F3600 X6.808 Y-15.253 Z1.3
G0 X0.00 Y-17.628
;TIME_ELAPSED:70.471011
;LAYER:1
M106 S255
G0 F5400 X0.00 Y-17.628 Z1.42
;TYPE:SUPPORT
G1 F600 Z0.42
G1 F1500 E84.28435
G1 F1800 X-0.064 Y-17.509 E84.28731
G1 X-0.064 Y-14.981 E84.34281
G1 X0.00 Y-14.98 E84.34421
G1 X0.00 Y-17.628 E84.40234
G1 X0.218 Y-18.033 E84.41244
G1 X0.105 Y-18.577 E84.42463
G1 X1.198 Y-18.908 E84.4497
G1 X1.215 Y-18.922 E84.45019
G1 X1.236 Y-18.922 E84.45065
G1 X1.597 Y-19.032 E84.45893
G1 X1.6 Y-19.032
G1 X1.6 Y-18.2 E84.4772
G1 X3.2 Y-18.2 E84.51232
G1 X3.2 Y-19.032 E84.53058
G1 X4.8 Y-19.032 E84.56571
G1 X4.8 Y-18.2 E84.58397
G1 X6.4 Y-18.2 E84.61909
G1 X6.4 Y-19.032 E84.63736
G1 X7.387 Y-19.032 E84.65902
G1 X7.634 Y-19.269 E84.66654
G1 X8 Y-19.096 E84.67542
G1 X8 Y-18.195 E84.6952
G1 X8.791 Y-18.195 E84.71257
G1 X9.19 Y-17.796 E84.72495
G1 X9.19 Y-16.91 E84.7444
G1 X9.466 Y-16.831 E84.7507
G1 X9.6 Y-16.172 E84.76547
G1 X9.6 Y-18.614 E84.81907
G1 X9.762 Y-18.388 E84.82518
G1 X9.959 Y-18.295 E84.82996
G1 X9.927 Y-18.189 E84.83239
G1 X10.065 Y-17.143 E84.85555
G1 X10.06 Y-15.047 E84.90156
G1 X9.852 Y-15.041 E84.90613
G1 X9.612 Y-14.794 E84.91369
G1 X9.612 Y-16.055 E84.94137
G1 X9.601 Y-16.167 E84.94384
G1 X9.6 Y-16.172 E84.94395
G1 F1500 E78.44395
G1 F600 Z1.42
G0 F5400 X9.612 Y14.849 Z1.42
G1 F600 Z0.42
G1 F1500 E85.27655
G1 F1800 X9.612 Y16.037 E85.30263
G1 X9.6 Y16.169 E85.30554
G1 X9.6 Y18.217 E85.3505
G1 X9.68 Y18.1 E85.35361
G1 X9.717 Y18.032 E85.35531
G1 X10.009 Y17.607 E85.36663
G1 X10.009 Y15.105 E85.42155
G1 X9.839 Y15.093 E85.42529
G1 X9.612 Y14.849 E85.43261
G1 F1500 E78.93261
G1 F600 Z1.42
G0 F5400 X9.6 Y18.217 Z1.42
G1 F600 Z0.42
G1 F1500 E85.76521
G1 F1800 X9.168 Y18.844 E85.78192
G1 X8 Y18.397 E85.80938
G1 X7.472 Y18.195 E85.82179
