;FLAVOR:Marlin
;TIME:14578
;Filament used: 14.4877m
;Layer height: 0.12
;MINX:-66.8
;MINY:-52.212
;MINZ:0.3
;MAXX:72.298
;MAXY:51.746
;MAXZ:24.76
;Generated with Cura_SteamEngine 4.12.1
M140 S40
M105
M190 S40
M104 S210
M105
M109 S210
M82 ;absolute extrusion mode
;FLAVOR:Marlin
M82 ;absolute extrusion mode
G21
G90
M82
M107 T0
G28
G92 E0
G0 E3 F200
G92 E0 ; reset extrusion distance
M106 S255 ; Enable cooling fan full speed
G1 X-98 Y0 Z0.4 F3000 ; move to arc start
G3 X0 Y-98 I98 Z0.4 E40 F400 ; lay arc stripe 90deg
G92 E0 ; reset extrusion distance
G4 P500 ; wait for 0.5 sec
G0 Z10 E-1 ; Lift 15mm and retract 1mm filament
G4 P2000 ; wait for 5 sec
G0 Z15
M107 ; Disable cooling fan
G1 X0 Y-85 Z4 E0 F3000 ; get off the bed
G92 E0
G92 E0
G1 F1500 E-6.5
;LAYER_COUNT:143
;LAYER:0
M107
G1 F600 Z1.3
G0 F3600 X-2.891 Y44.8 Z1.3
;TYPE:SKIRT
G1 F600 Z0.3
G1 F1500 E0
G1 F2100 X-60.313 Y44.8 E2.8648
G1 X-61.036 Y44.789 E2.90087
G1 X-61.506 Y44.742 E2.92444
G1 X-62.056 Y44.581 E2.95303
G1 X-62.67 Y44.317 E2.98637
G1 X-63.024 Y44.125 E3.00646
G1 X-63.624 Y43.74 E3.04203
G1 X-64.221 Y43.317 E3.07853
G1 X-64.692 Y42.903 E3.10982
G1 X-65.067 Y42.513 E3.13681
G1 X-65.445 Y42.056 E3.1664
G1 X-65.812 Y41.505 E3.19943
G1 X-66.056 Y41.061 E3.2247
G1 X-66.316 Y40.493 E3.25587
G1 X-66.521 Y39.887 E3.28779
G1 X-66.645 Y39.383 E3.31368
G1 X-66.748 Y38.732 E3.34656
G1 X-66.779 Y38.267 E3.36981
G1 X-66.8 Y37.12 E3.42705
G1 X-66.8 Y-37.333 E7.14152
G1 X-66.79 Y-37.914 E7.17051
G1 X-66.76 Y-38.568 E7.20317
G1 X-66.671 Y-39.245 E7.23724
G1 X-66.529 Y-39.861 E7.26878
G1 X-66.332 Y-40.447 E7.29962
G1 X-66.119 Y-40.935 E7.32619
G1 X-65.842 Y-41.459 E7.35576
G1 X-65.462 Y-42.029 E7.38994
G1 X-65.134 Y-42.436 E7.41601
G1 X-64.737 Y-42.862 E7.44507
G1 X-64.235 Y-43.302 E7.47837
G1 X-63.793 Y-43.626 E7.50571
G1 X-63.27 Y-43.949 E7.53638
G1 X-62.723 Y-44.216 E7.56675
G1 X-62.219 Y-44.413 E7.59374
G1 X-61.652 Y-44.584 E7.62329
G1 X-61.01 Y-44.711 E7.65594
G1 X-60.436 Y-44.77 E7.68473
G1 X-60.276 Y-44.777 E7.69272
G1 X-59.067 Y-44.8 E7.75304
G1 X-45.991 Y-44.8 E8.40541
G1 X-43.176 Y-44.84 E8.54586
G1 X-40.472 Y-44.955 E8.68089
G1 X-37.7 Y-45.151 E8.81953
G1 X-34.976 Y-45.421 E8.9561
G1 X-32.265 Y-45.768 E9.09245
G1 X-29.544 Y-46.196 E9.22987
G1 X-26.813 Y-46.703 E9.36845
G1 X-24.192 Y-47.268 E9.50222
G1 X-21.474 Y-47.933 E9.64182
G1 X-18.804 Y-48.668 E9.77998
G1 X-16.182 Y-49.471 E9.91679
G1 X-14.301 Y-50.098 E10.01571
G1 X-12.999 Y-50.546 E10.0844
G1 X-12.54 Y-50.661 E10.10801
G1 X-12.182 Y-50.696 E10.12596
G1 X-9.36 Y-50.791 E10.26683
G1 X-6.591 Y-50.963 E10.40524
G1 X-3.774 Y-51.221 E10.54637
G1 X-2.265 Y-51.381 E10.62207
G1 X-1.797 Y-51.416 E10.64549
G1 X0.152 Y-51.539 E10.74292
G1 X2.879 Y-51.789 E10.87954
G1 X5.537 Y-52.108 E11.0131
G1 X6.343 Y-52.197 E11.05355
G1 X7.402 Y-52.212 E11.10639
G1 X8.58 Y-52.208 E11.16516
G1 X9.325 Y-52.195 E11.20234
G1 X9.64 Y-52.171 E11.2181
G1 X10.823 Y-52.016 E11.27762
G1 X13.564 Y-51.696 E11.4153
G1 X16.656 Y-51.428 E11.57014
G1 X18.516 Y-51.296 E11.66317
G1 X18.967 Y-51.257 E11.68575
G1 X21.665 Y-51.103 E11.82058
G1 X24.438 Y-51.024 E11.95898
G1 X27.512 Y-51.029 E12.11234
G1 X29.817 Y-51.068 E12.22735
G1 X30.603 Y-51.058 E12.26657
G1 X31.291 Y-50.962 E12.30123
G1 X31.559 Y-50.878 E12.31524
G1 X32.228 Y-50.631 E12.35082
G1 X34.841 Y-49.708 E12.48908
G1 X37.412 Y-48.881 E12.62382
G1 X40.073 Y-48.108 E12.76206
G1 X42.753 Y-47.411 E12.90022
G1 X45.429 Y-46.793 E13.03724
G1 X48.108 Y-46.258 E13.17353
G1 X50.836 Y-45.791 E13.31161
G1 X53.538 Y-45.406 E13.44778
G1 X56.274 Y-45.095 E13.58516
G1 X59.027 Y-44.861 E13.723
G1 X60.012 Y-44.803 E13.77222
G1 X60.741 Y-44.746 E13.80871
G1 X61.248 Y-44.67 E13.83428
G1 X61.863 Y-44.529 E13.86576
G1 X62.487 Y-44.316 E13.89866
G1 X63.273 Y-43.946 E13.942
G1 X63.725 Y-43.674 E13.96832
G1 X64.199 Y-43.334 E13.99742
G1 X64.689 Y-42.907 E14.02984
G1 X65.072 Y-42.508 E14.05744
G1 X65.432 Y-42.072 E14.08565
G1 X65.811 Y-41.507 E14.11959
G1 X66.056 Y-41.061 E14.14498
G1 X66.313 Y-40.501 E14.17572
G1 X66.519 Y-39.894 E14.2077
G1 X66.645 Y-39.384 E14.23391
G1 X66.74 Y-38.815 E14.26269
G1 X66.78 Y-38.258 E14.29055
G1 X66.8 Y-37.172 E14.34474
G1 X66.8 Y-11.314 E15.6348
G1 X66.84 Y-8.499 E15.77525
G1 X66.955 Y-5.795 E15.91028
G1 X67.151 Y-3.023 E16.04892
G1 X67.421 Y-.299 E16.18548
G1 X67.768 Y2.412 E16.32184
G1 X68.196 Y5.133 E16.45926
G1 X68.703 Y7.864 E16.59784
G1 X69.264 Y10.471 E16.73088
G1 X69.933 Y13.203 E16.87121
G1 X70.668 Y15.873 E17.00937
G1 X71.467 Y18.483 E17.14555
G1 X71.958 Y19.961 E17.22325
G1 X72.17 Y20.649 E17.25916
G1 X72.27 Y21.112 E17.2828
G1 X72.29 Y21.91 E17.32262
G1 X72.297 Y24.068 E17.43029
G1 X72.29 Y24.756 E17.46461
G1 X72.297 Y26.907 E17.57193
G1 X72.29 Y27.568 E17.6049
G1 X72.297 Y29.78 E17.71526
G1 X72.291 Y30.351 E17.74375
G1 X72.298 Y32.449 E17.84842
G1 X72.25 Y33.231 E17.88751
G1 X72.172 Y33.554 E17.90409
G1 X71.953 Y34.268 E17.94135
G1 X71.743 Y34.887 E17.97396
G1 X71.554 Y35.32 E17.99753
G1 X71.294 Y35.715 E18.02112
G1 X71.084 Y35.953 E18.03696
G1 X70.644 Y36.398 E18.06818
G1 X68.728 Y38.387 E18.20596
G1 X66.888 Y40.408 E18.34232
G1 X65.879 Y41.591 E18.41989
G1 X65.807 Y41.662 E18.42493
G1 X65.214 Y42.349 E18.47021
G1 X64.737 Y42.861 E18.50512
G1 X64.248 Y43.294 E18.53771
G1 X63.832 Y43.601 E18.5635
G1 X63.458 Y43.843 E18.58573
G1 X62.598 Y44.366 E18.63594
G1 X61.971 Y44.736 E18.67227
G1 X59.666 Y46.183 E18.80804
G1 X57.349 Y47.729 E18.94701
G1 X55.115 Y49.316 E19.08372
G1 X53.965 Y50.169 E19.15516
G1 X53.303 Y50.667 E19.19649
G1 X53.076 Y50.833 E19.21052
G1 X52.532 Y51.218 E19.24377
G1 X52.124 Y51.457 E19.26736
G1 X51.682 Y51.625 E19.29095
G1 X50.96 Y51.732 E19.32736
G1 X50.115 Y51.746 E19.36953
G1 X49.792 Y51.746 E19.38564
G1 X49.087 Y51.736 E19.42082
G1 X48.665 Y51.719 E19.44189
G1 X46.448 Y51.594 E19.55267
G1 X43.708 Y51.516 E19.68942
G1 X40.969 Y51.516 E19.82607
G1 X38.217 Y51.594 E19.96343
G1 X36.983 Y51.668 E20.0251
G1 X35.692 Y51.729 E20.08958
G1 X34.714 Y51.746 E20.13838
G1 X34.388 Y51.746 E20.15465
G1 X33.684 Y51.736 E20.18977
G1 X33.214 Y51.689 E20.21334
G1 X32.758 Y51.564 E20.23693
G1 X32.051 Y51.304 E20.27451
G1 X30.694 Y50.782 E20.34705
G1 X28.1 Y49.87 E20.48423
G1 X25.484 Y49.03 E20.6213
G1 X22.854 Y48.268 E20.75791
G1 X20.201 Y47.58 E20.89465
G1 X17.474 Y46.954 E21.03424
G1 X14.818 Y46.425 E21.16935
G1 X12.09 Y45.96 E21.30741
G1 X9.384 Y45.577 E21.44376
G1 X6.658 Y45.27 E21.58062
G1 X3.921 Y45.038 E21.71766
G1 X1.154 Y44.885 E21.85592
G1 X-2.359 Y44.811 E22.03122
G0 F1890 X-2.891 Y44.8
G0 F3600 X-2.882 Y44.4
G1 F2100 X-60.307 Y44.4 E24.89616
G1 X-61.03 Y44.389 E24.93224
G1 X-61.465 Y44.342 E24.95407
G1 X-62.002 Y44.172 E24.98217
G1 X-62.504 Y43.953 E25.00949
G1 X-62.808 Y43.788 E25.02675
G1 X-63.477 Y43.357 E25.06645
G1 X-63.967 Y43.008 E25.09647
G1 X-64.424 Y42.606 E25.12683
G1 X-64.987 Y41.992 E25.16839
G1 X-65.476 Y41.289 E25.21112
G1 X-65.863 Y40.536 E25.25335
G1 X-66.14 Y39.764 E25.29427
G1 X-66.316 Y38.958 E25.33543
G1 X-66.372 Y38.395 E25.36366
G1 X-66.379 Y38.26 E25.3704
G1 X-66.4 Y37.113 E25.42764
G1 X-66.4 Y-37.327 E29.14146
G1 X-66.39 Y-37.896 E29.16986
G1 X-66.36 Y-38.55 E29.20252
G1 X-66.28 Y-39.163 E29.23336
G1 X-66.147 Y-39.743 E29.26305
G1 X-65.955 Y-40.314 E29.2931
G1 X-65.59 Y-41.09 E29.33589
G1 X-65.134 Y-41.8 E29.37798
G1 X-64.605 Y-42.425 E29.41884
G1 X-63.977 Y-42.997 E29.46121
G1 X-63.265 Y-43.49 E29.50442
G1 X-62.553 Y-43.854 E29.54432
G1 X-61.753 Y-44.142 E29.58673
G1 X-60.939 Y-44.318 E29.62828
G1 X-60.405 Y-44.371 E29.65506
G1 X-60.269 Y-44.378 E29.66185
G1 X-59.113 Y-44.4 E29.71953
G1 X-45.985 Y-44.4 E30.37449
G1 X-43.188 Y-44.44 E30.51405
G1 X-40.428 Y-44.557 E30.65187
G1 X-37.669 Y-44.752 E30.78986
G1 X-34.958 Y-45.021 E30.92578
G1 X-32.185 Y-45.376 E31.06525
G1 X-29.48 Y-45.801 E31.20186
G1 X-26.727 Y-46.313 E31.34156
G1 X-24.084 Y-46.882 E31.47644
G1 X-21.378 Y-47.545 E31.61544
G1 X-18.709 Y-48.279 E31.75354
G1 X-16.077 Y-49.085 E31.89087
G1 X-14.149 Y-49.727 E31.99225
G1 X-12.869 Y-50.167 E32.05978
G1 X-12.168 Y-50.297 E32.09535
G1 X-9.288 Y-50.394 E32.23911
G1 X-6.566 Y-50.563 E32.37518
G1 X-3.808 Y-50.814 E32.51334
G1 X-3.688 Y-50.829 E32.51937
G1 X-2.234 Y-50.982 E32.59232
G1 X-1.772 Y-51.017 E32.61543
G1 X0.178 Y-51.14 E32.71291
G1 X2.93 Y-51.393 E32.85079
G1 X5.562 Y-51.708 E32.98304
G1 X6.066 Y-51.776 E33.00841
G1 X6.349 Y-51.797 E33.02257
G1 X7.4 Y-51.812 E33.07501
G1 X8.573 Y-51.808 E33.13353
G1 X9.318 Y-51.795 E33.1707
G1 X9.588 Y-51.775 E33.18421
G1 X10.8 Y-51.616 E33.24519
G1 X13.549 Y-51.295 E33.38327
G1 X16.597 Y-51.031 E33.53591
G1 X18.482 Y-50.897 E33.63019
G1 X18.909 Y-50.86 E33.65157
G1 X21.667 Y-50.703 E33.78939
G1 X24.427 Y-50.624 E33.92714
G1 X27.518 Y-50.629 E34.08136
G1 X29.898 Y-50.668 E34.20011
G1 X30.597 Y-50.658 E34.23499
G1 X31.187 Y-50.575 E34.26471
G1 X31.42 Y-50.502 E34.27689
G1 X32.057 Y-50.267 E34.31077
G1 X34.679 Y-49.341 E34.4495
G1 X37.316 Y-48.493 E34.58769
G1 X39.976 Y-47.72 E34.72589
G1 X42.667 Y-47.02 E34.86461
G1 X45.326 Y-46.406 E35.00076
G1 X48.04 Y-45.864 E35.13884
G1 X50.778 Y-45.395 E35.27743
G1 X53.478 Y-45.011 E35.41349
G1 X56.262 Y-44.694 E35.55328
G1 X58.969 Y-44.464 E35.68882
G1 X59.981 Y-44.405 E35.73939
G1 X60.71 Y-44.348 E35.77587
G1 X61.534 Y-44.201 E35.81763
G1 X62.353 Y-43.939 E35.86053
G1 X63.09 Y-43.59 E35.90121
G1 X63.783 Y-43.147 E35.94225
G1 X64.421 Y-42.61 E35.98385
G1 X64.767 Y-42.249 E36.0088
G1 X65.108 Y-41.837 E36.03548
G1 X65.475 Y-41.29 E36.06834
G1 X65.863 Y-40.536 E36.11065
G1 X66.138 Y-39.771 E36.15121
G1 X66.315 Y-38.964 E36.19243
G1 X66.38 Y-38.238 E36.22879
G1 X66.383 Y-38.161 E36.23264
G1 X66.4 Y-37.165 E36.28233
G1 X66.4 Y-11.274 E37.57404
G1 X66.44 Y-8.511 E37.7119
G1 X66.557 Y-5.751 E37.84972
G1 X66.752 Y-2.992 E37.98771
G1 X67.02 Y-.29 E38.12318
G1 X67.376 Y2.492 E38.2631
G1 X67.801 Y5.197 E38.39971
G1 X68.313 Y7.95 E38.53942
G1 X68.882 Y10.593 E38.6743
G1 X69.545 Y13.299 E38.81329
G1 X70.279 Y15.968 E38.95139
G1 X71.093 Y18.626 E39.09008
G1 X71.576 Y20.079 E39.16647
G1 X71.788 Y20.767 E39.20239
G1 X71.878 Y21.196 E39.22426
G1 X71.89 Y21.906 E39.25968
G1 X71.897 Y24.064 E39.36735
G1 X71.89 Y24.752 E39.40167
G1 X71.897 Y26.902 E39.50894
G1 X71.89 Y27.563 E39.54192
G1 X71.897 Y29.776 E39.65232
G1 X71.891 Y30.347 E39.68081
G1 X71.898 Y32.445 E39.78548
G1 X71.851 Y33.192 E39.82283
G1 X71.789 Y33.437 E39.83543
G1 X71.548 Y34.221 E39.87635
G1 X71.365 Y34.758 E39.90466
G1 X71.186 Y35.158 E39.92652
G1 X70.8 Y35.671 E39.95855
G1 X70.382 Y36.094 E39.98822
G1 X68.445 Y38.105 E40.12752
G1 X66.572 Y40.162 E40.26631
G1 X65.575 Y41.331 E40.34297
G1 X65.508 Y41.397 E40.34766
G1 X64.917 Y42.081 E40.39276
G1 X64.464 Y42.569 E40.42598
G1 X63.988 Y42.99 E40.45768
G1 X63.314 Y43.461 E40.4987
G1 X63.25 Y43.502 E40.50249
G1 X62.395 Y44.022 E40.55242
G1 X61.772 Y44.389 E40.58849
G1 X59.428 Y45.86 E40.72656
G1 X57.125 Y47.398 E40.86472
G1 X54.869 Y49 E41.00276
G1 X53.741 Y49.837 E41.07284
G1 X53.068 Y50.344 E41.11488
G1 X52.844 Y50.506 E41.12867
G1 X52.3 Y50.891 E41.16192
G1 X51.922 Y51.11 E41.18371
G1 X51.509 Y51.257 E41.20558
G1 X50.954 Y51.332 E41.23353
G1 X50.109 Y51.346 E41.27569
G1 X49.798 Y51.346 E41.2912
G1 X49.024 Y51.334 E41.32982
G1 X48.687 Y51.319 E41.34665
G1 X46.481 Y51.194 E41.45689
G1 X43.719 Y51.116 E41.59474
G1 X40.958 Y51.116 E41.73249
G1 X38.213 Y51.194 E41.86949
G1 X36.963 Y51.268 E41.93196
G1 X35.685 Y51.329 E41.99579
G1 X34.707 Y51.346 E42.04459
G1 X34.394 Y51.346 E42.06021
G1 X33.69 Y51.336 E42.09534
G1 X33.255 Y51.29 E42.11716
G1 X32.896 Y51.189 E42.13577
G1 X32.194 Y50.93 E42.1731
G1 X30.853 Y50.415 E42.24476
G1 X28.218 Y49.487 E42.38414
G1 X25.612 Y48.651 E42.52068
G1 X22.951 Y47.88 E42.6589
G1 X20.294 Y47.191 E42.79584
G1 X17.569 Y46.565 E42.93533
G1 X14.892 Y46.033 E43.0715
G1 X12.142 Y45.563 E43.21069
G1 X9.448 Y45.182 E43.34643
G1 X6.665 Y44.868 E43.48615
G1 X3.943 Y44.638 E43.62244
G1 X1.183 Y44.485 E43.76035
G1 X-2.35 Y44.411 E43.93665
G0 F1890 X-2.882 Y44.4
G0 F3600 X-2.922 Y44
G1 F2100 X-60.3 Y44 E46.79925
G1 X-61.023 Y43.989 E46.83532
G1 X-61.42 Y43.943 E46.85526
G1 X-62.09 Y43.701 E46.8908
G1 X-62.592 Y43.451 E46.91878
G1 X-63.249 Y43.028 E46.95776
G1 X-63.712 Y42.7 E46.98607
G1 X-64.156 Y42.309 E47.01559
G1 X-64.683 Y41.732 E47.05457
G1 X-65.139 Y41.072 E47.0946
G1 X-65.502 Y40.364 E47.13429
G1 X-65.759 Y39.642 E47.17253
G1 X-65.923 Y38.885 E47.21117
G1 X-65.973 Y38.365 E47.23723
G1 X-65.979 Y38.253 E47.24283
G1 X-66 Y37.106 E47.30006
G1 X-66 Y-37.321 E51.01324
G1 X-65.991 Y-37.878 E51.04103
G1 X-65.961 Y-38.532 E51.07369
G1 X-65.888 Y-39.081 E51.10132
G1 X-65.765 Y-39.625 E51.12915
G1 X-65.577 Y-40.181 E51.15843
G1 X-65.234 Y-40.908 E51.19854
G1 X-64.806 Y-41.572 E51.23795
G1 X-64.309 Y-42.157 E51.27625
G1 X-63.718 Y-42.691 E51.31598
G1 X-63.049 Y-43.153 E51.35655
G1 X-62.383 Y-43.492 E51.39383
G1 X-61.631 Y-43.761 E51.43367
G1 X-60.868 Y-43.924 E51.4726
G1 X-60.261 Y-43.978 E51.503
G1 X-59.105 Y-44 E51.56069
G1 X-45.979 Y-44 E52.21554
G1 X-43.166 Y-44.04 E52.3559
G1 X-40.416 Y-44.157 E52.49322
G1 X-37.637 Y-44.354 E52.63222
G1 X-34.904 Y-44.625 E52.76923
G1 X-32.143 Y-44.978 E52.9081
G1 X-29.374 Y-45.413 E53.04794
G1 X-26.682 Y-45.913 E53.18454
G1 X-24.011 Y-46.488 E53.32085
G1 X-21.245 Y-47.166 E53.46293
G1 X-18.591 Y-47.896 E53.60026
G1 X-15.947 Y-48.706 E53.73822
G1 X-14.041 Y-49.341 E53.83845
G1 X-12.739 Y-49.789 E53.90715
G1 X-12.155 Y-49.897 E53.93678
G1 X-9.285 Y-49.993 E54.08004
G1 X-6.539 Y-50.165 E54.21731
G1 X-3.753 Y-50.418 E54.35687
G1 X-3.646 Y-50.431 E54.36225
G1 X-2.204 Y-50.583 E54.43459
G1 X-1.746 Y-50.618 E54.45751
G1 X0.204 Y-50.741 E54.55499
G1 X2.979 Y-50.996 E54.69402
G1 X5.64 Y-51.315 E54.82772
G1 X6.355 Y-51.397 E54.86363
G1 X7.399 Y-51.412 E54.91572
G1 X8.566 Y-51.408 E54.97394
G1 X9.311 Y-51.395 E55.01112
G1 X9.536 Y-51.378 E55.02237
G1 X10.722 Y-51.223 E55.08205
G1 X13.502 Y-50.898 E55.22169
G1 X16.587 Y-50.631 E55.37617
G1 X18.448 Y-50.499 E55.46925
G1 X18.888 Y-50.461 E55.49128
G1 X21.668 Y-50.303 E55.6302
G1 X24.416 Y-50.224 E55.76736
G1 X27.525 Y-50.229 E55.92247
G1 X29.893 Y-50.268 E56.04062
G1 X30.592 Y-50.258 E56.0755
G1 X31.109 Y-50.182 E56.10157
G1 X31.282 Y-50.127 E56.11063
G1 X31.924 Y-49.89 E56.14477
G1 X34.571 Y-48.955 E56.28482
G1 X37.187 Y-48.114 E56.42192
G1 X39.868 Y-47.335 E56.5612
G1 X42.548 Y-46.638 E56.69936
G1 X45.288 Y-46.005 E56.83966
G1 X47.966 Y-45.47 E56.9759
G1 X50.691 Y-45.003 E57.11384
G1 X53.448 Y-44.611 E57.25277
G1 X56.185 Y-44.3 E57.39019
G1 X58.951 Y-44.065 E57.52869
G1 X59.95 Y-44.006 E57.57862
G1 X60.679 Y-43.949 E57.6151
G1 X61.452 Y-43.81 E57.65428
G1 X62.218 Y-43.562 E57.69445
G1 X62.908 Y-43.234 E57.73256
G1 X63.555 Y-42.818 E57.77094
G1 X64.153 Y-42.312 E57.81002
G1 X64.688 Y-41.724 E57.84968
G1 X65.138 Y-41.073 E57.88916
G1 X65.502 Y-40.364 E57.92893
G1 X65.758 Y-39.648 E57.96686
G1 X65.922 Y-38.892 E58.00546
G1 X65.981 Y-38.219 E58.03916
G1 X66 Y-37.158 E58.0921
G1 X66 Y-11.274 E59.38346
G1 X66.04 Y-8.489 E59.52242
G1 X66.157 Y-5.739 E59.65974
G1 X66.354 Y-2.96 E59.79874
G1 X66.623 Y-.239 E59.93515
G1 X66.978 Y2.534 E60.07462
G1 X67.413 Y5.302 E60.21441
G1 X67.913 Y7.995 E60.35106
G1 X68.487 Y10.661 E60.48712
G1 X69.165 Y13.428 E60.62925
G1 X69.896 Y16.086 E60.76678
G1 X70.699 Y18.708 E60.90359
G1 X71.193 Y20.197 E60.98186
G1 X71.405 Y20.885 E61.01778
G1 X71.494 Y21.494 E61.04848
G1 X71.49 Y21.903 E61.06889
G1 X71.497 Y24.06 E61.1765
G1 X71.49 Y24.748 E61.21083
G1 X71.497 Y26.898 E61.31809
G1 X71.49 Y27.559 E61.35107
G1 X71.497 Y29.772 E61.46148
