;FLAVOR:Marlin
;TIME:3135
;Filament used: 3.68353m
;Layer height: 0.2
;MINX:-30.5
;MINY:-61.468
;MINZ:0.3
;MAXX:40.5
;MAXY:-35.112
;MAXZ:15.9
;TARGET_MACHINE.NAME:Unknown
;Generated with Cura_SteamEngine 5.9.0
M140 S50
M105
M190 S50
M104 S225
M105
M109 S225
M82 ;absolute extrusion mode
;FLAVOR:Marlin
M82 ;absolute extrusion mode
G21
G90
M82
M107 T0
G28
G92 E0
G0 E3 F200
G92 E0 ; reset extrusion distance
M106 S255 ; Enable cooling fan full speed
G1 X-98 Y0 Z0.4 F3000 ; move to arc start
G3 X0 Y-98 I98 Z0.4 E40 F400 ; lay arc stripe 90deg
G92 E0 ; reset extrusion distance
G4 P500 ; wait for 0.5 sec
G0 Z10 E-1 ; Lift 15mm and retract 1mm filament
G4 P2000 ; wait for 5 sec
G0 Z15
M107 ; Disable cooling fan
G1 X0 Y-85 Z4 E0 F3000 ; get off the bed
G92 E0
G92 E0
G1 F1500 E-1
;LAYER_COUNT:79
;LAYER:0
M106 S102
G1 F600 Z1.3
G0 F1500 X33.397 Y-35.168 Z1.3
;TYPE:SKIRT
G1 F600 Z0.3
G1 F3600 E0.75698
G1 F1200 X32.5 Y-35.112 E0.79553
G1 X-22.733 Y-35.12 E3.16478
G1 X-23.7 Y-35.207 E3.20643
G1 X-24.785 Y-35.45 E3.25412
G1 X-25.429 Y-35.675 E3.28338
G1 X-26.676 Y-36.304 E3.34329
G1 X-27.307 Y-36.738 E3.37615
G1 X-28.317 Y-37.655 E3.43466
G1 X-28.761 Y-38.175 E3.46399
G1 X-29.54 Y-39.372 E3.52525
G1 X-29.879 Y-40.089 E3.55928
G1 X-30.27 Y-41.287 E3.61333
G1 X-30.414 Y-42.04 E3.64622
G1 X-30.5 Y-43.21 E3.69654
G1 X-30.492 Y-53.607 E4.14253
G1 X-30.408 Y-54.584 E4.18459
G1 X-30.27 Y-55.291 E4.21549
G1 X-29.815 Y-56.638 E4.27648
G1 X-29.426 Y-57.41 E4.31356
G1 X-28.769 Y-58.397 E4.36442
G1 X-28.215 Y-59.031 E4.40053
G1 X-27.3 Y-59.84 E4.45292
G1 X-26.377 Y-60.448 E4.50033
G1 X-25.633 Y-60.816 E4.53594
G1 X-24.375 Y-61.238 E4.59286
G1 X-23.591 Y-61.388 E4.6271
G1 X-22.559 Y-61.465 E4.67149
G1 X32.513 Y-61.468 E7.03383
G1 X33.737 Y-61.368 E7.08651
G1 X34.533 Y-61.198 E7.12142
G1 X35.665 Y-60.8 E7.17289
G1 X36.539 Y-60.351 E7.21504
G1 X37.571 Y-59.626 E7.26914
G1 X38.219 Y-59.026 E7.30703
G1 X38.963 Y-58.137 E7.35675
G1 X39.381 Y-57.492 E7.38972
G1 X39.934 Y-56.347 E7.44427
G1 X40.27 Y-55.29 E7.49184
G1 X40.42 Y-54.49 E7.52676
G1 X40.5 Y-53.383 E7.57437
G1 X40.493 Y-42.99 E8.02018
G1 X40.408 Y-41.994 E8.06306
G1 X40.27 Y-41.288 E8.09391
G1 X39.828 Y-39.976 E8.1533
G1 X39.342 Y-39.019 E8.19934
G1 X38.908 Y-38.367 E8.23294
G1 X38.222 Y-37.559 E8.27841
G1 X37.236 Y-36.691 E8.33476
G1 X36.328 Y-36.103 E8.38116
G1 X35.615 Y-35.756 E8.41517
G1 X34.472 Y-35.368 E8.46695
G1 X33.397 Y-35.168 E8.51385
G0 F1500 X33.372 Y-35.567
G1 F1200 X32.5 Y-35.512 E8.55133
G1 X-22.699 Y-35.519 E10.91912
G1 X-23.614 Y-35.598 E10.95852
G1 X-24.653 Y-35.828 E11.00416
G1 X-25.297 Y-36.053 E11.03343
G1 X-26.449 Y-36.634 E11.08877
G1 X-27.08 Y-37.068 E11.12162
G1 X-28.013 Y-37.915 E11.17568
G1 X-28.457 Y-38.435 E11.20501
G1 X-29.178 Y-39.543 E11.26171
G1 X-29.517 Y-40.26 E11.29573
G1 X-29.877 Y-41.364 E11.34554
G1 X-30.015 Y-42.07 E11.3764
G1 X-30.1 Y-43.21 E11.42544
G1 X-30.093 Y-53.574 E11.87001
G1 X-30.015 Y-54.507 E11.91017
G1 X-29.877 Y-55.214 E11.94107
G1 X-29.457 Y-56.459 E11.99743
G1 X-29.093 Y-57.188 E12.03238
G1 X-28.436 Y-58.175 E12.08324
G1 X-27.95 Y-58.731 E12.11492
G1 X-27.035 Y-59.54 E12.16731
G1 X-26.2 Y-60.089 E12.21017
G1 X-25.456 Y-60.457 E12.24578
G1 X-24.298 Y-60.845 E12.29817
G1 X-23.561 Y-60.989 E12.33038
G1 X-22.529 Y-61.066 E12.37477
G1 X32.513 Y-61.068 E14.73582
G1 X33.655 Y-60.976 E14.78497
G1 X34.401 Y-60.82 E14.81766
G1 X35.484 Y-60.443 E14.86685
G1 X36.31 Y-60.023 E14.9066
G1 X37.299 Y-59.332 E14.95835
G1 X37.947 Y-58.732 E14.99623
G1 X38.627 Y-57.919 E15.0417
G1 X39.045 Y-57.274 E15.07467
G1 X39.573 Y-56.174 E15.12701
G1 X39.877 Y-55.215 E15.17016
G1 X40.021 Y-54.461 E15.20309
G1 X40.1 Y-53.383 E15.24946
G1 X40.094 Y-43.023 E15.69385
G1 X40.015 Y-42.071 E15.73483
G1 X39.877 Y-41.365 E15.76569
G1 X39.471 Y-40.156 E15.82039
G1 X39.008 Y-39.239 E15.86446
G1 X38.603 Y-38.626 E15.89597
G1 X37.917 Y-37.818 E15.94144
G1 X37.018 Y-37.026 E15.99283
G1 X36.153 Y-36.463 E16.03711
G1 X35.44 Y-36.116 E16.07112
G1 X34.344 Y-35.747 E16.12073
G1 X33.372 Y-35.567 E16.16313
G0 F1500 X33.347 Y-35.966
G1 F1200 X32.5 Y-35.912 E16.19954
G1 X-22.665 Y-35.918 E18.56587
G1 X-23.58 Y-35.997 E18.60526
G1 X-24.521 Y-36.206 E18.64661
G1 X-25.165 Y-36.431 E18.67587
G1 X-26.222 Y-36.964 E18.72665
G1 X-26.853 Y-37.398 E18.7595
G1 X-27.709 Y-38.175 E18.80909
G1 X-28.153 Y-38.695 E18.83842
G1 X-28.816 Y-39.714 E18.89057
G1 X-29.155 Y-40.431 E18.92459
G1 X-29.484 Y-41.441 E18.97016
G1 X-29.622 Y-42.147 E19.00101
G1 X-29.7 Y-43.21 E19.04673
G1 X-29.694 Y-53.542 E19.48993
G1 X-29.622 Y-54.43 E19.52815
G1 X-29.484 Y-55.137 E19.55905
G1 X-29.099 Y-56.281 E19.61082
G1 X-28.759 Y-56.967 E19.64367
G1 X-28.133 Y-57.913 E19.69233
G1 X-27.685 Y-58.431 E19.7217
G1 X-26.77 Y-59.24 E19.77409
G1 X-26.023 Y-59.73 E19.81241
G1 X-25.279 Y-60.098 E19.84802
G1 X-24.221 Y-60.452 E19.89588
G1 X-23.484 Y-60.596 E19.92809
G1 X-22.5 Y-60.667 E19.97041
G1 X32.513 Y-60.668 E22.33022
G1 X33.573 Y-60.584 E22.37583
G1 X34.319 Y-60.428 E22.40852
G1 X35.304 Y-60.086 E22.45325
G1 X36.082 Y-59.694 E22.49062
G1 X37.027 Y-59.038 E22.53996
G1 X37.675 Y-58.438 E22.57784
G1 X38.292 Y-57.7 E22.61911
G1 X38.684 Y-57.101 E22.64982
G1 X39.212 Y-56.001 E22.70215
G1 X39.484 Y-55.138 E22.74097
G1 X39.622 Y-54.431 E22.77187
G1 X39.7 Y-53.383 E22.81695
G1 X39.695 Y-43.055 E23.25997
G1 X39.622 Y-42.148 E23.299
G1 X39.484 Y-41.442 E23.32986
G1 X39.114 Y-40.336 E23.37989
G1 X38.673 Y-39.458 E23.42203
G1 X38.298 Y-38.885 E23.45141
G1 X37.612 Y-38.077 E23.49688
G1 X36.799 Y-37.361 E23.54335
G1 X35.978 Y-36.823 E23.58545
G1 X35.265 Y-36.476 E23.61947
G1 X34.217 Y-36.126 E23.66686
G1 X33.347 Y-35.966 E23.70481
G0 F1500 X33.321 Y-36.365
G1 F1200 X32.5 Y-36.312 E23.7401
G1 X-22.632 Y-36.317 E26.10501
G1 X-23.494 Y-36.388 E26.14211
G1 X-24.389 Y-36.584 E26.18141
G1 X-25.033 Y-36.809 E26.21068
G1 X-25.995 Y-37.294 E26.25689
G1 X-26.626 Y-37.728 E26.28974
G1 X-27.405 Y-38.435 E26.33487
G1 X-27.849 Y-38.955 E26.3642
G1 X-28.454 Y-39.885 E26.41179
G1 X-28.793 Y-40.602 E26.44581
G1 X-29.091 Y-41.518 E26.48713
G1 X-29.229 Y-42.224 E26.51798
G1 X-29.3 Y-43.21 E26.56039
G1 X-29.295 Y-53.511 E27.00226
G1 X-29.229 Y-54.353 E27.03848
G1 X-29.091 Y-55.06 E27.06938
G1 X-28.74 Y-56.105 E27.11667
G1 X-28.425 Y-56.747 E27.14735
G1 X-27.83 Y-57.651 E27.19377
G1 X-27.382 Y-58.169 E27.22315
G1 X-26.55 Y-58.906 E27.27082
G1 X-25.846 Y-59.371 E27.30702
G1 X-25.102 Y-59.739 E27.34262
G1 X-24.144 Y-60.059 E27.38595
G1 X-23.407 Y-60.203 E27.41816
G1 X-22.5 Y-60.267 E27.45716
G1 X32.513 Y-60.268 E29.81697
G1 X33.491 Y-60.192 E29.85905
G1 X34.237 Y-60.036 E29.89174
G1 X35.124 Y-59.729 E29.932
G1 X35.902 Y-59.337 E29.96937
G1 X36.755 Y-58.744 E30.01394
G1 X37.403 Y-58.144 E30.05182
G1 X37.957 Y-57.481 E30.08888
G1 X38.349 Y-56.882 E30.11959
G1 X38.831 Y-55.88 E30.16728
G1 X39.091 Y-55.061 E30.20414
G1 X39.229 Y-54.354 E30.23504
G1 X39.3 Y-53.383 E30.27681
G1 X39.296 Y-43.086 E30.7185
G1 X39.229 Y-42.225 E30.75554
G1 X39.091 Y-41.519 E30.7864
G1 X38.735 Y-40.464 E30.83416
G1 X38.338 Y-39.677 E30.87197
G1 X37.963 Y-39.104 E30.90135
G1 X37.308 Y-38.337 E30.94461
G1 X36.579 Y-37.695 E30.98628
G1 X35.803 Y-37.183 E31.02616
G1 X35.09 Y-36.836 E31.06018
G1 X34.143 Y-36.519 E31.10301
G1 X33.321 Y-36.365 E31.13889
G0 F1500 X34.068 Y-36.912
G1 F1200 X33.295 Y-36.764 E31.17265
G1 X32.5 Y-36.712 E31.20682
G1 X-22.601 Y-36.716 E33.57041
G1 X-23.41 Y-36.779 E33.60522
G1 X-24.257 Y-36.962 E33.64239
G1 X-24.901 Y-37.187 E33.67165
G1 X-25.768 Y-37.624 E33.7133
G1 X-26.399 Y-38.058 E33.74615
G1 X-27.101 Y-38.695 E33.78681
G1 X-27.545 Y-39.215 E33.81614
G1 X-28.092 Y-40.056 E33.85917
G1 X-28.431 Y-40.773 E33.8932
G1 X-28.698 Y-41.595 E33.93027
G1 X-28.836 Y-42.301 E33.96113
G1 X-28.9 Y-43.21 E34.00021
G1 X-28.896 Y-53.481 E34.44079
G1 X-28.836 Y-54.276 E34.47499
G1 X-28.698 Y-54.983 E34.50589
G1 X-28.38 Y-55.93 E34.54874
G1 X-28.09 Y-56.528 E34.57725
G1 X-27.527 Y-57.389 E34.62138
G1 X-27.079 Y-57.907 E34.65076
G1 X-26.328 Y-58.573 E34.69382
G1 X-25.669 Y-59.012 E34.72778
G1 X-24.925 Y-59.38 E34.76339
G1 X-24.067 Y-59.666 E34.80218
G1 X-23.33 Y-59.81 E34.83439
G1 X-22.5 Y-59.867 E34.87008
G1 X32.513 Y-59.868 E37.22989
G1 X33.409 Y-59.8 E37.26844
G1 X34.155 Y-59.644 E37.30113
G1 X34.944 Y-59.372 E37.33693
G1 X35.722 Y-58.98 E37.3743
G1 X36.484 Y-58.45 E37.41411
G1 X37.097 Y-57.886 E37.44984
G1 X37.622 Y-57.262 E37.48482
G1 X38.014 Y-56.663 E37.51553
G1 X38.45 Y-55.758 E37.55862
G1 X38.698 Y-54.984 E37.59349
G1 X38.836 Y-54.277 E37.62439
G1 X38.9 Y-53.383 E37.66283
G1 X38.897 Y-43.116 E38.10324
G1 X38.836 Y-42.302 E38.13825
G1 X38.698 Y-41.596 E38.16911
G1 X38.377 Y-40.643 E38.21225
G1 X38.003 Y-39.896 E38.24808
G1 X37.628 Y-39.323 E38.27746
G1 X37.005 Y-38.598 E38.31846
G1 X36.357 Y-38.028 E38.35548
G1 X35.628 Y-37.543 E38.39304
G1 X34.915 Y-37.196 E38.42705
G1 X34.068 Y-36.912 E38.46538
G0 F1500 X33.991 Y-37.305
G1 F1200 X33.268 Y-37.163 E38.49698
G1 X32.5 Y-37.112 E38.53
G1 X-22.572 Y-37.115 E40.89234
G1 X-23.327 Y-37.17 E40.92481
G1 X-24.125 Y-37.34 E40.95981
G1 X-24.769 Y-37.565 E40.98907
G1 X-25.541 Y-37.954 E41.02615
G1 X-26.172 Y-38.388 E41.059
G1 X-26.797 Y-38.955 E41.0952
G1 X-27.241 Y-39.475 E41.12453
G1 X-27.731 Y-40.228 E41.16307
G1 X-28.051 Y-40.898 E41.19492
G1 X-28.305 Y-41.672 E41.22986
G1 X-28.443 Y-42.378 E41.26072
G1 X-28.5 Y-43.21 E41.29649
G1 X-28.497 Y-53.452 E41.73583
G1 X-28.443 Y-54.199 E41.76796
G1 X-28.305 Y-54.906 E41.79886
G1 X-28.02 Y-55.755 E41.83727
G1 X-27.73 Y-56.353 E41.86578
G1 X-27.224 Y-57.127 E41.90545
G1 X-26.776 Y-57.645 E41.93482
G1 X-26.106 Y-58.24 E41.97326
G1 X-25.447 Y-58.679 E42.00723
G1 X-24.797 Y-59.001 E42.03834
G1 X-23.99 Y-59.273 E42.07487
G1 X-23.253 Y-59.417 E42.10708
G1 X-22.5 Y-59.467 E42.13946
G1 X32.513 Y-59.468 E44.49927
G1 X33.327 Y-59.408 E44.53428
G1 X34.073 Y-59.252 E44.56697
G1 X34.766 Y-59.014 E44.5984
G1 X35.495 Y-58.651 E44.63333
G1 X36.214 Y-58.155 E44.6708
G1 X36.792 Y-57.627 E44.70438
G1 X37.287 Y-57.043 E44.73722
G1 X37.679 Y-56.444 E44.76793
G1 X38.069 Y-55.635 E44.80645
G1 X38.305 Y-54.907 E44.83928
G1 X38.443 Y-54.2 E44.87018
G1 X38.5 Y-53.383 E44.90531
G1 X38.498 Y-43.145 E45.34448
G1 X38.443 Y-42.379 E45.37742
G1 X38.305 Y-41.673 E45.40828
G1 X38.019 Y-40.821 E45.44683
G1 X37.668 Y-40.115 E45.48065
G1 X37.293 Y-39.542 E45.51002
G1 X36.739 Y-38.897 E45.5465
G1 X36.134 Y-38.36 E45.5812
G1 X35.451 Y-37.902 E45.61647
G1 X34.787 Y-37.575 E45.64822
G1 X33.991 Y-37.305 E45.68428
G0 F1500 X33.835 Y-38.09
G1 F1200 X33.165 Y-37.955 E45.71359
G1 X32.5 Y-37.912 E45.74218
G1 X-22.52 Y-37.913 E48.10229
G1 X-23.165 Y-37.954 E48.13001
G1 X-23.861 Y-38.096 E48.16048
G1 X-24.505 Y-38.321 E48.18974
G1 X-25.089 Y-38.615 E48.21779
G1 X-25.678 Y-39.016 E48.24836
G1 X-26.189 Y-39.475 E48.27782
G1 X-26.633 Y-39.995 E48.30715
G1 X-27.01 Y-40.574 E48.33679
G1 X-27.31 Y-41.196 E48.36641
G1 X-27.519 Y-41.826 E48.39488
G1 X-27.657 Y-42.532 E48.42574
G1 X-27.7 Y-43.21 E48.45488
G1 X-27.699 Y-53.399 E48.89194
G1 X-27.657 Y-54.045 E48.91971
G1 X-27.519 Y-54.752 E48.95061
G1 X-27.3 Y-55.405 E48.98016
G1 X-27.01 Y-56.003 E49.00866
G1 X-26.618 Y-56.603 E49.03941
G1 X-26.17 Y-57.121 E49.06879
G1 X-25.658 Y-57.577 E49.0982
G1 X-25.089 Y-57.963 E49.12769
G1 X-24.489 Y-58.264 E49.15648
G1 X-23.835 Y-58.488 E49.18614
G1 X-23.15 Y-58.625 E49.2161
G1 X-22.5 Y-58.667 E49.24404
G1 X32.513 Y-58.668 E51.60385
G1 X33.165 Y-58.624 E51.63189
G1 X33.86 Y-58.482 E51.66231
G1 X34.504 Y-58.258 E51.69156
G1 X35.089 Y-57.964 E51.71965
G1 X35.678 Y-57.562 E51.75024
G1 X36.185 Y-57.106 E51.77949
G1 X36.617 Y-56.605 E51.80786
G1 X37.009 Y-56.006 E51.83857
G1 X37.309 Y-55.385 E51.86815
G1 X37.519 Y-54.753 E51.89672
G1 X37.657 Y-54.046 E51.92762
G1 X37.7 Y-53.383 E51.95612
G1 X37.7 Y-43.198 E52.39301
G1 X37.657 Y-42.533 E52.4216
G1 X37.519 Y-41.827 E52.45245
G1 X37.3 Y-41.173 E52.48204
G1 X36.998 Y-40.553 E52.51162
G1 X36.623 Y-39.98 E52.54099
G1 X36.17 Y-39.457 E52.57067
G1 X35.685 Y-39.021 E52.59865
G1 X35.096 Y-38.619 E52.62924
G1 X34.48 Y-38.312 E52.65876
G1 X33.835 Y-38.09 E52.68802
G0 F1500 X33.914 Y-37.698
G1 F1200 X33.191 Y-37.556 E52.71963
G1 X32.5 Y-37.512 E52.74933
G1 X-22.545 Y-37.514 E55.11051
G1 X-23.245 Y-37.562 E55.14061
G1 X-23.993 Y-37.718 E55.17339
G1 X-24.637 Y-37.943 E55.20265
G1 X-25.314 Y-38.284 E55.23516
G1 X-25.945 Y-38.718 E55.26802
G1 X-26.493 Y-39.215 E55.29975
G1 X-26.937 Y-39.735 E55.32908
G1 X-27.37 Y-40.4 E55.36312
G1 X-27.69 Y-41.07 E55.39497
G1 X-27.912 Y-41.749 E55.42561
G1 X-28.05 Y-42.455 E55.45647
G1 X-28.1 Y-43.21 E55.48893
G1 X-28.098 Y-53.425 E55.92711
G1 X-28.05 Y-54.122 E55.95707
G1 X-27.912 Y-54.829 E55.98797
G1 X-27.66 Y-55.58 E56.02195
G1 X-27.37 Y-56.178 E56.05046
G1 X-26.921 Y-56.865 E56.08567
G1 X-26.473 Y-57.383 E56.11504
G1 X-25.883 Y-57.908 E56.14892
G1 X-25.268 Y-58.321 E56.1807
G1 X-24.668 Y-58.622 E56.20949
G1 X-23.913 Y-58.88 E56.24372
G1 X-23.176 Y-59.024 E56.27593
G1 X-22.5 Y-59.067 E56.30499
G1 X32.513 Y-59.068 E58.6648
G1 X33.245 Y-59.016 E58.69627
G1 X33.991 Y-58.86 E58.72897
G1 X34.635 Y-58.636 E58.75822
G1 X35.269 Y-58.321 E58.78858
G1 X35.945 Y-57.859 E58.82371
G1 X36.488 Y-57.367 E58.85514
G1 X36.952 Y-56.824 E58.88577
G1 X37.344 Y-56.225 E58.91648
G1 X37.689 Y-55.511 E58.9505
G1 X37.912 Y-54.83 E58.98124
G1 X38.05 Y-54.123 E59.01213
G1 X38.1 Y-53.383 E59.04395
G1 X38.099 Y-43.172 E59.48196
G1 X38.05 Y-42.456 E59.51274
G1 X37.912 Y-41.75 E59.5436
G1 X37.66 Y-40.998 E59.57762
G1 X37.333 Y-40.334 E59.60937
G1 X36.958 Y-39.761 E59.63874
G1 X36.472 Y-39.195 E59.67074
G1 X35.91 Y-38.691 E59.70313
G1 X35.274 Y-38.261 E59.73606
G1 X34.61 Y-37.934 E59.76781
G1 X33.914 Y-37.698 E59.79933
;MESH:K??rper2
G0 F1500 X33.525 Y-39.252
;TYPE:WALL-INNER
G1 F1200 X34.028 Y-39.425 E59.82215
G1 X34.499 Y-39.66 E59.84473
G1 X34.93 Y-39.955 E59.86713
G1 X35.315 Y-40.304 E59.88942
G1 X35.667 Y-40.711 E59.9125
G1 X35.955 Y-41.153 E59.93513
G1 X36.19 Y-41.64 E59.95833
G1 X36.359 Y-42.151 E59.98142
G1 X36.462 Y-42.671 E60.00415
G1 X36.5 Y-43.245 E60.02883
G1 X36.5 Y-53.339 E60.46182
G1 X36.462 Y-53.908 E60.48628
G1 X36.359 Y-54.427 E60.50898
G1 X36.187 Y-54.942 E60.53227
G1 X35.956 Y-55.421 E60.55508
G1 X35.66 Y-55.872 E60.57822
G1 X35.315 Y-56.271 E60.60085
G1 X34.92 Y-56.627 E60.62365
G1 X34.492 Y-56.919 E60.64588
G1 X34.027 Y-57.152 E60.66819
G1 X33.525 Y-57.324 E60.69095
G1 X33.016 Y-57.426 E60.71322
G1 X32.459 Y-57.468 E60.73718
G1 X-22.465 Y-57.464 E63.09317
G1 X-23.008 Y-57.43 E63.11651
G1 X-23.524 Y-57.324 E63.13911
G1 X-24.017 Y-57.155 E63.16146
G1 X-24.493 Y-56.918 E63.18427
G1 X-24.922 Y-56.627 E63.20651
G1 X-25.322 Y-56.267 E63.22959
G1 X-25.658 Y-55.874 E63.25177
G1 X-25.955 Y-55.423 E63.27494
G1 X-26.187 Y-54.94 E63.29792
G1 X-26.358 Y-54.423 E63.32128
G1 X-26.461 Y-53.907 E63.34385
G1 X-26.496 Y-53.349 E63.36783
G1 X-26.5 Y-43.241 E63.80142
G1 X-26.462 Y-42.671 E63.82593
G1 X-26.359 Y-42.149 E63.84875
G1 X-26.187 Y-41.634 E63.87204
G1 X-25.956 Y-41.155 E63.89485
G1 X-25.658 Y-40.702 E63.91811
G1 X-25.322 Y-40.309 E63.94029
G1 X-24.921 Y-39.95 E63.96338
G1 X-24.492 Y-39.657 E63.98566
G1 X-24.025 Y-39.423 E64.00807
G1 X-23.522 Y-39.247 E64.03093
G1 X-23.021 Y-39.147 E64.05284
G1 X-22.473 Y-39.112 E64.0764
G1 X32.462 Y-39.113 E66.43286
G1 X32.908 Y-39.143 E66.45204
G0 F1080 X33.019 Y-39.15
G0 X33.525 Y-39.252
G0 F1500 X33.63 Y-38.865
G1 F1200 X34.183 Y-39.055 E66.47712
G1 X34.703 Y-39.315 E66.50206
G1 X35.179 Y-39.64 E66.52678
G1 X35.601 Y-40.024 E66.55125
G1 X35.987 Y-40.47 E66.57656
G1 X36.304 Y-40.956 E66.60145
