;FLAVOR:Marlin
;TIME:1632
;Filament used: 0.721933m
;Layer height: 0.12
;MINX:-10.5
;MINY:-42.9
;MINZ:0.3
;MAXX:20.524
;MAXY:48.535
;MAXZ:15.5
;Generated with Cura_SteamEngine 4.13.1
M140 S50
M105
M190 S50
M104 S215
M105
M109 S215
M82 ;absolute extrusion mode
;FLAVOR:Marlin
M82 ;absolute extrusion mode
G21
G90
M82
M107 T0
G28
G92 E0
G0 E3 F200
G92 E0 ; reset extrusion distance
M106 S255 ; Enable cooling fan full speed
G1 X-98 Y0 Z0.4 F3000 ; move to arc start
G3 X0 Y-98 I98 Z0.4 E40 F400 ; lay arc stripe 90deg
G92 E0 ; reset extrusion distance
G4 P500 ; wait for 0.5 sec
G0 Z10 E-1 ; Lift 15mm and retract 1mm filament
G4 P2000 ; wait for 5 sec
G0 Z15
M107 ; Disable cooling fan
G1 X0 Y-85 Z4 E0 F3000 ; get off the bed
G92 E0
G92 E0
G1 F1500 E-6.5
;LAYER_COUNT:86
;LAYER:0
M106 S25.5
G1 F600 Z1.3
G0 F3600 X-5.996 Y-28.902 Z1.3
;TYPE:SKIRT
G1 F600 Z0.3
G1 F1500 E0.3326
G1 X-6.805 Y-28.987 E0.38394
G1 X-7.237 Y-29.08 E0.41183
G1 X-8.023 Y-29.403 E0.46546
G1 X-8.398 Y-29.608 E0.49243
G1 X-9.062 Y-30.137 E0.54601
G1 X-9.351 Y-30.424 E0.57171
G1 X-9.854 Y-31.133 E0.62658
G1 X-10.072 Y-31.534 E0.65538
G1 X-10.34 Y-32.342 E0.70911
G1 X-10.454 Y-32.987 E0.75045
G1 X-10.476 Y-33.412 E0.7773
G1 X-10.474 Y-38.422 E1.09349
G1 X-10.388 Y-39.237 E1.14521
G1 X-10.3 Y-39.65 E1.17186
G1 X-9.973 Y-40.45 E1.22641
G1 X-9.742 Y-40.863 E1.25627
G1 X-9.238 Y-41.487 E1.30689
G1 X-8.906 Y-41.816 E1.33639
G1 X-8.236 Y-42.282 E1.3879
G1 X-7.886 Y-42.475 E1.41312
G1 X-7.059 Y-42.758 E1.46829
G1 X-6.39 Y-42.878 E1.51118
G1 X-5.965 Y-42.9 E1.53804
G1 X16.044 Y-42.898 E2.92705
G1 X16.846 Y-42.815 E2.97794
G1 X17.308 Y-42.712 E3.00781
G1 X18.056 Y-42.405 E3.05884
G1 X18.443 Y-42.194 E3.08666
G1 X19.113 Y-41.659 E3.14077
G1 X19.469 Y-41.293 E3.17299
G1 X19.902 Y-40.664 E3.22119
G1 X20.122 Y-40.259 E3.25027
G1 X20.396 Y-39.423 E3.3058
G1 X20.501 Y-38.828 E3.34393
G1 X20.524 Y-38.403 E3.37079
G1 X20.522 Y-33.362 E3.68893
G1 X20.432 Y-32.538 E3.74124
G1 X20.347 Y-32.15 E3.76631
G1 X20.02 Y-31.35 E3.82086
G1 X19.788 Y-30.934 E3.85092
G1 X19.29 Y-30.318 E3.90091
G1 X18.921 Y-29.958 E3.93344
G1 X18.29 Y-29.524 E3.98178
G1 X17.883 Y-29.302 E4.01104
G1 X17.105 Y-29.041 E4.06283
G1 X16.438 Y-28.922 E4.10559
G1 X16.013 Y-28.9 E4.13244
G1 X-5.996 Y-28.902 E5.52146
G0 F3600 X-5.996 Y-29.302
G1 F1500 X-6.749 Y-29.383 E5.56925
G1 X-7.127 Y-29.465 E5.59366
G1 X-7.856 Y-29.766 E5.64344
G1 X-8.185 Y-29.947 E5.66714
G1 X-8.8 Y-30.439 E5.71684
G1 X-9.053 Y-30.69 E5.73933
G1 X-9.518 Y-31.351 E5.79034
G1 X-9.709 Y-31.701 E5.8155
G1 X-9.955 Y-32.452 E5.86538
G1 X-10.055 Y-33.014 E5.9014
G1 X-10.076 Y-33.412 E5.92656
G1 X-10.074 Y-38.422 E6.24274
G1 X-9.992 Y-39.181 E6.29092
G1 X-9.915 Y-39.542 E6.31422
G1 X-9.61 Y-40.282 E6.36473
G1 X-9.407 Y-40.644 E6.39093
G1 X-8.936 Y-41.225 E6.43813
G1 X-8.644 Y-41.514 E6.46406
G1 X-8.02 Y-41.945 E6.51192
G1 X-7.714 Y-42.115 E6.53401
G1 X-6.947 Y-42.375 E6.58512
G1 X-6.363 Y-42.479 E6.62256
G1 X-5.965 Y-42.5 E6.64771
G1 X16.044 Y-42.498 E8.03673
G1 X16.79 Y-42.419 E8.08407
G1 X17.195 Y-42.329 E8.11025
G1 X17.891 Y-42.04 E8.15781
G1 X18.23 Y-41.855 E8.18219
G1 X18.851 Y-41.357 E8.23242
G1 X19.347 Y-40.785 E8.28021
G1 X19.748 Y-40.116 E8.32943
G1 X20.011 Y-39.314 E8.3827
G1 X20.102 Y-38.799 E8.4157
G1 X20.124 Y-38.403 E8.44073
G1 X20.122 Y-33.362 E8.75888
G1 X20.036 Y-32.597 E8.80746
G1 X19.962 Y-32.258 E8.82936
G1 X19.657 Y-31.517 E8.87993
G1 X19.453 Y-31.153 E8.90627
G1 X18.988 Y-30.579 E8.95289
G1 X18.415 Y-30.081 E9.0008
G1 X17.74 Y-29.676 E9.05048
G1 X16.992 Y-29.425 E9.10027
G1 X16.411 Y-29.321 E9.13752
G1 X16.013 Y-29.3 E9.16268
G1 X-5.996 Y-29.302 E10.55169
G0 F3600 X-5.996 Y-29.702
G1 F1500 X-6.693 Y-29.779 E10.59595
G1 X-7.33 Y-29.965 E10.63783
G1 X-7.945 Y-30.268 E10.68109
G1 X-8.538 Y-30.742 E10.72901
G1 X-8.961 Y-31.228 E10.76967
G1 X-9.334 Y-31.843 E10.81506
G1 X-9.571 Y-32.562 E10.86284
G1 X-9.671 Y-33.261 E10.9074
G1 X-9.676 Y-33.412 E10.91694
G1 X-9.674 Y-38.422 E11.23313
G1 X-9.596 Y-39.125 E11.27777
G1 X-9.409 Y-39.761 E11.3196
G1 X-9.089 Y-40.399 E11.36465
G1 X-8.633 Y-40.964 E11.41047
G1 X-8.134 Y-41.397 E11.45217
G1 X-7.564 Y-41.743 E11.49425
G1 X-6.834 Y-41.991 E11.54291
G1 X-6.337 Y-42.08 E11.57477
G1 X-5.965 Y-42.1 E11.59828
G1 X16.044 Y-42.098 E12.9873
G1 X16.735 Y-42.023 E13.03116
G1 X17.364 Y-41.84 E13.0725
G1 X17.99 Y-41.534 E13.11648
G1 X18.589 Y-41.055 E13.16488
G1 X19.011 Y-40.567 E13.2056
G1 X19.384 Y-39.95 E13.2511
G1 X19.626 Y-39.205 E13.30054
G1 X19.718 Y-38.567 E13.34122
G1 X19.724 Y-38.403 E13.35158
G1 X19.722 Y-33.362 E13.66972
G1 X19.641 Y-32.657 E13.71451
G1 X19.457 Y-32.041 E13.75508
G1 X19.135 Y-31.398 E13.80046
G1 X18.685 Y-30.841 E13.84566
G1 X18.197 Y-30.417 E13.88646
G1 X17.574 Y-30.04 E13.93241
G1 X16.88 Y-29.809 E13.97857
G1 X16.384 Y-29.72 E14.01038
G1 X16.013 Y-29.7 E14.03382
G1 X-5.996 Y-29.702 E15.42284
G0 F3600 X-5.996 Y-30.102
G1 F1500 X-6.637 Y-30.175 E15.46355
G1 X-7.163 Y-30.329 E15.49814
G1 X-7.732 Y-30.607 E15.53811
G1 X-8.276 Y-31.044 E15.58215
G1 X-8.626 Y-31.445 E15.61574
G1 X-8.97 Y-32.011 E15.65754
G1 X-9.186 Y-32.672 E15.70143
G1 X-9.272 Y-33.289 E15.74074
G1 X-9.276 Y-33.412 E15.74851
G1 X-9.274 Y-38.422 E16.0647
G1 X-9.2 Y-39.069 E16.1058
G1 X-9.046 Y-39.594 E16.14033
G1 X-8.755 Y-40.18 E16.18162
G1 X-8.33 Y-40.703 E16.22415
G1 X-7.918 Y-41.06 E16.25855
G1 X-7.392 Y-41.382 E16.29748
G1 X-6.721 Y-41.607 E16.34214
G1 X-6.084 Y-41.696 E16.38273
G1 X-5.965 Y-41.7 E16.39025
G1 X16.044 Y-41.698 E17.77926
G1 X16.679 Y-41.627 E17.81959
G1 X17.199 Y-41.476 E17.85376
G1 X17.777 Y-41.195 E17.89432
G1 X18.327 Y-40.753 E17.93885
G1 X18.676 Y-40.35 E17.9725
G1 X19.02 Y-39.783 E18.01435
G1 X19.241 Y-39.096 E18.0599
G1 X19.319 Y-38.537 E18.09552
G1 X19.324 Y-38.403 E18.10398
G1 X19.322 Y-33.362 E18.42212
G1 X19.245 Y-32.716 E18.46318
G1 X19.094 Y-32.208 E18.49663
G1 X18.801 Y-31.617 E18.53826
G1 X18.382 Y-31.103 E18.58011
G1 X17.979 Y-30.752 E18.61384
G1 X17.407 Y-30.404 E18.65609
G1 X16.767 Y-30.193 E18.69862
G1 X16.133 Y-30.104 E18.73903
G1 X16.013 Y-30.1 E18.74661
G1 X-5.996 Y-30.102 E20.13562
G0 F3600 X-5.996 Y-30.502
G1 F1500 X-6.581 Y-30.571 E20.1728
G1 X-6.996 Y-30.692 E20.20008
G1 X-7.519 Y-30.945 E20.23674
G1 X-8.014 Y-31.347 E20.27699
G1 X-8.29 Y-31.663 E20.30347
G1 X-8.607 Y-32.178 E20.34163
G1 X-8.802 Y-32.782 E20.38169
G1 X-8.873 Y-33.316 E20.41569
G1 X-8.876 Y-33.412 E20.42175
G1 X-8.874 Y-38.422 E20.73794
G1 X-8.804 Y-39.013 E20.77549
G1 X-8.683 Y-39.427 E20.80272
G1 X-8.42 Y-39.961 E20.84028
G1 X-8.027 Y-40.442 E20.87948
G1 X-7.702 Y-40.724 E20.90664
G1 X-7.219 Y-41.021 E20.94242
G1 X-6.608 Y-41.223 E20.98304
G1 X-6.058 Y-41.297 E21.01806
G1 X-5.965 Y-41.3 E21.02393
G1 X16.044 Y-41.298 E22.41295
G1 X16.623 Y-41.23 E22.44974
G1 X17.034 Y-41.111 E22.47674
G1 X17.564 Y-40.857 E22.51383
G1 X18.064 Y-40.451 E22.55448
G1 X18.34 Y-40.132 E22.5811
G1 X18.657 Y-39.616 E22.61932
G1 X18.856 Y-38.987 E22.66096
G1 X18.924 Y-38.403 E22.69807
G1 X18.922 Y-33.362 E23.01621
G1 X18.849 Y-32.776 E23.05348
G1 X18.73 Y-32.375 E23.07988
G1 X18.466 Y-31.836 E23.11775
G1 X18.08 Y-31.364 E23.15624
G1 X17.761 Y-31.088 E23.18286
G1 X17.24 Y-30.767 E23.22148
G1 X16.655 Y-30.576 E23.26032
G1 X16.106 Y-30.503 E23.29527
G1 X16.013 Y-30.5 E23.30114
G1 X-5.996 Y-30.502 E24.69015
G0 F3600 X-5.996 Y-30.902
G1 F1500 X-6.525 Y-30.967 E24.72379
G1 X-6.83 Y-31.056 E24.74384
G1 X-7.306 Y-31.284 E24.77715
G1 X-7.753 Y-31.649 E24.81357
G1 X-7.954 Y-31.88 E24.8329
G1 X-8.244 Y-32.346 E24.86754
G1 X-8.417 Y-32.893 E24.90374
G1 X-8.476 Y-33.411 E24.93665
G1 X-8.474 Y-38.421 E25.25283
G1 X-8.408 Y-38.956 E25.28685
G1 X-8.319 Y-39.259 E25.30679
G1 X-8.085 Y-39.742 E25.34066
G1 X-7.724 Y-40.18 E25.37648
G1 X-7.485 Y-40.387 E25.39643
G1 X-7.046 Y-40.66 E25.42906
G1 X-6.496 Y-40.839 E25.46556
G1 X-5.965 Y-40.9 E25.49929
G1 X16.044 Y-40.898 E26.88831
G1 X16.568 Y-40.834 E26.92162
G1 X16.869 Y-40.747 E26.9414
G1 X17.351 Y-40.518 E26.97508
G1 X17.802 Y-40.148 E27.01189
G1 X18.004 Y-39.915 E27.03135
G1 X18.293 Y-39.45 E27.06591
G1 X18.471 Y-38.878 E27.10371
G1 X18.524 Y-38.404 E27.13381
G1 X18.522 Y-33.363 E27.45196
G1 X18.454 Y-32.835 E27.48555
G1 X18.367 Y-32.542 E27.50484
G1 X18.131 Y-32.055 E27.539
G1 X17.777 Y-31.626 E27.5741
G1 X17.543 Y-31.423 E27.59365
G1 X17.074 Y-31.131 E27.62852
G1 X16.542 Y-30.96 E27.66379
G1 X16.013 Y-30.9 E27.69739
G1 X-5.996 Y-30.902 E29.0864
G0 F3600 X-5.996 Y-31.302
G1 F1500 X-6.55 Y-31.38 E29.12171
G1 X-7.023 Y-31.585 E29.15424
G1 X-7.491 Y-31.951 E29.19174
G1 X-7.84 Y-32.439 E29.2296
G1 X-8.033 Y-33.003 E29.26722
G1 X-8.076 Y-33.411 E29.29311
G1 X-8.074 Y-38.421 E29.6093
G1 X-7.996 Y-38.978 E29.6448
G1 X-7.793 Y-39.446 E29.67699
G1 X-7.421 Y-39.919 E29.71497
G1 X-6.939 Y-40.263 E29.75234
G1 X-6.383 Y-40.456 E29.78948
G1 X-5.965 Y-40.5 E29.81601
G1 X16.044 Y-40.498 E31.20502
G1 X16.599 Y-40.419 E31.2404
G1 X17.066 Y-40.219 E31.27246
G1 X17.54 Y-39.846 E31.31053
G1 X17.888 Y-39.359 E31.34831
G1 X18.086 Y-38.769 E31.38758
G1 X18.124 Y-38.404 E31.41074
G1 X18.122 Y-33.363 E31.72889
G1 X18.043 Y-32.822 E31.76339
G1 X17.839 Y-32.352 E31.79573
G1 X17.475 Y-31.888 E31.83295
G1 X16.984 Y-31.537 E31.87104
G1 X16.43 Y-31.344 E31.90806
G1 X16.013 Y-31.3 E31.93452
G1 X-5.996 Y-31.302 E33.32354
G0 F3600 X-5.996 Y-31.702
G1 F1500 X-6.496 Y-31.783 E33.3555
G1 X-6.931 Y-31.996 E33.38607
G1 X-7.283 Y-32.315 E33.41605
G1 X-7.54 Y-32.736 E33.44718
G1 X-7.661 Y-33.177 E33.47604
G1 X-7.676 Y-33.411 E33.49084
G1 X-7.674 Y-38.421 E33.80703
G1 X-7.593 Y-38.925 E33.83924
G1 X-7.382 Y-39.352 E33.8693
G1 X-7.053 Y-39.714 E33.90017
G1 X-6.648 Y-39.961 E33.93011
G1 X-6.204 Y-40.085 E33.95921
G1 X-5.965 Y-40.1 E33.97432
G1 X16.044 Y-40.098 E35.36333
G1 X16.539 Y-40.018 E35.39498
G1 X16.976 Y-39.806 E35.42563
G1 X17.333 Y-39.48 E35.45614
G1 X17.587 Y-39.063 E35.48696
G1 X17.708 Y-38.621 E35.51588
G1 X17.724 Y-38.404 E35.52961
G1 X17.722 Y-33.363 E35.84775
G1 X17.64 Y-32.876 E35.87892
G1 X17.428 Y-32.445 E35.90924
G1 X17.108 Y-32.094 E35.93921
G1 X16.689 Y-31.837 E35.97023
G1 X16.251 Y-31.715 E35.99893
G1 X16.013 Y-31.7 E36.01398
G1 X-5.996 Y-31.702 E37.40299
G1 F1500 E30.90299
G1 F600 Z1.3
;MESH:Canopy_Lock.3mf(1)
G0 F3600 X16.214 Y-32.114 Z1.3
;TYPE:WALL-OUTER
G1 F600 Z0.3
G1 F1500 E37.73559
G1 X16.01 Y-32.1 E37.7485
G1 X-5.976 Y-32.101 E39.13606
G1 X-6.342 Y-32.153 E39.15939
G1 X-6.679 Y-32.307 E39.18277
G1 X-6.956 Y-32.546 E39.20586
G1 X-7.159 Y-32.86 E39.22946
G1 X-7.262 Y-33.215 E39.25279
G1 X-7.276 Y-33.414 E39.26538
G1 X-7.275 Y-38.401 E39.58011
G1 X-7.222 Y-38.772 E39.60376
G1 X-7.071 Y-39.1 E39.62655
G1 X-6.824 Y-39.386 E39.6504
G1 X-6.52 Y-39.581 E39.6732
G1 X-6.167 Y-39.686 E39.69644
G1 X-5.962 Y-39.7 E39.70941
G1 X16.024 Y-39.699 E41.09697
G1 X16.386 Y-39.648 E41.12004
G1 X16.724 Y-39.495 E41.14346
G1 X17.006 Y-39.25 E41.16703
G1 X17.207 Y-38.938 E41.19045
G1 X17.31 Y-38.579 E41.21403
G1 X17.324 Y-38.4 E41.22536
G1 X17.323 Y-33.385 E41.54186
G1 X17.269 Y-33.029 E41.56458
G1 X17.117 Y-32.697 E41.58763
G1 X16.878 Y-32.421 E41.61067
G1 X16.562 Y-32.217 E41.63441
G1 X16.214 Y-32.114 E41.65731
G0 F3600 X16.014 Y-32.101
G0 X15.985 Y-32.541
G0 X15.985 Y-32.6
G0 X7.108 Y-32.526
G0 X4.202 Y-32.553
G0 X4.367 Y-33.024
G1 F1500 X5.024 Y-32.95 E41.69904
G1 X5.681 Y-33.024 E41.74076
G1 X6.304 Y-33.242 E41.78242
G1 X6.863 Y-33.593 E41.82408
G1 X7.331 Y-34.061 E41.86585
G1 X7.682 Y-34.62 E41.9075
G1 X7.9 Y-35.243 E41.94916
G1 X7.974 Y-35.9 E41.99089
G1 X7.9 Y-36.557 E42.03261
G1 X7.682 Y-37.18 E42.07427
G1 X7.331 Y-37.74 E42.11598
G1 X6.863 Y-38.207 E42.15771
G1 X6.304 Y-38.559 E42.1994
G1 X5.681 Y-38.776 E42.24103
G1 X5.024 Y-38.85 E42.28276
G1 X4.367 Y-38.776 E42.32448
G1 X3.743 Y-38.558 E42.3662
G1 X3.184 Y-38.207 E42.40786
G1 X2.717 Y-37.74 E42.44954
G1 X2.365 Y-37.18 E42.49128
G1 X2.148 Y-36.557 E42.53292
G1 X2.074 Y-35.9 E42.57464
G1 X2.148 Y-35.243 E42.61637
G1 X2.365 Y-34.62 E42.658
G1 X2.717 Y-34.061 E42.69969
G1 X3.184 Y-33.593 E42.74142
G1 X3.743 Y-33.243 E42.78304
G1 X4.367 Y-33.024 E42.82478
G0 F3600 X4.565 Y-33.002
G0 X4.277 Y-32.632
;TYPE:WALL-INNER
G1 F1500 X5.024 Y-32.547 E42.87223
G1 X5.771 Y-32.632 E42.91968
G1 X6.479 Y-32.879 E42.967
G1 X7.114 Y-33.278 E43.01433
G1 X7.646 Y-33.81 E43.06181
G1 X8.045 Y-34.445 E43.10914
G1 X8.292 Y-35.153 E43.15647
G1 X8.377 Y-35.9 E43.20392
G1 X8.292 Y-36.647 E43.25136
G1 X8.045 Y-37.354 E43.29863
G1 X7.646 Y-37.991 E43.34606
G1 X7.114 Y-38.522 E43.3935
G1 X6.479 Y-38.922 E43.44087
G1 X5.77 Y-39.168 E43.48823
G1 X5.024 Y-39.253 E43.53561
G1 X4.278 Y-39.168 E43.583
G1 X3.568 Y-38.921 E43.63044
G1 X2.933 Y-38.522 E43.67777
G1 X2.402 Y-37.991 E43.72517
G1 X2.002 Y-37.354 E43.77264
G1 X1.756 Y-36.646 E43.81994
G1 X1.671 Y-35.9 E43.86733
G1 X1.756 Y-35.154 E43.91471
G1 X2.002 Y-34.445 E43.96207
G1 X2.402 Y-33.81 E44.00944
G1 X2.933 Y-33.278 E44.05688
G1 X3.568 Y-32.88 E44.10417
G1 X4.277 Y-32.632 E44.15158
G0 F3600 X4.255 Y-32.535
G0 X15.988 Y-32.599
G0 X15.998 Y-32.5
G1 F1500 X6.479 Y-32.5 E44.75233
G1 X5.771 Y-32.5 E44.78071
G1 X5.024 Y-32.5 E44.79123
G1 X4.277 Y-32.5 E44.80176
G1 X3.568 Y-32.5 E44.83023
G1 X-5.948 Y-32.501 E45.43079
G1 X-6.228 Y-32.541 E45.44864
G1 X-6.461 Y-32.647 E45.4648
G1 X-6.651 Y-32.811 E45.48064
G1 X-6.792 Y-33.029 E45.49703
G1 X-6.876 Y-33.428 E45.52276
G1 X-6.875 Y-38.372 E45.83478
G1 X-6.834 Y-38.659 E45.85308
G1 X-6.732 Y-38.88 E45.86844
G1 X-6.56 Y-39.08 E45.88509
G1 X-6.35 Y-39.215 E45.90084
G1 X-5.95 Y-39.3 E45.92665
G1 X3.568 Y-39.3 E46.52734
G1 X4.278 Y-39.3 E46.5558
G1 X5.024 Y-39.3 E46.56631
G1 X5.77 Y-39.3 E46.57682
G1 X6.479 Y-39.3 E46.60518
G1 X15.996 Y-39.299 E47.20581
G1 X16.274 Y-39.26 E47.22352
G1 X16.505 Y-39.155 E47.23954
G1 X16.7 Y-38.986 E47.25582
G1 X16.84 Y-38.769 E47.27212
G1 X16.924 Y-38.382 E47.29711
G1 X16.923 Y-33.414 E47.61065
G1 X16.883 Y-33.148 E47.62763
G1 X16.776 Y-32.914 E47.64386
G1 X16.614 Y-32.726 E47.65953
G1 X16.395 Y-32.585 E47.67596
G1 X15.998 Y-32.5 E47.70159
G0 F3600 X15.956 Y-32.9
G1 F1500 X7.265 Y-32.9 E48.25009
G1 X7.365 Y-32.963 E48.25755
G1 X7.961 Y-33.559 E48.31074
G1 X8.408 Y-34.271 E48.3638
G1 X8.684 Y-35.063 E48.41673
G1 X8.78 Y-35.9 E48.4699
G1 X8.684 Y-36.737 E48.52307
G1 X8.408 Y-37.528 E48.57594
G1 X7.961 Y-38.242 E48.62911
G1 X7.653 Y-38.55 E48.6566
G1 X7.365 Y-38.837 E48.68226
G1 X7.266 Y-38.899 E48.68963
G1 X7.673 Y-38.899 E48.70531
G1 X15.969 Y-38.899 E49.22888
G1 X16.288 Y-38.814 E49.24971
G1 X16.464 Y-38.614 E49.26652
G1 X16.524 Y-38.339 E49.28429
G1 X16.523 Y-33.446 E49.59309
G1 X16.436 Y-33.132 E49.61365
G1 X16.24 Y-32.961 E49.63007
G1 X15.956 Y-32.9 E49.6484
G0 F3600 X5.024 Y-32.507
G0 X2.782 Y-32.901
G1 F1500 X2.376 Y-32.901 E49.67403
G1 X-5.919 Y-32.901 E50.19753
G1 X-6.244 Y-32.988 E50.21877
G1 X-6.417 Y-33.185 E50.23531
G1 X-6.476 Y-33.467 E50.25349
G1 X-6.475 Y-38.343 E50.56122
G1 X-6.392 Y-38.662 E50.58203
G1 X-6.196 Y-38.839 E50.59869
G1 X-5.909 Y-38.9 E50.61721
G1 X2.782 Y-38.9 E51.16571
G1 X2.682 Y-38.837 E51.17317
G1 X2.087 Y-38.242 E51.22627
G1 X1.639 Y-37.528 E51.27947
G1 X1.364 Y-36.735 E51.33244
G1 X1.268 Y-35.9 E51.38549
G1 X1.364 Y-35.065 E51.43853
G1 X1.639 Y-34.271 E51.49156
G1 X2.087 Y-33.559 E51.54465
G1 X2.396 Y-33.25 E51.57223
G1 X2.682 Y-32.963 E51.58782
G1 X2.782 Y-32.901 E51.59524
G0 F3600 X1.804 Y-33.291
;TYPE:SKIN
G1 F1500 X-5.867 Y-33.291 E52.07937
G1 X-6.056 Y-33.364 E52.09216
G1 X-6.086 Y-33.509 E52.1015
G1 X-6.085 Y-38.291 E52.4033
G1 X-6.014 Y-38.479 E52.41598
G1 X-5.866 Y-38.51 E52.42552
G1 X1.804 Y-38.51 E52.90959
G1 X1.78 Y-38.486 E52.91173
