;FLAVOR:Marlin
;TIME:1315
;Filament used: 3.15513m
;Layer height: 0.24
;MINX:-47.786
;MINY:-42.787
;MINZ:0.3
;MAXX:57.8
;MAXY:42.782
;MAXZ:3.9
;Generated with Cura_SteamEngine 4.13.1
M140 S50
M105
M190 S50
M104 S210
M105
M109 S210
M82 ;absolute extrusion mode
;FLAVOR:Marlin
M82 ;absolute extrusion mode
G21
G90
M82
M107 T0
G28
G92 E0
G0 E3 F200
G92 E0 ; reset extrusion distance
M106 S255 ; Enable cooling fan full speed
G1 X-98 Y0 Z0.4 F3000 ; move to arc start
G3 X0 Y-98 I98 Z0.4 E40 F400 ; lay arc stripe 90deg
G92 E0 ; reset extrusion distance
G4 P500 ; wait for 0.5 sec
G0 Z10 E-1 ; Lift 15mm and retract 1mm filament
G4 P2000 ; wait for 5 sec
G0 Z15
M107 ; Disable cooling fan
G1 X0 Y-85 Z4 E0 F3000 ; get off the bed
G92 E0
G92 E0
G1 F1500 E-6.5
;LAYER_COUNT:17
;LAYER:0
M106 S25.5
G1 F600 Z1.3
G0 F3600 X23.554 Y-32.047 Z1.3
;TYPE:SKIRT
G1 F600 Z0.3
G1 F1500 E0.3326
G1 F3600 X25.771 Y-30.475 E0.46819
G1 X28.059 Y-28.948 E0.60543
G1 X30.403 Y-27.477 E0.74349
G1 X32.758 Y-26.092 E0.87979
G1 X35.167 Y-24.764 E1.01703
G1 X37.611 Y-23.507 E1.15415
G1 X40.117 Y-22.305 E1.29281
G1 X42.573 Y-21.212 E1.42692
G1 X45.201 Y-20.128 E1.56875
G1 X47.723 Y-19.176 E1.70324
G1 X50.313 Y-18.277 E1.84002
G1 X52.932 Y-17.45 E1.97704
G1 X54.032 Y-17.132 E2.03417
G1 X54.541 Y-16.964 E2.06091
G1 X55.011 Y-16.772 E2.08624
G1 X55.128 Y-16.72 E2.09263
G1 X55.678 Y-16.396 E2.12447
G1 X56.115 Y-16.063 E2.15188
G1 X56.182 Y-16.008 E2.15621
G1 X56.61 Y-15.569 E2.1868
G1 X56.976 Y-15.092 E2.21679
G1 X57.3 Y-14.526 E2.24933
G1 X57.523 Y-13.988 E2.27838
G1 X57.689 Y-13.365 E2.31055
G1 X57.772 Y-12.754 E2.34131
G1 X57.798 Y-12.206 E2.36868
G1 X57.8 Y-11.961 E2.38091
G1 X57.799 Y11.78 E3.56535
G1 X57.789 Y12.484 E3.60048
G1 X57.743 Y13.02 E3.62732
G1 X57.699 Y13.323 E3.64259
G1 X57.535 Y13.941 E3.67449
G1 X57.348 Y14.419 E3.7001
G1 X57.314 Y14.5 E3.70448
G1 X56.982 Y15.083 E3.73795
G1 X56.636 Y15.543 E3.76667
G1 X56.182 Y16.007 E3.79906
G1 X55.719 Y16.371 E3.82844
G1 X55.176 Y16.693 E3.85994
G1 X54.598 Y16.944 E3.89137
G1 X54.242 Y17.068 E3.91018
G1 X51.747 Y17.813 E4.04009
G1 X49.126 Y18.677 E4.17777
G1 X46.564 Y19.603 E4.31368
G1 X44.008 Y20.61 E4.45074
G1 X41.482 Y21.688 E4.58776
G1 X38.954 Y22.852 E4.72661
G1 X36.505 Y24.066 E4.86298
G1 X34.065 Y25.361 E5.00079
G1 X31.713 Y26.698 E5.13577
G1 X29.335 Y28.138 E5.27447
G1 X27.025 Y29.628 E5.41161
G1 X24.76 Y31.182 E5.54865
G1 X22.529 Y32.808 E5.68638
G1 X21.137 Y33.873 E5.77382
G1 X20.835 Y34.107 E5.79288
G1 X19.943 Y34.758 E5.84797
G1 X19.164 Y35.305 E5.89546
G1 X18.602 Y35.688 E5.92939
G1 X17.634 Y36.303 E5.98661
G1 X16.815 Y36.805 E6.03453
G1 X16.272 Y37.124 E6.06595
G1 X15.411 Y37.599 E6.11501
G1 X14.478 Y38.093 E6.16768
G1 X13.91 Y38.381 E6.19945
G1 X12.961 Y38.829 E6.25181
G1 X11.974 Y39.273 E6.3058
G1 X11.442 Y39.502 E6.3347
G1 X10.445 Y39.895 E6.38816
G1 X9.507 Y40.249 E6.43818
G1 X8.918 Y40.459 E6.46938
G1 X7.888 Y40.794 E6.52342
G1 X6.949 Y41.08 E6.57239
G1 X6.309 Y41.265 E6.60563
G1 X5.249 Y41.535 E6.6602
G1 X4.341 Y41.751 E6.70676
G1 X3.675 Y41.898 E6.74079
G1 X2.618 Y42.098 E6.79446
G1 X1.648 Y42.263 E6.84355
G1 X1.02 Y42.36 E6.87525
G1 X-0.033 Y42.492 E6.9282
G1 X-1.07 Y42.603 E6.98023
G1 X-1.679 Y42.658 E7.01073
G1 X-2.754 Y42.722 E7.06446
G1 X-3.762 Y42.766 E7.1148
G1 X-4.382 Y42.782 E7.14574
G1 X-5.456 Y42.779 E7.19932
G1 X-6.353 Y42.761 E7.24408
G1 X-7.228 Y42.729 E7.28777
G1 X-8.069 Y42.672 E7.32982
G1 X-9.458 Y42.556 E7.39936
G1 X-10.017 Y42.495 E7.42741
G1 X-10.675 Y42.406 E7.46054
G1 X-12.017 Y42.207 E7.52822
G1 X-12.25 Y42.17 E7.53999
G1 X-12.9 Y42.054 E7.57294
G1 X-13.163 Y42 E7.58633
G1 X-14.792 Y41.654 E7.66941
G1 X-15.39 Y41.51 E7.7001
G1 X-15.927 Y41.366 E7.72784
G1 X-17.308 Y40.978 E7.7994
G1 X-17.421 Y40.944 E7.80529
G1 X-18.893 Y40.462 E7.88257
G1 X-19.971 Y40.084 E7.93956
G1 X-20.537 Y39.869 E7.96977
G1 X-21.071 Y39.651 E7.99854
G1 X-22.526 Y39.036 E8.07735
G1 X-23.124 Y38.762 E8.11017
G1 X-23.501 Y38.579 E8.13107
G1 X-25.031 Y37.813 E8.21644
G1 X-25.587 Y37.513 E8.24796
G1 X-25.781 Y37.402 E8.25911
G1 X-27.153 Y36.604 E8.33829
G1 X-27.252 Y36.544 E8.34407
G1 X-28.615 Y35.672 E8.4248
G1 X-29.312 Y35.205 E8.46665
G1 X-29.819 Y34.853 E8.49745
G1 X-30.674 Y34.222 E8.55046
G1 X-31.603 Y33.511 E8.60883
G1 X-32.016 Y33.181 E8.6352
G1 X-32.759 Y32.554 E8.6837
G1 X-33.789 Y31.656 E8.75188
G1 X-34.206 Y31.273 E8.78013
G1 X-34.659 Y30.836 E8.81153
G1 X-35.618 Y29.886 E8.87887
G1 X-35.698 Y29.804 E8.88459
G1 X-36.782 Y28.636 E8.96409
G1 X-37.596 Y27.722 E9.02515
G1 X-37.948 Y27.304 E9.05241
G1 X-38.224 Y26.96 E9.07442
G1 X-39.051 Y25.905 E9.1413
G1 X-39.436 Y25.395 E9.17318
G1 X-40.045 Y24.537 E9.22567
G1 X-40.826 Y23.398 E9.29457
G1 X-41.116 Y22.95 E9.32119
G1 X-41.377 Y22.524 E9.34612
G1 X-42.225 Y21.1 E9.42881
G1 X-42.553 Y20.511 E9.46244
G1 X-42.714 Y20.207 E9.4796
G1 X-43.486 Y18.704 E9.5639
G1 X-43.787 Y18.071 E9.59887
G1 X-44.082 Y17.403 E9.6353
G1 X-44.532 Y16.369 E9.69156
G1 X-44.667 Y16.049 E9.70889
G1 X-44.891 Y15.482 E9.7393
G1 X-45.539 Y13.696 E9.83409
G1 X-45.73 Y13.121 E9.86432
G1 X-45.848 Y12.736 E9.88441
G1 X-46.266 Y11.302 E9.95893
G1 X-46.296 Y11.191 E9.96467
G1 X-46.699 Y9.56 E10.04848
G1 X-46.861 Y8.836 E10.0855
G1 X-47.007 Y8.135 E10.12122
G1 X-47.18 Y7.158 E10.17072
G1 X-47.33 Y6.216 E10.21831
G1 X-47.46 Y5.314 E10.26378
G1 X-47.474 Y5.205 E10.26926
G1 X-47.54 Y4.572 E10.30101
G1 X-47.598 Y3.943 E10.33253
G1 X-47.73 Y2.146 E10.42242
G1 X-47.746 Y1.789 E10.44025
G1 X-47.774 Y0.89 E10.48512
G1 X-47.786 Y0.097 E10.52469
G1 X-47.768 Y-1.119 E10.58536
G1 X-47.746 Y-1.78 E10.61836
G1 X-47.719 Y-2.39 E10.64882
G1 X-47.607 Y-3.871 E10.72292
G1 X-47.538 Y-4.602 E10.75955
G1 X-47.483 Y-5.109 E10.78499
G1 X-47.387 Y-5.85 E10.82227
G1 X-47.133 Y-7.442 E10.9027
G1 X-47.083 Y-7.721 E10.91684
G1 X-46.775 Y-9.22 E10.99319
G1 X-46.617 Y-9.921 E11.02904
G1 X-46.393 Y-10.85 E11.07672
G1 X-46.252 Y-11.355 E11.10287
G1 X-45.905 Y-12.542 E11.16457
G1 X-45.642 Y-13.398 E11.20925
G1 X-45.49 Y-13.836 E11.23238
G1 X-45.025 Y-15.115 E11.30027
G1 X-44.703 Y-15.964 E11.34558
G1 X-44.518 Y-16.404 E11.36939
G1 X-43.991 Y-17.611 E11.4351
G1 X-43.625 Y-18.42 E11.4794
G1 X-43.365 Y-18.942 E11.50849
G1 X-42.793 Y-20.053 E11.57083
G1 X-42.355 Y-20.876 E11.61734
G1 X-42.288 Y-20.995 E11.62416
G1 X-41.453 Y-22.395 E11.70548
G1 X-40.947 Y-23.215 E11.75356
G1 X-40.831 Y-23.392 E11.76411
G1 X-40.02 Y-24.573 E11.83559
G1 X-39.385 Y-25.465 E11.89022
G1 X-39.024 Y-25.94 E11.91998
G1 X-38.314 Y-26.844 E11.97733
G1 X-37.751 Y-27.542 E12.02207
G1 X-37.596 Y-27.722 E12.03392
G1 X-36.524 Y-28.925 E12.11431
G1 X-35.933 Y-29.569 E12.15792
G1 X-35.599 Y-29.908 E12.18166
G1 X-34.636 Y-30.858 E12.24915
G1 X-34.032 Y-31.436 E12.29086
G1 X-33.789 Y-31.657 E12.30724
G1 X-32.627 Y-32.669 E12.38412
G1 X-32.066 Y-33.142 E12.42073
G1 X-31.599 Y-33.514 E12.45052
G1 X-30.528 Y-34.334 E12.51781
G1 X-30.091 Y-34.658 E12.54495
G1 X-29.125 Y-35.329 E12.60363
G1 X-28.566 Y-35.703 E12.63719
G1 X-27.254 Y-36.542 E12.71488
G1 X-27.154 Y-36.603 E12.72073
G1 X-25.972 Y-37.291 E12.78896
G1 X-25.214 Y-37.718 E12.83236
G1 X-25.092 Y-37.782 E12.83924
G1 X-23.594 Y-38.531 E12.92279
G1 X-22.781 Y-38.923 E12.96782
G1 X-22.451 Y-39.068 E12.9858
G1 X-21.107 Y-39.634 E13.05856
G1 X-20.394 Y-39.923 E13.09694
G1 X-19.825 Y-40.134 E13.12722
G1 X-18.569 Y-40.573 E13.1936
G1 X-17.704 Y-40.862 E13.2391
G1 X-17.202 Y-41.008 E13.26518
G1 X-15.94 Y-41.36 E13.33055
G1 X-15.054 Y-41.593 E13.37625
G1 X-14.679 Y-41.678 E13.39544
G1 X-13.298 Y-41.97 E13.46586
G1 X-12.415 Y-42.143 E13.51075
G1 X-12.105 Y-42.195 E13.52643
G1 X-10.677 Y-42.405 E13.59844
G1 X-9.814 Y-42.518 E13.64186
G1 X-9.429 Y-42.559 E13.66118
G1 X-8.086 Y-42.669 E13.7284
G1 X-7.013 Y-42.738 E13.78205
G1 X-6.354 Y-42.761 E13.81495
G1 X-5.26 Y-42.784 E13.86954
G1 X-4.743 Y-42.787 E13.89533
G1 X-3.572 Y-42.758 E13.95377
G1 X-2.583 Y-42.715 E14.00316
G1 X-1.932 Y-42.677 E14.03569
G1 X-.838 Y-42.58 E14.09049
G1 X0.162 Y-42.471 E14.14067
G1 X0.818 Y-42.39 E14.17365
G1 X1.804 Y-42.238 E14.22342
G1 X2.814 Y-42.064 E14.27455
G1 X3.446 Y-41.945 E14.30664
G1 X4.499 Y-41.714 E14.36042
G1 X5.437 Y-41.491 E14.40852
G1 X6.124 Y-41.316 E14.44389
G1 X7.093 Y-41.038 E14.49418
G1 X8.067 Y-40.74 E14.545
G1 X8.593 Y-40.571 E14.57256
G1 X9.693 Y-40.18 E14.63081
G1 X10.609 Y-39.834 E14.67966
G1 X11.228 Y-39.59 E14.71285
G1 X12.185 Y-39.179 E14.76482
G1 X13.059 Y-38.785 E14.81265
G1 X13.686 Y-38.49 E14.84722
G1 X14.692 Y-37.98 E14.90349
G1 X15.559 Y-37.521 E14.95243
G1 X16.083 Y-37.232 E14.98228
G1 X17.024 Y-36.676 E15.03681
G1 X17.87 Y-36.159 E15.08628
G1 X18.39 Y-35.828 E15.11703
G1 X19.313 Y-35.202 E15.17267
G1 X20.146 Y-34.615 E15.22351
G1 X20.556 Y-34.318 E15.24877
G1 X21.333 Y-33.717 E15.29778
G1 X23.554 Y-32.047 E15.43641
G0 X23.305 Y-31.733
G1 X25.564 Y-30.132 E15.57455
G1 X27.846 Y-28.609 E15.71142
G1 X30.168 Y-27.152 E15.84819
G1 X32.568 Y-25.74 E15.98711
G1 X34.997 Y-24.401 E16.12548
G1 X37.434 Y-23.148 E16.2622
G1 X39.918 Y-21.957 E16.39963
G1 X42.455 Y-20.827 E16.53819
G1 X45.043 Y-19.76 E16.67785
G1 X47.587 Y-18.799 E16.81352
G1 X50.178 Y-17.9 E16.95035
G1 X52.815 Y-17.068 E17.0883
G1 X53.915 Y-16.749 E17.14544
G1 X54.775 Y-16.437 E17.19109
G1 X54.966 Y-16.354 E17.20148
G1 X55.437 Y-16.076 E17.22876
G1 X55.861 Y-15.754 E17.25532
G1 X55.928 Y-15.699 E17.25965
G1 X56.295 Y-15.323 E17.28586
G1 X56.655 Y-14.855 E17.31532
G1 X56.932 Y-14.369 E17.34323
G1 X57.151 Y-13.841 E17.37175
G1 X57.294 Y-13.307 E17.39933
G1 X57.374 Y-12.709 E17.42943
G1 X57.398 Y-12.202 E17.45475
G1 X57.4 Y-11.961 E17.46677
G1 X57.399 Y11.774 E18.65092
G1 X57.389 Y12.478 E18.68604
G1 X57.303 Y13.266 E18.72559
G1 X57.163 Y13.796 E18.75294
G1 X56.979 Y14.264 E18.77803
G1 X56.945 Y14.345 E18.78241
G1 X56.661 Y14.845 E18.8111
G1 X56.319 Y15.298 E18.83942
G1 X55.93 Y15.696 E18.86718
G1 X55.477 Y16.052 E18.89592
G1 X55.012 Y16.328 E18.9229
G1 X54.461 Y16.568 E18.95289
G1 X54.128 Y16.685 E18.9705
G1 X51.613 Y17.436 E19.10144
G1 X49.002 Y18.297 E19.23861
G1 X46.43 Y19.226 E19.37504
G1 X43.828 Y20.251 E19.51456
G1 X41.306 Y21.328 E19.65138
G1 X38.83 Y22.468 E19.78737
G1 X36.304 Y23.72 E19.92802
G1 X33.9 Y24.995 E20.06378
G1 X31.487 Y26.367 E20.20227
G1 X29.116 Y27.803 E20.34056
G1 X26.804 Y29.295 E20.47784
G1 X24.544 Y30.845 E20.61456
G1 X22.272 Y32.501 E20.75483
G1 X20.91 Y33.543 E20.84038
G1 X20.599 Y33.784 E20.86001
G1 X19.713 Y34.43 E20.91472
G1 X18.938 Y34.975 E20.96198
G1 X18.388 Y35.35 E20.99519
G1 X17.425 Y35.962 E21.05212
G1 X16.612 Y36.461 E21.09971
G1 X16.079 Y36.774 E21.13055
G1 X15.223 Y37.245 E21.17929
G1 X14.296 Y37.737 E21.23165
G1 X13.739 Y38.02 E21.26282
G1 X12.797 Y38.464 E21.31478
G1 X11.815 Y38.906 E21.3685
G1 X11.294 Y39.13 E21.3968
G1 X10.304 Y39.521 E21.4499
G1 X9.372 Y39.873 E21.4996
G1 X8.795 Y40.079 E21.53017
G1 X7.771 Y40.412 E21.58389
G1 X6.838 Y40.696 E21.63255
G1 X6.289 Y40.856 E21.66108
G1 X5.157 Y41.146 E21.71938
G1 X4.254 Y41.36 E21.76567
G1 X3.6 Y41.505 E21.7991
G1 X2.55 Y41.704 E21.85241
G1 X1.587 Y41.868 E21.90115
G1 X0.971 Y41.963 E21.93224
G1 X-0.076 Y42.094 E21.98489
G1 X-1.107 Y42.205 E22.03662
G1 X-1.704 Y42.259 E22.06653
G1 X-2.772 Y42.323 E22.1199
G1 X-3.773 Y42.366 E22.16989
G1 X-4.382 Y42.382 E22.20028
G1 X-5.448 Y42.38 E22.25347
G1 X-6.339 Y42.361 E22.29793
G1 X-7.202 Y42.33 E22.34101
G1 X-8.036 Y42.274 E22.38272
G1 X-9.415 Y42.158 E22.45176
G1 X-9.964 Y42.098 E22.47931
G1 X-10.617 Y42.01 E22.51218
G1 X-11.955 Y41.812 E22.57966
G1 X-12.18 Y41.776 E22.59103
G1 X-12.82 Y41.662 E22.62346
G1 X-13.08 Y41.609 E22.6367
G1 X-14.699 Y41.264 E22.71929
G1 X-15.287 Y41.123 E22.74945
G1 X-15.819 Y40.981 E22.77692
G1 X-17.2 Y40.593 E22.84849
G1 X-18.713 Y40.1 E22.92788
G1 X-19.83 Y39.709 E22.98692
G1 X-20.386 Y39.499 E23.01657
G1 X-20.915 Y39.282 E23.0451
G1 X-22.359 Y38.673 E23.12329
G1 X-22.949 Y38.402 E23.15568
G1 X-23.322 Y38.221 E23.17636
G1 X-24.841 Y37.461 E23.2611
G1 X-25.389 Y37.165 E23.29218
G1 X-25.58 Y37.057 E23.30312
G1 X-26.952 Y36.259 E23.38231
G1 X-27.037 Y36.207 E23.38728
G1 X-28.392 Y35.34 E23.46754
G1 X-29.084 Y34.876 E23.5091
G1 X-29.582 Y34.531 E23.53933
G1 X-30.431 Y33.904 E23.59198
G1 X-31.354 Y33.198 E23.64996
G1 X-31.758 Y32.876 E23.67573
G1 X-32.497 Y32.253 E23.72395
G1 X-33.519 Y31.361 E23.79163
G1 X-33.928 Y30.985 E23.81935
G1 X-34.377 Y30.552 E23.85047
G1 X-35.336 Y29.602 E23.91781
G1 X-35.405 Y29.531 E23.92275
G1 X-36.484 Y28.37 E24.00183
G1 X-37.29 Y27.464 E24.06233
G1 X-37.681 Y26.998 E24.09268
G1 X-37.909 Y26.713 E24.11088
G1 X-38.732 Y25.663 E24.17744
G1 X-39.11 Y25.164 E24.20867
G1 X-39.715 Y24.311 E24.26085
G1 X-40.49 Y23.18 E24.32925
G1 X-40.813 Y22.68 E24.35895
G1 X-41.033 Y22.319 E24.38004
G1 X-41.917 Y20.832 E24.46635
G1 X-42.228 Y20.271 E24.49835
G1 X-42.358 Y20.025 E24.51223
G1 X-43.164 Y18.453 E24.60036
G1 X-43.454 Y17.838 E24.63429
G1 X-44.164 Y16.213 E24.72276
G1 X-44.295 Y15.902 E24.73959
G1 X-44.515 Y15.346 E24.76943
G1 X-45.186 Y13.494 E24.8677
G1 X-45.369 Y12.939 E24.89686
G1 X-45.464 Y12.624 E24.91327
G1 X-45.882 Y11.19 E24.98779
G1 X-45.908 Y11.095 E24.9927
G1 X-46.309 Y9.472 E25.07611
G1 X-46.47 Y8.754 E25.11282
G1 X-46.613 Y8.065 E25.14793
G1 X-46.785 Y7.095 E25.19708
G1 X-46.934 Y6.159 E25.24436
G1 X-47.076 Y5.164 E25.29451
G1 X-47.141 Y4.535 E25.32605
G1 X-47.199 Y3.914 E25.35717
G1 X-47.331 Y2.129 E25.44647
G1 X-47.346 Y1.776 E25.46409
G1 X-47.374 Y0.883 E25.50867
G1 X-47.386 Y0.103 E25.54759
G1 X-47.368 Y-1.106 E25.60791
G1 X-47.347 Y-1.763 E25.64071
G1 X-47.325 Y-2.281 E25.66657
G1 X-47.212 Y-3.789 E25.74202
G1 X-47.14 Y-4.56 E25.78065
G1 X-47.087 Y-5.058 E25.80564
G1 X-47.003 Y-5.714 E25.83863
G1 X-46.739 Y-7.373 E25.92244
G1 X-46.691 Y-7.641 E25.93602
G1 X-46.385 Y-9.132 E26.01196
G1 X-46.228 Y-9.828 E26.04756
G1 X-46.004 Y-10.757 E26.09523
G1 X-45.868 Y-11.243 E26.12041
G1 X-45.522 Y-12.425 E26.18186
G1 X-45.259 Y-13.281 E26.22653
G1 X-45.115 Y-13.699 E26.24859
G1 X-44.651 Y-14.973 E26.31623
G1 X-44.294 Y-15.91 E26.36626
G1 X-44.152 Y-16.244 E26.38436
G1 X-43.627 Y-17.446 E26.4498
G1 X-43.261 Y-18.255 E26.4941
G1 X-43.007 Y-18.762 E26.52239
G1 X-42.44 Y-19.866 E26.58431
G1 X-42.002 Y-20.689 E26.63082
G1 X-41.944 Y-20.79 E26.63664
G1 X-41.112 Y-22.185 E26.71767
G1 X-40.612 Y-22.997 E26.76525
G1 X-40.501 Y-23.166 E26.77533
G1 X-39.694 Y-24.342 E26.84649
G1 X-39.111 Y-25.163 E26.89673
G1 X-38.709 Y-25.693 E26.92991
G1 X-38.003 Y-26.594 E26.98702
G1 X-37.496 Y-27.224 E27.02737
G1 X-37.297 Y-27.456 E27.04261
G1 X-36.229 Y-28.655 E27.12272
G1 X-35.638 Y-29.299 E27.16633
G1 X-35.318 Y-29.623 E27.18905
G1 X-34.359 Y-30.569 E27.25626
G1 X-33.763 Y-31.14 E27.29743
G1 X-33.526 Y-31.355 E27.3134
G1 X-32.369 Y-32.363 E27.38996
G1 X-31.817 Y-32.829 E27.426
G1 X-31.356 Y-33.197 E27.45542
G1 X-30.289 Y-34.013 E27.52244
G1 X-29.791 Y-34.381 E27.55333
G1 X-28.903 Y-34.997 E27.60725
G1 X-28.351 Y-35.366 E27.64038
G1 X-27.039 Y-36.205 E27.71807
G1 X-26.953 Y-36.257 E27.72309
G1 X-25.776 Y-36.942 E27.79103
G1 X-25.018 Y-37.369 E27.83443
G1 X-24.913 Y-37.425 E27.84037
G1 X-23.42 Y-38.171 E27.92364
G1 X-22.607 Y-38.563 E27.96867
G1 X-22.296 Y-38.699 E27.9856
G1 X-20.957 Y-39.264 E28.05811
G1 X-20.255 Y-39.548 E28.09589
G1 X-19.693 Y-39.757 E28.1258
G1 X-18.443 Y-40.193 E28.19185
G1 X-17.578 Y-40.482 E28.23735
G1 X-17.092 Y-40.624 E28.26261
G1 X-15.838 Y-40.973 E28.32755
G1 X-14.964 Y-41.203 E28.37264
G1 X-14.597 Y-41.287 E28.39142
G1 X-13.22 Y-41.578 E28.46164
G1 X-12.348 Y-41.749 E28.50597
G1 X-12.047 Y-41.799 E28.52119
G1 X-10.624 Y-42.008 E28.59295
G1 X-9.772 Y-42.12 E28.63582
