;FLAVOR:Marlin
;TIME:1777
;Filament used: 1.92052m
;Layer height: 0.24
;MINX:-17.911
;MINY:-10.529
;MINZ:0.3
;MAXX:17.879
;MAXY:10.471
;MAXZ:27.46
;Generated with Cura_SteamEngine 4.13.1
M140 S50
M105
M190 S50
M104 S215
M105
M109 S215
M82 ;absolute extrusion mode
;FLAVOR:Marlin
M82 ;absolute extrusion mode
G21
G90
M82
M107 T0
G28
G92 E0
G0 E3 F200
G92 E0 ; reset extrusion distance
M106 S255 ; Enable cooling fan full speed
G1 X-98 Y0 Z0.4 F3000 ; move to arc start
G3 X0 Y-98 I98 Z0.4 E40 F400 ; lay arc stripe 90deg
G92 E0 ; reset extrusion distance
G4 P500 ; wait for 0.5 sec
G0 Z10 E-1 ; Lift 15mm and retract 1mm filament
G4 P2000 ; wait for 5 sec
G0 Z15
M107 ; Disable cooling fan
G1 X0 Y-85 Z4 E0 F3000 ; get off the bed
G92 E0
G92 E0
G1 F1500 E-6.5
;LAYER_COUNT:111
;LAYER:0
M106 S25.5
G1 F600 Z1.3
G0 F3600 X14.879 Y10.471 Z1.3
;TYPE:SKIRT
G1 F600 Z0.3
G1 F1500 E0.3326
G1 X-14.91 Y10.471 E1.81878
G1 X-15.398 Y10.431 E1.84321
G1 X-15.873 Y10.312 E1.86764
G1 X-16.322 Y10.118 E1.89204
G1 X-16.734 Y9.853 E1.91648
G1 X-17.097 Y9.525 E1.94089
G1 X-17.402 Y9.142 E1.96532
G1 X-17.64 Y8.714 E1.98975
G1 X-17.806 Y8.254 E2.01415
G1 X-17.91 Y7.471 E2.05355
G1 X-17.911 Y-7.529 E2.80191
G1 X-17.871 Y-8.017 E2.82633
G1 X-17.752 Y-8.492 E2.85076
G1 X-17.558 Y-8.941 E2.87517
G1 X-17.293 Y-9.352 E2.89956
G1 X-16.965 Y-9.716 E2.92401
G1 X-16.582 Y-10.02 E2.9484
G1 X-16.155 Y-10.259 E2.97282
G1 X-15.694 Y-10.425 E2.99726
G1 X-14.911 Y-10.529 E3.03667
G1 X14.878 Y-10.529 E4.52285
G1 X15.366 Y-10.489 E4.54728
G1 X15.841 Y-10.37 E4.57171
G1 X16.29 Y-10.176 E4.59611
G1 X16.702 Y-9.911 E4.62055
G1 X17.065 Y-9.583 E4.64496
G1 X17.37 Y-9.2 E4.66938
G1 X17.608 Y-8.772 E4.69382
G1 X17.774 Y-8.312 E4.71821
G1 X17.878 Y-7.529 E4.75762
G1 X17.879 Y7.471 E5.50597
G1 X17.839 Y7.959 E5.5304
G1 X17.72 Y8.434 E5.55483
G1 X17.526 Y8.883 E5.57923
G1 X17.261 Y9.294 E5.60363
G1 X16.933 Y9.658 E5.62808
G1 X16.55 Y9.962 E5.65247
G1 X16.123 Y10.201 E5.67689
G1 X15.662 Y10.367 E5.70133
G1 X14.879 Y10.471 E5.74074
G0 F3600 X14.879 Y10.071
G1 F1500 X-14.91 Y10.071 E7.22692
G1 X-15.364 Y10.031 E7.24966
G1 X-15.804 Y9.913 E7.27238
G1 X-16.216 Y9.719 E7.2951
G1 X-16.589 Y9.456 E7.31787
G1 X-16.91 Y9.133 E7.34059
G1 X-17.169 Y8.758 E7.36333
G1 X-17.359 Y8.344 E7.38605
G1 X-17.474 Y7.903 E7.40879
G1 X-17.51 Y7.471 E7.43042
G1 X-17.511 Y-7.529 E8.17877
G1 X-17.471 Y-7.983 E8.20151
G1 X-17.353 Y-8.423 E8.22424
G1 X-17.159 Y-8.835 E8.24696
G1 X-16.897 Y-9.208 E8.2697
G1 X-16.573 Y-9.528 E8.29242
G1 X-16.198 Y-9.788 E8.31518
G1 X-15.784 Y-9.978 E8.33791
G1 X-15.343 Y-10.093 E8.36065
G1 X-14.911 Y-10.129 E8.38227
G1 X14.878 Y-10.129 E9.86845
G1 X15.332 Y-10.089 E9.89119
G1 X15.772 Y-9.971 E9.91392
G1 X16.184 Y-9.777 E9.93664
G1 X16.557 Y-9.514 E9.95941
G1 X16.878 Y-9.191 E9.98213
G1 X17.137 Y-8.816 E10.00486
G1 X17.327 Y-8.402 E10.02759
G1 X17.442 Y-7.961 E10.05033
G1 X17.478 Y-7.529 E10.07195
G1 X17.479 Y7.471 E10.82031
G1 X17.439 Y7.925 E10.84304
G1 X17.321 Y8.365 E10.86577
G1 X17.127 Y8.777 E10.88849
G1 X16.865 Y9.15 E10.91123
G1 X16.541 Y9.47 E10.93395
G1 X16.166 Y9.73 E10.95672
G1 X15.752 Y9.92 E10.97944
G1 X15.311 Y10.035 E11.00218
G1 X14.879 Y10.071 E11.02381
G0 F3600 X14.879 Y9.671
G1 F1500 X-14.91 Y9.671 E12.50999
G1 X-15.327 Y9.631 E12.53089
G1 X-15.729 Y9.513 E12.55179
G1 X-16.101 Y9.32 E12.5727
G1 X-16.43 Y9.061 E12.59359
G1 X-16.704 Y8.744 E12.61449
G1 X-16.913 Y8.381 E12.63539
G1 X-17.049 Y7.984 E12.65633
G1 X-17.11 Y7.471 E12.6821
G1 X-17.111 Y-7.529 E13.43045
G1 X-17.071 Y-7.946 E13.45135
G1 X-16.953 Y-8.348 E13.47225
G1 X-16.761 Y-8.72 E13.49314
G1 X-16.501 Y-9.049 E13.51406
G1 X-16.184 Y-9.323 E13.53496
G1 X-15.821 Y-9.532 E13.55586
G1 X-15.424 Y-9.668 E13.5768
G1 X-14.911 Y-9.729 E13.60257
G1 X14.878 Y-9.729 E15.08875
G1 X15.295 Y-9.689 E15.10965
G1 X15.697 Y-9.571 E15.13055
G1 X16.069 Y-9.378 E15.15146
G1 X16.398 Y-9.119 E15.17235
G1 X16.672 Y-8.802 E15.19326
G1 X16.881 Y-8.439 E15.21415
G1 X17.017 Y-8.042 E15.23509
G1 X17.078 Y-7.529 E15.26086
G1 X17.079 Y7.471 E16.00922
G1 X17.039 Y7.888 E16.03012
G1 X16.921 Y8.29 E16.05102
G1 X16.729 Y8.662 E16.0719
G1 X16.469 Y8.991 E16.09282
G1 X16.152 Y9.265 E16.11373
G1 X15.789 Y9.474 E16.13463
G1 X15.392 Y9.61 E16.15556
G1 X14.879 Y9.671 E16.18134
G0 F3600 X14.879 Y9.271
G1 F1500 X-14.91 Y9.271 E17.66751
G1 X-15.287 Y9.231 E17.68643
G1 X-15.647 Y9.113 E17.70533
G1 X-15.974 Y8.923 E17.7242
G1 X-16.255 Y8.668 E17.74313
G1 X-16.475 Y8.359 E17.76205
G1 X-16.627 Y8.012 E17.78095
G1 X-16.71 Y7.471 E17.80826
G1 X-16.711 Y-7.529 E18.55661
G1 X-16.671 Y-7.906 E18.57553
G1 X-16.553 Y-8.266 E18.59443
G1 X-16.363 Y-8.593 E18.6133
G1 X-16.108 Y-8.874 E18.63223
G1 X-15.8 Y-9.094 E18.65111
G1 X-15.452 Y-9.246 E18.67006
G1 X-14.911 Y-9.329 E18.69736
G1 X14.878 Y-9.329 E20.18354
G1 X15.255 Y-9.289 E20.20246
G1 X15.615 Y-9.171 E20.22136
G1 X15.942 Y-8.981 E20.24022
G1 X16.223 Y-8.726 E20.25916
G1 X16.443 Y-8.417 E20.27808
G1 X16.595 Y-8.07 E20.29698
G1 X16.678 Y-7.529 E20.32429
G1 X16.679 Y7.471 E21.07264
G1 X16.639 Y7.848 E21.09155
G1 X16.521 Y8.208 E21.11045
G1 X16.331 Y8.535 E21.12932
G1 X16.076 Y8.816 E21.14825
G1 X15.768 Y9.036 E21.16714
G1 X15.42 Y9.188 E21.18608
G1 X14.879 Y9.271 E21.21339
G0 F3600 X14.879 Y8.871
G1 F1500 X-14.91 Y8.871 E22.69957
G1 X-15.242 Y8.831 E22.71625
G1 X-15.554 Y8.714 E22.73288
G1 X-15.831 Y8.526 E22.74958
G1 X-16.054 Y8.278 E22.76622
G1 X-16.213 Y7.984 E22.78289
G1 X-16.31 Y7.471 E22.80894
G1 X-16.311 Y-7.529 E23.55729
G1 X-16.271 Y-7.861 E23.57398
G1 X-16.154 Y-8.173 E23.5906
G1 X-15.966 Y-8.45 E23.6073
G1 X-15.718 Y-8.673 E23.62394
G1 X-15.424 Y-8.832 E23.64062
G1 X-14.911 Y-8.929 E23.66666
G1 X14.878 Y-8.929 E25.15284
G1 X15.21 Y-8.889 E25.16953
G1 X15.522 Y-8.772 E25.18615
G1 X15.799 Y-8.584 E25.20285
G1 X16.022 Y-8.336 E25.21949
G1 X16.181 Y-8.042 E25.23617
G1 X16.278 Y-7.529 E25.26221
G1 X16.279 Y7.471 E26.01057
G1 X16.239 Y7.803 E26.02725
G1 X16.122 Y8.115 E26.04387
G1 X15.934 Y8.392 E26.06058
G1 X15.686 Y8.615 E26.07722
G1 X15.392 Y8.774 E26.09389
G1 X14.879 Y8.871 E26.11994
G0 F3600 X14.879 Y8.471
G1 F1500 X-14.91 Y8.471 E27.60612
G1 X-15.189 Y8.431 E27.62018
G1 X-15.446 Y8.315 E27.63425
G1 X-15.661 Y8.132 E27.64833
G1 X-15.815 Y7.896 E27.66239
G1 X-15.91 Y7.471 E27.68412
G1 X-15.911 Y-7.529 E28.43247
G1 X-15.871 Y-7.808 E28.44653
G1 X-15.755 Y-8.065 E28.4606
G1 X-15.572 Y-8.28 E28.47469
G1 X-15.336 Y-8.434 E28.48874
G1 X-14.911 Y-8.529 E28.51047
G1 X14.878 Y-8.529 E29.99665
G1 X15.157 Y-8.489 E30.01071
G1 X15.414 Y-8.373 E30.02478
G1 X15.629 Y-8.19 E30.03887
G1 X15.783 Y-7.954 E30.05292
G1 X15.878 Y-7.529 E30.07465
G1 X15.879 Y7.471 E30.823
G1 X15.839 Y7.75 E30.83707
G1 X15.723 Y8.007 E30.85113
G1 X15.54 Y8.222 E30.86522
G1 X15.304 Y8.376 E30.87928
G1 X14.879 Y8.471 E30.901
G0 F3600 X14.879 Y8.071
G1 F1500 X-14.91 Y8.071 E32.38718
G1 X-15.125 Y8.031 E32.39809
G1 X-15.311 Y7.918 E32.40895
G1 X-15.444 Y7.745 E32.41984
G1 X-15.51 Y7.471 E32.4339
G1 X-15.511 Y-7.529 E33.18225
G1 X-15.471 Y-7.744 E33.19316
G1 X-15.358 Y-7.93 E33.20402
G1 X-15.185 Y-8.063 E33.21491
G1 X-14.911 Y-8.129 E33.22897
G1 X14.878 Y-8.129 E34.71515
G1 X15.093 Y-8.089 E34.72606
G1 X15.279 Y-7.976 E34.73692
G1 X15.412 Y-7.803 E34.7478
G1 X15.478 Y-7.529 E34.76186
G1 X15.479 Y7.471 E35.51022
G1 X15.439 Y7.686 E35.52113
G1 X15.326 Y7.872 E35.53199
G1 X15.153 Y8.005 E35.54287
G1 X14.879 Y8.071 E35.55693
G0 F3600 X14.879 Y7.671
G1 F1500 X-14.91 Y7.671 E37.04311
G1 X-15.029 Y7.632 E37.04936
G1 X-15.11 Y7.471 E37.05835
G1 X-15.111 Y-7.529 E37.8067
G1 X-15.072 Y-7.648 E37.81295
G1 X-14.911 Y-7.729 E37.82194
G1 X14.878 Y-7.729 E39.30812
G1 X14.997 Y-7.69 E39.31437
G1 X15.078 Y-7.529 E39.32336
G1 X15.079 Y7.471 E40.07172
G1 X15.04 Y7.59 E40.07796
G1 X14.879 Y7.671 E40.08695
G1 F1500 E33.58695
G1 F600 Z1.3
;MESH:XT90_tr??ger.3mf
G0 F3600 X-14.711 Y-7.329 Z1.3
;TYPE:WALL-OUTER
G1 F600 Z0.3
G1 F1500 E40.41956
G1 X14.678 Y-7.329 E41.88578
G1 X14.679 Y7.271 E42.61418
G1 X-14.71 Y7.271 E44.0804
G1 X-14.711 Y-7.329 E44.8088
G0 F3600 X-14.511 Y-7.329
G0 X-14.27 Y-6.888
G0 X-14.21 Y-6.887
G0 X10.571 Y-5.729
G0 X10.571 Y-5.229
G1 F1500 X-8.212 Y-5.229 E45.74588
G1 X-10.829 Y-2.612 E45.93053
G1 X-10.829 Y2.554 E46.18826
G1 X-8.212 Y5.171 E46.3729
G1 X10.571 Y5.171 E47.30999
G1 X10.571 Y-5.229 E47.82885
G0 F3600 X10.371 Y-5.229
G0 X10.971 Y-5.629
;TYPE:WALL-INNER
G1 F1500 X-8.378 Y-5.629 E48.79418
G1 X-11.229 Y-2.778 E48.99533
G1 X-11.229 Y2.72 E49.26962
G1 X-8.378 Y5.571 E49.47078
G1 X10.971 Y5.571 E50.4361
G1 X10.971 Y-5.629 E50.99487
G0 F3600 X11.371 Y-6.029
G1 F1500 X-8.544 Y-6.029 E51.98844
G1 X-11.629 Y-2.944 E52.2061
G1 X-11.629 Y2.886 E52.49696
G1 X-8.544 Y5.971 E52.71462
G1 X11.371 Y5.971 E53.70819
G1 X11.371 Y-6.029 E54.30687
G0 F3600 X-14.241 Y-6.859
G0 X-14.311 Y-6.929
G1 F1500 X14.278 Y-6.929 E55.73318
G1 X14.279 Y6.871 E56.42167
G1 X-14.31 Y6.871 E57.84798
G1 X-14.311 Y-6.929 E58.53646
G0 F3600 X-13.911 Y-6.529
G1 F1500 X13.878 Y-6.529 E59.92286
G1 X13.879 Y6.471 E60.57143
G1 X-13.91 Y6.471 E61.95783
G1 X-13.911 Y-6.529 E62.6064
G0 F3600 X-13.521 Y-6.139
;TYPE:SKIN
G1 F1500 X-8.986 Y-6.139 E62.83266
G1 X-12.019 Y-3.106 E63.04665
G1 X-12.019 Y3.048 E63.35368
G1 X-8.986 Y6.081 E63.56767
G1 X-13.52 Y6.081 E63.79387
G1 X-13.521 Y-6.139 E64.40353
G0 F3600 X11.761 Y-6.139
G1 F1500 X13.488 Y-6.139 E64.48969
G1 X13.489 Y6.081 E65.09935
G1 X11.761 Y6.081 E65.18556
G1 X11.761 Y-6.139 E65.79522
G0 F3600 X12.708 Y-5.958
G1 F1500 X13.307 Y-5.359 E65.83748
G0 F3600 X13.307 Y-4.794
G1 F1500 X12.143 Y-5.958 E65.91961
G0 F3600 X11.94 Y-5.596
G1 F1500 X13.307 Y-4.228 E66.01609
G0 F3600 X13.307 Y-3.662
G1 F1500 X11.94 Y-5.03 E66.11258
G0 F3600 X11.94 Y-4.464
G1 F1500 X13.307 Y-3.097 E66.20903
G0 F3600 X13.307 Y-2.531
G1 F1500 X11.94 Y-3.898 E66.30547
G0 F3600 X11.94 Y-3.333
G1 F1500 X13.307 Y-1.965 E66.40196
G0 F3600 X13.307 Y-1.4
G1 F1500 X11.94 Y-2.767 E66.49841
G0 F3600 X11.94 Y-2.201
G1 F1500 X13.307 Y-.834 E66.59486
G0 F3600 X13.307 Y-.268
G1 F1500 X11.94 Y-1.636 E66.69134
G0 F3600 X11.94 Y-1.07
G1 F1500 X13.308 Y0.297 E66.78783
G0 F3600 X13.308 Y0.863
G1 F1500 X11.94 Y-.504 E66.88431
G0 F3600 X11.94 Y0.06
G1 F1500 X13.308 Y1.429 E66.98087
G0 F3600 X13.308 Y1.994
G1 F1500 X11.94 Y0.626 E67.07739
G0 F3600 X11.94 Y1.192
G1 F1500 X13.308 Y2.56 E67.17391
G0 F3600 X13.308 Y3.126
G1 F1500 X11.94 Y1.757 E67.27046
G0 F3600 X11.94 Y2.323
G1 F1500 X13.308 Y3.691 E67.36698
G0 F3600 X13.308 Y4.257
G1 F1500 X11.94 Y2.889 E67.4635
G0 F3600 X11.94 Y3.454
G1 F1500 X13.308 Y4.823 E67.56006
G0 F3600 X13.308 Y5.388
G1 F1500 X11.94 Y4.02 E67.65658
G0 F3600 X11.94 Y4.586
G1 F1500 X13.254 Y5.9 E67.74928
G0 F3600 X12.689 Y5.9
G1 F1500 X11.94 Y5.151 E67.80213
G0 F3600 X11.94 Y5.717
G1 F1500 X12.123 Y5.9 E67.81504
G0 F3600 X-9.938 Y5.9
G1 F1500 X-13.34 Y2.498 E68.05507
G0 F3600 X-13.34 Y1.933
G1 F1500 X-12.198 Y3.075 E68.13565
G0 F3600 X-12.198 Y2.509
G1 F1500 X-13.34 Y1.367 E68.21622
G0 F3600 X-13.34 Y0.801
G1 F1500 X-12.198 Y1.943 E68.29679
G0 F3600 X-12.198 Y1.378
G1 F1500 X-13.34 Y0.236 E68.37737
G0 F3600 X-13.34 Y-.329
G1 F1500 X-12.198 Y0.812 E68.45791
G0 F3600 X-12.198 Y0.246
G1 F1500 X-13.34 Y-.895 E68.53845
G0 F3600 X-13.34 Y-1.46
G1 F1500 X-12.198 Y-.318 E68.61902
G0 F3600 X-12.198 Y-.884
G1 F1500 X-13.34 Y-2.026 E68.6996
G0 F3600 X-13.34 Y-2.592
G1 F1500 X-12.198 Y-1.45 E68.78017
G0 F3600 X-12.198 Y-2.015
G1 F1500 X-13.34 Y-3.157 E68.86074
G0 F3600 X-13.34 Y-3.723
G1 F1500 X-12.198 Y-2.581 E68.94132
G0 F3600 X-12.198 Y-3.147
G1 F1500 X-13.34 Y-4.289 E69.02189
G0 F3600 X-13.34 Y-4.854
G1 F1500 X-11.932 Y-3.447 E69.1212
G0 F3600 X-11.649 Y-3.729
G1 F1500 X-13.34 Y-5.42 E69.24051
G0 F3600 X-13.312 Y-5.958
G1 F1500 X-11.366 Y-4.012 E69.37781
G0 F3600 X-11.083 Y-4.295
G1 F1500 X-12.747 Y-5.958 E69.49518
G0 F3600 X-12.181 Y-5.958
G1 F1500 X-10.8 Y-4.577 E69.59262
G0 F3600 X-10.517 Y-4.86
G1 F1500 X-11.615 Y-5.958 E69.67009
G0 F3600 X-11.049 Y-5.958
G1 F1500 X-10.234 Y-5.143 E69.72759
G0 F3600 X-9.951 Y-5.426
G1 F1500 X-10.484 Y-5.958 E69.76516
G0 F3600 X-9.918 Y-5.958
G1 F1500 X-9.668 Y-5.709 E69.78276
G0 F3600 X-11.265 Y-2.793
G0 X-13.34 Y3.064
G1 F1500 X-10.504 Y5.9 E69.98286
G0 F3600 X-11.069 Y5.9
G1 F1500 X-13.34 Y3.63 E70.14305
G0 F3600 X-13.34 Y4.195
G1 F1500 X-11.635 Y5.9 E70.26335
G0 F3600 X-12.201 Y5.9
G1 F1500 X-13.34 Y4.761 E70.34371
G0 F3600 X-13.34 Y5.327
G1 F1500 X-12.766 Y5.9 E70.38418
G1 X-12.696 Y5.97
G0 F3600 X-8.813 Y6.177
;TYPE:SKIN
G1 F1500 X-8.699 Y6.291 E70.3882
G0 F3600 X-8.556 Y6.151
G1 F1500 X-8.416 Y6.291 E70.39314
G0 F3600 X-8.273 Y6.151
G1 F1500 X-8.133 Y6.291 E70.39808
G0 F3600 X-7.991 Y6.151
G1 F1500 X-7.851 Y6.291 E70.40301
G0 F3600 X-7.708 Y6.151
G1 F1500 X-7.568 Y6.291 E70.40795
G0 F3600 X-7.425 Y6.151
G1 F1500 X-7.285 Y6.291 E70.41289
G0 F3600 X-7.142 Y6.151
G1 F1500 X-7.002 Y6.291 E70.41783
G0 F3600 X-6.859 Y6.151
G1 F1500 X-6.719 Y6.291 E70.42277
G0 F3600 X-6.576 Y6.151
G1 F1500 X-6.436 Y6.291 E70.42771
G0 F3600 X-6.293 Y6.151
G1 F1500 X-6.153 Y6.291 E70.43265
G0 F3600 X-6.011 Y6.151
G1 F1500 X-5.871 Y6.291 E70.43759
G0 F3600 X-5.728 Y6.151
G1 F1500 X-5.588 Y6.291 E70.44253
G0 F3600 X-5.445 Y6.151
G1 F1500 X-5.305 Y6.291 E70.44746
G0 F3600 X-5.162 Y6.151
G1 F1500 X-5.022 Y6.291 E70.4524
G0 F3600 X-4.879 Y6.151
G1 F1500 X-4.739 Y6.291 E70.45734
G0 F3600 X-4.596 Y6.151
G1 F1500 X-4.456 Y6.291 E70.46228
G0 F3600 X-4.314 Y6.151
G1 F1500 X-4.174 Y6.291 E70.46722
G0 F3600 X-4.031 Y6.151
G1 F1500 X-3.891 Y6.291 E70.47216
G0 F3600 X-3.748 Y6.151
G1 F1500 X-3.608 Y6.291 E70.4771
G0 F3600 X-3.465 Y6.151
G1 F1500 X-3.325 Y6.291 E70.48204
G0 F3600 X-3.182 Y6.151
G1 F1500 X-3.042 Y6.291 E70.48698
G0 F3600 X-2.899 Y6.151
G1 F1500 X-2.759 Y6.291 E70.49191
G0 F3600 X-2.617 Y6.151
G1 F1500 X-2.476 Y6.291 E70.49687
G0 F3600 X-2.334 Y6.151
G1 F1500 X-2.194 Y6.291 E70.50181
G0 F3600 X-2.051 Y6.151
G1 F1500 X-1.911 Y6.291 E70.50675
G0 F3600 X-1.768 Y6.151
G1 F1500 X-1.628 Y6.291 E70.51169
G0 F3600 X-1.485 Y6.151
G1 F1500 X-1.345 Y6.291 E70.51663
G0 F3600 X-1.202 Y6.151
G1 F1500 X-1.062 Y6.291 E70.52157
G0 F3600 X-.919 Y6.151
G1 F1500 X-.779 Y6.291 E70.5265
G0 F3600 X-.637 Y6.151
G1 F1500 X-.497 Y6.291 E70.53144
G0 F3600 X-.354 Y6.151
G1 F1500 X-.214 Y6.291 E70.53638
G0 F3600 X-0.071 Y6.151
G1 F1500 X0.068 Y6.291 E70.5413
G0 F3600 X0.211 Y6.151
G1 F1500 X0.351 Y6.291 E70.54624
G0 F3600 X0.494 Y6.151
G1 F1500 X0.634 Y6.291 E70.55118
G0 F3600 X0.777 Y6.151
G1 F1500 X0.917 Y6.291 E70.55612
G0 F3600 X1.059 Y6.151
G1 F1500 X1.199 Y6.291 E70.56106
G0 F3600 X1.342 Y6.151
G1 F1500 X1.482 Y6.291 E70.566
G0 F3600 X1.625 Y6.151
G1 F1500 X1.765 Y6.291 E70.57094
G0 F3600 X1.908 Y6.151
G1 F1500 X2.048 Y6.291 E70.57588
G0 F3600 X2.191 Y6.151
G1 F1500 X2.331 Y6.291 E70.58081
G0 F3600 X2.474 Y6.151
G1 F1500 X2.614 Y6.291 E70.58575
G0 F3600 X2.757 Y6.151
G1 F1500 X2.897 Y6.291 E70.59069
G0 F3600 X3.039 Y6.151
G1 F1500 X3.179 Y6.291 E70.59563
G0 F3600 X3.322 Y6.151
G1 F1500 X3.462 Y6.291 E70.60057
G0 F3600 X3.605 Y6.151
G1 F1500 X3.745 Y6.291 E70.60551
G0 F3600 X3.888 Y6.151
G1 F1500 X4.028 Y6.291 E70.61045
G0 F3600 X4.171 Y6.151
G1 F1500 X4.311 Y6.291 E70.61539
G0 F3600 X4.454 Y6.151
G1 F1500 X4.594 Y6.291 E70.62033
G0 F3600 X4.736 Y6.151
G1 F1500 X4.876 Y6.291 E70.62526
G0 F3600 X5.019 Y6.151
G1 F1500 X5.159 Y6.291 E70.6302
G0 F3600 X5.302 Y6.151
G1 F1500 X5.442 Y6.291 E70.63514
G0 F3600 X5.585 Y6.151
G1 F1500 X5.725 Y6.291 E70.64008
G0 F3600 X5.868 Y6.151
G1 F1500 X6.008 Y6.291 E70.64502
G0 F3600 X6.151 Y6.151
G1 F1500 X6.291 Y6.291 E70.64996
G0 F3600 X6.433 Y6.151
