;FLAVOR:Marlin
;TIME:1715
;Filament used: 2.19214m
;Layer height: 0.24
;MINX:-14.2
;MINY:-89.543
;MINZ:0.24
;MAXX:24.2
;MAXY:-35.643
;MAXZ:16.08
;TARGET_MACHINE.NAME:Unknown
;Generated with Cura_SteamEngine 5.10.0
M140 S60
M105
M190 S60
M104 S210
M105
M109 S210
;FLAVOR:Marlin
M82 ;absolute extrusion mode
G21
G90
M82
M107 T0
G28
G92 E0
G0 E3 F200
G92 E0 ; reset extrusion distance
M106 S255 ; Enable cooling fan full speed
G1 X-98 Y0 Z0.4 F3000 ; move to arc start
G3 X0 Y-98 I98 Z0.4 E40 F400 ; lay arc stripe 90deg
G92 E0 ; reset extrusion distance
G4 P500 ; wait for 0.5 sec
G0 Z10 E-1 ; Lift 15mm and retract 1mm filament
G4 P2000 ; wait for 5 sec
G0 Z15
M107 ; Disable cooling fan
G1 X0 Y-85 Z4 E0 F3000 ; get off the bed
M82 ;absolute extrusion mode
G92 E0
G92 E0
G1 F1500 E-1
;LAYER_COUNT:67
;LAYER:0
M106 S102
G0 F3600 X0.793 Y-35.643 Z0.24
;TYPE:SKIRT
G1 F3600 E0.71493
G1 F1200 X-.193 Y-35.894 E0.75189
G1 X-1.03 Y-36.491 E0.78925
G1 X-1.24 Y-36.749 E0.80134
G1 X-2.003 Y-36.643 E0.82933
G1 X-10.025 Y-36.662 E1.12081
G1 X-10.594 Y-36.742 E1.14169
G1 X-11.306 Y-36.951 E1.16865
G1 X-12.118 Y-37.361 E1.2017
G1 X-12.822 Y-37.882 E1.23352
G1 X-13.518 Y-38.732 E1.27344
G1 X-13.927 Y-39.593 E1.30807
G1 X-14.15 Y-40.526 E1.34293
G1 X-14.2 Y-41.142 E1.36539
G1 X-14.175 Y-85.394 E2.97328
G1 X-14.038 Y-86.21 E3.00335
G1 X-13.831 Y-86.804 E3.0262
G1 X-13.464 Y-87.518 E3.05537
G1 X-12.911 Y-88.197 E3.08719
G1 X-12.238 Y-88.759 E3.11905
G1 X-11.445 Y-89.198 E3.15198
G1 X-10.537 Y-89.468 E3.1864
G1 X-9.699 Y-89.543 E3.21697
G1 X20.035 Y-89.522 E4.29736
G1 X20.763 Y-89.405 E4.32415
G1 X21.598 Y-89.135 E4.35604
G1 X22.486 Y-88.573 E4.39422
G1 X22.798 Y-88.299 E4.40931
G1 X23.423 Y-87.593 E4.44357
G1 X23.92 Y-86.648 E4.48237
G1 X24.129 Y-85.791 E4.51442
G1 X24.2 Y-85.044 E4.54168
G1 X24.174 Y-40.743 E6.15136
G1 X24.065 Y-40.091 E6.17538
G1 X23.836 Y-39.398 E6.2019
G1 X23.419 Y-38.592 E6.23487
G1 X22.862 Y-37.957 E6.26556
G1 X22.173 Y-37.374 E6.29836
G1 X21.313 Y-36.933 E6.33348
G1 X20.569 Y-36.735 E6.36145
G1 X19.875 Y-36.651 E6.38685
G1 X11.877 Y-36.643 E6.67746
G1 X11.251 Y-36.771 E6.70067
G1 X10.753 Y-36.221 E6.72763
G1 X9.786 Y-35.747 E6.76676
G1 X9.015 Y-35.646 E6.79502
G1 X0.793 Y-35.643 E7.09376
G0 F3600 X0.845 Y-36.043
G1 F1200 X-0.022 Y-36.264 E7.12627
G1 X-.798 Y-36.817 E7.1609
G1 X-1.103 Y-37.249 E7.18011
G1 X-1.402 Y-37.13 E7.1918
G1 X-2.002 Y-37.043 E7.21383
G1 X-9.973 Y-37.059 E7.50346
G1 X-10.481 Y-37.126 E7.52208
G1 X-11.193 Y-37.335 E7.54904
G1 X-11.88 Y-37.682 E7.57701
G1 X-12.543 Y-38.173 E7.60698
G1 X-13.178 Y-38.948 E7.64339
G1 X-13.547 Y-39.724 E7.67461
G1 X-13.751 Y-40.56 E7.70588
G1 X-13.8 Y-41.142 E7.7271
G1 X-13.78 Y-85.33 E9.33267
G1 X-13.659 Y-86.081 E9.36031
G1 X-13.475 Y-86.621 E9.38104
G1 X-13.127 Y-87.298 E9.4087
G1 X-12.624 Y-87.916 E9.43765
G1 X-12.013 Y-88.426 E9.46657
G1 X-11.287 Y-88.828 E9.49672
G1 X-10.462 Y-89.073 E9.52799
G1 X-9.699 Y-89.143 E9.55583
G1 X19.974 Y-89.127 E10.634
G1 X20.64 Y-89.024 E10.65849
G1 X21.429 Y-88.769 E10.68861
G1 X22.222 Y-88.272 E10.72262
G1 X22.534 Y-87.998 E10.73771
G1 X23.091 Y-87.365 E10.76834
G1 X23.542 Y-86.507 E10.80356
G1 X23.74 Y-85.696 E10.8339
G1 X23.8 Y-85.044 E10.85769
G1 X23.779 Y-40.806 E12.46508
G1 X23.685 Y-40.217 E12.48675
G1 X23.456 Y-39.524 E12.51327
G1 X23.087 Y-38.821 E12.54212
G1 X22.561 Y-38.221 E12.57111
G1 X21.951 Y-37.709 E12.60005
G1 X21.172 Y-37.31 E12.63185
G1 X20.466 Y-37.122 E12.65839
G1 X19.875 Y-37.051 E12.68002
G1 X11.918 Y-37.043 E12.96914
G1 X11.108 Y-37.209 E12.99918
G1 X10.508 Y-36.546 E13.03167
G1 X9.671 Y-36.136 E13.06554
G1 X8.963 Y-36.043 E13.09149
G1 X0.845 Y-36.043 E13.38645
G0 F3600 X0.897 Y-36.443
G1 F1200 X0.149 Y-36.634 E13.4145
G1 X-.566 Y-37.143 E13.44639
G1 X-.95 Y-37.76 E13.4728
G1 X-1.462 Y-37.525 E13.49327
G1 X-2.001 Y-37.443 E13.51308
G1 X-9.921 Y-37.456 E13.80085
G1 X-10.429 Y-37.523 E13.81947
G1 X-11.078 Y-37.718 E13.84409
G1 X-11.642 Y-38.003 E13.86705
G1 X-12.266 Y-38.465 E13.89527
G1 X-12.837 Y-39.162 E13.928
G1 X-13.167 Y-39.856 E13.95593
G1 X-13.362 Y-40.655 E13.98581
G1 X-13.4 Y-41.142 E14.00356
G1 X-13.385 Y-85.269 E15.60691
G1 X-13.279 Y-85.955 E15.63214
G1 X-13.119 Y-86.438 E15.65062
G1 X-12.788 Y-87.081 E15.6769
G1 X-12.339 Y-87.633 E15.70276
G1 X-11.786 Y-88.095 E15.72894
G1 X-11.131 Y-88.457 E15.75613
G1 X-10.387 Y-88.679 E15.78434
G1 X-9.699 Y-88.743 E15.80945
G1 X19.974 Y-88.727 E16.88762
G1 X20.517 Y-88.643 E16.90758
G1 X21.261 Y-88.402 E16.936
G1 X21.958 Y-87.971 E16.96577
G1 X22.27 Y-87.697 E16.98086
G1 X22.759 Y-87.137 E17.00787
G1 X23.165 Y-86.365 E17.03957
G1 X23.342 Y-85.658 E17.06605
G1 X23.4 Y-85.044 E17.08846
G1 X23.383 Y-40.865 E18.6937
G1 X23.305 Y-40.343 E18.71288
G1 X23.076 Y-39.65 E18.7394
G1 X22.756 Y-39.051 E18.76408
G1 X22.26 Y-38.485 E18.79142
G1 X21.73 Y-38.046 E18.81643
G1 X21.028 Y-37.686 E18.84509
G1 X20.363 Y-37.509 E18.8701
G1 X19.875 Y-37.451 E18.88795
G1 X11.959 Y-37.443 E19.17558
G1 X11.314 Y-37.575 E19.1995
G1 X10.938 Y-37.755 E19.21465
G1 X10.762 Y-37.422 E19.22834
G1 X10.263 Y-36.871 E19.25535
G1 X9.554 Y-36.524 E19.28403
G1 X8.963 Y-36.443 E19.3057
G1 X0.897 Y-36.443 E19.59878
G0 F3600 X0.949 Y-36.843
G1 F1200 X0.319 Y-37.004 E19.62241
G1 X-.269 Y-37.422 E19.64862
G1 X-.617 Y-37.983 E19.67261
G1 X-.73 Y-38.395 E19.68813
G1 X-.977 Y-38.193 E19.69972
G1 X-1.526 Y-37.92 E19.722
G1 X-2 Y-37.843 E19.73945
G1 X-9.869 Y-37.853 E20.02537
G1 X-10.377 Y-37.92 E20.04399
G1 X-10.901 Y-38.077 E20.06387
G1 X-11.404 Y-38.325 E20.08424
G1 X-11.989 Y-38.758 E20.11069
G1 X-12.497 Y-39.378 E20.13981
G1 X-12.788 Y-39.99 E20.16443
G1 X-12.963 Y-40.687 E20.19055
G1 X-13 Y-41.142 E20.20713
G1 X-12.989 Y-85.211 E21.80838
G1 X-12.899 Y-85.829 E21.83107
G1 X-12.739 Y-86.312 E21.84956
G1 X-12.452 Y-86.859 E21.87201
G1 X-12.051 Y-87.353 E21.89512
G1 X-11.559 Y-87.764 E21.91842
G1 X-10.976 Y-88.086 E21.94262
G1 X-10.31 Y-88.285 E21.96787
G1 X-9.699 Y-88.343 E21.99017
G1 X19.917 Y-88.331 E23.06627
G1 X20.394 Y-88.262 E23.08378
G1 X21.092 Y-88.036 E23.11044
G1 X21.694 Y-87.67 E23.13604
G1 X22.006 Y-87.396 E23.15113
G1 X22.427 Y-86.91 E23.17449
G1 X22.79 Y-86.22 E23.20282
G1 X22.944 Y-85.619 E23.22536
G1 X23 Y-85.044 E23.24636
G1 X22.987 Y-40.924 E24.84946
G1 X22.909 Y-40.402 E24.86863
G1 X22.723 Y-39.838 E24.89021
G1 X22.425 Y-39.28 E24.9132
G1 X22.005 Y-38.793 E24.93656
G1 X21.51 Y-38.383 E24.95992
G1 X20.884 Y-38.062 E24.98548
G1 X20.26 Y-37.896 E25.00894
G1 X19.831 Y-37.849 E25.02462
G1 X12 Y-37.843 E25.30916
G1 X11.394 Y-37.967 E25.33164
G1 X10.93 Y-38.212 E25.3507
G1 X10.723 Y-38.405 E25.36099
G1 X10.683 Y-38.152 E25.37029
G1 X10.465 Y-37.69 E25.38886
G1 X10.018 Y-37.196 E25.41306
G1 X9.437 Y-36.912 E25.43656
G1 X8.963 Y-36.843 E25.45396
G1 X0.949 Y-36.843 E25.74515
G0 F3600 X0.997 Y-37.243
G1 F1200 X0.49 Y-37.373 E25.76417
G1 X0.029 Y-37.7 E25.78471
G1 X-.277 Y-38.194 E25.80582
G1 X-.342 Y-38.493 E25.81694
G1 X-.331 Y-38.813 E25.82857
G1 X-.2 Y-39.489 E25.85359
G1 X-.2 Y-41.443 E25.92459
G1 X-.122 Y-41.862 E25.94008
G1 X0.123 Y-42.326 E25.95914
G1 X0.355 Y-42.535 E25.97049
G1 X0.849 Y-42.781 E25.99054
G1 X1.2 Y-42.843 E26.00349
G1 X8.8 Y-42.843 E26.27964
G1 X9.219 Y-42.765 E26.29512
G1 X9.683 Y-42.52 E26.31419
G1 X9.892 Y-42.288 E26.32553
G1 X10.138 Y-41.794 E26.34559
G1 X10.2 Y-41.443 E26.35854
G1 X10.2 Y-39.485 E26.42968
G1 X10.336 Y-38.921 E26.45076
G1 X10.321 Y-38.323 E26.4725
G1 X10.103 Y-37.861 E26.49106
G1 X9.772 Y-37.52 E26.50833
G1 X9.319 Y-37.299 E26.52664
G1 X8.963 Y-37.243 E26.53973
G1 X0.997 Y-37.243 E26.82918
G0 F3600 X-.923 Y-38.76
G1 F1200 X-1.155 Y-38.551 E26.84053
G1 X-1.649 Y-38.305 E26.86058
G1 X-2 Y-38.243 E26.87353
G1 X-9.817 Y-38.25 E27.15756
G1 X-10.325 Y-38.317 E27.17618
G1 X-10.782 Y-38.459 E27.19357
G1 X-11.223 Y-38.682 E27.21152
G1 X-11.71 Y-39.049 E27.23368
G1 X-12.157 Y-39.595 E27.25932
G1 X-12.41 Y-40.127 E27.28072
G1 X-12.564 Y-40.721 E27.30302
G1 X-12.6 Y-41.142 E27.31837
G1 X-12.593 Y-85.157 E28.91766
G1 X-12.518 Y-85.708 E28.93786
G1 X-12.385 Y-86.126 E28.9538
G1 X-12.117 Y-86.636 E28.97474
G1 X-11.763 Y-87.073 E28.99517
G1 X-11.332 Y-87.433 E29.01557
G1 X-10.821 Y-87.715 E29.03678
G1 X-10.233 Y-87.891 E29.05908
G1 X-9.699 Y-87.943 E29.07858
G1 X19.865 Y-87.934 E30.15279
G1 X20.271 Y-87.881 E30.16766
G1 X20.924 Y-87.67 E30.1926
G1 X21.433 Y-87.367 E30.21412
G1 X21.704 Y-87.134 E30.22711
G1 X22.093 Y-86.685 E30.24869
G1 X22.414 Y-86.076 E30.27371
G1 X22.546 Y-85.579 E30.29239
G1 X22.6 Y-85.044 E30.31193
G1 X22.591 Y-40.979 E31.91303
G1 X22.528 Y-40.523 E31.92976
G1 X22.37 Y-40.026 E31.94871
G1 X22.094 Y-39.509 E31.97
G1 X21.75 Y-39.101 E31.98939
G1 X21.29 Y-38.72 E32.01109
G1 X20.74 Y-38.438 E32.03355
G1 X20.216 Y-38.294 E32.0533
G1 X19.787 Y-38.247 E32.06898
G1 X12 Y-38.243 E32.35192
G1 X11.581 Y-38.321 E32.36741
G1 X11.117 Y-38.566 E32.38647
G1 X10.908 Y-38.798 E32.39782
G1 X10.662 Y-39.292 E32.41787
G1 X10.6 Y-39.643 E32.43082
G1 X10.6 Y-43.243 E32.56163
G1 X-.6 Y-43.243 E32.96858
G1 X-.6 Y-39.643 E33.09938
G1 X-.678 Y-39.224 E33.11487
G1 X-.923 Y-38.76 E33.13394
G0 F3600 X-1.207 Y-39.042
G1 F1200 X-1.345 Y-38.903 E33.14105
G1 X-1.727 Y-38.697 E33.15682
G1 X-2 Y-38.643 E33.16693
G1 X-9.769 Y-38.647 E33.44922
G1 X-10.212 Y-38.701 E33.46544
G1 X-10.601 Y-38.816 E33.48018
G1 X-11.042 Y-39.039 E33.49813
G1 X-11.43 Y-39.339 E33.51595
G1 X-11.816 Y-39.81 E33.53808
G1 X-12.024 Y-40.231 E33.55514
G1 X-12.166 Y-40.756 E33.5749
G1 X-12.2 Y-41.142 E33.58898
G1 X-12.193 Y-85.157 E35.18827
G1 X-12.135 Y-85.592 E35.20421
G1 X-12.028 Y-85.945 E35.21762
G1 X-11.803 Y-86.388 E35.23567
G1 X-11.502 Y-86.77 E35.25334
G1 X-11.139 Y-87.083 E35.27076
G1 X-10.666 Y-87.344 E35.29039
G1 X-10.156 Y-87.497 E35.30973
G1 X-9.699 Y-87.543 E35.32642
G1 X19.813 Y-87.537 E36.39874
G1 X20.219 Y-87.484 E36.41362
G1 X20.758 Y-87.304 E36.43427
G1 X21.177 Y-87.059 E36.4519
G1 X21.402 Y-86.872 E36.46253
G1 X21.761 Y-86.458 E36.48244
G1 X22.038 Y-85.932 E36.50404
G1 X22.159 Y-85.476 E36.52118
G1 X22.2 Y-85.044 E36.53695
G1 X22.194 Y-41.029 E38.13624
G1 X22.145 Y-40.639 E38.15052
G1 X22.017 Y-40.215 E38.16661
G1 X21.76 Y-39.734 E38.18643
G1 X21.444 Y-39.359 E38.20425
G1 X21.071 Y-39.058 E38.22166
G1 X20.594 Y-38.813 E38.24115
G1 X20.172 Y-38.692 E38.2571
G1 X19.743 Y-38.645 E38.27278
G1 X12 Y-38.643 E38.55412
G1 X11.662 Y-38.713 E38.56666
G1 X11.399 Y-38.85 E38.57744
G1 X11.26 Y-38.988 E38.58455
G1 X11.054 Y-39.37 E38.60032
G1 X11 Y-39.643 E38.61044
G1 X11 Y-43.643 E38.75578
G1 X-1 Y-43.643 E39.1918
G1 X-1 Y-39.643 E39.33714
G1 X-1.07 Y-39.305 E39.34968
G1 X-1.207 Y-39.042 E39.36045
G0 F3600 X-1.839 Y-39.524
G1 F1200 X-2 Y-39.443 E39.367
G1 X-9.726 Y-39.445 E39.64773
G1 X-10.054 Y-39.482 E39.65972
G1 X-10.368 Y-39.581 E39.67168
G1 X-10.665 Y-39.744 E39.68399
G1 X-10.892 Y-39.933 E39.69472
G1 X-11.122 Y-40.212 E39.70786
G1 X-11.28 Y-40.518 E39.72038
G1 X-11.37 Y-40.832 E39.73224
G1 X-11.4 Y-41.142 E39.74356
G1 X-11.398 Y-85.069 E41.33965
G1 X-11.369 Y-85.36 E41.35027
G1 X-11.262 Y-85.713 E41.36368
G1 X-11.099 Y-86.009 E41.37596
G1 X-10.887 Y-86.259 E41.38787
G1 X-10.632 Y-86.465 E41.39978
G1 X-10.362 Y-86.608 E41.41088
G1 X-10.011 Y-86.714 E41.4242
G1 X-9.699 Y-86.743 E41.43559
G1 X19.725 Y-86.741 E42.50471
G1 X20.054 Y-86.705 E42.51673
G1 X20.368 Y-86.606 E42.5287
G1 X20.665 Y-86.443 E42.54101
G1 X20.89 Y-86.256 E42.55164
G1 X21.12 Y-85.976 E42.5648
G1 X21.28 Y-85.67 E42.57735
G1 X21.363 Y-85.394 E42.58782
G1 X21.4 Y-85.044 E42.60061
G1 X21.398 Y-41.117 E44.1967
G1 X21.362 Y-40.792 E44.20858
G1 X21.278 Y-40.512 E44.2192
G1 X21.101 Y-40.181 E44.23284
G1 X20.887 Y-39.928 E44.24488
G1 X20.632 Y-39.722 E44.25679
G1 X20.362 Y-39.579 E44.26789
G1 X20.012 Y-39.473 E44.28118
G1 X19.699 Y-39.443 E44.2926
G1 X12 Y-39.443 E44.57235
G1 X11.881 Y-39.482 E44.5769
G1 X11.8 Y-39.643 E44.58345
G1 X11.8 Y-44.443 E44.75785
G1 X-1.8 Y-44.443 E45.25201
G1 X-1.8 Y-39.643 E45.42642
G1 X-1.839 Y-39.524 E45.43097
G0 F3600 X-1.459 Y-39.399
G1 F1200 X-1.4 Y-39.643 E45.44009
G1 X-1.4 Y-44.043 E45.59996
G1 X11.4 Y-44.043 E46.06505
G1 X11.4 Y-39.643 E46.22493
G1 X11.443 Y-39.463 E46.23165
G1 X11.604 Y-39.193 E46.24307
G1 X11.756 Y-39.102 E46.24951
G1 X12 Y-39.043 E46.25863
G1 X19.699 Y-39.043 E46.53837
G1 X20.128 Y-39.09 E46.55406
G1 X20.478 Y-39.196 E46.56734
G1 X20.883 Y-39.411 E46.584
G1 X21.138 Y-39.617 E46.59591
G1 X21.454 Y-39.992 E46.61373
G1 X21.661 Y-40.397 E46.63026
G1 X21.76 Y-40.748 E46.64351
G1 X21.796 Y-41.073 E46.65539
G1 X21.8 Y-85.044 E48.25308
G1 X21.761 Y-85.436 E48.26739
G1 X21.663 Y-85.785 E48.28056
G1 X21.429 Y-86.23 E48.29883
G1 X21.146 Y-86.564 E48.31474
G1 X20.921 Y-86.751 E48.32537
G1 X20.56 Y-86.957 E48.34047
G1 X20.098 Y-87.103 E48.35808
G1 X19.769 Y-87.139 E48.3701
G1 X-9.699 Y-87.143 E49.44082
G1 X-10.048 Y-87.112 E49.45355
G1 X-10.478 Y-86.991 E49.46978
G1 X-10.883 Y-86.776 E49.48644
G1 X-11.192 Y-86.518 E49.50107
G1 X-11.449 Y-86.202 E49.51587
G1 X-11.645 Y-85.829 E49.53118
G1 X-11.752 Y-85.476 E49.54458
G1 X-11.796 Y-85.109 E49.55801
G1 X-11.8 Y-41.142 E51.15556
G1 X-11.768 Y-40.793 E51.16829
G1 X-11.665 Y-40.408 E51.18277
G1 X-11.477 Y-40.028 E51.19818
G1 X-11.148 Y-39.626 E51.21705
G1 X-10.857 Y-39.393 E51.2306
G1 X-10.488 Y-39.2 E51.24573
G1 X-10.099 Y-39.085 E51.26047
G1 X-9.726 Y-39.045 E51.2741
G1 X-2 Y-39.043 E51.55482
G1 X-1.82 Y-39.086 E51.56154
G1 X-1.55 Y-39.247 E51.57297
G1 X-1.459 Y-39.399 E51.5794
G0 F3600 X0.062 Y-38.736
G1 F1200 X0.058 Y-38.487 E51.58845
G1 X0.109 Y-38.298 E51.59557
G1 X0.361 Y-37.924 E51.61195
G1 X0.701 Y-37.713 E51.62649
G1 X1.039 Y-37.643 E51.63903
G1 X8.963 Y-37.643 E51.92695
G1 X9.25 Y-37.693 E51.93754
G1 X9.583 Y-37.872 E51.95127
G1 X9.801 Y-38.123 E51.96335
G1 X9.923 Y-38.416 E51.97489
G1 X9.935 Y-38.878 E51.99168
G1 X9.8 Y-39.437 E52.01257
G1 X9.8 Y-41.443 E52.08546
G1 X9.746 Y-41.716 E52.09557
G1 X9.54 Y-42.098 E52.11134
G1 X9.401 Y-42.236 E52.11846
G1 X9.138 Y-42.373 E52.12923
G1 X8.8 Y-42.443 E52.14178
G1 X1.2 Y-42.443 E52.41792
G1 X0.927 Y-42.389 E52.42803
G1 X0.545 Y-42.183 E52.4438
G1 X0.407 Y-42.044 E52.45092
G1 X0.27 Y-41.781 E52.4617
G1 X0.2 Y-41.443 E52.47424
G1 X0.2 Y-39.683 E52.53819
G1 X0.168 Y-39.28 E52.55288
G1 X0.062 Y-38.736 E52.57301
G0 F3600 X0.848 Y-38.584
G1 F1200 X0.962 Y-39.17 E52.59471
G1 X1 Y-39.644 E52.61198
G1 X1 Y-41.443 E52.67735
G1 X1.039 Y-41.562 E52.6819
G1 X1.2 Y-41.643 E52.68845
G1 X8.8 Y-41.643 E52.9646
G1 X8.919 Y-41.604 E52.96915
G1 X9 Y-41.443 E52.97569
G1 X9 Y-39.642 E53.04113
G1 X9.033 Y-39.202 E53.05717
G1 X9.157 Y-38.69 E53.07631
G1 X9.148 Y-38.585 E53.08014
G1 X9.066 Y-38.471 E53.08524
G1 X8.963 Y-38.443 E53.08912
G1 X1.039 Y-38.443 E53.37704
G1 X0.92 Y-38.482 E53.38159
G1 X0.848 Y-38.584 E53.38612
G0 F3600 X0.458 Y-38.494
G1 F1200 X0.455 Y-38.66 E53.39215
G1 X0.565 Y-39.226 E53.41311
G1 X0.6 Y-39.664 E53.42907
G1 X0.6 Y-41.443 E53.49371
G1 X0.659 Y-41.687 E53.50283
G1 X0.75 Y-41.839 E53.50927
G1 X1.02 Y-42 E53.52069
G1 X1.2 Y-42.043 E53.52742
G1 X8.8 Y-42.043 E53.80356
G1 X9.044 Y-41.984 E53.81268
G1 X9.196 Y-41.893 E53.81912
G1 X9.357 Y-41.623 E53.83054
G1 X9.4 Y-41.443 E53.83727
G1 X9.4 Y-39.389 E53.9119
G1 X9.546 Y-38.784 E53.93451
G1 X9.547 Y-38.551 E53.94298
G1 X9.478 Y-38.359 E53.95039
G1 X9.369 Y-38.21 E53.9571
G1 X9.171 Y-38.085 E53.96561
G1 X8.963 Y-38.043 E53.97332
G1 X1.039 Y-38.043 E54.26124
G1 X0.795 Y-38.102 E54.27036
G1 X0.597 Y-38.247 E54.27927
G1 X0.458 Y-38.494 E54.28957
G0 F3600 X1.294 Y-38.843
G1 F1200 X1.354 Y-39.092 E54.29888
G1 X1.359 Y-39.123 E54.30002
G1 X1.399 Y-39.627 E54.31839
G1 X1.4 Y-39.643 E54.31897
