;FLAVOR:Marlin
;TIME:457
;Filament used: 0.754779m
;Layer height: 0.24
;MINX:-27.202
;MINY:-72.354
;MINZ:0.3
;MAXX:20.202
;MAXY:71.956
;MAXZ:6.4
;Generated with Cura_SteamEngine 4.13.1
M140 S50
M105
M190 S50
M104 S210
M105
M109 S210
M82 ;absolute extrusion mode
;FLAVOR:Marlin
M82 ;absolute extrusion mode
G21
G90
M82
M107 T0
G28
G92 E0
G0 E3 F200
G92 E0 ; reset extrusion distance
M106 S255 ; Enable cooling fan full speed
G1 X-98 Y0 Z0.4 F3000 ; move to arc start
G3 X0 Y-98 I98 Z0.4 E40 F400 ; lay arc stripe 90deg
G92 E0 ; reset extrusion distance
G4 P500 ; wait for 0.5 sec
G0 Z10 E-1 ; Lift 15mm and retract 1mm filament
G4 P2000 ; wait for 5 sec
G0 Z15
M107 ; Disable cooling fan
G1 X0 Y-85 Z4 E0 F3000 ; get off the bed
G92 E0
G92 E0
G1 F1500 E-6.5
;LAYER_COUNT:6
;LAYER:0
M106 S25.5
G1 F600 Z1.3
G0 F3600 X9.375 Y30.953 Z1.3
;TYPE:SKIRT
G1 F600 Z0.3
G1 F1500 E0.3326
G1 F2400 X9.846 Y30.818 E0.35705
G1 X10.332 Y30.762 E0.38145
G1 X10.821 Y30.785 E0.40588
G1 X11.3 Y30.888 E0.43032
G1 X11.755 Y31.067 E0.45471
G1 X12.176 Y31.318 E0.47917
G1 X12.55 Y31.634 E0.50359
G1 X13.031 Y32.26 E0.54298
G1 X19.031 Y42.652 E1.14165
G1 X19.24 Y43.094 E1.16604
G1 X19.375 Y43.565 E1.19049
G1 X19.431 Y44.051 E1.21489
G1 X19.408 Y44.54 E1.23932
G1 X19.305 Y45.019 E1.26376
G1 X19.126 Y45.474 E1.28815
G1 X18.875 Y45.895 E1.31261
G1 X18.559 Y46.269 E1.33703
G1 X17.933 Y46.75 E1.37642
G1 X5.112 Y54.152 E2.11501
G1 X5.112 Y68.956 E2.85359
G1 X5.072 Y69.444 E2.87801
G1 X4.953 Y69.919 E2.90244
G1 X4.759 Y70.368 E2.92685
G1 X4.494 Y70.78 E2.95129
G1 X4.166 Y71.143 E2.97569
G1 X3.783 Y71.448 E3.00012
G1 X3.355 Y71.686 E3.02455
G1 X2.895 Y71.852 E3.04895
G1 X2.112 Y71.956 E3.08836
G1 X-9.888 Y71.956 E3.68704
G1 X-10.376 Y71.916 E3.71147
G1 X-10.851 Y71.797 E3.7359
G1 X-11.3 Y71.603 E3.7603
G1 X-11.712 Y71.338 E3.78474
G1 X-12.075 Y71.01 E3.80915
G1 X-12.38 Y70.627 E3.83357
G1 X-12.618 Y70.199 E3.85801
G1 X-12.784 Y69.739 E3.88241
G1 X-12.888 Y68.956 E3.92181
G1 X-12.888 Y54.151 E4.66044
G1 X-25.709 Y46.75 E5.399
G1 X-26.111 Y46.472 E5.42339
G1 X-26.463 Y46.131 E5.44784
G1 X-26.755 Y45.739 E5.47222
G1 X-26.979 Y45.303 E5.49668
G1 X-27.13 Y44.838 E5.52107
G1 X-27.202 Y44.353 E5.54553
G1 X-27.195 Y43.864 E5.56993
G1 X-27.109 Y43.382 E5.59436
G1 X-26.807 Y42.652 E5.63377
G1 X-20.807 Y32.26 E6.23244
G1 X-20.529 Y31.857 E6.25687
G1 X-20.188 Y31.506 E6.28128
G1 X-19.795 Y31.214 E6.30571
G1 X-19.36 Y30.99 E6.33012
G1 X-18.894 Y30.839 E6.35456
G1 X-18.41 Y30.767 E6.37897
G1 X-17.921 Y30.774 E6.40337
G1 X-17.439 Y30.861 E6.4278
G1 X-16.978 Y31.024 E6.4522
G1 X-16.709 Y31.162 E6.46728
G1 X-3.888 Y38.564 E7.20587
G1 X8.933 Y31.162 E7.94446
G1 X9.375 Y30.953 E7.96885
G0 F3600 X9.546 Y31.316
G1 F2400 X9.986 Y31.199 E7.99157
G1 X10.44 Y31.16 E8.0143
G1 X10.894 Y31.201 E8.03704
G1 X11.334 Y31.321 E8.0598
G1 X11.746 Y31.516 E8.08254
G1 X12.117 Y31.779 E8.10523
G1 X12.437 Y32.104 E8.12798
G1 X12.685 Y32.46 E8.14963
G1 X18.685 Y42.852 E8.7483
G1 X18.877 Y43.265 E8.77102
G1 X18.994 Y43.705 E8.79373
G1 X19.033 Y44.159 E8.81647
G1 X18.992 Y44.613 E8.83921
G1 X18.872 Y45.053 E8.86196
G1 X18.677 Y45.465 E8.8847
G1 X18.414 Y45.836 E8.90739
G1 X18.089 Y46.156 E8.93015
G1 X17.733 Y46.404 E8.95179
G1 X4.712 Y53.922 E9.70192
G1 X4.712 Y68.956 E10.45197
G1 X4.672 Y69.41 E10.4747
G1 X4.554 Y69.85 E10.49743
G1 X4.36 Y70.262 E10.52015
G1 X4.097 Y70.635 E10.54292
G1 X3.774 Y70.956 E10.56564
G1 X3.399 Y71.215 E10.58838
G1 X2.985 Y71.405 E10.6111
G1 X2.544 Y71.52 E10.63384
G1 X2.112 Y71.556 E10.65547
G1 X-9.888 Y71.556 E11.25415
G1 X-10.342 Y71.516 E11.27689
G1 X-10.782 Y71.398 E11.29962
G1 X-11.194 Y71.204 E11.32234
G1 X-11.567 Y70.941 E11.3451
G1 X-11.888 Y70.618 E11.36782
G1 X-12.147 Y70.243 E11.39056
G1 X-12.337 Y69.829 E11.41329
G1 X-12.452 Y69.388 E11.43602
G1 X-12.488 Y68.956 E11.45765
G1 X-12.488 Y53.92 E12.2078
G1 X-25.509 Y46.404 E12.95788
G1 X-25.882 Y46.142 E12.98062
G1 X-26.204 Y45.82 E13.00334
G1 X-26.464 Y45.446 E13.02606
G1 X-26.655 Y45.032 E13.04881
G1 X-26.772 Y44.592 E13.07152
G1 X-26.809 Y44.138 E13.09425
G1 X-26.767 Y43.684 E13.11699
G1 X-26.646 Y43.245 E13.13971
G1 X-26.461 Y42.852 E13.16138
G1 X-20.461 Y32.46 E13.76005
G1 X-20.199 Y32.087 E13.78279
G1 X-19.876 Y31.765 E13.80555
G1 X-19.503 Y31.505 E13.82823
G1 X-19.089 Y31.313 E13.851
G1 X-18.648 Y31.197 E13.87375
G1 X-18.194 Y31.16 E13.89647
G1 X-17.741 Y31.203 E13.91918
G1 X-17.301 Y31.324 E13.94194
G1 X-16.909 Y31.508 E13.96355
G1 X-3.888 Y39.026 E14.71367
G1 X9.133 Y31.508 E15.4638
G1 X9.546 Y31.316 E15.48652
G0 F3600 X9.714 Y31.681
G1 F2400 X10.121 Y31.582 E15.50742
G1 X10.54 Y31.563 E15.52834
G1 X10.955 Y31.623 E15.54926
G1 X11.351 Y31.76 E15.57017
G1 X11.713 Y31.971 E15.59107
G1 X12.029 Y32.246 E15.61197
G1 X12.338 Y32.66 E15.63774
G1 X18.338 Y43.052 E16.23641
G1 X18.512 Y43.433 E16.25731
G1 X18.611 Y43.84 E16.27821
G1 X18.63 Y44.259 E16.29913
G1 X18.57 Y44.674 E16.32005
G1 X18.433 Y45.07 E16.34096
G1 X18.222 Y45.432 E16.36186
G1 X17.947 Y45.748 E16.38276
G1 X17.533 Y46.057 E16.40853
G1 X4.354 Y53.666 E17.16776
G1 X4.312 Y53.739 E17.17196
G1 X4.312 Y68.956 E17.93114
G1 X4.272 Y69.373 E17.95204
G1 X4.154 Y69.775 E17.97294
G1 X3.961 Y70.147 E17.99385
G1 X3.702 Y70.476 E18.01474
G1 X3.385 Y70.75 E18.03564
G1 X3.022 Y70.959 E18.05654
G1 X2.625 Y71.095 E18.07747
G1 X2.112 Y71.156 E18.10325
G1 X-9.888 Y71.156 E18.70193
G1 X-10.305 Y71.116 E18.72283
G1 X-10.707 Y70.998 E18.74373
G1 X-11.079 Y70.805 E18.76464
G1 X-11.408 Y70.546 E18.78553
G1 X-11.682 Y70.229 E18.80644
G1 X-11.891 Y69.866 E18.82733
G1 X-12.027 Y69.469 E18.84827
G1 X-12.088 Y68.956 E18.87404
G1 X-12.088 Y53.737 E19.63332
G1 X-12.129 Y53.665 E19.63746
G1 X-25.309 Y46.057 E20.3967
G1 X-25.65 Y45.814 E20.41759
G1 X-25.939 Y45.511 E20.43848
G1 X-26.165 Y45.158 E20.45939
G1 X-26.321 Y44.769 E20.4803
G1 X-26.399 Y44.357 E20.50122
G1 X-26.399 Y43.938 E20.52212
G1 X-26.318 Y43.527 E20.54302
G1 X-26.114 Y43.052 E20.56881
G1 X-20.114 Y32.66 E21.16748
G1 X-19.871 Y32.319 E21.18837
G1 X-19.568 Y32.03 E21.20926
G1 X-19.215 Y31.803 E21.2302
G1 X-18.826 Y31.648 E21.25109
G1 X-18.414 Y31.57 E21.27201
G1 X-17.995 Y31.57 E21.29291
G1 X-17.584 Y31.651 E21.31381
G1 X-17.109 Y31.855 E21.3396
G1 X-3.931 Y39.463 E22.09876
G1 X-3.845 Y39.464 E22.10305
G1 X9.333 Y31.855 E22.86223
G1 X9.714 Y31.681 E22.88312
G0 F3600 X9.879 Y32.047
G1 F2400 X10.25 Y31.969 E22.90204
G1 X10.629 Y31.971 E22.92095
G1 X10.999 Y32.051 E22.93983
G1 X11.344 Y32.208 E22.95874
G1 X11.649 Y32.433 E22.97765
G1 X11.992 Y32.86 E23.00498
G1 X17.992 Y43.252 E23.60365
G1 X18.146 Y43.598 E23.62254
G1 X18.224 Y43.969 E23.64145
G1 X18.222 Y44.348 E23.66036
G1 X18.142 Y44.718 E23.67925
G1 X17.985 Y45.063 E23.69816
G1 X17.76 Y45.368 E23.71707
G1 X17.333 Y45.711 E23.74439
G1 X4.062 Y53.373 E24.50891
G1 X3.912 Y53.63 E24.52376
G1 X3.912 Y68.956 E25.28838
G1 X3.872 Y69.333 E25.30729
G1 X3.754 Y69.693 E25.32619
G1 X3.564 Y70.02 E25.34506
G1 X3.309 Y70.301 E25.36399
G1 X3 Y70.521 E25.38291
G1 X2.653 Y70.673 E25.40181
G1 X2.112 Y70.756 E25.42912
G1 X-9.888 Y70.756 E26.0278
G1 X-10.265 Y70.716 E26.04672
G1 X-10.625 Y70.598 E26.06562
G1 X-10.952 Y70.408 E26.08449
G1 X-11.233 Y70.153 E26.10342
G1 X-11.453 Y69.844 E26.12234
G1 X-11.605 Y69.497 E26.14124
G1 X-11.688 Y68.956 E26.16855
G1 X-11.688 Y53.63 E26.93316
G1 X-11.835 Y53.373 E26.94794
G1 X-25.109 Y45.711 E27.71258
G1 X-25.415 Y45.488 E27.73147
G1 X-25.668 Y45.206 E27.75037
G1 X-25.857 Y44.877 E27.7693
G1 X-25.972 Y44.516 E27.78821
G1 X-26.009 Y44.139 E27.80711
G1 X-25.966 Y43.762 E27.82604
G1 X-25.768 Y43.252 E27.85333
G1 X-19.768 Y32.86 E28.452
G1 X-19.545 Y32.554 E28.47089
G1 X-19.263 Y32.301 E28.48979
G1 X-18.934 Y32.112 E28.50872
G1 X-18.573 Y31.997 E28.52762
G1 X-18.196 Y31.96 E28.54652
G1 X-17.819 Y32.003 E28.56545
G1 X-17.309 Y32.201 E28.59275
G1 X-4.038 Y39.863 E29.35727
G1 X-3.739 Y39.864 E29.37218
G1 X9.533 Y32.201 E30.13677
G1 X9.879 Y32.047 E30.15566
G0 F3600 X10.04 Y32.416
G1 F2400 X10.37 Y32.361 E30.17235
G1 X10.703 Y32.386 E30.18901
G1 X11.021 Y32.489 E30.20569
G1 X11.305 Y32.665 E30.22236
G1 X11.645 Y33.06 E30.24836
G1 X17.645 Y43.452 E30.84703
G1 X17.777 Y43.759 E30.8637
G1 X17.832 Y44.089 E30.88039
G1 X17.807 Y44.422 E30.89705
G1 X17.704 Y44.74 E30.91373
G1 X17.528 Y45.024 E30.9304
G1 X17.133 Y45.364 E30.9564
G1 X3.767 Y53.081 E31.7264
G1 X3.512 Y53.52 E31.75173
G1 X3.512 Y68.956 E32.52183
G1 X3.472 Y69.288 E32.53851
G1 X3.355 Y69.6 E32.55514
G1 X3.167 Y69.877 E32.57184
G1 X2.919 Y70.1 E32.58848
G1 X2.625 Y70.259 E32.60515
G1 X2.112 Y70.356 E32.6312
G1 X-9.888 Y70.356 E33.22988
G1 X-10.22 Y70.316 E33.24657
G1 X-10.532 Y70.199 E33.26319
G1 X-10.809 Y70.011 E33.27989
G1 X-11.032 Y69.763 E33.29653
G1 X-11.191 Y69.469 E33.31321
G1 X-11.288 Y68.956 E33.33926
G1 X-11.288 Y53.521 E34.10931
G1 X-11.541 Y53.081 E34.13463
G1 X-24.909 Y45.364 E34.90471
G1 X-25.176 Y45.164 E34.92136
G1 X-25.388 Y44.906 E34.93802
G1 X-25.534 Y44.605 E34.95471
G1 X-25.603 Y44.279 E34.97133
G1 X-25.594 Y43.945 E34.988
G1 X-25.421 Y43.452 E35.01407
G1 X-19.421 Y33.06 E35.61274
G1 X-19.221 Y32.793 E35.62938
G1 X-18.963 Y32.58 E35.64607
G1 X-18.662 Y32.435 E35.66274
G1 X-18.335 Y32.366 E35.67941
G1 X-18.002 Y32.375 E35.69603
G1 X-17.509 Y32.548 E35.7221
G1 X-4.144 Y40.265 E36.49205
G1 X-3.633 Y40.265 E36.51755
G1 X9.733 Y32.548 E37.28754
G1 X10.04 Y32.416 E37.30421
G0 F3600 X10.195 Y32.789
G1 F2400 X10.476 Y32.761 E37.3183
G1 X10.753 Y32.813 E37.33236
G1 X11.005 Y32.94 E37.34644
G1 X11.299 Y33.26 E37.36812
G1 X17.299 Y43.652 E37.96679
G1 X17.404 Y43.914 E37.98087
G1 X17.432 Y44.195 E37.99496
G1 X17.38 Y44.472 E38.00902
G1 X17.253 Y44.724 E38.0231
G1 X16.933 Y45.018 E38.04478
G1 X3.464 Y52.794 E38.8207
G1 X3.185 Y53.289 E38.84905
G1 X3.112 Y53.403 E38.8558
G1 X3.112 Y68.956 E39.63174
G1 X3.072 Y69.235 E39.6458
G1 X2.956 Y69.492 E39.65987
G1 X2.773 Y69.707 E39.67396
G1 X2.537 Y69.861 E39.68802
G1 X2.112 Y69.956 E39.70974
G1 X-9.888 Y69.956 E40.30842
G1 X-10.167 Y69.916 E40.32249
G1 X-10.424 Y69.8 E40.33655
G1 X-10.639 Y69.617 E40.35064
G1 X-10.793 Y69.381 E40.3647
G1 X-10.888 Y68.956 E40.38642
G1 X-10.888 Y53.403 E41.16237
G1 X-11.178 Y52.912 E41.19082
G1 X-11.239 Y52.793 E41.19749
G1 X-24.709 Y45.018 E41.97342
G1 X-24.931 Y44.844 E41.9875
G1 X-25.095 Y44.615 E42.00155
G1 X-25.189 Y44.349 E42.01562
G1 X-25.205 Y44.067 E42.02972
G1 X-25.075 Y43.652 E42.05141
G1 X-19.075 Y33.26 E42.65008
G1 X-18.901 Y33.038 E42.66415
G1 X-18.672 Y32.873 E42.67823
G1 X-18.406 Y32.78 E42.69229
G1 X-18.124 Y32.764 E42.70639
G1 X-17.709 Y32.894 E42.72808
G1 X-4.24 Y40.67 E43.504
G1 X-3.671 Y40.664 E43.53239
G1 X-3.536 Y40.671 E43.53913
G1 X9.933 Y32.894 E44.31507
G1 X10.195 Y32.789 E44.32916
G0 F3600 X10.133 Y33.24
G1 F2400 X10.339 Y33.167 E44.34006
G1 X10.557 Y33.173 E44.35094
G1 X10.758 Y33.256 E44.36179
G1 X10.953 Y33.46 E44.37587
G1 X16.953 Y43.852 E44.97454
G1 X17.026 Y44.058 E44.98544
G1 X17.02 Y44.276 E44.99632
G1 X16.937 Y44.477 E45.00717
G1 X16.733 Y44.672 E45.02125
G1 X3.161 Y52.508 E45.80311
G1 X2.839 Y53.087 E45.83617
G1 X2.712 Y53.284 E45.84786
G1 X2.712 Y68.956 E46.62974
G1 X2.672 Y69.171 E46.64065
G1 X2.559 Y69.357 E46.65151
G1 X2.386 Y69.49 E46.6624
G1 X2.112 Y69.556 E46.67646
G1 X-9.888 Y69.556 E47.27514
G1 X-10.103 Y69.516 E47.28605
G1 X-10.289 Y69.403 E47.29691
G1 X-10.422 Y69.23 E47.30779
G1 X-10.488 Y68.956 E47.32185
G1 X-10.488 Y53.285 E48.10368
G1 X-10.831 Y52.713 E48.13696
G1 X-10.936 Y52.507 E48.14849
G1 X-24.509 Y44.672 E48.93038
G1 X-24.675 Y44.53 E48.94128
G1 X-24.779 Y44.338 E48.95217
G1 X-24.808 Y44.122 E48.96304
G1 X-24.729 Y43.852 E48.97708
G1 X-18.729 Y33.46 E49.57575
G1 X-18.587 Y33.294 E49.58664
G1 X-18.395 Y33.19 E49.59754
G1 X-18.179 Y33.161 E49.60841
G1 X-17.909 Y33.24 E49.62245
G1 X-4.337 Y41.076 E50.40431
G1 X-3.672 Y41.064 E50.43749
G1 X-3.439 Y41.076 E50.44913
G1 X10.133 Y33.24 E51.231
G0 F3600 X10.333 Y33.587
G1 F2400 X10.455 Y33.561 E51.23722
G1 X10.606 Y33.66 E51.24623
G1 X16.606 Y44.052 E51.8449
G1 X16.632 Y44.174 E51.85112
G1 X16.533 Y44.325 E51.86013
G1 X2.858 Y52.221 E52.64794
G1 X2.494 Y52.886 E52.68576
G1 X2.312 Y53.166 E52.70242
G1 X2.312 Y68.956 E53.49019
G1 X2.273 Y69.075 E53.49644
G1 X2.112 Y69.156 E53.50543
G1 X-9.888 Y69.156 E54.10411
G1 X-10.007 Y69.117 E54.11036
G1 X-10.088 Y68.956 E54.11935
G1 X-10.088 Y53.166 E54.90712
G1 X-10.484 Y52.514 E54.94517
G1 X-10.633 Y52.22 E54.96162
G1 X-24.309 Y44.325 E55.74945
G1 X-24.392 Y44.232 E55.75567
G1 X-24.382 Y44.052 E55.76466
G1 X-18.382 Y33.66 E56.36333
G1 X-18.289 Y33.577 E56.36955
G1 X-18.109 Y33.587 E56.37854
G1 X-4.435 Y41.482 E57.16629
G1 X-3.673 Y41.464 E57.20431
G1 X-3.341 Y41.482 E57.2209
G1 X10.333 Y33.587 E58.00864
G1 F1500 E51.50864
G1 F600 Z1.3
;MESH:Propstop8mm-3blatt.3mf(1)
G0 F3600 X1.912 Y53.046 Z1.3
;TYPE:WALL-OUTER
G1 F600 Z0.3
G1 F1500 E58.34125
G1 F2400 X1.912 Y68.756 E59.12502
G1 X-9.688 Y68.756 E59.70375
G1 X-9.688 Y53.046 E60.48752
G1 X-9.967 Y52.612 E60.51326
G1 X-10.331 Y51.933 E60.5517
G1 X-23.936 Y44.079 E61.33544
G1 X-18.136 Y34.033 E61.91417
G1 X-4.53 Y41.888 E62.69798
G1 X-3.684 Y41.864 E62.7402
G1 X-3.246 Y41.888 E62.76208
G1 X10.36 Y34.033 E63.54589
G1 X16.16 Y44.079 E64.12462
G1 X2.555 Y51.934 E64.90839
G1 X2.148 Y52.686 E64.95105
G1 X1.912 Y53.046 E64.97252
G0 F3600 X1.912 Y53.246
G0 X1.412 Y53.246
G0 X-4.225 Y53.793
G0 X-4.162 Y53.298
G1 F2400 X-3.614 Y53.298 E64.99986
G1 X-3.072 Y53.229 E65.02712
G1 X-2.544 Y53.094 E65.05431
G1 X-2.036 Y52.892 E65.08158
G1 X-1.557 Y52.629 E65.10885
G1 X-1.115 Y52.307 E65.13613
G1 X-.717 Y51.934 E65.16334
G1 X-.369 Y51.513 E65.19059
G1 X-0.075 Y51.052 E65.21787
G1 X0.157 Y50.557 E65.24515
G1 X0.326 Y50.038 E65.27238
G1 X0.428 Y49.501 E65.29965
G1 X0.462 Y48.956 E65.32689
G1 X0.428 Y48.411 E65.35413
G1 X0.326 Y47.874 E65.3814
G1 X0.157 Y47.354 E65.40868
G1 X-0.075 Y46.859 E65.43595
G1 X-.369 Y46.398 E65.46323
G1 X-.717 Y45.978 E65.49045
G1 X-1.115 Y45.604 E65.51769
G1 X-1.557 Y45.283 E65.54495
G1 X-2.036 Y45.02 E65.57221
G1 X-2.544 Y44.818 E65.59948
G1 X-3.072 Y44.682 E65.62668
G1 X-3.614 Y44.614 E65.65394
G1 X-4.162 Y44.614 E65.68128
G1 X-4.704 Y44.682 E65.70853
G1 X-5.232 Y44.818 E65.73573
G1 X-5.74 Y45.02 E65.76301
G1 X-6.219 Y45.283 E65.79027
G1 X-6.661 Y45.604 E65.81752
G1 X-7.059 Y45.978 E65.84477
G1 X-7.407 Y46.398 E65.87198
G1 X-7.701 Y46.859 E65.89926
G1 X-7.933 Y47.354 E65.92653
G1 X-8.102 Y47.874 E65.95381
G1 X-8.204 Y48.411 E65.98108
G1 X-8.238 Y48.956 E66.00832
G1 X-8.204 Y49.501 E66.03557
G1 X-8.102 Y50.038 E66.06284
G1 X-7.933 Y50.557 E66.09007
G1 X-7.701 Y51.052 E66.11734
G1 X-7.407 Y51.513 E66.14462
G1 X-7.059 Y51.934 E66.17187
G1 X-6.661 Y52.307 E66.19909
G1 X-6.219 Y52.629 E66.22637
G1 X-5.74 Y52.892 E66.25363
G1 X-5.232 Y53.094 E66.2809
G1 X-4.704 Y53.229 E66.30809
G1 X-4.162 Y53.298 E66.33535
G0 F3600 X-3.962 Y53.298
G0 X-4.187 Y53.698
;TYPE:WALL-INNER
G1 F2400 X-3.589 Y53.698 E66.36519
G1 X-2.997 Y53.623 E66.39496
G1 X-2.42 Y53.475 E66.42468
G1 X-1.865 Y53.255 E66.45446
G1 X-1.342 Y52.967 E66.48425
G1 X-.86 Y52.616 E66.514
G1 X-.425 Y52.208 E66.54375
G1 X-0.045 Y51.749 E66.57348
G1 X0.276 Y51.245 E66.60329
G1 X0.53 Y50.704 E66.63311
G1 X0.714 Y50.138 E66.6628
G1 X0.826 Y49.551 E66.69261
G1 X0.863 Y48.956 E66.72236
G1 X0.826 Y48.361 E66.7521
G1 X0.714 Y47.774 E66.78191
G1 X0.53 Y47.207 E66.81165
G1 X0.276 Y46.666 E66.84147
G1 X-0.045 Y46.162 E66.87128
G1 X-.425 Y45.704 E66.90097
G1 X-.859 Y45.295 E66.93072
G1 X-1.342 Y44.945 E66.96048
G1 X-1.865 Y44.657 E66.99027
G1 X-2.42 Y44.437 E67.02006
G1 X-2.997 Y44.288 E67.04979
