;FLAVOR:Marlin
;TIME:367
;Filament used: 0.341875m
;Layer height: 0.2
;MINX:-20.742
;MINY:-85.914
;MINZ:0.3
;MAXX:20.776
;MAXY:-60.135
;MAXZ:4.3
;TARGET_MACHINE.NAME:Unknown
;Generated with Cura_SteamEngine 5.10.1
M140 S50
M105
M190 S50
M104 S228
M105
M109 S228
;FLAVOR:Marlin
M82 ;absolute extrusion mode
G21
G90
M82
M107 T0
G28
G92 E0
G0 E3 F200
G92 E0 ; reset extrusion distance
M106 S255 ; Enable cooling fan full speed
G1 X-98 Y0 Z0.4 F3000 ; move to arc start
G3 X0 Y-98 I98 Z0.4 E40 F400 ; lay arc stripe 90deg
G92 E0 ; reset extrusion distance
G4 P500 ; wait for 0.5 sec
G0 Z10 E-1 ; Lift 15mm and retract 1mm filament
G4 P2000 ; wait for 5 sec
G0 Z15
M107 ; Disable cooling fan
G1 X0 Y-85 Z4 E0 F3000 ; get off the bed
M82 ;absolute extrusion mode
G92 E0
G92 E0
G1 F1500 E-6.5
;LAYER_COUNT:21
;LAYER:0
M107
G0 F3600 X-5.822 Y-60.224 Z0.3
;TYPE:SKIRT
G1 F1500 E0
G1 F1200 X-7.697 Y-60.135 E0.1077
G1 X-10.939 Y-60.515 E0.29498
G1 X-12.245 Y-60.911 E0.37327
G1 X-13.62 Y-61.509 E0.4593
G1 X-15.578 Y-62.721 E0.59142
G1 X-17.115 Y-64.062 E0.70845
G1 X-18.144 Y-65.269 E0.79945
G1 X-19.082 Y-66.708 E0.898
G1 X-20.054 Y-68.82 E1.03139
G1 X-20.271 Y-69.512 E1.073
G1 X-20.689 Y-71.713 E1.20154
G1 X-20.742 Y-72.568 E1.25069
G1 X-20.574 Y-75.135 E1.39828
G1 X-20.256 Y-76.579 E1.48311
G1 X-19.828 Y-77.829 E1.55892
G1 X-19.203 Y-79.161 E1.64333
G1 X-18.204 Y-80.717 E1.74942
G1 X-16.648 Y-82.513 E1.88576
G1 X-14.489 Y-84.068 E2.03841
G1 X-12.462 Y-85.076 E2.1683
G1 X-11.536 Y-85.392 E2.22443
G1 X-9.352 Y-85.837 E2.35231
G1 X-8.351 Y-85.914 E2.40991
G1 X-6.028 Y-85.788 E2.54339
G1 X-4.686 Y-85.522 E2.62188
G1 X-2.676 Y-84.834 E2.74377
G1 X-1.258 Y-84.154 E2.834
G1 X-.499 Y-83.728 E2.88393
G1 X0.363 Y-83.697 E2.93342
G1 X0.954 Y-83.704 E2.96733
G1 X1.745 Y-83.743 E3.01277
G1 X3.966 Y-84.684 E3.15116
G1 X5.969 Y-85.283 E3.27111
G1 X8.289 Y-85.378 E3.40433
G1 X10.861 Y-85.076 E3.55291
G1 X12.862 Y-84.505 E3.6723
G1 X14.839 Y-83.447 E3.80094
G1 X16.544 Y-82.241 E3.92076
G1 X18.476 Y-79.975 E4.09161
G1 X19.401 Y-78.424 E4.19522
G1 X20.055 Y-76.876 E4.29164
G1 X20.626 Y-74.453 E4.43446
G1 X20.776 Y-72.255 E4.56086
G1 X20.444 Y-69.974 E4.69311
G1 X20.132 Y-68.846 E4.76026
G1 X18.781 Y-66.001 E4.94096
G1 X17.692 Y-64.438 E5.05025
G1 X16.317 Y-63.157 E5.15807
G1 X14.019 Y-61.6 E5.31733
G1 X12.353 Y-60.812 E5.42307
G1 X10.345 Y-60.346 E5.54134
G1 X7.649 Y-60.16 E5.69638
G1 X5.43 Y-60.35 E5.82416
G1 X3.251 Y-61.111 E5.95658
G1 X1.457 Y-61.933 E6.0698
G1 X0.9 Y-62.046 E6.10241
G1 X-.234 Y-62.093 E6.16753
G1 X-.817 Y-62.075 E6.20099
G1 X-2.3 Y-61.383 E6.29488
G1 X-3.91 Y-60.747 E6.3942
G1 X-5.822 Y-60.224 E6.50793
G0 F3600 X-5.884 Y-60.622
G1 F1200 X-7.716 Y-60.535 E6.61316
G1 X-10.824 Y-60.898 E6.79269
G1 X-12.086 Y-61.278 E6.8683
G1 X-13.409 Y-61.849 E6.95098
G1 X-15.367 Y-63.061 E7.0831
G1 X-16.811 Y-64.322 E7.19309
G1 X-17.809 Y-65.488 E7.28114
G1 X-18.719 Y-66.876 E7.37637
G1 X-19.672 Y-68.94 E7.5068
G1 X-19.889 Y-69.632 E7.54841
G1 X-20.296 Y-71.787 E7.67423
G1 X-20.343 Y-72.543 E7.71769
G1 X-20.183 Y-75.05 E7.86182
G1 X-19.877 Y-76.45 E7.94404
G1 X-19.465 Y-77.66 E8.01738
G1 X-18.866 Y-78.945 E8.09872
G1 X-17.867 Y-80.501 E8.20481
G1 X-16.378 Y-82.214 E8.33503
G1 X-14.255 Y-83.743 E8.48514
G1 X-12.333 Y-84.697 E8.60824
G1 X-11.407 Y-85.013 E8.66438
G1 X-9.321 Y-85.438 E8.78652
G1 X-8.32 Y-85.515 E8.84412
G1 X-6.105 Y-85.395 E8.97139
G1 X-4.815 Y-85.143 E9.0468
G1 X-2.849 Y-84.473 E9.16597
G1 X-1.454 Y-83.805 E9.25471
G1 X-.61 Y-83.331 E9.31025
G1 X0.354 Y-83.297 E9.36559
G1 X0.959 Y-83.304 E9.4003
G1 X1.836 Y-83.348 E9.45068
G1 X4.081 Y-84.301 E9.59061
G1 X6.034 Y-84.885 E9.70756
G1 X8.305 Y-84.978 E9.83797
G1 X10.751 Y-84.691 E9.97927
G1 X12.713 Y-84.131 E10.09633
G1 X14.608 Y-83.12 E10.21956
G1 X16.273 Y-81.942 E10.33658
G1 X18.132 Y-79.77 E10.50061
G1 X19.057 Y-78.219 E10.60422
G1 X19.686 Y-76.721 E10.69743
G1 X20.227 Y-74.426 E10.83271
G1 X20.374 Y-72.271 E10.95664
G1 X20.058 Y-70.081 E11.08359
G1 X19.746 Y-68.953 E11.15074
G1 X18.453 Y-66.23 E11.32368
G1 X17.389 Y-64.703 E11.43047
G1 X16.044 Y-63.45 E11.53593
G1 X13.848 Y-61.962 E11.68812
G1 X12.22 Y-61.192 E11.79145
G1 X10.255 Y-60.736 E11.90718
G1 X7.683 Y-60.559 E12.0551
G1 X5.514 Y-60.745 E12.18
G1 X3.418 Y-61.475 E12.30734
G1 X1.583 Y-62.316 E12.42315
G1 X0.947 Y-62.445 E12.46038
G1 X-.229 Y-62.494 E12.52791
G1 X-.91 Y-62.473 E12.567
G1 X-2.447 Y-61.755 E12.66433
G1 X-4.016 Y-61.133 E12.76117
G1 X-5.884 Y-60.622 E12.87228
G0 F3600 X-5.946 Y-61.02
G1 F1200 X-7.735 Y-60.935 E12.97504
G1 X-10.709 Y-61.281 E13.14682
G1 X-11.929 Y-61.646 E13.21988
G1 X-13.198 Y-62.189 E13.29907
G1 X-15.156 Y-63.401 E13.43119
G1 X-16.508 Y-64.583 E13.53422
G1 X-17.474 Y-65.707 E13.61926
G1 X-18.384 Y-67.095 E13.71448
G1 X-19.29 Y-69.06 E13.83862
G1 X-19.507 Y-69.752 E13.88023
G1 X-19.903 Y-71.861 E14.00335
G1 X-19.944 Y-72.518 E14.04112
G1 X-19.792 Y-74.965 E14.18178
G1 X-19.498 Y-76.322 E14.26144
G1 X-19.102 Y-77.491 E14.33226
G1 X-18.503 Y-78.776 E14.4136
G1 X-17.531 Y-80.284 E14.51653
G1 X-16.107 Y-81.917 E14.64084
G1 X-14.077 Y-83.385 E14.78458
G1 X-12.204 Y-84.318 E14.90463
G1 X-11.278 Y-84.634 E14.96077
G1 X-9.29 Y-85.039 E15.07717
G1 X-8.289 Y-85.116 E15.13477
G1 X-6.182 Y-85.002 E15.25583
G1 X-4.892 Y-84.75 E15.33124
G1 X-2.979 Y-84.095 E15.44726
G1 X-1.65 Y-83.456 E15.53186
G1 X-.795 Y-82.976 E15.58812
G1 X-.575 Y-82.929 E15.60102
G1 X0.344 Y-82.897 E15.65378
G1 X0.979 Y-82.904 E15.69022
G1 X1.926 Y-82.951 E15.74462
G1 X4.196 Y-83.918 E15.88618
G1 X6.099 Y-84.487 E16.00014
G1 X8.321 Y-84.578 E16.12773
G1 X10.641 Y-84.306 E16.26175
G1 X12.564 Y-83.757 E16.37649
G1 X14.377 Y-82.793 E16.4943
G1 X16.003 Y-81.643 E16.60856
G1 X17.789 Y-79.564 E16.76581
G1 X18.688 Y-78.064 E16.86614
G1 X19.317 Y-76.566 E16.95936
G1 X19.828 Y-74.399 E17.0871
G1 X19.972 Y-72.287 E17.20855
G1 X19.672 Y-70.188 E17.3302
G1 X19.36 Y-69.06 E17.39735
G1 X18.125 Y-66.459 E17.56255
G1 X17.086 Y-64.968 E17.66681
G1 X15.771 Y-63.743 E17.76992
G1 X13.677 Y-62.324 E17.91505
G1 X12.087 Y-61.572 E18.01596
G1 X10.165 Y-61.126 E18.12917
G1 X7.717 Y-60.958 E18.26995
G1 X5.597 Y-61.14 E18.39203
G1 X3.585 Y-61.839 E18.51423
G1 X1.71 Y-62.698 E18.63256
G1 X0.994 Y-62.844 E18.67448
G1 X-.225 Y-62.895 E18.74448
G1 X-.818 Y-62.876 E18.77852
G1 X-1.108 Y-62.821 E18.79546
G1 X-2.595 Y-62.127 E18.88961
G1 X-4.122 Y-61.519 E18.98391
G1 X-5.946 Y-61.02 E19.0924
G0 F3600 X-6.008 Y-61.418
G1 F1200 X-7.754 Y-61.335 E19.19269
G1 X-10.595 Y-61.664 E19.35678
G1 X-11.772 Y-62.014 E19.42723
G1 X-13.041 Y-62.557 E19.50642
G1 X-14.893 Y-63.703 E19.63138
G1 X-16.205 Y-64.845 E19.73117
G1 X-17.139 Y-65.926 E19.81314
G1 X-18.049 Y-67.314 E19.90836
G1 X-18.908 Y-69.18 E20.02622
G1 X-19.125 Y-69.872 E20.06783
G1 X-19.504 Y-71.888 E20.18552
G1 X-19.545 Y-72.494 E20.22037
G1 X-19.401 Y-74.881 E20.35757
G1 X-19.119 Y-76.194 E20.43462
G1 X-18.739 Y-77.322 E20.50291
G1 X-18.14 Y-78.607 E20.58425
G1 X-17.229 Y-80.021 E20.68076
G1 X-15.835 Y-81.62 E20.80246
G1 X-13.898 Y-83.027 E20.93982
G1 X-12.075 Y-83.939 E21.05677
G1 X-11.149 Y-84.255 E21.11291
G1 X-9.259 Y-84.64 E21.22357
G1 X-8.258 Y-84.717 E21.28117
G1 X-6.259 Y-84.609 E21.39603
G1 X-4.969 Y-84.357 E21.47144
G1 X-3.152 Y-83.734 E21.58165
G1 X-1.846 Y-83.107 E21.66476
G1 X-.94 Y-82.598 E21.72439
G1 X-.621 Y-82.53 E21.7431
G1 X0.334 Y-82.497 E21.79792
G1 X0.983 Y-82.504 E21.83516
G1 X2.019 Y-82.556 E21.89468
G1 X4.311 Y-83.535 E22.03767
G1 X6.164 Y-84.089 E22.14863
G1 X8.337 Y-84.178 E22.27341
G1 X10.531 Y-83.921 E22.40015
G1 X12.418 Y-83.382 E22.51274
G1 X14.146 Y-82.466 E22.62495
G1 X15.733 Y-81.344 E22.73646
G1 X17.446 Y-79.358 E22.88694
G1 X18.319 Y-77.909 E22.984
G1 X18.948 Y-76.411 E23.07721
G1 X19.429 Y-74.372 E23.19741
G1 X19.57 Y-72.302 E23.31645
G1 X19.286 Y-70.295 E23.43274
G1 X18.974 Y-69.167 E23.49989
G1 X17.797 Y-66.688 E23.65734
G1 X16.783 Y-65.233 E23.75909
G1 X15.498 Y-64.036 E23.85984
G1 X13.506 Y-62.686 E23.9979
G1 X11.954 Y-61.952 E24.0964
G1 X10.075 Y-61.516 E24.20707
G1 X7.751 Y-61.357 E24.34072
G1 X5.68 Y-61.535 E24.45998
G1 X3.752 Y-62.203 E24.57705
G1 X2.018 Y-62.998 E24.68649
G1 X1.66 Y-63.117 E24.70814
G1 X1.041 Y-63.243 E24.74438
G1 X-.221 Y-63.296 E24.81685
G1 X-.861 Y-63.275 E24.85359
G1 X-1.23 Y-63.205 E24.87514
G1 X-2.743 Y-62.498 E24.97095
G1 X-4.228 Y-61.905 E25.0627
G1 X-6.008 Y-61.418 E25.16857
G0 F3600 X-6.07 Y-61.816
G1 F1200 X-7.773 Y-61.735 E25.26639
G1 X-10.482 Y-62.048 E25.42285
G1 X-11.615 Y-62.382 E25.49062
G1 X-12.884 Y-62.925 E25.56981
G1 X-14.63 Y-64.005 E25.6876
G1 X-15.942 Y-65.147 E25.7874
G1 X-16.804 Y-66.145 E25.86306
G1 X-17.714 Y-67.533 E25.95828
G1 X-18.526 Y-69.3 E26.06986
G1 X-18.743 Y-69.992 E26.11146
G1 X-19.105 Y-71.918 E26.2239
G1 X-19.146 Y-72.471 E26.25572
G1 X-19.01 Y-74.798 E26.38945
G1 X-18.74 Y-76.067 E26.46389
G1 X-18.376 Y-77.153 E26.5296
G1 X-17.777 Y-78.438 E26.61095
G1 X-16.927 Y-79.758 E26.70102
G1 X-15.562 Y-81.324 E26.82021
G1 X-13.718 Y-82.67 E26.95119
G1 X-11.946 Y-83.56 E27.06496
G1 X-11.02 Y-83.876 E27.1211
G1 X-9.228 Y-84.241 E27.22602
G1 X-8.227 Y-84.318 E27.28363
G1 X-6.336 Y-84.216 E27.39228
G1 X-5.046 Y-83.964 E27.46769
G1 X-3.325 Y-83.373 E27.57209
G1 X-2.042 Y-82.758 E27.65372
G1 X-1.085 Y-82.22 E27.71671
G1 X-.667 Y-82.131 E27.74123
G1 X0.324 Y-82.097 E27.79812
G1 X1.003 Y-82.104 E27.83708
G1 X1.948 Y-82.151 E27.89136
G1 X2.216 Y-82.204 E27.90704
G1 X4.468 Y-83.167 E28.04756
G1 X6.228 Y-83.691 E28.15292
G1 X8.353 Y-83.778 E28.27494
G1 X10.421 Y-83.536 E28.3944
G1 X12.268 Y-83.008 E28.50461
G1 X13.915 Y-82.139 E28.61145
G1 X15.464 Y-81.044 E28.72029
G1 X17.104 Y-79.151 E28.86399
G1 X17.95 Y-77.754 E28.95769
G1 X18.579 Y-76.256 E29.0509
G1 X19.03 Y-74.345 E29.16356
G1 X19.168 Y-72.316 E29.28024
G1 X18.9 Y-70.402 E29.39112
G1 X18.588 Y-69.274 E29.45827
G1 X17.469 Y-66.917 E29.60796
G1 X16.48 Y-65.498 E29.7072
G1 X15.225 Y-64.329 E29.8056
G1 X13.335 Y-63.048 E29.9366
G1 X11.821 Y-62.332 E30.03269
G1 X9.985 Y-61.906 E30.14082
G1 X7.785 Y-61.756 E30.26734
G1 X5.762 Y-61.93 E30.38383
G1 X3.919 Y-62.567 E30.49571
G1 X2.166 Y-63.371 E30.60636
G1 X1.766 Y-63.504 E30.63055
G1 X1.088 Y-63.642 E30.67024
G1 X-.217 Y-63.697 E30.74518
G1 X-.905 Y-63.674 E30.78468
G1 X-1.352 Y-63.589 E30.81078
G1 X-2.892 Y-62.869 E30.90832
G1 X-4.334 Y-62.291 E30.99745
G1 X-6.07 Y-61.816 E31.10071
G0 F3600 X-6.132 Y-62.214
G1 F1200 X-7.792 Y-62.135 E31.19606
G1 X-10.37 Y-62.432 E31.34495
G1 X-11.459 Y-62.75 E31.41004
G1 X-12.674 Y-63.266 E31.48577
G1 X-14.367 Y-64.307 E31.5998
G1 X-15.679 Y-65.449 E31.6996
G1 X-16.501 Y-66.406 E31.77198
G1 X-17.351 Y-67.701 E31.86085
G1 X-18.144 Y-69.42 E31.96946
G1 X-18.361 Y-70.112 E32.01107
G1 X-18.706 Y-71.948 E32.11826
G1 X-18.747 Y-72.501 E32.15007
G1 X-18.619 Y-74.715 E32.27731
G1 X-18.36 Y-75.941 E32.3492
G1 X-18.013 Y-76.984 E32.41227
G1 X-17.414 Y-78.269 E32.49361
G1 X-16.626 Y-79.495 E32.57722
G1 X-15.29 Y-81.027 E32.69385
G1 X-13.538 Y-82.313 E32.81854
G1 X-11.817 Y-83.181 E32.92913
G1 X-10.891 Y-83.497 E32.98526
G1 X-9.197 Y-83.842 E33.08445
G1 X-8.196 Y-83.919 E33.14205
G1 X-6.413 Y-83.823 E33.2445
G1 X-5.123 Y-83.571 E33.31991
G1 X-3.456 Y-82.995 E33.4211
G1 X-2.238 Y-82.409 E33.49865
G1 X-1.23 Y-81.842 E33.565
G1 X-.713 Y-81.732 E33.59533
G1 X0.314 Y-81.697 E33.65428
G1 X1.023 Y-81.704 E33.69496
G1 X1.992 Y-81.752 E33.75063
G1 X2.337 Y-81.821 E33.77081
G1 X4.625 Y-82.799 E33.91357
G1 X6.291 Y-83.293 E34.01327
G1 X8.369 Y-83.378 E34.13259
G1 X10.311 Y-83.151 E34.24477
G1 X12.12 Y-82.634 E34.35272
G1 X13.684 Y-81.812 E34.45409
G1 X15.193 Y-80.745 E34.56012
G1 X16.762 Y-78.943 E34.69721
G1 X17.581 Y-77.599 E34.78751
G1 X18.21 Y-76.101 E34.88072
G1 X18.631 Y-74.318 E34.98583
G1 X18.766 Y-72.33 E35.10015
G1 X18.514 Y-70.509 E35.20563
G1 X18.202 Y-69.381 E35.27278
G1 X17.141 Y-67.146 E35.41472
G1 X16.177 Y-65.763 E35.51144
G1 X14.952 Y-64.622 E35.60749
G1 X13.164 Y-63.41 E35.73142
G1 X11.688 Y-62.712 E35.8251
G1 X9.895 Y-62.296 E35.9307
G1 X7.819 Y-62.155 E36.05008
G1 X5.843 Y-62.325 E36.16387
G1 X4.086 Y-62.931 E36.2705
G1 X2.314 Y-63.744 E36.38236
G1 X1.871 Y-63.891 E36.40914
G1 X1.135 Y-64.041 E36.45224
G1 X-.214 Y-64.098 E36.5297
G1 X-.947 Y-64.073 E36.57178
G1 X-1.476 Y-63.973 E36.60267
G1 X-3.041 Y-63.24 E36.70182
G1 X-4.44 Y-62.677 E36.78834
G1 X-6.132 Y-62.214 E36.88899
G0 F3600 X-6.194 Y-62.612
G1 F1200 X-7.811 Y-62.535 E36.98187
G1 X-10.259 Y-62.816 E37.12324
G1 X-11.304 Y-63.119 E37.18566
G1 X-12.465 Y-63.607 E37.25792
G1 X-14.104 Y-64.609 E37.36814
G1 X-15.416 Y-65.751 E37.46793
G1 X-16.167 Y-66.627 E37.53413
G1 X-16.988 Y-67.869 E37.61955
G1 X-17.762 Y-69.54 E37.72521
G1 X-17.979 Y-70.232 E37.76682
G1 X-18.307 Y-71.978 E37.86874
G1 X-18.348 Y-72.531 E37.90056
G1 X-18.228 Y-74.633 E38.02135
G1 X-17.98 Y-75.816 E38.0907
G1 X-17.65 Y-76.815 E38.15107
G1 X-17.051 Y-78.1 E38.23241
G1 X-16.29 Y-79.278 E38.31287
G1 X-15.018 Y-80.731 E38.42367
G1 X-13.357 Y-81.956 E38.54208
G1 X-11.688 Y-82.802 E38.64943
G1 X-10.762 Y-83.118 E38.70557
G1 X-9.166 Y-83.443 E38.79902
G1 X-8.165 Y-83.52 E38.85662
G1 X-6.49 Y-83.43 E38.95286
G1 X-5.2 Y-83.178 E39.02827
G1 X-3.629 Y-82.634 E39.12365
G1 X-2.434 Y-82.06 E39.19971
G1 X-1.375 Y-81.464 E39.26943
G1 X-.759 Y-81.333 E39.30557
G1 X0.304 Y-81.297 E39.36659
G1 X1.027 Y-81.304 E39.40807
G1 X2.043 Y-81.355 E39.46644
G1 X2.458 Y-81.438 E39.49072
G1 X4.739 Y-82.415 E39.63309
G1 X6.358 Y-82.895 E39.72997
G1 X8.385 Y-82.978 E39.84637
G1 X10.201 Y-82.766 E39.95127
G1 X11.973 Y-82.26 E40.057
G1 X13.453 Y-81.485 E40.15285
G1 X14.925 Y-80.444 E40.25629
G1 X16.421 Y-78.734 E40.38664
G1 X17.212 Y-77.444 E40.47346
G1 X17.841 Y-75.946 E40.56667
G1 X18.232 Y-74.291 E40.66424
G1 X18.364 Y-72.343 E40.77626
G1 X18.128 Y-70.616 E40.87627
G1 X17.816 Y-69.488 E40.94341
G1 X16.813 Y-67.375 E41.07761
G1 X15.874 Y-66.028 E41.17182
G1 X14.679 Y-64.915 E41.26551
G1 X12.993 Y-63.772 E41.38238
G1 X11.555 Y-63.092 E41.47364
G1 X9.805 Y-62.686 E41.57671
G1 X7.853 Y-62.554 E41.68896
G1 X5.924 Y-62.72 E41.80004
G1 X4.253 Y-63.295 E41.90143
G1 X2.462 Y-64.117 E42.01449
G1 X1.976 Y-64.278 E42.04387
G1 X1.182 Y-64.44 E42.09036
G1 X-.211 Y-64.499 E42.17035
G1 X-.989 Y-64.472 E42.21502
G1 X-1.6 Y-64.357 E42.25069
G1 X-3.191 Y-63.611 E42.35151
G1 X-4.546 Y-63.063 E42.43536
G1 X-6.194 Y-62.612 E42.53339
G0 F3600 X-6.256 Y-63.01
G1 F1200 X-7.83 Y-62.935 E42.6238
G1 X-10.148 Y-63.2 E42.75766
G1 X-11.149 Y-63.488 E42.81742
G1 X-12.31 Y-63.976 E42.88968
G1 X-13.841 Y-64.911 E42.9926
G1 X-15.153 Y-66.053 E43.0924
G1 X-15.834 Y-66.849 E43.1525
G1 X-16.625 Y-68.038 E43.23443
G1 X-17.38 Y-69.66 E43.33708
G1 X-17.597 Y-70.352 E43.37869
G1 X-17.908 Y-72.008 E43.47536
G1 X-17.949 Y-72.561 E43.50718
G1 X-17.836 Y-74.552 E43.62159
G1 X-17.6 Y-75.691 E43.68833
G1 X-17.287 Y-76.646 E43.74599
G1 X-16.688 Y-77.931 E43.82733
G1 X-15.989 Y-79.014 E43.90128
G1 X-14.743 Y-80.437 E44.0098
G1 X-13.176 Y-81.6 E44.12176
G1 X-11.559 Y-82.423 E44.22586
G1 X-10.633 Y-82.739 E44.282
G1 X-9.135 Y-83.044 E44.36971
G1 X-8.134 Y-83.121 E44.42731
G1 X-6.567 Y-83.037 E44.51734
G1 X-5.277 Y-82.785 E44.59275
G1 X-3.802 Y-82.273 E44.68233
G1 X-2.63 Y-81.711 E44.7569
G1 X-1.52 Y-81.086 E44.82999
G1 X-.98 Y-80.971 E44.86167
G1 X-.457 Y-80.922 E44.89181
G1 X0.295 Y-80.897 E44.93497
G1 X1.047 Y-80.904 E44.97812
G1 X2.089 Y-80.956 E45.03798
G1 X2.581 Y-81.055 E45.06677
G1 X4.853 Y-82.031 E45.20864
G1 X6.425 Y-82.497 E45.30272
G1 X8.401 Y-82.578 E45.41618
G1 X10.091 Y-82.381 E45.5138
G1 X11.824 Y-81.886 E45.6172
G1 X13.222 Y-81.158 E45.70764
G1 X14.658 Y-80.143 E45.80853
