;FLAVOR:Marlin
;TIME:8327
;Filament used: 15.1613m
;Layer height: 0.15
;MINX:-51.5
;MINY:-40
;MINZ:0.3
;MAXX:51.5
;MAXY:40
;MAXZ:36.53
;Generated with Cura_SteamEngine 4.12.1
M140 S50
M105
M190 S50
M104 S210
M105
M109 S210
M82 ;absolute extrusion mode
;FLAVOR:Marlin
M82 ;absolute extrusion mode
G21
G90
M82
M107 T0
G28
G92 E0
G0 E3 F200
G92 E0 ; reset extrusion distance
M106 S255 ; Enable cooling fan full speed
G1 X-98 Y0 Z0.4 F3000 ; move to arc start
G3 X0 Y-98 I98 Z0.4 E40 F400 ; lay arc stripe 90deg
G92 E0 ; reset extrusion distance
G4 P500 ; wait for 0.5 sec
G0 Z10 E-1 ; Lift 15mm and retract 1mm filament
G4 P2000 ; wait for 5 sec
G0 Z15
M107 ; Disable cooling fan
G1 X0 Y-85 Z4 E0 F3000 ; get off the bed
G92 E0
G92 E0
G1 F1500 E-6.5
;LAYER_COUNT:152
;LAYER:0
M106 S25.5
G1 F600 Z1.3
G0 F3600 X-45.521 Y-39.513 Z1.3
;TYPE:SKIRT
G1 F600 Z0.3
G1 F1500 E0.24945
G1 F2400 X-46.43 Y-39.424 E0.29502
G1 X-46.906 Y-39.33 E0.31922
G1 X-47.389 Y-39.17 E0.34461
G1 X-48.28 Y-38.759 E0.39356
G1 X-49.035 Y-38.218 E0.4399
G1 X-49.426 Y-37.869 E0.46605
G1 X-50.008 Y-37.158 E0.51189
G1 X-50.273 Y-36.756 E0.53591
G1 X-50.672 Y-35.885 E0.58371
G1 X-50.832 Y-35.401 E0.60914
G1 X-50.983 Y-34.461 E0.65664
G1 X-51.011 Y-34.035 E0.67794
G1 X-51.013 Y34.022 E4.07331
G1 X-50.924 Y34.933 E4.11898
G1 X-50.824 Y35.434 E4.14447
G1 X-50.486 Y36.333 E4.19239
G1 X-50.234 Y36.822 E4.21983
G1 X-49.723 Y37.531 E4.26343
G1 X-49.371 Y37.924 E4.28975
G1 X-48.661 Y38.506 E4.33556
G1 X-48.277 Y38.76 E4.35853
G1 X-47.387 Y39.17 E4.40741
G1 X-46.925 Y39.325 E4.43173
G1 X-46.43 Y39.425 E4.45692
G1 X-45.522 Y39.512 E4.50243
G1 X45.533 Y39.512 E9.04518
G1 X46.436 Y39.424 E9.09044
G1 X46.906 Y39.33 E9.11436
G1 X47.389 Y39.17 E9.13974
G1 X48.28 Y38.759 E9.1887
G1 X49.035 Y38.218 E9.23503
G1 X49.426 Y37.869 E9.26118
G1 X50.008 Y37.158 E9.30702
G1 X50.273 Y36.756 E9.33104
G1 X50.672 Y35.885 E9.37884
G1 X50.832 Y35.401 E9.40427
G1 X50.983 Y34.461 E9.45177
G1 X51.011 Y34.035 E9.47307
G1 X51.013 Y-34.022 E12.86845
G1 X50.924 Y-34.935 E12.91421
G1 X50.814 Y-35.469 E12.94141
G1 X50.482 Y-36.339 E12.98787
G1 X50.221 Y-36.842 E13.01614
G1 X49.718 Y-37.535 E13.05886
G1 X49.371 Y-37.924 E13.08487
G1 X48.661 Y-38.506 E13.13067
G1 X48.255 Y-38.774 E13.15494
G1 X47.387 Y-39.17 E13.20254
G1 X46.922 Y-39.326 E13.22701
G1 X45.961 Y-39.483 E13.27559
G1 X45.535 Y-39.511 E13.29689
G1 X-45.521 Y-39.513 E17.83969
G0 F3600 X-45.562 Y-39.59
G1 F2400 X-44.834 Y-39.6 E17.87602
G1 X44.84 Y-39.6 E22.34987
G1 X45.557 Y-39.59 E22.38565
G1 X46.11 Y-39.546 E22.41332
G1 X46.654 Y-39.465 E22.44076
G1 X47.156 Y-39.336 E22.46662
G1 X47.937 Y-39.022 E22.50862
G1 X48.383 Y-38.786 E22.53379
G1 X48.922 Y-38.403 E22.56678
G1 X49.328 Y-38.069 E22.59301
G1 X49.687 Y-37.693 E22.61894
G1 X50.121 Y-37.131 E22.65437
G1 X50.423 Y-36.644 E22.68296
G1 X50.434 Y-36.623 E22.68414
G1 X50.713 Y-35.983 E22.71897
G1 X50.89 Y-35.48 E22.74557
G1 X51.009 Y-34.892 E22.7755
G1 X51.076 Y-34.337 E22.80339
G1 X51.09 Y-34.062 E22.81713
G1 X51.1 Y-33.339 E22.85321
G1 X51.1 Y33.34 E26.17984
G1 X51.09 Y34.058 E26.21566
G1 X51.05 Y34.581 E26.24183
G1 X50.982 Y35.055 E26.26572
G1 X50.871 Y35.545 E26.29078
G1 X50.706 Y36.01 E26.3154
G1 X50.486 Y36.513 E26.34279
G1 X50.23 Y36.972 E26.36901
G1 X49.908 Y37.416 E26.39637
G1 X49.561 Y37.838 E26.42363
G1 X49.205 Y38.177 E26.44816
G1 X48.631 Y38.621 E26.48436
G1 X48.144 Y38.923 E26.51295
G1 X48.118 Y38.936 E26.5144
G1 X47.497 Y39.207 E26.5482
G1 X46.978 Y39.391 E26.57568
G1 X46.385 Y39.51 E26.60585
G1 X45.837 Y39.576 E26.63339
G1 X45.562 Y39.59 E26.64713
G1 X44.834 Y39.6 E26.68345
G1 X-44.84 Y39.6 E31.1573
G1 X-45.557 Y39.59 E31.19308
G1 X-46.11 Y39.546 E31.22075
G1 X-46.654 Y39.465 E31.24819
G1 X-47.16 Y39.335 E31.27426
G1 X-47.936 Y39.022 E31.316
G1 X-48.383 Y38.786 E31.34122
G1 X-48.922 Y38.403 E31.37421
G1 X-49.333 Y38.065 E31.40076
G1 X-49.69 Y37.689 E31.42663
G1 X-50.121 Y37.131 E31.4618
G1 X-50.438 Y36.614 E31.49206
G1 X-50.71 Y35.989 E31.52606
G1 X-50.892 Y35.472 E31.55341
G1 X-51.011 Y34.879 E31.58358
G1 X-51.076 Y34.337 E31.61082
G1 X-51.091 Y34.046 E31.62536
G1 X-51.1 Y33.339 E31.66063
G1 X-51.1 Y-33.34 E34.98726
G1 X-51.09 Y-34.06 E35.02318
G1 X-51.086 Y-34.152 E35.02778
G1 X-50.999 Y-34.935 E35.06708
G1 X-50.907 Y-35.417 E35.09156
G1 X-50.698 Y-36.03 E35.12387
G1 X-50.486 Y-36.513 E35.15019
G1 X-50.226 Y-36.98 E35.17686
G1 X-49.913 Y-37.41 E35.20339
G1 X-49.565 Y-37.833 E35.23072
G1 X-49.187 Y-38.191 E35.25669
G1 X-48.633 Y-38.62 E35.29165
G1 X-48.108 Y-38.941 E35.32235
G1 X-47.488 Y-39.211 E35.35609
G1 X-46.98 Y-39.39 E35.38296
G1 X-46.385 Y-39.51 E35.41324
G1 X-45.837 Y-39.576 E35.44078
G1 X-45.562 Y-39.59 E35.45452
G0 F3600 X-45.567 Y-39.99
G1 F2400 X-44.839 Y-40 E35.49084
G1 X44.845 Y-40 E39.96519
G1 X45.579 Y-39.99 E40.00182
G1 X46.157 Y-39.944 E40.03074
G1 X46.727 Y-39.859 E40.0595
G1 X47.282 Y-39.716 E40.08809
G1 X48.11 Y-39.383 E40.13261
G1 X48.592 Y-39.128 E40.15982
G1 X49.164 Y-38.722 E40.19481
G1 X49.598 Y-38.365 E40.22285
G1 X49.992 Y-37.952 E40.25133
G1 X50.449 Y-37.361 E40.2886
G1 X50.772 Y-36.839 E40.31922
G1 X50.801 Y-36.783 E40.32237
G1 X51.08 Y-36.143 E40.3572
G1 X51.277 Y-35.586 E40.38668
G1 X51.405 Y-34.949 E40.41909
G1 X51.415 Y-34.879 E40.42262
G1 X51.474 Y-34.372 E40.44809
G1 X51.49 Y-34.067 E40.46332
G1 X51.5 Y-33.339 E40.49965
G1 X51.5 Y33.345 E43.82653
G1 X51.49 Y34.079 E43.86315
G1 X51.448 Y34.623 E43.89037
G1 X51.376 Y35.124 E43.91562
G1 X51.255 Y35.659 E43.94299
G1 X51.076 Y36.163 E43.96967
G1 X50.845 Y36.69 E43.99838
G1 X50.566 Y37.191 E44.02699
G1 X50.227 Y37.658 E44.05578
G1 X49.856 Y38.108 E44.08487
G1 X49.464 Y38.482 E44.1119
G1 X48.861 Y38.949 E44.14995
G1 X48.339 Y39.272 E44.18058
G1 X48.283 Y39.301 E44.18373
G1 X47.647 Y39.578 E44.21834
G1 X47.086 Y39.777 E44.24803
G1 X46.449 Y39.905 E44.28045
G1 X46.379 Y39.915 E44.28398
G1 X45.872 Y39.974 E44.30944
G1 X45.567 Y39.99 E44.32468
G1 X44.839 Y40 E44.361
G1 X-44.845 Y40 E48.83535
G1 X-45.579 Y39.99 E48.87198
G1 X-46.157 Y39.944 E48.9009
G1 X-46.727 Y39.859 E48.92966
G1 X-47.286 Y39.715 E48.95846
G1 X-48.11 Y39.383 E49.00278
G1 X-48.592 Y39.128 E49.02998
G1 X-49.164 Y38.722 E49.06498
G1 X-49.608 Y38.356 E49.09368
G1 X-49.992 Y37.952 E49.12149
G1 X-50.453 Y37.355 E49.15912
G1 X-50.78 Y36.824 E49.19023
G1 X-50.801 Y36.783 E49.19253
G1 X-51.08 Y36.143 E49.22736
G1 X-51.279 Y35.577 E49.2573
G1 X-51.405 Y34.949 E49.28925
G1 X-51.415 Y34.879 E49.29278
G1 X-51.474 Y34.372 E49.31825
G1 X-51.491 Y34.051 E49.33428
G1 X-51.5 Y33.339 E49.36981
G1 X-51.5 Y-33.345 E52.69669
G1 X-51.49 Y-34.079 E52.73331
G1 X-51.485 Y-34.183 E52.7385
G1 X-51.396 Y-34.988 E52.77891
G1 X-51.294 Y-35.521 E52.80598
G1 X-51.073 Y-36.17 E52.84019
G1 X-50.845 Y-36.69 E52.86851
G1 X-50.565 Y-37.193 E52.89724
G1 X-50.222 Y-37.664 E52.9263
G1 X-49.856 Y-38.108 E52.95501
G1 X-49.452 Y-38.492 E52.98282
G1 X-48.861 Y-38.949 E53.02009
G1 X-48.436 Y-39.219 E53.04521
G1 X-48.283 Y-39.301 E53.05387
G1 X-47.643 Y-39.58 E53.0887
G1 X-47.086 Y-39.777 E53.11818
G1 X-46.449 Y-39.905 E53.15059
G1 X-46.379 Y-39.915 E53.15412
G1 X-45.872 Y-39.974 E53.17959
G1 X-45.567 Y-39.99 E53.19482
G0 F3600 X-45.508 Y-39.113
G1 F2400 X-46.368 Y-39.029 E53.23793
G1 X-46.793 Y-38.946 E53.25954
G1 X-47.672 Y-38.618 E53.30635
G1 X-48.126 Y-38.384 E53.33183
G1 X-48.781 Y-37.909 E53.37219
G1 X-49.134 Y-37.595 E53.39576
G1 X-49.683 Y-36.924 E53.43902
G1 X-49.922 Y-36.564 E53.46058
G1 X-50.297 Y-35.745 E53.50552
G1 X-50.459 Y-35.241 E53.53193
G1 X-50.585 Y-34.423 E53.57322
G1 X-50.611 Y-34.022 E53.59327
G1 X-50.613 Y34.009 E56.98735
G1 X-50.529 Y34.87 E57.03051
G1 X-50.439 Y35.323 E57.05355
G1 X-50.122 Y36.166 E57.09848
G1 X-49.896 Y36.608 E57.12325
G1 X-49.413 Y37.277 E57.16441
G1 X-49.097 Y37.632 E57.18813
G1 X-48.427 Y38.181 E57.23134
G1 X-48.084 Y38.409 E57.25189
G1 X-47.245 Y38.796 E57.29798
G1 X-46.831 Y38.936 E57.31979
G1 X-45.907 Y39.087 E57.3665
G1 X-45.509 Y39.112 E57.38639
G1 X45.52 Y39.112 E61.92785
G1 X46.373 Y39.029 E61.97061
G1 X46.793 Y38.946 E61.99197
G1 X47.672 Y38.618 E62.03877
G1 X48.126 Y38.384 E62.06425
G1 X48.781 Y37.909 E62.10462
G1 X49.134 Y37.595 E62.12819
G1 X49.683 Y36.924 E62.17144
G1 X49.922 Y36.564 E62.193
G1 X50.297 Y35.745 E62.23794
G1 X50.459 Y35.241 E62.26435
G1 X50.585 Y34.423 E62.30565
G1 X50.611 Y34.022 E62.32569
G1 X50.613 Y-34.009 E65.71977
G1 X50.529 Y-34.871 E65.76298
G1 X50.431 Y-35.352 E65.78747
G1 X50.119 Y-36.171 E65.8312
G1 X49.884 Y-36.626 E65.85675
G1 X49.409 Y-37.281 E65.89711
G1 X49.097 Y-37.632 E65.92054
G1 X48.427 Y-38.181 E65.96376
G1 X48.063 Y-38.423 E65.98556
G1 X47.244 Y-38.796 E66.03046
G1 X46.83 Y-38.936 E66.05227
G1 X45.923 Y-39.085 E66.09812
G1 X45.522 Y-39.111 E66.11817
G1 X-45.508 Y-39.113 E70.65968
G0 F3600 X-45.495 Y-38.713
G1 F2400 X45.509 Y-38.711 E75.19988
G1 X46.304 Y-38.634 E75.23973
G1 X46.762 Y-38.54 E75.26306
G1 X47.495 Y-38.259 E75.30222
G1 X47.894 Y-38.058 E75.32451
G1 X48.527 Y-37.6 E75.36349
G1 X48.84 Y-37.323 E75.38435
G1 X49.356 Y-36.693 E75.42497
G1 X49.756 Y-36.003 E75.46476
G1 X50.048 Y-35.235 E75.50575
G1 X50.189 Y-34.374 E75.54928
G1 X50.213 Y-33.996 E75.56818
G1 X50.211 Y34.009 E78.96096
G1 X50.134 Y34.804 E79.00081
G1 X50.062 Y35.18 E79.01991
G1 X49.758 Y35.999 E79.06349
G1 X49.558 Y36.394 E79.08558
G1 X49.104 Y37.023 E79.12428
G1 X48.823 Y37.34 E79.14542
G1 X48.193 Y37.856 E79.18605
G1 X47.504 Y38.255 E79.22577
G1 X46.681 Y38.562 E79.26959
G1 X45.888 Y38.688 E79.30965
G1 X45.507 Y38.712 E79.3287
G1 X-45.497 Y38.712 E83.8689
G1 X-46.301 Y38.635 E83.9092
G1 X-46.762 Y38.54 E83.93268
G1 X-47.498 Y38.258 E83.972
G1 X-47.911 Y38.047 E83.99514
G1 X-48.527 Y37.6 E84.03311
G1 X-48.842 Y37.321 E84.05411
G1 X-49.358 Y36.691 E84.09474
G1 X-49.571 Y36.372 E84.11387
G1 X-49.922 Y35.605 E84.15595
G1 X-50.061 Y35.186 E84.17798
G1 X-50.189 Y34.374 E84.21899
G1 X-50.213 Y33.996 E84.23789
G1 X-50.211 Y-34.009 E87.63067
G1 X-50.134 Y-34.804 E87.67052
G1 X-50.062 Y-35.18 E87.68962
G1 X-49.758 Y-35.999 E87.7332
G1 X-49.558 Y-36.394 E87.75529
G1 X-49.104 Y-37.023 E87.79399
G1 X-48.823 Y-37.34 E87.81513
G1 X-48.193 Y-37.856 E87.85575
G1 X-47.504 Y-38.255 E87.89548
G1 X-46.681 Y-38.562 E87.9393
G1 X-45.872 Y-38.689 E87.98015
G1 X-45.495 Y-38.713 E87.999
G0 F3600 X-45.495 Y-38.313
G1 F2400 X45.509 Y-38.311 E92.53921
G1 X46.254 Y-38.237 E92.57656
G1 X46.949 Y-38.053 E92.61243
G1 X47.669 Y-37.726 E92.65188
G1 X48.284 Y-37.283 E92.68969
G1 X48.783 Y-36.784 E92.7249
G1 X49.204 Y-36.206 E92.76058
G1 X49.55 Y-35.456 E92.80178
G1 X49.669 Y-35.105 E92.82027
G1 X49.792 Y-34.324 E92.85972
G1 X49.813 Y-33.996 E92.87612
G1 X49.811 Y34.009 E96.2689
G1 X49.737 Y34.754 E96.30625
G1 X49.552 Y35.451 E96.34223
G1 X49.226 Y36.169 E96.38157
G1 X48.786 Y36.78 E96.41913
G1 X48.284 Y37.283 E96.45459
G1 X47.706 Y37.704 E96.49026
G1 X46.955 Y38.051 E96.53154
G1 X46.259 Y38.237 E96.56748
G1 X45.507 Y38.312 E96.60518
G1 X-45.497 Y38.312 E101.14539
G1 X-46.251 Y38.238 E101.18319
G1 X-46.95 Y38.052 E101.21927
G1 X-47.686 Y37.716 E101.25964
G1 X-48.284 Y37.283 E101.29647
G1 X-48.786 Y36.78 E101.33193
G1 X-49.213 Y36.191 E101.36822
G1 X-49.552 Y35.451 E101.40883
G1 X-49.737 Y34.757 E101.44466
G1 X-49.813 Y33.996 E101.48282
G1 X-49.811 Y-34.009 E104.8756
G1 X-49.737 Y-34.754 E104.91295
G1 X-49.552 Y-35.451 E104.94893
G1 X-49.226 Y-36.169 E104.98827
G1 X-48.786 Y-36.78 E105.02584
G1 X-48.284 Y-37.283 E105.06129
G1 X-47.706 Y-37.704 E105.09696
G1 X-46.955 Y-38.051 E105.13824
G1 X-46.256 Y-38.237 E105.17432
G1 X-45.495 Y-38.313 E105.21248
G0 F3600 X-45.495 Y-37.913
G1 F2400 X45.509 Y-37.911 E109.75269
G1 X46.204 Y-37.841 E109.78754
G1 X46.796 Y-37.683 E109.81811
G1 X47.465 Y-37.382 E109.85471
G1 X48.04 Y-36.965 E109.89014
G1 X48.465 Y-36.54 E109.92013
G1 X48.861 Y-36 E109.95354
G1 X49.181 Y-35.302 E109.99184
G1 X49.34 Y-34.706 E110.02262
G1 X49.413 Y-33.996 E110.05823
G1 X49.411 Y34.009 E113.45101
G1 X49.341 Y34.704 E113.48586
G1 X49.183 Y35.297 E113.51648
G1 X48.882 Y35.965 E113.55303
G1 X48.468 Y36.537 E113.58826
G1 X48.04 Y36.965 E113.61846
G1 X47.5 Y37.361 E113.65187
G1 X46.801 Y37.682 E113.69024
G1 X46.208 Y37.84 E113.72086
G1 X45.507 Y37.912 E113.75601
G1 X-45.497 Y37.912 E118.29622
G1 X-46.201 Y37.841 E118.33152
G1 X-46.797 Y37.683 E118.36228
G1 X-47.48 Y37.373 E118.3997
G1 X-48.04 Y36.965 E118.43427
G1 X-48.468 Y36.537 E118.46447
G1 X-48.869 Y35.987 E118.49843
G1 X-49.183 Y35.297 E118.53625
G1 X-49.34 Y34.706 E118.56676
G1 X-49.413 Y33.996 E118.60237
G1 X-49.411 Y-34.009 E121.99515
G1 X-49.341 Y-34.704 E122.03
G1 X-49.183 Y-35.297 E122.06062
G1 X-48.882 Y-35.965 E122.09717
G1 X-48.468 Y-36.537 E122.1324
G1 X-48.04 Y-36.965 E122.16259
G1 X-47.5 Y-37.361 E122.196
G1 X-46.801 Y-37.682 E122.23438
G1 X-46.206 Y-37.841 E122.2651
G1 X-45.495 Y-37.913 E122.30076
G0 F3600 X-45.495 Y-37.513
G1 F2400 X45.509 Y-37.511 E126.84097
G1 X46.154 Y-37.444 E126.87332
G1 X46.643 Y-37.314 E126.89856
G1 X47.262 Y-37.038 E126.93237
G1 X47.797 Y-36.648 E126.9654
G1 X48.148 Y-36.297 E126.99017
G1 X48.518 Y-35.794 E127.02132
G1 X48.812 Y-35.148 E127.05673
G1 X48.944 Y-34.656 E127.08215
G1 X49.013 Y-33.996 E127.11525
G1 X49.011 Y34.009 E130.50804
G1 X48.944 Y34.654 E130.54039
G1 X48.814 Y35.144 E130.56568
G1 X48.538 Y35.762 E130.59945
G1 X48.151 Y36.294 E130.63227
G1 X47.797 Y36.648 E130.65725
G1 X47.294 Y37.018 E130.6884
G1 X46.647 Y37.313 E130.72387
G1 X46.157 Y37.443 E130.74917
G1 X45.507 Y37.512 E130.78178
G1 X-45.497 Y37.512 E135.32198
G1 X-46.152 Y37.444 E135.35484
G1 X-46.643 Y37.313 E135.38019
G1 X-47.274 Y37.03 E135.41469
G1 X-47.797 Y36.648 E135.447
G1 X-48.151 Y36.294 E135.47198
G1 X-48.525 Y35.784 E135.50353
G1 X-48.814 Y35.144 E135.53857
G1 X-48.944 Y34.656 E135.56376
G1 X-49.013 Y33.996 E135.59687
G1 X-49.011 Y-34.009 E138.98965
G1 X-48.944 Y-34.654 E139.02201
G1 X-48.814 Y-35.144 E139.0473
G1 X-48.538 Y-35.762 E139.08107
G1 X-48.151 Y-36.294 E139.11389
G1 X-47.797 Y-36.648 E139.13886
G1 X-47.294 Y-37.018 E139.17002
G1 X-46.647 Y-37.313 E139.20549
G1 X-46.155 Y-37.444 E139.23089
G1 X-45.495 Y-37.513 E139.264
G0 F3600 X-45.495 Y-37.113
G1 F2400 X45.509 Y-37.111 E143.80421
G1 X46.104 Y-37.047 E143.83406
G1 X46.489 Y-36.944 E143.85395
G1 X47.058 Y-36.693 E143.88497
G1 X47.554 Y-36.33 E143.91564
G1 X47.83 Y-36.054 E143.93511
G1 X48.175 Y-35.588 E143.96404
G1 X48.443 Y-34.994 E143.99655
G1 X48.547 Y-34.605 E144.01664
G1 X48.613 Y-33.996 E144.0472
G1 X48.611 Y34.009 E147.43998
G1 X48.547 Y34.604 E147.46984
G1 X48.445 Y34.99 E147.48976
G1 X48.193 Y35.558 E147.52076
G1 X47.833 Y36.051 E147.55121
G1 X47.554 Y36.33 E147.5709
G1 X47.088 Y36.675 E147.59983
G1 X46.493 Y36.944 E147.6324
G1 X46.107 Y37.047 E147.65234
G1 X45.507 Y37.112 E147.68244
G1 X-45.497 Y37.112 E152.22265
G1 X-46.102 Y37.047 E152.25301
G1 X-46.49 Y36.944 E152.27304
G1 X-47.068 Y36.687 E152.3046
G1 X-47.554 Y36.33 E152.33468
G1 X-47.833 Y36.051 E152.35437
G1 X-48.18 Y35.58 E152.38355
G1 X-48.445 Y34.99 E152.41582
G1 X-48.547 Y34.605 E152.43569
G1 X-48.613 Y33.996 E152.46625
G1 X-48.611 Y-34.009 E155.85904
G1 X-48.547 Y-34.604 E155.88889
G1 X-48.445 Y-34.99 E155.90881
G1 X-48.193 Y-35.558 E155.93981
G1 X-47.833 Y-36.051 E155.97027
G1 X-47.554 Y-36.33 E155.98995
G1 X-47.088 Y-36.675 E156.01888
G1 X-46.493 Y-36.944 E156.05146
G1 X-46.105 Y-37.047 E156.07148
G1 X-45.495 Y-37.113 E156.1021
G0 F3600 X-45.495 Y-36.713
G1 F2400 X45.509 Y-36.711 E160.6423
G1 X46.053 Y-36.65 E160.66961
G1 X46.336 Y-36.575 E160.68422
G1 X46.855 Y-36.349 E160.71246
G1 X47.31 Y-36.013 E160.74068
G1 X47.513 Y-35.81 E160.755
G1 X47.832 Y-35.382 E160.78163
