;FLAVOR:Marlin
;TIME:10218
;Filament used: 4.23848m
;Layer height: 0.1
;MINX:-17.212
;MINY:-87.148
;MINZ:0.3
;MAXX:66.92
;MAXY:0
;MAXZ:24.1
;TARGET_MACHINE.NAME:Unknown
;POSTPROCESSED
;  [CreateThumbnail]
;Generated with Cura_SteamEngine 5.11.0
;
;

M140 S50
M105
M190 S50
M104 S230
M105
M109 S230
;FLAVOR:Marlin
M82 ;absolute extrusion mode
G21
G90
M82
M107 T0
G28
G92 E0
G0 E3 F200
G92 E0 ; reset extrusion distance
M106 S255 ; Enable cooling fan full speed
G1 X-98 Y0 Z0.4 F3000 ; move to arc start
G3 X0 Y-98 I98 Z0.4 E40 F400 ; lay arc stripe 90deg
G92 E0 ; reset extrusion distance
G4 P500 ; wait for 0.5 sec
G0 Z10 E-1 ; Lift 15mm and retract 1mm filament
G4 P2000 ; wait for 5 sec
G0 Z15
M107 ; Disable cooling fan
G1 X0 Y-85 Z4 E0 F3000 ; get off the bed
M82 ;absolute extrusion mode
G92 E0
G92 E0
G1 F1500 E-6.5
;LAYER_COUNT:239
;LAYER:0
M107
G1 F600 Z1.3
G0 F3600 X0.00 Y0.00 Z1.3
G0 X24.575 Y-15.391
;TYPE:SKIRT
G1 F600 Z0.3
G1 F1500 E0
G1 F1200 X23.088 Y-17.657 E0.10818
G1 X21.514 Y-19.916 E0.21806
G1 X19.903 Y-22.09 E0.32606
G1 X18.167 Y-24.302 E0.43829
G1 X16.399 Y-26.427 E0.54862
G1 X14.618 Y-28.447 E0.6561
G1 X12.725 Y-30.478 E0.76692
G1 X11.299 Y-31.934 E0.84826
G1 X10.504 Y-32.729 E0.89313
G1 X8.561 Y-34.617 E1.00126
G1 X6.478 Y-36.53 E1.11414
G1 X4.46 Y-38.284 E1.22085
G1 X2.282 Y-40.069 E1.33324
G1 X0.105 Y-41.753 E1.4431
G1 X-2.073 Y-43.338 E1.55061
G1 X-4.361 Y-44.909 E1.66138
G1 X-6.69 Y-46.412 E1.77201
G1 X-9 Y-47.811 E1.8798
G1 X-11.419 Y-49.186 E1.99085
G1 X-12.477 Y-49.776 E2.0392
G1 X-13.47 Y-50.439 E2.08686
G1 X-14.579 Y-51.568 E2.15002
G1 X-15.307 Y-52.612 E2.20082
G1 X-15.808 Y-53.657 E2.24707
G1 X-16.224 Y-55.042 E2.30479
G1 X-16.342 Y-56.478 E2.3623
G1 X-16.208 Y-57.939 E2.42085
G1 X-15.91 Y-59.059 E2.46711
G1 X-15.257 Y-60.469 E2.52913
G1 X-14.61 Y-61.407 E2.57461
G1 X-13.621 Y-62.422 E2.63117
G1 X-12.842 Y-62.998 E2.66984
G1 X-10.691 Y-64.506 E2.77469
G1 X-8.485 Y-66.146 E2.8844
G1 X-6.342 Y-67.837 E2.99335
G1 X-4.235 Y-69.596 E3.1029
G1 X-2.193 Y-71.406 E3.21181
G1 X-.186 Y-73.287 E3.32159
G1 X1.796 Y-75.252 E3.43299
G1 X3.669 Y-77.218 E3.54136
G1 X5.498 Y-79.247 E3.65039
G1 X7.845 Y-82.029 E3.79566
G1 X8.612 Y-82.957 E3.84371
G1 X9.539 Y-83.863 E3.89545
G1 X10.468 Y-84.519 E3.94084
G1 X11.757 Y-85.144 E3.99801
G1 X12.933 Y-85.481 E4.04684
G1 X14.473 Y-85.632 E4.1086
G1 X15.721 Y-85.545 E4.15853
G1 X17.142 Y-85.161 E4.21728
G1 X18.133 Y-84.723 E4.26052
G1 X19.415 Y-83.885 E4.32165
G1 X20.496 Y-82.785 E4.38321
G1 X20.905 Y-82.22 E4.41105
G1 X21.242 Y-81.702 E4.43571
G1 X22.65 Y-79.12 E4.55309
G1 X24.032 Y-76.745 E4.66276
G1 X25.465 Y-74.436 E4.77123
G1 X26.977 Y-72.145 E4.88078
G1 X28.577 Y-69.869 E4.99182
G1 X30.215 Y-67.669 E5.10129
G1 X31.905 Y-65.532 E5.21004
G1 X33.681 Y-63.407 E5.32057
G1 X35.507 Y-61.35 E5.43035
G1 X37.382 Y-59.351 E5.53974
G1 X39.33 Y-57.389 E5.65009
G1 X41.347 Y-55.467 E5.76129
G1 X43.342 Y-53.674 E5.86835
G1 X45.474 Y-51.865 E5.97994
G1 X47.595 Y-50.162 E6.08851
G1 X49.801 Y-48.496 E6.19884
G1 X52.05 Y-46.893 E6.30907
G1 X54.345 Y-45.353 E6.41938
G1 X56.621 Y-43.918 E6.52677
G1 X58.989 Y-42.517 E6.63658
G1 X61.382 Y-41.209 E6.74543
G1 X62.303 Y-40.686 E6.7877
G1 X63.345 Y-39.954 E6.83853
G1 X64.211 Y-39.099 E6.8871
G1 X65.068 Y-37.909 E6.94563
G1 X65.664 Y-36.592 E7.00332
G1 X65.983 Y-35.415 E7.05199
G1 X66.108 Y-34.271 E7.09793
G1 X66.019 Y-32.675 E7.16172
G1 X65.608 Y-31.058 E7.22831
G1 X65.109 Y-29.94 E7.27718
G1 X64.265 Y-28.69 E7.33738
G1 X63.52 Y-27.915 E7.38028
G1 X62.113 Y-26.632 E7.45628
G1 X60.104 Y-24.735 E7.56656
G1 X58.136 Y-22.768 E7.67762
G1 X56.259 Y-20.784 E7.78662
G1 X54.456 Y-18.761 E7.89478
G1 X52.669 Y-16.641 E8.00544
G1 X50.935 Y-14.465 E8.1165
G1 X49.334 Y-12.33 E8.22301
G1 X47.7 Y-10.021 E8.3359
G1 X46.183 Y-7.743 E8.44514
G1 X44.059 Y-4.305 E8.60643
G1 X43.516 Y-3.5 E8.64519
G1 X42.43 Y-2.362 E8.70797
G1 X41.375 Y-1.613 E8.75961
G1 X40.024 Y-.971 E8.81931
G1 X38.954 Y-.665 E8.86373
G1 X37.379 Y-.51 E8.92689
G1 X36.127 Y-.597 E8.97698
G1 X34.706 Y-.982 E9.03574
G1 X33.716 Y-1.42 E9.07895
G1 X32.35 Y-2.344 E9.14477
G1 X31.53 Y-3.145 E9.19052
G1 X30.617 Y-4.417 E9.25302
G1 X29.96 Y-5.766 E9.3129
G1 X28.71 Y-8.245 E9.42371
G1 X27.412 Y-10.643 E9.53254
G1 X26.057 Y-12.983 E9.64047
G1 X24.575 Y-15.391 E9.75332
G0 F3600 X24.916 Y-15.601
G1 F1200 X23.422 Y-17.877 E9.86198
G1 X21.842 Y-20.145 E9.9723
G1 X20.218 Y-22.337 E10.08118
G1 X18.482 Y-24.549 E10.19341
G1 X16.707 Y-26.683 E10.3042
G1 X14.918 Y-28.712 E10.41216
G1 X13.018 Y-30.751 E10.5234
G1 X11.585 Y-32.214 E10.60513
G1 X10.787 Y-33.012 E10.65018
G1 X8.832 Y-34.912 E10.75898
G1 X6.749 Y-36.825 E10.87186
G1 X4.714 Y-38.593 E10.97945
G1 X2.536 Y-40.378 E11.09185
G1 X0.35 Y-42.069 E11.20215
G1 X-1.847 Y-43.668 E11.31061
G1 X-4.135 Y-45.239 E11.42138
G1 X-6.473 Y-46.748 E11.53244
G1 X-8.802 Y-48.159 E11.64113
G1 X-11.221 Y-49.534 E11.75218
G1 X-12.255 Y-50.109 E11.7994
G1 X-13.216 Y-50.751 E11.84553
G1 X-14.252 Y-51.798 E11.90432
G1 X-14.946 Y-52.785 E11.95247
G1 X-15.447 Y-53.83 E11.99873
G1 X-15.828 Y-55.113 E12.05214
G1 X-15.943 Y-56.511 E12.10813
G1 X-15.821 Y-57.836 E12.16124
G1 X-15.523 Y-58.956 E12.20749
G1 X-14.927 Y-60.243 E12.2641
G1 X-14.322 Y-61.129 E12.30692
G1 X-13.383 Y-62.1 E12.36083
G1 X-12.612 Y-62.67 E12.3991
G1 X-10.461 Y-64.178 E12.50395
G1 X-8.246 Y-65.825 E12.61412
G1 X-6.094 Y-67.523 E12.72352
G1 X-3.979 Y-69.289 E12.8335
G1 X-1.919 Y-71.114 E12.94334
G1 X0.088 Y-72.995 E13.05313
G1 X2.078 Y-74.968 E13.16497
G1 X3.959 Y-76.942 E13.2738
G1 X5.804 Y-78.989 E13.38379
G1 X8.151 Y-81.771 E13.52906
G1 X8.893 Y-82.672 E13.57564
G1 X9.77 Y-83.536 E13.62478
G1 X10.699 Y-84.192 E13.67017
G1 X11.867 Y-84.759 E13.72199
G1 X13.043 Y-85.096 E13.77082
G1 X14.445 Y-85.233 E13.82704
G1 X15.657 Y-85.149 E13.87553
G1 X16.98 Y-84.795 E13.93019
G1 X17.971 Y-84.357 E13.97344
G1 X19.159 Y-83.575 E14.0302
G1 X20.172 Y-82.55 E14.08772
G1 X20.57 Y-82.001 E14.11478
G1 X20.891 Y-81.51 E14.1382
G1 X22.304 Y-78.919 E14.25599
G1 X23.692 Y-76.534 E14.36612
G1 X25.131 Y-74.216 E14.47502
G1 X26.65 Y-71.915 E14.58506
G1 X28.256 Y-69.63 E14.69653
G1 X29.901 Y-67.421 E14.80646
G1 X31.598 Y-65.275 E14.91566
G1 X33.382 Y-63.141 E15.02667
G1 X35.215 Y-61.076 E15.13688
G1 X37.098 Y-59.069 E15.24672
G1 X39.054 Y-57.099 E15.35752
G1 X41.071 Y-55.177 E15.46872
G1 X43.083 Y-53.369 E15.57668
G1 X45.215 Y-51.56 E15.68827
G1 X47.354 Y-49.843 E15.79775
G1 X49.569 Y-48.17 E15.90854
G1 X51.818 Y-46.567 E16.01877
G1 X54.122 Y-45.021 E16.12951
G1 X56.417 Y-43.574 E16.23779
G1 X58.797 Y-42.166 E16.34816
G1 X61.184 Y-40.861 E16.45674
G1 X62.105 Y-40.338 E16.49901
G1 X63.065 Y-39.668 E16.54574
G1 X63.886 Y-38.865 E16.59157
G1 X64.721 Y-37.706 E16.64859
G1 X65.278 Y-36.486 E16.70212
G1 X65.585 Y-35.372 E16.74823
G1 X65.71 Y-34.228 E16.79417
G1 X65.622 Y-32.737 E16.85378
G1 X65.242 Y-31.219 E16.91623
G1 X64.777 Y-30.164 E16.96225
G1 X63.933 Y-28.914 E17.02245
G1 X63.25 Y-28.211 E17.06157
G1 X61.843 Y-26.928 E17.13757
G1 X59.829 Y-25.026 E17.24813
G1 X57.853 Y-23.051 E17.35964
G1 X55.968 Y-21.059 E17.46909
G1 X54.157 Y-19.027 E17.57773
G1 X52.363 Y-16.899 E17.68882
G1 X50.622 Y-14.714 E17.80033
G1 X49.007 Y-12.561 E17.90775
G1 X47.373 Y-10.252 E18.02064
G1 X45.85 Y-7.965 E18.13031
G1 X43.727 Y-4.529 E18.29152
G1 X43.184 Y-3.724 E18.33027
G1 X42.169 Y-2.668 E18.38873
G1 X41.143 Y-1.939 E18.43896
G1 X39.914 Y-1.356 E18.49326
G1 X38.844 Y-1.05 E18.53767
G1 X37.407 Y-.909 E18.5953
G1 X36.193 Y-.993 E18.64387
G1 X34.868 Y-1.348 E18.69862
G1 X33.878 Y-1.786 E18.74183
G1 X32.63 Y-2.63 E18.80196
G1 X31.81 Y-3.431 E18.84771
G1 X30.977 Y-4.592 E18.90474
G1 X30.32 Y-5.941 E18.96463
G1 X29.062 Y-8.436 E19.07615
G1 X27.763 Y-10.834 E19.185
G1 X26.398 Y-13.193 E19.29378
G1 X24.916 Y-15.601 E19.40663
G0 F3600 X25.257 Y-15.811
G1 F1200 X23.756 Y-18.097 E19.51578
G1 X22.17 Y-20.374 E19.62654
G1 X20.533 Y-22.584 E19.7363
G1 X18.797 Y-24.796 E19.84853
G1 X17.015 Y-26.939 E19.95977
G1 X15.218 Y-28.977 E20.06822
G1 X13.311 Y-31.024 E20.17988
G1 X11.871 Y-32.494 E20.26201
G1 X11.07 Y-33.295 E20.30722
G1 X9.103 Y-35.207 E20.4167
G1 X7.02 Y-37.12 E20.52958
G1 X4.968 Y-38.902 E20.63805
G1 X2.79 Y-40.687 E20.75045
G1 X0.595 Y-42.385 E20.86121
G1 X-1.621 Y-43.998 E20.9706
G1 X-3.909 Y-45.569 E21.08138
G1 X-6.256 Y-47.084 E21.19287
G1 X-8.604 Y-48.507 E21.30245
G1 X-11.023 Y-49.882 E21.41351
G1 X-12.033 Y-50.442 E21.4596
G1 X-12.963 Y-51.063 E21.50423
G1 X-13.926 Y-52.03 E21.5587
G1 X-14.585 Y-52.958 E21.60413
G1 X-15.086 Y-54.003 E21.65038
G1 X-15.432 Y-55.185 E21.69954
G1 X-15.544 Y-56.544 E21.75396
G1 X-15.434 Y-57.733 E21.80162
G1 X-15.136 Y-58.853 E21.84788
G1 X-14.597 Y-60.017 E21.89907
G1 X-13.992 Y-60.903 E21.94189
G1 X-13.145 Y-61.778 E21.9905
G1 X-12.382 Y-62.342 E22.02837
G1 X-10.231 Y-63.85 E22.13322
G1 X-8.007 Y-65.504 E22.24384
G1 X-5.846 Y-67.209 E22.3537
G1 X-3.723 Y-68.982 E22.4641
G1 X-1.645 Y-70.822 E22.57487
G1 X0.362 Y-72.703 E22.68466
G1 X2.36 Y-74.684 E22.79696
G1 X4.249 Y-76.666 E22.90624
G1 X6.11 Y-78.731 E23.01719
G1 X8.457 Y-81.513 E23.16246
G1 X9.175 Y-82.388 E23.20763
G1 X10.001 Y-83.209 E23.25412
G1 X10.93 Y-83.865 E23.29951
G1 X11.977 Y-84.374 E23.34597
G1 X13.153 Y-84.711 E23.3948
G1 X14.417 Y-84.834 E23.44548
G1 X15.59 Y-84.753 E23.49241
G1 X16.818 Y-84.429 E23.5431
G1 X17.809 Y-83.991 E23.58635
G1 X18.902 Y-83.266 E23.63869
G1 X19.848 Y-82.315 E23.69223
G1 X20.246 Y-81.766 E23.7193
G1 X20.54 Y-81.318 E23.74068
G1 X21.958 Y-78.718 E23.85888
G1 X23.352 Y-76.323 E23.96949
G1 X24.797 Y-73.996 E24.07881
G1 X26.323 Y-71.685 E24.18934
G1 X27.935 Y-69.391 E24.30125
G1 X29.587 Y-67.173 E24.41163
G1 X31.291 Y-65.018 E24.52128
G1 X33.083 Y-62.875 E24.63277
G1 X34.923 Y-60.802 E24.7434
G1 X36.814 Y-58.787 E24.85369
G1 X38.778 Y-56.809 E24.96495
G1 X40.795 Y-54.887 E25.07615
G1 X42.824 Y-53.064 E25.18501
G1 X44.956 Y-51.255 E25.29661
G1 X47.113 Y-49.524 E25.40699
G1 X49.337 Y-47.844 E25.51824
G1 X51.586 Y-46.241 E25.62847
G1 X53.899 Y-44.689 E25.73964
G1 X56.213 Y-43.23 E25.84882
G1 X58.605 Y-41.815 E25.95975
G1 X60.987 Y-40.513 E26.06809
G1 X61.878 Y-40.009 E26.10895
G1 X62.785 Y-39.382 E26.15296
G1 X63.606 Y-38.579 E26.19879
G1 X64.374 Y-37.503 E26.25156
G1 X64.893 Y-36.378 E26.301
G1 X65.187 Y-35.329 E26.34449
G1 X65.312 Y-34.185 E26.39042
G1 X65.225 Y-32.797 E26.44592
G1 X64.876 Y-31.38 E26.50417
G1 X64.411 Y-30.325 E26.55019
G1 X63.646 Y-29.193 E26.60472
G1 X62.98 Y-28.507 E26.64288
G1 X61.573 Y-27.224 E26.71887
G1 X59.554 Y-25.317 E26.82972
G1 X57.57 Y-23.334 E26.94168
G1 X55.677 Y-21.334 E27.05159
G1 X53.858 Y-19.293 E27.16071
G1 X52.057 Y-17.157 E27.27222
G1 X50.309 Y-14.963 E27.38418
G1 X48.68 Y-12.792 E27.49251
G1 X47.046 Y-10.483 E27.60541
G1 X45.517 Y-8.187 E27.71551
G1 X43.395 Y-4.753 E27.87662
G1 X42.852 Y-3.948 E27.91538
G1 X41.908 Y-2.973 E27.96954
G1 X40.97 Y-2.3 E28.01562
G1 X39.804 Y-1.741 E28.06723
G1 X38.767 Y-1.444 E28.11028
G1 X37.435 Y-1.308 E28.16372
G1 X36.26 Y-1.389 E28.21073
G1 X35.03 Y-1.714 E28.2615
G1 X34.04 Y-2.152 E28.30471
G1 X32.91 Y-2.916 E28.35915
G1 X32.09 Y-3.717 E28.40491
G1 X31.337 Y-4.767 E28.45648
G1 X30.68 Y-6.116 E28.51636
G1 X29.419 Y-8.616 E28.62812
G1 X28.115 Y-11.024 E28.73741
G1 X26.739 Y-13.403 E28.8471
G1 X25.257 Y-15.811 E28.95996
G0 F3600 X25.597 Y-16.021
G1 F1200 X24.084 Y-18.326 E29.07
G1 X22.498 Y-20.603 E29.18075
G1 X20.848 Y-22.831 E29.29141
G1 X19.112 Y-25.043 E29.40364
G1 X17.322 Y-27.195 E29.51536
G1 X15.511 Y-29.25 E29.62468
G1 X13.604 Y-31.297 E29.73634
G1 X12.157 Y-32.774 E29.81887
G1 X11.353 Y-33.578 E29.86425
G1 X9.374 Y-35.502 E29.97441
G1 X7.291 Y-37.415 E30.08729
G1 X5.222 Y-39.211 E30.19664
G1 X3.044 Y-40.996 E30.30903
G1 X0.84 Y-42.701 E30.42025
G1 X-1.395 Y-44.328 E30.53058
G1 X-3.683 Y-45.899 E30.64136
G1 X-6.039 Y-47.42 E30.75328
G1 X-8.406 Y-48.855 E30.86376
G1 X-10.825 Y-50.23 E30.97481
G1 X-11.811 Y-50.775 E31.01978
G1 X-12.711 Y-51.376 E31.06297
G1 X-13.601 Y-52.263 E31.11312
G1 X-14.225 Y-53.133 E31.15586
G1 X-14.702 Y-54.115 E31.19943
G1 X-15.037 Y-55.261 E31.24708
G1 X-15.146 Y-56.509 E31.29708
G1 X-15.047 Y-57.632 E31.34208
G1 X-14.772 Y-58.686 E31.38555
G1 X-14.265 Y-59.793 E31.43415
G1 X-13.703 Y-60.626 E31.47426
G1 X-12.907 Y-61.456 E31.52015
G1 X-12.152 Y-62.014 E31.55763
G1 X-10.001 Y-63.522 E31.66247
G1 X-7.768 Y-65.183 E31.77355
G1 X-5.598 Y-66.895 E31.88387
G1 X-3.467 Y-68.675 E31.99469
G1 X-1.372 Y-70.53 E32.10637
G1 X0.644 Y-72.419 E32.21664
G1 X2.642 Y-74.4 E32.32893
G1 X4.539 Y-76.39 E32.43866
G1 X6.416 Y-78.473 E32.55058
G1 X8.762 Y-81.256 E32.69585
G1 X9.458 Y-82.106 E32.7397
G1 X10.232 Y-82.882 E32.78344
G1 X11.161 Y-83.538 E32.82883
G1 X12.087 Y-83.989 E32.86994
G1 X13.263 Y-84.326 E32.91877
G1 X14.39 Y-84.435 E32.96396
G1 X15.524 Y-84.357 E33.00933
G1 X16.656 Y-84.063 E33.05601
G1 X17.647 Y-83.625 E33.09925
G1 X18.644 Y-82.958 E33.14713
G1 X19.524 Y-82.08 E33.19674
G1 X19.912 Y-81.545 E33.22312
G1 X20.189 Y-81.126 E33.24317
G1 X21.612 Y-78.517 E33.36178
G1 X23.012 Y-76.112 E33.47285
G1 X24.463 Y-73.776 E33.5826
G1 X25.996 Y-71.455 E33.69362
G1 X27.614 Y-69.152 E33.80596
G1 X29.273 Y-66.925 E33.91679
G1 X30.984 Y-64.761 E34.0269
G1 X32.777 Y-62.618 E34.13842
G1 X34.631 Y-60.528 E34.24993
G1 X36.53 Y-58.505 E34.36067
G1 X38.502 Y-56.519 E34.47237
G1 X40.519 Y-54.597 E34.58357
G1 X42.565 Y-52.759 E34.69335
G1 X44.697 Y-50.95 E34.80494
G1 X46.872 Y-49.205 E34.91624
G1 X49.105 Y-47.518 E35.02793
G1 X51.354 Y-45.915 E35.13816
G1 X53.676 Y-44.357 E35.24977
G1 X56.009 Y-42.886 E35.35985
G1 X58.413 Y-41.464 E35.47133
G1 X60.791 Y-40.164 E35.57949
G1 X61.652 Y-39.679 E35.61894
G1 X62.505 Y-39.096 E35.66017
G1 X63.326 Y-38.293 E35.70601
G1 X64.011 Y-37.334 E35.75305
G1 X64.508 Y-36.268 E35.79999
G1 X64.789 Y-35.286 E35.84076
G1 X64.914 Y-34.142 E35.88669
G1 X64.826 Y-32.824 E35.93941
G1 X64.51 Y-31.541 E35.99215
G1 X64.045 Y-30.486 E36.03816
G1 X63.359 Y-29.472 E36.08702
G1 X62.693 Y-28.786 E36.12518
G1 X61.298 Y-27.515 E36.20051
G1 X59.279 Y-25.608 E36.31135
G1 X57.287 Y-23.617 E36.42376
G1 X55.387 Y-21.608 E36.53412
G1 X53.552 Y-19.551 E36.64414
G1 X51.751 Y-17.415 E36.75566
G1 X49.996 Y-15.212 E36.86807
G1 X48.353 Y-13.023 E36.97731
G1 X46.719 Y-10.714 E37.09021
G1 X45.184 Y-8.409 E37.20074
G1 X43.063 Y-4.977 E37.36177
G1 X42.52 Y-4.172 E37.40052
G1 X41.673 Y-3.297 E37.44913
G1 X40.795 Y-2.66 E37.49242
G1 X39.694 Y-2.126 E37.54126
G1 X38.657 Y-1.829 E37.58431
G1 X37.462 Y-1.707 E37.63226
G1 X36.327 Y-1.785 E37.67766
G1 X35.132 Y-2.101 E37.727
G1 X34.204 Y-2.517 E37.76759
G1 X33.19 Y-3.202 E37.81643
G1 X32.37 Y-4.003 E37.86218
G1 X31.697 Y-4.942 E37.90829
G1 X31.04 Y-6.291 E37.96818
G1 X29.776 Y-8.796 E38.08016
G1 X28.467 Y-11.214 E38.1899
G1 X27.08 Y-13.613 E38.3005
G1 X25.597 Y-16.021 E38.41338
G0 F3600 X25.937 Y-16.231
G1 F1200 X24.412 Y-18.555 E38.52432
G1 X22.826 Y-20.832 E38.63507
G1 X21.163 Y-23.078 E38.74661
G1 X19.427 Y-25.29 E38.85884
G1 X17.629 Y-27.451 E38.97104
G1 X15.804 Y-29.523 E39.08124
G1 X13.897 Y-31.57 E39.1929
G1 X12.443 Y-33.054 E39.27583
G1 X11.636 Y-33.861 E39.32138
G1 X9.645 Y-35.797 E39.43222
G1 X7.562 Y-37.71 E39.54509
G1 X5.476 Y-39.52 E39.65532
G1 X3.289 Y-41.313 E39.7682
G1 X1.084 Y-43.017 E39.87942
G1 X-1.169 Y-44.658 E39.99066
G1 X-3.457 Y-46.229 E40.10144
G1 X-5.822 Y-47.756 E40.2138
G1 X-8.208 Y-49.203 E40.32517
G1 X-10.627 Y-50.577 E40.43621
G1 X-11.589 Y-51.108 E40.48006
G1 X-12.456 Y-51.687 E40.52167
G1 X-13.277 Y-52.498 E40.56773
G1 X-13.865 Y-53.308 E40.60768
G1 X-14.342 Y-54.29 E40.65125
G1 X-14.642 Y-55.334 E40.69461
