;FLAVOR:Marlin
;TIME:2314
;Filament used: 1.70248m
;Layer height: 0.24
;MINX:-52.823
;MINY:-47.821
;MINZ:0.3
;MAXX:12.582
;MAXY:47.852
;MAXZ:17
;Generated with Cura_SteamEngine 4.12.1
M140 S50
M105
M190 S50
M104 S210
M105
M109 S210
M82 ;absolute extrusion mode
;FLAVOR:Marlin
M82 ;absolute extrusion mode
G21
G90
M82
M107 T0
G28
G92 E0
G0 E3 F200
G92 E0 ; reset extrusion distance
M106 S255 ; Enable cooling fan full speed
G1 X-98 Y0 Z0.4 F3000 ; move to arc start
G3 X0 Y-98 I98 Z0.4 E40 F400 ; lay arc stripe 90deg
G92 E0 ; reset extrusion distance
G4 P500 ; wait for 0.5 sec
G0 Z10 E-1 ; Lift 15mm and retract 1mm filament
G4 P2000 ; wait for 5 sec
G0 Z15
M107 ; Disable cooling fan
G1 X0 Y-85 Z4 E0 F3000 ; get off the bed
G92 E0
G92 E0
G1 F1500 E-7
;LAYER_COUNT:50
;LAYER:0
M107
G1 F600 Z1.3
G0 F3600 X-37.748 Y-4.464 Z1.3
;TYPE:SKIRT
G1 F600 Z0.3
G1 F1500 E0.41575
G1 F2400 X-37.824 Y-3.809 E0.44865
G1 X-37.958 Y-3.156 E0.48191
G1 X-38.135 Y-2.556 E0.51312
G1 X-38.388 Y-1.916 E0.54745
G1 X-38.677 Y-1.338 E0.57969
G1 X-39 Y-.809 E0.61061
G1 X-39.396 Y-.269 E0.64402
G1 X-39.829 Y0.225 E0.67679
G1 X-40.301 Y0.676 E0.70936
G1 X-40.809 Y1.084 E0.74187
G1 X-41.338 Y1.439 E0.77365
G1 X-41.914 Y1.759 E0.80653
G1 X-42.527 Y2.03 E0.83997
G1 X-43.157 Y2.245 E0.87318
G1 X-43.761 Y2.396 E0.90424
G1 X-44.434 Y2.502 E0.93823
G1 X-45.081 Y2.547 E0.97058
G1 X-45.729 Y2.536 E1.00292
G1 X-46.392 Y2.467 E1.03617
G1 X-47.029 Y2.344 E1.06854
G1 X-47.648 Y2.168 E1.10065
G1 X-48.282 Y1.926 E1.1345
G1 X-48.851 Y1.652 E1.16601
G1 X-49.414 Y1.316 E1.19872
G1 X-49.948 Y0.932 E1.23154
G1 X-50.445 Y0.505 E1.26423
G1 X-50.895 Y0.045 E1.29633
G1 X-51.316 Y-.467 E1.3294
G1 X-51.681 Y-.999 E1.36159
G1 X-52.001 Y-1.565 E1.39403
G1 X-52.282 Y-2.183 E1.4279
G1 X-52.499 Y-2.794 E1.46024
G1 X-52.658 Y-3.415 E1.49223
G1 X-52.771 Y-4.075 E1.52563
G1 X-52.823 Y-4.734 E1.55861
G1 X-52.819 Y-5.374 E1.59054
G1 X-52.76 Y-6.014 E1.62261
G1 X-52.639 Y-6.677 E1.65623
G1 X-52.472 Y-7.292 E1.68802
G1 X-52.248 Y-7.905 E1.72059
G1 X-51.963 Y-8.508 E1.75386
G1 X-51.633 Y-9.076 E1.78663
G1 X-51.264 Y-9.601 E1.81865
G1 X-50.831 Y-10.114 E1.85214
G1 X-50.371 Y-10.572 E1.88452
G1 X-49.863 Y-10.997 E1.91757
G1 X-49.34 Y-11.363 E1.94942
G1 X-48.808 Y-11.673 E1.98014
G1 X-48.193 Y-11.963 E2.01406
G1 X-47.564 Y-12.195 E2.04751
G1 X-46.935 Y-12.364 E2.08
G1 X-46.291 Y-12.48 E2.11265
G1 X-45.632 Y-12.54 E2.14566
G1 X-45.318 Y-12.549 E2.16133
G1 X-44.679 Y-12.526 E2.19323
G1 X-43.996 Y-12.439 E2.22758
G1 X-43.386 Y-12.307 E2.25872
G1 X-42.737 Y-12.108 E2.29259
G1 X-42.123 Y-11.858 E2.32566
G1 X-41.553 Y-11.565 E2.35763
G1 X-41.024 Y-11.235 E2.38874
G1 X-40.5 Y-10.844 E2.42136
G1 X-39.999 Y-10.396 E2.45489
G1 X-39.552 Y-9.918 E2.48754
G1 X-39.143 Y-9.397 E2.52059
G1 X-38.793 Y-8.863 E2.55244
G1 X-38.475 Y-8.27 E2.58601
G1 X-38.219 Y-7.672 E2.61846
G1 X-38.015 Y-7.058 E2.65074
G1 X-37.863 Y-6.409 E2.684
G1 X-37.769 Y-5.768 E2.71632
G1 X-37.73 Y-5.122 E2.74861
G1 X-37.734 Y-4.996 E2.7549
G0 F2160 X-37.748 Y-4.464
G0 F3600 X-38.147 Y-4.486
G1 F2400 X-38.22 Y-3.866 E2.78604
G1 X-38.347 Y-3.25 E2.81742
G1 X-38.516 Y-2.679 E2.84713
G1 X-38.755 Y-2.076 E2.87949
G1 X-39.029 Y-1.528 E2.91006
G1 X-39.336 Y-1.026 E2.93941
G1 X-39.711 Y-.514 E2.97108
G1 X-40.122 Y-0.048 E3.00207
G1 X-40.57 Y0.379 E3.03295
G1 X-41.051 Y0.766 E3.06375
G1 X-41.552 Y1.101 E3.09382
G1 X-42.098 Y1.403 E3.12495
G1 X-42.678 Y1.66 E3.1566
G1 X-43.274 Y1.862 E3.18799
G1 X-43.847 Y2.005 E3.21746
G1 X-44.484 Y2.106 E3.24964
G1 X-45.097 Y2.147 E3.28029
G1 X-45.712 Y2.137 E3.31097
G1 X-46.338 Y2.071 E3.34238
G1 X-46.941 Y1.954 E3.37302
G1 X-47.527 Y1.787 E3.40342
G1 X-48.127 Y1.557 E3.43548
G1 X-48.667 Y1.296 E3.4654
G1 X-49.199 Y0.979 E3.4963
G1 X-49.705 Y0.614 E3.52743
G1 X-50.175 Y0.209 E3.55838
G1 X-50.602 Y-.228 E3.58886
G1 X-51 Y-.712 E3.62012
G1 X-51.344 Y-1.216 E3.65057
G1 X-51.647 Y-1.752 E3.68128
G1 X-51.913 Y-2.337 E3.71335
G1 X-52.118 Y-2.916 E3.74399
G1 X-52.268 Y-3.503 E3.77422
G1 X-52.375 Y-4.129 E3.8059
G1 X-52.424 Y-4.752 E3.83708
G1 X-52.42 Y-5.36 E3.86741
G1 X-52.363 Y-5.968 E3.89788
G1 X-52.248 Y-6.593 E3.92958
G1 X-52.089 Y-7.177 E3.95978
G1 X-51.876 Y-7.758 E3.99065
G1 X-51.607 Y-8.327 E4.02205
G1 X-51.293 Y-8.864 E4.05309
G1 X-50.943 Y-9.362 E4.08345
G1 X-50.534 Y-9.846 E4.11507
G1 X-50.097 Y-10.28 E4.1458
G1 X-49.617 Y-10.682 E4.17703
G1 X-49.121 Y-11.028 E4.2072
G1 X-48.615 Y-11.323 E4.23643
G1 X-48.034 Y-11.597 E4.26847
G1 X-47.438 Y-11.815 E4.30013
G1 X-46.843 Y-11.975 E4.33087
G1 X-46.232 Y-12.085 E4.36185
G1 X-45.609 Y-12.141 E4.39305
G1 X-45.31 Y-12.149 E4.40798
G1 X-44.704 Y-12.127 E4.43823
G1 X-44.06 Y-12.044 E4.47062
G1 X-43.481 Y-11.919 E4.50018
G1 X-42.867 Y-11.73 E4.53223
G1 X-42.287 Y-11.493 E4.56349
G1 X-41.745 Y-11.214 E4.5939
G1 X-41.244 Y-10.901 E4.62337
G1 X-40.748 Y-10.53 E4.65427
G1 X-40.274 Y-10.106 E4.686
G1 X-39.852 Y-9.652 E4.71693
G1 X-39.465 Y-9.16 E4.74815
G1 X-39.134 Y-8.653 E4.77836
G1 X-38.833 Y-8.092 E4.81012
G1 X-38.591 Y-7.525 E4.84088
G1 X-38.398 Y-6.943 E4.87147
G1 X-38.255 Y-6.329 E4.90292
G1 X-38.166 Y-5.721 E4.93358
G1 X-38.13 Y-5.109 E4.96417
G1 X-38.133 Y-5.018 E4.96871
G0 F2160 X-38.147 Y-4.486
G0 F3600 X-38.547 Y-4.508
G1 F2400 X-38.616 Y-3.924 E4.99805
G1 X-38.736 Y-3.343 E5.02765
G1 X-38.897 Y-2.801 E5.05585
G1 X-39.121 Y-2.236 E5.08618
G1 X-39.381 Y-1.718 E5.11509
G1 X-39.672 Y-1.243 E5.14288
G1 X-40.027 Y-.76 E5.17279
G1 X-40.415 Y-.32 E5.20206
G1 X-40.838 Y0.083 E5.2312
G1 X-41.293 Y0.447 E5.26028
G1 X-41.766 Y0.763 E5.28865
G1 X-42.281 Y1.048 E5.31802
G1 X-42.829 Y1.29 E5.34791
G1 X-43.391 Y1.48 E5.3775
G1 X-43.933 Y1.615 E5.40537
G1 X-44.535 Y1.709 E5.43577
G1 X-45.114 Y1.747 E5.46472
G1 X-45.694 Y1.737 E5.49366
G1 X-46.285 Y1.675 E5.52331
G1 X-46.853 Y1.564 E5.55218
G1 X-47.407 Y1.405 E5.58093
G1 X-47.972 Y1.189 E5.61111
G1 X-48.484 Y0.941 E5.63949
G1 X-48.983 Y0.642 E5.66852
G1 X-49.463 Y0.296 E5.69804
G1 X-49.906 Y-0.086 E5.72722
G1 X-50.309 Y-.5 E5.75604
G1 X-50.684 Y-.957 E5.78554
G1 X-51.008 Y-1.432 E5.81422
G1 X-51.294 Y-1.938 E5.84322
G1 X-51.544 Y-2.49 E5.87345
G1 X-51.737 Y-3.038 E5.90244
G1 X-51.878 Y-3.592 E5.93096
G1 X-51.978 Y-4.183 E5.96086
G1 X-52.024 Y-4.771 E5.99029
G1 X-52.02 Y-5.346 E6.01898
G1 X-51.966 Y-5.921 E6.04779
G1 X-51.857 Y-6.509 E6.07763
G1 X-51.706 Y-7.062 E6.10622
G1 X-51.504 Y-7.61 E6.13536
G1 X-51.25 Y-8.146 E6.16495
G1 X-50.954 Y-8.653 E6.19424
G1 X-50.622 Y-9.124 E6.22299
G1 X-50.236 Y-9.579 E6.25276
G1 X-49.824 Y-9.989 E6.28176
G1 X-49.37 Y-10.367 E6.31123
G1 X-48.901 Y-10.694 E6.33976
G1 X-48.421 Y-10.973 E6.36746
G1 X-47.874 Y-11.23 E6.39761
G1 X-47.311 Y-11.436 E6.42752
G1 X-46.751 Y-11.586 E6.45644
G1 X-46.172 Y-11.689 E6.48578
G1 X-45.585 Y-11.742 E6.51519
G1 X-45.227 Y-11.749 E6.53305
G1 X-44.643 Y-11.72 E6.56222
G1 X-44.124 Y-11.649 E6.58836
G1 X-43.576 Y-11.53 E6.61633
G1 X-42.997 Y-11.352 E6.64655
G1 X-42.45 Y-11.128 E6.67604
G1 X-41.938 Y-10.864 E6.70478
G1 X-41.465 Y-10.567 E6.73265
G1 X-40.996 Y-10.217 E6.76184
G1 X-40.55 Y-9.815 E6.7918
G1 X-40.151 Y-9.387 E6.82099
G1 X-39.787 Y-8.922 E6.85045
G1 X-39.475 Y-8.444 E6.87893
G1 X-39.191 Y-7.914 E6.90893
G1 X-38.963 Y-7.378 E6.93799
G1 X-38.781 Y-6.828 E6.96689
G1 X-38.647 Y-6.249 E6.99654
G1 X-38.563 Y-5.675 E7.02548
G1 X-38.53 Y-5.096 E7.05442
G1 X-38.532 Y-5.04 E7.05721
G0 F2160 X-38.547 Y-4.508
G0 F3600 X-38.946 Y-4.53
G1 F2400 X-39.012 Y-3.981 E7.0848
G1 X-39.125 Y-3.437 E7.11252
G1 X-39.277 Y-2.924 E7.13921
G1 X-39.488 Y-2.396 E7.16758
G1 X-39.733 Y-1.908 E7.19482
G1 X-40.008 Y-1.46 E7.22105
G1 X-40.343 Y-1.005 E7.24924
G1 X-40.708 Y-.593 E7.2767
G1 X-41.107 Y-.214 E7.30415
G1 X-41.535 Y0.128 E7.33149
G1 X-41.981 Y0.426 E7.35825
G1 X-42.464 Y0.692 E7.38576
G1 X-42.981 Y0.92 E7.41395
G1 X-43.509 Y1.097 E7.44173
G1 X-44.02 Y1.224 E7.468
G1 X-44.585 Y1.312 E7.49653
G1 X-45.131 Y1.348 E7.52383
G1 X-45.676 Y1.338 E7.55102
G1 X-46.231 Y1.278 E7.57887
G1 X-46.765 Y1.174 E7.60601
G1 X-47.287 Y1.023 E7.63312
G1 X-47.817 Y0.82 E7.66144
G1 X-48.301 Y0.585 E7.68828
G1 X-48.768 Y0.305 E7.71545
G1 X-49.22 Y-0.022 E7.74328
G1 X-49.637 Y-.382 E7.77076
G1 X-50.016 Y-.773 E7.79793
G1 X-50.368 Y-1.202 E7.82562
G1 X-50.671 Y-1.649 E7.85256
G1 X-50.94 Y-2.125 E7.87984
G1 X-51.175 Y-2.644 E7.90826
G1 X-51.356 Y-3.16 E7.93554
G1 X-51.488 Y-3.681 E7.96235
G1 X-51.582 Y-4.237 E7.99049
G1 X-51.624 Y-4.79 E8.01816
G1 X-51.62 Y-5.332 E8.0452
G1 X-51.568 Y-5.874 E8.07236
G1 X-51.466 Y-6.425 E8.10032
G1 X-51.323 Y-6.946 E8.12727
G1 X-51.132 Y-7.463 E8.15477
G1 X-50.893 Y-7.965 E8.18251
G1 X-50.614 Y-8.441 E8.21003
G1 X-50.301 Y-8.885 E8.23714
G1 X-49.939 Y-9.311 E8.26503
G1 X-49.55 Y-9.697 E8.29237
G1 X-49.124 Y-10.052 E8.32003
G1 X-48.682 Y-10.359 E8.34688
G1 X-48.227 Y-10.623 E8.37313
G1 X-47.714 Y-10.863 E8.40138
G1 X-47.185 Y-11.056 E8.42948
G1 X-46.659 Y-11.197 E8.45664
G1 X-46.113 Y-11.293 E8.4843
G1 X-45.561 Y-11.342 E8.51195
G1 X-45.236 Y-11.349 E8.52817
G1 X-44.688 Y-11.322 E8.55554
G1 X-44.187 Y-11.254 E8.58077
G1 X-43.671 Y-11.142 E8.60711
G1 X-43.127 Y-10.973 E8.63553
G1 X-42.614 Y-10.763 E8.66318
G1 X-42.131 Y-10.514 E8.69029
G1 X-41.685 Y-10.233 E8.71659
G1 X-41.244 Y-9.903 E8.74407
G1 X-40.825 Y-9.525 E8.77223
G1 X-40.45 Y-9.121 E8.79973
G1 X-40.109 Y-8.685 E8.82734
G1 X-39.816 Y-8.235 E8.85413
G1 X-39.55 Y-7.736 E8.88234
G1 X-39.335 Y-7.231 E8.90973
G1 X-39.164 Y-6.712 E8.93699
G1 X-39.039 Y-6.17 E8.96474
G1 X-38.961 Y-5.628 E8.99206
G1 X-38.93 Y-5.083 E9.01929
G1 X-38.931 Y-5.062 E9.02034
G0 F2160 X-38.946 Y-4.53
G0 F3600 X-39.334 Y-4.769
G1 F2400 X-39.376 Y-4.252 E9.04622
G1 X-39.464 Y-3.738 E9.07223
G1 X-39.592 Y-3.252 E9.09731
G1 X-39.769 Y-2.753 E9.12372
G1 X-39.983 Y-2.287 E9.14931
G1 X-40.344 Y-1.677 E9.18467
G1 X-40.659 Y-1.251 E9.2111
G1 X-41.001 Y-.865 E9.23683
G1 X-41.375 Y-.511 E9.26252
G1 X-41.777 Y-.19 E9.28819
G1 X-42.195 Y0.088 E9.31323
G1 X-42.648 Y0.337 E9.33902
G1 X-43.132 Y0.55 E9.3654
G1 X-43.626 Y0.715 E9.39139
G1 X-44.15 Y0.842 E9.41829
G1 X-44.681 Y0.92 E9.44506
G1 X-45.189 Y0.949 E9.47045
G1 X-45.702 Y0.935 E9.49605
G1 X-46.217 Y0.876 E9.52191
G1 X-46.72 Y0.773 E9.54753
G1 X-47.205 Y0.629 E9.57277
G1 X-47.694 Y0.437 E9.59898
G1 X-48.161 Y0.206 E9.62497
G1 X-48.764 Y-.179 E9.66067
G1 X-49.179 Y-.507 E9.68706
G1 X-49.554 Y-.864 E9.71289
G1 X-49.895 Y-1.247 E9.73847
G1 X-50.202 Y-1.66 E9.76414
G1 X-50.471 Y-2.096 E9.7897
G1 X-50.703 Y-2.555 E9.81536
G1 X-50.894 Y-3.032 E9.841
G1 X-51.044 Y-3.535 E9.86718
G1 X-51.148 Y-4.026 E9.89222
G1 X-51.211 Y-4.543 E9.91821
G1 X-51.228 Y-5.074 E9.94471
G1 X-51.2 Y-5.581 E9.97005
G1 X-51.128 Y-6.089 E9.99564
G1 X-51.005 Y-6.615 E10.02259
G1 X-50.839 Y-7.116 E10.04892
G1 X-50.634 Y-7.593 E10.07483
G1 X-50.389 Y-8.047 E10.10056
G1 X-49.98 Y-8.646 E10.13675
G1 X-49.642 Y-9.044 E10.1628
G1 X-49.276 Y-9.405 E10.18845
G1 X-48.877 Y-9.737 E10.21434
G1 X-48.463 Y-10.024 E10.23948
G1 X-47.981 Y-10.3 E10.26719
G1 X-47.513 Y-10.513 E10.29284
G1 X-47.017 Y-10.689 E10.3191
G1 X-46.53 Y-10.815 E10.34419
G1 X-46.013 Y-10.903 E10.37036
G1 X-45.496 Y-10.945 E10.39624
G1 X-45.245 Y-10.949 E10.40876
G1 X-44.733 Y-10.925 E10.43433
G1 X-44.214 Y-10.853 E10.46047
G1 X-43.509 Y-10.68 E10.49669
G1 X-42.984 Y-10.489 E10.52456
G1 X-42.513 Y-10.267 E10.55054
G1 X-42.078 Y-10.013 E10.57567
G1 X-41.651 Y-9.714 E10.60168
G1 X-41.254 Y-9.381 E10.62753
G1 X-40.891 Y-9.016 E10.65321
G1 X-40.558 Y-8.619 E10.67906
G1 X-40.27 Y-8.209 E10.70406
G1 X-40.009 Y-7.76 E10.72997
G1 X-39.786 Y-7.284 E10.75619
G1 X-39.609 Y-6.803 E10.78176
G1 X-39.474 Y-6.301 E10.8077
G1 X-39.383 Y-5.795 E10.83335
G1 X-39.338 Y-5.3 E10.85815
G0 F2160 X-39.337 Y-5.284
G0 X-39.334 Y-4.769
G0 F3600 X-39.745 Y-4.575
G1 F2400 X-39.807 Y-4.074 E10.88333
G1 X-39.966 Y-3.395 E10.91812
G1 X-40.135 Y-2.913 E10.94361
G1 X-40.437 Y-2.288 E10.97824
G1 X-40.818 Y-1.698 E11.01328
G1 X-41.148 Y-1.294 E11.0393
G1 X-41.643 Y-.807 E11.07395
G1 X-42.042 Y-.492 E11.09931
G1 X-42.617 Y-.13 E11.13321
G1 X-43.086 Y0.098 E11.15922
G1 X-43.743 Y0.333 E11.19403
G1 X-44.437 Y0.486 E11.22949
G1 X-44.948 Y0.539 E11.25512
G1 X-45.641 Y0.538 E11.28969
G1 X-46.147 Y0.482 E11.31509
G1 X-46.828 Y0.329 E11.34991
G1 X-47.309 Y0.166 E11.37525
G1 X-47.934 Y-.126 E11.40967
G1 X-48.536 Y-.507 E11.44521
G1 X-48.941 Y-.83 E11.47106
G1 X-49.43 Y-1.317 E11.50549
G1 X-49.752 Y-1.715 E11.53103
G1 X-50.126 Y-2.298 E11.56559
G1 X-50.354 Y-2.754 E11.59102
G1 X-50.594 Y-3.404 E11.62559
G1 X-50.755 Y-4.102 E11.66133
G1 X-50.815 Y-4.613 E11.687
G1 X-50.821 Y-5.304 E11.72147
G1 X-50.77 Y-5.81 E11.74684
G1 X-50.628 Y-6.476 E11.78082
G1 X-50.468 Y-6.968 E11.80663
G1 X-50.18 Y-7.603 E11.84142
G1 X-49.922 Y-8.039 E11.86669
G1 X-49.515 Y-8.585 E11.90067
G1 X-49.165 Y-8.962 E11.92633
G1 X-48.631 Y-9.422 E11.96149
G1 X-48.029 Y-9.818 E11.99744
G1 X-47.582 Y-10.048 E12.02252
G1 X-46.932 Y-10.297 E12.05725
G1 X-46.234 Y-10.466 E12.09308
G1 X-45.73 Y-10.531 E12.11843
G1 X-45.254 Y-10.549 E12.1422
G1 X-44.554 Y-10.502 E12.1772
G1 X-44.057 Y-10.413 E12.20239
G1 X-43.386 Y-10.217 E12.23726
G1 X-42.921 Y-10.023 E12.2624
G1 X-42.315 Y-9.69 E12.2969
G1 X-41.899 Y-9.401 E12.32217
G1 X-41.375 Y-8.944 E12.35686
G1 X-41.03 Y-8.569 E12.38228
G1 X-40.625 Y-8.022 E12.41623
G1 X-40.367 Y-7.582 E12.44168
G1 X-40.079 Y-6.937 E12.47692
G1 X-39.922 Y-6.452 E12.50236
G1 X-39.784 Y-5.776 E12.53678
G1 X-39.736 Y-5.271 E12.56209
G1 X-39.739 Y-5.107 E12.57027
G0 F2160 X-39.745 Y-4.575
G0 F3600 X-40.167 Y-4.375
G1 F2400 X-40.292 Y-3.717 E12.60368
G1 X-40.498 Y-3.083 E12.63694
G1 X-40.789 Y-2.478 E12.67044
G1 X-41.145 Y-1.929 E12.70308
G1 X-41.587 Y-1.41 E12.73709
G1 X-42.084 Y-.962 E12.77047
G1 X-42.623 Y-.588 E12.8032
G1 X-43.23 Y-.275 E12.83728
G1 X-43.86 Y-0.05 E12.87065
G1 X-44.506 Y0.092 E12.90365
G1 X-45.181 Y0.149 E12.93744
G1 X-45.847 Y0.119 E12.97071
G1 X-46.501 Y0.003 E13.00384
G1 X-47.144 Y-.199 E13.03747
G1 X-47.751 Y-.481 E13.07086
G1 X-48.308 Y-.836 E13.10381
G1 X-48.829 Y-1.269 E13.13761
G1 X-49.283 Y-1.762 E13.17105
G1 X-49.662 Y-2.298 E13.2038
G1 X-49.981 Y-2.899 E13.23774
G1 X-50.213 Y-3.526 E13.2711
G1 X-50.362 Y-4.177 E13.30442
G1 X-50.426 Y-4.846 E13.33795
G1 X-50.402 Y-5.515 E13.37134
G1 X-50.293 Y-6.174 E13.40467
G1 X-50.099 Y-6.814 E13.43803
G1 X-49.823 Y-7.422 E13.47134
G1 X-49.478 Y-7.98 E13.50407
G1 X-49.047 Y-8.509 E13.53812
G1 X-48.562 Y-8.967 E13.5714
G1 X-48.025 Y-9.355 E13.60445
G1 X-47.429 Y-9.678 E13.63827
G1 X-46.805 Y-9.918 E13.67162
G1 X-46.157 Y-10.073 E13.70487
G1 X-45.489 Y-10.145 E13.73839
G1 X-45.263 Y-10.149 E13.74966
G1 X-44.599 Y-10.105 E13.78286
G1 X-43.956 Y-9.976 E13.81558
G1 X-43.276 Y-9.744 E13.85143
G1 X-42.71 Y-9.462 E13.88297
G1 X-42.153 Y-9.092 E13.91634
G1 X-41.65 Y-8.654 E13.94961
G1 X-41.206 Y-8.151 E13.98308
G1 X-40.839 Y-7.607 E14.01582
G1 X-40.533 Y-6.998 E14.04983
G1 X-40.313 Y-6.367 E14.08317
G1 X-40.179 Y-5.711 E14.11657
G1 X-40.129 Y-5.044 E14.14994
G1 X-40.137 Y-4.906 E14.15684
G0 F2160 X-40.167 Y-4.375
G1 F1500 E7.15684
G1 F600 Z1.3
G0 F3600 X-42.838 Y-4.971 Z1.3
G1 F600 Z0.3
G1 F1500 E14.57259
G1 F2400 X-43.237 Y-3.748 E14.63677
G1 X-44.28 Y-2.99 E14.70109
G1 X-45.564 Y-2.99 E14.76515
G1 X-46.607 Y-3.748 E14.82948
G1 X-47.006 Y-4.971 E14.89366
G1 X-46.607 Y-6.194 E14.95784
G1 X-45.564 Y-6.952 E15.02217
G1 X-44.28 Y-6.952 E15.08622
G1 X-43.237 Y-6.194 E15.15055
G1 X-43.003 Y-5.476 E15.18823
G0 F2160 X-42.838 Y-4.971
G0 F3600 X-43.259 Y-4.971
G1 F2400 X-43.577 Y-3.995 E15.23944
G1 X-44.409 Y-3.39 E15.29076
G1 X-45.435 Y-3.39 E15.34195
G1 X-46.267 Y-3.995 E15.39327
G1 X-46.585 Y-4.971 E15.44448
