;FLAVOR:Marlin
;TIME:1563
;Filament used: 4.67822m
;Layer height: 0.3
;MINX:-54.699
;MINY:-54.695
;MINZ:0.4
;MAXX:54.688
;MAXY:54.846
;MAXZ:19.1
;TARGET_MACHINE.NAME:Unknown
;Generated with Cura_SteamEngine 5.11.0
M140 S50
M105
M190 S50
M104 S220
M105
M109 S220
;FLAVOR:Marlin
M82 ;absolute extrusion mode
G21
G90
M82
M107 T0
G28
G92 E0
G0 E3 F200
G92 E0 ; reset extrusion distance
M106 S255 ; Enable cooling fan full speed
G1 X-98 Y0 Z0.4 F3000 ; move to arc start
G3 X0 Y-98 I98 Z0.4 E40 F400 ; lay arc stripe 90deg
G92 E0 ; reset extrusion distance
G4 P500 ; wait for 0.5 sec
G0 Z10 E-1 ; Lift 15mm and retract 1mm filament
G4 P2000 ; wait for 5 sec
G0 Z15
M107 ; Disable cooling fan
G1 X0 Y-85 Z4 E0 F3000 ; get off the bed
M82 ;absolute extrusion mode
G92 E0
G92 E0
G1 F1500 E-6.5
;LAYER_COUNT:60
;LAYER:0
M107
G1 F600 Z1.4
G0 F3600 X0.00 Y0.00 Z1.4
G0 X0.019 Y41.884
;TYPE:SKIRT
G1 F600 Z0.4
G1 F1500 E0
G1 F1800 X2.755 Y41.8 E0.3141
G1 X5.116 Y41.581 E0.58618
G1 X7.844 Y41.147 E0.90315
G1 X10.533 Y40.547 E1.21929
G1 X12.853 Y39.873 E1.49651
G1 X15.406 Y38.955 E1.80782
G1 X17.875 Y37.886 E2.11655
G1 X20.247 Y36.676 E2.4221
G1 X22.465 Y35.366 E2.71769
G1 X24.537 Y33.957 E3.00521
G1 X26.745 Y32.245 E3.32581
G1 X28.578 Y30.631 E3.60606
G1 X30.595 Y28.617 E3.93313
G1 X32.244 Y26.753 E4.2187
G1 X33.917 Y24.596 E4.53193
G1 X35.365 Y22.465 E4.82757
G1 X36.717 Y20.182 E5.13203
G1 X37.91 Y17.843 E5.43332
G1 X38.886 Y15.594 E5.71464
G1 X39.888 Y12.812 E6.05394
G1 X40.544 Y10.559 E6.3232
G1 X41.169 Y7.75 E6.65341
G1 X41.588 Y5.08 E6.96354
G1 X41.807 Y2.695 E7.23836
G1 X41.887 Y-0.055 E7.55405
G1 X41.799 Y-2.857 E7.87573
G1 X41.591 Y-5.06 E8.12964
G1 X41.104 Y-8.113 E8.48439
G1 X40.588 Y-10.399 E8.75331
G1 X39.812 Y-13.069 E9.07236
G1 X39.015 Y-15.283 E9.34237
G1 X37.87 Y-17.931 E9.67341
G1 X36.727 Y-20.171 E9.96197
G1 X35.35 Y-22.492 E10.27165
G1 X33.884 Y-24.646 E10.57063
G1 X32.238 Y-26.77 E10.87897
G1 X30.625 Y-28.594 E11.15837
G1 X28.528 Y-30.686 E11.49826
G1 X26.687 Y-32.306 E11.77965
G1 X24.749 Y-33.807 E12.06093
G1 X22.4 Y-35.4 E12.38661
G1 X20.151 Y-36.729 E12.68637
G1 X17.841 Y-37.906 E12.98386
G1 X15.39 Y-38.969 E13.29042
G1 X12.833 Y-39.883 E13.60201
G1 X10.533 Y-40.549 E13.87677
G1 X7.848 Y-41.151 E14.19251
G1 X5.095 Y-41.589 E14.51239
G1 X2.777 Y-41.804 E14.77951
G1 X-0.002 Y-41.89 E15.09855
G1 X-2.776 Y-41.805 E15.41701
G1 X-5.094 Y-41.59 E15.68413
G1 X-7.847 Y-41.152 E16.00401
G1 X-10.532 Y-40.55 E16.31975
G1 X-12.832 Y-39.884 E16.59451
G1 X-15.389 Y-38.97 E16.9061
G1 X-17.853 Y-37.902 E17.21426
G1 X-20.136 Y-36.737 E17.50836
G1 X-22.399 Y-35.4 E17.80997
G1 X-24.763 Y-33.798 E18.13765
G1 X-26.607 Y-32.368 E18.40542
G1 X-28.607 Y-30.607 E18.71119
G1 X-30.596 Y-28.622 E19.03364
G1 X-32.242 Y-26.762 E19.31864
G1 X-33.928 Y-24.586 E19.63451
G1 X-35.321 Y-22.537 E19.91882
G1 X-36.71 Y-20.186 E20.23215
G1 X-37.928 Y-17.795 E20.54006
G1 X-38.971 Y-15.395 E20.84034
G1 X-39.805 Y-13.083 E21.12237
G1 X-40.589 Y-10.389 E21.44432
G1 X-41.104 Y-8.109 E21.71254
G1 X-41.591 Y-5.057 E22.06718
G1 X-41.798 Y-2.858 E22.32062
G1 X-41.886 Y0.067 E22.65641
G1 X-41.808 Y2.695 E22.9581
G1 X-41.59 Y5.072 E23.232
G1 X-41.173 Y7.734 E23.54118
G1 X-40.547 Y10.545 E23.87164
G1 X-39.805 Y13.076 E24.17429
G1 X-38.953 Y15.441 E24.46274
G1 X-37.945 Y17.763 E24.7532
G1 X-36.682 Y20.239 E25.07215
G1 X-35.358 Y22.477 E25.37053
G1 X-33.926 Y24.583 E25.66276
G1 X-32.257 Y26.737 E25.97544
G1 X-30.585 Y28.627 E26.26499
G1 X-28.582 Y30.627 E26.58979
G1 X-26.743 Y32.246 E26.87094
G1 X-24.538 Y33.956 E27.19112
G1 X-22.466 Y35.365 E27.47865
G1 X-20.254 Y36.672 E27.77346
G1 X-17.864 Y37.89 E28.08127
G1 X-15.419 Y38.949 E28.38701
G1 X-12.845 Y39.875 E28.70091
G1 X-10.546 Y40.543 E28.97562
G1 X-7.848 Y41.144 E29.2928
G1 X-5.1 Y41.582 E29.6121
G1 X-2.763 Y41.799 E29.88142
G1 X0.019 Y41.884 E30.2008
G0 F3600 X0.019 Y42.485
G1 F1800 X2.78 Y42.4 E30.51777
G1 X5.204 Y42.175 E30.79711
G1 X7.954 Y41.737 E31.11664
G1 X10.678 Y41.13 E31.43688
G1 X13.044 Y40.442 E31.71962
G1 X15.625 Y39.514 E32.03434
G1 X18.13 Y38.429 E32.34759
G1 X20.537 Y37.202 E32.6576
G1 X22.778 Y35.878 E32.95628
G1 X24.895 Y34.439 E33.25001
G1 X27.119 Y32.714 E33.57297
G1 X28.999 Y31.059 E33.86038
G1 X31.029 Y29.032 E34.18956
G1 X32.707 Y27.135 E34.48017
G1 X34.398 Y24.954 E34.79685
G1 X35.87 Y22.789 E35.09726
G1 X37.241 Y20.474 E35.40599
G1 X38.452 Y18.1 E35.71179
G1 X39.448 Y15.805 E35.99887
G1 X40.457 Y13.003 E36.3406
G1 X41.127 Y10.701 E36.61571
G1 X41.759 Y7.865 E36.94912
G1 X42.185 Y5.15 E37.26447
G1 X42.406 Y2.735 E37.54274
G1 X42.488 Y-0.055 E37.86302
G1 X42.399 Y-2.876 E38.18689
G1 X42.184 Y-5.155 E38.44956
G1 X41.697 Y-8.208 E38.80431
G1 X41.169 Y-10.549 E39.07968
G1 X40.384 Y-13.25 E39.40244
G1 X39.566 Y-15.521 E39.67942
G1 X38.416 Y-18.18 E40.01185
G1 X37.252 Y-20.462 E40.3058
G1 X35.854 Y-22.818 E40.62016
G1 X34.38 Y-24.984 E40.92079
G1 X32.701 Y-27.151 E41.23535
G1 X31.049 Y-29.019 E41.5215
G1 X28.952 Y-31.111 E41.86139
G1 X27.068 Y-32.769 E42.14937
G1 X25.086 Y-34.304 E42.43703
G1 X22.724 Y-35.906 E42.76452
G1 X20.435 Y-37.258 E43.06957
G1 X18.111 Y-38.443 E43.36891
G1 X15.606 Y-39.529 E43.6822
G1 X13.022 Y-40.453 E43.9971
G1 X10.686 Y-41.129 E44.27614
G1 X7.947 Y-41.743 E44.59824
G1 X5.183 Y-42.183 E44.91939
G1 X2.802 Y-42.404 E45.19378
G1 X-0.001 Y-42.491 E45.51557
G1 X-2.801 Y-42.405 E45.83702
G1 X-5.182 Y-42.184 E46.11141
G1 X-7.946 Y-41.744 E46.43256
G1 X-10.685 Y-41.13 E46.75465
G1 X-13.021 Y-40.454 E47.0337
G1 X-15.605 Y-39.53 E47.3486
G1 X-18.11 Y-38.444 E47.66189
G1 X-20.433 Y-37.259 E47.96113
G1 X-22.723 Y-35.906 E48.26634
G1 X-25.111 Y-34.288 E48.59733
G1 X-26.99 Y-32.831 E48.87016
G1 X-29.021 Y-31.042 E49.18073
G1 X-31.031 Y-29.036 E49.50659
G1 X-32.699 Y-27.151 E49.79541
G1 X-34.415 Y-24.936 E50.11693
G1 X-35.833 Y-22.851 E50.40626
G1 X-37.236 Y-20.476 E50.72279
G1 X-38.467 Y-18.058 E51.03413
G1 X-39.529 Y-15.615 E51.3398
G1 X-40.379 Y-13.258 E51.62731
G1 X-41.169 Y-10.544 E51.95166
G1 X-41.697 Y-8.204 E52.22692
G1 X-42.184 Y-5.152 E52.58156
G1 X-42.398 Y-2.885 E52.84285
G1 X-42.487 Y0.067 E53.18174
G1 X-42.407 Y2.736 E53.48814
G1 X-42.187 Y5.142 E53.76537
G1 X-41.763 Y7.849 E54.07978
G1 X-41.129 Y10.692 E54.41402
G1 X-40.38 Y13.249 E54.71976
G1 X-39.509 Y15.666 E55.01456
G1 X-38.487 Y18.02 E55.30904
G1 X-37.21 Y20.523 E55.63147
G1 X-35.862 Y22.802 E55.9353
G1 X-34.413 Y24.933 E56.231
G1 X-32.714 Y27.126 E56.54933
G1 X-31.019 Y29.042 E56.84287
G1 X-28.996 Y31.062 E57.17091
G1 X-27.126 Y32.709 E57.45685
G1 X-24.896 Y34.438 E57.78064
G1 X-22.779 Y35.877 E58.07436
G1 X-20.538 Y37.201 E58.37304
G1 X-18.126 Y38.431 E58.68372
G1 X-15.636 Y39.509 E58.99507
G1 X-13.036 Y40.444 E59.31212
G1 X-10.691 Y41.126 E59.59235
G1 X-7.956 Y41.735 E59.91387
G1 X-5.191 Y42.176 E60.23516
G1 X-2.788 Y42.399 E60.51208
G1 X0.019 Y42.485 E60.83433
G0 F3600 X0.019 Y43.086
G1 F1800 X2.807 Y43 E61.15439
G1 X5.291 Y42.769 E61.44066
G1 X8.068 Y42.327 E61.76332
G1 X10.816 Y41.714 E62.0864
G1 X13.239 Y41.01 E62.37593
G1 X15.85 Y40.071 E62.69432
G1 X18.38 Y38.975 E63.0107
G1 X20.827 Y37.728 E63.32585
G1 X23.091 Y36.39 E63.62761
G1 X25.253 Y34.921 E63.92754
G1 X27.493 Y33.183 E64.25287
G1 X29.42 Y31.487 E64.54744
G1 X31.463 Y29.447 E64.87872
G1 X33.17 Y27.517 E65.17438
G1 X34.88 Y25.312 E65.49457
G1 X36.378 Y23.108 E65.80036
G1 X37.765 Y20.766 E66.11269
G1 X38.994 Y18.357 E66.42301
G1 X40.01 Y16.016 E66.71584
G1 X41.026 Y13.194 E67.06001
G1 X41.71 Y10.843 E67.34096
G1 X42.348 Y7.98 E67.67754
G1 X42.779 Y5.235 E67.99638
G1 X43.006 Y2.759 E68.28169
G1 X43.089 Y-0.055 E68.60473
G1 X42.999 Y-2.904 E68.93181
G1 X42.777 Y-5.25 E69.20221
G1 X42.29 Y-8.303 E69.55696
G1 X41.75 Y-10.699 E69.83879
G1 X40.956 Y-13.431 E70.16525
G1 X40.117 Y-15.759 E70.4492
G1 X38.962 Y-18.429 E70.78302
G1 X37.776 Y-20.754 E71.08251
G1 X36.358 Y-23.144 E71.40139
G1 X34.867 Y-25.335 E71.7055
G1 X33.163 Y-27.534 E72.02472
G1 X31.484 Y-29.433 E72.31558
G1 X29.376 Y-31.536 E72.65726
G1 X27.442 Y-33.238 E72.95288
G1 X25.434 Y-34.794 E73.24437
G1 X23.048 Y-36.412 E73.57517
G1 X20.725 Y-37.784 E73.88475
G1 X18.361 Y-38.989 E74.18922
G1 X15.835 Y-40.084 E74.50514
G1 X13.211 Y-41.023 E74.82493
G1 X10.839 Y-41.709 E75.10827
G1 X8.046 Y-42.335 E75.43671
G1 X5.271 Y-42.777 E75.75915
G1 X2.827 Y-43.004 E76.0408
G1 X0.00 Y-43.092 E76.36534
G1 X-2.826 Y-43.005 E76.68977
G1 X-5.27 Y-42.778 E76.97142
G1 X-8.045 Y-42.336 E77.29386
G1 X-10.838 Y-41.71 E77.6223
G1 X-13.21 Y-41.024 E77.90564
G1 X-15.834 Y-40.085 E78.22543
G1 X-18.36 Y-38.99 E78.54135
G1 X-20.724 Y-37.785 E78.84582
G1 X-23.047 Y-36.412 E79.15546
G1 X-25.459 Y-34.778 E79.48976
G1 X-27.373 Y-33.294 E79.76767
G1 X-29.435 Y-31.477 E80.08303
G1 X-31.464 Y-29.452 E80.41197
G1 X-33.162 Y-27.533 E80.70599
G1 X-34.897 Y-25.294 E81.03102
G1 X-36.345 Y-23.164 E81.32656
G1 X-37.762 Y-20.766 E81.64618
G1 X-39.006 Y-18.321 E81.96096
G1 X-40.085 Y-15.84 E82.27141
G1 X-40.952 Y-13.435 E82.56476
G1 X-41.749 Y-10.699 E82.89176
G1 X-42.29 Y-8.299 E83.17406
G1 X-42.777 Y-5.247 E83.5287
G1 X-42.998 Y-2.904 E83.79875
G1 X-43.088 Y0.067 E84.13982
G1 X-43.007 Y2.76 E84.44897
G1 X-42.781 Y5.227 E84.73324
G1 X-42.351 Y7.973 E85.05218
G1 X-41.711 Y10.839 E85.38914
G1 X-40.955 Y13.422 E85.69797
G1 X-40.065 Y15.891 E85.99913
G1 X-39.022 Y18.293 E86.29961
G1 X-37.742 Y20.803 E86.62292
G1 X-36.367 Y23.126 E86.93267
G1 X-34.895 Y25.291 E87.23308
G1 X-33.177 Y27.508 E87.55492
G1 X-31.453 Y29.457 E87.8535
G1 X-29.414 Y31.493 E88.18414
G1 X-27.5 Y33.178 E88.47675
G1 X-25.254 Y34.92 E88.8029
G1 X-23.092 Y36.389 E89.10284
G1 X-20.828 Y37.727 E89.4046
G1 X-18.381 Y38.974 E89.71975
G1 X-15.853 Y40.069 E90.03587
G1 X-13.231 Y41.012 E90.3556
G1 X-10.829 Y41.71 E90.64263
G1 X-8.07 Y42.325 E90.96699
G1 X-5.279 Y42.77 E91.29129
G1 X-2.813 Y42.999 E91.57548
G1 X0.019 Y43.086 E91.9006
G0 F3600 X0.02 Y43.687
G1 F1800 X2.833 Y43.6 E92.22354
G1 X5.378 Y43.363 E92.51683
G1 X8.178 Y42.917 E92.84217
G1 X10.961 Y42.297 E93.16935
G1 X13.43 Y41.579 E93.46439
G1 X16.075 Y40.628 E93.78692
G1 X18.63 Y39.521 E94.10644
G1 X21.117 Y38.254 E94.42671
G1 X23.405 Y36.902 E94.73167
G1 X25.611 Y35.402 E95.03777
G1 X27.876 Y33.646 E95.36664
G1 X29.834 Y31.922 E95.66599
G1 X31.887 Y29.872 E95.9989
G1 X33.639 Y27.891 E96.30236
G1 X35.362 Y25.67 E96.62492
G1 X36.883 Y23.432 E96.93542
G1 X38.289 Y21.058 E97.25202
G1 X39.536 Y18.614 E97.56685
G1 X40.572 Y16.227 E97.86544
G1 X41.595 Y13.385 E98.21204
G1 X42.293 Y10.989 E98.4984
G1 X42.938 Y8.092 E98.83896
G1 X43.373 Y5.32 E99.16094
G1 X43.606 Y2.783 E99.45328
G1 X43.69 Y-0.055 E99.77907
G1 X43.599 Y-2.923 E100.10833
G1 X43.37 Y-5.345 E100.38749
G1 X42.883 Y-8.398 E100.74225
G1 X42.33 Y-10.853 E101.03101
G1 X41.529 Y-13.608 E101.36023
G1 X40.668 Y-15.997 E101.65162
G1 X39.508 Y-18.678 E101.98682
G1 X38.3 Y-21.046 E102.29186
G1 X36.862 Y-23.47 E102.61526
G1 X35.363 Y-25.673 E102.92102
G1 X33.626 Y-27.915 E103.24646
G1 X31.908 Y-29.858 E103.54407
G1 X29.8 Y-31.961 E103.88575
G1 X27.823 Y-33.701 E104.18795
G1 X25.771 Y-35.291 E104.48583
G1 X23.372 Y-36.918 E104.81844
G1 X21.015 Y-38.31 E105.13255
G1 X18.611 Y-39.535 E105.44215
G1 X16.064 Y-40.639 E105.76069
G1 X13.4 Y-41.593 E106.08538
G1 X10.976 Y-42.294 E106.37493
G1 X8.157 Y-42.925 E106.70641
G1 X5.362 Y-43.371 E107.03118
G1 X2.852 Y-43.604 E107.32044
G1 X0.00 Y-43.693 E107.64786
G1 X-2.851 Y-43.605 E107.97516
G1 X-5.361 Y-43.372 E108.26441
G1 X-8.156 Y-42.926 E108.58919
G1 X-10.975 Y-42.295 E108.92067
G1 X-13.399 Y-41.594 E109.21021
G1 X-16.063 Y-40.64 E109.53491
G1 X-18.61 Y-39.536 E109.85345
G1 X-21.014 Y-38.311 E110.16305
G1 X-23.371 Y-36.918 E110.47721
G1 X-25.806 Y-35.268 E110.81473
G1 X-27.756 Y-33.757 E111.0978
G1 X-29.849 Y-31.912 E111.41796
G1 X-31.897 Y-29.868 E111.74997
G1 X-33.619 Y-27.922 E112.04815
G1 X-35.384 Y-25.644 E112.37882
G1 X-36.86 Y-23.473 E112.68006
G1 X-38.288 Y-21.056 E113.00219
G1 X-39.546 Y-18.584 E113.32047
G1 X-40.643 Y-16.06 E113.63626
G1 X-41.524 Y-13.617 E113.93426
G1 X-42.329 Y-10.854 E114.26449
G1 X-42.883 Y-8.394 E114.55384
G1 X-43.37 Y-5.342 E114.90848
G1 X-43.598 Y-2.923 E115.18728
G1 X-43.689 Y0.067 E115.53054
G1 X-43.607 Y2.784 E115.84245
G1 X-43.375 Y5.312 E116.13375
G1 X-42.941 Y8.088 E116.45616
G1 X-42.294 Y10.982 E116.79643
G1 X-41.527 Y13.604 E117.10991
G1 X-40.623 Y16.111 E117.41571
G1 X-39.564 Y18.55 E117.72082
G1 X-38.266 Y21.095 E118.04864
G1 X-36.875 Y23.445 E118.362
G1 X-35.377 Y25.649 E118.66779
G1 X-33.64 Y27.89 E118.99314
G1 X-31.887 Y29.872 E119.29676
G1 X-29.835 Y31.921 E119.62951
G1 X-27.874 Y33.647 E119.92928
G1 X-25.612 Y35.401 E120.25773
G1 X-23.406 Y36.901 E120.56383
G1 X-21.118 Y38.253 E120.86879
G1 X-18.631 Y39.52 E121.18906
G1 X-16.078 Y40.626 E121.50832
G1 X-13.426 Y41.58 E121.83172
G1 X-10.97 Y42.294 E122.12521
G1 X-8.178 Y42.916 E122.45344
G1 X-5.37 Y43.364 E122.77972
G1 X-2.838 Y43.599 E123.07151
G1 X0.02 Y43.687 E123.39962
G0 F3600 X0.02 Y44.288
G1 F1800 X2.859 Y44.2 E123.72554
G1 X5.465 Y43.957 E124.02587
G1 X8.292 Y43.507 E124.35435
G1 X11.099 Y42.881 E124.68435
G1 X13.625 Y42.147 E124.9862
G1 X16.3 Y41.185 E125.31239
G1 X18.88 Y40.067 E125.63504
G1 X21.407 Y38.78 E125.96045
G1 X23.718 Y37.414 E126.26849
G1 X25.969 Y35.884 E126.5808
G1 X28.25 Y34.115 E126.91203
G1 X30.255 Y32.35 E127.21854
G1 X32.311 Y30.297 E127.55194
G1 X34.108 Y28.265 E127.86321
G1 X35.844 Y26.028 E128.18812
G1 X37.391 Y23.751 E128.504
G1 X38.821 Y21.338 E128.82586
G1 X40.071 Y18.887 E129.14157
G1 X41.134 Y16.438 E129.44791
G1 X42.164 Y13.576 E129.79694
G1 X42.876 Y11.131 E130.08915
G1 X43.528 Y8.207 E130.43291
G1 X43.97 Y5.39 E130.76011
G1 X44.205 Y2.823 E131.0559
G1 X44.291 Y-0.055 E131.38629
G1 X44.199 Y-2.942 E131.71774
G1 X43.963 Y-5.44 E132.00565
G1 X43.476 Y-8.493 E132.3604
G1 X42.91 Y-11.007 E132.6561
G1 X42.102 Y-13.785 E132.98808
G1 X41.219 Y-16.235 E133.28691
G1 X40.054 Y-18.927 E133.6235
G1 X38.824 Y-21.338 E133.93407
G1 X37.366 Y-23.796 E134.26201
G1 X35.859 Y-26.011 E134.56942
G1 X34.089 Y-28.296 E134.90108
G1 X32.332 Y-30.283 E135.20544
G1 X30.224 Y-32.386 E135.54712
G1 X28.204 Y-34.164 E135.85591
G1 X26.108 Y-35.788 E136.16016
G1 X23.696 Y-37.424 E136.49459
G1 X21.305 Y-38.836 E136.81322
G1 X18.861 Y-40.081 E137.12796
G1 X16.293 Y-41.194 E137.44911
G1 X13.589 Y-42.163 E137.77871
G1 X11.113 Y-42.879 E138.07447
G1 X8.271 Y-43.515 E138.40865
G1 X5.449 Y-43.965 E138.73655
G1 X2.878 Y-44.204 E139.03284
G1 X0.00 Y-44.294 E139.36325
G1 X-2.877 Y-44.205 E139.69353
G1 X-5.448 Y-43.966 E139.98982
G1 X-8.27 Y-43.516 E140.31773
G1 X-11.112 Y-42.88 E140.65191
G1 X-13.588 Y-42.164 E140.94766
G1 X-16.292 Y-41.195 E141.27726
G1 X-18.86 Y-40.082 E141.59842
G1 X-21.304 Y-38.837 E141.91315
G1 X-23.695 Y-37.424 E142.23184
G1 X-26.143 Y-35.765 E142.57117
G1 X-28.146 Y-34.213 E142.86193
G1 X-30.263 Y-32.347 E143.18575
G1 X-32.331 Y-30.284 E143.52093
G1 X-34.076 Y-28.311 E143.82317
G1 X-35.874 Y-25.99 E144.16007
G1 X-37.372 Y-23.787 E144.46576
G1 X-38.814 Y-21.346 E144.79108
G1 X-40.086 Y-18.847 E145.11285
G1 X-41.199 Y-16.285 E145.43337
G1 X-42.097 Y-13.794 E145.73721
G1 X-42.909 Y-11.008 E146.0702
G1 X-43.476 Y-8.489 E146.36648
G1 X-43.963 Y-5.437 E146.72112
G1 X-44.198 Y-2.942 E147.00869
G1 X-44.29 Y0.067 E147.35412
G1 X-44.206 Y2.825 E147.67074
G1 X-43.972 Y5.382 E147.96538
G1 X-43.53 Y8.203 E148.29303
G1 X-42.877 Y11.125 E148.63659
G1 X-42.1 Y13.781 E148.95414
G1 X-41.179 Y16.336 E149.26578
G1 X-40.106 Y18.807 E149.5749
G1 X-38.79 Y21.387 E149.90724
G1 X-37.38 Y23.769 E150.22486
G1 X-35.858 Y26.007 E150.53543
G1 X-34.109 Y28.264 E150.86307
