;FLAVOR:Marlin
;TIME:268
;Filament used: 0.330183m
;Layer height: 0.24
;MINX:-17.75
;MINY:-16.2
;MINZ:0.3
;MAXX:17.741
;MAXY:16.292
;MAXZ:6.54
;Generated with Cura_SteamEngine 4.12.1
M140 S40
M105
M190 S40
M104 S210
M105
M109 S210
M82 ;absolute extrusion mode
;FLAVOR:Marlin
M82 ;absolute extrusion mode
G21
G90
M82
M107 T0
G28
G92 E0
G0 E3 F200
G92 E0 ; reset extrusion distance
M106 S255 ; Enable cooling fan full speed
G1 X-98 Y0 Z0.4 F3000 ; move to arc start
G3 X0 Y-98 I98 Z0.4 E40 F400 ; lay arc stripe 90deg
G92 E0 ; reset extrusion distance
G4 P500 ; wait for 0.5 sec
G0 Z10 E-1 ; Lift 15mm and retract 1mm filament
G4 P2000 ; wait for 5 sec
G0 Z15
M107 ; Disable cooling fan
G1 X0 Y-85 Z4 E0 F3000 ; get off the bed
G92 E0
G92 E0
G1 F1500 E-6.5
;LAYER_COUNT:28
;LAYER:0
M106 S76.5
G1 F600 Z1.3
G0 F3600 X8.25 Y-10.903 Z1.3
;TYPE:SKIRT
G1 F600 Z0.3
G1 F1500 E0
G1 F2400 X17.08 Y6.932 E0.99287
G1 X17.197 Y7.201 E1.00751
G1 X17.44 Y7.843 E1.04175
G1 X17.595 Y8.425 E1.0718
G1 X17.704 Y9.097 E1.10577
G1 X17.741 Y9.725 E1.13715
G1 X17.711 Y10.429 E1.17231
G1 X17.628 Y11.013 E1.20174
G1 X17.47 Y11.66 E1.23496
G1 X17.266 Y12.238 E1.26554
G1 X16.977 Y12.857 E1.29963
G1 X16.655 Y13.397 E1.33099
G1 X16.252 Y13.938 E1.36465
G1 X15.839 Y14.391 E1.39523
G1 X15.335 Y14.845 E1.42907
G1 X14.832 Y15.215 E1.46023
G1 X14.248 Y15.559 E1.49404
G1 X13.707 Y15.809 E1.52377
G1 X13.046 Y16.038 E1.55867
G1 X12.44 Y16.182 E1.58975
G1 X11.76 Y16.272 E1.62397
G1 X11.175 Y16.292 E1.65317
G1 X10.501 Y16.249 E1.68687
G1 X9.879 Y16.146 E1.71832
G1 X9.213 Y15.964 E1.75277
G1 X8.636 Y15.743 E1.78359
G1 X8.041 Y15.444 E1.81682
G1 X7.546 Y15.131 E1.84603
G1 X6.987 Y14.696 E1.88137
G1 X6.757 Y14.497 E1.89655
G1 X-16.791 Y-8.001 E3.52136
G1 X-17.117 Y-8.367 E3.54582
G1 X-17.486 Y-9.011 E3.58285
G1 X-17.669 Y-9.55 E3.61125
G1 X-17.75 Y-10.244 E3.6461
G1 X-17.75 Y-13.083 E3.78774
G1 X-17.71 Y-13.571 E3.81217
G1 X-17.591 Y-14.046 E3.8366
G1 X-17.397 Y-14.495 E3.861
G1 X-17.132 Y-14.907 E3.88544
G1 X-16.754 Y-15.321 E3.91341
G1 X-16.381 Y-15.638 E3.93783
G1 X-15.961 Y-15.89 E3.96227
G1 X-15.506 Y-16.07 E3.98668
G1 X-15.028 Y-16.174 E4.01109
G1 X-14.633 Y-16.2 E4.03084
G1 X5.133 Y-16.2 E5.01697
G1 X5.621 Y-16.16 E5.04139
G1 X6.096 Y-16.041 E5.06582
G1 X6.545 Y-15.847 E5.09023
G1 X6.957 Y-15.582 E5.11467
G1 X7.371 Y-15.204 E5.14263
G1 X7.688 Y-14.831 E5.16706
G1 X7.94 Y-14.411 E5.19149
G1 X8.12 Y-13.956 E5.2159
G1 X8.224 Y-13.478 E5.24031
G1 X8.25 Y-13.083 E5.26006
G1 X8.25 Y-11.435 E5.34228
G0 F2160 X8.25 Y-10.903
G0 F3600 X7.85 Y-10.809
G1 F2400 X16.721 Y7.109 E6.33977
G1 X16.823 Y7.343 E6.3525
G1 X17.066 Y7.985 E6.38675
G1 X17.2 Y8.489 E6.41277
G1 X17.309 Y9.161 E6.44673
G1 X17.342 Y9.708 E6.47407
G1 X17.312 Y10.412 E6.50923
G1 X17.24 Y10.918 E6.53473
G1 X17.082 Y11.565 E6.56796
G1 X16.904 Y12.069 E6.59462
G1 X16.615 Y12.688 E6.6287
G1 X16.334 Y13.158 E6.65602
G1 X15.931 Y13.699 E6.68968
G1 X15.571 Y14.094 E6.71634
G1 X15.067 Y14.548 E6.75018
G1 X14.629 Y14.87 E6.77731
G1 X14.045 Y15.214 E6.81112
G1 X13.576 Y15.431 E6.8369
G1 X12.915 Y15.66 E6.8718
G1 X12.387 Y15.786 E6.89889
G1 X11.707 Y15.876 E6.93311
G1 X11.2 Y15.893 E6.95841
G1 X10.526 Y15.85 E6.99211
G1 X9.985 Y15.76 E7.01947
G1 X9.319 Y15.578 E7.05392
G1 X8.816 Y15.385 E7.08079
G1 X8.221 Y15.086 E7.11402
G1 X7.791 Y14.815 E7.13937
G1 X7.232 Y14.38 E7.17471
G1 X7.033 Y14.208 E7.18783
G1 X-16.515 Y-8.29 E8.81265
G1 X-16.816 Y-8.632 E8.83538
G1 X-17.117 Y-9.165 E8.86592
G1 X-17.287 Y-9.673 E8.89265
G1 X-17.35 Y-10.244 E8.92131
G1 X-17.35 Y-13.083 E9.06295
G1 X-17.31 Y-13.537 E9.08568
G1 X-17.192 Y-13.977 E9.10841
G1 X-16.998 Y-14.389 E9.13113
G1 X-16.588 Y-14.921 E9.16464
G1 X-16.122 Y-15.331 E9.19561
G1 X-15.727 Y-15.558 E9.21834
G1 X-15.299 Y-15.713 E9.24105
G1 X-14.633 Y-15.8 E9.27456
G1 X5.133 Y-15.8 E10.26069
G1 X5.587 Y-15.76 E10.28342
G1 X6.027 Y-15.642 E10.30615
G1 X6.439 Y-15.448 E10.32887
G1 X6.971 Y-15.038 E10.36238
G1 X7.381 Y-14.572 E10.39335
G1 X7.608 Y-14.177 E10.41607
G1 X7.763 Y-13.749 E10.43878
G1 X7.85 Y-13.083 E10.47229
G1 X7.85 Y-11.341 E10.5592
G0 F2160 X7.85 Y-10.809
G0 F3600 X7.45 Y-10.715
G1 F2400 X16.363 Y7.287 E11.56138
G1 X16.449 Y7.484 E11.5721
G1 X16.692 Y8.126 E11.60635
G1 X16.806 Y8.553 E11.6284
G1 X16.915 Y9.225 E11.66236
G1 X16.942 Y9.691 E11.68565
G1 X16.912 Y10.395 E11.72081
G1 X16.851 Y10.823 E11.74238
G1 X16.693 Y11.47 E11.7756
G1 X16.541 Y11.9 E11.79836
G1 X16.252 Y12.519 E11.83244
G1 X16.013 Y12.919 E11.85569
G1 X15.61 Y13.46 E11.88934
G1 X15.303 Y13.797 E11.91208
G1 X14.799 Y14.251 E11.94593
G1 X14.426 Y14.526 E11.96905
G1 X13.842 Y14.87 E12.00286
G1 X13.445 Y15.053 E12.02467
G1 X12.784 Y15.282 E12.05957
G1 X12.335 Y15.389 E12.0826
G1 X11.655 Y15.479 E12.11682
G1 X11.226 Y15.494 E12.13824
G1 X10.552 Y15.451 E12.17193
G1 X10.09 Y15.374 E12.1953
G1 X9.424 Y15.192 E12.22974
G1 X8.995 Y15.028 E12.25266
G1 X8.4 Y14.729 E12.28588
G1 X8.037 Y14.499 E12.30732
G1 X7.478 Y14.064 E12.34266
G1 X7.309 Y13.919 E12.35377
G1 X-16.239 Y-8.579 E13.97858
G1 X-16.513 Y-8.896 E13.99949
G1 X-16.779 Y-9.394 E14.02766
G1 X-16.904 Y-9.794 E14.04856
G1 X-16.95 Y-10.244 E14.07113
G1 X-16.95 Y-13.083 E14.21277
G1 X-16.91 Y-13.5 E14.23367
G1 X-16.792 Y-13.902 E14.25457
G1 X-16.599 Y-14.274 E14.27548
G1 X-16.189 Y-14.756 E14.30705
G1 X-15.865 Y-15.022 E14.32796
G1 X-15.498 Y-15.223 E14.34884
G1 X-15.098 Y-15.35 E14.36978
G1 X-14.633 Y-15.4 E14.39311
G1 X5.133 Y-15.4 E15.37924
G1 X5.55 Y-15.36 E15.40014
G1 X5.952 Y-15.242 E15.42104
G1 X6.324 Y-15.049 E15.44195
G1 X6.806 Y-14.639 E15.47352
G1 X7.072 Y-14.315 E15.49443
G1 X7.273 Y-13.948 E15.51531
G1 X7.4 Y-13.548 E15.53625
G1 X7.45 Y-13.083 E15.55958
G1 X7.45 Y-11.247 E15.65118
G0 F2160 X7.45 Y-10.715
G0 F3600 X7.05 Y-10.621
G1 F2400 X16.004 Y7.464 E16.65798
G1 X16.074 Y7.626 E16.66678
G1 X16.317 Y8.268 E16.70103
G1 X16.411 Y8.617 E16.71906
G1 X16.52 Y9.289 E16.75302
G1 X16.542 Y9.674 E16.77226
G1 X16.512 Y10.378 E16.80742
G1 X16.463 Y10.728 E16.82505
G1 X16.305 Y11.375 E16.85828
G1 X16.179 Y11.73 E16.87707
G1 X15.89 Y12.349 E16.91115
G1 X15.693 Y12.68 E16.93037
G1 X15.29 Y13.221 E16.96402
G1 X15.036 Y13.499 E16.98281
G1 X14.532 Y13.953 E17.01665
G1 X14.223 Y14.181 E17.03581
G1 X13.639 Y14.525 E17.06963
G1 X13.314 Y14.675 E17.08749
G1 X12.653 Y14.904 E17.12239
G1 X12.282 Y14.992 E17.14141
G1 X11.602 Y15.082 E17.17563
G1 X11.251 Y15.094 E17.19315
G1 X10.577 Y15.051 E17.22685
G1 X10.196 Y14.988 E17.24611
G1 X9.53 Y14.806 E17.28056
G1 X9.175 Y14.67 E17.29952
G1 X8.58 Y14.371 E17.33275
G1 X8.283 Y14.184 E17.35026
G1 X7.724 Y13.749 E17.38559
G1 X7.586 Y13.629 E17.39472
G1 X-15.962 Y-8.869 E19.01954
G1 X-16.207 Y-9.158 E19.03844
G1 X-16.41 Y-9.549 E19.06042
G1 X-16.519 Y-9.911 E19.07928
G1 X-16.55 Y-10.244 E19.09596
G1 X-16.55 Y-13.083 E19.2376
G1 X-16.51 Y-13.46 E19.25652
G1 X-16.392 Y-13.82 E19.27542
G1 X-16.202 Y-14.147 E19.29429
G1 X-15.906 Y-14.473 E19.31625
G1 X-15.611 Y-14.711 E19.33516
G1 X-15.273 Y-14.882 E19.35406
G1 X-14.907 Y-14.979 E19.37295
G1 X-14.633 Y-15 E19.38666
G1 X5.133 Y-15 E20.37279
G1 X5.51 Y-14.96 E20.39171
G1 X5.87 Y-14.842 E20.41061
G1 X6.197 Y-14.652 E20.42947
G1 X6.523 Y-14.356 E20.45144
G1 X6.761 Y-14.061 E20.47035
G1 X6.932 Y-13.723 E20.48925
G1 X7.029 Y-13.357 E20.50814
G1 X7.05 Y-13.083 E20.52185
G1 X7.05 Y-11.153 E20.61814
G0 F2160 X7.05 Y-10.621
G0 F3600 X6.65 Y-10.528
G1 F2400 X15.646 Y7.642 E21.62966
G1 X15.7 Y7.767 E21.63646
G1 X15.943 Y8.409 E21.67071
G1 X16.016 Y8.681 E21.68476
G1 X16.125 Y9.353 E21.71872
G1 X16.143 Y9.657 E21.73391
G1 X16.113 Y10.361 E21.76907
G1 X16.074 Y10.633 E21.78278
G1 X15.916 Y11.28 E21.816
G1 X15.817 Y11.561 E21.83087
G1 X15.528 Y12.18 E21.86495
G1 X15.372 Y12.441 E21.88012
G1 X14.969 Y12.982 E21.91378
G1 X14.768 Y13.202 E21.92864
G1 X14.264 Y13.656 E21.96249
G1 X14.02 Y13.836 E21.97761
G1 X13.436 Y14.18 E22.01143
G1 X13.183 Y14.297 E22.02533
G1 X12.522 Y14.526 E22.06023
G1 X12.23 Y14.596 E22.07521
G1 X11.55 Y14.686 E22.10944
G1 X11.277 Y14.695 E22.12306
G1 X10.603 Y14.652 E22.15676
G1 X10.301 Y14.602 E22.17203
G1 X9.635 Y14.42 E22.20648
G1 X9.354 Y14.313 E22.22148
G1 X8.759 Y14.014 E22.2547
G1 X8.528 Y13.868 E22.26833
G1 X7.969 Y13.433 E22.30367
G1 X7.862 Y13.34 E22.31074
G1 X-15.686 Y-9.158 E23.93556
G1 X-15.898 Y-9.416 E23.95222
G1 X-16.041 Y-9.703 E23.96822
G1 X-16.133 Y-10.024 E23.98488
G1 X-16.15 Y-10.244 E23.99589
G1 X-16.15 Y-13.083 E24.13753
G1 X-16.11 Y-13.415 E24.15421
G1 X-15.993 Y-13.727 E24.17083
G1 X-15.623 Y-14.19 E24.2004
G1 X-15.36 Y-14.396 E24.21707
G1 X-15.056 Y-14.535 E24.23375
G1 X-14.633 Y-14.6 E24.2551
G1 X5.133 Y-14.6 E25.24123
G1 X5.465 Y-14.56 E25.25791
G1 X5.777 Y-14.443 E25.27453
G1 X6.24 Y-14.073 E25.3041
G1 X6.446 Y-13.81 E25.32077
G1 X6.585 Y-13.506 E25.33745
G1 X6.65 Y-13.083 E25.3588
G1 X6.65 Y-11.06 E25.45973
G0 F2160 X6.65 Y-10.528
G0 F3600 X6.25 Y-10.434
G1 F2400 X15.287 Y7.819 E26.47587
G1 X15.326 Y7.909 E26.48076
G1 X15.569 Y8.551 E26.51501
G1 X15.621 Y8.745 E26.52503
G1 X15.73 Y9.417 E26.559
G1 X15.743 Y9.64 E26.57014
G1 X15.713 Y10.344 E26.60529
G1 X15.685 Y10.538 E26.61507
G1 X15.527 Y11.185 E26.6483
G1 X15.454 Y11.392 E26.65925
G1 X15.165 Y12.011 E26.69333
G1 X15.051 Y12.202 E26.70443
G1 X14.648 Y12.743 E26.73809
G1 X14.5 Y12.905 E26.74903
G1 X13.996 Y13.359 E26.78288
G1 X13.817 Y13.492 E26.794
G1 X13.233 Y13.836 E26.82782
G1 X13.052 Y13.919 E26.83775
G1 X12.332 Y14.167 E26.87574
G1 X12.177 Y14.199 E26.88364
G1 X11.497 Y14.289 E26.91786
G1 X11.302 Y14.296 E26.9276
G1 X10.628 Y14.253 E26.96129
G1 X10.406 Y14.217 E26.97251
G1 X9.74 Y14.035 E27.00695
G1 X9.534 Y13.956 E27.01796
G1 X8.939 Y13.657 E27.05118
G1 X8.774 Y13.552 E27.06094
G1 X8.215 Y13.117 E27.09628
G1 X8.138 Y13.051 E27.10134
G1 X-15.41 Y-9.447 E28.72616
G1 X-15.672 Y-9.858 E28.75048
G1 X-15.75 Y-10.244 E28.77012
G1 X-15.75 Y-13.083 E28.91176
G1 X-15.71 Y-13.362 E28.92582
G1 X-15.594 Y-13.619 E28.93989
G1 X-15.34 Y-13.907 E28.95905
G1 X-15.114 Y-14.076 E28.97313
G1 X-14.85 Y-14.176 E28.98721
G1 X-14.633 Y-14.2 E28.9981
G1 X5.133 Y-14.2 E29.98423
G1 X5.412 Y-14.16 E29.99829
G1 X5.669 Y-14.044 E30.01236
G1 X5.957 Y-13.79 E30.03152
G1 X6.126 Y-13.564 E30.0456
G1 X6.226 Y-13.3 E30.05968
G1 X6.25 Y-13.083 E30.07058
G1 X6.25 Y-10.966 E30.17619
G0 F2160 X6.25 Y-10.434
G0 F3600 X5.85 Y-10.341
G1 F2400 X14.929 Y7.997 E31.19707
G1 X14.952 Y8.051 E31.2
G1 X15.195 Y8.693 E31.23424
G1 X15.226 Y8.809 E31.24023
G1 X15.335 Y9.481 E31.2742
G1 X15.343 Y9.623 E31.28129
G1 X15.313 Y10.327 E31.31645
G1 X15.297 Y10.443 E31.32229
G1 X15.139 Y11.09 E31.35552
G1 X15.092 Y11.223 E31.36255
G1 X14.803 Y11.842 E31.39664
G1 X14.73 Y11.963 E31.40369
G1 X14.327 Y12.504 E31.43734
G1 X14.233 Y12.608 E31.44434
G1 X13.729 Y13.062 E31.47818
G1 X13.614 Y13.147 E31.48531
G1 X13.03 Y13.491 E31.51913
G1 X12.921 Y13.541 E31.52511
G1 X12.225 Y13.781 E31.56184
G1 X12.125 Y13.803 E31.56695
G1 X11.445 Y13.893 E31.60117
G1 X11.328 Y13.897 E31.60701
G1 X10.654 Y13.854 E31.64071
G1 X10.512 Y13.831 E31.64788
G1 X9.846 Y13.649 E31.68233
G1 X9.714 Y13.598 E31.68939
G1 X9.119 Y13.299 E31.72261
G1 X9.02 Y13.237 E31.72844
G1 X8.461 Y12.802 E31.76377
G1 X8.415 Y12.762 E31.76682
G1 X-15.133 Y-9.736 E33.39164
G1 X-15.303 Y-10.012 E33.40781
G1 X-15.35 Y-10.244 E33.41962
G1 X-15.35 Y-13.083 E33.56126
G1 X-15.31 Y-13.298 E33.57217
G1 X-15.057 Y-13.624 E33.59275
G1 X-14.878 Y-13.748 E33.60362
G1 X-14.633 Y-13.8 E33.61611
G1 X5.133 Y-13.8 E34.60224
G1 X5.348 Y-13.76 E34.61315
G1 X5.674 Y-13.507 E34.63374
G1 X5.798 Y-13.328 E34.6446
G1 X5.85 Y-13.083 E34.6571
G1 X5.85 Y-10.873 E34.76736
G0 F2160 X5.85 Y-10.341
G0 F3600 X5.45 Y-10.247
G1 F2400 X14.578 Y8.192 E35.79383
G1 X14.821 Y8.834 E35.82808
G1 X14.831 Y8.873 E35.83009
G1 X14.943 Y9.567 E35.86516
G1 X14.944 Y9.606 E35.86711
G1 X14.914 Y10.31 E35.90226
G1 X14.908 Y10.348 E35.90418
G1 X14.743 Y11.019 E35.93865
G1 X14.729 Y11.054 E35.94053
G1 X14.431 Y11.689 E35.97553
G1 X14.409 Y11.724 E35.97759
G1 X13.992 Y12.283 E36.01238
G1 X13.965 Y12.311 E36.01433
G1 X13.45 Y12.774 E36.04888
G1 X13.411 Y12.802 E36.05127
G1 X12.827 Y13.146 E36.08509
G1 X12.79 Y13.163 E36.08712
G1 X12.1 Y13.401 E36.12353
G1 X11.392 Y13.496 E36.15917
G1 X11.353 Y13.498 E36.16112
G1 X10.665 Y13.453 E36.19552
G1 X10.617 Y13.445 E36.19794
G1 X9.933 Y13.257 E36.23333
G1 X9.893 Y13.241 E36.23548
G1 X9.298 Y12.942 E36.26871
G1 X9.265 Y12.921 E36.27066
G1 X8.691 Y12.473 E36.30698
G1 X-14.857 Y-10.025 E37.9318
G1 X-14.95 Y-10.244 E37.94367
G1 X-14.95 Y-13.083 E38.08531
G1 X-14.891 Y-13.224 E38.09294
G1 X-14.774 Y-13.341 E38.10119
G1 X-14.633 Y-13.4 E38.10882
G1 X5.133 Y-13.4 E39.09495
G1 X5.274 Y-13.341 E39.10257
G1 X5.391 Y-13.224 E39.11083
G1 X5.45 Y-13.083 E39.11845
G1 X5.45 Y-10.779 E39.2334
G0 F2160 X5.45 Y-10.247
;MESH:Ruderhorn.3mf
G0 F3600 X5.05 Y-10.153
;TYPE:WALL-OUTER
G1 F2400 X14.207 Y8.339 E40.26289
G1 X14.442 Y8.965 E40.29625
G1 X14.544 Y9.6 E40.32833
G1 X14.517 Y10.261 E40.36134
G1 X14.364 Y10.892 E40.39373
G1 X14.081 Y11.495 E40.42696
G1 X13.691 Y12.02 E40.45959
G1 X13.2 Y12.462 E40.49255
G1 X12.63 Y12.797 E40.52554
G1 X12.009 Y13.011 E40.55831
G1 X11.352 Y13.098 E40.59137
G1 X10.714 Y13.056 E40.62327
G1 X10.065 Y12.88 E40.65682
G1 X9.488 Y12.59 E40.68903
G1 X8.965 Y12.181 E40.72216
G1 X-14.55 Y-10.286 E42.34472
G1 X-14.55 Y-13 E42.48012
G1 X5.05 Y-13 E43.45797
G1 X5.05 Y-10.685 E43.57347
G0 F2160 X5.05 Y-10.153
G0 F3600 X5.138 Y-9.974
G0 X4.744 Y-9.78
G0 X4.69 Y-9.754
G0 X9.652 Y10.19
G0 X10.131 Y10.986
G0 X10.786 Y11.432
G0 X10.88 Y10.942
G1 F2400 X11.174 Y10.998 E43.5884
G1 X11.608 Y10.945 E43.61021
G1 X11.96 Y10.765 E43.62993
G1 X12.221 Y10.505 E43.64831
G1 X12.366 Y10.242 E43.6633
G1 X12.441 Y9.95 E43.67834
G1 X12.413 Y9.501 E43.70078
G1 X12.27 Y9.171 E43.71872
G1 X12.014 Y8.874 E43.73829
G1 X11.62 Y8.658 E43.7607
G1 X11.326 Y8.602 E43.77564
G1 X11.01 Y8.625 E43.79144
G1 X10.699 Y8.735 E43.8079
G1 X10.369 Y8.984 E43.82852
G1 X10.134 Y9.358 E43.85056
G1 X10.059 Y9.65 E43.8656
G1 X10.085 Y10.092 E43.88769
G1 X10.211 Y10.399 E43.90425
G1 X10.434 Y10.664 E43.92153
G0 F2160 X10.486 Y10.726
G0 X10.88 Y10.942
G0 F3600 X11.076 Y10.979
G0 X11.161 Y11.403
;TYPE:WALL-INNER
G1 F2400 X11.727 Y11.333 E43.94998
G1 X12.198 Y11.093 E43.97635
G1 X12.544 Y10.748 E44.00073
G1 X12.741 Y10.391 E44.02107
G1 X12.844 Y9.988 E44.04182
G1 X12.808 Y9.406 E44.07092
G1 X12.613 Y8.956 E44.09538
G1 X12.27 Y8.558 E44.1216
G1 X11.757 Y8.277 E44.15078
G1 X11.349 Y8.199 E44.1715
G1 X10.927 Y8.23 E44.19261
G1 X10.507 Y8.378 E44.21483
G1 X10.069 Y8.709 E44.24222
G1 X9.762 Y9.198 E44.27103
G1 X9.656 Y9.611 E44.2923
G1 X9.69 Y10.182 E44.32084
G1 X9.865 Y10.609 E44.34386
G1 X10.228 Y11.041 E44.37201
G1 X10.65 Y11.272 E44.39601
G0 F2160 X10.743 Y11.323
G0 X11.161 Y11.403
G0 F3600 X11.148 Y11.808
G1 F2400 X11.846 Y11.721 E44.4311
G1 X12.436 Y11.421 E44.46413
G1 X12.867 Y10.991 E44.4945
G1 X13.116 Y10.54 E44.5202
G1 X13.247 Y10.026 E44.54667
G1 X13.203 Y9.311 E44.5824
G1 X12.956 Y8.741 E44.6134
G1 X12.526 Y8.242 E44.64626
G1 X11.894 Y7.896 E44.68221
G1 X11.372 Y7.796 E44.70872
G1 X10.844 Y7.835 E44.73514
G1 X10.315 Y8.021 E44.76311
G1 X9.769 Y8.434 E44.79727
G1 X9.39 Y9.038 E44.83284
G1 X9.253 Y9.572 E44.86035
G1 X9.295 Y10.272 E44.89533
G1 X9.519 Y10.818 E44.92478
G1 X9.97 Y11.356 E44.9598
G1 X10.606 Y11.704 E44.99597
G1 X10.625 Y11.708 E44.99694
G0 F2160 X11.148 Y11.808
G0 F3600 X10.203 Y11.071
G0 X9.731 Y10.381
G0 X4.553 Y-10.037
G0 X4.65 Y-10.059
G1 F2400 X13.84 Y8.499 E46.03011
G1 X14.053 Y9.067 E46.06037
G1 X14.142 Y9.622 E46.08841
