;FLAVOR:Marlin
;TIME:910
;Filament used: 0.841972m
;Layer height: 0.2
;MINX:-33.246
;MINY:-19.494
;MINZ:0.25
;MAXX:43.238
;MAXY:19.5
;MAXZ:2.85
;TARGET_MACHINE.NAME:Unknown
;Generated with Cura_SteamEngine 5.9.0
M140 S50
M105
M190 S50
M104 S225
M105
M109 S225
M82 ;absolute extrusion mode
;FLAVOR:Marlin
M82 ;absolute extrusion mode
G21
G90
M82
M107 T0
G28
G92 E0
G0 E3 F200
G92 E0 ; reset extrusion distance
M106 S255 ; Enable cooling fan full speed
G1 X-98 Y0 Z0.4 F3000 ; move to arc start
G3 X0 Y-98 I98 Z0.4 E40 F400 ; lay arc stripe 90deg
G92 E0 ; reset extrusion distance
G4 P500 ; wait for 0.5 sec
G0 Z10 E-1 ; Lift 15mm and retract 1mm filament
G4 P2000 ; wait for 5 sec
G0 Z15
M107 ; Disable cooling fan
G1 X0 Y-85 Z4 E0 F3000 ; get off the bed
G92 E0
G92 E0
G1 F1500 E-1
;LAYER_COUNT:14
;LAYER:0
M106 S102
G1 F600 Z1.25
G0 F1500 X-10.686 Y19.258 Z1.25
;TYPE:SKIRT
G1 F600 Z0.25
G1 F3600 E0.75698
G1 F1200 X-12.317 Y19.447 E0.82603
G1 X-13.809 Y19.5 E0.88881
G1 X-15.269 Y19.442 E0.95026
G1 X-16.531 Y19.302 E1.00366
G1 X-18.191 Y18.987 E1.07472
G1 X-19.46 Y18.643 E1.13001
G1 X-21.028 Y18.09 E1.19993
G1 X-22.314 Y17.519 E1.2591
G1 X-23.631 Y16.812 E1.32197
G1 X-24.754 Y16.098 E1.37793
G1 X-26.112 Y15.081 E1.44928
G1 X-27.103 Y14.213 E1.50468
G1 X-28.173 Y13.122 E1.56895
G1 X-29.203 Y11.896 E1.63629
G1 X-29.945 Y10.865 E1.68971
G1 X-30.797 Y9.466 E1.75859
G1 X-31.468 Y8.141 E1.82105
G1 X-32.036 Y6.771 E1.88342
G1 X-32.454 Y5.511 E1.93925
G1 X-32.828 Y4.018 E2.00398
G1 X-33.094 Y2.43 E2.07169
G1 X-33.226 Y0.929 E2.13506
G1 X-33.246 Y-.341 E2.18847
G1 X-33.142 Y-2.024 E2.25939
G1 X-32.931 Y-3.503 E2.32221
G1 X-32.662 Y-4.746 E2.3757
G1 X-32.177 Y-6.37 E2.44697
G1 X-31.666 Y-7.696 E2.50674
G1 X-31.043 Y-9.008 E2.56782
G1 X-30.264 Y-10.373 E2.63391
G1 X-29.554 Y-11.426 E2.68732
G1 X-28.6 Y-12.636 E2.75212
G1 X-27.518 Y-13.805 E2.81911
G1 X-26.4 Y-14.842 E2.88324
G1 X-25.41 Y-15.633 E2.93653
G1 X-24.105 Y-16.522 E3.00293
G1 X-22.789 Y-17.277 E3.06674
G1 X-21.379 Y-17.942 E3.1323
G1 X-20.037 Y-18.456 E3.19273
G1 X-18.57 Y-18.896 E3.25714
G1 X-17.329 Y-19.171 E3.3106
G1 X-15.637 Y-19.405 E3.38243
G1 X-14.161 Y-19.494 E3.44462
G1 X-12.863 Y-19.478 E3.49921
G1 X-11.204 Y-19.333 E3.56924
G1 X-9.801 Y-19.097 E3.62907
G1 X-8.419 Y-18.758 E3.68891
G1 X34.693 Y-6.494 E5.5739
G1 X35.568 Y-6.196 E5.61277
G1 X36.938 Y-5.566 E5.67618
G1 X37.765 Y-5.076 E5.71661
G1 X38.978 Y-4.178 E5.78008
G1 X39.81 Y-3.408 E5.82775
G1 X40.569 Y-2.558 E5.87568
G1 X41.339 Y-1.493 E5.93094
G1 X41.834 Y-.65 E5.97206
G1 X42.474 Y0.759 E6.03714
G1 X42.81 Y1.788 E6.08266
G1 X43.079 Y3.003 E6.13499
G1 X43.228 Y4.322 E6.19081
G1 X43.238 Y5.537 E6.24191
G1 X43.159 Y6.473 E6.28142
G1 X42.899 Y7.858 E6.34068
G1 X42.514 Y9.132 E6.39665
G1 X42.082 Y10.161 E6.44358
G1 X41.562 Y11.131 E6.48987
G1 X40.748 Y12.333 E6.55092
G1 X40.147 Y13.052 E6.59033
G1 X39.176 Y14.006 E6.64757
G1 X38.298 Y14.707 E6.69482
G1 X37.034 Y15.512 E6.75784
G1 X36.213 Y15.924 E6.79647
G1 X34.787 Y16.464 E6.8606
G1 X33.572 Y16.766 E6.91325
G1 X32.665 Y16.866 E6.95162
G1 X31.605 Y16.715 E6.99665
G1 X30.776 Y16.471 E7.03299
G1 X29.79 Y15.922 E7.08045
G1 X28.959 Y15.176 E7.12742
G1 X28.421 Y14.404 E7.16699
G1 X27.986 Y13.533 E7.20793
G1 X27.721 Y12.412 E7.25637
G1 X27.722 Y11.255 E7.30503
G1 X27.988 Y10.222 E7.34989
G1 X28.339 Y9.385 E7.38806
G1 X28.928 Y8.545 E7.4312
G1 X29.726 Y7.816 E7.47666
G1 X30.735 Y7.224 E7.52586
G1 X31.906 Y6.886 E7.57711
G1 X32.154 Y6.774 E7.58856
G1 X32.636 Y6.431 E7.61343
G1 X32.798 Y6.253 E7.62356
G1 X33.085 Y5.766 E7.64733
G1 X33.225 Y5.217 E7.67116
G1 X33.239 Y4.937 E7.68295
G1 X33.15 Y4.414 E7.70526
G1 X32.923 Y3.927 E7.72785
G1 X32.552 Y3.495 E7.7518
G1 X32.348 Y3.339 E7.7626
G1 X31.838 Y3.098 E7.78632
G1 X31.605 Y3.042 E7.7964
G1 X31.026 Y3.026 E7.82076
G1 X30.424 Y3.178 E7.84687
G1 X-6.57 Y18.126 E9.52483
G1 X-7.895 Y18.601 E9.58403
G1 X-9.319 Y18.99 E9.64611
G1 X-10.686 Y19.258 E9.70469
G0 F1500 X-10.763 Y18.865
G1 F1200 X-12.331 Y19.047 E9.77108
G1 X-13.793 Y19.1 E9.8326
G1 X-15.225 Y19.044 E9.89287
G1 X-16.487 Y18.904 E9.94627
G1 X-18.086 Y18.601 E10.01471
G1 X-19.355 Y18.257 E10.07
G1 X-20.866 Y17.724 E10.13738
G1 X-22.125 Y17.166 E10.1953
G1 X-23.416 Y16.474 E10.2569
G1 X-24.539 Y15.76 E10.31286
G1 X-25.848 Y14.78 E10.38163
G1 X-26.839 Y13.912 E10.43703
G1 X-27.867 Y12.865 E10.49874
G1 X-28.878 Y11.662 E10.56482
G1 X-29.62 Y10.631 E10.61824
G1 X-30.44 Y9.285 E10.68452
G1 X-31.098 Y7.988 E10.74569
G1 X-31.666 Y6.618 E10.80806
G1 X-32.074 Y5.385 E10.86267
G1 X-32.433 Y3.952 E10.9248
G1 X-32.699 Y2.364 E10.99251
G1 X-32.826 Y0.923 E11.05335
G1 X-32.846 Y-.347 E11.10676
G1 X-32.746 Y-1.968 E11.17506
G1 X-32.54 Y-3.418 E11.23666
G1 X-32.271 Y-4.661 E11.29014
G1 X-31.804 Y-6.226 E11.35882
G1 X-31.305 Y-7.524 E11.4173
G1 X-30.682 Y-8.836 E11.47838
G1 X-29.932 Y-10.149 E11.54197
G1 X-29.222 Y-11.202 E11.59538
G1 X-28.306 Y-12.364 E11.65761
G1 X-27.224 Y-13.533 E11.7246
G1 X-26.15 Y-14.529 E11.7862
G1 X-25.16 Y-15.32 E11.83949
G1 X-23.906 Y-16.175 E11.90331
G1 X-22.618 Y-16.915 E11.96578
G1 X-21.236 Y-17.568 E12.03006
G1 X-19.894 Y-18.082 E12.0905
G1 X-18.483 Y-18.505 E12.15245
G1 X-17.242 Y-18.78 E12.2059
G1 X-15.613 Y-19.006 E12.27507
G1 X-14.166 Y-19.094 E12.33603
G1 X-12.868 Y-19.078 E12.39062
G1 X-11.27 Y-18.938 E12.45808
G1 X-9.896 Y-18.708 E12.51667
G1 X-8.528 Y-18.373 E12.5759
G1 X34.564 Y-6.115 E14.46
G1 X35.439 Y-5.817 E14.49887
G1 X36.735 Y-5.221 E14.55886
G1 X37.527 Y-4.754 E14.59753
G1 X38.706 Y-3.884 E14.65915
G1 X39.538 Y-3.114 E14.70682
G1 X40.27 Y-2.292 E14.75311
G1 X40.994 Y-1.29 E14.8051
G1 X41.489 Y-.447 E14.84621
G1 X42.094 Y0.884 E14.9077
G1 X42.419 Y1.874 E14.95152
G1 X42.688 Y3.089 E15.00385
G1 X42.828 Y4.326 E15.05621
G1 X42.839 Y5.503 E15.10571
G1 X42.76 Y6.439 E15.14521
G1 X42.516 Y7.743 E15.201
G1 X42.145 Y8.978 E15.25523
G1 X41.729 Y9.972 E15.30054
G1 X41.209 Y10.942 E15.34683
G1 X40.441 Y12.076 E15.40443
G1 X39.84 Y12.795 E15.44384
G1 X38.896 Y13.72 E15.49942
G1 X38.083 Y14.37 E15.54319
G1 X36.855 Y15.154 E15.60446
G1 X36.034 Y15.566 E15.64309
G1 X34.689 Y16.076 E15.70358
G1 X33.528 Y16.368 E15.75393
G1 X32.669 Y16.463 E15.79028
G1 X31.718 Y16.331 E15.83065
G1 X30.93 Y16.099 E15.8652
G1 X30.025 Y15.595 E15.90876
G1 X29.26 Y14.908 E15.952
G1 X28.779 Y14.225 E15.98713
G1 X28.364 Y13.394 E16.0262
G1 X28.121 Y12.367 E16.07058
G1 X28.122 Y11.307 E16.11516
G1 X28.357 Y10.377 E16.1555
G1 X28.691 Y9.581 E16.1918
G1 X29.233 Y8.808 E16.2315
G1 X29.965 Y8.139 E16.2732
G1 X30.894 Y7.594 E16.3185
G1 X32.047 Y7.261 E16.36897
G1 X32.354 Y7.123 E16.38313
G1 X32.903 Y6.732 E16.41147
G1 X33.123 Y6.49 E16.42522
G1 X33.459 Y5.92 E16.45305
G1 X33.623 Y5.277 E16.48096
G1 X33.641 Y4.917 E16.49612
G1 X33.535 Y4.294 E16.52269
G1 X33.261 Y3.707 E16.54993
G1 X32.828 Y3.202 E16.57791
G1 X32.557 Y2.995 E16.59225
G1 X31.973 Y2.719 E16.61942
G1 X31.658 Y2.643 E16.63304
G1 X30.982 Y2.624 E16.66148
G1 X30.299 Y2.797 E16.69111
G1 X-6.705 Y17.749 E18.36953
G1 X-8.03 Y18.224 E18.42873
G1 X-9.396 Y18.597 E18.48828
G1 X-10.763 Y18.865 E18.54686
G0 F1500 X-10.84 Y18.472
G1 F1200 X-12.346 Y18.647 E18.61062
G1 X-13.778 Y18.7 E18.67088
G1 X-15.181 Y18.646 E18.72993
G1 X-16.443 Y18.506 E18.78333
G1 X-17.981 Y18.215 E18.84915
G1 X-19.25 Y17.871 E18.90445
G1 X-20.704 Y17.358 E18.96929
G1 X-21.963 Y16.8 E19.0272
G1 X-23.201 Y16.136 E19.08628
G1 X-24.324 Y15.422 E19.14224
G1 X-25.584 Y14.479 E19.20843
G1 X-26.575 Y13.611 E19.26383
G1 X-27.581 Y12.585 E19.32426
G1 X-28.553 Y11.428 E19.38781
G1 X-29.295 Y10.397 E19.44123
G1 X-30.083 Y9.104 E19.50491
G1 X-30.728 Y7.835 E19.56477
G1 X-31.296 Y6.465 E19.62714
G1 X-31.694 Y5.26 E19.68051
G1 X-32.045 Y3.855 E19.74141
G1 X-32.301 Y2.329 E19.80648
G1 X-32.426 Y0.917 E19.8661
G1 X-32.446 Y-.353 E19.91951
G1 X-32.35 Y-1.912 E19.9852
G1 X-32.149 Y-3.333 E20.04555
G1 X-31.88 Y-4.576 E20.09904
G1 X-31.431 Y-6.082 E20.16513
G1 X-30.932 Y-7.38 E20.22361
G1 X-30.335 Y-8.638 E20.28217
G1 X-29.6 Y-9.925 E20.3445
G1 X-28.89 Y-10.978 E20.39791
G1 X-28.012 Y-12.093 E20.45759
G1 X-26.952 Y-13.24 E20.52327
G1 X-25.9 Y-14.216 E20.58362
G1 X-24.91 Y-15.007 E20.63691
G1 X-23.707 Y-15.828 E20.69816
G1 X-22.447 Y-16.553 E20.75929
G1 X-21.093 Y-17.194 E20.82229
G1 X-19.751 Y-17.708 E20.88273
G1 X-18.396 Y-18.114 E20.94222
G1 X-17.155 Y-18.389 E20.99567
G1 X-15.589 Y-18.607 E21.06216
G1 X-14.171 Y-18.694 E21.12191
G1 X-12.903 Y-18.679 E21.17524
G1 X-11.336 Y-18.543 E21.24138
G1 X-9.962 Y-18.313 E21.29997
G1 X-8.637 Y-17.988 E21.35735
G1 X34.435 Y-5.736 E23.24057
G1 X35.31 Y-5.438 E23.27944
G1 X36.532 Y-4.876 E23.33601
G1 X37.324 Y-4.409 E23.37467
G1 X38.434 Y-3.59 E23.43269
G1 X39.266 Y-2.82 E23.48036
G1 X39.946 Y-2.057 E23.52334
G1 X40.649 Y-1.087 E23.57372
G1 X41.144 Y-.244 E23.61483
G1 X41.714 Y1.01 E23.67276
G1 X42.028 Y1.96 E23.71484
G1 X42.297 Y3.175 E23.76717
G1 X42.428 Y4.33 E23.81606
G1 X42.44 Y5.469 E23.86396
G1 X42.361 Y6.405 E23.90346
G1 X42.133 Y7.629 E23.95582
G1 X41.776 Y8.824 E24.00827
G1 X41.376 Y9.783 E24.05197
G1 X40.856 Y10.753 E24.09825
G1 X40.134 Y11.819 E24.1524
G1 X39.533 Y12.538 E24.19181
G1 X38.616 Y13.434 E24.24573
G1 X37.834 Y14.057 E24.28777
G1 X36.676 Y14.796 E24.34554
G1 X35.855 Y15.208 E24.38417
G1 X34.59 Y15.688 E24.44107
G1 X33.484 Y15.97 E24.48907
G1 X32.671 Y16.06 E24.52347
G1 X31.831 Y15.947 E24.55912
G1 X31.087 Y15.728 E24.59173
G1 X30.257 Y15.266 E24.63168
G1 X29.561 Y14.641 E24.67102
G1 X29.137 Y14.046 E24.70175
G1 X28.742 Y13.255 E24.73893
G1 X28.521 Y12.322 E24.77925
G1 X28.522 Y11.356 E24.81987
G1 X28.726 Y10.532 E24.85557
G1 X29.043 Y9.777 E24.89001
G1 X29.538 Y9.071 E24.92627
G1 X30.204 Y8.462 E24.96422
G1 X31.053 Y7.964 E25.00562
G1 X32.188 Y7.636 E25.0553
G1 X32.542 Y7.477 E25.07162
G1 X32.892 Y7.26 E25.08894
G1 X33.18 Y7.022 E25.10465
G1 X33.439 Y6.737 E25.12085
G1 X33.657 Y6.417 E25.13713
G1 X33.836 Y6.06 E25.15393
G1 X34.021 Y5.337 E25.18531
G1 X34.043 Y4.897 E25.20384
G1 X33.919 Y4.171 E25.23481
G1 X33.601 Y3.489 E25.26646
G1 X33.104 Y2.909 E25.29858
G1 X32.766 Y2.651 E25.31646
G1 X32.108 Y2.34 E25.34707
G1 X31.711 Y2.244 E25.36425
G1 X30.951 Y2.223 E25.39622
G1 X30.546 Y2.296 E25.41353
G1 X30.156 Y2.423 E25.43077
G1 X-6.84 Y17.372 E27.10883
G1 X-8.165 Y17.847 E27.16803
G1 X-9.473 Y18.204 E27.22505
G1 X-10.84 Y18.472 E27.28363
G0 F1500 X-10.917 Y18.079
G1 F1200 X-12.361 Y18.247 E27.34477
G1 X-13.763 Y18.3 E27.40377
G1 X-15.137 Y18.248 E27.46159
G1 X-16.399 Y18.108 E27.51499
G1 X-17.876 Y17.829 E27.5782
G1 X-19.145 Y17.485 E27.6335
G1 X-20.542 Y16.992 E27.6958
G1 X-21.801 Y16.434 E27.75371
G1 X-22.986 Y15.798 E27.81027
G1 X-24.109 Y15.084 E27.86623
G1 X-25.32 Y14.178 E27.92984
G1 X-26.311 Y13.31 E27.98524
G1 X-27.275 Y12.328 E28.04311
G1 X-28.228 Y11.194 E28.1054
G1 X-28.97 Y10.163 E28.15882
G1 X-29.726 Y8.923 E28.2199
G1 X-30.371 Y7.654 E28.27976
G1 X-30.916 Y6.34 E28.33959
G1 X-31.314 Y5.135 E28.39296
G1 X-31.657 Y3.758 E28.45263
G1 X-31.903 Y2.294 E28.51507
G1 X-32.026 Y0.911 E28.57346
G1 X-32.046 Y-.359 E28.62687
G1 X-31.954 Y-1.856 E28.68995
G1 X-31.758 Y-3.248 E28.74906
G1 X-31.489 Y-4.491 E28.80255
G1 X-31.058 Y-5.938 E28.86604
G1 X-30.559 Y-7.236 E28.92452
G1 X-29.988 Y-8.44 E28.98056
G1 X-29.268 Y-9.701 E29.04163
G1 X-28.558 Y-10.754 E29.09504
G1 X-27.698 Y-11.845 E29.15346
G1 X-26.68 Y-12.947 E29.21655
G1 X-25.65 Y-13.903 E29.27565
G1 X-24.66 Y-14.694 E29.32894
G1 X-23.482 Y-15.497 E29.3889
G1 X-22.248 Y-16.206 E29.44875
G1 X-20.95 Y-16.821 E29.50915
G1 X-19.636 Y-17.325 E29.56834
G1 X-18.309 Y-17.723 E29.6266
G1 X-17.068 Y-17.998 E29.68005
G1 X-15.564 Y-18.208 E29.74392
G1 X-14.176 Y-18.294 E29.8024
G1 X-12.908 Y-18.279 E29.85573
G1 X-11.402 Y-18.148 E29.9193
G1 X-10.057 Y-17.924 E29.97664
G1 X-8.746 Y-17.603 E30.03341
G1 X34.306 Y-5.357 E31.91575
G1 X35.181 Y-5.059 E31.95463
G1 X36.329 Y-4.531 E32.00777
G1 X37.121 Y-4.064 E32.04643
G1 X38.163 Y-3.296 E32.10087
G1 X38.968 Y-2.553 E32.14694
G1 X39.622 Y-1.822 E32.18819
G1 X40.304 Y-.884 E32.23696
G1 X40.799 Y-0.041 E32.27807
G1 X41.334 Y1.136 E32.33244
G1 X41.637 Y2.046 E32.37278
G1 X41.906 Y3.261 E32.42511
G1 X42.028 Y4.335 E32.47057
G1 X42.041 Y5.435 E32.51683
G1 X41.962 Y6.371 E32.55634
G1 X41.74 Y7.555 E32.607
G1 X41.407 Y8.67 E32.65593
G1 X41.023 Y9.594 E32.69801
G1 X40.503 Y10.564 E32.7443
G1 X39.827 Y11.562 E32.79499
G1 X39.226 Y12.281 E32.8344
G1 X38.337 Y13.147 E32.88659
G1 X37.585 Y13.744 E32.92697
G1 X36.497 Y14.438 E32.98124
G1 X35.676 Y14.85 E33.01987
G1 X34.49 Y15.301 E33.07323
G1 X33.44 Y15.572 E33.11884
G1 X32.675 Y15.657 E33.15121
G1 X31.944 Y15.563 E33.1822
G1 X31.241 Y15.356 E33.21302
G1 X30.492 Y14.939 E33.24907
G1 X29.862 Y14.373 E33.28469
G1 X29.495 Y13.867 E33.31098
G1 X29.12 Y13.116 E33.34628
G1 X28.921 Y12.277 E33.38254
G1 X28.922 Y11.406 E33.41917
G1 X29.095 Y10.687 E33.45027
G1 X29.395 Y9.973 E33.48284
G1 X29.843 Y9.334 E33.51566
G1 X30.443 Y8.785 E33.54986
G1 X31.212 Y8.334 E33.58735
G1 X32.326 Y8.012 E33.63612
G1 X32.733 Y7.83 E33.65487
G1 X33.124 Y7.587 E33.67423
G1 X33.457 Y7.312 E33.69239
G1 X33.755 Y6.984 E33.71103
G1 X34.001 Y6.623 E33.7294
G1 X34.206 Y6.215 E33.7486
G1 X34.335 Y5.829 E33.76572
G1 X34.42 Y5.382 E33.78485
G1 X34.444 Y4.897 E33.80527
G1 X34.409 Y4.515 E33.8214
G1 X34.303 Y4.056 E33.84122
G1 X34.145 Y3.648 E33.85962
G1 X33.937 Y3.27 E33.87776
G1 X33.67 Y2.913 E33.89651
G1 X33.369 Y2.608 E33.91453
G1 X32.992 Y2.32 E33.93448
G1 X32.632 Y2.117 E33.95186
G1 X32.225 Y1.957 E33.97025
G1 X31.78 Y1.849 E33.98951
G1 X31.358 Y1.807 E34.00734
G1 X30.909 Y1.824 E34.02624
G1 X30.451 Y1.906 E34.04581
G1 X30.013 Y2.049 E34.06518
G1 X-6.975 Y16.996 E35.7429
G1 X-8.271 Y17.461 E35.8008
G1 X-9.55 Y17.811 E35.85657
G1 X-10.917 Y18.079 E35.91515
G0 F1500 X-10.994 Y17.686
G1 F1200 X-12.376 Y17.847 E35.97366
G1 X-13.748 Y17.9 E36.03141
G1 X-15.093 Y17.85 E36.08801
G1 X-16.355 Y17.71 E36.14141
G1 X-17.771 Y17.443 E36.20201
G1 X-19.04 Y17.099 E36.2573
G1 X-20.38 Y16.626 E36.31706
G1 X-21.612 Y16.081 E36.37371
G1 X-22.771 Y15.46 E36.42901
G1 X-23.894 Y14.746 E36.48497
G1 X-25.056 Y13.877 E36.546
G1 X-26.047 Y13.009 E36.6014
G1 X-26.969 Y12.07 E36.65674
G1 X-27.903 Y10.96 E36.71775
G1 X-28.645 Y9.929 E36.77117
G1 X-29.369 Y8.742 E36.82964
G1 X-30.014 Y7.473 E36.8895
G1 X-30.536 Y6.215 E36.94678
G1 X-30.934 Y5.01 E37.00015
G1 X-31.269 Y3.662 E37.05856
G1 X-31.505 Y2.258 E37.11844
G1 X-31.626 Y0.905 E37.17556
G1 X-31.646 Y-.365 E37.22898
G1 X-31.558 Y-1.8 E37.28944
G1 X-31.367 Y-3.163 E37.34732
G1 X-31.098 Y-4.406 E37.4008
G1 X-30.685 Y-5.795 E37.46174
G1 X-30.197 Y-7.065 E37.51896
G1 X-29.64 Y-8.242 E37.57372
G1 X-28.936 Y-9.477 E37.6335
G1 X-28.226 Y-10.53 E37.68691
G1 X-27.384 Y-11.597 E37.74408
G1 X-26.408 Y-12.654 E37.80458
G1 X-25.4 Y-13.59 E37.86243
G1 X-24.41 Y-14.381 E37.91572
G1 X-23.283 Y-15.15 E37.9731
G1 X-22.049 Y-15.859 E38.03295
G1 X-20.807 Y-16.448 E38.09075
G1 X-19.521 Y-16.942 E38.14869
G1 X-18.222 Y-17.332 E38.20573
G1 X-16.981 Y-17.607 E38.25918
G1 X-15.539 Y-17.809 E38.32042
G1 X-14.181 Y-17.894 E38.37764
G1 X-12.913 Y-17.879 E38.43097
G1 X-11.468 Y-17.753 E38.49197
G1 X-10.123 Y-17.529 E38.54931
G1 X-8.855 Y-17.218 E38.60421
G1 X34.177 Y-4.978 E40.48568
G1 X35.052 Y-4.68 E40.52456
G1 X36.126 Y-4.186 E40.57427
G1 X36.918 Y-3.719 E40.61294
G1 X37.892 Y-3.002 E40.6638
G1 X38.67 Y-2.286 E40.70827
G1 X39.298 Y-1.587 E40.74778
G1 X39.98 Y-.649 E40.79655
G1 X40.454 Y0.161 E40.83602
G1 X40.954 Y1.262 E40.88687
G1 X41.257 Y2.172 E40.92721
G1 X41.509 Y3.307 E40.9761
G1 X41.628 Y4.34 E41.01983
G1 X41.642 Y5.401 E41.06446
