;FLAVOR:Marlin
;TIME:1024
;Filament used: 1.74555m
;Layer height: 0.15
;MINX:-9
;MINY:-14
;MINZ:0.3
;MAXX:19
;MAXY:14
;MAXZ:19.71
;Generated with Cura_SteamEngine 4.12.1
M140 S50
M105
M190 S50
M104 S210
M105
M109 S210
M82 ;absolute extrusion mode
;FLAVOR:Marlin
M82 ;absolute extrusion mode
G21
G90
M82
M107 T0
G28
G92 E0
G0 E3 F200
G92 E0 ; reset extrusion distance
M106 S255 ; Enable cooling fan full speed
G1 X-98 Y0 Z0.4 F3000 ; move to arc start
G3 X0 Y-98 I98 Z0.4 E40 F400 ; lay arc stripe 90deg
G92 E0 ; reset extrusion distance
G4 P500 ; wait for 0.5 sec
G0 Z10 E-1 ; Lift 15mm and retract 1mm filament
G4 P2000 ; wait for 5 sec
G0 Z15
M107 ; Disable cooling fan
G1 X0 Y-85 Z4 E0 F3000 ; get off the bed
G92 E0
G92 E0
G1 F1500 E-7
;LAYER_COUNT:75
;LAYER:0
M107
G1 F600 Z1.3
G0 F3600 X-9 Y-9.38 Z1.3
;TYPE:SKIRT
G1 F600 Z0.3
G1 F1500 E0.3326
G1 F2400 X-8.991 Y-10.045 E0.36578
G1 X-8.943 Y-10.608 E0.39397
G1 X-8.817 Y-11.159 E0.42217
G1 X-8.614 Y-11.687 E0.45039
G1 X-8.338 Y-12.181 E0.47862
G1 X-7.996 Y-12.631 E0.50682
G1 X-7.594 Y-13.028 E0.53501
G1 X-7.14 Y-13.365 E0.56322
G1 X-6.643 Y-13.634 E0.59141
G1 X-6.113 Y-13.831 E0.61962
G1 X-5.56 Y-13.95 E0.64784
G1 X-4.782 Y-13.998 E0.68673
G1 X-4.67 Y-14 E0.69232
G1 X14.35 Y-14 E1.64123
G1 X15.048 Y-13.99 E1.67606
G1 X15.612 Y-13.942 E1.7043
G1 X16.162 Y-13.815 E1.73246
G1 X16.69 Y-13.611 E1.7607
G1 X17.184 Y-13.336 E1.78891
G1 X17.633 Y-12.993 E1.8171
G1 X18.03 Y-12.591 E1.84528
G1 X18.367 Y-12.136 E1.87353
G1 X18.635 Y-11.639 E1.9017
G1 X18.831 Y-11.109 E1.92989
G1 X18.951 Y-10.556 E1.95813
G1 X18.998 Y-9.782 E1.99681
G1 X19 Y-9.67 E2.0024
G1 X19 Y9.314 E2.94952
G1 X18.991 Y10.041 E2.98579
G1 X18.944 Y10.604 E3.01397
G1 X18.818 Y11.155 E3.04217
G1 X18.616 Y11.683 E3.07038
G1 X18.341 Y12.177 E3.09858
G1 X17.999 Y12.627 E3.12678
G1 X17.597 Y13.025 E3.15501
G1 X17.144 Y13.362 E3.18317
G1 X16.647 Y13.632 E3.21139
G1 X16.117 Y13.829 E3.2396
G1 X15.565 Y13.95 E3.26779
G1 X14.782 Y13.998 E3.30693
G1 X14.67 Y14 E3.31252
G1 X-4.345 Y14 E4.26118
G1 X-5.043 Y13.991 E4.29601
G1 X-5.606 Y13.943 E4.3242
G1 X-6.157 Y13.817 E4.3524
G1 X-6.685 Y13.615 E4.3806
G1 X-7.179 Y13.34 E4.40881
G1 X-7.629 Y12.998 E4.43701
G1 X-8.027 Y12.596 E4.46523
G1 X-8.363 Y12.142 E4.49341
G1 X-8.633 Y11.645 E4.52163
G1 X-8.83 Y11.115 E4.54984
G1 X-8.95 Y10.563 E4.57802
G1 X-8.999 Y9.766 E4.61786
G1 X-9 Y-8.848 E5.54651
G0 F2160 X-9 Y-9.38
G0 F3600 X-8.6 Y-9.375
G1 F2400 X-8.591 Y-10.04 E5.57969
G1 X-8.543 Y-10.574 E5.60644
G1 X-8.417 Y-11.095 E5.63318
G1 X-8.215 Y-11.592 E5.65995
G1 X-7.942 Y-12.053 E5.68668
G1 X-7.603 Y-12.469 E5.71345
G1 X-7.206 Y-12.829 E5.74019
G1 X-6.759 Y-13.127 E5.76699
G1 X-6.274 Y-13.355 E5.79373
G1 X-5.76 Y-13.508 E5.82048
G1 X-5.092 Y-13.59 E5.85406
G1 X-4.67 Y-13.6 E5.87512
G1 X14.345 Y-13.6 E6.82378
G1 X15.043 Y-13.59 E6.85861
G1 X15.577 Y-13.542 E6.88536
G1 X16.098 Y-13.416 E6.9121
G1 X16.595 Y-13.213 E6.93888
G1 X17.056 Y-12.939 E6.96564
G1 X17.471 Y-12.6 E6.99237
G1 X17.831 Y-12.202 E7.01915
G1 X18.128 Y-11.756 E7.04588
G1 X18.356 Y-11.27 E7.07266
G1 X18.508 Y-10.756 E7.0994
G1 X18.59 Y-10.091 E7.13283
G1 X18.6 Y-9.67 E7.15384
G1 X18.6 Y9.309 E8.10071
G1 X18.591 Y10.036 E8.13698
G1 X18.544 Y10.57 E8.16373
G1 X18.419 Y11.091 E8.19046
G1 X18.217 Y11.588 E8.21722
G1 X17.944 Y12.05 E8.24399
G1 X17.606 Y12.466 E8.27074
G1 X17.209 Y12.827 E8.29751
G1 X16.763 Y13.125 E8.32427
G1 X16.278 Y13.353 E8.351
G1 X15.764 Y13.507 E8.37777
G1 X15.092 Y13.59 E8.41156
G1 X14.67 Y13.6 E8.43261
G1 X-4.339 Y13.6 E9.38098
G1 X-5.037 Y13.591 E9.4158
G1 X-5.572 Y13.544 E9.4426
G1 X-6.093 Y13.418 E9.46934
G1 X-6.59 Y13.216 E9.49611
G1 X-7.051 Y12.943 E9.52283
G1 X-7.467 Y12.604 E9.54961
G1 X-7.828 Y12.208 E9.57634
G1 X-8.126 Y11.762 E9.6031
G1 X-8.354 Y11.276 E9.62988
G1 X-8.507 Y10.762 E9.65664
G1 X-8.59 Y10.088 E9.69052
G1 X-8.6 Y9.658 E9.71198
G1 X-8.6 Y-8.843 E10.635
G0 F2160 X-8.6 Y-9.375
G0 F3600 X-8.2 Y-9.369
G1 F2400 X-8.191 Y-10.034 E10.66818
G1 X-8.144 Y-10.538 E10.69343
G1 X-8.018 Y-11.027 E10.71862
G1 X-7.817 Y-11.491 E10.74385
G1 X-7.546 Y-11.918 E10.76908
G1 X-7.211 Y-12.296 E10.79428
G1 X-6.82 Y-12.617 E10.81952
G1 X-6.383 Y-12.872 E10.84476
G1 X-5.912 Y-13.056 E10.86999
G1 X-5.418 Y-13.162 E10.8952
G1 X-4.76 Y-13.199 E10.92808
G1 X14.339 Y-13.2 E11.88093
G1 X15.037 Y-13.19 E11.91576
G1 X15.54 Y-13.143 E11.94096
G1 X16.03 Y-13.017 E11.9662
G1 X16.494 Y-12.815 E11.99145
G1 X16.92 Y-12.543 E12.01667
G1 X17.298 Y-12.208 E12.04187
G1 X17.618 Y-11.817 E12.06707
G1 X17.873 Y-11.38 E12.09231
G1 X18.056 Y-10.909 E12.11752
G1 X18.163 Y-10.415 E12.14274
G1 X18.199 Y-9.76 E12.17547
G1 X18.2 Y9.304 E13.12658
G1 X18.191 Y10.031 E13.16285
G1 X18.145 Y10.534 E13.18805
G1 X18.02 Y11.024 E13.21328
G1 X17.819 Y11.488 E13.2385
G1 X17.548 Y11.915 E13.26374
G1 X17.213 Y12.294 E13.28897
G1 X16.823 Y12.615 E13.31417
G1 X16.387 Y12.871 E13.3394
G1 X15.916 Y13.054 E13.36461
G1 X15.422 Y13.162 E13.38983
G1 X14.76 Y13.199 E13.42291
G1 X-4.334 Y13.2 E14.37552
G1 X-5.032 Y13.191 E14.41034
G1 X-5.536 Y13.144 E14.4356
G1 X-6.026 Y13.019 E14.46083
G1 X-6.49 Y12.818 E14.48605
G1 X-6.916 Y12.547 E14.51124
G1 X-7.295 Y12.212 E14.53648
G1 X-7.616 Y11.821 E14.56172
G1 X-7.871 Y11.385 E14.58692
G1 X-8.055 Y10.914 E14.61215
G1 X-8.162 Y10.42 E14.63736
G1 X-8.199 Y9.744 E14.67114
G1 X-8.2 Y-8.837 E15.59815
G0 F2160 X-8.2 Y-9.369
G0 F3600 X-7.8 Y-9.364
G1 F2400 X-7.791 Y-10.029 E15.63133
G1 X-7.744 Y-10.499 E15.65489
G1 X-7.62 Y-10.956 E15.67852
G1 X-7.42 Y-11.384 E15.70209
G1 X-7.151 Y-11.773 E15.72568
G1 X-6.82 Y-12.111 E15.74928
G1 X-6.437 Y-12.389 E15.7729
G1 X-6.013 Y-12.598 E15.79648
G1 X-5.56 Y-12.733 E15.82006
G1 X-4.748 Y-12.799 E15.86071
G1 X14.333 Y-12.8 E16.81266
G1 X15.031 Y-12.79 E16.84749
G1 X15.502 Y-12.743 E16.8711
G1 X15.958 Y-12.618 E16.89469
G1 X16.386 Y-12.418 E16.91826
G1 X16.775 Y-12.148 E16.94189
G1 X17.112 Y-11.817 E16.96545
G1 X17.39 Y-11.434 E16.98906
G1 X17.599 Y-11.01 E17.01265
G1 X17.733 Y-10.557 E17.03622
G1 X17.799 Y-9.749 E17.07666
G1 X17.8 Y9.299 E18.02697
G1 X17.791 Y10.026 E18.06324
G1 X17.745 Y10.496 E18.0868
G1 X17.621 Y10.953 E18.11043
G1 X17.421 Y11.381 E18.134
G1 X17.153 Y11.771 E18.1576
G1 X16.823 Y12.109 E18.18117
G1 X16.44 Y12.387 E18.20478
G1 X16.016 Y12.597 E18.22839
G1 X15.563 Y12.732 E18.25197
G1 X14.748 Y12.799 E18.29277
G1 X-4.329 Y12.8 E19.24452
G1 X-5.027 Y12.791 E19.27935
G1 X-5.498 Y12.745 E19.30296
G1 X-5.954 Y12.62 E19.32655
G1 X-6.383 Y12.421 E19.35014
G1 X-6.772 Y12.152 E19.37374
G1 X-7.11 Y11.821 E19.39734
G1 X-7.388 Y11.439 E19.42091
G1 X-7.597 Y11.015 E19.4445
G1 X-7.732 Y10.562 E19.46808
G1 X-7.799 Y9.734 E19.50952
G1 X-7.8 Y-8.832 E20.43578
G0 F2160 X-7.8 Y-9.364
G0 F3600 X-7.4 Y-9.358
G1 F2400 X-7.391 Y-10.023 E20.46896
G1 X-7.345 Y-10.459 E20.49084
G1 X-7.221 Y-10.879 E20.51268
G1 X-7.023 Y-11.269 E20.53451
G1 X-6.757 Y-11.617 E20.55636
G1 X-6.432 Y-11.91 E20.57819
G1 X-6.06 Y-12.14 E20.60001
G1 X-5.651 Y-12.298 E20.62188
G1 X-5.058 Y-12.39 E20.65182
G1 X-4.67 Y-12.4 E20.67119
G1 X14.327 Y-12.4 E21.61895
G1 X15.025 Y-12.39 E21.65378
G1 X15.461 Y-12.344 E21.67565
G1 X15.88 Y-12.219 E21.69746
G1 X16.27 Y-12.021 E21.71929
G1 X16.618 Y-11.754 E21.74117
G1 X16.911 Y-11.43 E21.76296
G1 X17.141 Y-11.057 E21.78483
G1 X17.299 Y-10.649 E21.80665
G1 X17.39 Y-10.057 E21.83654
G1 X17.4 Y-9.67 E21.85585
G1 X17.4 Y9.294 E22.80197
G1 X17.391 Y10.021 E22.83824
G1 X17.346 Y10.456 E22.86006
G1 X17.222 Y10.876 E22.88191
G1 X17.024 Y11.266 E22.90373
G1 X16.759 Y11.614 E22.92555
G1 X16.434 Y11.909 E22.94745
G1 X16.062 Y12.139 E22.96927
G1 X15.654 Y12.298 E22.99111
G1 X15.058 Y12.39 E23.0212
G1 X14.67 Y12.4 E23.04056
G1 X-4.324 Y12.4 E23.98818
G1 X-5.022 Y12.391 E24.02301
G1 X-5.457 Y12.345 E24.04483
G1 X-5.877 Y12.221 E24.06668
G1 X-6.267 Y12.023 E24.0885
G1 X-6.615 Y11.758 E24.11032
G1 X-6.909 Y11.433 E24.13218
G1 X-7.139 Y11.061 E24.154
G1 X-7.298 Y10.653 E24.17585
G1 X-7.39 Y10.056 E24.20599
G1 X-7.4 Y9.658 E24.22585
G1 X-7.4 Y-8.826 E25.14802
G0 F2160 X-7.4 Y-9.358
G0 F3600 X-7 Y-9.353
G1 F2400 X-6.991 Y-10.018 E25.1812
G1 X-6.946 Y-10.415 E25.20113
G1 X-6.822 Y-10.795 E25.22108
G1 X-6.626 Y-11.143 E25.241
G1 X-6.364 Y-11.445 E25.26095
G1 X-6.048 Y-11.689 E25.28087
G1 X-5.689 Y-11.865 E25.30081
G1 X-5.303 Y-11.967 E25.32073
G1 X-4.726 Y-11.999 E25.34956
G1 X14.322 Y-12 E26.29987
G1 X15.02 Y-11.99 E26.3347
G1 X15.417 Y-11.944 E26.35464
G1 X15.796 Y-11.821 E26.37452
G1 X16.144 Y-11.624 E26.39447
G1 X16.446 Y-11.362 E26.41441
G1 X16.69 Y-11.046 E26.43433
G1 X16.866 Y-10.687 E26.45428
G1 X16.967 Y-10.301 E26.47418
G1 X16.999 Y-9.726 E26.50292
G1 X17 Y9.289 E27.45158
G1 X16.991 Y10.016 E27.48785
G1 X16.946 Y10.413 E27.50778
G1 X16.823 Y10.793 E27.52771
G1 X16.627 Y11.141 E27.54764
G1 X16.366 Y11.443 E27.56755
G1 X16.05 Y11.688 E27.5875
G1 X15.692 Y11.864 E27.6074
G1 X15.305 Y11.966 E27.62737
G1 X14.726 Y11.999 E27.6563
G1 X-4.319 Y12 E28.60646
G1 X-5.017 Y11.991 E28.64129
G1 X-5.414 Y11.946 E28.66122
G1 X-5.794 Y11.823 E28.68115
G1 X-6.142 Y11.627 E28.70107
G1 X-6.444 Y11.365 E28.72102
G1 X-6.688 Y11.049 E28.74094
G1 X-6.865 Y10.691 E28.76086
G1 X-6.966 Y10.304 E28.78082
G1 X-6.999 Y9.712 E28.8104
G1 X-7 Y-8.821 E29.73501
G0 F2160 X-7 Y-9.353
G0 F3600 X-6.6 Y-9.348
G1 F2400 X-6.591 Y-10.013 E29.76819
G1 X-6.546 Y-10.367 E29.786
G1 X-6.424 Y-10.703 E29.80383
G1 X-6.23 Y-11.003 E29.82165
G1 X-5.975 Y-11.253 E29.83947
G1 X-5.671 Y-11.44 E29.85728
G1 X-5.332 Y-11.554 E29.87512
G1 X-4.715 Y-11.599 E29.90598
G1 X14.316 Y-11.6 E30.85544
G1 X15.014 Y-11.59 E30.89027
G1 X15.368 Y-11.545 E30.90807
G1 X15.704 Y-11.422 E30.92593
G1 X16.004 Y-11.229 E30.94372
G1 X16.253 Y-10.973 E30.96154
G1 X16.44 Y-10.668 E30.97939
G1 X16.554 Y-10.33 E30.99718
G1 X16.599 Y-9.715 E31.02795
G1 X16.6 Y9.284 E31.97581
G1 X16.591 Y10.011 E32.01209
G1 X16.547 Y10.365 E32.02988
G1 X16.425 Y10.701 E32.04772
G1 X16.232 Y11.001 E32.06551
G1 X15.976 Y11.252 E32.0834
G1 X15.672 Y11.439 E32.10121
G1 X15.334 Y11.554 E32.11902
G1 X14.715 Y11.599 E32.14998
G1 X-4.314 Y11.6 E33.09934
G1 X-5.012 Y11.591 E33.13417
G1 X-5.366 Y11.546 E33.15197
G1 X-5.702 Y11.424 E33.16981
G1 X-6.002 Y11.231 E33.1876
G1 X-6.252 Y10.976 E33.20542
G1 X-6.439 Y10.671 E33.22327
G1 X-6.554 Y10.333 E33.24108
G1 X-6.599 Y9.701 E33.27269
G1 X-6.6 Y-8.816 E34.19651
G0 F2160 X-6.6 Y-9.348
G0 F3600 X-6.2 Y-9.342
G1 F2400 X-6.191 Y-10.007 E34.22969
G1 X-6.147 Y-10.313 E34.24511
G1 X-6.026 Y-10.598 E34.26056
G1 X-5.837 Y-10.842 E34.27596
G1 X-5.591 Y-11.03 E34.2914
G1 X-5.306 Y-11.149 E34.30681
G1 X-4.704 Y-11.2 E34.33695
G1 X14.31 Y-11.2 E35.28557
G1 X15.008 Y-11.19 E35.32039
G1 X15.314 Y-11.146 E35.33582
G1 X15.599 Y-11.025 E35.35126
G1 X15.843 Y-10.835 E35.36669
G1 X16.031 Y-10.589 E35.38214
G1 X16.149 Y-10.304 E35.39753
G1 X16.2 Y-9.704 E35.42757
G1 X16.2 Y9.279 E36.37463
G1 X16.191 Y10.006 E36.41091
G1 X16.147 Y10.312 E36.42633
G1 X16.027 Y10.597 E36.44176
G1 X15.838 Y10.841 E36.45716
G1 X15.592 Y11.029 E36.4726
G1 X15.307 Y11.149 E36.48803
G1 X14.704 Y11.2 E36.51822
G1 X-4.308 Y11.2 E37.46673
G1 X-5.006 Y11.191 E37.50156
G1 X-5.313 Y11.147 E37.51703
G1 X-5.597 Y11.027 E37.53242
G1 X-5.842 Y10.837 E37.54788
G1 X-6.03 Y10.592 E37.56329
G1 X-6.149 Y10.306 E37.57875
G1 X-6.2 Y9.69 E37.60958
G1 X-6.2 Y-8.81 E38.53255
G0 F2160 X-6.2 Y-9.342
G1 F1500 E31.53255
G1 F600 Z1.3
;MESH:calib_cube.stl
G0 F3600 X-4 Y9 Z1.3
;TYPE:WALL-INNER
G1 F600 Z0.3
G1 F1500 E38.86515
G1 F2400 X-4 Y-9 E39.76318
G1 X14 Y-9 E40.6612
G1 X14 Y9 E41.55922
G1 X-3.468 Y9 E42.43071
G0 F2160 X-4 Y9
G0 F3600 X-4.4 Y9.4
G1 F2400 X-4.4 Y-9.4 E43.36864
G1 X14.4 Y-9.4 E44.30658
G1 X14.4 Y9.4 E45.24451
G1 X-3.868 Y9.4 E46.15591
G0 F2160 X-4.4 Y9.4
G0 F3600 X-4.8 Y9.8
;TYPE:WALL-OUTER
G1 F2400 X-4.8 Y-9.8 E47.13376
G1 X14.8 Y-9.8 E48.1116
G1 X14.8 Y9.8 E49.08945
G1 X-4.268 Y9.8 E50.04076
G0 F2160 X-4.8 Y9.8
G0 F3600 X-4.8 Y9.6
G0 X-4.36 Y9.36
G0 X-4.3 Y9.36
G0 X-3.61 Y8.61
;TYPE:SKIN
G1 F2400 X-3.61 Y-8.61 E50.89987
G1 X13.61 Y-8.61 E51.75898
G1 X13.61 Y8.61 E52.61809
G1 X-3.078 Y8.61 E53.45065
G0 F2160 X-3.61 Y8.61
G0 F3600 X-2.884 Y8.429
G1 F2400 X-3.43 Y7.883 E53.48918
G0 F3600 X-3.43 Y7.317
G1 F2400 X-2.318 Y8.429 E53.56763
G0 F3600 X-1.752 Y8.429
G1 F2400 X-3.43 Y6.752 E53.68599
G0 F3600 X-3.43 Y6.186
G1 F2400 X-1.187 Y8.429 E53.84425
G0 F3600 X-.621 Y8.429
G1 F2400 X-3.43 Y5.62 E54.04244
G0 F3600 X-3.43 Y5.055
G1 F2400 X-0.055 Y8.429 E54.28053
G0 F3600 X0.509 Y8.429
G1 F2400 X-3.43 Y4.489 E54.55848
G0 F3600 X-3.43 Y3.923
G1 F2400 X1.075 Y8.429 E54.87637
G0 F3600 X1.641 Y8.429
G1 F2400 X-3.43 Y3.358 E55.23415
G0 F3600 X-3.43 Y2.792
G1 F2400 X2.206 Y8.429 E55.63184
G0 F3600 X2.772 Y8.429
G1 F2400 X-3.43 Y2.226 E56.06946
G0 F3600 X-3.43 Y1.66
G1 F2400 X3.338 Y8.429 E56.54701
G0 F3600 X3.903 Y8.429
G1 F2400 X-3.43 Y1.095 E57.06443
G0 F3600 X-3.43 Y0.529
G1 F2400 X4.469 Y8.429 E57.62178
G0 F3600 X5.035 Y8.429
G1 F2400 X-3.43 Y-0.036 E58.21903
G0 F3600 X-3.43 Y-.601
G1 F2400 X5.6 Y8.429 E58.85615
G0 F3600 X6.166 Y8.429
G1 F2400 X-3.43 Y-1.167 E59.5332
G0 F3600 X-3.43 Y-1.733
G1 F2400 X6.732 Y8.429 E60.25018
G0 F3600 X7.298 Y8.429
G1 F2400 X-3.43 Y-2.298 E61.00707
G0 F3600 X-3.43 Y-2.864
G1 F2400 X7.863 Y8.429 E61.80385
G0 F3600 X8.429 Y8.429
G1 F2400 X-3.43 Y-3.43 E62.64056
G0 F3600 X-3.43 Y-3.995
G1 F2400 X8.995 Y8.429 E63.51718
G0 F3600 X9.56 Y8.429
G1 F2400 X-3.43 Y-4.561 E64.4337
G0 F3600 X-3.43 Y-5.127
G1 F2400 X10.126 Y8.429 E65.39014
G0 F3600 X10.692 Y8.429
G1 F2400 X-3.43 Y-5.692 E66.38649
G0 F3600 X-3.43 Y-6.258
G1 F2400 X11.257 Y8.429 E67.42274
G0 F3600 X11.823 Y8.429
G1 F2400 X-3.43 Y-6.824 E68.49892
G0 F3600 X-3.43 Y-7.389
G1 F2400 X12.389 Y8.429 E69.615
G0 F3600 X12.954 Y8.429
G1 F2400 X-3.43 Y-7.955 E70.77098
G0 F3600 X-3.338 Y-8.429
G1 F2400 X13.429 Y8.338 E71.95398
G0 F3600 X13.429 Y7.772
G1 F2400 X-2.772 Y-8.429 E73.09705
G0 F3600 X-2.206 Y-8.429
G1 F2400 X13.429 Y7.206 E74.20019
G0 F3600 X13.429 Y6.641
G1 F2400 X-1.641 Y-8.429 E75.26346
G0 F3600 X-1.075 Y-8.429
G1 F2400 X13.429 Y6.075 E76.28679
G0 F3600 X13.429 Y5.509
G1 F2400 X-.509 Y-8.429 E77.27019
G0 F3600 X0.055 Y-8.429
G1 F2400 X13.429 Y4.944 E78.21376
G0 F3600 X13.429 Y4.378
G1 F2400 X0.621 Y-8.429 E79.1174
G0 F3600 X1.187 Y-8.429
G1 F2400 X13.429 Y3.812 E79.98111
G0 F3600 X13.429 Y3.247
G1 F2400 X1.752 Y-8.429 E80.80495
G0 F3600 X2.318 Y-8.429
G1 F2400 X13.429 Y2.681 E81.58885
G0 F3600 X13.429 Y2.115
G1 F2400 X2.884 Y-8.429 E82.33282
G0 F3600 X3.449 Y-8.429
G1 F2400 X13.429 Y1.549 E83.0369
G0 F3600 X13.429 Y0.984
G1 F2400 X4.015 Y-8.429 E83.70107
G0 F3600 X4.581 Y-8.429
G1 F2400 X13.429 Y0.418 E84.32531
G0 F3600 X13.429 Y-.147
G1 F2400 X5.147 Y-8.429 E84.90965
G0 F3600 X5.712 Y-8.429
G1 F2400 X13.429 Y-.712 E85.45412
G0 F3600 X13.429 Y-1.278
G1 F2400 X6.278 Y-8.429 E85.95867
G0 F3600 X6.844 Y-8.429
M104 S202
G1 F2400 X13.429 Y-1.844 E86.42327
G0 F3600 X13.429 Y-2.409
G1 F2400 X7.409 Y-8.429 E86.84802
G0 F3600 X7.975 Y-8.429
G1 F2400 X13.429 Y-2.975 E87.23283
G0 F3600 X13.429 Y-3.541
G1 F2400 X8.541 Y-8.429 E87.5777
G0 F3600 X9.106 Y-8.429
G1 F2400 X13.429 Y-4.106 E87.88271
G0 F3600 X13.429 Y-4.672
G1 F2400 X9.672 Y-8.429 E88.14779
G0 F3600 X10.238 Y-8.429
G1 F2400 X13.429 Y-5.238 E88.37293
G0 F3600 X13.429 Y-5.803
G1 F2400 X10.803 Y-8.429 E88.55821
G0 F3600 X11.369 Y-8.429
G1 F2400 X13.429 Y-6.369 E88.70355
G0 F3600 X13.429 Y-6.935
G1 F2400 X11.935 Y-8.429 E88.80896
G0 F3600 X12.5 Y-8.429
G1 F2400 X13.429 Y-7.5 E88.87451
G0 F3600 X13.429 Y-8.066
G1 F2400 X13.066 Y-8.429 E88.90012
;MESH:NONMESH
G0 F600 X13.066 Y-8.429 Z0.57
