;FLAVOR:Marlin
;TIME:2300
;Filament used: 2.22932m
;Layer height: 0.24
;MINX:-64.48
;MINY:-27.515
;MINZ:0.24
;MAXX:74.458
;MAXY:27.47
;MAXZ:8.68
;Generated with Cura_SteamEngine 4.13.1
M140 S90
M105
M190 S90
M104 S240
M105
M109 S240
M82 ;absolute extrusion mode
;FLAVOR:Marlin
M82 ;absolute extrusion mode
G21
G90
M82
M107 T0
G28
G92 E0
G0 E3 F200
G92 E0 ; reset extrusion distance
M106 S255 ; Enable cooling fan full speed
G1 X-98 Y0 Z0.4 F3000 ; move to arc start
G3 X0 Y-98 I98 Z0.4 E40 F400 ; lay arc stripe 90deg
G92 E0 ; reset extrusion distance
G4 P500 ; wait for 0.5 sec
G0 Z10 E-1 ; Lift 15mm and retract 1mm filament
G4 P2000 ; wait for 5 sec
G0 Z15
M107 ; Disable cooling fan
G1 X0 Y-85 Z4 E0 F3000 ; get off the bed
G92 E0
G92 E0
G1 F1500 E-1
;LAYER_COUNT:32
;LAYER:0
M106 S102
G1 F600 Z1.24
G0 F1500 X1.52 Y17.78 Z1.24
;TYPE:SKIRT
G1 F600 Z0.24
G1 F3600 E0.71493
G1 F1200 X-6.542 Y17.78 E1.00786
G1 X-6.542 Y19.667 E1.07642
G1 X-6.489 Y20.382 E1.10247
G1 X-6.508 Y21.002 E1.12501
G1 X-6.618 Y21.823 E1.15511
G1 X-6.765 Y22.431 E1.17784
G1 X-7.044 Y23.215 E1.20807
G1 X-7.311 Y23.774 E1.23058
G1 X-7.741 Y24.477 E1.26053
G1 X-8.118 Y24.971 E1.28311
G1 X-8.689 Y25.576 E1.31333
G1 X-9.155 Y25.978 E1.33569
G1 X-9.832 Y26.45 E1.36568
G1 X-10.383 Y26.754 E1.38855
G1 X-11.145 Y27.075 E1.41859
G1 X-11.733 Y27.254 E1.44092
G1 X-12.55 Y27.414 E1.47117
G1 X-13.174 Y27.47 E1.49394
G1 X-13.999 Y27.457 E1.52392
G1 X-14.616 Y27.383 E1.5465
G1 X-15.427 Y27.199 E1.57671
G1 X-16.011 Y27.001 E1.59912
G1 X-16.761 Y26.658 E1.62909
G1 X-17.297 Y26.342 E1.65169
G1 X-17.966 Y25.847 E1.68193
G1 X-18.426 Y25.426 E1.70459
G1 X-18.975 Y24.807 E1.73465
G1 X-19.338 Y24.3 E1.75731
G1 X-19.746 Y23.583 E1.78728
G1 X-19.994 Y23.022 E1.80957
G1 X-20.249 Y22.233 E1.8397
G1 X-20.378 Y21.621 E1.86243
G1 X-20.464 Y20.797 E1.89253
G1 X-20.48 Y20.486 E1.90384
G1 X-20.48 Y17.78 E2.00217
G1 X-28.542 Y17.78 E2.2951
G1 X-28.542 Y19.667 E2.36366
G1 X-28.489 Y20.382 E2.38971
G1 X-28.508 Y21.002 E2.41225
G1 X-28.618 Y21.823 E2.44235
G1 X-28.765 Y22.431 E2.46508
G1 X-29.044 Y23.215 E2.49531
G1 X-29.311 Y23.774 E2.51782
G1 X-29.741 Y24.477 E2.54777
G1 X-30.118 Y24.971 E2.57035
G1 X-30.689 Y25.576 E2.60057
G1 X-31.155 Y25.978 E2.62294
G1 X-31.832 Y26.45 E2.65292
G1 X-32.383 Y26.754 E2.67579
G1 X-33.145 Y27.075 E2.70583
G1 X-33.733 Y27.254 E2.72816
G1 X-34.55 Y27.414 E2.75841
G1 X-35.174 Y27.47 E2.78118
G1 X-35.999 Y27.457 E2.81116
G1 X-36.616 Y27.383 E2.83374
G1 X-37.427 Y27.199 E2.86395
G1 X-38.011 Y27.001 E2.88636
G1 X-38.761 Y26.658 E2.91633
G1 X-39.297 Y26.342 E2.93893
G1 X-39.966 Y25.847 E2.96917
G1 X-40.426 Y25.426 E2.99183
G1 X-40.975 Y24.807 E3.02189
G1 X-41.338 Y24.3 E3.04455
G1 X-41.746 Y23.583 E3.07453
G1 X-41.994 Y23.022 E3.09681
G1 X-42.249 Y22.233 E3.12694
G1 X-42.378 Y21.621 E3.14967
G1 X-42.464 Y20.797 E3.17977
G1 X-42.48 Y20.486 E3.19108
G1 X-42.48 Y17.78 E3.28941
G1 X-50.542 Y17.78 E3.58234
G1 X-50.542 Y19.667 E3.6509
G1 X-50.489 Y20.382 E3.67695
G1 X-50.508 Y21.002 E3.69949
G1 X-50.618 Y21.823 E3.72959
G1 X-50.765 Y22.431 E3.75232
G1 X-51.044 Y23.215 E3.78256
G1 X-51.311 Y23.774 E3.80506
G1 X-51.741 Y24.477 E3.83501
G1 X-52.118 Y24.971 E3.85759
G1 X-52.689 Y25.576 E3.88781
G1 X-53.155 Y25.978 E3.91018
G1 X-53.832 Y26.45 E3.94016
G1 X-54.383 Y26.754 E3.96303
G1 X-55.145 Y27.075 E3.99307
G1 X-55.733 Y27.254 E4.01541
G1 X-56.55 Y27.414 E4.04566
G1 X-57.174 Y27.47 E4.06842
G1 X-57.999 Y27.457 E4.0984
G1 X-58.616 Y27.383 E4.12098
G1 X-59.427 Y27.199 E4.1512
G1 X-60.011 Y27.001 E4.1736
G1 X-60.761 Y26.658 E4.20357
G1 X-61.297 Y26.342 E4.22618
G1 X-61.966 Y25.847 E4.25641
G1 X-62.426 Y25.426 E4.27907
G1 X-62.975 Y24.807 E4.30913
G1 X-63.338 Y24.3 E4.33179
G1 X-63.746 Y23.583 E4.36177
G1 X-63.994 Y23.022 E4.38405
G1 X-64.249 Y22.233 E4.41418
G1 X-64.378 Y21.621 E4.43691
G1 X-64.464 Y20.797 E4.46701
G1 X-64.48 Y20.486 E4.47833
G1 X-64.48 Y-24.515 E6.11344
G1 X-64.44 Y-25.003 E6.13123
G1 X-64.321 Y-25.478 E6.14902
G1 X-64.127 Y-25.927 E6.16679
G1 X-63.862 Y-26.339 E6.18459
G1 X-63.534 Y-26.702 E6.20237
G1 X-63.151 Y-27.007 E6.22016
G1 X-62.723 Y-27.245 E6.23795
G1 X-62.263 Y-27.411 E6.25572
G1 X-61.48 Y-27.515 E6.28442
G1 X-53.542 Y-27.515 E6.57285
G1 X-53.054 Y-27.475 E6.59064
G1 X-52.579 Y-27.356 E6.60843
G1 X-52.13 Y-27.162 E6.6262
G1 X-51.718 Y-26.897 E6.644
G1 X-51.355 Y-26.569 E6.66178
G1 X-51.05 Y-26.186 E6.67957
G1 X-50.812 Y-25.758 E6.69736
G1 X-50.646 Y-25.298 E6.71513
G1 X-50.542 Y-24.515 E6.74383
G1 X-50.542 Y-20.515 E6.88917
G1 X-42.48 Y-20.515 E7.18211
G1 X-42.48 Y-24.515 E7.32745
G1 X-42.44 Y-25.003 E7.34524
G1 X-42.321 Y-25.478 E7.36303
G1 X-42.127 Y-25.927 E7.3808
G1 X-41.862 Y-26.339 E7.3986
G1 X-41.534 Y-26.702 E7.41638
G1 X-41.151 Y-27.007 E7.43417
G1 X-40.723 Y-27.245 E7.45196
G1 X-40.263 Y-27.411 E7.46973
G1 X-39.48 Y-27.515 E7.49843
G1 X-31.542 Y-27.515 E7.78686
G1 X-31.054 Y-27.475 E7.80465
G1 X-30.579 Y-27.356 E7.82244
G1 X-30.13 Y-27.162 E7.84021
G1 X-29.718 Y-26.897 E7.85801
G1 X-29.355 Y-26.569 E7.87579
G1 X-29.05 Y-26.186 E7.89358
G1 X-28.812 Y-25.758 E7.91137
G1 X-28.646 Y-25.298 E7.92914
G1 X-28.542 Y-24.515 E7.95784
G1 X-28.542 Y-20.515 E8.10318
G1 X-20.48 Y-20.515 E8.39612
G1 X-20.48 Y-24.515 E8.54146
G1 X-20.44 Y-25.003 E8.55925
G1 X-20.321 Y-25.478 E8.57704
G1 X-20.127 Y-25.927 E8.59481
G1 X-19.862 Y-26.339 E8.61261
G1 X-19.534 Y-26.702 E8.63039
G1 X-19.151 Y-27.007 E8.64818
G1 X-18.723 Y-27.245 E8.66597
G1 X-18.263 Y-27.411 E8.68374
G1 X-17.48 Y-27.515 E8.71244
G1 X-9.542 Y-27.515 E9.00087
G1 X-9.054 Y-27.475 E9.01866
G1 X-8.579 Y-27.356 E9.03645
G1 X-8.13 Y-27.162 E9.05422
G1 X-7.718 Y-26.897 E9.07202
G1 X-7.355 Y-26.569 E9.0898
G1 X-7.05 Y-26.186 E9.10759
G1 X-6.812 Y-25.758 E9.12538
G1 X-6.646 Y-25.298 E9.14315
G1 X-6.542 Y-24.515 E9.17185
G1 X-6.542 Y-20.515 E9.31719
G1 X1.52 Y-20.515 E9.61013
G1 X1.52 Y-24.515 E9.75547
G1 X1.56 Y-25.003 E9.77326
G1 X1.679 Y-25.478 E9.79105
G1 X1.873 Y-25.927 E9.80882
G1 X2.138 Y-26.339 E9.82662
G1 X2.466 Y-26.702 E9.8444
G1 X2.849 Y-27.007 E9.86219
G1 X3.277 Y-27.245 E9.87998
G1 X3.737 Y-27.411 E9.89775
G1 X4.52 Y-27.515 E9.92645
G1 X12.458 Y-27.515 E10.21488
G1 X12.946 Y-27.475 E10.23267
G1 X13.421 Y-27.356 E10.25046
G1 X13.87 Y-27.162 E10.26823
G1 X14.282 Y-26.897 E10.28603
G1 X14.645 Y-26.569 E10.30381
G1 X14.95 Y-26.186 E10.3216
G1 X15.188 Y-25.758 E10.33939
G1 X15.354 Y-25.298 E10.35716
G1 X15.458 Y-24.515 E10.38586
G1 X15.458 Y-20.515 E10.5312
G1 X23.52 Y-20.515 E10.82414
G1 X23.52 Y-24.515 E10.96948
G1 X23.56 Y-25.003 E10.98727
G1 X23.679 Y-25.478 E11.00506
G1 X23.873 Y-25.927 E11.02283
G1 X24.138 Y-26.339 E11.04063
G1 X24.466 Y-26.702 E11.05841
G1 X24.849 Y-27.007 E11.0762
G1 X25.277 Y-27.245 E11.09399
G1 X25.737 Y-27.411 E11.11176
G1 X26.52 Y-27.515 E11.14046
G1 X34.458 Y-27.515 E11.42889
G1 X34.946 Y-27.475 E11.44668
G1 X35.421 Y-27.356 E11.46447
G1 X35.87 Y-27.162 E11.48224
G1 X36.282 Y-26.897 E11.50004
G1 X36.645 Y-26.569 E11.51782
G1 X36.95 Y-26.186 E11.53561
G1 X37.188 Y-25.758 E11.5534
G1 X37.354 Y-25.298 E11.57117
G1 X37.458 Y-24.515 E11.59987
G1 X37.458 Y-20.515 E11.74521
G1 X45.52 Y-20.515 E12.03814
G1 X45.52 Y-24.515 E12.18348
G1 X45.56 Y-25.003 E12.20128
G1 X45.679 Y-25.478 E12.21907
G1 X45.873 Y-25.927 E12.23684
G1 X46.138 Y-26.339 E12.25464
G1 X46.466 Y-26.702 E12.27242
G1 X46.849 Y-27.007 E12.29021
G1 X47.277 Y-27.245 E12.308
G1 X47.737 Y-27.411 E12.32577
G1 X48.52 Y-27.515 E12.35447
G1 X56.458 Y-27.515 E12.6429
G1 X56.946 Y-27.475 E12.66069
G1 X57.421 Y-27.356 E12.67848
G1 X57.87 Y-27.162 E12.69625
G1 X58.282 Y-26.897 E12.71405
G1 X58.645 Y-26.569 E12.73183
G1 X58.95 Y-26.186 E12.74962
G1 X59.188 Y-25.758 E12.76741
G1 X59.354 Y-25.298 E12.78518
G1 X59.458 Y-24.515 E12.81388
G1 X59.458 Y-20.515 E12.95922
G1 X71.458 Y-20.515 E13.39524
G1 X71.946 Y-20.475 E13.41303
G1 X72.421 Y-20.356 E13.43083
G1 X72.87 Y-20.162 E13.4486
G1 X73.282 Y-19.897 E13.4664
G1 X73.645 Y-19.569 E13.48417
G1 X73.95 Y-19.186 E13.50196
G1 X74.188 Y-18.758 E13.51976
G1 X74.354 Y-18.298 E13.53753
G1 X74.458 Y-17.515 E13.56623
G1 X74.458 Y-14.015 E13.6934
G1 X74.418 Y-13.527 E13.71119
G1 X74.299 Y-13.052 E13.72898
G1 X74.105 Y-12.603 E13.74675
G1 X73.84 Y-12.191 E13.76455
G1 X73.512 Y-11.828 E13.78233
G1 X73.129 Y-11.523 E13.80012
G1 X72.701 Y-11.285 E13.81791
G1 X72.241 Y-11.119 E13.83568
G1 X71.458 Y-11.015 E13.86438
G1 X59.458 Y-11.015 E14.3004
G1 X59.458 Y8.28 E15.00149
G1 X71.458 Y8.28 E15.43751
G1 X71.946 Y8.32 E15.4553
G1 X72.421 Y8.439 E15.47309
G1 X72.87 Y8.633 E15.49086
G1 X73.282 Y8.898 E15.50866
G1 X73.645 Y9.226 E15.52644
G1 X73.95 Y9.609 E15.54423
G1 X74.188 Y10.037 E15.56202
G1 X74.354 Y10.497 E15.57979
G1 X74.458 Y11.28 E15.60849
G1 X74.458 Y14.78 E15.73566
G1 X74.418 Y15.268 E15.75346
G1 X74.299 Y15.743 E15.77125
G1 X74.105 Y16.192 E15.78902
G1 X73.84 Y16.604 E15.80682
G1 X73.512 Y16.967 E15.8246
G1 X73.129 Y17.272 E15.84239
G1 X72.701 Y17.51 E15.86018
G1 X72.241 Y17.676 E15.87795
G1 X71.458 Y17.78 E15.90665
G1 X59.458 Y17.78 E16.34267
G1 X59.458 Y19.667 E16.41123
G1 X59.511 Y20.382 E16.43728
G1 X59.492 Y21.002 E16.45982
G1 X59.382 Y21.823 E16.48992
G1 X59.235 Y22.431 E16.51265
G1 X58.956 Y23.215 E16.54289
G1 X58.689 Y23.774 E16.56539
G1 X58.259 Y24.477 E16.59534
G1 X57.882 Y24.971 E16.61792
G1 X57.311 Y25.576 E16.64814
G1 X56.845 Y25.978 E16.67051
G1 X56.168 Y26.45 E16.70049
G1 X55.617 Y26.754 E16.72336
G1 X54.855 Y27.075 E16.7534
G1 X54.267 Y27.254 E16.77574
G1 X53.45 Y27.414 E16.80599
G1 X52.826 Y27.47 E16.82875
G1 X52.001 Y27.457 E16.85873
G1 X51.384 Y27.383 E16.88131
G1 X50.573 Y27.199 E16.91153
G1 X49.989 Y27.001 E16.93393
G1 X49.239 Y26.658 E16.9639
G1 X48.703 Y26.342 E16.98651
G1 X48.034 Y25.847 E17.01674
G1 X47.574 Y25.426 E17.0394
G1 X47.025 Y24.807 E17.06946
G1 X46.662 Y24.3 E17.09212
G1 X46.254 Y23.583 E17.1221
G1 X46.006 Y23.022 E17.14438
G1 X45.751 Y22.233 E17.17451
G1 X45.622 Y21.621 E17.19724
G1 X45.536 Y20.797 E17.22734
G1 X45.52 Y20.486 E17.23866
G1 X45.52 Y17.78 E17.33698
G1 X37.458 Y17.78 E17.62991
G1 X37.458 Y19.667 E17.69847
G1 X37.511 Y20.382 E17.72453
G1 X37.492 Y21.002 E17.74706
G1 X37.382 Y21.823 E17.77716
G1 X37.235 Y22.431 E17.79989
G1 X36.956 Y23.215 E17.83013
G1 X36.689 Y23.774 E17.85264
G1 X36.259 Y24.477 E17.88258
G1 X35.882 Y24.971 E17.90516
G1 X35.311 Y25.576 E17.93539
G1 X34.845 Y25.978 E17.95775
G1 X34.168 Y26.45 E17.98773
G1 X33.617 Y26.754 E18.0106
G1 X32.855 Y27.075 E18.04064
G1 X32.267 Y27.254 E18.06298
G1 X31.45 Y27.414 E18.09323
G1 X30.826 Y27.47 E18.11599
G1 X30.001 Y27.457 E18.14597
G1 X29.384 Y27.383 E18.16855
G1 X28.573 Y27.199 E18.19877
G1 X27.989 Y27.001 E18.22117
G1 X27.239 Y26.658 E18.25114
G1 X26.703 Y26.342 E18.27375
G1 X26.034 Y25.847 E18.30399
G1 X25.574 Y25.426 E18.32664
G1 X25.025 Y24.807 E18.35671
G1 X24.662 Y24.3 E18.37936
G1 X24.254 Y23.583 E18.40934
G1 X24.006 Y23.022 E18.43162
G1 X23.751 Y22.233 E18.46175
G1 X23.622 Y21.621 E18.48448
G1 X23.536 Y20.797 E18.51458
G1 X23.52 Y20.486 E18.5259
G1 X23.52 Y17.78 E18.62422
G1 X15.458 Y17.78 E18.91715
G1 X15.458 Y19.667 E18.98572
G1 X15.511 Y20.382 E19.01177
G1 X15.492 Y21.002 E19.0343
G1 X15.382 Y21.823 E19.0644
G1 X15.235 Y22.431 E19.08713
G1 X14.956 Y23.215 E19.11737
G1 X14.689 Y23.774 E19.13988
G1 X14.259 Y24.477 E19.16982
G1 X13.882 Y24.971 E19.1924
G1 X13.311 Y25.576 E19.22263
G1 X12.845 Y25.978 E19.24499
G1 X12.168 Y26.45 E19.27498
G1 X11.617 Y26.754 E19.29784
G1 X10.855 Y27.075 E19.32788
G1 X10.267 Y27.254 E19.35022
G1 X9.45 Y27.414 E19.38047
G1 X8.826 Y27.47 E19.40323
G1 X8.001 Y27.457 E19.43321
G1 X7.384 Y27.383 E19.45579
G1 X6.573 Y27.199 E19.48601
G1 X5.989 Y27.001 E19.50841
G1 X5.239 Y26.658 E19.53838
G1 X4.703 Y26.342 E19.56099
G1 X4.034 Y25.847 E19.59123
G1 X3.574 Y25.426 E19.61388
G1 X3.025 Y24.807 E19.64395
G1 X2.662 Y24.3 E19.6666
G1 X2.254 Y23.583 E19.69658
G1 X2.006 Y23.022 E19.71887
G1 X1.751 Y22.233 E19.74899
G1 X1.622 Y21.621 E19.77172
G1 X1.536 Y20.797 E19.80182
G1 X1.52 Y20.486 E19.81314
G1 X1.52 Y18.445 E19.8873
G0 F1080 X1.52 Y17.78
G0 F1500 X1.92 Y17.38
G1 F1200 X-6.942 Y17.38 E20.2093
G1 X-6.942 Y19.683 E20.29298
G1 X-6.888 Y20.412 E20.31954
G1 X-6.904 Y20.949 E20.33906
G1 X-7.014 Y21.77 E20.36916
G1 X-7.141 Y22.297 E20.38885
G1 X-7.42 Y23.081 E20.41909
G1 X-7.652 Y23.566 E20.43862
G1 X-8.082 Y24.269 E20.46857
G1 X-8.409 Y24.697 E20.48814
G1 X-8.98 Y25.302 E20.51837
G1 X-9.384 Y25.65 E20.53774
G1 X-10.061 Y26.122 E20.56773
G1 X-10.539 Y26.385 E20.58755
G1 X-11.301 Y26.706 E20.61759
G1 X-11.81 Y26.862 E20.63694
G1 X-12.627 Y27.022 E20.66719
G1 X-13.168 Y27.07 E20.68692
G1 X-13.993 Y27.057 E20.7169
G1 X-14.527 Y26.993 E20.73644
G1 X-15.338 Y26.809 E20.76666
G1 X-15.844 Y26.637 E20.78608
G1 X-16.594 Y26.294 E20.81605
G1 X-17.059 Y26.02 E20.83566
G1 X-17.728 Y25.525 E20.86589
G1 X-18.127 Y25.16 E20.88554
G1 X-18.676 Y24.541 E20.91561
G1 X-18.991 Y24.102 E20.93524
G1 X-19.399 Y23.385 E20.96521
G1 X-19.613 Y22.899 E20.98451
G1 X-19.868 Y22.11 E21.01464
G1 X-19.98 Y21.58 E21.03432
G1 X-20.066 Y20.756 E21.06442
G1 X-20.08 Y20.486 E21.07425
G1 X-20.08 Y17.38 E21.1871
G1 X-28.942 Y17.38 E21.5091
G1 X-28.942 Y19.683 E21.59278
G1 X-28.888 Y20.412 E21.61934
G1 X-28.904 Y20.949 E21.63886
G1 X-29.014 Y21.77 E21.66896
G1 X-29.141 Y22.297 E21.68866
G1 X-29.42 Y23.081 E21.7189
G1 X-29.652 Y23.566 E21.73843
G1 X-30.082 Y24.269 E21.76837
G1 X-30.409 Y24.697 E21.78794
G1 X-30.98 Y25.302 E21.81817
G1 X-31.384 Y25.65 E21.83755
G1 X-32.061 Y26.122 E21.86753
G1 X-32.539 Y26.385 E21.88736
G1 X-33.301 Y26.706 E21.9174
G1 X-33.81 Y26.862 E21.93674
G1 X-34.627 Y27.022 E21.96699
G1 X-35.168 Y27.07 E21.98673
G1 X-35.993 Y27.057 E22.01671
G1 X-36.527 Y26.993 E22.03625
G1 X-37.338 Y26.809 E22.06647
G1 X-37.844 Y26.637 E22.08589
G1 X-38.594 Y26.294 E22.11585
G1 X-39.059 Y26.02 E22.13546
G1 X-39.728 Y25.525 E22.1657
G1 X-40.127 Y25.16 E22.18535
G1 X-40.676 Y24.541 E22.21541
G1 X-40.991 Y24.102 E22.23504
G1 X-41.399 Y23.385 E22.26502
G1 X-41.613 Y22.899 E22.28431
G1 X-41.868 Y22.11 E22.31444
G1 X-41.98 Y21.58 E22.33413
G1 X-42.066 Y20.756 E22.36423
G1 X-42.08 Y20.486 E22.37405
G1 X-42.08 Y17.38 E22.48691
G1 X-50.942 Y17.38 E22.80891
G1 X-50.942 Y19.683 E22.89259
G1 X-50.888 Y20.412 E22.91915
G1 X-50.904 Y20.949 E22.93867
G1 X-51.014 Y21.77 E22.96877
G1 X-51.141 Y22.297 E22.98846
G1 X-51.42 Y23.081 E23.0187
G1 X-51.652 Y23.566 E23.03824
G1 X-52.082 Y24.269 E23.06818
G1 X-52.409 Y24.697 E23.08775
G1 X-52.98 Y25.302 E23.11798
G1 X-53.384 Y25.65 E23.13735
G1 X-54.061 Y26.122 E23.16734
G1 X-54.539 Y26.385 E23.18716
G1 X-55.301 Y26.706 E23.21721
G1 X-55.81 Y26.862 E23.23655
G1 X-56.627 Y27.022 E23.2668
G1 X-57.168 Y27.07 E23.28653
G1 X-57.993 Y27.057 E23.31651
G1 X-58.527 Y26.993 E23.33606
G1 X-59.338 Y26.809 E23.36627
G1 X-59.844 Y26.637 E23.38569
G1 X-60.594 Y26.294 E23.41566
G1 X-61.059 Y26.02 E23.43527
G1 X-61.728 Y25.525 E23.46551
G1 X-62.127 Y25.16 E23.48516
G1 X-62.676 Y24.541 E23.51522
G1 X-62.991 Y24.102 E23.53485
G1 X-63.399 Y23.385 E23.56483
G1 X-63.613 Y22.899 E23.58412
G1 X-63.868 Y22.11 E23.61425
G1 X-63.98 Y21.58 E23.63393
G1 X-64.066 Y20.756 E23.66403
G1 X-64.08 Y20.486 E23.67386
G1 X-64.08 Y-24.515 E25.30897
G1 X-64.04 Y-24.969 E25.32553
G1 X-63.922 Y-25.409 E25.34208
G1 X-63.728 Y-25.821 E25.35863
G1 X-63.465 Y-26.194 E25.37521
G1 X-63.142 Y-26.515 E25.39176
G1 X-62.767 Y-26.774 E25.40832
G1 X-62.353 Y-26.964 E25.42487
G1 X-61.912 Y-27.079 E25.44143
G1 X-61.48 Y-27.115 E25.45718
G1 X-53.542 Y-27.115 E25.74561
G1 X-53.088 Y-27.075 E25.76217
G1 X-52.648 Y-26.957 E25.77872
