;FLAVOR:Marlin
;TIME:981
;Filament used: 0.982863m
;Layer height: 0.24
;MINX:-53.489
;MINY:-73.338
;MINZ:0.24
;MAXX:58.193
;MAXY:-55.909
;MAXZ:15
;TARGET_MACHINE.NAME:Unknown
;Generated with Cura_SteamEngine 5.10.1
M140 S45
M105
M190 S45
M104 S210
M105
M109 S210
;FLAVOR:Marlin
M82 ;absolute extrusion mode
G21
G90
M82
M107 T0
G28
G92 E0
G0 E3 F200
G92 E0 ; reset extrusion distance
M106 S255 ; Enable cooling fan full speed
G1 X-98 Y0 Z0.4 F3000 ; move to arc start
G3 X0 Y-98 I98 Z0.4 E40 F400 ; lay arc stripe 90deg
G92 E0 ; reset extrusion distance
G4 P500 ; wait for 0.5 sec
G0 Z10 E-1 ; Lift 15mm and retract 1mm filament
G4 P2000 ; wait for 5 sec
G0 Z15
M107 ; Disable cooling fan
G1 X0 Y-85 Z4 E0 F3000 ; get off the bed
M82 ;absolute extrusion mode
G92 E0
G92 E0
G1 F1500 E-1
;LAYER_COUNT:42
;LAYER:0
M106 S102
G0 F3600 X-14.13 Y-56.713 Z0.24
;TYPE:SKIRT
G1 F3600 E0.71493
G1 F1200 X-15.224 Y-56.464 E0.75569
G1 X-16.137 Y-56.565 E0.78907
G1 X-35.36 Y-62.635 E1.52153
G1 X-36.702 Y-58.4 E1.68295
G1 X-37.021 Y-57.763 E1.70884
G1 X-37.779 Y-56.879 E1.75115
G1 X-39.011 Y-56.144 E1.80327
G1 X-40.303 Y-55.909 E1.85099
G1 X-41.155 Y-56.018 E1.8822
G1 X-41.9 Y-56.225 E1.91029
G1 X-42.618 Y-56.59 E1.93956
G1 X-43.39 Y-57.261 E1.97673
G1 X-43.94 Y-58.026 E2.01096
G1 X-44.416 Y-59.339 E2.06171
G1 X-44.374 Y-60.496 E2.10377
G1 X-44.233 Y-61.104 E2.12645
G1 X-44.245 Y-61.536 E2.14215
G1 X-44.338 Y-61.7 E2.149
G1 X-44.553 Y-61.88 E2.15919
G1 X-44.719 Y-61.941 E2.16562
G1 X-44.984 Y-61.94 E2.17525
G1 X-45.248 Y-61.804 E2.18604
G1 X-45.356 Y-61.689 E2.19177
G1 X-45.458 Y-61.444 E2.20141
G1 X-45.47 Y-61.18 E2.21102
G1 X-45.242 Y-60.196 E2.24772
G1 X-45.405 Y-58.936 E2.29388
G1 X-45.679 Y-58.196 E2.32255
G1 X-46.206 Y-57.354 E2.35864
G1 X-46.846 Y-56.735 E2.391
G1 X-47.804 Y-56.198 E2.4309
G1 X-48.589 Y-55.995 E2.46036
G1 X-49.492 Y-55.928 E2.49326
G1 X-50.542 Y-56.136 E2.53216
G1 X-51.266 Y-56.463 E2.56102
G1 X-52.07 Y-57.062 E2.59745
G1 X-52.52 Y-57.59 E2.62266
G1 X-53.051 Y-58.549 E2.66249
G1 X-53.306 Y-59.554 E2.70016
G1 X-53.441 Y-60.438 E2.73265
G1 X-53.489 Y-61.241 E2.76188
G1 X-53.478 Y-61.785 E2.78165
G1 X-53.363 Y-62.788 E2.81834
G1 X-53.178 Y-63.623 E2.84941
G1 X-52.96 Y-64.304 E2.87539
G1 X-52.607 Y-65.135 E2.9082
G1 X-52.361 Y-65.6 E2.92731
G1 X-51.752 Y-66.523 E2.96749
G1 X-51.276 Y-67.102 E2.99473
G1 X-50.711 Y-67.674 E3.02394
G1 X-50.083 Y-68.2 E3.05371
G1 X-49.447 Y-68.641 E3.08183
G1 X-48.828 Y-68.998 E3.10779
G1 X-43.332 Y-71.839 E3.33259
G1 X-42.128 Y-72.186 E3.37812
G1 X-40.803 Y-72.346 E3.42661
G1 X-39.824 Y-72.295 E3.46223
G1 X-38.821 Y-72.099 E3.49937
G1 X-13.686 Y-64.171 E4.457
G1 X-12.945 Y-63.747 E4.48802
G1 X-12.464 Y-63.278 E4.51243
G1 X-12.009 Y-62.597 E4.54219
G1 X-11.762 Y-61.508 E4.58276
G1 X-11.863 Y-60.58 E4.61668
G1 X-12.553 Y-58.418 E4.69914
G1 X-12.915 Y-57.75 E4.72675
G1 X-13.379 Y-57.225 E4.75221
G1 X-14.13 Y-56.713 E4.78523
G0 F3600 X-14.293 Y-57.086
G1 F1200 X-15.246 Y-56.869 E4.82075
G1 X-16.059 Y-56.959 E4.85047
G1 X-35.62 Y-63.136 E5.59581
G1 X-37.083 Y-58.521 E5.77172
G1 X-37.356 Y-57.987 E5.79351
G1 X-38.041 Y-57.188 E5.83175
G1 X-39.152 Y-56.525 E5.87876
G1 X-40.314 Y-56.314 E5.92167
G1 X-41.104 Y-56.415 E5.95061
G1 X-41.754 Y-56.6 E5.97517
G1 X-42.394 Y-56.925 E6.00125
G1 X-43.09 Y-57.53 E6.03476
G1 X-43.584 Y-58.217 E6.0655
G1 X-44.013 Y-59.401 E6.11126
G1 X-43.975 Y-60.443 E6.14915
G1 X-43.836 Y-61.043 E6.17152
G1 X-43.812 Y-61.369 E6.1834
G1 X-43.861 Y-61.67 E6.19448
G1 X-44.013 Y-61.938 E6.20568
G1 X-44.171 Y-62.107 E6.21408
G1 X-44.374 Y-62.241 E6.22292
G1 X-44.622 Y-62.332 E6.23252
G1 X-44.843 Y-62.358 E6.24061
G1 X-45.079 Y-62.331 E6.24924
G1 X-45.306 Y-62.247 E6.25803
G1 X-45.509 Y-62.111 E6.26691
G1 X-45.681 Y-61.926 E6.27609
G1 X-45.794 Y-61.726 E6.28444
G1 X-45.856 Y-61.508 E6.29267
G1 X-45.873 Y-61.143 E6.30595
G1 X-45.648 Y-60.175 E6.34206
G1 X-45.796 Y-59.031 E6.38397
G1 X-46.04 Y-58.373 E6.40947
G1 X-46.518 Y-57.609 E6.44222
G1 X-47.087 Y-57.059 E6.47097
G1 X-47.957 Y-56.571 E6.50721
G1 X-48.619 Y-56.394 E6.53211
G1 X-49.469 Y-56.331 E6.56308
G1 X-50.417 Y-56.519 E6.5982
G1 X-51.062 Y-56.81 E6.62391
G1 X-51.795 Y-57.356 E6.65712
G1 X-52.189 Y-57.818 E6.67918
G1 X-52.675 Y-58.697 E6.71568
G1 X-52.918 Y-59.653 E6.75152
G1 X-53.042 Y-60.462 E6.78126
G1 X-53.089 Y-61.233 E6.80932
G1 X-53.078 Y-61.777 E6.82909
G1 X-52.966 Y-62.742 E6.86439
G1 X-52.797 Y-63.502 E6.89268
G1 X-52.592 Y-64.148 E6.91731
G1 X-52.253 Y-64.948 E6.94888
G1 X-52.007 Y-65.413 E6.96799
G1 X-51.442 Y-66.27 E7.00529
G1 X-50.991 Y-66.821 E7.03116
G1 X-50.426 Y-67.393 E7.06037
G1 X-49.855 Y-67.872 E7.08746
G1 X-49.247 Y-68.295 E7.11437
G1 X-48.644 Y-68.643 E7.13966
G1 X-43.184 Y-71.465 E7.36299
G1 X-42.078 Y-71.789 E7.40486
G1 X-40.822 Y-71.946 E7.45085
G1 X-39.901 Y-71.902 E7.48436
G1 X-38.898 Y-71.706 E7.52149
G1 X-13.85 Y-63.804 E8.47582
G1 X-13.186 Y-63.424 E8.50362
G1 X-12.775 Y-63.023 E8.52449
G1 X-12.382 Y-62.435 E8.55018
G1 X-12.167 Y-61.486 E8.58554
G1 X-12.257 Y-60.662 E8.61566
G1 X-12.922 Y-58.578 E8.69514
G1 X-13.246 Y-57.98 E8.71985
G1 X-13.646 Y-57.527 E8.74181
G1 X-14.293 Y-57.086 E8.77026
G0 F3600 X-14.456 Y-57.459
G1 F1200 X-15.268 Y-57.274 E8.80052
G1 X-15.981 Y-57.353 E8.82659
G1 X-35.881 Y-63.637 E9.58485
G1 X-37.464 Y-58.642 E9.77524
G1 X-37.69 Y-58.212 E9.79289
G1 X-38.301 Y-57.499 E9.82701
G1 X-39.295 Y-56.906 E9.86906
G1 X-40.326 Y-56.719 E9.90714
G1 X-40.994 Y-56.8 E9.93159
G1 X-41.608 Y-56.975 E9.95478
G1 X-42.168 Y-57.259 E9.9776
G1 X-42.792 Y-57.802 E10.00765
G1 X-43.228 Y-58.408 E10.03478
G1 X-43.61 Y-59.463 E10.07555
G1 X-43.576 Y-60.39 E10.10925
G1 X-43.439 Y-60.981 E10.1313
G1 X-43.409 Y-61.388 E10.14613
G1 X-43.478 Y-61.804 E10.16145
G1 X-43.69 Y-62.178 E10.17707
G1 X-43.911 Y-62.415 E10.18884
G1 X-44.192 Y-62.601 E10.20109
G1 X-44.525 Y-62.723 E10.21397
G1 X-44.842 Y-62.76 E10.22557
G1 X-45.174 Y-62.722 E10.23771
G1 X-45.487 Y-62.606 E10.24984
G1 X-45.771 Y-62.416 E10.26226
G1 X-46.006 Y-62.163 E10.2748
G1 X-46.166 Y-61.88 E10.28661
G1 X-46.254 Y-61.573 E10.29822
G1 X-46.275 Y-61.107 E10.31517
G1 X-46.054 Y-60.155 E10.35068
G1 X-46.187 Y-59.126 E10.38838
G1 X-46.401 Y-58.55 E10.41071
G1 X-46.83 Y-57.864 E10.4401
G1 X-47.328 Y-57.383 E10.46526
G1 X-48.111 Y-56.944 E10.49788
G1 X-48.685 Y-56.79 E10.51947
G1 X-49.446 Y-56.734 E10.5472
G1 X-50.292 Y-56.902 E10.57854
G1 X-50.858 Y-57.157 E10.60109
G1 X-51.52 Y-57.65 E10.63108
G1 X-51.858 Y-58.047 E10.65003
G1 X-52.301 Y-58.848 E10.68329
G1 X-52.523 Y-59.714 E10.71577
G1 X-52.643 Y-60.487 E10.7442
G1 X-52.689 Y-61.225 E10.77106
G1 X-52.678 Y-61.769 E10.79083
G1 X-52.569 Y-62.695 E10.82471
G1 X-52.415 Y-63.382 E10.85029
G1 X-52.223 Y-63.993 E10.87356
G1 X-51.899 Y-64.761 E10.90385
G1 X-51.653 Y-65.226 E10.92297
G1 X-51.132 Y-66.017 E10.95738
G1 X-50.681 Y-66.568 E10.98325
G1 X-50.168 Y-67.087 E11.00977
G1 X-49.626 Y-67.544 E11.03553
G1 X-49.047 Y-67.949 E11.0612
G1 X-48.46 Y-68.288 E11.08583
G1 X-43.033 Y-71.093 E11.3078
G1 X-42.028 Y-71.392 E11.3459
G1 X-40.772 Y-71.549 E11.39189
G1 X-39.978 Y-71.509 E11.42078
G1 X-38.975 Y-71.313 E11.45791
G1 X-14.014 Y-63.437 E12.40895
G1 X-13.43 Y-63.103 E12.43339
G1 X-13.108 Y-62.801 E12.44944
G1 X-12.756 Y-62.274 E12.47246
G1 X-12.572 Y-61.464 E12.50264
G1 X-12.651 Y-60.744 E12.52896
G1 X-13.292 Y-58.735 E12.60558
G1 X-13.575 Y-58.212 E12.62719
G1 X-13.913 Y-57.829 E12.64575
G1 X-14.456 Y-57.459 E12.66963
G0 F3600 X-14.618 Y-57.832
G1 F1200 X-15.29 Y-57.679 E12.69467
G1 X-15.903 Y-57.747 E12.71708
G1 X-36.142 Y-64.138 E13.48826
G1 X-37.845 Y-58.763 E13.69313
G1 X-38.023 Y-58.438 E13.70659
G1 X-38.563 Y-57.808 E13.73674
G1 X-39.436 Y-57.287 E13.77368
G1 X-40.338 Y-57.124 E13.80698
G1 X-40.884 Y-57.185 E13.82695
G1 X-41.462 Y-57.35 E13.84879
G1 X-41.942 Y-57.593 E13.86833
G1 X-42.494 Y-58.074 E13.89494
G1 X-42.872 Y-58.599 E13.91844
G1 X-43.207 Y-59.525 E13.95422
G1 X-43.177 Y-60.337 E13.98375
G1 X-43.042 Y-60.92 E14.00549
G1 X-43.006 Y-61.408 E14.02327
G1 X-43.094 Y-61.938 E14.04279
G1 X-43.365 Y-62.416 E14.06276
G1 X-43.651 Y-62.722 E14.07798
G1 X-44.01 Y-62.96 E14.09363
G1 X-44.432 Y-63.115 E14.10996
G1 X-44.842 Y-63.163 E14.12496
G1 X-45.269 Y-63.113 E14.14058
G1 X-45.671 Y-62.964 E14.15616
G1 X-46.033 Y-62.722 E14.17198
G1 X-46.331 Y-62.402 E14.18787
G1 X-46.536 Y-62.038 E14.20305
G1 X-46.652 Y-61.636 E14.21825
G1 X-46.678 Y-61.07 E14.23884
G1 X-46.46 Y-60.134 E14.27376
G1 X-46.578 Y-59.223 E14.30714
G1 X-46.763 Y-58.726 E14.32641
G1 X-47.142 Y-58.119 E14.35241
G1 X-47.569 Y-57.707 E14.37397
G1 X-48.264 Y-57.317 E14.40292
G1 X-48.714 Y-57.189 E14.41992
G1 X-49.423 Y-57.137 E14.44575
G1 X-50.166 Y-57.284 E14.47327
G1 X-50.655 Y-57.505 E14.49277
G1 X-51.247 Y-57.946 E14.5196
G1 X-51.508 Y-58.241 E14.53391
G1 X-51.926 Y-58.996 E14.56526
G1 X-52.135 Y-59.813 E14.59591
G1 X-52.244 Y-60.513 E14.62165
G1 X-52.289 Y-61.217 E14.64728
G1 X-52.278 Y-61.761 E14.66705
G1 X-52.178 Y-62.608 E14.69804
G1 X-52.033 Y-63.262 E14.72238
G1 X-51.841 Y-63.873 E14.74565
G1 X-51.545 Y-64.574 E14.7733
G1 X-51.299 Y-65.039 E14.79241
G1 X-50.822 Y-65.764 E14.82395
G1 X-50.396 Y-66.287 E14.84846
G1 X-49.909 Y-66.782 E14.87369
G1 X-49.396 Y-67.217 E14.89813
G1 X-48.847 Y-67.603 E14.92251
G1 X-48.276 Y-67.933 E14.94647
G1 X-42.884 Y-70.72 E15.16702
G1 X-41.978 Y-70.995 E15.20142
G1 X-40.722 Y-71.152 E15.24741
G1 X-40.055 Y-71.116 E15.27168
G1 X-39.052 Y-70.92 E15.30881
G1 X-14.178 Y-63.07 E16.25655
G1 X-13.671 Y-62.78 E16.27777
G1 X-13.382 Y-62.509 E16.29217
G1 X-13.13 Y-62.114 E16.30919
G1 X-12.977 Y-61.442 E16.33424
G1 X-13.045 Y-60.824 E16.35683
G1 X-13.648 Y-58.918 E16.42946
G1 X-13.875 Y-58.477 E16.44749
G1 X-14.213 Y-58.094 E16.46605
G1 X-14.618 Y-57.832 E16.48357
G0 F3600 X-14.775 Y-58.206
G1 F1200 X-15.313 Y-58.084 E16.50362
G1 X-15.783 Y-58.128 E16.52077
G1 X-36.403 Y-64.639 E17.30646
G1 X-38.202 Y-58.944 E17.52347
G1 X-38.327 Y-58.698 E17.53349
G1 X-38.823 Y-58.119 E17.5612
G1 X-39.579 Y-57.668 E17.59318
G1 X-40.353 Y-57.528 E17.62176
G1 X-40.778 Y-57.571 E17.63728
G1 X-41.291 Y-57.712 E17.65661
G1 X-41.679 Y-57.895 E17.6722
G1 X-42.231 Y-58.376 E17.6988
G1 X-42.515 Y-58.787 E17.71696
G1 X-42.804 Y-59.587 E17.74786
G1 X-42.778 Y-60.284 E17.77321
G1 X-42.645 Y-60.859 E17.79465
G1 X-42.604 Y-61.427 E17.81534
G1 X-42.71 Y-62.072 E17.83909
G1 X-43.04 Y-62.654 E17.8634
G1 X-43.393 Y-63.032 E17.88219
G1 X-43.828 Y-63.32 E17.90115
G1 X-44.335 Y-63.506 E17.92077
G1 X-44.843 Y-63.565 E17.93936
G1 X-45.364 Y-63.504 E17.95842
G1 X-45.855 Y-63.322 E17.97744
G1 X-46.292 Y-63.03 E17.99654
G1 X-46.655 Y-62.641 E18.01587
G1 X-46.908 Y-62.192 E18.0346
G1 X-47.05 Y-61.698 E18.05327
G1 X-47.08 Y-61.033 E18.07746
G1 X-46.866 Y-60.113 E18.11178
G1 X-46.97 Y-59.316 E18.14099
G1 X-47.102 Y-58.938 E18.15553
G1 X-47.454 Y-58.374 E18.17969
G1 X-47.811 Y-58.029 E18.19773
G1 X-48.422 Y-57.687 E18.22317
G1 X-48.743 Y-57.588 E18.23538
G1 X-49.4 Y-57.54 E18.25931
G1 X-50.045 Y-57.668 E18.28321
G1 X-50.419 Y-57.828 E18.29799
G1 X-50.956 Y-58.221 E18.32217
G1 X-51.158 Y-58.435 E18.33286
G1 X-51.551 Y-59.144 E18.36231
G1 X-51.747 Y-59.912 E18.39111
G1 X-51.845 Y-60.539 E18.41417
G1 X-51.889 Y-61.209 E18.43857
G1 X-51.878 Y-61.753 E18.45834
G1 X-51.787 Y-62.522 E18.48648
G1 X-51.651 Y-63.142 E18.50954
G1 X-51.459 Y-63.753 E18.53281
G1 X-51.191 Y-64.387 E18.55782
G1 X-50.945 Y-64.852 E18.57693
G1 X-50.511 Y-65.512 E18.60564
G1 X-50.11 Y-66.007 E18.62878
G1 X-49.65 Y-66.477 E18.65268
G1 X-49.165 Y-66.89 E18.67582
G1 X-48.646 Y-67.257 E18.69892
G1 X-48.092 Y-67.578 E18.72219
G1 X-42.733 Y-70.348 E18.94138
G1 X-41.926 Y-70.598 E18.97208
G1 X-40.741 Y-70.752 E19.01549
G1 X-40.132 Y-70.723 E19.03765
G1 X-39.129 Y-70.527 E19.07478
G1 X-14.298 Y-62.689 E20.0209
G1 X-13.876 Y-62.437 E20.03876
G1 X-13.665 Y-62.226 E20.0496
G1 X-13.504 Y-61.956 E20.06102
G1 X-13.382 Y-61.418 E20.08107
G1 X-13.426 Y-60.945 E20.09833
G1 X-14.029 Y-59.039 E20.17096
G1 X-14.228 Y-58.665 E20.18636
G1 X-14.506 Y-58.366 E20.20119
G1 X-14.775 Y-58.206 E20.21256
G0 F3600 X-14.96 Y-58.56
G1 F1200 X-15.389 Y-58.477 E20.22844
G1 X-15.663 Y-58.509 E20.23846
G1 X-36.638 Y-65.132 E21.03768
G1 X-36.699 Y-65.029 E21.04203
G1 X-38.583 Y-59.064 E21.26932
G1 X-38.66 Y-58.924 E21.27513
G1 X-39.083 Y-58.43 E21.29876
G1 X-39.722 Y-58.049 E21.32579
G1 X-40.369 Y-57.932 E21.34968
G1 X-40.672 Y-57.957 E21.36073
G1 X-41.185 Y-58.098 E21.38006
G1 X-41.46 Y-58.234 E21.39121
G1 X-41.934 Y-58.648 E21.41407
G1 X-42.139 Y-58.923 E21.42654
G1 X-42.401 Y-59.649 E21.45458
G1 X-42.379 Y-60.231 E21.47574
G1 X-42.248 Y-60.798 E21.49689
G1 X-42.201 Y-61.447 E21.52053
G1 X-42.307 Y-62.088 E21.54414
G1 X-42.392 Y-62.324 E21.55325
G1 X-42.714 Y-62.89 E21.57691
G1 X-43.133 Y-63.339 E21.59923
G1 X-43.649 Y-63.681 E21.62172
G1 X-44.238 Y-63.897 E21.64452
G1 X-44.843 Y-63.968 E21.66665
G1 X-45.459 Y-63.895 E21.68919
G1 X-46.039 Y-63.68 E21.71166
G1 X-46.554 Y-63.336 E21.73417
G1 X-46.977 Y-62.882 E21.75671
G1 X-47.279 Y-62.346 E21.77907
G1 X-47.448 Y-61.761 E21.80119
G1 X-47.483 Y-60.996 E21.82902
G1 X-47.272 Y-60.091 E21.86278
G1 X-47.352 Y-59.435 E21.8868
G1 X-47.441 Y-59.15 E21.89764
G1 X-47.77 Y-58.623 E21.92022
G1 X-48.006 Y-58.378 E21.93258
G1 X-48.617 Y-58.036 E21.95802
G1 X-48.772 Y-57.987 E21.96393
G1 X-49.376 Y-57.943 E21.98593
G1 X-49.9 Y-58.041 E22.0053
G1 X-50.183 Y-58.151 E22.01633
G1 X-50.72 Y-58.544 E22.04051
G1 X-50.834 Y-58.674 E22.04679
G1 X-51.176 Y-59.293 E22.07249
G1 X-51.352 Y-59.975 E22.09808
G1 X-51.446 Y-60.566 E22.11983
G1 X-51.489 Y-61.201 E22.14295
G1 X-51.478 Y-61.745 E22.16272
G1 X-51.396 Y-62.437 E22.18804
G1 X-51.269 Y-63.022 E22.20979
G1 X-51.077 Y-63.633 E22.23306
G1 X-50.837 Y-64.2 E22.25544
G1 X-50.591 Y-64.665 E22.27455
G1 X-50.199 Y-65.261 E22.30047
G1 X-49.823 Y-65.728 E22.32226
G1 X-49.39 Y-66.173 E22.34482
G1 X-48.934 Y-66.563 E22.36662
G1 X-48.415 Y-66.93 E22.38971
G1 X-47.908 Y-67.223 E22.41099
G1 X-42.612 Y-69.967 E22.62772
G1 X-41.873 Y-70.202 E22.65589
G1 X-40.757 Y-70.352 E22.69681
G1 X-40.209 Y-70.33 E22.71674
G1 X-39.206 Y-70.134 E22.75387
G1 X-14.46 Y-62.321 E23.69677
G1 X-14.159 Y-62.154 E23.70927
G1 X-13.948 Y-61.943 E23.72012
G1 X-13.858 Y-61.771 E23.72717
G1 X-13.775 Y-61.342 E23.74305
G1 X-13.807 Y-61.066 E23.75314
G1 X-14.41 Y-59.16 E23.82578
G1 X-14.577 Y-58.86 E23.83826
G1 X-14.788 Y-58.65 E23.84907
G1 X-14.96 Y-58.56 E23.85613
G0 F3600 X-15.245 Y-59.3
G1 F1200 X-15.423 Y-59.271 E23.86268
G1 X-36.542 Y-65.939 E24.66738
G1 X-36.953 Y-65.879 E24.68247
G1 X-37.242 Y-65.684 E24.69514
G1 X-37.433 Y-65.358 E24.70887
G1 X-39.32 Y-59.382 E24.93657
G1 X-39.567 Y-59.073 E24.95095
G1 X-39.936 Y-58.824 E24.96712
G1 X-40.46 Y-58.729 E24.98647
G1 X-40.973 Y-58.87 E25.0058
G1 X-41.408 Y-59.25 E25.02679
G1 X-41.597 Y-59.775 E25.04706
G1 X-41.599 Y-60.05 E25.05705
G1 X-41.454 Y-60.674 E25.08033
G1 X-41.396 Y-61.487 E25.10995
G1 X-41.529 Y-62.291 E25.13956
G1 X-41.659 Y-62.655 E25.1536
G1 X-42.064 Y-63.368 E25.1834
G1 X-42.611 Y-63.955 E25.21255
G1 X-43.285 Y-64.401 E25.24192
G1 X-44.044 Y-64.679 E25.27129
G1 X-44.845 Y-64.772 E25.30059
G1 X-45.649 Y-64.677 E25.33
G1 X-46.407 Y-64.396 E25.35938
G1 X-47.074 Y-63.952 E25.38849
G1 X-47.627 Y-63.356 E25.41803
G1 X-48.021 Y-62.66 E25.44709
G1 X-48.244 Y-61.886 E25.47636
G1 X-48.287 Y-60.924 E25.51135
G1 X-48.084 Y-60.045 E25.54413
G1 X-48.146 Y-59.531 E25.56294
G1 X-48.448 Y-59.047 E25.58367
G1 X-48.936 Y-58.774 E25.60399
G1 X-49.228 Y-58.729 E25.61472
G1 X-49.752 Y-58.827 E25.63409
G1 X-50.177 Y-59.138 E25.65323
G1 X-50.414 Y-59.543 E25.67028
G1 X-50.562 Y-60.104 E25.69136
