;FLAVOR:Marlin
;TIME:1436
;Filament used: 1.30802m
;Layer height: 0.12
;MINX:35.849
;MINY:-30.443
;MINZ:0.24
;MAXX:71.685
;MAXY:27.223
;MAXZ:10.96
;TARGET_MACHINE.NAME:Unknown
;Generated with Cura_SteamEngine 5.7.1
M140 S50
M105
M190 S50
M104 S230
M105
M109 S230
M82 ;absolute extrusion mode
;FLAVOR:Marlin
M82 ;absolute extrusion mode
G21
G90
M82
M107 T0
G28
G92 E0
G0 E3 F200
G92 E0 ; reset extrusion distance
M106 S255 ; Enable cooling fan full speed
G1 X-98 Y0 Z0.4 F3000 ; move to arc start
G3 X0 Y-98 I98 Z0.4 E40 F400 ; lay arc stripe 90deg
G92 E0 ; reset extrusion distance
G4 P500 ; wait for 0.5 sec
G0 Z10 E-1 ; Lift 15mm and retract 1mm filament
G4 P2000 ; wait for 5 sec
G0 Z15
M107 ; Disable cooling fan
G1 X0 Y-85 Z4 E0 F3000 ; get off the bed
G92 E0
G92 E0
G1 F1500 E-1
;LAYER_COUNT:82
;LAYER:0
M106 S102
G1 F600 Z1.24
G0 F1500 X35.932 Y10.903 Z1.24
;TYPE:SKIRT
G1 F600 Z0.24
G1 F3600 E0.75698
G1 F1200 X36.213 Y10.052 E0.8004
G1 X36.725 Y9.374 E0.84156
G1 X37.622 Y8.485 E0.90274
G1 X38.335 Y7.967 E0.94544
G1 X39.245 Y7.688 E0.99155
G1 X39.519 Y7.651 E1.00494
G1 X40.294 Y7.735 E1.04271
G1 X41.141 Y8.02 E1.08601
G1 X41.818 Y8.527 E1.12698
G1 X50.302 Y17.011 E1.70825
G1 X60.2 Y7.113 E2.38641
G1 X36.874 Y-16.213 E3.98456
G1 X36.367 Y-16.976 E4.02894
G1 X36.113 Y-17.796 E4.07053
G1 X36.076 Y-18.072 E4.08402
G1 X36.159 Y-18.846 E4.12174
G1 X36.447 Y-19.708 E4.16577
G1 X36.952 Y-20.379 E4.20645
G1 X46.222 Y-29.65 E4.84161
G1 X46.985 Y-30.157 E4.88599
G1 X47.805 Y-30.411 E4.92758
G1 X48.127 Y-30.443 E4.94326
G1 X48.863 Y-30.363 E4.97912
G1 X49.713 Y-30.08 E5.02253
G1 X50.42 Y-29.539 E5.06565
G1 X50.851 Y-29.076 E5.0963
G1 X51.258 Y-28.49 E5.13087
G1 X51.524 Y-27.61 E5.1754
G1 X51.554 Y-27.292 E5.19088
G1 X51.476 Y-26.566 E5.22625
G1 X51.188 Y-25.704 E5.27028
G1 X50.683 Y-25.033 E5.31097
G1 X45.734 Y-20.083 E5.65008
G1 X70.887 Y5.069 E7.37338
G1 X71.394 Y5.832 E7.41776
G1 X71.648 Y6.652 E7.45935
G1 X71.685 Y6.928 E7.47284
G1 X71.602 Y7.702 E7.51055
G1 X71.314 Y8.564 E7.55458
G1 X70.809 Y9.235 E7.59527
G1 X53.619 Y26.425 E8.77302
G1 X52.856 Y26.932 E8.8174
G1 X52.036 Y27.186 E8.85899
G1 X51.76 Y27.223 E8.87248
G1 X50.986 Y27.14 E8.91019
G1 X50.124 Y26.852 E8.95422
G1 X49.453 Y26.347 E8.99491
G1 X36.647 Y13.541 E9.8723
G1 X36.139 Y12.777 E9.91675
G1 X35.886 Y11.96 E9.95818
G1 X35.849 Y11.685 E9.97163
G1 X35.862 Y11.564 E9.97752
G0 F1080 X35.932 Y10.903
G0 F1500 X36.325 Y10.989
G1 F1200 X36.573 Y10.24 E10.01575
G1 X37.008 Y9.657 E10.05099
G1 X37.857 Y8.809 E10.10912
G1 X38.518 Y8.329 E10.1487
G1 X39.362 Y8.07 E10.19147
G1 X39.522 Y8.054 E10.19926
G1 X40.209 Y8.128 E10.23273
G1 X40.954 Y8.379 E10.27082
G1 X41.535 Y8.81 E10.30587
G1 X50.302 Y17.577 E10.90653
G1 X60.766 Y7.113 E11.62346
G1 X37.183 Y-16.47 E13.23922
G1 X36.732 Y-17.149 E13.27871
G1 X36.495 Y-17.914 E13.31751
G1 X36.479 Y-18.075 E13.32535
G1 X36.553 Y-18.763 E13.35888
G1 X36.805 Y-19.518 E13.39744
G1 X37.235 Y-20.096 E13.43234
G1 X46.479 Y-29.341 E14.06571
G1 X47.158 Y-29.792 E14.10521
G1 X47.923 Y-30.029 E14.144
G1 X48.084 Y-30.045 E14.15184
G1 X48.777 Y-29.97 E14.18561
G1 X49.525 Y-29.721 E14.22381
G1 X50.129 Y-29.265 E14.26047
G1 X50.522 Y-28.848 E14.28823
G1 X50.893 Y-28.313 E14.31977
G1 X51.141 Y-27.494 E14.36123
G1 X51.156 Y-27.335 E14.36897
G1 X51.082 Y-26.649 E14.40239
G1 X50.83 Y-25.894 E14.44095
G1 X50.4 Y-25.316 E14.47586
G1 X45.168 Y-20.083 E14.83435
G1 X70.578 Y5.326 E16.57526
G1 X71.029 Y6.005 E16.61475
G1 X71.266 Y6.77 E16.65355
G1 X71.282 Y6.931 E16.66139
G1 X71.208 Y7.619 E16.69491
G1 X70.956 Y8.374 E16.73347
G1 X70.526 Y8.952 E16.76837
G1 X53.362 Y26.116 E17.94435
G1 X52.683 Y26.567 E17.98384
G1 X51.918 Y26.804 E18.02264
G1 X51.757 Y26.82 E18.03048
G1 X51.069 Y26.746 E18.064
G1 X50.314 Y26.494 E18.10256
G1 X49.736 Y26.064 E18.13746
G1 X36.956 Y13.284 E19.01307
G1 X36.504 Y12.604 E19.05263
G1 X36.268 Y11.842 E19.09127
G1 X36.252 Y11.681 E19.09911
G1 X36.256 Y11.65 E19.10063
G0 F1080 X36.325 Y10.989
G0 F1500 X36.718 Y11.074
G1 F1200 X36.933 Y10.426 E19.1337
G1 X37.291 Y9.94 E19.16295
G1 X38.14 Y9.092 E19.22108
G1 X38.7 Y8.691 E19.25445
G1 X39.479 Y8.452 E19.29393
G1 X40.126 Y8.522 E19.32545
G1 X40.766 Y8.737 E19.35816
G1 X41.252 Y9.093 E19.38735
G1 X50.302 Y18.143 E20.0074
G1 X61.332 Y7.113 E20.76311
G1 X37.492 Y-16.727 E22.39648
G1 X37.097 Y-17.322 E22.43108
G1 X36.877 Y-18.032 E22.46709
G1 X36.947 Y-18.682 E22.49876
G1 X37.163 Y-19.33 E22.53186
G1 X37.518 Y-19.813 E22.5609
G1 X46.736 Y-29.032 E23.19249
G1 X47.331 Y-29.427 E23.22709
G1 X48.041 Y-29.647 E23.2631
G1 X48.691 Y-29.577 E23.29478
G1 X49.337 Y-29.362 E23.32776
G1 X49.84 Y-28.988 E23.35813
G1 X50.193 Y-28.62 E23.38283
G1 X50.528 Y-28.136 E23.41135
G1 X50.758 Y-27.378 E23.44972
G1 X50.688 Y-26.73 E23.4813
G1 X50.472 Y-26.082 E23.51439
G1 X50.117 Y-25.599 E23.54343
G1 X44.602 Y-20.083 E23.92132
G1 X70.269 Y5.583 E25.67983
G1 X70.664 Y6.178 E25.71443
G1 X70.884 Y6.888 E25.75044
G1 X70.814 Y7.538 E25.78212
G1 X70.598 Y8.186 E25.81521
G1 X70.243 Y8.669 E25.84425
G1 X53.105 Y25.807 E27.01844
G1 X52.51 Y26.202 E27.05304
G1 X51.8 Y26.422 E27.08905
G1 X51.15 Y26.352 E27.12072
G1 X50.502 Y26.136 E27.15382
G1 X50.019 Y25.781 E27.18286
G1 X37.265 Y13.027 E28.05668
G1 X36.87 Y12.432 E28.09128
G1 X36.653 Y11.734 E28.12669
G0 F1080 X36.65 Y11.723
G0 X36.718 Y11.074
G0 F1500 X37.098 Y11.2
G1 F1200 X37.293 Y10.613 E28.15666
G1 X37.574 Y10.223 E28.17995
G1 X38.423 Y9.375 E28.23808
G1 X38.88 Y9.054 E28.26514
G1 X39.518 Y8.858 E28.29747
G1 X39.999 Y8.901 E28.32087
G1 X40.579 Y9.096 E28.35051
G1 X40.969 Y9.376 E28.37377
G1 X50.302 Y18.709 E29.01321
G1 X61.898 Y7.113 E29.8077
G1 X37.801 Y-16.984 E31.45868
G1 X37.463 Y-17.494 E31.48832
G1 X37.283 Y-18.073 E31.5177
G1 X37.326 Y-18.556 E31.54119
G1 X37.521 Y-19.141 E31.57107
G1 X37.801 Y-19.53 E31.59429
G1 X46.993 Y-28.723 E32.2241
G1 X47.503 Y-29.061 E32.25374
G1 X48.082 Y-29.241 E32.28312
G1 X48.565 Y-29.198 E32.30661
G1 X49.15 Y-29.003 E32.33648
G1 X49.551 Y-28.711 E32.36052
G1 X49.904 Y-28.343 E32.38522
G1 X50.162 Y-27.962 E32.40751
G1 X50.352 Y-27.338 E32.43911
G1 X50.309 Y-26.856 E32.46256
G1 X50.114 Y-26.271 E32.49243
G1 X49.834 Y-25.882 E32.51565
G1 X44.036 Y-20.083 E32.91293
G1 X69.96 Y5.84 E34.68905
G1 X70.298 Y6.35 E34.71869
G1 X70.478 Y6.929 E34.74807
G1 X70.435 Y7.412 E34.77156
G1 X70.24 Y7.997 E34.80144
G1 X69.96 Y8.386 E34.82466
G1 X52.848 Y25.498 E35.99707
G1 X52.338 Y25.836 E36.02671
G1 X51.759 Y26.016 E36.05608
G1 X51.276 Y25.973 E36.07957
G1 X50.691 Y25.778 E36.10945
G1 X50.302 Y25.498 E36.13267
G1 X37.574 Y12.77 E37.00472
G1 X37.236 Y12.26 E37.03436
G1 X37.11 Y11.854 E37.05495
G0 F1080 X37.056 Y11.681
G0 X37.098 Y11.2
G0 F1500 X37.478 Y11.326
G1 F1200 X37.654 Y10.796 E37.08201
G1 X37.857 Y10.506 E37.09916
G1 X38.706 Y9.658 E37.15729
G1 X39.059 Y9.417 E37.178
G1 X39.561 Y9.263 E37.20344
G1 X39.872 Y9.28 E37.21853
G1 X40.394 Y9.455 E37.2452
G1 X40.686 Y9.659 E37.26246
G1 X50.302 Y19.275 E37.92129
G1 X62.464 Y7.113 E38.75455
G1 X38.084 Y-17.267 E40.42492
G1 X37.845 Y-17.613 E40.4453
G1 X37.688 Y-18.118 E40.47092
G1 X37.705 Y-18.43 E40.48605
G1 X37.88 Y-18.955 E40.51286
G1 X38.084 Y-19.247 E40.53012
G1 X47.276 Y-28.44 E41.15994
G1 X47.622 Y-28.679 E41.18031
G1 X48.127 Y-28.836 E41.20593
G1 X48.439 Y-28.819 E41.22107
G1 X48.964 Y-28.644 E41.24788
G1 X49.262 Y-28.434 E41.26554
G1 X49.615 Y-28.066 E41.29024
G1 X49.797 Y-27.788 E41.30634
G1 X49.947 Y-27.294 E41.33135
G1 X49.93 Y-26.982 E41.34649
G1 X49.755 Y-26.457 E41.3733
G1 X49.551 Y-26.165 E41.39056
G1 X43.47 Y-20.083 E41.80723
G1 X69.677 Y6.123 E43.60274
G1 X69.916 Y6.469 E43.62311
G1 X70.073 Y6.974 E43.64873
G1 X70.056 Y7.286 E43.66387
G1 X69.881 Y7.811 E43.69068
G1 X69.677 Y8.103 E43.70794
G1 X52.565 Y25.215 E44.88035
G1 X52.219 Y25.454 E44.90072
G1 X51.714 Y25.611 E44.92634
G1 X51.402 Y25.594 E44.94148
G1 X50.877 Y25.419 E44.96829
G1 X50.585 Y25.215 E44.98554
G1 X37.857 Y12.487 E45.85759
G1 X37.618 Y12.141 E45.87796
G1 X37.566 Y11.974 E45.88644
G0 F1080 X37.461 Y11.636
G0 X37.478 Y11.326
G0 F1500 X37.861 Y11.44
G1 F1200 X37.986 Y11.019 E45.90771
G1 X38.14 Y10.789 E45.92112
G1 X38.989 Y9.941 E45.97926
G1 X39.278 Y9.752 E45.99599
G1 X39.561 Y9.663 E46.01036
G1 X39.757 Y9.663 E46.01985
G1 X40.172 Y9.788 E46.04085
G1 X40.403 Y9.942 E46.0543
G1 X50.302 Y19.841 E46.73252
G1 X63.03 Y7.113 E47.60457
G1 X38.367 Y-17.55 E49.29433
G1 X38.179 Y-17.834 E49.31083
G1 X38.088 Y-18.118 E49.32528
G1 X38.088 Y-18.315 E49.33482
G1 X38.213 Y-18.733 E49.35596
G1 X38.367 Y-18.964 E49.36941
G1 X47.559 Y-28.157 E49.99922
G1 X47.843 Y-28.345 E50.01572
G1 X48.127 Y-28.436 E50.03017
G1 X48.324 Y-28.436 E50.03971
G1 X48.742 Y-28.311 E50.06085
G1 X48.973 Y-28.157 E50.0743
G1 X49.326 Y-27.789 E50.09901
G1 X49.456 Y-27.578 E50.11101
G1 X49.547 Y-27.294 E50.12546
G1 X49.547 Y-27.097 E50.135
G1 X49.422 Y-26.679 E50.15614
G1 X49.268 Y-26.448 E50.16959
G1 X42.904 Y-20.083 E50.60565
G1 X69.394 Y6.406 E52.42055
G1 X69.582 Y6.69 E52.43705
G1 X69.673 Y6.974 E52.4515
G1 X69.673 Y7.171 E52.46104
G1 X69.548 Y7.589 E52.48218
G1 X69.394 Y7.82 E52.49563
G1 X52.282 Y24.932 E53.66804
G1 X51.998 Y25.12 E53.68454
G1 X51.714 Y25.211 E53.69899
G1 X51.517 Y25.211 E53.70853
G1 X51.099 Y25.086 E53.72967
G1 X50.868 Y24.932 E53.74312
G1 X38.14 Y12.204 E54.61516
G1 X38.046 Y12.062 E54.62341
G0 F1080 X37.952 Y11.92
G0 X37.861 Y11.636
G0 X37.861 Y11.44
G0 F1500 X38.649 Y11.527
G1 F1200 X38.706 Y11.355 E54.63219
G1 X39.555 Y10.507 E54.69033
G1 X39.666 Y10.451 E54.69635
G1 X39.837 Y10.508 E54.70508
G1 X50.302 Y20.973 E55.42208
G1 X64.162 Y7.113 E56.37168
G1 X38.933 Y-18.116 E58.10022
G1 X38.876 Y-18.227 E58.10627
G1 X38.933 Y-18.398 E58.115
G1 X48.125 Y-27.591 E58.74482
G1 X48.236 Y-27.648 E58.75086
G1 X48.407 Y-27.591 E58.75959
G1 X48.702 Y-27.296 E58.7798
G1 X48.759 Y-27.185 E58.78585
G1 X48.702 Y-27.014 E58.79458
G1 X41.772 Y-20.083 E59.26942
G1 X68.828 Y6.972 E61.1231
G1 X68.885 Y7.083 E61.12914
G1 X68.828 Y7.254 E61.13788
G1 X51.716 Y24.366 E62.31029
G1 X51.605 Y24.423 E62.31633
G1 X51.434 Y24.366 E62.32506
G1 X39.087 Y12.019 E63.17101
G0 F1080 X38.706 Y11.638
G0 X38.649 Y11.527
G0 F1500 X38.249 Y11.537
G1 F1200 X38.326 Y11.229 E63.18639
G1 X38.423 Y11.072 E63.19533
G1 X39.272 Y10.224 E63.25346
G1 X39.486 Y10.094 E63.26559
G1 X39.658 Y10.051 E63.27418
G1 X39.963 Y10.129 E63.28943
G1 X40.12 Y10.225 E63.29835
G1 X50.302 Y20.407 E63.99596
G1 X63.596 Y7.113 E64.90678
G1 X38.65 Y-17.833 E66.61593
G1 X38.52 Y-18.044 E66.62794
G1 X38.476 Y-18.217 E66.63659
G1 X38.554 Y-18.524 E66.65193
G1 X38.65 Y-18.681 E66.66085
G1 X47.842 Y-27.874 E67.29066
G1 X48.053 Y-28.004 E67.30267
G1 X48.226 Y-28.048 E67.31132
G1 X48.533 Y-27.97 E67.32666
G1 X48.69 Y-27.874 E67.33558
G1 X48.985 Y-27.579 E67.35579
G1 X49.115 Y-27.368 E67.3678
G1 X49.159 Y-27.195 E67.37644
G1 X49.081 Y-26.888 E67.39179
G1 X48.985 Y-26.731 E67.40071
G1 X42.338 Y-20.083 E67.85615
G1 X69.111 Y6.689 E69.69044
G1 X69.241 Y6.9 E69.70245
G1 X69.285 Y7.073 E69.7111
G1 X69.207 Y7.38 E69.72644
G1 X69.111 Y7.537 E69.73536
G1 X51.999 Y24.649 E70.90777
G1 X51.788 Y24.779 E70.91978
G1 X51.615 Y24.823 E70.92842
G1 X51.308 Y24.745 E70.94377
G1 X51.151 Y24.649 E70.95269
G1 X38.591 Y12.089 E71.81322
G0 F1080 X38.423 Y11.921
G0 X38.293 Y11.71
G0 X38.249 Y11.537
G1 F1500 E70.81322
G1 F600 Z1.24
;MESH:K??rper1
G0 F1500 X50.329 Y21.45 Z1.24
;TYPE:WALL-OUTER
G1 F600 Z0.24
G1 F3600 E72.5702
G1 F1200 X50.184 Y21.416 E72.57742
G1 X39.696 Y10.931 E73.29589
G1 X39.131 Y11.496 E73.3346
G1 X51.572 Y23.941 E74.18712
G1 X68.401 Y7.112 E75.34014
G1 X41.346 Y-19.938 E77.19361
G1 F1185.2 X41.314 Y-20.213 E77.20719
G1 X39.355 Y-18.256 E77.34302
G1 F1200 X64.586 Y6.97 E79.07152
G1 X64.644 Y7.112 E79.07896
G1 X64.608 Y7.227 E79.08479
G1 X50.823 Y21.013 E80.02929
G0 F1080 X50.442 Y21.394
G0 X50.329 Y21.45
G0 F1500 X50.184 Y21.416
G0 X50.148 Y21.38
G0 X49.934 Y21.593
G0 X65.05 Y7.113
G0 X41.195 Y-19.712
G0 X41.315 Y-20.201
G1 F1142.9 X48.264 Y-27.152 E80.52927
G1 F1500 E79.52927
G1 F600 Z1.24
G0 F1500 X65.044 Y7.112 Z1.24
;TYPE:WALL-INNER
G1 F600 Z0.24
G1 F3600 E81.28625
G1 F1200 X65.002 Y7.333 E81.29715
G1 X64.921 Y7.485 E81.3055
G1 X50.725 Y21.677 E82.27798
G1 X50.385 Y21.846 E82.29638
G1 F1182.3 X49.951 Y21.748 E82.31826
G1 X51.572 Y23.375 E82.43119
G1 F1200 X67.835 Y7.112 E83.54543
G1 X41.192 Y-19.527 E85.37071
G1 X39.921 Y-18.256 E85.4578
G1 X64.731 Y6.549 E87.15746
G0 F1080 X64.869 Y6.687
G0 X65.002 Y6.891
G0 X65.044 Y7.112
G0 F1500 X65.444 Y7.112
G1 F1200 X65.374 Y7.48 E87.1756
G1 X65.238 Y7.734 E87.18956
G1 X51.008 Y21.96 E88.16438
G1 X50.817 Y22.055 E88.17471
G1 X51.572 Y22.809 E88.22641
G1 X67.269 Y7.112 E89.30187
G1 X41.192 Y-18.961 E91.08837
G1 X40.487 Y-18.256 E91.13668
G1 X65.152 Y6.404 E92.8264
G1 X65.216 Y6.502 E92.83207
G0 F1080 X65.374 Y6.743
G0 X65.444 Y7.112
G0 F1500 X65.922 Y7.112
G1 F860.2 X65.82 Y7.657 E92.86954
G1 F812.2 X65.681 Y7.98 E92.89471
G1 X65.957 Y7.746 E92.92062
G1 F860.2 X66.593 Y7.112 E92.98131
G1 F863.3 X65.958 Y6.476 E93.04183
G1 F831.9 X65.504 Y6.052 E93.08524
G1 X65.819 Y6.567 E93.12743
G1 F863.3 X65.922 Y7.112 E93.16478
G0 F1500 X65.681 Y7.98
G1 F786.9 X65.504 Y8.172 E93.18407
G1 F801.3 X51.572 Y22.102 E94.61339
G0 F1500 X65.615 Y7.113
G0 X65.504 Y6.052
M104 S210
G1 F802.7 X41.192 Y-18.256 E97.10342
G0 F1500 X65.05 Y7.113
G0 X50.302 Y21.861
G0 X39.696 Y11.496
G1 F1182.3 X49.951 Y21.748 E97.81647
G0 F1500 X51.067 Y22.021
;MESH:NONMESH
G0 F600 X51.067 Y22.021 Z0.36
G0 F1500 X50.329 Y21.45
;TIME_ELAPSED:111.611472
;LAYER:1
M106 S255
;TYPE:WALL-OUTER
;MESH:K??rper1
G1 F1800 X50.184 Y21.416 E97.82008
G1 X39.696 Y10.931 E98.17931
G1 X39.131 Y11.496 E98.19867
G1 X51.572 Y23.941 E98.62493
G1 X68.401 Y7.112 E99.20144
G1 X41.494 Y-19.794 E100.12317
G1 F1760.4 X41.464 Y-20.056 E100.1297
G1 F1726.6 X48.41 Y-27.008 E100.37787
G1 F1730.8 X48.116 Y-27.302 E100.38835
G1 F1726.6 X41.145 Y-20.325 E100.63741
G1 F1760.4 X40.603 Y-19.796 E100.65617
G1 F1800 X39.211 Y-18.404 E100.70385
G1 X64.586 Y6.97 E101.57311
G1 X64.644 Y7.112 E101.57682
G1 X64.608 Y7.227 E101.57974
G1 X51.294 Y20.542 E102.03586
G0 F1620 X50.442 Y21.394
G0 X50.329 Y21.45
G0 F2250 X50.184 Y21.416
G0 X50.148 Y21.38
G0 X49.951 Y21.748
;TYPE:WALL-INNER
G1 F2069 X39.696 Y11.496 E102.39238
G0 F2250 X50.302 Y21.861
G0 X65.38 Y6.777
G0 X65.044 Y7.112
G1 F2100 X65.002 Y7.333 E102.39783
G1 X64.921 Y7.485 E102.402
G1 X50.725 Y21.677 E102.88825
G1 X50.385 Y21.846 E102.89744
G1 F2069 X49.951 Y21.748 E102.90838
G1 X51.572 Y23.375 E102.96485
G1 F2100 X67.835 Y7.112 E103.52197
G1 X41.211 Y-19.511 E104.43401
G1 X41.185 Y-19.813 E104.44135
G1 X39.777 Y-18.404 E104.48961
G1 X64.259 Y6.077 E105.32827
G0 F1890 X64.869 Y6.687
G0 X65.002 Y6.891
G0 X65.044 Y7.112
G0 F2250 X65.444 Y7.112
G1 F2100 X65.374 Y7.48 E105.33734
G1 X65.238 Y7.734 E105.34432
G1 X51.008 Y21.96 E105.83173
G1 X50.817 Y22.055 E105.8369
G1 X51.572 Y22.809 E105.86274
G1 X67.269 Y7.112 E106.40048
G1 X41.048 Y-19.11 E107.29874
G1 X40.343 Y-18.404 E107.32291
G1 X64.763 Y6.015 E108.15945
G0 F1890 X65.152 Y6.404
G0 X65.374 Y6.743
G0 X65.444 Y7.112
G0 F2250 X65.922 Y7.112
G1 F1505.4 X65.82 Y7.657 E108.17819
G1 F1421.3 X65.681 Y7.98 E108.19077
G1 X65.957 Y7.746 E108.20372
G1 F1505.4 X66.593 Y7.112 E108.23407
G1 F1510.8 X65.958 Y6.476 E108.26433
G1 F1455.8 X65.504 Y6.052 E108.28604
G1 X65.819 Y6.567 E108.30713
G1 F1510.8 X65.922 Y7.112 E108.32581
G0 F2250 X65.681 Y7.98
G1 F1377 X65.504 Y8.172 E108.33545
G1 F1402.3 X51.572 Y22.102 E109.05011
G0 F2250 X65.615 Y7.113
G0 X65.504 Y6.052
