;FLAVOR:Marlin
;TIME:3944
;Filament used: 7.20578m
;Layer height: 0.3
;MINX:-21.421
;MINY:-70.718
;MINZ:0.3
;MAXX:18.674
;MAXY:-30.641
;MAXZ:83.7
;TARGET_MACHINE.NAME:Unknown
;Generated with Cura_SteamEngine 5.10.0
M140 S50
M105
M190 S50
M104 S225
M105
M109 S225
;FLAVOR:Marlin
M82 ;absolute extrusion mode
G21
G90
M82
M107 T0
G28
G92 E0
G0 E3 F200
G92 E0 ; reset extrusion distance
M106 S255 ; Enable cooling fan full speed
G1 X-98 Y0 Z0.4 F3000 ; move to arc start
G3 X0 Y-98 I98 Z0.4 E40 F400 ; lay arc stripe 90deg
G92 E0 ; reset extrusion distance
G4 P500 ; wait for 0.5 sec
G0 Z10 E-1 ; Lift 15mm and retract 1mm filament
G4 P2000 ; wait for 5 sec
G0 Z15
M107 ; Disable cooling fan
G1 X0 Y-85 Z4 E0 F3000 ; get off the bed
M82 ;absolute extrusion mode
G92 E0
G92 E0
G1 F1500 E-1
;LAYER_COUNT:279
;LAYER:0
M106 S102
G1 F600 Z1.3
G0 F1500 X-1.536 Y-35.302 Z1.3
;TYPE:SKIRT
G1 F600 Z0.3
G1 F3600 E0.75698
G1 F1200 X-3.408 Y-35.435 E0.83748
G1 X-4.736 Y-35.671 E0.89534
G1 X-6.785 Y-36.28 E0.98703
G1 X-8.099 Y-36.844 E1.04837
G1 X-9.744 Y-37.775 E1.12945
G1 X-11.222 Y-38.862 E1.20815
G1 X-12.406 Y-39.957 E1.27733
G1 X-13.537 Y-41.254 E1.35115
G1 X-14.396 Y-42.48 E1.41536
G1 X-15.374 Y-44.291 E1.50365
G1 X-15.996 Y-45.875 E1.57665
G1 X-16.448 Y-47.547 E1.65094
G1 X-16.666 Y-48.895 E1.70952
G1 X-16.766 Y-50.903 E1.79576
G1 X-16.644 Y-52.648 E1.87079
G1 X-16.345 Y-54.287 E1.94226
G1 X-15.788 Y-56.107 E2.0239
G1 X-15.226 Y-57.418 E2.08509
G1 X-14.301 Y-59.051 E2.16559
G1 X-13.294 Y-60.435 E2.23901
G1 X-12.046 Y-61.789 E2.318
G1 X-10.857 Y-62.825 E2.38565
G1 X-9.683 Y-63.656 E2.44735
G1 X-7.778 Y-64.7 E2.54053
G1 X-6.701 Y-65.143 E2.59048
G1 X-4.535 Y-65.764 E2.68714
G1 X-3.135 Y-65.99 E2.74797
G1 X-1.213 Y-66.086 E2.83052
G1 X0.657 Y-65.953 E2.91093
G1 X1.985 Y-65.717 E2.96879
G1 X4.033 Y-65.106 E3.06047
G1 X5.339 Y-64.547 E3.12141
G1 X6.897 Y-63.675 E3.19799
G1 X8.348 Y-62.63 E3.2747
G1 X9.444 Y-61.643 E3.33796
G1 X10.857 Y-60.048 E3.42937
G1 X11.517 Y-59.115 E3.47839
G1 X12.63 Y-57.097 E3.57725
G1 X13.058 Y-56.063 E3.62525
G1 X13.705 Y-53.808 E3.72588
G1 X13.921 Y-52.455 E3.78465
G1 X14.017 Y-50.534 E3.86716
G1 X13.884 Y-48.661 E3.94771
G1 X13.649 Y-47.337 E4.00539
G1 X13.046 Y-45.303 E4.09639
G1 X12.578 Y-44.187 E4.1483
G1 X11.481 Y-42.221 E4.24487
G1 X10.724 Y-41.17 E4.30043
G1 X9.544 Y-39.846 E4.37651
G1 X7.961 Y-38.453 E4.46696
G1 X6.806 Y-37.652 E4.52725
G1 X5.132 Y-36.741 E4.609
G1 X3.714 Y-36.164 E4.67467
G1 X1.738 Y-35.614 E4.76266
G1 X0.384 Y-35.398 E4.82147
G1 X-1.536 Y-35.302 E4.90393
G0 F1500 X-1.556 Y-35.702
G1 F1200 X-3.338 Y-35.829 E4.98057
G1 X-4.666 Y-36.065 E5.03842
G1 X-6.627 Y-36.648 E5.12618
G1 X-7.941 Y-37.212 E5.18752
G1 X-9.507 Y-38.098 E5.2647
G1 X-10.95 Y-39.156 E5.34145
G1 X-12.134 Y-40.251 E5.41063
G1 X-13.209 Y-41.484 E5.4808
G1 X-14.068 Y-42.71 E5.54501
G1 X-15.022 Y-44.481 E5.6313
G1 X-15.61 Y-45.98 E5.70037
G1 X-16.053 Y-47.612 E5.77291
G1 X-16.266 Y-48.915 E5.82955
G1 X-16.366 Y-50.923 E5.91579
G1 X-16.25 Y-52.576 E5.98687
G1 X-15.951 Y-54.215 E6.05833
G1 X-15.42 Y-55.949 E6.13612
G1 X-14.858 Y-57.26 E6.19731
G1 X-13.977 Y-58.816 E6.27401
G1 X-12.999 Y-60.164 E6.34545
G1 X-11.783 Y-61.487 E6.42253
G1 X-10.594 Y-62.523 E6.49018
G1 X-9.49 Y-63.305 E6.54821
G1 X-7.625 Y-64.33 E6.6395
G1 X-6.591 Y-64.758 E6.6875
G1 X-4.425 Y-65.379 E6.78416
G1 X-3.115 Y-65.59 E6.84107
G1 X-1.193 Y-65.686 E6.92362
G1 X0.587 Y-65.559 E7.00017
G1 X1.915 Y-65.323 E7.05803
G1 X3.876 Y-64.738 E7.14581
G1 X5.182 Y-64.179 E7.20675
G1 X6.663 Y-63.35 E7.27955
G1 X8.114 Y-62.305 E7.35625
G1 X9.145 Y-61.378 E7.41573
G1 X10.53 Y-59.817 E7.50524
G1 X11.19 Y-58.884 E7.55427
G1 X12.26 Y-56.944 E7.6493
G1 X12.688 Y-55.91 E7.6973
G1 X13.31 Y-53.744 E7.79397
G1 X13.521 Y-52.435 E7.85085
G1 X13.617 Y-50.514 E7.93335
G1 X13.49 Y-48.731 E8.01003
G1 X13.255 Y-47.407 E8.06771
G1 X12.677 Y-45.458 E8.15491
G1 X12.209 Y-44.342 E8.20682
G1 X11.156 Y-42.455 E8.29952
G1 X10.399 Y-41.404 E8.35508
G1 X9.279 Y-40.146 E8.42733
G1 X7.733 Y-38.782 E8.51576
G1 X6.578 Y-37.981 E8.57606
G1 X4.981 Y-37.112 E8.65405
G1 X3.563 Y-36.535 E8.71971
G1 X1.674 Y-36.009 E8.80383
G1 X0.364 Y-35.798 E8.86074
G1 X-1.556 Y-35.702 E8.94321
G0 F1500 X-1.576 Y-36.102
G1 F1200 X-3.268 Y-36.223 E9.01597
G1 X-4.596 Y-36.459 E9.07383
G1 X-6.469 Y-37.016 E9.15765
G1 X-7.783 Y-37.58 E9.21899
G1 X-9.271 Y-38.421 E9.2923
G1 X-10.679 Y-39.45 E9.36711
G1 X-11.833 Y-40.514 E9.43444
G1 X-12.881 Y-41.714 E9.50278
G1 X-13.74 Y-42.94 E9.567
G1 X-14.65 Y-44.628 E9.64926
G1 X-15.224 Y-46.085 E9.71643
G1 X-15.658 Y-47.677 E9.78721
G1 X-15.866 Y-48.935 E9.84191
G1 X-15.966 Y-50.943 E9.92815
G1 X-15.856 Y-52.504 E9.99527
G1 X-15.557 Y-54.143 E10.06674
G1 X-15.052 Y-55.791 E10.14068
G1 X-14.49 Y-57.102 E10.20186
G1 X-13.653 Y-58.581 E10.27476
G1 X-12.675 Y-59.929 E10.3462
G1 X-11.52 Y-61.185 E10.41939
G1 X-10.331 Y-62.221 E10.48704
G1 X-9.297 Y-62.955 E10.54143
G1 X-7.472 Y-63.96 E10.6308
G1 X-6.438 Y-64.388 E10.6788
G1 X-4.361 Y-64.984 E10.77149
G1 X-3.095 Y-65.19 E10.82651
G1 X-1.173 Y-65.286 E10.90906
G1 X0.517 Y-65.165 E10.98174
G1 X1.845 Y-64.929 E11.0396
G1 X3.719 Y-64.37 E11.12349
G1 X5.025 Y-63.811 E11.18442
G1 X6.429 Y-63.025 E11.25344
G1 X7.88 Y-61.98 E11.33015
G1 X8.877 Y-61.081 E11.38773
G1 X10.203 Y-59.586 E11.47345
G1 X10.863 Y-58.653 E11.52247
G1 X11.89 Y-56.791 E11.61369
G1 X12.318 Y-55.757 E11.66169
G1 X12.915 Y-53.68 E11.75439
G1 X13.121 Y-52.415 E11.80937
G1 X13.217 Y-50.494 E11.89188
G1 X13.096 Y-48.801 E11.96468
G1 X12.861 Y-47.477 E12.02237
G1 X12.308 Y-45.613 E12.10577
G1 X11.84 Y-44.497 E12.15768
G1 X10.831 Y-42.689 E12.24649
G1 X10.074 Y-41.638 E12.30205
G1 X9.014 Y-40.446 E12.37048
G1 X7.505 Y-39.111 E12.4569
G1 X6.35 Y-38.31 E12.51719
G1 X4.83 Y-37.483 E12.59142
G1 X3.412 Y-36.906 E12.65709
G1 X1.61 Y-36.404 E12.73733
G1 X0.344 Y-36.198 E12.79235
G1 X-1.576 Y-36.102 E12.87481
G0 F1500 X-1.596 Y-36.502
G1 F1200 X-3.198 Y-36.617 E12.94371
G1 X-4.526 Y-36.853 E13.00157
G1 X-6.311 Y-37.384 E13.08145
G1 X-7.625 Y-37.948 E13.14279
G1 X-9.035 Y-38.744 E13.21224
G1 X-10.408 Y-39.745 E13.28513
G1 X-11.532 Y-40.778 E13.35061
G1 X-12.553 Y-41.944 E13.41709
G1 X-13.412 Y-43.17 E13.48131
G1 X-14.278 Y-44.775 E13.55954
G1 X-14.838 Y-46.191 E13.62485
G1 X-15.263 Y-47.743 E13.69388
G1 X-15.466 Y-48.955 E13.74659
G1 X-15.566 Y-50.963 E13.83283
G1 X-15.462 Y-52.432 E13.89601
G1 X-15.163 Y-54.071 E13.96747
G1 X-14.684 Y-55.633 E14.03755
G1 X-14.122 Y-56.944 E14.09874
G1 X-13.329 Y-58.346 E14.16783
G1 X-12.351 Y-59.694 E14.23927
G1 X-11.257 Y-60.883 E14.30858
G1 X-10.068 Y-61.919 E14.37623
G1 X-9.066 Y-62.628 E14.42888
G1 X-7.319 Y-63.59 E14.51443
G1 X-6.285 Y-64.018 E14.56243
G1 X-4.296 Y-64.589 E14.6512
G1 X-3.075 Y-64.79 E14.70428
G1 X-1.153 Y-64.886 E14.78682
G1 X0.447 Y-64.771 E14.85563
G1 X1.775 Y-64.535 E14.91349
G1 X3.562 Y-64.002 E14.99348
G1 X4.868 Y-63.443 E15.05442
G1 X6.195 Y-62.7 E15.11966
G1 X7.646 Y-61.655 E15.19636
G1 X8.609 Y-60.784 E15.25206
G1 X9.876 Y-59.355 E15.33398
G1 X10.536 Y-58.422 E15.383
G1 X11.52 Y-56.638 E15.4704
G1 X11.948 Y-55.604 E15.5184
G1 X12.52 Y-53.615 E15.60718
G1 X12.721 Y-52.395 E15.66022
G1 X12.817 Y-50.474 E15.74272
G1 X12.702 Y-48.871 E15.81166
G1 X12.467 Y-47.547 E15.86934
G1 X11.939 Y-45.768 E15.94894
G1 X11.471 Y-44.652 E16.00085
G1 X10.506 Y-42.923 E16.08579
G1 X9.749 Y-41.872 E16.14135
G1 X8.749 Y-40.745 E16.20598
G1 X7.277 Y-39.44 E16.29036
G1 X6.122 Y-38.639 E16.35066
G1 X4.679 Y-37.854 E16.42112
G1 X3.261 Y-37.277 E16.48679
G1 X1.545 Y-36.799 E16.5632
G1 X0.324 Y-36.598 E16.61628
G1 X-1.596 Y-36.502 E16.69874
G0 F1500 X-1.616 Y-36.902
G1 F1200 X-3.128 Y-37.011 E16.76377
G1 X-4.456 Y-37.247 E16.82163
G1 X-6.153 Y-37.752 E16.89758
G1 X-7.467 Y-38.316 E16.95891
G1 X-8.8 Y-39.068 E17.02456
G1 X-10.138 Y-40.04 E17.0955
G1 X-11.231 Y-41.042 E17.15911
G1 X-12.225 Y-42.174 E17.22373
G1 X-13.084 Y-43.4 E17.28794
G1 X-13.906 Y-44.923 E17.36218
G1 X-14.452 Y-46.297 E17.4256
G1 X-14.868 Y-47.809 E17.49287
G1 X-15.071 Y-49.021 E17.54558
G1 X-15.167 Y-50.935 E17.62779
G1 X-15.068 Y-52.36 E17.68906
G1 X-14.769 Y-53.999 E17.76053
G1 X-14.316 Y-55.475 E17.82676
G1 X-13.754 Y-56.786 E17.88794
G1 X-13.005 Y-58.111 E17.95323
G1 X-12.027 Y-59.459 E18.02467
G1 X-10.994 Y-60.581 E18.09009
G1 X-9.805 Y-61.617 E18.15774
G1 X-8.835 Y-62.301 E18.20865
G1 X-7.166 Y-63.22 E18.29038
G1 X-6.132 Y-63.648 E18.33838
G1 X-4.23 Y-64.194 E18.42327
G1 X-3.055 Y-64.39 E18.47436
G1 X-1.133 Y-64.486 E18.55691
G1 X0.377 Y-64.377 E18.62185
G1 X1.705 Y-64.141 E18.67971
G1 X3.405 Y-63.634 E18.75581
G1 X4.711 Y-63.075 E18.81675
G1 X5.962 Y-62.375 E18.87824
G1 X7.378 Y-61.358 E18.95302
G1 X8.31 Y-60.518 E19.00684
G1 X9.549 Y-59.124 E19.08684
G1 X10.209 Y-58.191 E19.13586
G1 X11.15 Y-56.485 E19.21944
G1 X11.578 Y-55.451 E19.26744
G1 X12.125 Y-53.549 E19.35234
G1 X12.321 Y-52.375 E19.40339
G1 X12.417 Y-50.454 E19.4859
G1 X12.308 Y-48.941 E19.55097
G1 X12.073 Y-47.617 E19.60865
G1 X11.57 Y-45.923 E19.68445
G1 X11.102 Y-44.807 E19.73636
G1 X10.181 Y-43.157 E19.81742
G1 X9.424 Y-42.106 E19.87298
G1 X8.45 Y-41.011 E19.93584
G1 X7.049 Y-39.768 E20.01618
G1 X5.931 Y-38.99 E20.07461
G1 X4.528 Y-38.225 E20.14315
G1 X3.11 Y-37.648 E20.20882
G1 X1.479 Y-37.194 E20.28144
G1 X0.304 Y-36.998 E20.33254
G1 X-1.616 Y-36.902 E20.41501
G0 F1500 X-1.588 Y-37.301
G1 F1200 X-3.058 Y-37.405 E20.47822
G1 X-4.386 Y-37.641 E20.53608
G1 X-5.996 Y-38.12 E20.60813
G1 X-7.271 Y-38.665 E20.66761
G1 X-8.565 Y-39.392 E20.73128
G1 X-9.868 Y-40.335 E20.80027
G1 X-10.93 Y-41.306 E20.862
G1 X-11.924 Y-42.438 E20.92662
G1 X-12.732 Y-43.59 E20.98698
G1 X-13.534 Y-45.071 E21.05922
G1 X-14.066 Y-46.404 E21.12079
G1 X-14.473 Y-47.875 E21.18626
G1 X-14.676 Y-49.087 E21.23897
G1 X-14.768 Y-50.907 E21.31714
G1 X-14.669 Y-52.332 E21.37841
G1 X-14.386 Y-53.882 E21.446
G1 X-13.948 Y-55.317 E21.51036
G1 X-13.386 Y-56.628 E21.57154
G1 X-12.681 Y-57.877 E21.63307
G1 X-11.732 Y-59.189 E21.70253
G1 X-10.731 Y-60.28 E21.76604
G1 X-9.574 Y-61.29 E21.83192
G1 X-8.604 Y-61.974 E21.88283
G1 X-7.013 Y-62.85 E21.96074
G1 X-5.979 Y-63.278 E22.00874
G1 X-4.164 Y-63.799 E22.08974
G1 X-2.989 Y-63.995 E22.14084
G1 X-1.161 Y-64.087 E22.21935
G1 X0.307 Y-63.983 E22.28248
G1 X1.635 Y-63.747 E22.34034
G1 X3.248 Y-63.266 E22.41254
G1 X4.554 Y-62.707 E22.47348
G1 X5.729 Y-62.05 E22.53122
G1 X7.111 Y-61.06 E22.60415
G1 X8.011 Y-60.252 E22.65603
G1 X9.222 Y-58.893 E22.73411
G1 X9.882 Y-57.96 E22.78313
G1 X10.78 Y-56.332 E22.86289
G1 X11.208 Y-55.298 E22.91089
G1 X11.73 Y-53.483 E22.9919
G1 X11.926 Y-52.309 E23.04296
G1 X12.018 Y-50.482 E23.12143
G1 X11.914 Y-49.011 E23.18468
G1 X11.679 Y-47.687 E23.24236
G1 X11.201 Y-46.078 E23.31436
G1 X10.733 Y-44.962 E23.36627
G1 X9.856 Y-43.391 E23.44345
G1 X9.099 Y-42.34 E23.49901
G1 X8.184 Y-41.31 E23.55811
G1 X6.82 Y-40.096 E23.63644
G1 X5.739 Y-39.341 E23.693
G1 X4.377 Y-38.596 E23.75959
G1 X2.959 Y-38.019 E23.82526
G1 X1.413 Y-37.589 E23.89409
G1 X0.238 Y-37.393 E23.94519
G1 X-1.588 Y-37.301 E24.02362
G0 F1500 X-1.56 Y-37.7
G1 F1200 X-2.988 Y-37.799 E24.08502
G1 X-4.316 Y-38.035 E24.14288
G1 X-5.839 Y-38.488 E24.21104
G1 X-7.075 Y-39.014 E24.26866
G1 X-8.369 Y-39.741 E24.33232
G1 X-9.599 Y-40.631 E24.39745
G1 X-10.629 Y-41.57 E24.45724
G1 X-11.623 Y-42.702 E24.52186
G1 X-12.381 Y-43.781 E24.57842
G1 X-13.163 Y-45.22 E24.64867
G1 X-13.68 Y-46.511 E24.70833
G1 X-14.087 Y-47.982 E24.7738
G1 X-14.281 Y-49.152 E24.82467
G1 X-14.369 Y-50.879 E24.89885
G1 X-14.27 Y-52.304 E24.96012
G1 X-14.003 Y-53.766 E25.02387
G1 X-13.58 Y-55.159 E25.08632
G1 X-13.018 Y-56.47 E25.1475
G1 X-12.357 Y-57.643 E25.20526
G1 X-11.437 Y-58.919 E25.27274
G1 X-10.468 Y-59.979 E25.33434
G1 X-9.343 Y-60.963 E25.39845
G1 X-8.373 Y-61.647 E25.44937
G1 X-6.86 Y-62.48 E25.52345
G1 X-5.826 Y-62.908 E25.57146
G1 X-4.098 Y-63.404 E25.64857
G1 X-2.923 Y-63.6 E25.69967
G1 X-1.189 Y-63.688 E25.77415
G1 X0.237 Y-63.589 E25.83547
G1 X1.565 Y-63.353 E25.89332
G1 X3.091 Y-62.898 E25.96163
G1 X4.397 Y-62.339 E26.02257
G1 X5.496 Y-61.725 E26.07657
G1 X6.844 Y-60.762 E26.14763
G1 X7.713 Y-59.985 E26.19763
G1 X8.895 Y-58.662 E26.27374
G1 X9.555 Y-57.729 E26.32276
G1 X10.41 Y-56.179 E26.39869
G1 X10.838 Y-55.145 E26.44669
G1 X11.335 Y-53.417 E26.52382
G1 X11.531 Y-52.243 E26.57488
G1 X11.619 Y-50.51 E26.64931
G1 X11.52 Y-49.081 E26.71076
G1 X11.285 Y-47.757 E26.76844
G1 X10.832 Y-46.233 E26.83664
G1 X10.364 Y-45.117 E26.88855
G1 X9.531 Y-43.625 E26.96185
G1 X8.774 Y-42.574 E27.01741
G1 X7.918 Y-41.608 E27.07277
G1 X6.591 Y-40.424 E27.14906
G1 X5.546 Y-39.692 E27.20379
G1 X4.226 Y-38.967 E27.26839
G1 X2.808 Y-38.39 E27.33406
G1 X1.347 Y-37.984 E27.3991
G1 X0.172 Y-37.788 E27.4502
G1 X-1.56 Y-37.7 E27.52459
G0 F1500 X-1.533 Y-38.099
G1 F1200 X-2.918 Y-38.193 E27.58414
G1 X-4.246 Y-38.429 E27.642
G1 X-5.683 Y-38.856 E27.7063
G1 X-6.879 Y-39.363 E27.76202
G1 X-8.173 Y-40.09 E27.82569
G1 X-9.33 Y-40.927 E27.88695
G1 X-10.328 Y-41.834 E27.94479
G1 X-11.322 Y-42.966 E28.00941
G1 X-12.053 Y-44.01 E28.06408
G1 X-12.792 Y-45.369 E28.13044
G1 X-13.295 Y-46.618 E28.1882
G1 X-13.692 Y-48.047 E28.25182
G1 X-13.886 Y-49.217 E28.30269
G1 X-13.97 Y-50.852 E28.37292
G1 X-13.876 Y-52.233 E28.43229
G1 X-13.62 Y-53.65 E28.49406
G1 X-13.212 Y-55.002 E28.55464
G1 X-12.669 Y-56.274 E28.61396
G1 X-12.032 Y-57.41 E28.66983
G1 X-11.141 Y-58.65 E28.73533
G1 X-10.204 Y-59.678 E28.795
G1 X-9.112 Y-60.636 E28.85731
G1 X-8.142 Y-61.32 E28.90822
G1 X-6.707 Y-62.11 E28.97849
G1 X-5.673 Y-62.538 E29.02649
G1 X-4.032 Y-63.009 E29.09973
G1 X-2.857 Y-63.205 E29.15082
G1 X-1.216 Y-63.289 E29.22131
G1 X0.167 Y-63.195 E29.28077
G1 X1.495 Y-62.959 E29.33863
G1 X2.934 Y-62.53 E29.40304
G1 X4.203 Y-61.989 E29.46221
G1 X5.264 Y-61.399 E29.51429
G1 X6.577 Y-60.464 E29.58343
G1 X7.446 Y-59.687 E29.63344
G1 X8.568 Y-58.431 E29.70568
G1 X9.228 Y-57.498 E29.7547
G1 X10.04 Y-56.026 E29.82681
G1 X10.468 Y-54.992 E29.87482
G1 X10.94 Y-53.351 E29.94806
G1 X11.136 Y-52.177 E29.99912
G1 X11.22 Y-50.537 E30.06956
G1 X11.126 Y-49.151 E30.12915
G1 X10.891 Y-47.827 E30.18683
G1 X10.463 Y-46.388 E30.25123
G1 X9.995 Y-45.272 E30.30314
G1 X9.206 Y-43.859 E30.37256
G1 X8.449 Y-42.808 E30.42812
G1 X7.619 Y-41.874 E30.48172
G1 X6.361 Y-40.751 E30.55405
G1 X5.353 Y-40.043 E30.60689
G1 X4.033 Y-39.318 E30.67149
G1 X2.7 Y-38.775 E30.73323
G1 X1.281 Y-38.379 E30.79643
G1 X0.106 Y-38.183 E30.84753
G1 X-1.533 Y-38.099 E30.91793
G0 F1500 X-1.507 Y-38.498
G1 F1200 X-2.848 Y-38.587 E30.97558
G1 X-4.176 Y-38.823 E31.03343
G1 X-5.528 Y-39.225 E31.09394
G1 X-6.683 Y-39.712 E31.14771
G1 X-7.977 Y-40.439 E31.21137
G1 X-9.062 Y-41.224 E31.26882
G1 X-10.028 Y-42.098 E31.3247
G1 X-10.994 Y-43.195 E31.3874
G1 X-11.725 Y-44.239 E31.44207
G1 X-12.421 Y-45.519 E31.50457
G1 X-12.91 Y-46.726 E31.56043
G1 X-13.297 Y-48.112 E31.62216
G1 X-13.491 Y-49.282 E31.67303
G1 X-13.571 Y-50.825 E31.73931
G1 X-13.482 Y-52.163 E31.79683
G1 X-13.237 Y-53.535 E31.85661
G1 X-12.844 Y-54.846 E31.91532
G1 X-12.32 Y-56.079 E31.97279
G1 X-11.707 Y-57.177 E32.02673
G1 X-10.845 Y-58.381 E32.09025
G1 X-9.94 Y-59.378 E32.14801
G1 X-8.881 Y-60.309 E32.20849
G1 X-7.911 Y-60.993 E32.2594
G1 X-6.554 Y-61.74 E32.32585
G1 X-5.52 Y-62.168 E32.37385
G1 X-3.966 Y-62.614 E32.4432
G1 X-2.791 Y-62.81 E32.4943
G1 X-1.243 Y-62.89 E32.56079
G1 X0.097 Y-62.801 E32.6184
G1 X1.425 Y-62.565 E32.67626
G1 X2.778 Y-62.162 E32.73682
G1 X4.009 Y-61.639 E32.79419
G1 X5.032 Y-61.073 E32.84434
G1 X6.31 Y-60.166 E32.91156
G1 X7.179 Y-59.389 E32.96157
G1 X8.241 Y-58.2 E33.02995
G1 X8.901 Y-57.267 E33.07897
