;FLAVOR:Marlin
;TIME:3831
;Filament used: 1.38124m
;Layer height: 0.1
;MINX:-5
;MINY:-11.052
;MINZ:0.3
;MAXX:15
;MAXY:11.052
;MAXZ:43.9
;Generated with Cura_SteamEngine 4.13.1
M140 S50
M105
M190 S50
M104 S210
M105
M109 S210
M82 ;absolute extrusion mode
;FLAVOR:Marlin
M82 ;absolute extrusion mode
G21
G90
M82
M107 T0
G28
G92 E0
G0 E3 F200
G92 E0 ; reset extrusion distance
M106 S255 ; Enable cooling fan full speed
G1 X-98 Y0 Z0.4 F3000 ; move to arc start
G3 X0 Y-98 I98 Z0.4 E40 F400 ; lay arc stripe 90deg
G92 E0 ; reset extrusion distance
G4 P500 ; wait for 0.5 sec
G0 Z10 E-1 ; Lift 15mm and retract 1mm filament
G4 P2000 ; wait for 5 sec
G0 Z15
M107 ; Disable cooling fan
G1 X0 Y-85 Z4 E0 F3000 ; get off the bed
G92 E0
G92 E0
G1 F1500 E-6.5
;LAYER_COUNT:438
;LAYER:0
M106 S25.5
G1 F600 Z1.3
G0 F3600 X-5 Y3.98 Z1.3
;TYPE:SKIRT
G1 F600 Z0.3
G1 F1500 E0.3326
G1 F1200 X-5 Y-3.981 E0.72978
G1 X-4.96 Y-4.469 E0.75421
G1 X-4.841 Y-4.944 E0.77864
G1 X-4.606 Y-5.466 E0.8072
G1 X-4.277 Y-5.963 E0.83693
G1 X-3.939 Y-6.317 E0.86135
G1 X-3.447 Y-6.672 E0.89162
G1 X3.446 Y-10.65 E1.28867
G1 X3.889 Y-10.86 E1.31313
G1 X4.36 Y-10.994 E1.33756
G1 X4.946 Y-11.052 E1.36694
G1 X5.542 Y-11.012 E1.39674
G1 X6.017 Y-10.893 E1.42117
G1 X6.554 Y-10.65 E1.45058
G1 X13.447 Y-6.672 E1.84763
G1 X13.849 Y-6.394 E1.87201
G1 X14.201 Y-6.054 E1.89643
G1 X14.553 Y-5.559 E1.92673
G1 X14.813 Y-5.023 E1.95645
G1 X14.945 Y-4.551 E1.9809
G1 X15 Y-3.981 E2.00947
G1 X15 Y3.98 E2.40665
G1 X14.96 Y4.468 E2.43108
G1 X14.841 Y4.943 E2.45551
G1 X14.606 Y5.465 E2.48407
G1 X14.277 Y5.962 E2.5138
G1 X13.939 Y6.316 E2.53822
G1 X13.447 Y6.671 E2.56849
G1 X6.554 Y10.65 E2.96557
G1 X6.111 Y10.859 E2.99001
G1 X5.641 Y10.994 E3.0144
G1 X5.054 Y11.052 E3.04383
G1 X4.458 Y11.012 E3.07363
G1 X3.983 Y10.893 E3.09806
G1 X3.446 Y10.65 E3.12747
G1 X-3.447 Y6.671 E3.52455
G1 X-3.849 Y6.393 E3.54893
G1 X-4.201 Y6.052 E3.57338
G1 X-4.553 Y5.558 E3.60364
G1 X-4.813 Y5.022 E3.63336
G1 X-4.945 Y4.55 E3.65782
G1 X-5 Y3.98 E3.68639
G0 F3600 X-4.6 Y3.98
G1 F1200 X-4.6 Y-3.981 E4.08356
G1 X-4.56 Y-4.435 E4.1063
G1 X-4.442 Y-4.875 E4.12903
G1 X-4.206 Y-5.361 E4.15598
G1 X-3.947 Y-5.736 E4.17872
G1 X-3.626 Y-6.059 E4.20144
G1 X-3.247 Y-6.326 E4.22457
G1 X3.646 Y-10.304 E4.62162
G1 X4.059 Y-10.496 E4.64434
G1 X4.5 Y-10.613 E4.6671
G1 X5.054 Y-10.652 E4.69481
G1 X5.508 Y-10.612 E4.71755
G1 X5.948 Y-10.494 E4.74028
G1 X6.354 Y-10.304 E4.76264
G1 X13.247 Y-6.326 E5.15969
G1 X13.62 Y-6.064 E5.18243
G1 X13.942 Y-5.742 E5.20515
G1 X14.259 Y-5.268 E5.2336
G1 X14.449 Y-4.854 E5.25633
G1 X14.564 Y-4.413 E5.27906
G1 X14.6 Y-3.981 E5.30069
G1 X14.6 Y3.98 E5.69787
G1 X14.56 Y4.434 E5.7206
G1 X14.442 Y4.874 E5.74333
G1 X14.206 Y5.36 E5.77029
G1 X13.947 Y5.735 E5.79302
G1 X13.626 Y6.058 E5.81574
G1 X13.247 Y6.325 E5.83887
G1 X6.354 Y10.304 E6.23595
G1 X5.941 Y10.496 E6.25867
G1 X5.501 Y10.613 E6.28139
G1 X4.946 Y10.652 E6.30914
G1 X4.492 Y10.612 E6.33188
G1 X4.052 Y10.494 E6.35461
G1 X3.646 Y10.304 E6.37697
G1 X-3.247 Y6.325 E6.77405
G1 X-3.62 Y6.063 E6.79679
G1 X-3.942 Y5.741 E6.81951
G1 X-4.259 Y5.267 E6.84796
G1 X-4.449 Y4.853 E6.87068
G1 X-4.564 Y4.412 E6.89342
G1 X-4.6 Y3.98 E6.91505
G0 F3600 X-4.2 Y3.98
G1 F1200 X-4.2 Y-3.981 E7.31222
G1 X-4.16 Y-4.398 E7.33312
G1 X-4.042 Y-4.8 E7.35403
G1 X-3.858 Y-5.163 E7.37433
G1 X-3.617 Y-5.506 E7.39524
G1 X-3.315 Y-5.797 E7.41617
G1 X-3.047 Y-5.979 E7.43233
G1 X3.846 Y-9.957 E7.82938
G1 X4.228 Y-10.131 E7.85032
G1 X4.635 Y-10.23 E7.87122
G1 X5.054 Y-10.252 E7.89215
G1 X5.471 Y-10.212 E7.91305
G1 X5.873 Y-10.094 E7.93396
G1 X6.154 Y-9.957 E7.94955
G1 X13.047 Y-5.979 E8.3466
G1 X13.388 Y-5.736 E8.36749
G1 X13.677 Y-5.433 E8.38838
G1 X13.911 Y-5.07 E8.40993
G1 X14.083 Y-4.688 E8.43083
G1 X14.18 Y-4.28 E8.45175
G1 X14.2 Y-3.981 E8.4667
G1 X14.2 Y3.98 E8.86388
G1 X14.16 Y4.397 E8.88478
G1 X14.042 Y4.799 E8.90568
G1 X13.858 Y5.162 E8.92599
G1 X13.617 Y5.505 E8.9469
G1 X13.315 Y5.796 E8.96782
G1 X13.047 Y5.978 E8.98399
G1 X6.154 Y9.957 E9.38106
G1 X5.773 Y10.131 E9.40196
G1 X5.365 Y10.23 E9.42291
G1 X4.946 Y10.252 E9.44384
G1 X4.529 Y10.212 E9.46474
G1 X4.127 Y10.094 E9.48564
G1 X3.846 Y9.957 E9.50124
G1 X-3.047 Y5.978 E9.89831
G1 X-3.388 Y5.735 E9.9192
G1 X-3.677 Y5.432 E9.94009
G1 X-3.911 Y5.069 E9.96164
G1 X-4.083 Y4.687 E9.98254
G1 X-4.18 Y4.279 E10.00346
G1 X-4.2 Y3.98 E10.01841
G0 F3600 X-3.8 Y3.98
G1 F1200 X-3.8 Y-3.981 E10.41559
G1 X-3.76 Y-4.358 E10.4345
G1 X-3.564 Y-4.872 E10.46195
G1 X-3.29 Y-5.273 E10.48618
G1 X-2.847 Y-5.633 E10.51466
G1 X4.046 Y-9.611 E10.91171
G1 X4.393 Y-9.765 E10.93065
G1 X4.946 Y-9.852 E10.95858
G1 X5.431 Y-9.812 E10.98286
G1 X5.954 Y-9.611 E11.01081
G1 X12.847 Y-5.633 E11.40786
G1 X13.153 Y-5.41 E11.42675
G1 X13.511 Y-4.965 E11.45525
G1 X13.716 Y-4.525 E11.47946
G1 X13.8 Y-3.981 E11.50693
G1 X13.8 Y3.98 E11.9041
G1 X13.76 Y4.357 E11.92302
G1 X13.564 Y4.871 E11.95046
G1 X13.29 Y5.272 E11.97469
G1 X12.847 Y5.632 E12.00317
G1 X5.954 Y9.611 E12.40025
G1 X5.608 Y9.765 E12.41914
G1 X5.054 Y9.852 E12.44712
G1 X4.569 Y9.812 E12.4714
G1 X4.046 Y9.611 E12.49935
G1 X-2.847 Y5.632 E12.89643
G1 X-3.153 Y5.409 E12.91532
G1 X-3.511 Y4.964 E12.94381
G1 X-3.716 Y4.524 E12.96803
G1 X-3.8 Y3.98 E12.99549
G0 F3600 X-3.4 Y3.98
G1 F1200 X-3.4 Y-3.981 E13.39267
G1 X-3.36 Y-4.313 E13.40935
G1 X-3.163 Y-4.767 E13.43404
G1 X-2.964 Y-5.036 E13.45073
G1 X-2.647 Y-5.287 E13.47091
G1 X4.246 Y-9.265 E13.86796
G1 X4.553 Y-9.396 E13.88461
G1 X5.054 Y-9.452 E13.90976
G1 X5.386 Y-9.412 E13.92645
G1 X5.754 Y-9.265 E13.94622
G1 X12.647 Y-5.287 E14.34327
G1 X12.914 Y-5.086 E14.35994
G1 X13.216 Y-4.674 E14.38543
G1 X13.346 Y-4.366 E14.40211
G1 X13.4 Y-3.981 E14.4215
G1 X13.4 Y3.98 E14.81868
G1 X13.36 Y4.312 E14.83536
G1 X13.163 Y4.766 E14.86005
G1 X12.964 Y5.035 E14.87674
G1 X12.647 Y5.285 E14.89689
G1 X5.754 Y9.264 E15.29396
G1 X5.447 Y9.396 E15.31064
G1 X4.946 Y9.452 E15.33579
G1 X4.614 Y9.412 E15.35247
G1 X4.246 Y9.264 E15.37226
G1 X-2.647 Y5.285 E15.76933
G1 X-2.914 Y5.085 E15.78598
G1 X-3.216 Y4.673 E15.81146
G1 X-3.346 Y4.365 E15.82814
G1 X-3.4 Y3.98 E15.84754
G0 F3600 X-3 Y3.98
G1 F1200 X-3 Y-3.981 E16.24471
G1 X-2.96 Y-4.26 E16.25878
G1 X-2.816 Y-4.569 E16.27578
G1 X-2.643 Y-4.792 E16.28986
G1 X-2.447 Y-4.94 E16.30212
G1 X4.446 Y-8.918 E16.69917
G1 X4.708 Y-9.023 E16.71325
G1 X5.054 Y-9.052 E16.73057
G1 X5.333 Y-9.012 E16.74464
G1 X5.554 Y-8.918 E16.75662
G1 X12.447 Y-4.94 E17.15367
G1 X12.669 Y-4.766 E17.16774
G1 X12.869 Y-4.476 E17.18532
G1 X12.973 Y-4.214 E17.19938
G1 X13 Y-3.981 E17.21108
G1 X13 Y3.98 E17.60826
G1 X12.96 Y4.259 E17.62232
G1 X12.816 Y4.568 E17.63933
G1 X12.643 Y4.791 E17.65341
G1 X12.447 Y4.939 E17.66566
G1 X5.554 Y8.918 E18.06274
G1 X5.292 Y9.023 E18.07682
G1 X4.946 Y9.052 E18.09414
G1 X4.667 Y9.012 E18.1082
G1 X4.446 Y8.918 E18.12019
G1 X-2.447 Y4.939 E18.51726
G1 X-2.669 Y4.765 E18.53133
G1 X-2.869 Y4.475 E18.54891
G1 X-2.973 Y4.213 E18.56297
G1 X-3 Y3.98 E18.57468
G0 F3600 X-2.6 Y3.98
G1 F1200 X-2.6 Y-3.981 E18.97185
G1 X-2.468 Y-4.371 E18.99239
G1 X-2.247 Y-4.594 E19.00806
G1 X4.646 Y-8.572 E19.40511
G1 X5.054 Y-8.652 E19.42585
G1 X5.354 Y-8.572 E19.44134
G1 X12.247 Y-4.594 E19.83839
G1 X12.521 Y-4.278 E19.85926
G1 X12.6 Y-3.981 E19.87459
G1 X12.6 Y3.98 E20.27177
G1 X12.468 Y4.37 E20.29231
G1 X12.247 Y4.593 E20.30797
G1 X5.354 Y8.572 E20.70505
G1 X4.946 Y8.652 E20.72579
G1 X4.646 Y8.572 E20.74128
G1 X-2.247 Y4.593 E21.13836
G1 X-2.521 Y4.277 E21.15923
G1 X-2.6 Y3.98 E21.17456
G0 F3600 X-2.2 Y3.98
G1 F1200 X-2.2 Y-3.981 E21.57173
G1 X-2.121 Y-4.173 E21.58209
G1 X-2.047 Y-4.247 E21.58731
G1 X4.846 Y-8.225 E21.98437
G1 X5.054 Y-8.252 E21.99483
G1 X5.154 Y-8.225 E22
G1 X12.047 Y-4.247 E22.39705
G1 X12.174 Y-4.08 E22.40752
G1 X12.2 Y-3.981 E22.41262
G1 X12.2 Y3.98 E22.8098
G1 X12.121 Y4.172 E22.82016
G1 X12.047 Y4.246 E22.82538
G1 X5.154 Y8.225 E23.22245
G1 X4.946 Y8.252 E23.23292
G1 X4.846 Y8.225 E23.23809
G1 X-2.047 Y4.246 E23.63516
G1 X-2.174 Y4.079 E23.64563
G1 X-2.2 Y3.98 E23.65074
;MESH:Bit.3mf
G0 F3600 X-1.8 Y3.926
;TYPE:WALL-OUTER
G1 F1200 X-1.8 Y-3.927 E24.04253
G1 X5 Y-7.852 E24.43424
G1 X11.8 Y-3.927 E24.82595
G1 X11.8 Y3.926 E25.21774
G1 X5 Y7.852 E25.60947
G1 X-1.8 Y3.926 E26.00121
G0 F3600 X-1.8 Y3.726
G0 X-1.336 Y3.686
G0 X-1.305 Y3.635
G0 X2.649 Y5.671
G0 X3.959 Y6.049
G0 X5.477 Y6.123
G0 X6.908 Y5.837
G0 X8.238 Y5.216
G0 X9.382 Y4.301
G0 X10.274 Y3.142
G0 X10.759 Y2.095
G0 X11.186 Y0.389
G0 X10.69 Y0.33
G1 F1200 X10.689 Y-.357 E26.03548
G1 X10.607 Y-1.028 E26.06921
G1 X10.444 Y-1.69 E26.10322
G1 X10.203 Y-2.329 E26.13729
G1 X9.886 Y-2.933 E26.17133
G1 X9.502 Y-3.496 E26.20533
G1 X9.052 Y-4.008 E26.23933
G1 X8.546 Y-4.463 E26.27328
G1 X7.981 Y-4.858 E26.30768
G1 X7.386 Y-5.177 E26.34136
G1 X6.75 Y-5.424 E26.3754
G1 X6.09 Y-5.594 E26.4094
G1 X5.414 Y-5.685 E26.44343
G1 X4.727 Y-5.694 E26.47771
G1 X4.065 Y-5.623 E26.51092
G1 X3.391 Y-5.468 E26.54543
G1 X2.749 Y-5.238 E26.57945
G1 X2.14 Y-4.931 E26.61348
G1 X1.568 Y-4.551 E26.64774
G1 X1.053 Y-4.112 E26.6815
G1 X0.591 Y-3.612 E26.71546
G1 X0.191 Y-3.06 E26.74947
G1 X-.136 Y-2.472 E26.78304
G1 X-.4 Y-1.827 E26.81781
G1 X-.579 Y-1.169 E26.85183
G1 X-.678 Y-.494 E26.88587
G1 X-.698 Y0.181 E26.91956
G1 X-.635 Y0.86 E26.95358
G1 X-.492 Y1.527 E26.98761
G1 X-.271 Y2.168 E27.02144
G1 X0.026 Y2.785 E27.0556
G1 X0.394 Y3.359 E27.08962
G1 X0.829 Y3.884 E27.12363
G1 X1.323 Y4.355 E27.15768
G1 X1.86 Y4.757 E27.19115
G1 X2.363 Y5.05 E27.22019
G1 X2.816 Y5.263 E27.24517
G1 X3.418 Y5.475 E27.27701
G1 X4.031 Y5.615 E27.30838
G1 X4.755 Y5.694 E27.34471
G1 X5.443 Y5.684 E27.37904
G1 X6.118 Y5.589 E27.41305
G1 X6.771 Y5.418 E27.44673
G1 X7.411 Y5.164 E27.48108
G1 X8.006 Y4.843 E27.51481
G1 X8.562 Y4.449 E27.54881
G1 X9.068 Y3.992 E27.58282
G1 X9.516 Y3.477 E27.61688
G1 X9.896 Y2.917 E27.65064
G1 X10.213 Y2.303 E27.68511
G1 X10.45 Y1.67 E27.71884
G1 X10.61 Y1.007 E27.75286
G1 X10.69 Y0.33 E27.78687
G0 F3600 X10.69 Y0.13
G0 X11.09 Y0.353
;TYPE:WALL-INNER
G1 F1200 X11.089 Y-.382 E27.82354
G1 X11.001 Y-1.1 E27.85963
G1 X10.827 Y-1.809 E27.89605
G1 X10.569 Y-2.493 E27.93252
G1 X10.229 Y-3.139 E27.96895
G1 X9.819 Y-3.742 E28.00532
G1 X9.337 Y-4.29 E28.04173
G1 X8.795 Y-4.777 E28.07809
G1 X8.191 Y-5.199 E28.11485
G1 X7.554 Y-5.541 E28.15092
G1 X6.873 Y-5.805 E28.18736
G1 X6.167 Y-5.987 E28.22373
G1 X5.443 Y-6.085 E28.26018
G1 X4.708 Y-6.094 E28.29685
G1 X3.999 Y-6.018 E28.33243
G1 X3.278 Y-5.853 E28.36933
G1 X2.591 Y-5.606 E28.40575
G1 X1.939 Y-5.277 E28.44219
G1 X1.327 Y-4.871 E28.47883
G1 X0.775 Y-4.401 E28.515
G1 X0.281 Y-3.866 E28.55133
G1 X-.147 Y-3.275 E28.58773
G1 X-.497 Y-2.646 E28.62364
G1 X-.78 Y-1.956 E28.66085
G1 X-.971 Y-1.251 E28.69729
G1 X-1.077 Y-.529 E28.7337
G1 X-1.099 Y0.194 E28.76978
G1 X-1.031 Y0.921 E28.80621
G1 X-.878 Y1.635 E28.84264
G1 X-.642 Y2.32 E28.87879
G1 X-.324 Y2.98 E28.91534
G1 X0.07 Y3.595 E28.95178
G1 X0.536 Y4.157 E28.9882
G1 X1.064 Y4.661 E29.02462
G1 X1.639 Y5.091 E29.06044
G1 X2.177 Y5.404 E29.09149
G1 X2.664 Y5.634 E29.11836
G1 X3.307 Y5.86 E29.15237
G1 X3.965 Y6.01 E29.18604
G1 X4.736 Y6.094 E29.22473
G1 X5.474 Y6.084 E29.26155
G1 X6.197 Y5.982 E29.29798
G1 X6.896 Y5.799 E29.33403
G1 X7.58 Y5.527 E29.37075
G1 X8.217 Y5.183 E29.40687
G1 X8.813 Y4.762 E29.44327
G1 X9.354 Y4.273 E29.47966
G1 X9.834 Y3.721 E29.51615
G1 X10.24 Y3.122 E29.55225
G1 X10.579 Y2.465 E29.58914
G1 X10.833 Y1.787 E29.62526
G1 X11.004 Y1.078 E29.66165
G1 X11.09 Y0.353 E29.69807
G0 F3600 X11.189 Y0.358
G0 X10.871 Y1.798
G0 X10.274 Y3.142
G0 X9.382 Y4.301
G0 X8.238 Y5.216
G0 X6.908 Y5.837
G0 X5.477 Y6.123
G0 X3.959 Y6.049
G0 X2.78 Y5.709
G0 X-1.314 Y3.646
G0 X-1.4 Y3.695
G1 F1200 X-1.4 Y0.921 E29.83646
G1 X-1.4 Y0.194 E29.86691
G1 X-1.4 Y-.529 E29.89512
G1 X-1.4 Y-1.049 E29.91871
G1 X-1.4 Y-3.696 E30.05077
G1 X-.346 Y-4.304 E30.11148
G1 X1.154 Y-5.169 E30.19787
G1 X1.789 Y-5.536 E30.22735
G1 X2.42 Y-5.901 E30.25655
G1 X3.945 Y-6.781 E30.34439
G1 X5 Y-7.391 E30.40519
G1 X7.301 Y-6.063 E30.53774
G1 X7.716 Y-5.823 E30.55886
G1 X8.342 Y-5.462 E30.58723
G1 X8.978 Y-5.095 E30.61806
G1 X11.4 Y-3.696 E30.75761
G1 X11.4 Y-1.1 E30.88712
G1 X11.4 Y-.382 E30.91899
G1 X11.4 Y0.353 E30.94752
G1 X11.4 Y1.078 E30.97952
G1 X11.4 Y3.695 E31.11008
G1 X10.364 Y4.292 E31.16973
G1 X8.998 Y5.081 E31.24843
G1 X8.369 Y5.445 E31.27887
G1 X7.742 Y5.807 E31.30719
G1 X7.289 Y6.068 E31.33092
G1 X6.058 Y6.779 E31.40184
G1 X5 Y7.391 E31.46282
G1 X2.488 Y5.941 E31.60752
G1 X2.023 Y5.672 E31.62975
G1 X1.484 Y5.361 E31.65388
G1 X0.867 Y5.004 E31.68547
G1 X-1.4 Y3.695 E31.81607
G0 F3600 X-1 Y3.465
G1 F1200 X-1 Y2.499 E31.86426
G1 X-.674 Y3.175 E31.87699
G1 X-.254 Y3.831 E31.91585
G1 X-.152 Y3.954 E31.92382
G1 X-1 Y3.465 E31.95037
G0 F3600 X1.843 Y5.241
G0 X4.137 Y6.431
M104 S203
G1 F1200 X4.717 Y6.494 E31.97948
G1 X5.505 Y6.484 E32.0188
G1 X5.858 Y6.434 E32.03658
G1 X5 Y6.93 E32.08603
G1 X4.599 Y6.699 E32.10912
G1 X4.137 Y6.431 E32.11656
G0 F3600 X6.908 Y5.837
G0 X7.777 Y5.465
G0 X10.164 Y3.947
G1 F1200 X10.585 Y3.327 E32.15395
G1 X10.945 Y2.627 E32.19322
G1 X11 Y2.48 E32.20105
G1 X11 Y3.465 E32.22778
G1 X10.164 Y3.947 E32.2513
G0 F3600 X10.871 Y1.798
G0 X11.129 Y0.355
G0 X11 Y-2.485
G1 F1200 X10.935 Y-2.657 E32.26047
G1 X10.572 Y-3.345 E32.29928
G1 X10.161 Y-3.95 E32.33577
G1 X11 Y-3.465 E32.35924
G1 X11 Y-2.485 E32.39228
G0 F3600 X9.365 Y-4.318
G0 X8.211 Y-5.233
G0 X6.954 Y-5.816
G0 X4.145 Y-6.436
G1 F1200 X4.577 Y-6.686 E32.41719
G1 X5 Y-6.93 E32.44155
G1 X5.862 Y-6.432 E32.49121
G1 X5.472 Y-6.485 E32.51085
G1 X4.689 Y-6.494 E32.54992
G1 X4.145 Y-6.436 E32.55879
G0 F3600 X1.919 Y-5.311
G0 X0.854 Y-4.52
G0 X-1 Y-2.474
G1 F1200 X-1 Y-2.968 E32.58344
G1 X-1 Y-3.465 E32.60823
G1 X-.604 Y-3.694 E32.63105
G1 X-.146 Y-3.959 E32.65745
G1 X-.485 Y-3.49 E32.66727
G1 X-.858 Y-2.82 E32.70386
G1 X-1 Y-2.474 E32.72252
;MESH:NONMESH
G0 F600 X-1 Y-2.474 Z0.4
G0 F3600 X-1 Y-2.473
;TIME_ELAPSED:36.331530
;LAYER:1
M106 S255
;TYPE:WALL-INNER
;MESH:Bit.3mf
G1 F1800 X-1 Y-2.967 E32.73073
G1 X-1 Y-3.465 E32.73901
G1 X-.613 Y-3.689 E32.74645
G1 X-.144 Y-3.96 E32.75546
G1 X-.491 Y-3.48 E32.75889
G1 X-.857 Y-2.82 E32.77089
G1 X-1 Y-2.473 E32.77713
G0 F5400 X-1.123 Y-0.061
G0 X-1 Y2.5
G1 F1800 X-.68 Y3.162 E32.78936
G1 X-.25 Y3.836 E32.80265
G1 X-.151 Y3.955 E32.80523
G1 X-1 Y3.465 E32.81387
G1 X-1 Y2.5 E32.82166
G0 F5400 X0.516 Y4.193
G0 X1.885 Y5.263
G0 X4.146 Y6.437
G1 F1800 X4.726 Y6.494 E32.83135
G1 X5.505 Y6.484 E32.84431
G1 X5.858 Y6.434 E32.85024
G1 X5 Y6.93 E32.86672
G1 X4.606 Y6.703 E32.87428
G1 X4.146 Y6.437 E32.87679
G0 F5400 X6.913 Y5.835
G0 X7.77 Y5.469
G0 X10.167 Y3.946
G1 F1800 X10.591 Y3.317 E32.88941
G1 X10.945 Y2.627 E32.9023
G1 X11 Y2.48 E32.90491
G1 X11 Y3.465 E32.91397
G1 X10.167 Y3.946 E32.92182
G0 F5400 X10.871 Y1.798
G0 X11.129 Y0.366
G0 X11.039 Y-1.115
G0 X10.159 Y-3.951
G1 F1800 X11 Y-3.465 E32.93797
G1 X11 Y-2.477 E32.9544
G1 X10.93 Y-2.661 E32.95767
G1 X10.567 Y-3.354 E32.96549
G1 X10.159 Y-3.951 E32.96914
G0 F5400 X8.215 Y-5.232
G0 X6.946 Y-5.818
G0 X4.143 Y-6.435
G1 F1800 X4.572 Y-6.683 E32.97738
G1 X5 Y-6.93 E32.9856
G1 X5.862 Y-6.432 E33.00215
G1 X5.461 Y-6.486 E33.00888
G1 X4.682 Y-6.494 E33.02184
G1 X4.143 Y-6.435 E33.02472
G0 F5400 X6.875 Y-5.846
G0 X8.215 Y-5.232
G0 X9.36 Y-4.322
G0 X10.258 Y-3.168
G0 X10.862 Y-1.827
G0 X11.189 Y0.369
G0 X11.09 Y0.364
G1 F1800 X11.089 Y-.382 E33.03713
G1 X11 Y-1.108 E33.04929
G1 X10.824 Y-1.816 E33.06142
G1 X10.565 Y-2.497 E33.07354
G1 X10.224 Y-3.148 E33.08576
G1 X9.815 Y-3.746 E33.09781
G1 X9.332 Y-4.294 E33.10996
G1 X8.794 Y-4.776 E33.12197
