;FLAVOR:Marlin
;TIME:5398
;Filament used: 3.68306m
;Layer height: 0.15
;MINX:-27.989
;MINY:-30.836
;MINZ:0.3
;MAXX:38.708
;MAXY:29.405
;MAXZ:19.9
;Generated with Cura_SteamEngine 4.13.1
M140 S50
M105
M190 S50
M104 S210
M105
M109 S210
M82 ;absolute extrusion mode
;FLAVOR:Marlin
M82 ;absolute extrusion mode
G21
G90
M82
M107 T0
G28
G92 E0
G0 E3 F200
G92 E0 ; reset extrusion distance
M106 S255 ; Enable cooling fan full speed
G1 X-98 Y0 Z0.4 F3000 ; move to arc start
G3 X0 Y-98 I98 Z0.4 E40 F400 ; lay arc stripe 90deg
G92 E0 ; reset extrusion distance
G4 P500 ; wait for 0.5 sec
G0 Z10 E-1 ; Lift 15mm and retract 1mm filament
G4 P2000 ; wait for 5 sec
G0 Z15
M107 ; Disable cooling fan
G1 X0 Y-85 Z4 E0 F3000 ; get off the bed
G92 E0
G92 E0
G1 F1500 E-6.5
;LAYER_COUNT:126
;LAYER:0
M106 S25.5
G1 F600 Z1.3
G0 F3600 X-15.277 Y-5.832 Z1.3
;TYPE:SKIRT
G1 F600 Z0.3
G1 F1500 E0.3326
G1 X-15.056 Y-6.455 E0.36558
G1 X-14.89 Y-7.118 E0.39968
G1 X-14.786 Y-7.814 E0.43479
G1 X-14.749 Y-8.566 E0.47235
G1 X-14.748 Y-23.876 E1.23617
G1 X-14.738 Y-24.125 E1.2486
G1 X-14.686 Y-24.749 E1.27984
G1 X-14.599 Y-25.262 E1.3058
G1 X-14.435 Y-25.903 E1.33881
G1 X-14.275 Y-26.368 E1.36334
G1 X-14.013 Y-26.963 E1.39578
G1 X-13.781 Y-27.391 E1.42007
G1 X-13.43 Y-27.93 E1.45216
G1 X-13.128 Y-28.32 E1.47677
G1 X-12.678 Y-28.811 E1.50999
G1 X-12.295 Y-29.164 E1.53598
G1 X-11.785 Y-29.561 E1.56822
G1 X-11.369 Y-29.833 E1.59302
G1 X-10.783 Y-30.15 E1.62626
G1 X-10.342 Y-30.344 E1.6503
G1 X-9.721 Y-30.56 E1.6831
G1 X-9.221 Y-30.687 E1.70884
G1 X-8.563 Y-30.795 E1.7421
G1 X-8.082 Y-30.835 E1.76618
G1 X-7.434 Y-30.836 E1.79851
G1 X-6.923 Y-30.795 E1.82409
G1 X-6.266 Y-30.686 E1.85731
G1 X-5.768 Y-30.558 E1.88297
G1 X-5.155 Y-30.344 E1.91536
G1 X-4.715 Y-30.15 E1.93935
G1 X-4.119 Y-29.827 E1.97317
G1 X-3.702 Y-29.554 E1.99804
G1 X-3.191 Y-29.155 E2.03038
G1 X-2.828 Y-28.82 E2.05503
G1 X-2.387 Y-28.34 E2.08755
G1 X-2.087 Y-27.954 E2.11194
G1 X-1.726 Y-27.403 E2.1448
G1 X-1.473 Y-26.937 E2.17125
G1 X-1.21 Y-26.33 E2.20426
G1 X-1.053 Y-25.868 E2.2286
G1 X-.892 Y-25.227 E2.26157
G1 X-.812 Y-24.74 E2.2862
G1 X-.744 Y-23.909 E2.32779
G1 X-.207 Y-23.729 E2.35605
G1 X0.27 Y-23.629 E2.38037
G1 X0.846 Y-23.542 E2.40943
G1 X1.432 Y-23.479 E2.43883
G1 X2.156 Y-23.426 E2.47505
G1 X3.699 Y-23.368 E2.55208
G1 X5.253 Y-23.35 E2.62962
G1 X6.85 Y-23.367 E2.7093
G1 X8.374 Y-23.428 E2.78539
G1 X9.071 Y-23.48 E2.82026
G1 X9.704 Y-23.548 E2.85202
G1 X10.248 Y-23.631 E2.87948
G1 X11.072 Y-23.837 E2.92185
G1 X11.247 Y-23.909 E2.93129
G1 X11.314 Y-24.74 E2.97289
G1 X11.401 Y-25.262 E2.99929
G1 X11.565 Y-25.903 E3.0323
G1 X11.725 Y-26.368 E3.05683
G1 X11.987 Y-26.963 E3.08927
G1 X12.219 Y-27.391 E3.11356
G1 X12.57 Y-27.93 E3.14565
G1 X12.872 Y-28.32 E3.17025
G1 X13.322 Y-28.811 E3.20348
G1 X13.705 Y-29.164 E3.22947
G1 X14.215 Y-29.561 E3.26171
G1 X14.631 Y-29.833 E3.28651
G1 X15.217 Y-30.15 E3.31975
G1 X15.658 Y-30.344 E3.34378
G1 X16.279 Y-30.56 E3.37659
G1 X16.779 Y-30.687 E3.40232
G1 X17.437 Y-30.795 E3.43559
G1 X17.918 Y-30.835 E3.45967
G1 X18.566 Y-30.836 E3.492
G1 X19.077 Y-30.795 E3.51758
G1 X19.734 Y-30.686 E3.5508
G1 X20.232 Y-30.558 E3.57646
G1 X20.845 Y-30.344 E3.60885
G1 X21.285 Y-30.15 E3.63284
G1 X21.881 Y-29.827 E3.66666
G1 X22.298 Y-29.554 E3.69153
G1 X22.809 Y-29.155 E3.72387
G1 X23.172 Y-28.82 E3.74851
G1 X23.613 Y-28.34 E3.78103
G1 X23.913 Y-27.954 E3.80542
G1 X24.274 Y-27.403 E3.83829
G1 X24.527 Y-26.937 E3.86474
G1 X24.79 Y-26.33 E3.89775
G1 X24.947 Y-25.868 E3.92209
G1 X25.108 Y-25.227 E3.95506
G1 X25.188 Y-24.743 E3.97954
G1 X25.241 Y-24.101 E4.01168
G1 X25.251 Y-23.854 E4.02401
G1 X25.252 Y-8.293 E4.80035
G1 X25.288 Y-7.577 E4.83612
G1 X25.392 Y-6.881 E4.87123
G1 X25.558 Y-6.218 E4.90532
G1 X25.779 Y-5.595 E4.9383
G1 X26.083 Y-4.954 E4.9737
G1 X26.433 Y-4.368 E5.00775
G1 X26.846 Y-3.813 E5.04226
G1 X27.357 Y-3.249 E5.08023
G1 X32.363 Y1.755 E5.43336
G1 X32.68 Y2.128 E5.45779
G1 X32.932 Y2.548 E5.48222
G1 X33.112 Y3.003 E5.50663
G1 X33.224 Y3.605 E5.53718
G1 X33.841 Y3.863 E5.57055
G1 X34.465 Y4.339 E5.6097
G1 X35.323 Y5.194 E5.67013
G1 X35.64 Y5.567 E5.69456
G1 X35.901 Y6.004 E5.71995
G1 X36.102 Y6.344 E5.73965
G1 X36.364 Y6.399 E5.75301
G1 X36.821 Y6.576 E5.77746
G1 X37.242 Y6.826 E5.80189
G1 X37.617 Y7.14 E5.82629
G1 X37.954 Y7.535 E5.85219
G1 X38.404 Y8.237 E5.8938
G1 X38.583 Y8.693 E5.91824
G1 X38.685 Y9.171 E5.94262
G1 X38.708 Y9.66 E5.96704
G1 X38.651 Y10.147 E5.99151
G1 X38.516 Y10.617 E6.0159
G1 X38.306 Y11.059 E6.04032
G1 X38.027 Y11.461 E6.06473
G1 X37.856 Y11.636 E6.07694
G1 X37.761 Y11.947 E6.09316
G1 X37.673 Y12.769 E6.1344
G1 X37.472 Y13.458 E6.17021
G1 X37.379 Y13.676 E6.18203
G1 X37.237 Y14.375 E6.21762
G1 X36.968 Y14.981 E6.2507
G1 X36.769 Y15.321 E6.27035
G1 X36.614 Y17.16 E6.36243
G1 X36.534 Y17.643 E6.38685
G1 X36.375 Y18.106 E6.41128
G1 X36.05 Y18.684 E6.44436
G1 X35.646 Y19.185 E6.47647
G1 X34.02 Y20.808 E6.59108
G1 X33.761 Y21.218 E6.61528
G1 X33.347 Y21.735 E6.64832
G1 X30.171 Y24.911 E6.87241
G1 X29.652 Y25.326 E6.90556
G1 X29.59 Y25.365 E6.90921
G1 X28.136 Y26.815 E7.01166
G1 X27.763 Y27.132 E7.03608
G1 X27.187 Y27.454 E7.069
G1 X26.343 Y27.811 E7.11472
G1 X25.707 Y28.013 E7.14802
G1 X25.412 Y28.058 E7.1629
G1 X23.158 Y28.289 E7.27594
G1 X23.036 Y28.308 E7.2821
G1 X21.491 Y28.475 E7.35963
G1 X21.002 Y28.487 E7.38404
G1 X20.674 Y28.451 E7.4005
G1 X19.939 Y28.328 E7.43768
G1 X19.577 Y28.244 E7.45622
G1 X18.849 Y28.027 E7.49412
G1 X18.393 Y27.849 E7.51854
G1 X17.972 Y27.6 E7.54294
G1 X17.73 Y27.394 E7.5588
G1 X16.575 Y27.699 E7.6184
G1 X16.093 Y27.785 E7.64282
G1 X15.474 Y27.779 E7.67371
G1 X14.809 Y27.704 E7.70709
G1 X14.244 Y27.722 E7.7353
G1 X13.497 Y27.64 E7.77279
G1 X13.027 Y27.501 E7.79724
G1 X12.587 Y27.288 E7.82163
G1 X12.186 Y27.006 E7.84609
G1 X11.852 Y26.677 E7.86948
G1 X10.535 Y27.994 E7.9624
G1 X10.19 Y28.291 E7.98511
G1 X9.619 Y28.633 E8.01832
G1 X9.1 Y28.95 E8.04866
G1 X8.389 Y29.265 E8.08745
G1 X7.856 Y29.382 E8.11468
G1 X7.483 Y29.405 E8.13332
G1 X2.774 Y29.405 E8.36826
G1 X2.094 Y29.327 E8.4024
G1 X2.051 Y29.317 E8.40461
G1 X1.366 Y29.067 E8.44099
G1 X0.781 Y28.768 E8.47376
G1 X0.259 Y28.467 E8.50383
G1 X-.117 Y28.147 E8.52846
G1 X-1.102 Y27.162 E8.59796
G1 X-1.372 Y27.442 E8.61736
G1 X-1.764 Y27.735 E8.64178
G1 X-2.199 Y27.96 E8.66621
G1 X-2.664 Y28.111 E8.6906
G1 X-3.068 Y28.178 E8.71103
G1 X-3.919 Y28.26 E8.75369
G1 X-4.448 Y28.264 E8.78008
G1 X-6.08 Y28.133 E8.86176
G1 X-6.47 Y28.167 E8.88129
G1 X-6.877 Y28.26 E8.90212
G1 X-8.258 Y28.455 E8.9717
G1 X-8.887 Y28.684 E9.0051
G1 X-9.457 Y28.757 E9.03377
G1 X-11.195 Y28.811 E9.12052
G1 X-11.759 Y28.824 E9.14867
G1 X-12.676 Y28.854 E9.19444
G1 X-13.165 Y28.831 E9.21886
G1 X-13.526 Y28.761 E9.23721
G1 X-14.001 Y28.751 E9.26091
G1 X-14.645 Y28.667 E9.29331
G1 X-14.903 Y28.604 E9.30656
G1 X-15.13 Y28.624 E9.31793
G1 X-15.618 Y28.586 E9.34235
G1 X-16.093 Y28.469 E9.36676
G1 X-16.382 Y28.355 E9.38226
G1 X-17.932 Y27.65 E9.46721
G1 X-18.36 Y27.411 E9.49167
G1 X-18.812 Y27.04 E9.52084
G1 X-23.094 Y22.756 E9.82303
G1 X-23.491 Y22.265 E9.85453
G1 X-23.529 Y22.207 E9.85799
G1 X-25.705 Y20.034 E10.01141
G1 X-26.022 Y19.661 E10.03584
G1 X-26.314 Y19.156 E10.06494
G1 X-26.941 Y17.782 E10.14029
G1 X-27.162 Y17.2 E10.17135
G1 X-27.289 Y16.727 E10.19578
G1 X-27.333 Y16.019 E10.23117
G1 X-27.25 Y14.53 E10.30557
G1 X-27.768 Y13.279 E10.37312
G1 X-27.917 Y12.813 E10.39753
G1 X-27.989 Y12.329 E10.42194
G1 X-27.982 Y11.839 E10.44639
G1 X-27.895 Y11.358 E10.47078
G1 X-27.698 Y10.809 E10.49988
G1 X-27.659 Y10.311 E10.5248
G1 X-27.54 Y9.836 E10.54923
G1 X-27.346 Y9.387 E10.57363
G1 X-27.17 Y9.098 E10.59052
G1 X-26.619 Y8.298 E10.63898
G1 X-26.674 Y7.995 E10.65434
G1 X-26.681 Y7.506 E10.67874
G1 X-26.609 Y7.021 E10.7032
G1 X-26.459 Y6.556 E10.72758
G1 X-26.235 Y6.12 E10.75203
G1 X-25.809 Y5.585 E10.78615
G1 X-25.462 Y5.238 E10.81064
G1 X-24.952 Y4.828 E10.84328
G1 X-24.89 Y4.788 E10.84696
G1 X-24.326 Y4.224 E10.88676
G1 X-23.953 Y3.907 E10.91118
G1 X-23.533 Y3.655 E10.93561
G1 X-22.942 Y3.444 E10.96692
G1 X-22.818 Y2.914 E10.99408
G1 X-22.624 Y2.465 E11.01848
G1 X-22.359 Y2.053 E11.04292
G1 X-22.098 Y1.755 E11.06268
G1 X-16.855 Y-3.486 E11.43253
G1 X-16.339 Y-4.056 E11.47089
G1 X-15.935 Y-4.599 E11.50466
G1 X-15.581 Y-5.191 E11.53907
G1 X-15.277 Y-5.832 E11.57447
G0 F3600 X-14.909 Y-5.672
G1 F1500 X-14.673 Y-6.337 E11.60967
G1 X-14.496 Y-7.044 E11.64603
G1 X-14.389 Y-7.765 E11.6824
G1 X-14.349 Y-8.566 E11.72241
G1 X-14.348 Y-23.876 E12.48623
G1 X-14.339 Y-24.092 E12.49701
G1 X-14.287 Y-24.716 E12.52825
G1 X-14.212 Y-25.162 E12.55082
G1 X-14.048 Y-25.803 E12.58383
G1 X-13.909 Y-26.207 E12.60514
G1 X-13.647 Y-26.802 E12.63758
G1 X-13.446 Y-27.173 E12.65863
G1 X-13.095 Y-27.712 E12.69072
G1 X-12.833 Y-28.05 E12.71205
G1 X-12.383 Y-28.541 E12.74528
G1 X-12.049 Y-28.849 E12.76795
G1 X-11.539 Y-29.246 E12.80019
G1 X-11.179 Y-29.481 E12.82164
G1 X-10.593 Y-29.798 E12.85488
G1 X-10.21 Y-29.967 E12.87576
G1 X-9.589 Y-30.183 E12.90857
G1 X-9.156 Y-30.293 E12.93086
G1 X-8.498 Y-30.401 E12.96412
G1 X-8.081 Y-30.435 E12.985
G1 X-7.433 Y-30.436 E13.01732
G1 X-6.988 Y-30.4 E13.0396
G1 X-6.331 Y-30.291 E13.07282
G1 X-5.9 Y-30.181 E13.09502
G1 X-5.287 Y-29.967 E13.12741
G1 X-4.905 Y-29.798 E13.14825
G1 X-4.309 Y-29.475 E13.18207
G1 X-3.948 Y-29.238 E13.20361
G1 X-3.437 Y-28.839 E13.23596
G1 X-3.122 Y-28.549 E13.25732
G1 X-2.681 Y-28.069 E13.28984
G1 X-2.421 Y-27.735 E13.31096
G1 X-2.06 Y-27.184 E13.34382
G1 X-1.84 Y-26.778 E13.36686
G1 X-1.577 Y-26.171 E13.39986
G1 X-1.441 Y-25.77 E13.42099
G1 X-1.28 Y-25.129 E13.45396
G1 X-1.211 Y-24.707 E13.47529
G1 X-1.127 Y-23.68 E13.5267
G1 X-.959 Y-23.565 E13.53686
G1 X-.306 Y-23.342 E13.57129
G1 X0.216 Y-23.232 E13.5979
G1 X0.766 Y-23.149 E13.62565
G1 X1.416 Y-23.079 E13.65827
G1 X2.141 Y-23.026 E13.69453
G1 X3.68 Y-22.968 E13.77137
G1 X5.253 Y-22.95 E13.84985
G1 X6.87 Y-22.968 E13.93053
G1 X8.391 Y-23.028 E14.00647
G1 X9.113 Y-23.082 E14.04259
G1 X9.76 Y-23.152 E14.07506
G1 X10.311 Y-23.236 E14.10287
G1 X10.82 Y-23.345 E14.12884
G1 X11.467 Y-23.567 E14.16296
G1 X11.63 Y-23.69 E14.17315
G1 X11.712 Y-24.708 E14.2241
G1 X11.788 Y-25.162 E14.24707
G1 X11.952 Y-25.803 E14.28008
G1 X12.091 Y-26.207 E14.30139
G1 X12.353 Y-26.802 E14.33383
G1 X12.554 Y-27.173 E14.35488
G1 X12.905 Y-27.712 E14.38697
G1 X13.167 Y-28.05 E14.40831
G1 X13.617 Y-28.541 E14.44153
G1 X13.951 Y-28.849 E14.4642
G1 X14.461 Y-29.246 E14.49644
G1 X14.821 Y-29.481 E14.51789
G1 X15.407 Y-29.798 E14.55113
G1 X15.79 Y-29.967 E14.57202
G1 X16.411 Y-30.183 E14.60482
G1 X16.844 Y-30.293 E14.62711
G1 X17.502 Y-30.401 E14.66038
G1 X17.919 Y-30.435 E14.68125
G1 X18.567 Y-30.436 E14.71358
G1 X19.012 Y-30.4 E14.73585
G1 X19.669 Y-30.291 E14.76908
G1 X20.1 Y-30.181 E14.79127
G1 X20.713 Y-29.967 E14.82366
G1 X21.095 Y-29.798 E14.8445
G1 X21.691 Y-29.475 E14.87832
G1 X22.052 Y-29.238 E14.89987
G1 X22.563 Y-28.839 E14.93221
G1 X22.878 Y-28.549 E14.95357
G1 X23.319 Y-28.069 E14.98609
G1 X23.579 Y-27.735 E15.00721
G1 X23.94 Y-27.184 E15.04007
G1 X24.16 Y-26.778 E15.06311
G1 X24.423 Y-26.171 E15.09612
G1 X24.559 Y-25.77 E15.11724
G1 X24.72 Y-25.129 E15.15021
G1 X24.789 Y-24.71 E15.1714
G1 X24.842 Y-24.068 E15.20354
G1 X24.851 Y-23.854 E15.21422
G1 X24.852 Y-8.293 E15.99057
G1 X24.891 Y-7.528 E16.02878
G1 X24.998 Y-6.807 E16.06515
G1 X25.175 Y-6.1 E16.10151
G1 X25.411 Y-5.435 E16.13671
G1 X25.728 Y-4.768 E16.17355
G1 X26.098 Y-4.148 E16.20958
G1 X26.539 Y-3.555 E16.24645
G1 X27.06 Y-2.98 E16.28516
G1 X32.08 Y2.038 E16.63927
G1 X32.373 Y2.387 E16.66201
G1 X32.6 Y2.782 E16.68474
G1 X32.755 Y3.211 E16.70749
G1 X32.842 Y3.877 E16.741
G1 X32.842 Y3.921 E16.7432
G1 X33.461 Y4.115 E16.77556
G1 X33.854 Y4.345 E16.79828
G1 X34.182 Y4.622 E16.8197
G1 X35.04 Y5.477 E16.88013
G1 X35.334 Y5.826 E16.9029
G1 X35.626 Y6.352 E16.93291
G1 X35.859 Y6.702 E16.95389
G1 X36.341 Y6.811 E16.97854
G1 X36.758 Y6.994 E17.00126
G1 X37.137 Y7.247 E17.024
G1 X37.628 Y7.767 E17.05968
G1 X38.059 Y8.441 E17.09959
G1 X38.217 Y8.868 E17.1223
G1 X38.299 Y9.317 E17.14507
G1 X38.301 Y9.772 E17.16778
G1 X38.223 Y10.221 E17.19051
G1 X38.069 Y10.65 E17.21325
G1 X37.842 Y11.045 E17.23598
G1 X37.506 Y11.416 E17.26095
G1 X37.366 Y11.871 E17.2847
G1 X37.273 Y12.735 E17.32806
G1 X37.104 Y13.301 E17.35753
G1 X36.991 Y13.567 E17.37195
G1 X36.846 Y14.283 E17.40839
G1 X36.623 Y14.779 E17.43552
G1 X36.379 Y15.193 E17.4595
G1 X36.216 Y17.127 E17.55633
G1 X36.138 Y17.576 E17.57906
G1 X35.983 Y18.004 E17.60177
G1 X35.713 Y18.468 E17.62856
G1 X35.363 Y18.902 E17.65637
G1 X33.706 Y20.556 E17.77318
G1 X33.423 Y21.004 E17.79961
G1 X33.064 Y21.452 E17.82826
G1 X29.888 Y24.628 E18.05234
G1 X29.438 Y24.988 E18.08109
G1 X29.341 Y25.049 E18.08681
G1 X27.854 Y26.532 E18.19158
G1 X27.504 Y26.824 E18.21432
G1 X27.031 Y27.086 E18.2413
G1 X26.103 Y27.477 E18.29154
G1 X26.035 Y27.503 E18.29517
G1 X25.371 Y27.66 E18.32921
G1 X23.039 Y27.899 E18.44617
G1 X22.993 Y27.91 E18.44852
G1 X21.448 Y28.077 E18.52605
G1 X20.74 Y28.056 E18.56139
G1 X20.005 Y27.933 E18.59857
G1 X19.691 Y27.861 E18.61464
G1 X18.963 Y27.644 E18.65254
G1 X18.54 Y27.476 E18.67525
G1 X18.152 Y27.236 E18.69801
G1 X17.831 Y26.954 E18.71933
G1 X16.473 Y27.312 E18.78939
G1 X16.024 Y27.389 E18.81212
G1 X15.519 Y27.382 E18.83732
G1 X14.808 Y27.302 E18.87301
G1 X14.212 Y27.302 E18.90275
G1 X13.547 Y27.242 E18.93606
G1 X13.113 Y27.105 E18.95877
G1 X12.709 Y26.894 E18.9815
G1 X12.348 Y26.616 E19.00424
G1 X12.041 Y26.279 E19.02698
G1 X11.903 Y26.061 E19.03985
G1 X10.253 Y27.711 E19.15627
G1 X9.95 Y27.971 E19.17619
G1 X9.41 Y28.292 E19.20753
G1 X8.892 Y28.608 E19.2378
G1 X8.276 Y28.882 E19.27144
G1 X7.775 Y28.989 E19.297
G1 X7.483 Y29.005 E19.31159
G1 X2.774 Y29.005 E19.54652
G1 X2.185 Y28.937 E19.5761
G1 X2.142 Y28.927 E19.5783
G1 X1.548 Y28.71 E19.60985
G1 X0.982 Y28.421 E19.64156
G1 X0.466 Y28.123 E19.67129
G1 X0.165 Y27.864 E19.6911
G1 X-1.149 Y26.549 E19.78384
G1 X-1.533 Y27.046 E19.81518
G1 X-1.885 Y27.336 E19.83793
G1 X-2.282 Y27.56 E19.86067
G1 X-2.711 Y27.711 E19.88336
G1 X-3.107 Y27.78 E19.90342
G1 X-3.958 Y27.862 E19.94607
G1 X-4.416 Y27.866 E19.96892
G1 X-6.089 Y27.731 E20.05266
G1 X-6.518 Y27.769 E20.07414
G1 X-6.933 Y27.863 E20.09537
G1 X-8.376 Y28.067 E20.16808
G1 X-8.6 Y28.178 E20.18055
G1 X-9.037 Y28.307 E20.20328
G1 X-9.469 Y28.357 E20.22498
G1 X-11.207 Y28.411 E20.31173
G1 X-11.753 Y28.424 E20.33898
G1 X-12.689 Y28.455 E20.3857
G1 X-13.394 Y28.381 E20.42107
G1 X-13.472 Y28.362 E20.42507
G1 X-13.993 Y28.351 E20.45107
G1 X-14.551 Y28.279 E20.47914
G1 X-14.873 Y28.201 E20.49567
G1 X-15.163 Y28.224 E20.51018
G1 X-15.616 Y28.18 E20.53289
G1 X-16.216 Y27.991 E20.56427
G1 X-17.766 Y27.286 E20.64923
G1 X-18.163 Y27.061 E20.67199
G1 X-18.529 Y26.757 E20.69573
G1 X-22.811 Y22.473 E20.99792
G1 X-23.155 Y22.048 E21.0252
G1 X-23.217 Y21.953 E21.03086
G1 X-25.422 Y19.751 E21.18633
G1 X-25.715 Y19.402 E21.20906
G1 X-25.95 Y18.99 E21.23272
G1 X-26.577 Y17.616 E21.30807
G1 X-26.785 Y17.064 E21.3375
G1 X-26.901 Y16.624 E21.36021
G1 X-26.934 Y16.042 E21.38929
G1 X-26.846 Y14.459 E21.46839
G1 X-27.398 Y13.126 E21.54037
G1 X-27.535 Y12.691 E21.56312
G1 X-27.594 Y12.239 E21.58586
G1 X-27.573 Y11.784 E21.60859
G1 X-27.409 Y11.164 E21.64058
G1 X-27.291 Y10.87 E21.65639
G1 X-27.253 Y10.314 E21.68419
G1 X-27.129 Y9.875 E21.70695
G1 X-26.84 Y9.324 E21.73799
G1 X-26.192 Y8.383 E21.79499
G1 X-26.283 Y7.862 E21.82138
G1 X-26.271 Y7.407 E21.84409
G1 X-26.179 Y6.96 E21.86685
G1 X-26.01 Y6.537 E21.88958
G1 X-25.771 Y6.15 E21.91227
G1 X-25.179 Y5.521 E21.95537
