;FLAVOR:Marlin
;TIME:8137
;Filament used: 12.3052m
;Layer height: 0.24
;MINX:8.001
;MINY:-62.617
;MINZ:0.24
;MAXX:88.264
;MAXY:9.472
;MAXZ:63.12
;Generated with Cura_SteamEngine 4.13.1
M140 S50
M105
M190 S50
M104 S230
M105
M109 S230
M82 ;absolute extrusion mode
;FLAVOR:Marlin
M82 ;absolute extrusion mode
G21
G90
M82
M107 T0
G28
G92 E0
G0 E3 F200
G92 E0 ; reset extrusion distance
M106 S255 ; Enable cooling fan full speed
G1 X-98 Y0 Z0.4 F3000 ; move to arc start
G3 X0 Y-98 I98 Z0.4 E40 F400 ; lay arc stripe 90deg
G92 E0 ; reset extrusion distance
G4 P500 ; wait for 0.5 sec
G0 Z10 E-1 ; Lift 15mm and retract 1mm filament
G4 P2000 ; wait for 5 sec
G0 Z15
M107 ; Disable cooling fan
G1 X0 Y-85 Z4 E0 F3000 ; get off the bed
G92 E0
G92 E0
G1 F1500 E-1
;LAYER_COUNT:283
;LAYER:0
M106 S102
G1 F600 Z1.24
G0 F1500 X9.721 Y-21.109 Z1.24
;TYPE:SKIRT
G1 F600 Z0.24
G1 F3600 E0.75698
G1 F1200 X9.315 Y-21.383 E0.78071
G1 X8.96 Y-21.72 E0.80442
G1 X8.664 Y-22.109 E0.8281
G1 X8.435 Y-22.542 E0.85183
G1 X8.279 Y-23.006 E0.87555
G1 X8.201 Y-23.489 E0.89925
G1 X8.208 Y-24.036 E0.92576
G1 X8.616 Y-27.941 E1.11597
G1 X8.279 Y-28.662 E1.15453
G1 X8.108 Y-29.121 E1.17826
G1 X8.015 Y-29.602 E1.20199
G1 X8.001 Y-30.091 E1.22569
G1 X8.067 Y-30.576 E1.24941
G1 X8.178 Y-30.957 E1.26863
G1 X13.274 Y-44.96 E1.99056
G1 X13.478 Y-45.405 E2.01427
G1 X13.752 Y-45.81 E2.03796
G1 X14.089 Y-46.166 E2.06171
G1 X14.478 Y-46.462 E2.08539
G1 X14.981 Y-46.726 E2.11291
G1 X16.069 Y-49.714 E2.26697
G1 X16.343 Y-50.297 E2.29818
G1 X16.604 Y-50.711 E2.32189
G1 X16.99 Y-51.152 E2.35028
G1 X17.572 Y-51.638 E2.38702
G1 X18.224 Y-52.007 E2.42331
G1 X18.755 Y-52.189 E2.45051
G1 X18.787 Y-52.197 E2.4521
G1 X18.823 Y-52.727 E2.47784
G1 X18.003 Y-53.412 E2.5296
G1 X17.654 Y-53.756 E2.55334
G1 X17.231 Y-54.397 E2.59055
G1 X16.873 Y-55.13 E2.63007
G1 X16.695 Y-55.586 E2.65379
G1 X16.593 Y-56.065 E2.67751
G1 X16.571 Y-56.554 E2.70123
G1 X16.628 Y-57.04 E2.72493
G1 X16.844 Y-57.702 E2.75867
G1 X17.137 Y-58.339 E2.79264
G1 X17.405 Y-58.966 E2.82567
G1 X17.81 Y-60.079 E2.88305
G1 X18.007 Y-60.536 E2.90716
G1 X18.244 Y-60.964 E2.93086
G1 X18.632 Y-61.435 E2.96043
G1 X19.176 Y-61.916 E2.99561
G1 X19.646 Y-62.189 E3.02194
G1 X20.374 Y-62.483 E3.05998
G1 X21.004 Y-62.595 E3.09098
G1 X21.493 Y-62.617 E3.11469
G1 X21.979 Y-62.559 E3.1384
G1 X22.449 Y-62.423 E3.16211
G1 X23.038 Y-62.11 E3.19442
G1 X23.492 Y-61.909 E3.21847
G1 X23.943 Y-61.598 E3.24502
G1 X24.383 Y-61.299 E3.27079
G1 X28.365 Y-58.008 E3.52106
G1 X31.37 Y-56.903 E3.67617
G1 X47.603 Y-50.988 E4.51319
G1 X53.065 Y-50.988 E4.77781
G1 X53.553 Y-50.948 E4.80153
G1 X54.062 Y-50.817 E4.82699
G1 X54.648 Y-50.584 E4.85754
G1 X55.217 Y-50.251 E4.88948
G1 X55.617 Y-49.912 E4.91488
G1 X55.954 Y-49.557 E4.9386
G1 X56.318 Y-48.981 E4.97161
G1 X56.606 Y-48.293 E5.00774
G1 X56.714 Y-47.733 E5.03537
G1 X56.74 Y-47.047 E5.06863
G1 X56.631 Y-46.361 E5.10228
G1 X56.572 Y-46.115 E5.11454
G1 X55.969 Y-43.992 E5.22146
G1 X55.819 Y-43.423 E5.24997
G1 X55.613 Y-42.979 E5.27368
G1 X55.337 Y-42.575 E5.29738
G1 X54.999 Y-42.221 E5.3211
G1 X54.378 Y-41.758 E5.35862
G1 X53.957 Y-41.509 E5.38232
G1 X53.471 Y-41.322 E5.40755
G1 X52.648 Y-41.086 E5.44903
G1 X52.523 Y-40.818 E5.46335
G1 X61.833 Y-37.429 E5.94334
G1 X62.079 Y-37.327 E5.95625
G1 X62.771 Y-37.003 E5.99326
G1 X63.225 Y-36.74 E6.01868
G1 X63.855 Y-36.297 E6.05599
G1 X64.254 Y-35.96 E6.0813
G1 X64.795 Y-35.417 E6.11843
G1 X65.129 Y-35.019 E6.1436
G1 X65.566 Y-34.394 E6.18055
G1 X65.826 Y-33.943 E6.20577
G1 X66.15 Y-33.248 E6.24292
G1 X66.328 Y-32.758 E6.26818
G1 X66.526 Y-32.021 E6.30515
G1 X66.618 Y-31.503 E6.33064
G1 X66.685 Y-30.734 E6.36803
G1 X66.684 Y-30.211 E6.39337
G1 X66.617 Y-29.449 E6.43043
G1 X66.526 Y-28.931 E6.45591
G1 X66.327 Y-28.193 E6.49294
G1 X66.249 Y-27.948 E6.5054
G1 X64.394 Y-22.85 E6.76822
G1 X64.762 Y-22.724 E6.78706
G1 X65.193 Y-22.493 E6.81075
G1 X65.581 Y-22.194 E6.83449
G1 X65.915 Y-21.836 E6.85821
G1 X66.317 Y-21.163 E6.89618
G1 X66.666 Y-20.354 E6.93887
G1 X67.06 Y-19.608 E6.97974
G1 X67.252 Y-19.157 E7.00349
G1 X67.339 Y-18.843 E7.01927
G1 X67.966 Y-15.958 E7.16231
G1 X70.279 Y-16.515 E7.27757
G1 X70.77 Y-16.778 E7.30455
G1 X73.457 Y-19.266 E7.48196
G1 X73.842 Y-19.568 E7.50567
G1 X74.271 Y-19.804 E7.52939
G1 X74.733 Y-19.967 E7.55312
G1 X75.215 Y-20.052 E7.57683
G1 X75.704 Y-20.058 E7.60053
G1 X76.14 Y-19.991 E7.6219
G1 X76.377 Y-20.229 E7.63817
G1 X77.02 Y-20.864 E7.68195
G1 X78.227 Y-22.071 E7.76465
G1 X78.6 Y-22.388 E7.78836
G1 X79.02 Y-22.64 E7.81209
G1 X79.475 Y-22.82 E7.8358
G1 X79.953 Y-22.924 E7.8595
G1 X80.442 Y-22.949 E7.88322
G1 X80.977 Y-22.879 E7.90936
G1 X81.604 Y-23.174 E7.94293
G1 X82.08 Y-23.285 E7.96661
G1 X82.569 Y-23.317 E7.99035
G1 X83.056 Y-23.269 E8.01406
G1 X83.529 Y-23.142 E8.03778
G1 X84.184 Y-22.813 E8.07329
G1 X86.929 Y-20.982 E8.23315
G1 X87.312 Y-20.678 E8.25684
G1 X87.642 Y-20.316 E8.28057
G1 X87.907 Y-19.905 E8.30426
G1 X88.103 Y-19.456 E8.328
G1 X88.223 Y-18.981 E8.35173
G1 X88.264 Y-18.493 E8.37546
G1 X88.225 Y-18.005 E8.39917
G1 X88.108 Y-17.53 E8.42287
G1 X87.914 Y-17.081 E8.44657
G1 X87.651 Y-16.668 E8.47029
G1 X87.373 Y-16.353 E8.49065
G1 X83.683 Y-12.705 E8.74203
G1 X83.308 Y-12.39 E8.76575
G1 X82.887 Y-12.141 E8.78945
G1 X82.431 Y-11.963 E8.81317
G1 X81.952 Y-11.862 E8.83688
G1 X81.463 Y-11.84 E8.8606
G1 X80.977 Y-11.898 E8.88431
G1 X80.507 Y-12.034 E8.90801
G1 X80.302 Y-12.132 E8.91902
G1 X77.877 Y-9.706 E9.0852
G1 X77.503 Y-9.389 E9.10895
G1 X77.015 Y-9.104 E9.13633
G1 X76.461 Y-8.807 E9.16678
G1 X75.714 Y-8.379 E9.20849
G1 X75.149 Y-8.077 E9.23953
G1 X74.696 Y-7.825 E9.26464
G1 X74.422 Y-7.661 E9.28012
G1 X71.66 Y-6.367 E9.42788
G1 X67.727 Y-2.439 E9.69718
G1 X65.42 Y2.501 E9.96131
G1 X65.178 Y2.926 E9.98501
G1 X64.823 Y3.353 E10.01191
G1 X59.579 Y8.595 E10.37113
G1 X59.206 Y8.911 E10.39481
G1 X58.786 Y9.163 E10.41854
G1 X58.331 Y9.343 E10.44225
G1 X57.852 Y9.447 E10.46599
G1 X57.363 Y9.472 E10.48972
G1 X56.877 Y9.416 E10.51342
G1 X56.406 Y9.283 E10.53713
G1 X55.963 Y9.074 E10.56086
G1 X55.337 Y8.594 E10.59907
G1 X55.269 Y8.526 E10.60373
G1 X54.617 Y8.587 E10.63546
G1 X54.131 Y8.531 E10.65916
G1 X53.66 Y8.398 E10.68287
G1 X53.217 Y8.189 E10.7066
G1 X52.599 Y7.719 E10.74422
G1 X51.933 Y7.059 E10.78964
G1 X51.615 Y6.687 E10.81335
G1 X51.361 Y6.269 E10.83705
G1 X51.179 Y5.814 E10.86079
G1 X51.073 Y5.336 E10.88451
G1 X51.046 Y4.848 E10.90819
G1 X51.099 Y4.361 E10.93192
G1 X51.23 Y3.889 E10.95565
G1 X51.437 Y3.446 E10.97934
G1 X51.713 Y3.041 E11.00308
G1 X51.924 Y2.806 E11.01838
G1 X57.965 Y-3.234 E11.43224
G1 X56.624 Y-3.588 E11.49944
G1 X56.163 Y-3.751 E11.52312
G1 X55.755 Y-3.973 E11.54563
G1 X55.366 Y-4.271 E11.56937
G1 X55.031 Y-4.628 E11.59309
G1 X54.793 Y-4.982 E11.61375
G1 X54.494 Y-4.959 E11.62828
G1 X54.006 Y-5 E11.652
G1 X53.477 Y-5.14 E11.67852
G1 X10.331 Y-20.845 E13.90296
G0 F1080 X10.166 Y-20.905
G0 X9.721 Y-21.109
G0 F1500 X9.89 Y-21.474
G1 F1200 X9.517 Y-21.735 E13.92502
G1 X9.196 Y-22.058 E13.94708
G1 X8.935 Y-22.432 E13.96918
G1 X8.745 Y-22.846 E13.99124
G1 X8.629 Y-23.287 E14.01334
G1 X8.606 Y-23.994 E14.04761
G1 X9.025 Y-28.008 E14.24313
G1 X8.641 Y-28.831 E14.28713
G1 X8.485 Y-29.259 E14.3092
G1 X8.407 Y-29.708 E14.33127
G1 X8.407 Y-30.164 E14.35337
G1 X8.554 Y-30.82 E14.38593
G1 X13.65 Y-44.823 E15.10786
G1 X13.842 Y-45.236 E15.12993
G1 X14.104 Y-45.609 E15.15201
G1 X14.427 Y-45.93 E15.17407
G1 X14.996 Y-46.291 E15.20672
G1 X15.3 Y-46.432 E15.22295
G1 X16.445 Y-49.578 E15.38515
G1 X16.698 Y-50.113 E15.41382
G1 X17.1 Y-50.683 E15.44761
G1 X17.283 Y-50.88 E15.46063
G1 X17.788 Y-51.301 E15.49249
G1 X18.411 Y-51.651 E15.52711
G1 X18.874 Y-51.807 E15.55078
G1 X19.224 Y-51.869 E15.568
G1 X19.199 Y-52.001 E15.5745
G1 X19.218 Y-52.669 E15.60688
G1 X19.253 Y-52.888 E15.61762
G1 X18.259 Y-53.719 E15.68039
G1 X17.937 Y-54.041 E15.70245
G1 X17.591 Y-54.573 E15.7332
G1 X17.233 Y-55.306 E15.77272
G1 X17.069 Y-55.731 E15.79479
G1 X16.983 Y-56.179 E15.81689
G1 X16.976 Y-56.634 E15.83894
G1 X17.048 Y-57.084 E15.86101
G1 X17.208 Y-57.535 E15.8842
G1 X17.492 Y-58.152 E15.9171
G1 X17.778 Y-58.822 E15.9524
G1 X18.186 Y-59.943 E16.01019
G1 X18.371 Y-60.371 E16.03278
G1 X18.595 Y-60.768 E16.05486
G1 X19.082 Y-61.317 E16.09042
G1 X19.433 Y-61.608 E16.11251
G1 X20.083 Y-61.951 E16.14811
G1 X20.512 Y-62.106 E16.17021
G1 X21.054 Y-62.198 E16.19684
G1 X21.51 Y-62.216 E16.21895
G1 X21.961 Y-62.154 E16.24101
G1 X22.395 Y-62.014 E16.2631
G1 X22.867 Y-61.746 E16.2894
G1 X23.328 Y-61.542 E16.31382
G1 X23.752 Y-61.245 E16.3389
G1 X24.128 Y-60.99 E16.36091
G1 X28.162 Y-57.656 E16.61445
G1 X31.224 Y-56.53 E16.77251
G1 X47.532 Y-50.588 E17.61339
G1 X53.065 Y-50.588 E17.88144
G1 X53.519 Y-50.548 E17.90352
G1 X54.156 Y-50.36 E17.9357
G1 X54.619 Y-50.15 E17.96033
G1 X55.178 Y-49.768 E17.99313
G1 X55.662 Y-49.282 E18.02636
G1 X55.957 Y-48.807 E18.05345
G1 X56.231 Y-48.149 E18.08798
G1 X56.335 Y-47.498 E18.11992
G1 X56.339 Y-47.042 E18.14201
G1 X56.238 Y-46.438 E18.17168
G1 X56.187 Y-46.224 E18.18234
G1 X55.579 Y-44.085 E18.29007
G1 X55.432 Y-43.532 E18.31779
G1 X55.233 Y-43.123 E18.33983
G1 X54.965 Y-42.754 E18.36192
G1 X54.507 Y-42.339 E18.39186
G1 X53.753 Y-41.855 E18.43527
G1 X53.361 Y-41.707 E18.45557
G1 X52.333 Y-41.412 E18.50738
G1 X52.111 Y-40.887 E18.535
G1 X51.94 Y-40.604 E18.55102
G1 X61.696 Y-37.053 E19.054
G1 X61.909 Y-36.965 E19.06516
G1 X62.601 Y-36.641 E19.10218
G1 X62.995 Y-36.413 E19.12423
G1 X63.625 Y-35.97 E19.16155
G1 X63.971 Y-35.678 E19.18348
G1 X64.512 Y-35.135 E19.22061
G1 X64.801 Y-34.79 E19.24242
G1 X65.238 Y-34.165 E19.27936
G1 X65.464 Y-33.774 E19.30124
G1 X65.788 Y-33.079 E19.33839
G1 X65.942 Y-32.655 E19.36025
G1 X66.14 Y-31.918 E19.39722
G1 X66.219 Y-31.469 E19.41931
G1 X66.286 Y-30.7 E19.4567
G1 X66.286 Y-30.246 E19.4787
G1 X66.219 Y-29.484 E19.51576
G1 X66.139 Y-29.035 E19.53785
G1 X65.94 Y-28.297 E19.57488
G1 X65.873 Y-28.085 E19.58565
G1 X63.858 Y-22.548 E19.87111
G1 X64.472 Y-22.411 E19.90159
G1 X64.883 Y-22.215 E19.92365
G1 X65.253 Y-21.95 E19.9457
G1 X65.572 Y-21.624 E19.9678
G1 X65.949 Y-21.004 E20.00295
G1 X66.301 Y-20.187 E20.04605
G1 X66.706 Y-19.421 E20.08803
G1 X66.948 Y-18.758 E20.12222
G1 X67.661 Y-15.474 E20.28503
G1 X70.411 Y-16.135 E20.42205
G1 X71.001 Y-16.447 E20.45438
G1 X73.729 Y-18.973 E20.6345
G1 X74.089 Y-19.252 E20.65657
G1 X74.492 Y-19.464 E20.67863
G1 X74.926 Y-19.602 E20.70069
G1 X75.378 Y-19.662 E20.72278
G1 X75.833 Y-19.643 E20.74484
G1 X76.262 Y-19.547 E20.76614
G1 X76.659 Y-19.945 E20.79337
G1 X77.302 Y-20.58 E20.83716
G1 X78.51 Y-21.788 E20.91992
G1 X78.859 Y-22.081 E20.942
G1 X79.254 Y-22.308 E20.96407
G1 X79.682 Y-22.463 E20.98612
G1 X80.131 Y-22.541 E21.0082
G1 X80.587 Y-22.539 E21.03029
G1 X81.044 Y-22.455 E21.0528
G1 X81.476 Y-22.699 E21.07684
G1 X81.908 Y-22.844 E21.09892
G1 X82.358 Y-22.912 E21.12096
G1 X82.814 Y-22.9 E21.14306
G1 X83.26 Y-22.809 E21.16512
G1 X83.684 Y-22.642 E21.18719
G1 X83.962 Y-22.48 E21.20278
G1 X86.707 Y-20.649 E21.36264
G1 X87.062 Y-20.364 E21.38469
G1 X87.362 Y-20.021 E21.40677
G1 X87.598 Y-19.631 E21.42885
G1 X87.762 Y-19.206 E21.45092
G1 X87.85 Y-18.759 E21.473
G1 X87.858 Y-18.303 E21.49509
G1 X87.786 Y-17.854 E21.51712
G1 X87.637 Y-17.423 E21.53921
G1 X87.415 Y-17.025 E21.56129
G1 X87.092 Y-16.637 E21.58575
G1 X83.402 Y-12.989 E21.83713
G1 X83.051 Y-12.698 E21.85922
G1 X82.655 Y-12.473 E21.88129
G1 X82.225 Y-12.321 E21.90338
G1 X81.776 Y-12.246 E21.92544
G1 X81.32 Y-12.25 E21.94753
G1 X80.873 Y-12.334 E21.96956
G1 X80.446 Y-12.495 E21.99167
G1 X80.229 Y-12.624 E22.0039
G1 X77.594 Y-9.989 E22.18444
G1 X77.245 Y-9.696 E22.20651
G1 X76.748 Y-9.421 E22.23403
G1 X75.981 Y-8.985 E22.27677
G1 X75.44 Y-8.693 E22.30656
G1 X75.002 Y-8.45 E22.33082
G1 X74.543 Y-8.195 E22.35626
G1 X74.252 Y-8.023 E22.37264
G1 X71.426 Y-6.699 E22.52383
G1 X67.395 Y-2.673 E22.79984
G1 X65.058 Y2.331 E23.0674
G1 X64.829 Y2.726 E23.08952
G1 X64.54 Y3.07 E23.11129
G1 X59.296 Y8.312 E23.47051
G1 X58.947 Y8.604 E23.49255
G1 X58.552 Y8.832 E23.51465
G1 X58.123 Y8.986 E23.53673
G1 X57.674 Y9.064 E23.55881
G1 X57.219 Y9.062 E23.58085
G1 X56.771 Y8.98 E23.60292
G1 X56.343 Y8.822 E23.62502
G1 X55.95 Y8.591 E23.6471
G1 X55.401 Y8.092 E23.68305
G1 X54.928 Y8.179 E23.70635
G1 X54.472 Y8.177 E23.72844
G1 X54.024 Y8.096 E23.75049
G1 X53.597 Y7.937 E23.77257
G1 X53.204 Y7.707 E23.79463
G1 X52.881 Y7.435 E23.81509
G1 X52.215 Y6.775 E23.86051
G1 X51.921 Y6.427 E23.88258
G1 X51.692 Y6.033 E23.90466
G1 X51.535 Y5.605 E23.92675
G1 X51.455 Y5.157 E23.94879
G1 X51.455 Y4.701 E23.97088
G1 X51.534 Y4.252 E23.99297
G1 X51.691 Y3.824 E24.01506
G1 X51.92 Y3.43 E24.03714
G1 X52.207 Y3.089 E24.05873
G1 X58.573 Y-3.276 E24.49485
G1 X58.194 Y-3.586 E24.51858
G1 X56.727 Y-3.974 E24.59209
G1 X56.298 Y-4.129 E24.61419
G1 X55.971 Y-4.31 E24.6323
G1 X55.611 Y-4.589 E24.65436
G1 X55.305 Y-4.927 E24.67645
G1 X55.019 Y-5.421 E24.7041
G1 X54.761 Y-5.372 E24.71683
G1 X54.306 Y-5.366 E24.73887
G1 X53.614 Y-5.516 E24.77318
G1 X10.5 Y-21.21 E26.99599
G0 F1080 X10.303 Y-21.281
G0 X9.89 Y-21.474
G0 F1500 X10.061 Y-21.837
G1 F1200 X9.724 Y-22.086 E27.01629
G1 X9.44 Y-22.394 E27.03658
G1 X9.219 Y-22.75 E27.05688
G1 X9.07 Y-23.142 E27.0772
G1 X8.999 Y-23.555 E27.0975
G1 X9.004 Y-23.952 E27.11674
G1 X9.435 Y-28.077 E27.31767
G1 X9.004 Y-29 E27.36702
G1 X8.863 Y-29.395 E27.38734
G1 X8.8 Y-29.81 E27.40767
G1 X8.817 Y-30.228 E27.42794
G1 X8.93 Y-30.683 E27.45065
G1 X14.026 Y-44.686 E28.17258
G1 X14.206 Y-45.065 E28.19291
G1 X14.454 Y-45.402 E28.21318
G1 X14.763 Y-45.686 E28.23351
G1 X15.165 Y-45.929 E28.25627
G1 X15.619 Y-46.14 E28.28052
G1 X16.821 Y-49.441 E28.45072
G1 X17.053 Y-49.928 E28.47685
G1 X17.393 Y-50.41 E28.50543
G1 X17.576 Y-50.607 E28.51845
G1 X18.003 Y-50.964 E28.54542
G1 X18.222 Y-51.104 E28.55801
G1 X18.75 Y-51.35 E28.58623
G1 X18.993 Y-51.426 E28.59856
G1 X19.548 Y-51.524 E28.62587
G1 X19.716 Y-51.532 E28.63402
G1 X19.623 Y-51.859 E28.65049
G1 X19.586 Y-52.276 E28.67077
G1 X19.684 Y-53.05 E28.70856
G1 X18.516 Y-54.026 E28.78231
G1 X18.222 Y-54.324 E28.80259
G1 X17.95 Y-54.749 E28.82703
G1 X17.592 Y-55.482 E28.86655
G1 X17.445 Y-55.874 E28.88683
G1 X17.375 Y-56.287 E28.90713
G1 X17.384 Y-56.706 E28.92743
G1 X17.473 Y-57.115 E28.94771
G1 X17.571 Y-57.368 E28.96086
G1 X17.865 Y-58.006 E28.99489
G1 X18.151 Y-58.677 E29.03023
G1 X18.562 Y-59.806 E29.08843
G1 X18.736 Y-60.206 E29.10957
G1 X18.944 Y-60.57 E29.12988
G1 X19.364 Y-61.033 E29.16016
G1 X19.688 Y-61.298 E29.18044
G1 X20.252 Y-61.588 E29.21116
G1 X20.647 Y-61.728 E29.23147
G1 X21.105 Y-61.801 E29.25394
G1 X21.524 Y-61.814 E29.27425
G1 X21.937 Y-61.748 E29.29451
G1 X22.331 Y-61.604 E29.31483
G1 X22.78 Y-61.353 E29.33975
G1 X23.161 Y-61.177 E29.36008
G1 X23.625 Y-60.859 E29.38734
G1 X23.873 Y-60.682 E29.4021
G1 X27.959 Y-57.305 E29.65891
G1 X31.094 Y-56.152 E29.82073
G1 X47.461 Y-50.188 E30.66466
G1 X53.065 Y-50.188 E30.93616
G1 X53.482 Y-50.148 E30.95645
G1 X54.023 Y-49.983 E30.98386
G1 X54.438 Y-49.794 E31.00595
G1 X54.912 Y-49.47 E31.03376
G1 X55.368 Y-49.008 E31.06521
G1 X55.709 Y-48.401 E31.09894
G1 X55.855 Y-48.008 E31.11925
G1 X55.937 Y-47.459 E31.14615
G1 X55.906 Y-46.827 E31.1768
G1 X55.802 Y-46.334 E31.20121
G1 X55.19 Y-44.179 E31.30974
G1 X55.047 Y-43.644 E31.33657
G1 X54.855 Y-43.271 E31.35689
G1 X54.595 Y-42.942 E31.37721
G1 X53.916 Y-42.411 E31.41897
G1 X53.552 Y-42.202 E31.4393
G1 X53.251 Y-42.091 E31.45485
G1 X52.029 Y-41.741 E31.51643
G1 X51.751 Y-41.062 E31.55197
G1 X51.533 Y-40.705 E31.57224
G1 X51.274 Y-40.421 E31.59086
G1 X61.559 Y-36.677 E32.12112
