;FLAVOR:Marlin
;TIME:12237
;Filament used: 14.8765m
;Layer height: 0.24
;MINX:-40.881
;MINY:-31.158
;MINZ:0.3
;MAXX:51.352
;MAXY:31.951
;MAXZ:35.86
;Generated with Cura_SteamEngine 4.13.1
M140 S50
M105
M190 S50
M104 S215
M105
M109 S215
M82 ;absolute extrusion mode
;FLAVOR:Marlin
M82 ;absolute extrusion mode
G21
G90
M82
M107 T0
G28
G92 E0
G0 E3 F200
G92 E0 ; reset extrusion distance
M106 S255 ; Enable cooling fan full speed
G1 X-98 Y0 Z0.4 F3000 ; move to arc start
G3 X0 Y-98 I98 Z0.4 E40 F400 ; lay arc stripe 90deg
G92 E0 ; reset extrusion distance
G4 P500 ; wait for 0.5 sec
G0 Z10 E-1 ; Lift 15mm and retract 1mm filament
G4 P2000 ; wait for 5 sec
G0 Z15
M107 ; Disable cooling fan
G1 X0 Y-85 Z4 E0 F3000 ; get off the bed
G92 E0
G92 E0
G1 F1500 E-6.5
;LAYER_COUNT:147
;LAYER:0
M106 S25.5
G1 F600 Z1.3
G0 F3600 X1.489 Y-13.291 Z1.3
;TYPE:SKIRT
G1 F600 Z0.3
G1 F1500 E0.3326
G1 X1.946 Y-13.422 E0.3626
G1 X3.972 Y-13.799 E0.49266
G1 X4.509 Y-13.852 E0.52672
G1 X38.444 Y-20.212 E2.70568
G1 X38.931 Y-20.262 E2.73658
G1 X39.42 Y-20.233 E2.76749
G1 X39.897 Y-20.125 E2.79836
G1 X40.351 Y-19.94 E2.8293
G1 X40.768 Y-19.684 E2.86018
G1 X41.138 Y-19.364 E2.89105
G1 X41.451 Y-18.988 E2.92193
G1 X41.699 Y-18.566 E2.95282
G1 X41.942 Y-17.835 E3.00144
G1 X41.952 Y-17.784 E3.00472
G1 X42.505 Y-17.661 E3.04047
G1 X42.956 Y-17.469 E3.07141
G1 X43.368 Y-17.206 E3.10225
G1 X43.733 Y-16.879 E3.13318
G1 X44.133 Y-16.35 E3.17504
G1 X45.594 Y-13.893 E3.35544
G1 X45.906 Y-13.535 E3.38541
G1 X46.163 Y-13.118 E3.41633
G1 X46.423 Y-12.392 E3.465
G1 X46.54 Y-11.663 E3.51159
G1 X46.525 Y-11.173 E3.54253
G1 X46.43 Y-10.693 E3.57341
G1 X46.173 Y-9.943 E3.62345
G1 X45.957 Y-9.504 E3.65433
G1 X45.673 Y-9.105 E3.68524
G1 X45.328 Y-8.758 E3.71612
G1 X44.931 Y-8.472 E3.747
G1 X44.492 Y-8.254 E3.77793
G1 X44.024 Y-8.111 E3.80881
G1 X43.402 Y-8.041 E3.84832
G1 X43.259 Y-8.04 E3.85734
G1 X42.747 Y-8.08 E3.88975
G1 X36.972 Y-9.039 E4.25921
G1 X-28.358 Y3.269 E8.45479
G1 X-29.871 Y4.152 E8.56535
G1 X-30.801 Y5.277 E8.65747
G1 X-31.142 Y5.627 E8.68831
G1 X-31.595 Y5.952 E8.7235
G1 X-32.488 Y6.476 E8.78884
G1 X-32.929 Y6.689 E8.81975
G1 X-33.453 Y6.838 E8.85413
G1 X-34.258 Y6.989 E8.90582
G1 X-34.745 Y7.039 E8.93672
G1 X-35.233 Y7.01 E8.96757
G1 X-35.711 Y6.902 E8.9985
G1 X-36.164 Y6.717 E9.02938
G1 X-36.672 Y6.398 E9.06724
G1 X-37.048 Y6.085 E9.09811
G1 X-37.368 Y5.715 E9.12898
G1 X-37.624 Y5.297 E9.15992
G1 X-37.808 Y4.844 E9.19078
G1 X-37.894 Y4.501 E9.21309
G1 X-38.398 Y1.831 E9.38458
G1 X-38.449 Y1.345 E9.41542
G1 X-38.421 Y0.856 E9.44633
G1 X-38.313 Y0.379 E9.4772
G1 X-38.129 Y-0.075 E9.50811
G1 X-37.874 Y-.493 E9.53901
G1 X-37.497 Y-.91 E9.57449
G1 X-37.682 Y-1.069 E9.58989
G1 X-37.997 Y-1.444 E9.6208
G1 X-38.246 Y-1.865 E9.65166
G1 X-38.491 Y-2.595 E9.70026
G1 X-39.032 Y-5.332 E9.87634
G1 X-39.087 Y-5.819 E9.90727
G1 X-39.063 Y-6.307 E9.9381
G1 X-38.96 Y-6.786 E9.96903
G1 X-38.78 Y-7.241 E9.99991
G1 X-38.65 Y-7.457 E10.01582
G1 X-39.182 Y-7.737 E10.05376
G1 X-39.699 Y-8.138 E10.09505
G1 X-40.024 Y-8.504 E10.12594
G1 X-40.285 Y-8.918 E10.15683
G1 X-40.475 Y-9.369 E10.18771
G1 X-40.573 Y-9.75 E10.21254
G1 X-40.83 Y-11.112 E10.30002
G1 X-40.881 Y-11.599 E10.33092
G1 X-40.853 Y-12.087 E10.36177
G1 X-40.745 Y-12.565 E10.3927
G1 X-40.561 Y-13.018 E10.42355
G1 X-40.265 Y-13.497 E10.45909
G1 X-39.957 Y-13.878 E10.49001
G1 X-39.591 Y-14.203 E10.5209
G1 X-39.177 Y-14.464 E10.55179
G1 X-38.726 Y-14.654 E10.58267
G1 X-38.343 Y-14.752 E10.60762
G1 X40.049 Y-29.48 E15.64159
G1 X40.536 Y-29.531 E15.67249
G1 X41.025 Y-29.502 E15.70341
G1 X41.502 Y-29.394 E15.73427
G1 X41.955 Y-29.21 E15.76513
G1 X42.432 Y-28.915 E15.80053
G1 X42.813 Y-28.607 E15.83145
G1 X43.138 Y-28.241 E15.86234
G1 X43.399 Y-27.827 E15.89322
G1 X43.589 Y-27.376 E15.92411
G1 X43.687 Y-26.995 E15.94894
G1 X43.944 Y-25.632 E16.03647
G1 X43.995 Y-25.145 E16.06738
G1 X43.967 Y-24.656 E16.09829
G1 X43.859 Y-24.179 E16.12916
G1 X43.675 Y-23.725 E16.16007
G1 X43.379 Y-23.247 E16.19555
G1 X43.071 Y-22.866 E16.22647
G1 X42.705 Y-22.541 E16.25736
G1 X42.291 Y-22.28 E16.28825
G1 X41.84 Y-22.09 E16.31914
G1 X41.457 Y-21.992 E16.34409
G1 X-30.347 Y-8.503 E20.95499
G1 X-29.888 Y-8.11 E20.99312
G1 X-29.585 Y-7.726 E21.02399
G1 X-29.446 Y-7.475 E21.0421
G1 X1.489 Y-13.291 E23.02865
G0 F3600 X1.576 Y-12.9
G1 F1500 X2.019 Y-13.029 E23.05777
G1 X4.045 Y-13.406 E23.18783
G1 X4.551 Y-13.453 E23.2199
G1 X38.518 Y-19.819 E25.40092
G1 X38.972 Y-19.863 E25.4297
G1 X39.426 Y-19.827 E25.45844
G1 X39.867 Y-19.713 E25.48719
G1 X40.281 Y-19.524 E25.51591
G1 X40.656 Y-19.265 E25.54468
G1 X40.98 Y-18.944 E25.57346
G1 X41.243 Y-18.572 E25.60221
G1 X41.437 Y-18.16 E25.63095
G1 X41.616 Y-17.412 E25.67949
G1 X42.029 Y-17.372 E25.70568
G1 X42.468 Y-17.25 E25.73444
G1 X42.879 Y-17.054 E25.76317
G1 X43.249 Y-16.788 E25.79193
G1 X43.567 Y-16.462 E25.82067
G1 X43.79 Y-16.145 E25.84513
G1 X45.277 Y-13.645 E26.02871
G1 X45.603 Y-13.272 E26.05998
G1 X45.835 Y-12.88 E26.08872
G1 X46.032 Y-12.307 E26.12696
G1 X46.142 Y-11.611 E26.17143
G1 X46.12 Y-11.156 E26.20018
G1 X46.018 Y-10.712 E26.22894
G1 X45.789 Y-10.06 E26.27255
G1 X45.581 Y-9.655 E26.30128
G1 X45.305 Y-9.292 E26.33006
G1 X44.97 Y-8.983 E26.35882
G1 X44.587 Y-8.737 E26.38755
G1 X44.166 Y-8.562 E26.41633
G1 X43.721 Y-8.463 E26.4451
G1 X43.256 Y-8.44 E26.47448
G1 X42.812 Y-8.475 E26.50259
G1 X36.974 Y-9.444 E26.87607
G1 X36.952 Y-9.442 E26.87747
G1 X-28.498 Y2.888 E31.08075
G1 X-30.135 Y3.844 E31.20039
G1 X-31.109 Y5.022 E31.29685
G1 X-31.429 Y5.346 E31.32559
G1 X-31.797 Y5.607 E31.35407
G1 X-32.69 Y6.131 E31.41941
G1 X-33.102 Y6.327 E31.4482
G1 X-33.527 Y6.444 E31.47602
G1 X-34.332 Y6.595 E31.52771
G1 X-34.785 Y6.64 E31.55644
G1 X-35.239 Y6.604 E31.58519
G1 X-35.68 Y6.49 E31.61393
G1 X-36.307 Y6.166 E31.65848
G1 X-36.79 Y5.777 E31.69762
G1 X-37.082 Y5.427 E31.72638
G1 X-37.308 Y5.032 E31.7551
G1 X-37.501 Y4.427 E31.79518
G1 X-38.005 Y1.757 E31.96666
G1 X-38.05 Y1.304 E31.99539
G1 X-38.015 Y0.85 E32.02413
G1 X-37.901 Y0.408 E32.05294
G1 X-37.712 Y-0.006 E32.08166
G1 X-37.454 Y-.382 E32.11044
G1 X-37.134 Y-.706 E32.13918
G1 X-36.834 Y-.918 E32.16236
G1 X-37.2 Y-1.17 E32.19041
G1 X-37.525 Y-1.489 E32.21915
G1 X-37.79 Y-1.86 E32.24792
G1 X-37.985 Y-2.272 E32.27669
G1 X-38.099 Y-2.673 E32.303
G1 X-38.64 Y-5.41 E32.47908
G1 X-38.688 Y-5.863 E32.50783
G1 X-38.658 Y-6.317 E32.53654
G1 X-38.548 Y-6.76 E32.56535
G1 X-38.362 Y-7.176 E32.59411
G1 X-37.995 Y-7.668 E32.63284
G1 X-38.358 Y-7.762 E32.65651
G1 X-38.957 Y-8.067 E32.69893
G1 X-39.445 Y-8.449 E32.73804
G1 X-39.741 Y-8.795 E32.76678
G1 X-39.972 Y-9.188 E32.79555
G1 X-40.18 Y-9.824 E32.83778
G1 X-40.437 Y-11.186 E32.92526
G1 X-40.482 Y-11.639 E32.95399
G1 X-40.447 Y-12.094 E32.98279
G1 X-40.333 Y-12.535 E33.01153
G1 X-40.028 Y-13.136 E33.05407
G1 X-39.646 Y-13.624 E33.09318
G1 X-39.3 Y-13.92 E33.12192
G1 X-38.907 Y-14.151 E33.15069
G1 X-38.269 Y-14.359 E33.19304
G1 X40.123 Y-29.087 E38.227
G1 X40.576 Y-29.132 E38.25573
G1 X41.031 Y-29.097 E38.28453
G1 X41.472 Y-28.983 E38.31328
G1 X42.071 Y-28.678 E38.3557
G1 X42.559 Y-28.296 E38.39481
G1 X42.855 Y-27.95 E38.42355
G1 X43.086 Y-27.557 E38.45232
G1 X43.294 Y-26.921 E38.49455
G1 X43.551 Y-25.558 E38.58209
G1 X43.596 Y-25.104 E38.61088
G1 X43.561 Y-24.65 E38.63962
G1 X43.447 Y-24.209 E38.66836
G1 X43.142 Y-23.608 E38.7109
G1 X42.76 Y-23.12 E38.75001
G1 X42.414 Y-22.824 E38.77875
G1 X42.021 Y-22.593 E38.80752
G1 X41.383 Y-22.385 E38.84987
G1 X-31.747 Y-8.646 E43.54593
G1 X-31.209 Y-8.514 E43.58089
G1 X-30.795 Y-8.324 E43.60964
G1 X-30.421 Y-8.064 E43.63838
G1 X-30.097 Y-7.743 E43.66717
G1 X-29.835 Y-7.371 E43.69588
G1 X-29.674 Y-7.025 E43.71997
G1 X1.576 Y-12.9 E45.72674
G0 F3600 X1.712 Y-12.519
G1 F1500 X2.093 Y-12.636 E45.75189
G1 X4.119 Y-13.013 E45.88195
G1 X4.6 Y-13.055 E45.91242
G1 X38.592 Y-19.425 E48.09504
G1 X39.009 Y-19.463 E48.12147
G1 X39.426 Y-19.421 E48.14792
G1 X39.827 Y-19.3 E48.17435
G1 X40.199 Y-19.106 E48.20083
G1 X40.526 Y-18.845 E48.22723
G1 X40.798 Y-18.526 E48.25369
G1 X41.005 Y-18.161 E48.28017
G1 X41.157 Y-17.683 E48.31183
G1 X41.291 Y-16.992 E48.35625
G1 X41.606 Y-17.015 E48.37618
G1 X42.022 Y-16.966 E48.40262
G1 X42.421 Y-16.838 E48.42906
G1 X42.789 Y-16.637 E48.45553
G1 X43.112 Y-16.37 E48.48198
G1 X43.446 Y-15.941 E48.51629
G1 X44.961 Y-13.395 E48.70327
G1 X45.297 Y-13.011 E48.73547
G1 X45.503 Y-12.646 E48.76192
G1 X45.694 Y-11.978 E48.80577
G1 X45.743 Y-11.562 E48.8322
G1 X45.713 Y-11.144 E48.85865
G1 X45.54 Y-10.62 E48.89348
G1 X45.406 Y-10.18 E48.9225
G1 X45.206 Y-9.812 E48.94894
G1 X44.939 Y-9.488 E48.97543
G1 X44.617 Y-9.221 E49.00183
G1 X44.249 Y-9.02 E49.0283
G1 X43.85 Y-8.892 E49.05474
G1 X43.253 Y-8.84 E49.09256
G1 X42.878 Y-8.87 E49.1163
G1 X36.99 Y-9.847 E49.49298
G1 X36.896 Y-9.838 E49.49894
G1 X-28.642 Y2.509 E53.70788
G1 X-30.396 Y3.532 E53.83603
G1 X-31.417 Y4.767 E53.93716
G1 X-31.714 Y5.063 E53.96362
G1 X-32 Y5.262 E53.98561
G1 X-32.893 Y5.786 E54.05096
G1 X-33.273 Y5.963 E54.07741
G1 X-33.6 Y6.051 E54.09878
G1 X-34.405 Y6.202 E54.15047
G1 X-34.823 Y6.24 E54.17696
G1 X-35.24 Y6.198 E54.20341
G1 X-35.641 Y6.077 E54.22985
G1 X-36.212 Y5.744 E54.27156
G1 X-36.53 Y5.471 E54.29802
G1 X-36.791 Y5.143 E54.32447
G1 X-36.985 Y4.772 E54.35089
G1 X-37.108 Y4.353 E54.37845
G1 X-37.612 Y1.683 E54.54993
G1 X-37.65 Y1.266 E54.57636
G1 X-37.608 Y0.849 E54.60281
G1 X-37.488 Y0.447 E54.62929
G1 X-37.294 Y0.076 E54.65571
G1 X-37.034 Y-.252 E54.68212
G1 X-36.715 Y-.525 E54.70862
G1 X-36.307 Y-.751 E54.73806
G1 X-35.731 Y-.995 E54.77754
G1 X-35.97 Y-1.018 E54.79269
G1 X-36.372 Y-1.137 E54.81915
G1 X-36.743 Y-1.33 E54.84554
G1 X-37.072 Y-1.59 E54.87201
G1 X-37.345 Y-1.908 E54.89846
G1 X-37.553 Y-2.272 E54.92492
G1 X-37.706 Y-2.75 E54.95659
G1 X-38.247 Y-5.487 E55.13267
G1 X-38.289 Y-5.904 E55.15912
G1 X-38.251 Y-6.322 E55.18561
G1 X-38.134 Y-6.724 E55.21203
G1 X-37.944 Y-7.097 E55.23845
G1 X-37.686 Y-7.428 E55.26494
G1 X-37.37 Y-7.703 E55.29137
G1 X-37.007 Y-7.913 E55.31784
G1 X-36.488 Y-8.077 E55.35219
G1 X-34.143 Y-8.51 E55.50269
G1 X-33.726 Y-8.547 E55.52911
G1 X-33.377 Y-8.516 E55.55122
G1 X-31.717 Y-8.235 E55.65748
G1 X-31.312 Y-8.126 E55.68395
G1 X-30.936 Y-7.942 E55.71037
G1 X-30.601 Y-7.691 E55.73678
G1 X-30.319 Y-7.38 E55.76328
G1 X-30.102 Y-7.022 E55.7897
G1 X-29.949 Y-6.567 E55.81999
G1 X1.712 Y-12.519 E57.85316
G0 F3600 X1.833 Y-12.135
G1 F1500 X2.166 Y-12.243 E57.87525
G1 X4.192 Y-12.62 E58.00531
G1 X4.648 Y-12.657 E58.03418
G1 X38.665 Y-19.032 E60.21841
G1 X39.043 Y-19.062 E60.24234
G1 X39.419 Y-19.013 E60.26627
G1 X39.776 Y-18.886 E60.29018
G1 X40.098 Y-18.687 E60.31407
G1 X40.372 Y-18.425 E60.338
G1 X40.585 Y-18.111 E60.36194
G1 X40.764 Y-17.606 E60.39576
G1 X40.971 Y-16.543 E60.4641
G1 X41.633 Y-16.614 E60.50612
G1 X42.008 Y-16.558 E60.53005
G1 X42.362 Y-16.425 E60.55392
G1 X42.681 Y-16.22 E60.57785
G1 X42.95 Y-15.953 E60.60177
G1 X43.102 Y-15.736 E60.61849
G1 X44.643 Y-13.145 E60.80875
G1 X44.989 Y-12.753 E60.84175
G1 X45.165 Y-12.417 E60.86568
G1 X45.303 Y-11.893 E60.89988
G1 X45.344 Y-11.516 E60.92381
G1 X45.305 Y-11.139 E60.94773
G1 X45.141 Y-10.663 E60.97951
G1 X45.023 Y-10.303 E61.00342
G1 X44.832 Y-9.976 E61.02732
G1 X44.577 Y-9.696 E61.05122
G1 X44.269 Y-9.475 E61.07514
G1 X43.921 Y-9.324 E61.09908
G1 X43.394 Y-9.241 E61.13275
G1 X42.943 Y-9.264 E61.16125
G1 X37.001 Y-10.25 E61.54139
G1 X36.839 Y-10.234 E61.55166
G1 X-28.784 Y2.128 E65.76605
G1 X-30.661 Y3.224 E65.90322
G1 X-31.726 Y4.512 E66.0087
G1 X-31.997 Y4.777 E66.03262
G1 X-32.202 Y4.917 E66.04829
G1 X-33.095 Y5.441 E66.11363
G1 X-33.44 Y5.598 E66.13755
G1 X-33.674 Y5.658 E66.1528
G1 X-34.479 Y5.809 E66.20449
G1 X-34.857 Y5.839 E66.22842
G1 X-35.233 Y5.79 E66.25235
G1 X-35.59 Y5.663 E66.27626
G1 X-35.982 Y5.417 E66.30547
G1 X-36.267 Y5.168 E66.32936
G1 X-36.494 Y4.864 E66.3533
G1 X-36.652 Y4.519 E66.37725
G1 X-36.715 Y4.279 E66.39291
G1 X-37.219 Y1.609 E66.56439
G1 X-37.249 Y1.231 E66.58832
G1 X-37.2 Y0.855 E66.61225
G1 X-37.074 Y0.498 E66.63614
G1 X-36.875 Y0.176 E66.66003
G1 X-36.613 Y-0.098 E66.68396
G1 X-36.151 Y-.383 E66.71822
G1 X-34.781 Y-.962 E66.81209
G1 X-34.883 Y-1.471 E66.84485
G1 X-35.588 Y-1.377 E66.88973
G1 X-35.964 Y-1.426 E66.91367
G1 X-36.321 Y-1.552 E66.93756
G1 X-36.645 Y-1.75 E66.96152
G1 X-36.919 Y-2.011 E66.9854
G1 X-37.133 Y-2.324 E67.00933
G1 X-37.314 Y-2.828 E67.04313
G1 X-37.855 Y-5.565 E67.21921
G1 X-37.889 Y-5.942 E67.2431
G1 X-37.843 Y-6.319 E67.26707
G1 X-37.719 Y-6.677 E67.29098
G1 X-37.524 Y-7.001 E67.31484
G1 X-37.264 Y-7.277 E67.33877
G1 X-36.953 Y-7.493 E67.36267
G1 X-36.416 Y-7.684 E67.39864
G1 X-34.071 Y-8.117 E67.54914
G1 X-33.693 Y-8.146 E67.57306
G1 X-33.444 Y-8.122 E67.58885
G1 X-31.784 Y-7.841 E67.69511
G1 X-31.419 Y-7.739 E67.71902
G1 X-31.083 Y-7.562 E67.74299
G1 X-30.792 Y-7.32 E67.76688
G1 X-30.558 Y-7.021 E67.79084
G1 X-30.392 Y-6.681 E67.81472
G1 X-30.285 Y-6.097 E67.85219
G1 X1.833 Y-12.135 E69.9147
G0 F3600 X1.921 Y-11.744
G1 F1500 X2.239 Y-11.849 E69.93584
G1 X4.265 Y-12.226 E70.06589
G1 X4.69 Y-12.258 E70.09279
G1 X38.739 Y-18.639 E72.27907
G1 X39.072 Y-18.661 E72.30013
G1 X39.402 Y-18.603 E72.32128
G1 X39.708 Y-18.469 E72.34236
G1 X39.973 Y-18.267 E72.36339
G1 X40.183 Y-18.007 E72.38448
G1 X40.371 Y-17.53 E72.41684
G1 X40.652 Y-16.083 E72.50987
G1 X41.321 Y-16.196 E72.55269
G1 X41.655 Y-16.212 E72.57379
G1 X41.983 Y-16.149 E72.59487
G1 X42.287 Y-16.01 E72.61597
G1 X42.549 Y-15.802 E72.63708
G1 X42.758 Y-15.532 E72.65863
G1 X44.326 Y-12.897 E72.85214
G1 X44.678 Y-12.498 E72.88572
G1 X44.859 Y-12.052 E72.9161
G1 X44.944 Y-11.476 E72.95284
G1 X44.895 Y-11.145 E72.97396
G1 X44.641 Y-10.431 E73.02179
G1 X44.461 Y-10.15 E73.04285
G1 X44.219 Y-9.92 E73.06392
G1 X43.93 Y-9.753 E73.08499
G1 X43.609 Y-9.66 E73.10608
G1 X43.009 Y-9.659 E73.14394
G1 X37.013 Y-10.654 E73.52753
G1 X36.793 Y-10.633 E73.54148
G1 X-28.926 Y1.748 E77.76204
G1 X-30.924 Y2.914 E77.90804
G1 X-32.034 Y4.257 E78.018
G1 X-32.404 Y4.572 E78.04867
G1 X-33.297 Y5.096 E78.11401
G1 X-33.748 Y5.265 E78.14441
G1 X-34.553 Y5.416 E78.1961
G1 X-34.886 Y5.438 E78.21716
G1 X-35.215 Y5.38 E78.23824
G1 X-35.752 Y5.09 E78.27676
G1 X-36 Y4.866 E78.29785
G1 X-36.188 Y4.591 E78.31887
G1 X-36.322 Y4.205 E78.34466
G1 X-36.826 Y1.535 E78.51614
G1 X-36.848 Y1.201 E78.53727
G1 X-36.791 Y0.872 E78.55834
G1 X-36.657 Y0.566 E78.57942
G1 X-36.455 Y0.3 E78.6005
G1 X-36.195 Y0.09 E78.6216
G1 X-35.995 Y-0.014 E78.63582
G1 X-34.323 Y-.721 E78.75039
G1 X-34.569 Y-1.939 E78.82881
G1 X-35.285 Y-1.802 E78.87482
G1 X-35.619 Y-1.779 E78.89595
G1 X-35.948 Y-1.835 E78.91701
G1 X-36.254 Y-1.968 E78.93807
G1 X-36.521 Y-2.17 E78.9592
G1 X-36.732 Y-2.429 E78.98028
G1 X-36.921 Y-2.906 E79.01266
G1 X-37.462 Y-5.643 E79.18874
G1 X-37.488 Y-5.976 E79.20982
G1 X-37.433 Y-6.305 E79.23087
G1 X-37.302 Y-6.613 E79.25199
G1 X-37.102 Y-6.88 E79.27305
G1 X-36.844 Y-7.093 E79.29416
G1 X-36.343 Y-7.291 E79.32816
G1 X-33.998 Y-7.724 E79.47866
G1 X-33.51 Y-7.727 E79.50946
G1 X-31.85 Y-7.446 E79.61571
G1 X-31.53 Y-7.352 E79.63676
G1 X-31.241 Y-7.184 E79.65786
G1 X-31 Y-6.952 E79.67897
G1 X-30.821 Y-6.67 E79.70005
G1 X-30.714 Y-6.354 E79.72111
G1 X-30.681 Y-5.616 E79.76773
G1 X1.921 Y-11.744 E81.86131
G0 F3600 X2.312 Y-11.456
G1 F1500 X4.338 Y-11.833 E81.99137
G1 X4.733 Y-11.859 E82.01635
G1 X38.813 Y-18.246 E84.20462
G1 X39.095 Y-18.258 E84.22244
G1 X39.369 Y-18.191 E84.24024
G1 X39.613 Y-18.051 E84.25799
G1 X39.809 Y-17.847 E84.27585
G1 X39.979 Y-17.454 E84.30287
G1 X40.335 Y-15.624 E84.42053
G1 X41.388 Y-15.802 E84.48793
G1 X41.67 Y-15.809 E84.50573
