;FLAVOR:Marlin
;TIME:6337
;Filament used: 10.1541m
;Layer height: 0.24
;MINX:-31.5
;MINY:-26.87
;MINZ:0.3
;MAXX:31.5
;MAXY:26.867
;MAXZ:38.26
;Generated with Cura_SteamEngine 4.13.1
M140 S50
M105
M190 S50
M104 S220
M105
M109 S220
M82 ;absolute extrusion mode
;FLAVOR:Marlin
M82 ;absolute extrusion mode
G21
G90
M82
M107 T0
G28
G92 E0
G0 E3 F200
G92 E0 ; reset extrusion distance
M106 S255 ; Enable cooling fan full speed
G1 X-98 Y0 Z0.4 F3000 ; move to arc start
G3 X0 Y-98 I98 Z0.4 E40 F400 ; lay arc stripe 90deg
G92 E0 ; reset extrusion distance
G4 P500 ; wait for 0.5 sec
G0 Z10 E-1 ; Lift 15mm and retract 1mm filament
G4 P2000 ; wait for 5 sec
G0 Z15
M107 ; Disable cooling fan
G1 X0 Y-85 Z4 E0 F3000 ; get off the bed
G92 E0
G92 E0
G1 F1500 E-6.5
;LAYER_COUNT:157
;LAYER:0
M106 S25.5
G1 F600 Z1.3
G0 F3600 X-28.5 Y-15.482 Z1.3
;TYPE:SKIRT
G1 F600 Z0.3
G1 F1500 E0.3326
G1 X-28.988 Y-15.522 E0.36778
G1 X-29.463 Y-15.641 E0.40296
G1 X-29.912 Y-15.835 E0.4381
G1 X-30.324 Y-16.1 E0.47329
G1 X-30.687 Y-16.428 E0.50844
G1 X-30.992 Y-16.811 E0.54361
G1 X-31.23 Y-17.238 E0.57873
G1 X-31.396 Y-17.699 E0.61393
G1 X-31.5 Y-18.482 E0.67068
G1 X-31.5 Y-19.99 E0.77902
G1 X-31.46 Y-20.478 E0.81419
G1 X-31.341 Y-20.953 E0.84937
G1 X-31.147 Y-21.402 E0.88451
G1 X-30.882 Y-21.814 E0.9197
G1 X-30.554 Y-22.177 E0.95485
G1 X-30.171 Y-22.482 E0.99003
G1 X-29.743 Y-22.72 E1.02521
G1 X-29.283 Y-22.886 E1.06034
G1 X-28.5 Y-22.99 E1.11709
G1 X28.5 Y-22.99 E5.21208
G1 X28.988 Y-22.95 E5.24725
G1 X29.463 Y-22.831 E5.28243
G1 X29.912 Y-22.637 E5.31757
G1 X30.324 Y-22.372 E5.35276
G1 X30.687 Y-22.044 E5.38791
G1 X30.992 Y-21.661 E5.42309
G1 X31.23 Y-21.233 E5.45827
G1 X31.396 Y-20.773 E5.4934
G1 X31.5 Y-19.99 E5.55015
G1 X31.5 Y-18.483 E5.65841
G1 X31.46 Y-17.995 E5.69359
G1 X31.341 Y-17.52 E5.72877
G1 X31.147 Y-17.071 E5.76391
G1 X30.882 Y-16.659 E5.7991
G1 X30.554 Y-16.296 E5.83425
G1 X30.171 Y-15.991 E5.86942
G1 X29.743 Y-15.753 E5.90461
G1 X29.283 Y-15.587 E5.93974
G1 X28.5 Y-15.483 E5.99649
G1 X-28.5 Y-15.482 E10.09147
G0 F3600 X-28.5 Y-15.882
G1 F1500 X-28.954 Y-15.922 E10.12422
G1 X-29.394 Y-16.04 E10.15694
G1 X-29.806 Y-16.234 E10.18966
G1 X-30.179 Y-16.497 E10.22245
G1 X-30.499 Y-16.82 E10.25511
G1 X-30.759 Y-17.195 E10.2879
G1 X-30.949 Y-17.609 E10.32062
G1 X-31.064 Y-18.05 E10.35336
G1 X-31.1 Y-18.482 E10.38451
G1 X-31.1 Y-19.99 E10.49284
G1 X-31.06 Y-20.444 E10.52559
G1 X-30.942 Y-20.884 E10.55831
G1 X-30.748 Y-21.296 E10.59103
G1 X-30.485 Y-21.669 E10.62382
G1 X-30.162 Y-21.99 E10.65653
G1 X-29.787 Y-22.249 E10.68927
G1 X-29.373 Y-22.439 E10.722
G1 X-28.932 Y-22.554 E10.75474
G1 X-28.5 Y-22.59 E10.78588
G1 X28.5 Y-22.59 E14.88087
G1 X28.954 Y-22.55 E14.91362
G1 X29.394 Y-22.432 E14.94634
G1 X29.806 Y-22.238 E14.97906
G1 X30.179 Y-21.975 E15.01185
G1 X30.5 Y-21.652 E15.04456
G1 X30.759 Y-21.277 E15.0773
G1 X30.949 Y-20.863 E15.11003
G1 X31.064 Y-20.422 E15.14277
G1 X31.1 Y-19.99 E15.17391
G1 X31.1 Y-18.483 E15.28218
G1 X31.06 Y-18.029 E15.31492
G1 X30.942 Y-17.589 E15.34765
G1 X30.748 Y-17.177 E15.38037
G1 X30.485 Y-16.804 E15.41315
G1 X30.162 Y-16.483 E15.44587
G1 X29.787 Y-16.224 E15.47861
G1 X29.373 Y-16.034 E15.51134
G1 X28.932 Y-15.919 E15.54408
G1 X28.5 Y-15.883 E15.57522
G1 X-28.5 Y-15.882 E19.67021
G0 F3600 X-28.5 Y-16.282
G1 F1500 X-28.917 Y-16.322 E19.70031
G1 X-29.319 Y-16.44 E19.7304
G1 X-29.691 Y-16.633 E19.76051
G1 X-30.02 Y-16.892 E19.79059
G1 X-30.294 Y-17.209 E19.8207
G1 X-30.503 Y-17.572 E19.85079
G1 X-30.639 Y-17.969 E19.88094
G1 X-30.7 Y-18.482 E19.91805
G1 X-30.7 Y-19.99 E20.02639
G1 X-30.66 Y-20.407 E20.05648
G1 X-30.542 Y-20.809 E20.08658
G1 X-30.349 Y-21.181 E20.11669
G1 X-30.09 Y-21.51 E20.14677
G1 X-29.773 Y-21.784 E20.17687
G1 X-29.41 Y-21.993 E20.20697
G1 X-29.013 Y-22.129 E20.23711
G1 X-28.5 Y-22.19 E20.27423
G1 X28.5 Y-22.19 E24.36922
G1 X28.917 Y-22.15 E24.39931
G1 X29.319 Y-22.032 E24.42941
G1 X29.691 Y-21.839 E24.45952
G1 X30.02 Y-21.58 E24.4896
G1 X30.294 Y-21.263 E24.5197
G1 X30.503 Y-20.9 E24.5498
G1 X30.639 Y-20.503 E24.57994
G1 X30.7 Y-19.99 E24.61706
G1 X30.7 Y-18.483 E24.72532
G1 X30.66 Y-18.066 E24.75542
G1 X30.542 Y-17.664 E24.78552
G1 X30.349 Y-17.292 E24.81563
G1 X30.09 Y-16.963 E24.84571
G1 X29.773 Y-16.689 E24.87581
G1 X29.41 Y-16.48 E24.9059
G1 X29.013 Y-16.344 E24.93605
G1 X28.5 Y-16.283 E24.97316
G1 X-28.5 Y-16.282 E29.06815
G0 F3600 X-28.5 Y-16.682
G1 F1500 X-28.877 Y-16.722 E29.09539
G1 X-29.237 Y-16.84 E29.12261
G1 X-29.564 Y-17.03 E29.14978
G1 X-29.845 Y-17.285 E29.17704
G1 X-30.065 Y-17.594 E29.20429
G1 X-30.217 Y-17.941 E29.2315
G1 X-30.3 Y-18.482 E29.27082
G1 X-30.3 Y-19.99 E29.37916
G1 X-30.26 Y-20.367 E29.4064
G1 X-30.142 Y-20.727 E29.43362
G1 X-29.952 Y-21.054 E29.46079
G1 X-29.697 Y-21.335 E29.48805
G1 X-29.388 Y-21.555 E29.5153
G1 X-29.041 Y-21.707 E29.54251
G1 X-28.5 Y-21.79 E29.58183
G1 X28.5 Y-21.79 E33.67682
G1 X28.877 Y-21.75 E33.70406
G1 X29.237 Y-21.632 E33.73128
G1 X29.564 Y-21.442 E33.75845
G1 X29.845 Y-21.187 E33.78571
G1 X30.065 Y-20.878 E33.81296
G1 X30.217 Y-20.531 E33.84017
G1 X30.3 Y-19.99 E33.87949
G1 X30.3 Y-18.483 E33.98776
G1 X30.26 Y-18.106 E34.015
G1 X30.142 Y-17.746 E34.04221
G1 X29.952 Y-17.419 E34.06938
G1 X29.697 Y-17.138 E34.09664
G1 X29.388 Y-16.918 E34.12389
G1 X29.041 Y-16.766 E34.15111
G1 X28.5 Y-16.683 E34.19043
G1 X-28.5 Y-16.682 E38.28542
G0 F3600 X-28.5 Y-17.082
G1 F1500 X-28.832 Y-17.122 E38.30944
G1 X-29.144 Y-17.239 E38.33338
G1 X-29.421 Y-17.427 E38.35743
G1 X-29.644 Y-17.675 E38.38139
G1 X-29.803 Y-17.969 E38.40541
G1 X-29.9 Y-18.482 E38.44291
G1 X-29.9 Y-19.99 E38.55125
G1 X-29.86 Y-20.322 E38.57528
G1 X-29.743 Y-20.634 E38.59921
G1 X-29.555 Y-20.911 E38.62327
G1 X-29.307 Y-21.134 E38.64723
G1 X-29.013 Y-21.293 E38.67124
G1 X-28.5 Y-21.39 E38.70875
G1 X28.5 Y-21.39 E42.80373
G1 X28.832 Y-21.35 E42.82776
G1 X29.144 Y-21.233 E42.8517
G1 X29.421 Y-21.045 E42.87575
G1 X29.644 Y-20.797 E42.89971
G1 X29.803 Y-20.503 E42.92372
G1 X29.9 Y-19.99 E42.96123
G1 X29.9 Y-18.483 E43.06949
G1 X29.86 Y-18.151 E43.09352
G1 X29.743 Y-17.839 E43.11746
G1 X29.555 Y-17.562 E43.14151
G1 X29.307 Y-17.339 E43.16547
G1 X29.013 Y-17.18 E43.18948
G1 X28.5 Y-17.083 E43.22699
G1 X-28.5 Y-17.082 E47.32198
G0 F3600 X-28.5 Y-17.482
G1 F1500 X-28.779 Y-17.522 E47.34223
G1 X-29.036 Y-17.638 E47.36248
G1 X-29.251 Y-17.821 E47.38277
G1 X-29.405 Y-18.057 E47.40301
G1 X-29.5 Y-18.482 E47.4343
G1 X-29.5 Y-19.99 E47.54264
G1 X-29.46 Y-20.269 E47.56288
G1 X-29.344 Y-20.526 E47.58314
G1 X-29.161 Y-20.741 E47.60342
G1 X-28.925 Y-20.895 E47.62367
G1 X-28.5 Y-20.99 E47.65496
G1 X28.5 Y-20.99 E51.74994
G1 X28.779 Y-20.95 E51.77019
G1 X29.036 Y-20.834 E51.79045
G1 X29.251 Y-20.651 E51.81073
G1 X29.405 Y-20.415 E51.83098
G1 X29.5 Y-19.99 E51.86226
G1 X29.5 Y-18.483 E51.97053
G1 X29.46 Y-18.204 E51.99078
G1 X29.344 Y-17.947 E52.01104
G1 X29.161 Y-17.732 E52.03132
G1 X28.925 Y-17.578 E52.05157
G1 X28.5 Y-17.483 E52.08285
G1 X-28.5 Y-17.482 E56.17784
G0 F3600 X-28.5 Y-17.882
G1 F1500 X-28.715 Y-17.922 E56.19355
G1 X-28.901 Y-18.035 E56.20919
G1 X-29.034 Y-18.208 E56.22486
G1 X-29.1 Y-18.482 E56.24511
G1 X-29.1 Y-19.99 E56.35345
G1 X-29.06 Y-20.205 E56.36916
G1 X-28.947 Y-20.391 E56.38479
G1 X-28.774 Y-20.524 E56.40047
G1 X-28.5 Y-20.59 E56.42072
G1 X28.5 Y-20.59 E60.51571
G1 X28.715 Y-20.55 E60.53142
G1 X28.901 Y-20.437 E60.54705
G1 X29.034 Y-20.264 E60.56273
G1 X29.1 Y-19.99 E60.58298
G1 X29.1 Y-18.483 E60.69124
G1 X29.06 Y-18.268 E60.70695
G1 X28.947 Y-18.082 E60.72259
G1 X28.774 Y-17.949 E60.73827
G1 X28.5 Y-17.883 E60.75851
G1 X-28.5 Y-17.882 E64.8535
G0 F3600 X-28.5 Y-18.282
G1 F1500 X-28.619 Y-18.321 E64.8625
G1 X-28.7 Y-18.482 E64.87545
G1 X-28.7 Y-19.99 E64.98378
G1 X-28.661 Y-20.109 E64.99278
G1 X-28.5 Y-20.19 E65.00573
G1 X28.5 Y-20.19 E69.10072
G1 X28.619 Y-20.151 E69.10971
G1 X28.7 Y-19.99 E69.12266
G1 X28.7 Y-18.483 E69.23093
G1 X28.661 Y-18.364 E69.23992
G1 X28.5 Y-18.283 E69.25287
G1 X-28.5 Y-18.282 E73.34786
G1 F1500 E66.84786
G1 F600 Z1.3
;MESH:Gimbal_sicherung.3mf
G0 F3600 X28.3 Y-18.683 Z1.3
;TYPE:WALL-OUTER
G1 F600 Z0.3
G1 F1500 E73.68046
G1 X-28.3 Y-18.682 E77.74671
G1 X-28.3 Y-19.79 E77.82631
G1 X28.3 Y-19.79 E81.89256
G1 X28.3 Y-18.683 E81.97209
G0 F3600 X28.1 Y-18.683
G0 X27.9 Y-19.083
;TYPE:WALL-INNER
G1 F1500 X-27.9 Y-19.082 E85.98087
G1 X-27.9 Y-19.39 E86.003
M104 S215
G1 X27.9 Y-19.39 E89.08475
G1 X27.9 Y-19.083 E89.1068
G1 F1500 E82.6068
G1 F600 Z1.3
;MESH:NONMESH
G0 F3600 X27.5 Y-13.533 Z1.3
;TIME_ELAPSED:54.491208
;LAYER:1
M106 S255
;MESH:Gimbal_sicherung.3mf
G0 F5400 X27.5 Y-13.533 Z1.54
;TYPE:WALL-INNER
G1 F600 Z0.54
G1 F1500 E89.4394
G1 F2250 X-27.5 Y-13.532 E92.0736
G1 X-27.5 Y-19.073 E92.33899
G1 X27.5 Y-19.073 E94.97319
G1 X27.5 Y-13.533 E95.23853
G0 F5400 X27.9 Y-13.133
G1 F2250 X-27.9 Y-13.132 E97.91105
G1 X-27.9 Y-19.473 E98.21475
G1 X27.9 Y-19.473 E100.88726
G1 X27.9 Y-13.133 E101.19092
G0 F5400 X28.3 Y-12.733
;TYPE:WALL-OUTER
G1 F1500 X-28.3 Y-12.732 E103.90175
G1 X-28.3 Y-19.873 E104.24376
G1 X28.3 Y-19.873 E106.9546
G1 X28.3 Y-12.733 E107.29657
G0 F5400 X28.1 Y-12.733
G0 X27.83 Y-13.203
G0 X27.11 Y-13.923
;TYPE:SKIN
G1 F1500 X-27.11 Y-13.922 E109.89341
G1 X-27.11 Y-18.683 E110.12144
G1 X27.11 Y-18.683 E112.71828
G1 X27.11 Y-13.923 E112.94626
G0 F5400 X26.928 Y-14.483
G1 F1500 X26.547 Y-14.102 E112.97207
G0 F5400 X25.981 Y-14.102
G1 F1500 X26.928 Y-15.049 E113.03621
G0 F5400 X26.928 Y-15.615
G1 F1500 X25.416 Y-14.102 E113.13866
G0 F5400 X24.85 Y-14.102
G1 F1500 X26.928 Y-16.18 E113.27941
G0 F5400 X26.928 Y-16.746
G1 F1500 X24.284 Y-14.102 E113.45849
G0 F5400 X23.719 Y-14.102
G1 F1500 X26.928 Y-17.312 E113.67588
G0 F5400 X26.928 Y-17.877
G1 F1500 X23.153 Y-14.102 E113.93158
G0 F5400 X22.587 Y-14.102
G1 F1500 X26.928 Y-18.443 E114.22561
G0 F5400 X26.422 Y-18.502
G1 F1500 X22.022 Y-14.102 E114.52363
G0 F5400 X21.456 Y-14.102
G1 F1500 X25.856 Y-18.502 E114.82166
G0 F5400 X25.291 Y-18.502
G1 F1500 X20.89 Y-14.102 E115.11972
G0 F5400 X20.325 Y-14.102
G1 F1500 X24.725 Y-18.502 E115.41774
G0 F5400 X24.159 Y-18.502
G1 F1500 X19.759 Y-14.102 E115.71577
G0 F5400 X19.193 Y-14.102
G1 F1500 X23.594 Y-18.502 E116.01383
G0 F5400 X23.028 Y-18.502
G1 F1500 X18.628 Y-14.102 E116.31185
G0 F5400 X18.062 Y-14.102
G1 F1500 X22.462 Y-18.502 E116.60988
G0 F5400 X21.896 Y-18.502
G1 F1500 X17.496 Y-14.102 E116.90791
G0 F5400 X16.93 Y-14.102
G1 F1500 X21.331 Y-18.502 E117.20597
G0 F5400 X20.765 Y-18.502
G1 F1500 X16.365 Y-14.102 E117.50399
G0 F5400 X15.799 Y-14.102
G1 F1500 X20.199 Y-18.502 E117.80202
G0 F5400 X19.634 Y-18.502
G1 F1500 X15.233 Y-14.102 E118.10008
G0 F5400 X14.668 Y-14.102
G1 F1500 X19.068 Y-18.502 E118.3981
G0 F5400 X18.502 Y-18.502
G1 F1500 X14.102 Y-14.102 E118.69613
G0 F5400 X13.536 Y-14.102
G1 F1500 X17.937 Y-18.502 E118.99419
G0 F5400 X17.371 Y-18.502
G1 F1500 X12.971 Y-14.102 E119.29222
G0 F5400 X12.405 Y-14.102
G1 F1500 X16.805 Y-18.502 E119.59024
G0 F5400 X16.24 Y-18.502
G1 F1500 X11.839 Y-14.102 E119.8883
G0 F5400 X11.274 Y-14.102
G1 F1500 X15.674 Y-18.502 E120.18633
G0 F5400 X15.108 Y-18.502
G1 F1500 X10.708 Y-14.102 E120.48435
G0 F5400 X10.142 Y-14.102
G1 F1500 X14.543 Y-18.502 E120.78241
G0 F5400 X13.977 Y-18.502
G1 F1500 X9.577 Y-14.102 E121.08044
G0 F5400 X9.011 Y-14.102
G1 F1500 X13.411 Y-18.502 E121.37847
G0 F5400 X12.846 Y-18.502
G1 F1500 X8.445 Y-14.102 E121.67653
G0 F5400 X7.879 Y-14.102
G1 F1500 X12.28 Y-18.502 E121.97459
G0 F5400 X11.714 Y-18.502
G1 F1500 X7.314 Y-14.102 E122.27261
G0 F5400 X6.748 Y-14.102
G1 F1500 X11.148 Y-18.502 E122.57064
G0 F5400 X10.583 Y-18.502
G1 F1500 X6.182 Y-14.102 E122.8687
G0 F5400 X5.617 Y-14.102
G1 F1500 X10.017 Y-18.502 E123.16672
G0 F5400 X9.451 Y-18.502
G1 F1500 X5.051 Y-14.102 E123.46475
G0 F5400 X4.485 Y-14.102
G1 F1500 X8.886 Y-18.502 E123.76281
G0 F5400 X8.32 Y-18.502
G1 F1500 X3.92 Y-14.102 E124.06084
G0 F5400 X3.354 Y-14.102
G1 F1500 X7.754 Y-18.502 E124.35886
G0 F5400 X7.189 Y-18.502
G1 F1500 X2.788 Y-14.102 E124.65692
G0 F5400 X2.223 Y-14.102
G1 F1500 X6.623 Y-18.502 E124.95495
G0 F5400 X6.057 Y-18.502
G1 F1500 X1.657 Y-14.102 E125.25297
G0 F5400 X1.091 Y-14.102
G1 F1500 X5.492 Y-18.502 E125.55103
G0 F5400 X4.926 Y-18.502
G1 F1500 X0.526 Y-14.102 E125.84906
G0 F5400 X-0.039 Y-14.102
G1 F1500 X4.36 Y-18.502 E126.14705
G0 F5400 X3.795 Y-18.502
G1 F1500 X-.605 Y-14.102 E126.44508
G0 F5400 X-1.17 Y-14.102
G1 F1500 X3.229 Y-18.502 E126.74307
G0 F5400 X2.663 Y-18.502
G1 F1500 X-1.736 Y-14.102 E127.04106
G0 F5400 X-2.302 Y-14.102
G1 F1500 X2.097 Y-18.502 E127.33905
G0 F5400 X1.532 Y-18.502
G1 F1500 X-2.868 Y-14.102 E127.63708
G0 F5400 X-3.433 Y-14.102
G1 F1500 X0.966 Y-18.502 E127.93507
G0 F5400 X0.4 Y-18.502
G1 F1500 X-3.999 Y-14.102 E128.23306
G0 F5400 X-4.565 Y-14.102
G1 F1500 X-.164 Y-18.502 E128.53112
G0 F5400 X-.73 Y-18.502
G1 F1500 X-5.13 Y-14.102 E128.82915
G0 F5400 X-5.696 Y-14.102
G1 F1500 X-1.296 Y-18.502 E129.12718
G0 F5400 X-1.861 Y-18.502
G1 F1500 X-6.262 Y-14.102 E129.42524
G0 F5400 X-6.827 Y-14.102
G1 F1500 X-2.427 Y-18.502 E129.72326
G0 F5400 X-2.993 Y-18.502
G1 F1500 X-7.393 Y-14.102 E130.02129
G0 F5400 X-7.959 Y-14.102
G1 F1500 X-3.558 Y-18.502 E130.31935
G0 F5400 X-4.124 Y-18.502
G1 F1500 X-8.524 Y-14.102 E130.61737
G0 F5400 X-9.09 Y-14.102
G1 F1500 X-4.69 Y-18.502 E130.9154
G0 F5400 X-5.255 Y-18.502
G1 F1500 X-9.656 Y-14.102 E131.21346
G0 F5400 X-10.221 Y-14.102
G1 F1500 X-5.821 Y-18.502 E131.51149
G0 F5400 X-6.387 Y-18.502
G1 F1500 X-10.787 Y-14.102 E131.80951
G0 F5400 X-11.353 Y-14.102
G1 F1500 X-6.952 Y-18.502 E132.10757
G0 F5400 X-7.518 Y-18.502
G1 F1500 X-11.918 Y-14.102 E132.4056
G0 F5400 X-12.484 Y-14.102
G1 F1500 X-8.084 Y-18.502 E132.70362
G0 F5400 X-8.65 Y-18.502
G1 F1500 X-13.05 Y-14.102 E133.00165
G0 F5400 X-13.616 Y-14.102
G1 F1500 X-9.215 Y-18.502 E133.29971
G0 F5400 X-9.781 Y-18.502
G1 F1500 X-14.181 Y-14.102 E133.59774
G0 F5400 X-14.747 Y-14.102
G1 F1500 X-10.347 Y-18.502 E133.89576
G0 F5400 X-10.912 Y-18.502
G1 F1500 X-15.313 Y-14.102 E134.19382
G0 F5400 X-15.878 Y-14.102
G1 F1500 X-11.478 Y-18.502 E134.49185
G0 F5400 X-12.044 Y-18.502
G1 F1500 X-16.444 Y-14.102 E134.78987
G0 F5400 X-17.01 Y-14.102
G1 F1500 X-12.609 Y-18.502 E135.08793
G0 F5400 X-13.175 Y-18.502
G1 F1500 X-17.575 Y-14.102 E135.38596
G0 F5400 X-18.141 Y-14.102
G1 F1500 X-13.741 Y-18.502 E135.68399
G0 F5400 X-14.306 Y-18.502
G1 F1500 X-18.707 Y-14.102 E135.98205
G0 F5400 X-19.272 Y-14.102
G1 F1500 X-14.872 Y-18.502 E136.28007
G0 F5400 X-15.438 Y-18.502
G1 F1500 X-19.838 Y-14.102 E136.5781
G0 F5400 X-20.404 Y-14.102
G1 F1500 X-16.003 Y-18.502 E136.87616
G0 F5400 X-16.569 Y-18.502
G1 F1500 X-20.969 Y-14.102 E137.17418
G0 F5400 X-21.535 Y-14.102
G1 F1500 X-17.135 Y-18.502 E137.47221
G0 F5400 X-17.701 Y-18.502
G1 F1500 X-22.101 Y-14.102 E137.77024
G0 F5400 X-22.667 Y-14.102
G1 F1500 X-18.266 Y-18.502 E138.0683
G0 F5400 X-18.832 Y-18.502
G1 F1500 X-23.232 Y-14.102 E138.36632
G0 F5400 X-23.798 Y-14.102
G1 F1500 X-19.398 Y-18.502 E138.66435
G0 F5400 X-19.963 Y-18.502
G1 F1500 X-24.364 Y-14.102 E138.96241
G0 F5400 X-24.929 Y-14.102
G1 F1500 X-20.529 Y-18.502 E139.26043
G0 F5400 X-21.095 Y-18.502
G1 F1500 X-25.495 Y-14.102 E139.55846
G0 F5400 X-26.061 Y-14.102
G1 F1500 X-21.66 Y-18.502 E139.85652
G0 F5400 X-22.226 Y-18.502
G1 F1500 X-26.626 Y-14.102 E140.15455
G0 F5400 X-26.928 Y-14.366
G1 F1500 X-22.792 Y-18.502 E140.43469
G0 F5400 X-23.357 Y-18.502
G1 F1500 X-26.928 Y-14.931 E140.67657
G0 F5400 X-26.928 Y-15.497
G1 F1500 X-23.923 Y-18.502 E140.8801
G0 F5400 X-24.489 Y-18.502
G1 F1500 X-26.928 Y-16.063 E141.0453
