;FLAVOR:Marlin
;TIME:6761
;Filament used: 9.34125m
;Layer height: 0.24
;MINX:-69.448
;MINY:-59.924
;MINZ:0.24
;MAXX:63.091
;MAXY:72.274
;MAXZ:41.036
;TARGET_MACHINE.NAME:Unknown
;Generated with Cura_SteamEngine 5.8.1
M140 S60
M105
M190 S60
M104 S200
M105
M109 S200
M82 ;absolute extrusion mode
;FLAVOR:Marlin
M82 ;absolute extrusion mode
G21
G90
M82
M107 T0
G28
G92 E0
G0 E3 F200
G92 E0 ; reset extrusion distance
M106 S255 ; Enable cooling fan full speed
G1 X-98 Y0 Z0.4 F3000 ; move to arc start
G3 X0 Y-98 I98 Z0.4 E40 F400 ; lay arc stripe 90deg
G92 E0 ; reset extrusion distance
G4 P500 ; wait for 0.5 sec
G0 Z10 E-1 ; Lift 15mm and retract 1mm filament
G4 P2000 ; wait for 5 sec
G0 Z15
M107 ; Disable cooling fan
G1 X0 Y-85 Z4 E0 F3000 ; get off the bed
G92 E0
G92 E0
G1 F1500 E-6.5
;LAYER_COUNT:150
;LAYER:0
M106 S51
G1 F600 Z1.24
G0 F2400 X-33.292 Y13.801 Z1.24
;TYPE:SKIRT
G1 F600 Z0.24
G1 F1500 E0.54048
G1 F1200 X-32.868 Y15.79 E0.62165
G1 X-32.61 Y17.158 E0.67721
G1 X-32.446 Y18.173 E0.71824
G1 X-32.211 Y19.886 E0.78725
G1 X-32.608 Y21.694 E0.86114
G1 X-32.635 Y22.146 E0.87921
G1 X-32.591 Y22.849 E0.90732
G1 X-32.284 Y26.389 E1.04914
G1 X-32.404 Y27.168 E1.0806
G1 X-32.238 Y29.27 E1.16475
G1 X-32.083 Y31.639 E1.25951
G1 X-31.941 Y34.111 E1.35833
G1 X-31.818 Y36.619 E1.45855
G1 X-31.597 Y37.324 E1.48804
G1 X-30.958 Y49.749 E1.98461
G1 X-30.711 Y54.95 E2.19242
G1 X-31.048 Y56.13 E2.2414
G1 X-31.348 Y56.777 E2.26987
G1 X-32.094 Y57.701 E2.31727
G1 X-32.809 Y58.22 E2.35253
G1 X-33.873 Y58.717 E2.3994
G1 X-35.762 Y59.048 E2.47594
G1 X-36.832 Y59.22 E2.5192
G1 X-37.892 Y59.428 E2.56231
G1 X-38.167 Y59.453 E2.57333
G1 X-38.668 Y59.551 E2.59371
G1 X-39.627 Y59.78 E2.63306
G1 X-40.721 Y59.69 E2.67687
G1 X-41.62 Y59.432 E2.7142
G1 X-42.253 Y58.99 E2.74501
G1 X-42.138 Y60.44 E2.80307
G1 X-41.749 Y65.781 E3.0168
G1 X-41.898 Y66.754 E3.05609
G1 X-42.417 Y67.739 E3.10053
G1 X-43.144 Y68.437 E3.14075
G1 X-43.897 Y68.827 E3.1746
G1 X-44.742 Y69.019 E3.20918
G1 X-45.802 Y68.906 E3.25173
G1 X-46.863 Y68.364 E3.29928
G1 X-47.109 Y68.17 E3.31179
G1 X-47.728 Y67.44 E3.34999
G1 X-48.069 Y66.662 E3.38389
G1 X-48.583 Y64.749 E3.46295
G1 X-49.642 Y60.963 E3.61986
G1 X-50.827 Y56.846 E3.79085
G1 X-53.89 Y46.317 E4.2285
G1 X-55.167 Y41.79 E4.41624
G1 X-56.367 Y37.355 E4.59961
G1 X-56.931 Y35.173 E4.68956
G1 X-57.421 Y33.209 E4.77035
G1 X-57.906 Y31.193 E4.85311
G1 X-58.363 Y29.211 E4.93429
G1 X-58.826 Y27.095 E5.02074
G1 X-59.233 Y25.18 E5.09888
G1 X-59.986 Y21.432 E5.25146
G1 X-60.68 Y17.745 E5.4012
G1 X-61.331 Y14.084 E5.54961
G1 X-62.904 Y4.902 E5.92143
G1 X-64.679 Y-5.286 E6.33418
G1 X-65.755 Y-11.592 E6.5895
G1 X-66.104 Y-13.735 E6.67616
G1 X-66.782 Y-18.028 E6.84963
G1 X-67.102 Y-20.195 E6.93705
G1 X-67.706 Y-24.514 E7.11111
G1 X-67.98 Y-26.669 E7.19781
G1 X-68.248 Y-28.887 E7.28698
G1 X-68.477 Y-31.001 E7.37185
G1 X-68.685 Y-33.103 E7.45616
G1 X-68.876 Y-35.184 E7.53956
G1 X-69.044 Y-37.333 E7.6256
G1 X-69.177 Y-39.331 E7.70552
G1 X-69.335 Y-42.211 E7.82064
G1 X-69.401 Y-44.046 E7.89392
G1 X-69.44 Y-45.852 E7.96602
G1 X-69.448 Y-47.525 E8.03279
G1 X-69.425 Y-49.144 E8.09742
G1 X-69.365 Y-50.62 E8.15638
G1 X-69.269 Y-52.034 E8.21294
G1 X-69.137 Y-53.249 E8.26172
G1 X-69.048 Y-53.871 E8.2868
G1 X-68.877 Y-54.81 E8.32489
G1 X-68.539 Y-56.016 E8.37488
G1 X-68.075 Y-57.05 E8.42012
G1 X-67.475 Y-57.957 E8.46352
G1 X-66.702 Y-58.807 E8.50938
G1 X-65.464 Y-59.591 E8.56786
G1 X-64.365 Y-59.882 E8.61324
G1 X-63.411 Y-59.924 E8.65135
G1 X-62.413 Y-59.737 E8.69188
G1 X-61.526 Y-59.357 E8.73039
G1 X-60.751 Y-58.868 E8.76697
G1 X-60.102 Y-58.31 E8.80113
G1 X-59.352 Y-57.488 E8.84554
G1 X-58.687 Y-56.543 E8.89166
G1 X-58.071 Y-55.509 E8.9397
G1 X-57.617 Y-54.603 E8.98014
G1 X-57.345 Y-54.02 E9.00582
G1 X-56.829 Y-52.822 E9.05788
G1 X-56.317 Y-51.521 E9.11368
G1 X-56.047 Y-50.791 E9.14475
G1 X-55.525 Y-49.282 E9.20848
G1 X-55.031 Y-47.741 E9.27306
G1 X-54.762 Y-46.871 E9.30941
G1 X-54.24 Y-45.083 E9.38375
G1 X-53.727 Y-43.198 E9.46172
G1 X-53.219 Y-41.22 E9.54323
G1 X-52.962 Y-40.179 E9.58603
G1 X-52.458 Y-38.049 E9.67339
G1 X-51.969 Y-35.838 E9.76377
G1 X-51.495 Y-33.553 E9.85691
G1 X-51.034 Y-31.187 E9.95311
G1 X-50.601 Y-28.766 E10.05127
G1 X-50.179 Y-26.291 E10.15148
G1 X-49.972 Y-25.011 E10.20323
G1 X-49.6 Y-22.493 E10.30482
G1 X-49.243 Y-19.932 E10.40803
G1 X-48.913 Y-17.333 E10.51259
G1 X-48.597 Y-14.698 E10.61851
G1 X-48.284 Y-11.833 E10.73354
G1 X-48.008 Y-9.122 E10.8423
G1 X-47.49 Y-3.645 E11.06188
G1 X-47.233 Y-.672 E11.18098
G1 X-46.626 Y6.823 E11.4811
G1 X-46.328 Y6.243 E11.50713
G1 X-45.587 Y5.186 E11.55865
G1 X-44.8 Y4.526 E11.59964
G1 X-43.978 Y4.194 E11.63503
G1 X-42.763 Y3.988 E11.68421
G1 X-41.826 Y4.066 E11.72174
G1 X-41.021 Y4.383 E11.75627
G1 X-40.461 Y4.744 E11.78286
G1 X-40.184 Y5.025 E11.79861
G1 X-39.798 Y5.157 E11.81489
G1 X-39.219 Y5.466 E11.84109
G1 X-38.637 Y6.011 E11.87291
G1 X-38.254 Y6.656 E11.90285
G1 X-37.967 Y7.076 E11.92315
G1 X-37.759 Y7.272 E11.93456
G1 X-37.362 Y7.779 E11.96026
G1 X-37.216 Y8.054 E11.97269
G1 X-36.834 Y8.509 E11.9964
G1 X-36.488 Y9.172 E12.02625
G1 X-36.013 Y9.682 E12.05406
G1 X-35.487 Y10.625 E12.09716
G1 X-35.346 Y10.981 E12.11244
G1 X-35.102 Y11.457 E12.13379
G1 X-34.806 Y11.852 E12.15349
G1 X-33.963 Y12.65 E12.19982
G1 X-33.292 Y13.801 E12.253
G0 F2400 X-33.67 Y13.948
G1 F1200 X-33.261 Y15.864 E12.33119
G1 X-33.005 Y17.222 E12.38635
G1 X-32.842 Y18.227 E12.42698
G1 X-32.617 Y19.868 E12.49309
G1 X-32.912 Y21.211 E12.54797
G1 X-33.01 Y21.719 E12.56862
G1 X-33.036 Y22.147 E12.58573
G1 X-32.99 Y22.884 E12.61521
G1 X-32.687 Y26.379 E12.75522
G1 X-32.806 Y27.155 E12.78656
G1 X-32.637 Y29.296 E12.87227
G1 X-32.482 Y31.662 E12.96691
G1 X-32.341 Y34.131 E13.06561
G1 X-32.216 Y36.69 E13.16787
G1 X-31.993 Y37.399 E13.19753
G1 X-31.358 Y49.768 E13.69186
G1 X-31.114 Y54.905 E13.89712
G1 X-31.411 Y55.962 E13.94094
G1 X-31.691 Y56.565 E13.96747
G1 X-32.37 Y57.407 E14.01065
G1 X-33.012 Y57.873 E14.04231
G1 X-33.996 Y58.332 E14.08564
G1 X-35.825 Y58.653 E14.15976
G1 X-36.909 Y58.827 E14.20358
G1 X-37.969 Y59.035 E14.24669
G1 X-38.223 Y59.056 E14.25686
G1 X-38.745 Y59.158 E14.27809
G1 X-39.657 Y59.376 E14.31552
G1 X-40.653 Y59.294 E14.3554
G1 X-41.444 Y59.067 E14.38825
G1 X-42.173 Y58.558 E14.42373
G1 X-42.284 Y58.44 E14.4302
G1 X-42.652 Y57.844 E14.45816
G1 X-42.772 Y57.514 E14.47217
G1 X-42.537 Y60.469 E14.59049
G1 X-42.151 Y65.767 E14.8025
G1 X-42.282 Y66.625 E14.83714
G1 X-42.742 Y67.497 E14.87649
G1 X-43.378 Y68.108 E14.91169
G1 X-44.035 Y68.448 E14.94122
G1 X-44.765 Y68.614 E14.9711
G1 X-45.687 Y68.516 E15.0081
G1 X-46.681 Y68.008 E15.05266
G1 X-46.804 Y67.911 E15.05891
G1 X-47.386 Y67.225 E15.09481
G1 X-47.683 Y66.558 E15.12396
G1 X-48.197 Y64.645 E15.20302
G1 X-49.257 Y60.855 E15.36009
G1 X-50.443 Y56.735 E15.5312
G1 X-53.505 Y46.208 E15.96877
G1 X-54.781 Y41.686 E16.1563
G1 X-55.98 Y37.255 E16.33951
G1 X-56.543 Y35.076 E16.42934
G1 X-57.032 Y33.115 E16.51
G1 X-57.516 Y31.103 E16.5926
G1 X-57.972 Y29.125 E16.67361
G1 X-58.435 Y27.012 E16.75995
G1 X-58.841 Y25.101 E16.83792
G1 X-59.593 Y21.358 E16.9903
G1 X-60.286 Y17.675 E17.13988
G1 X-60.937 Y14.016 E17.28821
G1 X-62.51 Y4.834 E17.66002
G1 X-64.285 Y-5.353 E18.07273
G1 X-65.36 Y-11.656 E18.32793
G1 X-65.709 Y-13.797 E18.41451
G1 X-66.386 Y-18.087 E18.58785
G1 X-66.706 Y-20.25 E18.67512
G1 X-67.309 Y-24.564 E18.84898
G1 X-67.583 Y-26.717 E18.9356
G1 X-67.85 Y-28.93 E19.02457
G1 X-68.079 Y-31.04 E19.10928
G1 X-68.287 Y-33.139 E19.19346
G1 X-68.477 Y-35.215 E19.27666
G1 X-68.645 Y-37.36 E19.36254
G1 X-68.778 Y-39.353 E19.44226
G1 X-68.935 Y-42.225 E19.55706
G1 X-69.001 Y-44.055 E19.63015
G1 X-69.04 Y-45.854 E19.70197
G1 X-69.048 Y-47.519 E19.76842
G1 X-69.025 Y-49.128 E19.83264
G1 X-68.966 Y-50.593 E19.89116
G1 X-68.871 Y-51.991 E19.94709
G1 X-68.741 Y-53.192 E19.9953
G1 X-68.654 Y-53.799 E20.01978
G1 X-68.483 Y-54.738 E20.05787
G1 X-68.173 Y-55.854 E20.1041
G1 X-67.741 Y-56.829 E20.14666
G1 X-67.141 Y-57.736 E20.19007
G1 X-66.443 Y-58.498 E20.23131
G1 X-65.303 Y-59.219 E20.28515
G1 X-64.304 Y-59.484 E20.3264
G1 X-63.437 Y-59.522 E20.36104
G1 X-62.529 Y-59.352 E20.39791
G1 X-61.738 Y-59.018 E20.43218
G1 X-61.011 Y-58.564 E20.46639
G1 X-60.397 Y-58.039 E20.49863
G1 X-59.679 Y-57.257 E20.541
G1 X-59.031 Y-56.338 E20.58588
G1 X-58.415 Y-55.304 E20.63392
G1 X-57.979 Y-54.434 E20.67276
G1 X-57.712 Y-53.862 E20.69795
G1 X-57.201 Y-52.676 E20.7495
G1 X-56.692 Y-51.382 E20.80499
G1 X-56.425 Y-50.66 E20.83572
G1 X-55.906 Y-49.16 E20.89907
G1 X-55.413 Y-47.623 E20.96349
G1 X-55.146 Y-46.759 E20.99958
G1 X-54.626 Y-44.978 E21.07364
G1 X-54.114 Y-43.098 E21.1514
G1 X-53.607 Y-41.124 E21.23275
G1 X-53.351 Y-40.087 E21.27538
G1 X-52.849 Y-37.963 E21.36249
G1 X-52.361 Y-35.757 E21.45266
G1 X-51.888 Y-33.477 E21.5456
G1 X-51.428 Y-31.116 E21.6416
G1 X-50.995 Y-28.699 E21.73961
G1 X-50.574 Y-26.227 E21.83969
G1 X-50.368 Y-24.952 E21.89124
G1 X-49.996 Y-22.438 E21.99267
G1 X-49.64 Y-19.882 E22.09567
G1 X-49.31 Y-17.285 E22.20016
G1 X-48.995 Y-14.655 E22.30588
G1 X-48.682 Y-11.792 E22.42083
G1 X-48.406 Y-9.084 E22.52947
G1 X-47.889 Y-3.611 E22.74888
G1 X-47.632 Y-.639 E22.86794
G1 X-47.172 Y4.977 E23.09284
G1 X-46.864 Y8.907 E23.25017
G1 X-46.785 Y8.173 E23.27964
G1 X-46.57 Y7.492 E23.30814
G1 X-46.183 Y6.866 E23.33752
G1 X-46 Y6.473 E23.35482
G1 X-45.287 Y5.456 E23.40439
G1 X-44.593 Y4.874 E23.44054
G1 X-43.866 Y4.58 E23.47184
G1 X-42.749 Y4.391 E23.51705
G1 X-41.917 Y4.46 E23.55038
G1 X-41.204 Y4.741 E23.58096
G1 X-40.678 Y5.08 E23.60594
G1 X-40.408 Y5.374 E23.62187
G1 X-39.986 Y5.51 E23.63957
G1 X-39.453 Y5.794 E23.66367
G1 X-38.952 Y6.263 E23.69106
G1 X-38.59 Y6.873 E23.71937
G1 X-38.27 Y7.341 E23.742
G1 X-38.071 Y7.522 E23.75274
G1 X-37.716 Y7.966 E23.77543
G1 X-37.55 Y8.28 E23.7896
G1 X-37.189 Y8.694 E23.81153
G1 X-36.819 Y9.403 E23.84344
G1 X-36.34 Y9.918 E23.87152
G1 X-35.859 Y10.773 E23.91067
G1 X-35.713 Y11.141 E23.92647
G1 X-35.442 Y11.67 E23.95019
G1 X-35.107 Y12.117 E23.97249
G1 X-34.281 Y12.9 E24.01791
G1 X-33.67 Y13.948 E24.06633
G1 F1500 E17.56633
G1 F600 Z1.24
G0 F2400 X-43.12 Y52.429 Z1.24
G1 F600 Z0.24
G1 F1500 E24.60681
G1 F1200 X-43.231 Y51.938 E24.6269
G1 X-42.94 Y55.41 E24.76596
G1 X-42.876 Y54.964 E24.78395
G1 X-42.926 Y54.429 E24.80539
G1 X-43.002 Y53.856 E24.82846
G1 X-43.045 Y53.186 E24.85526
G1 X-43.12 Y52.429 E24.88562
G0 F2400 X-42.724 Y52.366
G1 F1200 X-42.903 Y51.576 E24.91795
G1 X-43.007 Y50.128 E24.97589
G1 X-43.071 Y49.54 E24.9995
G1 X-43.219 Y48.861 E25.02723
G1 X-43.356 Y46.705 E25.11346
G1 X-43.406 Y46.106 E25.13745
G1 X-43.565 Y45.387 E25.16684
G1 X-43.67 Y43.83 E25.22912
G1 X-43.766 Y42.791 E25.27077
G1 X-43.926 Y41.991 E25.30333
G1 X-44.119 Y39.746 E25.39326
G1 X-44.281 Y38.528 E25.44231
G1 X-44.408 Y36.334 E25.53002
G1 X-44.512 Y35.255 E25.57328
G1 X-44.695 Y34.37 E25.60935
G1 X-44.92 Y30.972 E25.74527
G1 X-45 Y30.23 E25.77506
G1 X-45.198 Y29.345 E25.81125
G1 X-45.391 Y26.603 E25.92096
G1 X-45.585 Y24.089 E26.0216
G1 X-45.653 Y23.469 E26.0465
G1 X-45.924 Y22.306 E26.09416
G1 X-46.56 Y15.766 E26.35641
G1 X-46.514 Y14.836 E26.39358
G1 X-46.558 Y14.153 E26.42089
G1 X-46.651 Y13.112 E26.46261
G1 X-46.621 Y12.029 E26.50585
G1 X-46.805 Y10.477 E26.56823
G1 X-46.793 Y10.323 E26.57439
G1 X-46.501 Y9.273 E26.61789
G1 X-46.391 Y8.256 E26.65872
G1 X-46.203 Y7.659 E26.6837
G1 X-45.831 Y7.058 E26.71191
G1 X-45.673 Y6.703 E26.72742
G1 X-44.989 Y5.728 E26.77495
G1 X-44.386 Y5.222 E26.80637
G1 X-43.754 Y4.966 E26.83359
G1 X-42.735 Y4.794 E26.87483
G1 X-42.008 Y4.854 E26.90395
G1 X-41.387 Y5.099 E26.93059
G1 X-40.94 Y5.387 E26.95181
G1 X-40.657 Y5.695 E26.96851
G1 X-40.493 Y5.781 E26.9759
G1 X-40.174 Y5.863 E26.98905
G1 X-39.689 Y6.121 E27.01097
G1 X-39.266 Y6.518 E27.03413
G1 X-38.927 Y7.089 E27.06063
G1 X-38.572 Y7.608 E27.08573
G1 X-38.38 Y7.776 E27.09591
G1 X-38.07 Y8.153 E27.11539
G1 X-37.88 Y8.513 E27.13164
G1 X-37.544 Y8.879 E27.15147
G1 X-37.295 Y9.357 E27.17298
G1 X-37.046 Y9.749 E27.19151
G1 X-36.688 Y10.115 E27.21195
G1 X-36.231 Y10.921 E27.24893
G1 X-36.08 Y11.301 E27.26525
G1 X-35.782 Y11.883 E27.29134
G1 X-35.408 Y12.382 E27.31623
G1 X-34.599 Y13.149 E27.36073
G1 X-34.048 Y14.095 E27.40442
G1 X-33.654 Y15.938 E27.47964
G1 X-33.4 Y17.286 E27.53439
G1 X-33.238 Y18.281 E27.57463
G1 X-33.023 Y19.85 E27.63783
G1 X-33.303 Y21.125 E27.68993
G1 X-33.407 Y21.665 E27.71188
G1 X-33.437 Y22.147 E27.73116
G1 X-33.389 Y22.919 E27.76203
G1 X-33.09 Y26.369 E27.90024
G1 X-33.209 Y27.143 E27.9315
G1 X-33.036 Y29.322 E28.01874
G1 X-32.881 Y31.685 E28.11325
G1 X-32.741 Y34.15 E28.2118
G1 X-32.614 Y36.757 E28.31597
G1 X-32.389 Y37.47 E28.34581
G1 X-31.758 Y49.787 E28.83805
G1 X-31.517 Y54.861 E29.0408
G1 X-31.796 Y55.854 E29.08196
G1 X-32.032 Y56.352 E29.10396
G1 X-32.646 Y57.113 E29.14299
G1 X-33.219 Y57.529 E29.17125
G1 X-34.115 Y57.947 E29.21071
G1 X-35.888 Y58.258 E29.28255
G1 X-36.986 Y58.434 E29.32694
G1 X-38.046 Y58.642 E29.37005
G1 X-38.28 Y58.659 E29.37941
G1 X-38.821 Y58.765 E29.40142
G1 X-39.687 Y58.972 E29.43695
G1 X-40.585 Y58.898 E29.47292
G1 X-41.268 Y58.702 E29.50128
G1 X-41.944 Y58.23 E29.53418
G1 X-42.289 Y57.671 E29.5604
G1 X-42.529 Y57.013 E29.58836
G1 X-42.594 Y55.812 E29.63636
G1 X-42.473 Y54.976 E29.67008
G1 X-42.529 Y54.376 E29.69413
G1 X-42.605 Y53.803 E29.7172
G1 X-42.646 Y53.161 E29.74287
G1 X-42.724 Y52.366 E29.77475
G1 F1500 E23.27475
G1 F600 Z1.24
G0 F2400 X-43.386 Y54.854 Z1.24
G1 F600 Z0.24
G1 F1500 E30.31523
G1 F1200 X-42.936 Y60.498 E30.54121
G1 X-42.553 Y65.754 E30.75155
G1 X-42.666 Y66.496 E30.7815
G1 X-43.067 Y67.255 E30.81576
G1 X-43.612 Y67.779 E30.84594
G1 X-44.173 Y68.069 E30.87114
G1 X-44.788 Y68.209 E30.89632
G1 X-45.572 Y68.126 E30.92778
G1 X-46.499 Y67.652 E30.96934
G1 X-47.045 Y67.009 E31.00301
G1 X-47.297 Y66.454 E31.02733
G1 X-47.811 Y64.541 E31.10639
G1 X-48.872 Y60.747 E31.26363
G1 X-50.059 Y56.624 E31.43487
G1 X-53.12 Y46.099 E31.87235
G1 X-54.395 Y41.581 E32.05972
G1 X-55.593 Y37.155 E32.24273
G1 X-56.155 Y34.979 E32.33243
G1 X-56.643 Y33.021 E32.41296
G1 X-57.126 Y31.013 E32.49539
G1 X-57.581 Y29.039 E32.57625
G1 X-58.044 Y26.929 E32.66246
G1 X-58.449 Y25.022 E32.74027
G1 X-59.2 Y21.284 E32.89245
G1 X-59.892 Y17.605 E33.04186
G1 X-60.543 Y13.948 E33.19011
G1 X-62.116 Y4.766 E33.56192
G1 X-63.891 Y-5.42 E33.9746
G1 X-64.965 Y-11.72 E34.22967
G1 X-65.314 Y-13.859 E34.31617
G1 X-65.99 Y-18.146 E34.48939
G1 X-66.31 Y-20.305 E34.5765
G1 X-66.912 Y-24.615 E34.75019
G1 X-67.186 Y-26.765 E34.8367
G1 X-67.452 Y-28.973 E34.92546
G1 X-67.681 Y-31.08 E35.01005
G1 X-67.889 Y-33.175 E35.09408
G1 X-68.078 Y-35.246 E35.17708
G1 X-68.246 Y-37.387 E35.26279
G1 X-68.379 Y-39.375 E35.34232
G1 X-68.535 Y-42.239 E35.45679
G1 X-68.601 Y-44.064 E35.52968
G1 X-68.64 Y-45.856 E35.60122
G1 X-68.648 Y-47.513 E35.66736
G1 X-68.625 Y-49.112 E35.73118
G1 X-68.567 Y-50.566 E35.78926
G1 X-68.473 Y-51.948 E35.84455
G1 X-68.345 Y-53.135 E35.8922
G1 X-68.26 Y-53.728 E35.91611
G1 X-68.097 Y-54.632 E35.95277
G1 X-67.806 Y-55.694 E35.99672
G1 X-67.407 Y-56.608 E36.03652
G1 X-66.807 Y-57.515 E36.07993
G1 X-66.185 Y-58.188 E36.1165
G1 X-65.142 Y-58.848 E36.16577
G1 X-64.244 Y-59.086 E36.20285
G1 X-63.463 Y-59.12 E36.23405
G1 X-62.644 Y-58.967 E36.2673
G1 X-61.948 Y-58.678 E36.29738
G1 X-61.27 Y-58.259 E36.32919
G1 X-60.692 Y-57.768 E36.35946
G1 X-59.974 Y-56.986 E36.40183
G1 X-59.375 Y-56.133 E36.44343
G1 X-58.759 Y-55.099 E36.49147
G1 X-58.341 Y-54.265 E36.5287
G1 X-58.079 Y-53.704 E36.55341
G1 X-57.573 Y-52.53 E36.60444
G1 X-57.067 Y-51.243 E36.65963
