;FLAVOR:Marlin
;TIME:4095
;Filament used: 3.69497m
;Layer height: 0.15
;MINX:-27.07
;MINY:-22.494
;MINZ:0.3
;MAXX:37.069
;MAXY:22.5
;MAXZ:20.95
;Generated with Cura_SteamEngine 4.13.1
M140 S50
M105
M190 S50
M104 S210
M105
M109 S210
M82 ;absolute extrusion mode
;FLAVOR:Marlin
M82 ;absolute extrusion mode
G21
G90
M82
M107 T0
G28
G92 E0
G0 E3 F200
G92 E0 ; reset extrusion distance
M106 S255 ; Enable cooling fan full speed
G1 X-98 Y0 Z0.4 F3000 ; move to arc start
G3 X0 Y-98 I98 Z0.4 E40 F400 ; lay arc stripe 90deg
G92 E0 ; reset extrusion distance
G4 P500 ; wait for 0.5 sec
G0 Z10 E-1 ; Lift 15mm and retract 1mm filament
G4 P2000 ; wait for 5 sec
G0 Z15
M107 ; Disable cooling fan
G1 X0 Y-85 Z4 E0 F3000 ; get off the bed
G92 E0
G92 E0
G1 F1500 E-6.5
;LAYER_COUNT:133
;LAYER:0
M106 S25.5
G1 F600 Z1.3
G0 F3600 X2.731 Y-11.817 Z1.3
;TYPE:SKIRT
G1 F600 Z0.3
G1 F1500 E0.3326
G1 F2400 X3.437 Y-11.866 E0.36791
G1 X3.921 Y-11.796 E0.39231
G1 X4.486 Y-11.605 E0.42206
G1 X5.117 Y-11.319 E0.45663
G1 X5.599 Y-11.54 E0.48308
G1 X6.059 Y-11.707 E0.50749
G1 X6.54 Y-11.797 E0.53191
G1 X7.03 Y-11.808 E0.55636
G1 X7.334 Y-11.764 E0.57169
G1 X7.499 Y-12.082 E0.58956
G1 X11.646 Y-18.906 E0.98795
G1 X11.767 Y-19.089 E0.99889
G1 X12.124 Y-19.59 E1.02958
G1 X12.386 Y-19.909 E1.05018
G1 X12.83 Y-20.379 E1.08243
G1 X13.141 Y-20.665 E1.10351
G1 X13.629 Y-21.054 E1.13465
G1 X13.974 Y-21.291 E1.15553
G1 X14.499 Y-21.601 E1.18595
G1 X14.864 Y-21.785 E1.20634
G1 X15.446 Y-22.029 E1.23783
G1 X15.848 Y-22.165 E1.259
G1 X16.468 Y-22.327 E1.29097
G1 X16.891 Y-22.405 E1.31243
G1 X17.522 Y-22.476 E1.34411
G1 X17.932 Y-22.494 E1.36458
G1 X18.534 Y-22.479 E1.39463
G1 X18.944 Y-22.441 E1.41517
G1 X19.579 Y-22.337 E1.44727
G1 X19.988 Y-22.24 E1.46824
G1 X20.574 Y-22.057 E1.49887
G1 X20.956 Y-21.908 E1.51933
G1 X21.522 Y-21.642 E1.55053
G1 X21.892 Y-21.435 E1.57168
G1 X22.43 Y-21.082 E1.60378
G1 X22.774 Y-20.819 E1.62538
G1 X23.257 Y-20.391 E1.65758
G1 X23.555 Y-20.086 E1.67886
G1 X23.962 Y-19.606 E1.71025
G1 X24.21 Y-19.269 E1.73113
G1 X24.545 Y-18.739 E1.76241
G1 X24.743 Y-18.372 E1.78321
G1 X24.998 Y-17.808 E1.81409
G1 X25.141 Y-17.421 E1.83468
G1 X25.321 Y-16.811 E1.86641
G1 X25.413 Y-16.393 E1.88776
G1 X25.504 Y-15.766 E1.91937
G1 X25.535 Y-15.359 E1.93973
G1 X25.54 Y-14.744 E1.97042
G1 X25.514 Y-14.323 E1.99146
G1 X25.43 Y-13.694 E2.02312
G1 X25.348 Y-13.293 E2.04354
G1 X25.185 Y-12.702 E2.07413
G1 X25.038 Y-12.29 E2.09595
G1 X24.778 Y-11.7 E2.12812
G1 X24.587 Y-11.337 E2.14858
G1 X24.255 Y-10.798 E2.18016
G1 X24.012 Y-10.459 E2.20097
G1 X23.643 Y-10.013 E2.22985
G1 X23.291 Y-9.642 E2.25537
G1 X22.525 Y-8.95 E2.30687
G1 X22.369 Y-8.767 E2.31886
G1 X22.66 Y-8.772 E2.33338
G1 X23.144 Y-8.702 E2.35778
G1 X23.611 Y-8.553 E2.38224
G1 X24.047 Y-8.331 E2.40665
G1 X24.617 Y-7.891 E2.44257
G1 X25.254 Y-7.474 E2.48056
G1 X25.64 Y-7.173 E2.50498
G1 X25.973 Y-6.814 E2.52941
G1 X26.254 Y-6.395 E2.55458
G1 X27.025 Y-6.395 E2.59304
G1 X27.513 Y-6.355 E2.61747
G1 X27.988 Y-6.236 E2.6419
G1 X28.437 Y-6.042 E2.6663
G1 X28.862 Y-5.765 E2.69161
G1 X29.644 Y-5.938 E2.73157
G1 X30.129 Y-6.005 E2.756
G1 X30.619 Y-5.991 E2.78045
G1 X31.099 Y-5.898 E2.80484
G1 X31.558 Y-5.728 E2.82926
G1 X31.844 Y-5.575 E2.84545
G1 X32.242 Y-5.29 E2.86987
G1 X32.767 Y-4.762 E2.90702
G1 X33.442 Y-4.303 E2.94774
G1 X33.823 Y-3.995 E2.97218
G1 X34.149 Y-3.63 E2.9966
G1 X34.411 Y-3.216 E3.02104
G1 X34.602 Y-2.766 E3.04543
G1 X34.695 Y-2.351 E3.06665
G1 X35.181 Y-1.378 E3.12091
G1 X35.48 Y-.942 E3.14729
G1 X35.819 Y-.288 E3.18404
G1 X36.279 Y0.952 E3.25002
G1 X36.397 Y1.356 E3.27102
G1 X36.74 Y2.93 E3.35139
G1 X36.764 Y2.981 E3.3542
G1 X36.984 Y3.637 E3.38872
G1 X37.004 Y3.732 E3.39356
G1 X37.068 Y4.35 E3.42456
G1 X37.069 Y11.05 E3.75882
G1 X37.001 Y11.685 E3.79069
G1 X36.938 Y11.976 E3.80554
G1 X36.728 Y12.602 E3.83848
G1 X36.538 Y13.012 E3.86103
G1 X36.402 Y13.626 E3.8924
G1 X36.152 Y14.328 E3.92958
G1 X35.389 Y15.842 E4.01416
G1 X35.094 Y17.204 E4.08369
G1 X34.847 Y17.907 E4.12086
G1 X34.485 Y18.634 E4.16138
G1 X34.232 Y19.053 E4.1858
G1 X33.824 Y19.506 E4.21622
G1 X33.224 Y20.247 E4.26378
G1 X32.886 Y20.601 E4.2882
G1 X32.495 Y20.896 E4.31264
G1 X32.062 Y21.123 E4.33703
G1 X31.409 Y21.315 E4.37099
G1 X31.209 Y21.35 E4.38112
G1 X30.692 Y21.395 E4.40701
G1 X30.125 Y21.355 E4.43537
G1 X29.65 Y21.236 E4.4598
G1 X29.201 Y21.042 E4.4842
G1 X28.86 Y20.823 E4.50442
G1 X28.564 Y21 E4.52162
G1 X28.109 Y21.18 E4.54604
G1 X27.631 Y21.284 E4.57044
G1 X27.236 Y21.31 E4.59019
G1 X26.05 Y21.31 E4.64936
G1 X25.535 Y21.769 E4.68378
G1 X25.115 Y22.021 E4.70821
G1 X24.66 Y22.201 E4.73263
G1 X24.181 Y22.304 E4.75707
G1 X23.788 Y22.33 E4.77672
G1 X22.471 Y22.33 E4.84242
G1 X21.983 Y22.29 E4.86685
G1 X21.508 Y22.171 E4.89128
G1 X20.944 Y21.903 E4.92244
G1 X20.482 Y22.19 E4.94957
G1 X20.027 Y22.37 E4.97398
G1 X19.549 Y22.474 E4.99839
G1 X19.154 Y22.5 E5.01814
G1 X-9.155 Y22.5 E6.43048
G1 X-9.643 Y22.46 E6.45491
G1 X-10.118 Y22.341 E6.47934
G1 X-10.567 Y22.147 E6.50374
G1 X-10.809 Y21.991 E6.5181
G1 X-11.012 Y22.126 E6.53027
G1 X-11.458 Y22.327 E6.55467
G1 X-11.931 Y22.453 E6.57909
G1 X-12.463 Y22.5 E6.60574
G1 X-13.382 Y22.46 E6.65163
G1 X-13.857 Y22.341 E6.67606
G1 X-14.306 Y22.147 E6.70046
G1 X-14.718 Y21.882 E6.7249
G1 X-15.071 Y21.565 E6.74857
G1 X-16.369 Y21.565 E6.81333
G1 X-16.857 Y21.525 E6.83776
G1 X-17.332 Y21.406 E6.86219
G1 X-17.781 Y21.212 E6.88659
G1 X-18.193 Y20.947 E6.91103
G1 X-18.631 Y20.545 E6.94069
G1 X-19.391 Y20.545 E6.97861
G1 X-19.879 Y20.505 E7.00304
G1 X-20.794 Y20.236 E7.05062
G1 X-21.481 Y19.898 E7.08882
G1 X-22.442 Y19.261 E7.14634
G1 X-22.984 Y18.8 E7.18183
G1 X-23.637 Y18.096 E7.22974
G1 X-23.94 Y17.711 E7.25418
G1 X-24.13 Y17.373 E7.27353
G1 X-24.676 Y16.652 E7.31865
G1 X-25.006 Y16.101 E7.35069
G1 X-25.434 Y15.176 E7.40154
G1 X-26.458 Y13.444 E7.50192
G1 X-26.671 Y13.004 E7.52631
G1 X-26.808 Y12.55 E7.54997
G1 X-27.002 Y11.65 E7.5959
G1 X-27.069 Y11.019 E7.62756
G1 X-27.07 Y6.345 E7.86075
G1 X-27.004 Y5.717 E7.89225
G1 X-26.985 Y5.628 E7.89679
G1 X-26.985 Y4.907 E7.93276
G1 X-26.919 Y4.28 E7.96422
G1 X-26.831 Y3.628 E7.99704
G1 X-26.346 Y1.408 E8.11041
G1 X-26.232 Y1.016 E8.13078
G1 X-25.773 Y-.237 E8.19735
G1 X-25.562 Y-.692 E8.22237
G1 X-25.22 Y-1.179 E8.25206
G1 X-24.083 Y-2.498 E8.33894
G1 X-23.798 Y-3.022 E8.3687
G1 X-23.386 Y-4.094 E8.426
G1 X-23.174 Y-4.535 E8.45041
G1 X-22.893 Y-4.936 E8.47484
G1 X-22.551 Y-5.285 E8.49922
G1 X-22.156 Y-5.575 E8.52366
G1 X-21.719 Y-5.796 E8.54809
G1 X-21.252 Y-5.943 E8.57252
G1 X-20.768 Y-6.012 E8.59691
G1 X-20.278 Y-6.002 E8.62136
G1 X-19.948 Y-5.949 E8.63804
G1 X-18.797 Y-5.698 E8.69681
G1 X-18.442 Y-6.001 E8.7201
G1 X-18.022 Y-6.254 E8.74456
G1 X-17.567 Y-6.434 E8.76897
G1 X-17.089 Y-6.538 E8.79337
G1 X-16.691 Y-6.565 E8.81328
G1 X-15.992 Y-6.566 E8.84815
G1 X-15.67 Y-7.021 E8.87596
G1 X-15.322 Y-7.365 E8.90037
G1 X-14.757 Y-7.741 E8.93423
G1 X-13.997 Y-8.279 E8.98069
G1 X-13.557 Y-8.492 E9.00507
G1 X-13.088 Y-8.631 E9.02948
G1 X-12.602 Y-8.692 E9.05392
G1 X-12.273 Y-8.679 E9.07034
G1 X-12.345 Y-8.817 E9.07811
G1 X-12.503 Y-9.005 E9.09036
G1 X-12.893 Y-9.365 E9.11684
G1 X-13.276 Y-9.725 E9.14306
G1 X-13.618 Y-10.095 E9.1682
G1 X-13.984 Y-10.551 E9.19737
G1 X-14.22 Y-10.891 E9.21802
G1 X-14.537 Y-11.422 E9.24887
G1 X-14.724 Y-11.791 E9.26951
G1 X-14.974 Y-12.382 E9.30153
G1 X-15.111 Y-12.785 E9.32276
G1 X-15.269 Y-13.383 E9.35362
G1 X-15.348 Y-13.792 E9.3744
G1 X-15.424 Y-14.427 E9.40631
G1 X-15.444 Y-14.843 E9.42709
G1 X-15.432 Y-15.449 E9.45733
G1 X-15.398 Y-15.849 E9.47736
G1 X-15.303 Y-16.462 E9.5083
G1 X-15.207 Y-16.879 E9.52965
G1 X-15.021 Y-17.488 E9.56142
G1 X-14.871 Y-17.88 E9.58236
G1 X-14.607 Y-18.446 E9.61352
G1 X-14.4 Y-18.818 E9.63476
G1 X-14.046 Y-19.36 E9.66705
G1 X-13.795 Y-19.692 E9.68782
G1 X-13.386 Y-20.161 E9.71887
G1 X-13.09 Y-20.456 E9.73971
G1 X-12.625 Y-20.859 E9.77041
G1 X-12.295 Y-21.108 E9.79104
G1 X-11.761 Y-21.455 E9.82281
G1 X-11.384 Y-21.663 E9.84429
G1 X-10.808 Y-21.929 E9.87594
G1 X-10.419 Y-22.076 E9.89669
G1 X-9.831 Y-22.254 E9.92734
G1 X-9.433 Y-22.346 E9.94772
G1 X-8.816 Y-22.444 E9.97889
G1 X-8.409 Y-22.48 E9.99927
G1 X-7.8 Y-22.493 E10.02966
G1 X-7.382 Y-22.473 E10.05054
G1 X-6.694 Y-22.391 E10.08511
G1 X-6.316 Y-22.315 E10.10435
G1 X-5.713 Y-22.154 E10.13548
G1 X-5.312 Y-22.016 E10.15664
G1 X-4.741 Y-21.773 E10.1876
G1 X-4.378 Y-21.589 E10.2079
G1 X-3.847 Y-21.272 E10.23876
G1 X-3.503 Y-21.032 E10.25968
G1 X-3.014 Y-20.638 E10.29101
G1 X-2.709 Y-20.356 E10.31174
G1 X-2.276 Y-19.895 E10.34329
G1 X-2.017 Y-19.578 E10.36371
G1 X-1.659 Y-19.074 E10.39456
G1 X-1.541 Y-18.895 E10.40525
G1 X2.599 Y-12.082 E10.80299
G1 X2.731 Y-11.817 E10.81776
G0 F3600 X2.817 Y-11.436
G1 F2400 X3.271 Y-11.472 E10.84048
G1 X3.724 Y-11.428 E10.86319
G1 X4.321 Y-11.241 E10.8944
G1 X5.118 Y-10.88 E10.93805
G1 X5.766 Y-11.177 E10.97361
G1 X6.195 Y-11.329 E10.99632
G1 X6.644 Y-11.405 E11.01904
G1 X7.1 Y-11.401 E11.04179
G1 X7.588 Y-11.302 E11.06663
G1 X7.841 Y-11.874 E11.09784
G1 X11.988 Y-18.698 E11.49622
G1 X12.093 Y-18.857 E11.50573
G1 X12.45 Y-19.358 E11.53642
G1 X12.677 Y-19.634 E11.55425
G1 X13.121 Y-20.104 E11.58651
G1 X13.39 Y-20.352 E11.60476
G1 X13.878 Y-20.741 E11.63589
G1 X14.177 Y-20.947 E11.65401
G1 X14.702 Y-21.257 E11.68443
G1 X15.019 Y-21.416 E11.70212
G1 X15.601 Y-21.66 E11.73361
G1 X15.949 Y-21.778 E11.75194
G1 X16.569 Y-21.94 E11.78391
G1 X16.935 Y-22.008 E11.80248
G1 X17.566 Y-22.079 E11.83416
G1 X17.922 Y-22.094 E11.85194
G1 X18.524 Y-22.079 E11.88198
G1 X18.879 Y-22.046 E11.89977
G1 X19.514 Y-21.942 E11.93187
G1 X19.869 Y-21.858 E11.95007
G1 X20.455 Y-21.675 E11.9807
G1 X20.786 Y-21.546 E11.99842
G1 X21.352 Y-21.28 E12.02962
G1 X21.672 Y-21.101 E12.04791
G1 X22.21 Y-20.748 E12.08002
G1 X22.508 Y-20.52 E12.09874
G1 X22.991 Y-20.092 E12.13093
G1 X23.25 Y-19.827 E12.14942
G1 X23.657 Y-19.347 E12.18082
G1 X23.872 Y-19.055 E12.19891
G1 X24.207 Y-18.525 E12.23019
G1 X24.378 Y-18.207 E12.2482
G1 X24.633 Y-17.643 E12.27908
G1 X24.758 Y-17.308 E12.29692
G1 X24.938 Y-16.698 E12.32865
G1 X25.017 Y-16.335 E12.34719
G1 X25.108 Y-15.708 E12.3788
G1 X25.135 Y-15.356 E12.39641
G1 X25.14 Y-14.741 E12.42709
G1 X25.117 Y-14.376 E12.44534
G1 X25.033 Y-13.747 E12.477
G1 X24.962 Y-13.4 E12.49467
G1 X24.799 Y-12.809 E12.52525
G1 X24.672 Y-12.452 E12.54416
G1 X24.412 Y-11.862 E12.57632
G1 X24.247 Y-11.546 E12.59411
G1 X23.915 Y-11.007 E12.62569
G1 X23.704 Y-10.714 E12.64371
G1 X23.335 Y-10.268 E12.67259
G1 X23.023 Y-9.939 E12.69521
G1 X22.234 Y-9.226 E12.74826
G1 X21.872 Y-8.743 E12.77838
G1 X21.872 Y-8.298 E12.80058
G1 X22.494 Y-8.378 E12.83186
G1 X22.948 Y-8.334 E12.85462
G1 X23.386 Y-8.212 E12.8773
G1 X23.797 Y-8.015 E12.90004
G1 X24.378 Y-7.569 E12.93658
G1 X25.035 Y-7.139 E12.97576
G1 X25.393 Y-6.857 E12.99849
G1 X25.817 Y-6.34 E13.03185
G1 X26.032 Y-5.995 E13.05213
G1 X27.025 Y-5.995 E13.10167
G1 X27.479 Y-5.955 E13.12441
G1 X27.919 Y-5.837 E13.14714
G1 X28.331 Y-5.643 E13.16986
G1 X28.738 Y-5.329 E13.19551
G1 X29.731 Y-5.548 E13.24624
G1 X30.182 Y-5.607 E13.26893
G1 X30.638 Y-5.586 E13.2917
G1 X31.082 Y-5.486 E13.31441
G1 X31.639 Y-5.232 E13.34495
G1 X32.186 Y-4.794 E13.37991
G1 X32.509 Y-4.454 E13.40331
G1 X33.217 Y-3.972 E13.44604
G1 X33.57 Y-3.684 E13.46877
G1 X33.867 Y-3.338 E13.49152
G1 X34.099 Y-2.946 E13.51424
G1 X34.259 Y-2.519 E13.53699
G1 X34.322 Y-2.201 E13.55317
G1 X34.835 Y-1.176 E13.61035
G1 X35.15 Y-.716 E13.63817
G1 X35.444 Y-.149 E13.67003
G1 X35.904 Y1.091 E13.73601
G1 X36.006 Y1.441 E13.7542
G1 X36.359 Y3.058 E13.83677
G1 X36.402 Y3.151 E13.84189
G1 X36.592 Y3.719 E13.87177
G1 X36.612 Y3.814 E13.87661
G1 X36.668 Y4.35 E13.9035
G1 X36.669 Y11.05 E14.23776
G1 X36.61 Y11.6 E14.26536
G1 X36.547 Y11.891 E14.28021
G1 X36.365 Y12.434 E14.30878
G1 X36.156 Y12.886 E14.33363
G1 X36.011 Y13.539 E14.367
G1 X35.794 Y14.148 E14.39925
G1 X35.009 Y15.705 E14.48625
G1 X34.703 Y17.119 E14.55843
G1 X34.489 Y17.729 E14.59068
G1 X34.127 Y18.456 E14.63119
G1 X33.889 Y18.844 E14.6539
G1 X33.605 Y19.14 E14.67437
G1 X32.913 Y19.995 E14.72925
G1 X32.597 Y20.323 E14.75197
G1 X32.228 Y20.591 E14.77472
G1 X31.818 Y20.789 E14.79744
G1 X31.14 Y20.956 E14.83227
G1 X30.613 Y20.995 E14.85864
G1 X30.159 Y20.955 E14.88137
G1 X29.719 Y20.837 E14.9041
G1 X29.307 Y20.643 E14.92682
G1 X28.872 Y20.318 E14.95391
G1 X28.33 Y20.668 E14.9861
G1 X27.902 Y20.823 E15.00881
G1 X27.236 Y20.91 E15.04232
G1 X25.885 Y20.91 E15.10972
G1 X25.276 Y21.462 E15.15073
G1 X24.881 Y21.689 E15.17346
G1 X24.453 Y21.844 E15.19617
G1 X23.788 Y21.93 E15.22962
G1 X22.471 Y21.93 E15.29533
G1 X22.017 Y21.89 E15.31806
G1 X21.577 Y21.772 E15.34079
G1 X21.165 Y21.578 E15.36351
G1 X20.916 Y21.402 E15.37872
G1 X20.643 Y21.631 E15.3965
G1 X20.248 Y21.858 E15.41923
G1 X19.82 Y22.013 E15.44194
G1 X19.154 Y22.1 E15.47545
G1 X-9.155 Y22.1 E16.88779
G1 X-9.609 Y22.06 E16.91053
G1 X-10.049 Y21.942 E16.93326
G1 X-10.461 Y21.748 E16.95598
G1 X-10.8 Y21.486 E16.97735
G1 X-11.005 Y21.653 E16.99054
G1 X-11.403 Y21.874 E17.01325
G1 X-11.834 Y22.023 E17.03601
G1 X-12.463 Y22.1 E17.06762
G1 X-13.348 Y22.06 E17.11182
G1 X-13.788 Y21.942 E17.13455
G1 X-14.2 Y21.748 E17.15727
G1 X-14.731 Y21.339 E17.19071
G1 X-14.905 Y21.165 E17.20298
G1 X-16.369 Y21.165 E17.27602
G1 X-16.823 Y21.125 E17.29876
G1 X-17.263 Y21.007 E17.32149
G1 X-17.675 Y20.813 E17.34421
G1 X-18.207 Y20.404 E17.37768
G1 X-18.466 Y20.145 E17.39596
G1 X-19.391 Y20.145 E17.44211
G1 X-19.845 Y20.105 E17.46484
G1 X-20.665 Y19.857 E17.50758
G1 X-21.26 Y19.564 E17.54067
G1 X-22.221 Y18.927 E17.59819
G1 X-22.691 Y18.528 E17.62895
G1 X-23.344 Y17.824 E17.67686
G1 X-23.624 Y17.464 E17.69961
G1 X-23.796 Y17.152 E17.71739
G1 X-24.357 Y16.411 E17.76375
G1 X-24.643 Y15.933 E17.79154
G1 X-25.081 Y14.987 E17.84355
G1 X-26.113 Y13.241 E17.94474
G1 X-26.31 Y12.83 E17.96748
G1 X-26.417 Y12.466 E17.98641
G1 X-26.611 Y11.566 E18.03234
G1 X-26.669 Y11.019 E18.05978
G1 X-26.67 Y6.345 E18.29297
G1 X-26.613 Y5.801 E18.32026
G1 X-26.585 Y5.67 E18.32694
G1 X-26.585 Y4.907 E18.36501
G1 X-26.528 Y4.364 E18.39225
G1 X-26.44 Y3.713 E18.42502
G1 X-25.955 Y1.493 E18.53839
G1 X-25.856 Y1.154 E18.55601
G1 X-25.397 Y-0.099 E18.62258
G1 X-25.213 Y-.496 E18.64441
G1 X-24.917 Y-.918 E18.67013
G1 X-23.752 Y-2.27 E18.75917
G1 X-23.435 Y-2.852 E18.79223
G1 X-23.013 Y-3.95 E18.85092
G1 X-22.813 Y-4.36 E18.87368
G1 X-22.545 Y-4.728 E18.89639
G1 X-22.216 Y-5.044 E18.91915
G1 X-21.837 Y-5.297 E18.94188
G1 X-21.42 Y-5.48 E18.9646
G1 X-20.978 Y-5.588 E18.9873
G1 X-20.523 Y-5.617 E19.01005
G1 X-20.033 Y-5.558 E19.03467
G1 X-18.671 Y-5.261 E19.10422
G1 X-18.182 Y-5.695 E19.13684
G1 X-17.788 Y-5.922 E19.15952
G1 X-17.359 Y-6.078 E19.1823
G1 X-16.691 Y-6.165 E19.21591
G1 X-15.925 Y-6.165 E19.25412
G1 X-15.725 Y-6.236 E19.26471
G1 X-15.346 Y-6.784 E19.29795
G1 X-15.016 Y-7.099 E19.32071
G1 X-14.575 Y-7.384 E19.34691
G1 X-14.141 Y-7.69 E19.3734
G1 X-13.767 Y-7.95 E19.39613
G1 X-13.353 Y-8.141 E19.41887
G1 X-12.913 Y-8.258 E19.44159
G1 X-12.459 Y-8.295 E19.46431
G1 X-11.873 Y-8.217 E19.49381
G1 X-11.873 Y-8.821 E19.52394
G1 X-12.21 Y-9.279 E19.55231
G1 X-12.619 Y-9.657 E19.58009
G1 X-13.002 Y-10.017 E19.60632
G1 X-13.306 Y-10.346 E19.62867
G1 X-13.672 Y-10.802 E19.65784
G1 X-13.876 Y-11.096 E19.67569
G1 X-14.193 Y-11.627 E19.70654
G1 X-14.356 Y-11.947 E19.72446
G1 X-14.606 Y-12.538 E19.75647
G1 X-14.725 Y-12.887 E19.77487
G1 X-14.883 Y-13.485 E19.80573
G1 X-14.951 Y-13.84 E19.82376
G1 X-15.027 Y-14.475 E19.85567
G1 X-15.044 Y-14.835 E19.87365
G1 X-15.032 Y-15.441 E19.90389
G1 X-15.002 Y-15.788 E19.92126
