;FLAVOR:Marlin
;TIME:11743
;Filament used: 12.2689m
;Layer height: 0.2
;MINX:-48.921
;MINY:-75.843
;MINZ:0.3
;MAXX:54.8
;MAXY:-25.681
;MAXZ:52.7
;TARGET_MACHINE.NAME:Unknown
;Generated with Cura_SteamEngine 5.9.0
M140 S50
M105
M190 S50
M104 S225
M105
M109 S225
M82 ;absolute extrusion mode
;FLAVOR:Marlin
M82 ;absolute extrusion mode
G21
G90
M82
M107 T0
G28
G92 E0
G0 E3 F200
G92 E0 ; reset extrusion distance
M106 S255 ; Enable cooling fan full speed
G1 X-98 Y0 Z0.4 F3000 ; move to arc start
G3 X0 Y-98 I98 Z0.4 E40 F400 ; lay arc stripe 90deg
G92 E0 ; reset extrusion distance
G4 P500 ; wait for 0.5 sec
G0 Z10 E-1 ; Lift 15mm and retract 1mm filament
G4 P2000 ; wait for 5 sec
G0 Z15
M107 ; Disable cooling fan
G1 X0 Y-85 Z4 E0 F3000 ; get off the bed
G92 E0
G92 E0
G1 F1500 E-1
;LAYER_COUNT:258
;LAYER:0
M106 S102
G1 F600 Z1.3
G0 F1500 X40.125 Y-42.938 Z1.3
;TYPE:SKIRT
G1 F600 Z0.3
G1 F3600 E0.75698
G1 F1200 X39.386 Y-42.786 E0.79125
G1 X37.629 Y-42.825 E0.87107
G1 X36.766 Y-42.811 E0.91027
G1 X26.206 Y-43.286 E1.39038
G1 X25.622 Y-43.374 E1.4172
G1 X24.145 Y-43.439 E1.48435
G1 X23.293 Y-43.611 E1.52383
G1 X22.163 Y-44.132 E1.58034
G1 X21.519 Y-44.748 E1.62082
G1 X21.035 Y-45.574 E1.6643
G1 X20.884 Y-46.296 E1.6978
G1 X20.898 Y-47.068 E1.73287
G1 X21.124 Y-47.868 E1.77063
G1 X21.426 Y-48.467 E1.8011
G1 X21.574 Y-49.016 E1.82692
G1 X21.867 Y-49.549 E1.85455
G1 X22.02 Y-49.739 E1.86562
G1 X22.09 Y-50.458 E1.89844
G1 X22.137 Y-51.091 E1.92726
G1 X-16.558 Y-52.766 E3.68639
G1 X-16.573 Y-51.581 E3.74022
G1 X-16.543 Y-51.267 E3.75454
G1 X-16.455 Y-50.929 E3.77041
G1 X-16.231 Y-50.532 E3.79111
G1 X-15.773 Y-49.383 E3.84729
G1 X-15.618 Y-48.381 E3.89334
G1 X-15.783 Y-47.569 E3.93097
G1 X-16.129 Y-46.824 E3.96828
G1 X-16.731 Y-46.126 E4.01015
G1 X-17.607 Y-45.62 E4.05609
G1 X-18.883 Y-45.309 E4.11574
G1 X-20.692 Y-45.35 E4.19793
G1 X-21.576 Y-45.336 E4.23808
G1 X-32.099 Y-45.807 E4.7165
G1 X-32.697 Y-45.897 E4.74397
G1 X-34.255 Y-45.972 E4.81481
G1 X-34.956 Y-46.125 E4.8474
G1 X-35.904 Y-46.512 E4.89391
G1 X-36.376 Y-46.839 E4.91999
G1 X-37.041 Y-47.553 E4.9643
G1 X-37.413 Y-48.508 E5.01085
G1 X-37.447 Y-49.38 E5.05049
G1 X-37.263 Y-50.279 E5.09217
G1 X-36.71 Y-51.369 E5.14768
G1 X-36.425 Y-51.798 E5.17107
G1 X-36.302 Y-52.166 E5.18869
G1 X-36.202 Y-53.617 E5.25475
G1 X-46.247 Y-54.069 E5.71145
G1 X-47.007 Y-54.237 E5.7468
G1 X-47.848 Y-54.764 E5.79188
G1 X-48.509 Y-55.501 E5.83684
G1 X-48.859 Y-56.491 E5.88453
G1 X-48.921 Y-56.979 E5.90687
G1 X-48.827 Y-58.468 E5.97464
G1 X-48.735 Y-59.353 E6.01505
G1 X-48.552 Y-60.725 E6.07792
G1 X-48.344 Y-61.87 E6.13077
G1 X-47.994 Y-63.348 E6.19976
G1 X-47.638 Y-64.559 E6.25709
G1 X-47.129 Y-65.969 E6.32517
G1 X-46.4 Y-67.607 E6.4066
G1 X-45.738 Y-68.828 E6.46969
G1 X-44.875 Y-70.159 E6.54173
G1 X-43.966 Y-71.328 E6.60899
G1 X-43.095 Y-72.272 E6.66733
G1 X-41.939 Y-73.303 E6.73768
G1 X-40.925 Y-74.033 E6.79443
G1 X-39.278 Y-74.929 E6.87959
G1 X-38.205 Y-75.34 E6.93177
G1 X-36.994 Y-75.658 E6.98864
G1 X-35.88 Y-75.843 E7.03993
G1 X43.467 Y-72.401 E10.64716
G1 X44.709 Y-72.066 E10.70559
G1 X45.692 Y-71.7 E10.75323
G1 X47.061 Y-71.008 E10.8229
G1 X48.122 Y-70.293 E10.88101
G1 X49.398 Y-69.194 E10.9575
G1 X50.174 Y-68.366 E11.00904
G1 X51.167 Y-67.08 E11.08283
G1 X51.984 Y-65.785 E11.15238
G1 X52.674 Y-64.466 E11.21999
G1 X53.196 Y-63.25 E11.28009
G1 X53.771 Y-61.581 E11.36027
G1 X54.112 Y-60.301 E11.42043
G1 X54.431 Y-58.698 E11.49466
G1 X54.621 Y-57.324 E11.55766
G1 X54.742 Y-56.012 E11.6175
G1 X54.795 Y-54.749 E11.67492
G1 X54.8 Y-53.56 E11.72892
G1 X54.764 Y-52.602 E11.77246
G1 X54.61 Y-51.801 E11.80951
G1 X54.146 Y-50.973 E11.85262
G1 X53.966 Y-50.754 E11.8655
G1 X53.328 Y-50.277 E11.90168
G1 X52.487 Y-49.894 E11.94365
G1 X51.65 Y-49.814 E11.98184
G1 X41.806 Y-50.238 E12.42935
G1 X41.791 Y-48.765 E12.49626
G1 X41.883 Y-48.294 E12.51806
G1 X42.185 Y-47.84 E12.54282
G1 X42.566 Y-46.872 E12.59007
G1 X42.704 Y-45.974 E12.63133
G1 X42.588 Y-45.101 E12.67133
G1 X42.281 Y-44.428 E12.70493
G1 X41.704 Y-43.68 E12.74784
G1 X41.584 Y-43.576 E12.75505
G1 X40.895 Y-43.186 E12.79101
G1 X40.125 Y-42.938 E12.82775
G0 F1500 X40.044 Y-43.33
G1 F1200 X39.349 Y-43.187 E12.85998
G1 X37.631 Y-43.225 E12.93803
G1 X36.784 Y-43.211 E12.9765
G1 X26.266 Y-43.682 E13.45469
G1 X25.662 Y-43.773 E13.48244
G1 X24.163 Y-43.839 E13.55058
G1 X23.417 Y-43.994 E13.58519
G1 X22.392 Y-44.467 E13.63646
G1 X21.835 Y-45 E13.67148
G1 X21.414 Y-45.718 E13.70928
G1 X21.285 Y-46.336 E13.73795
G1 X21.297 Y-47.009 E13.76853
G1 X21.499 Y-47.724 E13.80227
G1 X21.805 Y-48.33 E13.83311
G1 X21.925 Y-48.823 E13.85615
G1 X22.218 Y-49.356 E13.88378
G1 X22.406 Y-49.574 E13.89685
G1 X22.488 Y-50.419 E13.93541
G1 X22.534 Y-51.048 E13.96405
G1 X22.632 Y-51.47 E13.98373
G1 X-17.018 Y-53.187 E15.78627
G1 X-16.955 Y-52.713 E15.80799
G1 X-16.973 Y-51.567 E15.86005
G1 X-16.938 Y-51.196 E15.87697
G1 X-16.828 Y-50.776 E15.89669
G1 X-16.603 Y-50.384 E15.91722
G1 X-16.161 Y-49.274 E15.97148
G1 X-16.024 Y-48.392 E16.01202
G1 X-16.166 Y-47.694 E16.04438
G1 X-16.468 Y-47.043 E16.07697
G1 X-16.99 Y-46.438 E16.11326
G1 X-17.755 Y-45.996 E16.15339
G1 X-18.928 Y-45.71 E16.20823
G1 X-20.689 Y-45.75 E16.28823
G1 X-21.558 Y-45.736 E16.32771
G1 X-32.039 Y-46.203 E16.80421
G1 X-32.657 Y-46.296 E16.8326
G1 X-34.17 Y-46.363 E16.90138
G1 X-34.871 Y-46.516 E16.93397
G1 X-35.712 Y-46.865 E16.97533
G1 X-36.083 Y-47.112 E16.99557
G1 X-36.696 Y-47.77 E17.03641
G1 X-37.016 Y-48.59 E17.07639
G1 X-37.045 Y-49.348 E17.11085
G1 X-36.882 Y-50.145 E17.14779
G1 X-36.353 Y-51.188 E17.20091
G1 X-36.063 Y-51.619 E17.2245
G1 X-35.906 Y-52.088 E17.24697
G1 X-35.802 Y-53.606 E17.31607
G1 X-35.699 Y-53.995 E17.33435
G1 X-46.161 Y-54.46 E17.80999
G1 X-46.853 Y-54.613 E17.84218
G1 X-47.588 Y-55.074 E17.88159
G1 X-48.159 Y-55.71 E17.92041
G1 X-48.468 Y-56.585 E17.96255
G1 X-48.522 Y-56.954 E17.97949
G1 X-48.429 Y-58.427 E18.04653
G1 X-48.339 Y-59.3 E18.08639
G1 X-48.158 Y-60.654 E18.14843
G1 X-47.95 Y-61.799 E18.20129
G1 X-47.61 Y-63.235 E18.26831
G1 X-47.254 Y-64.446 E18.32564
G1 X-46.763 Y-65.807 E18.39136
G1 X-46.048 Y-67.416 E18.47132
G1 X-45.386 Y-68.637 E18.53441
G1 X-44.559 Y-69.914 E18.60351
G1 X-43.672 Y-71.057 E18.66922
G1 X-42.829 Y-71.973 E18.72576
G1 X-41.673 Y-73.004 E18.79611
G1 X-40.692 Y-73.708 E18.85095
G1 X-39.135 Y-74.555 E18.93146
G1 X-38.062 Y-74.966 E18.98364
G1 X-36.929 Y-75.263 E19.03684
G1 X-35.856 Y-75.441 E19.08624
G1 X43.408 Y-72.003 E22.6897
G1 X44.57 Y-71.691 E22.74435
G1 X45.512 Y-71.343 E22.78996
G1 X46.837 Y-70.676 E22.85733
G1 X47.898 Y-69.961 E22.91544
G1 X49.106 Y-68.92 E22.98787
G1 X49.882 Y-68.092 E23.03941
G1 X50.85 Y-66.836 E23.11143
G1 X51.63 Y-65.6 E23.17781
G1 X52.306 Y-64.308 E23.24404
G1 X52.828 Y-63.092 E23.30415
G1 X53.384 Y-61.478 E23.38168
G1 X53.725 Y-60.198 E23.44184
G1 X54.035 Y-58.643 E23.51386
G1 X54.223 Y-57.287 E23.57604
G1 X54.342 Y-55.995 E23.63497
G1 X54.395 Y-54.747 E23.6917
G1 X54.4 Y-53.573 E23.74502
G1 X54.371 Y-52.678 E23.78569
G1 X54.229 Y-51.94 E23.81983
G1 X53.797 Y-51.169 E23.85997
G1 X53.688 Y-51.045 E23.86746
G1 X53.126 Y-50.625 E23.89933
G1 X52.382 Y-50.286 E23.93646
G1 X51.667 Y-50.214 E23.9691
G1 X41.347 Y-50.66 E24.43826
G1 X41.409 Y-50.186 E24.45997
G1 X41.395 Y-49.141 E24.50744
G1 X41.408 Y-48.639 E24.53025
G1 X41.505 Y-48.141 E24.55329
G1 X41.828 Y-47.655 E24.5798
G1 X42.178 Y-46.766 E24.62319
G1 X42.3 Y-45.973 E24.65963
G1 X42.199 Y-45.211 E24.69454
G1 X41.936 Y-44.636 E24.72326
G1 X41.387 Y-43.924 E24.7641
G1 X40.731 Y-43.553 E24.79833
G1 X40.044 Y-43.33 E24.83113
G0 F1500 X39.963 Y-43.722
G1 F1200 X39.312 Y-43.588 E24.86132
G1 X37.633 Y-43.625 E24.9376
G1 X36.802 Y-43.611 E24.97534
G1 X26.325 Y-44.078 E25.45167
G1 X25.7 Y-44.172 E25.48037
G1 X24.181 Y-44.239 E25.54943
G1 X23.543 Y-44.376 E25.57907
G1 X22.621 Y-44.802 E25.6252
G1 X22.151 Y-45.252 E25.65475
G1 X21.793 Y-45.862 E25.68688
G1 X21.686 Y-46.376 E25.71072
G1 X21.696 Y-46.95 E25.7368
G1 X21.873 Y-47.577 E25.76639
G1 X22.183 Y-48.19 E25.79759
G1 X22.314 Y-48.729 E25.82278
G1 X22.563 Y-49.154 E25.84515
G1 X22.791 Y-49.402 E25.86045
G1 X22.886 Y-50.38 E25.90508
G1 X22.924 Y-50.958 E25.93139
G1 X23.05 Y-51.501 E25.95671
G1 X23.234 Y-51.845 E25.97443
G1 X-17.6 Y-53.613 E27.8308
G1 X-17.422 Y-53.188 E27.85172
G1 X-17.352 Y-52.66 E27.87591
G1 X-17.373 Y-51.552 E27.92625
G1 X-17.333 Y-51.125 E27.94573
G1 X-17.201 Y-50.62 E27.96943
G1 X-16.975 Y-50.236 E27.98967
G1 X-16.549 Y-49.166 E28.04198
G1 X-16.43 Y-48.402 E28.0771
G1 X-16.548 Y-47.82 E28.10407
G1 X-16.806 Y-47.264 E28.13191
G1 X-17.251 Y-46.749 E28.16282
G1 X-17.903 Y-46.372 E28.19703
G1 X-18.973 Y-46.111 E28.24705
G1 X-20.687 Y-46.15 E28.32492
G1 X-21.54 Y-46.136 E28.36367
G1 X-31.979 Y-46.599 E28.83826
G1 X-32.617 Y-46.695 E28.86756
G1 X-34.152 Y-46.763 E28.93735
G1 X-34.783 Y-46.906 E28.96673
G1 X-35.556 Y-47.233 E29.00486
G1 X-35.79 Y-47.385 E29.01753
G1 X-36.351 Y-47.987 E29.0549
G1 X-36.619 Y-48.673 E29.08835
G1 X-36.643 Y-49.316 E29.11758
G1 X-36.501 Y-50.013 E29.14989
G1 X-36.021 Y-50.965 E29.19831
G1 X-35.701 Y-51.44 E29.22432
G1 X-35.51 Y-52.011 E29.25167
G1 X-35.406 Y-53.539 E29.32123
G1 X-35.268 Y-54.061 E29.34575
G1 X-35.105 Y-54.37 E29.36162
G1 X-46.075 Y-54.851 E29.86034
G1 X-46.7 Y-54.989 E29.88941
G1 X-47.327 Y-55.382 E29.92302
G1 X-47.809 Y-55.919 E29.9558
G1 X-48.074 Y-56.656 E29.99137
G1 X-48.123 Y-56.929 E30.00396
G1 X-48.031 Y-58.386 E30.07027
G1 X-47.943 Y-59.247 E30.10958
G1 X-47.764 Y-60.583 E30.1708
G1 X-47.556 Y-61.728 E30.22366
G1 X-47.226 Y-63.122 E30.28872
G1 X-46.87 Y-64.333 E30.34605
G1 X-46.387 Y-65.671 E30.41066
G1 X-45.696 Y-67.225 E30.4879
G1 X-45.034 Y-68.446 E30.55099
G1 X-44.243 Y-69.669 E30.61714
G1 X-43.377 Y-70.787 E30.68137
G1 X-42.563 Y-71.674 E30.73605
G1 X-41.407 Y-72.705 E30.8064
G1 X-40.459 Y-73.383 E30.85934
G1 X-38.992 Y-74.181 E30.93519
G1 X-37.919 Y-74.592 E30.98737
G1 X-36.864 Y-74.868 E31.0369
G1 X-35.832 Y-75.039 E31.08441
G1 X43.351 Y-71.605 E34.68419
G1 X44.432 Y-71.316 E34.73501
G1 X45.333 Y-70.985 E34.77861
G1 X46.613 Y-70.344 E34.84363
G1 X47.674 Y-69.629 E34.90174
G1 X48.814 Y-68.646 E34.9701
G1 X49.59 Y-67.818 E35.02164
G1 X50.533 Y-66.592 E35.09189
G1 X51.276 Y-65.414 E35.15515
G1 X51.938 Y-64.15 E35.21996
G1 X52.46 Y-62.934 E35.28006
G1 X52.997 Y-61.375 E35.35495
G1 X53.338 Y-60.095 E35.41511
G1 X53.639 Y-58.588 E35.48491
G1 X53.825 Y-57.25 E35.54627
G1 X53.942 Y-55.978 E35.60428
G1 X53.995 Y-54.745 E35.66034
G1 X54 Y-53.584 E35.71307
G1 X53.978 Y-52.754 E35.75078
G1 X53.848 Y-52.079 E35.782
G1 X53.448 Y-51.365 E35.81917
G1 X52.921 Y-50.971 E35.84906
G1 X52.277 Y-50.678 E35.88119
G1 X51.684 Y-50.614 E35.90828
G1 X40.764 Y-51.086 E36.40472
G1 X40.943 Y-50.658 E36.42579
G1 X41.012 Y-50.134 E36.44979
G1 X40.995 Y-49.148 E36.49458
G1 X41.009 Y-48.594 E36.51975
G1 X41.127 Y-47.988 E36.54779
G1 X41.472 Y-47.469 E36.5761
G1 X41.79 Y-46.661 E36.61554
G1 X41.896 Y-45.972 E36.6472
G1 X41.81 Y-45.323 E36.67693
G1 X41.59 Y-44.843 E36.70092
G1 X41.119 Y-44.232 E36.73595
G1 X40.57 Y-43.921 E36.76461
G1 X39.963 Y-43.722 E36.79363
G0 F1500 X39.882 Y-44.114
G1 F1200 X39.275 Y-43.989 E36.82177
G1 X37.635 Y-44.025 E36.89628
G1 X36.82 Y-44.011 E36.9333
G1 X26.384 Y-44.474 E37.40776
G1 X25.738 Y-44.571 E37.43743
G1 X24.199 Y-44.639 E37.50739
G1 X23.672 Y-44.757 E37.53192
G1 X22.85 Y-45.137 E37.57305
G1 X22.468 Y-45.503 E37.59708
G1 X22.17 Y-46.01 E37.62379
G1 X22.086 Y-46.369 E37.64054
G1 X22.095 Y-46.891 E37.66425
G1 X22.248 Y-47.433 E37.68983
G1 X22.564 Y-48.058 E37.72164
G1 X22.659 Y-48.527 E37.74337
G1 X22.908 Y-48.952 E37.76574
G1 X23.175 Y-49.221 E37.78296
G1 X23.284 Y-50.341 E37.83407
G1 X23.314 Y-50.868 E37.85804
G1 X23.44 Y-51.411 E37.88336
G1 X23.743 Y-51.915 E37.91007
G1 X24.071 Y-52.21 E37.9301
G1 X-18.39 Y-54.048 E39.86044
G1 X-18.066 Y-53.67 E39.88305
G1 X-17.818 Y-53.132 E39.90995
G1 X-17.752 Y-52.667 E39.93129
G1 X-17.773 Y-51.54 E39.98248
G1 X-17.728 Y-51.054 E40.00465
G1 X-17.574 Y-50.463 E40.03239
G1 X-17.347 Y-50.088 E40.0523
G1 X-16.937 Y-49.058 E40.10265
G1 X-16.836 Y-48.411 E40.13239
G1 X-16.916 Y-47.977 E40.15244
G1 X-17.109 Y-47.526 E40.17472
G1 X-17.512 Y-47.06 E40.2027
G1 X-18.051 Y-46.748 E40.23098
G1 X-19.018 Y-46.512 E40.27619
G1 X-20.685 Y-46.55 E40.35193
G1 X-21.522 Y-46.536 E40.38995
G1 X-31.919 Y-46.995 E40.86263
G1 X-32.577 Y-47.094 E40.89285
G1 X-34.134 Y-47.163 E40.96363
G1 X-34.691 Y-47.295 E40.98963
G1 X-35.398 Y-47.6 E41.0246
G1 X-35.53 Y-47.693 E41.03194
G1 X-36.006 Y-48.203 E41.06362
G1 X-36.222 Y-48.757 E41.09063
G1 X-36.251 Y-49.236 E41.11243
G1 X-36.12 Y-49.88 E41.14227
G1 X-35.689 Y-50.741 E41.18601
G1 X-35.34 Y-51.259 E41.21437
G1 X-35.114 Y-51.933 E41.24666
G1 X-35.007 Y-53.512 E41.31854
G1 X-34.883 Y-53.953 E41.33935
G1 X-34.619 Y-54.411 E41.36336
G1 X-34.261 Y-54.734 E41.38526
G1 X-45.989 Y-55.242 E41.91843
G1 X-46.546 Y-55.365 E41.94434
G1 X-47.067 Y-55.692 E41.97228
G1 X-47.459 Y-56.129 E41.99894
G1 X-47.698 Y-56.792 E42.03095
G1 X-47.721 Y-56.952 E42.03829
G1 X-47.633 Y-58.346 E42.10173
G1 X-47.547 Y-59.194 E42.14044
G1 X-47.37 Y-60.512 E42.20084
G1 X-47.162 Y-61.657 E42.2537
G1 X-46.842 Y-63.009 E42.3168
G1 X-46.486 Y-64.22 E42.37413
G1 X-46.011 Y-65.535 E42.43763
G1 X-45.344 Y-67.034 E42.51215
G1 X-44.682 Y-68.255 E42.57523
G1 X-43.927 Y-69.424 E42.63844
G1 X-43.082 Y-70.517 E42.70119
G1 X-42.268 Y-71.404 E42.75587
G1 X-41.174 Y-72.38 E42.82245
G1 X-40.226 Y-73.058 E42.87539
G1 X-38.849 Y-73.807 E42.94659
G1 X-37.776 Y-74.218 E42.99877
G1 X-36.799 Y-74.473 E43.04463
G1 X-35.808 Y-74.637 E43.09026
G1 X43.289 Y-71.207 E46.68612
G1 X44.295 Y-70.94 E46.73339
G1 X45.155 Y-70.627 E46.77496
G1 X46.39 Y-70.012 E46.83762
G1 X47.413 Y-69.326 E46.89356
G1 X48.522 Y-68.372 E46.96001
G1 X49.298 Y-67.544 E47.01155
G1 X50.195 Y-66.378 E47.07836
G1 X50.922 Y-65.228 E47.14016
G1 X51.57 Y-63.992 E47.20354
G1 X52.092 Y-62.776 E47.26365
G1 X52.61 Y-61.272 E47.33589
G1 X52.951 Y-59.992 E47.39606
G1 X53.243 Y-58.533 E47.46364
G1 X53.427 Y-57.213 E47.52417
G1 X53.542 Y-55.961 E47.58127
G1 X53.595 Y-54.743 E47.63665
G1 X53.6 Y-53.595 E47.68879
G1 X53.578 Y-52.765 E47.7265
G1 X53.468 Y-52.219 E47.75179
G1 X53.14 Y-51.635 E47.78222
G1 X52.755 Y-51.335 E47.80438
G1 X52.169 Y-51.068 E47.83363
G1 X51.701 Y-51.014 E47.85503
G1 X39.975 Y-51.521 E48.38811
G1 X40.298 Y-51.144 E48.41065
G1 X40.547 Y-50.602 E48.43775
G1 X40.612 Y-50.141 E48.45889
G1 X40.595 Y-49.155 E48.50368
G1 X40.61 Y-48.548 E48.53126
G1 X40.749 Y-47.835 E48.56425
G1 X41.116 Y-47.283 E48.59436
G1 X41.402 Y-46.556 E48.62984
G1 X41.492 Y-45.971 E48.65672
G1 X41.413 Y-45.376 E48.68398
G1 X41.273 Y-45.087 E48.69857
G1 X40.852 Y-44.541 E48.72988
G1 X40.444 Y-44.301 E48.75138
G1 X39.882 Y-44.114 E48.77828
G0 F1500 X39.801 Y-44.506
G1 F1200 X39.238 Y-44.39 E48.80439
G1 X37.637 Y-44.425 E48.87712
G1 X36.838 Y-44.411 E48.91342
G1 X26.443 Y-44.87 E49.38601
G1 X25.776 Y-44.97 E49.41664
G1 X24.217 Y-45.039 E49.48752
G1 X23.801 Y-45.138 E49.50694
G1 X23.078 Y-45.472 E49.54311
G1 X22.807 Y-45.716 E49.55968
G1 X22.556 Y-46.115 E49.58108
G1 X22.486 Y-46.373 E49.59323
G1 X22.482 Y-46.789 E49.61212
G1 X22.605 Y-47.253 E49.63392
G1 X22.949 Y-47.934 E49.66858
G1 X23.011 Y-48.336 E49.68705
G1 X23.192 Y-48.67 E49.7043
G1 X23.512 Y-48.992 E49.72492
G1 X23.574 Y-49.191 E49.73439
G1 X23.682 Y-50.302 E49.78509
G1 X23.713 Y-50.845 E49.80979
G1 X23.815 Y-51.258 E49.82911
G1 X24.086 Y-51.709 E49.85301
G1 X24.323 Y-51.9 E49.86683
G1 X24.822 Y-52.119 E49.89158
G1 X25.17 Y-52.165 E49.90753
G1 X38.872 Y-51.572 E50.53044
