;FLAVOR:Marlin
;TIME:2372
;Filament used: 4.52426m
;Layer height: 0.24
;MINX:-95.234
;MINY:-26.696
;MINZ:0.3
;MAXX:89.723
;MAXY:19.238
;MAXZ:5.82
;Generated with Cura_SteamEngine 4.13.1
M140 S50
M105
M190 S50
M104 S210
M105
M109 S210
M82 ;absolute extrusion mode
;FLAVOR:Marlin
M82 ;absolute extrusion mode
G21
G90
M82
M107 T0
G28
G92 E0
G0 E3 F200
G92 E0 ; reset extrusion distance
M106 S255 ; Enable cooling fan full speed
G1 X-98 Y0 Z0.4 F3000 ; move to arc start
G3 X0 Y-98 I98 Z0.4 E40 F400 ; lay arc stripe 90deg
G92 E0 ; reset extrusion distance
G4 P500 ; wait for 0.5 sec
G0 Z10 E-1 ; Lift 15mm and retract 1mm filament
G4 P2000 ; wait for 5 sec
G0 Z15
M107 ; Disable cooling fan
G1 X0 Y-85 Z4 E0 F3000 ; get off the bed
G92 E0
G92 E0
G1 F1500 E-6.5
;LAYER_COUNT:25
;LAYER:0
M106 S25.5
G1 F600 Z1.3
G0 F3600 X50.913 Y-21.789 Z1.3
;TYPE:SKIRT
G1 F600 Z0.3
G1 F1500 E0.3326
G1 F2700 X53.726 Y-21.829 E0.47296
G1 X56.476 Y-21.946 E0.61028
G1 X59.255 Y-22.143 E0.74927
G1 X61.988 Y-22.414 E0.88629
G1 X64.749 Y-22.767 E1.02516
G1 X67.518 Y-23.202 E1.165
G1 X70.21 Y-23.702 E1.3016
G1 X72.881 Y-24.277 E1.43791
G1 X75.647 Y-24.955 E1.57999
G1 X78.282 Y-25.68 E1.71634
G1 X79.324 Y-26.002 E1.77075
G1 X80.522 Y-26.357 E1.83309
G1 X80.638 Y-26.387 E1.83906
G1 X81.518 Y-26.59 E1.88412
G1 X82.141 Y-26.681 E1.91553
G1 X82.968 Y-26.695 E1.9568
G1 X83.604 Y-26.655 E1.98859
G1 X84.349 Y-26.511 E2.02645
G1 X85.044 Y-26.318 E2.06243
G1 X85.752 Y-26.016 E2.10083
G1 X86.364 Y-25.697 E2.13526
G1 X87.008 Y-25.243 E2.17457
G1 X87.52 Y-24.818 E2.20777
G1 X88.031 Y-24.269 E2.24519
G1 X88.473 Y-23.713 E2.28063
G1 X88.904 Y-22.993 E2.32249
G1 X89.172 Y-22.447 E2.35284
G1 X89.449 Y-21.635 E2.39564
G1 X89.601 Y-21.036 E2.42647
G1 X89.699 Y-20.214 E2.46777
G1 X89.722 Y-19.587 E2.49907
G1 X89.647 Y-18.745 E2.54125
G1 X89.527 Y-17.783 E2.58961
G1 X89.327 Y-16.34 E2.66229
G1 X89.02 Y-13.556 E2.80203
G1 X88.799 Y-10.83 E2.93848
G1 X88.651 Y-8.046 E3.07757
G1 X88.583 Y-5.311 E3.21406
G1 X88.593 Y-2.512 E3.3537
G1 X88.682 Y0.274 E3.49277
G1 X88.845 Y3.005 E3.62926
G1 X89.092 Y5.795 E3.769
G1 X89.411 Y8.515 E3.90563
G1 X89.503 Y9.158 E3.93804
G1 X89.697 Y10.763 E4.01869
G1 X89.723 Y11.42 E4.0515
G1 X89.649 Y12.228 E4.09198
G1 X89.54 Y12.862 E4.12407
G1 X89.292 Y13.663 E4.1659
G1 X89.057 Y14.246 E4.19726
G1 X88.636 Y14.999 E4.2403
G1 X88.303 Y15.491 E4.26994
G1 X87.77 Y16.1 E4.31032
G1 X87.303 Y16.556 E4.34288
G1 X86.62 Y17.065 E4.38538
G1 X86.099 Y17.391 E4.41604
G1 X85.306 Y17.755 E4.45957
G1 X84.756 Y17.953 E4.48874
G1 X84.01 Y18.123 E4.52691
G1 X83.309 Y18.227 E4.56226
G1 X82.542 Y18.238 E4.60053
G1 X81.865 Y18.194 E4.63438
G1 X81.114 Y18.046 E4.67257
G1 X80.839 Y17.982 E4.68666
G1 X78.129 Y17.379 E4.82517
G1 X75.401 Y16.854 E4.96376
G1 X72.644 Y16.403 E5.10314
G1 X69.92 Y16.035 E5.24027
G1 X67.149 Y15.741 E5.3793
G1 X64.405 Y15.528 E5.51661
G1 X61.622 Y15.391 E5.65562
G1 X58.161 Y15.331 E5.82831
G1 X-59.759 Y15.331 E11.71137
G1 X-62.571 Y15.371 E11.85167
G1 X-65.322 Y15.488 E11.98904
G1 X-68.101 Y15.685 E12.12804
G1 X-70.835 Y15.956 E12.26511
G1 X-73.601 Y16.309 E12.40422
G1 X-76.352 Y16.742 E12.54316
G1 X-79.062 Y17.246 E12.68068
G1 X-81.767 Y17.828 E12.81872
G1 X-85.008 Y18.632 E12.98532
G1 X-86.048 Y18.908 E13.039
G1 X-86.96 Y19.119 E13.0857
G1 X-87.655 Y19.224 E13.12077
G1 X-88.478 Y19.238 E13.16183
G1 X-89.114 Y19.198 E13.19363
G1 X-89.859 Y19.054 E13.23148
G1 X-90.553 Y18.862 E13.26741
G1 X-91.272 Y18.555 E13.30641
G1 X-91.855 Y18.25 E13.33924
G1 X-92.587 Y17.734 E13.38392
G1 X-93.032 Y17.359 E13.41295
G1 X-93.576 Y16.774 E13.4528
G1 X-93.982 Y16.258 E13.48556
G1 X-94.386 Y15.585 E13.52472
G1 X-94.684 Y14.985 E13.55815
G1 X-94.958 Y14.183 E13.60043
G1 X-95.11 Y13.582 E13.63136
G1 X-95.211 Y12.735 E13.67391
G1 X-95.232 Y12.132 E13.70401
G1 X-95.156 Y11.279 E13.74674
G1 X-95.096 Y10.798 E13.77092
G1 X-94.762 Y8.387 E13.89236
G1 X-94.458 Y5.624 E14.03104
G1 X-94.234 Y2.876 E14.16859
G1 X-94.086 Y0.095 E14.30753
G1 X-94.019 Y-2.64 E14.44402
G1 X-94.029 Y-5.439 E14.58366
G1 X-94.118 Y-8.238 E14.72338
G1 X-94.283 Y-10.968 E14.85983
G1 X-94.529 Y-13.746 E14.99896
G1 X-94.851 Y-16.49 E15.1368
G1 X-94.883 Y-16.711 E15.14794
G1 X-95.205 Y-19.198 E15.27305
G1 X-95.234 Y-19.821 E15.30417
G1 X-95.174 Y-20.564 E15.34136
G1 X-95.062 Y-21.268 E15.37692
G1 X-94.816 Y-22.087 E15.41959
G1 X-94.599 Y-22.636 E15.44904
G1 X-94.197 Y-23.371 E15.49083
G1 X-93.842 Y-23.909 E15.52299
G1 X-93.298 Y-24.54 E15.56456
G1 X-92.853 Y-24.98 E15.59578
G1 X-92.199 Y-25.475 E15.6367
G1 X-91.632 Y-25.843 E15.67042
G1 X-91.24 Y-26.03 E15.69209
G1 X-90.631 Y-26.292 E15.72517
G1 X-90.296 Y-26.403 E15.74277
G1 X-89.554 Y-26.575 E15.78077
G1 X-88.885 Y-26.679 E15.81455
G1 X-88.038 Y-26.696 E15.85682
G1 X-87.424 Y-26.658 E15.88751
G1 X-86.633 Y-26.507 E15.92768
G1 X-86.012 Y-26.353 E15.9596
G1 X-83.585 Y-25.617 E16.08613
G1 X-80.949 Y-24.897 E16.22246
G1 X-78.228 Y-24.237 E16.36215
G1 X-75.522 Y-23.66 E16.50018
G1 X-72.818 Y-23.163 E16.63735
G1 X-70.032 Y-22.733 E16.77799
G1 X-67.337 Y-22.394 E16.9135
G1 X-64.527 Y-22.121 E17.05435
G1 X-61.785 Y-21.934 E17.19147
G1 X-59.034 Y-21.823 E17.32883
G1 X-56.439 Y-21.789 E17.45831
G1 X50.913 Y-21.789 E22.81412
G0 F3600 X50.918 Y-21.389
G1 F2700 X53.714 Y-21.429 E22.95363
G1 X56.52 Y-21.548 E23.09374
G1 X59.287 Y-21.744 E23.23214
G1 X62.046 Y-22.017 E23.37045
G1 X64.796 Y-22.369 E23.50877
G1 X67.575 Y-22.806 E23.64912
G1 X70.296 Y-23.312 E23.7872
G1 X72.989 Y-23.891 E23.92462
G1 X75.714 Y-24.559 E24.0646
G1 X78.401 Y-25.298 E24.20363
G1 X79.437 Y-25.618 E24.25773
G1 X80.635 Y-25.973 E24.32007
G1 X80.729 Y-25.998 E24.32492
G1 X81.54 Y-26.186 E24.36645
G1 X82.149 Y-26.281 E24.3972
G1 X82.963 Y-26.295 E24.43782
G1 X83.528 Y-26.262 E24.46606
G1 X84.273 Y-26.118 E24.50391
G1 X84.887 Y-25.95 E24.53567
G1 X85.583 Y-25.653 E24.57342
G1 X86.134 Y-25.37 E24.60433
G1 X86.766 Y-24.925 E24.64289
G1 X87.227 Y-24.545 E24.67269
G1 X87.778 Y-23.952 E24.71308
G1 X88.13 Y-23.508 E24.74135
G1 X88.554 Y-22.799 E24.78256
G1 X88.793 Y-22.317 E24.8094
G1 X89.067 Y-21.517 E24.85159
G1 X89.203 Y-20.988 E24.87884
G1 X89.3 Y-20.18 E24.91944
G1 X89.324 Y-19.622 E24.94731
G1 X89.25 Y-18.795 E24.98873
G1 X89.131 Y-17.838 E25.03684
G1 X88.927 Y-16.366 E25.11098
G1 X88.627 Y-13.645 E25.24756
G1 X88.4 Y-10.848 E25.38756
G1 X88.253 Y-8.09 E25.52535
G1 X88.183 Y-5.264 E25.66638
G1 X88.193 Y-2.497 E25.80443
G1 X88.281 Y0.275 E25.9428
G1 X88.446 Y3.033 E26.08064
G1 X88.695 Y5.841 E26.22128
G1 X89.015 Y8.572 E26.35846
G1 X89.105 Y9.206 E26.39041
G1 X89.305 Y10.869 E26.47398
G1 X89.325 Y11.384 E26.49969
G1 X89.252 Y12.18 E26.53957
G1 X89.158 Y12.744 E26.56809
G1 X88.914 Y13.531 E26.6092
G1 X88.708 Y14.051 E26.63711
G1 X88.293 Y14.793 E26.67952
G1 X88.002 Y15.228 E26.70563
G1 X87.433 Y15.876 E26.74866
G1 X87.063 Y16.235 E26.77438
G1 X86.39 Y16.738 E26.81629
G1 X85.932 Y17.027 E26.84331
G1 X85.151 Y17.386 E26.8862
G1 X84.667 Y17.563 E26.91191
G1 X83.863 Y17.745 E26.95303
G1 X83.303 Y17.827 E26.98127
G1 X82.476 Y17.838 E27.02253
G1 X81.943 Y17.802 E27.04918
G1 X81.192 Y17.654 E27.08737
G1 X80.936 Y17.594 E27.10049
G1 X78.193 Y16.984 E27.24068
G1 X75.463 Y16.458 E27.37939
G1 X72.731 Y16.011 E27.5175
G1 X69.944 Y15.635 E27.6578
G1 X67.186 Y15.343 E27.79617
G1 X64.422 Y15.128 E27.93448
G1 X61.648 Y14.992 E28.07305
G1 X58.168 Y14.931 E28.24669
G1 X-59.764 Y14.931 E34.13034
G1 X-62.559 Y14.971 E34.2698
G1 X-65.366 Y15.09 E34.40997
G1 X-68.132 Y15.286 E34.54831
G1 X-70.893 Y15.559 E34.68673
G1 X-73.642 Y15.911 E34.82499
G1 X-76.422 Y16.348 E34.96539
G1 X-79.142 Y16.854 E35.10342
G1 X-81.857 Y17.438 E35.24197
G1 X-85.127 Y18.249 E35.41006
G1 X-86.138 Y18.518 E35.46225
G1 X-87.05 Y18.729 E35.50895
G1 X-87.662 Y18.824 E35.53985
G1 X-88.473 Y18.838 E35.58032
G1 X-89.038 Y18.805 E35.60855
G1 X-89.848 Y18.647 E35.64973
G1 X-90.396 Y18.493 E35.67812
G1 X-91.105 Y18.191 E35.71657
G1 X-91.625 Y17.923 E35.74576
G1 X-92.345 Y17.415 E35.78972
G1 X-92.74 Y17.087 E35.81533
G1 X-93.273 Y16.513 E35.85441
G1 X-93.639 Y16.052 E35.88378
G1 X-94.073 Y15.327 E35.92594
G1 X-94.305 Y14.855 E35.95217
G1 X-94.576 Y14.066 E35.9938
G1 X-94.712 Y13.534 E36.02119
G1 X-94.812 Y12.701 E36.06305
G1 X-94.834 Y12.168 E36.08966
G1 X-94.759 Y11.328 E36.13174
G1 X-94.7 Y10.853 E36.15562
G1 X-94.362 Y8.416 E36.27836
G1 X-94.063 Y5.694 E36.41498
G1 X-93.835 Y2.896 E36.55504
G1 X-93.688 Y0.126 E36.69343
G1 X-93.619 Y-2.686 E36.83376
G1 X-93.629 Y-5.469 E36.97261
G1 X-93.717 Y-8.226 E37.11022
G1 X-93.883 Y-10.984 E37.24807
G1 X-94.133 Y-13.802 E37.38921
G1 X-94.451 Y-16.518 E37.52564
G1 X-94.487 Y-16.762 E37.53794
G1 X-94.807 Y-19.236 E37.6624
G1 X-94.835 Y-19.789 E37.69002
G1 X-94.77 Y-20.584 E37.72982
G1 X-94.679 Y-21.153 E37.75857
G1 X-94.436 Y-21.96 E37.80062
G1 X-94.248 Y-22.444 E37.82652
G1 X-93.846 Y-23.179 E37.86832
G1 X-93.539 Y-23.648 E37.89628
G1 X-93.003 Y-24.271 E37.93728
G1 X-92.611 Y-24.661 E37.96487
G1 X-91.967 Y-25.149 E38.00518
G1 X-91.458 Y-25.483 E38.03556
G1 X-91.082 Y-25.663 E38.05635
G1 X-90.473 Y-25.925 E38.08943
G1 X-90.205 Y-26.013 E38.1035
G1 X-89.475 Y-26.183 E38.1409
G1 X-88.876 Y-26.279 E38.17116
G1 X-88.043 Y-26.296 E38.21273
G1 X-87.499 Y-26.265 E38.23991
G1 X-86.723 Y-26.117 E38.27933
G1 X-86.121 Y-25.968 E38.31027
G1 X-83.725 Y-25.241 E38.43518
G1 X-81.019 Y-24.502 E38.57513
G1 X-78.333 Y-23.851 E38.71302
G1 X-75.606 Y-23.269 E38.85213
G1 X-72.846 Y-22.762 E38.99213
G1 X-70.138 Y-22.344 E39.12883
G1 X-67.349 Y-21.993 E39.26907
G1 X-64.562 Y-21.723 E39.40877
G1 X-61.828 Y-21.536 E39.54549
G1 X-59.019 Y-21.423 E39.68574
G1 X-56.444 Y-21.389 E39.81422
G1 X50.918 Y-21.389 E45.17053
G0 F3600 X50.924 Y-20.989
G1 F2700 X53.736 Y-21.029 E45.31084
G1 X56.53 Y-21.147 E45.45036
G1 X59.321 Y-21.345 E45.58995
G1 X62.1 Y-21.621 E45.72928
G1 X64.872 Y-21.975 E45.8687
G1 X67.61 Y-22.406 E46.00698
G1 X70.381 Y-22.921 E46.14759
G1 X73.066 Y-23.499 E46.28461
G1 X75.837 Y-24.178 E46.42695
G1 X78.498 Y-24.91 E46.56464
G1 X79.551 Y-25.235 E46.61962
G1 X80.749 Y-25.59 E46.68196
G1 X80.819 Y-25.608 E46.68556
G1 X81.671 Y-25.805 E46.72919
G1 X82.156 Y-25.881 E46.75368
G1 X82.957 Y-25.895 E46.79365
G1 X83.452 Y-25.869 E46.81838
G1 X84.245 Y-25.715 E46.85868
G1 X84.731 Y-25.582 E46.88382
G1 X85.415 Y-25.291 E46.9209
G1 X85.904 Y-25.043 E46.94826
G1 X86.524 Y-24.606 E46.9861
G1 X86.934 Y-24.273 E47.01245
G1 X87.475 Y-23.691 E47.0521
G1 X87.787 Y-23.302 E47.07698
G1 X88.205 Y-22.604 E47.11757
G1 X88.415 Y-22.187 E47.14086
G1 X88.685 Y-21.399 E47.18242
G1 X88.806 Y-20.94 E47.2061
G1 X88.902 Y-20.145 E47.24605
G1 X88.925 Y-19.658 E47.27037
G1 X88.853 Y-18.844 E47.31114
G1 X88.735 Y-17.893 E47.35895
G1 X88.531 Y-16.421 E47.43309
G1 X88.225 Y-13.643 E47.57253
G1 X87.999 Y-10.859 E47.71188
G1 X87.853 Y-8.1 E47.84972
G1 X87.783 Y-5.274 E47.99075
G1 X87.793 Y-2.483 E48.12999
G1 X87.881 Y0.279 E48.26786
G1 X88.05 Y3.101 E48.4089
G1 X88.294 Y5.852 E48.54669
G1 X88.619 Y8.629 E48.68618
G1 X88.708 Y9.254 E48.71768
G1 X88.907 Y10.903 E48.80054
G1 X88.926 Y11.348 E48.82276
G1 X88.855 Y12.131 E48.86199
G1 X88.776 Y12.626 E48.887
G1 X88.537 Y13.399 E48.92736
G1 X88.358 Y13.856 E48.95185
G1 X87.95 Y14.587 E48.99361
G1 X87.701 Y14.964 E49.01615
G1 X87.141 Y15.603 E49.05854
G1 X86.824 Y15.915 E49.08073
G1 X86.16 Y16.41 E49.12205
G1 X85.765 Y16.664 E49.14548
G1 X84.996 Y17.017 E49.1877
G1 X84.579 Y17.173 E49.20991
G1 X83.789 Y17.352 E49.25032
G1 X83.297 Y17.427 E49.27515
G1 X82.485 Y17.438 E49.31567
G1 X82.02 Y17.409 E49.33891
G1 X81.223 Y17.251 E49.37945
G1 X81.005 Y17.199 E49.39063
G1 X78.284 Y16.594 E49.52969
G1 X75.538 Y16.065 E49.66921
G1 X72.772 Y15.612 E49.80905
G1 X70.004 Y15.239 E49.94839
G1 X67.226 Y14.945 E50.08776
G1 X64.459 Y14.73 E50.22622
G1 X61.644 Y14.592 E50.36683
G1 X58.175 Y14.531 E50.53993
G1 X-59.77 Y14.531 E56.42423
G1 X-62.581 Y14.571 E56.56448
G1 X-65.376 Y14.689 E56.70405
G1 X-68.166 Y14.887 E56.84359
G1 X-70.947 Y15.163 E56.98302
G1 X-73.718 Y15.517 E57.12239
G1 X-76.457 Y15.948 E57.26072
G1 X-79.238 Y16.465 E57.40184
G1 X-81.933 Y17.045 E57.53938
G1 X-85.214 Y17.859 E57.70803
G1 X-86.229 Y18.128 E57.76041
G1 X-87.185 Y18.348 E57.80936
G1 X-87.67 Y18.424 E57.83385
G1 X-88.467 Y18.438 E57.87362
G1 X-88.962 Y18.412 E57.89835
G1 X-89.756 Y18.258 E57.9387
G1 X-90.24 Y18.125 E57.96374
G1 X-90.938 Y17.828 E58.00158
G1 X-91.395 Y17.596 E58.02715
G1 X-92.104 Y17.096 E58.07044
G1 X-92.447 Y16.814 E58.09259
G1 X-92.97 Y16.251 E58.13093
G1 X-93.296 Y15.847 E58.15683
G1 X-93.7 Y15.174 E58.19599
G1 X-93.927 Y14.726 E58.22104
G1 X-94.193 Y13.948 E58.26206
G1 X-94.315 Y13.486 E58.2859
G1 X-94.414 Y12.666 E58.32711
G1 X-94.435 Y12.203 E58.35023
G1 X-94.362 Y11.377 E58.3916
G1 X-94.304 Y10.908 E58.41518
G1 X-93.966 Y8.471 E58.53793
G1 X-93.661 Y5.693 E58.67735
G1 X-93.434 Y2.907 E58.81681
G1 X-93.288 Y0.151 E58.9545
G1 X-93.219 Y-2.676 E59.09558
G1 X-93.229 Y-5.471 E59.23503
G1 X-93.317 Y-8.23 E59.37274
G1 X-93.487 Y-11.053 E59.51384
G1 X-93.731 Y-13.803 E59.65157
G1 X-94.06 Y-16.612 E59.79267
G1 X-94.09 Y-16.814 E59.80286
G1 X-94.409 Y-19.274 E59.92662
G1 X-94.436 Y-19.757 E59.95075
G1 X-94.372 Y-20.539 E59.9899
G1 X-94.296 Y-21.038 E60.01508
G1 X-94.057 Y-21.833 E60.0565
G1 X-93.897 Y-22.252 E60.07887
G1 X-93.472 Y-23.027 E60.12297
G1 X-93.236 Y-23.388 E60.14449
G1 X-92.707 Y-24.001 E60.18488
G1 X-92.369 Y-24.343 E60.20887
G1 X-91.735 Y-24.823 E60.24855
G1 X-91.284 Y-25.123 E60.27557
G1 X-90.924 Y-25.295 E60.29548
G1 X-90.315 Y-25.557 E60.32855
G1 X-90.114 Y-25.624 E60.33912
G1 X-89.395 Y-25.791 E60.37595
G1 X-88.867 Y-25.879 E60.40265
G1 X-88.047 Y-25.896 E60.44357
G1 X-87.573 Y-25.872 E60.46725
G1 X-86.813 Y-25.727 E60.50585
G1 X-86.23 Y-25.583 E60.53581
G1 X-83.842 Y-24.858 E60.66032
G1 X-81.113 Y-24.113 E60.80145
G1 X-78.432 Y-23.463 E60.93908
G1 X-75.663 Y-22.873 E61.08033
G1 X-72.942 Y-22.373 E61.21835
G1 X-70.185 Y-21.947 E61.35753
G1 X-67.38 Y-21.594 E61.49858
G1 X-64.624 Y-21.326 E61.63672
G1 X-61.833 Y-21.136 E61.77629
G1 X-59.041 Y-21.023 E61.9157
G1 X-56.449 Y-20.989 E62.04502
G1 X50.924 Y-20.989 E67.40188
G1 F1500 E60.90188
G1 F600 Z1.3
;MESH:Leiter.3mf
G0 F3600 X43.745 Y-18.669 Z1.3
;TYPE:WALL-INNER
G1 F600 Z0.3
G1 F1500 E67.73449
G1 F2700 X30.745 Y-18.669 E68.38306
G1 X30.745 Y12.211 E69.92367
G1 X43.745 Y12.211 E70.57224
G1 X43.745 Y-18.669 E72.11285
G0 F3600 X27.745 Y-18.669
G1 F2700 X14.745 Y-18.669 E72.76142
G1 X14.745 Y12.211 E74.30203
G1 X27.745 Y12.211 E74.9506
G1 X27.745 Y-18.669 E76.49121
G0 F3600 X11.745 Y-18.669
G1 F2700 X-1.255 Y-18.669 E77.13979
G1 X-1.255 Y12.211 E78.6804
G1 X11.745 Y12.211 E79.32897
G1 X11.745 Y-18.669 E80.86958
G0 F3600 X-.683 Y-18.097
G0 X-4.255 Y12.211
G1 F2700 X-4.255 Y-18.669 E82.41019
G1 X-17.255 Y-18.669 E83.05876
G1 X-17.255 Y12.211 E84.59937
G1 X-4.255 Y12.211 E85.24794
G0 F3600 X-20.255 Y12.211
G1 F2700 X-20.255 Y-18.669 E86.78855
G1 X-33.255 Y-18.669 E87.43712
G1 X-33.255 Y12.211 E88.97773
G1 X-20.255 Y12.211 E89.62631
G0 F3600 X-36.255 Y12.211
G1 F2700 X-36.255 Y-18.669 E91.16692
G1 X-49.255 Y-18.669 E91.81549
G1 X-49.255 Y12.211 E93.3561
G1 X-36.255 Y12.211 E94.00467
G0 F3600 X-52.255 Y12.211
G1 F2700 X-52.255 Y-18.669 E95.54528
G1 X-65.255 Y-18.669 E96.19385
G1 X-65.255 Y12.211 E97.73446
G1 X-52.255 Y12.211 E98.38304
G0 F3600 X-64.683 Y11.639
G0 X-68.255 Y-18.669
G1 F2700 X-81.755 Y-18.669 E99.05655
G1 X-81.755 Y-18.789 E99.06254
G1 X-68.255 Y-18.789 E99.26459
G1 X-65.255 Y-18.789 E99.41427
G1 X-52.255 Y-18.789 E99.60884
G1 X-49.255 Y-18.789 E99.75851
G1 X-36.255 Y-18.789 E99.95308
