;FLAVOR:Marlin
;TIME:2270
;Filament used: 3.29327m
;Layer height: 0.24
;MINX:-19
;MINY:-19
;MINZ:0.3
;MAXX:19
;MAXY:19
;MAXZ:24.78
;Generated with Cura_SteamEngine 4.13.1
M140 S50
M105
M190 S50
M104 S220
M105
M109 S220
M82 ;absolute extrusion mode
;FLAVOR:Marlin
M82 ;absolute extrusion mode
G21
G90
M82
M107 T0
G28
G92 E0
G0 E3 F200
G92 E0 ; reset extrusion distance
M106 S255 ; Enable cooling fan full speed
G1 X-98 Y0 Z0.4 F3000 ; move to arc start
G3 X0 Y-98 I98 Z0.4 E40 F400 ; lay arc stripe 90deg
G92 E0 ; reset extrusion distance
G4 P500 ; wait for 0.5 sec
G0 Z10 E-1 ; Lift 15mm and retract 1mm filament
G4 P2000 ; wait for 5 sec
G0 Z15
M107 ; Disable cooling fan
G1 X0 Y-85 Z4 E0 F3000 ; get off the bed
G92 E0
G92 E0
G1 F1500 E-6.5
;LAYER_COUNT:104
;LAYER:0
M106 S25.5
G1 F600 Z1.3
G0 F3600 X12.971 Y19 Z1.3
;TYPE:SKIRT
G1 F600 Z0.3
G1 F1500 E0.3326
G1 X-12.972 Y19 E2.1964
G1 X-13.648 Y18.957 E2.24506
G1 X-14.476 Y18.808 E2.3055
G1 X-15.292 Y18.539 E2.36723
G1 X-16.053 Y18.162 E2.42824
G1 X-16.75 Y17.685 E2.48892
G1 X-17.358 Y17.129 E2.54811
G1 X-17.909 Y16.46 E2.61037
G1 X-18.362 Y15.705 E2.67363
G1 X-18.692 Y14.914 E2.7352
G1 X-18.898 Y14.116 E2.79441
G1 X-18.991 Y13.281 E2.85477
G1 X-19 Y13.053 E2.87116
G1 X-19 Y-13.043 E4.74595
G1 X-18.985 Y-13.338 E4.76717
G1 X-18.928 Y-13.914 E4.80875
G1 X-18.822 Y-14.464 E4.84899
G1 X-18.623 Y-15.142 E4.89975
G1 X-18.401 Y-15.69 E4.94223
G1 X-18.205 Y-16.064 E4.97257
G1 X-17.913 Y-16.516 E5.01123
G1 X-17.576 Y-16.948 E5.05059
G1 X-17.161 Y-17.386 E5.09394
G1 X-16.681 Y-17.802 E5.13957
G1 X-16.082 Y-18.209 E5.1916
G1 X-15.339 Y-18.573 E5.25104
G1 X-15.081 Y-18.661 E5.27062
G1 X-14.429 Y-18.849 E5.31937
G1 X-13.783 Y-18.964 E5.36651
G1 X-13.158 Y-19 E5.41148
G1 X13.173 Y-19 E7.30315
G1 X13.819 Y-18.959 E7.34966
G1 X14.648 Y-18.804 E7.41024
G1 X15.443 Y-18.533 E7.47059
G1 X16.206 Y-18.139 E7.53228
G1 X16.873 Y-17.659 E7.59132
G1 X17.291 Y-17.266 E7.63253
G1 X17.668 Y-16.839 E7.67346
G1 X18.03 Y-16.335 E7.71804
G1 X18.352 Y-15.776 E7.76438
G1 X18.589 Y-15.253 E7.80563
G1 X18.829 Y-14.474 E7.86419
G1 X18.965 Y-13.664 E7.9232
G1 X19 Y-13.043 E7.96788
G1 X19 Y13.052 E9.8426
G1 X18.956 Y13.717 E9.89048
G1 X18.799 Y14.551 E9.95145
G1 X18.525 Y15.354 E10.0124
G1 X18.127 Y16.128 E10.07493
G1 X17.625 Y16.829 E10.13687
G1 X17.031 Y17.446 E10.1984
G1 X16.389 Y17.95 E10.25704
G1 X15.625 Y18.391 E10.32041
G1 X14.843 Y18.704 E10.38093
G1 X14.028 Y18.904 E10.44121
G1 X13.179 Y18.993 E10.50254
G1 X12.971 Y19 E10.51749
G0 F3600 X12.971 Y18.6
G1 F1500 X-12.972 Y18.6 E12.38129
G1 X-13.618 Y18.559 E12.42779
G1 X-14.392 Y18.417 E12.48432
G1 X-15.153 Y18.164 E12.54194
G1 X-15.863 Y17.81 E12.59893
G1 X-16.512 Y17.363 E12.65555
G1 X-17.078 Y16.844 E12.71072
G1 X-17.59 Y16.218 E12.76882
G1 X-18.012 Y15.512 E12.82791
G1 X-18.317 Y14.774 E12.88528
G1 X-18.507 Y14.031 E12.94037
G1 X-18.592 Y13.251 E12.99674
G1 X-18.6 Y13.053 E13.01098
G1 X-18.6 Y-13.043 E14.88576
G1 X-18.587 Y-13.299 E14.90418
G1 X-18.53 Y-13.875 E14.94576
G1 X-18.438 Y-14.351 E14.98059
G1 X-18.239 Y-15.029 E15.03136
G1 X-18.047 Y-15.504 E15.06816
G1 X-17.598 Y-16.27 E15.13195
G1 X-17.261 Y-16.702 E15.17131
G1 X-16.899 Y-17.084 E15.20912
G1 X-16.419 Y-17.5 E15.25475
G1 X-15.897 Y-17.855 E15.30011
G1 X-15.197 Y-18.2 E15.35617
G1 X-14.97 Y-18.276 E15.37337
G1 X-14.318 Y-18.464 E15.42212
G1 X-13.755 Y-18.565 E15.46321
G1 X-13.158 Y-18.6 E15.50618
G1 X13.173 Y-18.6 E17.39784
G1 X13.788 Y-18.56 E17.44212
G1 X14.559 Y-18.414 E17.49849
G1 X15.301 Y-18.159 E17.55486
G1 X16.008 Y-17.792 E17.61209
G1 X16.627 Y-17.344 E17.66698
G1 X16.991 Y-17.001 E17.70292
G1 X17.368 Y-16.574 E17.74384
G1 X17.683 Y-16.136 E17.7826
G1 X18.005 Y-15.577 E17.82894
G1 X18.347 Y-14.728 E17.8947
G1 X18.521 Y-13.977 E17.95008
G1 X18.594 Y-13.215 E18.00508
G1 X18.6 Y-13.043 E18.01744
G1 X18.6 Y13.052 E19.89215
G1 X18.558 Y13.685 E19.93773
G1 X18.409 Y14.462 E19.99457
G1 X18.151 Y15.211 E20.05148
G1 X17.778 Y15.932 E20.1098
G1 X17.309 Y16.584 E20.1675
G1 X16.753 Y17.158 E20.22491
G1 X16.153 Y17.627 E20.27962
G1 X15.437 Y18.038 E20.33893
G1 X14.709 Y18.327 E20.39521
G1 X13.945 Y18.513 E20.4517
G1 X13.151 Y18.594 E20.50903
G1 X12.971 Y18.6 E20.52197
G0 F3600 X12.971 Y18.2
G1 F1500 X-12.972 Y18.2 E22.38577
G1 X-13.588 Y18.16 E22.43012
G1 X-14.308 Y18.026 E22.48273
G1 X-15.014 Y17.789 E22.53623
G1 X-15.673 Y17.458 E22.58921
G1 X-16.275 Y17.041 E22.64182
G1 X-16.798 Y16.558 E22.69297
G1 X-17.272 Y15.976 E22.74689
G1 X-17.661 Y15.319 E22.80175
G1 X-17.943 Y14.634 E22.85496
G1 X-18.117 Y13.945 E22.90602
G1 X-18.194 Y13.221 E22.95832
G1 X-18.2 Y13.053 E22.9704
G1 X-18.2 Y-13.043 E24.84519
G1 X-18.189 Y-13.26 E24.8608
G1 X-18.132 Y-13.836 E24.90238
G1 X-18.054 Y-14.239 E24.93187
G1 X-17.855 Y-14.917 E24.98263
G1 X-17.497 Y-15.692 E25.04396
G1 X-17.283 Y-16.024 E25.07234
G1 X-16.946 Y-16.456 E25.1117
G1 X-16.637 Y-16.782 E25.14397
G1 X-16.157 Y-17.198 E25.18961
G1 X-15.712 Y-17.5 E25.22824
G1 X-15.054 Y-17.826 E25.281
G1 X-14.86 Y-17.892 E25.29572
G1 X-14.208 Y-18.08 E25.34447
G1 X-13.728 Y-18.166 E25.3795
G1 X-13.158 Y-18.2 E25.42052
G1 X13.173 Y-18.2 E27.31219
G1 X13.757 Y-18.161 E27.35424
G1 X14.471 Y-18.024 E27.40647
G1 X15.158 Y-17.786 E27.45871
G1 X15.81 Y-17.444 E27.5116
G1 X16.38 Y-17.028 E27.5623
G1 X16.691 Y-16.736 E27.59294
G1 X17.068 Y-16.309 E27.63387
G1 X17.336 Y-15.936 E27.66686
G1 X17.658 Y-15.377 E27.71321
G1 X17.969 Y-14.598 E27.77347
G1 X18.129 Y-13.898 E27.82505
G1 X18.195 Y-13.189 E27.87621
G1 X18.2 Y-13.043 E27.88671
G1 X18.2 Y13.052 E29.76142
G1 X18.159 Y13.653 E29.8047
G1 X18.019 Y14.374 E29.85746
G1 X17.778 Y15.068 E29.91024
G1 X17.429 Y15.736 E29.96439
G1 X16.992 Y16.34 E30.01795
G1 X16.476 Y16.87 E30.07109
G1 X15.916 Y17.305 E30.12203
G1 X15.25 Y17.685 E30.17712
G1 X14.574 Y17.95 E30.22928
G1 X13.861 Y18.122 E30.28197
G1 X13.123 Y18.195 E30.33525
G1 X12.971 Y18.2 E30.34618
G0 F3600 X12.971 Y17.8
G1 F1500 X-12.972 Y17.8 E32.20997
G1 X-13.558 Y17.761 E32.25216
G1 X-14.224 Y17.635 E32.30086
G1 X-14.876 Y17.413 E32.35034
G1 X-15.483 Y17.106 E32.39921
G1 X-16.037 Y16.719 E32.44776
G1 X-16.518 Y16.272 E32.49493
G1 X-16.954 Y15.734 E32.54468
G1 X-17.311 Y15.125 E32.5954
G1 X-17.568 Y14.494 E32.64435
G1 X-17.726 Y13.859 E32.69136
G1 X-17.795 Y13.19 E32.73967
G1 X-17.8 Y13.053 E32.74952
G1 X-17.8 Y-13.043 E34.62431
G1 X-17.791 Y-13.22 E34.63704
G1 X-17.734 Y-13.796 E34.67862
G1 X-17.67 Y-14.126 E34.70277
G1 X-17.471 Y-14.804 E34.75354
G1 X-17.142 Y-15.507 E34.8093
G1 X-16.967 Y-15.778 E34.83248
G1 X-16.63 Y-16.21 E34.87184
G1 X-16.375 Y-16.479 E34.89847
G1 X-15.895 Y-16.895 E34.9441
G1 X-15.527 Y-17.145 E34.97606
G1 X-14.912 Y-17.452 E35.02544
G1 X-14.749 Y-17.508 E35.03782
G1 X-14.097 Y-17.696 E35.08657
G1 X-13.7 Y-17.767 E35.11555
G1 X-13.158 Y-17.8 E35.15456
G1 X13.173 Y-17.8 E37.04623
G1 X13.726 Y-17.763 E37.08604
G1 X14.383 Y-17.634 E37.13414
G1 X15.016 Y-17.412 E37.18234
G1 X15.612 Y-17.096 E37.2308
G1 X16.134 Y-16.713 E37.27731
G1 X16.391 Y-16.471 E37.30267
G1 X16.768 Y-16.044 E37.3436
G1 X16.99 Y-15.736 E37.37087
G1 X17.312 Y-15.177 E37.41722
G1 X17.59 Y-14.468 E37.47193
G1 X17.737 Y-13.82 E37.51967
G1 X17.796 Y-13.162 E37.56713
G1 X17.8 Y-13.043 E37.57568
G1 X17.8 Y13.052 E39.4504
G1 X17.76 Y13.621 E39.49137
G1 X17.629 Y14.286 E39.54007
G1 X17.404 Y14.925 E39.58874
G1 X17.081 Y15.54 E39.63864
G1 X16.676 Y16.095 E39.688
G1 X16.198 Y16.582 E39.73703
G1 X15.68 Y16.982 E39.78404
G1 X15.062 Y17.331 E39.83503
G1 X14.44 Y17.573 E39.88298
G1 X13.778 Y17.731 E39.93188
G1 X13.096 Y17.796 E39.9811
G1 X12.971 Y17.8 E39.99008
G0 F3600 X12.971 Y17.4
G1 F1500 X-12.972 Y17.4 E41.85387
G1 X-13.527 Y17.362 E41.89384
G1 X-14.14 Y17.244 E41.93869
G1 X-14.737 Y17.038 E41.98406
G1 X-15.293 Y16.754 E42.02891
G1 X-15.799 Y16.397 E42.0734
G1 X-16.239 Y15.986 E42.11666
G1 X-16.635 Y15.492 E42.16214
G1 X-16.961 Y14.932 E42.20869
G1 X-17.193 Y14.353 E42.25351
G1 X-17.335 Y13.773 E42.2964
G1 X-17.396 Y13.16 E42.34066
G1 X-17.4 Y13.053 E42.34835
G1 X-17.4 Y-13.043 E44.22314
G1 X-17.393 Y-13.181 E44.23307
G1 X-17.336 Y-13.757 E44.27465
G1 X-17.286 Y-14.013 E44.29339
G1 X-17.087 Y-14.691 E44.34415
G1 X-16.788 Y-15.321 E44.39425
G1 X-16.652 Y-15.532 E44.41229
G1 X-16.315 Y-15.964 E44.45165
G1 X-16.113 Y-16.177 E44.47274
G1 X-15.633 Y-16.593 E44.51837
G1 X-15.342 Y-16.79 E44.54362
G1 X-14.769 Y-17.078 E44.58969
G1 X-14.638 Y-17.123 E44.59964
G1 X-13.986 Y-17.311 E44.64839
G1 X-13.255 Y-17.397 E44.70127
G1 X-13.158 Y-17.4 E44.70824
G1 X13.173 Y-17.4 E46.59991
G1 X13.696 Y-17.364 E46.63757
G1 X14.295 Y-17.244 E46.68146
G1 X14.873 Y-17.038 E46.72554
G1 X15.414 Y-16.749 E46.76961
G1 X15.888 Y-16.398 E46.81198
G1 X16.091 Y-16.207 E46.832
G1 X16.468 Y-15.78 E46.87293
G1 X16.643 Y-15.537 E46.89444
G1 X16.965 Y-14.978 E46.94078
G1 X17.212 Y-14.338 E46.99007
G1 X17.345 Y-13.741 E47.03401
G1 X17.397 Y-13.136 E47.07763
G1 X17.4 Y-13.043 E47.08432
G1 X17.4 Y13.052 E48.95903
G1 X17.362 Y13.589 E48.99771
G1 X17.239 Y14.198 E49.04234
G1 X17.031 Y14.782 E49.08688
G1 X16.732 Y15.344 E49.13262
G1 X16.359 Y15.851 E49.17783
G1 X15.92 Y16.294 E49.22264
G1 X15.443 Y16.66 E49.26583
G1 X14.875 Y16.978 E49.3126
G1 X14.305 Y17.197 E49.35647
G1 X13.695 Y17.339 E49.40146
G1 X13.068 Y17.397 E49.4467
G1 X12.971 Y17.4 E49.45367
G0 F3600 X12.971 Y17
G1 F1500 X-12.972 Y17 E51.31747
G1 X-13.497 Y16.963 E51.35528
G1 X-14.056 Y16.853 E51.39621
G1 X-14.599 Y16.663 E51.43754
G1 X-15.103 Y16.402 E51.47831
G1 X-15.562 Y16.076 E51.51876
G1 X-15.959 Y15.7 E51.55804
G1 X-16.317 Y15.249 E51.59941
G1 X-16.611 Y14.739 E51.6417
G1 X-16.819 Y14.213 E51.68234
G1 X-16.945 Y13.687 E51.7212
G1 X-16.997 Y13.129 E51.76146
G1 X-17 Y13.053 E51.76692
G1 X-17 Y-13.043 E53.64171
G1 X-16.995 Y-13.141 E53.64876
G1 X-16.938 Y-13.717 E53.69034
G1 X-16.903 Y-13.901 E53.7038
G1 X-16.704 Y-14.579 E53.75456
G1 X-16.434 Y-15.135 E53.79896
G1 X-16.336 Y-15.286 E53.8119
G1 X-15.999 Y-15.718 E53.85126
G1 X-15.851 Y-15.875 E53.86676
G1 X-15.371 Y-16.291 E53.91239
G1 X-14.733 Y-16.657 E53.96523
G1 X-14.527 Y-16.739 E53.98116
G1 X-13.875 Y-16.927 E54.02991
G1 X-13.227 Y-16.998 E54.07674
G1 X-13.158 Y-17 E54.0817
G1 X13.173 Y-17 E55.97337
G1 X13.809 Y-16.943 E56.01925
G1 X14.342 Y-16.812 E56.05868
G1 X14.869 Y-16.599 E56.09951
G1 X15.337 Y-16.32 E56.13866
G1 X15.792 Y-15.942 E56.18115
G1 X16.169 Y-15.515 E56.22208
G1 X16.297 Y-15.337 E56.23783
G1 X16.619 Y-14.778 E56.28417
G1 X16.834 Y-14.208 E56.32794
G1 X16.952 Y-13.662 E56.36807
G1 X16.998 Y-13.109 E56.40794
G1 X17 Y-13.043 E56.41268
G1 X17 Y13.052 E58.28739
G1 X16.963 Y13.558 E58.32384
G1 X16.848 Y14.11 E58.36435
G1 X16.657 Y14.639 E58.40476
G1 X16.384 Y15.147 E58.44619
G1 X16.042 Y15.606 E58.48731
G1 X15.643 Y16.006 E58.5279
G1 X15.206 Y16.337 E58.56728
G1 X14.688 Y16.624 E58.60983
G1 X14.171 Y16.82 E58.64955
G1 X13.611 Y16.948 E58.69082
G1 X13.04 Y16.998 E58.732
G1 X12.971 Y17 E58.73696
G0 F3600 X12.971 Y16.6
G1 F1500 X-12.972 Y16.6 E60.60075
G1 X-13.548 Y16.553 E60.64227
G1 X-14.054 Y16.438 E60.67955
G1 X-14.537 Y16.253 E60.71671
G1 X-14.984 Y16.005 E60.75343
G1 X-15.388 Y15.7 E60.7898
G1 X-15.748 Y15.337 E60.82653
G1 X-16.046 Y14.934 E60.86253
G1 X-16.297 Y14.466 E60.90069
G1 X-16.468 Y13.992 E60.93689
G1 X-16.566 Y13.518 E60.97166
G1 X-16.6 Y13.053 E61.00516
G1 X-16.6 Y-13.043 E62.87994
G1 X-16.597 Y-13.102 E62.88419
G1 X-16.54 Y-13.678 E62.92577
G1 X-16.519 Y-13.788 E62.93382
G1 X-16.32 Y-14.466 E62.98458
G1 X-16.079 Y-14.95 E63.02342
G1 X-16.021 Y-15.04 E63.03111
G1 X-15.684 Y-15.472 E63.07048
G1 X-15.589 Y-15.572 E63.08039
G1 X-15.109 Y-15.988 E63.12602
G1 X-14.548 Y-16.302 E63.17221
G1 X-14.416 Y-16.355 E63.18242
G1 X-13.764 Y-16.543 E63.23117
G1 X-13.2 Y-16.599 E63.27189
G1 X13.173 Y-16.6 E65.16658
G1 X13.72 Y-16.553 E65.20602
G1 X14.2 Y-16.439 E65.24146
G1 X14.671 Y-16.251 E65.2779
G1 X15.091 Y-16.005 E65.31287
G1 X15.492 Y-15.677 E65.35008
G1 X15.869 Y-15.25 E65.39101
G1 X15.95 Y-15.137 E65.40099
G1 X16.272 Y-14.578 E65.44734
G1 X16.455 Y-14.078 E65.48559
G1 X16.56 Y-13.583 E65.52194
G1 X16.599 Y-13.083 E65.55797
G1 X16.6 Y13.052 E67.43556
G1 X16.551 Y13.61 E67.4758
G1 X16.433 Y14.104 E67.51229
G1 X16.246 Y14.576 E67.54877
G1 X15.987 Y15.024 E67.58594
G1 X15.667 Y15.427 E67.62291
G1 X15.304 Y15.77 E67.65879
G1 X14.896 Y16.061 E67.69479
G1 X14.421 Y16.306 E67.73319
G1 X13.96 Y16.465 E67.76823
G1 X13.445 Y16.569 E67.80597
G1 X12.971 Y16.6 E67.8401
G0 F3600 X12.985 Y16.2
G1 F1500 X-12.987 Y16.199 E69.70597
G1 X-13.464 Y16.162 E69.74035
G1 X-13.915 Y16.063 E69.77352
G1 X-14.347 Y15.901 E69.80666
G1 X-14.747 Y15.683 E69.83939
G1 X-15.108 Y15.414 E69.87173
G1 X-15.429 Y15.095 E69.90425
G1 X-15.696 Y14.741 E69.9361
G1 X-15.922 Y14.326 E69.97005
G1 X-16.077 Y13.906 E70.00221
G1 X-16.167 Y13.487 E70.033
G1 X-16.2 Y13.053 E70.06427
G1 X-16.199 Y-13.063 E71.94049
G1 X-16.142 Y-13.639 E71.98208
G1 X-16.135 Y-13.675 E71.98471
G1 X-15.936 Y-14.353 E72.03548
G1 X-15.706 Y-14.794 E72.07121
G1 X-15.357 Y-15.24 E72.11189
G1 X-15.327 Y-15.27 E72.11494
G1 X-14.847 Y-15.686 E72.16057
G1 X-14.363 Y-15.947 E72.20008
G1 X-14.305 Y-15.97 E72.20456
G1 X-13.64 Y-16.161 E72.25427
G1 X-13.172 Y-16.2 E72.28801
G1 X13.173 Y-16.2 E74.18068
G1 X13.632 Y-16.163 E74.21376
G1 X14.057 Y-16.065 E74.2451
G1 X14.473 Y-15.904 E74.27714
G1 X14.845 Y-15.69 E74.30798
G1 X15.192 Y-15.412 E74.33992
G1 X15.58 Y-14.971 E74.38212
G1 X15.603 Y-14.938 E74.38501
G1 X15.925 Y-14.379 E74.43135
G1 X16.084 Y-13.922 E74.46611
G1 X16.172 Y-13.478 E74.49863
G1 X16.2 Y-13.056 E74.52902
G1 X16.199 Y13.068 E76.40581
G1 X16.161 Y13.522 E76.43854
G1 X16.06 Y13.961 E76.47091
G1 X15.897 Y14.38 E76.50321
G1 X15.67 Y14.779 E76.53619
G1 X15.39 Y15.139 E76.56895
G1 X15.067 Y15.447 E76.60101
G1 X14.709 Y15.708 E76.63284
G1 X14.286 Y15.929 E76.66713
G1 X13.877 Y16.074 E76.69831
G1 X13.417 Y16.17 E76.73206
G1 X12.985 Y16.2 E76.76318
G1 F1500 E70.26318
G1 F600 Z1.3
;MESH:GPS_Adapter.3mf
G0 F3600 X-15.8 Y13.041 Z1.3
;TYPE:WALL-OUTER
G1 F600 Z0.3
G1 F1500 E77.09578
G1 X-15.8 Y-13.03 E78.96877
G1 X-15.748 Y-13.571 E79.00781
G1 X-15.562 Y-14.214 E79.0559
G1 X-15.383 Y-14.556 E79.08363
G1 X-15.059 Y-14.974 E79.12163
G1 X-14.593 Y-15.377 E79.16589
G1 X-14.186 Y-15.589 E79.19886
G1 X-13.552 Y-15.772 E79.24626
G1 X-13.148 Y-15.8 E79.27536
G1 X13.162 Y-15.8 E81.16552
G1 X13.552 Y-15.771 E81.19361
G1 X13.921 Y-15.689 E81.22077
G1 X14.283 Y-15.551 E81.2486
G1 X14.606 Y-15.368 E81.27527
G1 X14.898 Y-15.142 E81.3018
G1 X15.262 Y-14.728 E81.3414
G1 X15.566 Y-14.203 E81.38499
G1 X15.694 Y-13.836 E81.41291
G1 X15.773 Y-13.443 E81.44171
G1 X15.8 Y-13.032 E81.4713
G1 X15.8 Y13.041 E83.34443
G1 X15.769 Y13.442 E83.37333
G1 X15.684 Y13.826 E83.40158
G1 X15.544 Y14.192 E83.42974
G1 X15.349 Y14.541 E83.45846
G1 X15.107 Y14.856 E83.48699
G1 X14.824 Y15.13 E83.51529
G1 X14.501 Y15.366 E83.54403
G1 X14.144 Y15.555 E83.57305
G1 X13.772 Y15.688 E83.60143
G1 X13.382 Y15.771 E83.63008
G1 X12.961 Y15.8 E83.6604
G1 X-12.961 Y15.8 E85.52268
G1 X-13.388 Y15.769 E85.55344
G1 X-13.785 Y15.685 E85.58259
G1 X-14.163 Y15.546 E85.61153
G1 X-14.516 Y15.356 E85.64033
G1 X-14.833 Y15.123 E85.66859
G1 X-15.115 Y14.848 E85.69689
G1 X-15.357 Y14.529 E85.72565
G1 X-15.55 Y14.179 E85.75437
G1 X-15.688 Y13.813 E85.78247
G1 X-15.771 Y13.434 E85.81034
G1 X-15.8 Y13.041 E85.83865
G0 F3600 X-15.8 Y12.841
G0 X-15.4 Y13.026
;TYPE:WALL-INNER
G1 F1500 X-15.4 Y-13.013 E87.70935
G1 X-15.354 Y-13.496 E87.7442
G1 X-15.189 Y-14.066 E87.78683
G1 X-15.047 Y-14.337 E87.80881
G1 X-14.77 Y-14.695 E87.84133
G1 X-14.366 Y-15.044 E87.87969
