;FLAVOR:Marlin
;TIME:1287
;Filament used: 0.965129m
;Layer height: 0.1
;MINX:-16.5
;MINY:-76.653
;MINZ:0.3
;MAXX:26.492
;MAXY:-33.657
;MAXZ:6.6
;TARGET_MACHINE.NAME:Unknown
;Generated with Cura_SteamEngine 5.8.1
M140 S65
M105
M190 S65
M104 S225
M105
M109 S225
M82 ;absolute extrusion mode
;FLAVOR:Marlin
M82 ;absolute extrusion mode
G21
G90
M82
M107 T0
G28
G92 E0
G0 E3 F200
G92 E0 ; reset extrusion distance
M106 S255 ; Enable cooling fan full speed
G1 X-98 Y0 Z0.4 F3000 ; move to arc start
G3 X0 Y-98 I98 Z0.4 E40 F400 ; lay arc stripe 90deg
G92 E0 ; reset extrusion distance
G4 P500 ; wait for 0.5 sec
G0 Z10 E-1 ; Lift 15mm and retract 1mm filament
G4 P2000 ; wait for 5 sec
G0 Z15
M107 ; Disable cooling fan
G1 X0 Y-85 Z4 E0 F3000 ; get off the bed
G92 E0
G92 E0
G1 F1500 E-1
;LAYER_COUNT:64
;LAYER:0
M106 S102
G1 F600 Z1.3
G0 F1500 X3.298 Y-33.721 Z1.3
;TYPE:SKIRT
G1 F600 Z0.3
G1 F3600 E0.75698
G1 F1200 X2.071 Y-33.854 E0.84418
G1 X0.744 Y-34.077 E0.93925
G1 X-.432 Y-34.352 E1.02457
G1 X-1.728 Y-34.733 E1.12001
G1 X-2.829 Y-35.128 E1.20265
G1 X-4.12 Y-35.685 E1.30199
G1 X-5.183 Y-36.22 E1.38607
G1 X-6.382 Y-36.912 E1.48388
G1 X-7.317 Y-37.53 E1.56306
G1 X-8.477 Y-38.403 E1.66563
G1 X-9.411 Y-39.198 E1.75229
G1 X-10.383 Y-40.131 E1.84748
G1 X-11.144 Y-40.953 E1.92662
G1 X-12.051 Y-42.057 E2.02757
G1 X-12.793 Y-43.084 E2.11708
G1 X-13.492 Y-44.185 E2.20922
G1 X-14.058 Y-45.202 E2.29146
G1 X-14.657 Y-46.45 E2.38926
G1 X-15.163 Y-47.691 E2.48395
G1 X-15.573 Y-48.907 E2.57461
G1 X-15.87 Y-49.984 E2.65354
G1 X-16.173 Y-51.408 E2.7564
G1 X-16.339 Y-52.516 E2.83556
G1 X-16.467 Y-53.965 E2.93833
G1 X-16.5 Y-55.244 E3.02872
G1 X-16.466 Y-56.362 E3.10775
G1 X-16.338 Y-57.812 E3.21059
G1 X-16.171 Y-58.92 E3.28976
G1 X-15.885 Y-60.253 E3.38608
G1 X-15.513 Y-61.583 E3.48365
G1 X-15.095 Y-62.798 E3.57443
G1 X-14.64 Y-63.9 E3.65866
G1 X-14.038 Y-65.142 E3.75618
G1 X-13.457 Y-66.179 E3.84016
G1 X-12.755 Y-67.278 E3.93229
G1 X-11.974 Y-68.352 E4.02611
G1 X-11.16 Y-69.335 E4.11628
G1 X-10.247 Y-70.311 E4.21071
G1 X-9.314 Y-71.196 E4.30156
G1 X-8.367 Y-71.993 E4.38901
G1 X-7.299 Y-72.786 E4.48299
G1 X-6.225 Y-73.491 E4.57376
G1 X-5.191 Y-74.087 E4.65808
G1 X-3.954 Y-74.701 E4.75565
G1 X-2.783 Y-75.199 E4.84555
G1 X-1.717 Y-75.58 E4.92553
G1 X-.317 Y-75.985 E5.0285
G1 X0.939 Y-76.268 E5.11947
G1 X2.207 Y-76.472 E5.2102
G1 X3.482 Y-76.603 E5.30076
G1 X4.601 Y-76.653 E5.3799
G1 X6.055 Y-76.628 E5.48264
G1 X7.17 Y-76.544 E5.56164
G1 X8.607 Y-76.352 E5.66407
G1 X9.707 Y-76.136 E5.74327
G1 X11.099 Y-75.769 E5.84497
G1 X12.273 Y-75.384 E5.93227
G1 X13.537 Y-74.888 E6.0282
G1 X14.595 Y-74.396 E6.11063
G1 X15.724 Y-73.788 E6.20123
G1 X16.902 Y-73.061 E6.29903
G1 X17.971 Y-72.304 E6.39158
G1 X18.864 Y-71.591 E6.47231
G1 X19.914 Y-70.642 E6.57231
G1 X20.707 Y-69.838 E6.65209
G1 X21.658 Y-68.752 E6.75408
G1 X22.364 Y-67.838 E6.83568
G1 X23.144 Y-66.692 E6.93362
G1 X23.759 Y-65.661 E7.01843
G1 X24.412 Y-64.396 E7.11901
G1 X24.93 Y-63.221 E7.20974
G1 X25.323 Y-62.173 E7.28881
G1 X25.75 Y-60.785 E7.39141
G1 X26.051 Y-59.534 E7.48232
G1 X26.25 Y-58.434 E7.5613
G1 X26.419 Y-56.99 E7.66402
G1 X26.492 Y-55.714 E7.75432
G1 X26.485 Y-54.417 E7.84595
G1 X26.404 Y-53.132 E7.93692
G1 X26.248 Y-51.866 E8.02704
G1 X26.049 Y-50.763 E8.10623
G1 X25.698 Y-49.349 E8.20916
G1 X25.319 Y-48.126 E8.29962
G1 X24.926 Y-47.077 E8.37876
G1 X24.341 Y-45.765 E8.48026
G1 X23.731 Y-44.597 E8.57335
G1 X23.104 Y-43.557 E8.65915
G1 X22.344 Y-42.451 E8.75396
G1 X21.66 Y-41.565 E8.83304
G1 X20.704 Y-40.472 E8.93564
G1 X19.806 Y-39.566 E9.02576
G1 X18.829 Y-38.694 E9.11828
G1 X17.822 Y-37.897 E9.20901
G1 X16.806 Y-37.185 E9.29667
G1 X15.69 Y-36.5 E9.38918
G1 X14.64 Y-35.937 E9.47336
G1 X13.43 Y-35.377 E9.56756
G1 X12.165 Y-34.885 E9.66345
G1 X11.032 Y-34.518 E9.7476
G1 X9.719 Y-34.177 E9.84344
G1 X8.524 Y-33.944 E9.92946
G1 X7.201 Y-33.768 E10.02375
G1 X5.87 Y-33.673 E10.11803
G1 X4.583 Y-33.657 E10.20896
G1 X3.829 Y-33.695 E10.2623
G0 F1080 X3.298 Y-33.721
G0 F1500 X3.341 Y-34.119
G1 F1200 X2.114 Y-34.252 E10.3495
G1 X0.835 Y-34.467 E10.44113
G1 X-.319 Y-34.736 E10.52485
G1 X-1.593 Y-35.11 E10.61866
G1 X-2.694 Y-35.505 E10.7013
G1 X-3.94 Y-36.042 E10.79716
G1 X-4.983 Y-36.566 E10.87962
G1 X-6.161 Y-37.246 E10.97572
G1 X-7.096 Y-37.864 E11.05491
G1 X-8.218 Y-38.708 E11.1541
G1 X-9.152 Y-39.503 E11.24076
G1 X-10.089 Y-40.403 E11.33255
G1 X-10.85 Y-41.225 E11.41169
G1 X-11.727 Y-42.292 E11.50927
G1 X-12.455 Y-43.298 E11.59701
G1 X-13.142 Y-44.38 E11.68756
G1 X-13.708 Y-45.397 E11.76979
G1 X-14.287 Y-46.601 E11.86418
G1 X-14.784 Y-47.819 E11.95712
G1 X-15.187 Y-49.013 E12.04616
G1 X-15.484 Y-50.09 E12.12509
G1 X-15.777 Y-51.467 E12.22455
G1 X-15.943 Y-52.575 E12.30371
G1 X-16.067 Y-53.975 E12.40301
G1 X-16.1 Y-55.232 E12.49185
G1 X-16.066 Y-56.35 E12.57087
G1 X-15.942 Y-57.752 E12.67031
G1 X-15.775 Y-58.86 E12.74948
G1 X-15.5 Y-60.145 E12.84232
G1 X-15.135 Y-61.453 E12.93826
G1 X-14.725 Y-62.645 E13.02732
G1 X-14.27 Y-63.747 E13.11155
G1 X-13.689 Y-64.946 E13.20569
G1 X-13.108 Y-65.983 E13.28967
G1 X-12.431 Y-67.043 E13.37853
G1 X-11.65 Y-68.117 E13.47235
G1 X-10.868 Y-69.062 E13.55901
G1 X-9.972 Y-70.021 E13.65174
G1 X-9.056 Y-70.89 E13.74094
G1 X-8.128 Y-71.672 E13.82668
G1 X-7.079 Y-72.452 E13.91904
G1 X-6.025 Y-73.144 E14.00812
G1 X-4.991 Y-73.74 E14.09244
G1 X-3.797 Y-74.333 E14.18663
G1 X-2.648 Y-74.822 E14.27485
G1 X-1.582 Y-75.203 E14.35484
G1 X-.229 Y-75.595 E14.45436
G1 X1.003 Y-75.873 E14.54359
G1 X2.248 Y-76.074 E14.63269
G1 X3.5 Y-76.203 E14.72161
G1 X4.619 Y-76.253 E14.80075
G1 X6.025 Y-76.229 E14.9001
G1 X7.14 Y-76.145 E14.9791
G1 X8.53 Y-75.959 E15.07818
G1 X9.63 Y-75.743 E15.15738
G1 X10.974 Y-75.389 E15.25558
G1 X12.148 Y-75.004 E15.34287
G1 X13.368 Y-74.525 E15.43547
G1 X14.426 Y-74.033 E15.5179
G1 X15.514 Y-73.447 E15.60521
G1 X16.671 Y-72.734 E15.70123
G1 X17.721 Y-71.991 E15.79211
G1 X18.614 Y-71.278 E15.87285
G1 X19.629 Y-70.361 E15.96949
G1 X20.422 Y-69.557 E16.04927
G1 X21.341 Y-68.507 E16.14786
G1 X22.047 Y-67.593 E16.22945
G1 X22.8 Y-66.487 E16.32399
G1 X23.415 Y-65.456 E16.4088
G1 X24.046 Y-64.235 E16.50591
G1 X24.555 Y-63.081 E16.59502
G1 X24.948 Y-62.033 E16.6741
G1 X25.361 Y-60.691 E16.7733
G1 X25.657 Y-59.463 E16.86254
G1 X25.856 Y-58.363 E16.94152
G1 X26.02 Y-56.967 E17.04083
G1 X26.092 Y-55.716 E17.12936
G1 X26.086 Y-54.442 E17.21937
G1 X26.007 Y-53.181 E17.30864
G1 X25.854 Y-51.937 E17.39719
G1 X25.655 Y-50.834 E17.47638
G1 X25.316 Y-49.467 E17.57588
G1 X24.944 Y-48.266 E17.66471
G1 X24.551 Y-47.217 E17.74385
G1 X23.986 Y-45.95 E17.84187
G1 X23.388 Y-44.804 E17.93319
G1 X22.761 Y-43.764 E18.01899
G1 X22.027 Y-42.695 E18.11061
G1 X21.343 Y-41.809 E18.18969
G1 X20.42 Y-40.753 E18.28878
G1 X19.54 Y-39.864 E18.37716
G1 X18.581 Y-39.008 E18.46798
G1 X17.592 Y-38.225 E18.5571
G1 X16.576 Y-37.513 E18.64475
G1 X15.501 Y-36.853 E18.73387
G1 X14.451 Y-36.29 E18.81805
G1 X13.285 Y-35.75 E18.90883
G1 X12.042 Y-35.266 E19.00308
G1 X10.909 Y-34.899 E19.08722
G1 X9.642 Y-34.57 E19.1797
G1 X8.471 Y-34.341 E19.264
G1 X7.148 Y-34.165 E19.3583
G1 X5.865 Y-34.073 E19.44918
G1 X4.603 Y-34.057 E19.53835
G1 X3.872 Y-34.093 E19.59005
G0 F1080 X3.341 Y-34.119
G0 F1500 X3.384 Y-34.517
G1 F1200 X2.157 Y-34.65 E19.67725
G1 X0.926 Y-34.857 E19.76545
G1 X-.206 Y-35.12 E19.84755
G1 X-1.458 Y-35.487 E19.93973
G1 X-2.559 Y-35.882 E20.02237
G1 X-3.761 Y-36.399 E20.11482
G1 X-4.783 Y-36.912 E20.19561
G1 X-5.94 Y-37.58 E20.29
G1 X-6.875 Y-38.198 E20.36918
G1 X-7.959 Y-39.013 E20.465
G1 X-8.875 Y-39.792 E20.54996
G1 X-9.795 Y-40.675 E20.64005
G1 X-10.556 Y-41.497 E20.71919
G1 X-11.418 Y-42.546 E20.81512
G1 X-12.117 Y-43.512 E20.89936
G1 X-12.792 Y-44.575 E20.98833
G1 X-13.358 Y-45.592 E21.07056
G1 X-13.926 Y-46.774 E21.16321
G1 X-14.405 Y-47.947 E21.25273
G1 X-14.801 Y-49.119 E21.34013
G1 X-15.098 Y-50.196 E21.41906
G1 X-15.381 Y-51.526 E21.51513
G1 X-15.547 Y-52.634 E21.59428
G1 X-15.667 Y-53.986 E21.69018
G1 X-15.7 Y-55.22 E21.7774
G1 X-15.666 Y-56.338 E21.85642
G1 X-15.546 Y-57.692 E21.95246
G1 X-15.379 Y-58.8 E22.03162
G1 X-15.109 Y-60.061 E22.12273
G1 X-14.757 Y-61.323 E22.2153
G1 X-14.355 Y-62.492 E22.30264
G1 X-13.9 Y-63.594 E22.38687
G1 X-13.34 Y-64.75 E22.47762
G1 X-12.759 Y-65.787 E22.5616
G1 X-12.094 Y-66.828 E22.64888
G1 X-11.342 Y-67.862 E22.73921
G1 X-10.576 Y-68.789 E22.82417
G1 X-9.697 Y-69.731 E22.9152
G1 X-8.798 Y-70.584 E23.00275
G1 X-7.889 Y-71.351 E23.08678
G1 X-6.859 Y-72.118 E23.17752
G1 X-5.825 Y-72.797 E23.26491
G1 X-4.791 Y-73.393 E23.34923
G1 X-3.64 Y-73.965 E23.44004
G1 X-2.513 Y-74.445 E23.52659
G1 X-1.447 Y-74.826 E23.60657
G1 X-.141 Y-75.205 E23.70264
G1 X1.067 Y-75.478 E23.79014
G1 X2.289 Y-75.676 E23.8776
G1 X3.518 Y-75.803 E23.9649
G1 X4.637 Y-75.853 E24.04404
G1 X5.995 Y-75.83 E24.13999
G1 X7.11 Y-75.746 E24.21899
G1 X8.453 Y-75.566 E24.31473
G1 X9.553 Y-75.35 E24.39393
G1 X10.849 Y-75.009 E24.48861
G1 X12.023 Y-74.624 E24.5759
G1 X13.199 Y-74.162 E24.66517
G1 X14.257 Y-73.67 E24.7476
G1 X15.304 Y-73.106 E24.83163
G1 X16.461 Y-72.393 E24.92764
G1 X17.471 Y-71.678 E25.01507
G1 X18.364 Y-70.965 E25.09581
G1 X19.344 Y-70.08 E25.1891
G1 X20.137 Y-69.276 E25.26889
G1 X21.024 Y-68.262 E25.36407
G1 X21.73 Y-67.348 E25.44566
G1 X22.456 Y-66.282 E25.53679
G1 X23.071 Y-65.251 E25.6216
G1 X23.68 Y-64.073 E25.71529
G1 X24.18 Y-62.941 E25.80273
G1 X24.573 Y-61.893 E25.8818
G1 X24.972 Y-60.597 E25.97761
G1 X25.263 Y-59.392 E26.06519
G1 X25.462 Y-58.292 E26.14417
G1 X25.621 Y-56.944 E26.24007
G1 X25.692 Y-55.718 E26.32683
G1 X25.687 Y-54.467 E26.41522
G1 X25.61 Y-53.23 E26.50278
G1 X25.46 Y-52.008 E26.58977
G1 X25.261 Y-50.905 E26.66895
G1 X24.934 Y-49.585 E26.76503
G1 X24.569 Y-48.406 E26.85223
G1 X24.176 Y-47.357 E26.93137
G1 X23.621 Y-46.113 E27.02761
G1 X23.045 Y-45.011 E27.11547
G1 X22.418 Y-43.971 E27.20126
G1 X21.71 Y-42.939 E27.28969
G1 X21.026 Y-42.053 E27.36877
G1 X20.136 Y-41.034 E27.46435
G1 X19.273 Y-40.162 E27.55103
G1 X18.333 Y-39.322 E27.6401
G1 X17.362 Y-38.553 E27.72761
G1 X16.346 Y-37.841 E27.81526
G1 X15.312 Y-37.206 E27.90099
G1 X14.262 Y-36.643 E27.98517
G1 X13.14 Y-36.123 E28.07254
G1 X11.919 Y-35.647 E28.16513
G1 X10.786 Y-35.28 E28.24927
G1 X9.565 Y-34.963 E28.33839
G1 X8.418 Y-34.738 E28.42098
G1 X7.095 Y-34.562 E28.51527
G1 X5.86 Y-34.473 E28.60275
G1 X4.622 Y-34.457 E28.69023
G1 X3.915 Y-34.492 E28.74024
G0 F1080 X3.384 Y-34.517
G0 F1500 X3.427 Y-34.915
G1 F1200 X2.223 Y-35.045 E28.8258
G1 X1.017 Y-35.247 E28.91219
G1 X-.115 Y-35.51 E28.9943
G1 X-1.323 Y-35.864 E29.08323
G1 X-2.401 Y-36.25 E29.16413
G1 X-3.582 Y-36.757 E29.25493
G1 X-4.583 Y-37.259 E29.33405
G1 X-5.719 Y-37.914 E29.4267
G1 X-6.654 Y-38.532 E29.50588
G1 X-7.7 Y-39.318 E29.59832
G1 X-8.616 Y-40.097 E29.68328
G1 X-9.501 Y-40.947 E29.76997
G1 X-10.262 Y-41.769 E29.84911
G1 X-11.094 Y-42.781 E29.94167
G1 X-11.779 Y-43.726 E30.02414
G1 X-12.442 Y-44.77 E30.11151
G1 X-13.008 Y-45.787 E30.19374
G1 X-13.565 Y-46.947 E30.28466
G1 X-14.026 Y-48.075 E30.37075
G1 X-14.415 Y-49.225 E30.45652
G1 X-14.712 Y-50.302 E30.53545
G1 X-14.985 Y-51.585 E30.62813
G1 X-15.151 Y-52.693 E30.70728
G1 X-15.267 Y-53.997 E30.79978
G1 X-15.3 Y-55.208 E30.88537
G1 X-15.266 Y-56.326 E30.96439
G1 X-15.15 Y-57.632 E31.05703
G1 X-14.983 Y-58.74 E31.13619
G1 X-14.718 Y-59.977 E31.22557
G1 X-14.379 Y-61.193 E31.31476
G1 X-13.985 Y-62.339 E31.40038
G1 X-13.53 Y-63.441 E31.48461
G1 X-12.991 Y-64.554 E31.57198
G1 X-12.41 Y-65.591 E31.65596
G1 X-11.757 Y-66.613 E31.74165
G1 X-11.034 Y-67.607 E31.82849
G1 X-10.283 Y-68.516 E31.91179
G1 X-9.421 Y-69.441 E32.00113
G1 X-8.54 Y-70.278 E32.08698
G1 X-7.65 Y-71.03 E32.1693
G1 X-6.639 Y-71.784 E32.25841
G1 X-5.625 Y-72.45 E32.34412
G1 X-4.591 Y-73.046 E32.42844
G1 X-3.483 Y-73.597 E32.51587
G1 X-2.378 Y-74.068 E32.60073
G1 X-1.312 Y-74.449 E32.68071
G1 X-0.053 Y-74.815 E32.77335
G1 X1.131 Y-75.083 E32.85911
G1 X2.33 Y-75.278 E32.94494
G1 X3.536 Y-75.403 E33.0306
G1 X4.655 Y-75.453 E33.10974
G1 X5.965 Y-75.431 E33.2023
G1 X7.08 Y-75.347 E33.2813
G1 X8.376 Y-75.173 E33.37369
G1 X9.476 Y-74.957 E33.45289
G1 X10.724 Y-74.629 E33.54406
G1 X11.898 Y-74.244 E33.63135
G1 X13.03 Y-73.799 E33.71728
G1 X14.088 Y-73.307 E33.79972
G1 X15.114 Y-72.754 E33.88207
G1 X16.23 Y-72.066 E33.97469
G1 X17.221 Y-71.365 E34.06045
G1 X18.114 Y-70.652 E34.14119
G1 X19.059 Y-69.799 E34.23113
G1 X19.852 Y-68.995 E34.31092
G1 X20.707 Y-68.017 E34.4027
G1 X21.413 Y-67.103 E34.48429
G1 X22.112 Y-66.077 E34.572
G1 X22.727 Y-65.046 E34.65682
G1 X23.314 Y-63.911 E34.7471
G1 X23.805 Y-62.801 E34.83285
G1 X24.198 Y-61.753 E34.91193
G1 X24.583 Y-60.503 E35.00434
G1 X24.869 Y-59.321 E35.09026
G1 X25.068 Y-58.221 E35.16924
G1 X25.222 Y-56.921 E35.26173
G1 X25.292 Y-55.719 E35.34679
G1 X25.288 Y-54.492 E35.43348
G1 X25.213 Y-53.279 E35.51935
G1 X25.066 Y-52.079 E35.60476
G1 X24.867 Y-50.976 E35.68395
G1 X24.552 Y-49.703 E35.7766
G1 X24.194 Y-48.546 E35.86217
G1 X23.801 Y-47.497 E35.94131
G1 X23.266 Y-46.298 E36.03407
G1 X22.702 Y-45.218 E36.12015
G1 X22.075 Y-44.178 E36.20595
G1 X21.393 Y-43.183 E36.29118
G1 X20.709 Y-42.297 E36.37026
G1 X19.852 Y-41.315 E36.46234
G1 X19.006 Y-40.46 E36.54732
G1 X18.084 Y-39.635 E36.63474
G1 X17.132 Y-38.88 E36.72058
G1 X16.137 Y-38.182 E36.80645
G1 X15.123 Y-37.559 E36.89053
G1 X14.073 Y-36.996 E36.97471
G1 X12.995 Y-36.496 E37.05866
G1 X11.796 Y-36.028 E37.1496
G1 X10.663 Y-35.661 E37.23374
G1 X9.488 Y-35.356 E37.31951
G1 X8.341 Y-35.131 E37.40209
G1 X7.066 Y-34.961 E37.49297
G1 X5.855 Y-34.873 E37.57875
G1 X4.641 Y-34.857 E37.66453
G1 X3.958 Y-34.89 E37.71284
G0 F1080 X3.427 Y-34.915
G0 F1500 X3.47 Y-35.313
G1 F1200 X2.289 Y-35.44 E37.79676
G1 X1.108 Y-35.637 E37.88135
G1 X-0.024 Y-35.9 E37.96346
G1 X-1.188 Y-36.241 E38.04916
G1 X-2.243 Y-36.618 E38.12831
G1 X-3.403 Y-37.115 E38.21747
G1 X-4.404 Y-37.617 E38.29659
G1 X-5.498 Y-38.248 E38.38582
G1 X-6.433 Y-38.866 E38.465
G1 X-7.441 Y-39.623 E38.55406
G1 X-8.339 Y-40.386 E38.63732
G1 X-9.207 Y-41.219 E38.72231
G1 X-9.968 Y-42.041 E38.80146
G1 X-10.77 Y-43.016 E38.89065
G1 X-11.441 Y-43.941 E38.97139
G1 X-12.092 Y-44.965 E39.05712
G1 X-12.658 Y-45.982 E39.13935
G1 X-13.195 Y-47.098 E39.22685
G1 X-13.647 Y-48.203 E39.3112
G1 X-14.029 Y-49.331 E39.39534
G1 X-14.326 Y-50.408 E39.47427
G1 X-14.589 Y-51.644 E39.56355
G1 X-14.755 Y-52.752 E39.64271
G1 X-14.867 Y-54.008 E39.7318
G1 X-14.9 Y-55.196 E39.81576
G1 X-14.866 Y-56.314 E39.89479
G1 X-14.754 Y-57.572 E39.98402
G1 X-14.587 Y-58.68 E40.06318
G1 X-14.333 Y-59.87 E40.14915
G1 X-14.001 Y-61.063 E40.23664
G1 X-13.615 Y-62.186 E40.32054
G1 X-13.16 Y-63.288 E40.40477
G1 X-12.642 Y-64.358 E40.48876
G1 X-12.061 Y-65.395 E40.57275
G1 X-11.433 Y-66.378 E40.65516
G1 X-10.725 Y-67.352 E40.74023
G1 X-9.99 Y-68.243 E40.82184
G1 X-9.145 Y-69.151 E40.90947
G1 X-8.282 Y-69.972 E40.99363
G1 X-7.392 Y-70.724 E41.07595
G1 X-6.42 Y-71.45 E41.16166
G1 X-5.425 Y-72.103 E41.24575
G1 X-4.391 Y-72.699 E41.33007
G1 X-3.326 Y-73.229 E41.41411
G1 X-2.243 Y-73.691 E41.4973
G1 X-1.177 Y-74.072 E41.57728
G1 X0.035 Y-74.425 E41.66647
G1 X1.196 Y-74.688 E41.75057
G1 X2.371 Y-74.88 E41.83469
G1 X3.554 Y-75.003 E41.91872
G1 X4.673 Y-75.053 E41.99786
G1 X5.935 Y-75.032 E42.08703
G1 X7.05 Y-74.948 E42.16603
G1 X8.299 Y-74.78 E42.25507
G1 X9.399 Y-74.564 E42.33427
G1 X10.6 Y-74.249 E42.42199
G1 X11.752 Y-73.872 E42.50763
G1 X12.861 Y-73.436 E42.59182
G1 X13.919 Y-72.944 E42.67426
G1 X14.924 Y-72.402 E42.75493
G1 X15.999 Y-71.739 E42.84416
G1 X16.971 Y-71.052 E42.92826
G1 X17.864 Y-70.339 E43.00899
G1 X18.774 Y-69.518 E43.09558
