;FLAVOR:Marlin
;TIME:504
;Filament used: 0.359846m
;Layer height: 0.12
;MINX:-15
;MINY:-15
;MINZ:0.3
;MAXX:15
;MAXY:15
;MAXZ:4.9
;Generated with Cura_SteamEngine 4.13.1
M140 S50
M105
M190 S50
M104 S210
M105
M109 S210
M82 ;absolute extrusion mode
;FLAVOR:Marlin
M82 ;absolute extrusion mode
G21
G90
M82
M107 T0
G28
G92 E0
G0 E3 F200
G92 E0 ; reset extrusion distance
M106 S255 ; Enable cooling fan full speed
G1 X-98 Y0 Z0.4 F3000 ; move to arc start
G3 X0 Y-98 I98 Z0.4 E40 F400 ; lay arc stripe 90deg
G92 E0 ; reset extrusion distance
G4 P500 ; wait for 0.5 sec
G0 Z10 E-1 ; Lift 15mm and retract 1mm filament
G4 P2000 ; wait for 5 sec
G0 Z15
M107 ; Disable cooling fan
G1 X0 Y-85 Z4 E0 F3000 ; get off the bed
G92 E0
G92 E0
G1 F1500 E-6.5
;LAYER_COUNT:32
;LAYER:0
M106 S25.5
G1 F600 Z1.3
G0 F3600 X15 Y10 Z1.3
;TYPE:SKIRT
G1 F600 Z0.3
G1 F1500 E0.3326
G1 F2400 X14.97 Y10.517 E0.35844
G1 X14.845 Y11.222 E0.39416
G1 X14.627 Y11.885 E0.42898
G1 X14.305 Y12.535 E0.46517
G1 X13.917 Y13.102 E0.49945
G1 X13.432 Y13.631 E0.53525
G1 X12.858 Y14.098 E0.57217
G1 X12.252 Y14.46 E0.60738
G1 X11.622 Y14.726 E0.6415
G1 X10.903 Y14.914 E0.67858
G1 X10.209 Y14.993 E0.71343
G1 X10 Y15 E0.72386
G1 X-10.013 Y14.999 E1.72231
G1 X-10.517 Y14.97 E1.7475
G1 X-11.228 Y14.843 E1.78353
G1 X-11.889 Y14.625 E1.81826
G1 X-12.53 Y14.307 E1.85396
G1 X-13.108 Y13.913 E1.88885
G1 X-13.631 Y13.432 E1.9243
G1 X-14.098 Y12.858 E1.96122
G1 X-14.457 Y12.257 E1.99615
G1 X-14.728 Y11.614 E2.03096
G1 X-14.915 Y10.896 E2.06798
G1 X-14.993 Y10.212 E2.10232
G1 X-15 Y10.001 E2.11285
G1 X-14.999 Y-10.013 E3.11136
G1 X-14.97 Y-10.517 E3.13654
G1 X-14.843 Y-11.228 E3.17258
G1 X-14.627 Y-11.886 E3.20713
G1 X-14.305 Y-12.535 E3.24327
G1 X-13.913 Y-13.108 E3.27791
G1 X-13.432 Y-13.631 E3.31336
G1 X-12.858 Y-14.098 E3.35028
G1 X-12.257 Y-14.457 E3.3852
G1 X-11.618 Y-14.727 E3.41981
G1 X-10.903 Y-14.914 E3.45668
G1 X-10.209 Y-14.993 E3.49153
G1 X-10 Y-15 E3.50196
G1 X10.013 Y-14.999 E4.50042
G1 X10.517 Y-14.97 E4.5256
G1 X11.228 Y-14.843 E4.56164
G1 X11.886 Y-14.627 E4.59619
G1 X12.535 Y-14.305 E4.63233
G1 X13.108 Y-13.913 E4.66697
G1 X13.631 Y-13.432 E4.70242
G1 X14.098 Y-12.858 E4.73934
G1 X14.457 Y-12.257 E4.77426
G1 X14.727 Y-11.618 E4.80887
G1 X14.914 Y-10.906 E4.8456
G1 X14.993 Y-10.21 E4.88054
G1 X15 Y-10.001 E4.89098
G1 X15 Y10 E5.88883
G0 F3600 X14.6 Y10
G1 F2400 X14.516 Y10.856 E5.93174
G1 X14.35 Y11.486 E5.96425
G1 X14.097 Y12.082 E5.99655
G1 X13.761 Y12.643 E6.02917
G1 X13.35 Y13.147 E6.06162
G1 X12.86 Y13.598 E6.09484
G1 X12.305 Y13.977 E6.12837
G1 X11.744 Y14.252 E6.15954
G1 X11.112 Y14.46 E6.19274
G1 X10.453 Y14.575 E6.22611
G1 X10 Y14.6 E6.24875
G1 X-10.013 Y14.599 E7.2472
G1 X-10.859 Y14.515 E7.28961
G1 X-11.493 Y14.347 E7.32234
G1 X-12.077 Y14.099 E7.35399
G1 X-12.646 Y13.758 E7.38708
G1 X-13.149 Y13.348 E7.41946
G1 X-13.598 Y12.86 E7.45254
G1 X-13.974 Y12.309 E7.48582
G1 X-14.254 Y11.741 E7.51742
G1 X-14.462 Y11.104 E7.55085
G1 X-14.575 Y10.454 E7.58376
G1 X-14.6 Y10.001 E7.6064
G1 X-14.599 Y-10.013 E8.6049
G1 X-14.515 Y-10.859 E8.64732
G1 X-14.348 Y-11.49 E8.67988
G1 X-14.097 Y-12.082 E8.71196
G1 X-13.758 Y-12.646 E8.74479
G1 X-13.348 Y-13.149 E8.77716
G1 X-12.86 Y-13.598 E8.81025
G1 X-12.309 Y-13.974 E8.84353
G1 X-11.742 Y-14.253 E8.87506
G1 X-11.112 Y-14.46 E8.90814
G1 X-10.453 Y-14.575 E8.94151
G1 X-10 Y-14.6 E8.96415
G1 X10.013 Y-14.599 E9.9626
G1 X10.859 Y-14.515 E10.00502
G1 X11.49 Y-14.348 E10.03758
G1 X12.082 Y-14.097 E10.06966
G1 X12.646 Y-13.758 E10.10249
G1 X13.149 Y-13.348 E10.13487
G1 X13.598 Y-12.86 E10.16795
G1 X13.974 Y-12.309 E10.20123
G1 X14.253 Y-11.742 E10.23276
G1 X14.46 Y-11.113 E10.26579
G1 X14.575 Y-10.454 E10.29917
G1 X14.6 Y-10.001 E10.3218
G1 X14.6 Y10 E11.31966
G0 F3600 X14.2 Y10
G1 F2400 X14.126 Y10.769 E11.3582
G1 X13.975 Y11.345 E11.38791
G1 X13.747 Y11.889 E11.41733
G1 X13.44 Y12.404 E11.44725
G1 X13.068 Y12.865 E11.4768
G1 X12.622 Y13.277 E11.50709
G1 X12.115 Y13.625 E11.53777
G1 X11.603 Y13.878 E11.56626
G1 X11.027 Y14.069 E11.59654
G1 X10.425 Y14.176 E11.62704
G1 X10 Y14.2 E11.64828
G1 X-10.013 Y14.199 E12.64673
G1 X-10.772 Y14.125 E12.68478
G1 X-11.352 Y13.973 E12.71469
G1 X-11.885 Y13.748 E12.74356
G1 X-12.406 Y13.438 E12.7738
G1 X-12.867 Y13.066 E12.80336
G1 X-13.277 Y12.622 E12.83351
G1 X-13.623 Y12.118 E12.86401
G1 X-13.879 Y11.601 E12.89279
G1 X-14.071 Y11.02 E12.92332
G1 X-14.176 Y10.425 E12.95346
G1 X-14.2 Y10.001 E12.97465
G1 X-14.199 Y-10.013 E13.97315
G1 X-14.125 Y-10.772 E14.0112
G1 X-13.974 Y-11.349 E14.04095
G1 X-13.747 Y-11.889 E14.07018
G1 X-13.438 Y-12.406 E14.10023
G1 X-13.066 Y-12.867 E14.12978
G1 X-12.622 Y-13.277 E14.15993
G1 X-12.118 Y-13.623 E14.19043
G1 X-11.601 Y-13.879 E14.21921
G1 X-11.027 Y-14.069 E14.24938
G1 X-10.425 Y-14.176 E14.27988
G1 X-10 Y-14.2 E14.30112
G1 X10.013 Y-14.199 E15.29957
G1 X10.772 Y-14.125 E15.33762
G1 X11.349 Y-13.974 E15.36737
G1 X11.889 Y-13.747 E15.3966
G1 X12.406 Y-13.438 E15.42665
G1 X12.867 Y-13.066 E15.4562
G1 X13.277 Y-12.622 E15.48635
G1 X13.623 Y-12.118 E15.51685
G1 X13.879 Y-11.601 E15.54563
G1 X14.069 Y-11.029 E15.5757
G1 X14.176 Y-10.426 E15.60626
G1 X14.2 Y-10.001 E15.6275
G1 X14.2 Y10 E16.62535
G0 F3600 X13.8 Y10
G1 F2400 X13.735 Y10.682 E16.65953
G1 X13.601 Y11.204 E16.68642
G1 X13.396 Y11.696 E16.71301
G1 X13.119 Y12.165 E16.74018
G1 X12.785 Y12.582 E16.76684
G1 X12.383 Y12.956 E16.79423
G1 X11.925 Y13.272 E16.82199
G1 X11.462 Y13.504 E16.84783
G1 X10.943 Y13.678 E16.87514
G1 X10.397 Y13.777 E16.90282
G1 X10 Y13.8 E16.92266
G1 X-10.013 Y13.799 E17.92111
G1 X-10.684 Y13.735 E17.95474
G1 X-11.21 Y13.599 E17.98185
G1 X-11.693 Y13.398 E18.00795
G1 X-12.167 Y13.118 E18.03541
G1 X-12.584 Y12.783 E18.0621
G1 X-12.956 Y12.383 E18.08935
G1 X-13.271 Y11.928 E18.11696
G1 X-13.505 Y11.46 E18.14307
G1 X-13.679 Y10.937 E18.17056
G1 X-13.777 Y10.397 E18.19794
G1 X-13.8 Y10.001 E18.21773
G1 X-13.799 Y-10.013 E19.21624
G1 X-13.735 Y-10.684 E19.24987
G1 X-13.6 Y-11.208 E19.27686
G1 X-13.396 Y-11.696 E19.30325
G1 X-13.118 Y-12.167 E19.33054
G1 X-12.783 Y-12.584 E19.35722
G1 X-12.383 Y-12.956 E19.38447
G1 X-11.928 Y-13.271 E19.41208
G1 X-11.461 Y-13.504 E19.43812
G1 X-10.943 Y-13.678 E19.46538
G1 X-10.397 Y-13.777 E19.49307
G1 X-10 Y-13.8 E19.51291
G1 X10.013 Y-13.799 E20.51136
G1 X10.684 Y-13.735 E20.54499
G1 X11.208 Y-13.6 E20.57198
G1 X11.696 Y-13.396 E20.59837
G1 X12.167 Y-13.118 E20.62566
G1 X12.584 Y-12.783 E20.65234
G1 X12.956 Y-12.383 E20.6796
G1 X13.271 Y-11.928 E20.70721
G1 X13.504 Y-11.461 E20.73324
G1 X13.678 Y-10.945 E20.76041
G1 X13.777 Y-10.398 E20.78814
G1 X13.8 Y-10.001 E20.80798
G1 X13.8 Y10 E21.80584
G0 F3600 X13.4 Y10
G1 F2400 X13.345 Y10.596 E21.8357
G1 X13.129 Y11.322 E21.87349
G1 X12.798 Y11.926 E21.90785
G1 X12.502 Y12.299 E21.93161
G1 X12.145 Y12.634 E21.95603
G1 X11.735 Y12.92 E21.98097
G1 X11.058 Y13.228 E22.01808
G1 X10.566 Y13.35 E22.04337
G1 X10 Y13.4 E22.07171
G1 X-10.013 Y13.399 E23.07017
G1 X-10.597 Y13.344 E23.09943
G1 X-11.323 Y13.129 E23.13721
G1 X-11.927 Y12.797 E23.17159
G1 X-12.301 Y12.5 E23.19542
G1 X-12.634 Y12.145 E23.2197
G1 X-12.919 Y11.737 E23.24453
G1 X-13.23 Y11.053 E23.28202
G1 X-13.35 Y10.563 E23.30719
G1 X-13.4 Y10.001 E23.33534
G1 X-13.399 Y-10.013 E24.33384
G1 X-13.344 Y-10.597 E24.3631
G1 X-13.129 Y-11.322 E24.40083
G1 X-12.797 Y-11.927 E24.43526
G1 X-12.5 Y-12.301 E24.45909
G1 X-12.145 Y-12.634 E24.48337
G1 X-11.737 Y-12.919 E24.5082
G1 X-11.057 Y-13.229 E24.54549
G1 X-10.566 Y-13.35 E24.57071
G1 X-10 Y-13.4 E24.59906
G1 X10.013 Y-13.399 E25.59752
G1 X10.597 Y-13.344 E25.62678
G1 X11.322 Y-13.129 E25.66451
G1 X11.927 Y-12.797 E25.69894
G1 X12.301 Y-12.5 E25.72276
G1 X12.634 Y-12.145 E25.74705
G1 X12.919 Y-11.737 E25.77188
G1 X13.229 Y-11.057 E25.80916
G1 X13.35 Y-10.568 E25.83429
G1 X13.4 Y-10.001 E25.86269
G1 X13.4 Y10 E26.86054
G0 F3600 X13 Y10
G1 F2400 X12.954 Y10.509 E26.88604
G1 X12.755 Y11.181 E26.92101
G1 X12.478 Y11.687 E26.94979
G1 X12.018 Y12.217 E26.9848
G1 X11.546 Y12.568 E27.01414
G1 X10.917 Y12.854 E27.04862
G1 X10.342 Y12.979 E27.07797
G1 X10 Y13 E27.09507
G1 X-10.013 Y12.999 E28.09352
G1 X-10.51 Y12.954 E28.11842
G1 X-11.182 Y12.754 E28.1534
G1 X-11.688 Y12.477 E28.18218
G1 X-12.217 Y12.018 E28.21712
G1 X-12.567 Y11.547 E28.24639
G1 X-12.855 Y10.913 E28.28114
G1 X-12.979 Y10.341 E28.31034
G1 X-13 Y10.001 E28.32733
G1 X-12.999 Y-10.013 E29.32583
G1 X-12.954 Y-10.51 E29.35073
G1 X-12.755 Y-11.181 E29.38565
G1 X-12.477 Y-11.688 E29.4145
G1 X-12.018 Y-12.217 E29.44944
G1 X-11.547 Y-12.567 E29.47871
G1 X-10.916 Y-12.854 E29.5133
G1 X-10.342 Y-12.979 E29.5426
G1 X-10 Y-13 E29.5597
G1 X10.013 Y-12.999 E30.55815
G1 X10.51 Y-12.954 E30.58305
G1 X11.181 Y-12.755 E30.61797
G1 X11.688 Y-12.477 E30.64681
G1 X12.217 Y-12.018 E30.68176
G1 X12.567 Y-11.547 E30.71103
G1 X12.854 Y-10.916 E30.74562
G1 X12.979 Y-10.343 E30.77487
G1 X13 Y-10.001 E30.79197
G1 X13 Y10 E31.78982
G0 F3600 X12.6 Y10
G1 F2400 X12.564 Y10.422 E31.81095
G1 X12.381 Y11.04 E31.84311
G1 X12.157 Y11.448 E31.86633
G1 X11.735 Y11.934 E31.89844
G1 X11.356 Y12.216 E31.92201
G1 X10.776 Y12.48 E31.9538
G1 X10.314 Y12.58 E31.97739
G1 X10 Y12.6 E31.99308
G1 X-10.013 Y12.599 E32.99154
G1 X-10.423 Y12.564 E33.01207
G1 X-11.04 Y12.38 E33.04419
G1 X-11.448 Y12.157 E33.06738
G1 X-11.934 Y11.735 E33.0995
G1 X-12.216 Y11.357 E33.12302
G1 X-12.481 Y10.772 E33.15506
G1 X-12.58 Y10.313 E33.17849
G1 X-12.6 Y10.001 E33.19409
G1 X-12.599 Y-10.013 E34.19259
G1 X-12.564 Y-10.423 E34.21312
G1 X-12.381 Y-11.04 E34.24523
G1 X-12.157 Y-11.448 E34.26845
G1 X-11.735 Y-11.934 E34.30056
G1 X-11.357 Y-12.216 E34.32409
G1 X-10.776 Y-12.48 E34.35593
G1 X-10.314 Y-12.58 E34.37951
G1 X-10 Y-12.6 E34.39521
G1 X10.013 Y-12.599 E35.39366
G1 X10.423 Y-12.564 E35.41419
G1 X11.04 Y-12.381 E35.4463
G1 X11.448 Y-12.157 E35.46952
G1 X11.934 Y-11.735 E35.50163
G1 X12.216 Y-11.357 E35.52516
G1 X12.48 Y-10.776 E35.557
G1 X12.58 Y-10.315 E35.58053
G1 X12.6 Y-10.001 E35.59623
G1 X12.6 Y10 E36.59408
G0 F3600 X12.199 Y10.015
G1 F2400 X12.111 Y10.614 E36.62429
G1 X11.851 Y11.185 E36.65559
G1 X11.452 Y11.651 E36.6862
G1 X11.166 Y11.864 E36.70399
G1 X10.635 Y12.105 E36.73308
G1 X10.014 Y12.2 E36.76442
G1 X-10.028 Y12.198 E37.76432
G1 X-10.618 Y12.11 E37.79408
G1 X-11.185 Y11.851 E37.82518
G1 X-11.651 Y11.452 E37.85579
G1 X-11.864 Y11.166 E37.87358
G1 X-12.106 Y10.632 E37.90283
G1 X-12.2 Y10.015 E37.93397
G1 X-12.198 Y-10.028 E38.93391
G1 X-12.11 Y-10.618 E38.96368
G1 X-11.851 Y-11.185 E38.99477
G1 X-11.452 Y-11.651 E39.02538
G1 X-11.166 Y-11.864 E39.04317
G1 X-10.635 Y-12.105 E39.07226
G1 X-10.014 Y-12.2 E39.10361
G1 X10.028 Y-12.198 E40.10351
G1 X10.618 Y-12.11 E40.13327
G1 X11.185 Y-11.851 E40.16437
G1 X11.651 Y-11.452 E40.19497
G1 X11.864 Y-11.166 E40.21276
G1 X12.105 Y-10.635 E40.24186
G1 X12.2 Y-10.015 E40.27315
G1 X12.199 Y10.015 E41.27245
G1 F1500 E34.77245
G1 F600 Z1.3
;MESH:Vista_Base.3mf
G0 F3600 X9.826 Y10.986 Z1.3
;TYPE:WALL-OUTER
G1 F600 Z0.3
G1 F1500 E41.60505
G1 F2400 X10.073 Y10.998 E41.61739
G1 X10.5 Y10.868 E41.63966
G1 X10.687 Y10.728 E41.65131
G1 X10.884 Y10.456 E41.66807
G1 X10.995 Y10.116 E41.68591
G1 X10.995 Y9.884 E41.69749
G1 X10.941 Y9.657 E41.70913
G1 X10.836 Y9.449 E41.72075
G1 X10.674 Y9.261 E41.73313
G1 X10.5 Y9.132 E41.74394
G1 X10.287 Y9.041 E41.75549
G1 X10.065 Y9.001 E41.76675
G1 X9.826 Y9.014 E41.77869
G1 X9.603 Y9.08 E41.79029
G1 X9.402 Y9.197 E41.8019
G1 X9.233 Y9.357 E41.81351
G1 X9.105 Y9.551 E41.8251
G1 X9.026 Y9.77 E41.83672
G1 X8.999 Y10 E41.84827
G1 X9.026 Y10.23 E41.85982
G1 X9.116 Y10.466 E41.87243
G1 X9.233 Y10.643 E41.88301
G1 X9.402 Y10.803 E41.89462
G1 X9.603 Y10.92 E41.90622
G1 X9.826 Y10.986 E41.91783
G0 F3600 X10.026 Y10.995
G0 X10.171 Y11.047
G0 X11.033 Y10.313
G0 X9.495 Y0.26
G0 X9.196 Y0.253
G1 F2400 X9.196 Y-.288 E41.94482
G1 X9.152 Y-.939 E41.97737
G1 X9.072 Y-1.53 E42.00712
G1 X9.055 Y-1.623 E42.01184
G1 X8.951 Y-2.12 E42.03717
G1 X8.93 Y-2.21 E42.04178
G1 X8.768 Y-2.786 E42.07164
G1 X8.74 Y-2.87 E42.07605
G1 X8.566 Y-3.354 E42.10171
G1 X8.535 Y-3.435 E42.10604
G1 X8.291 Y-3.988 E42.1362
G1 X7.981 Y-4.576 E42.16936
G1 X7.667 Y-5.083 E42.19911
G1 X7.298 Y-5.601 E42.23084
G1 X6.881 Y-6.108 E42.26359
G1 X6.452 Y-6.558 E42.29461
G1 X6.415 Y-6.595 E42.29722
G1 X6.011 Y-6.965 E42.32455
G1 X5.963 Y-7.006 E42.3277
G1 X5.488 Y-7.384 E42.35799
G1 X4.978 Y-7.736 E42.3889
G1 X4.411 Y-8.074 E42.42184
G1 X3.848 Y-8.356 E42.45325
G1 X3.295 Y-8.588 E42.48317
G1 X3.233 Y-8.612 E42.48649
G1 X2.664 Y-8.806 E42.51648
G1 X2.085 Y-8.959 E42.54636
G1 X1.423 Y-9.089 E42.58001
G1 X0.82 Y-9.163 E42.61032
G1 X0.198 Y-9.197 E42.6414
G1 X0.122 Y-9.199 E42.64519
G1 X-.472 Y-9.188 E42.67483
G1 X-1.076 Y-9.137 E42.70508
G1 X-1.69 Y-9.043 E42.73606
G1 X-1.803 Y-9.02 E42.74182
G1 X-2.341 Y-8.898 E42.76934
G1 X-2.929 Y-8.721 E42.79998
G1 X-2.981 Y-8.704 E42.80271
G1 X-3.572 Y-8.478 E42.83427
G1 X-4.119 Y-8.227 E42.8643
G1 X-4.638 Y-7.945 E42.89377
G1 X-4.699 Y-7.909 E42.8973
G1 X-5.233 Y-7.566 E42.92896
G1 X-5.7 Y-7.22 E42.95796
G1 X-6.188 Y-6.808 E42.98982
G1 X-6.255 Y-6.746 E42.99438
G1 X-6.65 Y-6.358 E43.022
G1 X-7.093 Y-5.859 E43.05529
G1 X-7.494 Y-5.338 E43.08809
G1 X-7.837 Y-4.819 E43.11913
G1 X-8.136 Y-4.294 E43.14927
G1 X-8.173 Y-4.222 E43.15331
G1 X-8.4 Y-3.75 E43.17944
G1 X-8.434 Y-3.675 E43.18355
G1 X-8.657 Y-3.114 E43.21367
G1 X-8.844 Y-2.531 E43.24421
G1 X-8.86 Y-2.475 E43.24712
G1 X-9.008 Y-1.866 E43.27839
G1 X-9.11 Y-1.281 E43.30801
G1 X-9.173 Y-.69 E43.33766
G1 X-9.181 Y-.595 E43.34242
G1 X-9.2 Y0.00 E43.37212
G1 X-9.182 Y0.594 E43.40177
G1 X-9.118 Y1.221 E43.43321
G1 X-9.101 Y1.332 E43.43881
G1 X-9.007 Y1.88 E43.46655
G1 X-8.861 Y2.474 E43.49707
G1 X-8.657 Y3.114 E43.53058
G1 X-8.435 Y3.674 E43.56064
G1 X-8.401 Y3.749 E43.56475
G1 X-8.174 Y4.221 E43.59088
G1 X-8.137 Y4.293 E43.59491
G1 X-7.838 Y4.818 E43.62506
G1 X-7.492 Y5.341 E43.65634
G1 X-7.093 Y5.86 E43.689
G1 X-6.692 Y6.314 E43.71922
G1 X-6.651 Y6.357 E43.72219
G1 X-6.238 Y6.762 E43.75105
G1 X-6.17 Y6.823 E43.7556
G1 X-5.755 Y7.177 E43.78282
G1 X-5.703 Y7.218 E43.78612
G1 X-5.222 Y7.575 E43.81601
G1 X-4.682 Y7.919 E43.84795
G1 X-4.16 Y8.205 E43.87764
G1 X-4.101 Y8.235 E43.88095
G1 X-3.555 Y8.485 E43.91091
G1 X-2.956 Y8.711 E43.94285
G1 X-2.341 Y8.897 E43.9749
G1 X-1.742 Y9.034 E44.00556
G1 X-1.067 Y9.137 E44.03962
G1 X-.473 Y9.188 E44.06937
G1 X0.141 Y9.2 E44.1
G1 X0.742 Y9.17 E44.13003
G1 X1.397 Y9.093 E44.16293
G1 X1.492 Y9.078 E44.16773
G1 X2.021 Y8.975 E44.19461
G1 X2.609 Y8.821 E44.22494
G1 X2.664 Y8.806 E44.22778
G1 X3.235 Y8.612 E44.25787
G1 X3.815 Y8.371 E44.28921
G1 X3.861 Y8.351 E44.29171
G1 X4.411 Y8.074 E44.32243
G1 X4.955 Y7.751 E44.35399
G1 X5.488 Y7.384 E44.38628
G1 X6.01 Y6.966 E44.41964
G1 X6.417 Y6.593 E44.44719
G1 X6.452 Y6.559 E44.44962
G1 X6.88 Y6.109 E44.4806
G1 X7.276 Y5.628 E44.51169
G1 X7.341 Y5.541 E44.51711
G1 X7.654 Y5.104 E44.54392
G1 X7.957 Y4.613 E44.57271
G1 X8.01 Y4.524 E44.57788
G1 X8.291 Y3.988 E44.60807
G1 X8.534 Y3.436 E44.63816
G1 X8.565 Y3.355 E44.64249
G1 X8.739 Y2.871 E44.66815
G1 X8.767 Y2.787 E44.67256
G1 X8.93 Y2.208 E44.70257
G1 X9.054 Y1.624 E44.73236
G1 X9.071 Y1.531 E44.73707
G1 X9.152 Y0.94 E44.76684
G1 X9.194 Y0.336 E44.79704
G1 X9.196 Y0.253 E44.80118
G0 F3600 X9.196 Y0.053
G0 X9.496 Y0.053
G0 X11.569 Y-10.218
G0 X11.783 Y-10.239
G1 F2400 X11.8 Y-10 E44.81314
G1 X11.8 Y10 E45.81094
G1 X11.724 Y10.516 E45.83696
G1 X11.508 Y10.98 E45.8625
G1 X11.183 Y11.356 E45.88729
G1 X10.743 Y11.639 E45.91339
G1 X10.245 Y11.782 E45.93924
G1 X9.986 Y11.8 E45.95219
