;FLAVOR:Marlin
;TIME:495
;Filament used: 0.84101m
;Layer height: 0.3
;MINX:-26.623
;MINY:-84.494
;MINZ:0.4
;MAXX:28.972
;MAXY:0
;MAXZ:4.9
;TARGET_MACHINE.NAME:Unknown
;Generated with Cura_SteamEngine 5.11.0
M140 S50
M105
M190 S50
M104 S220
M105
M109 S220
;FLAVOR:Marlin
M82 ;absolute extrusion mode
G21
G90
M82
M107 T0
G28
G92 E0
G0 E3 F200
G92 E0 ; reset extrusion distance
M106 S255 ; Enable cooling fan full speed
G1 X-98 Y0 Z0.4 F3000 ; move to arc start
G3 X0 Y-98 I98 Z0.4 E40 F400 ; lay arc stripe 90deg
G92 E0 ; reset extrusion distance
G4 P500 ; wait for 0.5 sec
G0 Z10 E-1 ; Lift 15mm and retract 1mm filament
G4 P2000 ; wait for 5 sec
G0 Z15
M107 ; Disable cooling fan
G1 X0 Y-85 Z4 E0 F3000 ; get off the bed
M82 ;absolute extrusion mode
G92 E0
G92 E0
G1 F1500 E-6.5
;LAYER_COUNT:16
;LAYER:0
M107
G1 F600 Z1.4
G0 F3600 X0.00 Y0.00 Z1.4
G0 X0.941 Y-28.903
;TYPE:SKIRT
G1 F600 Z0.4
G1 F1500 E0
G1 F1800 X-.268 Y-28.94 E0.09253
G1 X-2.383 Y-29.124 E0.25493
G1 X-3.579 Y-29.304 E0.34746
G1 X-5.308 Y-29.673 E0.4827
G1 X-7.248 Y-30.214 E0.63677
G1 X-8.486 Y-30.638 E0.73688
G1 X-10.367 Y-31.419 E0.89268
G1 X-11.855 Y-32.145 E1.01933
G1 X-12.991 Y-32.782 E1.11897
G1 X-14.415 Y-33.691 E1.2482
G1 X-15.991 Y-34.839 E1.39736
G1 X-17.28 Y-35.916 E1.52585
G1 X-18.489 Y-37.057 E1.65302
G1 X-19.66 Y-38.302 E1.78377
G1 X-20.681 Y-39.524 E1.90559
G1 X-21.621 Y-40.794 E2.02646
G1 X-22.603 Y-42.289 E2.16329
G1 X-23.242 Y-43.399 E2.26127
G1 X-24.113 Y-45.16 E2.41156
G1 X-24.79 Y-46.756 E2.54418
G1 X-25.25 Y-48.052 E2.64938
G1 X-25.763 Y-49.845 E2.79205
G1 X-26.146 Y-51.571 E2.92729
G1 X-26.405 Y-53.22 E3.05499
G1 X-26.57 Y-54.857 E3.18085
G1 X-26.623 Y-56.065 E3.27335
G1 X-26.585 Y-58.185 E3.43555
G1 X-26.495 Y-59.391 E3.52806
G1 X-26.199 Y-61.493 E3.69045
G1 X-25.871 Y-63.15 E3.81967
G1 X-25.517 Y-64.482 E3.9251
G1 X-25.012 Y-66.024 E4.04922
G1 X-24.294 Y-67.857 E4.19982
G1 X-23.764 Y-68.997 E4.29599
G1 X-22.921 Y-70.561 E4.43191
G1 X-21.902 Y-72.205 E4.57987
G1 X-20.973 Y-73.517 E4.70285
G1 X-20.13 Y-74.573 E4.80621
G1 X-18.849 Y-75.988 E4.95223
G1 X-17.666 Y-77.151 E5.07913
G1 X-16.543 Y-78.13 E5.1931
G1 X-15.159 Y-79.197 E5.32679
G1 X-13.62 Y-80.239 E5.46896
G1 X-12.246 Y-81.051 E5.59106
G1 X-10.914 Y-81.738 E5.70571
G1 X-9.141 Y-82.52 E5.85394
G1 X-7.871 Y-82.993 E5.95762
G1 X-6.092 Y-83.537 E6.09993
G1 X-4.369 Y-83.949 E6.23545
G1 X-3.179 Y-84.165 E6.32797
G1 X-1.069 Y-84.403 E6.49041
G1 X0.564 Y-84.494 E6.61552
G1 X1.785 Y-84.494 E6.70893
G1 X3.903 Y-84.364 E6.87125
G1 X5.295 Y-84.196 E6.97851
G1 X7.185 Y-83.851 E7.12548
G1 X8.359 Y-83.564 E7.21794
G1 X10.366 Y-82.939 E7.37874
G1 X11.821 Y-82.381 E7.49795
G1 X13.392 Y-81.675 E7.62971
G1 X14.701 Y-80.991 E7.74269
G1 X16.361 Y-79.986 E7.89114
G1 X17.682 Y-79.077 E8.0138
G1 X18.676 Y-78.309 E8.1099
G1 X20.243 Y-76.93 E8.26958
G1 X21.298 Y-75.882 E8.38333
G1 X22.533 Y-74.495 E8.5254
G1 X23.567 Y-73.184 E8.65313
G1 X24.344 Y-72.075 E8.75672
G1 X25.364 Y-70.41 E8.90609
G1 X26.013 Y-69.195 E9.01146
G1 X26.791 Y-67.5 E9.15413
G1 X27.429 Y-65.85 E9.28946
G1 X27.817 Y-64.653 E9.38572
G1 X28.335 Y-62.646 E9.54429
G1 X28.616 Y-61.182 E9.65832
G1 X28.823 Y-59.624 E9.77856
G1 X28.954 Y-57.703 E9.92585
G1 X28.972 Y-56.224 E10.039
G1 X28.88 Y-54.378 E10.18039
G1 X28.741 Y-53.08 E10.28025
G1 X28.398 Y-51.09 E10.43473
G1 X28.013 Y-49.462 E10.5627
G1 X27.547 Y-47.891 E10.68806
G1 X27.139 Y-46.752 E10.78061
G1 X26.451 Y-45.133 E10.91518
G1 X25.552 Y-43.347 E11.06814
G1 X24.763 Y-41.985 E11.18855
G1 X23.867 Y-40.632 E11.31269
G1 X22.939 Y-39.399 E11.43074
G1 X21.902 Y-38.176 E11.5534
G1 X20.515 Y-36.722 E11.70712
G1 X19.628 Y-35.902 E11.79953
G1 X18.01 Y-34.578 E11.95946
G1 X16.854 Y-33.741 E12.06864
G1 X15.385 Y-32.807 E12.20181
G1 X13.805 Y-31.936 E12.33983
G1 X12.498 Y-31.311 E12.45065
G1 X10.819 Y-30.628 E12.58931
G1 X9.156 Y-30.065 E12.72362
G1 X7.991 Y-29.743 E12.81608
G1 X5.897 Y-29.302 E12.97979
G1 X4.653 Y-29.117 E13.076
G1 X2.623 Y-28.941 E13.23187
G1 X0.941 Y-28.903 E13.36057
G0 F3600 X0.953 Y-29.303
G1 F1800 X-.256 Y-29.34 E13.4531
G1 X-2.323 Y-29.52 E13.61182
G1 X-3.519 Y-29.7 E13.70435
G1 X-5.224 Y-30.064 E13.83771
G1 X-7.118 Y-30.592 E13.98813
G1 X-8.356 Y-31.016 E14.08823
G1 X-10.192 Y-31.778 E14.2403
G1 X-11.659 Y-32.494 E14.36518
G1 X-12.795 Y-33.131 E14.46481
G1 X-14.2 Y-34.028 E14.59232
G1 X-15.735 Y-35.146 E14.73759
G1 X-17.005 Y-36.207 E14.86419
G1 X-18.214 Y-37.348 E14.99136
G1 X-19.353 Y-38.558 E15.11848
G1 X-20.359 Y-39.762 E15.2385
G1 X-21.299 Y-41.032 E15.35937
G1 X-22.256 Y-42.489 E15.49272
G1 X-22.895 Y-43.599 E15.5907
G1 X-23.745 Y-45.316 E15.73726
G1 X-24.413 Y-46.89 E15.86807
G1 X-24.865 Y-48.162 E15.97133
G1 X-25.372 Y-49.932 E16.11218
G1 X-25.755 Y-51.658 E16.24743
G1 X-26.007 Y-53.26 E16.37149
G1 X-26.17 Y-54.875 E16.49566
G1 X-26.223 Y-56.083 E16.58816
G1 X-26.186 Y-58.155 E16.74669
G1 X-26.096 Y-59.361 E16.8392
G1 X-25.807 Y-61.415 E16.99788
G1 X-25.484 Y-63.047 E17.12514
G1 X-25.13 Y-64.379 E17.23058
G1 X-24.632 Y-65.899 E17.35294
G1 X-23.931 Y-67.688 E17.49992
G1 X-23.401 Y-68.828 E17.59609
G1 X-22.581 Y-70.35 E17.72835
G1 X-21.575 Y-71.974 E17.87449
G1 X-20.66 Y-73.267 E17.99566
G1 X-19.817 Y-74.323 E18.09902
G1 X-18.568 Y-75.703 E18.24141
G1 X-17.403 Y-76.849 E18.36642
G1 X-16.28 Y-77.828 E18.48039
G1 X-14.915 Y-78.88 E18.61222
G1 X-13.416 Y-79.895 E18.75071
G1 X-12.063 Y-80.695 E18.87095
G1 X-10.731 Y-81.382 E18.9856
G1 X-9.001 Y-82.145 E19.13024
G1 X-7.754 Y-82.61 E19.23205
G1 X-5.975 Y-83.154 E19.37436
G1 X-4.298 Y-83.555 E19.50627
G1 X-3.108 Y-83.771 E19.59879
G1 X-1.047 Y-84.004 E19.75746
G1 X0.564 Y-84.094 E19.88089
G1 X1.785 Y-84.094 E19.97429
G1 X3.855 Y-83.967 E20.13294
G1 X5.247 Y-83.799 E20.2402
G1 X7.09 Y-83.462 E20.38352
G1 X8.264 Y-83.175 E20.47598
G1 X10.247 Y-82.557 E20.63487
G1 X11.657 Y-82.016 E20.7504
G1 X13.207 Y-81.32 E20.88038
G1 X14.516 Y-80.636 E20.99336
G1 X16.134 Y-79.657 E21.13803
G1 X17.437 Y-78.76 E21.25904
G1 X18.431 Y-77.992 E21.35513
G1 X19.961 Y-76.646 E21.51102
G1 X20.999 Y-75.616 E21.62288
G1 X22.219 Y-74.247 E21.76316
G1 X23.239 Y-72.954 E21.88915
G1 X24.016 Y-71.845 E21.99273
G1 X25.011 Y-70.221 E22.13843
G1 X25.649 Y-69.028 E22.24192
G1 X26.427 Y-67.333 E22.38459
G1 X27.048 Y-65.727 E22.51632
G1 X27.436 Y-64.53 E22.61257
G1 X27.942 Y-62.571 E22.76735
G1 X28.219 Y-61.129 E22.87968
G1 X28.426 Y-59.571 E22.99991
G1 X28.554 Y-57.698 E23.14353
G1 X28.572 Y-56.219 E23.25668
G1 X28.482 Y-54.421 E23.39439
G1 X28.343 Y-53.123 E23.49426
G1 X28.009 Y-51.182 E23.64492
G1 X27.63 Y-49.576 E23.77115
G1 X27.17 Y-48.026 E23.89484
G1 X26.762 Y-46.887 E23.98739
G1 X26.083 Y-45.29 E24.12014
G1 X25.206 Y-43.547 E24.2694
G1 X24.43 Y-42.206 E24.38793
G1 X23.547 Y-40.873 E24.51024
G1 X22.619 Y-39.64 E24.62829
G1 X21.612 Y-38.452 E24.74743
G1 X20.243 Y-37.016 E24.8992
G1 X19.356 Y-36.196 E24.99161
G1 X17.757 Y-34.888 E25.14964
G1 X16.639 Y-34.079 E25.25521
G1 X15.17 Y-33.145 E25.38838
G1 X13.632 Y-32.297 E25.52273
G1 X12.347 Y-31.682 E25.63171
G1 X10.668 Y-30.999 E25.77037
G1 X9.049 Y-30.451 E25.90112
G1 X7.884 Y-30.129 E25.99358
G1 X5.838 Y-29.698 E26.15354
G1 X4.618 Y-29.516 E26.2479
G1 X2.588 Y-29.34 E26.40377
G1 X0.953 Y-29.303 E26.52888
G0 F3600 X0.965 Y-29.703
G1 F1800 X-.244 Y-29.74 E26.62141
G1 X-2.263 Y-29.916 E26.77644
G1 X-3.459 Y-30.096 E26.86896
G1 X-5.14 Y-30.455 E27.00046
G1 X-6.988 Y-30.97 E27.14721
G1 X-8.226 Y-31.394 E27.24732
G1 X-10.017 Y-32.137 E27.39565
G1 X-11.463 Y-32.843 E27.51875
G1 X-12.599 Y-33.48 E27.61838
G1 X-13.985 Y-34.365 E27.74418
G1 X-15.479 Y-35.453 E27.88556
G1 X-16.731 Y-36.498 E28.01031
G1 X-17.923 Y-37.622 E28.13565
G1 X-19.046 Y-38.814 E28.26092
G1 X-20.037 Y-40 E28.37916
G1 X-20.977 Y-41.27 E28.50003
G1 X-21.909 Y-42.689 E28.6299
G1 X-22.548 Y-43.799 E28.72787
G1 X-23.386 Y-45.493 E28.87245
G1 X-24.036 Y-47.024 E28.99969
G1 X-24.48 Y-48.272 E29.10102
G1 X-24.987 Y-50.042 E29.24187
G1 X-25.36 Y-51.72 E29.37337
G1 X-25.609 Y-53.3 E29.49572
G1 X-25.77 Y-54.893 E29.61821
G1 X-25.823 Y-56.101 E29.71071
G1 X-25.787 Y-58.125 E29.86556
G1 X-25.697 Y-59.331 E29.95808
G1 X-25.415 Y-61.337 E30.11304
G1 X-25.097 Y-62.944 E30.23836
G1 X-24.743 Y-64.276 E30.34379
G1 X-24.259 Y-65.753 E30.46269
G1 X-23.568 Y-67.519 E30.60776
G1 X-23.038 Y-68.659 E30.70393
G1 X-22.241 Y-70.139 E30.83252
G1 X-21.235 Y-71.763 E30.97866
G1 X-20.347 Y-73.017 E31.09621
G1 X-19.504 Y-74.073 E31.19957
G1 X-18.271 Y-75.435 E31.34011
G1 X-17.14 Y-76.547 E31.46145
G1 X-16.017 Y-77.526 E31.57542
G1 X-14.671 Y-78.563 E31.7054
G1 X-13.212 Y-79.551 E31.84019
G1 X-11.88 Y-80.339 E31.95858
G1 X-10.548 Y-81.026 E32.07323
G1 X-8.861 Y-81.77 E32.21428
G1 X-7.637 Y-82.227 E32.31423
G1 X-5.858 Y-82.771 E32.45654
G1 X-4.227 Y-83.161 E32.58482
G1 X-3.037 Y-83.377 E32.67735
G1 X-1.025 Y-83.605 E32.83225
G1 X0.564 Y-83.694 E32.95399
G1 X1.785 Y-83.694 E33.0474
G1 X3.807 Y-83.57 E33.20237
G1 X5.175 Y-83.405 E33.30777
G1 X6.995 Y-83.073 E33.4493
G1 X8.169 Y-82.786 E33.54175
G1 X10.104 Y-82.183 E33.6968
G1 X11.493 Y-81.651 E33.81058
G1 X13.022 Y-80.965 E33.93878
G1 X14.331 Y-80.281 E34.05176
G1 X15.907 Y-79.328 E34.19265
G1 X17.192 Y-78.443 E34.31201
G1 X18.186 Y-77.675 E34.4081
G1 X19.679 Y-76.362 E34.5602
G1 X20.7 Y-75.35 E34.67017
G1 X21.905 Y-73.999 E34.80865
G1 X22.911 Y-72.724 E34.93289
G1 X23.688 Y-71.615 E35.03648
G1 X24.658 Y-70.032 E35.1785
G1 X25.285 Y-68.861 E35.28012
G1 X26.063 Y-67.166 E35.42279
G1 X26.667 Y-65.604 E35.5509
G1 X27.055 Y-64.407 E35.64716
G1 X27.549 Y-62.495 E35.79823
G1 X27.822 Y-61.076 E35.90877
G1 X28.029 Y-59.518 E36.029
G1 X28.154 Y-57.693 E36.16894
G1 X28.172 Y-56.214 E36.28209
G1 X28.084 Y-54.464 E36.41613
G1 X27.945 Y-53.166 E36.51599
G1 X27.62 Y-51.274 E36.66284
G1 X27.247 Y-49.69 E36.78733
G1 X26.793 Y-48.161 E36.90935
G1 X26.385 Y-47.022 E37.0019
G1 X25.715 Y-45.447 E37.13283
G1 X24.86 Y-43.747 E37.2784
G1 X24.097 Y-42.427 E37.39503
G1 X23.227 Y-41.114 E37.51552
G1 X22.299 Y-39.881 E37.63358
G1 X21.307 Y-38.711 E37.75092
G1 X19.971 Y-37.31 E37.89901
G1 X19.084 Y-36.49 E37.99142
G1 X17.522 Y-35.212 E38.14581
G1 X16.424 Y-34.417 E38.24951
G1 X14.955 Y-33.483 E38.38268
G1 X13.459 Y-32.658 E38.51337
G1 X12.196 Y-32.053 E38.6205
G1 X10.517 Y-31.37 E38.75916
G1 X8.942 Y-30.837 E38.88636
G1 X7.777 Y-30.515 E38.97882
G1 X5.779 Y-30.094 E39.13502
G1 X4.583 Y-29.915 E39.22753
G1 X2.553 Y-29.739 E39.3834
G1 X0.965 Y-29.703 E39.50491
G0 F3600 X0.977 Y-30.103
G1 F1800 X-.232 Y-30.14 E39.59744
G1 X-2.203 Y-30.312 E39.74879
G1 X-3.399 Y-30.492 E39.84132
G1 X-5.056 Y-30.846 E39.97093
G1 X-6.858 Y-31.348 E40.11403
G1 X-8.096 Y-31.772 E40.21414
G1 X-9.842 Y-32.497 E40.35876
G1 X-11.267 Y-33.192 E40.48005
G1 X-12.403 Y-33.829 E40.57968
G1 X-13.77 Y-34.702 E40.70376
G1 X-15.223 Y-35.76 E40.84125
G1 X-16.457 Y-36.789 E40.96417
G1 X-17.632 Y-37.896 E41.08766
G1 X-18.739 Y-39.07 E41.2111
G1 X-19.715 Y-40.238 E41.32754
G1 X-20.655 Y-41.508 E41.44841
G1 X-21.562 Y-42.889 E41.5748
G1 X-22.201 Y-43.999 E41.67278
G1 X-23.018 Y-45.649 E41.81362
G1 X-23.659 Y-47.158 E41.93904
G1 X-24.095 Y-48.382 E42.03844
G1 X-24.602 Y-50.152 E42.17929
G1 X-24.965 Y-51.782 E42.30703
G1 X-25.211 Y-53.34 E42.42769
G1 X-25.37 Y-54.911 E42.54849
G1 X-25.423 Y-56.119 E42.64099
G1 X-25.388 Y-58.095 E42.79217
G1 X-25.298 Y-59.301 E42.88468
G1 X-25.023 Y-61.259 E43.03594
G1 X-24.71 Y-62.841 E43.1593
G1 X-24.356 Y-64.173 E43.26474
G1 X-23.879 Y-65.628 E43.38187
G1 X-23.205 Y-67.35 E43.52333
G1 X-22.675 Y-68.49 E43.6195
G1 X-21.901 Y-69.928 E43.74443
G1 X-20.908 Y-71.532 E43.88874
G1 X-20.034 Y-72.767 E44.00448
G1 X-19.191 Y-73.823 E44.10785
G1 X-17.99 Y-75.15 E44.24477
G1 X-16.877 Y-76.245 E44.36421
G1 X-15.754 Y-77.224 E44.47818
G1 X-14.427 Y-78.246 E44.6063
G1 X-13.008 Y-79.207 E44.73741
G1 X-11.697 Y-79.983 E44.85395
G1 X-10.365 Y-80.67 E44.9686
G1 X-8.721 Y-81.395 E45.10605
G1 X-7.52 Y-81.844 E45.20413
G1 X-5.741 Y-82.388 E45.34644
G1 X-4.156 Y-82.767 E45.47111
G1 X-2.966 Y-82.983 E45.56363
G1 X-1.003 Y-83.206 E45.71476
G1 X0.564 Y-83.294 E45.83483
G1 X1.785 Y-83.294 E45.92823
G1 X3.759 Y-83.173 E46.07952
G1 X5.127 Y-83.008 E46.18493
G1 X6.9 Y-82.684 E46.32281
G1 X8.074 Y-82.397 E46.41526
G1 X9.961 Y-81.809 E46.56646
G1 X11.329 Y-81.286 E46.6785
G1 X12.837 Y-80.61 E46.80492
G1 X14.146 Y-79.926 E46.9179
G1 X15.68 Y-78.998 E47.05505
G1 X16.947 Y-78.126 E47.17271
G1 X17.941 Y-77.358 E47.2688
G1 X19.397 Y-76.078 E47.4171
G1 X20.418 Y-75.066 E47.52708
G1 X21.591 Y-73.751 E47.66188
G1 X22.583 Y-72.494 E47.78437
G1 X23.36 Y-71.385 E47.88796
G1 X24.305 Y-69.843 E48.02631
G1 X24.921 Y-68.694 E48.12604
G1 X25.699 Y-66.999 E48.26871
G1 X26.286 Y-65.481 E48.39322
G1 X26.674 Y-64.284 E48.48947
G1 X27.156 Y-62.419 E48.63683
G1 X27.425 Y-61.023 E48.74559
G1 X27.632 Y-59.465 E48.86582
G1 X27.754 Y-57.688 E49.00208
G1 X27.772 Y-56.209 E49.11523
G1 X27.686 Y-54.507 E49.24559
G1 X27.547 Y-53.209 E49.34546
G1 X27.231 Y-51.366 E49.4885
G1 X26.863 Y-49.804 E49.61126
G1 X26.416 Y-48.296 E49.73158
G1 X26.008 Y-47.157 E49.82413
G1 X25.347 Y-45.604 E49.95325
G1 X24.514 Y-43.947 E50.09512
G1 X23.764 Y-42.648 E50.20987
G1 X22.907 Y-41.355 E50.32853
G1 X21.979 Y-40.122 E50.44659
G1 X21.002 Y-38.97 E50.56214
G1 X19.699 Y-37.604 E50.70655
G1 X18.812 Y-36.784 E50.79896
G1 X17.287 Y-35.536 E50.9497
G1 X16.209 Y-34.755 E51.05154
G1 X14.74 Y-33.821 E51.1847
G1 X13.286 Y-33.019 E51.31173
G1 X12.045 Y-32.424 E51.41701
G1 X10.366 Y-31.741 E51.55567
G1 X8.835 Y-31.223 E51.67931
G1 X7.67 Y-30.901 E51.77178
G1 X5.72 Y-30.49 E51.92423
G1 X4.524 Y-30.311 E52.01674
G1 X2.544 Y-30.139 E52.16877
G1 X0.977 Y-30.103 E52.28868
G0 F3600 X0.989 Y-30.503
G1 F1800 X-.22 Y-30.54 E52.38121
G1 X-2.143 Y-30.708 E52.52887
G1 X-3.339 Y-30.888 E52.6214
G1 X-4.972 Y-31.237 E52.74914
G1 X-6.728 Y-31.726 E52.88858
G1 X-7.966 Y-32.15 E52.98869
G1 X-9.667 Y-32.856 E53.12957
G1 X-11.071 Y-33.541 E53.24908
G1 X-12.207 Y-34.178 E53.34871
G1 X-13.555 Y-35.039 E53.47107
G1 X-14.967 Y-36.067 E53.60468
G1 X-16.183 Y-37.08 E53.72575
G1 X-17.341 Y-38.17 E53.84741
G1 X-18.432 Y-39.327 E53.96906
G1 X-19.393 Y-40.476 E54.08365
G1 X-20.333 Y-41.746 E54.20452
G1 X-21.215 Y-43.089 E54.32743
G1 X-21.854 Y-44.199 E54.42541
G1 X-22.659 Y-45.826 E54.56427
G1 X-23.282 Y-47.292 E54.68612
G1 X-23.71 Y-48.492 E54.78359
G1 X-24.217 Y-50.262 E54.92443
G1 X-24.57 Y-51.845 E55.0485
G1 X-24.813 Y-53.38 E55.16739
G1 X-24.97 Y-54.929 E55.28649
G1 X-25.023 Y-56.137 E55.37899
G1 X-24.989 Y-58.065 E55.5265
G1 X-24.899 Y-59.271 E55.61902
G1 X-24.631 Y-61.181 E55.76656
G1 X-24.323 Y-62.738 E55.88798
G1 X-23.969 Y-64.07 E55.99341
G1 X-23.499 Y-65.503 E56.10878
G1 X-22.842 Y-67.181 E56.24663
G1 X-22.312 Y-68.321 E56.3428
G1 X-21.549 Y-69.738 E56.46592
G1 X-20.582 Y-71.301 E56.60652
G1 X-19.721 Y-72.517 E56.7205
G1 X-18.878 Y-73.573 E56.82386
G1 X-17.693 Y-74.882 E56.95893
G1 X-16.614 Y-75.943 E57.0747
G1 X-15.491 Y-76.922 E57.18867
G1 X-14.183 Y-77.929 E57.31494
G1 X-12.804 Y-78.863 E57.44235
G1 X-11.514 Y-79.627 E57.55704
G1 X-10.182 Y-80.314 E57.6717
G1 X-8.581 Y-81.02 E57.80555
G1 X-7.403 Y-81.461 E57.90177
G1 X-5.624 Y-82.005 E58.04408
G1 X-4.085 Y-82.373 E58.16513
G1 X-2.895 Y-82.589 E58.25765
G1 X-.98 Y-82.807 E58.40509
G1 X0.564 Y-82.894 E58.52339
G1 X1.785 Y-82.894 E58.6168
G1 X3.711 Y-82.776 E58.76441
G1 X5.055 Y-82.614 E58.86797
G1 X6.805 Y-82.295 E59.00405
G1 X7.979 Y-82.008 E59.0965
G1 X9.818 Y-81.435 E59.24385
G1 X11.165 Y-80.921 E59.35414
G1 X12.652 Y-80.255 E59.47878
G1 X13.961 Y-79.571 E59.59177
G1 X15.453 Y-78.669 E59.72514
G1 X16.702 Y-77.809 E59.84114
G1 X17.696 Y-77.041 E59.93723
