;FLAVOR:Marlin
;TIME:7242
;Filament used: 13.1855m
;Layer height: 0.2
;MINX:-6.662
;MINY:-75.951
;MINZ:0.3
;MAXX:85.158
;MAXY:43.963
;MAXZ:29.9
;TARGET_MACHINE.NAME:Unknown
;Generated with Cura_SteamEngine 5.8.1
M140 S65
M105
M190 S65
M104 S225
M105
M109 S225
M82 ;absolute extrusion mode
;FLAVOR:Marlin
M82 ;absolute extrusion mode
G21
G90
M82
M107 T0
G28
G92 E0
G0 E3 F200
G92 E0 ; reset extrusion distance
M106 S255 ; Enable cooling fan full speed
G1 X-98 Y0 Z0.4 F3000 ; move to arc start
G3 X0 Y-98 I98 Z0.4 E40 F400 ; lay arc stripe 90deg
G92 E0 ; reset extrusion distance
G4 P500 ; wait for 0.5 sec
G0 Z10 E-1 ; Lift 15mm and retract 1mm filament
G4 P2000 ; wait for 5 sec
G0 Z15
M107 ; Disable cooling fan
G1 X0 Y-85 Z4 E0 F3000 ; get off the bed
G92 E0
G92 E0
G1 F1500 E-1
;LAYER_COUNT:149
;LAYER:0
M106 S102
G1 F600 Z1.3
G0 F1500 X11.239 Y-25.635 Z1.3
;TYPE:SKIRT
G1 F600 Z0.3
G1 F3600 E0.75698
G1 F1200 X10.488 Y-26.13 E0.85866
G1 X10.038 Y-26.694 E0.94022
G1 X-6.148 Y-54.713 E4.59806
G1 X-6.384 Y-55.501 E4.69105
G1 X-6.418 Y-56.328 E4.78461
G1 X-6.383 Y-56.603 E4.81595
G1 X-6.102 Y-57.337 E4.90479
G1 X-5.607 Y-58.088 E5.00647
G1 X-5.043 Y-58.538 E5.08803
G1 X24.633 Y-75.681 E8.96218
G1 X25.421 Y-75.917 E9.05517
G1 X26.248 Y-75.951 E9.14873
G1 X26.523 Y-75.916 E9.18007
G1 X27.257 Y-75.635 E9.26892
G1 X28.008 Y-75.14 E9.37059
G1 X28.458 Y-74.576 E9.45216
G1 X44.645 Y-46.559 E13.10986
G1 X44.881 Y-45.771 E13.20284
G1 X44.915 Y-44.944 E13.29641
G1 X44.88 Y-44.669 E13.32775
G1 X44.599 Y-43.935 E13.41659
G1 X44.104 Y-43.184 E13.51827
G1 X43.54 Y-42.734 E13.59983
G1 X40.004 Y-40.684 E14.06187
G1 X61.004 Y-4.305 E18.81022
G1 X64.636 Y-6.4 E19.2842
G1 X65.422 Y-6.636 E19.37697
G1 X66.249 Y-6.67 E19.47053
G1 X66.524 Y-6.635 E19.50187
G1 X67.258 Y-6.354 E19.59071
G1 X68.009 Y-5.859 E19.69239
G1 X68.459 Y-5.295 E19.77395
G1 X84.645 Y22.723 E23.4317
G1 X84.881 Y23.511 E23.52468
G1 X84.915 Y24.338 E23.61825
G1 X84.88 Y24.613 E23.64959
G1 X84.599 Y25.347 E23.73843
G1 X84.104 Y26.098 E23.84011
G1 X83.54 Y26.548 E23.92167
G1 X53.863 Y43.693 E27.79603
G1 X53.075 Y43.929 E27.88902
G1 X52.248 Y43.963 E27.98258
G1 X51.93 Y43.911 E28.01901
G1 X51.239 Y43.647 E28.10262
G1 X50.488 Y43.152 E28.2043
G1 X50.038 Y42.588 E28.28586
G1 X33.852 Y14.569 E31.9437
G1 X33.616 Y13.781 E32.03669
G1 X33.582 Y12.954 E32.13026
G1 X33.617 Y12.679 E32.16159
G1 X33.898 Y11.945 E32.25044
G1 X34.393 Y11.194 E32.35212
G1 X34.957 Y10.744 E32.43368
G1 X38.493 Y8.695 E32.89566
G1 X17.493 Y-27.684 E37.64401
G1 X13.861 Y-25.589 E38.11799
G1 X13.075 Y-25.353 E38.21076
G1 X12.248 Y-25.319 E38.30432
G1 X11.973 Y-25.354 E38.33566
G1 X11.735 Y-25.445 E38.36446
G0 F1080 X11.239 Y-25.635
G0 F1500 X11.421 Y-25.994
G1 F1200 X10.763 Y-26.428 E38.45357
G1 X10.351 Y-26.944 E38.52821
G1 X-5.778 Y-54.872 E42.17392
G1 X-5.986 Y-55.566 E42.25582
G1 X-6.018 Y-56.344 E42.34384
G1 X-5.992 Y-56.503 E42.36205
G1 X-5.743 Y-57.155 E42.44095
G1 X-5.309 Y-57.813 E42.53005
G1 X-4.793 Y-58.225 E42.6047
G1 X24.792 Y-75.311 E46.46671
G1 X25.486 Y-75.519 E46.54861
G1 X26.264 Y-75.551 E46.63663
G1 X26.423 Y-75.525 E46.65485
G1 X27.075 Y-75.276 E46.73374
G1 X27.733 Y-74.842 E46.82285
G1 X28.145 Y-74.326 E46.89749
G1 X44.275 Y-46.4 E50.54306
G1 X44.483 Y-45.706 E50.62496
G1 X44.515 Y-44.928 E50.71298
G1 X44.489 Y-44.769 E50.73119
G1 X44.24 Y-44.117 E50.81009
G1 X43.806 Y-43.459 E50.89919
G1 X43.29 Y-43.047 E50.97383
G1 X39.458 Y-40.83 E51.47428
G1 X60.858 Y-3.759 E56.31299
G1 X64.794 Y-6.03 E56.82668
G1 X65.487 Y-6.238 E56.90847
G1 X66.265 Y-6.27 E56.99649
G1 X66.424 Y-6.244 E57.0147
G1 X67.076 Y-5.995 E57.0936
G1 X67.734 Y-5.561 E57.1827
G1 X68.146 Y-5.045 E57.25734
G1 X84.275 Y22.882 E60.90296
G1 X84.483 Y23.576 E60.98486
G1 X84.515 Y24.354 E61.07288
G1 X84.489 Y24.513 E61.09109
G1 X84.24 Y25.165 E61.16999
G1 X83.806 Y25.823 E61.25909
G1 X83.29 Y26.235 E61.33373
G1 X53.704 Y43.323 E65.19596
G1 X53.01 Y43.531 E65.27786
G1 X52.232 Y43.563 E65.36588
G1 X52.073 Y43.537 E65.38409
G1 X51.421 Y43.288 E65.46299
G1 X50.763 Y42.854 E65.55209
G1 X50.351 Y42.338 E65.62673
G1 X34.222 Y14.41 E69.27244
G1 X34.014 Y13.716 E69.35434
G1 X33.982 Y12.938 E69.44237
G1 X34.008 Y12.779 E69.46058
G1 X34.257 Y12.127 E69.53947
G1 X34.691 Y11.469 E69.62858
G1 X35.207 Y11.057 E69.70322
G1 X39.039 Y8.841 E70.20361
G1 X17.639 Y-28.23 E75.04232
G1 X13.703 Y-25.959 E75.55601
G1 X13.01 Y-25.751 E75.6378
G1 X12.232 Y-25.719 E75.72582
G1 X12.073 Y-25.745 E75.74403
G1 X11.917 Y-25.805 E75.76293
G0 F1080 X11.421 Y-25.994
G0 F1500 X11.603 Y-26.353
G1 F1200 X11.035 Y-26.728 E75.83987
G1 X10.697 Y-27.144 E75.90046
G1 X-5.408 Y-55.031 E79.5408
G1 X-5.588 Y-55.631 E79.61161
G1 X-5.618 Y-56.36 E79.69409
G1 X-5.384 Y-56.973 E79.76826
G1 X-5.009 Y-57.541 E79.8452
G1 X-4.593 Y-57.879 E79.90579
G1 X24.951 Y-74.941 E83.76243
G1 X25.551 Y-75.121 E83.83325
G1 X26.28 Y-75.151 E83.91572
G1 X26.893 Y-74.917 E83.9899
G1 X27.461 Y-74.542 E84.06684
G1 X27.799 Y-74.126 E84.12743
G1 X43.905 Y-46.241 E87.76763
G1 X44.085 Y-45.641 E87.83844
G1 X44.115 Y-44.912 E87.92092
G1 X43.881 Y-44.299 E87.99509
G1 X43.506 Y-43.731 E88.07203
G1 X43.09 Y-43.393 E88.13262
G1 X38.912 Y-40.976 E88.67825
G1 X60.712 Y-3.213 E93.60731
G1 X64.952 Y-5.66 E94.1607
G1 X65.552 Y-5.84 E94.23151
G1 X66.281 Y-5.87 E94.31399
G1 X66.894 Y-5.636 E94.38816
G1 X67.462 Y-5.261 E94.4651
G1 X67.8 Y-4.845 E94.52569
G1 X83.905 Y23.041 E98.16594
G1 X84.085 Y23.641 E98.23675
G1 X84.115 Y24.37 E98.31923
G1 X83.881 Y24.983 E98.3934
G1 X83.506 Y25.551 E98.47034
G1 X83.09 Y25.889 E98.53093
G1 X53.545 Y42.953 E102.38779
G1 X52.945 Y43.133 E102.4586
G1 X52.216 Y43.163 E102.54108
G1 X51.603 Y42.929 E102.61525
G1 X51.035 Y42.554 E102.69219
G1 X50.697 Y42.138 E102.75278
G1 X34.592 Y14.251 E106.39312
G1 X34.412 Y13.651 E106.46393
G1 X34.382 Y12.922 E106.54641
G1 X34.616 Y12.309 E106.62058
G1 X34.991 Y11.741 E106.69752
G1 X35.407 Y11.403 E106.75811
G1 X39.585 Y8.987 E107.30368
G1 X17.785 Y-28.776 E112.23274
G1 X13.545 Y-26.329 E112.78614
G1 X12.945 Y-26.149 E112.85695
G1 X12.216 Y-26.119 E112.93943
G1 X12.1 Y-26.164 E112.95349
G0 F1080 X11.603 Y-26.353
G0 F1500 X11.823 Y-26.687
G1 F1200 X11.306 Y-27.028 E113.0235
G1 X11.043 Y-27.344 E113.06998
G1 X-5.038 Y-55.19 E116.70495
G1 X-5.19 Y-55.696 E116.76467
G1 X-5.215 Y-56.296 E116.83255
G1 X-5.05 Y-56.753 E116.88748
G1 X-4.709 Y-57.27 E116.95749
G1 X-4.393 Y-57.533 E117.00396
G1 X25.11 Y-74.571 E120.85524
G1 X25.616 Y-74.723 E120.91496
G1 X26.216 Y-74.748 E120.98285
G1 X26.673 Y-74.583 E121.03777
G1 X27.19 Y-74.242 E121.10778
G1 X27.453 Y-73.926 E121.15426
G1 X43.535 Y-46.082 E124.78909
G1 X43.687 Y-45.576 E124.84881
G1 X43.712 Y-44.976 E124.9167
G1 X43.547 Y-44.519 E124.97162
G1 X43.206 Y-44.002 E125.04163
G1 X42.89 Y-43.739 E125.08811
G1 X38.366 Y-41.122 E125.67891
G1 X60.566 Y-2.667 E130.69833
G1 X65.111 Y-5.29 E131.29153
G1 X65.617 Y-5.442 E131.35125
G1 X66.217 Y-5.467 E131.41914
G1 X66.674 Y-5.302 E131.47406
G1 X67.191 Y-4.961 E131.54407
G1 X67.454 Y-4.645 E131.59054
G1 X83.535 Y23.2 E135.22542
G1 X83.687 Y23.706 E135.28514
G1 X83.712 Y24.306 E135.35303
G1 X83.547 Y24.763 E135.40795
G1 X83.206 Y25.28 E135.47796
G1 X82.89 Y25.543 E135.52443
G1 X53.386 Y42.583 E139.37592
G1 X52.88 Y42.735 E139.43565
G1 X52.28 Y42.76 E139.50353
G1 X51.823 Y42.595 E139.55846
G1 X51.306 Y42.254 E139.62847
G1 X51.043 Y41.938 E139.67494
G1 X34.962 Y14.092 E143.30991
G1 X34.81 Y13.586 E143.36963
G1 X34.785 Y12.986 E143.43752
G1 X34.95 Y12.529 E143.49244
G1 X35.291 Y12.012 E143.56245
G1 X35.607 Y11.749 E143.60893
G1 X40.131 Y9.133 E144.19968
G1 X17.931 Y-29.322 E149.21909
G1 X13.386 Y-26.699 E149.81229
G1 X12.88 Y-26.547 E149.87202
G1 X12.325 Y-26.523 E149.93481
G0 F1080 X12.28 Y-26.522
G0 X11.823 Y-26.687
G0 F1500 X12.043 Y-27.021
G1 F1200 X11.577 Y-27.328 E149.9979
G1 X11.351 Y-27.6 E150.03787
G1 X-4.67 Y-55.352 E153.66025
G1 X-4.79 Y-55.713 E153.70325
G1 X-4.812 Y-56.237 E153.76254
G1 X-4.716 Y-56.533 E153.79771
G1 X-4.409 Y-56.999 E153.8608
G1 X-4.137 Y-57.225 E153.90077
G1 X25.272 Y-74.203 E157.73945
G1 X25.633 Y-74.323 E157.78246
G1 X26.157 Y-74.345 E157.84174
G1 X26.453 Y-74.249 E157.87692
G1 X26.919 Y-73.942 E157.94
G1 X27.145 Y-73.67 E157.97998
G1 X43.167 Y-45.92 E161.60222
G1 X43.287 Y-45.559 E161.64522
G1 X43.309 Y-45.035 E161.70451
G1 X43.213 Y-44.739 E161.73968
G1 X42.906 Y-44.273 E161.80276
G1 X42.634 Y-44.047 E161.84274
G1 X37.82 Y-41.268 E162.47109
G1 X60.42 Y-2.121 E167.58086
G1 X65.273 Y-4.922 E168.21427
G1 X65.634 Y-5.042 E168.25728
G1 X66.158 Y-5.064 E168.31656
G1 X66.454 Y-4.968 E168.35174
G1 X66.92 Y-4.661 E168.41482
G1 X67.146 Y-4.389 E168.4548
G1 X83.167 Y23.362 E172.07708
G1 X83.287 Y23.723 E172.12008
G1 X83.309 Y24.247 E172.17937
G1 X83.213 Y24.543 E172.21454
G1 X82.906 Y25.009 E172.27762
G1 X82.634 Y25.235 E172.3176
G1 X53.224 Y42.215 E176.15649
G1 X52.863 Y42.335 E176.1995
G1 X52.339 Y42.357 E176.25878
G1 X52.043 Y42.261 E176.29396
G1 X51.577 Y41.954 E176.35704
G1 X51.351 Y41.682 E176.39702
G1 X35.33 Y13.93 E180.01939
G1 X35.21 Y13.569 E180.0624
G1 X35.188 Y13.045 E180.12168
G1 X35.284 Y12.749 E180.15686
G1 X35.591 Y12.283 E180.21994
G1 X35.863 Y12.057 E180.25992
G1 X40.677 Y9.279 E180.88821
G1 X18.077 Y-29.868 E185.99798
G1 X13.224 Y-27.067 E186.63139
G1 X12.863 Y-26.947 E186.6744
G1 X12.56 Y-26.934 E186.70868
G0 F1080 X12.339 Y-26.925
G0 X12.043 Y-27.021
G0 F1500 X12.252 Y-27.362
G1 F1200 X11.879 Y-27.591 E186.75816
G1 X11.697 Y-27.8 E186.78949
G1 X-4.302 Y-55.514 E190.4069
G1 X-4.41 Y-55.839 E190.44561
G1 X-4.425 Y-56.135 E190.47912
G1 X-4.375 Y-56.324 E190.50122
G1 X-4.146 Y-56.697 E190.55069
G1 X-3.937 Y-56.879 E190.58202
G1 X25.434 Y-73.835 E194.41574
G1 X25.759 Y-73.943 E194.45446
G1 X26.055 Y-73.958 E194.48796
G1 X26.244 Y-73.908 E194.51006
G1 X26.617 Y-73.679 E194.55954
G1 X26.799 Y-73.47 E194.59086
G1 X42.799 Y-45.758 E198.20814
G1 X42.907 Y-45.433 E198.24685
G1 X42.922 Y-45.137 E198.28036
G1 X42.872 Y-44.948 E198.30246
G1 X42.643 Y-44.575 E198.35193
G1 X42.434 Y-44.393 E198.38326
G1 X37.274 Y-41.414 E199.05679
G1 X60.274 Y-1.575 E204.25691
G1 X65.435 Y-4.554 E204.93054
G1 X65.76 Y-4.662 E204.96925
G1 X66.056 Y-4.677 E205.00276
G1 X66.245 Y-4.627 E205.02486
G1 X66.618 Y-4.398 E205.07433
G1 X66.8 Y-4.189 E205.10566
G1 X82.799 Y23.524 E208.72298
G1 X82.907 Y23.849 E208.76169
G1 X82.922 Y24.145 E208.79519
G1 X82.872 Y24.334 E208.81729
G1 X82.643 Y24.707 E208.86677
G1 X82.434 Y24.889 E208.8981
G1 X53.062 Y41.847 E212.73203
G1 X52.737 Y41.955 E212.77074
G1 X52.441 Y41.97 E212.80425
G1 X52.252 Y41.92 E212.82635
G1 X51.879 Y41.691 E212.87582
G1 X51.697 Y41.482 E212.90715
G1 X35.698 Y13.768 E216.52456
G1 X35.59 Y13.443 E216.56328
G1 X35.575 Y13.147 E216.59678
G1 X35.625 Y12.958 E216.61888
G1 X35.854 Y12.585 E216.66836
G1 X36.063 Y12.403 E216.69969
G1 X41.223 Y9.425 E217.37316
G1 X18.223 Y-30.414 E222.57328
G1 X13.062 Y-27.435 E223.24691
G1 X12.775 Y-27.339 E223.28112
G0 F1080 X12.737 Y-27.327
G0 X12.441 Y-27.312
G0 X12.252 Y-27.362
G0 F1500 X12.54 Y-28.101
G1 F1200 X12.389 Y-28.2 E223.30153
G1 X-3.61 Y-55.914 E226.91894
G1 X-3.636 Y-56.036 E226.93304
G1 X-3.537 Y-56.187 E226.95345
G1 X25.834 Y-73.143 E230.78717
G1 X25.956 Y-73.169 E230.80127
G1 X26.107 Y-73.07 E230.82168
G1 X42.107 Y-45.358 E234.43896
G1 X42.133 Y-45.236 E234.45306
G1 X42.034 Y-45.085 E234.47347
G1 X36.182 Y-41.706 E235.23735
G1 X59.982 Y-.483 E240.61818
G1 X65.835 Y-3.862 E241.38216
G1 X65.957 Y-3.888 E241.39626
G1 X66.108 Y-3.789 E241.41667
G1 X82.107 Y23.924 E245.03399
G1 X82.133 Y24.046 E245.04809
G1 X82.034 Y24.197 E245.0685
G1 X52.662 Y41.155 E248.90243
G1 X52.54 Y41.181 E248.91653
G1 X52.389 Y41.082 E248.93694
G1 X36.39 Y13.368 E252.55435
G1 X36.364 Y13.246 E252.56845
G1 X36.463 Y13.095 E252.58886
G1 X42.315 Y9.717 E253.35269
G1 X18.515 Y-31.506 E258.73352
G1 X13.014 Y-28.33 E259.45156
G0 F1080 X12.662 Y-28.127
G0 X12.54 Y-28.101
G0 F1500 X12.623 Y-27.71
G1 F1200 X12.446 Y-27.712 E259.47157
G1 X12.17 Y-27.865 E259.50725
G1 X12.043 Y-28 E259.5282
G1 X-3.956 Y-55.714 E263.14561
G1 X-4.027 Y-55.953 E263.1738
G1 X-4.025 Y-56.13 E263.19381
G1 X-3.872 Y-56.406 E263.22948
G1 X-3.737 Y-56.533 E263.25043
G1 X25.634 Y-73.489 E267.08415
G1 X25.873 Y-73.56 E267.11233
G1 X26.05 Y-73.558 E267.13234
G1 X26.326 Y-73.405 E267.16802
G1 X26.453 Y-73.27 E267.18897
G1 X42.453 Y-45.558 E270.80624
G1 X42.524 Y-45.319 E270.83443
G1 X42.522 Y-45.142 E270.85444
G1 X42.369 Y-44.866 E270.89011
G1 X42.234 Y-44.739 E270.91106
G1 X36.728 Y-41.56 E271.62976
G1 X60.128 Y-1.029 E276.92024
G1 X65.635 Y-4.208 E277.63904
G1 X65.874 Y-4.279 E277.66723
G1 X66.051 Y-4.277 E277.68724
G1 X66.327 Y-4.124 E277.72291
G1 X66.454 Y-3.989 E277.74386
G1 X82.453 Y23.724 E281.36118
G1 X82.524 Y23.963 E281.38936
G1 X82.522 Y24.14 E281.40937
G1 X82.369 Y24.416 E281.44504
G1 X82.234 Y24.543 E281.466
G1 X52.862 Y41.501 E285.29993
G1 X52.623 Y41.572 E285.32811
G1 X52.446 Y41.57 E285.34812
G1 X52.17 Y41.417 E285.38379
G1 X52.043 Y41.282 E285.40475
G1 X36.044 Y13.568 E289.02216
G1 X35.973 Y13.329 E289.05034
G1 X35.975 Y13.152 E289.07035
G1 X36.128 Y12.876 E289.10602
G1 X36.263 Y12.749 E289.12698
G1 X41.769 Y9.571 E289.84562
G1 X18.369 Y-30.96 E295.1361
G1 X13.107 Y-27.922 E295.82295
G0 F1080 X12.862 Y-27.781
G0 X12.623 Y-27.71
G1 F1500 E294.82295
G1 F600 Z1.3
;MESH:K??rper1
G0 F1500 X43.477 Y10.24 Z1.3
;TYPE:WALL-INNER
G1 F600 Z0.3
G1 F3600 E296.57993
G1 F1200 X43.321 Y10.464 E296.61079
G1 X43.157 Y10.613 E296.63583
G1 X37.926 Y13.631 E297.31852
G1 X52.927 Y39.613 E300.70996
G1 X80.566 Y23.657 E304.3176
G1 X65.569 Y-2.321 E307.70843
G1 X60.336 Y0.701 E308.39154
G1 X60.126 Y0.769 E308.41649
G1 X59.853 Y0.791 E308.44745
G1 X59.564 Y0.732 E308.48079
G1 X59.224 Y0.523 E308.52591
G1 X59.038 Y0.287 E308.55987
G1 X35.001 Y-41.353 E313.99492
G1 X34.92 Y-41.616 E314.02603
G1 X34.922 Y-41.949 E314.06368
G1 X35.015 Y-42.228 E314.09692
G1 X35.17 Y-42.452 E314.12771
G1 X35.334 Y-42.6 E314.15269
G1 X40.565 Y-45.622 E314.83559
G1 X25.566 Y-71.601 E318.22663
G1 X-2.07 Y-55.645 E321.83398
G1 X12.926 Y-29.663 E325.22514
G1 X18.185 Y-32.694 E325.9113
G1 X18.367 Y-32.753 E325.93293
G1 X18.639 Y-32.775 E325.96378
G1 X18.928 Y-32.716 E325.99712
G1 X19.114 Y-32.625 E326.02053
G1 X19.41 Y-32.341 E326.0669
G1 X43.504 Y9.379 E331.513
G1 X43.572 Y9.628 E331.54218
G1 X43.571 Y9.723 E331.55292
G0 F1080 X43.57 Y9.961
G0 X43.477 Y10.24
G0 F1500 X43.083 Y10.123
G1 F1200 X42.942 Y10.271 E331.57603
G1 X37.38 Y13.484 E332.30213
G1 X52.78 Y40.16 E335.78407
G1 X81.112 Y23.804 E339.48216
G1 X65.716 Y-2.868 E342.96349
G1 X60.148 Y0.343 E343.69007
G1 X59.875 Y0.392 E343.72142
G1 X59.701 Y0.356 E343.74151
G1 X59.528 Y0.258 E343.76398
G1 X59.412 Y0.131 E343.78343
G1 X35.355 Y-41.534 E349.22206
G1 X35.31 Y-41.718 E349.24347
G1 X35.339 Y-41.97 E349.27214
G1 X35.409 Y-42.111 E349.28994
G1 X35.55 Y-42.259 E349.31305
G1 X41.112 Y-45.476 E350.03938
G1 X25.712 Y-72.148 E353.52093
G1 X-2.616 Y-55.792 E357.21863
G1 X12.78 Y-29.116 E360.70034
G1 X18.344 Y-32.327 E361.42653
G1 X18.501 Y-32.371 E361.44496
G1 X18.722 Y-32.361 E361.46997
G1 X18.933 Y-32.265 E361.49617
G1 X19.071 Y-32.134 E361.51768
G1 X43.126 Y9.528 E366.9559
G1 X43.15 Y9.614 E366.966
G0 F1080 X43.182 Y9.73
G0 X43.153 Y9.982
G0 X43.083 Y10.123
G0 F1500 X42.704 Y9.949
;TYPE:WALL-OUTER
G1 F1200 X36.834 Y13.338 E367.73221
G1 X52.634 Y40.706 E371.3045
G1 X81.658 Y23.95 E375.09294
G1 X65.862 Y-3.414 E378.66462
G1 X59.988 Y-0.024 E379.43127
G1 X59.868 Y-0.011 E379.44492
G1 X59.762 Y-0.061 E379.45817
G1 X35.704 Y-41.729 E384.89714
