;FLAVOR:Marlin
;TIME:2585
;Filament used: 3.3597m
;Layer height: 0.24
;MINX:-47.997
;MINY:-42.997
;MINZ:0.3
;MAXX:58
;MAXY:42.996
;MAXZ:3.9
;Generated with Cura_SteamEngine 4.13.1
M140 S50
M105
M190 S50
M104 S210
M105
M109 S210
M82 ;absolute extrusion mode
;FLAVOR:Marlin
M82 ;absolute extrusion mode
G21
G90
M82
M107 T0
G28
G92 E0
G0 E3 F200
G92 E0 ; reset extrusion distance
M106 S255 ; Enable cooling fan full speed
G1 X-98 Y0 Z0.4 F3000 ; move to arc start
G3 X0 Y-98 I98 Z0.4 E40 F400 ; lay arc stripe 90deg
G92 E0 ; reset extrusion distance
G4 P500 ; wait for 0.5 sec
G0 Z10 E-1 ; Lift 15mm and retract 1mm filament
G4 P2000 ; wait for 5 sec
G0 Z15
M107 ; Disable cooling fan
G1 X0 Y-85 Z4 E0 F3000 ; get off the bed
G92 E0
G92 E0
G1 F1500 E-1
;LAYER_COUNT:16
;LAYER:0
M106 S102
G0 F3600 X35.869 Y13.309 Z0.3
;TYPE:SKIRT
G1 F3600 E0.71493
G1 F1200 X35.337 Y14.893 E0.79925
G1 X35.27 Y15.071 E0.80885
G1 X34.312 Y17.417 E0.93673
G1 X34.235 Y17.59 E0.94629
G1 X33.132 Y19.869 E1.07406
G1 X33.044 Y20.038 E1.08367
G1 X31.798 Y22.243 E1.21149
G1 X31.699 Y22.406 E1.22111
G1 X30.316 Y24.527 E1.34889
G1 X30.209 Y24.68 E1.35832
G1 X28.696 Y26.711 E1.48612
G1 X28.576 Y26.862 E1.49586
G1 X26.936 Y28.792 E1.62367
G1 X26.809 Y28.932 E1.63321
G1 X25.051 Y30.754 E1.76098
G1 X24.913 Y30.888 E1.77069
G1 X23.041 Y32.595 E1.89854
G1 X22.899 Y32.717 E1.90799
G1 X20.923 Y34.304 E2.03588
G1 X20.772 Y34.417 E2.0454
G1 X18.702 Y35.876 E2.17321
G1 X18.54 Y35.983 E2.183
G1 X16.382 Y37.304 E2.31069
G1 X16.22 Y37.396 E2.32009
G1 X13.981 Y38.582 E2.44796
G1 X13.808 Y38.667 E2.45769
G1 X11.499 Y39.706 E2.58546
G1 X11.326 Y39.777 E2.5949
G1 X8.955 Y40.671 E2.72278
G1 X8.772 Y40.734 E2.73254
G1 X6.349 Y41.473 E2.86038
G1 X6.169 Y41.521 E2.86978
G1 X3.707 Y42.107 E2.9975
G1 X3.519 Y42.146 E3.00719
G1 X1.022 Y42.574 E3.13504
G1 X0.836 Y42.6 E3.14452
G1 X-1.682 Y42.871 E3.27232
G1 X-1.874 Y42.885 E3.28204
G1 X-4.405 Y42.994 E3.40988
G1 X-4.593 Y42.996 E3.41937
G1 X-7.124 Y42.946 E3.54712
G1 X-7.315 Y42.937 E3.55677
G1 X-9.838 Y42.726 E3.68454
G1 X-10.026 Y42.704 E3.69409
G1 X-12.533 Y42.334 E3.82198
G1 X-12.72 Y42.3 E3.83157
G1 X-15.198 Y41.772 E3.95943
G1 X-15.383 Y41.727 E3.96904
G1 X-17.819 Y41.044 E4.09671
G1 X-18 Y40.987 E4.10629
G1 X-20.392 Y40.15 E4.23418
G1 X-20.568 Y40.082 E4.2437
G1 X-22.873 Y39.108 E4.36998
G1 X-23.072 Y39.015 E4.38107
G1 X-25.339 Y37.884 E4.50892
G1 X-25.508 Y37.793 E4.51861
G1 X-27.697 Y36.52 E4.6464
G1 X-27.858 Y36.42 E4.65596
G1 X-29.964 Y35.01 E4.78386
G1 X-30.117 Y34.901 E4.79334
G1 X-32.088 Y33.394 E4.91855
G1 X-32.276 Y33.241 E4.93079
G1 X-34.186 Y31.577 E5.05862
G1 X-34.324 Y31.449 E5.06812
G1 X-36.125 Y29.669 E5.19591
G1 X-36.256 Y29.53 E5.20555
G1 X-37.907 Y27.676 E5.33083
G1 X-38.061 Y27.492 E5.34294
G1 X-39.622 Y25.498 E5.47074
G1 X-39.734 Y25.346 E5.48026
G1 X-41.167 Y23.257 E5.60811
G1 X-41.27 Y23.096 E5.61775
G1 X-42.567 Y20.92 E5.74559
G1 X-42.659 Y20.754 E5.75517
G1 X-43.815 Y18.501 E5.88296
G1 X-43.896 Y18.33 E5.89251
G1 X-44.908 Y16.009 E6.02029
G1 X-44.978 Y15.833 E6.02985
G1 X-45.832 Y13.478 E6.15627
G1 X-45.9 Y13.269 E6.16736
G1 X-46.609 Y10.84 E6.29505
G1 X-46.656 Y10.659 E6.30449
G1 X-47.209 Y8.205 E6.43144
G1 X-47.277 Y7.833 E6.45052
G1 X-47.634 Y5.59 E6.56514
G1 X-47.693 Y5.074 E6.59135
G1 X-47.897 Y2.932 E6.69994
G1 X-47.929 Y2.409 E6.72638
G1 X-47.996 Y0.259 E6.83493
G1 X-47.997 Y-.259 E6.86107
G1 X-47.926 Y-2.479 E6.97316
G1 X-47.898 Y-2.93 E6.99597
G1 X-47.688 Y-5.132 E7.1076
G1 X-47.627 Y-5.637 E7.13327
G1 X-47.237 Y-8.063 E7.25727
G1 X-47.199 Y-8.256 E7.26719
G1 X-46.658 Y-10.657 E7.3914
G1 X-46.611 Y-10.839 E7.40088
G1 X-45.901 Y-13.269 E7.52864
G1 X-45.81 Y-13.543 E7.54321
G1 X-44.979 Y-15.832 E7.6661
G1 X-44.871 Y-16.097 E7.68055
G1 X-43.896 Y-18.33 E7.80351
G1 X-43.816 Y-18.5 E7.81299
G1 X-42.66 Y-20.753 E7.94078
G1 X-42.567 Y-20.92 E7.95043
G1 X-41.269 Y-23.096 E8.07829
G1 X-41.114 Y-23.338 E8.0928
G1 X-39.734 Y-25.347 E8.2158
G1 X-39.623 Y-25.497 E8.22521
G1 X-38.062 Y-27.491 E8.35301
G1 X-37.877 Y-27.71 E8.36748
G1 X-36.257 Y-29.529 E8.4904
G1 X-36.126 Y-29.667 E8.5
G1 X-34.325 Y-31.448 E8.62782
G1 X-34.185 Y-31.578 E8.63747
G1 X-32.274 Y-33.241 E8.76531
G1 X-32.052 Y-33.422 E8.77976
G1 X-30.117 Y-34.9 E8.90264
G1 X-29.965 Y-35.009 E8.91208
G1 X-27.859 Y-36.419 E9.03998
G1 X-27.698 Y-36.519 E9.04955
G1 X-25.509 Y-37.792 E9.17734
G1 X-25.342 Y-37.883 E9.18693
G1 X-23.076 Y-39.015 E9.31476
G1 X-22.813 Y-39.134 E9.32933
G1 X-20.568 Y-40.081 E9.45229
G1 X-20.394 Y-40.148 E9.4617
G1 X-18.002 Y-40.986 E9.58961
G1 X-17.818 Y-41.044 E9.59934
G1 X-15.382 Y-41.725 E9.72699
G1 X-15.2 Y-41.77 E9.73645
G1 X-12.722 Y-42.299 E9.86432
G1 X-12.534 Y-42.333 E9.87397
G1 X-10.027 Y-42.703 E10.00185
G1 X-9.839 Y-42.725 E10.0114
G1 X-7.316 Y-42.936 E10.13917
G1 X-7.128 Y-42.945 E10.14867
G1 X-4.597 Y-42.997 E10.27643
G1 X-4.406 Y-42.995 E10.28607
G1 X-1.876 Y-42.886 E10.41386
G1 X-1.685 Y-42.872 E10.42353
G1 X0.834 Y-42.602 E10.55138
G1 X1.02 Y-42.576 E10.56085
G1 X3.517 Y-42.149 E10.68869
G1 X3.707 Y-42.11 E10.69848
G1 X6.169 Y-41.523 E10.82621
G1 X6.349 Y-41.474 E10.83563
G1 X8.772 Y-40.734 E10.96348
G1 X8.953 Y-40.672 E10.97313
G1 X11.324 Y-39.779 E11.10099
G1 X11.499 Y-39.707 E11.11054
G1 X13.808 Y-38.667 E11.23834
G1 X13.979 Y-38.584 E11.24793
G1 X16.218 Y-37.399 E11.37577
G1 X16.382 Y-37.305 E11.38531
G1 X18.54 Y-35.983 E11.51303
G1 X18.701 Y-35.877 E11.52276
G1 X20.771 Y-34.418 E11.65056
G1 X20.92 Y-34.306 E11.65997
G1 X22.896 Y-32.721 E11.7878
G1 X23.042 Y-32.597 E11.79747
G1 X24.913 Y-30.889 E11.92532
G1 X25.049 Y-30.756 E11.93491
G1 X26.807 Y-28.934 E12.06269
G1 X26.934 Y-28.794 E12.07222
G1 X28.574 Y-26.864 E12.20004
G1 X28.693 Y-26.714 E12.2097
G1 X30.206 Y-24.684 E12.33747
G1 X30.314 Y-24.529 E12.347
G1 X31.698 Y-22.406 E12.4749
G1 X31.797 Y-22.244 E12.48448
G1 X33.043 Y-20.04 E12.61225
G1 X33.131 Y-19.871 E12.62186
G1 X34.234 Y-17.592 E12.74963
G1 X34.311 Y-17.42 E12.75914
G1 X35.27 Y-15.073 E12.88709
G1 X35.336 Y-14.895 E12.89667
G1 X35.87 Y-13.309 E12.98113
G1 X51.785 Y-17.289 E13.80901
G1 X52.172 Y-17.36 E13.82887
G1 X52.687 Y-17.419 E13.85503
G1 X53.46 Y-17.407 E13.89404
G1 X53.975 Y-17.332 E13.92031
G1 X54.721 Y-17.122 E13.95942
G1 X55.194 Y-16.92 E13.98537
G1 X55.86 Y-16.527 E14.0244
G1 X56.268 Y-16.209 E14.0505
G1 X56.813 Y-15.657 E14.08965
G1 X57.125 Y-15.246 E14.11569
G1 X57.514 Y-14.565 E14.15527
G1 X57.711 Y-14.082 E14.18159
G1 X57.907 Y-13.341 E14.22027
G1 X57.974 Y-12.832 E14.24618
G1 X58 Y-12.44 E14.26601
G1 X58 Y12.436 E15.52138
G1 X57.975 Y12.825 E15.54106
G1 X57.908 Y13.337 E15.56711
G1 X57.712 Y14.079 E15.60584
G1 X57.515 Y14.563 E15.63221
G1 X57.123 Y15.249 E15.67209
G1 X56.811 Y15.659 E15.69809
G1 X56.272 Y16.205 E15.73681
G1 X55.864 Y16.524 E15.76294
G1 X55.194 Y16.92 E15.80222
G1 X54.721 Y17.122 E15.82817
G1 X53.975 Y17.332 E15.86728
G1 X53.46 Y17.407 E15.89355
G1 X52.687 Y17.419 E15.93256
G1 X52.172 Y17.36 E15.95872
G1 X51.785 Y17.289 E15.97858
G1 X36.385 Y13.438 E16.77967
G0 F1080 X35.869 Y13.309
G0 F3600 X35.608 Y12.831
G1 F1200 X34.958 Y14.765 E16.88264
G1 X34.9 Y14.92 E16.89099
G1 X33.942 Y17.266 E17.01887
G1 X33.875 Y17.416 E17.02716
G1 X32.772 Y19.695 E17.15494
G1 X32.696 Y19.841 E17.16324
G1 X31.45 Y22.046 E17.29106
G1 X31.364 Y22.187 E17.29939
G1 X29.981 Y24.308 E17.42717
G1 X29.888 Y24.441 E17.43536
G1 X28.375 Y26.472 E17.56317
G1 X28.271 Y26.603 E17.57161
G1 X26.631 Y28.533 E17.69942
G1 X26.521 Y28.654 E17.70768
G1 X24.763 Y30.476 E17.83545
G1 X24.644 Y30.592 E17.84383
G1 X22.772 Y32.299 E17.97168
G1 X22.648 Y32.405 E17.97992
G1 X20.672 Y33.992 E18.10782
G1 X20.542 Y34.09 E18.11603
G1 X18.472 Y35.549 E18.24383
G1 X18.331 Y35.642 E18.25236
G1 X16.173 Y36.963 E18.38005
G1 X16.033 Y37.043 E18.38818
G1 X13.794 Y38.229 E18.51605
G1 X13.644 Y38.302 E18.52447
G1 X11.335 Y39.341 E18.65225
G1 X11.185 Y39.403 E18.66044
G1 X8.814 Y40.297 E18.78831
G1 X8.655 Y40.351 E18.79679
G1 X6.232 Y41.09 E18.92463
G1 X6.076 Y41.132 E18.93278
G1 X3.614 Y41.718 E19.06049
G1 X3.451 Y41.752 E19.0689
G1 X0.954 Y42.18 E19.19675
G1 X0.793 Y42.202 E19.20495
G1 X-1.725 Y42.473 E19.33275
G1 X-1.891 Y42.486 E19.34116
G1 X-4.422 Y42.595 E19.469
G1 X-4.585 Y42.596 E19.47723
G1 X-7.116 Y42.546 E19.60498
G1 X-7.282 Y42.538 E19.61337
G1 X-9.805 Y42.327 E19.74114
G1 X-9.968 Y42.308 E19.74942
G1 X-12.475 Y41.938 E19.8773
G1 X-12.637 Y41.909 E19.88561
G1 X-15.115 Y41.381 E20.01347
G1 X-15.275 Y41.341 E20.02179
G1 X-17.711 Y40.658 E20.14947
G1 X-17.868 Y40.609 E20.15777
G1 X-20.26 Y39.772 E20.28566
G1 X-20.412 Y39.713 E20.29388
G1 X-22.71 Y38.743 E20.41976
G1 X-22.894 Y38.658 E20.42999
G1 X-25.161 Y37.527 E20.55784
G1 X-25.307 Y37.448 E20.56622
G1 X-27.496 Y36.175 E20.69401
G1 X-27.635 Y36.087 E20.70231
G1 X-29.741 Y34.677 E20.83021
G1 X-29.874 Y34.583 E20.83843
G1 X-31.84 Y33.08 E20.96332
G1 X-32.013 Y32.939 E20.97458
G1 X-33.923 Y31.275 E21.10242
G1 X-34.043 Y31.164 E21.11067
G1 X-35.844 Y29.384 E21.23846
G1 X-35.958 Y29.264 E21.24681
G1 X-37.604 Y27.415 E21.37174
G1 X-37.746 Y27.246 E21.38288
G1 X-39.307 Y25.252 E21.51067
G1 X-39.404 Y25.12 E21.51894
G1 X-40.837 Y23.031 E21.64678
G1 X-40.926 Y22.891 E21.65515
G1 X-42.223 Y20.715 E21.78299
G1 X-42.303 Y20.571 E21.79131
G1 X-43.459 Y18.318 E21.9191
G1 X-43.529 Y18.17 E21.92736
G1 X-44.541 Y15.849 E22.05514
G1 X-44.602 Y15.697 E22.0634
G1 X-45.453 Y13.35 E22.18939
G1 X-45.516 Y13.157 E22.19964
G1 X-46.225 Y10.728 E22.32733
G1 X-46.265 Y10.571 E22.33551
G1 X-46.818 Y8.117 E22.46246
G1 X-46.882 Y7.77 E22.48026
G1 X-47.239 Y5.527 E22.59488
G1 X-47.295 Y5.037 E22.61977
G1 X-47.507 Y2.797 E22.73332
G1 X-47.529 Y2.397 E22.75353
G1 X-47.597 Y0.174 E22.86577
G1 X-47.597 Y-.246 E22.88697
G1 X-47.526 Y-2.458 E22.99865
G1 X-47.5 Y-2.892 E23.02059
G1 X-47.291 Y-5.086 E23.13182
G1 X-47.232 Y-5.574 E23.15662
G1 X-46.844 Y-7.988 E23.28001
G1 X-46.808 Y-8.169 E23.28932
G1 X-46.267 Y-10.57 E23.41353
G1 X-46.227 Y-10.727 E23.4217
G1 X-45.517 Y-13.157 E23.54946
G1 X-45.434 Y-13.406 E23.56271
G1 X-44.603 Y-15.695 E23.6856
G1 X-44.505 Y-15.937 E23.69878
G1 X-43.53 Y-18.17 E23.82174
G1 X-43.46 Y-18.317 E23.82995
G1 X-42.304 Y-20.57 E23.95775
G1 X-42.224 Y-20.715 E23.9661
G1 X-40.926 Y-22.891 E24.09397
G1 X-40.784 Y-23.111 E24.10718
G1 X-39.404 Y-25.12 E24.23018
G1 X-39.308 Y-25.251 E24.23838
G1 X-37.747 Y-27.245 E24.36617
G1 X-37.579 Y-27.444 E24.37932
G1 X-35.959 Y-29.263 E24.50224
G1 X-35.845 Y-29.383 E24.51059
G1 X-34.044 Y-31.164 E24.63842
G1 X-33.923 Y-31.276 E24.64674
G1 X-31.942 Y-32.998 E24.7792
G1 X-31.809 Y-33.104 E24.78778
G1 X-29.874 Y-34.582 E24.91066
G1 X-29.742 Y-34.676 E24.91884
G1 X-27.636 Y-36.086 E25.04674
G1 X-27.497 Y-36.174 E25.05504
G1 X-25.308 Y-37.447 E25.18283
G1 X-25.163 Y-37.525 E25.19114
G1 X-22.897 Y-38.657 E25.31897
G1 X-22.658 Y-38.766 E25.33223
G1 X-20.413 Y-39.713 E25.45519
G1 X-20.262 Y-39.771 E25.46335
G1 X-17.87 Y-40.609 E25.59126
G1 X-17.71 Y-40.659 E25.59972
G1 X-15.274 Y-41.34 E25.72736
G1 X-15.117 Y-41.379 E25.73553
G1 X-12.639 Y-41.908 E25.8634
G1 X-12.476 Y-41.937 E25.87175
G1 X-9.969 Y-42.307 E25.99964
G1 X-9.806 Y-42.326 E26.00792
G1 X-7.283 Y-42.537 E26.13569
G1 X-7.119 Y-42.545 E26.14398
G1 X-4.588 Y-42.597 E26.27173
G1 X-4.423 Y-42.596 E26.28006
G1 X-1.893 Y-42.487 E26.40785
G1 X-1.728 Y-42.474 E26.41621
G1 X0.791 Y-42.204 E26.54406
G1 X0.952 Y-42.182 E26.55226
G1 X3.449 Y-41.755 E26.6801
G1 X3.614 Y-41.721 E26.6886
G1 X6.076 Y-41.134 E26.81633
G1 X6.232 Y-41.092 E26.82448
G1 X8.655 Y-40.352 E26.95233
G1 X8.812 Y-40.298 E26.96071
G1 X11.183 Y-39.405 E27.08857
G1 X11.335 Y-39.343 E27.09685
G1 X13.644 Y-38.303 E27.22465
G1 X13.792 Y-38.23 E27.23298
G1 X16.031 Y-37.045 E27.36082
G1 X16.173 Y-36.964 E27.36907
G1 X18.331 Y-35.642 E27.49679
G1 X18.471 Y-35.55 E27.50524
G1 X20.541 Y-34.091 E27.63305
G1 X20.67 Y-33.994 E27.64119
G1 X22.646 Y-32.409 E27.76903
G1 X22.772 Y-32.301 E27.7774
G1 X24.643 Y-30.593 E27.90525
G1 X24.761 Y-30.478 E27.91356
G1 X26.519 Y-28.656 E28.04133
G1 X26.629 Y-28.535 E28.04959
G1 X28.269 Y-26.605 E28.1774
G1 X28.373 Y-26.475 E28.1858
G1 X29.886 Y-24.445 E28.31357
G1 X29.979 Y-24.311 E28.3218
G1 X31.363 Y-22.188 E28.44969
G1 X31.448 Y-22.048 E28.45796
G1 X32.694 Y-19.844 E28.58573
G1 X32.771 Y-19.697 E28.5941
G1 X33.874 Y-17.418 E28.72187
G1 X33.941 Y-17.268 E28.73017
G1 X34.9 Y-14.921 E28.85811
G1 X34.957 Y-14.767 E28.8664
G1 X35.608 Y-12.831 E28.96948
G1 X51.882 Y-16.901 E29.81604
G1 X52.217 Y-16.962 E29.83323
G1 X52.732 Y-17.021 E29.85939
G1 X53.403 Y-17.011 E29.89325
G1 X53.918 Y-16.936 E29.91952
G1 X54.564 Y-16.754 E29.95339
G1 X55.037 Y-16.552 E29.97934
G1 X55.614 Y-16.212 E30.01314
G1 X56.022 Y-15.894 E30.03924
G1 X56.495 Y-15.415 E30.07322
G1 X56.807 Y-15.004 E30.09926
G1 X57.143 Y-14.414 E30.13352
G1 X57.34 Y-13.931 E30.15985
G1 X57.511 Y-13.288 E30.19342
G1 X57.578 Y-12.779 E30.21933
G1 X57.6 Y-12.44 E30.23648
G1 X57.6 Y12.436 E31.49185
G1 X57.578 Y12.773 E31.50889
G1 X57.511 Y13.285 E31.53495
G1 X57.341 Y13.928 E31.56852
G1 X57.144 Y14.412 E31.59489
G1 X56.805 Y15.006 E31.6294
G1 X56.493 Y15.416 E31.6554
G1 X56.025 Y15.89 E31.68902
G1 X55.617 Y16.209 E31.71515
G1 X55.037 Y16.552 E31.74916
G1 X54.564 Y16.754 E31.77511
G1 X53.918 Y16.936 E31.80898
G1 X53.403 Y17.011 E31.83525
G1 X52.732 Y17.021 E31.86911
G1 X52.217 Y16.962 E31.89527
G1 X51.882 Y16.901 E31.91246
G1 X36.124 Y12.96 E32.73218
G0 F1080 X35.608 Y12.831
G0 F3600 X35.346 Y12.353
G1 F1200 X34.578 Y14.638 E32.85383
G1 X34.53 Y14.769 E32.86087
G1 X33.572 Y17.115 E32.98876
G1 X33.515 Y17.241 E32.99574
G1 X32.412 Y19.52 E33.12351
G1 X32.347 Y19.644 E33.13057
G1 X31.101 Y21.849 E33.25839
G1 X31.029 Y21.969 E33.26545
G1 X29.646 Y24.09 E33.39323
G1 X29.567 Y24.202 E33.40015
G1 X28.054 Y26.233 E33.52796
G1 X27.966 Y26.344 E33.5351
G1 X26.326 Y28.274 E33.66292
G1 X26.233 Y28.377 E33.66992
G1 X24.475 Y30.199 E33.79769
G1 X24.374 Y30.297 E33.80479
G1 X22.502 Y32.004 E33.93264
G1 X22.398 Y32.093 E33.93955
G1 X20.422 Y33.68 E34.06745
G1 X20.311 Y33.763 E34.07444
G1 X18.241 Y35.222 E34.20225
G1 X18.123 Y35.3 E34.20939
G1 X15.965 Y36.621 E34.33707
G1 X15.846 Y36.689 E34.34399
G1 X13.607 Y37.875 E34.47186
G1 X13.48 Y37.937 E34.47899
G1 X11.171 Y38.976 E34.60677
G1 X11.044 Y39.029 E34.61371
G1 X8.673 Y39.923 E34.74159
G1 X8.539 Y39.968 E34.74872
G1 X6.116 Y40.707 E34.87656
G1 X5.983 Y40.743 E34.88351
G1 X3.521 Y41.329 E35.01123
G1 X3.384 Y41.357 E35.01829
G1 X0.887 Y41.785 E35.14613
G1 X0.75 Y41.804 E35.15311
G1 X-1.768 Y42.075 E35.28092
G1 X-1.908 Y42.086 E35.28801
G1 X-4.439 Y42.195 E35.41585
G1 X-4.577 Y42.197 E35.42282
G1 X-7.108 Y42.147 E35.55057
G1 X-7.248 Y42.139 E35.55765
G1 X-9.771 Y41.928 E35.68542
G1 X-9.909 Y41.912 E35.69243
G1 X-12.416 Y41.542 E35.82031
G1 X-12.553 Y41.518 E35.82733
G1 X-15.031 Y40.99 E35.95519
G1 X-15.167 Y40.956 E35.96227
G1 X-17.603 Y40.273 E36.08994
G1 X-17.736 Y40.232 E36.09697
G1 X-20.128 Y39.395 E36.22485
G1 X-20.257 Y39.345 E36.23184
G1 X-22.546 Y38.378 E36.35724
G1 X-22.715 Y38.3 E36.36663
G1 X-24.982 Y37.169 E36.49448
G1 X-25.106 Y37.102 E36.50159
G1 X-27.295 Y35.829 E36.62939
G1 X-27.413 Y35.755 E36.63641
G1 X-29.519 Y34.345 E36.76432
G1 X-29.631 Y34.265 E36.77126
G1 X-31.592 Y32.766 E36.89582
G1 X-31.75 Y32.638 E36.90609
G1 X-33.66 Y30.974 E37.03392
G1 X-33.761 Y30.88 E37.04089
G1 X-35.562 Y29.1 E37.16867
G1 X-35.659 Y28.998 E37.17578
G1 X-37.302 Y27.153 E37.30045
G1 X-37.431 Y26.999 E37.31059
G1 X-38.992 Y25.005 E37.43839
G1 X-39.074 Y24.893 E37.44539
G1 X-40.507 Y22.804 E37.57323
G1 X-40.583 Y22.686 E37.58032
G1 X-41.88 Y20.51 E37.70816
