;FLAVOR:Marlin
;TIME:4501
;Filament used: 5.32059m
;Layer height: 0.24
;MINX:-32.807
;MINY:11.067
;MINZ:0.24
;MAXX:33.341
;MAXY:81.12
;MAXZ:46.56
;Generated with Cura_SteamEngine 4.13.1
M140 S50
M105
M190 S50
M104 S215
M105
M109 S215
M82 ;absolute extrusion mode
;FLAVOR:Marlin
M82 ;absolute extrusion mode
G21
G90
M82
M107 T0
G28
G92 E0
G0 E3 F200
G92 E0 ; reset extrusion distance
M106 S255 ; Enable cooling fan full speed
G1 X-98 Y0 Z0.4 F3000 ; move to arc start
G3 X0 Y-98 I98 Z0.4 E40 F400 ; lay arc stripe 90deg
G92 E0 ; reset extrusion distance
G4 P500 ; wait for 0.5 sec
G0 Z10 E-1 ; Lift 15mm and retract 1mm filament
G4 P2000 ; wait for 5 sec
G0 Z15
M107 ; Disable cooling fan
G1 X0 Y-85 Z4 E0 F3000 ; get off the bed
G92 E0
G92 E0
G1 F1500 E-6
;LAYER_COUNT:216
;LAYER:0
M106 S102
G1 F600 Z1.24
G0 F3600 X-10.261 Y11.735 Z1.24
;TYPE:SKIRT
G1 F600 Z0.24
G1 F3600 E0.71493
G1 F1200 X-9.905 Y12.071 E0.73666
G1 X-9.608 Y12.461 E0.75843
G1 X-9.379 Y12.893 E0.78015
G1 X-9.223 Y13.357 E0.80189
G1 X-9.144 Y13.84 E0.82362
G1 X-9.146 Y14.33 E0.84538
G1 X-9.226 Y14.813 E0.86713
G1 X-9.44 Y15.379 E0.894
G1 X-8.501 Y15.921 E0.94215
G1 X-8.098 Y16.199 E0.96389
G1 X-7.747 Y16.54 E0.98562
G1 X-7.455 Y16.933 E1.00736
G1 X-7.231 Y17.368 E1.02909
G1 X-7.08 Y17.834 E1.05085
G1 X-7.008 Y18.318 E1.07258
G1 X-7.015 Y18.807 E1.0943
G1 X-7.102 Y19.289 E1.11605
G1 X-7.265 Y19.75 E1.13776
G1 X-7.403 Y20.019 E1.15119
G1 X-9.738 Y24.063 E1.35857
G1 X-10.081 Y24.663 E1.38926
G1 X-10.393 Y25.223 E1.41773
G1 X-10.94 Y26.247 E1.46929
G1 X-11.395 Y27.162 E1.51467
G1 X-11.76 Y27.981 E1.55449
G1 X-12.018 Y28.65 E1.58633
G1 X-12.192 Y29.233 E1.61335
G1 X-12.251 Y29.595 E1.62964
G1 X-11.845 Y29.826 E1.65038
G1 X-11.186 Y30.085 E1.68183
G1 X-10.728 Y30.226 E1.70311
G1 X-10.197 Y30.366 E1.7275
G1 X-9.599 Y30.501 E1.75472
G1 X-8.906 Y30.632 E1.78604
G1 X30.489 Y37.578 E3.56254
G1 X30.962 Y37.702 E3.58425
G1 X31.409 Y37.901 E3.60598
G1 X31.818 Y38.17 E3.62772
G1 X32.178 Y38.503 E3.6495
G1 X32.478 Y38.889 E3.67121
G1 X32.712 Y39.319 E3.69295
G1 X32.873 Y39.782 E3.71472
G1 X32.961 Y40.32 E3.73893
G1 X33.341 Y45.694 E3.97818
G1 X33.302 Y46.427 E4.01078
G1 X29.486 Y68.067 E4.98663
G1 X29.362 Y68.54 E5.00835
G1 X29.163 Y68.988 E5.03012
G1 X28.894 Y69.396 E5.05182
G1 X28.564 Y69.753 E5.07341
G1 X28.698 Y70.382 E5.10197
G1 X28.668 Y71.152 E5.13619
G1 X28.609 Y71.42 E5.14838
G1 X29.802 Y73.08 E5.23916
G1 X30.087 Y73.567 E5.26422
G1 X30.329 Y74.088 E5.28973
G1 X30.513 Y74.603 E5.31402
G1 X30.643 Y75.107 E5.33713
G1 X30.726 Y75.589 E5.35885
G1 X30.725 Y76.136 E5.38314
G1 X30.669 Y76.733 E5.40977
G1 X30.636 Y76.979 E5.4208
G1 X30.435 Y78.103 E5.4715
G1 X30.33 Y78.673 E5.49724
G1 X30.203 Y79.146 E5.51899
G1 X30 Y79.592 E5.54075
G1 X29.727 Y79.998 E5.56248
G1 X29.392 Y80.355 E5.58422
G1 X29.004 Y80.653 E5.60595
G1 X28.572 Y80.883 E5.62768
G1 X28.108 Y81.04 E5.64944
G1 X27.625 Y81.12 E5.67118
G1 X26.854 Y81.084 E5.70546
G1 X25.624 Y80.865 E5.76094
G1 X25.151 Y80.74 E5.78267
G1 X24.657 Y80.513 E5.80681
G1 X20.78 Y78.288 E6.00532
G1 X20.398 Y78.025 E6.02592
G1 X20.358 Y78.579 E6.05059
G1 X20.239 Y79.054 E6.07233
G1 X20.045 Y79.503 E6.09406
G1 X19.78 Y79.915 E6.11581
G1 X19.452 Y80.278 E6.13754
G1 X19.069 Y80.583 E6.15928
G1 X18.641 Y80.821 E6.18103
G1 X18.181 Y80.987 E6.20275
G1 X17.7 Y81.076 E6.22447
G1 X17.21 Y81.085 E6.24623
G1 X16.88 Y81.046 E6.26099
G1 X15.366 Y80.781 E6.32925
G1 X13.927 Y81.032 E6.39412
G1 X13.44 Y81.077 E6.41584
G1 X12.895 Y81.032 E6.44012
G1 X11.893 Y80.857 E6.4853
G1 X11.419 Y80.734 E6.50704
G1 X10.972 Y80.535 E6.52877
G1 X10.563 Y80.267 E6.55049
G1 X10.203 Y79.935 E6.57224
G1 X9.902 Y79.549 E6.59397
G1 X9.667 Y79.119 E6.61574
G1 X9.506 Y78.657 E6.63746
G1 X9.409 Y77.902 E6.67127
G1 X9.409 Y76.12 E6.75041
G1 X9.329 Y76.099 E6.75408
G1 X6.637 Y76.099 E6.87363
G1 X6.483 Y76.104 E6.88047
G1 X5.868 Y76.061 E6.90785
G1 X3.051 Y75.567 E7.03486
G1 X2.577 Y75.443 E7.05662
G1 X2.13 Y75.244 E7.07835
G1 X1.721 Y74.975 E7.10009
G1 X1.361 Y74.643 E7.12184
G1 X1.06 Y74.257 E7.14357
G1 X0.826 Y73.827 E7.16531
G1 X0.711 Y73.497 E7.18083
G1 X-0.067 Y73.497 E7.21539
G1 X-.704 Y73.563 E7.24383
G1 X-1.243 Y73.515 E7.26786
G1 X-1.766 Y73.421 E7.29146
G1 X-3.056 Y73.918 E7.35285
G1 X-3.608 Y74.073 E7.37831
G1 X-5.777 Y74.459 E7.47615
G1 X-6.265 Y74.505 E7.49792
G1 X-6.818 Y74.46 E7.52256
G1 X-7.85 Y74.28 E7.56908
G1 X-8.324 Y74.157 E7.59082
G1 X-8.772 Y73.959 E7.61258
G1 X-9.181 Y73.69 E7.63432
G1 X-9.541 Y73.358 E7.65606
G1 X-9.842 Y72.973 E7.67777
G1 X-10.077 Y72.543 E7.69953
G1 X-10.238 Y72.081 E7.72126
G1 X-10.322 Y71.599 E7.74298
G1 X-10.29 Y70.807 E7.77819
G1 X-10.254 Y70.539 E7.79019
G1 X-10.336 Y70.057 E7.81191
G1 X-10.338 Y69.567 E7.83367
G1 X-10.255 Y69.061 E7.85644
G1 X-10.022 Y68.25 E7.89391
G1 X-9.882 Y67.902 E7.91057
G1 X-9.601 Y67.367 E7.93741
G1 X-9.23 Y66.806 E7.96728
G1 X-8.928 Y66.421 E7.98901
G1 X-8.648 Y66.156 E8.00613
G1 X-7.637 Y65.313 E8.06459
G1 X-7.62 Y64.928 E8.0817
G1 X-7.548 Y64.582 E8.09739
G1 X-17.529 Y62.822 E8.54748
G1 X-17.763 Y62.771 E8.55812
G1 X-18.428 Y62.598 E8.58864
G1 X-18.87 Y62.446 E8.60939
G1 X-19.493 Y62.175 E8.63956
G1 X-19.915 Y61.95 E8.6608
G1 X-20.508 Y61.57 E8.69208
G1 X-20.879 Y61.289 E8.71275
G1 X-21.388 Y60.838 E8.74295
G1 X-21.72 Y60.492 E8.76424
G1 X-22.165 Y59.948 E8.79546
G1 X-22.425 Y59.576 E8.81561
G1 X-22.768 Y58.996 E8.84554
G1 X-22.978 Y58.567 E8.86675
G1 X-23.232 Y57.921 E8.89757
G1 X-23.369 Y57.471 E8.91846
G1 X-23.518 Y56.797 E8.94912
G1 X-23.583 Y56.332 E8.96997
G1 X-23.625 Y55.646 E9.00049
G1 X-23.617 Y55.176 E9.02137
G1 X-23.55 Y54.478 E9.05251
G1 X-23.445 Y53.794 E9.08324
G1 X-23.369 Y53.25 E9.10763
G1 X-23.31 Y52.748 E9.13008
G1 X-23.255 Y52.2 E9.15454
G1 X-23.157 Y50.893 E9.21275
G1 X-23.1 Y49.589 E9.27071
G1 X-23.078 Y48.192 E9.33276
G1 X-23.093 Y47.193 E9.37713
G1 X-25.053 Y50.586 E9.55114
G1 X-25.332 Y50.988 E9.57287
G1 X-25.672 Y51.34 E9.59461
G1 X-26.065 Y51.632 E9.61635
G1 X-26.501 Y51.856 E9.63812
G1 X-26.967 Y52.006 E9.65986
G1 X-27.451 Y52.078 E9.68159
G1 X-27.94 Y52.071 E9.70331
G1 X-28.422 Y51.984 E9.72506
G1 X-29.152 Y51.682 E9.76014
G1 X-31.315 Y50.432 E9.87109
G1 X-31.717 Y50.154 E9.89279
G1 X-32.069 Y49.813 E9.91456
G1 X-32.361 Y49.42 E9.9363
G1 X-32.585 Y48.985 E9.95803
G1 X-32.735 Y48.519 E9.97977
G1 X-32.807 Y48.035 E10.0015
G1 X-32.8 Y47.546 E10.02322
G1 X-32.713 Y47.064 E10.04497
G1 X-32.412 Y46.335 E10.08
G1 X-14.764 Y15.769 E11.64743
G1 X-14.697 Y15.672 E11.65266
G1 X-14.892 Y15.321 E11.67049
G1 X-15.058 Y14.861 E11.69221
G1 X-15.147 Y14.38 E11.71393
G1 X-15.156 Y13.89 E11.7357
G1 X-15.086 Y13.406 E11.75742
G1 X-14.937 Y12.939 E11.77919
G1 X-14.715 Y12.503 E11.80091
G1 X-14.283 Y11.957 E11.83183
G1 X-13.898 Y11.628 E11.85432
G1 X-13.478 Y11.376 E11.87608
G1 X-13.023 Y11.196 E11.89781
G1 X-12.545 Y11.092 E11.91953
G1 X-12.056 Y11.067 E11.94127
G1 X-11.57 Y11.123 E11.963
G1 X-11.099 Y11.256 E11.98473
G1 X-10.825 Y11.386 E11.9982
G0 F1080 X-10.656 Y11.465
G0 X-10.261 Y11.735
G0 F3600 X-10.526 Y12.036
G1 F1200 X-10.181 Y12.362 E12.01928
G1 X-9.912 Y12.73 E12.03953
G1 X-9.711 Y13.139 E12.05976
G1 X-9.584 Y13.576 E12.07997
G1 X-9.535 Y14.029 E12.10021
G1 X-9.567 Y14.484 E12.12046
G1 X-9.677 Y14.926 E12.14069
G1 X-9.863 Y15.342 E12.16093
G1 X-9.987 Y15.525 E12.17075
G1 X-8.701 Y16.267 E12.23668
G1 X-8.328 Y16.529 E12.25692
G1 X-8.006 Y16.852 E12.27718
G1 X-7.746 Y17.225 E12.29737
G1 X-7.554 Y17.639 E12.31764
G1 X-7.438 Y18.08 E12.33789
G1 X-7.401 Y18.534 E12.35812
G1 X-7.444 Y18.987 E12.37832
G1 X-7.565 Y19.427 E12.39859
G1 X-7.749 Y19.819 E12.41782
G1 X-10.084 Y23.863 E12.6252
G1 X-10.413 Y24.438 E12.65462
G1 X-10.721 Y24.991 E12.68273
G1 X-11.307 Y26.086 E12.73788
G1 X-11.755 Y26.99 E12.78269
G1 X-12.138 Y27.845 E12.8243
G1 X-12.397 Y28.519 E12.85636
G1 X-12.579 Y29.13 E12.88467
G1 X-12.656 Y29.637 E12.90745
G1 X-12.633 Y29.793 E12.91445
G1 X-12.262 Y30.061 E12.93478
G1 X-11.712 Y30.319 E12.96175
G1 X-11.314 Y30.464 E12.98057
G1 X-10.828 Y30.613 E13.00314
G1 X-10.297 Y30.753 E13.02753
G1 X-9.658 Y30.898 E13.05663
G1 X-9.008 Y31.019 E13.08599
G1 X30.419 Y37.971 E14.86393
G1 X30.86 Y38.09 E14.88422
G1 X31.272 Y38.283 E14.90442
G1 X31.645 Y38.545 E14.92466
G1 X31.966 Y38.868 E14.94489
G1 X32.226 Y39.243 E14.96515
G1 X32.416 Y39.656 E14.98534
G1 X32.562 Y40.349 E15.01679
G1 X32.942 Y45.723 E15.25604
G1 X32.908 Y46.358 E15.28429
G1 X29.092 Y67.998 E16.26013
G1 X28.974 Y68.438 E16.28036
G1 X28.781 Y68.85 E16.30057
G1 X28.519 Y69.223 E16.32081
G1 X28.087 Y69.62 E16.34687
G1 X28.273 Y70.215 E16.37455
G1 X28.31 Y70.669 E16.39478
G1 X28.255 Y71.191 E16.41809
G1 X28.174 Y71.501 E16.43232
G1 X29.477 Y73.313 E16.53144
G1 X29.724 Y73.736 E16.55319
G1 X29.966 Y74.257 E16.5787
G1 X30.126 Y74.703 E16.59974
G1 X30.256 Y75.207 E16.62286
G1 X30.33 Y75.656 E16.64307
G1 X30.327 Y76.099 E16.66274
G1 X30.271 Y76.696 E16.68937
G1 X30.242 Y76.909 E16.69892
G1 X30.042 Y78.031 E16.74953
G1 X29.937 Y78.601 E16.77527
G1 X29.815 Y79.04 E16.7955
G1 X29.619 Y79.451 E16.81572
G1 X29.354 Y79.822 E16.83597
G1 X29.028 Y80.141 E16.85623
G1 X28.652 Y80.397 E16.87643
G1 X28.237 Y80.585 E16.89666
G1 X27.795 Y80.697 E16.91691
G1 X27.341 Y80.73 E16.93712
G1 X26.924 Y80.69 E16.95573
G1 X25.694 Y80.471 E17.01121
G1 X25.254 Y80.352 E17.03145
G1 X24.856 Y80.166 E17.05096
G1 X20.979 Y77.941 E17.24948
G1 X20.605 Y77.68 E17.26973
G1 X20.282 Y77.359 E17.28995
G1 X19.998 Y76.934 E17.31265
G1 X19.998 Y78.091 E17.36404
G1 X19.958 Y78.545 E17.38428
G1 X19.84 Y78.985 E17.40451
G1 X19.646 Y79.397 E17.42473
G1 X19.383 Y79.77 E17.445
G1 X19.06 Y80.091 E17.46522
G1 X18.685 Y80.35 E17.48546
G1 X18.271 Y80.54 E17.50569
G1 X17.83 Y80.655 E17.52593
G1 X17.376 Y80.691 E17.54616
G1 X16.949 Y80.652 E17.5652
G1 X15.367 Y80.375 E17.63652
G1 X13.859 Y80.638 E17.7045
G1 X13.405 Y80.677 E17.72474
G1 X12.964 Y80.638 E17.7444
G1 X11.962 Y80.463 E17.78957
G1 X11.521 Y80.346 E17.80983
G1 X11.108 Y80.153 E17.83008
G1 X10.735 Y79.892 E17.8503
G1 X10.414 Y79.569 E17.87052
G1 X10.153 Y79.195 E17.89077
G1 X9.962 Y78.782 E17.91098
G1 X9.846 Y78.341 E17.93123
G1 X9.809 Y77.902 E17.9508
G1 X9.809 Y75.802 E18.04406
G1 X9.371 Y75.699 E18.06404
G1 X6.385 Y75.699 E18.19664
G1 X5.937 Y75.667 E18.21659
G1 X3.12 Y75.173 E18.3436
G1 X2.68 Y75.055 E18.36383
G1 X2.267 Y74.862 E18.38408
G1 X1.894 Y74.601 E18.40429
G1 X1.573 Y74.278 E18.42452
G1 X1.312 Y73.904 E18.44477
G1 X1.122 Y73.49 E18.465
G1 X1.019 Y73.097 E18.48304
G1 X-.103 Y73.097 E18.53287
G1 X-.737 Y73.163 E18.56118
G1 X-1.172 Y73.122 E18.58058
G1 X-1.805 Y73.008 E18.60914
G1 X-3.199 Y73.545 E18.67549
G1 X-3.678 Y73.679 E18.69757
G1 X-5.847 Y74.065 E18.79541
G1 X-6.301 Y74.105 E18.81565
G1 X-6.75 Y74.066 E18.83567
G1 X-7.782 Y73.886 E18.88219
G1 X-8.222 Y73.769 E18.90241
G1 X-8.635 Y73.577 E18.92264
G1 X-9.008 Y73.315 E18.94288
G1 X-9.33 Y72.992 E18.96313
G1 X-9.59 Y72.619 E18.98332
G1 X-9.782 Y72.205 E19.00359
G1 X-9.898 Y71.764 E19.02384
G1 X-9.935 Y71.31 E19.04407
G1 X-9.838 Y70.548 E19.07818
G1 X-9.94 Y69.991 E19.10333
G1 X-9.934 Y69.535 E19.12358
G1 X-9.76 Y68.732 E19.16007
G1 X-9.511 Y68.052 E19.19223
G1 X-9.268 Y67.588 E19.21549
G1 X-8.897 Y67.027 E19.24536
G1 X-8.613 Y66.67 E19.26562
G1 X-8.392 Y66.463 E19.27907
G1 X-7.227 Y65.493 E19.34639
G1 X-7.215 Y64.914 E19.37211
G1 X-7.108 Y64.471 E19.39235
G1 X-7.02 Y64.269 E19.40213
G1 X-17.46 Y62.428 E19.87292
G1 X-17.663 Y62.384 E19.88215
G1 X-18.328 Y62.211 E19.91266
G1 X-18.71 Y62.079 E19.93061
G1 X-19.333 Y61.808 E19.96078
G1 X-19.699 Y61.613 E19.9792
G1 X-20.292 Y61.233 E20.01048
G1 X-20.613 Y60.99 E20.02835
G1 X-21.122 Y60.539 E20.05856
G1 X-21.41 Y60.239 E20.07702
G1 X-21.855 Y59.695 E20.10824
G1 X-22.081 Y59.372 E20.12574
G1 X-22.424 Y58.792 E20.15567
G1 X-22.606 Y58.42 E20.17406
G1 X-22.86 Y57.774 E20.20489
G1 X-22.979 Y57.384 E20.22299
G1 X-23.128 Y56.71 E20.25365
G1 X-23.184 Y56.308 E20.27167
G1 X-23.226 Y55.622 E20.3022
G1 X-23.219 Y55.215 E20.32027
G1 X-23.152 Y54.517 E20.35141
G1 X-23.051 Y53.863 E20.3808
G1 X-22.973 Y53.306 E20.40578
G1 X-22.909 Y52.76 E20.43019
G1 X-22.856 Y52.23 E20.45385
G1 X-22.756 Y50.893 E20.51339
G1 X-22.7 Y49.613 E20.57029
G1 X-22.678 Y48.192 E20.6334
G1 X-22.699 Y46.796 E20.6954
G1 X-22.751 Y45.801 E20.73965
G1 X-25.4 Y50.386 E20.97481
G1 X-25.661 Y50.759 E20.99503
G1 X-25.984 Y51.08 E21.01525
G1 X-26.358 Y51.341 E21.0355
G1 X-26.772 Y51.532 E21.05575
G1 X-27.212 Y51.648 E21.07596
G1 X-27.666 Y51.685 E21.09619
G1 X-28.12 Y51.642 E21.11644
G1 X-28.559 Y51.521 E21.13666
G1 X-28.952 Y51.336 E21.15595
G1 X-31.115 Y50.086 E21.2669
G1 X-31.488 Y49.824 E21.28714
G1 X-31.81 Y49.502 E21.30736
G1 X-32.07 Y49.128 E21.32759
G1 X-32.261 Y48.714 E21.34784
G1 X-32.377 Y48.273 E21.36809
G1 X-32.414 Y47.819 E21.38832
G1 X-32.371 Y47.366 E21.40853
G1 X-32.25 Y46.926 E21.42879
G1 X-32.066 Y46.535 E21.44798
G1 X-14.418 Y15.969 E23.01541
G1 X-14.209 Y15.672 E23.03154
G1 X-14.421 Y15.365 E23.04811
G1 X-14.611 Y14.951 E23.06834
G1 X-14.726 Y14.51 E23.08858
G1 X-14.762 Y14.056 E23.1088
G1 X-14.718 Y13.603 E23.12901
G1 X-14.596 Y13.164 E23.14925
G1 X-14.399 Y12.753 E23.16949
G1 X-14 Y12.24 E23.19835
G1 X-13.639 Y11.935 E23.21934
G1 X-13.244 Y11.708 E23.23957
G1 X-12.816 Y11.553 E23.25979
G1 X-12.367 Y11.475 E23.28002
G1 X-11.911 Y11.477 E23.30027
G1 X-11.463 Y11.558 E23.32049
G1 X-11.096 Y11.695 E23.33789
G0 F1080 X-11.036 Y11.717
G0 X-10.526 Y12.036
G0 F3600 X-10.761 Y12.36
G1 F1200 X-10.46 Y12.652 E23.35651
G1 X-10.22 Y12.995 E23.3751
G1 X-10.049 Y13.378 E23.39373
G1 X-9.954 Y13.786 E23.41234
G1 X-9.939 Y14.205 E23.43095
G1 X-10.003 Y14.619 E23.44956
G1 X-10.144 Y15.014 E23.46818
G1 X-10.357 Y15.374 E23.48676
G1 X-10.591 Y15.638 E23.50243
G1 X-8.901 Y16.614 E23.5891
G1 X-8.56 Y16.857 E23.60769
G1 X-8.271 Y17.16 E23.62629
G1 X-8.044 Y17.513 E23.64492
G1 X-7.889 Y17.902 E23.66352
G1 X-7.811 Y18.314 E23.68214
G1 X-7.811 Y18.733 E23.70075
G1 X-7.892 Y19.144 E23.71935
G1 X-8.096 Y19.619 E23.74231
G1 X-10.426 Y23.656 E23.94931
G1 X-10.776 Y24.266 E23.98054
G1 X-11.074 Y24.802 E24.00778
G1 X-11.67 Y25.916 E24.06388
G1 X-12.112 Y26.806 E24.10801
G1 X-12.502 Y27.68 E24.15052
G1 X-12.776 Y28.391 E24.18436
G1 X-12.965 Y29.027 E24.21382
G1 X-13.056 Y29.623 E24.2406
G1 X-13.018 Y29.933 E24.25447
G1 X-12.814 Y30.172 E24.26842
G1 X-12.202 Y30.543 E24.3002
G1 X-11.43 Y30.847 E24.33705
G1 X-10.951 Y30.995 E24.35931
G1 X-10.403 Y31.139 E24.38448
G1 X-9.736 Y31.29 E24.41485
G1 X-9.077 Y31.413 E24.44462
G1 X30.35 Y38.365 E26.22256
G1 X30.754 Y38.477 E26.24118
G1 X31.129 Y38.663 E26.25977
G1 X31.462 Y38.918 E26.2784
G1 X31.741 Y39.23 E26.29698
G1 X31.956 Y39.59 E26.3156
G1 X32.099 Y39.984 E26.33422
G1 X32.163 Y40.377 E26.3519
G1 X32.543 Y45.751 E26.59115
G1 X32.515 Y46.288 E26.61503
G1 X28.699 Y67.928 E27.59088
G1 X28.587 Y68.332 E27.6095
G1 X28.401 Y68.707 E27.62809
G1 X28.146 Y69.041 E27.64675
G1 X27.834 Y69.32 E27.66534
G1 X27.563 Y69.481 E27.67934
G1 X27.698 Y69.708 E27.69107
G1 X27.841 Y70.102 E27.70968
G1 X27.906 Y70.516 E27.72829
G1 X27.879 Y71.018 E27.75062
G1 X27.752 Y71.529 E27.774
G1 X27.731 Y71.571 E27.77609
G1 X29.152 Y73.547 E27.88417
G1 X29.361 Y73.904 E27.90255
G1 X29.603 Y74.425 E27.92806
G1 X29.738 Y74.803 E27.94588
G1 X29.868 Y75.307 E27.969
G1 X29.934 Y75.72 E27.98757
G1 X29.928 Y76.061 E28.00272
G1 X29.872 Y76.658 E28.02935
G1 X29.848 Y76.838 E28.03741
G1 X29.649 Y77.959 E28.08797
G1 X29.544 Y78.529 E28.11371
G1 X29.429 Y78.932 E28.13232
G1 X29.24 Y79.305 E28.15089
G1 X28.983 Y79.637 E28.16954
G1 X28.668 Y79.913 E28.18814
G1 X28.307 Y80.125 E28.20673
