;FLAVOR:Marlin
;TIME:1369
;Filament used: 0.430434m
;Layer height: 0.15
;MINX:-1.68
;MINY:-42.519
;MINZ:0.3
;MAXX:47.527
;MAXY:42.523
;MAXZ:13
;Generated with Cura_SteamEngine 4.13.1
M140 S50
M105
M190 S50
M104 S210
M105
M109 S210
M82 ;absolute extrusion mode
;FLAVOR:Marlin
M82 ;absolute extrusion mode
G21
G90
M82
M107 T0
G28
G92 E0
G0 E3 F200
G92 E0 ; reset extrusion distance
M106 S255 ; Enable cooling fan full speed
G1 X-98 Y0 Z0.4 F3000 ; move to arc start
G3 X0 Y-98 I98 Z0.4 E40 F400 ; lay arc stripe 90deg
G92 E0 ; reset extrusion distance
G4 P500 ; wait for 0.5 sec
G0 Z10 E-1 ; Lift 15mm and retract 1mm filament
G4 P2000 ; wait for 5 sec
G0 Z15
M107 ; Disable cooling fan
G1 X0 Y-85 Z4 E0 F3000 ; get off the bed
G92 E0
G92 E0
G1 F1500 E-6.5
;LAYER_COUNT:53
;LAYER:0
M106 S25.5
G1 F600 Z1.3
G0 F3600 X34.256 Y-4.022 Z1.3
;TYPE:SKIRT
G1 F600 Z0.3
G1 F1500 E0.3326
G1 F1800 X34.203 Y-4.523 E0.35774
G1 X34.188 Y-5.136 E0.38833
G1 X34.243 Y-5.86 E0.42455
G1 X34.331 Y-6.377 E0.45072
G1 X34.515 Y-7.057 E0.48586
G1 X34.78 Y-7.741 E0.52246
G1 X35.112 Y-8.38 E0.55838
G1 X35.468 Y-8.924 E0.59082
G1 X35.781 Y-9.318 E0.61592
G1 X36.27 Y-9.834 E0.65139
G1 X36.822 Y-10.303 E0.68753
G1 X37.437 Y-10.718 E0.72454
G1 X37.882 Y-10.961 E0.74984
G1 X38.434 Y-11.208 E0.78001
G1 X38.939 Y-11.382 E0.80666
G1 X39.597 Y-11.543 E0.84045
G1 X40.103 Y-11.62 E0.86599
G1 X40.746 Y-11.662 E0.89814
G1 X40.961 Y-11.663 E0.90886
G1 X41.467 Y-11.637 E0.93414
G1 X42.183 Y-11.532 E0.97024
G1 X42.673 Y-11.413 E0.9954
G1 X43.368 Y-11.174 E1.03207
G1 X44.095 Y-10.827 E1.07226
G1 X44.574 Y-10.535 E1.10024
G1 X45.153 Y-10.101 E1.13635
G1 X45.677 Y-9.61 E1.17217
G1 X46.009 Y-9.235 E1.19716
G1 X46.381 Y-8.74 E1.22805
G1 X46.771 Y-8.092 E1.26578
G1 X47.068 Y-7.443 E1.30139
G1 X47.298 Y-6.75 E1.33782
G1 X47.452 Y-6.029 E1.3746
G1 X47.522 Y-5.402 E1.40608
G1 X47.527 Y-4.674 E1.4424
G1 X47.485 Y-4.173 E1.46748
G1 X47.359 Y-3.47 E1.50311
G1 X47.176 Y-2.835 E1.53608
G1 X46.908 Y-2.165 E1.57208
G1 X46.578 Y-1.542 E1.60726
G1 X46.28 Y-1.093 E1.63414
G1 X45.874 Y-.583 E1.66666
G1 X45.348 Y-0.052 E1.70395
G1 X44.957 Y0.279 E1.72951
G1 X44.436 Y0.646 E1.76131
G1 X43.771 Y1.018 E1.79932
G1 X43.12 Y1.29 E1.83452
G1 X42.501 Y1.479 E1.86681
G1 X41.776 Y1.622 E1.90368
G1 X41.072 Y1.682 E1.93893
G1 X40.324 Y1.663 E1.97626
G1 X39.694 Y1.582 E2.00795
G1 X38.994 Y1.419 E2.0438
G1 X38.304 Y1.176 E2.0803
G1 X37.838 Y0.962 E2.10588
G1 X37.231 Y0.612 E2.14084
G1 X36.819 Y0.322 E2.16598
G1 X36.369 Y-0.054 E2.19523
G1 X35.989 Y-.428 E2.22183
G1 X35.522 Y-.983 E2.25802
G1 X35.226 Y-1.41 E2.28394
G1 X34.881 Y-2.026 E2.31917
G1 X34.624 Y-2.615 E2.35123
G1 X34.403 Y-3.303 E2.38728
G1 X34.256 Y-4.022 E2.42389
G0 F3600 X34.651 Y-4.087
G1 F1800 X34.591 Y-4.76 E2.4576
G1 X34.598 Y-5.353 E2.48719
G1 X34.674 Y-6.039 E2.52162
G1 X34.827 Y-6.711 E2.55601
G1 X35.058 Y-7.375 E2.59108
G1 X35.343 Y-7.976 E2.62426
G1 X35.658 Y-8.499 E2.65472
G1 X36.089 Y-9.064 E2.69018
G1 X36.541 Y-9.539 E2.72289
G1 X37.069 Y-9.989 E2.7575
G1 X37.636 Y-10.371 E2.79161
G1 X38.338 Y-10.734 E2.83104
G1 X39.046 Y-10.997 E2.86872
G1 X39.68 Y-11.152 E2.90128
G1 X40.282 Y-11.238 E2.93162
G1 X40.95 Y-11.263 E2.96497
G1 X41.662 Y-11.213 E3.00058
G1 X42.34 Y-11.088 E3.03497
G1 X42.995 Y-10.89 E3.06911
G1 X43.629 Y-10.618 E3.10353
G1 X44.156 Y-10.329 E3.13352
G1 X44.706 Y-9.948 E3.1669
G1 X45.226 Y-9.497 E3.20124
G1 X45.705 Y-8.976 E3.23655
G1 X46.055 Y-8.508 E3.2657
G1 X46.413 Y-7.913 E3.30035
G1 X46.698 Y-7.289 E3.33457
G1 X46.91 Y-6.651 E3.36811
G1 X47.058 Y-5.961 E3.40332
G1 X47.123 Y-5.37 E3.43298
G1 X47.128 Y-4.7 E3.46641
G1 X47.055 Y-3.992 E3.50192
G1 X46.929 Y-3.394 E3.53241
G1 X46.732 Y-2.779 E3.56463
G1 X46.445 Y-2.128 E3.60012
G1 X46.089 Y-1.518 E3.63536
G1 X45.693 Y-.987 E3.66841
G1 X45.28 Y-.537 E3.69888
G1 X44.846 Y-.147 E3.72799
G1 X44.416 Y0.18 E3.75494
G1 X43.826 Y0.541 E3.78945
G1 X43.202 Y0.831 E3.82378
G1 X42.624 Y1.031 E3.85429
G1 X41.978 Y1.185 E3.88742
G1 X41.29 Y1.27 E3.92201
G1 X40.588 Y1.279 E3.95704
G1 X40.006 Y1.227 E3.98619
G1 X39.328 Y1.095 E4.02065
G1 X38.656 Y0.885 E4.05577
G1 X38.026 Y0.609 E4.09009
G1 X37.443 Y0.273 E4.12366
G1 X36.87 Y-.149 E4.15916
G1 X36.443 Y-.534 E4.18785
G1 X35.979 Y-1.047 E4.22235
G1 X35.568 Y-1.617 E4.25741
G1 X35.237 Y-2.209 E4.29125
G1 X34.995 Y-2.764 E4.32146
G1 X34.791 Y-3.397 E4.35464
G1 X34.651 Y-4.087 E4.38976
G0 F3600 X35.085 Y-3.915
G1 F1800 X35 Y-4.59 E4.42371
G1 X34.988 Y-5.116 E4.44996
G1 X35.035 Y-5.743 E4.48132
G1 X35.164 Y-6.426 E4.516
G1 X35.344 Y-7.01 E4.54649
G1 X35.606 Y-7.615 E4.57938
G1 X35.854 Y-8.064 E4.60497
G1 X36.245 Y-8.625 E4.63909
G1 X36.679 Y-9.115 E4.67175
G1 X37.132 Y-9.529 E4.70236
G1 X37.675 Y-9.925 E4.73589
G1 X38.223 Y-10.237 E4.76735
G1 X38.713 Y-10.458 E4.79417
G1 X39.381 Y-10.674 E4.82919
G1 X39.97 Y-10.796 E4.8592
G1 X40.536 Y-10.855 E4.88759
G1 X40.938 Y-10.863 E4.90765
G1 X41.618 Y-10.816 E4.94166
G1 X42.238 Y-10.701 E4.97312
G1 X42.866 Y-10.511 E5.00585
G1 X43.445 Y-10.263 E5.03728
G1 X43.939 Y-9.993 E5.06537
G1 X44.467 Y-9.627 E5.09742
G1 X44.942 Y-9.215 E5.12879
G1 X45.4 Y-8.717 E5.16254
G1 X45.729 Y-8.277 E5.18995
G1 X46.056 Y-7.734 E5.22158
G1 X46.329 Y-7.136 E5.25437
G1 X46.523 Y-6.553 E5.28503
G1 X46.664 Y-5.892 E5.31874
G1 X46.725 Y-5.338 E5.34655
G1 X46.729 Y-4.725 E5.37713
G1 X46.659 Y-4.048 E5.41109
G1 X46.543 Y-3.499 E5.43908
G1 X46.36 Y-2.926 E5.46909
G1 X46.085 Y-2.303 E5.50307
G1 X45.761 Y-1.747 E5.53517
G1 X45.38 Y-1.236 E5.56697
G1 X44.993 Y-.815 E5.5955
G1 X44.585 Y-.45 E5.62282
G1 X43.995 Y-0.021 E5.65921
G1 X43.437 Y0.291 E5.6911
G1 X42.836 Y0.542 E5.7236
G1 X42.291 Y0.707 E5.75201
G1 X41.681 Y0.828 E5.78303
G1 X41.032 Y0.883 E5.81553
G1 X40.404 Y0.867 E5.84687
G1 X39.848 Y0.797 E5.87483
G1 X39.204 Y0.647 E5.90782
G1 X38.622 Y0.442 E5.9386
G1 X38.004 Y0.144 E5.97283
G1 X37.486 Y-.181 E6.00334
G1 X36.893 Y-.659 E6.04134
G1 X36.439 Y-1.122 E6.07369
G1 X36.029 Y-1.645 E6.10685
G1 X35.701 Y-2.182 E6.13824
G1 X35.456 Y-2.691 E6.16642
G1 X35.234 Y-3.301 E6.19881
G1 X35.085 Y-3.915 E6.23033
G0 F3600 X35.479 Y-3.98
G1 F1800 X35.399 Y-4.624 E6.2627
G1 X35.39 Y-5.183 E6.2906
G1 X35.43 Y-5.685 E6.31572
G1 X35.554 Y-6.335 E6.34873
G1 X35.717 Y-6.864 E6.37635
G1 X35.968 Y-7.443 E6.40783
G1 X36.236 Y-7.922 E6.43522
G1 X36.554 Y-8.37 E6.46263
G1 X36.969 Y-8.84 E6.49391
G1 X37.38 Y-9.215 E6.52167
G1 X37.898 Y-9.593 E6.55366
G1 X38.394 Y-9.875 E6.58212
G1 X38.853 Y-10.083 E6.60726
G1 X39.487 Y-10.289 E6.64052
G1 X40.022 Y-10.399 E6.66777
G1 X40.55 Y-10.455 E6.69426
G1 X40.926 Y-10.463 E6.71303
G1 X41.575 Y-10.418 E6.74548
G1 X42.135 Y-10.314 E6.7739
G1 X42.737 Y-10.132 E6.80527
G1 X43.26 Y-9.908 E6.83366
G1 X43.722 Y-9.657 E6.85989
G1 X44.229 Y-9.306 E6.89066
G1 X44.658 Y-8.933 E6.91902
G1 X45.096 Y-8.457 E6.95129
G1 X45.403 Y-8.046 E6.97688
G1 X45.698 Y-7.555 E7.00546
G1 X45.96 Y-6.982 E7.03689
G1 X46.135 Y-6.454 E7.06464
G1 X46.27 Y-5.823 E7.09684
G1 X46.326 Y-5.306 E7.12278
G1 X46.33 Y-4.75 E7.15052
G1 X46.263 Y-4.105 E7.18287
G1 X46.157 Y-3.604 E7.20842
G1 X45.987 Y-3.072 E7.23629
G1 X45.726 Y-2.479 E7.26861
G1 X45.433 Y-1.977 E7.29761
G1 X45.067 Y-1.485 E7.3282
G1 X44.706 Y-1.094 E7.35475
G1 X44.323 Y-.753 E7.38034
G1 X43.774 Y-.354 E7.41419
G1 X43.271 Y-0.073 E7.44294
G1 X42.695 Y0.168 E7.47409
G1 X42.186 Y0.321 E7.50061
G1 X41.634 Y0.431 E7.52869
G1 X41.012 Y0.483 E7.55983
G1 X40.444 Y0.469 E7.58817
G1 X39.924 Y0.404 E7.61432
G1 X39.308 Y0.261 E7.64587
G1 X38.781 Y0.075 E7.67375
G1 X38.193 Y-.209 E7.70633
G1 X37.723 Y-.503 E7.73399
G1 X37.155 Y-.961 E7.77039
G1 X36.745 Y-1.379 E7.7996
G1 X36.353 Y-1.88 E7.83134
G1 X36.056 Y-2.365 E7.85971
G1 X35.827 Y-2.839 E7.88597
G1 X35.614 Y-3.425 E7.91708
G1 X35.479 Y-3.98 E7.94558
G0 F3600 X35.817 Y-4.422
G1 F1800 X35.787 Y-5.019 E7.9754
G1 X35.826 Y-5.627 E8.00579
G1 X35.943 Y-6.244 E8.03712
G1 X36.176 Y-6.938 E8.07365
G1 X36.505 Y-7.593 E8.11022
G1 X36.862 Y-8.115 E8.14177
G1 X37.26 Y-8.564 E8.1717
G1 X37.813 Y-9.047 E8.20833
G1 X38.232 Y-9.33 E8.23356
G1 X38.851 Y-9.649 E8.2683
G1 X39.366 Y-9.84 E8.2957
G1 X39.931 Y-9.978 E8.32472
G1 X40.467 Y-10.049 E8.35169
G1 X40.914 Y-10.063 E8.37401
G1 X41.531 Y-10.02 E8.40486
G1 X42.032 Y-9.928 E8.43028
G1 X42.608 Y-9.754 E8.4603
G1 X43.076 Y-9.553 E8.48571
G1 X43.706 Y-9.191 E8.52196
G1 X44.281 Y-8.739 E8.55845
G1 X44.636 Y-8.38 E8.58363
G1 X45.076 Y-7.814 E8.6194
G1 X45.34 Y-7.376 E8.64492
G1 X45.59 Y-6.829 E8.67492
G1 X45.806 Y-6.124 E8.71171
G1 X45.896 Y-5.618 E8.73735
G1 X45.934 Y-4.897 E8.77337
G1 X45.867 Y-4.161 E8.81024
G1 X45.751 Y-3.632 E8.83726
G1 X45.527 Y-2.996 E8.8709
G1 X45.191 Y-2.34 E8.90767
G1 X44.902 Y-1.92 E8.93311
G1 X44.419 Y-1.372 E8.96955
G1 X43.982 Y-.99 E8.99851
G1 X43.553 Y-.688 E9.02468
G1 X43.104 Y-.437 E9.05034
G1 X42.553 Y-.206 E9.08015
G1 X41.971 Y-0.039 E9.11036
G1 X41.351 Y0.061 E9.14169
G1 X40.618 Y0.079 E9.17827
G1 X40.096 Y0.027 E9.20444
G1 X39.413 Y-.126 E9.23936
G1 X38.941 Y-.292 E9.26432
G1 X38.381 Y-.562 E9.29534
G1 X37.767 Y-.967 E9.33204
G1 X37.304 Y-1.37 E9.36266
G1 X36.897 Y-1.82 E9.39293
G1 X36.595 Y-2.239 E9.4187
G1 X36.303 Y-2.76 E9.4485
G1 X36.069 Y-3.322 E9.47887
G1 X35.901 Y-3.911 E9.50943
G1 X35.817 Y-4.422 E9.53526
G0 F3600 X36.23 Y-4.347
G1 F1800 X36.187 Y-5.026 E9.56921
G1 X36.222 Y-5.569 E9.59635
G1 X36.333 Y-6.153 E9.62601
G1 X36.548 Y-6.793 E9.65969
G1 X36.853 Y-7.396 E9.69341
G1 X37.171 Y-7.861 E9.72151
G1 X37.55 Y-8.289 E9.75003
G1 X38.061 Y-8.733 E9.78381
G1 X38.637 Y-9.101 E9.81791
G1 X39.131 Y-9.333 E9.84513
G1 X39.7 Y-9.517 E9.87497
G1 X40.362 Y-9.637 E9.90854
G1 X40.902 Y-9.663 E9.93551
G1 X41.488 Y-9.623 E9.96481
G1 X42.16 Y-9.48 E9.99909
G1 X42.798 Y-9.242 E10.03306
G1 X43.287 Y-8.986 E10.0606
G1 X43.752 Y-8.663 E10.08884
G1 X44.259 Y-8.2 E10.1231
G1 X44.611 Y-7.779 E10.15048
G1 X44.928 Y-7.295 E10.17934
G1 X45.221 Y-6.675 E10.21355
G1 X45.419 Y-6.025 E10.24745
G1 X45.51 Y-5.479 E10.27507
G1 X45.534 Y-4.896 E10.30418
G1 X45.471 Y-4.218 E10.33815
G1 X45.346 Y-3.676 E10.3659
G1 X45.155 Y-3.143 E10.39415
G1 X44.844 Y-2.539 E10.42804
G1 X44.441 Y-1.983 E10.4623
G1 X44.042 Y-1.566 E10.4911
G1 X43.614 Y-1.212 E10.51881
G1 X43.041 Y-.853 E10.55254
G1 X42.411 Y-.58 E10.5868
G1 X41.89 Y-.431 E10.61383
G1 X41.304 Y-.336 E10.64345
G1 X40.629 Y-.32 E10.67713
G1 X40.078 Y-.381 E10.70479
G1 X39.517 Y-.512 E10.73353
G1 X38.881 Y-.754 E10.76748
G1 X38.288 Y-1.086 E10.80139
G1 X37.678 Y-1.566 E10.84011
G1 X37.203 Y-2.078 E10.87496
G1 X36.814 Y-2.65 E10.90947
G1 X36.57 Y-3.137 E10.93664
G1 X36.375 Y-3.673 E10.9651
G1 X36.23 Y-4.347 E10.99949
G0 F3600 X36.678 Y-4.1
G1 F1800 X36.595 Y-4.726 E11.031
G1 X36.61 Y-5.44 E11.06663
G1 X36.722 Y-6.062 E11.09816
G1 X36.921 Y-6.647 E11.12899
G1 X37.201 Y-7.199 E11.15987
G1 X37.631 Y-7.79 E11.19633
G1 X38.068 Y-8.226 E11.22713
G1 X38.568 Y-8.597 E11.25819
G1 X39.192 Y-8.925 E11.29336
G1 X39.807 Y-9.132 E11.32573
G1 X40.414 Y-9.241 E11.3565
G1 X40.891 Y-9.264 E11.38033
G1 X41.445 Y-9.225 E11.40803
G1 X42.057 Y-9.094 E11.43926
G1 X42.64 Y-8.875 E11.47033
G1 X43.271 Y-8.52 E11.50645
G1 X43.755 Y-8.136 E11.53727
G1 X44.182 Y-7.679 E11.56848
G1 X44.586 Y-7.088 E11.60419
G1 X44.851 Y-6.522 E11.63537
G1 X45.031 Y-5.926 E11.66643
G1 X45.13 Y-5.21 E11.70249
G1 X45.117 Y-4.591 E11.73338
G1 X45.013 Y-3.973 E11.76465
G1 X44.783 Y-3.29 E11.8006
G1 X44.497 Y-2.739 E11.83158
G1 X44.128 Y-2.232 E11.86286
G1 X43.78 Y-1.869 E11.88795
G1 X43.37 Y-1.529 E11.91452
G1 X42.845 Y-1.202 E11.94538
G1 X42.269 Y-.954 E11.97667
G1 X41.576 Y-.774 E12.01239
G1 X40.951 Y-.715 E12.04371
G1 X40.325 Y-.749 E12.07499
G1 X39.622 Y-.898 E12.11084
G1 X39.04 Y-1.121 E12.14193
G1 X38.499 Y-1.426 E12.17292
G1 X37.94 Y-1.868 E12.20847
G1 X37.509 Y-2.335 E12.24017
G1 X37.156 Y-2.857 E12.27161
G1 X36.852 Y-3.508 E12.30746
G1 X36.678 Y-4.1 E12.33824
G0 F3600 X37.019 Y-4.477
G1 F1800 X36.987 Y-5.039 E12.36633
G1 X37.048 Y-5.69 E12.39895
G1 X37.192 Y-6.238 E12.42721
G1 X37.413 Y-6.757 E12.45536
G1 X37.759 Y-7.314 E12.48807
G1 X38.131 Y-7.739 E12.51625
G1 X38.556 Y-8.105 E12.54423
G1 X39.035 Y-8.407 E12.57248
G1 X39.636 Y-8.667 E12.60515
G1 X40.182 Y-8.805 E12.63325
G1 X40.841 Y-8.864 E12.66626
G1 X40.879 Y-8.864 E12.66815
G1 X41.401 Y-8.827 E12.69426
G1 X41.955 Y-8.707 E12.72254
G1 X42.483 Y-8.507 E12.75071
G1 X43.054 Y-8.184 E12.78344
G1 X43.492 Y-7.834 E12.81141
G1 X43.878 Y-7.42 E12.83965
G1 X44.244 Y-6.881 E12.87216
G1 X44.482 Y-6.368 E12.90037
G1 X44.643 Y-5.828 E12.92848
G1 X44.731 Y-5.178 E12.96121
G1 X44.718 Y-4.616 E12.98925
G1 X44.622 Y-4.057 E13.01755
G1 X44.411 Y-3.437 E13.05022
G1 X44.15 Y-2.938 E13.07832
G1 X43.815 Y-2.481 E13.10659
G1 X43.278 Y-1.964 E13.14378
G1 X42.854 Y-1.666 E13.16963
G1 X42.388 Y-1.429 E13.19572
G1 X41.766 Y-1.223 E13.2284
G1 X41.21 Y-1.13 E13.25653
G1 X40.649 Y-1.12 E13.28452
G1 X39.997 Y-1.212 E13.31737
G1 X39.457 Y-1.377 E13.34554
G1 X38.946 Y-1.621 E13.37379
G1 X38.478 Y-1.934 E13.40188
G1 X37.998 Y-2.378 E13.4345
G1 X37.648 Y-2.82 E13.46263
G1 X37.369 Y-3.311 E13.49081
G1 X37.136 Y-3.921 E13.52338
G1 X37.019 Y-4.477 E13.55173
G0 F3600 X37.456 Y-4.29
G1 F1800 X37.392 Y-4.793 E13.57703
G1 X37.408 Y-5.38 E13.60632
G1 X37.501 Y-5.88 E13.6317
G1 X37.666 Y-6.356 E13.65683
G1 X37.898 Y-6.805 E13.68205
G1 X38.248 Y-7.28 E13.71148
G1 X38.608 Y-7.636 E13.73674
G1 X39.015 Y-7.934 E13.76191
G1 X39.534 Y-8.202 E13.79105
G1 X40.02 Y-8.361 E13.81656
G1 X40.518 Y-8.447 E13.84177
G1 X40.867 Y-8.464 E13.85921
G1 X41.372 Y-8.428 E13.88446
G1 X41.866 Y-8.316 E13.90973
G1 X42.338 Y-8.133 E13.93499
G1 X42.837 Y-7.848 E13.96366
G1 X43.229 Y-7.533 E13.98875
G1 X43.573 Y-7.161 E14.01403
G1 X43.901 Y-6.674 E14.04332
G1 X44.113 Y-6.215 E14.06855
G1 X44.256 Y-5.729 E14.09382
G1 X44.332 Y-5.146 E14.12315
G1 X44.319 Y-4.641 E14.14835
G1 X44.231 Y-4.141 E14.17368
G1 X44.039 Y-3.584 E14.20308
G1 X43.803 Y-3.137 E14.22829
G1 X43.502 Y-2.73 E14.25355
G1 X43.017 Y-2.267 E14.287
G1 X42.452 Y-1.899 E14.32064
G1 X41.985 Y-1.702 E14.34593
G1 X41.415 Y-1.558 E14.37526
G1 X40.911 Y-1.514 E14.4005
G1 X40.405 Y-1.545 E14.42579
G1 X39.831 Y-1.67 E14.4551
G1 X39.358 Y-1.855 E14.48044
G1 X38.921 Y-2.105 E14.50556
G1 X38.464 Y-2.473 E14.53483
G1 X38.121 Y-2.85 E14.56026
G1 X37.84 Y-3.271 E14.58551
G1 X37.594 Y-3.806 E14.61489
G1 X37.456 Y-4.29 E14.64
G1 F1500 E8.14
G1 F600 Z1.3
;MESH:PropAdapter.3mf(3)
G0 F3600 X40.289 Y-2.223 Z1.3
M104 S204
;TYPE:WALL-OUTER
G1 F600 Z0.3
G1 F1500 E14.9726
G1 F1800 X40.984 Y-2.167 E15.00738
G1 X41.664 Y-2.281 E15.04178
G1 X42.235 Y-2.51 E15.07248
G1 X42.666 Y-2.817 E15.09888
G1 X43.001 Y-3.146 E15.1223
G1 X43.36 Y-3.676 E15.15424
G1 X43.557 Y-4.146 E15.17966
G1 X43.662 Y-4.638 E15.20476
G1 X43.67 Y-5.286 E15.23709
G1 X43.523 Y-5.928 E15.26995
G1 X43.321 Y-6.376 E15.29447
G1 X43.064 Y-6.757 E15.3174
G1 X42.748 Y-7.092 E15.34037
G1 X42.381 Y-7.371 E15.36337
G1 X41.766 Y-7.666 E15.3974
G1 X41.09 Y-7.806 E15.43184
G1 X40.393 Y-7.776 E15.46665
G1 X39.732 Y-7.58 E15.50105
G1 X39.138 Y-7.229 E15.53547
G1 X38.791 Y-6.912 E15.55892
G1 X38.392 Y-6.361 E15.59286
G1 X38.133 Y-5.727 E15.62702
G1 X38.043 Y-5.165 E15.65542
G1 X38.065 Y-4.579 E15.68468
G1 X38.168 Y-4.131 E15.70761
G1 X38.459 Y-3.502 E15.74219
G1 X38.762 Y-3.1 E15.7673
G1 X39.238 Y-2.676 E15.7991
G1 X39.643 Y-2.44 E15.82249
G1 X40.289 Y-2.223 E15.85649
G0 F3600 X40.488 Y-2.207
G0 X40.479 Y-2.108
G0 X41.757 Y-2.152
G0 X41.785 Y-2.057
G1 F1800 X41.121 Y-1.926 E15.88021
G1 X40.448 Y-1.943 E15.90541
G1 X39.938 Y-2.055 E15.9291
G1 X39.331 Y-2.321 E15.96015
G1 X38.846 Y-2.67 E15.98679
G1 X38.433 Y-3.1 E16.0127
