;FLAVOR:Marlin
;TIME:1573
;Filament used: 0.918103m
;Layer height: 0.12
;MINX:-21.148
;MINY:-51.3
;MINZ:0.24
;MAXX:31.148
;MAXY:38.132
;MAXZ:7.2
;TARGET_MACHINE.NAME:Unknown
;Generated with Cura_SteamEngine 5.8.1
M140 S60
M105
M190 S60
M104 S210
M105
M109 S210
M82 ;absolute extrusion mode
;FLAVOR:Marlin
M82 ;absolute extrusion mode
G21
G90
M82
M107 T0
G28
G92 E0
G0 E3 F200
G92 E0 ; reset extrusion distance
M106 S255 ; Enable cooling fan full speed
G1 X-98 Y0 Z0.4 F3000 ; move to arc start
G3 X0 Y-98 I98 Z0.4 E40 F400 ; lay arc stripe 90deg
G92 E0 ; reset extrusion distance
G4 P500 ; wait for 0.5 sec
G0 Z10 E-1 ; Lift 15mm and retract 1mm filament
G4 P2000 ; wait for 5 sec
G0 Z15
M107 ; Disable cooling fan
G1 X0 Y-85 Z4 E0 F3000 ; get off the bed
G92 E0
G92 E0
G1 F1500 E-1
;LAYER_COUNT:17
;LAYER:0
M106 S102
G0 F750 X-18.315 Y-31.7 Z0.24
;TYPE:SKIRT
G1 F3600 E0.71493
G1 F1200 X-19.169 Y-31.886 E0.75374
G1 X-19.917 Y-32.28 E0.79128
G1 X-20.136 Y-32.449 E0.80357
G1 X-20.634 Y-33.067 E0.83882
G1 X-21.03 Y-33.863 E0.8783
G1 X-21.144 Y-34.642 E0.91326
G1 X-21.148 Y-48.423 E1.52527
G1 X-20.966 Y-49.313 E1.56561
G1 X-20.568 Y-50.068 E1.60351
G1 X-20.399 Y-50.288 E1.61583
G1 X-19.781 Y-50.786 E1.65108
G1 X-18.985 Y-51.182 E1.69056
G1 X-18.206 Y-51.296 E1.72553
G1 X28.271 Y-51.3 E3.78955
G1 X29.161 Y-51.118 E3.82989
G1 X29.916 Y-50.72 E3.86779
G1 X30.136 Y-50.551 E3.88011
G1 X30.634 Y-49.933 E3.91536
G1 X31.03 Y-49.137 E3.95484
G1 X31.144 Y-48.358 E3.9898
G1 X31.148 Y-34.577 E4.60181
G1 X30.966 Y-33.687 E4.64215
G1 X30.568 Y-32.932 E4.68006
G1 X30.399 Y-32.712 E4.69238
G1 X29.781 Y-32.214 E4.72762
G1 X28.985 Y-31.818 E4.76711
G1 X28.206 Y-31.704 E4.80207
G1 X-17.65 Y-31.7 E6.83851
G0 F1080 X-18.315 Y-31.7
G0 F750 X-18.271 Y-32.1
G1 F1200 X-19.03 Y-32.265 E6.873
G1 X-19.73 Y-32.634 E6.90815
G1 X-19.855 Y-32.737 E6.91534
G1 X-20.295 Y-33.283 E6.94648
G1 X-20.643 Y-33.983 E6.9812
G1 X-20.748 Y-34.7 E7.01338
G1 X-20.748 Y-48.382 E7.62099
G1 X-20.585 Y-49.178 E7.65707
G1 X-20.214 Y-49.882 E7.69241
G1 X-20.111 Y-50.007 E7.6996
G1 X-19.565 Y-50.447 E7.73074
G1 X-18.865 Y-50.795 E7.76546
G1 X-18.148 Y-50.9 E7.79764
G1 X28.23 Y-50.9 E9.85726
G1 X29.026 Y-50.737 E9.89335
G1 X29.73 Y-50.366 E9.92869
G1 X29.855 Y-50.263 E9.93588
G1 X30.295 Y-49.717 E9.96702
G1 X30.643 Y-49.017 E10.00174
G1 X30.748 Y-48.3 E10.03392
G1 X30.748 Y-34.618 E10.64153
G1 X30.585 Y-33.822 E10.67761
G1 X30.214 Y-33.118 E10.71295
G1 X30.111 Y-32.993 E10.72015
G1 X29.565 Y-32.553 E10.75129
G1 X28.865 Y-32.205 E10.786
G1 X28.148 Y-32.1 E10.81818
G1 X-17.606 Y-32.1 E12.85009
G0 F1080 X-18.271 Y-32.1
G0 F750 X-18.227 Y-32.5
G1 F1200 X-18.893 Y-32.645 E12.88036
G1 X-19.544 Y-32.988 E12.91304
G1 X-19.956 Y-33.499 E12.94219
G1 X-20.257 Y-34.105 E12.97224
G1 X-20.348 Y-34.7 E12.99897
G1 X-20.348 Y-48.341 E13.60476
G1 X-20.204 Y-49.043 E13.63659
G1 X-19.86 Y-49.696 E13.66936
G1 X-19.349 Y-50.108 E13.69851
G1 X-18.743 Y-50.409 E13.72856
G1 X-18.148 Y-50.5 E13.75529
G1 X28.189 Y-50.5 E15.8131
G1 X28.891 Y-50.356 E15.84492
G1 X29.544 Y-50.012 E15.8777
G1 X29.956 Y-49.501 E15.90685
G1 X30.257 Y-48.895 E15.9369
G1 X30.348 Y-48.3 E15.96363
G1 X30.348 Y-34.659 E16.56942
G1 X30.204 Y-33.957 E16.60124
G1 X29.86 Y-33.304 E16.63402
G1 X29.349 Y-32.892 E16.66317
G1 X28.743 Y-32.591 E16.69322
G1 X28.148 Y-32.5 E16.71995
G1 X-17.562 Y-32.5 E18.74991
G0 F1080 X-18.227 Y-32.5
G0 F750 X-18.183 Y-32.9
G1 F1200 X-18.754 Y-33.024 E18.77586
G1 X-19.286 Y-33.305 E18.80257
G1 X-19.598 Y-33.677 E18.82414
G1 X-19.871 Y-34.226 E18.85136
G1 X-19.948 Y-34.7 E18.87269
G1 X-19.948 Y-48.3 E19.47666
G1 X-19.824 Y-48.906 E19.50413
G1 X-19.543 Y-49.438 E19.53085
G1 X-19.171 Y-49.75 E19.55241
G1 X-18.622 Y-50.023 E19.57964
G1 X-18.148 Y-50.1 E19.60096
G1 X28.148 Y-50.1 E21.65695
G1 X28.754 Y-49.976 E21.68442
G1 X29.286 Y-49.695 E21.71113
G1 X29.598 Y-49.323 E21.7327
G1 X29.871 Y-48.774 E21.75992
G1 X29.948 Y-48.3 E21.78125
G1 X29.948 Y-34.7 E22.38522
G1 X29.824 Y-34.094 E22.41269
G1 X29.543 Y-33.562 E22.43941
G1 X29.171 Y-33.25 E22.46097
G1 X28.622 Y-32.977 E22.4882
G1 X28.148 Y-32.9 E22.50952
G1 X-17.518 Y-32.9 E24.53753
G0 F1080 X-18.183 Y-32.9
G0 F750 X-18.567 Y-33.378
G1 F1200 X-18.148 Y-33.3 E24.55645
G1 X28.148 Y-33.3 E26.61244
G1 X28.499 Y-33.362 E26.62826
G1 X28.993 Y-33.608 E26.65277
G1 X29.225 Y-33.817 E26.66664
G1 X29.47 Y-34.281 E26.68994
G1 X29.548 Y-34.7 E26.70887
G1 X29.548 Y-48.3 E27.31284
G1 X29.486 Y-48.651 E27.32867
G1 X29.24 Y-49.145 E27.35317
G1 X29.031 Y-49.377 E27.36704
G1 X28.567 Y-49.622 E27.39034
G1 X28.148 Y-49.7 E27.40927
G1 X-18.148 Y-49.7 E29.46525
G1 X-18.499 Y-49.638 E29.48108
G1 X-18.993 Y-49.392 E29.50559
G1 X-19.225 Y-49.183 E29.51946
G1 X-19.47 Y-48.719 E29.54276
G1 X-19.548 Y-48.3 E29.56168
G1 X-19.548 Y-34.7 E30.16565
G1 X-19.486 Y-34.349 E30.18148
G1 X-19.24 Y-33.855 E30.20599
G1 X-19.124 Y-33.727 E30.21366
G0 F1080 X-19.031 Y-33.623
G0 X-18.567 Y-33.378
G0 F750 X-18.486 Y-33.77
G1 F1200 X-18.749 Y-33.907 E30.22683
G1 X-18.888 Y-34.045 E30.23553
G1 X-19.094 Y-34.427 E30.2548
G1 X-19.148 Y-34.7 E30.26716
G1 X-19.148 Y-48.3 E30.87113
G1 X-19.078 Y-48.638 E30.88646
G1 X-18.941 Y-48.901 E30.89963
G1 X-18.803 Y-49.04 E30.90833
G1 X-18.421 Y-49.246 E30.9276
G1 X-18.148 Y-49.3 E30.93996
G1 X28.148 Y-49.3 E32.99594
G1 X28.486 Y-49.23 E33.01127
G1 X28.749 Y-49.093 E33.02444
G1 X28.888 Y-48.955 E33.03314
G1 X29.094 Y-48.573 E33.05241
G1 X29.148 Y-48.3 E33.06477
G1 X29.148 Y-34.7 E33.66874
G1 X29.078 Y-34.362 E33.68407
G1 X28.941 Y-34.099 E33.69724
G1 X28.803 Y-33.96 E33.70594
G1 X28.421 Y-33.754 E33.72521
G1 X28.148 Y-33.7 E33.73757
G1 X-17.828 Y-33.7 E35.77934
G0 F1080 X-18.148 Y-33.7
G0 X-18.486 Y-33.77
G0 F750 X-18.267 Y-34.539
G1 F1200 X-18.348 Y-34.7 E35.78734
G1 X-18.348 Y-48.3 E36.39131
G1 X-18.309 Y-48.419 E36.39687
G1 X-18.148 Y-48.5 E36.40488
G1 X28.148 Y-48.5 E38.46086
G1 X28.267 Y-48.461 E38.46642
G1 X28.348 Y-48.3 E38.47442
G1 X28.348 Y-34.7 E39.07839
G1 X28.309 Y-34.581 E39.08395
G1 X28.148 Y-34.5 E39.09196
G1 X-17.608 Y-34.5 E41.12395
G0 F1080 X-18.148 Y-34.5
G0 X-18.267 Y-34.539
G0 F750 X-18.392 Y-34.159
G1 F1200 X-18.148 Y-34.1 E41.1351
G1 X28.148 Y-34.1 E43.19108
G1 X28.328 Y-34.143 E43.1993
G1 X28.598 Y-34.304 E43.21326
G1 X28.689 Y-34.456 E43.22113
G1 X28.748 Y-34.7 E43.23228
G1 X28.748 Y-48.3 E43.83625
G1 X28.705 Y-48.48 E43.84447
G1 X28.544 Y-48.75 E43.85843
G1 X28.392 Y-48.841 E43.86629
G1 X28.148 Y-48.9 E43.87744
G1 X-18.148 Y-48.9 E45.93342
G1 X-18.328 Y-48.857 E45.94164
G1 X-18.598 Y-48.696 E45.9556
G1 X-18.689 Y-48.544 E45.96347
G1 X-18.748 Y-48.3 E45.97462
G1 X-18.748 Y-34.7 E46.57859
G1 X-18.745 Y-34.689 E46.57909
G0 F1080 X-18.705 Y-34.52
G0 X-18.544 Y-34.25
G0 X-18.392 Y-34.159
G1 F1500 E45.57909
G0 F750 X-11.609 Y-41.392
G1 F3600 E47.29402
G1 F1200 X-11.547 Y-41.299 E47.29898
G1 X-11.392 Y-41.22 E47.30671
G1 X-11.173 Y-41.285 E47.31685
G1 X-11.083 Y-41.411 E47.32373
G1 X-11.095 Y-41.629 E47.33342
G1 X-11.162 Y-41.711 E47.33813
G1 X-11.347 Y-41.776 E47.34684
G1 X-11.482 Y-41.744 E47.353
G1 X-11.573 Y-41.662 E47.35844
G1 X-11.627 Y-41.519 E47.36522
G1 X-11.625 Y-41.51 E47.36563
G0 F1080 X-11.609 Y-41.392
G0 F750 X-11.992 Y-41.247
G1 F1200 X-11.838 Y-41.015 E47.378
G1 X-11.663 Y-40.889 E47.38758
G1 X-11.438 Y-40.814 E47.39811
G1 X-11.139 Y-40.842 E47.41145
G1 X-10.897 Y-40.983 E47.42388
G1 X-10.699 Y-41.261 E47.43904
G1 X-10.661 Y-41.55 E47.45199
G1 X-10.732 Y-41.816 E47.46421
G1 X-10.9 Y-42.023 E47.47605
G1 X-11.129 Y-42.15 E47.48768
G1 X-11.37 Y-42.183 E47.49848
G1 X-11.674 Y-42.109 E47.51238
G1 X-11.914 Y-41.893 E47.52672
G1 X-12.037 Y-41.564 E47.54232
G1 X-12.033 Y-41.54 E47.5434
G0 F1080 X-11.992 Y-41.247
G0 F750 X-12.766 Y-41.012
G1 F1200 X-12.845 Y-41.57 E47.56842
G1 X-12.797 Y-41.877 E47.58222
G1 X-12.596 Y-42.327 E47.60411
G1 X-12.344 Y-42.619 E47.62124
G1 X-12.032 Y-42.834 E47.63807
G1 X-11.831 Y-42.918 E47.64774
G1 X-11.403 Y-42.995 E47.66705
G1 X-10.885 Y-42.924 E47.69027
G1 X-10.551 Y-42.769 E47.70662
G1 X-10.357 Y-42.624 E47.71738
G1 X-10.043 Y-42.236 E47.73955
G1 X-9.925 Y-41.968 E47.75255
G1 X-9.852 Y-41.571 E47.77048
G1 X-9.923 Y-41.04 E47.79427
G1 X-10.042 Y-40.767 E47.80749
G1 X-10.357 Y-40.378 E47.82972
G1 X-10.665 Y-40.165 E47.84635
G1 X-10.885 Y-40.074 E47.85693
G1 X-11.282 Y-40.003 E47.87484
G1 X-11.59 Y-40.022 E47.88854
G1 X-12.037 Y-40.171 E47.90947
G1 X-12.39 Y-40.425 E47.92878
G1 X-12.422 Y-40.464 E47.93102
G0 F1080 X-12.619 Y-40.706
G0 X-12.766 Y-41.012
G0 F750 X-12.379 Y-41.131
G1 F1200 X-12.278 Y-40.921 E47.94137
G1 X-12.114 Y-40.72 E47.95289
G1 X-11.85 Y-40.53 E47.96733
G1 X-11.515 Y-40.418 E47.98302
G1 X-11.307 Y-40.405 E47.99227
G1 X-10.999 Y-40.46 E48.00617
G1 X-10.632 Y-40.675 E48.02506
G1 X-10.387 Y-40.976 E48.04229
G1 X-10.311 Y-41.151 E48.05077
G1 X-10.256 Y-41.561 E48.06914
G1 X-10.309 Y-41.848 E48.0821
G1 X-10.387 Y-42.024 E48.09065
G1 X-10.639 Y-42.336 E48.10846
G1 X-11 Y-42.536 E48.12679
G1 X-11.392 Y-42.59 E48.14436
G1 X-11.84 Y-42.481 E48.16484
G1 X-12.074 Y-42.319 E48.17747
G1 X-12.255 Y-42.11 E48.18975
G1 X-12.41 Y-41.763 E48.20663
G1 X-12.434 Y-41.614 E48.21333
G0 F1080 X-12.441 Y-41.567
G0 X-12.379 Y-41.131
G1 F1500 E47.21333
G0 F750 X21.068 Y-41.474
G1 F3600 E48.92826
G1 F1200 X21.162 Y-41.289 E48.93747
G1 X21.259 Y-41.236 E48.94238
G1 X21.433 Y-41.231 E48.95011
G1 X21.565 Y-41.315 E48.95706
G1 X21.627 Y-41.48 E48.96489
G1 X21.609 Y-41.606 E48.97054
G1 X21.544 Y-41.704 E48.97576
G1 X21.392 Y-41.78 E48.98331
G1 X21.171 Y-41.714 E48.99355
G1 X21.084 Y-41.592 E49.00021
G1 X21.083 Y-41.586 E49.00048
G0 F1080 X21.068 Y-41.474
G0 F750 X20.661 Y-41.449
G1 F1200 X20.732 Y-41.184 E49.01266
G1 X20.9 Y-40.977 E49.0245
G1 X21.129 Y-40.85 E49.03613
G1 X21.382 Y-40.815 E49.04747
G1 X21.576 Y-40.85 E49.05623
G1 X21.816 Y-40.993 E49.06863
G1 X21.915 Y-41.108 E49.07537
G1 X22.037 Y-41.436 E49.09091
G1 X21.992 Y-41.753 E49.10513
G1 X21.837 Y-41.986 E49.11756
G1 X21.663 Y-42.111 E49.12708
G1 X21.438 Y-42.186 E49.13761
G1 X21.139 Y-42.158 E49.15094
G1 X20.896 Y-42.016 E49.16344
G1 X20.7 Y-41.743 E49.17837
G0 F1080 X20.661 Y-41.449
G0 F750 X19.852 Y-41.429
G1 F1200 X19.923 Y-41.961 E49.2022
G1 X20.042 Y-42.233 E49.21539
G1 X20.357 Y-42.622 E49.23762
G1 X20.665 Y-42.835 E49.25425
G1 X20.885 Y-42.926 E49.26482
G1 X21.282 Y-42.997 E49.28273
G1 X21.59 Y-42.978 E49.29643
G1 X22.037 Y-42.829 E49.31736
G1 X22.39 Y-42.575 E49.33667
G1 X22.619 Y-42.294 E49.35277
G1 X22.766 Y-41.988 E49.36785
G1 X22.845 Y-41.431 E49.39283
G1 X22.797 Y-41.122 E49.40672
G1 X22.597 Y-40.674 E49.42851
G1 X22.345 Y-40.382 E49.44563
G1 X22.032 Y-40.166 E49.46252
G1 X21.831 Y-40.082 E49.4722
G1 X21.403 Y-40.005 E49.49151
G1 X20.885 Y-40.076 E49.51473
G1 X20.551 Y-40.231 E49.53108
G1 X20.357 Y-40.376 E49.54184
G1 X20.043 Y-40.764 E49.564
G1 X20.025 Y-40.805 E49.56599
G0 F1080 X19.925 Y-41.032
G0 X19.852 Y-41.429
G0 F750 X20.256 Y-41.439
G1 F1200 X20.309 Y-41.152 E49.57895
G1 X20.387 Y-40.976 E49.5875
G1 X20.639 Y-40.664 E49.60531
G1 X21 Y-40.464 E49.62364
G1 X21.392 Y-40.41 E49.64121
G1 X21.719 Y-40.469 E49.65597
G1 X22.075 Y-40.681 E49.67437
G1 X22.256 Y-40.891 E49.68668
G1 X22.41 Y-41.236 E49.70346
G1 X22.441 Y-41.433 E49.71232
G1 X22.379 Y-41.869 E49.73188
G1 X22.278 Y-42.079 E49.74222
G1 X22.114 Y-42.28 E49.75374
G1 X21.85 Y-42.47 E49.76819
G1 X21.515 Y-42.582 E49.78388
G1 X21.307 Y-42.595 E49.79313
G1 X20.999 Y-42.54 E49.80703
G1 X20.632 Y-42.325 E49.82591
G1 X20.385 Y-42.021 E49.84331
G1 X20.338 Y-41.913 E49.84854
G0 F1080 X20.312 Y-41.853
G0 X20.256 Y-41.439
;MESH:TPU_Nano_Drak_Wings_Joiner.stl(1)
G0 F750 X20.717 Y-39.493
G0 X21.362 Y-38.796
;TYPE:WALL-INNER
G1 F900 X20.694 Y-38.889 E49.87849
G1 X20.022 Y-39.151 E49.91052
G1 X19.53 Y-39.485 E49.93693
G1 X18.993 Y-40.151 E49.97493
G1 X18.743 Y-40.798 E50.00573
G1 X18.648 Y-41.432 E50.0342
G1 X18.743 Y-42.226 E50.06971
G1 X19.002 Y-42.86 E50.10013
G1 X19.439 Y-43.399 E50.13094
G1 X19.646 Y-43.59 E50.14345
G1 X20.196 Y-43.941 E50.17242
G1 X20.649 Y-44.1 E50.19375
G1 X21.268 Y-44.196 E50.22156
G1 X21.942 Y-44.126 E50.25166
G1 X22.439 Y-43.962 E50.2749
G1 X22.71 Y-43.823 E50.28842
G1 X23.242 Y-43.422 E50.31801
G1 X23.647 Y-42.932 E50.34624
G1 X23.921 Y-42.306 E50.37659
G1 X24.018 Y-41.856 E50.39703
G1 X24.044 Y-41.416 E50.41661
G1 X23.965 Y-40.789 E50.44467
G1 X23.676 Y-40.151 E50.47577
G1 X23.205 Y-39.543 E50.50993
G1 X22.696 Y-39.164 E50.53811
G1 X22.069 Y-38.904 E50.56826
G1 X22.019 Y-38.896 E50.5705
G0 F810 X21.362 Y-38.796
G0 F750 X21.408 Y-39.2
G1 F900 X20.749 Y-39.285 E50.60001
G1 X20.189 Y-39.514 E50.62688
G1 X19.802 Y-39.784 E50.64784
G1 X19.346 Y-40.35 E50.68012
G1 X19.137 Y-40.869 E50.70496
G1 X19.048 Y-41.428 E50.7301
G1 X19.144 Y-42.165 E50.76311
G1 X19.352 Y-42.656 E50.78679
G1 X19.808 Y-43.219 E50.81896
G1 X20.345 Y-43.57 E50.84745
G1 X20.72 Y-43.707 E50.86518
G1 X21.268 Y-43.796 E50.88984
G1 X21.817 Y-43.746 E50.91432
G1 X22.406 Y-43.551 E50.94187
G1 X22.957 Y-43.141 E50.97237
G1 X23.254 Y-42.779 E50.99317
G1 X23.494 Y-42.315 E51.01637
G1 X23.602 Y-41.942 E51.03361
G1 X23.644 Y-41.416 E51.05705
G1 X23.576 Y-40.901 E51.08012
G1 X23.311 Y-40.316 E51.10864
G1 X22.914 Y-39.817 E51.13695
G1 X22.469 Y-39.494 E51.16137
G1 X22.059 Y-39.323 E51.1811
G0 F810 X21.997 Y-39.297
G0 X21.408 Y-39.2
G1 F1500 E50.1811
G0 F750 X21.367 Y-38.899
G0 X22.791 Y-39.035
G0 X22.791 Y-35.88
G0 X27.148 Y-35.7
G1 F3600 E51.89603
G1 F900 X27.148 Y-47.3 E52.41118
G1 X-17.148 Y-47.3 E54.37834
G1 X-17.148 Y-35.7 E54.89349
G1 X26.483 Y-35.7 E56.83112
G0 F810 X27.148 Y-35.7
G0 F750 X27.548 Y-35.3
G1 F900 X27.548 Y-47.7 E57.3818
G1 X-17.548 Y-47.7 E59.38448
G1 X-17.548 Y-35.3 E59.93516
G1 X26.883 Y-35.3 E61.90832
G0 F810 X27.548 Y-35.3
G1 F1500 E60.90832
G0 F750 X27.278 Y-35.57
G0 X-11.268 Y-35.88
G0 X-11.271 Y-38.639
G0 X-11.268 Y-38.8
G1 F3600 E62.62324
G1 F900 X-11.949 Y-38.872 E62.65366
G1 X-12.445 Y-39.04 E62.67691
G1 X-12.71 Y-39.177 E62.69016
G1 X-13.242 Y-39.578 E62.71975
G1 X-13.693 Y-40.169 E62.75276
G1 X-13.92 Y-40.691 E62.77804
G1 X-14.005 Y-41.031 E62.7936
G1 X-14.044 Y-41.58 E62.81805
G1 X-13.966 Y-42.206 E62.84606
G1 X-13.674 Y-42.848 E62.87738
G1 X-13.205 Y-43.454 E62.91141
G1 X-12.696 Y-43.832 E62.93957
G1 X-12.192 Y-44.069 E62.9643
G1 X-11.434 Y-44.214 E62.99857
G1 X-10.694 Y-44.111 E63.03175
G1 X-10.407 Y-44.026 E63.04505
G1 X-10.015 Y-43.842 E63.06428
G1 X-9.529 Y-43.508 E63.09047
G1 X-8.994 Y-42.85 E63.12813
G1 X-8.743 Y-42.202 E63.15899
G1 X-8.648 Y-41.568 E63.18746
G1 X-8.744 Y-40.762 E63.22351
G1 X-9.003 Y-40.14 E63.25343
G1 X-9.436 Y-39.601 E63.28413
G1 X-10.004 Y-39.161 E63.31604
G1 X-10.535 Y-38.914 E63.34205
G1 X-10.612 Y-38.902 E63.34551
G0 F810 X-11.268 Y-38.8
G0 F750 X-11.164 Y-39.208
G1 F900 X-11.735 Y-39.222 E63.37087
G1 X-12.407 Y-39.449 E63.40237
G1 X-12.956 Y-39.859 E63.4328
G1 X-13.331 Y-40.34 E63.45989
G1 X-13.533 Y-40.792 E63.48187
G1 X-13.611 Y-41.1 E63.49598
G1 X-13.644 Y-41.58 E63.51735
G1 X-13.576 Y-42.098 E63.54055
G1 X-13.31 Y-42.682 E63.56905
G1 X-12.913 Y-43.18 E63.59733
G1 X-12.469 Y-43.502 E63.62169
G1 X-12.001 Y-43.698 E63.64422
G1 X-11.408 Y-43.8 E63.67095
G1 X-10.749 Y-43.715 E63.70045
G1 X-10.185 Y-43.48 E63.72759
G1 X-9.8 Y-43.209 E63.7485
G1 X-9.346 Y-42.65 E63.78048
G1 X-9.137 Y-42.131 E63.80533
G1 X-9.048 Y-41.572 E63.83046
G1 X-9.14 Y-40.814 E63.86437
G1 X-9.404 Y-40.28 E63.89083
G1 X-9.808 Y-39.778 E63.91944
G1 X-10.337 Y-39.433 E63.94749
G1 X-10.52 Y-39.364 E63.95618
G0 F810 X-10.72 Y-39.289
G0 X-11.164 Y-39.208
G0 F750 X-11.233 Y-39.602
;TYPE:WALL-OUTER
