;FLAVOR:Marlin
;TIME:3121
;Filament used: 1.82782m
;Layer height: 0.2
;MINX:-32.501
;MINY:-88.251
;MINZ:0.3
;MAXX:23.399
;MAXY:0
;MAXZ:6.9
;TARGET_MACHINE.NAME:Unknown
;POSTPROCESSED
;  [CreateThumbnail]
;Generated with Cura_SteamEngine 5.11.0
;
;

M140 S50
M105
M190 S50
M104 S230
M105
M109 S230
;FLAVOR:Marlin
M82 ;absolute extrusion mode
G21
G90
M82
M107 T0
G28
G92 E0
G0 E3 F200
G92 E0 ; reset extrusion distance
M106 S255 ; Enable cooling fan full speed
G1 X-98 Y0 Z0.4 F3000 ; move to arc start
G3 X0 Y-98 I98 Z0.4 E40 F400 ; lay arc stripe 90deg
G92 E0 ; reset extrusion distance
G4 P500 ; wait for 0.5 sec
G0 Z10 E-1 ; Lift 15mm and retract 1mm filament
G4 P2000 ; wait for 5 sec
G0 Z15
M107 ; Disable cooling fan
G1 X0 Y-85 Z4 E0 F3000 ; get off the bed
M82 ;absolute extrusion mode
G92 E0
G92 E0
G1 F1500 E-6.5
;LAYER_COUNT:34
;LAYER:0
M107
G1 F600 Z1.3
G0 F3600 X0.00 Y0.00 Z1.3
G0 X12.447 Y-11.351
;TYPE:SKIRT
G1 F600 Z0.3
G1 F1500 E0
G1 F1200 X-22.409 Y-11.401 E1.39118
G1 X-23.449 Y-11.532 E1.43302
G1 X-25.483 Y-12.097 E1.51727
G1 X-27.154 Y-12.82 E1.58994
G1 X-29.16 Y-14.465 E1.69348
G1 X-30.39 Y-15.869 E1.76798
G1 X-31.161 Y-17.076 E1.82514
G1 X-31.913 Y-18.597 E1.89286
G1 X-32.292 Y-20.228 E1.9597
G1 X-32.501 Y-22.301 E2.04285
G1 X-32.501 Y-81.074 E4.38861
G1 X-32.078 Y-83.132 E4.47247
G1 X-31.012 Y-85.011 E4.55869
G1 X-30.312 Y-85.903 E4.60395
G1 X-28.955 Y-86.994 E4.67344
G1 X-26.937 Y-87.995 E4.76335
G1 X-24.701 Y-88.251 E4.85317
G1 X13.04 Y-88.214 E6.3595
G1 X14.923 Y-87.949 E6.43539
G1 X16.276 Y-87.548 E6.49172
G1 X18.008 Y-86.8 E6.56702
G1 X19.764 Y-85.42 E6.65616
G1 X21.058 Y-84.032 E6.73189
G1 X22.132 Y-82.399 E6.8099
G1 X22.806 Y-81.014 E6.87138
G1 X23.191 Y-79.362 E6.93908
G1 X23.399 Y-77.301 E7.02176
G1 X23.348 Y-21.39 E9.25329
G1 X23.206 Y-20.319 E9.29641
G1 X22.741 Y-18.608 E9.36717
G1 X21.953 Y-16.73 E9.44846
G1 X20.323 Y-14.712 E9.552
G1 X19.356 Y-13.824 E9.6044
G1 X17.676 Y-12.693 E9.68523
G1 X16.149 Y-11.939 E9.7532
G1 X14.237 Y-11.517 E9.83135
G1 X12.447 Y-11.351 E9.9031
G0 F3600 X12.448 Y-11.751
G1 F1200 X-22.359 Y-11.798 E11.29232
G1 X-23.399 Y-11.929 E11.33416
G1 X-25.324 Y-12.464 E11.4139
G1 X-26.943 Y-13.165 E11.48431
G1 X-28.859 Y-14.729 E11.58303
G1 X-30.089 Y-16.133 E11.65753
G1 X-30.802 Y-17.253 E11.71052
G1 X-31.534 Y-18.733 E11.77642
G1 X-31.902 Y-20.318 E11.84136
G1 X-32.101 Y-22.301 E11.92091
G1 X-32.101 Y-81.032 E14.26499
G1 X-31.698 Y-82.991 E14.34481
G1 X-30.697 Y-84.764 E14.42607
G1 X-30.026 Y-85.619 E14.46945
G1 X-28.736 Y-86.656 E14.53551
G1 X-26.822 Y-87.606 E14.6208
G1 X-24.701 Y-87.851 E14.70601
G1 X12.985 Y-87.818 E16.21014
G1 X14.809 Y-87.565 E16.28364
G1 X16.162 Y-87.164 E16.33996
G1 X17.801 Y-86.454 E16.41125
G1 X19.471 Y-85.147 E16.49589
G1 X20.765 Y-83.759 E16.57163
G1 X21.772 Y-82.224 E16.6449
G1 X22.426 Y-80.88 E16.70456
G1 X22.801 Y-79.271 E16.7705
G1 X22.999 Y-77.301 E16.84952
G1 X22.951 Y-21.443 E19.07894
G1 X22.809 Y-20.372 E19.12206
G1 X22.372 Y-18.763 E19.1886
G1 X21.606 Y-16.938 E19.2676
G1 X20.052 Y-15.007 E19.36653
G1 X19.085 Y-14.119 E19.41893
G1 X17.499 Y-13.052 E19.49522
G1 X16.016 Y-12.32 E19.56123
G1 X14.151 Y-11.908 E19.63746
G1 X12.448 Y-11.751 E19.70572
G0 F3600 X12.449 Y-12.151
G1 F1200 X-22.309 Y-12.195 E21.09298
G1 X-23.349 Y-12.326 E21.13482
G1 X-25.165 Y-12.831 E21.21005
G1 X-26.735 Y-13.511 E21.27834
G1 X-28.559 Y-14.993 E21.37214
G1 X-29.752 Y-16.348 E21.44419
G1 X-30.443 Y-17.43 E21.49543
G1 X-31.154 Y-18.868 E21.55946
G1 X-31.512 Y-20.409 E21.6226
G1 X-31.701 Y-22.301 E21.69849
G1 X-31.701 Y-80.99 E24.0409
G1 X-31.319 Y-82.849 E24.11664
G1 X-30.382 Y-84.517 E24.193
G1 X-29.74 Y-85.335 E24.23451
G1 X-28.517 Y-86.318 E24.29713
G1 X-26.706 Y-87.217 E24.37783
G1 X-24.701 Y-87.451 E24.45839
G1 X12.931 Y-87.422 E25.96037
G1 X14.695 Y-87.181 E26.03143
G1 X16.048 Y-86.78 E26.08775
G1 X17.594 Y-86.108 E26.15503
G1 X19.224 Y-84.832 E26.23765
G1 X20.431 Y-83.539 E26.30825
G1 X21.412 Y-82.049 E26.37945
G1 X22.046 Y-80.746 E26.43729
G1 X22.411 Y-79.18 E26.50146
G1 X22.599 Y-77.301 E26.57683
G1 X22.554 Y-21.496 E28.80413
G1 X22.412 Y-20.425 E28.84725
G1 X22.003 Y-18.918 E28.90958
G1 X21.258 Y-17.144 E28.98637
G1 X19.781 Y-15.302 E29.0806
G1 X18.814 Y-14.414 E29.133
G1 X17.322 Y-13.411 E29.20476
G1 X15.88 Y-12.699 E29.26894
G1 X14.114 Y-12.306 E29.34115
G1 X12.449 Y-12.151 E29.40789
G0 F3600 X12.449 Y-12.551
G1 F1200 X-22.259 Y-12.592 E30.79317
G1 X-23.299 Y-12.723 E30.835
G1 X-25.006 Y-13.198 E30.90572
G1 X-26.524 Y-13.856 E30.97176
G1 X-28.307 Y-15.304 E31.06343
G1 X-29.415 Y-16.564 E31.1304
G1 X-30.084 Y-17.607 E31.17985
G1 X-30.774 Y-19.003 E31.24201
G1 X-31.122 Y-20.5 E31.30335
G1 X-31.301 Y-22.301 E31.37558
G1 X-31.301 Y-80.948 E33.71631
G1 X-30.939 Y-82.709 E33.78807
G1 X-30.067 Y-84.27 E33.85943
G1 X-29.454 Y-85.051 E33.89906
G1 X-28.298 Y-85.98 E33.95825
G1 X-26.59 Y-86.828 E34.03436
G1 X-24.701 Y-87.051 E34.11028
G1 X12.878 Y-87.026 E35.61014
G1 X14.581 Y-86.797 E35.67872
G1 X15.934 Y-86.396 E35.73504
G1 X17.39 Y-85.76 E35.79845
G1 X18.932 Y-84.558 E35.87649
G1 X20.097 Y-83.318 E35.9444
G1 X21.052 Y-81.874 E36.01349
G1 X21.666 Y-80.612 E36.06951
G1 X22.021 Y-79.089 E36.13192
G1 X22.199 Y-77.301 E36.20364
G1 X22.157 Y-21.549 E38.42882
G1 X22.015 Y-20.478 E38.47194
G1 X21.634 Y-19.073 E38.53004
G1 X20.91 Y-17.349 E38.60467
G1 X19.51 Y-15.597 E38.69418
G1 X18.543 Y-14.709 E38.74658
G1 X17.145 Y-13.77 E38.8138
G1 X15.744 Y-13.078 E38.87616
G1 X14.077 Y-12.704 E38.94435
G1 X12.449 Y-12.551 E39.00961
G0 F3600 X12.449 Y-12.951
G1 F1200 X-22.209 Y-12.989 E40.39289
G1 X-23.249 Y-13.12 E40.43473
G1 X-24.847 Y-13.565 E40.50093
G1 X-26.316 Y-14.202 E40.56484
G1 X-28.007 Y-15.569 E40.65163
G1 X-29.079 Y-16.781 E40.71621
G1 X-29.725 Y-17.784 E40.76382
G1 X-30.395 Y-19.139 E40.82415
G1 X-30.732 Y-20.59 E40.88361
G1 X-30.901 Y-22.301 E40.95223
G1 X-30.901 Y-80.906 E43.29128
G1 X-30.559 Y-82.568 E43.35901
G1 X-29.752 Y-84.023 E43.42541
G1 X-29.168 Y-84.767 E43.46316
G1 X-28.079 Y-85.642 E43.51892
G1 X-26.474 Y-86.439 E43.59044
G1 X-24.701 Y-86.651 E43.66171
G1 X12.878 Y-86.626 E45.16157
G1 X14.467 Y-86.413 E45.22556
G1 X15.82 Y-86.012 E45.28188
G1 X17.183 Y-85.415 E45.34127
G1 X18.64 Y-84.284 E45.41489
G1 X19.805 Y-83.044 E45.48279
G1 X20.692 Y-81.699 E45.5471
G1 X21.286 Y-80.478 E45.60129
G1 X21.631 Y-78.998 E45.66195
G1 X21.799 Y-77.301 E45.73001
G1 X21.76 Y-21.602 E47.95308
G1 X21.618 Y-20.531 E47.9962
G1 X21.265 Y-19.228 E48.05008
G1 X20.562 Y-17.554 E48.12254
G1 X19.239 Y-15.892 E48.20733
G1 X18.272 Y-15.004 E48.25973
G1 X16.968 Y-14.129 E48.3224
G1 X15.608 Y-13.457 E48.38295
G1 X14.039 Y-13.102 E48.44715
G1 X12.449 Y-12.951 E48.5109
G0 F3600 X12.449 Y-13.351
G1 F1200 X-22.159 Y-13.386 E49.89218
G1 X-23.199 Y-13.517 E49.93402
G1 X-24.688 Y-13.932 E49.99571
G1 X-26.105 Y-14.547 E50.05736
G1 X-27.708 Y-15.835 E50.13944
G1 X-28.743 Y-16.998 E50.20157
G1 X-29.366 Y-17.961 E50.24735
G1 X-30.015 Y-19.274 E50.30581
G1 X-30.342 Y-20.681 E50.36346
G1 X-30.501 Y-22.301 E50.42843
G1 X-30.501 Y-80.864 E52.7658
G1 X-30.179 Y-82.428 E52.82954
G1 X-29.402 Y-83.829 E52.89348
G1 X-28.883 Y-84.482 E52.92677
G1 X-27.86 Y-85.304 E52.97915
G1 X-26.358 Y-86.05 E53.04608
G1 X-24.701 Y-86.251 E53.1127
G1 X12.878 Y-86.226 E54.61256
G1 X14.353 Y-86.029 E54.67195
G1 X15.706 Y-85.628 E54.72828
G1 X16.976 Y-85.069 E54.78366
G1 X18.348 Y-84.01 E54.85283
G1 X19.513 Y-82.77 E54.92074
G1 X20.332 Y-81.524 E54.98025
G1 X20.906 Y-80.344 E55.03262
G1 X21.241 Y-78.907 E55.09152
G1 X21.399 Y-77.301 E55.15592
G1 X21.363 Y-21.655 E57.37688
G1 X21.221 Y-20.584 E57.42
G1 X20.896 Y-19.383 E57.46966
G1 X20.214 Y-17.76 E57.53992
G1 X18.968 Y-16.187 E57.62001
G1 X18.001 Y-15.299 E57.67241
G1 X16.791 Y-14.488 E57.73055
G1 X15.472 Y-13.836 E57.78927
G1 X14.001 Y-13.5 E57.8495
G1 X12.449 Y-13.351 E57.91173
G0 F3600 X12.449 Y-13.751
G1 F1200 X-22.109 Y-13.783 E59.29101
G1 X-23.149 Y-13.914 E59.33285
G1 X-24.529 Y-14.299 E59.39003
G1 X-25.897 Y-14.893 E59.44955
G1 X-27.41 Y-16.102 E59.52685
G1 X-28.408 Y-17.216 E59.58655
G1 X-29.007 Y-18.138 E59.63043
G1 X-29.635 Y-19.409 E59.68701
G1 X-29.952 Y-20.772 E59.74287
G1 X-30.101 Y-22.301 E59.80418
G1 X-30.101 Y-80.822 E62.13988
G1 X-29.799 Y-82.289 E62.19966
G1 X-29.089 Y-83.58 E62.25846
G1 X-28.599 Y-84.196 E62.28988
G1 X-27.641 Y-84.966 E62.33893
G1 X-26.242 Y-85.661 E62.40128
G1 X-24.701 Y-85.851 E62.46325
G1 X12.826 Y-85.829 E63.96104
G1 X14.239 Y-85.645 E64.01791
G1 X15.592 Y-85.244 E64.07423
G1 X16.771 Y-84.722 E64.12569
G1 X18.104 Y-83.693 E64.1929
G1 X19.179 Y-82.549 E64.25556
G1 X19.972 Y-81.349 E64.31297
G1 X20.526 Y-80.21 E64.36352
G1 X20.851 Y-78.816 E64.42065
G1 X20.999 Y-77.301 E64.4814
G1 X20.966 Y-21.708 E66.70024
G1 X20.824 Y-20.637 E66.74336
G1 X20.527 Y-19.538 E66.7888
G1 X19.866 Y-17.965 E66.8569
G1 X18.696 Y-16.481 E66.93232
G1 X17.777 Y-15.631 E66.98229
G1 X16.614 Y-14.847 E67.03827
G1 X15.337 Y-14.216 E67.09512
G1 X13.962 Y-13.898 E67.15144
G1 X12.449 Y-13.751 E67.21211
G0 F3600 X12.449 Y-14.151
G1 F1200 X-22.059 Y-14.18 E68.5894
G1 X-23.099 Y-14.311 E68.63124
G1 X-24.37 Y-14.666 E68.68391
G1 X-25.689 Y-15.239 E68.74131
G1 X-27.113 Y-16.37 E68.81389
G1 X-28.073 Y-17.435 E68.87111
G1 X-28.648 Y-18.315 E68.91307
G1 X-29.255 Y-19.544 E68.96778
G1 X-29.562 Y-20.863 E69.02183
G1 X-29.701 Y-22.301 E69.07949
G1 X-29.701 Y-80.78 E71.41351
G1 X-29.419 Y-82.151 E71.46938
G1 X-28.776 Y-83.331 E71.52301
G1 X-28.313 Y-83.913 E71.5527
G1 X-27.424 Y-84.627 E71.59821
G1 X-26.126 Y-85.272 E71.65606
G1 X-24.701 Y-85.451 E71.71338
G1 X12.774 Y-85.432 E73.20909
G1 X14.187 Y-85.248 E73.26596
G1 X15.43 Y-84.878 E73.31772
G1 X16.566 Y-84.375 E73.36731
G1 X17.86 Y-83.376 E73.43255
G1 X18.846 Y-82.328 E73.48998
G1 X19.612 Y-81.174 E73.54527
G1 X20.146 Y-80.076 E73.594
G1 X20.461 Y-78.725 E73.64936
G1 X20.599 Y-77.301 E73.70647
G1 X20.569 Y-21.761 E75.92319
G1 X20.427 Y-20.69 E75.96631
G1 X20.158 Y-19.693 E76.00752
G1 X19.518 Y-18.17 E76.07346
G1 X18.382 Y-16.729 E76.14669
G1 X17.553 Y-15.963 E76.19174
G1 X16.39 Y-15.179 E76.24772
G1 X15.203 Y-14.596 E76.30051
G1 X13.872 Y-14.288 E76.35503
G1 X12.449 Y-14.151 E76.41209
G0 F3600 X12.449 Y-14.551
G1 F1200 X-22.009 Y-14.577 E77.78738
G1 X-23.049 Y-14.708 E77.82922
G1 X-24.211 Y-15.033 E77.87738
G1 X-25.481 Y-15.585 E77.93265
G1 X-26.816 Y-16.638 E78.00051
G1 X-27.776 Y-17.703 E78.05774
G1 X-28.289 Y-18.492 E78.0953
G1 X-28.875 Y-19.679 E78.14813
G1 X-29.172 Y-20.954 E78.20038
G1 X-29.301 Y-22.301 E78.25439
G1 X-29.301 Y-80.738 E80.58674
G1 X-29.039 Y-82.013 E80.63869
G1 X-28.463 Y-83.082 E80.68715
G1 X-28.029 Y-83.627 E80.71496
G1 X-27.205 Y-84.289 E80.75715
G1 X-26.01 Y-84.883 E80.81041
G1 X-24.701 Y-85.051 E80.86308
G1 X12.724 Y-85.035 E82.3568
G1 X14.074 Y-84.864 E82.41111
G1 X15.268 Y-84.512 E82.46079
G1 X16.361 Y-84.028 E82.5085
G1 X17.616 Y-83.059 E82.57178
G1 X18.513 Y-82.106 E82.62402
G1 X19.252 Y-80.999 E82.67714
G1 X19.766 Y-79.942 E82.72405
G1 X20.071 Y-78.634 E82.77766
G1 X20.199 Y-77.301 E82.83111
G1 X20.172 Y-21.812 E85.04579
G1 X20.04 Y-20.793 E85.0868
G1 X19.789 Y-19.848 E85.12583
G1 X19.17 Y-18.375 E85.1896
G1 X18.068 Y-16.977 E85.26065
G1 X17.329 Y-16.295 E85.30078
G1 X16.166 Y-15.511 E85.35676
G1 X15.068 Y-14.976 E85.40551
G1 X13.782 Y-14.678 E85.4582
G1 X12.449 Y-14.551 E85.51164
G0 F3600 X12.449 Y-14.951
G1 F1200 X-21.959 Y-14.974 E86.88494
G1 X-22.999 Y-15.105 E86.92678
G1 X-24.051 Y-15.4 E86.97038
G1 X-25.274 Y-15.932 E87.02361
G1 X-26.52 Y-16.907 E87.08676
G1 X-27.441 Y-17.922 E87.14146
G1 X-27.93 Y-18.669 E87.1771
G1 X-28.497 Y-19.817 E87.2282
G1 X-28.774 Y-20.993 E87.27642
G1 X-28.901 Y-22.301 E87.32887
G1 X-28.901 Y-80.697 E89.65958
G1 X-28.659 Y-81.875 E89.70758
G1 X-28.111 Y-82.892 E89.75369
G1 X-27.745 Y-83.342 E89.77684
G1 X-26.988 Y-83.95 E89.81559
G1 X-25.894 Y-84.494 E89.86436
G1 X-24.701 Y-84.651 E89.91238
G1 X12.674 Y-84.638 E91.4041
G1 X14.024 Y-84.467 E91.45841
G1 X15.106 Y-84.146 E91.50346
G1 X16.156 Y-83.681 E91.54929
G1 X17.372 Y-82.742 E91.61061
G1 X18.181 Y-81.883 E91.65771
G1 X18.892 Y-80.824 E91.70862
G1 X19.386 Y-79.808 E91.75371
G1 X19.681 Y-78.543 E91.80555
G1 X19.799 Y-77.301 E91.85534
G1 X19.775 Y-21.862 E94.06803
G1 X19.653 Y-20.896 E94.1069
G1 X19.402 Y-19.951 E94.14592
G1 X18.823 Y-18.581 E94.20528
G1 X17.754 Y-17.225 E94.2742
G1 X17.105 Y-16.627 E94.30942
G1 X15.942 Y-15.843 E94.3654
G1 X14.935 Y-15.356 E94.41005
G1 X13.692 Y-15.068 E94.46097
G1 X12.449 Y-14.951 E94.5108
G0 F3600 X12.449 Y-15.351
G1 F1200 X-21.909 Y-15.371 E95.8821
G1 X-22.949 Y-15.502 E95.92394
G1 X-23.891 Y-15.767 E95.963
G1 X-25.069 Y-16.28 E96.01428
G1 X-26.225 Y-17.177 E96.07268
G1 X-27.106 Y-18.141 E96.1248
G1 X-27.595 Y-18.888 E96.16043
G1 X-28.118 Y-19.953 E96.20779
G1 X-28.376 Y-21.032 E96.25207
G1 X-28.501 Y-22.301 E96.30296
G1 X-28.501 Y-80.656 E98.63204
G1 X-28.279 Y-81.737 E98.67608
G1 X-27.796 Y-82.645 E98.71713
G1 X-27.494 Y-83.03 E98.73666
G1 X-26.769 Y-83.613 E98.77379
G1 X-25.775 Y-84.107 E98.81809
G1 X-24.701 Y-84.251 E98.86134
G1 X12.625 Y-84.241 E100.3511
G1 X13.911 Y-84.083 E100.40282
G1 X14.944 Y-83.78 E100.44578
G1 X15.951 Y-83.334 E100.48974
G1 X17.128 Y-82.425 E100.5491
G1 X17.889 Y-81.61 E100.5936
G1 X18.532 Y-80.649 E100.63975
G1 X19.007 Y-79.671 E100.68314
G1 X19.283 Y-78.505 E100.73097
G1 X19.399 Y-77.301 E100.77924
G1 X19.378 Y-21.911 E102.98998
G1 X19.266 Y-20.999 E103.02665
G1 X19.015 Y-20.054 E103.06568
G1 X18.477 Y-18.788 E103.12058
G1 X17.481 Y-17.518 E103.185
G1 X16.881 Y-16.959 E103.21773
G1 X15.718 Y-16.175 E103.27371
G1 X14.801 Y-15.736 E103.31428
G1 X13.602 Y-15.458 E103.36341
G1 X12.449 Y-15.351 E103.40962
G0 F3600 X12.449 Y-15.751
G1 F1200 X-21.86 Y-15.768 E104.77897
G1 X-22.842 Y-15.888 E104.81846
G1 X-23.731 Y-16.134 E104.85527
G1 X-24.864 Y-16.628 E104.9046
G1 X-25.931 Y-17.448 E104.95831
G1 X-26.771 Y-18.36 E105.0078
G1 X-27.26 Y-19.107 E105.04343
G1 X-27.739 Y-20.088 E105.08701
G1 X-27.978 Y-21.072 E105.12742
G1 X-28.101 Y-22.301 E105.17672
G1 X-28.101 Y-80.615 E107.50416
G1 X-27.899 Y-81.601 E107.54433
G1 X-27.475 Y-82.406 E107.58064
G1 X-27.243 Y-82.718 E107.59616
G1 X-26.55 Y-83.276 E107.63167
G1 X-25.656 Y-83.72 E107.67151
G1 X-24.701 Y-83.851 E107.70998
G1 X12.578 Y-83.844 E109.19787
G1 X13.8 Y-83.699 E109.24698
G1 X14.782 Y-83.414 E109.28779
G1 X15.748 Y-82.986 E109.32996
G1 X16.837 Y-82.151 E109.38473
G1 X17.557 Y-81.386 E109.42666
G1 X18.172 Y-80.474 E109.47057
G1 X18.628 Y-79.535 E109.51223
G1 X18.885 Y-78.466 E109.55611
G1 X18.999 Y-77.301 E109.60283
G1 X18.981 Y-21.958 E111.81169
G1 X18.879 Y-21.102 E111.8461
G1 X18.628 Y-20.157 E111.88512
G1 X18.129 Y-18.992 E111.9357
G1 X17.208 Y-17.811 E111.99548
G1 X16.608 Y-17.252 E112.02821
G1 X15.545 Y-16.536 E112.07936
G1 X14.665 Y-16.115 E112.1183
G1 X13.565 Y-15.856 E112.1634
G1 X12.449 Y-15.751 E112.20814
G0 F3600 X12.449 Y-16.151
G1 F1200 X-21.813 Y-16.165 E113.57561
G1 X-22.735 Y-16.274 E113.61267
G1 X-23.624 Y-16.52 E113.64948
G1 X-24.66 Y-16.975 E113.69464
G1 X-25.638 Y-17.72 E113.74371
G1 X-26.436 Y-18.579 E113.79051
G1 X-26.925 Y-19.326 E113.82614
G1 X-27.359 Y-20.222 E113.86588
G1 X-27.589 Y-21.167 E113.9047
G1 X-27.701 Y-22.301 E113.95018
G1 X-27.701 Y-80.574 E116.27598
G1 X-27.519 Y-81.464 E116.31224
G1 X-27.121 Y-82.219 E116.3463
G1 X-26.952 Y-82.439 E116.35737
G1 X-26.334 Y-82.937 E116.38905
G1 X-25.537 Y-83.333 E116.42457
G1 X-24.701 Y-83.451 E116.45827
G1 X12.533 Y-83.447 E117.94436
G1 X13.69 Y-83.315 E117.99083
G1 X14.62 Y-83.048 E118.02945
G1 X15.545 Y-82.638 E118.06984
G1 X16.547 Y-81.875 E118.1201
