;FLAVOR:Marlin
;TIME:2008
;Filament used: 3.51893m
;Layer height: 0.24
;MINX:-38.48
;MINY:-43.479
;MINZ:0.3
;MAXX:44.334
;MAXY:39.339
;MAXZ:25.78
;Generated with Cura_SteamEngine 4.13.1
M140 S50
M105
M190 S50
M104 S210
M105
M109 S210
M82 ;absolute extrusion mode
;FLAVOR:Marlin
M82 ;absolute extrusion mode
G21
G90
M82
M107 T0
G28
G92 E0
G0 E3 F200
G92 E0 ; reset extrusion distance
M106 S255 ; Enable cooling fan full speed
G1 X-98 Y0 Z0.4 F3000 ; move to arc start
G3 X0 Y-98 I98 Z0.4 E40 F400 ; lay arc stripe 90deg
G92 E0 ; reset extrusion distance
G4 P500 ; wait for 0.5 sec
G0 Z10 E-1 ; Lift 15mm and retract 1mm filament
G4 P2000 ; wait for 5 sec
G0 Z15
M107 ; Disable cooling fan
G1 X0 Y-85 Z4 E0 F3000 ; get off the bed
G92 E0
G92 E0
G1 F1500 E-6.5
;LAYER_COUNT:104
;LAYER:0
M106 S25.5
G1 F600 Z1.3
G0 F3600 X-4.969 Y5.153 Z1.3
;TYPE:SKIRT
G1 F600 Z0.3
G1 F1500 E0.3326
G1 F2700 X-7.189 Y3.582 E0.46828
G1 X-9.477 Y2.056 E0.60549
G1 X-11.837 Y0.577 E0.74444
G1 X-14.164 Y-.79 E0.87909
G1 X-16.615 Y-2.138 E1.01864
G1 X-17.86 Y-2.789 E1.08874
G1 X-18.476 Y-3.226 E1.12642
G1 X-18.777 Y-3.51 E1.14706
G1 X-37.229 Y-21.962 E2.44895
G1 X-37.697 Y-22.444 E2.48247
G1 X-37.996 Y-22.81 E2.50605
G1 X-38.23 Y-23.221 E2.52964
G1 X-38.391 Y-23.666 E2.55325
G1 X-38.476 Y-24.131 E2.57683
G1 X-38.48 Y-24.604 E2.60043
G1 X-38.405 Y-25.071 E2.62403
G1 X-38.253 Y-25.519 E2.64763
G1 X-38.027 Y-25.934 E2.67121
G1 X-37.525 Y-26.53 E2.71009
G1 X-37.458 Y-26.6 E2.71492
G1 X-21.809 Y-42.246 E3.81893
G1 X-21.344 Y-42.697 E3.85125
G1 X-20.978 Y-42.996 E3.87483
G1 X-20.567 Y-43.23 E3.89843
G1 X-20.123 Y-43.391 E3.92199
G1 X-19.657 Y-43.475 E3.94561
G1 X-19.184 Y-43.479 E3.96921
G1 X-18.718 Y-43.404 E3.99276
G1 X-18.27 Y-43.251 E4.01638
G1 X-17.855 Y-43.025 E4.03995
G1 X-17.234 Y-42.498 E4.08059
G1 X1.238 Y-24.028 E5.38382
G1 X1.742 Y-23.508 E5.41995
G1 X2.042 Y-23.142 E5.44356
G1 X2.204 Y-22.874 E5.45918
G1 X2.87 Y-21.622 E5.52993
G1 X4.176 Y-19.247 E5.66515
G1 X5.593 Y-16.834 E5.80476
G1 X7.041 Y-14.519 E5.94099
G1 X8.578 Y-12.209 E6.07941
G1 X10.158 Y-9.979 E6.21576
G1 X11.812 Y-7.775 E6.35324
G1 X13.505 Y-5.649 E6.48883
G1 X15.306 Y-3.514 E6.62818
G1 X17.118 Y-1.486 E6.76386
G1 X19.005 Y0.513 E6.90101
G1 X20.964 Y2.47 E7.03916
G1 X22.938 Y4.336 E7.17468
G1 X25.009 Y6.183 E7.31312
G1 X27.106 Y7.951 E7.44996
G1 X29.274 Y9.677 E7.58821
G1 X31.773 Y11.554 E7.74414
G1 X32.309 Y12.037 E7.78014
G1 X36.624 Y16.35 E8.08451
G1 X39.057 Y18.784 E8.25621
G1 X39.529 Y19.27 E8.29001
G1 X39.954 Y19.837 E8.32536
G1 X40.606 Y20.984 E8.39119
G1 X40.853 Y21.431 E8.41666
G1 X42.256 Y23.814 E8.55463
G1 X43.658 Y26.049 E8.68625
G1 X44.116 Y26.835 E8.73164
G1 X44.264 Y27.285 E8.75527
G1 X44.334 Y27.752 E8.77883
G1 X44.325 Y28.225 E8.80243
G1 X44.236 Y28.689 E8.82601
G1 X44.07 Y29.132 E8.84961
G1 X43.915 Y29.415 E8.86571
G1 X43.312 Y30.381 E8.92252
G1 X41.903 Y32.713 E9.05845
G1 X41.468 Y33.486 E9.1027
G1 X41.428 Y33.545 E9.10626
G1 X40.748 Y34.724 E9.17416
G1 X40.478 Y35.112 E9.19774
G1 X40.146 Y35.449 E9.22135
G1 X39.691 Y35.767 E9.24904
G1 X39.402 Y35.929 E9.26557
G1 X36.982 Y37.328 E9.40503
G1 X34.948 Y38.592 E9.5245
G1 X34.385 Y38.934 E9.55737
G1 X33.961 Y39.145 E9.58099
G1 X33.508 Y39.281 E9.60459
G1 X33.039 Y39.339 E9.62817
G1 X32.567 Y39.317 E9.65174
G1 X32.105 Y39.216 E9.67533
G1 X31.449 Y38.916 E9.71132
G1 X30.797 Y38.51 E9.74964
G1 X29.68 Y37.79 E9.81594
G1 X27.336 Y36.373 E9.95259
G1 X25.666 Y35.434 E10.04818
G1 X24.821 Y34.946 E10.09686
G1 X24.316 Y34.573 E10.12818
G1 X23.917 Y34.192 E10.15571
G1 X17.26 Y27.533 E10.62546
G1 X16.793 Y27.052 E10.65891
G1 X16.341 Y26.481 E10.69524
G1 X14.682 Y24.27 E10.83315
G1 X12.97 Y22.115 E10.97046
G1 X11.228 Y20.048 E11.10532
G1 X9.359 Y17.953 E11.24539
G1 X7.475 Y15.957 E11.38232
G1 X5.569 Y14.05 E11.51684
G1 X3.542 Y12.131 E11.6561
G1 X1.486 Y10.296 E11.79358
G1 X-.604 Y8.53 E11.93009
G1 X-2.751 Y6.819 E12.06706
G1 X-4.969 Y5.153 E12.20546
G0 F3600 X-4.721 Y4.839
G1 F2700 X-6.982 Y3.239 E12.34364
G1 X-9.264 Y1.717 E12.48049
G1 X-11.612 Y0.246 E12.61873
G1 X-13.99 Y-1.151 E12.75632
G1 X-16.415 Y-2.485 E12.8944
G1 X-17.675 Y-3.144 E12.96534
G1 X-18.202 Y-3.518 E12.99758
G1 X-18.494 Y-3.793 E13.0176
G1 X-36.942 Y-22.241 E14.3192
G1 X-37.41 Y-22.723 E14.35272
G1 X-37.685 Y-23.064 E14.37457
G1 X-37.893 Y-23.449 E14.39641
G1 X-38.029 Y-23.865 E14.41824
G1 X-38.086 Y-24.299 E14.44008
G1 X-38.064 Y-24.736 E14.46191
G1 X-37.962 Y-25.162 E14.48376
G1 X-37.785 Y-25.562 E14.50559
G1 X-37.443 Y-26.033 E14.53463
G1 X-37.175 Y-26.317 E14.55411
G1 X-21.531 Y-41.959 E15.6578
G1 X-21.066 Y-42.41 E15.69012
G1 X-20.725 Y-42.685 E15.71198
G1 X-20.34 Y-42.893 E15.73381
G1 X-19.924 Y-43.028 E15.75563
G1 X-19.49 Y-43.085 E15.77747
G1 X-19.053 Y-43.062 E15.7993
G1 X-18.627 Y-42.961 E15.82114
G1 X-18.227 Y-42.784 E15.84297
G1 X-17.749 Y-42.434 E15.87252
G1 X-17.457 Y-42.157 E15.8926
G1 X0.981 Y-23.718 E17.19354
G1 X1.455 Y-23.229 E17.22751
G1 X1.851 Y-22.686 E17.26104
G1 X2.501 Y-21.464 E17.3301
G1 X3.848 Y-19.014 E17.46958
G1 X5.242 Y-16.64 E17.60693
G1 X6.712 Y-14.29 E17.74522
G1 X8.236 Y-12.002 E17.88238
G1 X9.844 Y-9.731 E18.0212
G1 X11.47 Y-7.564 E18.15637
G1 X13.22 Y-5.366 E18.29654
G1 X14.986 Y-3.273 E18.43316
G1 X16.83 Y-1.209 E18.57124
G1 X18.731 Y0.805 E18.70941
G1 X20.689 Y2.761 E18.84749
G1 X22.658 Y4.622 E18.98266
G1 X24.749 Y6.487 E19.12244
G1 X26.845 Y8.254 E19.25922
G1 X29.031 Y9.994 E19.39861
G1 X31.552 Y11.888 E19.55592
G1 X32.033 Y12.326 E19.58838
G1 X38.77 Y19.063 E20.06371
G1 X39.242 Y19.549 E20.09751
G1 X39.606 Y20.035 E20.1278
G1 X40.256 Y21.178 E20.1934
G1 X40.508 Y21.633 E20.21935
G1 X41.915 Y24.024 E20.35776
G1 X43.305 Y26.239 E20.48822
G1 X43.761 Y27.022 E20.53343
G1 X43.889 Y27.441 E20.55529
G1 X43.939 Y27.875 E20.57708
G1 X43.91 Y28.312 E20.59893
G1 X43.801 Y28.736 E20.62077
G1 X43.576 Y29.203 E20.64663
G1 X42.973 Y30.169 E20.70345
G1 X41.549 Y32.525 E20.84079
G1 X41.119 Y33.29 E20.88457
G1 X41.079 Y33.349 E20.88813
G1 X40.401 Y34.524 E20.95581
G1 X40.149 Y34.882 E20.97765
G1 X39.836 Y35.187 E20.99945
G1 X39.202 Y35.583 E21.03675
G1 X36.786 Y36.98 E21.17598
G1 X34.74 Y38.25 E21.29612
G1 X34.177 Y38.592 E21.32899
G1 X33.784 Y38.784 E21.35081
G1 X33.362 Y38.902 E21.37267
G1 X32.926 Y38.941 E21.39451
G1 X32.49 Y38.9 E21.41636
G1 X32.069 Y38.781 E21.43818
G1 X31.66 Y38.577 E21.46099
G1 X31.014 Y38.173 E21.499
G1 X29.924 Y37.47 E21.56371
G1 X27.547 Y36.034 E21.70226
G1 X25.866 Y35.087 E21.79852
G1 X25.021 Y34.599 E21.8472
G1 X24.588 Y34.28 E21.87403
G1 X24.197 Y33.906 E21.90102
G1 X17.547 Y27.255 E22.37025
G1 X17.08 Y26.774 E22.4037
G1 X16.663 Y26.244 E22.43735
G1 X15 Y24.026 E22.57565
G1 X13.287 Y21.872 E22.71295
G1 X11.509 Y19.761 E22.85065
G1 X9.666 Y17.695 E22.98878
G1 X7.766 Y15.683 E23.12684
G1 X5.825 Y13.741 E23.26382
G1 X3.801 Y11.825 E23.40287
G1 X1.759 Y10.002 E23.53944
G1 X-.359 Y8.213 E23.67775
G1 X-2.485 Y6.519 E23.81337
G1 X-4.721 Y4.839 E23.95291
G0 F3600 X-4.478 Y4.521
G1 F2700 X-6.751 Y2.912 E24.09184
G1 X-9.027 Y1.394 E24.22833
G1 X-11.424 Y-.108 E24.36946
G1 X-13.765 Y-1.483 E24.50491
G1 X-16.242 Y-2.845 E24.64593
G1 X-17.489 Y-3.498 E24.71616
G1 X-17.929 Y-3.81 E24.74307
G1 X-18.211 Y-4.076 E24.76241
G1 X-36.655 Y-22.52 E26.06373
G1 X-37.123 Y-23.002 E26.09725
G1 X-37.371 Y-23.315 E26.11718
G1 X-37.552 Y-23.671 E26.1371
G1 X-37.659 Y-24.056 E26.15704
G1 X-37.687 Y-24.454 E26.17694
G1 X-37.635 Y-24.85 E26.19687
G1 X-37.506 Y-25.228 E26.21679
G1 X-37.15 Y-25.76 E26.24873
G1 X-36.892 Y-26.034 E26.26751
G1 X-21.252 Y-41.672 E27.37092
G1 X-20.787 Y-42.123 E27.40324
G1 X-20.474 Y-42.371 E27.42316
G1 X-20.118 Y-42.552 E27.44309
G1 X-19.733 Y-42.658 E27.46301
G1 X-19.335 Y-42.686 E27.48292
G1 X-18.938 Y-42.634 E27.50289
G1 X-18.561 Y-42.505 E27.52277
G1 X-18.216 Y-42.303 E27.54272
G1 X-17.783 Y-41.916 E27.57169
G1 X0.694 Y-23.44 E28.87531
G1 X1.168 Y-22.951 E28.90928
G1 X1.498 Y-22.498 E28.93724
G1 X2.164 Y-21.246 E29.00799
G1 X3.486 Y-18.842 E29.14487
G1 X4.901 Y-16.432 E29.2843
G1 X6.384 Y-14.062 E29.42378
G1 X7.908 Y-11.771 E29.56105
G1 X9.513 Y-9.505 E29.69959
G1 X11.157 Y-7.315 E29.83621
G1 X12.9 Y-5.126 E29.97581
G1 X14.698 Y-2.994 E30.11495
G1 X16.542 Y-.931 E30.253
G1 X18.417 Y1.056 E30.3893
G1 X20.397 Y3.034 E30.52893
G1 X22.422 Y4.948 E30.66794
G1 X24.49 Y6.792 E30.80617
G1 X26.6 Y8.571 E30.94387
G1 X28.77 Y10.298 E31.08223
G1 X31.309 Y12.206 E31.24068
G1 X31.758 Y12.616 E31.27101
G1 X38.483 Y19.342 E31.74553
G1 X38.955 Y19.828 E31.77933
G1 X39.259 Y20.233 E31.8046
G1 X39.906 Y21.371 E31.86991
G1 X40.171 Y21.851 E31.89726
G1 X41.565 Y24.218 E32.03431
G1 X42.968 Y26.455 E32.16605
G1 X43.404 Y27.206 E32.20937
G1 X43.511 Y27.591 E32.22931
G1 X43.539 Y27.99 E32.24926
G1 X43.488 Y28.386 E32.26918
G1 X43.359 Y28.764 E32.28911
G1 X43.237 Y28.991 E32.30197
G1 X42.634 Y29.957 E32.35878
G1 X41.195 Y32.338 E32.49758
G1 X40.77 Y33.094 E32.54085
G1 X40.737 Y33.141 E32.54371
G1 X40.055 Y34.324 E32.61184
G1 X39.821 Y34.648 E32.63178
G1 X39.529 Y34.92 E32.65168
G1 X39.002 Y35.236 E32.68234
G1 X36.567 Y36.645 E32.8227
G1 X34.532 Y37.908 E32.94219
G1 X33.969 Y38.25 E32.97505
G1 X33.609 Y38.423 E32.99498
G1 X33.221 Y38.52 E33.01493
G1 X32.822 Y38.538 E33.03486
G1 X32.428 Y38.477 E33.05475
G1 X31.872 Y38.238 E33.08494
G1 X31.231 Y37.837 E33.12266
G1 X30.14 Y37.134 E33.18742
G1 X27.72 Y35.671 E33.3285
G1 X26.066 Y34.741 E33.42317
G1 X25.221 Y34.253 E33.47185
G1 X24.707 Y33.845 E33.50459
G1 X24.477 Y33.62 E33.52064
G1 X17.854 Y26.997 E33.98793
G1 X17.367 Y26.495 E34.02282
G1 X16.998 Y26.024 E34.05267
G1 X15.335 Y23.806 E34.19098
G1 X13.575 Y21.592 E34.33208
G1 X11.814 Y19.503 E34.4684
G1 X9.954 Y17.418 E34.60779
G1 X8.079 Y15.431 E34.74409
G1 X6.1 Y13.451 E34.88376
G1 X4.076 Y11.536 E35.02277
G1 X2.026 Y9.705 E35.1599
G1 X-.121 Y7.891 E35.30013
G1 X-2.263 Y6.185 E35.43674
G1 X-4.478 Y4.521 E35.57496
G0 F3600 X-4.228 Y4.208
G1 F2700 X-6.536 Y2.574 E35.71604
G1 X-8.815 Y1.055 E35.85268
G1 X-11.184 Y-.43 E35.99217
G1 X-13.612 Y-1.856 E36.13266
G1 X-16.02 Y-3.18 E36.26975
G1 X-17.304 Y-3.852 E36.34205
G1 X-17.89 Y-4.322 E36.37953
G1 X-36.368 Y-22.798 E37.68318
G1 X-36.836 Y-23.28 E37.7167
G1 X-37.055 Y-23.563 E37.73455
G1 X-37.205 Y-23.887 E37.75237
G1 X-37.28 Y-24.236 E37.77018
G1 X-37.276 Y-24.593 E37.78799
G1 X-37.192 Y-24.941 E37.80585
G1 X-37.034 Y-25.261 E37.82365
G1 X-36.648 Y-25.712 E37.85327
G1 X-20.974 Y-41.385 E38.95912
G1 X-20.509 Y-41.836 E38.99144
G1 X-20.226 Y-42.054 E39.00926
G1 X-19.902 Y-42.204 E39.02707
G1 X-19.553 Y-42.279 E39.04488
G1 X-19.196 Y-42.275 E39.06269
G1 X-18.849 Y-42.191 E39.08051
G1 X-18.529 Y-42.032 E39.09833
G1 X-18.057 Y-41.625 E39.12943
G1 X0.407 Y-23.162 E40.43213
G1 X0.881 Y-22.673 E40.4661
G1 X1.145 Y-22.31 E40.4885
G1 X1.8 Y-21.078 E40.55811
G1 X3.15 Y-18.624 E40.69784
G1 X4.566 Y-16.212 E40.83738
G1 X6.024 Y-13.881 E40.97455
G1 X7.577 Y-11.548 E41.11437
G1 X9.183 Y-9.28 E41.25302
G1 X10.861 Y-7.045 E41.39245
G1 X12.597 Y-4.864 E41.53152
G1 X14.395 Y-2.734 E41.67059
G1 X16.251 Y-.655 E41.80963
G1 X18.134 Y1.339 E41.94646
G1 X20.122 Y3.325 E42.08665
G1 X22.146 Y5.238 E42.2256
G1 X24.229 Y7.096 E42.36485
G1 X26.339 Y8.875 E42.50254
G1 X28.507 Y10.6 E42.64076
G1 X31.067 Y12.524 E42.80053
G1 X31.482 Y12.906 E42.82867
G1 X38.196 Y19.62 E43.30238
G1 X38.668 Y20.106 E43.33618
G1 X38.911 Y20.43 E43.35639
G1 X39.556 Y21.564 E43.42147
G1 X39.819 Y22.041 E43.44865
G1 X41.238 Y24.45 E43.58814
G1 X42.632 Y26.672 E43.719
G1 X43.044 Y27.387 E43.76017
G1 X43.128 Y27.734 E43.77798
G1 X43.132 Y28.091 E43.79579
G1 X43.057 Y28.441 E43.81365
G1 X42.897 Y28.779 E43.83231
G1 X42.306 Y29.726 E43.888
G1 X40.865 Y32.111 E44.02702
G1 X40.422 Y32.898 E44.07208
G1 X40.387 Y32.947 E44.07508
G1 X39.708 Y34.124 E44.14287
G1 X39.496 Y34.412 E44.16071
G1 X39.105 Y34.721 E44.18558
G1 X38.784 Y34.901 E44.20394
G1 X36.37 Y36.295 E44.34301
G1 X34.325 Y37.566 E44.46314
G1 X33.762 Y37.908 E44.496
G1 X33.438 Y38.059 E44.51384
G1 X33.088 Y38.133 E44.53168
G1 X32.731 Y38.128 E44.5495
G1 X32.384 Y38.045 E44.5673
G1 X32.084 Y37.898 E44.58396
G1 X31.447 Y37.501 E44.62141
G1 X30.319 Y36.774 E44.68836
G1 X27.957 Y35.346 E44.82606
G1 X26.266 Y34.395 E44.92286
G1 X25.421 Y33.907 E44.97154
G1 X24.98 Y33.552 E44.99978
G1 X24.757 Y33.334 E45.01534
G1 X18.121 Y26.698 E45.48355
G1 X17.654 Y26.217 E45.51699
G1 X17.308 Y25.771 E45.54515
G1 X15.631 Y23.535 E45.6846
G1 X13.889 Y21.343 E45.82429
G1 X12.124 Y19.249 E45.96092
G1 X10.242 Y17.139 E46.10197
G1 X8.362 Y15.148 E46.23859
G1 X6.375 Y13.16 E46.37882
G1 X4.352 Y11.245 E46.51779
G1 X2.287 Y9.402 E46.65588
G1 X0.137 Y7.585 E46.79632
G1 X-2.019 Y5.868 E46.93383
G1 X-4.228 Y4.208 E47.07168
G0 F3600 X-4.024 Y3.861
G1 F2700 X-6.277 Y2.267 E47.20937
G1 X-8.631 Y0.698 E47.35051
G1 X-10.97 Y-.768 E47.48823
G1 X-13.396 Y-2.193 E47.6286
G1 X-15.856 Y-3.546 E47.76867
G1 X-17.118 Y-4.207 E47.83974
G1 X-17.617 Y-4.614 E47.87187
G1 X-36.069 Y-23.064 E49.17369
G1 X-36.549 Y-23.559 E49.20809
G1 X-36.734 Y-23.807 E49.22352
G1 X-36.85 Y-24.094 E49.23897
G1 X-36.888 Y-24.4 E49.25435
G1 X-36.847 Y-24.707 E49.2698
G1 X-36.729 Y-24.993 E49.28524
G1 X-36.355 Y-25.439 E49.31428
G1 X-20.695 Y-41.097 E50.4191
G1 X-20.23 Y-41.548 E50.45142
G1 X-19.983 Y-41.733 E50.46682
G1 X-19.696 Y-41.849 E50.48226
G1 X-19.389 Y-41.887 E50.49769
G1 X-19.083 Y-41.846 E50.5131
G1 X-18.797 Y-41.727 E50.52855
G1 X-18.331 Y-41.334 E50.55896
G1 X0.12 Y-22.883 E51.86078
G1 X0.594 Y-22.394 E51.89476
G1 X0.791 Y-22.123 E51.91147
G1 X1.457 Y-20.871 E51.98222
G1 X2.796 Y-18.437 E52.12082
G1 X4.227 Y-16 E52.26181
G1 X5.691 Y-13.659 E52.39956
G1 X7.258 Y-11.305 E52.54065
G1 X8.854 Y-9.051 E52.67843
G1 X10.544 Y-6.8 E52.81887
G1 X12.28 Y-4.619 E52.95794
G1 X14.089 Y-2.475 E53.09789
G1 X15.935 Y-.409 E53.23611
G1 X17.876 Y1.647 E53.37718
G1 X19.847 Y3.616 E53.51617
G1 X21.859 Y5.517 E53.65427
G1 X23.97 Y7.4 E53.7954
G1 X26.095 Y9.192 E53.93408
G1 X28.277 Y10.928 E54.07319
G1 X30.824 Y12.842 E54.23214
G1 X31.207 Y13.196 E54.25816
G1 X37.897 Y19.886 E54.73018
G1 X38.381 Y20.385 E54.76486
G1 X38.563 Y20.628 E54.78
G1 X39.205 Y21.758 E54.84484
G1 X39.458 Y22.216 E54.87095
G1 X40.876 Y24.624 E55.01037
G1 X42.302 Y26.899 E55.14432
G1 X42.682 Y27.562 E55.18244
G1 X42.738 Y27.866 E55.19787
G1 X42.715 Y28.175 E55.21332
G1 X42.558 Y28.567 E55.23439
G1 X41.964 Y29.519 E55.29037
G1 X40.501 Y31.94 E55.4315
G1 X40.073 Y32.702 E55.4751
G1 X40.045 Y32.74 E55.47746
G1 X39.362 Y33.924 E55.54565
G1 X39.174 Y34.17 E55.5611
G1 X38.588 Y34.552 E55.596
G1 X36.154 Y35.959 E55.73626
G1 X34.117 Y37.225 E55.85591
G1 X33.554 Y37.567 E55.88878
G1 X33.271 Y37.692 E55.90421
G1 X32.966 Y37.74 E55.91962
G1 X32.658 Y37.71 E55.93505
G1 X32.296 Y37.559 E55.95462
G1 X31.664 Y37.165 E55.99178
G1 X30.537 Y36.439 E56.05866
G1 X28.144 Y34.992 E56.19818
G1 X26.466 Y34.048 E56.29423
G1 X25.621 Y33.56 E56.34291
G1 X25.228 Y33.236 E56.36833
G1 X25.027 Y33.04 E56.38233
G1 X18.408 Y26.419 E56.84941
G1 X17.941 Y25.938 E56.88286
G1 X17.631 Y25.534 E56.90826
G1 X15.941 Y23.281 E57.04877
G1 X14.223 Y21.12 E57.1865
G1 X12.422 Y18.983 E57.32593
G1 X10.55 Y16.885 E57.46621
G1 X8.621 Y14.841 E57.60643
G1 X6.669 Y12.888 E57.74419
G1 X4.615 Y10.944 E57.88528
G1 X2.556 Y9.105 E58.02301
G1 X0.422 Y7.302 E58.16239
G1 X-1.791 Y5.539 E58.30355
G1 X-4.024 Y3.861 E58.4429
G1 F1500 E51.9429
G1 F600 Z1.3
G0 F3600 X-6.515 Y-8.345 Z1.3
;TYPE:SUPPORT
G1 F600 Z0.3
G1 F1500 E58.77551
G1 F2700 X-9.189 Y-8.685 E58.90999
G1 X-10.079 Y-8.616 E58.95452
G1 X-10.945 Y-8.389 E58.99919
G1 X-11.543 Y-8.11 E59.03211
