;FLAVOR:Marlin
;TIME:2605
;Filament used: 1.47049m
;Layer height: 0.12
;MINX:-16.729
;MINY:-16.313
;MINZ:0.3
;MAXX:7.643
;MAXY:17.145
;MAXZ:20.98
;Generated with Cura_SteamEngine 4.13.1
M140 S50
M105
M190 S50
M104 S215
M105
M109 S215
M82 ;absolute extrusion mode
;FLAVOR:Marlin
M82 ;absolute extrusion mode
G21
G90
M82
M107 T0
G28
G92 E0
G0 E3 F200
G92 E0 ; reset extrusion distance
M106 S255 ; Enable cooling fan full speed
G1 X-98 Y0 Z0.4 F3000 ; move to arc start
G3 X0 Y-98 I98 Z0.4 E40 F400 ; lay arc stripe 90deg
G92 E0 ; reset extrusion distance
G4 P500 ; wait for 0.5 sec
G0 Z10 E-1 ; Lift 15mm and retract 1mm filament
G4 P2000 ; wait for 5 sec
G0 Z15
M107 ; Disable cooling fan
G1 X0 Y-85 Z4 E0 F3000 ; get off the bed
G92 E0
G92 E0
G1 F1500 E-6.5
;LAYER_COUNT:166
;LAYER:0
M106 S25.5
G1 F600 Z1.3
G0 F3600 X2.4 Y-.69 Z1.3
;TYPE:SKIRT
G1 F600 Z0.3
G1 F1500 E0.3326
G1 X2.399 Y11.323 E0.93193
G1 X2.359 Y11.811 E0.95636
G1 X2.24 Y12.286 E0.98079
G1 X2.046 Y12.735 E1.00519
G1 X1.781 Y13.147 E1.02963
G1 X1.453 Y13.51 E1.05404
G1 X1.07 Y13.815 E1.07847
G1 X0.642 Y14.053 E1.1029
G1 X0.182 Y14.219 E1.1273
G1 X-.599 Y14.323 E1.16661
G1 X-2.598 Y14.324 E1.26634
G1 X-3.142 Y14.27 E1.29361
G1 X-3.634 Y14.832 E1.33087
G1 X-4.167 Y15.33 E1.36727
G1 X-4.74 Y15.773 E1.4034
G1 X-5.366 Y16.167 E1.4403
G1 X-6.012 Y16.491 E1.47636
G1 X-6.703 Y16.759 E1.51334
G1 X-7.395 Y16.953 E1.54919
G1 X-8.12 Y17.085 E1.58596
G1 X-8.852 Y17.145 E1.6226
G1 X-9.577 Y17.135 E1.65877
G1 X-10.314 Y17.053 E1.69577
G1 X-11.021 Y16.905 E1.7318
G1 X-11.725 Y16.686 E1.76859
G1 X-12.399 Y16.402 E1.80508
G1 X-13.039 Y16.057 E1.84135
G1 X-13.649 Y15.649 E1.87796
G1 X-14.211 Y15.189 E1.9142
G1 X-14.736 Y14.669 E1.95106
G1 X-15.201 Y14.107 E1.98745
G1 X-15.61 Y13.507 E2.02368
G1 X-15.964 Y12.86 E2.06047
G1 X-16.252 Y12.187 E2.097
G1 X-16.472 Y11.496 E2.13317
G1 X-16.628 Y10.778 E2.16983
G1 X-16.713 Y10.055 E2.20615
G1 X-16.729 Y9.33 E2.24233
G1 X-16.675 Y8.598 E2.27895
G1 X-16.549 Y7.868 E2.31591
G1 X-16.361 Y7.179 E2.35154
G1 X-16.097 Y6.48 E2.38882
G1 X-15.775 Y5.829 E2.42505
G1 X-15.396 Y5.215 E2.46105
G1 X-14.941 Y4.617 E2.49854
G1 X-14.733 Y4.385 E2.51408
G1 X-14.733 Y-10.491 E3.25625
G1 X-14.693 Y-10.979 E3.28068
G1 X-14.574 Y-11.454 E3.30511
G1 X-14.38 Y-11.903 E3.32951
G1 X-14.115 Y-12.315 E3.35395
G1 X-13.787 Y-12.678 E3.37836
G1 X-13.404 Y-12.983 E3.40278
G1 X-12.976 Y-13.221 E3.42722
G1 X-12.516 Y-13.387 E3.45161
G1 X-11.732 Y-13.491 E3.49107
G1 X-9.732 Y-13.49 E3.59085
G1 X-9.244 Y-13.45 E3.61528
G1 X-8.769 Y-13.331 E3.63971
G1 X-8.32 Y-13.136 E3.66413
G1 X-7.908 Y-12.871 E3.68857
G1 X-7.545 Y-12.543 E3.71298
G1 X-7.241 Y-12.16 E3.73737
G1 X-6.985 Y-11.685 E3.7643
G1 X-6.698 Y-12.289 E3.79766
G1 X-6.324 Y-12.912 E3.83391
G1 X-5.89 Y-13.502 E3.87045
G1 X-5.399 Y-14.049 E3.90712
G1 X-4.864 Y-14.541 E3.94338
G1 X-4.28 Y-14.983 E3.97992
G1 X-3.66 Y-15.365 E4.01626
G1 X-3.005 Y-15.687 E4.05267
G1 X-2.313 Y-15.948 E4.08957
G1 X-1.619 Y-16.135 E4.12543
G1 X-.886 Y-16.261 E4.16253
G1 X-.16 Y-16.313 E4.19884
G1 X0.573 Y-16.296 E4.23542
G1 X1.295 Y-16.208 E4.27171
G1 X2.005 Y-16.053 E4.30797
G1 X2.719 Y-15.824 E4.34538
G1 X3.372 Y-15.54 E4.3809
G1 X4.016 Y-15.187 E4.41754
G1 X4.619 Y-14.775 E4.45398
G1 X5.184 Y-14.304 E4.49068
G1 X5.696 Y-13.786 E4.52701
G1 X6.159 Y-13.218 E4.56357
G1 X6.564 Y-12.611 E4.59998
G1 X6.912 Y-11.962 E4.63672
G1 X7.193 Y-11.285 E4.67329
G1 X7.405 Y-10.597 E4.7092
G1 X7.555 Y-9.876 E4.74594
G1 X7.634 Y-9.152 E4.78228
G1 X7.643 Y-8.417 E4.81895
G1 X7.582 Y-7.693 E4.8552
G1 X7.449 Y-6.964 E4.89217
G1 X7.249 Y-6.262 E4.92859
G1 X6.989 Y-5.595 E4.9643
G1 X6.654 Y-4.929 E5.0015
G1 X6.267 Y-4.317 E5.03762
G1 X5.812 Y-3.731 E5.07463
G1 X5.318 Y-3.208 E5.11053
G1 X4.77 Y-2.727 E5.1469
G1 X4.169 Y-2.294 E5.18386
G1 X3.539 Y-1.927 E5.22023
G1 X2.913 Y-1.625 E5.25491
G1 X2.621 Y-1.378 E5.27399
G1 X2.445 Y-1.042 E5.29291
G1 X2.4 Y-.69 E5.31062
G0 F3600 X2 Y-.689
G1 F1500 X1.999 Y11.323 E5.9099
G1 X1.959 Y11.777 E5.93264
G1 X1.84 Y12.217 E5.95538
G1 X1.647 Y12.629 E5.97808
G1 X1.384 Y13.002 E6.00085
G1 X1.061 Y13.323 E6.02357
G1 X0.686 Y13.582 E6.0463
G1 X0.272 Y13.772 E6.06903
G1 X-.169 Y13.887 E6.09177
G1 X-.6 Y13.923 E6.11334
G1 X-2.599 Y13.924 E6.21307
G1 X-3.053 Y13.884 E6.23581
G1 X-3.305 Y13.827 E6.2487
G1 X-3.738 Y14.357 E6.28285
G1 X-4.231 Y14.854 E6.31777
G1 X-4.764 Y15.296 E6.35232
G1 X-5.329 Y15.681 E6.38643
G1 X-5.947 Y16.02 E6.42159
G1 X-6.572 Y16.289 E6.45554
G1 X-7.243 Y16.503 E6.49068
G1 X-7.911 Y16.649 E6.52479
G1 X-8.603 Y16.732 E6.55956
G1 X-9.295 Y16.747 E6.59409
G1 X-9.983 Y16.696 E6.62851
G1 X-10.677 Y16.576 E6.66365
G1 X-11.335 Y16.398 E6.69766
G1 X-11.99 Y16.149 E6.73262
G1 X-12.61 Y15.843 E6.76711
G1 X-13.197 Y15.48 E6.80155
G1 X-13.749 Y15.061 E6.83612
G1 X-14.256 Y14.594 E6.87051
G1 X-14.723 Y14.071 E6.90549
G1 X-15.131 Y13.514 E6.93994
G1 X-15.484 Y12.922 E6.97432
G1 X-15.782 Y12.292 E7.00909
G1 X-16.015 Y11.64 E7.04364
G1 X-16.185 Y10.973 E7.07798
G1 X-16.291 Y10.284 E7.11276
G1 X-16.331 Y9.598 E7.14704
G1 X-16.305 Y8.908 E7.18149
G1 X-16.213 Y8.217 E7.21627
G1 X-16.053 Y7.538 E7.25107
G1 X-15.836 Y6.894 E7.28497
G1 X-15.546 Y6.249 E7.32025
G1 X-15.205 Y5.653 E7.35451
G1 X-14.811 Y5.091 E7.38875
G1 X-14.347 Y4.554 E7.42416
G1 X-14.333 Y4.54 E7.42515
G1 X-14.333 Y-10.491 E8.17505
G1 X-14.293 Y-10.945 E8.19779
G1 X-14.175 Y-11.385 E8.22051
G1 X-13.981 Y-11.797 E8.24323
G1 X-13.718 Y-12.17 E8.266
G1 X-13.395 Y-12.491 E8.28872
G1 X-13.02 Y-12.75 E8.31146
G1 X-12.606 Y-12.94 E8.33419
G1 X-12.165 Y-13.055 E8.35692
G1 X-11.732 Y-13.091 E8.3786
G1 X-9.732 Y-13.09 E8.47838
G1 X-9.278 Y-13.05 E8.50112
G1 X-8.838 Y-12.931 E8.52386
G1 X-8.426 Y-12.737 E8.54658
G1 X-8.053 Y-12.475 E8.56932
G1 X-7.733 Y-12.151 E8.59204
G1 X-7.473 Y-11.776 E8.6148
G1 X-7.284 Y-11.362 E8.63751
G1 X-7.169 Y-10.921 E8.66025
G1 X-7.133 Y-10.49 E8.68182
G1 X-7.133 Y-9.638 E8.72433
G1 X-7.051 Y-10.147 E8.75005
G1 X-6.882 Y-10.806 E8.78399
G1 X-6.65 Y-11.456 E8.81843
G1 X-6.351 Y-12.089 E8.85335
G1 X-5.998 Y-12.681 E8.88774
G1 X-5.587 Y-13.241 E8.92239
G1 X-5.123 Y-13.76 E8.95713
G1 X-4.616 Y-14.227 E8.99152
G1 X-4.064 Y-14.646 E9.02609
G1 X-3.477 Y-15.009 E9.06052
G1 X-2.857 Y-15.315 E9.09502
G1 X-2.202 Y-15.564 E9.12998
G1 X-1.544 Y-15.742 E9.16399
G1 X-.85 Y-15.862 E9.19912
G1 X-.162 Y-15.913 E9.23354
G1 X0.532 Y-15.898 E9.26817
G1 X1.217 Y-15.816 E9.30259
G1 X1.89 Y-15.67 E9.33695
G1 X2.566 Y-15.454 E9.37235
G1 X3.186 Y-15.186 E9.40605
G1 X3.797 Y-14.852 E9.44079
G1 X4.369 Y-14.463 E9.4753
G1 X4.905 Y-14.018 E9.51006
G1 X5.391 Y-13.527 E9.54453
G1 X5.831 Y-12.99 E9.57916
G1 X6.215 Y-12.416 E9.61362
G1 X6.545 Y-11.801 E9.64844
G1 X6.813 Y-11.161 E9.68305
G1 X7.015 Y-10.508 E9.71716
G1 X7.158 Y-9.825 E9.75197
G1 X7.234 Y-9.139 E9.7864
G1 X7.243 Y-8.443 E9.82113
G1 X7.187 Y-7.757 E9.85547
G1 X7.062 Y-7.066 E9.8905
G1 X6.874 Y-6.401 E9.92498
G1 X6.628 Y-5.767 E9.95891
G1 X6.312 Y-5.136 E9.99411
G1 X5.946 Y-4.556 E10.02833
G1 X5.517 Y-4.001 E10.06333
G1 X5.049 Y-3.504 E10.09739
G1 X4.53 Y-3.047 E10.13189
G1 X3.962 Y-2.636 E10.16686
G1 X3.365 Y-2.288 E10.20134
G1 X2.73 Y-1.982 E10.23651
G1 X2.406 Y-1.736 E10.2568
G1 X2.166 Y-1.411 E10.27696
G1 X2.029 Y-1.027 E10.2973
G1 X2 Y-.689 E10.31422
G0 F3600 X1.6 Y-.708
G1 F1500 X1.599 Y11.323 E10.91445
G1 X1.559 Y11.74 E10.93535
G1 X1.441 Y12.142 E10.95625
G1 X1.248 Y12.515 E10.97721
G1 X0.989 Y12.844 E10.9981
G1 X0.672 Y13.118 E11.019
G1 X0.308 Y13.326 E11.03992
G1 X-0.088 Y13.462 E11.06081
G1 X-.6 Y13.523 E11.08653
G1 X-2.599 Y13.524 E11.18626
G1 X-3.016 Y13.484 E11.20716
G1 X-3.457 Y13.346 E11.23021
G1 X-3.757 Y13.759 E11.25568
G1 X-4.192 Y14.258 E11.28871
G1 X-4.667 Y14.706 E11.32128
G1 X-5.18 Y15.104 E11.35368
G1 X-5.738 Y15.459 E11.38667
G1 X-6.316 Y15.751 E11.41898
G1 X-6.932 Y15.993 E11.452
G1 X-7.553 Y16.169 E11.4842
G1 X-8.201 Y16.289 E11.51708
G1 X-8.856 Y16.345 E11.54988
G1 X-9.505 Y16.338 E11.58226
G1 X-10.163 Y16.268 E11.61527
G1 X-10.799 Y16.136 E11.64768
G1 X-11.428 Y15.943 E11.6805
G1 X-12.033 Y15.691 E11.7132
G1 X-12.607 Y15.384 E11.74567
G1 X-13.154 Y15.021 E11.77843
G1 X-13.659 Y14.61 E11.81091
G1 X-14.13 Y14.147 E11.84386
G1 X-14.548 Y13.645 E11.87645
G1 X-14.916 Y13.108 E11.90893
G1 X-15.235 Y12.532 E11.94178
G1 X-15.495 Y11.93 E11.97449
G1 X-15.694 Y11.312 E12.00688
G1 X-15.835 Y10.671 E12.03963
G1 X-15.913 Y10.023 E12.07219
G1 X-15.93 Y9.373 E12.10463
G1 X-15.884 Y8.719 E12.13734
G1 X-15.774 Y8.065 E12.17043
G1 X-15.607 Y7.446 E12.20241
G1 X-15.374 Y6.822 E12.23564
G1 X-15.087 Y6.238 E12.26811
G1 X-14.748 Y5.685 E12.30047
G1 X-14.346 Y5.151 E12.33381
G1 X-13.933 Y4.702 E12.36425
G1 X-13.933 Y-10.491 E13.12223
G1 X-13.893 Y-10.908 E13.14313
G1 X-13.775 Y-11.31 E13.16403
G1 X-13.582 Y-11.682 E13.18494
G1 X-13.323 Y-12.011 E13.20583
G1 X-13.006 Y-12.285 E13.22674
G1 X-12.643 Y-12.494 E13.24763
G1 X-12.246 Y-12.63 E13.26857
G1 X-11.732 Y-12.691 E13.29439
G1 X-9.732 Y-12.69 E13.39417
G1 X-9.315 Y-12.65 E13.41507
G1 X-8.913 Y-12.531 E13.43599
G1 X-8.541 Y-12.339 E13.45688
G1 X-8.212 Y-12.079 E13.4778
G1 X-7.938 Y-11.762 E13.4987
G1 X-7.729 Y-11.399 E13.5196
G1 X-7.593 Y-11.002 E13.54053
G1 X-7.533 Y-10.49 E13.56625
G1 X-7.533 Y1.531 E14.16598
G1 X-7.498 Y1.934 E14.18616
G1 X-7.324 Y2.429 E14.21234
G1 X-7.018 Y2.846 E14.23815
G1 X-6.592 Y3.168 E14.26479
G1 X-5.942 Y3.482 E14.3008
G1 X-5.379 Y3.812 E14.33336
G1 X-4.845 Y4.199 E14.36626
G1 X-4.8 Y4.236 E14.36917
G1 X-4.8 Y-3.868 E14.77348
G1 X-5.213 Y-4.317 E14.80391
G1 X-5.615 Y-4.851 E14.83726
G1 X-5.954 Y-5.404 E14.86962
G1 X-6.242 Y-5.992 E14.90229
G1 X-6.472 Y-6.607 E14.93504
G1 X-6.641 Y-7.231 E14.9673
G1 X-6.751 Y-7.885 E15.00038
G1 X-6.797 Y-8.536 E15.03294
G1 X-6.78 Y-9.188 E15.06548
G1 X-6.704 Y-9.832 E15.09784
G1 X-6.559 Y-10.483 E15.13111
G1 X-6.362 Y-11.096 E15.16323
G1 X-6.103 Y-11.697 E15.19588
G1 X-5.783 Y-12.275 E15.22884
G1 X-5.415 Y-12.812 E15.26132
G1 X-4.994 Y-13.315 E15.29405
G1 X-4.526 Y-13.776 E15.32682
G1 X-4.021 Y-14.187 E15.3593
G1 X-3.474 Y-14.55 E15.39206
G1 X-2.9 Y-14.857 E15.42453
G1 X-2.295 Y-15.109 E15.45723
G1 X-1.666 Y-15.302 E15.49005
G1 X-1.03 Y-15.434 E15.52246
G1 X-.372 Y-15.504 E15.55547
G1 X-.164 Y-15.513 E15.56586
G1 X0.491 Y-15.5 E15.59855
G1 X1.139 Y-15.424 E15.6311
G1 X1.776 Y-15.287 E15.6636
G1 X2.413 Y-15.085 E15.69694
G1 X3 Y-14.832 E15.72883
G1 X3.577 Y-14.517 E15.76163
G1 X4.119 Y-14.151 E15.79426
G1 X4.626 Y-13.731 E15.8271
G1 X5.086 Y-13.269 E15.85963
G1 X5.502 Y-12.762 E15.89235
G1 X5.866 Y-12.22 E15.92492
G1 X6.179 Y-11.64 E15.9578
G1 X6.433 Y-11.036 E15.99049
G1 X6.625 Y-10.419 E16.02273
G1 X6.761 Y-9.774 E16.05562
G1 X6.834 Y-9.126 E16.08815
G1 X6.844 Y-8.469 E16.12093
G1 X6.792 Y-7.821 E16.15336
G1 X6.676 Y-7.168 E16.18645
G1 X6.499 Y-6.54 E16.219
G1 X6.267 Y-5.94 E16.2511
G1 X5.97 Y-5.344 E16.28432
G1 X5.625 Y-4.795 E16.31667
G1 X5.221 Y-4.27 E16.34972
G1 X4.779 Y-3.799 E16.38194
G1 X4.29 Y-3.367 E16.4145
G1 X3.754 Y-2.978 E16.44754
G1 X3.191 Y-2.648 E16.4801
G1 X2.535 Y-2.331 E16.51645
G1 X2.125 Y-2.022 E16.54206
G1 X1.813 Y-1.598 E16.56832
G1 X1.636 Y-1.103 E16.59455
G1 X1.6 Y-.708 E16.61434
G0 F3600 X1.2 Y-.708
G1 F1500 X1.199 Y11.323 E17.21457
G1 X1.159 Y11.7 E17.23348
G1 X1.041 Y12.06 E17.25238
G1 X0.85 Y12.388 E17.27132
G1 X0.595 Y12.668 E17.29021
G1 X0.287 Y12.889 E17.30912
G1 X-0.06 Y13.04 E17.328
G1 X-.6 Y13.123 E17.35526
G1 X-2.599 Y13.124 E17.45499
G1 X-2.976 Y13.084 E17.47391
G1 X-3.336 Y12.967 E17.49279
G1 X-3.593 Y12.818 E17.50761
G1 X-3.961 Y13.369 E17.54067
G1 X-4.35 Y13.841 E17.57118
G1 X-4.789 Y14.28 E17.60216
G1 X-5.265 Y14.672 E17.63292
G1 X-5.769 Y15.013 E17.66328
G1 X-6.318 Y15.311 E17.69445
G1 X-6.877 Y15.549 E17.72476
G1 X-7.472 Y15.737 E17.75589
G1 X-8.069 Y15.865 E17.78635
G1 X-8.684 Y15.936 E17.81724
G1 X-9.299 Y15.947 E17.84792
G1 X-9.911 Y15.9 E17.87855
G1 X-10.526 Y15.791 E17.90971
G1 X-11.112 Y15.629 E17.94004
G1 X-11.693 Y15.407 E17.97107
G1 X-12.243 Y15.132 E18.00175
G1 X-12.765 Y14.807 E18.03242
G1 X-13.255 Y14.432 E18.06321
G1 X-13.704 Y14.015 E18.09378
G1 X-14.116 Y13.549 E18.12481
G1 X-14.478 Y13.052 E18.15549
G1 X-14.79 Y12.524 E18.18609
G1 X-15.052 Y11.963 E18.21698
G1 X-15.258 Y11.383 E18.24768
G1 X-15.407 Y10.789 E18.27824
G1 X-15.499 Y10.176 E18.30916
G1 X-15.532 Y9.565 E18.33969
G1 X-15.506 Y8.952 E18.3703
G1 X-15.422 Y8.338 E18.40122
G1 X-15.277 Y7.736 E18.43211
G1 X-15.082 Y7.161 E18.4624
G1 X-14.822 Y6.591 E18.49366
G1 X-14.517 Y6.061 E18.52416
G1 X-14.164 Y5.562 E18.55466
G1 X-13.752 Y5.088 E18.58599
G1 X-13.533 Y4.875 E18.60123
G1 X-13.533 Y-10.491 E19.36785
G1 X-13.493 Y-10.868 E19.38676
G1 X-13.375 Y-11.228 E19.40566
G1 X-13.185 Y-11.555 E19.42453
G1 X-12.93 Y-11.836 E19.44346
G1 X-12.621 Y-12.056 E19.46238
G1 X-12.274 Y-12.208 E19.48128
G1 X-11.732 Y-12.291 E19.50864
G1 X-9.732 Y-12.29 E19.60842
G1 X-9.355 Y-12.25 E19.62733
G1 X-8.995 Y-12.132 E19.64623
G1 X-8.668 Y-11.941 E19.66513
G1 X-8.388 Y-11.686 E19.68402
G1 X-8.167 Y-11.378 E19.70293
G1 X-8.016 Y-11.03 E19.72186
G1 X-7.933 Y-10.49 E19.74912
G1 X-7.933 Y1.549 E20.34975
G1 X-7.889 Y2.019 E20.3733
G1 X-7.766 Y2.427 E20.39456
G1 X-7.567 Y2.802 E20.41574
G1 X-7.299 Y3.131 E20.43691
G1 X-6.967 Y3.409 E20.45851
G1 X-6.788 Y3.518 E20.46897
G1 X-6.116 Y3.842 E20.50619
G1 X-5.587 Y4.154 E20.53683
G1 X-5.085 Y4.519 E20.56779
G1 X-4.628 Y4.924 E20.59826
G1 X-4.4 Y5.162 E20.6147
G1 X-4.4 Y-4.041 E21.07384
G1 X-4.915 Y-4.584 E21.11118
G1 X-5.292 Y-5.087 E21.14254
G1 X-5.61 Y-5.608 E21.17299
G1 X-5.88 Y-6.162 E21.20374
G1 X-6.096 Y-6.742 E21.23461
G1 X-6.253 Y-7.33 E21.26498
G1 X-6.356 Y-7.945 E21.29609
G1 X-6.397 Y-8.558 E21.32674
G1 X-6.381 Y-9.172 E21.35738
G1 X-6.307 Y-9.779 E21.38789
G1 X-6.17 Y-10.39 E21.41913
G1 X-5.983 Y-10.968 E21.44944
G1 X-5.738 Y-11.533 E21.48016
G1 X-5.436 Y-12.076 E21.51116
G1 X-5.089 Y-12.581 E21.54173
G1 X-4.692 Y-13.054 E21.57254
G1 X-4.25 Y-13.487 E21.60341
G1 X-3.774 Y-13.872 E21.63395
G1 X-3.258 Y-14.213 E21.66481
G1 X-2.716 Y-14.501 E21.69543
G1 X-2.147 Y-14.738 E21.72618
G1 X-1.554 Y-14.918 E21.7571
G1 X-.955 Y-15.041 E21.7876
G1 X-.336 Y-15.106 E21.81866
G1 X-.166 Y-15.113 E21.82714
G1 X0.451 Y-15.102 E21.85793
G1 X1.06 Y-15.031 E21.88852
G1 X1.661 Y-14.904 E21.91917
G1 X2.26 Y-14.715 E21.9505
G1 X2.815 Y-14.477 E21.98063
G1 X3.358 Y-14.183 E22.01144
G1 X3.868 Y-13.839 E22.04213
G1 X4.346 Y-13.445 E22.07303
G1 X4.78 Y-13.01 E22.10369
G1 X5.174 Y-12.533 E22.13455
G1 X5.517 Y-12.024 E22.16518
G1 X5.813 Y-11.48 E22.19607
G1 X6.052 Y-10.912 E22.22682
G1 X6.235 Y-10.33 E22.25726
G1 X6.365 Y-9.724 E22.28818
G1 X6.434 Y-9.114 E22.3188
G1 X6.445 Y-8.495 E22.34969
G1 X6.397 Y-7.884 E22.38027
G1 X6.289 Y-7.271 E22.41132
G1 X6.124 Y-6.679 E22.44198
G1 X5.906 Y-6.112 E22.47229
G1 X5.628 Y-5.552 E22.50348
G1 X5.304 Y-5.034 E22.53396
G1 X4.925 Y-4.54 E22.56503
G1 X4.51 Y-4.095 E22.59538
G1 X4.05 Y-3.686 E22.62609
G1 X3.546 Y-3.32 E22.65717
G1 X3.017 Y-3.008 E22.68781
G1 X2.348 Y-2.685 E22.72487
G1 X2 Y-2.449 E22.74585
G1 X1.692 Y-2.14 E22.76762
G1 X1.461 Y-1.79 E22.78854
G1 X1.295 Y-1.388 E22.81024
G1 X1.213 Y-.976 E22.83119
G1 X1.2 Y-.708 E22.84458
G0 F3600 X0.8 Y-.728
G1 F1500 X0.799 Y11.323 E23.44581
G1 X0.759 Y11.655 E23.46249
G1 X0.642 Y11.968 E23.47916
G1 X0.454 Y12.244 E23.49582
G1 X0.206 Y12.467 E23.51246
G1 X-0.089 Y12.626 E23.52918
G1 X-.6 Y12.723 E23.55513
G1 X-2.599 Y12.724 E23.65486
G1 X-2.931 Y12.684 E23.67154
G1 X-3.244 Y12.567 E23.68821
G1 X-3.52 Y12.379 E23.70487
G1 X-3.7 Y12.18 E23.71826
G1 X-3.963 Y12.66 E23.74557
G1 X-4.289 Y13.141 E23.77456
