;FLAVOR:Marlin
;TIME:2397
;Filament used: 1.82404m
;Layer height: 0.12
;MINX:-12.61
;MINY:-13.724
;MINZ:0.3
;MAXX:23.502
;MAXY:18.833
;MAXZ:20.98
;Generated with Cura_SteamEngine 4.12.1
M140 S50
M105
M190 S50
M104 S210
M105
M109 S210
M82 ;absolute extrusion mode
;FLAVOR:Marlin
M82 ;absolute extrusion mode
G21
G90
M82
M107 T0
G28
G92 E0
G0 E3 F200
G92 E0 ; reset extrusion distance
M106 S255 ; Enable cooling fan full speed
G1 X-98 Y0 Z0.4 F3000 ; move to arc start
G3 X0 Y-98 I98 Z0.4 E40 F400 ; lay arc stripe 90deg
G92 E0 ; reset extrusion distance
G4 P500 ; wait for 0.5 sec
G0 Z10 E-1 ; Lift 15mm and retract 1mm filament
G4 P2000 ; wait for 5 sec
G0 Z15
M107 ; Disable cooling fan
G1 X0 Y-85 Z4 E0 F3000 ; get off the bed
G92 E0
G92 E0
G1 F1500 E-7
;LAYER_COUNT:166
;LAYER:0
M107
G1 F600 Z1.3
G0 F3600 X0.002 Y0.614 Z1.3
;TYPE:SKIRT
G1 F600 Z0.3
G1 F1500 E0.41575
G1 F2400 X-.515 Y0.63 E0.44156
G1 X-.73 Y0.685 E0.45263
G1 X-.388 Y0.785 E0.47041
G1 X-0.016 Y0.978 E0.49131
G1 X0.669 Y1.575 E0.53665
G1 X1.108 Y1.615 E0.55864
G1 X1.51 Y1.733 E0.57954
G1 X1.983 Y1.994 E0.60649
G1 X3.078 Y2.787 E0.67394
G1 X3.495 Y2.827 E0.69484
G1 X3.897 Y2.945 E0.71575
G1 X4.269 Y3.138 E0.73665
G1 X4.5 Y3.308 E0.75096
G1 X5.525 Y4.177 E0.81801
G1 X5.8 Y4.203 E0.83179
G1 X6.202 Y4.321 E0.85269
G1 X6.676 Y4.583 E0.87971
G1 X7.551 Y5.219 E0.93368
G1 X7.865 Y5.497 E0.9546
G1 X8.121 Y5.829 E0.97552
G1 X8.349 Y6.316 E1.00234
G1 X8.685 Y7.344 E1.0563
G1 X8.778 Y7.665 E1.07297
G1 X9.04 Y7.226 E1.09848
G1 X9.168 Y6.742 E1.12346
G1 X9.147 Y6.056 E1.1577
G1 X9.112 Y5.392 E1.19087
G1 X9.114 Y4.73 E1.2239
G1 X9.183 Y3.995 E1.26073
G1 X9.323 Y3.281 E1.29703
G1 X9.538 Y2.579 E1.33366
G1 X9.819 Y1.91 E1.36986
G1 X10.168 Y1.267 E1.40636
G1 X10.58 Y0.668 E1.44263
G1 X11.054 Y0.107 E1.47927
G1 X11.575 Y-.396 E1.5154
G1 X12.153 Y-.85 E1.55207
G1 X12.766 Y-1.24 E1.58832
G1 X13.418 Y-1.565 E1.62466
G1 X14.1 Y-1.824 E1.66106
G1 X14.804 Y-2.012 E1.69741
G1 X15.527 Y-2.129 E1.73395
G1 X16.256 Y-2.17 E1.77038
G1 X16.978 Y-2.14 E1.80643
G1 X17.704 Y-2.034 E1.84303
G1 X18.414 Y-1.856 E1.87955
G1 X19.093 Y-1.61 E1.91558
G1 X19.753 Y-1.293 E1.95211
G1 X20.376 Y-.911 E1.98857
G1 X20.952 Y-.473 E2.02467
G1 X21.483 Y0.023 E2.06092
G1 X21.958 Y0.566 E2.09692
G1 X22.388 Y1.173 E2.13403
G1 X22.743 Y1.801 E2.17002
G1 X23.037 Y2.471 E2.20652
G1 X23.263 Y3.169 E2.24312
G1 X23.414 Y3.875 E2.27914
G1 X23.495 Y4.61 E2.31603
G1 X23.502 Y5.426 E2.35675
G1 X23.447 Y6.3 E2.40044
G1 X23.389 Y6.807 E2.4259
G1 X23.259 Y7.59 E2.46549
G1 X23.151 Y8.079 E2.49048
G1 X22.994 Y8.673 E2.52113
G1 X22.732 Y9.46 E2.56251
G1 X22.525 Y9.974 E2.59016
G1 X22.307 Y10.447 E2.61614
G1 X22.01 Y11.008 E2.64781
G1 X21.691 Y11.526 E2.67816
G1 X21.386 Y11.957 E2.7045
G1 X21.041 Y12.388 E2.73205
G1 X20.7 Y12.762 E2.7573
G1 X20.304 Y13.138 E2.78454
G1 X19.769 Y13.566 E2.81872
G1 X19.33 Y13.857 E2.845
G1 X18.728 Y14.181 E2.87911
G1 X18.235 Y14.385 E2.90572
G1 X17.746 Y14.539 E2.9313
G1 X17.242 Y14.649 E2.95704
G1 X16.596 Y14.72 E2.98946
G1 X16.308 Y14.729 E3.00384
G1 X10.051 Y14.729 E3.316
G1 X10.065 Y15.12 E3.33552
G1 X9.961 Y15.67 E3.36345
G1 X9.63 Y16.686 E3.41676
G1 X9.463 Y17.071 E3.43769
G1 X9.226 Y17.416 E3.45858
G1 X8.831 Y17.785 E3.48554
G1 X7.966 Y18.413 E3.53887
G1 X7.605 Y18.626 E3.55978
G1 X7.21 Y18.767 E3.58071
G1 X6.673 Y18.833 E3.6077
G1 X5.605 Y18.833 E3.66098
G1 X5.188 Y18.793 E3.68188
G1 X4.786 Y18.675 E3.70279
G1 X4.312 Y18.413 E3.72981
G1 X3.447 Y17.785 E3.78313
G1 X3.133 Y17.508 E3.80402
G1 X2.878 Y17.176 E3.82491
G1 X2.648 Y16.686 E3.85192
G1 X2.317 Y15.67 E3.90523
G1 X2.226 Y15.261 E3.92613
G1 X2.236 Y14.73 E3.95263
G1 X0.287 Y14.73 E4.04986
G1 X-.13 Y14.69 E4.07076
G1 X-.532 Y14.572 E4.09166
G1 X-.904 Y14.38 E4.11255
G1 X-1.233 Y14.12 E4.13347
G1 X-1.507 Y13.803 E4.15437
G1 X-1.716 Y13.44 E4.17527
G1 X-1.852 Y13.043 E4.19621
G1 X-1.913 Y12.529 E4.22203
G1 X-1.912 Y10.528 E4.32186
G1 X-1.872 Y10.111 E4.34276
G1 X-1.796 Y9.856 E4.35604
G1 X-2.023 Y9.692 E4.37001
G1 X-2.044 Y9.913 E4.38108
G1 X-2.162 Y10.315 E4.40199
G1 X-2.355 Y10.687 E4.42289
G1 X-2.614 Y11.016 E4.44378
G1 X-2.931 Y11.29 E4.46469
G1 X-3.294 Y11.499 E4.48559
G1 X-3.691 Y11.635 E4.50652
G1 X-4.203 Y11.696 E4.53225
G1 X-6.203 Y11.697 E4.63203
G1 X-6.62 Y11.657 E4.65293
G1 X-7.022 Y11.539 E4.67383
G1 X-7.395 Y11.347 E4.69476
G1 X-7.724 Y11.088 E4.71565
G1 X-7.998 Y10.771 E4.73655
G1 X-8.207 Y10.408 E4.75745
G1 X-8.343 Y10.011 E4.77839
G1 X-8.404 Y9.497 E4.80421
G1 X-8.404 Y8.259 E4.86597
G1 X-8.604 Y8.283 E4.87602
G1 X-9.204 Y8.283 E4.90596
G1 X-9.621 Y8.243 E4.92686
G1 X-10.023 Y8.125 E4.94776
G1 X-10.497 Y7.863 E4.97478
G1 X-11.372 Y7.227 E5.02875
G1 X-11.686 Y6.949 E5.04967
G1 X-11.942 Y6.617 E5.07059
G1 X-12.17 Y6.13 E5.09741
G1 X-12.506 Y5.102 E5.15137
G1 X-12.598 Y4.694 E5.17224
G1 X-12.61 Y4.275 E5.19315
G1 X-12.506 Y3.736 E5.22054
G1 X-12.17 Y2.708 E5.27449
G1 X-12.003 Y2.323 E5.29543
G1 X-11.765 Y1.978 E5.31634
G1 X-11.372 Y1.611 E5.34317
G1 X-10.497 Y0.975 E5.39713
G1 X-10.137 Y0.762 E5.418
G1 X-9.742 Y0.622 E5.43891
G1 X-9.204 Y0.555 E5.46596
G1 X-8.603 Y0.555 E5.49594
G1 X-8.403 Y0.574 E5.50597
G1 X-8.403 Y-6.648 E5.86627
G1 X-8.358 Y-7.228 E5.8953
G1 X-8.24 Y-7.858 E5.92727
G1 X-8.094 Y-8.359 E5.95331
G1 X-7.854 Y-8.948 E5.98504
G1 X-7.532 Y-9.546 E6.01892
G1 X-7.251 Y-9.973 E6.04443
G1 X-6.94 Y-10.371 E6.06963
G1 X-6.592 Y-10.759 E6.09563
G1 X-6.09 Y-11.234 E6.13011
G1 X-5.681 Y-11.567 E6.15642
G1 X-5.09 Y-11.979 E6.19236
G1 X-4.558 Y-12.297 E6.22328
G1 X-4.097 Y-12.536 E6.24919
G1 X-3.475 Y-12.813 E6.28316
G1 X-2.778 Y-13.074 E6.32029
G1 X-2.044 Y-13.293 E6.35851
G1 X-1.355 Y-13.456 E6.39383
G1 X-.836 Y-13.551 E6.42015
G1 X-0.05 Y-13.656 E6.45972
G1 X0.464 Y-13.697 E6.48544
G1 X1.272 Y-13.724 E6.52577
G1 X1.966 Y-13.692 E6.56044
G1 X2.691 Y-13.586 E6.59699
G1 X3.402 Y-13.408 E6.63356
G1 X4.082 Y-13.162 E6.66963
G1 X4.741 Y-12.845 E6.70612
G1 X5.359 Y-12.468 E6.74223
G1 X5.95 Y-12.016 E6.77935
G1 X6.476 Y-11.525 E6.81525
G1 X6.954 Y-10.976 E6.85157
G1 X7.374 Y-10.384 E6.88778
G1 X7.733 Y-9.749 E6.92417
G1 X8.026 Y-9.081 E6.96057
G1 X8.254 Y-8.373 E6.99767
G1 X8.405 Y-7.662 E7.03394
G1 X8.483 Y-6.951 E7.06962
G1 X8.489 Y-6.219 E7.10614
G1 X8.42 Y-5.489 E7.14273
G1 X8.275 Y-4.757 E7.17996
G1 X8.067 Y-4.076 E7.21548
G1 X7.783 Y-3.403 E7.25192
G1 X7.431 Y-2.756 E7.28867
G1 X7.023 Y-2.161 E7.32466
G1 X6.55 Y-1.602 E7.3612
G1 X6.029 Y-1.099 E7.39733
G1 X5.451 Y-.645 E7.43399
G1 X4.838 Y-.255 E7.47024
G1 X4.186 Y0.07 E7.50659
G1 X3.504 Y0.329 E7.54298
G1 X2.803 Y0.517 E7.57919
G1 X2.077 Y0.634 E7.61588
G1 X1.334 Y0.675 E7.653
G1 X0.658 Y0.662 E7.68674
G1 X0.533 Y0.652 E7.69299
G0 F2160 X0.002 Y0.614
G0 F3600 X0.045 Y0.216
G1 F2400 X-.477 Y0.22 E7.71904
G1 X-1.062 Y0.378 E7.74927
G1 X-1.485 Y0.614 E7.77343
G1 X-1.857 Y0.953 E7.79854
G1 X-1.935 Y1.047 E7.80464
G1 X-1.804 Y1.027 E7.81125
G1 X-1.207 Y1.027 E7.84103
G1 X-.83 Y1.067 E7.85995
G1 X-.47 Y1.185 E7.87885
G1 X0.033 Y1.523 E7.90908
G1 X0.508 Y1.975 E7.94179
G1 X1.068 Y2.015 E7.9698
G1 X1.428 Y2.133 E7.9887
G1 X1.748 Y2.318 E8.00715
G1 X2.946 Y3.187 E8.08098
G1 X3.455 Y3.227 E8.10646
G1 X3.815 Y3.345 E8.12536
G1 X4.242 Y3.614 E8.15053
G1 X5.362 Y4.563 E8.22377
G1 X5.76 Y4.603 E8.24373
G1 X6.12 Y4.721 E8.26263
G1 X6.441 Y4.907 E8.28114
G1 X7.316 Y5.543 E8.33511
G1 X7.598 Y5.797 E8.35404
G1 X7.82 Y6.104 E8.37294
G1 X7.969 Y6.44 E8.39128
G1 X8.305 Y7.468 E8.44524
G1 X8.384 Y7.838 E8.46411
G1 X8.384 Y8.217 E8.48302
G1 X8.328 Y8.514 E8.4981
G1 X8.75 Y8.249 E8.52296
G1 X9.093 Y7.911 E8.54698
G1 X9.354 Y7.501 E8.57123
G1 X9.527 Y7.022 E8.59664
G1 X9.581 Y6.554 E8.62014
G1 X9.545 Y6.021 E8.6468
G1 X9.512 Y5.377 E8.67897
G1 X9.514 Y4.738 E8.71085
G1 X9.579 Y4.045 E8.74557
G1 X9.713 Y3.371 E8.77986
G1 X9.916 Y2.709 E8.8144
G1 X10.183 Y2.077 E8.84863
G1 X10.513 Y1.47 E8.8831
G1 X10.902 Y0.904 E8.91736
G1 X11.35 Y0.375 E8.95195
G1 X11.843 Y-.1 E8.9861
G1 X12.389 Y-.528 E9.02072
G1 X12.969 Y-.895 E9.05496
G1 X13.585 Y-1.201 E9.08927
G1 X14.229 Y-1.445 E9.12363
G1 X14.895 Y-1.623 E9.15802
G1 X15.577 Y-1.732 E9.19248
G1 X16.265 Y-1.77 E9.22686
G1 X16.948 Y-1.741 E9.26096
G1 X17.633 Y-1.641 E9.2955
G1 X18.303 Y-1.472 E9.32997
G1 X18.945 Y-1.238 E9.36406
G1 X19.567 Y-.938 E9.39852
G1 X20.156 Y-.577 E9.43298
G1 X20.7 Y-.162 E9.46712
G1 X21.201 Y0.307 E9.50136
G1 X21.65 Y0.821 E9.53541
G1 X22.054 Y1.393 E9.57034
G1 X22.39 Y1.987 E9.60439
G1 X22.666 Y2.62 E9.63884
G1 X22.878 Y3.28 E9.67343
G1 X23.021 Y3.946 E9.70741
G1 X23.096 Y4.64 E9.74224
G1 X23.102 Y5.42 E9.78115
G1 X23.048 Y6.269 E9.8236
G1 X22.94 Y7.1 E9.8654
G1 X22.775 Y7.929 E9.90757
G1 X22.609 Y8.563 E9.94027
G1 X22.355 Y9.326 E9.98039
G1 X22.16 Y9.811 E10.00647
G1 X21.947 Y10.273 E10.03185
G1 X21.662 Y10.811 E10.06222
G1 X21.356 Y11.308 E10.09134
G1 X21.06 Y11.725 E10.11686
G1 X20.741 Y12.124 E10.14234
G1 X20.332 Y12.565 E10.17235
G1 X19.833 Y13.013 E10.20581
G1 X19.222 Y13.454 E10.2434
G1 X18.788 Y13.705 E10.26841
G1 X18.216 Y13.965 E10.29976
G1 X17.64 Y14.154 E10.33
G1 X16.946 Y14.288 E10.36527
G1 X16.352 Y14.328 E10.39497
G1 X9.543 Y14.329 E10.73467
G1 X9.658 Y14.79 E10.75837
G1 X9.66 Y15.169 E10.77728
G1 X9.58 Y15.547 E10.79656
G1 X9.249 Y16.563 E10.84987
G1 X9.095 Y16.909 E10.86876
G1 X8.871 Y17.214 E10.88764
G1 X8.596 Y17.462 E10.90612
G1 X7.731 Y18.09 E10.95945
G1 X7.402 Y18.279 E10.97838
G1 X7.041 Y18.395 E10.99729
G1 X6.673 Y18.433 E11.01575
G1 X5.605 Y18.433 E11.06903
G1 X5.228 Y18.393 E11.08795
G1 X4.868 Y18.275 E11.10685
G1 X4.547 Y18.09 E11.12533
G1 X3.682 Y17.462 E11.17866
G1 X3.401 Y17.208 E11.19756
G1 X3.179 Y16.901 E11.21646
G1 X3.029 Y16.563 E11.23491
G1 X2.698 Y15.547 E11.28822
G1 X2.619 Y15.176 E11.30715
G1 X2.619 Y14.797 E11.32605
G1 X2.735 Y14.33 E11.35006
G1 X0.287 Y14.33 E11.47219
G1 X-0.09 Y14.29 E11.49111
G1 X-.45 Y14.172 E11.51001
G1 X-.777 Y13.982 E11.52887
G1 X-1.058 Y13.727 E11.54781
G1 X-1.278 Y13.419 E11.56669
G1 X-1.43 Y13.071 E11.58563
G1 X-1.513 Y12.529 E11.61299
G1 X-1.512 Y10.528 E11.71282
G1 X-1.472 Y10.151 E11.73173
G1 X-1.306 Y9.708 E11.75534
G1 X-1.372 Y9.669 E11.75916
G1 X-2.404 Y8.921 E11.82275
G1 X-2.404 Y9.496 E11.85144
G1 X-2.444 Y9.873 E11.87035
G1 X-2.562 Y10.233 E11.88925
G1 X-2.752 Y10.56 E11.90812
G1 X-3.007 Y10.841 E11.92705
G1 X-3.316 Y11.061 E11.94598
G1 X-3.663 Y11.213 E11.96488
G1 X-4.203 Y11.296 E11.99213
G1 X-6.203 Y11.297 E12.09191
G1 X-6.58 Y11.257 E12.11083
G1 X-6.94 Y11.14 E12.12971
G1 X-7.268 Y10.949 E12.14865
G1 X-7.548 Y10.694 E12.16754
G1 X-7.769 Y10.386 E12.18646
G1 X-7.92 Y10.039 E12.20534
G1 X-8.004 Y9.497 E12.2327
G1 X-8.004 Y7.774 E12.31866
G1 X-8.063 Y7.8 E12.32188
G1 X-8.604 Y7.883 E12.34918
G1 X-9.204 Y7.883 E12.37912
G1 X-9.581 Y7.843 E12.39803
G1 X-9.941 Y7.725 E12.41693
G1 X-10.262 Y7.539 E12.43544
G1 X-11.137 Y6.903 E12.48941
G1 X-11.419 Y6.649 E12.50834
G1 X-11.641 Y6.342 E12.52724
G1 X-11.79 Y6.006 E12.54558
G1 X-12.126 Y4.978 E12.59954
G1 X-12.205 Y4.608 E12.61841
G1 X-12.205 Y4.229 E12.63732
G1 X-12.126 Y3.86 E12.65615
G1 X-11.79 Y2.832 E12.71011
G1 X-11.635 Y2.486 E12.72902
G1 X-11.411 Y2.18 E12.74794
G1 X-11.137 Y1.935 E12.76628
G1 X-10.262 Y1.299 E12.82025
G1 X-9.934 Y1.11 E12.83913
G1 X-9.573 Y0.993 E12.85806
G1 X-9.204 Y0.955 E12.87657
G1 X-8.603 Y0.955 E12.90655
G1 X-8.226 Y0.995 E12.92547
G1 X-8.003 Y1.068 E12.93718
G1 X-8.003 Y-6.648 E13.32213
G1 X-7.963 Y-7.168 E13.34815
G1 X-7.85 Y-7.771 E13.37876
G1 X-7.673 Y-8.349 E13.40891
G1 X-7.379 Y-9.007 E13.44487
G1 X-6.986 Y-9.654 E13.48264
G1 X-6.629 Y-10.119 E13.51188
G1 X-6.108 Y-10.677 E13.54997
G1 X-5.52 Y-11.186 E13.58877
G1 X-4.869 Y-11.645 E13.62851
G1 X-4.358 Y-11.95 E13.6582
G1 X-3.628 Y-12.313 E13.69887
G1 X-3.073 Y-12.544 E13.72887
G1 X-2.586 Y-12.716 E13.75463
G1 X-1.938 Y-12.908 E13.78835
G1 X-1.268 Y-13.066 E13.82269
G1 X-.776 Y-13.156 E13.84765
G1 X-0.004 Y-13.258 E13.8865
G1 X0.845 Y-13.316 E13.92895
G1 X1.278 Y-13.324 E13.95056
G1 X1.936 Y-13.293 E13.98342
G1 X2.621 Y-13.193 E14.01796
G1 X3.291 Y-13.024 E14.05243
G1 X3.934 Y-12.79 E14.08657
G1 X4.556 Y-12.491 E14.121
G1 X5.14 Y-12.133 E14.15518
G1 X5.696 Y-11.707 E14.19012
G1 X6.193 Y-11.242 E14.22408
G1 X6.644 Y-10.723 E14.25838
G1 X7.04 Y-10.164 E14.29256
G1 X7.379 Y-9.563 E14.32698
G1 X7.655 Y-8.932 E14.36134
G1 X7.869 Y-8.265 E14.39629
G1 X8.011 Y-7.593 E14.43056
G1 X8.084 Y-6.92 E14.46433
G1 X8.089 Y-6.228 E14.49886
G1 X8.024 Y-5.539 E14.53338
G1 X7.886 Y-4.85 E14.56844
G1 X7.688 Y-4.205 E14.6021
G1 X7.42 Y-3.57 E14.63649
G1 X7.087 Y-2.96 E14.67116
G1 X6.701 Y-2.398 E14.70518
G1 X6.254 Y-1.87 E14.73969
G1 X5.761 Y-1.395 E14.77384
G1 X5.215 Y-.967 E14.80846
G1 X4.635 Y-.6 E14.8427
G1 X4.019 Y-.294 E14.87701
G1 X3.375 Y-0.05 E14.91137
G1 X2.712 Y0.127 E14.94561
G1 X2.027 Y0.237 E14.98022
G1 X1.325 Y0.276 E15.0153
G1 X0.673 Y0.262 E15.04783
G1 X0.576 Y0.254 E15.05269
G0 F2160 X0.045 Y0.216
G0 F3600 X0.071 Y-.183
G1 F2400 X-.514 Y-.179 E15.08188
G1 X-1.01 Y-0.067 E15.10724
G1 X-1.484 Y0.139 E15.13303
G1 X-1.958 Y0.484 E15.16228
G1 X-2.336 Y0.917 E15.19095
G1 X-2.616 Y1.432 E15.2202
G1 X-2.728 Y1.789 E15.23887
G1 X-2.611 Y1.683 E15.24674
G1 X-2.317 Y1.524 E15.26342
G1 X-1.804 Y1.427 E15.28946
G1 X-1.207 Y1.427 E15.31925
G1 X-.875 Y1.467 E15.33593
G1 X-.563 Y1.584 E15.35256
G1 X-.242 Y1.812 E15.3722
G1 X0.35 Y2.375 E15.41296
G1 X1.023 Y2.415 E15.44659
G1 X1.513 Y2.642 E15.47354
G1 X2.816 Y3.587 E15.55384
G1 X3.41 Y3.627 E15.58354
G1 X3.722 Y3.744 E15.60017
G1 X3.983 Y3.919 E15.61584
G1 X5.215 Y4.963 E15.69641
G1 X5.715 Y5.003 E15.72143
G1 X6.027 Y5.12 E15.73806
G1 X6.206 Y5.231 E15.74857
G1 X7.081 Y5.867 E15.80253
G1 X7.326 Y6.094 E15.8192
G1 X7.589 Y6.564 E15.84607
G1 X7.925 Y7.592 E15.90002
G1 X7.99 Y7.92 E15.91671
G1 X7.976 Y8.253 E15.93333
G1 X7.893 Y8.56 E15.9492
G1 X7.753 Y8.863 E15.96585
G1 X7.548 Y9.121 E15.98229
G1 X8.078 Y9.032 E16.0091
G1 X8.614 Y8.818 E16.0379
G1 X9.098 Y8.479 E16.06738
G1 X9.486 Y8.057 E16.09598
G1 X9.77 Y7.554 E16.1248
G1 X9.938 Y7.004 E16.15349
G1 X9.978 Y6.407 E16.18334
G1 X9.924 Y5.673 E16.22006
G1 X9.909 Y5.03 E16.25215
G1 X9.937 Y4.418 E16.28271
G1 X10.032 Y3.774 E16.31519
G1 X10.192 Y3.143 E16.34766
G1 X10.415 Y2.535 E16.37997
G1 X10.692 Y1.959 E16.41186
G1 X11.039 Y1.397 E16.44481
G1 X11.429 Y0.887 E16.47684
G1 X11.872 Y0.416 E16.5091
G1 X12.362 Y-0.01 E16.5415
G1 X12.885 Y-.38 E16.57346
G1 X13.462 Y-.703 E16.60645
G1 X14.048 Y-.959 E16.63835
G1 X14.669 Y-1.158 E16.67089
G1 X15.301 Y-1.292 E16.70312
G1 X15.948 Y-1.361 E16.73558
G1 X16.594 Y-1.365 E16.76781
G1 X17.241 Y-1.303 E16.80024
G1 X17.876 Y-1.176 E16.83254
G1 X18.499 Y-.984 E16.86507
G1 X19.094 Y-.732 E16.8973
G1 X19.661 Y-.422 E16.92954
G1 X20.197 Y-0.053 E16.96201
G1 X20.693 Y0.368 E16.99447
G1 X21.145 Y0.839 E17.02704
G1 X21.544 Y1.349 E17.05934
G1 X21.887 Y1.895 E17.09151
G1 X22.177 Y2.478 E17.124
G1 X22.403 Y3.081 E17.15612
G1 X22.569 Y3.706 E17.18839
G1 X22.671 Y4.348 E17.22082
G1 X22.707 Y4.972 E17.252
G1 X22.682 Y5.82 E17.29433
G1 X22.604 Y6.641 E17.33547
G1 X22.472 Y7.447 E17.37622
G1 X22.285 Y8.239 E17.41682
G1 X22.112 Y8.811 E17.44663
G1 X21.814 Y9.601 E17.48875
G1 X21.587 Y10.099 E17.51606
G1 X21.313 Y10.615 E17.54521
G1 X21.02 Y11.091 E17.57309
G1 X20.686 Y11.557 E17.6017
G1 X20.332 Y11.983 E17.62933
G1 X19.843 Y12.477 E17.66401
G1 X19.288 Y12.927 E17.69966
G1 X18.694 Y13.301 E17.73468
G1 X18.063 Y13.595 E17.76941
G1 X17.534 Y13.768 E17.79717
G1 X16.888 Y13.892 E17.82999
G1 X16.342 Y13.929 E17.85729
G1 X8.82 Y13.929 E18.23257
G1 X8.993 Y14.122 E18.2455
G1 X9.197 Y14.546 E18.26897
G1 X9.264 Y14.874 E18.28567
