;FLAVOR:Marlin
;TIME:7958
;Filament used: 9.90735m
;Layer height: 0.24
;MINX:-75.473
;MINY:-50.5
;MINZ:0.24
;MAXX:85.473
;MAXY:50.5
;MAXZ:15.4
;TARGET_MACHINE.NAME:Unknown
;Generated with Cura_SteamEngine 5.7.1
M140 S50
M105
M190 S50
M104 S230
M105
M109 S230
M82 ;absolute extrusion mode
;FLAVOR:Marlin
M82 ;absolute extrusion mode
G21
G90
M82
M107 T0
G28
G92 E0
G0 E3 F200
G92 E0 ; reset extrusion distance
M106 S255 ; Enable cooling fan full speed
G1 X-98 Y0 Z0.4 F3000 ; move to arc start
G3 X0 Y-98 I98 Z0.4 E40 F400 ; lay arc stripe 90deg
G92 E0 ; reset extrusion distance
G4 P500 ; wait for 0.5 sec
G0 Z10 E-1 ; Lift 15mm and retract 1mm filament
G4 P2000 ; wait for 5 sec
G0 Z15
M107 ; Disable cooling fan
G1 X0 Y-85 Z4 E0 F3000 ; get off the bed
G92 E0
G92 E0
G1 F1500 E-1
;LAYER_COUNT:60
;LAYER:0
M106 S102
G1 F600 Z1.24
G0 F1500 X-75.466 Y-2.205 Z1.24
;TYPE:SKIRT
G1 F600 Z0.24
G1 F3600 E0.75698
G1 F1200 X-75.242 Y-6.448 E0.96283
G1 X-74.789 Y-10.671 E1.16859
G1 X-74.115 Y-14.865 E1.37438
G1 X-73.22 Y-19.02 E1.58029
G1 X-72.107 Y-23.121 E1.78616
G1 X-70.78 Y-27.158 E1.99204
G1 X-69.242 Y-31.116 E2.19776
G1 X-67.5 Y-34.987 E2.40341
G1 X-65.556 Y-38.767 E2.60933
G1 X-63.489 Y-42.31 E2.80806
G1 X-61.073 Y-45.979 E3.02088
G1 X-58.519 Y-49.458 E3.22997
G1 X-57.71 Y-50.084 E3.27953
G1 X-57.294 Y-50.286 E3.30193
G1 X-56.421 Y-50.5 E3.34548
G1 X66.552 Y-50.5 E9.30311
G1 X67.545 Y-50.188 E9.35354
G1 X67.819 Y-50.038 E9.36867
G1 X68.546 Y-49.429 E9.41462
G1 X71.121 Y-45.916 E9.62564
G1 X73.497 Y-42.29 E9.83566
G1 X75.632 Y-38.62 E10.04135
G1 X77.569 Y-34.841 E10.24708
G1 X79.304 Y-30.969 E10.45264
G1 X80.786 Y-27.145 E10.65133
G1 X82.153 Y-22.961 E10.86457
G1 X83.256 Y-18.863 E11.07017
G1 X84.142 Y-14.717 E11.27557
G1 X84.811 Y-10.512 E11.48185
G1 X85.243 Y-6.435 E11.68047
G1 X85.473 Y-2.056 E11.89291
G1 X85.466 Y2.203 E12.09925
G1 X85.242 Y6.447 E12.30514
G1 X84.788 Y10.669 E12.51086
G1 X84.114 Y14.865 E12.71675
G1 X83.219 Y19.017 E12.92252
G1 X82.107 Y23.121 E13.12851
G1 X80.781 Y27.156 E13.33428
G1 X79.243 Y31.113 E13.53996
G1 X77.501 Y34.985 E13.74565
G1 X75.557 Y38.765 E13.95158
G1 X73.49 Y42.308 E14.1503
G1 X71.073 Y45.979 E14.36324
G1 X68.519 Y49.458 E14.57232
G1 X67.71 Y50.084 E14.62188
G1 X67.294 Y50.286 E14.64429
G1 X66.421 Y50.5 E14.68783
G1 X-56.552 Y50.5 E20.64547
G1 X-57.545 Y50.188 E20.69589
G1 X-57.819 Y50.038 E20.71103
G1 X-58.546 Y49.429 E20.75697
G1 X-61.122 Y45.915 E20.96806
G1 X-63.497 Y42.29 E21.17801
G1 X-65.633 Y38.618 E21.38382
G1 X-67.569 Y34.841 E21.58944
G1 X-69.304 Y30.968 E21.79504
G1 X-70.786 Y27.144 E21.99372
G1 X-72.153 Y22.96 E22.20697
G1 X-73.257 Y18.863 E22.41254
G1 X-74.145 Y14.705 E22.61852
G1 X-74.811 Y10.509 E22.82435
G1 X-75.243 Y6.432 E23.02297
G1 X-75.473 Y2.054 E23.23536
G1 X-75.467 Y-1.54 E23.40948
G0 F1080 X-75.466 Y-2.205
G0 F1500 X-75.067 Y-2.184
G1 F1200 X-74.844 Y-6.405 E23.61426
G1 X-74.394 Y-10.608 E23.81904
G1 X-73.724 Y-14.781 E24.0238
G1 X-72.834 Y-18.915 E24.22867
G1 X-71.727 Y-22.996 E24.43352
G1 X-70.407 Y-27.013 E24.63837
G1 X-68.877 Y-30.952 E24.84309
G1 X-67.144 Y-34.804 E25.04773
G1 X-65.21 Y-38.565 E25.25261
G1 X-63.143 Y-42.108 E25.45134
G1 X-60.751 Y-45.742 E25.66211
G1 X-58.23 Y-49.176 E25.86849
G1 X-57.5 Y-49.741 E25.91321
G1 X-57.154 Y-49.909 E25.93185
G1 X-56.375 Y-50.1 E25.9707
G1 X66.489 Y-50.1 E31.92306
G1 X67.425 Y-49.806 E31.97059
G1 X67.562 Y-49.731 E31.97816
G1 X68.251 Y-49.154 E32.02169
G1 X70.786 Y-45.697 E32.22938
G1 X73.151 Y-42.089 E32.43838
G1 X75.276 Y-38.438 E32.64304
G1 X77.204 Y-34.677 E32.84779
G1 X78.931 Y-30.824 E33.05235
G1 X80.413 Y-27 E33.25103
G1 X81.767 Y-22.857 E33.4622
G1 X82.865 Y-18.779 E33.6668
G1 X83.747 Y-14.654 E33.87116
G1 X84.413 Y-10.47 E34.07641
G1 X84.845 Y-6.393 E34.27503
G1 X85.073 Y-2.057 E34.48539
G1 X85.067 Y2.182 E34.69075
G1 X84.844 Y6.404 E34.89558
G1 X84.393 Y10.606 E35.10032
G1 X83.723 Y14.781 E35.30518
G1 X82.833 Y18.912 E35.5099
G1 X81.727 Y22.996 E35.71489
G1 X80.408 Y27.011 E35.91963
G1 X78.878 Y30.949 E36.1243
G1 X77.145 Y34.802 E36.32898
G1 X75.211 Y38.563 E36.53387
G1 X73.144 Y42.106 E36.73259
G1 X70.751 Y45.742 E36.94347
G1 X68.23 Y49.176 E37.14985
G1 X67.5 Y49.741 E37.19457
G1 X67.154 Y49.909 E37.21321
G1 X66.375 Y50.1 E37.25207
G1 X-56.489 Y50.1 E43.20442
G1 X-57.425 Y49.806 E43.25195
G1 X-57.562 Y49.731 E43.25952
G1 X-58.251 Y49.154 E43.30306
G1 X-60.787 Y45.696 E43.51081
G1 X-63.151 Y42.089 E43.71974
G1 X-65.277 Y38.436 E43.92451
G1 X-67.204 Y34.677 E44.12915
G1 X-68.931 Y30.823 E44.33375
G1 X-70.413 Y26.999 E44.53244
G1 X-71.767 Y22.856 E44.7436
G1 X-72.866 Y18.779 E44.94817
G1 X-73.75 Y14.642 E45.15312
G1 X-74.413 Y10.467 E45.35792
G1 X-74.845 Y6.39 E45.55654
G1 X-75.073 Y2.055 E45.76685
G1 X-75.067 Y-1.519 E45.94
G0 F1080 X-75.067 Y-2.184
G0 F1500 X-74.668 Y-2.163
G1 F1200 X-74.446 Y-6.362 E46.14371
G1 X-73.999 Y-10.545 E46.34751
G1 X-73.333 Y-14.697 E46.55124
G1 X-72.448 Y-18.81 E46.75506
G1 X-71.347 Y-22.871 E46.9589
G1 X-70.034 Y-26.868 E47.16272
G1 X-68.512 Y-30.788 E47.36645
G1 X-66.788 Y-34.621 E47.57006
G1 X-64.864 Y-38.363 E47.77391
G1 X-62.797 Y-41.906 E47.97263
G1 X-60.429 Y-45.505 E48.18135
G1 X-57.942 Y-48.893 E48.38496
G1 X-57.313 Y-49.387 E48.42371
G1 X-57.059 Y-49.521 E48.43762
G1 X-56.329 Y-49.7 E48.47403
G1 X66.426 Y-49.7 E54.42111
G1 X67.305 Y-49.424 E54.46574
G1 X67.956 Y-48.879 E54.50687
G1 X70.451 Y-45.478 E54.71122
G1 X72.805 Y-41.888 E54.9192
G1 X74.92 Y-38.255 E55.12286
G1 X76.839 Y-34.513 E55.3266
G1 X78.558 Y-30.679 E55.53016
G1 X80.04 Y-26.855 E55.72885
G1 X81.381 Y-22.753 E55.93792
G1 X82.474 Y-18.695 E56.14153
G1 X83.352 Y-14.591 E56.34485
G1 X84.015 Y-10.428 E56.54908
G1 X84.447 Y-6.351 E56.7477
G1 X84.673 Y-2.057 E56.95602
G1 X84.668 Y2.161 E57.16037
G1 X84.446 Y6.361 E57.36413
G1 X83.998 Y10.543 E57.56789
G1 X83.332 Y14.697 E57.77171
G1 X82.447 Y18.807 E57.97539
G1 X81.347 Y22.871 E58.17936
G1 X80.035 Y26.866 E58.38307
G1 X78.513 Y30.785 E58.58675
G1 X76.789 Y34.619 E58.79041
G1 X74.865 Y38.361 E58.99426
G1 X72.798 Y41.904 E59.19298
G1 X70.429 Y45.505 E59.4018
G1 X67.942 Y48.893 E59.60541
G1 X67.313 Y49.387 E59.64416
G1 X67.059 Y49.521 E59.65808
G1 X66.329 Y49.7 E59.69449
G1 X-56.426 Y49.7 E65.64156
G1 X-57.305 Y49.424 E65.6862
G1 X-57.956 Y48.879 E65.72733
G1 X-60.452 Y45.477 E65.93175
G1 X-62.805 Y41.888 E66.13966
G1 X-64.921 Y38.254 E66.34339
G1 X-66.839 Y34.513 E66.54706
G1 X-68.558 Y30.678 E66.75066
G1 X-70.04 Y26.854 E66.94935
G1 X-71.381 Y22.752 E67.15842
G1 X-72.475 Y18.695 E67.36199
G1 X-73.355 Y14.579 E67.56591
G1 X-74.015 Y10.425 E67.76968
G1 X-74.447 Y6.348 E67.9683
G1 X-74.673 Y2.055 E68.17657
G1 X-74.668 Y-1.498 E68.3487
G0 F1080 X-74.668 Y-2.163
G0 F1500 X-74.269 Y-2.142
G1 F1200 X-74.048 Y-6.32 E68.5514
G1 X-73.604 Y-10.482 E68.75417
G1 X-72.942 Y-14.613 E68.95686
G1 X-72.062 Y-18.705 E69.15964
G1 X-70.967 Y-22.746 E69.36247
G1 X-69.661 Y-26.723 E69.56527
G1 X-68.147 Y-30.624 E69.76799
G1 X-66.432 Y-34.438 E69.97059
G1 X-64.518 Y-38.161 E70.17339
G1 X-62.451 Y-41.704 E70.37212
G1 X-60.107 Y-45.268 E70.57878
G1 X-57.653 Y-48.611 E70.77969
G1 X-57.066 Y-49.072 E70.81585
G1 X-56.914 Y-49.145 E70.82401
G1 X-56.283 Y-49.3 E70.85549
G1 X66.363 Y-49.3 E76.79729
G1 X67.109 Y-49.066 E76.83516
G1 X67.661 Y-48.604 E76.87004
G1 X70.128 Y-45.241 E77.0721
G1 X72.459 Y-41.687 E77.27801
G1 X74.564 Y-38.072 E77.48067
G1 X76.474 Y-34.349 E77.68339
G1 X78.185 Y-30.534 E77.88595
G1 X79.667 Y-26.71 E78.08464
G1 X80.995 Y-22.649 E78.29163
G1 X82.083 Y-18.611 E78.49424
G1 X82.957 Y-14.528 E78.69653
G1 X83.617 Y-10.386 E78.89972
G1 X84.049 Y-6.309 E79.09835
G1 X84.273 Y-2.057 E79.30463
G1 X84.269 Y2.14 E79.50796
G1 X84.048 Y6.318 E79.71065
G1 X83.603 Y10.48 E79.91344
G1 X82.941 Y14.613 E80.11622
G1 X82.061 Y18.703 E80.3189
G1 X80.967 Y22.746 E80.52181
G1 X79.662 Y26.721 E80.7245
G1 X78.148 Y30.621 E80.92718
G1 X76.433 Y34.436 E81.12982
G1 X74.519 Y38.159 E81.33263
G1 X72.452 Y41.702 E81.53135
G1 X70.107 Y45.268 E81.73812
G1 X67.653 Y48.611 E81.93903
G1 X67.066 Y49.072 E81.97519
G1 X66.914 Y49.145 E81.98336
G1 X66.283 Y49.3 E82.01484
G1 X-56.363 Y49.3 E87.95663
G1 X-57.109 Y49.066 E87.99451
G1 X-57.661 Y48.604 E88.02938
G1 X-60.129 Y45.24 E88.23151
G1 X-62.459 Y41.687 E88.43735
G1 X-64.565 Y38.071 E88.64008
G1 X-66.474 Y34.349 E88.84273
G1 X-68.185 Y30.533 E89.04534
G1 X-69.667 Y26.709 E89.24403
G1 X-70.995 Y22.648 E89.45102
G1 X-72.084 Y18.611 E89.65359
G1 X-72.96 Y14.516 E89.85647
G1 X-73.617 Y10.383 E90.05921
G1 X-74.049 Y6.306 E90.25784
G1 X-74.273 Y2.055 E90.46407
G1 X-74.269 Y-1.477 E90.63518
G0 F1080 X-74.269 Y-2.142
G0 F1500 X-73.87 Y-2.121
G1 F1200 X-73.65 Y-6.278 E90.83686
G1 X-73.209 Y-10.419 E91.03861
G1 X-72.551 Y-14.529 E91.24026
G1 X-71.676 Y-18.6 E91.44199
G1 X-70.587 Y-22.621 E91.64381
G1 X-69.288 Y-26.578 E91.84558
G1 X-67.782 Y-30.46 E92.04731
G1 X-66.076 Y-34.255 E92.24889
G1 X-64.172 Y-37.959 E92.45065
G1 X-62.105 Y-41.502 E92.64938
G1 X-59.785 Y-45.031 E92.85398
G1 X-57.364 Y-48.329 E93.05219
G1 X-56.819 Y-48.757 E93.08576
G1 X-56.237 Y-48.9 E93.11479
G1 X66.3 Y-48.9 E99.05131
G1 X66.913 Y-48.708 E99.08243
G1 X67.366 Y-48.329 E99.11104
G1 X69.805 Y-45.004 E99.31082
G1 X72.113 Y-41.486 E99.51466
G1 X74.208 Y-37.889 E99.71632
G1 X76.109 Y-34.185 E99.91802
G1 X77.812 Y-30.389 E100.11958
G1 X79.294 Y-26.565 E100.31827
G1 X80.609 Y-22.545 E100.52318
G1 X81.692 Y-18.527 E100.72479
G1 X82.562 Y-14.465 E100.92604
G1 X83.219 Y-10.344 E101.12821
G1 X83.651 Y-6.267 E101.32683
G1 X83.873 Y-2.057 E101.53108
G1 X83.87 Y2.119 E101.73339
G1 X83.65 Y6.276 E101.93507
G1 X83.208 Y10.417 E102.13682
G1 X82.55 Y14.529 E102.33857
G1 X81.675 Y18.599 E102.54025
G1 X80.587 Y22.621 E102.74211
G1 X79.289 Y26.576 E102.94377
G1 X77.783 Y30.457 E103.14545
G1 X76.077 Y34.253 E103.34708
G1 X74.173 Y37.957 E103.54884
G1 X72.106 Y41.5 E103.74756
G1 X69.785 Y45.031 E103.95228
G1 X67.364 Y48.329 E104.15048
G1 X66.819 Y48.757 E104.18405
G1 X66.237 Y48.9 E104.21309
G1 X-56.3 Y48.9 E110.1496
G1 X-56.913 Y48.708 E110.18072
G1 X-57.366 Y48.329 E110.20934
G1 X-59.806 Y45.003 E110.40918
G1 X-62.113 Y41.486 E110.61295
G1 X-64.209 Y37.888 E110.81468
G1 X-66.109 Y34.185 E111.01632
G1 X-67.812 Y30.388 E111.21793
G1 X-69.294 Y26.564 E111.41661
G1 X-70.609 Y22.544 E111.62152
G1 X-71.693 Y18.527 E111.8231
G1 X-72.565 Y14.453 E112.02494
G1 X-73.219 Y10.341 E112.22665
G1 X-73.651 Y6.264 E112.42528
G1 X-73.873 Y2.055 E112.62947
G1 X-73.87 Y-1.456 E112.79957
G0 F1080 X-73.87 Y-2.121
G0 F1500 X-73.471 Y-2.1
G1 F1200 X-73.252 Y-6.236 E113.00023
G1 X-72.814 Y-10.356 E113.20095
G1 X-72.16 Y-14.445 E113.40157
G1 X-71.29 Y-18.495 E113.60225
G1 X-70.207 Y-22.496 E113.80306
G1 X-68.915 Y-26.433 E114.00381
G1 X-67.417 Y-30.296 E114.20453
G1 X-65.72 Y-34.072 E114.40509
G1 X-63.826 Y-37.757 E114.60582
G1 X-61.759 Y-41.3 E114.80454
G1 X-59.463 Y-44.794 E115.00709
G1 X-57.042 Y-48.092 E115.2053
G1 X-56.641 Y-48.389 E115.22947
G1 X-56.237 Y-48.5 E115.24977
G1 X66.237 Y-48.5 E121.18323
G1 X66.718 Y-48.349 E121.20765
G1 X67.043 Y-48.092 E121.22773
G1 X69.482 Y-44.767 E121.4275
G1 X71.767 Y-41.285 E121.62927
G1 X73.852 Y-37.706 E121.82994
G1 X75.744 Y-34.021 E122.03062
G1 X77.439 Y-30.244 E122.23119
G1 X78.921 Y-26.42 E122.42988
G1 X80.223 Y-22.441 E122.6327
G1 X81.301 Y-18.443 E122.83331
G1 X82.167 Y-14.402 E123.03353
G1 X82.821 Y-10.302 E123.23467
G1 X83.253 Y-6.225 E123.43329
G1 X83.473 Y-2.057 E123.6355
G1 X83.471 Y2.098 E123.8368
G1 X83.252 Y6.234 E124.03745
G1 X82.813 Y10.354 E124.23818
G1 X82.159 Y14.445 E124.43889
G1 X81.289 Y18.495 E124.63958
G1 X80.207 Y22.496 E124.84038
G1 X78.916 Y26.431 E125.04101
G1 X77.418 Y30.293 E125.2417
G1 X75.721 Y34.07 E125.4423
G1 X73.827 Y37.755 E125.64303
G1 X71.76 Y41.298 E125.84175
G1 X69.463 Y44.794 E126.04441
G1 X67.042 Y48.092 E126.24261
G1 X66.641 Y48.389 E126.26679
G1 X66.237 Y48.5 E126.28708
G1 X-56.237 Y48.5 E132.22054
G1 X-56.718 Y48.349 E132.24497
G1 X-57.043 Y48.092 E132.26504
G1 X-59.483 Y44.766 E132.46489
G1 X-61.767 Y41.285 E132.66659
G1 X-63.853 Y37.705 E132.86732
G1 X-65.744 Y34.021 E133.06794
G1 X-67.439 Y30.243 E133.26855
G1 X-68.921 Y26.419 E133.46723
G1 X-70.223 Y22.44 E133.67006
G1 X-71.302 Y18.443 E133.87064
G1 X-72.17 Y14.39 E134.07144
G1 X-72.821 Y10.299 E134.27213
G1 X-73.253 Y6.222 E134.47075
G1 X-73.473 Y2.055 E134.67291
G1 X-73.471 Y-1.435 E134.84199
G0 F1080 X-73.471 Y-2.1
G0 F1500 X-72.673 Y-2.058
G1 F1200 X-72.456 Y-6.152 E135.04061
G1 X-72.024 Y-10.23 E135.23928
G1 X-71.378 Y-14.277 E135.43783
G1 X-70.518 Y-18.287 E135.63652
G1 X-69.447 Y-22.246 E135.83521
G1 X-68.169 Y-26.143 E136.0339
G1 X-66.687 Y-29.968 E136.23263
G1 X-65.008 Y-33.706 E136.43116
G1 X-63.134 Y-37.353 E136.6298
G1 X-61.067 Y-40.896 E136.82852
G1 X-58.819 Y-44.32 E137.02696
G1 X-56.398 Y-47.618 E137.22517
G1 X-56.237 Y-47.7 E137.23392
G1 X66.237 Y-47.7 E143.16738
G1 X66.398 Y-47.618 E143.17613
G1 X68.825 Y-44.311 E143.37486
G1 X71.075 Y-40.883 E143.57352
G1 X73.14 Y-37.34 E143.77219
G1 X75.014 Y-33.693 E143.97084
G1 X76.693 Y-29.954 E144.1694
G1 X78.175 Y-26.13 E144.36809
G1 X79.451 Y-22.233 E144.56675
G1 X80.519 Y-18.275 E144.76536
G1 X81.377 Y-14.276 E144.96351
G1 X82.025 Y-10.218 E145.16259
G1 X82.457 Y-6.141 E145.36122
G1 X82.673 Y-2.057 E145.55935
G1 X82.673 Y2.056 E145.75861
G1 X82.456 Y6.15 E145.95723
G1 X82.023 Y10.228 E146.15591
G1 X81.377 Y14.277 E146.35455
G1 X80.517 Y18.287 E146.55324
G1 X79.447 Y22.246 E146.75192
G1 X78.17 Y26.141 E146.9505
G1 X76.688 Y29.965 E147.14919
G1 X75.009 Y33.704 E147.34776
G1 X73.135 Y37.351 E147.5464
G1 X71.068 Y40.894 E147.74512
G1 X68.819 Y44.32 E147.94367
G1 X66.398 Y47.618 E148.14187
G1 X66.237 Y47.7 E148.15063
G1 X-56.237 Y47.7 E154.08409
G1 X-56.398 Y47.618 E154.09284
G1 X-58.826 Y44.31 E154.29164
G1 X-61.075 Y40.883 E154.49022
G1 X-63.141 Y37.339 E154.68896
G1 X-65.014 Y33.693 E154.88754
G1 X-66.693 Y29.953 E155.08616
G1 X-68.175 Y26.129 E155.28484
G1 X-69.451 Y22.232 E155.4835
G1 X-70.52 Y18.275 E155.68208
G1 X-71.38 Y14.264 E155.88081
G1 X-72.025 Y10.215 E156.07945
G1 X-72.457 Y6.138 E156.27807
G1 X-72.673 Y2.055 E156.47616
G1 X-72.673 Y-1.393 E156.6432
G0 F1080 X-72.673 Y-2.058
G0 F1500 X-73.072 Y-2.079
G1 F1200 X-73.073 Y2.055 E156.84348
G1 X-72.855 Y6.18 E157.0436
G1 X-72.423 Y10.257 E157.24222
G1 X-71.775 Y14.327 E157.44188
G1 X-70.911 Y18.359 E157.64166
G1 X-69.837 Y22.336 E157.84123
G1 X-68.548 Y26.274 E158.04197
G1 X-67.066 Y30.098 E158.24066
G1 X-65.379 Y33.857 E158.44027
G1 X-63.497 Y37.522 E158.63987
G1 X-61.421 Y41.084 E158.83961
G1 X-59.16 Y44.529 E159.03924
G1 X-56.72 Y47.855 E159.23908
G1 X-56.58 Y47.974 E159.24799
G1 X-56.237 Y48.1 E159.26569
G1 X66.237 Y48.1 E165.19915
G1 X66.419 Y48.056 E165.20822
G1 X66.72 Y47.855 E165.22575
G1 X69.141 Y44.557 E165.42396
G1 X71.414 Y41.096 E165.62456
G1 X73.481 Y37.553 E165.82328
G1 X75.365 Y33.887 E166.02297
G1 X77.053 Y30.129 E166.22256
G1 X78.543 Y26.286 E166.42224
G1 X79.827 Y22.371 E166.62185
G1 X80.903 Y18.391 E166.82159
G1 X81.768 Y14.361 E167.02128
G1 X82.418 Y10.291 E167.22095
G1 X82.854 Y6.192 E167.42066
G1 X83.072 Y2.077 E167.62029
G1 X83.073 Y-2.057 E167.82057
G1 X82.855 Y-6.183 E168.02074
G1 X82.423 Y-10.26 E168.21937
G1 X81.772 Y-14.339 E168.41948
G1 X80.91 Y-18.359 E168.61866
G1 X79.837 Y-22.337 E168.81827
G1 X78.548 Y-26.275 E169.01902
G1 X77.066 Y-30.099 E169.2177
G1 X75.379 Y-33.857 E169.41727
G1 X73.496 Y-37.523 E169.61693
G1 X71.421 Y-41.084 E169.8166
G1 X69.159 Y-44.53 E170.0163
G1 X66.72 Y-47.855 E170.21608
G1 X66.58 Y-47.974 E170.22498
G1 X66.237 Y-48.1 E170.24268
