;FLAVOR:Marlin
;TIME:3629
;Filament used: 3.39903m
;Layer height: 0.24
;MINX:-31.301
;MINY:-27.467
;MINZ:0.3
;MAXX:27.088
;MAXY:23.388
;MAXZ:15.94
;Generated with Cura_SteamEngine 4.13.1
M140 S50
M105
M190 S50
M104 S210
M105
M109 S210
M82 ;absolute extrusion mode
;FLAVOR:Marlin
M82 ;absolute extrusion mode
G21
G90
M82
M107 T0
G28
G92 E0
G0 E3 F200
G92 E0 ; reset extrusion distance
M106 S255 ; Enable cooling fan full speed
G1 X-98 Y0 Z0.4 F3000 ; move to arc start
G3 X0 Y-98 I98 Z0.4 E40 F400 ; lay arc stripe 90deg
G92 E0 ; reset extrusion distance
G4 P500 ; wait for 0.5 sec
G0 Z10 E-1 ; Lift 15mm and retract 1mm filament
G4 P2000 ; wait for 5 sec
G0 Z15
M107 ; Disable cooling fan
G1 X0 Y-85 Z4 E0 F3000 ; get off the bed
G92 E0
G92 E0
G1 F1500 E-6.5
;LAYER_COUNT:63
;LAYER:0
M106 S25.5
G1 F600 Z1.3
G0 F3600 X0.257 Y16.308 Z1.3
;TYPE:SKIRT
G1 F600 Z0.3
G1 F1500 E0.3326
G1 F1200 X-.259 Y16.308 E0.35834
G1 X-1.015 Y17.062 E0.41161
G1 X-1.375 Y17.369 E0.43522
G1 X-1.853 Y17.658 E0.46309
G1 X-2.339 Y17.894 E0.49004
G1 X-2.804 Y18.17 E0.51702
G1 X-3.309 Y18.562 E0.54891
G1 X-3.762 Y19.018 E0.58098
G1 X-4.149 Y19.518 E0.61252
G1 X-4.463 Y20.052 E0.64343
G1 X-4.628 Y20.41 E0.6631
G1 X-4.884 Y20.859 E0.68888
G1 X-4.902 Y20.885 E0.69046
G1 X-5.248 Y21.298 E0.71734
G1 X-6.174 Y22.224 E0.78267
G1 X-6.629 Y22.598 E0.81206
G1 X-6.936 Y22.803 E0.83048
G1 X-7.442 Y23.075 E0.85914
G1 X-7.943 Y23.241 E0.88547
G1 X-8.235 Y23.31 E0.90044
G1 X-8.763 Y23.386 E0.92705
G1 X-8.8 Y23.388 E0.9289
G1 X-9.348 Y23.367 E0.95626
G1 X-9.672 Y23.325 E0.97256
G1 X-10.261 Y23.187 E1.00274
G1 X-11.005 Y22.841 E1.04368
G1 X-11.451 Y22.554 E1.07014
G1 X-11.902 Y22.133 E1.10092
G1 X-12.376 Y21.537 E1.13891
G1 X-12.397 Y21.504 E1.14086
G1 X-12.675 Y20.947 E1.17192
G1 X-12.922 Y20.176 E1.21231
G1 X-13 Y19.401 E1.25117
G1 X-13 Y13 E1.57051
G1 X-21.475 Y13 E1.99333
G1 X-21.963 Y12.96 E2.01776
G1 X-22.438 Y12.841 E2.04219
G1 X-22.887 Y12.647 E2.06659
G1 X-23.299 Y12.382 E2.09103
G1 X-23.713 Y12.004 E2.119
G1 X-24.03 Y11.631 E2.14342
G1 X-24.282 Y11.211 E2.16786
G1 X-24.462 Y10.756 E2.19227
G1 X-24.566 Y10.278 E2.21668
G1 X-24.592 Y9.883 E2.23643
G1 X-24.592 Y4.533 E2.50334
G1 X-24.792 Y4.543 E2.51333
G1 X-26.428 Y4.543 E2.59495
G1 X-26.916 Y4.503 E2.61938
G1 X-27.391 Y4.384 E2.64381
G1 X-27.84 Y4.19 E2.66821
G1 X-28.191 Y3.97 E2.68888
G1 X-29.546 Y2.986 E2.77242
G1 X-29.917 Y2.667 E2.79684
G1 X-30.232 Y2.292 E2.82127
G1 X-30.481 Y1.871 E2.84567
G1 X-30.636 Y1.488 E2.86628
G1 X-31.154 Y-.103 E2.94976
G1 X-31.267 Y-.579 E2.97417
G1 X-31.301 Y-1.068 E2.99862
G1 X-31.255 Y-1.555 E3.02303
G1 X-31.154 Y-1.961 E3.0439
G1 X-30.636 Y-3.552 E3.12738
G1 X-30.447 Y-4.003 E3.15177
G1 X-30.187 Y-4.418 E3.17621
G1 X-29.863 Y-4.785 E3.20063
G1 X-29.546 Y-5.05 E3.22124
G1 X-28.191 Y-6.034 E3.30479
G1 X-27.773 Y-6.289 E3.32922
G1 X-27.319 Y-6.472 E3.35364
G1 X-26.841 Y-6.578 E3.37807
G1 X-26.428 Y-6.607 E3.39872
G1 X-24.792 Y-6.607 E3.48034
G1 X-24.592 Y-6.591 E3.49035
G1 X-24.592 Y-9.883 E3.65459
G1 X-24.552 Y-10.371 E3.67902
G1 X-24.433 Y-10.846 E3.70345
G1 X-24.239 Y-11.295 E3.72785
G1 X-23.974 Y-11.707 E3.75229
G1 X-23.596 Y-12.121 E3.78026
G1 X-23.223 Y-12.438 E3.80468
G1 X-22.803 Y-12.69 E3.82912
G1 X-22.348 Y-12.87 E3.85353
G1 X-21.87 Y-12.974 E3.87793
G1 X-21.475 Y-13 E3.89768
G1 X-13 Y-12.999 E4.3205
G1 X-13 Y-17.775 E4.55878
G1 X-12.96 Y-18.263 E4.58321
G1 X-12.841 Y-18.738 E4.60764
G1 X-12.647 Y-19.187 E4.63204
G1 X-12.382 Y-19.599 E4.65648
G1 X-12.004 Y-20.013 E4.68445
G1 X-11.631 Y-20.33 E4.70887
G1 X-11.211 Y-20.582 E4.7333
G1 X-10.756 Y-20.762 E4.75772
G1 X-10.278 Y-20.866 E4.78212
G1 X-9.883 Y-20.892 E4.80187
G1 X-5.472 Y-20.892 E5.02194
G1 X-5.609 Y-21.444 E5.05031
G1 X-5.643 Y-21.933 E5.07477
G1 X-5.596 Y-22.42 E5.09918
G1 X-5.496 Y-22.821 E5.1198
G1 X-4.978 Y-24.412 E5.20327
G1 X-4.789 Y-24.863 E5.22767
G1 X-4.529 Y-25.278 E5.2521
G1 X-4.205 Y-25.645 E5.27652
G1 X-3.888 Y-25.91 E5.29714
G1 X-2.533 Y-26.894 E5.38068
G1 X-2.115 Y-27.149 E5.40511
G1 X-1.661 Y-27.332 E5.42953
G1 X-1.183 Y-27.438 E5.45396
G1 X-.77 Y-27.467 E5.47462
G1 X0.902 Y-27.467 E5.55803
G1 X1.39 Y-27.427 E5.58246
G1 X1.865 Y-27.308 E5.60689
G1 X2.314 Y-27.114 E5.63129
G1 X2.665 Y-26.894 E5.65196
G1 X4.02 Y-25.91 E5.73551
G1 X4.391 Y-25.591 E5.75992
G1 X4.706 Y-25.216 E5.78435
G1 X4.955 Y-24.795 E5.80875
G1 X5.11 Y-24.412 E5.82937
G1 X5.628 Y-22.821 E5.91284
G1 X5.741 Y-22.345 E5.93725
G1 X5.775 Y-21.856 E5.9617
G1 X5.729 Y-21.369 E5.98611
G1 X5.604 Y-20.892 E6.01071
G1 X9.883 Y-20.892 E6.22419
G1 X10.371 Y-20.852 E6.24862
G1 X10.846 Y-20.733 E6.27305
G1 X11.295 Y-20.539 E6.29745
G1 X11.707 Y-20.274 E6.32189
G1 X12.121 Y-19.896 E6.34986
G1 X12.438 Y-19.523 E6.37428
G1 X12.69 Y-19.103 E6.39872
G1 X12.87 Y-18.648 E6.42313
G1 X12.974 Y-18.17 E6.44753
G1 X13 Y-17.775 E6.46728
G1 X12.999 Y-12.77 E6.71698
G1 X13.252 Y-12.87 E6.73056
G1 X13.73 Y-12.974 E6.75496
G1 X14.125 Y-13 E6.77471
G1 X23.108 Y-12.999 E7.22288
G1 X23.684 Y-12.945 E7.25174
G1 X23.991 Y-12.887 E7.26733
G1 X24.479 Y-12.751 E7.2926
G1 X24.514 Y-12.738 E7.29446
G1 X25.034 Y-12.485 E7.32331
G1 X25.68 Y-12.049 E7.3622
G1 X25.706 Y-12.027 E7.36389
G1 X26.126 Y-11.592 E7.39406
G1 X26.325 Y-11.339 E7.41012
G1 X26.604 Y-10.915 E7.43544
G1 X26.623 Y-10.88 E7.43743
G1 X26.852 Y-10.334 E7.46697
G1 X27.056 Y-9.537 E7.50801
G1 X27.061 Y-9.5 E7.50988
G1 X27.081 Y-8.897 E7.53998
G1 X26.997 Y-8.13 E7.57847
G1 X26.99 Y-8.098 E7.5801
G1 X26.794 Y-7.506 E7.61122
G1 X26.428 Y-6.791 E7.65129
G1 X25.923 Y-6.172 E7.69115
G1 X24.993 Y-5.244 E7.75669
G1 X24.633 Y-4.937 E7.7803
G1 X24.145 Y-4.643 E7.80872
G1 X23.677 Y-4.419 E7.8346
G1 X23.203 Y-4.138 E7.8621
G1 X22.699 Y-3.746 E7.89395
G1 X22.243 Y-3.287 E7.92623
G1 X21.87 Y-2.804 E7.95668
G1 X21.545 Y-2.253 E7.98859
G1 X21.381 Y-1.898 E8.0081
G1 X21.125 Y-1.449 E8.03389
G1 X21.107 Y-1.423 E8.03546
G1 X20.76 Y-1.008 E8.06245
G1 X20.008 Y-.257 E8.11547
G1 X20.008 Y0.26 E8.14127
G1 X20.762 Y1.015 E8.1945
G1 X21.1 Y1.418 E8.22074
G1 X21.37 Y1.878 E8.24735
G1 X21.713 Y2.556 E8.28526
G1 X22.047 Y3.05 E8.31501
G1 X22.485 Y3.544 E8.34795
G1 X22.954 Y3.957 E8.37913
G1 X23.474 Y4.308 E8.41043
G1 X24.113 Y4.63 E8.44613
G1 X24.559 Y4.884 E8.47173
G1 X24.585 Y4.902 E8.47331
G1 X24.997 Y5.247 E8.50012
G1 X25.918 Y6.167 E8.56507
G1 X26.252 Y6.563 E8.59091
G1 X26.693 Y7.257 E8.63193
G1 X26.711 Y7.294 E8.63399
G1 X26.927 Y7.894 E8.6658
G1 X27.004 Y8.209 E8.68198
G1 X27.086 Y8.759 E8.70972
G1 X27.088 Y8.796 E8.71157
G1 X27.069 Y9.327 E8.73808
G1 X27.029 Y9.65 E8.75432
G1 X26.923 Y10.151 E8.77987
G1 X26.913 Y10.184 E8.78159
G1 X26.696 Y10.713 E8.81011
G1 X26.297 Y11.394 E8.84949
G1 X26.274 Y11.425 E8.85142
G1 X25.834 Y11.9 E8.88372
G1 X25.252 Y12.366 E8.92092
G1 X25.221 Y12.386 E8.92276
G1 X24.651 Y12.673 E8.95459
G1 X23.878 Y12.921 E8.9951
G1 X23.099 Y13 E9.03416
G1 X14.125 Y13 E9.48187
G1 X13.637 Y12.96 E9.5063
G1 X13 Y12.771 E9.53945
G1 X12.999 Y19.408 E9.87057
G1 X12.946 Y19.98 E9.89923
G1 X12.889 Y20.284 E9.91466
G1 X12.755 Y20.768 E9.93972
G1 X12.741 Y20.806 E9.94174
G1 X12.485 Y21.334 E9.97101
G1 X12.049 Y21.98 E10.0099
G1 X12.027 Y22.006 E10.0116
G1 X11.592 Y22.426 E10.04176
G1 X11.339 Y22.625 E10.05782
G1 X10.915 Y22.904 E10.08314
G1 X10.88 Y22.923 E10.08513
G1 X10.332 Y23.153 E10.11478
G1 X10.017 Y23.25 E10.13123
G1 X9.525 Y23.357 E10.15635
G1 X9.487 Y23.362 E10.15826
G1 X8.894 Y23.381 E10.18786
G1 X8.568 Y23.359 E10.20416
G1 X8.042 Y23.276 E10.23073
G1 X8.01 Y23.268 E10.23237
G1 X7.505 Y23.093 E10.25904
G1 X6.788 Y22.725 E10.29924
G1 X6.383 Y22.409 E10.32487
G1 X5.976 Y22.028 E10.35269
G1 X5.24 Y21.289 E10.40472
G1 X4.918 Y20.906 E10.42968
G1 X4.901 Y20.882 E10.43115
G1 X4.646 Y20.45 E10.45618
G1 X4.409 Y19.958 E10.48342
G1 X4.138 Y19.503 E10.50985
G1 X3.753 Y19.008 E10.54113
G1 X3.281 Y18.538 E10.57436
G1 X2.803 Y18.17 E10.60446
G1 X2.251 Y17.844 E10.63644
G1 X1.898 Y17.681 E10.65584
G1 X1.449 Y17.425 E10.68163
G1 X1.423 Y17.407 E10.6832
G1 X1.008 Y17.06 E10.71019
G1 X0.257 Y16.308 E10.76321
G0 F3600 X0.423 Y15.908
G1 F1200 X-.425 Y15.908 E10.80552
G1 X-1.298 Y16.779 E10.86705
G1 X-1.613 Y17.047 E10.88768
G1 X-2.027 Y17.298 E10.91183
G1 X-2.527 Y17.54 E10.93955
G1 X-3.019 Y17.832 E10.96809
G1 X-3.565 Y18.254 E11.00252
G1 X-4.059 Y18.749 E11.03741
G1 X-4.475 Y19.287 E11.07134
G1 X-4.821 Y19.875 E11.10537
G1 X-5.213 Y20.631 E11.14786
G1 X-5.531 Y21.015 E11.17273
G1 X-6.457 Y21.941 E11.23807
G1 X-6.851 Y22.265 E11.26352
G1 X-7.597 Y22.706 E11.30675
G1 X-8.327 Y22.92 E11.34471
G1 X-8.822 Y22.988 E11.36963
G1 X-9.62 Y22.928 E11.40956
G1 X-10.131 Y22.809 E11.43573
G1 X-10.819 Y22.487 E11.47363
G1 X-11.209 Y22.235 E11.4968
G1 X-11.6 Y21.87 E11.52348
G1 X-12.039 Y21.322 E11.55851
G1 X-12.06 Y21.289 E11.56047
G1 X-12.3 Y20.807 E11.58733
G1 X-12.413 Y20.506 E11.60337
G1 X-12.563 Y19.876 E11.63568
G1 X-12.6 Y19.401 E11.65945
G1 X-12.6 Y12.6 E11.99875
G1 X-21.475 Y12.6 E12.44153
G1 X-21.929 Y12.56 E12.46426
G1 X-22.369 Y12.442 E12.48699
G1 X-22.781 Y12.248 E12.50971
G1 X-23.313 Y11.838 E12.54322
G1 X-23.723 Y11.372 E12.57419
G1 X-23.95 Y10.977 E12.59692
G1 X-24.105 Y10.549 E12.61963
G1 X-24.192 Y9.883 E12.65314
G1 X-24.192 Y4.063 E12.9435
G1 X-24.792 Y4.143 E12.9737
G1 X-26.428 Y4.143 E13.05532
G1 X-26.882 Y4.103 E13.07805
G1 X-27.322 Y3.985 E13.10078
G1 X-27.956 Y3.647 E13.13663
G1 X-29.311 Y2.663 E13.22017
G1 X-29.655 Y2.364 E13.24291
G1 X-29.941 Y2.009 E13.26565
G1 X-30.255 Y1.364 E13.30144
G1 X-30.773 Y-.227 E13.38492
G1 X-30.876 Y-.671 E13.40766
G1 X-30.899 Y-1.126 E13.43039
G1 X-30.773 Y-1.837 E13.46641
G1 X-30.255 Y-3.428 E13.54989
G1 X-30.077 Y-3.847 E13.5726
G1 X-29.828 Y-4.229 E13.59535
G1 X-29.311 Y-4.727 E13.63116
G1 X-27.956 Y-5.711 E13.71471
G1 X-27.565 Y-5.945 E13.73744
G1 X-27.139 Y-6.108 E13.7602
G1 X-26.428 Y-6.207 E13.79601
G1 X-24.792 Y-6.207 E13.87763
G1 X-24.192 Y-6.128 E13.90783
G1 X-24.192 Y-9.883 E14.09517
G1 X-24.152 Y-10.337 E14.1179
G1 X-24.034 Y-10.777 E14.14063
G1 X-23.84 Y-11.189 E14.16335
G1 X-23.43 Y-11.721 E14.19686
G1 X-22.964 Y-12.131 E14.22783
G1 X-22.569 Y-12.358 E14.25055
G1 X-22.141 Y-12.513 E14.27326
G1 X-21.475 Y-12.6 E14.30677
G1 X-12.6 Y-12.599 E14.74955
G1 X-12.6 Y-17.775 E15.00778
G1 X-12.56 Y-18.229 E15.03052
G1 X-12.442 Y-18.669 E15.05325
G1 X-12.248 Y-19.081 E15.07597
G1 X-11.838 Y-19.613 E15.10947
G1 X-11.372 Y-20.023 E15.14044
G1 X-10.977 Y-20.25 E15.16317
G1 X-10.549 Y-20.405 E15.18588
G1 X-9.883 Y-20.492 E15.21939
G1 X-4.923 Y-20.492 E15.46684
G1 X-5.117 Y-21.091 E15.49826
G1 X-5.218 Y-21.535 E15.52097
G1 X-5.241 Y-21.99 E15.5437
G1 X-5.115 Y-22.697 E15.57953
G1 X-4.597 Y-24.288 E15.66301
G1 X-4.419 Y-24.707 E15.68572
G1 X-4.17 Y-25.089 E15.70847
G1 X-3.653 Y-25.587 E15.74428
G1 X-2.298 Y-26.571 E15.82783
G1 X-1.907 Y-26.805 E15.85056
G1 X-1.481 Y-26.968 E15.87332
G1 X-.77 Y-27.067 E15.90913
G1 X0.902 Y-27.067 E15.99255
G1 X1.356 Y-27.027 E16.01529
G1 X1.796 Y-26.909 E16.03801
G1 X2.43 Y-26.571 E16.07386
G1 X3.785 Y-25.587 E16.1574
G1 X4.129 Y-25.288 E16.18014
G1 X4.415 Y-24.933 E16.20289
G1 X4.729 Y-24.288 E16.23868
G1 X5.247 Y-22.697 E16.32215
G1 X5.35 Y-22.253 E16.34489
G1 X5.373 Y-21.798 E16.36762
G1 X5.249 Y-21.091 E16.40343
G1 X5.055 Y-20.492 E16.43485
G1 X9.883 Y-20.492 E16.67572
G1 X10.337 Y-20.452 E16.69845
G1 X10.777 Y-20.334 E16.72118
G1 X11.189 Y-20.14 E16.7439
G1 X11.721 Y-19.73 E16.77741
G1 X12.131 Y-19.264 E16.80838
G1 X12.358 Y-18.869 E16.8311
G1 X12.513 Y-18.441 E16.85381
G1 X12.6 Y-17.775 E16.88732
G1 X12.599 Y-12.1 E17.17045
G1 X13.031 Y-12.358 E17.19555
G1 X13.459 Y-12.513 E17.21826
G1 X14.125 Y-12.6 E17.25177
G1 X23.108 Y-12.599 E17.69994
G1 X23.61 Y-12.552 E17.72509
G1 X24.339 Y-12.376 E17.76251
G1 X24.374 Y-12.363 E17.76437
G1 X24.826 Y-12.144 E17.78943
G1 X25.421 Y-11.744 E17.8252
G1 X25.447 Y-11.722 E17.8269
G1 X25.812 Y-11.344 E17.85311
G1 X26.252 Y-10.724 E17.89104
G1 X26.271 Y-10.689 E17.89303
G1 X26.47 Y-10.216 E17.91863
G1 X26.66 Y-9.483 E17.95641
G1 X26.665 Y-9.446 E17.95827
G1 X26.682 Y-8.923 E17.98438
G1 X26.606 Y-8.215 E18.0199
G1 X26.599 Y-8.183 E18.02154
G1 X26.429 Y-7.67 E18.0485
G1 X26.3 Y-7.384 E18.06415
G1 X25.958 Y-6.826 E18.0968
G1 X25.64 Y-6.456 E18.12114
G1 X24.71 Y-5.528 E18.18669
G1 X24.395 Y-5.259 E18.20735
G1 X23.972 Y-5.004 E18.232
G1 X23.49 Y-4.773 E18.25866
G1 X22.982 Y-4.471 E18.28815
G1 X22.443 Y-4.054 E18.32215
G1 X21.946 Y-3.556 E18.35725
G1 X21.542 Y-3.034 E18.39018
G1 X21.192 Y-2.441 E18.42453
G1 X20.796 Y-1.677 E18.46746
G1 X20.477 Y-1.291 E18.49245
G1 X19.608 Y-.423 E18.55372
G1 X19.608 Y0.424 E18.59598
G1 X20.479 Y1.297 E18.65751
G1 X20.775 Y1.651 E18.68053
G1 X21.195 Y2.442 E18.72521
G1 X21.528 Y3.015 E18.75827
G1 X21.945 Y3.554 E18.79227
G1 X22.447 Y4.057 E18.82773
G1 X22.992 Y4.478 E18.86208
G1 X23.568 Y4.817 E18.89543
G1 X24.331 Y5.213 E18.93832
G1 X24.714 Y5.53 E18.96312
G1 X25.635 Y6.45 E19.02807
G1 X26.121 Y7.073 E19.06749
G1 X26.351 Y7.469 E19.09033
G1 X26.539 Y7.989 E19.11792
G1 X26.686 Y8.781 E19.15811
G1 X26.632 Y9.601 E19.19911
G1 X26.53 Y10.068 E19.22295
G1 X26.188 Y10.819 E19.26412
G1 X25.953 Y11.186 E19.28587
G1 X25.572 Y11.598 E19.31386
G1 X25.036 Y12.03 E19.34821
G1 X25.005 Y12.05 E19.35005
G1 X24.511 Y12.298 E19.37762
G1 X24.208 Y12.412 E19.39378
G1 X23.573 Y12.564 E19.42635
G1 X23.099 Y12.6 E19.45007
G1 X14.125 Y12.6 E19.89778
G1 X13.671 Y12.56 E19.92052
G1 X13.231 Y12.442 E19.94325
G1 X12.819 Y12.248 E19.96597
G1 X12.6 Y12.079 E19.97977
G1 X12.599 Y19.408 E20.34541
G1 X12.552 Y19.906 E20.37037
G1 X12.38 Y20.63 E20.40749
G1 X12.366 Y20.668 E20.40952
G1 X12.144 Y21.126 E20.43491
G1 X11.744 Y21.721 E20.47068
G1 X11.722 Y21.747 E20.47238
G1 X11.344 Y22.112 E20.49859
G1 X10.724 Y22.552 E20.53652
G1 X10.689 Y22.571 E20.53851
G1 X10.214 Y22.771 E20.56422
G1 X9.473 Y22.961 E20.60239
G1 X9.435 Y22.966 E20.6043
G1 X8.921 Y22.982 E20.62995
G1 X8.139 Y22.888 E20.66925
G1 X7.383 Y22.599 E20.70963
G1 X6.983 Y22.374 E20.73252
G1 X6.333 Y21.816 E20.77526
G1 X6.26 Y21.746 E20.78031
G1 X5.524 Y21.007 E20.83234
G1 X5.227 Y20.651 E20.85547
G1 X5.007 Y20.277 E20.87712
G1 X4.769 Y19.784 E20.90443
G1 X4.471 Y19.282 E20.93356
G1 X4.054 Y18.743 E20.96756
G1 X3.557 Y18.248 E21.00255
G1 X3.032 Y17.841 E21.03569
G1 X2.439 Y17.491 E21.07005
G1 X1.677 Y17.096 E21.11287
G1 X1.291 Y16.777 E21.13785
G1 X0.423 Y15.908 E21.19913
G0 F3600 X0.588 Y15.508
G1 F1200 X-.59 Y15.508 E21.2579
G1 X-1.58 Y16.496 E21.32768
G1 X-1.851 Y16.726 E21.34541
G1 X-2.202 Y16.938 E21.36587
G1 X-2.706 Y17.182 E21.39381
G1 X-3.253 Y17.507 E21.42555
G1 X-3.836 Y17.96 E21.46238
G1 X-4.369 Y18.495 E21.50006
G1 X-4.804 Y19.058 E21.53556
G1 X-5.177 Y19.692 E21.57225
G1 X-5.542 Y20.403 E21.61213
G1 X-5.813 Y20.733 E21.63343
G1 X-6.739 Y21.659 E21.69877
G1 X-7.38 Y22.138 E21.73869
G1 X-7.782 Y22.35 E21.76136
G1 X-8.419 Y22.531 E21.7944
G1 X-8.843 Y22.589 E21.81575
G1 X-9.569 Y22.532 E21.85208
G1 X-10.033 Y22.42 E21.8759
G1 X-10.633 Y22.133 E21.90908
G1 X-10.968 Y21.917 E21.92896
G1 X-11.505 Y21.37 E21.96721
G1 X-11.722 Y21.074 E21.98552
G1 X-12.039 Y20.365 E22.02426
G1 X-12.166 Y19.832 E22.0516
G1 X-12.2 Y19.401 E22.07317
G1 X-12.2 Y12.18 E22.43343
G1 X-12.501 Y12.2 E22.44848
G1 X-21.475 Y12.2 E22.89619
G1 X-21.892 Y12.16 E22.91709
G1 X-22.294 Y12.042 E22.93799
G1 X-22.666 Y11.849 E22.9589
G1 X-23.148 Y11.439 E22.99047
G1 X-23.414 Y11.115 E23.01139
G1 X-23.615 Y10.748 E23.03226
G1 X-23.742 Y10.348 E23.0532
G1 X-23.792 Y9.883 E23.07653
G1 X-23.792 Y3.494 E23.39528
G1 X-24.279 Y3.682 E23.42132
G1 X-24.792 Y3.743 E23.4471
G1 X-26.428 Y3.743 E23.52872
