;FLAVOR:Marlin
;TIME:8628
;Filament used: 9.60212m
;Layer height: 0.24
;MINX:-18.483
;MINY:-54.433
;MINZ:0.3
;MAXX:51
;MAXY:54.432
;MAXZ:20.98
;Generated with Cura_SteamEngine 4.13.1
M140 S50
M105
M190 S50
M104 S215
M105
M109 S215
M82 ;absolute extrusion mode
;FLAVOR:Marlin
M82 ;absolute extrusion mode
G21
G90
M82
M107 T0
G28
G92 E0
G0 E3 F200
G92 E0 ; reset extrusion distance
M106 S255 ; Enable cooling fan full speed
G1 X-98 Y0 Z0.4 F3000 ; move to arc start
G3 X0 Y-98 I98 Z0.4 E40 F400 ; lay arc stripe 90deg
G92 E0 ; reset extrusion distance
G4 P500 ; wait for 0.5 sec
G0 Z10 E-1 ; Lift 15mm and retract 1mm filament
G4 P2000 ; wait for 5 sec
G0 Z15
M107 ; Disable cooling fan
G1 X0 Y-85 Z4 E0 F3000 ; get off the bed
G92 E0
G92 E0
G1 F1500 E-6.5
;LAYER_COUNT:84
;LAYER:0
M106 S25.5
G1 F600 Z1.3
G0 F3600 X-6.483 Y-18 Z1.3
;TYPE:SKIRT
G1 F600 Z0.3
G1 F1500 E0.3326
G1 X-6.483 Y18 E2.12865
G1 X10.516 Y18 E2.97673
G1 X10.762 Y18.01 E2.98902
G1 X11.587 Y18.078 E3.03031
G1 X12.08 Y18.16 E3.05525
G1 X12.879 Y18.363 E3.09638
G1 X13.345 Y18.523 E3.12096
G1 X14.1 Y18.854 E3.16209
G1 X14.535 Y19.09 E3.18678
G1 X15.226 Y19.541 E3.22794
G1 X15.619 Y19.847 E3.25279
G1 X16.229 Y20.409 E3.29417
G1 X16.258 Y20.441 E3.29633
G1 X16.289 Y20.407 E3.29862
G1 X16.9 Y19.845 E3.34004
G1 X17.29 Y19.542 E3.36468
G1 X17.98 Y19.091 E3.4058
G1 X18.418 Y18.854 E3.43065
G1 X19.174 Y18.523 E3.47182
G1 X19.638 Y18.363 E3.49631
G1 X20.437 Y18.16 E3.53744
G1 X20.93 Y18.078 E3.56237
G1 X21.755 Y18.01 E3.60367
G1 X22.001 Y18 E3.61596
G1 X39 Y18 E4.46404
G1 X39 Y-18 E6.26009
G1 X22.001 Y-18 E7.10817
G1 X21.755 Y-18.01 E7.12045
G1 X20.93 Y-18.078 E7.16175
G1 X20.437 Y-18.16 E7.18669
G1 X19.638 Y-18.363 E7.22781
G1 X19.174 Y-18.523 E7.2523
G1 X18.418 Y-18.854 E7.29347
G1 X17.98 Y-19.091 E7.31832
G1 X17.29 Y-19.542 E7.35945
G1 X16.9 Y-19.845 E7.38409
G1 X16.289 Y-20.407 E7.4255
G1 X16.258 Y-20.441 E7.4278
G1 X16.229 Y-20.409 E7.42995
G1 X15.619 Y-19.847 E7.47133
G1 X15.226 Y-19.541 E7.49618
G1 X14.535 Y-19.09 E7.53735
G1 X14.1 Y-18.854 E7.56204
G1 X13.345 Y-18.523 E7.60317
G1 X12.879 Y-18.363 E7.62775
G1 X12.08 Y-18.16 E7.66888
G1 X11.587 Y-18.078 E7.69381
G1 X10.762 Y-18.01 E7.73511
G1 X10.516 Y-18 E7.74739
G1 X-6.483 Y-18 E8.59548
G0 F3600 X-6.883 Y-18.4
G1 F1500 X-6.883 Y18.4 E10.43144
G1 X10.516 Y18.4 E11.29948
G1 X10.73 Y18.409 E11.31016
G1 X11.555 Y18.477 E11.35146
G1 X11.981 Y18.548 E11.37301
G1 X12.78 Y18.751 E11.41414
G1 X13.184 Y18.89 E11.43545
G1 X13.939 Y19.221 E11.47658
G1 X14.316 Y19.425 E11.49796
G1 X15.007 Y19.876 E11.53913
G1 X15.348 Y20.141 E11.56068
G1 X15.958 Y20.703 E11.60206
G1 X16.269 Y21.017 E11.62411
G1 X16.56 Y20.701 E11.64554
G1 X17.171 Y20.139 E11.68695
G1 X17.508 Y19.877 E11.70825
G1 X18.198 Y19.426 E11.74938
G1 X18.578 Y19.22 E11.77094
G1 X19.334 Y18.889 E11.81212
G1 X19.737 Y18.751 E11.83337
G1 X20.536 Y18.548 E11.8745
G1 X20.962 Y18.477 E11.89604
G1 X21.787 Y18.409 E11.93734
G1 X22.001 Y18.4 E11.94803
G1 X39.4 Y18.4 E12.81607
G1 X39.4 Y-18.4 E14.65203
G1 X22.001 Y-18.4 E15.52007
G1 X21.787 Y-18.409 E15.53075
G1 X20.962 Y-18.477 E15.57205
G1 X20.536 Y-18.548 E15.5936
G1 X19.737 Y-18.751 E15.63473
G1 X19.334 Y-18.889 E15.65598
G1 X18.578 Y-19.22 E15.69715
G1 X18.198 Y-19.426 E15.71872
G1 X17.508 Y-19.877 E15.75984
G1 X17.171 Y-20.139 E15.78114
G1 X16.56 Y-20.701 E15.82255
G1 X16.258 Y-21.031 E15.84487
G1 X15.958 Y-20.703 E15.86705
G1 X15.348 Y-20.141 E15.90843
G1 X15.007 Y-19.876 E15.92997
G1 X14.316 Y-19.425 E15.97114
G1 X13.939 Y-19.221 E15.99253
G1 X13.184 Y-18.89 E16.03366
G1 X12.78 Y-18.751 E16.05497
G1 X11.981 Y-18.548 E16.0961
G1 X11.555 Y-18.477 E16.11765
G1 X10.73 Y-18.409 E16.15894
G1 X10.516 Y-18.4 E16.16963
G1 X-6.883 Y-18.4 E17.03767
G0 F3600 X-7.283 Y-18.8
G1 F1500 X-7.283 Y18.8 E18.91354
G1 X10.516 Y18.8 E19.80154
G1 X10.697 Y18.807 E19.81057
G1 X11.522 Y18.875 E19.85187
G1 X11.883 Y18.936 E19.87014
G1 X12.682 Y19.139 E19.91127
G1 X13.023 Y19.256 E19.92925
G1 X13.778 Y19.587 E19.97038
G1 X14.097 Y19.76 E19.98849
G1 X14.788 Y20.211 E20.02965
G1 X15.077 Y20.435 E20.0479
G1 X15.687 Y20.997 E20.08928
G1 X15.93 Y21.261 E20.10718
G1 X16.258 Y21.681 E20.13376
G1 X16.584 Y21.263 E20.16021
G1 X16.831 Y20.996 E20.17836
G1 X17.442 Y20.434 E20.21977
G1 X17.727 Y20.211 E20.23783
G1 X18.417 Y19.76 E20.27895
G1 X18.739 Y19.587 E20.29719
G1 X19.495 Y19.256 E20.33836
G1 X19.835 Y19.139 E20.3563
G1 X20.634 Y18.936 E20.39743
G1 X20.995 Y18.875 E20.4157
G1 X21.82 Y18.807 E20.457
G1 X22.001 Y18.8 E20.46603
G1 X39.8 Y18.8 E21.35403
G1 X39.8 Y-18.8 E23.2299
G1 X22.001 Y-18.8 E24.1179
G1 X21.82 Y-18.807 E24.12693
G1 X20.995 Y-18.875 E24.16823
G1 X20.634 Y-18.936 E24.1865
G1 X19.835 Y-19.139 E24.22763
G1 X19.495 Y-19.256 E24.24556
G1 X18.739 Y-19.587 E24.28674
G1 X18.417 Y-19.76 E24.30497
G1 X17.727 Y-20.211 E24.3461
G1 X17.442 Y-20.434 E24.36415
G1 X16.831 Y-20.996 E24.40557
G1 X16.584 Y-21.263 E24.42372
G1 X16.258 Y-21.682 E24.4502
G1 X15.93 Y-21.262 E24.47679
G1 X15.687 Y-20.997 E24.49473
G1 X15.077 Y-20.435 E24.53611
G1 X14.788 Y-20.211 E24.55435
G1 X14.097 Y-19.76 E24.59552
G1 X13.778 Y-19.587 E24.61362
G1 X13.023 Y-19.256 E24.65475
G1 X12.682 Y-19.139 E24.67274
G1 X11.883 Y-18.936 E24.71386
G1 X11.522 Y-18.875 E24.73213
G1 X10.697 Y-18.807 E24.77343
G1 X10.516 Y-18.8 E24.78247
G1 X-7.283 Y-18.8 E25.67046
G0 F3600 X-7.683 Y-19.2
G1 F1500 X-7.683 Y19.2 E27.58625
G1 X10.516 Y19.2 E28.4942
G1 X10.664 Y19.206 E28.50159
G1 X11.489 Y19.274 E28.54289
G1 X11.784 Y19.323 E28.55781
G1 X12.583 Y19.526 E28.59893
G1 X12.863 Y19.622 E28.6137
G1 X13.618 Y19.953 E28.65483
G1 X13.879 Y20.095 E28.66965
G1 X14.57 Y20.546 E28.71082
G1 X14.806 Y20.729 E28.72572
G1 X15.416 Y21.291 E28.7671
G1 X15.615 Y21.507 E28.78175
G1 X16.121 Y22.155 E28.82277
G1 X16.259 Y22.366 E28.83535
G1 X16.393 Y22.16 E28.84761
G1 X16.9 Y21.509 E28.88878
G1 X17.101 Y21.29 E28.90361
G1 X17.712 Y20.728 E28.94502
G1 X17.946 Y20.546 E28.95981
G1 X18.636 Y20.095 E29.00094
G1 X18.899 Y19.953 E29.01585
G1 X19.655 Y19.622 E29.05702
G1 X19.934 Y19.526 E29.07174
G1 X20.733 Y19.323 E29.11287
G1 X21.028 Y19.274 E29.12779
G1 X21.853 Y19.206 E29.16909
G1 X22.001 Y19.2 E29.17648
G1 X40.2 Y19.2 E30.08443
G1 X40.2 Y-19.2 E32.00022
G1 X22.001 Y-19.2 E32.90817
G1 X21.853 Y-19.206 E32.91556
G1 X21.028 Y-19.274 E32.95686
G1 X20.733 Y-19.323 E32.97177
G1 X19.934 Y-19.526 E33.0129
G1 X19.655 Y-19.622 E33.02762
G1 X18.899 Y-19.953 E33.0688
G1 X18.636 Y-20.095 E33.08371
G1 X17.946 Y-20.546 E33.12483
G1 X17.712 Y-20.728 E33.13962
G1 X17.101 Y-21.29 E33.18104
G1 X16.9 Y-21.509 E33.19587
G1 X16.393 Y-22.16 E33.23704
G1 X16.258 Y-22.367 E33.24937
G1 X16.123 Y-22.159 E33.26174
G1 X15.615 Y-21.508 E33.30294
G1 X15.416 Y-21.291 E33.31762
G1 X14.806 Y-20.729 E33.359
G1 X14.57 Y-20.546 E33.3739
G1 X13.879 Y-20.095 E33.41507
G1 X13.618 Y-19.953 E33.42989
G1 X12.863 Y-19.622 E33.47102
G1 X12.583 Y-19.526 E33.48579
G1 X11.784 Y-19.323 E33.52692
G1 X11.489 Y-19.274 E33.54184
G1 X10.664 Y-19.206 E33.58314
G1 X10.516 Y-19.2 E33.59053
G1 X-7.683 Y-19.2 E34.49848
G0 F3600 X-8.083 Y-19.6
G1 F1500 X-8.083 Y19.6 E36.45417
G1 X10.516 Y19.6 E37.38208
G1 X10.631 Y19.605 E37.38783
G1 X11.456 Y19.673 E37.42912
G1 X11.686 Y19.711 E37.44075
G1 X12.485 Y19.914 E37.48188
G1 X12.702 Y19.989 E37.49334
G1 X13.457 Y20.32 E37.53447
G1 X13.66 Y20.43 E37.54598
G1 X14.351 Y20.881 E37.58715
G1 X14.535 Y21.023 E37.59875
G1 X15.145 Y21.585 E37.64013
G1 X15.299 Y21.753 E37.6515
G1 X15.805 Y22.401 E37.69252
G1 X15.934 Y22.598 E37.70426
G1 X16.259 Y23.2 E37.73839
G1 X16.581 Y22.602 E37.77228
G1 X16.708 Y22.406 E37.78393
G1 X17.215 Y21.755 E37.8251
G1 X17.372 Y21.585 E37.83664
G1 X17.983 Y21.023 E37.87806
G1 X18.165 Y20.881 E37.88958
G1 X18.855 Y20.43 E37.9307
G1 X19.059 Y20.32 E37.94226
G1 X19.815 Y19.989 E37.98344
G1 X20.032 Y19.914 E37.99489
G1 X20.831 Y19.711 E38.03602
G1 X21.061 Y19.673 E38.04765
G1 X21.886 Y19.605 E38.08895
G1 X22.001 Y19.6 E38.09469
G1 X40.6 Y19.6 E39.0226
G1 X40.6 Y-19.6 E40.9783
G1 X22.001 Y-19.6 E41.9062
G1 X21.886 Y-19.605 E41.91195
G1 X21.061 Y-19.673 E41.95325
G1 X20.831 Y-19.711 E41.96488
G1 X20.032 Y-19.914 E42.00601
G1 X19.815 Y-19.989 E42.01746
G1 X19.059 Y-20.32 E42.05863
G1 X18.855 Y-20.43 E42.0702
G1 X18.165 Y-20.881 E42.11132
G1 X17.983 Y-21.023 E42.12284
G1 X17.372 Y-21.585 E42.16426
G1 X17.215 Y-21.755 E42.1758
G1 X16.708 Y-22.406 E42.21697
G1 X16.581 Y-22.602 E42.22862
G1 X16.259 Y-23.2 E42.2625
G1 X15.936 Y-22.602 E42.29641
G1 X15.808 Y-22.405 E42.30813
G1 X15.3 Y-21.754 E42.34933
G1 X15.145 Y-21.585 E42.36077
G1 X14.535 Y-21.023 E42.40215
G1 X14.351 Y-20.881 E42.41375
G1 X13.66 Y-20.43 E42.45491
G1 X13.457 Y-20.32 E42.46643
G1 X12.702 Y-19.989 E42.50756
G1 X12.485 Y-19.914 E42.51901
G1 X11.686 Y-19.711 E42.56014
G1 X11.456 Y-19.673 E42.57177
G1 X10.631 Y-19.605 E42.61307
G1 X10.516 Y-19.6 E42.61882
G1 X-8.083 Y-19.6 E43.54672
G0 F3600 X-8.483 Y-20
G1 F1500 X-8.483 Y20 E45.54233
G1 X10.516 Y20 E46.4902
G1 X10.598 Y20.003 E46.49429
G1 X11.423 Y20.071 E46.53559
G1 X11.587 Y20.099 E46.54389
G1 X12.386 Y20.302 E46.58502
G1 X12.542 Y20.355 E46.59324
G1 X13.297 Y20.686 E46.63436
G1 X13.442 Y20.765 E46.6426
G1 X14.133 Y21.216 E46.68377
G1 X14.264 Y21.318 E46.69205
G1 X14.874 Y21.88 E46.73343
G1 X14.984 Y22 E46.74155
G1 X15.49 Y22.648 E46.78257
G1 X15.582 Y22.788 E46.79093
G1 X15.976 Y23.518 E46.83232
G1 X16.042 Y23.668 E46.84049
G1 X16.259 Y24.299 E46.87378
G1 X16.475 Y23.668 E46.90706
G1 X16.541 Y23.518 E46.91523
G1 X16.933 Y22.791 E46.95644
G1 X17.024 Y22.652 E46.96473
G1 X17.531 Y22.001 E47.00589
G1 X17.643 Y21.879 E47.01416
G1 X18.254 Y21.317 E47.05557
G1 X18.384 Y21.216 E47.06379
G1 X19.074 Y20.765 E47.10491
G1 X19.22 Y20.686 E47.11319
G1 X19.976 Y20.355 E47.15437
G1 X20.131 Y20.302 E47.16254
G1 X20.93 Y20.099 E47.20367
G1 X21.094 Y20.071 E47.21197
G1 X21.919 Y20.003 E47.25327
G1 X22.001 Y20 E47.25736
G1 X41 Y20 E48.20523
G1 X41 Y-20 E50.20083
G1 X22.001 Y-20 E51.1487
G1 X21.919 Y-20.003 E51.15279
G1 X21.094 Y-20.071 E51.19409
G1 X20.93 Y-20.099 E51.20239
G1 X20.131 Y-20.302 E51.24352
G1 X19.976 Y-20.355 E51.25169
G1 X19.22 Y-20.686 E51.29287
G1 X19.074 Y-20.765 E51.30115
G1 X18.384 Y-21.216 E51.34227
G1 X18.254 Y-21.317 E51.35049
G1 X17.643 Y-21.879 E51.3919
G1 X17.531 Y-22.001 E51.40017
G1 X17.024 Y-22.652 E51.44133
G1 X16.933 Y-22.791 E51.44962
G1 X16.541 Y-23.518 E51.49083
G1 X16.475 Y-23.668 E51.499
G1 X16.259 Y-24.299 E51.53228
G1 X16.042 Y-23.668 E51.56557
G1 X15.976 Y-23.518 E51.57374
G1 X15.584 Y-22.791 E51.61495
G1 X15.492 Y-22.651 E51.62331
G1 X14.984 Y-22 E51.6645
G1 X14.874 Y-21.88 E51.67263
G1 X14.264 Y-21.318 E51.71401
G1 X14.133 Y-21.216 E51.72229
G1 X13.442 Y-20.765 E51.76346
G1 X13.297 Y-20.686 E51.77169
G1 X12.542 Y-20.355 E51.81282
G1 X12.386 Y-20.302 E51.82104
G1 X11.587 Y-20.099 E51.86217
G1 X11.423 Y-20.071 E51.87047
G1 X10.598 Y-20.003 E51.91177
G1 X10.516 Y-20 E51.91586
G1 X-8.483 Y-20 E52.86373
G0 F3600 X-8.883 Y-20.4
G1 F1500 X-8.883 Y20.4 E54.89925
G1 X10.516 Y20.4 E55.86707
G1 X10.565 Y20.402 E55.86952
G1 X11.39 Y20.47 E55.91081
G1 X11.489 Y20.486 E55.91582
G1 X12.288 Y20.689 E55.95695
G1 X12.381 Y20.721 E55.96185
G1 X13.136 Y21.052 E56.00298
G1 X13.223 Y21.1 E56.00794
G1 X13.914 Y21.551 E56.04911
G1 X13.993 Y21.612 E56.05409
G1 X14.603 Y22.174 E56.09547
G1 X14.669 Y22.246 E56.10034
G1 X15.175 Y22.894 E56.14136
G1 X15.23 Y22.978 E56.14636
G1 X15.624 Y23.708 E56.18775
G1 X15.664 Y23.798 E56.19266
G1 X15.931 Y24.576 E56.2337
G1 X15.955 Y24.672 E56.23864
G1 X16.092 Y25.489 E56.27997
G1 X16.1 Y25.588 E56.28492
G1 X16.1 Y26.412 E56.32603
G1 X16.092 Y26.511 E56.33099
G1 X15.956 Y27.325 E56.37216
G1 X15.932 Y27.421 E56.3771
G1 X15.664 Y28.202 E56.41829
G1 X15.624 Y28.292 E56.42321
G1 X15.232 Y29.019 E56.46441
G1 X15.177 Y29.103 E56.46942
G1 X14.669 Y29.754 E56.51062
G1 X14.603 Y29.826 E56.51549
G1 X13.993 Y30.388 E56.55687
G1 X13.914 Y30.449 E56.56185
G1 X13.223 Y30.9 E56.60302
G1 X13.136 Y30.948 E56.60798
G1 X12.381 Y31.279 E56.6491
G1 X12.288 Y31.311 E56.65401
G1 X11.489 Y31.514 E56.69514
G1 X11.39 Y31.53 E56.70014
G1 X10.565 Y31.598 E56.74144
G1 X10.516 Y31.6 E56.74389
G1 X-9.015 Y31.6 E57.71829
G1 X-13.916 Y51.204 E58.72644
G1 X-14.077 Y51.548 E58.74539
G1 X-14.272 Y51.766 E58.75998
G1 X-14.472 Y51.902 E58.77205
G1 X-14.736 Y52.002 E58.78613
G1 X-14.965 Y52.03 E58.79764
G1 X-15.246 Y51.997 E58.81176
G1 X-15.473 Y51.913 E58.82383
G1 X-15.71 Y51.752 E58.83813
G1 X-15.868 Y51.577 E58.84989
G1 X-16.004 Y51.325 E58.86418
G1 X-16.082 Y50.946 E58.88348
G1 X-16.083 Y-50.937 E63.96645
G1 X-16.006 Y-51.319 E63.98589
G1 X-15.869 Y-51.575 E64.00037
G1 X-15.708 Y-51.753 E64.01235
G1 X-15.471 Y-51.914 E64.02664
G1 X-15.247 Y-51.997 E64.03856
G1 X-14.967 Y-52.03 E64.05263
G1 X-14.736 Y-52.002 E64.06423
G1 X-14.467 Y-51.899 E64.07861
G1 X-14.266 Y-51.76 E64.0908
G1 X-14.075 Y-51.544 E64.10518
G1 X-13.916 Y-51.204 E64.12391
G1 X-9.015 Y-31.6 E65.13206
G1 X10.516 Y-31.6 E66.10646
G1 X10.565 Y-31.598 E66.10891
G1 X11.39 Y-31.53 E66.15021
G1 X11.489 Y-31.514 E66.15521
G1 X12.288 Y-31.311 E66.19634
G1 X12.381 Y-31.279 E66.20125
G1 X13.136 Y-30.948 E66.24237
G1 X13.223 Y-30.9 E66.24733
G1 X13.914 Y-30.449 E66.2885
G1 X13.993 Y-30.388 E66.29348
G1 X14.603 Y-29.826 E66.33486
G1 X14.669 Y-29.754 E66.33973
G1 X15.175 Y-29.106 E66.38075
G1 X15.23 Y-29.022 E66.38576
G1 X15.624 Y-28.292 E66.42714
G1 X15.664 Y-28.202 E66.43206
G1 X15.931 Y-27.424 E66.47309
G1 X15.955 Y-27.328 E66.47803
G1 X16.092 Y-26.511 E66.51936
G1 X16.1 Y-26.412 E66.52432
G1 X16.1 Y-25.588 E66.56543
G1 X16.092 Y-25.489 E66.57038
G1 X15.956 Y-24.675 E66.61155
G1 X15.932 Y-24.579 E66.61649
G1 X15.664 Y-23.798 E66.65769
G1 X15.624 Y-23.708 E66.6626
G1 X15.232 Y-22.981 E66.70381
G1 X15.177 Y-22.897 E66.70882
G1 X14.669 Y-22.246 E66.75001
G1 X14.603 Y-22.174 E66.75489
G1 X13.993 Y-21.612 E66.79627
G1 X13.914 Y-21.551 E66.80124
G1 X13.223 Y-21.1 E66.84241
G1 X13.136 Y-21.052 E66.84737
G1 X12.381 Y-20.721 E66.8885
G1 X12.288 Y-20.689 E66.8934
G1 X11.489 Y-20.486 E66.93453
G1 X11.39 Y-20.47 E66.93954
G1 X10.565 Y-20.402 E66.98083
G1 X10.516 Y-20.4 E66.98328
G1 X-8.883 Y-20.4 E67.9511
G0 F3600 X-9.283 Y-20.8
G1 F1500 X-9.283 Y20.8 E70.02653
G1 X10.532 Y20.801 E71.01511
G1 X11.357 Y20.869 E71.05641
G1 X11.39 Y20.874 E71.05807
G1 X12.189 Y21.077 E71.0992
G1 X12.22 Y21.088 E71.10084
G1 X12.975 Y21.419 E71.14197
G1 X13.004 Y21.435 E71.14362
G1 X13.695 Y21.886 E71.18479
G1 X13.722 Y21.906 E71.18647
G1 X14.332 Y22.468 E71.22785
G1 X14.354 Y22.492 E71.22947
G1 X14.86 Y23.14 E71.27049
G1 X14.878 Y23.168 E71.27215
G1 X15.272 Y23.898 E71.31353
G1 X15.285 Y23.928 E71.31517
G1 X15.552 Y24.706 E71.3562
G1 X15.56 Y24.738 E71.35785
G1 X15.697 Y25.555 E71.39918
G1 X15.7 Y25.588 E71.40083
G1 X15.7 Y26.412 E71.44194
G1 X15.697 Y26.445 E71.44359
G1 X15.561 Y27.259 E71.48477
G1 X15.553 Y27.291 E71.48641
G1 X15.285 Y28.072 E71.52761
G1 X15.272 Y28.102 E71.52924
G1 X14.88 Y28.829 E71.57045
G1 X14.862 Y28.857 E71.57211
G1 X14.354 Y29.508 E71.6133
G1 X14.332 Y29.532 E71.61493
G1 X13.722 Y30.094 E71.65631
G1 X13.695 Y30.114 E71.65798
G1 X13.004 Y30.565 E71.69915
G1 X12.975 Y30.581 E71.7008
G1 X12.22 Y30.912 E71.74193
G1 X12.189 Y30.923 E71.74357
G1 X11.39 Y31.126 E71.7847
G1 X11.357 Y31.131 E71.78637
G1 X10.516 Y31.2 E71.82846
G1 X-9.328 Y31.2 E72.81849
G1 X-14.304 Y51.107 E73.84221
G1 X-14.497 Y51.435 E73.86119
G1 X-14.785 Y51.605 E73.87788
G1 X-15.107 Y51.622 E73.89397
G1 X-15.413 Y51.484 E73.91071
G1 X-15.617 Y51.225 E73.92716
G1 X-15.682 Y50.946 E73.94145
