;FLAVOR:Marlin
;TIME:1158
;Filament used: 0.223893m
;Layer height: 0.1
;MINX:-53.03
;MINY:-8.791
;MINZ:0.3
;MAXX:48.83
;MAXY:8.79
;MAXZ:12
;Generated with Cura_SteamEngine 4.13.1
M140 S50
M105
M190 S50
M104 S210
M105
M109 S210
M82 ;absolute extrusion mode
;FLAVOR:Marlin
M82 ;absolute extrusion mode
G21
G90
M82
M107 T0
G28
G92 E0
G0 E3 F200
G92 E0 ; reset extrusion distance
M106 S255 ; Enable cooling fan full speed
G1 X-98 Y0 Z0.4 F3000 ; move to arc start
G3 X0 Y-98 I98 Z0.4 E40 F400 ; lay arc stripe 90deg
G92 E0 ; reset extrusion distance
G4 P500 ; wait for 0.5 sec
G0 Z10 E-1 ; Lift 15mm and retract 1mm filament
G4 P2000 ; wait for 5 sec
G0 Z15
M107 ; Disable cooling fan
G1 X0 Y-85 Z4 E0 F3000 ; get off the bed
G92 E0
G92 E0
G1 F1500 E-6.5
;LAYER_COUNT:68
;LAYER:0
M106 S25.5
G1 F600 Z1.3
G0 F3600 X-39.959 Y0.215 Z1.3
;TYPE:SKIRT
G1 F600 Z0.3
G1 F1500 E0.3326
G1 F1200 X-39.885 Y3.706 E0.50681
G1 X-39.813 Y5.54 E0.59838
G1 X-39.835 Y6.013 E0.622
G1 X-39.935 Y6.475 E0.64558
G1 X-40.134 Y6.974 E0.67238
G1 X-40.359 Y7.39 E0.69598
G1 X-40.65 Y7.762 E0.71954
G1 X-41.001 Y8.079 E0.74314
G1 X-41.429 Y8.349 E0.76839
G1 X-42.128 Y8.66 E0.80656
G1 X-42.589 Y8.762 E0.83011
G1 X-43.152 Y8.79 E0.85823
G1 X-43.242 Y8.79 E0.86272
G1 X-44.635 Y8.764 E0.93223
G1 X-44.689 Y8.769 E0.93494
G1 X-45.543 Y8.748 E0.97756
G1 X-49.368 Y8.784 E1.1684
G1 X-50.033 Y8.78 E1.20157
G1 X-50.502 Y8.721 E1.22516
G1 X-51.207 Y8.467 E1.26254
G1 X-51.8 Y8.113 E1.297
G1 X-52.152 Y7.796 E1.32063
G1 X-52.57 Y7.216 E1.3563
G1 X-52.875 Y6.569 E1.39198
G1 X-52.993 Y6.085 E1.41684
G1 X-53.027 Y5.558 E1.44319
G1 X-53.004 Y4.824 E1.47982
G1 X-52.923 Y3.063 E1.56777
G1 X-52.875 Y0.289 E1.70619
G1 X-52.904 Y-2.452 E1.84295
G1 X-52.999 Y-4.561 E1.94827
G1 X-53.03 Y-5.533 E1.99679
G1 X-53.005 Y-6.005 E2.02037
G1 X-52.858 Y-6.591 E2.05051
G1 X-52.585 Y-7.217 E2.08458
G1 X-52.315 Y-7.605 E2.10817
G1 X-51.858 Y-8.054 E2.14013
G1 X-51.478 Y-8.336 E2.16374
G1 X-51.056 Y-8.55 E2.18734
G1 X-50.547 Y-8.705 E2.21389
G1 X-49.91 Y-8.787 E2.24593
G1 X-49.596 Y-8.79 E2.2616
G1 X-48.203 Y-8.764 E2.33111
G1 X-48.149 Y-8.769 E2.33381
G1 X-47.295 Y-8.748 E2.37643
G1 X-43.47 Y-8.784 E2.56727
G1 X-43.215 Y-8.791 E2.58
G1 X-42.336 Y-8.721 E2.62399
G1 X-41.883 Y-8.583 E2.64761
G1 X-41.412 Y-8.351 E2.67381
G1 X-41.014 Y-8.095 E2.69742
G1 X-40.665 Y-7.776 E2.72101
G1 X-40.252 Y-7.193 E2.75665
G1 X-39.967 Y-6.575 E2.7906
G1 X-39.857 Y-6.115 E2.8142
G1 X-39.818 Y-5.54 E2.84295
G1 X-39.818 Y-5.33 E2.85343
G1 X-39.927 Y-2.544 E2.99253
G1 X-39.959 Y0.215 E3.13019
G0 F3600 X-40.359 Y0.215
G1 F1200 X-40.285 Y3.722 E3.30519
G1 X-40.213 Y5.556 E3.39676
G1 X-40.236 Y5.993 E3.41859
G1 X-40.411 Y6.61 E3.45059
G1 X-40.711 Y7.197 E3.48348
G1 X-40.988 Y7.536 E3.50532
G1 X-41.322 Y7.819 E3.52716
G1 X-41.871 Y8.125 E3.55852
G1 X-42.278 Y8.288 E3.58039
G1 X-42.929 Y8.387 E3.61324
G1 X-43.234 Y8.39 E3.62846
G1 X-44.574 Y8.365 E3.69532
G1 X-44.679 Y8.369 E3.70057
G1 X-45.537 Y8.348 E3.74338
G1 X-49.382 Y8.384 E3.93522
G1 X-50.016 Y8.381 E3.96685
G1 X-50.45 Y8.322 E3.9887
G1 X-51.022 Y8.112 E4.0191
G1 X-51.584 Y7.774 E4.05182
G1 X-51.904 Y7.474 E4.0737
G1 X-52.218 Y7.026 E4.101
G1 X-52.507 Y6.409 E4.13499
G1 X-52.598 Y6.022 E4.15482
G1 X-52.627 Y5.57 E4.17742
G1 X-52.604 Y4.842 E4.21376
G1 X-52.523 Y3.087 E4.30141
G1 X-52.474 Y0.291 E4.44092
G1 X-52.503 Y-2.445 E4.57743
G1 X-52.599 Y-4.573 E4.68371
G1 X-52.63 Y-5.545 E4.73222
G1 X-52.604 Y-5.982 E4.75406
G1 X-52.41 Y-6.65 E4.78877
G1 X-52.222 Y-7.045 E4.81059
G1 X-51.965 Y-7.4 E4.83246
G1 X-51.593 Y-7.754 E4.85808
G1 X-51.24 Y-8.013 E4.87992
G1 X-50.584 Y-8.283 E4.91531
G1 X-50.451 Y-8.316 E4.92215
G1 X-49.905 Y-8.387 E4.94962
G1 X-49.604 Y-8.39 E4.96464
G1 X-48.264 Y-8.365 E5.0315
G1 X-48.159 Y-8.369 E5.03674
G1 X-47.301 Y-8.348 E5.07956
G1 X-43.456 Y-8.384 E5.2714
G1 X-43.204 Y-8.391 E5.28397
G1 X-42.388 Y-8.323 E5.32483
G1 X-41.799 Y-8.104 E5.35618
G1 X-41.233 Y-7.758 E5.38927
G1 X-40.916 Y-7.456 E5.41112
G1 X-40.605 Y-7.005 E5.43845
G1 X-40.337 Y-6.418 E5.47064
G1 X-40.227 Y-5.778 E5.50304
G1 X-40.218 Y-5.346 E5.5246
G1 X-40.327 Y-2.564 E5.6635
G1 X-40.359 Y0.215 E5.80215
G0 F3600 X-40.759 Y0.196
G1 F1200 X-40.684 Y3.774 E5.9807
G1 X-40.613 Y5.572 E6.07047
G1 X-40.637 Y5.97 E6.09036
G1 X-40.778 Y6.45 E6.11532
G1 X-41.062 Y7.002 E6.14629
G1 X-41.323 Y7.305 E6.16624
G1 X-41.792 Y7.636 E6.19488
G1 X-42.425 Y7.914 E6.22937
G1 X-42.935 Y7.987 E6.25508
G1 X-43.227 Y7.99 E6.26965
G1 X-44.601 Y7.964 E6.33821
G1 X-44.669 Y7.969 E6.34161
G1 X-45.531 Y7.948 E6.38463
G1 X-49.397 Y7.984 E6.57751
G1 X-49.999 Y7.981 E6.60755
G1 X-50.394 Y7.924 E6.62746
G1 X-51.032 Y7.656 E6.66198
G1 X-51.366 Y7.437 E6.68191
G1 X-51.65 Y7.156 E6.70184
G1 X-51.982 Y6.621 E6.73325
G1 X-52.137 Y6.253 E6.75317
G1 X-52.203 Y5.959 E6.76821
G1 X-52.227 Y5.582 E6.78705
G1 X-52.205 Y4.861 E6.82304
G1 X-52.123 Y3.079 E6.91204
G1 X-52.074 Y0.294 E7.05101
G1 X-52.104 Y-2.468 E7.18881
G1 X-52.199 Y-4.586 E7.29458
G1 X-52.23 Y-5.558 E7.3431
G1 X-52.203 Y-5.957 E7.36305
G1 X-52.035 Y-6.512 E7.39198
G1 X-51.86 Y-6.871 E7.41191
G1 X-51.481 Y-7.32 E7.44122
G1 X-51.004 Y-7.687 E7.47125
G1 X-50.488 Y-7.895 E7.499
G1 X-49.9 Y-7.987 E7.5287
G1 X-49.611 Y-7.99 E7.54312
G1 X-48.237 Y-7.964 E7.61168
G1 X-48.169 Y-7.969 E7.61508
G1 X-47.307 Y-7.948 E7.6581
G1 X-43.441 Y-7.984 E7.85098
G1 X-43.193 Y-7.991 E7.86336
G1 X-42.443 Y-7.925 E7.90092
G1 X-41.786 Y-7.644 E7.93657
G1 X-41.454 Y-7.423 E7.95647
G1 X-41.172 Y-7.14 E7.9764
G1 X-40.86 Y-6.633 E8.0061
G1 X-40.708 Y-6.264 E8.02601
G1 X-40.626 Y-5.764 E8.05129
G1 X-40.618 Y-5.362 E8.07135
G1 X-40.727 Y-2.591 E8.2097
G1 X-40.759 Y0.196 E8.34876
G0 F3600 X-41.159 Y0.199
G1 F1200 X-41.084 Y3.753 E8.5261
G1 X-41.012 Y5.587 E8.61767
G1 X-41.038 Y5.944 E8.63553
G1 X-41.233 Y6.494 E8.66464
G1 X-41.412 Y6.803 E8.68246
G1 X-41.655 Y7.065 E8.70029
G1 X-42.235 Y7.413 E8.73403
G1 X-42.569 Y7.538 E8.75183
G1 X-43.168 Y7.59 E8.78182
G1 X-44.602 Y7.564 E8.85338
G1 X-44.66 Y7.57 E8.85629
G1 X-45.555 Y7.548 E8.90095
G1 X-49.405 Y7.584 E9.09304
G1 X-49.657 Y7.591 E9.10561
G1 X-50.335 Y7.527 E9.13959
G1 X-50.847 Y7.301 E9.16751
G1 X-51.143 Y7.102 E9.18531
G1 X-51.388 Y6.842 E9.20313
G1 X-51.631 Y6.43 E9.22699
G1 X-51.804 Y5.921 E9.25381
G1 X-51.827 Y5.594 E9.27017
G1 X-51.805 Y4.879 E9.30586
G1 X-51.723 Y3.104 E9.39451
G1 X-51.674 Y0.28 E9.53542
G1 X-51.704 Y-2.504 E9.67432
G1 X-51.799 Y-4.599 E9.77895
G1 X-51.83 Y-5.571 E9.82746
G1 X-51.802 Y-5.927 E9.84528
G1 X-51.659 Y-6.373 E9.86865
G1 X-51.499 Y-6.693 E9.8865
G1 X-51.064 Y-7.154 E9.91812
G1 X-50.771 Y-7.359 E9.93596
G1 X-50.258 Y-7.54 E9.9631
G1 X-49.67 Y-7.59 E9.99254
G1 X-48.236 Y-7.564 E10.06409
G1 X-48.178 Y-7.57 E10.067
G1 X-47.283 Y-7.548 E10.11167
G1 X-43.433 Y-7.584 E10.30375
G1 X-42.855 Y-7.582 E10.33259
G1 X-42.502 Y-7.527 E10.35042
G1 X-41.974 Y-7.291 E10.37927
G1 X-41.679 Y-7.089 E10.39711
G1 X-41.436 Y-6.827 E10.41493
G1 X-41.213 Y-6.445 E10.437
G1 X-41.081 Y-6.113 E10.45483
G1 X-41.017 Y-5.497 E10.48572
G1 X-41.017 Y-5.377 E10.49171
G1 X-41.128 Y-2.551 E10.63281
G1 X-41.159 Y0.199 E10.77002
G0 F3600 X-41.559 Y0.19
G1 F1200 X-41.483 Y3.791 E10.94971
G1 X-41.412 Y5.603 E11.04018
G1 X-41.44 Y5.911 E11.05561
G1 X-41.6 Y6.334 E11.07817
G1 X-41.759 Y6.599 E11.09359
G1 X-41.981 Y6.815 E11.10904
G1 X-42.416 Y7.056 E11.13386
G1 X-42.707 Y7.16 E11.14927
G1 X-43.212 Y7.19 E11.17451
G1 X-44.602 Y7.164 E11.24387
G1 X-44.65 Y7.17 E11.24628
G1 X-45.549 Y7.148 E11.29115
G1 X-49.386 Y7.184 E11.48259
G1 X-49.965 Y7.182 E11.51147
G1 X-50.27 Y7.129 E11.52692
G1 X-50.662 Y6.946 E11.5485
G1 X-50.916 Y6.769 E11.56395
G1 X-51.163 Y6.454 E11.58392
G1 X-51.279 Y6.24 E11.59606
G1 X-51.413 Y5.833 E11.61744
G1 X-51.427 Y5.606 E11.62878
G1 X-51.406 Y4.898 E11.66412
G1 X-51.322 Y3.081 E11.75487
G1 X-51.274 Y0.287 E11.89428
G1 X-51.304 Y-2.483 E12.03249
G1 X-51.399 Y-4.612 E12.13881
G1 X-51.43 Y-5.584 E12.18733
G1 X-51.357 Y-6.037 E12.21022
G1 X-51.14 Y-6.509 E12.23614
G1 X-50.8 Y-6.854 E12.2603
G1 X-50.543 Y-7.027 E12.27576
G1 X-50.162 Y-7.152 E12.29576
G1 X-49.626 Y-7.19 E12.32257
G1 X-48.236 Y-7.164 E12.39193
G1 X-48.188 Y-7.17 E12.39435
G1 X-47.289 Y-7.148 E12.43921
G1 X-43.452 Y-7.184 E12.63065
G1 X-43.17 Y-7.192 E12.64472
G1 X-42.568 Y-7.129 E12.67492
G1 X-42.161 Y-6.937 E12.69737
G1 X-41.909 Y-6.759 E12.71276
G1 X-41.566 Y-6.257 E12.7431
G1 X-41.457 Y-5.968 E12.75851
G1 X-41.417 Y-5.393 E12.78726
G1 X-41.527 Y-2.6 E12.92671
G1 X-41.559 Y0.19 E13.06592
G1 F1500 E6.56592
G1 F600 Z1.3
;MESH:Gardine.3mf(1)
G0 F3600 X-46.117 Y-2.152 Z1.3
;TYPE:WALL-INNER
G1 F600 Z0.3
G1 F1500 E13.39852
G1 F1200 X-46.254 Y-1.778 E13.41839
G1 X-46.269 Y-1.632 E13.42571
G1 X-46.268 Y1.679 E13.5909
G1 X-46.166 Y2.05 E13.61009
G1 X-45.964 Y2.333 E13.62744
G1 X-45.846 Y2.4 E13.63421
G1 X-46.989 Y2.401 E13.69123
G1 X-46.736 Y2.171 E13.70829
G1 X-46.587 Y1.812 E13.72769
G1 X-46.569 Y1.628 E13.73604
G1 X-46.57 Y-1.659 E13.86081
G1 X-46.64 Y-1.995 E13.87793
G1 X-46.872 Y-2.333 E13.89838
G1 X-46.992 Y-2.4 E13.90524
G1 X-45.849 Y-2.401 E13.96227
G1 X-46.117 Y-2.152 E13.98052
G0 F3600 X-45.774 Y-1.924
;TYPE:WALL-OUTER
G1 F1200 X-45.861 Y-1.687 E13.99311
G1 X-45.869 Y-1.611 E13.99692
G1 X-45.868 Y1.625 E14.15837
G1 X-45.799 Y1.876 E14.17136
G1 X-45.69 Y2.029 E14.18073
G1 X-45.434 Y2.174 E14.19541
G1 X-45.28 Y2.2 E14.2032
G1 X-44.203 Y2.201 E14.25693
G1 X-44.053 Y2.262 E14.26501
G1 X-44.005 Y2.337 E14.26945
G1 X-42.813 Y5.519 E14.43898
G1 X-42.804 Y5.652 E14.44563
G1 X-42.913 Y5.781 E14.45405
G1 X-43.268 Y5.789 E14.47177
G1 X-43.38 Y5.703 E14.47881
G1 X-43.401 Y5.66 E14.4812
G1 X-44.33 Y3.18 E14.61332
G1 X-44.455 Y2.985 E14.62488
G1 X-44.653 Y2.847 E14.63692
G1 X-44.879 Y2.8 E14.64844
G1 X-47.972 Y2.801 E14.80275
G1 X-48.208 Y2.859 E14.81487
G1 X-48.383 Y2.985 E14.82563
G1 X-48.507 Y3.18 E14.83716
G1 X-49.437 Y5.66 E14.9693
G1 X-49.547 Y5.782 E14.97749
G1 X-49.884 Y5.794 E14.99432
G1 X-50.015 Y5.696 E15.00248
G1 X-50.038 Y5.572 E15.00877
G1 X-50.023 Y5.514 E15.01176
G1 X-48.83 Y2.335 E15.18116
G1 X-48.72 Y2.217 E15.18921
G1 X-48.632 Y2.2 E15.19368
G1 X-47.544 Y2.199 E15.24796
G1 X-47.278 Y2.123 E15.26176
G1 X-47.071 Y1.935 E15.27572
G1 X-46.979 Y1.714 E15.28766
G1 X-46.969 Y1.609 E15.29292
G1 X-46.97 Y-1.618 E15.45392
G1 X-47.015 Y-1.835 E15.46497
G1 X-47.149 Y-2.03 E15.47678
G1 X-47.407 Y-2.175 E15.49154
G1 X-47.558 Y-2.2 E15.49918
G1 X-48.635 Y-2.201 E15.55291
G1 X-48.785 Y-2.262 E15.56099
G1 X-48.829 Y-2.331 E15.56507
G1 X-50.025 Y-5.523 E15.73513
G1 X-50.026 Y-5.668 E15.74237
G1 X-49.926 Y-5.78 E15.74986
G1 X-49.57 Y-5.789 E15.76762
G1 X-49.457 Y-5.703 E15.77471
G1 X-49.437 Y-5.663 E15.77694
G1 X-48.507 Y-3.18 E15.90922
G1 X-48.383 Y-2.985 E15.92075
G1 X-48.185 Y-2.847 E15.93279
G1 X-47.959 Y-2.8 E15.94431
G1 X-44.866 Y-2.801 E16.09862
G1 X-44.631 Y-2.859 E16.11069
G1 X-44.455 Y-2.985 E16.12149
G1 X-44.33 Y-3.18 E16.13305
G1 X-43.398 Y-5.665 E16.26546
G1 X-43.288 Y-5.783 E16.27351
G1 X-42.914 Y-5.781 E16.29217
G1 X-42.806 Y-5.658 E16.30033
G1 X-42.814 Y-5.514 E16.30753
G1 X-44.004 Y-2.342 E16.47655
G1 X-44.115 Y-2.218 E16.48485
G1 X-44.206 Y-2.2 E16.48948
G1 X-45.294 Y-2.199 E16.54376
G1 X-45.56 Y-2.123 E16.55756
G1 X-45.774 Y-1.924 E16.57214
G0 F3600 X-45.843 Y-1.736
G0 X-45.617 Y-2.342
M104 S204
;TYPE:SKIN
G1 F1200 X-45.484 Y-2.492 E16.578
G1 X-44.398 Y-2.537 E16.60979
G1 X-44.059 Y-3.046 E16.62768
G1 X-43.127 Y-5.509 E16.7047
G0 F3600 X-43.05 Y-5.432
G0 X-44.427 Y-2.958
G0 X-45.383 Y-2.604
G0 X-47.158 Y-2.469
G0 X-47.226 Y-2.536
G1 F1200 X-47.45 Y-2.478 E16.71131
G1 X-48.059 Y-2.521 E16.72877
G1 X-48.559 Y-2.738 E16.74435
G1 X-49.06 Y-3.805 E16.77805
G1 X-49.568 Y-5.162 E16.81948
G1 X-49.635 Y-5.511 E16.82964
G0 F3600 X-49.713 Y-5.589
G0 X-48.733 Y-2.629
G1 F1200 X-48.499 Y-2.395 E16.83789
G0 F3600 X-47.371 Y-2.41
G0 X-46.731 Y-1.64
G0 X-46.745 Y1.773
G0 X-48.516 Y2.394
G0 X-48.38 Y2.53
G1 F1200 X-48.553 Y2.64 E16.84441
G1 X-48.99 Y3.618 E16.87847
G1 X-49.684 Y5.468 E16.94128
G0 F3600 X-49.766 Y5.387
G0 X-48.412 Y2.957
G0 X-48.125 Y2.502
G1 F1200 X-47.845 Y2.499 E16.95124
G1 X-47.294 Y2.485 E16.97085
G0 F3600 X-47.174 Y2.5
G0 X-45.664 Y2.419
G0 X-45.571 Y2.511
G1 F1200 X-45.311 Y2.488 E16.9786
G1 X-44.702 Y2.531 E16.99673
G1 X-44.262 Y2.688 E17.0106
G1 X-43.811 Y3.705 E17.04364
G1 X-43.186 Y5.461 E17.09899
G0 F3600 X-43.059 Y5.588
G0 X-44.139 Y2.529
G1 F1200 X-44.272 Y2.396 E17.10368
G0 F3600 X-44.326 Y2.619
;MESH:NONMESH
G0 F600 X-44.326 Y2.619 Z0.4
G0 F3600 X-45.475 Y2.41
G0 X-46.107 Y1.656
G0 X-46.097 Y-1.401
G0 X-46.011 Y-2.284
;TIME_ELAPSED:21.154605
;LAYER:1
M106 S255
;TYPE:WALL-INNER
;MESH:Gardine.3mf(1)
G1 F1200 X-46.217 Y-1.928 E17.11052
G1 X-46.269 Y-1.648 E17.11525
G1 X-46.269 Y1.657 E17.17022
G1 X-46.196 Y1.999 E17.17603
G1 X-45.953 Y2.344 E17.18305
G1 X-45.851 Y2.4 E17.18499
G1 X-46.991 Y2.401 E17.20394
G1 X-46.829 Y2.286 E17.20725
G1 X-46.62 Y1.926 E17.21417
G1 X-46.569 Y1.646 E17.2189
G1 X-46.569 Y-1.655 E17.2601
G1 X-46.64 Y-1.998 E17.26593
G1 X-46.886 Y-2.344 E17.27299
G1 X-46.988 Y-2.4 E17.27492
G1 X-45.847 Y-2.401 E17.2939
G1 X-46.011 Y-2.284 E17.29725
G0 F7200 X-45.708 Y-2.009
;TYPE:WALL-OUTER
G1 F600 X-45.836 Y-1.787 E17.30151
G1 X-45.869 Y-1.611 E17.30449
G1 X-45.869 Y1.615 E17.35814
G1 X-45.822 Y1.835 E17.36188
G1 X-45.679 Y2.038 E17.36601
G1 X-45.431 Y2.175 E17.37072
G1 X-45.28 Y2.2 E17.37326
G1 X-44.197 Y2.201 E17.39128
G1 X-44.053 Y2.262 E17.39388
G1 X-44.005 Y2.337 E17.39536
G1 X-42.813 Y5.519 E17.45186
G1 X-42.822 Y5.696 E17.45481
G1 X-42.954 Y5.794 E17.45755
G1 X-43.288 Y5.783 E17.4631
G1 X-43.4 Y5.663 E17.46583
G1 X-44.33 Y3.18 E17.50993
G1 X-44.455 Y2.985 E17.51378
G1 X-44.653 Y2.847 E17.51779
G1 X-44.879 Y2.8 E17.52163
G1 X-47.972 Y2.801 E17.57307
G1 X-48.185 Y2.847 E17.57669
G1 X-48.383 Y2.985 E17.58071
G1 X-48.507 Y3.18 E17.58455
G1 X-49.437 Y5.663 E17.62864
G1 X-49.547 Y5.782 E17.63134
G1 X-49.884 Y5.794 E17.63695
G1 X-50.019 Y5.69 E17.63978
G1 X-50.023 Y5.514 E17.64271
G1 X-48.828 Y2.329 E17.69928
G1 X-48.72 Y2.217 E17.70187
G1 X-48.632 Y2.2 E17.70336
G1 X-47.543 Y2.199 E17.72147
G1 X-47.332 Y2.153 E17.72506
G1 X-47.131 Y2.01 E17.72916
G1 X-47.001 Y1.786 E17.73347
G1 X-46.969 Y1.61 E17.73644
G1 X-46.969 Y-1.614 E17.79006
G1 X-47.015 Y-1.835 E17.79381
G1 X-47.159 Y-2.038 E17.79795
G1 X-47.407 Y-2.175 E17.80266
G1 X-47.558 Y-2.2 E17.80521
G1 X-48.641 Y-2.201 E17.82322
G1 X-48.785 Y-2.262 E17.82582
G1 X-48.828 Y-2.329 E17.82714
G1 X-50.028 Y-5.53 E17.88399
G1 X-50.018 Y-5.692 E17.88669
G1 X-49.884 Y-5.794 E17.88949
G1 X-49.547 Y-5.782 E17.8951
G1 X-49.437 Y-5.663 E17.8978
G1 X-48.507 Y-3.18 E17.94189
G1 X-48.383 Y-2.985 E17.94573
G1 X-48.185 Y-2.847 E17.94975
G1 X-47.959 Y-2.8 E17.95359
G1 X-44.866 Y-2.801 E18.00502
G1 X-44.653 Y-2.847 E18.00865
G1 X-44.455 Y-2.985 E18.01266
G1 X-44.33 Y-3.18 E18.01651
G1 X-43.4 Y-5.663 E18.06061
G1 X-43.288 Y-5.783 E18.06334
G1 X-42.913 Y-5.781 E18.06957
G1 X-42.805 Y-5.654 E18.07234
G1 X-42.813 Y-5.516 E18.07464
G1 X-44.008 Y-2.331 E18.13122
G1 X-44.115 Y-2.218 E18.1338
G1 X-44.206 Y-2.2 E18.13535
G1 X-45.295 Y-2.199 E18.15346
G1 X-45.506 Y-2.153 E18.15705
G1 X-45.708 Y-2.009 E18.16117
G0 F7200 X-45.808 Y-1.836
G0 X-45.569 Y-2.513
;TYPE:SKIN
G1 F600 X-45.313 Y-2.486 E18.16372
G1 X-44.702 Y-2.531 E18.1698
G1 X-44.264 Y-2.686 E18.1744
G1 X-43.812 Y-3.705 E18.18545
G1 X-43.188 Y-5.459 E18.2039
G0 F7200 X-43.062 Y-5.586
G0 X-44.143 Y-2.525
G1 F600 X-44.274 Y-2.394 E18.20544
G0 F7200 X-47.175 Y-2.5
G0 X-47.291 Y-2.488
G1 F600 X-47.563 Y-2.499 E18.20824
G1 X-48.382 Y-2.528 E18.21667
