;FLAVOR:Marlin
;TIME:11454
;Filament used: 11.7426m
;Layer height: 0.24
;MINX:-49.129
;MINY:-89.929
;MINZ:0.2
;MAXX:39.935
;MAXY:-11.132
;MAXZ:63.9
;TARGET_MACHINE.NAME:Unknown
;Generated with Cura_SteamEngine 5.10.1
M140 S50
M105
M190 S50
M104 S230
M105
M109 S230
;FLAVOR:Marlin
M82 ;absolute extrusion mode
G21
G90
M82
M107 T0
G28
G92 E0
G0 E3 F200
G92 E0 ; reset extrusion distance
M106 S255 ; Enable cooling fan full speed
G1 X-98 Y0 Z0.4 F3000 ; move to arc start
G3 X0 Y-98 I98 Z0.4 E40 F400 ; lay arc stripe 90deg
G92 E0 ; reset extrusion distance
G4 P500 ; wait for 0.5 sec
G0 Z10 E-1 ; Lift 15mm and retract 1mm filament
G4 P2000 ; wait for 5 sec
G0 Z15
M107 ; Disable cooling fan
G1 X0 Y-85 Z4 E0 F3000 ; get off the bed
M82 ;absolute extrusion mode
G92 E0
G92 E0
G1 F1500 E-6.5
;LAYER_COUNT:266
;LAYER:0
M107
G0 F3600 X-3.137 Y-20.196 Z0.3
;TYPE:SKIRT
G1 F1500 E0
G1 X-5.46 Y-19.731 E0.11819
G1 X-7.595 Y-19.782 E0.22474
G1 X-9.728 Y-20.334 E0.33466
G1 X-11.529 Y-21.22 E0.4348
G1 X-12.195 Y-21.767 E0.4778
G1 X-21.097 Y-12.934 E1.10345
G1 X-22.295 Y-12.049 E1.17776
G1 X-24.247 Y-11.356 E1.2811
G1 X-25.389 Y-11.132 E1.33916
G1 X-27.387 Y-11.204 E1.4389
G1 X-29.799 Y-11.994 E1.56553
G1 X-31.582 Y-13.41 E1.67912
G1 X-44.504 Y-26.344 E2.59126
G1 X-45.555 Y-27.56 E2.67145
G1 X-46.817 Y-29.41 E2.78318
G1 X-47.566 Y-30.828 E2.86318
G1 X-48.489 Y-33.283 E2.99403
G1 X-48.88 Y-34.95 E3.07946
G1 X-49.129 Y-37.169 E3.19086
G1 X-49.099 Y-39.236 E3.29399
G1 X-48.909 Y-40.758 E3.37052
G1 X-48.202 Y-43.506 E3.51208
G1 X-47.523 Y-45.178 E3.60211
G1 X-46.896 Y-46.362 E3.66895
G1 X-45.34 Y-48.605 E3.80515
G1 X-44.233 Y-49.847 E3.88815
G1 X-40.862 Y-53.27 E4.12783
G1 X-41.323 Y-55.438 E4.23841
G1 X-40.976 Y-58.529 E4.39359
G1 X-39.703 Y-61.325 E4.54686
G1 X-37.958 Y-63.426 E4.68312
G1 X-36.77 Y-64.344 E4.75803
G1 X-13.705 Y-87.351 E6.38334
G1 X-12.383 Y-88.394 E6.46735
G1 X-10.938 Y-89.106 E6.54772
G1 X-8.161 Y-89.815 E6.69071
G1 X-5.371 Y-89.537 E6.83059
G1 X-3.586 Y-88.957 E6.92423
G1 X-1.515 Y-87.763 E7.04349
G1 X0.911 Y-85.338 E7.21462
G1 X2.357 Y-86.769 E7.31612
G1 X3.441 Y-87.635 E7.38534
G1 X5.282 Y-88.709 E7.49167
G1 X7.124 Y-89.42 E7.59018
G1 X9.124 Y-89.847 E7.69221
G1 X10.123 Y-89.929 E7.74222
G1 X13.313 Y-89.646 E7.90199
G1 X14.271 Y-89.394 E7.95141
G1 X16.577 Y-88.416 E8.07638
G1 X17.87 Y-87.602 E8.15261
G1 X19.395 Y-86.331 E8.25165
G1 X25.994 Y-79.738 E8.71703
G1 X27.579 Y-79.664 E8.79619
G1 X29.577 Y-79.165 E8.89894
G1 X31.535 Y-78.202 E9.0078
G1 X32.971 Y-76.984 E9.10174
G1 X37.571 Y-72.334 E9.42806
G1 X38.504 Y-71.151 E9.50323
G1 X39.421 Y-69.247 E9.60866
G1 X39.93 Y-67.113 E9.71812
G1 X39.935 Y-64.897 E9.82867
G1 X39.474 Y-62.784 E9.93657
G1 X38.504 Y-60.731 E10.04985
G1 X37.121 Y-59.061 E10.15803
G1 X-.109 Y-21.924 E12.78153
G1 X-1.068 Y-21.192 E12.84172
G1 X-3.137 Y-20.196 E12.95628
G0 F3600 X-3.264 Y-20.578
G1 F1500 X-5.493 Y-20.132 E13.06969
G1 X-7.541 Y-20.181 E13.17189
G1 X-9.586 Y-20.71 E13.27728
G1 X-11.312 Y-21.559 E13.37324
G1 X-12.221 Y-22.306 E13.43194
G1 X-21.335 Y-13.256 E14.07273
G1 X-22.485 Y-12.406 E14.14407
G1 X-24.324 Y-11.749 E14.2415
G1 X-25.422 Y-11.534 E14.29732
G1 X-27.318 Y-11.602 E14.39197
G1 X-29.605 Y-12.351 E14.51203
G1 X-31.299 Y-13.693 E14.61985
G1 X-44.201 Y-26.606 E15.53055
G1 X-45.252 Y-27.822 E15.61073
G1 X-46.463 Y-29.597 E15.71794
G1 X-47.212 Y-31.015 E15.79794
G1 X-48.1 Y-33.375 E15.92374
G1 X-48.482 Y-34.995 E16.00678
G1 X-48.731 Y-37.214 E16.11818
G1 X-48.702 Y-39.186 E16.21658
G1 X-48.512 Y-40.708 E16.2931
G1 X-47.831 Y-43.355 E16.42946
G1 X-47.152 Y-45.027 E16.51949
G1 X-46.567 Y-46.134 E16.58196
G1 X-45.041 Y-48.339 E16.71574
G1 X-43.948 Y-49.566 E16.79772
G1 X-40.426 Y-53.142 E17.04813
G1 X-40.918 Y-55.455 E17.16611
G1 X-40.585 Y-58.423 E17.31511
G1 X-39.362 Y-61.109 E17.46235
G1 X-37.676 Y-63.138 E17.59397
G1 X-36.503 Y-64.045 E17.66794
G1 X-13.457 Y-87.037 E19.29206
G1 X-12.169 Y-88.053 E19.3739
G1 X-10.799 Y-88.728 E19.4501
G1 X-8.129 Y-89.41 E19.58758
G1 X-5.452 Y-89.143 E19.7218
G1 X-3.753 Y-88.591 E19.81093
G1 X-1.76 Y-87.442 E19.9257
G1 X0.91 Y-84.773 E20.11404
G1 X2.607 Y-86.456 E20.23328
G1 X3.691 Y-87.322 E20.3025
G1 X5.483 Y-88.363 E20.4059
G1 X7.208 Y-89.029 E20.49815
G1 X9.157 Y-89.448 E20.59761
G1 X10.156 Y-89.53 E20.64762
G1 X13.211 Y-89.259 E20.80063
G1 X14.169 Y-89.007 E20.85005
G1 X16.364 Y-88.077 E20.96898
G1 X17.657 Y-87.263 E21.04521
G1 X19.112 Y-86.048 E21.13978
G1 X25.821 Y-79.345 E21.61293
G1 X27.523 Y-79.266 E21.69793
G1 X29.439 Y-78.787 E21.79646
G1 X31.313 Y-77.866 E21.90064
G1 X32.712 Y-76.679 E21.99217
G1 X37.257 Y-72.086 E22.31454
G1 X38.165 Y-70.935 E22.38768
G1 X39.041 Y-69.115 E22.48845
G1 X39.53 Y-67.066 E22.59355
G1 X39.535 Y-64.94 E22.69962
G1 X39.093 Y-62.915 E22.80302
G1 X38.163 Y-60.946 E22.91166
G1 X36.838 Y-59.344 E23.01538
G1 X-.352 Y-22.242 E25.63623
G1 X-1.282 Y-21.532 E25.69461
G1 X-3.264 Y-20.578 E25.80435
G0 F3600 X-3.391 Y-20.96
G1 F1500 X-5.526 Y-20.533 E25.91297
G1 X-7.487 Y-20.58 E26.01084
G1 X-9.444 Y-21.086 E26.11168
G1 X-11.095 Y-21.898 E26.20347
G1 X-12.247 Y-22.845 E26.27787
G1 X-21.573 Y-13.578 E26.9338
G1 X-22.678 Y-12.761 E27.00236
G1 X-24.401 Y-12.142 E27.0937
G1 X-25.455 Y-11.936 E27.14728
G1 X-27.248 Y-12 E27.23679
G1 X-29.412 Y-12.709 E27.3504
G1 X-31.016 Y-13.976 E27.45237
G1 X-43.898 Y-26.868 E28.36162
G1 X-44.949 Y-28.084 E28.44181
G1 X-46.109 Y-29.784 E28.54448
G1 X-46.858 Y-31.202 E28.62449
G1 X-47.711 Y-33.467 E28.74524
G1 X-48.084 Y-35.04 E28.82589
G1 X-48.333 Y-37.259 E28.93729
G1 X-48.305 Y-39.136 E29.03095
G1 X-48.115 Y-40.658 E29.10747
G1 X-47.46 Y-43.204 E29.23863
G1 X-46.781 Y-44.876 E29.32866
G1 X-46.238 Y-45.907 E29.38679
G1 X-44.742 Y-48.073 E29.51813
G1 X-43.663 Y-49.285 E29.59908
G1 X-39.99 Y-53.014 E29.86022
G1 X-40.514 Y-55.475 E29.98575
G1 X-40.195 Y-58.314 E30.12828
G1 X-39.021 Y-60.893 E30.26965
G1 X-37.397 Y-62.848 E30.39645
G1 X-36.241 Y-63.741 E30.46932
G1 X-13.209 Y-86.723 E32.09259
G1 X-11.955 Y-87.712 E32.17227
G1 X-10.66 Y-88.35 E32.24429
G1 X-8.097 Y-89.005 E32.37627
G1 X-5.533 Y-88.749 E32.50483
G1 X-3.92 Y-88.225 E32.58944
G1 X-2.005 Y-87.121 E32.69972
G1 X0.518 Y-84.599 E32.87769
G1 X0.836 Y-84.135 E32.90576
G1 X2.857 Y-86.143 E33.04789
G1 X3.941 Y-87.009 E33.11711
G1 X5.628 Y-87.99 E33.21447
G1 X7.293 Y-88.638 E33.30361
G1 X9.19 Y-89.049 E33.40045
G1 X10.189 Y-89.131 E33.45046
G1 X13.109 Y-88.872 E33.59671
G1 X14.067 Y-88.62 E33.64613
G1 X16.207 Y-87.709 E33.76216
G1 X17.401 Y-86.956 E33.83259
G1 X18.829 Y-85.765 E33.92536
G1 X25.648 Y-78.952 E34.40627
G1 X27.467 Y-78.868 E34.49711
G1 X29.299 Y-78.41 E34.59132
G1 X31.092 Y-77.528 E34.69101
G1 X32.453 Y-76.374 E34.78004
G1 X36.943 Y-71.838 E35.09846
G1 X37.824 Y-70.721 E35.16943
G1 X38.662 Y-68.981 E35.26579
G1 X39.13 Y-67.019 E35.36642
G1 X39.135 Y-64.983 E35.46799
G1 X38.712 Y-63.046 E35.56691
G1 X37.822 Y-61.161 E35.67091
G1 X36.555 Y-59.627 E35.77017
G1 X-.595 Y-22.56 E38.38837
G1 X-1.496 Y-21.872 E38.44493
G1 X-3.391 Y-20.96 E38.54985
G0 F3600 X-3.518 Y-21.342
G1 F1500 X-5.559 Y-20.934 E38.65369
G1 X-7.433 Y-20.979 E38.74721
G1 X-9.302 Y-21.462 E38.84352
G1 X-10.878 Y-22.237 E38.93114
G1 X-12.382 Y-23.474 E39.02829
G1 X-12.625 Y-23.033 E39.05342
G1 X-21.811 Y-13.9 E39.69967
G1 X-22.87 Y-13.117 E39.76538
G1 X-24.478 Y-12.535 E39.85069
G1 X-25.488 Y-12.338 E39.90203
G1 X-27.179 Y-12.398 E39.98645
G1 X-29.219 Y-13.066 E40.09354
G1 X-30.733 Y-14.259 E40.18971
G1 X-43.595 Y-27.13 E41.09751
G1 X-44.646 Y-28.346 E41.1777
G1 X-45.755 Y-29.971 E41.27585
G1 X-46.504 Y-31.389 E41.35586
G1 X-47.322 Y-33.56 E41.4716
G1 X-47.686 Y-35.085 E41.54982
G1 X-47.935 Y-37.304 E41.66122
G1 X-47.908 Y-39.086 E41.75014
G1 X-47.718 Y-40.608 E41.82666
G1 X-47.089 Y-43.053 E41.95261
G1 X-46.41 Y-44.725 E42.04264
G1 X-45.884 Y-45.72 E42.09879
G1 X-44.443 Y-47.807 E42.22532
G1 X-43.378 Y-49.004 E42.30526
G1 X-39.509 Y-52.932 E42.58033
G1 X-39.632 Y-53.251 E42.59738
G1 X-40.109 Y-55.492 E42.71169
G1 X-39.804 Y-58.208 E42.84804
G1 X-38.68 Y-60.677 E42.98339
G1 X-37.116 Y-62.56 E43.10551
G1 X-35.975 Y-63.441 E43.17743
G1 X-12.961 Y-86.409 E44.79957
G1 X-11.741 Y-87.371 E44.87708
G1 X-10.521 Y-87.972 E44.94493
G1 X-8.065 Y-88.6 E45.0714
G1 X-5.614 Y-88.355 E45.19429
G1 X-4.087 Y-87.859 E45.27439
G1 X-2.25 Y-86.8 E45.38018
G1 X0.235 Y-84.316 E45.55548
G1 X0.773 Y-83.508 E45.60391
G1 X3.107 Y-85.83 E45.76816
G1 X4.191 Y-86.696 E45.83738
G1 X5.773 Y-87.617 E45.92871
G1 X7.438 Y-88.265 E46.01784
G1 X9.223 Y-88.65 E46.10894
G1 X10.222 Y-88.732 E46.15895
G1 X13.007 Y-88.485 E46.29844
G1 X13.965 Y-88.233 E46.34786
G1 X15.995 Y-87.37 E46.45791
G1 X17.145 Y-86.649 E46.52563
G1 X18.546 Y-85.482 E46.6166
G1 X25.516 Y-78.519 E47.10812
G1 X25.757 Y-78.546 E47.12022
G1 X27.411 Y-78.47 E47.20283
G1 X29.161 Y-78.032 E47.29283
G1 X30.87 Y-77.192 E47.38783
G1 X32.194 Y-76.069 E47.47445
G1 X36.629 Y-71.59 E47.78892
G1 X37.485 Y-70.505 E47.85787
G1 X38.282 Y-68.849 E47.94955
G1 X38.73 Y-66.972 E48.04583
G1 X38.735 Y-65.026 E48.14291
G1 X38.331 Y-63.177 E48.23734
G1 X37.481 Y-61.376 E48.33669
G1 X36.272 Y-59.91 E48.4315
G1 X-.838 Y-22.878 E51.04706
G1 X-1.71 Y-22.212 E51.1018
G1 X-3.518 Y-21.342 E51.2019
G0 F3600 X-3.646 Y-21.724
G1 F1500 X-5.592 Y-21.335 E51.30091
G1 X-7.379 Y-21.378 E51.39009
G1 X-9.162 Y-21.839 E51.48197
G1 X-10.659 Y-22.575 E51.56519
G1 X-11.962 Y-23.644 E51.64928
G1 X-12.483 Y-24.166 E51.68607
G1 X-12.907 Y-23.317 E51.73342
G1 X-22.049 Y-14.222 E52.37678
G1 X-23.062 Y-13.473 E52.43963
G1 X-24.554 Y-12.928 E52.51888
G1 X-25.52 Y-12.74 E52.56798
G1 X-27.109 Y-12.796 E52.6473
G1 X-29.026 Y-13.424 E52.74794
G1 X-30.45 Y-14.542 E52.83826
G1 X-43.312 Y-27.413 E53.74607
G1 X-44.343 Y-28.607 E53.82477
G1 X-45.401 Y-30.158 E53.91844
G1 X-46.15 Y-31.576 E53.99844
G1 X-46.933 Y-33.654 E54.10923
G1 X-47.288 Y-35.13 E54.18497
G1 X-47.537 Y-37.349 E54.29637
G1 X-47.511 Y-39.037 E54.38059
G1 X-47.33 Y-40.509 E54.45459
G1 X-46.718 Y-42.903 E54.57786
G1 X-46.056 Y-44.538 E54.66587
G1 X-45.53 Y-45.533 E54.72202
G1 X-44.144 Y-47.541 E54.84374
G1 X-43.093 Y-48.723 E54.92265
G1 X-39.039 Y-52.839 E55.21088
G1 X-39.241 Y-53.334 E55.23755
G1 X-39.704 Y-55.509 E55.3485
G1 X-39.413 Y-58.102 E55.47867
G1 X-38.339 Y-60.461 E55.60799
G1 X-36.835 Y-62.272 E55.72544
G1 X-35.709 Y-63.141 E55.7964
G1 X-12.713 Y-86.095 E57.41741
G1 X-11.527 Y-87.03 E57.49275
G1 X-10.382 Y-87.594 E57.55643
G1 X-8.033 Y-88.195 E57.6774
G1 X-5.695 Y-87.961 E57.79462
G1 X-4.254 Y-87.493 E57.87021
G1 X-2.495 Y-86.479 E57.97151
G1 X-0.076 Y-84.061 E58.14214
G1 X0.71 Y-82.881 E58.21288
G1 X3.357 Y-85.517 E58.39925
G1 X4.441 Y-86.383 E58.46847
G1 X5.918 Y-87.244 E58.55377
G1 X7.583 Y-87.892 E58.6429
G1 X9.256 Y-88.251 E58.72827
G1 X10.255 Y-88.333 E58.77828
G1 X12.905 Y-88.098 E58.91101
G1 X13.863 Y-87.846 E58.96043
G1 X15.783 Y-87.03 E59.06451
G1 X16.889 Y-86.341 E59.12952
G1 X18.263 Y-85.199 E59.21865
G1 X25.373 Y-78.096 E59.72005
G1 X25.739 Y-78.146 E59.73848
G1 X27.355 Y-78.072 E59.81919
G1 X29.023 Y-77.654 E59.90498
G1 X30.65 Y-76.854 E59.99543
G1 X31.91 Y-75.787 E60.07781
G1 X36.315 Y-71.342 E60.39002
G1 X37.144 Y-70.291 E60.4568
G1 X37.903 Y-68.715 E60.54407
G1 X38.33 Y-66.925 E60.63588
G1 X38.335 Y-65.069 E60.72848
G1 X37.95 Y-63.308 E60.81841
G1 X37.141 Y-61.593 E60.91301
G1 X35.963 Y-60.165 E61.00537
G1 X-1.081 Y-23.196 E63.61638
G1 X-1.922 Y-22.554 E63.66916
G1 X-3.646 Y-21.724 E63.76462
G0 F3600 X-3.773 Y-22.106
G1 F1500 X-5.625 Y-21.736 E63.85885
G1 X-7.325 Y-21.777 E63.94368
G1 X-9.02 Y-22.215 E64.03102
G1 X-10.441 Y-22.914 E64.11003
G1 X-11.679 Y-23.927 E64.18984
G1 X-12.592 Y-24.842 E64.25433
G1 X-13.236 Y-23.554 E64.32617
G1 X-22.331 Y-14.506 E64.96621
G1 X-23.254 Y-13.828 E65.02335
G1 X-24.63 Y-13.321 E65.09651
G1 X-25.552 Y-13.142 E65.14337
G1 X-27.04 Y-13.194 E65.21765
G1 X-28.833 Y-13.781 E65.31178
G1 X-30.167 Y-14.825 E65.39629
G1 X-43.029 Y-27.696 E66.30409
G1 X-44.013 Y-28.833 E66.37911
G1 X-45.047 Y-30.345 E66.47049
G1 X-45.796 Y-31.763 E66.5505
G1 X-46.544 Y-33.748 E66.65633
G1 X-46.89 Y-35.175 E66.72959
G1 X-47.139 Y-37.394 E66.84099
G1 X-47.114 Y-38.989 E66.92057
G1 X-46.942 Y-40.411 E66.99203
G1 X-46.347 Y-42.753 E67.11259
G1 X-45.702 Y-44.351 E67.19856
G1 X-45.176 Y-45.346 E67.25471
G1 X-43.845 Y-47.275 E67.37164
G1 X-42.808 Y-48.442 E67.44952
G1 X-38.566 Y-52.748 E67.75109
G1 X-38.85 Y-53.417 E67.78735
G1 X-39.299 Y-55.526 E67.89492
G1 X-39.022 Y-57.996 E68.01892
G1 X-37.998 Y-60.245 E68.14221
G1 X-36.555 Y-61.982 E68.25487
G1 X-35.532 Y-62.779 E68.31957
G1 X-35.456 Y-62.828 E68.32408
G1 X-12.43 Y-85.812 E69.94721
G1 X-11.316 Y-86.688 E70.01791
G1 X-10.243 Y-87.216 E70.07757
G1 X-8.001 Y-87.79 E70.19304
G1 X-5.776 Y-87.567 E70.3046
G1 X-4.421 Y-87.127 E70.37567
G1 X-2.74 Y-86.158 E70.47247
G1 X-.387 Y-83.806 E70.63846
G1 X0.474 Y-82.513 E70.71596
G1 X0.588 Y-82.196 E70.73276
G1 X3.607 Y-85.204 E70.94538
G1 X4.691 Y-86.07 E71.0146
G1 X6.063 Y-86.871 E71.09386
G1 X7.728 Y-87.519 E71.183
G1 X9.289 Y-87.852 E71.26263
G1 X10.288 Y-87.934 E71.31264
G1 X12.803 Y-87.711 E71.43861
G1 X13.761 Y-87.459 E71.48803
G1 X15.571 Y-86.69 E71.58614
G1 X16.677 Y-86.001 E71.65115
G1 X17.98 Y-84.916 E71.73574
G1 X25.234 Y-77.669 E72.24731
G1 X25.721 Y-77.746 E72.2719
G1 X27.299 Y-77.674 E72.35071
G1 X28.883 Y-77.277 E72.43218
G1 X30.432 Y-76.515 E72.51831
G1 X31.626 Y-75.505 E72.59633
G1 X36.001 Y-71.094 E72.90628
G1 X36.805 Y-70.075 E72.97104
G1 X37.523 Y-68.583 E73.05365
G1 X37.93 Y-66.878 E73.1411
G1 X37.935 Y-65.112 E73.22921
G1 X37.569 Y-63.439 E73.31465
G1 X36.8 Y-61.808 E73.40461
G1 X35.68 Y-60.448 E73.4925
G1 X-1.324 Y-23.514 E76.10087
G1 X-2.136 Y-22.894 E76.15184
G1 X-3.773 Y-22.106 E76.24248
G0 F3600 X-3.9 Y-22.488
G1 F1500 X-5.658 Y-22.137 E76.33192
G1 X-7.271 Y-22.176 E76.41241
G1 X-8.878 Y-22.591 E76.49522
G1 X-10.224 Y-23.253 E76.57005
G1 X-11.396 Y-24.21 E76.64554
G1 X-12.749 Y-25.566 E76.74111
G1 X-12.836 Y-25.25 E76.75746
G1 X-13.566 Y-23.789 E76.83894
G1 X-22.568 Y-14.828 E77.47264
G1 X-23.444 Y-14.185 E77.52685
G1 X-24.706 Y-13.714 E77.59405
G1 X-25.584 Y-13.544 E77.63867
G1 X-26.971 Y-13.592 E77.70791
G1 X-28.642 Y-14.139 E77.79563
G1 X-29.884 Y-15.108 E77.87422
G1 X-42.746 Y-27.979 E78.78202
G1 X-43.683 Y-29.059 E78.85335
G1 X-44.693 Y-30.532 E78.94246
G1 X-45.442 Y-31.95 E79.02247
G1 X-46.155 Y-33.843 E79.12338
G1 X-46.492 Y-35.22 E79.19411
G1 X-46.741 Y-37.439 E79.30551
G1 X-46.714 Y-38.982 E79.3825
G1 X-46.554 Y-40.313 E79.44939
G1 X-45.976 Y-42.604 E79.56727
G1 X-45.348 Y-44.164 E79.65117
G1 X-44.822 Y-45.159 E79.70732
G1 X-43.516 Y-47.048 E79.82189
G1 X-42.523 Y-48.161 E79.8963
G1 X-38.093 Y-52.658 E80.21124
G1 X-38.467 Y-53.538 E80.25894
G1 X-38.895 Y-55.546 E80.36137
G1 X-38.632 Y-57.887 E80.4789
G1 X-37.657 Y-60.029 E80.59631
G1 X-36.272 Y-61.696 E80.70444
G1 X-35.315 Y-62.443 E80.76501
G1 X-35.202 Y-62.516 E80.77172
G1 X-12.183 Y-85.497 E82.39449
G1 X-11.101 Y-86.347 E82.46314
G1 X-10.1 Y-86.84 E82.51881
G1 X-7.972 Y-87.385 E82.6284
G1 X-5.856 Y-87.173 E82.7345
G1 X-4.589 Y-86.762 E82.80095
G1 X-2.985 Y-85.837 E82.89333
G1 X-.698 Y-83.551 E83.05465
G1 X0.141 Y-82.291 E83.13018
G1 X0.398 Y-81.442 E83.17443
G1 X3.857 Y-84.891 E83.41813
G1 X4.941 Y-85.757 E83.48735
G1 X6.208 Y-86.498 E83.56058
G1 X7.873 Y-87.146 E83.64971
G1 X9.322 Y-87.453 E83.72361
G1 X10.321 Y-87.535 E83.77362
G1 X12.701 Y-87.324 E83.89282
G1 X13.659 Y-87.072 E83.94224
G1 X15.359 Y-86.35 E84.03439
G1 X16.465 Y-85.661 E84.0994
G1 X17.697 Y-84.633 E84.17945
G1 X25.098 Y-77.239 E84.70138
G1 X25.703 Y-77.346 E84.73203
G1 X27.243 Y-77.276 E84.80894
