;FLAVOR:Marlin
;TIME:1280
;Filament used: 1.35598m
;Layer height: 0.15
;MINX:-16.175
;MINY:-76.006
;MINZ:0.3
;MAXX:26.183
;MAXY:18.099
;MAXZ:9.9
;Generated with Cura_SteamEngine 4.13.1
M140 S50
M105
M190 S50
M104 S210
M105
M109 S210
M82 ;absolute extrusion mode
;FLAVOR:Marlin
M82 ;absolute extrusion mode
G21
G90
M82
M107 T0
G28
G92 E0
G0 E3 F200
G92 E0 ; reset extrusion distance
M106 S255 ; Enable cooling fan full speed
G1 X-98 Y0 Z0.4 F3000 ; move to arc start
G3 X0 Y-98 I98 Z0.4 E40 F400 ; lay arc stripe 90deg
G92 E0 ; reset extrusion distance
G4 P500 ; wait for 0.5 sec
G0 Z10 E-1 ; Lift 15mm and retract 1mm filament
G4 P2000 ; wait for 5 sec
G0 Z15
M107 ; Disable cooling fan
G1 X0 Y-85 Z4 E0 F3000 ; get off the bed
G92 E0
G92 E0
G1 F1500 E-6.5
;LAYER_COUNT:32
;LAYER:0
M106 S25.5
G1 F600 Z1.3
G0 F3600 X7.381 Y-40.438 Z1.3
;TYPE:SKIRT
G1 F600 Z0.3
G1 F1500 E0.3326
G1 F2400 X7.269 Y-40.462 E0.33832
G1 X6.364 Y-40.671 E0.38465
G1 X6.252 Y-40.699 E0.39041
G1 X5.332 Y-40.949 E0.43798
G1 X4.35 Y-41.25 E0.48922
G1 X4.255 Y-41.281 E0.49421
G1 X3.281 Y-41.618 E0.54563
G1 X2.307 Y-41.991 E0.59766
G1 X1.399 Y-42.373 E0.64681
G1 X1.316 Y-42.409 E0.65132
G1 X0.462 Y-42.8 E0.69818
G1 X-.429 Y-43.239 E0.74773
G1 X-.676 Y-43.367 E0.76161
G1 X-1.444 Y-43.778 E0.80507
G1 X-2.355 Y-44.301 E0.85748
G1 X-3.235 Y-44.842 E0.90901
G1 X-3.304 Y-44.885 E0.91307
G1 X-4.012 Y-45.349 E0.9553
G1 X-4.24 Y-45.503 E0.96903
G1 X-5.117 Y-46.122 E1.02258
G1 X-5.991 Y-46.781 E1.07719
G1 X-6.726 Y-47.369 E1.12415
G1 X-7.557 Y-48.079 E1.17868
G1 X-8.296 Y-48.749 E1.22845
G1 X-9.061 Y-49.49 E1.28158
G1 X-9.13 Y-49.559 E1.28645
G1 X-9.768 Y-50.221 E1.33232
G1 X-9.906 Y-50.369 E1.34242
G1 X-10.446 Y-50.967 E1.38261
G1 X-11.132 Y-51.78 E1.43569
G1 X-11.199 Y-51.863 E1.44101
G1 X-11.768 Y-52.59 E1.48707
G1 X-11.837 Y-52.681 E1.49276
G1 X-12.375 Y-53.425 E1.53857
G1 X-12.442 Y-53.522 E1.54445
G1 X-12.942 Y-54.274 E1.5895
G1 X-13.006 Y-54.374 E1.59543
G1 X-13.45 Y-55.103 E1.63801
G1 X-13.868 Y-55.851 E1.68076
G1 X-14.006 Y-56.108 E1.69531
G1 X-14.315 Y-56.724 E1.7297
G1 X-14.368 Y-56.836 E1.73588
G1 X-14.712 Y-57.599 E1.77763
G1 X-14.767 Y-57.729 E1.78468
G1 X-15.068 Y-58.49 E1.82551
G1 X-15.12 Y-58.633 E1.8331
G1 X-15.37 Y-59.373 E1.87207
G1 X-15.415 Y-59.516 E1.87954
G1 X-15.62 Y-60.24 E1.91709
G1 X-15.658 Y-60.391 E1.92485
G1 X-15.821 Y-61.107 E1.96149
G1 X-15.855 Y-61.276 E1.97009
G1 X-15.974 Y-61.985 E2.00596
G1 X-15.997 Y-62.154 E2.01447
G1 X-16.073 Y-62.845 E2.04915
G1 X-16.087 Y-63.024 E2.05811
G1 X-16.121 Y-63.706 E2.09217
G1 X-16.125 Y-63.904 E2.10205
G1 X-16.114 Y-64.582 E2.13588
G1 X-16.104 Y-64.776 E2.14557
G1 X-16.051 Y-65.429 E2.17826
G1 X-16.026 Y-65.641 E2.18891
G1 X-15.928 Y-66.28 E2.22116
G1 X-15.888 Y-66.491 E2.23188
G1 X-15.747 Y-67.11 E2.26355
G1 X-15.692 Y-67.319 E2.27433
G1 X-15.51 Y-67.916 E2.30547
G1 X-15.432 Y-68.138 E2.31721
G1 X-15.206 Y-68.713 E2.34803
G1 X-15.117 Y-68.918 E2.35918
G1 X-14.85 Y-69.472 E2.38986
G1 X-14.742 Y-69.676 E2.40138
G1 X-14.435 Y-70.205 E2.43189
G1 X-14.302 Y-70.413 E2.44421
G1 X-13.942 Y-70.93 E2.47564
G1 X-13.8 Y-71.118 E2.4874
G1 X-13.417 Y-71.585 E2.51753
G1 X-13.266 Y-71.756 E2.52891
G1 X-12.834 Y-72.208 E2.5601
G1 X-12.667 Y-72.369 E2.57168
G1 X-12.204 Y-72.784 E2.6027
G1 X-12.041 Y-72.92 E2.61329
G1 X-11.537 Y-73.311 E2.64511
G1 X-11.354 Y-73.443 E2.65637
G1 X-10.804 Y-73.807 E2.68927
G1 X-10.63 Y-73.913 E2.69944
G1 X-10.065 Y-74.234 E2.73186
G1 X-9.885 Y-74.329 E2.74201
G1 X-9.277 Y-74.622 E2.77568
G1 X-9.107 Y-74.697 E2.78495
G1 X-8.469 Y-74.957 E2.81932
G1 X-8.289 Y-75.024 E2.82891
G1 X-7.614 Y-75.25 E2.86442
G1 X-7.447 Y-75.3 E2.87312
G1 X-6.754 Y-75.488 E2.90894
G1 X-6.599 Y-75.526 E2.9169
G1 X-5.887 Y-75.679 E2.95324
G1 X-5.732 Y-75.708 E2.9611
G1 X-4.984 Y-75.828 E2.9989
G1 X-4.828 Y-75.849 E3.00675
G1 X-4.062 Y-75.931 E3.04519
G1 X-3.919 Y-75.943 E3.05234
G1 X-3.117 Y-75.99 E3.09243
G1 X-2.98 Y-75.995 E3.09926
G1 X-2.128 Y-76.006 E3.14177
G1 X-1.996 Y-76.005 E3.14836
G1 X-1.25 Y-75.981 E3.1856
G1 X-1.025 Y-75.968 E3.19684
G1 X-.286 Y-75.914 E3.23381
G1 X-.172 Y-75.903 E3.23952
G1 X0.678 Y-75.808 E3.28219
G1 X0.799 Y-75.792 E3.28828
G1 X1.788 Y-75.639 E3.33821
G1 X2.679 Y-75.469 E3.38346
G1 X2.797 Y-75.444 E3.38948
G1 X3.699 Y-75.234 E3.43569
G1 X3.803 Y-75.208 E3.44104
G1 X4.723 Y-74.959 E3.48859
G1 X5.708 Y-74.657 E3.53999
G1 X5.805 Y-74.626 E3.54507
G1 X6.774 Y-74.29 E3.59623
G1 X7.627 Y-73.965 E3.64177
G1 X7.823 Y-73.886 E3.65232
G1 X8.616 Y-73.553 E3.69523
G1 X9.506 Y-73.149 E3.74399
G1 X9.699 Y-73.058 E3.75463
G1 X10.491 Y-72.666 E3.79872
G1 X11.479 Y-72.141 E3.85454
G1 X12.434 Y-71.593 E3.90947
G1 X12.512 Y-71.547 E3.91399
G1 X13.411 Y-70.991 E3.96673
G1 X14.168 Y-70.493 E4.01193
G1 X15.109 Y-69.833 E4.06928
G1 X15.188 Y-69.776 E4.07414
G1 X16.015 Y-69.152 E4.12582
G1 X16.785 Y-68.535 E4.17505
G1 X17.611 Y-67.832 E4.22916
G1 X17.684 Y-67.768 E4.23401
G1 X18.427 Y-67.09 E4.28419
G1 X19.133 Y-66.404 E4.3333
G1 X19.789 Y-65.726 E4.38037
G1 X20.499 Y-64.944 E4.43306
G1 X20.571 Y-64.863 E4.43847
G1 X21.19 Y-64.128 E4.48641
G1 X21.825 Y-63.32 E4.53768
G1 X21.896 Y-63.226 E4.54356
G1 X22.425 Y-62.494 E4.58862
G1 X22.489 Y-62.401 E4.59425
G1 X22.985 Y-61.657 E4.63886
G1 X23.049 Y-61.558 E4.64474
G1 X23.49 Y-60.834 E4.68703
G1 X23.586 Y-60.669 E4.69656
G1 X23.965 Y-59.983 E4.73566
G1 X24.052 Y-59.818 E4.74497
G1 X24.369 Y-59.191 E4.78002
G1 X24.426 Y-59.072 E4.7866
G1 X24.768 Y-58.315 E4.82804
G1 X24.824 Y-58.183 E4.8352
G1 X25.124 Y-57.424 E4.87591
G1 X25.176 Y-57.281 E4.8835
G1 X25.428 Y-56.535 E4.92279
G1 X25.473 Y-56.391 E4.93032
G1 X25.678 Y-55.666 E4.9679
G1 X25.716 Y-55.516 E4.97562
G1 X25.879 Y-54.8 E5.01226
G1 X25.913 Y-54.631 E5.02086
G1 X26.032 Y-53.923 E5.05668
G1 X26.055 Y-53.756 E5.06509
G1 X26.131 Y-53.069 E5.09957
G1 X26.145 Y-52.886 E5.10873
G1 X26.179 Y-52.191 E5.14344
G1 X26.183 Y-51.999 E5.15302
G1 X26.173 Y-51.329 E5.18645
G1 X26.163 Y-51.127 E5.19654
G1 X26.109 Y-50.473 E5.22928
G1 X26.084 Y-50.265 E5.23974
G1 X25.986 Y-49.627 E5.27194
G1 X25.947 Y-49.419 E5.2825
G1 X25.808 Y-48.806 E5.31386
G1 X25.751 Y-48.594 E5.32481
G1 X25.568 Y-47.994 E5.3561
G1 X25.492 Y-47.775 E5.36767
G1 X25.266 Y-47.198 E5.39858
G1 X25.175 Y-46.987 E5.41005
G1 X24.907 Y-46.432 E5.4408
G1 X24.801 Y-46.233 E5.45205
G1 X24.494 Y-45.703 E5.4826
G1 X24.358 Y-45.49 E5.49521
G1 X23.998 Y-44.974 E5.5266
G1 X23.858 Y-44.789 E5.53818
G1 X23.475 Y-44.322 E5.56831
G1 X23.324 Y-44.151 E5.57969
G1 X22.892 Y-43.699 E5.61088
G1 X22.728 Y-43.54 E5.62228
G1 X22.266 Y-43.125 E5.65326
G1 X22.1 Y-42.987 E5.66403
G1 X21.596 Y-42.596 E5.69586
G1 X21.411 Y-42.463 E5.70722
G1 X20.863 Y-42.101 E5.73999
G1 X20.692 Y-41.996 E5.75
G1 X20.124 Y-41.673 E5.7826
G1 X19.943 Y-41.578 E5.7928
G1 X19.335 Y-41.285 E5.82647
G1 X19.165 Y-41.21 E5.83574
G1 X18.527 Y-40.95 E5.87011
G1 X18.347 Y-40.883 E5.87969
G1 X17.672 Y-40.657 E5.91521
G1 X17.51 Y-40.608 E5.92365
G1 X16.818 Y-40.419 E5.95944
G1 X16.657 Y-40.38 E5.9677
G1 X15.944 Y-40.227 E6.00409
G1 X15.787 Y-40.197 E6.01206
G1 X15.04 Y-40.078 E6.0498
G1 X14.887 Y-40.058 E6.0575
G1 X14.12 Y-39.976 E6.09598
G1 X13.98 Y-39.964 E6.10299
G1 X13.178 Y-39.916 E6.14307
G1 X13.034 Y-39.911 E6.15026
G1 X12.182 Y-39.901 E6.19277
G1 X12.059 Y-39.902 E6.19891
G1 X11.38 Y-39.922 E6.2328
G1 X11.258 Y-39.928 E6.23889
G1 X10.374 Y-39.99 E6.2831
G1 X10.252 Y-40.001 E6.28921
G1 X9.38 Y-40.098 E6.33299
G1 X9.257 Y-40.115 E6.33918
G1 X8.27 Y-40.268 E6.38901
G1 X7.381 Y-40.438 E6.43417
G0 F3600 X7.456 Y-40.831
G1 F2400 X6.454 Y-41.061 E6.48546
G1 X6.357 Y-41.085 E6.49044
G1 X5.353 Y-41.359 E6.54236
G1 X4.467 Y-41.632 E6.58862
G1 X3.504 Y-41.963 E6.63942
G1 X2.601 Y-42.306 E6.68761
G1 X2.385 Y-42.391 E6.69919
G1 X1.483 Y-42.773 E6.74806
G1 X0.56 Y-43.197 E6.79874
G1 X-.304 Y-43.624 E6.84682
G1 X-.487 Y-43.72 E6.85713
G1 X-1.324 Y-44.169 E6.90452
G1 X-2.224 Y-44.688 E6.95635
G1 X-3.085 Y-45.22 E7.00684
G1 X-3.789 Y-45.682 E7.04885
G1 X-4.009 Y-45.83 E7.06208
G1 X-4.876 Y-46.441 E7.115
G1 X-5.68 Y-47.046 E7.1652
G1 X-6.476 Y-47.682 E7.21603
G1 X-6.543 Y-47.737 E7.22035
G1 X-7.354 Y-48.433 E7.27367
G1 X-8.027 Y-49.045 E7.31906
G1 X-8.782 Y-49.777 E7.37152
G1 X-9.443 Y-50.46 E7.41894
G1 X-9.609 Y-50.637 E7.43105
G1 X-10.149 Y-51.235 E7.47124
G1 X-10.826 Y-52.037 E7.52361
G1 X-11.513 Y-52.915 E7.57923
G1 X-12.051 Y-53.659 E7.62503
G1 X-12.109 Y-53.743 E7.63012
G1 X-12.609 Y-54.495 E7.67518
G1 X-12.664 Y-54.582 E7.68031
G1 X-13.104 Y-55.305 E7.72254
G1 X-13.175 Y-55.427 E7.72958
G1 X-13.536 Y-56.077 E7.76667
G1 X-13.648 Y-56.287 E7.77855
G1 X-13.957 Y-56.903 E7.81293
G1 X-14.003 Y-57 E7.81829
G1 X-14.347 Y-57.763 E7.86004
G1 X-14.395 Y-57.876 E7.86617
G1 X-14.696 Y-58.637 E7.907
G1 X-14.741 Y-58.761 E7.91358
G1 X-14.991 Y-59.501 E7.95255
G1 X-15.03 Y-59.625 E7.95903
G1 X-15.235 Y-60.349 E7.99657
G1 X-15.268 Y-60.48 E8.00331
G1 X-15.431 Y-61.196 E8.03995
G1 X-15.46 Y-61.343 E8.04742
G1 X-15.579 Y-62.052 E8.08329
G1 X-15.599 Y-62.198 E8.09064
G1 X-15.675 Y-62.889 E8.12532
G1 X-15.688 Y-63.044 E8.13308
G1 X-15.722 Y-63.726 E8.16715
G1 X-15.725 Y-63.897 E8.17568
G1 X-15.714 Y-64.575 E8.20951
G1 X-15.705 Y-64.743 E8.21791
G1 X-15.652 Y-65.396 E8.25059
G1 X-15.631 Y-65.58 E8.25983
G1 X-15.533 Y-66.219 E8.29208
G1 X-15.498 Y-66.402 E8.30138
G1 X-15.357 Y-67.021 E8.33305
G1 X-15.309 Y-67.202 E8.34239
G1 X-15.127 Y-67.799 E8.37353
G1 X-15.06 Y-67.992 E8.38373
G1 X-14.834 Y-68.567 E8.41455
G1 X-14.756 Y-68.745 E8.42424
G1 X-14.489 Y-69.299 E8.45493
G1 X-14.396 Y-69.475 E8.46486
G1 X-14.089 Y-70.004 E8.49537
G1 X-13.974 Y-70.185 E8.50607
G1 X-13.614 Y-70.702 E8.5375
G1 X-13.49 Y-70.865 E8.54772
G1 X-13.107 Y-71.332 E8.57785
G1 X-12.977 Y-71.479 E8.58764
G1 X-12.545 Y-71.931 E8.61883
G1 X-12.4 Y-72.071 E8.62889
G1 X-11.937 Y-72.486 E8.65991
G1 X-11.796 Y-72.604 E8.66908
G1 X-11.292 Y-72.995 E8.70091
G1 X-11.133 Y-73.109 E8.71067
G1 X-10.583 Y-73.473 E8.74357
G1 X-10.432 Y-73.566 E8.75242
G1 X-9.867 Y-73.887 E8.78484
G1 X-9.712 Y-73.968 E8.79356
G1 X-9.104 Y-74.261 E8.82724
G1 X-8.956 Y-74.327 E8.83532
G1 X-8.318 Y-74.587 E8.86969
G1 X-8.162 Y-74.644 E8.87798
G1 X-7.487 Y-74.87 E8.91349
G1 X-7.343 Y-74.914 E8.921
G1 X-6.65 Y-75.102 E8.95683
G1 X-6.515 Y-75.135 E8.96376
G1 X-5.803 Y-75.288 E9.00009
G1 X-5.669 Y-75.313 E9.00689
G1 X-4.921 Y-75.433 E9.04469
G1 X-4.786 Y-75.451 E9.05148
G1 X-4.02 Y-75.533 E9.08992
G1 X-3.895 Y-75.544 E9.09618
G1 X-3.093 Y-75.591 E9.13626
G1 X-2.975 Y-75.595 E9.14215
G1 X-2.123 Y-75.606 E9.18466
G1 X-2.009 Y-75.605 E9.19035
G1 X-1.271 Y-75.581 E9.22719
G1 X-1.055 Y-75.569 E9.23798
G1 X-.316 Y-75.515 E9.27495
G1 X-.216 Y-75.506 E9.27996
G1 X0.634 Y-75.411 E9.32263
G1 X0.739 Y-75.397 E9.32791
G1 X1.62 Y-75.262 E9.37238
G1 X1.713 Y-75.246 E9.37708
G1 X2.604 Y-75.076 E9.42234
G1 X2.707 Y-75.054 E9.42759
G1 X3.698 Y-74.822 E9.47837
G1 X4.618 Y-74.573 E9.52592
G1 X5.591 Y-74.275 E9.57669
G1 X5.674 Y-74.248 E9.58105
G1 X6.632 Y-73.916 E9.63163
G1 X7.479 Y-73.593 E9.67685
G1 X7.668 Y-73.517 E9.68702
G1 X8.451 Y-73.188 E9.72939
G1 X9.335 Y-72.787 E9.77782
G1 X9.521 Y-72.699 E9.78808
G1 X10.382 Y-72.272 E9.83603
G1 X11.366 Y-71.747 E9.89167
G1 X12.235 Y-71.247 E9.94169
G1 X13.191 Y-70.657 E9.99774
G1 X14.014 Y-70.114 E10.04693
G1 X14.947 Y-69.457 E10.10386
G1 X15.765 Y-68.84 E10.15498
G1 X16.535 Y-68.223 E10.20421
G1 X17.351 Y-67.528 E10.25768
G1 X17.415 Y-67.472 E10.26192
G1 X18.148 Y-66.803 E10.31143
G1 X18.854 Y-66.117 E10.36055
G1 X19.558 Y-65.388 E10.41111
G1 X20.203 Y-64.676 E10.45904
G1 X20.265 Y-64.605 E10.46374
G1 X20.884 Y-63.87 E10.51168
G1 X21.51 Y-63.073 E10.56224
G1 X21.571 Y-62.992 E10.5673
G1 X22.1 Y-62.26 E10.61236
G1 X22.156 Y-62.179 E10.61727
G1 X22.652 Y-61.435 E10.66188
G1 X22.707 Y-61.349 E10.66698
G1 X23.146 Y-60.631 E10.70896
G1 X23.236 Y-60.475 E10.71795
G1 X23.612 Y-59.795 E10.75671
G1 X23.695 Y-59.637 E10.76562
G1 X24.012 Y-59.01 E10.80067
G1 X24.061 Y-58.907 E10.80636
G1 X24.403 Y-58.15 E10.8478
G1 X24.452 Y-58.036 E10.85399
G1 X24.752 Y-57.277 E10.89471
G1 X24.797 Y-57.153 E10.90129
G1 X25.049 Y-56.407 E10.94057
G1 X25.088 Y-56.282 E10.94711
G1 X25.293 Y-55.557 E10.9847
G1 X25.326 Y-55.427 E10.99139
G1 X25.489 Y-54.711 E11.02802
G1 X25.518 Y-54.565 E11.03545
G1 X25.637 Y-53.857 E11.07127
G1 X25.657 Y-53.712 E11.07857
G1 X25.733 Y-53.025 E11.11305
G1 X25.746 Y-52.866 E11.12101
G1 X25.78 Y-52.171 E11.15573
G1 X25.783 Y-52.005 E11.16401
G1 X25.773 Y-51.335 E11.19744
G1 X25.764 Y-51.16 E11.20618
G1 X25.71 Y-50.506 E11.23892
G1 X25.689 Y-50.325 E11.24801
G1 X25.591 Y-49.687 E11.28022
G1 X25.557 Y-49.507 E11.28936
G1 X25.418 Y-48.894 E11.32071
G1 X25.369 Y-48.71 E11.33021
G1 X25.186 Y-48.11 E11.36151
G1 X25.12 Y-47.921 E11.3715
G1 X24.894 Y-47.344 E11.40241
G1 X24.814 Y-47.161 E11.41238
G1 X24.546 Y-46.606 E11.44313
G1 X24.455 Y-46.434 E11.45283
G1 X24.148 Y-45.904 E11.48339
G1 X24.03 Y-45.719 E11.49434
G1 X23.67 Y-45.203 E11.52573
G1 X23.548 Y-45.042 E11.53581
G1 X23.165 Y-44.575 E11.56594
G1 X23.035 Y-44.428 E11.57573
G1 X22.603 Y-43.976 E11.60692
G1 X22.46 Y-43.838 E11.61684
G1 X21.998 Y-43.423 E11.64782
G1 X21.855 Y-43.303 E11.65713
G1 X21.351 Y-42.912 E11.68896
G1 X21.19 Y-42.797 E11.69883
G1 X20.642 Y-42.435 E11.73159
G1 X20.494 Y-42.344 E11.74026
G1 X19.926 Y-42.021 E11.77286
G1 X19.77 Y-41.939 E11.78165
G1 X19.162 Y-41.646 E11.81533
G1 X19.014 Y-41.58 E11.82341
G1 X18.376 Y-41.32 E11.85778
G1 X18.22 Y-41.263 E11.86607
G1 X17.545 Y-41.037 E11.90158
G1 X17.405 Y-40.994 E11.90889
G1 X16.713 Y-40.805 E11.94468
G1 X16.574 Y-40.771 E11.95182
G1 X15.861 Y-40.618 E11.9882
G1 X15.724 Y-40.592 E11.99515
G1 X14.977 Y-40.473 E12.03289
G1 X14.844 Y-40.456 E12.03958
G1 X14.077 Y-40.374 E12.07807
G1 X13.956 Y-40.364 E12.08412
G1 X13.154 Y-40.316 E12.12421
G1 X13.03 Y-40.311 E12.1304
G1 X12.178 Y-40.301 E12.17291
G1 X12.07 Y-40.302 E12.1783
G1 X11.391 Y-40.322 E12.21219
G1 X11.286 Y-40.327 E12.21743
G1 X10.402 Y-40.389 E12.26164
G1 X10.297 Y-40.399 E12.2669
G1 X9.425 Y-40.496 E12.31068
G1 X9.317 Y-40.51 E12.31611
G1 X8.438 Y-40.645 E12.36048
G1 X8.345 Y-40.661 E12.36518
G1 X7.456 Y-40.831 E12.41034
G0 F3600 X7.531 Y-41.224
G1 F2400 X7.449 Y-41.241 E12.41452
G1 X6.544 Y-41.45 E12.46086
G1 X5.542 Y-41.721 E12.51264
G1 X4.585 Y-42.015 E12.56259
G1 X4.516 Y-42.037 E12.5662
G1 X3.634 Y-42.341 E12.61275
G1 X2.597 Y-42.737 E12.66813
G1 X1.71 Y-43.11 E12.71613
G1 X0.737 Y-43.555 E12.76951
G1 X-.119 Y-43.979 E12.81717
G1 X-.298 Y-44.072 E12.82723
G1 X-1.125 Y-44.516 E12.87406
G1 X-2.014 Y-45.028 E12.92525
G1 X-2.815 Y-45.522 E12.9722
G1 X-3.736 Y-46.127 E13.02717
G1 X-4.636 Y-46.761 E13.0821
G1 X-5.491 Y-47.406 E13.13553
G1 X-6.283 Y-48.041 E13.18617
G1 X-7.085 Y-48.729 E13.23889
G1 X-7.811 Y-49.391 E13.28791
G1 X-8.504 Y-50.064 E13.3361
G1 X-9.183 Y-50.766 E13.38483
G1 X-9.312 Y-50.906 E13.39433
G1 X-9.902 Y-51.561 E13.43831
G1 X-10.52 Y-52.295 E13.48618
G1 X-11.138 Y-53.083 E13.53614
G1 X-11.189 Y-53.15 E13.54034
G1 X-11.727 Y-53.894 E13.58615
G1 X-12.276 Y-54.717 E13.6355
G1 X-12.323 Y-54.791 E13.63988
G1 X-12.758 Y-55.506 E13.68163
G1 X-12.825 Y-55.622 E13.68831
G1 X-13.184 Y-56.267 E13.72514
G1 X-13.29 Y-56.467 E13.73644
G1 X-13.639 Y-57.165 E13.77537
G1 X-13.983 Y-57.928 E13.81713
G1 X-14.023 Y-58.023 E13.82227
G1 X-14.324 Y-58.784 E13.8631
G1 X-14.362 Y-58.889 E13.86867
G1 X-14.612 Y-59.629 E13.90764
G1 X-14.645 Y-59.734 E13.91313
G1 X-14.85 Y-60.458 E13.95067
G1 X-14.878 Y-60.569 E13.95638
G1 X-15.041 Y-61.285 E13.99301
G1 X-15.066 Y-61.409 E13.99932
G1 X-15.185 Y-62.118 E14.03519
G1 X-15.202 Y-62.241 E14.04139
