;FLAVOR:Marlin
;TIME:11457
;Filament used: 11.9939m
;Layer height: 0.2
;MINX:-47.067
;MINY:-69.252
;MINZ:0.25
;MAXX:56.71
;MAXY:-21.217
;MAXZ:52.65
;TARGET_MACHINE.NAME:Unknown
;Generated with Cura_SteamEngine 5.9.0
M140 S50
M105
M190 S50
M104 S225
M105
M109 S225
M82 ;absolute extrusion mode
;FLAVOR:Marlin
M82 ;absolute extrusion mode
G21
G90
M82
M107 T0
G28
G92 E0
G0 E3 F200
G92 E0 ; reset extrusion distance
M106 S255 ; Enable cooling fan full speed
G1 X-98 Y0 Z0.4 F3000 ; move to arc start
G3 X0 Y-98 I98 Z0.4 E40 F400 ; lay arc stripe 90deg
G92 E0 ; reset extrusion distance
G4 P500 ; wait for 0.5 sec
G0 Z10 E-1 ; Lift 15mm and retract 1mm filament
G4 P2000 ; wait for 5 sec
G0 Z15
M107 ; Disable cooling fan
G1 X0 Y-85 Z4 E0 F3000 ; get off the bed
G92 E0
G92 E0
G1 F1500 E-1
;LAYER_COUNT:258
;LAYER:0
M106 S102
G1 F600 Z1.25
G0 F1500 X28.289 Y-38.192 Z1.25
;TYPE:SKIRT
G1 F600 Z0.25
G1 F3600 E0.75698
G1 F1200 X27.482 Y-38.364 E0.79168
G1 X26.311 Y-38.403 E0.84095
G1 X25.581 Y-38.544 E0.87222
G1 X24.592 Y-39.095 E0.91983
G1 X24.042 Y-39.798 E0.95737
G1 X23.64 Y-40.533 E0.9926
G1 X23.42 Y-41.267 E1.02482
G1 X23.403 Y-41.629 E1.04006
G1 X23.313 Y-42.017 E1.05681
G1 X23.284 Y-42.634 E1.08279
G1 X23.481 Y-43.632 E1.12557
G1 X24.022 Y-44.458 E1.1671
G1 X24.093 Y-44.851 E1.18389
G1 X24.132 Y-45.992 E1.2319
G1 X-14.612 Y-46.74 E2.86156
G1 X-14.586 Y-46.506 E2.87146
G1 X-14.603 Y-45.642 E2.90781
G1 X-14.553 Y-45.177 E2.92747
G1 X-14.377 Y-44.926 E2.94037
G1 X-14.044 Y-44.264 E2.97153
G1 X-13.894 Y-43.539 E3.00267
G1 X-13.912 Y-42.863 E3.0311
G1 X-14.087 Y-41.969 E3.06941
G1 X-14.296 Y-41.296 E3.09905
G1 X-14.795 Y-40.471 E3.1396
G1 X-15.419 Y-39.826 E3.17734
G1 X-16.267 Y-39.352 E3.21819
G1 X-17.131 Y-39.227 E3.25491
G1 X-18.222 Y-39.246 E3.3008
G1 X-19.087 Y-39.104 E3.33766
G1 X-30.266 Y-39.358 E3.80791
G1 X-30.966 Y-39.492 E3.83788
G1 X-32.042 Y-39.514 E3.88314
G1 X-32.912 Y-39.728 E3.92082
G1 X-33.802 Y-40.226 E3.96371
G1 X-34.347 Y-40.928 E4.00108
G1 X-34.749 Y-41.662 E4.03628
G1 X-34.969 Y-42.396 E4.0685
G1 X-34.989 Y-42.812 E4.08602
G1 X-35.106 Y-43.394 E4.11098
G1 X-35.075 Y-44.073 E4.13957
G1 X-34.87 Y-44.799 E4.17129
G1 X-34.403 Y-45.546 E4.20834
G1 X-34.327 Y-46.169 E4.23473
G1 X-34.258 Y-47.121 E4.27487
G1 X-44.32 Y-47.331 E4.69812
G1 X-45.076 Y-47.476 E4.73049
G1 X-46.019 Y-48.032 E4.77653
G1 X-46.627 Y-48.76 E4.81642
G1 X-46.857 Y-49.318 E4.8418
G1 X-47.067 Y-50.153 E4.87801
G1 X-47.005 Y-51.658 E4.94135
G1 X-46.935 Y-52.559 E4.97936
G1 X-46.782 Y-53.914 E5.0367
G1 X-46.579 Y-55.208 E5.09179
G1 X-46.328 Y-56.408 E5.14335
G1 X-45.91 Y-57.951 E5.21057
G1 X-45.485 Y-59.214 E5.26662
G1 X-44.852 Y-60.738 E5.33602
G1 X-44.166 Y-62.093 E5.39989
G1 X-43.326 Y-63.464 E5.4675
G1 X-42.623 Y-64.431 E5.51778
G1 X-41.455 Y-65.756 E5.59206
G1 X-40.431 Y-66.696 E5.65052
G1 X-39.182 Y-67.614 E5.71571
G1 X-38.09 Y-68.235 E5.76854
G1 X-36.513 Y-68.881 E5.8402
G1 X-35.202 Y-69.252 E5.8975
G1 X45.585 Y-67.694 E9.29559
G1 X47.154 Y-67.166 E9.3652
G1 X48.338 Y-66.616 E9.42011
G1 X49.657 Y-65.79 E9.48556
G1 X50.938 Y-64.736 E9.55532
G1 X51.747 Y-63.91 E9.60394
G1 X52.814 Y-62.589 E9.67535
G1 X53.511 Y-61.546 E9.72811
G1 X54.316 Y-60.108 E9.79741
G1 X54.873 Y-58.892 E9.85366
G1 X55.468 Y-57.287 E9.92565
G1 X55.901 Y-55.792 E9.9911
G1 X56.221 Y-54.377 E10.05211
G1 X56.427 Y-53.14 E10.10485
G1 X56.591 Y-51.693 E10.16609
G1 X56.678 Y-50.426 E10.2195
G1 X56.71 Y-49.24 E10.2694
G1 X56.706 Y-48.235 E10.31166
G1 X56.51 Y-47.377 E10.34867
G1 X56.104 Y-46.624 E10.38465
G1 X55.895 Y-46.376 E10.39829
G1 X55.313 Y-45.918 E10.42944
G1 X54.497 Y-45.521 E10.4676
G1 X53.658 Y-45.421 E10.50313
G1 X43.808 Y-45.612 E10.91745
G1 X43.801 Y-44.59 E10.96043
G1 X43.858 Y-44.024 E10.98435
G1 X44.014 Y-43.794 E10.99604
G1 X44.41 Y-43.043 E11.03174
G1 X44.628 Y-42.184 E11.06901
G1 X44.559 Y-41.303 E11.10617
G1 X44.343 Y-40.627 E11.13602
G1 X43.696 Y-39.495 E11.19085
G1 X43.179 Y-38.89 E11.22432
G1 X42.355 Y-38.315 E11.26658
G1 X41.396 Y-38.097 E11.30793
G1 X40.141 Y-38.12 E11.36072
G1 X39.316 Y-37.976 E11.39594
G1 X28.289 Y-38.192 E11.85976
G0 F1500 X28.333 Y-38.591
G1 F1200 X27.527 Y-38.763 E11.89442
G1 X26.387 Y-38.796 E11.94238
G1 X25.721 Y-38.925 E11.97091
G1 X24.855 Y-39.407 E12.01259
G1 X24.393 Y-39.99 E12.04388
G1 X24.011 Y-40.689 E12.07738
G1 X23.818 Y-41.333 E12.10565
G1 X23.801 Y-41.687 E12.12055
G1 X23.713 Y-42.036 E12.13569
G1 X23.686 Y-42.607 E12.15973
G1 X23.858 Y-43.477 E12.19703
G1 X24.401 Y-44.307 E12.23874
G1 X24.492 Y-44.808 E12.26015
G1 X24.526 Y-45.941 E12.30782
G1 X24.639 Y-46.382 E12.32696
G1 X-15.07 Y-47.149 E13.99722
G1 X-14.986 Y-46.514 E14.02415
G1 X-15.004 Y-45.623 E14.06163
G1 X-14.94 Y-45.028 E14.0868
G1 X-14.734 Y-44.746 E14.10148
G1 X-14.426 Y-44.133 E14.13033
G1 X-14.295 Y-43.502 E14.15744
G1 X-14.305 Y-42.939 E14.18112
G1 X-14.469 Y-42.088 E14.21756
G1 X-14.664 Y-41.46 E14.24522
G1 X-15.114 Y-40.716 E14.28178
G1 X-15.665 Y-40.147 E14.31509
G1 X-16.398 Y-39.737 E14.35041
G1 X-17.124 Y-39.627 E14.38129
G1 X-18.253 Y-39.647 E14.42878
G1 X-19.116 Y-39.505 E14.46556
G1 X-30.191 Y-39.751 E14.93143
G1 X-30.924 Y-39.891 E14.96281
G1 X-31.992 Y-39.913 E15.00774
G1 X-32.761 Y-40.102 E15.04104
G1 X-33.537 Y-40.537 E15.07845
G1 X-33.996 Y-41.12 E15.10966
G1 X-34.378 Y-41.818 E15.14312
G1 X-34.571 Y-42.462 E15.17139
G1 X-34.59 Y-42.858 E15.18806
G1 X-34.704 Y-43.423 E15.2123
G1 X-34.677 Y-44.011 E15.23706
G1 X-34.501 Y-44.636 E15.26436
G1 X-34.017 Y-45.41 E15.30275
G1 X-33.928 Y-46.133 E15.33339
G1 X-33.887 Y-46.653 E15.35532
G1 X-33.869 Y-47.025 E15.37099
G1 X-33.771 Y-47.511 E15.39184
G1 X-44.245 Y-47.724 E15.83241
G1 X-44.932 Y-47.856 E15.86183
G1 X-45.758 Y-48.343 E15.90215
G1 X-46.28 Y-48.968 E15.9364
G1 X-46.469 Y-49.416 E15.95684
G1 X-46.665 Y-50.194 E15.99059
G1 X-46.606 Y-51.627 E16.0509
G1 X-46.538 Y-52.514 E16.08831
G1 X-46.387 Y-53.852 E16.14494
G1 X-46.187 Y-55.126 E16.19917
G1 X-45.936 Y-56.326 E16.25073
G1 X-45.531 Y-57.823 E16.31595
G1 X-45.106 Y-59.086 E16.37199
G1 X-44.495 Y-60.557 E16.43898
G1 X-43.809 Y-61.912 E16.50285
G1 X-43.002 Y-63.229 E16.5678
G1 X-42.299 Y-64.196 E16.61808
G1 X-41.184 Y-65.462 E16.68903
G1 X-40.194 Y-66.374 E16.74563
G1 X-38.984 Y-67.266 E16.80885
G1 X-37.892 Y-67.887 E16.86168
G1 X-36.404 Y-68.496 E16.9293
G1 X-35.15 Y-68.851 E16.9841
G1 X45.517 Y-67.295 E20.37714
G1 X46.985 Y-66.803 E20.44225
G1 X48.169 Y-66.253 E20.49715
G1 X49.403 Y-65.481 E20.55837
G1 X50.652 Y-64.456 E20.62632
G1 X51.461 Y-63.63 E20.67494
G1 X52.481 Y-62.367 E20.74321
G1 X53.178 Y-61.324 E20.79597
G1 X53.952 Y-59.941 E20.86262
G1 X54.509 Y-58.725 E20.91886
G1 X55.084 Y-57.175 E20.98839
G1 X55.511 Y-55.704 E21.05281
G1 X55.826 Y-54.311 E21.11287
G1 X56.032 Y-53.074 E21.1656
G1 X56.192 Y-51.666 E21.2252
G1 X56.278 Y-50.415 E21.27793
G1 X56.31 Y-49.242 E21.32728
G1 X56.306 Y-48.281 E21.3677
G1 X56.132 Y-47.519 E21.40057
G1 X55.752 Y-46.814 E21.43425
G1 X55.647 Y-46.69 E21.44108
G1 X55.1 Y-46.259 E21.47037
G1 X54.382 Y-45.91 E21.50394
G1 X53.666 Y-45.821 E21.53428
G1 X43.331 Y-46.021 E21.969
G1 X43.407 Y-45.451 E21.99318
G1 X43.401 Y-44.581 E22.02977
G1 X43.434 Y-44.077 E22.05101
G1 X43.486 Y-43.859 E22.06043
G1 X43.66 Y-43.607 E22.07331
G1 X44.034 Y-42.898 E22.10702
G1 X44.224 Y-42.15 E22.13948
G1 X44.164 Y-41.38 E22.17196
G1 X43.974 Y-40.787 E22.19815
G1 X43.369 Y-39.728 E22.24944
G1 X42.908 Y-39.189 E22.27926
G1 X42.19 Y-38.688 E22.31608
G1 X41.355 Y-38.498 E22.3521
G1 X40.11 Y-38.521 E22.40446
G1 X39.286 Y-38.377 E22.43964
G1 X28.333 Y-38.591 E22.90035
G0 F1500 X28.378 Y-38.99
G1 F1200 X27.573 Y-39.162 E22.93497
G1 X26.463 Y-39.189 E22.98166
G1 X25.858 Y-39.306 E23.00758
G1 X25.119 Y-39.718 E23.04316
G1 X24.744 Y-40.182 E23.06825
G1 X24.382 Y-40.845 E23.10002
G1 X24.216 Y-41.399 E23.12434
G1 X24.199 Y-41.749 E23.13907
G1 X24.113 Y-42.055 E23.15244
G1 X24.088 Y-42.58 E23.17454
G1 X24.235 Y-43.322 E23.20635
G1 X24.781 Y-44.156 E23.24828
G1 X24.891 Y-44.764 E23.27426
G1 X24.925 Y-45.884 E23.32138
G1 X25.08 Y-46.492 E23.34777
G1 X25.223 Y-46.771 E23.36095
G1 X-15.675 Y-47.561 E25.08122
G1 X-15.463 Y-47.085 E25.10313
G1 X-15.386 Y-46.522 E25.12703
G1 X-15.405 Y-45.604 E25.16564
G1 X-15.326 Y-44.876 E25.19644
G1 X-15.092 Y-44.567 E25.21274
G1 X-14.808 Y-44.001 E25.23937
G1 X-14.687 Y-43.42 E25.26433
G1 X-14.705 Y-42.954 E25.28394
G1 X-14.81 Y-42.561 E25.30105
G1 X-14.851 Y-42.207 E25.31603
G1 X-15.032 Y-41.624 E25.3417
G1 X-15.433 Y-40.961 E25.37429
G1 X-15.911 Y-40.468 E25.40317
G1 X-16.529 Y-40.122 E25.43295
G1 X-17.117 Y-40.027 E25.458
G1 X-18.284 Y-40.048 E25.50709
G1 X-19.145 Y-39.906 E25.54379
G1 X-30.116 Y-40.144 E26.00527
G1 X-30.882 Y-40.29 E26.03807
G1 X-31.942 Y-40.312 E26.08265
G1 X-32.61 Y-40.476 E26.11158
G1 X-33.273 Y-40.848 E26.14355
G1 X-33.645 Y-41.312 E26.16856
G1 X-34.007 Y-41.974 E26.20029
G1 X-34.173 Y-42.528 E26.22461
G1 X-34.191 Y-42.905 E26.24049
G1 X-34.302 Y-43.452 E26.26396
G1 X-34.279 Y-43.948 E26.28484
G1 X-34.131 Y-44.472 E26.30774
G1 X-33.701 Y-45.164 E26.342
G1 X-33.634 Y-45.25 E26.34659
G1 X-33.529 Y-46.097 E26.38248
G1 X-33.487 Y-46.634 E26.40513
G1 X-33.469 Y-47.006 E26.42079
G1 X-33.352 Y-47.558 E26.44452
G1 X-33.179 Y-47.899 E26.4606
G1 X-44.169 Y-48.117 E26.92287
G1 X-44.788 Y-48.236 E26.94938
G1 X-45.497 Y-48.654 E26.98399
G1 X-45.934 Y-49.177 E27.01266
G1 X-46.081 Y-49.514 E27.02812
G1 X-46.263 Y-50.235 E27.05939
G1 X-46.207 Y-51.597 E27.11672
G1 X-46.141 Y-52.469 E27.15349
G1 X-45.992 Y-53.79 E27.2094
G1 X-45.795 Y-55.044 E27.26278
G1 X-45.544 Y-56.244 E27.31434
G1 X-45.152 Y-57.695 E27.37755
G1 X-44.727 Y-58.958 E27.43359
G1 X-44.138 Y-60.376 E27.49816
G1 X-43.452 Y-61.731 E27.56203
G1 X-42.678 Y-62.994 E27.62433
G1 X-41.975 Y-63.961 E27.67461
G1 X-40.912 Y-65.168 E27.74224
G1 X-39.956 Y-66.052 E27.797
G1 X-38.786 Y-66.918 E27.85822
G1 X-37.694 Y-67.539 E27.91105
G1 X-36.295 Y-68.111 E27.97461
G1 X-35.098 Y-68.45 E28.02693
G1 X45.449 Y-66.896 E31.41492
G1 X46.816 Y-66.44 E31.47552
G1 X48 Y-65.89 E31.53042
G1 X49.15 Y-65.171 E31.58746
G1 X50.366 Y-64.176 E31.65353
G1 X51.175 Y-63.35 E31.70216
G1 X52.148 Y-62.145 E31.76729
G1 X52.845 Y-61.102 E31.82005
G1 X53.588 Y-59.774 E31.88404
G1 X54.145 Y-58.558 E31.94029
G1 X54.709 Y-57.036 E32.00855
G1 X55.121 Y-55.616 E32.07073
G1 X55.431 Y-54.245 E32.12984
G1 X55.637 Y-53.008 E32.18258
G1 X55.793 Y-51.639 E32.24052
G1 X55.878 Y-50.404 E32.29258
G1 X55.91 Y-49.244 E32.34139
G1 X55.906 Y-48.327 E32.37995
G1 X55.754 Y-47.661 E32.40868
G1 X55.4 Y-47.004 E32.44006
G1 X54.889 Y-46.602 E32.46741
G1 X54.267 Y-46.299 E32.4965
G1 X53.674 Y-46.221 E32.52166
G1 X42.735 Y-46.433 E32.98177
G1 X42.933 Y-45.982 E33.00249
G1 X43.007 Y-45.454 E33.02491
G1 X43.001 Y-44.571 E33.06205
G1 X43.037 Y-44.017 E33.08539
G1 X43.115 Y-43.69 E33.09953
G1 X43.306 Y-43.421 E33.1134
G1 X43.657 Y-42.755 E33.14506
G1 X43.82 Y-42.115 E33.17284
G1 X43.769 Y-41.457 E33.20059
G1 X43.605 Y-40.947 E33.22312
G1 X43.042 Y-39.961 E33.27087
G1 X42.637 Y-39.488 E33.29706
G1 X42.025 Y-39.061 E33.32844
G1 X41.314 Y-38.899 E33.35911
G1 X40.079 Y-38.922 E33.41106
G1 X39.256 Y-38.778 E33.44619
G1 X28.378 Y-38.99 E33.90375
G0 F1500 X28.423 Y-39.389
G1 F1200 X27.618 Y-39.561 E33.93836
G1 X26.539 Y-39.582 E33.98375
G1 X25.995 Y-39.687 E34.00705
G1 X25.381 Y-40.029 E34.03661
G1 X25.095 Y-40.374 E34.05545
G1 X24.753 Y-41.001 E34.08549
G1 X24.614 Y-41.465 E34.10586
G1 X24.597 Y-41.817 E34.12068
G1 X24.512 Y-42.086 E34.13254
G1 X24.48 Y-42.502 E34.15009
G1 X24.612 Y-43.167 E34.1786
G1 X25.076 Y-43.885 E34.21455
G1 X25.157 Y-43.986 E34.22
G1 X25.29 Y-44.721 E34.25141
G1 X25.324 Y-45.827 E34.29794
G1 X25.468 Y-46.393 E34.3225
G1 X25.731 Y-46.852 E34.34475
G1 X26.051 Y-47.155 E34.36328
G1 X-16.466 Y-47.976 E36.15164
G1 X-16.142 Y-47.606 E36.17233
G1 X-15.859 Y-47.027 E36.19943
G1 X-15.786 Y-46.53 E36.22056
G1 X-15.806 Y-45.585 E36.26031
G1 X-15.732 Y-44.906 E36.28903
G1 X-15.648 Y-44.635 E36.30096
G1 X-15.449 Y-44.387 E36.31433
G1 X-15.187 Y-43.866 E36.33886
G1 X-15.087 Y-43.435 E36.35747
G1 X-15.105 Y-42.969 E36.37708
G1 X-15.204 Y-42.639 E36.39157
G1 X-15.233 Y-42.326 E36.40479
G1 X-15.4 Y-41.788 E36.42848
G1 X-15.75 Y-41.209 E36.45693
G1 X-16.158 Y-40.789 E36.48155
G1 X-16.663 Y-40.506 E36.5059
G1 X-17.11 Y-40.427 E36.52499
G1 X-18.315 Y-40.449 E36.57567
G1 X-19.175 Y-40.307 E36.61233
G1 X-30.041 Y-40.537 E37.06939
G1 X-30.84 Y-40.689 E37.1036
G1 X-31.891 Y-40.711 E37.14781
G1 X-32.46 Y-40.851 E37.17245
G1 X-33.01 Y-41.16 E37.19898
G1 X-33.294 Y-41.504 E37.21774
G1 X-33.636 Y-42.13 E37.24774
G1 X-33.775 Y-42.594 E37.26811
G1 X-33.793 Y-42.959 E37.28348
G1 X-33.902 Y-43.433 E37.30393
G1 X-33.879 Y-43.929 E37.32481
G1 X-33.791 Y-44.261 E37.33926
G1 X-33.361 Y-44.953 E37.37352
G1 X-33.251 Y-45.084 E37.38071
G1 X-33.131 Y-46.058 E37.42198
G1 X-33.088 Y-46.603 E37.44497
G1 X-33.078 Y-46.923 E37.45844
G1 X-32.961 Y-47.475 E37.48217
G1 X-32.67 Y-47.982 E37.50675
G1 X-32.35 Y-48.283 E37.52523
G1 X-44.093 Y-48.51 E38.01916
G1 X-44.644 Y-48.616 E38.04276
G1 X-45.234 Y-48.964 E38.07157
G1 X-45.591 Y-49.391 E38.09497
G1 X-45.693 Y-49.612 E38.10521
G1 X-45.861 Y-50.276 E38.13401
G1 X-45.808 Y-51.567 E38.18835
G1 X-45.744 Y-52.424 E38.22449
G1 X-45.597 Y-53.728 E38.27968
G1 X-45.403 Y-54.962 E38.33221
G1 X-45.152 Y-56.162 E38.38377
G1 X-44.773 Y-57.567 E38.44497
G1 X-44.348 Y-58.83 E38.50101
G1 X-43.781 Y-60.195 E38.56317
G1 X-43.095 Y-61.55 E38.62704
G1 X-42.354 Y-62.759 E38.68667
G1 X-41.651 Y-63.726 E38.73695
G1 X-40.64 Y-64.875 E38.80131
G1 X-39.718 Y-65.731 E38.85422
G1 X-38.588 Y-66.57 E38.91341
G1 X-37.496 Y-67.191 E38.96624
G1 X-36.186 Y-67.726 E39.02575
G1 X-35.046 Y-68.049 E39.07558
G1 X45.379 Y-66.497 E42.45843
G1 X46.647 Y-66.077 E42.51461
G1 X47.831 Y-65.527 E42.56951
G1 X48.937 Y-64.832 E42.62444
G1 X50.08 Y-63.896 E42.68657
G1 X50.889 Y-63.07 E42.7352
G1 X51.815 Y-61.923 E42.79719
G1 X52.512 Y-60.88 E42.84995
G1 X53.224 Y-59.607 E42.91129
G1 X53.781 Y-58.391 E42.96753
G1 X54.334 Y-56.897 E43.03453
G1 X54.731 Y-55.528 E43.09447
G1 X55.036 Y-54.179 E43.15264
G1 X55.242 Y-52.942 E43.20537
G1 X55.394 Y-51.612 E43.26167
G1 X55.478 Y-50.393 E43.31306
G1 X55.51 Y-49.246 E43.36131
G1 X55.506 Y-48.373 E43.39803
G1 X55.376 Y-47.803 E43.42261
G1 X55.087 Y-47.267 E43.44822
G1 X54.714 Y-46.962 E43.46848
G1 X54.149 Y-46.687 E43.49491
G1 X53.682 Y-46.621 E43.51474
G1 X41.946 Y-46.848 E44.00839
G1 X42.271 Y-46.474 E44.02922
G1 X42.537 Y-45.923 E44.05495
G1 X42.607 Y-45.457 E44.07477
G1 X42.601 Y-44.562 E44.11241
G1 X42.64 Y-43.956 E44.13795
G1 X42.745 Y-43.519 E44.15685
G1 X42.952 Y-43.235 E44.17163
G1 X43.28 Y-42.612 E44.20124
G1 X43.416 Y-42.079 E44.22437
G1 X43.37 Y-41.488 E44.2493
G1 X43.227 Y-41.079 E44.26752
G1 X42.715 Y-40.194 E44.31052
G1 X42.366 Y-39.787 E44.33307
G1 X41.86 Y-39.434 E44.35901
G1 X41.273 Y-39.3 E44.38433
G1 X40.048 Y-39.323 E44.43586
G1 X39.226 Y-39.179 E44.47096
G1 X28.423 Y-39.389 E44.92536
G0 F1500 X28.468 Y-39.788
G1 F1200 X27.663 Y-39.96 E44.95997
G1 X26.547 Y-39.982 E45.00691
G1 X26.132 Y-40.068 E45.02474
G1 X25.642 Y-40.341 E45.04833
G1 X25.446 Y-40.566 E45.06088
G1 X25.104 Y-41.193 E45.09091
G1 X24.999 Y-41.572 E45.10745
G1 X24.996 Y-41.887 E45.1207
G1 X24.909 Y-42.137 E45.13183
G1 X24.872 Y-42.424 E45.144
G1 X24.989 Y-43.013 E45.16925
G1 X25.412 Y-43.668 E45.20204
G1 X25.532 Y-43.809 E45.20983
G1 X25.689 Y-44.678 E45.24697
G1 X25.723 Y-45.776 E45.29317
G1 X25.815 Y-46.194 E45.31117
G1 X26.078 Y-46.653 E45.33341
G1 X26.31 Y-46.85 E45.34621
G1 X26.804 Y-47.081 E45.36915
G1 X27.151 Y-47.134 E45.38391
