;FLAVOR:Marlin
;TIME:4913
;Filament used: 3.46418m
;Layer height: 0.24
;MINX:-37.93
;MINY:-61.9
;MINZ:0.24
;MAXX:49.426
;MAXY:76.174
;MAXZ:12.61
;TARGET_MACHINE.NAME:Unknown
;Generated with Cura_SteamEngine 5.8.1
M140 S60
M105
M190 S60
M104 S200
M105
M109 S200
M82 ;absolute extrusion mode
;FLAVOR:Marlin
M82 ;absolute extrusion mode
G21
G90
M82
M107 T0
G28
G92 E0
G0 E3 F200
G92 E0 ; reset extrusion distance
M106 S255 ; Enable cooling fan full speed
G1 X-98 Y0 Z0.4 F3000 ; move to arc start
G3 X0 Y-98 I98 Z0.4 E40 F400 ; lay arc stripe 90deg
G92 E0 ; reset extrusion distance
G4 P500 ; wait for 0.5 sec
G0 Z10 E-1 ; Lift 15mm and retract 1mm filament
G4 P2000 ; wait for 5 sec
G0 Z15
M107 ; Disable cooling fan
G1 X0 Y-85 Z4 E0 F3000 ; get off the bed
G92 E0
G92 E0
G1 F1500 E-6.5
;LAYER_COUNT:32
;LAYER:0
M106 S51
G1 F600 Z1.24
G0 F4800 X0.372 Y-33.9 Z1.24
;TYPE:SKIRT
G1 F600 Z0.24
G1 F1500 E0.54048
G1 F1200 X-35.053 Y-33.9 E1.95437
G1 X-35.943 Y-34.082 E1.99062
G1 X-36.698 Y-34.48 E2.02469
G1 X-36.918 Y-34.649 E2.03576
G1 X-37.416 Y-35.267 E2.06744
G1 X-37.812 Y-36.063 E2.10292
G1 X-37.926 Y-36.842 E2.13434
G1 X-37.93 Y-59.023 E3.01964
G1 X-37.748 Y-59.913 E3.05589
G1 X-37.35 Y-60.668 E3.08996
G1 X-37.181 Y-60.888 E3.10103
G1 X-36.563 Y-61.386 E3.13271
G1 X-35.767 Y-61.782 E3.16819
G1 X-34.988 Y-61.896 E3.19961
G1 X0.071 Y-61.9 E4.59889
G1 X0.756 Y-61.799 E4.62653
G1 X1.144 Y-61.645 E4.64319
G1 X1.948 Y-61.9 E4.67686
G1 X45.05 Y-61.9 E6.39715
G1 X45.94 Y-61.718 E6.43341
G1 X46.695 Y-61.32 E6.46747
G1 X46.915 Y-61.151 E6.47854
G1 X47.413 Y-60.533 E6.51022
G1 X47.809 Y-59.737 E6.5457
G1 X47.923 Y-58.958 E6.57713
G1 X47.927 Y-52.67 E6.8281
G1 X47.949 Y-52.103 E6.85074
G1 X48.031 Y-51.92 E6.85875
G1 X48.651 Y-51.388 E6.89135
G1 X49.103 Y-50.724 E6.92341
G1 X49.426 Y-49.702 E6.96619
G1 X49.416 Y-46.272 E7.10309
G1 X49.301 Y-45.561 E7.13184
G1 X48.994 Y-44.868 E7.16209
G1 X48.527 Y-44.268 E7.19243
G1 X48.031 Y-43.931 E7.21637
G1 X47.955 Y-43.684 E7.22668
G1 X47.926 Y-43.225 E7.24504
G1 X47.926 Y-36.777 E7.50239
G1 X47.744 Y-35.887 E7.53865
G1 X47.346 Y-35.132 E7.57271
G1 X47.177 Y-34.912 E7.58379
G1 X46.559 Y-34.414 E7.61546
G1 X45.763 Y-34.018 E7.65095
G1 X44.984 Y-33.904 E7.68237
G1 X2.009 Y-33.9 E9.3976
G1 X1.299 Y-34.084 E9.42687
G1 X1.151 Y-34.146 E9.43327
G1 X0.372 Y-33.9 E9.46588
G0 F4800 X0.312 Y-34.3
G1 F1200 X-35.012 Y-34.3 E10.87574
G1 X-35.808 Y-34.463 E10.90817
G1 X-36.512 Y-34.834 E10.93993
G1 X-36.637 Y-34.937 E10.94639
G1 X-37.077 Y-35.483 E10.97438
G1 X-37.425 Y-36.183 E11.00558
G1 X-37.53 Y-36.9 E11.0345
G1 X-37.53 Y-58.982 E11.91584
G1 X-37.367 Y-59.778 E11.94827
G1 X-36.996 Y-60.482 E11.98003
G1 X-36.893 Y-60.607 E11.9865
G1 X-36.347 Y-61.047 E12.01448
G1 X-35.647 Y-61.395 E12.04568
G1 X-34.93 Y-61.5 E12.07461
G1 X0.071 Y-61.5 E13.47157
G1 X0.695 Y-61.404 E13.49677
G1 X1.142 Y-61.209 E13.51623
G1 X1.278 Y-61.269 E13.52217
G1 X2.009 Y-61.5 E13.55277
G1 X45.009 Y-61.5 E15.26899
G1 X45.805 Y-61.337 E15.30142
G1 X46.509 Y-60.966 E15.33318
G1 X46.634 Y-60.863 E15.33964
G1 X47.074 Y-60.317 E15.36763
G1 X47.422 Y-59.617 E15.39883
G1 X47.527 Y-58.9 E15.42775
G1 X47.527 Y-52.654 E15.67704
G1 X47.552 Y-52.01 E15.70277
G1 X47.723 Y-51.63 E15.7194
G1 X47.846 Y-51.552 E15.72521
G1 X48.349 Y-51.12 E15.75168
G1 X48.74 Y-50.546 E15.7794
G1 X49.026 Y-49.642 E15.81724
G1 X49.021 Y-46.336 E15.94919
G1 X48.914 Y-45.676 E15.97587
G1 X48.648 Y-45.076 E16.00207
G1 X48.249 Y-44.563 E16.02801
G1 X47.745 Y-44.22 E16.05234
G1 X47.668 Y-44.11 E16.0577
G1 X47.559 Y-43.757 E16.07245
G1 X47.526 Y-43.234 E16.09336
G1 X47.526 Y-36.818 E16.34944
G1 X47.363 Y-36.022 E16.38187
G1 X46.992 Y-35.318 E16.41363
G1 X46.889 Y-35.193 E16.42009
G1 X46.343 Y-34.753 E16.44808
G1 X45.643 Y-34.405 E16.47928
G1 X44.926 Y-34.3 E16.5082
G1 X2.059 Y-34.3 E18.21912
G1 X1.399 Y-34.471 E18.24633
G1 X1.18 Y-34.574 E18.25599
G1 X0.312 Y-34.3 E18.29232
G0 F4800 X0.251 Y-34.7
G1 F1200 X-34.971 Y-34.7 E19.6981
G1 X-35.673 Y-34.844 E19.72671
G1 X-36.326 Y-35.188 E19.75616
G1 X-36.738 Y-35.699 E19.78236
G1 X-37.039 Y-36.305 E19.80937
G1 X-37.13 Y-36.9 E19.83339
G1 X-37.13 Y-58.941 E20.7131
G1 X-36.986 Y-59.643 E20.7417
G1 X-36.642 Y-60.296 E20.77115
G1 X-36.131 Y-60.708 E20.79735
G1 X-35.525 Y-61.009 E20.82436
G1 X-34.93 Y-61.1 E20.84838
G1 X0.071 Y-61.1 E22.24535
G1 X0.631 Y-61.009 E22.26799
G1 X1.143 Y-60.765 E22.29063
G1 X1.399 Y-60.888 E22.30197
G1 X2.07 Y-61.1 E22.33005
G1 X44.968 Y-61.1 E24.0422
G1 X45.67 Y-60.956 E24.07081
G1 X46.323 Y-60.612 E24.10026
G1 X46.735 Y-60.101 E24.12646
G1 X47.036 Y-59.495 E24.15347
G1 X47.127 Y-58.9 E24.17749
G1 X47.127 Y-52.639 E24.42738
G1 X47.154 Y-51.942 E24.45522
G1 X47.241 Y-51.668 E24.4667
G1 X47.43 Y-51.335 E24.48198
G1 X47.586 Y-51.248 E24.48911
G1 X48.048 Y-50.852 E24.51339
G1 X48.377 Y-50.368 E24.53675
G1 X48.626 Y-49.581 E24.5697
G1 X48.626 Y-46.4 E24.69666
G1 X48.527 Y-45.791 E24.72128
G1 X48.301 Y-45.281 E24.74355
G1 X47.973 Y-44.859 E24.76488
G1 X47.462 Y-44.511 E24.78955
G1 X47.304 Y-44.288 E24.80046
G1 X47.163 Y-43.83 E24.81959
G1 X47.126 Y-43.243 E24.84306
G1 X47.126 Y-36.859 E25.09786
G1 X46.982 Y-36.157 E25.12646
G1 X46.638 Y-35.504 E25.15592
G1 X46.127 Y-35.092 E25.18212
G1 X45.521 Y-34.791 E25.20913
G1 X44.926 Y-34.7 E25.23315
G1 X2.109 Y-34.7 E26.94207
G1 X1.499 Y-34.858 E26.96722
G1 X1.158 Y-35.035 E26.98255
G1 X0.922 Y-34.912 E26.99318
G1 X0.251 Y-34.7 E27.02126
G0 F4800 X0.191 Y-35.1
G1 F1200 X-34.93 Y-35.1 E28.42302
G1 X-35.536 Y-35.224 E28.4477
G1 X-36.068 Y-35.505 E28.47172
G1 X-36.38 Y-35.877 E28.4911
G1 X-36.653 Y-36.426 E28.51557
G1 X-36.73 Y-36.9 E28.53473
G1 X-36.73 Y-58.9 E29.4128
G1 X-36.606 Y-59.506 E29.43749
G1 X-36.325 Y-60.038 E29.4615
G1 X-35.953 Y-60.35 E29.48088
G1 X-35.404 Y-60.623 E29.50535
G1 X-34.93 Y-60.7 E29.52452
G1 X0.071 Y-60.7 E30.92148
G1 X0.563 Y-60.615 E30.94141
G1 X1.033 Y-60.372 E30.96253
G1 X1.184 Y-60.338 E30.96871
G1 X1.519 Y-60.507 E30.98368
G1 X2.13 Y-60.7 E31.00926
G1 X44.927 Y-60.7 E32.71738
G1 X45.533 Y-60.576 E32.74207
G1 X46.065 Y-60.295 E32.76608
G1 X46.377 Y-59.923 E32.78546
G1 X46.65 Y-59.374 E32.80993
G1 X46.727 Y-58.9 E32.82909
G1 X46.727 Y-52.624 E33.07958
G1 X46.756 Y-51.875 E33.1095
G1 X46.871 Y-51.511 E33.12474
G1 X47.056 Y-51.157 E33.14068
G1 X47.179 Y-51.012 E33.14827
G1 X47.334 Y-50.937 E33.15514
G1 X47.717 Y-50.627 E33.1748
G1 X48.014 Y-50.19 E33.19589
G1 X48.226 Y-49.52 E33.22394
G1 X48.226 Y-46.4 E33.34847
G1 X48.141 Y-45.908 E33.36839
G1 X47.935 Y-45.443 E33.38869
G1 X47.664 Y-45.113 E33.40574
G1 X47.201 Y-44.819 E33.42763
G1 X47.043 Y-44.647 E33.43695
G1 X46.935 Y-44.448 E33.44599
G1 X46.767 Y-43.901 E33.46882
G1 X46.726 Y-43.252 E33.49478
G1 X46.726 Y-36.9 E33.7483
G1 X46.602 Y-36.294 E33.77299
G1 X46.321 Y-35.762 E33.797
G1 X45.949 Y-35.45 E33.81638
G1 X45.4 Y-35.177 E33.84085
G1 X44.926 Y-35.1 E33.86002
G1 X2.159 Y-35.1 E35.56694
G1 X1.599 Y-35.245 E35.59003
G1 X1.25 Y-35.442 E35.60602
G1 X1.075 Y-35.447 E35.61301
G1 X0.802 Y-35.293 E35.62552
G1 X0.191 Y-35.1 E35.6511
G0 F4800 X0.131 Y-35.5
G1 F1200 X-34.93 Y-35.5 E37.05046
G1 X-35.349 Y-35.578 E37.06747
G1 X-35.813 Y-35.823 E37.08841
G1 X-36.022 Y-36.055 E37.10087
G1 X-36.268 Y-36.549 E37.1229
G1 X-36.33 Y-36.9 E37.13712
G1 X-36.33 Y-58.9 E38.01519
G1 X-36.252 Y-59.319 E38.0322
G1 X-36.007 Y-59.783 E38.05314
G1 X-35.775 Y-59.992 E38.06561
G1 X-35.281 Y-60.238 E38.08763
G1 X-34.93 Y-60.3 E38.10186
G1 X0.071 Y-60.3 E39.49882
G1 X0.49 Y-60.222 E39.51584
G1 X0.888 Y-59.995 E39.53412
G1 X1.193 Y-59.926 E39.5466
G1 X1.402 Y-59.983 E39.55525
G1 X1.639 Y-60.126 E39.5663
G1 X2.19 Y-60.3 E39.58936
G1 X44.927 Y-60.3 E41.29509
G1 X45.346 Y-60.222 E41.3121
G1 X45.81 Y-59.977 E41.33304
G1 X46.019 Y-59.745 E41.3455
G1 X46.265 Y-59.251 E41.36753
G1 X46.327 Y-58.9 E41.38175
G1 X46.327 Y-52.609 E41.63284
G1 X46.358 Y-51.807 E41.66487
G1 X46.502 Y-51.354 E41.68385
G1 X46.72 Y-50.936 E41.70266
G1 X46.941 Y-50.675 E41.71631
G1 X47.097 Y-50.614 E41.723
G1 X47.386 Y-50.402 E41.7373
G1 X47.652 Y-50.011 E41.75618
G1 X47.826 Y-49.46 E41.77924
G1 X47.826 Y-46.4 E41.90137
G1 X47.748 Y-45.981 E41.91838
G1 X47.574 Y-45.614 E41.93459
G1 X47.365 Y-45.378 E41.94717
G1 X46.948 Y-45.135 E41.96644
G1 X46.714 Y-44.88 E41.98025
G1 X46.565 Y-44.604 E41.99277
G1 X46.371 Y-43.973 E42.01912
G1 X46.326 Y-43.261 E42.04759
G1 X46.326 Y-36.9 E42.30147
G1 X46.248 Y-36.481 E42.31848
G1 X46.003 Y-36.017 E42.33942
G1 X45.771 Y-35.808 E42.35189
G1 X45.277 Y-35.562 E42.37391
G1 X44.926 Y-35.5 E42.38814
G1 X2.209 Y-35.5 E44.09307
G1 X1.699 Y-35.632 E44.11409
G1 X1.392 Y-35.826 E44.12859
G1 X1.129 Y-35.865 E44.1392
G1 X0.924 Y-35.824 E44.14754
G1 X0.682 Y-35.674 E44.15891
G1 X0.131 Y-35.5 E44.18197
G0 F4800 X0.071 Y-35.9
G1 F1200 X0.562 Y-36.055 E44.20252
G1 X0.76 Y-36.199 E44.21229
G1 X1.12 Y-36.27 E44.22694
G1 X1.534 Y-36.21 E44.24363
G1 X1.913 Y-35.97 E44.26154
G1 X2.251 Y-35.9 E44.27531
G1 X44.926 Y-35.9 E45.97856
G1 X45.199 Y-35.954 E45.98967
G1 X45.581 Y-36.16 E46.00699
G1 X45.719 Y-36.299 E46.01481
G1 X45.856 Y-36.562 E46.02665
G1 X45.926 Y-36.9 E46.04042
G1 X45.926 Y-43.27 E46.29466
G1 X45.975 Y-44.046 E46.3257
G1 X46.195 Y-44.76 E46.35552
G1 X46.385 Y-45.113 E46.37152
G1 X46.698 Y-45.454 E46.38999
G1 X47.081 Y-45.66 E46.40735
G1 X47.219 Y-45.799 E46.41517
G1 X47.356 Y-46.062 E46.427
G1 X47.426 Y-46.4 E46.44078
G1 X47.426 Y-49.4 E46.56052
G1 X47.271 Y-49.891 E46.58107
G1 X47.067 Y-50.16 E46.59454
G1 X46.884 Y-50.275 E46.60317
G1 X46.713 Y-50.325 E46.61028
G1 X46.385 Y-50.712 E46.63052
G1 X46.132 Y-51.197 E46.65236
G1 X45.96 Y-51.739 E46.67505
G1 X45.927 Y-52.594 E46.7092
G1 X45.927 Y-58.9 E46.96089
G1 X45.873 Y-59.173 E46.972
G1 X45.667 Y-59.555 E46.98932
G1 X45.528 Y-59.693 E46.99714
G1 X45.265 Y-59.83 E47.00897
G1 X44.927 Y-59.9 E47.02275
G1 X2.25 Y-59.9 E48.72608
G1 X1.759 Y-59.745 E48.74663
G1 X1.574 Y-59.615 E48.75565
G1 X1.244 Y-59.526 E48.7693
G1 X1.076 Y-59.527 E48.776
G1 X0.722 Y-59.625 E48.79066
G1 X0.409 Y-59.83 E48.80559
G1 X0.071 Y-59.9 E48.81937
G1 X-34.93 Y-59.9 E50.21634
G1 X-35.203 Y-59.846 E50.22744
G1 X-35.585 Y-59.64 E50.24477
G1 X-35.723 Y-59.501 E50.25258
G1 X-35.86 Y-59.238 E50.26442
G1 X-35.93 Y-58.9 E50.2782
G1 X-35.93 Y-36.9 E51.15626
G1 X-35.876 Y-36.627 E51.16737
G1 X-35.67 Y-36.245 E51.18469
G1 X-35.531 Y-36.107 E51.19251
G1 X-35.268 Y-35.97 E51.20435
G1 X-34.93 Y-35.9 E51.21812
G1 X0.071 Y-35.9 E52.61509
G0 F4800 X0.071 Y-36.7
G1 F1200 X-34.93 Y-36.7 E54.01205
G1 X-35.049 Y-36.739 E54.01705
G1 X-35.13 Y-36.9 E54.02425
G1 X-35.13 Y-58.9 E54.90231
G1 X-35.091 Y-59.019 E54.90731
G1 X-34.93 Y-59.1 E54.9145
G1 X0.071 Y-59.1 E56.31147
G1 X0.19 Y-59.061 E56.31647
G1 X0.261 Y-58.921 E56.32273
G1 X0.962 Y-58.729 E56.35174
G1 X1.327 Y-58.725 E56.36631
G1 X1.574 Y-58.766 E56.3763
G1 X2.059 Y-58.927 E56.3967
G1 X2.089 Y-59.019 E56.40056
G1 X2.25 Y-59.1 E56.40776
G1 X44.927 Y-59.1 E58.11109
G1 X45.046 Y-59.061 E58.11608
G1 X45.127 Y-58.9 E58.12328
G1 X45.127 Y-52.563 E58.3762
G1 X45.155 Y-51.843 E58.40496
G1 X45.213 Y-51.448 E58.42089
G1 X45.393 Y-50.883 E58.44456
G1 X45.711 Y-50.273 E58.47202
G1 X45.996 Y-49.903 E58.49066
G1 X46.292 Y-49.6 E58.50756
G1 X46.545 Y-49.561 E58.51778
G1 X46.626 Y-49.4 E58.52497
G1 X46.626 Y-46.4 E58.64471
G1 X46.587 Y-46.281 E58.64971
G1 X46.426 Y-46.2 E58.6569
G1 X46.296 Y-46.2 E58.66209
G1 X45.73 Y-45.582 E58.69554
G1 X45.455 Y-45.074 E58.71859
G1 X45.183 Y-44.189 E58.75555
G1 X45.126 Y-43.288 E58.79158
G1 X45.126 Y-36.9 E59.04654
G1 X45.087 Y-36.781 E59.05154
G1 X44.926 Y-36.7 E59.05873
G1 X2.251 Y-36.7 E60.76198
G1 X2.132 Y-36.739 E60.76698
G1 X2.063 Y-36.876 E60.7731
G1 X1.712 Y-36.993 E60.78787
G1 X1.132 Y-37.076 E60.81125
G1 X0.738 Y-37.033 E60.82707
G1 X0.264 Y-36.88 E60.84695
G1 X0.232 Y-36.781 E60.8511
G1 X0.071 Y-36.7 E60.8583
G0 F4800 X0.071 Y-36.3
G1 F1200 X-34.93 Y-36.3 E62.25526
G1 X-35.174 Y-36.359 E62.26528
G1 X-35.326 Y-36.45 E62.27235
G1 X-35.487 Y-36.72 E62.2849
G1 X-35.53 Y-36.9 E62.29229
G1 X-35.53 Y-58.9 E63.17035
G1 X-35.471 Y-59.144 E63.18037
G1 X-35.38 Y-59.296 E63.18744
G1 X-35.11 Y-59.457 E63.19999
G1 X-34.93 Y-59.5 E63.20738
G1 X0.071 Y-59.5 E64.60434
G1 X0.315 Y-59.441 E64.61436
G1 X0.535 Y-59.261 E64.62571
G1 X1.019 Y-59.128 E64.64574
G1 X1.294 Y-59.125 E64.65672
G1 X1.775 Y-59.255 E64.6766
G1 X1.897 Y-59.37 E64.6833
G1 X2.25 Y-59.5 E64.69831
G1 X44.927 Y-59.5 E66.40164
G1 X45.171 Y-59.441 E66.41166
G1 X45.323 Y-59.35 E66.41873
G1 X45.484 Y-59.08 E66.43128
G1 X45.527 Y-58.9 E66.43866
G1 X45.527 Y-52.579 E66.69095
G1 X45.562 Y-51.672 E66.72718
G1 X45.762 Y-51.04 E66.75363
G1 X46.05 Y-50.488 E66.77848
G1 X46.486 Y-49.975 E66.80535
G1 X46.771 Y-49.891 E66.81721
G1 X46.896 Y-49.753 E66.82464
G1 X47.026 Y-49.4 E66.83966
G1 X47.026 Y-46.4 E66.95939
G1 X46.967 Y-46.156 E66.96941
G1 X46.876 Y-46.004 E66.97648
G1 X46.606 Y-45.843 E66.98903
G1 X46.485 Y-45.814 E66.994
G1 X46.058 Y-45.349 E67.01919
G1 X45.825 Y-44.918 E67.03875
G1 X45.579 Y-44.117 E67.07219
G1 X45.526 Y-43.279 E67.10571
G1 X45.526 Y-36.9 E67.36031
G1 X45.467 Y-36.656 E67.37032
G1 X45.376 Y-36.504 E67.3774
G1 X45.106 Y-36.343 E67.38994
G1 X44.926 Y-36.3 E67.39733
G1 X2.251 Y-36.3 E69.10058
G1 X2.007 Y-36.359 E69.1106
G1 X1.855 Y-36.45 E69.11767
G1 X1.754 Y-36.583 E69.12434
G1 X1.126 Y-36.673 E69.14966
G1 X0.822 Y-36.64 E69.16186
G1 X0.55 Y-36.552 E69.17327
G1 X0.424 Y-36.43 E69.18027
G1 X0.071 Y-36.3 E69.19529
G1 F1500 E62.69529
G1 F600 Z1.24
G0 F4800 X-7.883 Y-41.132 Z1.24
G1 F600 Z0.24
G1 F1500 E69.73576
G1 F1200 X-8.052 Y-40.912 E69.74683
G1 X-8.67 Y-40.414 E69.77851
G1 X-9.466 Y-40.018 E69.814
G1 X-10.245 Y-39.904 E69.84542
G1 X-20.48 Y-39.9 E70.25392
G1 X-21.333 Y-40.087 E70.28877
G1 X-22.158 Y-40.529 E70.32613
G1 X-22.281 Y-40.632 E70.33253
G1 X-22.788 Y-41.263 E70.36484
G1 X-23.185 Y-42.063 E70.40048
G1 X-23.299 Y-42.842 E70.43191
G1 X-23.303 Y-53.023 E70.83825
G1 X-23.121 Y-53.913 E70.87451
G1 X-22.723 Y-54.668 E70.90857
G1 X-22.554 Y-54.888 E70.91965
G1 X-21.936 Y-55.386 E70.95132
G1 X-21.14 Y-55.782 E70.98681
G1 X-20.361 Y-55.896 E71.01823
G1 X-10.18 Y-55.9 E71.42458
G1 X-9.29 Y-55.718 E71.46083
G1 X-8.535 Y-55.32 E71.4949
G1 X-8.315 Y-55.151 E71.50597
G1 X-7.817 Y-54.533 E71.53765
G1 X-7.421 Y-53.737 E71.57313
G1 X-7.307 Y-52.958 E71.60456
G1 X-7.303 Y-42.777 E72.0109
G1 X-7.485 Y-41.887 E72.04716
G1 X-7.883 Y-41.132 E72.08122
G0 F4800 X-8.237 Y-41.318
G1 F1200 X-7.866 Y-42.022 E72.11298
G1 X-7.703 Y-42.818 E72.14541
G1 X-7.703 Y-52.9 E72.54781
G1 X-7.808 Y-53.617 E72.57673
G1 X-8.156 Y-54.317 E72.60793
G1 X-8.596 Y-54.863 E72.63592
G1 X-8.721 Y-54.966 E72.64238
G1 X-9.425 Y-55.337 E72.67414
G1 X-10.221 Y-55.5 E72.70657
G1 X-20.303 Y-55.5 E73.10897
G1 X-21.02 Y-55.395 E73.13789
G1 X-21.72 Y-55.047 E73.16909
G1 X-22.266 Y-54.607 E73.19708
G1 X-22.369 Y-54.482 E73.20354
G1 X-22.74 Y-53.778 E73.2353
G1 X-22.903 Y-52.982 E73.26773
G1 X-22.903 Y-42.9 E73.67013
G1 X-22.798 Y-42.183 E73.69905
G1 X-22.449 Y-41.48 E73.73037
G1 X-21.969 Y-40.882 E73.76098
G1 X-21.193 Y-40.466 E73.79612
G1 X-20.435 Y-40.3 E73.82709
G1 X-10.303 Y-40.3 E74.23148
G1 X-9.586 Y-40.405 E74.2604
G1 X-8.886 Y-40.753 E74.2916
G1 X-8.34 Y-41.193 E74.31959
G1 X-8.237 Y-41.318 E74.32606
G0 F4800 X-8.591 Y-41.504
G1 F1200 X-8.247 Y-42.157 E74.35551
G1 X-8.103 Y-42.859 E74.38412
G1 X-8.103 Y-52.9 E74.78487
G1 X-8.194 Y-53.495 E74.8089
G1 X-8.495 Y-54.101 E74.8359
G1 X-8.907 Y-54.612 E74.8621
G1 X-9.56 Y-54.956 E74.89156
G1 X-10.262 Y-55.1 E74.92016
G1 X-20.303 Y-55.1 E75.32092
G1 X-20.898 Y-55.009 E75.34494
G1 X-21.504 Y-54.708 E75.37195
