;FLAVOR:Marlin
;TIME:1829
;Filament used: 1.62362m
;Layer height: 0.12
;MINX:-24.042
;MINY:-72.634
;MINZ:0.24
;MAXX:34.041
;MAXY:-56.389
;MAXZ:13.92
;Generated with Cura_SteamEngine 4.13.1
M140 S50
M105
M190 S50
M104 S230
M105
M109 S230
M82 ;absolute extrusion mode
;FLAVOR:Marlin
M82 ;absolute extrusion mode
G21
G90
M82
M107 T0
G28
G92 E0
G0 E3 F200
G92 E0 ; reset extrusion distance
M106 S255 ; Enable cooling fan full speed
G1 X-98 Y0 Z0.4 F3000 ; move to arc start
G3 X0 Y-98 I98 Z0.4 E40 F400 ; lay arc stripe 90deg
G92 E0 ; reset extrusion distance
G4 P500 ; wait for 0.5 sec
G0 Z10 E-1 ; Lift 15mm and retract 1mm filament
G4 P2000 ; wait for 5 sec
G0 Z15
M107 ; Disable cooling fan
G1 X0 Y-85 Z4 E0 F3000 ; get off the bed
G92 E0
G92 E0
G1 F1500 E-1
;LAYER_COUNT:116
;LAYER:0
M106 S102
G1 F600 Z1.24
G0 F1500 X-19.183 Y-56.389 Z1.24
;TYPE:SKIRT
G1 F600 Z0.24
G1 F3600 E0.75698
G1 F1200 X-19.671 Y-56.429 E0.7807
G1 X-20.146 Y-56.548 E0.80442
G1 X-20.595 Y-56.742 E0.82812
G1 X-21.007 Y-57.007 E0.85185
G1 X-21.37 Y-57.335 E0.87555
G1 X-21.675 Y-57.718 E0.89927
G1 X-21.913 Y-58.146 E0.923
G1 X-22.079 Y-58.606 E0.94669
G1 X-22.183 Y-59.39 E0.98501
G1 X-22.182 Y-63.09 E1.16426
G1 X-22.142 Y-63.578 E1.18798
G1 X-22.023 Y-64.052 E1.21166
G1 X-21.829 Y-64.502 E1.2354
G1 X-21.564 Y-64.913 E1.25909
G1 X-21.235 Y-65.276 E1.28282
G1 X-20.852 Y-65.581 E1.30654
G1 X-20.425 Y-65.819 E1.33023
G1 X-19.964 Y-65.985 E1.35396
G1 X-19.182 Y-66.089 E1.39218
G1 X-11.821 Y-66.089 E1.7488
G1 X-11.616 Y-66.442 E1.76858
G1 X-11.145 Y-67.006 E1.80417
G1 X-10.582 Y-67.476 E1.83971
G1 X-9.817 Y-67.883 E1.88169
G1 X1.495 Y-72.407 E2.47192
G1 X1.963 Y-72.552 E2.49565
G1 X2.448 Y-72.618 E2.51937
G1 X3.039 Y-72.591 E2.54803
G1 X3.751 Y-72.448 E2.58321
G1 X4.204 Y-72.262 E2.60694
G1 X4.62 Y-72.005 E2.63062
G1 X5.013 Y-71.657 E2.65606
G1 X5.573 Y-72.103 E2.69074
G1 X5.997 Y-72.348 E2.71446
G1 X6.455 Y-72.521 E2.73818
G1 X6.935 Y-72.617 E2.7619
G1 X7.424 Y-72.634 E2.7856
G1 X7.81 Y-72.592 E2.80441
G1 X8.512 Y-72.406 E2.8396
G1 X19.824 Y-67.879 E3.42988
G1 X20.359 Y-67.611 E3.45887
G1 X20.964 Y-67.173 E3.49505
G1 X21.145 Y-67.004 E3.50705
G1 X21.613 Y-66.446 E3.54233
G1 X21.828 Y-66.089 E3.56252
G1 X29.181 Y-66.089 E3.91875
G1 X29.669 Y-66.049 E3.94247
G1 X30.144 Y-65.93 E3.9662
G1 X30.593 Y-65.736 E3.98989
G1 X31.005 Y-65.471 E4.01363
G1 X31.368 Y-65.143 E4.03733
G1 X31.673 Y-64.76 E4.06105
G1 X31.911 Y-64.332 E4.08477
G1 X32.077 Y-63.872 E4.10847
G1 X32.181 Y-63.089 E4.14673
G1 X32.181 Y-59.389 E4.32598
G1 X32.141 Y-58.901 E4.34971
G1 X32.022 Y-58.426 E4.37343
G1 X31.828 Y-57.977 E4.39713
G1 X31.563 Y-57.565 E4.42086
G1 X31.235 Y-57.202 E4.44456
G1 X30.852 Y-56.897 E4.46828
G1 X30.424 Y-56.659 E4.49201
G1 X29.964 Y-56.493 E4.5157
G1 X29.181 Y-56.389 E4.55396
G1 X-18.518 Y-56.389 E6.86482
G0 F1080 X-19.183 Y-56.389
G0 F1500 X-19.183 Y-56.789
G1 F1200 X-19.637 Y-56.829 E6.8869
G1 X-20.077 Y-56.947 E6.90897
G1 X-20.489 Y-57.141 E6.93103
G1 X-20.862 Y-57.404 E6.95315
G1 X-21.183 Y-57.727 E6.97521
G1 X-21.442 Y-58.102 E6.99729
G1 X-21.632 Y-58.516 E7.01936
G1 X-21.747 Y-58.957 E7.04143
G1 X-21.783 Y-59.39 E7.06248
G1 X-21.782 Y-63.09 E7.24174
G1 X-21.742 Y-63.544 E7.26382
G1 X-21.623 Y-63.983 E7.28585
G1 X-21.43 Y-64.396 E7.30794
G1 X-21.167 Y-64.768 E7.33001
G1 X-20.843 Y-65.089 E7.35211
G1 X-20.469 Y-65.348 E7.37415
G1 X-20.055 Y-65.538 E7.39621
G1 X-19.614 Y-65.653 E7.41829
G1 X-19.182 Y-65.689 E7.43929
G1 X-11.575 Y-65.689 E7.80783
G1 X-11.281 Y-66.225 E7.83745
G1 X-10.872 Y-66.713 E7.86829
G1 X-10.693 Y-66.88 E7.88015
G1 X-10.174 Y-67.256 E7.9112
G1 X-9.668 Y-67.512 E7.93867
G1 X1.644 Y-72.036 E8.52891
G1 X2.08 Y-72.168 E8.55098
G1 X2.532 Y-72.221 E8.57302
G1 X3.216 Y-72.161 E8.60629
G1 X3.66 Y-72.057 E8.62838
G1 X4.078 Y-71.876 E8.65045
G1 X4.459 Y-71.626 E8.67253
G1 X4.79 Y-71.313 E8.6946
G1 X4.991 Y-71.041 E8.71098
G1 X5.312 Y-71.403 E8.73442
G1 X5.801 Y-71.774 E8.76416
G1 X6.197 Y-72 E8.78625
G1 X6.626 Y-72.153 E8.80831
G1 X7.075 Y-72.229 E8.83037
G1 X7.64 Y-72.212 E8.85776
G1 X7.755 Y-72.196 E8.86338
G1 X8.363 Y-72.035 E8.89385
G1 X19.675 Y-67.508 E9.48414
G1 X20.167 Y-67.26 E9.51083
G1 X20.691 Y-66.88 E9.54219
G1 X20.872 Y-66.711 E9.55419
G1 X21.278 Y-66.228 E9.58476
G1 X21.572 Y-65.689 E9.6145
G1 X29.181 Y-65.689 E9.98313
G1 X29.635 Y-65.649 E10.00521
G1 X30.075 Y-65.531 E10.02728
G1 X30.487 Y-65.337 E10.04934
G1 X30.86 Y-65.074 E10.07146
G1 X31.181 Y-64.751 E10.09352
G1 X31.44 Y-64.376 E10.1156
G1 X31.63 Y-63.962 E10.13766
G1 X31.745 Y-63.521 E10.15974
G1 X31.781 Y-63.089 E10.18075
G1 X31.781 Y-59.389 E10.36
G1 X31.741 Y-58.935 E10.38208
G1 X31.623 Y-58.495 E10.40415
G1 X31.429 Y-58.083 E10.42621
G1 X31.166 Y-57.71 E10.44832
G1 X30.843 Y-57.389 E10.47038
G1 X30.468 Y-57.13 E10.49246
G1 X30.054 Y-56.94 E10.51453
G1 X29.613 Y-56.825 E10.53661
G1 X29.181 Y-56.789 E10.55761
G1 X-18.518 Y-56.789 E12.86847
G0 F1080 X-19.183 Y-56.789
G0 F1500 X-19.183 Y-57.189
G1 F1200 X-19.6 Y-57.229 E12.88876
G1 X-20.002 Y-57.347 E12.90906
G1 X-20.374 Y-57.54 E12.92937
G1 X-20.703 Y-57.799 E12.94965
G1 X-20.977 Y-58.116 E12.96995
G1 X-21.186 Y-58.479 E12.99024
G1 X-21.322 Y-58.876 E13.01057
G1 X-21.383 Y-59.39 E13.03565
G1 X-21.382 Y-63.09 E13.2149
G1 X-21.342 Y-63.507 E13.2352
G1 X-21.224 Y-63.909 E13.25549
G1 X-21.031 Y-64.281 E13.2758
G1 X-20.772 Y-64.61 E13.29608
G1 X-20.454 Y-64.884 E13.31642
G1 X-20.091 Y-65.092 E13.33669
G1 X-19.695 Y-65.228 E13.35697
G1 X-19.182 Y-65.289 E13.382
G1 X-11.323 Y-65.289 E13.76274
G1 X-11.311 Y-65.325 E13.76458
G1 X-11.079 Y-65.801 E13.79024
G1 X-10.945 Y-66.008 E13.80218
G1 X-10.599 Y-66.421 E13.82828
G1 X-10.42 Y-66.588 E13.84014
G1 X-9.981 Y-66.906 E13.86641
G1 X-9.52 Y-67.141 E13.89147
G1 X1.792 Y-71.665 E14.48171
G1 X2.194 Y-71.783 E14.502
G1 X2.611 Y-71.822 E14.52229
G1 X3.159 Y-71.765 E14.54899
G1 X3.566 Y-71.666 E14.56928
G1 X3.947 Y-71.491 E14.58959
G1 X4.288 Y-71.248 E14.60988
G1 X4.577 Y-70.944 E14.6302
G1 X4.852 Y-70.487 E14.65604
G1 X4.997 Y-70.204 E14.67144
G1 X5.169 Y-70.586 E14.69174
G1 X5.41 Y-70.929 E14.71205
G1 X5.827 Y-71.305 E14.73925
G1 X6.394 Y-71.65 E14.7714
G1 X6.792 Y-71.782 E14.79172
G1 X7.208 Y-71.836 E14.81204
G1 X7.7 Y-71.8 E14.83594
G1 X8.214 Y-71.664 E14.8617
G1 X19.526 Y-67.137 E15.45198
G1 X19.974 Y-66.909 E15.47634
G1 X20.418 Y-66.588 E15.50288
G1 X20.599 Y-66.419 E15.51488
G1 X20.942 Y-66.01 E15.54074
G1 X21.074 Y-65.807 E15.55247
G1 X21.315 Y-65.309 E15.57927
G1 X21.322 Y-65.289 E15.5803
G1 X29.181 Y-65.289 E15.96104
G1 X29.598 Y-65.249 E15.98134
G1 X30 Y-65.131 E16.00163
G1 X30.372 Y-64.938 E16.02194
G1 X30.701 Y-64.679 E16.04222
G1 X30.975 Y-64.362 E16.06252
G1 X31.184 Y-63.999 E16.08281
G1 X31.32 Y-63.602 E16.10314
G1 X31.381 Y-63.089 E16.12817
G1 X31.381 Y-59.389 E16.30743
G1 X31.341 Y-58.972 E16.32772
G1 X31.223 Y-58.57 E16.34802
G1 X31.03 Y-58.198 E16.36832
G1 X30.771 Y-57.869 E16.38861
G1 X30.454 Y-57.595 E16.40891
G1 X30.091 Y-57.386 E16.4292
G1 X29.694 Y-57.25 E16.44953
G1 X29.181 Y-57.189 E16.47456
G1 X-18.518 Y-57.189 E18.78542
G0 F1080 X-19.183 Y-57.189
G0 F1500 X-19.183 Y-57.589
G1 F1200 X-19.56 Y-57.629 E18.80378
G1 X-19.92 Y-57.747 E18.82214
G1 X-20.247 Y-57.937 E18.84046
G1 X-20.528 Y-58.192 E18.85884
G1 X-20.748 Y-58.501 E18.87722
G1 X-20.9 Y-58.848 E18.89557
G1 X-20.983 Y-59.389 E18.92209
G1 X-20.982 Y-63.089 E19.10134
G1 X-20.942 Y-63.466 E19.11971
G1 X-20.824 Y-63.826 E19.13806
G1 X-20.633 Y-64.154 E19.15645
G1 X-20.378 Y-64.434 E19.1748
G1 X-20.07 Y-64.655 E19.19316
G1 X-19.723 Y-64.806 E19.2115
G1 X-19.182 Y-64.889 E19.23801
G1 X-11.028 Y-64.889 E19.63305
G1 X-10.933 Y-65.194 E19.64852
G1 X-10.609 Y-65.79 E19.68139
G1 X-10.147 Y-66.295 E19.71455
G1 X-9.572 Y-66.675 E19.74794
G1 X-9.371 Y-66.769 E19.75869
G1 X1.941 Y-71.293 E20.34892
G1 X2.305 Y-71.396 E20.36725
G1 X2.867 Y-71.403 E20.39448
G1 X3.469 Y-71.276 E20.42428
G1 X3.809 Y-71.108 E20.44266
G1 X4.105 Y-70.872 E20.461
G1 X4.346 Y-70.58 E20.47934
G1 X4.586 Y-70.103 E20.50521
G1 X4.703 Y-69.743 E20.52355
G1 X4.743 Y-69.366 E20.54191
G1 X4.703 Y-68.989 E20.56028
G1 X4.474 Y-68.369 E20.5923
G1 X4.327 Y-68.055 E20.6091
G1 X4.311 Y-67.809 E20.62104
G1 X4.379 Y-67.581 E20.63257
G1 X4.515 Y-67.394 E20.64377
G1 X4.705 Y-67.262 E20.65498
G1 X4.942 Y-67.198 E20.66687
G1 X5.173 Y-67.219 E20.67811
G1 X5.388 Y-67.315 E20.68951
G1 X5.565 Y-67.488 E20.70151
G1 X5.667 Y-67.698 E20.71282
G1 X5.691 Y-67.932 E20.72421
G1 X5.638 Y-68.161 E20.7356
G1 X5.363 Y-68.762 E20.76762
G1 X5.283 Y-69.399 E20.79872
G1 X5.302 Y-69.778 E20.81711
G1 X5.4 Y-70.144 E20.83546
G1 X5.573 Y-70.481 E20.85381
G1 X5.812 Y-70.775 E20.87217
G1 X6.257 Y-71.116 E20.89933
G1 X6.589 Y-71.298 E20.91767
G1 X6.952 Y-71.407 E20.93604
G1 X7.33 Y-71.436 E20.9544
G1 X7.645 Y-71.404 E20.96974
G1 X8.066 Y-71.292 E20.99085
G1 X19.378 Y-66.765 E21.58113
G1 X19.782 Y-66.558 E21.60312
G1 X20.326 Y-66.127 E21.63675
G1 X20.739 Y-65.589 E21.66961
G1 X21.016 Y-64.944 E21.70361
G1 X21.028 Y-64.889 E21.70634
G1 X29.181 Y-64.889 E22.10133
G1 X29.558 Y-64.849 E22.11969
G1 X29.918 Y-64.731 E22.13805
G1 X30.245 Y-64.541 E22.15637
G1 X30.526 Y-64.286 E22.17475
G1 X30.746 Y-63.977 E22.19313
G1 X30.898 Y-63.63 E22.21148
G1 X30.981 Y-63.089 E22.238
G1 X30.981 Y-59.389 E22.41725
G1 X30.941 Y-59.012 E22.43562
G1 X30.823 Y-58.652 E22.45397
G1 X30.633 Y-58.325 E22.4723
G1 X30.378 Y-58.044 E22.49068
G1 X30.069 Y-57.824 E22.50906
G1 X29.722 Y-57.672 E22.52741
G1 X29.181 Y-57.589 E22.55392
G1 X-18.518 Y-57.589 E24.86478
G0 F1080 X-19.183 Y-57.589
G0 F1500 X-19.183 Y-57.989
G1 F1200 X-19.515 Y-58.029 E24.88098
G1 X-19.827 Y-58.146 E24.89713
G1 X-20.104 Y-58.334 E24.91335
G1 X-20.327 Y-58.582 E24.9295
G1 X-20.486 Y-58.876 E24.9457
G1 X-20.583 Y-59.389 E24.97099
G1 X-20.582 Y-63.089 E25.15024
G1 X-20.542 Y-63.421 E25.16644
G1 X-20.425 Y-63.734 E25.18263
G1 X-20.237 Y-64.01 E25.19881
G1 X-19.988 Y-64.233 E25.215
G1 X-19.694 Y-64.392 E25.2312
G1 X-19.182 Y-64.489 E25.25644
G1 X-10.707 Y-64.489 E25.66703
G1 X-10.555 Y-65.063 E25.6958
G1 X-10.273 Y-65.573 E25.72403
G1 X-9.874 Y-66.003 E25.75245
G1 X-9.379 Y-66.324 E25.78103
G1 X-9.223 Y-66.398 E25.7894
G1 X2.089 Y-70.922 E26.37963
G1 X2.412 Y-71.008 E26.39582
G1 X3.044 Y-70.974 E26.42648
G1 X3.367 Y-70.887 E26.44269
G1 X3.66 Y-70.726 E26.45888
G1 X3.906 Y-70.5 E26.47507
G1 X4.221 Y-69.939 E26.50624
G1 X4.32 Y-69.62 E26.52242
G1 X4.341 Y-69.287 E26.53858
G1 X4.2 Y-68.731 E26.56637
G1 X3.936 Y-68.146 E26.59747
G1 X3.912 Y-67.767 E26.61587
G1 X4.02 Y-67.402 E26.63431
G1 X4.236 Y-67.105 E26.6521
G1 X4.54 Y-66.896 E26.66997
G1 X4.906 Y-66.798 E26.68833
G1 X5.281 Y-66.832 E26.70657
G1 X5.619 Y-66.986 E26.72456
G1 X5.892 Y-67.254 E26.7431
G1 X6.052 Y-67.588 E26.76104
G1 X6.092 Y-67.959 E26.77912
G1 X6.006 Y-68.321 E26.79714
G1 X5.737 Y-68.91 E26.82851
G1 X5.682 Y-69.421 E26.85341
G1 X5.704 Y-69.754 E26.86958
G1 X5.804 Y-70.073 E26.88578
G1 X5.977 Y-70.359 E26.90197
G1 X6.485 Y-70.788 E26.93418
G1 X6.78 Y-70.944 E26.95035
G1 X7.104 Y-71.026 E26.96654
G1 X7.59 Y-71.008 E26.9901
G1 X7.917 Y-70.921 E27.0065
G1 X19.229 Y-66.394 E27.59678
G1 X19.59 Y-66.208 E27.61645
G1 X20.053 Y-65.834 E27.64529
G1 X20.404 Y-65.371 E27.67344
G1 X20.637 Y-64.816 E27.7026
G1 X20.705 Y-64.489 E27.71878
G1 X29.181 Y-64.489 E28.12941
G1 X29.513 Y-64.449 E28.14561
G1 X29.825 Y-64.332 E28.16176
G1 X30.102 Y-64.144 E28.17798
G1 X30.325 Y-63.896 E28.19413
G1 X30.484 Y-63.602 E28.21033
G1 X30.581 Y-63.089 E28.23562
G1 X30.581 Y-59.389 E28.41487
G1 X30.541 Y-59.057 E28.43107
G1 X30.424 Y-58.745 E28.44722
G1 X30.236 Y-58.468 E28.46344
G1 X29.988 Y-58.245 E28.47959
G1 X29.694 Y-58.086 E28.49579
G1 X29.181 Y-57.989 E28.52108
G1 X-18.518 Y-57.989 E30.83194
G0 F1080 X-19.183 Y-57.989
G0 F1500 X-19.183 Y-58.389
G1 F1200 X-19.462 Y-58.429 E30.84559
G1 X-19.719 Y-58.545 E30.85925
G1 X-19.934 Y-58.728 E30.87293
G1 X-20.088 Y-58.964 E30.88658
G1 X-20.183 Y-59.389 E30.90768
G1 X-20.182 Y-63.089 E31.08693
G1 X-20.142 Y-63.369 E31.10064
G1 X-20.026 Y-63.626 E31.1143
G1 X-19.842 Y-63.84 E31.12797
G1 X-19.606 Y-63.995 E31.14165
G1 X-19.182 Y-64.089 E31.16269
G1 X-10.388 Y-64.089 E31.58873
G1 X-10.337 Y-64.095 E31.59122
G1 X-10.256 Y-64.704 E31.62098
G1 X-10.071 Y-65.148 E31.64428
G1 X-9.78 Y-65.543 E31.66805
G1 X-9.402 Y-65.855 E31.6918
G1 X-9.074 Y-66.026 E31.70972
G1 X2.238 Y-70.55 E32.29995
G1 X2.512 Y-70.617 E32.31362
G1 X2.987 Y-70.578 E32.3367
G1 X3.258 Y-70.498 E32.35039
G1 X3.496 Y-70.346 E32.36408
G1 X3.757 Y-69.997 E32.38519
G1 X3.933 Y-69.505 E32.4105
G1 X3.933 Y-69.223 E32.42417
G1 X3.769 Y-68.749 E32.44846
G1 X3.544 Y-68.237 E32.47556
G1 X3.513 Y-67.726 E32.50036
G1 X3.657 Y-67.229 E32.52543
G1 X3.958 Y-66.815 E32.55023
G1 X4.377 Y-66.529 E32.5748
G1 X4.876 Y-66.398 E32.5998
G1 X5.383 Y-66.444 E32.62446
G1 X5.847 Y-66.655 E32.64916
G1 X6.218 Y-67.019 E32.67434
G1 X6.436 Y-67.47 E32.6986
G1 X6.493 Y-67.984 E32.72366
G1 X6.376 Y-68.477 E32.74821
G1 X6.114 Y-69.052 E32.77882
G1 X6.081 Y-69.443 E32.79783
G1 X6.106 Y-69.724 E32.8115
G1 X6.208 Y-69.987 E32.82516
G1 X6.51 Y-70.319 E32.8469
G1 X6.965 Y-70.585 E32.87244
G1 X7.242 Y-70.636 E32.88608
G1 X7.535 Y-70.611 E32.90033
G1 X7.769 Y-70.549 E32.91206
G1 X19.081 Y-66.022 E33.50234
G1 X19.599 Y-65.711 E33.53161
G1 X19.936 Y-65.356 E33.55533
G1 X20.178 Y-64.927 E33.57919
G1 X20.306 Y-64.463 E33.60251
G1 X20.336 Y-64.095 E33.6204
G1 X20.389 Y-64.089 E33.62298
G1 X29.181 Y-64.089 E34.04892
G1 X29.46 Y-64.049 E34.06258
G1 X29.717 Y-63.933 E34.07624
G1 X29.932 Y-63.75 E34.08992
G1 X30.086 Y-63.514 E34.10357
G1 X30.181 Y-63.089 E34.12467
G1 X30.181 Y-59.389 E34.30392
G1 X30.141 Y-59.11 E34.31758
G1 X30.025 Y-58.853 E34.33124
G1 X29.842 Y-58.638 E34.34491
G1 X29.606 Y-58.484 E34.35857
G1 X29.181 Y-58.389 E34.37966
G1 X-18.518 Y-58.389 E36.69052
G0 F1080 X-19.183 Y-58.389
G0 F1500 X-19.183 Y-58.789
G1 F1200 X-19.398 Y-58.829 E36.70112
G1 X-19.584 Y-58.942 E36.71166
G1 X-19.717 Y-59.115 E36.72223
G1 X-19.783 Y-59.389 E36.73589
G1 X-19.782 Y-63.089 E36.91514
G1 X-19.742 Y-63.304 E36.92573
G1 X-19.628 Y-63.49 E36.9363
G1 X-19.456 Y-63.623 E36.94684
G1 X-19.182 Y-63.689 E36.96049
G1 X-10.365 Y-63.689 E37.38765
G1 X-10.157 Y-63.733 E37.39795
G1 X-10.016 Y-63.848 E37.40676
G1 X-9.941 Y-64.018 E37.41576
G1 X-9.878 Y-64.573 E37.44282
G1 X-9.736 Y-64.931 E37.46148
G1 X-9.507 Y-65.251 E37.48054
G1 X-9.209 Y-65.505 E37.49951
G1 X-8.926 Y-65.655 E37.51503
G1 X2.386 Y-70.179 E38.10526
G1 X2.695 Y-70.216 E38.12034
G1 X3.137 Y-70.112 E38.14234
G1 X3.305 Y-69.973 E38.1529
G1 X3.491 Y-69.612 E38.17258
G1 X3.542 Y-69.4 E38.18314
G1 X3.451 Y-69.012 E38.20245
G1 X3.254 Y-68.636 E38.22301
G1 X3.155 Y-68.333 E38.23845
G1 X3.106 Y-68.003 E38.25462
G1 X3.114 Y-67.678 E38.27037
G1 X3.177 Y-67.363 E38.28593
G1 X3.295 Y-67.054 E38.30195
G1 X3.458 Y-66.783 E38.31728
G1 X3.678 Y-66.528 E38.33359
G1 X3.927 Y-66.323 E38.34922
G1 X4.207 Y-66.165 E38.36479
G1 X4.514 Y-66.056 E38.38058
G1 X4.84 Y-65.998 E38.39662
G1 X5.159 Y-65.998 E38.41207
G1 X5.486 Y-66.056 E38.42816
G1 X5.79 Y-66.164 E38.44379
G1 X6.071 Y-66.323 E38.45943
G1 X6.325 Y-66.532 E38.47537
G1 X6.542 Y-66.783 E38.49144
G1 X6.705 Y-67.054 E38.50676
G1 X6.823 Y-67.363 E38.52279
G1 X6.886 Y-67.678 E38.53835
G1 X6.894 Y-68.005 E38.5542
G1 X6.845 Y-68.331 E38.57017
G1 X6.744 Y-68.638 E38.58583
G1 X6.564 Y-68.975 E38.60434
G1 X6.494 Y-69.225 E38.61691
G1 X6.509 Y-69.681 E38.63902
G1 X6.612 Y-69.873 E38.64957
G1 X6.94 Y-70.13 E38.66976
G1 X7.139 Y-70.22 E38.68034
G1 X7.365 Y-70.231 E38.6913
G1 X7.62 Y-70.178 E38.70392
G1 X18.932 Y-65.651 E39.29421
