;FLAVOR:Marlin
;TIME:2916
;Filament used: 1.85437m
;Layer height: 0.12
;MINX:-30
;MINY:-32.969
;MINZ:0.24
;MAXX:39.992
;MAXY:34.75
;MAXZ:5.92
;TARGET_MACHINE.NAME:Unknown
;Generated with Cura_SteamEngine 5.7.1
M140 S50
M105
M190 S50
M104 S230
M105
M109 S230
M82 ;absolute extrusion mode
;FLAVOR:Marlin
M82 ;absolute extrusion mode
G21
G90
M82
M107 T0
G28
G92 E0
G0 E3 F200
G92 E0 ; reset extrusion distance
M106 S255 ; Enable cooling fan full speed
G1 X-98 Y0 Z0.4 F3000 ; move to arc start
G3 X0 Y-98 I98 Z0.4 E40 F400 ; lay arc stripe 90deg
G92 E0 ; reset extrusion distance
G4 P500 ; wait for 0.5 sec
G0 Z10 E-1 ; Lift 15mm and retract 1mm filament
G4 P2000 ; wait for 5 sec
G0 Z15
M107 ; Disable cooling fan
G1 X0 Y-85 Z4 E0 F3000 ; get off the bed
G92 E0
G92 E0
G1 F1500 E-1
;LAYER_COUNT:40
;LAYER:0
M106 S102
G1 F600 Z1.24
G0 F1500 X-17.684 Y-31.11 Z1.24
;TYPE:SKIRT
G1 F600 Z0.24
G1 F3600 E0.75698
G1 F1200 X27.668 Y-31.11 E2.95413
G1 X28.022 Y-31.692 E2.98714
G1 X28.442 Y-32.103 E3.01561
G1 X29.165 Y-32.592 E3.05789
G1 X30.321 Y-32.969 E3.1168
G1 X34.123 Y-32.969 E3.30099
G1 X35.013 Y-32.787 E3.345
G1 X35.768 Y-32.389 E3.38635
G1 X35.988 Y-32.22 E3.39979
G1 X36.486 Y-31.602 E3.43824
G1 X36.882 Y-30.806 E3.48131
G1 X36.996 Y-30.027 E3.51946
G1 X37 Y25.369 E6.20321
G1 X37.839 Y25.505 E6.24439
G1 X38.529 Y25.811 E6.28095
G1 X39.253 Y26.377 E6.32548
G1 X39.866 Y27.439 E6.38488
G1 X39.992 Y28.282 E6.42618
G1 X39.984 Y29.048 E6.46329
G1 X39.846 Y30.054 E6.51248
G1 X39.506 Y31.113 E6.56637
G1 X39.089 Y31.913 E6.61007
G1 X38.411 Y32.805 E6.66435
G1 X37.781 Y33.4 E6.70634
G1 X36.839 Y34.025 E6.7611
G1 X35.95 Y34.418 E6.80819
G1 X35.073 Y34.645 E6.85208
G1 X33.999 Y34.75 E6.90436
G1 X-24.315 Y34.735 E9.72948
G1 X-25.003 Y34.659 E9.76302
G1 X-26.242 Y34.309 E9.82539
G1 X-26.928 Y33.979 E9.86227
G1 X-27.89 Y33.322 E9.91871
G1 X-28.764 Y32.393 E9.9805
G1 X-29.153 Y31.811 E10.01442
G1 X-29.641 Y30.804 E10.06863
G1 X-29.889 Y29.855 E10.11615
G1 X-30 Y28.698 E10.17246
G1 X-29.98 Y28.087 E10.20208
G1 X-29.809 Y27.344 E10.23901
G1 X-29.372 Y26.53 E10.28377
G1 X-29.271 Y26.408 E10.29145
G1 X-28.634 Y25.893 E10.33113
G1 X-27.836 Y25.497 E10.37429
G1 X-27 Y25.379 E10.41519
G1 X-27 Y-30.093 E13.10263
G1 X-26.818 Y-30.983 E13.14664
G1 X-26.42 Y-31.738 E13.18798
G1 X-26.251 Y-31.958 E13.20142
G1 X-25.633 Y-32.456 E13.23988
G1 X-24.837 Y-32.852 E13.28295
G1 X-24.058 Y-32.966 E13.32109
G1 X-20.324 Y-32.969 E13.50199
G1 X-19.081 Y-32.563 E13.56534
G1 X-18.394 Y-32.066 E13.60642
G1 X-18.023 Y-31.68 E13.63236
G0 F1080 X-17.994 Y-31.65
G0 X-17.684 Y-31.11
G0 F1500 X-17.916 Y-30.71
G1 F1200 X27.92 Y-30.71 E15.85296
G1 X27.976 Y-30.847 E15.86013
G1 X28.338 Y-31.441 E15.89383
G1 X28.666 Y-31.772 E15.91641
G1 X29.342 Y-32.229 E15.95594
G1 X30.384 Y-32.569 E16.00904
G1 X34.082 Y-32.569 E16.18819
G1 X34.878 Y-32.406 E16.22756
G1 X35.582 Y-32.035 E16.26611
G1 X35.707 Y-31.932 E16.27396
G1 X36.147 Y-31.386 E16.30793
G1 X36.495 Y-30.686 E16.3458
G1 X36.6 Y-29.969 E16.38091
G1 X36.6 Y25.78 E19.08176
G1 X37.064 Y25.785 E19.10424
G1 X37.724 Y25.892 E19.13664
G1 X38.324 Y26.158 E19.16843
G1 X38.946 Y26.644 E19.20667
G1 X39.481 Y27.571 E19.25853
G1 X39.596 Y28.341 E19.29624
G1 X39.587 Y28.996 E19.32798
G1 X39.464 Y29.934 E19.37381
G1 X39.151 Y30.928 E19.4243
G1 X38.734 Y31.728 E19.46801
G1 X38.136 Y32.514 E19.51585
G1 X37.506 Y33.109 E19.55783
G1 X36.677 Y33.659 E19.60603
G1 X35.788 Y34.052 E19.65312
G1 X35.033 Y34.247 E19.6909
G1 X33.999 Y34.35 E19.74124
G1 X-24.271 Y34.337 E22.56423
G1 X-24.959 Y34.261 E22.59776
G1 X-26.071 Y33.947 E22.65374
G1 X-26.702 Y33.649 E22.68755
G1 X-27.63 Y33.015 E22.742
G1 X-28.433 Y32.169 E22.79851
G1 X-28.793 Y31.637 E22.82963
G1 X-29.265 Y30.663 E22.88206
G1 X-29.491 Y29.816 E22.92453
G1 X-29.6 Y28.711 E22.97833
G1 X-29.581 Y28.139 E23.00605
G1 X-29.43 Y27.483 E23.03867
G1 X-29.02 Y26.719 E23.08067
G1 X-28.417 Y26.232 E23.11822
G1 X-27.717 Y25.884 E23.1561
G1 X-27 Y25.779 E23.1912
G1 X-26.6 Y25.78 E23.21058
G1 X-26.6 Y-30.052 E25.91546
G1 X-26.437 Y-30.848 E25.95482
G1 X-26.066 Y-31.552 E25.99337
G1 X-25.963 Y-31.677 E26.00122
G1 X-25.417 Y-32.117 E26.03519
G1 X-24.717 Y-32.465 E26.07306
G1 X-24 Y-32.57 E26.10817
G1 X-20.387 Y-32.569 E26.28321
G1 X-19.266 Y-32.203 E26.34034
G1 X-18.629 Y-31.742 E26.37843
G1 X-18.317 Y-31.409 E26.40054
G1 X-18.246 Y-31.286 E26.40742
G0 F1080 X-17.916 Y-30.71
G0 F1500 X-18.296 Y-30.568
G1 F1200 X-18.21 Y-30.31 E26.4206
G1 X28.208 Y-30.31 E28.6694
G1 X28.318 Y-30.639 E28.6862
G1 X28.68 Y-31.233 E28.7199
G1 X28.89 Y-31.441 E28.73422
G1 X29.519 Y-31.866 E28.771
G1 X30.447 Y-32.169 E28.81829
G1 X34.041 Y-32.169 E28.99241
G1 X34.743 Y-32.025 E29.02713
G1 X35.396 Y-31.681 E29.06289
G1 X35.808 Y-31.17 E29.09469
G1 X36.109 Y-30.564 E29.12747
G1 X36.2 Y-29.969 E29.15663
G1 X36.2 Y26.18 E31.87686
G1 X37 Y26.18 E31.91562
G1 X37.609 Y26.279 E31.94551
G1 X38.119 Y26.505 E31.97253
G1 X38.639 Y26.911 E32.0045
G1 X39.096 Y27.703 E32.04879
G1 X39.2 Y28.4 E32.08294
G1 X39.19 Y28.944 E32.1093
G1 X39.067 Y29.882 E32.15513
G1 X38.795 Y30.745 E32.19896
G1 X38.414 Y31.488 E32.23942
G1 X37.861 Y32.223 E32.28398
G1 X37.231 Y32.818 E32.32596
G1 X36.515 Y33.293 E32.36759
G1 X35.626 Y33.686 E32.41468
G1 X34.993 Y33.849 E32.44634
G1 X33.999 Y33.95 E32.49475
G1 X-24.227 Y33.939 E35.31561
G1 X-24.915 Y33.863 E35.34914
G1 X-25.9 Y33.585 E35.39872
G1 X-26.531 Y33.287 E35.43253
G1 X-27.37 Y32.709 E35.48189
G1 X-28.103 Y31.942 E35.53329
G1 X-28.433 Y31.462 E35.56151
G1 X-28.888 Y30.524 E35.61202
G1 X-29.104 Y29.713 E35.65268
G1 X-29.2 Y28.724 E35.70081
G1 X-29.182 Y28.19 E35.7267
G1 X-29.052 Y27.623 E35.75488
G1 X-28.706 Y26.979 E35.7903
G1 X-28.201 Y26.571 E35.82175
G1 X-27.595 Y26.27 E35.85453
G1 X-27 Y26.179 E35.88369
G1 X-26.2 Y26.18 E35.92245
G1 X-26.2 Y-30.011 E38.64472
G1 X-26.056 Y-30.713 E38.67944
G1 X-25.712 Y-31.366 E38.71519
G1 X-25.201 Y-31.778 E38.74699
G1 X-24.595 Y-32.079 E38.77977
G1 X-24 Y-32.17 E38.80894
G1 X-20.45 Y-32.169 E38.98092
G1 X-19.451 Y-31.843 E39.03183
G1 X-18.864 Y-31.418 E39.06694
G1 X-18.664 Y-31.21 E39.08092
G1 X-18.626 Y-31.144 E39.08461
G0 F1080 X-18.296 Y-30.568
G0 F1500 X-18.643 Y-30.369
G1 F1200 X-18.513 Y-29.91 E39.10772
G1 X28.508 Y-29.91 E41.38573
G1 X28.659 Y-30.431 E41.41201
G1 X28.997 Y-30.985 E41.44345
G1 X29.114 Y-31.109 E41.45171
G1 X29.699 Y-31.504 E41.48591
G1 X30.51 Y-31.769 E41.52724
G1 X34 Y-31.769 E41.69632
G1 X34.606 Y-31.645 E41.72629
G1 X35.138 Y-31.364 E41.75544
G1 X35.45 Y-30.992 E41.77896
G1 X35.723 Y-30.443 E41.80866
G1 X35.8 Y-29.969 E41.83193
G1 X35.8 Y26.58 E44.57154
G1 X37 Y26.58 E44.62968
G1 X37.492 Y26.665 E44.65387
G1 X37.957 Y26.871 E44.67851
G1 X38.332 Y27.179 E44.70202
G1 X38.712 Y27.837 E44.73883
G1 X38.8 Y28.394 E44.76615
G1 X38.793 Y28.895 E44.79042
G1 X38.685 Y29.764 E44.83284
G1 X38.439 Y30.562 E44.8733
G1 X38.058 Y31.305 E44.91375
G1 X37.584 Y31.934 E44.95191
G1 X37.007 Y32.486 E44.9906
G1 X36.351 Y32.928 E45.02892
G1 X35.523 Y33.299 E45.07287
G1 X34.952 Y33.451 E45.1015
G1 X33.999 Y33.55 E45.14792
G1 X-24.183 Y33.541 E47.96664
G1 X-24.871 Y33.465 E48.00018
G1 X-25.729 Y33.223 E48.04337
G1 X-26.36 Y32.925 E48.07717
G1 X-27.106 Y32.406 E48.1212
G1 X-27.775 Y31.712 E48.1679
G1 X-28.073 Y31.287 E48.19305
G1 X-28.511 Y30.385 E48.24163
G1 X-28.717 Y29.61 E48.28048
G1 X-28.8 Y28.733 E48.32315
G1 X-28.789 Y28.267 E48.34574
G1 X-28.7 Y27.812 E48.3682
G1 X-28.392 Y27.239 E48.39971
G1 X-28.023 Y26.929 E48.42306
G1 X-27.474 Y26.656 E48.45277
G1 X-27 Y26.579 E48.47603
G1 X-25.8 Y26.58 E48.53417
G1 X-25.8 Y-29.97 E51.27383
G1 X-25.676 Y-30.576 E51.30379
G1 X-25.395 Y-31.108 E51.33294
G1 X-25.023 Y-31.42 E51.35646
G1 X-24.474 Y-31.693 E51.38617
G1 X-24 Y-31.77 E51.40943
G1 X-20.513 Y-31.769 E51.57837
G1 X-19.636 Y-31.483 E51.62306
G1 X-19.099 Y-31.094 E51.65518
G1 X-18.987 Y-30.969 E51.66331
G1 X-18.973 Y-30.945 E51.66466
G0 F1080 X-18.643 Y-30.369
G0 F1500 X-18.99 Y-30.17
G1 F1200 X-18.825 Y-29.51 E51.69762
G1 X28.82 Y-29.51 E54.00586
G1 X29 Y-30.223 E54.04149
G1 X29.338 Y-30.777 E54.07293
G1 X29.879 Y-31.142 E54.10454
G1 X30.573 Y-31.369 E54.13992
G1 X34 Y-31.369 E54.30595
G1 X34.419 Y-31.291 E54.32659
G1 X34.883 Y-31.046 E54.35201
G1 X35.092 Y-30.814 E54.36714
G1 X35.338 Y-30.32 E54.39388
G1 X35.4 Y-29.969 E54.41115
G1 X35.4 Y26.98 E57.17014
G1 X37 Y26.98 E57.24765
G1 X37.419 Y27.058 E57.2683
G1 X37.786 Y27.232 E57.28798
G1 X38.022 Y27.441 E57.30325
G1 X38.329 Y27.973 E57.33301
G1 X38.4 Y28.388 E57.3534
G1 X38.393 Y28.889 E57.37768
G1 X38.302 Y29.649 E57.41476
G1 X38.082 Y30.382 E57.45184
G1 X37.737 Y31.066 E57.48895
G1 X37.305 Y31.647 E57.52403
G1 X36.781 Y32.156 E57.55942
G1 X36.186 Y32.564 E57.59437
G1 X35.42 Y32.912 E57.63513
G1 X34.849 Y33.064 E57.66376
G1 X33.999 Y33.15 E57.70515
G1 X-24.139 Y33.143 E60.52174
G1 X-24.827 Y33.067 E60.55527
G1 X-25.558 Y32.861 E60.59207
G1 X-26.189 Y32.563 E60.62587
G1 X-26.843 Y32.102 E60.66464
G1 X-27.447 Y31.482 E60.70657
G1 X-27.745 Y31.057 E60.73172
G1 X-28.134 Y30.246 E60.7753
G1 X-28.33 Y29.507 E60.81234
G1 X-28.4 Y28.742 E60.84955
G1 X-28.389 Y28.276 E60.87214
G1 X-28.319 Y27.947 E60.88843
G1 X-28.077 Y27.496 E60.91323
G1 X-27.845 Y27.287 E60.92836
G1 X-27.351 Y27.041 E60.95509
G1 X-27 Y26.979 E60.97236
G1 X-25.4 Y26.98 E61.04987
G1 X-25.4 Y-29.97 E63.80891
G1 X-25.322 Y-30.389 E63.82956
G1 X-25.077 Y-30.853 E63.85498
G1 X-24.845 Y-31.062 E63.87011
G1 X-24.351 Y-31.308 E63.89684
G1 X-24 Y-31.37 E63.91411
G1 X-20.576 Y-31.369 E64.07999
G1 X-19.821 Y-31.123 E64.11846
G1 X-19.334 Y-30.77 E64.1476
G1 X-19.32 Y-30.746 E64.14895
G0 F1080 X-18.99 Y-30.17
G0 F1500 X-19.377 Y-30.071
G1 F1200 X-19.218 Y-29.451 E64.17996
G1 X-19.204 Y-29.192 E64.19252
G1 X-19.03 Y-29.11 E64.20184
G1 X29.038 Y-29.11 E66.53058
G1 X29.21 Y-29.186 E66.53969
G1 X29.229 Y-29.497 E66.55478
G1 X29.373 Y-30.067 E66.58327
G1 X29.634 Y-30.494 E66.60751
G1 X30.003 Y-30.762 E66.62961
G1 X30.636 Y-30.969 E66.66187
G1 X34 Y-30.969 E66.82485
G1 X34.338 Y-30.899 E66.84157
G1 X34.601 Y-30.762 E66.85593
G1 X34.74 Y-30.624 E66.86542
G1 X34.946 Y-30.242 E66.88645
G1 X35 Y-29.969 E66.89993
G1 X35 Y27.38 E69.6783
G1 X37 Y27.38 E69.77519
G1 X37.338 Y27.45 E69.79192
G1 X37.601 Y27.587 E69.80628
G1 X37.74 Y27.725 E69.81577
G1 X37.946 Y28.108 E69.83684
G1 X38 Y28.384 E69.85047
G1 X37.995 Y28.845 E69.8728
G1 X37.918 Y29.537 E69.90653
G1 X37.723 Y30.205 E69.94025
G1 X37.414 Y30.83 E69.97402
G1 X37.026 Y31.36 E70.00585
G1 X36.502 Y31.869 E70.04124
G1 X36.018 Y32.201 E70.06967
G1 X35.317 Y32.525 E70.10709
G1 X34.746 Y32.677 E70.13571
G1 X33.999 Y32.75 E70.17207
G1 X-24.095 Y32.745 E72.98654
G1 X-24.783 Y32.669 E73.02007
G1 X-25.387 Y32.499 E73.05047
G1 X-26.018 Y32.201 E73.08428
G1 X-26.558 Y31.821 E73.11627
G1 X-27.119 Y31.252 E73.15498
G1 X-27.417 Y30.827 E73.18012
G1 X-27.748 Y30.14 E73.21707
G1 X-27.932 Y29.469 E73.25078
G1 X-28 Y28.751 E73.28572
G1 X-27.989 Y28.285 E73.3083
G1 X-27.93 Y28.041 E73.32046
G1 X-27.793 Y27.778 E73.33483
G1 X-27.655 Y27.639 E73.34432
G1 X-27.273 Y27.433 E73.36534
G1 X-27 Y27.379 E73.37882
G1 X-25 Y27.38 E73.47572
G1 X-25 Y-29.97 E76.25414
G1 X-24.93 Y-30.308 E76.27086
G1 X-24.793 Y-30.571 E76.28522
G1 X-24.655 Y-30.71 E76.29471
G1 X-24.273 Y-30.916 E76.31574
G1 X-24 Y-30.97 E76.32922
G1 X-20.639 Y-30.969 E76.49205
G1 X-20.006 Y-30.763 E76.5243
G1 X-19.772 Y-30.593 E76.53831
G0 F1080 X-19.638 Y-30.496
G0 X-19.377 Y-30.071
G0 F1500 X-20.151 Y-29.873
G1 F1200 X-20.005 Y-29.303 E76.56682
G1 X-19.999 Y-28.45 E76.60815
G1 X-19.5 Y-28.45 E76.63232
G1 X-19.381 Y-28.411 E76.63839
G1 X-19.33 Y-28.31 E76.64387
G1 X29.32 Y-28.31 E79.0008
G1 X29.339 Y-28.369 E79.0038
G1 X29.5 Y-28.45 E79.01254
G1 X29.998 Y-28.45 E79.03666
G1 X30.005 Y-29.301 E79.07789
G1 X30.149 Y-29.871 E79.10637
G1 X30.267 Y-30.007 E79.1151
G1 X30.699 Y-30.169 E79.13745
G1 X34 Y-30.169 E79.29737
G1 X34.119 Y-30.13 E79.30344
G1 X34.2 Y-29.969 E79.31217
G1 X34.2 Y28.18 E82.1293
G1 X37 Y28.18 E82.26495
G1 X37.119 Y28.219 E82.27101
G1 X37.2 Y28.38 E82.27974
G1 X37.199 Y28.767 E82.29849
G1 X37.147 Y29.323 E82.32555
G1 X37.001 Y29.86 E82.35251
G1 X36.761 Y30.367 E82.37968
G1 X36.463 Y30.792 E82.40483
G1 X36.042 Y31.213 E82.43367
G1 X35.617 Y31.511 E82.45882
G1 X35.111 Y31.751 E82.48595
G1 X34.54 Y31.903 E82.51458
G1 X33.999 Y31.95 E82.54089
G1 X-24.017 Y31.949 E85.35157
G1 X-24.573 Y31.897 E85.37863
G1 X-25.111 Y31.751 E85.40563
G1 X-25.617 Y31.511 E85.43276
G1 X-26.042 Y31.213 E85.45791
G1 X-26.463 Y30.792 E85.48676
G1 X-26.761 Y30.367 E85.5119
G1 X-27.001 Y29.86 E85.53908
G1 X-27.148 Y29.324 E85.566
G1 X-27.2 Y28.751 E85.59388
G1 X-27.2 Y28.379 E85.6119
G1 X-27.161 Y28.26 E85.61797
G1 X-27 Y28.179 E85.6267
G1 X-24.2 Y28.18 E85.76235
G1 X-24.2 Y-29.97 E88.57952
G1 X-24.161 Y-30.089 E88.58559
G1 X-24 Y-30.17 E88.59432
G1 X-20.726 Y-30.169 E88.75294
G0 F1080 X-20.702 Y-30.169
G0 X-20.269 Y-30.008
G0 X-20.151 Y-29.873
G0 F1500 X-19.764 Y-29.972
G1 F1200 X-19.605 Y-29.352 E88.78395
G1 X-19.602 Y-28.85 E88.80827
G1 X-19.375 Y-28.83 E88.81931
G1 X-19.121 Y-28.71 E88.83292
G1 X29.138 Y-28.71 E91.17091
G1 X29.32 Y-28.807 E91.1809
G1 X29.601 Y-28.85 E91.19467
G1 X29.617 Y-29.399 E91.22128
G1 X29.761 Y-29.969 E91.24976
G1 X29.965 Y-30.269 E91.26734
G1 X30.127 Y-30.382 E91.2769
G1 X30.699 Y-30.569 E91.30606
G1 X34 Y-30.569 E91.46598
G1 X34.244 Y-30.51 E91.47814
G1 X34.396 Y-30.419 E91.48673
G1 X34.557 Y-30.149 E91.50196
G1 X34.6 Y-29.969 E91.51092
G1 X34.6 Y27.78 E94.30867
G1 X37 Y27.78 E94.42494
G1 X37.244 Y27.839 E94.4371
G1 X37.396 Y27.93 E94.44569
G1 X37.557 Y28.2 E94.46092
G1 X37.6 Y28.381 E94.46993
G1 X37.597 Y28.804 E94.49042
G1 X37.533 Y29.428 E94.52081
G1 X37.363 Y30.031 E94.55116
G1 X37.089 Y30.597 E94.58163
G1 X36.746 Y31.075 E94.61013
G1 X36.272 Y31.541 E94.64233
G1 X35.847 Y31.839 E94.66748
G1 X35.214 Y32.138 E94.7014
G1 X34.643 Y32.29 E94.73002
G1 X33.999 Y32.35 E94.76136
G1 X-24.054 Y32.347 E97.57383
G1 X-24.678 Y32.283 E97.60422
G1 X-25.216 Y32.137 E97.63123
G1 X-25.847 Y31.839 E97.66504
G1 X-26.325 Y31.496 E97.69354
G1 X-26.791 Y31.022 E97.72574
G1 X-27.089 Y30.597 E97.75089
G1 X-27.363 Y30.031 E97.78135
G1 X-27.534 Y29.43 E97.81163
G1 X-27.6 Y28.751 E97.84468
G1 X-27.6 Y28.379 E97.8627
G1 X-27.541 Y28.135 E97.87486
G1 X-27.45 Y27.983 E97.88344
G1 X-27.18 Y27.822 E97.89867
G1 X-27 Y27.779 E97.90764
G1 X-24.6 Y27.78 E98.02391
G1 X-24.6 Y-29.97 E100.82171
G1 X-24.541 Y-30.214 E100.83387
G1 X-24.45 Y-30.366 E100.84245
G1 X-24.18 Y-30.527 E100.85768
G1 X-24 Y-30.57 E100.86665
G1 X-20.702 Y-30.569 E101.02642
G1 X-20.23 Y-30.415 E101.05048
G0 F1080 X-20.13 Y-30.383
G0 X-19.968 Y-30.271
G0 X-19.764 Y-29.972
G1 F1500 E100.05048
G1 F600 Z1.24
;MESH:K??rper1
G0 F1500 X33.92 Y28.58 Z1.24
;TYPE:WALL-OUTER
G1 F600 Z0.24
G1 F3600 E101.80746
G1 F1200 X33.8 Y28.421 E101.81711
G1 X33.8 Y-29.768 E104.63617
G1 X30.74 Y-29.768 E104.78442
G1 X30.515 Y-29.676 E104.7962
G1 X30.396 Y-29.218 E104.81912
G1 X30.394 Y-28.213 E104.86781
G1 X30.322 Y-28.092 E104.87463
G1 X30.216 Y-28.048 E104.88019
G1 X29.661 Y-28.048 E104.90708
G1 X29.568 Y-27.908 E104.91522
G1 X-19.568 Y-27.908 E107.2957
G1 X-19.661 Y-28.048 E107.30384
G1 X-20.216 Y-28.048 E107.33073
G1 X-20.322 Y-28.092 E107.33629
G1 X-20.396 Y-28.228 E107.34379
G1 X-20.396 Y-29.218 E107.39175
G1 X-20.512 Y-29.671 E107.41441
G1 X-20.74 Y-29.768 E107.42641
G1 X-23.799 Y-29.767 E107.57461
G1 X-23.8 Y28.421 E110.39362
G1 X-23.92 Y28.58 E110.40328
G1 X-26.8 Y28.577 E110.5428
G1 X-26.754 Y29.24 E110.575
G1 X-26.631 Y29.699 E110.59802
G1 X-26.422 Y30.147 E110.62197
