;FLAVOR:Marlin
;TIME:3216
;Filament used: 1.72748m
;Layer height: 0.1
;MINX:-24.145
;MINY:-64.283
;MINZ:0.24
;MAXX:25.256
;MAXY:-12.285
;MAXZ:17.44
;Generated with Cura_SteamEngine 4.13.1
M140 S50
M105
M190 S50
M104 S210
M105
M109 S210
M82 ;absolute extrusion mode
;FLAVOR:Marlin
M82 ;absolute extrusion mode
G21
G90
M82
M107 T0
G28
G92 E0
G0 E3 F200
G92 E0 ; reset extrusion distance
M106 S255 ; Enable cooling fan full speed
G1 X-98 Y0 Z0.4 F3000 ; move to arc start
G3 X0 Y-98 I98 Z0.4 E40 F400 ; lay arc stripe 90deg
G92 E0 ; reset extrusion distance
G4 P500 ; wait for 0.5 sec
G0 Z10 E-1 ; Lift 15mm and retract 1mm filament
G4 P2000 ; wait for 5 sec
G0 Z15
M107 ; Disable cooling fan
G1 X0 Y-85 Z4 E0 F3000 ; get off the bed
G92 E0
G92 E0
G1 F1500 E-6
;LAYER_COUNT:174
;LAYER:0
M106 S102
G1 F600 Z1.24
G0 F3600 X3.898 Y-12.547 Z1.24
;TYPE:SKIRT
G1 F600 Z0.24
G1 F3600 E0.71493
G1 F1200 X3.251 Y-12.733 E0.74482
G1 X2.926 Y-12.847 E0.76012
G1 X2.307 Y-13.105 E0.7899
G1 X2.012 Y-13.247 E0.80444
G1 X1.421 Y-13.573 E0.83441
G1 X1.133 Y-13.754 E0.84952
G1 X0.585 Y-14.143 E0.87936
G1 X0.324 Y-14.351 E0.89418
G1 X-.178 Y-14.799 E0.92406
G1 X-.301 Y-14.916 E0.9316
G1 X-21.536 Y-36.152 E2.26529
G1 X-21.656 Y-36.279 E2.27305
G1 X-22.083 Y-36.759 E2.30158
G1 X-22.29 Y-37.019 E2.31634
G1 X-22.679 Y-37.568 E2.34622
G1 X-22.856 Y-37.849 E2.36097
G1 X-23.182 Y-38.438 E2.39086
G1 X-23.329 Y-38.744 E2.40594
G1 X-23.586 Y-39.365 E2.43578
G1 X-23.696 Y-39.68 E2.4506
G1 X-23.883 Y-40.328 E2.48055
G1 X-23.96 Y-40.664 E2.49586
G1 X-24.071 Y-41.326 E2.52567
G1 X-24.107 Y-41.652 E2.54024
G1 X-24.145 Y-42.322 E2.57004
G1 X-24.145 Y-42.661 E2.58509
G1 X-24.107 Y-43.333 E2.61499
G1 X-24.071 Y-43.66 E2.62959
G1 X-23.96 Y-44.322 E2.6594
G1 X-23.883 Y-44.658 E2.67471
G1 X-23.696 Y-45.306 E2.70466
G1 X-23.586 Y-45.621 E2.71948
G1 X-23.329 Y-46.242 E2.74933
G1 X-23.182 Y-46.548 E2.7644
G1 X-22.856 Y-47.137 E2.7943
G1 X-22.679 Y-47.418 E2.80905
G1 X-22.29 Y-47.967 E2.83893
G1 X-22.082 Y-48.228 E2.85375
G1 X-21.634 Y-48.731 E2.88366
G1 X-21.515 Y-48.858 E2.89139
G1 X-15.858 Y-54.514 E3.24665
G1 X-15.735 Y-54.63 E3.25416
G1 X-15.232 Y-55.079 E3.2841
G1 X-14.969 Y-55.288 E3.29902
G1 X-14.419 Y-55.678 E3.32896
G1 X-14.137 Y-55.856 E3.34377
G1 X-13.55 Y-56.181 E3.37357
G1 X-13.244 Y-56.328 E3.38864
G1 X-12.623 Y-56.585 E3.41849
G1 X-12.305 Y-56.696 E3.43345
G1 X-11.658 Y-56.882 E3.46334
G1 X-11.332 Y-56.957 E3.4782
G1 X-10.667 Y-57.07 E3.50815
G1 X-10.334 Y-57.107 E3.52303
G1 X-9.663 Y-57.145 E3.55288
G1 X-9.323 Y-57.145 E3.56798
G1 X-8.652 Y-57.107 E3.59783
G1 X-8.319 Y-57.07 E3.61271
G1 X-7.654 Y-56.957 E3.64266
G1 X-7.327 Y-56.882 E3.65756
G1 X-6.681 Y-56.696 E3.68741
G1 X-6.366 Y-56.586 E3.70223
G1 X-5.746 Y-56.33 E3.73202
G1 X-5.438 Y-56.182 E3.7472
G1 X-4.849 Y-55.856 E3.77709
G1 X-4.568 Y-55.679 E3.79184
G1 X-4.019 Y-55.29 E3.82172
G1 X-3.753 Y-55.078 E3.83683
G1 X-3.251 Y-54.629 E3.86674
G1 X-3.129 Y-54.514 E3.87418
G1 X0.335 Y-51.049 E4.09177
G1 X0.409 Y-50.985 E4.09611
G1 X0.671 Y-50.917 E4.10813
G1 X0.837 Y-51.158 E4.12113
G1 X1.19 Y-51.523 E4.14368
G1 X1.599 Y-51.867 E4.16741
G1 X10.112 Y-58.179 E4.63805
G1 X10.112 Y-61.289 E4.77617
G1 X10.152 Y-61.777 E4.79791
G1 X10.271 Y-62.252 E4.81966
G1 X10.465 Y-62.701 E4.84138
G1 X10.73 Y-63.113 E4.86314
G1 X11.058 Y-63.476 E4.88486
G1 X11.441 Y-63.781 E4.90661
G1 X11.869 Y-64.019 E4.92835
G1 X12.329 Y-64.185 E4.95007
G1 X12.81 Y-64.274 E4.97179
G1 X13.3 Y-64.283 E4.99356
G1 X13.638 Y-64.242 E5.00868
G1 X14.794 Y-64.036 E5.06083
G1 X15.342 Y-63.884 E5.08608
G1 X15.429 Y-63.851 E5.09021
G1 X16.694 Y-63.638 E5.14718
G1 X17.169 Y-63.518 E5.16894
G1 X17.618 Y-63.322 E5.1907
G1 X18.028 Y-63.056 E5.2124
G1 X18.39 Y-62.727 E5.23412
G1 X18.694 Y-62.343 E5.25587
G1 X18.96 Y-61.862 E5.28028
G1 X20.069 Y-59.547 E5.39428
G1 X20.606 Y-59.507 E5.41819
G1 X21.081 Y-59.388 E5.43994
G1 X21.53 Y-59.194 E5.46166
G1 X21.942 Y-58.929 E5.48342
G1 X22.305 Y-58.601 E5.50514
G1 X22.61 Y-58.218 E5.52689
G1 X22.848 Y-57.79 E5.54863
G1 X23.014 Y-57.33 E5.57035
G1 X23.118 Y-56.547 E5.60543
G1 X23.118 Y-55.497 E5.65206
G1 X23.078 Y-55.009 E5.6738
G1 X22.959 Y-54.534 E5.69555
G1 X22.765 Y-54.085 E5.71727
G1 X22.456 Y-53.624 E5.74192
G1 X23.167 Y-53.229 E5.77804
G1 X23.859 Y-52.864 E5.81278
G1 X24.282 Y-52.517 E5.83708
G1 X24.685 Y-52.063 E5.86404
G1 X24.939 Y-51.644 E5.8858
G1 X25.122 Y-51.19 E5.90754
G1 X25.228 Y-50.713 E5.92924
G1 X25.256 Y-50.224 E5.95099
G1 X25.204 Y-49.737 E5.97274
G1 X25.073 Y-49.266 E5.99445
G1 X24.867 Y-48.821 E6.01623
G1 X24.592 Y-48.417 E6.03793
G1 X24.195 Y-48.01 E6.06318
G1 X24.052 Y-47.889 E6.0715
G1 X23.561 Y-47.551 E6.09797
G1 X23.035 Y-47.261 E6.12465
G1 X21.348 Y-45.995 E6.21831
G1 X15.183 Y-37.826 E6.67281
G1 X14.857 Y-37.461 E6.69455
G1 X14.476 Y-37.153 E6.7163
G1 X14.554 Y-36.841 E6.73059
G1 X14.629 Y-36.754 E6.73569
G1 X18.105 Y-33.278 E6.95399
G1 X18.223 Y-33.153 E6.96163
G1 X18.65 Y-32.674 E6.99013
G1 X18.857 Y-32.415 E7.00485
G1 X19.246 Y-31.867 E7.03469
G1 X19.425 Y-31.583 E7.0496
G1 X19.751 Y-30.994 E7.0795
G1 X19.899 Y-30.687 E7.09463
G1 X20.156 Y-30.065 E7.12452
G1 X20.265 Y-29.753 E7.1392
G1 X20.452 Y-29.107 E7.16907
G1 X20.528 Y-28.772 E7.18432
G1 X20.64 Y-28.108 E7.21423
G1 X20.677 Y-27.779 E7.22893
G1 X20.715 Y-27.108 E7.25877
G1 X20.715 Y-26.769 E7.27383
G1 X20.677 Y-26.097 E7.30372
G1 X20.641 Y-25.771 E7.31829
G1 X20.53 Y-25.108 E7.34814
G1 X20.453 Y-24.77 E7.36353
G1 X20.266 Y-24.123 E7.39344
G1 X20.157 Y-23.81 E7.40816
G1 X19.9 Y-23.188 E7.43805
G1 X19.752 Y-22.881 E7.45318
G1 X19.426 Y-22.292 E7.48308
G1 X19.247 Y-22.008 E7.49799
G1 X18.858 Y-21.46 E7.52783
G1 X18.652 Y-21.202 E7.5425
G1 X18.204 Y-20.699 E7.57241
G1 X18.085 Y-20.572 E7.58014
G1 X12.409 Y-14.898 E7.93655
G1 X12.283 Y-14.78 E7.94422
G1 X11.799 Y-14.349 E7.973
G1 X11.541 Y-14.143 E7.98766
G1 X10.993 Y-13.754 E8.01751
G1 X10.705 Y-13.573 E8.03261
G1 X10.114 Y-13.247 E8.06259
G1 X9.819 Y-13.105 E8.07713
G1 X9.2 Y-12.847 E8.10691
G1 X8.875 Y-12.733 E8.1222
G1 X8.228 Y-12.547 E8.1521
G1 X7.902 Y-12.472 E8.16696
G1 X7.237 Y-12.359 E8.19691
G1 X6.899 Y-12.322 E8.21201
G1 X6.228 Y-12.285 E8.24186
G1 X5.898 Y-12.285 E8.25651
G1 X5.227 Y-12.322 E8.28636
G1 X4.889 Y-12.359 E8.30146
G1 X4.55 Y-12.417 E8.31673
G0 F1080 X4.224 Y-12.472
G0 X3.898 Y-12.547
G0 F3600 X4.009 Y-12.931
G1 F1200 X3.362 Y-13.117 E8.34663
G1 X3.08 Y-13.216 E8.3599
G1 X2.461 Y-13.474 E8.38968
G1 X2.205 Y-13.597 E8.40229
G1 X1.614 Y-13.923 E8.43227
G1 X1.365 Y-14.08 E8.44534
G1 X0.817 Y-14.469 E8.47518
G1 X0.591 Y-14.649 E8.48802
G1 X0.089 Y-15.097 E8.5179
G1 X-0.019 Y-15.199 E8.52449
G1 X-21.254 Y-36.435 E9.85818
G1 X-21.358 Y-36.545 E9.8649
G1 X-21.785 Y-37.025 E9.89343
G1 X-21.963 Y-37.25 E9.90617
G1 X-22.352 Y-37.799 E9.93605
G1 X-22.506 Y-38.043 E9.94887
G1 X-22.832 Y-38.632 E9.97876
G1 X-22.959 Y-38.897 E9.99181
G1 X-23.216 Y-39.518 E10.02166
G1 X-23.312 Y-39.791 E10.03451
G1 X-23.499 Y-40.439 E10.06446
G1 X-23.565 Y-40.73 E10.07771
G1 X-23.676 Y-41.392 E10.10752
G1 X-23.708 Y-41.675 E10.12017
G1 X-23.746 Y-42.345 E10.14997
G1 X-23.746 Y-42.639 E10.16303
G1 X-23.708 Y-43.311 E10.19292
G1 X-23.676 Y-43.594 E10.20557
G1 X-23.565 Y-44.256 E10.23538
G1 X-23.499 Y-44.547 E10.24863
G1 X-23.312 Y-45.195 E10.27858
G1 X-23.216 Y-45.468 E10.29143
G1 X-22.959 Y-46.089 E10.32128
G1 X-22.832 Y-46.354 E10.33433
G1 X-22.506 Y-46.943 E10.36423
G1 X-22.352 Y-47.187 E10.37704
G1 X-21.963 Y-47.736 E10.40692
G1 X-21.784 Y-47.962 E10.41972
G1 X-21.336 Y-48.465 E10.44964
G1 X-21.232 Y-48.575 E10.45636
G1 X-15.575 Y-54.231 E10.81161
G1 X-15.468 Y-54.332 E10.81815
G1 X-14.965 Y-54.781 E10.84809
G1 X-14.738 Y-54.962 E10.86098
G1 X-14.188 Y-55.352 E10.89093
G1 X-13.943 Y-55.506 E10.90378
G1 X-13.356 Y-55.831 E10.93357
G1 X-13.091 Y-55.958 E10.94662
G1 X-12.47 Y-56.215 E10.97647
G1 X-12.194 Y-56.312 E10.98946
G1 X-11.547 Y-56.498 E11.01936
G1 X-11.265 Y-56.562 E11.0322
G1 X-10.6 Y-56.675 E11.06216
G1 X-10.311 Y-56.708 E11.07508
G1 X-9.64 Y-56.746 E11.10492
G1 X-9.346 Y-56.746 E11.11798
G1 X-8.675 Y-56.708 E11.14782
G1 X-8.386 Y-56.675 E11.16074
G1 X-7.721 Y-56.562 E11.1907
G1 X-7.438 Y-56.497 E11.20359
G1 X-6.792 Y-56.311 E11.23345
G1 X-6.519 Y-56.216 E11.24628
G1 X-5.899 Y-55.96 E11.27607
G1 X-5.632 Y-55.832 E11.28922
G1 X-5.043 Y-55.506 E11.31912
G1 X-4.799 Y-55.352 E11.33193
G1 X-4.25 Y-54.963 E11.36181
G1 X-4.02 Y-54.78 E11.37487
G1 X-3.518 Y-54.331 E11.40478
G1 X-3.412 Y-54.231 E11.41125
G1 X0.05 Y-50.768 E11.62871
G1 X0.264 Y-50.611 E11.64049
G1 X0.845 Y-50.431 E11.66751
G1 X1.042 Y-50.768 E11.68484
G1 X1.453 Y-51.221 E11.71201
G1 X1.837 Y-51.546 E11.73435
G1 X10.512 Y-57.978 E12.21394
G1 X10.512 Y-61.289 E12.36098
G1 X10.552 Y-61.743 E12.38122
G1 X10.67 Y-62.183 E12.40145
G1 X10.864 Y-62.595 E12.42167
G1 X11.127 Y-62.968 E12.44194
G1 X11.45 Y-63.289 E12.46217
G1 X11.825 Y-63.548 E12.48241
G1 X12.239 Y-63.738 E12.50263
G1 X12.68 Y-63.853 E12.52287
G1 X13.134 Y-63.889 E12.5431
G1 X13.568 Y-63.849 E12.56245
G1 X14.724 Y-63.643 E12.6146
G1 X15.323 Y-63.463 E12.64238
G1 X16.628 Y-63.244 E12.70114
G1 X17.069 Y-63.129 E12.72138
G1 X17.483 Y-62.94 E12.74159
G1 X17.858 Y-62.68 E12.76186
G1 X18.182 Y-62.36 E12.78208
G1 X18.523 Y-61.843 E12.80958
G1 X18.599 Y-61.689 E12.81721
G1 X19.817 Y-59.147 E12.94239
G1 X20.572 Y-59.107 E12.97597
G1 X21.012 Y-58.989 E12.9962
G1 X21.424 Y-58.795 E13.01642
G1 X21.797 Y-58.532 E13.03669
G1 X22.118 Y-58.209 E13.05691
G1 X22.377 Y-57.834 E13.07715
G1 X22.567 Y-57.42 E13.09738
G1 X22.682 Y-56.979 E13.11762
G1 X22.718 Y-56.547 E13.13687
G1 X22.718 Y-55.497 E13.1835
G1 X22.678 Y-55.043 E13.20374
G1 X22.56 Y-54.603 E13.22397
G1 X22.366 Y-54.191 E13.2442
G1 X22.103 Y-53.818 E13.26446
G1 X21.819 Y-53.52 E13.28275
G1 X22.978 Y-52.876 E13.34163
G1 X23.66 Y-52.516 E13.37588
G1 X24.084 Y-52.149 E13.40078
G1 X24.379 Y-51.802 E13.42101
G1 X24.609 Y-51.409 E13.44123
G1 X24.766 Y-50.981 E13.46147
G1 X24.847 Y-50.532 E13.48174
G1 X24.847 Y-50.077 E13.50194
G1 X24.769 Y-49.628 E13.52218
G1 X24.613 Y-49.2 E13.54241
G1 X24.385 Y-48.806 E13.56263
G1 X23.936 Y-48.315 E13.59217
G1 X23.793 Y-48.194 E13.60049
G1 X23.368 Y-47.902 E13.62339
G1 X22.82 Y-47.6 E13.65118
G1 X21.061 Y-46.28 E13.74884
G1 X14.863 Y-38.067 E14.20578
G1 X14.558 Y-37.729 E14.226
G1 X14.198 Y-37.449 E14.24626
G1 X13.98 Y-37.333 E14.25722
G1 X14.143 Y-36.823 E14.281
G1 X14.231 Y-36.604 E14.29148
G1 X14.339 Y-36.478 E14.29885
G1 X17.822 Y-32.995 E14.5176
G1 X17.925 Y-32.887 E14.52423
G1 X18.352 Y-32.408 E14.55272
G1 X18.531 Y-32.183 E14.56549
G1 X18.92 Y-31.635 E14.59534
G1 X19.075 Y-31.389 E14.60825
G1 X19.401 Y-30.8 E14.63815
G1 X19.529 Y-30.534 E14.65126
G1 X19.786 Y-29.912 E14.68114
G1 X19.88 Y-29.642 E14.69384
G1 X20.067 Y-28.996 E14.72371
G1 X20.134 Y-28.705 E14.73697
G1 X20.246 Y-28.041 E14.76687
G1 X20.278 Y-27.756 E14.77961
G1 X20.316 Y-27.085 E14.80946
G1 X20.316 Y-26.791 E14.82251
G1 X20.278 Y-26.119 E14.8524
G1 X20.246 Y-25.837 E14.86501
G1 X20.135 Y-25.174 E14.89486
G1 X20.069 Y-24.881 E14.9082
G1 X19.882 Y-24.234 E14.93811
G1 X19.787 Y-23.963 E14.95086
G1 X19.53 Y-23.341 E14.98075
G1 X19.402 Y-23.075 E14.99386
G1 X19.076 Y-22.486 E15.02375
G1 X18.921 Y-22.24 E15.03667
G1 X18.532 Y-21.692 E15.06651
G1 X18.354 Y-21.468 E15.07922
G1 X17.906 Y-20.965 E15.10913
G1 X17.802 Y-20.855 E15.11585
G1 X12.126 Y-15.181 E15.47227
G1 X12.017 Y-15.078 E15.47893
G1 X11.533 Y-14.647 E15.50771
G1 X11.309 Y-14.469 E15.52041
G1 X10.761 Y-14.08 E15.55026
G1 X10.512 Y-13.923 E15.56333
G1 X9.921 Y-13.597 E15.59331
G1 X9.665 Y-13.474 E15.60592
G1 X9.046 Y-13.216 E15.6357
G1 X8.764 Y-13.117 E15.64897
G1 X8.117 Y-12.931 E15.67887
G1 X7.835 Y-12.867 E15.69171
G1 X7.17 Y-12.754 E15.72167
G1 X6.877 Y-12.721 E15.73476
G1 X6.206 Y-12.684 E15.76461
G1 X5.92 Y-12.684 E15.77731
G1 X5.249 Y-12.721 E15.80715
G1 X4.956 Y-12.754 E15.82025
G1 X4.661 Y-12.804 E15.83353
G0 F1080 X4.291 Y-12.867
G0 X4.009 Y-12.931
G0 F3600 X4.119 Y-13.316
G1 F1200 X3.472 Y-13.502 E15.86343
G1 X3.234 Y-13.585 E15.87462
G1 X2.615 Y-13.843 E15.90441
G1 X2.398 Y-13.948 E15.91511
G1 X1.807 Y-14.274 E15.94508
G1 X1.597 Y-14.406 E15.9561
G1 X1.049 Y-14.795 E15.98594
G1 X0.857 Y-14.948 E15.99685
G1 X0.355 Y-15.396 E16.02673
G1 X0.264 Y-15.481 E16.03226
G1 X-20.971 Y-36.717 E17.36594
G1 X-21.059 Y-36.811 E17.37166
G1 X-21.486 Y-37.291 E17.40019
G1 X-21.637 Y-37.481 E17.41097
G1 X-22.026 Y-38.03 E17.44085
G1 X-22.156 Y-38.237 E17.4517
G1 X-22.482 Y-38.826 E17.4816
G1 X-22.59 Y-39.05 E17.49264
G1 X-22.847 Y-39.671 E17.52249
G1 X-22.928 Y-39.902 E17.53336
G1 X-23.115 Y-40.55 E17.56331
G1 X-23.171 Y-40.796 E17.57452
G1 X-23.282 Y-41.458 E17.60433
G1 X-23.308 Y-41.697 E17.615
G1 X-23.346 Y-42.367 E17.64481
G1 X-23.346 Y-42.616 E17.65586
G1 X-23.308 Y-43.288 E17.68576
G1 X-23.282 Y-43.528 E17.69648
G1 X-23.171 Y-44.19 E17.72629
G1 X-23.115 Y-44.436 E17.73749
G1 X-22.928 Y-45.084 E17.76744
G1 X-22.847 Y-45.315 E17.77831
G1 X-22.59 Y-45.936 E17.80816
G1 X-22.482 Y-46.16 E17.8192
G1 X-22.156 Y-46.749 E17.8491
G1 X-22.026 Y-46.956 E17.85995
G1 X-21.637 Y-47.505 E17.88983
G1 X-21.485 Y-47.696 E17.90068
G1 X-21.037 Y-48.199 E17.93059
G1 X-20.949 Y-48.292 E17.93627
G1 X-15.292 Y-53.948 E18.29153
G1 X-15.202 Y-54.033 E18.29703
G1 X-14.699 Y-54.482 E18.32697
G1 X-14.507 Y-54.636 E18.3379
G1 X-13.957 Y-55.026 E18.36784
G1 X-13.75 Y-55.156 E18.3787
G1 X-13.163 Y-55.481 E18.40849
G1 X-12.938 Y-55.589 E18.41958
G1 X-12.317 Y-55.846 E18.44942
G1 X-12.084 Y-55.927 E18.46038
G1 X-11.437 Y-56.113 E18.49028
G1 X-11.198 Y-56.168 E18.50117
G1 X-10.533 Y-56.281 E18.53112
G1 X-10.288 Y-56.308 E18.54207
G1 X-9.617 Y-56.346 E18.57192
G1 X-9.369 Y-56.346 E18.58293
G1 X-8.698 Y-56.308 E18.61278
G1 X-8.453 Y-56.281 E18.62372
G1 X-7.788 Y-56.168 E18.65368
G1 X-7.548 Y-56.113 E18.66461
G1 X-6.902 Y-55.927 E18.69447
G1 X-6.671 Y-55.846 E18.70534
G1 X-6.051 Y-55.59 E18.73513
G1 X-5.826 Y-55.482 E18.74621
G1 X-5.237 Y-55.156 E18.77611
G1 X-5.03 Y-55.026 E18.78696
G1 X-4.481 Y-54.637 E18.81684
G1 X-4.286 Y-54.482 E18.8279
G1 X-3.784 Y-54.033 E18.85781
G1 X-3.695 Y-53.948 E18.86328
G1 X-.218 Y-50.47 E19.08168
G1 X0.03 Y-50.278 E19.09561
G1 X0.574 Y-50.116 E19.12082
G1 X1.056 Y-49.866 E19.14493
G1 X1.285 Y-50.411 E19.17118
G1 X1.716 Y-50.92 E19.2008
G1 X2.076 Y-51.224 E19.22173
G1 X10.912 Y-57.776 E19.71024
G1 X10.912 Y-61.289 E19.86625
G1 X10.952 Y-61.706 E19.88485
G1 X11.07 Y-62.108 E19.90346
G1 X11.263 Y-62.48 E19.92207
G1 X11.522 Y-62.809 E19.94067
G1 X11.839 Y-63.083 E19.95927
G1 X12.202 Y-63.292 E19.97788
G1 X12.599 Y-63.428 E19.99651
G1 X13.014 Y-63.487 E20.01513
G1 X13.498 Y-63.455 E20.03667
G1 X14.654 Y-63.249 E20.08881
G1 X15.213 Y-63.077 E20.11479
G1 X16.562 Y-62.85 E20.17554
G1 X16.967 Y-62.741 E20.19416
G1 X17.343 Y-62.558 E20.21274
G1 X17.679 Y-62.306 E20.23139
G1 X17.96 Y-61.996 E20.24997
G1 X18.222 Y-61.55 E20.27294
G1 X19.565 Y-58.747 E20.41097
G1 X20.118 Y-58.747 E20.43553
G1 X20.535 Y-58.707 E20.45413
G1 X20.937 Y-58.589 E20.47274
G1 X21.309 Y-58.396 E20.49135
G1 X21.638 Y-58.137 E20.50994
G1 X21.912 Y-57.82 E20.52855
G1 X22.121 Y-57.457 E20.54715
G1 X22.257 Y-57.06 E20.56579
G1 X22.318 Y-56.547 E20.58873
G1 X22.318 Y-55.497 E20.63536
G1 X22.278 Y-55.08 E20.65397
G1 X22.16 Y-54.678 E20.67257
G1 X21.967 Y-54.306 E20.69118
G1 X21.708 Y-53.977 E20.70978
G1 X21.545 Y-53.836 E20.71935
G1 X21.256 Y-53.376 E20.74347
G1 X22.805 Y-52.515 E20.82218
G1 X23.459 Y-52.168 E20.85506
G1 X23.803 Y-51.865 E20.87541
G1 X24.072 Y-51.543 E20.89405
G1 X24.275 Y-51.177 E20.91263
G1 X24.404 Y-50.778 E20.93126
