;FLAVOR:Marlin
;TIME:6558
;Filament used: 2.6577m
;Layer height: 0.1
;MINX:-71.243
;MINY:-82.707
;MINZ:0.3
;MAXX:13.95
;MAXY:2.426
;MAXZ:10
;TARGET_MACHINE.NAME:Unknown
;POSTPROCESSED
;  [CreateThumbnail]
;Generated with Cura_SteamEngine 5.11.0
;
;

M140 S50
M105
M190 S50
M104 S230
M105
M109 S230
;FLAVOR:Marlin
M82 ;absolute extrusion mode
G21
G90
M82
M107 T0
G28
G92 E0
G0 E3 F200
G92 E0 ; reset extrusion distance
M106 S255 ; Enable cooling fan full speed
G1 X-98 Y0 Z0.4 F3000 ; move to arc start
G3 X0 Y-98 I98 Z0.4 E40 F400 ; lay arc stripe 90deg
G92 E0 ; reset extrusion distance
G4 P500 ; wait for 0.5 sec
G0 Z10 E-1 ; Lift 15mm and retract 1mm filament
G4 P2000 ; wait for 5 sec
G0 Z15
M107 ; Disable cooling fan
G1 X0 Y-85 Z4 E0 F3000 ; get off the bed
M82 ;absolute extrusion mode
G92 E0
G92 E0
G1 F1500 E-6.5
;LAYER_COUNT:98
;LAYER:0
M107
G1 F600 Z1.3
G0 F3600 X0.00 Y0.00 Z1.3
G0 X-17.96 Y-14.312
;TYPE:SKIRT
G1 F600 Z0.3
G1 F1500 E0
G1 F1200 X-19.552 Y-12.086 E0.10923
G1 X-21.043 Y-9.868 E0.2159
G1 X-22.145 Y-8.102 E0.29898
G1 X-22.202 Y-8.026 E0.30277
G1 X-22.863 Y-6.978 E0.35222
G1 X-23.603 Y-5.925 E0.40359
G1 X-24.317 Y-5.189 E0.44452
G1 X-26.79 Y-2.986 E0.5767
G1 X-28.804 Y-1.087 E0.68718
G1 X-30.555 Y0.616 E0.78467
G1 X-31.601 Y1.357 E0.83584
G1 X-32.765 Y1.915 E0.88736
G1 X-34.069 Y2.301 E0.94163
G1 X-35.54 Y2.426 E1.00056
G1 X-36.793 Y2.339 E1.05069
G1 X-38.221 Y1.95 E1.10976
G1 X-39.333 Y1.444 E1.15852
G1 X-40.568 Y0.593 E1.21838
G1 X-41.388 Y-.208 E1.26413
G1 X-41.971 Y-.987 E1.30296
G1 X-43.983 Y-3.871 E1.44332
G1 X-45.623 Y-6.077 E1.55303
G1 X-47.276 Y-8.172 E1.65954
G1 X-49.09 Y-10.342 E1.77242
G1 X-50.914 Y-12.403 E1.88227
G1 X-52.747 Y-14.361 E1.98932
G1 X-54.727 Y-16.359 E2.10159
G1 X-56.693 Y-18.232 E2.20996
G1 X-58.747 Y-20.084 E2.32035
G1 X-60.855 Y-21.876 E2.43077
G1 X-62.939 Y-23.548 E2.53741
G1 X-65.194 Y-25.256 E2.65032
G1 X-67.282 Y-26.731 E2.75235
G1 X-68.494 Y-27.622 E2.81239
G1 X-69.341 Y-28.452 E2.85972
G1 X-70.174 Y-29.613 E2.91675
G1 X-70.732 Y-30.777 E2.96827
G1 X-71.125 Y-32.101 E3.02339
G1 X-71.243 Y-33.659 E3.08575
G1 X-71.143 Y-34.792 E3.13115
G1 X-70.783 Y-36.202 E3.18923
G1 X-70.195 Y-37.465 E3.24484
G1 X-69.46 Y-38.522 E3.29622
G1 X-68.555 Y-39.448 E3.3479
G1 X-67.458 Y-40.243 E3.40197
G1 X-66.521 Y-40.768 E3.44484
G1 X-64.133 Y-42.152 E3.555
G1 X-61.808 Y-43.588 E3.66407
G1 X-59.489 Y-45.114 E3.77486
G1 X-57.245 Y-46.684 E3.88417
G1 X-55.013 Y-48.34 E3.9951
G1 X-52.903 Y-50.001 E4.10227
G1 X-50.798 Y-51.758 E4.21171
G1 X-48.685 Y-53.624 E4.32422
G1 X-46.688 Y-55.489 E4.43328
G1 X-44.74 Y-57.415 E4.54261
G1 X-42.855 Y-59.391 E4.65161
G1 X-40.995 Y-61.451 E4.76238
G1 X-39.23 Y-63.524 E4.87105
G1 X-37.5 Y-65.675 E4.98122
G1 X-35.817 Y-67.891 E5.09228
G1 X-34.215 Y-70.127 E5.20207
G1 X-32.701 Y-72.377 E5.31031
G1 X-31.223 Y-74.711 E5.42057
G1 X-29.812 Y-77.086 E5.53083
G1 X-28.737 Y-78.974 E5.61754
G1 X-28.062 Y-79.922 E5.66399
G1 X-27.192 Y-80.828 E5.71412
G1 X-25.937 Y-81.69 E5.77489
G1 X-24.857 Y-82.219 E5.82289
G1 X-23.345 Y-82.604 E5.88516
G1 X-22.123 Y-82.707 E5.93411
G1 X-20.711 Y-82.583 E5.99068
G1 X-19.617 Y-82.303 E6.03575
G1 X-18.195 Y-81.667 E6.09792
G1 X-17.293 Y-81.059 E6.14134
G1 X-16.17 Y-79.98 E6.2035
G1 X-15.677 Y-79.313 E6.2366
G1 X-13.905 Y-76.776 E6.36011
G1 X-12.269 Y-74.573 E6.46963
G1 X-10.55 Y-72.393 E6.58044
G1 X-8.82 Y-70.322 E6.68814
G1 X-6.953 Y-68.212 E6.80059
G1 X-5.113 Y-66.246 E6.90806
G1 X-3.135 Y-64.25 E7.02022
G1 X-1.199 Y-62.403 E7.12701
G1 X0.851 Y-60.555 E7.23717
G1 X2.961 Y-58.761 E7.34771
G1 X5.094 Y-57.045 E7.45697
G1 X7.256 Y-55.406 E7.56525
G1 X11.091 Y-52.693 E7.75275
G1 X12.136 Y-51.666 E7.81123
G1 X12.874 Y-50.646 E7.86147
G1 X13.435 Y-49.443 E7.91445
G1 X13.83 Y-48.036 E7.97278
G1 X13.95 Y-46.653 E8.02819
G1 X13.851 Y-45.428 E8.07724
G1 X13.479 Y-43.998 E8.13621
G1 X12.995 Y-42.926 E8.18316
G1 X12.113 Y-41.639 E8.24543
G1 X11.266 Y-40.78 E8.29358
G1 X10.521 Y-40.229 E8.33056
G1 X9.881 Y-39.806 E8.36118
G1 X7.997 Y-38.639 E8.44963
G1 X5.712 Y-37.129 E8.55894
G1 X3.441 Y-35.538 E8.66961
G1 X1.217 Y-33.885 E8.78021
G1 X-.917 Y-32.201 E8.88871
G1 X-2.999 Y-30.461 E8.99701
G1 X-5.109 Y-28.593 E9.10948
G1 X-7.066 Y-26.76 E9.2165
G1 X-9.064 Y-24.78 E9.32877
G1 X-10.937 Y-22.814 E9.43715
G1 X-12.788 Y-20.759 E9.54753
G1 X-14.58 Y-18.651 E9.65796
G1 X-16.252 Y-16.567 E9.7646
G1 X-17.96 Y-14.312 E9.8775
G0 F3600 X-18.279 Y-14.554
G1 F1200 X-19.877 Y-12.319 E9.98716
G1 X-21.383 Y-10.079 E10.09489
G1 X-22.465 Y-8.342 E10.17657
G1 X-22.528 Y-8.258 E10.18076
G1 X-23.191 Y-7.207 E10.23036
G1 X-23.89 Y-6.204 E10.27915
G1 X-24.604 Y-5.468 E10.32008
G1 X-27.056 Y-3.285 E10.45111
G1 X-29.083 Y-1.374 E10.5623
G1 X-30.834 Y0.329 E10.65978
G1 X-31.774 Y0.996 E10.70579
G1 X-32.938 Y1.554 E10.75731
G1 X-34.146 Y1.907 E10.80754
G1 X-35.512 Y2.027 E10.86227
G1 X-36.727 Y1.943 E10.91088
G1 X-38.055 Y1.586 E10.96576
G1 X-39.167 Y1.08 E11.01452
G1 X-40.288 Y0.307 E11.06887
G1 X-41.108 Y-.494 E11.11462
G1 X-41.643 Y-1.216 E11.15049
G1 X-43.655 Y-4.1 E11.29084
G1 X-45.302 Y-6.316 E11.40104
G1 X-46.969 Y-8.429 E11.50846
G1 X-48.783 Y-10.599 E11.62134
G1 X-50.614 Y-12.668 E11.73161
G1 X-52.463 Y-14.643 E11.83959
G1 X-54.443 Y-16.641 E11.95186
G1 X-56.417 Y-18.522 E12.06069
G1 X-58.479 Y-20.381 E12.1715
G1 X-60.596 Y-22.181 E12.2824
G1 X-62.697 Y-23.867 E12.38992
G1 X-64.952 Y-25.575 E12.50283
G1 X-67.046 Y-27.054 E12.60515
G1 X-68.214 Y-27.908 E12.6629
G1 X-69.061 Y-28.738 E12.71023
G1 X-69.813 Y-29.786 E12.76171
G1 X-70.371 Y-30.95 E12.81323
G1 X-70.729 Y-32.173 E12.86409
G1 X-70.844 Y-33.626 E12.92226
G1 X-70.755 Y-34.693 E12.965
G1 X-70.395 Y-36.103 E13.02308
G1 X-69.865 Y-37.238 E13.07307
G1 X-69.174 Y-38.242 E13.12172
G1 X-68.269 Y-39.168 E13.1734
G1 X-67.262 Y-39.894 E13.22295
G1 X-66.325 Y-40.419 E13.26581
G1 X-63.932 Y-41.806 E13.37621
G1 X-61.588 Y-43.254 E13.48617
G1 X-59.269 Y-44.78 E13.59697
G1 X-57.016 Y-46.356 E13.70671
G1 X-54.775 Y-48.019 E13.81809
G1 X-52.647 Y-49.694 E13.92618
G1 X-50.533 Y-51.458 E14.03607
G1 X-48.42 Y-53.324 E14.14858
G1 X-46.415 Y-55.197 E14.25809
G1 X-44.459 Y-57.131 E14.36787
G1 X-42.558 Y-59.123 E14.47777
G1 X-40.698 Y-61.183 E14.58855
G1 X-38.918 Y-63.273 E14.69812
G1 X-37.188 Y-65.424 E14.80829
G1 X-35.498 Y-67.649 E14.91981
G1 X-33.89 Y-69.894 E15.03002
G1 X-32.369 Y-72.154 E15.13875
G1 X-30.885 Y-74.497 E15.24944
G1 X-29.464 Y-76.888 E15.36046
G1 X-28.41 Y-78.743 E15.44561
G1 X-27.773 Y-79.645 E15.48968
G1 X-26.93 Y-80.523 E15.53826
G1 X-25.761 Y-81.331 E15.59498
G1 X-24.718 Y-81.842 E15.64134
G1 X-23.311 Y-82.205 E15.69933
G1 X-22.089 Y-82.308 E15.74828
G1 X-20.81 Y-82.195 E15.79952
G1 X-19.716 Y-81.915 E15.84459
G1 X-18.419 Y-81.335 E15.9013
G1 X-17.517 Y-80.727 E15.94472
G1 X-16.492 Y-79.742 E16.00145
G1 X-16.005 Y-79.084 E16.03413
G1 X-14.226 Y-76.537 E16.15813
G1 X-12.583 Y-74.325 E16.2681
G1 X-10.864 Y-72.145 E16.37891
G1 X-9.12 Y-70.057 E16.48749
G1 X-7.253 Y-67.947 E16.59994
G1 X-5.397 Y-65.964 E16.70834
G1 X-3.419 Y-63.968 E16.8205
G1 X-1.467 Y-62.106 E16.92817
G1 X0.592 Y-60.25 E17.0388
G1 X2.71 Y-58.449 E17.14977
G1 X4.852 Y-56.726 E17.25949
G1 X7.025 Y-55.079 E17.36831
G1 X10.86 Y-52.366 E17.5558
G1 X11.812 Y-51.431 E17.60906
G1 X12.527 Y-50.443 E17.65774
G1 X13.072 Y-49.274 E17.70922
G1 X13.435 Y-47.964 E17.76347
G1 X13.551 Y-46.683 E17.81481
G1 X13.463 Y-45.527 E17.86108
G1 X13.114 Y-44.163 E17.91727
G1 X12.63 Y-43.091 E17.96422
G1 X11.827 Y-41.919 E18.02092
G1 X11.028 Y-41.102 E18.06653
G1 X10.283 Y-40.551 E18.10351
G1 X9.67 Y-40.146 E18.13284
G1 X7.786 Y-38.979 E18.22129
G1 X5.482 Y-37.457 E18.3315
G1 X3.211 Y-35.866 E18.44217
G1 X0.978 Y-34.206 E18.55322
G1 X-1.174 Y-32.508 E18.66263
G1 X-3.256 Y-30.768 E18.77093
G1 X-5.374 Y-28.893 E18.88383
G1 X-7.348 Y-27.044 E18.99178
G1 X-9.346 Y-25.064 E19.10405
G1 X-11.227 Y-23.09 E19.21288
G1 X-13.085 Y-21.027 E19.32369
G1 X-14.885 Y-18.91 E19.43459
G1 X-16.571 Y-16.809 E19.54211
G1 X-18.279 Y-14.554 E19.65501
G0 F3600 X-18.598 Y-14.796
G1 F1200 X-20.202 Y-12.552 E19.76511
G1 X-21.723 Y-10.29 E19.8739
G1 X-22.785 Y-8.582 E19.95417
G1 X-22.854 Y-8.49 E19.95876
G1 X-23.52 Y-7.434 E20.00859
G1 X-24.177 Y-6.483 E20.05472
G1 X-24.891 Y-5.747 E20.09565
G1 X-27.331 Y-3.576 E20.22601
G1 X-29.357 Y-1.664 E20.33719
G1 X-31.067 Y0.004 E20.43253
G1 X-31.949 Y0.636 E20.47584
G1 X-33.05 Y1.17 E20.52468
G1 X-34.222 Y1.512 E20.57341
G1 X-35.484 Y1.628 E20.62399
G1 X-36.659 Y1.547 E20.671
G1 X-37.889 Y1.222 E20.72177
G1 X-39.001 Y0.716 E20.77053
G1 X-40.008 Y0.021 E20.81937
G1 X-40.828 Y-.78 E20.86512
G1 X-41.313 Y-1.441 E20.89784
G1 X-41.704 Y-2.014 E20.92553
G1 X-43.327 Y-4.33 E21.0384
G1 X-44.981 Y-6.555 E21.14906
G1 X-46.662 Y-8.686 E21.25739
G1 X-48.476 Y-10.856 E21.37027
G1 X-50.314 Y-12.933 E21.48097
G1 X-52.179 Y-14.925 E21.58988
G1 X-54.159 Y-16.923 E21.70215
G1 X-56.141 Y-18.812 E21.81143
G1 X-58.211 Y-20.678 E21.92266
G1 X-60.337 Y-22.486 E22.03405
G1 X-62.455 Y-24.186 E22.14244
G1 X-64.71 Y-25.894 E22.25535
G1 X-66.811 Y-27.378 E22.35801
G1 X-67.934 Y-28.194 E22.41342
G1 X-68.781 Y-29.024 E22.46075
G1 X-69.453 Y-29.961 E22.50677
G1 X-69.987 Y-31.062 E22.55561
G1 X-70.333 Y-32.244 E22.60476
G1 X-70.445 Y-33.593 E22.65879
G1 X-70.356 Y-34.66 E22.70152
G1 X-70.017 Y-35.966 E22.75538
G1 X-69.535 Y-37.011 E22.80131
G1 X-68.844 Y-38.015 E22.84995
G1 X-67.984 Y-38.887 E22.89883
G1 X-67.066 Y-39.545 E22.94391
G1 X-66.129 Y-40.07 E22.98678
G1 X-63.731 Y-41.46 E23.09741
G1 X-61.368 Y-42.92 E23.20827
G1 X-59.049 Y-44.446 E23.31907
G1 X-56.787 Y-46.028 E23.42924
G1 X-54.537 Y-47.698 E23.54107
G1 X-52.391 Y-49.387 E23.65007
G1 X-50.268 Y-51.158 E23.76042
G1 X-48.155 Y-53.024 E23.87293
G1 X-46.142 Y-54.905 E23.98289
G1 X-44.178 Y-56.847 E24.09313
G1 X-42.261 Y-58.855 E24.20393
G1 X-40.401 Y-60.915 E24.3147
G1 X-38.606 Y-63.022 E24.42518
G1 X-36.876 Y-65.173 E24.53535
G1 X-35.179 Y-67.407 E24.64732
G1 X-33.565 Y-69.661 E24.75797
G1 X-32.037 Y-71.931 E24.86718
G1 X-30.547 Y-74.283 E24.97831
G1 X-29.12 Y-76.684 E25.08979
G1 X-28.082 Y-78.514 E25.17376
G1 X-27.484 Y-79.368 E25.21537
G1 X-26.668 Y-80.218 E25.26239
G1 X-25.585 Y-80.972 E25.31506
G1 X-24.58 Y-81.464 E25.35972
G1 X-23.277 Y-81.806 E25.41349
G1 X-22.055 Y-81.909 E25.46244
G1 X-20.909 Y-81.807 E25.50836
G1 X-19.815 Y-81.527 E25.55343
G1 X-18.643 Y-81.003 E25.60467
G1 X-17.741 Y-80.395 E25.64808
G1 X-16.77 Y-79.455 E25.70202
G1 X-16.333 Y-78.855 E25.73165
G1 X-14.547 Y-76.298 E25.85613
G1 X-12.897 Y-74.077 E25.96656
G1 X-11.174 Y-71.892 E26.07762
G1 X-9.42 Y-69.792 E26.18683
G1 X-7.553 Y-67.682 E26.29928
G1 X-5.681 Y-65.682 E26.40861
G1 X-3.703 Y-63.686 E26.52077
G1 X-1.735 Y-61.809 E26.62932
G1 X0.333 Y-59.945 E26.74043
G1 X2.459 Y-58.137 E26.85182
G1 X4.61 Y-56.407 E26.962
G1 X6.794 Y-54.752 E27.07136
G1 X10.629 Y-52.039 E27.25886
G1 X11.488 Y-51.196 E27.30689
G1 X12.18 Y-50.24 E27.354
G1 X12.709 Y-49.105 E27.40397
G1 X13.037 Y-47.926 E27.45282
G1 X13.152 Y-46.713 E27.50145
G1 X13.064 Y-45.557 E27.54772
G1 X12.749 Y-44.328 E27.59836
G1 X12.265 Y-43.256 E27.6453
G1 X11.541 Y-42.199 E27.69644
G1 X10.742 Y-41.382 E27.74205
G1 X10.063 Y-40.885 E27.77563
G1 X9.459 Y-40.486 E27.80452
G1 X7.575 Y-39.319 E27.89297
G1 X5.252 Y-37.785 E28.00408
G1 X2.981 Y-36.194 E28.11475
G1 X0.739 Y-34.527 E28.22626
G1 X-1.422 Y-32.822 E28.33612
G1 X-3.521 Y-31.068 E28.4453
G1 X-5.639 Y-29.193 E28.5582
G1 X-7.63 Y-27.328 E28.66708
G1 X-9.628 Y-25.348 E28.77935
G1 X-11.517 Y-23.366 E28.88863
G1 X-13.382 Y-21.295 E28.99986
G1 X-15.19 Y-19.169 E29.11125
G1 X-16.89 Y-17.051 E29.21965
G1 X-18.598 Y-14.796 E29.33255
G0 F3600 X-18.917 Y-15.038
G1 F1200 X-20.527 Y-12.785 E29.44307
G1 X-22.063 Y-10.501 E29.55293
G1 X-23.125 Y-8.793 E29.6332
G1 X-23.18 Y-8.722 E29.63679
G1 X-23.85 Y-7.66 E29.68691
G1 X-24.464 Y-6.761 E29.73036
G1 X-25.157 Y-6.046 E29.7701
G1 X-27.606 Y-3.867 E29.90093
G1 X-29.632 Y-1.955 E30.01212
G1 X-31.302 Y-.32 E30.1054
G1 X-32.124 Y0.276 E30.14592
G1 X-33.225 Y0.81 E30.19476
G1 X-34.295 Y1.117 E30.23919
G1 X-35.457 Y1.229 E30.28578
G1 X-36.592 Y1.151 E30.33119
G1 X-37.787 Y0.835 E30.38052
G1 X-38.775 Y0.386 E30.42384
G1 X-39.728 Y-.265 E30.4699
G1 X-40.548 Y-1.066 E30.51565
G1 X-40.982 Y-1.666 E30.54521
G1 X-41.376 Y-2.244 E30.57313
G1 X-42.999 Y-4.56 E30.686
G1 X-44.66 Y-6.794 E30.79711
G1 X-46.355 Y-8.943 E30.90635
G1 X-48.169 Y-11.113 E31.01924
G1 X-50.014 Y-13.198 E31.13036
G1 X-51.895 Y-15.207 E31.2402
G1 X-53.875 Y-17.205 E31.35247
G1 X-55.865 Y-19.102 E31.4622
G1 X-57.943 Y-20.975 E31.57385
G1 X-60.078 Y-22.791 E31.68572
G1 X-62.213 Y-24.505 E31.795
G1 X-64.468 Y-26.213 E31.9079
G1 X-66.577 Y-27.702 E32.01094
G1 X-67.655 Y-28.481 E32.06403
G1 X-68.457 Y-29.259 E32.10862
G1 X-69.094 Y-30.137 E32.15192
G1 X-69.603 Y-31.174 E32.19802
G1 X-69.938 Y-32.32 E32.24568
G1 X-70.046 Y-33.56 E32.29535
G1 X-69.957 Y-34.627 E32.33809
G1 X-69.653 Y-35.8 E32.38645
G1 X-69.204 Y-36.786 E32.42969
G1 X-68.558 Y-37.735 E32.47551
G1 X-67.75 Y-38.562 E32.52166
G1 X-66.87 Y-39.196 E32.56495
G1 X-65.933 Y-39.721 E32.60782
G1 X-63.53 Y-41.114 E32.71868
G1 X-61.148 Y-42.586 E32.83043
G1 X-58.829 Y-44.112 E32.94123
G1 X-56.558 Y-45.7 E33.05183
G1 X-54.299 Y-47.377 E33.16412
G1 X-52.135 Y-49.08 E33.27403
G1 X-50.003 Y-50.858 E33.38483
G1 X-47.89 Y-52.724 E33.49734
G1 X-45.869 Y-54.613 E33.60776
G1 X-43.897 Y-56.563 E33.71844
G1 X-41.964 Y-58.587 E33.83015
G1 X-40.104 Y-60.647 E33.94092
G1 X-38.294 Y-62.771 E34.0523
G1 X-36.564 Y-64.922 E34.16248
G1 X-34.86 Y-67.165 E34.2749
G1 X-33.24 Y-69.428 E34.38598
G1 X-31.705 Y-71.708 E34.49568
G1 X-30.209 Y-74.069 E34.60724
G1 X-28.776 Y-76.48 E34.71918
G1 X-27.753 Y-78.286 E34.80202
G1 X-27.195 Y-79.091 E34.84112
G1 X-26.405 Y-79.914 E34.88665
G1 X-25.409 Y-80.613 E34.93521
G1 X-24.439 Y-81.088 E34.97832
G1 X-23.242 Y-81.408 E35.02777
G1 X-22.089 Y-81.51 E35.07397
G1 X-21.008 Y-81.419 E35.11727
G1 X-19.914 Y-81.139 E35.16234
G1 X-18.867 Y-80.671 E35.20811
G1 X-17.965 Y-80.063 E35.25153
G1 X-17.093 Y-79.219 E35.29997
G1 X-16.661 Y-78.626 E35.32925
G1 X-14.868 Y-76.059 E35.45422
G1 X-13.211 Y-73.829 E35.56511
G1 X-11.488 Y-71.644 E35.67617
G1 X-9.72 Y-69.527 E35.78625
G1 X-7.853 Y-67.417 E35.8987
G1 X-5.965 Y-65.4 E36.00897
G1 X-3.987 Y-63.404 E36.12112
G1 X-2.003 Y-61.512 E36.23054
G1 X0.074 Y-59.64 E36.34214
G1 X2.208 Y-57.825 E36.45396
G1 X4.368 Y-56.088 E36.56458
G1 X6.563 Y-54.425 E36.67449
G1 X10.35 Y-51.752 E36.8595
G1 X11.164 Y-50.961 E36.9048
G1 X11.833 Y-50.037 E36.95033
G1 X12.346 Y-48.936 E36.99881
G1 X12.639 Y-47.886 E37.04232
G1 X12.753 Y-46.743 E37.08817
G1 X12.665 Y-45.587 E37.13444
G1 X12.384 Y-44.493 E37.17952
G1 X11.9 Y-43.421 E37.22646
G1 X11.255 Y-42.479 E37.27203
G1 X10.456 Y-41.662 E37.31764
G1 X9.843 Y-41.219 E37.34783
G1 X9.248 Y-40.826 E37.37629
G1 X7.364 Y-39.659 E37.46474
G1 X5.022 Y-38.113 E37.57674
G1 X2.751 Y-36.522 E37.68741
G1 X0.5 Y-34.848 E37.79937
G1 X-1.67 Y-33.136 E37.90969
G1 X-3.786 Y-31.368 E38.01975
G1 X-5.904 Y-29.493 E38.13265
G1 X-7.912 Y-27.612 E38.24246
G1 X-9.91 Y-25.632 E38.35473
G1 X-11.807 Y-23.642 E38.46446
G1 X-13.679 Y-21.563 E38.57612
G1 X-15.495 Y-19.428 E38.68799
G1 X-17.209 Y-17.293 E38.79726
G1 X-18.917 Y-15.038 E38.91017
G0 F3600 X-19.236 Y-15.28
G1 F1200 X-20.852 Y-13.018 E39.02112
G1 X-22.403 Y-10.712 E39.13204
G1 X-23.465 Y-9.004 E39.21231
G1 X-23.505 Y-8.956 E39.21481
G1 X-24.182 Y-7.884 E39.26541
G1 X-24.752 Y-7.039 E39.30609
G1 X-25.423 Y-6.345 E39.34462
G1 X-27.881 Y-4.158 E39.47594
G1 X-29.906 Y-2.245 E39.58712
G1 X-31.537 Y-.644 E39.67834
G1 X-32.359 Y-0.048 E39.71886
