;FLAVOR:Marlin
;TIME:1429
;Filament used: 0.915341m
;Layer height: 0.1
;MINX:-13.679
;MINY:-58.299
;MINZ:0.24
;MAXX:23.64
;MAXY:-20.98
;MAXZ:5.94
;Generated with Cura_SteamEngine 4.13.1
M140 S50
M105
M190 S50
M104 S210
M105
M109 S210
M82 ;absolute extrusion mode
;FLAVOR:Marlin
M82 ;absolute extrusion mode
G21
G90
M82
M107 T0
G28
G92 E0
G0 E3 F200
G92 E0 ; reset extrusion distance
M106 S255 ; Enable cooling fan full speed
G1 X-98 Y0 Z0.4 F3000 ; move to arc start
G3 X0 Y-98 I98 Z0.4 E40 F400 ; lay arc stripe 90deg
G92 E0 ; reset extrusion distance
G4 P500 ; wait for 0.5 sec
G0 Z10 E-1 ; Lift 15mm and retract 1mm filament
G4 P2000 ; wait for 5 sec
G0 Z15
M107 ; Disable cooling fan
G1 X0 Y-85 Z4 E0 F3000 ; get off the bed
G92 E0
G92 E0
G1 F1500 E-6
;LAYER_COUNT:59
;LAYER:0
M106 S102
G1 F600 Z1.24
G0 F3600 X-1.698 Y-20.998 Z1.24
;TYPE:SKIRT
G1 F600 Z0.24
G1 F3600 E0.71493
G1 F1200 X-1.919 Y-20.98 E0.72477
G1 X-2.595 Y-21.001 E0.75481
G1 X-2.815 Y-21.033 E0.76468
G1 X-3.445 Y-21.196 E0.79358
G1 X-3.651 Y-21.274 E0.80336
G1 X-4.247 Y-21.58 E0.83311
G1 X-4.434 Y-21.704 E0.84308
G1 X-4.945 Y-22.131 E0.87265
G1 X-5.096 Y-22.289 E0.88236
G1 X-5.496 Y-22.813 E0.91163
G1 X-5.61 Y-23.002 E0.92144
G1 X-5.887 Y-23.602 E0.95078
G1 X-5.957 Y-23.812 E0.96061
G1 X-6.096 Y-24.461 E0.99009
G1 X-6.118 Y-24.68 E0.99986
G1 X-6.111 Y-25.345 E1.0294
G1 X-6.084 Y-25.565 E1.03924
G1 X-5.93 Y-26.213 E1.06882
G1 X-5.725 Y-26.73 E1.09352
G1 X-3.604 Y-31.055 E1.30744
G1 X-7.942 Y-28.93 E1.52196
G1 X-8.431 Y-28.734 E1.54536
G1 X-9.092 Y-28.575 E1.57555
G1 X-9.312 Y-28.548 E1.58539
G1 X-9.974 Y-28.541 E1.6148
G1 X-10.195 Y-28.563 E1.62466
G1 X-10.847 Y-28.702 E1.65426
G1 X-11.057 Y-28.772 E1.66409
G1 X-11.657 Y-29.049 E1.69344
G1 X-11.846 Y-29.163 E1.70324
G1 X-12.37 Y-29.563 E1.73252
G1 X-12.528 Y-29.714 E1.74223
G1 X-12.951 Y-30.219 E1.77148
G1 X-13.075 Y-30.405 E1.78141
G1 X-13.39 Y-31.02 E1.81209
G1 X-13.468 Y-31.229 E1.822
G1 X-13.625 Y-31.844 E1.85019
G1 X-13.657 Y-32.063 E1.86002
G1 X-13.679 Y-32.741 E1.89014
G1 X-13.661 Y-32.962 E1.89999
G1 X-13.531 Y-33.623 E1.92991
G1 X-13.318 Y-34.236 E1.95873
G1 X-13.269 Y-34.616 E1.97574
G1 X-13.268 Y-37.896 E2.12141
G1 X-13.166 Y-38.67 E2.15608
G1 X-12.936 Y-39.374 E2.18897
G1 X-12.789 Y-39.64 E2.20246
G1 X-12.893 Y-39.814 E2.21147
G1 X-13.101 Y-40.368 E2.23775
G1 X-13.255 Y-41.096 E2.27079
G1 X-13.269 Y-41.389 E2.28382
G1 X-13.269 Y-44.685 E2.43019
G1 X-13.323 Y-45.059 E2.44697
G1 X-13.531 Y-45.657 E2.47509
G1 X-13.661 Y-46.317 E2.50496
G1 X-13.679 Y-46.537 E2.51477
G1 X-13.657 Y-47.216 E2.54494
G1 X-13.625 Y-47.435 E2.55476
G1 X-13.468 Y-48.05 E2.58295
G1 X-13.39 Y-48.259 E2.59286
G1 X-13.075 Y-48.874 E2.62355
G1 X-12.951 Y-49.06 E2.63347
G1 X-12.528 Y-49.565 E2.66273
G1 X-12.37 Y-49.716 E2.67243
G1 X-11.846 Y-50.116 E2.70171
G1 X-11.657 Y-50.23 E2.71151
G1 X-11.057 Y-50.507 E2.74086
G1 X-10.847 Y-50.577 E2.75069
G1 X-10.195 Y-50.716 E2.7803
G1 X-9.974 Y-50.738 E2.79016
G1 X-9.312 Y-50.731 E2.81956
G1 X-9.092 Y-50.704 E2.8294
G1 X-8.432 Y-50.545 E2.85955
G1 X-7.928 Y-50.344 E2.88365
G1 X-3.603 Y-48.224 E3.09755
G1 X-5.731 Y-52.566 E3.31229
G1 X-5.931 Y-53.069 E3.33633
G1 X-6.083 Y-53.707 E3.36546
G1 X-6.11 Y-53.923 E3.37512
G1 X-6.119 Y-54.588 E3.40466
G1 X-6.097 Y-54.812 E3.41465
G1 X-5.953 Y-55.48 E3.445
G1 X-5.882 Y-55.69 E3.45485
G1 X-5.611 Y-56.274 E3.48344
G1 X-5.498 Y-56.462 E3.49318
G1 X-5.096 Y-56.99 E3.52265
G1 X-4.945 Y-57.148 E3.53235
G1 X-4.434 Y-57.575 E3.56193
G1 X-4.247 Y-57.699 E3.57189
G1 X-3.651 Y-58.005 E3.60165
G1 X-3.445 Y-58.083 E3.61143
G1 X-2.815 Y-58.246 E3.64033
G1 X-2.595 Y-58.278 E3.6502
G1 X-1.919 Y-58.299 E3.68023
G1 X-1.698 Y-58.281 E3.69008
G1 X-1.042 Y-58.153 E3.71976
G1 X-.426 Y-57.939 E3.74872
G1 X-0.054 Y-57.89 E3.76539
G1 X3.237 Y-57.889 E3.91154
G1 X3.725 Y-57.849 E3.93328
G1 X4.279 Y-57.713 E3.95862
G1 X4.739 Y-57.545 E3.98036
G1 X4.981 Y-57.409 E3.99269
G1 X5.143 Y-57.507 E4.0011
G1 X5.693 Y-57.716 E4.02723
G1 X6.428 Y-57.874 E4.06062
G1 X6.733 Y-57.89 E4.07418
G1 X10.024 Y-57.89 E4.22033
G1 X10.394 Y-57.942 E4.23692
G1 X11.006 Y-58.154 E4.26569
G1 X11.661 Y-58.281 E4.29532
G1 X11.883 Y-58.299 E4.30521
G1 X12.559 Y-58.277 E4.33525
G1 X12.778 Y-58.245 E4.34507
G1 X13.402 Y-58.084 E4.37369
G1 X13.609 Y-58.006 E4.38352
G1 X14.215 Y-57.695 E4.41377
G1 X14.401 Y-57.571 E4.42369
G1 X14.899 Y-57.155 E4.45251
G1 X15.051 Y-56.997 E4.46225
G1 X15.46 Y-56.462 E4.49215
G1 X15.573 Y-56.274 E4.5019
G1 X15.848 Y-55.678 E4.53104
G1 X15.918 Y-55.468 E4.54088
G1 X16.057 Y-54.818 E4.57039
G1 X16.079 Y-54.598 E4.58021
G1 X16.073 Y-53.947 E4.60912
G1 X16.047 Y-53.727 E4.61896
G1 X15.887 Y-53.054 E4.64968
G1 X15.686 Y-52.55 E4.67378
G1 X13.566 Y-48.224 E4.88772
G1 X17.903 Y-50.349 E5.1022
G1 X18.397 Y-50.547 E5.12584
G1 X19.052 Y-50.703 E5.15574
G1 X19.271 Y-50.73 E5.16554
G1 X19.934 Y-50.738 E5.19499
G1 X20.156 Y-50.716 E5.20489
G1 X20.813 Y-50.576 E5.23473
G1 X21.022 Y-50.506 E5.24451
G1 X21.618 Y-50.23 E5.27368
G1 X21.807 Y-50.116 E5.28348
G1 X22.331 Y-49.716 E5.31276
G1 X22.489 Y-49.565 E5.32247
G1 X22.914 Y-49.057 E5.35188
G1 X23.039 Y-48.869 E5.36191
G1 X23.348 Y-48.266 E5.392
G1 X23.426 Y-48.059 E5.40182
G1 X23.589 Y-47.421 E5.43106
G1 X23.62 Y-47.202 E5.44089
G1 X23.64 Y-46.537 E5.47043
G1 X23.622 Y-46.317 E5.48023
G1 X23.497 Y-45.671 E5.50945
G1 X23.28 Y-45.045 E5.53888
G1 X23.231 Y-44.674 E5.5555
G1 X23.23 Y-41.383 E5.70165
G1 X23.127 Y-40.606 E5.73646
G1 X22.897 Y-39.903 E5.7693
G1 X22.751 Y-39.64 E5.78266
G1 X22.859 Y-39.459 E5.79202
G1 X23.063 Y-38.912 E5.81795
G1 X23.217 Y-38.184 E5.851
G1 X23.231 Y-37.891 E5.86402
G1 X23.231 Y-34.608 E6.00982
G1 X23.283 Y-34.226 E6.02694
G1 X23.496 Y-33.61 E6.05589
G1 X23.622 Y-32.962 E6.0852
G1 X23.64 Y-32.741 E6.09505
G1 X23.62 Y-32.077 E6.12455
G1 X23.589 Y-31.858 E6.13437
G1 X23.426 Y-31.22 E6.16362
G1 X23.348 Y-31.013 E6.17344
G1 X23.039 Y-30.41 E6.20353
G1 X22.914 Y-30.222 E6.21356
G1 X22.489 Y-29.714 E6.24297
G1 X22.331 Y-29.563 E6.25268
G1 X21.807 Y-29.163 E6.28195
G1 X21.618 Y-29.049 E6.29175
G1 X21.022 Y-28.773 E6.32092
G1 X20.813 Y-28.703 E6.33071
G1 X20.156 Y-28.563 E6.36054
G1 X19.934 Y-28.541 E6.37045
G1 X19.271 Y-28.549 E6.39989
G1 X19.052 Y-28.576 E6.40969
G1 X18.398 Y-28.732 E6.43955
G1 X17.888 Y-28.935 E6.46393
G1 X13.565 Y-31.054 E6.67773
G1 X15.69 Y-26.717 E6.89222
G1 X15.886 Y-26.23 E6.91553
G1 X16.046 Y-25.559 E6.94616
G1 X16.072 Y-25.343 E6.95582
G1 X16.08 Y-24.689 E6.98487
G1 X16.058 Y-24.466 E6.99482
G1 X15.918 Y-23.812 E7.02452
G1 X15.848 Y-23.602 E7.03435
G1 X15.577 Y-23.012 E7.06319
G1 X15.464 Y-22.823 E7.07297
G1 X15.051 Y-22.282 E7.10319
G1 X14.899 Y-22.124 E7.11293
G1 X14.401 Y-21.708 E7.14175
G1 X14.215 Y-21.584 E7.15167
G1 X13.609 Y-21.273 E7.18192
G1 X13.402 Y-21.195 E7.19175
G1 X12.778 Y-21.034 E7.22037
G1 X12.559 Y-21.002 E7.23019
G1 X11.883 Y-20.98 E7.26023
G1 X11.661 Y-20.998 E7.27012
G1 X11.003 Y-21.126 E7.29989
G1 X10.387 Y-21.34 E7.32885
G1 X10.004 Y-21.39 E7.34601
G1 X6.724 Y-21.391 E7.49167
G1 X6.236 Y-21.431 E7.51341
G1 X5.696 Y-21.562 E7.53809
G1 X5.235 Y-21.728 E7.55985
G1 X4.98 Y-21.87 E7.57281
G1 X4.808 Y-21.767 E7.58171
G1 X4.254 Y-21.558 E7.60801
G1 X3.521 Y-21.404 E7.64127
G1 X3.229 Y-21.39 E7.65425
G1 X-0.051 Y-21.39 E7.79992
G1 X-.433 Y-21.337 E7.81704
G1 X-1.045 Y-21.125 E7.84581
G0 F1080 X-1.698 Y-20.998
G0 F3600 X-1.731 Y-21.397
G1 F1200 X-1.952 Y-21.379 E7.85565
G1 X-2.537 Y-21.397 E7.88165
G1 X-2.757 Y-21.429 E7.89152
G1 X-3.304 Y-21.57 E7.91661
G1 X-3.51 Y-21.648 E7.92639
G1 X-4.026 Y-21.913 E7.95215
G1 X-4.213 Y-22.037 E7.96211
G1 X-4.656 Y-22.408 E7.98777
G1 X-4.807 Y-22.566 E7.99748
G1 X-5.153 Y-23.019 E8.02279
G1 X-5.267 Y-23.208 E8.0326
G1 X-5.508 Y-23.729 E8.05809
G1 X-5.578 Y-23.939 E8.06792
G1 X-5.698 Y-24.501 E8.09344
G1 X-5.72 Y-24.72 E8.10321
G1 X-5.714 Y-25.297 E8.12884
G1 X-5.687 Y-25.517 E8.13868
G1 X-5.553 Y-26.078 E8.1643
G1 X-5.365 Y-26.554 E8.18703
G1 X-2.729 Y-31.929 E8.45289
G1 X-8.118 Y-29.289 E8.71938
G1 X-8.567 Y-29.11 E8.74085
G1 X-9.14 Y-28.972 E8.76702
G1 X-9.36 Y-28.945 E8.77687
G1 X-9.935 Y-28.939 E8.8024
G1 X-10.156 Y-28.961 E8.81227
G1 X-10.72 Y-29.081 E8.83788
G1 X-10.93 Y-29.151 E8.84771
G1 X-11.451 Y-29.392 E8.8732
G1 X-11.64 Y-29.506 E8.883
G1 X-12.093 Y-29.852 E8.90832
G1 X-12.251 Y-30.003 E8.91802
G1 X-12.618 Y-30.441 E8.9434
G1 X-12.742 Y-30.627 E8.95333
G1 X-13.015 Y-31.16 E8.97992
G1 X-13.093 Y-31.369 E8.98983
G1 X-13.23 Y-31.902 E9.01427
G1 X-13.262 Y-32.121 E9.0241
G1 X-13.28 Y-32.708 E9.05018
G1 X-13.262 Y-32.929 E9.06002
G1 X-13.15 Y-33.503 E9.08599
G1 X-12.939 Y-34.106 E9.11437
G1 X-12.869 Y-34.595 E9.1363
G1 X-12.868 Y-37.896 E9.2829
G1 X-12.78 Y-38.567 E9.31295
G1 X-12.559 Y-39.238 E9.34433
G1 X-12.334 Y-39.653 E9.36529
G1 X-12.561 Y-40.048 E9.38552
G1 X-12.781 Y-40.718 E9.41684
G1 X-12.869 Y-41.389 E9.44689
G1 X-12.869 Y-44.685 E9.59327
G1 X-12.939 Y-45.174 E9.61521
G1 X-13.15 Y-45.777 E9.64358
G1 X-13.262 Y-46.35 E9.6695
G1 X-13.28 Y-46.57 E9.67931
G1 X-13.262 Y-47.158 E9.70543
G1 X-13.23 Y-47.377 E9.71526
G1 X-13.093 Y-47.91 E9.7397
G1 X-13.015 Y-48.119 E9.74961
G1 X-12.742 Y-48.652 E9.7762
G1 X-12.618 Y-48.838 E9.78613
G1 X-12.251 Y-49.276 E9.81151
G1 X-12.093 Y-49.427 E9.82121
G1 X-11.64 Y-49.773 E9.84653
G1 X-11.451 Y-49.887 E9.85633
G1 X-10.93 Y-50.128 E9.88182
G1 X-10.72 Y-50.198 E9.89165
G1 X-10.156 Y-50.318 E9.91726
G1 X-9.935 Y-50.34 E9.92712
G1 X-9.36 Y-50.334 E9.95266
G1 X-9.14 Y-50.307 E9.9625
G1 X-8.568 Y-50.169 E9.98863
G1 X-8.104 Y-49.985 E10.0108
G1 X-2.73 Y-47.351 E10.27658
G1 X-5.372 Y-52.742 E10.5432
G1 X-5.554 Y-53.204 E10.56525
G1 X-5.686 Y-53.757 E10.5905
G1 X-5.713 Y-53.973 E10.60017
G1 X-5.721 Y-54.549 E10.62575
G1 X-5.699 Y-54.773 E10.63574
G1 X-5.574 Y-55.352 E10.66205
G1 X-5.503 Y-55.562 E10.67189
G1 X-5.268 Y-56.068 E10.69667
G1 X-5.155 Y-56.256 E10.70641
G1 X-4.807 Y-56.713 E10.73192
G1 X-4.656 Y-56.871 E10.74163
G1 X-4.213 Y-57.242 E10.76729
G1 X-4.026 Y-57.366 E10.77725
G1 X-3.51 Y-57.631 E10.80301
G1 X-3.304 Y-57.709 E10.81279
G1 X-2.757 Y-57.85 E10.83788
G1 X-2.537 Y-57.882 E10.84775
G1 X-1.952 Y-57.9 E10.87375
G1 X-1.731 Y-57.882 E10.88359
G1 X-1.162 Y-57.771 E10.90934
G1 X-.556 Y-57.56 E10.93783
G1 X-0.055 Y-57.49 E10.9603
G1 X3.237 Y-57.489 E11.1065
G1 X3.926 Y-57.396 E11.13737
G1 X4.6 Y-57.169 E11.16896
G1 X4.984 Y-56.948 E11.18863
G1 X5.378 Y-57.176 E11.20885
G1 X6.051 Y-57.399 E11.24033
G1 X6.733 Y-57.49 E11.27089
G1 X10.028 Y-57.49 E11.41722
G1 X10.516 Y-57.56 E11.43911
G1 X11.125 Y-57.772 E11.46775
G1 X11.693 Y-57.882 E11.49344
G1 X11.915 Y-57.9 E11.50333
G1 X12.501 Y-57.882 E11.52937
G1 X12.72 Y-57.85 E11.5392
G1 X13.261 Y-57.71 E11.56402
G1 X13.468 Y-57.632 E11.57384
G1 X13.993 Y-57.362 E11.60006
G1 X14.179 Y-57.238 E11.60998
G1 X14.611 Y-56.878 E11.63496
G1 X14.763 Y-56.72 E11.64469
G1 X15.117 Y-56.256 E11.67061
G1 X15.23 Y-56.068 E11.68035
G1 X15.469 Y-55.551 E11.70565
G1 X15.539 Y-55.341 E11.71548
G1 X15.659 Y-54.778 E11.74104
G1 X15.681 Y-54.558 E11.75086
G1 X15.676 Y-53.994 E11.77591
G1 X15.65 Y-53.774 E11.78575
G1 X15.511 Y-53.19 E11.81241
G1 X15.327 Y-52.726 E11.83457
G1 X12.692 Y-47.35 E12.10045
G1 X18.079 Y-49.99 E12.36687
G1 X18.533 Y-50.171 E12.38858
G1 X19.101 Y-50.306 E12.4145
G1 X19.32 Y-50.333 E12.4243
G1 X19.894 Y-50.34 E12.4498
G1 X20.116 Y-50.318 E12.4597
G1 X20.686 Y-50.196 E12.48559
G1 X20.895 Y-50.126 E12.49538
G1 X21.412 Y-49.887 E12.52067
G1 X21.601 Y-49.773 E12.53048
G1 X22.054 Y-49.427 E12.55579
G1 X22.212 Y-49.276 E12.5655
G1 X22.581 Y-48.836 E12.591
G1 X22.706 Y-48.648 E12.60102
G1 X22.974 Y-48.125 E12.62712
G1 X23.052 Y-47.918 E12.63694
G1 X23.193 Y-47.365 E12.66229
G1 X23.224 Y-47.146 E12.67211
G1 X23.241 Y-46.57 E12.6977
G1 X23.223 Y-46.35 E12.70751
G1 X23.115 Y-45.79 E12.73283
G1 X22.903 Y-45.18 E12.76151
G1 X22.831 Y-44.685 E12.78373
G1 X22.83 Y-41.383 E12.93037
G1 X22.741 Y-40.71 E12.96051
G1 X22.52 Y-40.04 E12.99185
G1 X22.3 Y-39.621 E13.01286
G1 X22.526 Y-39.226 E13.03307
G1 X22.743 Y-38.562 E13.06409
G1 X22.831 Y-37.891 E13.09415
G1 X22.831 Y-34.594 E13.24057
G1 X22.901 Y-34.105 E13.2625
G1 X23.114 Y-33.491 E13.29137
G1 X23.223 Y-32.929 E13.31679
G1 X23.241 Y-32.708 E13.32664
G1 X23.224 Y-32.133 E13.35218
G1 X23.193 Y-31.914 E13.362
G1 X23.052 Y-31.361 E13.38735
G1 X22.974 Y-31.154 E13.39717
G1 X22.706 Y-30.631 E13.42327
G1 X22.581 Y-30.443 E13.4333
G1 X22.212 Y-30.003 E13.4588
G1 X22.054 Y-29.852 E13.4685
G1 X21.601 Y-29.506 E13.49382
G1 X21.412 Y-29.392 E13.50362
G1 X20.895 Y-29.153 E13.52892
G1 X20.686 Y-29.083 E13.5387
G1 X20.116 Y-28.961 E13.56459
G1 X19.894 Y-28.939 E13.5745
G1 X19.32 Y-28.946 E13.59999
G1 X19.101 Y-28.973 E13.60979
G1 X18.534 Y-29.108 E13.63567
G1 X18.064 Y-29.294 E13.65812
G1 X12.692 Y-31.928 E13.92382
G1 X15.331 Y-26.541 E14.19022
G1 X15.51 Y-26.093 E14.21165
G1 X15.649 Y-25.511 E14.23822
G1 X15.675 Y-25.295 E14.24788
G1 X15.681 Y-24.729 E14.27302
G1 X15.659 Y-24.506 E14.28297
G1 X15.539 Y-23.939 E14.30871
G1 X15.469 Y-23.729 E14.31854
G1 X15.234 Y-23.217 E14.34356
G1 X15.121 Y-23.028 E14.35334
G1 X14.763 Y-22.559 E14.37954
G1 X14.611 Y-22.401 E14.38927
G1 X14.179 Y-22.041 E14.41425
G1 X13.993 Y-21.917 E14.42418
G1 X13.468 Y-21.647 E14.45039
G1 X13.261 Y-21.569 E14.46022
G1 X12.72 Y-21.429 E14.48503
G1 X12.501 Y-21.397 E14.49486
G1 X11.915 Y-21.379 E14.5209
G1 X11.693 Y-21.397 E14.53079
G1 X11.123 Y-21.508 E14.55658
G1 X10.517 Y-21.719 E14.58508
G1 X10.026 Y-21.79 E14.60711
G1 X6.724 Y-21.791 E14.75375
G1 X6.044 Y-21.882 E14.78421
G1 X5.373 Y-22.105 E14.81562
G1 X4.969 Y-22.326 E14.83607
G1 X4.574 Y-22.099 E14.8563
G1 X3.9 Y-21.878 E14.8878
G1 X3.229 Y-21.79 E14.91785
G1 X-0.057 Y-21.79 E15.06378
G1 X-.555 Y-21.719 E15.08612
G1 X-1.081 Y-21.535 E15.11087
G0 F1080 X-1.164 Y-21.507
G0 X-1.731 Y-21.397
G0 F3600 X-1.763 Y-21.795
G1 F1200 X-2.48 Y-21.793 E15.14271
G1 X-3.162 Y-21.945 E15.17374
G1 X-3.805 Y-22.246 E15.20527
G1 X-4.366 Y-22.684 E15.23688
G1 X-4.811 Y-23.226 E15.26802
G1 X-5.128 Y-23.855 E15.2993
G1 X-5.3 Y-24.541 E15.33071
G1 X-5.317 Y-25.248 E15.36212
G1 X-5.177 Y-25.943 E15.3936
G1 X-5.006 Y-26.378 E15.41436
G1 X-1.875 Y-32.765 E15.73025
G1 X-1.862 Y-32.796 E15.73174
G1 X-1.903 Y-32.779 E15.73371
G1 X-8.294 Y-29.648 E16.04976
G1 X-8.704 Y-29.486 E16.06934
G1 X-9.409 Y-29.342 E16.1013
G1 X-10.116 Y-29.359 E16.1327
G1 X-10.804 Y-29.531 E16.1642
G1 X-11.433 Y-29.848 E16.19548
G1 X-11.975 Y-30.293 E16.22662
G1 X-12.41 Y-30.849 E16.25797
G1 X-12.64 Y-31.3 E16.28045
G1 X-12.834 Y-31.96 E16.311
G1 X-12.882 Y-32.676 E16.34287
G1 X-12.768 Y-33.382 E16.37463
G1 X-12.557 Y-33.985 E16.403
G1 X-12.481 Y-34.365 E16.42021
G1 X-12.469 Y-34.594 E16.4304
G1 X-12.468 Y-37.896 E16.57704
G1 X-12.393 Y-38.463 E16.60244
G1 X-12.182 Y-39.099 E16.63219
G1 X-11.964 Y-39.457 E16.65081
G1 X-11.804 Y-39.641 E16.66164
G1 X-12.025 Y-39.91 E16.6771
G1 X-12.226 Y-40.277 E16.69568
G1 X-12.394 Y-40.821 E16.72097
G1 X-12.469 Y-41.389 E16.74641
G1 X-12.469 Y-44.688 E16.89292
G1 X-12.51 Y-45.115 E16.91197
G1 X-12.705 Y-45.699 E16.93931
G1 X-12.864 Y-46.383 E16.97049
G1 X-12.866 Y-47.1 E17.00234
G1 X-12.718 Y-47.77 E17.03281
G1 X-12.64 Y-47.979 E17.04272
G1 X-12.41 Y-48.43 E17.0652
G1 X-11.975 Y-48.986 E17.09655
G1 X-11.433 Y-49.431 E17.12769
G1 X-10.804 Y-49.748 E17.15897
G1 X-10.116 Y-49.92 E17.19047
G1 X-9.409 Y-49.937 E17.22187
G1 X-8.705 Y-49.794 E17.25378
G1 X-8.28 Y-49.625 E17.27409
G1 X-1.902 Y-46.499 E17.58952
G1 X-1.861 Y-46.482 E17.59149
G1 X-1.877 Y-46.521 E17.59337
G1 X-5.012 Y-52.918 E17.90973
G1 X-5.178 Y-53.338 E17.92979
G1 X-5.316 Y-54.022 E17.96078
