;FLAVOR:Marlin
;TIME:5518
;Filament used: 4.88395m
;Layer height: 0.24
;MINX:-28
;MINY:-61.858
;MINZ:0.3
;MAXX:38
;MAXY:77.962
;MAXZ:35
;Generated with Cura_SteamEngine 4.13.1
M140 S50
M105
M190 S50
M104 S210
M105
M109 S210
M82 ;absolute extrusion mode
;FLAVOR:Marlin
M82 ;absolute extrusion mode
G21
G90
M82
M107 T0
G28
G92 E0
G0 E3 F200
G92 E0 ; reset extrusion distance
M106 S255 ; Enable cooling fan full speed
G1 X-98 Y0 Z0.4 F3000 ; move to arc start
G3 X0 Y-98 I98 Z0.4 E40 F400 ; lay arc stripe 90deg
G92 E0 ; reset extrusion distance
G4 P500 ; wait for 0.5 sec
G0 Z10 E-1 ; Lift 15mm and retract 1mm filament
G4 P2000 ; wait for 5 sec
G0 Z15
M107 ; Disable cooling fan
G1 X0 Y-85 Z4 E0 F3000 ; get off the bed
G92 E0
G92 E0
G1 F1500 E-6.5
;LAYER_COUNT:125
;LAYER:0
M106 S25.5
G1 F600 Z1.3
G0 F3600 X-.915 Y-17.675 Z1.3
;TYPE:SKIRT
G1 F600 Z0.3
G1 F1500 E0.3326
G1 F1200 X-.353 Y-18.128 E0.36861
G1 X0.064 Y-18.384 E0.39303
G1 X0.518 Y-18.568 E0.41747
G1 X0.995 Y-18.675 E0.44185
G1 X1.415 Y-18.705 E0.46286
G1 X3.386 Y-18.705 E0.5612
G1 X3.874 Y-18.665 E0.58562
G1 X4.349 Y-18.546 E0.61005
G1 X4.811 Y-18.344 E0.63521
G1 X5.091 Y-18.543 E0.65235
G1 X5.531 Y-18.758 E0.67678
G1 X6 Y-18.898 E0.7012
G1 X6.622 Y-18.963 E0.7324
G1 X8.578 Y-18.963 E0.82998
G1 X9.066 Y-18.923 E0.85441
G1 X9.541 Y-18.804 E0.87884
G1 X9.99 Y-18.61 E0.90325
G1 X10.697 Y-18.132 E0.94582
G1 X11.115 Y-17.756 E0.97387
G1 X11.569 Y-17.878 E0.99733
G1 X10.906 Y-19.915 E1.1042
G1 X10.793 Y-20.392 E1.12866
G1 X10.759 Y-20.88 E1.15306
G1 X10.805 Y-21.367 E1.17747
G1 X10.906 Y-21.773 E1.19834
G1 X11.768 Y-24.421 E1.33727
G1 X11.957 Y-24.872 E1.36167
G1 X12.217 Y-25.287 E1.3861
G1 X12.541 Y-25.654 E1.41052
G1 X12.857 Y-25.919 E1.4311
G1 X15.111 Y-27.557 E1.57011
G1 X15.53 Y-27.811 E1.59455
G1 X15.983 Y-27.994 E1.61893
G1 X16.461 Y-28.101 E1.64337
G1 X16.875 Y-28.13 E1.66407
G1 X19.659 Y-28.13 E1.80297
G1 X20.147 Y-28.09 E1.82739
G1 X20.622 Y-27.971 E1.85182
G1 X21.071 Y-27.777 E1.87623
G1 X21.423 Y-27.557 E1.89694
G1 X23.677 Y-25.919 E2.03595
G1 X24.048 Y-25.6 E2.06036
G1 X24.362 Y-25.225 E2.08476
G1 X24.611 Y-24.803 E2.1092
G1 X24.766 Y-24.421 E2.12977
G1 X25.628 Y-21.773 E2.2687
G1 X25.741 Y-21.296 E2.29316
G1 X25.775 Y-20.808 E2.31757
G1 X25.729 Y-20.321 E2.34197
G1 X25.628 Y-19.915 E2.36284
G1 X24.766 Y-17.267 E2.50178
G1 X24.577 Y-16.816 E2.52617
G1 X24.34 Y-16.437 E2.54847
G1 X28 Y-16.437 E2.73107
G1 X28 Y-36.051 E3.70962
G1 X-18 Y-36.051 E6.00457
G1 X-18 Y-16.437 E6.98311
G1 X-15.172 Y-16.437 E7.1242
G1 X-15.318 Y-16.684 E7.13852
G1 X-15.472 Y-17.065 E7.15902
G1 X-16.334 Y-19.713 E7.29795
G1 X-16.447 Y-20.19 E7.32241
G1 X-16.481 Y-20.678 E7.34681
G1 X-16.435 Y-21.165 E7.37122
G1 X-16.334 Y-21.571 E7.39209
G1 X-15.472 Y-24.219 E7.53102
G1 X-15.283 Y-24.67 E7.55542
G1 X-15.023 Y-25.085 E7.57985
G1 X-14.699 Y-25.452 E7.60428
G1 X-14.383 Y-25.717 E7.62485
G1 X-12.129 Y-27.355 E7.76386
G1 X-11.71 Y-27.609 E7.78831
G1 X-11.257 Y-27.792 E7.81268
G1 X-10.779 Y-27.899 E7.83712
G1 X-10.378 Y-27.928 E7.85718
G1 X-7.194 Y-27.942 E8.01603
G1 X-6.706 Y-27.904 E8.04045
G1 X-6.231 Y-27.788 E8.06484
G1 X-5.553 Y-27.462 E8.10238
G1 X-2.811 Y-25.69 E8.26525
G1 X-2.423 Y-25.391 E8.28969
G1 X-2.088 Y-25.034 E8.31412
G1 X-1.816 Y-24.627 E8.33854
G1 X-1.586 Y-24.099 E8.36727
G1 X-.724 Y-21.451 E8.50621
G1 X-.611 Y-20.974 E8.53066
G1 X-.577 Y-20.486 E8.55507
G1 X-.623 Y-19.999 E8.57947
G1 X-.724 Y-19.595 E8.60025
G1 X-1.302 Y-17.815 E8.69362
G1 X-.915 Y-17.675 E8.71415
G0 F3600 X-1.223 Y-17.379
G1 F1200 X-.831 Y-17.194 E8.73577
G1 X-.414 Y-17.589 E8.76443
G1 X0.273 Y-18.041 E8.80546
G1 X0.698 Y-18.204 E8.82817
G1 X1.415 Y-18.305 E8.86429
G1 X3.386 Y-18.305 E8.96263
G1 X3.84 Y-18.265 E8.98536
G1 X4.28 Y-18.147 E9.00809
G1 X4.836 Y-17.859 E9.03933
G1 X5.322 Y-18.215 E9.06939
G1 X5.736 Y-18.407 E9.09215
G1 X6.176 Y-18.524 E9.11487
G1 X6.622 Y-18.563 E9.1372
G1 X8.578 Y-18.563 E9.23479
G1 X9.032 Y-18.523 E9.25753
G1 X9.472 Y-18.405 E9.28025
G1 X10.107 Y-18.066 E9.31617
G1 X10.805 Y-17.509 E9.36072
G1 X10.992 Y-17.277 E9.37559
G1 X11.451 Y-17.45 E9.40006
G1 X12.102 Y-17.535 E9.43281
G1 X11.287 Y-20.039 E9.56419
G1 X11.184 Y-20.483 E9.58693
G1 X11.161 Y-20.938 E9.60966
G1 X11.287 Y-21.649 E9.64568
G1 X12.149 Y-24.297 E9.78461
G1 X12.327 Y-24.716 E9.80733
G1 X12.576 Y-25.098 E9.83007
G1 X13.093 Y-25.595 E9.86585
G1 X15.347 Y-27.233 E10.00486
G1 X15.737 Y-27.468 E10.02758
G1 X16.163 Y-27.631 E10.05034
G1 X16.875 Y-27.73 E10.0862
G1 X19.659 Y-27.73 E10.22509
G1 X20.113 Y-27.69 E10.24783
G1 X20.553 Y-27.572 E10.27056
G1 X21.187 Y-27.233 E10.30643
G1 X23.441 Y-25.595 E10.44544
G1 X23.785 Y-25.296 E10.46818
G1 X24.071 Y-24.942 E10.49088
G1 X24.385 Y-24.297 E10.52667
G1 X25.247 Y-21.649 E10.6656
G1 X25.35 Y-21.205 E10.68834
G1 X25.373 Y-20.75 E10.71107
G1 X25.247 Y-20.039 E10.7471
G1 X24.385 Y-17.391 E10.88603
G1 X24.207 Y-16.972 E10.90874
G1 X23.958 Y-16.59 E10.93149
G1 X23.442 Y-16.093 E10.96723
G1 X23.365 Y-16.037 E10.97198
G1 X28.4 Y-16.037 E11.22318
G1 X28.4 Y-36.451 E12.24164
G1 X-18.4 Y-36.451 E14.5765
G1 X-18.4 Y-16.037 E15.59496
G1 X-14.316 Y-16.037 E15.79871
G1 X-14.492 Y-16.19 E15.81035
G1 X-14.778 Y-16.545 E15.83309
G1 X-15.091 Y-17.189 E15.86881
G1 X-15.953 Y-19.837 E16.00774
G1 X-16.056 Y-20.281 E16.03048
G1 X-16.079 Y-20.736 E16.05321
G1 X-15.953 Y-21.447 E16.08924
G1 X-15.091 Y-24.095 E16.22817
G1 X-14.913 Y-24.514 E16.25088
G1 X-14.664 Y-24.896 E16.27363
G1 X-14.147 Y-25.393 E16.30941
G1 X-11.893 Y-27.031 E16.44842
G1 X-11.503 Y-27.266 E16.47114
G1 X-11.077 Y-27.429 E16.49389
G1 X-10.376 Y-27.528 E16.52921
G1 X-7.192 Y-27.542 E16.68806
G1 X-6.738 Y-27.504 E16.71079
G1 X-6.298 Y-27.387 E16.73351
G1 X-5.77 Y-27.126 E16.76289
G1 X-3.028 Y-25.354 E16.92577
G1 X-2.668 Y-25.074 E16.94853
G1 X-2.363 Y-24.735 E16.97128
G1 X-2.122 Y-24.349 E16.99398
G1 X-1.967 Y-23.975 E17.01418
G1 X-1.105 Y-21.327 E17.15311
G1 X-1.002 Y-20.883 E17.17585
G1 X-.979 Y-20.428 E17.19858
G1 X-1.104 Y-19.718 E17.23454
G1 X-1.821 Y-17.511 E17.35032
G1 X-1.223 Y-17.379 E17.38087
G0 F3600 X-1.298 Y-16.979
G1 F1200 X-.926 Y-16.786 E17.40178
G1 X-.748 Y-16.643 E17.41317
G1 X-.542 Y-16.932 E17.43088
G1 X0.118 Y-17.482 E17.47374
G1 X0.479 Y-17.696 E17.49467
G1 X0.873 Y-17.837 E17.51555
G1 X1.415 Y-17.905 E17.5428
G1 X3.386 Y-17.905 E17.64114
G1 X3.803 Y-17.865 E17.66204
G1 X4.205 Y-17.747 E17.68294
G1 X4.68 Y-17.484 E17.71003
G1 X4.859 Y-17.354 E17.72107
G1 X5.552 Y-17.885 E17.76462
G1 X5.936 Y-18.053 E17.78553
G1 X6.344 Y-18.145 E17.8064
G1 X6.622 Y-18.163 E17.8203
G1 X8.578 Y-18.163 E17.91788
G1 X8.995 Y-18.123 E17.93878
G1 X9.397 Y-18.005 E17.95968
G1 X9.871 Y-17.743 E17.9867
G1 X10.54 Y-17.207 E18.02947
G1 X10.863 Y-16.741 E18.05776
G1 X11.252 Y-16.96 E18.08003
G1 X11.652 Y-17.087 E18.10097
G1 X12.118 Y-17.137 E18.12435
G1 X12.706 Y-17.137 E18.15369
G1 X12.529 Y-17.515 E18.17451
G1 X11.667 Y-20.163 E18.31344
G1 X11.576 Y-20.572 E18.33435
G1 X11.564 Y-20.991 E18.35526
G1 X11.667 Y-21.525 E18.38239
G1 X12.529 Y-24.173 E18.52132
G1 X12.696 Y-24.557 E18.54222
G1 X12.933 Y-24.903 E18.56314
G1 X13.328 Y-25.272 E18.59011
G1 X15.582 Y-26.91 E18.72912
G1 X15.943 Y-27.123 E18.75003
G1 X16.337 Y-27.263 E18.77089
G1 X16.875 Y-27.33 E18.79794
G1 X19.659 Y-27.33 E18.93683
G1 X20.076 Y-27.29 E18.95773
G1 X20.478 Y-27.172 E18.97863
G1 X20.952 Y-26.91 E19.00565
G1 X23.206 Y-25.272 E19.14466
G1 X23.52 Y-24.994 E19.16559
G1 X23.776 Y-24.662 E19.1865
G1 X24.005 Y-24.173 E19.21344
G1 X24.867 Y-21.525 E19.35237
G1 X24.958 Y-21.116 E19.37328
G1 X24.97 Y-20.697 E19.39419
G1 X24.867 Y-20.163 E19.42132
G1 X24.005 Y-17.515 E19.56026
G1 X23.838 Y-17.131 E19.58115
G1 X23.601 Y-16.785 E19.60207
G1 X23.207 Y-16.417 E19.62897
G1 X22.134 Y-15.637 E19.69515
G1 X28.8 Y-15.637 E20.02772
G1 X28.8 Y-36.851 E21.08609
G1 X-18.8 Y-36.851 E23.46086
G1 X-18.8 Y-15.637 E24.51923
G1 X-13.118 Y-15.637 E24.80271
G1 X-13.913 Y-16.215 E24.85175
G1 X-14.227 Y-16.492 E24.87264
G1 X-14.482 Y-16.824 E24.89352
G1 X-14.711 Y-17.313 E24.92046
G1 X-15.573 Y-19.961 E25.05939
G1 X-15.664 Y-20.37 E25.0803
G1 X-15.676 Y-20.789 E25.10121
G1 X-15.573 Y-21.323 E25.12834
G1 X-14.711 Y-23.971 E25.26728
G1 X-14.544 Y-24.355 E25.28817
G1 X-14.307 Y-24.701 E25.30909
G1 X-13.912 Y-25.07 E25.33606
G1 X-11.658 Y-26.708 E25.47507
G1 X-11.297 Y-26.921 E25.49598
G1 X-10.903 Y-27.061 E25.51684
G1 X-10.375 Y-27.128 E25.54339
G1 X-7.191 Y-27.142 E25.70225
G1 X-6.773 Y-27.104 E25.72319
G1 X-6.371 Y-26.987 E25.74407
G1 X-5.987 Y-26.79 E25.76561
G1 X-3.245 Y-25.018 E25.92848
G1 X-2.916 Y-24.758 E25.9494
G1 X-2.643 Y-24.44 E25.97031
G1 X-2.347 Y-23.851 E26.0032
G1 X-1.485 Y-21.203 E26.14213
G1 X-1.394 Y-20.794 E26.16304
G1 X-1.382 Y-20.375 E26.18395
G1 X-1.485 Y-19.842 E26.21103
G1 X-2.26 Y-17.457 E26.33615
G1 X-2.399 Y-17.137 E26.35355
G1 X-1.7 Y-17.097 E26.38848
G1 X-1.298 Y-16.979 E26.40938
G0 F3600 X-1.38 Y-16.579
G1 F1200 X-1.053 Y-16.389 E26.42825
G1 X-.727 Y-16.093 E26.45022
G1 X-.611 Y-15.95 E26.45941
G1 X-.543 Y-16.18 E26.47137
G1 X-.361 Y-16.513 E26.49031
G1 X0.058 Y-16.943 E26.52026
G1 X0.682 Y-17.349 E26.5574
G1 X1.042 Y-17.466 E26.57629
G1 X1.415 Y-17.505 E26.595
G1 X3.386 Y-17.505 E26.69333
G1 X3.763 Y-17.465 E26.71224
G1 X4.123 Y-17.347 E26.73114
G1 X4.445 Y-17.161 E26.7497
G1 X4.876 Y-16.847 E26.7763
G1 X5.464 Y-17.341 E26.81462
G1 X5.778 Y-17.553 E26.83352
G1 X6.13 Y-17.694 E26.85243
G1 X6.622 Y-17.763 E26.87722
G1 X8.578 Y-17.763 E26.97481
G1 X8.955 Y-17.723 E26.99372
G1 X9.315 Y-17.605 E27.01262
G1 X9.991 Y-17.161 E27.05297
G1 X10.273 Y-16.907 E27.07191
G1 X10.495 Y-16.6 E27.09081
G1 X10.647 Y-16.253 E27.10971
G1 X10.689 Y-16.049 E27.1201
G1 X11.139 Y-16.448 E27.1501
G1 X11.477 Y-16.619 E27.169
G1 X11.843 Y-16.716 E27.18789
G1 X12.117 Y-16.737 E27.2016
G1 X13.567 Y-16.737 E27.27394
G1 X13.28 Y-16.995 E27.2932
G1 X13.058 Y-17.303 E27.31214
G1 X12.909 Y-17.639 E27.33047
G1 X12.047 Y-20.287 E27.46941
G1 X11.969 Y-20.658 E27.48832
G1 X11.969 Y-21.036 E27.50718
G1 X12.047 Y-21.401 E27.5258
G1 X12.909 Y-24.049 E27.66473
G1 X13.064 Y-24.395 E27.68365
G1 X13.288 Y-24.701 E27.70257
G1 X13.563 Y-24.948 E27.72101
G1 X15.817 Y-26.586 E27.86002
G1 X16.145 Y-26.775 E27.87891
G1 X16.506 Y-26.892 E27.89784
G1 X16.875 Y-26.93 E27.91634
G1 X19.659 Y-26.93 E28.05524
G1 X20.036 Y-26.89 E28.07415
G1 X20.396 Y-26.772 E28.09305
G1 X20.717 Y-26.586 E28.11156
G1 X22.971 Y-24.948 E28.25057
G1 X23.253 Y-24.694 E28.26951
G1 X23.475 Y-24.387 E28.28841
G1 X23.625 Y-24.049 E28.30686
G1 X24.487 Y-21.401 E28.44579
G1 X24.565 Y-21.03 E28.4647
G1 X24.565 Y-20.652 E28.48356
G1 X24.487 Y-20.287 E28.50218
G1 X23.625 Y-17.639 E28.64112
G1 X23.47 Y-17.293 E28.66003
G1 X23.246 Y-16.987 E28.67895
G1 X22.972 Y-16.74 E28.69736
G1 X20.905 Y-15.237 E28.82486
G1 X28.901 Y-15.237 E29.22378
G1 X29.119 Y-15.29 E29.23497
G1 X29.184 Y-15.395 E29.24114
G1 X29.2 Y-15.543 E29.24856
G1 X29.2 Y-36.951 E30.31661
G1 X29.147 Y-37.17 E30.32785
G1 X29.046 Y-37.234 E30.33382
G1 X28.9 Y-37.251 E30.34115
G1 X-18.901 Y-37.251 E32.72595
G1 X-19.119 Y-37.198 E32.73715
G1 X-19.183 Y-37.097 E32.74311
G1 X-19.2 Y-36.946 E32.75069
G1 X-19.2 Y-15.531 E33.81909
G1 X-19.147 Y-15.318 E33.83004
G1 X-19.046 Y-15.254 E33.83601
G1 X-18.9 Y-15.237 E33.84334
G1 X-11.889 Y-15.237 E34.19312
G1 X-13.678 Y-16.538 E34.30348
G1 X-13.959 Y-16.792 E34.32238
G1 X-14.181 Y-17.099 E34.34128
G1 X-14.331 Y-17.437 E34.35973
G1 X-15.193 Y-20.085 E34.49866
G1 X-15.271 Y-20.456 E34.51757
G1 X-15.271 Y-20.834 E34.53643
G1 X-15.193 Y-21.199 E34.55505
G1 X-14.331 Y-23.847 E34.69399
G1 X-14.176 Y-24.193 E34.7129
G1 X-13.952 Y-24.499 E34.73182
G1 X-13.677 Y-24.746 E34.75026
G1 X-11.423 Y-26.384 E34.88927
G1 X-11.095 Y-26.573 E34.90816
G1 X-10.734 Y-26.69 E34.92709
G1 X-10.373 Y-26.728 E34.9452
G1 X-7.189 Y-26.742 E35.10405
G1 X-6.812 Y-26.704 E35.12296
G1 X-6.451 Y-26.587 E35.14189
G1 X-6.204 Y-26.454 E35.15589
G1 X-3.462 Y-24.682 E35.31876
G1 X-3.167 Y-24.444 E35.33767
G1 X-2.929 Y-24.149 E35.35658
G1 X-2.727 Y-23.727 E35.37993
G1 X-1.865 Y-21.079 E35.51886
G1 X-1.787 Y-20.708 E35.53777
G1 X-1.787 Y-20.33 E35.55663
G1 X-1.865 Y-19.966 E35.5752
G1 X-2.64 Y-17.581 E35.70032
G1 X-2.795 Y-17.235 E35.71923
G1 X-3.018 Y-16.929 E35.73812
G1 X-3.232 Y-16.737 E35.75246
G1 X-2.117 Y-16.737 E35.80809
G1 X-1.74 Y-16.697 E35.82701
G1 X-1.38 Y-16.579 E35.84591
G0 F3600 X-1.473 Y-16.18
G1 F1200 X-1.01 Y-15.81 E35.87548
G1 X-.804 Y-15.547 E35.89214
G1 X-.665 Y-15.243 E35.90882
G1 X-.6 Y-14.82 E35.93017
G1 X-.6 Y-12.781 E36.0319
G1 X-.64 Y-12.449 E36.04858
G1 X-.757 Y-12.137 E36.0652
G1 X-1.127 Y-11.674 E36.09477
G1 X-1.39 Y-11.468 E36.11144
G1 X-1.694 Y-11.329 E36.12812
G1 X-2.117 Y-11.264 E36.14947
G1 X-5.1 Y-11.264 E36.29829
G1 X-5.1 Y-9.611 E36.38076
G1 X-2.117 Y-9.61 E36.52958
G1 X-1.785 Y-9.57 E36.54627
G1 X-1.472 Y-9.453 E36.56294
G1 X-1.01 Y-9.083 E36.59247
G1 X-.804 Y-8.82 E36.60913
G1 X-.665 Y-8.516 E36.62581
G1 X-.6 Y-8.093 E36.64716
G1 X-.6 Y-6.054 E36.74889
G1 X-.64 Y-5.722 E36.76557
G1 X-.757 Y-5.41 E36.7822
G1 X-1.127 Y-4.947 E36.81176
G1 X-1.39 Y-4.741 E36.82843
G1 X-1.694 Y-4.602 E36.84511
G1 X-2.117 Y-4.537 E36.86646
G1 X-5.82 Y-4.538 E37.0512
G1 X-6.478 Y-4.613 E37.08424
G1 X-7.136 Y-4.813 E37.11855
G1 X-7.791 Y-5.178 E37.15596
G1 X-8.054 Y-5.387 E37.17272
G1 X-8.543 Y-5.873 E37.20712
G1 X-8.809 Y-6.014 E37.22214
G1 X-9.016 Y-6.037 E37.23253
G1 X-24.883 Y-6.037 E38.02414
G1 X-25.215 Y-6.077 E38.04082
G1 X-25.527 Y-6.194 E38.05744
G1 X-25.99 Y-6.564 E38.08701
G1 X-26.196 Y-6.827 E38.10368
G1 X-26.335 Y-7.131 E38.12036
G1 X-26.4 Y-7.554 E38.14171
G1 X-26.4 Y-42.934 E39.90682
G1 X-26.36 Y-43.266 E39.92351
G1 X-26.243 Y-43.578 E39.94013
G1 X-25.873 Y-44.041 E39.9697
G1 X-25.61 Y-44.247 E39.98637
G1 X-25.306 Y-44.386 E40.00304
G1 X-24.883 Y-44.451 E40.0244
G1 X-18.079 Y-44.451 E40.36385
G1 X-17.744 Y-44.519 E40.3809
G1 X-17.539 Y-44.681 E40.39394
G1 X-17.424 Y-44.921 E40.40722
G1 X-17.4 Y-45.136 E40.41801
G1 X-17.4 Y-58.741 E41.09676
G1 X-17.36 Y-59.073 E41.11345
G1 X-17.243 Y-59.385 E41.13007
G1 X-16.873 Y-59.848 E41.15964
G1 X-16.61 Y-60.054 E41.17631
G1 X-16.306 Y-60.193 E41.19298
G1 X-15.883 Y-60.258 E41.21434
G1 X-6.117 Y-60.258 E41.70156
G1 X-5.785 Y-60.218 E41.71825
G1 X-5.473 Y-60.101 E41.73487
G1 X-5.01 Y-59.731 E41.76444
G1 X-4.755 Y-59.361 E41.78686
G1 X-2.252 Y-59.36 E41.91173
G1 X-1.99 Y-59.73 E41.93435
G1 X-1.61 Y-60.053 E41.95923
G1 X-1.306 Y-60.192 E41.97591
G1 X-.883 Y-60.257 E41.99726
G1 X10.883 Y-60.258 E42.58427
G1 X11.215 Y-60.218 E42.60095
G1 X11.527 Y-60.101 E42.61758
G1 X11.99 Y-59.731 E42.64715
G1 X12.245 Y-59.361 E42.66957
G1 X14.748 Y-59.361 E42.79444
G1 X15.127 Y-59.847 E42.82519
G1 X15.39 Y-60.053 E42.84186
G1 X15.694 Y-60.192 E42.85853
G1 X16.117 Y-60.257 E42.87988
G1 X25.883 Y-60.257 E43.36711
G1 X26.215 Y-60.217 E43.38379
G1 X26.527 Y-60.1 E43.40042
G1 X26.99 Y-59.73 E43.42999
G1 X27.196 Y-59.467 E43.44665
G1 X27.335 Y-59.163 E43.46333
G1 X27.4 Y-58.74 E43.48468
G1 X27.4 Y-45.126 E44.16389
G1 X27.468 Y-44.794 E44.1808
G1 X27.628 Y-44.592 E44.19365
G1 X27.864 Y-44.476 E44.20677
G1 X28.082 Y-44.451 E44.21772
G1 X34.883 Y-44.451 E44.55702
G1 X35.215 Y-44.411 E44.57371
G1 X35.527 Y-44.294 E44.59033
G1 X35.99 Y-43.924 E44.6199
G1 X36.196 Y-43.661 E44.63657
G1 X36.335 Y-43.357 E44.65324
G1 X36.4 Y-42.934 E44.67459
G1 X36.4 Y-7.554 E46.43971
G1 X36.36 Y-7.222 E46.45639
G1 X36.243 Y-6.91 E46.47302
G1 X35.873 Y-6.447 E46.50259
G1 X35.61 Y-6.241 E46.51925
G1 X35.306 Y-6.102 E46.53593
G1 X34.883 Y-6.037 E46.55728
G1 X19.017 Y-6.037 E47.34884
G1 X18.684 Y-5.971 E47.36578
