;FLAVOR:Marlin
;TIME:5799
;Filament used: 6.53539m
;Layer height: 0.24
;MINX:-80.36
;MINY:-66.472
;MINZ:0.24
;MAXX:86.278
;MAXY:72.366
;MAXZ:29
;Generated with Cura_SteamEngine 4.13.1
M140 S50
M105
M190 S50
M104 S230
M105
M109 S230
M82 ;absolute extrusion mode
;FLAVOR:Marlin
M82 ;absolute extrusion mode
G21
G90
M82
M107 T0
G28
G92 E0
G0 E3 F200
G92 E0 ; reset extrusion distance
M106 S255 ; Enable cooling fan full speed
G1 X-98 Y0 Z0.4 F3000 ; move to arc start
G3 X0 Y-98 I98 Z0.4 E40 F400 ; lay arc stripe 90deg
G92 E0 ; reset extrusion distance
G4 P500 ; wait for 0.5 sec
G0 Z10 E-1 ; Lift 15mm and retract 1mm filament
G4 P2000 ; wait for 5 sec
G0 Z15
M107 ; Disable cooling fan
G1 X0 Y-85 Z4 E0 F3000 ; get off the bed
G92 E0
G92 E0
G1 F1500 E-1
;LAYER_COUNT:100
;LAYER:0
M106 S102
G1 F600 Z1.24
G0 F1500 X22.467 Y-23.368 Z1.24
;TYPE:SKIRT
G1 F600 Z0.24
G1 F3600 E0.75698
G1 F1200 X22.339 Y-23.503 E0.76599
G1 X21.939 Y-23.956 E0.79527
G1 X21.717 Y-24.24 E0.81273
G1 X21.376 Y-24.735 E0.84185
G1 X21.191 Y-25.042 E0.85922
G1 X20.909 Y-25.579 E0.8886
G1 X20.76 Y-25.91 E0.90619
G1 X20.546 Y-26.474 E0.93541
G1 X20.439 Y-26.819 E0.95291
G1 X20.295 Y-27.402 E0.98201
G1 X20.229 Y-27.759 E0.9996
G1 X20.156 Y-28.36 E1.02893
G1 X20.134 Y-28.722 E1.0465
G1 X20.134 Y-29.326 E1.07576
G1 X20.156 Y-29.687 E1.09328
G1 X20.229 Y-30.289 E1.12266
G1 X20.295 Y-30.647 E1.14029
G1 X20.439 Y-31.23 E1.16939
G1 X20.545 Y-31.574 E1.18683
G1 X20.759 Y-32.139 E1.2161
G1 X20.91 Y-32.473 E1.23385
G1 X21.192 Y-33.009 E1.2632
G1 X21.376 Y-33.314 E1.28045
G1 X21.717 Y-33.809 E1.30957
G1 X21.939 Y-34.093 E1.32704
G1 X22.339 Y-34.546 E1.35632
G1 X22.467 Y-34.681 E1.36533
G1 X45.803 Y-58.016 E2.96414
G1 X46.176 Y-58.333 E2.98785
G1 X46.596 Y-58.585 E3.01158
G1 X47.051 Y-58.765 E3.03529
G1 X47.529 Y-58.869 E3.05898
G1 X48.018 Y-58.894 E3.08271
G1 X48.504 Y-58.838 E3.10641
G1 X48.975 Y-58.705 E3.13012
G1 X49.418 Y-58.496 E3.15385
G1 X49.821 Y-58.219 E3.17754
G1 X50.045 Y-58.016 E3.19219
G1 X58.53 Y-49.53 E3.77356
G1 X58.847 Y-49.157 E3.79728
G1 X59.099 Y-48.737 E3.821
G1 X59.279 Y-48.282 E3.84471
G1 X59.383 Y-47.804 E3.86841
G1 X59.395 Y-47.56 E3.88024
G1 X59.93 Y-47.489 E3.90639
G1 X60.396 Y-47.34 E3.93009
G1 X60.832 Y-47.117 E3.95382
G1 X61.368 Y-46.693 E3.98693
G1 X62.842 Y-45.225 E4.08771
G1 X64.164 Y-43.904 E4.17825
G1 X64.48 Y-43.531 E4.20194
G1 X64.732 Y-43.111 E4.22567
G1 X64.913 Y-42.656 E4.24939
G1 X65.017 Y-42.178 E4.27309
G1 X65.042 Y-41.689 E4.29681
G1 X64.987 Y-41.203 E4.32051
G1 X64.853 Y-40.732 E4.34423
G1 X64.645 Y-40.289 E4.36794
G1 X64.368 Y-39.886 E4.39163
G1 X64.161 Y-39.657 E4.40659
G1 X61.826 Y-37.33 E4.56629
G1 X61.452 Y-37.014 E4.59001
G1 X61.032 Y-36.763 E4.61372
G1 X60.576 Y-36.583 E4.63747
G1 X60.098 Y-36.48 E4.66116
G1 X59.403 Y-36.481 E4.69483
G1 X56.652 Y-33.732 E4.88324
G1 X52.308 Y-29.386 E5.18093
G1 X51.935 Y-29.069 E5.20465
G1 X51.515 Y-28.817 E5.22838
G1 X51.06 Y-28.637 E5.25208
G1 X50.582 Y-28.533 E5.27578
G1 X50.093 Y-28.508 E5.2995
G1 X49.606 Y-28.564 E5.32325
G1 X49.135 Y-28.697 E5.34696
G1 X48.692 Y-28.905 E5.37067
G1 X48.062 Y-29.388 E5.40913
G1 X47.408 Y-30.043 E5.45398
G1 X46.659 Y-30.013 E5.49029
G1 X46.17 Y-30.034 E5.514
G1 X45.69 Y-30.133 E5.53775
G1 X45.234 Y-30.309 E5.56143
G1 X44.812 Y-30.557 E5.58514
G1 X44.435 Y-30.87 E5.60888
G1 X44.291 Y-31.037 E5.61956
G1 X43.851 Y-30.561 E5.65097
G1 X43.337 Y-29.905 E5.69134
G1 X42.906 Y-29.253 E5.72921
G1 X42.64 Y-28.771 E5.75588
G1 X43.036 Y-28.636 E5.77615
G1 X43.468 Y-28.405 E5.79988
G1 X43.856 Y-28.107 E5.82358
G1 X44.27 Y-27.631 E5.85414
G1 X44.566 Y-27.397 E5.87242
G1 X44.896 Y-27.035 E5.89615
G1 X45.162 Y-26.625 E5.91983
G1 X45.367 Y-26.139 E5.94539
G1 X46.003 Y-24.874 E6.01398
G1 X46.39 Y-24.357 E6.04527
G1 X46.854 Y-23.857 E6.07831
G1 X47.153 Y-23.442 E6.10309
G1 X47.626 Y-23.132 E6.13049
G1 X48.201 Y-22.547 E6.17023
G1 X48.499 Y-22.159 E6.19393
G1 X48.64 Y-21.878 E6.20917
G1 X49.428 Y-21.09 E6.26315
G1 X50.083 Y-20.502 E6.3058
G1 X50.528 Y-19.986 E6.33881
G1 X51.246 Y-19.465 E6.38179
G1 X51.717 Y-19.027 E6.41295
G1 X52.298 Y-18.644 E6.44666
G1 X52.751 Y-18.556 E6.46902
G1 X53.21 Y-18.386 E6.49273
G1 X53.635 Y-18.143 E6.51645
G1 X54.218 Y-17.741 E6.55075
G1 X54.589 Y-17.421 E6.57449
G1 X54.856 Y-17.088 E6.59517
G1 X55.095 Y-16.951 E6.60851
G1 X55.474 Y-16.642 E6.63221
G1 X55.799 Y-16.275 E6.65595
G1 X56.059 Y-15.86 E6.67968
G1 X56.27 Y-15.318 E6.70786
G1 X56.63 Y-15.517 E6.72779
G1 X57.294 Y-15.955 E6.76632
G1 X57.942 Y-16.464 E6.80624
G1 X58.412 Y-16.898 E6.83724
G1 X58.138 Y-17.161 E6.85564
G1 X57.845 Y-17.553 E6.87935
G1 X57.62 Y-17.988 E6.90307
G1 X57.469 Y-18.453 E6.92676
G1 X57.395 Y-18.937 E6.95048
G1 X57.392 Y-19.296 E6.96787
G1 X57.438 Y-20.203 E7.01187
G1 X56.959 Y-20.683 E7.04472
G1 X56.643 Y-21.057 E7.06844
G1 X56.392 Y-21.477 E7.09215
G1 X56.212 Y-21.932 E7.11585
G1 X56.109 Y-22.411 E7.13959
G1 X56.085 Y-22.9 E7.16331
G1 X56.14 Y-23.386 E7.187
G1 X56.274 Y-23.857 E7.21073
G1 X56.483 Y-24.299 E7.23441
G1 X56.949 Y-24.911 E7.27168
G1 X59.016 Y-27.003 E7.41416
G1 X59.567 Y-27.431 E7.44796
G1 X59.938 Y-28.051 E7.48296
G1 X60.207 Y-28.36 E7.50281
G1 X63.842 Y-32 E7.75203
G1 X63.822 Y-32.494 E7.77598
G1 X63.883 Y-32.98 E7.79971
G1 X64.022 Y-33.449 E7.82341
G1 X64.236 Y-33.89 E7.84716
G1 X64.697 Y-34.484 E7.88358
G1 X67.051 Y-36.84 E8.04494
G1 X67.424 Y-37.157 E8.06865
G1 X67.843 Y-37.409 E8.09234
G1 X68.299 Y-37.59 E8.11611
G1 X68.777 Y-37.694 E8.13981
G1 X69.266 Y-37.719 E8.16353
G1 X69.752 Y-37.664 E8.18722
G1 X70.223 Y-37.53 E8.21095
G1 X70.666 Y-37.322 E8.23466
G1 X71.295 Y-36.841 E8.27302
G1 X74.092 Y-34.042 E8.46472
G1 X74.409 Y-33.668 E8.48847
G1 X74.66 Y-33.248 E8.51218
G1 X74.84 Y-32.793 E8.53588
G1 X74.944 Y-32.315 E8.55958
G1 X74.959 Y-32.015 E8.57413
G1 X75.376 Y-31.967 E8.59447
G1 X75.846 Y-31.834 E8.61813
G1 X76.289 Y-31.625 E8.64186
G1 X76.692 Y-31.348 E8.66555
G1 X76.916 Y-31.145 E8.6802
G1 X85.4 Y-22.66 E9.26151
G1 X85.717 Y-22.287 E9.28522
G1 X85.969 Y-21.867 E9.30895
G1 X86.149 Y-21.412 E9.33266
G1 X86.253 Y-20.934 E9.35636
G1 X86.278 Y-20.445 E9.38008
G1 X86.222 Y-19.958 E9.40383
G1 X86.089 Y-19.488 E9.42749
G1 X85.88 Y-19.045 E9.45122
G1 X85.603 Y-18.642 E9.47491
G1 X85.4 Y-18.418 E9.48956
G1 X62.067 Y4.916 E11.08823
G1 X61.935 Y5.041 E11.09704
G1 X61.481 Y5.443 E11.12641
G1 X61.194 Y5.668 E11.14408
G1 X60.699 Y6.009 E11.1732
G1 X60.388 Y6.196 E11.19078
G1 X59.853 Y6.476 E11.22004
G1 X59.527 Y6.622 E11.23734
G1 X58.961 Y6.837 E11.26667
G1 X58.619 Y6.945 E11.28405
G1 X58.035 Y7.09 E11.3132
G1 X57.668 Y7.157 E11.33128
G1 X57.066 Y7.229 E11.36065
G1 X56.71 Y7.25 E11.37793
G1 X56.108 Y7.25 E11.40709
G1 X55.752 Y7.229 E11.42437
G1 X55.15 Y7.157 E11.45374
G1 X54.783 Y7.09 E11.47181
G1 X54.199 Y6.945 E11.50097
G1 X53.857 Y6.837 E11.51834
G1 X53.291 Y6.622 E11.54767
G1 X52.965 Y6.476 E11.56498
G1 X52.43 Y6.196 E11.59423
G1 X52.119 Y6.009 E11.61181
G1 X51.624 Y5.668 E11.64093
G1 X51.337 Y5.443 E11.6586
G1 X50.883 Y5.041 E11.68798
G1 X50.751 Y4.916 E11.69679
G1 X22.937 Y-22.898 E13.60243
G0 F1080 X22.467 Y-23.368
G0 F1500 X22.75 Y-23.651
G1 F1200 X22.639 Y-23.768 E13.61025
G1 X22.239 Y-24.221 E13.63953
G1 X22.047 Y-24.467 E13.65464
G1 X21.706 Y-24.962 E13.68376
G1 X21.545 Y-25.228 E13.69883
G1 X21.263 Y-25.765 E13.72821
G1 X21.134 Y-26.052 E13.74346
G1 X20.92 Y-26.616 E13.77268
G1 X20.827 Y-26.915 E13.78785
G1 X20.683 Y-27.498 E13.81695
G1 X20.626 Y-27.807 E13.83217
G1 X20.553 Y-28.408 E13.8615
G1 X20.534 Y-28.722 E13.87674
G1 X20.534 Y-29.326 E13.906
G1 X20.553 Y-29.639 E13.92119
G1 X20.626 Y-30.241 E13.95057
G1 X20.683 Y-30.551 E13.96584
G1 X20.827 Y-31.134 E13.99493
G1 X20.92 Y-31.432 E14.01006
G1 X21.134 Y-31.997 E14.03933
G1 X21.264 Y-32.287 E14.05472
G1 X21.546 Y-32.823 E14.08407
G1 X21.706 Y-33.087 E14.09902
G1 X22.047 Y-33.582 E14.12814
G1 X22.239 Y-33.828 E14.14326
G1 X22.639 Y-34.281 E14.17254
G1 X22.75 Y-34.399 E14.18039
G1 X46.086 Y-57.734 E15.77919
G1 X46.435 Y-58.026 E15.80124
G1 X46.83 Y-58.253 E15.82331
G1 X47.258 Y-58.408 E15.84536
G1 X47.707 Y-58.486 E15.86744
G1 X48.163 Y-58.484 E15.88953
G1 X48.611 Y-58.403 E15.91159
G1 X49.038 Y-58.244 E15.93366
G1 X49.431 Y-58.014 E15.95573
G1 X49.763 Y-57.733 E15.9768
G1 X58.248 Y-49.247 E16.55817
G1 X58.54 Y-48.898 E16.58022
G1 X58.768 Y-48.503 E16.60231
G1 X58.922 Y-48.075 E16.62435
G1 X59 Y-47.626 E16.64643
G1 X58.995 Y-47.151 E16.66944
G1 X59.483 Y-47.157 E16.69309
G1 X59.931 Y-47.076 E16.71514
G1 X60.359 Y-46.919 E16.73723
G1 X60.753 Y-46.69 E16.75931
G1 X61.086 Y-46.409 E16.78041
G1 X62.559 Y-44.942 E16.88113
G1 X63.881 Y-43.621 E16.97167
G1 X64.174 Y-43.272 E16.99375
G1 X64.401 Y-42.877 E17.01582
G1 X64.556 Y-42.449 E17.03787
G1 X64.634 Y-42 E17.05995
G1 X64.632 Y-41.544 E17.08204
G1 X64.551 Y-41.096 E17.1041
G1 X64.393 Y-40.669 E17.12616
G1 X64.162 Y-40.276 E17.14824
G1 X63.878 Y-39.94 E17.16956
G1 X61.543 Y-37.613 E17.32926
G1 X61.194 Y-37.321 E17.35131
G1 X60.798 Y-37.095 E17.3734
G1 X60.37 Y-36.941 E17.39543
G1 X59.92 Y-36.864 E17.41755
G1 X59.465 Y-36.866 E17.43959
G1 X59.26 Y-36.904 E17.4497
G1 X56.369 Y-34.015 E17.6477
G1 X52.025 Y-29.669 E17.94539
G1 X51.676 Y-29.376 E17.96747
G1 X51.281 Y-29.149 E17.98954
G1 X50.852 Y-28.994 E18.01164
G1 X50.404 Y-28.916 E18.03367
G1 X49.948 Y-28.918 E18.05576
G1 X49.5 Y-28.999 E18.07782
G1 X49.072 Y-29.158 E18.09994
G1 X48.679 Y-29.388 E18.122
G1 X48.346 Y-29.67 E18.14314
G1 X47.567 Y-30.451 E18.19658
G1 X46.642 Y-30.413 E18.24143
G1 X46.187 Y-30.435 E18.2635
G1 X45.743 Y-30.535 E18.28555
G1 X45.323 Y-30.712 E18.30763
G1 X44.94 Y-30.959 E18.32971
G1 X44.607 Y-31.269 E18.35175
G1 X44.324 Y-31.648 E18.37467
G1 X44.164 Y-31.488 E18.38563
G1 X43.537 Y-30.81 E18.43037
G1 X43.027 Y-30.16 E18.47039
G1 X42.557 Y-29.451 E18.5116
G1 X42.162 Y-28.734 E18.55126
G1 X42.043 Y-28.468 E18.56538
G1 X42.337 Y-28.437 E18.5797
G1 X42.775 Y-28.311 E18.60178
G1 X43.184 Y-28.11 E18.62386
G1 X43.552 Y-27.842 E18.64592
G1 X43.972 Y-27.358 E18.67696
G1 X44.316 Y-27.083 E18.6983
G1 X44.617 Y-26.74 E18.72041
G1 X44.853 Y-26.351 E18.74245
G1 X44.985 Y-26.011 E18.76012
G1 X45.652 Y-24.684 E18.83207
G1 X46.087 Y-24.09 E18.86774
G1 X46.147 Y-24.045 E18.87138
G1 X46.529 Y-23.622 E18.89899
G1 X46.888 Y-23.124 E18.92873
G1 X47.077 Y-23.031 E18.93893
G1 X47.445 Y-22.761 E18.96105
G1 X47.905 Y-22.279 E18.99333
G1 X48.18 Y-21.915 E19.01543
G1 X48.319 Y-21.633 E19.03066
G1 X49.141 Y-20.811 E19.08698
G1 X49.816 Y-20.205 E19.13092
G1 X50.236 Y-19.704 E19.1626
G1 X51.011 Y-19.142 E19.20898
G1 X51.452 Y-18.723 E19.23845
G1 X52.155 Y-18.26 E19.27923
G1 X52.673 Y-18.162 E19.30477
G1 X53.097 Y-17.996 E19.32683
G1 X53.62 Y-17.64 E19.35748
G1 X54.008 Y-17.399 E19.37961
G1 X54.348 Y-17.095 E19.4017
G1 X54.592 Y-16.783 E19.42089
G1 X54.945 Y-16.566 E19.44097
G1 X55.286 Y-16.263 E19.46307
G1 X55.569 Y-15.906 E19.48514
G1 X55.785 Y-15.505 E19.5072
G1 X55.928 Y-15.073 E19.52925
G1 X55.98 Y-14.715 E19.54677
G1 X56.117 Y-14.779 E19.5541
G1 X56.833 Y-15.172 E19.59367
G1 X57.522 Y-15.626 E19.63364
G1 X58.197 Y-16.156 E19.67522
G1 X58.85 Y-16.758 E19.71825
G1 X59.031 Y-16.938 E19.73062
G1 X58.534 Y-17.322 E19.76104
G1 X58.244 Y-17.674 E19.78314
G1 X58.02 Y-18.07 E19.80518
G1 X57.869 Y-18.5 E19.82726
G1 X57.795 Y-18.95 E19.84935
G1 X57.791 Y-19.276 E19.86515
G1 X57.846 Y-20.361 E19.91778
G1 X57.242 Y-20.966 E19.9592
G1 X56.95 Y-21.315 E19.98124
G1 X56.723 Y-21.71 E20.00331
G1 X56.569 Y-22.139 E20.0254
G1 X56.492 Y-22.588 E20.04747
G1 X56.494 Y-23.044 E20.06956
G1 X56.576 Y-23.492 E20.09162
G1 X56.735 Y-23.919 E20.1137
G1 X56.966 Y-24.312 E20.13578
G1 X57.234 Y-24.629 E20.15589
G1 X59.301 Y-26.721 E20.29837
G1 X59.648 Y-27.016 E20.32044
G1 X59.859 Y-27.14 E20.33229
G1 X60.276 Y-27.835 E20.37156
G1 X60.49 Y-28.077 E20.38721
G1 X64.276 Y-31.868 E20.64677
G1 X64.226 Y-32.179 E20.66203
G1 X64.233 Y-32.634 E20.68408
G1 X64.32 Y-33.082 E20.70619
G1 X64.484 Y-33.507 E20.72826
G1 X64.719 Y-33.897 E20.75032
G1 X64.98 Y-34.202 E20.76977
G1 X67.334 Y-36.558 E20.93112
G1 X67.683 Y-36.851 E20.95319
G1 X68.078 Y-37.078 E20.97526
G1 X68.506 Y-37.233 E20.99732
G1 X68.955 Y-37.311 E21.0194
G1 X69.411 Y-37.309 E21.04149
G1 X69.859 Y-37.228 E21.06354
G1 X70.286 Y-37.07 E21.0856
G1 X70.679 Y-36.839 E21.10769
G1 X71.012 Y-36.558 E21.1288
G1 X73.809 Y-33.759 E21.3205
G1 X74.102 Y-33.41 E21.34257
G1 X74.329 Y-33.015 E21.36465
G1 X74.484 Y-32.586 E21.38674
G1 X74.561 Y-32.137 E21.40881
G1 X74.546 Y-31.61 E21.43436
G1 X75.034 Y-31.613 E21.458
G1 X75.482 Y-31.532 E21.48005
G1 X75.909 Y-31.373 E21.50213
G1 X76.302 Y-31.142 E21.52421
G1 X76.634 Y-30.862 E21.54525
G1 X85.118 Y-22.377 E22.12656
G1 X85.41 Y-22.028 E22.14861
G1 X85.638 Y-21.633 E22.1707
G1 X85.792 Y-21.205 E22.19274
G1 X85.87 Y-20.756 E22.21482
G1 X85.868 Y-20.3 E22.23691
G1 X85.787 Y-19.852 E22.25897
G1 X85.628 Y-19.425 E22.28104
G1 X85.397 Y-19.032 E22.30312
G1 X85.118 Y-18.701 E22.3241
G1 X61.785 Y4.633 E23.92277
G1 X61.67 Y4.742 E23.93044
G1 X61.216 Y5.144 E23.95982
G1 X60.967 Y5.338 E23.97511
G1 X60.472 Y5.679 E24.00424
G1 X60.203 Y5.842 E24.01947
G1 X59.668 Y6.122 E24.04873
G1 X59.385 Y6.249 E24.06375
G1 X58.819 Y6.464 E24.09309
G1 X58.523 Y6.556 E24.1081
G1 X57.939 Y6.701 E24.13726
G1 X57.621 Y6.76 E24.15293
G1 X57.019 Y6.832 E24.1823
G1 X56.71 Y6.85 E24.19729
G1 X56.108 Y6.85 E24.22646
G1 X55.799 Y6.832 E24.24145
G1 X55.197 Y6.76 E24.27083
G1 X54.879 Y6.701 E24.2865
G1 X54.295 Y6.556 E24.31565
G1 X53.999 Y6.464 E24.33066
G1 X53.433 Y6.249 E24.36
G1 X53.15 Y6.122 E24.37502
G1 X52.615 Y5.842 E24.40428
G1 X52.346 Y5.679 E24.41952
G1 X51.851 Y5.338 E24.44864
G1 X51.602 Y5.144 E24.46393
G1 X51.148 Y4.742 E24.49331
G1 X51.034 Y4.633 E24.50095
G1 X23.22 Y-23.181 E26.4066
G0 F1080 X22.75 Y-23.651
G0 F1500 X23.032 Y-23.933
G1 F1200 X22.939 Y-24.033 E26.41321
G1 X22.539 Y-24.486 E26.44249
G1 X22.376 Y-24.694 E26.45529
G1 X22.035 Y-25.189 E26.48441
G1 X21.899 Y-25.414 E26.49715
G1 X21.617 Y-25.951 E26.52653
G1 X21.508 Y-26.194 E26.53944
G1 X21.294 Y-26.758 E26.56866
G1 X21.215 Y-27.01 E26.58146
G1 X21.071 Y-27.593 E26.61055
G1 X21.023 Y-27.856 E26.6235
G1 X20.95 Y-28.457 E26.65283
G1 X20.934 Y-28.722 E26.66569
G1 X20.934 Y-29.326 E26.69496
G1 X20.95 Y-29.591 E26.70782
G1 X21.023 Y-30.193 E26.7372
G1 X21.071 Y-30.456 E26.75015
G1 X21.215 Y-31.039 E26.77924
G1 X21.294 Y-31.29 E26.79199
G1 X21.508 Y-31.855 E26.82126
G1 X21.618 Y-32.1 E26.83427
G1 X21.9 Y-32.636 E26.86361
G1 X22.035 Y-32.86 E26.87628
G1 X22.376 Y-33.355 E26.9054
G1 X22.539 Y-33.563 E26.91821
G1 X22.939 Y-34.016 E26.94748
G1 X23.032 Y-34.116 E26.9541
G1 X46.368 Y-57.451 E28.55291
G1 X46.692 Y-57.717 E28.57322
G1 X47.059 Y-57.918 E28.59349
G1 X47.459 Y-58.045 E28.61382
G1 X47.875 Y-58.094 E28.63411
G1 X48.293 Y-58.064 E28.65442
G1 X48.697 Y-57.955 E28.67469
G1 X49.074 Y-57.771 E28.69501
G1 X49.48 Y-57.451 E28.72006
G1 X57.965 Y-48.965 E29.30143
G1 X58.231 Y-48.641 E29.32174
G1 X58.432 Y-48.273 E29.34206
G1 X58.559 Y-47.874 E29.36234
G1 X58.608 Y-47.458 E29.38263
G1 X58.578 Y-47.04 E29.40294
G1 X58.468 Y-46.635 E29.42327
G1 X59.095 Y-46.761 E29.45425
G1 X59.514 Y-46.751 E29.47456
G1 X59.924 Y-46.662 E29.49488
G1 X60.309 Y-46.496 E29.51519
G1 X60.803 Y-46.126 E29.5451
G1 X62.276 Y-44.659 E29.64581
G1 X63.598 Y-43.338 E29.73635
G1 X63.865 Y-43.015 E29.75666
G1 X64.066 Y-42.647 E29.77697
G1 X64.193 Y-42.248 E29.79726
G1 X64.242 Y-41.832 E29.81755
G1 X64.212 Y-41.414 E29.83785
G1 X64.103 Y-41.009 E29.85817
G1 X63.919 Y-40.633 E29.87845
G1 X63.596 Y-40.224 E29.9037
G1 X61.261 Y-37.897 E30.06341
G1 X60.937 Y-37.631 E30.08371
