;FLAVOR:Marlin
;TIME:201
;Filament used: 0.419832m
;Layer height: 0.3
;MINX:-20.099
;MINY:-76.053
;MINZ:0.4
;MAXX:20.099
;MAXY:0
;MAXZ:4.9
;TARGET_MACHINE.NAME:Unknown
;Generated with Cura_SteamEngine 5.11.0
M140 S50
M105
M190 S50
M104 S220
M105
M109 S220
;FLAVOR:Marlin
M82 ;absolute extrusion mode
G21
G90
M82
M107 T0
G28
G92 E0
G0 E3 F200
G92 E0 ; reset extrusion distance
M106 S255 ; Enable cooling fan full speed
G1 X-98 Y0 Z0.4 F3000 ; move to arc start
G3 X0 Y-98 I98 Z0.4 E40 F400 ; lay arc stripe 90deg
G92 E0 ; reset extrusion distance
G4 P500 ; wait for 0.5 sec
G0 Z10 E-1 ; Lift 15mm and retract 1mm filament
G4 P2000 ; wait for 5 sec
G0 Z15
M107 ; Disable cooling fan
G1 X0 Y-85 Z4 E0 F3000 ; get off the bed
M82 ;absolute extrusion mode
G92 E0
G92 E0
G1 F1500 E-6.5
;LAYER_COUNT:16
;LAYER:0
M107
G1 F600 Z1.4
G0 F3600 X0.00 Y0.00 Z1.4
G0 X-.257 Y-35.858
;TYPE:SKIRT
G1 F600 Z0.4
G1 F1500 E0
G1 F1800 X-1.447 Y-35.907 E0.13667
G1 X-2.18 Y-35.973 E0.22112
G1 X-3.826 Y-36.223 E0.41216
G1 X-4.563 Y-36.381 E0.49865
G1 X-6.156 Y-36.824 E0.68838
G1 X-6.852 Y-37.062 E0.77278
G1 X-8.296 Y-37.653 E0.95182
G1 X-9.42 Y-38.2 E1.09525
G1 X-10.157 Y-38.611 E1.19208
G1 X-11.467 Y-39.445 E1.37028
G1 X-12.179 Y-39.962 E1.47125
G1 X-13.157 Y-40.767 E1.6166
G1 X-14.089 Y-41.625 E1.76196
G1 X-15.01 Y-42.591 E1.91511
G1 X-15.697 Y-43.405 E2.03734
G1 X-16.538 Y-44.536 E2.19906
G1 X-17.075 Y-45.354 E2.31135
G1 X-17.72 Y-46.467 E2.45896
G1 X-18.205 Y-47.436 E2.5833
G1 X-18.791 Y-48.817 E2.75544
G1 X-19.046 Y-49.527 E2.842
G1 X-19.497 Y-51.081 E3.02768
G1 X-19.721 Y-52.083 E3.14549
G1 X-19.95 Y-53.498 E3.30997
G1 X-20.027 Y-54.229 E3.39432
G1 X-20.099 Y-55.914 E3.58785
G1 X-20.087 Y-56.65 E3.67231
G1 X-19.972 Y-58.169 E3.84711
G1 X-19.789 Y-59.503 E4.00162
G1 X-19.646 Y-60.225 E4.08607
G1 X-19.302 Y-61.555 E4.24371
G1 X-18.892 Y-62.809 E4.3951
G1 X-18.443 Y-63.949 E4.53569
G1 X-18.014 Y-64.876 E4.6529
G1 X-17.439 Y-65.945 E4.79219
G1 X-16.698 Y-67.143 E4.95382
G1 X-16.031 Y-68.09 E5.08674
G1 X-15.438 Y-68.837 E5.19618
G1 X-14.609 Y-69.76 E5.33854
G1 X-13.562 Y-70.793 E5.50731
G1 X-12.792 Y-71.463 E5.62443
G1 X-11.801 Y-72.23 E5.76823
G1 X-10.841 Y-72.886 E5.90165
G1 X-9.847 Y-73.482 E6.03464
G1 X-8.587 Y-74.133 E6.19738
G1 X-7.716 Y-74.519 E6.3067
G1 X-6.462 Y-74.99 E6.46041
G1 X-5.234 Y-75.365 E6.60774
G1 X-4.402 Y-75.57 E6.70607
G1 X-2.745 Y-75.87 E6.89929
G1 X-1.784 Y-75.98 E7.01029
G1 X-.856 Y-76.04 E7.11699
G1 X0.312 Y-76.053 E7.25103
G1 X2.061 Y-75.956 E7.45203
G1 X2.792 Y-75.867 E7.53653
G1 X4.421 Y-75.566 E7.72662
G1 X5.171 Y-75.382 E7.81523
G1 X6.757 Y-74.889 E8.00581
G1 X7.61 Y-74.564 E8.11055
G1 X8.721 Y-74.067 E8.25021
G1 X9.825 Y-73.491 E8.3931
G1 X11.014 Y-72.771 E8.5526
G1 X11.825 Y-72.211 E8.66569
G1 X12.888 Y-71.38 E8.82051
G1 X13.729 Y-70.638 E8.94921
G1 X14.63 Y-69.746 E9.09469
G1 X15.269 Y-69.034 E9.20447
G1 X16.219 Y-67.832 E9.38027
G1 X16.723 Y-67.112 E9.48112
G1 X17.363 Y-66.079 E9.62056
G1 X18.09 Y-64.728 E9.7966
G1 X18.398 Y-64.061 E9.88091
G1 X18.981 Y-62.577 E10.06386
G1 X19.292 Y-61.612 E10.1802
G1 X19.57 Y-60.547 E10.3065
G1 X19.87 Y-59.004 E10.48687
G1 X19.968 Y-58.276 E10.57116
G1 X20.088 Y-56.619 E10.7618
G1 X20.099 Y-55.882 E10.84637
G1 X20.027 Y-54.229 E11.03623
G1 X19.948 Y-53.48 E11.12265
G1 X19.713 Y-52.043 E11.28974
G1 X19.39 Y-50.646 E11.45427
G1 X19.172 Y-49.906 E11.54279
G1 X18.755 Y-48.736 E11.68532
G1 X18.175 Y-47.367 E11.85592
G1 X17.757 Y-46.532 E11.96307
G1 X17.133 Y-45.449 E12.10649
G1 X16.293 Y-44.178 E12.28131
G1 X15.851 Y-43.59 E12.36572
G1 X14.777 Y-42.327 E12.55596
G1 X14.268 Y-41.795 E12.64045
G1 X13.12 Y-40.73 E12.82013
G1 X12.401 Y-40.139 E12.92693
G1 X11.291 Y-39.333 E13.08434
G1 X10.163 Y-38.617 E13.23765
G1 X9.345 Y-38.163 E13.345
G1 X7.964 Y-37.504 E13.52058
G1 X7.117 Y-37.161 E13.62544
G1 X5.767 Y-36.706 E13.78891
G1 X4.579 Y-36.385 E13.93012
G1 X3.787 Y-36.216 E14.02304
G1 X2.16 Y-35.975 E14.21178
G1 X1.075 Y-35.888 E14.33668
G1 X-.257 Y-35.858 E14.48956
G0 F3600 X-.233 Y-36.458
G1 F1800 X-1.393 Y-36.505 E14.62278
G1 X-2.126 Y-36.571 E14.70723
G1 X-3.7 Y-36.81 E14.88991
G1 X-4.437 Y-36.968 E14.9764
G1 X-5.962 Y-37.392 E15.15803
G1 X-6.658 Y-37.63 E15.24243
G1 X-8.033 Y-38.193 E15.41292
G1 X-9.157 Y-38.74 E15.55636
G1 X-9.864 Y-39.135 E15.64929
G1 X-11.114 Y-39.931 E15.81934
G1 X-11.826 Y-40.448 E15.9203
G1 X-12.776 Y-41.23 E16.0615
G1 X-13.655 Y-42.039 E16.19858
G1 X-14.551 Y-42.978 E16.34751
G1 X-15.238 Y-43.792 E16.46973
G1 X-16.036 Y-44.865 E16.62317
G1 X-16.573 Y-45.683 E16.73545
G1 X-17.183 Y-46.736 E16.87509
G1 X-17.668 Y-47.705 E16.99943
G1 X-18.226 Y-49.02 E17.16335
G1 X-18.481 Y-49.73 E17.24992
G1 X-18.911 Y-51.212 E17.42698
G1 X-19.135 Y-52.214 E17.5448
G1 X-19.353 Y-53.561 E17.70138
G1 X-19.43 Y-54.292 E17.78572
G1 X-19.499 Y-55.904 E17.97086
G1 X-19.487 Y-56.64 E18.05533
G1 X-19.374 Y-58.123 E18.22599
G1 X-19.2 Y-59.386 E18.37229
G1 X-19.057 Y-60.108 E18.45674
G1 X-18.721 Y-61.405 E18.61048
G1 X-18.334 Y-62.589 E18.75342
G1 X-17.898 Y-63.697 E18.89005
G1 X-17.469 Y-64.624 E19.00726
G1 X-16.911 Y-65.66 E19.14228
G1 X-16.207 Y-66.797 E19.29573
G1 X-15.54 Y-67.744 E19.42865
G1 X-14.968 Y-68.463 E19.53408
G1 X-14.163 Y-69.359 E19.67229
G1 X-13.168 Y-70.34 E19.83262
G1 X-12.398 Y-71.01 E19.94975
G1 X-11.462 Y-71.735 E20.0856
G1 X-10.532 Y-72.371 E20.21488
G1 X-9.538 Y-72.967 E20.34787
G1 X-8.344 Y-73.584 E20.50209
G1 X-7.473 Y-73.97 E20.61141
G1 X-6.286 Y-74.416 E20.75692
G1 X-5.09 Y-74.782 E20.90044
G1 X-4.258 Y-74.987 E20.99876
G1 X-2.676 Y-75.274 E21.18326
G1 X-1.745 Y-75.381 E21.29079
G1 X-.817 Y-75.441 E21.3975
G1 X0.318 Y-75.453 E21.52774
G1 X1.988 Y-75.36 E21.71967
G1 X2.719 Y-75.271 E21.80417
G1 X4.278 Y-74.983 E21.98609
G1 X5.028 Y-74.799 E22.0747
G1 X6.543 Y-74.328 E22.25675
G1 X7.396 Y-74.003 E22.36149
G1 X8.443 Y-73.535 E22.49309
G1 X9.547 Y-72.959 E22.63597
G1 X10.673 Y-72.277 E22.78703
G1 X11.455 Y-71.738 E22.89601
G1 X12.518 Y-70.907 E23.05084
G1 X13.332 Y-70.188 E23.17546
G1 X14.183 Y-69.345 E23.31291
G1 X14.822 Y-68.633 E23.42269
G1 X15.727 Y-67.488 E23.59016
G1 X16.231 Y-66.768 E23.69101
G1 X16.835 Y-65.794 E23.82252
G1 X17.545 Y-64.476 E23.99431
G1 X17.853 Y-63.809 E24.07861
G1 X18.422 Y-62.358 E24.25745
G1 X18.711 Y-61.46 E24.3657
G1 X18.989 Y-60.395 E24.492
G1 X19.275 Y-58.924 E24.66395
G1 X19.373 Y-58.196 E24.74824
G1 X19.488 Y-56.61 E24.93071
G1 X19.499 Y-55.873 E25.01529
G1 X19.43 Y-54.292 E25.19688
G1 X19.351 Y-53.543 E25.2833
G1 X19.121 Y-52.14 E25.44644
G1 X18.814 Y-50.816 E25.6024
G1 X18.596 Y-50.076 E25.69092
G1 X18.19 Y-48.937 E25.82967
G1 X17.638 Y-47.636 E25.99184
G1 X17.22 Y-46.801 E26.09899
G1 X16.613 Y-45.749 E26.23835
G1 X15.813 Y-44.539 E26.4048
G1 X15.371 Y-43.951 E26.48921
G1 X14.343 Y-42.742 E26.67131
G1 X13.834 Y-42.21 E26.7558
G1 X12.739 Y-41.194 E26.9272
G1 X12.02 Y-40.603 E27.034
G1 X10.969 Y-39.84 E27.18303
G1 X9.841 Y-39.124 E27.33634
G1 X9.087 Y-38.705 E27.43532
G1 X7.706 Y-38.046 E27.6109
G1 X6.925 Y-37.73 E27.70758
G1 X5.575 Y-37.275 E27.87105
G1 X4.453 Y-36.972 E28.00441
G1 X3.699 Y-36.81 E28.0929
G1 X2.072 Y-36.569 E28.28163
G1 X1.061 Y-36.488 E28.39801
G1 X-.233 Y-36.458 E28.54654
G0 F3600 X-.247 Y-37.058
G1 F1800 X-1.339 Y-37.103 E28.67195
G1 X-2.072 Y-37.169 E28.7564
G1 X-3.574 Y-37.397 E28.93072
G1 X-4.311 Y-37.555 E29.01721
G1 X-5.768 Y-37.96 E29.19074
G1 X-6.464 Y-38.198 E29.27514
G1 X-7.805 Y-38.748 E29.44146
G1 X-8.864 Y-39.264 E29.57663
G1 X-9.571 Y-39.659 E29.66956
G1 X-10.761 Y-40.417 E29.83146
G1 X-11.473 Y-40.934 E29.93243
G1 X-12.394 Y-41.693 E30.06937
G1 X-13.248 Y-42.48 E30.20263
G1 X-14.092 Y-43.365 E30.34296
G1 X-14.779 Y-44.179 E30.46519
G1 X-15.534 Y-45.194 E30.61034
G1 X-16.071 Y-46.012 E30.72262
G1 X-16.646 Y-47.005 E30.85429
G1 X-17.131 Y-47.974 E30.97863
G1 X-17.661 Y-49.223 E31.13432
G1 X-17.916 Y-49.933 E31.22089
G1 X-18.325 Y-51.343 E31.38935
G1 X-18.549 Y-52.345 E31.50717
G1 X-18.756 Y-53.624 E31.65584
G1 X-18.833 Y-54.355 E31.74018
G1 X-18.899 Y-55.894 E31.91694
G1 X-18.887 Y-56.63 E32.00141
G1 X-18.78 Y-58.041 E32.16378
G1 X-18.611 Y-59.269 E32.30602
G1 X-18.468 Y-59.991 E32.39048
G1 X-18.14 Y-61.254 E32.54021
G1 X-17.775 Y-62.37 E32.67494
G1 X-17.353 Y-63.445 E32.80746
G1 X-16.924 Y-64.372 E32.92467
G1 X-16.401 Y-65.344 E33.05132
G1 X-15.716 Y-66.452 E33.2008
G1 X-15.07 Y-67.37 E33.32961
G1 X-14.498 Y-68.089 E33.43503
G1 X-13.741 Y-68.932 E33.56504
G1 X-12.774 Y-69.887 E33.72099
G1 X-12.004 Y-70.557 E33.83811
G1 X-11.095 Y-71.26 E33.96997
G1 X-10.223 Y-71.856 E34.09117
G1 X-9.229 Y-72.452 E34.22416
G1 X-8.101 Y-73.035 E34.36986
G1 X-7.23 Y-73.421 E34.47918
G1 X-6.11 Y-73.842 E34.61648
G1 X-4.946 Y-74.199 E34.75619
G1 X-4.114 Y-74.404 E34.85451
G1 X-2.607 Y-74.678 E35.03027
G1 X-1.706 Y-74.782 E35.13435
G1 X-.778 Y-74.842 E35.24105
G1 X0.324 Y-74.853 E35.36751
G1 X1.915 Y-74.764 E35.55036
G1 X2.646 Y-74.675 E35.63486
G1 X4.135 Y-74.4 E35.80861
G1 X4.885 Y-74.216 E35.89722
G1 X6.329 Y-73.767 E36.07074
G1 X7.182 Y-73.442 E36.17549
G1 X8.165 Y-73.003 E36.29902
G1 X9.269 Y-72.427 E36.44191
G1 X10.332 Y-71.783 E36.58452
G1 X11.114 Y-71.244 E36.6935
G1 X12.121 Y-70.457 E36.84016
G1 X12.91 Y-69.761 E36.96088
G1 X13.736 Y-68.944 E37.0942
G1 X14.375 Y-68.232 E37.20398
G1 X15.235 Y-67.144 E37.36311
G1 X15.739 Y-66.424 E37.46396
G1 X16.325 Y-65.478 E37.59165
G1 X17 Y-64.224 E37.75507
G1 X17.308 Y-63.557 E37.83937
G1 X17.851 Y-62.174 E38.00986
G1 X18.13 Y-61.308 E38.11426
G1 X18.408 Y-60.243 E38.24056
G1 X18.68 Y-58.844 E38.4041
G1 X18.778 Y-58.116 E38.48839
G1 X18.888 Y-56.601 E38.66269
G1 X18.899 Y-55.864 E38.74727
G1 X18.833 Y-54.355 E38.92059
G1 X18.754 Y-53.606 E39.00701
G1 X18.536 Y-52.275 E39.16177
G1 X18.238 Y-50.986 E39.31358
G1 X18.02 Y-50.246 E39.4021
G1 X17.637 Y-49.171 E39.53305
G1 X17.101 Y-47.905 E39.69081
G1 X16.683 Y-47.07 E39.79796
G1 X16.112 Y-46.08 E39.9291
G1 X15.333 Y-44.9 E40.09134
G1 X14.891 Y-44.312 E40.17575
G1 X13.909 Y-43.157 E40.34971
G1 X13.4 Y-42.625 E40.4342
G1 X12.358 Y-41.658 E40.59732
G1 X11.639 Y-41.067 E40.70412
G1 X10.647 Y-40.347 E40.84477
G1 X9.519 Y-39.631 E40.99808
G1 X8.796 Y-39.23 E41.09295
G1 X7.481 Y-38.602 E41.26016
G1 X6.733 Y-38.299 E41.35277
G1 X5.383 Y-37.844 E41.51624
G1 X4.327 Y-37.559 E41.64175
G1 X3.573 Y-37.397 E41.73024
G1 X2.024 Y-37.167 E41.90994
G1 X1.047 Y-37.088 E42.02241
G1 X-.247 Y-37.058 E42.17093
G0 F3600 X-.223 Y-37.658
G1 F1800 X-1.285 Y-37.701 E42.29289
G1 X-2.018 Y-37.767 E42.37734
G1 X-3.448 Y-37.984 E42.54331
G1 X-4.185 Y-38.142 E42.6298
G1 X-5.574 Y-38.528 E42.79523
G1 X-6.27 Y-38.766 E42.87963
G1 X-7.542 Y-39.287 E43.03736
G1 X-8.571 Y-39.788 E43.16869
G1 X-9.278 Y-40.183 E43.26161
G1 X-10.408 Y-40.903 E43.41536
G1 X-11.12 Y-41.42 E43.51633
G1 X-11.988 Y-42.135 E43.64537
G1 X-12.814 Y-42.895 E43.77417
G1 X-13.633 Y-43.752 E43.91019
G1 X-14.32 Y-44.566 E44.03242
G1 X-15.032 Y-45.523 E44.16929
G1 X-15.569 Y-46.341 E44.28157
G1 X-16.109 Y-47.274 E44.40527
G1 X-16.594 Y-48.243 E44.52961
G1 X-17.096 Y-49.426 E44.67707
G1 X-17.351 Y-50.136 E44.76364
G1 X-17.739 Y-51.474 E44.92349
G1 X-17.963 Y-52.476 E45.04131
G1 X-18.159 Y-53.687 E45.18208
G1 X-18.236 Y-54.418 E45.26642
G1 X-18.299 Y-55.884 E45.4348
G1 X-18.287 Y-56.62 E45.51926
G1 X-18.186 Y-57.959 E45.67335
G1 X-18.022 Y-59.152 E45.81153
G1 X-17.879 Y-59.874 E45.89598
G1 X-17.57 Y-61.067 E46.03739
G1 X-17.205 Y-62.183 E46.17213
G1 X-16.808 Y-63.193 E46.29665
G1 X-16.379 Y-64.12 E46.41386
G1 X-15.873 Y-65.059 E46.53626
G1 X-15.206 Y-66.136 E46.68162
G1 X-14.6 Y-66.996 E46.80234
G1 X-14.028 Y-67.715 E46.90777
G1 X-13.295 Y-68.531 E47.03364
G1 X-12.38 Y-69.434 E47.18115
G1 X-11.61 Y-70.104 E47.29827
G1 X-10.756 Y-70.765 E47.42219
G1 X-9.914 Y-71.341 E47.53925
G1 X-8.92 Y-71.937 E47.67224
G1 X-7.858 Y-72.486 E47.80942
G1 X-6.987 Y-72.872 E47.91874
G1 X-5.934 Y-73.268 E48.04783
G1 X-4.802 Y-73.616 E48.18373
G1 X-3.97 Y-73.821 E48.28205
G1 X-2.538 Y-74.082 E48.44908
G1 X-1.667 Y-74.183 E48.54969
G1 X-.739 Y-74.243 E48.6564
G1 X0.33 Y-74.253 E48.77907
G1 X1.842 Y-74.168 E48.95284
G1 X2.573 Y-74.079 E49.03734
G1 X3.992 Y-73.817 E49.20292
G1 X4.742 Y-73.633 E49.29153
G1 X6.115 Y-73.206 E49.45653
G1 X6.968 Y-72.881 E49.56127
G1 X7.888 Y-72.471 E49.67685
G1 X8.958 Y-71.914 E49.81527
G1 X9.991 Y-71.289 E49.95381
G1 X10.773 Y-70.75 E50.06279
G1 X11.724 Y-70.007 E50.20127
G1 X12.513 Y-69.311 E50.322
G1 X13.289 Y-68.543 E50.44728
G1 X13.928 Y-67.831 E50.55706
G1 X14.743 Y-66.8 E50.70786
G1 X15.247 Y-66.08 E50.80871
G1 X15.797 Y-65.193 E50.92847
G1 X16.455 Y-63.972 E51.08762
G1 X16.763 Y-63.305 E51.17193
G1 X17.28 Y-61.99 E51.33406
G1 X17.549 Y-61.156 E51.43462
G1 X17.827 Y-60.091 E51.56092
G1 X18.085 Y-58.764 E51.71604
G1 X18.183 Y-58.036 E51.80033
G1 X18.288 Y-56.592 E51.96646
G1 X18.299 Y-55.855 E52.05104
G1 X18.236 Y-54.418 E52.21609
G1 X18.157 Y-53.669 E52.30251
G1 X17.944 Y-52.372 E52.45333
G1 X17.662 Y-51.156 E52.59657
G1 X17.444 Y-50.416 E52.68509
G1 X17.072 Y-49.372 E52.81226
G1 X16.564 Y-48.174 E52.96158
G1 X16.146 Y-47.339 E53.06873
G1 X15.611 Y-46.41 E53.19174
G1 X14.853 Y-45.261 E53.34969
G1 X14.411 Y-44.673 E53.4341
G1 X13.475 Y-43.572 E53.59992
G1 X12.966 Y-43.04 E53.68441
G1 X11.977 Y-42.122 E53.83925
G1 X11.258 Y-41.531 E53.94605
G1 X10.325 Y-40.853 E54.07839
G1 X9.228 Y-40.156 E54.22752
G1 X8.505 Y-39.755 E54.32239
G1 X7.255 Y-39.158 E54.48135
G1 X6.541 Y-38.868 E54.56978
G1 X5.191 Y-38.413 E54.73325
G1 X4.201 Y-38.146 E54.85091
G1 X3.447 Y-37.984 E54.9394
G1 X1.975 Y-37.765 E55.11017
G1 X1.033 Y-37.688 E55.21862
G1 X-.223 Y-37.658 E55.36278
G0 F3600 X-.199 Y-38.258
G1 F1800 X-1.231 Y-38.299 E55.4813
G1 X-1.964 Y-38.365 E55.56575
G1 X-3.322 Y-38.571 E55.72336
G1 X-4.059 Y-38.729 E55.80985
G1 X-5.38 Y-39.096 E55.96717
G1 X-6.076 Y-39.334 E56.05157
G1 X-7.314 Y-39.842 E56.20513
G1 X-8.278 Y-40.312 E56.32819
G1 X-8.985 Y-40.707 E56.42112
G1 X-10.055 Y-41.389 E56.56672
G1 X-10.767 Y-41.906 E56.66769
G1 X-11.582 Y-42.577 E56.78882
G1 X-12.408 Y-43.337 E56.91762
G1 X-13.174 Y-44.139 E57.04488
G1 X-13.861 Y-44.953 E57.1671
G1 X-14.531 Y-45.853 E57.29585
G1 X-15.05 Y-46.642 E57.40422
G1 X-15.572 Y-47.543 E57.5237
G1 X-16.057 Y-48.512 E57.64804
G1 X-16.531 Y-49.629 E57.78728
G1 X-16.786 Y-50.339 E57.87384
G1 X-17.153 Y-51.605 E58.0251
G1 X-17.377 Y-52.607 E58.14291
G1 X-17.562 Y-53.75 E58.27577
G1 X-17.639 Y-54.481 E58.36012
G1 X-17.699 Y-55.874 E58.52011
G1 X-17.687 Y-56.61 E58.60458
G1 X-17.592 Y-57.877 E58.75037
G1 X-17.433 Y-59.035 E58.88449
G1 X-17.29 Y-59.757 E58.96895
G1 X-17 Y-60.88 E59.10204
G1 X-16.635 Y-61.996 E59.23677
G1 X-16.263 Y-62.941 E59.35331
G1 X-15.834 Y-63.868 E59.47052
G1 X-15.363 Y-64.743 E59.58454
G1 X-14.715 Y-65.791 E59.72593
G1 X-14.13 Y-66.622 E59.84254
G1 X-13.558 Y-67.341 E59.94797
G1 X-12.849 Y-68.13 E60.06969
G1 X-11.986 Y-68.981 E60.20876
G1 X-11.216 Y-69.651 E60.32589
G1 X-10.417 Y-70.27 E60.44186
G1 X-9.605 Y-70.826 E60.55479
G1 X-8.611 Y-71.422 E60.68778
G1 X-7.615 Y-71.937 E60.81644
G1 X-6.744 Y-72.323 E60.92576
G1 X-5.758 Y-72.694 E61.04665
G1 X-4.626 Y-73.042 E61.18254
G1 X-3.827 Y-73.238 E61.27694
G1 X-2.468 Y-73.486 E61.43546
G1 X-1.628 Y-73.584 E61.5325
G1 X-.7 Y-73.644 E61.63921
G1 X0.335 Y-73.653 E61.75798
G1 X1.769 Y-73.572 E61.92279
G1 X2.5 Y-73.483 E62.00729
G1 X3.849 Y-73.234 E62.1647
G1 X4.599 Y-73.05 E62.25331
G1 X5.901 Y-72.645 E62.40977
G1 X6.754 Y-72.32 E62.51451
G1 X7.643 Y-71.923 E62.62623
G1 X8.648 Y-71.4 E62.75624
G1 X9.65 Y-70.795 E62.89055
G1 X10.432 Y-70.256 E62.99953
G1 X11.327 Y-69.557 E63.12984
G1 X12.116 Y-68.861 E63.25056
G1 X12.842 Y-68.142 E63.36781
