;FLAVOR:Marlin
;TIME:3613
;Filament used: 4.19016m
;Layer height: 0.2
;MINX:-22.106
;MINY:-86.458
;MINZ:0.3
;MAXX:23.494
;MAXY:-40.858
;MAXZ:44.9
;TARGET_MACHINE.NAME:Unknown
;POSTPROCESSED
;  [CreateThumbnail]
;Generated with Cura_SteamEngine 5.11.0
;
;

M140 S60
M105
M190 S60
M104 S200
M105
M109 S200
;FLAVOR:Marlin
M82 ;absolute extrusion mode
G21
G90
M82
M107 T0
G28
G92 E0
G0 E3 F200
G92 E0 ; reset extrusion distance
M106 S255 ; Enable cooling fan full speed
G1 X-98 Y0 Z0.4 F3000 ; move to arc start
G3 X0 Y-98 I98 Z0.4 E40 F400 ; lay arc stripe 90deg
G92 E0 ; reset extrusion distance
G4 P500 ; wait for 0.5 sec
G0 Z10 E-1 ; Lift 15mm and retract 1mm filament
G4 P2000 ; wait for 5 sec
G0 Z15
M107 ; Disable cooling fan
G1 X0 Y-85 Z4 E0 F3000 ; get off the bed
M82 ;absolute extrusion mode
G92 E0
G92 E0
G1 F1500 E-6.5
;LAYER_COUNT:224
;LAYER:0
M107
G0 F3600 X-15.023 Y-40.858 Z0.3
;TYPE:SKIRT
G1 F1500 E0
G1 F1800 X-17.024 Y-41.297 E0.1022
G1 X-18.81 Y-42.297 E0.20432
G1 X-19.753 Y-43.036 E0.2641
G1 X-20.834 Y-44.382 E0.35022
G1 X-21.832 Y-46.398 E0.46245
G1 X-22.054 Y-47.904 E0.5384
G1 X-22.106 Y-79.28 E2.10376
G1 X-21.684 Y-81.337 E2.20852
G1 X-20.689 Y-83.108 E2.30986
G1 X-19.916 Y-84.106 E2.37284
G1 X-18.563 Y-85.198 E2.45959
G1 X-16.584 Y-86.184 E2.56989
G1 X-15.06 Y-86.406 E2.64673
G1 X16.316 Y-86.458 E4.21209
G1 X18.373 Y-86.036 E4.31685
G1 X20.144 Y-85.041 E4.41819
G1 X21.142 Y-84.268 E4.48117
G1 X22.234 Y-82.915 E4.56792
G1 X23.22 Y-80.936 E4.67823
G1 X23.442 Y-79.412 E4.75506
G1 X23.494 Y-48.036 E6.32042
G1 X23.072 Y-45.979 E6.42518
G1 X22.077 Y-44.208 E6.52653
G1 X21.304 Y-43.21 E6.5895
G1 X19.951 Y-42.118 E6.67625
G1 X17.972 Y-41.132 E6.78656
G1 X16.448 Y-40.91 E6.86339
G1 X-15.023 Y-40.858 E8.43349
G0 F3600 X-14.978 Y-41.258
G1 F1800 X-16.882 Y-41.676 E8.53074
G1 X-18.563 Y-42.612 E8.62673
G1 X-19.469 Y-43.322 E8.68416
G1 X-20.498 Y-44.603 E8.76613
G1 X-21.445 Y-46.516 E8.87263
G1 X-21.658 Y-47.962 E8.94555
G1 X-21.706 Y-79.239 E10.50596
G1 X-21.304 Y-81.196 E10.60564
G1 X-20.373 Y-82.863 E10.7009
G1 X-19.628 Y-83.825 E10.7616
G1 X-18.346 Y-84.859 E10.84377
G1 X-16.464 Y-85.797 E10.94868
G1 X-15.002 Y-86.01 E11.02239
G1 X16.275 Y-86.058 E12.58281
G1 X18.232 Y-85.656 E12.68248
G1 X19.899 Y-84.725 E12.77774
G1 X20.861 Y-83.98 E12.83844
G1 X21.895 Y-82.698 E12.92061
G1 X22.833 Y-80.816 E13.02552
G1 X23.046 Y-79.354 E13.09923
G1 X23.094 Y-48.077 E14.65965
G1 X22.692 Y-46.12 E14.75932
G1 X21.761 Y-44.453 E14.85458
G1 X21.016 Y-43.491 E14.91528
G1 X19.734 Y-42.457 E14.99745
G1 X17.852 Y-41.519 E15.10236
G1 X16.39 Y-41.306 E15.17607
G1 X-14.978 Y-41.258 E16.74103
G0 F3600 X-14.933 Y-41.658
G1 F1800 X-16.739 Y-42.055 E16.83328
G1 X-18.316 Y-42.927 E16.92319
G1 X-19.185 Y-43.608 E16.97827
G1 X-20.162 Y-44.824 E17.05609
G1 X-21.058 Y-46.634 E17.15685
G1 X-21.262 Y-48.02 E17.22674
G1 X-21.306 Y-79.197 E18.78217
G1 X-20.924 Y-81.055 E18.87681
G1 X-20.057 Y-82.618 E18.96598
G1 X-19.34 Y-83.544 E19.02441
G1 X-18.129 Y-84.52 E19.102
G1 X-16.344 Y-85.41 E19.20151
G1 X-14.944 Y-85.614 E19.2721
G1 X16.233 Y-85.658 E20.82753
G1 X18.091 Y-85.276 E20.92216
G1 X19.654 Y-84.409 E21.01133
G1 X20.58 Y-83.692 E21.06976
G1 X21.556 Y-82.481 E21.14736
G1 X22.446 Y-80.696 E21.24687
G1 X22.65 Y-79.296 E21.31745
G1 X22.694 Y-48.119 E22.87288
G1 X22.312 Y-46.261 E22.96751
G1 X21.445 Y-44.698 E23.05669
G1 X20.728 Y-43.772 E23.11511
G1 X19.517 Y-42.796 E23.19271
G1 X17.732 Y-41.906 E23.29222
G1 X16.332 Y-41.702 E23.3628
G1 X-14.933 Y-41.658 E24.92262
G0 F3600 X-14.888 Y-42.058
G1 F1800 X-16.597 Y-42.434 E25.00992
G1 X-18.069 Y-43.242 E25.0937
G1 X-18.901 Y-43.894 E25.14643
G1 X-19.823 Y-45.041 E25.21985
G1 X-20.671 Y-46.755 E25.31526
G1 X-20.866 Y-48.078 E25.38198
G1 X-20.906 Y-79.155 E26.93242
G1 X-20.544 Y-80.915 E27.02206
G1 X-19.707 Y-82.424 E27.10815
G1 X-19.055 Y-83.26 E27.16104
G1 X-17.909 Y-84.183 E27.23446
G1 X-16.224 Y-85.023 E27.32839
G1 X-14.886 Y-85.218 E27.39585
G1 X16.191 Y-85.258 E28.94629
G1 X17.951 Y-84.896 E29.03593
G1 X19.46 Y-84.059 E29.12202
G1 X20.296 Y-83.407 E29.17491
G1 X21.219 Y-82.261 E29.24833
G1 X22.059 Y-80.576 E29.34226
G1 X22.254 Y-79.238 E29.40972
G1 X22.294 Y-48.161 E30.96016
G1 X21.932 Y-46.401 E31.0498
G1 X21.095 Y-44.892 E31.13589
G1 X20.443 Y-44.056 E31.18878
G1 X19.297 Y-43.133 E31.2622
G1 X17.612 Y-42.293 E31.35613
G1 X16.274 Y-42.098 E31.42359
G1 X-14.888 Y-42.058 E32.97827
G0 F3600 X-14.843 Y-42.458
G1 F1800 X-16.457 Y-42.813 E33.06071
G1 X-17.822 Y-43.557 E33.13827
G1 X-18.62 Y-44.182 E33.18884
G1 X-19.485 Y-45.259 E33.25776
G1 X-20.284 Y-46.873 E33.34761
G1 X-20.47 Y-48.136 E33.4113
G1 X-20.506 Y-79.113 E34.95675
G1 X-20.164 Y-80.775 E35.0414
G1 X-19.357 Y-82.23 E35.12441
G1 X-18.771 Y-82.975 E35.1717
G1 X-17.689 Y-83.846 E35.241
G1 X-16.104 Y-84.636 E35.32935
G1 X-14.828 Y-84.822 E35.39368
G1 X16.149 Y-84.858 E36.93913
G1 X17.811 Y-84.516 E37.02379
G1 X19.266 Y-83.709 E37.1068
G1 X20.011 Y-83.123 E37.15409
G1 X20.882 Y-82.041 E37.22338
G1 X21.672 Y-80.456 E37.31174
G1 X21.858 Y-79.18 E37.37607
G1 X21.894 Y-48.203 E38.92152
G1 X21.552 Y-46.541 E39.00617
G1 X20.745 Y-45.086 E39.08918
G1 X20.159 Y-44.341 E39.13647
G1 X19.077 Y-43.47 E39.20577
G1 X17.492 Y-42.68 E39.29412
G1 X16.216 Y-42.494 E39.35846
G1 X-14.843 Y-42.458 E40.908
G0 F3600 X-14.798 Y-42.858
G1 F1800 X-16.317 Y-43.192 E40.98559
G1 X-17.575 Y-43.872 E41.05693
G1 X-18.336 Y-44.468 E41.10516
G1 X-19.149 Y-45.48 E41.16992
G1 X-19.897 Y-46.991 E41.25404
G1 X-20.074 Y-48.194 E41.3147
G1 X-20.106 Y-79.071 E42.85516
G1 X-19.784 Y-80.635 E42.93483
G1 X-19.007 Y-82.036 E43.01475
G1 X-18.486 Y-82.69 E43.05647
G1 X-17.471 Y-83.507 E43.12147
G1 X-15.983 Y-84.249 E43.20443
G1 X-14.77 Y-84.426 E43.26559
G1 X16.107 Y-84.458 E44.80605
G1 X17.671 Y-84.136 E44.88571
G1 X19.072 Y-83.359 E44.96564
G1 X19.726 Y-82.838 E45.00735
G1 X20.543 Y-81.823 E45.07236
G1 X21.285 Y-80.335 E45.15531
G1 X21.462 Y-79.122 E45.21647
G1 X21.494 Y-48.245 E46.75693
G1 X21.172 Y-46.681 E46.8366
G1 X20.395 Y-45.28 E46.91652
G1 X19.874 Y-44.626 E46.95824
G1 X18.859 Y-43.809 E47.02324
G1 X17.371 Y-43.067 E47.1062
G1 X16.158 Y-42.89 E47.16736
G1 X-14.798 Y-42.858 E48.71176
G0 F3600 X-14.753 Y-43.258
G1 F1800 X-16.176 Y-43.571 E48.78445
G1 X-17.328 Y-44.187 E48.84962
G1 X-18.052 Y-44.754 E48.8955
G1 X-18.813 Y-45.701 E48.95611
G1 X-19.51 Y-47.109 E49.03449
G1 X-19.678 Y-48.252 E49.09213
G1 X-19.706 Y-79.029 E50.6276
G1 X-19.404 Y-80.496 E50.70233
G1 X-18.694 Y-81.787 E50.77583
G1 X-18.202 Y-82.404 E50.8152
G1 X-17.251 Y-83.17 E50.87613
G1 X-15.863 Y-83.862 E50.9535
G1 X-14.712 Y-84.03 E51.01153
G1 X16.065 Y-84.058 E52.54701
G1 X17.532 Y-83.756 E52.62173
G1 X18.823 Y-83.046 E52.69524
G1 X19.44 Y-82.554 E52.73461
G1 X20.206 Y-81.603 E52.79553
G1 X20.898 Y-80.215 E52.87291
G1 X21.066 Y-79.064 E52.93094
G1 X21.094 Y-48.287 E54.46641
G1 X20.792 Y-46.82 E54.54113
G1 X20.082 Y-45.529 E54.61464
G1 X19.59 Y-44.912 E54.65401
G1 X18.639 Y-44.146 E54.71493
G1 X17.251 Y-43.454 E54.79231
G1 X16.1 Y-43.286 E54.85034
G1 X-14.753 Y-43.258 E56.3896
G0 F3600 X-14.708 Y-43.658
G1 F1800 X-16.036 Y-43.95 E56.45744
G1 X-17.139 Y-44.54 E56.51985
G1 X-17.767 Y-45.039 E56.55986
G1 X-18.477 Y-45.922 E56.61639
G1 X-19.123 Y-47.227 E56.68904
G1 X-19.282 Y-48.31 E56.74365
G1 X-19.306 Y-78.987 E58.27413
G1 X-19.024 Y-80.358 E58.34396
G1 X-18.381 Y-81.538 E58.41101
G1 X-17.916 Y-82.121 E58.44821
G1 X-17.035 Y-82.831 E58.50466
G1 X-15.743 Y-83.475 E58.57668
G1 X-14.654 Y-83.634 E58.63159
G1 X16.023 Y-83.658 E60.16207
G1 X17.394 Y-83.376 E60.2319
G1 X18.574 Y-82.733 E60.29895
G1 X19.157 Y-82.268 E60.33615
G1 X19.867 Y-81.387 E60.3926
G1 X20.511 Y-80.095 E60.46462
G1 X20.67 Y-79.006 E60.51953
G1 X20.694 Y-48.329 E62.05001
G1 X20.412 Y-46.958 E62.11984
G1 X19.769 Y-45.778 E62.18689
G1 X19.304 Y-45.195 E62.22409
G1 X18.423 Y-44.485 E62.28054
G1 X17.131 Y-43.841 E62.35256
G1 X16.042 Y-43.682 E62.40747
G1 X-14.708 Y-43.658 E63.94159
G0 F3600 X-14.663 Y-44.058
G1 F1800 X-15.896 Y-44.329 E64.00458
G1 X-16.95 Y-44.893 E64.06422
G1 X-17.481 Y-45.322 E64.09827
G1 X-18.141 Y-46.143 E64.15083
G1 X-18.736 Y-47.345 E64.21774
G1 X-18.886 Y-48.368 E64.26932
G1 X-18.906 Y-78.945 E65.79482
G1 X-18.644 Y-80.22 E65.85976
G1 X-18.068 Y-81.289 E65.92034
G1 X-17.632 Y-81.836 E65.95524
G1 X-16.815 Y-82.494 E66.00757
G1 X-15.623 Y-83.088 E66.07402
G1 X-14.596 Y-83.238 E66.1258
G1 X15.981 Y-83.258 E67.65129
G1 X17.256 Y-82.996 E67.71623
G1 X18.325 Y-82.42 E67.77681
G1 X18.872 Y-81.984 E67.81171
G1 X19.53 Y-81.167 E67.86405
G1 X20.124 Y-79.975 E67.93049
G1 X20.274 Y-78.948 E67.98227
G1 X20.294 Y-48.371 E69.50776
G1 X20.032 Y-47.096 E69.5727
G1 X19.456 Y-46.027 E69.63328
G1 X19.02 Y-45.48 E69.66818
G1 X18.203 Y-44.822 E69.72052
G1 X17.011 Y-44.228 E69.78696
G1 X15.984 Y-44.078 E69.83874
G1 X-14.663 Y-44.058 E71.36773
G0 F3600 X-14.618 Y-44.458
G1 F1800 X-15.756 Y-44.708 E71.42586
G1 X-16.728 Y-45.228 E71.48085
G1 X-17.195 Y-45.606 E71.51083
G1 X-17.805 Y-46.364 E71.55937
G1 X-18.349 Y-47.463 E71.62055
G1 X-18.49 Y-48.426 E71.66911
G1 X-18.506 Y-78.904 E73.18966
G1 X-18.264 Y-80.082 E73.24966
G1 X-17.716 Y-81.099 E73.30729
G1 X-17.35 Y-81.549 E73.33623
G1 X-16.595 Y-82.157 E73.38459
G1 X-15.503 Y-82.701 E73.44546
G1 X-14.538 Y-82.842 E73.49412
G1 X15.94 Y-82.858 E75.01467
G1 X17.118 Y-82.616 E75.07467
G1 X18.135 Y-82.068 E75.1323
G1 X18.585 Y-81.702 E75.16124
G1 X19.193 Y-80.947 E75.2096
G1 X19.737 Y-79.855 E75.27047
G1 X19.878 Y-78.89 E75.31913
G1 X19.894 Y-48.412 E76.83968
G1 X19.652 Y-47.234 E76.89968
G1 X19.104 Y-46.217 E76.95731
G1 X18.738 Y-45.767 E76.98625
G1 X17.983 Y-45.159 E77.03461
G1 X16.891 Y-44.615 E77.09548
G1 X15.926 Y-44.474 E77.14414
G1 X-14.618 Y-44.458 E78.66798
G0 F3600 X-14.573 Y-44.858
G1 F1800 X-15.616 Y-45.087 E78.72126
G1 X-16.539 Y-45.581 E78.77349
G1 X-16.908 Y-45.888 E78.79743
G1 X-17.467 Y-46.583 E78.84193
G1 X-17.962 Y-47.582 E78.89755
G1 X-18.094 Y-48.484 E78.94303
G1 X-18.106 Y-78.863 E80.45865
G1 X-17.884 Y-79.944 E80.51371
G1 X-17.401 Y-80.852 E80.56502
G1 X-17.099 Y-81.237 E80.58943
G1 X-16.375 Y-81.82 E80.6358
G1 X-15.383 Y-82.314 E80.69109
G1 X-14.48 Y-82.446 E80.73662
G1 X15.899 Y-82.458 E82.25224
G1 X16.98 Y-82.236 E82.30729
G1 X17.888 Y-81.753 E82.3586
G1 X18.273 Y-81.451 E82.38302
G1 X18.856 Y-80.727 E82.42939
G1 X19.35 Y-79.735 E82.48468
G1 X19.482 Y-78.832 E82.53021
G1 X19.494 Y-48.453 E84.04582
G1 X19.272 Y-47.372 E84.10088
G1 X18.789 Y-46.464 E84.15219
G1 X18.487 Y-46.079 E84.1766
G1 X17.763 Y-45.496 E84.22298
G1 X16.771 Y-45.002 E84.27827
G1 X15.868 Y-44.87 E84.3238
G1 X-14.573 Y-44.858 E85.8425
G0 F3600 X-14.528 Y-45.258
G1 F1800 X-15.476 Y-45.466 E85.89093
G1 X-16.35 Y-45.934 E85.94039
G1 X-16.596 Y-46.139 E85.95636
G1 X-17.129 Y-46.802 E85.9988
G1 X-17.575 Y-47.701 E86.04887
G1 X-17.698 Y-48.542 E86.09128
G1 X-17.706 Y-78.822 E87.60195
G1 X-17.504 Y-79.808 E87.65216
G1 X-17.08 Y-80.613 E87.69756
G1 X-16.848 Y-80.925 E87.71695
G1 X-16.155 Y-81.483 E87.76134
G1 X-15.263 Y-81.927 E87.81105
G1 X-14.422 Y-82.05 E87.85346
G1 X15.858 Y-82.058 E89.36413
G1 X16.844 Y-81.856 E89.41435
G1 X17.649 Y-81.432 E89.45974
G1 X17.961 Y-81.2 E89.47913
G1 X18.519 Y-80.507 E89.52352
G1 X18.963 Y-79.615 E89.57323
G1 X19.086 Y-78.774 E89.61564
G1 X19.094 Y-48.494 E91.12631
G1 X18.892 Y-47.508 E91.17653
G1 X18.468 Y-46.703 E91.22192
G1 X18.236 Y-46.391 E91.24132
G1 X17.543 Y-45.833 E91.2857
G1 X16.651 Y-45.389 E91.33541
G1 X15.81 Y-45.266 E91.37782
G1 X-14.528 Y-45.258 E92.89139
G0 F3600 X-14.483 Y-45.658
G1 F1800 X-15.336 Y-45.845 E92.93495
G1 X-16.161 Y-46.287 E92.98165
G1 X-16.284 Y-46.39 E92.98965
G1 X-16.791 Y-47.021 E93.03004
G1 X-17.188 Y-47.821 E93.07459
G1 X-17.302 Y-48.6 E93.11387
G1 X-17.306 Y-78.781 E94.61961
G1 X-17.124 Y-79.671 E94.66493
G1 X-16.726 Y-80.426 E94.70751
G1 X-16.557 Y-80.646 E94.72135
G1 X-15.939 Y-81.144 E94.76095
G1 X-15.143 Y-81.54 E94.8053
G1 X-14.364 Y-81.654 E94.84458
G1 X15.817 Y-81.658 E96.35032
G1 X16.707 Y-81.476 E96.39564
G1 X17.462 Y-81.078 E96.43822
G1 X17.682 Y-80.909 E96.45206
G1 X18.18 Y-80.291 E96.49166
G1 X18.576 Y-79.495 E96.53601
G1 X18.69 Y-78.716 E96.57529
G1 X18.694 Y-48.535 E98.08103
G1 X18.512 Y-47.645 E98.12635
G1 X18.114 Y-46.89 E98.16893
G1 X17.945 Y-46.67 E98.18277
G1 X17.327 Y-46.172 E98.22236
G1 X16.531 Y-45.776 E98.26672
G1 X15.752 Y-45.662 E98.306
G1 X-14.483 Y-45.658 E99.81443
G0 F3600 X-14.438 Y-46.058
G1 F1800 X-15.196 Y-46.224 E99.85314
G1 X-15.972 Y-46.64 E99.89707
G1 X-16.452 Y-47.238 E99.93532
G1 X-16.801 Y-47.941 E99.97448
G1 X-16.906 Y-48.658 E100.01063
G1 X-16.906 Y-78.74 E101.51143
G1 X-16.743 Y-79.536 E101.55197
G1 X-16.372 Y-80.24 E101.59167
G1 X-16.269 Y-80.365 E101.59975
G1 X-15.723 Y-80.805 E101.63473
G1 X-15.023 Y-81.153 E101.67374
G1 X-14.306 Y-81.258 E101.70989
G1 X15.776 Y-81.258 E103.21069
G1 X16.572 Y-81.095 E103.25122
G1 X17.276 Y-80.724 E103.29092
G1 X17.401 Y-80.621 E103.299
G1 X17.841 Y-80.075 E103.33399
G1 X18.189 Y-79.375 E103.37299
G1 X18.294 Y-78.658 E103.40914
G1 X18.294 Y-48.576 E104.90994
G1 X18.131 Y-47.78 E104.95048
G1 X17.76 Y-47.076 E104.99018
G1 X17.657 Y-46.951 E104.99826
G1 X17.111 Y-46.511 E105.03324
G1 X16.411 Y-46.163 E105.07224
G1 X15.694 Y-46.058 E105.1084
G1 X-14.438 Y-46.058 E106.61169
G0 F3600 X-14.393 Y-46.458
G1 F1800 X-15.059 Y-46.604 E106.6457
G1 X-15.709 Y-46.953 E106.68251
G1 X-16.114 Y-47.457 E106.71477
G1 X-16.415 Y-48.063 E106.74852
G1 X-16.506 Y-48.658 E106.77855
G1 X-16.506 Y-78.699 E108.27731
G1 X-16.362 Y-79.401 E108.31306
G1 X-16.018 Y-80.054 E108.34988
G1 X-15.507 Y-80.466 E108.38263
G1 X-14.901 Y-80.767 E108.41639
G1 X-14.306 Y-80.858 E108.44642
G1 X15.735 Y-80.858 E109.94517
G1 X16.437 Y-80.714 E109.98092
G1 X17.09 Y-80.37 E110.01774
G1 X17.502 Y-79.859 E110.05049
G1 X17.803 Y-79.253 E110.08425
G1 X17.894 Y-78.658 E110.11428
G1 X17.894 Y-48.617 E111.61303
G1 X17.75 Y-47.915 E111.64878
G1 X17.406 Y-47.262 E111.6856
G1 X16.895 Y-46.85 E111.71835
G1 X16.289 Y-46.549 E111.75211
G1 X15.694 Y-46.458 E111.78214
G1 X-14.393 Y-46.458 E113.28319
G0 F3600 X-14.348 Y-46.858
G1 F1800 X-14.922 Y-46.984 E113.3125
G1 X-15.447 Y-47.266 E113.34224
G1 X-15.756 Y-47.635 E113.36625
G1 X-16.029 Y-48.184 E113.39684
G1 X-16.106 Y-48.658 E113.4208
G1 X-16.106 Y-78.658 E114.9175
G1 X-15.982 Y-79.264 E114.94836
G1 X-15.701 Y-79.796 E114.97838
G1 X-15.329 Y-80.108 E115.0026
G1 X-14.78 Y-80.381 E115.03319
G1 X-14.306 Y-80.458 E115.05715
G1 X15.694 Y-80.458 E116.55385
G1 X16.3 Y-80.334 E116.58471
G1 X16.832 Y-80.053 E116.61473
G1 X17.144 Y-79.681 E116.63895
G1 X17.417 Y-79.132 E116.66954
G1 X17.494 Y-78.658 E116.6935
G1 X17.494 Y-48.658 E118.19021
G1 X17.37 Y-48.052 E118.22107
G1 X17.089 Y-47.52 E118.25108
G1 X16.717 Y-47.208 E118.27531
G1 X16.168 Y-46.935 E118.30589
G1 X15.694 Y-46.858 E118.32985
G1 X-14.348 Y-46.858 E119.82865
G0 F3600 X-14.348 Y-47.258
G1 F1800 X-14.829 Y-47.373 E119.85333
G1 X-15.189 Y-47.581 E119.87407
G1 X-15.398 Y-47.813 E119.88965
G1 X-15.644 Y-48.307 E119.91718
G1 X-15.706 Y-48.658 E119.93496
G1 X-15.706 Y-78.658 E121.43167
G1 X-15.628 Y-79.077 E121.45293
G1 X-15.383 Y-79.541 E121.47911
G1 X-15.151 Y-79.75 E121.49469
G1 X-14.657 Y-79.996 E121.52222
G1 X-14.306 Y-80.058 E121.54
G1 X15.694 Y-80.058 E123.03671
G1 X16.113 Y-79.98 E123.05797
G1 X16.577 Y-79.735 E123.08415
G1 X16.786 Y-79.503 E123.09973
G1 X17.032 Y-79.009 E123.12726
G1 X17.094 Y-78.658 E123.14505
G1 X17.094 Y-48.658 E124.64175
G1 X17.016 Y-48.239 E124.66301
G1 X16.771 Y-47.775 E124.68919
G1 X16.539 Y-47.566 E124.70477
G1 X16.045 Y-47.32 E124.7323
