;FLAVOR:Marlin
;TIME:1856
;Filament used: 1.65409m
;Layer height: 0.24
;MINX:-56.421
;MINY:-13.677
;MINZ:0.3
;MAXX:13.492
;MAXY:13.699
;MAXZ:25
;Generated with Cura_SteamEngine 4.12.1
M140 S50
M105
M190 S50
M104 S210
M105
M109 S210
M82 ;absolute extrusion mode
;FLAVOR:Marlin
M82 ;absolute extrusion mode
G21
G90
M82
M107 T0
G28
G92 E0
G0 E3 F200
G92 E0 ; reset extrusion distance
M106 S255 ; Enable cooling fan full speed
G1 X-98 Y0 Z0.4 F3000 ; move to arc start
G3 X0 Y-98 I98 Z0.4 E40 F400 ; lay arc stripe 90deg
G92 E0 ; reset extrusion distance
G4 P500 ; wait for 0.5 sec
G0 Z10 E-1 ; Lift 15mm and retract 1mm filament
G4 P2000 ; wait for 5 sec
G0 Z15
M107 ; Disable cooling fan
G1 X0 Y-85 Z4 E0 F3000 ; get off the bed
G92 E0
G92 E0
G1 F1500 E-7
;LAYER_COUNT:84
;LAYER:0
M107
G1 F600 Z1.3
G0 F3600 X-35.391 Y-5.444 Z1.3
;TYPE:SKIRT
G1 F600 Z0.3
G1 F1500 E0.41575
G1 F2400 X-35.531 Y-4.73 E0.45205
G1 X-35.742 Y-4.036 E0.48824
G1 X-36.026 Y-3.357 E0.52496
G1 X-36.379 Y-2.713 E0.5616
G1 X-36.788 Y-2.115 E0.59774
G1 X-37.258 Y-1.559 E0.63407
G1 X-37.787 Y-1.048 E0.67076
G1 X-38.36 Y-.599 E0.70708
G1 X-38.983 Y-.204 E0.74388
G1 X-39.633 Y0.12 E0.78011
G1 X-40.307 Y0.375 E0.81607
G1 X-41.014 Y0.564 E0.85258
G1 X-41.734 Y0.68 E0.88896
G1 X-42.466 Y0.722 E0.92554
G1 X-43.15 Y0.708 E0.95967
G1 X-43.762 Y0.664 E0.99029
G1 X-43.728 Y0.683 E0.99223
G1 X-42.863 Y1.311 E1.04556
G1 X-42.549 Y1.588 E1.06645
G1 X-42.294 Y1.92 E1.08733
G1 X-42.064 Y2.41 E1.11434
G1 X-41.733 Y3.426 E1.16765
G1 X-41.642 Y3.835 E1.18855
G1 X-41.63 Y4.253 E1.20942
G1 X-41.733 Y4.788 E1.2366
G1 X-42.064 Y5.804 E1.28991
G1 X-42.231 Y6.189 E1.31084
G1 X-42.468 Y6.534 E1.33173
G1 X-42.863 Y6.903 E1.35869
G1 X-43.728 Y7.531 E1.41202
G1 X-44.089 Y7.744 E1.43294
G1 X-44.484 Y7.885 E1.45386
G1 X-45.021 Y7.951 E1.48085
G1 X-45.615 Y7.951 E1.51049
G1 X-45.815 Y7.932 E1.52051
G1 X-45.815 Y9.116 E1.57958
G1 X-45.855 Y9.533 E1.60048
G1 X-45.973 Y9.935 E1.62138
G1 X-46.166 Y10.307 E1.64229
G1 X-46.425 Y10.636 E1.66318
G1 X-46.742 Y10.91 E1.68408
G1 X-47.105 Y11.119 E1.70498
G1 X-47.502 Y11.255 E1.72592
G1 X-48.014 Y11.316 E1.75164
G1 X-50.014 Y11.317 E1.85142
G1 X-50.431 Y11.277 E1.87232
G1 X-50.833 Y11.159 E1.89322
G1 X-51.206 Y10.967 E1.91415
G1 X-51.535 Y10.708 E1.93504
G1 X-51.809 Y10.391 E1.95595
G1 X-52.018 Y10.028 E1.97685
G1 X-52.154 Y9.631 E1.99778
G1 X-52.215 Y9.117 E2.02361
G1 X-52.215 Y7.935 E2.08258
G1 X-52.415 Y7.959 E2.09263
G1 X-53.015 Y7.959 E2.12256
G1 X-53.432 Y7.919 E2.14346
G1 X-53.834 Y7.801 E2.16436
G1 X-54.308 Y7.539 E2.19138
G1 X-55.183 Y6.903 E2.24535
G1 X-55.497 Y6.625 E2.26627
G1 X-55.753 Y6.293 E2.28719
G1 X-55.981 Y5.806 E2.31401
G1 X-56.317 Y4.778 E2.36797
G1 X-56.409 Y4.37 E2.38884
G1 X-56.421 Y3.951 E2.40975
G1 X-56.317 Y3.412 E2.43714
G1 X-55.981 Y2.384 E2.49109
G1 X-55.814 Y1.999 E2.51203
G1 X-55.576 Y1.654 E2.53294
G1 X-55.183 Y1.287 E2.55977
G1 X-54.308 Y0.651 E2.61374
G1 X-53.948 Y0.438 E2.6346
G1 X-53.553 Y0.298 E2.65551
G1 X-53.015 Y0.231 E2.68256
G1 X-52.414 Y0.231 E2.71254
G1 X-52.214 Y0.25 E2.72257
G1 X-52.213 Y-6.608 E3.06471
G1 X-52.17 Y-7.173 E3.09298
G1 X-52.055 Y-7.801 E3.12484
G1 X-51.892 Y-8.349 E3.15336
G1 X-51.664 Y-8.906 E3.18339
G1 X-51.381 Y-9.439 E3.21349
G1 X-50.998 Y-10.012 E3.24788
G1 X-50.635 Y-10.46 E3.27665
G1 X-50.276 Y-10.841 E3.30276
G1 X-49.896 Y-11.192 E3.32857
G1 X-49.495 Y-11.518 E3.35435
G1 X-48.907 Y-11.929 E3.39015
G1 X-48.366 Y-12.251 E3.42156
G1 X-47.91 Y-12.488 E3.44719
G1 X-47.392 Y-12.724 E3.47559
G1 X-46.624 Y-13.017 E3.5166
G1 X-45.986 Y-13.213 E3.5499
G1 X-45.164 Y-13.41 E3.59207
G1 X-44.64 Y-13.507 E3.61866
G1 X-43.863 Y-13.608 E3.65775
G1 X-43.355 Y-13.65 E3.68318
G1 X-42.543 Y-13.677 E3.72371
G1 X-41.845 Y-13.646 E3.75857
G1 X-41.119 Y-13.54 E3.79518
G1 X-40.409 Y-13.362 E3.83169
G1 X-39.732 Y-13.117 E3.86761
G1 X-39.075 Y-12.802 E3.90396
G1 X-38.443 Y-12.414 E3.94096
G1 X-37.875 Y-11.982 E3.97656
G1 X-37.336 Y-11.479 E4.01335
G1 X-36.857 Y-10.929 E4.04973
G1 X-36.437 Y-10.337 E4.08595
G1 X-36.076 Y-9.697 E4.1226
G1 X-35.785 Y-9.035 E4.15868
G1 X-35.56 Y-8.337 E4.19527
G1 X-35.409 Y-7.631 E4.23129
G1 X-35.328 Y-6.896 E4.26818
G1 X-35.323 Y-6.163 E4.30475
G1 X-35.341 Y-5.973 E4.31427
G0 F2160 X-35.391 Y-5.444
G0 F3600 X-35.787 Y-5.494
G1 F2400 X-35.921 Y-4.82 E4.34856
G1 X-36.121 Y-4.164 E4.38277
G1 X-36.39 Y-3.524 E4.41741
G1 X-36.723 Y-2.916 E4.45199
G1 X-37.11 Y-2.352 E4.48612
G1 X-37.555 Y-1.827 E4.52045
G1 X-38.054 Y-1.346 E4.55503
G1 X-38.596 Y-.921 E4.58939
G1 X-39.184 Y-.55 E4.62408
G1 X-39.798 Y-.244 E4.65831
G1 X-40.436 Y-0.004 E4.69231
G1 X-41.104 Y0.174 E4.7268
G1 X-41.784 Y0.283 E4.76116
G1 X-42.477 Y0.322 E4.79579
G1 X-43.135 Y0.308 E4.82862
G1 X-43.772 Y0.261 E4.86049
G1 X-44.288 Y0.266 E4.88624
G1 X-44.775 Y0.383 E4.91122
G1 X-45.201 Y0.597 E4.93501
G1 X-45.298 Y0.663 E4.94086
G1 X-44.644 Y0.703 E4.97355
G1 X-44.284 Y0.821 E4.99245
G1 X-43.963 Y1.006 E5.01094
G1 X-43.098 Y1.634 E5.06426
G1 X-42.817 Y1.888 E5.08316
G1 X-42.595 Y2.195 E5.10206
G1 X-42.445 Y2.533 E5.12051
G1 X-42.114 Y3.549 E5.17382
G1 X-42.035 Y3.92 E5.19275
G1 X-42.035 Y4.299 E5.21166
G1 X-42.114 Y4.665 E5.23034
G1 X-42.445 Y5.681 E5.28365
G1 X-42.599 Y6.027 E5.30254
G1 X-42.823 Y6.332 E5.32142
G1 X-43.098 Y6.58 E5.33989
G1 X-43.963 Y7.208 E5.39322
G1 X-44.292 Y7.397 E5.41215
G1 X-44.653 Y7.513 E5.43107
G1 X-45.021 Y7.551 E5.44953
G1 X-45.615 Y7.551 E5.47916
G1 X-45.992 Y7.511 E5.49808
G1 X-46.215 Y7.438 E5.50978
G1 X-46.215 Y9.116 E5.5935
G1 X-46.255 Y9.493 E5.61241
G1 X-46.373 Y9.853 E5.63131
G1 X-46.563 Y10.18 E5.65018
G1 X-46.818 Y10.461 E5.66911
G1 X-47.127 Y10.681 E5.68804
G1 X-47.474 Y10.833 E5.70694
G1 X-48.014 Y10.916 E5.73419
G1 X-50.014 Y10.917 E5.83397
G1 X-50.391 Y10.877 E5.85289
G1 X-50.751 Y10.76 E5.87177
G1 X-51.079 Y10.569 E5.89071
G1 X-51.359 Y10.314 E5.9096
G1 X-51.58 Y10.006 E5.92852
G1 X-51.731 Y9.659 E5.9474
G1 X-51.815 Y9.117 E5.97476
G1 X-51.815 Y7.45 E6.05793
G1 X-51.874 Y7.476 E6.06114
G1 X-52.415 Y7.559 E6.08845
G1 X-53.015 Y7.559 E6.11838
G1 X-53.392 Y7.519 E6.1373
G1 X-53.752 Y7.401 E6.1562
G1 X-54.073 Y7.215 E6.17471
G1 X-54.948 Y6.579 E6.22868
G1 X-55.23 Y6.325 E6.24761
G1 X-55.452 Y6.018 E6.26651
G1 X-55.601 Y5.682 E6.28485
G1 X-55.937 Y4.654 E6.33881
G1 X-56.016 Y4.284 E6.35768
G1 X-56.016 Y3.905 E6.37659
G1 X-55.937 Y3.536 E6.39542
G1 X-55.601 Y2.508 E6.44937
G1 X-55.446 Y2.162 E6.46829
G1 X-55.222 Y1.856 E6.48721
G1 X-54.948 Y1.611 E6.50555
G1 X-54.073 Y0.975 E6.55951
G1 X-53.745 Y0.786 E6.5784
G1 X-53.384 Y0.669 E6.59733
G1 X-53.015 Y0.631 E6.61584
G1 X-52.414 Y0.631 E6.64582
G1 X-52.037 Y0.671 E6.66474
G1 X-51.814 Y0.744 E6.67644
G1 X-51.813 Y-6.608 E7.04324
G1 X-51.775 Y-7.115 E7.0686
G1 X-51.665 Y-7.716 E7.09908
G1 X-51.518 Y-8.208 E7.1247
G1 X-51.299 Y-8.742 E7.1535
G1 X-51.041 Y-9.228 E7.18095
G1 X-50.674 Y-9.779 E7.21398
G1 X-50.328 Y-10.203 E7.24128
G1 X-49.9 Y-10.648 E7.27208
G1 X-49.325 Y-11.144 E7.30997
G1 X-48.685 Y-11.596 E7.34906
G1 X-48.167 Y-11.904 E7.37913
G1 X-47.444 Y-12.265 E7.41944
G1 X-46.881 Y-12.499 E7.44986
G1 X-46.093 Y-12.766 E7.49137
G1 X-45.485 Y-12.929 E7.52277
G1 X-44.645 Y-13.1 E7.56554
G1 X-43.818 Y-13.211 E7.60717
G1 X-42.964 Y-13.269 E7.64987
G1 X-42.536 Y-13.277 E7.67123
G1 X-41.875 Y-13.247 E7.70424
G1 X-41.19 Y-13.147 E7.73878
G1 X-40.52 Y-12.978 E7.77325
G1 X-39.879 Y-12.745 E7.80728
G1 X-39.259 Y-12.447 E7.8416
G1 X-38.664 Y-12.081 E7.87645
G1 X-38.127 Y-11.671 E7.91016
G1 X-37.619 Y-11.196 E7.94485
G1 X-37.167 Y-10.676 E7.97923
G1 X-36.771 Y-10.117 E8.01341
G1 X-36.43 Y-9.512 E8.04805
G1 X-36.156 Y-8.886 E8.08215
G1 X-35.945 Y-8.226 E8.11671
G1 X-35.802 Y-7.56 E8.1507
G1 X-35.727 Y-6.866 E8.18552
G1 X-35.723 Y-6.174 E8.22005
G1 X-35.738 Y-6.023 E8.22762
G0 F2160 X-35.787 Y-5.494
G0 F3600 X-36.184 Y-5.545
G1 F2400 X-36.311 Y-4.909 E8.25998
G1 X-36.5 Y-4.293 E8.29212
G1 X-36.754 Y-3.691 E8.32472
G1 X-37.067 Y-3.12 E8.35721
G1 X-37.432 Y-2.589 E8.38935
G1 X-37.851 Y-2.095 E8.42167
G1 X-38.322 Y-1.643 E8.45424
G1 X-38.832 Y-1.244 E8.48654
G1 X-39.385 Y-.896 E8.51914
G1 X-39.964 Y-.608 E8.5514
G1 X-40.565 Y-.382 E8.58344
G1 X-41.194 Y-.216 E8.61589
G1 X-41.834 Y-.114 E8.64823
G1 X-42.488 Y-0.077 E8.68091
G1 X-43.121 Y-0.092 E8.7125
G1 X-43.741 Y-.137 E8.74351
G1 X-44.335 Y-.131 E8.77315
G1 X-44.897 Y0.002 E8.80196
G1 X-45.421 Y0.262 E8.83114
G1 X-45.874 Y0.631 E8.86029
G1 X-46.222 Y1.075 E8.88844
G1 X-46.331 Y1.27 E8.89958
G1 X-46.126 Y1.16 E8.91119
G1 X-45.614 Y1.063 E8.93719
G1 X-45.021 Y1.063 E8.96677
G1 X-44.689 Y1.103 E8.98345
G1 X-44.198 Y1.33 E9.01044
G1 X-43.333 Y1.958 E9.06377
G1 X-43.089 Y2.185 E9.0804
G1 X-42.904 Y2.464 E9.0971
G1 X-42.825 Y2.657 E9.1075
G1 X-42.494 Y3.673 E9.16081
G1 X-42.429 Y4.001 E9.1775
G1 X-42.444 Y4.335 E9.19418
G1 X-42.494 Y4.541 E9.20475
G1 X-42.825 Y5.557 E9.25806
G1 X-42.965 Y5.86 E9.27471
G1 X-43.333 Y6.256 E9.30168
G1 X-44.198 Y6.884 E9.35501
G1 X-44.49 Y7.047 E9.3717
G1 X-45.021 Y7.151 E9.39869
G1 X-45.615 Y7.151 E9.42833
G1 X-45.947 Y7.111 E9.44501
G1 X-46.259 Y6.994 E9.46164
G1 X-46.615 Y6.718 E9.48411
G1 X-46.615 Y9.116 E9.60375
G1 X-46.655 Y9.448 E9.62043
G1 X-46.772 Y9.76 E9.63705
G1 X-46.96 Y10.037 E9.65375
G1 X-47.208 Y10.26 E9.67039
G1 X-47.502 Y10.419 E9.68707
G1 X-48.014 Y10.516 E9.71307
G1 X-50.014 Y10.517 E9.81285
G1 X-50.346 Y10.477 E9.82953
G1 X-50.659 Y10.36 E9.8462
G1 X-50.935 Y10.172 E9.86286
G1 X-51.159 Y9.924 E9.87954
G1 X-51.318 Y9.63 E9.89621
G1 X-51.415 Y9.117 E9.92226
G1 X-51.415 Y6.728 E10.04145
G1 X-51.609 Y6.903 E10.05448
G1 X-51.903 Y7.062 E10.07116
G1 X-52.415 Y7.159 E10.09715
G1 X-53.015 Y7.159 E10.12709
G1 X-53.347 Y7.119 E10.14377
G1 X-53.659 Y7.002 E10.1604
G1 X-53.838 Y6.891 E10.1709
G1 X-54.713 Y6.255 E10.22487
G1 X-54.958 Y6.028 E10.24153
G1 X-55.221 Y5.558 E10.2684
G1 X-55.557 Y4.53 E10.32236
G1 X-55.622 Y4.202 E10.33904
G1 X-55.608 Y3.869 E10.35567
G1 X-55.557 Y3.66 E10.3664
G1 X-55.221 Y2.632 E10.42036
G1 X-55.08 Y2.329 E10.43703
G1 X-54.713 Y1.935 E10.4639
G1 X-53.838 Y1.299 E10.51787
G1 X-53.546 Y1.136 E10.53455
G1 X-53.015 Y1.031 E10.56155
G1 X-52.414 Y1.031 E10.59154
G1 X-52.082 Y1.071 E10.60822
G1 X-51.77 Y1.188 E10.62485
G1 X-51.414 Y1.464 E10.64732
G1 X-51.413 Y-6.608 E11.05003
G1 X-51.344 Y-7.294 E11.08443
G1 X-51.172 Y-7.982 E11.11981
G1 X-50.935 Y-8.577 E11.15176
G1 X-50.557 Y-9.249 E11.19023
G1 X-50.262 Y-9.657 E11.21535
G1 X-49.759 Y-10.227 E11.25328
G1 X-49.361 Y-10.598 E11.28042
G1 X-48.773 Y-11.055 E11.31757
G1 X-48.293 Y-11.37 E11.34622
G1 X-47.619 Y-11.74 E11.38458
G1 X-47.077 Y-11.988 E11.41431
G1 X-46.355 Y-12.264 E11.45288
G1 X-45.767 Y-12.443 E11.48354
G1 X-44.992 Y-12.629 E11.5233
G1 X-44.169 Y-12.767 E11.56494
G1 X-43.363 Y-12.848 E11.60535
G1 X-42.53 Y-12.877 E11.64694
G1 X-42.473 Y-12.877 E11.64978
G1 X-41.905 Y-12.848 E11.67815
G1 X-41.261 Y-12.753 E11.71063
G1 X-40.63 Y-12.593 E11.74311
G1 X-40.027 Y-12.373 E11.77513
G1 X-39.444 Y-12.092 E11.80742
G1 X-38.885 Y-11.748 E11.84017
G1 X-38.378 Y-11.36 E11.87202
G1 X-37.902 Y-10.913 E11.90459
G1 X-37.476 Y-10.423 E11.93699
G1 X-37.105 Y-9.896 E11.96914
G1 X-36.785 Y-9.327 E12.00171
G1 X-36.527 Y-8.737 E12.03384
G1 X-36.329 Y-8.116 E12.06635
G1 X-36.196 Y-7.488 E12.09838
G1 X-36.126 Y-6.836 E12.1311
G1 X-36.123 Y-6.185 E12.16358
G1 X-36.134 Y-6.075 E12.16909
G0 F2160 X-36.184 Y-5.545
G0 F3600 X-36.581 Y-5.595
G1 F2400 X-36.7 Y-4.999 E12.19941
G1 X-36.879 Y-4.421 E12.2296
G1 X-37.117 Y-3.858 E12.26009
G1 X-37.411 Y-3.324 E12.29051
G1 X-37.754 Y-2.826 E12.32067
G1 X-38.148 Y-2.364 E12.35097
G1 X-38.589 Y-1.941 E12.38145
G1 X-39.068 Y-1.567 E12.41177
G1 X-39.586 Y-1.242 E12.44228
G1 X-40.129 Y-.973 E12.47251
G1 X-40.695 Y-.761 E12.50267
G1 X-41.284 Y-.606 E12.53305
G1 X-41.885 Y-.511 E12.56341
G1 X-42.498 Y-.477 E12.59404
G1 X-43.106 Y-.492 E12.62438
G1 X-43.707 Y-.536 E12.65445
G1 X-44.209 Y-.545 E12.6795
G1 X-44.72 Y-.468 E12.70528
G1 X-45.338 Y-.244 E12.73807
G1 X-45.773 Y0.018 E12.76341
G1 X-46.162 Y0.353 E12.78902
G1 X-46.565 Y0.869 E12.82168
G1 X-46.794 Y1.321 E12.84696
G1 X-46.95 Y1.824 E12.87324
G1 X-47.015 Y2.534 E12.90881
G1 X-47.015 Y9.116 E13.23718
G1 X-47.055 Y9.395 E13.25125
G1 X-47.171 Y9.652 E13.26531
G1 X-47.354 Y9.867 E13.2794
G1 X-47.59 Y10.021 E13.29346
G1 X-48.015 Y10.116 E13.31518
G1 X-50.015 Y10.117 E13.41496
G1 X-50.294 Y10.077 E13.42903
G1 X-50.551 Y9.961 E13.44309
G1 X-50.765 Y9.778 E13.45714
G1 X-50.92 Y9.542 E13.47123
G1 X-51.015 Y9.117 E13.49295
G1 X-51.013 Y-6.608 E14.27748
G1 X-50.948 Y-7.235 E14.30893
G1 X-50.789 Y-7.866 E14.34139
G1 X-50.57 Y-8.412 E14.37074
G1 X-50.218 Y-9.038 E14.40657
G1 X-49.714 Y-9.69 E14.44769
G1 X-49.343 Y-10.074 E14.47432
G1 X-48.822 Y-10.522 E14.5086
G1 X-48.242 Y-10.93 E14.54398
G1 X-47.769 Y-11.21 E14.57141
G1 X-47.104 Y-11.541 E14.60847
G1 X-46.582 Y-11.757 E14.63665
G1 X-45.854 Y-12.002 E14.67497
G1 X-45.287 Y-12.154 E14.70426
G1 X-44.501 Y-12.314 E14.74428
G1 X-43.726 Y-12.416 E14.78327
G1 X-42.925 Y-12.47 E14.82333
G1 X-42.483 Y-12.477 E14.84538
G1 X-41.935 Y-12.449 E14.87276
G1 X-41.332 Y-12.359 E14.90317
G1 X-40.741 Y-12.209 E14.93359
G1 X-40.174 Y-12.002 E14.96371
G1 X-39.629 Y-11.737 E14.99394
G1 X-39.106 Y-11.414 E15.02461
G1 X-38.629 Y-11.049 E15.05458
G1 X-38.185 Y-10.63 E15.08503
G1 X-37.786 Y-10.17 E15.11541
G1 X-37.438 Y-9.675 E15.1456
G1 X-37.14 Y-9.142 E15.17607
G1 X-36.898 Y-8.588 E15.20623
G1 X-36.714 Y-8.006 E15.23668
G1 X-36.589 Y-7.416 E15.26677
G1 X-36.525 Y-6.806 E15.29737
G1 X-36.522 Y-6.196 E15.3278
G1 X-36.529 Y-6.125 E15.33136
G0 F2160 X-36.581 Y-5.595
G0 F3600 X-36.978 Y-5.645
G1 F2400 X-37.09 Y-5.089 E15.35966
G1 X-37.258 Y-4.549 E15.38787
G1 X-37.481 Y-4.025 E15.41628
G1 X-37.756 Y-3.527 E15.44466
G1 X-38.077 Y-3.063 E15.47281
G1 X-38.445 Y-2.632 E15.50109
G1 X-38.857 Y-2.238 E15.52953
G1 X-39.305 Y-1.89 E15.55783
G1 X-39.787 Y-1.587 E15.58623
G1 X-40.295 Y-1.337 E15.61448
G1 X-40.824 Y-1.139 E15.64266
G1 X-41.374 Y-.995 E15.67103
G1 X-41.935 Y-.908 E15.69935
G1 X-42.509 Y-.877 E15.72803
G1 X-43.092 Y-.891 E15.75712
G1 X-43.672 Y-.934 E15.78614
G1 X-44.263 Y-.942 E15.81563
G1 X-44.816 Y-.857 E15.84354
G1 X-45.332 Y-.686 E15.87066
G1 X-45.854 Y-.41 E15.90012
G1 X-46.308 Y-0.061 E15.92869
G1 X-46.684 Y0.341 E15.95615
G1 X-46.996 Y0.812 E15.98433
G1 X-47.225 Y1.329 E16.01254
G1 X-47.368 Y1.885 E16.04119
G1 X-47.415 Y2.525 E16.0732
G1 X-47.415 Y9.116 E16.40203
G1 X-47.455 Y9.331 E16.41294
G1 X-47.568 Y9.517 E16.4238
G1 X-47.741 Y9.65 E16.43468
G1 X-48.015 Y9.716 E16.44874
G1 X-50.015 Y9.717 E16.54852
G1 X-50.229 Y9.677 E16.55939
G1 X-50.415 Y9.564 E16.57024
G1 X-50.549 Y9.391 E16.58116
G1 X-50.615 Y9.117 E16.59522
G1 X-50.613 Y-6.608 E17.37975
G1 X-50.553 Y-7.177 E17.40829
G1 X-50.406 Y-7.75 E17.4378
G1 X-50.206 Y-8.247 E17.46453
G1 X-49.878 Y-8.827 E17.49777
G1 X-49.407 Y-9.434 E17.5361
G1 X-49.049 Y-9.802 E17.56172
G1 X-48.57 Y-10.211 E17.59314
G1 X-48.005 Y-10.607 E17.62756
G1 X-47.57 Y-10.863 E17.65275
G1 X-46.934 Y-11.179 E17.68818
G1 X-46.433 Y-11.386 E17.71522
G1 X-45.734 Y-11.621 E17.75201
G1 X-45.188 Y-11.766 E17.7802
G1 X-44.428 Y-11.92 E17.81888
G1 X-43.68 Y-12.019 E17.85653
G1 X-42.906 Y-12.07 E17.89523
G1 X-42.492 Y-12.077 E17.91588
G1 X-41.965 Y-12.05 E17.94221
G1 X-41.403 Y-11.966 E17.97056
G1 X-40.852 Y-11.825 E17.99894
G1 X-40.322 Y-11.63 E18.02711
G1 X-39.813 Y-11.382 E18.05536
G1 X-39.327 Y-11.081 E18.08388
G1 X-38.881 Y-10.738 E18.11195
G1 X-38.447 Y-10.326 E18.1418
G1 X-38.096 Y-9.917 E18.16869
G1 X-37.772 Y-9.454 E18.19689
G1 X-37.494 Y-8.957 E18.2253
G1 X-37.269 Y-8.439 E18.25347
