;FLAVOR:Marlin
;TIME:675
;Filament used: 0.457431m
;Layer height: 0.24
;MINX:-24.491
;MINY:-20.911
;MINZ:0.24
;MAXX:34.474
;MAXY:20.932
;MAXZ:2.92
;TARGET_MACHINE.NAME:Unknown
;Generated with Cura_SteamEngine 5.8.1
M140 S60
M105
M190 S60
M104 S200
M105
M109 S200
M82 ;absolute extrusion mode
;FLAVOR:Marlin
M82 ;absolute extrusion mode
G21
G90
M82
M107 T0
G28
G92 E0
G0 E3 F200
G92 E0 ; reset extrusion distance
M106 S255 ; Enable cooling fan full speed
G1 X-98 Y0 Z0.4 F3000 ; move to arc start
G3 X0 Y-98 I98 Z0.4 E40 F400 ; lay arc stripe 90deg
G92 E0 ; reset extrusion distance
G4 P500 ; wait for 0.5 sec
G0 Z10 E-1 ; Lift 15mm and retract 1mm filament
G4 P2000 ; wait for 5 sec
G0 Z15
M107 ; Disable cooling fan
G1 X0 Y-85 Z4 E0 F3000 ; get off the bed
G92 E0
G92 E0
G1 F1500 E-6.5
;LAYER_COUNT:8
;LAYER:0
M106 S51
G1 F600 Z1.24
G0 F4800 X-.37 Y1.138 Z1.24
;TYPE:SKIRT
G1 F600 Z0.24
G1 F1500 E0.54048
G1 F1200 X0.179 Y1.376 E0.56436
G1 X0.87 Y1.921 E0.59948
G1 X1.467 Y2.902 E0.64532
G1 X1.643 Y3.83 E0.68302
G1 X1.643 Y10.941 E0.96683
G1 X2.784 Y10.941 E1.01237
G1 X3.155 Y11.018 E1.0275
G1 X8.912 Y1.422 E1.47413
G1 X9.627 Y0.72 E1.51412
G1 X10.602 Y0.272 E1.55695
G1 X10.755 Y0.235 E1.56323
G1 X11.57 Y0.206 E1.59578
G1 X12.346 Y0.373 E1.62746
G1 X12.895 Y0.611 E1.65134
G1 X13.586 Y1.156 E1.68647
G1 X14.183 Y2.137 E1.7323
G1 X14.359 Y3.065 E1.77
G1 X14.359 Y10.176 E2.05382
G1 X15.569 Y10.176 E2.10211
G1 X16.308 Y10.352 E2.13243
G1 X21.434 Y1.843 E2.52891
G1 X21.933 Y1.265 E2.55938
G1 X22.801 Y0.768 E2.59931
G1 X23.393 Y0.61 E2.62376
G1 X24.095 Y0.583 E2.6518
G1 X24.873 Y0.75 E2.68356
G1 X25.422 Y0.988 E2.70744
G1 X26.113 Y1.533 E2.74257
G1 X26.71 Y2.514 E2.7884
G1 X26.886 Y3.442 E2.8261
G1 X26.886 Y10.553 E3.10991
G1 X28.074 Y10.553 E3.15733
G1 X29.096 Y10.796 E3.19926
G1 X29.843 Y11.3 E3.23522
G1 X30.355 Y11.854 E3.26533
G1 X30.791 Y12.736 E3.3046
G1 X30.867 Y13.646 E3.34105
G1 X30.712 Y14.606 E3.37986
G1 X30.191 Y15.658 E3.42671
G1 X29.768 Y16.422 E3.46157
G1 X29.038 Y17.538 E3.51479
G1 X28.359 Y18.344 E3.55686
G1 X27.428 Y19.206 E3.60749
G1 X26.779 Y19.661 E3.63913
G1 X25.556 Y20.24 E3.69314
G1 X24.628 Y20.503 E3.73163
G1 X23.302 Y20.565 E3.78461
G1 X22.407 Y20.419 E3.82081
G1 X21.097 Y20.003 E3.87567
G1 X20.278 Y19.606 E3.91199
G1 X19.426 Y19.086 E3.95183
G1 X18.698 Y18.552 E3.98787
G1 X17.707 Y17.703 E4.03995
G1 X17.282 Y17.301 E4.0633
G1 X16.766 Y16.782 E4.09251
G1 X16.163 Y17.585 E4.13259
G1 X15.231 Y18.602 E4.18764
G1 X14.034 Y19.414 E4.24537
G1 X12.991 Y19.904 E4.29137
G1 X11.65 Y20.181 E4.34602
G1 X10.427 Y20.127 E4.39488
G1 X9.293 Y19.909 E4.44097
G1 X8.064 Y19.393 E4.49417
G1 X7.159 Y18.886 E4.53557
G1 X6.16 Y18.161 E4.58484
G1 X5.196 Y17.351 E4.63509
G1 X4.565 Y16.738 E4.6702
G1 X4.1 Y17.481 E4.70519
G1 X3.45 Y18.361 E4.74885
G1 X2.731 Y19.122 E4.79064
G1 X1.95 Y19.769 E4.83112
G1 X1.088 Y20.306 E4.87165
G1 X0.005 Y20.749 E4.91835
G1 X-1.282 Y20.932 E4.97024
G1 X-2.192 Y20.907 E5.00657
G1 X-3.031 Y20.761 E5.04056
G1 X-4.13 Y20.403 E5.08669
G1 X-4.627 Y20.175 E5.10851
G1 X-5.882 Y19.435 E5.16666
G1 X-6.814 Y18.721 E5.21352
G1 X-8.072 Y17.606 E5.28062
G1 X-8.451 Y18.125 E5.30627
G1 X-9.34 Y19.065 E5.3579
G1 X-9.889 Y19.524 E5.38646
G1 X-10.845 Y20.149 E5.43205
G1 X-11.951 Y20.595 E5.47965
G1 X-13.143 Y20.802 E5.52794
G1 X-14.225 Y20.776 E5.57113
G1 X-15.636 Y20.471 E5.62875
G1 X-16.889 Y19.88 E5.68404
G1 X-17.582 Y19.467 E5.71624
G1 X-18.38 Y18.899 E5.75534
G1 X-19.529 Y17.939 E5.8151
G1 X-20.368 Y17.115 E5.86203
G1 X-20.811 Y16.649 E5.88769
G1 X-21.691 Y15.661 E5.9405
G1 X-22.127 Y14.87 E5.97655
G1 X-22.335 Y13.921 E6.01532
G1 X-22.252 Y13.243 E6.04259
G1 X-22.047 Y12.485 E6.07393
G1 X-15.781 Y2.041 E6.56004
G1 X-15.066 Y1.339 E6.60003
G1 X-14.091 Y0.891 E6.64285
G1 X-13.938 Y0.854 E6.64914
G1 X-13.123 Y0.825 E6.68169
G1 X-12.347 Y0.992 E6.71337
G1 X-11.798 Y1.23 E6.73725
G1 X-11.107 Y1.775 E6.77237
G1 X-10.51 Y2.756 E6.81821
G1 X-10.334 Y3.684 E6.85591
G1 X-10.334 Y10.796 E7.13976
G1 X-9.269 Y10.8 E7.18227
G1 X-8.995 Y10.839 E7.19332
G1 X-3.804 Y2.187 E7.59602
G1 X-3.089 Y1.485 E7.63601
G1 X-2.114 Y1.037 E7.67884
G1 X-1.961 Y1 E7.68512
G1 X-1.146 Y0.971 E7.71767
G1 X-.37 Y1.138 E7.74935
G1 F1500 E1.24935
G1 F600 Z1.24
G0 F4800 X1.02 Y-.706 Z1.24
G1 F600 Z0.24
G1 F1500 E8.28983
G1 F1200 X-.255 Y-1.275 E8.34555
G1 X-1.131 Y-1.802 E8.38636
G1 X-2.12 Y-2.534 E8.43547
G1 X-2.845 Y-3.196 E8.47465
G1 X-3.422 Y-3.782 E8.50747
G1 X-4.201 Y-4.68 E8.55492
G1 X-4.831 Y-5.503 E8.59629
G1 X-5.058 Y-5.966 E8.61687
G1 X-5.272 Y-5.701 E8.63046
G1 X-6.088 Y-4.976 E8.67403
G1 X-6.652 Y-4.501 E8.70346
G1 X-7.224 Y-4.042 E8.73273
G1 X-7.791 Y-3.616 E8.76104
G1 X-8.372 Y-3.207 E8.7894
G1 X-8.96 Y-2.816 E8.81758
G1 X-9.529 Y-2.47 E8.84416
G1 X-10.133 Y-2.132 E8.87178
G1 X-10.745 Y-1.824 E8.89913
G1 X-11.356 Y-1.551 E8.92584
G1 X-12.123 Y-1.252 E8.95869
G1 X-13.712 Y-.86 E9.02402
G1 X-14.961 Y-.727 E9.07415
G1 X-15.721 Y-.737 E9.10448
G1 X-17.107 Y-.891 E9.16014
G1 X-18.326 Y-1.302 E9.21149
G1 X-19.751 Y-1.998 E9.27478
G1 X-20.691 Y-2.619 E9.31975
G1 X-21.416 Y-3.198 E9.35678
G1 X-21.973 Y-3.708 E9.38692
G1 X-22.455 Y-4.192 E9.41418
G1 X-23.088 Y-4.895 E9.45194
G1 X-23.531 Y-5.435 E9.47982
G1 X-24.059 Y-6.124 E9.51446
G1 X-24.364 Y-6.912 E9.54819
G1 X-24.491 Y-7.561 E9.57458
G1 X-24.419 Y-8.487 E9.61165
G1 X-24.077 Y-9.272 E9.64583
G1 X-17.957 Y-19.436 E10.11936
G1 X-17.458 Y-20.014 E10.14983
G1 X-16.59 Y-20.511 E10.18976
G1 X-15.998 Y-20.669 E10.21421
G1 X-15.296 Y-20.696 E10.24225
G1 X-14.518 Y-20.529 E10.27401
G1 X-13.969 Y-20.291 E10.29789
G1 X-13.278 Y-19.746 E10.33302
G1 X-12.681 Y-18.765 E10.37885
G1 X-12.505 Y-17.837 E10.41655
G1 X-12.505 Y-10.725 E10.7004
G1 X-7.301 Y-10.708 E10.90811
G1 X-6.538 Y-10.576 E10.93901
G1 X-5.581 Y-10.035 E10.98289
G1 X-4.991 Y-9.343 E11.01918
G1 X-4.81 Y-8.962 E11.03602
G1 X1.183 Y-18.916 E11.49975
G1 X1.682 Y-19.494 E11.53023
G1 X2.55 Y-19.991 E11.57015
G1 X3.142 Y-20.149 E11.59461
G1 X3.844 Y-20.176 E11.62265
G1 X4.622 Y-20.009 E11.65441
G1 X5.171 Y-19.771 E11.67829
G1 X5.862 Y-19.226 E11.71341
G1 X6.459 Y-18.245 E11.75925
G1 X6.635 Y-17.317 E11.79695
G1 X6.635 Y-10.205 E12.0808
G1 X11.839 Y-10.188 E12.2885
G1 X12.602 Y-10.056 E12.31941
G1 X13.559 Y-9.515 E12.36329
G1 X14.19 Y-8.775 E12.4021
G1 X14.534 Y-7.955 E12.43759
G1 X14.588 Y-8.682 E12.46669
G1 X14.906 Y-9.435 E12.49931
G1 X21.027 Y-19.644 E12.9744
G1 X21.769 Y-20.4 E13.01668
G1 X22.823 Y-20.88 E13.06291
G1 X23.719 Y-20.911 E13.09869
G1 X24.492 Y-20.744 E13.13025
G1 X25.041 Y-20.506 E13.15413
G1 X25.732 Y-19.961 E13.18926
G1 X26.329 Y-18.98 E13.23509
G1 X26.505 Y-18.052 E13.27279
G1 X26.505 Y-10.94 E13.55665
G1 X31.709 Y-10.923 E13.76435
G1 X32.472 Y-10.791 E13.79526
G1 X33.429 Y-10.25 E13.83913
G1 X34.06 Y-9.51 E13.87795
G1 X34.393 Y-8.717 E13.91228
G1 X34.474 Y-8.103 E13.93699
G1 X34.422 Y-7.256 E13.97086
G1 X34.323 Y-6.888 E13.98607
G1 X34.002 Y-6.267 E14.01397
G1 X33.619 Y-5.817 E14.03756
G1 X32.642 Y-4.951 E14.08967
G1 X32.069 Y-4.481 E14.11925
G1 X31.503 Y-4.043 E14.14781
G1 X30.923 Y-3.617 E14.17653
G1 X30.349 Y-3.225 E14.20427
G1 X29.762 Y-2.851 E14.23205
G1 X29.171 Y-2.505 E14.25939
G1 X28.571 Y-2.187 E14.28649
G1 X27.978 Y-1.906 E14.31268
G1 X27.162 Y-1.568 E14.34793
G1 X26.204 Y-1.259 E14.38811
G1 X24.619 Y-.97 E14.45241
G1 X23.384 Y-.943 E14.50172
G1 X22.791 Y-.993 E14.52547
G1 X21.47 Y-1.259 E14.57925
G1 X20.259 Y-1.698 E14.63066
G1 X18.767 Y-2.504 E14.69834
G1 X17.843 Y-3.202 E14.74456
G1 X17.276 Y-3.694 E14.77452
G1 X16.866 Y-4.085 E14.79714
G1 X16.357 Y-4.616 E14.82649
G1 X15.91 Y-5.124 E14.8535
G1 X15.488 Y-5.637 E14.88001
G1 X15.009 Y-6.265 E14.91154
G1 X14.671 Y-7.048 E14.94558
G1 X14.609 Y-7.318 E14.95663
G1 X14.556 Y-6.548 E14.98744
G1 X14.305 Y-5.777 E15.0198
G1 X13.889 Y-5.195 E15.04835
G1 X13.041 Y-4.448 E15.09346
G1 X12.198 Y-3.746 E15.13724
G1 X11.632 Y-3.308 E15.16581
G1 X11.052 Y-2.882 E15.19453
G1 X10.478 Y-2.49 E15.22227
G1 X9.891 Y-2.116 E15.25005
G1 X9.299 Y-1.77 E15.27742
G1 X8.701 Y-1.453 E15.30443
G1 X8.087 Y-1.161 E15.33157
G1 X7.311 Y-.841 E15.36507
G1 X6.181 Y-.487 E15.41233
G1 X5.085 Y-.286 E15.4568
G1 X3.935 Y-.207 E15.50281
G1 X2.343 Y-.306 E15.56647
G1 X1.02 Y-.706 E15.62164
G0 F4800 X1.136 Y-1.089
G1 F1200 X-0.049 Y-1.618 E15.67343
G1 X-.893 Y-2.124 E15.71271
G1 X-1.882 Y-2.856 E15.76182
G1 X-2.56 Y-3.477 E15.79851
G1 X-3.137 Y-4.063 E15.83134
G1 X-3.883 Y-4.923 E15.87678
G1 X-4.513 Y-5.746 E15.91814
G1 X-4.833 Y-6.427 E15.94817
G1 X-4.962 Y-7.234 E15.98079
G1 X-4.877 Y-7.775 E16.00265
G1 X-4.666 Y-8.426 E16.02996
G1 X1.486 Y-18.655 E16.50637
G1 X1.94 Y-19.181 E16.53411
G1 X2.704 Y-19.618 E16.56924
G1 X3.2 Y-19.751 E16.58973
G1 X3.811 Y-19.774 E16.61413
G1 X4.499 Y-19.626 E16.64222
G1 X4.964 Y-19.425 E16.66244
G1 X5.557 Y-18.957 E16.69259
G1 X6.08 Y-18.098 E16.73273
G1 X6.235 Y-17.28 E16.76596
G1 X6.235 Y-9.806 E17.06426
G1 X11.771 Y-9.794 E17.28522
G1 X12.465 Y-9.674 E17.31333
G1 X13.3 Y-9.202 E17.35161
G1 X13.845 Y-8.563 E17.38513
G1 X14.137 Y-7.867 E17.41526
G1 X14.204 Y-7.263 E17.43951
G1 X14.16 Y-6.624 E17.46507
G1 X13.944 Y-5.961 E17.49291
G1 X13.589 Y-5.463 E17.51731
G1 X12.785 Y-4.755 E17.56007
G1 X11.953 Y-4.062 E17.60329
G1 X11.395 Y-3.63 E17.63146
G1 X10.826 Y-3.212 E17.65963
G1 X10.263 Y-2.827 E17.68686
G1 X9.689 Y-2.461 E17.71403
G1 X9.111 Y-2.123 E17.74075
G1 X8.529 Y-1.814 E17.76705
G1 X7.934 Y-1.531 E17.79335
G1 X7.191 Y-1.223 E17.82545
G1 X6.061 Y-.869 E17.87271
G1 X5.056 Y-.685 E17.91349
G1 X3.96 Y-.606 E17.95735
G1 X2.416 Y-.702 E18.01909
G1 X1.136 Y-1.089 E18.07246
G1 F1500 E11.57246
G1 F600 Z1.24
G0 F4800 X-0.028 Y1.722 Z1.24
G1 F600 Z0.24
G1 F1500 E18.61294
G1 F1200 X0.565 Y2.19 E18.64309
G1 X1.088 Y3.049 E18.68323
G1 X1.243 Y3.867 E18.71646
G1 X1.243 Y11.341 E19.01476
G1 X2.784 Y11.341 E19.07627
G1 X3.347 Y11.475 E19.09937
G1 X9.228 Y1.672 E19.55563
G1 X9.859 Y1.053 E19.59091
G1 X10.769 Y0.635 E19.63088
G1 X11.536 Y0.608 E19.66151
G1 X12.223 Y0.756 E19.68956
G1 X12.688 Y0.957 E19.70978
G1 X13.281 Y1.425 E19.73993
G1 X13.804 Y2.284 E19.78007
G1 X13.959 Y3.102 E19.8133
G1 X13.959 Y10.576 E20.1116
G1 X15.522 Y10.576 E20.17398
G1 X16.282 Y10.757 E20.20516
G1 X16.475 Y10.851 E20.21373
G1 X21.737 Y2.104 E20.62115
G1 X22.191 Y1.578 E20.64888
G1 X22.955 Y1.141 E20.68401
G1 X23.451 Y1.008 E20.7045
G1 X24.062 Y0.985 E20.72891
G1 X24.75 Y1.133 E20.757
G1 X25.215 Y1.334 E20.77721
G1 X25.808 Y1.802 E20.80737
G1 X26.331 Y2.661 E20.8475
G1 X26.486 Y3.479 E20.88073
G1 X26.486 Y10.953 E21.17904
G1 X28.027 Y10.953 E21.24054
G1 X28.931 Y11.168 E21.27763
G1 X29.583 Y11.608 E21.30902
G1 X30.021 Y12.082 E21.33478
G1 X30.398 Y12.845 E21.36875
G1 X30.464 Y13.631 E21.40023
G1 X30.326 Y14.485 E21.43476
G1 X29.841 Y15.465 E21.4784
G1 X29.433 Y16.204 E21.51209
G1 X28.731 Y17.281 E21.5634
G1 X28.087 Y18.05 E21.60344
G1 X27.156 Y18.912 E21.65407
G1 X26.551 Y19.332 E21.68347
G1 X25.447 Y19.855 E21.73223
G1 X24.565 Y20.105 E21.76882
G1 X23.324 Y20.163 E21.8184
G1 X22.471 Y20.024 E21.8529
G1 X21.271 Y19.643 E21.90315
G1 X20.486 Y19.264 E21.93794
G1 X19.663 Y18.763 E21.97639
G1 X18.935 Y18.229 E22.01243
G1 X17.982 Y17.413 E22.0625
G1 X17.565 Y17.018 E22.08543
G1 X17.148 Y16.602 E22.10894
G1 X16.703 Y16.137 E22.13462
G1 X16.469 Y16.512 E22.15227
G1 X15.868 Y17.315 E22.1923
G1 X14.969 Y18.296 E22.24541
G1 X13.809 Y19.083 E22.30135
G1 X12.865 Y19.521 E22.34289
G1 X11.618 Y19.779 E22.39371
G1 X10.502 Y19.734 E22.43829
G1 X9.408 Y19.524 E22.48275
G1 X8.259 Y19.044 E22.53245
G1 X7.394 Y18.562 E22.57198
G1 X6.395 Y17.837 E22.62124
G1 X5.475 Y17.064 E22.6692
G1 X4.468 Y16.086 E22.72523
G1 X4.192 Y16.586 E22.74802
G1 X3.778 Y17.243 E22.77902
G1 X3.128 Y18.123 E22.82268
G1 X2.441 Y18.846 E22.86249
G1 X1.738 Y19.429 E22.89894
G1 X0.876 Y19.966 E22.93947
G1 X-.1 Y20.36 E22.98148
G1 X-1.271 Y20.532 E23.02872
G1 X-2.181 Y20.507 E23.06505
G1 X-2.908 Y20.38 E23.09451
G1 X-3.963 Y20.039 E23.13876
G1 X-4.46 Y19.811 E23.16059
G1 X-5.639 Y19.117 E23.21519
G1 X-6.571 Y18.403 E23.26205
G1 X-7.487 Y17.592 E23.31088
G1 X-8.109 Y16.977 E23.34579
G1 X-8.774 Y17.889 E23.39084
G1 X-9.598 Y18.759 E23.43867
G1 X-10.108 Y19.189 E23.46529
G1 X-11.031 Y19.793 E23.50932
G1 X-12.063 Y20.209 E23.55373
G1 X-13.171 Y20.401 E23.59861
G1 X-14.177 Y20.377 E23.63877
G1 X-15.508 Y20.089 E23.69312
G1 X-16.684 Y19.536 E23.74499
G1 X-17.377 Y19.123 E23.77719
G1 X-18.148 Y18.573 E23.81499
G1 X-19.249 Y17.653 E23.87225
G1 X-20.078 Y16.84 E23.9186
G1 X-20.512 Y16.383 E23.94375
G1 X-21.364 Y15.427 E23.99486
G1 X-21.748 Y14.73 E24.02662
G1 X-21.93 Y13.9 E24.06054
G1 X-21.866 Y13.347 E24.08275
G1 X-21.676 Y12.644 E24.11182
G1 X-15.465 Y2.291 E24.59369
G1 X-14.834 Y1.672 E24.62896
G1 X-13.924 Y1.254 E24.66893
G1 X-13.157 Y1.227 E24.69956
G1 X-12.47 Y1.375 E24.72761
G1 X-12.005 Y1.576 E24.74783
G1 X-11.412 Y2.044 E24.77798
G1 X-10.889 Y2.903 E24.81812
G1 X-10.734 Y3.721 E24.85135
G1 X-10.734 Y11.195 E25.14965
G1 X-9.27 Y11.2 E25.20809
G1 X-8.792 Y11.278 E25.22742
G1 X-3.488 Y2.437 E25.63891
G1 X-2.857 Y1.818 E25.67419
G1 X-1.947 Y1.4 E25.71416
G1 X-1.18 Y1.373 E25.74479
G1 X-.493 Y1.521 E25.77284
G1 X-0.028 Y1.722 E25.79306
G0 F4800 X-.235 Y2.068
G1 F1200 X0.26 Y2.459 E25.81823
G1 X0.709 Y3.196 E25.85268
G1 X0.843 Y3.904 E25.88144
G1 X0.843 Y11.741 E26.19423
G1 X2.737 Y11.741 E26.26982
G1 X3.379 Y11.894 E26.29616
G1 X3.523 Y11.959 E26.30247
G1 X9.546 Y1.92 E26.76973
G1 X10.089 Y1.387 E26.8001
G1 X10.861 Y1.032 E26.83401
G1 X11.502 Y1.01 E26.85961
G1 X12.139 Y1.147 E26.88562
G1 X12.481 Y1.303 E26.90062
G1 X12.976 Y1.694 E26.92579
G1 X13.425 Y2.431 E26.96024
G1 X13.559 Y3.139 E26.989
G1 X13.559 Y10.976 E27.30179
G1 X15.475 Y10.976 E27.37826
G1 X16.189 Y11.146 E27.40756
G1 X16.612 Y11.4 E27.42725
G1 X22.04 Y2.365 E27.84793
G1 X22.45 Y1.89 E27.87297
G1 X23.11 Y1.513 E27.90331
G1 X23.466 Y1.408 E27.91812
G1 X24.028 Y1.387 E27.94057
G1 X24.666 Y1.524 E27.96661
G1 X25.008 Y1.68 E27.98162
G1 X25.503 Y2.071 E28.00679
G1 X25.952 Y2.808 E28.04124
G1 X26.086 Y3.516 E28.07
G1 X26.086 Y11.353 E28.38279
G1 X27.98 Y11.353 E28.45838
G1 X28.766 Y11.54 E28.49063
G1 X29.32 Y11.914 E28.51731
G1 X29.688 Y12.312 E28.53894
G1 X30.005 Y12.954 E28.56752
G1 X30.061 Y13.617 E28.59407
G1 X29.941 Y14.361 E28.62415
G1 X29.491 Y15.272 E28.66471
G1 X29.097 Y15.986 E28.69725
G1 X28.424 Y17.024 E28.74663
G1 X27.78 Y17.793 E28.78666
G1 X26.928 Y18.583 E28.83304
G1 X26.323 Y19.003 E28.86243
G1 X25.338 Y19.47 E28.90594
G1 X24.502 Y19.707 E28.94062
G1 X23.346 Y19.761 E28.98681
G1 X22.535 Y19.629 E29.0196
G1 X21.445 Y19.283 E29.06525
G1 X20.66 Y18.904 E29.10004
G1 X19.9 Y18.44 E29.13558
G1 X19.172 Y17.906 E29.17161
G1 X18.257 Y17.123 E29.21968
G1 X17.847 Y16.734 E29.24224
G1 X17.437 Y16.326 E29.26532
G1 X17.006 Y15.875 E29.29022
G1 X16.646 Y15.47 E29.31185
G1 X16.149 Y16.272 E29.34951
G1 X15.548 Y17.075 E29.38954
G1 X14.706 Y17.991 E29.4392
G1 X13.641 Y18.72 E29.49071
G1 X12.74 Y19.138 E29.53035
G1 X11.585 Y19.377 E29.57743
G1 X10.577 Y19.341 E29.61768
G1 X9.523 Y19.139 E29.66052
G1 X8.453 Y18.694 E29.70677
G1 X7.629 Y18.238 E29.74435
G1 X6.63 Y17.513 E29.79362
G1 X5.732 Y16.758 E29.84045
G1 X5.103 Y16.145 E29.8755
G1 X4.392 Y15.398 E29.91666
G1 X3.854 Y16.373 E29.96111
G1 X3.456 Y17.005 E29.99092
G1 X2.806 Y17.885 E30.03458
G1 X2.184 Y18.539 E30.0706
G1 X1.524 Y19.091 E30.10495
G1 X0.726 Y19.595 E30.14262
G1 X-.208 Y19.972 E30.18282
G1 X-1.262 Y20.132 E30.22537
G1 X-2.112 Y20.113 E30.2593
G1 X-2.839 Y19.986 E30.28875
G1 X-3.796 Y19.675 E30.32892
G1 X-4.293 Y19.447 E30.35074
G1 X-5.396 Y18.799 E30.4018
