;FLAVOR:Marlin
;TIME:6751
;Filament used: 8.7105m
;Layer height: 0.24
;MINX:-52.626
;MINY:-52.642
;MINZ:0.3
;MAXX:52.647
;MAXY:52.643
;MAXZ:9.9
;Generated with Cura_SteamEngine 4.13.1
M140 S50
M105
M190 S50
M104 S215
M105
M109 S215
M82 ;absolute extrusion mode
;FLAVOR:Marlin
M82 ;absolute extrusion mode
G21
G90
M82
M107 T0
G28
G92 E0
G0 E3 F200
G92 E0 ; reset extrusion distance
M106 S255 ; Enable cooling fan full speed
G1 X-98 Y0 Z0.4 F3000 ; move to arc start
G3 X0 Y-98 I98 Z0.4 E40 F400 ; lay arc stripe 90deg
G92 E0 ; reset extrusion distance
G4 P500 ; wait for 0.5 sec
G0 Z10 E-1 ; Lift 15mm and retract 1mm filament
G4 P2000 ; wait for 5 sec
G0 Z15
M107 ; Disable cooling fan
G1 X0 Y-85 Z4 E0 F3000 ; get off the bed
G92 E0
G92 E0
G1 F1500 E-6.5
;LAYER_COUNT:42
;LAYER:0
M106 S25.5
G1 F600 Z1.3
G0 F3600 X-52.615 Y-1.768 Z1.3
;TYPE:SKIRT
G1 F600 Z0.3
G1 F1500 E0.3326
G1 F2400 X-52.437 Y-4.716 E0.50941
G1 X-52.42 Y-4.901 E0.52054
G1 X-52.051 Y-7.904 E0.70167
G1 X-52.023 Y-8.082 E0.71246
G1 X-51.474 Y-11.06 E0.89375
G1 X-51.435 Y-11.242 E0.9049
G1 X-50.703 Y-14.178 E1.08605
G1 X-50.654 Y-14.353 E1.09693
G1 X-49.745 Y-17.241 E1.27819
G1 X-49.685 Y-17.413 E1.2891
G1 X-48.603 Y-20.239 E1.47026
G1 X-48.532 Y-20.408 E1.48124
G1 X-47.279 Y-23.163 E1.66243
G1 X-47.198 Y-23.327 E1.67338
G1 X-45.779 Y-26.001 E1.85461
G1 X-45.689 Y-26.159 E1.8655
G1 X-44.111 Y-28.742 E2.04671
G1 X-44.01 Y-28.897 E2.05779
G1 X-42.276 Y-31.378 E2.239
G1 X-42.167 Y-31.524 E2.24991
G1 X-40.286 Y-33.895 E2.4311
G1 X-40.168 Y-34.034 E2.44202
G1 X-38.146 Y-36.286 E2.62321
G1 X-38.02 Y-36.418 E2.63414
G1 X-35.865 Y-38.543 E2.81533
G1 X-35.73 Y-38.669 E2.82639
G1 X-33.448 Y-40.657 E3.00758
G1 X-33.307 Y-40.772 E3.01847
G1 X-30.91 Y-42.618 E3.1996
G1 X-30.762 Y-42.725 E3.21053
G1 X-28.254 Y-44.423 E3.39186
G1 X-28.1 Y-44.521 E3.40278
G1 X-25.496 Y-46.062 E3.58393
G1 X-25.335 Y-46.15 E3.59492
G1 X-22.64 Y-47.53 E3.77619
G1 X-22.476 Y-47.608 E3.78706
G1 X-19.704 Y-48.822 E3.96823
G1 X-19.533 Y-48.891 E3.97927
G1 X-16.69 Y-49.932 E4.16053
G1 X-16.516 Y-49.99 E4.17151
G1 X-13.616 Y-50.856 E4.3527
G1 X-13.44 Y-50.902 E4.36359
G1 X-10.494 Y-51.59 E4.54471
G1 X-10.315 Y-51.626 E4.55564
G1 X-7.33 Y-52.134 E4.73692
G1 X-7.148 Y-52.16 E4.74792
G1 X-4.139 Y-52.484 E4.92911
G1 X-3.881 Y-52.503 E4.9446
G1 X-.931 Y-52.639 E5.1214
G1 X-.749 Y-52.642 E5.13229
G1 X2.275 Y-52.598 E5.31335
G1 X2.533 Y-52.585 E5.32882
G1 X5.477 Y-52.361 E5.50558
G1 X5.657 Y-52.342 E5.51642
G1 X8.657 Y-51.93 E5.69771
G1 X8.838 Y-51.9 E5.70869
G1 X11.806 Y-51.306 E5.8899
G1 X12.058 Y-51.247 E5.9054
G1 X14.911 Y-50.491 E6.0821
G1 X15.085 Y-50.439 E6.09297
G1 X17.958 Y-49.489 E6.27413
G1 X18.202 Y-49.4 E6.28968
G1 X20.942 Y-48.302 E6.4664
G1 X21.176 Y-48.199 E6.48171
G1 X23.845 Y-46.937 E6.65846
G1 X24.008 Y-46.854 E6.66941
G1 X26.66 Y-45.396 E6.85059
G1 X26.883 Y-45.264 E6.86611
G1 X29.439 Y-43.647 E7.04718
G1 X29.594 Y-43.542 E7.05839
G1 X31.987 Y-41.815 E7.23506
G1 X32.19 Y-41.658 E7.25043
G1 X34.55 Y-39.725 E7.43306
G1 X34.668 Y-39.62 E7.44252
G1 X36.878 Y-37.573 E7.62286
G1 X37.021 Y-37.431 E7.63493
G1 X39.111 Y-35.241 E7.81616
G1 X39.232 Y-35.107 E7.82697
G1 X41.138 Y-32.853 E8.00369
G1 X41.298 Y-32.652 E8.01907
G1 X43.064 Y-30.285 E8.19588
G1 X43.167 Y-30.137 E8.20667
G1 X44.828 Y-27.607 E8.38786
G1 X44.924 Y-27.45 E8.39888
G1 X46.472 Y-24.74 E8.58573
G1 X46.549 Y-24.593 E8.59566
G1 X47.886 Y-21.877 E8.7769
G1 X47.961 Y-21.712 E8.78775
G1 X49.131 Y-18.921 E8.96893
G1 X49.197 Y-18.748 E8.98002
G1 X50.193 Y-15.888 E9.16132
G1 X50.248 Y-15.713 E9.17231
G1 X51.066 Y-12.802 E9.35333
G1 X51.11 Y-12.626 E9.36419
G1 X51.752 Y-9.667 E9.54547
G1 X51.785 Y-9.486 E9.55648
G1 X52.244 Y-6.494 E9.7377
G1 X52.266 Y-6.314 E9.74856
G1 X52.543 Y-3.3 E9.92976
G1 X52.555 Y-3.116 E9.9408
G1 X52.647 Y-0.092 E10.12193
G1 X52.647 Y0.089 E10.13276
G1 X52.556 Y3.115 E10.31401
G1 X52.544 Y3.3 E10.32511
G1 X52.267 Y6.314 E10.50631
G1 X52.245 Y6.494 E10.51716
G1 X51.786 Y9.486 E10.69839
G1 X51.753 Y9.666 E10.70934
G1 X51.112 Y12.626 E10.89066
G1 X51.068 Y12.804 E10.90164
G1 X50.248 Y15.715 E11.0827
G1 X50.193 Y15.888 E11.09356
G1 X49.198 Y18.748 E11.27485
G1 X49.132 Y18.922 E11.28599
G1 X47.962 Y21.712 E11.46712
G1 X47.887 Y21.877 E11.47797
G1 X46.55 Y24.594 E11.65926
G1 X46.464 Y24.755 E11.67019
G1 X44.965 Y27.384 E11.85137
G1 X44.869 Y27.541 E11.86239
G1 X43.212 Y30.073 E12.04355
G1 X43.109 Y30.221 E12.05434
G1 X41.302 Y32.649 E12.23554
G1 X41.187 Y32.793 E12.24657
G1 X39.235 Y35.105 E12.42772
G1 X39.113 Y35.242 E12.43871
G1 X37.022 Y37.432 E12.61998
G1 X36.892 Y37.56 E12.63091
G1 X34.671 Y39.619 E12.81222
G1 X34.533 Y39.739 E12.82317
G1 X32.194 Y41.657 E13.00426
G1 X32.049 Y41.768 E13.0152
G1 X29.596 Y43.541 E13.1964
G1 X29.443 Y43.645 E13.20747
G1 X26.885 Y45.264 E13.38871
G1 X26.73 Y45.356 E13.3995
G1 X24.079 Y46.818 E13.58075
G1 X23.915 Y46.902 E13.59178
G1 X21.182 Y48.198 E13.77286
G1 X21.015 Y48.271 E13.78378
G1 X18.205 Y49.4 E13.96508
G1 X18.033 Y49.463 E13.97604
G1 X15.161 Y50.417 E14.15722
G1 X14.985 Y50.469 E14.16821
G1 X12.061 Y51.246 E14.34934
G1 X11.884 Y51.288 E14.36023
G1 X8.915 Y51.887 E14.54156
G1 X8.734 Y51.918 E14.55255
G1 X5.736 Y52.334 E14.73376
G1 X5.555 Y52.353 E14.74465
G1 X2.537 Y52.586 E14.92587
G1 X2.354 Y52.595 E14.93684
G1 X-.67 Y52.643 E15.11791
G1 X-.853 Y52.64 E15.12887
G1 X-3.877 Y52.504 E15.31009
G1 X-4.059 Y52.49 E15.32102
G1 X-7.069 Y52.17 E15.50224
G1 X-7.327 Y52.134 E15.51783
G1 X-10.295 Y51.631 E15.69805
G1 X-10.492 Y51.591 E15.71009
G1 X-13.367 Y50.921 E15.88682
G1 X-13.613 Y50.855 E15.90207
G1 X-16.443 Y50.013 E16.07884
G1 X-16.686 Y49.932 E16.09417
G1 X-19.459 Y48.919 E16.27092
G1 X-19.701 Y48.822 E16.28653
G1 X-22.405 Y47.641 E16.46318
G1 X-22.637 Y47.53 E16.47858
G1 X-25.35 Y46.142 E16.66102
G1 X-25.493 Y46.062 E16.67083
G1 X-28.116 Y44.511 E16.85326
G1 X-28.251 Y44.424 E16.86288
G1 X-30.697 Y42.771 E17.03962
G1 X-30.908 Y42.618 E17.05522
G1 X-33.31 Y40.769 E17.2367
G1 X-33.447 Y40.656 E17.24733
G1 X-35.729 Y38.668 E17.42852
G1 X-35.864 Y38.542 E17.43958
G1 X-38.019 Y36.417 E17.62077
G1 X-38.144 Y36.286 E17.63161
G1 X-40.161 Y34.042 E17.81225
G1 X-40.283 Y33.896 E17.82364
G1 X-42.12 Y31.585 E18.00038
G1 X-42.274 Y31.378 E18.01582
G1 X-44.011 Y28.894 E18.19729
G1 X-44.109 Y28.742 E18.20812
G1 X-45.697 Y26.143 E18.39046
G1 X-45.777 Y26.001 E18.40022
G1 X-47.197 Y23.327 E18.58148
G1 X-47.278 Y23.162 E18.59248
G1 X-48.53 Y20.409 E18.77354
G1 X-48.6 Y20.241 E18.78444
G1 X-49.682 Y17.418 E18.96544
G1 X-49.744 Y17.24 E18.97672
G1 X-50.653 Y14.352 E19.15798
G1 X-50.702 Y14.176 E19.16892
G1 X-51.433 Y11.24 E19.35006
G1 X-51.472 Y11.062 E19.36097
G1 X-52.01 Y8.159 E19.53772
G1 X-52.05 Y7.903 E19.55324
G1 X-52.419 Y4.9 E19.73437
G1 X-52.435 Y4.716 E19.74543
G1 X-52.619 Y1.696 E19.92657
G1 X-52.625 Y1.515 E19.93741
G1 X-52.626 Y-1.512 E20.11863
G1 X-52.615 Y-1.768 E20.13397
G0 F3600 X-52.214 Y-1.758
G1 F2400 X-52.037 Y-4.692 E20.30994
G1 X-52.023 Y-4.852 E20.31956
G1 X-51.654 Y-7.855 E20.5007
G1 X-51.63 Y-8.009 E20.51003
G1 X-51.081 Y-10.987 E20.69132
G1 X-51.047 Y-11.145 E20.701
G1 X-50.315 Y-14.081 E20.88215
G1 X-50.272 Y-14.233 E20.89161
G1 X-49.363 Y-17.121 E21.07287
G1 X-49.311 Y-17.27 E21.08232
G1 X-48.229 Y-20.096 E21.26348
G1 X-48.168 Y-20.242 E21.27295
G1 X-46.915 Y-22.997 E21.45415
G1 X-46.845 Y-23.14 E21.46368
G1 X-45.426 Y-25.814 E21.64491
G1 X-45.348 Y-25.95 E21.6543
G1 X-43.77 Y-28.533 E21.83551
G1 X-43.682 Y-28.667 E21.84511
G1 X-41.948 Y-31.148 E22.02632
G1 X-41.854 Y-31.275 E22.03578
G1 X-39.973 Y-33.646 E22.21698
G1 X-39.871 Y-33.767 E22.22645
G1 X-37.849 Y-36.019 E22.40764
G1 X-37.74 Y-36.133 E22.41709
G1 X-35.585 Y-38.258 E22.59828
G1 X-35.467 Y-38.367 E22.6079
G1 X-33.185 Y-40.355 E22.78909
G1 X-33.063 Y-40.455 E22.79853
G1 X-30.666 Y-42.301 E22.97966
G1 X-30.538 Y-42.394 E22.98913
G1 X-28.03 Y-44.092 E23.17046
G1 X-27.896 Y-44.177 E23.17996
G1 X-25.292 Y-45.718 E23.36111
G1 X-25.153 Y-45.794 E23.37059
G1 X-22.458 Y-47.174 E23.55186
G1 X-22.316 Y-47.242 E23.56128
G1 X-19.544 Y-48.456 E23.74246
G1 X-19.395 Y-48.515 E23.75205
G1 X-16.552 Y-49.556 E23.93331
G1 X-16.402 Y-49.606 E23.94277
G1 X-13.502 Y-50.472 E24.12397
G1 X-13.349 Y-50.513 E24.13345
G1 X-10.403 Y-51.201 E24.31457
G1 X-10.248 Y-51.232 E24.32403
G1 X-7.263 Y-51.74 E24.50531
G1 X-7.105 Y-51.762 E24.51486
G1 X-4.096 Y-52.086 E24.69604
G1 X-3.863 Y-52.103 E24.71003
G1 X-.913 Y-52.239 E24.88683
G1 X-.755 Y-52.242 E24.89629
G1 X2.269 Y-52.198 E25.07735
G1 X2.502 Y-52.187 E25.09131
G1 X5.446 Y-51.963 E25.26808
G1 X5.603 Y-51.946 E25.27753
G1 X8.603 Y-51.534 E25.45882
G1 X8.759 Y-51.507 E25.4683
G1 X11.807 Y-50.896 E25.65441
G1 X11.956 Y-50.86 E25.66358
G1 X14.809 Y-50.104 E25.84028
G1 X14.959 Y-50.06 E25.84964
G1 X17.832 Y-49.11 E26.0308
G1 X18.053 Y-49.028 E26.04491
G1 X20.875 Y-47.896 E26.22695
G1 X21.005 Y-47.837 E26.2355
G1 X23.674 Y-46.575 E26.41225
G1 X23.816 Y-46.503 E26.42178
G1 X26.468 Y-45.045 E26.60296
G1 X26.669 Y-44.926 E26.61694
G1 X29.217 Y-43.314 E26.79745
G1 X29.36 Y-43.217 E26.8078
G1 X31.808 Y-41.449 E26.98858
G1 X31.937 Y-41.349 E26.99835
G1 X34.286 Y-39.424 E27.18017
G1 X34.396 Y-39.326 E27.18899
G1 X36.6 Y-37.285 E27.36883
G1 X36.732 Y-37.155 E27.37992
G1 X38.822 Y-34.965 E27.56116
G1 X38.926 Y-34.849 E27.57049
G1 X40.884 Y-32.532 E27.7521
G1 X40.977 Y-32.413 E27.76114
G1 X42.743 Y-30.046 E27.93794
G1 X42.832 Y-29.918 E27.94728
G1 X44.493 Y-27.388 E28.12847
G1 X44.577 Y-27.252 E28.13804
G1 X46.079 Y-24.625 E28.3192
G1 X46.19 Y-24.416 E28.33337
G1 X47.527 Y-21.7 E28.51461
G1 X47.592 Y-21.557 E28.52401
G1 X48.762 Y-18.766 E28.70519
G1 X48.819 Y-18.616 E28.7148
G1 X49.815 Y-15.756 E28.89611
G1 X49.863 Y-15.604 E28.90565
G1 X50.681 Y-12.693 E29.08668
G1 X50.719 Y-12.541 E29.09606
G1 X51.361 Y-9.582 E29.27733
G1 X51.39 Y-9.425 E29.28689
G1 X51.849 Y-6.433 E29.46811
G1 X51.868 Y-6.277 E29.47752
G1 X52.145 Y-3.263 E29.65872
G1 X52.155 Y-3.104 E29.66826
G1 X52.247 Y-0.08 E29.84938
G1 X52.247 Y0.077 E29.85878
G1 X52.156 Y3.103 E30.04003
G1 X52.146 Y3.263 E30.04962
G1 X51.869 Y6.277 E30.23083
G1 X51.85 Y6.433 E30.24024
G1 X51.391 Y9.425 E30.42146
G1 X51.362 Y9.581 E30.43096
G1 X50.721 Y12.541 E30.61227
G1 X50.683 Y12.696 E30.62183
G1 X49.863 Y15.607 E30.80289
G1 X49.816 Y15.756 E30.81224
G1 X48.821 Y18.616 E30.99353
G1 X48.763 Y18.767 E31.00321
G1 X47.593 Y21.557 E31.18434
G1 X47.528 Y21.7 E31.19374
G1 X46.191 Y24.417 E31.37503
G1 X46.117 Y24.557 E31.38451
G1 X44.618 Y27.186 E31.56569
G1 X44.535 Y27.322 E31.57523
G1 X42.878 Y29.854 E31.75639
G1 X42.788 Y29.982 E31.76576
G1 X40.981 Y32.41 E31.94696
G1 X40.882 Y32.535 E31.95651
G1 X38.93 Y34.847 E32.13766
G1 X38.823 Y34.965 E32.14719
G1 X36.732 Y37.155 E32.32847
G1 X36.62 Y37.267 E32.33795
G1 X34.399 Y39.326 E32.51927
G1 X34.28 Y39.429 E32.52869
G1 X31.941 Y41.347 E32.70978
G1 X31.815 Y41.444 E32.7193
G1 X29.362 Y43.217 E32.90051
G1 X29.229 Y43.307 E32.91012
G1 X26.671 Y44.926 E33.09136
G1 X26.537 Y45.006 E33.1007
G1 X23.886 Y46.468 E33.28195
G1 X23.744 Y46.54 E33.29148
G1 X21.011 Y47.836 E33.47256
G1 X20.866 Y47.9 E33.48205
G1 X18.056 Y49.029 E33.66335
G1 X17.907 Y49.083 E33.67284
G1 X15.035 Y50.037 E33.85402
G1 X14.883 Y50.083 E33.86353
G1 X11.959 Y50.86 E34.04466
G1 X11.805 Y50.896 E34.05413
G1 X8.836 Y51.495 E34.23546
G1 X8.679 Y51.521 E34.24498
G1 X5.681 Y51.937 E34.42619
G1 X5.524 Y51.954 E34.43564
G1 X2.506 Y52.187 E34.61686
G1 X2.347 Y52.195 E34.62639
G1 X-.677 Y52.243 E34.80746
G1 X-.835 Y52.24 E34.81692
G1 X-3.859 Y52.104 E34.99814
G1 X-4.017 Y52.092 E35.00763
G1 X-7.027 Y51.772 E35.18885
G1 X-7.26 Y51.739 E35.20294
G1 X-10.294 Y51.224 E35.38718
G1 X-10.401 Y51.201 E35.39373
G1 X-13.358 Y50.511 E35.57551
G1 X-13.498 Y50.472 E35.58422
G1 X-16.328 Y49.63 E35.76098
G1 X-16.549 Y49.556 E35.77494
G1 X-19.396 Y48.515 E35.95642
G1 X-19.541 Y48.456 E35.96579
G1 X-22.245 Y47.275 E36.14244
G1 X-22.455 Y47.174 E36.15639
G1 X-25.157 Y45.792 E36.33809
G1 X-25.289 Y45.718 E36.34715
G1 X-27.902 Y44.173 E36.52888
G1 X-28.027 Y44.092 E36.5378
G1 X-30.473 Y42.439 E36.71454
G1 X-30.664 Y42.301 E36.72865
G1 X-33.058 Y40.459 E36.90949
G1 X-33.184 Y40.354 E36.91931
G1 X-35.466 Y38.366 E37.1005
G1 X-35.584 Y38.257 E37.11011
G1 X-37.739 Y36.132 E37.2913
G1 X-37.847 Y36.019 E37.30066
G1 X-39.858 Y33.781 E37.48079
G1 X-39.97 Y33.647 E37.49125
G1 X-41.869 Y31.256 E37.67405
G1 X-41.946 Y31.149 E37.68194
G1 X-43.678 Y28.673 E37.86284
G1 X-43.768 Y28.534 E37.87276
G1 X-45.35 Y25.945 E38.0544
G1 X-45.423 Y25.813 E38.06343
G1 X-46.843 Y23.139 E38.24469
G1 X-46.914 Y22.996 E38.25425
G1 X-48.166 Y20.243 E38.43531
G1 X-48.227 Y20.098 E38.44473
G1 X-49.306 Y17.283 E38.62521
G1 X-49.362 Y17.12 E38.63553
G1 X-50.271 Y14.232 E38.81679
G1 X-50.314 Y14.079 E38.82631
G1 X-51.045 Y11.143 E39.00745
G1 X-51.078 Y10.989 E39.01688
G1 X-51.627 Y8.023 E39.19746
G1 X-51.653 Y7.854 E39.2077
G1 X-52.022 Y4.851 E39.38884
G1 X-52.036 Y4.692 E39.39839
G1 X-52.22 Y1.672 E39.57953
G1 X-52.225 Y1.515 E39.58893
G1 X-52.226 Y-1.512 E39.77015
G1 X-52.214 Y-1.758 E39.7849
G0 F3600 X-51.813 Y-1.765
G1 F2400 X-51.638 Y-4.668 E39.95901
G1 X-51.626 Y-4.803 E39.96713
G1 X-51.257 Y-7.806 E40.14826
G1 X-51.237 Y-7.937 E40.1562
G1 X-50.688 Y-10.915 E40.33749
G1 X-50.659 Y-11.048 E40.34564
G1 X-49.927 Y-13.984 E40.52679
G1 X-49.891 Y-14.113 E40.53481
G1 X-48.982 Y-17.001 E40.71607
G1 X-48.938 Y-17.127 E40.72406
G1 X-47.856 Y-19.953 E40.90523
G1 X-47.804 Y-20.077 E40.91328
G1 X-46.551 Y-22.832 E41.09447
G1 X-46.491 Y-22.952 E41.1025
G1 X-45.072 Y-25.626 E41.28373
G1 X-45.006 Y-25.742 E41.29172
G1 X-43.428 Y-28.325 E41.47294
G1 X-43.354 Y-28.438 E41.48103
G1 X-41.62 Y-30.919 E41.66224
G1 X-41.54 Y-31.026 E41.67024
G1 X-39.659 Y-33.397 E41.85143
G1 X-39.573 Y-33.5 E41.85946
G1 X-37.551 Y-35.752 E42.04066
G1 X-37.459 Y-35.849 E42.04866
G1 X-35.304 Y-37.974 E42.22985
G1 X-35.204 Y-38.066 E42.23799
G1 X-32.922 Y-40.054 E42.41918
G1 X-32.819 Y-40.138 E42.42714
G1 X-30.422 Y-41.984 E42.60826
G1 X-30.313 Y-42.063 E42.61632
G1 X-27.805 Y-43.761 E42.79765
G1 X-27.692 Y-43.832 E42.80564
G1 X-25.088 Y-45.373 E42.98679
G1 X-24.971 Y-45.438 E42.9948
G1 X-22.276 Y-46.818 E43.17607
G1 X-22.156 Y-46.875 E43.18402
G1 X-19.384 Y-48.089 E43.36519
G1 X-19.257 Y-48.14 E43.37339
G1 X-16.414 Y-49.181 E43.55464
G1 X-16.287 Y-49.223 E43.56265
G1 X-13.387 Y-50.089 E43.74385
G1 X-13.258 Y-50.123 E43.75183
G1 X-10.312 Y-50.811 E43.93295
G1 X-10.181 Y-50.838 E43.94096
G1 X-7.196 Y-51.346 E44.12223
G1 X-7.063 Y-51.364 E44.13027
G1 X-4.054 Y-51.688 E44.31145
G1 X-3.844 Y-51.704 E44.32406
G1 X-.894 Y-51.84 E44.50086
G1 X-.761 Y-51.842 E44.50883
G1 X2.263 Y-51.798 E44.68989
G1 X2.472 Y-51.788 E44.70241
G1 X5.416 Y-51.564 E44.87917
G1 X5.548 Y-51.55 E44.88712
G1 X8.548 Y-51.138 E45.06841
G1 X8.681 Y-51.115 E45.07649
G1 X11.716 Y-50.507 E45.2618
G1 X11.854 Y-50.474 E45.2703
G1 X14.707 Y-49.718 E45.447
G1 X14.834 Y-49.68 E45.45493
G1 X17.707 Y-48.73 E45.63609
G1 X17.904 Y-48.657 E45.64867
G1 X20.714 Y-47.53 E45.82993
G1 X20.834 Y-47.476 E45.83781
G1 X23.503 Y-46.214 E46.01456
G1 X23.623 Y-46.153 E46.02262
G1 X26.275 Y-44.695 E46.2038
G1 X26.455 Y-44.588 E46.21633
G1 X28.995 Y-42.982 E46.39625
G1 X29.125 Y-42.893 E46.40568
G1 X31.565 Y-41.131 E46.58586
G1 X31.684 Y-41.039 E46.59487
G1 X34.023 Y-39.123 E46.77588
G1 X34.125 Y-39.032 E46.78407
G1 X36.323 Y-36.997 E46.9634
G1 X36.443 Y-36.879 E46.97347
G1 X38.533 Y-34.689 E47.15471
G1 X38.621 Y-34.591 E47.16259
G1 X40.571 Y-32.283 E47.34349
G1 X40.656 Y-32.174 E47.35176
G1 X42.422 Y-29.807 E47.52856
