;FLAVOR:Marlin
;TIME:8201
;Filament used: 13.0104m
;Layer height: 0.3
;MINX:-72.664
;MINY:-33.441
;MINZ:0.05
;MAXX:84.317
;MAXY:30.302
;MAXZ:43
;TARGET_MACHINE.NAME:Unknown
;Generated with Cura_SteamEngine 5.9.0
M140 S50
M105
M190 S50
M104 S225
M105
M109 S225
M82 ;absolute extrusion mode
;FLAVOR:Marlin
M82 ;absolute extrusion mode
G21
G90
M82
M107 T0
G28
G92 E0
G0 E3 F200
G92 E0 ; reset extrusion distance
M106 S255 ; Enable cooling fan full speed
G1 X-98 Y0 Z0.4 F3000 ; move to arc start
G3 X0 Y-98 I98 Z0.4 E40 F400 ; lay arc stripe 90deg
G92 E0 ; reset extrusion distance
G4 P500 ; wait for 0.5 sec
G0 Z10 E-1 ; Lift 15mm and retract 1mm filament
G4 P2000 ; wait for 5 sec
G0 Z15
M107 ; Disable cooling fan
G1 X0 Y-85 Z4 E0 F3000 ; get off the bed
G92 E0
G92 E0
G1 F1500 E-1
;LAYER_COUNT:126
;LAYER:0
M106 S102
G1 F600 Z1.25
G0 F1500 X-27.351 Y23.117 Z1.25
;TYPE:SKIRT
G1 F600 Z0.25
G1 F3600 E0.75698
G1 F1200 X-27.828 Y24.223 E0.80763
G1 X-28.332 Y25.122 E0.85098
G1 X-29.142 Y26.25 E0.90938
G1 X-30.021 Y27.208 E0.96405
G1 X-30.85 Y27.935 E1.01042
G1 X-31.849 Y28.637 E1.06177
G1 X-32.939 Y29.233 E1.11402
G1 X-34.106 Y29.707 E1.16699
G1 X-35.398 Y30.066 E1.22338
G1 X-36.301 Y30.217 E1.26188
G1 X-37.655 Y30.302 E1.31894
G1 X-61.849 Y30.295 E2.3364
G1 X-63.058 Y30.209 E2.38737
G1 X-64.266 Y29.986 E2.43903
G1 X-65.299 Y29.682 E2.48432
G1 X-66.577 Y29.139 E2.54271
G1 X-67.594 Y28.562 E2.59189
G1 X-68.578 Y27.853 E2.64289
G1 X-69.573 Y26.941 E2.69965
G1 X-70.353 Y26.045 E2.74961
G1 X-70.977 Y25.153 E2.79539
G1 X-71.613 Y23.99 E2.85114
G1 X-72.054 Y22.905 E2.90039
G1 X-72.426 Y21.567 E2.95879
G1 X-72.583 Y20.619 E2.99921
G1 X-72.664 Y19.314 E3.05419
G1 X-72.664 Y-12.821 E4.40561
G1 X-72.482 Y-13.711 E4.44381
G1 X-72.084 Y-14.466 E4.47971
G1 X-71.915 Y-14.686 E4.49137
G1 X-71.297 Y-15.184 E4.52475
G1 X-70.501 Y-15.58 E4.56214
G1 X-69.722 Y-15.694 E4.59525
G1 X-55.664 Y-15.698 E5.18645
G1 X-55.664 Y-18.349 E5.29794
G1 X-55.986 Y-18.653 E5.31656
G1 X-56.742 Y-19.563 E5.36631
G1 X-57.35 Y-20.528 E5.41428
G1 X-57.865 Y-21.651 E5.46623
G1 X-58.138 Y-22.53 E5.50494
G1 X-58.376 Y-23.893 E5.56313
G1 X-58.413 Y-24.633 E5.59429
G1 X-58.303 Y-26.05 E5.65406
G1 X-58.068 Y-27.111 E5.69976
G1 X-57.636 Y-28.297 E5.75284
G1 X-57.248 Y-29.053 E5.78858
G1 X-56.426 Y-30.244 E5.84944
G1 X-55.877 Y-30.852 E5.88389
G1 X-54.858 Y-31.731 E5.94048
G1 X-53.816 Y-32.397 E5.99249
G1 X-53.07 Y-32.755 E6.02729
G1 X-51.717 Y-33.201 E6.0872
G1 X-50.958 Y-33.35 E6.11973
G1 X-49.44 Y-33.441 E6.18368
G1 X-48.494 Y-33.364 E6.22359
G1 X-47.225 Y-33.097 E6.27813
G1 X-46.447 Y-32.832 E6.31269
G1 X-45.146 Y-32.184 E6.37382
G1 X-44.461 Y-31.725 E6.40849
G1 X-43.381 Y-30.782 E6.46879
G1 X-42.774 Y-30.084 E6.50769
G1 X-42.046 Y-28.991 E6.56292
G1 X-41.583 Y-28.037 E6.60751
G1 X-41.218 Y-26.961 E6.6553
G1 X-40.985 Y-25.794 E6.70534
G1 X-40.922 Y-25 E6.73884
G1 X-40.997 Y-23.511 E6.80154
G1 X-41.137 Y-22.743 E6.83437
G1 X-41.584 Y-21.352 E6.89581
G1 X-42.06 Y-20.376 E6.94148
G1 X-42.7 Y-19.404 E6.99042
G1 X-43.29 Y-18.708 E7.02879
G1 X-43.664 Y-18.357 E7.05036
G1 X-43.664 Y-15.698 E7.16218
G1 X-29.541 Y-15.698 E7.75612
G1 X-28.651 Y-15.516 E7.79432
G1 X-27.896 Y-15.118 E7.83021
G1 X-27.676 Y-14.949 E7.84188
G1 X-27.178 Y-14.331 E7.87526
G1 X-26.782 Y-13.534 E7.91269
G1 X-26.664 Y-12.698 E7.94819
G1 X-26.671 Y19.487 E9.30171
G1 X-26.756 Y20.692 E9.35251
G1 X-26.944 Y21.751 E9.39775
G1 X-27.351 Y23.117 E9.45769
G0 F1500 X-28.177 Y24.027
G1 F1200 X-28.681 Y24.926 E9.50103
G1 X-29.437 Y25.98 E9.55558
G1 X-30.285 Y26.907 E9.60842
G1 X-31.114 Y27.634 E9.65479
G1 X-32.042 Y28.286 E9.70248
G1 X-33.09 Y28.862 E9.75277
G1 X-34.257 Y29.336 E9.80574
G1 X-35.464 Y29.671 E9.85842
G1 X-36.367 Y29.822 E9.89692
G1 X-37.655 Y29.902 E9.9512
G1 X-61.822 Y29.896 E10.96752
G1 X-62.986 Y29.816 E11.01659
G1 X-64.153 Y29.602 E11.06649
G1 X-65.186 Y29.298 E11.11177
G1 X-66.38 Y28.791 E11.16632
G1 X-67.36 Y28.237 E11.21367
G1 X-68.344 Y27.528 E11.26467
G1 X-69.271 Y26.678 E11.31756
G1 X-70.051 Y25.782 E11.36752
G1 X-70.626 Y24.96 E11.40971
G1 X-71.242 Y23.839 E11.4635
G1 X-71.683 Y22.754 E11.51275
G1 X-72.031 Y21.502 E11.5674
G1 X-72.188 Y20.554 E11.60781
G1 X-72.264 Y19.314 E11.66006
G1 X-72.264 Y-12.78 E13.00975
G1 X-72.101 Y-13.576 E13.04392
G1 X-71.73 Y-14.28 E13.07739
G1 X-71.627 Y-14.405 E13.0842
G1 X-71.081 Y-14.845 E13.11369
G1 X-70.381 Y-15.193 E13.14656
G1 X-69.664 Y-15.298 E13.17704
G1 X-55.264 Y-15.298 E13.78262
G1 X-55.264 Y-18.522 E13.91821
G1 X-55.678 Y-18.909 E13.94204
G1 X-56.434 Y-19.819 E13.99179
G1 X-56.986 Y-20.695 E14.03534
G1 X-57.501 Y-21.818 E14.08729
G1 X-57.744 Y-22.6 E14.12173
G1 X-57.976 Y-23.913 E14.1778
G1 X-58.013 Y-24.653 E14.20896
G1 X-57.912 Y-25.965 E14.2643
G1 X-57.692 Y-26.975 E14.30777
G1 X-57.28 Y-28.114 E14.35871
G1 X-56.892 Y-28.87 E14.39444
G1 X-56.129 Y-29.976 E14.45095
G1 X-55.58 Y-30.584 E14.4854
G1 X-54.597 Y-31.428 E14.53989
G1 X-53.643 Y-32.036 E14.58746
G1 X-52.897 Y-32.394 E14.62226
G1 X-51.64 Y-32.808 E14.67792
G1 X-50.881 Y-32.957 E14.71045
G1 X-49.472 Y-33.042 E14.76981
G1 X-48.526 Y-32.965 E14.80972
G1 X-47.354 Y-32.718 E14.86009
G1 X-46.576 Y-32.453 E14.89466
G1 X-45.369 Y-31.852 E14.95136
G1 X-44.684 Y-31.393 E14.98604
G1 X-43.682 Y-30.519 E15.04195
G1 X-43.106 Y-29.861 E15.07873
G1 X-42.405 Y-28.815 E15.13169
G1 X-41.962 Y-27.909 E15.1741
G1 X-41.597 Y-26.833 E15.22188
G1 X-41.384 Y-25.762 E15.2678
G1 X-41.321 Y-24.968 E15.3013
G1 X-41.391 Y-23.583 E15.35962
G1 X-41.531 Y-22.815 E15.39245
G1 X-41.944 Y-21.527 E15.44933
G1 X-42.42 Y-20.551 E15.495
G1 X-43.006 Y-19.662 E15.53978
G1 X-43.564 Y-19 E15.57619
G1 X-44.064 Y-18.531 E15.60502
G1 X-44.064 Y-15.298 E15.74098
G1 X-29.582 Y-15.298 E16.35001
G1 X-28.786 Y-15.135 E16.38418
G1 X-28.082 Y-14.764 E16.41765
G1 X-27.957 Y-14.661 E16.42446
G1 X-27.517 Y-14.115 E16.45395
G1 X-27.169 Y-13.415 E16.48682
G1 X-27.064 Y-12.698 E16.5173
G1 X-27.07 Y19.46 E17.86968
G1 X-27.15 Y20.622 E17.91867
G1 X-27.338 Y21.681 E17.9639
G1 X-27.718 Y22.959 E18.01997
G1 X-28.177 Y24.027 E18.06886
G0 F1500 X-29.03 Y24.73
G1 F1200 X-29.733 Y25.711 E18.11961
G1 X-30.549 Y26.606 E18.17054
G1 X-31.378 Y27.333 E18.21691
G1 X-32.235 Y27.935 E18.26096
G1 X-33.283 Y28.511 E18.31125
G1 X-34.364 Y28.951 E18.36033
G1 X-35.53 Y29.276 E18.41124
G1 X-36.433 Y29.427 E18.44974
G1 X-37.655 Y29.502 E18.50123
G1 X-61.795 Y29.497 E19.51642
G1 X-62.915 Y29.422 E19.56363
G1 X-64.04 Y29.218 E19.61171
G1 X-65.073 Y28.914 E19.65699
G1 X-66.184 Y28.443 E19.70774
G1 X-67.126 Y27.912 E19.75322
G1 X-68.11 Y27.203 E19.80422
G1 X-68.97 Y26.415 E19.85327
G1 X-69.724 Y25.552 E19.90147
G1 X-70.275 Y24.767 E19.9418
G1 X-70.891 Y23.646 E19.99559
G1 X-71.312 Y22.604 E20.04286
G1 X-71.636 Y21.437 E20.09379
G1 X-71.793 Y20.489 E20.1342
G1 X-71.864 Y19.314 E20.1837
G1 X-71.864 Y-12.739 E21.53167
G1 X-71.72 Y-13.441 E21.56181
G1 X-71.376 Y-14.094 E21.59285
G1 X-70.865 Y-14.506 E21.62045
G1 X-70.259 Y-14.807 E21.64891
G1 X-69.664 Y-14.898 E21.67422
G1 X-54.864 Y-14.898 E22.29663
G1 X-54.864 Y-18.696 E22.45635
G1 X-55.37 Y-19.165 E22.48537
G1 X-56.126 Y-20.075 E22.53512
G1 X-56.623 Y-20.863 E22.5743
G1 X-57.119 Y-21.938 E22.62409
G1 X-57.35 Y-22.671 E22.65641
G1 X-57.576 Y-23.933 E22.71032
G1 X-57.613 Y-24.673 E22.74148
G1 X-57.521 Y-25.881 E22.79243
G1 X-57.315 Y-26.84 E22.83368
G1 X-56.924 Y-27.931 E22.88242
G1 X-56.536 Y-28.687 E22.91816
G1 X-55.832 Y-29.708 E22.97031
G1 X-55.283 Y-30.316 E23.00476
G1 X-54.381 Y-31.091 E23.05478
G1 X-53.47 Y-31.675 E23.10028
G1 X-52.724 Y-32.033 E23.13508
G1 X-51.563 Y-32.415 E23.18648
G1 X-50.804 Y-32.564 E23.21901
G1 X-49.504 Y-32.643 E23.27378
G1 X-48.558 Y-32.566 E23.3137
G1 X-47.483 Y-32.339 E23.3599
G1 X-46.705 Y-32.074 E23.39447
G1 X-45.592 Y-31.52 E23.44675
G1 X-44.907 Y-31.061 E23.48143
G1 X-43.982 Y-30.254 E23.53305
G1 X-43.438 Y-29.637 E23.56764
G1 X-42.764 Y-28.638 E23.61832
G1 X-42.341 Y-27.781 E23.65852
G1 X-41.976 Y-26.705 E23.7063
G1 X-41.783 Y-25.73 E23.7481
G1 X-41.72 Y-24.936 E23.78159
G1 X-41.785 Y-23.655 E23.83553
G1 X-41.925 Y-22.887 E23.86836
G1 X-42.304 Y-21.702 E23.92069
G1 X-42.78 Y-20.726 E23.96635
G1 X-43.313 Y-19.919 E24.00702
G1 X-43.838 Y-19.292 E24.04141
G1 X-44.464 Y-18.705 E24.0775
G1 X-44.464 Y-14.898 E24.23761
G1 X-29.623 Y-14.898 E24.86174
G1 X-28.921 Y-14.754 E24.89187
G1 X-28.268 Y-14.41 E24.92291
G1 X-27.856 Y-13.899 E24.95052
G1 X-27.555 Y-13.293 E24.97897
G1 X-27.464 Y-12.698 E25.00428
G1 X-27.469 Y19.433 E26.35554
G1 X-27.544 Y20.552 E26.4027
G1 X-27.732 Y21.611 E26.44793
G1 X-28.086 Y22.802 E26.50018
G1 X-28.526 Y23.831 E26.54725
G1 X-29.03 Y24.73 E26.59059
G0 F1500 X-30.029 Y25.442
G1 F1200 X-30.813 Y26.305 E26.63962
G1 X-31.642 Y27.032 E26.68599
G1 X-32.428 Y27.584 E26.72639
G1 X-33.476 Y28.16 E26.77668
G1 X-34.514 Y28.58 E26.82377
G1 X-35.596 Y28.881 E26.871
G1 X-36.499 Y29.032 E26.9095
G1 X-37.655 Y29.102 E26.95821
G1 X-61.769 Y29.098 E27.97231
G1 X-62.844 Y29.028 E28.01761
G1 X-63.927 Y28.834 E28.06388
G1 X-64.96 Y28.53 E28.10916
G1 X-65.988 Y28.094 E28.15612
G1 X-66.893 Y27.587 E28.19975
G1 X-67.84 Y26.907 E28.24878
G1 X-68.669 Y26.151 E28.29596
G1 X-69.397 Y25.321 E28.34239
G1 X-69.924 Y24.574 E28.38084
G1 X-70.54 Y23.453 E28.43463
G1 X-70.927 Y22.496 E28.47804
G1 X-71.241 Y21.372 E28.52712
G1 X-71.398 Y20.424 E28.56753
G1 X-71.464 Y19.314 E28.61429
G1 X-71.464 Y-12.698 E29.96054
G1 X-71.34 Y-13.304 E29.98655
G1 X-71.059 Y-13.836 E30.01185
G1 X-70.687 Y-14.148 E30.03227
G1 X-70.138 Y-14.421 E30.05806
G1 X-69.664 Y-14.498 E30.07825
G1 X-54.464 Y-14.498 E30.71748
G1 X-54.464 Y-18.871 E30.90138
G1 X-55.062 Y-19.421 E30.93555
G1 X-55.818 Y-20.331 E30.9853
G1 X-56.284 Y-21.075 E31.02222
G1 X-56.737 Y-22.058 E31.06774
G1 X-56.968 Y-22.791 E31.10006
G1 X-57.176 Y-23.953 E31.1497
G1 X-57.213 Y-24.693 E31.18086
G1 X-57.13 Y-25.797 E31.22742
G1 X-56.924 Y-26.756 E31.26867
G1 X-56.568 Y-27.748 E31.313
G1 X-56.18 Y-28.504 E31.34873
G1 X-55.535 Y-29.44 E31.39654
G1 X-54.986 Y-30.048 E31.43099
G1 X-54.164 Y-30.755 E31.47658
G1 X-53.297 Y-31.314 E31.51997
G1 X-52.551 Y-31.672 E31.55476
G1 X-51.486 Y-32.022 E31.60191
G1 X-50.727 Y-32.171 E31.63444
G1 X-49.536 Y-32.244 E31.68462
G1 X-48.59 Y-32.167 E31.72453
G1 X-47.612 Y-31.96 E31.76657
G1 X-46.834 Y-31.695 E31.80114
G1 X-45.815 Y-31.188 E31.849
G1 X-45.13 Y-30.729 E31.88368
G1 X-44.282 Y-29.989 E31.93101
G1 X-43.738 Y-29.372 E31.9656
G1 X-43.122 Y-28.46 E32.01189
G1 X-42.719 Y-27.651 E32.04989
G1 X-42.368 Y-26.626 E32.09546
G1 X-42.182 Y-25.698 E32.13526
G1 X-42.119 Y-24.904 E32.16876
G1 X-42.179 Y-23.727 E32.21832
G1 X-42.319 Y-22.959 E32.25115
G1 X-42.664 Y-21.876 E32.29895
G1 X-43.114 Y-20.946 E32.3424
G1 X-43.62 Y-20.176 E32.38115
G1 X-44.145 Y-19.549 E32.41554
G1 X-44.864 Y-18.878 E32.4569
G1 X-44.864 Y-14.498 E32.64109
G1 X-29.664 Y-14.498 E33.28032
G1 X-29.058 Y-14.374 E33.30633
G1 X-28.526 Y-14.093 E33.33164
G1 X-28.214 Y-13.721 E33.35205
G1 X-27.941 Y-13.172 E33.37784
G1 X-27.864 Y-12.698 E33.39803
G1 X-27.868 Y19.407 E34.74819
G1 X-27.938 Y20.482 E34.7935
G1 X-28.126 Y21.541 E34.83873
G1 X-28.454 Y22.645 E34.88716
G1 X-28.875 Y23.635 E34.9324
G1 X-29.379 Y24.534 E34.97575
G1 X-30.029 Y25.442 E35.02271
G0 F1500 X-31.077 Y26.005
G1 F1200 X-31.873 Y26.705 E35.06729
G1 X-32.621 Y27.233 E35.10579
G1 X-33.669 Y27.809 E35.15608
G1 X-34.622 Y28.195 E35.19932
G1 X-35.662 Y28.486 E35.24474
G1 X-36.565 Y28.637 E35.28324
G1 X-37.655 Y28.702 E35.32916
G1 X-61.744 Y28.699 E36.34221
G1 X-62.774 Y28.634 E36.38561
G1 X-63.814 Y28.45 E36.43003
G1 X-64.847 Y28.146 E36.47531
G1 X-65.793 Y27.745 E36.51852
G1 X-66.66 Y27.262 E36.56026
G1 X-67.571 Y26.611 E36.60735
G1 X-68.369 Y25.887 E36.65266
G1 X-69.07 Y25.09 E36.6973
G1 X-69.597 Y24.343 E36.73574
G1 X-70.17 Y23.302 E36.78572
G1 X-70.542 Y22.388 E36.82722
G1 X-70.846 Y21.307 E36.87444
G1 X-71.003 Y20.359 E36.91485
G1 X-71.064 Y19.314 E36.95887
G1 X-71.064 Y-12.698 E38.30512
G1 X-70.986 Y-13.117 E38.32304
G1 X-70.741 Y-13.581 E38.34511
G1 X-70.509 Y-13.79 E38.35824
G1 X-70.015 Y-14.036 E38.38145
G1 X-69.664 Y-14.098 E38.39644
G1 X-54.064 Y-14.098 E39.05249
G1 X-54.064 Y-19.072 E39.26167
G1 X-54.224 Y-19.191 E39.27005
G1 X-54.79 Y-19.715 E39.30249
G1 X-55.479 Y-20.543 E39.34779
G1 X-55.945 Y-21.287 E39.38471
G1 X-56.355 Y-22.178 E39.42596
G1 X-56.586 Y-22.911 E39.45828
G1 X-56.776 Y-23.973 E39.50365
G1 X-56.813 Y-24.713 E39.53481
G1 X-56.739 Y-25.713 E39.57698
G1 X-56.533 Y-26.672 E39.61823
G1 X-56.211 Y-27.567 E39.65823
G1 X-55.85 Y-28.278 E39.69176
G1 X-55.237 Y-29.173 E39.73738
G1 X-54.725 Y-29.745 E39.76966
G1 X-53.903 Y-30.452 E39.81526
G1 X-53.124 Y-30.953 E39.85421
G1 X-52.378 Y-31.311 E39.88901
G1 X-51.409 Y-31.629 E39.9319
G1 X-50.65 Y-31.778 E39.96443
G1 X-49.567 Y-31.845 E40.01006
G1 X-48.672 Y-31.775 E40.04781
G1 X-47.741 Y-31.581 E40.08781
G1 X-46.963 Y-31.316 E40.12237
G1 X-46.038 Y-30.856 E40.16582
G1 X-45.353 Y-30.397 E40.20049
G1 X-44.582 Y-29.724 E40.24353
G1 X-44.038 Y-29.107 E40.27812
G1 X-43.479 Y-28.28 E40.3201
G1 X-43.097 Y-27.52 E40.35587
G1 X-42.76 Y-26.546 E40.39922
G1 X-42.581 Y-25.666 E40.43698
G1 X-42.518 Y-24.872 E40.47048
G1 X-42.573 Y-23.799 E40.51566
G1 X-42.713 Y-23.031 E40.54849
G1 X-43.025 Y-22.049 E40.59183
G1 X-43.449 Y-21.165 E40.63306
G1 X-43.927 Y-20.433 E40.66982
G1 X-44.452 Y-19.806 E40.70421
G1 X-45.264 Y-19.052 E40.75081
G1 X-45.264 Y-14.098 E40.95915
G1 X-29.664 Y-14.098 E41.6152
G1 X-29.245 Y-14.02 E41.63312
G1 X-28.781 Y-13.775 E41.65519
G1 X-28.572 Y-13.543 E41.66832
G1 X-28.326 Y-13.049 E41.69153
G1 X-28.264 Y-12.698 E41.70652
G1 X-28.267 Y19.382 E43.05563
G1 X-28.332 Y20.412 E43.09903
G1 X-28.52 Y21.471 E43.14426
G1 X-28.822 Y22.489 E43.18892
G1 X-29.224 Y23.439 E43.2323
G1 X-29.728 Y24.338 E43.27564
G1 X-30.326 Y25.174 E43.31887
G1 X-31.077 Y26.005 E43.36597
G0 F1500 X-32.104 Y26.378
G1 F1200 X-32.852 Y26.906 E43.40447
G1 X-33.82 Y27.439 E43.45095
G1 X-34.73 Y27.81 E43.49227
G1 X-35.728 Y28.091 E43.53588
G1 X-36.631 Y28.242 E43.57438
G1 X-37.655 Y28.302 E43.61752
G1 X-61.72 Y28.3 E44.62956
G1 X-62.705 Y28.24 E44.67106
G1 X-63.702 Y28.066 E44.71362
G1 X-64.692 Y27.777 E44.75699
G1 X-65.599 Y27.395 E44.79838
G1 X-66.428 Y26.936 E44.83823
G1 X-67.303 Y26.314 E44.88338
G1 X-68.069 Y25.622 E44.92679
G1 X-68.743 Y24.859 E44.9696
G1 X-69.27 Y24.112 E45.00805
G1 X-69.8 Y23.15 E45.05424
G1 X-70.157 Y22.279 E45.09382
G1 X-70.451 Y21.242 E45.13915
G1 X-70.608 Y20.294 E45.17956
G1 X-70.664 Y19.314 E45.22084
G1 X-70.664 Y-12.698 E46.56709
G1 X-70.594 Y-13.036 E46.58161
G1 X-70.457 Y-13.299 E46.59408
G1 X-70.319 Y-13.438 E46.60231
G1 X-69.937 Y-13.644 E46.62057
G1 X-69.664 Y-13.698 E46.63227
G1 X-53.7 Y-13.698 E47.30363
G1 X-53.664 Y-13.734 E47.30577
G1 X-53.664 Y-19.276 E47.53883
G1 X-53.952 Y-19.485 E47.5538
G1 X-54.518 Y-20.009 E47.58624
G1 X-55.141 Y-20.757 E47.62717
G1 X-55.582 Y-21.455 E47.6619
G1 X-55.973 Y-22.298 E47.70098
G1 X-56.204 Y-23.031 E47.7333
G1 X-56.376 Y-23.993 E47.77439
G1 X-56.413 Y-24.733 E47.80555
G1 X-56.348 Y-25.63 E47.84337
G1 X-56.156 Y-26.538 E47.8824
G1 X-55.854 Y-27.386 E47.92026
G1 X-55.493 Y-28.097 E47.95379
G1 X-54.939 Y-28.906 E47.99503
G1 X-54.427 Y-29.478 E48.02731
G1 X-53.686 Y-30.116 E48.06843
G1 X-52.951 Y-30.592 E48.10526
G1 X-52.205 Y-30.95 E48.14006
G1 X-51.332 Y-31.236 E48.17869
G1 X-50.573 Y-31.385 E48.21122
G1 X-49.597 Y-31.446 E48.25235
G1 X-48.752 Y-31.383 E48.28798
G1 X-47.87 Y-31.202 E48.32585
G1 X-47.092 Y-30.937 E48.36041
G1 X-46.261 Y-30.524 E48.39943
G1 X-45.576 Y-30.065 E48.43411
G1 X-44.882 Y-29.459 E48.47286
G1 X-44.338 Y-28.842 E48.50745
