;FLAVOR:Marlin
;TIME:1252
;Filament used: 1.60074m
;Layer height: 0.24
;MINX:-24.478
;MINY:-22.422
;MINZ:0.3
;MAXX:23.014
;MAXY:8.17
;MAXZ:10.9
;Generated with Cura_SteamEngine 4.13.1
M140 S50
M105
M190 S50
M104 S216
M105
M109 S216
M82 ;absolute extrusion mode
;FLAVOR:Marlin
M82 ;absolute extrusion mode
G21
G90
M82
M107 T0
G28
G92 E0
G0 E3 F200
G92 E0 ; reset extrusion distance
M106 S255 ; Enable cooling fan full speed
G1 X-98 Y0 Z0.4 F3000 ; move to arc start
G3 X0 Y-98 I98 Z0.4 E40 F400 ; lay arc stripe 90deg
G92 E0 ; reset extrusion distance
G4 P500 ; wait for 0.5 sec
G0 Z10 E-1 ; Lift 15mm and retract 1mm filament
G4 P2000 ; wait for 5 sec
G0 Z15
M107 ; Disable cooling fan
G1 X0 Y-85 Z4 E0 F3000 ; get off the bed
G92 E0
G92 E0
G1 F1500 E-6.5
;LAYER_COUNT:42
;LAYER:0
M106 S25.5
G1 F600 Z1.3
G0 F3600 X0.2 Y-2.28 Z1.3
;TYPE:SKIRT
G1 F600 Z0.3
G1 F1500 E0.3326
G1 F1200 X-.755 Y-2.323 E0.40128
G1 X-1.178 Y-2.314 E0.43168
G1 X-1.68 Y-2.279 E0.46783
G1 X-2.562 Y-2.153 E0.53184
G1 X-3.342 Y-1.958 E0.5896
G1 X-4.003 Y-1.712 E0.64027
G1 X-4.511 Y-1.45 E0.68133
G1 X-4.966 Y-1.133 E0.72117
G1 X-5.191 Y-.946 E0.74219
G1 X-5.609 Y-.519 E0.78512
G1 X-5.957 Y-0.084 E0.82514
G1 X-6.333 Y0.478 E0.87372
G1 X-6.553 Y0.825 E0.90323
G1 X-7.448 Y2.353 E1.03045
G1 X-7.884 Y3.063 E1.09031
G1 X-7.967 Y3.191 E1.10127
G1 X-8.462 Y3.912 E1.1641
G1 X-8.583 Y4.077 E1.1788
G1 X-9.132 Y4.77 E1.24232
G1 X-9.266 Y4.927 E1.25714
G1 X-9.725 Y5.429 E1.30601
G1 X-10.099 Y5.793 E1.34351
G1 X-10.094 Y5.799 E1.34407
G1 X-10.526 Y6.188 E1.38583
G1 X-10.764 Y6.382 E1.40789
G1 X-11.198 Y6.699 E1.4465
G1 X-11.457 Y6.868 E1.46872
G1 X-11.936 Y7.147 E1.50854
G1 X-12.203 Y7.285 E1.53014
G1 X-12.761 Y7.539 E1.57418
G1 X-13.091 Y7.667 E1.59961
G1 X-13.648 Y7.845 E1.64162
G1 X-13.926 Y7.919 E1.66229
G1 X-14.48 Y8.039 E1.70301
G1 X-14.799 Y8.09 E1.72622
G1 X-15.365 Y8.15 E1.76711
G1 X-15.665 Y8.167 E1.7887
G1 X-16.23 Y8.17 E1.82929
G1 X-16.552 Y8.154 E1.85245
G1 X-17.117 Y8.096 E1.89325
G1 X-17.418 Y8.05 E1.91513
G1 X-17.994 Y7.931 E1.95738
G1 X-18.308 Y7.848 E1.98072
G1 X-18.857 Y7.671 E2.02216
G1 X-19.133 Y7.567 E2.04335
G1 X-19.643 Y7.345 E2.08331
G1 X-19.932 Y7.2 E2.10654
G1 X-20.43 Y6.916 E2.14772
G1 X-20.683 Y6.755 E2.16927
G1 X-21.133 Y6.435 E2.20893
G1 X-21.386 Y6.233 E2.23219
G1 X-21.841 Y5.829 E2.27591
G1 X-22.062 Y5.612 E2.29816
G1 X-22.442 Y5.197 E2.33858
G1 X-22.643 Y4.952 E2.36135
G1 X-22.981 Y4.494 E2.40224
G1 X-23.151 Y4.237 E2.42438
G1 X-23.443 Y3.742 E2.46567
G1 X-23.588 Y3.465 E2.48813
G1 X-23.822 Y2.953 E2.52857
G1 X-23.934 Y2.67 E2.55044
G1 X-24.118 Y2.128 E2.59156
G1 X-24.204 Y1.822 E2.6144
G1 X-24.326 Y1.279 E2.65438
G1 X-24.378 Y0.972 E2.67675
G1 X-24.448 Y0.377 E2.71979
G1 X-24.469 Y0.075 E2.74154
G1 X-24.478 Y-.475 E2.78106
G1 X-24.467 Y-.782 E2.80313
G1 X-24.42 Y-1.326 E2.84235
G1 X-24.366 Y-1.702 E2.86964
G1 X-24.257 Y-2.252 E2.90992
G1 X-24.181 Y-2.553 E2.93223
G1 X-23.996 Y-3.15 E2.97713
G1 X-23.753 Y-3.965 E3.03823
G1 X-23.576 Y-4.867 E3.10426
G1 X-23.487 Y-5.455 E3.14699
G1 X-23.409 Y-6.034 E3.18896
G1 X-23.235 Y-7.367 E3.28554
G1 X-23.114 Y-8.184 E3.34487
G1 X-22.972 Y-8.997 E3.40417
G1 X-22.823 Y-9.712 E3.45664
G1 X-22.793 Y-9.84 E3.46608
G1 X-22.607 Y-10.571 E3.52027
G1 X-22.562 Y-10.73 E3.53214
G1 X-22.334 Y-11.456 E3.58681
G1 X-22.27 Y-11.64 E3.60081
G1 X-21.984 Y-12.379 E3.65773
G1 X-21.901 Y-12.572 E3.67283
G1 X-21.564 Y-13.289 E3.72974
G1 X-21.455 Y-13.499 E3.74674
G1 X-21.045 Y-14.218 E3.80621
G1 X-20.917 Y-14.423 E3.82357
G1 X-20.444 Y-15.116 E3.88385
G1 X-20.288 Y-15.324 E3.90252
G1 X-19.732 Y-16.004 E3.96563
G1 X-19.562 Y-16.195 E3.984
G1 X-18.916 Y-16.86 E4.0506
G1 X-18.729 Y-17.037 E4.0691
G1 X-18.023 Y-17.649 E4.13623
G1 X-17.872 Y-17.771 E4.15017
G1 X-17.369 Y-18.151 E4.19546
G1 X-16.874 Y-18.493 E4.23869
G1 X-16.314 Y-18.852 E4.28647
G1 X-15.862 Y-19.118 E4.32415
G1 X-15.26 Y-19.445 E4.37337
G1 X-15.174 Y-19.49 E4.38034
G1 X-14.674 Y-19.74 E4.4205
G1 X-14.558 Y-19.795 E4.42973
G1 X-13.947 Y-20.067 E4.47778
G1 X-13.289 Y-20.339 E4.52893
G1 X-12.625 Y-20.588 E4.57987
G1 X-12.023 Y-20.795 E4.62561
G1 X-11.297 Y-21.02 E4.68021
G1 X-10.561 Y-21.228 E4.73516
G1 X-9.811 Y-21.418 E4.79074
G1 X-9.061 Y-21.59 E4.84602
G1 X-8.171 Y-21.767 E4.91121
G1 X-7.422 Y-21.896 E4.96582
G1 X-6.59 Y-22.025 E5.0263
G1 X-5.753 Y-22.132 E5.08692
G1 X-4.941 Y-22.221 E5.14561
G1 X-4.11 Y-22.292 E5.20553
G1 X-3.269 Y-22.349 E5.26609
G1 X-2.457 Y-22.389 E5.32449
G1 X-.732 Y-22.422 E5.44844
G1 X-.619 Y-22.422 E5.45656
G1 X1.017 Y-22.389 E5.57412
G1 X1.863 Y-22.346 E5.63497
G1 X2.738 Y-22.286 E5.69798
G1 X3.55 Y-22.214 E5.75655
G1 X4.393 Y-22.12 E5.81749
G1 X5.233 Y-22.009 E5.87836
G1 X6.015 Y-21.887 E5.93522
G1 X6.842 Y-21.742 E5.99554
G1 X7.526 Y-21.605 E6.04565
G1 X8.368 Y-21.413 E6.1077
G1 X9.131 Y-21.219 E6.16426
G1 X9.854 Y-21.014 E6.21824
G1 X10.561 Y-20.795 E6.27142
G1 X11.183 Y-20.581 E6.31867
G1 X11.859 Y-20.326 E6.37058
G1 X12.516 Y-20.055 E6.42164
G1 X12.604 Y-20.017 E6.42852
G1 X13.114 Y-19.786 E6.46875
G1 X13.726 Y-19.483 E6.51781
G1 X13.825 Y-19.432 E6.52581
G1 X14.323 Y-19.161 E6.56654
G1 X14.418 Y-19.107 E6.57439
G1 X14.889 Y-18.828 E6.61372
G1 X14.988 Y-18.767 E6.62207
G1 X15.412 Y-18.493 E6.65834
G1 X15.507 Y-18.429 E6.66657
G1 X15.943 Y-18.123 E6.70484
G1 X16.085 Y-18.017 E6.71757
G1 X16.734 Y-17.502 E6.77709
G1 X16.863 Y-17.393 E6.78922
G1 X17.326 Y-16.981 E6.83375
G1 X17.489 Y-16.825 E6.84996
G1 X18.118 Y-16.174 E6.91499
G1 X18.276 Y-15.997 E6.93204
G1 X18.707 Y-15.474 E6.98072
G1 X18.811 Y-15.341 E6.99285
G1 X19.18 Y-14.838 E7.03767
G1 X19.308 Y-14.648 E7.05413
G1 X19.745 Y-13.946 E7.11354
G1 X20.033 Y-13.424 E7.15637
G1 X20.109 Y-13.274 E7.16845
G1 X20.444 Y-12.559 E7.22517
G1 X20.527 Y-12.363 E7.24046
G1 X20.812 Y-11.622 E7.2975
G1 X20.876 Y-11.44 E7.31136
G1 X21.1 Y-10.723 E7.36533
G1 X21.143 Y-10.57 E7.37674
G1 X21.334 Y-9.822 E7.43221
G1 X21.364 Y-9.69 E7.44193
G1 X21.513 Y-8.973 E7.49454
G1 X21.533 Y-8.868 E7.50222
G1 X21.663 Y-8.102 E7.55804
G1 X21.773 Y-7.355 E7.61228
G1 X21.865 Y-6.66 E7.66265
G1 X21.949 Y-6.009 E7.70981
G1 X22.03 Y-5.406 E7.75352
G1 X22.112 Y-4.867 E7.79268
G1 X22.294 Y-3.949 E7.85992
G1 X22.533 Y-3.155 E7.91949
G1 X22.723 Y-2.531 E7.96635
G1 X22.795 Y-2.245 E7.98754
G1 X22.903 Y-1.704 E8.02717
G1 X22.948 Y-1.396 E8.04953
G1 X22.999 Y-.85 E8.08893
G1 X23.014 Y-.443 E8.11819
G1 X23.004 Y0.102 E8.15735
G1 X22.984 Y0.401 E8.17888
G1 X22.915 Y0.982 E8.22091
G1 X22.857 Y1.313 E8.24505
G1 X22.724 Y1.88 E8.28689
G1 X22.643 Y2.162 E8.30797
G1 X22.468 Y2.676 E8.34698
G1 X22.352 Y2.966 E8.36942
G1 X22.107 Y3.497 E8.41143
G1 X21.966 Y3.766 E8.43325
G1 X21.68 Y4.25 E8.47364
G1 X21.5 Y4.521 E8.49701
G1 X21.156 Y4.981 E8.53828
G1 X20.966 Y5.21 E8.55966
G1 X20.586 Y5.625 E8.60008
G1 X20.366 Y5.841 E8.62223
G1 X19.96 Y6.202 E8.66126
G1 X19.653 Y6.446 E8.68944
G1 X19.183 Y6.778 E8.73078
G1 X18.925 Y6.941 E8.7527
G1 X18.439 Y7.215 E8.79278
G1 X18.157 Y7.355 E8.8154
G1 X17.637 Y7.58 E8.85611
G1 X17.346 Y7.689 E8.87843
G1 X16.812 Y7.857 E8.91865
G1 X16.522 Y7.932 E8.94017
G1 X15.944 Y8.052 E8.98258
G1 X15.62 Y8.101 E9.00612
G1 X15.057 Y8.155 E9.04675
G1 X14.755 Y8.169 E9.06847
G1 X14.179 Y8.166 E9.10985
G1 X13.877 Y8.149 E9.13158
G1 X13.352 Y8.093 E9.16951
G1 X12.983 Y8.033 E9.19637
G1 X12.423 Y7.911 E9.23755
G1 X12.115 Y7.827 E9.26048
G1 X11.574 Y7.647 E9.30144
G1 X11.29 Y7.536 E9.32335
G1 X10.772 Y7.303 E9.36415
G1 X10.495 Y7.161 E9.38652
G1 X10.015 Y6.882 E9.4264
G1 X9.71 Y6.681 E9.45265
G1 X9.279 Y6.365 E9.49104
G1 X9.045 Y6.175 E9.5127
G1 X8.612 Y5.785 E9.55456
G1 X8.413 Y5.589 E9.57463
G1 X7.817 Y4.942 E9.63782
G1 X7.676 Y4.776 E9.65347
G1 X7.109 Y4.063 E9.71892
G1 X6.979 Y3.887 E9.73464
G1 X6.479 Y3.154 E9.79838
G1 X6.4 Y3.032 E9.80882
G1 X5.91 Y2.231 E9.87628
G1 X5.074 Y0.799 E9.99541
G1 X4.699 Y0.211 E10.04551
G1 X4.316 Y-.315 E10.09226
G1 X3.979 Y-.701 E10.12907
G1 X3.559 Y-1.092 E10.17029
G1 X3.045 Y-1.45 E10.21529
G1 X2.532 Y-1.714 E10.25674
G1 X1.882 Y-1.958 E10.30662
G1 X1.085 Y-2.155 E10.3656
G1 X0.2 Y-2.28 E10.42981
G0 F3600 X0.251 Y-2.677
G1 F1200 X-.257 Y-2.713 E10.4664
G1 X-1.194 Y-2.714 E10.53372
G1 X-1.713 Y-2.677 E10.5711
G1 X-2.619 Y-2.549 E10.63683
G1 X-3.481 Y-2.334 E10.70066
G1 X-4.176 Y-2.073 E10.75399
G1 X-4.725 Y-1.788 E10.79843
G1 X-5.207 Y-1.453 E10.8406
G1 X-5.465 Y-1.239 E10.86468
G1 X-5.907 Y-.787 E10.9101
G1 X-6.286 Y-.313 E10.9537
G1 X-6.654 Y0.237 E11.00124
G1 X-6.899 Y0.624 E11.03415
G1 X-7.788 Y2.144 E11.16065
G1 X-8.224 Y2.854 E11.22051
G1 X-8.297 Y2.965 E11.23006
G1 X-8.792 Y3.686 E11.29289
G1 X-8.897 Y3.829 E11.30563
G1 X-9.446 Y4.522 E11.36915
G1 X-9.562 Y4.658 E11.38199
G1 X-10.014 Y5.153 E11.43015
G1 X-10.361 Y5.502 E11.4655
G1 X-10.793 Y5.891 E11.50727
G1 X-10.999 Y6.059 E11.52637
G1 X-11.433 Y6.376 E11.56498
G1 X-11.658 Y6.523 E11.58428
G1 X-12.137 Y6.802 E11.62411
G1 X-12.369 Y6.921 E11.64284
G1 X-12.927 Y7.175 E11.68689
G1 X-13.213 Y7.286 E11.70893
G1 X-13.77 Y7.464 E11.75094
G1 X-14.011 Y7.528 E11.76885
G1 X-14.565 Y7.648 E11.80957
G1 X-14.841 Y7.693 E11.82966
G1 X-15.407 Y7.753 E11.87055
G1 X-15.667 Y7.767 E11.88926
G1 X-16.232 Y7.77 E11.92985
G1 X-16.512 Y7.756 E11.94999
G1 X-17.077 Y7.698 E11.9908
G1 X-17.337 Y7.658 E12.00969
G1 X-17.913 Y7.539 E12.05195
G1 X-18.185 Y7.468 E12.07215
G1 X-18.734 Y7.291 E12.11359
G1 X-18.974 Y7.2 E12.13203
G1 X-19.484 Y6.978 E12.17199
G1 X-19.734 Y6.853 E12.19207
G1 X-20.232 Y6.569 E12.23325
G1 X-20.451 Y6.429 E12.25193
G1 X-20.901 Y6.109 E12.29159
G1 X-21.12 Y5.934 E12.31173
G1 X-21.575 Y5.53 E12.35545
G1 X-21.767 Y5.342 E12.37475
G1 X-22.147 Y4.927 E12.41518
G1 X-22.321 Y4.715 E12.43488
G1 X-22.659 Y4.257 E12.47578
G1 X-22.806 Y4.034 E12.49496
G1 X-23.098 Y3.539 E12.53625
G1 X-23.224 Y3.299 E12.55573
G1 X-23.458 Y2.787 E12.59617
G1 X-23.555 Y2.542 E12.6151
G1 X-23.739 Y2 E12.65622
G1 X-23.814 Y1.734 E12.67608
G1 X-23.936 Y1.191 E12.71606
G1 X-23.981 Y0.925 E12.73544
G1 X-24.051 Y0.33 E12.77848
G1 X-24.069 Y0.069 E12.79728
G1 X-24.078 Y-.481 E12.83679
G1 X-24.068 Y-.748 E12.85599
G1 X-24.021 Y-1.292 E12.89522
G1 X-23.973 Y-1.624 E12.91932
G1 X-23.864 Y-2.174 E12.9596
G1 X-23.799 Y-2.435 E12.97892
G1 X-23.616 Y-3.026 E13.02337
G1 X-23.366 Y-3.866 E13.08633
G1 X-23.261 Y-4.336 E13.12093
G1 X-23.176 Y-4.836 E13.15737
G1 X-23.098 Y-5.353 E13.19493
G1 X-23.012 Y-5.981 E13.24047
G1 X-22.839 Y-7.309 E13.33668
G1 X-22.72 Y-8.116 E13.39528
G1 X-22.597 Y-8.828 E13.44719
G1 X-22.431 Y-9.63 E13.50603
G1 X-22.406 Y-9.741 E13.5142
G1 X-22.22 Y-10.472 E13.56839
G1 X-22.181 Y-10.61 E13.5787
G1 X-21.953 Y-11.336 E13.63336
G1 X-21.897 Y-11.495 E13.64548
G1 X-21.611 Y-12.234 E13.7024
G1 X-21.539 Y-12.402 E13.71553
G1 X-21.202 Y-13.119 E13.77245
G1 X-21.108 Y-13.301 E13.78717
G1 X-20.698 Y-14.02 E13.84663
G1 X-20.586 Y-14.198 E13.86174
G1 X-20.113 Y-14.891 E13.92202
G1 X-19.979 Y-15.071 E13.93814
G1 X-19.423 Y-15.751 E14.00124
G1 X-19.275 Y-15.917 E14.01722
G1 X-18.629 Y-16.582 E14.08382
G1 X-18.467 Y-16.735 E14.09983
G1 X-17.761 Y-17.347 E14.16696
G1 X-17.63 Y-17.453 E14.17906
G1 X-17.14 Y-17.823 E14.22318
G1 X-16.658 Y-18.157 E14.2653
G1 X-16.2 Y-18.452 E14.30444
G1 X-16.111 Y-18.507 E14.31196
G1 X-15.659 Y-18.773 E14.34964
G1 X-14.995 Y-19.133 E14.4039
G1 X-14.495 Y-19.383 E14.44406
G1 X-13.86 Y-19.669 E14.49409
G1 X-13.225 Y-19.934 E14.54353
G1 X-12.494 Y-20.21 E14.59966
G1 X-11.812 Y-20.443 E14.65144
G1 X-11.118 Y-20.656 E14.70359
G1 X-10.384 Y-20.861 E14.75834
G1 X-9.656 Y-21.044 E14.81227
G1 X-8.899 Y-21.216 E14.86804
G1 X-8.161 Y-21.362 E14.92209
G1 X-7.361 Y-21.501 E14.98042
G1 X-6.54 Y-21.628 E15.04011
G1 X-5.709 Y-21.734 E15.10029
G1 X-4.907 Y-21.822 E15.15825
G1 X-4.083 Y-21.893 E15.21767
G1 X-3.249 Y-21.95 E15.27773
G1 X-2.357 Y-21.993 E15.34188
G1 X-.725 Y-22.023 E15.45915
G1 X-.626 Y-22.023 E15.46626
G1 X0.997 Y-21.99 E15.58289
G1 X1.836 Y-21.947 E15.64324
G1 X2.703 Y-21.888 E15.70567
G1 X3.506 Y-21.816 E15.76359
G1 X4.341 Y-21.724 E15.82394
G1 X5.171 Y-21.613 E15.8841
G1 X5.946 Y-21.493 E15.94044
G1 X6.764 Y-21.349 E16.00011
G1 X7.513 Y-21.198 E16.05501
G1 X8.27 Y-21.026 E16.11078
G1 X9.023 Y-20.834 E16.1666
G1 X9.736 Y-20.632 E16.21984
G1 X10.431 Y-20.417 E16.27211
G1 X11.053 Y-20.203 E16.31936
G1 X11.717 Y-19.952 E16.37036
G1 X12.363 Y-19.685 E16.42058
G1 X12.949 Y-19.421 E16.46675
G1 X13.548 Y-19.125 E16.51475
G1 X13.634 Y-19.081 E16.52169
G1 X14.132 Y-18.81 E16.56243
G1 X14.685 Y-18.484 E16.60854
G1 X14.771 Y-18.431 E16.6158
G1 X15.195 Y-18.157 E16.65207
G1 X15.278 Y-18.101 E16.65926
G1 X15.714 Y-17.795 E16.69753
G1 X15.836 Y-17.704 E16.70846
G1 X16.485 Y-17.189 E16.76799
G1 X16.597 Y-17.094 E16.77854
G1 X17.06 Y-16.682 E16.82306
G1 X17.202 Y-16.547 E16.83714
G1 X17.831 Y-15.896 E16.90217
G1 X17.967 Y-15.743 E16.91688
G1 X18.398 Y-15.22 E16.96557
G1 X18.488 Y-15.104 E16.97611
G1 X18.857 Y-14.601 E17.02093
G1 X18.968 Y-14.437 E17.03516
G1 X19.405 Y-13.735 E17.09457
G1 X19.681 Y-13.234 E17.13566
G1 X19.746 Y-13.104 E17.1461
G1 X20.081 Y-12.389 E17.20283
G1 X20.154 Y-12.219 E17.21612
G1 X20.439 Y-11.478 E17.27315
G1 X20.494 Y-11.32 E17.28517
G1 X20.718 Y-10.603 E17.33914
G1 X20.755 Y-10.471 E17.34899
G1 X20.946 Y-9.723 E17.40445
G1 X20.973 Y-9.609 E17.41287
G1 X21.122 Y-8.892 E17.46548
G1 X21.258 Y-8.104 E17.52293
G1 X21.376 Y-7.302 E17.58116
G1 X21.469 Y-6.608 E17.63147
G1 X21.553 Y-5.956 E17.67869
G1 X21.634 Y-5.353 E17.7224
G1 X21.724 Y-4.763 E17.76528
G1 X21.801 Y-4.337 E17.79638
G1 X21.91 Y-3.836 E17.83322
G1 X22.153 Y-3.03 E17.8937
G1 X22.341 Y-2.414 E17.93997
G1 X22.403 Y-2.167 E17.95826
G1 X22.511 Y-1.626 E17.99789
G1 X22.55 Y-1.359 E18.01728
G1 X22.601 Y-.813 E18.05668
G1 X22.615 Y-.45 E18.08277
G1 X22.605 Y0.095 E18.12193
G1 X22.587 Y0.354 E18.14059
G1 X22.518 Y0.935 E18.18262
G1 X22.467 Y1.222 E18.20356
G1 X22.334 Y1.789 E18.2454
G1 X22.264 Y2.033 E18.26364
G1 X22.089 Y2.547 E18.30265
G1 X21.989 Y2.798 E18.32206
G1 X21.744 Y3.329 E18.36407
G1 X21.621 Y3.563 E18.38306
G1 X21.335 Y4.047 E18.42345
G1 X21.179 Y4.281 E18.44365
G1 X20.835 Y4.741 E18.48492
G1 X20.671 Y4.94 E18.50345
G1 X20.291 Y5.355 E18.54387
G1 X20.101 Y5.542 E18.56302
G1 X19.695 Y5.903 E18.60205
G1 X19.422 Y6.12 E18.62711
G1 X18.952 Y6.452 E18.66845
G1 X18.729 Y6.593 E18.6874
G1 X18.243 Y6.867 E18.72748
G1 X17.998 Y6.988 E18.74712
G1 X17.478 Y7.213 E18.78782
G1 X17.226 Y7.307 E18.80714
G1 X16.692 Y7.475 E18.84736
G1 X16.441 Y7.541 E18.86601
G1 X15.863 Y7.661 E18.90842
G1 X15.582 Y7.703 E18.92883
G1 X15.019 Y7.757 E18.96946
G1 X14.757 Y7.769 E18.9883
G1 X14.181 Y7.766 E19.02968
G1 X13.919 Y7.751 E19.04854
G1 X13.394 Y7.695 E19.08647
G1 X13.069 Y7.642 E19.11013
G1 X12.509 Y7.52 E19.1513
G1 X12.241 Y7.447 E19.17126
G1 X11.7 Y7.267 E19.21222
G1 X11.454 Y7.171 E19.23119
G1 X10.936 Y6.938 E19.27199
G1 X10.696 Y6.815 E19.29137
G1 X10.216 Y6.536 E19.33125
G1 X9.947 Y6.359 E19.35439
G1 X9.516 Y6.043 E19.39278
G1 X9.313 Y5.878 E19.41158
G1 X8.88 Y5.488 E19.45344
G1 X8.708 Y5.318 E19.47082
G1 X8.112 Y4.671 E19.53401
G1 X7.989 Y4.527 E19.54762
G1 X7.422 Y3.814 E19.61306
G1 X7.309 Y3.661 E19.62673
G1 X6.809 Y2.928 E19.69047
G1 X6.741 Y2.822 E19.69952
G1 X6.255 Y2.029 E19.76634
G1 X5.404 Y0.573 E19.8875
G1 X5.028 Y-0.019 E19.93788
G1 X4.637 Y-.554 E19.98549
G1 X4.266 Y-.98 E20.02607
G1 X3.804 Y-1.408 E20.07132
G1 X3.256 Y-1.791 E20.11935
G1 X2.693 Y-2.08 E20.16481
G1 X1.997 Y-2.341 E20.21822
G1 X1.153 Y-2.549 E20.28066
G1 X0.251 Y-2.677 E20.34611
G0 F3600 X0.285 Y-3.076
G1 F1200 X-.243 Y-3.112 E20.38413
G1 X-.755 Y-3.124 E20.42093
G1 X-1.211 Y-3.114 E20.4537
