;FLAVOR:Marlin
;TIME:3280
;Filament used: 2.0524m
;Layer height: 0.1
;MINX:-19.47
;MINY:-84.131
;MINZ:0.3
;MAXX:16.13
;MAXY:-23.533
;MAXZ:52
;Generated with Cura_SteamEngine master
M140 S50
M105
M190 S50
M104 S230
M105
M109 S230
M82 ;absolute extrusion mode
;FLAVOR:Marlin
M82 ;absolute extrusion mode
G21
G90
M82
M107 T0
G28
G92 E0
G0 E3 F200
G92 E0 ; reset extrusion distance
M106 S255 ; Enable cooling fan full speed
G1 X-98 Y0 Z0.4 F3000 ; move to arc start
G3 X0 Y-98 I98 Z0.4 E40 F400 ; lay arc stripe 90deg
G92 E0 ; reset extrusion distance
G4 P500 ; wait for 0.5 sec
G0 Z10 E-1 ; Lift 15mm and retract 1mm filament
G4 P2000 ; wait for 5 sec
G0 Z15
M107 ; Disable cooling fan
G1 X0 Y-85 Z4 E0 F3000 ; get off the bed
G92 E0
G92 E0
G1 F1500 E-6.5
;LAYER_COUNT:518
;LAYER:0
M107
G0 F3600 X5.187 Y-23.937 Z0.3
;TYPE:SKIRT
G1 F1500 E0
G1 F1800 X4.431 Y-24.166 E0.03941
G1 X3.859 Y-24.398 E0.0702
G1 X2.757 Y-24.896 E0.13054
G1 X2.055 Y-25.257 E0.16992
G1 X1.393 Y-25.688 E0.20933
G1 X0.892 Y-26.082 E0.24113
G1 X-0.026 Y-26.869 E0.30145
G1 X-.81 Y-27.645 E0.35649
G1 X-17.134 Y-46.237 E1.59084
G1 X-17.702 Y-46.967 E1.63699
G1 X-17.917 Y-47.28 E1.65593
G1 X-18.331 Y-47.952 E1.69531
G1 X-18.786 Y-48.942 E1.74967
G1 X-18.923 Y-49.305 E1.76902
G1 X-19.164 Y-50.057 E1.80842
G1 X-19.372 Y-51.151 E1.86398
G1 X-19.417 Y-51.535 E1.88327
G1 X-19.47 Y-52.443 E1.92864
G1 X-19.47 Y-55.234 E2.06789
G1 X-19.415 Y-56.156 E2.11397
G1 X-19.37 Y-56.534 E2.13296
G1 X-19.237 Y-57.312 E2.17234
G1 X-18.922 Y-58.369 E2.22736
G1 X-18.786 Y-58.729 E2.24656
G1 X-18.47 Y-59.452 E2.28593
G1 X-17.915 Y-60.394 E2.34047
G1 X-17.701 Y-60.705 E2.35931
G1 X-17.136 Y-61.43 E2.40517
G1 X-1.01 Y-79.795 E3.62449
G1 X-.279 Y-80.523 E3.67596
G1 X0.715 Y-81.391 E3.7418
G1 X1.335 Y-81.88 E3.78119
G1 X2.001 Y-82.303 E3.82055
G1 X2.449 Y-82.538 E3.84579
G1 X3.636 Y-83.112 E3.91157
G1 X4.364 Y-83.419 E3.95099
G1 X5.119 Y-83.652 E3.99041
G1 X5.601 Y-83.758 E4.01503
G1 X6.898 Y-84 E4.08086
G1 X7.681 Y-84.105 E4.12027
G1 X8.47 Y-84.131 E4.15966
G1 X9.258 Y-84.076 E4.19907
G1 X10.036 Y-83.943 E4.23844
G1 X10.797 Y-83.731 E4.27786
G1 X11.533 Y-83.444 E4.31727
G1 X12.235 Y-83.083 E4.35665
G1 X12.898 Y-82.654 E4.39605
G1 X13.514 Y-82.159 E4.43547
G1 X14.076 Y-81.605 E4.47484
G1 X14.58 Y-80.997 E4.51424
G1 X15.02 Y-80.341 E4.55365
G1 X15.391 Y-79.644 E4.59304
G1 X15.69 Y-78.913 E4.63245
G1 X15.913 Y-78.156 E4.67182
G1 X16.058 Y-77.38 E4.7112
G1 X16.125 Y-76.593 E4.75061
G1 X16.111 Y-75.803 E4.79003
G1 X16.018 Y-75.019 E4.82942
G1 X15.846 Y-74.248 E4.86883
G1 X15.596 Y-73.499 E4.90822
G1 X15.273 Y-72.779 E4.94759
G1 X14.878 Y-72.095 E4.987
G1 X14.19 Y-71.185 E5.04391
G1 X-1.046 Y-53.833 E6.19596
G1 X14.192 Y-36.48 E7.34812
G1 X14.682 Y-35.861 E7.3875
G1 X15.108 Y-35.195 E7.42695
G1 X15.463 Y-34.49 E7.46633
G1 X15.746 Y-33.753 E7.50571
G1 X15.953 Y-32.991 E7.54511
G1 X16.081 Y-32.212 E7.58449
G1 X16.13 Y-31.424 E7.62388
G1 X16.1 Y-30.634 E7.66333
G1 X15.989 Y-29.853 E7.70268
G1 X15.8 Y-29.086 E7.74209
G1 X15.535 Y-28.342 E7.78149
G1 X15.195 Y-27.629 E7.8209
G1 X14.786 Y-26.954 E7.86028
G1 X14.31 Y-26.324 E7.89967
G1 X13.773 Y-25.745 E7.93907
G1 X13.18 Y-25.223 E7.97848
G1 X12.537 Y-24.764 E8.0179
G1 X11.852 Y-24.373 E8.05725
G1 X11.13 Y-24.052 E8.09667
G1 X10.379 Y-23.807 E8.13608
G1 X9.608 Y-23.638 E8.17546
G1 X8.823 Y-23.549 E8.21487
G1 X8.275 Y-23.533 E8.24222
G1 X7.166 Y-23.612 E8.29769
G1 X5.962 Y-23.785 E8.35838
G1 X5.187 Y-23.937 E8.39778
G0 F3600 X5.264 Y-24.33
G1 F1800 X4.529 Y-24.556 E8.43614
G1 X4.024 Y-24.763 E8.46337
G1 X2.922 Y-25.261 E8.5237
G1 X2.238 Y-25.613 E8.56208
G1 X1.595 Y-26.035 E8.60045
G1 X1.153 Y-26.386 E8.62861
G1 X0.235 Y-27.173 E8.68894
G1 X-.51 Y-27.909 E8.74119
G1 X-16.834 Y-46.501 E9.97554
G1 X-17.373 Y-47.193 E10.0193
G1 X-17.588 Y-47.506 E10.03824
G1 X-17.99 Y-48.162 E10.07663
G1 X-18.411 Y-49.083 E10.12715
G1 X-18.548 Y-49.446 E10.14651
G1 X-18.782 Y-50.179 E10.18489
G1 X-18.975 Y-51.198 E10.23664
G1 X-19.02 Y-51.582 E10.25593
G1 X-19.07 Y-52.443 E10.29895
G1 X-19.07 Y-55.234 E10.4382
G1 X-19.018 Y-56.109 E10.48193
G1 X-18.973 Y-56.487 E10.50092
G1 X-18.843 Y-57.245 E10.53929
G1 X-18.547 Y-58.227 E10.59046
G1 X-18.411 Y-58.587 E10.60966
G1 X-18.103 Y-59.292 E10.64804
G1 X-17.585 Y-60.167 E10.69877
G1 X-17.371 Y-60.478 E10.7176
G1 X-16.836 Y-61.166 E10.76109
G1 X-.71 Y-79.531 E11.98041
G1 X-0.016 Y-80.222 E12.02927
G1 X0.978 Y-81.09 E12.09511
G1 X1.582 Y-81.565 E12.13344
G1 X2.233 Y-81.975 E12.17183
G1 X2.623 Y-82.178 E12.19376
G1 X3.81 Y-82.752 E12.25954
G1 X4.519 Y-83.05 E12.29791
G1 X5.255 Y-83.274 E12.33629
G1 X5.675 Y-83.364 E12.35772
G1 X6.972 Y-83.606 E12.42355
G1 X7.734 Y-83.708 E12.4619
G1 X8.503 Y-83.73 E12.50028
G1 X9.27 Y-83.672 E12.53866
G1 X10.027 Y-83.535 E12.57704
G1 X10.765 Y-83.319 E12.6154
G1 X11.477 Y-83.029 E12.65376
G1 X12.155 Y-82.666 E12.69213
G1 X12.792 Y-82.235 E12.7305
G1 X13.381 Y-81.739 E12.76891
G1 X13.915 Y-81.186 E12.80727
G1 X14.388 Y-80.58 E12.84562
G1 X14.797 Y-79.928 E12.88402
G1 X15.135 Y-79.237 E12.92239
G1 X15.4 Y-78.515 E12.96077
G1 X15.588 Y-77.769 E12.99915
G1 X15.698 Y-77.008 E13.03751
G1 X15.728 Y-76.239 E13.0759
G1 X15.679 Y-75.472 E13.11425
G1 X15.55 Y-74.714 E13.15261
G1 X15.343 Y-73.973 E13.19099
G1 X15.06 Y-73.258 E13.22936
G1 X14.705 Y-72.575 E13.26776
G1 X14.28 Y-71.934 E13.30613
G1 X13.89 Y-71.449 E13.33718
G1 X-1.579 Y-53.833 E14.5068
G1 X13.891 Y-36.216 E15.67648
G1 X14.368 Y-35.612 E15.71488
G1 X14.78 Y-34.962 E15.75328
G1 X15.122 Y-34.274 E15.79161
G1 X15.39 Y-33.553 E15.82998
G1 X15.583 Y-32.808 E15.86838
G1 X15.696 Y-32.047 E15.90676
G1 X15.731 Y-31.279 E15.94512
G1 X15.685 Y-30.511 E15.9835
G1 X15.56 Y-29.752 E16.02188
G1 X15.357 Y-29.01 E16.06026
G1 X15.078 Y-28.294 E16.09859
G1 X14.726 Y-27.61 E16.13697
G1 X14.305 Y-26.966 E16.17536
G1 X13.82 Y-26.37 E16.21369
G1 X13.275 Y-25.827 E16.25207
G1 X12.676 Y-25.343 E16.2905
G1 X12.031 Y-24.925 E16.32884
G1 X11.346 Y-24.575 E16.36722
G1 X10.628 Y-24.299 E16.4056
G1 X9.886 Y-24.098 E16.44395
G1 X9.126 Y-23.976 E16.48235
G1 X8.331 Y-23.933 E16.52207
G1 X8.275 Y-23.933 E16.52486
G1 X7.223 Y-24.008 E16.57748
G1 X6.019 Y-24.181 E16.63817
G1 X5.264 Y-24.33 E16.67656
G0 F3600 X5.342 Y-24.723
G1 F1800 X4.628 Y-24.946 E16.71388
G1 X4.188 Y-25.127 E16.73762
G1 X3.086 Y-25.625 E16.79795
G1 X2.422 Y-25.969 E16.83526
G1 X1.798 Y-26.382 E16.87259
G1 X1.413 Y-26.69 E16.89719
G1 X0.495 Y-27.477 E16.95751
G1 X-.209 Y-28.173 E17.0069
G1 X-16.533 Y-46.765 E18.24125
G1 X-17.043 Y-47.42 E18.28267
G1 X-17.258 Y-47.733 E18.30161
G1 X-17.648 Y-48.371 E18.33892
G1 X-18.037 Y-49.224 E18.38569
G1 X-18.174 Y-49.587 E18.40505
G1 X-18.4 Y-50.3 E18.44237
G1 X-18.577 Y-51.244 E18.49028
G1 X-18.622 Y-51.628 E18.50957
G1 X-18.67 Y-52.443 E18.5503
G1 X-18.67 Y-55.234 E18.68955
G1 X-18.621 Y-56.061 E18.73088
G1 X-18.576 Y-56.439 E18.74987
G1 X-18.448 Y-57.177 E18.78724
G1 X-18.173 Y-58.086 E18.83462
G1 X-18.037 Y-58.446 E18.85382
G1 X-17.736 Y-59.13 E18.8911
G1 X-17.256 Y-59.94 E18.93807
G1 X-17.042 Y-60.251 E18.95691
G1 X-16.535 Y-60.902 E18.99808
G1 X-.409 Y-79.267 E20.2174
G1 X0.247 Y-79.921 E20.26361
G1 X1.241 Y-80.789 E20.32945
G1 X1.83 Y-81.25 E20.36677
G1 X2.464 Y-81.646 E20.40406
G1 X2.798 Y-81.818 E20.4228
G1 X3.985 Y-82.392 E20.48858
G1 X4.674 Y-82.681 E20.52586
G1 X5.748 Y-82.971 E20.58136
G1 X7.045 Y-83.213 E20.64718
G1 X7.787 Y-83.311 E20.68452
G1 X8.535 Y-83.329 E20.72185
G1 X9.28 Y-83.267 E20.75915
G1 X10.015 Y-83.126 E20.79649
G1 X10.73 Y-82.907 E20.83379
G1 X11.418 Y-82.614 E20.8711
G1 X12.071 Y-82.248 E20.90845
G1 X12.681 Y-81.815 E20.94577
G1 X13.241 Y-81.319 E20.98309
G1 X13.745 Y-80.767 E21.02038
G1 X14.187 Y-80.163 E21.05772
G1 X14.563 Y-79.516 E21.09506
G1 X14.867 Y-78.833 E21.13236
G1 X15.097 Y-78.121 E21.16968
G1 X15.249 Y-77.388 E21.20703
G1 X15.322 Y-76.644 E21.24433
G1 X15.315 Y-75.896 E21.28165
G1 X15.229 Y-75.153 E21.31896
G1 X15.064 Y-74.423 E21.3563
G1 X14.822 Y-73.716 E21.39358
G1 X14.505 Y-73.038 E21.43092
G1 X14.118 Y-72.397 E21.46828
G1 X13.589 Y-71.713 E21.51142
G1 X-2.111 Y-53.833 E22.69854
G1 X13.591 Y-35.952 E23.88576
G1 X14.054 Y-35.364 E23.9231
G1 X14.451 Y-34.73 E23.96042
G1 X14.779 Y-34.058 E23.99773
G1 X15.033 Y-33.354 E24.03506
G1 X15.21 Y-32.628 E24.07235
G1 X15.309 Y-31.886 E24.10969
G1 X15.328 Y-31.138 E24.14702
G1 X15.268 Y-30.393 E24.18431
G1 X15.128 Y-29.658 E24.22164
G1 X14.91 Y-28.942 E24.25898
G1 X14.617 Y-28.254 E24.29629
G1 X14.253 Y-27.6 E24.33363
G1 X13.821 Y-26.99 E24.37092
G1 X13.326 Y-26.429 E24.40825
G1 X12.774 Y-25.924 E24.44557
G1 X12.171 Y-25.481 E24.4829
G1 X11.525 Y-25.104 E24.52022
G1 X10.842 Y-24.799 E24.55754
G1 X10.13 Y-24.568 E24.59488
G1 X9.398 Y-24.415 E24.63219
G1 X8.331 Y-24.333 E24.68558
G1 X8.275 Y-24.333 E24.68837
G1 X7.279 Y-24.404 E24.73819
G1 X6.075 Y-24.577 E24.79887
G1 X5.342 Y-24.723 E24.83616
G0 F3600 X5.42 Y-25.116
G1 F1800 X4.728 Y-25.336 E24.87239
G1 X4.353 Y-25.492 E24.89265
G1 X3.251 Y-25.99 E24.95298
G1 X2.607 Y-26.325 E24.9892
G1 X2.003 Y-26.729 E25.02545
G1 X1.673 Y-26.993 E25.04654
G1 X0.755 Y-27.78 E25.10686
G1 X0.091 Y-28.436 E25.15343
G1 X-16.233 Y-47.028 E26.38778
G1 X-16.713 Y-47.646 E26.42682
G1 X-16.928 Y-47.959 E26.44577
G1 X-17.306 Y-48.58 E26.48204
G1 X-17.663 Y-49.366 E26.52511
G1 X-17.8 Y-49.729 E26.54446
G1 X-18.019 Y-50.421 E26.58067
G1 X-18.18 Y-51.291 E26.62482
G1 X-18.225 Y-51.675 E26.64411
G1 X-18.27 Y-52.443 E26.68249
G1 X-18.27 Y-55.234 E26.82173
G1 X-18.224 Y-56.014 E26.86071
G1 X-18.179 Y-56.392 E26.8797
G1 X-18.053 Y-57.108 E26.91597
G1 X-17.799 Y-57.944 E26.95956
G1 X-17.663 Y-58.304 E26.97876
G1 X-17.369 Y-58.969 E27.01504
G1 X-16.926 Y-59.713 E27.05824
G1 X-16.712 Y-60.024 E27.07707
G1 X-16.234 Y-60.638 E27.11589
G1 X-.108 Y-79.003 E28.33522
G1 X0.51 Y-79.619 E28.37875
G1 X1.504 Y-80.487 E28.44459
G1 X2.076 Y-80.934 E28.48081
G1 X2.972 Y-81.458 E28.53259
G1 X4.159 Y-82.032 E28.59837
G1 X4.829 Y-82.312 E28.6346
G1 X5.821 Y-82.578 E28.68584
G1 X7.118 Y-82.82 E28.75166
G1 X7.839 Y-82.914 E28.78794
G1 X8.565 Y-82.928 E28.82416
G1 X9.288 Y-82.862 E28.86039
G1 X10 Y-82.717 E28.89664
G1 X10.692 Y-82.495 E28.93289
G1 X11.354 Y-82.198 E28.96909
G1 X11.981 Y-81.83 E29.00536
G1 X12.563 Y-81.395 E29.04161
G1 X13.093 Y-80.899 E29.07783
G1 X13.567 Y-80.348 E29.11409
G1 X13.976 Y-79.748 E29.15032
G1 X14.317 Y-79.107 E29.18654
G1 X14.586 Y-78.432 E29.22279
G1 X14.779 Y-77.732 E29.25902
G1 X14.894 Y-77.015 E29.29525
G1 X14.929 Y-76.289 E29.33151
G1 X14.884 Y-75.564 E29.36775
G1 X14.76 Y-74.848 E29.404
G1 X14.558 Y-74.151 E29.44021
G1 X14.281 Y-73.479 E29.47647
G1 X13.931 Y-72.843 E29.51269
G1 X13.288 Y-71.977 E29.5665
G1 X-2.644 Y-53.833 E30.77115
G1 X13.29 Y-35.688 E31.97591
G1 X13.739 Y-35.117 E32.01215
G1 X14.122 Y-34.499 E32.04842
G1 X14.435 Y-33.844 E32.08464
G1 X14.674 Y-33.158 E32.12088
G1 X14.836 Y-32.45 E32.15712
G1 X14.919 Y-31.728 E32.19337
G1 X14.923 Y-31.002 E32.22959
G1 X14.846 Y-30.28 E32.26582
G1 X14.691 Y-29.57 E32.30208
G1 X14.459 Y-28.882 E32.3383
G1 X14.153 Y-28.223 E32.37455
G1 X13.776 Y-27.602 E32.41079
G1 X13.333 Y-27.027 E32.44701
G1 X12.829 Y-26.503 E32.48328
G1 X12.271 Y-26.038 E32.51952
G1 X11.665 Y-25.637 E32.55577
G1 X11.019 Y-25.305 E32.59201
G1 X10.341 Y-25.046 E32.62822
G1 X9.638 Y-24.864 E32.66444
G1 X8.919 Y-24.759 E32.7007
G1 X8.331 Y-24.733 E32.73006
G1 X8.275 Y-24.733 E32.73285
G1 X7.336 Y-24.8 E32.77982
G1 X6.132 Y-24.973 E32.84051
G1 X5.42 Y-25.116 E32.87674
G0 F3600 X5.499 Y-25.509
G1 F1800 X4.518 Y-25.856 E32.92865
G1 X3.416 Y-26.354 E32.98898
G1 X2.792 Y-26.68 E33.02411
G1 X2.209 Y-27.074 E33.05921
G1 X1.934 Y-27.297 E33.07688
G1 X1.016 Y-28.084 E33.1372
G1 X0.392 Y-28.7 E33.18095
G1 X-15.932 Y-47.292 E34.4153
G1 X-16.383 Y-47.873 E34.45199
G1 X-16.598 Y-48.186 E34.47094
G1 X-16.963 Y-48.788 E34.50606
G1 X-17.289 Y-49.507 E34.54545
G1 X-17.426 Y-49.87 E34.5648
G1 X-17.636 Y-50.541 E34.59988
G1 X-17.783 Y-51.337 E34.64027
G1 X-17.828 Y-51.721 E34.65955
G1 X-17.87 Y-52.443 E34.69564
G1 X-17.87 Y-55.234 E34.83488
G1 X-17.827 Y-55.967 E34.87151
G1 X-17.782 Y-56.345 E34.8905
G1 X-17.659 Y-57.038 E34.92562
G1 X-17.425 Y-57.803 E34.96553
G1 X-17.289 Y-58.163 E34.98473
G1 X-17.003 Y-58.806 E35.01984
G1 X-16.597 Y-59.487 E35.05939
G1 X-16.383 Y-59.798 E35.07823
G1 X-15.934 Y-60.374 E35.11466
G1 X0.192 Y-78.739 E36.33399
G1 X0.773 Y-79.318 E36.37491
G1 X1.767 Y-80.186 E36.44075
G1 X2.323 Y-80.618 E36.47588
G1 X3.146 Y-81.098 E36.52341
G1 X4.333 Y-81.672 E36.58919
G1 X4.983 Y-81.942 E36.6243
G1 X5.895 Y-82.185 E36.67139
G1 X7.192 Y-82.427 E36.73721
G1 X7.89 Y-82.516 E36.77232
G1 X8.594 Y-82.526 E36.80745
G1 X9.294 Y-82.456 E36.84254
G1 X9.983 Y-82.307 E36.87771
G1 X10.649 Y-82.081 E36.9128
G1 X11.286 Y-81.781 E36.94793
G1 X11.885 Y-81.411 E36.98305
G1 X12.438 Y-80.975 E37.01819
G1 X12.938 Y-80.479 E37.05332
G1 X13.378 Y-79.93 E37.08843
G1 X13.753 Y-79.335 E37.12351
G1 X14.059 Y-78.7 E37.15868
G1 X14.29 Y-78.036 E37.19375
G1 X14.445 Y-77.349 E37.22889
G1 X14.521 Y-76.649 E37.26402
G1 X14.517 Y-75.945 E37.29914
G1 X14.433 Y-75.246 E37.33427
G1 X14.271 Y-74.561 E37.36938
G1 X14.032 Y-73.899 E37.4045
G1 X13.719 Y-73.268 E37.43964
G1 X13.337 Y-72.677 E37.47475
G1 X12.988 Y-72.241 E37.50261
G1 X-3.176 Y-53.833 E38.7248
G1 X12.99 Y-35.424 E39.94709
G1 X13.423 Y-34.87 E39.98217
G1 X13.792 Y-34.269 E40.01735
G1 X14.089 Y-33.631 E40.05246
G1 X14.313 Y-32.964 E40.08756
G1 X14.459 Y-32.275 E40.1227
G1 X14.526 Y-31.574 E40.15783
G1 X14.514 Y-30.871 E40.19291
G1 X14.421 Y-30.173 E40.22804
G1 X14.251 Y-29.49 E40.26316
G1 X14.004 Y-28.831 E40.29827
G1 X13.683 Y-28.204 E40.33341
G1 X13.294 Y-27.617 E40.36854
G1 X12.841 Y-27.078 E40.40367
G1 X12.329 Y-26.595 E40.43879
G1 X11.766 Y-26.172 E40.47392
G1 X11.159 Y-25.816 E40.50903
G1 X10.516 Y-25.531 E40.54412
G1 X9.844 Y-25.32 E40.57926
G1 X9.152 Y-25.188 E40.6144
G1 X8.331 Y-25.133 E40.65545
G1 X8.275 Y-25.133 E40.65825
G1 X7.393 Y-25.196 E40.70236
G1 X6.189 Y-25.369 E40.76305
G1 X5.499 Y-25.509 E40.79817
G0 F3600 X5.579 Y-25.901
G1 F1800 X4.683 Y-26.221 E40.84564
G1 X3.581 Y-26.719 E40.90597
G1 X2.978 Y-27.035 E40.93994
G1 X2.194 Y-27.601 E40.98818
G1 X1.276 Y-28.388 E41.04851
G1 X0.693 Y-28.964 E41.08939
G1 X-15.631 Y-47.556 E42.32374
G1 X-16.054 Y-48.099 E42.35809
G1 X-16.269 Y-48.412 E42.37703
G1 X-16.621 Y-48.995 E42.41101
G1 X-16.914 Y-49.648 E42.44671
G1 X-17.051 Y-50.011 E42.46607
G1 X-17.254 Y-50.661 E42.50004
G1 X-17.386 Y-51.384 E42.53671
G1 X-17.431 Y-51.768 E42.556
G1 X-17.47 Y-52.443 E42.58973
G1 X-17.47 Y-55.234 E42.72898
G1 X-17.429 Y-55.92 E42.76326
G1 X-17.384 Y-56.298 E42.78225
G1 X-17.264 Y-56.968 E42.81621
G1 X-17.051 Y-57.662 E42.85243
G1 X-16.915 Y-58.022 E42.87163
G1 X-16.637 Y-58.643 E42.90557
G1 X-16.267 Y-59.26 E42.94147
G1 X-16.053 Y-59.571 E42.9603
G1 X-15.633 Y-60.11 E42.99439
G1 X0.493 Y-78.475 E44.21372
G1 X1.036 Y-79.017 E44.25199
G1 X2.03 Y-79.885 E44.31783
G1 X2.568 Y-80.302 E44.35179
G1 X3.32 Y-80.738 E44.39516
G1 X4.507 Y-81.312 E44.46094
G1 X5.136 Y-81.571 E44.49487
G1 X5.968 Y-81.792 E44.53782
G1 X7.265 Y-82.034 E44.60365
G1 X7.941 Y-82.119 E44.63764
G1 X8.622 Y-82.125 E44.67161
G1 X9.298 Y-82.05 E44.70555
G1 X9.962 Y-81.897 E44.73954
G1 X10.603 Y-81.668 E44.7735
G1 X11.212 Y-81.364 E44.80746
G1 X11.782 Y-80.992 E44.84142
G1 X12.305 Y-80.555 E44.87542
G1 X12.772 Y-80.06 E44.90937
G1 X13.178 Y-79.514 E44.94332
G1 X13.518 Y-78.923 E44.97733
G1 X13.786 Y-78.298 E45.01126
G1 X13.979 Y-77.644 E45.04528
G1 X14.093 Y-76.973 E45.07923
G1 X14.129 Y-76.293 E45.11321
G1 X14.084 Y-75.614 E45.14716
G1 X13.961 Y-74.944 E45.18114
G1 X13.759 Y-74.294 E45.2151
G1 X13.483 Y-73.672 E45.24905
G1 X13.136 Y-73.086 E45.28303
G1 X12.687 Y-72.505 E45.31966
G1 X-3.709 Y-53.833 E46.55938
G1 X12.689 Y-35.16 E47.79921
G1 X13.108 Y-34.623 E47.83319
G1 X13.46 Y-34.041 E47.86712
G1 X13.742 Y-33.421 E47.9011
G1 X13.95 Y-32.772 E47.9351
G1 X14.08 Y-32.104 E47.96905
G1 X14.13 Y-31.425 E48.00302
G1 X14.101 Y-30.745 E48.03698
G1 X13.992 Y-30.072 E48.07099
G1 X13.806 Y-29.418 E48.10491
G1 X13.543 Y-28.789 E48.13893
G1 X13.209 Y-28.196 E48.17288
G1 X12.808 Y-27.646 E48.20684
