;FLAVOR:Marlin
;TIME:1932
;Filament used: 2.3932m
;Layer height: 0.12
;MINX:-8.95
;MINY:-14.7
;MINZ:0.3
;MAXX:8.95
;MAXY:14.7
;MAXZ:42.75
;Generated with Cura_SteamEngine 4.12.1
M140 S50
M105
M190 S50
M104 S210
M105
M109 S210
M82 ;absolute extrusion mode
;FLAVOR:Marlin
M82 ;absolute extrusion mode
G21
G90
M82
M107 T0
G28
G92 E0
G0 E3 F200
G92 E0 ; reset extrusion distance
M106 S255 ; Enable cooling fan full speed
G1 X-98 Y0 Z0.4 F3000 ; move to arc start
G3 X0 Y-98 I98 Z0.4 E40 F400 ; lay arc stripe 90deg
G92 E0 ; reset extrusion distance
G4 P500 ; wait for 0.5 sec
G0 Z10 E-1 ; Lift 15mm and retract 1mm filament
G4 P2000 ; wait for 5 sec
G0 Z15
M107 ; Disable cooling fan
G1 X0 Y-85 Z4 E0 F3000 ; get off the bed
G92 E0
G92 E0
G1 F1500 E-7
;LAYER_COUNT:184
;LAYER:0
M107
G1 F600 Z1.3
G0 F3600 X8.95 Y-12.5 Z1.3
;TYPE:SKIRT
G1 F600 Z0.3
G1 F1500 E0.41575
G1 F2400 X8.95 Y12.5 E1.66301
G1 X8.91 Y12.917 E1.68391
G1 X8.792 Y13.319 E1.70481
G1 X8.599 Y13.691 E1.72572
G1 X8.34 Y14.02 E1.74661
G1 X8.023 Y14.294 E1.76751
G1 X7.66 Y14.503 E1.78841
G1 X7.263 Y14.639 E1.80934
G1 X6.75 Y14.7 E1.83512
G1 X-6.75 Y14.7 E2.50864
G1 X-7.167 Y14.66 E2.52954
G1 X-7.569 Y14.542 E2.55044
G1 X-7.941 Y14.349 E2.57135
G1 X-8.27 Y14.09 E2.59224
G1 X-8.544 Y13.773 E2.61314
G1 X-8.753 Y13.41 E2.63404
G1 X-8.889 Y13.013 E2.65497
G1 X-8.95 Y12.5 E2.68075
G1 X-8.95 Y-12.5 E3.928
G1 X-8.91 Y-12.917 E3.9489
G1 X-8.792 Y-13.319 E3.9698
G1 X-8.599 Y-13.691 E3.99071
G1 X-8.34 Y-14.02 E4.0116
G1 X-8.023 Y-14.294 E4.03251
G1 X-7.66 Y-14.503 E4.0534
G1 X-7.263 Y-14.639 E4.07434
G1 X-6.75 Y-14.7 E4.10011
G1 X6.75 Y-14.7 E4.77363
G1 X7.167 Y-14.66 E4.79453
G1 X7.569 Y-14.542 E4.81543
G1 X7.941 Y-14.349 E4.83634
G1 X8.27 Y-14.09 E4.85723
G1 X8.544 Y-13.773 E4.87814
G1 X8.753 Y-13.41 E4.89903
G1 X8.884 Y-13.028 E4.91918
G0 F2160 X8.889 Y-13.013
G0 X8.95 Y-12.5
G0 F3600 X8.55 Y-12.5
G1 F2400 X8.55 Y12.5 E6.16644
G1 X8.51 Y12.877 E6.18535
G1 X8.392 Y13.237 E6.20425
G1 X8.202 Y13.564 E6.22312
G1 X7.947 Y13.845 E6.24205
G1 X7.638 Y14.065 E6.26097
G1 X7.291 Y14.217 E6.27987
G1 X6.75 Y14.3 E6.30718
G1 X-6.75 Y14.3 E6.9807
G1 X-7.127 Y14.26 E6.99961
G1 X-7.487 Y14.142 E7.01851
G1 X-7.814 Y13.952 E7.03738
G1 X-8.095 Y13.697 E7.05631
G1 X-8.315 Y13.388 E7.07524
G1 X-8.467 Y13.041 E7.09414
G1 X-8.55 Y12.5 E7.12144
G1 X-8.55 Y-12.5 E8.3687
G1 X-8.51 Y-12.877 E8.38761
G1 X-8.392 Y-13.237 E8.40651
G1 X-8.202 Y-13.564 E8.42538
G1 X-7.947 Y-13.845 E8.44431
G1 X-7.638 Y-14.065 E8.46324
G1 X-7.291 Y-14.217 E8.48214
G1 X-6.75 Y-14.3 E8.50944
G1 X6.75 Y-14.3 E9.18296
G1 X7.127 Y-14.26 E9.20187
G1 X7.487 Y-14.142 E9.22078
G1 X7.814 Y-13.952 E9.23964
G1 X8.095 Y-13.697 E9.25857
G1 X8.315 Y-13.388 E9.2775
G1 X8.467 Y-13.041 E9.2964
G1 X8.47 Y-13.026 E9.29716
G0 F2160 X8.55 Y-12.5
G0 F3600 X8.15 Y-12.5
G1 F2400 X8.15 Y12.5 E10.54442
G1 X8.11 Y12.832 E10.5611
G1 X7.993 Y13.144 E10.57772
G1 X7.805 Y13.421 E10.59443
G1 X7.557 Y13.644 E10.61107
G1 X7.263 Y13.803 E10.62774
G1 X6.75 Y13.9 E10.65379
G1 X-6.75 Y13.9 E11.32731
G1 X-7.082 Y13.86 E11.34399
G1 X-7.394 Y13.743 E11.36061
G1 X-7.671 Y13.555 E11.37732
G1 X-7.894 Y13.307 E11.39395
G1 X-8.053 Y13.013 E11.41063
G1 X-8.15 Y12.5 E11.43668
G1 X-8.15 Y-12.5 E12.68393
G1 X-8.11 Y-12.832 E12.70062
G1 X-7.993 Y-13.144 E12.71724
G1 X-7.805 Y-13.421 E12.73394
G1 X-7.557 Y-13.644 E12.75058
G1 X-7.263 Y-13.803 E12.76726
G1 X-6.75 Y-13.9 E12.7933
G1 X6.75 Y-13.9 E13.46682
G1 X7.082 Y-13.86 E13.4835
G1 X7.394 Y-13.743 E13.50013
G1 X7.671 Y-13.555 E13.51683
G1 X7.894 Y-13.307 E13.53347
G1 X8.049 Y-13.021 E13.5497
G0 F2160 X8.053 Y-13.013
G0 X8.15 Y-12.5
G0 F3600 X7.75 Y-12.5
G1 F2400 X7.75 Y12.5 E14.79695
G1 X7.71 Y12.779 E14.81102
G1 X7.594 Y13.036 E14.82508
G1 X7.411 Y13.251 E14.83917
G1 X7.175 Y13.405 E14.85323
G1 X6.75 Y13.5 E14.87495
G1 X-6.75 Y13.5 E15.54847
G1 X-7.029 Y13.46 E15.56253
G1 X-7.286 Y13.344 E15.5766
G1 X-7.501 Y13.161 E15.59069
G1 X-7.655 Y12.925 E15.60475
G1 X-7.75 Y12.5 E15.62647
G1 X-7.75 Y-12.5 E16.87373
G1 X-7.71 Y-12.779 E16.88779
G1 X-7.594 Y-13.036 E16.90186
G1 X-7.411 Y-13.251 E16.91594
G1 X-7.175 Y-13.405 E16.93
G1 X-6.75 Y-13.5 E16.95173
G1 X6.75 Y-13.5 E17.62525
G1 X7.029 Y-13.46 E17.63931
G1 X7.286 Y-13.344 E17.65338
G1 X7.501 Y-13.161 E17.66746
G1 X7.602 Y-13.006 E17.67669
G0 F2160 X7.655 Y-12.925
G0 X7.75 Y-12.5
G0 F3600 X7.35 Y-12.5
G1 F2400 X7.35 Y12.5 E18.92395
G1 X7.31 Y12.715 E18.93486
G1 X7.197 Y12.901 E18.94571
G1 X7.024 Y13.034 E18.9566
G1 X6.75 Y13.1 E18.97066
G1 X-6.75 Y13.1 E19.64418
G1 X-6.965 Y13.06 E19.65509
G1 X-7.151 Y12.947 E19.66595
G1 X-7.284 Y12.774 E19.67684
G1 X-7.35 Y12.5 E19.6909
G1 X-7.35 Y-12.5 E20.93815
G1 X-7.31 Y-12.715 E20.94906
G1 X-7.197 Y-12.901 E20.95992
G1 X-7.024 Y-13.034 E20.97081
G1 X-6.75 Y-13.1 E20.98487
G1 X6.75 Y-13.1 E21.65838
G1 X6.965 Y-13.06 E21.6693
G1 X7.123 Y-12.964 E21.67852
G0 F2160 X7.151 Y-12.947
G0 X7.284 Y-12.774
G0 X7.35 Y-12.5
G0 F3600 X6.95 Y-12.5
G1 F2400 X6.95 Y12.5 E22.92577
G1 X6.911 Y12.619 E22.93202
G1 X6.75 Y12.7 E22.94101
G1 X-6.75 Y12.7 E23.61453
G1 X-6.869 Y12.661 E23.62078
G1 X-6.95 Y12.5 E23.62977
G1 X-6.95 Y-12.5 E24.87703
G1 X-6.911 Y-12.619 E24.88327
G1 X-6.75 Y-12.7 E24.89226
G1 X6.523 Y-12.7 E25.55446
G0 F2160 X6.75 Y-12.7
G0 X6.869 Y-12.661
G0 X6.95 Y-12.5
G1 F1500 E18.55446
G1 F600 Z1.3
;MESH:BackupBat_Wing.stl
G0 F3600 X-6.55 Y12.3 Z1.3
;TYPE:WALL-OUTER
G1 F600 Z0.3
G1 F1500 E25.97021
G1 F2400 X-6.55 Y-12.3 E27.19751
G1 X6.55 Y-12.3 E27.85107
G1 X6.55 Y12.3 E29.07837
G1 X-6.018 Y12.3 E29.70539
G0 F2160 X-6.55 Y12.3
G0 F3600 X-6.55 Y12.1
G0 X-6.11 Y11.86
G0 X-6.15 Y11.9
;TYPE:WALL-INNER
G1 F2400 X-6.15 Y-11.9 E30.89278
G1 X6.15 Y-11.9 E31.50642
G1 X6.15 Y11.9 E32.69381
G1 X-5.618 Y11.9 E33.28092
G0 F2160 X-6.15 Y11.9
G0 F3600 X-5.75 Y11.5
G1 F2400 X-5.75 Y-11.5 E34.42839
G1 X5.75 Y-11.5 E35.00213
G1 X5.75 Y11.5 E36.14961
G1 X-5.218 Y11.5 E36.6968
G0 F2160 X-5.75 Y11.5
G0 F3600 X-5.36 Y11.11
;TYPE:SKIN
G1 F2400 X-5.36 Y-11.11 E37.80536
G1 X5.36 Y-11.11 E38.34019
G1 X5.36 Y11.11 E39.44875
G1 X-4.828 Y11.11 E39.95703
G0 F2160 X-5.36 Y11.11
G0 F3600 X-4.91 Y10.929
G1 F2400 X-5.18 Y10.658 E39.97611
G0 F3600 X-5.18 Y10.093
G1 F2400 X-4.344 Y10.929 E40.0351
G0 F3600 X-3.778 Y10.929
G1 F2400 X-5.18 Y9.527 E40.13402
G0 F3600 X-5.18 Y8.961
G1 F2400 X-3.213 Y10.929 E40.27283
G0 F3600 X-2.647 Y10.929
G1 F2400 X-5.18 Y8.396 E40.45155
G0 F3600 X-5.18 Y7.83
G1 F2400 X-2.081 Y10.929 E40.6702
G0 F3600 X-1.516 Y10.929
G1 F2400 X-5.18 Y7.264 E40.92875
G0 F3600 X-5.18 Y6.699
G1 F2400 X-.95 Y10.929 E41.2272
G0 F3600 X-.384 Y10.929
G1 F2400 X-5.18 Y6.133 E41.56558
G0 F3600 X-5.18 Y5.567
G1 F2400 X0.181 Y10.929 E41.94387
G0 F3600 X0.746 Y10.929
G1 F2400 X-5.18 Y5.002 E42.36201
G0 F3600 X-5.18 Y4.436
G1 F2400 X1.312 Y10.929 E42.82009
G0 F3600 X1.878 Y10.929
G1 F2400 X-5.18 Y3.87 E43.31811
G0 F3600 X-5.18 Y3.305
G1 F2400 X2.443 Y10.929 E43.85599
G0 F3600 X3.009 Y10.929
G1 F2400 X-5.18 Y2.739 E44.4338
G0 F3600 X-5.18 Y2.173
G1 F2400 X3.575 Y10.929 E45.05155
G0 F3600 X4.14 Y10.929
G1 F2400 X-5.18 Y1.607 E45.7092
G0 F3600 X-5.18 Y1.042
G1 F2400 X4.706 Y10.929 E46.40674
G0 F3600 X5.18 Y10.837
G1 F2400 X-5.18 Y0.476 E47.13773
G0 F3600 X-5.18 Y-0.089
G1 F2400 X5.18 Y10.271 E47.86869
G0 F3600 X5.18 Y9.705
G1 F2400 X-5.18 Y-.654 E48.5996
G0 F3600 X-5.18 Y-1.22
G1 F2400 X5.18 Y9.14 E49.33056
G0 F3600 X5.18 Y8.574
G1 F2400 X-5.18 Y-1.786 E50.06151
G0 F3600 X-5.18 Y-2.351
G1 F2400 X5.18 Y8.008 E50.79243
G0 F3600 X5.18 Y7.443
G1 F2400 X-5.18 Y-2.917 E51.52339
G0 F3600 X-5.18 Y-3.483
G1 F2400 X5.18 Y6.877 E52.25434
G0 F3600 X5.18 Y6.311
G1 F2400 X-5.18 Y-4.048 E52.98526
G0 F3600 X-5.18 Y-4.614
G1 F2400 X5.18 Y5.745 E53.71618
G0 F3600 X5.18 Y5.18
G1 F2400 X-5.18 Y-5.18 E54.44713
G0 F3600 X-5.18 Y-5.745
G1 F2400 X5.18 Y4.614 E55.17805
G0 F3600 X5.18 Y4.048
G1 F2400 X-5.18 Y-6.311 E55.90897
G0 F3600 X-5.18 Y-6.877
G1 F2400 X5.18 Y3.483 E56.63992
G0 F3600 X5.18 Y2.917
G1 F2400 X-5.18 Y-7.443 E57.37088
G0 F3600 X-5.18 Y-8.008
G1 F2400 X5.18 Y2.351 E58.10179
G0 F3600 X5.18 Y1.786
G1 F2400 X-5.18 Y-8.574 E58.83275
G0 F3600 X-5.18 Y-9.14
G1 F2400 X5.18 Y1.22 E59.5637
G0 F3600 X5.18 Y0.654
G1 F2400 X-5.18 Y-9.705 E60.29462
G0 F3600 X-5.18 Y-10.271
G1 F2400 X5.18 Y0.089 E61.02558
G0 F3600 X5.18 Y-.476
G1 F2400 X-5.18 Y-10.837 E61.75656
G0 F3600 X-4.706 Y-10.929
G1 F2400 X5.18 Y-1.042 E62.45411
G0 F3600 X5.18 Y-1.607
G1 F2400 X-4.14 Y-10.929 E63.11176
G0 F3600 X-3.575 Y-10.929
G1 F2400 X5.18 Y-2.173 E63.72951
G0 F3600 X5.18 Y-2.739
G1 F2400 X-3.009 Y-10.929 E64.30732
G0 F3600 X-2.443 Y-10.929
G1 F2400 X5.18 Y-3.305 E64.8452
G0 F3600 X5.18 Y-3.87
G1 F2400 X-1.878 Y-10.929 E65.34321
G0 F3600 X-1.312 Y-10.929
M104 S202
G1 F2400 X5.18 Y-4.436 E65.80129
G0 F3600 X5.18 Y-5.002
G1 F2400 X-.746 Y-10.929 E66.21944
G0 F3600 X-.181 Y-10.929
G1 F2400 X5.18 Y-5.567 E66.59772
G0 F3600 X5.18 Y-6.133
G1 F2400 X0.384 Y-10.929 E66.93611
G0 F3600 X0.95 Y-10.929
G1 F2400 X5.18 Y-6.699 E67.23456
G0 F3600 X5.18 Y-7.264
G1 F2400 X1.516 Y-10.929 E67.49311
G0 F3600 X2.081 Y-10.929
G1 F2400 X5.18 Y-7.83 E67.71176
G0 F3600 X5.18 Y-8.396
G1 F2400 X2.647 Y-10.929 E67.89047
G0 F3600 X3.213 Y-10.929
G1 F2400 X5.18 Y-8.961 E68.02929
G0 F3600 X5.18 Y-9.527
G1 F2400 X3.778 Y-10.929 E68.12821
G0 F3600 X4.344 Y-10.929
G1 F2400 X5.18 Y-10.093 E68.1872
G0 F3600 X5.18 Y-10.658
G1 F2400 X4.91 Y-10.929 E68.20628
;MESH:NONMESH
G0 F600 X4.91 Y-10.929 Z0.54
G0 F3600 X-5.75 Y11.5
;TIME_ELAPSED:39.463913
;LAYER:1
M106 S255
;TYPE:WALL-INNER
;MESH:BackupBat_Wing.stl
G1 F4800 X-5.75 Y-11.5 E69.12426
G1 X5.75 Y-11.5 E69.58325
G1 X5.75 Y11.5 E70.50123
G1 X-5.085 Y11.5 E70.93368
G0 F4320 X-5.75 Y11.5
G0 F7200 X-6.15 Y11.9
G1 F4800 X-6.15 Y-11.9 E71.88359
G1 X6.15 Y-11.9 E72.37451
G1 X6.15 Y11.9 E73.32442
G1 X-5.485 Y11.9 E73.78879
G0 F4320 X-6.15 Y11.9
G0 F7200 X-6.55 Y12.3
;TYPE:WALL-OUTER
G1 F2400 X-6.55 Y-12.3 E74.77063
G1 X6.55 Y-12.3 E75.29348
G1 X6.55 Y12.3 E76.27532
G1 X-5.885 Y12.3 E76.77163
G0 F2160 X-6.55 Y12.3
G0 F7200 X-6.55 Y12.1
G0 X-6.11 Y11.86
G0 X-6.05 Y11.86
G0 X-5.36 Y11.11
;TYPE:SKIN
G1 F2400 X-5.36 Y-11.11 E77.65848
G1 X5.36 Y-11.11 E78.08634
G1 X5.36 Y11.11 E78.97319
G1 X-4.695 Y11.11 E79.3745
G0 F2160 X-5.36 Y11.11
G0 F7200 X4.91 Y10.929
G1 F2400 X5.18 Y10.658 E79.38977
G0 F7200 X5.18 Y10.093
G1 F2400 X4.344 Y10.929 E79.43696
G0 F7200 X3.778 Y10.929
G1 F2400 X5.18 Y9.527 E79.51609
G0 F7200 X5.18 Y8.961
G1 F2400 X3.213 Y10.929 E79.62715
G0 F7200 X2.647 Y10.929
G1 F2400 X5.18 Y8.396 E79.77012
G0 F7200 X5.18 Y7.83
G1 F2400 X2.081 Y10.929 E79.94504
G0 F7200 X1.516 Y10.929
G1 F2400 X5.18 Y7.264 E80.15188
G0 F7200 X5.18 Y6.699
G1 F2400 X0.95 Y10.929 E80.39064
G0 F7200 X0.384 Y10.929
G1 F2400 X5.18 Y6.133 E80.66135
G0 F7200 X5.18 Y5.567
G1 F2400 X-.181 Y10.929 E80.96397
G0 F7200 X-.746 Y10.929
G1 F2400 X5.18 Y5.002 E81.29849
G0 F7200 X5.18 Y4.436
G1 F2400 X-1.312 Y10.929 E81.66496
G0 F7200 X-1.878 Y10.929
G1 F2400 X5.18 Y3.87 E82.06337
G0 F7200 X5.18 Y3.305
G1 F2400 X-2.443 Y10.929 E82.49367
G0 F7200 X-3.009 Y10.929
G1 F2400 X5.18 Y2.739 E82.95592
G0 F7200 X5.18 Y2.173
G1 F2400 X-3.575 Y10.929 E83.45012
G0 F7200 X-4.14 Y10.929
G1 F2400 X5.18 Y1.607 E83.97624
G0 F7200 X5.18 Y1.042
G1 F2400 X-4.706 Y10.929 E84.53427
G0 F7200 X-5.18 Y10.837
G1 F2400 X5.18 Y0.476 E85.11907
G0 F7200 X5.18 Y-0.089
G1 F2400 X-5.18 Y10.271 E85.70383
G0 F7200 X-5.18 Y9.705
G1 F2400 X5.18 Y-.654 E86.28856
G0 F7200 X5.18 Y-1.22
G1 F2400 X-5.18 Y9.14 E86.87333
G0 F7200 X-5.18 Y8.574
G1 F2400 X5.18 Y-1.786 E87.45809
G0 F7200 X5.18 Y-2.351
G1 F2400 X-5.18 Y8.008 E88.04283
G0 F7200 X-5.18 Y7.443
G1 F2400 X5.18 Y-2.917 E88.62759
G0 F7200 X5.18 Y-3.483
G1 F2400 X-5.18 Y6.877 E89.21235
G0 F7200 X-5.18 Y6.311
G1 F2400 X5.18 Y-4.048 E89.79709
G0 F7200 X5.18 Y-4.614
G1 F2400 X-5.18 Y5.745 E90.38182
G0 F7200 X-5.18 Y5.18
G1 F2400 X5.18 Y-5.18 E90.96658
G0 F7200 X5.18 Y-5.745
G1 F2400 X-5.18 Y4.614 E91.55132
G0 F7200 X-5.18 Y4.048
G1 F2400 X5.18 Y-6.311 E92.13605
G0 F7200 X5.18 Y-6.877
G1 F2400 X-5.18 Y3.483 E92.72082
G0 F7200 X-5.18 Y2.917
G1 F2400 X5.18 Y-7.443 E93.30558
G0 F7200 X5.18 Y-8.008
G1 F2400 X-5.18 Y2.351 E93.89032
G0 F7200 X-5.18 Y1.786
G1 F2400 X5.18 Y-8.574 E94.47508
G0 F7200 X5.18 Y-9.14
G1 F2400 X-5.18 Y1.22 E95.05984
G0 F7200 X-5.18 Y0.654
G1 F2400 X5.18 Y-9.705 E95.64458
G0 F7200 X5.18 Y-10.271
G1 F2400 X-5.18 Y0.089 E96.22934
G0 F7200 X-5.18 Y-.476
G1 F2400 X5.18 Y-10.837 E96.81413
G0 F7200 X4.706 Y-10.929
G1 F2400 X-5.18 Y-1.042 E97.37217
G0 F7200 X-5.18 Y-1.607
G1 F2400 X4.14 Y-10.929 E97.89829
G0 F7200 X3.575 Y-10.929
G1 F2400 X-5.18 Y-2.173 E98.39248
G0 F7200 X-5.18 Y-2.739
G1 F2400 X3.009 Y-10.929 E98.85474
G0 F7200 X2.443 Y-10.929
G1 F2400 X-5.18 Y-3.305 E99.28504
G0 F7200 X-5.18 Y-3.87
G1 F2400 X1.878 Y-10.929 E99.68345
G0 F7200 X1.312 Y-10.929
G1 F2400 X-5.18 Y-4.436 E100.04992
G0 F7200 X-5.18 Y-5.002
G1 F2400 X0.746 Y-10.929 E100.38443
G0 F7200 X0.181 Y-10.929
G1 F2400 X-5.18 Y-5.567 E100.68706
G0 F7200 X-5.18 Y-6.133
G1 F2400 X-.384 Y-10.929 E100.95777
G0 F7200 X-.95 Y-10.929
G1 F2400 X-5.18 Y-6.699 E101.19653
G0 F7200 X-5.18 Y-7.264
G1 F2400 X-1.516 Y-10.929 E101.40337
G0 F7200 X-2.081 Y-10.929
G1 F2400 X-5.18 Y-7.83 E101.57829
G0 F7200 X-5.18 Y-8.396
G1 F2400 X-2.647 Y-10.929 E101.72126
G0 F7200 X-3.213 Y-10.929
G1 F2400 X-5.18 Y-8.961 E101.83231
G0 F7200 X-5.18 Y-9.527
G1 F2400 X-3.778 Y-10.929 E101.91145
G0 F7200 X-4.344 Y-10.929
G1 F2400 X-5.18 Y-10.093 E101.95864
G0 F7200 X-5.18 Y-10.658
G1 F2400 X-4.91 Y-10.929 E101.9739
;MESH:NONMESH
G0 F600 X-4.91 Y-10.929 Z0.78
G0 F7200 X5.35 Y-11.1
;TIME_ELAPSED:60.724006
;LAYER:2
;TYPE:WALL-INNER
;MESH:BackupBat_Wing.stl
G1 F3450.1 X-5.35 Y-11.1 E102.40097
G1 X-5.35 Y11.1 E103.28702
G1 X5.348 Y11.1 E103.714
G1 X5.35 Y-10.435 E104.5735
G0 F3105.1 X5.35 Y-11.1
G0 F7200 X4.95 Y-10.7
;TYPE:WALL-OUTER
G1 F1725 X-4.95 Y-10.7 E104.96863
G1 X-4.95 Y10.7 E105.82275
G1 X4.948 Y10.7 E106.21781
G1 X4.95 Y-10.035 E107.04538
G0 F1552.5 X4.95 Y-10.7
G0 F7200 X4.75 Y-10.7
G0 X4.75 Y-11.14
G0 X4.75 Y-11.2
G0 X-5.378 Y-11.128
G0 X-6.08 Y11.83
G0 X-6.15 Y11.9
;TYPE:WALL-INNER
G1 F3450.1 X-6.15 Y-11.9 E107.99529
G1 X6.15 Y-11.9 E108.48621
G1 X6.15 Y11.9 E109.43612
G1 X-5.485 Y11.9 E109.9005
G0 F3105.1 X-6.15 Y11.9
G0 F7200 X-6.55 Y12.3
;TYPE:WALL-OUTER
G1 F1725 X-6.55 Y-12.3 E110.88234
G1 X6.55 Y-12.3 E111.40519
G1 X6.55 Y12.3 E112.38703
G1 X-5.885 Y12.3 E112.88334
G0 F1552.5 X-6.55 Y12.3
G0 F7200 X-6.55 Y12.1
G0 X-6.11 Y11.86
G0 X-5.893 Y11.642
;TYPE:SKIN
G1 F1725 X-5.752 Y11.501 E112.89829
G0 F7200 X-5.61 Y11.359
G1 F1725 X-5.75 Y10.937 E112.91644
G1 X-5.188 Y11.499 E112.94889
G1 X5.559 Y11.499 E113.38759
G1 X5.749 Y11.405 E113.39624
G1 X5.749 Y-10.937 E114.30827
G1 X5.61 Y-11.359 E114.32641
G1 X5.893 Y-11.642 E114.34274
G1 X4.905 Y-11.498 E114.3835
G1 X-5.559 Y-11.498 E114.81065
G1 X-5.75 Y-11.406 E114.81931
G1 X-5.75 Y9.324 E115.66553
G0 F1552.5 X-5.75 Y10.654
G0 F7200 X-5.75 Y10.859
;MESH:NONMESH
G0 F600 X-5.75 Y10.859 Z1.02
G0 F7200 X-5.378 Y-11.128
G0 X5.42 Y-11.17
G0 X5.35 Y-11.1
;TIME_ELAPSED:71.276715
;LAYER:3
;TYPE:WALL-INNER
;MESH:BackupBat_Wing.stl
G1 F3535.4 X-5.35 Y-11.1 E116.09259
G1 X-5.35 Y11.1 E116.97864
G1 X5.35 Y11.1 E117.4057
G1 X5.35 Y-10.435 E118.26521
G0 F3181.9 X5.35 Y-11.1
G0 F7200 X4.95 Y-10.7
;TYPE:WALL-OUTER
G1 F1767.7 X-4.95 Y-10.7 E118.66034
G1 X-4.95 Y10.7 E119.51446
G1 X4.95 Y10.7 E119.90959
G1 X4.95 Y-10.035 E120.73717
G0 F1590.9 X4.95 Y-10.7
G0 F7200 X4.75 Y-10.7
G0 X4.75 Y-11.14
G0 X4.75 Y-11.2
G0 X-5.378 Y-11.128
G0 X-6.08 Y11.83
