;FLAVOR:Marlin
;TIME:2885
;Filament used: 1.88318m
;Layer height: 0.12
;MINX:-5
;MINY:-15.05
;MINZ:0.3
;MAXX:15
;MAXY:14.95
;MAXZ:25.38
;Generated with Cura_SteamEngine 4.13.1
M140 S50
M105
M190 S50
M104 S215
M105
M109 S215
M82 ;absolute extrusion mode
;FLAVOR:Marlin
M82 ;absolute extrusion mode
G21
G90
M82
M107 T0
G28
G92 E0
G0 E3 F200
G92 E0 ; reset extrusion distance
M106 S255 ; Enable cooling fan full speed
G1 X-98 Y0 Z0.4 F3000 ; move to arc start
G3 X0 Y-98 I98 Z0.4 E40 F400 ; lay arc stripe 90deg
G92 E0 ; reset extrusion distance
G4 P500 ; wait for 0.5 sec
G0 Z10 E-1 ; Lift 15mm and retract 1mm filament
G4 P2000 ; wait for 5 sec
G0 Z15
M107 ; Disable cooling fan
G1 X0 Y-85 Z4 E0 F3000 ; get off the bed
G92 E0
G92 E0
G1 F1500 E-6.5
;LAYER_COUNT:211
;LAYER:0
M106 S25.5
G1 F600 Z1.3
G0 F3600 X-5 Y11.833 Z1.3
;TYPE:SKIRT
G1 F600 Z0.3
G1 F1500 E0.3326
G1 X-5 Y-11.933 E1.8325
G1 X-4.96 Y-12.421 E1.8634
G1 X-4.841 Y-12.896 E1.89431
G1 X-4.647 Y-13.345 E1.92517
G1 X-4.382 Y-13.757 E1.95609
G1 X-4.004 Y-14.171 E1.99147
G1 X-3.631 Y-14.488 E2.02236
G1 X-3.211 Y-14.74 E2.05328
G1 X-2.756 Y-14.92 E2.08416
G1 X-2.278 Y-15.024 E2.11503
G1 X-1.883 Y-15.05 E2.14001
G1 X2.884 Y-15.05 E2.44086
G1 X3.372 Y-15.01 E2.47176
G1 X3.847 Y-14.891 E2.50267
G1 X4.296 Y-14.697 E2.53354
G1 X4.708 Y-14.432 E2.56445
G1 X5 Y-14.175 E2.589
G1 X5.368 Y-14.488 E2.61949
G1 X5.788 Y-14.74 E2.6504
G1 X6.243 Y-14.92 E2.68129
G1 X6.721 Y-15.024 E2.71216
G1 X7.116 Y-15.05 E2.73714
G1 X11.883 Y-15.05 E3.03799
G1 X12.371 Y-15.01 E3.06889
G1 X12.846 Y-14.891 E3.0998
G1 X13.295 Y-14.697 E3.13067
G1 X13.707 Y-14.432 E3.16158
G1 X14.121 Y-14.054 E3.19696
G1 X14.438 Y-13.681 E3.22786
G1 X14.69 Y-13.261 E3.25877
G1 X14.87 Y-12.806 E3.28965
G1 X14.974 Y-12.328 E3.32052
G1 X15 Y-11.933 E3.34551
G1 X15 Y11.833 E4.8454
G1 X14.96 Y12.321 E4.87631
G1 X14.841 Y12.796 E4.90721
G1 X14.647 Y13.245 E4.93808
G1 X14.382 Y13.657 E4.96899
G1 X14.004 Y14.071 E5.00437
G1 X13.631 Y14.388 E5.03527
G1 X13.211 Y14.64 E5.06618
G1 X12.756 Y14.82 E5.09706
G1 X12.278 Y14.924 E5.12793
G1 X11.883 Y14.95 E5.15292
G1 X7.116 Y14.95 E5.45377
G1 X6.628 Y14.91 E5.48467
G1 X6.153 Y14.791 E5.51557
G1 X5.704 Y14.597 E5.54644
G1 X5.292 Y14.332 E5.57736
G1 X5 Y14.075 E5.60191
G1 X4.632 Y14.388 E5.6324
G1 X4.212 Y14.64 E5.66331
G1 X3.757 Y14.82 E5.69419
G1 X3.279 Y14.924 E5.72506
G1 X2.884 Y14.95 E5.75005
G1 X-1.883 Y14.95 E6.0509
G1 X-2.371 Y14.91 E6.0818
G1 X-2.846 Y14.791 E6.1127
G1 X-3.295 Y14.597 E6.14357
G1 X-3.707 Y14.332 E6.17449
G1 X-4.121 Y13.954 E6.20987
G1 X-4.438 Y13.581 E6.24076
G1 X-4.69 Y13.161 E6.27167
G1 X-4.87 Y12.706 E6.30255
G1 X-4.974 Y12.228 E6.33343
G1 X-5 Y11.833 E6.35841
G0 F3600 X-4.6 Y11.833
G1 F1500 X-4.6 Y-11.933 E7.85831
G1 X-4.56 Y-12.387 E7.88707
G1 X-4.442 Y-12.827 E7.91582
G1 X-4.248 Y-13.239 E7.94456
G1 X-3.838 Y-13.771 E7.98695
G1 X-3.372 Y-14.181 E8.02612
G1 X-2.977 Y-14.408 E8.05487
G1 X-2.549 Y-14.563 E8.0836
G1 X-1.883 Y-14.65 E8.12599
G1 X2.884 Y-14.65 E8.42684
G1 X3.338 Y-14.61 E8.45561
G1 X3.778 Y-14.492 E8.48436
G1 X4.19 Y-14.298 E8.5131
G1 X4.722 Y-13.888 E8.55549
G1 X5.007 Y-13.571 E8.58239
G1 X5.278 Y-13.888 E8.60871
G1 X5.627 Y-14.181 E8.63747
G1 X6.022 Y-14.408 E8.66622
G1 X6.45 Y-14.563 E8.69495
G1 X7.116 Y-14.65 E8.73734
G1 X11.883 Y-14.65 E9.03819
G1 X12.337 Y-14.61 E9.06695
G1 X12.777 Y-14.492 E9.0957
G1 X13.189 Y-14.298 E9.12444
G1 X13.721 Y-13.888 E9.16683
G1 X14.131 Y-13.422 E9.206
G1 X14.358 Y-13.027 E9.23476
G1 X14.513 Y-12.599 E9.26348
G1 X14.6 Y-11.933 E9.30587
G1 X14.6 Y11.833 E10.80577
G1 X14.56 Y12.287 E10.83454
G1 X14.442 Y12.727 E10.86329
G1 X14.248 Y13.139 E10.89203
G1 X13.838 Y13.671 E10.93441
G1 X13.372 Y14.081 E10.97359
G1 X12.977 Y14.308 E11.00234
G1 X12.549 Y14.463 E11.03107
G1 X11.883 Y14.55 E11.07346
G1 X7.116 Y14.55 E11.37431
G1 X6.662 Y14.51 E11.40307
G1 X6.222 Y14.392 E11.43182
G1 X5.81 Y14.198 E11.46056
G1 X5.278 Y13.788 E11.50295
G1 X4.993 Y13.471 E11.52985
G1 X4.722 Y13.788 E11.55617
G1 X4.373 Y14.081 E11.58493
G1 X3.978 Y14.308 E11.61368
G1 X3.55 Y14.463 E11.64241
G1 X2.884 Y14.55 E11.6848
G1 X-1.883 Y14.55 E11.98565
G1 X-2.337 Y14.51 E12.01442
G1 X-2.777 Y14.392 E12.04317
G1 X-3.189 Y14.198 E12.07191
G1 X-3.721 Y13.788 E12.1143
G1 X-4.131 Y13.322 E12.15347
G1 X-4.358 Y12.927 E12.18222
G1 X-4.513 Y12.499 E12.21095
G1 X-4.6 Y11.833 E12.25334
G0 F3600 X-4.2 Y11.833
G1 F1500 X-4.2 Y-11.933 E13.75324
G1 X-4.16 Y-12.35 E13.77967
G1 X-4.042 Y-12.752 E13.80612
G1 X-3.849 Y-13.124 E13.83256
G1 X-3.439 Y-13.606 E13.8725
G1 X-3.115 Y-13.872 E13.89896
G1 X-2.748 Y-14.073 E13.92536
G1 X-2.348 Y-14.2 E13.95185
G1 X-1.883 Y-14.25 E13.98137
G1 X2.884 Y-14.25 E14.28222
G1 X3.301 Y-14.21 E14.30866
G1 X3.703 Y-14.092 E14.3351
G1 X4.075 Y-13.899 E14.36155
G1 X4.557 Y-13.489 E14.40148
G1 X4.823 Y-13.165 E14.42794
G1 X5.002 Y-12.838 E14.45147
G1 X5.15 Y-13.124 E14.47179
G1 X5.56 Y-13.606 E14.51172
G1 X5.884 Y-13.872 E14.53818
G1 X6.251 Y-14.073 E14.56459
G1 X6.651 Y-14.2 E14.59108
G1 X7.116 Y-14.25 E14.62059
G1 X11.883 Y-14.25 E14.92144
G1 X12.3 Y-14.21 E14.94788
G1 X12.702 Y-14.092 E14.97432
G1 X13.074 Y-13.899 E15.00077
G1 X13.556 Y-13.489 E15.04071
G1 X13.822 Y-13.165 E15.06716
G1 X14.023 Y-12.798 E15.09357
G1 X14.15 Y-12.398 E15.12006
G1 X14.2 Y-11.933 E15.14957
G1 X14.2 Y11.833 E16.64947
G1 X14.16 Y12.25 E16.67591
G1 X14.042 Y12.652 E16.70235
G1 X13.849 Y13.024 E16.7288
G1 X13.439 Y13.506 E16.76874
G1 X13.115 Y13.772 E16.79519
G1 X12.748 Y13.973 E16.8216
G1 X12.348 Y14.1 E16.84809
G1 X11.883 Y14.15 E16.8776
G1 X7.116 Y14.15 E17.17845
G1 X6.699 Y14.11 E17.20489
G1 X6.297 Y13.992 E17.23133
G1 X5.925 Y13.799 E17.25778
G1 X5.443 Y13.389 E17.29772
G1 X5.177 Y13.065 E17.32417
G1 X4.998 Y12.738 E17.3477
G1 X4.85 Y13.024 E17.36802
G1 X4.44 Y13.506 E17.40796
G1 X4.116 Y13.772 E17.43442
G1 X3.749 Y13.973 E17.46082
G1 X3.349 Y14.1 E17.48731
G1 X2.884 Y14.15 E17.51683
G1 X-1.883 Y14.15 E17.81768
G1 X-2.3 Y14.11 E17.84412
G1 X-2.702 Y13.992 E17.87056
G1 X-3.074 Y13.799 E17.89701
G1 X-3.556 Y13.389 E17.93694
G1 X-3.822 Y13.065 E17.9634
G1 X-4.023 Y12.698 E17.98981
G1 X-4.15 Y12.298 E18.01629
G1 X-4.2 Y11.833 E18.04581
G0 F3600 X-3.8 Y11.833
G1 F1500 X-3.8 Y-11.933 E19.54571
G1 X-3.76 Y-12.31 E19.56963
G1 X-3.642 Y-12.67 E19.59354
G1 X-3.452 Y-12.997 E19.61741
G1 X-3.156 Y-13.323 E19.6452
G1 X-2.861 Y-13.561 E19.66912
G1 X-2.523 Y-13.732 E19.69303
G1 X-2.157 Y-13.829 E19.71692
G1 X-1.883 Y-13.85 E19.73427
G1 X2.884 Y-13.85 E20.03512
G1 X3.261 Y-13.81 E20.05904
G1 X3.621 Y-13.692 E20.08295
G1 X3.948 Y-13.502 E20.10682
G1 X4.274 Y-13.206 E20.13461
G1 X4.512 Y-12.911 E20.15853
G1 X4.683 Y-12.573 E20.18244
G1 X4.78 Y-12.207 E20.20634
G1 X4.801 Y-11.932 E20.22374
G1 X4.8 Y-10.666 E20.30364
G1 X4.76 Y-10.289 E20.32757
G1 X4.634 Y-9.915 E20.35247
G1 X4.867 Y-9.957 E20.36742
G1 X5.375 Y-9.913 E20.3996
G1 X5.22 Y-10.393 E20.43143
G1 X5.199 Y-10.667 E20.44877
G1 X5.199 Y-11.933 E20.52867
G1 X5.239 Y-12.31 E20.5526
G1 X5.357 Y-12.67 E20.57651
G1 X5.547 Y-12.997 E20.60038
G1 X5.843 Y-13.323 E20.62817
G1 X6.138 Y-13.561 E20.65209
G1 X6.476 Y-13.732 E20.67599
G1 X6.842 Y-13.829 E20.69989
G1 X7.116 Y-13.85 E20.71723
G1 X11.883 Y-13.85 E21.01808
G1 X12.26 Y-13.81 E21.04201
G1 X12.62 Y-13.692 E21.06592
G1 X12.947 Y-13.502 E21.08979
G1 X13.273 Y-13.206 E21.11758
G1 X13.511 Y-12.911 E21.1415
G1 X13.682 Y-12.573 E21.1654
G1 X13.779 Y-12.207 E21.1893
G1 X13.8 Y-11.933 E21.20664
G1 X13.8 Y11.833 E22.70654
G1 X13.76 Y12.21 E22.73047
G1 X13.642 Y12.57 E22.75438
G1 X13.452 Y12.897 E22.77825
G1 X13.156 Y13.223 E22.80604
G1 X12.861 Y13.461 E22.82996
G1 X12.523 Y13.632 E22.85386
G1 X12.157 Y13.729 E22.87776
G1 X11.883 Y13.75 E22.8951
G1 X7.116 Y13.75 E23.19595
G1 X6.739 Y13.71 E23.21988
G1 X6.379 Y13.592 E23.24379
G1 X6.052 Y13.402 E23.26766
G1 X5.726 Y13.106 E23.29545
G1 X5.488 Y12.811 E23.31937
G1 X5.317 Y12.473 E23.34327
G1 X5.22 Y12.107 E23.36717
G1 X5.199 Y11.832 E23.38458
G1 X5.2 Y10.566 E23.46447
G1 X5.24 Y10.189 E23.4884
G1 X5.366 Y9.815 E23.51331
G1 X5.134 Y9.857 E23.52819
G1 X4.625 Y9.813 E23.56043
G1 X4.78 Y10.293 E23.59227
G1 X4.801 Y10.567 E23.60961
G1 X4.801 Y11.833 E23.68951
G1 X4.761 Y12.21 E23.71343
G1 X4.643 Y12.57 E23.73734
G1 X4.453 Y12.897 E23.76121
G1 X4.157 Y13.223 E23.789
G1 X3.862 Y13.461 E23.81292
G1 X3.524 Y13.632 E23.83683
G1 X3.158 Y13.729 E23.86072
G1 X2.884 Y13.75 E23.87807
G1 X-1.883 Y13.75 E24.17892
G1 X-2.26 Y13.71 E24.20284
G1 X-2.62 Y13.592 E24.22675
G1 X-2.947 Y13.402 E24.25062
G1 X-3.273 Y13.106 E24.27841
G1 X-3.511 Y12.811 E24.30233
G1 X-3.682 Y12.473 E24.32624
G1 X-3.779 Y12.107 E24.35014
G1 X-3.8 Y11.833 E24.36748
G0 F3600 X-3.4 Y11.833
G1 F1500 X-3.4 Y-11.933 E25.86738
G1 X-3.36 Y-12.265 E25.88848
G1 X-3.243 Y-12.577 E25.90951
G1 X-2.873 Y-13.04 E25.94692
G1 X-2.61 Y-13.246 E25.968
G1 X-2.306 Y-13.385 E25.9891
G1 X-1.883 Y-13.45 E26.01611
G1 X2.884 Y-13.45 E26.31696
G1 X3.216 Y-13.41 E26.33806
G1 X3.528 Y-13.293 E26.35909
G1 X3.991 Y-12.923 E26.39649
G1 X4.197 Y-12.66 E26.41758
G1 X4.336 Y-12.356 E26.43867
G1 X4.401 Y-11.932 E26.46575
G1 X4.4 Y-10.666 E26.54565
G1 X4.36 Y-10.334 E26.56675
G1 X4.242 Y-10.022 E26.5878
G1 X3.873 Y-9.56 E26.62512
G1 X3.61 Y-9.354 E26.6462
G1 X3.306 Y-9.215 E26.6673
G1 X2.883 Y-9.15 E26.69431
G1 X0.9 Y-9.15 E26.81946
G1 X0.9 Y9.05 E27.96808
G1 X2.884 Y9.05 E28.09329
G1 X3.216 Y9.09 E28.11439
G1 X3.528 Y9.207 E28.13542
G1 X3.991 Y9.577 E28.17283
G1 X4.197 Y9.84 E28.19391
G1 X4.336 Y10.144 E28.21501
G1 X4.401 Y10.567 E28.24202
G1 X4.401 Y11.833 E28.32192
G1 X4.361 Y12.165 E28.34302
G1 X4.244 Y12.477 E28.36405
G1 X3.874 Y12.94 E28.40146
G1 X3.611 Y13.146 E28.42254
G1 X3.307 Y13.285 E28.44364
G1 X2.884 Y13.35 E28.47065
G1 X-1.883 Y13.35 E28.7715
G1 X-2.215 Y13.31 E28.7926
G1 X-2.527 Y13.193 E28.81363
G1 X-2.99 Y12.823 E28.85103
G1 X-3.196 Y12.56 E28.87212
G1 X-3.335 Y12.256 E28.89321
G1 X-3.4 Y11.833 E28.92022
G0 F3600 X-3 Y11.833
G1 F1500 X-3 Y-11.933 E30.42012
G1 X-2.96 Y-12.212 E30.43791
G1 X-2.844 Y-12.469 E30.45571
G1 X-2.59 Y-12.757 E30.47994
G1 X-2.364 Y-12.926 E30.49775
G1 X-2.1 Y-13.026 E30.51557
G1 X-1.883 Y-13.05 E30.52935
G1 X2.884 Y-13.05 E30.8302
G1 X3.163 Y-13.01 E30.84798
G1 X3.42 Y-12.894 E30.86578
G1 X3.708 Y-12.64 E30.89001
G1 X3.877 Y-12.414 E30.90782
G1 X3.977 Y-12.15 E30.92564
G1 X4.001 Y-11.932 E30.93948
G1 X4 Y-10.666 E31.01938
G1 X3.96 Y-10.387 E31.03717
G1 X3.844 Y-10.13 E31.05496
G1 X3.59 Y-9.843 E31.07915
G1 X3.364 Y-9.674 E31.09696
G1 X3.1 Y-9.574 E31.11478
G1 X2.883 Y-9.55 E31.12856
G1 X0.5 Y-9.55 E31.27895
G1 X0.5 Y9.45 E32.47806
G1 X2.884 Y9.45 E32.62852
G1 X3.163 Y9.49 E32.64631
G1 X3.42 Y9.606 E32.6641
G1 X3.708 Y9.86 E32.68834
G1 X3.877 Y10.086 E32.70615
G1 X3.977 Y10.35 E32.72396
G1 X4.001 Y10.567 E32.73774
G1 X4.001 Y11.833 E32.81764
G1 X3.961 Y12.112 E32.83543
G1 X3.845 Y12.369 E32.85322
G1 X3.591 Y12.657 E32.87746
G1 X3.365 Y12.826 E32.89527
G1 X3.101 Y12.926 E32.91309
G1 X2.884 Y12.95 E32.92686
G1 X-1.883 Y12.95 E33.22772
G1 X-2.162 Y12.91 E33.2455
G1 X-2.419 Y12.794 E33.2633
G1 X-2.707 Y12.54 E33.28753
G1 X-2.876 Y12.314 E33.30534
G1 X-2.976 Y12.05 E33.32316
G1 X-3 Y11.833 E33.33694
G0 F3600 X-2.6 Y11.833
G1 F1500 X-2.6 Y-11.933 E34.83684
G1 X-2.56 Y-12.148 E34.85064
G1 X-2.307 Y-12.474 E34.87668
G1 X-2.128 Y-12.598 E34.89042
G1 X-1.883 Y-12.65 E34.90623
G1 X2.884 Y-12.65 E35.20708
G1 X3.099 Y-12.61 E35.22088
G1 X3.425 Y-12.357 E35.24693
G1 X3.549 Y-12.178 E35.26067
G1 X3.601 Y-11.933 E35.27648
G1 X3.6 Y-10.667 E35.35637
G1 X3.56 Y-10.452 E35.37018
G1 X3.307 Y-10.126 E35.39622
G1 X3.128 Y-10.002 E35.40996
G1 X2.883 Y-9.95 E35.42577
G1 X0.1 Y-9.95 E35.60141
G1 X0.1 Y9.85 E36.85101
G1 X2.884 Y9.85 E37.02671
G1 X3.099 Y9.89 E37.04051
G1 X3.425 Y10.143 E37.06655
G1 X3.549 Y10.322 E37.0803
G1 X3.601 Y10.567 E37.0961
G1 X3.601 Y11.833 E37.176
G1 X3.561 Y12.048 E37.1898
G1 X3.308 Y12.374 E37.21585
G1 X3.129 Y12.498 E37.22959
G1 X2.884 Y12.55 E37.2454
G1 X-1.883 Y12.55 E37.54625
G1 X-2.098 Y12.51 E37.56005
G1 X-2.424 Y12.257 E37.58609
G1 X-2.548 Y12.078 E37.59983
G1 X-2.6 Y11.833 E37.61564
G0 F3600 X-2.2 Y11.833
G1 F1500 X-2.2 Y-11.933 E39.11554
G1 X-2.141 Y-12.074 E39.12519
G1 X-2.024 Y-12.191 E39.13563
G1 X-1.883 Y-12.25 E39.14527
G1 X2.884 Y-12.25 E39.44613
G1 X3.025 Y-12.191 E39.45577
G1 X3.142 Y-12.074 E39.46621
G1 X3.201 Y-11.933 E39.47586
G1 X3.2 Y-10.667 E39.55576
G1 X3.141 Y-10.526 E39.56541
G1 X3.024 Y-10.409 E39.57585
G1 X2.883 Y-10.35 E39.58549
G1 X-.3 Y-10.35 E39.78638
G1 X-.3 Y10.25 E41.08647
G1 X2.884 Y10.25 E41.28741
G1 X3.025 Y10.309 E41.29706
G1 X3.142 Y10.426 E41.3075
G1 X3.201 Y10.567 E41.31715
G1 X3.201 Y11.833 E41.39705
G1 X3.142 Y11.974 E41.40669
G1 X3.025 Y12.091 E41.41713
G1 X2.884 Y12.15 E41.42678
G1 X-1.883 Y12.15 E41.72763
G1 X-2.024 Y12.091 E41.73728
G1 X-2.141 Y11.974 E41.74772
G1 X-2.2 Y11.833 E41.75737
G1 F1500 E35.25737
G1 F600 Z1.3
G0 F3600 X1.556 Y8.057 Z1.3
G1 F600 Z0.3
G1 F1500 E42.08997
G1 X1.397 Y7.763 E42.11106
G1 X1.3 Y7.25 E42.14401
G1 X1.3 Y-7.35 E43.06543
G1 X1.34 Y-7.682 E43.08654
G1 X1.457 Y-7.994 E43.10757
G1 X1.645 Y-8.271 E43.1287
G1 X1.893 Y-8.494 E43.14974
G1 X2.187 Y-8.653 E43.17084
G1 X2.7 Y-8.75 E43.20379
G1 X3.159 Y-8.775 E43.2328
G1 X3.701 Y-8.951 E43.26876
G1 X4.369 Y-9.412 E43.31999
G1 X4.683 Y-9.526 E43.34107
G1 X5.015 Y-9.562 E43.36214
G1 X5.346 Y-9.518 E43.38322
G1 X5.658 Y-9.397 E43.40434
G1 X6.295 Y-8.953 E43.45334
G1 X6.827 Y-8.778 E43.48869
G1 X7.632 Y-8.71 E43.53967
G1 X7.944 Y-8.593 E43.5607
G1 X8.221 Y-8.405 E43.58183
G1 X8.444 Y-8.157 E43.60288
G1 X8.603 Y-7.863 E43.62397
G1 X8.7 Y-7.35 E43.65692
G1 X8.7 Y7.25 E44.57834
G1 X8.66 Y7.582 E44.59945
G1 X8.543 Y7.894 E44.62048
G1 X8.355 Y8.171 E44.64161
G1 X8.107 Y8.394 E44.66265
G1 X7.813 Y8.553 E44.68375
G1 X7.3 Y8.65 E44.7167
G1 X6.841 Y8.675 E44.74571
G1 X6.304 Y8.849 E44.78133
G1 X5.632 Y9.312 E44.83284
G1 X5.318 Y9.426 E44.85392
G1 X4.986 Y9.462 E44.875
G1 X4.654 Y9.418 E44.89613
G1 X4.343 Y9.298 E44.91717
G1 X3.705 Y8.853 E44.96626
G1 X3.173 Y8.678 E45.00161
G1 X2.368 Y8.61 E45.05259
G1 X2.056 Y8.493 E45.07362
G1 X1.779 Y8.305 E45.09475
G1 X1.556 Y8.057 E45.1158
G0 F3600 X1.795 Y7.675
G1 F1500 X1.7 Y7.25 E45.14328
G1 X1.7 Y-7.35 E46.0647
G1 X1.74 Y-7.629 E46.08249
G1 X1.856 Y-7.886 E46.10029
G1 X2.039 Y-8.101 E46.11811
G1 X2.275 Y-8.255 E46.13589
G1 X2.7 Y-8.35 E46.16337
G1 X3.217 Y-8.378 E46.19605
G1 X3.551 Y-8.457 E46.21771
G1 X3.879 Y-8.592 E46.2401
G1 X4.35 Y-8.923 E46.27643
G1 X4.588 Y-9.074 E46.29422
G1 X4.859 Y-9.152 E46.31201
G1 X5.142 Y-9.152 E46.32988
G1 X5.412 Y-9.073 E46.34763
G1 X5.817 Y-8.778 E46.37925
G1 X6.11 Y-8.596 E46.40102
G1 X6.433 Y-8.463 E46.42307
G1 X6.77 Y-8.381 E46.44495
G1 X7.3 Y-8.35 E46.47846
G1 X7.579 Y-8.31 E46.49625
G1 X7.836 Y-8.194 E46.51404
G1 X8.051 Y-8.011 E46.53186
G1 X8.205 Y-7.775 E46.54965
G1 X8.3 Y-7.35 E46.57713
G1 X8.3 Y7.25 E47.49855
G1 X8.26 Y7.529 E47.51634
G1 X8.144 Y7.786 E47.53414
G1 X7.961 Y8.001 E47.55195
G1 X7.725 Y8.155 E47.56974
G1 X7.3 Y8.25 E47.59722
G1 X6.783 Y8.278 E47.6299
G1 X6.449 Y8.357 E47.65156
G1 X6.118 Y8.493 E47.67415
G1 X5.65 Y8.823 E47.71029
G1 X5.412 Y8.974 E47.72807
G1 X5.141 Y9.052 E47.74587
G1 X4.859 Y9.052 E47.76367
G1 X4.588 Y8.973 E47.78148
G1 X4.183 Y8.678 E47.81311
G1 X3.89 Y8.496 E47.83487
G1 X3.567 Y8.363 E47.85692
G1 X3.23 Y8.281 E47.87881
G1 X2.7 Y8.25 E47.91231
G1 X2.421 Y8.21 E47.9301
G1 X2.164 Y8.094 E47.9479
G1 X1.949 Y7.911 E47.96572
G1 X1.795 Y7.675 E47.9835
G0 F3600 X2.166 Y7.524
G1 F1500 X2.1 Y7.25 E48.00129
G1 X2.1 Y-7.35 E48.92271
G1 X2.14 Y-7.565 E48.93651
