;FLAVOR:Marlin
;TIME:2142
;Filament used: 2.69239m
;Layer height: 0.24
;MINX:-25.849
;MINY:36
;MINZ:0.3
;MAXX:35.793
;MAXY:54.796
;MAXZ:31.98
;Generated with Cura_SteamEngine 4.13.1
M140 S50
M105
M190 S50
M104 S210
M105
M109 S210
M82 ;absolute extrusion mode
;FLAVOR:Marlin
M82 ;absolute extrusion mode
G21
G90
M82
M107 T0
G28
G92 E0
G0 E3 F200
G92 E0 ; reset extrusion distance
M106 S255 ; Enable cooling fan full speed
G1 X-98 Y0 Z0.4 F3000 ; move to arc start
G3 X0 Y-98 I98 Z0.4 E40 F400 ; lay arc stripe 90deg
G92 E0 ; reset extrusion distance
G4 P500 ; wait for 0.5 sec
G0 Z10 E-1 ; Lift 15mm and retract 1mm filament
G4 P2000 ; wait for 5 sec
G0 Z15
M107 ; Disable cooling fan
G1 X0 Y-85 Z4 E0 F3000 ; get off the bed
G92 E0
G92 E0
G1 F1500 E-6.5
;LAYER_COUNT:134
;LAYER:0
M106 S25.5
G1 F600 Z1.3
G0 F3600 X2.219 Y43.44 Z1.3
;TYPE:SKIRT
G1 F600 Z0.3
G1 F1500 E0.3326
G1 F2400 X-14.826 Y43.44 E1.18298
G1 X-15.342 Y43.466 E1.20876
G1 X-16.035 Y43.594 E1.24391
G1 X-16.522 Y43.757 E1.26954
G1 X-17.015 Y43.999 E1.29694
G1 X-17.457 Y44.32 E1.32419
G1 X-17.842 Y44.759 E1.35332
G1 X-18.005 Y45.113 E1.37276
G1 X-18.047 Y45.452 E1.38981
G1 X-17.975 Y45.778 E1.40646
G1 X-17.746 Y46.176 E1.42937
G1 X-17.322 Y46.591 E1.45897
G1 X-16.808 Y46.914 E1.48926
G1 X-16.202 Y47.158 E1.52185
G1 X-15.534 Y47.309 E1.55602
G1 X-14.788 Y47.358 E1.59331
G1 X-14.275 Y47.325 E1.61896
G1 X3.313 Y45.357 E2.50191
G1 X2.954 Y45.009 E2.52685
G1 X2.664 Y44.615 E2.55126
G1 X2.368 Y43.981 E2.58616
G1 X2.219 Y43.44 E2.61416
G0 F3600 X2.577 Y43.216
G1 F2400 X2.564 Y43.04 E2.62297
G1 X-14.837 Y43.04 E3.4911
G1 X-15.383 Y43.068 E3.51838
G1 X-15.878 Y43.146 E3.54338
G1 X-16.389 Y43.282 E3.56976
G1 X-16.828 Y43.451 E3.59323
G1 X-17.419 Y43.782 E3.62703
G1 X-17.857 Y44.147 E3.65547
G1 X-18.177 Y44.542 E3.68083
G1 X-18.393 Y45.014 E3.70673
G1 X-18.447 Y45.463 E3.72929
G1 X-18.355 Y45.905 E3.75182
G1 X-18.159 Y46.287 E3.77324
G1 X-17.833 Y46.677 E3.79859
G1 X-17.371 Y47.048 E3.82816
G1 X-16.783 Y47.368 E3.86155
G1 X-16.102 Y47.602 E3.89748
G1 X-15.589 Y47.705 E3.92358
G1 X-15.069 Y47.754 E3.94964
G1 X-14.543 Y47.749 E3.97589
G1 X-14.232 Y47.723 E3.99146
G1 X4.529 Y45.623 E4.93329
G1 X3.948 Y45.345 E4.96542
G1 X3.56 Y45.042 E4.98998
G1 X3.235 Y44.722 E5.01274
G1 X2.971 Y44.351 E5.03546
G1 X2.747 Y43.855 E5.06261
G1 X2.577 Y43.216 E5.0956
G0 F3600 X2.968 Y43.125
G1 F2400 X2.95 Y42.64 E5.11981
G1 X-14.847 Y42.64 E6.00771
G1 X-15.409 Y42.669 E6.03578
G1 X-15.95 Y42.752 E6.06309
G1 X-16.511 Y42.901 E6.09205
G1 X-17.01 Y43.095 E6.11876
G1 X-17.633 Y43.444 E6.15438
G1 X-18.152 Y43.876 E6.18807
G1 X-18.514 Y44.324 E6.21681
G1 X-18.738 Y44.778 E6.24207
G1 X-18.836 Y45.199 E6.26363
G1 X-18.835 Y45.619 E6.28459
G1 X-18.723 Y46.061 E6.30733
G1 X-18.489 Y46.513 E6.33273
G1 X-18.122 Y46.954 E6.36135
G1 X-17.598 Y47.378 E6.39498
G1 X-16.961 Y47.726 E6.43119
G1 X-16.442 Y47.921 E6.45885
G1 X-15.904 Y48.058 E6.48655
G1 X-15.367 Y48.134 E6.51361
G1 X-14.793 Y48.158 E6.54227
G1 X-14.193 Y48.121 E6.57226
G1 X9.767 Y45.439 E7.7751
G1 X5.637 Y45.439 E7.98114
G1 X5.124 Y45.378 E8.00692
G1 X4.477 Y45.182 E8.04064
G1 X3.986 Y44.876 E8.06951
G1 X3.518 Y44.437 E8.10152
G1 X3.283 Y44.09 E8.12243
G1 X3.062 Y43.534 E8.15228
G1 X2.968 Y43.125 E8.17322
G0 F3600 X3.442 Y43.408
G1 F2400 X3.35 Y42.841 E8.20187
G1 X3.371 Y42.24 E8.23188
G1 X-14.857 Y42.24 E9.14128
G1 X-15.47 Y42.273 E9.1719
G1 X-16.054 Y42.365 E9.2014
G1 X-16.627 Y42.518 E9.23099
G1 X-17.162 Y42.724 E9.25959
G1 X-17.655 Y42.983 E9.28737
G1 X-18.255 Y43.423 E9.32449
G1 X-18.713 Y43.913 E9.35795
G1 X-19.035 Y44.447 E9.38906
G1 X-19.211 Y44.999 E9.41797
G1 X-19.246 Y45.504 E9.44322
G1 X-19.155 Y46.032 E9.46995
G1 X-18.929 Y46.561 E9.49865
G1 X-18.558 Y47.075 E9.53028
G1 X-18.037 Y47.556 E9.56566
G1 X-17.588 Y47.855 E9.59257
G1 X-17.106 Y48.1 E9.61954
G1 X-16.571 Y48.301 E9.64806
G1 X-15.995 Y48.447 E9.6777
G1 X-15.403 Y48.533 E9.70755
G1 X-14.785 Y48.558 E9.73841
G1 X-14.189 Y48.523 E9.76819
G1 X16.929 Y45.039 E11.33037
G1 X5.637 Y45.039 E11.89373
G1 X4.967 Y44.929 E11.92761
G1 X4.61 Y44.803 E11.9465
G1 X4.069 Y44.425 E11.97942
G1 X3.804 Y44.154 E11.99833
G1 X3.601 Y43.834 E12.01724
G1 X3.442 Y43.408 E12.03992
G0 F3600 X3.821 Y43.282
G1 F2400 X3.75 Y42.841 E12.06221
G1 X3.75 Y42.441 E12.08217
G1 X3.874 Y41.84 E12.11278
G1 X-14.829 Y41.84 E13.04588
G1 X-15.516 Y41.875 E13.0802
G1 X-16.121 Y41.97 E13.11075
G1 X-16.743 Y42.135 E13.14285
G1 X-17.344 Y42.367 E13.175
G1 X-17.841 Y42.628 E13.203
G1 X-18.314 Y42.951 E13.23158
G1 X-18.719 Y43.311 E13.25861
G1 X-19.177 Y43.875 E13.29486
G1 X-19.486 Y44.491 E13.32924
G1 X-19.632 Y45.11 E13.36097
G1 X-19.628 Y45.73 E13.3919
G1 X-19.472 Y46.346 E13.42361
G1 X-19.163 Y46.946 E13.45728
G1 X-18.676 Y47.531 E13.49525
G1 X-18.283 Y47.871 E13.52118
G1 X-17.805 Y48.192 E13.5499
G1 X-17.293 Y48.455 E13.57862
G1 X-16.682 Y48.685 E13.61119
G1 X-16.063 Y48.842 E13.64305
G1 X-15.439 Y48.931 E13.6745
G1 X-14.777 Y48.959 E13.70755
G1 X-14.115 Y48.917 E13.74065
G1 X24.099 Y44.64 E15.65906
G1 X5.637 Y44.639 E16.58013
G1 X5.06 Y44.54 E16.60934
G1 X4.747 Y44.424 E16.62599
G1 X4.324 Y44.117 E16.65207
G1 X4.093 Y43.875 E16.66876
G1 X3.821 Y43.282 E16.7013
G0 F3600 X4.201 Y43.156
G1 F2400 X4.15 Y42.841 E16.71722
G1 X4.15 Y42.441 E16.73718
G1 X4.266 Y41.928 E16.76342
G1 X4.392 Y41.675 E16.77752
G1 X4.616 Y41.44 E16.79372
G1 X-14.839 Y41.44 E17.76433
G1 X-15.539 Y41.476 E17.7993
G1 X-16.207 Y41.579 E17.83302
G1 X-16.881 Y41.759 E17.86783
G1 X-17.496 Y41.997 E17.90073
G1 X-18.047 Y42.285 E17.93175
G1 X-18.557 Y42.632 E17.96252
G1 X-19.006 Y43.033 E17.99255
G1 X-19.35 Y43.429 E18.01872
G1 X-19.651 Y43.888 E18.04611
G1 X-19.862 Y44.353 E18.07158
G1 X-19.995 Y44.843 E18.09691
G1 X-20.048 Y45.301 E18.11992
G1 X-19.987 Y46.009 E18.15537
G1 X-19.848 Y46.485 E18.18011
G1 X-19.626 Y46.954 E18.206
G1 X-19.334 Y47.393 E18.2323
G1 X-18.963 Y47.811 E18.26018
G1 X-18.54 Y48.179 E18.28816
G1 X-17.987 Y48.549 E18.32135
G1 X-17.438 Y48.828 E18.35208
G1 X-16.805 Y49.066 E18.38581
G1 X-16.138 Y49.235 E18.42014
G1 X-15.476 Y49.329 E18.4535
G1 X-14.77 Y49.359 E18.48876
G1 X-14.102 Y49.318 E18.52214
G1 X27.703 Y44.639 E20.62083
G1 X28.31 Y44.62 E20.65113
G1 X29.01 Y44.695 E20.68625
G1 X29.677 Y44.873 E20.72069
G1 X30.317 Y45.157 E20.75562
G1 X30.895 Y45.54 E20.79022
G1 X31.375 Y46.002 E20.82345
G1 X31.761 Y46.549 E20.85685
G1 X32.027 Y47.183 E20.89115
G1 X32.144 Y47.855 E20.92519
G1 X32.103 Y48.533 E20.95907
G1 X31.914 Y49.169 E20.99217
G1 X31.766 Y49.475 E21.00913
G1 X31.428 Y49.882 E21.03553
G1 X31.049 Y50.118 E21.0578
G1 X30.826 Y50.195 E21.06957
G1 X30.43 Y50.248 E21.0895
G1 X29.865 Y50.154 E21.11808
G1 X29.356 Y49.886 E21.14678
G1 X29.006 Y49.579 E21.17001
G1 X28.837 Y49.353 E21.18408
G1 X28.721 Y48.981 E21.20353
G1 X28.702 Y48.439 E21.23058
G1 X28.838 Y47.997 E21.25365
G1 X28.77 Y47.886 E21.26015
G1 X28.494 Y47.715 E21.27635
G1 X28.252 Y47.664 E21.28869
G1 X27.967 Y47.671 E21.30291
G1 X-13.568 Y52.723 E23.39037
G1 X-14.517 Y52.794 E23.43785
G1 X-15.051 Y52.798 E23.46449
G1 X-15.558 Y52.776 E23.48981
G1 X-16.057 Y52.732 E23.5148
G1 X-16.993 Y52.588 E23.56205
G1 X-17.51 Y52.471 E23.58849
G1 X-18.415 Y52.197 E23.63567
G1 X-18.913 Y52.006 E23.66228
G1 X-19.745 Y51.613 E23.70818
G1 X-20.204 Y51.352 E23.73453
G1 X-20.931 Y50.86 E23.77832
G1 X-21.348 Y50.525 E23.80501
G1 X-21.971 Y49.933 E23.84788
G1 X-22.314 Y49.542 E23.87383
G1 X-22.806 Y48.864 E23.91563
G1 X-23.069 Y48.421 E23.94133
G1 X-23.404 Y47.706 E23.98072
G1 X-23.577 Y47.208 E24.00702
G1 X-23.76 Y46.44 E24.04641
G1 X-23.826 Y45.926 E24.07227
G1 X-23.843 Y45.127 E24.11214
G1 X-23.744 Y44.267 E24.15533
G1 X-23.63 Y43.774 E24.18057
G1 X-23.366 Y43.003 E24.22123
G1 X-23.158 Y42.548 E24.24619
G1 X-22.739 Y41.831 E24.28762
G1 X-22.437 Y41.412 E24.31339
G1 X-21.882 Y40.775 E24.35554
G1 X-21.509 Y40.414 E24.38144
G1 X-20.826 Y39.861 E24.42528
G1 X-20.398 Y39.567 E24.45119
G1 X-19.629 Y39.125 E24.49544
G1 X-19.177 Y38.908 E24.52045
G1 X-18.687 Y38.704 E24.54693
G1 X-17.801 Y38.407 E24.59355
G1 X-17.285 Y38.276 E24.62011
G1 X-16.358 Y38.104 E24.66715
G1 X-15.849 Y38.046 E24.69271
G1 X-15.325 Y38.01 E24.71891
G1 X-14.872 Y38 E24.74152
G1 X30.152 Y38 E26.98777
G1 X30.802 Y38.05 E27.0203
G1 X31.455 Y38.206 E27.05379
G1 X32.068 Y38.462 E27.08694
G1 X32.621 Y38.819 E27.11977
G1 X33.087 Y39.265 E27.15196
G1 X33.467 Y39.814 E27.18527
G1 X33.706 Y40.423 E27.21791
G1 X33.798 Y41.064 E27.25021
G1 X33.767 Y41.528 E27.27341
G1 X33.634 Y42.049 E27.30024
G1 X33.34 Y42.64 E27.33317
G1 X32.927 Y43.149 E27.36587
G1 X32.402 Y43.579 E27.39973
G1 X31.813 Y43.898 E27.43315
G1 X31.183 Y44.111 E27.46633
G1 X30.532 Y44.223 E27.49928
G1 X30.15 Y44.24 E27.51836
G1 X5.637 Y44.239 E28.74132
G1 X5.154 Y44.151 E28.76581
G1 X4.75 Y43.95 E28.78832
G1 X4.388 Y43.6 E28.81345
G1 X4.201 Y43.156 E28.83748
G0 F3600 X4.581 Y43.03
G1 F2400 X4.55 Y42.441 E28.86691
G1 X4.646 Y42.053 E28.88685
G1 X4.844 Y41.771 E28.90404
G1 X5.031 Y41.623 E28.91594
G1 X5.277 Y41.506 E28.92953
G1 X5.65 Y41.44 E28.94843
G1 X30.11 Y41.44 E30.16874
G1 X30.432 Y41.363 E30.18526
G1 X30.539 Y41.238 E30.19347
G1 X30.469 Y41.141 E30.19943
G1 X30.211 Y41.045 E30.21317
G1 X30.126 Y41.04 E30.21742
G1 X-14.849 Y41.04 E32.46123
G1 X-15.584 Y41.078 E32.49795
G1 X-16.278 Y41.185 E32.53298
G1 X-17.003 Y41.378 E32.57041
G1 X-17.671 Y41.637 E32.60615
G1 X-18.261 Y41.946 E32.63938
G1 X-18.808 Y42.32 E32.67244
G1 X-19.294 Y42.754 E32.70495
G1 X-19.668 Y43.186 E32.73345
G1 X-20.002 Y43.695 E32.76383
G1 X-20.242 Y44.228 E32.79299
G1 X-20.391 Y44.776 E32.82132
G1 X-20.448 Y45.286 E32.84693
G1 X-20.422 Y45.831 E32.87415
G1 X-20.308 Y46.368 E32.90153
G1 X-20.106 Y46.898 E32.92983
G1 X-19.825 Y47.395 E32.95832
G1 X-19.457 Y47.871 E32.98833
G1 X-19.002 Y48.318 E33.02015
G1 X-18.485 Y48.711 E33.05255
G1 X-17.907 Y49.049 E33.08596
G1 X-17.293 Y49.321 E33.11946
G1 X-16.598 Y49.54 E33.15582
G1 X-15.885 Y49.683 E33.1921
G1 X-15.148 Y49.753 E33.22903
G1 X-14.421 Y49.746 E33.2653
G1 X-14.042 Y49.714 E33.28428
G1 X27.706 Y45.041 E35.3801
G1 X28.308 Y45.02 E35.41016
G1 X28.95 Y45.091 E35.44238
G1 X29.559 Y45.255 E35.47385
G1 X30.138 Y45.514 E35.50549
G1 X30.656 Y45.86 E35.53657
G1 X31.081 Y46.274 E35.56617
G1 X31.419 Y46.757 E35.59558
G1 X31.647 Y47.308 E35.62533
G1 X31.745 Y47.893 E35.65492
G1 X31.706 Y48.479 E35.68422
G1 X31.539 Y49.028 E35.71285
G1 X31.296 Y49.45 E35.73715
G1 X31.146 Y49.599 E35.74769
G1 X30.919 Y49.74 E35.76103
G1 X30.458 Y49.849 E35.78466
G1 X30.022 Y49.785 E35.80665
G1 X29.56 Y49.541 E35.83271
G1 X29.289 Y49.297 E35.8509
G1 X29.166 Y49.117 E35.86178
G1 X29.09 Y48.678 E35.88401
G1 X29.139 Y48.371 E35.89952
G1 X29.243 Y48.049 E35.9164
G1 X29.171 Y47.753 E35.9316
G1 X28.886 Y47.463 E35.95188
G1 X28.519 Y47.304 E35.97184
G1 X28.266 Y47.263 E35.98463
G1 X27.939 Y47.271 E36.00094
G1 X-13.606 Y52.325 E38.08891
G1 X-14.538 Y52.394 E38.13554
G1 X-15.497 Y52.379 E38.18339
G1 X-16.004 Y52.336 E38.20877
G1 X-16.923 Y52.194 E38.25517
G1 X-17.839 Y51.964 E38.30229
G1 X-18.318 Y51.807 E38.32743
G1 X-19.152 Y51.463 E38.37244
G1 X-19.96 Y51.033 E38.41811
G1 X-20.698 Y50.535 E38.46252
G1 X-21.381 Y49.957 E38.50716
G1 X-21.974 Y49.325 E38.5504
G1 X-22.475 Y48.639 E38.59278
G1 X-22.881 Y47.904 E38.63467
G1 X-23.18 Y47.139 E38.67565
G1 X-23.368 Y46.36 E38.71563
G1 X-23.448 Y45.541 E38.75669
G1 X-23.41 Y44.731 E38.79714
G1 X-23.257 Y43.927 E38.83797
G1 X-22.992 Y43.146 E38.87912
G1 X-22.625 Y42.403 E38.92046
G1 X-22.152 Y41.697 E38.96286
G1 X-21.588 Y41.046 E39.00583
G1 X-20.94 Y40.453 E39.04965
G1 X-20.22 Y39.929 E39.09408
G1 X-19.437 Y39.476 E39.13921
G1 X-18.978 Y39.257 E39.16458
G1 X-18.135 Y38.929 E39.20971
G1 X-17.654 Y38.781 E39.23482
G1 X-16.759 Y38.575 E39.28064
G1 X-16.264 Y38.495 E39.30566
G1 X-15.344 Y38.411 E39.35175
G1 X-14.863 Y38.4 E39.37575
G1 X30.177 Y38.401 E41.6228
G1 X30.753 Y38.447 E41.65163
G1 X31.344 Y38.59 E41.68197
G1 X31.895 Y38.823 E41.71181
G1 X32.386 Y39.142 E41.74103
G1 X32.794 Y39.537 E41.76936
G1 X33.121 Y40.016 E41.79829
G1 X33.323 Y40.539 E41.82626
G1 X33.399 Y41.089 E41.85396
G1 X33.334 Y41.659 E41.88259
G1 X33.139 Y42.189 E41.91076
G1 X32.823 Y42.67 E41.93947
G1 X32.414 Y43.074 E41.96815
G1 X31.912 Y43.407 E41.99821
G1 X31.361 Y43.644 E42.02813
G1 X30.783 Y43.787 E42.05784
G1 X30.173 Y43.84 E42.08839
G1 X5.637 Y43.839 E43.31249
G1 X5.247 Y43.762 E43.33233
G1 X5.005 Y43.642 E43.3458
G1 X4.693 Y43.333 E43.36771
G1 X4.581 Y43.03 E43.38383
G0 F3600 X4.95 Y42.841
G1 F2400 X4.96 Y42.378 E43.40693
G1 X5.092 Y42.084 E43.42301
G1 X5.361 Y41.897 E43.43935
G1 X5.65 Y41.84 E43.45405
G1 X30.141 Y41.84 E44.67591
G1 X30.414 Y41.803 E44.68966
G1 X30.638 Y41.711 E44.70174
G1 X30.809 Y41.574 E44.71267
G1 X30.913 Y41.41 E44.72236
G1 X30.946 Y41.239 E44.73104
G1 X30.912 Y41.067 E44.73979
G1 X30.709 Y40.818 E44.75582
G1 X30.525 Y40.712 E44.76641
G1 X30.137 Y40.64 E44.7861
G1 X-14.86 Y40.64 E47.03101
G1 X-15.626 Y40.68 E47.06928
G1 X-16.364 Y40.795 E47.10654
G1 X-17.129 Y40.998 E47.14603
G1 X-17.611 Y41.177 E47.17168
G1 X-18.156 Y41.429 E47.20164
G1 X-18.764 Y41.794 E47.23702
G1 X-19.314 Y42.222 E47.27179
G1 X-19.799 Y42.712 E47.30618
G1 X-20.192 Y43.233 E47.33874
G1 X-20.492 Y43.784 E47.37004
G1 X-20.713 Y44.391 E47.40227
G1 X-20.826 Y44.981 E47.43224
G1 X-20.846 Y45.581 E47.46219
G1 X-20.771 Y46.172 E47.49191
G1 X-20.595 Y46.773 E47.52315
G1 X-20.326 Y47.343 E47.5546
G1 X-19.975 Y47.874 E47.58636
G1 X-19.528 Y48.379 E47.62
G1 X-19.017 Y48.821 E47.65371
G1 X-18.399 Y49.235 E47.69082
G1 X-17.762 Y49.56 E47.7265
G1 X-17.046 Y49.829 E47.76466
G1 X-16.294 Y50.02 E47.80337
G1 X-15.548 Y50.126 E47.84096
G1 X-14.775 Y50.159 E47.87956
G1 X-14.013 Y50.113 E47.91764
G1 X27.759 Y45.437 E50.01467
G1 X28.307 Y45.42 E50.04203
G1 X28.89 Y45.486 E50.0713
G1 X29.44 Y45.637 E50.09975
G1 X29.959 Y45.872 E50.12818
G1 X30.417 Y46.181 E50.15574
G1 X30.788 Y46.545 E50.18167
G1 X31.078 Y46.965 E50.20714
G1 X31.267 Y47.433 E50.23232
G1 X31.347 Y47.93 E50.25743
G1 X31.306 Y48.447 E50.2833
G1 X31.157 Y48.906 E50.30738
G1 X31.014 Y49.166 E50.32218
G1 X30.788 Y49.362 E50.33711
G1 X30.486 Y49.45 E50.3528
G1 X30.178 Y49.417 E50.36826
G1 X29.723 Y49.166 E50.39418
G1 X29.573 Y49.015 E50.4048
G1 X29.516 Y48.895 E50.41143
G1 X29.504 Y48.533 E50.4295
G1 X29.59 Y48.339 E50.44009
G1 X29.646 Y48.069 E50.45384
G1 X29.625 Y47.812 E50.46671
G1 X29.524 Y47.556 E50.48044
G1 X29.35 Y47.326 E50.49483
G1 X29.101 Y47.122 E50.51089
G1 X28.623 Y46.917 E50.53683
G1 X28.281 Y46.862 E50.55412
G1 X27.913 Y46.872 E50.57248
G1 X-13.645 Y51.927 E52.6611
G1 X-14.559 Y51.995 E52.70683
G1 X-15.48 Y51.98 E52.75278
G1 X-16.4 Y51.88 E52.79895
G1 X-17.287 Y51.702 E52.84409
G1 X-18.165 Y51.437 E52.88984
G1 X-18.991 Y51.097 E52.9344
G1 X-19.763 Y50.685 E52.97806
G1 X-20.465 Y50.21 E53.02035
G1 X-21.114 Y49.66 E53.06279
G1 X-21.673 Y49.062 E53.10363
G1 X-22.144 Y48.414 E53.1436
G1 X-22.523 Y47.725 E53.18283
G1 X-22.802 Y47.008 E53.22121
G1 X-22.976 Y46.281 E53.25851
G1 X-23.049 Y45.518 E53.29675
G1 X-23.011 Y44.765 E53.33436
G1 X-22.868 Y44.018 E53.37231
G1 X-22.619 Y43.289 E53.41074
G1 X-22.273 Y42.593 E53.44952
G1 X-21.827 Y41.931 E53.48934
G1 X-21.294 Y41.317 E53.5299
G1 X-20.679 Y40.756 E53.57143
G1 X-19.993 Y40.258 E53.61373
G1 X-19.246 Y39.827 E53.65675
G1 X-18.423 Y39.459 E53.70173
G1 X-17.566 Y39.172 E53.74682
G1 X-16.677 Y38.966 E53.79235
G1 X-15.761 Y38.841 E53.83847
G1 X-14.854 Y38.8 E53.88377
G1 X30.16 Y38.8 E56.12953
G1 X30.704 Y38.844 E56.15675
G1 X31.232 Y38.974 E56.18388
G1 X31.722 Y39.184 E56.21048
G1 X32.151 Y39.466 E56.23609
