;FLAVOR:Marlin
;TIME:4999
;Filament used: 7.20319m
;Layer height: 0.12
;MINX:-66.8
;MINY:-44.8
;MINZ:0.3
;MAXX:66.8
;MAXY:44.8
;MAXZ:9.6
;Generated with Cura_SteamEngine 4.12.1
M140 S40
M105
M190 S40
M104 S210
M105
M109 S210
M82 ;absolute extrusion mode
;FLAVOR:Marlin
M82 ;absolute extrusion mode
G21
G90
M82
M107 T0
G28
G92 E0
G0 E3 F200
G92 E0 ; reset extrusion distance
M106 S255 ; Enable cooling fan full speed
G1 X-98 Y0 Z0.4 F3000 ; move to arc start
G3 X0 Y-98 I98 Z0.4 E40 F400 ; lay arc stripe 90deg
G92 E0 ; reset extrusion distance
G4 P500 ; wait for 0.5 sec
G0 Z10 E-1 ; Lift 15mm and retract 1mm filament
G4 P2000 ; wait for 5 sec
G0 Z15
M107 ; Disable cooling fan
G1 X0 Y-85 Z4 E0 F3000 ; get off the bed
G92 E0
G92 E0
G1 F1500 E-6.5
;LAYER_COUNT:42
;LAYER:0
M107
G1 F600 Z1.3
G0 F3600 X-59.12 Y-44.8 Z1.3
;TYPE:SKIRT
G1 F600 Z0.3
G1 F1500 E0
G1 F2100 X59.333 Y-44.8 E5.90964
G1 X59.914 Y-44.79 E5.93863
G1 X60.568 Y-44.76 E5.9713
G1 X61.248 Y-44.67 E6.00552
G1 X61.863 Y-44.529 E6.037
G1 X62.487 Y-44.316 E6.06989
G1 X63.273 Y-43.946 E6.11323
G1 X63.725 Y-43.674 E6.13955
G1 X64.199 Y-43.334 E6.16865
G1 X64.689 Y-42.907 E6.20108
G1 X65.071 Y-42.509 E6.2286
G1 X65.439 Y-42.063 E6.25745
G1 X65.812 Y-41.505 E6.29094
G1 X66.056 Y-41.061 E6.31621
G1 X66.313 Y-40.501 E6.34695
G1 X66.519 Y-39.894 E6.37893
G1 X66.645 Y-39.384 E6.40514
G1 X66.746 Y-38.752 E6.43707
G1 X66.777 Y-38.295 E6.45992
G1 X66.8 Y-37.093 E6.5199
G1 X66.8 Y37.333 E10.23303
G1 X66.79 Y37.914 E10.26202
G1 X66.76 Y38.568 E10.29468
G1 X66.671 Y39.247 E10.32885
G1 X66.531 Y39.855 E10.35998
G1 X66.332 Y40.447 E10.39114
G1 X66.119 Y40.935 E10.4177
G1 X65.834 Y41.471 E10.44799
G1 X65.468 Y42.021 E10.48095
G1 X65.134 Y42.436 E10.50752
G1 X64.734 Y42.864 E10.53675
G1 X64.254 Y43.29 E10.56877
G1 X63.817 Y43.611 E10.59582
G1 X63.309 Y43.928 E10.62569
G1 X62.71 Y44.223 E10.65901
G1 X61.887 Y44.521 E10.70267
G1 X61.369 Y44.647 E10.72927
G1 X60.71 Y44.75 E10.76255
G1 X60.261 Y44.78 E10.785
G1 X59.157 Y44.8 E10.84009
G1 X-59.333 Y44.8 E16.75158
G1 X-59.914 Y44.79 E16.78057
G1 X-60.568 Y44.76 E16.81323
G1 X-61.248 Y44.67 E16.84745
G1 X-61.863 Y44.529 E16.87893
G1 X-62.487 Y44.316 E16.91182
G1 X-63.275 Y43.946 E16.95526
G1 X-63.729 Y43.671 E16.98174
G1 X-64.212 Y43.323 E17.01144
G1 X-64.689 Y42.907 E17.04301
G1 X-65.07 Y42.51 E17.07047
G1 X-65.442 Y42.059 E17.09963
G1 X-65.812 Y41.505 E17.13287
G1 X-66.056 Y41.061 E17.15814
G1 X-66.316 Y40.493 E17.18931
G1 X-66.521 Y39.887 E17.22123
G1 X-66.645 Y39.383 E17.24712
G1 X-66.748 Y38.73 E17.2801
G1 X-66.779 Y38.263 E17.30345
G1 X-66.8 Y37.12 E17.36049
G1 X-66.8 Y-37.333 E21.07496
G1 X-66.79 Y-37.914 E21.10395
G1 X-66.76 Y-38.568 E21.13661
G1 X-66.671 Y-39.245 E21.17068
G1 X-66.529 Y-39.861 E21.20222
G1 X-66.332 Y-40.447 E21.23306
G1 X-66.119 Y-40.935 E21.25963
G1 X-65.842 Y-41.459 E21.2892
G1 X-65.462 Y-42.029 E21.32337
G1 X-65.128 Y-42.444 E21.34995
G1 X-64.734 Y-42.864 E21.37868
G1 X-64.253 Y-43.29 E21.41074
G1 X-63.816 Y-43.612 E21.43782
G1 X-63.392 Y-43.87 E21.46258
G1 X-62.814 Y-44.171 E21.49509
G1 X-62.239 Y-44.407 E21.5261
G1 X-61.654 Y-44.585 E21.55661
G1 X-61.028 Y-44.71 E21.58846
G1 X-60.456 Y-44.77 E21.61715
G1 X-60.281 Y-44.779 E21.62589
G1 X-59.652 Y-44.791 E21.65728
G0 F1890 X-59.12 Y-44.8
G0 F3600 X-59.112 Y-44.4
G1 F2100 X59.327 Y-44.4 E27.56623
G1 X59.896 Y-44.39 E27.59462
G1 X60.55 Y-44.36 E27.62728
G1 X61.165 Y-44.279 E27.65823
G1 X61.745 Y-44.147 E27.6879
G1 X62.353 Y-43.939 E27.71996
G1 X63.09 Y-43.59 E27.76065
G1 X63.783 Y-43.147 E27.80168
G1 X64.421 Y-42.61 E27.84329
G1 X64.767 Y-42.249 E27.86823
G1 X65.114 Y-41.83 E27.89537
G1 X65.476 Y-41.289 E27.92785
G1 X65.863 Y-40.536 E27.97009
G1 X66.138 Y-39.771 E28.01065
G1 X66.315 Y-38.964 E28.05186
G1 X66.37 Y-38.432 E28.07855
G1 X66.378 Y-38.287 E28.08579
G1 X66.4 Y-37.139 E28.14308
G1 X66.4 Y37.327 E31.8582
G1 X66.39 Y37.896 E31.88659
G1 X66.36 Y38.55 E31.91925
G1 X66.279 Y39.164 E31.95015
G1 X66.149 Y39.738 E31.97951
G1 X65.955 Y40.314 E32.00984
G1 X65.59 Y41.09 E32.05262
G1 X65.139 Y41.793 E32.09429
G1 X64.605 Y42.425 E32.13557
G1 X63.993 Y42.986 E32.17699
G1 X63.289 Y43.476 E32.21978
G1 X62.538 Y43.862 E32.26191
G1 X61.764 Y44.14 E32.30294
G1 X60.907 Y44.322 E32.34665
G1 X60.397 Y44.373 E32.37222
G1 X60.253 Y44.38 E32.37941
G1 X59.149 Y44.4 E32.4345
G1 X-59.327 Y44.4 E38.34529
G1 X-59.896 Y44.39 E38.37368
G1 X-60.55 Y44.36 E38.40635
G1 X-61.165 Y44.279 E38.43729
G1 X-61.745 Y44.147 E38.46697
G1 X-62.353 Y43.939 E38.49903
G1 X-63.092 Y43.589 E38.53982
G1 X-63.796 Y43.138 E38.58154
G1 X-64.421 Y42.61 E38.62235
G1 X-64.99 Y41.988 E38.66441
G1 X-65.476 Y41.289 E38.70689
G1 X-65.863 Y40.536 E38.74912
G1 X-66.14 Y39.764 E38.79004
G1 X-66.316 Y38.958 E38.8312
G1 X-66.372 Y38.389 E38.85973
G1 X-66.379 Y38.256 E38.86637
G1 X-66.4 Y37.113 E38.92341
G1 X-66.4 Y-37.327 E42.63723
G1 X-66.39 Y-37.896 E42.66563
G1 X-66.36 Y-38.55 E42.69829
G1 X-66.28 Y-39.163 E42.72913
G1 X-66.147 Y-39.743 E42.75882
G1 X-65.955 Y-40.314 E42.78887
G1 X-65.59 Y-41.09 E42.83166
G1 X-65.134 Y-41.8 E42.87375
G1 X-64.604 Y-42.427 E42.91471
G1 X-63.992 Y-42.987 E42.9561
G1 X-63.398 Y-43.405 E42.99234
G1 X-63.208 Y-43.516 E43.00331
G1 X-62.63 Y-43.817 E43.03583
G1 X-62.115 Y-44.026 E43.06356
G1 X-61.565 Y-44.196 E43.09228
G1 X-60.957 Y-44.316 E43.12319
G1 X-60.424 Y-44.371 E43.14993
G1 X-60.273 Y-44.379 E43.15747
G1 X-59.644 Y-44.391 E43.18886
G0 F1890 X-59.112 Y-44.4
G0 F3600 X-59.105 Y-44
G1 F2100 X59.321 Y-44 E49.09715
G1 X59.878 Y-43.991 E49.12495
G1 X60.532 Y-43.961 E49.15761
G1 X61.083 Y-43.888 E49.18534
G1 X61.627 Y-43.764 E49.21318
G1 X62.218 Y-43.562 E49.24434
G1 X62.908 Y-43.234 E49.28245
G1 X63.555 Y-42.818 E49.32083
G1 X64.153 Y-42.312 E49.35991
G1 X64.686 Y-41.728 E49.39935
G1 X65.139 Y-41.072 E49.43913
G1 X65.502 Y-40.364 E49.47882
G1 X65.758 Y-39.648 E49.51676
G1 X65.922 Y-38.892 E49.55535
G1 X65.978 Y-38.279 E49.58606
G1 X66 Y-37.131 E49.64335
G1 X66 Y37.321 E53.35777
G1 X65.991 Y37.878 E53.38556
G1 X65.961 Y38.532 E53.41823
G1 X65.888 Y39.082 E53.44591
G1 X65.766 Y39.62 E53.47343
G1 X65.577 Y40.181 E53.50296
G1 X65.234 Y40.908 E53.54307
G1 X64.81 Y41.566 E53.58212
G1 X64.309 Y42.157 E53.62077
G1 X63.733 Y42.682 E53.65966
G1 X63.072 Y43.139 E53.69975
G1 X62.366 Y43.501 E53.73933
G1 X61.642 Y43.759 E53.77768
G1 X60.838 Y43.928 E53.81867
G1 X60.246 Y43.98 E53.84831
G1 X59.142 Y44 E53.9034
G1 X-59.321 Y44 E59.81355
G1 X-59.878 Y43.991 E59.84134
G1 X-60.532 Y43.961 E59.874
G1 X-61.083 Y43.888 E59.90173
G1 X-61.627 Y43.764 E59.92957
G1 X-62.218 Y43.562 E59.96073
G1 X-62.91 Y43.233 E59.99895
G1 X-63.567 Y42.809 E60.03796
G1 X-64.154 Y42.312 E60.07634
G1 X-64.686 Y41.728 E60.11575
G1 X-65.139 Y41.072 E60.15552
G1 X-65.502 Y40.364 E60.19522
G1 X-65.759 Y39.642 E60.23345
G1 X-65.923 Y38.885 E60.27209
G1 X-65.974 Y38.36 E60.29841
G1 X-65.979 Y38.249 E60.30395
G1 X-66 Y37.106 E60.36099
G1 X-66 Y-37.321 E64.07417
G1 X-65.991 Y-37.878 E64.10196
G1 X-65.961 Y-38.532 E64.13462
G1 X-65.888 Y-39.081 E64.16225
G1 X-65.765 Y-39.625 E64.19008
G1 X-65.577 Y-40.181 E64.21936
G1 X-65.234 Y-40.908 E64.25946
G1 X-64.806 Y-41.572 E64.29888
G1 X-64.307 Y-42.159 E64.33731
G1 X-63.732 Y-42.683 E64.37612
G1 X-63.181 Y-43.069 E64.40969
G1 X-63.023 Y-43.161 E64.41881
G1 X-62.445 Y-43.462 E64.45132
G1 X-61.651 Y-43.757 E64.49358
G1 X-60.885 Y-43.923 E64.53268
G1 X-60.266 Y-43.979 E64.56369
G1 X-59.637 Y-43.991 E64.59508
G0 F1890 X-59.105 Y-44
G0 F3600 X-59.098 Y-43.6
G1 F2100 X59.316 Y-43.6 E70.50278
G1 X59.859 Y-43.591 E70.52987
G1 X60.513 Y-43.561 E70.56253
G1 X61.369 Y-43.418 E70.60583
G1 X62.083 Y-43.186 E70.64329
G1 X62.726 Y-42.878 E70.67886
G1 X63.328 Y-42.49 E70.71459
G1 X63.885 Y-42.015 E70.75111
G1 X64.381 Y-41.468 E70.78795
G1 X64.803 Y-40.856 E70.82504
G1 X65.141 Y-40.193 E70.86216
G1 X65.377 Y-39.526 E70.89746
G1 X65.528 Y-38.819 E70.93353
G1 X65.578 Y-38.272 E70.96093
G1 X65.6 Y-37.124 E71.01822
G1 X65.6 Y37.316 E74.73204
G1 X65.591 Y37.859 E74.75914
G1 X65.561 Y38.513 E74.7918
G1 X65.42 Y39.364 E74.83484
G1 X65.2 Y40.048 E74.87068
G1 X64.878 Y40.726 E74.90813
G1 X64.481 Y41.338 E74.94452
G1 X64.012 Y41.889 E74.98062
G1 X63.473 Y42.378 E75.01693
G1 X62.856 Y42.803 E75.05431
G1 X62.194 Y43.14 E75.09137
G1 X61.519 Y43.378 E75.12708
G1 X60.769 Y43.534 E75.1653
G1 X60.239 Y43.58 E75.19184
G1 X59.135 Y43.6 E75.24693
G1 X-59.316 Y43.6 E81.15647
G1 X-59.859 Y43.591 E81.18356
G1 X-60.513 Y43.561 E81.21623
G1 X-61.369 Y43.418 E81.25952
G1 X-62.083 Y43.186 E81.29698
G1 X-62.728 Y42.877 E81.33266
G1 X-63.339 Y42.481 E81.36899
G1 X-63.887 Y42.015 E81.40487
G1 X-64.382 Y41.468 E81.44168
G1 X-64.803 Y40.856 E81.47874
G1 X-65.141 Y40.193 E81.51587
G1 X-65.378 Y39.519 E81.55151
G1 X-65.53 Y38.813 E81.58754
G1 X-65.579 Y38.241 E81.61618
G1 X-65.6 Y37.098 E81.67322
G1 X-65.6 Y-37.316 E85.38575
G1 X-65.591 Y-37.859 E85.41284
G1 X-65.561 Y-38.513 E85.4455
G1 X-65.42 Y-39.364 E85.48854
G1 X-65.2 Y-40.048 E85.52438
G1 X-64.878 Y-40.726 E85.56183
G1 X-64.478 Y-41.343 E85.59852
G1 X-64.01 Y-41.89 E85.63443
G1 X-63.472 Y-42.379 E85.6707
G1 X-62.965 Y-42.732 E85.70152
G1 X-62.838 Y-42.806 E85.70886
G1 X-62.26 Y-43.107 E85.74137
G1 X-61.527 Y-43.377 E85.78034
G1 X-60.813 Y-43.529 E85.81676
G1 X-60.259 Y-43.579 E85.84451
G1 X-59.63 Y-43.591 E85.8759
G0 F1890 X-59.098 Y-43.6
G0 F3600 X-59.091 Y-43.2
G1 F2100 X59.31 Y-43.2 E91.78295
G1 X59.841 Y-43.192 E91.80944
G1 X60.495 Y-43.162 E91.84211
G1 X61.286 Y-43.027 E91.88214
G1 X61.949 Y-42.809 E91.91696
G1 X62.544 Y-42.522 E91.94992
G1 X63.1 Y-42.161 E91.98299
G1 X63.618 Y-41.718 E92.01699
G1 X64.077 Y-41.209 E92.05119
G1 X64.467 Y-40.639 E92.08565
G1 X64.78 Y-40.021 E92.12021
G1 X64.996 Y-39.403 E92.15287
G1 X65.135 Y-38.747 E92.18632
G1 X65.178 Y-38.264 E92.21051
G1 X65.2 Y-37.116 E92.2678
G1 X65.2 Y37.31 E95.98093
G1 X65.192 Y37.841 E96.00742
G1 X65.162 Y38.495 E96.04008
G1 X65.028 Y39.282 E96.07991
G1 X64.823 Y39.915 E96.11311
G1 X64.522 Y40.544 E96.1479
G1 X64.153 Y41.11 E96.18161
G1 X63.715 Y41.621 E96.21518
G1 X63.213 Y42.074 E96.24892
G1 X62.639 Y42.467 E96.28362
G1 X62.023 Y42.779 E96.31807
G1 X61.397 Y42.997 E96.35114
G1 X60.7 Y43.14 E96.38664
G1 X60.232 Y43.18 E96.41008
G1 X59.128 Y43.2 E96.46516
G1 X-59.31 Y43.2 E102.37406
G1 X-59.841 Y43.192 E102.40055
G1 X-60.495 Y43.162 E102.43322
G1 X-61.286 Y43.027 E102.47325
G1 X-61.949 Y42.809 E102.50807
G1 X-62.546 Y42.521 E102.54114
G1 X-63.111 Y42.152 E102.57481
G1 X-63.619 Y41.717 E102.60817
G1 X-64.078 Y41.208 E102.64237
G1 X-64.467 Y40.639 E102.67675
G1 X-64.78 Y40.021 E102.71132
G1 X-64.997 Y39.397 E102.74428
G1 X-65.136 Y38.74 E102.77778
G1 X-65.179 Y38.234 E102.80311
G1 X-65.2 Y37.091 E102.86015
G1 X-65.2 Y-37.31 E106.57203
G1 X-65.192 Y-37.841 E106.59852
G1 X-65.162 Y-38.495 E106.63119
G1 X-65.028 Y-39.282 E106.67102
G1 X-64.823 Y-39.915 E106.70421
G1 X-64.522 Y-40.544 E106.739
G1 X-64.149 Y-41.114 E106.77299
G1 X-63.714 Y-41.622 E106.80635
G1 X-63.211 Y-42.076 E106.84016
G1 X-62.748 Y-42.396 E106.86824
G1 X-62.653 Y-42.451 E106.87371
G1 X-62.075 Y-42.752 E106.90622
G1 X-61.402 Y-42.997 E106.94196
G1 X-60.741 Y-43.136 E106.97566
G1 X-60.252 Y-43.179 E107.00015
G1 X-59.623 Y-43.191 E107.03153
G0 F1890 X-59.091 Y-43.2
G1 F1500 E100.53153
G1 F600 Z1.3
;MESH:Pi_Case_5inch_screen-Top_v3-MicroSD_Slot.stl
G0 F3600 X56.031 Y33.042 Z1.3
;TYPE:WALL-INNER
G1 F600 Z0.3
G1 F1500 E107.03153
G1 F2100 X56.031 Y-35.988 E110.47545
G1 X-57.002 Y-36.03 E116.11469
G1 X-57.002 Y33 E119.55861
G1 X55.499 Y33.042 E125.17131
G0 F1890 X56.031 Y33.042
G0 F3600 X55.631 Y32.642
G1 F2100 X55.631 Y-35.588 E128.57532
G1 X-56.602 Y-35.63 E134.17465
G1 X-56.602 Y32.6 E137.57866
G1 X55.099 Y32.642 E143.15144
G0 F1890 X55.631 Y32.642
G0 F3600 X55.231 Y32.242
;TYPE:WALL-OUTER
G1 F2100 X55.231 Y-35.188 E146.51554
G1 X-56.202 Y-35.23 E152.07495
G1 X-56.202 Y32.2 E155.43905
G1 X54.699 Y32.242 E160.97192
G0 F1890 X55.231 Y32.242
G0 F3600 X55.231 Y32.042
G0 X55.671 Y32.042
G0 X55.731 Y32.042
G0 X62.973 Y-38.398
;TYPE:WALL-INNER
G1 F2100 X63 Y-37.968 E160.99342
G1 X63 Y37.968 E164.78188
G1 X62.973 Y38.398 E164.80338
G1 X62.898 Y38.771 E164.82236
G1 X62.771 Y39.144 E164.84202
G1 X62.592 Y39.506 E164.86216
G1 X62.379 Y39.826 E164.88134
G1 X61.826 Y40.379 E164.92036
G1 X61.506 Y40.592 E164.93954
G1 X61.142 Y40.772 E164.9598
G1 X60.784 Y40.892 E164.97863
G1 X60.373 Y40.973 E164.99953
G1 X59.965 Y41 E165.01993
G1 X-59.968 Y41 E171.00341
G1 X-60.398 Y40.973 E171.02491
G1 X-60.771 Y40.898 E171.04389
G1 X-61.144 Y40.771 E171.06355
G1 X-61.506 Y40.592 E171.0837
G1 X-61.826 Y40.379 E171.10287
G1 X-62.379 Y39.826 E171.14189
G1 X-62.592 Y39.506 E171.16107
G1 X-62.771 Y39.144 E171.18122
G1 X-62.898 Y38.771 E171.20088
G1 X-62.973 Y38.398 E171.21986
G1 X-63 Y37.968 E171.24135
G1 X-63 Y-37.968 E175.02981
G1 X-62.973 Y-38.398 E175.05131
G1 X-62.898 Y-38.771 E175.07029
G1 X-62.771 Y-39.144 E175.08995
G1 X-62.592 Y-39.506 E175.1101
G1 X-62.381 Y-39.822 E175.12905
G1 X-61.827 Y-40.374 E175.16807
G1 X-61.482 Y-40.604 E175.18876
G1 X-61.144 Y-40.771 E175.20757
G1 X-60.771 Y-40.898 E175.22722
G1 X-60.398 Y-40.973 E175.24621
G1 X-59.968 Y-41 E175.2677
G1 X59.968 Y-41 E181.25133
G1 X60.398 Y-40.973 E181.27283
G1 X60.771 Y-40.898 E181.29181
G1 X61.144 Y-40.771 E181.31147
G1 X61.504 Y-40.593 E181.3315
G1 X61.826 Y-40.378 E181.35082
G1 X62.12 Y-40.12 E181.37033
G1 X62.379 Y-39.826 E181.38988
G1 X62.592 Y-39.506 E181.40906
G1 X62.771 Y-39.144 E181.42921
G1 X62.85 Y-38.914 E181.44134
G0 F1890 X62.898 Y-38.771
G0 X62.973 Y-38.398
G0 F3600 X63.37 Y-38.449
G1 F2100 X63.4 Y-37.977 E181.46494
G1 X63.4 Y37.977 E185.2543
G1 X63.37 Y38.449 E185.27789
G1 X63.284 Y38.88 E185.29982
G1 X63.142 Y39.297 E185.3218
G1 X62.94 Y39.706 E185.34455
G1 X62.699 Y40.067 E185.36621
G1 X62.403 Y40.403 E185.38855
G1 X62.067 Y40.699 E185.41089
G1 X61.706 Y40.94 E185.43254
G1 X61.297 Y41.142 E185.4553
G1 X60.884 Y41.281 E185.47704
G1 X60.43 Y41.37 E185.50012
G1 X59.976 Y41.4 E185.52282
G1 X-59.977 Y41.4 E191.5073
G1 X-60.449 Y41.37 E191.5309
G1 X-60.88 Y41.284 E191.55282
G1 X-61.297 Y41.142 E191.5748
G1 X-61.706 Y40.94 E191.59756
G1 X-62.067 Y40.699 E191.61922
G1 X-62.403 Y40.403 E191.64156
G1 X-62.699 Y40.067 E191.6639
G1 X-62.94 Y39.706 E191.68555
G1 X-63.142 Y39.297 E191.70831
G1 X-63.284 Y38.88 E191.73029
G1 X-63.37 Y38.449 E191.75221
G1 X-63.4 Y37.977 E191.77581
G1 X-63.4 Y-37.977 E195.56517
G1 X-63.37 Y-38.449 E195.58876
G1 X-63.284 Y-38.88 E195.61069
G1 X-63.142 Y-39.297 E195.63267
G1 X-62.94 Y-39.706 E195.65543
G1 X-62.699 Y-40.067 E195.67708
G1 X-62.407 Y-40.398 E195.6991
G1 X-62.072 Y-40.692 E195.72134
G1 X-61.682 Y-40.952 E195.74472
G1 X-61.297 Y-41.142 E195.76614
G1 X-60.88 Y-41.284 E195.78812
G1 X-60.449 Y-41.37 E195.81005
G1 X-59.977 Y-41.4 E195.83364
G1 X59.977 Y-41.4 E201.81817
G1 X60.449 Y-41.37 E201.84177
G1 X60.88 Y-41.284 E201.86369
G1 X61.297 Y-41.142 E201.88567
G1 X61.704 Y-40.941 E201.90832
G1 X62.067 Y-40.699 E201.93008
G1 X62.403 Y-40.403 E201.95242
G1 X62.699 Y-40.067 E201.97476
G1 X62.94 Y-39.706 E201.99642
G1 X63.142 Y-39.297 E202.01918
G1 X63.254 Y-38.968 E202.03652
G0 F1890 X63.284 Y-38.88
G0 X63.37 Y-38.449
G0 F3600 X63.767 Y-38.5
;TYPE:WALL-OUTER
G1 F2100 X63.8 Y-37.987 E202.06216
G1 X63.8 Y37.987 E205.85252
G1 X63.767 Y38.5 E205.87817
G1 X63.67 Y38.986 E205.90289
G1 X63.512 Y39.452 E205.92744
G1 X63.29 Y39.901 E205.95243
G1 X63.015 Y40.312 E205.9771
G1 X62.686 Y40.686 E206.00195
G1 X62.312 Y41.015 E206.0268
G1 X61.901 Y41.29 E206.05148
G1 X61.452 Y41.512 E206.07646
G1 X60.984 Y41.67 E206.10111
