;FLAVOR:Marlin
;TIME:3439
;Filament used: 5.90859m
;Layer height: 0.24
;MINX:-31
;MINY:-20.65
;MINZ:0.3
;MAXX:41
;MAXY:24.9
;MAXZ:20.98
;Generated with Cura_SteamEngine 4.13.1
M140 S50
M105
M190 S50
M104 S210
M105
M109 S210
M82 ;absolute extrusion mode
;FLAVOR:Marlin
M82 ;absolute extrusion mode
G21
G90
M82
M107 T0
G28
G92 E0
G0 E3 F200
G92 E0 ; reset extrusion distance
M106 S255 ; Enable cooling fan full speed
G1 X-98 Y0 Z0.4 F3000 ; move to arc start
G3 X0 Y-98 I98 Z0.4 E40 F400 ; lay arc stripe 90deg
G92 E0 ; reset extrusion distance
G4 P500 ; wait for 0.5 sec
G0 Z10 E-1 ; Lift 15mm and retract 1mm filament
G4 P2000 ; wait for 5 sec
G0 Z15
M107 ; Disable cooling fan
G1 X0 Y-85 Z4 E0 F3000 ; get off the bed
G92 E0
G92 E0
G1 F1500 E-6.5
;LAYER_COUNT:84
;LAYER:0
M106 S25.5
G1 F600 Z1.3
G0 F3600 X-3.918 Y-16.468 Z1.3
;TYPE:SKIRT
G1 F600 Z0.3
G1 F1500 E0.3326
G1 F2700 X-5.146 Y-16.151 E0.39587
G1 X-5.669 Y-16.108 E0.42206
G1 X-5.811 Y-16.1 E0.42915
G1 X-6.979 Y-16.1 E0.48742
G1 X-6.749 Y-16.152 E0.49919
G1 X-4.021 Y-16.854 E0.63972
G1 X-1.578 Y-17.559 E0.76658
G1 X-1.144 Y-17.668 E0.7889
G1 X-.692 Y-17.72 E0.8116
G1 X-0.033 Y-17.73 E0.84448
G1 X9.994 Y-17.73 E1.34473
G1 X10.677 Y-17.72 E1.37881
G1 X11.079 Y-17.682 E1.39896
G1 X11.555 Y-17.564 E1.42342
G1 X13.8 Y-16.911 E1.54007
G1 X16.527 Y-16.204 E1.68062
G1 X16.983 Y-16.1 E1.70395
G1 X15.907 Y-16.1 E1.75763
G1 X15.337 Y-16.143 E1.78615
G1 X15.127 Y-16.154 E1.79664
G1 X13.718 Y-16.519 E1.86926
G1 X11.481 Y-17.171 E1.98551
G1 X11.004 Y-17.285 E2.00997
G1 X10.658 Y-17.322 E2.02733
G1 X9.979 Y-17.33 E2.06121
G1 X-0.016 Y-17.33 E2.55986
G1 X-.705 Y-17.322 E2.59424
G1 X-1.437 Y-17.183 E2.63141
G1 X-3.918 Y-16.468 E2.76023
G0 F3600 X-3.812 Y-16.082
G1 F2700 X-5.083 Y-15.754 E2.82572
G1 X-5.628 Y-15.71 E2.85299
G1 X-5.807 Y-15.7 E2.86194
G1 X-10.712 Y-15.7 E3.10665
G1 X-9.578 Y-15.923 E3.16431
G1 X-6.843 Y-16.541 E3.3042
G1 X-4.126 Y-17.24 E3.44416
G1 X-1.676 Y-17.947 E3.57138
G1 X-1.219 Y-18.062 E3.59489
G1 X-.712 Y-18.12 E3.62035
G1 X-0.039 Y-18.13 E3.65393
G1 X10 Y-18.13 E4.15478
G1 X10.696 Y-18.12 E4.18951
G1 X11.146 Y-18.077 E4.21206
G1 X11.667 Y-17.948 E4.23884
G1 X13.906 Y-17.297 E4.35517
G1 X16.622 Y-16.593 E4.49515
G1 X19.357 Y-15.969 E4.6351
G1 X20.713 Y-15.7 E4.70407
G1 X15.89 Y-15.7 E4.94469
G1 X15.312 Y-15.744 E4.97361
G1 X15.07 Y-15.756 E4.9857
G1 X13.606 Y-16.135 E5.06115
G1 X11.378 Y-16.784 E5.17692
G1 X10.634 Y-16.922 E5.21468
G1 X9.977 Y-16.93 E5.24746
G1 X-0.014 Y-16.93 E5.74591
G1 X-.677 Y-16.922 E5.77899
G1 X-1.332 Y-16.797 E5.81226
G1 X-3.812 Y-16.082 E5.94102
G0 F3600 X-3.706 Y-15.696
G1 F2700 X-5.02 Y-15.357 E6.00873
G1 X-5.587 Y-15.312 E6.0371
G1 X-5.803 Y-15.3 E6.0479
G1 X-15.277 Y-15.3 E6.52056
G1 X-15.16 Y-15.316 E6.52645
G1 X-12.405 Y-15.775 E6.66579
G1 X-9.661 Y-16.314 E6.8053
G1 X-6.937 Y-16.93 E6.94464
G1 X-4.231 Y-17.626 E7.08403
G1 X-1.774 Y-18.335 E7.21162
G1 X-1.294 Y-18.456 E7.23631
G1 X-.718 Y-18.52 E7.26523
G1 X-0.045 Y-18.53 E7.2988
G1 X10.006 Y-18.53 E7.80025
G1 X10.716 Y-18.52 E7.83568
G1 X11.212 Y-18.472 E7.86054
G1 X11.779 Y-18.332 E7.88968
G1 X14.012 Y-17.683 E8.00569
G1 X16.717 Y-16.982 E8.1451
G1 X19.44 Y-16.36 E8.28445
G1 X22.182 Y-15.816 E8.42392
G1 X24.937 Y-15.351 E8.56331
G1 X25.304 Y-15.3 E8.58179
G1 X15.872 Y-15.3 E9.05236
G1 X15.287 Y-15.345 E9.08163
G1 X15.013 Y-15.358 E9.09532
G1 X13.494 Y-15.751 E9.17359
G1 X11.275 Y-16.397 E9.2889
G1 X10.611 Y-16.522 E9.32261
G1 X9.974 Y-16.53 E9.35439
G1 X-0.011 Y-16.53 E9.85254
G1 X-.649 Y-16.522 E9.88437
G1 X-1.227 Y-16.411 E9.91374
G1 X-3.706 Y-15.696 E10.04246
G0 F3600 X-3.6 Y-15.31
G1 F2700 X-4.967 Y-14.958 E10.11288
G1 X-5.546 Y-14.914 E10.14185
G1 X-5.799 Y-14.9 E10.15449
G1 X-22.495 Y-14.9 E10.98746
G1 X-20.744 Y-15.037 E11.07508
G1 X-17.977 Y-15.335 E11.21393
G1 X-15.22 Y-15.712 E11.35276
G1 X-12.476 Y-16.169 E11.49154
G1 X-9.744 Y-16.705 E11.63044
G1 X-7.031 Y-17.319 E11.76921
G1 X-4.336 Y-18.012 E11.90804
G1 X-1.872 Y-18.723 E12.03599
G1 X-1.369 Y-18.85 E12.06187
G1 X-.841 Y-18.915 E12.08841
G1 X-.737 Y-18.92 E12.0936
G1 X-0.051 Y-18.93 E12.12783
G1 X10.012 Y-18.93 E12.62988
G1 X10.737 Y-18.92 E12.66605
G1 X11.278 Y-18.867 E12.69317
G1 X11.891 Y-18.716 E12.72467
G1 X14.118 Y-18.069 E12.84037
G1 X16.812 Y-17.371 E12.97921
G1 X19.524 Y-16.751 E13.118
G1 X22.254 Y-16.209 E13.25686
G1 X24.998 Y-15.746 E13.3957
G1 X27.755 Y-15.363 E13.53456
G1 X30.52 Y-15.059 E13.67334
G1 X32.489 Y-14.9 E13.77189
G1 X15.854 Y-14.9 E14.60182
G1 X15.263 Y-14.946 E14.63139
G1 X14.961 Y-14.958 E14.64647
G1 X13.382 Y-15.367 E14.72785
G1 X11.172 Y-16.01 E14.84268
G1 X10.588 Y-16.122 E14.87234
G1 X9.971 Y-16.13 E14.90313
G1 X-0.008 Y-16.13 E15.40098
G1 X-.621 Y-16.122 E15.43157
G1 X-1.123 Y-16.025 E15.45708
G1 X-3.6 Y-15.31 E15.5857
G0 F3600 X-3.494 Y-14.924
G1 F2700 X-4.918 Y-14.558 E15.65905
G1 X-5.507 Y-14.516 E15.68851
G1 X-5.795 Y-14.5 E15.7029
G1 X-26.007 Y-14.5 E16.71128
G1 X-26.677 Y-14.441 E16.74484
G1 X-27.107 Y-14.357 E16.7667
G1 X-27.814 Y-14.102 E16.80419
G1 X-28.269 Y-13.867 E16.82974
G1 X-28.788 Y-13.496 E16.86157
G1 X-29.188 Y-13.128 E16.88869
G1 X-29.569 Y-12.644 E16.91942
G1 X-29.784 Y-12.309 E16.93928
G1 X-30.048 Y-11.804 E16.96771
G1 X-30.073 Y-11.742 E16.97104
G1 X-30.245 Y-11.193 E16.99975
G1 X-30.381 Y-10.453 E17.03728
G1 X-30.4 Y-10.109 E17.05447
G1 X-30.4 Y19.908 E18.55203
G1 X-30.341 Y20.579 E18.58563
G1 X-30.25 Y21.038 E18.60898
G1 X-30.006 Y21.704 E18.64436
G1 X-29.779 Y22.151 E18.66937
G1 X-29.401 Y22.681 E18.70185
G1 X-29.033 Y23.084 E18.72908
G1 X-28.545 Y23.468 E18.76006
G1 X-28.212 Y23.682 E18.77981
G1 X-27.707 Y23.947 E18.80826
G1 X-27.644 Y23.972 E18.81164
G1 X-27.101 Y24.142 E18.84003
G1 X-26.355 Y24.281 E18.87789
G1 X-26.01 Y24.3 E18.89513
G1 X36.007 Y24.3 E21.98917
G1 X36.677 Y24.241 E22.02272
G1 X37.107 Y24.157 E22.04458
G1 X37.814 Y23.902 E22.08208
G1 X38.269 Y23.667 E22.10763
G1 X38.788 Y23.296 E22.13945
G1 X39.188 Y22.928 E22.16657
G1 X39.569 Y22.444 E22.1973
G1 X39.784 Y22.109 E22.21716
G1 X40.048 Y21.604 E22.24559
G1 X40.073 Y21.542 E22.24893
G1 X40.245 Y20.993 E22.27763
G1 X40.381 Y20.253 E22.31517
G1 X40.4 Y19.909 E22.33235
G1 X40.399 Y-10.113 E23.83016
G1 X40.342 Y-10.775 E23.86331
G1 X40.233 Y-11.298 E23.88996
G1 X40.003 Y-11.912 E23.92267
G1 X39.767 Y-12.369 E23.94833
G1 X39.396 Y-12.888 E23.98016
G1 X39.028 Y-13.288 E24.00728
G1 X38.544 Y-13.669 E24.03801
G1 X38.209 Y-13.884 E24.05787
G1 X37.704 Y-14.148 E24.0863
G1 X37.642 Y-14.174 E24.08965
G1 X37.094 Y-14.344 E24.11828
G1 X36.355 Y-14.481 E24.15577
G1 X36.01 Y-14.5 E24.17301
G1 X15.836 Y-14.5 E25.1795
G1 X15.239 Y-14.547 E25.20937
G1 X14.911 Y-14.558 E25.22575
G1 X13.27 Y-14.983 E25.31032
G1 X11.069 Y-15.623 E25.42467
G1 X10.565 Y-15.722 E25.4503
G1 X9.968 Y-15.73 E25.48009
G1 X-0.005 Y-15.73 E25.97764
G1 X-.593 Y-15.722 E26.00698
G1 X-1.019 Y-15.639 E26.02863
G1 X-3.494 Y-14.924 E26.15716
G1 F1500 E19.65716
G1 F600 Z1.3
G0 F3600 X-4.969 Y-14.158 Z1.3
G1 F600 Z0.3
G1 F1500 E26.48976
G1 F2700 X14.976 Y-14.158 E27.48482
G1 X15.215 Y-14.148 E27.49676
G1 X15.817 Y-14.1 E27.52688
G1 X36 Y-14.1 E28.53382
G1 X36.654 Y-14.03 E28.56663
G1 X36.992 Y-13.957 E28.58388
G1 X37.506 Y-13.797 E28.61074
G1 X37.535 Y-13.785 E28.61231
G1 X38.008 Y-13.538 E28.63893
G1 X38.312 Y-13.343 E28.65695
G1 X38.766 Y-12.986 E28.68576
G1 X39.232 Y-12.446 E28.72135
G1 X39.442 Y-12.134 E28.74011
G1 X39.732 Y-11.523 E28.77385
G1 X39.858 Y-11.154 E28.79331
G1 X39.977 Y-10.467 E28.82809
G1 X39.999 Y-10.101 E28.84638
G1 X40 Y19.899 E30.34309
G1 X39.931 Y20.552 E30.37585
G1 X39.858 Y20.891 E30.39315
G1 X39.697 Y21.406 E30.42007
G1 X39.685 Y21.435 E30.42164
G1 X39.438 Y21.908 E30.44826
G1 X39.243 Y22.212 E30.46628
G1 X38.886 Y22.666 E30.49509
G1 X38.346 Y23.132 E30.53068
G1 X38.034 Y23.342 E30.54944
G1 X37.423 Y23.632 E30.58318
G1 X36.972 Y23.779 E30.60685
G1 X36.366 Y23.877 E30.63747
G1 X35.995 Y23.9 E30.65602
G1 X-26 Y23.9 E33.74896
G1 X-26.659 Y23.829 E33.78203
G1 X-26.999 Y23.755 E33.79939
G1 X-27.508 Y23.596 E33.82599
G1 X-27.537 Y23.584 E33.82756
G1 X-28.011 Y23.336 E33.85425
G1 X-28.313 Y23.142 E33.87216
G1 X-28.77 Y22.782 E33.90118
G1 X-29.234 Y22.242 E33.9367
G1 X-29.454 Y21.915 E33.95636
G1 X-29.734 Y21.316 E33.98935
G1 X-29.872 Y20.901 E34.01117
G1 X-29.977 Y20.268 E34.04318
G1 X-30 Y19.896 E34.06178
G1 X-30 Y-10.099 E35.55823
G1 X-29.931 Y-10.752 E35.59099
G1 X-29.858 Y-11.091 E35.60829
G1 X-29.697 Y-11.606 E35.63521
G1 X-29.685 Y-11.635 E35.63678
G1 X-29.438 Y-12.108 E35.6634
G1 X-29.243 Y-12.412 E35.68142
G1 X-28.886 Y-12.866 E35.71023
G1 X-28.346 Y-13.332 E35.74582
G1 X-28.034 Y-13.542 E35.76458
G1 X-27.423 Y-13.832 E35.79832
G1 X-26.972 Y-13.979 E35.82199
G1 X-26.366 Y-14.077 E35.85262
G1 X-25.995 Y-14.1 E35.87116
G1 X-5.791 Y-14.1 E36.87914
G1 X-4.969 Y-14.158 E36.92025
G0 F3600 X-4.969 Y-13.758
G1 F2700 X14.976 Y-13.758 E37.91531
G1 X15.183 Y-13.75 E37.92565
G1 X15.81 Y-13.7 E37.95703
G1 X36 Y-13.7 E38.96431
G1 X36.57 Y-13.639 E38.99291
G1 X37.353 Y-13.427 E39.03338
G1 X38.096 Y-13.006 E39.07599
G1 X38.512 Y-12.675 E39.10251
G1 X38.915 Y-12.201 E39.13355
G1 X39.27 Y-11.59 E39.1688
G1 X39.466 Y-11.071 E39.19648
G1 X39.58 Y-10.418 E39.22955
G1 X39.599 Y-10.101 E39.2454
G1 X39.6 Y19.899 E40.7421
G1 X39.54 Y20.467 E40.7706
G1 X39.327 Y21.253 E40.81123
G1 X38.906 Y21.996 E40.85383
G1 X38.575 Y22.412 E40.88035
G1 X38.101 Y22.815 E40.91139
G1 X37.492 Y23.17 E40.94656
G1 X36.899 Y23.385 E40.97803
G1 X36.316 Y23.48 E41.0075
G1 X35.995 Y23.5 E41.02355
G1 X-26 Y23.5 E44.11649
G1 X-26.574 Y23.439 E44.14529
G1 X-27.355 Y23.226 E44.18568
G1 X-28.097 Y22.806 E44.22821
G1 X-28.493 Y22.494 E44.25337
G1 X-28.918 Y21.998 E44.28595
G1 X-29.273 Y21.384 E44.32134
G1 X-29.479 Y20.823 E44.35115
G1 X-29.58 Y20.218 E44.38175
G1 X-29.6 Y19.896 E44.39785
G1 X-29.6 Y-10.099 E45.89431
G1 X-29.54 Y-10.667 E45.9228
G1 X-29.327 Y-11.453 E45.96343
G1 X-28.906 Y-12.196 E46.00604
G1 X-28.575 Y-12.612 E46.03256
G1 X-28.101 Y-13.015 E46.0636
G1 X-27.492 Y-13.37 E46.09877
G1 X-26.899 Y-13.585 E46.13024
G1 X-26.316 Y-13.68 E46.1597
G1 X-25.995 Y-13.7 E46.17575
G1 X-5.785 Y-13.7 E47.18403
G1 X-4.969 Y-13.758 E47.22484
G0 F3600 X-4.969 Y-13.358
G1 F2700 X14.976 Y-13.358 E48.2199
G1 X15.151 Y-13.351 E48.22864
G1 X15.79 Y-13.3 E48.26062
G1 X36 Y-13.3 E49.2689
G1 X36.485 Y-13.248 E49.29324
G1 X37.2 Y-13.058 E49.33015
G1 X37.88 Y-12.67 E49.36921
G1 X38.236 Y-12.386 E49.39193
G1 X38.599 Y-11.956 E49.42
G1 X38.901 Y-11.437 E49.44996
G1 X39.081 Y-10.963 E49.47526
G1 X39.183 Y-10.369 E49.50533
G1 X39.199 Y-10.101 E49.51872
G1 X39.2 Y19.899 E51.01543
G1 X39.149 Y20.383 E51.03971
G1 X38.958 Y21.1 E51.07673
G1 X38.57 Y21.78 E51.11578
G1 X38.286 Y22.136 E51.13851
G1 X37.856 Y22.499 E51.16658
G1 X37.338 Y22.8 E51.19647
G1 X36.802 Y22.997 E51.22496
G1 X36.267 Y23.083 E51.25199
G1 X35.995 Y23.1 E51.26559
G1 X-26 Y23.1 E54.35853
G1 X-26.489 Y23.048 E54.38307
G1 X-27.202 Y22.857 E54.41989
G1 X-27.881 Y22.469 E54.45891
G1 X-28.241 Y22.181 E54.48191
G1 X-28.601 Y21.754 E54.50977
G1 X-28.903 Y21.231 E54.5399
G1 X-29.092 Y20.722 E54.56699
G1 X-29.183 Y20.169 E54.59495
G1 X-29.2 Y19.896 E54.6086
G1 X-29.2 Y-10.099 E56.10506
G1 X-29.149 Y-10.583 E56.12934
G1 X-28.958 Y-11.3 E56.16635
G1 X-28.57 Y-11.98 E56.20541
G1 X-28.286 Y-12.336 E56.22813
G1 X-27.856 Y-12.699 E56.25621
G1 X-27.338 Y-13 E56.2861
G1 X-26.802 Y-13.197 E56.31459
G1 X-26.267 Y-13.283 E56.34162
G1 X-25.995 Y-13.3 E56.35522
G1 X-5.762 Y-13.3 E57.36465
G1 X-5.26 Y-13.339 E57.38977
G1 X-4.969 Y-13.358 E57.40432
G0 F3600 X-4.969 Y-12.958
G1 F2700 X14.976 Y-12.958 E58.39938
G1 X15.119 Y-12.952 E58.40652
G1 X15.771 Y-12.9 E58.43915
G1 X36 Y-12.9 E59.44838
G1 X36.401 Y-12.857 E59.4685
G1 X37.047 Y-12.688 E59.50181
G1 X37.664 Y-12.333 E59.53733
G1 X37.959 Y-12.097 E59.55617
G1 X38.282 Y-11.712 E59.58125
G1 X38.532 Y-11.283 E59.60602
G1 X38.702 Y-10.83 E59.63016
G1 X38.786 Y-10.321 E59.6559
G1 X38.799 Y-10.101 E59.66689
G1 X38.8 Y19.899 E61.1636
G1 X38.758 Y20.299 E61.18366
G1 X38.588 Y20.947 E61.21708
G1 X38.233 Y21.564 E61.2526
G1 X37.997 Y21.859 E61.27145
G1 X37.612 Y22.182 E61.29652
G1 X37.184 Y22.431 E61.32122
G1 X36.705 Y22.609 E61.34672
G1 X35.995 Y22.7 E61.38243
G1 X-26 Y22.7 E64.47537
G1 X-26.404 Y22.657 E64.49564
G1 X-27.049 Y22.487 E64.52892
G1 X-27.665 Y22.132 E64.56439
G1 X-27.964 Y21.892 E64.58352
G1 X-28.408 Y21.327 E64.61937
G1 X-28.626 Y20.856 E64.64526
G1 X-28.755 Y20.367 E64.67049
G1 X-28.8 Y19.896 E64.6941
G1 X-28.8 Y-10.099 E66.19055
G1 X-28.758 Y-10.499 E66.21062
G1 X-28.588 Y-11.147 E66.24404
G1 X-28.233 Y-11.764 E66.27956
G1 X-27.997 Y-12.059 E66.2984
G1 X-27.612 Y-12.382 E66.32348
G1 X-27.184 Y-12.631 E66.34818
G1 X-26.705 Y-12.809 E66.37367
G1 X-25.995 Y-12.9 E66.40939
G1 X-5.758 Y-12.9 E67.41901
G1 X-5.207 Y-12.942 E67.44658
G1 X-4.969 Y-12.958 E67.45848
G0 F3600 X-4.969 Y-12.558
G1 F2700 X14.976 Y-12.558 E68.45354
G1 X15.087 Y-12.554 E68.45909
G1 X15.764 Y-12.5 E68.49297
G1 X36 Y-12.5 E69.50255
G1 X36.655 Y-12.393 E69.53566
G1 X37.144 Y-12.191 E69.56205
G1 X37.66 Y-11.83 E69.59347
G1 X38.058 Y-11.331 E69.62532
G1 X38.31 Y-10.747 E69.65705
G1 X38.399 Y-10.101 E69.68958
G1 X38.4 Y19.899 E71.18629
G1 X38.294 Y20.554 E71.21939
G1 X38.091 Y21.044 E71.24585
G1 X37.73 Y21.56 E71.27727
G1 X37.231 Y21.958 E71.30911
G1 X36.608 Y22.221 E71.34285
G1 X35.995 Y22.3 E71.37369
G1 X-26 Y22.3 E74.46663
G1 X-26.659 Y22.192 E74.49995
G1 X-27.147 Y21.99 E74.5263
G1 X-27.662 Y21.628 E74.5577
G1 X-28.063 Y21.123 E74.58987
G1 X-28.318 Y20.52 E74.62254
G1 X-28.4 Y19.896 E74.65394
G1 X-28.4 Y-10.099 E76.15039
G1 X-28.294 Y-10.754 E76.1835
G1 X-28.091 Y-11.244 E76.20996
G1 X-27.73 Y-11.76 E76.24138
G1 X-27.231 Y-12.158 E76.27322
G1 X-26.608 Y-12.421 E76.30696
G1 X-25.995 Y-12.5 E76.33779
G1 X-5.753 Y-12.5 E77.34767
G1 X-5.154 Y-12.546 E77.37764
G1 X-4.969 Y-12.558 E77.38689
G0 F3600 X-4.969 Y-12.158
G1 F2700 X14.976 Y-12.158 E78.38195
G1 X15.056 Y-12.155 E78.38595
G1 X15.745 Y-12.1 E78.42043
G1 X36 Y-12.1 E79.43096
G1 X36.57 Y-12.002 E79.45981
G1 X36.928 Y-11.855 E79.47912
G1 X37.383 Y-11.541 E79.5067
G1 X37.715 Y-11.125 E79.53325
G1 X37.925 Y-10.64 E79.55962
G1 X37.999 Y-10.101 E79.58676
G1 X38 Y19.899 E81.08347
G1 X37.903 Y20.47 E81.11236
G1 X37.755 Y20.828 E81.13169
G1 X37.441 Y21.283 E81.15927
G1 X37.025 Y21.615 E81.18583
G1 X36.511 Y21.833 E81.21368
G1 X35.995 Y21.9 E81.23964
G1 X-26 Y21.9 E84.33258
G1 X-26.574 Y21.801 E84.36164
G1 X-26.93 Y21.653 E84.38088
G1 X-27.385 Y21.339 E84.40846
G1 X-27.719 Y20.92 E84.43519
G1 X-27.931 Y20.419 E84.46233
G1 X-28 Y19.896 E84.48865
G1 X-28 Y-10.099 E85.98511
G1 X-27.903 Y-10.67 E86.014
G1 X-27.755 Y-11.028 E86.03333
G1 X-27.441 Y-11.483 E86.06091
G1 X-27.025 Y-11.815 E86.08746
G1 X-26.511 Y-12.033 E86.11532
G1 X-25.995 Y-12.1 E86.14128
G1 X-5.731 Y-12.1 E87.15225
G1 X-5.101 Y-12.149 E87.18378
G1 X-4.969 Y-12.158 E87.19038
G0 F3600 X-4.969 Y-11.758
G1 F2700 X14.976 Y-11.758 E88.18544
G1 X15.024 Y-11.756 E88.18784
G1 X15.726 Y-11.7 E88.22297
G1 X36 Y-11.7 E89.23444
G1 X36.588 Y-11.579 E89.26439
G1 X37.107 Y-11.252 E89.295
G1 X37.384 Y-10.9 E89.31734
G1 X37.565 Y-10.418 E89.34303
G1 X37.599 Y-10.101 E89.35894
G1 X37.6 Y19.899 E90.85564
G1 X37.479 Y20.488 E90.88564
G1 X37.152 Y21.007 E90.91625
G1 X36.8 Y21.284 E90.93859
G1 X36.318 Y21.464 E90.96426
G1 X35.995 Y21.5 E90.98048
G1 X-26 Y21.5 E94.07342
G1 X-26.59 Y21.378 E94.10348
G1 X-27.108 Y21.051 E94.13404
G1 X-27.388 Y20.694 E94.15667
G1 X-27.564 Y20.218 E94.18199
G1 X-27.6 Y19.896 E94.19816
G1 X-27.6 Y-10.099 E95.69462
G1 X-27.479 Y-10.688 E95.72461
