;FLAVOR:Marlin
;TIME:7280
;Filament used: 7.15806m
;Layer height: 0.2
;MINX:-66.166
;MINY:-66.07
;MINZ:0.3
;MAXX:68.417
;MAXY:0
;MAXZ:25
;TARGET_MACHINE.NAME:Unknown
;POSTPROCESSED
;  [CreateThumbnail]
;Generated with Cura_SteamEngine 5.11.0
;
;

M140 S65
M105
M190 S65
M104 S240
M105
M109 S240
;FLAVOR:Marlin
M82 ;absolute extrusion mode
G21
G90
M82
M107 T0
G28
G92 E0
G0 E3 F200
G92 E0 ; reset extrusion distance
M106 S255 ; Enable cooling fan full speed
G1 X-98 Y0 Z0.4 F3000 ; move to arc start
G3 X0 Y-98 I98 Z0.4 E40 F400 ; lay arc stripe 90deg
G92 E0 ; reset extrusion distance
G4 P500 ; wait for 0.5 sec
G0 Z10 E-1 ; Lift 15mm and retract 1mm filament
G4 P2000 ; wait for 5 sec
G0 Z15
M107 ; Disable cooling fan
G1 X0 Y-85 Z4 E0 F3000 ; get off the bed
M82 ;absolute extrusion mode
G92 E0
G92 E0
G1 F1500 E-6.5
;LAYER_COUNT:99
;LAYER:0
M107
G1 F600 Z2.3
G0 F3600 X0.00 Y0.00 Z2.3
G0 X-26.297 Y-16.395
;TYPE:SKIRT
G1 F600 Z0.3
G1 F1500 E0
G1 F1200 X-26.743 Y-15.917 E0.02609
G1 X-27.515 Y-15.278 E0.06609
G1 X-28.541 Y-14.855 E0.11038
G1 X-29.392 Y-14.638 E0.14544
G1 X-30.543 Y-14.618 E0.19138
G1 X-51.187 Y-14.618 E1.01533
G1 X-52.009 Y-14.642 E1.04815
G1 X-52.74 Y-14.785 E1.07788
G1 X-53.368 Y-15.015 E1.10457
G1 X-54.847 Y-15.637 E1.16861
G1 X-56.07 Y-16.249 E1.22319
G1 X-56.993 Y-16.787 E1.26583
G1 X-57.528 Y-17.127 E1.29113
G1 X-58.122 Y-17.532 E1.31983
G1 X-58.762 Y-18.011 E1.35173
G1 X-59.741 Y-18.817 E1.40235
G1 X-60.291 Y-19.342 E1.43269
G1 X-60.862 Y-19.942 E1.46575
G1 X-61.355 Y-20.513 E1.49586
G1 X-61.801 Y-21.082 E1.52472
G1 X-62.233 Y-21.689 E1.55445
G1 X-62.574 Y-22.219 E1.57961
G1 X-63.303 Y-23.498 E1.63836
G1 X-63.744 Y-24.438 E1.6798
G1 X-64.044 Y-25.156 E1.71086
G1 X-64.414 Y-26.172 E1.75402
G1 X-64.809 Y-27.498 E1.80924
G1 X-65.093 Y-28.599 E1.85462
G1 X-65.273 Y-29.43 E1.88856
G1 X-65.454 Y-30.388 E1.92747
G1 X-65.573 Y-31.14 E1.95786
G1 X-65.75 Y-32.451 E2.01066
G1 X-65.925 Y-34.134 E2.07819
G1 X-66.028 Y-35.529 E2.13402
G1 X-66.117 Y-37.242 E2.20248
G1 X-66.152 Y-38.605 E2.2569
G1 X-66.166 Y-39.586 E2.29606
G1 X-66.166 Y-41.097 E2.35636
G1 X-66.152 Y-42.166 E2.39903
G1 X-66.118 Y-43.483 E2.45162
G1 X-66.069 Y-44.5 E2.49225
G1 X-65.974 Y-46.001 E2.55228
G1 X-65.882 Y-47.06 E2.59471
G1 X-65.738 Y-48.342 E2.6462
G1 X-65.561 Y-49.61 E2.6973
G1 X-65.341 Y-50.881 E2.74878
G1 X-64.98 Y-52.562 E2.8174
G1 X-64.717 Y-53.546 E2.85805
G1 X-64.498 Y-54.257 E2.88775
G1 X-64.291 Y-54.864 E2.91334
G1 X-64.025 Y-55.577 E2.94372
G1 X-63.646 Y-56.459 E2.98203
G1 X-63.224 Y-57.34 E3.02102
G1 X-62.421 Y-58.726 E3.08495
G1 X-61.943 Y-59.415 E3.11842
G1 X-61.497 Y-60.002 E3.14785
G1 X-61.042 Y-60.548 E3.17621
G1 X-60.621 Y-61 E3.20087
G1 X-59.645 Y-61.95 E3.25523
G1 X-58.807 Y-62.645 E3.29868
G1 X-58.254 Y-63.063 E3.32635
G1 X-57.629 Y-63.499 E3.35676
G1 X-57.093 Y-63.846 E3.38225
G1 X-56.51 Y-64.193 E3.40932
G1 X-55.567 Y-64.704 E3.45213
G1 X-54.557 Y-65.181 E3.49671
G1 X-52.732 Y-65.932 E3.57548
G1 X-51.887 Y-66.059 E3.60958
G1 X-51.155 Y-66.07 E3.6388
G1 X-30.432 Y-66.07 E4.4659
G1 X-29.442 Y-66.055 E4.50542
G1 X-28.388 Y-65.777 E4.54893
G1 X-27.847 Y-65.548 E4.57237
G1 X-27.036 Y-65.08 E4.60974
G1 X-26.357 Y-64.378 E4.64872
G1 X-25.804 Y-63.521 E4.68943
G1 X-25.548 Y-62.83 E4.71884
G1 X-25.355 Y-61.934 E4.75543
G1 X-25.354 Y-52.518 E5.13124
G1 X-25.373 Y-51.604 E5.16773
G1 X-25.561 Y-49.771 E5.24127
G1 X-25.794 Y-47.015 E5.35166
G1 X-25.938 Y-44.348 E5.45826
G1 X-26.015 Y-41.521 E5.57113
G1 X-26.011 Y-38.82 E5.67894
G1 X-25.929 Y-36.059 E5.78918
G1 X-25.775 Y-33.362 E5.897
G1 X-25.353 Y-28.762 E6.08137
G1 X-25.353 Y-19.669 E6.44429
G1 X-25.362 Y-19.016 E6.47035
G1 X-25.501 Y-18.051 E6.50927
G1 X-25.756 Y-17.264 E6.54229
G1 X-26.297 Y-16.395 E6.58314
G0 F3600 X-26.617 Y-16.638
G1 F1200 X-26.998 Y-16.225 E6.60557
G1 X-27.723 Y-15.625 E6.64313
G1 X-28.693 Y-15.225 E6.68501
G1 X-29.445 Y-15.037 E6.71594
G1 X-30.55 Y-15.018 E6.76005
G1 X-51.178 Y-15.018 E7.58336
G1 X-51.932 Y-15.035 E7.61346
G1 X-52.663 Y-15.178 E7.64319
G1 X-53.213 Y-15.384 E7.66663
G1 X-54.668 Y-15.995 E7.72962
G1 X-55.869 Y-16.595 E7.7832
G1 X-56.779 Y-17.125 E7.82523
G1 X-57.303 Y-17.457 E7.84999
G1 X-57.882 Y-17.852 E7.87796
G1 X-58.508 Y-18.32 E7.90916
G1 X-59.465 Y-19.107 E7.95861
G1 X-60.001 Y-19.618 E7.98817
G1 X-60.559 Y-20.204 E8.02046
G1 X-61.04 Y-20.76 E8.04981
G1 X-61.475 Y-21.314 E8.07792
G1 X-61.897 Y-21.906 E8.10694
G1 X-62.226 Y-22.417 E8.13119
G1 X-62.955 Y-23.696 E8.18995
G1 X-63.375 Y-24.592 E8.22945
G1 X-63.668 Y-25.293 E8.25977
G1 X-64.038 Y-26.309 E8.30293
G1 X-64.422 Y-27.598 E8.35661
G1 X-64.702 Y-28.684 E8.40137
G1 X-64.88 Y-29.504 E8.43486
G1 X-65.059 Y-30.451 E8.47333
G1 X-65.177 Y-31.193 E8.50331
G1 X-65.352 Y-32.492 E8.55563
G1 X-65.526 Y-34.164 E8.62272
G1 X-65.629 Y-35.55 E8.67819
G1 X-65.717 Y-37.252 E8.74621
G1 X-65.752 Y-38.611 E8.80047
G1 X-65.766 Y-39.592 E8.83963
G1 X-65.766 Y-41.092 E8.8995
G1 X-65.752 Y-42.156 E8.94197
G1 X-65.718 Y-43.464 E8.99419
G1 X-65.67 Y-44.475 E9.03459
G1 X-65.575 Y-45.966 E9.09422
G1 X-65.484 Y-47.016 E9.13628
G1 X-65.342 Y-48.287 E9.18733
G1 X-65.167 Y-49.542 E9.2379
G1 X-64.95 Y-50.797 E9.28873
G1 X-64.593 Y-52.459 E9.35658
G1 X-64.335 Y-53.428 E9.3966
G1 X-64.119 Y-54.128 E9.42584
G1 X-63.916 Y-54.724 E9.45097
G1 X-63.65 Y-55.437 E9.48134
G1 X-63.285 Y-56.286 E9.51823
G1 X-62.863 Y-57.167 E9.55722
G1 X-62.092 Y-58.498 E9.61861
G1 X-61.614 Y-59.187 E9.65208
G1 X-61.189 Y-59.746 E9.6801
G1 X-60.749 Y-60.275 E9.70757
G1 X-60.328 Y-60.727 E9.73222
G1 X-59.39 Y-61.642 E9.78452
G1 X-58.566 Y-62.326 E9.82726
G1 X-58.025 Y-62.735 E9.85433
G1 X-57.411 Y-63.163 E9.8842
G1 X-56.888 Y-63.502 E9.90908
G1 X-56.319 Y-63.841 E9.93551
G1 X-55.396 Y-64.342 E9.97743
G1 X-54.405 Y-64.811 E10.02119
G1 X-52.623 Y-65.544 E10.09809
G1 X-51.881 Y-65.659 E10.12806
G1 X-51.149 Y-65.67 E10.15728
G1 X-30.438 Y-65.67 E10.9839
G1 X-29.498 Y-65.656 E11.02142
G1 X-28.49 Y-65.39 E11.06303
G1 X-28.047 Y-65.202 E11.08224
G1 X-27.286 Y-64.763 E11.1173
G1 X-26.671 Y-64.127 E11.15262
G1 X-26.163 Y-63.34 E11.19
G1 X-25.939 Y-62.746 E11.21534
G1 X-25.755 Y-61.892 E11.25021
G1 X-25.754 Y-52.526 E11.62402
G1 X-25.771 Y-51.645 E11.65919
G1 X-25.959 Y-49.812 E11.73274
G1 X-26.192 Y-47.049 E11.8434
G1 X-26.338 Y-44.359 E11.95093
G1 X-26.415 Y-41.532 E12.0638
G1 X-26.411 Y-38.808 E12.17252
G1 X-26.329 Y-36.047 E12.28277
G1 X-26.173 Y-33.325 E12.39159
G1 X-25.753 Y-28.762 E12.57447
G1 X-25.753 Y-19.675 E12.93716
G1 X-25.762 Y-19.022 E12.96322
G1 X-25.882 Y-18.174 E12.9974
G1 X-26.122 Y-17.433 E13.02849
G1 X-26.617 Y-16.638 E13.06587
G0 F3600 X-26.957 Y-16.849
G1 F1200 X-27.253 Y-16.533 E13.08315
G1 X-27.931 Y-15.972 E13.11827
G1 X-28.79 Y-15.613 E13.15543
G1 X-29.497 Y-15.436 E13.18452
G1 X-30.557 Y-15.418 E13.22683
G1 X-51.169 Y-15.418 E14.0495
G1 X-51.923 Y-15.435 E14.0796
G1 X-52.523 Y-15.553 E14.10401
G1 X-53.058 Y-15.753 E14.12681
G1 X-54.489 Y-16.353 E14.18874
G1 X-55.668 Y-16.941 E14.24132
G1 X-56.565 Y-17.463 E14.28274
G1 X-57.078 Y-17.788 E14.30698
G1 X-57.643 Y-18.173 E14.33427
G1 X-58.254 Y-18.629 E14.3647
G1 X-59.189 Y-19.397 E14.41299
G1 X-59.711 Y-19.894 E14.44176
G1 X-60.256 Y-20.466 E14.47329
G1 X-60.737 Y-21.022 E14.50264
G1 X-61.149 Y-21.546 E14.52924
G1 X-61.561 Y-22.123 E14.55754
G1 X-61.878 Y-22.615 E14.5809
G1 X-62.607 Y-23.894 E14.63966
G1 X-63.006 Y-24.746 E14.6772
G1 X-63.292 Y-25.43 E14.70679
G1 X-63.662 Y-26.446 E14.74995
G1 X-64.035 Y-27.698 E14.80209
G1 X-64.311 Y-28.769 E14.84623
G1 X-64.487 Y-29.578 E14.87928
G1 X-64.664 Y-30.514 E14.9173
G1 X-64.781 Y-31.246 E14.94688
G1 X-64.954 Y-32.533 E14.99871
G1 X-65.127 Y-34.194 E15.06537
G1 X-65.23 Y-35.571 E15.12048
G1 X-65.317 Y-37.262 E15.18806
G1 X-65.352 Y-38.617 E15.24216
G1 X-65.366 Y-39.598 E15.28132
G1 X-65.366 Y-41.087 E15.34075
G1 X-65.352 Y-42.146 E15.38302
G1 X-65.318 Y-43.445 E15.43488
G1 X-65.271 Y-44.449 E15.475
G1 X-65.176 Y-45.931 E15.53427
G1 X-65.085 Y-46.981 E15.57633
G1 X-64.946 Y-48.232 E15.62657
G1 X-64.773 Y-49.474 E15.67662
G1 X-64.559 Y-50.713 E15.7268
G1 X-64.206 Y-52.356 E15.79387
G1 X-63.953 Y-53.31 E15.83327
G1 X-63.741 Y-53.999 E15.86204
G1 X-63.541 Y-54.584 E15.88671
G1 X-63.275 Y-55.297 E15.91709
G1 X-62.924 Y-56.113 E15.95254
G1 X-62.502 Y-56.994 E15.99153
G1 X-61.763 Y-58.27 E16.05038
G1 X-61.295 Y-58.945 E16.08316
G1 X-60.881 Y-59.49 E16.11048
G1 X-60.441 Y-60.019 E16.13794
G1 X-60.049 Y-60.441 E16.16093
G1 X-59.134 Y-61.334 E16.21196
G1 X-58.324 Y-62.007 E16.25399
G1 X-57.796 Y-62.407 E16.28043
G1 X-57.193 Y-62.827 E16.30976
G1 X-56.683 Y-63.158 E16.33403
G1 X-56.128 Y-63.489 E16.35982
G1 X-55.205 Y-63.99 E16.40173
G1 X-54.253 Y-64.441 E16.44378
G1 X-52.515 Y-65.156 E16.51879
G1 X-51.875 Y-65.259 E16.54466
G1 X-51.143 Y-65.27 E16.57388
G1 X-30.444 Y-65.27 E17.40002
G1 X-29.552 Y-65.257 E17.43563
G1 X-28.644 Y-65.021 E17.47307
G1 X-28.247 Y-64.855 E17.49024
G1 X-27.534 Y-64.444 E17.52309
G1 X-26.985 Y-63.876 E17.55462
G1 X-26.522 Y-63.158 E17.58872
G1 X-26.33 Y-62.662 E17.60995
G1 X-26.155 Y-61.85 E17.6431
G1 X-26.154 Y-52.533 E18.01496
G1 X-26.169 Y-51.686 E18.04877
G1 X-26.357 Y-49.853 E18.12231
G1 X-26.59 Y-47.083 E18.23326
G1 X-26.738 Y-44.37 E18.3417
G1 X-26.815 Y-41.543 E18.45458
G1 X-26.811 Y-38.796 E18.56422
G1 X-26.729 Y-36.035 E18.67446
G1 X-26.571 Y-33.288 E18.78428
G1 X-26.153 Y-28.762 E18.96569
G1 X-26.153 Y-19.681 E19.32814
G1 X-26.162 Y-19.028 E19.3542
G1 X-26.263 Y-18.297 E19.38365
G1 X-26.488 Y-17.602 E19.41281
G1 X-26.957 Y-16.849 E19.44822
G0 F3600 X-27.274 Y-17.096
G1 F1200 X-27.545 Y-16.807 E19.46403
G1 X-28.141 Y-16.317 E19.49482
G1 X-28.887 Y-16.001 E19.52716
G1 X-29.549 Y-15.835 E19.5544
G1 X-30.564 Y-15.818 E19.59492
G1 X-51.163 Y-15.818 E20.41707
G1 X-51.849 Y-15.828 E20.44445
G1 X-52.383 Y-15.928 E20.46613
G1 X-52.904 Y-16.122 E20.48832
G1 X-54.311 Y-16.711 E20.5492
G1 X-55.467 Y-17.287 E20.60075
G1 X-56.351 Y-17.801 E20.64156
G1 X-56.853 Y-18.118 E20.66526
G1 X-57.404 Y-18.494 E20.69188
G1 X-58 Y-18.938 E20.72155
G1 X-58.913 Y-19.687 E20.76868
G1 X-59.435 Y-20.184 E20.79745
G1 X-59.954 Y-20.728 E20.82745
G1 X-60.423 Y-21.269 E20.85603
G1 X-60.824 Y-21.779 E20.88192
G1 X-61.225 Y-22.34 E20.90945
G1 X-61.542 Y-22.832 E20.93281
G1 X-62.245 Y-24.064 E20.98942
G1 X-62.637 Y-24.9 E21.02627
G1 X-62.916 Y-25.567 E21.05513
G1 X-63.286 Y-26.583 E21.09829
G1 X-63.648 Y-27.798 E21.14889
G1 X-63.92 Y-28.854 E21.19241
G1 X-64.094 Y-29.652 E21.22501
G1 X-64.269 Y-30.577 E21.26258
G1 X-64.385 Y-31.299 E21.29177
G1 X-64.556 Y-32.574 E21.34311
G1 X-64.728 Y-34.224 E21.40932
G1 X-64.831 Y-35.591 E21.46404
G1 X-64.917 Y-37.272 E21.53122
G1 X-64.952 Y-38.623 E21.58516
G1 X-64.966 Y-39.604 E21.62431
G1 X-64.966 Y-41.082 E21.6833
G1 X-64.952 Y-42.135 E21.72534
G1 X-64.918 Y-43.427 E21.77692
G1 X-64.872 Y-44.423 E21.81671
G1 X-64.777 Y-45.897 E21.87567
G1 X-64.687 Y-46.937 E21.91733
G1 X-64.55 Y-48.177 E21.96712
G1 X-64.379 Y-49.406 E22.01665
G1 X-64.168 Y-50.629 E22.06618
G1 X-63.819 Y-52.254 E22.13252
G1 X-63.571 Y-53.192 E22.17124
G1 X-63.362 Y-53.87 E22.19956
G1 X-63.166 Y-54.445 E22.22381
G1 X-62.908 Y-55.139 E22.25336
G1 X-62.563 Y-55.94 E22.28817
G1 X-62.141 Y-56.821 E22.32715
G1 X-61.434 Y-58.042 E22.38347
G1 X-60.966 Y-58.717 E22.41625
G1 X-60.573 Y-59.234 E22.44217
G1 X-60.133 Y-59.763 E22.46963
G1 X-59.769 Y-60.155 E22.49098
G1 X-58.878 Y-61.026 E22.54071
G1 X-58.082 Y-61.688 E22.58203
G1 X-57.567 Y-62.079 E22.60784
G1 X-56.975 Y-62.492 E22.63665
G1 X-56.478 Y-62.815 E22.66031
G1 X-55.937 Y-63.138 E22.68546
G1 X-55.034 Y-63.629 E22.72648
G1 X-54.101 Y-64.071 E22.76769
G1 X-52.403 Y-64.769 E22.84096
G1 X-51.869 Y-64.859 E22.86257
G1 X-51.137 Y-64.87 E22.89179
G1 X-30.45 Y-64.87 E23.71745
G1 X-29.604 Y-64.858 E23.75122
G1 X-28.796 Y-64.651 E23.78451
G1 X-28.447 Y-64.508 E23.79957
G1 X-27.782 Y-64.125 E23.8302
G1 X-27.299 Y-63.625 E23.85794
G1 X-26.88 Y-62.975 E23.88881
G1 X-26.721 Y-62.578 E23.90588
G1 X-26.555 Y-61.808 E23.93732
G1 X-26.554 Y-52.539 E24.30726
G1 X-26.567 Y-51.727 E24.33967
G1 X-26.755 Y-49.894 E24.41322
G1 X-26.988 Y-47.116 E24.52448
G1 X-27.138 Y-44.381 E24.63381
G1 X-27.215 Y-41.554 E24.74668
G1 X-27.211 Y-38.784 E24.85724
G1 X-27.129 Y-36.023 E24.96748
G1 X-26.969 Y-33.251 E25.0783
G1 X-26.553 Y-28.762 E25.25824
G1 X-26.553 Y-19.687 E25.62044
G1 X-26.562 Y-19.034 E25.6465
G1 X-26.644 Y-18.42 E25.67123
G1 X-26.854 Y-17.77 E25.69849
G1 X-27.274 Y-17.096 E25.73019
G0 F3600 X-27.592 Y-17.341
G1 F1200 X-27.799 Y-17.116 E25.74239
G1 X-28.35 Y-16.663 E25.77086
G1 X-28.984 Y-16.389 E25.79843
G1 X-29.601 Y-16.234 E25.82382
G1 X-30.571 Y-16.218 E25.86254
G1 X-51.157 Y-16.218 E26.68417
G1 X-51.843 Y-16.228 E26.71155
G1 X-52.244 Y-16.303 E26.72783
G1 X-52.75 Y-16.491 E26.74938
G1 X-54.133 Y-17.069 E26.8092
G1 X-55.266 Y-17.633 E26.85972
G1 X-56.137 Y-18.139 E26.89992
G1 X-56.628 Y-18.449 E26.9231
G1 X-57.165 Y-18.815 E26.94904
G1 X-57.746 Y-19.247 E26.97793
G1 X-58.637 Y-19.977 E27.02391
G1 X-59.159 Y-20.474 E27.05267
G1 X-59.652 Y-20.99 E27.08116
G1 X-60.109 Y-21.517 E27.109
G1 X-60.499 Y-22.012 E27.13415
G1 X-60.889 Y-22.557 E27.1609
G1 X-61.195 Y-23.031 E27.18341
G1 X-61.883 Y-24.234 E27.23873
G1 X-62.268 Y-25.055 E27.27492
G1 X-62.54 Y-25.704 E27.303
G1 X-62.91 Y-26.72 E27.34616
G1 X-63.261 Y-27.898 E27.39522
G1 X-63.529 Y-28.94 E27.43816
G1 X-63.701 Y-29.726 E27.47027
G1 X-63.874 Y-30.641 E27.50744
G1 X-63.989 Y-31.352 E27.53619
G1 X-64.158 Y-32.616 E27.58709
G1 X-64.329 Y-34.254 E27.65282
G1 X-64.432 Y-35.611 E27.70713
G1 X-64.517 Y-37.282 E27.77391
G1 X-64.552 Y-38.629 E27.82769
G1 X-64.566 Y-39.61 E27.86685
G1 X-64.566 Y-41.077 E27.9254
G1 X-64.552 Y-42.124 E27.96719
G1 X-64.518 Y-43.409 E28.0185
G1 X-64.473 Y-44.397 E28.05797
G1 X-64.378 Y-45.863 E28.11661
G1 X-64.289 Y-46.893 E28.15787
G1 X-64.154 Y-48.122 E28.20722
G1 X-63.985 Y-49.338 E28.25622
G1 X-63.777 Y-50.545 E28.3051
G1 X-63.432 Y-52.152 E28.3707
G1 X-63.189 Y-53.074 E28.40876
G1 X-62.983 Y-53.741 E28.43662
G1 X-62.791 Y-54.306 E28.46043
G1 X-62.541 Y-54.981 E28.48916
G1 X-62.202 Y-55.768 E28.52337
G1 X-61.795 Y-56.621 E28.56109
G1 X-61.105 Y-57.814 E28.61609
G1 X-60.647 Y-58.475 E28.64819
G1 X-60.265 Y-58.978 E28.6734
G1 X-59.839 Y-59.491 E28.70001
G1 X-59.489 Y-59.869 E28.72057
G1 X-58.622 Y-60.718 E28.769
G1 X-57.826 Y-61.38 E28.81033
G1 X-57.338 Y-61.751 E28.83479
G1 X-56.757 Y-62.157 E28.86308
G1 X-56.272 Y-62.472 E28.88616
G1 X-55.746 Y-62.787 E28.91063
G1 X-54.863 Y-63.268 E28.95077
G1 X-53.949 Y-63.701 E28.99113
G1 X-52.251 Y-64.399 E29.06441
G1 X-51.863 Y-64.459 E29.08008
G1 X-51.131 Y-64.47 E29.1093
G1 X-30.456 Y-64.47 E29.93448
G1 X-29.658 Y-64.459 E29.96633
G1 X-28.944 Y-64.279 E29.99572
G1 X-28.647 Y-64.161 E30.00848
G1 X-28.028 Y-63.804 E30.037
G1 X-27.613 Y-63.375 E30.06082
G1 X-27.249 Y-62.82 E30.08731
G1 X-27.112 Y-62.494 E30.10142
G1 X-26.955 Y-61.766 E30.13115
G1 X-26.954 Y-52.545 E30.49918
G1 X-26.965 Y-51.768 E30.53019
G1 X-27.153 Y-49.935 E30.60374
G1 X-27.386 Y-47.149 E30.71532
G1 X-27.538 Y-44.392 E30.82552
G1 X-27.615 Y-41.565 E30.9384
G1 X-27.611 Y-38.772 E31.04987
G1 X-27.529 Y-36.011 E31.16012
G1 X-27.367 Y-33.214 E31.27194
G1 X-26.953 Y-28.762 E31.45039
G1 X-26.953 Y-19.693 E31.81236
G1 X-26.962 Y-19.04 E31.83842
G1 X-27.04 Y-18.475 E31.86119
G1 X-27.218 Y-17.941 E31.88365
G1 X-27.592 Y-17.341 E31.91187
G1 F1500 E25.41187
;MESH:K??rper1(1)
G0 F3600 X-29.545 Y-17.466
G0 X-29.974 Y-18.514
G0 X-52.877 Y-19.659
;TYPE:WALL-INNER
G1 F1500 E31.91187
G1 F1200 X-51.524 Y-19.084 E31.97055
G1 X-30.012 Y-19.084 E32.82914
G1 X-30.012 Y-27.844 E33.17877
