;FLAVOR:Marlin
;TIME:1522
;Filament used: 1.63689m
;Layer height: 0.24
;MINX:-39.485
;MINY:-34.578
;MINZ:0.3
;MAXX:39.489
;MAXY:34.667
;MAXZ:15.42
;Generated with Cura_SteamEngine 4.13.1
M140 S50
M105
M190 S50
M104 S210
M105
M109 S210
M82 ;absolute extrusion mode
;FLAVOR:Marlin
M82 ;absolute extrusion mode
G21
G90
M82
M107 T0
G28
G92 E0
G0 E3 F200
G92 E0 ; reset extrusion distance
M106 S255 ; Enable cooling fan full speed
G1 X-98 Y0 Z0.4 F3000 ; move to arc start
G3 X0 Y-98 I98 Z0.4 E40 F400 ; lay arc stripe 90deg
G92 E0 ; reset extrusion distance
G4 P500 ; wait for 0.5 sec
G0 Z10 E-1 ; Lift 15mm and retract 1mm filament
G4 P2000 ; wait for 5 sec
G0 Z15
M107 ; Disable cooling fan
G1 X0 Y-85 Z4 E0 F3000 ; get off the bed
G92 E0
G92 E0
G1 F1500 E-6.5
;LAYER_COUNT:65
;LAYER:0
M106 S25.5
G1 F600 Z1.3
G0 F3600 X8 Y-1.192 Z1.3
;TYPE:SKIRT
G1 F600 Z0.3
G1 F1500 E0.3326
G1 F2400 X8 Y31.55 E1.96611
G1 X7.96 Y32.038 E1.99053
G1 X7.841 Y32.513 E2.01496
G1 X7.647 Y32.962 E2.03937
G1 X7.382 Y33.374 E2.06381
G1 X7.004 Y33.788 E2.09178
G1 X6.631 Y34.105 E2.1162
G1 X6.211 Y34.357 E2.14063
G1 X5.756 Y34.537 E2.16504
G1 X5.278 Y34.641 E2.18945
G1 X4.883 Y34.667 E2.2092
G1 X-4.883 Y34.667 E2.69643
G1 X-5.371 Y34.627 E2.72086
G1 X-5.846 Y34.508 E2.74529
G1 X-6.295 Y34.314 E2.76969
G1 X-6.707 Y34.049 E2.79413
G1 X-7.121 Y33.671 E2.8221
G1 X-7.438 Y33.298 E2.84652
G1 X-7.69 Y32.878 E2.87095
G1 X-7.87 Y32.423 E2.89537
G1 X-7.974 Y31.945 E2.91977
G1 X-8 Y31.55 E2.93952
G1 X-8.001 Y-1.221 E4.57447
G1 X-8.032 Y-1.697 E4.59827
G1 X-8.231 Y-2.438 E4.63655
G1 X-8.411 Y-2.802 E4.65681
G1 X-8.626 Y-3.123 E4.67608
G1 X-8.882 Y-3.415 E4.69546
G1 X-9.185 Y-3.68 E4.71554
G1 X-9.583 Y-3.945 E4.73939
G1 X-37.948 Y-20.321 E6.37344
G1 X-38.351 Y-20.599 E6.39786
G1 X-38.702 Y-20.94 E6.42228
G1 X-38.994 Y-21.333 E6.44671
G1 X-39.218 Y-21.768 E6.47112
G1 X-39.388 Y-22.3 E6.49898
G1 X-39.476 Y-22.782 E6.52342
G1 X-39.485 Y-23.271 E6.54782
G1 X-39.414 Y-23.756 E6.57228
G1 X-39.265 Y-24.222 E6.59669
G1 X-39.089 Y-24.579 E6.61655
G1 X-34.206 Y-33.037 E7.10379
G1 X-33.928 Y-33.439 E7.12817
G1 X-33.587 Y-33.791 E7.15263
G1 X-33.194 Y-34.083 E7.17705
G1 X-32.759 Y-34.307 E7.20146
G1 X-32.227 Y-34.477 E7.22933
G1 X-31.745 Y-34.565 E7.25377
G1 X-31.256 Y-34.574 E7.27817
G1 X-30.771 Y-34.503 E7.30263
G1 X-30.305 Y-34.354 E7.32703
G1 X-29.948 Y-34.178 E7.34689
G1 X-1.562 Y-17.791 E8.98212
G1 X-1.142 Y-17.583 E9.0055
G1 X-.396 Y-17.385 E9.04401
G1 X0.013 Y-17.358 E9.06446
G1 X0.384 Y-17.382 E9.083
G1 X1.141 Y-17.583 E9.12208
G1 X1.558 Y-17.788 E9.14526
G1 X29.948 Y-34.178 E10.78074
G1 X30.391 Y-34.387 E10.80517
G1 X30.861 Y-34.522 E10.82957
G1 X31.347 Y-34.578 E10.85398
G1 X31.836 Y-34.555 E10.8784
G1 X32.387 Y-34.434 E10.90655
G1 X32.847 Y-34.269 E10.93093
G1 X33.275 Y-34.031 E10.95536
G1 X33.659 Y-33.727 E10.97979
G1 X33.987 Y-33.364 E11.0042
G1 X34.206 Y-33.037 E11.02384
G1 X39.089 Y-24.579 E11.51108
G1 X39.298 Y-24.136 E11.53552
G1 X39.433 Y-23.666 E11.55992
G1 X39.489 Y-23.18 E11.58432
G1 X39.466 Y-22.691 E11.60875
G1 X39.345 Y-22.14 E11.63689
G1 X39.18 Y-21.68 E11.66127
G1 X38.942 Y-21.252 E11.6857
G1 X38.638 Y-20.868 E11.71014
G1 X38.275 Y-20.54 E11.73455
G1 X37.948 Y-20.321 E11.75418
G1 X9.555 Y-3.928 E13.38986
G1 X9.198 Y-3.69 E13.41127
G1 X8.875 Y-3.409 E13.43262
G1 X8.404 Y-2.79 E13.47143
G1 X8.235 Y-2.45 E13.49037
G1 X8.111 Y-2.084 E13.50965
G1 X8.031 Y-1.679 E13.53025
G1 X8 Y-1.192 E13.55459
G0 F3600 X7.6 Y-1.203
G1 F2400 X7.6 Y31.55 E15.18865
G1 X7.56 Y32.004 E15.21139
G1 X7.442 Y32.444 E15.23411
G1 X7.248 Y32.856 E15.25683
G1 X6.838 Y33.388 E15.29034
G1 X6.372 Y33.798 E15.32131
G1 X5.977 Y34.025 E15.34404
G1 X5.549 Y34.18 E15.36675
G1 X4.883 Y34.267 E15.40026
G1 X-4.883 Y34.267 E15.88748
G1 X-5.337 Y34.227 E15.91022
G1 X-5.777 Y34.109 E15.93295
G1 X-6.189 Y33.915 E15.95567
G1 X-6.721 Y33.505 E15.98918
G1 X-7.131 Y33.039 E16.02014
G1 X-7.358 Y32.644 E16.04287
G1 X-7.513 Y32.216 E16.06558
G1 X-7.6 Y31.55 E16.09909
G1 X-7.601 Y-1.247 E17.73534
G1 X-7.634 Y-1.743 E17.76014
G1 X-7.721 Y-2.18 E17.78237
G1 X-7.862 Y-2.597 E17.80433
G1 X-8.062 Y-3 E17.82678
G1 X-8.305 Y-3.364 E17.84861
G1 X-8.6 Y-3.699 E17.87088
G1 X-8.942 Y-3.998 E17.89355
G1 X-9.372 Y-4.284 E17.91931
G1 X-37.748 Y-20.667 E19.55401
G1 X-38.121 Y-20.929 E19.57675
G1 X-38.443 Y-21.251 E19.59947
G1 X-38.703 Y-21.625 E19.62219
G1 X-38.959 Y-22.244 E19.65561
G1 X-39.081 Y-22.853 E19.6866
G1 X-39.081 Y-23.309 E19.70935
G1 X-39.001 Y-23.757 E19.73205
G1 X-38.743 Y-24.379 E19.76565
G1 X-33.86 Y-32.837 E20.25289
G1 X-33.598 Y-33.21 E20.27563
G1 X-33.276 Y-33.532 E20.29835
G1 X-32.902 Y-33.792 E20.32107
G1 X-32.283 Y-34.048 E20.35449
G1 X-31.674 Y-34.17 E20.38548
G1 X-31.218 Y-34.17 E20.40823
G1 X-30.77 Y-34.09 E20.43093
G1 X-30.148 Y-33.832 E20.46453
G1 X-1.743 Y-17.434 E22.10085
G1 X-1.297 Y-17.214 E22.12566
G1 X-.885 Y-17.074 E22.14737
G1 X-.447 Y-16.987 E22.16965
G1 X0.014 Y-16.958 E22.1927
G1 X0.436 Y-16.985 E22.21379
G1 X0.917 Y-17.086 E22.23831
G1 X1.292 Y-17.212 E22.25805
G1 X1.744 Y-17.434 E22.28317
G1 X30.148 Y-33.832 E23.91945
G1 X30.561 Y-34.024 E23.94217
G1 X31.001 Y-34.141 E23.96489
G1 X31.455 Y-34.18 E23.98762
G1 X32.123 Y-34.091 E24.02124
G1 X32.711 Y-33.892 E24.05221
G1 X33.105 Y-33.663 E24.07495
G1 X33.453 Y-33.369 E24.09768
G1 X33.86 Y-32.837 E24.13109
G1 X38.743 Y-24.379 E24.61834
G1 X38.935 Y-23.966 E24.64106
G1 X39.052 Y-23.526 E24.66378
G1 X39.091 Y-23.072 E24.68651
G1 X39.002 Y-22.404 E24.72013
G1 X38.803 Y-21.816 E24.7511
G1 X38.574 Y-21.422 E24.77384
G1 X38.28 Y-21.074 E24.79656
G1 X37.748 Y-20.667 E24.82998
G1 X9.336 Y-4.263 E26.46676
G1 X8.953 Y-4.007 E26.48974
G1 X8.596 Y-3.697 E26.51333
G1 X8.308 Y-3.368 E26.53514
G1 X8.06 Y-2.996 E26.55745
G1 X7.866 Y-2.603 E26.57931
G1 X7.722 Y-2.18 E26.60161
G1 X7.634 Y-1.735 E26.62424
G1 X7.6 Y-1.203 E26.65083
G0 F3600 X7.2 Y-1.229
G1 F2400 X7.2 Y31.55 E28.28618
G1 X7.16 Y31.967 E28.30708
G1 X7.042 Y32.369 E28.32799
G1 X6.849 Y32.741 E28.34889
G1 X6.439 Y33.223 E28.38046
G1 X6.115 Y33.489 E28.40138
G1 X5.748 Y33.69 E28.42225
G1 X5.348 Y33.817 E28.44319
G1 X4.883 Y33.867 E28.46652
G1 X-4.883 Y33.867 E28.95375
G1 X-5.3 Y33.827 E28.97465
G1 X-5.702 Y33.709 E28.99555
G1 X-6.074 Y33.516 E29.01646
G1 X-6.556 Y33.106 E29.04803
G1 X-6.822 Y32.782 E29.06895
G1 X-7.023 Y32.415 E29.08982
G1 X-7.15 Y32.015 E29.11076
G1 X-7.2 Y31.55 E29.13409
G1 X-7.201 Y-1.258 E30.77089
G1 X-7.236 Y-1.794 E30.79769
G1 X-7.335 Y-2.286 E30.82273
G1 X-7.491 Y-2.749 E30.8471
G1 X-7.714 Y-3.198 E30.87211
G1 X-7.992 Y-3.614 E30.89708
G1 X-8.317 Y-3.984 E30.92164
G1 X-8.697 Y-4.315 E30.94679
G1 X-9.165 Y-4.627 E30.97485
G1 X-37.548 Y-21.014 E32.60994
G1 X-37.889 Y-21.257 E32.63083
G1 X-38.178 Y-21.56 E32.65173
G1 X-38.405 Y-21.913 E32.67266
G1 X-38.616 Y-22.508 E32.70416
G1 X-38.685 Y-22.921 E32.72505
G1 X-38.675 Y-23.34 E32.74596
G1 X-38.586 Y-23.75 E32.76689
G1 X-38.396 Y-24.179 E32.7903
G1 X-33.513 Y-32.637 E33.27754
G1 X-33.27 Y-32.978 E33.29843
G1 X-32.967 Y-33.267 E33.31932
G1 X-32.614 Y-33.494 E33.34026
G1 X-32.019 Y-33.705 E33.37176
G1 X-31.606 Y-33.774 E33.39265
G1 X-31.187 Y-33.764 E33.41356
G1 X-30.777 Y-33.675 E33.43449
G1 X-30.348 Y-33.485 E33.4579
G1 X-1.935 Y-17.082 E35.09469
G1 X-1.452 Y-16.844 E35.12155
G1 X-.991 Y-16.688 E35.14583
G1 X-.498 Y-16.59 E35.17091
G1 X0.022 Y-16.557 E35.19691
G1 X0.488 Y-16.587 E35.2202
G1 X1.069 Y-16.715 E35.24988
G1 X1.445 Y-16.842 E35.26968
G1 X1.941 Y-17.085 E35.29724
G1 X30.348 Y-33.485 E36.9337
G1 X30.729 Y-33.659 E36.95459
G1 X31.137 Y-33.758 E36.97554
G1 X31.555 Y-33.777 E36.99642
G1 X32.179 Y-33.662 E37.02807
G1 X32.571 Y-33.515 E37.04896
G1 X32.929 Y-33.296 E37.0699
G1 X33.239 Y-33.014 E37.0908
G1 X33.513 Y-32.637 E37.11406
G1 X38.396 Y-24.179 E37.6013
G1 X38.57 Y-23.798 E37.6222
G1 X38.669 Y-23.39 E37.64314
G1 X38.688 Y-22.972 E37.66402
G1 X38.573 Y-22.348 E37.69567
G1 X38.426 Y-21.956 E37.71656
G1 X38.207 Y-21.598 E37.7375
G1 X37.925 Y-21.288 E37.75841
G1 X37.548 Y-21.014 E37.78166
G1 X9.129 Y-4.606 E39.41883
G1 X8.712 Y-4.328 E39.44384
G1 X8.31 Y-3.978 E39.47043
G1 X7.995 Y-3.618 E39.49429
G1 X7.71 Y-3.191 E39.51991
G1 X7.495 Y-2.756 E39.54412
G1 X7.336 Y-2.29 E39.56868
G1 X7.235 Y-1.777 E39.59476
G1 X7.2 Y-1.229 E39.62216
G0 F3600 X6.8 Y-1.238
G1 F2400 X6.8 Y31.55 E41.25796
G1 X6.76 Y31.927 E41.27687
G1 X6.642 Y32.287 E41.29578
G1 X6.452 Y32.614 E41.31464
G1 X6.156 Y32.94 E41.33661
G1 X5.861 Y33.178 E41.35552
G1 X5.523 Y33.349 E41.37442
G1 X5.157 Y33.446 E41.39331
G1 X4.883 Y33.467 E41.40702
G1 X-4.883 Y33.467 E41.89425
G1 X-5.26 Y33.427 E41.91316
G1 X-5.62 Y33.309 E41.93206
G1 X-5.947 Y33.119 E41.95093
G1 X-6.273 Y32.823 E41.9729
G1 X-6.511 Y32.528 E41.99181
G1 X-6.682 Y32.19 E42.01071
G1 X-6.779 Y31.824 E42.0296
G1 X-6.8 Y31.55 E42.04331
G1 X-6.801 Y-1.27 E43.6807
G1 X-6.839 Y-1.847 E43.70955
G1 X-6.948 Y-2.391 E43.73723
G1 X-7.119 Y-2.897 E43.76388
G1 X-7.37 Y-3.404 E43.7921
G1 X-7.668 Y-3.85 E43.81886
G1 X-8.038 Y-4.271 E43.84683
G1 X-8.457 Y-4.636 E43.87455
G1 X-8.946 Y-4.962 E43.90387
G1 X-37.348 Y-21.36 E45.54006
G1 X-37.654 Y-21.583 E45.55895
G1 X-37.907 Y-21.865 E45.57785
G1 X-38.096 Y-22.194 E45.59678
G1 X-38.229 Y-22.612 E45.61867
G1 X-38.289 Y-22.986 E45.63757
G1 X-38.268 Y-23.365 E45.6565
G1 X-38.169 Y-23.73 E45.67537
G1 X-38.05 Y-23.979 E45.68914
G1 X-33.167 Y-32.437 E46.17638
G1 X-32.944 Y-32.743 E46.19527
G1 X-32.662 Y-32.996 E46.21418
G1 X-32.333 Y-33.185 E46.23311
G1 X-31.915 Y-33.318 E46.25499
G1 X-31.541 Y-33.378 E46.27389
G1 X-31.162 Y-33.357 E46.29282
G1 X-30.797 Y-33.258 E46.31169
G1 X-30.548 Y-33.139 E46.32546
G1 X-2.121 Y-16.729 E47.96303
G1 X-1.604 Y-16.473 E47.99181
G1 X-1.09 Y-16.299 E48.01889
G1 X-.549 Y-16.191 E48.04641
G1 X0.014 Y-16.155 E48.07456
G1 X0.54 Y-16.19 E48.10086
G1 X1.068 Y-16.295 E48.12771
G1 X1.597 Y-16.471 E48.15553
G1 X2.127 Y-16.731 E48.18498
G1 X30.548 Y-33.139 E49.82224
G1 X30.894 Y-33.293 E49.84114
G1 X31.265 Y-33.371 E49.86005
G1 X31.644 Y-33.369 E49.87896
G1 X32.075 Y-33.275 E49.90097
G1 X32.429 Y-33.139 E49.91989
G1 X32.746 Y-32.932 E49.93878
G1 X33.013 Y-32.663 E49.95769
G1 X33.167 Y-32.437 E49.97133
G1 X38.05 Y-23.979 E50.45857
G1 X38.204 Y-23.633 E50.47747
G1 X38.282 Y-23.262 E50.49638
G1 X38.28 Y-22.883 E50.51529
G1 X38.186 Y-22.452 E50.5373
G1 X38.05 Y-22.098 E50.55622
G1 X37.843 Y-21.781 E50.57511
G1 X37.574 Y-21.514 E50.59402
G1 X37.348 Y-21.36 E50.60766
G1 X8.91 Y-4.941 E52.24593
G1 X8.472 Y-4.649 E52.27219
G1 X8.027 Y-4.261 E52.30165
G1 X7.674 Y-3.858 E52.32838
G1 X7.366 Y-3.397 E52.35604
G1 X7.123 Y-2.905 E52.38341
G1 X6.947 Y-2.389 E52.41061
G1 X6.838 Y-1.835 E52.43878
G1 X6.8 Y-1.238 E52.46863
G0 F3600 X6.4 Y-1.249
G1 F2400 X6.4 Y31.55 E54.10498
G1 X6.36 Y31.882 E54.12166
G1 X6.243 Y32.194 E54.13828
G1 X5.873 Y32.657 E54.16785
G1 X5.61 Y32.863 E54.18452
G1 X5.306 Y33.002 E54.2012
G1 X4.883 Y33.067 E54.22255
G1 X-4.883 Y33.067 E54.70978
G1 X-5.215 Y33.027 E54.72646
G1 X-5.527 Y32.91 E54.74308
G1 X-5.99 Y32.54 E54.77265
G1 X-6.196 Y32.277 E54.78932
G1 X-6.335 Y31.973 E54.806
G1 X-6.4 Y31.55 E54.82735
G1 X-6.401 Y-1.281 E56.46529
G1 X-6.442 Y-1.9 E56.49624
G1 X-6.561 Y-2.496 E56.52656
G1 X-6.75 Y-3.056 E56.55605
G1 X-7.023 Y-3.606 E56.58668
G1 X-7.348 Y-4.092 E56.61585
G1 X-7.755 Y-4.556 E56.64665
G1 X-8.208 Y-4.951 E56.67663
G1 X-8.747 Y-5.309 E56.70891
G1 X-37.148 Y-21.707 E58.34506
G1 X-37.415 Y-21.907 E58.36171
G1 X-37.628 Y-22.165 E58.3784
G1 X-37.843 Y-22.716 E58.4079
G1 X-37.891 Y-23.046 E58.42454
G1 X-37.859 Y-23.379 E58.44123
G1 X-37.703 Y-23.779 E58.46265
G1 X-32.82 Y-32.237 E58.9499
G1 X-32.62 Y-32.504 E58.96654
G1 X-32.362 Y-32.717 E58.98323
G1 X-31.811 Y-32.932 E59.01274
G1 X-31.481 Y-32.98 E59.02938
G1 X-31.148 Y-32.948 E59.04607
G1 X-30.748 Y-32.792 E59.06749
G1 X-2.314 Y-16.377 E60.70548
G1 X-1.759 Y-16.103 E60.73636
G1 X-1.196 Y-15.913 E60.76601
G1 X-.6 Y-15.794 E60.79633
G1 X0.014 Y-15.755 E60.82702
G1 X0.591 Y-15.792 E60.85587
G1 X1.171 Y-15.908 E60.88538
G1 X1.748 Y-16.1 E60.91572
G1 X2.324 Y-16.382 E60.94771
G1 X30.748 Y-32.792 E62.58516
G1 X31.055 Y-32.924 E62.60183
G1 X31.385 Y-32.979 E62.61852
G1 X31.971 Y-32.889 E62.6481
G1 X32.281 Y-32.764 E62.66477
G1 X32.553 Y-32.57 E62.68144
G1 X32.82 Y-32.237 E62.70274
G1 X37.703 Y-23.779 E63.18998
G1 X37.835 Y-23.472 E63.20665
G1 X37.89 Y-23.142 E63.22334
G1 X37.8 Y-22.556 E63.25292
G1 X37.675 Y-22.246 E63.2696
G1 X37.481 Y-21.974 E63.28627
G1 X37.148 Y-21.707 E63.30756
G1 X8.714 Y-5.29 E64.94561
G1 X8.222 Y-4.962 E64.97511
G1 X7.744 Y-4.546 E65.00672
G1 X7.354 Y-4.1 E65.03628
G1 X7.019 Y-3.598 E65.06639
G1 X6.753 Y-3.061 E65.09629
G1 X6.562 Y-2.498 E65.12595
G1 X6.441 Y-1.884 E65.15717
G1 X6.4 Y-1.249 E65.18892
G0 F3600 X6 Y-1.261
G1 F2400 X6 Y31.55 E66.82586
G1 X5.96 Y31.829 E66.83993
G1 X5.844 Y32.086 E66.85399
G1 X5.59 Y32.374 E66.87315
G1 X5.364 Y32.543 E66.88723
G1 X5.1 Y32.643 E66.90132
G1 X4.883 Y32.667 E66.91221
G1 X-4.883 Y32.667 E67.39944
G1 X-5.162 Y32.627 E67.4135
G1 X-5.419 Y32.511 E67.42756
G1 X-5.707 Y32.257 E67.44672
G1 X-5.876 Y32.031 E67.4608
G1 X-5.976 Y31.767 E67.47489
G1 X-6 Y31.55 E67.48578
G1 X-6.001 Y-1.292 E69.12427
G1 X-6.045 Y-1.959 E69.15762
G1 X-6.173 Y-2.595 E69.18999
G1 X-6.38 Y-3.208 E69.22227
G1 X-6.675 Y-3.803 E69.2554
G1 X-7.034 Y-4.342 E69.28771
G1 X-7.469 Y-4.837 E69.32059
G1 X-7.968 Y-5.272 E69.35361
G1 X-8.528 Y-5.645 E69.38718
G1 X-36.948 Y-22.053 E71.0244
G1 X-37.17 Y-22.227 E71.03847
G1 X-37.335 Y-22.456 E71.05255
G1 X-37.457 Y-22.819 E71.07166
G1 X-37.491 Y-23.1 E71.08578
G1 X-37.445 Y-23.378 E71.09984
G1 X-37.357 Y-23.579 E71.11079
G1 X-32.474 Y-32.037 E71.59803
G1 X-32.3 Y-32.259 E71.6121
G1 X-32.071 Y-32.424 E71.62618
G1 X-31.708 Y-32.546 E71.64529
G1 X-31.427 Y-32.58 E71.65941
G1 X-31.149 Y-32.534 E71.67347
G1 X-30.948 Y-32.446 E71.68442
G1 X-2.506 Y-16.027 E73.32286
G1 X-1.907 Y-15.731 E73.35619
G1 X-1.302 Y-15.526 E73.38806
G1 X-.651 Y-15.397 E73.42117
G1 X0.015 Y-15.354 E73.45447
G1 X0.644 Y-15.395 E73.48592
G1 X1.273 Y-15.521 E73.51792
G1 X1.423 Y-15.568 E73.52576
G1 X1.902 Y-15.729 E73.55097
G1 X2.505 Y-16.025 E73.58449
G1 X30.948 Y-32.446 E75.22302
G1 X31.21 Y-32.551 E75.23711
G1 X31.491 Y-32.579 E75.25119
G1 X31.868 Y-32.503 E75.27038
G1 X32.127 Y-32.392 E75.28444
G1 X32.345 Y-32.213 E75.29851
G1 X32.474 Y-32.037 E75.3094
G1 X37.357 Y-23.579 E75.79664
G1 X37.462 Y-23.317 E75.81073
G1 X37.49 Y-23.036 E75.82481
G1 X37.414 Y-22.659 E75.844
G1 X37.303 Y-22.4 E75.85806
G1 X37.124 Y-22.182 E75.87213
G1 X36.948 Y-22.053 E75.88302
G1 X8.495 Y-5.625 E77.52216
G1 X7.981 Y-5.282 E77.55299
G1 X7.462 Y-4.83 E77.58733
G1 X7.037 Y-4.346 E77.61946
G1 X6.668 Y-3.793 E77.65263
G1 X6.386 Y-3.221 E77.68445
G1 X6.172 Y-2.594 E77.7175
G1 X6.044 Y-1.941 E77.7507
G1 X6 Y-1.261 E77.78469
G0 F3600 X5.6 Y-1.269
G1 F2400 X5.6 Y31.55 E79.42204
G1 X5.56 Y31.765 E79.43295
G1 X5.307 Y32.091 E79.45354
G1 X5.128 Y32.215 E79.4644
G1 X4.883 Y32.267 E79.4769
G1 X-4.883 Y32.267 E79.96413
G1 X-5.098 Y32.227 E79.97504
G1 X-5.424 Y31.974 E79.99562
G1 X-5.548 Y31.795 E80.00649
G1 X-5.6 Y31.55 E80.01898
G1 X-5.601 Y-1.303 E81.65803
G1 X-5.648 Y-2.011 E81.69343
G1 X-5.786 Y-2.7 E81.72848
G1 X-6.008 Y-3.357 E81.76308
G1 X-6.331 Y-4.01 E81.79943
G1 X-6.714 Y-4.582 E81.83377
G1 X-7.19 Y-5.125 E81.8698
G1 X-7.723 Y-5.59 E81.90509
G1 X-8.306 Y-5.978 E81.94002
G1 X-36.748 Y-22.399 E83.57852
G1 X-36.914 Y-22.541 E83.58942
G1 X-37.07 Y-22.923 E83.61
G1 X-37.088 Y-23.141 E83.62092
G1 X-37.011 Y-23.379 E83.6334
G1 X-32.128 Y-31.837 E84.12064
G1 X-31.986 Y-32.003 E84.13154
