;FLAVOR:Marlin
;TIME:10361
;Filament used: 8.62068m
;Layer height: 0.15
;MINX:-35.756
;MINY:-54.268
;MINZ:0.3
;MAXX:35.524
;MAXY:54.268
;MAXZ:20.95
;Generated with Cura_SteamEngine 4.13.1
M140 S50
M105
M190 S50
M104 S210
M105
M109 S210
M82 ;absolute extrusion mode
;FLAVOR:Marlin
M82 ;absolute extrusion mode
G21
G90
M82
M107 T0
G28
G92 E0
G0 E3 F200
G92 E0 ; reset extrusion distance
M106 S255 ; Enable cooling fan full speed
G1 X-98 Y0 Z0.4 F3000 ; move to arc start
G3 X0 Y-98 I98 Z0.4 E40 F400 ; lay arc stripe 90deg
G92 E0 ; reset extrusion distance
G4 P500 ; wait for 0.5 sec
G0 Z10 E-1 ; Lift 15mm and retract 1mm filament
G4 P2000 ; wait for 5 sec
G0 Z15
M107 ; Disable cooling fan
G1 X0 Y-85 Z4 E0 F3000 ; get off the bed
G92 E0
G92 E0
G1 F1500 E-6.5
;LAYER_COUNT:133
;LAYER:0
M106 S25.5
G1 F600 Z1.3
G0 F3600 X11.541 Y-19 Z1.3
;TYPE:SKIRT
G1 F600 Z0.3
G1 F1500 E0.3326
G1 X11.541 Y19 E2.22843
G1 X28.54 Y19 E3.07651
G1 X28.815 Y19.013 E3.09025
G1 X29.553 Y19.081 E3.12722
G1 X30.099 Y19.183 E3.15493
G1 X30.805 Y19.384 E3.19156
G1 X31.322 Y19.584 E3.21921
G1 X31.986 Y19.915 E3.25623
G1 X32.454 Y20.205 E3.28369
G1 X33.044 Y20.65 E3.32056
G1 X33.457 Y21.026 E3.34843
G1 X33.951 Y21.569 E3.38505
G1 X34.283 Y22.009 E3.41255
G1 X34.671 Y22.636 E3.44934
G1 X34.917 Y23.13 E3.47687
G1 X35.184 Y23.818 E3.51369
G1 X35.336 Y24.35 E3.54129
G1 X35.473 Y25.08 E3.57835
G1 X35.524 Y25.633 E3.60605
G1 X35.524 Y26.367 E3.64267
G1 X35.473 Y26.919 E3.67033
G1 X35.337 Y27.646 E3.70723
G1 X35.186 Y28.177 E3.73477
G1 X34.92 Y28.864 E3.77153
G1 X34.674 Y29.358 E3.79906
G1 X34.284 Y29.989 E3.83607
G1 X33.951 Y30.431 E3.86368
G1 X33.457 Y30.974 E3.9003
G1 X33.044 Y31.35 E3.92817
G1 X32.454 Y31.795 E3.96503
G1 X31.985 Y32.086 E3.99257
G1 X31.32 Y32.417 E4.02963
G1 X30.806 Y32.616 E4.05713
G1 X30.101 Y32.817 E4.0937
G1 X29.553 Y32.919 E4.12151
G1 X28.826 Y32.986 E4.15794
G1 X28.551 Y32.999 E4.17167
G1 X10.905 Y33 E5.05203
G1 X6.444 Y51.59 E6.00582
G1 X6.193 Y52.266 E6.0418
G1 X5.822 Y52.896 E6.07827
G1 X5.499 Y53.264 E6.1027
G1 X4.925 Y53.709 E6.13894
G1 X4.501 Y53.954 E6.16337
G1 X4.043 Y54.126 E6.18778
G1 X3.333 Y54.249 E6.22373
G1 X2.844 Y54.267 E6.24814
G1 X2.358 Y54.205 E6.27258
G1 X1.704 Y53.995 E6.30685
G1 X1.261 Y53.786 E6.33129
G1 X0.858 Y53.508 E6.35571
G1 X0.356 Y53 E6.39134
G1 X0.062 Y52.608 E6.41579
G1 X-.115 Y52.268 E6.43491
G1 X-.307 Y52.63 E6.45536
G1 X-.752 Y53.184 E6.49081
G1 X-1.107 Y53.521 E6.51523
G1 X-1.511 Y53.796 E6.53961
G1 X-2.161 Y54.079 E6.57498
G1 X-2.631 Y54.213 E6.59936
G1 X-3.118 Y54.268 E6.62381
G1 X-3.803 Y54.221 E6.65807
G1 X-4.283 Y54.124 E6.6825
G1 X-4.74 Y53.951 E6.70688
G1 X-5.356 Y53.572 E6.74296
G1 X-5.734 Y53.262 E6.76735
G1 X-6.057 Y52.894 E6.79178
G1 X-6.426 Y52.266 E6.82812
G1 X-6.677 Y51.59 E6.8641
G1 X-11.137 Y33 E7.81787
G1 X-28.783 Y32.999 E8.69824
G1 X-29.058 Y32.986 E8.71197
G1 X-29.785 Y32.919 E8.74839
G1 X-30.333 Y32.817 E8.7762
G1 X-31.038 Y32.616 E8.81278
G1 X-31.55 Y32.418 E8.84017
G1 X-32.216 Y32.087 E8.87727
G1 X-32.689 Y31.794 E8.90503
G1 X-33.278 Y31.349 E8.94186
G1 X-33.689 Y30.974 E8.96962
G1 X-34.183 Y30.431 E9.00624
G1 X-34.514 Y29.992 E9.03367
G1 X-34.905 Y29.361 E9.0707
G1 X-35.153 Y28.862 E9.0985
G1 X-35.418 Y28.176 E9.13519
G1 X-35.569 Y27.646 E9.16269
G1 X-35.705 Y26.918 E9.19964
G1 X-35.756 Y26.367 E9.22724
G1 X-35.756 Y25.633 E9.26386
G1 X-35.705 Y25.083 E9.29142
G1 X-35.569 Y24.354 E9.32842
G1 X-35.418 Y23.822 E9.35601
G1 X-35.153 Y23.137 E9.39265
G1 X-34.905 Y22.639 E9.42041
G1 X-34.514 Y22.008 E9.45744
G1 X-34.183 Y21.569 E9.48487
G1 X-33.689 Y21.026 E9.52149
G1 X-33.278 Y20.651 E9.54925
G1 X-32.689 Y20.206 E9.58608
G1 X-32.218 Y19.914 E9.61373
G1 X-31.553 Y19.583 E9.65079
G1 X-31.037 Y19.384 E9.67838
G1 X-30.331 Y19.183 E9.715
G1 X-29.785 Y19.081 E9.74271
G1 X-29.047 Y19.013 E9.77969
G1 X-28.772 Y19 E9.79342
G1 X-11.773 Y19 E10.64151
G1 X-11.773 Y-19 E12.53733
G1 X-28.783 Y-19.001 E13.38597
G1 X-29.058 Y-19.014 E13.3997
G1 X-29.785 Y-19.081 E13.43612
G1 X-30.333 Y-19.183 E13.46393
G1 X-31.038 Y-19.384 E13.50051
G1 X-31.55 Y-19.582 E13.5279
G1 X-32.216 Y-19.913 E13.565
G1 X-32.689 Y-20.206 E13.59276
G1 X-33.278 Y-20.651 E13.62959
G1 X-33.689 Y-21.026 E13.65735
G1 X-34.183 Y-21.569 E13.69397
G1 X-34.514 Y-22.008 E13.7214
G1 X-34.905 Y-22.639 E13.75843
G1 X-35.153 Y-23.138 E13.78623
G1 X-35.418 Y-23.824 E13.82292
G1 X-35.569 Y-24.354 E13.85042
G1 X-35.705 Y-25.082 E13.88737
G1 X-35.756 Y-25.633 E13.91497
G1 X-35.756 Y-26.367 E13.95159
G1 X-35.705 Y-26.917 E13.97915
G1 X-35.569 Y-27.646 E14.01615
G1 X-35.418 Y-28.178 E14.04374
G1 X-35.153 Y-28.863 E14.08038
G1 X-34.905 Y-29.361 E14.10814
G1 X-34.514 Y-29.992 E14.14517
G1 X-34.183 Y-30.431 E14.1726
G1 X-33.689 Y-30.974 E14.20922
G1 X-33.278 Y-31.349 E14.23698
G1 X-32.689 Y-31.794 E14.27381
G1 X-32.218 Y-32.086 E14.30146
G1 X-31.553 Y-32.417 E14.33852
G1 X-31.037 Y-32.616 E14.36611
G1 X-30.331 Y-32.817 E14.40273
G1 X-29.785 Y-32.919 E14.43044
G1 X-29.047 Y-32.987 E14.46742
G1 X-28.772 Y-33 E14.48115
G1 X-11.137 Y-33 E15.36097
G1 X-6.675 Y-51.597 E16.31511
G1 X-6.413 Y-52.294 E16.35226
G1 X-6.04 Y-52.916 E16.38844
G1 X-5.714 Y-53.281 E16.41285
G1 X-5.155 Y-53.711 E16.44804
G1 X-4.731 Y-53.955 E16.47245
G1 X-4.273 Y-54.127 E16.49685
G1 X-3.566 Y-54.249 E16.53265
G1 X-3.077 Y-54.267 E16.55706
G1 X-2.591 Y-54.205 E16.5815
G1 X-1.937 Y-53.995 E16.61577
G1 X-1.494 Y-53.786 E16.64021
G1 X-1.091 Y-53.508 E16.66464
G1 X-.594 Y-53.007 E16.69984
G1 X-.299 Y-52.616 E16.72428
G1 X-.117 Y-52.27 E16.74378
G1 X0.082 Y-52.64 E16.76474
G1 X0.513 Y-53.177 E16.7991
G1 X0.866 Y-53.515 E16.82348
G1 X1.27 Y-53.792 E16.84792
G1 X1.928 Y-54.079 E16.88373
G1 X2.398 Y-54.213 E16.90811
G1 X2.885 Y-54.268 E16.93257
G1 X3.57 Y-54.221 E16.96682
G1 X4.05 Y-54.124 E16.99125
G1 X4.507 Y-53.951 E17.01563
G1 X5.119 Y-53.575 E17.05147
G1 X5.498 Y-53.265 E17.07589
G1 X5.821 Y-52.897 E17.10032
G1 X6.18 Y-52.294 E17.13533
G1 X6.442 Y-51.597 E17.17248
G1 X10.905 Y-33 E18.12663
G1 X28.54 Y-33 E19.00645
G1 X28.815 Y-32.987 E19.02018
G1 X29.553 Y-32.919 E19.05716
G1 X30.099 Y-32.817 E19.08487
G1 X30.805 Y-32.616 E19.12149
G1 X31.322 Y-32.416 E19.14915
G1 X31.986 Y-32.085 E19.18616
G1 X32.454 Y-31.795 E19.21363
G1 X33.044 Y-31.35 E19.2505
G1 X33.457 Y-30.974 E19.27836
G1 X33.951 Y-30.431 E19.31499
G1 X34.283 Y-29.991 E19.34249
G1 X34.671 Y-29.364 E19.37927
G1 X34.917 Y-28.87 E19.40681
G1 X35.184 Y-28.182 E19.44363
G1 X35.336 Y-27.65 E19.47123
G1 X35.473 Y-26.92 E19.50828
G1 X35.524 Y-26.367 E19.53599
G1 X35.524 Y-25.633 E19.57261
G1 X35.473 Y-25.081 E19.60027
G1 X35.337 Y-24.354 E19.63717
G1 X35.186 Y-23.823 E19.66471
G1 X34.92 Y-23.136 E19.70146
G1 X34.674 Y-22.642 E19.72899
G1 X34.284 Y-22.011 E19.766
G1 X33.951 Y-21.569 E19.79361
G1 X33.457 Y-21.026 E19.83024
G1 X33.044 Y-20.65 E19.8581
G1 X32.454 Y-20.205 E19.89497
G1 X31.985 Y-19.914 E19.92251
G1 X31.32 Y-19.583 E19.95957
G1 X30.806 Y-19.384 E19.98706
G1 X30.101 Y-19.183 E20.02364
G1 X29.553 Y-19.081 E20.05145
G1 X28.826 Y-19.014 E20.08787
G1 X28.551 Y-19.001 E20.10161
G1 X11.541 Y-19 E20.95024
G0 F3600 X11.141 Y-19.4
G1 F1500 X11.141 Y19.4 E22.88598
G1 X28.54 Y19.4 E23.75402
G1 X28.779 Y19.411 E23.76596
G1 X29.517 Y19.479 E23.80293
G1 X29.99 Y19.567 E23.82693
G1 X30.696 Y19.768 E23.86356
G1 X31.144 Y19.942 E23.88753
G1 X31.808 Y20.273 E23.92455
G1 X32.214 Y20.524 E23.94836
G1 X32.804 Y20.969 E23.98523
G1 X33.161 Y21.295 E24.00935
G1 X33.655 Y21.838 E24.04597
G1 X33.943 Y22.22 E24.06984
G1 X34.331 Y22.847 E24.10663
G1 X34.544 Y23.274 E24.13043
G1 X34.811 Y23.962 E24.16725
G1 X34.942 Y24.423 E24.19116
G1 X35.079 Y25.153 E24.22822
G1 X35.124 Y25.633 E24.25227
G1 X35.124 Y26.367 E24.28889
G1 X35.08 Y26.845 E24.31284
G1 X34.944 Y27.572 E24.34974
G1 X34.813 Y28.033 E24.37365
G1 X34.547 Y28.72 E24.4104
G1 X34.334 Y29.148 E24.43425
G1 X33.944 Y29.779 E24.47126
G1 X33.655 Y30.162 E24.4952
G1 X33.161 Y30.705 E24.53182
G1 X32.804 Y31.031 E24.55594
G1 X32.214 Y31.476 E24.59281
G1 X31.807 Y31.728 E24.61669
G1 X31.142 Y32.059 E24.65375
G1 X30.696 Y32.231 E24.6776
G1 X29.991 Y32.432 E24.71418
G1 X29.517 Y32.521 E24.73824
G1 X28.79 Y32.588 E24.77466
G1 X28.551 Y32.599 E24.7866
G1 X10.59 Y32.6 E25.68267
G1 X6.055 Y51.497 E26.65222
G1 X5.837 Y52.083 E26.68341
G1 X5.483 Y52.683 E26.71817
G1 X5.175 Y53.019 E26.74091
G1 X4.697 Y53.38 E26.77079
G1 X4.301 Y53.606 E26.79354
G1 X3.872 Y53.758 E26.81625
G1 X3.286 Y53.852 E26.84586
G1 X2.831 Y53.866 E26.86857
G1 X2.38 Y53.8 E26.89131
G1 X1.844 Y53.62 E26.91952
G1 X1.433 Y53.424 E26.94223
G1 X1.063 Y53.158 E26.96497
G1 X0.655 Y52.734 E26.99432
G1 X0.384 Y52.368 E27.01704
G1 X0.18 Y51.96 E27.0398
G1 X0.023 Y51.426 E27.06757
G1 X-0.058 Y50.782 E27.09995
G1 X-0.058 Y-50.78 E32.1669
G1 X0.022 Y-51.418 E32.19898
G1 X0.23 Y-52.078 E32.2335
G1 X0.453 Y-52.475 E32.25622
G1 X0.812 Y-52.911 E32.2844
G1 X1.143 Y-53.224 E32.30713
G1 X1.524 Y-53.475 E32.32989
G1 X2.068 Y-53.704 E32.35934
G1 X2.507 Y-53.826 E32.38207
G1 X2.961 Y-53.87 E32.40482
G1 X3.523 Y-53.824 E32.43296
G1 X3.969 Y-53.731 E32.45569
G1 X4.392 Y-53.562 E32.47841
G1 X4.892 Y-53.246 E32.50792
G1 X5.243 Y-52.955 E32.53067
G1 X5.538 Y-52.607 E32.55343
G1 X5.826 Y-52.108 E32.58217
G1 X6.053 Y-51.504 E32.61436
G1 X10.59 Y-32.6 E33.58427
G1 X28.54 Y-32.6 E34.4798
G1 X28.779 Y-32.589 E34.49174
G1 X29.517 Y-32.521 E34.52871
G1 X29.99 Y-32.433 E34.55271
G1 X30.696 Y-32.232 E34.58934
G1 X31.144 Y-32.058 E34.61331
G1 X31.808 Y-31.727 E34.65033
G1 X32.214 Y-31.476 E34.67414
G1 X32.804 Y-31.031 E34.71101
G1 X33.161 Y-30.705 E34.73513
G1 X33.655 Y-30.162 E34.77175
G1 X33.943 Y-29.78 E34.79562
G1 X34.331 Y-29.153 E34.83241
G1 X34.544 Y-28.726 E34.85621
G1 X34.811 Y-28.038 E34.89303
G1 X34.942 Y-27.577 E34.91694
G1 X35.079 Y-26.847 E34.954
G1 X35.124 Y-26.367 E34.97805
G1 X35.124 Y-25.633 E35.01467
G1 X35.08 Y-25.155 E35.03862
G1 X34.944 Y-24.428 E35.07552
G1 X34.813 Y-23.967 E35.09943
G1 X34.547 Y-23.28 E35.13618
G1 X34.334 Y-22.852 E35.16003
G1 X33.944 Y-22.221 E35.19704
G1 X33.655 Y-21.838 E35.22098
G1 X33.161 Y-21.295 E35.2576
G1 X32.804 Y-20.969 E35.28172
G1 X32.214 Y-20.524 E35.31859
G1 X31.807 Y-20.272 E35.34247
G1 X31.142 Y-19.941 E35.37953
G1 X30.696 Y-19.769 E35.40338
G1 X29.991 Y-19.568 E35.43996
G1 X29.517 Y-19.479 E35.46402
G1 X28.79 Y-19.412 E35.50044
G1 X28.551 Y-19.401 E35.51238
G1 X11.141 Y-19.4 E36.38097
G0 F3600 X10.741 Y-19.8
G1 F1500 X10.741 Y19.8 E38.35662
G1 X28.54 Y19.8 E39.24461
G1 X28.742 Y19.809 E39.2547
G1 X29.48 Y19.877 E39.29168
G1 X29.88 Y19.952 E39.31198
G1 X30.586 Y20.153 E39.3486
G1 X30.965 Y20.3 E39.36888
G1 X31.629 Y20.631 E39.4059
G1 X31.973 Y20.844 E39.42608
G1 X32.563 Y21.289 E39.46295
G1 X32.865 Y21.565 E39.48336
G1 X33.359 Y22.108 E39.51999
G1 X33.603 Y22.43 E39.54014
G1 X33.991 Y23.057 E39.57693
G1 X34.171 Y23.419 E39.5971
G1 X34.438 Y24.107 E39.63392
G1 X34.549 Y24.497 E39.65415
G1 X34.686 Y25.227 E39.6912
G1 X34.724 Y25.633 E39.71155
G1 X34.724 Y26.367 E39.74817
G1 X34.686 Y26.772 E39.76846
G1 X34.55 Y27.499 E39.80536
G1 X34.44 Y27.888 E39.82553
G1 X34.174 Y28.575 E39.86228
G1 X33.993 Y28.938 E39.88252
G1 X33.603 Y29.569 E39.91953
G1 X33.359 Y29.892 E39.93972
G1 X32.865 Y30.435 E39.97635
G1 X32.563 Y30.711 E39.99676
G1 X31.973 Y31.156 E40.03363
G1 X31.628 Y31.37 E40.05388
G1 X30.963 Y31.701 E40.09094
G1 X30.586 Y31.847 E40.11111
G1 X29.881 Y32.048 E40.14769
G1 X29.48 Y32.123 E40.16804
G1 X28.753 Y32.19 E40.20446
G1 X28.551 Y32.199 E40.21455
G1 X10.274 Y32.2 E41.12639
G1 X5.666 Y51.403 E42.11163
G1 X5.482 Y51.899 E42.13803
G1 X5.144 Y52.467 E42.171
G1 X4.668 Y52.914 E42.20358
G1 X4.104 Y53.256 E42.23649
G1 X3.476 Y53.427 E42.26896
G1 X2.82 Y53.464 E42.30174
G1 X2.209 Y53.33 E42.33294
G1 X1.608 Y53.062 E42.36577
G1 X1.111 Y52.646 E42.39811
G1 X0.707 Y52.13 E42.4308
G1 X0.468 Y51.554 E42.46192
G1 X0.41 Y51.327 E42.47361
G1 X0.342 Y50.782 E42.50101
G1 X0.342 Y-50.78 E47.56796
G1 X0.409 Y-51.32 E47.5951
G1 X0.608 Y-51.944 E47.62778
G1 X0.954 Y-52.469 E47.65915
G1 X1.418 Y-52.931 E47.69182
G1 X1.985 Y-53.246 E47.72418
G1 X2.613 Y-53.439 E47.75695
G1 X3.239 Y-53.455 E47.78819
G1 X3.886 Y-53.338 E47.821
G1 X4.468 Y-53.052 E47.85335
G1 X4.985 Y-52.647 E47.88611
G1 X5.362 Y-52.131 E47.918
G1 X5.472 Y-51.922 E47.92978
G1 X5.664 Y-51.41 E47.95706
G1 X10.274 Y-32.2 E48.94266
G1 X28.54 Y-32.2 E49.85396
G1 X28.742 Y-32.191 E49.86404
G1 X29.48 Y-32.123 E49.90102
G1 X29.88 Y-32.048 E49.92132
G1 X30.586 Y-31.847 E49.95794
G1 X30.965 Y-31.7 E49.97823
G1 X31.629 Y-31.369 E50.01524
G1 X31.973 Y-31.156 E50.03543
G1 X32.563 Y-30.711 E50.0723
G1 X32.865 Y-30.435 E50.09271
G1 X33.359 Y-29.892 E50.12933
G1 X33.603 Y-29.57 E50.14949
G1 X33.991 Y-28.943 E50.18627
G1 X34.171 Y-28.581 E50.20644
G1 X34.438 Y-27.893 E50.24326
G1 X34.549 Y-27.503 E50.26349
G1 X34.686 Y-26.773 E50.30055
G1 X34.724 Y-26.367 E50.32089
G1 X34.724 Y-25.633 E50.35751
G1 X34.686 Y-25.228 E50.3778
G1 X34.55 Y-24.501 E50.4147
G1 X34.44 Y-24.112 E50.43487
G1 X34.174 Y-23.425 E50.47163
G1 X33.993 Y-23.062 E50.49186
G1 X33.603 Y-22.431 E50.52887
G1 X33.359 Y-22.108 E50.54907
G1 X32.865 Y-21.565 E50.58569
G1 X32.563 Y-21.289 E50.6061
G1 X31.973 Y-20.844 E50.64297
G1 X31.628 Y-20.63 E50.66322
G1 X30.963 Y-20.299 E50.70028
G1 X30.586 Y-20.153 E50.72045
G1 X29.881 Y-19.952 E50.75703
G1 X29.48 Y-19.877 E50.77738
G1 X28.753 Y-19.81 E50.81381
G1 X28.551 Y-19.801 E50.82389
G1 X10.741 Y-19.8 E51.71244
G0 F3600 X10.341 Y-20.2
G1 F1500 X10.341 Y20.2 E53.728
G1 X28.54 Y20.2 E54.63595
G1 X28.705 Y20.208 E54.64419
G1 X29.443 Y20.276 E54.68117
G1 X29.771 Y20.337 E54.69781
G1 X30.477 Y20.538 E54.73444
G1 X30.787 Y20.658 E54.75102
G1 X31.451 Y20.989 E54.78804
G1 X31.732 Y21.163 E54.80453
G1 X32.322 Y21.608 E54.84139
G1 X32.569 Y21.834 E54.8581
G1 X33.063 Y22.377 E54.89472
G1 X33.263 Y22.641 E54.91124
G1 X33.651 Y23.268 E54.94803
G1 X33.798 Y23.564 E54.96452
G1 X34.065 Y24.252 E55.00134
G1 X34.156 Y24.571 E55.01789
G1 X34.293 Y25.301 E55.05494
G1 X34.324 Y25.633 E55.07158
G1 X34.324 Y26.367 E55.1082
G1 X34.293 Y26.698 E55.12478
G1 X34.157 Y27.425 E55.16168
G1 X34.067 Y27.744 E55.17822
G1 X33.801 Y28.431 E55.21497
G1 X33.653 Y28.727 E55.23148
G1 X33.263 Y29.358 E55.26849
G1 X33.063 Y29.623 E55.28506
G1 X32.569 Y30.166 E55.32168
G1 X32.322 Y30.392 E55.33838
G1 X31.732 Y30.837 E55.37525
G1 X31.45 Y31.011 E55.39178
G1 X30.785 Y31.342 E55.42884
G1 X30.477 Y31.462 E55.44533
G1 X29.772 Y31.663 E55.48191
G1 X29.443 Y31.724 E55.4986
G1 X28.716 Y31.791 E55.53503
G1 X28.551 Y31.799 E55.54327
G1 X9.959 Y31.8 E56.47083
G1 X5.277 Y51.31 E57.47182
G1 X5.015 Y51.931 E57.50545
G1 X4.807 Y52.247 E57.52432
G1 X4.242 Y52.722 E57.56115
G1 X3.91 Y52.904 E57.58003
G1 X3.192 Y53.058 E57.61667
G1 X2.813 Y53.062 E57.63558
G1 X2.125 Y52.871 E57.6712
G1 X1.786 Y52.702 E57.6901
G1 X1.253 Y52.203 E57.72653
G1 X1.033 Y51.895 E57.74541
G1 X0.798 Y51.228 E57.78069
G1 X0.742 Y50.782 E57.80312
G1 X0.742 Y-50.78 E62.87007
G1 X0.855 Y-51.451 E62.90401
G1 X0.986 Y-51.806 E62.92289
G1 X1.41 Y-52.38 E62.9585
G1 X1.69 Y-52.636 E62.97742
G1 X2.349 Y-52.955 E63.01395
G1 X2.716 Y-53.05 E63.03286
G1 X3.192 Y-53.058 E63.05661
G1 X3.799 Y-52.946 E63.08741
G1 X4.438 Y-52.587 E63.12398
G1 X4.725 Y-52.34 E63.14287
G1 X5.118 Y-51.735 E63.17886
G1 X5.275 Y-51.317 E63.20114
G1 X9.959 Y-31.8 E64.20249
G1 X28.54 Y-31.8 E65.1295
G1 X28.705 Y-31.792 E65.13774
G1 X29.443 Y-31.724 E65.17472
G1 X29.771 Y-31.663 E65.19136
G1 X30.477 Y-31.462 E65.22799
G1 X30.787 Y-31.342 E65.24457
G1 X31.451 Y-31.011 E65.28158
G1 X31.732 Y-30.837 E65.29807
