;FLAVOR:Marlin
;TIME:10824
;Filament used: 8.38126m
;Layer height: 0.2
;MINX:-67.07
;MINY:-73.414
;MINZ:0.3
;MAXX:66.801
;MAXY:65.596
;MAXZ:5.9
;TARGET_MACHINE.NAME:Unknown
;POSTPROCESSED
;  [CreateThumbnail]
;Generated with Cura_SteamEngine 5.11.0
;
;

M140 S65
M105
M190 S65
M104 S240
M105
M109 S240
;FLAVOR:Marlin
M82 ;absolute extrusion mode
G21
G90
M82
M107 T0
G28
G92 E0
G0 E3 F200
G92 E0 ; reset extrusion distance
M106 S255 ; Enable cooling fan full speed
G1 X-98 Y0 Z0.4 F3000 ; move to arc start
G3 X0 Y-98 I98 Z0.4 E40 F400 ; lay arc stripe 90deg
G92 E0 ; reset extrusion distance
G4 P500 ; wait for 0.5 sec
G0 Z10 E-1 ; Lift 15mm and retract 1mm filament
G4 P2000 ; wait for 5 sec
G0 Z15
M107 ; Disable cooling fan
G1 X0 Y-85 Z4 E0 F3000 ; get off the bed
M82 ;absolute extrusion mode
G92 E0
G92 E0
G1 F1500 E-6.5
;LAYER_COUNT:29
;LAYER:0
M107
G1 F600 Z2.3
G0 F3600 X0.00 Y0.00 Z2.3
G0 X-11.289 Y54.665
;TYPE:SKIRT
G1 F600 Z0.3
G1 F1500 E0
G1 F1200 X-13.906 Y54.084 E0.10699
G1 X-16.606 Y53.564 E0.21674
G1 X-19.036 Y53.158 E0.31507
G1 X-19.865 Y52.929 E0.34939
G1 X-20.627 Y52.652 E0.38175
G1 X-21.881 Y52.175 E0.4353
G1 X-24.466 Y51.276 E0.54454
G1 X-27.059 Y50.456 E0.65308
G1 X-29.689 Y49.705 E0.76225
G1 X-32.41 Y49.01 E0.87433
G1 X-35.049 Y48.415 E0.9823
G1 X-37.776 Y47.88 E1.09322
G1 X-40.511 Y47.421 E1.20391
G1 X-43.186 Y47.057 E1.31166
G1 X-45.962 Y46.753 E1.42311
G1 X-48.71 Y46.53 E1.53315
G1 X-51.374 Y46.394 E1.63962
G1 X-55.156 Y46.322 E1.79059
G1 X-63.579 Y46.322 E2.12677
G1 X-64.457 Y46.293 E2.16183
G1 X-65.116 Y46.166 E2.18862
G1 X-65.707 Y45.878 E2.21486
G1 X-66.206 Y45.481 E2.24031
G1 X-66.694 Y44.84 E2.27247
G1 X-66.949 Y44.121 E2.30291
G1 X-67.015 Y43.575 E2.32486
G1 X-67.038 Y42.491 E2.36814
G1 X-67.07 Y28.306 E2.93429
G1 X-67.054 Y17.567 E3.36291
G1 X-67.056 Y12.741 E3.55553
G1 X-67.04 Y11.941 E3.58746
G1 X-66.999 Y11.364 E3.61055
G1 X-66.847 Y8.659 E3.71868
G1 X-66.767 Y5.832 E3.83156
G1 X-66.767 Y3.112 E3.94012
G1 X-66.846 Y0.07 E4.06158
G1 X-66.827 Y-.638 E4.08984
G1 X-66.714 Y-1.339 E4.11818
G1 X-66.258 Y-2.239 E4.15845
G1 X-64.598 Y-4.589 E4.27329
G1 X-63.094 Y-6.85 E4.38167
G1 X-61.62 Y-9.21 E4.49272
G1 X-60.272 Y-11.517 E4.59937
G1 X-58.911 Y-13.996 E4.71224
G1 X-57.667 Y-16.421 E4.82102
G1 X-56.494 Y-18.881 E4.92979
G1 X-55.363 Y-21.436 E5.04131
G1 X-54.332 Y-23.953 E5.14987
G1 X-53.351 Y-26.553 E5.26079
G1 X-52.483 Y-29.08 E5.36743
G1 X-51.647 Y-31.747 E5.47898
G1 X-50.895 Y-34.401 E5.58908
G1 X-50.218 Y-37.089 E5.69971
G1 X-49.628 Y-39.74 E5.80811
G1 X-49.032 Y-42.807 E5.93281
G1 X-48.757 Y-43.57 E5.96518
G1 X-48.316 Y-44.164 E5.99471
G1 X-47.911 Y-44.518 E6.01618
G1 X-47.008 Y-45.131 E6.05974
G1 X-44.734 Y-46.716 E6.17037
G1 X-42.571 Y-48.319 E6.27782
G1 X-40.397 Y-50.027 E6.38817
G1 X-38.234 Y-51.826 E6.50045
G1 X-36.2 Y-53.619 E6.60867
G1 X-34.188 Y-55.496 E6.7185
G1 X-32.226 Y-57.433 E6.82854
G1 X-30.307 Y-59.438 E6.93931
G1 X-28.478 Y-61.458 E7.04807
G1 X-26.693 Y-63.549 E7.1578
G1 X-24.951 Y-65.707 E7.26849
G1 X-23.315 Y-67.859 E7.37638
G1 X-21.718 Y-70.087 E7.48579
G1 X-20.267 Y-72.221 E7.58878
G1 X-19.687 Y-72.823 E7.62215
G1 X-19.043 Y-73.182 E7.65158
G1 X-18.494 Y-73.34 E7.67438
G1 X-18.118 Y-73.389 E7.68951
G1 X-1.922 Y-73.414 E8.33593
G1 X12.739 Y-73.383 E8.92108
G1 X13.803 Y-73.367 E8.96355
G1 X14.073 Y-73.318 E8.97451
G1 X14.878 Y-72.962 E9.00964
G1 X15.491 Y-72.448 E9.04157
G1 X17.583 Y-69.762 E9.17745
G1 X19.328 Y-67.656 E9.28661
G1 X21.148 Y-65.581 E9.39677
G1 X23.03 Y-63.552 E9.50723
G1 X24.912 Y-61.635 E9.61445
G1 X26.913 Y-59.712 E9.72521
G1 X28.938 Y-57.873 E9.83439
G1 X31.04 Y-56.07 E9.94492
G1 X33.15 Y-54.359 E10.05334
G1 X35.334 Y-52.691 E10.16302
G1 X37.629 Y-51.037 E10.27593
G1 X39.877 Y-49.512 E10.38435
G1 X42.169 Y-48.049 E10.49288
G1 X44.577 Y-46.607 E10.6049
G1 X47.713 Y-44.857 E10.74824
G1 X48.193 Y-44.506 E10.77197
G1 X48.604 Y-44.02 E10.79737
G1 X48.988 Y-43.287 E10.8304
G1 X49.159 Y-42.3 E10.87038
G1 X49.67 Y-39.569 E10.98127
G1 X50.262 Y-36.837 E11.09284
G1 X50.903 Y-34.236 E11.19976
G1 X51.651 Y-31.523 E11.31208
G1 X52.439 Y-28.959 E11.41914
G1 X53.327 Y-26.331 E11.52986
G1 X54.271 Y-23.779 E11.63846
G1 X55.311 Y-21.199 E11.74948
G1 X56.415 Y-18.665 E11.8598
G1 X57.563 Y-16.216 E11.96775
G1 X58.815 Y-13.738 E12.07856
G1 X60.132 Y-11.304 E12.18902
G1 X61.5 Y-8.936 E12.29817
G1 X62.925 Y-6.624 E12.40656
G1 X64.442 Y-4.313 E12.5169
G1 X65.614 Y-2.649 E12.59813
G1 X66.337 Y-1.574 E12.64984
G1 X66.553 Y-1.11 E12.67026
G1 X66.801 Y-.211 E12.70749
G1 X66.688 Y0.75 E12.74611
G1 X66.465 Y1.339 E12.77124
G1 X65.169 Y3.791 E12.88194
G1 X63.926 Y6.294 E12.99348
G1 X62.788 Y8.76 E13.10187
G1 X61.695 Y11.316 E13.21283
G1 X60.698 Y13.844 E13.32129
G1 X59.765 Y16.419 E13.4306
G1 X58.888 Y19.072 E13.54212
G1 X58.108 Y21.672 E13.65046
G1 X57.384 Y24.359 E13.76153
G1 X56.759 Y26.989 E13.86942
G1 X56.193 Y29.691 E13.97961
G1 X55.706 Y32.397 E14.08934
G1 X55.291 Y35.15 E14.20046
G1 X54.96 Y37.846 E14.30887
G1 X54.701 Y40.614 E14.41983
G1 X54.529 Y43.28 E14.52646
G1 X54.426 Y46.076 E14.63813
G1 X54.401 Y48.289 E14.72646
G1 X54.401 Y62.096 E15.27753
G1 X54.388 Y63 E15.31361
G1 X54.243 Y63.69 E15.34176
G1 X53.929 Y64.329 E15.37017
G1 X53.457 Y64.877 E15.39904
G1 X52.717 Y65.379 E15.43473
G1 X51.756 Y65.596 E15.47405
G1 X48.636 Y65.59 E15.59858
G1 X43.609 Y65.559 E15.79922
G1 X39.723 Y65.519 E15.95432
G1 X36.157 Y65.466 E16.09667
G1 X32.323 Y65.39 E16.24972
G1 X28.086 Y65.261 E16.41891
G1 X24.875 Y65.108 E16.54721
G1 X23.166 Y65.004 E16.61555
G1 X21.096 Y64.844 E16.69841
G1 X19.378 Y64.687 E16.76727
G1 X18.324 Y64.573 E16.80958
G1 X17.129 Y64.415 E16.85769
G1 X16.027 Y64.232 E16.90227
G1 X14.666 Y63.961 E16.95766
G1 X13.963 Y63.804 E16.98641
G1 X13.325 Y63.647 E17.01263
G1 X11.954 Y63.256 E17.06954
G1 X11.075 Y62.917 E17.10714
G1 X10.526 Y62.676 E17.13107
G1 X9.413 Y62.127 E17.1806
G1 X6.928 Y60.941 E17.2905
G1 X4.397 Y59.82 E17.40098
G1 X1.84 Y58.773 E17.51126
G1 X-.677 Y57.824 E17.61862
G1 X-3.31 Y56.919 E17.72974
G1 X-5.945 Y56.094 E17.83995
G1 X-8.547 Y55.358 E17.94787
G1 X-11.289 Y54.665 E18.06075
G0 F3600 X-11.191 Y54.277
G1 F1200 X-13.83 Y53.691 E18.16865
G1 X-16.54 Y53.169 E18.2788
G1 X-18.929 Y52.772 E18.37546
G1 X-19.758 Y52.543 E18.40978
G1 X-20.485 Y52.278 E18.44067
G1 X-21.75 Y51.797 E18.49468
G1 X-24.335 Y50.898 E18.60392
G1 X-26.949 Y50.071 E18.71334
G1 X-29.59 Y49.317 E18.82296
G1 X-32.311 Y48.622 E18.93505
G1 X-34.972 Y48.022 E19.04392
G1 X-37.704 Y47.486 E19.15504
G1 X-40.445 Y47.027 E19.26596
G1 X-43.142 Y46.659 E19.3746
G1 X-45.918 Y46.355 E19.48606
G1 X-48.678 Y46.132 E19.59658
G1 X-51.366 Y45.994 E19.704
G1 X-55.148 Y45.922 E19.85498
G1 X-63.568 Y45.922 E20.19104
G1 X-64.381 Y45.9 E20.2235
G1 X-64.992 Y45.782 E20.24834
G1 X-65.49 Y45.539 E20.27045
G1 X-65.919 Y45.198 E20.29233
G1 X-66.337 Y44.649 E20.31987
G1 X-66.557 Y44.029 E20.34612
G1 X-66.615 Y43.566 E20.36475
G1 X-66.638 Y42.49 E20.4077
G1 X-66.67 Y28.307 E20.97378
G1 X-66.654 Y17.568 E21.4024
G1 X-66.656 Y12.749 E21.59473
G1 X-66.641 Y11.969 E21.62587
G1 X-66.6 Y11.392 E21.64896
G1 X-66.447 Y8.67 E21.75777
G1 X-66.367 Y5.843 E21.87065
G1 X-66.367 Y3.112 E21.97965
G1 X-66.446 Y0.079 E22.10074
G1 X-66.432 Y-.574 E22.12681
G1 X-66.329 Y-1.213 E22.15264
G1 X-65.931 Y-2.008 E22.18813
G1 X-64.271 Y-4.358 E22.30296
G1 X-62.761 Y-6.628 E22.41178
G1 X-61.281 Y-8.998 E22.5233
G1 X-59.921 Y-11.324 E22.63084
G1 X-58.56 Y-13.803 E22.74371
G1 X-57.311 Y-16.238 E22.85293
G1 X-56.128 Y-18.719 E22.96264
G1 X-54.997 Y-21.274 E23.07416
G1 X-53.962 Y-23.801 E23.18315
G1 X-52.977 Y-26.412 E23.29453
G1 X-52.101 Y-28.96 E23.40207
G1 X-51.265 Y-31.627 E23.51362
G1 X-50.51 Y-34.292 E23.62417
G1 X-49.83 Y-36.991 E23.73526
G1 X-49.235 Y-39.664 E23.84456
G1 X-48.639 Y-42.731 E23.96926
G1 X-48.401 Y-43.379 E23.99681
G1 X-48.023 Y-43.889 E24.02215
G1 X-47.686 Y-44.187 E24.0401
G1 X-46.783 Y-44.8 E24.08366
G1 X-44.505 Y-46.388 E24.19449
G1 X-42.324 Y-48.004 E24.30283
G1 X-40.141 Y-49.719 E24.41363
G1 X-37.978 Y-51.518 E24.52592
G1 X-35.935 Y-53.319 E24.63462
G1 X-33.907 Y-55.211 E24.74532
G1 X-31.945 Y-57.148 E24.85536
G1 X-30.018 Y-59.161 E24.96658
G1 X-28.181 Y-61.19 E25.07582
G1 X-26.389 Y-63.289 E25.18597
G1 X-24.64 Y-65.456 E25.29712
G1 X-22.99 Y-67.626 E25.40592
G1 X-21.387 Y-69.862 E25.51573
G1 X-19.936 Y-71.996 E25.61873
G1 X-19.44 Y-72.503 E25.64703
G1 X-18.886 Y-72.811 E25.67233
G1 X-18.442 Y-72.943 E25.69082
G1 X-18.066 Y-72.992 E25.70596
G1 X-1.923 Y-73.014 E26.35026
G1 X12.733 Y-72.983 E26.93521
G1 X13.797 Y-72.967 E26.97768
G1 X13.953 Y-72.933 E26.98406
G1 X14.664 Y-72.619 E27.01508
G1 X15.201 Y-72.169 E27.04304
G1 X17.267 Y-69.516 E27.17725
G1 X19.027 Y-67.392 E27.28734
G1 X20.847 Y-65.317 E27.3975
G1 X22.737 Y-63.28 E27.50841
G1 X24.635 Y-61.347 E27.61653
G1 X26.644 Y-59.416 E27.72775
G1 X28.678 Y-57.569 E27.83741
G1 X30.788 Y-55.759 E27.94836
G1 X32.907 Y-54.041 E28.05724
G1 X35.1 Y-52.366 E28.16738
G1 X37.395 Y-50.712 E28.28029
G1 X39.652 Y-49.181 E28.38914
G1 X41.963 Y-47.706 E28.49856
G1 X44.371 Y-46.264 E28.61058
G1 X47.477 Y-44.534 E28.75248
G1 X47.918 Y-44.212 E28.77428
G1 X48.271 Y-43.794 E28.79611
G1 X48.605 Y-43.157 E28.82482
G1 X48.766 Y-42.226 E28.86253
G1 X49.279 Y-39.484 E28.97387
G1 X49.871 Y-36.752 E29.08544
G1 X50.517 Y-34.13 E29.19322
G1 X51.265 Y-31.417 E29.30554
G1 X52.06 Y-28.831 E29.41352
G1 X52.952 Y-26.192 E29.5247
G1 X53.9 Y-23.629 E29.63377
G1 X54.944 Y-21.039 E29.74522
G1 X56.048 Y-18.505 E29.85554
G1 X57.206 Y-16.036 E29.96439
G1 X58.463 Y-13.548 E30.07564
G1 X59.78 Y-11.114 E30.1861
G1 X61.16 Y-8.726 E30.29618
G1 X62.591 Y-6.405 E30.40501
G1 X64.115 Y-4.083 E30.51586
G1 X65.283 Y-2.425 E30.59681
G1 X65.974 Y-1.405 E30.64598
G1 X66.19 Y-.941 E30.66641
G1 X66.395 Y-.18 E30.69786
G1 X66.297 Y0.653 E30.73134
G1 X66.091 Y1.197 E30.75456
G1 X64.811 Y3.613 E30.86368
G1 X63.568 Y6.116 E30.97522
G1 X62.425 Y8.592 E31.08406
G1 X61.327 Y11.159 E31.1955
G1 X60.326 Y13.697 E31.30439
G1 X59.385 Y16.293 E31.4146
G1 X58.508 Y18.946 E31.52612
G1 X57.725 Y21.557 E31.63492
G1 X56.998 Y24.255 E31.74644
G1 X56.367 Y26.907 E31.85524
G1 X55.801 Y29.609 E31.96543
G1 X55.312 Y32.326 E32.07561
G1 X54.895 Y35.09 E32.18717
G1 X54.563 Y37.797 E32.29603
G1 X54.303 Y40.577 E32.40747
G1 X54.129 Y43.265 E32.51498
G1 X54.026 Y46.061 E32.62665
G1 X54.001 Y48.285 E32.71542
G1 X54.001 Y62.09 E33.2664
G1 X53.989 Y62.957 E33.30101
G1 X53.862 Y63.558 E33.32553
G1 X53.593 Y64.106 E33.34989
G1 X53.189 Y64.575 E33.3746
G1 X52.554 Y65.006 E33.40523
G1 X51.713 Y65.196 E33.43964
G1 X48.638 Y65.19 E33.56237
G1 X43.613 Y65.159 E33.76293
G1 X39.729 Y65.119 E33.91796
G1 X36.165 Y65.066 E34.06022
G1 X32.335 Y64.99 E34.21312
G1 X28.105 Y64.861 E34.38202
G1 X24.899 Y64.709 E34.51013
G1 X23.197 Y64.605 E34.57818
G1 X21.133 Y64.446 E34.66081
G1 X19.421 Y64.289 E34.72942
G1 X18.376 Y64.176 E34.77137
G1 X17.194 Y64.02 E34.81896
G1 X16.105 Y63.84 E34.86301
G1 X14.753 Y63.571 E34.91803
G1 X14.059 Y63.416 E34.94641
G1 X13.435 Y63.262 E34.97207
G1 X12.064 Y62.871 E35.02897
G1 X11.236 Y62.551 E35.0644
G1 X10.703 Y62.317 E35.08763
G1 X9.59 Y61.768 E35.13716
G1 X7.09 Y60.575 E35.24772
G1 X4.559 Y59.454 E35.3582
G1 X1.992 Y58.403 E35.46891
G1 X-.547 Y57.446 E35.57721
G1 X-3.19 Y56.537 E35.68876
G1 X-5.825 Y55.712 E35.79896
G1 X-8.449 Y54.97 E35.9078
G1 X-11.191 Y54.277 E36.02068
G0 F3600 X-11.093 Y53.889
G1 F1200 X-13.754 Y53.298 E36.12948
G1 X-16.474 Y52.774 E36.24003
G1 X-18.863 Y52.377 E36.33669
G1 X-19.621 Y52.167 E36.36808
G1 X-20.343 Y51.904 E36.39875
G1 X-21.619 Y51.419 E36.45323
G1 X-24.204 Y50.52 E36.56247
G1 X-26.839 Y49.686 E36.67278
G1 X-29.491 Y48.929 E36.78285
G1 X-32.212 Y48.234 E36.89494
G1 X-34.895 Y47.629 E37.00471
G1 X-37.633 Y47.092 E37.11608
G1 X-40.379 Y46.633 E37.2272
G1 X-43.098 Y46.261 E37.33673
G1 X-45.874 Y45.957 E37.44819
G1 X-48.646 Y45.734 E37.55918
G1 X-51.358 Y45.594 E37.66757
G1 X-55.14 Y45.522 E37.81854
G1 X-63.56 Y45.522 E38.1546
G1 X-64.305 Y45.507 E38.18434
G1 X-64.864 Y45.399 E38.20707
G1 X-65.315 Y45.179 E38.22709
G1 X-65.631 Y44.916 E38.2435
G1 X-65.98 Y44.458 E38.26648
G1 X-66.165 Y43.937 E38.28855
G1 X-66.215 Y43.557 E38.30385
G1 X-66.238 Y42.489 E38.34648
G1 X-66.27 Y28.308 E38.91248
G1 X-66.254 Y17.569 E39.3411
G1 X-66.256 Y12.756 E39.53319
G1 X-66.242 Y11.997 E39.56349
G1 X-66.201 Y11.42 E39.58658
G1 X-66.047 Y8.681 E39.69607
G1 X-65.967 Y5.854 E39.80895
G1 X-65.967 Y3.112 E39.91839
G1 X-66.046 Y0.085 E40.03924
G1 X-66.037 Y-.51 E40.06299
G1 X-65.944 Y-1.088 E40.08636
G1 X-65.604 Y-1.777 E40.11703
G1 X-63.944 Y-4.127 E40.23186
G1 X-62.428 Y-6.406 E40.34111
G1 X-60.942 Y-8.786 E40.45309
G1 X-59.57 Y-11.131 E40.56153
G1 X-58.209 Y-13.61 E40.6744
G1 X-56.955 Y-16.055 E40.78407
G1 X-55.762 Y-18.557 E40.8947
G1 X-54.631 Y-21.112 E41.00622
G1 X-53.592 Y-23.649 E41.11564
G1 X-52.603 Y-26.271 E41.22749
G1 X-51.719 Y-28.84 E41.33593
G1 X-50.883 Y-31.507 E41.44748
G1 X-50.125 Y-34.183 E41.55849
G1 X-49.442 Y-36.893 E41.67003
G1 X-48.842 Y-39.588 E41.78023
G1 X-48.246 Y-42.655 E41.90493
G1 X-48.046 Y-43.187 E41.92761
G1 X-47.756 Y-43.591 E41.94746
G1 X-47.461 Y-43.856 E41.96329
G1 X-46.558 Y-44.469 E42.00685
G1 X-44.276 Y-46.06 E42.11788
G1 X-42.077 Y-47.689 E42.2271
G1 X-39.885 Y-49.411 E42.33836
G1 X-37.722 Y-51.21 E42.45065
G1 X-35.67 Y-53.019 E42.55983
G1 X-33.626 Y-54.926 E42.6714
G1 X-31.664 Y-56.863 E42.78144
G1 X-29.729 Y-58.884 E42.89311
G1 X-27.884 Y-60.922 E43.00284
G1 X-26.085 Y-63.029 E43.11341
G1 X-24.329 Y-65.205 E43.22501
G1 X-22.665 Y-67.393 E43.33473
G1 X-21.056 Y-69.637 E43.44493
G1 X-19.605 Y-71.771 E43.54793
G1 X-19.195 Y-72.182 E43.5711
G1 X-18.768 Y-72.429 E43.59079
G1 X-18.39 Y-72.546 E43.60658
G1 X-18.014 Y-72.595 E43.62172
G1 X-1.924 Y-72.614 E44.2639
G1 X12.727 Y-72.583 E44.84866
G1 X13.791 Y-72.567 E44.89113
G1 X14.45 Y-72.276 E44.91988
G1 X14.911 Y-71.89 E44.94388
G1 X16.951 Y-69.27 E45.07641
G1 X18.726 Y-67.128 E45.18744
G1 X20.546 Y-65.053 E45.2976
G1 X22.445 Y-63.007 E45.40901
G1 X24.358 Y-61.059 E45.51798
G1 X26.375 Y-59.12 E45.62965
G1 X28.418 Y-57.265 E45.73979
G1 X30.536 Y-55.448 E45.85117
G1 X32.664 Y-53.723 E45.9605
G1 X34.866 Y-52.041 E46.07109
G1 X37.161 Y-50.387 E46.184
G1 X39.427 Y-48.85 E46.29329
G1 X41.757 Y-47.363 E46.40361
G1 X44.165 Y-45.921 E46.51563
G1 X46.779 Y-44.46 E46.63515
G1 X47.241 Y-44.211 E46.6561
G1 X47.646 Y-43.915 E46.67612
G1 X47.917 Y-43.608 E46.69246
G1 X48.222 Y-43.027 E46.71865
G1 X48.373 Y-42.152 E46.75409
G1 X48.888 Y-39.399 E46.86588
G1 X49.48 Y-36.667 E46.97745
G1 X50.131 Y-34.024 E47.08609
G1 X50.879 Y-31.311 E47.19841
G1 X51.681 Y-28.703 E47.30731
G1 X52.577 Y-26.053 E47.41896
G1 X53.529 Y-23.479 E47.52849
G1 X54.577 Y-20.879 E47.64038
G1 X55.681 Y-18.345 E47.7507
G1 X56.849 Y-15.856 E47.86043
G1 X58.111 Y-13.358 E47.97214
G1 X59.428 Y-10.924 E48.08259
G1 X60.82 Y-8.516 E48.1936
G1 X62.257 Y-6.186 E48.30286
G1 X63.788 Y-3.853 E48.41424
G1 X64.953 Y-2.2 E48.49495
G1 X65.614 Y-1.231 E48.54177
G1 X65.804 Y-.837 E48.55922
G1 X65.989 Y-.15 E48.58762
G1 X65.906 Y0.556 E48.61599
G1 X65.717 Y1.055 E48.63729
G1 X64.458 Y3.425 E48.7444
G1 X63.21 Y5.938 E48.85639
G1 X62.062 Y8.424 E48.96568
G1 X60.959 Y11.002 E49.07759
G1 X59.954 Y13.55 E49.18691
G1 X59.005 Y16.167 E49.29802
G1 X58.128 Y18.82 E49.40954
G1 X57.342 Y21.442 E49.51879
G1 X56.612 Y24.151 E49.63077
G1 X55.975 Y26.825 E49.74048
G1 X55.409 Y29.527 E49.85067
G1 X54.918 Y32.255 E49.9613
G1 X54.499 Y35.03 E50.07331
G1 X54.166 Y37.748 E50.1826
G1 X53.905 Y40.54 E50.29452
G1 X53.729 Y43.25 E50.40291
