;FLAVOR:Marlin
;TIME:1450
;Filament used: 1.63247m
;Layer height: 0.24
;MINX:-14
;MINY:-62.805
;MINZ:0.24
;MAXX:24
;MAXY:-24.805
;MAXZ:30
;TARGET_MACHINE.NAME:Unknown
;Generated with Cura_SteamEngine 5.10.1
M140 S60
M105
M190 S60
M104 S210
M105
M109 S210
;FLAVOR:Marlin
M82 ;absolute extrusion mode
G21
G90
M82
M107 T0
G28
G92 E0
G0 E3 F200
G92 E0 ; reset extrusion distance
M106 S255 ; Enable cooling fan full speed
G1 X-98 Y0 Z0.4 F3000 ; move to arc start
G3 X0 Y-98 I98 Z0.4 E40 F400 ; lay arc stripe 90deg
G92 E0 ; reset extrusion distance
G4 P500 ; wait for 0.5 sec
G0 Z10 E-1 ; Lift 15mm and retract 1mm filament
G4 P2000 ; wait for 5 sec
G0 Z15
M107 ; Disable cooling fan
G1 X0 Y-85 Z4 E0 F3000 ; get off the bed
M82 ;absolute extrusion mode
G92 E0
G92 E0
G1 F1500 E-1
;LAYER_COUNT:125
;LAYER:0
M106 S102
G0 F3600 X2.423 Y-24.98 Z0.24
;TYPE:SKIRT
G1 F3600 E0.71493
G1 F1200 X1.378 Y-25.153 E0.75341
G1 X-0.011 Y-25.479 E0.80525
G1 X-1.025 Y-25.787 E0.84376
G1 X-2.338 Y-26.283 E0.89476
G1 X-3.494 Y-26.808 E0.94089
G1 X-4.429 Y-27.308 E0.97941
G1 X-5.528 Y-27.989 E1.02639
G1 X-6.625 Y-28.778 E1.07549
G1 X-7.605 Y-29.586 E1.12164
G1 X-8.378 Y-30.311 E1.16015
G1 X-9.335 Y-31.336 E1.2111
G1 X-10.137 Y-32.322 E1.25728
G1 X-10.854 Y-33.333 E1.30232
G1 X-11.42 Y-34.244 E1.34129
G1 X-12.063 Y-35.449 E1.39091
G1 X-12.592 Y-36.625 E1.43777
G1 X-12.983 Y-37.667 E1.47821
G1 X-13.38 Y-38.991 E1.52843
G1 X-13.655 Y-40.197 E1.57338
G1 X-13.827 Y-41.242 E1.61186
G1 X-13.966 Y-42.669 E1.66395
G1 X-14 Y-43.902 E1.70877
G1 X-13.965 Y-44.963 E1.74734
G1 X-13.825 Y-46.381 E1.79912
G1 X-13.653 Y-47.427 E1.83763
G1 X-13.327 Y-48.817 E1.88951
G1 X-13.019 Y-49.83 E1.92798
G1 X-12.512 Y-51.171 E1.98007
G1 X-11.997 Y-52.298 E2.02509
G1 X-11.485 Y-53.256 E2.06456
G1 X-10.832 Y-54.311 E2.10965
G1 X-10.012 Y-55.453 E2.16073
G1 X-9.254 Y-56.372 E2.20401
G1 X-8.476 Y-57.201 E2.24532
G1 X-7.449 Y-58.159 E2.29635
G1 X-6.608 Y-58.847 E2.33583
G1 X-5.494 Y-59.644 E2.3856
G1 X-4.451 Y-60.29 E2.43018
G1 X-3.458 Y-60.82 E2.47108
G1 X-2.196 Y-61.39 E2.52139
G1 X-1.01 Y-61.828 E2.56733
G1 X0.181 Y-62.185 E2.61251
G1 X1.333 Y-62.45 E2.65546
G1 X2.432 Y-62.633 E2.69594
G1 X3.863 Y-62.771 E2.74818
G1 X5.097 Y-62.805 E2.79303
G1 X6.156 Y-62.77 E2.83153
G1 X7.576 Y-62.631 E2.88338
G1 X8.621 Y-62.458 E2.92186
G1 X10.011 Y-62.132 E2.97374
G1 X11.025 Y-61.824 E3.01225
G1 X12.37 Y-61.318 E3.06446
G1 X13.493 Y-60.802 E3.10937
G1 X14.451 Y-60.29 E3.14883
G1 X15.505 Y-59.637 E3.19389
G1 X16.646 Y-58.817 E3.24494
G1 X17.565 Y-58.059 E3.28822
G1 X18.415 Y-57.262 E3.33056
G1 X19.317 Y-56.295 E3.37861
G1 X20.137 Y-55.288 E3.4258
G1 X20.853 Y-54.278 E3.47078
G1 X21.432 Y-53.344 E3.51071
G1 X22.087 Y-52.116 E3.56128
G1 X22.574 Y-51.033 E3.60443
G1 X22.983 Y-49.943 E3.64673
G1 X23.359 Y-48.7 E3.69391
G1 X23.654 Y-47.415 E3.74182
G1 X23.827 Y-46.369 E3.78034
G1 X23.966 Y-44.942 E3.83244
G1 X24 Y-43.708 E3.87729
G1 X23.965 Y-42.648 E3.91583
G1 X23.831 Y-41.277 E3.96588
G1 X23.617 Y-40.002 E4.01285
G1 X23.376 Y-38.969 E4.0514
G1 X23.001 Y-37.727 E4.09854
G1 X22.512 Y-36.44 E4.14856
G1 X21.997 Y-35.313 E4.19358
G1 X21.484 Y-34.354 E4.2331
G1 X20.846 Y-33.323 E4.27716
G1 X20.012 Y-32.157 E4.32924
G1 X19.287 Y-31.278 E4.37065
G1 X18.438 Y-30.373 E4.41573
G1 X17.489 Y-29.488 E4.46288
G1 X16.483 Y-28.669 E4.51002
G1 X15.472 Y-27.952 E4.55505
G1 X14.517 Y-27.36 E4.59588
G1 X13.315 Y-26.718 E4.64539
G1 X12.348 Y-26.281 E4.68395
G1 X11.084 Y-25.807 E4.733
G1 X9.814 Y-25.426 E4.78118
G1 X8.609 Y-25.151 E4.82609
G1 X7.562 Y-24.978 E4.86465
G1 X6.139 Y-24.84 E4.91659
G1 X4.895 Y-24.805 E4.96181
G1 X3.836 Y-24.841 E5.00031
G1 X2.423 Y-24.98 E5.0519
G0 F3600 X2.488 Y-25.375
G1 F1200 X1.443 Y-25.548 E5.09039
G1 X0.105 Y-25.862 E5.14033
G1 X-.909 Y-26.17 E5.17883
G1 X-2.196 Y-26.657 E5.22883
G1 X-3.305 Y-27.161 E5.27309
G1 X-4.24 Y-27.661 E5.31162
G1 X-5.294 Y-28.314 E5.35667
G1 X-6.391 Y-29.103 E5.40577
G1 X-7.331 Y-29.878 E5.45003
G1 X-8.104 Y-30.603 E5.48854
G1 X-9.025 Y-31.589 E5.53757
G1 X-9.811 Y-32.554 E5.58279
G1 X-10.514 Y-33.544 E5.62691
G1 X-11.08 Y-34.455 E5.66588
G1 X-11.698 Y-35.613 E5.71357
G1 X-12.217 Y-36.766 E5.75951
G1 X-12.608 Y-37.808 E5.79995
G1 X-12.99 Y-39.08 E5.84821
G1 X-13.26 Y-40.262 E5.89226
G1 X-13.432 Y-41.307 E5.93074
G1 X-13.566 Y-42.68 E5.98087
G1 X-13.6 Y-43.889 E6.02482
G1 X-13.565 Y-44.95 E6.06339
G1 X-13.43 Y-46.316 E6.11326
G1 X-13.258 Y-47.362 E6.15178
G1 X-12.944 Y-48.701 E6.20175
G1 X-12.636 Y-49.714 E6.24022
G1 X-12.148 Y-51.005 E6.29037
G1 X-11.644 Y-52.109 E6.33447
G1 X-11.132 Y-53.067 E6.37394
G1 X-10.492 Y-54.1 E6.41809
G1 X-9.703 Y-55.198 E6.46722
G1 X-8.945 Y-56.117 E6.5105
G1 X-8.203 Y-56.909 E6.54994
G1 X-7.196 Y-57.849 E6.59999
G1 X-6.355 Y-58.537 E6.63947
G1 X-5.261 Y-59.319 E6.68833
G1 X-4.262 Y-59.937 E6.73101
G1 X-3.293 Y-60.455 E6.77094
G1 X-2.031 Y-61.025 E6.82125
G1 X-.895 Y-61.445 E6.86526
G1 X0.271 Y-61.795 E6.90949
G1 X1.399 Y-62.055 E6.95156
G1 X2.498 Y-62.238 E6.99204
G1 X3.874 Y-62.371 E7.04227
G1 X5.084 Y-62.405 E7.08625
G1 X6.143 Y-62.37 E7.12475
G1 X7.511 Y-62.236 E7.17469
G1 X8.556 Y-62.063 E7.21318
G1 X9.895 Y-61.749 E7.26315
G1 X10.909 Y-61.441 E7.30166
G1 X12.203 Y-60.954 E7.3519
G1 X13.304 Y-60.449 E7.39591
G1 X14.262 Y-59.937 E7.43538
G1 X15.272 Y-59.312 E7.47853
G1 X16.391 Y-58.508 E7.5286
G1 X17.31 Y-57.75 E7.57188
G1 X18.122 Y-56.989 E7.61232
G1 X19.024 Y-56.022 E7.66037
G1 X19.811 Y-55.056 E7.70564
G1 X20.513 Y-54.067 E7.74971
G1 X21.092 Y-53.133 E7.78964
G1 X21.722 Y-51.952 E7.83827
G1 X22.199 Y-50.892 E7.88051
G1 X22.608 Y-49.802 E7.92281
G1 X22.976 Y-48.584 E7.96904
G1 X23.259 Y-47.35 E8.01504
G1 X23.432 Y-46.304 E8.05357
G1 X23.566 Y-44.931 E8.10369
G1 X23.6 Y-43.721 E8.14767
G1 X23.565 Y-42.661 E8.18621
G1 X23.436 Y-41.343 E8.23433
G1 X23.227 Y-40.093 E8.28038
G1 X22.986 Y-39.06 E8.31892
G1 X22.627 Y-37.869 E8.36412
G1 X22.148 Y-36.606 E8.4132
G1 X21.644 Y-35.502 E8.4573
G1 X21.131 Y-34.543 E8.49681
G1 X20.506 Y-33.534 E8.53994
G1 X19.703 Y-32.412 E8.59007
G1 X18.978 Y-31.533 E8.63147
G1 X18.165 Y-30.666 E8.67466
G1 X17.216 Y-29.781 E8.72181
G1 X16.251 Y-28.995 E8.76703
G1 X15.261 Y-28.292 E8.81115
G1 X14.306 Y-27.7 E8.85197
G1 X13.15 Y-27.083 E8.89959
G1 X12.183 Y-26.646 E8.93814
G1 X10.969 Y-26.19 E8.98526
G1 X9.725 Y-25.816 E9.03246
G1 X8.544 Y-25.546 E9.07648
G1 X7.497 Y-25.373 E9.11504
G1 X6.128 Y-25.24 E9.16502
G1 X4.909 Y-25.205 E9.20933
G1 X3.85 Y-25.241 E9.24783
G1 X2.488 Y-25.375 E9.29756
G0 F3600 X2.553 Y-25.77
G1 F1200 X1.508 Y-25.943 E9.33604
G1 X0.221 Y-26.245 E9.38408
G1 X-.793 Y-26.553 E9.42258
G1 X-2.031 Y-27.021 E9.47067
G1 X-3.116 Y-27.514 E9.51397
G1 X-4.051 Y-28.014 E9.5525
G1 X-5.061 Y-28.639 E9.59566
G1 X-6.137 Y-29.412 E9.6438
G1 X-7.057 Y-30.17 E9.68711
G1 X-7.83 Y-30.895 E9.72562
G1 X-8.715 Y-31.842 E9.77271
G1 X-9.485 Y-32.786 E9.81698
G1 X-10.174 Y-33.755 E9.86018
G1 X-10.74 Y-34.666 E9.89915
G1 X-11.333 Y-35.777 E9.94491
G1 X-11.842 Y-36.907 E9.98994
G1 X-12.233 Y-37.949 E10.03038
G1 X-12.6 Y-39.169 E10.07667
G1 X-12.865 Y-40.327 E10.11983
G1 X-13.037 Y-41.372 E10.15831
G1 X-13.166 Y-42.691 E10.20647
G1 X-13.2 Y-43.876 E10.24954
G1 X-13.165 Y-44.937 E10.28811
G1 X-13.035 Y-46.251 E10.33609
G1 X-12.863 Y-47.297 E10.37461
G1 X-12.561 Y-48.585 E10.42268
G1 X-12.253 Y-49.598 E10.46115
G1 X-11.784 Y-50.839 E10.50935
G1 X-11.291 Y-51.92 E10.55252
G1 X-10.779 Y-52.878 E10.59199
G1 X-10.167 Y-53.867 E10.63425
G1 X-9.394 Y-54.943 E10.68239
G1 X-8.636 Y-55.862 E10.72567
G1 X-7.911 Y-56.635 E10.76418
G1 X-6.943 Y-57.539 E10.81231
G1 X-6.102 Y-58.227 E10.85179
G1 X-5.05 Y-58.979 E10.89877
G1 X-4.073 Y-59.584 E10.94053
G1 X-3.104 Y-60.102 E10.98045
G1 X-1.892 Y-60.65 E11.02878
G1 X-.78 Y-61.062 E11.07187
G1 X0.361 Y-61.405 E11.11516
G1 X1.465 Y-61.66 E11.15633
G1 X2.564 Y-61.843 E11.19681
G1 X3.885 Y-61.971 E11.24504
G1 X5.071 Y-62.005 E11.28815
G1 X6.13 Y-61.97 E11.32665
G1 X7.446 Y-61.841 E11.37469
G1 X8.491 Y-61.668 E11.41318
G1 X9.779 Y-61.366 E11.46125
G1 X10.793 Y-61.058 E11.49975
G1 X12.036 Y-60.59 E11.54801
G1 X13.115 Y-60.096 E11.59113
G1 X14.073 Y-59.584 E11.6306
G1 X15.061 Y-58.972 E11.67283
G1 X16.137 Y-58.199 E11.72097
G1 X17.036 Y-57.458 E11.7633
G1 X17.848 Y-56.697 E11.80374
G1 X18.714 Y-55.769 E11.84986
G1 X19.485 Y-54.824 E11.89417
G1 X20.173 Y-53.856 E11.93732
G1 X20.752 Y-52.922 E11.97725
G1 X21.357 Y-51.788 E12.02395
G1 X21.824 Y-50.751 E12.06528
G1 X22.233 Y-49.661 E12.10758
G1 X22.593 Y-48.468 E12.15286
G1 X22.864 Y-47.285 E12.19695
G1 X23.037 Y-46.239 E12.23548
G1 X23.166 Y-44.92 E12.28363
G1 X23.2 Y-43.734 E12.32674
G1 X23.165 Y-42.674 E12.36528
G1 X23.038 Y-41.382 E12.41245
G1 X22.837 Y-40.184 E12.45659
G1 X22.596 Y-39.151 E12.49513
G1 X22.244 Y-37.985 E12.53938
G1 X21.784 Y-36.772 E12.58652
G1 X21.291 Y-35.691 E12.62969
G1 X20.778 Y-34.732 E12.66921
G1 X20.166 Y-33.745 E12.71141
G1 X19.394 Y-32.667 E12.75958
G1 X18.669 Y-31.788 E12.80099
G1 X17.892 Y-30.958 E12.8423
G1 X16.963 Y-30.091 E12.88847
G1 X16.019 Y-29.321 E12.93273
G1 X15.05 Y-28.632 E12.97593
G1 X14.117 Y-28.053 E13.01583
G1 X12.985 Y-27.448 E13.06247
G1 X12.018 Y-27.011 E13.10103
G1 X10.829 Y-26.565 E13.14717
G1 X9.636 Y-26.206 E13.19243
G1 X8.479 Y-25.941 E13.23556
G1 X7.432 Y-25.768 E13.27412
G1 X6.116 Y-25.64 E13.32216
G1 X4.923 Y-25.605 E13.36553
G1 X3.864 Y-25.641 E13.40403
G1 X2.553 Y-25.77 E13.4519
G0 F3600 X2.618 Y-26.165
G1 F1200 X1.573 Y-26.338 E13.49038
G1 X0.337 Y-26.628 E13.53651
G1 X-.677 Y-26.936 E13.57502
G1 X-1.866 Y-27.385 E13.6212
G1 X-2.927 Y-27.867 E13.66354
G1 X-3.862 Y-28.367 E13.70207
G1 X-4.85 Y-28.979 E13.7443
G1 X-5.883 Y-29.721 E13.79051
G1 X-6.783 Y-30.462 E13.83287
G1 X-7.556 Y-31.187 E13.87138
G1 X-8.405 Y-32.095 E13.91654
G1 X-9.159 Y-33.018 E13.95985
G1 X-9.834 Y-33.966 E14.00213
G1 X-10.4 Y-34.877 E14.0411
G1 X-10.968 Y-35.941 E14.08493
G1 X-11.467 Y-37.048 E14.12905
G1 X-11.858 Y-38.09 E14.16949
G1 X-12.21 Y-39.258 E14.21381
G1 X-12.47 Y-40.392 E14.25608
G1 X-12.642 Y-41.437 E14.29457
G1 X-12.766 Y-42.703 E14.34079
G1 X-12.8 Y-43.863 E14.38295
G1 X-12.765 Y-44.924 E14.42153
G1 X-12.64 Y-46.186 E14.4676
G1 X-12.468 Y-47.232 E14.50612
G1 X-12.178 Y-48.469 E14.55229
G1 X-11.87 Y-49.482 E14.59076
G1 X-11.42 Y-50.673 E14.63702
G1 X-10.938 Y-51.731 E14.67926
G1 X-10.426 Y-52.689 E14.71873
G1 X-9.827 Y-53.656 E14.76006
G1 X-9.085 Y-54.689 E14.80627
G1 X-8.344 Y-55.588 E14.84861
G1 X-7.619 Y-56.361 E14.88711
G1 X-6.69 Y-57.229 E14.93331
G1 X-5.849 Y-57.917 E14.97279
G1 X-4.839 Y-58.639 E15.0179
G1 X-3.884 Y-59.231 E15.05873
G1 X-2.915 Y-59.749 E15.09865
G1 X-1.753 Y-60.275 E15.145
G1 X-.665 Y-60.679 E15.18717
G1 X0.451 Y-61.015 E15.22951
G1 X1.531 Y-61.265 E15.26979
G1 X2.63 Y-61.448 E15.31028
G1 X3.897 Y-61.571 E15.35653
G1 X5.058 Y-61.605 E15.39873
G1 X6.117 Y-61.57 E15.43723
G1 X7.381 Y-61.446 E15.48338
G1 X8.426 Y-61.273 E15.52187
G1 X9.663 Y-60.983 E15.56803
G1 X10.677 Y-60.675 E15.60654
G1 X11.87 Y-60.226 E15.65285
G1 X12.926 Y-59.743 E15.69505
G1 X13.884 Y-59.231 E15.73451
G1 X14.85 Y-58.632 E15.77581
G1 X15.883 Y-57.89 E15.82203
G1 X16.762 Y-57.166 E15.86341
G1 X17.574 Y-56.405 E15.90384
G1 X18.404 Y-55.516 E15.94803
G1 X19.159 Y-54.592 E15.99139
G1 X19.833 Y-53.645 E16.03362
G1 X20.412 Y-52.711 E16.07355
G1 X20.992 Y-51.624 E16.11832
G1 X21.449 Y-50.61 E16.15873
G1 X21.858 Y-49.52 E16.20103
G1 X22.203 Y-48.378 E16.24438
G1 X22.469 Y-47.22 E16.28755
G1 X22.642 Y-46.174 E16.32608
G1 X22.766 Y-44.908 E16.3723
G1 X22.8 Y-43.747 E16.4145
G1 X22.765 Y-42.687 E16.45303
G1 X22.643 Y-41.448 E16.49827
G1 X22.447 Y-40.275 E16.54148
G1 X22.206 Y-39.242 E16.58003
G1 X21.87 Y-38.127 E16.62234
G1 X21.42 Y-36.938 E16.66853
G1 X20.938 Y-35.88 E16.71078
G1 X20.425 Y-34.921 E16.75029
G1 X19.826 Y-33.956 E16.79156
G1 X19.085 Y-32.922 E16.83778
G1 X18.36 Y-32.043 E16.87918
G1 X17.6 Y-31.232 E16.91957
G1 X16.71 Y-30.401 E16.96381
G1 X15.787 Y-29.647 E17.00712
G1 X14.839 Y-28.972 E17.0494
G1 X13.906 Y-28.393 E17.0893
G1 X12.82 Y-27.813 E17.13403
G1 X11.853 Y-27.376 E17.17259
G1 X10.689 Y-26.94 E17.21776
G1 X9.547 Y-26.596 E17.26109
G1 X8.414 Y-26.336 E17.30333
G1 X7.367 Y-26.163 E17.34189
G1 X6.104 Y-26.04 E17.388
G1 X4.937 Y-26.005 E17.43042
G1 X3.878 Y-26.041 E17.46892
G1 X2.618 Y-26.165 E17.51492
G0 F3600 X2.683 Y-26.56
G1 F1200 X1.638 Y-26.733 E17.55341
G1 X0.453 Y-27.011 E17.59764
G1 X-.561 Y-27.319 E17.63614
G1 X-1.701 Y-27.749 E17.68041
G1 X-2.738 Y-28.22 E17.7218
G1 X-3.673 Y-28.72 E17.76032
G1 X-4.639 Y-29.319 E17.80162
G1 X-5.629 Y-30.03 E17.84591
G1 X-6.509 Y-30.754 E17.88731
G1 X-7.282 Y-31.479 E17.92582
G1 X-8.095 Y-32.348 E17.96906
G1 X-8.833 Y-33.25 E18.01141
G1 X-9.494 Y-34.177 E18.05278
G1 X-10.06 Y-35.088 E18.09175
G1 X-10.603 Y-36.105 E18.13364
G1 X-11.092 Y-37.189 E18.17684
G1 X-11.483 Y-38.231 E18.21728
G1 X-11.82 Y-39.348 E18.25968
G1 X-12.075 Y-40.457 E18.30102
G1 X-12.247 Y-41.502 E18.3395
G1 X-12.366 Y-42.715 E18.38379
G1 X-12.4 Y-43.85 E18.42505
G1 X-12.365 Y-44.911 E18.46362
G1 X-12.245 Y-46.121 E18.5078
G1 X-12.073 Y-47.167 E18.54632
G1 X-11.795 Y-48.353 E18.59058
G1 X-11.487 Y-49.366 E18.62905
G1 X-11.056 Y-50.507 E18.67337
G1 X-10.585 Y-51.542 E18.71469
G1 X-10.073 Y-52.5 E18.75416
G1 X-9.487 Y-53.445 E18.79456
G1 X-8.776 Y-54.435 E18.83885
G1 X-8.052 Y-55.314 E18.88022
G1 X-7.327 Y-56.087 E18.91873
G1 X-6.437 Y-56.919 E18.963
G1 X-5.596 Y-57.607 E19.00248
G1 X-4.628 Y-58.299 E19.04571
G1 X-3.695 Y-58.878 E19.08561
G1 X-2.726 Y-59.396 E19.12554
G1 X-1.613 Y-59.9 E19.16993
G1 X-.549 Y-60.296 E19.21118
G1 X0.541 Y-60.625 E19.25255
G1 X1.597 Y-60.87 E19.29194
G1 X2.696 Y-61.053 E19.33242
G1 X3.909 Y-61.171 E19.3767
G1 X5.045 Y-61.205 E19.418
G1 X6.104 Y-61.17 E19.4565
G1 X7.316 Y-61.051 E19.50075
G1 X8.361 Y-60.878 E19.53924
G1 X9.547 Y-60.6 E19.5835
G1 X10.561 Y-60.292 E19.622
G1 X11.704 Y-59.862 E19.66638
G1 X12.737 Y-59.39 E19.70764
G1 X13.695 Y-58.878 E19.74711
G1 X14.639 Y-58.292 E19.78748
G1 X15.629 Y-57.581 E19.83177
G1 X16.488 Y-56.874 E19.87219
G1 X17.3 Y-56.113 E19.91263
G1 X18.094 Y-55.263 E19.95489
G1 X18.833 Y-54.36 E19.99729
G1 X19.493 Y-53.434 E20.03861
G1 X20.072 Y-52.5 E20.07854
G1 X20.627 Y-51.46 E20.12137
G1 X21.074 Y-50.469 E20.16087
G1 X21.483 Y-49.379 E20.20317
G1 X21.82 Y-48.262 E20.24557
G1 X22.074 Y-47.155 E20.28683
G1 X22.247 Y-46.109 E20.32536
G1 X22.366 Y-44.896 E20.36964
G1 X22.4 Y-43.76 E20.41094
G1 X22.365 Y-42.7 E20.44947
G1 X22.245 Y-41.487 E20.49376
G1 X22.057 Y-40.366 E20.53506
G1 X21.816 Y-39.333 E20.57361
G1 X21.487 Y-38.243 E20.61498
G1 X21.056 Y-37.104 E20.65922
G1 X20.585 Y-36.069 E20.70054
G1 X20.072 Y-35.11 E20.74006
G1 X19.486 Y-34.167 E20.7804
G1 X18.776 Y-33.176 E20.8247
G1 X18.068 Y-32.317 E20.86514
G1 X17.308 Y-31.506 E20.90553
G1 X16.457 Y-30.711 E20.94784
G1 X15.555 Y-29.973 E20.99019
G1 X14.628 Y-29.312 E21.03156
G1 X13.695 Y-28.733 E21.07146
G1 X12.655 Y-28.178 E21.11429
G1 X11.688 Y-27.741 E21.15285
G1 X10.549 Y-27.315 E21.19703
G1 X9.457 Y-26.986 E21.23847
G1 X8.349 Y-26.731 E21.27978
G1 X7.302 Y-26.558 E21.31834
G1 X6.092 Y-26.44 E21.36251
G1 X4.951 Y-26.405 E21.40399
G1 X3.892 Y-26.441 E21.44249
G1 X2.683 Y-26.56 E21.48663
G0 F3600 X2.748 Y-26.955
G1 F1200 X1.703 Y-27.128 E21.52512
G1 X0.569 Y-27.394 E21.56744
G1 X-.445 Y-27.702 E21.60595
G1 X-1.536 Y-28.113 E21.64831
G1 X-2.549 Y-28.573 E21.68874
G1 X-3.484 Y-29.073 E21.72726
G1 X-4.428 Y-29.659 E21.76763
G1 X-5.375 Y-30.339 E21.80999
G1 X-6.235 Y-31.046 E21.85045
G1 X-7.008 Y-31.771 E21.88895
G1 X-7.786 Y-32.602 E21.93032
G1 X-8.507 Y-33.482 E21.97165
G1 X-9.154 Y-34.388 E22.0121
