;FLAVOR:Marlin
;TIME:1273
;Filament used: 1.88247m
;Layer height: 0.1
;MINX:-21.465
;MINY:-85.561
;MINZ:0.2
;MAXX:31.565
;MAXY:-32.504
;MAXZ:9.32
;TARGET_MACHINE.NAME:Unknown
;Generated with Cura_SteamEngine 5.8.1
M140 S50
M105
M190 S50
M104 S230
M105
M109 S230
M82 ;absolute extrusion mode
;FLAVOR:Marlin
M82 ;absolute extrusion mode
G21
G90
M82
M107 T0
G28
G92 E0
G0 E3 F200
G92 E0 ; reset extrusion distance
M106 S255 ; Enable cooling fan full speed
G1 X-98 Y0 Z0.4 F3000 ; move to arc start
G3 X0 Y-98 I98 Z0.4 E40 F400 ; lay arc stripe 90deg
G92 E0 ; reset extrusion distance
G4 P500 ; wait for 0.5 sec
G0 Z10 E-1 ; Lift 15mm and retract 1mm filament
G4 P2000 ; wait for 5 sec
G0 Z15
M107 ; Disable cooling fan
G1 X0 Y-85 Z4 E0 F3000 ; get off the bed
G92 E0
G92 E0
G1 F1500 E-1
;LAYER_COUNT:44
;LAYER:0
M106 S102
G1 F600 Z1.2
G0 F1500 X3.532 Y-32.596 Z1.2
;TYPE:SKIRT
G1 F600 Z0.2
G1 F3600 E0.75698
G1 F1200 X2.544 Y-32.735 E0.79726
G1 X1.526 Y-32.952 E0.83928
G1 X0.284 Y-33.323 E0.89161
G1 X-.745 Y-33.721 E0.93616
G1 X-1.553 Y-34.103 E0.97224
G1 X-2.706 Y-34.763 E1.02587
G1 X-3.472 Y-35.283 E1.06325
G1 X-4.406 Y-36.021 E1.11131
G1 X-5.193 Y-36.749 E1.15459
G1 X-17.312 Y-48.87 E1.84658
G1 X-17.978 Y-49.595 E1.88633
G1 X-18.664 Y-50.462 E1.93096
G1 X-19.35 Y-51.487 E1.98076
G1 X-19.862 Y-52.399 E2.02298
G1 X-20.343 Y-53.431 E2.06895
G1 X-20.743 Y-54.489 E2.11461
G1 X-20.992 Y-55.33 E2.15002
G1 X-21.233 Y-56.425 E2.19529
G1 X-21.409 Y-57.746 E2.24909
G1 X-21.465 Y-58.835 E2.29312
G1 X-21.33 Y-59.672 E2.32735
G1 X-21.007 Y-60.331 E2.35697
G1 X-20.87 Y-60.518 E2.36633
G1 X-21.054 Y-60.951 E2.38533
G1 X-21.137 Y-61.664 E2.41431
G1 X-21.076 Y-62.416 E2.44477
G1 X-20.774 Y-63.475 E2.48923
G1 X-20.381 Y-64.541 E2.53509
G1 X-19.846 Y-65.704 E2.58678
G1 X-19.372 Y-66.547 E2.62582
G1 X-18.631 Y-67.651 E2.6795
G1 X-18.023 Y-68.419 E2.71905
G1 X-17.231 Y-69.283 E2.76637
G1 X-5.115 Y-81.39 E3.45787
G1 X-4.415 Y-82.035 E3.4963
G1 X-3.367 Y-82.86 E3.55015
G1 X-2.522 Y-83.419 E3.59105
G1 X-1.417 Y-84.034 E3.64211
G1 X-.495 Y-84.453 E3.68299
G1 X0.67 Y-84.877 E3.73305
G1 X1.699 Y-85.154 E3.77607
G1 X2.39 Y-85.231 E3.80414
G1 X3.122 Y-85.131 E3.83396
G1 X3.539 Y-84.956 E3.85222
G1 X3.997 Y-85.26 E3.87441
G1 X4.617 Y-85.507 E3.90136
G1 X5.219 Y-85.561 E3.92576
G1 X6.568 Y-85.472 E3.98034
G1 X7.556 Y-85.333 E4.02062
G1 X8.574 Y-85.116 E4.06264
G1 X9.813 Y-84.745 E4.11486
G1 X10.845 Y-84.347 E4.15951
G1 X11.652 Y-83.965 E4.19556
G1 X12.806 Y-83.305 E4.24923
G1 X13.571 Y-82.786 E4.28655
G1 X14.553 Y-82.008 E4.33713
G1 X15.238 Y-81.374 E4.37482
G1 X27.406 Y-69.206 E5.06955
G1 X28.015 Y-68.548 E5.10574
G1 X28.781 Y-67.582 E5.15552
G1 X29.384 Y-66.687 E5.19909
G1 X29.988 Y-65.615 E5.24876
G1 X30.429 Y-64.668 E5.29094
G1 X30.842 Y-63.573 E5.33818
G1 X31.112 Y-62.65 E5.37701
G1 X31.332 Y-61.647 E5.41847
G1 X31.509 Y-60.324 E5.47235
G1 X31.565 Y-59.233 E5.51646
G1 X31.43 Y-58.396 E5.55069
G1 X30.998 Y-57.514 E5.59034
G1 X31.056 Y-57.383 E5.59612
G1 X31.221 Y-56.691 E5.62484
G1 X31.198 Y-55.742 E5.66317
G1 X30.893 Y-54.662 E5.70847
G1 X30.42 Y-53.378 E5.76372
G1 X29.956 Y-52.386 E5.80793
G1 X29.435 Y-51.465 E5.85065
G1 X28.749 Y-50.442 E5.90038
G1 X28.102 Y-49.626 E5.94242
G1 X27.33 Y-48.785 E5.98851
G1 X15.215 Y-36.673 E6.68013
G1 X14.49 Y-36.007 E6.71987
G1 X13.519 Y-35.245 E6.76971
G1 X12.57 Y-34.618 E6.81563
G1 X11.546 Y-34.048 E6.86294
G1 X10.596 Y-33.615 E6.90509
G1 X9.494 Y-33.211 E6.95248
G1 X8.374 Y-32.897 E6.99944
G1 X7.419 Y-32.836 E7.03807
G1 X6.714 Y-33.031 E7.0676
G1 X6.571 Y-33.095 E7.07393
G1 X5.847 Y-32.675 E7.10772
G1 X4.955 Y-32.504 E7.14439
G1 X4.33 Y-32.545 E7.16967
G0 F1080 X3.532 Y-32.596
G0 F1500 X3.588 Y-32.992
G1 F1200 X2.6 Y-33.131 E7.20995
G1 X1.64 Y-33.335 E7.24958
G1 X0.428 Y-33.696 E7.30063
G1 X-.574 Y-34.083 E7.344
G1 X-1.382 Y-34.465 E7.38008
G1 X-2.481 Y-35.094 E7.4312
G1 X-3.247 Y-35.614 E7.46858
G1 X-4.158 Y-36.335 E7.51548
G1 X-4.91 Y-37.032 E7.55688
G1 X-17.017 Y-49.141 E8.24818
G1 X-17.683 Y-49.866 E8.28793
G1 X-18.35 Y-50.71 E8.33136
G1 X-19.001 Y-51.683 E8.37862
G1 X-19.499 Y-52.568 E8.41962
G1 X-19.98 Y-53.6 E8.46559
G1 X-20.359 Y-54.603 E8.50888
G1 X-20.608 Y-55.444 E8.54429
G1 X-20.842 Y-56.511 E8.58839
G1 X-21.01 Y-57.767 E8.63955
G1 X-21.064 Y-58.81 E8.68171
G1 X-20.944 Y-59.551 E8.71202
G1 X-20.648 Y-60.155 E8.73917
G1 X-20.401 Y-60.465 E8.75517
G1 X-20.657 Y-60.997 E8.77901
G1 X-20.735 Y-61.668 E8.80628
G1 X-20.68 Y-62.344 E8.83366
G1 X-20.389 Y-63.365 E8.87653
G1 X-20.006 Y-64.402 E8.92116
G1 X-19.497 Y-65.508 E8.97031
G1 X-19.023 Y-66.351 E9.00935
G1 X-18.317 Y-67.403 E9.0605
G1 X-17.709 Y-68.171 E9.10005
G1 X-16.948 Y-69 E9.14548
G1 X-4.844 Y-81.096 E9.83633
G1 X-4.144 Y-81.741 E9.87476
G1 X-3.146 Y-82.526 E9.92602
G1 X-2.301 Y-83.085 E9.96693
G1 X-1.251 Y-83.67 E10.01545
G1 X-.358 Y-84.077 E10.05507
G1 X0.776 Y-84.491 E10.10381
G1 X1.743 Y-84.756 E10.14429
G1 X2.388 Y-84.828 E10.17049
G1 X3.068 Y-84.735 E10.1982
G1 X3.577 Y-84.497 E10.22088
G1 X4.145 Y-84.888 E10.24872
G1 X4.712 Y-85.114 E10.27337
G1 X5.193 Y-85.162 E10.29288
G1 X6.512 Y-85.076 E10.34625
G1 X7.5 Y-84.937 E10.38653
G1 X8.46 Y-84.733 E10.42615
G1 X9.669 Y-84.372 E10.47709
G1 X10.674 Y-83.985 E10.52057
G1 X11.481 Y-83.603 E10.55661
G1 X12.581 Y-82.974 E10.60777
G1 X13.346 Y-82.455 E10.64509
G1 X14.281 Y-81.714 E10.69326
G1 X14.966 Y-81.08 E10.73094
G1 X27.112 Y-68.934 E11.42441
G1 X27.721 Y-68.276 E11.46061
G1 X28.467 Y-67.334 E11.50912
G1 X29.052 Y-66.464 E11.55145
G1 X29.626 Y-65.446 E11.59863
G1 X30.055 Y-64.527 E11.63958
G1 X30.458 Y-63.46 E11.68562
G1 X30.721 Y-62.564 E11.72332
G1 X30.941 Y-61.561 E11.76478
G1 X31.11 Y-60.303 E11.81602
G1 X31.164 Y-59.258 E11.85827
G1 X31.044 Y-58.517 E11.88857
G1 X30.691 Y-57.797 E11.92095
G1 X30.502 Y-57.58 E11.93257
G1 X30.667 Y-57.29 E11.94604
G1 X30.82 Y-56.649 E11.97264
G1 X30.799 Y-55.802 E12.00685
G1 X30.508 Y-54.771 E12.0501
G1 X30.058 Y-53.547 E12.10275
G1 X29.608 Y-52.583 E12.1457
G1 X29.102 Y-51.687 E12.18724
G1 X28.436 Y-50.691 E12.23561
G1 X27.789 Y-49.875 E12.27766
G1 X27.047 Y-49.068 E12.32192
G1 X14.944 Y-36.968 E13.01285
G1 X14.219 Y-36.302 E13.0526
G1 X13.298 Y-35.579 E13.09987
G1 X12.375 Y-34.968 E13.14455
G1 X11.351 Y-34.398 E13.19187
G1 X10.458 Y-33.991 E13.23149
G1 X9.356 Y-33.587 E13.27888
G1 X8.306 Y-33.293 E13.3229
G1 X7.46 Y-33.239 E13.35712
G1 X6.821 Y-33.416 E13.38389
G1 X6.5 Y-33.578 E13.39841
G1 X6.283 Y-33.39 E13.41
G1 X5.705 Y-33.055 E13.43697
G1 X4.929 Y-32.906 E13.46887
G1 X4.386 Y-32.941 E13.49084
G0 F1080 X3.588 Y-32.992
G0 F1500 X3.644 Y-33.388
G1 F1200 X2.656 Y-33.527 E13.53112
G1 X1.724 Y-33.726 E13.56959
G1 X0.572 Y-34.069 E13.61812
G1 X-.403 Y-34.445 E13.66031
G1 X-1.211 Y-34.827 E13.69639
G1 X-2.256 Y-35.425 E13.745
G1 X-3.022 Y-35.945 E13.78238
G1 X-3.886 Y-36.629 E13.82687
G1 X-4.627 Y-37.315 E13.86763
G1 X-16.722 Y-49.412 E14.55825
G1 X-17.388 Y-50.137 E14.598
G1 X-18.018 Y-50.933 E14.63898
G1 X-18.652 Y-51.879 E14.68496
G1 X-19.15 Y-52.764 E14.72596
G1 X-19.606 Y-53.741 E14.76949
G1 X-19.975 Y-54.717 E14.81161
G1 X-20.224 Y-55.558 E14.84702
G1 X-20.451 Y-56.596 E14.88992
G1 X-20.611 Y-57.788 E14.93847
G1 X-20.663 Y-58.785 E14.97878
G1 X-20.558 Y-59.429 E15.00512
G1 X-20.289 Y-59.979 E15.02984
G1 X-19.928 Y-60.404 E15.05235
G1 X-20.268 Y-61.112 E15.08406
G1 X-20.333 Y-61.671 E15.10678
G1 X-20.284 Y-62.272 E15.13113
G1 X-20.004 Y-63.255 E15.17239
G1 X-19.643 Y-64.235 E15.21455
G1 X-19.148 Y-65.312 E15.26241
G1 X-18.674 Y-66.155 E15.30145
G1 X-18.003 Y-67.155 E15.35007
G1 X-17.395 Y-67.923 E15.38962
G1 X-16.665 Y-68.717 E15.43316
G1 X-4.573 Y-80.802 E16.12335
G1 X-3.896 Y-81.427 E16.16055
G1 X-2.925 Y-82.192 E16.21046
G1 X-2.08 Y-82.751 E16.25136
G1 X-1.085 Y-83.306 E16.29736
G1 X-.22 Y-83.701 E16.33575
G1 X0.882 Y-84.105 E16.38314
G1 X1.849 Y-84.37 E16.42362
G1 X2.385 Y-84.425 E16.44537
G1 X2.953 Y-84.347 E16.46852
G1 X3.672 Y-84.01 E16.50057
G1 X3.896 Y-84.231 E16.51328
G1 X4.336 Y-84.534 E16.53485
G1 X4.807 Y-84.722 E16.55532
G1 X5.167 Y-84.763 E16.56995
G1 X6.456 Y-84.68 E16.6221
G1 X7.444 Y-84.541 E16.66238
G1 X8.376 Y-84.342 E16.70085
G1 X9.525 Y-83.999 E16.74926
G1 X10.503 Y-83.623 E16.79156
G1 X11.31 Y-83.241 E16.82761
G1 X12.356 Y-82.643 E16.87625
G1 X13.121 Y-82.124 E16.91357
G1 X14.009 Y-81.42 E16.95932
G1 X14.694 Y-80.786 E16.99701
G1 X26.818 Y-68.662 E17.68923
G1 X27.427 Y-68.004 E17.72542
G1 X28.135 Y-67.111 E17.77143
G1 X28.72 Y-66.241 E17.81376
G1 X29.264 Y-65.276 E17.85848
G1 X29.681 Y-64.385 E17.8982
G1 X30.074 Y-63.347 E17.94301
G1 X30.33 Y-62.478 E17.97958
G1 X30.55 Y-61.475 E18.02104
G1 X30.711 Y-60.282 E18.06964
G1 X30.763 Y-59.283 E18.11002
G1 X30.658 Y-58.639 E18.13637
G1 X30.332 Y-57.973 E18.1663
G1 X29.984 Y-57.634 E18.18592
G1 X30.278 Y-57.197 E18.20718
G1 X30.419 Y-56.607 E18.23167
G1 X30.4 Y-55.862 E18.26176
G1 X30.123 Y-54.88 E18.30295
G1 X29.695 Y-53.716 E18.35302
G1 X29.259 Y-52.779 E18.39474
G1 X28.769 Y-51.909 E18.43506
G1 X28.103 Y-50.913 E18.48343
G1 X27.495 Y-50.146 E18.52294
G1 X26.764 Y-49.351 E18.56654
G1 X14.673 Y-37.263 E19.25679
G1 X13.948 Y-36.597 E19.29654
G1 X13.077 Y-35.913 E19.34125
G1 X12.154 Y-35.302 E19.38594
G1 X11.185 Y-34.762 E19.43072
G1 X10.32 Y-34.367 E19.46911
G1 X9.218 Y-33.963 E19.5165
G1 X8.238 Y-33.689 E19.55758
G1 X7.501 Y-33.642 E19.5874
G1 X6.967 Y-33.79 E19.60977
G1 X6.43 Y-34.06 E19.63403
G1 X6.082 Y-33.736 E19.65323
G1 X5.563 Y-33.435 E19.67745
G1 X4.902 Y-33.308 E19.70463
G1 X4.442 Y-33.338 E19.72324
G0 F1080 X3.644 Y-33.388
G0 F1500 X3.7 Y-33.784
G1 F1200 X2.712 Y-33.923 E19.76352
G1 X1.808 Y-34.117 E19.80085
G1 X0.716 Y-34.442 E19.84684
G1 X-.232 Y-34.807 E19.88785
G1 X-1.04 Y-35.189 E19.92394
G1 X-2.031 Y-35.756 E19.97003
G1 X-2.797 Y-36.276 E20.00741
G1 X-3.614 Y-36.923 E20.04948
G1 X-4.344 Y-37.598 E20.08962
G1 X-16.427 Y-49.683 E20.77956
G1 X-17.093 Y-50.408 E20.81931
G1 X-17.686 Y-51.156 E20.85784
G1 X-18.304 Y-52.076 E20.90259
G1 X-18.788 Y-52.934 E20.94236
G1 X-19.232 Y-53.883 E20.98466
G1 X-19.591 Y-54.831 E21.02558
G1 X-19.84 Y-55.672 E21.06099
G1 X-20.06 Y-56.681 E21.10268
G1 X-20.212 Y-57.809 E21.14864
G1 X-20.262 Y-58.759 E21.18704
G1 X-20.172 Y-59.308 E21.2095
G1 X-19.93 Y-59.803 E21.23175
G1 X-19.597 Y-60.176 E21.25193
G1 X-19.295 Y-60.351 E21.26603
G1 X-19.6 Y-60.646 E21.28316
G1 X-19.879 Y-61.227 E21.30918
G1 X-19.934 Y-61.638 E21.32592
G1 X-19.888 Y-62.2 E21.34868
G1 X-19.619 Y-63.145 E21.38835
G1 X-19.268 Y-64.096 E21.42928
G1 X-18.799 Y-65.116 E21.4746
G1 X-18.325 Y-65.959 E21.51365
G1 X-17.689 Y-66.907 E21.55973
G1 X-17.1 Y-67.652 E21.59808
G1 X-16.382 Y-68.434 E21.64094
G1 X-4.302 Y-80.508 E22.33047
G1 X-3.625 Y-81.133 E22.36767
G1 X-2.704 Y-81.858 E22.41499
G1 X-1.859 Y-82.417 E22.45589
G1 X-.918 Y-82.942 E22.4994
G1 X-0.082 Y-83.325 E22.53652
G1 X1.02 Y-83.729 E22.58391
G1 X1.89 Y-83.972 E22.62038
G1 X2.388 Y-84.023 E22.64059
G1 X2.783 Y-83.985 E22.65661
G1 X3.398 Y-83.697 E22.68402
G1 X3.739 Y-83.377 E22.7029
G1 X3.894 Y-83.666 E22.71614
G1 X4.128 Y-83.905 E22.72965
G1 X4.495 Y-84.167 E22.74785
G1 X4.861 Y-84.326 E22.76396
G1 X5.142 Y-84.364 E22.77541
G1 X6.4 Y-84.284 E22.8263
G1 X7.388 Y-84.145 E22.86658
G1 X8.292 Y-83.951 E22.90391
G1 X9.382 Y-83.626 E22.94983
G1 X10.332 Y-83.261 E22.99092
G1 X11.139 Y-82.879 E23.02696
G1 X12.131 Y-82.312 E23.07309
G1 X12.896 Y-81.793 E23.11041
G1 X13.737 Y-81.126 E23.15375
G1 X14.422 Y-80.492 E23.19143
G1 X26.524 Y-68.39 E23.88239
G1 X27.133 Y-67.732 E23.91859
G1 X27.821 Y-66.863 E23.96334
G1 X28.388 Y-66.018 E24.00442
G1 X28.902 Y-65.106 E24.04669
G1 X29.319 Y-64.215 E24.0864
G1 X29.69 Y-63.234 E24.12875
G1 X29.939 Y-62.392 E24.16419
G1 X30.159 Y-61.389 E24.20565
G1 X30.312 Y-60.261 E24.25161
G1 X30.362 Y-59.309 E24.29009
G1 X30.272 Y-58.76 E24.31255
G1 X30.003 Y-58.21 E24.33727
G1 X29.777 Y-57.977 E24.35038
G1 X29.405 Y-57.727 E24.36847
G1 X29.889 Y-57.104 E24.40032
G1 X30.018 Y-56.566 E24.42266
G1 X30.001 Y-55.922 E24.44867
G1 X29.738 Y-54.989 E24.4878
G1 X29.332 Y-53.885 E24.53529
G1 X28.896 Y-52.948 E24.57702
G1 X28.421 Y-52.106 E24.61605
G1 X27.789 Y-51.161 E24.66194
G1 X27.2 Y-50.417 E24.70025
G1 X26.481 Y-49.634 E24.74317
G1 X14.402 Y-37.558 E25.43273
G1 X13.677 Y-36.892 E25.47248
G1 X12.856 Y-36.247 E25.51463
G1 X11.933 Y-35.636 E25.55932
G1 X11.018 Y-35.126 E25.60161
G1 X10.182 Y-34.743 E25.63874
G1 X9.08 Y-34.339 E25.68612
G1 X8.17 Y-34.085 E25.72426
G1 X7.542 Y-34.045 E25.74967
G1 X7.147 Y-34.147 E25.76614
G1 X6.691 Y-34.376 E25.78674
G1 X6.38 Y-34.671 E25.80405
G1 X6.195 Y-34.387 E25.81773
G1 X5.81 Y-34.029 E25.83895
G1 X5.423 Y-33.816 E25.85679
G1 X4.874 Y-33.71 E25.87936
G1 X4.498 Y-33.734 E25.89457
G0 F1080 X3.7 Y-33.784
G1 F1500 E24.89457
G1 F600 Z1.2
G0 F1500 X6.177 Y-36.664 Z1.2
G1 F600 Z0.2
G1 F3600 E26.65155
G1 F1200 X6.378 Y-37.012 E26.66778
G1 X6.176 Y-36.979 E26.67604
G1 X5.879 Y-36.997 E26.68805
G1 X6.131 Y-36.716 E26.70329
G0 F1080 X6.177 Y-36.664
G1 F1500 E25.70329
G1 F600 Z1.2
G0 F1500 X5.461 Y-44.155 Z1.2
G1 F600 Z0.2
G1 F3600 E27.46027
G1 F1200 X5.976 Y-44.6 E27.48775
G1 X6.584 Y-45.015 E27.51747
G1 X7.281 Y-45.654 E27.55564
G1 X9.064 Y-47.428 E27.65719
G1 X9.786 Y-47.953 E27.69323
G1 X10.845 Y-48.253 E27.73766
G1 X11.788 Y-48.189 E27.77582
G1 X12.319 Y-47.977 E27.79891
G1 X12.935 Y-47.622 E27.82761
G1 X13.11 Y-47.46 E27.83724
G1 X14.126 Y-48.572 E27.89805
G1 X14.846 Y-49.315 E27.93982
G1 X15.578 Y-50.02 E27.98085
G1 X16.586 Y-50.935 E28.03581
G1 X16.331 Y-51.205 E28.0508
G1 X15.949 Y-52.013 E28.08689
G1 X15.787 Y-52.995 E28.12707
G1 X15.973 Y-54.04 E28.16992
G1 X16.448 Y-54.828 E28.20707
G1 X18.596 Y-56.978 E28.32976
G1 X19.11 Y-57.54 E28.36051
G1 X19.589 Y-58.312 E28.39719
G1 X19.843 Y-58.597 E28.4126
G1 X19.622 Y-59.232 E28.43975
G1 X19.441 Y-60.137 E28.47701
G1 X19.512 Y-61.218 E28.52074
G1 X19.959 Y-62.183 E28.56368
G1 X20.165 Y-62.418 E28.5763
G1 X18.723 Y-63.467 E28.64829
G1 X17.925 Y-64.068 E28.68862
G1 X17.095 Y-64.72 E28.73123
G1 X16.274 Y-65.398 E28.77422
G1 X15.408 Y-66.158 E28.82073
G1 X14.563 Y-66.94 E28.86722
G1 X13.724 Y-67.761 E28.91461
G1 X12.906 Y-68.599 E28.96189
G1 X12.118 Y-69.454 E29.00883
G1 X11.393 Y-70.288 E29.05344
G1 X10.698 Y-71.135 E29.09768
G1 X10.057 Y-71.948 E29.13947
G1 X9.449 Y-72.751 E29.18014
G1 X8.438 Y-74.145 E29.24966
G1 X8.003 Y-73.809 E29.27185
G1 X7.399 Y-73.529 E29.29873
G1 X6.575 Y-73.394 E29.33244
G1 X5.455 Y-73.554 E29.37811
G1 X4.761 Y-73.863 E29.40878
G1 X4.184 Y-73.456 E29.43729
G1 X3.47 Y-73.025 E29.47096
G1 X2.957 Y-72.549 E29.49921
G1 X0.947 Y-70.537 E29.61403
G1 X0.08 Y-69.992 E29.65538
G1 X-.815 Y-69.795 E29.69237
G1 X-1.634 Y-69.86 E29.72554
G1 X-2.363 Y-70.12 E29.75679
G1 X-3.041 Y-70.573 E29.78971
G1 X-4.027 Y-69.496 E29.84866
G1 X-4.747 Y-68.753 E29.89043
G1 X-5.479 Y-68.048 E29.93146
G1 X-6.431 Y-67.184 E29.98336
G1 X-6.142 Y-66.824 E30.002
G1 X-5.793 Y-66.091 E30.03478
G1 X-5.631 Y-65.118 E30.0746
G1 X-5.817 Y-64.068 E30.11765
G1 X-6.292 Y-63.28 E30.1548
G1 X-8.633 Y-60.935 E30.28857
G1 X-8.985 Y-60.546 E30.30975
G1 X-9.519 Y-59.781 E30.34742
G1 X-9.768 Y-59.363 E30.36706
G1 X-9.395 Y-58.199 E30.41641
G1 X-9.381 Y-57.307 E30.45242
G1 X-9.559 Y-56.721 E30.47715
G1 X-9.896 Y-56.005 E30.5091
G1 X-10.147 Y-55.711 E30.5247
G1 X-8.623 Y-54.6 E30.60084
G1 X-7.808 Y-53.986 E30.64204
G1 X-6.994 Y-53.347 E30.68382
G1 X-6.175 Y-52.67 E30.72672
G1 X-5.306 Y-51.906 E30.77343
G1 X-4.456 Y-51.123 E30.82009
G1 X-3.617 Y-50.304 E30.86742
G1 X-2.807 Y-49.469 E30.91439
G1 X-2.027 Y-48.623 E30.96085
G1 X-1.296 Y-47.782 E31.00583
G1 X-.598 Y-46.933 E31.05021
