;FLAVOR:Marlin
;TIME:1142
;Filament used: 2.81209m
;Layer height: 0.24
;MINX:-93.871
;MINY:-99.802
;MINZ:0.5
;MAXX:42.309
;MAXY:36.285
;MAXZ:1.98
;TARGET_MACHINE.NAME:Unknown
;Generated with Cura_SteamEngine 5.11.0
M140 S50
M105
M190 S50
M104 S230
M105
M109 S230
;FLAVOR:Marlin
M82 ;absolute extrusion mode
G21
G90
M82
M107 T0
G28
G92 E0
G0 E3 F200
G92 E0 ; reset extrusion distance
M106 S255 ; Enable cooling fan full speed
G1 X-98 Y0 Z0.4 F3000 ; move to arc start
G3 X0 Y-98 I98 Z0.4 E40 F400 ; lay arc stripe 90deg
G92 E0 ; reset extrusion distance
G4 P500 ; wait for 0.5 sec
G0 Z10 E-1 ; Lift 15mm and retract 1mm filament
G4 P2000 ; wait for 5 sec
G0 Z15
M107 ; Disable cooling fan
G1 X0 Y-85 Z4 E0 F3000 ; get off the bed
M82 ;absolute extrusion mode
G92 E0
G92 E0
G1 F1500 E-6.5
;LAYER_COUNT:3
;LAYER:0
M107
G1 F600 Z1.5
G0 F3600 X0.00 Y0.00 Z1.5
G0 X-21.201 Y-18.005
;TYPE:SKIRT
G1 F600 Z0.5
G1 F1500 E0
G1 F1800 X-20.825 Y-18.543 E0.08187
G1 X-20.46 Y-19.3 E0.18669
G1 X-20.33 Y-19.876 E0.26033
G1 X-20.862 Y-20.192 E0.33751
G1 X-21.306 Y-20.643 E0.41645
G1 X-21.813 Y-20.985 E0.49273
G1 X-22.253 Y-21.493 E0.57655
G1 X-22.576 Y-21.218 E0.62946
G1 X-23.157 Y-20.547 E0.74016
G1 X-23.213 Y-20.333 E0.76775
G1 X-23.6 Y-19.333 E0.90149
G1 X-23.924 Y-18.792 E0.98014
G1 X-24.649 Y-17.997 E1.11434
G1 X-24.236 Y-17.603 E1.18553
G1 X-24.041 Y-17.496 E1.21328
G1 X-23.433 Y-17.086 E1.30474
G1 X-22.996 Y-16.847 E1.36686
G1 X-22.63 Y-16.751 E1.41406
G1 X-22.147 Y-17.061 E1.48564
G1 X-21.201 Y-18.005 E1.65233
G0 F3600 X-20.617 Y-17.793
G1 F1800 X-20.315 Y-18.226 E1.71817
G1 X-20.075 Y-18.664 E1.78047
G1 X-19.887 Y-19.114 E1.84129
G1 X-19.708 Y-19.91 E1.94305
G1 X-19.717 Y-20.272 E1.98822
G1 X-20.075 Y-20.417 E2.03639
G1 X-20.49 Y-20.669 E2.09695
G1 X-20.922 Y-21.107 E2.17368
G1 X-21.41 Y-21.437 E2.24716
G1 X-21.866 Y-21.964 E2.33408
G1 X-22.05 Y-22.264 E2.37797
G1 X-22.402 Y-22.118 E2.4255
G1 X-22.701 Y-21.914 E2.47065
G1 X-23.006 Y-21.637 E2.52204
G1 X-23.707 Y-20.828 E2.65555
G1 X-23.773 Y-20.549 E2.69131
G1 X-24.14 Y-19.6 E2.81822
G1 X-24.411 Y-19.148 E2.88395
G1 X-25.052 Y-18.445 E3.00261
G1 X-25.258 Y-18.14 E3.04851
G1 X-25.382 Y-17.858 E3.08694
G1 X-24.72 Y-17.245 E3.19947
G1 X-24.617 Y-17.126 E3.2191
G1 X-24.377 Y-16.999 E3.25296
G1 X-23.74 Y-16.569 E3.34882
G1 X-23.222 Y-16.286 E3.42244
G1 X-22.56 Y-16.112 E3.50782
G1 X-22.164 Y-16.315 E3.56332
G1 X-21.866 Y-16.525 E3.60879
G1 X-21.491 Y-16.867 E3.67209
G1 X-20.95 Y-17.407 E3.76743
G1 X-20.617 Y-17.793 E3.83101
G0 F3600 X-20.143 Y-17.424
G1 F1800 X-19.805 Y-17.909 E3.90475
G1 X-19.534 Y-18.404 E3.97513
G1 X-19.319 Y-18.917 E4.04451
G1 X-19.176 Y-19.421 E4.10985
G1 X-19.108 Y-19.86 E4.16526
G1 X-19.104 Y-20.237 E4.21228
G1 X-19.148 Y-20.519 E4.24788
G1 X-19.249 Y-20.739 E4.27807
G1 X-19.764 Y-20.93 E4.34658
G1 X-20.179 Y-21.182 E4.40714
G1 X-20.528 Y-21.565 E4.47177
G1 X-21.009 Y-21.89 E4.54417
G1 X-21.412 Y-22.356 E4.62101
G1 X-21.643 Y-22.763 E4.67938
G1 X-21.791 Y-22.862 E4.70159
G1 X-22.108 Y-22.871 E4.74114
G1 X-22.374 Y-22.797 E4.77558
G1 X-22.703 Y-22.639 E4.8211
G1 X-23.074 Y-22.386 E4.87711
G1 X-23.437 Y-22.057 E4.93822
G1 X-24.263 Y-21.103 E5.09561
G1 X-24.333 Y-20.765 E5.13866
G1 X-24.7 Y-19.816 E5.26557
G1 X-24.919 Y-19.467 E5.31696
G1 X-25.19 Y-19.198 E5.36458
G1 X-25.527 Y-18.814 E5.4283
G1 X-25.781 Y-18.438 E5.4849
G1 X-25.941 Y-18.106 E5.53087
G1 X-26.068 Y-17.599 E5.59605
G1 X-25.645 Y-17.284 E5.66184
G1 X-25.128 Y-16.805 E5.74974
G1 X-25.007 Y-16.652 E5.77407
G1 X-24.713 Y-16.502 E5.81524
G1 X-24.032 Y-16.042 E5.91774
G1 X-23.7 Y-15.892 E5.96318
G1 X-23.444 Y-15.705 E6.00272
G1 X-23.231 Y-15.685 E6.0294
G1 X-22.78 Y-15.547 E6.08823
G1 X-22.394 Y-15.522 E6.13647
G1 X-21.852 Y-15.801 E6.2125
G1 X-21.487 Y-16.059 E6.26825
G1 X-21.076 Y-16.433 E6.33756
G1 X-20.515 Y-16.993 E6.43643
G1 X-20.143 Y-17.424 E6.50744
G1 F1500 E0.00744
G1 F600 Z1.5
G0 F3600 X-20.143 Y-17.424 Z1.5
G0 X-19.195 Y-16.686
G1 F600 Z0.5
G1 F1500 E6.50744
G1 F1800 X-19.645 Y-16.165 E6.5933
G1 X-20.246 Y-15.565 E6.69922
G1 X-20.732 Y-15.123 E6.78116
G1 X-21.234 Y-14.769 E6.85778
G1 X-21.838 Y-14.459 E6.94245
G1 X-21.952 Y-14.356 E6.96162
G1 X-22 Y-14.21 E6.98078
G1 X-21.863 Y-13.802 E7.03446
G1 X-21.912 Y-13.278 E7.10011
G1 X-22.138 Y-12.59 E7.19043
G1 X-22.342 Y-12.171 E7.24855
G1 X-22.436 Y-11.677 E7.31127
G1 X-22.653 Y-11.034 E7.39591
G1 X-22.81 Y-10.738 E7.43771
G1 X-22.872 Y-10.369 E7.48437
G1 X-23.104 Y-9.615 E7.58277
G1 X-23.399 Y-9.25 E7.6413
G1 X-23.592 Y-9.157 E7.66802
G1 X-23.682 Y-9.315 E7.6907
G1 X-23.688 Y-9.633 E7.73037
G1 X-23.436 Y-10.374 E7.82799
G1 X-23.261 Y-10.715 E7.8758
G1 X-23.167 Y-11.224 E7.94036
G1 X-22.946 Y-11.871 E8.02563
G1 X-22.768 Y-12.244 E8.07718
G1 X-22.715 Y-12.61 E8.12331
G1 X-22.46 Y-13.362 E8.22235
G1 X-22.084 Y-13.995 E8.31418
G1 X-22.099 Y-14.148 E8.33335
G1 X-22.188 Y-14.273 E8.35249
G1 X-22.328 Y-14.337 E8.37169
G1 X-22.658 Y-14.315 E8.41294
G1 X-23.052 Y-14.369 E8.46254
G1 X-23.345 Y-14.495 E8.50232
G1 X-23.497 Y-14.518 E8.52149
G1 X-23.64 Y-14.463 E8.5406
G1 X-23.75 Y-14.309 E8.56421
G1 X-23.873 Y-13.913 E8.61593
G1 X-24.132 Y-13.445 E8.68264
G1 X-24.749 Y-12.634 E8.80974
G1 X-25.15 Y-12.232 E8.88056
G1 X-25.412 Y-11.763 E8.94756
G1 X-26.031 Y-10.948 E9.07521
G1 X-26.419 Y-10.562 E9.14347
G1 X-26.693 Y-10.076 E9.21306
G1 X-27.221 Y-9.385 E9.32153
G1 X-27.562 Y-9.062 E9.38011
G1 X-27.836 Y-8.891 E9.42039
G1 X-28.029 Y-8.837 E9.44539
G1 X-28.092 Y-8.867 E9.45409
G1 X-28.102 Y-9.015 E9.47259
G1 X-28.026 Y-9.294 E9.50866
G1 X-27.848 Y-9.64 E9.55719
G1 X-27.294 Y-10.391 E9.67359
G1 X-26.888 Y-10.794 E9.74494
G1 X-26.632 Y-11.251 E9.81027
G1 X-26.013 Y-12.066 E9.93792
G1 X-25.615 Y-12.463 E10.00803
G1 X-25.348 Y-12.94 E10.07621
G1 X-24.735 Y-13.747 E10.20261
G1 X-24.333 Y-14.145 E10.27317
G1 X-24.047 Y-14.405 E10.32138
G1 X-24.022 Y-14.557 E10.34059
G1 X-24.076 Y-14.701 E10.35977
G1 X-24.197 Y-14.8 E10.37927
G1 X-24.623 Y-14.994 E10.43765
G1 X-24.902 Y-15.203 E10.48113
G1 X-25.129 Y-15.312 E10.51254
G1 X-25.367 Y-15.503 E10.5506
G1 X-25.507 Y-15.565 E10.5697
G1 X-25.66 Y-15.55 E10.58887
G1 X-25.821 Y-15.406 E10.61582
G1 X-26.018 Y-15.022 E10.66965
G1 X-26.367 Y-14.56 E10.74186
G1 X-27.02 Y-13.906 E10.85713
G1 X-27.424 Y-13.551 E10.92421
G1 X-27.638 Y-13.386 E10.95791
G1 X-27.96 Y-12.965 E11.02402
G1 X-28.738 Y-12.186 E11.16134
G1 X-29.201 Y-11.829 E11.23426
G1 X-29.556 Y-11.367 E11.30693
G1 X-30.213 Y-10.709 E11.42291
G1 X-30.8 Y-10.312 E11.51129
G1 X-31.055 Y-10.23 E11.5447
G1 X-31.164 Y-10.237 E11.55832
G1 X-31.175 Y-10.324 E11.56926
G1 X-31.102 Y-10.562 E11.60031
G1 X-30.712 Y-11.142 E11.68749
G1 X-30.054 Y-11.799 E11.80346
G1 X-29.594 Y-12.153 E11.87586
G1 X-29.253 Y-12.602 E11.94618
G1 X-28.467 Y-13.388 E12.08482
G1 X-28.008 Y-13.743 E12.15719
G1 X-27.647 Y-14.211 E12.23091
G1 X-26.874 Y-14.982 E12.36709
G1 X-26.404 Y-15.342 E12.44093
G1 X-26.068 Y-15.523 E12.48853
G1 X-25.956 Y-15.628 E12.50768
G1 X-25.91 Y-15.775 E12.52689
G1 X-25.944 Y-15.925 E12.54607
G1 X-26.461 Y-16.404 E12.63398
G1 X-26.765 Y-16.601 E12.67916
G1 X-26.978 Y-16.84 E12.71909
G1 X-27.106 Y-16.924 E12.73818
G1 X-27.26 Y-16.934 E12.75743
G1 X-27.413 Y-16.853 E12.77902
G1 X-27.711 Y-16.558 E12.83132
G1 X-28.53 Y-15.936 E12.95959
G1 X-29.008 Y-15.669 E13.02788
G1 X-29.397 Y-15.276 E13.09685
G1 X-30.236 Y-14.638 E13.22832
G1 X-30.719 Y-14.371 E13.29715
G1 X-31.018 Y-14.054 E13.3515
G1 X-31.764 Y-13.469 E13.46974
G1 X-32.177 Y-13.257 E13.52765
G1 X-32.456 Y-13.181 E13.56371
G1 X-32.623 Y-13.206 E13.58477
G1 X-32.58 Y-13.443 E13.61482
G1 X-32.405 Y-13.724 E13.6561
G1 X-32.137 Y-14.011 E13.70508
G1 X-31.495 Y-14.511 E13.80657
G1 X-30.935 Y-14.837 E13.88739
G1 X-30.538 Y-15.242 E13.95813
G1 X-29.639 Y-15.911 E14.0979
G1 X-29.239 Y-16.132 E14.1549
G1 X-28.842 Y-16.529 E14.22492
G1 X-28.032 Y-17.145 E14.35185
G1 X-27.39 Y-17.477 E14.44199
G1 X-27.276 Y-17.58 E14.46116
G1 X-27.207 Y-18.038 E14.51892
G1 X-27.065 Y-18.538 E14.58375
G1 X-26.827 Y-19.034 E14.65237
G1 X-26.477 Y-19.552 E14.73034
G1 X-26.052 Y-20.036 E14.81068
G1 X-25.82 Y-20.248 E14.84988
G1 X-25.453 Y-21.197 E14.97679
G1 X-25.436 Y-21.35 E14.99599
G1 X-25.497 Y-21.491 E15.01515
G1 X-25.62 Y-21.583 E15.03431
G1 X-25.772 Y-21.602 E15.05341
G1 X-26.257 Y-21.404 E15.11875
G1 X-26.561 Y-21.325 E15.15793
G1 X-27.562 Y-21.225 E15.2834
G1 X-27.865 Y-21.242 E15.32125
G1 X-28.304 Y-21.355 E15.37779
G1 X-28.458 Y-21.355 E15.397
G1 X-28.712 Y-21.216 E15.43311
G1 X-29.09 Y-21.086 E15.48297
G1 X-29.748 Y-21.006 E15.56564
G1 X-30.432 Y-20.951 E15.65123
G1 X-30.786 Y-21.004 E15.69587
G1 X-31.109 Y-21.184 E15.74199
G1 X-31.196 Y-21.352 E15.76559
G1 X-31.19 Y-21.522 E15.78681
G1 X-31.079 Y-21.729 E15.8161
G1 X-30.846 Y-21.938 E15.85514
G1 X-30.503 Y-22.105 E15.90272
G1 X-30.1 Y-22.195 E15.95423
G1 X-28.971 Y-22.294 E16.09558
G1 X-28.286 Y-22.153 E16.18281
G1 X-27.977 Y-22.294 E16.22517
G1 X-27.44 Y-22.46 E16.29528
G1 X-26.434 Y-22.562 E16.42139
G1 X-26.144 Y-22.545 E16.45763
G1 X-25.761 Y-22.45 E16.50684
G1 X-25.523 Y-22.3 E16.54193
G1 X-25.296 Y-22.029 E16.58602
G1 X-25.146 Y-21.997 E16.60515
G1 X-24.999 Y-22.044 E16.6244
G1 X-24.749 Y-22.37 E16.67564
G1 X-24.301 Y-22.894 E16.76163
G1 X-23.817 Y-23.331 E16.84296
G1 X-23.307 Y-23.68 E16.92004
G1 X-22.8 Y-23.924 E16.99022
G1 X-22.304 Y-24.061 E17.0544
G1 X-21.844 Y-24.09 E17.11189
G1 X-21.423 Y-24.014 E17.16524
G1 X-21.061 Y-23.844 E17.21513
G1 X-20.75 Y-23.579 E17.26609
G1 X-20.496 Y-23.22 E17.32094
G1 X-20.387 Y-22.957 E17.35645
G1 X-20.238 Y-22.8 E17.38344
G1 X-19.974 Y-22.676 E17.41982
G1 X-19.669 Y-22.417 E17.46973
G1 X-19.489 Y-22.163 E17.50856
G1 X-19.348 Y-22.056 E17.53063
G1 X-18.636 Y-21.793 E17.6253
G1 X-18.357 Y-21.56 E17.67064
G1 X-18.135 Y-21.235 E17.71973
G1 X-17.98 Y-20.818 E17.77522
G1 X-17.902 Y-20.329 E17.83698
G1 X-17.909 Y-19.76 E17.90795
G1 X-18.003 Y-19.155 E17.98432
G1 X-18.183 Y-18.526 E18.06592
G1 X-18.453 Y-17.881 E18.15313
G1 X-18.788 Y-17.27 E18.24004
G1 X-19.195 Y-16.686 E18.32883
G0 F3600 X-19.669 Y-17.055
G1 F1800 X-19.298 Y-17.587 E18.40972
G1 X-18.993 Y-18.144 E18.48893
G1 X-18.751 Y-18.722 E18.56708
G1 X-18.589 Y-19.29 E18.64075
G1 X-18.508 Y-19.81 E18.70639
G1 X-18.503 Y-20.282 E18.76526
G1 X-18.564 Y-20.669 E18.81413
G1 X-18.672 Y-20.959 E18.85273
G1 X-18.802 Y-21.15 E18.88154
G1 X-18.942 Y-21.266 E18.90422
G1 X-19.556 Y-21.493 E18.98587
G1 X-19.852 Y-21.685 E19.02987
G1 X-20.119 Y-22.013 E19.08262
G1 X-20.673 Y-22.387 E19.16599
G1 X-20.941 Y-22.727 E19.21999
G1 X-21.024 Y-22.927 E19.247
G1 X-21.197 Y-23.172 E19.28441
G1 X-21.39 Y-23.336 E19.31599
G1 X-21.608 Y-23.438 E19.34601
G1 X-21.877 Y-23.487 E19.38012
G1 X-22.206 Y-23.466 E19.42124
G1 X-22.586 Y-23.361 E19.47041
G1 X-23.007 Y-23.158 E19.5287
G1 X-23.447 Y-22.858 E19.59512
G1 X-23.868 Y-22.477 E19.66594
G1 X-24.685 Y-21.533 E19.82166
G1 X-24.866 Y-21.457 E19.84614
G1 X-24.84 Y-21.284 E19.86796
G1 X-24.893 Y-20.981 E19.90633
G1 X-25.26 Y-20.032 E20.03323
G1 X-25.415 Y-19.805 E20.06752
G1 X-25.622 Y-19.616 E20.10248
G1 X-26.002 Y-19.183 E20.17433
G1 X-26.304 Y-18.736 E20.24162
G1 X-26.503 Y-18.323 E20.2988
G1 X-26.62 Y-17.909 E20.35246
G1 X-26.718 Y-17.388 E20.41858
G1 X-26.372 Y-17.061 E20.47795
G1 X-26.053 Y-16.844 E20.52608
G1 X-25.536 Y-16.365 E20.61398
G1 X-25.386 Y-16.133 E20.64844
G1 X-25.264 Y-16.114 E20.66384
G1 X-24.991 Y-15.971 E20.70228
G1 X-24.807 Y-15.823 E20.73173
G1 X-24.316 Y-15.513 E20.80415
G1 X-23.948 Y-15.346 E20.85456
G1 X-23.639 Y-15.086 E20.90493
G1 X-23.407 Y-15.111 E20.93403
G1 X-22.889 Y-14.952 E21.00161
G1 X-22.23 Y-14.911 E21.08397
G1 X-22.112 Y-14.993 E21.10189
G1 X-21.543 Y-15.285 E21.18166
G1 X-21.111 Y-15.59 E21.24761
G1 X-20.661 Y-15.999 E21.32346
G1 X-20.08 Y-16.579 E21.42585
G1 X-19.669 Y-17.055 E21.50429
G1 F1500 E15.00429
G1 F600 Z1.5
G0 F3600 X-19.669 Y-17.055 Z1.5
G0 X-10.095 Y-31.745
G1 F600 Z0.5
G1 F1500 E21.50429
G1 F1800 X-9.884 Y-31.628 E21.53438
G1 X-9.288 Y-31.226 E21.62405
G1 X-8.854 Y-30.988 E21.68578
G1 X-8.462 Y-30.905 E21.73576
G1 X-7.993 Y-31.211 E21.80561
G1 X-7.056 Y-32.152 E21.97124
G1 X-6.689 Y-32.675 E22.05093
G1 X-6.315 Y-33.454 E22.1587
G1 X-6.187 Y-34.023 E22.23145
G1 X-6.772 Y-34.393 E22.31778
G1 X-7.182 Y-34.805 E22.39028
G1 X-7.6 Y-35.103 E22.4543
G1 X-8.127 Y-35.624 E22.54673
G1 X-8.441 Y-35.354 E22.59838
G1 X-9.014 Y-34.693 E22.70749
G1 X-9.071 Y-34.471 E22.73608
G1 X-9.457 Y-33.475 E22.86931
G1 X-9.79 Y-32.924 E22.94961
G1 X-10.42 Y-32.236 E23.06596
G1 X-10.487 Y-32.121 E23.08256
G1 X-10.095 Y-31.745 E23.15031
G0 F3600 X-10.578 Y-31.387
G1 F1800 X-10.476 Y-31.27 E23.16967
G1 X-10.22 Y-31.131 E23.206
G1 X-9.599 Y-30.712 E23.29944
G1 X-9.065 Y-30.419 E23.37541
G1 X-8.378 Y-30.273 E23.46301
G1 X-8.03 Y-30.452 E23.51182
G1 X-7.607 Y-30.749 E23.57628
G1 X-6.812 Y-31.547 E23.71678
G1 X-6.467 Y-31.945 E23.78247
G1 X-6.177 Y-32.36 E23.84562
G1 X-5.941 Y-32.792 E23.90702
G1 X-5.742 Y-33.268 E23.97136
G1 X-5.566 Y-34.05 E24.07134
G1 X-5.575 Y-34.417 E24.11713
G1 X-5.899 Y-34.546 E24.16062
G1 X-6.449 Y-34.898 E24.24207
G1 X-6.787 Y-35.262 E24.30402
G1 X-7.182 Y-35.533 E24.36377
G1 X-7.679 Y-36.016 E24.45021
G1 X-7.911 Y-36.406 E24.50681
G1 X-8.26 Y-36.26 E24.55399
G1 X-8.559 Y-36.056 E24.59914
G1 X-8.871 Y-35.775 E24.65151
G1 X-9.564 Y-34.975 E24.78352
G1 X-9.631 Y-34.688 E24.82028
G1 X-9.999 Y-33.737 E24.94747
G1 X-10.274 Y-33.283 E25.01367
G1 X-10.907 Y-32.592 E25.13055
G1 X-11.248 Y-32.008 E25.2149
G1 X-10.578 Y-31.387 E25.32884
G0 F3600 X-10.986 Y-30.947
G1 F1800 X-10.866 Y-30.795 E25.35299
G1 X-10.576 Y-30.648 E25.39354
G1 X-10.317 Y-30.457 E25.43368
G1 X-9.887 Y-30.184 E25.49721
G1 X-9.559 Y-30.036 E25.54209
G1 X-9.304 Y-29.85 E25.58146
G1 X-8.834 Y-29.774 E25.64084
G1 X-8.604 Y-29.686 E25.67156
G1 X-8.251 Y-29.664 E25.71567
G1 X-7.717 Y-29.939 E25.79059
G1 X-7.334 Y-30.208 E25.84896
G1 X-6.953 Y-30.555 E25.91324
G1 X-6.378 Y-31.132 E26.01484
G1 X-5.993 Y-31.576 E26.08813
G1 X-5.667 Y-32.043 E26.15917
G1 X-5.397 Y-32.536 E26.22928
G1 X-5.175 Y-33.068 E26.30118
G1 X-5.034 Y-33.56 E26.36501
G1 X-4.966 Y-34.002 E26.42079
G1 X-4.962 Y-34.377 E26.46756
G1 X-5.006 Y-34.661 E26.50341
G1 X-5.112 Y-34.887 E26.53454
G1 X-5.596 Y-35.064 E26.59882
G1 X-6.009 Y-35.306 E26.65852
G1 X-6.397 Y-35.724 E26.72966
G1 X-6.764 Y-35.963 E26.78428
G1 X-7.202 Y-36.389 E26.86049
G1 X-7.517 Y-36.918 E26.93728
G1 X-7.649 Y-37.004 E26.95693
G1 X-7.969 Y-37.013 E26.99686
G1 X-8.234 Y-36.939 E27.03117
G1 X-8.56 Y-36.782 E27.07631
G1 X-8.934 Y-36.526 E27.13283
G1 X-9.296 Y-36.2 E27.19359
G1 X-10.121 Y-35.248 E27.35072
G1 X-10.191 Y-34.905 E27.39438
G1 X-10.559 Y-33.954 E27.52156
G1 X-10.781 Y-33.604 E27.57326
G1 X-11.049 Y-33.339 E27.62027
G1 X-11.384 Y-32.958 E27.68354
G1 X-11.641 Y-32.579 E27.74066
G1 X-11.849 Y-32.142 E27.80102
G1 X-11.926 Y-31.741 E27.85195
G1 X-11.503 Y-31.426 E27.91773
G1 X-10.986 Y-30.947 E28.00564
G1 F1500 E21.50564
G1 F600 Z1.5
G0 F3600 X-10.986 Y-30.947 Z1.5
G0 X-11.802 Y-30.067
G1 F600 Z0.5
G1 F1500 E28.00564
G1 F1800 X-12.319 Y-30.546 E28.09354
G1 X-12.623 Y-30.743 E28.13872
G1 X-12.836 Y-30.982 E28.17865
G1 X-12.964 Y-31.066 E28.19775
G1 X-13.118 Y-31.076 E28.217
G1 X-13.271 Y-30.995 E28.23859
G1 X-13.569 Y-30.7 E28.29089
G1 X-14.388 Y-30.078 E28.41916
G1 X-14.831 Y-29.83 E28.48248
G1 X-15.193 Y-29.477 E28.54555
G1 X-15.671 Y-29.101 E28.6214
G1 X-16.146 Y-28.753 E28.69484
G1 X-16.608 Y-28.48 E28.76177
G1 X-16.876 Y-28.197 E28.81039
G1 X-17.621 Y-27.612 E28.92853
G1 X-18.035 Y-27.399 E28.9866
G1 X-18.314 Y-27.323 E29.02267
G1 X-18.481 Y-27.348 E29.04373
G1 X-18.438 Y-27.585 E29.07377
