;FLAVOR:Marlin
;TIME:1396
;Filament used: 0.916159m
;Layer height: 0.12
;MINX:-11.5
;MINY:-69.571
;MINZ:0.24
;MAXX:21.5
;MAXY:-34.21
;MAXZ:8.92
;Generated with Cura_SteamEngine 4.13.1
M140 S50
M105
M190 S50
M104 S210
M105
M109 S210
M82 ;absolute extrusion mode
;FLAVOR:Marlin
M82 ;absolute extrusion mode
G21
G90
M82
M107 T0
G28
G92 E0
G0 E3 F200
G92 E0 ; reset extrusion distance
M106 S255 ; Enable cooling fan full speed
G1 X-98 Y0 Z0.4 F3000 ; move to arc start
G3 X0 Y-98 I98 Z0.4 E40 F400 ; lay arc stripe 90deg
G92 E0 ; reset extrusion distance
G4 P500 ; wait for 0.5 sec
G0 Z10 E-1 ; Lift 15mm and retract 1mm filament
G4 P2000 ; wait for 5 sec
G0 Z15
M107 ; Disable cooling fan
G1 X0 Y-85 Z4 E0 F3000 ; get off the bed
G92 E0
G92 E0
G1 F1500 E-6
;LAYER_COUNT:66
;LAYER:0
M106 S102
G1 F600 Z1.24
G0 F3600 X-3.826 Y-34.272 Z1.24
;TYPE:SKIRT
G1 F600 Z0.24
G1 F3600 E0.71493
G1 F1200 X-4.43 Y-34.211 E0.74188
G1 X-7.431 Y-34.211 E0.87516
G1 X-7.919 Y-34.251 E0.8969
G1 X-8.394 Y-34.37 E0.91865
G1 X-8.843 Y-34.564 E0.94037
G1 X-9.255 Y-34.829 E0.96212
G1 X-9.618 Y-35.157 E0.98385
G1 X-9.923 Y-35.54 E1.00559
G1 X-10.186 Y-36.039 E1.03064
G1 X-10.687 Y-36.455 E1.05956
G1 X-10.992 Y-36.838 E1.08131
G1 X-11.23 Y-37.266 E1.10306
G1 X-11.396 Y-37.726 E1.12477
G1 X-11.5 Y-38.509 E1.15985
G1 X-11.5 Y-39.713 E1.21332
G1 X-11.46 Y-40.201 E1.23506
G1 X-11.341 Y-40.676 E1.25681
G1 X-11.029 Y-41.309 E1.28815
G1 X-11.23 Y-41.67 E1.3065
G1 X-11.396 Y-42.131 E1.32826
G1 X-11.5 Y-42.913 E1.36329
G1 X-11.499 Y-62.599 E2.23754
G1 X-11.473 Y-63.168 E2.26283
G1 X-11.368 Y-63.918 E2.29647
G1 X-11.183 Y-64.65 E2.33
G1 X-10.922 Y-65.356 E2.36342
G1 X-10.583 Y-66.034 E2.39709
G1 X-10.172 Y-66.673 E2.43083
G1 X-9.706 Y-67.252 E2.46383
G1 X-9.167 Y-67.79 E2.49765
G1 X-8.577 Y-68.263 E2.53124
G1 X-7.941 Y-68.67 E2.56477
G1 X-7.267 Y-69.004 E2.59817
G1 X-6.548 Y-69.267 E2.63217
G1 X-5.825 Y-69.447 E2.66526
G1 X-5.068 Y-69.55 E2.69919
G1 X-4.318 Y-69.571 E2.73251
G1 X-3.569 Y-69.511 E2.76588
G1 X-2.815 Y-69.367 E2.79997
G1 X-2.109 Y-69.153 E2.83273
G1 X-1.407 Y-68.853 E2.86663
G1 X-.751 Y-68.485 E2.90004
G1 X-.31 Y-68.176 E2.92395
G1 X0.502 Y-68.136 E2.96006
G1 X0.977 Y-68.017 E2.9818
G1 X1.426 Y-67.823 E3.00352
G1 X1.666 Y-67.668 E3.01621
G1 X1.964 Y-67.835 E3.03138
G1 X2.424 Y-68.002 E3.05311
G1 X2.905 Y-68.092 E3.07485
G1 X3.214 Y-68.108 E3.08859
G1 X6.786 Y-68.108 E3.24722
G1 X7.274 Y-68.068 E3.26896
G1 X7.749 Y-67.949 E3.29071
G1 X8.325 Y-67.674 E3.31905
G1 X8.75 Y-67.909 E3.34062
G1 X9.211 Y-68.074 E3.36237
G1 X9.986 Y-68.176 E3.39708
G1 X10.309 Y-68.176 E3.41142
G1 X10.75 Y-68.485 E3.43534
G1 X11.404 Y-68.852 E3.46864
G1 X12.109 Y-69.153 E3.50269
G1 X12.815 Y-69.367 E3.53545
G1 X13.569 Y-69.511 E3.56954
G1 X14.318 Y-69.571 E3.60291
G1 X15.068 Y-69.55 E3.63623
G1 X15.827 Y-69.447 E3.67024
G1 X16.545 Y-69.268 E3.7031
G1 X17.266 Y-69.004 E3.7372
G1 X17.938 Y-68.671 E3.77051
G1 X18.577 Y-68.263 E3.80418
G1 X19.167 Y-67.79 E3.83776
G1 X19.704 Y-67.254 E3.87145
G1 X20.171 Y-66.674 E3.90452
G1 X20.585 Y-66.031 E3.93849
G1 X20.915 Y-65.371 E3.97126
G1 X21.186 Y-64.644 E4.00571
G1 X21.369 Y-63.909 E4.03935
G1 X21.473 Y-63.161 E4.07289
G1 X21.5 Y-62.577 E4.09885
G1 X21.5 Y-42.912 E4.97216
G1 X21.46 Y-42.424 E4.99391
G1 X21.341 Y-41.949 E5.01565
G1 X21.029 Y-41.317 E5.04695
G1 X21.23 Y-40.955 E5.06534
G1 X21.396 Y-40.495 E5.08706
G1 X21.5 Y-39.712 E5.12214
G1 X21.5 Y-38.509 E5.17556
G1 X21.46 Y-38.021 E5.19731
G1 X21.341 Y-37.546 E5.21905
G1 X21.147 Y-37.097 E5.24077
G1 X20.882 Y-36.685 E5.26253
G1 X20.554 Y-36.322 E5.28426
G1 X20.175 Y-36.02 E5.30578
G1 X20.079 Y-35.798 E5.31652
G1 X19.814 Y-35.386 E5.33827
G1 X19.486 Y-35.023 E5.36
G1 X19.103 Y-34.718 E5.38174
G1 X18.675 Y-34.48 E5.40349
G1 X18.215 Y-34.314 E5.42521
G1 X17.432 Y-34.21 E5.46029
G1 X14.433 Y-34.21 E5.59347
G1 X13.945 Y-34.25 E5.61521
G1 X13.47 Y-34.369 E5.63696
G1 X13.021 Y-34.563 E5.65868
G1 X12.609 Y-34.828 E5.68044
G1 X12.246 Y-35.156 E5.70216
G1 X11.941 Y-35.539 E5.72391
G1 X11.67 Y-36.058 E5.74991
G1 X11.201 Y-36.454 E5.77717
G1 X10.896 Y-36.837 E5.79891
G1 X10.613 Y-37.391 E5.82654
G1 X10.163 Y-37.904 E5.85684
G1 X9.923 Y-38.331 E5.8786
G1 X9.757 Y-38.791 E5.90031
G1 X9.658 Y-39.339 E5.92504
G1 X9.634 Y-39.828 E5.94679
G1 X9.689 Y-40.314 E5.96851
G1 X9.823 Y-40.785 E5.99025
G1 X10.032 Y-41.227 E6.01197
G1 X10.219 Y-41.498 E6.02659
G1 X9.958 Y-42.129 E6.05691
G1 X9.876 Y-42.551 E6.07601
G1 X8.071 Y-57.443 E6.74219
G1 X7.563 Y-57.249 E6.76634
G1 X6.776 Y-57.144 E6.8016
G1 X3.224 Y-57.144 E6.95934
G1 X2.736 Y-57.184 E6.98109
G1 X2.261 Y-57.303 E7.00283
G1 X1.929 Y-57.446 E7.01889
G1 X0.124 Y-42.551 E7.68521
G1 X0.026 Y-42.072 E7.70692
G1 X-.149 Y-41.614 E7.72869
G1 X-.396 Y-41.192 E7.75041
G1 X-.543 Y-41.015 E7.76062
G1 X-.343 Y-40.494 E7.78541
G1 X-.254 Y-40.013 E7.80713
G1 X-.261 Y-39.348 E7.83667
G1 X-.408 Y-38.145 E7.89049
G1 X-.507 Y-37.666 E7.91221
G1 X-.682 Y-37.209 E7.93394
G1 X-.93 Y-36.786 E7.95572
G1 X-1.243 Y-36.41 E7.97744
G1 X-1.662 Y-36.059 E8.00172
G1 X-1.875 Y-35.639 E8.02263
G1 X-2.164 Y-35.245 E8.04433
G1 X-2.514 Y-34.902 E8.06609
G1 X-2.915 Y-34.622 E8.08781
G1 X-3.198 Y-34.486 E8.10176
G0 F1080 X-3.356 Y-34.41
G0 X-3.826 Y-34.272
G0 F3600 X-3.709 Y-34.713
G1 F1200 X-4.43 Y-34.611 E8.1341
G1 X-7.431 Y-34.611 E8.26737
G1 X-7.885 Y-34.651 E8.28761
G1 X-8.325 Y-34.769 E8.30784
G1 X-8.737 Y-34.963 E8.32806
G1 X-9.11 Y-35.226 E8.34833
G1 X-9.431 Y-35.549 E8.36855
G1 X-9.69 Y-35.924 E8.38879
G1 X-9.863 Y-36.301 E8.40721
G1 X-10.179 Y-36.524 E8.42439
G1 X-10.5 Y-36.847 E8.44461
G1 X-10.759 Y-37.222 E8.46485
G1 X-10.949 Y-37.636 E8.48508
G1 X-11.064 Y-38.077 E8.50532
G1 X-11.1 Y-38.509 E8.52457
G1 X-11.1 Y-39.713 E8.57804
G1 X-11.06 Y-40.167 E8.59828
G1 X-10.942 Y-40.607 E8.61851
G1 X-10.748 Y-41.019 E8.63874
G1 X-10.542 Y-41.311 E8.65461
G1 X-10.759 Y-41.626 E8.67159
G1 X-10.949 Y-42.04 E8.69182
G1 X-11.064 Y-42.481 E8.71206
G1 X-11.1 Y-42.913 E8.73131
G1 X-11.099 Y-62.599 E9.60556
G1 X-11.073 Y-63.146 E9.62988
G1 X-10.973 Y-63.854 E9.66163
G1 X-10.798 Y-64.543 E9.6932
G1 X-10.55 Y-65.208 E9.72472
G1 X-10.229 Y-65.847 E9.75648
G1 X-9.841 Y-66.448 E9.78825
G1 X-9.4 Y-66.995 E9.81945
G1 X-8.892 Y-67.5 E9.85126
G1 X-8.334 Y-67.946 E9.88298
G1 X-7.733 Y-68.328 E9.91461
G1 X-7.097 Y-68.642 E9.94611
G1 X-6.42 Y-68.888 E9.9781
G1 X-5.737 Y-69.057 E10.00934
G1 X-5.023 Y-69.153 E10.04134
G1 X-4.316 Y-69.171 E10.07274
G1 X-3.61 Y-69.113 E10.1042
G1 X-2.9 Y-68.976 E10.13632
G1 X-2.233 Y-68.772 E10.16729
G1 X-1.573 Y-68.489 E10.19918
G1 X-.954 Y-68.141 E10.23072
G1 X-.442 Y-67.776 E10.25864
G1 X0.468 Y-67.736 E10.29909
G1 X0.908 Y-67.618 E10.31932
G1 X1.32 Y-67.424 E10.33955
G1 X1.661 Y-67.183 E10.35809
G1 X1.921 Y-67.364 E10.37216
G1 X2.335 Y-67.555 E10.39241
G1 X2.776 Y-67.671 E10.41266
G1 X3.214 Y-67.708 E10.43218
G1 X6.786 Y-67.708 E10.59081
G1 X7.24 Y-67.668 E10.61105
G1 X7.68 Y-67.55 E10.63128
G1 X8.092 Y-67.356 E10.6515
G1 X8.335 Y-67.184 E10.66473
G1 X8.704 Y-67.438 E10.68462
G1 X9.119 Y-67.627 E10.70487
G1 X9.56 Y-67.741 E10.7251
G1 X10.443 Y-67.776 E10.76434
G1 X10.954 Y-68.14 E10.79221
G1 X11.57 Y-68.488 E10.82363
G1 X12.233 Y-68.772 E10.85566
G1 X12.9 Y-68.976 E10.88663
G1 X13.61 Y-69.113 E10.91874
G1 X14.316 Y-69.171 E10.9502
G1 X15.023 Y-69.153 E10.98161
G1 X15.738 Y-69.057 E11.01365
G1 X16.417 Y-68.889 E11.04471
G1 X17.097 Y-68.642 E11.07684
G1 X17.731 Y-68.329 E11.10824
G1 X18.334 Y-67.946 E11.13997
G1 X18.891 Y-67.5 E11.17165
G1 X19.398 Y-66.996 E11.2034
G1 X19.84 Y-66.45 E11.2346
G1 X20.231 Y-65.845 E11.26659
G1 X20.543 Y-65.222 E11.29753
G1 X20.8 Y-64.538 E11.32998
G1 X20.974 Y-63.845 E11.36171
G1 X21.073 Y-63.139 E11.39337
G1 X21.1 Y-62.577 E11.41836
G1 X21.1 Y-42.912 E12.29167
G1 X21.06 Y-42.458 E12.31191
G1 X20.942 Y-42.018 E12.33214
G1 X20.748 Y-41.606 E12.35237
G1 X20.542 Y-41.314 E12.36823
G1 X20.759 Y-40.999 E12.38522
G1 X20.949 Y-40.585 E12.40545
G1 X21.064 Y-40.144 E12.42569
G1 X21.1 Y-39.712 E12.44494
G1 X21.1 Y-38.509 E12.49837
G1 X21.06 Y-38.055 E12.51861
G1 X20.942 Y-37.615 E12.53884
G1 X20.748 Y-37.203 E12.55906
G1 X20.485 Y-36.83 E12.57933
G1 X20.162 Y-36.509 E12.59955
G1 X19.87 Y-36.307 E12.61532
G1 X19.68 Y-35.904 E12.63511
G1 X19.417 Y-35.531 E12.65538
G1 X19.094 Y-35.21 E12.6756
G1 X18.719 Y-34.951 E12.69584
G1 X18.305 Y-34.761 E12.71607
G1 X17.864 Y-34.646 E12.73631
G1 X17.432 Y-34.61 E12.75556
G1 X14.433 Y-34.61 E12.88874
G1 X13.979 Y-34.65 E12.90898
G1 X13.539 Y-34.768 E12.92921
G1 X13.127 Y-34.962 E12.94944
G1 X12.754 Y-35.225 E12.9697
G1 X12.433 Y-35.548 E12.98993
G1 X12.174 Y-35.923 E13.01017
G1 X11.989 Y-36.325 E13.02982
G1 X11.709 Y-36.523 E13.04505
G1 X11.388 Y-36.846 E13.06527
G1 X11.129 Y-37.221 E13.08551
G1 X10.941 Y-37.631 E13.10554
G1 X10.696 Y-37.866 E13.12062
G1 X10.427 Y-38.233 E13.14083
G1 X10.226 Y-38.642 E13.16106
G1 X10.074 Y-39.239 E13.18842
G1 X10.035 Y-39.846 E13.21544
G1 X10.095 Y-40.298 E13.23568
G1 X10.233 Y-40.732 E13.25591
G1 X10.445 Y-41.135 E13.27613
G1 X10.702 Y-41.469 E13.29485
G1 X10.405 Y-42.039 E13.32339
G1 X10.273 Y-42.599 E13.34894
G1 X8.438 Y-57.738 E14.02618
G1 X8.173 Y-57.961 E14.04156
G1 X7.653 Y-57.696 E14.06748
G1 X7.212 Y-57.581 E14.08772
G1 X6.776 Y-57.544 E14.10715
G1 X3.224 Y-57.544 E14.26489
G1 X2.77 Y-57.584 E14.28513
G1 X2.33 Y-57.702 E14.30536
G1 X1.826 Y-57.961 E14.33053
G1 X1.562 Y-57.735 E14.34596
G1 X-.273 Y-42.599 E15.02306
G1 X-.367 Y-42.153 E15.0433
G1 X-.538 Y-41.731 E15.06353
G1 X-.779 Y-41.345 E15.08373
G1 X-1.029 Y-41.069 E15.10027
G1 X-.79 Y-40.585 E15.12424
G1 X-.675 Y-40.144 E15.14448
G1 X-.639 Y-39.69 E15.16471
G1 X-.658 Y-39.397 E15.17775
G1 X-.805 Y-38.194 E15.23157
G1 X-.9 Y-37.748 E15.25182
G1 X-1.071 Y-37.326 E15.27204
G1 X-1.313 Y-36.94 E15.29227
G1 X-1.619 Y-36.602 E15.31252
G1 X-2 Y-36.312 E15.33379
G1 X-2.266 Y-35.769 E15.36064
G1 X-2.551 Y-35.414 E15.38086
G1 X-2.894 Y-35.113 E15.40112
G1 X-3.104 Y-34.985 E15.41204
G0 F1080 X-3.284 Y-34.877
G0 X-3.709 Y-34.713
G0 F3600 X-4.049 Y-35.044
G1 F1200 X-4.43 Y-35.011 E15.42903
G1 X-7.431 Y-35.011 E15.5623
G1 X-7.848 Y-35.051 E15.5809
G1 X-8.25 Y-35.169 E15.59951
G1 X-8.622 Y-35.362 E15.61812
G1 X-8.951 Y-35.621 E15.63672
G1 X-9.225 Y-35.938 E15.65532
G1 X-9.434 Y-36.301 E15.67392
G1 X-9.528 Y-36.575 E15.68679
G1 X-10.02 Y-36.919 E15.71345
G1 X-10.294 Y-37.236 E15.73206
G1 X-10.503 Y-37.599 E15.75066
G1 X-10.639 Y-37.996 E15.7693
G1 X-10.7 Y-38.509 E15.79224
G1 X-10.7 Y-39.713 E15.84571
G1 X-10.66 Y-40.13 E15.86431
G1 X-10.542 Y-40.532 E15.88292
G1 X-10.349 Y-40.904 E15.90153
G1 X-10.003 Y-41.309 E15.92518
G1 X-10.295 Y-41.64 E15.94479
G1 X-10.503 Y-42.004 E15.9634
G1 X-10.639 Y-42.4 E15.982
G1 X-10.7 Y-42.913 E16.00494
G1 X-10.699 Y-62.599 E16.87919
G1 X-10.674 Y-63.125 E16.90257
G1 X-10.578 Y-63.789 E16.93237
G1 X-10.412 Y-64.436 E16.96203
G1 X-10.178 Y-65.061 E16.99167
G1 X-9.876 Y-65.66 E17.02146
G1 X-9.51 Y-66.224 E17.05132
G1 X-9.094 Y-66.737 E17.08065
G1 X-8.616 Y-67.21 E17.11051
G1 X-8.091 Y-67.628 E17.14031
G1 X-7.526 Y-67.986 E17.17002
G1 X-6.928 Y-68.28 E17.19961
G1 X-6.292 Y-68.509 E17.22963
G1 X-5.649 Y-68.667 E17.25904
G1 X-4.979 Y-68.755 E17.28905
G1 X-4.314 Y-68.771 E17.31859
G1 X-3.651 Y-68.716 E17.34813
G1 X-2.984 Y-68.585 E17.37832
G1 X-2.358 Y-68.392 E17.40741
G1 X-1.738 Y-68.125 E17.43739
G1 X-1.158 Y-67.797 E17.46698
G1 X-.614 Y-67.405 E17.49676
G1 X-.567 Y-67.376 E17.49921
G1 X0.014 Y-67.376 E17.52501
G1 X0.431 Y-67.336 E17.54361
G1 X0.833 Y-67.218 E17.56222
G1 X1.205 Y-67.025 E17.58083
G1 X1.641 Y-66.643 E17.60657
G1 X1.937 Y-66.899 E17.62395
G1 X2.3 Y-67.109 E17.64258
G1 X2.696 Y-67.246 E17.66119
G1 X3.214 Y-67.308 E17.68435
G1 X6.786 Y-67.308 E17.84299
G1 X7.203 Y-67.268 E17.86159
G1 X7.605 Y-67.15 E17.8802
G1 X7.977 Y-66.957 E17.89881
G1 X8.354 Y-66.643 E17.9206
G1 X8.718 Y-66.974 E17.94244
G1 X9.082 Y-67.182 E17.96106
G1 X9.478 Y-67.317 E17.97964
G1 X9.986 Y-67.376 E18.00235
G1 X10.575 Y-67.376 E18.02851
G1 X11.157 Y-67.796 E18.06039
G1 X11.736 Y-68.124 E18.08994
G1 X12.358 Y-68.392 E18.12002
G1 X12.984 Y-68.585 E18.14911
G1 X13.651 Y-68.716 E18.17929
G1 X14.314 Y-68.771 E18.20884
G1 X14.979 Y-68.755 E18.23838
G1 X15.65 Y-68.666 E18.26844
G1 X16.289 Y-68.51 E18.29765
G1 X16.927 Y-68.28 E18.32777
G1 X17.523 Y-67.987 E18.35726
G1 X18.091 Y-67.628 E18.3871
G1 X18.616 Y-67.211 E18.41688
G1 X19.093 Y-66.738 E18.44671
G1 X19.509 Y-66.225 E18.47604
G1 X19.877 Y-65.658 E18.50606
G1 X20.172 Y-65.073 E18.53516
G1 X20.414 Y-64.432 E18.56558
G1 X20.579 Y-63.782 E18.59536
G1 X20.674 Y-63.117 E18.6252
G1 X20.7 Y-62.577 E18.64921
G1 X20.7 Y-42.912 E19.52252
G1 X20.66 Y-42.495 E19.54112
G1 X20.542 Y-42.093 E19.55973
G1 X20.349 Y-41.721 E19.57834
G1 X20.002 Y-41.316 E19.60202
G1 X20.294 Y-40.985 E19.62162
G1 X20.503 Y-40.622 E19.64023
G1 X20.639 Y-40.225 E19.65886
G1 X20.7 Y-39.712 E19.68181
G1 X20.7 Y-38.509 E19.73523
G1 X20.66 Y-38.092 E19.75383
G1 X20.542 Y-37.69 E19.77244
G1 X20.349 Y-37.318 E19.79105
G1 X20.09 Y-36.989 E19.80965
G1 X19.773 Y-36.715 E19.82825
G1 X19.528 Y-36.574 E19.84081
G1 X19.474 Y-36.391 E19.84928
G1 X19.281 Y-36.019 E19.86789
G1 X19.022 Y-35.69 E19.88649
G1 X18.705 Y-35.416 E19.90509
G1 X18.342 Y-35.207 E19.9237
G1 X17.945 Y-35.071 E19.94233
G1 X17.432 Y-35.01 E19.96528
G1 X14.433 Y-35.01 E20.09846
G1 X14.016 Y-35.05 E20.11706
G1 X13.614 Y-35.168 E20.13567
G1 X13.242 Y-35.361 E20.15428
G1 X12.913 Y-35.62 E20.17288
G1 X12.639 Y-35.937 E20.19148
G1 X12.43 Y-36.3 E20.21008
G1 X12.331 Y-36.59 E20.22369
G1 X11.868 Y-36.918 E20.24889
G1 X11.594 Y-37.235 E20.2675
G1 X11.385 Y-37.598 E20.2861
G1 X11.298 Y-37.853 E20.29807
G1 X10.932 Y-38.206 E20.32065
G1 X10.703 Y-38.558 E20.3393
G1 X10.545 Y-38.946 E20.3579
G1 X10.451 Y-39.443 E20.38036
G1 X10.436 Y-39.862 E20.39898
G1 X10.501 Y-40.276 E20.41759
G1 X10.643 Y-40.67 E20.43619
G1 X10.857 Y-41.03 E20.45479
G1 X11.244 Y-41.426 E20.47938
G1 X11.06 Y-41.639 E20.49188
G1 X10.851 Y-42.002 E20.51048
G1 X10.67 Y-42.647 E20.54023
G1 X8.814 Y-57.96 E21.22525
G1 X8.525 Y-58.168 E21.24107
G1 X8.222 Y-58.499 E21.26099
G1 X8.051 Y-58.351 E21.27104
G1 X7.688 Y-58.142 E21.28964
G1 X7.292 Y-58.005 E21.30825
G1 X6.776 Y-57.944 E21.33132
G1 X3.224 Y-57.944 E21.48907
G1 X2.807 Y-57.984 E21.50767
G1 X2.405 Y-58.102 E21.52628
G1 X2.033 Y-58.295 E21.54489
G1 X1.771 Y-58.501 E21.55969
G1 X1.614 Y-58.302 E21.57094
G1 X1.186 Y-57.961 E21.59525
G1 X-.67 Y-42.647 E22.28031
G1 X-.76 Y-42.238 E22.29891
G1 X-.926 Y-41.853 E22.31753
G1 X-1.161 Y-41.507 E22.3361
G1 X-1.573 Y-41.134 E22.36078
G1 X-1.444 Y-40.985 E22.36954
G1 X-1.236 Y-40.621 E22.38815
G1 X-1.1 Y-40.225 E22.40675
G1 X-1.041 Y-39.81 E22.42536
G1 X-1.055 Y-39.445 E22.44158
G1 X-1.202 Y-38.242 E22.49541
G1 X-1.292 Y-37.833 E22.514
G1 X-1.459 Y-37.448 E22.53264
G1 X-1.695 Y-37.102 E22.55124
G1 X-1.992 Y-36.807 E22.56983
G1 X-2.33 Y-36.58 E22.58791
G1 X-2.442 Y-36.268 E22.60263
G1 X-2.657 Y-35.908 E22.62126
G1 X-2.936 Y-35.596 E22.63984
G1 X-3.27 Y-35.342 E22.65848
G1 X-3.425 Y-35.265 E22.66616
G0 F1080 X-3.645 Y-35.156
G0 X-4.049 Y-35.044
G0 F3600 X-3.995 Y-35.464
G1 F1200 X-4.43 Y-35.411 E22.68563
G1 X-7.431 Y-35.411 E22.8189
G1 X-7.808 Y-35.451 E22.83573
G1 X-8.168 Y-35.569 E22.85256
G1 X-8.495 Y-35.759 E22.86935
G1 X-8.776 Y-36.014 E22.88621
G1 X-8.996 Y-36.323 E22.90305
G1 X-9.148 Y-36.67 E22.91987
G1 X-9.175 Y-36.847 E22.92783
G1 X-9.564 Y-37.057 E22.94746
G1 X-9.845 Y-37.312 E22.96431
G1 X-10.065 Y-37.621 E22.98115
G1 X-10.217 Y-37.968 E22.99798
G1 X-10.3 Y-38.509 E23.02228
G1 X-10.3 Y-39.713 E23.07575
G1 X-10.26 Y-40.09 E23.09259
