;FLAVOR:Marlin
;TIME:1904
;Filament used: 3.22342m
;Layer height: 0.24
;MINX:-17.616
;MINY:-34.339
;MINZ:0.3
;MAXX:25.75
;MAXY:12.448
;MAXZ:34.86
;Generated with Cura_SteamEngine 4.13.1
M140 S50
M105
M190 S50
M104 S210
M105
M109 S210
M82 ;absolute extrusion mode
;FLAVOR:Marlin
M82 ;absolute extrusion mode
G21
G90
M82
M107 T0
G28
G92 E0
G0 E3 F200
G92 E0 ; reset extrusion distance
M106 S255 ; Enable cooling fan full speed
G1 X-98 Y0 Z0.4 F3000 ; move to arc start
G3 X0 Y-98 I98 Z0.4 E40 F400 ; lay arc stripe 90deg
G92 E0 ; reset extrusion distance
G4 P500 ; wait for 0.5 sec
G0 Z10 E-1 ; Lift 15mm and retract 1mm filament
G4 P2000 ; wait for 5 sec
G0 Z15
M107 ; Disable cooling fan
G1 X0 Y-85 Z4 E0 F3000 ; get off the bed
G92 E0
G92 E0
G1 F1500 E-6.5
;LAYER_COUNT:146
;LAYER:0
M106 S25.5
G1 F600 Z1.3
G0 F3600 X-.867 Y-.206 Z1.3
;TYPE:SKIRT
G1 F600 Z0.3
G1 F1500 E0.3326
G1 F2400 X-.763 Y0.776 E0.38187
G1 X-.686 Y1.762 E0.43121
G1 X-.68 Y1.86 E0.43611
G1 X-.631 Y2.972 E0.49164
G1 X-.618 Y3.931 E0.53949
G1 X-.624 Y4.156 E0.55072
G1 X-.664 Y4.808 E0.58331
G1 X-.708 Y5.17 E0.6015
G1 X-.829 Y5.824 E0.63468
G1 X-.915 Y6.171 E0.65252
G1 X-1.114 Y6.809 E0.68586
G1 X-1.245 Y7.153 E0.70422
G1 X-1.516 Y7.752 E0.73703
G1 X-1.689 Y8.078 E0.75544
G1 X-2.045 Y8.661 E0.78952
G1 X-2.243 Y8.948 E0.80691
G1 X-2.637 Y9.451 E0.83879
G1 X-2.88 Y9.725 E0.85706
G1 X-3.353 Y10.197 E0.8904
G1 X-3.631 Y10.442 E0.90889
G1 X-4.174 Y10.864 E0.9432
G1 X-4.467 Y11.065 E0.96092
G1 X-5.02 Y11.398 E0.99313
G1 X-5.335 Y11.563 E1.01087
G1 X-5.927 Y11.83 E1.04327
G1 X-6.273 Y11.961 E1.06173
G1 X-6.919 Y12.161 E1.09546
G1 X-7.271 Y12.247 E1.11354
G1 X-7.927 Y12.366 E1.1468
G1 X-8.286 Y12.409 E1.16484
G1 X-8.949 Y12.448 E1.19798
G1 X-9.307 Y12.447 E1.21584
G1 X-9.966 Y12.407 E1.24878
G1 X-10.329 Y12.363 E1.26702
G1 X-10.989 Y12.241 E1.3005
G1 X-11.337 Y12.155 E1.31839
G1 X-11.969 Y11.958 E1.35142
G1 X-12.312 Y11.828 E1.36972
G1 X-12.916 Y11.555 E1.40278
G1 X-13.246 Y11.38 E1.42142
G1 X-13.826 Y11.025 E1.45535
G1 X-14.11 Y10.828 E1.47259
G1 X-14.618 Y10.43 E1.50479
G1 X-14.896 Y10.183 E1.52334
G1 X-15.365 Y9.711 E1.55654
G1 X-15.604 Y9.439 E1.5746
G1 X-16.026 Y8.897 E1.60887
G1 X-16.23 Y8.6 E1.62685
G1 X-16.563 Y8.046 E1.65909
G1 X-16.731 Y7.724 E1.67721
G1 X-17 Y7.122 E1.71011
G1 X-17.126 Y6.788 E1.72792
G1 X-17.323 Y6.154 E1.76104
G1 X-17.409 Y5.802 E1.77912
G1 X-17.528 Y5.149 E1.81223
G1 X-17.572 Y4.79 E1.83028
G1 X-17.612 Y4.121 E1.86372
G1 X-17.616 Y3.88 E1.87574
G1 X-17.591 Y2.662 E1.93652
G1 X-17.586 Y2.542 E1.94251
G1 X-17.512 Y1.323 E2.00344
G1 X-17.503 Y1.21 E2.00909
G1 X-17.374 Y-0.082 E2.07387
G1 X-17.216 Y-1.246 E2.13248
G1 X-17.01 Y-2.472 E2.1945
G1 X-16.777 Y-3.648 E2.25431
G1 X-16.513 Y-4.822 E2.31435
G1 X-16.261 Y-5.853 E2.3673
G1 X-16.015 Y-6.806 E2.4164
G1 X-15.578 Y-8.456 E2.50156
G1 X-15.39 Y-9.213 E2.54047
G1 X-15.264 Y-9.777 E2.5693
G1 X-15.134 Y-10.68 E2.61482
G1 X-15.133 Y-11.413 E2.65139
G1 X-15.182 Y-11.846 E2.67313
G1 X-15.265 Y-12.341 E2.69817
G1 X-15.39 Y-12.94 E2.7287
G1 X-15.554 Y-13.644 E2.76476
G1 X-15.972 Y-15.359 E2.85283
G1 X-16.205 Y-16.34 E2.90313
G1 X-16.439 Y-17.389 E2.95675
G1 X-16.665 Y-18.503 E3.01346
G1 X-16.874 Y-19.672 E3.07271
G1 X-17.059 Y-20.892 E3.13427
G1 X-17.202 Y-22.055 E3.19273
G1 X-17.317 Y-23.336 E3.2569
G1 X-17.325 Y-23.44 E3.2621
G1 X-17.391 Y-24.66 E3.32305
G1 X-17.395 Y-24.771 E3.3286
G1 X-17.416 Y-26.008 E3.39032
G1 X-17.41 Y-26.252 E3.4025
G1 X-17.368 Y-26.903 E3.43504
G1 X-17.321 Y-27.274 E3.4537
G1 X-17.196 Y-27.927 E3.48687
G1 X-17.109 Y-28.269 E3.50448
G1 X-16.916 Y-28.878 E3.53635
G1 X-16.774 Y-29.242 E3.55584
G1 X-16.489 Y-29.852 E3.58943
G1 X-16.313 Y-30.176 E3.60783
G1 X-15.965 Y-30.731 E3.64051
G1 X-15.744 Y-31.038 E3.65938
G1 X-15.327 Y-31.547 E3.69221
G1 X-15.073 Y-31.821 E3.71085
G1 X-14.59 Y-32.28 E3.74409
G1 X-14.306 Y-32.518 E3.76258
G1 X-13.774 Y-32.911 E3.79558
G1 X-13.462 Y-33.113 E3.81412
G1 X-12.895 Y-33.432 E3.84658
G1 X-12.558 Y-33.595 E3.86525
G1 X-11.943 Y-33.846 E3.89839
G1 X-11.596 Y-33.963 E3.91666
G1 X-10.974 Y-34.132 E3.94882
G1 X-10.601 Y-34.208 E3.96781
G1 X-9.934 Y-34.301 E4.00141
G1 X-9.561 Y-34.33 E4.02007
G1 X-8.904 Y-34.339 E4.05285
G1 X-8.535 Y-34.321 E4.07129
G1 X-7.88 Y-34.249 E4.10416
G1 X-7.505 Y-34.183 E4.12316
G1 X-6.858 Y-34.027 E4.15636
G1 X-6.51 Y-33.921 E4.17451
G1 X-5.898 Y-33.692 E4.20711
G1 X-5.557 Y-33.539 E4.22576
G1 X-4.973 Y-33.233 E4.25865
G1 X-4.647 Y-33.036 E4.27765
G1 X-4.11 Y-32.661 E4.31033
G1 X-3.825 Y-32.435 E4.32848
G1 X-3.332 Y-31.993 E4.36151
G1 X-3.197 Y-31.863 E4.37086
G1 X23.47 Y-4.77 E6.26745
G1 X23.603 Y-4.626 E6.27723
G1 X24.007 Y-4.158 E6.30807
G1 X24.231 Y-3.864 E6.32651
G1 X24.571 Y-3.355 E6.35705
G1 X24.765 Y-3.019 E6.37641
G1 X25.046 Y-2.451 E6.40803
G1 X25.184 Y-2.126 E6.42564
G1 X25.386 Y-1.558 E6.45572
G1 X25.491 Y-1.19 E6.47481
G1 X25.63 Y-.55 E6.50748
G1 X25.686 Y-.176 E6.52635
G1 X25.74 Y0.438 E6.5571
G1 X25.75 Y0.809 E6.57562
G1 X25.728 Y1.418 E6.60602
G1 X25.691 Y1.79 E6.62467
G1 X25.589 Y2.419 E6.65646
G1 X25.505 Y2.789 E6.67539
G1 X25.329 Y3.385 E6.70639
G1 X25.2 Y3.737 E6.7251
G1 X24.948 Y4.313 E6.75647
G1 X24.777 Y4.647 E6.77519
G1 X24.457 Y5.184 E6.80637
G1 X24.247 Y5.491 E6.82493
G1 X23.863 Y5.984 E6.85611
G1 X23.61 Y6.27 E6.87516
G1 X23.17 Y6.707 E6.90609
G1 X22.888 Y6.953 E6.92476
G1 X22.385 Y7.341 E6.95646
G1 X22.075 Y7.551 E6.97514
G1 X21.535 Y7.869 E7.0064
G1 X21.21 Y8.035 E7.02461
G1 X20.663 Y8.273 E7.05437
G1 X20.3 Y8.404 E7.07362
G1 X19.671 Y8.586 E7.10629
G1 X19.312 Y8.666 E7.12464
G1 X18.713 Y8.762 E7.15491
G1 X18.337 Y8.798 E7.17375
G1 X17.699 Y8.819 E7.2056
G1 X17.323 Y8.808 E7.22437
G1 X16.709 Y8.751 E7.25513
G1 X16.341 Y8.694 E7.27371
G1 X15.728 Y8.559 E7.30503
G1 X15.364 Y8.454 E7.32393
G1 X14.776 Y8.244 E7.35508
G1 X14.434 Y8.097 E7.37365
G1 X13.881 Y7.818 E7.40455
G1 X13.553 Y7.626 E7.42351
G1 X13.023 Y7.268 E7.45542
G1 X12.742 Y7.053 E7.47307
G1 X12.283 Y6.657 E7.50332
G1 X12.138 Y6.524 E7.51313
G1 X-2.498 Y-7.884 E8.53777
G1 X-2.144 Y-6.56 E8.60614
G1 X-1.939 Y-5.769 E8.64691
G1 X-1.732 Y-4.931 E8.68998
G1 X-1.536 Y-4.08 E8.73354
G1 X-1.343 Y-3.164 E8.78025
G1 X-1.171 Y-2.257 E8.8263
G1 X-1.007 Y-1.248 E8.8773
G1 X-.867 Y-.206 E8.92976
G0 F3600 X-1.265 Y-.164
G1 F2400 X-1.162 Y0.808 E8.97852
G1 X-1.085 Y1.794 E9.02786
G1 X-1.034 Y2.896 E9.0829
G1 X-1.031 Y2.978 E9.08699
G1 X-1.018 Y3.937 E9.13484
G1 X-1.023 Y4.131 E9.14453
G1 X-1.063 Y4.783 E9.17711
G1 X-1.101 Y5.097 E9.19289
G1 X-1.222 Y5.751 E9.22608
G1 X-1.297 Y6.052 E9.24155
G1 X-1.496 Y6.69 E9.27489
G1 X-1.609 Y6.988 E9.2908
G1 X-1.88 Y7.587 E9.3236
G1 X-2.03 Y7.87 E9.33958
G1 X-2.386 Y8.453 E9.37366
G1 X-2.558 Y8.701 E9.38871
G1 X-2.952 Y9.204 E9.42059
G1 X-3.162 Y9.441 E9.43639
G1 X-3.635 Y9.913 E9.46972
G1 X-3.877 Y10.126 E9.48581
G1 X-4.42 Y10.548 E9.52012
G1 X-4.674 Y10.722 E9.53548
G1 X-5.227 Y11.055 E9.56768
G1 X-5.499 Y11.198 E9.58301
G1 X-6.091 Y11.465 E9.61541
G1 X-6.391 Y11.579 E9.63143
G1 X-7.037 Y11.779 E9.66516
G1 X-7.342 Y11.853 E9.68082
G1 X-7.998 Y11.972 E9.71408
G1 X-8.309 Y12.01 E9.72972
G1 X-8.972 Y12.049 E9.76285
G1 X-9.283 Y12.048 E9.77837
G1 X-9.942 Y12.008 E9.8113
G1 X-10.257 Y11.97 E9.82713
G1 X-10.917 Y11.848 E9.86062
G1 X-11.218 Y11.773 E9.87609
G1 X-11.85 Y11.576 E9.90912
G1 X-12.147 Y11.463 E9.92498
G1 X-12.751 Y11.19 E9.95804
G1 X-13.037 Y11.039 E9.97418
G1 X-13.617 Y10.684 E10.00811
G1 X-13.863 Y10.513 E10.02305
G1 X-14.371 Y10.115 E10.05525
G1 X-14.612 Y9.901 E10.07133
G1 X-15.081 Y9.429 E10.10452
G1 X-15.289 Y9.193 E10.12022
G1 X-15.711 Y8.651 E10.15449
G1 X-15.887 Y8.393 E10.17007
G1 X-16.22 Y7.839 E10.20232
G1 X-16.366 Y7.561 E10.21798
G1 X-16.635 Y6.959 E10.25088
G1 X-16.744 Y6.67 E10.26629
G1 X-16.941 Y6.036 E10.29941
G1 X-17.016 Y5.73 E10.31513
G1 X-17.135 Y5.077 E10.34825
G1 X-17.172 Y4.766 E10.36387
G1 X-17.212 Y4.097 E10.39731
G1 X-17.216 Y3.889 E10.40769
G1 X-17.191 Y2.671 E10.46847
G1 X-17.187 Y2.566 E10.47371
G1 X-17.113 Y1.347 E10.53464
G1 X-17.105 Y1.249 E10.53954
G1 X-16.988 Y0.066 E10.59885
G1 X-16.977 Y-0.028 E10.60357
G1 X-16.807 Y-1.275 E10.66636
G1 X-16.602 Y-2.48 E10.72734
G1 X-16.371 Y-3.634 E10.78606
G1 X-16.124 Y-4.727 E10.84196
G1 X-15.882 Y-5.715 E10.89271
G1 X-15.874 Y-5.753 E10.89465
G1 X-15.628 Y-6.704 E10.94365
G1 X-15.179 Y-8.399 E11.03114
G1 X-15.01 Y-9.079 E11.06609
G1 X-14.872 Y-9.702 E11.09793
G1 X-14.787 Y-10.2 E11.12313
G1 X-14.719 Y-11.046 E11.16548
G1 X-14.786 Y-11.902 E11.20831
G1 X-14.872 Y-12.415 E11.23426
G1 X-14.991 Y-12.988 E11.26346
G1 X-15.172 Y-13.767 E11.30336
G1 X-15.582 Y-15.452 E11.38988
G1 X-15.814 Y-16.428 E11.43993
G1 X-16.047 Y-17.469 E11.49315
G1 X-16.271 Y-18.573 E11.54935
G1 X-16.478 Y-19.732 E11.60809
G1 X-16.662 Y-20.941 E11.6691
G1 X-16.805 Y-22.104 E11.72756
G1 X-16.919 Y-23.372 E11.79107
G1 X-16.991 Y-24.682 E11.85653
G1 X-16.995 Y-24.778 E11.86132
G1 X-17.016 Y-26.015 E11.92305
G1 X-17.011 Y-26.226 E11.93357
G1 X-16.969 Y-26.877 E11.96612
G1 X-16.928 Y-27.199 E11.98232
G1 X-16.803 Y-27.852 E12.01549
G1 X-16.728 Y-28.148 E12.03072
G1 X-16.535 Y-28.757 E12.06259
G1 X-16.412 Y-29.073 E12.07951
G1 X-16.127 Y-29.683 E12.1131
G1 X-15.974 Y-29.963 E12.12902
G1 X-15.626 Y-30.518 E12.1617
G1 X-15.434 Y-30.785 E12.17811
G1 X-15.017 Y-31.294 E12.21094
G1 X-14.797 Y-31.531 E12.22707
G1 X-14.314 Y-31.99 E12.26031
G1 X-14.068 Y-32.196 E12.27632
G1 X-13.536 Y-32.589 E12.30932
G1 X-13.266 Y-32.764 E12.32537
G1 X-12.699 Y-33.083 E12.35783
G1 X-12.406 Y-33.224 E12.37405
G1 X-11.791 Y-33.475 E12.40719
G1 X-11.491 Y-33.577 E12.423
G1 X-10.869 Y-33.746 E12.45515
G1 X-10.546 Y-33.812 E12.4716
G1 X-9.879 Y-33.905 E12.5052
G1 X-9.556 Y-33.93 E12.52136
G1 X-8.899 Y-33.939 E12.55414
G1 X-8.579 Y-33.923 E12.57013
G1 X-7.924 Y-33.851 E12.603
G1 X-7.599 Y-33.795 E12.61946
G1 X-6.952 Y-33.639 E12.65266
G1 X-6.65 Y-33.546 E12.66843
G1 X-6.038 Y-33.317 E12.70103
G1 X-5.742 Y-33.185 E12.7172
G1 X-5.158 Y-32.879 E12.75009
G1 X-4.876 Y-32.708 E12.76654
G1 X-4.339 Y-32.333 E12.79922
G1 X-4.092 Y-32.137 E12.81495
G1 X-3.599 Y-31.695 E12.84798
G1 X-3.482 Y-31.583 E12.85606
G1 X23.185 Y-4.49 E14.75265
G1 X23.3 Y-4.365 E14.76113
G1 X23.704 Y-3.897 E14.79197
G1 X23.898 Y-3.642 E14.80796
G1 X24.238 Y-3.133 E14.8385
G1 X24.406 Y-2.842 E14.85526
G1 X24.687 Y-2.274 E14.88688
G1 X24.807 Y-1.992 E14.90217
G1 X25.009 Y-1.424 E14.93224
G1 X25.1 Y-1.105 E14.94879
G1 X25.239 Y-.465 E14.98147
G1 X25.288 Y-.141 E14.99781
G1 X25.342 Y0.473 E15.02856
G1 X25.35 Y0.795 E15.04463
G1 X25.328 Y1.404 E15.07504
G1 X25.296 Y1.726 E15.09118
G1 X25.194 Y2.355 E15.12297
G1 X25.122 Y2.675 E15.13934
G1 X24.946 Y3.271 E15.17034
G1 X24.834 Y3.577 E15.1866
G1 X24.582 Y4.153 E15.21796
G1 X24.434 Y4.442 E15.23416
G1 X24.114 Y4.979 E15.26535
G1 X23.931 Y5.246 E15.2815
G1 X23.547 Y5.739 E15.31268
G1 X23.328 Y5.986 E15.32914
G1 X22.888 Y6.423 E15.36008
G1 X22.644 Y6.637 E15.37627
G1 X22.141 Y7.025 E15.40797
G1 X21.872 Y7.206 E15.42414
G1 X21.332 Y7.524 E15.45541
G1 X21.05 Y7.668 E15.47121
G1 X20.503 Y7.906 E15.50097
G1 X20.189 Y8.02 E15.51763
G1 X19.56 Y8.202 E15.5503
G1 X19.248 Y8.271 E15.56624
G1 X18.649 Y8.367 E15.59651
G1 X18.324 Y8.399 E15.6128
G1 X17.686 Y8.42 E15.64465
G1 X17.36 Y8.41 E15.66092
G1 X16.746 Y8.353 E15.69168
G1 X16.427 Y8.303 E15.70779
G1 X15.814 Y8.168 E15.73911
G1 X15.499 Y8.078 E15.75545
G1 X14.911 Y7.868 E15.7866
G1 X14.614 Y7.74 E15.80274
G1 X14.061 Y7.461 E15.83364
G1 X13.777 Y7.295 E15.85005
G1 X13.247 Y6.937 E15.88196
G1 X13.004 Y6.751 E15.89723
G1 X12.545 Y6.355 E15.92747
G1 X12.419 Y6.239 E15.93602
G1 X-3.24 Y-9.176 E17.03227
G1 X-3.206 Y-9.026 E17.03994
G1 X-3.056 Y-8.425 E17.07085
G1 X-2.531 Y-6.459 E17.17237
G1 X-2.327 Y-5.672 E17.21293
G1 X-2.122 Y-4.841 E17.25563
G1 X-1.927 Y-3.997 E17.29885
G1 X-1.736 Y-3.09 E17.34509
G1 X-1.566 Y-2.193 E17.39064
G1 X-1.404 Y-1.194 E17.44113
G1 X-1.265 Y-.164 E17.49298
G0 F3600 X-1.662 Y-.121
G1 F2400 X-1.566 Y0.776 E17.53799
G1 X-1.479 Y1.897 E17.59409
G1 X-1.431 Y2.983 E17.64832
G1 X-1.418 Y3.942 E17.69617
G1 X-1.422 Y4.107 E17.7044
G1 X-1.462 Y4.759 E17.73699
G1 X-1.495 Y5.024 E17.75031
G1 X-1.616 Y5.678 E17.7835
G1 X-1.679 Y5.933 E17.7966
G1 X-1.878 Y6.571 E17.82994
G1 X-1.974 Y6.823 E17.8434
G1 X-2.245 Y7.422 E17.8762
G1 X-2.371 Y7.662 E17.88972
G1 X-2.727 Y8.245 E17.9238
G1 X-2.873 Y8.455 E17.93656
G1 X-3.267 Y8.958 E17.96844
G1 X-3.445 Y9.158 E17.9818
G1 X-3.918 Y9.63 E18.01513
G1 X-4.122 Y9.81 E18.02871
G1 X-4.665 Y10.232 E18.06302
G1 X-4.88 Y10.38 E18.07604
G1 X-5.433 Y10.713 E18.10824
G1 X-5.664 Y10.833 E18.12123
G1 X-6.256 Y11.1 E18.15363
G1 X-6.509 Y11.197 E18.16715
G1 X-7.155 Y11.397 E18.20089
G1 X-7.413 Y11.46 E18.21414
G1 X-8.069 Y11.579 E18.2474
G1 X-8.333 Y11.61 E18.26066
G1 X-8.996 Y11.649 E18.29379
G1 X-9.258 Y11.649 E18.30687
G1 X-9.917 Y11.609 E18.3398
G1 X-10.184 Y11.576 E18.35323
G1 X-10.844 Y11.454 E18.38671
G1 X-11.099 Y11.391 E18.39982
G1 X-11.731 Y11.194 E18.43284
G1 X-11.982 Y11.099 E18.44623
G1 X-12.586 Y10.826 E18.4793
G1 X-12.828 Y10.697 E18.49298
G1 X-13.408 Y10.342 E18.52691
G1 X-13.617 Y10.198 E18.53957
G1 X-14.125 Y9.8 E18.57177
G1 X-14.329 Y9.619 E18.58537
G1 X-14.798 Y9.147 E18.61857
G1 X-14.973 Y8.948 E18.63179
G1 X-15.395 Y8.406 E18.66606
G1 X-15.545 Y8.187 E18.6793
G1 X-15.878 Y7.633 E18.71155
G1 X-16.001 Y7.398 E18.72479
G1 X-16.27 Y6.796 E18.75768
G1 X-16.362 Y6.551 E18.77074
G1 X-16.559 Y5.917 E18.80386
G1 X-16.622 Y5.658 E18.81716
G1 X-16.741 Y5.005 E18.85027
G1 X-16.773 Y4.742 E18.86349
G1 X-16.813 Y4.073 E18.89693
G1 X-16.817 Y3.897 E18.90571
G1 X-16.792 Y2.679 E18.96649
G1 X-16.714 Y1.372 E19.03181
G1 X-16.59 Y0.105 E19.09532
G1 X-16.581 Y0.026 E19.09929
G1 X-16.412 Y-1.209 E19.16148
G1 X-16.21 Y-2.402 E19.22185
G1 X-15.981 Y-3.546 E19.28005
G1 X-15.736 Y-4.631 E19.33555
G1 X-15.494 Y-5.619 E19.38629
G1 X-15.487 Y-5.653 E19.38803
G1 X-15.242 Y-6.601 E19.43688
G1 X-14.793 Y-8.296 E19.52436
G1 X-14.626 Y-8.968 E19.5589
G1 X-14.477 Y-9.639 E19.59319
G1 X-14.388 Y-10.161 E19.61961
G1 X-14.318 Y-11.045 E19.66385
G1 X-14.388 Y-11.948 E19.70904
G1 X-14.479 Y-12.489 E19.73641
G1 X-14.607 Y-13.102 E19.76765
G1 X-14.782 Y-13.857 E19.80632
G1 X-15.193 Y-15.544 E19.89294
G1 X-15.424 Y-16.515 E19.94274
G1 X-15.655 Y-17.549 E19.9956
G1 X-15.877 Y-18.644 E20.05134
G1 X-16.083 Y-19.792 E20.10953
G1 X-16.265 Y-20.99 E20.16998
G1 X-16.408 Y-22.153 E20.22844
G1 X-16.526 Y-23.483 E20.29506
G1 X-16.595 Y-24.785 E20.3601
G1 X-16.616 Y-26.022 E20.42183
G1 X-16.611 Y-26.201 E20.43076
G1 X-16.569 Y-26.852 E20.46331
G1 X-16.535 Y-27.124 E20.47698
G1 X-16.41 Y-27.777 E20.51015
G1 X-16.346 Y-28.028 E20.52308
G1 X-16.153 Y-28.637 E20.55495
G1 X-16.049 Y-28.903 E20.5692
G1 X-15.764 Y-29.513 E20.60279
G1 X-15.635 Y-29.751 E20.61629
G1 X-15.287 Y-30.306 E20.64898
G1 X-15.125 Y-30.531 E20.66281
G1 X-14.708 Y-31.04 E20.69564
G1 X-14.522 Y-31.241 E20.7093
G1 X-14.039 Y-31.7 E20.74254
G1 X-13.83 Y-31.875 E20.75614
G1 X-13.298 Y-32.268 E20.78914
G1 X-13.07 Y-32.415 E20.80267
G1 X-12.503 Y-32.734 E20.83513
G1 X-12.255 Y-32.854 E20.84888
G1 X-11.64 Y-33.105 E20.88202
G1 X-11.386 Y-33.191 E20.89539
G1 X-10.764 Y-33.36 E20.92755
G1 X-10.491 Y-33.416 E20.94145
G1 X-9.824 Y-33.509 E20.97505
G1 X-9.55 Y-33.53 E20.98876
G1 X-8.893 Y-33.539 E21.02154
G1 X-8.623 Y-33.526 E21.03503
G1 X-7.968 Y-33.454 E21.06791
G1 X-7.692 Y-33.406 E21.08188
G1 X-7.045 Y-33.25 E21.11509
G1 X-6.79 Y-33.171 E21.1284
G1 X-6.178 Y-32.942 E21.161
G1 X-5.928 Y-32.831 E21.17465
G1 X-5.344 Y-32.525 E21.20754
G1 X-5.105 Y-32.38 E21.22149
G1 X-4.568 Y-32.005 E21.25417
