;FLAVOR:Marlin
;TIME:10325
;Filament used: 10.5001m
;Layer height: 0.24
;MINX:-65.035
;MINY:-65.357
;MINZ:0.3
;MAXX:65.336
;MAXY:65.355
;MAXZ:3.18
;Generated with Cura_SteamEngine 4.12.1
M140 S50
M105
M190 S50
M104 S210
M105
M109 S210
M82 ;absolute extrusion mode
;FLAVOR:Marlin
M82 ;absolute extrusion mode
G21
G90
M82
M107 T0
G28
G92 E0
G0 E3 F200
G92 E0 ; reset extrusion distance
M106 S255 ; Enable cooling fan full speed
G1 X-98 Y0 Z0.4 F3000 ; move to arc start
G3 X0 Y-98 I98 Z0.4 E40 F400 ; lay arc stripe 90deg
G92 E0 ; reset extrusion distance
G4 P500 ; wait for 0.5 sec
G0 Z10 E-1 ; Lift 15mm and retract 1mm filament
G4 P2000 ; wait for 5 sec
G0 Z15
M107 ; Disable cooling fan
G1 X0 Y-85 Z4 E0 F3000 ; get off the bed
G92 E0
G92 E0
G1 F1500 E-6.5
;LAYER_COUNT:15
;LAYER:0
M106 S25.5
G1 F600 Z1.3
G0 F3600 X64.601 Y-7.522 Z1.3
;TYPE:SKIRT
G1 F600 Z0.3
G1 F1500 E0.3326
G1 F2400 X64.96 Y-3.529 E0.53262
G1 X65.077 Y-3.302 E0.54536
G1 X65.228 Y-2.836 E0.5698
G1 X65.303 Y-2.313 E0.59616
G1 X65.331 Y-1.804 E0.62159
G1 X65.336 Y-1.639 E0.62982
G1 X65.336 Y1.643 E0.79356
G1 X65.305 Y2.303 E0.82653
G1 X65.238 Y2.788 E0.85095
G1 X65.094 Y3.255 E0.87534
G1 X64.962 Y3.519 E0.89006
G1 X64.582 Y7.714 E1.10021
G1 X64.56 Y7.893 E1.1092
G1 X63.995 Y11.618 E1.29717
G1 X63.964 Y11.791 E1.30594
G1 X63.221 Y15.291 E1.48445
G1 X63.178 Y15.466 E1.49344
G1 X62.164 Y19.139 E1.68354
G1 X62.11 Y19.314 E1.69268
G1 X60.852 Y22.983 E1.88618
G1 X60.83 Y23.675 E1.92072
G1 X60.677 Y24.25 E1.95041
G1 X60.491 Y24.744 E1.97674
G1 X60.235 Y25.336 E2.00892
G1 X60.002 Y25.766 E2.03332
G1 X59.702 Y26.153 E2.05775
G1 X59.454 Y26.383 E2.07463
G1 X57.741 Y29.936 E2.27141
G1 X57.658 Y30.096 E2.28041
G1 X55.874 Y33.291 E2.46297
G1 X55.754 Y33.492 E2.47465
G1 X53.775 Y36.592 E2.65814
G1 X53.671 Y36.744 E2.66733
G1 X51.509 Y39.714 E2.8506
G1 X51.4 Y39.855 E2.85949
G1 X48.679 Y43.158 E3.07299
G1 X48.596 Y43.419 E3.08666
G1 X48.374 Y43.856 E3.11111
G1 X48.072 Y44.265 E3.13648
G1 X47.634 Y44.754 E3.16923
G1 X45.914 Y46.489 E3.29111
G1 X45.333 Y47.081 E3.3325
G1 X44.886 Y47.494 E3.36286
G1 X44.497 Y47.792 E3.38731
G1 X44.066 Y48.023 E3.4117
G1 X43.792 Y48.116 E3.42614
G1 X40.588 Y50.83 E3.63563
G1 X40.446 Y50.943 E3.64468
G1 X37.522 Y53.131 E3.82688
G1 X37.379 Y53.232 E3.83561
G1 X34.297 Y55.269 E4.01993
G1 X33.969 Y55.47 E4.03912
G1 X31.006 Y57.178 E4.20974
G1 X30.643 Y57.376 E4.23037
G1 X27.116 Y59.136 E4.42703
G1 X26.603 Y59.621 E4.46225
G1 X26.092 Y59.918 E4.49174
G1 X25.58 Y60.147 E4.51972
G1 X25.115 Y60.333 E4.5447
G1 X24.647 Y60.478 E4.56915
G1 X24.162 Y60.544 E4.59357
G1 X23.829 Y60.534 E4.61019
G1 X20.41 Y61.759 E4.79138
G1 X19.921 Y61.924 E4.81713
G1 X16.329 Y62.965 E5.00371
G1 X16.16 Y63.009 E5.01242
G1 X12.688 Y63.8 E5.19008
G1 X12.358 Y63.864 E5.20685
G1 X8.876 Y64.441 E5.38294
G1 X8.515 Y64.488 E5.4011
G1 X4.978 Y64.86 E5.57853
G1 X4.673 Y64.882 E5.59379
G1 X0.96 Y65.045 E5.77921
G1 X0.368 Y65.268 E5.81077
G1 X-.322 Y65.354 E5.84546
G1 X-.951 Y65.355 E5.87684
G1 X-1.897 Y65.276 E5.9242
G1 X-2.366 Y65.138 E5.94859
G1 X-2.626 Y65.012 E5.96301
G1 X-6.845 Y64.69 E6.17411
G1 X-6.998 Y64.673 E6.18179
G1 X-10.53 Y64.195 E6.3596
G1 X-10.865 Y64.131 E6.37662
G1 X-14.352 Y63.448 E6.55389
G1 X-14.529 Y63.408 E6.56295
G1 X-18.182 Y62.459 E6.75124
G1 X-18.354 Y62.408 E6.7602
G1 X-22.2 Y61.16 E6.96192
G1 X-22.444 Y61.179 E6.97413
G1 X-22.931 Y61.138 E6.99851
G1 X-23.459 Y60.999 E7.02575
G1 X-24.002 Y60.802 E7.05457
G1 X-24.155 Y60.742 E7.06277
G1 X-27.097 Y59.488 E7.22233
G1 X-27.225 Y59.43 E7.22934
G1 X-27.691 Y59.205 E7.25515
G1 X-28.113 Y58.956 E7.2796
G1 X-28.489 Y58.643 E7.30401
G1 X-28.696 Y58.404 E7.31978
G1 X-32.477 Y56.369 E7.534
G1 X-32.631 Y56.28 E7.54288
G1 X-35.743 Y54.359 E7.72533
G1 X-35.895 Y54.258 E7.73444
G1 X-38.962 Y52.097 E7.92162
G1 X-39.104 Y51.991 E7.93046
G1 X-41.997 Y49.684 E8.11506
G1 X-42.135 Y49.567 E8.12409
G1 X-45.034 Y46.957 E8.3187
G1 X-45.63 Y46.688 E8.35132
G1 X-46.154 Y46.283 E8.38437
G1 X-46.587 Y45.859 E8.4146
G1 X-47.194 Y45.155 E8.46098
G1 X-47.433 Y44.728 E8.48539
G1 X-47.542 Y44.426 E8.50141
G1 X-50.216 Y41.359 E8.70441
G1 X-50.328 Y41.223 E8.7132
G1 X-52.613 Y38.269 E8.89952
G1 X-52.72 Y38.121 E8.90863
G1 X-54.789 Y35.082 E9.09205
G1 X-54.885 Y34.932 E9.10094
G1 X-56.788 Y31.745 E9.28612
G1 X-56.875 Y31.588 E9.29508
G1 X-58.581 Y28.298 E9.47997
G1 X-58.659 Y28.136 E9.48894
G1 X-60.17 Y24.738 E9.67448
G1 X-60.237 Y24.576 E9.68322
G1 X-61.546 Y21.098 E9.86862
G1 X-61.605 Y20.923 E9.87784
G1 X-62.675 Y17.443 E10.05948
G1 X-62.768 Y17.114 E10.07653
G1 X-63.623 Y13.587 E10.25759
G1 X-63.659 Y13.417 E10.26626
G1 X-64.322 Y9.771 E10.45114
G1 X-64.349 Y9.591 E10.46022
G1 X-64.799 Y5.835 E10.64895
G1 X-64.815 Y5.658 E10.65782
G1 X-65.024 Y2.176 E10.83185
G1 X-65.035 Y1.781 E10.85156
G1 X-65.033 Y-1.829 E11.03167
G1 X-65.025 Y-2.173 E11.04883
G1 X-64.817 Y-5.628 E11.22152
G1 X-64.801 Y-5.805 E11.23038
G1 X-64.34 Y-9.647 E11.42344
G1 X-64.313 Y-9.826 E11.43247
G1 X-63.65 Y-13.471 E11.6173
G1 X-63.609 Y-13.663 E11.6271
G1 X-62.725 Y-17.268 E11.81228
G1 X-62.677 Y-17.439 E11.82114
G1 X-61.597 Y-20.937 E12.00378
G1 X-61.54 Y-21.105 E12.01263
G1 X-60.231 Y-24.598 E12.19874
G1 X-60.203 Y-25.231 E12.23035
G1 X-60.022 Y-25.873 E12.26363
G1 X-59.778 Y-26.462 E12.29543
G1 X-59.343 Y-27.294 E12.34227
G1 X-59.034 Y-27.674 E12.36671
G1 X-58.802 Y-27.879 E12.38215
G1 X-56.874 Y-31.588 E12.5907
G1 X-56.709 Y-31.879 E12.60739
G1 X-54.908 Y-34.897 E12.78273
G1 X-54.737 Y-35.161 E12.79843
G1 X-52.683 Y-38.169 E12.98015
G1 X-52.58 Y-38.311 E12.9889
G1 X-50.328 Y-41.226 E13.17267
G1 X-50.137 Y-41.455 E13.18755
G1 X-47.732 Y-44.205 E13.36981
G1 X-47.609 Y-44.338 E13.37885
G1 X-44.991 Y-46.989 E13.56473
G1 X-44.865 Y-47.109 E13.57341
G1 X-42.149 Y-49.557 E13.75583
G1 X-41.865 Y-49.794 E13.77429
G1 X-39.166 Y-51.944 E13.94644
G1 X-39.025 Y-52.049 E13.95521
G1 X-35.935 Y-54.227 E14.14382
G1 X-35.571 Y-54.465 E14.16552
G1 X-32.629 Y-56.284 E14.33808
G1 X-32.473 Y-56.374 E14.34707
G1 X-28.622 Y-58.447 E14.56526
G1 X-28.405 Y-58.693 E14.58163
G1 X-28.025 Y-59.002 E14.60606
G1 X-27.648 Y-59.222 E14.62784
G1 X-27.199 Y-59.442 E14.65279
G1 X-27.052 Y-59.509 E14.66084
G1 X-24.109 Y-60.759 E14.82037
G1 X-23.529 Y-60.976 E14.85126
G1 X-23.057 Y-61.107 E14.8757
G1 X-22.571 Y-61.16 E14.90009
G1 X-22.256 Y-61.143 E14.91583
G1 X-18.329 Y-62.42 E15.12185
G1 X-18.153 Y-62.471 E15.13099
G1 X-14.505 Y-63.416 E15.31899
G1 X-14.332 Y-63.456 E15.32785
G1 X-10.755 Y-64.159 E15.50972
G1 X-10.578 Y-64.188 E15.51867
G1 X-6.977 Y-64.673 E15.69995
G1 X-6.659 Y-64.707 E15.71591
G1 X-2.661 Y-65.003 E15.91591
G1 X-2 Y-65.258 E15.95126
G1 X-1.411 Y-65.339 E15.98092
G1 X-.845 Y-65.357 E16.00917
G1 X-.299 Y-65.352 E16.03641
G1 X0.189 Y-65.307 E16.06086
G1 X0.663 Y-65.184 E16.08529
G1 X0.971 Y-65.047 E16.10211
G1 X4.81 Y-64.872 E16.29384
G1 X4.985 Y-64.859 E16.30259
G1 X8.681 Y-64.472 E16.488
G1 X8.866 Y-64.447 E16.49731
G1 X12.533 Y-63.831 E16.68282
G1 X12.706 Y-63.796 E16.69163
G1 X16.322 Y-62.968 E16.8767
G1 X16.495 Y-62.923 E16.88562
G1 X20.022 Y-61.89 E17.06897
G1 X20.189 Y-61.836 E17.07773
G1 X23.841 Y-60.53 E17.27123
G1 X24.501 Y-60.503 E17.30418
G1 X25.111 Y-60.334 E17.33576
G1 X25.68 Y-60.105 E17.36636
G1 X26.499 Y-59.69 E17.41217
G1 X26.883 Y-59.386 E17.4366
G1 X27.095 Y-59.152 E17.45236
G1 X30.652 Y-57.372 E17.6508
G1 X30.986 Y-57.19 E17.66977
G1 X34.182 Y-55.344 E17.85391
G1 X34.337 Y-55.248 E17.863
G1 X37.341 Y-53.26 E18.04272
G1 X37.539 Y-53.12 E18.05482
G1 X40.408 Y-50.969 E18.23371
G1 X40.767 Y-50.68 E18.25671
G1 X43.781 Y-48.125 E18.45384
G1 X44.02 Y-48.047 E18.46638
G1 X44.455 Y-47.821 E18.49083
G1 X44.881 Y-47.498 E18.51751
G1 X45.36 Y-47.055 E18.55006
G1 X46.015 Y-46.333 E18.59869
G1 X46.263 Y-45.912 E18.62307
G1 X46.382 Y-45.604 E18.63954
G1 X48.923 Y-42.865 E18.82594
G1 X49.04 Y-42.73 E18.83485
G1 X51.394 Y-39.867 E19.01977
G1 X51.504 Y-39.725 E19.02873
G1 X53.652 Y-36.768 E19.21107
G1 X53.87 Y-36.447 E19.23043
G1 X55.826 Y-33.38 E19.41191
G1 X55.931 Y-33.203 E19.42218
G1 X57.7 Y-30.025 E19.60364
G1 X57.783 Y-29.866 E19.61259
G1 X59.465 Y-26.369 E19.80619
G1 X59.922 Y-25.882 E19.8395
G1 X60.238 Y-25.335 E19.87102
G1 X60.492 Y-24.748 E19.90293
G1 X60.67 Y-24.273 E19.92824
G1 X60.804 Y-23.802 E19.95267
G1 X60.859 Y-23.316 E19.97707
G1 X60.844 Y-23.018 E19.99196
G1 X62.122 Y-19.272 E20.18942
G1 X62.175 Y-19.101 E20.19835
G1 X63.172 Y-15.485 E20.38549
G1 X63.214 Y-15.314 E20.39427
G1 X63.966 Y-11.787 E20.57419
G1 X63.999 Y-11.607 E20.58332
G1 X64.566 Y-7.835 E20.77362
G1 X64.601 Y-7.522 E20.78933
G0 F3600 X64.203 Y-7.486
G1 F2400 X64.568 Y-3.42 E20.993
G1 X64.732 Y-3.089 E21.01143
G1 X64.859 Y-2.652 E21.03414
G1 X64.904 Y-2.291 E21.05229
G1 X64.932 Y-1.782 E21.07772
G1 X64.936 Y-1.639 E21.08486
G1 X64.936 Y1.643 E21.24859
G1 X64.905 Y2.281 E21.28046
G1 X64.841 Y2.732 E21.30319
G1 X64.698 Y3.165 E21.32594
G1 X64.57 Y3.404 E21.33946
G1 X64.183 Y7.678 E21.55357
G1 X64.165 Y7.833 E21.56135
G1 X63.6 Y11.558 E21.74932
G1 X63.572 Y11.708 E21.75693
G1 X62.829 Y15.208 E21.93544
G1 X62.792 Y15.36 E21.94324
G1 X61.778 Y19.033 E22.13335
G1 X61.731 Y19.184 E22.14123
G1 X60.447 Y22.929 E22.33875
G1 X60.468 Y23.25 E22.3548
G1 X60.418 Y23.703 E22.37754
G1 X60.302 Y24.109 E22.3986
G1 X60.116 Y24.603 E22.42494
G1 X59.869 Y25.175 E22.45602
G1 X59.65 Y25.574 E22.47873
G1 X59.364 Y25.929 E22.50147
G1 X59.131 Y26.133 E22.51692
G1 X57.381 Y29.762 E22.71793
G1 X57.309 Y29.901 E22.72574
G1 X55.525 Y33.096 E22.9083
G1 X55.417 Y33.277 E22.91882
G1 X53.438 Y36.377 E23.1023
G1 X53.348 Y36.508 E23.11023
G1 X51.186 Y39.478 E23.29351
G1 X51.091 Y39.601 E23.30126
G1 X48.325 Y42.959 E23.51831
G1 X48.201 Y43.326 E23.53764
G1 X47.983 Y43.725 E23.56032
G1 X47.454 Y44.36 E23.60155
G1 X47.349 Y44.472 E23.60921
G1 X45.64 Y46.197 E23.73036
G1 X45.048 Y46.801 E23.77255
G1 X44.617 Y47.198 E23.80179
G1 X44.254 Y47.473 E23.82451
G1 X43.848 Y47.68 E23.84724
G1 X43.597 Y47.757 E23.86034
G1 X40.329 Y50.525 E24.07401
G1 X40.207 Y50.623 E24.08181
G1 X37.283 Y52.811 E24.26401
G1 X37.159 Y52.898 E24.27157
G1 X34.077 Y54.935 E24.45588
G1 X33.77 Y55.123 E24.47384
G1 X30.812 Y56.828 E24.64418
G1 X30.464 Y57.018 E24.66396
G1 X26.869 Y58.812 E24.86441
G1 X26.647 Y59.065 E24.8812
G1 X26.291 Y59.351 E24.90398
G1 X25.544 Y59.728 E24.94573
G1 X25.432 Y59.776 E24.9518
G1 X24.967 Y59.962 E24.97679
G1 X24.53 Y60.094 E24.99957
G1 X24.078 Y60.147 E25.02227
G1 X23.776 Y60.129 E25.03736
G1 X20.278 Y61.381 E25.22272
G1 X19.81 Y61.54 E25.24738
G1 X16.218 Y62.581 E25.43396
G1 X16.072 Y62.619 E25.44149
G1 X12.6 Y63.41 E25.61914
G1 X12.293 Y63.469 E25.63474
G1 X8.811 Y64.046 E25.81083
G1 X8.473 Y64.09 E25.82783
G1 X4.936 Y64.462 E26.00527
G1 X4.655 Y64.482 E26.01932
G1 X0.854 Y64.649 E26.20914
G1 X0.617 Y64.769 E26.22239
G1 X0.18 Y64.9 E26.24515
G1 X-.325 Y64.954 E26.27049
G1 X-.934 Y64.956 E26.30087
G1 X-1.846 Y64.878 E26.34654
G1 X-2.281 Y64.742 E26.36928
G1 X-2.515 Y64.62 E26.38244
G1 X-6.812 Y64.291 E26.59745
G1 X-6.945 Y64.277 E26.60412
G1 X-10.477 Y63.799 E26.78194
G1 X-14.275 Y63.055 E26.97502
G1 X-14.429 Y63.02 E26.9829
G1 X-18.082 Y62.071 E27.1712
G1 X-18.231 Y62.028 E27.17894
G1 X-22.149 Y60.756 E27.38445
G1 X-22.506 Y60.778 E27.4023
G1 X-22.958 Y60.726 E27.42499
G1 X-23.323 Y60.623 E27.44392
G1 X-23.866 Y60.426 E27.47273
G1 X-23.998 Y60.374 E27.47981
G1 X-26.94 Y59.12 E27.63937
G1 X-27.051 Y59.069 E27.64546
G1 X-27.517 Y58.844 E27.67128
G1 X-27.909 Y58.611 E27.69403
G1 X-28.253 Y58.313 E27.71673
G1 X-28.435 Y58.089 E27.73113
G1 X-32.287 Y56.016 E27.94937
G1 X-32.421 Y55.939 E27.95708
G1 X-35.533 Y54.018 E28.13954
G1 X-35.665 Y53.931 E28.14743
G1 X-38.732 Y51.77 E28.33461
G1 X-38.855 Y51.678 E28.34227
G1 X-41.748 Y49.371 E28.52688
G1 X-41.867 Y49.27 E28.53466
G1 X-44.829 Y46.602 E28.73355
G1 X-45.101 Y46.512 E28.74784
G1 X-45.501 Y46.295 E28.77054
G1 X-46.209 Y45.672 E28.81759
G1 X-46.598 Y45.264 E28.84572
G1 X-46.88 Y44.906 E28.86846
G1 X-47.095 Y44.504 E28.8912
G1 X-47.185 Y44.226 E28.90578
G1 X-49.915 Y41.096 E29.11299
G1 X-50.012 Y40.978 E29.12061
G1 X-52.297 Y38.024 E29.30693
G1 X-52.389 Y37.896 E29.31479
G1 X-54.458 Y34.857 E29.49821
G1 X-54.541 Y34.727 E29.50591
G1 X-56.444 Y31.54 E29.69109
G1 X-56.52 Y31.404 E29.69887
G1 X-58.226 Y28.114 E29.88376
G1 X-58.294 Y27.973 E29.89157
G1 X-59.805 Y24.575 E30.0771
G1 X-59.862 Y24.435 E30.08464
G1 X-61.171 Y20.957 E30.27004
G1 X-61.223 Y20.805 E30.27806
G1 X-62.291 Y17.331 E30.45938
G1 X-62.379 Y17.02 E30.47551
G1 X-63.234 Y13.493 E30.65657
G1 X-63.265 Y13.345 E30.66411
G1 X-63.928 Y9.699 E30.84899
G1 X-63.952 Y9.543 E30.85687
G1 X-64.402 Y5.787 E31.0456
G1 X-64.415 Y5.634 E31.05326
G1 X-64.628 Y2.069 E31.23143
G1 X-64.635 Y1.781 E31.24581
G1 X-64.634 Y-1.821 E31.42551
G1 X-64.625 Y-2.149 E31.44188
G1 X-64.417 Y-5.604 E31.61456
G1 X-64.403 Y-5.758 E31.62228
G1 X-63.942 Y-9.6 E31.81533
G1 X-63.919 Y-9.755 E31.82315
G1 X-63.258 Y-13.392 E32.00757
G1 X-63.22 Y-13.568 E32.01655
G1 X-62.336 Y-17.173 E32.20174
G1 X-62.295 Y-17.321 E32.2094
G1 X-61.215 Y-20.819 E32.39204
G1 X-61.166 Y-20.964 E32.39968
G1 X-59.825 Y-24.543 E32.59036
G1 X-59.842 Y-24.807 E32.60356
G1 X-59.791 Y-25.259 E32.62625
G1 X-59.47 Y-26.168 E32.67434
G1 X-59.225 Y-26.7 E32.70357
G1 X-58.996 Y-27.093 E32.72626
G1 X-58.702 Y-27.441 E32.74899
G1 X-58.484 Y-27.622 E32.76312
G1 X-56.519 Y-31.403 E32.97571
G1 X-56.366 Y-31.674 E32.99124
G1 X-54.565 Y-34.692 E33.16658
G1 X-54.407 Y-34.935 E33.18104
G1 X-52.353 Y-37.943 E33.36276
G1 X-52.264 Y-38.067 E33.37037
G1 X-50.012 Y-40.982 E33.55415
G1 X-49.836 Y-41.192 E33.56782
G1 X-47.431 Y-43.942 E33.75008
G1 X-47.324 Y-44.057 E33.75792
G1 X-44.706 Y-46.708 E33.9438
G1 X-44.597 Y-46.812 E33.95132
G1 X-41.881 Y-49.26 E34.13373
G1 X-41.616 Y-49.481 E34.15095
G1 X-38.917 Y-51.631 E34.3231
G1 X-38.795 Y-51.722 E34.3307
G1 X-35.705 Y-53.9 E34.5193
G1 X-35.36 Y-54.124 E34.53983
G1 X-32.418 Y-55.943 E34.71239
G1 X-32.283 Y-56.021 E34.72017
G1 X-28.381 Y-58.121 E34.94125
G1 X-28.082 Y-58.447 E34.96331
G1 X-27.472 Y-58.863 E35.00015
G1 X-27.023 Y-59.083 E35.0251
G1 X-26.895 Y-59.141 E35.03211
G1 X-23.952 Y-60.391 E35.19163
G1 X-23.391 Y-60.601 E35.22151
G1 X-22.951 Y-60.72 E35.24425
G1 X-22.497 Y-60.761 E35.267
G1 X-22.21 Y-60.736 E35.28137
G1 X-18.205 Y-62.039 E35.49149
G1 X-18.053 Y-62.084 E35.4994
G1 X-14.405 Y-63.029 E35.6874
G1 X-14.254 Y-63.063 E35.69513
G1 X-10.677 Y-63.766 E35.877
G1 X-10.524 Y-63.792 E35.88474
G1 X-6.932 Y-64.276 E36.06556
G1 X-6.63 Y-64.308 E36.08072
G1 X-2.553 Y-64.61 E36.28468
G1 X-2.251 Y-64.76 E36.3015
G1 X-1.814 Y-64.889 E36.32423
G1 X-.969 Y-64.955 E36.36652
G1 X-.848 Y-64.957 E36.37255
G1 X-.302 Y-64.952 E36.39979
G1 X0.151 Y-64.908 E36.4225
G1 X0.59 Y-64.785 E36.44525
G1 X0.869 Y-64.651 E36.46069
G1 X4.792 Y-64.472 E36.65661
G1 X4.944 Y-64.461 E36.66421
G1 X8.64 Y-64.074 E36.84962
G1 X8.8 Y-64.052 E36.85767
G1 X12.467 Y-63.436 E37.04318
G1 X12.616 Y-63.406 E37.05077
G1 X16.232 Y-62.578 E37.23584
G1 X16.383 Y-62.539 E37.24362
G1 X19.91 Y-61.506 E37.42698
G1 X20.054 Y-61.459 E37.43453
G1 X23.785 Y-60.125 E37.63221
G1 X24.076 Y-60.143 E37.64676
G1 X24.528 Y-60.091 E37.66946
G1 X25.399 Y-59.79 E37.71543
G1 X25.906 Y-59.564 E37.74313
G1 X26.303 Y-59.34 E37.76587
G1 X26.655 Y-59.051 E37.78859
G1 X26.842 Y-58.831 E37.803
G1 X30.473 Y-57.014 E38.00556
G1 X30.786 Y-56.843 E38.02336
G1 X33.982 Y-54.997 E38.20749
G1 X34.116 Y-54.915 E38.21533
G1 X37.113 Y-52.932 E38.39462
G1 X37.299 Y-52.8 E38.406
G1 X40.168 Y-50.649 E38.58489
G1 X40.508 Y-50.375 E38.60668
G1 X43.577 Y-47.774 E38.80738
