;FLAVOR:Marlin
;TIME:445
;Filament used: 0.725533m
;Layer height: 0.15
;MINX:-8.8
;MINY:-25.492
;MINZ:0.3
;MAXX:18.8
;MAXY:25.484
;MAXZ:9.48
;Generated with Cura_SteamEngine 4.12.1
M140 S50
M105
M190 S50
M104 S210
M105
M109 S210
M82 ;absolute extrusion mode
;FLAVOR:Marlin
M82 ;absolute extrusion mode
G21
G90
M82
M107 T0
G28
G92 E0
G0 E3 F200
G92 E0 ; reset extrusion distance
M106 S255 ; Enable cooling fan full speed
G1 X-98 Y0 Z0.4 F3000 ; move to arc start
G3 X0 Y-98 I98 Z0.4 E40 F400 ; lay arc stripe 90deg
G92 E0 ; reset extrusion distance
G4 P500 ; wait for 0.5 sec
G0 Z10 E-1 ; Lift 15mm and retract 1mm filament
G4 P2000 ; wait for 5 sec
G0 Z15
M107 ; Disable cooling fan
G1 X0 Y-85 Z4 E0 F3000 ; get off the bed
G92 E0
G92 E0
G1 F1500 E-7
;LAYER_COUNT:37
;LAYER:0
M107
G1 F600 Z1.3
G0 F3600 X-8.8 Y11.114 Z1.3
;TYPE:SKIRT
G1 F600 Z0.3
G1 F1500 E0.3326
G1 F2400 X-8.799 Y-20.062 E1.88798
G1 X-8.79 Y-20.685 E1.91906
G1 X-8.727 Y-21.394 E1.95457
G1 X-8.55 Y-22.185 E1.99501
G1 X-8.538 Y-22.221 E1.99691
G1 X-8.298 Y-22.79 E2.02772
G1 X-8.2 Y-22.98 E2.03838
G1 X-7.906 Y-23.462 E2.06655
G1 X-7.373 Y-24.071 E2.10693
G1 X-7.136 Y-24.292 E2.12309
G1 X-6.696 Y-24.648 E2.15133
G1 X-5.967 Y-25.051 E2.19289
G1 X-5.759 Y-25.139 E2.20415
G1 X-5.224 Y-25.322 E2.23236
G1 X-4.546 Y-25.445 E2.26674
G1 X-3.819 Y-25.489 E2.30308
G1 X-3.707 Y-25.491 E2.30867
G1 X-3.073 Y-25.492 E2.3403
G1 X-2.376 Y-25.482 E2.37507
G1 X0.889 Y-25.296 E2.53823
G1 X3.56 Y-25.219 E2.67154
G1 X6.303 Y-25.219 E2.80839
G1 X8.973 Y-25.294 E2.94165
G1 X12.207 Y-25.477 E3.10325
G1 X12.709 Y-25.491 E3.12831
G1 X13.36 Y-25.491 E3.16079
G1 X14.01 Y-25.482 E3.19322
G1 X14.623 Y-25.433 E3.2239
G1 X15.179 Y-25.334 E3.25207
G1 X15.733 Y-25.15 E3.2812
G1 X15.928 Y-25.069 E3.29173
G1 X16.434 Y-24.816 E3.31996
G1 X16.928 Y-24.47 E3.35005
G1 X17.121 Y-24.312 E3.36249
G1 X17.532 Y-23.924 E3.39069
G1 X17.964 Y-23.362 E3.42605
G1 X18.105 Y-23.14 E3.43917
G1 X18.405 Y-22.571 E3.47127
G1 X18.414 Y-22.55 E3.47241
G1 X18.638 Y-21.859 E3.50865
G1 X18.687 Y-21.643 E3.5197
G1 X18.777 Y-21.03 E3.55061
G1 X18.797 Y-20.518 E3.57617
G1 X18.799 Y-20.393 E3.58241
G1 X18.8 Y11.13 E5.1551
G1 X18.794 Y11.638 E5.18044
G1 X18.79 Y11.776 E5.18733
G1 X18.745 Y12.75 E5.23597
G1 X18.712 Y13.11 E5.25401
G1 X18.576 Y14.099 E5.30382
G1 X18.421 Y14.866 E5.34285
G1 X18.271 Y15.445 E5.37269
G1 X18.089 Y16.039 E5.40369
G1 X17.869 Y16.641 E5.43567
G1 X17.538 Y17.427 E5.47822
G1 X17.115 Y18.282 E5.52581
G1 X16.832 Y18.78 E5.55438
G1 X16.477 Y19.332 E5.58713
G1 X15.885 Y20.159 E5.63787
G1 X15.37 Y20.785 E5.67831
G1 X14.969 Y21.224 E5.70797
G1 X14.553 Y21.642 E5.73739
G1 X14.082 Y22.072 E5.76921
G1 X13.641 Y22.443 E5.79796
G1 X13.118 Y22.843 E5.83081
G1 X12.63 Y23.178 E5.86034
G1 X11.815 Y23.678 E5.90805
G1 X11.514 Y23.845 E5.92522
G1 X10.885 Y24.16 E5.96032
G1 X10.364 Y24.396 E5.98885
G1 X9.879 Y24.59 E6.01491
G1 X9.199 Y24.822 E6.05076
G1 X8.591 Y25.006 E6.08245
G1 X8.004 Y25.154 E6.11265
G1 X7.58 Y25.238 E6.13422
G1 X6.591 Y25.39 E6.18414
G1 X5.795 Y25.462 E6.22401
G1 X5.159 Y25.484 E6.25576
G1 X4.56 Y25.478 E6.28565
G1 X3.938 Y25.445 E6.31672
G1 X3.284 Y25.375 E6.34954
G1 X2.71 Y25.285 E6.37852
G1 X2.538 Y25.254 E6.38724
G1 X1.865 Y25.118 E6.4215
G1 X1.338 Y24.988 E6.44858
G1 X0.806 Y24.832 E6.47624
G1 X0.216 Y24.63 E6.50735
G1 X-.226 Y24.453 E6.5311
G1 X-1.097 Y24.06 E6.57878
G1 X-1.664 Y23.767 E6.61062
G1 X-1.844 Y23.661 E6.62104
G1 X-2.704 Y23.127 E6.67154
G1 X-3.382 Y22.645 E6.71305
G1 X-3.82 Y22.297 E6.74095
G1 X-4.314 Y21.865 E6.77369
G1 X-4.744 Y21.453 E6.80341
G1 X-5.173 Y20.998 E6.8346
G1 X-5.819 Y20.242 E6.88422
G1 X-6.312 Y19.584 E6.92524
G1 X-6.656 Y19.066 E6.95626
G1 X-6.957 Y18.556 E6.9858
G1 X-7.299 Y17.905 E7.02249
G1 X-7.568 Y17.345 E7.05349
G1 X-7.645 Y17.171 E7.06298
G1 X-7.906 Y16.542 E7.09695
G1 X-8.171 Y15.784 E7.13702
G1 X-8.35 Y15.136 E7.17055
G1 X-8.544 Y14.272 E7.21473
G1 X-8.688 Y13.378 E7.25991
G1 X-8.75 Y12.762 E7.2908
G1 X-8.765 Y12.537 E7.30205
G1 X-8.792 Y11.802 E7.33874
G1 X-8.794 Y11.646 E7.34653
G0 F2160 X-8.8 Y11.114
G0 F3600 X-8.4 Y11.114
G1 F2400 X-8.399 Y-20.056 E8.9016
G1 X-8.39 Y-20.679 E8.93269
G1 X-8.33 Y-21.347 E8.96615
G1 X-8.17 Y-22.058 E9.00251
G1 X-8.158 Y-22.094 E9.0044
G1 X-7.942 Y-22.606 E9.03212
G1 X-7.844 Y-22.796 E9.04279
G1 X-7.564 Y-23.253 E9.06953
G1 X-7.1 Y-23.779 E9.10452
G1 X-6.863 Y-24 E9.12069
G1 X-6.445 Y-24.335 E9.14741
G1 X-5.811 Y-24.682 E9.18347
G1 X-5.603 Y-24.77 E9.19474
G1 X-5.095 Y-24.942 E9.2215
G1 X-4.492 Y-25.049 E9.25205
G1 X-3.807 Y-25.089 E9.28628
G1 X-3.706 Y-25.091 E9.29132
G1 X-3.078 Y-25.092 E9.32266
G1 X-2.381 Y-25.082 E9.35743
G1 X0.82 Y-24.898 E9.51739
G1 X3.583 Y-24.819 E9.6553
G1 X6.278 Y-24.819 E9.78975
G1 X9.041 Y-24.896 E9.92765
G1 X12.229 Y-25.077 E10.08696
G1 X12.709 Y-25.091 E10.11092
G1 X13.355 Y-25.091 E10.14314
G1 X14.005 Y-25.082 E10.17558
G1 X14.58 Y-25.036 E10.20435
G1 X15.108 Y-24.939 E10.23114
G1 X15.775 Y-24.7 E10.26649
G1 X16.254 Y-24.458 E10.29326
G1 X16.674 Y-24.161 E10.31892
G1 X16.867 Y-24.003 E10.33137
G1 X17.256 Y-23.633 E10.35815
G1 X17.626 Y-23.147 E10.38863
G1 X17.767 Y-22.925 E10.40175
G1 X18.037 Y-22.413 E10.43062
G1 X18.046 Y-22.392 E10.43176
G1 X18.248 Y-21.77 E10.46439
G1 X18.297 Y-21.554 E10.47544
G1 X18.378 Y-21.003 E10.50323
G1 X18.399 Y-20.393 E10.53368
G1 X18.4 Y11.126 E12.10617
G1 X18.394 Y11.634 E12.13151
G1 X18.39 Y11.757 E12.13765
G1 X18.345 Y12.731 E12.1863
G1 X18.315 Y13.055 E12.20253
G1 X18.179 Y14.044 E12.25234
G1 X18.03 Y14.781 E12.28985
G1 X17.884 Y15.342 E12.31877
G1 X17.707 Y15.919 E12.34888
G1 X17.501 Y16.486 E12.37898
G1 X17.17 Y17.272 E12.42153
G1 X16.761 Y18.098 E12.46751
G1 X16.486 Y18.579 E12.49515
G1 X16.151 Y19.099 E12.52601
G1 X15.559 Y19.926 E12.57676
G1 X15.066 Y20.525 E12.61546
G1 X14.675 Y20.953 E12.64438
G1 X14.271 Y21.358 E12.67292
G1 X13.814 Y21.775 E12.70379
G1 X13.385 Y22.135 E12.73173
G1 X12.877 Y22.523 E12.76362
G1 X12.421 Y22.837 E12.79124
G1 X11.606 Y23.337 E12.83894
G1 X11.335 Y23.487 E12.85439
G1 X10.706 Y23.802 E12.88949
G1 X10.202 Y24.031 E12.91711
G1 X9.749 Y24.211 E12.94143
G1 X9.069 Y24.443 E12.97727
G1 X8.477 Y24.622 E13.00813
G1 X7.921 Y24.763 E13.03675
G1 X7.519 Y24.842 E13.05719
G1 X6.53 Y24.994 E13.10711
G1 X5.766 Y25.064 E13.14538
G1 X5.148 Y25.085 E13.17623
G1 X4.567 Y25.078 E13.20522
G1 X3.962 Y25.045 E13.23545
G1 X3.346 Y24.98 E13.26635
G1 X2.772 Y24.89 E13.29534
G1 X2.617 Y24.862 E13.3032
G1 X1.944 Y24.726 E13.33745
G1 X1.438 Y24.6 E13.36347
G1 X0.933 Y24.453 E13.38971
G1 X0.36 Y24.257 E13.41992
G1 X-0.062 Y24.088 E13.4426
G1 X-1.045 Y23.643 E13.49643
G1 X-1.633 Y23.321 E13.52988
G1 X-2.493 Y22.787 E13.58038
G1 X-3.145 Y22.323 E13.62031
G1 X-3.569 Y21.986 E13.64733
G1 X-4.048 Y21.566 E13.67911
G1 X-4.466 Y21.166 E13.70798
G1 X-4.869 Y20.738 E13.73731
G1 X-5.515 Y19.982 E13.78692
G1 X-5.987 Y19.35 E13.82627
G1 X-6.322 Y18.847 E13.85642
G1 X-6.603 Y18.37 E13.88404
G1 X-6.945 Y17.719 E13.92073
G1 X-7.206 Y17.174 E13.95088
G1 X-7.275 Y17.018 E13.95939
G1 X-7.575 Y16.292 E13.99858
G1 X-7.791 Y15.66 E14.0319
G1 X-7.96 Y15.049 E14.06353
G1 X-8.154 Y14.185 E14.1077
G1 X-8.292 Y13.324 E14.15121
G1 X-8.352 Y12.724 E14.18129
G1 X-8.365 Y12.521 E14.19144
G1 X-8.392 Y11.797 E14.22759
G1 X-8.394 Y11.646 E14.23512
G0 F2160 X-8.4 Y11.114
G0 F3600 X-8 Y11.114
G1 F2400 X-7.999 Y-20.05 E15.7899
G1 X-7.99 Y-20.673 E15.82098
G1 X-7.932 Y-21.3 E15.8524
G1 X-7.791 Y-21.932 E15.8847
G1 X-7.587 Y-22.423 E15.91123
G1 X-7.489 Y-22.613 E15.9219
G1 X-7.222 Y-23.043 E15.94715
G1 X-6.827 Y-23.486 E15.97676
G1 X-6.59 Y-23.707 E15.99293
G1 X-6.195 Y-24.022 E16.01813
G1 X-5.655 Y-24.314 E16.04876
G1 X-5.447 Y-24.402 E16.06003
G1 X-4.967 Y-24.562 E16.08527
G1 X-4.438 Y-24.652 E16.11204
G1 X-3.795 Y-24.69 E16.14418
G1 X-3.084 Y-24.692 E16.17965
G1 X-2.387 Y-24.682 E16.21442
G1 X0.82 Y-24.498 E16.37469
G1 X3.572 Y-24.419 E16.51204
G1 X6.29 Y-24.419 E16.64764
G1 X9.04 Y-24.496 E16.78489
G1 X12.34 Y-24.682 E16.94979
G1 X12.709 Y-24.691 E16.96821
G1 X13.349 Y-24.691 E17.00014
G1 X13.999 Y-24.682 E17.03257
G1 X14.538 Y-24.638 E17.05955
G1 X15.035 Y-24.545 E17.08477
G1 X15.622 Y-24.33 E17.11596
G1 X16.072 Y-24.1 E17.14118
G1 X16.614 Y-23.693 E17.17499
G1 X16.979 Y-23.343 E17.20022
G1 X17.288 Y-22.933 E17.22583
G1 X17.429 Y-22.711 E17.23895
G1 X17.669 Y-22.256 E17.26462
G1 X17.678 Y-22.235 E17.26576
G1 X17.858 Y-21.682 E17.29477
G1 X17.979 Y-20.976 E17.33051
G1 X17.999 Y-20.393 E17.35961
G1 X18 Y11.121 E18.93185
G1 X17.991 Y11.739 E18.96269
G1 X17.946 Y12.713 E19.01133
G1 X17.919 Y13.001 E19.02576
G1 X17.783 Y13.99 E19.07557
G1 X17.639 Y14.695 E19.11147
G1 X17.497 Y15.24 E19.13957
G1 X17.325 Y15.8 E19.16879
G1 X17.132 Y16.331 E19.19698
G1 X16.801 Y17.117 E19.23953
G1 X16.406 Y17.913 E19.28386
G1 X16.14 Y18.378 E19.31059
G1 X15.826 Y18.867 E19.33958
G1 X15.234 Y19.694 E19.39032
G1 X14.761 Y20.266 E19.42735
G1 X14.381 Y20.682 E19.45546
G1 X13.99 Y21.073 E19.48305
G1 X13.547 Y21.478 E19.513
G1 X13.13 Y21.828 E19.54016
G1 X12.636 Y22.204 E19.57113
G1 X12.211 Y22.496 E19.59685
G1 X11.396 Y22.996 E19.64456
G1 X11.156 Y23.129 E19.65825
G1 X10.527 Y23.444 E19.69334
G1 X10.039 Y23.665 E19.72007
G1 X9.62 Y23.833 E19.74259
G1 X8.94 Y24.065 E19.77844
G1 X8.363 Y24.239 E19.8085
G1 X7.838 Y24.372 E19.83552
G1 X7.458 Y24.447 E19.85485
G1 X6.469 Y24.599 E19.90477
G1 X5.737 Y24.665 E19.94144
G1 X5.137 Y24.685 E19.97139
G1 X4.574 Y24.679 E19.99948
G1 X3.986 Y24.646 E20.02886
G1 X3.408 Y24.584 E20.05786
G1 X2.834 Y24.494 E20.08685
G1 X2.696 Y24.47 E20.09384
G1 X2.023 Y24.334 E20.12809
G1 X1.455 Y24.19 E20.15732
G1 X0.639 Y23.932 E20.20002
G1 X0.103 Y23.724 E20.2287
G1 X-.768 Y23.331 E20.27638
G1 X-1.278 Y23.066 E20.30505
G1 X-1.422 Y22.982 E20.31337
G1 X-2.282 Y22.448 E20.36387
G1 X-2.908 Y22.001 E20.40225
G1 X-3.318 Y21.674 E20.42841
G1 X-3.783 Y21.267 E20.45924
G1 X-4.187 Y20.879 E20.48719
G1 X-4.565 Y20.478 E20.51468
G1 X-5.211 Y19.722 E20.56429
G1 X-5.663 Y19.116 E20.60201
G1 X-5.987 Y18.627 E20.63128
G1 X-6.249 Y18.184 E20.65695
G1 X-6.591 Y17.533 E20.69364
G1 X-6.844 Y17.003 E20.72294
G1 X-6.906 Y16.864 E20.73053
G1 X-7.201 Y16.149 E20.76912
G1 X-7.41 Y15.536 E20.80143
G1 X-7.569 Y14.961 E20.8312
G1 X-7.763 Y14.097 E20.87538
G1 X-7.896 Y13.269 E20.91721
G1 X-7.954 Y12.686 E20.94644
G1 X-7.966 Y12.506 E20.95544
G1 X-7.992 Y11.792 E20.99109
G1 X-7.994 Y11.646 E20.99837
G0 F2160 X-8 Y11.114
G0 F3600 X-7.6 Y11.114
G1 F2400 X-7.599 Y-20.044 E22.55285
G1 X-7.59 Y-20.667 E22.58394
G1 X-7.535 Y-21.252 E22.61325
G1 X-7.411 Y-21.805 E22.64153
G1 X-7.133 Y-22.43 E22.67565
G1 X-6.882 Y-22.83 E22.69921
G1 X-6.318 Y-23.415 E22.73975
G1 X-5.946 Y-23.707 E22.76335
G1 X-5.499 Y-23.946 E22.78864
G1 X-4.841 Y-24.181 E22.82349
G1 X-4.086 Y-24.281 E22.86149
G1 X-3.705 Y-24.291 E22.88051
G1 X-3.09 Y-24.292 E22.91119
G1 X-2.393 Y-24.282 E22.94597
G1 X0.786 Y-24.098 E23.10483
G1 X3.56 Y-24.019 E23.24328
G1 X6.301 Y-24.019 E23.38003
G1 X9.038 Y-24.095 E23.51663
G1 X12.352 Y-24.282 E23.68223
G1 X12.709 Y-24.291 E23.70005
G1 X13.344 Y-24.291 E23.73173
G1 X13.994 Y-24.282 E23.76416
G1 X14.496 Y-24.24 E23.78929
G1 X14.96 Y-24.151 E23.81287
G1 X15.468 Y-23.961 E23.83992
G1 X15.888 Y-23.743 E23.86353
G1 X16.361 Y-23.384 E23.89316
G1 X16.7 Y-23.054 E23.91676
G1 X17.092 Y-22.496 E23.95078
G1 X17.311 Y-22.077 E23.97437
G1 X17.468 Y-21.593 E23.99975
G1 X17.58 Y-20.948 E24.03242
G1 X17.599 Y-20.393 E24.06012
G1 X17.6 Y11.116 E25.63211
G1 X17.594 Y11.624 E25.65746
G1 X17.546 Y12.694 E25.71089
G1 X17.523 Y12.946 E25.72352
G1 X17.387 Y13.935 E25.77332
G1 X17.248 Y14.61 E25.80771
G1 X17.111 Y15.137 E25.83487
G1 X16.944 Y15.681 E25.86326
G1 X16.764 Y16.176 E25.88954
G1 X16.433 Y16.962 E25.93209
G1 X16.051 Y17.728 E25.97479
G1 X15.794 Y18.177 E26.0006
G1 X15.501 Y18.634 E26.02769
G1 X14.909 Y19.461 E26.07843
G1 X14.457 Y20.006 E26.11375
G1 X14.087 Y20.41 E26.14108
G1 X13.709 Y20.789 E26.16779
G1 X13.279 Y21.181 E26.19682
G1 X12.874 Y21.52 E26.22317
G1 X12.396 Y21.884 E26.25314
G1 X12.002 Y22.155 E26.277
G1 X11.187 Y22.655 E26.3247
G1 X10.977 Y22.772 E26.3367
G1 X10.348 Y23.087 E26.37179
G1 X9.876 Y23.3 E26.39763
G1 X9.491 Y23.454 E26.41832
G1 X8.811 Y23.686 E26.45416
G1 X8.249 Y23.856 E26.48345
G1 X7.755 Y23.98 E26.50886
G1 X7.397 Y24.052 E26.52708
G1 X6.408 Y24.204 E26.577
G1 X5.708 Y24.266 E26.61206
G1 X5.125 Y24.285 E26.64116
G1 X4.58 Y24.279 E26.66836
G1 X4.011 Y24.247 E26.69679
G1 X3.47 Y24.189 E26.72393
G1 X2.896 Y24.099 E26.75292
G1 X2.775 Y24.078 E26.75905
G1 X2.102 Y23.942 E26.7933
G1 X1.565 Y23.806 E26.82094
G1 X0.766 Y23.553 E26.86275
G1 X0.267 Y23.359 E26.88946
G1 X-.604 Y22.966 E26.93714
G1 X-1.085 Y22.716 E26.96418
G1 X-1.211 Y22.642 E26.97147
G1 X-2.071 Y22.108 E27.02197
G1 X-2.671 Y21.679 E27.05877
G1 X-3.067 Y21.363 E27.08405
G1 X-3.517 Y20.968 E27.11392
G1 X-3.909 Y20.592 E27.14102
G1 X-4.261 Y20.218 E27.16664
G1 X-4.907 Y19.462 E27.21626
G1 X-5.338 Y18.883 E27.25227
G1 X-5.652 Y18.408 E27.28067
G1 X-5.895 Y17.998 E27.30445
G1 X-6.237 Y17.347 E27.34114
G1 X-6.482 Y16.833 E27.36955
G1 X-6.536 Y16.711 E27.3762
G1 X-6.827 Y16.007 E27.41421
G1 X-7.03 Y15.412 E27.44557
G1 X-7.179 Y14.873 E27.47347
G1 X-7.373 Y14.009 E27.51765
G1 X-7.499 Y13.214 E27.55781
G1 X-7.556 Y12.649 E27.58614
G1 X-7.566 Y12.491 E27.59404
G1 X-7.592 Y11.787 E27.62919
G1 X-7.594 Y11.646 E27.63622
G0 F2160 X-7.6 Y11.114
G0 F3600 X-7.2 Y11.114
G1 F2400 X-7.199 Y-20.039 E29.19045
G1 X-7.19 Y-20.662 E29.22153
G1 X-7.138 Y-21.205 E29.24875
G1 X-7.02 Y-21.715 E29.27487
G1 X-6.778 Y-22.246 E29.30398
G1 X-6.543 Y-22.615 E29.3258
G1 X-6.045 Y-23.122 E29.36126
G1 X-5.699 Y-23.39 E29.38309
G1 X-5.135 Y-23.665 E29.4144
G1 X-4.526 Y-23.833 E29.44592
G1 X-3.771 Y-23.89 E29.48369
G1 X-3.096 Y-23.892 E29.51737
G1 X-2.399 Y-23.882 E29.55214
G1 X-1.98 Y-23.856 E29.57309
G1 X0.788 Y-23.698 E29.71141
G1 X3.549 Y-23.619 E29.84921
G1 X6.312 Y-23.619 E29.98706
G1 X9.072 Y-23.696 E30.12481
G1 X12.363 Y-23.882 E30.28926
G1 X12.709 Y-23.891 E30.30653
G1 X13.338 Y-23.891 E30.33791
G1 X13.988 Y-23.882 E30.37034
G1 X14.453 Y-23.842 E30.39363
G1 X15.12 Y-23.672 E30.42797
G1 X15.702 Y-23.387 E30.4603
G1 X16.107 Y-23.074 E30.48583
G1 X16.419 Y-22.767 E30.50767
G1 X16.754 Y-22.282 E30.53708
G1 X16.943 Y-21.919 E30.5575
G1 X17.127 Y-21.289 E30.59024
G1 X17.188 Y-20.789 E30.61537
G1 X17.199 Y-20.393 E30.63513
G1 X17.2 Y11.111 E32.20688
G1 X17.194 Y11.619 E32.23222
G1 X17.146 Y12.676 E32.28501
G1 X17.127 Y12.892 E32.29583
G1 X16.991 Y13.881 E32.34563
G1 X16.858 Y14.524 E32.37839
G1 X16.724 Y15.034 E32.4047
G1 X16.562 Y15.562 E32.43225
G1 X16.395 Y16.02 E32.45657
G1 X16.064 Y16.806 E32.49912
G1 X15.696 Y17.544 E32.54027
G1 X15.395 Y18.063 E32.5702
G1 X15.176 Y18.401 E32.59029
G1 X14.584 Y19.228 E32.64103
G1 X14.153 Y19.747 E32.67469
G1 X13.793 Y20.139 E32.70124
G1 X13.427 Y20.505 E32.72707
G1 X13.011 Y20.884 E32.75514
G1 X12.618 Y21.213 E32.78071
G1 X12.155 Y21.565 E32.80973
G1 X11.793 Y21.814 E32.83165
G1 X10.978 Y22.314 E32.87935
G1 X10.798 Y22.414 E32.88963
G1 X10.169 Y22.729 E32.92472
G1 X9.654 Y22.96 E32.95288
G1 X9.362 Y23.075 E32.96854
G1 X8.682 Y23.307 E33.00438
G1 X8.135 Y23.472 E33.03289
G1 X7.469 Y23.632 E33.06706
G1 X7.337 Y23.656 E33.07375
G1 X6.348 Y23.808 E33.12367
G1 X5.679 Y23.867 E33.15718
G1 X5.114 Y23.885 E33.18538
G1 X4.587 Y23.879 E33.21168
G1 X4.035 Y23.848 E33.23926
G1 X3.532 Y23.794 E33.2645
G1 X2.958 Y23.704 E33.29349
G1 X2.855 Y23.685 E33.29871
G1 X2.182 Y23.549 E33.33297
G1 X1.676 Y23.421 E33.35901
G1 X0.893 Y23.174 E33.39997
G1 X0.432 Y22.995 E33.42464
