;FLAVOR:Marlin
;TIME:5028
;Filament used: 16.295m
;Layer height: 0.3
;MINX:-73.95
;MINY:-73.929
;MINZ:0.3
;MAXX:73.949
;MAXY:73.951
;MAXZ:14.2
;TARGET_MACHINE.NAME:Unknown
;Generated with Cura_SteamEngine 5.11.0
M140 S50
M105
M190 S50
M104 S220
M105
M109 S220
;FLAVOR:Marlin
M82 ;absolute extrusion mode
G21
G90
M82
M107 T0
G28
G92 E0
G0 E3 F200
G92 E0 ; reset extrusion distance
M106 S255 ; Enable cooling fan full speed
G1 X-98 Y0 Z0.4 F3000 ; move to arc start
G3 X0 Y-98 I98 Z0.4 E40 F400 ; lay arc stripe 90deg
G92 E0 ; reset extrusion distance
G4 P500 ; wait for 0.5 sec
G0 Z10 E-1 ; Lift 15mm and retract 1mm filament
G4 P2000 ; wait for 5 sec
G0 Z15
M107 ; Disable cooling fan
G1 X0 Y-85 Z4 E0 F3000 ; get off the bed
M82 ;absolute extrusion mode
G92 E0
G92 E0
G1 F1500 E-6.5
;LAYER_COUNT:47
;LAYER:0
M107
G1 F600 Z1.4
G0 F3600 X0.00 Y0.00 Z1.4
G0 X-66.138 Y-33.086
;TYPE:SKIRT
G1 F600 Z0.4
G1 F1500 E0
G1 F1800 X-63.949 Y-37.144 E0.52907
G1 X-61.535 Y-41.03 E1.05401
G1 X-59.314 Y-44.183 E1.49656
G1 X-56.389 Y-47.862 E2.03588
G1 X-53.62 Y-50.939 E2.51088
G1 X-50.218 Y-54.29 E3.05882
G1 X-46.805 Y-57.263 E3.5782
G1 X-43.503 Y-59.812 E4.05686
G1 X-39.824 Y-62.315 E4.56746
G1 X-35.774 Y-64.732 E5.10865
G1 X-32.238 Y-66.56 E5.56541
G1 X-27.775 Y-68.542 E6.12576
G1 X-24.035 Y-69.939 E6.58388
G1 X-19.513 Y-71.337 E7.12699
G1 X-15.623 Y-72.291 E7.58659
G1 X-10.829 Y-73.161 E8.14567
G1 X-6.87 Y-73.64 E8.60327
G1 X-2.464 Y-73.914 E9.10983
G1 X1.976 Y-73.929 E9.61931
G1 X6.863 Y-73.638 E10.18107
G1 X10.809 Y-73.165 E10.63711
G1 X15.642 Y-72.283 E11.20084
G1 X19.623 Y-71.309 E11.67112
G1 X23.946 Y-69.971 E12.19039
G1 X28.314 Y-68.325 E12.72602
G1 X31.958 Y-66.696 E13.18403
G1 X36.282 Y-64.453 E13.74299
G1 X39.716 Y-62.394 E14.20243
G1 X43.568 Y-59.762 E14.73777
G1 X46.899 Y-57.189 E15.22074
G1 X50.446 Y-54.084 E15.76167
G1 X53.297 Y-51.28 E16.22052
G1 X56.523 Y-47.694 E16.77401
G1 X59.219 Y-44.305 E17.27093
G1 X61.791 Y-40.642 E17.78452
G1 X64.106 Y-36.881 E18.29129
G1 X66.192 Y-32.99 E18.79788
G1 X68.036 Y-29.006 E19.30163
G1 X69.599 Y-25.02 E19.79292
G1 X70.976 Y-20.785 E20.30392
G1 X72.142 Y-16.274 E20.83856
G1 X73.005 Y-11.846 E21.35622
G1 X73.535 Y-7.938 E21.80876
G1 X73.89 Y-3.106 E22.36471
G1 X73.949 Y0.951 E22.83029
G1 X73.733 Y5.793 E23.38645
G1 X73.318 Y9.708 E23.8382
G1 X72.534 Y14.443 E24.38893
G1 X71.558 Y18.684 E24.8883
G1 X70.349 Y22.815 E25.3822
G1 X68.806 Y27.124 E25.90739
G1 X67.071 Y31.172 E26.41276
G1 X65.166 Y34.977 E26.90103
G1 X62.784 Y39.096 E27.44702
G1 X60.605 Y42.392 E27.90041
G1 X57.762 Y46.182 E28.44406
G1 X54.844 Y49.621 E28.96159
G1 X52.04 Y52.554 E29.4272
G1 X48.47 Y55.865 E29.98591
G1 X45.441 Y58.353 E30.4357
G1 X41.403 Y61.283 E31.00817
G1 X38.114 Y63.384 E31.45601
G1 X33.846 Y65.757 E32.01636
G1 X30.189 Y67.515 E32.48196
G1 X25.821 Y69.303 E33.02354
G1 X21.982 Y70.614 E33.48904
G1 X17.292 Y71.908 E34.04731
G1 X13.462 Y72.721 E34.49659
G1 X8.526 Y73.467 E35.06941
G1 X4.598 Y73.819 E35.52195
G1 X0.517 Y73.951 E35.99047
G1 X-.553 Y73.951 E36.11325
G1 X-4.694 Y73.813 E36.58869
G1 X-8.632 Y73.454 E37.04244
G1 X-13.477 Y72.723 E37.60468
G1 X-17.374 Y71.889 E38.06198
G1 X-22.055 Y70.598 E38.61916
G1 X-25.884 Y69.284 E39.08368
G1 X-30.136 Y67.538 E39.61112
G1 X-34.206 Y65.567 E40.13003
G1 X-37.694 Y63.625 E40.58812
G1 X-41.956 Y60.899 E41.16865
G1 X-45.354 Y58.421 E41.65123
G1 X-48.501 Y55.838 E42.1184
G1 X-51.996 Y52.596 E42.66542
G1 X-54.891 Y49.57 E43.14596
G1 X-57.894 Y46.014 E43.68004
G1 X-60.553 Y42.458 E44.18954
G1 X-63.064 Y38.637 E44.71419
G1 X-65.034 Y35.225 E45.16628
G1 X-67.234 Y30.815 E45.73179
G1 X-68.779 Y27.198 E46.18311
G1 X-70.435 Y22.54 E46.75038
G1 X-71.541 Y18.736 E47.20495
G1 X-72.609 Y14.045 E47.75701
G1 X-73.316 Y9.722 E48.25965
G1 X-73.737 Y5.746 E48.71844
G1 X-73.95 Y0.874 E49.27802
G1 X-73.892 Y-3.117 E49.73602
G1 X-73.542 Y-7.807 E50.27569
G1 X-72.918 Y-12.387 E50.80608
G1 X-72.145 Y-16.283 E51.26186
G1 X-70.996 Y-20.725 E51.78834
G1 X-69.595 Y-25.027 E52.3075
G1 X-68.066 Y-28.934 E52.78893
G1 X-66.138 Y-33.086 E53.31422
G0 F3600 X-65.61 Y-32.801
G1 F1800 X-63.439 Y-36.827 E53.83908
G1 X-61.044 Y-40.684 E54.36004
G1 X-58.823 Y-43.837 E54.80259
G1 X-55.919 Y-47.489 E55.33799
G1 X-53.174 Y-50.538 E55.80875
G1 X-49.824 Y-53.838 E56.34834
G1 X-46.438 Y-56.788 E56.86365
G1 X-43.165 Y-59.316 E57.3382
G1 X-39.486 Y-61.819 E57.8488
G1 X-35.498 Y-64.199 E58.38171
G1 X-31.962 Y-66.027 E58.83847
G1 X-27.565 Y-67.98 E59.39054
G1 X-23.825 Y-69.377 E59.84866
G1 X-19.37 Y-70.754 E60.38372
G1 X-15.48 Y-71.708 E60.84332
G1 X-10.757 Y-72.565 E61.39412
G1 X-6.798 Y-73.044 E61.85172
G1 X-2.427 Y-73.315 E62.35424
G1 X1.978 Y-73.329 E62.85971
G1 X6.792 Y-73.042 E63.41308
G1 X10.738 Y-72.569 E63.86912
G1 X15.499 Y-71.7 E64.42445
G1 X19.48 Y-70.726 E64.89474
G1 X23.768 Y-69.398 E65.40983
G1 X28.069 Y-67.777 E65.93725
G1 X31.713 Y-66.148 E66.39527
G1 X35.973 Y-63.938 E66.94596
G1 X39.407 Y-61.879 E67.4054
G1 X43.201 Y-59.287 E67.93265
G1 X46.532 Y-56.714 E68.41563
G1 X50.025 Y-53.656 E68.94834
G1 X52.876 Y-50.852 E69.40719
G1 X56.053 Y-47.32 E69.95231
G1 X58.749 Y-43.931 E70.44923
G1 X61.28 Y-40.327 E70.95458
G1 X63.595 Y-36.566 E71.46134
G1 X65.647 Y-32.738 E71.95973
G1 X67.491 Y-28.754 E72.46347
G1 X69.028 Y-24.834 E72.94663
G1 X70.405 Y-20.599 E73.45762
G1 X71.553 Y-16.159 E73.98386
G1 X72.41 Y-11.765 E74.49756
G1 X72.94 Y-7.857 E74.9501
G1 X73.29 Y-3.097 E75.49777
G1 X73.349 Y0.96 E75.96335
G1 X73.136 Y5.73 E76.51124
G1 X72.721 Y9.645 E76.96299
G1 X71.949 Y14.308 E77.50534
G1 X70.973 Y18.549 E78.00471
G1 X69.784 Y22.613 E78.49059
G1 X68.254 Y26.888 E79.01161
G1 X66.534 Y30.903 E79.51281
G1 X64.629 Y34.708 E80.00109
G1 X62.283 Y38.765 E80.53885
G1 X60.104 Y42.061 E80.99223
G1 X57.282 Y45.822 E81.53178
G1 X54.41 Y49.206 E82.04108
G1 X51.606 Y52.139 E82.50669
G1 X48.089 Y55.401 E83.05712
G1 X45.06 Y57.889 E83.50691
G1 X41.08 Y60.777 E84.07117
G1 X37.791 Y62.878 E84.519
G1 X33.586 Y65.216 E85.07108
G1 X29.929 Y66.974 E85.53668
G1 X25.627 Y68.735 E86.07008
G1 X21.788 Y70.046 E86.53558
G1 X17.167 Y71.321 E87.08564
G1 X13.337 Y72.134 E87.53491
G1 X8.472 Y72.869 E88.0995
G1 X4.579 Y73.219 E88.54801
G1 X0.498 Y73.351 E89.01654
G1 X-.533 Y73.351 E89.13484
G1 X-4.64 Y73.215 E89.60637
G1 X-8.578 Y72.856 E90.06012
G1 X-13.351 Y72.136 E90.614
G1 X-17.248 Y71.302 E91.0713
G1 X-21.86 Y70.03 E91.62028
G1 X-25.689 Y68.716 E92.08479
G1 X-29.874 Y66.998 E92.6039
G1 X-33.944 Y65.027 E93.12281
G1 X-37.402 Y63.101 E93.577
G1 X-41.602 Y60.414 E94.14913
G1 X-45 Y57.936 E94.63171
G1 X-48.12 Y55.374 E95.09495
G1 X-51.562 Y52.181 E95.63369
G1 X-54.457 Y49.155 E96.11423
G1 X-57.413 Y45.655 E96.63992
G1 X-60.072 Y42.099 E97.14942
G1 X-62.544 Y38.337 E97.66595
G1 X-64.514 Y34.925 E98.11804
G1 X-66.682 Y30.579 E98.67534
G1 X-68.227 Y26.962 E99.12666
G1 X-69.859 Y22.372 E99.68565
G1 X-70.965 Y18.568 E100.14023
G1 X-72.017 Y13.948 E100.68393
G1 X-72.719 Y9.659 E101.18263
G1 X-73.14 Y5.683 E101.64142
G1 X-73.35 Y0.883 E102.19273
G1 X-73.292 Y-3.108 E102.65074
G1 X-72.944 Y-7.762 E103.18626
G1 X-72.329 Y-12.27 E103.70834
G1 X-71.556 Y-16.166 E104.16411
G1 X-70.425 Y-20.539 E104.68241
G1 X-69.024 Y-24.841 E105.20157
G1 X-67.507 Y-28.715 E105.67897
G1 X-65.61 Y-32.801 E106.19589
G0 F3600 X-65.082 Y-32.516
G1 F1800 X-66.948 Y-28.496 E106.70445
G1 X-68.453 Y-24.655 E107.17782
G1 X-69.854 Y-20.353 E107.69698
G1 X-70.967 Y-16.049 E108.2071
G1 X-71.74 Y-12.153 E108.66287
G1 X-72.349 Y-7.681 E109.18076
G1 X-72.692 Y-3.099 E109.708
G1 X-72.75 Y0.892 E110.16601
G1 X-72.543 Y5.62 E110.70905
G1 X-72.122 Y9.596 E111.16784
G1 X-71.425 Y13.851 E111.6626
G1 X-70.389 Y18.4 E112.19795
G1 X-69.283 Y22.204 E112.65253
G1 X-67.675 Y26.726 E113.20324
G1 X-66.13 Y30.343 E113.65456
G1 X-63.994 Y34.625 E114.20365
G1 X-62.024 Y38.037 E114.65574
G1 X-59.591 Y41.74 E115.16416
G1 X-56.932 Y45.296 E115.67366
G1 X-54.023 Y48.74 E116.19096
G1 X-51.128 Y51.766 E116.6715
G1 X-47.739 Y54.91 E117.20195
G1 X-44.646 Y57.451 E117.66128
G1 X-41.248 Y59.929 E118.14386
G1 X-37.11 Y62.577 E118.70758
G1 X-33.682 Y64.487 E119.15787
G1 X-29.612 Y66.458 E119.67678
G1 X-25.494 Y68.148 E120.18755
G1 X-21.665 Y69.462 E120.65207
G1 X-17.122 Y70.715 E121.19283
G1 X-13.225 Y71.549 E121.65013
G1 X-8.524 Y72.258 E122.19566
G1 X-4.586 Y72.617 E122.64941
G1 X-.513 Y72.751 E123.11703
G1 X0.479 Y72.751 E123.23086
G1 X4.525 Y72.621 E123.69536
G1 X8.418 Y72.271 E124.14388
G1 X13.212 Y71.547 E124.70021
G1 X17.042 Y70.734 E125.14949
G1 X21.594 Y69.478 E125.69134
G1 X25.433 Y68.167 E126.15683
G1 X29.669 Y66.433 E126.68205
G1 X33.326 Y64.675 E127.14765
G1 X37.468 Y62.372 E127.69146
G1 X40.757 Y60.271 E128.1393
G1 X44.679 Y57.425 E128.69534
G1 X47.708 Y54.937 E129.14513
G1 X51.172 Y51.724 E129.68728
G1 X53.976 Y48.791 E130.15289
G1 X56.824 Y45.434 E130.65804
G1 X59.603 Y41.73 E131.18939
G1 X61.782 Y38.434 E131.64278
G1 X64.092 Y34.439 E132.17231
G1 X65.997 Y30.634 E132.66059
G1 X67.689 Y26.686 E133.15346
G1 X69.219 Y22.411 E133.67448
G1 X70.388 Y18.414 E134.15234
G1 X71.364 Y14.173 E134.6517
G1 X72.124 Y9.582 E135.18568
G1 X72.539 Y5.667 E135.63743
G1 X72.749 Y0.969 E136.17705
G1 X72.69 Y-3.088 E136.64263
G1 X72.345 Y-7.776 E137.18202
G1 X71.815 Y-11.684 E137.63456
G1 X70.964 Y-16.044 E138.1443
G1 X69.834 Y-20.413 E138.66213
G1 X68.457 Y-24.648 E139.17313
G1 X66.946 Y-28.502 E139.64814
G1 X65.102 Y-32.486 E140.15189
G1 X63.084 Y-36.251 E140.64206
G1 X60.769 Y-40.012 E141.14882
G1 X58.279 Y-43.557 E141.64592
G1 X55.583 Y-46.946 E142.14284
G1 X52.455 Y-50.424 E142.6796
G1 X49.604 Y-53.228 E143.13845
G1 X46.165 Y-56.239 E143.66295
G1 X42.834 Y-58.812 E144.14592
G1 X39.098 Y-61.364 E144.66509
G1 X35.664 Y-63.423 E145.12453
G1 X31.468 Y-65.6 E145.66696
G1 X27.824 Y-67.229 E146.12498
G1 X23.556 Y-68.837 E146.64833
G1 X19.337 Y-70.143 E147.15511
G1 X15.356 Y-71.117 E147.62539
G1 X10.667 Y-71.973 E148.17234
G1 X6.721 Y-72.446 E148.62837
G1 X1.98 Y-72.729 E149.17336
G1 X-2.39 Y-72.716 E149.67481
G1 X-6.726 Y-72.448 E150.1733
G1 X-10.685 Y-71.969 E150.6309
G1 X-15.337 Y-71.125 E151.17342
G1 X-19.227 Y-70.171 E151.63301
G1 X-23.615 Y-68.815 E152.16002
G1 X-27.355 Y-67.418 E152.61814
G1 X-31.686 Y-65.494 E153.16194
G1 X-35.222 Y-63.666 E153.6187
G1 X-39.148 Y-61.323 E154.14332
G1 X-42.827 Y-58.82 E154.65392
G1 X-46.071 Y-56.313 E155.12436
G1 X-49.403 Y-53.41 E155.63146
G1 X-52.728 Y-50.136 E156.16691
G1 X-55.449 Y-47.115 E156.63344
G1 X-58.332 Y-43.491 E157.16482
G1 X-60.553 Y-40.338 E157.60737
G1 X-62.929 Y-36.511 E158.12426
G1 X-65.082 Y-32.516 E158.64501
G0 F3600 X-64.554 Y-32.231
G1 F1800 X-66.389 Y-28.277 E159.1452
G1 X-67.882 Y-24.469 E159.61454
G1 X-69.283 Y-20.167 E160.13371
G1 X-70.378 Y-15.932 E160.63564
G1 X-71.151 Y-12.036 E161.09141
G1 X-71.751 Y-7.636 E161.60097
G1 X-72.092 Y-3.09 E162.12408
G1 X-72.15 Y0.901 E162.58209
G1 X-71.946 Y5.557 E163.11686
G1 X-71.525 Y9.533 E163.57565
G1 X-70.833 Y13.754 E164.06646
G1 X-69.813 Y18.232 E164.59347
G1 X-68.707 Y22.036 E165.04804
G1 X-67.123 Y26.49 E165.59048
G1 X-65.578 Y30.107 E166.0418
G1 X-63.474 Y34.325 E166.58268
G1 X-61.504 Y37.737 E167.03477
G1 X-59.09 Y41.411 E167.53921
G1 X-56.474 Y44.909 E168.04043
G1 X-53.589 Y48.325 E168.5535
G1 X-50.694 Y51.351 E169.03404
G1 X-47.358 Y54.446 E169.55621
G1 X-44.265 Y56.987 E170.01553
G1 X-40.895 Y59.444 E170.49409
G1 X-36.818 Y62.053 E171.04951
G1 X-33.42 Y63.947 E171.4959
G1 X-29.35 Y65.918 E172.0148
G1 X-25.299 Y67.58 E172.51725
G1 X-21.47 Y68.894 E172.98177
G1 X-16.996 Y70.128 E173.51432
G1 X-13.099 Y70.962 E173.97161
G1 X-8.47 Y71.66 E174.50878
G1 X-4.532 Y72.019 E174.96253
G1 X-.493 Y72.151 E175.42625
G1 X0.46 Y72.151 E175.5356
G1 X4.471 Y72.023 E175.99609
G1 X8.364 Y71.673 E176.4446
G1 X13.087 Y70.96 E176.99269
G1 X16.917 Y70.147 E177.44197
G1 X21.4 Y68.91 E177.9756
G1 X25.239 Y67.599 E178.4411
G1 X29.409 Y65.892 E178.95813
G1 X33.066 Y64.134 E179.42373
G1 X37.145 Y61.866 E179.95928
G1 X40.434 Y59.765 E180.40711
G1 X44.298 Y56.961 E180.95494
G1 X47.327 Y54.473 E181.40473
G1 X50.738 Y51.309 E181.93859
G1 X53.542 Y48.376 E182.4042
G1 X56.344 Y45.074 E182.90113
G1 X59.102 Y41.399 E183.42837
G1 X61.281 Y38.103 E183.88176
G1 X63.555 Y34.17 E184.40306
G1 X65.46 Y30.365 E184.89134
G1 X67.137 Y26.45 E185.38006
G1 X68.643 Y22.242 E185.89291
G1 X69.803 Y18.279 E186.36673
G1 X70.779 Y14.038 E186.8661
G1 X71.527 Y9.519 E187.39169
G1 X71.942 Y5.604 E187.84345
G1 X72.149 Y0.978 E188.3748
G1 X72.09 Y-3.079 E188.84038
G1 X71.75 Y-7.695 E189.37149
G1 X71.22 Y-11.603 E189.82403
G1 X70.375 Y-15.929 E190.32981
G1 X69.263 Y-20.227 E190.83923
G1 X67.886 Y-24.462 E191.35023
G1 X66.401 Y-28.25 E191.8171
G1 X64.557 Y-32.234 E192.32085
G1 X62.555 Y-35.967 E192.80691
G1 X60.278 Y-39.667 E193.30543
G1 X57.809 Y-43.183 E193.79842
G1 X55.113 Y-46.572 E194.29534
G1 X52.034 Y-49.996 E194.82373
G1 X49.183 Y-52.8 E195.28259
G1 X45.77 Y-55.787 E195.80302
G1 X42.467 Y-58.337 E196.28184
G1 X38.789 Y-60.849 E196.79292
G1 X35.355 Y-62.908 E197.25237
G1 X31.223 Y-65.052 E197.78653
G1 X27.579 Y-66.681 E198.24455
G1 X23.345 Y-68.275 E198.76368
G1 X19.194 Y-69.56 E199.2623
G1 X15.213 Y-70.534 E199.73258
G1 X10.596 Y-71.377 E200.27113
G1 X6.65 Y-71.85 E200.72716
G1 X1.982 Y-72.129 E201.26376
G1 X-2.353 Y-72.117 E201.76119
G1 X-6.654 Y-71.852 E202.25566
G1 X-10.613 Y-71.373 E202.71326
G1 X-15.194 Y-70.542 E203.24749
G1 X-19.084 Y-69.588 E203.70709
G1 X-23.405 Y-68.253 E204.22604
G1 X-27.145 Y-66.856 E204.68415
G1 X-31.41 Y-64.961 E205.21969
G1 X-34.946 Y-63.133 E205.67645
G1 X-38.81 Y-60.827 E206.19278
G1 X-42.489 Y-58.324 E206.70338
G1 X-45.704 Y-55.838 E207.16972
G1 X-49.009 Y-52.958 E207.67274
G1 X-52.282 Y-49.734 E208.19992
G1 X-55.003 Y-46.713 E208.66645
G1 X-57.841 Y-43.145 E209.18959
G1 X-60.062 Y-39.992 E209.63214
G1 X-62.419 Y-36.195 E210.14495
G1 X-64.554 Y-32.231 E210.66159
G0 F3600 X-64.026 Y-31.947
G1 F1800 X-65.83 Y-28.058 E211.15352
G1 X-67.311 Y-24.283 E211.61883
G1 X-68.712 Y-19.981 E212.13799
G1 X-69.789 Y-15.815 E212.63175
G1 X-70.562 Y-11.919 E213.08752
G1 X-71.153 Y-7.591 E213.58875
G1 X-71.492 Y-3.081 E214.10773
G1 X-71.55 Y0.91 E214.56573
G1 X-71.349 Y5.494 E215.09224
G1 X-70.928 Y9.47 E215.55103
G1 X-70.241 Y13.657 E216.0379
G1 X-69.237 Y18.064 E216.55655
G1 X-68.131 Y21.868 E217.01112
G1 X-66.571 Y26.254 E217.54529
G1 X-65.026 Y29.871 E217.99661
G1 X-62.954 Y34.025 E218.52928
G1 X-60.984 Y37.437 E218.98137
G1 X-58.589 Y41.082 E219.48183
G1 X-56.016 Y44.522 E219.97476
G1 X-53.155 Y47.91 E220.4836
G1 X-50.26 Y50.936 E220.96414
G1 X-46.977 Y53.982 E221.47803
G1 X-43.884 Y56.523 E221.93735
G1 X-40.542 Y58.959 E222.4119
G1 X-36.526 Y61.529 E222.95901
G1 X-33.158 Y63.407 E223.40149
G1 X-29.088 Y65.378 E223.9204
G1 X-25.104 Y67.012 E224.41451
G1 X-21.275 Y68.326 E224.87903
G1 X-16.87 Y69.541 E225.40337
G1 X-12.973 Y70.375 E225.86066
G1 X-8.416 Y71.062 E226.38948
G1 X-4.478 Y71.421 E226.84323
G1 X-.474 Y71.551 E227.30292
G1 X0.441 Y71.551 E227.40791
G1 X4.417 Y71.425 E227.86438
G1 X8.31 Y71.075 E228.31289
G1 X12.962 Y70.373 E228.85274
G1 X16.792 Y69.56 E229.30201
G1 X21.206 Y68.342 E229.82744
G1 X25.045 Y67.031 E230.29293
G1 X29.149 Y65.351 E230.80178
G1 X32.806 Y63.593 E231.26738
G1 X36.822 Y61.36 E231.79466
G1 X40.111 Y59.259 E232.24249
G1 X43.917 Y56.497 E232.7821
G1 X46.946 Y54.009 E233.23189
G1 X50.304 Y50.894 E233.75747
G1 X53.108 Y47.961 E234.22308
G1 X55.864 Y44.714 E234.71178
G1 X58.601 Y41.068 E235.23492
G1 X60.78 Y37.772 E235.6883
G1 X63.018 Y33.901 E236.20138
G1 X64.923 Y30.096 E236.68966
G1 X66.572 Y26.248 E237.17004
G1 X68.067 Y22.073 E237.6789
