;FLAVOR:Marlin
;TIME:4235
;Filament used: 4.76361m
;Layer height: 0.2
;MINX:-91.398
;MINY:-76.638
;MINZ:0.3
;MAXX:73.882
;MAXY:38.945
;MAXZ:3.9
;TARGET_MACHINE.NAME:Unknown
;POSTPROCESSED
;  [CreateThumbnail]
;Generated with Cura_SteamEngine 5.11.0
;
;

M140 S60
M105
M190 S60
M104 S200
M105
M109 S200
;FLAVOR:Marlin
M82 ;absolute extrusion mode
G21
G90
M82
M107 T0
G28
G92 E0
G0 E3 F200
G92 E0 ; reset extrusion distance
M106 S255 ; Enable cooling fan full speed
G1 X-98 Y0 Z0.4 F3000 ; move to arc start
G3 X0 Y-98 I98 Z0.4 E40 F400 ; lay arc stripe 90deg
G92 E0 ; reset extrusion distance
G4 P500 ; wait for 0.5 sec
G0 Z10 E-1 ; Lift 15mm and retract 1mm filament
G4 P2000 ; wait for 5 sec
G0 Z15
M107 ; Disable cooling fan
G1 X0 Y-85 Z4 E0 F3000 ; get off the bed
M82 ;absolute extrusion mode
G92 E0
G92 E0
G1 F1500 E-6.5
;LAYER_COUNT:19
;LAYER:0
M107
G0 F3600 X73.6 Y-67.604 Z0.3
;TYPE:SKIRT
G1 F1500 E0
G1 F1800 X73.73 Y-67.013 E0.03019
G1 X73.882 Y-65.343 E0.11385
G1 X73.843 Y-23.505 E2.20116
G1 X73.566 Y-21.545 E2.29991
G1 X73.218 Y-20.285 E2.36513
G1 X72.28 Y-18.436 E2.46857
G1 X70.909 Y-16.733 E2.57764
G1 X69.129 Y-15.324 E2.6909
G1 X67.255 Y-14.486 E2.79332
G1 X65.588 Y-13.958 E2.88056
G1 X63.6 Y-13.825 E2.97996
G1 X6.411 Y-13.889 E5.83313
G1 X4.79 Y-14.14 E5.91497
G1 X3.548 Y-14.483 E5.97925
G1 X1.685 Y-15.427 E6.08345
G1 X1.039 Y-15.952 E6.12498
G1 X0.052 Y-15.459 E6.18002
G1 X-1.858 Y-15.012 E6.27789
G1 X-3.671 Y-14.838 E6.36875
G1 X-14.879 Y-14.845 E6.92792
G1 X-14.754 Y-14.267 E6.95743
G1 X-14.598 Y-12.573 E7.0423
G1 X-14.637 Y29.265 E9.1296
G1 X-14.914 Y31.225 E9.22836
G1 X-15.262 Y32.485 E9.29358
G1 X-16.195 Y34.319 E9.39623
G1 X-17.578 Y36.036 E9.50623
G1 X-19.352 Y37.443 E9.61919
G1 X-21.312 Y38.318 E9.72628
G1 X-22.873 Y38.808 E9.8079
G1 X-24.881 Y38.945 E9.90832
G1 X-82.069 Y38.881 E12.76144
G1 X-83.69 Y38.63 E12.84327
G1 X-84.932 Y38.287 E12.90756
G1 X-86.771 Y37.351 E13.0105
G1 X-88.482 Y35.959 E13.12055
G1 X-89.815 Y34.296 E13.22688
G1 X-90.806 Y32.337 E13.33641
G1 X-91.198 Y30.659 E13.42238
G1 X-91.398 Y28.663 E13.52246
G1 X-91.378 Y-12.923 E15.59719
G1 X-91.083 Y-15.134 E15.70848
G1 X-90.745 Y-16.359 E15.77188
G1 X-89.778 Y-18.278 E15.87908
G1 X-88.414 Y-19.955 E15.98693
G1 X-86.767 Y-21.269 E16.09205
G1 X-84.787 Y-22.255 E16.2024
G1 X-83.019 Y-22.668 E16.29298
G1 X-81.116 Y-22.855 E16.38838
G1 X-69.947 Y-22.847 E16.9456
G1 X-70.02 Y-23.124 E16.95989
G1 X-70.189 Y-25.12 E17.05983
G1 X-70.142 Y-67.088 E19.15362
G1 X-69.874 Y-68.928 E19.24639
G1 X-69.53 Y-70.173 E19.31083
G1 X-68.591 Y-72.023 E19.41434
G1 X-67.193 Y-73.743 E19.52492
G1 X-65.466 Y-75.122 E19.63517
G1 X-63.718 Y-75.919 E19.73102
G1 X-61.915 Y-76.501 E19.82554
G1 X-59.907 Y-76.638 E19.92595
G1 X-3.188 Y-76.608 E22.75568
G1 X-1.099 Y-76.323 E22.86086
G1 X0.139 Y-75.981 E22.92494
G1 X1.989 Y-75.04 E23.02849
G1 X2.659 Y-74.5 E23.07142
G1 X3.552 Y-74.906 E23.12036
G1 X5.358 Y-75.488 E23.21503
G1 X7.364 Y-75.625 E23.31534
G1 X64.083 Y-75.595 E26.14506
G1 X65.494 Y-75.404 E26.2161
G0 F3600 X65.997 Y-74.933
G1 F1800 X64.029 Y-75.199 E26.31518
G1 X7.364 Y-75.225 E29.14221
G1 X5.436 Y-75.092 E29.23862
G1 X3.675 Y-74.525 E29.33092
G1 X2.601 Y-74.033 E29.38986
G1 X1.773 Y-74.701 E29.44294
G1 X-0.006 Y-75.606 E29.54251
G1 X-1.205 Y-75.937 E29.60457
G1 X-3.242 Y-76.212 E29.70712
G1 X-59.907 Y-76.238 E32.53415
G1 X-61.837 Y-76.105 E32.63066
G1 X-63.595 Y-75.538 E32.72282
G1 X-65.254 Y-74.778 E32.81386
G1 X-66.913 Y-73.454 E32.91975
G1 X-68.252 Y-71.807 E33.02565
G1 X-69.155 Y-70.028 E33.12519
G1 X-69.488 Y-68.822 E33.1876
G1 X-69.746 Y-67.031 E33.27788
G1 X-69.789 Y-25.12 E35.36883
G1 X-69.621 Y-23.158 E35.46707
G1 X-69.411 Y-22.447 E35.50406
G1 X-81.116 Y-22.455 E36.08802
G1 X-82.928 Y-22.278 E36.17886
G1 X-84.653 Y-21.875 E36.26723
G1 X-86.548 Y-20.932 E36.37283
G1 X-88.134 Y-19.666 E36.47408
G1 X-89.44 Y-18.061 E36.57731
G1 X-90.369 Y-16.217 E36.68032
G1 X-90.697 Y-15.028 E36.74186
G1 X-90.978 Y-12.923 E36.84781
G1 X-90.998 Y28.663 E38.92254
G1 X-90.808 Y30.568 E39.01806
G1 X-90.427 Y32.2 E39.10167
G1 X-89.476 Y34.08 E39.20678
G1 X-88.196 Y35.677 E39.30889
G1 X-86.555 Y37.012 E39.41443
G1 X-84.788 Y37.911 E39.51334
G1 X-83.583 Y38.244 E39.57571
G1 X-82.008 Y38.486 E39.65521
G1 X-24.881 Y38.545 E42.50528
G1 X-22.95 Y38.412 E42.60185
G1 X-21.432 Y37.936 E42.68122
G1 X-19.562 Y37.099 E42.78343
G1 X-17.86 Y35.749 E42.89182
G1 X-16.534 Y34.103 E42.99727
G1 X-15.638 Y32.341 E43.09589
G1 X-15.3 Y31.118 E43.15919
G1 X-15.033 Y29.21 E43.25531
G1 X-14.998 Y-12.573 E45.33987
G1 X-15.152 Y-14.23 E45.42289
G1 X-15.378 Y-15.245 E45.47477
G1 X-3.671 Y-15.238 E46.05884
G1 X-1.897 Y-15.41 E46.14776
G1 X-0.087 Y-15.837 E46.24054
G1 X1.09 Y-16.425 E46.30618
G1 X1.901 Y-15.766 E46.35831
G1 X3.692 Y-14.859 E46.45847
G1 X4.897 Y-14.526 E46.52084
G1 X6.472 Y-14.284 E46.60034
G1 X63.6 Y-14.225 E49.45047
G1 X65.514 Y-14.354 E49.54618
G1 X67.134 Y-14.867 E49.63095
G1 X68.92 Y-15.669 E49.72863
G1 X70.624 Y-17.018 E49.83706
G1 X71.942 Y-18.655 E49.94191
G1 X72.842 Y-20.429 E50.04115
G1 X73.18 Y-21.652 E50.10446
G1 X73.447 Y-23.56 E50.20057
G1 X73.482 Y-65.343 E52.28514
G1 X73.339 Y-66.927 E52.36449
G1 X73.041 Y-68.279 E52.43356
G0 F3600 X72.479 Y-68.846
G1 F1800 X72.527 Y-68.75 E52.43891
G1 X72.948 Y-66.841 E52.53644
G1 X73.082 Y-65.343 E52.61147
G1 X73.051 Y-23.615 E54.69329
G1 X72.794 Y-21.758 E54.78682
G1 X72.467 Y-20.574 E54.8481
G1 X71.604 Y-18.874 E54.94322
G1 X70.339 Y-17.303 E55.04385
G1 X68.711 Y-16.014 E55.14744
G1 X66.97 Y-15.232 E55.24266
G1 X65.441 Y-14.75 E55.32265
G1 X63.6 Y-14.625 E55.41471
G1 X6.532 Y-14.679 E58.26184
G1 X5.003 Y-14.912 E58.339
G1 X3.837 Y-15.234 E58.39935
G1 X2.117 Y-16.105 E58.49554
G1 X1.141 Y-16.898 E58.55828
G1 X-.225 Y-16.215 E58.63447
G1 X-1.936 Y-15.808 E58.72222
G1 X-3.671 Y-15.638 E58.80919
G1 X-15.879 Y-15.645 E59.41825
G1 X-15.55 Y-14.193 E59.49253
G1 X-15.398 Y-12.573 E59.5737
G1 X-15.429 Y29.155 E61.65552
G1 X-15.686 Y31.012 E61.74905
G1 X-16.013 Y32.196 E61.81033
G1 X-16.873 Y33.887 E61.90498
G1 X-18.142 Y35.462 E62.00589
G1 X-19.771 Y36.754 E62.10962
G1 X-21.552 Y37.554 E62.20703
G1 X-23.026 Y38.016 E62.28409
G1 X-24.881 Y38.145 E62.37686
G1 X-81.948 Y38.091 E65.22395
G1 X-83.477 Y37.858 E65.30111
G1 X-84.643 Y37.536 E65.36146
G1 X-86.339 Y36.673 E65.4564
G1 X-87.91 Y35.395 E65.55743
G1 X-89.137 Y33.864 E65.65532
G1 X-90.048 Y32.063 E65.75601
G1 X-90.418 Y30.477 E65.83726
G1 X-90.598 Y28.663 E65.92821
G1 X-90.578 Y-12.923 E68.00294
G1 X-90.311 Y-14.922 E68.10356
G1 X-89.993 Y-16.075 E68.16323
G1 X-89.103 Y-17.841 E68.26189
G1 X-87.852 Y-19.378 E68.36076
G1 X-86.328 Y-20.595 E68.45806
G1 X-84.519 Y-21.495 E68.55887
G1 X-82.837 Y-21.888 E68.64504
G1 X-81.116 Y-22.055 E68.73131
G1 X-68.875 Y-22.047 E69.34201
G1 X-69.225 Y-23.231 E69.40361
G1 X-69.389 Y-25.12 E69.49821
G1 X-69.35 Y-66.975 E71.58636
G1 X-69.102 Y-68.715 E71.67405
G1 X-68.779 Y-69.884 E71.73456
G1 X-67.913 Y-71.591 E71.83005
G1 X-66.633 Y-73.165 E71.93127
G1 X-65.042 Y-74.435 E72.03283
G1 X-63.428 Y-75.174 E72.12139
G1 X-61.76 Y-75.709 E72.20878
G1 X-59.907 Y-75.838 E72.30145
G1 X-3.295 Y-75.815 E75.12584
G1 X-1.312 Y-75.551 E75.22564
G1 X-.15 Y-75.23 E75.28579
G1 X1.557 Y-74.362 E75.38133
G1 X2.543 Y-73.566 E75.44455
G1 X3.842 Y-74.161 E75.51583
G1 X5.512 Y-74.696 E75.60332
G1 X7.364 Y-74.825 E75.69594
G1 X63.976 Y-74.802 E78.52032
G1 X65.959 Y-74.538 E78.62013
G1 X66.608 Y-74.359 E78.65372
G1 F1500 E72.15372
G0 F3600 X67.371 Y-73.643
G1 F1500 E78.65372
G1 F1800 X66.983 Y-73.84 E78.67543
G1 X65.853 Y-74.152 E78.73391
G1 X63.976 Y-74.402 E78.82838
G1 X7.364 Y-74.425 E81.65277
G1 X5.587 Y-74.3 E81.74164
G1 X4.009 Y-73.797 E81.82427
G1 X2.485 Y-73.099 E81.9079
G1 X1.341 Y-74.023 E81.98126
G1 X-.295 Y-74.855 E82.07283
G1 X-1.418 Y-75.165 E82.13096
G1 X-3.295 Y-75.415 E82.22543
G1 X-59.907 Y-75.438 E85.04981
G1 X-61.684 Y-75.313 E85.13868
G1 X-63.261 Y-74.81 E85.22127
G1 X-64.833 Y-74.09 E85.30753
G1 X-66.352 Y-72.878 E85.40448
G1 X-67.574 Y-71.375 E85.50112
G1 X-68.404 Y-69.739 E85.59264
G1 X-68.716 Y-68.609 E85.65113
G1 X-68.954 Y-66.919 E85.73628
G1 X-68.989 Y-25.12 E87.82164
G1 X-68.831 Y-23.309 E87.91233
G1 X-68.428 Y-21.947 E87.98319
G1 X-68.297 Y-21.647 E87.99953
G1 X-81.116 Y-21.655 E88.63907
G1 X-82.798 Y-21.49 E88.72339
G1 X-84.382 Y-21.116 E88.80459
G1 X-86.111 Y-20.256 E88.90093
G1 X-87.571 Y-19.091 E88.99411
G1 X-88.765 Y-17.624 E89.08848
G1 X-89.617 Y-15.933 E89.18295
G1 X-89.925 Y-14.816 E89.24076
G1 X-90.178 Y-12.923 E89.33604
G1 X-90.198 Y28.663 E91.41077
G1 X-90.028 Y30.386 E91.49715
G1 X-89.669 Y31.926 E91.57604
G1 X-88.798 Y33.648 E91.67232
G1 X-87.624 Y35.113 E91.76598
G1 X-86.123 Y36.334 E91.86251
G1 X-84.499 Y37.16 E91.95341
G1 X-83.37 Y37.472 E92.01185
G1 X-81.888 Y37.695 E92.08662
G1 X-24.881 Y37.745 E94.93071
G1 X-23.103 Y37.62 E95.01963
G1 X-21.672 Y37.172 E95.09444
G1 X-19.979 Y36.408 E95.18711
G1 X-18.424 Y35.175 E95.28612
G1 X-17.212 Y33.671 E95.38248
G1 X-16.389 Y32.052 E95.47309
G1 X-16.072 Y30.905 E95.53246
G1 X-15.825 Y29.101 E95.6233
G1 X-15.798 Y-12.573 E97.70243
G1 X-15.948 Y-14.155 E97.78171
G1 X-16.328 Y-15.81 E97.86643
G1 X-16.433 Y-16.045 E97.87927
G1 X-3.671 Y-16.038 E98.51597
G1 X-1.975 Y-16.206 E98.60099
G1 X-.364 Y-16.593 E98.68365
G1 X1.193 Y-17.371 E98.77049
G1 X2.336 Y-16.443 E98.84394
G1 X3.981 Y-15.61 E98.93593
G1 X5.11 Y-15.298 E98.99437
G1 X6.592 Y-15.075 E99.06914
G1 X63.6 Y-15.025 E101.91328
G1 X65.364 Y-15.146 E102.0015
G1 X66.85 Y-15.614 E102.07922
G1 X68.502 Y-16.359 E102.16964
G1 X70.054 Y-17.588 E102.2684
G1 X71.266 Y-19.093 E102.36481
G1 X72.091 Y-20.718 E102.45573
G1 X72.408 Y-21.865 E102.5151
G1 X72.655 Y-23.669 E102.60594
G1 X72.682 Y-65.343 E104.68506
G1 X72.55 Y-66.805 E104.7583
G1 X72.147 Y-68.616 E104.85086
G1 X71.633 Y-69.64 E104.90802
G1 F1500 E98.40802
G0 F3600 X70.383 Y-70.814
G1 F1500 E104.90802
G1 F1800 X70.952 Y-70.106 E104.95334
G1 X71.768 Y-68.479 E105.04415
G1 X72.152 Y-66.769 E105.13158
G1 X72.282 Y-65.343 E105.20302
G1 X72.259 Y-23.723 E107.27945
G1 X72.022 Y-21.971 E107.36766
G1 X71.716 Y-20.863 E107.42501
G1 X70.928 Y-19.312 E107.5118
G1 X69.769 Y-17.873 E107.60398
G1 X68.294 Y-16.705 E107.69785
G1 X66.685 Y-15.979 E107.78591
G1 X65.289 Y-15.542 E107.85889
G1 X63.6 Y-15.425 E107.94336
G1 X6.592 Y-15.475 E110.7875
G1 X5.216 Y-15.684 E110.85694
G1 X4.126 Y-15.985 E110.91335
G1 X2.552 Y-16.782 E111.00137
G1 X1.21 Y-17.872 E111.08763
G1 X1 Y-17.72 E111.10056
G1 X-.502 Y-16.971 E111.1843
G1 X-2.015 Y-16.604 E111.26197
G1 X-3.671 Y-16.438 E111.345
G1 X-17.08 Y-16.445 E112.01398
G1 X-16.718 Y-15.72 E112.05441
G1 X-16.338 Y-14.065 E112.13913
G1 X-16.198 Y-12.573 E112.21389
G1 X-16.221 Y29.047 E114.29032
G1 X-16.458 Y30.799 E114.37852
G1 X-16.764 Y31.907 E114.43587
G1 X-17.551 Y33.455 E114.52251
G1 X-18.708 Y34.891 E114.61451
G1 X-20.184 Y36.061 E114.70848
G1 X-21.837 Y36.807 E114.79896
G1 X-23.178 Y37.224 E114.86902
G1 X-24.881 Y37.345 E114.9542
G1 X-81.888 Y37.295 E117.79829
G1 X-83.264 Y37.086 E117.86772
G1 X-84.354 Y36.785 E117.92414
G1 X-85.907 Y35.995 E118.01107
G1 X-87.338 Y34.831 E118.1031
G1 X-88.459 Y33.432 E118.19254
G1 X-89.29 Y31.789 E118.28439
G1 X-89.638 Y30.295 E118.36092
G1 X-89.798 Y28.663 E118.44274
G1 X-89.778 Y-12.923 E120.51747
G1 X-89.539 Y-14.71 E120.60742
G1 X-89.241 Y-15.791 E120.66336
G1 X-88.427 Y-17.407 E120.75363
G1 X-87.29 Y-18.804 E120.8435
G1 X-85.894 Y-19.917 E120.93257
G1 X-84.246 Y-20.737 E121.0244
G1 X-82.759 Y-21.092 E121.10068
G1 X-81.116 Y-21.255 E121.18305
G1 X-67.68 Y-21.247 E121.85337
G1 X-68.044 Y-22.061 E121.89786
G1 X-68.437 Y-23.389 E121.96695
G1 X-68.589 Y-25.12 E122.05365
G1 X-68.558 Y-66.864 E124.13626
G1 X-68.33 Y-68.502 E124.21877
G1 X-68.028 Y-69.595 E124.27534
G1 X-67.235 Y-71.159 E124.36283
G1 X-66.072 Y-72.589 E124.45479
G1 X-64.62 Y-73.748 E124.54748
G1 X-63.095 Y-74.446 E124.63115
G1 X-61.609 Y-74.917 E124.70892
G1 X-59.907 Y-75.038 E124.79405
G1 X-3.295 Y-75.015 E127.61843
G1 X-1.525 Y-74.779 E127.70752
G1 X-.439 Y-74.479 E127.76373
G1 X1.125 Y-73.684 E127.85126
G1 X2.481 Y-72.589 E127.93822
G1 X2.735 Y-72.773 E127.95386
G1 X4.176 Y-73.433 E128.03294
G1 X5.662 Y-73.904 E128.11071
G1 X7.364 Y-74.025 E128.19584
G1 X63.976 Y-74.002 E131.02022
G1 X65.746 Y-73.766 E131.10931
G1 X66.839 Y-73.464 E131.16588
G1 X68.391 Y-72.675 E131.25274
G1 X68.47 Y-72.611 E131.25781
G0 F3600 X68.175 Y-72.336
G1 F1800 X69.538 Y-71.227 E131.34548
G1 X70.614 Y-69.888 E131.43118
G1 X71.389 Y-68.342 E131.51746
G1 X71.754 Y-66.732 E131.59982
G1 X71.882 Y-65.343 E131.66941
G1 X71.862 Y-23.776 E133.7432
G1 X71.636 Y-22.078 E133.82866
G1 X71.34 Y-21.007 E133.88409
G1 X70.59 Y-19.531 E133.96669
G1 X69.484 Y-18.158 E134.05465
G1 X68.083 Y-17.048 E134.14383
G1 X66.566 Y-16.361 E134.22691
G1 X65.214 Y-15.938 E134.29758
G1 X63.6 Y-15.825 E134.3783
G1 X6.651 Y-15.871 E137.2195
G1 X5.323 Y-16.07 E137.2865
G1 X4.27 Y-16.361 E137.341
G1 X2.771 Y-17.12 E137.42483
G1 X1.453 Y-18.19 E137.50952
G1 X1.261 Y-18.415 E137.52428
G1 X0.821 Y-18.078 E137.55193
G1 X-.64 Y-17.349 E137.63339
G1 X-2.109 Y-16.993 E137.7088
G1 X-3.671 Y-16.838 E137.78711
G1 X-17.728 Y-16.845 E138.48842
G1 X-17.097 Y-15.584 E138.55877
G1 X-16.736 Y-14.027 E138.63851
G1 X-16.598 Y-12.573 E138.71137
G1 X-16.618 Y28.994 E140.78516
G1 X-16.844 Y30.692 E140.87062
G1 X-17.14 Y31.763 E140.92605
G1 X-17.89 Y33.239 E141.00865
G1 X-18.99 Y34.604 E141.09611
G1 X-20.395 Y35.718 E141.18557
G1 X-21.956 Y36.425 E141.27106
G1 X-23.253 Y36.828 E141.33882
G1 X-24.881 Y36.945 E141.42025
G1 X-81.829 Y36.899 E144.2614
G1 X-83.157 Y36.7 E144.3284
G1 X-84.21 Y36.409 E144.3829
G1 X-85.691 Y35.656 E144.46579
G1 X-87.052 Y34.549 E144.55331
G1 X-88.12 Y33.216 E144.63853
G1 X-88.911 Y31.652 E144.72597
G1 X-89.248 Y30.204 E144.80014
G1 X-89.398 Y28.663 E144.87739
G1 X-89.378 Y-12.923 E146.95212
G1 X-89.153 Y-14.604 E147.03673
G1 X-88.865 Y-15.649 E147.09081
G1 X-88.09 Y-17.187 E147.17673
G1 X-87.008 Y-18.516 E147.26223
G1 X-85.675 Y-19.58 E147.34733
G1 X-84.11 Y-20.358 E147.43452
G1 X-82.719 Y-20.694 E147.50591
G1 X-81.116 Y-20.855 E147.58629
G1 X-67.06 Y-20.847 E148.28755
G1 X-67.66 Y-22.175 E148.36025
G1 X-68.043 Y-23.469 E148.42757
G1 X-68.189 Y-25.12 E148.51026
G1 X-68.162 Y-66.81 E150.59019
G1 X-67.944 Y-68.396 E150.67006
G1 X-67.653 Y-69.45 E150.72461
G1 X-66.896 Y-70.943 E150.80812
G1 X-65.791 Y-72.302 E150.89551
G1 X-64.411 Y-73.403 E150.98358
G1 X-62.928 Y-74.082 E151.06496
G1 X-61.536 Y-74.521 E151.13778
G1 X-59.907 Y-74.638 E151.21926
G1 X-3.295 Y-74.615 E154.04364
G1 X-1.631 Y-74.393 E154.12739
G1 X-.584 Y-74.104 E154.18158
G1 X0.909 Y-73.345 E154.26514
G1 X2.241 Y-72.269 E154.35057
G1 X2.43 Y-72.047 E154.36511
G1 X2.902 Y-72.409 E154.39479
G1 X4.343 Y-73.069 E154.47386
G1 X5.735 Y-73.508 E154.54668
G1 X7.364 Y-73.625 E154.62816
G1 X63.976 Y-73.602 E157.45255
G1 X65.64 Y-73.38 E157.5363
G1 X66.694 Y-73.089 E157.59085
G1 X68.175 Y-72.336 E157.67374
G0 F3600 X67.959 Y-71.997
G1 F1800 X69.25 Y-70.947 E157.75676
G1 X70.276 Y-69.67 E157.83849
G1 X71.01 Y-68.205 E157.92024
G1 X71.356 Y-66.695 E157.99753
G1 X71.482 Y-65.343 E158.06527
G1 X71.462 Y-23.776 E160.13906
G1 X71.25 Y-22.184 E160.21918
G1 X70.965 Y-21.152 E160.2726
G1 X70.251 Y-19.747 E160.35122
G1 X69.202 Y-18.445 E160.43464
G1 X67.874 Y-17.392 E160.51919
G1 X66.447 Y-16.743 E160.5974
G1 X65.139 Y-16.334 E160.66578
G1 X63.6 Y-16.225 E160.74275
G1 X6.709 Y-16.267 E163.58105
G1 X5.429 Y-16.456 E163.64561
G1 X4.415 Y-16.736 E163.69809
G1 X2.99 Y-17.458 E163.77779
G1 X1.705 Y-18.501 E163.86036
