;FLAVOR:Marlin
;TIME:2397
;Filament used: 1.82479m
;Layer height: 0.12
;MINX:-12.656
;MINY:-13.7
;MINZ:0.3
;MAXX:23.51
;MAXY:18.821
;MAXZ:20.98
;Generated with Cura_SteamEngine 4.12.1
M140 S50
M105
M190 S50
M104 S210
M105
M109 S210
M82 ;absolute extrusion mode
;FLAVOR:Marlin
M82 ;absolute extrusion mode
G21
G90
M82
M107 T0
G28
G92 E0
G0 E3 F200
G92 E0 ; reset extrusion distance
M106 S255 ; Enable cooling fan full speed
G1 X-98 Y0 Z0.4 F3000 ; move to arc start
G3 X0 Y-98 I98 Z0.4 E40 F400 ; lay arc stripe 90deg
G92 E0 ; reset extrusion distance
G4 P500 ; wait for 0.5 sec
G0 Z10 E-1 ; Lift 15mm and retract 1mm filament
G4 P2000 ; wait for 5 sec
G0 Z15
M107 ; Disable cooling fan
G1 X0 Y-85 Z4 E0 F3000 ; get off the bed
G92 E0
G92 E0
G1 F1500 E-7
;LAYER_COUNT:166
;LAYER:0
M107
G1 F600 Z1.3
G0 F3600 X-0.024 Y0.639 Z1.3
;TYPE:SKIRT
G1 F600 Z0.3
G1 F1500 E0.41575
G1 F2400 X-.549 Y0.652 E0.44195
G1 X-1.041 Y0.81 E0.46773
G1 X-1.381 Y1.025 E0.4878
G1 X-1.062 Y1.056 E0.50379
G1 X-.66 Y1.174 E0.52469
G1 X-.323 Y1.344 E0.54353
G1 X0.155 Y1.639 E0.57155
G1 X1.036 Y1.679 E0.61555
G1 X1.438 Y1.797 E0.63645
G1 X1.873 Y2.031 E0.66109
G1 X3.103 Y2.884 E0.73577
G1 X3.458 Y2.918 E0.75356
G1 X3.86 Y3.036 E0.77446
G1 X4.232 Y3.229 E0.79537
G1 X4.558 Y3.484 E0.81602
G1 X5.281 Y4.172 E0.86581
G1 X6.213 Y4.253 E0.91249
G1 X6.626 Y4.329 E0.93344
G1 X7.016 Y4.481 E0.95432
G1 X7.316 Y4.664 E0.97185
G1 X8.165 Y5.28 E1.02418
G1 X8.479 Y5.558 E1.04511
G1 X8.735 Y5.889 E1.06598
G1 X8.965 Y6.379 E1.09299
G1 X9.141 Y6.915 E1.12113
G1 X9.183 Y6.431 E1.14537
G1 X9.129 Y5.712 E1.18134
G1 X9.112 Y5.032 E1.21528
G1 X9.143 Y4.348 E1.24944
G1 X9.249 Y3.623 E1.28599
G1 X9.427 Y2.912 E1.32256
G1 X9.675 Y2.226 E1.35895
G1 X9.984 Y1.58 E1.39468
G1 X10.365 Y0.958 E1.43107
G1 X10.814 Y0.369 E1.46802
G1 X11.309 Y-.161 E1.5042
G1 X11.859 Y-.64 E1.54059
G1 X12.451 Y-1.06 E1.5768
G1 X13.086 Y-1.419 E1.61319
G1 X13.757 Y-1.714 E1.64976
G1 X14.451 Y-1.938 E1.68614
G1 X15.16 Y-2.09 E1.72232
G1 X15.893 Y-2.17 E1.75911
G1 X16.616 Y-2.175 E1.79518
G1 X17.345 Y-2.107 E1.83171
G1 X18.06 Y-1.967 E1.86806
G1 X18.761 Y-1.752 E1.90464
G1 X19.43 Y-1.471 E1.94084
G1 X20.079 Y-1.117 E1.97772
G1 X20.674 Y-.709 E2.01371
G1 X21.233 Y-.236 E2.05025
G1 X21.736 Y0.285 E2.08638
G1 X22.19 Y0.863 E2.12304
G1 X22.578 Y1.475 E2.1592
G1 X22.904 Y2.125 E2.19547
G1 X23.165 Y2.812 E2.23214
G1 X23.352 Y3.511 E2.26824
G1 X23.468 Y4.233 E2.30472
G1 X23.51 Y4.946 E2.34035
G1 X23.502 Y5.491 E2.36755
G1 X23.45 Y6.292 E2.40759
G1 X23.392 Y6.794 E2.43281
G1 X23.263 Y7.575 E2.4723
G1 X23.154 Y8.071 E2.49763
G1 X22.995 Y8.669 E2.5285
G1 X22.739 Y9.442 E2.56913
G1 X22.497 Y10.039 E2.60127
G1 X22.131 Y10.784 E2.64268
G1 X21.711 Y11.489 E2.68362
G1 X21.392 Y11.944 E2.71134
G1 X21.006 Y12.42 E2.74192
G1 X20.614 Y12.839 E2.77054
G1 X20.136 Y13.272 E2.80272
G1 X19.608 Y13.669 E2.83568
G1 X19.154 Y13.952 E2.86237
G1 X18.704 Y14.183 E2.88761
G1 X17.999 Y14.456 E2.92532
G1 X17.502 Y14.587 E2.95097
G1 X16.845 Y14.691 E2.98415
G1 X16.431 Y14.717 E3.00485
G1 X10.133 Y14.717 E3.31906
G1 X10.144 Y15.131 E3.33972
G1 X10.041 Y15.658 E3.36651
G1 X9.71 Y16.674 E3.41982
G1 X9.543 Y17.059 E3.44075
G1 X9.306 Y17.404 E3.46164
G1 X8.911 Y17.773 E3.4886
G1 X8.046 Y18.401 E3.54193
G1 X7.685 Y18.614 E3.56284
G1 X7.29 Y18.755 E3.58377
G1 X6.753 Y18.821 E3.61076
G1 X5.685 Y18.821 E3.66404
G1 X5.268 Y18.781 E3.68494
G1 X4.866 Y18.663 E3.70585
G1 X4.392 Y18.401 E3.73287
G1 X3.527 Y17.773 E3.7862
G1 X3.213 Y17.496 E3.80709
G1 X2.958 Y17.164 E3.82797
G1 X2.728 Y16.674 E3.85498
G1 X2.397 Y15.658 E3.90829
G1 X2.306 Y15.249 E3.92919
G1 X2.316 Y14.718 E3.95569
G1 X0.29 Y14.718 E4.05676
G1 X-.127 Y14.678 E4.07766
G1 X-.529 Y14.56 E4.09857
G1 X-.901 Y14.368 E4.11945
G1 X-1.23 Y14.108 E4.14037
G1 X-1.504 Y13.791 E4.16128
G1 X-1.713 Y13.428 E4.18217
G1 X-1.849 Y13.031 E4.20311
G1 X-1.91 Y12.517 E4.22893
G1 X-1.909 Y10.517 E4.32871
G1 X-1.817 Y9.924 E4.35865
G1 X-2.072 Y9.746 E4.37417
G1 X-2.09 Y9.937 E4.38374
G1 X-2.208 Y10.339 E4.40464
G1 X-2.401 Y10.711 E4.42555
G1 X-2.66 Y11.04 E4.44644
G1 X-2.977 Y11.314 E4.46734
G1 X-3.34 Y11.523 E4.48824
G1 X-3.737 Y11.659 E4.50918
G1 X-4.249 Y11.72 E4.5349
G1 X-6.249 Y11.721 E4.63468
G1 X-6.666 Y11.681 E4.65558
G1 X-7.068 Y11.563 E4.67648
G1 X-7.441 Y11.371 E4.69741
G1 X-7.77 Y11.112 E4.7183
G1 X-8.044 Y10.795 E4.73921
G1 X-8.253 Y10.432 E4.76011
G1 X-8.389 Y10.035 E4.78104
G1 X-8.45 Y9.521 E4.80686
G1 X-8.45 Y8.315 E4.86703
G1 X-8.65 Y8.339 E4.87708
G1 X-9.25 Y8.339 E4.90702
G1 X-9.667 Y8.299 E4.92792
G1 X-10.069 Y8.181 E4.94882
G1 X-10.543 Y7.919 E4.97584
G1 X-11.418 Y7.283 E5.02981
G1 X-11.732 Y7.005 E5.05073
G1 X-11.988 Y6.673 E5.07164
G1 X-12.216 Y6.186 E5.09847
G1 X-12.552 Y5.158 E5.15243
G1 X-12.644 Y4.75 E5.17329
G1 X-12.656 Y4.331 E5.19421
G1 X-12.552 Y3.792 E5.22159
G1 X-12.216 Y2.764 E5.27555
G1 X-12.049 Y2.379 E5.29649
G1 X-11.811 Y2.034 E5.3174
G1 X-11.418 Y1.667 E5.34423
G1 X-10.543 Y1.031 E5.39819
G1 X-10.183 Y0.818 E5.41906
G1 X-9.788 Y0.678 E5.43997
G1 X-9.25 Y0.611 E5.46702
G1 X-8.649 Y0.611 E5.497
G1 X-8.449 Y0.63 E5.50702
G1 X-8.449 Y-6.625 E5.86898
G1 X-8.406 Y-7.194 E5.89745
G1 X-8.287 Y-7.836 E5.93002
G1 X-8.128 Y-8.368 E5.95772
G1 X-7.895 Y-8.933 E5.98821
G1 X-7.66 Y-9.381 E6.01345
G1 X-7.396 Y-9.806 E6.03841
G1 X-7.036 Y-10.287 E6.06839
G1 X-6.571 Y-10.804 E6.10308
G1 X-6.132 Y-11.214 E6.13305
G1 X-5.648 Y-11.602 E6.164
G1 X-5.23 Y-11.895 E6.18946
G1 X-4.601 Y-12.274 E6.2261
G1 X-4.033 Y-12.565 E6.25794
G1 X-3.457 Y-12.817 E6.28931
G1 X-2.821 Y-13.051 E6.32312
G1 X-2.1 Y-13.267 E6.36067
G1 X-1.401 Y-13.433 E6.39651
G1 X-.882 Y-13.527 E6.42282
G1 X-0.096 Y-13.632 E6.46239
G1 X0.418 Y-13.673 E6.48811
G1 X1.226 Y-13.7 E6.52845
G1 X1.929 Y-13.667 E6.56356
G1 X2.63 Y-13.567 E6.59888
G1 X3.346 Y-13.388 E6.6357
G1 X4.045 Y-13.135 E6.67279
G1 X4.688 Y-12.826 E6.70838
G1 X5.313 Y-12.444 E6.74493
G1 X5.899 Y-11.997 E6.7817
G1 X6.429 Y-11.502 E6.81788
G1 X6.908 Y-10.952 E6.85427
G1 X7.328 Y-10.36 E6.89048
G1 X7.689 Y-9.72 E6.92714
G1 X7.98 Y-9.058 E6.96321
G1 X8.208 Y-8.349 E7.00037
G1 X8.359 Y-7.638 E7.03663
G1 X8.437 Y-6.927 E7.07232
G1 X8.443 Y-6.196 E7.10879
G1 X8.374 Y-5.465 E7.14542
G1 X8.229 Y-4.734 E7.1826
G1 X8.021 Y-4.052 E7.21817
G1 X7.737 Y-3.379 E7.25462
G1 X7.385 Y-2.732 E7.29136
G1 X6.98 Y-2.141 E7.32711
G1 X6.504 Y-1.578 E7.36389
G1 X5.983 Y-1.075 E7.40002
G1 X5.405 Y-.621 E7.43669
G1 X4.792 Y-.232 E7.47291
G1 X4.143 Y0.093 E7.50912
G1 X3.456 Y0.354 E7.54579
G1 X2.762 Y0.539 E7.58162
G1 X2.034 Y0.656 E7.6184
G1 X1.288 Y0.699 E7.65568
G1 X0.604 Y0.684 E7.68982
G1 X0.507 Y0.677 E7.69467
G0 F2160 X-0.024 Y0.639
G0 F3600 X-0.005 Y0.239
G1 F2400 X-.523 Y0.243 E7.72051
G1 X-1.126 Y0.409 E7.75172
G1 X-1.625 Y0.708 E7.78074
G1 X-1.98 Y1.07 E7.80603
G1 X-2.232 Y1.475 E7.82983
G1 X-1.85 Y1.416 E7.84912
G1 X-1.102 Y1.456 E7.88649
G1 X-.533 Y1.684 E7.91707
G1 X0.042 Y2.039 E7.95078
G1 X0.619 Y2.039 E7.97957
G1 X0.996 Y2.079 E7.99848
G1 X1.356 Y2.197 E8.01738
G1 X1.645 Y2.36 E8.03394
G1 X2.969 Y3.278 E8.11432
G1 X3.418 Y3.318 E8.13681
G1 X3.778 Y3.436 E8.15571
G1 X4.282 Y3.774 E8.18598
G1 X5.107 Y4.559 E8.2428
G1 X6.179 Y4.652 E8.29648
G1 X6.551 Y4.724 E8.31538
G1 X7.081 Y4.988 E8.34492
G1 X7.93 Y5.604 E8.39726
G1 X8.212 Y5.858 E8.41619
G1 X8.434 Y6.165 E8.43509
G1 X8.584 Y6.503 E8.45354
G1 X8.909 Y7.5 E8.50586
G1 X8.988 Y8.023 E8.53225
G1 X9.294 Y7.613 E8.55777
G1 X9.496 Y7.14 E8.58343
G1 X9.579 Y6.676 E8.60695
G1 X9.549 Y6.009 E8.64026
G1 X9.516 Y5.366 E8.67238
G1 X9.519 Y4.721 E8.70456
G1 X9.583 Y4.034 E8.73898
G1 X9.717 Y3.359 E8.77331
G1 X9.917 Y2.704 E8.80748
G1 X10.186 Y2.066 E8.84202
G1 X10.52 Y1.454 E8.87681
G1 X10.906 Y0.892 E8.91082
G1 X11.353 Y0.364 E8.94534
G1 X11.846 Y-.111 E8.97949
G1 X12.392 Y-.539 E9.0141
G1 X12.975 Y-.907 E9.0485
G1 X13.588 Y-1.213 E9.08268
G1 X14.232 Y-1.456 E9.11702
G1 X14.9 Y-1.634 E9.15151
G1 X15.58 Y-1.743 E9.18587
G1 X16.268 Y-1.781 E9.22025
G1 X16.951 Y-1.752 E9.25435
G1 X17.636 Y-1.652 E9.28889
G1 X18.306 Y-1.483 E9.32336
G1 X18.954 Y-1.247 E9.35777
G1 X19.565 Y-.953 E9.3916
G1 X20.152 Y-.593 E9.42595
G1 X20.707 Y-.17 E9.46077
G1 X21.207 Y0.299 E9.49497
G1 X21.659 Y0.819 E9.52934
G1 X22.057 Y1.382 E9.56374
G1 X22.396 Y1.983 E9.59816
G1 X22.67 Y2.609 E9.63226
G1 X22.882 Y3.269 E9.66684
G1 X23.026 Y3.941 E9.70113
G1 X23.1 Y4.631 E9.73575
G1 X23.105 Y5.41 E9.77461
G1 X23.051 Y6.259 E9.81706
G1 X22.942 Y7.096 E9.85917
G1 X22.779 Y7.918 E9.90098
G1 X22.61 Y8.557 E9.93395
G1 X22.361 Y9.31 E9.97352
G1 X22.128 Y9.883 E10.00438
G1 X21.776 Y10.601 E10.04427
G1 X21.372 Y11.277 E10.08356
G1 X21.076 Y11.699 E10.10928
G1 X20.699 Y12.163 E10.13911
G1 X20.337 Y12.55 E10.16554
G1 X19.879 Y12.966 E10.19641
G1 X19.378 Y13.341 E10.22763
G1 X18.736 Y13.723 E10.2649
G1 X18.22 Y13.954 E10.29311
G1 X17.55 Y14.166 E10.32817
G1 X17.012 Y14.269 E10.3555
G1 X16.431 Y14.317 E10.38458
G1 X9.622 Y14.317 E10.72429
G1 X9.74 Y14.796 E10.7489
G1 X9.738 Y15.175 E10.76781
G1 X9.66 Y15.535 E10.78618
G1 X9.329 Y16.551 E10.83949
G1 X9.175 Y16.897 E10.85839
G1 X8.951 Y17.202 E10.87727
G1 X8.676 Y17.45 E10.89574
G1 X7.811 Y18.078 E10.94907
G1 X7.482 Y18.267 E10.968
G1 X7.121 Y18.383 E10.98692
G1 X6.753 Y18.421 E11.00538
G1 X5.685 Y18.421 E11.05866
G1 X5.308 Y18.381 E11.07757
G1 X4.948 Y18.263 E11.09647
G1 X4.627 Y18.078 E11.11496
G1 X3.762 Y17.45 E11.16829
G1 X3.481 Y17.196 E11.18718
G1 X3.259 Y16.889 E11.20609
G1 X3.109 Y16.551 E11.22453
G1 X2.778 Y15.535 E11.27785
G1 X2.699 Y15.164 E11.29677
G1 X2.699 Y14.785 E11.31568
G1 X2.816 Y14.318 E11.3397
G1 X0.29 Y14.318 E11.46572
G1 X-0.087 Y14.278 E11.48463
G1 X-.447 Y14.16 E11.50353
G1 X-.774 Y13.97 E11.5224
G1 X-1.055 Y13.715 E11.54133
G1 X-1.275 Y13.407 E11.56022
G1 X-1.427 Y13.059 E11.57916
G1 X-1.51 Y12.517 E11.60652
G1 X-1.509 Y10.517 E11.7063
G1 X-1.469 Y10.14 E11.72521
G1 X-1.338 Y9.757 E11.74541
G1 X-1.441 Y9.698 E11.75133
G1 X-2.45 Y8.993 E11.81274
G1 X-2.45 Y9.52 E11.83903
G1 X-2.49 Y9.897 E11.85795
G1 X-2.608 Y10.257 E11.87685
G1 X-2.798 Y10.584 E11.89571
G1 X-3.053 Y10.865 E11.91465
G1 X-3.362 Y11.085 E11.93357
G1 X-3.709 Y11.237 E11.95247
G1 X-4.249 Y11.32 E11.97973
G1 X-6.249 Y11.321 E12.07951
G1 X-6.626 Y11.281 E12.09842
G1 X-6.986 Y11.164 E12.11731
G1 X-7.314 Y10.973 E12.13624
G1 X-7.594 Y10.718 E12.15514
G1 X-7.815 Y10.41 E12.17405
G1 X-7.966 Y10.063 E12.19293
G1 X-8.05 Y9.521 E12.22029
G1 X-8.05 Y7.83 E12.30466
G1 X-8.109 Y7.856 E12.30787
G1 X-8.65 Y7.939 E12.33518
G1 X-9.25 Y7.939 E12.36511
G1 X-9.627 Y7.899 E12.38403
G1 X-9.987 Y7.781 E12.40293
G1 X-10.308 Y7.595 E12.42144
G1 X-11.183 Y6.959 E12.47541
G1 X-11.465 Y6.705 E12.49434
G1 X-11.687 Y6.398 E12.51324
G1 X-11.836 Y6.062 E12.53158
G1 X-12.172 Y5.034 E12.58554
G1 X-12.251 Y4.664 E12.60441
G1 X-12.251 Y4.285 E12.62332
G1 X-12.172 Y3.916 E12.64215
G1 X-11.836 Y2.888 E12.6961
G1 X-11.681 Y2.542 E12.71502
G1 X-11.457 Y2.236 E12.73394
G1 X-11.183 Y1.991 E12.75228
G1 X-10.308 Y1.355 E12.80624
G1 X-9.98 Y1.166 E12.82513
G1 X-9.619 Y1.049 E12.84406
G1 X-9.25 Y1.011 E12.86257
G1 X-8.649 Y1.011 E12.89255
G1 X-8.272 Y1.051 E12.91147
G1 X-8.049 Y1.124 E12.92317
G1 X-8.049 Y-6.625 E13.30977
G1 X-8.01 Y-7.136 E13.33534
G1 X-7.896 Y-7.749 E13.36645
G1 X-7.661 Y-8.473 E13.40442
G1 X-7.307 Y-9.192 E13.44441
G1 X-6.916 Y-9.792 E13.48014
G1 X-6.531 Y-10.264 E13.51052
G1 X-6.134 Y-10.672 E13.53893
G1 X-5.698 Y-11.057 E13.56794
G1 X-5.085 Y-11.511 E13.606
G1 X-4.402 Y-11.927 E13.6459
G1 X-3.858 Y-12.206 E13.6764
G1 X-3.301 Y-12.449 E13.70672
G1 X-2.689 Y-12.673 E13.73923
G1 X-1.993 Y-12.882 E13.77549
G1 X-1.314 Y-13.043 E13.8103
G1 X-.47 Y-13.185 E13.853
G1 X0.384 Y-13.27 E13.89582
G1 X1.232 Y-13.3 E13.93815
G1 X1.897 Y-13.268 E13.97137
G1 X2.562 Y-13.173 E14.00488
G1 X3.237 Y-13.003 E14.03961
G1 X3.895 Y-12.764 E14.07453
G1 X4.505 Y-12.47 E14.10832
G1 X5.094 Y-12.109 E14.14278
G1 X5.646 Y-11.688 E14.17742
G1 X6.146 Y-11.219 E14.21162
G1 X6.598 Y-10.699 E14.24599
G1 X6.994 Y-10.14 E14.28017
G1 X7.335 Y-9.535 E14.31482
G1 X7.609 Y-8.909 E14.34891
G1 X7.823 Y-8.241 E14.38391
G1 X7.965 Y-7.569 E14.41817
G1 X8.038 Y-6.896 E14.45195
G1 X8.043 Y-6.205 E14.48642
G1 X7.978 Y-5.515 E14.521
G1 X7.84 Y-4.827 E14.55601
G1 X7.642 Y-4.181 E14.58971
G1 X7.374 Y-3.546 E14.6241
G1 X7.041 Y-2.936 E14.65877
G1 X6.658 Y-2.377 E14.69258
G1 X6.208 Y-1.846 E14.7273
G1 X5.715 Y-1.371 E14.76146
G1 X5.169 Y-.943 E14.79607
G1 X4.589 Y-.577 E14.83029
G1 X3.975 Y-.27 E14.86454
G1 X3.327 Y-0.025 E14.8991
G1 X2.67 Y0.15 E14.93302
G1 X1.984 Y0.26 E14.96768
G1 X1.279 Y0.3 E15.00291
G1 X0.62 Y0.285 E15.0358
G1 X0.526 Y0.278 E15.0405
G0 F2160 X-0.005 Y0.239
G0 F3600 X0.052 Y-.158
G1 F2400 X-.57 Y-.154 E15.07153
G1 X-1.064 Y-0.041 E15.09681
G1 X-1.528 Y0.161 E15.12206
G1 X-1.988 Y0.493 E15.15036
G1 X-2.38 Y0.938 E15.17995
G1 X-2.662 Y1.456 E15.20937
G1 X-2.816 Y2.017 E15.2384
G1 X-2.841 Y2.238 E15.24949
G1 X-2.657 Y2.072 E15.26186
G1 X-2.363 Y1.913 E15.27853
G1 X-1.85 Y1.816 E15.30458
G1 X-1.147 Y1.856 E15.33971
G1 X-.743 Y2.025 E15.36156
G1 X-0.072 Y2.439 E15.40089
G1 X0.619 Y2.439 E15.43537
G1 X0.951 Y2.479 E15.45205
G1 X1.417 Y2.688 E15.47753
G1 X2.845 Y3.678 E15.56422
G1 X3.373 Y3.718 E15.59064
G1 X3.685 Y3.835 E15.60726
G1 X4.006 Y4.064 E15.62693
G1 X4.932 Y4.945 E15.6907
G1 X6.145 Y5.05 E15.75144
G1 X6.472 Y5.118 E15.76811
G1 X6.846 Y5.312 E15.78913
G1 X7.695 Y5.928 E15.84146
G1 X7.94 Y6.155 E15.85812
G1 X8.125 Y6.434 E15.87482
G1 X8.204 Y6.627 E15.88523
G1 X8.529 Y7.624 E15.93754
G1 X8.594 Y7.952 E15.95423
G1 X8.579 Y8.286 E15.97091
G1 X8.506 Y8.561 E15.9851
G1 X8.288 Y8.955 E16.00757
G1 X8.736 Y8.739 E16.03238
G1 X9.206 Y8.374 E16.06207
G1 X9.571 Y7.925 E16.09094
G1 X9.831 Y7.401 E16.12012
G1 X9.965 Y6.838 E16.14899
G1 X9.972 Y6.246 E16.17853
G1 X9.928 Y5.662 E16.20775
G1 X9.912 Y5.023 E16.23964
G1 X9.941 Y4.408 E16.27035
G1 X10.036 Y3.764 E16.30283
G1 X10.196 Y3.133 E16.33531
G1 X10.418 Y2.524 E16.36765
G1 X10.695 Y1.948 E16.39953
G1 X11.034 Y1.396 E16.43185
G1 X11.433 Y0.875 E16.46459
G1 X11.875 Y0.405 E16.49678
G1 X12.365 Y-0.021 E16.52917
G1 X12.892 Y-.392 E16.56133
G1 X13.458 Y-.711 E16.59374
G1 X14.054 Y-.971 E16.62618
G1 X14.672 Y-1.169 E16.65856
G1 X15.303 Y-1.303 E16.69074
G1 X15.953 Y-1.372 E16.72335
G1 X16.597 Y-1.376 E16.75548
G1 X17.244 Y-1.314 E16.78791
G1 X17.88 Y-1.187 E16.82027
G1 X18.501 Y-.995 E16.85269
G1 X19.097 Y-.744 E16.88496
G1 X19.671 Y-.429 E16.91762
G1 X20.2 Y-0.065 E16.94966
G1 X20.696 Y0.357 E16.98215
G1 X21.143 Y0.822 E17.01433
G1 X21.545 Y1.335 E17.04685
G1 X21.889 Y1.88 E17.079
G1 X22.177 Y2.46 E17.11131
G1 X22.407 Y3.07 E17.14383
G1 X22.573 Y3.693 E17.176
G1 X22.675 Y4.334 E17.20838
G1 X22.711 Y4.967 E17.24001
G1 X22.685 Y5.814 E17.28229
G1 X22.607 Y6.63 E17.32318
G1 X22.476 Y7.434 E17.36382
G1 X22.289 Y8.228 E17.40452
G1 X22.116 Y8.799 E17.43429
G1 X21.909 Y9.373 E17.46473
G1 X21.594 Y10.08 E17.50334
G1 X21.275 Y10.676 E17.53707
G1 X20.992 Y11.127 E17.56363
G1 X20.635 Y11.615 E17.5938
G1 X20.116 Y12.205 E17.633
G1 X19.621 Y12.66 E17.66655
G1 X19.148 Y13.014 E17.69602
G1 X18.546 Y13.37 E17.73091
G1 X18.067 Y13.584 E17.75709
G1 X17.448 Y13.78 E17.78948
G1 X16.752 Y13.896 E17.82468
G1 X16.431 Y13.917 E17.84073
G1 X8.9 Y13.917 E18.21645
G1 X9.074 Y14.111 E18.22946
G1 X9.282 Y14.548 E18.2536
G1 X9.345 Y14.876 E18.27026
G1 X9.33 Y15.209 E18.28689
G1 X9.28 Y15.411 E18.29728
G1 X8.949 Y16.427 E18.35059
G1 X8.809 Y16.73 E18.36724
G1 X8.441 Y17.126 E18.39421
G1 X7.576 Y17.754 E18.44754
G1 X7.284 Y17.917 E18.46422
G1 X6.753 Y18.021 E18.49122
G1 X5.685 Y18.021 E18.5445
