;FLAVOR:Marlin
;TIME:3304
;Filament used: 6.24649m
;Layer height: 0.15
;MINX:-49.5
;MINY:-38
;MINZ:0.3
;MAXX:49.5
;MAXY:38
;MAXZ:8.32
;Generated with Cura_SteamEngine 4.12.1
M140 S50
M105
M190 S50
M104 S210
M105
M109 S210
M82 ;absolute extrusion mode
;FLAVOR:Marlin
M82 ;absolute extrusion mode
G21
G90
M82
M107 T0
G28
G92 E0
G0 E3 F200
G92 E0 ; reset extrusion distance
M106 S255 ; Enable cooling fan full speed
G1 X-98 Y0 Z0.4 F3000 ; move to arc start
G3 X0 Y-98 I98 Z0.4 E40 F400 ; lay arc stripe 90deg
G92 E0 ; reset extrusion distance
G4 P500 ; wait for 0.5 sec
G0 Z10 E-1 ; Lift 15mm and retract 1mm filament
G4 P2000 ; wait for 5 sec
G0 Z15
M107 ; Disable cooling fan
G1 X0 Y-85 Z4 E0 F3000 ; get off the bed
G92 E0
G92 E0
G1 F1500 E-6.5
;LAYER_COUNT:29
;LAYER:0
M106 S25.5
G1 F600 Z1.3
G0 F3600 X-45.396 Y-37.4 Z1.3
;TYPE:SKIRT
G1 F600 Z0.3
G1 F1500 E0.24945
G1 F2400 X-45.834 Y-37.371 E0.27135
G1 X-46.373 Y-37.254 E0.29887
G1 X-46.889 Y-37.05 E0.32655
G1 X-47.365 Y-36.764 E0.35425
G1 X-47.775 Y-36.415 E0.38112
G1 X-48.202 Y-35.949 E0.41265
G1 X-48.501 Y-35.484 E0.44023
G1 X-48.721 Y-34.975 E0.4679
G1 X-48.856 Y-34.436 E0.49562
G1 X-48.9 Y-33.899 E0.5225
G1 X-48.9 Y33.896 E3.9048
G1 X-48.871 Y34.334 E3.9267
G1 X-48.754 Y34.873 E3.95422
G1 X-48.55 Y35.389 E3.9819
G1 X-48.264 Y35.865 E4.00961
G1 X-47.915 Y36.275 E4.03647
G1 X-47.449 Y36.702 E4.068
G1 X-46.984 Y37.001 E4.09558
G1 X-46.475 Y37.221 E4.12325
G1 X-45.936 Y37.356 E4.15097
G1 X-45.399 Y37.4 E4.17785
G1 X45.396 Y37.4 E8.70763
G1 X45.834 Y37.371 E8.72953
G1 X46.373 Y37.254 E8.75705
G1 X46.889 Y37.05 E8.78473
G1 X47.365 Y36.764 E8.81244
G1 X47.775 Y36.415 E8.8393
G1 X48.202 Y35.949 E8.87083
G1 X48.501 Y35.484 E8.89841
G1 X48.721 Y34.975 E8.92608
G1 X48.856 Y34.436 E8.9538
G1 X48.9 Y33.899 E8.98068
G1 X48.9 Y-33.896 E12.36298
G1 X48.871 Y-34.334 E12.38488
G1 X48.754 Y-34.873 E12.4124
G1 X48.55 Y-35.389 E12.44008
G1 X48.264 Y-35.865 E12.46779
G1 X47.915 Y-36.275 E12.49465
G1 X47.449 Y-36.702 E12.52618
G1 X46.984 Y-37.001 E12.55376
G1 X46.475 Y-37.221 E12.58143
G1 X45.936 Y-37.356 E12.60915
G1 X45.399 Y-37.4 E12.63603
G1 X-45.396 Y-37.4 E17.16581
G0 F3600 X-45.383 Y-37
G1 F2400 X45.383 Y-37 E21.69415
G1 X45.871 Y-36.96 E21.71857
G1 X46.346 Y-36.841 E21.743
G1 X46.795 Y-36.647 E21.76741
G1 X47.207 Y-36.382 E21.79185
G1 X47.621 Y-36.004 E21.81982
G1 X47.938 Y-35.631 E21.84424
G1 X48.19 Y-35.211 E21.86867
G1 X48.37 Y-34.756 E21.89308
G1 X48.474 Y-34.278 E21.91749
G1 X48.5 Y-33.883 E21.93724
G1 X48.5 Y33.883 E25.3181
G1 X48.46 Y34.371 E25.34253
G1 X48.341 Y34.846 E25.36696
G1 X48.147 Y35.295 E25.39136
G1 X47.882 Y35.707 E25.4158
G1 X47.504 Y36.121 E25.44377
G1 X47.131 Y36.438 E25.46819
G1 X46.711 Y36.69 E25.49263
G1 X46.256 Y36.87 E25.51704
G1 X45.778 Y36.974 E25.54144
G1 X45.383 Y37 E25.56119
G1 X-45.383 Y37 E30.08953
G1 X-45.871 Y36.96 E30.11395
G1 X-46.346 Y36.841 E30.13838
G1 X-46.795 Y36.647 E30.16279
G1 X-47.207 Y36.382 E30.18723
G1 X-47.621 Y36.004 E30.2152
G1 X-47.938 Y35.631 E30.23962
G1 X-48.19 Y35.211 E30.26405
G1 X-48.37 Y34.756 E30.28846
G1 X-48.474 Y34.278 E30.31287
G1 X-48.5 Y33.883 E30.33262
G1 X-48.5 Y-33.883 E33.71348
G1 X-48.46 Y-34.371 E33.73791
G1 X-48.341 Y-34.846 E33.76234
G1 X-48.147 Y-35.295 E33.78674
G1 X-47.882 Y-35.707 E33.81118
G1 X-47.504 Y-36.121 E33.83915
G1 X-47.131 Y-36.438 E33.86357
G1 X-46.711 Y-36.69 E33.88801
G1 X-46.256 Y-36.87 E33.91242
G1 X-45.778 Y-36.974 E33.93682
G1 X-45.383 Y-37 E33.95657
G0 F3600 X-45.383 Y-36.6
G1 F2400 X45.383 Y-36.6 E38.48491
G1 X45.837 Y-36.56 E38.50764
G1 X46.277 Y-36.442 E38.53037
G1 X46.689 Y-36.248 E38.55309
G1 X47.221 Y-35.838 E38.5866
G1 X47.631 Y-35.372 E38.61757
G1 X47.858 Y-34.977 E38.6403
G1 X48.013 Y-34.549 E38.66301
G1 X48.1 Y-33.883 E38.69651
G1 X48.1 Y33.883 E42.07737
G1 X48.06 Y34.337 E42.10011
G1 X47.942 Y34.777 E42.12284
G1 X47.748 Y35.189 E42.14556
G1 X47.338 Y35.721 E42.17907
G1 X46.872 Y36.131 E42.21003
G1 X46.477 Y36.358 E42.23276
G1 X46.049 Y36.513 E42.25547
G1 X45.383 Y36.6 E42.28898
G1 X-45.383 Y36.6 E46.81732
G1 X-45.837 Y36.56 E46.84005
G1 X-46.277 Y36.442 E46.86278
G1 X-46.689 Y36.248 E46.8855
G1 X-47.221 Y35.838 E46.91901
G1 X-47.631 Y35.372 E46.94998
G1 X-47.858 Y34.977 E46.97271
G1 X-48.013 Y34.549 E46.99542
G1 X-48.1 Y33.883 E47.02893
G1 X-48.1 Y-33.883 E50.40979
G1 X-48.06 Y-34.337 E50.43252
G1 X-47.942 Y-34.777 E50.45525
G1 X-47.748 Y-35.189 E50.47797
G1 X-47.338 Y-35.721 E50.51148
G1 X-46.872 Y-36.131 E50.54245
G1 X-46.477 Y-36.358 E50.56517
G1 X-46.049 Y-36.513 E50.58788
G1 X-45.383 Y-36.6 E50.62139
G0 F3600 X-45.383 Y-36.2
G1 F2400 X45.383 Y-36.2 E55.14973
G1 X45.8 Y-36.16 E55.17063
G1 X46.202 Y-36.042 E55.19153
G1 X46.574 Y-35.849 E55.21244
G1 X47.056 Y-35.439 E55.24401
G1 X47.322 Y-35.115 E55.26492
G1 X47.523 Y-34.748 E55.2858
G1 X47.65 Y-34.348 E55.30674
G1 X47.7 Y-33.883 E55.33007
G1 X47.7 Y33.883 E58.71093
G1 X47.66 Y34.3 E58.73183
G1 X47.542 Y34.702 E58.75273
G1 X47.349 Y35.074 E58.77364
G1 X46.939 Y35.556 E58.80521
G1 X46.615 Y35.822 E58.82612
G1 X46.248 Y36.023 E58.847
G1 X45.848 Y36.15 E58.86794
G1 X45.383 Y36.2 E58.89127
G1 X-45.383 Y36.2 E63.4196
G1 X-45.8 Y36.16 E63.4405
G1 X-46.202 Y36.042 E63.4614
G1 X-46.574 Y35.849 E63.48231
G1 X-47.056 Y35.439 E63.51388
G1 X-47.322 Y35.115 E63.5348
G1 X-47.523 Y34.748 E63.55567
G1 X-47.65 Y34.348 E63.57661
G1 X-47.7 Y33.883 E63.59994
G1 X-47.7 Y-33.883 E66.9808
G1 X-47.66 Y-34.3 E67.0017
G1 X-47.542 Y-34.702 E67.0226
G1 X-47.349 Y-35.074 E67.04351
G1 X-46.939 Y-35.556 E67.07508
G1 X-46.615 Y-35.822 E67.096
G1 X-46.248 Y-36.023 E67.11687
G1 X-45.848 Y-36.15 E67.13781
G1 X-45.383 Y-36.2 E67.16114
G0 F3600 X-45.383 Y-35.8
G1 F2400 X45.383 Y-35.8 E71.68948
G1 X45.76 Y-35.76 E71.70839
G1 X46.12 Y-35.642 E71.72729
G1 X46.447 Y-35.452 E71.74616
G1 X46.773 Y-35.156 E71.76813
G1 X47.011 Y-34.861 E71.78704
G1 X47.182 Y-34.523 E71.80594
G1 X47.279 Y-34.157 E71.82483
G1 X47.3 Y-33.883 E71.83854
G1 X47.3 Y33.883 E75.2194
G1 X47.26 Y34.26 E75.23831
G1 X47.142 Y34.62 E75.25721
G1 X46.952 Y34.947 E75.27608
G1 X46.656 Y35.273 E75.29805
G1 X46.361 Y35.511 E75.31696
G1 X46.023 Y35.682 E75.33586
G1 X45.657 Y35.779 E75.35475
G1 X45.383 Y35.8 E75.36846
G1 X-45.383 Y35.8 E79.89679
G1 X-45.76 Y35.76 E79.9157
G1 X-46.12 Y35.642 E79.93461
G1 X-46.447 Y35.452 E79.95347
G1 X-46.773 Y35.156 E79.97544
G1 X-47.011 Y34.861 E79.99435
G1 X-47.182 Y34.523 E80.01325
G1 X-47.279 Y34.157 E80.03214
G1 X-47.3 Y33.883 E80.04585
G1 X-47.3 Y-33.883 E83.42671
G1 X-47.26 Y-34.26 E83.44562
G1 X-47.142 Y-34.62 E83.46452
G1 X-46.952 Y-34.947 E83.48339
G1 X-46.656 Y-35.273 E83.50536
G1 X-46.361 Y-35.511 E83.52427
G1 X-46.023 Y-35.682 E83.54317
G1 X-45.657 Y-35.779 E83.56206
G1 X-45.383 Y-35.8 E83.57577
G0 F3600 X-45.383 Y-35.4
G1 F2400 X45.383 Y-35.4 E88.1041
G1 X45.715 Y-35.36 E88.12079
G1 X46.027 Y-35.243 E88.13741
G1 X46.49 Y-34.873 E88.16698
G1 X46.696 Y-34.61 E88.18365
G1 X46.835 Y-34.306 E88.20032
G1 X46.9 Y-33.883 E88.22168
G1 X46.9 Y33.883 E91.60253
G1 X46.86 Y34.215 E91.61922
G1 X46.743 Y34.527 E91.63584
G1 X46.373 Y34.99 E91.66541
G1 X46.11 Y35.196 E91.68208
G1 X45.806 Y35.335 E91.69875
G1 X45.383 Y35.4 E91.72011
G1 X-45.383 Y35.4 E96.24844
G1 X-45.715 Y35.36 E96.26512
G1 X-46.027 Y35.243 E96.28175
G1 X-46.49 Y34.873 E96.31132
G1 X-46.696 Y34.61 E96.32798
G1 X-46.835 Y34.306 E96.34466
G1 X-46.9 Y33.883 E96.36601
G1 X-46.9 Y-33.883 E99.74687
G1 X-46.86 Y-34.215 E99.76355
G1 X-46.743 Y-34.527 E99.78018
G1 X-46.373 Y-34.99 E99.80975
G1 X-46.11 Y-35.196 E99.82641
G1 X-45.806 Y-35.335 E99.84309
G1 X-45.383 Y-35.4 E99.86444
G0 F3600 X-45.383 Y-35
G1 F2400 X45.383 Y-35 E104.39278
G1 X45.662 Y-34.96 E104.40684
G1 X45.919 Y-34.844 E104.42091
G1 X46.207 Y-34.59 E104.44006
G1 X46.376 Y-34.364 E104.45414
G1 X46.476 Y-34.1 E104.46823
G1 X46.5 Y-33.883 E104.47912
G1 X46.5 Y33.883 E107.85998
G1 X46.46 Y34.162 E107.87404
G1 X46.344 Y34.419 E107.88811
G1 X46.09 Y34.707 E107.90727
G1 X45.864 Y34.876 E107.92135
G1 X45.6 Y34.976 E107.93543
G1 X45.383 Y35 E107.94632
G1 X-45.383 Y35 E112.47466
G1 X-45.662 Y34.96 E112.48872
G1 X-45.919 Y34.844 E112.50278
G1 X-46.207 Y34.59 E112.52194
G1 X-46.376 Y34.364 E112.53602
G1 X-46.476 Y34.1 E112.55011
G1 X-46.5 Y33.883 E112.561
G1 X-46.5 Y-33.883 E115.94186
G1 X-46.46 Y-34.162 E115.95592
G1 X-46.344 Y-34.419 E115.96999
G1 X-46.09 Y-34.707 E115.98915
G1 X-45.864 Y-34.876 E116.00322
G1 X-45.6 Y-34.976 E116.01731
G1 X-45.383 Y-35 E116.0282
G0 F3600 X-45.383 Y-34.6
G1 F2400 X45.383 Y-34.6 E120.55653
G1 X45.598 Y-34.56 E120.56745
G1 X45.924 Y-34.307 E120.58803
G1 X46.048 Y-34.128 E120.5989
G1 X46.1 Y-33.883 E120.61139
G1 X46.1 Y33.883 E123.99225
G1 X46.06 Y34.098 E124.00316
G1 X45.807 Y34.424 E124.02375
G1 X45.628 Y34.548 E124.03461
G1 X45.383 Y34.6 E124.04711
G1 X-45.383 Y34.6 E128.57544
G1 X-45.598 Y34.56 E128.58635
G1 X-45.924 Y34.307 E128.60694
G1 X-46.048 Y34.128 E128.6178
G1 X-46.1 Y33.883 E128.6303
G1 X-46.1 Y-33.883 E132.01116
G1 X-46.06 Y-34.098 E132.02207
G1 X-45.807 Y-34.424 E132.04266
G1 X-45.628 Y-34.548 E132.05352
G1 X-45.383 Y-34.6 E132.06602
G0 F3600 X-45.383 Y-34.2
G1 F2400 X45.383 Y-34.2 E136.59435
G1 X45.524 Y-34.141 E136.60198
G1 X45.641 Y-34.024 E136.61023
G1 X45.7 Y-33.883 E136.61786
G1 X45.7 Y33.883 E139.99872
G1 X45.641 Y34.024 E140.00634
G1 X45.524 Y34.141 E140.0146
G1 X45.383 Y34.2 E140.02222
G1 X-45.383 Y34.2 E144.55056
G1 X-45.524 Y34.141 E144.55818
G1 X-45.641 Y34.024 E144.56644
G1 X-45.7 Y33.883 E144.57406
G1 X-45.7 Y-33.883 E147.95492
G1 X-45.641 Y-34.024 E147.96255
G1 X-45.524 Y-34.141 E147.9708
G1 X-45.383 Y-34.2 E147.97843
G1 F1500 E141.47843
G1 F600 Z1.3
G0 F3600 X-45.612 Y-37.984 Z1.3
G1 F600 Z0.3
G1 F1500 E148.22788
G1 F2400 X-44.865 Y-38 E148.26516
G1 X44.732 Y-38 E152.73517
G1 X45.466 Y-37.99 E152.77179
G1 X46.061 Y-37.932 E152.80162
G1 X46.604 Y-37.799 E152.82951
G1 X47.132 Y-37.587 E152.85789
G1 X47.588 Y-37.326 E152.88411
G1 X48.048 Y-36.969 E152.91316
G1 X48.464 Y-36.554 E152.94247
G1 X48.826 Y-36.087 E152.97195
G1 X49.099 Y-35.606 E152.99954
G1 X49.303 Y-35.092 E153.02713
G1 X49.435 Y-34.544 E153.05525
G1 X49.495 Y-33.812 E153.0919
G1 X49.5 Y-33.365 E153.1142
G1 X49.5 Y33.226 E156.43644
G1 X49.49 Y33.952 E156.47266
G1 X49.432 Y34.561 E156.50318
G1 X49.299 Y35.104 E156.53107
G1 X49.087 Y35.632 E156.55946
G1 X48.831 Y36.081 E156.58525
G1 X48.469 Y36.548 E156.61472
G1 X48.061 Y36.958 E156.64358
G1 X47.584 Y37.328 E156.6737
G1 X47.106 Y37.599 E156.70111
G1 X46.592 Y37.803 E156.7287
G1 X46.044 Y37.935 E156.75682
G1 X45.295 Y37.995 E156.79431
G1 X44.865 Y38 E156.81577
G1 X-44.732 Y38 E161.28578
G1 X-45.466 Y37.99 E161.3224
G1 X-46.061 Y37.932 E161.35223
G1 X-46.604 Y37.799 E161.38012
G1 X-47.132 Y37.587 E161.4085
G1 X-47.588 Y37.326 E161.43472
G1 X-47.991 Y37.02 E161.45996
G1 X-48.396 Y36.629 E161.48805
G1 X-48.756 Y36.189 E161.51641
G1 X-49.051 Y35.703 E161.54477
G1 X-49.276 Y35.174 E161.57345
G1 X-49.422 Y34.617 E161.60218
G1 X-49.484 Y34.112 E161.62756
G1 X-49.5 Y33.357 E161.66524
G1 X-49.5 Y-33.232 E164.98738
G1 X-49.49 Y-33.966 E165.024
G1 X-49.432 Y-34.561 E165.05383
G1 X-49.299 Y-35.104 E165.08172
G1 X-49.087 Y-35.632 E165.1101
G1 X-48.826 Y-36.088 E165.13632
G1 X-48.519 Y-36.492 E165.16163
G1 X-48.129 Y-36.896 E165.18965
G1 X-47.707 Y-37.244 E165.21694
G1 X-47.203 Y-37.551 E165.24638
G1 X-46.674 Y-37.776 E165.27506
G1 X-46.136 Y-37.918 E165.30282
G1 X-45.612 Y-37.984 E165.32917
G1 F1500 E158.82917
G1 F600 Z1.3
;MESH:Rasp35inch_Deckel_v2.3mf
G0 F3600 X-45.3 Y33.8 Z1.3
;TYPE:WALL-OUTER
G1 F600 Z0.3
G1 F1500 E165.57862
G1 F2400 X-45.3 Y-33.8 E168.9512
G1 X45.3 Y-33.8 E173.47125
G1 X45.3 Y33.8 E176.84383
G1 X-45.3 Y33.8 E181.36388
G0 F3600 X-45.3 Y33.6
G0 X-44.9 Y33.4
;TYPE:WALL-INNER
G1 F2400 X-44.9 Y-33.4 E184.69654
G1 X44.9 Y-33.4 E189.17668
G1 X44.9 Y33.4 E192.50935
G1 X-44.9 Y33.4 E196.98949
G0 F3600 X-44.5 Y33
G1 F2400 X-44.5 Y-33 E200.28224
G1 X44.5 Y-33 E204.72247
G1 X44.5 Y33 E208.01522
G1 X-44.5 Y33 E212.45545
G0 F3600 X-44.11 Y32.61
;TYPE:SKIN
G1 F2400 X-44.11 Y-32.61 E215.70929
G1 X44.11 Y-32.61 E220.11061
G1 X44.11 Y32.61 E223.36444
G1 X-44.11 Y32.61 E227.76576
G0 F3600 X-43.929 Y31.872
G1 F2400 X-43.371 Y32.43 E227.80513
G0 F3600 X-42.806 Y32.43
G1 F2400 X-43.929 Y31.307 E227.88436
G0 F3600 X-43.929 Y30.741
G1 F2400 X-42.24 Y32.43 E228.00353
G0 F3600 X-41.674 Y32.43
G1 F2400 X-43.929 Y30.175 E228.16263
G0 F3600 X-43.929 Y29.61
G1 F2400 X-41.109 Y32.43 E228.3616
G0 F3600 X-40.543 Y32.43
G1 F2400 X-43.929 Y29.044 E228.6005
G0 F3600 X-43.929 Y28.478
G1 F2400 X-39.977 Y32.43 E228.87933
G0 F3600 X-39.412 Y32.43
G1 F2400 X-43.929 Y27.913 E229.19803
G0 F3600 X-43.929 Y27.347
G1 F2400 X-38.846 Y32.43 E229.55667
G0 F3600 X-38.28 Y32.43
G1 F2400 X-43.929 Y26.781 E229.95523
G0 F3600 X-43.929 Y26.215
G1 F2400 X-37.714 Y32.43 E230.39373
G0 F3600 X-37.149 Y32.43
G1 F2400 X-43.929 Y25.65 E230.8721
G0 F3600 X-43.929 Y25.084
G1 F2400 X-36.583 Y32.43 E231.3904
G0 F3600 X-36.017 Y32.43
G1 F2400 X-43.929 Y24.518 E231.94863
G0 F3600 X-43.929 Y23.953
G1 F2400 X-35.452 Y32.43 E232.54673
G0 F3600 X-34.886 Y32.43
G1 F2400 X-43.929 Y23.387 E233.18477
G0 F3600 X-43.929 Y22.821
G1 F2400 X-34.32 Y32.43 E233.86273
G0 F3600 X-33.755 Y32.43
G1 F2400 X-43.929 Y22.256 E234.58056
G0 F3600 X-43.929 Y21.69
G1 F2400 X-33.189 Y32.43 E235.33833
G0 F3600 X-32.623 Y32.43
G1 F2400 X-43.929 Y21.124 E236.13603
G0 F3600 X-43.929 Y20.559
G1 F2400 X-32.058 Y32.43 E236.97359
G0 F3600 X-31.492 Y32.43
G1 F2400 X-43.929 Y19.993 E237.85109
G0 F3600 X-43.929 Y19.427
G1 F2400 X-30.926 Y32.43 E238.76852
G0 F3600 X-30.361 Y32.43
G1 F2400 X-43.929 Y18.862 E239.72582
G0 F3600 X-43.929 Y18.296
G1 F2400 X-29.795 Y32.43 E240.72305
G0 F3600 X-29.229 Y32.43
G1 F2400 X-43.929 Y17.73 E241.76021
G0 F3600 X-43.929 Y17.165
G1 F2400 X-28.663 Y32.43 E242.83727
G0 F3600 X-28.098 Y32.43
G1 F2400 X-43.929 Y16.599 E243.95424
G0 F3600 X-43.929 Y16.033
G1 F2400 X-27.532 Y32.43 E245.11113
G0 F3600 X-26.966 Y32.43
G1 F2400 X-43.929 Y15.467 E246.30796
G0 F3600 X-43.929 Y14.902
G1 F2400 X-26.401 Y32.43 E247.54466
G0 F3600 X-25.835 Y32.43
G1 F2400 X-43.929 Y14.336 E248.82129
G0 F3600 X-43.929 Y13.77
G1 F2400 X-25.269 Y32.43 E250.13785
G0 F3600 X-24.704 Y32.43
G1 F2400 X-43.929 Y13.205 E251.49428
G0 F3600 X-43.929 Y12.639
G1 F2400 X-24.138 Y32.43 E252.89064
G0 F3600 X-23.572 Y32.43
G1 F2400 X-43.929 Y12.073 E254.32694
G0 F3600 X-43.929 Y11.508
G1 F2400 X-23.007 Y32.43 E255.8031
G0 F3600 X-22.441 Y32.43
G1 F2400 X-43.929 Y10.942 E257.31919
G0 F3600 X-43.929 Y10.376
G1 F2400 X-21.875 Y32.43 E258.87522
G0 F3600 X-21.31 Y32.43
G1 F2400 X-43.929 Y9.811 E260.47111
G0 F3600 X-43.929 Y9.245
G1 F2400 X-20.744 Y32.43 E262.10694
G0 F3600 X-20.178 Y32.43
G1 F2400 X-43.929 Y8.679 E263.7827
G0 F3600 X-43.929 Y8.114
G1 F2400 X-19.613 Y32.43 E265.49833
G0 F3600 X-19.047 Y32.43
G1 F2400 X-43.929 Y7.548 E267.25389
G0 F3600 X-43.929 Y6.982
G1 F2400 X-18.481 Y32.43 E269.04938
G0 F3600 X-17.915 Y32.43
G1 F2400 X-43.929 Y6.416 E270.88481
G0 F3600 X-43.929 Y5.851
G1 F2400 X-17.35 Y32.43 E272.7601
G0 F3600 X-16.784 Y32.43
G1 F2400 X-43.929 Y5.285 E274.67533
G0 F3600 X-43.929 Y4.719
G1 F2400 X-16.218 Y32.43 E276.63049
G0 F3600 X-15.653 Y32.43
G1 F2400 X-43.929 Y4.154 E278.62551
G0 F3600 X-43.929 Y3.588
G1 F2400 X-15.087 Y32.43 E280.66047
G0 F3600 X-14.521 Y32.43
G1 F2400 X-43.929 Y3.022 E282.73536
G0 F3600 X-43.929 Y2.457
G1 F2400 X-13.956 Y32.43 E284.85012
G0 F3600 X-13.39 Y32.43
G1 F2400 X-43.929 Y1.891 E287.00481
G0 F3600 X-43.929 Y1.325
G1 F2400 X-12.824 Y32.43 E289.19944
G0 F3600 X-12.259 Y32.43
