;FLAVOR:Marlin
;TIME:7296
;Filament used: 4.84553m
;Layer height: 0.1
;MINX:-59.8
;MINY:-62.3
;MINZ:0.3
;MAXX:59.8
;MAXY:62.3
;MAXZ:5
;TARGET_MACHINE.NAME:Unknown
;Generated with Cura_SteamEngine 5.10.1
M140 S50
M105
M190 S50
M104 S220
M105
M109 S220
;FLAVOR:Marlin
M82 ;absolute extrusion mode
G21
G90
M82
M107 T0
G28
G92 E0
G0 E3 F200
G92 E0 ; reset extrusion distance
M106 S255 ; Enable cooling fan full speed
G1 X-98 Y0 Z0.4 F3000 ; move to arc start
G3 X0 Y-98 I98 Z0.4 E40 F400 ; lay arc stripe 90deg
G92 E0 ; reset extrusion distance
G4 P500 ; wait for 0.5 sec
G0 Z10 E-1 ; Lift 15mm and retract 1mm filament
G4 P2000 ; wait for 5 sec
G0 Z15
M107 ; Disable cooling fan
G1 X0 Y-85 Z4 E0 F3000 ; get off the bed
M82 ;absolute extrusion mode
G92 E0
G92 E0
G1 F1500 E-6.5
;LAYER_COUNT:48
;LAYER:0
M107
G0 F3600 X-59.8 Y-48.313 Z0.3
;TYPE:SKIRT
G1 F1500 E0
G1 F1800 X-59.32 Y-50.429 E0.12449
G1 X-58.813 Y-51.396 E0.18713
G1 X-57.675 Y-52.956 E0.29792
G1 X-55.215 Y-55.524 E0.50195
G1 X-52.345 Y-58.227 E0.72814
G1 X-48.985 Y-61.115 E0.98234
G1 X-46.741 Y-62.058 E1.12199
G1 X-45.583 Y-62.25 E1.18934
G1 X45.402 Y-62.3 E6.40949
G1 X47.576 Y-61.832 E6.53708
G1 X47.993 Y-61.655 E6.56307
G1 X49.754 Y-60.466 E6.68498
G1 X52.531 Y-58.064 E6.89564
G1 X55.274 Y-55.458 E7.11271
G1 X58.133 Y-52.483 E7.34944
G1 X59.402 Y-50.372 E7.49076
G1 X59.71 Y-48.67 E7.58999
G1 X59.8 Y48.313 E13.15427
G1 X59.32 Y50.429 E13.27876
G1 X58.813 Y51.396 E13.3414
G1 X57.675 Y52.956 E13.45219
G1 X55.215 Y55.524 E13.65622
G1 X52.345 Y58.227 E13.88241
G1 X48.998 Y61.102 E14.13556
G1 X46.728 Y62.069 E14.27712
G1 X45.409 Y62.264 E14.35362
G1 X-45.402 Y62.3 E19.56379
G1 X-47.576 Y61.832 E19.69138
G1 X-47.993 Y61.655 E19.71737
G1 X-49.754 Y60.466 E19.83928
G1 X-52.531 Y58.064 E20.04994
G1 X-55.274 Y55.458 E20.26701
G1 X-58.133 Y52.483 E20.50374
G1 X-59.402 Y50.372 E20.64506
G1 X-59.71 Y48.67 E20.74429
G1 X-59.8 Y-48.313 E26.30857
G0 F3600 X-59.4 Y-48.268
G1 F1800 X-58.941 Y-50.29 E26.42753
G1 X-58.49 Y-51.161 E26.48381
G1 X-57.386 Y-52.679 E26.5915
G1 X-54.926 Y-55.247 E26.79553
G1 X-52.084 Y-57.924 E27.01953
G1 X-48.773 Y-60.77 E27.27003
G1 X-46.63 Y-61.67 E27.40338
G1 X-45.517 Y-61.855 E27.46811
G1 X45.36 Y-61.9 E32.68207
G1 X47.492 Y-61.441 E32.80719
G1 X47.77 Y-61.323 E32.82452
G1 X49.492 Y-60.163 E32.94364
G1 X52.255 Y-57.774 E33.1532
G1 X54.998 Y-55.168 E33.37028
G1 X57.812 Y-52.24 E33.60328
G1 X59.021 Y-50.229 E33.7379
G1 X59.316 Y-48.599 E33.83294
G1 X59.4 Y48.268 E39.39056
G1 X58.941 Y50.29 E39.50952
G1 X58.49 Y51.161 E39.5658
G1 X57.386 Y52.679 E39.67349
G1 X54.926 Y55.247 E39.87752
G1 X52.084 Y57.924 E40.10152
G1 X48.785 Y60.758 E40.35105
G1 X46.62 Y61.68 E40.48606
G1 X45.35 Y61.868 E40.55971
G1 X-45.36 Y61.9 E45.76409
G1 X-47.492 Y61.441 E45.88921
G1 X-47.77 Y61.323 E45.90654
G1 X-49.492 Y60.163 E46.02566
G1 X-52.255 Y57.774 E46.23522
G1 X-54.998 Y55.168 E46.4523
G1 X-57.812 Y52.24 E46.68529
G1 X-59.021 Y50.229 E46.81992
G1 X-59.316 Y48.599 E46.91496
G1 X-59.4 Y-48.268 E52.47258
G0 F3600 X-59 Y-48.223
G1 F1800 X-58.562 Y-50.152 E52.58607
G1 X-58.166 Y-50.926 E52.63595
G1 X-57.097 Y-52.402 E52.74052
G1 X-54.637 Y-54.97 E52.94454
G1 X-51.823 Y-57.621 E53.16635
G1 X-48.561 Y-60.425 E53.41315
G1 X-46.519 Y-61.283 E53.54023
G1 X-45.452 Y-61.46 E53.60228
G1 X45.318 Y-61.5 E58.8101
G1 X47.408 Y-61.05 E58.93276
G1 X47.547 Y-60.991 E58.94142
G1 X49.23 Y-59.86 E59.05776
G1 X51.979 Y-57.484 E59.26623
G1 X54.722 Y-54.878 E59.4833
G1 X57.491 Y-51.997 E59.71256
G1 X58.64 Y-50.086 E59.8405
G1 X58.922 Y-48.528 E59.93134
G1 X59 Y48.223 E65.48231
G1 X58.562 Y50.152 E65.5958
G1 X58.166 Y50.926 E65.64568
G1 X57.097 Y52.402 E65.75024
G1 X54.637 Y54.97 E65.95427
G1 X51.823 Y57.621 E66.17608
G1 X48.572 Y60.414 E66.42198
G1 X46.511 Y61.292 E66.55051
G1 X45.292 Y61.472 E66.62121
G1 X-45.318 Y61.5 E71.81984
G1 X-47.408 Y61.05 E71.9425
G1 X-47.547 Y60.991 E71.95117
G1 X-49.23 Y59.86 E72.06751
G1 X-51.979 Y57.484 E72.27597
G1 X-54.722 Y54.878 E72.49305
G1 X-57.491 Y51.997 E72.72231
G1 X-58.64 Y50.086 E72.85025
G1 X-58.922 Y48.528 E72.94109
G1 X-59 Y-48.223 E78.49205
G0 F3600 X-58.6 Y-48.178
G1 F1800 X-58.183 Y-50.015 E78.60013
G1 X-57.842 Y-50.692 E78.64362
G1 X-56.808 Y-52.125 E78.74501
G1 X-54.348 Y-54.693 E78.94904
G1 X-51.562 Y-57.318 E79.16865
G1 X-48.349 Y-60.08 E79.41175
G1 X-46.408 Y-60.895 E79.53253
G1 X-45.386 Y-61.065 E79.59197
G1 X45.276 Y-61.1 E84.79359
G1 X47.324 Y-60.659 E84.91378
G1 X48.968 Y-59.557 E85.02733
G1 X51.703 Y-57.194 E85.23471
G1 X54.446 Y-54.588 E85.45178
G1 X57.17 Y-51.754 E85.67731
G1 X58.259 Y-49.943 E85.79855
G1 X58.528 Y-48.457 E85.8852
G1 X58.6 Y48.178 E91.42951
G1 X58.183 Y50.015 E91.53759
G1 X57.842 Y50.692 E91.58108
G1 X56.808 Y52.125 E91.68246
G1 X54.348 Y54.693 E91.88649
G1 X51.562 Y57.318 E92.10611
G1 X48.359 Y60.07 E92.34839
G1 X46.403 Y60.903 E92.47037
G1 X45.233 Y61.076 E92.53823
G1 X-45.276 Y61.1 E97.73107
G1 X-47.324 Y60.659 E97.85126
G1 X-48.968 Y59.557 E97.96481
G1 X-51.703 Y57.194 E98.17218
G1 X-54.446 Y54.588 E98.38926
G1 X-57.17 Y51.754 E98.61479
G1 X-58.259 Y49.943 E98.73603
G1 X-58.528 Y48.457 E98.82268
G1 X-58.6 Y-48.178 E104.36699
G0 F3600 X-58.2 Y-48.133
G1 F1800 X-57.804 Y-49.878 E104.46965
G1 X-57.517 Y-50.459 E104.50683
G1 X-56.519 Y-51.848 E104.60496
G1 X-54.059 Y-54.416 E104.80899
G1 X-51.301 Y-57.015 E105.02642
G1 X-48.137 Y-59.735 E105.2658
G1 X-46.297 Y-60.508 E105.38031
G1 X-45.321 Y-60.67 E105.43707
G1 X45.234 Y-60.7 E110.63255
G1 X47.166 Y-60.284 E110.74594
G1 X48.706 Y-59.254 E110.85223
G1 X51.441 Y-56.891 E111.05961
G1 X54.158 Y-54.311 E111.27457
G1 X56.849 Y-51.511 E111.49738
G1 X57.878 Y-49.8 E111.61194
G1 X58.134 Y-48.386 E111.69438
G1 X58.2 Y48.133 E117.23204
G1 X57.804 Y49.878 E117.3347
G1 X57.517 Y50.459 E117.37188
G1 X56.519 Y51.848 E117.47001
G1 X54.059 Y54.416 E117.67404
G1 X51.301 Y57.015 E117.89146
G1 X48.146 Y59.726 E118.13013
G1 X46.295 Y60.514 E118.24555
G1 X45.174 Y60.68 E118.31056
G1 X-45.234 Y60.7 E123.49761
G1 X-47.166 Y60.284 E123.611
G1 X-48.706 Y59.254 E123.71729
G1 X-51.441 Y56.891 E123.92466
G1 X-54.158 Y54.311 E124.13963
G1 X-56.849 Y51.511 E124.36244
G1 X-57.878 Y49.8 E124.47699
G1 X-58.134 Y48.386 E124.55944
G1 X-58.2 Y-48.133 E130.0971
G0 F3600 X-57.8 Y-48.089
G1 F1800 X-57.425 Y-49.743 E130.1944
G1 X-57.192 Y-50.226 E130.22517
G1 X-56.23 Y-51.571 E130.32004
G1 X-53.77 Y-54.139 E130.52407
G1 X-51.04 Y-56.712 E130.73931
G1 X-47.925 Y-59.39 E130.97499
G1 X-46.186 Y-60.121 E131.08322
G1 X-45.256 Y-60.275 E131.13731
G1 X45.192 Y-60.3 E136.32665
G1 X47.006 Y-59.909 E136.43311
G1 X48.444 Y-58.951 E136.53225
G1 X51.179 Y-56.588 E136.73962
G1 X53.87 Y-54.034 E136.95248
G1 X56.528 Y-51.268 E137.17257
G1 X57.497 Y-49.657 E137.28043
G1 X57.74 Y-48.315 E137.35868
G1 X57.8 Y48.089 E142.88974
G1 X57.425 Y49.743 E142.98704
G1 X57.192 Y50.226 E143.01781
G1 X56.23 Y51.571 E143.11268
G1 X53.77 Y54.139 E143.31671
G1 X51.04 Y56.712 E143.53195
G1 X47.933 Y59.382 E143.76699
G1 X46.186 Y60.126 E143.87593
G1 X45.116 Y60.284 E143.93798
G1 X-45.192 Y60.3 E149.11929
G1 X-47.006 Y59.909 E149.22576
G1 X-48.444 Y58.951 E149.32489
G1 X-51.179 Y56.588 E149.53227
G1 X-53.87 Y54.034 E149.74512
G1 X-56.528 Y51.268 E149.96522
G1 X-57.497 Y49.657 E150.07308
G1 X-57.74 Y48.315 E150.15132
G1 X-57.8 Y-48.089 E155.68238
G0 F3600 X-57.4 Y-48.045
G1 F1800 X-57.046 Y-49.608 E155.77433
G1 X-56.866 Y-49.994 E155.79876
G1 X-55.941 Y-51.294 E155.8903
G1 X-53.481 Y-53.862 E156.09433
G1 X-50.779 Y-56.409 E156.30738
G1 X-47.713 Y-59.045 E156.53936
G1 X-46.075 Y-59.733 E156.64129
G1 X-45.19 Y-59.88 E156.69276
G1 X45.15 Y-59.9 E161.87591
G1 X46.848 Y-59.534 E161.97556
G1 X48.182 Y-58.648 E162.06744
G1 X50.917 Y-56.285 E162.27482
G1 X53.582 Y-53.757 E162.48557
G1 X56.207 Y-51.025 E162.70294
G1 X57.116 Y-49.514 E162.80411
G1 X57.346 Y-48.244 E162.87816
G1 X57.4 Y48.045 E168.40262
G1 X57.046 Y49.608 E168.49457
G1 X56.866 Y49.994 E168.519
G1 X55.941 Y51.294 E168.61054
G1 X53.481 Y53.862 E168.81457
G1 X50.779 Y56.409 E169.02761
G1 X47.72 Y59.038 E169.25903
G1 X46.078 Y59.737 E169.36142
G1 X45.057 Y59.888 E169.42063
G1 X-45.15 Y59.9 E174.59615
G1 X-46.848 Y59.534 E174.6958
G1 X-48.182 Y58.648 E174.78768
G1 X-50.917 Y56.285 E174.99506
G1 X-53.582 Y53.757 E175.20581
G1 X-56.207 Y51.025 E175.42318
G1 X-57.116 Y49.514 E175.52435
G1 X-57.346 Y48.244 E175.5984
G1 X-57.4 Y-48.045 E181.12286
G0 F3600 X-57 Y-48.001
G1 F1800 X-56.665 Y-49.48 E181.20986
G1 X-56.54 Y-49.763 E181.22761
G1 X-55.652 Y-51.017 E181.31577
G1 X-53.192 Y-53.585 E181.5198
G1 X-50.518 Y-56.106 E181.73065
G1 X-47.501 Y-58.7 E181.95893
G1 X-45.964 Y-59.346 E182.05459
G1 X-45.125 Y-59.485 E182.10338
G1 X45.108 Y-59.5 E187.28039
G1 X46.688 Y-59.159 E187.37312
G1 X47.92 Y-58.345 E187.45784
G1 X50.655 Y-55.982 E187.66522
G1 X53.294 Y-53.48 E187.87386
G1 X55.886 Y-50.782 E188.08851
G1 X56.735 Y-49.371 E188.18299
G1 X56.952 Y-48.173 E188.25284
G1 X57 Y48.001 E193.7707
G1 X56.665 Y49.48 E193.85771
G1 X56.54 Y49.763 E193.87546
G1 X55.652 Y51.017 E193.96362
G1 X53.192 Y53.585 E194.16765
G1 X50.518 Y56.106 E194.3785
G1 X47.507 Y58.694 E194.60629
G1 X45.97 Y59.348 E194.70213
G1 X44.998 Y59.492 E194.7585
G1 X-45.108 Y59.5 E199.92822
G1 X-46.688 Y59.159 E200.02096
G1 X-47.92 Y58.345 E200.10568
G1 X-50.655 Y55.982 E200.31305
G1 X-53.294 Y53.48 E200.52169
G1 X-55.886 Y50.782 E200.73635
G1 X-56.735 Y49.371 E200.83083
G1 X-56.952 Y48.173 E200.90068
G1 X-57 Y-48.001 E206.41854
G0 F3600 X-56.6 Y-47.957
G1 F1800 X-56.275 Y-49.392 E206.50296
G1 X-56.213 Y-49.533 E206.51179
G1 X-55.363 Y-50.74 E206.59649
G1 X-52.903 Y-53.308 E206.80052
G1 X-50.257 Y-55.803 E207.00918
G1 X-47.289 Y-58.355 E207.23376
G1 X-45.853 Y-58.958 E207.32312
G1 X-45.059 Y-59.09 E207.3693
G1 X45.066 Y-59.1 E212.5401
G1 X46.53 Y-58.784 E212.62603
G1 X47.658 Y-58.042 E212.7035
G1 X50.393 Y-55.679 E212.91087
G1 X53.006 Y-53.203 E213.1174
G1 X55.565 Y-50.539 E213.32934
G1 X56.354 Y-49.228 E213.41713
G1 X56.558 Y-48.102 E213.48278
G1 X56.6 Y47.957 E218.99404
G1 X56.275 Y49.392 E219.07846
G1 X56.213 Y49.533 E219.0873
G1 X55.363 Y50.74 E219.172
G1 X52.903 Y53.308 E219.37603
G1 X50.257 Y55.803 E219.58468
G1 X47.294 Y58.35 E219.80886
G1 X45.861 Y58.96 E219.89821
G1 X44.94 Y59.096 E219.95163
G1 X-45.066 Y59.1 E225.11561
G1 X-46.53 Y58.784 E225.20154
G1 X-47.658 Y58.042 E225.279
G1 X-50.393 Y55.679 E225.48637
G1 X-53.006 Y53.203 E225.69291
G1 X-55.565 Y50.539 E225.90484
G1 X-56.354 Y49.228 E225.99263
G1 X-56.558 Y48.102 E226.05828
G1 X-56.6 Y-47.957 E231.56955
G0 F3600 X-56.2 Y-47.913
G1 F1800 X-56.164 Y48.031 E237.07421
G1 X-55.973 Y49.085 E237.13567
G1 X-55.244 Y50.296 E237.21677
G1 X-52.718 Y52.926 E237.42599
G1 X-50.131 Y55.376 E237.63041
G1 X-47.396 Y57.739 E237.83778
G1 X-46.372 Y58.409 E237.90799
G1 X-45.024 Y58.7 E237.98711
G1 X44.881 Y58.7 E243.1453
G1 X45.753 Y58.571 E243.19587
G1 X47.081 Y58.006 E243.27867
G1 X49.996 Y55.5 E243.49923
G1 X52.614 Y53.031 E243.70569
G1 X55.074 Y50.463 E243.90972
G1 X55.885 Y49.304 E243.99088
G1 X56.2 Y47.913 E244.07271
G1 X56.164 Y-48.031 E249.57737
G1 X55.973 Y-49.085 E249.63883
G1 X55.244 Y-50.296 E249.71993
G1 X52.718 Y-52.926 E249.92914
G1 X50.131 Y-55.376 E250.13357
G1 X47.396 Y-57.739 E250.34094
G1 X46.372 Y-58.409 E250.41115
G1 X45.024 Y-58.7 E250.49027
G1 X-44.994 Y-58.695 E255.65494
G1 X-45.742 Y-58.571 E255.69844
G1 X-47.077 Y-58.01 E255.78152
G1 X-49.996 Y-55.5 E256.0024
G1 X-52.614 Y-53.031 E256.20886
G1 X-55.074 Y-50.463 E256.41289
G1 X-55.885 Y-49.304 E256.49405
G1 X-56.2 Y-47.913 E256.57588
G0 F3600 X-55.8 Y-47.869
G1 F1800 X-55.513 Y-49.138 E256.65053
G1 X-54.785 Y-50.186 E256.72374
G1 X-52.339 Y-52.74 E256.92663
G1 X-49.735 Y-55.197 E257.13204
G1 X-46.865 Y-57.665 E257.34921
G1 X-45.631 Y-58.183 E257.426
G1 X-44.928 Y-58.3 E257.46688
G1 X44.981 Y-58.3 E262.6253
G1 X46.216 Y-58.033 E262.69779
G1 X47.134 Y-57.436 E262.76062
G1 X49.869 Y-55.073 E262.96799
G1 X52.429 Y-52.649 E263.17027
G1 X54.925 Y-50.05 E263.37701
G1 X55.592 Y-48.942 E263.45121
G1 X55.77 Y-47.96 E263.50847
G1 X55.8 Y47.869 E269.00653
G1 X55.513 Y49.138 E269.08118
G1 X54.785 Y50.186 E269.15439
G1 X52.339 Y52.74 E269.35729
G1 X49.735 Y55.197 E269.56269
G1 X46.868 Y57.662 E269.77962
G1 X45.642 Y58.184 E269.85607
G1 X44.881 Y58.3 E269.90024
G1 X-44.981 Y58.3 E275.05596
G1 X-46.216 Y58.033 E275.12845
G1 X-47.134 Y57.436 E275.19128
G1 X-49.869 Y55.073 E275.39865
G1 X-52.429 Y52.649 E275.60092
G1 X-54.925 Y50.05 E275.80767
G1 X-55.592 Y48.942 E275.88187
G1 X-55.77 Y47.96 E275.93913
G1 X-55.8 Y-47.869 E281.43719
G0 F3600 X-55.4 Y-47.825
G1 F1800 X-55.14 Y-48.974 E281.50478
G1 X-54.496 Y-49.909 E281.56992
G1 X-52.064 Y-52.449 E281.77168
G1 X-49.474 Y-54.894 E281.97603
G1 X-46.653 Y-57.32 E282.1895
G1 X-45.518 Y-57.796 E282.26012
G1 X-44.928 Y-57.9 E282.29449
G1 X44.938 Y-57.9 E287.45044
G1 X46.06 Y-57.657 E287.5163
G1 X46.873 Y-57.133 E287.5718
G1 X49.594 Y-54.783 E287.77807
G1 X52.14 Y-52.372 E287.97925
G1 X54.606 Y-49.804 E288.18352
G1 X55.211 Y-48.799 E288.25082
G1 X55.376 Y-47.889 E288.30388
G1 X55.4 Y47.825 E293.79535
G1 X55.14 Y48.974 E293.86294
G1 X54.496 Y49.909 E293.92808
G1 X52.064 Y52.449 E294.12984
G1 X49.474 Y54.894 E294.33419
G1 X46.655 Y57.318 E294.5475
G1 X45.531 Y57.796 E294.61757
G1 X44.881 Y57.9 E294.65534
G1 X-44.938 Y57.9 E299.80859
G1 X-46.06 Y57.657 E299.87446
G1 X-46.873 Y57.133 E299.92995
G1 X-49.594 Y54.783 E300.13623
G1 X-52.14 Y52.372 E300.3374
G1 X-54.606 Y49.804 E300.54167
G1 X-55.211 Y48.799 E300.60898
G1 X-55.376 Y47.889 E300.66204
G1 X-55.4 Y-47.825 E306.15351
G0 F3600 X-55 Y-47.781
G1 F1800 X-54.767 Y-48.811 E306.21409
G1 X-54.167 Y-49.682 E306.27478
G1 X-51.789 Y-52.158 E306.47174
G1 X-49.213 Y-54.591 E306.67503
G1 X-46.441 Y-56.975 E306.8848
G1 X-45.403 Y-57.41 E306.94937
G1 X-44.928 Y-57.5 E306.97711
G1 X44.895 Y-57.5 E312.13059
G1 X45.905 Y-57.281 E312.18989
G1 X46.612 Y-56.83 E312.238
G1 X49.319 Y-54.493 E312.44318
G1 X51.851 Y-52.095 E312.64326
G1 X54.287 Y-49.558 E312.84505
G1 X54.83 Y-48.656 E312.90546
G1 X54.982 Y-47.818 E312.95432
G1 X55 Y47.781 E318.43919
G1 X54.767 Y48.811 E318.49978
G1 X54.167 Y49.682 E318.56046
G1 X51.789 Y52.158 E318.75743
G1 X49.213 Y54.591 E318.96072
G1 X46.442 Y56.974 E319.17041
G1 X45.417 Y57.41 E319.23432
G1 X44.881 Y57.5 E319.2655
G1 X-44.895 Y57.5 E324.41628
G1 X-45.905 Y57.281 E324.47558
G1 X-46.612 Y56.83 E324.52369
G1 X-49.319 Y54.493 E324.72887
G1 X-51.851 Y52.095 E324.92895
G1 X-54.287 Y49.558 E325.13075
G1 X-54.83 Y48.656 E325.19115
G1 X-54.982 Y47.818 E325.24002
G1 X-55 Y-47.781 E330.72489
G0 F3600 X-54.6 Y-47.737
G1 F1800 X-54.394 Y-48.647 E330.77842
G1 X-53.878 Y-49.405 E330.83103
G1 X-51.514 Y-51.867 E331.02686
G1 X-48.952 Y-54.288 E331.22909
G1 X-46.228 Y-56.631 E331.43524
G1 X-45.287 Y-57.025 E331.49377
G1 X-44.928 Y-57.1 E331.51481
G1 X44.852 Y-57.1 E336.66582
G1 X45.752 Y-56.905 E336.71866
G1 X46.351 Y-56.527 E336.7593
G1 X49.044 Y-54.203 E336.96338
G1 X51.562 Y-51.818 E337.16237
G1 X53.968 Y-49.312 E337.36169
G1 X54.449 Y-48.513 E337.41519
G1 X54.588 Y-47.747 E337.45986
G1 X54.6 Y47.737 E342.93813
G1 X54.394 Y48.647 E342.99166
G1 X53.878 Y49.405 E343.04427
G1 X51.514 Y51.867 E343.2401
G1 X48.952 Y54.288 E343.44234
G1 X46.229 Y56.63 E343.6484
G1 X45.305 Y57.023 E343.70601
G1 X44.881 Y57.1 E343.73074
G1 X-44.852 Y57.1 E348.87905
G1 X-45.752 Y56.905 E348.93189
G1 X-46.351 Y56.527 E348.97253
G1 X-49.044 Y54.203 E349.17661
G1 X-51.562 Y51.818 E349.3756
G1 X-53.968 Y49.312 E349.57492
G1 X-54.449 Y48.513 E349.62842
G1 X-54.588 Y47.747 E349.67309
G1 X-54.6 Y-47.737 E355.15136
