;FLAVOR:Marlin
;TIME:3517
;Filament used: 1.3451m
;Layer height: 0.12
;MINX:-9.2
;MINY:-10.28
;MINZ:0.3
;MAXX:9.2
;MAXY:10.28
;MAXZ:43.98
;Generated with Cura_SteamEngine 4.12.1
M140 S50
M105
M190 S50
M104 S210
M105
M109 S210
M82 ;absolute extrusion mode
;FLAVOR:Marlin
M82 ;absolute extrusion mode
G21
G90
M82
M107 T0
G28
G92 E0
G0 E3 F200
G92 E0 ; reset extrusion distance
M106 S255 ; Enable cooling fan full speed
G1 X-98 Y0 Z0.4 F3000 ; move to arc start
G3 X0 Y-98 I98 Z0.4 E40 F400 ; lay arc stripe 90deg
G92 E0 ; reset extrusion distance
G4 P500 ; wait for 0.5 sec
G0 Z10 E-1 ; Lift 15mm and retract 1mm filament
G4 P2000 ; wait for 5 sec
G0 Z15
M107 ; Disable cooling fan
G1 X0 Y-85 Z4 E0 F3000 ; get off the bed
G92 E0
G92 E0
G1 F1500 E-7
;LAYER_COUNT:366
;LAYER:0
M107
G1 F600 Z1.3
G0 F3600 X1.1 Y-9.988 Z1.3
;TYPE:SKIRT
G1 F600 Z0.3
G1 F1500 E0.41575
G1 F2400 X8.1 Y-5.947 E0.819
G1 X8.441 Y-5.704 E0.83989
G1 X8.73 Y-5.401 E0.86078
G1 X8.956 Y-5.048 E0.88169
G1 X9.112 Y-4.659 E0.9026
G1 X9.2 Y-4.042 E0.93369
G1 X9.2 Y4.042 E1.33701
G1 X9.16 Y4.459 E1.35791
G1 X9.042 Y4.861 E1.37881
G1 X8.849 Y5.233 E1.39972
G1 X8.59 Y5.562 E1.42061
G1 X8.1 Y5.947 E1.4517
G1 X1.1 Y9.988 E1.85494
G1 X0.719 Y10.162 E1.87584
G1 X0.311 Y10.261 E1.89678
G1 X-.107 Y10.28 E1.91766
G1 X-.522 Y10.22 E1.93858
G1 X-1.1 Y9.988 E1.96965
G1 X-8.1 Y5.947 E2.3729
G1 X-8.441 Y5.704 E2.39379
G1 X-8.73 Y5.401 E2.41468
G1 X-8.956 Y5.048 E2.43559
G1 X-9.112 Y4.659 E2.4565
G1 X-9.2 Y4.042 E2.48759
G1 X-9.2 Y-4.042 E2.89091
G1 X-9.16 Y-4.459 E2.91181
G1 X-9.042 Y-4.861 E2.93271
G1 X-8.849 Y-5.233 E2.95362
G1 X-8.59 Y-5.562 E2.97451
G1 X-8.1 Y-5.947 E3.0056
G1 X-1.1 Y-9.988 E3.40884
G1 X-.719 Y-10.162 E3.42974
G1 X-.311 Y-10.261 E3.45068
G1 X0.107 Y-10.28 E3.47156
G1 X0.522 Y-10.22 E3.49248
G1 X0.606 Y-10.186 E3.497
G0 F2160 X1.1 Y-9.988
G0 F3600 X0.9 Y-9.642
G1 F2400 X7.9 Y-5.601 E3.90025
G1 X8.206 Y-5.378 E3.91914
G1 X8.459 Y-5.096 E3.93804
G1 X8.648 Y-4.767 E3.95697
G1 X8.763 Y-4.406 E3.97587
G1 X8.8 Y-4.042 E3.99412
G1 X8.8 Y4.042 E4.39744
G1 X8.76 Y4.419 E4.41635
G1 X8.642 Y4.779 E4.43525
G1 X8.452 Y5.106 E4.45412
G1 X8.197 Y5.387 E4.47305
G1 X7.9 Y5.601 E4.49131
G1 X0.9 Y9.642 E4.89456
G1 X0.554 Y9.796 E4.91345
G1 X0.183 Y9.874 E4.93237
G1 X-.196 Y9.872 E4.95128
G1 X-.566 Y9.792 E4.97016
G1 X-.9 Y9.642 E4.98843
G1 X-7.9 Y5.601 E5.39168
G1 X-8.206 Y5.378 E5.41057
G1 X-8.459 Y5.096 E5.42947
G1 X-8.648 Y4.767 E5.4484
G1 X-8.763 Y4.406 E5.4673
G1 X-8.8 Y4.042 E5.48555
G1 X-8.8 Y-4.042 E5.88887
G1 X-8.76 Y-4.419 E5.90778
G1 X-8.642 Y-4.779 E5.92668
G1 X-8.452 Y-5.106 E5.94555
G1 X-8.197 Y-5.387 E5.96448
G1 X-7.9 Y-5.601 E5.98274
G1 X-.9 Y-9.642 E6.38599
G1 X-.554 Y-9.796 E6.40488
G1 X-.183 Y-9.874 E6.4238
G1 X0.196 Y-9.872 E6.44271
G1 X0.404 Y-9.827 E6.45332
G0 F2160 X0.566 Y-9.792
G0 X0.9 Y-9.642
G0 F3600 X0.7 Y-9.295
G1 F2400 X7.7 Y-5.254 E6.85657
G1 X7.967 Y-5.054 E6.87321
G1 X8.18 Y-4.796 E6.8899
G1 X8.325 Y-4.495 E6.90657
G1 X8.4 Y-4.042 E6.92948
G1 X8.4 Y4.042 E7.33279
G1 X8.36 Y4.374 E7.34948
G1 X8.243 Y4.686 E7.3661
G1 X8.055 Y4.963 E7.3828
G1 X7.7 Y5.254 E7.4057
G1 X0.7 Y9.295 E7.80895
G1 X0.393 Y9.427 E7.82562
G1 X0.063 Y9.482 E7.84231
G1 X-.27 Y9.457 E7.85897
G1 X-.7 Y9.295 E7.8819
G1 X-7.7 Y5.254 E8.28514
G1 X-7.967 Y5.054 E8.30179
G1 X-8.18 Y4.796 E8.31848
G1 X-8.325 Y4.495 E8.33515
G1 X-8.4 Y4.042 E8.35806
G1 X-8.4 Y-4.042 E8.76137
G1 X-8.36 Y-4.374 E8.77805
G1 X-8.243 Y-4.686 E8.79468
G1 X-8.055 Y-4.963 E8.81138
G1 X-7.7 Y-5.254 E8.83428
G1 X-.7 Y-9.295 E9.23753
G1 X-.393 Y-9.427 E9.2542
G1 X-0.063 Y-9.482 E9.27089
G1 X0.197 Y-9.462 E9.2839
G0 F2160 X0.27 Y-9.457
G0 X0.7 Y-9.295
G0 F3600 X0.5 Y-8.949
G1 F2400 X7.5 Y-4.908 E9.68714
G1 X7.722 Y-4.734 E9.70122
G1 X7.886 Y-4.505 E9.71527
G1 X7.98 Y-4.239 E9.72934
G1 X8 Y-4.042 E9.73922
G1 X8 Y4.042 E10.14254
G1 X7.96 Y4.321 E10.1566
G1 X7.844 Y4.578 E10.17066
G1 X7.661 Y4.793 E10.18475
G1 X7.5 Y4.908 E10.19462
G1 X0.5 Y8.949 E10.59787
G1 X0.238 Y9.054 E10.61195
G1 X-0.043 Y9.082 E10.62604
G1 X-.32 Y9.03 E10.6401
G1 X-.5 Y8.949 E10.64995
G1 X-7.5 Y4.908 E11.05319
G1 X-7.722 Y4.734 E11.06727
G1 X-7.886 Y4.505 E11.08132
G1 X-7.98 Y4.239 E11.09539
G1 X-8 Y4.042 E11.10527
G1 X-8 Y-4.042 E11.50858
G1 X-7.96 Y-4.321 E11.52265
G1 X-7.844 Y-4.578 E11.53671
G1 X-7.661 Y-4.793 E11.5508
G1 X-7.5 Y-4.908 E11.56067
G1 X-.5 Y-8.949 E11.96392
G1 X-.238 Y-9.054 E11.978
G1 X-0.01 Y-9.077 E11.98943
G0 F2160 X0.043 Y-9.082
G0 X0.32 Y-9.03
G0 X0.5 Y-8.949
G0 F3600 X0.3 Y-8.603
G1 F2400 X7.3 Y-4.562 E12.39268
G1 X7.466 Y-4.42 E12.40358
G1 X7.57 Y-4.228 E12.41447
G1 X7.6 Y-4.042 E12.42387
G1 X7.6 Y4.042 E12.82718
G1 X7.56 Y4.257 E12.83809
G1 X7.447 Y4.443 E12.84895
G1 X7.3 Y4.562 E12.85839
G1 X0.3 Y8.603 E13.26163
G1 X0.094 Y8.676 E13.27254
G1 X-.124 Y8.67 E13.28342
G1 X-.3 Y8.603 E13.29281
G1 X-7.3 Y4.562 E13.69606
G1 X-7.466 Y4.42 E13.70696
G1 X-7.57 Y4.228 E13.71785
G1 X-7.6 Y4.042 E13.72725
G1 X-7.6 Y-4.042 E14.13056
G1 X-7.56 Y-4.257 E14.14147
G1 X-7.447 Y-4.443 E14.15233
G1 X-7.3 Y-4.562 E14.16177
G1 X-.3 Y-8.603 E14.56501
G1 X-.213 Y-8.634 E14.56962
G0 F2160 X-0.094 Y-8.676
G0 X0.124 Y-8.67
G0 X0.3 Y-8.603
G0 F3600 X0.1 Y-8.256
G1 F2400 X7.1 Y-4.215 E14.97287
G1 X7.183 Y-4.122 E14.97909
G1 X7.2 Y-4.042 E14.98317
G1 X7.2 Y4.042 E15.38648
G1 X7.161 Y4.161 E15.39273
G1 X7.1 Y4.215 E15.39679
G1 X0.1 Y8.256 E15.80004
G1 X-0.022 Y8.282 E15.80626
G1 X-.1 Y8.256 E15.81036
G1 X-7.1 Y4.215 E16.21361
G1 X-7.183 Y4.122 E16.21983
G1 X-7.2 Y4.042 E16.22391
G1 X-7.2 Y-4.042 E16.62722
G1 X-7.161 Y-4.161 E16.63347
G1 X-7.1 Y-4.215 E16.63753
G1 X-.382 Y-8.093 E17.02453
G0 F2160 X-.1 Y-8.256
G0 X0.022 Y-8.282
G0 X0.1 Y-8.256
;MESH:Bit.3mf
G0 F3600 X0.00 Y-7.852
;TYPE:WALL-OUTER
G1 F2400 X6.8 Y-3.926 E17.41626
G1 X6.8 Y3.926 E17.808
G1 X0.00 Y7.852 E18.19974
G1 X-6.8 Y3.926 E18.59148
G1 X-6.8 Y-3.926 E18.98321
G1 X-.46 Y-7.586 E19.34844
G0 F2160 X0.00 Y-7.852
G0 F3600 X0.173 Y-7.752
G0 X-0.024 Y-7.33
G0 X0.005 Y-7.279
G0 X-3.392 Y-5.118
G0 X-4.508 Y-4.169
G0 X-5.368 Y-2.981
G0 X-6.136 Y-.877
G0 X-5.639 Y-.833
G1 F2400 X-5.698 Y-.161 E19.3821
G1 X-5.676 Y0.521 E19.41614
G1 X-5.574 Y1.195 E19.45015
G1 X-5.391 Y1.852 E19.48417
G1 X-5.128 Y2.487 E19.51846
G1 X-4.798 Y3.077 E19.55219
G1 X-4.392 Y3.633 E19.58654
G1 X-3.927 Y4.131 E19.62053
G1 X-3.426 Y4.554 E19.65324
G1 X-2.842 Y4.94 E19.68817
G1 X-2.225 Y5.247 E19.72255
G1 X-1.592 Y5.472 E19.75606
G1 X-.928 Y5.624 E19.79005
G1 X-.389 Y5.684 E19.81711
G1 X0.443 Y5.683 E19.85861
G1 X1.118 Y5.589 E19.89261
G1 X1.769 Y5.419 E19.92618
G1 X2.405 Y5.167 E19.96031
G1 X3.004 Y4.844 E19.99426
G1 X3.559 Y4.452 E20.02816
G1 X4.072 Y3.988 E20.06267
G1 X4.515 Y3.478 E20.09638
G1 X4.898 Y2.916 E20.13031
G1 X5.213 Y2.303 E20.16469
G1 X5.449 Y1.671 E20.19835
G1 X5.61 Y1.009 E20.23234
G1 X5.69 Y0.331 E20.2664
G1 X5.689 Y-.357 E20.30072
G1 X5.606 Y-1.035 E20.3348
G1 X5.444 Y-1.689 E20.36842
G1 X5.203 Y-2.328 E20.40249
G1 X4.888 Y-2.932 E20.43647
G1 X4.503 Y-3.494 E20.47046
G1 X4.053 Y-4.008 E20.50454
G1 X3.545 Y-4.463 E20.53857
G1 X2.988 Y-4.855 E20.57255
G1 X2.387 Y-5.176 E20.60654
G1 X1.773 Y-5.416 E20.63943
G1 X1.092 Y-5.593 E20.67453
G1 X0.416 Y-5.685 E20.70857
G1 X0.076 Y-5.699 E20.72555
G1 X-.605 Y-5.668 E20.75956
G1 X-1.278 Y-5.555 E20.7936
G1 X-1.932 Y-5.363 E20.82761
G1 X-2.564 Y-5.091 E20.86193
G1 X-3.149 Y-4.751 E20.89569
G1 X-3.693 Y-4.342 E20.92965
G1 X-4.185 Y-3.87 E20.96366
G1 X-4.578 Y-3.393 E20.9945
G1 X-4.984 Y-2.766 E21.03176
G1 X-5.28 Y-2.147 E21.06599
G1 X-5.497 Y-1.507 E21.09971
G1 X-5.53 Y-1.354 E21.10752
G0 F2160 X-5.639 Y-.833
G0 F3600 X-5.656 Y-.634
G0 X-6.035 Y-.892
;TYPE:WALL-INNER
G1 F2400 X-6.099 Y-.172 E21.14358
G1 X-6.075 Y0.558 E21.18002
G1 X-5.966 Y1.279 E21.2164
G1 X-5.77 Y1.983 E21.25286
G1 X-5.489 Y2.662 E21.28952
G1 X-5.135 Y3.293 E21.32562
G1 X-4.701 Y3.888 E21.36236
G1 X-4.203 Y4.421 E21.39875
G1 X-3.666 Y4.875 E21.43383
G1 X-3.042 Y5.287 E21.47114
G1 X-2.382 Y5.616 E21.50793
G1 X-1.704 Y5.857 E21.54383
G1 X-.995 Y6.019 E21.58011
G1 X-.411 Y6.084 E21.60943
G1 X0.471 Y6.083 E21.65343
G1 X1.196 Y5.982 E21.68995
G1 X1.894 Y5.8 E21.72594
G1 X2.574 Y5.53 E21.76244
G1 X3.215 Y5.185 E21.79876
G1 X3.809 Y4.765 E21.83505
G1 X4.358 Y4.268 E21.872
G1 X4.832 Y3.723 E21.90803
G1 X5.242 Y3.121 E21.94437
G1 X5.58 Y2.465 E21.98119
G1 X5.832 Y1.789 E22.01718
G1 X6.004 Y1.08 E22.05358
G1 X6.09 Y0.354 E22.09005
G1 X6.089 Y-.382 E22.12677
G1 X6 Y-1.108 E22.16326
G1 X5.827 Y-1.808 E22.19924
G1 X5.569 Y-2.492 E22.23571
G1 X5.232 Y-3.138 E22.27206
G1 X4.82 Y-3.74 E22.30846
G1 X4.338 Y-4.29 E22.34494
G1 X3.794 Y-4.777 E22.38137
G1 X3.198 Y-5.196 E22.41771
G1 X2.555 Y-5.54 E22.4541
G1 X1.897 Y-5.797 E22.48934
G1 X1.17 Y-5.986 E22.52682
G1 X0.451 Y-6.084 E22.56302
G1 X0.075 Y-6.099 E22.58179
G1 X-.647 Y-6.066 E22.61785
G1 X-1.368 Y-5.946 E22.65432
G1 X-2.068 Y-5.74 E22.69072
G1 X-2.744 Y-5.449 E22.72744
G1 X-3.37 Y-5.085 E22.76356
G1 X-3.953 Y-4.647 E22.79994
G1 X-4.479 Y-4.142 E22.83632
G1 X-4.901 Y-3.63 E22.86943
G1 X-5.334 Y-2.962 E22.90914
G1 X-5.651 Y-2.298 E22.94585
G1 X-5.883 Y-1.613 E22.98193
G1 X-5.926 Y-1.413 E22.99214
G0 F2160 X-6.035 Y-.892
G0 F3600 X-6.133 Y-.906
G0 X-5.688 Y-2.313
G0 X-4.933 Y-3.653
G0 X-3.978 Y-4.677
G0 X0.00 Y-7.291
G0 X0.00 Y-7.391
G1 F2400 X2.3 Y-6.064 E23.12461
G1 X2.717 Y-5.823 E23.14594
G1 X3.349 Y-5.458 E23.17459
G1 X3.977 Y-5.095 E23.20501
G1 X6.4 Y-3.695 E23.34462
G1 X6.4 Y-1.102 E23.47398
G1 X6.4 Y-.382 E23.50606
G1 X6.4 Y0.354 E23.53464
G1 X6.4 Y1.08 E23.56668
G1 X6.4 Y3.695 E23.69714
G1 X5.363 Y4.293 E23.75686
G1 X3.994 Y5.084 E23.83574
G1 X3.367 Y5.446 E23.86606
G1 X2.737 Y5.81 E23.89453
G1 X2.286 Y6.07 E23.91816
G1 X1.06 Y6.778 E23.98879
G1 X0.00 Y7.391 E24.04988
G1 X-2.555 Y5.916 E24.19707
G1 X-3.192 Y5.548 E24.22682
G1 X-3.838 Y5.175 E24.25703
M104 S202
G1 X-6.4 Y3.695 E24.40464
G1 X-6.4 Y1.05 E24.5366
G1 X-6.4 Y0.558 E24.559
G1 X-6.4 Y-.172 E24.58757
G1 X-6.4 Y-.892 E24.61754
G1 X-6.4 Y-3.695 E24.75738
G1 X-4.153 Y-4.992 E24.88682
G1 X-3.526 Y-5.354 E24.91886
G1 X-2.899 Y-5.716 E24.94682
G1 X-2.266 Y-6.082 E24.97908
G1 X-1.053 Y-6.782 E25.04895
G1 X-0.077 Y-7.347 E25.10521
G0 F2160 X0.00 Y-7.391
G0 F3600 X0.00 Y-6.929
G1 F2400 X0.862 Y-6.432 E25.15486
G1 X0.074 Y-6.499 E25.16906
G1 X-.689 Y-6.464 E25.20716
G1 X-.853 Y-6.437 E25.21546
G1 X0.00 Y-6.929 E25.24306
G0 F3600 X-3.052 Y-5.3
G0 X-5.152 Y-3.954
G1 F2400 X-5.224 Y-3.867 E25.24869
G1 X-5.684 Y-3.158 E25.29086
G1 X-6 Y-2.495 E25.3275
G1 X-6 Y-3.465 E25.35084
G1 X-5.152 Y-3.954 E25.3751
G0 F3600 X-5.921 Y-1.623
G0 X-6.125 Y-.312
G0 X-6 Y2.473
G1 F2400 X-5.849 Y2.837 E25.39476
G1 X-5.472 Y3.509 E25.4332
G1 X-5.144 Y3.959 E25.46098
G1 X-5.584 Y3.705 E25.46768
G1 X-6 Y3.465 E25.49164
G1 X-6 Y2.947 E25.51749
G1 X-6 Y2.473 E25.54011
G0 F3600 X-4.23 Y4.449
G0 X-3.061 Y5.321
G0 X-1.846 Y5.848
G0 X0.86 Y6.433
G1 F2400 X0.00 Y6.93 E25.58967
G1 X-.852 Y6.437 E25.63877
G1 X-.433 Y6.484 E25.65981
G1 X0.499 Y6.483 E25.70631
G1 X0.663 Y6.46 E25.71457
G0 F2160 X0.86 Y6.433
G0 F3600 X3.236 Y5.219
G0 X4.146 Y4.513
G0 X6 Y2.482
G1 F2400 X6 Y3.465 E25.76361
G1 X5.163 Y3.948 E25.81182
G1 X5.586 Y3.326 E25.82468
G1 X5.946 Y2.627 E25.84148
G1 X6 Y2.482 E25.8492
G0 F3600 X6.128 Y-.384
G0 X5.99 Y-1.314
G0 X5.163 Y-3.948
G1 F2400 X6 Y-3.465 E25.89741
G1 X6 Y-2.484 E25.94636
G1 X5.935 Y-2.656 E25.95553
G1 X5.576 Y-3.344 E25.97834
G1 X5.163 Y-3.948 E25.98993
;MESH:NONMESH
G0 F600 X5.163 Y-3.948 Z0.42
G0 F3600 X5.865 Y-1.819
G0 X6.128 Y-.384
G0 X6.043 Y1.087
G0 X5.141 Y3.96
;TIME_ELAPSED:16.698660
;LAYER:1
M106 S255
;TYPE:WALL-INNER
;MESH:Bit.3mf
G1 F1704.6 X5.383 Y3.646 E25.99784
G1 X5.779 Y2.98 E26.0133
G1 X6 Y2.478 E26.02424
G1 X6 Y2.98 E26.02685
G1 X6 Y3.465 E26.03652
G1 X5.204 Y3.924 E26.05486
G0 F1534.1 X5.141 Y3.96
G0 F7200 X3.143 Y5.256
G0 X0.853 Y6.437
G1 F1704.6 X0.00 Y6.93 E26.07452
G1 X-.85 Y6.439 E26.09411
G1 X-.68 Y6.467 E26.09755
G1 X0.111 Y6.501 E26.10665
G1 X0.733 Y6.459 E26.11039
G1 X0.853 Y6.437 E26.11283
G0 F7200 X-1.365 Y5.986
G0 X-2.745 Y5.491
G0 X-5.152 Y3.954
G1 F1704.6 X-6 Y3.465 E26.13236
G1 X-6 Y2.5 E26.15162
G1 X-5.67 Y3.182 E26.15691
G1 X-5.25 Y3.836 E26.16356
G1 X-5.152 Y3.954 E26.16662
G0 F7200 X-5.913 Y1.657
G0 X-6.123 Y0.348
G0 X-6 Y-2.473
G1 F1704.6 X-6 Y-3.465 E26.18641
G1 X-5.597 Y-3.697 E26.19569
G1 X-5.148 Y-3.957 E26.20605
G1 X-5.481 Y-3.497 E26.20984
G1 X-5.857 Y-2.821 E26.22528
G1 X-5.99 Y-2.497 E26.23226
G0 F1534.1 X-6 Y-2.473
G0 F7200 X-4.261 Y-4.42
G0 X-3.352 Y-5.131
G0 X-.851 Y-6.438
G1 F1704.6 X0.00 Y-6.929 E26.25187
G1 X0.348 Y-6.729 E26.25988
G1 X0.84 Y-6.445 E26.27122
G1 X0.213 Y-6.493 E26.27607
G1 X0.072 Y-6.499 E26.27762
G1 X-.51 Y-6.477 E26.28306
G1 X-.851 Y-6.438 E26.28991
G0 F7200 X1.545 Y-5.943
G0 X2.768 Y-5.473
G0 X5.141 Y-3.961
G1 F1704.6 X5.584 Y-3.705 E26.30012
G1 X6 Y-3.465 E26.3097
G1 X6 Y-3.019 E26.3186
G1 X6 Y-2.48 E26.32936
G1 X5.758 Y-3.019 E26.33346
G1 X5.36 Y-3.678 E26.34793
G1 X5.141 Y-3.961 E26.35507
G0 F7200 X5.96 Y-1.472
G0 X6.159 Y0.714
G0 X6.06 Y0.703
G1 F1704.6 X6.101 Y-0.025 E26.36962
G1 X6.056 Y-.746 E26.38403
G1 X5.922 Y-1.463 E26.39859
G1 X5.707 Y-2.155 E26.41305
G1 X5.403 Y-2.833 E26.42788
G1 X5.03 Y-3.451 E26.44228
G1 X4.582 Y-4.028 E26.45686
G1 X4.063 Y-4.55 E26.47155
G1 X3.498 Y-4.998 E26.48594
G1 X2.875 Y-5.38 E26.50053
G1 X2.228 Y-5.679 E26.51475
G1 X1.535 Y-5.905 E26.5293
G1 X0.819 Y-6.045 E26.54385
G1 X0.189 Y-6.094 E26.55647
G1 X0.071 Y-6.099 E26.55882
G1 X-.479 Y-6.078 E26.56981
G1 X-1.016 Y-6.016 E26.58059
G1 X-1.723 Y-5.851 E26.59508
G1 X-2.419 Y-5.6 E26.60985
G1 X-3.066 Y-5.274 E26.6243
G1 X-3.674 Y-4.871 E26.63886
G1 X-4.234 Y-4.392 E26.65357
G1 X-4.723 Y-3.861 E26.66797
G1 X-5.143 Y-3.282 E26.68225
G1 X-5.496 Y-2.647 E26.69675
G1 X-5.771 Y-1.978 E26.71118
G1 X-5.971 Y-1.25 E26.72625
G1 X-6.077 Y-.529 E26.74079
G1 X-6.098 Y0.207 E26.75548
G1 X-6.029 Y0.934 E26.77006
G1 X-5.875 Y1.647 E26.78461
G1 X-5.638 Y2.33 E26.79904
G1 X-5.32 Y2.986 E26.81359
G1 X-4.926 Y3.6 E26.82815
G1 X-4.471 Y4.15 E26.84239
G1 X-3.944 Y4.655 E26.85696
G1 X-3.36 Y5.093 E26.87153
G1 X-2.728 Y5.456 E26.88607
G1 X-2.059 Y5.743 E26.9006
G1 X-1.357 Y5.948 E26.91519
G1 X-.638 Y6.068 E26.92974
G1 X0.106 Y6.1 E26.9446
G1 X0.683 Y6.061 E26.95614
G1 X1.549 Y5.902 E26.97371
G1 X2.246 Y5.673 E26.98835
G1 X2.901 Y5.366 E27.00279
G1 X3.532 Y4.974 E27.01761
G1 X4.095 Y4.521 E27.03203
G1 X4.606 Y4.001 E27.04658
G1 X5.051 Y3.421 E27.06117
G1 X5.423 Y2.796 E27.07569
G1 X5.72 Y2.121 E27.0904
G1 X5.758 Y1.998 E27.09297
G0 F1534.1 X5.932 Y1.423
G0 X6.06 Y0.703
G0 F7200 X5.662 Y0.657
;TYPE:WALL-OUTER
G1 F852.3 X5.7 Y-0.024 E27.10658
G1 X5.658 Y-.697 E27.12004
G1 X5.533 Y-1.367 E27.13364
G1 X5.332 Y-2.013 E27.14714
G1 X5.048 Y-2.647 E27.16101
G1 X4.7 Y-3.224 E27.17445
G1 X4.281 Y-3.763 E27.18808
G1 X3.796 Y-4.251 E27.20181
G1 X3.268 Y-4.67 E27.21526
G1 X2.686 Y-5.027 E27.22888
G1 X2.082 Y-5.306 E27.24216
G1 X1.434 Y-5.517 E27.25576
G1 X0.765 Y-5.648 E27.26936
G1 X0.165 Y-5.695 E27.28138
G1 X0.07 Y-5.699 E27.28327
G1 X-.448 Y-5.679 E27.29362
G1 X-.947 Y-5.621 E27.30364
G1 X-1.609 Y-5.467 E27.31721
G1 X-2.261 Y-5.232 E27.33104
G1 X-2.865 Y-4.928 E27.34453
G1 X-3.432 Y-4.551 E27.35812
G1 X-3.956 Y-4.103 E27.37188
G1 X-4.413 Y-3.607 E27.38534
G1 X-4.805 Y-3.067 E27.39865
G1 X-5.135 Y-2.473 E27.41221
G1 X-5.392 Y-1.848 E27.4257
G1 X-5.579 Y-1.168 E27.43977
G1 X-5.678 Y-.494 E27.45337
G1 X-5.697 Y0.194 E27.4671
G1 X-5.633 Y0.873 E27.48071
G1 X-5.489 Y1.539 E27.49431
G1 X-5.268 Y2.177 E27.50778
G1 X-4.971 Y2.79 E27.52138
