;FLAVOR:Marlin
;TIME:13522
;Filament used: 9.57998m
;Layer height: 0.12
;MINX:-11
;MINY:-23.836
;MINZ:0.3
;MAXX:24.2
;MAXY:23.836
;MAXZ:63.22
;Generated with Cura_SteamEngine 4.12.1
M140 S50
M105
M190 S50
M104 S210
M105
M109 S210
M82 ;absolute extrusion mode
;FLAVOR:Marlin
M82 ;absolute extrusion mode
G21
G90
M82
M107 T0
G28
G92 E0
G0 E3 F200
G92 E0 ; reset extrusion distance
M106 S255 ; Enable cooling fan full speed
G1 X-98 Y0 Z0.4 F3000 ; move to arc start
G3 X0 Y-98 I98 Z0.4 E40 F400 ; lay arc stripe 90deg
G92 E0 ; reset extrusion distance
G4 P500 ; wait for 0.5 sec
G0 Z10 E-1 ; Lift 15mm and retract 1mm filament
G4 P2000 ; wait for 5 sec
G0 Z15
M107 ; Disable cooling fan
G1 X0 Y-85 Z4 E0 F3000 ; get off the bed
G92 E0
G92 E0
G1 F1500 E-6.5
;LAYER_COUNT:518
;LAYER:0
M107
G1 F600 Z1.3
G0 F3600 X14.509 Y-7.618 Z1.3
;TYPE:SKIRT
G1 F600 Z0.3
G1 F1500 E0.24945
G1 F1800 X14.844 Y-7.245 E0.27446
G1 X15.279 Y-6.953 E0.3006
G1 X15.746 Y-6.786 E0.32535
G1 X16.366 Y-6.735 E0.35638
G1 X21.199 Y-6.736 E0.5975
G1 X21.687 Y-6.696 E0.62193
G1 X22.162 Y-6.578 E0.64635
G1 X22.611 Y-6.383 E0.67077
G1 X23.023 Y-6.118 E0.69521
G1 X23.386 Y-5.79 E0.71962
G1 X23.691 Y-5.407 E0.74404
G1 X23.93 Y-4.98 E0.76846
G1 X24.096 Y-4.52 E0.79285
G1 X24.2 Y-3.736 E0.83231
G1 X24.2 Y20.835 E2.05816
G1 X24.16 Y21.323 E2.08259
G1 X24.041 Y21.798 E2.10702
G1 X23.847 Y22.247 E2.13142
G1 X23.582 Y22.659 E2.15586
G1 X23.254 Y23.022 E2.18027
G1 X22.871 Y23.327 E2.2047
G1 X22.443 Y23.565 E2.22913
G1 X21.983 Y23.731 E2.25353
G1 X21.502 Y23.82 E2.27793
G1 X21.195 Y23.835 E2.29327
G1 X15.638 Y23.825 E2.57051
G1 X-1.022 Y23.824 E3.40168
G1 X-6.274 Y23.836 E3.6637
G1 X-6.966 Y23.818 E3.69824
G1 X-7.679 Y23.687 E3.73441
G1 X-8.528 Y23.381 E3.77943
G1 X-9.073 Y23.058 E3.81104
G1 X-9.645 Y22.601 E3.84756
G1 X-10.039 Y22.139 E3.87786
G1 X-10.439 Y21.497 E3.91559
G1 X-10.663 Y20.848 E3.94985
G1 X-10.73 Y20.544 E3.96538
G1 X-10.8 Y19.898 E3.9978
G1 X-10.801 Y-19.898 E5.98323
G1 X-10.73 Y-20.546 E6.01575
G1 X-10.519 Y-21.316 E6.05558
G1 X-10.192 Y-21.921 E6.08989
G1 X-9.727 Y-22.516 E6.12756
G1 X-9.646 Y-22.599 E6.13335
G1 X-9.08 Y-23.053 E6.16955
G1 X-8.764 Y-23.249 E6.1881
G1 X-8.132 Y-23.546 E6.22294
G1 X-7.647 Y-23.696 E6.24827
G1 X-6.966 Y-23.818 E6.28278
G1 X-6.581 Y-23.835 E6.30201
G1 X-.986 Y-23.825 E6.58115
G1 X4.599 Y-23.824 E6.85978
G1 X9.885 Y-23.836 E7.1235
G1 X10.216 Y-23.835 E7.14002
G1 X10.795 Y-23.777 E7.16905
G1 X11.703 Y-23.53 E7.21599
G1 X12.219 Y-23.256 E7.24514
G1 X12.874 Y-22.773 E7.28574
G1 X13.391 Y-22.174 E7.32522
G1 X13.701 Y-21.69 E7.3539
G1 X13.907 Y-21.201 E7.38037
G1 X14.066 Y-20.538 E7.41438
G1 X14.135 Y-19.893 E7.44675
G1 X14.125 Y-14.17 E7.73227
G1 X14.136 Y-9.102 E7.98511
G1 X14.154 Y-8.535 E8.01341
G1 X14.264 Y-8.087 E8.03643
G1 X14.509 Y-7.618 E8.06283
G0 F3600 X14.103 Y-7.509
G1 F1800 X14.478 Y-7.038 E8.09286
G1 X14.94 Y-6.684 E8.1219
G1 X15.361 Y-6.484 E8.14516
G1 X15.938 Y-6.35 E8.17471
G1 X16.362 Y-6.335 E8.19587
G1 X21.199 Y-6.336 E8.43719
G1 X21.653 Y-6.296 E8.45993
G1 X22.093 Y-6.178 E8.48266
G1 X22.506 Y-5.984 E8.50542
G1 X22.878 Y-5.722 E8.52812
G1 X23.199 Y-5.398 E8.55088
G1 X23.459 Y-5.024 E8.5736
G1 X23.649 Y-4.61 E8.59633
G1 X23.764 Y-4.169 E8.61907
G1 X23.8 Y-3.736 E8.64074
G1 X23.8 Y20.835 E9.8666
G1 X23.76 Y21.289 E9.88933
G1 X23.642 Y21.729 E9.91206
G1 X23.448 Y22.141 E9.93478
G1 X23.185 Y22.514 E9.95755
G1 X22.862 Y22.835 E9.98027
G1 X22.487 Y23.094 E10.00301
G1 X22.073 Y23.284 E10.02573
G1 X21.632 Y23.399 E10.04847
G1 X21.195 Y23.435 E10.07035
G1 X15.638 Y23.425 E10.34759
G1 X-1.023 Y23.424 E11.17881
G1 X-6.273 Y23.436 E11.44073
G1 X-6.942 Y23.418 E11.47412
G1 X-7.56 Y23.305 E11.50546
G1 X-7.955 Y23.182 E11.5261
G1 X-8.547 Y22.913 E11.55854
G1 X-8.863 Y22.718 E11.57707
G1 X-9.358 Y22.321 E11.60873
G1 X-9.711 Y21.91 E11.63576
G1 X-10.092 Y21.296 E11.67181
G1 X-10.272 Y20.762 E11.69992
G1 X-10.339 Y20.458 E11.71545
G1 X-10.4 Y19.898 E11.74356
G1 X-10.401 Y-19.898 E13.72899
G1 X-10.34 Y-20.459 E13.75714
G1 X-10.136 Y-21.197 E13.79534
G1 X-9.864 Y-21.692 E13.82352
G1 X-9.441 Y-22.237 E13.85794
G1 X-9.36 Y-22.32 E13.86372
G1 X-8.869 Y-22.713 E13.8951
G1 X-8.553 Y-22.909 E13.91365
G1 X-8.005 Y-23.167 E13.94387
G1 X-7.532 Y-23.313 E13.96857
G1 X-6.941 Y-23.418 E13.99851
G1 X-6.581 Y-23.435 E14.01649
G1 X-.986 Y-23.425 E14.29563
G1 X4.599 Y-23.424 E14.57427
G1 X9.884 Y-23.436 E14.83794
G1 X10.215 Y-23.435 E14.85445
G1 X10.717 Y-23.385 E14.87962
G1 X11.58 Y-23.148 E14.92427
G1 X12.269 Y-22.743 E14.96414
G1 X12.625 Y-22.458 E14.98689
G1 X13.076 Y-21.927 E15.02165
G1 X13.364 Y-21.471 E15.04856
G1 X13.591 Y-20.837 E15.08215
G1 X13.675 Y-20.452 E15.10181
G1 X13.735 Y-19.893 E15.12986
G1 X13.725 Y-14.17 E15.41538
G1 X13.736 Y-9.103 E15.66818
G1 X13.754 Y-8.508 E15.69788
G1 X13.891 Y-7.944 E15.72683
G1 X14.103 Y-7.509 E15.75098
G0 F3600 X13.961 Y-7.014
G1 F1800 X14.325 Y-6.636 E15.77716
G1 X14.743 Y-6.336 E15.80283
G1 X15.224 Y-6.108 E15.82938
G1 X15.708 Y-5.978 E15.85438
G1 X16.359 Y-5.935 E15.88693
G1 X21.2 Y-5.936 E16.12845
G1 X21.617 Y-5.896 E16.14935
G1 X22.019 Y-5.778 E16.17025
G1 X22.391 Y-5.586 E16.19114
G1 X22.72 Y-5.326 E16.21206
G1 X22.994 Y-5.009 E16.23296
G1 X23.203 Y-4.646 E16.25386
G1 X23.339 Y-4.25 E16.27475
G1 X23.4 Y-3.736 E16.30057
G1 X23.4 Y20.835 E17.52643
G1 X23.36 Y21.252 E17.54733
G1 X23.242 Y21.654 E17.56823
G1 X23.049 Y22.026 E17.58914
G1 X22.79 Y22.355 E17.61003
G1 X22.473 Y22.629 E17.63093
G1 X22.11 Y22.838 E17.65183
G1 X21.713 Y22.974 E17.67276
G1 X21.196 Y23.035 E17.69874
G1 X15.639 Y23.025 E17.97598
G1 X-1.024 Y23.024 E18.8073
G1 X-6.272 Y23.036 E19.06912
G1 X-6.918 Y23.019 E19.10136
G1 X-7.441 Y22.924 E19.12788
G1 X-7.836 Y22.801 E19.14852
G1 X-8.337 Y22.572 E19.176
G1 X-8.653 Y22.377 E19.19453
G1 X-9.072 Y22.042 E19.22129
G1 X-9.536 Y21.462 E19.25835
G1 X-9.743 Y21.097 E19.27928
G1 X-9.948 Y20.372 E19.31687
G1 X-10 Y19.898 E19.34066
G1 X-10.001 Y-19.898 E21.32609
G1 X-9.882 Y-20.676 E21.36536
G1 X-9.753 Y-21.075 E21.38628
G1 X-9.382 Y-21.683 E21.42181
G1 X-9.073 Y-22.041 E21.44541
G1 X-8.659 Y-22.374 E21.47191
G1 X-8.343 Y-22.57 E21.49047
G1 X-7.879 Y-22.787 E21.51602
G1 X-7.417 Y-22.93 E21.54015
G1 X-6.917 Y-23.019 E21.56549
G1 X-6.582 Y-23.035 E21.58222
G1 X-.987 Y-23.025 E21.86136
G1 X4.6 Y-23.024 E22.14009
G1 X9.883 Y-23.036 E22.40366
G1 X10.638 Y-22.992 E22.44139
G1 X11.454 Y-22.767 E22.48362
G1 X12.047 Y-22.41 E22.51816
G1 X12.373 Y-22.146 E22.53908
G1 X12.762 Y-21.68 E22.56937
G1 X13.008 Y-21.288 E22.59246
G1 X13.2 Y-20.752 E22.62086
G1 X13.335 Y-19.894 E22.6642
G1 X13.325 Y-14.171 E22.94972
G1 X13.336 Y-9.104 E23.20251
G1 X13.359 Y-8.442 E23.23556
G1 X13.472 Y-7.925 E23.26196
G1 X13.667 Y-7.463 E23.28698
G1 X13.961 Y-7.014 E23.31376
G0 F3600 X13.533 Y-6.918
G1 F1800 X13.916 Y-6.469 E23.3432
G1 X14.369 Y-6.097 E23.37244
G1 X14.882 Y-5.814 E23.40167
G1 X15.489 Y-5.612 E23.43359
G1 X16.072 Y-5.538 E23.46291
G1 X16.354 Y-5.535 E23.47698
G1 X21.2 Y-5.536 E23.71875
G1 X21.576 Y-5.496 E23.73761
G1 X21.937 Y-5.378 E23.75656
G1 X22.264 Y-5.188 E23.77543
G1 X22.545 Y-4.933 E23.79436
G1 X22.765 Y-4.625 E23.81324
G1 X22.917 Y-4.277 E23.83219
G1 X23 Y-3.736 E23.85949
G1 X23 Y20.835 E25.08535
G1 X22.96 Y21.212 E25.10426
G1 X22.842 Y21.572 E25.12316
G1 X22.652 Y21.899 E25.14203
G1 X22.397 Y22.18 E25.16096
G1 X22.088 Y22.4 E25.17988
G1 X21.741 Y22.552 E25.19878
G1 X21.197 Y22.635 E25.22624
G1 X15.64 Y22.625 E25.50348
G1 X-1.025 Y22.624 E26.3349
G1 X-6.271 Y22.636 E26.59662
G1 X-6.894 Y22.62 E26.62771
G1 X-7.322 Y22.542 E26.64942
G1 X-7.717 Y22.419 E26.67006
G1 X-8.127 Y22.232 E26.69254
G1 X-8.786 Y21.762 E26.73292
G1 X-9.209 Y21.233 E26.76672
G1 X-9.392 Y20.901 E26.78563
G1 X-9.558 Y20.285 E26.81746
G1 X-9.6 Y19.898 E26.83688
G1 X-9.601 Y-19.898 E28.82231
G1 X-9.492 Y-20.59 E28.85726
G1 X-9.371 Y-20.949 E28.87616
G1 X-9.055 Y-21.453 E28.90584
G1 X-8.787 Y-21.761 E28.92621
G1 X-8.132 Y-22.23 E28.9664
G1 X-7.644 Y-22.444 E28.99298
G1 X-6.893 Y-22.62 E29.03147
G1 X-6.583 Y-22.635 E29.04695
G1 X-.988 Y-22.625 E29.32609
G1 X4.601 Y-22.624 E29.60492
G1 X9.881 Y-22.636 E29.86834
G1 X10.56 Y-22.6 E29.90227
G1 X11.324 Y-22.386 E29.94185
G1 X11.826 Y-22.076 E29.97128
G1 X12.245 Y-21.689 E29.99974
G1 X12.633 Y-21.142 E30.0332
G1 X12.81 Y-20.667 E30.05849
G1 X12.935 Y-19.895 E30.09751
G1 X12.925 Y-14.172 E30.38303
G1 X12.936 Y-9.105 E30.63582
G1 X12.942 Y-8.599 E30.66107
G1 X13.031 Y-8.021 E30.69024
G1 X13.233 Y-7.44 E30.72093
G1 X13.533 Y-6.918 E30.75097
G0 F3600 X13.198 Y-6.7
G1 F1800 X13.639 Y-6.179 E30.78502
G1 X14.15 Y-5.763 E30.8179
G1 X14.745 Y-5.437 E30.85175
G1 X15.397 Y-5.224 E30.88597
G1 X16.053 Y-5.138 E30.91897
G1 X16.35 Y-5.135 E30.93379
G1 X21.2 Y-5.136 E31.17576
G1 X21.531 Y-5.096 E31.19239
G1 X21.844 Y-4.979 E31.20906
G1 X22.12 Y-4.791 E31.22572
G1 X22.344 Y-4.543 E31.2424
G1 X22.503 Y-4.249 E31.25907
G1 X22.6 Y-3.736 E31.28512
G1 X22.6 Y20.835 E32.51097
G1 X22.56 Y21.167 E32.52766
G1 X22.443 Y21.479 E32.54428
G1 X22.255 Y21.756 E32.56098
G1 X22.007 Y21.979 E32.57762
G1 X21.713 Y22.138 E32.5943
G1 X21.197 Y22.235 E32.62049
G1 X15.64 Y22.225 E32.89773
G1 X-1.026 Y22.224 E33.7292
G1 X-6.269 Y22.236 E33.99078
G1 X-6.87 Y22.221 E34.02077
G1 X-7.598 Y22.037 E34.05823
G1 X-8.233 Y21.696 E34.09419
G1 X-8.582 Y21.399 E34.11705
G1 X-8.881 Y21.004 E34.14177
G1 X-9.038 Y20.709 E34.15844
G1 X-9.167 Y20.199 E34.18469
G1 X-9.2 Y19.898 E34.19979
G1 X-9.201 Y-19.898 E36.18522
G1 X-9.101 Y-20.503 E36.21582
G1 X-8.99 Y-20.819 E36.23253
G1 X-8.582 Y-21.399 E36.26791
G1 X-8.237 Y-21.694 E36.29055
G1 X-7.626 Y-22.028 E36.32529
G1 X-7.187 Y-22.164 E36.34822
G1 X-6.67 Y-22.232 E36.37424
G1 X-6.583 Y-22.235 E36.37858
G1 X-.988 Y-22.225 E36.65772
G1 X4.602 Y-22.224 E36.9366
G1 X9.88 Y-22.236 E37.19992
G1 X10.482 Y-22.208 E37.22999
G1 X10.875 Y-22.121 E37.25007
G1 X11.334 Y-21.923 E37.27501
G1 X11.605 Y-21.743 E37.29124
G1 X11.931 Y-21.442 E37.31338
G1 X12.277 Y-20.96 E37.34298
G1 X12.419 Y-20.581 E37.36317
G1 X12.535 Y-19.896 E37.39783
G1 X12.525 Y-14.173 E37.68335
G1 X12.536 Y-9.107 E37.9361
G1 X12.542 Y-8.58 E37.96239
G1 X12.638 Y-7.944 E37.99448
G1 X12.865 Y-7.282 E38.0294
G1 X13.198 Y-6.7 E38.06285
G0 F3600 X13.014 Y-6.276
G1 F1800 X13.36 Y-5.893 E38.0886
G1 X13.929 Y-5.429 E38.12523
G1 X14.38 Y-5.164 E38.15133
G1 X15.053 Y-4.901 E38.18738
G1 X15.776 Y-4.758 E38.22415
G1 X16.345 Y-4.735 E38.25256
G1 X21.2 Y-4.736 E38.49477
G1 X21.479 Y-4.696 E38.50884
G1 X21.736 Y-4.58 E38.5229
G1 X21.951 Y-4.397 E38.53699
G1 X22.105 Y-4.161 E38.55105
G1 X22.2 Y-3.736 E38.57277
G1 X22.2 Y20.835 E39.79863
G1 X22.16 Y21.114 E39.81269
G1 X22.044 Y21.371 E39.82676
G1 X21.861 Y21.586 E39.84084
G1 X21.625 Y21.74 E39.8549
G1 X21.198 Y21.835 E39.87672
G1 X15.641 Y21.825 E40.15396
G1 X-1.027 Y21.824 E40.98553
G1 X-6.268 Y21.836 E41.24701
G1 X-6.847 Y21.821 E41.27591
G1 X-7.479 Y21.655 E41.30851
G1 X-8.023 Y21.356 E41.33948
G1 X-8.296 Y21.12 E41.35748
G1 X-8.553 Y20.775 E41.37894
G1 X-8.71 Y20.417 E41.39845
G1 X-8.8 Y19.898 E41.42472
G1 X-8.801 Y-19.898 E43.41016
G1 X-8.71 Y-20.417 E43.43644
G1 X-8.553 Y-20.774 E43.4559
G1 X-8.215 Y-21.202 E43.48311
G1 X-7.71 Y-21.55 E43.51371
G1 X-7.072 Y-21.781 E43.54756
G1 X-6.584 Y-21.835 E43.57205
G1 X-.989 Y-21.825 E43.85119
G1 X4.603 Y-21.824 E44.13018
G1 X9.879 Y-21.836 E44.3934
G1 X10.403 Y-21.816 E44.41956
G1 X10.785 Y-21.731 E44.43908
G1 X11.112 Y-21.59 E44.45685
G1 X11.383 Y-21.41 E44.47308
G1 X11.616 Y-21.195 E44.4889
G1 X11.922 Y-20.777 E44.51474
G1 X12.028 Y-20.496 E44.52972
G1 X12.135 Y-19.896 E44.56013
G1 X12.125 Y-14.173 E44.84565
G1 X12.136 Y-9.108 E45.09835
G1 X12.143 Y-8.561 E45.12564
G1 X12.203 Y-8.063 E45.15066
G1 X12.328 Y-7.562 E45.17643
G1 X12.615 Y-6.885 E45.21311
G1 X13.014 Y-6.276 E45.24943
G0 F3600 X12.398 Y-6.461
G1 F1800 X12.7 Y-6.028 E45.27577
G1 X13.085 Y-5.602 E45.30442
G1 X13.482 Y-5.258 E45.33063
G1 X13.933 Y-4.955 E45.35773
G1 X14.417 Y-4.707 E45.38487
G1 X14.93 Y-4.52 E45.41211
G1 X15.452 Y-4.398 E45.43885
G1 X16.013 Y-4.339 E45.46699
G1 X16.341 Y-4.335 E45.48336
G1 X21.2 Y-4.336 E45.72578
G1 X21.414 Y-4.296 E45.73664
G1 X21.601 Y-4.183 E45.74754
G1 X21.734 Y-4.01 E45.75842
G1 X21.8 Y-3.736 E45.77249
G1 X21.8 Y20.835 E46.99834
G1 X21.76 Y21.05 E47.00925
G1 X21.647 Y21.236 E47.02011
G1 X21.474 Y21.369 E47.03099
G1 X21.199 Y21.435 E47.0451
G1 X15.642 Y21.425 E47.32234
G1 X-1.028 Y21.424 E48.15401
G1 X-6.267 Y21.436 E48.41539
G1 X-6.823 Y21.422 E48.44314
G1 X-7.36 Y21.273 E48.47094
G1 X-7.813 Y21.016 E48.49692
G1 X-8.072 Y20.765 E48.51492
G1 X-8.319 Y20.331 E48.53983
G1 X-8.4 Y19.898 E48.56181
G1 X-8.401 Y-19.898 E50.54724
G1 X-8.32 Y-20.331 E50.56922
G1 X-8.072 Y-20.765 E50.59415
G1 X-7.815 Y-21.014 E50.61201
G1 X-7.373 Y-21.269 E50.63746
G1 X-6.821 Y-21.422 E50.66604
G1 X-6.585 Y-21.435 E50.67783
G1 X-.99 Y-21.425 E50.95697
G1 X4.604 Y-21.424 E51.23606
G1 X9.878 Y-21.436 E51.49918
G1 X10.44 Y-21.4 E51.52727
G1 X10.891 Y-21.257 E51.55088
G1 X11.302 Y-20.948 E51.57653
G1 X11.585 Y-20.557 E51.60061
G1 X11.721 Y-20.026 E51.62796
G1 X11.735 Y-19.897 E51.63443
G1 X11.725 Y-14.174 E51.91995
G1 X11.736 Y-9.109 E52.17265
G1 X11.745 Y-8.512 E52.20244
G1 X11.811 Y-7.982 E52.22908
G1 X11.944 Y-7.447 E52.25659
G1 X12.14 Y-6.942 E52.28361
G1 X12.398 Y-6.461 E52.31084
G0 F3600 X12.057 Y-6.252
G1 F1800 X12.39 Y-5.775 E52.33987
G1 X12.797 Y-5.324 E52.37017
G1 X13.243 Y-4.937 E52.39963
G1 X13.736 Y-4.607 E52.42923
G1 X14.263 Y-4.338 E52.45875
G1 X14.823 Y-4.134 E52.48849
G1 X15.392 Y-4.002 E52.51763
G1 X15.984 Y-3.94 E52.54732
G1 X16.336 Y-3.935 E52.56489
G1 X21.2 Y-3.936 E52.80755
G1 X21.319 Y-3.897 E52.8138
G1 X21.4 Y-3.736 E52.82279
G1 X21.4 Y20.835 E54.04864
G1 X21.361 Y20.954 E54.05489
G1 X21.2 Y21.035 E54.06388
G1 X15.643 Y21.025 E54.34112
G1 X-1.029 Y21.024 E55.17289
G1 X-6.265 Y21.036 E55.43412
G1 X-6.799 Y21.023 E55.46077
G1 X-7.287 Y20.87 E55.48628
G1 X-7.723 Y20.561 E55.51294
G1 X-7.928 Y20.245 E55.53174
G1 X-8 Y19.898 E55.54942
G1 X-8.001 Y-19.898 E57.53485
G1 X-7.898 Y-20.316 E57.55632
G1 X-7.604 Y-20.674 E57.57944
G1 X-7.132 Y-20.928 E57.60618
G1 X-6.797 Y-21.023 E57.62355
G1 X-6.586 Y-21.035 E57.63409
G1 X-.991 Y-21.025 E57.91323
G1 X4.605 Y-21.024 E58.19242
G1 X9.876 Y-21.036 E58.45539
G1 X10.367 Y-21.007 E58.47993
G1 X10.67 Y-20.924 E58.4956
G1 X10.987 Y-20.701 E58.51494
G1 X11.246 Y-20.326 E58.53767
G1 X11.335 Y-19.898 E58.55948
G1 X11.325 Y-14.175 E58.84501
G1 X11.336 Y-9.111 E59.09765
G1 X11.345 Y-8.493 E59.12849
G1 X11.419 Y-7.901 E59.15825
G1 X11.567 Y-7.312 E59.18855
G1 X11.778 Y-6.773 E59.21743
G1 X12.057 Y-6.252 E59.24691
G1 F1500 E52.74691
G1 F600 Z1.3
;MESH:Gopro_dummy.stl
G0 F3600 X15.921 Y-3.544 Z1.3
;TYPE:WALL-OUTER
G1 F600 Z0.3
G1 F1500 E59.49636
G1 F1800 X16.333 Y-3.535 E59.51692
G1 X21 Y-3.536 E59.74976
G1 X21 Y20.635 E60.95566
G1 X15.643 Y20.625 E61.22292
G1 X-1.029 Y20.624 E62.05469
G1 X-6.265 Y20.636 E62.31591
G1 X-6.752 Y20.624 E62.34022
G1 X-7.099 Y20.517 E62.35833
G1 X-7.426 Y20.292 E62.37814
G1 X-7.548 Y20.118 E62.38874
G1 X-7.6 Y19.88 E62.40089
G1 X-7.601 Y-19.88 E64.38453
G1 X-7.549 Y-20.116 E64.39658
G1 X-7.372 Y-20.347 E64.4111
G1 X-7.018 Y-20.544 E64.43131
G1 X-6.574 Y-20.635 E64.45393
G1 X-.991 Y-20.625 E64.73246
G1 X4.605 Y-20.624 E65.01165
G1 X9.876 Y-20.636 E65.27462
G1 X10.277 Y-20.617 E65.29465
G1 X10.477 Y-20.57 E65.3049
G1 X10.694 Y-20.427 E65.31787
G1 X10.863 Y-20.211 E65.33155
G1 X10.935 Y-19.881 E65.3484
G1 X10.925 Y-14.175 E65.63307
G1 X10.936 Y-9.111 E65.88572
G1 X10.945 Y-8.471 E65.91765
G1 X11.024 Y-7.834 E65.94967
G1 X11.18 Y-7.212 E65.98167
