;FLAVOR:Marlin
;TIME:2142
;Filament used: 5.74108m
;Layer height: 0.24
;MINX:-28.285
;MINY:-39.806
;MINZ:0.3
;MAXX:44.807
;MAXY:33.285
;MAXZ:30
;Generated with Cura_SteamEngine 4.13.1
M140 S40
M105
M190 S40
M104 S215
M105
M109 S215
M82 ;absolute extrusion mode
;FLAVOR:Marlin
M82 ;absolute extrusion mode
G21
G90
M82
M107 T0
G28
G92 E0
G0 E3 F200
G92 E0 ; reset extrusion distance
M106 S255 ; Enable cooling fan full speed
G1 X-98 Y0 Z0.4 F3000 ; move to arc start
G3 X0 Y-98 I98 Z0.4 E40 F400 ; lay arc stripe 90deg
G92 E0 ; reset extrusion distance
G4 P500 ; wait for 0.5 sec
G0 Z10 E-1 ; Lift 15mm and retract 1mm filament
G4 P2000 ; wait for 5 sec
G0 Z15
M107 ; Disable cooling fan
G1 X0 Y-85 Z4 E0 F3000 ; get off the bed
G92 E0
G92 E0
G1 F1500 E-6.5
;LAYER_COUNT:99
;LAYER:0
M107
G1 F600 Z1.3
G0 F3600 X-8.701 Y-6.735 Z1.3
;TYPE:SKIRT
G1 F600 Z0.3
G1 F1500 E0
G1 F2400 X11.92 Y13.885 E1.74587
G1 X12.241 Y13.696 E1.76817
G1 X12.958 Y13.365 E1.81545
G1 X13.705 Y13.109 E1.86272
G1 X14.475 Y12.93 E1.91005
G1 X15.258 Y12.829 E1.95731
G1 X15.859 Y12.806 E1.99332
G1 X16.025 Y12.806 E2.00326
G1 X16.814 Y12.846 E2.05056
G1 X17.594 Y12.965 E2.09779
G1 X18.359 Y13.163 E2.1451
G1 X18.556 Y13.236 E2.15768
G1 X18.426 Y12.855 E2.18178
G1 X18.247 Y12.086 E2.22905
G1 X18.147 Y11.302 E2.27637
G1 X18.124 Y10.707 E2.31201
G1 X18.124 Y10.541 E2.32195
G1 X18.164 Y9.752 E2.36925
G1 X18.283 Y8.972 E2.41649
G1 X18.481 Y8.207 E2.4638
G1 X18.556 Y8.005 E2.4767
G1 X-2.444 Y-12.993 E4.25461
G1 X-8.701 Y-6.735 E4.78441
G0 F3600 X-9.267 Y-6.735
G1 F2400 X11.855 Y14.386 E6.57269
G1 X12.48 Y14.022 E6.61599
G1 X13.182 Y13.707 E6.66206
G1 X13.912 Y13.467 E6.70806
G1 X14.664 Y13.303 E6.75414
G1 X15.428 Y13.219 E6.80016
G1 X16.025 Y13.206 E6.83591
G1 X16.793 Y13.246 E6.88195
G1 X17.553 Y13.365 E6.928
G1 X18.296 Y13.563 E6.97404
G1 X19.015 Y13.837 E7.0201
G1 X19.291 Y13.977 E7.03863
G1 X19.023 Y13.379 E7.07786
G1 X18.783 Y12.648 E7.12392
G1 X18.62 Y11.897 E7.16993
G1 X18.536 Y11.132 E7.216
G1 X18.524 Y10.541 E7.25139
G1 X18.564 Y9.773 E7.29743
G1 X18.683 Y9.013 E7.34349
G1 X18.881 Y8.27 E7.38952
G1 X19.021 Y7.904 E7.41298
G1 X-2.444 Y-13.559 E9.23027
G1 X-9.267 Y-6.735 E9.80799
G0 F3600 X-9.832 Y-6.735
G1 F2400 X11.811 Y14.907 E11.64038
G1 X12.068 Y14.721 E11.65937
G1 X12.718 Y14.351 E11.70415
G1 X13.403 Y14.051 E11.74892
G1 X14.117 Y13.826 E11.79374
G1 X14.85 Y13.679 E11.8385
G1 X15.859 Y13.606 E11.89906
G1 X16.025 Y13.606 E11.909
G1 X16.772 Y13.646 E11.95379
G1 X17.51 Y13.765 E11.99854
G1 X18.232 Y13.963 E12.04336
G1 X18.928 Y14.236 E12.08812
G1 X19.591 Y14.583 E12.13292
G1 X20.214 Y14.998 E12.17773
G1 X20.965 Y15.647 E12.23716
G1 X20.474 Y15.1 E12.28116
G1 X20.037 Y14.494 E12.32589
G1 X19.666 Y13.844 E12.3707
G1 X19.367 Y13.158 E12.4155
G1 X19.143 Y12.444 E12.4603
G1 X18.996 Y11.711 E12.50506
G1 X18.924 Y10.707 E12.56532
G1 X18.924 Y10.541 E12.57526
G1 X18.964 Y9.794 E12.62005
G1 X19.083 Y9.056 E12.6648
G1 X19.281 Y8.334 E12.70962
G1 X19.488 Y7.806 E12.74357
G1 X-2.444 Y-14.124 E14.60039
G1 X-9.832 Y-6.735 E15.22595
G0 F3600 X-10.398 Y-6.735
G1 F2400 X11.768 Y15.43 E17.10263
G1 X12.32 Y15.035 E17.14326
G1 X12.954 Y14.68 E17.18676
G1 X13.622 Y14.396 E17.23022
G1 X14.318 Y14.188 E17.27371
G1 X15.033 Y14.058 E17.31722
G1 X15.859 Y14.006 E17.36677
G1 X16.025 Y14.006 E17.3767
G1 X16.75 Y14.046 E17.42018
G1 X17.467 Y14.165 E17.46369
G1 X18.166 Y14.363 E17.50718
G1 X18.839 Y14.636 E17.55066
G1 X19.478 Y14.981 E17.59414
G1 X20.075 Y15.395 E17.63763
G1 X20.69 Y15.937 E17.68671
G1 X21.94 Y17.186 E17.7925
G1 X22.425 Y17.727 E17.836
G1 X22.847 Y18.318 E17.87947
G1 X23.202 Y18.952 E17.92298
G1 X23.485 Y19.621 E17.96646
G1 X23.693 Y20.317 E18.00995
G1 X23.823 Y21.031 E18.0534
G1 X23.875 Y21.855 E18.10283
G1 X23.875 Y22.021 E18.11277
G1 X23.835 Y22.746 E18.15624
G1 X23.716 Y23.463 E18.19975
G1 X23.518 Y24.162 E18.24325
G1 X23.245 Y24.835 E18.28673
G1 X22.9 Y25.474 E18.3302
G1 X22.486 Y26.071 E18.3737
G1 X21.94 Y26.69 E18.42311
G1 X19.928 Y28.7 E18.59338
G1 X19.538 Y29.062 E18.62523
G1 X18.966 Y29.549 E18.67021
G1 X18.147 Y30.144 E18.73081
G1 X17.473 Y30.559 E18.7782
G1 X16.541 Y31.036 E18.84088
G1 X15.803 Y31.342 E18.88871
G1 X14.806 Y31.665 E18.95145
G1 X14.047 Y31.846 E18.99817
G1 X13.795 Y31.901 E19.01361
G1 X12.994 Y32.011 E19.06202
G1 X12.207 Y32.07 E19.10926
G1 X11.169 Y32.065 E19.17141
G1 X10.396 Y32.001 E19.21784
G1 X9.4 Y31.842 E19.27823
G1 X8.642 Y31.66 E19.3249
G1 X8.198 Y31.537 E19.35248
G1 X7.593 Y31.314 E19.39108
G1 X6.873 Y31.009 E19.4379
G1 X5.985 Y30.551 E19.49771
G1 X5.313 Y30.137 E19.54497
G1 X4.46 Y29.512 E19.60828
G1 X3.857 Y28.991 E19.65598
G1 X3.505 Y28.664 E19.68475
G1 X-23.706 Y1.453 E21.98861
G1 X-24.079 Y1.048 E22.02157
G1 X-24.583 Y0.452 E22.0683
G1 X-25.174 Y-.368 E22.12881
G1 X-25.575 Y-1.024 E22.17484
G1 X-26.044 Y-1.946 E22.23677
G1 X-26.346 Y-2.677 E22.28413
G1 X-26.668 Y-3.675 E22.34691
G1 X-26.851 Y-4.447 E22.39441
G1 X-27.011 Y-5.477 E22.45681
G1 X-27.07 Y-6.266 E22.50418
G1 X-27.065 Y-7.303 E22.56626
G1 X-27.001 Y-8.076 E22.6127
G1 X-26.971 Y-8.366 E22.63015
G1 X-26.836 Y-9.101 E22.67489
G1 X-26.655 Y-9.848 E22.72091
G1 X-26.326 Y-10.849 E22.78399
G1 X-26.022 Y-11.573 E22.831
G1 X-25.57 Y-12.457 E22.89044
G1 X-25.178 Y-13.099 E22.93547
G1 X-24.577 Y-13.931 E22.99692
G1 X-24.066 Y-14.533 E23.04419
G1 X-23.701 Y-14.929 E23.07644
G1 X-13.18 Y-25.45 E23.96721
G1 X-13.452 Y-25.755 E23.99168
G1 X-13.875 Y-26.345 E24.03514
G1 X-14.23 Y-26.979 E24.07864
G1 X-14.513 Y-27.648 E24.12213
G1 X-14.721 Y-28.344 E24.16562
G1 X-14.851 Y-29.059 E24.20913
G1 X-14.903 Y-29.883 E24.25856
G1 X-14.903 Y-30.049 E24.2685
G1 X-14.863 Y-30.774 E24.31197
G1 X-14.744 Y-31.491 E24.35548
G1 X-14.546 Y-32.19 E24.39897
G1 X-14.273 Y-32.863 E24.44245
G1 X-13.928 Y-33.502 E24.48593
G1 X-13.514 Y-34.099 E24.52942
G1 X-12.97 Y-34.716 E24.57867
G1 X-11.013 Y-36.673 E24.74436
G1 X-10.472 Y-37.157 E24.78782
G1 X-9.881 Y-37.58 E24.83133
G1 X-9.247 Y-37.934 E24.8748
G1 X-8.578 Y-38.217 E24.91829
G1 X-7.882 Y-38.425 E24.96178
G1 X-7.167 Y-38.555 E25.00529
G1 X-6.346 Y-38.606 E25.05454
G1 X-6.18 Y-38.606 E25.06447
G1 X-5.455 Y-38.566 E25.10794
G1 X-4.738 Y-38.447 E25.15146
G1 X-4.039 Y-38.249 E25.19495
G1 X-3.366 Y-37.976 E25.23843
G1 X-2.727 Y-37.631 E25.28191
G1 X-2.13 Y-37.217 E25.3254
G1 X-1.513 Y-36.673 E25.37465
G1 X41.674 Y6.514 E29.03114
G1 X42.158 Y7.055 E29.0746
G1 X42.581 Y7.646 E29.11811
G1 X42.935 Y8.28 E29.16158
G1 X43.218 Y8.949 E29.20507
G1 X43.426 Y9.645 E29.24856
G1 X43.556 Y10.36 E29.29207
G1 X43.607 Y11.181 E29.34131
G1 X43.607 Y11.347 E29.35125
G1 X43.567 Y12.072 E29.39472
G1 X43.448 Y12.789 E29.43823
G1 X43.25 Y13.488 E29.48173
G1 X42.977 Y14.161 E29.52521
G1 X42.632 Y14.8 E29.56868
G1 X42.218 Y15.397 E29.61218
G1 X41.672 Y16.016 E29.66159
G1 X39.714 Y17.972 E29.82728
G1 X39.172 Y18.457 E29.87083
G1 X38.581 Y18.878 E29.91427
G1 X37.947 Y19.233 E29.95777
G1 X37.278 Y19.515 E30.00124
G1 X36.581 Y19.723 E30.04478
G1 X35.867 Y19.852 E30.08822
G1 X35.049 Y19.903 E30.13729
G1 X34.883 Y19.903 E30.14723
G1 X34.158 Y19.863 E30.1907
G1 X33.441 Y19.744 E30.23421
G1 X32.742 Y19.546 E30.2777
G1 X32.069 Y19.273 E30.32118
G1 X31.43 Y18.928 E30.36466
G1 X30.833 Y18.514 E30.40815
G1 X30.215 Y17.968 E30.45752
G1 X30.164 Y17.917 E30.46184
G1 X29.575 Y18.166 E30.50013
G1 X28.879 Y18.374 E30.54361
G1 X28.164 Y18.504 E30.58712
G1 X27.339 Y18.556 E30.63661
G1 X27.173 Y18.556 E30.64655
G1 X26.448 Y18.516 E30.69002
G1 X25.731 Y18.397 E30.73353
G1 X25.032 Y18.199 E30.77703
G1 X24.359 Y17.926 E30.82051
G1 X23.72 Y17.581 E30.86398
G1 X23.123 Y17.167 E30.90748
G1 X22.506 Y16.623 E30.95672
G1 X21.257 Y15.374 E31.06247
G1 X20.773 Y14.833 E31.10593
G1 X20.35 Y14.242 E31.14944
G1 X19.996 Y13.608 E31.19291
G1 X19.713 Y12.939 E31.2364
G1 X19.505 Y12.243 E31.27989
G1 X19.375 Y11.528 E31.3234
G1 X19.324 Y10.707 E31.37265
G1 X19.324 Y10.541 E31.38258
G1 X19.364 Y9.816 E31.42605
G1 X19.483 Y9.099 E31.46957
G1 X19.681 Y8.4 E31.51306
G1 X19.954 Y7.727 E31.55654
G1 X19.961 Y7.714 E31.55742
G1 X-2.444 Y-14.69 E33.45434
G1 X-10.398 Y-6.735 E34.12781
G0 F3600 X-10.964 Y-6.735
G1 F2400 X11.749 Y15.977 E36.0508
G1 X11.997 Y15.756 E36.07069
G1 X12.571 Y15.35 E36.11278
G1 X13.188 Y15.011 E36.15493
G1 X13.84 Y14.744 E36.19711
G1 X14.517 Y14.553 E36.23922
G1 X15.212 Y14.44 E36.28138
G1 X15.859 Y14.406 E36.32016
G1 X16.025 Y14.406 E36.3301
G1 X16.728 Y14.446 E36.37226
G1 X17.422 Y14.565 E36.41441
G1 X18.097 Y14.763 E36.45653
G1 X18.746 Y15.035 E36.49866
G1 X19.36 Y15.38 E36.54082
G1 X19.931 Y15.791 E36.58294
G1 X20.407 Y16.22 E36.6213
G1 X21.657 Y17.469 E36.72709
G1 X22.126 Y17.994 E36.76924
G1 X22.533 Y18.569 E36.81141
G1 X22.871 Y19.186 E36.85353
G1 X23.138 Y19.838 E36.89571
G1 X23.329 Y20.516 E36.93788
G1 X23.441 Y21.21 E36.97997
G1 X23.475 Y21.855 E37.01864
G1 X23.475 Y22.021 E37.02858
G1 X23.435 Y22.724 E37.07073
G1 X23.316 Y23.418 E37.11289
G1 X23.118 Y24.093 E37.155
G1 X22.846 Y24.742 E37.19713
G1 X22.501 Y25.356 E37.23929
G1 X22.09 Y25.927 E37.28141
G1 X21.657 Y26.407 E37.32011
G1 X19.645 Y28.417 E37.49038
G1 X19.632 Y28.404 E37.49148
G1 X19.278 Y28.758 E37.52145
G1 X18.706 Y29.245 E37.56643
G1 X17.938 Y29.803 E37.62326
G1 X17.264 Y30.218 E37.67065
G1 X16.388 Y30.666 E37.72955
G1 X15.65 Y30.972 E37.77738
G1 X14.713 Y31.276 E37.83636
G1 X13.954 Y31.457 E37.88307
G1 X13.717 Y31.509 E37.8976
G1 X12.965 Y31.612 E37.94304
G1 X12.178 Y31.671 E37.99029
G1 X11.202 Y31.667 E38.04872
G1 X10.429 Y31.603 E38.09516
G1 X9.493 Y31.453 E38.15191
G1 X8.735 Y31.271 E38.19858
G1 X8.318 Y31.155 E38.22449
G1 X7.749 Y30.946 E38.26078
G1 X7.029 Y30.641 E38.30759
G1 X6.195 Y30.211 E38.36377
G1 X5.523 Y29.797 E38.41102
G1 X4.722 Y29.209 E38.47051
G1 X4.119 Y28.688 E38.51822
G1 X3.788 Y28.381 E38.54525
G1 X-23.423 Y1.17 E40.84911
G1 X-23.773 Y0.789 E40.88008
G1 X-24.277 Y0.193 E40.92681
G1 X-24.833 Y-.576 E40.98362
G1 X-25.234 Y-1.232 E41.02965
G1 X-25.674 Y-2.099 E41.08786
G1 X-25.976 Y-2.83 E41.13521
G1 X-26.279 Y-3.767 E41.19417
G1 X-26.462 Y-4.539 E41.24167
G1 X-26.612 Y-5.507 E41.30031
G1 X-26.671 Y-6.296 E41.34768
G1 X-26.667 Y-7.27 E41.40599
G1 X-26.603 Y-8.043 E41.45243
G1 X-26.574 Y-8.316 E41.46886
G1 X-26.448 Y-9.007 E41.51091
G1 X-26.267 Y-9.754 E41.55693
G1 X-25.958 Y-10.694 E41.61617
G1 X-25.654 Y-11.418 E41.66318
G1 X-25.229 Y-12.249 E41.71906
G1 X-24.837 Y-12.891 E41.76409
G1 X-24.272 Y-13.672 E41.8218
G1 X-23.761 Y-14.274 E41.86908
G1 X-23.418 Y-14.646 E41.89937
G1 X-12.626 Y-25.438 E42.81309
G1 X-12.685 Y-25.497 E42.81809
G1 X-13.154 Y-26.022 E42.86023
G1 X-13.56 Y-26.597 E42.90237
G1 X-13.899 Y-27.214 E42.94452
G1 X-14.166 Y-27.865 E42.98664
G1 X-14.356 Y-28.543 E43.0288
G1 X-14.469 Y-29.238 E43.07095
G1 X-14.503 Y-29.883 E43.10962
G1 X-14.503 Y-30.049 E43.11956
G1 X-14.463 Y-30.752 E43.16172
G1 X-14.344 Y-31.446 E43.20387
G1 X-14.146 Y-32.121 E43.24598
G1 X-13.874 Y-32.77 E43.28811
G1 X-13.529 Y-33.384 E43.33028
G1 X-13.118 Y-33.955 E43.3724
G1 X-12.687 Y-34.433 E43.41093
G1 X-10.73 Y-36.39 E43.57662
G1 X-10.205 Y-36.859 E43.61877
G1 X-9.63 Y-37.265 E43.66091
G1 X-9.012 Y-37.603 E43.70308
G1 X-8.361 Y-37.87 E43.7452
G1 X-7.683 Y-38.06 E43.78736
G1 X-6.988 Y-38.173 E43.82951
G1 X-6.346 Y-38.206 E43.868
G1 X-6.18 Y-38.206 E43.87794
G1 X-5.477 Y-38.166 E43.92009
G1 X-4.783 Y-38.047 E43.96225
G1 X-4.108 Y-37.849 E44.00436
G1 X-3.459 Y-37.577 E44.04649
G1 X-2.845 Y-37.232 E44.08865
G1 X-2.274 Y-36.821 E44.13077
G1 X-1.796 Y-36.39 E44.16931
G1 X41.391 Y6.797 E47.8258
G1 X41.86 Y7.322 E47.86794
G1 X42.266 Y7.897 E47.91008
G1 X42.604 Y8.515 E47.95226
G1 X42.871 Y9.166 E47.99438
G1 X43.061 Y9.844 E48.03653
G1 X43.174 Y10.539 E48.07869
G1 X43.207 Y11.181 E48.11718
G1 X43.207 Y11.347 E48.12711
G1 X43.167 Y12.05 E48.16927
G1 X43.048 Y12.744 E48.21142
G1 X42.85 Y13.419 E48.25354
G1 X42.578 Y14.068 E48.29567
G1 X42.233 Y14.682 E48.33783
G1 X41.822 Y15.253 E48.37995
G1 X41.389 Y15.733 E48.41865
G1 X39.431 Y17.689 E48.58434
G1 X38.905 Y18.158 E48.62653
G1 X38.33 Y18.564 E48.66868
G1 X37.713 Y18.902 E48.71079
G1 X37.061 Y19.168 E48.75295
G1 X36.383 Y19.358 E48.79511
G1 X35.688 Y19.47 E48.83725
G1 X35.049 Y19.503 E48.87556
G1 X34.883 Y19.503 E48.8855
G1 X34.18 Y19.463 E48.92765
G1 X33.486 Y19.344 E48.96981
G1 X32.811 Y19.146 E49.01192
G1 X32.162 Y18.874 E49.05405
G1 X31.548 Y18.529 E49.09621
G1 X30.977 Y18.118 E49.13833
G1 X30.497 Y17.686 E49.17699
G1 X30.238 Y17.426 E49.19897
G1 X30.009 Y17.552 E49.21461
G1 X29.357 Y17.818 E49.25677
G1 X28.68 Y18.009 E49.29888
G1 X27.985 Y18.122 E49.34104
G1 X27.339 Y18.156 E49.37977
G1 X27.173 Y18.156 E49.38971
G1 X26.47 Y18.116 E49.43186
G1 X25.776 Y17.997 E49.47402
G1 X25.101 Y17.799 E49.51613
G1 X24.452 Y17.527 E49.55826
G1 X23.838 Y17.182 E49.60042
G1 X23.267 Y16.771 E49.64254
G1 X22.789 Y16.34 E49.68107
G1 X21.54 Y15.091 E49.78682
G1 X21.071 Y14.566 E49.82897
G1 X20.665 Y13.991 E49.87111
G1 X20.327 Y13.373 E49.91328
G1 X20.06 Y12.722 E49.95541
G1 X19.87 Y12.044 E49.99756
G1 X19.757 Y11.349 E50.03971
G1 X19.724 Y10.707 E50.0782
G1 X19.724 Y10.541 E50.08814
G1 X19.764 Y9.838 E50.13029
G1 X19.883 Y9.144 E50.17245
G1 X20.081 Y8.469 E50.21456
G1 X20.353 Y7.82 E50.25669
G1 X20.454 Y7.64 E50.26905
G1 X-2.444 Y-15.256 E52.20766
G1 X-10.964 Y-6.735 E52.92906
G0 F3600 X-11.529 Y-6.734
G1 F2400 X11.734 Y16.529 E54.89865
G1 X11.755 Y16.508 E54.90043
G1 X12.263 Y16.055 E54.94118
G1 X12.821 Y15.665 E54.98194
G1 X13.421 Y15.343 E55.0227
G1 X14.055 Y15.094 E55.06348
G1 X14.713 Y14.92 E55.10423
G1 X15.387 Y14.825 E55.14498
G1 X16.025 Y14.806 E55.18319
G1 X16.705 Y14.846 E55.22397
G1 X17.375 Y14.965 E55.26471
G1 X18.027 Y15.162 E55.30549
G1 X18.651 Y15.434 E55.34624
G1 X19.239 Y15.778 E55.38703
G1 X19.783 Y16.188 E55.42781
G1 X20.125 Y16.503 E55.45565
G1 X21.375 Y17.752 E55.56144
G1 X21.827 Y18.261 E55.60219
G1 X22.217 Y18.819 E55.64295
G1 X22.539 Y19.419 E55.68372
G1 X22.788 Y20.053 E55.72449
G1 X22.961 Y20.711 E55.76523
G1 X23.056 Y21.386 E55.80604
G1 X23.075 Y22.021 E55.84407
G1 X23.035 Y22.701 E55.88485
G1 X22.916 Y23.371 E55.92559
G1 X22.719 Y24.023 E55.96637
G1 X22.447 Y24.647 E56.00712
G1 X22.103 Y25.235 E56.0479
G1 X21.693 Y25.779 E56.08869
G1 X21.374 Y26.124 E56.11682
G1 X19.362 Y28.134 E56.28708
G1 X19.019 Y28.453 E56.31512
G1 X18.447 Y28.94 E56.3601
G1 X17.728 Y29.463 E56.41333
G1 X17.054 Y29.878 E56.46071
G1 X16.234 Y30.297 E56.51584
G1 X15.496 Y30.603 E56.56367
G1 X14.62 Y30.887 E56.61881
G1 X13.861 Y31.068 E56.66552
G1 X13.638 Y31.116 E56.67918
G1 X12.935 Y31.213 E56.72166
G1 X12.148 Y31.272 E56.76891
G1 X11.235 Y31.268 E56.82357
G1 X10.462 Y31.204 E56.87001
G1 X9.587 Y31.064 E56.92306
G1 X8.829 Y30.882 E56.96973
G1 X8.437 Y30.773 E56.99409
G1 X7.905 Y30.578 E57.02801
G1 X7.185 Y30.273 E57.07482
G1 X6.405 Y29.87 E57.12738
G1 X5.733 Y29.456 E57.17464
G1 X4.983 Y28.907 E57.23028
G1 X4.38 Y28.386 E57.27799
G1 X4.071 Y28.098 E57.30328
G1 X-23.14 Y0.887 E59.60714
G1 X-23.468 Y0.531 E59.63612
G1 X-23.972 Y-0.065 E59.68285
G1 X-24.492 Y-.785 E59.73602
G1 X-24.893 Y-1.441 E59.78205
G1 X-25.305 Y-2.251 E59.83646
G1 X-25.607 Y-2.982 E59.88381
G1 X-25.89 Y-3.859 E59.93898
G1 X-26.073 Y-4.631 E59.98648
G1 X-26.213 Y-5.536 E60.0413
G1 X-26.272 Y-6.325 E60.08867
G1 X-26.268 Y-7.237 E60.14327
G1 X-26.204 Y-8.01 E60.18971
G1 X-26.177 Y-8.266 E60.20512
G1 X-26.059 Y-8.913 E60.24449
G1 X-25.878 Y-9.66 E60.29051
G1 X-25.589 Y-10.539 E60.3459
G1 X-25.285 Y-11.263 E60.39291
G1 X-24.887 Y-12.041 E60.44523
G1 X-24.495 Y-12.683 E60.49027
G1 X-23.967 Y-13.413 E60.5442
G1 X-23.456 Y-14.015 E60.59148
