;FLAVOR:Marlin
;TIME:2176
;Filament used: 5.43358m
;Layer height: 0.24
;MINX:-27.46
;MINY:-40.785
;MINZ:0.3
;MAXX:45.79
;MAXY:32.465
;MAXZ:30
;Generated with Cura_SteamEngine 4.13.1
M140 S40
M105
M190 S40
M104 S215
M105
M109 S215
M82 ;absolute extrusion mode
;FLAVOR:Marlin
M82 ;absolute extrusion mode
G21
G90
M82
M107 T0
G28
G92 E0
G0 E3 F200
G92 E0 ; reset extrusion distance
M106 S255 ; Enable cooling fan full speed
G1 X-98 Y0 Z0.4 F3000 ; move to arc start
G3 X0 Y-98 I98 Z0.4 E40 F400 ; lay arc stripe 90deg
G92 E0 ; reset extrusion distance
G4 P500 ; wait for 0.5 sec
G0 Z10 E-1 ; Lift 15mm and retract 1mm filament
G4 P2000 ; wait for 5 sec
G0 Z15
M107 ; Disable cooling fan
G1 X0 Y-85 Z4 E0 F3000 ; get off the bed
G92 E0
G92 E0
G1 F1500 E-6.5
;LAYER_COUNT:99
;LAYER:0
M107
G1 F600 Z1.3
G0 F3600 X-23.262 Y2.463 Z1.3
;TYPE:SKIRT
G1 F600 Z0.3
G1 F1500 E0
G1 F2400 X-23.561 Y2.158 E0.02557
G1 X-24.458 Y1.199 E0.10418
G1 X-25.003 Y0.542 E0.15529
G1 X-25.203 Y0.276 E0.17521
G1 X-25.496 Y-.153 E0.20632
G1 X-25.787 Y-.627 E0.23961
G1 X-26.062 Y-1.108 E0.27279
G1 X-26.144 Y-1.267 E0.2835
G1 X-26.441 Y-1.917 E0.32628
G1 X-26.607 Y-2.313 E0.35199
G1 X-26.858 Y-2.965 E0.39381
G1 X-26.969 Y-3.32 E0.41608
G1 X-27.25 Y-4.502 E0.48882
G1 X-27.349 Y-5.082 E0.52404
G1 X-27.371 Y-5.305 E0.53746
G1 X-27.455 Y-6.433 E0.60518
G1 X-27.46 Y-6.63 E0.61698
G1 X-27.441 Y-7.4 E0.66309
G1 X-27.359 Y-8.348 E0.72005
G1 X-27.261 Y-8.93 E0.75539
G1 X-27.13 Y-9.52 E0.79157
G1 X-27 Y-10.032 E0.8232
G1 X-26.831 Y-10.587 E0.85793
G1 X-26.777 Y-10.737 E0.86747
G1 X-26.415 Y-11.628 E0.92505
G1 X-26.174 Y-12.134 E0.9586
G1 X-25.619 Y-13.177 E1.02934
G1 X-25.535 Y-13.326 E1.03958
G1 X-24.175 Y-15.806 E1.20891
G1 X-22.922 Y-18.254 E1.37355
G1 X-21.734 Y-20.746 E1.53883
G1 X-20.609 Y-23.288 E1.70525
G1 X-19.563 Y-25.844 E1.87059
G1 X-18.584 Y-28.447 E2.03709
G1 X-17.682 Y-31.065 E2.20286
G1 X-17.081 Y-32.956 E2.32165
G1 X-16.972 Y-33.31 E2.34383
G1 X-16.789 Y-33.875 E2.37939
G1 X-16.552 Y-34.532 E2.4212
G1 X-16.301 Y-35.063 E2.45636
G1 X-15.83 Y-35.845 E2.51102
G1 X-15.654 Y-36.084 E2.52879
G1 X-15.201 Y-36.62 E2.5708
G1 X-14.665 Y-37.195 E2.61786
G1 X-14.443 Y-37.42 E2.63678
G1 X-13.787 Y-38.077 E2.69237
G1 X-13.424 Y-38.434 E2.72285
G1 X-13.133 Y-38.707 E2.74674
G1 X-12.48 Y-39.282 E2.79883
G1 X-12.026 Y-39.612 E2.83243
G1 X-11.265 Y-40.053 E2.88509
G1 X-10.611 Y-40.34 E2.92784
G1 X-10.3 Y-40.451 E2.94761
G1 X-9.564 Y-40.645 E2.99318
G1 X-8.9 Y-40.747 E3.0334
G1 X-8.711 Y-40.761 E3.04475
G1 X-7.851 Y-40.785 E3.09625
G1 X-7.122 Y-40.757 E3.13993
G1 X-6.546 Y-40.711 E3.17452
G1 X-5.437 Y-40.616 E3.24116
G1 X-4.789 Y-40.556 E3.28012
G1 X-4.665 Y-40.541 E3.2876
G1 X-4.075 Y-40.449 E3.32335
G1 X-3.446 Y-40.298 E3.36207
G1 X-3.33 Y-40.264 E3.36931
G1 X-1.928 Y-39.813 E3.45748
G1 X-.938 Y-39.487 E3.51988
G1 X-.278 Y-39.253 E3.56181
G1 X0.339 Y-38.993 E3.60189
G1 X0.984 Y-38.645 E3.64577
G1 X1.418 Y-38.352 E3.67712
G1 X1.966 Y-37.916 E3.71904
G1 X2.33 Y-37.57 E3.74911
G1 X2.715 Y-37.141 E3.78362
G1 X2.824 Y-37.001 E3.79424
G1 X3.281 Y-36.355 E3.84161
G1 X3.572 Y-35.912 E3.87335
G1 X5.102 Y-33.508 E4.04395
G1 X6.637 Y-31.24 E4.2079
G1 X8.284 Y-28.951 E4.37673
G1 X9.947 Y-26.77 E4.54093
G1 X11.7 Y-24.604 E4.70775
G1 X13.501 Y-22.501 E4.87351
G1 X15.358 Y-20.454 E5.03898
G1 X17.745 Y-17.981 E5.24475
G1 X22.929 Y-12.797 E5.68366
G1 X23.925 Y-11.816 E5.76736
G1 X25.971 Y-9.88 E5.93599
G1 X28.032 Y-8.036 E6.10156
G1 X30.121 Y-6.272 E6.26525
G1 X32.306 Y-4.529 E6.43258
G1 X34.539 Y-2.851 E6.5998
G1 X36.768 Y-1.271 E6.76338
G1 X39.82 Y0.746 E6.98239
G1 X40.491 Y1.166 E7.02978
G1 X41.156 Y1.588 E7.07693
G1 X41.918 Y2.108 E7.13216
G1 X42.314 Y2.433 E7.16283
G1 X42.683 Y2.783 E7.19328
G1 X43.118 Y3.272 E7.23246
G1 X43.437 Y3.703 E7.26457
G1 X43.813 Y4.311 E7.30737
G1 X44.039 Y4.76 E7.33746
G1 X44.23 Y5.233 E7.368
G1 X44.48 Y5.958 E7.41391
G1 X44.772 Y6.812 E7.46794
G1 X45.048 Y7.642 E7.52031
G1 X45.174 Y8.045 E7.54559
G1 X45.421 Y8.928 E7.60048
G1 X45.514 Y9.428 E7.63093
G1 X45.606 Y10.271 E7.6817
G1 X45.727 Y11.769 E7.77167
G1 X45.769 Y12.414 E7.81037
G1 X45.79 Y13.055 E7.84877
G1 X45.787 Y13.225 E7.85894
G1 X45.746 Y13.918 E7.90051
G1 X45.653 Y14.51 E7.93638
G1 X45.457 Y15.272 E7.98349
G1 X45.188 Y15.982 E8.02894
G1 X44.951 Y16.469 E8.06137
G1 X44.67 Y16.942 E8.09431
G1 X44.35 Y17.389 E8.12722
G1 X44.001 Y17.821 E8.16047
G1 X43.76 Y18.081 E8.18169
G1 X42.946 Y18.917 E8.25155
G1 X42.49 Y19.374 E8.2902
G1 X42.127 Y19.731 E8.32068
G1 X41.836 Y20.004 E8.34456
G1 X41.183 Y20.579 E8.39665
G1 X40.729 Y20.909 E8.43026
G1 X40.006 Y21.332 E8.48041
G1 X39.553 Y21.545 E8.51037
G1 X39.269 Y21.652 E8.52854
G1 X37.67 Y22.166 E8.6291
G1 X37.163 Y22.33 E8.661
G1 X34.904 Y23.069 E8.80329
G1 X32.285 Y24.009 E8.96988
G1 X29.697 Y25.021 E9.13625
G1 X27.155 Y26.1 E9.30157
G1 X24.644 Y27.249 E9.46689
G1 X22.136 Y28.484 E9.63426
G1 X19.713 Y29.765 E9.79835
G1 X18.245 Y30.584 E9.89898
G1 X17.594 Y30.941 E9.94343
G1 X16.602 Y31.429 E10.00962
G1 X16.121 Y31.631 E10.04085
G1 X15.756 Y31.768 E10.06419
G1 X15.073 Y31.982 E10.10704
G1 X14.942 Y32.018 E10.11518
G1 X14.035 Y32.236 E10.17103
G1 X13.43 Y32.343 E10.20781
G1 X13.234 Y32.368 E10.21964
G1 X11.928 Y32.465 E10.29804
G1 X11.403 Y32.461 E10.32947
G1 X10.725 Y32.42 E10.37014
G1 X10.478 Y32.395 E10.385
G1 X9.693 Y32.282 E10.43248
G1 X9.56 Y32.258 E10.44057
G1 X8.817 Y32.098 E10.48607
G1 X8.32 Y31.965 E10.51687
G1 X7.813 Y31.807 E10.54867
G1 X7.662 Y31.749 E10.55835
G1 X6.799 Y31.393 E10.61424
G1 X6.332 Y31.178 E10.64502
G1 X6.149 Y31.08 E10.65745
G1 X5.669 Y30.809 E10.69045
G1 X5.115 Y30.464 E10.72952
G1 X5.011 Y30.394 E10.73703
G1 X4.426 Y29.971 E10.78025
G1 X3.996 Y29.628 E10.81318
G1 X3.836 Y29.489 E10.82587
G1 X3.263 Y28.97 E10.87215
G1 X2.688 Y28.413 E10.92008
G1 X-23.262 Y2.463 E13.11717
G0 F3600 X-22.977 Y2.182
G1 F2400 X-23.269 Y1.884 E13.14215
G1 X-24.157 Y0.935 E13.21996
G1 X-24.69 Y0.293 E13.26991
G1 X-24.872 Y0.05 E13.28809
G1 X-25.165 Y-.379 E13.31919
G1 X-25.445 Y-.835 E13.35123
G1 X-25.715 Y-1.306 E13.38373
G1 X-25.781 Y-1.434 E13.39235
G1 X-26.073 Y-2.073 E13.43441
G1 X-26.234 Y-2.457 E13.45934
G1 X-26.48 Y-3.095 E13.50028
G1 X-26.58 Y-3.413 E13.52024
G1 X-26.858 Y-4.58 E13.59206
G1 X-26.951 Y-5.125 E13.62516
G1 X-26.973 Y-5.335 E13.6378
G1 X-27.057 Y-6.463 E13.70552
G1 X-27.061 Y-6.621 E13.71498
G1 X-27.042 Y-7.377 E13.76025
G1 X-26.961 Y-8.305 E13.81602
G1 X-26.868 Y-8.855 E13.84942
G1 X-26.729 Y-9.477 E13.88757
G1 X-26.556 Y-10.128 E13.9279
G1 X-26.406 Y-10.586 E13.95675
G1 X-26.044 Y-11.477 E14.01433
G1 X-25.814 Y-11.959 E14.0463
G1 X-25.292 Y-12.941 E14.11288
G1 X-25.174 Y-13.151 E14.12731
G1 X-23.832 Y-15.599 E14.29444
G1 X-22.556 Y-18.09 E14.462
G1 X-21.377 Y-20.564 E14.62607
G1 X-20.244 Y-23.125 E14.79373
G1 X-19.18 Y-25.725 E14.96192
G1 X-18.216 Y-28.287 E15.1258
G1 X-17.302 Y-30.94 E15.29379
G1 X-16.693 Y-32.856 E15.41415
G1 X-16.591 Y-33.188 E15.43495
G1 X-16.413 Y-33.74 E15.46967
G1 X-16.181 Y-34.383 E15.51059
G1 X-15.943 Y-34.885 E15.54385
G1 X-15.495 Y-35.626 E15.59569
G1 X-15.348 Y-35.826 E15.61055
G1 X-14.861 Y-36.401 E15.65567
G1 X-14.376 Y-36.919 E15.69815
G1 X-13.505 Y-37.792 E15.77198
G1 X-12.908 Y-38.371 E15.82177
G1 X-12.215 Y-38.982 E15.87708
G1 X-11.799 Y-39.282 E15.90778
G1 X-11.077 Y-39.7 E15.95773
G1 X-10.465 Y-39.967 E15.99771
G1 X-9.79 Y-40.18 E16.04008
G1 X-9.263 Y-40.295 E16.07237
G1 X-8.7 Y-40.361 E16.10631
G1 X-7.854 Y-40.385 E16.15698
G1 X-7.146 Y-40.357 E16.1994
G1 X-6.58 Y-40.312 E16.23339
G1 X-5.473 Y-40.218 E16.2999
G1 X-4.825 Y-40.158 E16.33886
G1 X-4.726 Y-40.146 E16.34484
G1 X-4.136 Y-40.054 E16.38058
G1 X-3.545 Y-39.91 E16.417
G1 X-3.452 Y-39.883 E16.4228
G1 X-2.051 Y-39.432 E16.51091
G1 X-1.071 Y-39.11 E16.57267
G1 X-.423 Y-38.88 E16.61384
G1 X0.178 Y-38.627 E16.65287
G1 X0.785 Y-38.298 E16.69421
G1 X1.4 Y-37.869 E16.7391
G1 X1.94 Y-37.396 E16.78208
G1 X2.306 Y-37.003 E16.81423
G1 X2.498 Y-36.77 E16.83231
G1 X2.947 Y-36.135 E16.87887
G1 X3.234 Y-35.699 E16.91012
G1 X4.767 Y-33.291 E17.08101
G1 X6.328 Y-30.983 E17.24783
G1 X7.956 Y-28.72 E17.41472
G1 X9.633 Y-26.521 E17.58029
G1 X11.386 Y-24.355 E17.74711
G1 X13.2 Y-22.238 E17.91402
G1 X15.072 Y-20.173 E18.08088
G1 X17.457 Y-17.703 E18.28644
G1 X22.649 Y-12.512 E18.72599
G1 X23.65 Y-11.525 E18.81015
G1 X25.671 Y-9.612 E18.97675
G1 X27.78 Y-7.726 E19.14613
G1 X29.872 Y-5.959 E19.31008
G1 X32.063 Y-4.212 E19.47784
G1 X34.308 Y-2.524 E19.646
G1 X36.545 Y-.938 E19.81017
G1 X39.607 Y1.085 E20.02988
G1 X40.276 Y1.504 E20.07714
G1 X40.987 Y1.956 E20.12758
G1 X41.692 Y2.438 E20.17871
G1 X42.081 Y2.761 E20.20898
G1 X42.652 Y3.344 E20.25783
G1 X43.112 Y3.936 E20.30272
G1 X43.464 Y4.506 E20.34283
G1 X43.798 Y5.223 E20.39018
G1 X43.852 Y5.363 E20.39916
G1 X44.094 Y6.066 E20.44367
G1 X44.392 Y6.937 E20.49879
G1 X44.666 Y7.763 E20.55089
G1 X44.789 Y8.153 E20.57537
G1 X45.036 Y9.036 E20.63026
G1 X45.158 Y9.793 E20.67617
G1 X45.21 Y10.332 E20.70859
G1 X45.327 Y11.796 E20.79651
G1 X45.369 Y12.428 E20.83443
G1 X45.39 Y13.055 E20.87199
G1 X45.387 Y13.201 E20.88073
G1 X45.346 Y13.894 E20.9223
G1 X45.26 Y14.439 E20.95533
G1 X45.074 Y15.157 E20.99973
G1 X44.821 Y15.824 E21.04244
G1 X44.508 Y16.439 E21.08375
G1 X44.027 Y17.152 E21.13525
G1 X43.7 Y17.557 E21.16641
G1 X43.473 Y17.802 E21.1864
G1 X42.659 Y18.638 E21.25626
G1 X42.208 Y19.089 E21.29444
G1 X41.611 Y19.668 E21.34423
G1 X40.918 Y20.279 E21.39955
G1 X40.502 Y20.579 E21.43025
G1 X39.819 Y20.978 E21.47761
G1 X39.238 Y21.238 E21.51572
G1 X39.146 Y21.271 E21.52157
G1 X37.554 Y21.783 E21.62169
G1 X37.038 Y21.95 E21.65415
G1 X34.748 Y22.7 E21.79842
G1 X32.153 Y23.631 E21.96347
G1 X29.562 Y24.644 E22.13003
G1 X26.998 Y25.732 E22.29678
G1 X24.445 Y26.901 E22.46488
G1 X21.98 Y28.115 E22.62938
G1 X19.487 Y29.432 E22.79818
G1 X18.283 Y30.103 E22.8807
G1 X17.726 Y30.416 E22.91895
G1 X17.357 Y30.613 E22.94399
G1 X16.435 Y31.065 E23.00547
G1 X15.968 Y31.261 E23.03579
G1 X15.636 Y31.386 E23.05703
G1 X14.953 Y31.6 E23.09988
G1 X14.849 Y31.629 E23.10634
G1 X13.942 Y31.847 E23.16219
G1 X13.363 Y31.949 E23.19739
G1 X13.205 Y31.969 E23.20692
G1 X11.899 Y32.066 E23.28532
G1 X11.427 Y32.062 E23.31358
G1 X10.674 Y32.015 E23.35875
G1 X10.535 Y31.999 E23.36713
G1 X9.75 Y31.886 E23.41461
G1 X9.644 Y31.867 E23.42106
G1 X8.914 Y31.71 E23.46576
G1 X8.428 Y31.58 E23.49588
G1 X7.862 Y31.398 E23.53147
G1 X6.964 Y31.029 E23.5896
G1 X6.387 Y30.755 E23.62784
G1 X5.873 Y30.464 E23.6632
G1 X5.328 Y30.126 E23.70159
G1 X5.245 Y30.07 E23.70759
G1 X4.668 Y29.653 E23.75021
G1 X4.257 Y29.325 E23.78169
G1 X4.105 Y29.193 E23.79374
G1 X3.539 Y28.68 E23.83947
G1 X2.97 Y28.129 E23.88689
G1 X-22.977 Y2.182 E26.08373
G0 F3600 X-22.692 Y1.901
G1 F2400 X-22.978 Y1.611 E26.10812
G1 X-23.857 Y0.672 E26.18512
G1 X-24.378 Y0.043 E26.23402
G1 X-24.542 Y-.175 E26.25035
G1 X-24.835 Y-.604 E26.28145
G1 X-25.12 Y-1.071 E26.31421
G1 X-25.417 Y-1.6 E26.35053
G1 X-25.704 Y-2.228 E26.39187
G1 X-25.861 Y-2.601 E26.41609
G1 X-26.102 Y-3.225 E26.45614
G1 X-26.191 Y-3.506 E26.47379
G1 X-26.466 Y-4.659 E26.54475
G1 X-26.553 Y-5.168 E26.57567
G1 X-26.574 Y-5.365 E26.58753
G1 X-26.658 Y-6.493 E26.65525
G1 X-26.661 Y-6.611 E26.66231
G1 X-26.642 Y-7.355 E26.70687
G1 X-26.563 Y-8.262 E26.76138
G1 X-26.475 Y-8.781 E26.79289
G1 X-26.341 Y-9.378 E26.82952
G1 X-26.172 Y-10.017 E26.86909
G1 X-26.036 Y-10.436 E26.89546
G1 X-25.674 Y-11.327 E26.95304
G1 X-25.454 Y-11.784 E26.98341
G1 X-24.939 Y-12.753 E27.0491
G1 X-24.826 Y-12.954 E27.06291
G1 X-23.483 Y-15.403 E27.23012
G1 X-22.2 Y-17.908 E27.39862
G1 X-21.008 Y-20.409 E27.56449
G1 X-19.879 Y-22.96 E27.7315
G1 X-18.81 Y-25.573 E27.90052
G1 X-17.838 Y-28.158 E28.06586
G1 X-16.917 Y-30.831 E28.23512
G1 X-16.312 Y-32.735 E28.35473
G1 X-16.21 Y-33.065 E28.3754
G1 X-16.036 Y-33.605 E28.40937
G1 X-15.809 Y-34.235 E28.44946
G1 X-15.585 Y-34.707 E28.48074
G1 X-15.161 Y-35.407 E28.52974
G1 X-15.043 Y-35.568 E28.54169
G1 X-14.564 Y-36.133 E28.58603
G1 X-14.086 Y-36.643 E28.62788
G1 X-13.878 Y-36.855 E28.64566
G1 X-13.224 Y-37.508 E28.70099
G1 X-12.634 Y-38.079 E28.75014
G1 X-11.951 Y-38.682 E28.80469
G1 X-11.537 Y-38.976 E28.83509
G1 X-10.89 Y-39.347 E28.87974
G1 X-10.32 Y-39.594 E28.91693
G1 X-9.687 Y-39.793 E28.95666
G1 X-9.069 Y-39.919 E28.99442
G1 X-8.688 Y-39.961 E29.01736
G1 X-7.856 Y-39.985 E29.0672
G1 X-7.169 Y-39.958 E29.10836
G1 X-6.614 Y-39.914 E29.14169
G1 X-5.51 Y-39.82 E29.20802
G1 X-4.862 Y-39.76 E29.24698
G1 X-4.788 Y-39.751 E29.25145
G1 X-4.198 Y-39.659 E29.28719
G1 X-3.644 Y-39.523 E29.32135
G1 X-3.574 Y-39.503 E29.3257
G1 X-2.183 Y-39.055 E29.41319
G1 X-1.204 Y-38.732 E29.47491
G1 X-.567 Y-38.507 E29.51536
G1 X0.017 Y-38.26 E29.55332
G1 X0.585 Y-37.952 E29.592
G1 X1.163 Y-37.547 E29.63426
G1 X1.668 Y-37.103 E29.67451
G1 X2.01 Y-36.734 E29.70463
G1 X2.172 Y-36.538 E29.71986
G1 X2.613 Y-35.915 E29.76555
G1 X2.895 Y-35.486 E29.79629
G1 X4.422 Y-33.087 E29.96654
G1 X6.005 Y-30.748 E30.13563
G1 X7.629 Y-28.49 E30.30214
G1 X9.313 Y-26.282 E30.46839
G1 X11.087 Y-24.089 E30.63726
G1 X12.899 Y-21.974 E30.804
G1 X14.767 Y-19.914 E30.97048
G1 X17.155 Y-17.441 E31.17629
G1 X22.374 Y-12.222 E31.61817
G1 X23.375 Y-11.235 E31.70233
G1 X25.417 Y-9.303 E31.87062
G1 X27.512 Y-7.429 E32.03891
G1 X29.642 Y-5.63 E32.20582
G1 X31.818 Y-3.895 E32.37244
G1 X34.04 Y-2.224 E32.53888
G1 X36.326 Y-.604 E32.70662
G1 X39.392 Y1.422 E32.92663
G1 X40.062 Y1.842 E32.97397
G1 X40.761 Y2.286 E33.02355
G1 X41.466 Y2.768 E33.07468
G1 X42.016 Y3.245 E33.11827
G1 X42.356 Y3.613 E33.14826
G1 X42.787 Y4.17 E33.19042
G1 X43.115 Y4.701 E33.22779
G1 X43.429 Y5.377 E33.27241
G1 X43.473 Y5.494 E33.2799
G1 X43.718 Y6.202 E33.32475
G1 X44.014 Y7.067 E33.37948
G1 X44.198 Y7.626 E33.41472
G1 X44.392 Y8.222 E33.45224
G1 X44.651 Y9.144 E33.50958
G1 X44.761 Y9.844 E33.552
G1 X44.81 Y10.346 E33.5822
G1 X44.928 Y11.823 E33.6709
G1 X44.969 Y12.442 E33.70804
G1 X44.99 Y13.055 E33.74476
G1 X44.988 Y13.178 E33.75213
G1 X44.947 Y13.871 E33.79369
G1 X44.866 Y14.368 E33.82384
G1 X44.691 Y15.042 E33.86553
G1 X44.454 Y15.665 E33.90543
G1 X44.161 Y16.24 E33.94407
G1 X43.705 Y16.915 E33.99284
G1 X43.38 Y17.315 E34.02369
G1 X43.187 Y17.523 E34.04068
G1 X42.362 Y18.371 E34.11151
G1 X41.927 Y18.805 E34.1483
G1 X41.337 Y19.376 E34.19745
G1 X40.654 Y19.979 E34.252
G1 X40.242 Y20.272 E34.28226
G1 X39.631 Y20.625 E34.32451
G1 X39.093 Y20.866 E34.3598
G1 X39.024 Y20.89 E34.36418
G1 X37.363 Y21.424 E34.46863
G1 X34.655 Y22.309 E34.63919
G1 X32.009 Y23.258 E34.80748
G1 X29.408 Y24.275 E34.97468
G1 X26.819 Y25.374 E35.14307
G1 X24.301 Y26.527 E35.30887
G1 X21.771 Y27.773 E35.47771
G1 X19.324 Y29.066 E35.6434
G1 X17.858 Y29.883 E35.74387
G1 X17.217 Y30.235 E35.78766
G1 X16.269 Y30.701 E35.8509
G1 X15.786 Y30.903 E35.88224
G1 X15.517 Y31.004 E35.89944
G1 X14.834 Y31.218 E35.94229
G1 X14.755 Y31.24 E35.9472
G1 X13.848 Y31.458 E36.00305
G1 X13.297 Y31.554 E36.03653
G1 X13.175 Y31.57 E36.0439
G1 X11.869 Y31.667 E36.1223
G1 X11.452 Y31.663 E36.14727
G1 X10.774 Y31.622 E36.18793
G1 X10.592 Y31.603 E36.19889
G1 X9.807 Y31.49 E36.24637
G1 X9.727 Y31.476 E36.25123
G1 X9.012 Y31.322 E36.29502
G1 X8.508 Y31.187 E36.32626
G1 X8.002 Y31.023 E36.3581
G1 X7.168 Y30.681 E36.41207
G1 X6.705 Y30.47 E36.44253
G1 X6.542 Y30.384 E36.45356
G1 X6.077 Y30.12 E36.48557
G1 X5.541 Y29.787 E36.52335
G1 X5.479 Y29.745 E36.52784
G1 X4.911 Y29.335 E36.56977
G1 X4.519 Y29.023 E36.59977
G1 X4.373 Y28.896 E36.61135
G1 X3.815 Y28.391 E36.65641
G1 X3.251 Y27.844 E36.70345
G1 X-22.692 Y1.901 E38.89995
G0 F3600 X-22.407 Y1.62
