;FLAVOR:Marlin
;TIME:4258
;Filament used: 2.96514m
;Layer height: 0.12
;MINX:-25.601
;MINY:-24.521
;MINZ:0.3
;MAXX:25.599
;MAXY:24.499
;MAXZ:14.26
;Generated with Cura_SteamEngine 4.13.1
M140 S40
M105
M190 S40
M104 S215
M105
M109 S215
M82 ;absolute extrusion mode
;FLAVOR:Marlin
M82 ;absolute extrusion mode
G21
G90
M82
M107 T0
G28
G92 E0
G0 E3 F200
G92 E0 ; reset extrusion distance
M106 S255 ; Enable cooling fan full speed
G1 X-98 Y0 Z0.4 F3000 ; move to arc start
G3 X0 Y-98 I98 Z0.4 E40 F400 ; lay arc stripe 90deg
G92 E0 ; reset extrusion distance
G4 P500 ; wait for 0.5 sec
G0 Z10 E-1 ; Lift 15mm and retract 1mm filament
G4 P2000 ; wait for 5 sec
G0 Z15
M107 ; Disable cooling fan
G1 X0 Y-85 Z4 E0 F3000 ; get off the bed
G92 E0
G92 E0
G1 F1500 E-6.5
;LAYER_COUNT:110
;LAYER:0
M107
G1 F600 Z1.3
G0 F3600 X6.333 Y6.788 Z1.3
;TYPE:SKIRT
G1 F600 Z0.3
G1 F1500 E0.3326
G1 F1350 X7.929 Y-6.024 E1.58866
G1 X8.038 Y-6.674 E1.65278
G1 X8.177 Y-7.256 E1.71099
G1 X8.352 Y-7.828 E1.76919
G1 X8.575 Y-8.418 E1.83055
G1 X8.824 Y-8.963 E1.88884
G1 X8.899 Y-9.108 E1.90472
G1 X8.875 Y-10.193 E2.0103
G1 X8.83 Y-11.682 E2.15523
G1 X8.797 Y-12.486 E2.23351
G1 X8.769 Y-12.987 E2.28233
G1 X8.752 Y-13.222 E2.30525
G1 X-8.753 Y-13.221 E4.00824
G1 X-8.789 Y-12.613 E4.06749
G1 X-8.8 Y-12.436 E4.08475
G1 X-8.842 Y-11.389 E4.18669
G1 X-8.862 Y-10.672 E4.25647
G1 X-8.881 Y-10.005 E4.32138
G1 X-8.9 Y-9.109 E4.40857
G1 X-8.566 Y-8.397 E4.48508
G1 X-8.357 Y-7.843 E4.54269
G1 X-8.195 Y-7.323 E4.59567
G1 X-8.038 Y-6.675 E4.66054
G1 X-7.938 Y-6.086 E4.71866
G1 X-7.923 Y-5.983 E4.72879
G1 X-6.323 Y6.872 E5.98905
G1 X-6.28 Y7.385 E6.03913
G1 X-6.266 Y7.995 E6.09849
G1 X-6.297 Y8.623 E6.15966
G1 X-6.372 Y9.235 E6.21964
G1 X-6.558 Y10.092 E6.30496
G1 X-6.72 Y10.62 E6.35869
G1 X-6.922 Y11.148 E6.41369
G1 X-7.26 Y11.846 E6.48913
G1 X-7.583 Y12.387 E6.55043
G1 X-7.944 Y12.895 E6.61106
G1 X-8.337 Y13.364 E6.67059
G1 X-8.728 Y13.768 E6.72529
G1 X-9.193 Y14.18 E6.78573
G1 X-9.652 Y14.529 E6.84182
G1 X-10.075 Y14.806 E6.89101
G1 X-10.531 Y15.064 E6.94198
G1 X-10.563 Y15.304 E6.96554
G1 X-10.41 Y16.055 E7.0401
G1 X-10.335 Y16.605 E7.0941
G1 X-10.302 Y17.181 E7.15023
G1 X-10.315 Y17.749 E7.20551
G1 X-10.373 Y18.314 E7.26076
G1 X-10.477 Y18.881 E7.31684
G1 X-10.625 Y19.432 E7.37235
G1 X-10.816 Y19.97 E7.42789
G1 X-11.039 Y20.474 E7.48151
G1 X-11.322 Y20.994 E7.5391
G1 X-11.627 Y21.463 E7.59353
G1 X-11.979 Y21.918 E7.64949
G1 X-12.358 Y22.337 E7.70446
G1 X-12.77 Y22.726 E7.75958
G1 X-13.218 Y23.086 E7.81549
G1 X-13.702 Y23.413 E7.87232
G1 X-14.174 Y23.683 E7.92522
G1 X-14.695 Y23.93 E7.98131
G1 X-15.24 Y24.135 E8.03796
G1 X-15.786 Y24.291 E8.09321
G1 X-16.336 Y24.404 E8.14783
G1 X-16.909 Y24.474 E8.20399
G1 X-17.472 Y24.499 E8.25882
G1 X-18.048 Y24.478 E8.31489
G1 X-18.603 Y24.414 E8.36924
G1 X-19.179 Y24.3 E8.42636
G1 X-19.712 Y24.15 E8.48023
G1 X-20.256 Y23.95 E8.53662
G1 X-20.764 Y23.716 E8.59103
G1 X-21.27 Y23.433 E8.64743
G1 X-21.745 Y23.114 E8.7031
G1 X-22.186 Y22.764 E8.75787
G1 X-22.607 Y22.372 E8.81383
G1 X-22.988 Y21.959 E8.8685
G1 X-23.349 Y21.495 E8.92569
G1 X-23.657 Y21.027 E8.9802
G1 X-23.929 Y20.537 E9.03472
G1 X-24.165 Y20.02 E9.09001
G1 X-24.364 Y19.471 E9.14682
G1 X-24.513 Y18.925 E9.20188
G1 X-24.619 Y18.365 E9.25733
G1 X-24.681 Y17.804 E9.31224
G1 X-24.699 Y17.235 E9.36762
G1 X-24.67 Y16.66 E9.42363
G1 X-24.6 Y16.106 E9.47796
G1 X-24.477 Y15.525 E9.53573
G1 X-24.32 Y14.996 E9.58942
G1 X-24.112 Y14.454 E9.64589
G1 X-23.872 Y13.949 E9.70029
G1 X-23.569 Y13.428 E9.75892
G1 X-23.231 Y12.942 E9.81651
G1 X-22.977 Y12.538 E9.86294
G1 X-22.814 Y12.083 E9.90996
G1 X-22.759 Y11.582 E9.95899
G1 X-22.828 Y11.081 E10.00819
G1 X-23.016 Y10.609 E10.05762
G1 X-23.321 Y9.939 E10.12924
G1 X-23.509 Y9.439 E10.18121
G1 X-23.704 Y8.801 E10.24611
G1 X-23.824 Y8.293 E10.29689
G1 X-23.935 Y7.636 E10.36171
G1 X-25.533 Y-5.198 E11.61992
G1 X-25.582 Y-5.716 E11.67054
G1 X-25.601 Y-6.447 E11.74168
G1 X-25.567 Y-7.06 E11.80141
G1 X-25.476 Y-7.76 E11.87008
G1 X-25.371 Y-8.261 E11.91988
G1 X-25.223 Y-8.804 E11.97463
G1 X-24.958 Y-9.526 E12.04946
G1 X-24.719 Y-10.047 E12.10522
G1 X-24.349 Y-10.697 E12.17798
G1 X-24.013 Y-11.17 E12.23443
G1 X-23.528 Y-11.779 E12.31017
G1 X-23.11 Y-12.208 E12.36844
G1 X-22.59 Y-12.66 E12.43547
G1 X-22.073 Y-13.036 E12.49766
G1 X-21.459 Y-13.409 E12.56755
G1 X-20.893 Y-13.691 E12.62907
G1 X-20.201 Y-13.963 E12.70141
G1 X-19.653 Y-14.131 E12.75717
G1 X-18.892 Y-14.296 E12.83293
G1 X-18.311 Y-14.374 E12.88996
G1 X-17.589 Y-14.418 E12.96033
G1 X-17.049 Y-14.414 E13.01286
G1 X-17 Y-14.629 E13.03431
G1 X-17 Y-15.187 E13.0886
G1 X-16.964 Y-15.843 E13.15252
G1 X-16.884 Y-16.373 E13.20466
G1 X-16.758 Y-16.898 E13.25719
G1 X-16.592 Y-17.397 E13.30835
G1 X-16.382 Y-17.883 E13.35985
G1 X-16.141 Y-18.334 E13.4096
G1 X-15.686 Y-18.998 E13.48791
G1 X-15.316 Y-19.426 E13.54295
G1 X-14.886 Y-19.839 E13.60095
G1 X-14.3 Y-20.284 E13.67254
G1 X-13.862 Y-20.551 E13.72244
G1 X-13.392 Y-20.785 E13.77352
G1 X-12.678 Y-21.047 E13.84751
G1 X-11.953 Y-21.211 E13.91983
G1 X-11.243 Y-21.286 E13.98928
G1 X-11 Y-21.291 E14.01293
G1 X10.704 Y-21.291 E16.12442
G1 X11.141 Y-21.815 E16.1908
G1 X11.525 Y-22.212 E16.24453
G1 X11.975 Y-22.614 E16.30324
G1 X12.441 Y-22.973 E16.36047
G1 X12.913 Y-23.288 E16.41567
G1 X13.418 Y-23.577 E16.47228
G1 X13.967 Y-23.839 E16.53146
G1 X14.499 Y-24.048 E16.58706
G1 X15.063 Y-24.225 E16.64457
G1 X15.628 Y-24.36 E16.70109
G1 X16.216 Y-24.455 E16.75903
G1 X16.823 Y-24.509 E16.81832
G1 X17.358 Y-24.521 E16.87038
G1 X17.969 Y-24.489 E16.9299
G1 X18.542 Y-24.419 E16.98606
G1 X19.103 Y-24.311 E17.04164
G1 X19.683 Y-24.154 E17.1001
G1 X20.216 Y-23.97 E17.15495
G1 X20.774 Y-23.73 E17.21405
G1 X21.289 Y-23.464 E17.27044
G1 X21.782 Y-23.165 E17.32653
G1 X22.261 Y-22.825 E17.38368
G1 X22.704 Y-22.462 E17.4394
G1 X23.136 Y-22.051 E17.4974
G1 X23.526 Y-21.626 E17.55352
G1 X23.899 Y-21.155 E17.61197
G1 X24.231 Y-20.664 E17.66963
G1 X24.515 Y-20.18 E17.72423
G1 X24.781 Y-19.636 E17.78314
G1 X24.992 Y-19.121 E17.83728
G1 X25.18 Y-18.542 E17.89651
G1 X25.32 Y-17.98 E17.95285
G1 X25.421 Y-17.395 E18.01061
G1 X25.48 Y-16.815 E18.06732
G1 X25.498 Y-16.242 E18.1231
G1 X25.475 Y-15.646 E18.18112
G1 X25.414 Y-15.088 E18.23573
G1 X25.303 Y-14.488 E18.29509
G1 X25.158 Y-13.928 E18.35137
G1 X24.972 Y-13.374 E18.40822
G1 X24.748 Y-12.834 E18.4651
G1 X24.486 Y-12.313 E18.52183
G1 X24.191 Y-11.816 E18.57806
G1 X23.878 Y-11.363 E18.63163
G1 X24.227 Y-10.885 E18.6892
G1 X24.605 Y-10.261 E18.76018
G1 X24.833 Y-9.811 E18.80926
G1 X25.074 Y-9.238 E18.86973
G1 X25.312 Y-8.493 E18.94582
G1 X25.452 Y-7.887 E19.00633
G1 X25.56 Y-7.144 E19.07937
G1 X25.599 Y-6.512 E19.14097
G1 X25.585 Y-5.746 E19.21551
G1 X25.534 Y-5.198 E19.26905
G1 X23.933 Y7.648 E20.52845
G1 X23.827 Y8.283 E20.59108
G1 X23.701 Y8.814 E20.64418
G1 X23.5 Y9.463 E20.71027
G1 X23.318 Y9.949 E20.76076
G1 X22.995 Y10.65 E20.83585
G1 X22.808 Y11.162 E20.88888
G1 X22.762 Y11.706 E20.94199
G1 X22.864 Y12.256 E20.99641
G1 X23.035 Y12.649 E21.03811
G1 X23.141 Y12.82 E21.05768
G1 X23.44 Y13.235 E21.10744
G1 X23.755 Y13.738 E21.16518
G1 X24.023 Y14.255 E21.22183
G1 X24.244 Y14.782 E21.27743
G1 X24.425 Y15.341 E21.33459
G1 X24.555 Y15.872 E21.38777
G1 X24.646 Y16.436 E21.44335
G1 X24.692 Y16.999 E21.49831
G1 X24.694 Y17.574 E21.55425
G1 X24.647 Y18.158 E21.61125
G1 X24.561 Y18.7 E21.66463
G1 X24.426 Y19.261 E21.72077
G1 X24.251 Y19.801 E21.77599
G1 X24.023 Y20.345 E21.83338
G1 X23.763 Y20.847 E21.88838
G1 X23.465 Y21.328 E21.94342
G1 X23.136 Y21.778 E21.99766
G1 X22.754 Y22.22 E22.05449
G1 X22.349 Y22.619 E22.1098
G1 X21.925 Y22.978 E22.16385
G1 X21.458 Y23.313 E22.21976
G1 X20.969 Y23.608 E22.27532
G1 X20.443 Y23.869 E22.33245
G1 X19.925 Y24.077 E22.38675
G1 X19.376 Y24.249 E22.44272
G1 X18.846 Y24.372 E22.49565
G1 X18.24 Y24.46 E22.55523
G1 X17.708 Y24.496 E22.6071
G1 X17.131 Y24.49 E22.66324
G1 X16.549 Y24.436 E22.7201
G1 X16.023 Y24.346 E22.77202
G1 X15.434 Y24.196 E22.83115
G1 X14.907 Y24.016 E22.88533
G1 X14.385 Y23.79 E22.94066
G1 X13.871 Y23.516 E22.99733
G1 X13.4 Y23.216 E23.05166
G1 X12.944 Y22.873 E23.10717
G1 X12.517 Y22.494 E23.16271
G1 X12.114 Y22.075 E23.21927
G1 X11.761 Y21.645 E23.27339
G1 X11.433 Y21.172 E23.32939
G1 X11.148 Y20.687 E23.38412
G1 X10.893 Y20.155 E23.44151
G1 X10.695 Y19.646 E23.49465
G1 X10.525 Y19.075 E23.55261
G1 X10.41 Y18.541 E23.60575
G1 X10.333 Y17.964 E23.66238
G1 X10.302 Y17.405 E23.71685
G1 X10.314 Y16.856 E23.77027
G1 X10.378 Y16.252 E23.82936
G1 X10.473 Y15.732 E23.88078
G1 X10.565 Y15.241 E23.92938
G1 X10.532 Y15.066 E23.94671
G1 X9.997 Y14.756 E24.00686
G1 X9.476 Y14.4 E24.06825
G1 X8.991 Y14.009 E24.12886
G1 X8.539 Y13.581 E24.18942
G1 X8.115 Y13.109 E24.25114
G1 X7.802 Y12.705 E24.30086
G1 X7.361 Y12.026 E24.37963
G1 X7.035 Y11.402 E24.44812
G1 X6.814 Y10.876 E24.50363
G1 X6.614 Y10.29 E24.56386
G1 X6.458 Y9.681 E24.62502
G1 X6.349 Y9.071 E24.68531
G1 X6.28 Y8.39 E24.7519
G1 X6.266 Y7.774 E24.81184
G1 X6.288 Y7.319 E24.85616
G0 F1215 X6.295 Y7.161
G0 X6.333 Y6.788
G0 F3600 X6.73 Y6.838
G1 F1350 X8.326 Y-5.974 E26.11222
G1 X8.428 Y-6.585 E26.17249
G1 X8.56 Y-7.143 E26.22827
G1 X8.731 Y-7.7 E26.28495
G1 X8.941 Y-8.256 E26.34277
G1 X9.179 Y-8.779 E26.39868
G1 X9.301 Y-9.015 E26.42452
G1 X9.275 Y-10.202 E26.54003
G1 X9.228 Y-11.718 E26.68758
G1 X9.197 Y-12.502 E26.76391
G1 X9.168 Y-13.01 E26.81342
G1 X9.118 Y-13.622 E26.87315
G1 X-9.117 Y-13.621 E28.64716
G1 X-9.146 Y-13.336 E28.67503
G1 X-9.183 Y-12.798 E28.7275
G1 X-9.2 Y-12.451 E28.76129
G1 X-9.241 Y-11.428 E28.8609
G1 X-9.261 Y-10.689 E28.93282
G1 X-9.281 Y-10.036 E28.99638
G1 X-9.302 Y-9.048 E29.09252
G1 X-9.07 Y-8.551 E29.14588
G1 X-8.732 Y-7.705 E29.2345
G1 X-8.578 Y-7.208 E29.28512
G1 X-8.428 Y-6.587 E29.34728
G1 X-8.333 Y-6.023 E29.40292
G1 X-8.32 Y-5.933 E29.41176
G1 X-6.721 Y6.912 E30.67105
G1 X-6.679 Y7.412 E30.71986
G1 X-6.666 Y7.995 E30.77659
G1 X-6.696 Y8.593 E30.83484
G1 X-6.768 Y9.177 E30.89209
G1 X-6.946 Y9.997 E30.97372
G1 X-7.095 Y10.48 E31.02289
G1 X-7.288 Y10.986 E31.07558
G1 X-7.616 Y11.664 E31.14885
G1 X-7.923 Y12.177 E31.20702
G1 X-8.266 Y12.658 E31.26449
G1 X-8.639 Y13.102 E31.3209
G1 X-8.998 Y13.473 E31.37113
G1 X-9.439 Y13.864 E31.42847
G1 X-9.877 Y14.199 E31.48211
G1 X-10.397 Y14.533 E31.54224
G1 X-10.802 Y14.762 E31.5875
G1 X-10.926 Y14.976 E31.61156
G1 X-10.961 Y15.347 E31.64782
G1 X-10.802 Y16.132 E31.72574
G1 X-10.732 Y16.653 E31.77688
G1 X-10.702 Y17.196 E31.82978
G1 X-10.715 Y17.733 E31.88204
G1 X-10.77 Y18.267 E31.93427
G1 X-10.869 Y18.802 E31.9872
G1 X-11.009 Y19.322 E32.03959
G1 X-11.191 Y19.83 E32.09209
G1 X-11.402 Y20.307 E32.14283
G1 X-11.669 Y20.796 E32.19703
G1 X-11.959 Y21.239 E32.24854
G1 X-12.291 Y21.668 E32.30132
G1 X-12.65 Y22.064 E32.35332
G1 X-13.04 Y22.431 E32.40542
G1 X-13.463 Y22.77 E32.45815
G1 X-13.92 Y23.078 E32.51177
G1 X-14.368 Y23.334 E32.56196
G1 X-14.859 Y23.565 E32.61475
G1 X-15.374 Y23.758 E32.66826
G1 X-15.89 Y23.905 E32.72046
G1 X-16.41 Y24.011 E32.77208
G1 X-16.951 Y24.077 E32.82511
G1 X-17.483 Y24.099 E32.87691
G1 X-18.026 Y24.078 E32.92977
G1 X-18.551 Y24.017 E32.98119
G1 X-19.094 Y23.909 E33.03505
G1 X-19.598 Y23.767 E33.08599
G1 X-20.111 Y23.577 E33.13921
G1 X-20.592 Y23.356 E33.19071
G1 X-21.068 Y23.088 E33.24386
G1 X-21.516 Y22.786 E33.29642
G1 X-21.933 Y22.455 E33.34821
G1 X-22.33 Y22.084 E33.40107
G1 X-22.689 Y21.693 E33.45271
G1 X-23.029 Y21.255 E33.50666
G1 X-23.32 Y20.812 E33.55822
G1 X-23.576 Y20.348 E33.60978
G1 X-23.799 Y19.86 E33.66197
G1 X-23.985 Y19.342 E33.71552
G1 X-24.125 Y18.826 E33.76753
G1 X-24.225 Y18.297 E33.81991
G1 X-24.283 Y17.766 E33.87188
G1 X-24.299 Y17.229 E33.92414
G1 X-24.271 Y16.687 E33.97694
G1 X-24.204 Y16.162 E34.02843
G1 X-24.087 Y15.616 E34.08275
G1 X-23.938 Y15.115 E34.1336
G1 X-23.741 Y14.604 E34.18688
G1 X-23.513 Y14.127 E34.23832
G1 X-23.227 Y13.635 E34.29368
G1 X-22.906 Y13.175 E34.34825
G1 X-22.618 Y12.715 E34.40105
G1 X-22.425 Y12.176 E34.45675
G1 X-22.36 Y11.664 E34.50696
G1 X-22.396 Y11.191 E34.55311
G1 X-22.539 Y10.682 E34.60454
G1 X-22.805 Y10.124 E34.66468
G1 X-23.093 Y9.417 E34.73895
G1 X-23.319 Y8.693 E34.81274
G1 X-23.482 Y7.953 E34.88645
G1 X-23.547 Y7.522 E34.92886
G1 X-25.143 Y-5.308 E36.18666
G1 X-25.198 Y-6.035 E36.25759
G1 X-25.197 Y-6.597 E36.31226
G1 X-25.138 Y-7.307 E36.38157
G1 X-25.048 Y-7.875 E36.43752
G1 X-24.886 Y-8.536 E36.50373
G1 X-24.7 Y-9.096 E36.56114
G1 X-24.432 Y-9.724 E36.62756
G1 X-24.162 Y-10.234 E36.6837
G1 X-23.794 Y-10.811 E36.75028
G1 X-23.415 Y-11.302 E36.81062
G1 X-22.974 Y-11.783 E36.87411
G1 X-22.538 Y-12.183 E36.93167
G1 X-21.977 Y-12.618 E37.00073
G1 X-21.492 Y-12.929 E37.05678
G1 X-20.873 Y-13.259 E37.12503
G1 X-20.352 Y-13.482 E37.18016
G1 X-19.68 Y-13.708 E37.24914
G1 X-19.108 Y-13.85 E37.30647
G1 X-18.401 Y-13.962 E37.37611
G1 X-17.855 Y-14.008 E37.42942
G1 X-17.179 Y-14.014 E37.49519
G1 X-16.896 Y-14.034 E37.52279
G1 X-16.7 Y-14.215 E37.54874
G1 X-16.613 Y-14.464 E37.5744
G1 X-16.6 Y-14.617 E37.58934
G1 X-16.6 Y-15.187 E37.64479
G1 X-16.567 Y-15.793 E37.70384
G1 X-16.493 Y-16.288 E37.75253
G1 X-16.376 Y-16.779 E37.80163
G1 X-16.118 Y-17.499 E37.87604
G1 X-15.801 Y-18.124 E37.94422
G1 X-15.365 Y-18.759 E38.01915
G1 X-15.02 Y-19.157 E38.0704
G1 X-14.626 Y-19.535 E38.12351
G1 X-14.085 Y-19.947 E38.18967
G1 X-13.476 Y-20.303 E38.2583
G1 X-12.812 Y-20.584 E38.32844
G1 X-12.157 Y-20.768 E38.39463
G1 X-11.509 Y-20.865 E38.45837
G1 X-11 Y-20.891 E38.50796
G1 X10.906 Y-20.891 E40.6391
G1 X11.442 Y-21.552 E40.72189
G1 X11.81 Y-21.931 E40.77329
G1 X12.237 Y-22.312 E40.82896
G1 X12.68 Y-22.653 E40.88335
G1 X13.131 Y-22.953 E40.93604
G1 X13.612 Y-23.228 E40.98995
G1 X14.134 Y-23.476 E41.04617
G1 X14.641 Y-23.674 E41.09912
G1 X15.178 Y-23.842 E41.15386
G1 X15.716 Y-23.969 E41.20764
G1 X16.275 Y-24.06 E41.26274
G1 X16.853 Y-24.11 E41.31918
G1 X17.363 Y-24.121 E41.36881
G1 X17.942 Y-24.09 E41.42521
G1 X18.488 Y-24.022 E41.47874
G1 X19.022 Y-23.919 E41.53165
G1 X19.573 Y-23.769 E41.58721
G1 X20.081 Y-23.593 E41.63951
G1 X20.611 Y-23.365 E41.69564
G1 X21.101 Y-23.111 E41.74933
G1 X21.57 Y-22.826 E41.80273
G1 X22.025 Y-22.502 E41.85707
G1 X22.446 Y-22.156 E41.91008
G1 X22.857 Y-21.764 E41.96534
G1 X23.228 Y-21.359 E42.01877
G1 X23.581 Y-20.911 E42.07426
G1 X23.898 Y-20.444 E42.12917
G1 X24.167 Y-19.982 E42.18118
G1 X24.419 Y-19.465 E42.23713
G1 X24.62 Y-18.973 E42.28884
G1 X24.798 Y-18.424 E42.34498
G1 X24.93 Y-17.888 E42.39869
G1 X25.026 Y-17.332 E42.45358
G1 X25.082 Y-16.779 E42.50765
G1 X25.099 Y-16.234 E42.5607
G1 X25.075 Y-15.667 E42.61591
G1 X25.017 Y-15.137 E42.66778
G1 X24.911 Y-14.565 E42.72437
G1 X24.772 Y-14.033 E42.77787
G1 X24.595 Y-13.506 E42.83195
G1 X24.38 Y-12.993 E42.88607
G1 X24.13 Y-12.497 E42.9401
G1 X23.85 Y-12.024 E42.99358
G1 X23.528 Y-11.561 E43.04844
G1 X23.367 Y-11.356 E43.0738
G1 X23.803 Y-10.795 E43.14292
G1 X24.121 Y-10.303 E43.19992
G1 X24.473 Y-9.635 E43.27337
G1 X24.697 Y-9.104 E43.32944
G1 X24.928 Y-8.383 E43.4031
G1 X25.058 Y-7.82 E43.45931
G1 X25.163 Y-7.097 E43.53038
G1 X25.199 Y-6.508 E43.58779
G1 X25.185 Y-5.764 E43.66019
G1 X25.137 Y-5.248 E43.7106
G1 X23.537 Y7.591 E44.96932
G1 X23.434 Y8.208 E45.03017
G1 X23.316 Y8.704 E45.07977
G1 X23.121 Y9.337 E45.14421
G1 X22.839 Y10.049 E45.21871
G1 X22.544 Y10.673 E45.28586
G1 X22.395 Y11.188 E45.33802
G1 X22.363 Y11.73 E45.39084
G1 X22.436 Y12.214 E45.43846
G1 X22.608 Y12.696 E45.48825
G1 X22.834 Y13.078 E45.53143
G1 X23.234 Y13.648 E45.59917
G1 X23.516 Y14.134 E45.65384
G1 X23.748 Y14.619 E45.70614
G1 X23.946 Y15.139 E45.76027
