;FLAVOR:Marlin
;TIME:4507
;Filament used: 4.7289m
;Layer height: 0.24
;MINX:-30.246
;MINY:-27.66
;MINZ:0.3
;MAXX:30.246
;MAXY:27.643
;MAXZ:24.78
;Generated with Cura_SteamEngine 4.13.1
M140 S50
M105
M190 S50
M104 S215
M105
M109 S215
M82 ;absolute extrusion mode
;FLAVOR:Marlin
M82 ;absolute extrusion mode
G21
G90
M82
M107 T0
G28
G92 E0
G0 E3 F200
G92 E0 ; reset extrusion distance
M106 S255 ; Enable cooling fan full speed
G1 X-98 Y0 Z0.4 F3000 ; move to arc start
G3 X0 Y-98 I98 Z0.4 E40 F400 ; lay arc stripe 90deg
G92 E0 ; reset extrusion distance
G4 P500 ; wait for 0.5 sec
G0 Z10 E-1 ; Lift 15mm and retract 1mm filament
G4 P2000 ; wait for 5 sec
G0 Z15
M107 ; Disable cooling fan
G1 X0 Y-85 Z4 E0 F3000 ; get off the bed
G92 E0
G92 E0
G1 F1500 E-6.5
;LAYER_COUNT:104
;LAYER:0
M107
G1 F600 Z1.3
G0 F3600 X4.801 Y-23.313 Z1.3
;TYPE:SKIRT
G1 F600 Z0.3
G1 F1500 E0.12473
G1 F1350 X6.136 Y-23.515 E0.21364
G1 X8.746 Y-23.995 E0.38841
G1 X8.372 Y-23.52 E0.42822
G1 X6.106 Y-23.107 E0.57991
G1 X5.933 Y-23.086 E0.59138
G1 X5.302 Y-23.228 E0.63398
G0 F1215 X5.052 Y-23.283
G0 X4.801 Y-23.313
G0 F3600 X4.703 Y-22.906
G1 F1350 X4.152 Y-23.231 E0.67611
G1 X3.416 Y-23.509 E0.72792
G1 X6.07 Y-23.91 E0.90468
G1 X8.815 Y-24.414 E1.08847
G1 X9.899 Y-24.644 E1.16145
G1 X9.847 Y-24.594 E1.1662
G1 X9.287 Y-24.02 E1.21901
G1 X8.81 Y-23.446 E1.26816
G1 X8.606 Y-23.157 E1.29146
G1 X6.165 Y-22.711 E1.45487
G1 X5.898 Y-22.671 E1.47265
G1 X5.817 Y-22.702 E1.47836
G1 X5.229 Y-22.834 E1.51805
G0 F1215 X4.994 Y-22.886
G0 X4.703 Y-22.906
G0 F3600 X4.58 Y-22.514
G1 F1350 X3.978 Y-22.869 E1.56407
G1 X3.227 Y-23.153 E1.61695
G1 X2.461 Y-23.324 E1.66863
G1 X1.736 Y-23.376 E1.7165
G1 X-.689 Y-23.376 E1.8762
G1 X-1.629 Y-23.286 E1.93839
G1 X-2.405 Y-23.073 E1.99138
G1 X-3.122 Y-22.761 E2.04288
G1 X-3.738 Y-22.378 E2.09064
G1 X-5.703 Y-20.951 E2.25057
G1 X-6.41 Y-20.329 E2.31259
G1 X-6.581 Y-20.117 E2.33052
G1 X-6.997 Y-19.937 E2.36037
G1 X-9.643 Y-18.863 E2.54843
G1 X-12.271 Y-17.888 E2.73303
G1 X-15.04 Y-16.948 E2.9256
G1 X-16.284 Y-16.566 E3.0113
G1 X-16.724 Y-16.604 E3.04038
G1 X-17.571 Y-16.62 E3.09617
G1 X-18.164 Y-16.595 E3.13526
G1 X-18.989 Y-16.505 E3.18991
G1 X-19.582 Y-16.403 E3.22954
G1 X-20.381 Y-16.206 E3.28373
G1 X-20.989 Y-16.014 E3.32572
G1 X-21.812 Y-15.69 E3.38397
G1 X-22.408 Y-15.401 E3.42759
G1 X-23.08 Y-15.014 E3.47866
G1 X-23.601 Y-14.667 E3.51988
G1 X-24.242 Y-14.17 E3.5733
G1 X-24.751 Y-13.714 E3.6183
G1 X-25.347 Y-13.094 E3.67494
G1 X-25.76 Y-12.596 E3.71754
G1 X-26.213 Y-11.966 E3.76864
G1 X-26.57 Y-11.385 E3.81355
G1 X-26.957 Y-10.634 E3.86919
G1 X-27.206 Y-10.06 E3.91039
G1 X-27.469 Y-9.314 E3.96249
G1 X-27.636 Y-8.711 E4.00369
G1 X-27.801 Y-7.904 E4.05794
G1 X-27.886 Y-7.294 E4.09849
G1 X-27.946 Y-6.444 E4.15461
G1 X-27.948 Y-5.847 E4.19393
G1 X-27.9 Y-5.038 E4.2473
G1 X-27.874 Y-4.745 E4.26667
G1 X-26.265 Y8.164 E5.12337
G1 X-26.156 Y8.825 E5.16749
G1 X-26.023 Y9.437 E5.20873
G1 X-25.914 Y9.837 E5.23603
G1 X-25.713 Y10.46 E5.27914
G1 X-25.572 Y10.841 E5.3059
G1 X-25.321 Y11.446 E5.34903
G1 X-25.19 Y11.721 E5.36909
G1 X-25.536 Y12.208 E5.40844
G1 X-25.945 Y12.898 E5.46126
G1 X-26.266 Y13.552 E5.50924
G1 X-26.561 Y14.295 E5.56188
G1 X-26.667 Y14.642 E5.58578
G1 X-26.717 Y13.854 E5.63777
G1 X-26.974 Y11.085 E5.82091
G1 X-27.432 Y7.497 E6.05912
G1 X-27.687 Y5.746 E6.17564
G1 X-28.94 Y-4.319 E6.84359
G1 X-29.026 Y-5.112 E6.89612
G1 X-29.046 Y-5.458 E6.91895
G1 X-29.044 Y-6.098 E6.96109
G1 X-29.015 Y-7.635 E7.06233
G1 X-28.973 Y-8.198 E7.09951
G1 X-28.854 Y-8.793 E7.13947
G1 X-28.458 Y-9.986 E7.22225
G1 X-28.17 Y-10.779 E7.27781
G1 X-27.969 Y-11.285 E7.31367
G1 X-27.76 Y-11.773 E7.34863
G1 X-27.555 Y-12.176 E7.3784
G1 X-27.241 Y-12.705 E7.41891
G1 X-26.99 Y-13.101 E7.44979
G1 X-26.547 Y-13.689 E7.49827
G1 X-26.441 Y-13.814 E7.50907
G1 X-26.032 Y-14.277 E7.54975
G1 X-25.61 Y-14.693 E7.58877
G1 X-24.927 Y-15.267 E7.64753
G1 X-24.458 Y-15.608 E7.68571
G1 X-24.01 Y-15.888 E7.72051
G1 X-23.413 Y-16.232 E7.76588
G1 X-22.886 Y-16.473 E7.80404
G1 X-21.834 Y-16.914 E7.87916
G1 X-20.929 Y-17.299 E7.94393
G1 X-20.233 Y-17.511 E7.99185
G1 X-18.24 Y-18.06 E8.12798
G1 X-15.585 Y-18.873 E8.31084
G1 X-12.955 Y-19.766 E8.49375
G1 X-10.352 Y-20.733 E8.67662
G1 X-7.784 Y-21.776 E8.85915
G1 X-6.374 Y-22.383 E8.96025
G1 X-5.465 Y-22.785 E9.0257
G1 X-5.048 Y-22.943 E9.05507
G1 X-4.502 Y-23.086 E9.09224
G1 X-3.958 Y-23.165 E9.12844
G1 X-2.493 Y-23.278 E9.2252
G1 X-2.262 Y-23.293 E9.24045
G1 X0.502 Y-23.55 E9.42326
G1 X3.257 Y-23.889 E9.60606
G1 X6.004 Y-24.305 E9.78902
G1 X8.737 Y-24.806 E9.972
G1 X11.473 Y-25.387 E10.1562
G1 X11.4 Y-25.341 E10.16188
G1 X10.733 Y-24.842 E10.21674
G1 X10.289 Y-24.464 E10.25514
G1 X10.129 Y-24.31 E10.26977
G1 X9.585 Y-23.752 E10.32109
G1 X9.128 Y-23.202 E10.36818
G1 X8.838 Y-22.792 E10.40125
G1 X6.262 Y-22.321 E10.57371
G1 X5.856 Y-22.26 E10.60074
G1 X5.702 Y-22.318 E10.61158
G1 X5.107 Y-22.451 E10.65173
G0 F1215 X4.936 Y-22.489
G0 X4.58 Y-22.514
G0 F3600 X4.878 Y-22.092
G1 F1350 X4.457 Y-22.122 E10.67953
G1 X3.804 Y-22.507 E10.72945
G1 X3.112 Y-22.769 E10.77818
G1 X2.403 Y-22.927 E10.82601
G1 X1.722 Y-22.976 E10.87098
G1 X-.67 Y-22.976 E11.0285
G1 X-1.557 Y-22.891 E11.08718
G1 X-2.272 Y-22.695 E11.13601
G1 X-2.936 Y-22.406 E11.1837
G1 X-3.515 Y-22.046 E11.22859
G1 X-5.453 Y-20.638 E11.38635
G1 X-6.12 Y-20.051 E11.44486
G1 X-6.331 Y-19.789 E11.46702
G1 X-6.847 Y-19.566 E11.50403
G1 X-9.493 Y-18.492 E11.69209
G1 X-12.142 Y-17.509 E11.87817
G1 X-14.911 Y-16.569 E12.07074
G1 X-16.243 Y-16.161 E12.16248
G1 X-16.745 Y-16.204 E12.19566
G1 X-17.566 Y-16.22 E12.24974
G1 X-18.134 Y-16.196 E12.28718
G1 X-18.933 Y-16.109 E12.34011
G1 X-19.5 Y-16.011 E12.378
G1 X-20.273 Y-15.821 E12.43042
G1 X-20.855 Y-15.637 E12.47062
G1 X-21.651 Y-15.323 E12.52697
G1 X-22.221 Y-15.047 E12.56868
G1 X-22.869 Y-14.674 E12.61792
G1 X-23.367 Y-14.342 E12.65733
G1 X-23.986 Y-13.863 E12.70888
G1 X-24.473 Y-13.426 E12.75197
G1 X-25.048 Y-12.827 E12.80665
G1 X-25.443 Y-12.351 E12.84738
G1 X-25.88 Y-11.744 E12.89664
G1 X-26.221 Y-11.188 E12.93959
G1 X-26.595 Y-10.463 E12.99332
G1 X-26.833 Y-9.914 E13.03272
G1 X-27.087 Y-9.194 E13.083
G1 X-27.247 Y-8.617 E13.12243
G1 X-27.407 Y-7.836 E13.17493
G1 X-27.488 Y-7.252 E13.21376
G1 X-27.546 Y-6.429 E13.2681
G1 X-27.548 Y-5.858 E13.3057
G1 X-27.501 Y-5.068 E13.35782
G1 X-27.476 Y-4.788 E13.37633
G1 X-25.882 Y8.016 E14.22605
G1 X-25.764 Y8.746 E14.27474
G1 X-25.634 Y9.342 E14.31492
G1 X-25.53 Y9.723 E14.34093
G1 X-25.335 Y10.329 E14.38285
G1 X-25.2 Y10.695 E14.40854
G1 X-24.955 Y11.283 E14.45049
G1 X-24.72 Y11.764 E14.48574
G1 X-24.791 Y11.85 E14.49309
G1 X-25.2 Y12.426 E14.53961
G1 X-25.593 Y13.088 E14.59031
G1 X-25.9 Y13.714 E14.63623
G1 X-26.183 Y14.427 E14.68674
G1 X-26.395 Y15.121 E14.73453
G1 X-26.561 Y15.898 E14.78686
G1 X-26.651 Y16.561 E14.83092
G1 X-26.69 Y17.19 E14.87242
G1 X-26.69 Y17.728 E14.90785
G1 X-26.651 Y18.336 E14.94797
G1 X-26.574 Y18.935 E14.98775
G1 X-26.433 Y19.631 E15.03451
G1 X-26.238 Y20.308 E15.08091
G1 X-25.958 Y21.056 E15.13351
G1 X-25.645 Y21.711 E15.18131
G1 X-25.255 Y22.386 E15.23265
G1 X-24.85 Y22.974 E15.27967
G1 X-24.353 Y23.578 E15.33118
G1 X-23.853 Y24.096 E15.37859
G1 X-23.281 Y24.598 E15.42871
G1 X-22.733 Y25.008 E15.47378
G1 X-22.073 Y25.427 E15.52527
G1 X-21.437 Y25.76 E15.57254
G1 X-20.725 Y26.063 E15.6235
G1 X-20.031 Y26.29 E15.67159
G1 X-19.296 Y26.468 E15.72139
G1 X-18.785 Y26.559 E15.75557
G1 X-18.529 Y26.586 E15.77253
G1 X-17.779 Y26.64 E15.82204
G1 X-17.05 Y26.634 E15.87005
G1 X-16.267 Y26.562 E15.92184
G1 X-15.569 Y26.439 E15.96851
G1 X-14.831 Y26.248 E16.01871
G1 X-14.162 Y26.018 E16.0653
G1 X-13.444 Y25.703 E16.11694
G1 X-12.808 Y25.358 E16.16459
G1 X-12.162 Y24.935 E16.21544
G1 X-11.605 Y24.506 E16.26174
G1 X-11.045 Y23.994 E16.31171
G1 X-10.507 Y23.415 E16.36376
G1 X-10.269 Y23.114 E16.38903
G1 X-7.909 Y22.887 E16.54516
G1 X-5.074 Y22.698 E16.73228
G1 X-2.205 Y22.591 E16.92134
G1 X0.626 Y22.568 E17.10779
G1 X3.477 Y22.628 E17.29558
G1 X6.311 Y22.769 E17.48245
G1 X9.152 Y22.996 E17.67014
G1 X10.27 Y23.119 E17.74421
G1 X10.738 Y23.688 E17.79272
G1 X11.081 Y24.028 E17.82453
G1 X11.705 Y24.583 E17.87952
G1 X12.249 Y24.998 E17.92458
G1 X12.838 Y25.376 E17.97067
G1 X13.447 Y25.705 E18.01626
G1 X14.158 Y26.017 E18.06739
G1 X14.832 Y26.248 E18.11431
G1 X15.575 Y26.44 E18.16485
G1 X16.265 Y26.562 E18.21099
G1 X17.038 Y26.634 E18.26212
G1 X17.759 Y26.64 E18.3096
G1 X18.541 Y26.585 E18.36123
G1 X19.236 Y26.479 E18.40753
G1 X19.99 Y26.301 E18.45855
G1 X20.719 Y26.06 E18.50911
G1 X21.498 Y25.725 E18.56495
G1 X22.111 Y25.405 E18.61049
G1 X22.713 Y25.025 E18.65738
G1 X23.263 Y24.613 E18.70263
G1 X23.837 Y24.109 E18.75294
G1 X24.212 Y23.742 E18.78749
G1 X24.403 Y23.522 E18.80668
G1 X24.867 Y22.948 E18.85528
G1 X25.262 Y22.376 E18.90106
G1 X25.647 Y21.709 E18.95178
G1 X25.951 Y21.072 E18.99826
G1 X26.23 Y20.342 E19.04973
G1 X26.432 Y19.634 E19.09821
G1 X26.585 Y18.86 E19.15017
G1 X26.668 Y18.152 E19.19712
G1 X26.694 Y17.38 E19.24798
G1 X26.662 Y16.672 E19.29466
G1 X26.566 Y15.921 E19.34452
G1 X26.424 Y15.244 E19.39007
G1 X26.21 Y14.508 E19.44055
G1 X26.03 Y14.003 E19.47585
G1 X25.916 Y13.752 E19.49401
G1 X25.593 Y13.085 E19.54281
G1 X25.229 Y12.471 E19.58982
G1 X24.787 Y11.84 E19.64055
G1 X24.725 Y11.766 E19.64691
G1 X25.001 Y11.182 E19.68945
G1 X25.152 Y10.817 E19.71546
G1 X25.37 Y10.226 E19.75695
G1 X25.484 Y9.87 E19.78156
G1 X25.654 Y9.252 E19.82377
G1 X25.75 Y8.824 E19.85266
G1 X25.85 Y8.228 E19.89246
G1 X25.878 Y8.037 E19.90517
G1 X27.489 Y-4.897 E20.76352
G1 X27.532 Y-5.442 E20.79953
G1 X27.551 Y-6.193 E20.849
G1 X27.532 Y-6.731 E20.88445
G1 X27.462 Y-7.476 E20.93373
G1 X27.375 Y-8.016 E20.96975
G1 X27.212 Y-8.751 E21.01933
G1 X27.057 Y-9.286 E21.05601
G1 X26.805 Y-9.979 E21.10457
G1 X26.557 Y-10.54 E21.14496
G1 X26.544 Y-10.565 E21.14682
G1 X26.543 Y-16.847 E21.56052
G1 X26.548 Y-17.152 E21.58061
G1 X26.527 Y-17.667 E21.61455
G1 X26.444 Y-18.489 E21.66896
G1 X26.325 Y-19.163 E21.71403
G1 X26.13 Y-19.909 E21.76481
G1 X25.902 Y-20.568 E21.81074
G1 X25.57 Y-21.322 E21.86499
G1 X25.242 Y-21.934 E21.91072
G1 X24.798 Y-22.624 E21.96475
G1 X24.39 Y-23.163 E22.00927
G1 X23.879 Y-23.74 E22.06003
G1 X23.522 Y-24.098 E22.09332
G1 X23.326 Y-24.269 E22.11045
G1 X22.752 Y-24.739 E22.15931
G1 X22.215 Y-25.117 E22.20256
G1 X21.515 Y-25.532 E22.25615
G1 X20.883 Y-25.842 E22.3025
G1 X20.135 Y-26.138 E22.35548
G1 X19.476 Y-26.34 E22.40087
G1 X18.686 Y-26.517 E22.45419
G1 X18.022 Y-26.612 E22.49836
G1 X17.249 Y-26.664 E22.54938
G1 X16.714 Y-26.666 E22.58461
G1 X16.244 Y-26.641 E22.61561
G1 X15.736 Y-26.582 E22.64929
G1 X14.957 Y-26.446 E22.70137
G1 X14.264 Y-26.268 E22.74849
G1 X13.506 Y-26.006 E22.8013
G1 X12.896 Y-25.741 E22.8451
G1 X12.204 Y-25.374 E22.89668
G1 X11.627 Y-25.011 E22.94158
G1 X10.981 Y-24.528 E22.9947
G1 X10.572 Y-24.181 E23.03002
G1 X10.411 Y-24.026 E23.04474
G1 X9.883 Y-23.484 E23.09457
G1 X9.446 Y-22.958 E23.1396
G1 X9.071 Y-22.427 E23.18241
G1 X6.334 Y-21.928 E23.36563
G1 X5.812 Y-21.849 E23.4004
G1 X5.587 Y-21.934 E23.41623
G1 X5.397 Y-21.977 E23.42906
G0 F1215 X4.878 Y-22.092
G0 F3600 X4.82 Y-21.695
G1 F1350 X4.334 Y-21.73 E23.46115
G1 X3.63 Y-22.145 E23.51497
G1 X2.997 Y-22.385 E23.55955
G1 X2.345 Y-22.53 E23.60354
G1 X1.708 Y-22.576 E23.6456
G1 X-.651 Y-22.576 E23.80095
G1 X-1.485 Y-22.496 E23.85612
G1 X-2.139 Y-22.317 E23.90078
G1 X-2.75 Y-22.051 E23.94466
G1 X-3.292 Y-21.714 E23.98669
G1 X-5.203 Y-20.325 E24.14227
G1 X-5.83 Y-19.773 E24.19729
G1 X-6.081 Y-19.461 E24.22366
G1 X-6.697 Y-19.195 E24.26784
G1 X-9.343 Y-18.121 E24.4559
G1 X-12.013 Y-17.13 E24.64346
G1 X-14.731 Y-16.207 E24.83249
G1 X-16.207 Y-15.754 E24.93417
G1 X-16.243 Y-15.759 E24.93656
G1 X-16.766 Y-15.804 E24.97113
G1 X-17.562 Y-15.82 E25.02356
G1 X-18.104 Y-15.797 E25.05929
G1 X-18.877 Y-15.713 E25.11049
G1 X-19.418 Y-15.619 E25.14666
G1 X-20.165 Y-15.436 E25.1973
G1 X-20.721 Y-15.26 E25.23571
G1 X-21.49 Y-14.956 E25.29017
G1 X-22.034 Y-14.693 E25.32996
G1 X-22.658 Y-14.334 E25.37737
G1 X-23.133 Y-14.017 E25.41497
G1 X-23.73 Y-13.556 E25.46465
G1 X-24.195 Y-13.138 E25.50582
G1 X-24.749 Y-12.561 E25.5585
G1 X-25.126 Y-12.106 E25.59741
G1 X-25.547 Y-11.522 E25.64483
G1 X-25.872 Y-10.992 E25.68577
G1 X-26.233 Y-10.292 E25.73764
G1 X-26.46 Y-9.768 E25.77524
G1 X-26.705 Y-9.074 E25.82371
G1 X-26.858 Y-8.523 E25.86137
G1 X-27.013 Y-7.768 E25.91213
G1 X-27.09 Y-7.211 E25.94916
G1 X-27.146 Y-6.414 E26.00177
G1 X-27.148 Y-5.869 E26.03766
G1 X-27.102 Y-5.098 E26.08853
G1 X-27.078 Y-4.831 E26.10618
G1 X-25.473 Y8.051 E26.96109
G1 X-25.372 Y8.667 E27.0022
G1 X-25.245 Y9.246 E27.04123
G1 X-25.146 Y9.609 E27.06601
G1 X-24.957 Y10.199 E27.10681
G1 X-24.828 Y10.549 E27.13138
G1 X-24.589 Y11.12 E27.17214
G1 X-24.241 Y11.814 E27.22327
G1 X-24.474 Y12.094 E27.24726
G1 X-24.864 Y12.644 E27.29166
G1 X-25.241 Y13.279 E27.34029
G1 X-25.534 Y13.876 E27.38409
G1 X-25.805 Y14.559 E27.43248
G1 X-26.007 Y15.221 E27.47806
G1 X-26.167 Y15.967 E27.5283
G1 X-26.253 Y16.6 E27.57037
G1 X-26.29 Y17.202 E27.61009
G1 X-26.29 Y17.715 E27.64387
G1 X-26.253 Y18.298 E27.68235
G1 X-26.179 Y18.87 E27.72033
G1 X-26.044 Y19.536 E27.76508
G1 X-25.858 Y20.182 E27.80935
G1 X-25.589 Y20.899 E27.85978
G1 X-25.291 Y21.525 E27.90544
G1 X-24.917 Y22.172 E27.95466
G1 X-24.53 Y22.733 E27.99954
G1 X-24.054 Y23.312 E28.0489
G1 X-23.577 Y23.806 E28.09412
G1 X-23.029 Y24.287 E28.14214
G1 X-22.506 Y24.679 E28.18518
G1 X-21.873 Y25.08 E28.23453
G1 X-21.266 Y25.398 E28.27966
G1 X-20.584 Y25.688 E28.32846
G1 X-19.922 Y25.905 E28.37434
G1 X-19.214 Y26.076 E28.42231
G1 X-18.677 Y26.169 E28.4582
G1 X-18.495 Y26.187 E28.47024
G1 X-17.766 Y26.24 E28.51838
G1 X-17.07 Y26.234 E28.56421
G1 X-16.32 Y26.165 E28.61381
G1 X-15.654 Y26.048 E28.65834
G1 X-14.946 Y25.865 E28.7065
G1 X-14.308 Y25.645 E28.75095
G1 X-13.62 Y25.343 E28.80043
G1 X-13.013 Y25.014 E28.8459
G1 X-12.394 Y24.609 E28.89461
G1 X-11.863 Y24.199 E28.93879
G1 X-11.321 Y23.704 E28.98713
G1 X-10.816 Y23.161 E29.03596
G1 X-10.477 Y22.732 E29.07197
G1 X-7.938 Y22.488 E29.23995
G1 X-5.089 Y22.298 E29.42798
G1 X-2.22 Y22.191 E29.61705
G1 X0.631 Y22.168 E29.80481
G1 X3.497 Y22.228 E29.99359
G1 X6.341 Y22.371 E30.18112
G1 X9.195 Y22.598 E30.36967
G1 X10.481 Y22.739 E30.45486
G1 X10.804 Y23.15 E30.48929
G1 X11.354 Y23.735 E30.54217
G1 X11.96 Y24.274 E30.59558
G1 X12.479 Y24.67 E30.63857
G1 X13.041 Y25.031 E30.68256
G1 X13.623 Y25.345 E30.72611
G1 X14.304 Y25.644 E30.77509
G1 X14.947 Y25.865 E30.81986
G1 X15.66 Y26.049 E30.86836
G1 X16.318 Y26.165 E30.91236
G1 X17.058 Y26.234 E30.9613
G1 X17.747 Y26.24 E31.00668
G1 X18.497 Y26.187 E31.05619
G1 X19.16 Y26.086 E31.10036
G1 X19.881 Y25.916 E31.14914
G1 X20.577 Y25.686 E31.19741
G1 X21.326 Y25.364 E31.2511
G1 X21.911 Y25.058 E31.29458
G1 X22.486 Y24.695 E31.33936
G1 X23.011 Y24.302 E31.38255
G1 X23.566 Y23.815 E31.43118
G1 X24.096 Y23.265 E31.48148
G1 X24.547 Y22.708 E31.52867
G1 X24.924 Y22.162 E31.57237
G1 X25.293 Y21.523 E31.62096
G1 X25.583 Y20.914 E31.66538
G1 X25.85 Y20.215 E31.71466
G1 X26.043 Y19.54 E31.76089
G1 X26.19 Y18.798 E31.81071
G1 X26.269 Y18.122 E31.85553
G1 X26.294 Y17.382 E31.90429
G1 X26.263 Y16.707 E31.94879
G1 X26.171 Y15.987 E31.99659
G1 X26.036 Y15.341 E32.04005
G1 X25.829 Y14.63 E32.08882
G1 X25.554 Y13.922 E32.13884
G1 X25.24 Y13.274 E32.18626
G1 X24.893 Y12.688 E32.23111
G1 X24.469 Y12.084 E32.27971
G1 X24.245 Y11.816 E32.30271
G1 X24.364 Y11.592 E32.31941
G1 X24.635 Y11.02 E32.36109
G1 X24.78 Y10.671 E32.38598
G1 X24.992 Y10.096 E32.42634
G1 X25.101 Y9.756 E32.44985
