;FLAVOR:Marlin
;TIME:2299
;Filament used: 3.28444m
;Layer height: 0.24
;MINX:47.267
;MINY:47.27
;MINZ:0.3
;MAXX:72.733
;MAXY:72.734
;MAXZ:62.7
;Generated with Cura_SteamEngine 4.7.1
M104 S210
M105
M109 S210
M82 ;absolute extrusion mode
;Sliced at: Mon 19-07-2021 10:14:30
G21 ;metric values
G90 ;absolute positioning
M82 ;set extruder to absolute mode
M107 ;start with the fan off
G1 Z5.0 F1800 ;move Z to 5mm
G28 X0 Y0 F1800 ;move X/Y to min endstops
G28 Z0 ;move Z to min endstop
G92 E0 ;zero the extruded length
G1 F200 E6.0 ;extrude 6.0mm of feed stock to build pressure
G1 Z5.0 F300 ;move the platform down 5mm
G92 E0 ;zero the extruded length again
G1 F1800
;Put printing message on LCD screen
M117 Printing...
G92 E0
G92 E0
G1 F1500 E-5
;LAYER_COUNT:262
;LAYER:0
M107
G0 F1080 X50.908 Y51.083 Z0.3
;TYPE:SKIRT
G1 F1500 E0.72757
G1 F900 X51.435 Y50.574 E0.76777
G1 X51.86 Y50.209 E0.79852
G1 X52.367 Y49.811 E0.83389
G1 X52.84 Y49.474 E0.86576
G1 X53.46 Y49.074 E0.90626
G1 X53.722 Y48.925 E0.9228
G1 X54.487 Y48.527 E0.97012
G1 X55.032 Y48.27 E1.00319
G1 X55.527 Y48.079 E1.03231
G1 X56.367 Y47.8 E1.08088
G1 X57.014 Y47.623 E1.11769
G1 X57.538 Y47.503 E1.14719
G1 X58.31 Y47.38 E1.19009
G1 X58.873 Y47.315 E1.2212
G1 X59.19 Y47.292 E1.23864
G1 X59.775 Y47.273 E1.27076
G1 X60.106 Y47.27 E1.28893
G1 X60.847 Y47.297 E1.32962
G1 X61.805 Y47.391 E1.38245
G1 X62.581 Y47.53 E1.42571
G1 X63.129 Y47.652 E1.45652
G1 X63.748 Y47.829 E1.49185
G1 X63.859 Y47.865 E1.49826
G1 X64.347 Y48.034 E1.5266
G1 X64.906 Y48.252 E1.55952
G1 X65.443 Y48.49 E1.59176
G1 X65.954 Y48.738 E1.62293
G1 X66.496 Y49.048 E1.6572
G1 X67.018 Y49.37 E1.69086
G1 X67.506 Y49.712 E1.72356
G1 X67.965 Y50.07 E1.7555
G1 X68.536 Y50.556 E1.79665
G1 X68.81 Y50.81 E1.81716
G1 X69.247 Y51.242 E1.85088
G1 X69.606 Y51.637 E1.88017
G1 X69.701 Y51.749 E1.88823
G1 X70.108 Y52.25 E1.92366
G1 X70.483 Y52.774 E1.95902
G1 X70.762 Y53.205 E1.9872
G1 X71.06 Y53.699 E2.01886
G1 X71.323 Y54.179 E2.04889
G1 X71.575 Y54.685 E2.07992
G1 X71.865 Y55.377 E2.12109
G1 X71.903 Y55.478 E2.12701
G1 X72.087 Y55.985 E2.15661
G1 X72.277 Y56.628 E2.19341
G1 X72.399 Y57.125 E2.22149
G1 X72.507 Y57.634 E2.25005
G1 X72.605 Y58.212 E2.28222
G1 X72.69 Y58.929 E2.32185
G1 X72.728 Y59.561 E2.35659
G1 X72.733 Y60.141 E2.38842
G1 X72.712 Y60.674 E2.4177
G1 X72.66 Y61.334 E2.45403
G1 X72.615 Y61.693 E2.47388
G1 X72.52 Y62.287 E2.5069
G1 X72.466 Y62.56 E2.52217
G1 X72.295 Y63.296 E2.56364
G1 X72.1 Y63.98 E2.60267
G1 X71.804 Y64.766 E2.64876
G1 X71.515 Y65.427 E2.68835
G1 X71.467 Y65.528 E2.69449
G1 X71.223 Y66.02 E2.72463
G1 X70.945 Y66.512 E2.75564
G1 X70.637 Y66.997 E2.78717
G1 X70.345 Y67.428 E2.81574
G1 X70.164 Y67.671 E2.83237
G1 X69.832 Y68.084 E2.86145
G1 X69.491 Y68.483 E2.89025
G1 X69.053 Y68.949 E2.92535
G1 X68.436 Y69.542 E2.97232
G1 X67.782 Y70.077 E3.01869
G1 X67.001 Y70.638 E3.07146
G1 X66.728 Y70.811 E3.08919
G1 X66.154 Y71.144 E3.12561
G1 X65.656 Y71.404 E3.15644
G1 X65.17 Y71.635 E3.18597
G1 X64.512 Y71.912 E3.22515
G1 X63.999 Y72.088 E3.25492
G1 X63.223 Y72.318 E3.29933
G1 X62.582 Y72.463 E3.3354
G1 X61.967 Y72.576 E3.36972
G1 X61.189 Y72.675 E3.41276
G1 X60.474 Y72.729 E3.45211
G1 X59.971 Y72.734 E3.47971
G1 X59.863 Y72.733 E3.48564
G1 X59.343 Y72.719 E3.51419
G1 X59.027 Y72.697 E3.53157
G1 X58.483 Y72.639 E3.5616
G1 X57.958 Y72.566 E3.59068
G1 X57.457 Y72.474 E3.61864
G1 X56.939 Y72.358 E3.64777
G1 X56.444 Y72.23 E3.67583
G1 X55.872 Y72.048 E3.70877
G1 X55.738 Y72 E3.71658
G1 X55.186 Y71.792 E3.74895
G1 X54.53 Y71.499 E3.78838
G1 X54.047 Y71.253 E3.81813
G1 X53.469 Y70.926 E3.85457
G1 X53.036 Y70.657 E3.88255
G1 X52.505 Y70.301 E3.91763
G1 X52.059 Y69.955 E3.94861
G1 X51.563 Y69.542 E3.98403
G1 X51.072 Y69.08 E4.02103
G1 X50.652 Y68.642 E4.05433
G1 X50.257 Y68.192 E4.08719
G1 X49.898 Y67.749 E4.11848
G1 X49.539 Y67.268 E4.15142
G1 X49.257 Y66.839 E4.1796
G1 X48.929 Y66.298 E4.21432
G1 X48.579 Y65.629 E4.25575
G1 X48.362 Y65.158 E4.28421
G1 X48.101 Y64.525 E4.32179
G1 X47.879 Y63.907 E4.35783
G1 X47.722 Y63.38 E4.388
G1 X47.578 Y62.789 E4.42139
G1 X47.437 Y62.107 E4.4596
G1 X47.361 Y61.537 E4.49116
G1 X47.291 Y60.711 E4.53666
G1 X47.267 Y60.002 E4.57559
G1 X47.276 Y59.408 E4.60819
G1 X47.336 Y58.661 E4.64932
G1 X47.41 Y58.062 E4.68244
G1 X47.528 Y57.427 E4.71788
G1 X47.556 Y57.3 E4.72502
G1 X47.68 Y56.79 E4.75382
G1 X47.837 Y56.24 E4.78521
G1 X48.007 Y55.722 E4.81513
G1 X48.196 Y55.217 E4.84472
G1 X48.518 Y54.496 E4.88806
G1 X48.739 Y54.045 E4.91562
G1 X49.107 Y53.406 E4.95609
G1 X49.423 Y52.913 E4.98822
G1 X49.754 Y52.444 E5.01973
G1 X50.105 Y51.987 E5.05135
G1 X50.494 Y51.518 E5.08479
G1 X50.541 Y51.468 E5.08856
G0 F810 X50.908 Y51.083
G0 F1080 X51.189 Y51.368
G1 F900 X51.698 Y50.875 E5.12744
G1 X52.108 Y50.522 E5.15714
G1 X52.603 Y50.133 E5.19169
G1 X53.069 Y49.802 E5.22305
G1 X53.67 Y49.414 E5.26231
G1 X53.906 Y49.279 E5.27723
G1 X54.671 Y48.881 E5.32456
G1 X55.185 Y48.639 E5.35574
G1 X55.659 Y48.456 E5.38362
G1 X56.488 Y48.182 E5.43154
G1 X57.112 Y48.011 E5.46704
G1 X57.627 Y47.893 E5.49604
G1 X58.365 Y47.776 E5.53704
G1 X58.917 Y47.713 E5.56753
G1 X59.203 Y47.692 E5.58327
G1 X59.788 Y47.673 E5.61539
G1 X60.108 Y47.67 E5.63296
G1 X60.825 Y47.696 E5.67233
G1 X61.759 Y47.788 E5.72383
G1 X62.504 Y47.923 E5.76539
G1 X63.041 Y48.042 E5.79557
G1 X63.628 Y48.21 E5.82908
G1 X63.728 Y48.243 E5.83486
G1 X64.216 Y48.412 E5.8632
G1 X64.756 Y48.623 E5.89502
G1 X65.271 Y48.851 E5.92592
G1 X65.772 Y49.094 E5.95648
G1 X66.293 Y49.393 E5.98945
G1 X66.364 Y49.435 E5.99398
G1 X66.808 Y49.71 E6.02264
G1 X67.27 Y50.035 E6.05364
G1 X67.718 Y50.384 E6.0848
G1 X68.27 Y50.855 E6.12462
G1 X68.529 Y51.095 E6.144
G1 X68.966 Y51.527 E6.17772
G1 X69.305 Y51.9 E6.20539
G1 X69.39 Y52.001 E6.21263
G1 X69.797 Y52.502 E6.24805
G1 X70.153 Y53 E6.28165
G1 X70.426 Y53.421 E6.30918
G1 X70.712 Y53.895 E6.33957
G1 X70.97 Y54.367 E6.36909
G1 X71.216 Y54.862 E6.39942
G1 X71.493 Y55.524 E6.4388
G1 X71.711 Y56.122 E6.47373
G1 X71.891 Y56.732 E6.50864
G1 X72.01 Y57.218 E6.5361
G1 X72.161 Y57.964 E6.57787
G1 X72.27 Y58.743 E6.62103
G1 X72.321 Y59.401 E6.65725
G1 X72.335 Y59.91 E6.6852
G1 X72.333 Y60.126 E6.69705
G1 X72.312 Y60.659 E6.72632
G1 X72.262 Y61.294 E6.76128
G1 X72.22 Y61.63 E6.77986
G1 X72.125 Y62.224 E6.81288
G1 X72.077 Y62.47 E6.82663
G1 X71.906 Y63.206 E6.8681
G1 X71.724 Y63.845 E6.90456
G1 X71.432 Y64.621 E6.95006
G1 X71.152 Y65.26 E6.98835
G1 X70.864 Y65.842 E7.02398
G1 X70.607 Y66.298 E7.05271
G1 X70.299 Y66.783 E7.08424
G1 X70.015 Y67.201 E7.11197
G1 X69.852 Y67.421 E7.127
G1 X69.52 Y67.834 E7.15608
G1 X69.194 Y68.215 E7.1836
G1 X68.765 Y68.671 E7.21796
G1 X68.163 Y69.25 E7.2638
G1 X67.534 Y69.763 E7.30834
G1 X66.773 Y70.309 E7.35974
G1 X66.528 Y70.465 E7.37568
G1 X65.954 Y70.798 E7.4121
G1 X65.483 Y71.043 E7.44123
G1 X65.007 Y71.269 E7.47015
G1 X64.381 Y71.534 E7.50746
G1 X63.878 Y71.706 E7.53663
G1 X63.135 Y71.928 E7.57919
G1 X62.503 Y72.071 E7.61475
G1 X61.9 Y72.182 E7.6484
G1 X61.144 Y72.278 E7.69022
G1 X60.463 Y72.33 E7.7277
G1 X59.874 Y72.333 E7.76002
G1 X59.354 Y72.319 E7.78857
G1 X59.069 Y72.3 E7.80425
G1 X58.525 Y72.242 E7.83427
G1 X58.024 Y72.172 E7.86203
G1 X57.446 Y72.063 E7.89431
G1 X57.039 Y71.97 E7.91722
G1 X56.544 Y71.842 E7.94528
G1 X55.999 Y71.669 E7.97666
G1 X55.879 Y71.626 E7.98366
G1 X55.327 Y71.418 E8.01603
G1 X54.701 Y71.138 E8.05366
G1 X54.23 Y70.898 E8.08267
G1 X53.671 Y70.581 E8.11794
G1 X52.868 Y70.066 E8.17029
G1 X52.308 Y69.642 E8.20884
G1 X51.819 Y69.235 E8.24375
G1 X51.354 Y68.796 E8.27885
G1 X50.948 Y68.374 E8.31099
G1 X50.562 Y67.933 E8.34315
G1 X50.217 Y67.507 E8.37323
G1 X49.868 Y67.042 E8.40514
G1 X49.594 Y66.623 E8.43261
G1 X49.544 Y66.543 E8.43779
G1 X49.271 Y66.091 E8.46677
G1 X48.938 Y65.453 E8.50627
G1 X48.726 Y64.992 E8.53411
G1 X48.473 Y64.379 E8.57051
G1 X48.26 Y63.786 E8.60508
G1 X48.11 Y63.285 E8.63378
G1 X47.966 Y62.694 E8.66717
G1 X47.832 Y62.045 E8.70354
G1 X47.759 Y61.498 E8.73382
G1 X47.69 Y60.683 E8.77871
G1 X47.667 Y60.008 E8.81577
G1 X47.676 Y59.414 E8.84837
G1 X47.734 Y58.7 E8.88769
G1 X47.807 Y58.111 E8.92026
G1 X47.919 Y57.509 E8.95386
G1 X47.945 Y57.394 E8.96033
G1 X48.069 Y56.884 E8.98914
G1 X48.22 Y56.354 E9.01938
G1 X48.384 Y55.857 E9.0481
G1 X48.564 Y55.375 E9.07634
G1 X48.881 Y54.664 E9.11906
G1 X49.247 Y53.948 E9.16319
G1 X49.698 Y53.223 E9.21005
G1 X50.078 Y52.679 E9.24646
G1 X50.415 Y52.24 E9.27683
G1 X50.79 Y51.788 E9.30907
G1 X50.823 Y51.753 E9.31171
G0 F810 X51.189 Y51.368
G0 F1080 X51.47 Y51.653
G1 F900 X51.962 Y51.176 E9.34931
G1 X52.357 Y50.836 E9.37791
G1 X52.84 Y50.456 E9.41164
G1 X53.298 Y50.13 E9.44249
G1 X53.881 Y49.754 E9.48056
G1 X54.091 Y49.634 E9.49384
G1 X54.856 Y49.236 E9.54116
G1 X55.339 Y49.008 E9.57047
G1 X56.125 Y48.717 E9.61647
G1 X56.608 Y48.563 E9.64429
G1 X57.211 Y48.399 E9.67859
G1 X57.716 Y48.283 E9.70702
G1 X58.419 Y48.172 E9.74608
G1 X58.962 Y48.11 E9.77607
G1 X59.216 Y48.092 E9.79005
G1 X59.89 Y48.071 E9.82705
G1 X60.109 Y48.07 E9.83907
G1 X60.804 Y48.096 E9.87724
G1 X61.714 Y48.186 E9.92742
G1 X62.427 Y48.315 E9.96719
G1 X62.953 Y48.432 E9.99676
G1 X63.508 Y48.592 E10.02846
G1 X63.597 Y48.621 E10.0336
G1 X64.085 Y48.79 E10.06194
G1 X64.605 Y48.994 E10.09259
G1 X65.1 Y49.212 E10.12227
G1 X65.59 Y49.45 E10.15217
G1 X66.09 Y49.738 E10.18384
G1 X66.597 Y50.051 E10.21653
G1 X67.034 Y50.358 E10.24584
G1 X67.471 Y50.699 E10.27626
G1 X68.005 Y51.154 E10.31476
G1 X68.248 Y51.379 E10.33294
G1 X68.685 Y51.811 E10.36666
G1 X69.08 Y52.253 E10.39919
G1 X69.487 Y52.754 E10.43462
G1 X69.823 Y53.227 E10.46646
G1 X70.14 Y53.718 E10.49853
G1 X70.47 Y54.282 E10.53439
G1 X70.857 Y55.039 E10.58105
G1 X71.12 Y55.67 E10.61856
G1 X71.151 Y55.751 E10.62332
G1 X71.335 Y56.258 E10.65292
G1 X71.505 Y56.837 E10.68604
G1 X71.639 Y57.391 E10.71732
G1 X71.767 Y58.035 E10.75335
G1 X71.873 Y58.794 E10.79541
G1 X71.922 Y59.428 E10.83031
G1 X71.934 Y60.11 E10.86774
G1 X71.913 Y60.643 E10.89701
G1 X71.864 Y61.255 E10.93071
G1 X71.825 Y61.566 E10.94791
G1 X71.73 Y62.16 E10.98092
G1 X71.687 Y62.379 E10.99317
G1 X71.516 Y63.115 E11.03464
G1 X71.348 Y63.71 E11.06857
G1 X71.059 Y64.475 E11.11345
G1 X70.788 Y65.092 E11.15043
G1 X70.75 Y65.173 E11.15534
G1 X70.506 Y65.665 E11.18548
G1 X70.269 Y66.083 E11.21185
G1 X69.961 Y66.568 E11.24338
G1 X69.54 Y67.17 E11.28369
G1 X69.208 Y67.583 E11.31277
G1 X68.774 Y68.082 E11.34907
G1 X68.42 Y68.452 E11.37717
G1 X67.89 Y68.957 E11.41734
G1 X67.287 Y69.449 E11.46005
G1 X66.545 Y69.98 E11.51013
G1 X66.327 Y70.119 E11.52431
G1 X65.753 Y70.452 E11.56073
G1 X64.92 Y70.869 E11.61185
G1 X64.251 Y71.156 E11.6518
G1 X63.758 Y71.325 E11.68041
G1 X63.046 Y71.538 E11.72119
G1 X62.424 Y71.679 E11.75619
G1 X61.834 Y71.787 E11.78911
G1 X61.099 Y71.88 E11.82977
G1 X60.452 Y71.93 E11.86538
G1 X59.885 Y71.933 E11.8965
G1 X59.365 Y71.919 E11.92504
G1 X59.112 Y71.902 E11.93896
G1 X58.568 Y71.844 E11.96898
G1 X57.926 Y71.75 E12.00459
G1 X57.242 Y71.608 E12.04293
G1 X57.139 Y71.583 E12.04875
G1 X56.644 Y71.455 E12.0768
G1 X56.127 Y71.29 E12.10659
G1 X56.02 Y71.251 E12.11284
G1 X55.468 Y71.043 E12.14521
G1 X54.873 Y70.776 E12.181
G1 X54.412 Y70.542 E12.20937
G1 X53.874 Y70.237 E12.24331
G1 X53.089 Y69.733 E12.29451
G1 X52.557 Y69.328 E12.3312
G1 X52.495 Y69.278 E12.33557
G1 X52.076 Y68.928 E12.36553
G1 X51.636 Y68.512 E12.39876
G1 X51.245 Y68.106 E12.4297
G1 X50.866 Y67.674 E12.46123
G1 X50.535 Y67.265 E12.49011
G1 X50.198 Y66.816 E12.52092
G1 X49.887 Y66.336 E12.55231
G1 X49.614 Y65.884 E12.58128
G1 X49.297 Y65.276 E12.61891
G1 X49.06 Y64.759 E12.65013
G1 X48.846 Y64.234 E12.68124
G1 X48.642 Y63.665 E12.71441
G1 X48.499 Y63.191 E12.74158
G1 X48.355 Y62.6 E12.77496
G1 X48.227 Y61.983 E12.80955
G1 X48.157 Y61.459 E12.83856
G1 X48.089 Y60.655 E12.88284
G1 X48.067 Y60.015 E12.91798
G1 X48.076 Y59.421 E12.95058
G1 X48.133 Y58.739 E12.98814
G1 X48.204 Y58.161 E13.0201
G1 X48.311 Y57.59 E13.05198
G1 X48.334 Y57.489 E13.05767
G1 X48.483 Y56.88 E13.09207
G1 X48.63 Y56.384 E13.12046
G1 X48.862 Y55.708 E13.15969
G1 X49.056 Y55.242 E13.18739
G1 X49.276 Y54.764 E13.21627
G1 X49.589 Y54.155 E13.25384
G1 X50.035 Y53.438 E13.30018
G1 X50.402 Y52.914 E13.33529
G1 X50.726 Y52.492 E13.36449
G1 X51.086 Y52.057 E13.39548
G1 X51.104 Y52.038 E13.39691
G0 F810 X51.47 Y51.653
G0 F1080 X57.93 Y57.93
;TYPE:SUPPORT
G1 F900 X62.07 Y57.93 E13.73771
G1 X62.07 Y62.07 E14.07851
G1 X57.93 Y62.07 E14.41931
G1 X57.93 Y58.285 E14.73089
G0 F810 X57.93 Y57.93
G0 F1080 X58.154 Y60.008
G1 F900 X61.844 Y60.008 E15.03465
G0 F1080 X60.008 Y61.845
G1 F900 X60.008 Y58.155 E15.3384
G1 F1500 E10.3384
;MESH:Griff_Feile.stl
G0 F1080 X62.247 Y64.96
G0 X62.247 Y67
;TYPE:WALL-INNER
G1 F1500 E16.06597
G1 F900 X62.855 Y67 E16.09933
G1 X63.294 Y67 E16.12343
G1 X62.855 Y67.202 E16.13149
G1 X62.278 Y67.394 E16.15673
G1 X62.025 Y67.478 E16.17136
G1 X61.368 Y67.618 E16.20823
G1 X60.984 Y67.677 E16.22955
G1 X60.325 Y67.741 E16.26589
G1 X59.46 Y67.73 E16.31336
G1 X58.828 Y67.651 E16.34831
G1 X58.407 Y67.575 E16.37179
G1 X57.762 Y67.418 E16.40822
G1 X57.687 Y67.391 E16.4126
G1 X56.976 Y67.135 E16.45407
G1 X56.702 Y67 E16.47083
G1 X56.976 Y67 E16.47301
G1 X57.732 Y67 E16.50098
G1 X62.247 Y67 E16.74876
G0 F1080 X62.136 Y67.863
G1 F900 X62.109 Y67.868 E16.75027
G1 X61.452 Y68.008 E16.78713
G1 X61.44 Y68.011 E16.78781
G1 X61.429 Y68.012 E16.78842
G1 X61.046 Y68.071 E16.80969
G1 X61.03 Y68.074 E16.81058
G1 X60.364 Y68.138 E16.8473
G1 X60.341 Y68.141 E16.84857
G1 X59.432 Y68.13 E16.89846
G1 X58.764 Y68.046 E16.93541
G1 X58.327 Y67.967 E16.95978
G1 X57.65 Y67.803 E16.99801
G1 X56.816 Y67.502 E17.04666
G1 X56.186 Y67.192 E17.0852
G1 X55.839 Y66.997 E17.10704
G1 X55.819 Y66.986 E17.10829
G1 X55.255 Y66.624 E17.14507
G1 X55.22 Y66.6 E17.1474
G1 X55.255 Y66.6
G1 X55.819 Y66.6 E17.16256
G1 X55.843 Y66.6 E17.16385
G1 X64.112 Y66.6 E17.61765
G1 X64.585 Y66.6 E17.64361
G1 X64.763 Y66.6 E17.65338
G1 X64.585 Y66.737 E17.65702
G1 X64.179 Y66.98 E17.67478
G1 X63.989 Y67.094 E17.68694
G1 X63.63 Y67.285 E17.70925
G1 X62.996 Y67.577 E17.74756
G1 X62.276 Y67.817 E17.78921
G0 F810 X62.136 Y67.863
G1 F1500 E12.78921
G0 F1080 X62.475 Y69.467
G0 X55.04 Y56.702
G0 X53 Y56.702
G1 F1500 E18.51678
G1 F900 X53 Y57.053 E18.53604
G1 X53 Y57.704 E18.57176
G1 X53 Y57.725 E18.57292
G1 X53 Y62.262 E18.8219
G1 X53 Y62.778 E18.85022
G1 X53 Y63.111 E18.8685
G1 X53 Y63.295 E18.87859
G1 X52.913 Y63.111 E18.8805
G1 X52.776 Y62.778 E18.88889
G1 X52.606 Y62.291 E18.91106
G1 X52.548 Y62.124 E18.92077
G1 X52.359 Y61.29 E18.9677
G1 X52.284 Y60.628 E19.00426
G1 X52.264 Y60.236 E19.0258
G1 X52.262 Y59.626 E19.05928
G1 X52.263 Y59.566 E19.06257
G1 X52.358 Y58.716 E19.10951
G1 X52.5 Y58.083 E19.14511
G1 X52.602 Y57.724 E19.16559
G1 X52.607 Y57.704 E19.16671
G1 X52.833 Y57.053 E19.19372
G1 X53 Y56.702 E19.19938
G0 F1080 X52.462 Y56.902
G1 F900 X52.846 Y56.096 E19.24837
G1 X53.017 Y55.82 E19.26619
G1 X53.212 Y55.506 E19.28648
G1 X53.4 Y55.238 E19.30444
G1 X53.4 Y55.506 E19.30724
G1 X53.4 Y55.876 E19.32238
G1 X53.4 Y64.107 E19.77409
G1 X53.4 Y64.685 E19.80581
G1 X53.4 Y64.77 E19.81048
G1 X53.333 Y64.685 E19.81183
G1 X53.027 Y64.195 E19.83085
G1 X52.853 Y63.917 E19.84885
G1 X52.546 Y63.271 E19.8881
G1 X52.399 Y62.913 E19.90934
G1 X52.164 Y62.239 E19.94851
G1 X51.965 Y61.359 E19.99803
G1 X51.963 Y61.335 E19.99935
G1 X51.888 Y60.674 E20.03585
G1 X51.886 Y60.661 E20.03658
G1 X51.886 Y60.649 E20.03724
G1 X51.866 Y60.258 E20.05872
G1 X51.864 Y60.238 E20.05982
G1 X51.862 Y59.616 E20.09396
G1 X51.864 Y59.535 E20.09841
G1 X51.962 Y58.655 E20.147
G1 X52.115 Y57.974 E20.1853
G1 X52.225 Y57.585 E20.20749
G1 X52.288 Y57.405 E20.21795
G0 F810 X52.462 Y56.902
G0 F1080 X53.421 Y54.557
;TYPE:WALL-OUTER
G1 F900 X53.59 Y54.343 E20.23292
G1 X53.8 Y54.129 E20.24937
G1 X53.8 Y54.343 E20.25148
G1 X53.8 Y54.616 E20.26311
G1 X53.8 Y65.406 E20.85526
G1 X53.8 Y65.492 E20.85998
G1 X53.8 Y65.806 E20.87721
G1 X53.8 Y65.871 E20.88078
G1 X53.736 Y65.806 E20.88129
G1 X53.46 Y65.492 E20.89493
G1 X53.407 Y65.425 E20.89928
G1 X53.004 Y64.913 E20.93504
G1 X52.502 Y64.109 E20.98706
G1 X52.179 Y63.431 E21.02827
G1 X52.024 Y63.054 E21.05064
G1 X51.791 Y62.384 E21.08957
