;FLAVOR:Marlin
;TIME:2627
;Filament used: 3.08442m
;Layer height: 0.2
;MINX:-43.765
;MINY:-65.342
;MINZ:0.3
;MAXX:64.633
;MAXY:-27.2
;MAXZ:25
;TARGET_MACHINE.NAME:Unknown
;Generated with Cura_SteamEngine 5.9.0
M140 S50
M105
M190 S50
M104 S220
M105
M109 S220
M82 ;absolute extrusion mode
;FLAVOR:Marlin
M82 ;absolute extrusion mode
G21
G90
M82
M107 T0
G28
G92 E0
G0 E3 F200
G92 E0 ; reset extrusion distance
M106 S255 ; Enable cooling fan full speed
G1 X-98 Y0 Z0.4 F3000 ; move to arc start
G3 X0 Y-98 I98 Z0.4 E40 F400 ; lay arc stripe 90deg
G92 E0 ; reset extrusion distance
G4 P500 ; wait for 0.5 sec
G0 Z10 E-1 ; Lift 15mm and retract 1mm filament
G4 P2000 ; wait for 5 sec
G0 Z15
M107 ; Disable cooling fan
G1 X0 Y-85 Z4 E0 F3000 ; get off the bed
G92 E0
G92 E0
G1 F1500 E-8
;LAYER_COUNT:99
;LAYER:0
M106 S102
G0 F1800 X36.367 Y-27.201 Z0.3
;TYPE:SKIRT
G1 F3600 E0.71493
G1 F1200 X35.042 Y-27.251 E0.78184
G1 X33.56 Y-27.769 E0.86107
G1 X32.151 Y-28.959 E0.95414
G1 X31.349 Y-30.436 E1.03895
G1 X31.158 Y-31.579 E1.09744
G1 X31.133 Y-54.351 E2.24663
G1 X31.355 Y-55.432 E2.30232
G1 X31.838 Y-56.34 E2.35423
G1 X32.14 Y-56.725 E2.37892
G1 X32.864 Y-57.308 E2.42583
G1 X33.856 Y-57.802 E2.48176
G1 X34.759 Y-57.934 E2.52781
G1 X61.038 Y-57.946 E3.85399
G1 X62.119 Y-57.724 E3.90968
G1 X63.027 Y-57.241 E3.96158
G1 X63.412 Y-56.939 E3.98627
G1 X63.995 Y-56.214 E4.03322
G1 X64.489 Y-55.22 E4.08924
G1 X64.633 Y-54.146 E4.14392
G1 X64.627 Y-31.311 E5.2963
G1 X64.266 Y-30.123 E5.35896
G1 X63.833 Y-29.334 E5.40438
G1 X63.042 Y-28.399 E5.46618
G1 X61.948 Y-27.673 E5.53244
G1 X60.458 Y-27.2 E5.61133
G1 X58.886 Y-27.251 E5.69071
G1 X57.605 Y-27.724 E5.75962
G1 X56.657 Y-28.411 E5.8187
G1 X56.183 Y-28.884 E5.8525
G1 X54.852 Y-30.538 E5.95964
G1 X54.399 Y-31.734 E6.02418
G1 X54.262 Y-32.621 E6.06947
G1 X54.391 Y-33.728 E6.12571
G1 X54.681 Y-34.485 E6.16662
G1 X54.833 Y-34.759 E6.18244
G1 X54.833 Y-46.346 E6.76718
G1 X40.933 Y-46.346 E7.46864
G1 X40.933 Y-34.806 E8.05101
G1 X41.226 Y-34.272 E8.08175
G1 X41.452 Y-33.314 E8.13143
G1 X41.513 Y-32.547 E8.17025
G1 X41.284 Y-31.309 E8.23379
G1 X40.784 Y-30.373 E8.28734
G1 X39.507 Y-28.802 E8.38951
G1 X38.743 Y-28.081 E8.44253
G1 X37.627 Y-27.492 E8.50621
G1 X36.367 Y-27.201 E8.57147
G0 F1800 X36.329 Y-27.603
G1 F1200 X35.118 Y-27.649 E8.63262
G1 X33.762 Y-28.123 E8.70512
G1 X32.467 Y-29.216 E8.79063
G1 X31.733 Y-30.568 E8.86827
G1 X31.553 Y-31.645 E8.92338
G1 X31.533 Y-54.31 E10.06717
G1 X31.735 Y-55.296 E10.11796
G1 X32.159 Y-56.101 E10.16388
G1 X32.391 Y-56.413 E10.1835
G1 X33.084 Y-56.971 E10.2284
G1 X33.976 Y-57.415 E10.27868
G1 X34.817 Y-57.538 E10.32158
G1 X60.997 Y-57.546 E11.64276
G1 X61.983 Y-57.344 E11.69355
G1 X62.788 Y-56.92 E11.73947
G1 X63.1 Y-56.688 E11.75909
G1 X63.658 Y-55.995 E11.80399
G1 X64.102 Y-55.101 E11.85436
G1 X64.233 Y-54.146 E11.90301
G1 X64.227 Y-31.371 E13.05235
G1 X63.895 Y-30.279 E13.10995
G1 X63.5 Y-29.559 E13.1514
G1 X62.774 Y-28.701 E13.20812
G1 X61.774 Y-28.037 E13.26869
G1 X60.404 Y-27.602 E13.34123
G1 X58.962 Y-27.649 E13.41404
G1 X57.796 Y-28.079 E13.47676
G1 X56.939 Y-28.695 E13.53002
G1 X56.495 Y-29.135 E13.56157
G1 X55.203 Y-30.74 E13.66554
G1 X54.787 Y-31.838 E13.7248
G1 X54.665 Y-32.629 E13.76519
G1 X54.782 Y-33.629 E13.816
G1 X55.055 Y-34.342 E13.85453
G1 X55.233 Y-34.652 E13.87257
G1 X55.233 Y-46.746 E14.4829
G1 X40.533 Y-46.746 E15.22474
G1 X40.533 Y-34.698 E15.83274
G1 X40.837 Y-34.178 E15.86314
G1 X41.053 Y-33.282 E15.90965
G1 X41.11 Y-32.566 E15.9459
G1 X40.902 Y-31.443 E16.00353
G1 X40.45 Y-30.597 E16.05194
G1 X39.232 Y-29.093 E16.14961
G1 X38.507 Y-28.408 E16.19994
G1 X37.488 Y-27.871 E16.25807
G1 X36.329 Y-27.603 E16.3181
G0 F1800 X36.291 Y-28.005
G1 F1200 X35.194 Y-28.047 E16.3735
G1 X33.963 Y-28.477 E16.43931
G1 X32.783 Y-29.473 E16.51723
G1 X32.117 Y-30.7 E16.58769
G1 X31.948 Y-31.711 E16.63942
G1 X31.933 Y-54.269 E17.77781
G1 X32.115 Y-55.159 E17.82366
G1 X32.513 Y-55.914 E17.86673
G1 X32.682 Y-56.134 E17.88073
G1 X33.3 Y-56.632 E17.92078
G1 X34.096 Y-57.028 E17.96565
G1 X34.875 Y-57.142 E18.00538
G1 X60.956 Y-57.146 E19.32156
G1 X61.846 Y-56.964 E19.36741
G1 X62.601 Y-56.566 E19.41048
G1 X62.821 Y-56.397 E19.42448
G1 X63.319 Y-55.779 E19.46453
G1 X63.715 Y-54.982 E19.50944
G1 X63.833 Y-54.146 E19.55205
G1 X63.827 Y-31.431 E20.69837
G1 X63.524 Y-30.435 E20.75091
G1 X63.167 Y-29.784 E20.78838
G1 X62.506 Y-29.003 E20.84001
G1 X61.6 Y-28.401 E20.89491
G1 X60.35 Y-28.004 E20.96109
G1 X59.038 Y-28.047 E21.02734
G1 X57.988 Y-28.434 E21.08381
G1 X57.173 Y-29.02 E21.13447
G1 X56.779 Y-29.417 E21.1627
G1 X55.555 Y-30.941 E21.26134
G1 X55.175 Y-31.942 E21.31537
G1 X55.068 Y-32.636 E21.35081
G1 X55.173 Y-33.53 E21.39624
G1 X55.429 Y-34.199 E21.43238
G1 X55.633 Y-34.541 E21.45248
G1 X55.633 Y-47.146 E22.0886
G1 X40.133 Y-47.146 E22.87081
G1 X40.133 Y-34.583 E23.5048
G1 X40.449 Y-34.082 E23.5347
G1 X40.654 Y-33.25 E23.57794
G1 X40.707 Y-32.585 E23.6116
G1 X40.521 Y-31.579 E23.66323
G1 X40.113 Y-30.816 E23.7069
G1 X38.957 Y-29.384 E23.79977
G1 X38.272 Y-28.737 E23.84732
G1 X37.347 Y-28.249 E23.9001
G1 X36.291 Y-28.005 E23.9548
G0 F1800 X36.253 Y-28.407
G1 F1200 X35.27 Y-28.445 E24.00444
G1 X34.164 Y-28.831 E24.06356
G1 X33.099 Y-29.73 E24.13389
G1 X32.501 Y-30.832 E24.19717
G1 X32.343 Y-31.777 E24.24552
G1 X32.333 Y-54.228 E25.37851
G1 X32.496 Y-55.024 E25.41952
G1 X32.867 Y-55.728 E25.45968
G1 X32.97 Y-55.853 E25.46785
G1 X33.516 Y-56.293 E25.50324
G1 X34.216 Y-56.641 E25.54269
G1 X34.933 Y-56.746 E25.57926
G1 X60.915 Y-56.746 E26.89045
G1 X61.711 Y-56.583 E26.93145
G1 X62.415 Y-56.212 E26.97161
G1 X62.54 Y-56.109 E26.97978
G1 X62.98 Y-55.563 E27.01517
G1 X63.328 Y-54.863 E27.05462
G1 X63.433 Y-54.146 E27.09119
G1 X63.427 Y-31.491 E28.23448
G1 X63.154 Y-30.593 E28.28185
G1 X62.834 Y-30.011 E28.31537
G1 X62.236 Y-29.303 E28.36213
G1 X61.426 Y-28.765 E28.41121
G1 X60.296 Y-28.406 E28.47104
G1 X59.114 Y-28.445 E28.53072
G1 X58.179 Y-28.789 E28.581
G1 X57.456 Y-29.303 E28.62577
G1 X57.091 Y-29.668 E28.65182
G1 X55.906 Y-31.143 E28.7473
G1 X55.563 Y-32.046 E28.79605
G1 X55.471 Y-32.643 E28.82653
G1 X55.564 Y-33.431 E28.86657
G1 X55.803 Y-34.056 E28.90034
G1 X56.033 Y-34.427 E28.92237
G1 X56.033 Y-47.546 E29.58442
G1 X39.733 Y-47.546 E30.40701
G1 X39.733 Y-34.457 E31.06755
G1 X40.061 Y-33.984 E31.0966
G1 X40.255 Y-33.218 E31.13647
G1 X40.304 Y-32.604 E31.16756
G1 X40.14 Y-31.715 E31.21318
G1 X39.778 Y-31.038 E31.25192
G1 X38.682 Y-29.675 E31.34018
G1 X38.037 Y-29.066 E31.38495
G1 X37.206 Y-28.627 E31.43238
G1 X36.253 Y-28.407 E31.48174
G0 F1800 X37.065 Y-29.005
G1 F1200 X36.215 Y-28.809 E31.52576
G1 X35.346 Y-28.843 E31.56965
G1 X34.365 Y-29.185 E31.62208
G1 X33.415 Y-29.987 E31.68482
G1 X32.885 Y-30.964 E31.74091
G1 X32.738 Y-31.843 E31.78589
G1 X32.733 Y-54.187 E32.91348
G1 X32.877 Y-54.889 E32.94965
G1 X33.221 Y-55.542 E32.98689
G1 X33.732 Y-55.954 E33.02002
G1 X34.338 Y-56.255 E33.05417
G1 X34.933 Y-56.346 E33.08454
G1 X60.874 Y-56.346 E34.39366
G1 X61.576 Y-56.202 E34.42983
G1 X62.229 Y-55.858 E34.46707
G1 X62.641 Y-55.347 E34.5002
G1 X62.942 Y-54.741 E34.53435
G1 X63.033 Y-54.146 E34.56472
G1 X63.027 Y-31.551 E35.70498
G1 X62.784 Y-30.751 E35.74718
G1 X62.5 Y-30.234 E35.77695
G1 X61.968 Y-29.605 E35.81852
G1 X61.252 Y-29.129 E35.86191
G1 X60.242 Y-28.808 E35.91539
G1 X59.19 Y-28.843 E35.96851
G1 X58.368 Y-29.145 E36.0127
G1 X57.738 Y-29.587 E36.05154
G1 X57.403 Y-29.919 E36.07534
G1 X56.257 Y-31.345 E36.16767
G1 X55.951 Y-32.15 E36.21113
G1 X55.874 Y-32.65 E36.23666
G1 X55.955 Y-33.332 E36.27132
G1 X56.177 Y-33.913 E36.3027
G1 X56.433 Y-34.309 E36.3265
G1 X56.433 Y-47.946 E37.0147
G1 X39.333 Y-47.946 E37.87765
G1 X39.333 Y-34.332 E38.56469
G1 X39.691 Y-33.815 E38.59642
G1 X39.856 Y-33.186 E38.62924
G1 X39.901 Y-32.622 E38.65779
G1 X39.759 Y-31.851 E38.69735
G1 X39.443 Y-31.26 E38.73117
G1 X38.37 Y-29.926 E38.81757
G1 X37.804 Y-29.396 E38.8567
G1 X37.065 Y-29.005 E38.89889
G0 F1800 X36.927 Y-29.384
G1 F1200 X36.178 Y-29.211 E38.93769
G1 X35.422 Y-29.241 E38.97587
G1 X34.566 Y-29.539 E39.02161
G1 X33.731 Y-30.244 E39.07676
G1 X33.269 Y-31.096 E39.12567
G1 X33.133 Y-31.909 E39.16727
G1 X33.133 Y-54.146 E40.28947
G1 X33.257 Y-54.752 E40.32068
G1 X33.538 Y-55.284 E40.35104
G1 X33.91 Y-55.596 E40.37555
G1 X34.459 Y-55.869 E40.40649
G1 X34.933 Y-55.946 E40.43072
G1 X60.833 Y-55.946 E41.73777
G1 X61.439 Y-55.822 E41.76899
G1 X61.971 Y-55.541 E41.79935
G1 X62.283 Y-55.169 E41.82385
G1 X62.556 Y-54.62 E41.8548
G1 X62.633 Y-54.146 E41.87903
G1 X62.627 Y-31.611 E43.01627
G1 X62.413 Y-30.907 E43.0534
G1 X62.169 Y-30.462 E43.07901
G1 X61.699 Y-29.907 E43.11571
G1 X61.076 Y-29.492 E43.15349
G1 X60.188 Y-29.21 E43.20051
G1 X59.266 Y-29.241 E43.24706
G1 X58.555 Y-29.502 E43.28528
G1 X58.018 Y-29.873 E43.31822
G1 X57.715 Y-30.17 E43.33963
G1 X56.608 Y-31.547 E43.4288
G1 X56.325 Y-32.292 E43.46901
G1 X56.271 Y-32.603 E43.48494
G1 X56.346 Y-33.233 E43.51696
G1 X56.551 Y-33.77 E43.54597
G1 X56.833 Y-34.187 E43.57137
G1 X56.833 Y-48.346 E44.28591
G1 X38.933 Y-48.346 E45.18924
G1 X38.933 Y-34.198 E45.90322
G1 X39.305 Y-33.71 E45.93419
G1 X39.457 Y-33.154 E45.96328
G1 X39.498 Y-32.64 E45.9893
G1 X39.378 Y-31.987 E46.0228
G1 X39.108 Y-31.482 E46.0517
G1 X38.058 Y-30.177 E46.13623
G1 X37.569 Y-29.724 E46.16987
G1 X36.927 Y-29.384 E46.20653
G0 F1800 X36.789 Y-29.763
G1 F1200 X36.141 Y-29.613 E46.2401
G1 X35.496 Y-29.639 E46.27268
G1 X34.768 Y-29.892 E46.31157
G1 X34.047 Y-30.501 E46.3592
G1 X33.652 Y-31.229 E46.401
G1 X33.533 Y-31.909 E46.43583
G1 X33.533 Y-54.146 E47.55803
G1 X33.611 Y-54.565 E47.57954
G1 X33.856 Y-55.029 E47.60602
G1 X34.088 Y-55.238 E47.62178
G1 X34.582 Y-55.484 E47.64963
G1 X34.933 Y-55.546 E47.66761
G1 X60.833 Y-55.546 E48.97467
G1 X61.252 Y-55.468 E48.99617
G1 X61.716 Y-55.223 E49.02265
G1 X61.925 Y-54.991 E49.03841
G1 X62.171 Y-54.497 E49.06626
G1 X62.233 Y-54.146 E49.08425
G1 X62.227 Y-31.671 E50.21846
G1 X62.043 Y-31.065 E50.25042
G1 X61.836 Y-30.688 E50.27212
G1 X61.43 Y-30.209 E50.30381
G1 X60.9 Y-29.855 E50.33597
G1 X60.134 Y-29.612 E50.37653
G1 X59.345 Y-29.639 E50.41637
G1 X58.737 Y-29.862 E50.44905
G1 X58.296 Y-30.161 E50.47594
G1 X58.027 Y-30.421 E50.49482
G1 X56.959 Y-31.749 E50.58082
G1 X56.699 Y-32.434 E50.6178
G1 X56.675 Y-32.612 E50.62686
G1 X56.737 Y-33.134 E50.65339
G1 X56.925 Y-33.627 E50.68001
G1 X57.06 Y-33.848 E50.69308
G1 X57.233 Y-34.024 E50.70554
G1 X57.233 Y-48.746 E51.44849
G1 X38.533 Y-48.746 E52.39219
G1 X38.533 Y-34.064 E53.13312
G1 X38.94 Y-33.53 E53.167
G1 X39.058 Y-33.122 E53.18844
G1 X39.095 Y-32.658 E53.21193
G1 X38.997 Y-32.123 E53.23938
G1 X38.796 Y-31.733 E53.26152
G1 X37.746 Y-30.428 E53.34605
G1 X37.334 Y-30.052 E53.37419
G1 X36.789 Y-29.763 E53.40533
G0 F1800 X36.649 Y-30.141
G1 F1200 X36.104 Y-30.015 E53.43355
G1 X35.57 Y-30.037 E53.46053
G1 X34.97 Y-30.245 E53.49257
G1 X34.363 Y-30.758 E53.53268
G1 X34.034 Y-31.365 E53.56752
G1 X33.933 Y-31.909 E53.59544
G1 X33.933 Y-54.146 E54.71764
G1 X34.003 Y-54.484 E54.73506
G1 X34.14 Y-54.747 E54.75003
G1 X34.278 Y-54.886 E54.75991
G1 X34.66 Y-55.092 E54.78181
G1 X34.933 Y-55.146 E54.79586
G1 X60.833 Y-55.146 E56.10291
G1 X61.171 Y-55.076 E56.12033
G1 X61.434 Y-54.939 E56.13529
G1 X61.573 Y-54.801 E56.14518
G1 X61.779 Y-54.419 E56.16708
G1 X61.833 Y-54.146 E56.18112
G1 X61.827 Y-31.731 E57.3123
G1 X61.672 Y-31.221 E57.3392
G1 X61.485 Y-30.88 E57.35883
G1 X61.163 Y-30.512 E57.38351
G1 X60.723 Y-30.218 E57.41021
G1 X60.08 Y-30.014 E57.44425
G1 X59.424 Y-30.037 E57.47738
G1 X58.919 Y-30.222 E57.50452
G1 X58.574 Y-30.449 E57.52536
G1 X58.305 Y-30.709 E57.54424
G1 X57.311 Y-31.95 E57.62448
G1 X57.073 Y-32.576 E57.65828
G1 X57.111 Y-32.991 E57.67931
G1 X57.299 Y-33.484 E57.70594
G1 X57.394 Y-33.628 E57.71464
G1 X57.633 Y-33.85 E57.73111
G1 X57.633 Y-49.146 E58.50302
G1 X38.133 Y-49.146 E59.4871
G1 X38.133 Y-33.857 E60.25866
G1 X38.268 Y-33.751 E60.26732
G1 X38.576 Y-33.347 E60.29296
G1 X38.66 Y-33.079 E60.30713
G1 X38.699 Y-32.717 E60.32551
G1 X38.637 Y-32.298 E60.34688
G1 X38.484 Y-31.984 E60.36451
G1 X37.434 Y-30.679 E60.44904
G1 X37.101 Y-30.381 E60.47159
G1 X36.649 Y-30.141 E60.49741
G0 F1800 X36.37 Y-30.883
G1 F1200 X35.937 Y-30.798 E60.51968
G1 X35.648 Y-30.833 E60.53437
G1 X35.415 Y-30.915 E60.54684
G1 X35.025 Y-31.216 E60.5717
G1 X34.805 Y-31.59 E60.5936
G1 X34.733 Y-31.909 E60.6101
G1 X34.733 Y-54.146 E61.7323
G1 X34.772 Y-54.265 E61.73862
G1 X34.933 Y-54.346 E61.74771
G1 X60.833 Y-54.346 E63.05477
G1 X60.952 Y-54.307 E63.06108
G1 X61.033 Y-54.146 E63.07018
G1 X61.027 Y-31.849 E64.1954
G1 X60.96 Y-31.587 E64.20905
G1 X60.822 Y-31.319 E64.22426
G1 X60.629 Y-31.101 E64.23896
G1 X60.377 Y-30.93 E64.25433
G1 X59.918 Y-30.801 E64.27839
G1 X59.621 Y-30.817 E64.2934
G1 X59.333 Y-30.907 E64.30862
G1 X59.127 Y-31.027 E64.32066
G1 X58.896 Y-31.246 E64.33672
G1 X57.937 Y-32.448 E64.41432
G1 X57.867 Y-32.729 E64.42893
G1 X57.976 Y-33.08 E64.44748
G1 X58.063 Y-33.181 E64.45421
G1 X58.296 Y-33.314 E64.46775
G1 X58.433 Y-33.341 E64.47479
G1 X58.433 Y-49.946 E65.31277
G1 X37.333 Y-49.946 E66.37759
G1 X37.333 Y-33.341 E67.21557
G1 X37.469 Y-33.314 E67.22256
G1 X37.764 Y-33.146 E67.23969
G1 X37.864 Y-32.993 E67.24892
G1 X37.903 Y-32.631 E67.26729
G1 X37.86 Y-32.485 E67.27497
G1 X36.852 Y-31.225 E67.3564
G1 X36.631 Y-31.023 E67.37151
G1 X36.37 Y-30.883 E67.38646
G0 F1800 X36.559 Y-30.531
G1 F1200 X36.014 Y-30.405 E67.41469
G1 X35.6 Y-30.436 E67.43564
G1 X35.171 Y-30.598 E67.45878
G1 X34.68 Y-31.013 E67.49123
G1 X34.415 Y-31.502 E67.51929
G1 X34.333 Y-31.909 E67.54025
G1 X34.333 Y-54.146 E68.66244
G1 X34.392 Y-54.39 E68.67511
G1 X34.483 Y-54.542 E68.68405
G1 X34.753 Y-54.703 E68.69992
G1 X34.933 Y-54.746 E68.70926
G1 X60.833 Y-54.746 E70.01631
G1 X61.077 Y-54.687 E70.02897
G1 X61.229 Y-54.596 E70.03792
G1 X61.39 Y-54.326 E70.05378
G1 X61.433 Y-54.146 E70.06312
G1 X61.427 Y-31.792 E71.19122
G1 X61.316 Y-31.404 E71.21159
G1 X61.178 Y-31.136 E71.2268
G1 X60.928 Y-30.836 E71.24651
G1 X60.602 Y-30.599 E71.26685
G1 X60.026 Y-30.416 E71.29735
G1 X59.502 Y-30.435 E71.32381
G1 X59.132 Y-30.561 E71.34353
G1 X58.852 Y-30.737 E71.36022
G1 X58.583 Y-30.997 E71.3791
G1 X57.624 Y-32.199 E71.4567
G1 X57.479 Y-32.632 E71.47975
G1 X57.485 Y-32.848 E71.49065
G1 X57.673 Y-33.341 E71.51728
G1 X57.865 Y-33.528 E71.5308
G1 X58.033 Y-33.624 E71.54057
G1 X58.033 Y-49.546 E72.34408
G1 X37.733 Y-49.546 E73.36852
G1 X37.733 Y-33.624 E74.17203
G1 X37.962 Y-33.494 E74.18532
G1 X38.199 Y-33.212 E74.20391
G1 X38.262 Y-33.036 E74.21334
G1 X38.301 Y-32.674 E74.23172
G1 X38.244 Y-32.372 E74.24723
G1 X38.172 Y-32.235 E74.25504
G1 X37.122 Y-30.93 E74.33956
G1 X36.901 Y-30.728 E74.35467
G1 X36.559 Y-30.531 E74.37459
;MESH:K??rper1(1)
G0 F1800 X36.169 Y-31.483
G0 X36.223 Y-32.562
G0 X36.394 Y-32.562
;TYPE:WALL-INNER
G1 F932.6 X36.283 Y-32.627 E74.38086
G1 F717.1 X36.04 Y-32.953 E74.40661
G1 X35.926 Y-32.527 E74.43454
G1 F932.6 X35.927 Y-31.977 E74.46132
G1 X36.394 Y-32.562 E74.49778
G0 F1800 X36.04 Y-32.953
G1 F591.1 X36.032 Y-33.144 E74.51246
G1 F600 X36.032 Y-49.611 E75.75898
G0 F810 X36.032 Y-50.144
G0 F1800 X36.295 Y-50.984
G0 X59.292 Y-51.056
G0 X59.292 Y-50.897
G1 F720 X59.732 Y-50.144 E75.814
G1 F654.5 X59.782 Y-50.643 E75.8488
G1 F800 X59.832 Y-51.143 E75.87732
G1 F900 X59.832 Y-53.144 E75.9783
G1 X35.932 Y-53.144 E77.18443
G1 X35.932 Y-51.142 E77.28546
G1 F800 X35.982 Y-50.643 E77.31393
G1 F654.5 X36.032 Y-50.143 E77.3488
G1 F720 X36.473 Y-50.897 E77.4039
G1 F900 X37.034 Y-51.14 E77.43475
G1 X58.73 Y-51.14 E78.52965
G1 X58.802 Y-51.109 E78.5336
