;FLAVOR:Marlin
;TIME:7049
;Filament used: 11.6453m
;Layer height: 0.24
;MINX:-36
;MINY:-39
;MINZ:0.3
;MAXX:36
;MAXY:39
;MAXZ:20.98
;Generated with Cura_SteamEngine 4.13.1
M140 S40
M105
M190 S40
M104 S215
M105
M109 S215
M82 ;absolute extrusion mode
;FLAVOR:Marlin
M82 ;absolute extrusion mode
G21
G90
M82
M107 T0
G28
G92 E0
G0 E3 F200
G92 E0 ; reset extrusion distance
M106 S255 ; Enable cooling fan full speed
G1 X-98 Y0 Z0.4 F3000 ; move to arc start
G3 X0 Y-98 I98 Z0.4 E40 F400 ; lay arc stripe 90deg
G92 E0 ; reset extrusion distance
G4 P500 ; wait for 0.5 sec
G0 Z10 E-1 ; Lift 15mm and retract 1mm filament
G4 P2000 ; wait for 5 sec
G0 Z15
M107 ; Disable cooling fan
G1 X0 Y-85 Z4 E0 F3000 ; get off the bed
G92 E0
G92 E0
G1 F1500 E-6.5
;LAYER_COUNT:84
;LAYER:0
M107
G1 F600 Z1.3
G0 F3600 X1.508 Y2.959 Z1.3
;TYPE:SKIRT
G1 F600 Z0.3
G1 F1500 E0.3326
G1 F1350 X1.996 Y2.999 E0.38756
G1 X2.533 Y3.144 E0.45
G1 X4.914 Y3.145 E0.71728
G1 X5.243 Y3.015 E0.75699
G1 X5.721 Y2.911 E0.8119
G1 X6.21 Y2.886 E0.86686
G1 X6.696 Y2.942 E0.92178
G1 X7.311 Y3.143 E0.99441
G1 X11.64 Y3.143 E1.48035
G1 X12.128 Y3.183 E1.53531
G1 X12.603 Y3.302 E1.59028
G1 X13.052 Y3.496 E1.64519
G1 X13.464 Y3.761 E1.70018
G1 X13.826 Y4.088 E1.75494
G1 X14.329 Y3.651 E1.82973
G1 X14.757 Y3.413 E1.8847
G1 X15.217 Y3.247 E1.9396
G1 X16 Y3.143 E2.02827
G1 X25.672 Y3.144 E3.11398
G1 X25.086 Y2.914 E3.18464
G1 X24.541 Y2.659 E3.25219
G1 X23.992 Y2.4 E3.32033
G1 X23.443 Y2.142 E3.38842
G1 X23.044 Y1.949 E3.43817
G1 X22.437 Y1.819 E3.50786
G1 X21.988 Y1.625 E3.56276
G1 X21.576 Y1.36 E3.61775
G1 X21.213 Y1.032 E3.67267
G1 X20.908 Y0.649 E3.72763
G1 X20.67 Y0.221 E3.7826
G1 X20.504 Y-.239 E3.8375
G1 X20.4 Y-1.022 E3.92616
G1 X20.4 Y-1.595 E3.99048
G1 X20.497 Y-2.353 E4.07626
G1 X20.516 Y-2.936 E4.14174
G1 X16 Y-2.936 E4.64868
G1 X15.512 Y-2.976 E4.70364
G1 X15.037 Y-3.095 E4.75861
G1 X14.588 Y-3.289 E4.81351
G1 X14.176 Y-3.554 E4.8685
G1 X13.813 Y-3.882 E4.92342
G1 X13.483 Y-4.311 E4.98418
G1 X12.987 Y-3.815 E5.06292
G1 X12.613 Y-3.498 E5.11795
G1 X12.194 Y-3.246 E5.17284
G1 X11.739 Y-3.066 E5.22776
G1 X11.26 Y-2.962 E5.28278
G1 X10.866 Y-2.936 E5.32711
G1 X4.936 Y-2.935 E5.99277
G1 X4.441 Y-2.977 E6.04853
G1 X4 Y-2.936 E6.09825
G1 X-4 Y-2.935 E6.99627
G1 X-4.524 Y-2.984 E7.05535
G1 X-4.936 Y-2.936 E7.10191
G1 X-10.865 Y-2.936 E7.76746
G1 X-11.353 Y-2.976 E7.82242
G1 X-11.828 Y-3.095 E7.87739
G1 X-12.277 Y-3.289 E7.9323
G1 X-12.689 Y-3.554 E7.98728
G1 X-12.987 Y-3.815 E8.03175
G1 X-13.487 Y-4.315 E8.11113
G1 X-13.618 Y-4.112 E8.13825
G1 X-13.946 Y-3.749 E8.19317
G1 X-14.329 Y-3.444 E8.24813
G1 X-14.757 Y-3.206 E8.3031
G1 X-15.217 Y-3.04 E8.35799
G1 X-16 Y-2.936 E8.44666
G1 X-20.517 Y-2.936 E8.95371
G1 X-20.508 Y-2.406 E9.01321
G1 X-20.42 Y-1.967 E9.06347
G1 X-20.4 Y-1.62 E9.10248
G1 X-20.4 Y-1.022 E9.16961
G1 X-20.44 Y-.534 E9.22458
G1 X-20.559 Y-0.059 E9.27954
G1 X-20.753 Y0.39 E9.33445
G1 X-21.018 Y0.802 E9.38944
G1 X-21.346 Y1.165 E9.44436
G1 X-21.729 Y1.47 E9.49932
G1 X-22.157 Y1.708 E9.55429
G1 X-22.617 Y1.874 E9.60918
G1 X-23.059 Y1.956 E9.65965
G1 X-23.745 Y2.282 E9.7449
G1 X-24.304 Y2.544 E9.8142
G1 X-24.843 Y2.799 E9.88114
G1 X-25.394 Y3.058 E9.94948
G1 X-25.671 Y3.143 E9.98201
G1 X-16 Y3.143 E11.06761
G1 X-15.512 Y3.183 E11.12257
G1 X-15.037 Y3.302 E11.17754
G1 X-14.588 Y3.496 E11.23244
G1 X-14.176 Y3.761 E11.28743
G1 X-13.815 Y4.087 E11.34203
G1 X-13.518 Y3.806 E11.38793
G1 X-13.113 Y3.531 E11.44288
G1 X-12.669 Y3.326 E11.49778
G1 X-12.197 Y3.196 E11.55273
G1 X-11.64 Y3.144 E11.61553
G1 X-7.311 Y3.143 E12.10147
G1 X-6.661 Y2.934 E12.17812
G1 X-6.174 Y2.885 E12.23306
G1 X-5.685 Y2.915 E12.28805
G1 X-5.208 Y3.025 E12.343
G1 X-4.919 Y3.143 E12.37805
G1 X-2.603 Y3.143 E12.63802
G1 X-2.353 Y3.056 E12.66774
G1 X-1.601 Y2.96 E12.75284
G1 X0.976 Y2.959 E13.04211
G0 F1215 X1.508 Y2.959
G0 F3600 X1.508 Y3.359
G1 F1350 X1.962 Y3.399 E13.09327
G1 X2.455 Y3.544 E13.15096
G1 X4.991 Y3.545 E13.43563
G1 X5.45 Y3.372 E13.49069
G1 X5.899 Y3.294 E13.54185
G1 X6.355 Y3.296 E13.59304
G1 X6.803 Y3.377 E13.64414
G1 X7.242 Y3.543 E13.69683
G1 X11.64 Y3.543 E14.19051
G1 X12.094 Y3.583 E14.24168
G1 X12.534 Y3.701 E14.29281
G1 X12.946 Y3.895 E14.34393
G1 X13.319 Y4.158 E14.39516
G1 X13.64 Y4.481 E14.44628
G1 X13.82 Y4.741 E14.48178
G1 X14.015 Y4.464 E14.5198
G1 X14.338 Y4.143 E14.57092
G1 X14.713 Y3.884 E14.62208
G1 X15.127 Y3.694 E14.67321
G1 X15.568 Y3.579 E14.72437
G1 X16 Y3.543 E14.77303
G1 X28.487 Y3.544 E16.17474
G1 X28.941 Y3.584 E16.2259
G1 X29.381 Y3.703 E16.27706
G1 X29.793 Y3.896 E16.32813
G1 X30.166 Y4.159 E16.37937
G1 X30.487 Y4.482 E16.43048
G1 X30.746 Y4.857 E16.48164
G1 X30.936 Y5.271 E16.53278
G1 X31.051 Y5.712 E16.58393
G1 X31.087 Y6.166 E16.63506
G1 X31.043 Y6.62 E16.68626
G1 X30.839 Y7.253 E16.76091
G1 X30.235 Y8.534 E16.91989
G1 X30.005 Y8.927 E16.97101
G1 X29.71 Y9.275 E17.02222
G1 X29.359 Y9.565 E17.07333
G1 X28.963 Y9.79 E17.12445
G1 X28.533 Y9.942 E17.17565
G1 X27.881 Y10.025 E17.24943
G1 X25.332 Y10.023 E17.53556
G1 X16 Y10.023 E18.58311
G1 X15.546 Y9.983 E18.63427
G1 X15.106 Y9.865 E18.6854
G1 X14.694 Y9.671 E18.73652
G1 X14.321 Y9.408 E18.78775
G1 X14 Y9.085 E18.83887
G1 X13.741 Y8.71 E18.89003
G1 X13.501 Y8.106 E18.96299
G1 X12.343 Y9.263 E19.14674
G1 X11.993 Y9.556 E19.19798
G1 X11.598 Y9.783 E19.24912
G1 X11.17 Y9.938 E19.30022
G1 X10.503 Y10.024 E19.37571
G1 X7.163 Y10.022 E19.75063
G1 X5.977 Y10.025 E19.88377
G1 X2.442 Y10.021 E20.28058
G1 X2.242 Y10.094 E20.30448
G1 X1.576 Y10.181 E20.37988
G1 X-1.627 Y10.181 E20.73942
G1 X-2.081 Y10.141 E20.79058
G1 X-2.508 Y10.026 E20.84022
G1 X-8.963 Y10.022 E21.56482
G1 X-9.898 Y10.025 E21.66977
G1 X-10.51 Y10.024 E21.73847
G1 X-10.964 Y9.983 E21.78964
G1 X-11.404 Y9.864 E21.84081
G1 X-11.816 Y9.67 E21.89193
G1 X-12.344 Y9.262 E21.96683
G1 X-13.501 Y8.105 E22.1505
G1 X-13.558 Y8.317 E22.17515
G1 X-13.752 Y8.729 E22.22626
G1 X-14.015 Y9.102 E22.2775
G1 X-14.338 Y9.423 E22.32861
G1 X-14.713 Y9.682 E22.37977
G1 X-15.127 Y9.872 E22.43091
G1 X-15.568 Y9.987 E22.48207
G1 X-16 Y10.023 E22.53073
G1 X-25.012 Y10.022 E23.54235
G1 X-27.868 Y10.025 E23.86295
G1 X-28.322 Y9.986 E23.9141
G1 X-28.762 Y9.867 E23.96526
G1 X-29.175 Y9.674 E24.01643
G1 X-29.548 Y9.412 E24.0676
G1 X-29.869 Y9.089 E24.11872
G1 X-30.227 Y8.526 E24.19361
G1 X-30.825 Y7.246 E24.3522
G1 X-30.981 Y6.817 E24.40345
G1 X-31.059 Y6.369 E24.45449
G1 X-31.059 Y5.913 E24.50568
G1 X-30.978 Y5.464 E24.55689
G1 X-30.821 Y5.037 E24.60796
G1 X-30.591 Y4.643 E24.65917
G1 X-30.297 Y4.296 E24.71023
G1 X-29.946 Y4.005 E24.76141
G1 X-29.55 Y3.78 E24.81253
G1 X-29.12 Y3.628 E24.86373
G1 X-28.471 Y3.545 E24.93718
G1 X-25.367 Y3.543 E25.28561
G1 X-16 Y3.543 E26.33708
G1 X-15.546 Y3.583 E26.38824
G1 X-15.106 Y3.701 E26.43938
G1 X-14.694 Y3.895 E26.4905
G1 X-14.321 Y4.158 E26.54173
G1 X-14 Y4.481 E26.59285
G1 X-13.815 Y4.721 E26.62686
G1 X-13.533 Y4.363 E26.67802
G1 X-13.193 Y4.06 E26.72914
G1 X-12.805 Y3.82 E26.78036
G1 X-12.382 Y3.652 E26.83145
G1 X-11.935 Y3.561 E26.88265
G1 X-11.64 Y3.544 E26.91582
G1 X-7.242 Y3.543 E27.40951
G1 X-6.848 Y3.389 E27.457
G1 X-6.401 Y3.3 E27.50816
G1 X-5.945 Y3.29 E27.55936
G1 X-5.495 Y3.359 E27.61046
G1 X-4.997 Y3.543 E27.67006
G1 X-2.543 Y3.543 E27.94553
G1 X-2.192 Y3.428 E27.98699
G1 X-1.601 Y3.36 E28.05377
G1 X0.976 Y3.359 E28.34304
G0 F1215 X1.508 Y3.359
G0 F3600 X1.508 Y3.759
G1 F1350 X1.925 Y3.799 E28.39007
G1 X2.378 Y3.944 E28.44346
G1 X5.1 Y3.945 E28.74901
G1 X5.651 Y3.735 E28.8152
G1 X6.067 Y3.686 E28.86222
G1 X6.485 Y3.716 E28.90927
G1 X6.889 Y3.825 E28.95624
G1 X7.131 Y3.943 E28.98646
G1 X11.64 Y3.943 E29.49261
G1 X12.057 Y3.983 E29.53963
G1 X12.459 Y4.101 E29.58666
G1 X12.831 Y4.294 E29.63371
G1 X13.16 Y4.553 E29.68071
G1 X13.434 Y4.87 E29.72774
G1 X13.707 Y5.382 E29.79288
G1 X13.834 Y5.784 E29.8402
G1 X13.958 Y5.324 E29.89368
G1 X14.151 Y4.952 E29.94072
G1 X14.41 Y4.623 E29.98773
G1 X14.727 Y4.349 E30.03476
G1 X15.09 Y4.14 E30.08178
G1 X15.487 Y4.004 E30.12889
G1 X16 Y3.943 E30.18688
G1 X28.487 Y3.944 E31.58858
G1 X28.904 Y3.984 E31.6356
G1 X29.306 Y4.102 E31.68263
G1 X29.679 Y4.295 E31.72978
G1 X30.008 Y4.554 E31.77678
G1 X30.281 Y4.871 E31.82374
G1 X30.49 Y5.235 E31.87086
G1 X30.626 Y5.631 E31.91786
G1 X30.685 Y6.046 E31.96491
G1 X30.664 Y6.464 E32.01189
G1 X30.477 Y7.082 E32.08437
G1 X29.873 Y8.363 E32.24335
G1 X29.659 Y8.724 E32.29046
G1 X29.38 Y9.037 E32.33753
G1 X29.048 Y9.291 E32.38445
G1 X28.673 Y9.478 E32.43149
G1 X28.269 Y9.591 E32.47858
G1 X27.881 Y9.625 E32.5223
G1 X25.332 Y9.623 E32.80843
G1 X16 Y9.623 E33.85598
G1 X15.583 Y9.583 E33.903
G1 X15.181 Y9.465 E33.95003
G1 X14.809 Y9.272 E33.99707
G1 X14.48 Y9.013 E34.04408
G1 X14.206 Y8.696 E34.09111
G1 X13.997 Y8.333 E34.13813
G1 X13.861 Y7.936 E34.18524
G1 X13.8 Y7.423 E34.24323
G1 X13.8 Y6.81 E34.31204
G1 X13.743 Y7.02 E34.33647
G1 X13.559 Y7.396 E34.38346
G1 X13.239 Y7.802 E34.44148
G1 X12.06 Y8.98 E34.62857
G1 X11.737 Y9.247 E34.67561
G1 X11.369 Y9.447 E34.72263
G1 X10.969 Y9.574 E34.76974
G1 X10.504 Y9.624 E34.82224
G1 X7.163 Y9.622 E35.19727
G1 X5.978 Y9.625 E35.33029
G1 X2.386 Y9.621 E35.73351
G1 X2.041 Y9.731 E35.77416
G1 X1.576 Y9.781 E35.82665
G1 X-1.627 Y9.781 E36.1862
G1 X-2.044 Y9.741 E36.23322
G1 X-2.434 Y9.627 E36.27883
G1 X-8.964 Y9.622 E37.01185
G1 X-9.898 Y9.625 E37.11669
G1 X-10.51 Y9.624 E37.18539
G1 X-10.927 Y9.583 E37.23243
G1 X-11.328 Y9.464 E37.27938
G1 X-11.7 Y9.272 E37.32637
G1 X-12.062 Y8.98 E37.37858
G1 X-13.239 Y7.803 E37.56543
G1 X-13.505 Y7.479 E37.61248
G1 X-13.706 Y7.112 E37.65946
G1 X-13.8 Y6.816 E37.69432
G1 X-13.8 Y7.423 E37.76245
G1 X-13.84 Y7.84 E37.80948
G1 X-13.958 Y8.242 E37.85651
G1 X-14.151 Y8.614 E37.90355
G1 X-14.41 Y8.943 E37.95055
G1 X-14.727 Y9.217 E37.99759
G1 X-15.09 Y9.426 E38.04461
G1 X-15.487 Y9.562 E38.09171
G1 X-16 Y9.623 E38.14971
G1 X-25.013 Y9.622 E39.16144
G1 X-27.869 Y9.625 E39.48204
G1 X-28.286 Y9.586 E39.52905
G1 X-28.688 Y9.468 E39.57608
G1 X-29.06 Y9.276 E39.62307
G1 X-29.39 Y9.017 E39.67016
G1 X-29.664 Y8.7 E39.7172
G1 X-29.864 Y8.356 E39.76186
G1 X-30.462 Y7.076 E39.92045
G1 X-30.603 Y6.681 E39.96754
G1 X-30.666 Y6.267 E40.01454
G1 X-30.649 Y5.848 E40.06162
G1 X-30.553 Y5.44 E40.10867
G1 X-30.382 Y5.058 E40.15565
G1 X-30.141 Y4.715 E40.2027
G1 X-29.839 Y4.424 E40.24978
G1 X-29.488 Y4.195 E40.29683
G1 X-29.1 Y4.037 E40.34385
G1 X-28.47 Y3.945 E40.41532
G1 X-25.366 Y3.943 E40.76375
G1 X-16 Y3.943 E41.81512
G1 X-15.583 Y3.983 E41.86214
G1 X-15.181 Y4.101 E41.90917
G1 X-14.809 Y4.294 E41.95621
G1 X-14.48 Y4.553 E42.00322
G1 X-14.206 Y4.87 E42.05025
G1 X-13.997 Y5.233 E42.09727
G1 X-13.861 Y5.63 E42.14438
G1 X-13.837 Y5.828 E42.16676
G1 X-13.662 Y5.28 E42.23134
G1 X-13.462 Y4.912 E42.27836
G1 X-13.195 Y4.589 E42.3254
G1 X-12.872 Y4.322 E42.37244
G1 X-12.504 Y4.121 E42.41951
G1 X-12.105 Y3.994 E42.46651
G1 X-11.639 Y3.944 E42.51912
G1 X-7.132 Y3.943 E43.02505
G1 X-6.572 Y3.732 E43.09222
G1 X-6.156 Y3.684 E43.13923
G1 X-5.738 Y3.717 E43.1863
G1 X-5.334 Y3.828 E43.23333
G1 X-5.1 Y3.943 E43.26259
G1 X-2.47 Y3.943 E43.55782
G1 X-2.035 Y3.803 E43.60912
G1 X-1.601 Y3.76 E43.65807
G1 X0.976 Y3.759 E43.94735
G0 F1215 X1.508 Y3.759
G0 F3600 X1.508 Y4.159
G1 F1350 X1.885 Y4.199 E43.98991
G1 X2.294 Y4.344 E44.03862
G1 X5.196 Y4.345 E44.36437
G1 X5.476 Y4.203 E44.39962
G1 X5.842 Y4.106 E44.44212
G1 X6.221 Y4.088 E44.48471
G1 X6.595 Y4.15 E44.52727
G1 X7.03 Y4.343 E44.58069
G1 X11.64 Y4.343 E45.09817
G1 X12.017 Y4.383 E45.14073
G1 X12.377 Y4.501 E45.18326
G1 X12.704 Y4.691 E45.22571
G1 X12.985 Y4.946 E45.2683
G1 X13.295 Y5.436 E45.33339
G1 X13.451 Y5.901 E45.38845
G1 X13.484 Y6.279 E45.43104
G1 X13.437 Y6.655 E45.47358
G1 X13.313 Y7.013 E45.51611
G1 X13.116 Y7.337 E45.55867
G1 X12.956 Y7.519 E45.58587
G1 X11.777 Y8.697 E45.77296
G1 X11.482 Y8.935 E45.81551
G1 X11.144 Y9.107 E45.85808
G1 X10.778 Y9.203 E45.90055
G1 X10.504 Y9.224 E45.9314
G1 X7.162 Y9.222 E46.30655
G1 X5.978 Y9.225 E46.43946
G1 X2.308 Y9.221 E46.85143
G1 X1.85 Y9.36 E46.90516
G1 X1.576 Y9.381 E46.936
G1 X-1.627 Y9.381 E47.29555
G1 X-2.004 Y9.341 E47.33811
G1 X-2.353 Y9.227 E47.37932
G1 X-8.964 Y9.222 E48.12142
G1 X-9.897 Y9.225 E48.22616
G1 X-10.509 Y9.224 E48.29486
G1 X-10.886 Y9.183 E48.33742
G1 X-11.246 Y9.065 E48.37995
G1 X-11.573 Y8.874 E48.42246
G1 X-11.779 Y8.697 E48.45295
G1 X-12.956 Y7.52 E48.6398
G1 X-13.194 Y7.225 E48.68234
G1 X-13.365 Y6.887 E48.72487
G1 X-13.462 Y6.521 E48.76737
G1 X-13.48 Y6.142 E48.80996
G1 X-13.418 Y5.768 E48.85252
G1 X-13.294 Y5.437 E48.89219
G1 X-13.11 Y5.106 E48.9347
G1 X-12.86 Y4.821 E48.97726
G1 X-12.556 Y4.595 E49.01978
G1 X-12.211 Y4.437 E49.06238
G1 X-11.639 Y4.344 E49.12743
G1 X-7.042 Y4.343 E49.64346
G1 X-6.68 Y4.175 E49.68825
G1 X-6.31 Y4.095 E49.73075
G1 X-5.931 Y4.094 E49.77329
G1 X-5.56 Y4.172 E49.81585
G1 X-5.192 Y4.343 E49.8614
G1 X-2.369 Y4.343 E50.17829
G1 X-1.884 Y4.183 E50.23562
G1 X-1.601 Y4.16 E50.26749
G1 X0.976 Y4.159 E50.55677
G0 F1215 X1.508 Y4.159
G0 F3600 X1.509 Y4.559
G1 F1350 X1.84 Y4.599 E50.59419
G1 X2.173 Y4.744 E50.63496
G1 X5.318 Y4.745 E50.988
G1 X5.693 Y4.55 E51.03544
G1 X6.021 Y4.488 E51.07291
G1 X6.355 Y4.506 E51.11046
G1 X6.675 Y4.601 E51.14793
G1 X6.917 Y4.743 E51.17943
G1 X11.64 Y4.743 E51.7096
G1 X11.972 Y4.783 E51.74714
G1 X12.284 Y4.9 E51.78454
G1 X12.561 Y5.088 E51.82212
G1 X12.784 Y5.336 E51.85956
G1 X12.971 Y5.696 E51.9051
G1 X13.065 Y6.017 E51.94264
G1 X13.08 Y6.35 E51.98006
G1 X13.016 Y6.678 E52.01757
G1 X12.875 Y6.981 E52.05509
G1 X12.674 Y7.236 E52.09154
G1 X11.495 Y8.414 E52.27862
G1 X11.232 Y8.621 E52.31619
G1 X10.928 Y8.759 E52.35367
G1 X10.504 Y8.824 E52.40182
G1 X7.161 Y8.822 E52.77708
G1 X5.979 Y8.825 E52.90977
G1 X2.228 Y8.821 E53.33083
G1 X1.999 Y8.916 E53.35866
G1 X1.576 Y8.981 E53.4067
G1 X-1.627 Y8.981 E53.76624
G1 X-1.959 Y8.941 E53.80378
G1 X-2.264 Y8.827 E53.84033
G1 X-8.965 Y8.822 E54.59254
G1 X-9.896 Y8.825 E54.69705
G1 X-10.508 Y8.824 E54.76575
G1 X-10.84 Y8.784 E54.80328
G1 X-11.153 Y8.666 E54.84083
G1 X-11.496 Y8.414 E54.88861
G1 X-12.673 Y7.237 E55.07546
G1 X-12.879 Y6.974 E55.11296
G1 X-13.018 Y6.67 E55.15048
G1 X-13.08 Y6.342 E55.18795
G1 X-13.062 Y6.008 E55.2255
G1 X-12.926 Y5.594 E55.27442
G1 X-12.759 Y5.305 E55.31188
G1 X-12.529 Y5.063 E55.34936
G1 X-12.247 Y4.883 E55.38692
G1 X-11.931 Y4.775 E55.4244
G1 X-11.639 Y4.744 E55.45736
G1 X-6.913 Y4.743 E55.98787
G1 X-6.719 Y4.62 E56.01366
G1 X-6.402 Y4.514 E56.05118
G1 X-6.069 Y4.485 E56.0887
G1 X-5.739 Y4.536 E56.12618
G1 X-5.325 Y4.743 E56.17814
G1 X-2.275 Y4.743 E56.52051
G1 X-2.069 Y4.641 E56.54632
G1 X-1.6 Y4.56 E56.59974
G1 X0.977 Y4.559 E56.88902
G0 F1215 X1.509 Y4.559
G0 F3600 X1.509 Y4.959
G1 F1350 X1.788 Y4.999 E56.92066
G1 X2.089 Y5.143 E56.95811
G1 X4.046 Y5.146 E57.17779
G1 X5.454 Y5.144 E57.33584
G1 X5.635 Y5.009 E57.36119
G1 X5.899 Y4.909 E57.39288
G1 X6.18 Y4.887 E57.42452
G1 X6.456 Y4.945 E57.45618
G1 X6.773 Y5.143 E57.49813
G1 X11.64 Y5.143 E58.04447
G1 X11.919 Y5.183 E58.07611
G1 X12.176 Y5.299 E58.10776
G1 X12.391 Y5.482 E58.13945
G1 X12.604 Y5.853 E58.18747
G1 X12.677 Y6.126 E58.21919
G1 X12.671 Y6.408 E58.25086
G1 X12.586 Y6.677 E58.28252
G1 X12.391 Y6.953 E58.32046
G1 X11.212 Y8.131 E58.50755
G1 X10.986 Y8.301 E58.53929
G1 X10.722 Y8.4 E58.57094
G1 X10.504 Y8.424 E58.59556
G1 X7.16 Y8.422 E58.97093
G1 X5.979 Y8.425 E59.10351
G1 X2.15 Y8.421 E59.53332
G1 X1.793 Y8.557 E59.57621
G1 X1.576 Y8.581 E59.60071
G1 X-1.627 Y8.581 E59.96026
G1 X-1.906 Y8.541 E59.9919
G1 X-2.159 Y8.427 E60.02305
G1 X-8.967 Y8.422 E60.78727
G1 X-9.896 Y8.425 E60.89155
G1 X-10.508 Y8.424 E60.96025
