;FLAVOR:Marlin
;TIME:4751
;Filament used: 7.14494m
;Layer height: 0.24
;MINX:-51.801
;MINY:-33.8
;MINZ:0.3
;MAXX:61.8
;MAXY:33.8
;MAXZ:14.94
;Generated with Cura_SteamEngine 4.13.1
M140 S40
M105
M190 S40
M104 S210
M105
M109 S210
M82 ;absolute extrusion mode
;FLAVOR:Marlin
M82 ;absolute extrusion mode
G21
G90
M82
M107 T0
G28
G92 E0
G0 E3 F200
G92 E0 ; reset extrusion distance
M106 S255 ; Enable cooling fan full speed
G1 X-98 Y0 Z0.4 F3000 ; move to arc start
G3 X0 Y-98 I98 Z0.4 E40 F400 ; lay arc stripe 90deg
G92 E0 ; reset extrusion distance
G4 P500 ; wait for 0.5 sec
G0 Z10 E-1 ; Lift 15mm and retract 1mm filament
G4 P2000 ; wait for 5 sec
G0 Z15
M107 ; Disable cooling fan
G1 X0 Y-85 Z4 E0 F3000 ; get off the bed
G92 E0
G92 E0
G1 F1500 E-6.5
;LAYER_COUNT:63
;LAYER:0
M107
G0 F3600 X-2.392 Y20.819 Z0.3
;TYPE:SKIRT
G1 F1500 E0.12473
G1 X-1.482 Y20.908 E0.1749
G1 X-.525 Y20.988 E0.22761
G1 X0.344 Y21.05 E0.27542
G1 X1.315 Y21.106 E0.32879
G1 X2.21 Y21.147 E0.37796
G1 X3.159 Y21.177 E0.43007
G1 X4.045 Y21.194 E0.4787
G1 X5 Y21.2 E0.53111
G1 X5.955 Y21.194 E0.58352
G1 X6.84 Y21.177 E0.6321
G1 X7.79 Y21.147 E0.68426
G1 X8.685 Y21.106 E0.73343
G1 X9.656 Y21.05 E0.78681
G1 X10.524 Y20.988 E0.83456
G1 X11.482 Y20.908 E0.88732
G1 X12.392 Y20.819 E0.9375
G1 X13.264 Y20.723 E0.98564
G1 X14.165 Y20.61 E1.03547
G1 X15.079 Y20.483 E1.08612
G1 X15.934 Y20.354 E1.13357
G1 X16.854 Y20.201 E1.18475
G1 X17.662 Y20.055 E1.22981
G1 X18.578 Y19.875 E1.28104
G1 X19.395 Y19.703 E1.32686
G1 X20.303 Y19.498 E1.37795
G1 X21.048 Y19.32 E1.41998
G1 X21.868 Y19.107 E1.46648
G1 X22.751 Y18.864 E1.51674
G1 X23.493 Y18.648 E1.55915
G1 X24.217 Y18.425 E1.60072
G1 X25.018 Y18.164 E1.64695
G1 X25.762 Y17.906 E1.69017
G1 X26.507 Y17.636 E1.73366
G1 X27.228 Y17.359 E1.77604
G1 X27.91 Y17.083 E1.81642
G1 X28.668 Y16.761 E1.86162
G1 X29.29 Y16.483 E1.89901
G1 X29.998 Y16.152 E1.9419
G1 X30.6 Y15.855 E1.97874
G1 X31.275 Y15.507 E2.02041
G1 X31.904 Y15.166 E2.05968
G1 X32.469 Y14.846 E2.09531
G1 X33.072 Y14.486 E2.13385
G1 X33.661 Y14.121 E2.17188
G1 X34.212 Y13.761 E2.208
G1 X34.767 Y13.383 E2.24485
G1 X35.273 Y13.022 E2.27896
G1 X35.825 Y12.609 E2.3168
G1 X36.321 Y12.22 E2.35139
G1 X36.797 Y11.831 E2.38513
G1 X37.258 Y11.436 E2.41844
G1 X37.71 Y11.031 E2.45175
G1 X38.151 Y10.618 E2.48491
G1 X38.546 Y10.231 E2.51526
G1 X38.996 Y9.771 E2.55057
G1 X39.365 Y9.376 E2.58023
G1 X39.798 Y8.89 E2.61596
G1 X40.162 Y8.463 E2.64675
G1 X40.506 Y8.041 E2.67663
G1 X40.841 Y7.611 E2.70654
G1 X41.174 Y7.163 E2.73718
G1 X41.53 Y6.661 E2.77095
G1 X41.815 Y6.238 E2.79894
G1 X42.117 Y5.773 E2.82937
G1 X42.416 Y5.288 E2.86064
G1 X42.693 Y4.813 E2.89081
G1 X42.943 Y4.364 E2.91902
G1 X43.199 Y3.88 E2.94906
G1 X43.47 Y3.342 E2.98212
G1 X43.697 Y2.868 E3.01097
G1 X43.904 Y2.412 E3.03845
G1 X44.123 Y1.902 E3.06891
G1 X44.53 Y0.874 E3.12958
G1 X44.887 Y-.139 E3.18853
G1 X45.201 Y-1.138 E3.246
G1 X45.496 Y-2.208 E3.30691
G1 X45.754 Y-3.276 E3.36721
G1 X45.966 Y-4.306 E3.42492
G1 X46.158 Y-5.383 E3.48495
G1 X46.318 Y-6.453 E3.54433
G1 X46.445 Y-7.483 E3.60128
G1 X46.556 Y-8.61 E3.66343
G1 X46.639 Y-9.68 E3.72233
G1 X46.701 Y-10.787 E3.78317
G1 X46.741 Y-11.824 E3.84012
G1 X46.763 Y-12.881 E3.89814
G1 X46.77 Y-13.985 E3.95873
G1 X46.763 Y-15.044 E4.01685
G1 X46.744 Y-16.052 E4.07218
G1 X46.714 Y-17.126 E4.13114
G1 X46.677 Y-18.151 E4.18743
G1 X46.634 Y-19.166 E4.24318
G1 X46.587 Y-20.166 E4.29812
G1 X46.341 Y-24.939 E4.56041
G1 X46.301 Y-25.837 E4.60974
G1 X46.266 Y-26.714 E4.65791
G1 X46.237 Y-27.576 E4.70524
G1 X46.216 Y-28.415 E4.7513
G1 X46.204 Y-29.225 E4.79575
G1 X46.199 Y-29.975 E4.83691
G1 X46.235 Y-30.524 E4.86711
G1 X46.351 Y-31.063 E4.89736
G1 X46.543 Y-31.58 E4.92763
G1 X46.808 Y-32.063 E4.95786
G1 X47.14 Y-32.503 E4.98811
G1 X47.532 Y-32.89 E5.01834
G1 X47.975 Y-33.216 E5.04853
G1 X48.462 Y-33.475 E5.0788
G1 X48.981 Y-33.661 E5.10906
G1 X49.521 Y-33.77 E5.13929
G1 X49.999 Y-33.8 E5.16557
G1 X58 Y-33.8 E5.60466
G1 X58.55 Y-33.76 E5.63492
G1 X59.088 Y-33.641 E5.66516
G1 X59.603 Y-33.445 E5.6954
G1 X60.084 Y-33.177 E5.72562
G1 X60.522 Y-32.843 E5.75585
G1 X60.906 Y-32.448 E5.78608
G1 X61.23 Y-32.002 E5.81633
G1 X61.485 Y-31.514 E5.84655
G1 X61.668 Y-30.994 E5.8768
G1 X61.773 Y-30.453 E5.90705
G1 X61.8 Y-29.993 E5.93234
G1 X61.795 Y-27.267 E6.08194
G1 X61.779 Y-24.557 E6.23066
G1 X61.752 Y-21.86 E6.37868
G1 X61.712 Y-19.182 E6.52566
G1 X61.661 Y-16.516 E6.672
G1 X61.594 Y-13.87 E6.81725
G1 X61.511 Y-11.243 E6.96149
G1 X61.41 Y-8.64 E7.10445
G1 X61.288 Y-6.061 E7.24614
G1 X61.142 Y-3.511 E7.38631
G1 X60.972 Y-1.005 E7.52416
G1 X60.874 Y0.242 E7.5928
G1 X60.769 Y1.477 E7.66082
G1 X60.655 Y2.702 E7.72834
G1 X60.532 Y3.92 E7.79552
G1 X60.399 Y5.123 E7.86195
G1 X60.256 Y6.316 E7.92789
G1 X60.102 Y7.498 E7.9933
G1 X59.937 Y8.665 E8.05798
G1 X59.759 Y9.821 E8.12217
G1 X59.568 Y10.96 E8.18555
G1 X59.363 Y12.087 E8.24841
G1 X59.144 Y13.195 E8.3104
G1 X58.908 Y14.299 E8.37235
G1 X58.656 Y15.371 E8.43279
G1 X58.387 Y16.436 E8.49307
G1 X58.099 Y17.477 E8.55234
G1 X57.789 Y18.509 E8.61148
G1 X57.459 Y19.515 E8.66958
G1 X57.107 Y20.501 E8.72704
G1 X56.774 Y21.361 E8.77765
G1 X56.73 Y21.47 E8.7841
G1 X56.378 Y22.302 E8.83368
G1 X56.324 Y22.423 E8.84095
G1 X55.952 Y23.223 E8.88937
G1 X55.895 Y23.34 E8.89651
G1 X55.503 Y24.113 E8.94407
G1 X55.432 Y24.246 E8.95235
G1 X55.019 Y24.986 E8.99885
G1 X54.94 Y25.122 E9.00749
G1 X54.506 Y25.829 E9.05301
G1 X54.413 Y25.973 E9.06242
G1 X53.957 Y26.646 E9.10703
G1 X53.852 Y26.793 E9.11695
G1 X53.373 Y27.432 E9.16077
G1 X53.25 Y27.588 E9.17168
G1 X52.746 Y28.192 E9.21485
G1 X52.611 Y28.344 E9.226
G1 X52.083 Y28.912 E9.26856
G1 X51.934 Y29.064 E9.28024
G1 X51.383 Y29.594 E9.3222
G1 X51.209 Y29.751 E9.33506
G1 X50.631 Y30.242 E9.37668
G1 X50.45 Y30.387 E9.38941
G1 X49.847 Y30.839 E9.43077
G1 X49.648 Y30.978 E9.44409
G1 X49.018 Y31.39 E9.4854
G1 X48.531 Y31.681 E9.51653
G1 X47.988 Y31.976 E9.55045
G1 X47.532 Y32.203 E9.5784
G1 X47.072 Y32.412 E9.60613
G1 X46.61 Y32.605 E9.63361
G1 X46.127 Y32.789 E9.66197
G1 X45.652 Y32.952 E9.68953
G1 X45.148 Y33.107 E9.71847
G1 X44.279 Y33.332 E9.76773
G1 X43.766 Y33.443 E9.79653
G1 X43.242 Y33.539 E9.82577
G1 X42.711 Y33.62 E9.85525
G1 X42.194 Y33.683 E9.88383
G1 X41.666 Y33.733 E9.91294
G1 X41.125 Y33.77 E9.9427
G1 X40.57 Y33.792 E9.97318
G1 X40.053 Y33.8 E10.00155
G1 X-30.052 Y33.8 E13.84886
G1 X-30.597 Y33.792 E13.87877
G1 X-31.152 Y33.77 E13.90926
G1 X-31.689 Y33.736 E13.93878
G1 X-32.233 Y33.686 E13.96876
G1 X-32.758 Y33.624 E13.99778
G1 X-33.285 Y33.547 E14.02701
G1 X-33.8 Y33.458 E14.05569
G1 X-34.339 Y33.348 E14.08588
G1 X-34.839 Y33.228 E14.1141
G1 X-35.34 Y33.092 E14.14258
G1 X-35.839 Y32.941 E14.1712
G1 X-36.314 Y32.781 E14.1987
G1 X-36.798 Y32.601 E14.22704
G1 X-37.287 Y32.401 E14.25604
G1 X-38.081 Y32.034 E14.30404
G1 X-38.543 Y31.794 E14.33261
G1 X-38.98 Y31.549 E14.3601
G1 X-39.131 Y31.459 E14.36975
G1 X-39.772 Y31.056 E14.4113
G1 X-39.976 Y30.918 E14.42482
G1 X-40.59 Y30.474 E14.4664
G1 X-40.78 Y30.327 E14.47959
G1 X-41.366 Y29.844 E14.52126
G1 X-41.535 Y29.696 E14.53359
G1 X-42.096 Y29.175 E14.57561
G1 X-42.253 Y29.021 E14.58767
G1 X-42.788 Y28.463 E14.6301
G1 X-42.926 Y28.31 E14.64141
G1 X-43.435 Y27.718 E14.68425
G1 X-43.566 Y27.558 E14.6956
G1 X-44.05 Y26.929 E14.73916
G1 X-44.16 Y26.778 E14.74941
G1 X-44.62 Y26.115 E14.79369
G1 X-44.714 Y25.973 E14.80304
G1 X-45.152 Y25.277 E14.84817
G1 X-45.239 Y25.131 E14.8575
G1 X-45.653 Y24.403 E14.90346
G1 X-45.724 Y24.272 E14.91163
G1 X-46.117 Y23.513 E14.95854
G1 X-46.183 Y23.381 E14.96664
G1 X-46.554 Y22.591 E15.01454
G1 X-46.606 Y22.475 E15.02151
G1 X-46.958 Y21.655 E15.07048
G1 X-47.335 Y20.698 E15.12693
G1 X-47.377 Y20.586 E15.1335
G1 X-47.721 Y19.619 E15.18982
G1 X-48.045 Y18.627 E15.24709
G1 X-48.323 Y17.7 E15.3002
G1 X-48.628 Y16.585 E15.36364
G1 X-48.892 Y15.535 E15.42306
G1 X-49.135 Y14.471 E15.48295
G1 X-49.363 Y13.39 E15.54358
G1 X-49.575 Y12.29 E15.60506
G1 X-49.771 Y11.179 E15.66697
G1 X-49.954 Y10.047 E15.7299
G1 X-50.122 Y8.908 E15.79309
G1 X-50.28 Y7.748 E15.85734
G1 X-50.425 Y6.578 E15.92204
G1 X-50.559 Y5.394 E15.98743
G1 X-50.682 Y4.202 E16.05319
G1 X-50.797 Y2.989 E16.12006
G1 X-50.901 Y1.774 E16.18698
G1 X-50.999 Y0.539 E16.25497
G1 X-51.086 Y-.698 E16.32302
G1 X-51.167 Y-1.95 E16.39187
G1 X-51.242 Y-3.221 E16.46175
G1 X-51.371 Y-5.769 E16.60176
G1 X-51.477 Y-8.352 E16.74363
G1 X-51.564 Y-10.965 E16.88711
G1 X-51.633 Y-13.607 E17.03215
G1 X-51.689 Y-16.279 E17.17882
G1 X-51.731 Y-18.976 E17.32685
G1 X-51.762 Y-21.698 E17.47624
G1 X-51.783 Y-24.443 E17.62689
G1 X-51.796 Y-27.211 E17.77879
G1 X-51.801 Y-29.993 E17.93147
G1 X-51.762 Y-30.543 E17.96173
G1 X-51.644 Y-31.081 E17.99195
G1 X-51.449 Y-31.596 E18.02217
G1 X-51.182 Y-32.078 E18.05241
G1 X-50.848 Y-32.517 E18.08269
G1 X-50.454 Y-32.902 E18.11292
G1 X-50.009 Y-33.226 E18.14313
G1 X-49.521 Y-33.483 E18.17339
G1 X-49.002 Y-33.666 E18.20359
G1 X-48.461 Y-33.772 E18.23385
G1 X-48.001 Y-33.8 E18.25914
G1 X-40 Y-33.8 E18.69823
G1 X-39.45 Y-33.76 E18.72849
G1 X-38.912 Y-33.641 E18.75873
G1 X-38.397 Y-33.445 E18.78897
G1 X-37.916 Y-33.177 E18.81919
G1 X-37.478 Y-32.843 E18.84942
G1 X-37.094 Y-32.448 E18.87965
G1 X-36.77 Y-32.002 E18.9099
G1 X-36.515 Y-31.514 E18.94012
G1 X-36.332 Y-30.994 E18.97037
G1 X-36.227 Y-30.453 E19.00062
G1 X-36.2 Y-29.98 E19.02662
G1 X-36.204 Y-29.192 E19.06986
G1 X-36.217 Y-28.38 E19.11443
G1 X-36.238 Y-27.544 E19.16032
G1 X-36.267 Y-26.692 E19.20711
G1 X-36.302 Y-25.817 E19.25516
G1 X-36.355 Y-24.648 E19.31938
G1 X-36.449 Y-22.795 E19.42121
G1 X-36.588 Y-20.152 E19.56645
G1 X-36.635 Y-19.149 E19.62156
G1 X-36.678 Y-18.128 E19.67764
G1 X-36.715 Y-17.095 E19.73436
G1 X-36.745 Y-16.052 E19.79163
G1 X-36.763 Y-15.044 E19.84695
G1 X-36.77 Y-13.938 E19.90765
G1 X-36.763 Y-12.882 E19.96561
G1 X-36.741 Y-11.823 E20.02373
G1 X-36.701 Y-10.785 E20.08074
G1 X-36.639 Y-9.68 E20.14148
G1 X-36.556 Y-8.609 E20.20043
G1 X-36.445 Y-7.482 E20.26258
G1 X-36.319 Y-6.459 E20.31914
G1 X-36.157 Y-5.379 E20.37908
G1 X-35.964 Y-4.294 E20.43956
G1 X-35.753 Y-3.273 E20.49677
G1 X-35.496 Y-2.208 E20.5569
G1 X-35.206 Y-1.156 E20.61678
G1 X-34.884 Y-.128 E20.6759
G1 X-34.525 Y0.89 E20.73514
G1 X-34.125 Y1.898 E20.79465
G1 X-33.915 Y2.388 E20.82391
G1 X-33.687 Y2.888 E20.85407
G1 X-33.45 Y3.384 E20.88424
G1 X-33.225 Y3.831 E20.9117
G1 X-32.947 Y4.358 E20.9444
G1 X-32.707 Y4.788 E20.97142
G1 X-32.388 Y5.333 E21.00608
G1 X-32.143 Y5.731 E21.03173
G1 X-31.805 Y6.254 E21.0659
G1 X-31.53 Y6.661 E21.09286
G1 X-31.179 Y7.156 E21.12616
G1 X-30.832 Y7.623 E21.15809
G1 X-30.48 Y8.074 E21.18949
G1 X-30.146 Y8.484 E21.21851
G1 X-29.773 Y8.921 E21.25004
G1 X-29.376 Y9.365 E21.28272
G1 X-28.952 Y9.82 E21.31686
G1 X-28.555 Y10.224 E21.34794
G1 X-28.149 Y10.62 E21.37906
G1 X-27.676 Y11.062 E21.41459
G1 X-27.191 Y11.494 E21.45024
G1 X-26.768 Y11.855 E21.48075
G1 X-26.297 Y12.238 E21.51407
G1 X-25.777 Y12.645 E21.55031
G1 X-25.285 Y13.013 E21.58403
G1 X-24.745 Y13.398 E21.62042
G1 X-24.219 Y13.756 E21.65534
G1 X-23.647 Y14.129 E21.69281
G1 X-23.054 Y14.498 E21.73114
G1 X-22.484 Y14.838 E21.76757
G1 X-21.881 Y15.18 E21.80561
G1 X-21.274 Y15.508 E21.84348
G1 X-20.619 Y15.846 E21.88393
G1 X-19.994 Y16.154 E21.92216
G1 X-19.299 Y16.48 E21.96429
G1 X-18.668 Y16.761 E22.0022
G1 X-17.912 Y17.082 E22.04727
G1 X-17.186 Y17.378 E22.0903
G1 X-16.541 Y17.623 E22.12816
G1 X-15.755 Y17.908 E22.17405
G1 X-14.988 Y18.173 E22.21858
G1 X-14.249 Y18.414 E22.26124
G1 X-13.473 Y18.653 E22.3058
G1 X-12.663 Y18.888 E22.35209
G1 X-11.847 Y19.112 E22.39852
G1 X-11.028 Y19.323 E22.44494
G1 X-10.197 Y19.522 E22.49183
G1 X-9.372 Y19.708 E22.53824
G1 X-8.574 Y19.876 E22.583
G1 X-7.696 Y20.048 E22.6321
G1 X-6.815 Y20.207 E22.68123
G1 X-5.934 Y20.354 E22.73024
G1 X-5.079 Y20.483 E22.7777
G1 X-4.165 Y20.61 E22.82834
G1 X-3.264 Y20.723 E22.87817
G1 X-2.92 Y20.761 E22.89716
G0 F1350 X-2.392 Y20.819
G0 F3600 X-2.394 Y21.22
G1 F1500 X-1.486 Y21.309 E22.94723
G1 X-.558 Y21.387 E22.99834
G1 X0.341 Y21.451 E23.0478
G1 X1.249 Y21.503 E23.09771
G1 X2.223 Y21.547 E23.15122
G1 X3.138 Y21.577 E23.20146
G1 X4.043 Y21.594 E23.25114
G1 X5 Y21.6 E23.30366
G1 X5.957 Y21.594 E23.35618
G1 X6.861 Y21.577 E23.4058
G1 X7.777 Y21.547 E23.45609
G1 X8.751 Y21.504 E23.5096
G1 X9.658 Y21.451 E23.55946
G1 X10.558 Y21.387 E23.60897
G1 X11.48 Y21.31 E23.65975
G1 X12.394 Y21.22 E23.71015
G1 X13.349 Y21.115 E23.76288
G1 X14.203 Y21.009 E23.8101
G1 X15.115 Y20.882 E23.86064
G1 X16.038 Y20.742 E23.91187
G1 X16.886 Y20.602 E23.95904
G1 X17.777 Y20.44 E24.00874
G1 X18.621 Y20.275 E24.05593
G1 X19.483 Y20.093 E24.10428
G1 X20.391 Y19.888 E24.15536
G1 X21.131 Y19.711 E24.19712
G1 X22.009 Y19.483 E24.2469
G1 X22.84 Y19.255 E24.29419
G1 X23.595 Y19.035 E24.33735
G1 X24.339 Y18.806 E24.38007
G1 X25.146 Y18.542 E24.42667
G1 X25.902 Y18.281 E24.47056
G1 X26.647 Y18.01 E24.51406
G1 X27.394 Y17.723 E24.55798
G1 X28.104 Y17.436 E24.60001
G1 X28.787 Y17.146 E24.64073
G1 X29.457 Y16.846 E24.68102
G1 X30.186 Y16.505 E24.72518
G1 X30.803 Y16.201 E24.76293
G1 X31.451 Y15.867 E24.80294
G1 X32.106 Y15.512 E24.84382
G1 X32.673 Y15.191 E24.87958
G1 X33.265 Y14.837 E24.91744
G1 X33.892 Y14.448 E24.95793
G1 X34.434 Y14.094 E24.99346
G1 X34.974 Y13.726 E25.02932
G1 X35.54 Y13.322 E25.06748
G1 X36.044 Y12.945 E25.10202
G1 X36.605 Y12.505 E25.14115
G1 X37.05 Y12.141 E25.1727
G1 X37.508 Y11.749 E25.20578
G1 X37.985 Y11.321 E25.24095
G1 X38.398 Y10.935 E25.27198
G1 X38.851 Y10.493 E25.30671
G1 X39.259 Y10.075 E25.33877
G1 X39.701 Y9.602 E25.37429
G1 X40.076 Y9.181 E25.40523
G1 X40.439 Y8.755 E25.43595
G1 X40.831 Y8.274 E25.47
G1 X41.173 Y7.835 E25.50054
G1 X41.502 Y7.393 E25.53078
G1 X41.833 Y6.925 E25.56224
G1 X42.149 Y6.458 E25.59318
G1 X42.461 Y5.977 E25.62465
G1 X42.755 Y5.5 E25.6554
G1 X43.051 Y4.993 E25.68762
G1 X43.307 Y4.531 E25.7166
G1 X43.552 Y4.068 E25.74535
G1 X43.812 Y3.553 E25.77701
G1 X44.066 Y3.023 E25.80926
G1 X44.278 Y2.557 E25.83736
G1 X44.487 Y2.071 E25.86639
G1 X44.912 Y0.997 E25.92978
G1 X45.265 Y-0.004 E25.98803
G1 X45.589 Y-1.036 E26.04739
G1 X45.879 Y-2.089 E26.10733
G1 X46.15 Y-3.213 E26.17078
G1 X46.358 Y-4.226 E26.22753
G1 X46.548 Y-5.291 E26.2869
G1 X46.719 Y-6.434 E26.35033
G1 X46.842 Y-7.438 E26.40584
G1 X46.957 Y-8.598 E26.46981
G1 X47.036 Y-9.628 E26.5265
G1 X47.1 Y-10.765 E26.589
G1 X47.14 Y-11.802 E26.64595
G1 X47.163 Y-12.87 E26.70458
G1 X47.17 Y-13.982 E26.7656
G1 X47.163 Y-15.047 E26.82405
G1 X47.144 Y-16.063 E26.87982
G1 X47.114 Y-17.137 E26.93878
G1 X47.077 Y-18.166 E26.99529
G1 X47.034 Y-19.183 E27.05115
G1 X46.987 Y-20.185 E27.1062
G1 X46.74 Y-24.957 E27.36843
G1 X46.701 Y-25.853 E27.41765
G1 X46.666 Y-26.727 E27.46565
G1 X46.637 Y-27.586 E27.51282
G1 X46.616 Y-28.421 E27.55866
G1 X46.604 Y-29.227 E27.6029
G1 X46.599 Y-29.977 E27.64406
G1 X46.636 Y-30.497 E27.67267
G1 X46.751 Y-31.005 E27.70125
G1 X46.943 Y-31.49 E27.72988
G1 X47.206 Y-31.94 E27.75848
G1 X47.536 Y-32.344 E27.78711
G1 X47.923 Y-32.692 E27.81567
G1 X48.359 Y-32.978 E27.84429
G1 X48.833 Y-33.194 E27.87287
G1 X49.335 Y-33.335 E27.90149
G1 X49.999 Y-33.4 E27.9381
G1 X58 Y-33.4 E28.37719
G1 X58.52 Y-33.36 E28.40581
G1 X59.027 Y-33.241 E28.43439
G1 X59.51 Y-33.046 E28.46298
G1 X59.958 Y-32.78 E28.49157
G1 X60.36 Y-32.448 E28.52018
G1 X60.706 Y-32.058 E28.5488
G1 X60.989 Y-31.62 E28.57741
G1 X61.202 Y-31.145 E28.60598
G1 X61.339 Y-30.642 E28.63459
G1 X61.4 Y-29.994 E28.67031
G1 X61.395 Y-27.27 E28.8198
G1 X61.379 Y-24.561 E28.96847
G1 X61.352 Y-21.866 E29.11638
G1 X61.312 Y-19.189 E29.26331
