;FLAVOR:Marlin
;TIME:10360
;Filament used: 6.43204m
;Layer height: 0.2
;MINX:-58.159
;MINY:-87.247
;MINZ:0.3
;MAXX:33.609
;MAXY:65.979
;MAXZ:29.5
;TARGET_MACHINE.NAME:Unknown
;POSTPROCESSED
;  [CreateThumbnail]
;Generated with Cura_SteamEngine 5.11.0
;
;

M140 S50
M105
M190 S50
M104 S230
M105
M109 S230
;FLAVOR:Marlin
M82 ;absolute extrusion mode
G21
G90
M82
M107 T0
G28
G92 E0
G0 E3 F200
G92 E0 ; reset extrusion distance
M106 S255 ; Enable cooling fan full speed
G1 X-98 Y0 Z0.4 F3000 ; move to arc start
G3 X0 Y-98 I98 Z0.4 E40 F400 ; lay arc stripe 90deg
G92 E0 ; reset extrusion distance
G4 P500 ; wait for 0.5 sec
G0 Z10 E-1 ; Lift 15mm and retract 1mm filament
G4 P2000 ; wait for 5 sec
G0 Z15
M107 ; Disable cooling fan
G1 X0 Y-85 Z4 E0 F3000 ; get off the bed
M82 ;absolute extrusion mode
G92 E0
G92 E0
G1 F1500 E-6.5
;LAYER_COUNT:122
;LAYER:0
M107
G1 F600 Z1.3
G0 F3600 X0.00 Y0.00 Z1.3
G0 X3.825 Y-21.864
;TYPE:SKIRT
G1 F600 Z0.3
G1 F1500 E0
G1 F1200 X2.502 Y-22.328 E0.05596
G1 X-30.667 Y-22.34 E1.3798
G1 X-32.767 Y-22.787 E1.4655
G1 X-34.501 Y-23.655 E1.54289
G1 X-36.046 Y-24.888 E1.62179
G1 X-37.275 Y-26.557 E1.70451
G1 X-43.018 Y-36.533 E2.16394
G1 X-43.533 Y-37.68 E2.21412
G1 X-43.917 Y-38.873 E2.26414
G1 X-44.219 Y-40.484 E2.32956
G1 X-44.305 Y-41.793 E2.38192
G1 X-44.251 Y-76.632 E3.77242
G1 X-43.971 Y-78.474 E3.84678
G1 X-43.569 Y-79.804 E3.90224
G1 X-42.952 Y-81.156 E3.96155
G1 X-41.89 Y-82.792 E4.0394
G1 X-40.545 Y-84.263 E4.11895
G1 X-39.832 Y-84.86 E4.15607
G1 X-37.454 Y-86.267 E4.26635
G1 X-36.685 Y-86.572 E4.29937
G1 X-33.94 Y-87.182 E4.4116
G1 X-32.848 Y-87.247 E4.45526
G1 X22.966 Y-87.208 E6.68292
G1 X23.92 Y-87.102 E6.72123
G1 X26.047 Y-86.55 E6.80893
G1 X27.38 Y-85.964 E6.86705
G1 X29.147 Y-84.876 E6.94987
G1 X30.482 Y-83.633 E7.02267
G1 X31.663 Y-82.145 E7.0985
G1 X32.425 Y-80.823 E7.1594
G1 X33.185 Y-78.796 E7.2458
G1 X33.524 Y-77.066 E7.31616
G1 X33.609 Y-75.79 E7.3672
G1 X33.591 Y-34.153 E9.02902
G1 X33.487 Y-32.775 E9.08418
G1 X33.197 Y-31.196 E9.14825
G1 X32.912 Y-30.2 E9.1896
G1 X32.026 Y-28.117 E9.27995
G1 X31.06 Y-26.54 E9.35376
G1 X30.485 Y-25.816 E9.39066
G1 X28.446 Y-23.928 E9.50157
G1 X27.104 Y-23.022 E9.5662
G1 X24.613 Y-22.153 E9.67149
G1 X23.233 Y-21.865 E9.72776
G1 X3.825 Y-21.864 E10.50237
G0 F3600 X3.891 Y-22.264
G1 F1200 X2.568 Y-22.728 E10.55833
G1 X-30.626 Y-22.74 E11.88318
G1 X-32.632 Y-23.167 E11.96503
G1 X-34.285 Y-23.995 E12.03882
G1 X-35.754 Y-25.167 E12.11383
G1 X-36.928 Y-26.757 E12.19271
G1 X-42.653 Y-36.698 E12.65057
G1 X-43.152 Y-37.803 E12.69896
G1 X-43.536 Y-38.996 E12.74898
G1 X-43.82 Y-40.51 E12.81046
G1 X-43.905 Y-41.792 E12.86174
G1 X-43.851 Y-76.631 E14.25225
G1 X-43.588 Y-78.359 E14.32201
G1 X-43.205 Y-79.639 E14.37533
G1 X-42.616 Y-80.938 E14.43226
G1 X-41.554 Y-82.574 E14.51011
G1 X-40.288 Y-83.956 E14.58491
G1 X-39.575 Y-84.553 E14.62203
G1 X-37.307 Y-85.895 E14.72721
G1 X-36.538 Y-86.2 E14.76023
G1 X-33.916 Y-86.783 E14.86743
G1 X-32.848 Y-86.847 E14.91013
G1 X22.922 Y-86.81 E17.13604
G1 X23.876 Y-86.704 E17.17435
G1 X25.887 Y-86.183 E17.25726
G1 X27.17 Y-85.623 E17.31313
G1 X28.903 Y-84.556 E17.39436
G1 X30.209 Y-83.34 E17.46558
G1 X31.316 Y-81.945 E17.53666
G1 X32.078 Y-80.623 E17.59756
G1 X32.792 Y-78.719 E17.67872
G1 X33.131 Y-76.989 E17.74908
G1 X33.209 Y-75.79 E17.79704
G1 X33.192 Y-34.183 E19.45766
G1 X33.088 Y-32.805 E19.51282
G1 X32.812 Y-31.306 E19.57365
G1 X32.527 Y-30.31 E19.615
G1 X31.685 Y-28.325 E19.70106
G1 X30.746 Y-26.787 E19.77298
G1 X30.213 Y-26.11 E19.80737
G1 X28.174 Y-24.222 E19.91828
G1 X26.925 Y-23.383 E19.97833
G1 X24.531 Y-22.545 E20.07957
G1 X23.189 Y-22.265 E20.13428
G1 X3.891 Y-22.264 E20.90451
G0 F3600 X3.957 Y-22.664
G1 F1200 X2.634 Y-23.128 E20.96046
G1 X-30.585 Y-23.14 E22.28631
G1 X-32.497 Y-23.547 E22.36433
G1 X-34.067 Y-24.333 E22.43441
G1 X-35.464 Y-25.448 E22.50574
G1 X-36.581 Y-26.957 E22.58068
G1 X-42.306 Y-36.898 E23.03854
G1 X-42.771 Y-37.926 E23.08357
G1 X-43.155 Y-39.119 E23.13359
G1 X-43.421 Y-40.537 E23.19117
G1 X-43.505 Y-41.791 E23.24133
G1 X-43.455 Y-76.572 E24.62952
G1 X-43.204 Y-78.245 E24.69704
G1 X-42.84 Y-79.475 E24.74824
G1 X-42.28 Y-80.721 E24.80276
G1 X-41.258 Y-82.304 E24.87796
G1 X-40.031 Y-83.649 E24.95063
G1 X-39.318 Y-84.246 E24.98774
G1 X-37.16 Y-85.523 E25.08782
G1 X-36.391 Y-85.828 E25.12084
G1 X-33.892 Y-86.384 E25.22302
G1 X-32.848 Y-86.447 E25.26477
G1 X22.878 Y-86.412 E27.48891
G1 X23.832 Y-86.306 E27.52722
G1 X25.786 Y-85.796 E27.60782
G1 X26.96 Y-85.282 E27.65897
G1 X28.659 Y-84.236 E27.73861
G1 X29.936 Y-83.047 E27.80825
G1 X30.969 Y-81.745 E27.87458
G1 X31.731 Y-80.423 E27.93548
G1 X32.399 Y-78.642 E28.0114
G1 X32.738 Y-76.912 E28.08176
G1 X32.809 Y-75.79 E28.12663
G1 X32.793 Y-34.213 E29.78606
G1 X32.689 Y-32.835 E29.84122
G1 X32.427 Y-31.416 E29.89881
G1 X32.142 Y-30.42 E29.94016
G1 X31.343 Y-28.533 E30.02194
G1 X30.43 Y-27.033 E30.09203
G1 X29.941 Y-26.404 E30.12383
G1 X27.902 Y-24.516 E30.23474
G1 X26.742 Y-23.742 E30.2904
G1 X24.449 Y-22.937 E30.38739
G1 X23.145 Y-22.665 E30.44056
G1 X3.957 Y-22.664 E31.20639
G0 F3600 X4.023 Y-23.064
G1 F1200 X2.7 Y-23.528 E31.26235
G1 X-30.544 Y-23.54 E32.58919
G1 X-32.362 Y-23.927 E32.66338
G1 X-33.849 Y-24.671 E32.72974
G1 X-35.176 Y-25.731 E32.79753
G1 X-36.234 Y-27.157 E32.86839
G1 X-41.959 Y-37.098 E33.32625
G1 X-42.39 Y-38.049 E33.36793
G1 X-42.774 Y-39.242 E33.41795
G1 X-43.022 Y-40.564 E33.47163
G1 X-43.105 Y-41.79 E33.52068
G1 X-43.059 Y-76.514 E34.90659
G1 X-42.82 Y-78.131 E34.97183
G1 X-42.456 Y-79.361 E35.02302
G1 X-41.943 Y-80.505 E35.07306
G1 X-40.962 Y-82.035 E35.1456
G1 X-39.774 Y-83.342 E35.2161
G1 X-39.061 Y-83.939 E35.25321
G1 X-37.013 Y-85.151 E35.34819
G1 X-36.244 Y-85.456 E35.38121
G1 X-33.868 Y-85.985 E35.47837
G1 X-32.848 Y-86.047 E35.51915
G1 X22.834 Y-86.014 E37.74154
G1 X23.788 Y-85.908 E37.77985
G1 X25.627 Y-85.429 E37.8557
G1 X26.75 Y-84.941 E37.90457
G1 X28.415 Y-83.916 E37.98261
G1 X29.663 Y-82.754 E38.05066
G1 X30.622 Y-81.545 E38.11226
G1 X31.384 Y-80.223 E38.17316
G1 X32.007 Y-78.564 E38.24389
G1 X32.339 Y-76.887 E38.31212
G1 X32.409 Y-75.79 E38.35599
G1 X32.394 Y-34.243 E40.01422
G1 X32.29 Y-32.865 E40.06938
G1 X32.042 Y-31.526 E40.12373
G1 X31.757 Y-30.53 E40.16508
G1 X30.975 Y-28.689 E40.24491
G1 X30.114 Y-27.279 E40.31085
G1 X29.625 Y-26.65 E40.34265
G1 X27.68 Y-24.849 E40.44844
G1 X26.56 Y-24.102 E40.50218
G1 X24.367 Y-23.329 E40.59498
G1 X23.101 Y-23.065 E40.6466
G1 X4.023 Y-23.064 E41.40804
G0 F3600 X4.089 Y-23.464
G1 F1200 X2.766 Y-23.928 E41.464
G1 X-30.503 Y-23.94 E42.79184
G1 X-32.227 Y-24.307 E42.86219
G1 X-33.633 Y-25.011 E42.92494
G1 X-34.885 Y-26.01 E42.98887
G1 X-35.887 Y-27.357 E43.05588
G1 X-41.612 Y-37.298 E43.51374
G1 X-42.009 Y-38.172 E43.55205
G1 X-42.393 Y-39.365 E43.60207
G1 X-42.623 Y-40.591 E43.65186
G1 X-42.705 Y-41.79 E43.69982
G1 X-42.663 Y-76.456 E45.08342
G1 X-42.436 Y-78.017 E45.14638
G1 X-42.072 Y-79.247 E45.19757
G1 X-41.606 Y-80.29 E45.24317
G1 X-40.665 Y-81.767 E45.31307
G1 X-39.517 Y-83.035 E45.38134
G1 X-38.804 Y-83.632 E45.41845
G1 X-36.866 Y-84.779 E45.50833
G1 X-36.097 Y-85.084 E45.54135
G1 X-33.844 Y-85.586 E45.63348
G1 X-32.848 Y-85.647 E45.67331
G1 X22.79 Y-85.616 E47.89394
G1 X23.744 Y-85.51 E47.93225
G1 X25.469 Y-85.062 E48.00338
G1 X26.54 Y-84.6 E48.04993
G1 X28.171 Y-83.596 E48.12638
G1 X29.39 Y-82.461 E48.19285
G1 X30.275 Y-81.345 E48.2497
G1 X31.037 Y-80.023 E48.3106
G1 X31.615 Y-78.486 E48.37614
G1 X31.94 Y-76.861 E48.44228
G1 X32.009 Y-75.79 E48.48512
G1 X31.995 Y-34.273 E50.14215
G1 X31.891 Y-32.895 E50.19731
G1 X31.657 Y-31.636 E50.24842
G1 X31.372 Y-30.64 E50.28977
G1 X30.633 Y-28.897 E50.36533
G1 X29.798 Y-27.525 E50.42943
G1 X29.309 Y-26.896 E50.46123
G1 X27.458 Y-25.182 E50.56191
G1 X26.379 Y-24.463 E50.61367
G1 X24.285 Y-23.721 E50.70233
G1 X23.057 Y-23.465 E50.7524
G1 X4.089 Y-23.464 E51.50945
G0 F3600 X4.155 Y-23.864
G1 F1200 X2.832 Y-24.328 E51.56541
G1 X-30.462 Y-24.34 E52.89425
G1 X-32.092 Y-24.687 E52.96076
G1 X-33.415 Y-25.349 E53.01981
G1 X-34.596 Y-26.292 E53.08012
G1 X-35.54 Y-27.557 E53.14312
G1 X-41.248 Y-37.465 E53.5995
G1 X-41.628 Y-38.295 E53.63594
G1 X-42.012 Y-39.488 E53.68596
G1 X-42.224 Y-40.619 E53.73188
G1 X-42.305 Y-41.79 E53.77873
G1 X-42.267 Y-76.399 E55.16005
G1 X-42.052 Y-77.903 E55.22069
G1 X-41.688 Y-79.133 E55.27189
G1 X-41.268 Y-80.076 E55.31309
G1 X-40.368 Y-81.499 E55.38029
G1 X-39.26 Y-82.728 E55.44633
G1 X-38.547 Y-83.325 E55.48345
G1 X-36.719 Y-84.407 E55.56823
G1 X-35.95 Y-84.712 E55.60125
G1 X-33.819 Y-85.187 E55.68839
G1 X-32.848 Y-85.247 E55.72722
G1 X22.746 Y-85.218 E57.9461
G1 X23.7 Y-85.112 E57.98441
G1 X25.312 Y-84.694 E58.05087
G1 X26.33 Y-84.259 E58.09506
G1 X27.93 Y-83.274 E58.17005
G1 X29.077 Y-82.211 E58.23246
G1 X29.928 Y-81.145 E58.2869
G1 X30.69 Y-79.823 E58.34781
G1 X31.223 Y-78.407 E58.40819
G1 X31.541 Y-76.835 E58.47221
G1 X31.609 Y-75.79 E58.514
G1 X31.596 Y-34.302 E60.16988
G1 X31.498 Y-32.968 E60.22326
G1 X31.272 Y-31.746 E60.27286
G1 X30.987 Y-30.75 E60.31421
G1 X30.265 Y-29.054 E60.38778
G1 X29.482 Y-27.771 E60.44777
G1 X28.993 Y-27.142 E60.47957
G1 X27.236 Y-25.515 E60.57514
G1 X26.198 Y-24.823 E60.62494
G1 X24.203 Y-24.113 E60.70945
G1 X23.013 Y-23.865 E60.75797
G1 X4.155 Y-23.864 E61.51063
G0 F3600 X4.221 Y-24.264
G1 F1200 X2.898 Y-24.728 E61.56659
G1 X-30.421 Y-24.74 E62.89642
G1 X-31.957 Y-25.067 E62.9591
G1 X-33.199 Y-25.689 E63.01454
G1 X-34.306 Y-26.572 E63.07106
G1 X-35.193 Y-27.757 E63.13014
G1 X-40.884 Y-37.632 E63.58504
G1 X-41.264 Y-38.462 E63.62147
G1 X-41.631 Y-39.61 E63.66957
G1 X-41.825 Y-40.647 E63.71168
G1 X-41.905 Y-41.79 E63.75741
G1 X-41.871 Y-76.343 E65.1365
G1 X-41.668 Y-77.789 E65.19478
G1 X-41.304 Y-79.019 E65.24597
G1 X-40.929 Y-79.863 E65.28283
G1 X-40.07 Y-81.232 E65.34734
G1 X-39.003 Y-82.421 E65.4111
G1 X-38.29 Y-83.018 E65.44822
G1 X-36.572 Y-84.035 E65.5279
G1 X-35.803 Y-84.34 E65.56092
G1 X-33.794 Y-84.788 E65.64307
G1 X-32.848 Y-84.847 E65.6809
G1 X22.702 Y-84.82 E67.89802
G1 X23.656 Y-84.714 E67.93633
G1 X25.156 Y-84.326 E67.99817
G1 X26.12 Y-83.918 E68.03995
G1 X27.689 Y-82.952 E68.11349
G1 X28.765 Y-81.961 E68.17187
G1 X29.581 Y-80.945 E68.22388
G1 X30.343 Y-79.623 E68.28479
G1 X30.831 Y-78.327 E68.34006
G1 X31.142 Y-76.809 E68.4019
G1 X31.209 Y-75.79 E68.44266
G1 X31.197 Y-34.33 E70.09742
G1 X31.105 Y-33.04 E70.14904
G1 X30.887 Y-31.856 E70.19709
G1 X30.602 Y-30.86 E70.23844
G1 X29.923 Y-29.262 E70.30773
G1 X29.166 Y-28.017 E70.36589
G1 X28.677 Y-27.388 E70.39769
G1 X27.014 Y-25.848 E70.48815
G1 X26.018 Y-25.184 E70.53593
G1 X24.121 Y-24.505 E70.61634
G1 X22.969 Y-24.265 E70.66331
G1 X4.221 Y-24.264 E71.41158
G0 F3600 X4.287 Y-24.664
G1 F1200 X2.964 Y-25.128 E71.46754
G1 X-30.38 Y-25.14 E72.79837
G1 X-31.822 Y-25.447 E72.85721
G1 X-32.981 Y-26.027 E72.90894
G1 X-34.018 Y-26.855 E72.96191
G1 X-34.846 Y-27.957 E73.01692
G1 X-40.52 Y-37.799 E73.47034
G1 X-40.9 Y-38.629 E73.50677
G1 X-41.25 Y-39.731 E73.55292
G1 X-41.426 Y-40.675 E73.59125
G1 X-41.505 Y-41.79 E73.63586
G1 X-41.475 Y-76.288 E75.01275
G1 X-41.284 Y-77.675 E75.06863
G1 X-40.92 Y-78.905 E75.11983
G1 X-40.59 Y-79.65 E75.15235
G1 X-39.731 Y-81.019 E75.21686
G1 X-38.746 Y-82.114 E75.27564
G1 X-38.033 Y-82.711 E75.31276
G1 X-36.425 Y-83.663 E75.38734
G1 X-35.656 Y-83.968 E75.42036
G1 X-33.769 Y-84.389 E75.49752
G1 X-32.848 Y-84.447 E75.53435
G1 X22.658 Y-84.422 E77.74972
G1 X23.612 Y-84.316 E77.78803
G1 X25.002 Y-83.957 E77.84533
G1 X25.91 Y-83.577 E77.88461
G1 X27.449 Y-82.63 E77.95674
G1 X28.454 Y-81.71 E78.01112
G1 X29.234 Y-80.745 E78.06064
G1 X29.996 Y-79.423 E78.12154
G1 X30.439 Y-78.246 E78.17174
G1 X30.743 Y-76.782 E78.23141
G1 X30.809 Y-75.79 E78.27109
G1 X30.798 Y-34.358 E79.92473
G1 X30.711 Y-33.112 E79.97459
G1 X30.502 Y-31.966 E80.02108
G1 X30.217 Y-30.97 E80.06243
G1 X29.581 Y-29.469 E80.12749
G1 X28.85 Y-28.263 E80.18378
G1 X28.361 Y-27.634 E80.21558
G1 X26.792 Y-26.181 E80.30093
G1 X25.834 Y-25.543 E80.34687
G1 X24.039 Y-24.897 E80.42301
G1 X22.925 Y-24.665 E80.46842
G1 X4.287 Y-24.664 E81.21231
G0 F3600 X4.353 Y-25.064
G1 F1200 X3.031 Y-25.528 E81.26823
G1 X-30.339 Y-25.54 E82.60009
G1 X-31.687 Y-25.827 E82.6551
G1 X-32.765 Y-26.367 E82.70322
G1 X-33.729 Y-27.136 E82.75244
G1 X-34.499 Y-28.157 E82.80348
G1 X-40.156 Y-37.966 E83.25542
G1 X-40.536 Y-38.796 E83.29185
G1 X-40.857 Y-39.805 E83.33411
G1 X-41.027 Y-40.704 E83.37063
G1 X-41.105 Y-41.79 E83.41409
G1 X-41.079 Y-76.235 E84.78886
G1 X-40.9 Y-77.562 E84.84231
G1 X-40.553 Y-78.745 E84.89151
G1 X-40.251 Y-79.437 E84.92165
G1 X-39.392 Y-80.806 E84.98615
G1 X-38.489 Y-81.807 E85.03996
G1 X-37.776 Y-82.404 E85.07707
G1 X-36.278 Y-83.291 E85.14656
G1 X-35.509 Y-83.596 E85.17957
G1 X-33.744 Y-83.99 E85.25175
G1 X-32.848 Y-84.047 E85.28759
G1 X22.614 Y-84.024 E87.5012
G1 X23.568 Y-83.918 E87.53951
G1 X24.849 Y-83.587 E87.59231
G1 X25.7 Y-83.236 E87.62905
G1 X27.209 Y-82.307 E87.69978
G1 X28.144 Y-81.457 E87.75021
G1 X28.887 Y-80.545 E87.79716
G1 X29.649 Y-79.223 E87.85806
G1 X30.048 Y-78.164 E87.90323
G1 X30.344 Y-76.755 E87.9607
G1 X30.409 Y-75.79 E87.9993
G1 X30.399 Y-34.386 E89.65182
G1 X30.312 Y-33.14 E89.70167
G1 X30.117 Y-32.076 E89.74485
G1 X29.832 Y-31.08 E89.7862
G1 X29.238 Y-29.676 E89.84704
G1 X28.534 Y-28.509 E89.90144
G1 X28.045 Y-27.88 E89.93324
G1 X26.57 Y-26.514 E90.01347
G1 X25.651 Y-25.902 E90.05754
G1 X23.957 Y-25.289 E90.12944
G1 X22.881 Y-25.065 E90.17331
G1 X4.353 Y-25.064 E90.9128
G0 F3600 X4.421 Y-25.464
G1 F1200 X3.223 Y-25.88 E90.96342
G1 X3.119 Y-25.928 E90.96799
G1 X-30.298 Y-25.94 E92.30173
G1 X-31.552 Y-26.207 E92.35291
G1 X-32.547 Y-26.705 E92.39732
G1 X-33.44 Y-27.418 E92.44292
G1 X-34.152 Y-28.357 E92.48996
G1 X-39.809 Y-38.166 E92.9419
G1 X-40.172 Y-38.962 E92.97681
G1 X-40.464 Y-39.881 E93.0153
G1 X-40.628 Y-40.733 E93.04993
G1 X-40.705 Y-41.79 E93.09223
G1 X-40.682 Y-76.183 E94.46493
G1 X-40.516 Y-77.45 E94.51593
G1 X-40.186 Y-78.585 E94.56311
G1 X-39.884 Y-79.277 E94.59324
G1 X-39.094 Y-80.539 E94.65266
G1 X-38.232 Y-81.5 E94.70419
G1 X-37.519 Y-82.097 E94.7413
G1 X-36.131 Y-82.919 E94.80569
G1 X-35.362 Y-83.224 E94.83871
G1 X-33.718 Y-83.591 E94.90594
G1 X-32.848 Y-83.647 E94.94073
G1 X22.57 Y-83.626 E97.15259
G1 X23.524 Y-83.52 E97.1909
G1 X24.696 Y-83.217 E97.23921
G1 X25.547 Y-82.866 E97.27595
G1 X26.968 Y-81.986 E97.34266
G1 X27.835 Y-81.203 E97.38929
G1 X28.54 Y-80.345 E97.43361
G1 X29.302 Y-79.023 E97.49451
G1 X29.657 Y-78.081 E97.53469
G1 X29.945 Y-76.728 E97.5899
G1 X30.009 Y-75.79 E97.62743
G1 X30 Y-34.413 E99.27887
G1 X29.918 Y-33.211 E99.32696
G1 X29.732 Y-32.186 E99.36854
G1 X29.447 Y-31.19 E99.40988
G1 X28.87 Y-29.833 E99.46874
G1 X28.218 Y-28.755 E99.51902
G1 X27.729 Y-28.126 E99.55082
G1 X26.348 Y-26.847 E99.62595
G1 X25.469 Y-26.262 E99.66809
G1 X23.876 Y-25.681 E99.73576
G1 X22.838 Y-25.465 E99.77808
G1 X4.421 Y-25.464 E100.51314
G0 F3600 X4.489 Y-25.864
G1 F1200 X3.354 Y-26.258 E100.56109
G1 X3.214 Y-26.328 E100.56734
G1 X-30.257 Y-26.34 E101.90324
G1 X-31.417 Y-26.587 E101.95058
G1 X-32.332 Y-27.045 E101.99142
G1 X-33.153 Y-27.7 E102.03334
G1 X-33.806 Y-28.557 E102.07634
G1 X-39.445 Y-38.332 E102.52674
G1 X-39.808 Y-39.128 E102.56166
G1 X-40.071 Y-39.958 E102.59641
G1 X-40.229 Y-40.763 E102.62915
G1 X-40.305 Y-41.79 E102.67026
G1 X-40.285 Y-76.133 E104.04096
G1 X-40.132 Y-77.339 E104.08948
G1 X-39.819 Y-78.425 E104.13459
G1 X-39.517 Y-79.117 E104.16472
G1 X-38.795 Y-80.273 E104.21912
G1 X-37.975 Y-81.193 E104.26831
G1 X-37.262 Y-81.79 E104.30542
G1 X-35.984 Y-82.547 E104.36471
G1 X-35.215 Y-82.852 E104.39773
