;FLAVOR:Marlin
;TIME:4566
;Filament used: 3.86149m
;Layer height: 0.2
;MINX:-65.241
;MINY:-63.802
;MINZ:0.25
;MAXX:70.917
;MAXY:56.841
;MAXZ:20
;TARGET_MACHINE.NAME:Unknown
;Generated with Cura_SteamEngine 5.9.0
M140 S50
M105
M190 S50
M104 S225
M105
M109 S225
M82 ;absolute extrusion mode
;FLAVOR:Marlin
M82 ;absolute extrusion mode
G21
G90
M82
M107 T0
G28
G92 E0
G0 E3 F200
G92 E0 ; reset extrusion distance
M106 S255 ; Enable cooling fan full speed
G1 X-98 Y0 Z0.4 F3000 ; move to arc start
G3 X0 Y-98 I98 Z0.4 E40 F400 ; lay arc stripe 90deg
G92 E0 ; reset extrusion distance
G4 P500 ; wait for 0.5 sec
G0 Z10 E-1 ; Lift 15mm and retract 1mm filament
G4 P2000 ; wait for 5 sec
G0 Z15
M107 ; Disable cooling fan
G1 X0 Y-85 Z4 E0 F3000 ; get off the bed
G92 E0
G92 E0
G1 F1500 E-1
;LAYER_COUNT:74
;LAYER:0
M106 S102
G1 F600 Z1.25
G0 F1500 X15.906 Y35.718 Z1.25
;TYPE:SKIRT
G1 F600 Z0.25
G1 F3600 E0.75698
G1 F1200 X16.088 Y34.828 E0.79518
G1 X16.486 Y34.073 E0.83108
G1 X16.655 Y33.853 E0.84274
G1 X17.273 Y33.355 E0.87612
G1 X18.069 Y32.959 E0.91351
G1 X18.848 Y32.845 E0.94662
G1 X32.029 Y32.841 E1.50094
G1 X32.919 Y33.023 E1.53914
G1 X33.674 Y33.421 E1.57503
G1 X33.894 Y33.59 E1.5867
G1 X34.392 Y34.208 E1.62008
G1 X34.788 Y35.004 E1.65747
G1 X34.902 Y35.783 E1.69058
G1 X34.906 Y53.964 E2.45517
G1 X34.724 Y54.854 E2.49337
G1 X34.326 Y55.609 E2.52926
G1 X34.157 Y55.829 E2.54093
G1 X33.539 Y56.327 E2.57431
G1 X32.743 Y56.723 E2.6117
G1 X31.964 Y56.837 E2.64481
G1 X18.729 Y56.841 E3.2014
G1 X17.876 Y56.654 E3.23812
G1 X17.051 Y56.212 E3.27748
G1 X16.928 Y56.109 E3.28423
G1 X16.421 Y55.478 E3.31827
G1 X16.024 Y54.678 E3.35583
G1 X15.91 Y53.899 E3.38894
G1 X15.906 Y35.718 E4.15353
G0 F1500 X16.469 Y34.963
G1 F1200 X16.84 Y34.259 E4.18699
G1 X16.943 Y34.134 E4.1938
G1 X17.489 Y33.694 E4.22329
G1 X18.189 Y33.346 E4.25617
G1 X18.906 Y33.241 E4.28664
G1 X31.988 Y33.241 E4.8368
G1 X32.784 Y33.404 E4.87097
G1 X33.488 Y33.775 E4.90444
G1 X33.613 Y33.878 E4.91125
G1 X34.053 Y34.424 E4.94074
G1 X34.401 Y35.124 E4.97361
G1 X34.506 Y35.841 E5.00409
G1 X34.506 Y53.923 E5.76451
G1 X34.343 Y54.719 E5.79868
G1 X33.972 Y55.423 E5.83215
G1 X33.869 Y55.548 E5.83896
G1 X33.323 Y55.988 E5.86845
G1 X32.623 Y56.336 E5.90133
G1 X31.906 Y56.441 E5.9318
G1 X18.774 Y56.441 E6.48406
G1 X18.016 Y56.275 E6.51669
G1 X17.24 Y55.859 E6.55372
G1 X16.76 Y55.261 E6.58597
G1 X16.411 Y54.558 E6.61898
G1 X16.306 Y53.841 E6.64945
G1 X16.306 Y35.759 E7.40988
G1 X16.469 Y34.963 E7.44405
G0 F1500 X16.85 Y35.098
G1 F1200 X17.194 Y34.445 E7.47509
G1 X17.705 Y34.033 E7.50269
G1 X18.311 Y33.732 E7.53115
G1 X18.906 Y33.641 E7.55646
G1 X31.947 Y33.641 E8.10489
G1 X32.649 Y33.785 E8.13503
G1 X33.302 Y34.129 E8.16607
G1 X33.714 Y34.64 E8.19367
G1 X34.015 Y35.246 E8.22213
G1 X34.106 Y35.841 E8.24744
G1 X34.106 Y53.882 E9.00615
G1 X33.962 Y54.584 E9.03628
G1 X33.618 Y55.237 E9.06732
G1 X33.107 Y55.649 E9.09493
G1 X32.501 Y55.95 E9.12338
G1 X31.906 Y56.041 E9.1487
G1 X18.819 Y56.041 E9.69906
G1 X18.153 Y55.895 E9.72773
G1 X17.503 Y55.546 E9.75876
G1 X17.098 Y55.042 E9.78595
G1 X16.797 Y54.436 E9.81441
G1 X16.706 Y53.841 E9.83972
G1 X16.706 Y35.8 E10.59842
G1 X16.85 Y35.098 E10.62856
G0 F1500 X17.23 Y35.235
G1 F1200 X17.511 Y34.703 E10.65386
G1 X17.883 Y34.391 E10.67428
G1 X18.432 Y34.118 E10.70007
G1 X18.906 Y34.041 E10.72026
G1 X31.906 Y34.041 E11.26697
G1 X32.512 Y34.165 E11.29298
G1 X33.044 Y34.446 E11.31828
G1 X33.356 Y34.818 E11.3387
G1 X33.629 Y35.367 E11.36449
G1 X33.706 Y35.841 E11.38468
G1 X33.706 Y53.841 E12.14166
G1 X33.582 Y54.447 E12.16767
G1 X33.301 Y54.979 E12.19298
G1 X32.929 Y55.291 E12.2134
G1 X32.38 Y55.564 E12.23918
G1 X31.906 Y55.641 E12.25938
G1 X18.864 Y55.641 E12.80785
G1 X18.29 Y55.515 E12.83256
G1 X17.765 Y55.233 E12.85762
G1 X17.456 Y54.864 E12.87787
G1 X17.183 Y54.315 E12.90365
G1 X17.106 Y53.841 E12.92385
G1 X17.106 Y35.841 E13.68082
G1 X17.23 Y35.235 E13.70684
G0 F1500 X17.584 Y35.422
G1 F1200 X17.829 Y34.958 E13.7289
G1 X18.061 Y34.749 E13.74204
G1 X18.555 Y34.503 E13.76524
G1 X18.906 Y34.441 E13.78023
G1 X31.906 Y34.441 E14.32694
G1 X32.325 Y34.519 E14.34486
G1 X32.789 Y34.764 E14.36693
G1 X32.998 Y34.996 E14.38006
G1 X33.244 Y35.49 E14.40327
G1 X33.306 Y35.841 E14.41826
G1 X33.306 Y53.841 E15.17524
G1 X33.228 Y54.26 E15.19316
G1 X32.983 Y54.724 E15.21523
G1 X32.751 Y54.933 E15.22836
G1 X32.257 Y55.179 E15.25157
G1 X31.906 Y55.241 E15.26656
G1 X18.864 Y55.241 E15.81503
G1 X18.383 Y55.126 E15.83583
G1 X18.023 Y54.918 E15.85332
G1 X17.814 Y54.686 E15.86645
G1 X17.568 Y54.192 E15.88966
G1 X17.506 Y53.841 E15.90465
G1 X17.506 Y35.841 E16.66163
G1 X17.584 Y35.422 E16.67955
G0 F1500 X18.251 Y35.101
G1 F1200 X18.113 Y35.24 E16.68779
G1 X17.976 Y35.503 E16.70026
G1 X17.906 Y35.841 E16.71477
G1 X17.906 Y53.841 E17.47175
G1 X17.96 Y54.114 E17.48346
G1 X18.166 Y54.496 E17.50171
G1 X18.305 Y54.634 E17.50995
G1 X18.568 Y54.771 E17.52242
G1 X18.906 Y54.841 E17.53693
G1 X31.906 Y54.841 E18.08364
G1 X32.179 Y54.787 E18.09534
G1 X32.561 Y54.581 E18.1136
G1 X32.699 Y54.442 E18.12183
G1 X32.836 Y54.179 E18.1343
G1 X32.906 Y53.841 E18.14882
G1 X32.906 Y35.841 E18.9058
G1 X32.852 Y35.568 E18.9175
G1 X32.646 Y35.186 E18.93575
G1 X32.507 Y35.048 E18.94399
G1 X32.244 Y34.911 E18.95646
G1 X31.906 Y34.841 E18.97098
G1 X18.906 Y34.841 E19.51769
G1 X18.633 Y34.895 E19.52939
G1 X18.251 Y35.101 E19.54764
G0 F1500 X18.906 Y35.641
G1 F1200 X31.906 Y35.641 E20.09435
G1 X32.025 Y35.68 E20.09961
G1 X32.106 Y35.841 E20.10719
G1 X32.106 Y53.841 E20.86417
G1 X32.067 Y53.96 E20.86944
G1 X31.906 Y54.041 E20.87702
G1 X18.906 Y54.041 E21.42373
G1 X18.787 Y54.002 E21.42899
G1 X18.706 Y53.841 E21.43657
G1 X18.706 Y35.841 E22.19355
G1 X18.745 Y35.722 E22.19882
G1 X18.906 Y35.641 E22.2064
G0 F1500 X18.906 Y35.241
G1 F1200 X31.906 Y35.241 E22.75311
G1 X32.15 Y35.3 E22.76366
G1 X32.302 Y35.391 E22.77111
G1 X32.463 Y35.661 E22.78433
G1 X32.506 Y35.841 E22.79212
G1 X32.506 Y53.841 E23.54909
G1 X32.447 Y54.085 E23.55965
G1 X32.356 Y54.237 E23.5671
G1 X32.086 Y54.398 E23.58032
G1 X31.906 Y54.441 E23.58811
G1 X18.906 Y54.441 E24.13481
G1 X18.662 Y54.382 E24.14537
G1 X18.51 Y54.291 E24.15282
G1 X18.349 Y54.021 E24.16604
G1 X18.306 Y53.841 E24.17382
G1 X18.306 Y35.841 E24.9308
G1 X18.365 Y35.597 E24.94136
G1 X18.456 Y35.445 E24.94881
G1 X18.726 Y35.284 E24.96203
G1 X18.906 Y35.241 E24.96981
G1 F1500 E23.96981
G1 F600 Z1.25
;MESH:K??rper1(6)
G0 F1500 X30.856 Y52.792 Z1.25
;TYPE:WALL-INNER
G1 F600 Z0.25
G1 F3600 E25.72679
G1 F1148.3 X30.504 Y52.91 E25.74311
G1 F1359.8 X20.404 Y52.915 E26.11795
G1 F1159.4 X19.952 Y52.792 E26.13834
G1 F1151.1 X19.834 Y52.44 E26.15461
G1 F1359.8 X19.829 Y37.34 E26.71502
G1 F1159.4 X19.952 Y36.888 E26.73541
G1 F1151.1 X20.304 Y36.77 E26.75169
G1 F1359.8 X30.404 Y36.765 E27.12653
G1 F1159.4 X30.856 Y36.888 E27.14692
G1 X30.979 Y37.34 E27.16731
G1 F1363.6 X30.974 Y52.171 E27.71617
G0 F1080 X30.974 Y52.44
G0 X30.856 Y52.792
G0 F1500 X30.534 Y53.262
G1 F1148.3 X31.265 Y53.201 E27.74841
G1 F1151.1 X31.327 Y52.47 E27.78057
G1 F1363.6 X31.329 Y37.34 E28.3405
G1 F1311.5 X31.243 Y36.502 E28.37292
G1 X30.404 Y36.415 E28.40537
G1 F1359.8 X20.274 Y36.418 E28.78133
G1 F1246.8 X19.569 Y36.48 E28.80998
G1 F1256.5 X19.479 Y37.34 E28.8447
G1 F1359.8 X19.482 Y52.47 E29.40622
G1 F1246.8 X19.544 Y53.175 E29.43487
G1 F1256.5 X20.404 Y53.265 E29.4696
G1 F1359.8 X29.894 Y53.262 E29.8218
G0 F1080 X30.534 Y53.262
G0 F1500 X30.602 Y52.375
;TYPE:WALL-OUTER
G1 F1200 X30.546 Y52.482 E29.82688
G1 X30.439 Y52.538 E29.83196
G1 X20.404 Y52.54 E30.25397
G1 X20.262 Y52.482 E30.26042
G1 X20.206 Y52.375 E30.2655
G1 X20.204 Y37.34 E30.89779
G1 X20.262 Y37.198 E30.90424
G1 X20.369 Y37.142 E30.90932
G1 X30.404 Y37.14 E31.33134
G1 X30.546 Y37.198 E31.33779
G1 X30.604 Y37.34 E31.34424
G1 X30.602 Y51.735 E31.94961
G0 F1080 X30.602 Y52.375
G0 F1500 X30.546 Y52.482
G0 X30.477 Y52.518
G0 X30.477 Y52.851
G0 X31.426 Y53.361
G0 X31.704 Y53.64
M104 S215
G1 F1200 X31.704 Y36.04 E32.68977
G1 X19.105 Y36.041 E33.21961
G1 X19.105 Y53.639 E33.95969
G1 X31.064 Y53.64 E34.46262
G0 F1080 X31.704 Y53.64
G0 F1500 X31.704 Y53.44
;MESH:NONMESH
G0 F600 X31.704 Y53.44 Z0.45
G0 F1500 X31.426 Y53.361
G0 X30.886 Y52.821
G0 X30.856 Y52.792
;TIME_ELAPSED:44.291268
;LAYER:1
;note -- min layer time used
M106 S255
;TYPE:WALL-INNER
;MESH:K??rper1(6)
G1 F1292.1 X30.504 Y52.91 E34.47567
G1 F1530.1 X20.404 Y52.915 E34.77554
G1 F1304.6 X19.952 Y52.792 E34.79185
G1 F1295.2 X19.834 Y52.44 E34.80487
G1 F1530.1 X19.829 Y37.34 E35.2532
G1 F1304.6 X19.952 Y36.888 E35.26951
G1 F1295.2 X20.304 Y36.77 E35.28253
G1 F1530.1 X30.404 Y36.765 E35.58241
G1 F1304.6 X30.856 Y36.888 E35.59872
G1 X30.979 Y37.34 E35.61503
G1 F1534.4 X30.974 Y52.011 E36.04938
G0 F1890 X30.974 Y52.44
G0 X30.856 Y52.792
G0 F2250 X30.534 Y53.262
G1 F1292.1 X31.265 Y53.201 E36.07517
G1 F1295.2 X31.327 Y52.47 E36.1009
G1 F1534.4 X31.329 Y37.34 E36.54885
G1 F1475.7 X31.243 Y36.502 E36.57478
G1 X30.404 Y36.415 E36.60074
G1 F1530.1 X20.274 Y36.418 E36.90151
G1 F1402.9 X19.569 Y36.48 E36.92443
G1 F1413.9 X19.479 Y37.34 E36.95221
G1 F1530.1 X19.482 Y52.47 E37.40142
G1 F1402.9 X19.544 Y53.175 E37.42434
G1 F1413.9 X20.404 Y53.265 E37.45212
G1 F1530.1 X29.734 Y53.262 E37.72914
G0 F1890 X30.534 Y53.262
G0 F2250 X30.602 Y52.375
;TYPE:WALL-OUTER
G1 F1350.3 X30.546 Y52.482 E37.7332
G1 X30.439 Y52.538 E37.73726
G1 X20.404 Y52.54 E38.07487
G1 X20.262 Y52.482 E38.08003
G1 X20.206 Y52.375 E38.0841
G1 X20.204 Y37.34 E38.58993
G1 X20.262 Y37.198 E38.59509
G1 X20.369 Y37.142 E38.59915
G1 X30.404 Y37.14 E38.93677
G1 X30.546 Y37.198 E38.94193
G1 X30.604 Y37.34 E38.94709
G1 X30.602 Y51.575 E39.426
G0 F1620 X30.602 Y52.375
G0 F2250 X30.546 Y52.482
G0 X30.477 Y52.518
G0 X30.477 Y52.851
G0 X31.426 Y53.361
G0 X31.704 Y53.64
G1 F1350.3 X31.704 Y36.04 E40.01813
G1 X19.105 Y36.041 E40.442
G1 X19.105 Y53.639 E41.03406
G1 X30.904 Y53.64 E41.43102
G0 F1620 X31.704 Y53.64
G0 F2250 X31.704 Y53.44
;MESH:NONMESH
G0 F600 X31.704 Y53.44 Z0.65
G0 F2250 X31.426 Y53.361
G0 X30.886 Y52.821
G0 X30.856 Y52.792
;TIME_ELAPSED:53.846483
;LAYER:2
;note -- min layer time used
;TYPE:WALL-INNER
;MESH:K??rper1(6)
G1 F1288 X30.504 Y52.91 E41.44407
G1 F1525.2 X20.404 Y52.915 E41.74395
G1 F1300.5 X19.952 Y52.792 E41.76026
G1 F1291.1 X19.834 Y52.44 E41.77328
G1 F1525.2 X19.829 Y37.34 E42.22161
G1 F1300.5 X19.952 Y36.888 E42.23792
G1 F1291.1 X20.304 Y36.77 E42.25094
G1 F1525.2 X30.404 Y36.765 E42.55081
G1 F1300.5 X30.856 Y36.888 E42.56712
G1 X30.979 Y37.34 E42.58343
G1 F1529.5 X30.974 Y52.011 E43.01779
G0 F2700 X30.974 Y52.44
G0 X30.856 Y52.792
G0 F3000 X30.534 Y53.262
G1 F1288 X31.265 Y53.201 E43.04358
G1 F1291.1 X31.327 Y52.47 E43.06931
G1 F1529.5 X31.329 Y37.34 E43.51725
G1 F1471 X31.243 Y36.502 E43.54318
G1 X30.404 Y36.415 E43.56915
G1 F1525.2 X20.274 Y36.418 E43.86991
G1 F1398.4 X19.569 Y36.48 E43.89283
G1 F1409.4 X19.479 Y37.34 E43.92061
G1 F1525.2 X19.482 Y52.47 E44.36983
G1 F1398.4 X19.544 Y53.175 E44.39275
G1 F1409.4 X20.404 Y53.265 E44.42053
G1 F1525.2 X29.734 Y53.262 E44.69754
G0 F2700 X30.534 Y53.262
G0 F3000 X30.602 Y52.375
;TYPE:WALL-OUTER
G1 F1346 X30.546 Y52.482 E44.7016
G1 X30.439 Y52.538 E44.70567
G1 X20.404 Y52.54 E45.04328
G1 X20.262 Y52.482 E45.04844
G1 X20.206 Y52.375 E45.0525
G1 X20.204 Y37.34 E45.55833
G1 X20.262 Y37.198 E45.5635
G1 X20.369 Y37.142 E45.56756
G1 X30.404 Y37.14 E45.90517
G1 X30.546 Y37.198 E45.91033
G1 X30.604 Y37.34 E45.91549
G1 X30.602 Y51.575 E46.39441
G0 F2160 X30.602 Y52.375
G0 F3000 X30.546 Y52.482
G0 X30.477 Y52.518
G0 X30.477 Y52.851
G0 X31.426 Y53.361
G0 X31.704 Y53.64
G1 F1346 X31.704 Y36.04 E46.98653
G1 X19.105 Y36.041 E47.41041
G1 X19.105 Y53.639 E48.00247
G1 X30.904 Y53.64 E48.39943
G0 F2160 X31.704 Y53.64
G0 F3000 X31.704 Y53.44
;MESH:NONMESH
G0 F600 X31.704 Y53.44 Z0.85
G0 F3000 X31.426 Y53.361
G0 X30.886 Y52.821
G0 X30.856 Y52.792
;TIME_ELAPSED:63.387813
;LAYER:3
;note -- min layer time used
;TYPE:WALL-INNER
;MESH:K??rper1(6)
G1 F1288 X30.504 Y52.91 E48.41248
G1 F1525.2 X20.404 Y52.915 E48.71235
G1 F1300.5 X19.952 Y52.792 E48.72866
G1 F1291.1 X19.834 Y52.44 E48.74169
G1 F1525.2 X19.829 Y37.34 E49.19001
G1 F1300.5 X19.952 Y36.888 E49.20632
G1 F1291.1 X20.304 Y36.77 E49.21934
G1 F1525.2 X30.404 Y36.765 E49.51922
G1 F1300.5 X30.856 Y36.888 E49.53553
G1 X30.979 Y37.34 E49.55184
G1 F1529.5 X30.974 Y52.011 E49.98619
G0 F2700 X30.974 Y52.44
G0 X30.856 Y52.792
G0 F3000 X30.534 Y53.262
G1 F1288 X31.265 Y53.201 E50.01198
G1 F1291.1 X31.327 Y52.47 E50.03771
G1 F1529.5 X31.329 Y37.34 E50.48566
G1 F1471 X31.243 Y36.502 E50.51159
G1 X30.404 Y36.415 E50.53756
G1 F1525.2 X20.274 Y36.418 E50.83832
G1 F1398.4 X19.569 Y36.48 E50.86124
G1 F1409.4 X19.479 Y37.34 E50.88902
G1 F1525.2 X19.482 Y52.47 E51.33824
G1 F1398.4 X19.544 Y53.175 E51.36115
G1 F1409.4 X20.404 Y53.265 E51.38894
G1 F1525.2 X29.734 Y53.262 E51.66595
G0 F2700 X30.534 Y53.262
G0 F3000 X30.602 Y52.375
;TYPE:WALL-OUTER
G1 F1346 X30.546 Y52.482 E51.67001
G1 X30.439 Y52.538 E51.67407
G1 X20.404 Y52.54 E52.01169
G1 X20.262 Y52.482 E52.01685
G1 X20.206 Y52.375 E52.02091
G1 X20.204 Y37.34 E52.52674
G1 X20.262 Y37.198 E52.5319
G1 X20.369 Y37.142 E52.53596
G1 X30.404 Y37.14 E52.87358
G1 X30.546 Y37.198 E52.87874
G1 X30.604 Y37.34 E52.8839
G1 X30.602 Y51.575 E53.36281
G0 F2160 X30.602 Y52.375
G0 F3000 X30.546 Y52.482
G0 X30.477 Y52.518
G0 X30.477 Y52.851
G0 X31.426 Y53.361
G0 X31.704 Y53.64
G1 F1346 X31.704 Y36.04 E53.95494
G1 X19.105 Y36.041 E54.37881
G1 X19.105 Y53.639 E54.97087
G1 X30.904 Y53.64 E55.36783
G0 F2160 X31.704 Y53.64
G0 F3000 X31.704 Y53.44
;MESH:NONMESH
G0 F600 X31.704 Y53.44 Z1.05
G0 F3000 X31.426 Y53.361
G0 X30.886 Y52.821
G0 X30.856 Y52.792
;TIME_ELAPSED:72.929143
;LAYER:4
;note -- min layer time used
;TYPE:WALL-INNER
;MESH:K??rper1(6)
G1 F1288 X30.504 Y52.91 E55.38089
G1 F1525.2 X20.404 Y52.915 E55.68076
G1 F1300.5 X19.952 Y52.792 E55.69707
G1 F1291.1 X19.834 Y52.44 E55.71009
G1 F1525.2 X19.829 Y37.34 E56.15842
G1 F1300.5 X19.952 Y36.888 E56.17473
G1 F1291.1 X20.304 Y36.77 E56.18775
G1 F1525.2 X30.404 Y36.765 E56.48762
G1 F1300.5 X30.856 Y36.888 E56.50393
G1 X30.979 Y37.34 E56.52025
G1 F1529.5 X30.974 Y52.011 E56.9546
G0 F2700 X30.974 Y52.44
G0 X30.856 Y52.792
G0 F3000 X30.534 Y53.262
G1 F1288 X31.265 Y53.201 E56.98039
G1 F1291.1 X31.327 Y52.47 E57.00612
G1 F1529.5 X31.329 Y37.34 E57.45406
G1 F1471 X31.243 Y36.502 E57.48
G1 X30.404 Y36.415 E57.50596
G1 F1525.2 X20.274 Y36.418 E57.80673
G1 F1398.4 X19.569 Y36.48 E57.82964
G1 F1409.4 X19.479 Y37.34 E57.85743
G1 F1525.2 X19.482 Y52.47 E58.30664
G1 F1398.4 X19.544 Y53.175 E58.32956
G1 F1409.4 X20.404 Y53.265 E58.35734
G1 F1525.2 X29.734 Y53.262 E58.63435
G0 F2700 X30.534 Y53.262
G0 F3000 X30.602 Y52.375
;TYPE:WALL-OUTER
G1 F1346 X30.546 Y52.482 E58.63842
G1 X30.439 Y52.538 E58.64248
G1 X20.404 Y52.54 E58.98009
G1 X20.262 Y52.482 E58.98525
G1 X20.206 Y52.375 E58.98932
G1 X20.204 Y37.34 E59.49515
G1 X20.262 Y37.198 E59.50031
G1 X20.369 Y37.142 E59.50437
G1 X30.404 Y37.14 E59.84198
G1 X30.546 Y37.198 E59.84714
G1 X30.604 Y37.34 E59.8523
G1 X30.602 Y51.575 E60.33122
G0 F2160 X30.602 Y52.375
G0 F3000 X30.546 Y52.482
G0 X30.477 Y52.518
G0 X30.477 Y52.851
G0 X31.426 Y53.361
G0 X31.704 Y53.64
G1 F1346 X31.704 Y36.04 E60.92335
G1 X19.105 Y36.041 E61.34722
G1 X19.105 Y53.639 E61.93928
G1 X30.904 Y53.64 E62.33624
G0 F2160 X31.704 Y53.64
G0 F3000 X31.704 Y53.44
;MESH:NONMESH
G0 F600 X31.704 Y53.44 Z1.25
G0 F3000 X31.426 Y53.361
G0 X30.886 Y52.821
G0 X30.856 Y52.792
;TIME_ELAPSED:82.470474
;LAYER:5
