;FLAVOR:Marlin
;TIME:2591
;Filament used: 2.84211m
;Layer height: 0.2
;MINX:-65.58
;MINY:-17.56
;MINZ:0.25
;MAXX:68.879
;MAXY:17.101
;MAXZ:25
;TARGET_MACHINE.NAME:Unknown
;Generated with Cura_SteamEngine 5.9.0
M140 S50
M105
M190 S50
M104 S225
M105
M109 S225
M82 ;absolute extrusion mode
;FLAVOR:Marlin
M82 ;absolute extrusion mode
G21
G90
M82
M107 T0
G28
G92 E0
G0 E3 F200
G92 E0 ; reset extrusion distance
M106 S255 ; Enable cooling fan full speed
G1 X-98 Y0 Z0.4 F3000 ; move to arc start
G3 X0 Y-98 I98 Z0.4 E40 F400 ; lay arc stripe 90deg
G92 E0 ; reset extrusion distance
G4 P500 ; wait for 0.5 sec
G0 Z10 E-1 ; Lift 15mm and retract 1mm filament
G4 P2000 ; wait for 5 sec
G0 Z15
M107 ; Disable cooling fan
G1 X0 Y-85 Z4 E0 F3000 ; get off the bed
G92 E0
G92 E0
G1 F1500 E-1
;LAYER_COUNT:99
;LAYER:0
M106 S102
G1 F600 Z1.25
G0 F1500 X49.071 Y16.534 Z1.25
;TYPE:SKIRT
G1 F600 Z0.25
G1 F3600 E0.75698
G1 F1200 X48.202 Y16.573 E0.79356
G1 X46.997 Y16.343 E0.84515
G1 X46.016 Y15.74 E0.89358
G1 X45.326 Y15.039 E0.93494
G1 X44.925 Y14.403 E0.96656
G1 X44.479 Y13.242 E1.01887
G1 X44.479 Y-14.683 E2.19324
G1 X44.661 Y-15.573 E2.23144
G1 X45.059 Y-16.328 E2.26733
G1 X45.228 Y-16.548 E2.279
G1 X45.846 Y-17.046 E2.31238
G1 X46.642 Y-17.442 E2.34977
G1 X47.421 Y-17.556 E2.38287
G1 X66.002 Y-17.56 E3.16429
G1 X66.892 Y-17.378 E3.20249
G1 X67.647 Y-16.98 E3.23838
G1 X67.867 Y-16.811 E3.25005
G1 X68.365 Y-16.193 E3.28343
G1 X68.761 Y-15.396 E3.32085
G1 X68.879 Y-14.56 E3.35636
G1 X68.874 Y12.905 E4.51138
G1 X68.605 Y14.088 E4.56241
G1 X68.17 Y14.818 E4.59814
G1 X67.654 Y15.458 E4.63272
G1 X67.036 Y15.94 E4.66568
G1 X66.233 Y16.339 E4.70338
G1 X65.396 Y16.544 E4.73962
G1 X64.481 Y16.567 E4.77812
G1 X63.568 Y16.404 E4.81712
G1 X62.409 Y15.764 E4.8728
G1 X62.051 Y15.461 E4.89252
G1 X60.624 Y13.671 E4.98879
G1 X60.203 Y12.574 E5.03821
G1 X60.115 Y11.528 E5.08235
G1 X60.387 Y10.575 E5.12403
G1 X60.679 Y10.077 E5.14831
G1 X60.679 Y-7.56 E5.89002
G1 X52.679 Y-7.56 E6.22646
G1 X52.679 Y10.069 E6.96783
G1 X52.953 Y10.507 E6.98956
G1 X53.087 Y10.855 E7.00524
G1 X53.222 Y11.701 E7.04127
G1 X53.135 Y12.766 E7.08621
G1 X52.658 Y13.766 E7.1328
G1 X51.319 Y15.439 E7.22292
G1 X50.317 Y16.198 E7.27578
G1 X49.071 Y16.534 E7.33005
G0 F1500 X49.012 Y16.136
G1 F1200 X48.23 Y16.171 E7.36297
G1 X47.144 Y15.964 E7.40947
G1 X46.265 Y15.424 E7.45285
G1 X45.641 Y14.789 E7.49029
G1 X45.284 Y14.223 E7.51843
G1 X44.879 Y13.169 E7.56592
G1 X44.879 Y-14.642 E8.73549
G1 X45.042 Y-15.438 E8.76966
G1 X45.413 Y-16.142 E8.80313
G1 X45.516 Y-16.267 E8.80994
G1 X46.062 Y-16.707 E8.83943
G1 X46.762 Y-17.055 E8.87231
G1 X47.479 Y-17.16 E8.90278
G1 X65.961 Y-17.16 E9.68003
G1 X66.757 Y-16.997 E9.7142
G1 X67.461 Y-16.626 E9.74767
G1 X67.586 Y-16.523 E9.75448
G1 X68.026 Y-15.977 E9.78397
G1 X68.374 Y-15.277 E9.81684
G1 X68.479 Y-14.56 E9.84732
G1 X68.474 Y12.86 E11.00045
G1 X68.229 Y13.936 E11.04686
G1 X67.826 Y14.613 E11.07999
G1 X67.372 Y15.171 E11.11024
G1 X66.823 Y15.6 E11.13954
G1 X66.097 Y15.96 E11.17362
G1 X65.341 Y16.145 E11.20635
G1 X64.512 Y16.166 E11.24123
G1 X63.703 Y16.022 E11.27578
G1 X62.603 Y15.414 E11.32864
G1 X62.364 Y15.212 E11.3418
G1 X60.974 Y13.469 E11.43556
G1 X60.597 Y12.487 E11.47979
G1 X60.52 Y11.568 E11.51858
G1 X60.759 Y10.731 E11.55518
G1 X61.079 Y10.185 E11.5818
G1 X61.079 Y-7.96 E12.34487
G1 X52.279 Y-7.96 E12.71495
G1 X52.279 Y10.185 E13.47803
G1 X52.584 Y10.662 E13.50184
G1 X52.692 Y10.918 E13.51353
G1 X52.819 Y11.715 E13.54747
G1 X52.742 Y12.661 E13.58738
G1 X52.317 Y13.552 E13.6289
G1 X51.039 Y15.148 E13.71488
G1 X50.136 Y15.833 E13.76255
G1 X49.012 Y16.136 E13.8115
G0 F1500 X48.953 Y15.738
G1 F1200 X48.258 Y15.769 E13.84076
G1 X47.292 Y15.585 E13.88212
G1 X46.513 Y15.106 E13.92057
G1 X45.958 Y14.541 E13.95388
G1 X45.643 Y14.042 E13.9787
G1 X45.279 Y13.095 E14.02136
G1 X45.279 Y-14.601 E15.1861
G1 X45.423 Y-15.303 E15.21624
G1 X45.767 Y-15.956 E15.24728
G1 X46.278 Y-16.368 E15.27488
G1 X46.884 Y-16.669 E15.30334
G1 X47.479 Y-16.76 E15.32865
G1 X65.92 Y-16.76 E16.10418
G1 X66.622 Y-16.616 E16.13431
G1 X67.275 Y-16.272 E16.16535
G1 X67.687 Y-15.761 E16.19296
G1 X67.988 Y-15.155 E16.22141
G1 X68.079 Y-14.56 E16.24673
G1 X68.074 Y12.815 E17.39797
G1 X67.853 Y13.786 E17.43985
G1 X67.516 Y14.361 E17.46787
G1 X67.093 Y14.881 E17.49606
G1 X66.609 Y15.26 E17.52192
G1 X65.96 Y15.581 E17.55237
G1 X65.286 Y15.746 E17.58155
G1 X64.543 Y15.765 E17.6128
G1 X63.837 Y15.639 E17.64296
G1 X62.796 Y15.064 E17.69298
G1 X62.677 Y14.963 E17.69954
G1 X61.324 Y13.267 E17.79078
G1 X60.991 Y12.4 E17.82984
G1 X60.925 Y11.608 E17.86326
G1 X61.131 Y10.887 E17.8948
G1 X61.479 Y10.293 E17.92375
G1 X61.479 Y-8.36 E18.70819
G1 X51.879 Y-8.36 E19.11191
G1 X51.879 Y10.303 E19.89677
G1 X52.247 Y10.878 E19.92548
G1 X52.305 Y11.03 E19.93232
G1 X52.416 Y11.729 E19.96209
G1 X52.349 Y12.556 E19.99698
G1 X51.976 Y13.338 E20.03342
G1 X50.759 Y14.858 E20.1153
G1 X49.955 Y15.468 E20.15775
G1 X48.953 Y15.738 E20.20139
G0 F1500 X48.894 Y15.34
G1 F1200 X48.286 Y15.367 E20.22698
G1 X47.44 Y15.206 E20.2632
G1 X46.761 Y14.788 E20.29673
G1 X46.273 Y14.291 E20.32602
G1 X46.003 Y13.863 E20.3473
G1 X45.679 Y13.021 E20.38524
G1 X45.679 Y-14.56 E21.54515
G1 X45.803 Y-15.166 E21.57116
G1 X46.084 Y-15.698 E21.59646
G1 X46.456 Y-16.01 E21.61688
G1 X47.005 Y-16.283 E21.64267
G1 X47.479 Y-16.36 E21.66286
G1 X65.879 Y-16.36 E22.43666
G1 X66.485 Y-16.236 E22.46268
G1 X67.017 Y-15.955 E22.48798
G1 X67.329 Y-15.583 E22.5084
G1 X67.602 Y-15.034 E22.53418
G1 X67.679 Y-14.56 E22.55438
G1 X67.674 Y12.77 E23.70372
G1 X67.477 Y13.637 E23.74111
G1 X67.206 Y14.108 E23.76397
G1 X66.811 Y14.593 E23.79027
G1 X66.394 Y14.92 E23.81256
G1 X65.823 Y15.202 E23.83934
G1 X65.231 Y15.347 E23.86497
G1 X64.573 Y15.364 E23.89265
G1 X63.972 Y15.257 E23.91832
G1 X62.99 Y14.714 E23.96551
G1 X61.675 Y13.066 E24.05418
G1 X61.385 Y12.312 E24.08815
G1 X61.33 Y11.648 E24.11617
G1 X61.502 Y11.045 E24.14254
G1 X61.805 Y10.523 E24.16793
G1 X61.879 Y10.431 E24.17289
G1 X61.879 Y-8.76 E24.97996
G1 X51.479 Y-8.76 E25.41732
G1 X51.479 Y10.419 E26.22388
G1 X51.91 Y11.093 E26.25753
G1 X52.013 Y11.743 E26.28521
G1 X51.956 Y12.451 E26.31508
G1 X51.635 Y13.124 E26.34643
G1 X50.479 Y14.568 E26.42422
G1 X49.774 Y15.103 E26.46144
G1 X48.894 Y15.34 E26.49977
G0 F1500 X48.79 Y14.954
G1 F1200 X48.314 Y14.965 E26.51979
G1 X47.586 Y14.827 E26.55095
G1 X47.012 Y14.473 E26.57931
G1 X46.587 Y14.04 E26.60483
G1 X46.376 Y13.719 E26.62098
G1 X46.079 Y12.947 E26.65577
G1 X46.079 Y-14.56 E27.81256
G1 X46.157 Y-14.979 E27.83048
G1 X46.402 Y-15.443 E27.85255
G1 X46.634 Y-15.652 E27.86568
G1 X47.128 Y-15.898 E27.88889
G1 X47.479 Y-15.96 E27.90388
G1 X65.879 Y-15.96 E28.67768
G1 X66.298 Y-15.882 E28.6956
G1 X66.762 Y-15.637 E28.71767
G1 X66.971 Y-15.405 E28.7308
G1 X67.217 Y-14.911 E28.75401
G1 X67.279 Y-14.56 E28.769
G1 X67.274 Y12.725 E29.91646
G1 X67.1 Y13.491 E29.94949
G1 X66.896 Y13.856 E29.96707
G1 X66.529 Y14.307 E29.99153
G1 X66.217 Y14.561 E30.00845
G1 X65.682 Y14.825 E30.03354
G1 X65.181 Y14.948 E30.05523
G1 X64.604 Y14.963 E30.0795
G1 X64.106 Y14.874 E30.10078
G1 X63.255 Y14.404 E30.14166
G1 X62.025 Y12.863 E30.22458
G1 X61.779 Y12.224 E30.25338
G1 X61.735 Y11.688 E30.27599
G1 X61.887 Y11.155 E30.2993
G1 X62.146 Y10.732 E30.32016
G1 X62.279 Y10.587 E30.32844
G1 X62.279 Y-9.16 E31.15888
G1 X51.079 Y-9.16 E31.62989
G1 X51.079 Y10.572 E32.45971
G1 X51.176 Y10.678 E32.46575
G1 X51.528 Y11.237 E32.49353
G1 X51.61 Y11.757 E32.51567
G1 X51.563 Y12.346 E32.54052
G1 X51.294 Y12.91 E32.5668
G1 X50.199 Y14.278 E32.64049
G1 X49.593 Y14.738 E32.67249
G1 X48.79 Y14.954 E32.70746
G0 F1500 X49.412 Y14.373
G1 F1200 X48.731 Y14.556 E32.73711
G1 X48.388 Y14.572 E32.75155
G1 X47.732 Y14.448 E32.77963
G1 X47.263 Y14.158 E32.80282
G1 X46.914 Y13.81 E32.82354
G1 X46.749 Y13.575 E32.83562
G1 X46.479 Y12.873 E32.86725
G1 X46.479 Y-14.56 E34.02093
G1 X46.549 Y-14.898 E34.03545
G1 X46.686 Y-15.161 E34.04792
G1 X46.824 Y-15.3 E34.05615
G1 X47.206 Y-15.506 E34.07441
G1 X47.479 Y-15.56 E34.08611
G1 X65.879 Y-15.56 E34.85991
G1 X66.217 Y-15.49 E34.87443
G1 X66.48 Y-15.353 E34.8869
G1 X66.619 Y-15.215 E34.89513
G1 X66.825 Y-14.833 E34.91339
G1 X66.879 Y-14.56 E34.92509
G1 X66.874 Y12.68 E36.07065
G1 X66.723 Y13.345 E36.09933
G1 X66.583 Y13.607 E36.11182
G1 X66.266 Y14.005 E36.13322
G1 X66.04 Y14.202 E36.14583
G1 X65.505 Y14.466 E36.17092
G1 X65.171 Y14.548 E36.18538
G1 X64.594 Y14.563 E36.20965
G1 X64.241 Y14.492 E36.2248
G1 X63.52 Y14.094 E36.25943
G1 X62.374 Y12.659 E36.33666
G1 X62.152 Y12.081 E36.3627
G1 X62.123 Y11.785 E36.37521
G1 X62.228 Y11.364 E36.39346
G1 X62.487 Y10.941 E36.41431
G1 X62.679 Y10.761 E36.42538
G1 X62.679 Y-9.56 E37.27997
G1 X50.679 Y-9.56 E37.78462
G1 X50.679 Y10.75 E38.63875
G1 X50.837 Y10.891 E38.64765
G1 X51.146 Y11.382 E38.67205
G1 X51.211 Y11.725 E38.68673
G1 X51.17 Y12.241 E38.7085
G1 X50.982 Y12.66 E38.72781
G1 X49.919 Y13.988 E38.79935
G1 X49.412 Y14.373 E38.82612
G0 F1500 X49.054 Y13.641
G1 F1200 X48.523 Y13.784 E38.84925
G1 X48.062 Y13.713 E38.86887
G1 X47.827 Y13.592 E38.87998
G1 X47.478 Y13.244 E38.90071
G1 X47.279 Y12.726 E38.92404
G1 X47.279 Y-14.56 E40.07154
G1 X47.318 Y-14.679 E40.07681
G1 X47.479 Y-14.76 E40.08439
G1 X65.879 Y-14.76 E40.85819
G1 X65.998 Y-14.721 E40.86345
G1 X66.079 Y-14.56 E40.87103
G1 X66.074 Y12.636 E42.01475
G1 X65.957 Y13.109 E42.03524
G1 X65.64 Y13.507 E42.05664
G1 X65.151 Y13.748 E42.07956
G1 X64.574 Y13.763 E42.10384
G1 X64.05 Y13.474 E42.129
G1 X63 Y12.159 E42.19977
G1 X62.916 Y11.847 E42.21336
G1 X62.945 Y11.699 E42.2197
G1 X63.155 Y11.379 E42.2358
G1 X63.294 Y11.291 E42.24271
G1 X63.479 Y11.265 E42.25057
G1 X63.479 Y-10.36 E43.16
G1 X49.879 Y-10.36 E43.73194
G1 X49.879 Y11.25 E44.64073
G1 X50.065 Y11.292 E44.64875
G1 X50.274 Y11.443 E44.6596
G1 X50.412 Y11.681 E44.67117
G1 X50.401 Y12.056 E44.68694
G1 X50.358 Y12.16 E44.69168
G1 X49.325 Y13.45 E44.76118
G1 X49.054 Y13.641 E44.77512
G0 F1500 X49.233 Y14.007
G1 F1200 X48.627 Y14.17 E44.80151
G1 X48.462 Y14.179 E44.80846
G1 X47.879 Y14.069 E44.83341
G1 X47.545 Y13.875 E44.84965
G1 X47.196 Y13.527 E44.87038
G1 X47.105 Y13.387 E44.8774
G1 X46.879 Y12.799 E44.90389
G1 X46.879 Y-14.56 E46.05446
G1 X46.938 Y-14.804 E46.06502
G1 X47.029 Y-14.956 E46.07247
G1 X47.299 Y-15.117 E46.08569
G1 X47.479 Y-15.16 E46.09347
G1 X65.879 Y-15.16 E46.86727
G1 X66.123 Y-15.101 E46.87783
G1 X66.275 Y-15.01 E46.88528
G1 X66.436 Y-14.74 E46.8985
G1 X66.479 Y-14.56 E46.90628
G1 X66.474 Y12.636 E48.04999
G1 X66.345 Y13.205 E48.07453
G1 X66.27 Y13.358 E48.0817
G1 X65.953 Y13.756 E48.10309
G1 X65.817 Y13.866 E48.11045
G1 X65.328 Y14.107 E48.13338
G1 X65.161 Y14.148 E48.14061
G1 X64.584 Y14.163 E48.16488
G1 X64.381 Y14.113 E48.17367
G1 X63.785 Y13.784 E48.2023
G1 X62.687 Y12.409 E48.2763
G1 X62.53 Y11.951 E48.29666
G1 X62.523 Y11.77 E48.30428
G1 X62.611 Y11.48 E48.31703
G1 X62.821 Y11.16 E48.33312
G1 X63.079 Y10.954 E48.34701
G1 X63.079 Y-9.96 E49.22653
G1 X50.279 Y-9.96 E49.76483
G1 X50.279 Y10.959 E50.64457
G1 X50.508 Y11.119 E50.65632
G1 X50.758 Y11.48 E50.67478
G1 X50.812 Y11.693 E50.68402
G1 X50.771 Y12.209 E50.70579
G1 X50.67 Y12.41 E50.71525
G1 X49.637 Y13.7 E50.78475
G1 X49.233 Y14.007 E50.80609
;MESH:K??rper1(1)
G0 F1500 X48.493 Y12.576
;TYPE:WALL-INNER
G1 F1243.5 X48.938 Y12.023 E50.8349
G1 X48.827 Y11.957 E50.84014
G1 F956.2 X48.584 Y11.631 E50.8616
G1 X48.47 Y12.057 E50.88487
G1 F1243.5 X48.493 Y12.576 E50.90596
G0 F1500 X48.584 Y11.631
G1 F788.2 X48.576 Y11.44 E50.9182
G1 F800 X48.576 Y-9.92 E52.26562
G0 F1080 X48.576 Y-10.56
G0 F1500 X48.841 Y-11.398
G0 X64.336 Y-11.47
G0 X64.336 Y-11.313
G1 F960 X64.776 Y-10.56 E52.31146
G1 F872.7 X64.826 Y-11.059 E52.34046
G1 F1066.7 X64.876 Y-11.559 E52.36424
G1 F1200 X64.876 Y-13.56 E52.44839
G1 X48.476 Y-13.56 E53.13808
G1 X48.476 Y-11.558 E53.22227
G1 F1066.7 X48.526 Y-11.059 E53.246
G1 F872.7 X48.576 Y-10.559 E53.27506
G1 F960 X49.017 Y-11.313 E53.32097
G1 F1200 X49.578 Y-11.556 E53.34669
G1 X63.746 Y-11.556 E53.94251
G0 F1080 X63.774 Y-11.556
G0 X64.336 Y-11.313
G0 F1500 X64.776 Y-10.56
G1 F800 X64.776 Y10.991 E55.30198
G0 F1080 X64.776 Y11.44
G0 X64.768 Y11.631
G0 F1500 X64.868 Y12.556
G1 F1243.5 X64.883 Y12.055 E55.32233
G1 F958.1 X64.768 Y11.631 E55.34547
G1 X64.525 Y11.955 E55.3668
G1 F1243.5 X64.419 Y12.025 E55.37195
G1 X64.832 Y12.543 E55.39884
G1 X64.868 Y12.556 E55.40039
G0 F1500 X64.517 Y-11.398
G0 X64.072 Y-11.47
G0 X64.072 Y-11.012
G1 F1200 X64.276 Y-10.56 E55.42125
G1 X64.276 Y11.523 E56.34994
G1 X64.189 Y11.752 E56.36024
G1 X63.867 Y11.962 E56.3764
G1 X64.574 Y12.85 E56.42414
G1 X64.72 Y12.929 E56.43112
G1 X64.89 Y12.959 E56.43838
G1 X65.139 Y12.872 E56.44947
G1 X65.23 Y12.743 E56.45611
G1 X65.276 Y12.532 E56.46519
G1 X65.276 Y-13.96 E57.5793
G1 X48.076 Y-13.96 E58.30263
G1 X48.076 Y12.599 E59.41956
G1 X48.167 Y12.814 E59.42938
G1 X48.321 Y12.949 E59.43799
G1 X48.504 Y12.972 E59.44575
G1 X48.758 Y12.874 E59.45719
G1 X49.498 Y11.951 E59.50695
G1 X49.163 Y11.753 E59.52331
G1 X49.076 Y11.52 E59.53377
G1 X49.076 Y-10.56 E60.46233
G1 X49.28 Y-11.012 E60.48319
G1 X49.617 Y-11.158 E60.49863
G1 X63.462 Y-11.158 E61.08088
G0 F1080 X63.735 Y-11.158
G0 X64.072 Y-11.012
G0 F1500 X63.876 Y-10.56
;TYPE:WALL-OUTER
G1 F1200 X63.874 Y11.475 E62.00754
G1 X63.847 Y11.544 E62.01066
G1 X63.703 Y11.639 E62.01792
G1 X63.406 Y11.678 E62.03051
G1 X63.318 Y11.826 E62.03775
G1 X63.343 Y11.945 E62.04287
G1 X64.312 Y13.163 E62.10832
G1 X64.587 Y13.312 E62.12148
G1 X64.902 Y13.367 E62.13492
G1 X65.208 Y13.296 E62.14813
G1 X65.417 Y13.173 E62.15833
G1 X65.604 Y12.906 E62.17204
G1 X65.676 Y12.574 E62.18633
G1 X65.676 Y-14.36 E63.31902
G1 X47.676 Y-14.36 E64.076
G1 X47.676 Y12.679 E65.21311
G1 X47.832 Y13.05 E65.23004
G1 X48.075 Y13.273 E65.24391
G1 X48.203 Y13.337 E65.24992
G1 X48.536 Y13.38 E65.26404
G1 X48.859 Y13.287 E65.27818
G1 X49.031 Y13.174 E65.28683
G1 X50.006 Y11.956 E65.35245
G1 X50.023 Y11.799 E65.35909
G1 X49.879 Y11.65 E65.3678
G1 X49.667 Y11.64 E65.37673
G1 X49.479 Y11.53 E65.38589
G1 X49.476 Y-10.56 E66.31487
G1 X49.544 Y-10.711 E66.32183
G1 X49.656 Y-10.76 E66.32698
G1 X63.344 Y-10.76 E66.90262
G0 F1080 X63.696 Y-10.76
G0 X63.808 Y-10.711
G0 X63.876 Y-10.56
G0 F1500 X63.876 Y-10.36
G0 X64.589 Y-10.36
G0 X64.517 Y-11.398
G0 X63.83 Y-11.932
;TYPE:SKIN
G1 F1200 X49.521 Y-11.932 E67.50437
G1 X48.856 Y-11.645 E67.53483
G1 X48.856 Y-13.18 E67.59939
G1 X64.496 Y-13.18 E68.25712
G1 X64.496 Y-11.647 E68.32159
G1 X63.83 Y-11.932 E68.35205
G0 F1500 X63.954 Y-12.98
G1 F1200 X64.296 Y-12.637 E68.37242
G0 F1500 X64.296 Y-12.072
G1 F1200 X63.388 Y-12.98 E68.42642
G0 F1500 X62.822 Y-12.98
G1 F1200 X63.671 Y-12.131 E68.47692
G0 F1500 X63.105 Y-12.131
G1 F1200 X62.257 Y-12.98 E68.52738
G0 F1500 X61.691 Y-12.98
G1 F1200 X62.539 Y-12.131 E68.57784
G0 F1500 X61.974 Y-12.131
M104 S215
G1 F1200 X61.125 Y-12.98 E68.62834
G0 F1500 X60.559 Y-12.98
G1 F1200 X61.408 Y-12.131 E68.67883
G0 F1500 X60.842 Y-12.131
G1 F1200 X59.994 Y-12.98 E68.72929
G0 F1500 X59.428 Y-12.98
G1 F1200 X60.277 Y-12.131 E68.77979
G0 F1500 X59.711 Y-12.131
G1 F1200 X58.862 Y-12.98 E68.83028
G0 F1500 X58.297 Y-12.98
G1 F1200 X59.145 Y-12.131 E68.88075
G0 F1500 X58.58 Y-12.131
G1 F1200 X57.731 Y-12.98 E68.93124
G0 F1500 X57.165 Y-12.98
G1 F1200 X58.014 Y-12.131 E68.98173
G0 F1500 X57.448 Y-12.131
G1 F1200 X56.6 Y-12.98 E69.0322
G0 F1500 X56.034 Y-12.98
G1 F1200 X56.882 Y-12.131 E69.08266
G0 F1500 X56.317 Y-12.131
G1 F1200 X55.468 Y-12.98 E69.13315
G0 F1500 X54.903 Y-12.98
G1 F1200 X55.751 Y-12.131 E69.18362
