;FLAVOR:Marlin
;TIME:10290
;Filament used: 5.7695m
;Layer height: 0.2
;MINX:-91.445
;MINY:-46.961
;MINZ:0.3
;MAXX:93.112
;MAXY:40.36
;MAXZ:18
;TARGET_MACHINE.NAME:Unknown
;POSTPROCESSED
;  [CreateThumbnail]
;Generated with Cura_SteamEngine 5.11.0
M140 S50
M105
M190 S50
M104 S230
M105
M109 S230
;FLAVOR:Marlin
M82 ;absolute extrusion mode
G21
G90
M82
M107 T0
G28
G92 E0
G0 E3 F200
G92 E0 ; reset extrusion distance
M106 S255 ; Enable cooling fan full speed
G1 X-98 Y0 Z0.4 F3000 ; move to arc start
G3 X0 Y-98 I98 Z0.4 E40 F400 ; lay arc stripe 90deg
G92 E0 ; reset extrusion distance
G4 P500 ; wait for 0.5 sec
G0 Z10 E-1 ; Lift 15mm and retract 1mm filament
G4 P2000 ; wait for 5 sec
G0 Z15
M107 ; Disable cooling fan
G1 X0 Y-85 Z4 E0 F3000 ; get off the bed
M82 ;absolute extrusion mode
G92 E0
G92 E0
G1 F1500 E-6.5
;LAYER_COUNT:64
;LAYER:0
M107
G1 F600 Z1.3
G0 F3600 X0.00 Y0.00 Z1.3
G0 X21.684 Y-1.869
;TYPE:SKIRT
G1 F600 Z0.3
G1 F1500 E0
G1 F1200 X21.533 Y-4.396 E0.10104
G1 X22.595 Y-7.897 E0.24706
G1 X23.186 Y-9.19 E0.3038
G1 X22.661 Y-10.996 E0.37886
G1 X22.51 Y-13.54 E0.48058
G1 X23.423 Y-16.542 E0.60581
G1 X23.344 Y-16.717 E0.61348
G1 X22.451 Y-19.79 E0.7412
G1 X22.3 Y-22.314 E0.84212
G1 X22.957 Y-24.507 E0.93349
G1 X22.208 Y-27.081 E1.04049
G1 X22.057 Y-29.627 E1.14228
G1 X23.152 Y-33.197 E1.29132
G1 X23.91 Y-34.847 E1.36379
G1 X26.643 Y-37.734 E1.52246
G1 X28.377 Y-38.878 E1.60537
G1 X28.82 Y-39.04 E1.6242
G1 X29.533 Y-39.794 E1.66562
G1 X31.41 Y-41.034 E1.7554
G1 X33.262 Y-41.551 E1.83215
G1 X34.126 Y-42.219 E1.87574
G1 X36.04 Y-43.039 E1.95884
G1 X38.242 Y-43.35 E2.0476
G1 X39.576 Y-43.215 E2.10112
G1 X41.124 Y-42.736 E2.16579
G1 X42.248 Y-42.23 E2.21499
G1 X43.683 Y-41.171 E2.28617
G1 X44.064 Y-40.714 E2.30992
G1 X44.398 Y-40.861 E2.32448
G1 X46.254 Y-41.283 E2.40045
G1 X83.272 Y-41.26 E3.87792
G1 X84.903 Y-41.118 E3.94326
G1 X86.846 Y-40.524 E4.02435
G1 X88.749 Y-39.472 E4.11114
G1 X90.369 Y-37.983 E4.19896
G1 X91.37 Y-36.813 E4.26042
G1 X92.373 Y-34.937 E4.34532
G1 X92.968 Y-32.946 E4.42826
G1 X93.112 Y-31.023 E4.50522
G1 X93.073 Y28.781 E6.89213
G1 X92.949 Y29.949 E6.93901
G1 X92.388 Y31.866 E7.01873
G1 X91.382 Y33.768 E7.10461
G1 X89.753 Y35.564 E7.20138
G1 X88.628 Y36.503 E7.25987
G1 X86.76 Y37.5 E7.34438
G1 X84.775 Y38.093 E7.42707
G1 X83.192 Y38.227 E7.49047
G1 X45.733 Y38.238 E8.98554
G1 X43.716 Y37.505 E9.0712
G1 X43.476 Y37.778 E9.08571
G1 X42.141 Y38.747 E9.15154
G1 X40.944 Y39.388 E9.20574
G1 X38.932 Y39.922 E9.28882
G1 X38.661 Y39.971 E9.29981
G1 X37.547 Y40.276 E9.34591
G1 X35.194 Y40.36 E9.43988
G1 X31.468 Y39.277 E9.59475
G1 X29.544 Y38.139 E9.68397
G1 X26.943 Y35.539 E9.83075
G1 X25.806 Y33.615 E9.91995
G1 X25.392 Y32.193 E9.97906
G1 X24.944 Y31.745 E10.00435
G1 X23.807 Y29.821 E10.09355
G1 X22.857 Y26.554 E10.22934
G1 X22.758 Y24.942 E10.2938
G1 X22.488 Y24.444 E10.31641
G1 X21.565 Y21.26 E10.44872
G1 X21.414 Y18.717 E10.5504
G1 X22.471 Y15.246 E10.69521
G1 X22.655 Y14.826 E10.71352
G1 X22.29 Y13.569 E10.76576
G1 X22.139 Y11.062 E10.866
G1 X23.243 Y7.259 E11.02405
G1 X23.355 Y7.026 E11.03437
G1 X23.097 Y6.135 E11.07139
G1 X22.946 Y3.601 E11.17271
G1 X23.276 Y2.482 E11.21927
G1 X22.633 Y1.396 E11.26964
G1 X21.684 Y-1.869 E11.40535
G0 F3600 X22.08 Y-1.939
G1 F1200 X21.936 Y-4.347 E11.50163
G1 X22.978 Y-7.781 E11.64486
G1 X23.612 Y-9.159 E11.7054
G1 X23.057 Y-11.066 E11.78467
G1 X22.913 Y-13.491 E11.88163
G1 X23.851 Y-16.575 E12.01028
G1 X23.728 Y-16.829 E12.02155
G1 X22.847 Y-19.86 E12.14753
G1 X22.703 Y-22.267 E12.24377
G1 X23.374 Y-24.505 E12.33702
G1 X22.604 Y-27.151 E12.44701
G1 X22.46 Y-29.577 E12.54401
G1 X23.516 Y-33.03 E12.68812
G1 X24.247 Y-34.622 E12.75804
G1 X26.901 Y-37.425 E12.91211
G1 X28.556 Y-38.517 E12.99125
G1 X29.044 Y-38.696 E13.01199
G1 X29.789 Y-39.483 E13.05524
G1 X31.581 Y-40.667 E13.14097
G1 X33.445 Y-41.187 E13.21821
G1 X34.328 Y-41.87 E13.26276
G1 X36.151 Y-42.651 E13.34192
G1 X38.25 Y-42.947 E13.42652
G1 X39.497 Y-42.821 E13.47654
G1 X40.96 Y-42.371 E13.53764
G1 X42.044 Y-41.883 E13.58508
G1 X43.445 Y-40.849 E13.65458
G1 X43.948 Y-40.216 E13.68685
G1 X44.487 Y-40.471 E13.71065
G1 X46.299 Y-40.883 E13.78482
G1 X83.237 Y-40.862 E15.25909
G1 X84.822 Y-40.724 E15.32259
G1 X86.69 Y-40.153 E15.40055
G1 X88.514 Y-39.144 E15.48375
G1 X90.065 Y-37.723 E15.5677
G1 X91.037 Y-36.587 E15.62738
G1 X92.002 Y-34.781 E15.7091
G1 X92.572 Y-32.874 E15.78854
G1 X92.712 Y-31.023 E15.86263
G1 X92.675 Y28.739 E18.24786
G1 X92.555 Y29.872 E18.29334
G1 X92.016 Y31.713 E18.3699
G1 X91.051 Y33.538 E18.45229
G1 X89.457 Y35.295 E18.54698
G1 X88.404 Y36.169 E18.6016
G1 X86.607 Y37.128 E18.68289
G1 X84.703 Y37.697 E18.76221
G1 X83.158 Y37.828 E18.82409
G1 X45.804 Y37.838 E20.31497
G1 X43.586 Y37.032 E20.40916
G1 X43.241 Y37.454 E20.43091
G1 X41.906 Y38.423 E20.49675
G1 X40.798 Y39.012 E20.54684
G1 X38.86 Y39.528 E20.62688
G1 X38.575 Y39.58 E20.63844
G1 X37.486 Y39.878 E20.68351
G1 X35.243 Y39.958 E20.77309
G1 X31.628 Y38.907 E20.92334
G1 X29.792 Y37.821 E21.00848
G1 X27.261 Y35.291 E21.15131
G1 X26.176 Y33.455 E21.23643
G1 X25.747 Y31.982 E21.29766
G1 X25.262 Y31.497 E21.32504
G1 X24.177 Y29.661 E21.41016
G1 X23.253 Y26.484 E21.54221
G1 X23.151 Y24.823 E21.60863
G1 X22.872 Y24.333 E21.63114
G1 X21.961 Y21.192 E21.76167
G1 X21.817 Y18.767 E21.85863
G1 X22.854 Y15.363 E22.00065
G1 X23.08 Y14.855 E22.02284
G1 X22.686 Y13.499 E22.0792
G1 X22.542 Y11.108 E22.1748
G1 X23.627 Y7.371 E22.33012
G1 X23.783 Y7.068 E22.34372
G1 X23.493 Y6.067 E22.38531
G1 X23.349 Y3.649 E22.48199
G1 X23.709 Y2.429 E22.53276
G1 X23.003 Y1.236 E22.58809
G1 X22.08 Y-1.939 E22.72005
G0 F3600 X22.476 Y-2.009
G1 F1200 X22.339 Y-4.298 E22.81158
G1 X23.342 Y-7.615 E22.94989
G1 X23.951 Y-8.948 E23.00838
G1 X24.048 Y-9.094 E23.01537
G1 X23.453 Y-11.136 E23.10026
G1 X23.316 Y-13.442 E23.19246
G1 X24.282 Y-16.615 E23.32484
G1 X24.112 Y-16.941 E23.33952
G1 X23.243 Y-19.93 E23.46376
G1 X23.106 Y-22.22 E23.55532
G1 X23.791 Y-24.503 E23.65045
G1 X23 Y-27.221 E23.76343
G1 X22.863 Y-29.527 E23.85563
G1 X23.88 Y-32.863 E23.99483
G1 X24.584 Y-34.397 E24.06219
G1 X27.159 Y-37.116 E24.21166
G1 X28.735 Y-38.156 E24.28702
G1 X29.27 Y-38.352 E24.30976
G1 X30.048 Y-39.174 E24.35493
G1 X31.752 Y-40.3 E24.43645
G1 X33.628 Y-40.823 E24.51418
G1 X34.53 Y-41.521 E24.5597
G1 X36.262 Y-42.263 E24.63491
G1 X38.258 Y-42.544 E24.71536
G1 X39.42 Y-42.427 E24.76197
G1 X40.796 Y-42.006 E24.8194
G1 X41.84 Y-41.536 E24.8651
G1 X43.166 Y-40.557 E24.93088
G1 X43.833 Y-39.719 E24.97363
G1 X44.62 Y-40.091 E25.00837
G1 X46.344 Y-40.483 E25.07894
G1 X83.202 Y-40.464 E26.55002
G1 X84.741 Y-40.33 E26.61168
G1 X86.534 Y-39.782 E26.68651
G1 X88.28 Y-38.816 E26.76615
G1 X89.795 Y-37.428 E26.84816
G1 X90.702 Y-36.364 E26.90396
G1 X91.632 Y-34.624 E26.9827
G1 X92.176 Y-32.803 E27.05856
G1 X92.312 Y-31.023 E27.12981
G1 X92.277 Y28.697 E29.51336
G1 X92.161 Y29.795 E29.55743
G1 X91.644 Y31.56 E29.63084
G1 X90.72 Y33.308 E29.70975
G1 X89.161 Y35.026 E29.80234
G1 X88.18 Y35.835 E29.85309
G1 X86.453 Y36.757 E29.93123
G1 X84.632 Y37.301 E30.00708
G1 X83.124 Y37.429 E30.06749
G1 X45.875 Y37.438 E31.55417
G1 X43.853 Y36.703 E31.64004
G1 X43.483 Y36.51 E31.6567
G1 X43.005 Y37.131 E31.68798
G1 X41.718 Y38.07 E31.75156
G1 X40.653 Y38.636 E31.7997
G1 X38.757 Y39.141 E31.87801
G1 X38.486 Y39.189 E31.889
G1 X37.425 Y39.48 E31.93291
G1 X35.292 Y39.556 E32.01809
G1 X31.788 Y38.537 E32.16374
G1 X30.04 Y37.503 E32.2448
G1 X27.579 Y35.043 E32.38368
G1 X26.546 Y33.295 E32.46472
G1 X26.102 Y31.771 E32.52807
G1 X25.58 Y31.249 E32.55754
G1 X24.547 Y29.501 E32.63857
G1 X23.649 Y26.414 E32.76689
G1 X23.544 Y24.7 E32.83543
G1 X23.256 Y24.222 E32.8577
G1 X22.357 Y21.124 E32.98645
G1 X22.22 Y18.817 E33.07869
G1 X23.237 Y15.48 E33.21792
G1 X23.505 Y14.885 E33.24397
G1 X23.082 Y13.429 E33.30448
G1 X22.945 Y11.154 E33.39545
G1 X24.011 Y7.483 E33.54802
G1 X24.214 Y7.116 E33.56476
G1 X23.889 Y5.997 E33.61127
G1 X23.752 Y3.697 E33.70323
G1 X24.142 Y2.376 E33.7582
G1 X23.373 Y1.076 E33.81848
G1 X22.476 Y-2.009 E33.94671
G0 F3600 X22.872 Y-2.079
G1 F1200 X22.742 Y-4.25 E34.03352
G1 X23.706 Y-7.449 E34.16687
G1 X24.315 Y-8.782 E34.22536
G1 X24.487 Y-9.016 E34.23695
G1 X23.849 Y-11.206 E34.32799
G1 X23.719 Y-13.392 E34.41539
G1 X24.714 Y-16.66 E34.55174
G1 X24.496 Y-17.053 E34.56968
G1 X23.639 Y-20 E34.69217
G1 X23.509 Y-22.173 E34.77905
G1 X24.208 Y-24.501 E34.87607
G1 X23.396 Y-27.291 E34.99204
G1 X23.266 Y-29.477 E35.07944
G1 X24.263 Y-32.746 E35.21585
G1 X24.919 Y-34.17 E35.27843
G1 X27.417 Y-36.807 E35.4234
G1 X28.955 Y-37.822 E35.49695
G1 X29.491 Y-38.005 E35.51955
G1 X30.306 Y-38.865 E35.56684
G1 X31.921 Y-39.932 E35.6441
G1 X33.811 Y-40.459 E35.72241
G1 X34.732 Y-41.172 E35.7689
G1 X36.373 Y-41.875 E35.84015
G1 X38.266 Y-42.141 E35.91645
G1 X39.338 Y-42.033 E35.95945
G1 X40.679 Y-41.623 E36.01542
G1 X41.636 Y-41.189 E36.05736
G1 X42.886 Y-40.267 E36.11935
G1 X43.718 Y-39.221 E36.17269
G1 X44.753 Y-39.711 E36.2184
G1 X46.389 Y-40.083 E36.28536
G1 X83.167 Y-40.066 E37.75325
G1 X84.66 Y-39.936 E37.81306
G1 X86.378 Y-39.411 E37.88476
G1 X88.046 Y-38.488 E37.96085
G1 X89.491 Y-37.168 E38.03896
G1 X90.37 Y-36.137 E38.09304
G1 X91.26 Y-34.471 E38.16843
G1 X91.78 Y-32.731 E38.24091
G1 X91.912 Y-31.023 E38.30928
G1 X91.879 Y28.655 E40.69116
G1 X91.767 Y29.717 E40.73378
G1 X91.271 Y31.408 E40.80412
G1 X90.389 Y33.077 E40.87946
G1 X88.906 Y34.717 E40.96771
G1 X87.953 Y35.503 E41.01701
G1 X86.3 Y36.385 E41.09179
G1 X84.56 Y36.905 E41.16427
G1 X83.09 Y37.03 E41.22316
G1 X45.946 Y37.038 E42.70565
G1 X43.99 Y36.327 E42.78872
G1 X43.372 Y35.997 E42.81668
G1 X42.723 Y36.842 E42.85921
G1 X41.482 Y37.747 E42.92051
G1 X40.508 Y38.26 E42.96445
G1 X38.654 Y38.754 E43.04103
G1 X38.394 Y38.799 E43.05156
G1 X37.364 Y39.082 E43.09419
G1 X35.341 Y39.154 E43.17498
G1 X31.948 Y38.167 E43.31602
G1 X30.288 Y37.185 E43.393
G1 X27.897 Y34.795 E43.52793
G1 X26.916 Y33.135 E43.60489
G1 X26.457 Y31.56 E43.67036
G1 X25.898 Y31.001 E43.70192
G1 X24.917 Y29.341 E43.77887
G1 X24.045 Y26.344 E43.90345
G1 X23.937 Y24.577 E43.97411
G1 X23.626 Y24.06 E43.99819
G1 X22.753 Y21.054 E44.12312
G1 X22.623 Y18.867 E44.21056
G1 X23.62 Y15.597 E44.34701
G1 X23.931 Y14.916 E44.37689
G1 X23.478 Y13.359 E44.44161
G1 X23.348 Y11.2 E44.52793
G1 X24.395 Y7.595 E44.67776
G1 X24.647 Y7.171 E44.69745
G1 X24.285 Y5.927 E44.74916
G1 X24.155 Y3.745 E44.8364
G1 X24.575 Y2.323 E44.89558
G1 X23.743 Y0.916 E44.96082
G1 X22.872 Y-2.079 E45.08531
G0 F3600 X23.268 Y-2.149
G1 F1200 X23.145 Y-4.202 E45.1674
G1 X24.07 Y-7.283 E45.29579
G1 X24.679 Y-8.616 E45.35428
G1 X24.929 Y-8.927 E45.37021
G1 X24.245 Y-11.276 E45.46785
G1 X24.122 Y-13.342 E45.55046
G1 X25.098 Y-16.545 E45.6841
G1 X25.163 Y-16.688 E45.69037
G1 X24.88 Y-17.165 E45.71251
G1 X24.035 Y-20.07 E45.83326
G1 X23.912 Y-22.126 E45.91546
G1 X24.636 Y-24.538 E46.01597
G1 X24.568 Y-24.694 E46.02277
G1 X23.792 Y-27.361 E46.13363
G1 X23.669 Y-29.427 E46.21623
G1 X24.646 Y-32.629 E46.34985
G1 X25.255 Y-33.944 E46.40769
G1 X27.675 Y-36.498 E46.54811
G1 X29.175 Y-37.488 E46.61985
G1 X29.709 Y-37.654 E46.64217
G1 X30.562 Y-38.554 E46.69166
G1 X32.092 Y-39.565 E46.76485
G1 X33.994 Y-40.095 E46.84365
G1 X34.934 Y-40.823 E46.89111
G1 X36.484 Y-41.487 E46.95841
G1 X38.274 Y-41.738 E47.03055
G1 X39.256 Y-41.639 E47.06994
G1 X40.562 Y-41.24 E47.12445
G1 X41.431 Y-40.843 E47.16258
G1 X42.607 Y-39.975 E47.22092
G1 X43.603 Y-38.724 E47.28474
G1 X44.886 Y-39.331 E47.34139
G1 X46.434 Y-39.683 E47.40475
G1 X83.132 Y-39.668 E48.86945
G1 X84.579 Y-39.542 E48.92742
G1 X86.222 Y-39.04 E48.99598
G1 X87.812 Y-38.16 E49.06852
G1 X89.187 Y-36.908 E49.14274
G1 X90.038 Y-35.91 E49.19508
G1 X90.889 Y-34.317 E49.26717
G1 X91.384 Y-32.66 E49.33619
G1 X91.512 Y-31.023 E49.40173
G1 X91.481 Y28.613 E51.78193
G1 X91.373 Y29.639 E51.8231
G1 X90.898 Y31.256 E51.89037
G1 X90.058 Y32.847 E51.96218
G1 X88.651 Y34.408 E52.04605
G1 X87.726 Y35.171 E52.09391
G1 X86.146 Y36.014 E52.16539
G1 X84.489 Y36.509 E52.23441
G1 X83.056 Y36.631 E52.29181
G1 X46.016 Y36.638 E53.77016
G1 X44.179 Y35.974 E53.84812
G1 X43.262 Y35.484 E53.88961
G1 X42.441 Y36.553 E53.94341
G1 X41.295 Y37.393 E54.00012
G1 X40.362 Y37.885 E54.04222
G1 X38.551 Y38.367 E54.11702
G1 X38.308 Y38.407 E54.12685
G1 X37.303 Y38.684 E54.16845
G1 X35.39 Y38.752 E54.24485
G1 X32.108 Y37.797 E54.38128
G1 X30.536 Y36.867 E54.45418
G1 X28.215 Y34.547 E54.58516
G1 X27.286 Y32.975 E54.65804
G1 X26.812 Y31.349 E54.72563
G1 X26.216 Y30.753 E54.75928
G1 X25.287 Y29.181 E54.83215
G1 X24.441 Y26.274 E54.95299
G1 X24.343 Y24.675 E55.01693
G1 X24.357 Y24.5 E55.02394
G1 X23.995 Y23.898 E55.05198
G1 X23.149 Y20.984 E55.17308
G1 X23.026 Y18.917 E55.25573
G1 X24.003 Y15.714 E55.38938
G1 X24.357 Y14.948 E55.42306
G1 X23.874 Y13.289 E55.49202
G1 X23.751 Y11.246 E55.57371
G1 X24.779 Y7.707 E55.7208
G1 X25.082 Y7.234 E55.74322
G1 X24.681 Y5.857 E55.80046
G1 X24.558 Y3.793 E55.88299
G1 X25.008 Y2.271 E55.94633
G1 X24.114 Y0.758 E56.01647
G1 X23.268 Y-2.149 E56.13731
G0 F3600 X23.664 Y-2.219
G1 F1200 X23.548 Y-4.155 E56.21472
G1 X24.434 Y-7.117 E56.33811
G1 X25.043 Y-8.45 E56.39661
G1 X25.374 Y-8.829 E56.41669
G1 X24.641 Y-11.346 E56.52132
G1 X24.525 Y-13.293 E56.59917
G1 X25.463 Y-16.38 E56.72794
G1 X25.613 Y-16.712 E56.74248
G1 X25.25 Y-17.325 E56.77091
G1 X24.431 Y-20.14 E56.88793
G1 X24.315 Y-22.079 E56.96545
G1 X25.063 Y-24.57 E57.06926
G1 X24.952 Y-24.806 E57.07967
G1 X24.188 Y-27.431 E57.18879
G1 X24.072 Y-29.378 E57.26663
G1 X25.009 Y-32.461 E57.39524
G1 X25.591 Y-33.717 E57.45049
G1 X27.933 Y-36.189 E57.5864
G1 X29.347 Y-37.123 E57.65404
G1 X29.927 Y-37.303 E57.67828
G1 X30.82 Y-38.245 E57.73008
G1 X32.261 Y-39.197 E57.79901
G1 X34.177 Y-39.731 E57.8784
G1 X35.138 Y-40.475 E57.92691
G1 X36.593 Y-41.098 E57.99008
G1 X38.282 Y-41.335 E58.05815
G1 X39.176 Y-41.245 E58.09401
G1 X40.396 Y-40.876 E58.14488
G1 X41.225 Y-40.497 E58.18126
G1 X42.328 Y-39.683 E58.23598
G1 X43.295 Y-38.469 E58.29792
G1 X43.441 Y-38.154 E58.31178
G1 X43.783 Y-38.367 E58.32786
G1 X45.019 Y-38.951 E58.38242
G1 X46.479 Y-39.283 E58.44218
G1 X83.097 Y-39.27 E59.90369
G1 X84.498 Y-39.148 E59.95981
G1 X86.066 Y-38.669 E60.02525
G1 X87.578 Y-37.832 E60.09423
G1 X88.883 Y-36.648 E60.16456
G1 X89.706 Y-35.683 E60.21518
G1 X90.517 Y-34.164 E60.2839
G1 X90.988 Y-32.588 E60.34955
G1 X91.112 Y-31.023 E60.41221
G1 X91.083 Y28.571 E62.79074
G1 X90.979 Y29.561 E62.83047
G1 X90.525 Y31.104 E62.89466
G1 X89.727 Y32.617 E62.96293
G1 X88.396 Y34.099 E63.04244
G1 X87.499 Y34.839 E63.08885
G1 X85.993 Y35.642 E63.15697
G1 X84.417 Y36.113 E63.22262
G1 X83.022 Y36.232 E63.2785
G1 X46.085 Y36.238 E64.75273
G1 X44.367 Y35.621 E64.82559
G1 X43.438 Y35.125 E64.86762
G1 X43.171 Y34.945 E64.88047
G1 X42.158 Y36.265 E64.94688
G1 X41.108 Y37.039 E64.99895
G1 X40.216 Y37.51 E65.03921
G1 X38.448 Y37.98 E65.11222
G1 X38.221 Y38.016 E65.1214
G1 X37.242 Y38.286 E65.16193
G1 X35.439 Y38.35 E65.23394
G1 X32.268 Y37.427 E65.36575
G1 X30.784 Y36.549 E65.43457
G1 X28.533 Y34.299 E65.5616
G1 X27.656 Y32.815 E65.6304
G1 X27.167 Y31.138 E65.70012
G1 X26.534 Y30.505 E65.73585
G1 X25.657 Y29.021 E65.80465
G1 X24.837 Y26.204 E65.92174
G1 X24.742 Y24.651 E65.98384
G1 X24.77 Y24.41 E65.99353
G1 X24.365 Y23.736 E66.02491
G1 X23.545 Y20.914 E66.1422
G1 X23.429 Y18.967 E66.22005
G1 X24.386 Y15.831 E66.35091
G1 X24.783 Y14.98 E66.38839
G1 X24.27 Y13.219 E66.4616
G1 X24.154 Y11.292 E66.53865
G1 X25.163 Y7.819 E66.68299
G1 X25.519 Y7.305 E66.70795
G1 X25.077 Y5.787 E66.77105
G1 X24.961 Y3.841 E66.84886
G1 X25.459 Y2.156 E66.91899
