;FLAVOR:Marlin
;TIME:5245
;Filament used: 3.67547m
;Layer height: 0.12
;MINX:-37.93
;MINY:-49.158
;MINZ:0.24
;MAXX:49.418
;MAXY:45.885
;MAXZ:12.61
;TARGET_MACHINE.NAME:Unknown
;Generated with Cura_SteamEngine 5.8.1
M140 S60
M105
M190 S60
M104 S210
M105
M109 S210
M82 ;absolute extrusion mode
;FLAVOR:Marlin
M82 ;absolute extrusion mode
G21
G90
M82
M107 T0
G28
G92 E0
G0 E3 F200
G92 E0 ; reset extrusion distance
M106 S255 ; Enable cooling fan full speed
G1 X-98 Y0 Z0.4 F3000 ; move to arc start
G3 X0 Y-98 I98 Z0.4 E40 F400 ; lay arc stripe 90deg
G92 E0 ; reset extrusion distance
G4 P500 ; wait for 0.5 sec
G0 Z10 E-1 ; Lift 15mm and retract 1mm filament
G4 P2000 ; wait for 5 sec
G0 Z15
M107 ; Disable cooling fan
G1 X0 Y-85 Z4 E0 F3000 ; get off the bed
G92 E0
G92 E0
G1 F1500 E-1
;LAYER_COUNT:62
;LAYER:0
M106 S102
G0 F750 X0.071 Y17.885 Z0.24
;TYPE:SKIRT
G1 F3600 E0.71493
G1 F1200 X0.798 Y17.992 E0.74756
G1 X1.177 Y18.134 E0.76553
G1 X1.645 Y17.966 E0.78761
G1 X2.13 Y17.893 E0.8094
G1 X45.042 Y17.885 E2.71509
G1 X45.932 Y18.067 E2.75544
G1 X46.687 Y18.465 E2.79334
G1 X46.907 Y18.634 E2.80566
G1 X47.405 Y19.252 E2.84091
G1 X47.801 Y20.048 E2.88039
G1 X47.915 Y20.821 E2.91509
G1 X47.934 Y26.802 E3.1807
G1 X47.965 Y27.266 E3.20136
G1 X48.04 Y27.65 E3.21873
G1 X48.269 Y28.099 E3.24111
G1 X48.708 Y28.483 E3.26702
G1 X49.119 Y29.137 E3.30132
G1 X49.418 Y30.084 E3.34542
G1 X49.408 Y33.513 E3.4977
G1 X49.293 Y34.224 E3.52969
G1 X48.953 Y34.993 E3.56703
G1 X48.42 Y35.59 E3.60257
G1 X48.251 Y35.714 E3.61188
G1 X47.986 Y36.329 E3.64162
G1 X47.918 Y36.793 E3.66244
G1 X47.918 Y43.008 E3.93845
G1 X47.736 Y43.898 E3.97879
G1 X47.338 Y44.653 E4.01669
G1 X47.169 Y44.873 E4.02901
G1 X46.551 Y45.371 E4.06426
G1 X45.755 Y45.767 E4.10374
G1 X44.976 Y45.881 E4.13871
G1 X2.036 Y45.885 E6.04565
G1 X1.356 Y45.727 E6.07665
G1 X1.147 Y45.638 E6.08674
G1 X0.676 Y45.804 E6.10892
G1 X0.191 Y45.877 E6.1307
G1 X-35.053 Y45.885 E7.69587
G1 X-35.943 Y45.703 E7.73621
G1 X-36.698 Y45.305 E7.77411
G1 X-36.918 Y45.136 E7.78643
G1 X-37.416 Y44.518 E7.82168
G1 X-37.812 Y43.722 E7.86116
G1 X-37.926 Y42.943 E7.89612
G1 X-37.93 Y20.762 E8.88117
G1 X-37.748 Y19.872 E8.92151
G1 X-37.35 Y19.117 E8.95942
G1 X-37.181 Y18.897 E8.97174
G1 X-36.563 Y18.399 E9.00698
G1 X-35.767 Y18.003 E9.04646
G1 X-34.988 Y17.889 E9.08143
G1 X-.594 Y17.885 E10.60885
G0 F1080 X0.071 Y17.885
G0 F750 X0.071 Y18.285
G1 F1200 X0.695 Y18.381 E10.63689
G1 X1.177 Y18.561 E10.65973
G1 X1.705 Y18.362 E10.68479
G1 X2.19 Y18.289 E10.70657
G1 X45.001 Y18.285 E12.60779
G1 X45.797 Y18.448 E12.64387
G1 X46.501 Y18.819 E12.67921
G1 X46.626 Y18.922 E12.6864
G1 X47.066 Y19.468 E12.71754
G1 X47.414 Y20.168 E12.75226
G1 X47.519 Y20.879 E12.78418
G1 X47.534 Y26.815 E13.04779
G1 X47.568 Y27.321 E13.07032
G1 X47.657 Y27.78 E13.09108
G1 X47.948 Y28.35 E13.1195
G1 X48.4 Y28.746 E13.14619
G1 X48.754 Y29.309 E13.17572
G1 X49.018 Y30.144 E13.21461
G1 X49.013 Y33.449 E13.36139
G1 X48.906 Y34.109 E13.39108
G1 X48.611 Y34.776 E13.42347
G1 X48.153 Y35.289 E13.45401
G1 X47.927 Y35.456 E13.46649
G1 X47.597 Y36.22 E13.50345
G1 X47.518 Y36.762 E13.52777
G1 X47.518 Y42.967 E13.80333
G1 X47.355 Y43.763 E13.83942
G1 X46.984 Y44.467 E13.87476
G1 X46.881 Y44.592 E13.88195
G1 X46.335 Y45.032 E13.91309
G1 X45.635 Y45.38 E13.94781
G1 X44.918 Y45.485 E13.97999
G1 X2.08 Y45.485 E15.8824
G1 X1.513 Y45.359 E15.90819
G1 X1.218 Y45.233 E15.92244
G1 X1.078 Y45.236 E15.92866
G1 X0.616 Y45.408 E15.95055
G1 X0.131 Y45.481 E15.97233
G1 X-35.012 Y45.485 E17.53301
G1 X-35.808 Y45.322 E17.5691
G1 X-36.512 Y44.951 E17.60444
G1 X-36.637 Y44.848 E17.61163
G1 X-37.077 Y44.302 E17.64277
G1 X-37.425 Y43.602 E17.67749
G1 X-37.53 Y42.885 E17.70967
G1 X-37.53 Y20.803 E18.69032
G1 X-37.367 Y20.007 E18.7264
G1 X-36.996 Y19.303 E18.76174
G1 X-36.893 Y19.178 E18.76894
G1 X-36.347 Y18.738 E18.80008
G1 X-35.647 Y18.39 E18.83479
G1 X-34.93 Y18.285 E18.86697
G1 X-.594 Y18.285 E20.39182
G0 F1080 X0.071 Y18.285
G0 F750 X0.071 Y18.685
G1 F1200 X0.631 Y18.776 E20.41701
G1 X1.131 Y18.972 E20.44086
G1 X1.301 Y18.946 E20.4485
G1 X1.765 Y18.758 E20.47073
G1 X2.25 Y18.685 E20.49251
G1 X44.96 Y18.685 E22.38924
G1 X45.662 Y18.829 E22.42107
G1 X46.315 Y19.173 E22.45384
G1 X46.727 Y19.684 E22.483
G1 X47.028 Y20.29 E22.51304
G1 X47.119 Y20.88 E22.53956
G1 X47.134 Y26.828 E22.8037
G1 X47.171 Y27.376 E22.8281
G1 X47.274 Y27.91 E22.85225
G1 X47.631 Y28.607 E22.88702
G1 X48.061 Y28.959 E22.9117
G1 X48.389 Y29.481 E22.93908
G1 X48.618 Y30.205 E22.9728
G1 X48.618 Y33.385 E23.11403
G1 X48.519 Y33.994 E23.14143
G1 X48.269 Y34.559 E23.16886
G1 X47.855 Y35.023 E23.19648
G1 X47.616 Y35.183 E23.20925
G1 X47.391 Y35.634 E23.23164
G1 X47.207 Y36.12 E23.25471
G1 X47.118 Y36.732 E23.28218
G1 X47.118 Y42.926 E23.55725
G1 X46.974 Y43.628 E23.58908
G1 X46.63 Y44.281 E23.62185
G1 X46.119 Y44.693 E23.651
G1 X45.513 Y44.994 E23.68105
G1 X44.918 Y45.085 E23.70778
G1 X2.125 Y45.085 E25.6082
G1 X1.67 Y44.991 E25.62883
G1 X1.297 Y44.832 E25.64684
G1 X0.997 Y44.837 E25.66016
G1 X0.556 Y45.012 E25.68123
G1 X0.071 Y45.085 E25.70301
G1 X-34.971 Y45.085 E27.25921
G1 X-35.673 Y44.941 E27.29103
G1 X-36.326 Y44.597 E27.32381
G1 X-36.738 Y44.086 E27.35296
G1 X-37.039 Y43.48 E27.38301
G1 X-37.13 Y42.885 E27.40974
G1 X-37.13 Y20.844 E28.38857
G1 X-36.986 Y20.142 E28.4204
G1 X-36.642 Y19.489 E28.45317
G1 X-36.131 Y19.077 E28.48232
G1 X-35.525 Y18.776 E28.51237
G1 X-34.93 Y18.685 E28.5391
G1 X-.594 Y18.685 E30.06395
G0 F1080 X0.071 Y18.685
G0 F750 X0.071 Y19.085
G1 F1200 X0.563 Y19.17 E30.08612
G1 X0.937 Y19.341 E30.10438
G1 X1.119 Y19.379 E30.11264
G1 X1.414 Y19.333 E30.1259
G1 X1.829 Y19.153 E30.14599
G1 X2.25 Y19.085 E30.16493
G1 X44.919 Y19.085 E32.05983
G1 X45.525 Y19.209 E32.0873
G1 X46.057 Y19.49 E32.11402
G1 X46.369 Y19.862 E32.13558
G1 X46.642 Y20.411 E32.16281
G1 X46.719 Y20.881 E32.18396
G1 X46.734 Y26.841 E32.44864
G1 X46.774 Y27.431 E32.47491
G1 X46.889 Y28.025 E32.50178
G1 X47.049 Y28.402 E32.51996
G1 X47.326 Y28.878 E32.54442
G1 X47.722 Y29.172 E32.56632
G1 X48.025 Y29.654 E32.59161
G1 X48.218 Y30.265 E32.62006
G1 X48.218 Y33.385 E32.75862
G1 X48.133 Y33.877 E32.78079
G1 X47.927 Y34.342 E32.80338
G1 X47.632 Y34.691 E32.82367
G1 X47.305 Y34.91 E32.84115
G1 X47.026 Y35.468 E32.86886
G1 X46.817 Y36.021 E32.89511
G1 X46.718 Y36.703 E32.92572
G1 X46.718 Y42.885 E33.20025
G1 X46.594 Y43.491 E33.22772
G1 X46.313 Y44.023 E33.25444
G1 X45.941 Y44.335 E33.27601
G1 X45.392 Y44.608 E33.30323
G1 X44.918 Y44.685 E33.32456
G1 X2.167 Y44.685 E35.22311
G1 X1.751 Y44.599 E35.24197
G1 X1.412 Y44.445 E35.25851
G1 X1.153 Y44.405 E35.27015
G1 X0.882 Y44.451 E35.28236
G1 X0.492 Y44.617 E35.30118
G1 X0.071 Y44.685 E35.32012
G1 X-34.93 Y44.685 E36.87449
G1 X-35.536 Y44.561 E36.90196
G1 X-36.068 Y44.28 E36.92868
G1 X-36.38 Y43.908 E36.95024
G1 X-36.653 Y43.359 E36.97747
G1 X-36.73 Y42.885 E36.9988
G1 X-36.73 Y20.885 E37.97581
G1 X-36.606 Y20.279 E38.00328
G1 X-36.325 Y19.747 E38.03
G1 X-35.953 Y19.435 E38.05156
G1 X-35.404 Y19.162 E38.07879
G1 X-34.93 Y19.085 E38.10011
G1 X-.594 Y19.085 E39.62495
G0 F1080 X0.071 Y19.085
G0 F750 X0.071 Y19.485
G1 F1200 X-34.93 Y19.485 E41.17933
G1 X-35.281 Y19.547 E41.19516
G1 X-35.775 Y19.793 E41.21967
G1 X-36.007 Y20.002 E41.23353
G1 X-36.252 Y20.466 E41.25684
G1 X-36.33 Y20.885 E41.27576
G1 X-36.33 Y42.885 E42.25277
G1 X-36.268 Y43.236 E42.2686
G1 X-36.022 Y43.73 E42.29311
G1 X-35.813 Y43.962 E42.30698
G1 X-35.349 Y44.207 E42.33028
G1 X-34.93 Y44.285 E42.34921
G1 X0.071 Y44.285 E43.90358
G1 X0.422 Y44.223 E43.91941
G1 X0.763 Y44.066 E43.93608
G1 X1.15 Y44 E43.95352
G1 X1.535 Y44.059 E43.97081
G1 X1.832 Y44.207 E43.98555
G1 X2.209 Y44.285 E44.00265
G1 X44.918 Y44.285 E45.89933
G1 X45.269 Y44.223 E45.91516
G1 X45.763 Y43.977 E45.93967
G1 X45.995 Y43.768 E45.95354
G1 X46.24 Y43.304 E45.97684
G1 X46.318 Y42.885 E45.99576
G1 X46.318 Y36.674 E46.27159
G1 X46.427 Y35.921 E46.30538
G1 X46.66 Y35.305 E46.33463
G1 X46.926 Y34.774 E46.361
G1 X47.079 Y34.577 E46.37208
G1 X47.337 Y34.421 E46.38547
G1 X47.566 Y34.171 E46.40053
G1 X47.74 Y33.804 E46.41856
G1 X47.818 Y33.385 E46.43749
G1 X47.818 Y30.325 E46.57338
G1 X47.644 Y29.774 E46.59904
G1 X47.39 Y29.395 E46.61931
G1 X47.029 Y29.163 E46.63836
G1 X46.692 Y28.585 E46.66808
G1 X46.503 Y28.14 E46.68955
G1 X46.377 Y27.486 E46.71912
G1 X46.334 Y26.854 E46.74726
G1 X46.319 Y20.882 E47.01247
G1 X46.257 Y20.534 E47.02817
G1 X46.011 Y20.04 E47.05268
G1 X45.802 Y19.808 E47.06654
G1 X45.338 Y19.563 E47.08985
G1 X44.919 Y19.485 E47.10877
G1 X2.25 Y19.485 E49.00368
G1 X1.899 Y19.547 E49.01951
G1 X1.535 Y19.719 E49.03739
G1 X1.108 Y19.786 E49.05658
G1 X0.804 Y19.721 E49.07039
G1 X0.703 Y19.67 E49.07541
G0 F1080 X0.49 Y19.563
G0 X0.071 Y19.485
G0 F750 X0.071 Y19.885
G1 F1200 X0.409 Y19.955 E49.09074
G1 X0.661 Y20.099 E49.10363
G1 X1.096 Y20.192 E49.12339
G1 X1.663 Y20.104 E49.14887
G1 X1.977 Y19.939 E49.16462
G1 X2.25 Y19.885 E49.17698
G1 X44.919 Y19.885 E51.07189
G1 X45.257 Y19.955 E51.08722
G1 X45.52 Y20.092 E51.10038
G1 X45.659 Y20.23 E51.10908
G1 X45.865 Y20.612 E51.12836
G1 X45.919 Y20.883 E51.14063
G1 X45.934 Y26.867 E51.40638
G1 X45.98 Y27.541 E51.43638
G1 X46.118 Y28.257 E51.46876
G1 X46.334 Y28.765 E51.49327
G1 X46.742 Y29.465 E51.52926
G1 X47.069 Y29.634 E51.5456
G1 X47.263 Y29.894 E51.56001
G1 X47.418 Y30.385 E51.58288
G1 X47.418 Y33.385 E51.7161
G1 X47.348 Y33.723 E51.73143
G1 X47.211 Y33.986 E51.7446
G1 X47.059 Y34.133 E51.75399
G1 X46.813 Y34.267 E51.76643
G1 X46.586 Y34.559 E51.78286
G1 X46.294 Y35.142 E51.81181
G1 X46.037 Y35.821 E51.84406
G1 X45.918 Y36.645 E51.88103
G1 X45.918 Y42.885 E52.15814
G1 X45.848 Y43.223 E52.17347
G1 X45.711 Y43.486 E52.18664
G1 X45.573 Y43.625 E52.19534
G1 X45.191 Y43.831 E52.21461
G1 X44.918 Y43.885 E52.22697
G1 X2.251 Y43.885 E54.12179
G1 X1.913 Y43.815 E54.13712
G1 X1.668 Y43.675 E54.14965
G1 X1.147 Y43.595 E54.17306
G1 X0.635 Y43.682 E54.19612
G1 X0.344 Y43.831 E54.21064
G1 X0.071 Y43.885 E54.223
G1 X-34.93 Y43.885 E55.77738
G1 X-35.268 Y43.815 E55.79271
G1 X-35.531 Y43.678 E55.80588
G1 X-35.67 Y43.54 E55.81457
G1 X-35.876 Y43.158 E55.83385
G1 X-35.93 Y42.885 E55.84621
G1 X-35.93 Y20.885 E56.82322
G1 X-35.86 Y20.547 E56.83854
G1 X-35.723 Y20.284 E56.85171
G1 X-35.585 Y20.145 E56.86041
G1 X-35.203 Y19.939 E56.87969
G1 X-34.93 Y19.885 E56.89204
G1 X-.594 Y19.885 E58.41689
G0 F1080 X0.071 Y19.885
G0 F750 X0.071 Y20.685
G1 F1200 X-34.93 Y20.685 E59.97126
G1 X-35.091 Y20.766 E59.97927
G1 X-35.13 Y20.885 E59.98483
G1 X-35.13 Y42.885 E60.96184
G1 X-35.049 Y43.046 E60.96984
G1 X-34.93 Y43.085 E60.9754
G1 X0.071 Y43.085 E62.52978
G1 X0.232 Y43.004 E62.53778
G1 X0.255 Y42.935 E62.54101
G1 X1.132 Y42.787 E62.58051
G1 X1.623 Y42.837 E62.60243
G1 X2.08 Y42.943 E62.62326
G1 X2.132 Y43.046 E62.62839
G1 X2.251 Y43.085 E62.63395
G1 X44.918 Y43.085 E64.52877
G1 X45.079 Y43.004 E64.53677
G1 X45.118 Y42.885 E64.54233
G1 X45.118 Y36.587 E64.82202
G1 X45.257 Y35.621 E64.86536
G1 X45.56 Y34.82 E64.90339
G1 X45.905 Y34.133 E64.93753
G1 X46.329 Y33.585 E64.96831
G1 X46.418 Y33.585 E64.97226
G1 X46.579 Y33.504 E64.98026
G1 X46.618 Y33.385 E64.98582
G1 X46.618 Y30.385 E65.11905
G1 X46.537 Y30.224 E65.12705
G1 X46.314 Y30.185 E65.13711
G1 X46.009 Y29.798 E65.15899
G1 X45.618 Y29.125 E65.19356
G1 X45.348 Y28.493 E65.22408
G1 X45.186 Y27.647 E65.26233
G1 X45.134 Y26.9 E65.29558
G1 X45.119 Y20.885 E65.56271
G1 X45.038 Y20.724 E65.57071
G1 X44.919 Y20.685 E65.57627
G1 X2.25 Y20.685 E67.47118
G1 X2.089 Y20.766 E67.47918
G1 X2.067 Y20.832 E67.48227
G1 X1.411 Y20.983 E67.51217
G1 X1.026 Y20.996 E67.52928
G1 X0.657 Y20.916 E67.54604
G0 F1080 X0.242 Y20.827
G0 X0.19 Y20.724
G0 X0.071 Y20.685
G0 F750 X0.071 Y20.285
G1 F1200 X0.315 Y20.344 E67.55719
G1 X0.496 Y20.473 E67.56706
G1 X1.061 Y20.594 E67.59272
G1 X1.359 Y20.584 E67.60596
G1 X1.813 Y20.48 E67.62665
G1 X2.07 Y20.328 E67.63991
G1 X2.25 Y20.285 E67.64813
G1 X44.919 Y20.285 E69.54303
G1 X45.163 Y20.344 E69.55418
G1 X45.315 Y20.435 E69.56205
G1 X45.476 Y20.705 E69.57601
G1 X45.519 Y20.884 E69.58419
G1 X45.534 Y26.884 E69.85064
G1 X45.583 Y27.594 E69.88225
G1 X45.733 Y28.375 E69.91757
G1 X45.976 Y28.945 E69.94508
G1 X46.341 Y29.573 E69.97734
G1 X46.534 Y29.817 E69.99116
G1 X46.77 Y29.899 E70.00225
G1 X46.888 Y30.032 E70.01015
G1 X47.018 Y30.385 E70.02686
G1 X47.018 Y33.385 E70.16008
G1 X46.959 Y33.629 E70.17123
G1 X46.868 Y33.781 E70.1791
G1 X46.549 Y33.954 E70.19522
G1 X46.245 Y34.347 E70.21728
G1 X45.928 Y34.979 E70.24868
G1 X45.647 Y35.721 E70.28392
G1 X45.518 Y36.616 E70.32407
G1 X45.518 Y42.885 E70.60248
G1 X45.459 Y43.129 E70.61362
G1 X45.368 Y43.281 E70.62149
G1 X45.098 Y43.442 E70.63545
G1 X44.918 Y43.485 E70.64367
G1 X2.251 Y43.485 E72.53849
G1 X2.007 Y43.426 E72.54964
G1 X1.824 Y43.295 E72.55963
G1 X1.144 Y43.19 E72.59019
G1 X0.496 Y43.3 E72.61938
G1 X0.251 Y43.442 E72.63195
G1 X0.071 Y43.485 E72.64017
G1 X-34.93 Y43.485 E74.19455
G1 X-35.174 Y43.426 E74.2057
G1 X-35.326 Y43.335 E74.21356
G1 X-35.487 Y43.065 E74.22752
G1 X-35.53 Y42.885 E74.23574
G1 X-35.53 Y20.885 E75.21275
G1 X-35.471 Y20.641 E75.2239
G1 X-35.38 Y20.489 E75.23177
G1 X-35.11 Y20.328 E75.24573
G1 X-34.93 Y20.285 E75.25395
G1 X-.594 Y20.285 E76.77879
G0 F1080 X0.071 Y20.285
G1 F1500 E75.77879
G0 F750 X-8.839 Y25.845
G1 F3600 E77.49371
G1 F1200 X-9.24 Y25.436 E77.51915
G1 X-9.745 Y25.178 E77.54433
G1 X-10.366 Y25.085 E77.57222
G1 X-20.469 Y25.085 E78.02089
G1 X-21.097 Y25.273 E78.05
G1 X-21.348 Y25.425 E78.06303
G1 X-21.748 Y25.818 E78.08794
G1 X-21.905 Y26.072 E78.1012
G1 X-22.074 Y26.597 E78.12569
G1 X-22.103 Y26.942 E78.14107
G1 X-22.103 Y37.051 E78.59
G1 X-22.014 Y37.429 E78.60725
G1 X-21.768 Y37.925 E78.63183
G1 X-21.359 Y38.338 E78.65765
G1 X-20.861 Y38.592 E78.68247
G1 X-20.24 Y38.685 E78.71036
G1 X-10.137 Y38.685 E79.15903
G1 X-9.755 Y38.595 E79.17646
G1 X-9.259 Y38.347 E79.20108
G1 X-8.854 Y37.947 E79.22636
G1 X-8.596 Y37.443 E79.25151
G1 X-8.503 Y36.826 E79.27922
G1 X-8.503 Y26.719 E79.72806
G1 X-8.568 Y26.448 E79.74044
G0 F1080 X-8.595 Y26.331
G0 X-8.839 Y25.845
G0 F750 X-9.211 Y26.04
G1 F1200 X-8.965 Y26.534 E79.76495
G1 X-8.903 Y26.885 E79.78078
G1 X-8.903 Y36.885 E80.22487
G1 X-8.981 Y37.304 E80.2438
G1 X-9.226 Y37.768 E80.2671
G1 X-9.458 Y37.977 E80.28097
G1 X-9.952 Y38.223 E80.30548
G1 X-10.303 Y38.285 E80.32131
G1 X-20.345 Y38.285 E80.76727
G1 X-20.826 Y38.17 E80.78923
G1 X-21.186 Y37.962 E80.80769
G1 X-21.395 Y37.73 E80.82156
G1 X-21.641 Y37.236 E80.84607
G1 X-21.703 Y36.885 E80.8619
G1 X-21.703 Y26.885 E81.30599
G1 X-21.625 Y26.466 E81.32492
G1 X-21.38 Y26.002 E81.34822
G1 X-21.148 Y25.793 E81.36209
G1 X-20.654 Y25.547 E81.3866
G1 X-20.303 Y25.485 E81.40242
G1 X-10.303 Y25.485 E81.84652
G1 X-9.884 Y25.563 E81.86545
G1 X-9.731 Y25.644 E81.87313
G0 F1080 X-9.42 Y25.808
G0 X-9.211 Y26.04
G0 F750 X-9.563 Y26.23
G1 F1200 X-9.357 Y26.612 E81.89241
G1 X-9.303 Y26.885 E81.90477
G1 X-9.303 Y36.885 E82.34886
G1 X-9.373 Y37.223 E82.36419
G1 X-9.51 Y37.486 E82.37736
G1 X-9.648 Y37.625 E82.38606
G1 X-10.03 Y37.831 E82.40533
G1 X-10.303 Y37.885 E82.41769
G1 X-20.303 Y37.885 E82.86179
G1 X-20.641 Y37.815 E82.87711
G1 X-20.904 Y37.678 E82.89028
G1 X-21.043 Y37.54 E82.89898
G1 X-21.249 Y37.158 E82.91826
G1 X-21.303 Y36.885 E82.93062
G1 X-21.303 Y26.885 E83.37471
G1 X-21.233 Y26.547 E83.39004
G1 X-21.096 Y26.284 E83.40321
G1 X-20.958 Y26.145 E83.41191
G1 X-20.576 Y25.939 E83.43118
G1 X-20.303 Y25.885 E83.44354
G1 X-10.303 Y25.885 E83.88763
G1 X-10.133 Y25.921 E83.89535
G0 F1080 X-9.965 Y25.955
G0 X-9.702 Y26.092
G0 X-9.563 Y26.23
