;FLAVOR:Marlin
;TIME:9361
;Filament used: 13.5438m
;Layer height: 0.24
;MINX:-27.149
;MINY:-44.682
;MINZ:0.3
;MAXX:30.577
;MAXY:40.087
;MAXZ:61.5
;Generated with Cura_SteamEngine 4.13.1
M140 S50
M105
M190 S50
M104 S215
M105
M109 S215
M82 ;absolute extrusion mode
;FLAVOR:Marlin
M82 ;absolute extrusion mode
G21
G90
M82
M107 T0
G28
G92 E0
G0 E3 F200
G92 E0 ; reset extrusion distance
M106 S255 ; Enable cooling fan full speed
G1 X-98 Y0 Z0.4 F3000 ; move to arc start
G3 X0 Y-98 I98 Z0.4 E40 F400 ; lay arc stripe 90deg
G92 E0 ; reset extrusion distance
G4 P500 ; wait for 0.5 sec
G0 Z10 E-1 ; Lift 15mm and retract 1mm filament
G4 P2000 ; wait for 5 sec
G0 Z15
M107 ; Disable cooling fan
G1 X0 Y-85 Z4 E0 F3000 ; get off the bed
G92 E0
G92 E0
G1 F1500 E-8
;LAYER_COUNT:256
;LAYER:0
M107
G0 F3600 X-.561 Y-6.528 Z0.3
;TYPE:SKIRT
G1 F1500 E0.22866
G1 F1800 X-1.111 Y-6.568 E0.26168
G1 X-1.649 Y-6.687 E0.29467
G1 X-2.164 Y-6.883 E0.32766
G1 X-2.794 Y-7.253 E0.3714
G1 X-4.619 Y-8.578 E0.50641
G1 X-5.04 Y-8.933 E0.53938
G1 X-5.405 Y-9.346 E0.57238
G1 X-5.707 Y-9.806 E0.60533
G1 X-5.999 Y-10.477 E0.64914
G1 X-6.529 Y-12.107 E0.75175
G1 X-13.292 Y-8.202 E1.21929
G1 X-13.788 Y-7.962 E1.25228
G1 X-14.313 Y-7.796 E1.28524
G1 X-14.857 Y-7.708 E1.31823
G1 X-14.962 Y-7.706 E1.32452
G1 X-16.094 Y-7.052 E1.40279
G1 X4.594 Y28.781 E3.87991
G1 X4.701 Y28.4 E3.90361
G1 X4.925 Y27.897 E3.93657
G1 X5.22 Y27.431 E3.96959
G1 X5.579 Y27.013 E4.00258
G1 X5.994 Y26.651 E4.03555
G1 X6.375 Y26.4 E4.06286
G1 X20.464 Y18.266 E5.03682
G1 X15.012 Y8.824 E5.68957
G1 X14.772 Y8.328 E5.72256
G1 X14.606 Y7.803 E5.75552
G1 X14.518 Y7.259 E5.78851
G1 X14.509 Y6.708 E5.8215
G1 X14.58 Y6.162 E5.85447
G1 X14.73 Y5.631 E5.8875
G1 X14.954 Y5.128 E5.92047
G1 X15.249 Y4.663 E5.95343
G1 X15.608 Y4.245 E5.98642
G1 X16.024 Y3.883 E6.01944
G1 X16.402 Y3.633 E6.04657
G1 X17.787 Y2.833 E6.14232
G1 X18.283 Y2.593 E6.17531
G1 X18.809 Y2.427 E6.20833
G1 X19.352 Y2.339 E6.24127
G1 X19.903 Y2.33 E6.27426
G1 X20.45 Y2.401 E6.30728
G1 X20.98 Y2.55 E6.34024
G1 X21.483 Y2.775 E6.37323
G1 X21.949 Y3.07 E6.40625
G1 X22.367 Y3.429 E6.43924
G1 X22.728 Y3.845 E6.47221
G1 X22.979 Y4.224 E6.49943
G1 X30.074 Y16.512 E7.34891
G1 X30.314 Y17.008 E7.3819
G1 X30.48 Y17.533 E7.41486
G1 X30.568 Y18.077 E7.44786
G1 X30.577 Y18.628 E7.48085
G1 X30.506 Y19.174 E7.51381
G1 X30.354 Y19.712 E7.54728
G1 X29.23 Y22.8 E7.74402
G1 X29.004 Y23.302 E7.77698
G1 X28.708 Y23.767 E7.80998
G1 X28.248 Y24.282 E7.85132
G1 X23.654 Y28.558 E8.22706
G1 X23.225 Y28.903 E8.26002
G1 X22.965 Y29.067 E8.27842
G1 X4.75 Y39.584 E9.53764
G1 X4.254 Y39.824 E9.57062
G1 X3.729 Y39.99 E9.60359
G1 X3.185 Y40.078 E9.63658
G1 X2.634 Y40.087 E9.66957
G1 X2.088 Y40.016 E9.70254
G1 X1.557 Y39.866 E9.73557
G1 X1.054 Y39.642 E9.76854
G1 X0.589 Y39.347 E9.8015
G1 X0.171 Y38.988 E9.83449
G1 X-.191 Y38.572 E9.86751
G1 X-.441 Y38.193 E9.89469
G1 X-26.646 Y-7.195 E13.03236
G1 X-26.886 Y-7.691 E13.06535
G1 X-27.052 Y-8.216 E13.09831
G1 X-27.14 Y-8.76 E13.13131
G1 X-27.149 Y-9.311 E13.1643
G1 X-27.078 Y-9.858 E13.19732
G1 X-26.928 Y-10.388 E13.2303
G1 X-26.704 Y-10.891 E13.26326
G1 X-26.409 Y-11.356 E13.29623
G1 X-26.05 Y-11.774 E13.32922
G1 X-25.634 Y-12.136 E13.36223
G1 X-25.255 Y-12.386 E13.38941
G1 X-18.275 Y-16.416 E13.87194
G1 X-18.518 Y-16.434 E13.88653
G1 X-19.056 Y-16.553 E13.91952
G1 X-19.571 Y-16.749 E13.95251
G1 X-20.052 Y-17.017 E13.98547
G1 X-20.306 Y-17.198 E14.00415
G1 X-22.478 Y-18.893 E14.16909
G1 X-22.887 Y-19.263 E14.20211
G1 X-23.237 Y-19.688 E14.23507
G1 X-23.633 Y-20.393 E14.28348
G1 X-25.386 Y-24.485 E14.54999
G1 X-25.566 Y-25.005 E14.58294
G1 X-25.668 Y-25.547 E14.61596
G1 X-25.691 Y-26.097 E14.64891
G1 X-25.634 Y-26.645 E14.6819
G1 X-25.506 Y-27.157 E14.71349
G1 X-24.72 Y-29.572 E14.86554
G1 X-24.512 Y-30.082 E14.89851
G1 X-24.233 Y-30.557 E14.93149
G1 X-23.907 Y-30.961 E14.96257
G1 X-24.01 Y-31.374 E14.98806
G1 X-24.063 Y-31.922 E15.02102
G1 X-24.036 Y-32.473 E15.05404
G1 X-23.877 Y-33.191 E15.09807
G1 X-23.091 Y-35.606 E15.25012
G1 X-22.883 Y-36.116 E15.28309
G1 X-22.604 Y-36.591 E15.31607
G1 X-22.258 Y-37.02 E15.34907
G1 X-21.854 Y-37.395 E15.38207
G1 X-21.541 Y-37.621 E15.40518
G1 X-17.108 Y-40.486 E15.72118
G1 X-16.945 Y-40.586 E15.73263
G1 X-14.83 Y-41.807 E15.87884
G1 X-14.334 Y-42.047 E15.91182
G1 X-13.809 Y-42.213 E15.94479
G1 X-13.265 Y-42.301 E15.97778
G1 X-13.11 Y-42.308 E15.98707
G1 X-12.761 Y-42.46 E16.00986
G1 X-12.229 Y-42.604 E16.04285
G1 X-11.5 Y-42.675 E16.08671
G1 X-9.092 Y-42.675 E16.23087
G1 X-8.542 Y-42.635 E16.26388
G1 X-8.004 Y-42.516 E16.29687
G1 X-7.489 Y-42.32 E16.32986
G1 X-6.859 Y-41.95 E16.3736
G1 X-4.908 Y-40.533 E16.51796
G1 X-4.487 Y-40.177 E16.55097
G1 X-4.231 Y-39.889 E16.57404
G1 X-3.984 Y-40.648 E16.62182
G1 X-3.776 Y-41.158 E16.6548
G1 X-3.497 Y-41.633 E16.68778
G1 X-3.151 Y-42.062 E16.72077
G1 X-2.603 Y-42.548 E16.76462
G1 X-.663 Y-43.957 E16.90817
G1 X-.195 Y-44.247 E16.94113
G1 X0.31 Y-44.467 E16.97411
G1 X0.842 Y-44.612 E17.00712
G1 X1.57 Y-44.682 E17.0509
G1 X3.966 Y-44.682 E17.19435
G1 X4.516 Y-44.642 E17.22736
G1 X5.054 Y-44.523 E17.26035
G1 X5.569 Y-44.327 E17.29334
G1 X6.199 Y-43.957 E17.33708
G1 X8.139 Y-42.548 E17.48063
G1 X8.56 Y-42.192 E17.51363
G1 X8.926 Y-41.78 E17.54663
G1 X9.227 Y-41.319 E17.57959
G1 X9.326 Y-41.093 E17.59436
G1 X9.709 Y-40.769 E17.62439
G1 X10.074 Y-40.357 E17.65735
G1 X10.376 Y-39.896 E17.69034
G1 X10.639 Y-39.292 E17.72978
G1 X10.817 Y-39.091 E17.74585
G1 X11.12 Y-38.63 E17.77888
G1 X11.341 Y-38.123 E17.81199
G1 X12.264 Y-37.431 E17.88106
G1 X12.679 Y-37.07 E17.91399
G1 X13.038 Y-36.652 E17.94697
G1 X13.333 Y-36.186 E17.97999
G1 X13.416 Y-35.991 E17.99268
G1 X13.657 Y-35.788 E18.01155
G1 X14.023 Y-35.376 E18.04454
G1 X14.397 Y-34.779 E18.08671
G1 X16.39 Y-30.828 E18.35164
G1 X16.898 Y-30.186 E18.40066
G1 X17.308 Y-29.545 E18.44621
G1 X18.043 Y-28.096 E18.54348
G1 X19.352 Y-27.132 E18.64081
G1 X19.771 Y-26.774 E18.6738
G1 X20.133 Y-26.359 E18.70677
G1 X20.432 Y-25.896 E18.73977
G1 X20.632 Y-25.471 E18.76789
G1 X20.897 Y-25.172 E18.79181
G1 X21.199 Y-24.711 E18.8248
G1 X21.356 Y-24.394 E18.84598
G1 X22.354 Y-22.121 E18.9946
G1 X22.42 Y-22.066 E18.99974
G1 X22.785 Y-21.653 E19.03274
G1 X23.086 Y-21.192 E19.0657
G1 X23.24 Y-20.883 E19.08637
G1 X23.542 Y-20.198 E19.13119
G1 X23.621 Y-20.132 E19.13735
G1 X23.986 Y-19.719 E19.17035
G1 X24.288 Y-19.258 E19.20334
G1 X24.489 Y-18.838 E19.23122
G1 X26.303 Y-14.353 E19.52086
G1 X26.472 Y-13.828 E19.55388
G1 X26.547 Y-13.428 E19.57824
G1 X26.835 Y-11.258 E19.7093
G1 X26.868 Y-10.708 E19.74228
G1 X26.82 Y-10.159 E19.77528
G1 X26.682 Y-9.583 E19.81074
G1 X25.833 Y-6.972 E19.97511
G1 X25.625 Y-6.462 E20.00808
G1 X25.345 Y-5.987 E20.04109
G1 X25 Y-5.557 E20.0741
G1 X24.452 Y-5.072 E20.11791
G1 X22.229 Y-3.458 E20.28238
G1 X21.76 Y-3.167 E20.31542
G1 X21.255 Y-2.948 E20.34837
G1 X20.723 Y-2.803 E20.38139
G1 X19.996 Y-2.733 E20.42511
G1 X17.252 Y-2.733 E20.58939
G1 X16.702 Y-2.773 E20.6224
G1 X16.164 Y-2.892 E20.65539
G1 X15.649 Y-3.088 E20.68838
G1 X15.019 Y-3.458 E20.73212
G1 X12.796 Y-5.072 E20.89659
G1 X12.375 Y-5.427 E20.92956
G1 X12.01 Y-5.84 E20.96256
G1 X11.708 Y-6.3 E20.9955
G1 X11.397 Y-7.029 E21.04295
G1 X10.499 Y-9.946 E21.22567
G1 X10.258 Y-10.219 E21.24747
G1 X9.844 Y-10.895 E21.29493
G1 X9.47 Y-11.681 E21.34704
G1 X9.425 Y-11.719 E21.35057
G1 X9.06 Y-12.132 E21.38357
G1 X8.758 Y-12.593 E21.41656
G1 X8.582 Y-12.954 E21.44061
G1 X7.984 Y-14.363 E21.53224
G1 X7.505 Y-14.087 E21.56534
G1 X7.531 Y-14.023 E21.56948
G1 X7.66 Y-13.487 E21.60248
G1 X7.711 Y-12.938 E21.63549
G1 X7.682 Y-12.388 E21.66846
G1 X7.525 Y-11.686 E21.71153
G1 X7.131 Y-10.476 E21.78771
G1 X6.923 Y-9.966 E21.82069
G1 X6.643 Y-9.492 E21.85365
G1 X6.298 Y-9.062 E21.88665
G1 X5.751 Y-8.578 E21.93038
G1 X3.926 Y-7.253 E22.0654
G1 X3.457 Y-6.962 E22.09844
G1 X2.952 Y-6.743 E22.1314
G1 X2.42 Y-6.598 E22.16441
G1 X1.693 Y-6.528 E22.20813
G1 X-0.029 Y-6.528 E22.31123
G0 F1620 X-.561 Y-6.528
G0 F3600 X-.561 Y-6.928
G1 F1800 X-1.081 Y-6.968 E22.34245
G1 X-1.588 Y-7.087 E22.37363
G1 X-2.071 Y-7.282 E22.40481
G1 X-2.559 Y-7.577 E22.43895
G1 X-4.384 Y-8.902 E22.57397
G1 X-4.781 Y-9.239 E22.60515
G1 X-5.121 Y-9.634 E22.63635
G1 X-5.398 Y-10.075 E22.66753
G1 X-5.619 Y-10.601 E22.70168
G1 X-6.302 Y-12.7 E22.83383
G1 X-13.492 Y-8.549 E23.33087
G1 X-13.962 Y-8.323 E23.36209
G1 X-14.461 Y-8.173 E23.39329
G1 X-14.977 Y-8.1 E23.42449
G1 X-15.079 Y-8.101 E23.4306
G1 X-16.641 Y-7.199 E23.53858
G1 X4.564 Y29.53 E26.07764
G1 X4.897 Y29.338 E26.10065
G1 X4.975 Y28.873 E26.12888
G1 X5.139 Y28.378 E26.1601
G1 X5.376 Y27.914 E26.19129
G1 X5.682 Y27.492 E26.2225
G1 X6.048 Y27.122 E26.25366
G1 X6.575 Y26.746 E26.29241
G1 X21.01 Y18.412 E27.2903
G1 X15.359 Y8.624 E27.96694
G1 X15.133 Y8.154 E27.99816
G1 X14.983 Y7.655 E28.02936
G1 X14.91 Y7.139 E28.06056
G1 X14.917 Y6.618 E28.09175
G1 X15.003 Y6.104 E28.12295
G1 X15.167 Y5.61 E28.15411
G1 X15.405 Y5.146 E28.18533
G1 X15.711 Y4.724 E28.21654
G1 X16.078 Y4.353 E28.24778
G1 X16.602 Y3.98 E28.28629
G1 X17.987 Y3.18 E28.38205
G1 X18.457 Y2.955 E28.41324
G1 X18.956 Y2.804 E28.44446
G1 X19.472 Y2.731 E28.47566
G1 X19.993 Y2.738 E28.50685
G1 X20.507 Y2.824 E28.53805
G1 X21.002 Y2.988 E28.56927
G1 X21.466 Y3.226 E28.60049
G1 X21.888 Y3.532 E28.6317
G1 X22.258 Y3.898 E28.66285
G1 X22.632 Y4.424 E28.70149
G1 X29.727 Y16.712 E29.55098
G1 X29.953 Y17.182 E29.5822
G1 X30.103 Y17.681 E29.61339
G1 X30.176 Y18.197 E29.64459
G1 X30.169 Y18.718 E29.67579
G1 X30.083 Y19.232 E29.70699
G1 X29.978 Y19.575 E29.72846
G1 X28.854 Y22.663 E29.9252
G1 X28.639 Y23.138 E29.95642
G1 X28.353 Y23.574 E29.98763
G1 X27.975 Y23.989 E30.02124
G1 X23.381 Y28.265 E30.39698
G1 X22.765 Y28.72 E30.44283
G1 X4.55 Y39.237 E31.70204
G1 X4.08 Y39.463 E31.73327
G1 X3.581 Y39.613 E31.76446
G1 X3.065 Y39.686 E31.79566
G1 X2.544 Y39.679 E31.82686
G1 X2.03 Y39.593 E31.85806
G1 X1.535 Y39.429 E31.88927
G1 X1.072 Y39.191 E31.92044
G1 X0.65 Y38.885 E31.95165
G1 X0.279 Y38.518 E31.98289
G1 X-0.094 Y37.993 E32.02145
G1 X-26.299 Y-7.395 E35.15912
G1 X-26.525 Y-7.865 E35.19034
G1 X-26.675 Y-8.364 E35.22154
G1 X-26.748 Y-8.88 E35.25274
G1 X-26.741 Y-9.401 E35.28393
G1 X-26.655 Y-9.915 E35.31513
G1 X-26.491 Y-10.41 E35.34635
G1 X-26.253 Y-10.873 E35.37752
G1 X-25.947 Y-11.295 E35.40872
G1 X-25.58 Y-11.666 E35.43997
G1 X-25.055 Y-12.039 E35.47852
G1 X-16.82 Y-16.794 E36.04782
G1 X-17.968 Y-16.794 E36.11655
G1 X-18.488 Y-16.834 E36.14778
G1 X-18.995 Y-16.953 E36.17895
G1 X-19.478 Y-17.148 E36.21014
G1 X-20.06 Y-17.514 E36.2513
G1 X-22.232 Y-19.209 E36.41624
G1 X-22.617 Y-19.56 E36.44743
G1 X-22.944 Y-19.966 E36.47864
G1 X-23.265 Y-20.55 E36.51854
G1 X-25.018 Y-24.642 E36.78505
G1 X-25.186 Y-25.135 E36.81623
G1 X-25.277 Y-25.649 E36.84749
G1 X-25.288 Y-26.17 E36.87868
G1 X-25.219 Y-26.686 E36.90985
G1 X-25.126 Y-27.033 E36.93136
G1 X-24.34 Y-29.448 E37.0834
G1 X-24.141 Y-29.93 E37.11462
G1 X-23.871 Y-30.376 E37.14584
G1 X-23.536 Y-30.775 E37.17703
G1 X-23.458 Y-30.843 E37.18322
G1 X-23.497 Y-30.963 E37.19078
G1 X-23.62 Y-31.469 E37.22195
G1 X-23.664 Y-31.989 E37.25319
G1 X-23.628 Y-32.508 E37.28434
G1 X-23.497 Y-33.067 E37.31871
G1 X-22.711 Y-35.482 E37.47076
G1 X-22.512 Y-35.964 E37.50198
G1 X-22.242 Y-36.41 E37.53319
G1 X-21.907 Y-36.809 E37.56438
G1 X-21.324 Y-37.286 E37.60948
G1 X-16.891 Y-40.151 E37.92548
G1 X-16.745 Y-40.24 E37.93572
G1 X-14.63 Y-41.461 E38.08192
G1 X-14.16 Y-41.686 E38.11312
G1 X-13.661 Y-41.836 E38.14431
G1 X-13.044 Y-41.903 E38.18147
G1 X-12.575 Y-42.101 E38.21195
G1 X-12.069 Y-42.227 E38.24317
G1 X-11.5 Y-42.275 E38.27735
G1 X-9.092 Y-42.275 E38.42151
G1 X-8.572 Y-42.235 E38.45274
G1 X-8.065 Y-42.116 E38.48392
G1 X-7.582 Y-41.921 E38.5151
G1 X-7.094 Y-41.626 E38.54924
G1 X-5.143 Y-40.209 E38.6936
G1 X-4.746 Y-39.871 E38.72481
G1 X-4.405 Y-39.477 E38.75601
G1 X-4.129 Y-39.035 E38.78721
G1 X-4.088 Y-38.938 E38.79351
G1 X-3.994 Y-39.324 E38.8173
G1 X-3.604 Y-40.524 E38.89284
G1 X-3.405 Y-41.006 E38.92406
G1 X-3.135 Y-41.452 E38.95527
G1 X-2.8 Y-41.851 E38.98646
G1 X-2.368 Y-42.224 E39.02063
G1 X-.428 Y-43.633 E39.16417
G1 X0.016 Y-43.906 E39.19538
G1 X0.496 Y-44.108 E39.22656
G1 X1.002 Y-44.234 E39.25777
G1 X1.57 Y-44.282 E39.2919
G1 X3.966 Y-44.282 E39.43534
G1 X4.486 Y-44.242 E39.46657
G1 X4.993 Y-44.123 E39.49775
G1 X5.476 Y-43.928 E39.52893
G1 X5.964 Y-43.633 E39.56307
G1 X7.904 Y-42.224 E39.70661
G1 X8.301 Y-41.886 E39.73783
G1 X8.642 Y-41.492 E39.76902
G1 X8.918 Y-41.05 E39.80022
G1 X9.053 Y-40.801 E39.81718
G1 X9.45 Y-40.463 E39.84839
G1 X9.79 Y-40.069 E39.87955
G1 X10.067 Y-39.627 E39.91078
G1 X10.288 Y-39.102 E39.94488
G1 X10.534 Y-38.803 E39.96806
G1 X10.811 Y-38.361 E39.99929
G1 X11.021 Y-37.864 E40.03159
G1 X12.024 Y-37.111 E40.10668
G1 X12.415 Y-36.768 E40.13782
G1 X12.75 Y-36.368 E40.16905
G1 X13.019 Y-35.922 E40.20024
G1 X13.093 Y-35.741 E40.21194
G1 X13.398 Y-35.482 E40.2359
G1 X13.739 Y-35.088 E40.26709
G1 X14.04 Y-34.599 E40.30147
G1 X16.053 Y-30.607 E40.56913
G1 X16.584 Y-29.937 E40.62031
G1 X16.951 Y-29.364 E40.66105
G1 X17.728 Y-27.832 E40.76389
G1 X19.115 Y-26.81 E40.86704
G1 X19.509 Y-26.47 E40.89819
G1 X19.847 Y-26.073 E40.92941
G1 X20.121 Y-25.63 E40.96059
G1 X20.286 Y-25.262 E40.98474
G1 X20.613 Y-24.884 E41.01466
G1 X20.99 Y-24.233 E41.0597
G1 X22.026 Y-21.874 E41.21395
G1 X22.16 Y-21.76 E41.22448
G1 X22.501 Y-21.366 E41.25567
G1 X22.874 Y-20.721 E41.30028
G1 X23.214 Y-19.952 E41.35062
G1 X23.361 Y-19.826 E41.36221
G1 X23.702 Y-19.431 E41.39345
G1 X23.978 Y-18.99 E41.4246
G1 X24.118 Y-18.688 E41.44453
G1 X25.932 Y-14.203 E41.73417
G1 X26.09 Y-13.706 E41.76539
G1 X26.15 Y-13.375 E41.78553
G1 X26.438 Y-11.205 E41.91658
G1 X26.467 Y-10.685 E41.94776
G1 X26.416 Y-10.166 E41.97898
G1 X26.301 Y-9.707 E42.00731
G1 X25.452 Y-7.096 E42.17168
G1 X25.254 Y-6.614 E42.20288
G1 X24.984 Y-6.168 E42.23409
G1 X24.649 Y-5.769 E42.26528
G1 X24.217 Y-5.396 E42.29945
G1 X21.994 Y-3.782 E42.46392
G1 X21.55 Y-3.509 E42.49512
G1 X21.069 Y-3.307 E42.52636
G1 X20.564 Y-3.181 E42.55752
G1 X19.996 Y-3.133 E42.59164
G1 X17.252 Y-3.133 E42.75592
G1 X16.732 Y-3.173 E42.78714
G1 X16.225 Y-3.292 E42.81832
G1 X15.742 Y-3.487 E42.84951
G1 X15.254 Y-3.782 E42.88364
G1 X13.031 Y-5.396 E43.04811
G1 X12.634 Y-5.733 E43.07929
G1 X12.294 Y-6.128 E43.11049
G1 X12.017 Y-6.569 E43.14167
G1 X11.779 Y-7.147 E43.17909
G1 X10.857 Y-10.14 E43.36658
G1 X10.541 Y-10.507 E43.39558
G1 X10.205 Y-11.067 E43.43468
G1 X9.794 Y-11.931 E43.49196
G1 X9.684 Y-12.025 E43.50062
G1 X9.344 Y-12.42 E43.53182
G1 X9.068 Y-12.862 E43.56302
G1 X8.95 Y-13.11 E43.57946
G1 X8.176 Y-14.935 E43.69814
G1 X7.005 Y-14.259 E43.77909
G1 X7.047 Y-14.178 E43.78455
G1 X7.212 Y-13.683 E43.81579
G1 X7.298 Y-13.169 E43.84699
G1 X7.305 Y-12.648 E43.87818
G1 X7.233 Y-12.132 E43.90937
G1 X7.145 Y-11.81 E43.92936
G1 X6.751 Y-10.6 E44.00554
G1 X6.552 Y-10.119 E44.03671
G1 X6.282 Y-9.673 E44.06792
G1 X5.947 Y-9.274 E44.09911
G1 X5.516 Y-8.902 E44.1332
G1 X3.691 Y-7.577 E44.26822
G1 X3.247 Y-7.304 E44.29942
G1 X2.766 Y-7.102 E44.33065
G1 X2.26 Y-6.976 E44.36187
G1 X1.693 Y-6.928 E44.39594
G1 X-0.029 Y-6.928 E44.49903
G0 F1620 X-.561 Y-6.928
G0 F3600 X-.561 Y-7.328
G1 F1800 X-1.049 Y-7.368 E44.52834
G1 X-1.524 Y-7.487 E44.55766
G1 X-1.973 Y-7.681 E44.58694
G1 X-2.324 Y-7.9 E44.61171
G1 X-4.149 Y-9.225 E44.74673
G1 X-4.52 Y-9.544 E44.77602
G1 X-4.834 Y-9.919 E44.80531
G1 X-5.084 Y-10.341 E44.83467
G1 X-5.239 Y-10.725 E44.85946
G1 X-5.937 Y-12.87 E44.99451
G1 X-6.042 Y-13.312 E45.02171
G1 X-13.692 Y-8.895 E45.55056
