;FLAVOR:Marlin
;TIME:13887
;Filament used: 13.464m
;Layer height: 0.24
;MINX:-30.614
;MINY:-27.486
;MINZ:0.3
;MAXX:40.621
;MAXY:27.419
;MAXZ:63.9
;Generated with Cura_SteamEngine 4.13.1
M140 S40
M105
M190 S40
M104 S210
M105
M109 S210
M82 ;absolute extrusion mode
;FLAVOR:Marlin
M82 ;absolute extrusion mode
G21
G90
M82
M107 T0
G28
G92 E0
G0 E3 F200
G92 E0 ; reset extrusion distance
M106 S255 ; Enable cooling fan full speed
G1 X-98 Y0 Z0.4 F3000 ; move to arc start
G3 X0 Y-98 I98 Z0.4 E40 F400 ; lay arc stripe 90deg
G92 E0 ; reset extrusion distance
G4 P500 ; wait for 0.5 sec
G0 Z10 E-1 ; Lift 15mm and retract 1mm filament
G4 P2000 ; wait for 5 sec
G0 Z15
M107 ; Disable cooling fan
G1 X0 Y-85 Z4 E0 F3000 ; get off the bed
G92 E0
G92 E0
G1 F1500 E-6.5
;LAYER_COUNT:267
;LAYER:0
M107
G1 F600 Z1.3
G0 F3600 X11.587 Y21.347 Z1.3
;TYPE:SKIRT
G1 F600 Z0.3
G1 F1500 E0
G1 X11.099 Y21.696 E0.02993
G1 X10.668 Y22.118 E0.06003
G1 X10.308 Y22.593 E0.08976
G1 X10.028 Y23.108 E0.11901
G1 X9.889 Y23.449 E0.13738
G1 X9.158 Y25.455 E0.24389
G1 X8.953 Y25.9 E0.26834
G1 X8.679 Y26.305 E0.29273
G1 X8.343 Y26.661 E0.31716
G1 X7.953 Y26.957 E0.34158
G1 X7.52 Y27.186 E0.36602
G1 X7.056 Y27.341 E0.39043
G1 X6.573 Y27.419 E0.41484
G1 X6.083 Y27.417 E0.43928
G1 X5.313 Y27.247 E0.47862
G1 X-28.649 Y14.886 E2.28173
G1 X-29.094 Y14.682 E2.30616
G1 X-29.499 Y14.408 E2.33055
G1 X-29.855 Y14.071 E2.35501
G1 X-30.151 Y13.682 E2.37939
G1 X-30.38 Y13.249 E2.40383
G1 X-30.536 Y12.785 E2.42825
G1 X-30.614 Y12.302 E2.45266
G1 X-30.612 Y11.812 E2.47711
G1 X-30.442 Y11.041 E2.5165
G1 X-19.522 Y-18.962 E4.10942
G1 X-19.189 Y-19.615 E4.14599
G1 X-14.765 Y-26.165 E4.54032
G1 X-14.459 Y-26.547 E4.56474
G1 X-14.095 Y-26.874 E4.58915
G1 X-13.682 Y-27.138 E4.61361
G1 X-13.232 Y-27.331 E4.63803
G1 X-12.757 Y-27.448 E4.66244
G1 X-12.269 Y-27.486 E4.68686
G1 X-11.781 Y-27.444 E4.7113
G1 X-11.253 Y-27.305 E4.73854
G1 X35.597 Y-10.254 E7.22588
G1 X37.442 Y-9.689 E7.32215
G1 X37.897 Y-9.508 E7.34658
G1 X38.316 Y-9.255 E7.371
G1 X38.689 Y-8.938 E7.39542
G1 X39.005 Y-8.564 E7.41985
G1 X39.256 Y-8.144 E7.44426
G1 X39.435 Y-7.689 E7.46865
G1 X39.539 Y-7.21 E7.49311
G1 X39.562 Y-6.721 E7.51753
G1 X39.433 Y-5.943 E7.55687
G1 X36.301 Y4.301 E8.0913
G1 X38.5 Y4.973 E8.20602
G1 X38.955 Y5.154 E8.23045
G1 X39.374 Y5.406 E8.25484
G1 X39.747 Y5.723 E8.27926
G1 X40.063 Y6.097 E8.30369
G1 X40.315 Y6.517 E8.32813
G1 X40.494 Y6.972 E8.35252
G1 X40.597 Y7.451 E8.37697
G1 X40.621 Y7.94 E8.40139
G1 X40.566 Y8.426 E8.42579
G1 X40.492 Y8.719 E8.44087
G1 X35.519 Y24.984 E9.28941
G1 X35.338 Y25.439 E9.31384
G1 X35.086 Y25.858 E9.33824
G1 X34.768 Y26.231 E9.36269
G1 X34.395 Y26.547 E9.38708
G1 X33.975 Y26.799 E9.41152
G1 X33.519 Y26.978 E9.43596
G1 X33.041 Y27.081 E9.46035
G1 X32.552 Y27.105 E9.48478
G1 X32.066 Y27.05 E9.50918
G1 X31.77 Y26.975 E9.52441
G1 X29.844 Y26.384 E9.62492
G1 X29.698 Y26.335 E9.63261
G1 X15.086 Y21.018 E10.40837
G1 X14.463 Y20.84 E10.44069
G1 X13.873 Y20.766 E10.47036
G1 X13.276 Y20.78 E10.50015
G1 X12.677 Y20.886 E10.5305
G1 X12.112 Y21.076 E10.56024
G1 X12.06 Y21.103 E10.56316
G0 F1350 X11.587 Y21.347
G0 F3600 X11.38 Y21.004
G1 F1500 X10.833 Y21.396 E10.59673
G1 X10.363 Y21.859 E10.62965
G1 X9.97 Y22.38 E10.66221
G1 X9.659 Y22.952 E10.69469
G1 X9.522 Y23.287 E10.71275
G1 X8.782 Y25.318 E10.82059
G1 X8.589 Y25.731 E10.84333
G1 X8.327 Y26.104 E10.86608
G1 X8.004 Y26.425 E10.88879
G1 X7.63 Y26.685 E10.91152
G1 X7.216 Y26.876 E10.93427
G1 X6.775 Y26.991 E10.957
G1 X6.321 Y27.028 E10.97973
G1 X5.868 Y26.985 E11.00243
G1 X5.45 Y26.871 E11.02405
G1 X-28.512 Y14.51 E12.82716
G1 X-28.925 Y14.317 E12.8499
G1 X-29.298 Y14.056 E12.87261
G1 X-29.619 Y13.733 E12.89533
G1 X-29.88 Y13.359 E12.91808
G1 X-30.07 Y12.945 E12.94081
G1 X-30.186 Y12.504 E12.96356
G1 X-30.223 Y12.05 E12.98628
G1 X-30.18 Y11.596 E13.00904
G1 X-30.066 Y11.178 E13.03065
G1 X-19.146 Y-18.825 E14.62357
G1 X-18.858 Y-19.391 E14.65525
G1 X-14.434 Y-25.941 E15.04959
G1 X-14.146 Y-26.295 E15.07236
G1 X-13.802 Y-26.593 E15.09506
G1 X-13.411 Y-26.827 E15.1178
G1 X-12.985 Y-26.988 E15.14052
G1 X-12.537 Y-27.073 E15.16327
G1 X-12.081 Y-27.078 E15.18602
G1 X-11.39 Y-26.929 E15.22128
G1 X35.475 Y-9.872 E17.70943
G1 X37.325 Y-9.306 E17.80595
G1 X37.747 Y-9.135 E17.82867
G1 X38.133 Y-8.893 E17.8514
G1 X38.471 Y-8.587 E17.87415
G1 X38.75 Y-8.227 E17.89687
G1 X38.962 Y-7.824 E17.91959
G1 X39.101 Y-7.39 E17.94232
G1 X39.161 Y-6.939 E17.96502
G1 X39.142 Y-6.483 E17.98779
G1 X39.05 Y-6.06 E18.00939
G1 X35.801 Y4.567 E18.5638
G1 X38.383 Y5.356 E18.69849
G1 X38.805 Y5.526 E18.72119
G1 X39.191 Y5.768 E18.74392
G1 X39.529 Y6.074 E18.76667
G1 X39.809 Y6.434 E18.78942
G1 X40.021 Y6.837 E18.81214
G1 X40.16 Y7.271 E18.83487
G1 X40.22 Y7.723 E18.85762
G1 X40.201 Y8.178 E18.88034
G1 X40.109 Y8.602 E18.90199
G1 X35.136 Y24.867 E19.75053
G1 X34.965 Y25.29 E19.7733
G1 X34.723 Y25.676 E19.79603
G1 X34.418 Y26.014 E19.81874
G1 X34.058 Y26.293 E19.84146
G1 X33.655 Y26.505 E19.86418
G1 X33.221 Y26.644 E19.88692
G1 X32.769 Y26.704 E19.90966
G1 X32.314 Y26.685 E19.93238
G1 X31.887 Y26.593 E19.95418
G1 X29.961 Y26.002 E20.05469
G1 X29.835 Y25.959 E20.06133
G1 X15.211 Y20.637 E20.83773
G1 X14.527 Y20.445 E20.87318
G1 X13.887 Y20.366 E20.90535
G1 X13.225 Y20.382 E20.93839
G1 X12.572 Y20.499 E20.97148
G1 X11.958 Y20.707 E21.00383
G1 X11.853 Y20.761 E21.00972
G0 F1350 X11.38 Y21.004
G0 F3600 X11.157 Y20.671
G1 F1500 X10.574 Y21.091 E21.04557
G1 X10.07 Y21.586 E21.08081
G1 X9.633 Y22.162 E21.11688
G1 X9.293 Y22.791 E21.15255
G1 X9.144 Y23.156 E21.17222
G1 X8.406 Y25.181 E21.27975
G1 X8.226 Y25.559 E21.30064
G1 X7.977 Y25.897 E21.32158
G1 X7.669 Y26.181 E21.34248
G1 X7.312 Y26.401 E21.3634
G1 X6.921 Y26.55 E21.38428
G1 X6.508 Y26.622 E21.40519
G1 X6.089 Y26.614 E21.4261
G1 X5.587 Y26.495 E21.45184
G1 X-28.375 Y14.134 E23.25495
G1 X-28.754 Y13.954 E23.27588
G1 X-29.091 Y13.706 E23.29676
G1 X-29.375 Y13.397 E23.3177
G1 X-29.596 Y13.041 E23.3386
G1 X-29.745 Y12.649 E23.35952
G1 X-29.816 Y12.237 E23.38038
G1 X-29.809 Y11.818 E23.40129
G1 X-29.69 Y11.315 E23.42708
G1 X-18.77 Y-18.688 E25.01999
G1 X-18.526 Y-19.167 E25.04681
G1 X-14.102 Y-25.717 E25.44115
G1 X-13.836 Y-26.041 E25.46206
G1 X-13.513 Y-26.308 E25.48297
G1 X-13.145 Y-26.508 E25.50387
G1 X-12.746 Y-26.636 E25.52477
G1 X-12.329 Y-26.685 E25.54572
G1 X-11.912 Y-26.655 E25.56658
G1 X-11.527 Y-26.553 E25.58645
G1 X35.336 Y-9.497 E28.07449
G1 X37.208 Y-8.924 E28.17216
G1 X37.595 Y-8.764 E28.19305
G1 X37.945 Y-8.533 E28.21397
G1 X38.244 Y-8.24 E28.23486
G1 X38.483 Y-7.896 E28.25576
G1 X38.652 Y-7.512 E28.27669
G1 X38.746 Y-7.104 E28.29757
G1 X38.76 Y-6.685 E28.31849
G1 X38.668 Y-6.177 E28.34425
G1 X35.302 Y4.832 E28.91859
G1 X38.266 Y5.738 E29.07322
G1 X38.653 Y5.898 E29.09411
G1 X39.003 Y6.129 E29.11503
G1 X39.303 Y6.422 E29.13595
G1 X39.542 Y6.766 E29.15685
G1 X39.711 Y7.149 E29.17773
G1 X39.805 Y7.558 E29.19867
G1 X39.819 Y7.977 E29.21959
G1 X39.727 Y8.485 E29.24534
G1 X34.754 Y24.75 E30.09389
G1 X34.594 Y25.137 E30.11478
G1 X34.363 Y25.487 E30.1357
G1 X34.07 Y25.787 E30.15662
G1 X33.726 Y26.026 E30.17752
G1 X33.343 Y26.195 E30.19841
G1 X32.934 Y26.289 E30.21935
G1 X32.515 Y26.303 E30.24026
G1 X32.005 Y26.21 E30.26612
G1 X30.079 Y25.619 E30.36664
G1 X29.972 Y25.583 E30.37227
G1 X15.36 Y20.266 E31.14803
G1 X14.619 Y20.056 E31.18645
G1 X13.9 Y19.966 E31.2226
G1 X13.184 Y19.984 E31.25833
G1 X12.47 Y20.112 E31.29452
G1 X11.81 Y20.335 E31.32928
G1 X11.63 Y20.428 E31.33939
G0 F1350 X11.157 Y20.671
G0 F3600 X10.96 Y20.322
G1 F1500 X10.331 Y20.773 E31.378
G1 X9.758 Y21.334 E31.41801
G1 X9.3 Y21.94 E31.45591
G1 X8.932 Y22.618 E31.49439
G1 X8.766 Y23.025 E31.51632
G1 X8.03 Y25.044 E31.62353
G1 X7.864 Y25.385 E31.64246
G1 X7.63 Y25.683 E31.66136
G1 X7.338 Y25.925 E31.68028
G1 X7.003 Y26.101 E31.69916
G1 X6.638 Y26.203 E31.71807
G1 X6.26 Y26.226 E31.73696
G1 X5.723 Y26.119 E31.76428
G1 X-28.239 Y13.758 E33.56739
G1 X-28.579 Y13.592 E33.58626
G1 X-28.877 Y13.358 E33.60517
G1 X-29.12 Y13.067 E33.62408
G1 X-29.296 Y12.731 E33.643
G1 X-29.398 Y12.366 E33.66191
G1 X-29.421 Y11.988 E33.6808
G1 X-29.314 Y11.451 E33.70812
G1 X-18.394 Y-18.552 E35.30104
G1 X-18.195 Y-18.943 E35.32293
G1 X-13.771 Y-25.493 E35.71726
G1 X-13.527 Y-25.783 E35.73617
G1 X-13.227 Y-26.016 E35.75512
G1 X-12.886 Y-26.181 E35.77402
G1 X-12.518 Y-26.27 E35.79291
G1 X-12.139 Y-26.281 E35.81183
G1 X-11.663 Y-26.177 E35.83614
G1 X35.22 Y-9.113 E38.32525
G1 X37.091 Y-8.541 E38.42286
G1 X37.439 Y-8.393 E38.44173
G1 X37.749 Y-8.175 E38.46063
G1 X38.007 Y-7.897 E38.47955
G1 X38.2 Y-7.571 E38.49846
G1 X38.321 Y-7.212 E38.51736
G1 X38.364 Y-6.835 E38.53629
G1 X38.285 Y-6.294 E38.56356
G1 X34.802 Y5.098 E39.15788
G1 X38.149 Y6.121 E39.33249
G1 X38.498 Y6.269 E39.3514
G1 X38.808 Y6.487 E39.37031
G1 X39.065 Y6.765 E39.3892
G1 X39.259 Y7.091 E39.40813
G1 X39.38 Y7.45 E39.42703
G1 X39.423 Y7.826 E39.44591
G1 X39.344 Y8.368 E39.47323
G1 X34.371 Y24.633 E40.32178
G1 X34.223 Y24.982 E40.34069
G1 X34.005 Y25.292 E40.3596
G1 X33.727 Y25.549 E40.37849
G1 X33.401 Y25.743 E40.39741
G1 X33.042 Y25.864 E40.41631
G1 X32.665 Y25.907 E40.43524
G1 X32.122 Y25.828 E40.46262
G1 X30.196 Y25.237 E40.56313
G1 X30.108 Y25.207 E40.56777
G1 X15.485 Y19.886 E41.34411
G1 X14.699 Y19.663 E41.38487
G1 X13.927 Y19.566 E41.42369
G1 X13.144 Y19.586 E41.46277
G1 X12.378 Y19.723 E41.50159
G1 X11.651 Y19.968 E41.53986
G1 X11.433 Y20.08 E41.55209
G0 F1350 X10.96 Y20.322
G0 F3600 X10.753 Y19.979
G1 F1500 X10.065 Y20.473 E41.59435
G1 X9.459 Y21.067 E41.63668
G1 X8.958 Y21.733 E41.67826
G1 X8.568 Y22.451 E41.71903
G1 X8.387 Y22.894 E41.7429
G1 X7.654 Y24.907 E41.84978
G1 X7.503 Y25.205 E41.86645
G1 X7.286 Y25.459 E41.88311
G1 X7.015 Y25.654 E41.89977
G1 X6.705 Y25.779 E41.91645
G1 X6.375 Y25.828 E41.93309
G1 X5.86 Y25.744 E41.95912
G1 X-28.102 Y13.383 E43.76223
G1 X-28.4 Y13.232 E43.7789
G1 X-28.654 Y13.014 E43.7956
G1 X-28.849 Y12.743 E43.81226
G1 X-28.974 Y12.434 E43.82889
G1 X-29.023 Y12.103 E43.84558
G1 X-28.939 Y11.588 E43.87161
G1 X-18.019 Y-18.415 E45.46453
G1 X-17.863 Y-18.72 E45.48162
G1 X-13.439 Y-25.27 E45.87596
G1 X-13.22 Y-25.522 E45.89261
G1 X-12.948 Y-25.716 E45.90928
G1 X-12.638 Y-25.839 E45.92592
G1 X-12.307 Y-25.886 E45.9426
G1 X-11.8 Y-25.802 E45.96824
G1 X35.098 Y-8.733 E48.45814
G1 X36.974 Y-8.159 E48.55602
G1 X37.279 Y-8.024 E48.57266
G1 X37.544 Y-7.82 E48.58934
G1 X37.753 Y-7.559 E48.60603
G1 X37.894 Y-7.257 E48.62265
G1 X37.96 Y-6.929 E48.63935
G1 X37.903 Y-6.411 E48.66534
G1 X34.303 Y5.363 E49.2796
G1 X38.032 Y6.503 E49.47414
G1 X38.338 Y6.638 E49.49082
G1 X38.603 Y6.842 E49.50751
G1 X38.812 Y7.102 E49.52415
G1 X38.953 Y7.405 E49.54082
G1 X39.019 Y7.733 E49.55752
G1 X38.962 Y8.251 E49.58351
G1 X33.989 Y24.516 E50.43206
G1 X33.854 Y24.822 E50.44875
G1 X33.65 Y25.087 E50.46543
G1 X33.39 Y25.296 E50.48207
G1 X33.087 Y25.437 E50.49875
G1 X32.759 Y25.503 E50.51544
G1 X32.239 Y25.445 E50.54154
G1 X30.245 Y24.832 E50.64562
G1 X15.586 Y19.498 E51.42387
G1 X14.778 Y19.271 E51.46574
G1 X13.94 Y19.166 E51.50788
G1 X13.117 Y19.186 E51.54895
G1 X12.277 Y19.335 E51.59151
G1 X11.491 Y19.601 E51.63291
G1 X11.226 Y19.737 E51.64777
G0 F1350 X10.753 Y19.979
G0 F3600 X10.54 Y19.641
G1 F1500 X9.814 Y20.162 E51.69235
G1 X9.166 Y20.794 E51.73751
G1 X8.628 Y21.506 E51.78203
G1 X8.202 Y22.29 E51.82655
G1 X8.022 Y22.731 E51.85031
G1 X7.279 Y24.77 E51.95858
G1 X7.146 Y25.019 E51.97266
G1 X6.948 Y25.221 E51.98678
G1 X6.703 Y25.36 E52.00083
G1 X6.428 Y25.424 E52.01492
G1 X5.997 Y25.368 E52.0366
G1 X-27.965 Y13.007 E53.83971
G1 X-28.214 Y12.874 E53.85379
G1 X-28.416 Y12.677 E53.86787
G1 X-28.554 Y12.431 E53.88194
G1 X-28.619 Y12.156 E53.89604
G1 X-28.563 Y11.725 E53.91772
G1 X-17.643 Y-18.278 E55.51064
G1 X-17.532 Y-18.496 E55.52284
G1 X-13.108 Y-25.046 E55.91718
G1 X-12.918 Y-25.255 E55.93127
G1 X-12.678 Y-25.403 E55.94534
G1 X-12.406 Y-25.478 E55.95942
G1 X-12.124 Y-25.474 E55.97349
G1 X-11.937 Y-25.426 E55.98312
G1 X34.977 Y-8.351 E58.47387
G1 X36.857 Y-7.776 E58.57196
G1 X37.112 Y-7.656 E58.58602
G1 X37.324 Y-7.47 E58.60009
G1 X37.475 Y-7.232 E58.61415
G1 X37.554 Y-6.961 E58.62823
G1 X37.52 Y-6.528 E58.6499
G1 X33.803 Y5.629 E59.28413
G1 X37.915 Y6.886 E59.49865
G1 X38.171 Y7.005 E59.51274
G1 X38.383 Y7.192 E59.52684
G1 X38.534 Y7.43 E59.5409
G1 X38.613 Y7.701 E59.55498
G1 X38.579 Y8.134 E59.57665
G1 X33.606 Y24.399 E60.4252
G1 X33.487 Y24.655 E60.43928
G1 X33.3 Y24.867 E60.45339
G1 X33.062 Y25.018 E60.46745
G1 X32.791 Y25.097 E60.48153
G1 X32.357 Y25.063 E60.50325
G1 X30.382 Y24.456 E60.60633
G1 X15.735 Y19.126 E61.38395
G1 X14.858 Y18.878 E61.42942
G1 X13.967 Y18.767 E61.47422
G1 X13.077 Y18.788 E61.51863
G1 X12.184 Y18.946 E61.56388
G1 X11.336 Y19.231 E61.60851
G1 X11.013 Y19.398 E61.62665
G0 F1350 X10.54 Y19.641
G0 F3600 X10.334 Y19.298
G1 F1500 X9.555 Y19.857 E61.67449
G1 X8.861 Y20.535 E61.72289
G1 X8.295 Y21.284 E61.76973
G1 X7.833 Y22.134 E61.81799
G1 X7.655 Y22.569 E61.84144
G1 X6.903 Y24.633 E61.95104
G1 X6.792 Y24.821 E61.96193
G1 X6.621 Y24.957 E61.97283
G1 X6.413 Y25.023 E61.98372
G1 X6.134 Y24.992 E61.99772
G1 X-27.828 Y12.631 E63.80083
G1 X-28.016 Y12.52 E63.81172
G1 X-28.152 Y12.35 E63.82258
G1 X-28.218 Y12.142 E63.83347
G1 X-28.187 Y11.862 E63.84753
G1 X-17.267 Y-18.141 E65.44044
G1 X-17.2 Y-18.272 E65.44778
G1 X-12.776 Y-24.822 E65.84212
G1 X-12.623 Y-24.977 E65.85299
G1 X-12.425 Y-25.068 E65.86386
G1 X-12.207 Y-25.082 E65.87476
G1 X-12.074 Y-25.05 E65.88158
G1 X34.838 Y-7.976 E68.37222
G1 X36.74 Y-7.394 E68.47146
G1 X36.933 Y-7.293 E68.48233
G1 X37.078 Y-7.13 E68.49321
G1 X37.155 Y-6.926 E68.50409
G1 X37.138 Y-6.645 E68.51813
G1 X33.304 Y5.895 E69.17234
G1 X37.798 Y7.268 E69.40678
G1 X37.992 Y7.369 E69.41769
G1 X38.137 Y7.532 E69.42858
G1 X38.214 Y7.736 E69.43946
G1 X38.197 Y8.017 E69.4535
G1 X33.224 Y24.282 E70.30205
G1 X33.123 Y24.476 E70.31296
G1 X32.96 Y24.621 E70.32384
G1 X32.756 Y24.698 E70.33472
G1 X32.474 Y24.681 E70.34882
G1 X30.519 Y24.08 E70.45086
G1 X15.86 Y18.746 E71.22911
G1 X14.935 Y18.485 E71.27706
G1 X13.98 Y18.367 E71.32506
G1 X13.023 Y18.391 E71.37282
G1 X12.079 Y18.559 E71.42066
G1 X11.177 Y18.864 E71.46817
G1 X10.807 Y19.055 E71.48894
G0 F1350 X10.334 Y19.298
G0 F3600 X10.129 Y18.954
G1 F1500 X9.691 Y19.245 E71.51517
G1 X9.289 Y19.557 E71.54056
G1 X8.916 Y19.894 E71.56564
G1 X8.565 Y20.265 E71.59112
G1 X8.257 Y20.643 E71.61545
G1 X7.959 Y21.065 E71.64122
G1 X7.695 Y21.508 E71.66695
G1 X7.474 Y21.956 E71.69187
G1 X7.276 Y22.44 E71.71796
G1 X6.527 Y24.496 E71.82713
G1 X6.45 Y24.595 E71.83339
G1 X6.271 Y24.616 E71.84238
G1 X-27.691 Y12.255 E73.64549
G1 X-27.79 Y12.178 E73.65175
G1 X-27.811 Y11.999 E73.66074
G1 X-16.891 Y-18.004 E75.25365
G1 X-16.869 Y-18.048 E75.25611
G1 X-12.445 Y-24.598 E75.65044
G1 X-12.346 Y-24.674 E75.65667
G1 X-12.211 Y-24.674 E75.66341
G1 X34.716 Y-7.595 E78.15484
G1 X36.623 Y-7.011 E78.25434
G1 X36.725 Y-6.939 E78.26057
G1 X36.755 Y-6.762 E78.26953
G1 X32.804 Y6.16 E78.94367
G1 X37.681 Y7.651 E79.1981
G1 X37.784 Y7.723 E79.20437
G1 X37.814 Y7.9 E79.21333
G1 X32.841 Y24.165 E80.06187
G1 X32.769 Y24.268 E80.06814
G1 X32.591 Y24.298 E80.07715
G1 X30.656 Y23.704 E80.17813
G1 X15.992 Y18.368 E80.95665
G1 X15.511 Y18.212 E80.98188
G1 X15.014 Y18.093 E81.00738
G1 X14.514 Y18.012 E81.03265
G1 X14.007 Y17.967 E81.05804
G1 X13.502 Y17.961 E81.08324
G1 X12.983 Y17.993 E81.10918
G1 X12.48 Y18.063 E81.13451
G1 X11.987 Y18.17 E81.15968
G1 X11.498 Y18.315 E81.18513
G1 X11.017 Y18.497 E81.21079
G1 X10.593 Y18.694 E81.23411
G0 F1350 X10.571 Y18.704
G0 X10.129 Y18.954
