;FLAVOR:Marlin
;TIME:13263
;Filament used: 21.5978m
;Layer height: 0.24
;MINX:-35.614
;MINY:-27.486
;MINZ:0.3
;MAXX:35.621
;MAXY:27.419
;MAXZ:63.9
;Generated with Cura_SteamEngine 4.13.1
M140 S40
M105
M190 S40
M104 S215
M105
M109 S215
M82 ;absolute extrusion mode
;FLAVOR:Marlin
M82 ;absolute extrusion mode
G21
G90
M82
M107 T0
G28
G92 E0
G0 E3 F200
G92 E0 ; reset extrusion distance
M106 S255 ; Enable cooling fan full speed
G1 X-98 Y0 Z0.4 F3000 ; move to arc start
G3 X0 Y-98 I98 Z0.4 E40 F400 ; lay arc stripe 90deg
G92 E0 ; reset extrusion distance
G4 P500 ; wait for 0.5 sec
G0 Z10 E-1 ; Lift 15mm and retract 1mm filament
G4 P2000 ; wait for 5 sec
G0 Z15
M107 ; Disable cooling fan
G1 X0 Y-85 Z4 E0 F3000 ; get off the bed
G92 E0
G92 E0
G1 F1500 E-6.5
;LAYER_COUNT:267
;LAYER:0
M107
G1 F600 Z1.3
G0 F3600 X7.112 Y21.076 Z1.3
;TYPE:SKIRT
G1 F600 Z0.3
G1 F1500 E0.3326
G1 F1350 X6.587 Y21.347 E0.39892
G1 X6.099 Y21.696 E0.46627
G1 X5.668 Y22.118 E0.53398
G1 X5.308 Y22.593 E0.60088
G1 X5.028 Y23.108 E0.66669
G1 X4.889 Y23.449 E0.70802
G1 X4.158 Y25.455 E0.94769
G1 X3.953 Y25.9 E1.00268
G1 X3.679 Y26.305 E1.05757
G1 X3.343 Y26.661 E1.11252
G1 X2.953 Y26.957 E1.16748
G1 X2.52 Y27.186 E1.22247
G1 X2.056 Y27.341 E1.27738
G1 X1.573 Y27.419 E1.3323
G1 X1.083 Y27.417 E1.38731
G1 X0.313 Y27.247 E1.47582
G1 X-33.649 Y14.886 E5.53282
G1 X-34.094 Y14.682 E5.58777
G1 X-34.499 Y14.408 E5.64266
G1 X-34.855 Y14.071 E5.69769
G1 X-35.151 Y13.682 E5.75256
G1 X-35.38 Y13.249 E5.80754
G1 X-35.536 Y12.785 E5.86249
G1 X-35.614 Y12.302 E5.91741
G1 X-35.612 Y11.812 E5.97242
G1 X-35.442 Y11.041 E6.06104
G1 X-24.522 Y-18.962 E9.64511
G1 X-24.189 Y-19.615 E9.72739
G1 X-19.765 Y-26.165 E10.61465
G1 X-19.459 Y-26.547 E10.66959
G1 X-19.095 Y-26.874 E10.72451
G1 X-18.682 Y-27.138 E10.77954
G1 X-18.232 Y-27.331 E10.8345
G1 X-17.757 Y-27.448 E10.88941
G1 X-17.269 Y-27.486 E10.94436
G1 X-16.781 Y-27.444 E10.99934
G1 X-16.253 Y-27.305 E11.06063
G1 X30.597 Y-10.254 E16.65716
G1 X32.442 Y-9.689 E16.87376
G1 X32.897 Y-9.508 E16.92873
G1 X33.316 Y-9.255 E16.98367
G1 X33.689 Y-8.938 E17.03862
G1 X34.005 Y-8.564 E17.09358
G1 X34.256 Y-8.144 E17.1485
G1 X34.435 Y-7.689 E17.20339
G1 X34.539 Y-7.21 E17.25841
G1 X34.562 Y-6.721 E17.31336
G1 X34.433 Y-5.943 E17.40189
G1 X31.301 Y4.301 E18.60435
G1 X33.5 Y4.973 E18.86247
G1 X33.955 Y5.154 E18.91743
G1 X34.374 Y5.406 E18.97232
G1 X34.747 Y5.723 E19.02727
G1 X35.063 Y6.097 E19.08223
G1 X35.315 Y6.517 E19.13721
G1 X35.494 Y6.972 E19.1921
G1 X35.597 Y7.451 E19.24709
G1 X35.621 Y7.94 E19.30205
G1 X35.566 Y8.426 E19.35696
G1 X35.492 Y8.719 E19.39088
G1 X30.52 Y24.984 E21.30007
G1 X30.339 Y25.439 E21.35504
G1 X30.087 Y25.858 E21.40993
G1 X29.77 Y26.231 E21.46487
G1 X29.396 Y26.547 E21.51984
G1 X28.976 Y26.799 E21.57482
G1 X28.521 Y26.978 E21.6297
G1 X28.042 Y27.081 E21.6847
G1 X27.553 Y27.105 E21.73966
G1 X27.067 Y27.05 E21.79456
G1 X26.773 Y26.976 E21.82859
G1 X24.861 Y26.391 E22.05304
G1 X24.713 Y26.341 E22.07058
G1 X10.085 Y21.018 E23.81795
G1 X9.463 Y20.84 E23.89058
G1 X8.873 Y20.766 E23.95733
G1 X8.276 Y20.78 E24.02436
G1 X7.68 Y20.885 E24.09229
G1 X7.616 Y20.907 E24.09989
G0 F1215 X7.112 Y21.076
G0 F3600 X6.958 Y20.707
G1 F1350 X6.38 Y21.004 E24.17284
G1 X5.833 Y21.396 E24.24838
G1 X5.363 Y21.859 E24.32244
G1 X4.97 Y22.38 E24.39569
G1 X4.659 Y22.952 E24.46878
G1 X4.522 Y23.287 E24.50941
G1 X3.782 Y25.318 E24.75205
G1 X3.589 Y25.731 E24.80323
G1 X3.327 Y26.104 E24.85439
G1 X3.004 Y26.425 E24.90551
G1 X2.63 Y26.685 E24.95664
G1 X2.216 Y26.876 E25.00782
G1 X1.775 Y26.991 E25.05898
G1 X1.321 Y27.028 E25.11011
G1 X0.868 Y26.985 E25.16119
G1 X0.45 Y26.871 E25.20983
G1 X-33.512 Y14.51 E29.26682
G1 X-33.925 Y14.317 E29.318
G1 X-34.298 Y14.056 E29.3691
G1 X-34.619 Y13.733 E29.42022
G1 X-34.88 Y13.359 E29.47141
G1 X-35.07 Y12.945 E29.52254
G1 X-35.186 Y12.504 E29.57373
G1 X-35.223 Y12.05 E29.62486
G1 X-35.18 Y11.596 E29.67605
G1 X-35.066 Y11.178 E29.72469
G1 X-24.146 Y-18.825 E33.30875
G1 X-23.858 Y-19.391 E33.38004
G1 X-19.434 Y-25.941 E34.2673
G1 X-19.146 Y-26.295 E34.31852
G1 X-18.802 Y-26.593 E34.36961
G1 X-18.411 Y-26.827 E34.42076
G1 X-17.985 Y-26.988 E34.47188
G1 X-17.537 Y-27.073 E34.52307
G1 X-17.081 Y-27.078 E34.57426
G1 X-16.39 Y-26.929 E34.65361
G1 X30.475 Y-9.872 E40.25195
G1 X32.325 Y-9.306 E40.46912
G1 X32.747 Y-9.135 E40.52023
G1 X33.133 Y-8.893 E40.57137
G1 X33.471 Y-8.587 E40.62255
G1 X33.75 Y-8.227 E40.67368
G1 X33.962 Y-7.824 E40.72479
G1 X34.101 Y-7.39 E40.77595
G1 X34.161 Y-6.939 E40.82702
G1 X34.142 Y-6.483 E40.87825
G1 X34.05 Y-6.06 E40.92685
G1 X30.801 Y4.567 E42.17427
G1 X33.383 Y5.356 E42.47733
G1 X33.805 Y5.526 E42.5284
G1 X34.191 Y5.768 E42.57954
G1 X34.529 Y6.074 E42.63072
G1 X34.809 Y6.434 E42.68192
G1 X35.021 Y6.837 E42.73304
G1 X35.16 Y7.271 E42.78419
G1 X35.22 Y7.723 E42.83537
G1 X35.201 Y8.178 E42.88649
G1 X35.109 Y8.602 E42.9352
G1 X30.137 Y24.867 E44.84439
G1 X29.967 Y25.289 E44.89546
G1 X29.725 Y25.676 E44.9467
G1 X29.419 Y26.013 E44.99779
G1 X29.059 Y26.293 E45.04899
G1 X28.656 Y26.505 E45.10011
G1 X28.222 Y26.644 E45.15126
G1 X27.77 Y26.704 E45.20244
G1 X27.315 Y26.685 E45.25356
G1 X26.89 Y26.593 E45.30238
G1 X24.978 Y26.008 E45.52683
G1 X24.85 Y25.965 E45.54198
G1 X10.211 Y20.637 E47.29071
G1 X9.527 Y20.445 E47.37046
G1 X8.887 Y20.366 E47.44284
G1 X8.225 Y20.382 E47.51718
G1 X7.579 Y20.497 E47.59083
G1 X7.462 Y20.537 E47.60471
G0 F1215 X6.958 Y20.707
G0 F3600 X6.81 Y20.335
G1 F1350 X6.157 Y20.671 E47.68715
G1 X5.574 Y21.091 E47.76781
G1 X5.07 Y21.586 E47.84711
G1 X4.633 Y22.162 E47.92827
G1 X4.293 Y22.791 E48.00853
G1 X4.144 Y23.156 E48.05278
G1 X3.406 Y25.181 E48.29472
G1 X3.226 Y25.559 E48.34172
G1 X2.977 Y25.897 E48.38884
G1 X2.669 Y26.181 E48.43587
G1 X2.312 Y26.401 E48.48294
G1 X1.921 Y26.55 E48.52991
G1 X1.508 Y26.622 E48.57697
G1 X1.089 Y26.614 E48.62402
G1 X0.587 Y26.495 E48.68193
G1 X-33.375 Y14.134 E52.73892
G1 X-33.754 Y13.954 E52.78602
G1 X-34.091 Y13.706 E52.83299
G1 X-34.375 Y13.397 E52.8801
G1 X-34.596 Y13.041 E52.92714
G1 X-34.745 Y12.649 E52.97421
G1 X-34.816 Y12.237 E53.02114
G1 X-34.809 Y11.818 E53.06818
G1 X-34.69 Y11.315 E53.1262
G1 X-23.77 Y-18.688 E56.71027
G1 X-23.526 Y-19.167 E56.77061
G1 X-19.102 Y-25.717 E57.65787
G1 X-18.836 Y-26.041 E57.70492
G1 X-18.513 Y-26.308 E57.75197
G1 X-18.145 Y-26.508 E57.79898
G1 X-17.746 Y-26.636 E57.84602
G1 X-17.329 Y-26.685 E57.89315
G1 X-16.912 Y-26.655 E57.94008
G1 X-16.527 Y-26.553 E57.98479
G1 X30.336 Y-9.497 E63.58288
G1 X32.208 Y-8.924 E63.80264
G1 X32.595 Y-8.764 E63.84965
G1 X32.945 Y-8.533 E63.89672
G1 X33.244 Y-8.24 E63.94371
G1 X33.483 Y-7.896 E63.99073
G1 X33.652 Y-7.512 E64.03783
G1 X33.746 Y-7.104 E64.08483
G1 X33.76 Y-6.685 E64.13189
G1 X33.668 Y-6.177 E64.18984
G1 X30.302 Y4.832 E65.48211
G1 X33.266 Y5.738 E65.83002
G1 X33.653 Y5.898 E65.87703
G1 X34.003 Y6.129 E65.9241
G1 X34.303 Y6.422 E65.97117
G1 X34.542 Y6.766 E66.01819
G1 X34.711 Y7.149 E66.06519
G1 X34.805 Y7.558 E66.1123
G1 X34.819 Y7.977 E66.15936
G1 X34.727 Y8.485 E66.21731
G1 X29.755 Y24.75 E68.1265
G1 X29.595 Y25.137 E68.17351
G1 X29.364 Y25.487 E68.22059
G1 X29.071 Y25.787 E68.26766
G1 X28.727 Y26.026 E68.31468
G1 X28.344 Y26.195 E68.36167
G1 X27.935 Y26.289 E68.40878
G1 X27.516 Y26.303 E68.45584
G1 X27.007 Y26.211 E68.5139
G1 X25.095 Y25.626 E68.73835
G1 X24.987 Y25.589 E68.75117
G1 X10.36 Y20.266 E70.49843
G1 X9.619 Y20.056 E70.58489
G1 X8.9 Y19.966 E70.66623
G1 X8.184 Y19.984 E70.74663
G1 X7.477 Y20.111 E70.82726
G1 X7.314 Y20.166 E70.84657
G0 F1215 X6.81 Y20.335
G0 F3600 X6.651 Y19.968
G1 F1350 X5.96 Y20.322 E70.93372
G1 X5.331 Y20.773 E71.02061
G1 X4.758 Y21.334 E71.11062
G1 X4.3 Y21.94 E71.19589
G1 X3.932 Y22.618 E71.28249
G1 X3.766 Y23.025 E71.33183
G1 X3.03 Y25.044 E71.57305
G1 X2.864 Y25.385 E71.61563
G1 X2.63 Y25.683 E71.65816
G1 X2.338 Y25.925 E71.70073
G1 X2.003 Y26.101 E71.74321
G1 X1.638 Y26.203 E71.78575
G1 X1.26 Y26.226 E71.82826
G1 X0.723 Y26.119 E71.88973
G1 X-33.239 Y13.758 E75.94672
G1 X-33.579 Y13.592 E75.98919
G1 X-33.877 Y13.358 E76.03173
G1 X-34.12 Y13.067 E76.07428
G1 X-34.296 Y12.731 E76.11686
G1 X-34.398 Y12.366 E76.1594
G1 X-34.421 Y11.988 E76.20191
G1 X-34.314 Y11.451 E76.26338
G1 X-23.394 Y-18.552 E79.84744
G1 X-23.195 Y-18.943 E79.89669
G1 X-18.771 Y-25.493 E80.78395
G1 X-18.527 Y-25.783 E80.82649
G1 X-18.227 Y-26.016 E80.86913
G1 X-17.886 Y-26.181 E80.91165
G1 X-17.518 Y-26.27 E80.95415
G1 X-17.139 Y-26.281 E80.99671
G1 X-16.663 Y-26.177 E81.05141
G1 X30.22 Y-9.113 E86.65191
G1 X32.091 Y-8.541 E86.87153
G1 X32.439 Y-8.393 E86.91398
G1 X32.749 Y-8.175 E86.95653
G1 X33.007 Y-7.897 E86.9991
G1 X33.2 Y-7.571 E87.04163
G1 X33.321 Y-7.212 E87.08415
G1 X33.364 Y-6.835 E87.12675
G1 X33.285 Y-6.294 E87.18812
G1 X29.802 Y5.098 E88.52534
G1 X33.149 Y6.121 E88.91821
G1 X33.498 Y6.269 E88.96076
G1 X33.808 Y6.487 E89.0033
G1 X34.065 Y6.765 E89.0458
G1 X34.259 Y7.091 E89.08838
G1 X34.38 Y7.45 E89.13091
G1 X34.423 Y7.826 E89.17339
G1 X34.344 Y8.368 E89.23488
G1 X29.372 Y24.633 E91.14407
G1 X29.224 Y24.982 E91.18662
G1 X29.006 Y25.292 E91.22917
G1 X28.728 Y25.549 E91.27166
G1 X28.402 Y25.743 E91.31425
G1 X28.043 Y25.864 E91.35677
G1 X27.667 Y25.907 E91.39926
G1 X27.124 Y25.828 E91.46085
G1 X25.212 Y25.243 E91.6853
G1 X25.123 Y25.213 E91.69584
G1 X10.485 Y19.886 E93.44443
G1 X9.699 Y19.663 E93.53614
G1 X8.927 Y19.566 E93.62348
G1 X8.144 Y19.586 E93.7114
G1 X7.372 Y19.724 E93.79944
G1 X7.155 Y19.798 E93.82517
G0 F1215 X6.651 Y19.968
G0 F3600 X6.491 Y19.601
G1 F1350 X5.753 Y19.979 E93.91825
G1 X5.065 Y20.473 E94.01333
G1 X4.459 Y21.067 E94.10858
G1 X3.958 Y21.733 E94.20213
G1 X3.568 Y22.451 E94.29385
G1 X3.387 Y22.894 E94.34757
G1 X2.654 Y24.907 E94.58805
G1 X2.503 Y25.205 E94.62555
G1 X2.286 Y25.459 E94.66305
G1 X2.015 Y25.654 E94.70053
G1 X1.705 Y25.779 E94.73805
G1 X1.375 Y25.828 E94.7755
G1 X0.86 Y25.744 E94.83407
G1 X-33.102 Y13.383 E98.89107
G1 X-33.4 Y13.232 E98.92857
G1 X-33.654 Y13.014 E98.96614
G1 X-33.849 Y12.743 E99.00362
G1 X-33.974 Y12.434 E99.04104
G1 X-34.023 Y12.103 E99.0786
G1 X-33.939 Y11.588 E99.13717
G1 X-23.019 Y-18.415 E102.72124
G1 X-22.863 Y-18.72 E102.75969
G1 X-18.439 Y-25.27 E103.64695
G1 X-18.22 Y-25.522 E103.68442
G1 X-17.948 Y-25.716 E103.72193
G1 X-17.638 Y-25.839 E103.75937
G1 X-17.307 Y-25.886 E103.79689
G1 X-16.8 Y-25.802 E103.85458
G1 X30.098 Y-8.733 E109.45686
G1 X31.974 Y-8.159 E109.67709
G1 X32.279 Y-8.024 E109.71453
G1 X32.544 Y-7.82 E109.75207
G1 X32.753 Y-7.559 E109.7896
G1 X32.894 Y-7.257 E109.82701
G1 X32.96 Y-6.929 E109.86457
G1 X32.903 Y-6.411 E109.92307
G1 X29.303 Y5.363 E111.30514
G1 X33.032 Y6.503 E111.74285
G1 X33.338 Y6.638 E111.78039
G1 X33.603 Y6.842 E111.81793
G1 X33.812 Y7.102 E111.85538
G1 X33.953 Y7.405 E111.8929
G1 X34.019 Y7.733 E111.93045
G1 X33.962 Y8.251 E111.98895
G1 X28.99 Y24.516 E113.89815
G1 X28.855 Y24.822 E113.93569
G1 X28.651 Y25.087 E113.97323
G1 X28.391 Y25.296 E114.01068
G1 X28.088 Y25.437 E114.04819
G1 X27.76 Y25.503 E114.08575
G1 X27.241 Y25.446 E114.14436
G1 X25.329 Y24.861 E114.36881
G1 X25.26 Y24.838 E114.37697
G1 X10.586 Y19.498 E116.12985
G1 X9.778 Y19.271 E116.22406
G1 X8.94 Y19.166 E116.31887
G1 X8.117 Y19.186 E116.41128
G1 X7.284 Y19.334 E116.50625
G1 X6.995 Y19.432 E116.5405
G0 F1215 X6.491 Y19.601
G0 F3600 X6.336 Y19.231
G1 F1350 X5.54 Y19.641 E116.64101
G1 X4.814 Y20.162 E116.74132
G1 X4.166 Y20.794 E116.84293
G1 X3.628 Y21.506 E116.94311
G1 X3.202 Y22.29 E117.04326
G1 X3.022 Y22.731 E117.09673
G1 X2.279 Y24.77 E117.34034
G1 X2.146 Y25.019 E117.37203
G1 X1.948 Y25.221 E117.40378
G1 X1.703 Y25.36 E117.4354
G1 X1.428 Y25.424 E117.46709
G1 X0.997 Y25.368 E117.51588
G1 X-32.965 Y13.007 E121.57288
G1 X-33.214 Y12.874 E121.60457
G1 X-33.416 Y12.677 E121.63624
G1 X-33.554 Y12.431 E121.6679
G1 X-33.619 Y12.156 E121.69962
G1 X-33.563 Y11.725 E121.74841
G1 X-22.643 Y-18.278 E125.33247
G1 X-22.532 Y-18.496 E125.35993
G1 X-18.108 Y-25.046 E126.24719
G1 X-17.918 Y-25.255 E126.27889
G1 X-17.678 Y-25.403 E126.31055
G1 X-17.406 Y-25.478 E126.34222
G1 X-17.124 Y-25.474 E126.37388
G1 X-16.937 Y-25.426 E126.39555
G1 X29.977 Y-8.351 E131.99975
G1 X31.857 Y-7.776 E132.22043
G1 X32.112 Y-7.656 E132.25207
G1 X32.324 Y-7.47 E132.28373
G1 X32.475 Y-7.232 E132.31537
G1 X32.554 Y-6.961 E132.34705
G1 X32.52 Y-6.528 E132.39581
G1 X28.803 Y5.629 E133.82283
G1 X32.915 Y6.886 E134.3055
G1 X33.171 Y7.005 E134.33719
G1 X33.383 Y7.192 E134.36892
G1 X33.534 Y7.43 E134.40056
G1 X33.613 Y7.701 E134.43225
G1 X33.579 Y8.134 E134.481
G1 X28.607 Y24.399 E136.3902
G1 X28.488 Y24.655 E136.42189
G1 X28.301 Y24.867 E136.45362
G1 X28.063 Y25.018 E136.48526
G1 X27.792 Y25.097 E136.51695
G1 X27.358 Y25.063 E136.56581
G1 X25.397 Y24.462 E136.79605
G1 X10.735 Y19.126 E138.54751
G1 X9.858 Y18.878 E138.64981
G1 X8.967 Y18.767 E138.7506
G1 X8.077 Y18.788 E138.85054
G1 X7.179 Y18.947 E138.95291
G1 X6.84 Y19.062 E138.99309
G0 F1215 X6.336 Y19.231
G0 F3600 X6.177 Y18.864
G1 F1350 X5.334 Y19.298 E139.09952
G1 X4.555 Y19.857 E139.20715
G1 X3.861 Y20.535 E139.31606
G1 X3.295 Y21.284 E139.42145
G1 X2.833 Y22.134 E139.53005
G1 X2.655 Y22.569 E139.58281
G1 X1.903 Y24.633 E139.82939
G1 X1.792 Y24.821 E139.8539
G1 X1.621 Y24.957 E139.87843
G1 X1.413 Y25.023 E139.90292
G1 X1.134 Y24.992 E139.93444
G1 X-32.828 Y12.631 E143.99143
G1 X-33.016 Y12.52 E144.01594
G1 X-33.152 Y12.35 E144.04038
G1 X-33.218 Y12.142 E144.06487
G1 X-33.187 Y11.862 E144.0965
G1 X-22.267 Y-18.141 E147.68056
G1 X-22.2 Y-18.272 E147.69708
G1 X-17.776 Y-24.822 E148.58433
G1 X-17.623 Y-24.977 E148.60878
G1 X-17.425 Y-25.068 E148.63324
G1 X-17.207 Y-25.082 E148.65776
G1 X-17.074 Y-25.05 E148.67312
G1 X29.838 Y-7.976 E154.27707
G1 X31.74 Y-7.394 E154.50034
G1 X31.933 Y-7.293 E154.5248
G1 X32.078 Y-7.13 E154.54928
G1 X32.155 Y-6.926 E154.57376
G1 X32.138 Y-6.645 E154.60536
G1 X28.304 Y5.895 E156.07734
G1 X32.798 Y7.268 E156.60482
G1 X32.992 Y7.369 E156.62937
G1 X33.137 Y7.532 E156.65386
G1 X33.214 Y7.736 E156.67834
G1 X33.197 Y8.017 E156.70994
G1 X28.225 Y24.282 E158.61913
G1 X28.124 Y24.476 E158.64368
G1 X27.961 Y24.621 E158.66817
G1 X27.757 Y24.698 E158.69265
G1 X27.475 Y24.681 E158.72436
G1 X25.534 Y24.086 E158.95225
G1 X10.86 Y18.746 E160.70513
G1 X9.935 Y18.485 E160.81302
G1 X8.98 Y18.367 E160.92104
G1 X8.023 Y18.391 E161.0285
G1 X7.077 Y18.56 E161.13637
G1 X6.681 Y18.694 E161.1833
G0 F1215 X6.177 Y18.864
G0 F3600 X6.017 Y18.497
G1 F1350 X5.571 Y18.704 E161.23849
G1 X5.129 Y18.954 E161.29549
G1 X4.691 Y19.245 E161.35452
G1 X4.289 Y19.557 E161.41165
G1 X3.916 Y19.894 E161.46807
G1 X3.565 Y20.265 E161.5254
G1 X3.257 Y20.643 E161.58014
G1 X2.959 Y21.065 E161.63813
G1 X2.695 Y21.508 E161.69602
G1 X2.474 Y21.956 E161.75209
G1 X2.276 Y22.44 E161.8108
G1 X1.527 Y24.496 E162.05642
G1 X1.45 Y24.595 E162.0705
G1 X1.271 Y24.616 E162.09073
G1 X-32.691 Y12.255 E166.14773
G1 X-32.79 Y12.178 E166.16181
G1 X-32.811 Y11.999 E166.18204
G1 X-21.891 Y-18.004 E169.7661
G1 X-21.869 Y-18.048 E169.77163
G1 X-17.445 Y-24.598 E170.65888
G1 X-17.346 Y-24.674 E170.67289
G1 X-17.211 Y-24.674 E170.68805
G1 X29.716 Y-7.595 E176.29377
G1 X31.623 Y-7.011 E176.51765
G1 X31.725 Y-6.939 E176.53166
G1 X31.755 Y-6.762 E176.55182
G1 X27.804 Y6.16 E178.06864
G1 X32.681 Y7.651 E178.64111
G1 X32.784 Y7.723 E178.65521
G1 X32.814 Y7.9 E178.67537
G1 X27.842 Y24.165 E180.58456
G1 X27.77 Y24.268 E180.59867
G1 X27.592 Y24.298 E180.61893
G1 X25.671 Y23.71 E180.84444
G1 X10.992 Y18.368 E182.59793
G1 X10.511 Y18.212 E182.65469
G1 X10.014 Y18.093 E182.71206
G1 X9.514 Y18.012 E182.76891
G1 X9.007 Y17.967 E182.82605
