;FLAVOR:Marlin
;TIME:3016
;Filament used: 3.36672m
;Layer height: 0.24
;MINX:-84.607
;MINY:-51.707
;MINZ:0.24
;MAXX:-3.495
;MAXY:24.393
;MAXZ:8.88
;TARGET_MACHINE.NAME:Unknown
;Generated with Cura_SteamEngine 5.7.1
M140 S50
M105
M190 S50
M104 S210
M105
M109 S210
M82 ;absolute extrusion mode
;FLAVOR:Marlin
M82 ;absolute extrusion mode
G21
G90
M82
M107 T0
G28
G92 E0
G0 E3 F200
G92 E0 ; reset extrusion distance
M106 S255 ; Enable cooling fan full speed
G1 X-98 Y0 Z0.4 F3000 ; move to arc start
G3 X0 Y-98 I98 Z0.4 E40 F400 ; lay arc stripe 90deg
G92 E0 ; reset extrusion distance
G4 P500 ; wait for 0.5 sec
G0 Z10 E-1 ; Lift 15mm and retract 1mm filament
G4 P2000 ; wait for 5 sec
G0 Z15
M107 ; Disable cooling fan
G1 X0 Y-85 Z4 E0 F3000 ; get off the bed
G92 E0
G92 E0
G1 F1500 E-1
;LAYER_COUNT:37
;LAYER:0
M106 S102
G1 F600 Z1.24
G0 F4500 X-20.549 Y-2.831 Z1.24
;TYPE:SKIRT
G1 F600 Z0.24
G1 F3600 E0.71493
G1 F1200 X-20.74 Y-2.048 E0.74421
G1 X-20.844 Y-1.526 E0.76355
G1 X-20.951 Y-.815 E0.78967
G1 X-21.026 Y-.124 E0.81493
G1 X-21.062 Y0.411 E0.83441
G1 X-21.079 Y1.148 E0.8612
G1 X-21.061 Y1.827 E0.88588
G1 X-21.024 Y2.384 E0.90616
G1 X-20.947 Y3.094 E0.93211
G1 X-20.856 Y3.705 E0.95456
G1 X-20.733 Y4.333 E0.97781
G1 X-20.578 Y4.96 E1.00128
G1 X-20.366 Y5.689 E1.02886
G1 X-20.165 Y6.276 E1.05141
G1 X-19.945 Y6.837 E1.0733
G1 X-19.685 Y7.428 E1.09676
G1 X-19.38 Y8.039 E1.12157
G1 X-18.754 Y9.192 E1.16925
G1 X-18.392 Y10.005 E1.20158
G1 X-18.142 Y10.702 E1.22849
G1 X-17.935 Y11.443 E1.25644
G1 X-17.822 Y11.963 E1.27578
G1 X-17.691 Y12.911 E1.31055
G1 X-17.646 Y13.623 E1.33647
G1 X-17.645 Y14.159 E1.35595
G1 X-17.695 Y14.937 E1.38428
G1 X-17.82 Y15.827 E1.41693
G1 X-17.956 Y16.446 E1.43996
G1 X-18.346 Y17.706 E1.48788
G1 X-18.743 Y18.585 E1.52293
G1 X-19.022 Y19.107 E1.54443
G1 X-19.412 Y19.736 E1.57133
G1 X-19.896 Y20.402 E1.60124
G1 X-20.354 Y20.943 E1.627
G1 X-20.842 Y21.446 E1.65246
G1 X-21.316 Y21.877 E1.67574
G1 X-22.034 Y22.438 E1.70885
G1 X-22.666 Y22.861 E1.73648
G1 X-23.138 Y23.133 E1.75627
G1 X-23.89 Y23.499 E1.78666
G1 X-24.653 Y23.803 E1.8165
G1 X-25.308 Y24.011 E1.84147
G1 X-25.949 Y24.168 E1.86545
G1 X-26.808 Y24.312 E1.8971
G1 X-27.577 Y24.383 E1.92516
G1 X-28.715 Y24.393 E1.96651
G1 X-29.547 Y24.306 E1.99691
G1 X-30.442 Y24.146 E2.02994
G1 X-30.962 Y24.014 E2.04944
G1 X-31.843 Y23.728 E2.08309
G1 X-32.342 Y23.525 E2.10267
G1 X-33.042 Y23.186 E2.13093
G1 X-33.779 Y22.76 E2.16186
G1 X-34.237 Y22.451 E2.18193
G1 X-34.914 Y21.922 E2.21315
G1 X-35.525 Y21.366 E2.24317
G1 X-35.929 Y20.944 E2.26439
G1 X-36.478 Y20.285 E2.29556
G1 X-36.865 Y19.745 E2.3197
G1 X-37.577 Y18.586 E2.36912
G1 X-37.965 Y18 E2.39466
G1 X-38.33 Y17.503 E2.41706
G1 X-38.762 Y16.966 E2.44211
G1 X-39.227 Y16.437 E2.4677
G1 X-39.594 Y16.053 E2.487
G1 X-40.15 Y15.521 E2.51496
G1 X-40.612 Y15.118 E2.53723
G1 X-41.116 Y14.712 E2.56075
G1 X-41.674 Y14.301 E2.58593
G1 X-42.143 Y13.987 E2.60644
G1 X-42.728 Y13.634 E2.63126
G1 X-43.303 Y13.318 E2.6551
G1 X-43.943 Y13.002 E2.68104
G1 X-44.453 Y12.779 E2.70126
G1 X-45.136 Y12.512 E2.72791
G1 X-45.775 Y12.295 E2.75243
G1 X-46.426 Y12.106 E2.77706
G1 X-51.607 Y10.721 E2.97192
G1 X-52.381 Y10.532 E3.00087
G1 X-52.916 Y10.425 E3.0207
G1 X-53.573 Y10.326 E3.04484
G1 X-54.301 Y10.246 E3.07145
G1 X-54.858 Y10.209 E3.09173
G1 X-55.55 Y10.192 E3.11688
G1 X-56.256 Y10.209 E3.14254
G1 X-56.807 Y10.245 E3.16261
G1 X-57.58 Y10.329 E3.19086
G1 X-58.165 Y10.418 E3.21236
G1 X-58.778 Y10.538 E3.23506
G1 X-59.383 Y10.688 E3.2577
G1 X-60.04 Y10.879 E3.28257
G1 X-60.7 Y11.103 E3.30789
G1 X-61.29 Y11.333 E3.3309
G1 X-61.932 Y11.618 E3.35642
G1 X-62.434 Y11.863 E3.37672
G1 X-63.088 Y12.222 E3.40383
G1 X-63.609 Y12.54 E3.426
G1 X-64.915 Y13.396 E3.48274
G1 X-65.572 Y13.766 E3.51014
G1 X-66.241 Y14.095 E3.53723
G1 X-66.895 Y14.371 E3.56302
G1 X-67.752 Y14.666 E3.59595
G1 X-68.474 Y14.869 E3.6232
G1 X-69.147 Y15.018 E3.64825
G1 X-70.065 Y15.158 E3.68199
G1 X-70.84 Y15.23 E3.71027
G1 X-71.616 Y15.253 E3.73848
G1 X-72.384 Y15.232 E3.7664
G1 X-73.02 Y15.178 E3.78959
G1 X-73.938 Y15.045 E3.82329
G1 X-74.591 Y14.908 E3.84754
G1 X-75.462 Y14.669 E3.88035
G1 X-76.101 Y14.452 E3.90487
G1 X-76.929 Y14.111 E3.93741
G1 X-77.631 Y13.771 E3.96575
G1 X-78.307 Y13.393 E3.99389
G1 X-78.96 Y12.977 E4.02203
G1 X-79.456 Y12.62 E4.04423
G1 X-80.206 Y12.002 E4.07954
G1 X-80.758 Y11.488 E4.10695
G1 X-81.305 Y10.91 E4.13586
G1 X-81.808 Y10.31 E4.16431
G1 X-82.285 Y9.667 E4.1934
G1 X-82.715 Y9.013 E4.22184
G1 X-83.022 Y8.48 E4.24419
G1 X-83.443 Y7.635 E4.27849
G1 X-83.68 Y7.082 E4.30035
G1 X-83.985 Y6.225 E4.33341
G1 X-84.218 Y5.406 E4.36434
G1 X-84.377 Y4.689 E4.39103
G1 X-84.507 Y3.849 E4.42191
G1 X-84.582 Y3.069 E4.45039
G1 X-84.607 Y2.3 E4.47834
G1 X-84.589 Y1.521 E4.50666
G1 X-84.528 Y0.81 E4.53258
G1 X-84.405 Y-0.029 E4.5634
G1 X-84.272 Y-.683 E4.58765
G1 X-84.035 Y-1.56 E4.62065
G1 X-83.784 Y-2.307 E4.64929
G1 X-83.51 Y-2.979 E4.67566
G1 X-83.206 Y-3.621 E4.70147
G1 X-82.772 Y-4.41 E4.73419
G1 X-82.431 Y-4.952 E4.75745
G1 X-81.889 Y-5.703 E4.7911
G1 X-81.487 Y-6.198 E4.81427
G1 X-80.958 Y-6.778 E4.8428
G1 X-80.28 Y-7.429 E4.87695
G1 X-79.675 Y-7.941 E4.90575
G1 X-79.083 Y-8.382 E4.93257
G1 X-78.435 Y-8.811 E4.96081
G1 X-77.822 Y-9.166 E4.98655
G1 X-76.539 Y-9.806 E5.03864
G1 X-75.904 Y-10.154 E5.06495
G1 X-75.386 Y-10.47 E5.087
G1 X-74.833 Y-10.841 E5.1112
G1 X-74.311 Y-11.227 E5.13479
G1 X-73.759 Y-11.67 E5.1605
G1 X-73.283 Y-12.089 E5.18355
G1 X-72.82 Y-12.535 E5.2069
G1 X-72.418 Y-12.956 E5.22806
G1 X-71.934 Y-13.508 E5.25473
G1 X-71.512 Y-14.036 E5.27929
G1 X-71.168 Y-14.505 E5.30042
G1 X-70.765 Y-15.109 E5.32681
G1 X-70.484 Y-15.578 E5.34667
G1 X-70.114 Y-16.251 E5.37458
G1 X-69.827 Y-16.833 E5.39816
G1 X-69.599 Y-17.354 E5.41882
G1 X-69.326 Y-18.056 E5.44619
G1 X-69.141 Y-18.609 E5.46738
G1 X-68.938 Y-19.303 E5.49365
G1 X-67.547 Y-24.501 E5.68916
G1 X-67.364 Y-25.248 E5.71711
G1 X-67.254 Y-25.801 E5.7376
G1 X-67.155 Y-26.46 E5.76181
G1 X-67.077 Y-27.186 E5.78834
G1 X-67.04 Y-27.746 E5.80873
G1 X-67.024 Y-28.495 E5.83595
G1 X-67.041 Y-29.156 E5.85998
G1 X-67.079 Y-29.706 E5.88001
G1 X-67.162 Y-30.466 E5.90779
G1 X-67.247 Y-31.031 E5.92855
G1 X-67.37 Y-31.649 E5.95145
G1 X-67.526 Y-32.275 E5.97489
G1 X-67.747 Y-33.028 E6.0034
G1 X-67.942 Y-33.598 E6.02529
G1 X-68.164 Y-34.161 E6.04728
G1 X-68.454 Y-34.818 E6.07337
G1 X-68.728 Y-35.366 E6.09564
G1 X-69.362 Y-36.534 E6.14392
G1 X-69.712 Y-37.319 E6.17515
G1 X-69.97 Y-38.033 E6.20274
G1 X-70.134 Y-38.611 E6.22457
G1 X-70.311 Y-39.459 E6.25605
G1 X-70.407 Y-40.17 E6.28211
G1 X-70.456 Y-40.929 E6.30975
G1 X-70.458 Y-41.46 E6.32904
G1 X-70.394 Y-42.396 E6.36313
G1 X-70.293 Y-43.096 E6.38883
G1 X-70.18 Y-43.637 E6.40891
G1 X-69.971 Y-44.382 E6.43703
G1 X-69.702 Y-45.131 E6.46594
G1 X-69.353 Y-45.913 E6.49706
G1 X-69.1 Y-46.386 E6.51655
G1 X-68.654 Y-47.103 E6.54723
G1 X-68.183 Y-47.744 E6.57613
G1 X-67.698 Y-48.313 E6.6033
G1 X-67.325 Y-48.7 E6.62283
G1 X-66.786 Y-49.191 E6.64932
G1 X-66.068 Y-49.752 E6.68243
G1 X-65.437 Y-50.175 E6.71003
G1 X-64.965 Y-50.447 E6.72983
G1 X-64.213 Y-50.813 E6.76021
G1 X-63.451 Y-51.117 E6.79002
G1 X-62.822 Y-51.317 E6.814
G1 X-62.127 Y-51.487 E6.84
G1 X-61.295 Y-51.626 E6.87065
G1 X-60.526 Y-51.697 E6.89871
G1 X-59.387 Y-51.707 E6.9401
G1 X-58.556 Y-51.62 E6.97046
G1 X-57.661 Y-51.46 E7.00349
G1 X-57.14 Y-51.328 E7.02302
G1 X-56.287 Y-51.051 E7.05561
G1 X-55.711 Y-50.817 E7.0782
G1 X-55.098 Y-50.52 E7.10295
G1 X-54.3 Y-50.06 E7.13642
G1 X-53.866 Y-49.767 E7.15544
G1 X-53.188 Y-49.237 E7.18671
G1 X-52.642 Y-48.741 E7.21352
G1 X-52.107 Y-48.185 E7.24155
G1 X-51.686 Y-47.678 E7.2655
G1 X-51.242 Y-47.066 E7.29297
G1 X-50.493 Y-45.847 E7.34496
G1 X-50.191 Y-45.393 E7.36477
G1 X-49.742 Y-44.78 E7.39238
G1 X-49.381 Y-44.328 E7.4134
G1 X-48.913 Y-43.793 E7.43922
G1 X-48.489 Y-43.348 E7.46156
G1 X-47.966 Y-42.848 E7.48785
G1 X-47.52 Y-42.46 E7.50933
G1 X-46.962 Y-42.011 E7.53535
G1 X-46.477 Y-41.652 E7.55727
G1 X-45.901 Y-41.264 E7.58251
G1 X-45.376 Y-40.948 E7.60477
G1 X-44.808 Y-40.636 E7.62832
G1 X-44.182 Y-40.328 E7.65367
G1 X-43.642 Y-40.089 E7.67513
G1 X-42.989 Y-39.834 E7.7006
G1 X-42.316 Y-39.605 E7.72643
G1 X-41.678 Y-39.42 E7.75057
G1 X-36.495 Y-38.035 E7.9455
G1 X-35.722 Y-37.846 E7.97441
G1 X-35.186 Y-37.739 E7.99427
G1 X-34.529 Y-37.64 E8.01841
G1 X-33.802 Y-37.56 E8.04499
G1 X-33.244 Y-37.523 E8.06531
G1 X-32.552 Y-37.506 E8.09046
G1 X-31.846 Y-37.523 E8.11612
G1 X-31.295 Y-37.559 E8.13618
G1 X-30.522 Y-37.643 E8.16444
G1 X-29.938 Y-37.731 E8.18589
G1 X-29.325 Y-37.851 E8.20859
G1 X-28.713 Y-38.002 E8.23149
G1 X-28.072 Y-38.189 E8.25576
G1 X-27.398 Y-38.419 E8.28163
G1 X-26.802 Y-38.652 E8.30488
G1 X-26.176 Y-38.93 E8.32977
G1 X-25.601 Y-39.211 E8.35303
G1 X-25.044 Y-39.518 E8.37614
G1 X-24.481 Y-39.862 E8.40011
G1 X-23.187 Y-40.71 E8.45632
G1 X-22.53 Y-41.08 E8.48372
G1 X-21.861 Y-41.409 E8.51081
G1 X-21.233 Y-41.674 E8.53558
G1 X-20.396 Y-41.967 E8.5678
G1 X-19.65 Y-42.177 E8.59596
G1 X-18.932 Y-42.336 E8.62268
G1 X-18.037 Y-42.472 E8.65557
G1 X-17.262 Y-42.544 E8.68385
G1 X-16.486 Y-42.567 E8.71206
G1 X-15.719 Y-42.546 E8.73994
G1 X-15.083 Y-42.492 E8.76313
G1 X-14.188 Y-42.363 E8.79599
G1 X-13.487 Y-42.216 E8.82201
G1 X-12.643 Y-41.983 E8.85383
G1 X-11.978 Y-41.757 E8.87935
G1 X-11.173 Y-41.425 E8.91099
G1 X-10.471 Y-41.085 E8.93933
G1 X-9.797 Y-40.708 E8.96739
G1 X-9.202 Y-40.33 E8.993
G1 X-8.576 Y-39.879 E9.02103
G1 X-7.898 Y-39.318 E9.05301
G1 X-7.364 Y-38.82 E9.07954
G1 X-6.786 Y-38.211 E9.11005
G1 X-6.323 Y-37.663 E9.13612
G1 X-5.818 Y-36.981 E9.16695
G1 X-5.378 Y-36.311 E9.19607
G1 X-5.08 Y-35.794 E9.21776
G1 X-4.676 Y-34.977 E9.25087
G1 X-4.364 Y-34.238 E9.28002
G1 X-4.117 Y-33.54 E9.30692
G1 X-3.89 Y-32.741 E9.3371
G1 X-3.721 Y-31.977 E9.36553
G1 X-3.595 Y-31.164 E9.39543
G1 X-3.52 Y-30.384 E9.4239
G1 X-3.495 Y-29.608 E9.45211
G1 X-3.514 Y-28.838 E9.4801
G1 X-3.574 Y-28.126 E9.50606
G1 X-3.697 Y-27.28 E9.53712
G1 X-3.825 Y-26.653 E9.56037
G1 X-4.068 Y-25.754 E9.59421
G1 X-4.319 Y-25.005 E9.62291
G1 X-4.584 Y-24.353 E9.64849
G1 X-4.929 Y-23.626 E9.67773
G1 X-5.271 Y-23.004 E9.70352
G1 X-5.756 Y-22.236 E9.73652
G1 X-6.115 Y-21.737 E9.75886
G1 X-6.717 Y-21.003 E9.79335
G1 X-7.234 Y-20.445 E9.82099
G1 X-7.784 Y-19.917 E9.84869
G1 X-8.427 Y-19.373 E9.87929
G1 X-9.019 Y-18.932 E9.90612
G1 X-9.668 Y-18.503 E9.93438
G1 X-10.324 Y-18.124 E9.96191
G1 X-11.53 Y-17.522 E10.01089
G1 X-12.216 Y-17.145 E10.03933
G1 X-12.76 Y-16.814 E10.06247
G1 X-13.224 Y-16.501 E10.0828
G1 X-13.835 Y-16.053 E10.11033
G1 X-14.279 Y-15.698 E10.13099
G1 X-14.813 Y-15.229 E10.15681
G1 X-15.271 Y-14.79 E10.17986
G1 X-15.728 Y-14.31 E10.20395
G1 X-16.19 Y-13.782 E10.22944
G1 X-16.544 Y-13.34 E10.25001
G1 X-16.942 Y-12.799 E10.27442
G1 X-17.301 Y-12.261 E10.29792
G1 X-17.664 Y-11.663 E10.32334
G1 X-17.98 Y-11.085 E10.34727
G1 X-18.233 Y-10.574 E10.36799
G1 X-18.536 Y-9.88 E10.39551
G1 X-18.78 Y-9.25 E10.42005
G1 X-18.98 Y-8.655 E10.44286
G1 X-19.164 Y-8.017 E10.46699
G1 X-20.378 Y-3.473 E10.63789
G0 F1080 X-20.549 Y-2.831
G0 F4500 X-20.938 Y-2.926
G1 F1200 X-21.129 Y-2.143 E10.66717
G1 X-21.24 Y-1.586 E10.68781
G1 X-21.347 Y-.875 E10.71393
G1 X-21.424 Y-.167 E10.73981
G1 X-21.462 Y0.402 E10.76053
G1 X-21.479 Y1.159 E10.78804
G1 X-21.461 Y1.84 E10.81279
G1 X-21.422 Y2.427 E10.83417
G1 X-21.343 Y3.153 E10.86071
G1 X-21.249 Y3.782 E10.88381
G1 X-21.126 Y4.41 E10.90707
G1 X-20.962 Y5.072 E10.93185
G1 X-20.749 Y5.804 E10.95955
G1 X-20.541 Y6.411 E10.98286
G1 X-20.311 Y6.998 E11.00577
G1 X-20.043 Y7.607 E11.02994
G1 X-19.732 Y8.23 E11.05525
G1 X-19.106 Y9.383 E11.10292
G1 X-18.768 Y10.141 E11.13307
G1 X-18.527 Y10.81 E11.15891
G1 X-18.326 Y11.528 E11.186
G1 X-18.213 Y12.048 E11.20534
G1 X-18.09 Y12.937 E11.23795
G1 X-18.046 Y13.624 E11.26296
G1 X-18.045 Y14.16 E11.28243
G1 X-18.091 Y14.882 E11.30872
G1 X-18.211 Y15.741 E11.34024
G1 X-18.347 Y16.36 E11.36326
G1 X-18.711 Y17.542 E11.4082
G1 X-19.096 Y18.396 E11.44224
G1 X-19.375 Y18.918 E11.46375
G1 X-19.736 Y19.501 E11.48866
G1 X-20.22 Y20.167 E11.51858
G1 X-20.641 Y20.664 E11.54224
G1 X-21.129 Y21.167 E11.56771
G1 X-21.585 Y21.581 E11.59009
G1 X-22.257 Y22.106 E11.62107
G1 X-22.866 Y22.514 E11.64771
G1 X-23.338 Y22.786 E11.6675
G1 X-24.039 Y23.128 E11.69584
G1 X-24.774 Y23.422 E11.7246
G1 X-25.403 Y23.622 E11.74859
G1 X-26.044 Y23.779 E11.77257
G1 X-26.845 Y23.914 E11.80208
G1 X-27.581 Y23.983 E11.82894
G1 X-28.673 Y23.995 E11.86862
G1 X-29.505 Y23.908 E11.89902
G1 X-30.344 Y23.758 E11.92998
G1 X-30.864 Y23.626 E11.94948
G1 X-31.692 Y23.357 E11.98111
G1 X-32.191 Y23.154 E12.00069
G1 X-32.842 Y22.839 E12.02696
G1 X-33.555 Y22.428 E12.05687
G1 X-34.013 Y22.119 E12.07694
G1 X-34.667 Y21.607 E12.10712
G1 X-35.236 Y21.089 E12.13508
G1 X-35.64 Y20.667 E12.15631
G1 X-36.153 Y20.052 E12.18541
G1 X-36.524 Y19.535 E12.20853
G1 X-37.237 Y18.376 E12.25797
G1 X-37.643 Y17.763 E12.28469
G1 X-38.018 Y17.252 E12.30772
G1 X-38.45 Y16.715 E12.33276
G1 X-38.926 Y16.173 E12.35897
G1 X-39.317 Y15.764 E12.37953
G1 X-39.873 Y15.232 E12.40749
G1 X-40.361 Y14.806 E12.43102
G1 X-40.865 Y14.4 E12.45454
G1 X-41.437 Y13.979 E12.48035
G1 X-41.936 Y13.645 E12.50216
G1 X-42.535 Y13.283 E12.52759
G1 X-43.11 Y12.967 E12.55143
G1 X-43.766 Y12.643 E12.57802
G1 X-44.308 Y12.406 E12.59951
G1 X-45.002 Y12.135 E12.62658
G1 X-45.646 Y11.916 E12.6513
G1 X-46.314 Y11.722 E12.67657
G1 X-51.512 Y10.332 E12.87208
G1 X-52.286 Y10.143 E12.90103
G1 X-52.856 Y10.029 E12.92215
G1 X-53.519 Y9.929 E12.94651
G1 X-54.257 Y9.848 E12.97349
G1 X-54.847 Y9.809 E12.99497
G1 X-55.549 Y9.792 E13.02049
G1 X-56.268 Y9.809 E13.04662
G1 X-56.85 Y9.847 E13.06781
G1 X-57.623 Y9.931 E13.09607
G1 X-58.242 Y10.025 E13.11881
G1 X-58.855 Y10.145 E13.14151
G1 X-59.495 Y10.304 E13.16547
G1 X-60.169 Y10.5 E13.19098
G1 X-60.834 Y10.726 E13.2165
G1 X-61.445 Y10.964 E13.24032
G1 X-62.094 Y11.252 E13.26612
G1 X-62.626 Y11.512 E13.28764
G1 X-63.286 Y11.874 E13.31499
G1 X-63.818 Y12.199 E13.33764
G1 X-65.112 Y13.048 E13.39387
G1 X-65.748 Y13.407 E13.42041
G1 X-66.397 Y13.726 E13.44669
G1 X-67.051 Y14.002 E13.47248
G1 X-67.86 Y14.281 E13.50357
G1 X-68.56 Y14.478 E13.53
G1 X-69.233 Y14.627 E13.55504
G1 X-70.102 Y14.76 E13.58698
G1 X-70.852 Y14.83 E13.61435
G1 X-71.605 Y14.853 E13.64173
G1 X-72.35 Y14.833 E13.66881
G1 X-72.986 Y14.779 E13.692
G1 X-73.856 Y14.653 E13.72394
G1 X-74.485 Y14.522 E13.74728
G1 X-75.333 Y14.29 E13.77923
G1 X-75.972 Y14.073 E13.80375
G1 X-76.755 Y13.751 E13.83451
G1 X-77.436 Y13.422 E13.86199
G1 X-78.092 Y13.056 E13.88929
G1 X-78.726 Y12.652 E13.9166
G1 X-79.222 Y12.295 E13.93881
G1 X-79.933 Y11.709 E13.97229
G1 X-80.485 Y11.195 E13.99969
G1 X-80.999 Y10.653 E14.02683
G1 X-81.487 Y10.072 E14.0544
G1 X-81.951 Y9.447 E14.08268
G1 X-82.368 Y8.813 E14.11026
G1 X-82.675 Y8.28 E14.13261
G1 X-83.075 Y7.477 E14.1652
G1 X-83.312 Y6.924 E14.18706
G1 X-83.6 Y6.115 E14.21827
G1 X-83.827 Y5.319 E14.24834
G1 X-83.986 Y4.602 E14.27503
G1 X-84.109 Y3.81 E14.30415
G1 X-84.182 Y3.056 E14.33167
G1 X-84.207 Y2.309 E14.35883
G1 X-84.19 Y1.555 E14.38624
G1 X-84.132 Y0.868 E14.41129
G1 X-84.013 Y0.051 E14.44129
G1 X-83.88 Y-.603 E14.46553
G1 X-83.656 Y-1.433 E14.49677
G1 X-83.413 Y-2.156 E14.52449
G1 X-83.148 Y-2.808 E14.55006
G1 X-82.844 Y-3.45 E14.57587
G1 X-82.433 Y-4.197 E14.60685
G1 X-82.092 Y-4.739 E14.63011
G1 X-81.578 Y-5.451 E14.66202
G1 X-81.191 Y-5.928 E14.68434
G1 X-80.662 Y-6.508 E14.71286
G1 X-80.022 Y-7.124 E14.74514
G1 X-79.436 Y-7.62 E14.77304
G1 X-78.862 Y-8.048 E14.79905
G1 X-78.214 Y-8.477 E14.82729
