;FLAVOR:Marlin
;TIME:1522
;Filament used: 0.334038m
;Layer height: 0.1
;MINX:-50.233
;MINY:-45.212
;MINZ:0.2
;MAXX:12.783
;MAXY:45.212
;MAXZ:11
;Generated with Cura_SteamEngine 4.13.1
M140 S60
M105
M190 S60
M104 S210
M105
M109 S210
M82 ;absolute extrusion mode
;FLAVOR:Marlin
M82 ;absolute extrusion mode
G21
G90
M82
M107 T0
G28
G92 E0
G0 E3 F200
G92 E0 ; reset extrusion distance
M106 S255 ; Enable cooling fan full speed
G1 X-98 Y0 Z0.4 F3000 ; move to arc start
G3 X0 Y-98 I98 Z0.4 E40 F400 ; lay arc stripe 90deg
G92 E0 ; reset extrusion distance
G4 P500 ; wait for 0.5 sec
G0 Z10 E-1 ; Lift 15mm and retract 1mm filament
G4 P2000 ; wait for 5 sec
G0 Z15
M107 ; Disable cooling fan
G1 X0 Y-85 Z4 E0 F3000 ; get off the bed
G92 E0
G92 E0
G1 F1500 E-6.5
;LAYER_COUNT:59
;LAYER:0
M107
G0 F3600 X-34.719 Y-4.276 Z0.2
;TYPE:SKIRT
G1 F1500 E0.12473
G1 F1800 X-34.788 Y-3.746 E0.1425
G1 X-34.891 Y-3.222 E0.16026
G1 X-35.048 Y-2.646 E0.18012
G1 X-35.235 Y-2.122 E0.19863
G1 X-35.457 Y-1.616 E0.217
G1 X-35.718 Y-1.121 E0.23562
G1 X-36.001 Y-.664 E0.25349
G1 X-36.331 Y-.208 E0.27222
G1 X-36.686 Y0.215 E0.29058
G1 X-37.079 Y0.62 E0.30935
G1 X-37.48 Y0.98 E0.32728
G1 X-37.936 Y1.332 E0.34644
G1 X-38.475 Y1.684 E0.36785
G1 X-39.114 Y2.027 E0.39197
G1 X-39.627 Y2.249 E0.41056
G1 X-40.238 Y2.46 E0.43206
G1 X-40.956 Y2.637 E0.45666
G1 X-41.513 Y2.726 E0.47542
G1 X-42.066 Y2.774 E0.49388
G1 X-42.605 Y2.783 E0.51181
G1 X-43.169 Y2.752 E0.5306
G1 X-43.711 Y2.683 E0.54877
G1 X-44.242 Y2.577 E0.56678
G1 X-44.804 Y2.423 E0.58616
G1 X-45.335 Y2.233 E0.60492
G1 X-45.823 Y2.019 E0.62264
G1 X-46.339 Y1.747 E0.64204
G1 X-46.78 Y1.474 E0.65929
G1 X-47.245 Y1.138 E0.67837
G1 X-47.665 Y0.785 E0.69662
G1 X-48.07 Y0.392 E0.71539
G1 X-48.43 Y-0.009 E0.73331
G1 X-48.781 Y-.463 E0.7524
G1 X-49.065 Y-.891 E0.76948
G1 X-49.347 Y-1.384 E0.78837
G1 X-49.588 Y-1.888 E0.80696
G1 X-49.792 Y-2.407 E0.8255
G1 X-49.961 Y-2.948 E0.84435
G1 X-50.09 Y-3.504 E0.86334
G1 X-50.173 Y-4.021 E0.88075
G1 X-50.224 Y-4.595 E0.89992
G1 X-50.233 Y-5.14 E0.91805
G1 X-50.202 Y-5.704 E0.93684
G1 X-50.129 Y-6.258 E0.95542
G1 X-50.025 Y-6.778 E0.97306
G1 X-49.877 Y-7.32 E0.99175
G1 X-49.683 Y-7.864 E1.01096
G1 X-49.464 Y-8.363 E1.02908
G1 X-49.151 Y-8.947 E1.05112
G1 X-48.761 Y-9.542 E1.07478
G1 X-48.415 Y-9.987 E1.09353
G1 X-47.99 Y-10.453 E1.11451
G1 X-47.434 Y-10.964 E1.13962
G1 X-46.996 Y-11.303 E1.15804
G1 X-46.542 Y-11.605 E1.17618
G1 X-46.059 Y-11.88 E1.19467
G1 X-45.594 Y-12.103 E1.21182
G1 X-45.065 Y-12.313 E1.23075
G1 X-44.497 Y-12.491 E1.25055
G1 X-43.965 Y-12.616 E1.26872
G1 X-43.408 Y-12.705 E1.28748
G1 X-42.855 Y-12.753 E1.30595
G1 X-42.315 Y-12.762 E1.32391
G1 X-41.751 Y-12.731 E1.3427
G1 X-41.185 Y-12.657 E1.36168
G1 X-40.662 Y-12.552 E1.37942
G1 X-40.136 Y-12.408 E1.39756
G1 X-39.582 Y-12.211 E1.41712
G1 X-39.098 Y-11.999 E1.43469
G1 X-38.589 Y-11.73 E1.45384
G1 X-38.143 Y-11.454 E1.47129
G1 X-37.671 Y-11.112 E1.49067
G1 X-37.265 Y-10.772 E1.50829
G1 X-36.852 Y-10.372 E1.52741
G1 X-36.492 Y-9.971 E1.54533
G1 X-36.136 Y-9.509 E1.56473
G1 X-35.836 Y-9.056 E1.5828
G1 X-35.573 Y-8.594 E1.60048
G1 X-35.326 Y-8.076 E1.61957
G1 X-35.128 Y-7.572 E1.63758
G1 X-34.958 Y-7.022 E1.65673
G1 X-34.834 Y-6.494 E1.67477
G1 X-34.745 Y-5.94 E1.69343
G1 X-34.697 Y-5.387 E1.71189
G1 X-34.691 Y-5.076 E1.72224
G0 F1620 X-34.688 Y-4.84
G0 X-34.719 Y-4.276
G0 F3600 X-35.146 Y-4.053
G1 F1800 X-35.282 Y-3.304 E1.74756
G1 X-35.432 Y-2.76 E1.76633
G1 X-35.609 Y-2.263 E1.78387
G1 X-35.82 Y-1.783 E1.80131
G1 X-36.068 Y-1.314 E1.81896
G1 X-36.338 Y-.88 E1.83596
G1 X-36.651 Y-.448 E1.8537
G1 X-36.988 Y-0.048 E1.8711
G1 X-37.361 Y0.336 E1.8889
G1 X-37.743 Y0.678 E1.90596
G1 X-38.174 Y1.01 E1.92405
G1 X-38.676 Y1.339 E1.94401
G1 X-39.292 Y1.669 E1.96726
G1 X-39.779 Y1.879 E1.9849
G1 X-40.347 Y2.075 E2.00488
G1 X-41.041 Y2.246 E2.02865
G1 X-41.569 Y2.33 E2.04644
G1 X-42.093 Y2.375 E2.06393
G1 X-42.605 Y2.383 E2.08096
G1 X-43.14 Y2.353 E2.09878
G1 X-43.653 Y2.287 E2.11599
G1 X-44.159 Y2.186 E2.13315
G1 X-44.69 Y2.039 E2.15147
G1 X-45.193 Y1.859 E2.16924
G1 X-45.658 Y1.655 E2.18613
G1 X-46.145 Y1.397 E2.20446
G1 X-46.781 Y0.987 E2.22963
G1 X-47.188 Y0.669 E2.24681
G1 X-47.582 Y0.315 E2.26442
G1 X-47.942 Y-0.058 E2.28167
G1 X-48.294 Y-.478 E2.29989
G1 X-48.589 Y-.889 E2.31672
G1 X-48.997 Y-1.577 E2.34332
G1 X-49.224 Y-2.053 E2.36086
G1 X-49.417 Y-2.547 E2.3785
G1 X-49.577 Y-3.061 E2.39641
G1 X-49.699 Y-3.587 E2.41437
G1 X-49.805 Y-4.333 E2.43943
G1 X-49.833 Y-4.857 E2.45688
G1 X-49.824 Y-5.392 E2.47468
G1 X-49.775 Y-5.924 E2.49245
G1 X-49.634 Y-6.693 E2.51845
G1 X-49.493 Y-7.207 E2.53618
G1 X-49.309 Y-7.723 E2.5544
G1 X-49.101 Y-8.196 E2.57159
G1 X-48.809 Y-8.739 E2.59209
G1 X-48.432 Y-9.314 E2.61496
G1 X-48.104 Y-9.735 E2.63271
G1 X-47.709 Y-10.169 E2.65223
G1 X-47.173 Y-10.661 E2.67643
G1 X-46.757 Y-10.982 E2.6939
G1 X-46.326 Y-11.268 E2.71111
G1 X-45.867 Y-11.529 E2.72867
G1 X-45.23 Y-11.822 E2.75199
G1 X-44.663 Y-12.026 E2.77203
G1 X-44.156 Y-12.165 E2.78952
G1 X-43.63 Y-12.27 E2.80736
G1 X-43.116 Y-12.334 E2.82459
G1 X-42.592 Y-12.362 E2.84204
G1 X-42.315 Y-12.362 E2.85125
G1 X-41.78 Y-12.332 E2.86907
G1 X-41.244 Y-12.262 E2.88705
G1 X-40.747 Y-12.161 E2.90392
G1 X-40.247 Y-12.024 E2.92116
G1 X-39.724 Y-11.837 E2.93964
G1 X-39.265 Y-11.635 E2.95632
G1 X-38.782 Y-11.38 E2.97448
G1 X-38.139 Y-10.964 E2.99996
G1 X-37.74 Y-10.654 E3.01676
G1 X-37.34 Y-10.295 E3.03464
G1 X-36.98 Y-9.922 E3.05188
G1 X-36.624 Y-9.497 E3.07032
G1 X-36.329 Y-9.084 E3.0872
G1 X-36.058 Y-8.646 E3.10433
G1 X-35.808 Y-8.169 E3.12224
G1 X-35.602 Y-7.697 E3.13937
G1 X-35.423 Y-7.19 E3.15725
G1 X-35.285 Y-6.685 E3.17467
G1 X-35.18 Y-6.161 E3.19244
G1 X-35.116 Y-5.646 E3.2097
G1 X-35.088 Y-5.123 E3.22712
G1 X-35.093 Y-4.851 E3.23617
G0 F1620 X-35.097 Y-4.59
G0 X-35.146 Y-4.053
G0 F3600 X-35.542 Y-4.112
G1 F1800 X-35.674 Y-3.386 E3.26071
G1 X-35.815 Y-2.873 E3.27841
G1 X-36.066 Y-2.207 E3.30208
G1 X-36.282 Y-1.756 E3.31871
G1 X-36.674 Y-1.096 E3.34424
G1 X-36.971 Y-.689 E3.361
G1 X-37.438 Y-.151 E3.3847
G1 X-38.005 Y0.376 E3.41044
G1 X-38.412 Y0.689 E3.42752
G1 X-38.877 Y0.993 E3.446
G1 X-39.471 Y1.311 E3.46841
G1 X-39.932 Y1.51 E3.48511
G1 X-40.456 Y1.69 E3.50354
G1 X-41.126 Y1.856 E3.52649
G1 X-41.624 Y1.934 E3.54326
G1 X-42.329 Y1.983 E3.56676
G1 X-43.111 Y1.954 E3.59279
G1 X-43.785 Y1.857 E3.61544
G1 X-44.3 Y1.738 E3.63302
G1 X-44.788 Y1.584 E3.65004
G1 X-45.492 Y1.291 E3.6754
G1 X-45.951 Y1.047 E3.69269
G1 X-46.54 Y0.667 E3.71601
G1 X-47.14 Y0.181 E3.74169
G1 X-47.503 Y-.172 E3.75853
G1 X-47.972 Y-.716 E3.78242
G1 X-48.392 Y-1.323 E3.80697
G1 X-48.646 Y-1.77 E3.82407
G1 X-48.939 Y-2.409 E3.84745
G1 X-49.112 Y-2.896 E3.86464
G1 X-49.249 Y-3.392 E3.88175
G1 X-49.382 Y-4.136 E3.90689
G1 X-49.426 Y-4.65 E3.92405
G1 X-49.425 Y-5.362 E3.94773
G1 X-49.379 Y-5.865 E3.96453
G1 X-49.243 Y-6.609 E3.98968
G1 X-49.109 Y-7.095 E4.00645
G1 X-48.935 Y-7.581 E4.02362
G1 X-48.646 Y-8.212 E4.04671
G1 X-48.36 Y-8.708 E4.06575
G1 X-47.968 Y-9.268 E4.08848
G1 X-47.526 Y-9.783 E4.11106
G1 X-47.125 Y-10.174 E4.12968
G1 X-46.518 Y-10.661 E4.15557
G1 X-45.933 Y-11.037 E4.1787
G1 X-45.475 Y-11.278 E4.19591
G1 X-44.78 Y-11.565 E4.22092
G1 X-44.273 Y-11.723 E4.23858
G1 X-43.575 Y-11.874 E4.26234
G1 X-42.8 Y-11.955 E4.28825
G1 X-42.315 Y-11.962 E4.30439
G1 X-41.809 Y-11.933 E4.32124
G1 X-41.304 Y-11.866 E4.33819
G1 X-40.634 Y-11.72 E4.36099
G1 X-40.132 Y-11.564 E4.37848
G1 X-39.431 Y-11.271 E4.40375
G1 X-38.975 Y-11.029 E4.42092
G1 X-38.38 Y-10.645 E4.44447
G1 X-37.788 Y-10.167 E4.46978
G1 X-37.419 Y-9.808 E4.4869
G1 X-36.946 Y-9.259 E4.511
G1 X-36.51 Y-8.625 E4.5366
G1 X-36.172 Y-8.004 E4.56011
G1 X-35.878 Y-7.292 E4.58573
G1 X-35.726 Y-6.799 E4.60289
G1 X-35.576 Y-6.105 E4.62651
G1 X-35.495 Y-5.332 E4.65236
G1 X-35.496 Y-4.91 E4.66639
G0 F1620 X-35.496 Y-4.62
G0 X-35.542 Y-4.112
G0 F3600 X-35.895 Y-4.649
G1 F1800 X-35.974 Y-3.923 E4.69068
G1 X-36.117 Y-3.264 E4.71311
G1 X-36.358 Y-2.544 E4.73836
G1 X-36.632 Y-1.949 E4.76015
G1 X-37.011 Y-1.313 E4.78478
G1 X-37.406 Y-.786 E4.80668
G1 X-37.925 Y-.231 E4.83195
G1 X-38.427 Y0.202 E4.854
G1 X-38.973 Y0.583 E4.87615
G1 X-39.65 Y0.954 E4.90182
G1 X-40.234 Y1.196 E4.92285
G1 X-40.78 Y1.366 E4.94187
G1 X-41.402 Y1.499 E4.96303
G1 X-42.149 Y1.577 E4.98801
G1 X-42.794 Y1.576 E5.00946
G1 X-43.537 Y1.495 E5.03432
G1 X-44.186 Y1.354 E5.05641
G1 X-44.91 Y1.11 E5.08182
G1 X-45.508 Y0.835 E5.10371
G1 X-46.134 Y0.462 E5.12795
G1 X-46.664 Y0.065 E5.14997
G1 X-47.219 Y-.454 E5.17524
G1 X-47.651 Y-.954 E5.19722
G1 X-48.056 Y-1.539 E5.22089
G1 X-48.386 Y-2.142 E5.24375
G1 X-48.668 Y-2.827 E5.26839
G1 X-48.857 Y-3.475 E5.29084
G1 X-48.986 Y-4.194 E5.31513
G1 X-49.033 Y-4.857 E5.33724
G1 X-49.005 Y-5.615 E5.36247
G1 X-48.912 Y-6.247 E5.38372
G1 X-48.725 Y-6.983 E5.40897
G1 X-48.492 Y-7.605 E5.43107
G1 X-48.19 Y-8.211 E5.45359
G1 X-47.775 Y-8.859 E5.47918
G1 X-47.373 Y-9.357 E5.50047
G1 X-46.99 Y-9.754 E5.51881
G1 X-46.503 Y-10.173 E5.54018
G1 X-45.894 Y-10.595 E5.56482
G1 X-45.31 Y-10.914 E5.58696
G1 X-44.638 Y-11.192 E5.61114
G1 X-43.986 Y-11.384 E5.63375
G1 X-43.241 Y-11.517 E5.65892
G1 X-42.592 Y-11.562 E5.68056
G1 X-42.315 Y-11.562 E5.68977
G1 X-41.644 Y-11.512 E5.71215
G1 X-40.918 Y-11.379 E5.7367
G1 X-40.274 Y-11.19 E5.75902
G1 X-39.597 Y-10.907 E5.78343
G1 X-39.022 Y-10.592 E5.80523
G1 X-38.395 Y-10.155 E5.83065
G1 X-37.907 Y-9.731 E5.85216
G1 X-37.398 Y-9.184 E5.87701
G1 X-37.003 Y-8.654 E5.89899
G1 X-36.625 Y-8.017 E5.92363
G1 X-36.351 Y-7.417 E5.94557
G1 X-36.11 Y-6.688 E5.9711
G1 X-35.972 Y-6.049 E5.99285
G1 X-35.909 Y-5.448 E6.01295
G0 F1620 X-35.894 Y-5.304
G0 X-35.895 Y-4.649
G0 F3600 X-36.294 Y-4.678
G1 F1800 X-36.37 Y-3.982 E6.03623
G1 X-36.5 Y-3.378 E6.05678
G1 X-36.733 Y-2.685 E6.0811
G1 X-36.982 Y-2.141 E6.101
G1 X-37.347 Y-1.529 E6.1247
G1 X-37.708 Y-1.049 E6.14467
G1 X-38.207 Y-.515 E6.16898
G1 X-38.664 Y-.119 E6.1891
G1 X-39.19 Y0.247 E6.21041
G1 X-39.829 Y0.596 E6.23463
G1 X-40.363 Y0.818 E6.25386
G1 X-40.889 Y0.981 E6.27218
G1 X-41.457 Y1.103 E6.2915
G1 X-42.177 Y1.178 E6.31558
G1 X-42.765 Y1.177 E6.33513
G1 X-43.478 Y1.1 E6.35898
G1 X-44.072 Y0.971 E6.3792
G1 X-44.768 Y0.736 E6.40363
G1 X-45.314 Y0.485 E6.42362
G1 X-45.919 Y0.125 E6.44704
G1 X-46.401 Y-.237 E6.46709
G1 X-46.935 Y-.736 E6.49139
G1 X-47.33 Y-1.192 E6.51146
G1 X-47.719 Y-1.755 E6.53422
G1 X-48.022 Y-2.308 E6.55519
G1 X-48.294 Y-2.967 E6.57891
G1 X-48.466 Y-3.558 E6.59938
G1 X-48.59 Y-4.251 E6.62279
G1 X-48.633 Y-4.857 E6.643
G1 X-48.606 Y-5.586 E6.66726
G1 X-48.521 Y-6.162 E6.68663
G1 X-48.342 Y-6.87 E6.71092
G1 X-48.128 Y-7.438 E6.73111
G1 X-47.839 Y-8.02 E6.75272
G1 X-47.446 Y-8.631 E6.77688
G1 X-47.079 Y-9.086 E6.79632
G1 X-46.709 Y-9.47 E6.81406
G1 X-46.264 Y-9.853 E6.83359
G1 X-45.678 Y-10.258 E6.85728
G1 X-45.144 Y-10.55 E6.87752
G1 X-44.495 Y-10.818 E6.90088
G1 X-43.901 Y-10.993 E6.92147
G1 X-43.186 Y-11.121 E6.94563
G1 X-42.592 Y-11.162 E6.96543
G1 X-42.315 Y-11.162 E6.97465
G1 X-41.703 Y-11.117 E6.99506
G1 X-41.003 Y-10.988 E7.01873
G1 X-40.416 Y-10.816 E7.03908
G1 X-39.763 Y-10.543 E7.06262
G1 X-39.238 Y-10.255 E7.08253
G1 X-38.637 Y-9.836 E7.1069
G1 X-38.191 Y-9.449 E7.12654
G1 X-37.7 Y-8.921 E7.15052
G1 X-37.34 Y-8.438 E7.17056
G1 X-36.976 Y-7.824 E7.1943
G1 X-36.726 Y-7.277 E7.2143
G1 X-36.494 Y-6.576 E7.23886
G1 X-36.368 Y-5.994 E7.25867
G1 X-36.314 Y-5.477 E7.27596
G0 F1620 X-36.293 Y-5.276
G0 X-36.294 Y-4.678
G0 F3600 X-36.693 Y-4.708
G1 F1800 X-36.766 Y-4.041 E7.29827
G1 X-36.884 Y-3.491 E7.31698
G1 X-37.107 Y-2.826 E7.34031
G1 X-37.333 Y-2.334 E7.35832
G1 X-37.684 Y-1.745 E7.38112
G1 X-38.009 Y-1.311 E7.39916
G1 X-38.489 Y-.798 E7.42252
G1 X-38.902 Y-.441 E7.44068
G1 X-39.408 Y-0.089 E7.46118
G1 X-40.008 Y0.238 E7.48391
G1 X-40.493 Y0.439 E7.50137
G1 X-40.998 Y0.596 E7.51896
G1 X-41.513 Y0.707 E7.53648
G1 X-42.204 Y0.779 E7.55959
G1 X-42.736 Y0.778 E7.57728
G1 X-43.42 Y0.704 E7.60017
G1 X-43.959 Y0.587 E7.61851
G1 X-44.627 Y0.362 E7.64196
G1 X-45.121 Y0.135 E7.66004
G1 X-45.704 Y-.212 E7.6826
G1 X-46.139 Y-.538 E7.70068
G1 X-46.652 Y-1.018 E7.72405
G1 X-47.008 Y-1.43 E7.74216
G1 X-47.383 Y-1.971 E7.76406
G1 X-47.658 Y-2.473 E7.78309
G1 X-47.919 Y-3.107 E7.8059
G1 X-48.075 Y-3.641 E7.8244
G1 X-48.194 Y-4.309 E7.84697
G1 X-48.233 Y-4.857 E7.86524
G1 X-48.207 Y-5.556 E7.88851
G1 X-48.13 Y-6.078 E7.90605
G1 X-47.958 Y-6.758 E7.92938
G1 X-47.765 Y-7.271 E7.94761
G1 X-47.488 Y-7.829 E7.96833
G1 X-47.117 Y-8.404 E7.99109
G1 X-46.785 Y-8.815 E8.00867
G1 X-46.428 Y-9.185 E8.02577
G1 X-46.025 Y-9.532 E8.04346
G1 X-45.462 Y-9.921 E8.06622
G1 X-44.978 Y-10.186 E8.08457
G1 X-44.353 Y-10.444 E8.10706
G1 X-43.816 Y-10.602 E8.12568
G1 X-43.13 Y-10.725 E8.14886
G1 X-42.592 Y-10.762 E8.16679
G1 X-42.315 Y-10.762 E8.176
G1 X-41.762 Y-10.721 E8.19445
G1 X-41.088 Y-10.598 E8.21724
G1 X-40.558 Y-10.442 E8.23561
G1 X-39.929 Y-10.179 E8.25829
G1 X-39.453 Y-9.918 E8.27634
G1 X-38.878 Y-9.517 E8.29966
G1 X-38.474 Y-9.167 E8.31744
G1 X-38.001 Y-8.659 E8.34052
G1 X-37.677 Y-8.223 E8.35859
G1 X-37.326 Y-7.631 E8.38148
G1 X-37.101 Y-7.137 E8.39954
G1 X-36.878 Y-6.465 E8.42309
G1 X-36.765 Y-5.938 E8.44101
G1 X-36.719 Y-5.506 E8.45546
G0 F1620 X-36.692 Y-5.248
G0 X-36.693 Y-4.708
G0 F3600 X-37.088 Y-4.84
G1 F1800 X-37.161 Y-4.1 E8.48019
G1 X-37.268 Y-3.605 E8.49704
G1 X-37.482 Y-2.966 E8.51945
G1 X-37.82 Y-2.278 E8.54495
G1 X-38.249 Y-1.65 E8.57024
G1 X-38.771 Y-1.082 E8.5959
G1 X-39.363 Y-.598 E8.62133
G1 X-39.859 Y-.287 E8.6408
G1 X-40.541 Y0.03 E8.66582
G1 X-41.107 Y0.211 E8.68558
G1 X-41.847 Y0.349 E8.71062
G1 X-42.605 Y0.383 E8.73586
G1 X-43.362 Y0.308 E8.76116
G1 X-44.122 Y0.121 E8.78719
G1 X-44.828 Y-.165 E8.81252
G1 X-45.489 Y-.549 E8.83795
G1 X-46.09 Y-1.026 E8.86347
G1 X-46.619 Y-1.584 E8.88904
G1 X-47.046 Y-2.187 E8.91362
G1 X-47.294 Y-2.639 E8.93077
G1 X-47.544 Y-3.247 E8.95263
G1 X-47.742 Y-4.002 E8.97859
G1 X-47.83 Y-4.76 E9.00397
G1 X-47.808 Y-5.527 E9.02949
G1 X-47.679 Y-6.271 E9.05461
G1 X-47.438 Y-7.015 E9.08062
G1 X-47.137 Y-7.637 E9.1036
G1 X-46.788 Y-8.176 E9.12496
G1 X-46.349 Y-8.698 E9.14764
G1 X-45.865 Y-9.148 E9.16963
G1 X-45.247 Y-9.585 E9.1948
G1 X-44.599 Y-9.919 E9.21905
G1 X-44.104 Y-10.106 E9.23665
G1 X-43.455 Y-10.271 E9.25892
G1 X-42.689 Y-10.359 E9.28456
G1 X-42.315 Y-10.362 E9.297
G1 X-41.54 Y-10.284 E9.32291
G1 X-40.806 Y-10.103 E9.34805
G1 X-40.095 Y-9.815 E9.37357
G1 X-39.436 Y-9.432 E9.39892
G1 X-38.834 Y-8.956 E9.42445
G1 X-38.303 Y-8.396 E9.45011
G1 X-37.858 Y-7.763 E9.47585
G1 X-37.512 Y-7.085 E9.50117
G1 X-37.263 Y-6.353 E9.52688
G1 X-37.128 Y-5.639 E9.55105
G0 F1620 X-37.122 Y-5.605
G0 X-37.088 Y-4.84
G0 F3600 X-37.488 Y-4.84
G1 F1800 X-37.557 Y-4.159 E9.57382
G1 X-37.733 Y-3.441 E9.59841
G1 X-38.001 Y-2.785 E9.62197
G1 X-38.357 Y-2.177 E9.64541
G1 X-38.799 Y-1.622 E9.66901
G1 X-39.317 Y-1.133 E9.6927
G1 X-39.843 Y-.761 E9.71413
G1 X-40.366 Y-.478 E9.73391
G1 X-40.948 Y-.251 E9.75468
G1 X-41.551 Y-0.099 E9.77537
G1 X-42.26 Y-0.019 E9.7991
G1 X-42.966 Y-0.041 E9.82259
G1 X-43.657 Y-.161 E9.84592
G1 X-44.343 Y-.386 E9.86993
G1 X-44.982 Y-.702 E9.89364
G1 X-45.56 Y-1.098 E9.91694
G1 X-46.085 Y-1.583 E9.94072
G1 X-46.531 Y-2.131 E9.96422
G1 X-46.895 Y-2.735 E9.98767
G1 X-47.17 Y-3.388 E10.01124
G1 X-47.351 Y-4.085 E10.03519
G1 X-47.431 Y-4.788 E10.05872
G1 X-47.409 Y-5.497 E10.08231
G1 X-47.288 Y-6.187 E10.10561
G1 X-47.064 Y-6.874 E10.12965
G1 X-46.785 Y-7.446 E10.15081
G1 X-46.459 Y-7.948 E10.17072
G1 X-46.055 Y-8.427 E10.19156
G1 X-45.603 Y-8.846 E10.21206
G1 X-45.031 Y-9.248 E10.23532
G1 X-44.433 Y-9.555 E10.25767
