;FLAVOR:Marlin
;TIME:8764
;Filament used: 7.72572m
;Layer height: 0.12
;MINX:30.074
;MINY:17.448
;MINZ:0.3
;MAXX:78.189
;MAXY:101.641
;MAXZ:13.61
;Generated with Cura_SteamEngine 4.4.1
M104 S210
M105
M109 S210
M82 ;absolute extrusion mode
;Start GCode
G21 ;metric values
G90 ;absolute positioning
M82 ;set extruder to absolute mode
M107 ;start with the fan off
G28 X0 Y0 ;move X/Y to min endstops
G28 Z0 ;move Z to min endstops
G1 Z15.0 ;move the platform down 15mm
G92 E0 ;zero the extruded length
G1 F200 E3 ;extrude 3mm of feed stock
G92 E0 ;zero the extruded length again
;Put printing message on LCD screen
M117 Printing...
G92 E0
G92 E0
G1 F2400 E-2
;LAYER_COUNT:66
;LAYER:0
M107
G0 F900 X51.981 Y18.755 Z0.3
;TYPE:SKIRT
G1 F2400 E0
G1 F900 X52.164 Y18.766 E0.01006
G1 X54.998 Y18.852 E0.16566
G1 X56.364 Y18.854 E0.24063
G1 X56.178 Y19.067 E0.25614
G1 X56.038 Y19.254 E0.26896
G1 X55.007 Y19.252 E0.32554
G1 X52.309 Y19.168 E0.47368
G0 F810 X52.297 Y19.168
G0 X52.099 Y18.888
G0 X51.981 Y18.755
G0 F900 X51.785 Y19.136
G1 X51.433 Y18.737 E0.50288
G1 X51.175 Y18.476 E0.52302
G1 X50.921 Y18.295 E0.54014
G1 X51.22 Y18.307 E0.55656
G1 X52.182 Y18.366 E0.60945
G1 X55.004 Y18.452 E0.76439
G1 X57.378 Y18.455 E0.89468
G1 X57.243 Y18.542 E0.90349
G1 X56.842 Y18.914 E0.93351
G1 X56.489 Y19.319 E0.96299
G1 X56.244 Y19.645 E0.98537
G1 X56.24 Y19.654 E0.98591
G1 X54.995 Y19.652 E1.05424
G1 X52.116 Y19.563 E1.21231
G1 X52.096 Y19.562 E1.21341
G0 F810 X52.085 Y19.562
G0 X51.785 Y19.136
G0 F900 X51.47 Y19.384
G1 X51.141 Y19.01 E1.24074
G1 X50.915 Y18.782 E1.25836
G1 X50.516 Y18.498 E1.28524
G1 X50.072 Y18.247 E1.31323
G1 X49.512 Y18.026 E1.34627
G1 X48.958 Y17.891 E1.37756
G1 X48.617 Y17.848 E1.39642
G1 X49.095 Y17.848 E1.42266
G1 X49.458 Y17.851 E1.44258
G1 X49.668 Y17.852 E1.4541
G1 X49.784 Y17.854 E1.46047
G1 X49.964 Y17.86 E1.47035
G1 X50.265 Y17.865 E1.48687
G1 X50.309 Y17.867 E1.48929
G1 X50.653 Y17.883 E1.50819
G1 X51.173 Y17.905 E1.53675
G1 X51.173 Y17.904 E1.53681
G1 X52.2 Y17.966 E1.59327
G1 X55.01 Y18.052 E1.74755
G1 X57.973 Y18.056 E1.91016
G1 X58.052 Y18.055 E1.9145
G1 X58.312 Y18.048 E1.92877
G1 X58.325 Y18.048 E1.92948
G1 X58.387 Y18.047 E1.93289
G1 X58.572 Y18.045 E1.94304
G1 X58.796 Y18.044 E1.95533
G1 X59.161 Y18.041 E1.97537
G1 X59.646 Y18.041 E2.00198
G1 X59.305 Y18.084 E2.02084
G1 X58.751 Y18.219 E2.05214
G1 X58.191 Y18.44 E2.08518
G1 X57.763 Y18.683 E2.11219
G1 X57.489 Y18.859 E2.13006
G1 X57.13 Y19.193 E2.15697
G1 X56.8 Y19.571 E2.1845
G1 X56.585 Y19.857 E2.20414
G1 X56.485 Y20.054 E2.21626
G1 X54.983 Y20.052 E2.29869
G1 X52.104 Y19.963 E2.45677
G1 X51.828 Y19.947 E2.47194
G1 X51.77 Y19.822 E2.4795
G0 F810 X51.754 Y19.787
G0 X51.47 Y19.384
G0 F900 X51.155 Y19.632
G1 X50.849 Y19.283 E2.50497
G1 X50.655 Y19.088 E2.52007
G1 X50.301 Y18.836 E2.54392
G1 X49.899 Y18.609 E2.56925
G1 X49.391 Y18.408 E2.59923
G1 X48.886 Y18.285 E2.62776
G1 X48.431 Y18.228 E2.65292
G1 X45.37 Y18.2 E2.82091
G1 X45.351 Y18.2 E2.82196
G1 X36.062 Y18.201 E3.33173
G1 X35.787 Y18.22 E3.34686
G1 X35.152 Y18.308 E3.38204
G1 X34.691 Y18.429 E3.4082
G1 X34.288 Y18.589 E3.43199
G1 X33.753 Y18.906 E3.46612
G1 X33.348 Y19.239 E3.49489
G1 X33.108 Y19.469 E3.51314
G1 X32.854 Y19.826 E3.53718
G1 X32.705 Y20.09 E3.55382
G1 X32.499 Y20.617 E3.58487
G1 X32.417 Y20.965 E3.60449
G1 X32.364 Y21.42 E3.62963
G1 X32.356 Y27.383 E3.95687
G1 X32.356 Y27.386 E3.95704
G1 X32.359 Y83.32 E7.02665
G1 X32.357 Y91.512 E7.47622
G1 X32.357 Y91.515 E7.47639
G1 X32.366 Y97.594 E7.81
G1 X32.39 Y97.909 E7.82734
G1 X32.499 Y98.331 E7.85126
G1 X32.608 Y98.62 E7.86821
G1 X32.744 Y98.911 E7.88583
G1 X32.996 Y99.268 E7.90982
G1 X33.302 Y99.617 E7.93529
G1 X33.494 Y99.808 E7.95015
G1 X33.847 Y100.06 E7.97395
G1 X34.249 Y100.287 E7.99929
G1 X34.757 Y100.488 E8.02927
G1 X35.262 Y100.611 E8.05779
G1 X35.717 Y100.668 E8.08296
G1 X38.778 Y100.696 E8.25095
G1 X38.797 Y100.696 E8.25199
G1 X48.086 Y100.695 E8.76177
G1 X48.361 Y100.676 E8.7769
G1 X48.995 Y100.588 E8.81202
G1 X49.454 Y100.467 E8.83807
G1 X49.857 Y100.308 E8.86185
G1 X50.392 Y99.993 E8.89592
G1 X50.797 Y99.661 E8.92466
G1 X51.04 Y99.428 E8.94313
G1 X51.294 Y99.071 E8.96718
G1 X51.443 Y98.807 E8.98382
G1 X51.51 Y98.636 E8.99389
G1 X53.23 Y98.64 E9.08829
G1 X56.105 Y98.721 E9.24613
G1 X56.725 Y98.757 E9.28021
G1 X56.82 Y98.999 E9.29448
G1 X56.967 Y99.259 E9.31087
G1 X57.153 Y99.535 E9.32913
G1 X57.458 Y99.846 E9.35304
G1 X57.868 Y100.184 E9.3822
G1 X58.406 Y100.501 E9.41647
G1 X58.809 Y100.66 E9.44024
G1 X59.268 Y100.781 E9.46629
G1 X59.902 Y100.869 E9.50142
G1 X60.177 Y100.888 E9.51655
G1 X69.466 Y100.889 E10.02632
G1 X69.485 Y100.889 E10.02736
G1 X72.547 Y100.861 E10.19541
G1 X73.003 Y100.803 E10.22064
G1 X73.505 Y100.68 E10.249
G1 X74.013 Y100.48 E10.27896
G1 X74.408 Y100.257 E10.30386
G1 X74.638 Y100.108 E10.3189
G1 X74.958 Y99.812 E10.34282
G1 X75.266 Y99.462 E10.36841
G1 X75.455 Y99.21 E10.38569
G1 X75.652 Y98.82 E10.40967
G1 X75.76 Y98.533 E10.4265
G1 X75.851 Y98.227 E10.44402
G1 X75.897 Y97.794 E10.46792
G1 X75.906 Y91.707 E10.80197
G1 X75.906 Y91.703 E10.80219
G1 X75.904 Y83.511 E11.25176
G1 X75.904 Y30.313 E14.17122
G1 X75.907 Y27.579 E14.32126
G1 X75.907 Y27.575 E14.32148
G1 X75.899 Y21.613 E14.64867
G1 X75.846 Y21.158 E14.67381
G1 X75.764 Y20.81 E14.69343
G1 X75.558 Y20.283 E14.72448
G1 X75.411 Y20.023 E14.74087
G1 X75.225 Y19.747 E14.75914
G1 X74.92 Y19.436 E14.78304
G1 X74.51 Y19.099 E14.81217
G1 X73.975 Y18.782 E14.8463
G1 X73.572 Y18.622 E14.87009
G1 X73.111 Y18.501 E14.89625
G1 X72.476 Y18.413 E14.93143
G1 X72.201 Y18.394 E14.94656
G1 X62.912 Y18.393 E15.45633
G1 X62.893 Y18.393 E15.45737
G1 X59.832 Y18.421 E15.62537
G1 X59.377 Y18.478 E15.65053
G1 X58.872 Y18.601 E15.67906
G1 X58.364 Y18.802 E15.70904
G1 X57.97 Y19.025 E15.73388
G1 X57.736 Y19.176 E15.74917
G1 X57.418 Y19.472 E15.77301
G1 X57.111 Y19.823 E15.7986
G1 X56.926 Y20.069 E15.81549
G1 X56.731 Y20.454 E15.83918
G1 X54.971 Y20.452 E15.93576
G1 X52.092 Y20.363 E16.09384
G1 X51.56 Y20.332 E16.12308
G1 X51.539 Y20.275 E16.12641
G1 X51.446 Y20.076 E16.13847
G0 F810 X51.406 Y19.988
G0 X51.155 Y19.632
G0 F900 X50.84 Y19.88
G1 X51.058 Y20.189 E16.15922
G1 X51.17 Y20.43 E16.17381
G1 X51.266 Y20.684 E16.18871
G1 X51.362 Y21.05 E16.20947
G1 X51.382 Y21.318 E16.22422
G1 X51.39 Y27.383 E16.55706
G1 X51.39 Y27.385 E16.55717
G1 X51.384 Y97.45 E20.40229
G1 X51.337 Y97.86 E20.42494
G1 X51.267 Y98.159 E20.44179
G1 X51.081 Y98.635 E20.46983
G1 X50.956 Y98.856 E20.48377
G1 X50.736 Y99.165 E20.50458
G1 X50.531 Y99.361 E20.52015
G1 X50.162 Y99.664 E20.54635
G1 X49.681 Y99.947 E20.57698
G1 X49.329 Y100.086 E20.59775
G1 X48.916 Y100.195 E20.62119
G1 X48.32 Y100.278 E20.65421
G1 X48.072 Y100.295 E20.66785
G1 X38.797 Y100.296 E21.17686
G1 X38.78 Y100.296 E21.17779
G1 X35.744 Y100.268 E21.34441
G1 X35.334 Y100.217 E21.36709
G1 X34.879 Y100.106 E21.39279
G1 X34.422 Y99.925 E21.41976
G1 X34.062 Y99.722 E21.44245
G1 X33.753 Y99.502 E21.46326
G1 X33.594 Y99.343 E21.4756
G1 X33.31 Y99.02 E21.49921
G1 X33.091 Y98.71 E21.52004
G1 X32.977 Y98.465 E21.53486
G1 X32.881 Y98.21 E21.54982
G1 X32.786 Y97.843 E21.57062
G1 X32.766 Y97.579 E21.58515
G1 X32.757 Y91.514 E21.91799
G1 X32.757 Y91.511 E21.91816
G1 X32.759 Y83.319 E22.36773
G1 X32.756 Y27.385 E25.43734
G1 X32.756 Y27.383 E25.43745
G1 X32.764 Y21.444 E25.76338
G1 X32.812 Y21.034 E25.78604
G1 X32.882 Y20.736 E25.80284
G1 X33.067 Y20.262 E25.83076
G1 X33.192 Y20.041 E25.84469
G1 X33.412 Y19.732 E25.86551
G1 X33.614 Y19.538 E25.88088
G1 X33.983 Y19.234 E25.90712
G1 X34.465 Y18.949 E25.93785
G1 X34.816 Y18.81 E25.95857
G1 X35.231 Y18.701 E25.98211
G1 X35.828 Y18.618 E26.01519
G1 X36.076 Y18.601 E26.02883
G1 X45.351 Y18.6 E26.53784
G1 X45.368 Y18.6 E26.53877
G1 X48.404 Y18.628 E26.70539
G1 X48.814 Y18.679 E26.72807
G1 X49.269 Y18.79 E26.75377
G1 X49.726 Y18.971 E26.78074
G1 X50.086 Y19.174 E26.80342
G1 X50.395 Y19.394 E26.82424
G1 X50.484 Y19.484 E26.83119
G0 F810 X50.556 Y19.556
G0 X50.84 Y19.88
G0 F900 X50.539 Y20.143
G1 X50.796 Y20.571 E26.85858
G1 X50.892 Y20.825 E26.87349
G1 X50.972 Y21.149 E26.8918
G1 X50.982 Y21.318 E26.90109
G1 X50.99 Y27.383 E27.23393
G1 X50.99 Y27.385 E27.23404
G1 X50.984 Y97.45 E31.07916
G1 X50.947 Y97.769 E31.09678
G1 X50.877 Y98.068 E31.11363
G1 X50.733 Y98.438 E31.13542
G1 X50.608 Y98.659 E31.14936
G1 X50.41 Y98.928 E31.16769
G1 X50.277 Y99.052 E31.17767
G1 X49.908 Y99.355 E31.20387
G1 X49.534 Y99.575 E31.22768
G1 X49.182 Y99.714 E31.24845
G1 X48.861 Y99.799 E31.26667
G1 X48.265 Y99.882 E31.2997
G1 X48.072 Y99.895 E31.31031
G1 X38.797 Y99.896 E31.81932
G1 X38.784 Y99.896 E31.82003
G1 X35.748 Y99.868 E31.98665
G1 X35.429 Y99.828 E32.00429
G1 X34.974 Y99.717 E32.03
G1 X34.618 Y99.576 E32.05101
G1 X34.258 Y99.373 E32.07369
G1 X33.895 Y99.078 E32.09936
G1 X33.611 Y98.755 E32.12297
G1 X33.422 Y98.48 E32.14128
G1 X33.352 Y98.324 E32.15066
G1 X33.256 Y98.069 E32.16561
G1 X33.166 Y97.578 E32.19301
G1 X33.157 Y91.513 E32.52585
G1 X33.157 Y91.511 E32.52596
G1 X33.159 Y83.319 E32.97553
G1 X33.156 Y27.385 E36.04515
G1 X33.156 Y27.383 E36.04526
G1 X33.164 Y21.444 E36.37118
G1 X33.201 Y21.126 E36.38875
G1 X33.271 Y20.828 E36.40555
G1 X33.415 Y20.459 E36.42729
G1 X33.54 Y20.238 E36.44122
G1 X33.738 Y19.969 E36.45955
G1 X33.869 Y19.846 E36.46942
G1 X34.238 Y19.542 E36.49565
G1 X34.613 Y19.321 E36.51954
G1 X34.964 Y19.182 E36.54026
G1 X35.286 Y19.097 E36.55854
G1 X35.883 Y19.014 E36.59161
G1 X36.076 Y19.001 E36.60223
G1 X45.351 Y19 E37.11123
G1 X45.364 Y19 E37.11195
G1 X48.4 Y19.028 E37.27857
G1 X48.719 Y19.068 E37.29621
G1 X49.174 Y19.179 E37.32191
G1 X49.53 Y19.32 E37.34293
G1 X49.89 Y19.523 E37.36561
G1 X50.176 Y19.755 E37.38582
G0 F810 X50.255 Y19.819
G0 X50.539 Y20.143
G0 F900 X50.238 Y20.407
G1 X50.421 Y20.712 E37.40534
G1 X50.517 Y20.966 E37.42024
G1 X50.582 Y21.319 E37.43994
G1 X50.59 Y27.384 E37.77278
G1 X50.59 Y27.385 E37.77284
G1 X50.584 Y97.45 E41.61795
G1 X50.558 Y97.678 E41.63054
G1 X50.488 Y97.977 E41.6474
G1 X50.384 Y98.241 E41.66297
G1 X50.259 Y98.462 E41.6769
G1 X50.024 Y98.743 E41.697
G1 X49.655 Y99.046 E41.72321
G1 X49.387 Y99.203 E41.74025
G1 X49.035 Y99.342 E41.76102
G1 X48.806 Y99.402 E41.77401
G1 X48.21 Y99.485 E41.80704
G1 X48.072 Y99.495 E41.81463
G1 X38.797 Y99.496 E42.32363
G1 X38.788 Y99.496 E42.32413
G1 X35.752 Y99.468 E42.49075
G1 X35.524 Y99.44 E42.50336
G1 X35.069 Y99.329 E42.52906
G1 X34.815 Y99.228 E42.54406
G1 X34.455 Y99.025 E42.56674
G1 X34.195 Y98.814 E42.58512
G1 X33.911 Y98.491 E42.60872
G1 X33.726 Y98.183 E42.62844
G1 X33.63 Y97.928 E42.64339
G1 X33.566 Y97.577 E42.66297
G1 X33.557 Y91.512 E42.99581
G1 X33.557 Y91.511 E42.99587
G1 X33.559 Y83.319 E43.44544
G1 X33.556 Y27.385 E46.51505
G1 X33.556 Y27.384 E46.51511
G1 X33.564 Y21.445 E46.84104
G1 X33.59 Y21.217 E46.85363
G1 X33.66 Y20.919 E46.87043
G1 X33.764 Y20.656 E46.88595
G1 X33.889 Y20.435 E46.89988
G1 X34.123 Y20.155 E46.91991
G1 X34.492 Y19.851 E46.94615
G1 X34.76 Y19.693 E46.96322
G1 X35.111 Y19.554 E46.98394
G1 X35.341 Y19.494 E46.99698
G1 X35.938 Y19.411 E47.03006
G1 X36.076 Y19.401 E47.03765
G1 X45.351 Y19.4 E47.54666
G1 X45.36 Y19.4 E47.54715
G1 X48.396 Y19.428 E47.71377
G1 X48.624 Y19.456 E47.72638
G1 X49.079 Y19.567 E47.75208
G1 X49.333 Y19.668 E47.76708
G1 X49.693 Y19.871 E47.78976
G1 X49.875 Y20.019 E47.80264
G0 F810 X49.954 Y20.083
G0 X50.238 Y20.407
G0 F900 X49.937 Y20.671
G1 X50.047 Y20.854 E47.81435
G1 X50.143 Y21.108 E47.82926
G1 X50.182 Y21.319 E47.84103
G1 X50.19 Y27.384 E48.17387
G1 X50.184 Y97.449 E52.01899
G1 X50.168 Y97.587 E52.02661
G1 X50.098 Y97.886 E52.04346
G1 X50.036 Y98.044 E52.05278
G1 X49.911 Y98.265 E52.06671
G1 X49.77 Y98.434 E52.07879
G1 X49.401 Y98.737 E52.10499
G1 X49.24 Y98.831 E52.11523
G1 X48.888 Y98.97 E52.13599
G1 X48.751 Y99.006 E52.14377
G1 X48.155 Y99.089 E52.17679
G1 X48.072 Y99.095 E52.18136
G1 X38.797 Y99.096 E52.69036
G1 X38.791 Y99.096 E52.69069
G1 X35.755 Y99.068 E52.85731
G1 X35.619 Y99.051 E52.86483
G1 X35.164 Y98.94 E52.89054
G1 X35.011 Y98.88 E52.89956
G1 X34.651 Y98.677 E52.92224
G1 X34.495 Y98.55 E52.93328
G1 X34.211 Y98.227 E52.95688
G1 X34.1 Y98.042 E52.96872
G1 X34.004 Y97.787 E52.98367
G1 X33.966 Y97.577 E52.99539
G1 X33.957 Y91.512 E53.32823
G1 X33.957 Y91.511 E53.32828
G1 X33.959 Y83.319 E53.77785
G1 X33.956 Y27.385 E56.84747
G1 X33.964 Y21.446 E57.1734
G1 X33.98 Y21.309 E57.18097
G1 X34.05 Y21.011 E57.19776
G1 X34.112 Y20.853 E57.20708
G1 X34.237 Y20.632 E57.22101
G1 X34.377 Y20.464 E57.23301
G1 X34.746 Y20.16 E57.25925
G1 X34.907 Y20.065 E57.26951
G1 X35.258 Y19.926 E57.29023
G1 X35.396 Y19.89 E57.29806
G1 X35.993 Y19.807 E57.33113
G1 X36.076 Y19.801 E57.3357
G1 X45.351 Y19.8 E57.84471
G1 X45.357 Y19.8 E57.84503
G1 X48.393 Y19.828 E58.01166
G1 X48.529 Y19.845 E58.01918
G1 X48.984 Y19.956 E58.04488
G1 X49.137 Y20.016 E58.0539
G1 X49.497 Y20.219 E58.07658
G1 X49.574 Y20.283 E58.08207
G0 F810 X49.653 Y20.347
G0 X49.937 Y20.671
G0 F900 X49.636 Y20.934
G1 X49.673 Y20.995 E58.08599
G1 X49.769 Y21.249 E58.10089
G1 X49.782 Y21.32 E58.10485
G1 X49.79 Y27.385 E58.4377
G1 X49.784 Y97.45 E62.28281
G1 X49.779 Y97.496 E62.28535
G1 X49.709 Y97.795 E62.3022
G1 X49.688 Y97.847 E62.30528
G1 X49.563 Y98.068 E62.31921
G1 X49.516 Y98.125 E62.32327
G1 X49.147 Y98.428 E62.34947
G1 X49.093 Y98.459 E62.35289
G1 X48.741 Y98.598 E62.37365
G1 X48.696 Y98.61 E62.37621
G1 X48.1 Y98.693 E62.40923
G1 X48.072 Y98.695 E62.41077
G1 X38.797 Y98.696 E62.91978
G1 X38.795 Y98.696 E62.91989
G1 X35.759 Y98.668 E63.08651
G1 X35.714 Y98.662 E63.089
G1 X35.259 Y98.551 E63.1147
G1 X35.208 Y98.531 E63.11771
G1 X34.848 Y98.328 E63.14039
G1 X34.796 Y98.286 E63.14406
G1 X34.512 Y97.963 E63.16766
G1 X34.475 Y97.901 E63.17163
G1 X34.379 Y97.646 E63.18658
G1 X34.366 Y97.576 E63.19049
G1 X34.357 Y91.511 E63.52333
G1 X34.359 Y83.319 E63.9729
G1 X34.356 Y27.385 E67.04251
G1 X34.364 Y21.446 E67.36844
G1 X34.369 Y21.4 E67.37098
G1 X34.439 Y21.102 E67.38778
G1 X34.46 Y21.05 E67.39086
G1 X34.585 Y20.829 E67.40479
G1 X34.632 Y20.773 E67.4088
G1 X35.001 Y20.469 E67.43504
G1 X35.054 Y20.437 E67.43844
G1 X35.405 Y20.298 E67.45916
G1 X35.451 Y20.286 E67.46177
G1 X36.048 Y20.203 E67.49484
G1 X36.076 Y20.201 E67.49638
G1 X45.351 Y20.2 E68.00539
G1 X45.353 Y20.2 E68.0055
G1 X48.389 Y20.228 E68.17212
G1 X48.434 Y20.234 E68.17461
G1 X48.889 Y20.345 E68.20031
G1 X48.94 Y20.365 E68.20332
G1 X49.269 Y20.551 E68.22406
G0 F810 X49.3 Y20.568
G0 X49.352 Y20.61
G0 X49.636 Y20.934
G1 F2400 E66.22406
G0 F900 X49.984 Y20.626
G0 X52.218 Y17.566
G1 F2400 E68.22406
G1 F900 X55.016 Y17.652 E68.37768
G1 X57.971 Y17.656 E68.53985
G1 X58.044 Y17.655 E68.54386
G1 X58.301 Y17.648 E68.55797
G1 X58.322 Y17.648 E68.55912
G1 X58.38 Y17.647 E68.5623
G1 X58.385 Y17.647 E68.56258
G1 X58.568 Y17.645 E68.57262
G1 X58.793 Y17.644 E68.58497
G1 X59.158 Y17.641 E68.605
G1 X73.51 Y17.641 E69.39263
G1 X74.229 Y17.651 E69.43209
G1 X74.295 Y17.654 E69.43572
G1 X74.544 Y17.672 E69.44942
G1 X74.905 Y17.716 E69.46938
G1 X74.948 Y17.723 E69.47177
G1 X75.022 Y17.736 E69.47589
G1 X75.05 Y17.742 E69.47746
G1 X75.227 Y17.786 E69.48747
G1 X75.246 Y17.791 E69.48855
G1 X75.358 Y17.828 E69.49502
G1 X75.637 Y17.928 E69.51129
G1 X75.864 Y18.016 E69.52465
G1 X75.893 Y18.028 E69.52637
G1 X75.947 Y18.053 E69.52964
G1 X75.99 Y18.074 E69.53226
G1 X76.049 Y18.105 E69.53592
G1 X76.077 Y18.12 E69.53766
G1 X76.2 Y18.199 E69.54568
G1 X76.504 Y18.405 E69.56584
G1 X76.607 Y18.474 E69.57264
G1 X76.65 Y18.506 E69.57558
G1 X76.713 Y18.553 E69.5799
G1 X76.771 Y18.598 E69.58393
G1 X76.817 Y18.636 E69.5872
G1 X76.821 Y18.639 E69.58747
G1 X76.899 Y18.711 E69.5933
G1 X76.911 Y18.722 E69.59419
G1 X76.923 Y18.734 E69.59512
G1 X77.234 Y19.08 E69.62066
G1 X77.328 Y19.19 E69.6286
G1 X77.363 Y19.231 E69.63155
G1 X77.391 Y19.265 E69.63397
G1 X77.455 Y19.348 E69.63972
G1 X77.458 Y19.352 E69.64
G1 X77.509 Y19.427 E69.64498
G1 X77.533 Y19.464 E69.6474
G1 X77.543 Y19.48 E69.64843
G1 X77.548 Y19.489 E69.649
G1 X77.842 Y20.051 E69.6838
G1 X77.856 Y20.078 E69.68547
G1 X77.889 Y20.15 E69.68982
G1 X77.912 Y20.204 E69.69304
G1 X77.939 Y20.274 E69.69716
G1 X77.949 Y20.301 E69.69874
