;FLAVOR:Marlin
;TIME:5195
;Filament used: 3.23194m
;Layer height: 0.12
;MINX:11.143
;MINY:47.728
;MINZ:0.3
;MAXX:108.856
;MAXY:76.484
;MAXZ:37.36
;Generated with Cura_SteamEngine 4.4.1
M104 S210
M105
M109 S210
M82 ;absolute extrusion mode
;Start GCode
G21 ;metric values
G90 ;absolute positioning
M82 ;set extruder to absolute mode
M107 ;start with the fan off
G28 X0 Y0 ;move X/Y to min endstops
G28 Z0 ;move Z to min endstops
G1 Z15.0 ;move the platform down 15mm
G92 E0 ;zero the extruded length
G1 F200 E3 ;extrude 3mm of feed stock
G92 E0 ;zero the extruded length again
;Put printing message on LCD screen
M117 Printing...
G92 E0
G92 E0
G1 F2400 E-2
;LAYER_COUNT:230
;LAYER:0
M107
G0 F900 X19.09 Y50.186 Z0.3
;TYPE:SKIRT
G1 F2400 E0
G1 F900 X20.351 Y50.632 E0.0734
G1 X23.05 Y51.5 E0.22899
G1 X25.772 Y52.289 E0.38452
G1 X28.515 Y53 E0.54003
G1 X31.278 Y53.631 E0.69557
G1 X34.058 Y54.184 E0.85112
G1 X36.853 Y54.658 E1.0067
G1 X39.659 Y55.053 E1.16221
G1 X40.264 Y55.12 E1.19561
G1 X40.023 Y55.242 E1.21044
G1 X39.749 Y55.463 E1.22976
G1 X39.593 Y55.446 E1.23837
G1 X39.593 Y55.447 E1.23842
G1 X36.774 Y55.052 E1.39464
G1 X33.987 Y54.58 E1.54976
G1 X31.211 Y54.026 E1.70511
G1 X28.403 Y53.384 E1.86319
G1 X25.673 Y52.677 E2.01795
G1 X22.946 Y51.885 E2.17379
G1 X20.206 Y51.006 E2.33171
G1 X19.248 Y50.668 E2.38746
G0 F810 X19.194 Y50.649
G0 X19.09 Y50.186
G0 F900 X18.645 Y50.03
G1 X18.473 Y49.544 E2.41575
G1 X20.479 Y50.253 E2.53251
G1 X23.167 Y51.117 E2.68746
G1 X25.878 Y51.903 E2.84237
G1 X28.61 Y52.611 E2.99725
G1 X31.362 Y53.24 E3.15217
G1 X34.13 Y53.791 E3.30706
G1 X36.914 Y54.263 E3.46202
G1 X39.709 Y54.656 E3.61692
G1 X42.514 Y54.968 E3.7718
G1 X44.188 Y55.106 E3.86398
G1 X41.827 Y55.106 E3.99355
G1 X41.399 Y55.139 E4.01711
G1 X40.804 Y55.295 E4.05087
G1 X40.241 Y55.58 E4.0855
G1 X39.869 Y55.88 E4.11173
G1 X39.548 Y55.844 E4.12945
G1 X36.719 Y55.448 E4.28622
G1 X33.914 Y54.973 E4.44235
G1 X31.122 Y54.416 E4.59859
G1 X28.314 Y53.774 E4.75667
G1 X25.561 Y53.061 E4.91273
G1 X22.827 Y52.267 E5.06897
G1 X20.084 Y51.387 E5.22706
G1 X18.852 Y50.952 E5.29877
G1 X18.761 Y50.549 E5.32144
G0 F810 X18.645 Y50.03
G0 F900 X18.26 Y50.141
G1 X18.068 Y49.599 E5.35299
G1 X17.768 Y49.131 E5.3835
G1 X17.414 Y48.772 E5.41117
G1 X17.312 Y48.689 E5.41839
G1 X17.956 Y48.937 E5.45626
G1 X20.607 Y49.874 E5.61056
G1 X23.284 Y50.734 E5.76487
G1 X25.984 Y51.517 E5.91915
G1 X28.705 Y52.222 E6.07341
G1 X31.446 Y52.849 E6.22772
G1 X34.203 Y53.398 E6.38199
G1 X36.975 Y53.868 E6.53629
G1 X39.759 Y54.259 E6.69057
G1 X42.553 Y54.57 E6.84485
G1 X45.355 Y54.801 E6.99914
G1 X48.162 Y54.952 E7.15341
G1 X50.973 Y55.022 E7.30772
G1 X53.784 Y55.013 E7.46199
G1 X55.322 Y54.964 E7.54644
G1 X54.804 Y55.285 E7.57988
G1 X54.698 Y55.297 E7.58573
G1 X54.179 Y55.463 E7.61564
G1 X53.739 Y55.717 E7.64352
G1 X53.428 Y55.945 E7.66468
G1 X53.212 Y56.015 E7.67714
G1 X52.775 Y56.267 E7.70483
G1 X51.741 Y57.019 E7.77499
G1 X50.955 Y57.022 E7.81813
G1 X48.511 Y56.96 E7.9523
G1 X48.45 Y56.821 E7.96063
G1 X48.132 Y56.375 E7.99069
G1 X47.725 Y56.004 E8.02091
G1 X47.251 Y55.73 E8.05096
G1 X46.73 Y55.56 E8.08103
G1 X46.227 Y55.506 E8.10879
G1 X41.842 Y55.506 E8.34944
G1 X41.466 Y55.535 E8.37014
G1 X40.947 Y55.671 E8.39958
G1 X40.459 Y55.918 E8.4296
G1 X40.032 Y56.262 E8.45969
G1 X40.003 Y56.298 E8.46222
G1 X39.503 Y56.242 E8.48984
G1 X36.663 Y55.844 E8.64722
G1 X33.841 Y55.366 E8.80429
G1 X31.033 Y54.806 E8.96143
G1 X28.225 Y54.164 E9.1195
G1 X25.455 Y53.446 E9.27654
G1 X22.705 Y52.648 E9.43369
G1 X19.962 Y51.768 E9.59178
G1 X18.51 Y51.255 E9.67629
G1 X18.376 Y50.66 E9.70976
G0 F810 X18.26 Y50.141
G0 F900 X17.875 Y50.252
G1 X17.706 Y49.776 E9.73748
G1 X17.454 Y49.382 E9.76315
G1 X17.144 Y49.068 E9.78736
G1 X16.997 Y48.948 E9.79778
G1 X16.529 Y48.658 E9.82799
G1 X16.084 Y48.514 E9.85366
G1 X15.644 Y48.467 E9.87794
G1 X13.31 Y48.468 E10.00603
G1 X12.801 Y48.532 E10.03418
G1 X12.364 Y48.692 E10.05972
G1 X11.971 Y48.939 E10.0852
G1 X11.654 Y49.249 E10.10953
G1 X11.505 Y49.429 E10.12235
G1 X11.23 Y49.86 E10.15041
G1 X11.147 Y50.097 E10.16419
G1 X11.144 Y50.044 E10.1671
G1 X11.143 Y50.01 E10.16897
G1 X11.144 Y49.916 E10.17413
G1 X11.145 Y49.9 E10.17501
G1 X11.15 Y49.767 E10.18231
G1 X11.157 Y49.675 E10.18738
G1 X11.16 Y49.647 E10.18892
G1 X11.167 Y49.593 E10.19191
G1 X11.183 Y49.493 E10.19747
G1 X11.198 Y49.428 E10.20113
G1 X11.207 Y49.387 E10.20343
G1 X11.227 Y49.315 E10.20753
G1 X11.25 Y49.24 E10.21184
G1 X11.258 Y49.217 E10.21318
G1 X11.292 Y49.125 E10.21856
G1 X11.304 Y49.097 E10.22023
G1 X11.329 Y49.04 E10.22365
G1 X11.342 Y49.013 E10.22529
G1 X11.383 Y48.93 E10.23037
G1 X11.401 Y48.898 E10.23239
G1 X11.422 Y48.862 E10.23467
G1 X11.475 Y48.776 E10.24022
G1 X11.487 Y48.759 E10.24136
G1 X11.527 Y48.701 E10.24523
G1 X11.56 Y48.657 E10.24824
G1 X11.631 Y48.566 E10.25458
G1 X11.768 Y48.409 E10.26601
G1 X11.829 Y48.343 E10.27095
G1 X11.859 Y48.312 E10.27331
G1 X11.89 Y48.282 E10.27568
G1 X11.921 Y48.254 E10.27797
G1 X11.993 Y48.192 E10.28319
G1 X12.037 Y48.156 E10.28631
G1 X12.058 Y48.14 E10.28776
G1 X12.113 Y48.1 E10.29149
G1 X12.161 Y48.067 E10.29468
G1 X12.18 Y48.055 E10.29592
G1 X12.291 Y47.988 E10.30303
G1 X12.331 Y47.967 E10.30551
G1 X12.408 Y47.929 E10.31022
G1 X12.449 Y47.91 E10.3127
G1 X12.533 Y47.874 E10.31772
G1 X12.566 Y47.861 E10.31967
G1 X12.671 Y47.826 E10.32574
G1 X12.703 Y47.817 E10.32756
G1 X12.811 Y47.788 E10.3337
G1 X12.876 Y47.775 E10.33734
G1 X12.938 Y47.764 E10.3408
G1 X13.007 Y47.753 E10.34463
G1 X13.037 Y47.75 E10.34628
G1 X13.083 Y47.746 E10.34882
G1 X13.174 Y47.74 E10.35382
G1 X13.406 Y47.732 E10.36656
G1 X13.756 Y47.728 E10.38577
G1 X14.845 Y47.729 E10.44553
G1 X15.637 Y47.74 E10.489
G1 X15.676 Y47.742 E10.49115
G1 X15.709 Y47.744 E10.49296
G1 X15.77 Y47.75 E10.49632
G1 X15.837 Y47.759 E10.50003
G1 X15.889 Y47.767 E10.50292
G1 X15.946 Y47.778 E10.50611
G1 X15.988 Y47.787 E10.50847
G1 X16.042 Y47.8 E10.51151
G1 X16.107 Y47.818 E10.51521
G1 X16.173 Y47.838 E10.519
G1 X16.214 Y47.852 E10.52138
G1 X17.135 Y48.192 E10.57525
G1 X18.095 Y48.562 E10.63172
G1 X20.735 Y49.495 E10.78538
G1 X23.401 Y50.351 E10.93904
G1 X26.09 Y51.131 E11.0927
G1 X28.8 Y51.833 E11.24633
G1 X31.53 Y52.458 E11.40002
G1 X34.276 Y53.005 E11.55368
G1 X37.036 Y53.473 E11.70731
G1 X39.809 Y53.862 E11.86098
G1 X42.592 Y54.172 E12.01466
G1 X45.382 Y54.402 E12.16829
G1 X48.178 Y54.552 E12.32195
G1 X50.977 Y54.622 E12.47561
G1 X53.777 Y54.613 E12.62927
G1 X56.576 Y54.523 E12.78296
G1 X56.893 Y54.503 E12.80039
G1 X56.893 Y54.504 E12.80044
G1 X58.233 Y54.439 E12.87407
G1 X59.206 Y54.423 E12.92747
G1 X60.379 Y54.422 E12.99184
G1 X60.587 Y54.425 E13.00326
G1 X60.847 Y54.425 E13.01753
G1 X60.954 Y54.423 E13.0234
G1 X61.136 Y54.427 E13.03339
G1 X61.433 Y54.431 E13.04969
G1 X62.06 Y54.458 E13.08413
G1 X63.826 Y54.557 E13.1812
G1 X66.625 Y54.634 E13.33487
G1 X69.425 Y54.632 E13.48853
G1 X72.224 Y54.549 E13.6422
G1 X75.019 Y54.386 E13.79585
G1 X77.808 Y54.143 E13.94949
G1 X80.59 Y53.821 E14.10318
G1 X83.361 Y53.42 E14.25684
G1 X86.119 Y52.939 E14.41048
G1 X88.863 Y52.38 E14.56416
G1 X91.589 Y51.743 E14.71779
G1 X94.296 Y51.028 E14.87145
G1 X96.982 Y50.237 E15.02511
G1 X99.644 Y49.368 E15.17879
G1 X103.084 Y48.119 E15.37963
G1 X103.742 Y47.866 E15.41832
G1 X103.814 Y47.841 E15.4225
G1 X103.851 Y47.829 E15.42463
G1 X103.948 Y47.801 E15.43017
G1 X103.971 Y47.795 E15.43148
G1 X104.022 Y47.783 E15.43435
G1 X104.076 Y47.773 E15.43737
G1 X104.151 Y47.76 E15.44154
G1 X104.172 Y47.757 E15.44271
G1 X104.196 Y47.754 E15.44404
G1 X105.461 Y47.728 E15.51347
G1 X106.061 Y47.728 E15.5464
G1 X106.78 Y47.738 E15.58586
G1 X106.846 Y47.741 E15.58949
G1 X106.932 Y47.747 E15.59422
G1 X106.973 Y47.751 E15.59648
G1 X107.013 Y47.756 E15.59869
G1 X107.059 Y47.763 E15.60125
G1 X107.129 Y47.777 E15.60516
G1 X107.197 Y47.791 E15.60897
G1 X107.256 Y47.806 E15.61231
G1 X107.295 Y47.816 E15.61452
G1 X107.347 Y47.832 E15.61751
G1 X107.395 Y47.849 E15.6203
G1 X107.455 Y47.871 E15.62381
G1 X107.511 Y47.893 E15.62711
G1 X107.534 Y47.903 E15.62849
G1 X107.615 Y47.941 E15.6334
G1 X107.655 Y47.961 E15.63585
G1 X107.721 Y47.997 E15.63998
G1 X107.755 Y48.016 E15.64212
G1 X107.815 Y48.053 E15.64599
G1 X107.831 Y48.063 E15.64702
G1 X107.884 Y48.1 E15.65057
G1 X107.959 Y48.155 E15.65567
G1 X107.999 Y48.186 E15.65845
G1 X108.003 Y48.189 E15.65872
G1 X108.077 Y48.254 E15.66413
G1 X108.118 Y48.292 E15.6672
G1 X108.151 Y48.324 E15.66972
G1 X108.193 Y48.367 E15.67302
G1 X108.271 Y48.453 E15.67939
G1 X108.423 Y48.637 E15.69249
G1 X108.448 Y48.668 E15.69467
G1 X108.468 Y48.695 E15.69652
G1 X108.504 Y48.747 E15.69999
G1 X108.545 Y48.809 E15.70407
G1 X108.558 Y48.831 E15.70547
G1 X108.597 Y48.898 E15.70972
G1 X108.631 Y48.961 E15.71365
G1 X108.651 Y49.001 E15.71611
G1 X108.671 Y49.043 E15.71866
G1 X108.694 Y49.097 E15.72188
G1 X108.71 Y49.135 E15.72414
G1 X108.736 Y49.206 E15.72829
G1 X108.76 Y49.276 E15.73235
G1 X108.763 Y49.286 E15.73293
G1 X108.786 Y49.368 E15.7376
G1 X108.799 Y49.419 E15.74049
G1 X108.815 Y49.492 E15.74459
G1 X108.818 Y49.512 E15.7457
G1 X108.83 Y49.587 E15.74987
G1 X108.838 Y49.647 E15.75319
G1 X108.844 Y49.707 E15.7565
G1 X108.85 Y49.79 E15.76107
G1 X108.856 Y49.937 E15.76914
G1 X108.856 Y50.028 E15.77414
G1 X108.854 Y50.081 E15.77705
G1 X108.719 Y49.757 E15.79631
G1 X108.469 Y49.392 E15.82059
G1 X108.321 Y49.219 E15.83308
G1 X107.968 Y48.892 E15.85949
G1 X107.567 Y48.659 E15.88494
G1 X107.126 Y48.515 E15.9104
G1 X106.686 Y48.468 E15.93468
G1 X104.349 Y48.468 E16.06294
G1 X103.805 Y48.54 E16.09305
G1 X103.368 Y48.709 E16.11876
G1 X102.998 Y48.952 E16.14306
G1 X102.852 Y49.072 E16.15343
G1 X102.484 Y49.463 E16.1829
G1 X102.25 Y49.869 E16.20861
G1 X102.115 Y50.291 E16.23293
G1 X101.933 Y51.167 E16.28203
G1 X101.841 Y51.55 E16.30365
G1 X100.557 Y52.016 E16.37861
G1 X97.812 Y52.911 E16.53706
G1 X95.049 Y53.725 E16.69513
G1 X92.265 Y54.46 E16.85315
G1 X89.461 Y55.116 E17.01119
G1 X86.639 Y55.691 E17.16924
G1 X83.802 Y56.185 E17.32727
G1 X80.952 Y56.598 E17.48531
G1 X79.789 Y56.733 E17.54956
G1 X79.764 Y56.698 E17.55193
G1 X79.42 Y56.385 E17.57745
G1 X79.02 Y56.153 E17.60283
G1 X78.579 Y56.009 E17.62828
G1 X78.139 Y55.962 E17.65257
G1 X73.938 Y55.962 E17.88312
G1 X73.622 Y55.986 E17.90051
G1 X73.18 Y56.1 E17.92556
G1 X72.765 Y56.307 E17.95101
G1 X72.403 Y56.597 E17.97646
G1 X72.11 Y56.957 E18.00194
G1 X71.904 Y57.36 E18.02678
G1 X69.468 Y57.432 E18.16052
G1 X67.99 Y57.433 E18.24163
G1 X66.8 Y56.567 E18.3224
G1 X66.424 Y56.35 E18.34622
G1 X66.163 Y56.265 E18.36129
G1 X65.835 Y56.026 E18.38356
G1 X65.459 Y55.807 E18.40744
G1 X65.018 Y55.663 E18.4329
G1 X64.836 Y55.644 E18.44294
G1 X64.067 Y55.169 E18.49255
G1 X63.817 Y55.036 E18.50809
G1 X63.384 Y54.895 E18.53308
G1 X62.944 Y54.848 E18.55736
G1 X62.877 Y54.848 E18.56104
G1 X62.408 Y54.649 E18.589
G1 X62.034 Y54.529 E18.61055
G1 X61.596 Y54.48 E18.63474
G1 X58.953 Y54.467 E18.77979
G1 X58.659 Y54.487 E18.79596
G1 X57.296 Y54.683 E18.87153
G1 X56.743 Y54.843 E18.90312
G1 X56.688 Y54.875 E18.90661
G1 X56.568 Y54.883 E18.91321
G1 X56.125 Y54.991 E18.93824
G1 X55.726 Y55.184 E18.96256
G1 X54.938 Y55.673 E19.01346
G1 X54.782 Y55.69 E19.02207
G1 X54.342 Y55.831 E19.04742
G1 X53.958 Y56.053 E19.07177
G1 X53.613 Y56.305 E19.09521
G1 X53.376 Y56.382 E19.10889
G1 X52.993 Y56.603 E19.13316
G1 X51.871 Y57.419 E19.20929
G1 X50.946 Y57.422 E19.26006
G1 X48.247 Y57.354 E19.40822
G1 X48.1 Y57.02 E19.42825
G1 X47.831 Y56.642 E19.45371
G1 X47.487 Y56.329 E19.47923
G1 X47.087 Y56.097 E19.50461
G1 X46.646 Y55.953 E19.53007
G1 X46.206 Y55.906 E19.55435
G1 X41.857 Y55.906 E19.79302
G1 X41.533 Y55.931 E19.81086
G1 X41.09 Y56.047 E19.83599
G1 X40.677 Y56.256 E19.86139
G1 X40.316 Y56.547 E19.88684
G1 X40.176 Y56.72 E19.89905
G1 X39.459 Y56.64 E19.93864
G1 X36.607 Y56.24 E20.09669
G1 X33.768 Y55.759 E20.25471
G1 X30.944 Y55.196 E20.41274
G1 X28.136 Y54.554 E20.57082
G1 X25.349 Y53.831 E20.72883
G1 X22.583 Y53.029 E20.88688
G1 X19.84 Y52.149 E21.04497
G1 X18.168 Y51.558 E21.14229
G1 X17.991 Y50.771 E21.18656
G0 F810 X17.875 Y50.252
G0 F900 X17.49 Y50.363
G1 X17.884 Y52.119 E21.28532
G1 X18.138 Y53.035 E21.33749
G1 X18.442 Y53.988 E21.39238
G1 X18.757 Y54.858 E21.44316
G1 X19.135 Y55.79 E21.49836
G1 X19.52 Y56.646 E21.54987
G1 X19.958 Y57.525 E21.60376
G1 X20.409 Y58.35 E21.65536
G1 X20.89 Y59.158 E21.70697
G1 X21.418 Y59.97 E21.76012
G1 X21.937 Y60.706 E21.80954
G1 X22.548 Y61.504 E21.8647
G1 X23.127 Y62.203 E21.91451
G1 X23.751 Y62.898 E21.96577
G1 X24.42 Y63.588 E22.01851
G1 X25.089 Y64.223 E22.06913
G1 X25.8 Y64.851 E22.12119
G1 X26.5 Y65.415 E22.17053
G1 X27.245 Y65.97 E22.22151
G1 X27.994 Y66.485 E22.27139
G1 X28.792 Y66.984 E22.32304
G1 X29.577 Y67.434 E22.3727
G1 X30.387 Y67.852 E22.42272
G1 X31.214 Y68.239 E22.47283
G1 X32.094 Y68.609 E22.52522
G1 X32.919 Y68.913 E22.57347
G1 X33.738 Y69.178 E22.62071
G1 X34.662 Y69.436 E22.67336
G1 X35.555 Y69.647 E22.72372
G1 X36.398 Y69.805 E22.77078
G1 X37.307 Y69.939 E22.82121
G1 X38.212 Y70.035 E22.87115
G1 X39.085 Y70.09 E22.91916
G1 X40.039 Y70.11 E22.97152
G1 X40.152 Y70.11 E22.97773
G1 X40.084 Y69.959 E22.98681
G1 X39.967 Y69.599 E23.00759
G1 X39.927 Y69.222 E23.02839
G1 X39.967 Y68.845 E23.0492
G1 X40.085 Y68.485 E23.06999
G1 X40.276 Y68.158 E23.09077
G1 X40.531 Y67.877 E23.1116
G1 X40.84 Y67.657 E23.13241
G1 X41.187 Y67.506 E23.15318
G1 X41.727 Y67.423 E23.18316
G1 X43.376 Y67.423 E23.27366
G1 X43.395 Y67.349 E23.27785
G1 X43.733 Y66.532 E23.32637
G1 X43.914 Y66.199 E23.34717
G1 X44.16 Y65.911 E23.36796
G1 X44.336 Y65.766 E23.38047
G1 X44.971 Y65.303 E23.4236
G1 X45.299 Y65.113 E23.4444
G1 X45.659 Y64.996 E23.46518
G1 X46.031 Y64.957 E23.48571
G1 X46.817 Y64.957 E23.52884
G1 X47.194 Y64.997 E23.54965
G1 X47.554 Y65.115 E23.57044
G1 X47.877 Y65.303 E23.59095
G1 X48.512 Y65.766 E23.63407
G1 X48.793 Y66.02 E23.65486
G1 X49.015 Y66.327 E23.67565
G1 X49.164 Y66.663 E23.69582
G1 X49.407 Y67.41 E23.73893
G1 X49.485 Y67.781 E23.75974
G1 X49.485 Y68.16 E23.78054
G1 X49.358 Y68.655 E23.80858
G1 X49.02 Y69.472 E23.85711
G1 X48.839 Y69.805 E23.87791
G1 X48.593 Y70.093 E23.89869
G1 X48.572 Y70.11 E23.90017
G1 X55.879 Y70.11 E24.30118
G1 X56.256 Y70.15 E24.32198
G1 X56.776 Y70.349 E24.35254
G1 X57.69 Y70.874 E24.41038
G1 X58.371 Y71.158 E24.45088
G1 X59.019 Y71.335 E24.48774
G1 X59.68 Y71.425 E24.52435
G1 X60.32 Y71.425 E24.55947
G1 X60.981 Y71.335 E24.59608
G1 X61.632 Y71.157 E24.63312
G1 X62.321 Y70.87 E24.67408
G1 X63.089 Y70.444 E24.72228
G1 X63.257 Y70.348 E24.7329
G1 X63.604 Y70.196 E24.75369
G1 X64.15 Y70.111 E24.78401
G1 X71.408 Y70.111 E25.18233
G1 X71.171 Y69.895 E25.19992
G1 X70.95 Y69.587 E25.22073
G1 X70.805 Y69.256 E25.24056
G1 X70.562 Y68.51 E25.28362
G1 X70.483 Y68.14 E25.30438
G1 X70.483 Y67.761 E25.32518
G1 X70.562 Y67.396 E25.34567
G1 X70.805 Y66.65 E25.38873
G1 X70.959 Y66.304 E25.40951
G1 X71.183 Y65.998 E25.43033
G1 X71.456 Y65.753 E25.45046
G1 X72.091 Y65.29 E25.49358
G1 X72.419 Y65.1 E25.51439
G1 X72.779 Y64.983 E25.53516
G1 X73.151 Y64.944 E25.55569
G1 X73.937 Y64.944 E25.59882
G1 X74.314 Y64.984 E25.61963
G1 X74.674 Y65.102 E25.64042
G1 X74.997 Y65.29 E25.66093
G1 X75.632 Y65.753 E25.70406
G1 X75.913 Y66.007 E25.72484
G1 X76.135 Y66.314 E25.74564
G1 X76.228 Y66.502 E25.75715
G1 X76.581 Y67.331 E25.80659
G1 X76.61 Y67.424 E25.81194
G1 X78.078 Y67.424 E25.8925
G1 X78.455 Y67.464 E25.91331
G1 X78.815 Y67.582 E25.9341
G1 X79.142 Y67.772 E25.95485
G1 X79.423 Y68.027 E25.97568
G1 X79.643 Y68.336 E25.99649
G1 X79.795 Y68.683 E26.01728
G1 X79.87 Y69.054 E26.03806
G1 X79.866 Y69.433 E26.05886
G1 X79.787 Y69.79 E26.07892
G1 X79.692 Y70.077 E26.09551
G1 X79.677 Y70.111 E26.09755
G1 X79.9 Y70.111 E26.10979
G1 X80.883 Y70.091 E26.16375
G1 X81.796 Y70.034 E26.21395
G1 X82.684 Y69.939 E26.26296
G1 X83.561 Y69.811 E26.3116
G1 X84.457 Y69.641 E26.36165
G1 X85.337 Y69.437 E26.41122
G1 X86.206 Y69.194 E26.46074
G1 X87.074 Y68.913 E26.51081
G1 X87.942 Y68.593 E26.56158
G1 X88.757 Y68.252 E26.61007
G1 X89.598 Y67.857 E26.66106
G1 X90.404 Y67.442 E26.71081
G1 X91.197 Y66.989 E26.76093
G1 X91.985 Y66.496 E26.81194
G1 X92.743 Y65.977 E26.86235
