;FLAVOR:Marlin
;TIME:6433
;Filament used: 10.1868m
;Layer height: 0.24
;MINX:34.093
;MINY:29.85
;MINZ:0.3
;MAXX:83.75
;MAXY:91.839
;MAXZ:65.1
;Generated with Cura_SteamEngine 4.7.1
M104 S210
M105
M109 S210
M82 ;absolute extrusion mode
;Sliced at: Tue 17-08-2021 10:34:00
G21 ;metric values
G90 ;absolute positioning
M82 ;set extruder to absolute mode
M107 ;start with the fan off
G1 Z5.0 F1800 ;move Z to 5mm
G28 X0 Y0 F1800 ;move X/Y to min endstops
G28 Z0 ;move Z to min endstop
G92 E0 ;zero the extruded length
G1 F200 E6.0 ;extrude 6.0mm of feed stock to build pressure
G1 Z5.0 F300 ;move the platform down 5mm
G92 E0 ;zero the extruded length again
G1 F1800
;Put printing message on LCD screen
M117 Printing...
G92 E0
G92 E0
G1 F1500 E-5
;LAYER_COUNT:272
;LAYER:0
M107
G0 F1080 X47.983 Y33.836 Z0.3
;TYPE:SKIRT
G1 F1500 E0.72757
G1 F900 X48.31 Y33.404 E0.7573
G1 X48.691 Y32.975 E0.78879
G1 X49.352 Y32.31 E0.84024
G1 X49.778 Y31.96 E0.8705
G1 X50.24 Y31.609 E0.90234
G1 X50.743 Y31.277 E0.93542
G1 X51.58 Y30.821 E0.98773
G1 X52.044 Y30.607 E1.01577
G1 X52.515 Y30.433 E1.04332
G1 X53.068 Y30.25 E1.07529
G1 X53.561 Y30.117 E1.10331
G1 X54.157 Y30.005 E1.13659
G1 X54.972 Y29.893 E1.18174
G1 X55.343 Y29.873 E1.20213
G1 X56.718 Y29.85 E1.2776
G1 X78.312 Y29.85 E2.46266
G1 X79.01 Y29.86 E2.50097
G1 X79.627 Y29.909 E2.53494
G1 X80.233 Y30.037 E2.56893
G1 X80.818 Y30.242 E2.60295
G1 X81.371 Y30.521 E2.63694
G1 X81.884 Y30.868 E2.67093
G1 X82.348 Y31.278 E2.70491
G1 X82.755 Y31.745 E2.7389
G1 X83.098 Y32.26 E2.77286
G1 X83.373 Y32.816 E2.8069
G1 X83.573 Y33.402 E2.84088
G1 X83.697 Y34.009 E2.87488
G1 X83.739 Y34.518 E2.90291
G1 X83.75 Y34.964 E2.92739
G1 X83.75 Y81.985 E5.50787
G1 X83.74 Y82.714 E5.54788
G1 X83.691 Y83.331 E5.58185
G1 X83.564 Y83.937 E5.61583
G1 X83.359 Y84.522 E5.64985
G1 X83.081 Y85.075 E5.68381
G1 X82.734 Y85.588 E5.7178
G1 X82.324 Y86.052 E5.75178
G1 X81.857 Y86.46 E5.78581
G1 X81.342 Y86.804 E5.8198
G1 X80.797 Y87.074 E5.85318
G1 X79.555 Y87.595 E5.92709
G1 X79.482 Y87.631 E5.93156
G1 X78.658 Y87.967 E5.9804
G1 X77.612 Y88.414 E6.04282
G1 X77.028 Y88.62 E6.07681
G1 X76.707 Y88.699 E6.09495
G1 X75.787 Y88.891 E6.14653
G1 X75.589 Y88.929 E6.15759
G1 X72.958 Y89.507 E6.30542
G1 X70.352 Y90.156 E6.4528
G1 X67.739 Y90.887 E6.60171
G1 X66.238 Y91.343 E6.6878
G1 X65.399 Y91.605 E6.73604
G1 X64.797 Y91.752 E6.77005
G1 X64.051 Y91.823 E6.81117
G1 X63.115 Y91.839 E6.86254
G1 X61.717 Y91.839 E6.93927
G1 X61.019 Y91.829 E6.97758
G1 X60.751 Y91.817 E6.9923
G1 X59.942 Y91.76 E7.03681
G1 X58.602 Y91.646 E7.11061
G1 X55.941 Y91.495 E7.25688
G1 X53.245 Y91.419 E7.40489
G1 X50.569 Y91.419 E7.55175
G1 X47.034 Y91.531 E7.74584
G1 X45.953 Y91.549 E7.80518
G1 X44.617 Y91.549 E7.87849
G1 X43.919 Y91.539 E7.9168
G1 X43.302 Y91.49 E7.95077
G1 X42.696 Y91.362 E7.98476
G1 X42.111 Y91.157 E8.01878
G1 X41.558 Y90.878 E8.05277
G1 X40.912 Y90.424 E8.0961
G1 X40.189 Y89.82 E8.1478
G1 X37.612 Y87.598 E8.33454
G1 X37.057 Y87.106 E8.37524
G1 X36.621 Y86.666 E8.40924
G1 X36.245 Y86.174 E8.44322
G1 X35.936 Y85.637 E8.47722
G1 X35.72 Y85.127 E8.50762
G1 X35.509 Y84.5 E8.54392
G1 X34.512 Y81.32 E8.72681
G1 X34.288 Y80.563 E8.77014
G1 X34.151 Y79.959 E8.80413
G1 X34.093 Y79.343 E8.83808
G1 X34.134 Y78.559 E8.88117
G1 X34.288 Y77.424 E8.94402
G1 X34.4 Y76.681 E8.98526
G1 X34.723 Y73.993 E9.13384
G1 X34.97 Y71.301 E9.28219
G1 X35.139 Y68.643 E9.42836
G1 X35.233 Y65.95 E9.57624
G1 X35.236 Y65.423 E9.60516
G1 X35.243 Y65.327 E9.61044
G1 X35.265 Y63.949 E9.68607
G1 X35.315 Y63.332 E9.72004
G1 X35.519 Y62.482 E9.76802
G1 X35.805 Y61.644 E9.81661
G1 X36.369 Y60.077 E9.90801
G1 X36.618 Y59.412 E9.94698
G1 X36.967 Y58.676 E9.99168
G1 X37.422 Y57.897 E10.04119
G1 X38.774 Y55.502 E10.19212
G1 X40.022 Y53.14 E10.33873
G1 X41.213 Y50.722 E10.48665
G1 X42.332 Y48.275 E10.63431
G1 X43.386 Y45.791 E10.7824
G1 X44.355 Y43.316 E10.92826
G1 X45.283 Y40.731 E11.07899
G1 X46.118 Y38.179 E11.22635
G1 X46.528 Y36.827 E11.30388
G1 X46.711 Y36.248 E11.3372
G1 X46.933 Y35.706 E11.36935
G1 X47.162 Y35.196 E11.40003
G1 X47.445 Y34.662 E11.43319
G1 X47.678 Y34.291 E11.45724
G1 X47.687 Y34.278 E11.4581
G0 F810 X47.983 Y33.836
G0 F1080 X48.315 Y34.059
G1 F900 X48.671 Y33.596 E11.49016
G1 X49.31 Y32.904 E11.54185
G1 X49.808 Y32.448 E11.5789
G1 X50.481 Y31.928 E11.62558
G1 X50.942 Y31.623 E11.65591
G1 X51.766 Y31.175 E11.70738
G1 X52.265 Y30.95 E11.73742
G1 X52.754 Y30.774 E11.76594
G1 X53.645 Y30.508 E11.81697
G1 X54.217 Y30.401 E11.84891
G1 X55.005 Y30.292 E11.89257
G1 X55.35 Y30.273 E11.91153
G1 X56.718 Y30.25 E11.98661
G1 X78.306 Y30.25 E13.17135
G1 X79.004 Y30.26 E13.20966
G1 X79.595 Y30.309 E13.2422
G1 X80.174 Y30.436 E13.27473
G1 X80.731 Y30.64 E13.30729
G1 X81.255 Y30.918 E13.33984
G1 X81.737 Y31.263 E13.37237
G1 X82.169 Y31.67 E13.40494
G1 X82.541 Y32.131 E13.43745
G1 X82.849 Y32.638 E13.47
G1 X83.085 Y33.182 E13.50255
G1 X83.246 Y33.752 E13.53505
G1 X83.339 Y34.53 E13.57805
G1 X83.35 Y34.964 E13.60188
G1 X83.35 Y81.979 E16.18202
G1 X83.34 Y82.708 E16.22203
G1 X83.292 Y83.299 E16.25458
G1 X83.164 Y83.879 E16.28717
G1 X82.961 Y84.435 E16.31965
G1 X82.684 Y84.96 E16.35223
G1 X82.339 Y85.442 E16.38476
G1 X81.932 Y85.874 E16.41733
G1 X81.472 Y86.247 E16.44983
G1 X80.965 Y86.555 E16.48239
G1 X80.642 Y86.705 E16.50193
G1 X79.495 Y87.186 E16.57019
G1 X79.331 Y87.261 E16.58009
G1 X78.478 Y87.609 E16.63064
G1 X77.455 Y88.046 E16.69169
G1 X76.625 Y88.307 E16.73944
G1 X75.634 Y88.513 E16.79499
G1 X75.499 Y88.539 E16.80253
G1 X72.89 Y89.112 E16.94913
G1 X70.245 Y89.771 E17.09872
G1 X67.613 Y90.507 E17.2487
G1 X66.101 Y90.966 E17.33542
G1 X65.279 Y91.223 E17.38268
G1 X64.703 Y91.362 E17.4152
G1 X64.044 Y91.423 E17.45152
G1 X63.115 Y91.439 E17.50251
G1 X61.723 Y91.439 E17.5789
G1 X61.025 Y91.429 E17.61721
G1 X60.779 Y91.418 E17.63073
G1 X59.976 Y91.361 E17.67491
G1 X58.658 Y91.249 E17.7475
G1 X55.94 Y91.095 E17.8969
G1 X53.257 Y91.019 E18.0442
G1 X50.556 Y91.019 E18.19243
G1 X47.027 Y91.131 E18.38619
G1 X45.953 Y91.149 E18.44514
G1 X44.623 Y91.149 E18.51813
G1 X43.925 Y91.139 E18.55644
G1 X43.334 Y91.09 E18.58899
G1 X42.755 Y90.963 E18.62152
G1 X42.198 Y90.759 E18.65407
G1 X41.674 Y90.481 E18.68662
G1 X41.169 Y90.117 E18.72079
G1 X40.45 Y89.517 E18.77218
G1 X37.877 Y87.299 E18.95861
G1 X37.322 Y86.807 E18.99931
G1 X36.906 Y86.384 E19.03187
G1 X36.55 Y85.91 E19.0644
G1 X36.262 Y85.392 E19.09693
G1 X36.021 Y84.78 E19.13302
G1 X35.88 Y84.348 E19.15796
G1 X34.874 Y81.133 E19.34283
G1 X34.672 Y80.45 E19.38192
G1 X34.542 Y79.871 E19.41449
G1 X34.492 Y79.28 E19.44704
G1 X34.531 Y78.613 E19.4837
G1 X34.684 Y77.483 E19.54628
G1 X34.798 Y76.721 E19.58857
G1 X35.117 Y74.076 E19.73477
G1 X35.369 Y71.327 E19.88627
G1 X35.539 Y68.646 E20.0337
G1 X35.633 Y65.966 E20.18086
G1 X35.636 Y65.425 E20.21055
G1 X35.643 Y65.333 E20.21562
G1 X35.665 Y63.956 E20.29119
G1 X35.714 Y63.365 E20.32374
G1 X35.898 Y62.611 E20.36633
G1 X36.181 Y61.78 E20.41451
G1 X36.743 Y60.217 E20.50566
G1 X36.992 Y59.552 E20.54463
G1 X37.312 Y58.878 E20.58558
G1 X37.788 Y58.062 E20.63742
G1 X39.112 Y55.718 E20.78516
G1 X40.383 Y53.311 E20.93454
G1 X41.585 Y50.873 E21.08371
G1 X42.701 Y48.432 E21.23101
G1 X43.756 Y45.944 E21.37932
G1 X44.731 Y43.454 E21.52607
G1 X45.654 Y40.884 E21.67593
G1 X46.505 Y38.279 E21.82632
G1 X46.902 Y36.971 E21.90134
G1 X47.086 Y36.388 E21.93489
G1 X47.301 Y35.862 E21.96607
G1 X47.526 Y35.361 E21.99621
G1 X47.786 Y34.872 E22.02661
G1 X48.01 Y34.514 E22.04978
G1 X48.019 Y34.501 E22.05065
G0 F810 X48.315 Y34.059
G0 F1080 X48.647 Y34.282
G1 F900 X48.976 Y33.855 E22.08023
G1 X49.6 Y33.179 E22.13072
G1 X50.058 Y32.761 E22.16475
G1 X50.722 Y32.248 E22.2108
G1 X51.141 Y31.97 E22.23839
G1 X51.952 Y31.529 E22.28905
G1 X52.412 Y31.322 E22.31674
G1 X53.317 Y31.01 E22.36927
G1 X53.831 Y30.877 E22.39841
G1 X54.765 Y30.722 E22.45037
G1 X55.357 Y30.673 E22.48297
G1 X56.718 Y30.65 E22.55767
G1 X78.3 Y30.65 E23.74207
G1 X78.998 Y30.66 E23.78038
G1 X79.562 Y30.708 E23.81144
G1 X80.112 Y30.835 E23.84242
G1 X80.64 Y31.039 E23.87349
G1 X81.134 Y31.314 E23.90451
G1 X81.583 Y31.657 E23.93552
G1 X81.98 Y32.059 E23.96653
G1 X82.317 Y32.514 E23.9976
G1 X82.585 Y33.011 E24.02859
G1 X82.781 Y33.541 E24.0596
G1 X82.901 Y34.094 E24.09065
G1 X82.948 Y34.846 E24.132
G1 X82.95 Y34.964 E24.13848
G1 X82.95 Y81.974 E26.71835
G1 X82.94 Y82.703 E26.75836
G1 X82.892 Y83.266 E26.78937
G1 X82.765 Y83.817 E26.8204
G1 X82.562 Y84.345 E26.85145
G1 X82.287 Y84.838 E26.88243
G1 X81.945 Y85.288 E26.91345
G1 X81.542 Y85.686 E26.94453
G1 X81.088 Y86.022 E26.97553
G1 X80.487 Y86.337 E27.01277
G1 X79.252 Y86.855 E27.08626
G1 X79.18 Y86.891 E27.09068
G1 X78.295 Y87.252 E27.14313
G1 X77.297 Y87.678 E27.20268
G1 X76.543 Y87.916 E27.24607
G1 X75.558 Y88.121 E27.30129
G1 X75.424 Y88.147 E27.30878
G1 X72.771 Y88.73 E27.45785
G1 X70.145 Y89.383 E27.60635
G1 X67.529 Y90.115 E27.75543
G1 X65.985 Y90.584 E27.84398
G1 X65.16 Y90.842 E27.89142
G1 X64.61 Y90.972 E27.92244
G1 X64.036 Y91.023 E27.95406
G1 X63.115 Y91.039 E28.00461
G1 X61.729 Y91.039 E28.08068
G1 X61.031 Y91.029 E28.11899
G1 X60.807 Y91.019 E28.13129
G1 X60.01 Y90.963 E28.17514
G1 X58.678 Y90.85 E28.2485
G1 X55.939 Y90.695 E28.39905
G1 X53.268 Y90.619 E28.5457
G1 X50.544 Y90.619 E28.69519
G1 X47.02 Y90.731 E28.88868
G1 X45.953 Y90.749 E28.94724
G1 X44.629 Y90.749 E29.0199
G1 X43.931 Y90.739 E29.05821
G1 X43.367 Y90.691 E29.08928
G1 X42.817 Y90.564 E29.12025
G1 X42.289 Y90.36 E29.15132
G1 X41.795 Y90.085 E29.18235
G1 X41.425 Y89.81 E29.20765
G1 X40.712 Y89.214 E29.25864
G1 X38.143 Y86.999 E29.4448
G1 X37.588 Y86.507 E29.4855
G1 X37.192 Y86.103 E29.51655
G1 X36.858 Y85.648 E29.54752
G1 X36.591 Y85.149 E29.57858
G1 X36.398 Y84.645 E29.6082
G1 X36.262 Y84.229 E29.63222
G1 X35.257 Y81.019 E29.81681
G1 X35.055 Y80.336 E29.8559
G1 X34.934 Y79.784 E29.88691
G1 X34.891 Y79.221 E29.9179
G1 X34.927 Y78.667 E29.94837
G1 X35.079 Y77.543 E30.01061
G1 X35.196 Y76.762 E30.05395
G1 X35.518 Y74.089 E30.2017
G1 X35.766 Y71.388 E30.35055
G1 X35.937 Y68.687 E30.49908
G1 X36.033 Y65.949 E30.64943
G1 X36.036 Y65.427 E30.67808
G1 X36.043 Y65.339 E30.68292
G1 X36.065 Y63.962 E30.7585
G1 X36.114 Y63.399 E30.78952
G1 X36.277 Y62.74 E30.82677
G1 X36.558 Y61.915 E30.8746
G1 X37.118 Y60.357 E30.96546
G1 X37.367 Y59.692 E31.00443
G1 X37.658 Y59.08 E31.04162
G1 X38.106 Y58.312 E31.09041
G1 X39.471 Y55.896 E31.2427
G1 X40.738 Y53.496 E31.39163
G1 X41.943 Y51.05 E31.54127
G1 X43.07 Y48.586 E31.68997
G1 X44.12 Y46.111 E31.83751
G1 X45.107 Y43.589 E31.98614
G1 X46.038 Y40.996 E32.13734
G1 X46.875 Y38.435 E32.2852
G1 X47.294 Y37.059 E32.36414
G1 X47.461 Y36.528 E32.39468
G1 X47.67 Y36.017 E32.42498
G1 X47.891 Y35.526 E32.45453
G1 X48.127 Y35.082 E32.48213
G1 X48.342 Y34.737 E32.50443
G1 X48.351 Y34.724 E32.5053
G0 F810 X48.647 Y34.282
G0 F1080 X48.98 Y34.505
G1 F900 X49.347 Y34.038 E32.5379
G1 X49.89 Y33.454 E32.58166
G1 X50.308 Y33.073 E32.6127
G1 X50.963 Y32.567 E32.65812
G1 X51.592 Y32.173 E32.69885
G1 X52.139 Y31.883 E32.73283
G1 X52.682 Y31.647 E32.76532
G1 X53.442 Y31.39 E32.80935
G1 X54.02 Y31.248 E32.84201
G1 X54.825 Y31.118 E32.88676
G1 X55.364 Y31.073 E32.91645
G1 X56.718 Y31.05 E32.99076
G1 X78.295 Y31.05 E34.17489
G1 X78.993 Y31.06 E34.2132
G1 X79.527 Y31.108 E34.24263
G1 X80.048 Y31.234 E34.27204
G1 X80.545 Y31.437 E34.30151
G1 X81.006 Y31.711 E34.33094
G1 X81.421 Y32.05 E34.36034
G1 X81.781 Y32.448 E34.3898
G1 X82.078 Y32.894 E34.4192
G1 X82.306 Y33.38 E34.44866
G1 X82.458 Y33.894 E34.47808
G1 X82.539 Y34.553 E34.51452
G1 X82.55 Y34.964 E34.53708
G1 X82.55 Y81.968 E37.11662
G1 X82.54 Y82.697 E37.15663
G1 X82.492 Y83.232 E37.18611
G1 X82.366 Y83.753 E37.21553
G1 X82.164 Y84.25 E37.24497
G1 X81.89 Y84.711 E37.2744
G1 X81.551 Y85.126 E37.30381
G1 X81.154 Y85.487 E37.33326
G1 X80.708 Y85.784 E37.36266
G1 X80.333 Y85.968 E37.38559
G1 X79.069 Y86.498 E37.4608
G1 X79.029 Y86.52 E37.46331
G1 X78.198 Y86.859 E37.51256
G1 X77.14 Y87.311 E37.5757
G1 X76.461 Y87.524 E37.61475
G1 X75.483 Y87.728 E37.66958
G1 X75.334 Y87.757 E37.67791
G1 X72.668 Y88.342 E37.8277
G1 X70.07 Y88.989 E37.97463
G1 X67.403 Y89.735 E38.12661
G1 X65.869 Y90.201 E38.2146
G1 X65.04 Y90.46 E38.26226
G1 X64.518 Y90.581 E38.29167
G1 X64.029 Y90.623 E38.3186
G1 X63.115 Y90.639 E38.36877
G1 X61.734 Y90.639 E38.44456
G1 X61.036 Y90.629 E38.48287
G1 X60.835 Y90.62 E38.49391
G1 X60.044 Y90.564 E38.53743
G1 X58.701 Y90.45 E38.61139
G1 X56.008 Y90.297 E38.75942
G1 X53.243 Y90.219 E38.91122
G1 X50.531 Y90.219 E39.06006
G1 X47.189 Y90.324 E39.24355
G1 X47.013 Y90.331 E39.25322
G1 X45.953 Y90.349 E39.3114
G1 X44.634 Y90.349 E39.38379
G1 X43.936 Y90.339 E39.42209
G1 X43.402 Y90.291 E39.45152
G1 X42.881 Y90.165 E39.48093
G1 X42.384 Y89.962 E39.5104
G1 X41.923 Y89.688 E39.53983
G1 X41.681 Y89.503 E39.55654
G1 X40.973 Y88.911 E39.60719
G1 X38.408 Y86.7 E39.79304
G1 X37.853 Y86.208 E39.83374
G1 X37.479 Y85.823 E39.8632
G1 X37.167 Y85.387 E39.89262
G1 X36.85 Y84.724 E39.93295
G1 X36.651 Y84.133 E39.96717
G1 X35.641 Y80.906 E40.15274
G1 X35.439 Y80.223 E40.19182
G1 X35.325 Y79.699 E40.22125
G1 X35.291 Y79.164 E40.25067
G1 X35.323 Y78.72 E40.2751
G1 X35.475 Y77.602 E40.33702
G1 X35.59 Y76.832 E40.37975
G1 X35.914 Y74.141 E40.52849
G1 X36.165 Y71.414 E40.67878
G1 X36.338 Y68.69 E40.82858
G1 X36.433 Y65.965 E40.97821
G1 X36.436 Y65.429 E41.00763
G1 X36.441 Y65.361 E41.01137
G1 X36.464 Y63.969 E41.08777
G1 X36.513 Y63.435 E41.1172
G1 X36.656 Y62.868 E41.14929
G1 X36.934 Y62.05 E41.1967
G1 X37.476 Y60.542 E41.28465
G1 X37.742 Y59.833 E41.3262
G1 X38.003 Y59.281 E41.35971
G1 X38.479 Y58.465 E41.41156
G1 X39.83 Y56.073 E41.56232
G1 X41.093 Y53.681 E41.71076
G1 X42.288 Y51.257 E41.85908
G1 X43.441 Y48.736 E42.01121
G1 X44.502 Y46.234 E42.16036
G1 X45.484 Y43.725 E42.30822
G1 X46.404 Y41.161 E42.45771
G1 X47.263 Y38.535 E42.60934
G1 X47.676 Y37.175 E42.68734
G1 X47.836 Y36.667 E42.71657
G1 X48.038 Y36.173 E42.74586
G1 X48.255 Y35.691 E42.77487
G1 X48.599 Y35.078 E42.81344
G1 X48.675 Y34.96 E42.82115
G1 X48.684 Y34.947 E42.82201
G0 F810 X48.98 Y34.505
G0 F1080 X49.312 Y34.727
G1 F900 X49.645 Y34.305 E42.85151
G1 X50.181 Y33.729 E42.89469
G1 X50.558 Y33.385 E42.9227
G1 X51.204 Y32.886 E42.9675
G1 X51.791 Y32.52 E43.00546
G1 X52.325 Y32.237 E43.03863
G1 X52.816 Y32.024 E43.068
G1 X53.567 Y31.77 E43.11151
G1 X54.092 Y31.641 E43.14118
G1 X54.885 Y31.513 E43.18526
G1 X55.371 Y31.472 E43.21203
G1 X56.664 Y31.45 E43.28299
G1 X78.289 Y31.45 E44.46976
G1 X78.987 Y31.46 E44.50807
G1 X79.49 Y31.507 E44.53579
G1 X79.98 Y31.633 E44.56356
G1 X80.444 Y31.835 E44.59133
G1 X80.87 Y32.107 E44.61907
G1 X81.248 Y32.442 E44.64679
G1 X81.568 Y32.833 E44.67451
G1 X81.823 Y33.27 E44.70228
G1 X82.006 Y33.741 E44.73001
G1 X82.113 Y34.235 E44.75775
G1 X82.149 Y34.869 E44.7926
G1 X82.15 Y81.963 E47.37708
G1 X82.14 Y82.692 E47.41709
G1 X82.093 Y83.195 E47.44482
G1 X81.967 Y83.685 E47.47258
G1 X81.766 Y84.149 E47.50033
G1 X81.495 Y84.575 E47.52804
G1 X81.159 Y84.954 E47.55584
G1 X80.768 Y85.274 E47.58357
G1 X80.178 Y85.599 E47.62053
G1 X78.954 Y86.112 E47.69336
G1 X78.878 Y86.15 E47.69803
G1 X78.019 Y86.5 E47.74893
G1 X76.983 Y86.943 E47.81077
G1 X76.38 Y87.133 E47.84546
G1 X75.408 Y87.335 E47.89995
G1 X75.244 Y87.366 E47.9091
G1 X72.591 Y87.949 E48.05817
G1 X69.971 Y88.602 E48.20636
G1 X67.264 Y89.359 E48.36061
G1 X65.752 Y89.818 E48.44733
G1 X64.921 Y90.078 E48.49511
G1 X64.428 Y90.19 E48.52286
G1 X64.022 Y90.224 E48.54522
G1 X63.171 Y90.239 E48.59193
G1 X61.74 Y90.239 E48.67046
G1 X61.042 Y90.229 E48.70877
G1 X60.863 Y90.221 E48.7186
G1 X60.078 Y90.165 E48.76179
G1 X58.757 Y90.053 E48.83455
G1 X56.007 Y89.897 E48.98571
G1 X53.254 Y89.819 E49.13685
G1 X50.519 Y89.819 E49.28695
G1 X47.206 Y89.923 E49.46885
G1 X47.006 Y89.932 E49.47984
G1 X46.007 Y89.949 E49.53467
G1 X44.64 Y89.949 E49.60969
G1 X43.942 Y89.939 E49.648
G1 X43.439 Y89.892 E49.67572
G1 X42.949 Y89.766 E49.70349
G1 X42.485 Y89.564 E49.73126
G1 X41.938 Y89.196 E49.76744
G1 X41.234 Y88.608 E49.81778
G1 X38.673 Y86.401 E50.00331
G1 X38.118 Y85.909 E50.04402
G1 X37.768 Y85.544 E50.07177
G1 X37.479 Y85.129 E50.09952
G1 X37.227 Y84.589 E50.13222
