;FLAVOR:Marlin
;TIME:3671
;Filament used: 1.92214m
;Layer height: 0.12
;MINX:34.449
;MINY:34.403
;MINZ:0.24
;MAXX:87.243
;MAXY:87.245
;MAXZ:24
;Generated with Cura_SteamEngine 4.6.1
M104 S210
M105
M109 S210
M82 ;absolute extrusion mode
;Sliced at: Thu 28-05-2020 22:16:38
G21 ;metric values
G90 ;absolute positioning
M82 ;set extruder to absolute mode
M107 ;start with the fan off
G1 Z5.0 F1800 ;move Z to 5mm
G28 X0 Y0 F1800 ;move X/Y to min endstops
G28 Z0 ;move Z to min endstop
G92 E0 ;zero the extruded length
G1 F200 E6.0 ;extrude 6.0mm of feed stock to build pressure
G1 Z5.0 F300 ;move the platform down 5mm
G92 E0 ;zero the extruded length again
G1 F1800
;Put printing message on LCD screen
M117 Printing...
G92 E0
G92 E0
G1 F1500 E-3
;LAYER_COUNT:200
;LAYER:0
M106 S102
G0 F1440 X40.05 Y40.207 Z0.24
;TYPE:SKIRT
G1 F1500 E0
G1 F900 X40.478 Y39.79 E0.02605
G1 X40.857 Y39.46 E0.04797
G1 X41.515 Y38.928 E0.08486
G1 X42.009 Y38.57 E0.11146
G1 X42.438 Y38.296 E0.13366
G1 X43.054 Y37.92 E0.16512
G1 X43.669 Y37.554 E0.19633
G1 X44.144 Y37.288 E0.22007
G1 X44.637 Y37.058 E0.24379
G1 X45.126 Y36.865 E0.26671
G1 X45.659 Y36.696 E0.29109
G1 X46.26 Y36.553 E0.31802
G1 X46.763 Y36.473 E0.34023
G1 X44.498 Y37.556 E0.4497
G1 X43.348 Y38.068 E0.50459
G1 X43.348 Y38.211 E0.51082
G1 X42.789 Y38.547 E0.53926
G1 X42.316 Y38.85 E0.56375
G1 X41.889 Y39.144 E0.58636
G1 X41.359 Y39.568 E0.61595
G1 X40.779 Y40.055 E0.64897
G1 X40.317 Y40.504 E0.67706
G1 X39.914 Y40.948 E0.70321
G1 X39.517 Y41.409 E0.72973
G1 X39.12 Y41.933 E0.7584
G1 X38.713 Y42.506 E0.78904
G1 X38.395 Y43.008 E0.81495
G1 X38.174 Y43.407 E0.83484
G1 X37.808 Y44.141 E0.8706
G1 X37.557 Y44.668 E0.89605
G1 X37.362 Y45.134 E0.91808
G1 X37.144 Y45.783 E0.94793
G1 X37.011 Y46.316 E0.97188
G1 X36.903 Y46.975 E1.001
G1 X36.851 Y47.672 E1.03148
G1 X36.865 Y48.335 E1.06039
G1 X36.913 Y48.847 E1.08281
G1 X37.138 Y50.339 E1.1486
G1 X37.304 Y51.405 E1.19564
G1 X37.422 Y52.218 E1.23146
G1 X37.554 Y52.869 E1.26042
G1 X37.728 Y53.488 E1.28846
G1 X37.944 Y54.159 E1.3192
G1 X38.154 Y54.703 E1.34462
G1 X38.573 Y55.607 E1.38806
G1 X38.917 Y56.218 E1.41864
G1 X39.247 Y56.749 E1.4459
G1 X39.358 Y56.91 E1.45442
G1 X39.211 Y57.057 E1.46349
G1 X40.758 Y58.604 E1.55888
G1 X41.229 Y59.055 E1.58731
G1 X43.486 Y61.249 E1.72456
G1 X43.46 Y61.275 E1.72616
G1 X46.391 Y64.206 E1.90689
G1 X46.43 Y64.167 E1.9093
G1 X47.132 Y64.73 E1.94853
G1 X49.083 Y66.227 E2.05576
G1 X51.218 Y67.981 E2.17624
G1 X53.294 Y69.79 E2.2963
G1 X55.402 Y71.739 E2.42148
G1 X57.283 Y73.589 E2.53651
G1 X59.231 Y75.619 E2.65918
G1 X61.038 Y77.618 E2.77668
G1 X62.82 Y79.712 E2.89657
G1 X63.452 Y80.479 E2.9399
G1 X63.846 Y80.926 E2.96588
G1 X64.202 Y81.303 E2.98849
G1 X64.57 Y81.661 E3.01087
G1 X65.164 Y82.167 E3.0449
G1 X65.717 Y82.592 E3.07531
G1 X66.191 Y82.91 E3.10019
G1 X66.775 Y83.263 E3.12995
G1 X67.333 Y83.562 E3.15755
G1 X67.851 Y83.808 E3.18255
G1 X68.463 Y84.059 E3.2114
G1 X69.221 Y84.323 E3.24639
G1 X70.036 Y84.541 E3.28318
G1 X70.543 Y84.644 E3.30574
G1 X71.2 Y84.743 E3.33471
G1 X71.803 Y84.809 E3.36116
G1 X72.417 Y84.84 E3.38796
G1 X73.083 Y84.842 E3.417
G1 X73.922 Y84.79 E3.45365
G1 X74.629 Y84.699 E3.48473
G1 X75.349 Y84.561 E3.5167
G1 X75.886 Y84.431 E3.54079
G1 X75.886 Y84.496 E3.54362
G1 X76.863 Y84.122 E3.58924
G1 X77.487 Y83.876 E3.61848
G1 X78.097 Y83.6 E3.64768
G1 X78.538 Y83.372 E3.66932
G1 X78.563 Y83.385 E3.67055
G1 X79.309 Y82.914 E3.70902
G1 X79.787 Y82.593 E3.73412
G1 X80.535 Y82.004 E3.77564
G1 X81.042 Y81.553 E3.80522
G1 X81.623 Y80.966 E3.84123
G1 X82.212 Y80.285 E3.88049
G1 X82.602 Y79.771 E3.90862
G1 X82.936 Y79.274 E3.93473
G1 X83.199 Y78.842 E3.95679
G1 X83.506 Y78.288 E3.9844
G1 X83.755 Y77.766 E4.00962
G1 X84.096 Y76.949 E4.04822
G1 X84.316 Y76.29 E4.07851
G1 X84.47 Y75.73 E4.10384
G1 X84.615 Y75.124 E4.131
G1 X84.703 Y74.589 E4.15465
G1 X84.775 Y74.063 E4.17779
G1 X84.832 Y73.292 E4.2115
G1 X84.842 Y72.737 E4.23571
G1 X84.815 Y71.935 E4.27069
G1 X84.766 Y71.349 E4.29633
G1 X84.644 Y70.565 E4.33093
G1 X84.491 Y69.83 E4.36366
G1 X84.349 Y69.305 E4.38738
G1 X84.118 Y68.629 E4.41853
G1 X83.905 Y68.078 E4.44428
G1 X83.592 Y67.389 E4.47728
G1 X83.242 Y66.736 E4.50958
G1 X82.845 Y66.085 E4.54283
G1 X82.561 Y65.683 E4.56429
G1 X82.626 Y65.618 E4.5683
G1 X81.505 Y64.406 E4.64028
G1 X81.049 Y63.949 E4.66843
G1 X80.321 Y63.312 E4.71061
G1 X79.68 Y62.782 E4.74688
G1 X78.969 Y62.183 E4.78741
G1 X78.455 Y61.758 E4.81649
G1 X77.181 Y60.67 E4.88954
G1 X74.343 Y58.008 E5.0592
G1 X72.543 Y56.214 E5.17001
G1 X70.532 Y54.087 E5.29764
G1 X68.722 Y52.054 E5.41632
G1 X66.033 Y48.818 E5.59977
G1 X65.085 Y47.586 E5.66755
G1 X64.327 Y46.626 E5.72089
G1 X63.979 Y46.213 E5.74444
G1 X63.565 Y45.763 E5.7711
G1 X61.639 Y43.831 E5.89004
G1 X60.627 Y42.828 E5.95217
G1 X59.471 Y41.667 E6.02361
G1 X58.509 Y40.678 E6.08376
G1 X58.021 Y40.228 E6.11271
G1 X56.777 Y39.26 E6.18143
G1 X56.281 Y38.95 E6.20694
G1 X55.756 Y38.669 E6.2329
G1 X55.171 Y38.377 E6.26141
G1 X54.652 Y38.147 E6.28616
G1 X53.728 Y37.805 E6.32912
G1 X53.189 Y37.64 E6.3537
G1 X52.782 Y37.536 E6.37202
G1 X52.268 Y37.433 E6.39487
G1 X51.66 Y37.328 E6.42177
G1 X50.612 Y37.17 E6.46799
G1 X48.886 Y36.88 E6.5443
G1 X48.328 Y36.824 E6.56875
G1 X47.38 Y36.778 E6.61013
G1 X47.38 Y36.417 E6.62587
G1 X47.922 Y36.405 E6.64951
G1 X48.678 Y36.451 E6.68254
G1 X51.838 Y36.952 E6.82204
G1 X52.884 Y37.149 E6.86845
G1 X53.599 Y37.342 E6.90074
G1 X54.522 Y37.665 E6.94338
G1 X55.357 Y38.023 E6.98299
G1 X55.843 Y38.267 E7.0067
G1 X56.56 Y38.649 E7.04212
G1 X56.99 Y38.921 E7.06431
G1 X57.905 Y39.618 E7.11446
G1 X58.431 Y40.054 E7.14425
G1 X58.765 Y40.369 E7.16427
G1 X59.769 Y41.401 E7.22705
G1 X61.269 Y42.908 E7.31976
G1 X61.945 Y43.571 E7.36104
G1 X63.665 Y45.296 E7.46726
G1 X64.122 Y45.77 E7.49597
G1 X64.656 Y46.4 E7.53198
G1 X65.41 Y47.354 E7.58499
G1 X66.334 Y48.557 E7.65113
G1 X68.79 Y51.523 E7.81904
G1 X70.844 Y53.837 E7.95395
G1 X72.728 Y55.832 E8.07359
G1 X74.673 Y57.771 E8.19334
G1 X76.674 Y59.647 E8.31294
G1 X78.729 Y61.465 E8.43257
G1 X79.247 Y61.893 E8.46187
G1 X79.932 Y62.474 E8.50103
G1 X80.568 Y62.999 E8.53699
G1 X81.12 Y63.475 E8.56877
G1 X81.506 Y63.833 E8.59173
G1 X81.871 Y64.213 E8.6147
G1 X82.322 Y64.721 E8.64432
G1 X82.685 Y65.177 E8.66973
G1 X83.167 Y65.852 E8.7059
G1 X83.576 Y66.514 E8.73983
G1 X83.958 Y67.228 E8.77513
G1 X84.272 Y67.919 E8.80823
G1 X84.485 Y68.466 E8.83382
G1 X84.742 Y69.229 E8.86893
G1 X84.88 Y69.739 E8.89196
G1 X85.006 Y70.318 E8.9178
G1 X85.107 Y70.873 E8.9424
G1 X85.171 Y71.397 E8.96541
G1 X85.226 Y72.054 E8.99416
G1 X85.243 Y72.721 E9.02325
G1 X85.231 Y73.348 E9.0506
G1 X85.198 Y73.858 E9.07288
G1 X85.094 Y74.703 E9.11
G1 X84.967 Y75.388 E9.14038
G1 X84.823 Y75.97 E9.16652
G1 X84.632 Y76.632 E9.19656
G1 X84.408 Y77.245 E9.22502
G1 X84.217 Y77.712 E9.24702
G1 X83.988 Y78.222 E9.27139
G1 X83.738 Y78.702 E9.29499
G1 X83.248 Y79.531 E9.33698
G1 X82.951 Y79.97 E9.36009
G1 X82.504 Y80.558 E9.39229
G1 X81.579 Y81.586 E9.45259
G1 X81.162 Y81.983 E9.4777
G1 X80.431 Y82.605 E9.51955
G1 X79.833 Y83.047 E9.55197
G1 X79.259 Y83.419 E9.58179
G1 X78.74 Y83.717 E9.60789
G1 X78.291 Y83.951 E9.62996
G1 X77.645 Y84.244 E9.66089
G1 X77.112 Y84.453 E9.68585
G1 X76.623 Y84.628 E9.7085
G1 X76.131 Y84.778 E9.73093
G1 X75.447 Y84.949 E9.76167
G1 X74.773 Y85.079 E9.7916
G1 X74.015 Y85.182 E9.82495
G1 X73.512 Y85.222 E9.84695
G1 X72.674 Y85.245 E9.88351
G1 X72.027 Y85.224 E9.91173
G1 X71.463 Y85.173 E9.93642
G1 X70.841 Y85.1 E9.96373
G1 X70.229 Y84.992 E9.99083
G1 X69.438 Y84.799 E10.02633
G1 X68.695 Y84.568 E10.06025
G1 X68.167 Y84.373 E10.08479
G1 X67.702 Y84.177 E10.1068
G1 X67.176 Y83.932 E10.1321
G1 X66.648 Y83.649 E10.15822
G1 X65.916 Y83.209 E10.19546
G1 X65.166 Y82.678 E10.23552
G1 X64.62 Y82.235 E10.26618
G1 X64.194 Y81.855 E10.29107
G1 X63.712 Y81.372 E10.32082
G1 X63.341 Y80.963 E10.3449
G1 X62.526 Y79.983 E10.40048
G1 X60.759 Y77.904 E10.51944
G1 X58.92 Y75.868 E10.63907
G1 X57.023 Y73.892 E10.7585
G1 X55.063 Y71.966 E10.87832
G1 X53.049 Y70.104 E10.99791
G1 X50.981 Y68.306 E11.1174
G1 X48.862 Y66.564 E11.237
G1 X46.898 Y65.056 E11.34497
G1 X46.384 Y64.652 E11.37347
G1 X45.784 Y64.128 E11.40821
G1 X44.924 Y63.297 E11.46035
G1 X43.971 Y62.348 E11.51899
G1 X42.905 Y61.267 E11.58519
G1 X42.919 Y61.253 E11.58605
G1 X40.44 Y58.849 E11.73662
G1 X39.971 Y58.342 E11.76673
G1 X39.537 Y57.807 E11.79677
G1 X39.173 Y57.337 E11.82269
G1 X38.746 Y56.708 E11.85584
G1 X38.408 Y56.145 E11.88447
G1 X37.995 Y55.331 E11.92427
G1 X37.775 Y54.84 E11.94773
G1 X37.554 Y54.258 E11.97487
G1 X37.356 Y53.634 E12.00342
G1 X37.213 Y53.134 E12.02609
G1 X37.068 Y52.516 E12.05377
G1 X36.658 Y49.807 E12.17323
G1 X36.522 Y48.969 E12.21025
G1 X36.469 Y48.439 E12.23347
G1 X36.449 Y47.863 E12.2586
G1 X36.475 Y47.231 E12.28618
G1 X36.533 Y46.714 E12.30887
G1 X36.64 Y46.135 E12.33454
G1 X36.846 Y45.39 E12.36824
G1 X37.057 Y44.817 E12.39487
G1 X37.412 Y44.039 E12.43215
G1 X37.825 Y43.212 E12.47246
G1 X38.153 Y42.637 E12.50132
G1 X38.551 Y42.041 E12.53257
G1 X38.982 Y41.445 E12.56464
G1 X39.52 Y40.792 E12.60153
G1 X39.604 Y40.7 E12.60696
G0 F810 X40.05 Y40.207
G0 F1440 X39.763 Y39.928
G1 F900 X40.215 Y39.488 E12.63447
G1 X40.594 Y39.158 E12.65638
G1 X41.271 Y38.611 E12.69433
G1 X41.793 Y38.234 E12.7224
G1 X42.221 Y37.96 E12.74456
G1 X42.847 Y37.577 E12.77656
G1 X43.468 Y37.208 E12.80806
G1 X43.965 Y36.93 E12.83289
G1 X44.432 Y36.711 E12.85538
G1 X44.991 Y36.488 E12.88162
G1 X45.486 Y36.328 E12.9043
G1 X45.982 Y36.203 E12.9266
G1 X46.55 Y36.097 E12.9518
G1 X47.116 Y36.033 E12.97663
G1 X47.663 Y36.005 E13.00051
G1 X48.354 Y36.023 E13.03065
G1 X48.89 Y36.074 E13.05413
G1 X50.471 Y36.332 E13.12398
G1 X51.898 Y36.556 E13.18696
G1 X52.964 Y36.757 E13.23426
G1 X53.711 Y36.958 E13.26799
G1 X54.669 Y37.293 E13.31224
G1 X55.523 Y37.659 E13.35275
G1 X56.02 Y37.908 E13.37699
G1 X56.756 Y38.3 E13.41335
G1 X57.227 Y38.598 E13.43765
G1 X58.158 Y39.308 E13.4887
G1 X58.702 Y39.76 E13.51954
G1 X59.052 Y40.09 E13.54051
G1 X60.054 Y41.12 E13.60317
G1 X61.55 Y42.623 E13.69563
G1 X62.23 Y43.29 E13.73716
G1 X63.949 Y45.014 E13.84331
G1 X64.413 Y45.495 E13.87245
G1 X64.963 Y46.143 E13.90951
G1 X65.727 Y47.11 E13.96325
G1 X66.647 Y48.308 E14.02911
G1 X69.096 Y51.265 E14.19652
G1 X71.139 Y53.567 E14.33072
G1 X73.015 Y55.553 E14.44984
G1 X74.951 Y57.483 E14.56903
G1 X76.943 Y59.351 E14.6881
G1 X78.989 Y61.161 E14.80721
G1 X79.506 Y61.588 E14.83644
G1 X80.189 Y62.167 E14.87549
G1 X80.823 Y62.69 E14.91132
G1 X81.388 Y63.178 E14.94387
G1 X81.787 Y63.548 E14.9676
G1 X82.161 Y63.937 E14.99113
G1 X82.632 Y64.468 E15.02208
G1 X83.001 Y64.931 E15.04789
G1 X83.501 Y65.631 E15.0854
G1 X83.926 Y66.32 E15.1207
G1 X84.315 Y67.047 E15.15665
G1 X84.638 Y67.757 E15.19066
G1 X84.863 Y68.334 E15.21766
G1 X85.123 Y69.107 E15.25322
G1 X85.268 Y69.64 E15.27731
G1 X85.397 Y70.233 E15.30377
G1 X85.503 Y70.814 E15.32952
G1 X85.57 Y71.364 E15.35368
G1 X85.621 Y71.978 E15.38054
G1 X85.643 Y72.726 E15.41317
G1 X85.631 Y73.362 E15.4409
G1 X85.596 Y73.899 E15.46437
G1 X85.488 Y74.771 E15.50268
G1 X85.355 Y75.485 E15.53435
G1 X85.208 Y76.077 E15.56094
G1 X85.01 Y76.763 E15.59207
G1 X84.782 Y77.388 E15.62108
G1 X84.584 Y77.872 E15.64388
G1 X84.345 Y78.402 E15.66923
G1 X84.09 Y78.892 E15.69332
G1 X83.608 Y79.71 E15.73472
G1 X83.273 Y80.207 E15.76085
G1 X82.82 Y80.804 E15.79353
G1 X82.261 Y81.455 E15.83094
G1 X81.858 Y81.873 E15.85626
G1 X81.433 Y82.278 E15.88185
G1 X80.679 Y82.919 E15.925
G1 X80.053 Y83.38 E15.9589
G1 X79.275 Y83.877 E15.99915
G1 X78.578 Y84.255 E16.03373
G1 X77.809 Y84.609 E16.07064
G1 X77.254 Y84.827 E16.09664
G1 X76.757 Y85.005 E16.11966
G1 X76.241 Y85.163 E16.14319
G1 X75.527 Y85.341 E16.17527
G1 X74.845 Y85.472 E16.20555
G1 X74.05 Y85.581 E16.24054
G1 X73.531 Y85.622 E16.26324
G1 X72.674 Y85.645 E16.30062
G1 X72.013 Y85.624 E16.32945
G1 X71.423 Y85.571 E16.35528
G1 X70.781 Y85.495 E16.38347
G1 X70.145 Y85.383 E16.41163
G1 X69.404 Y85.203 E16.44488
G1 X68.557 Y84.944 E16.4835
G1 X68.012 Y84.742 E16.50884
G1 X67.547 Y84.546 E16.53084
G1 X66.993 Y84.287 E16.55751
G1 X66.456 Y84 E16.58405
G1 X65.839 Y83.631 E16.6154
G1 X65.271 Y83.255 E16.6451
G1 X64.704 Y82.826 E16.6761
G1 X64.038 Y82.257 E16.7143
G1 X63.598 Y81.83 E16.74103
G1 X63.252 Y81.464 E16.76299
G1 X62.865 Y81.023 E16.78857
G1 X62.219 Y80.24 E16.83283
G1 X60.458 Y78.168 E16.9514
G1 X58.627 Y76.141 E17.0705
G1 X56.738 Y74.173 E17.18944
G1 X54.787 Y72.256 E17.3087
G1 X52.782 Y70.402 E17.42777
G1 X50.723 Y68.611 E17.54676
G1 X48.613 Y66.877 E17.66584
G1 X46.654 Y65.373 E17.77352
G1 X46.137 Y64.967 E17.80219
G1 X45.519 Y64.428 E17.83794
G1 X45.15 Y64.083 E17.85997
G1 X44.643 Y63.582 E17.89105
G1 X43.688 Y62.631 E17.94981
G1 X42.62 Y61.547 E18.01616
G1 X42.337 Y61.269 E18.03346
G1 X42.349 Y61.257 E18.0342
G1 X40.202 Y59.175 E18.1646
G1 X39.798 Y58.752 E18.1901
G1 X39.226 Y58.058 E18.22932
G1 X38.857 Y57.582 E18.25558
G1 X38.404 Y56.916 E18.2907
G1 X38.057 Y56.337 E18.32013
G1 X37.635 Y55.505 E18.3608
G1 X37.41 Y55.003 E18.38479
G1 X37.176 Y54.389 E18.41344
G1 X36.971 Y53.744 E18.44295
G1 X36.829 Y53.247 E18.46549
G1 X36.676 Y52.597 E18.4946
G1 X36.263 Y49.87 E18.61486
G1 X36.127 Y49.03 E18.65197
G1 X36.065 Y48.388 E18.68009
G1 X36.049 Y47.856 E18.70329
G1 X36.077 Y47.191 E18.73232
G1 X36.136 Y46.665 E18.75539
G1 X36.251 Y46.04 E18.7831
G1 X36.467 Y45.262 E18.81831
G1 X36.685 Y44.669 E18.84586
G1 X37.054 Y43.86 E18.88463
G1 X37.472 Y43.023 E18.92542
G1 X37.817 Y42.419 E18.95575
G1 X38.224 Y41.81 E18.98769
G1 X38.666 Y41.2 E19.02053
G1 X39.218 Y40.53 E19.05838
G1 X39.317 Y40.421 E19.0648
G0 F810 X39.763 Y39.928
G0 F1440 X39.467 Y39.659
G1 F900 X39.952 Y39.186 E19.09434
G1 X40.331 Y38.856 E19.11625
G1 X41.019 Y38.3 E19.15482
G1 X41.437 Y37.991 E19.17749
G1 X42.005 Y37.623 E19.207
G1 X42.643 Y37.233 E19.2396
G1 X43.361 Y36.806 E19.27602
G1 X43.896 Y36.517 E19.30254
G1 X44.476 Y36.257 E19.33025
G1 X45.057 Y36.043 E19.35725
G1 X45.656 Y35.869 E19.38445
G1 X46.153 Y35.759 E19.40664
G1 X46.76 Y35.666 E19.43342
G1 X47.45 Y35.612 E19.46359
G1 X48.075 Y35.609 E19.49084
G1 X48.71 Y35.651 E19.51859
G1 X49.225 Y35.719 E19.54124
G1 X49.777 Y35.815 E19.56567
G1 X50.542 Y35.938 E19.59946
G1 X51.957 Y36.16 E19.66191
G1 X52.464 Y36.247 E19.68434
G1 X53.044 Y36.365 E19.71014
G1 X53.778 Y36.561 E19.74327
G1 X54.816 Y36.921 E19.79117
G1 X55.328 Y37.129 E19.81527
G1 X55.81 Y37.353 E19.83844
G1 X56.322 Y37.609 E19.8634
G1 X56.914 Y37.93 E19.89277
G1 X57.47 Y38.28 E19.92141
G1 X58.411 Y38.998 E19.97302
G1 X58.973 Y39.466 E20.00491
G1 X59.339 Y39.811 E20.02684
G1 X60.339 Y40.839 E20.08937
G1 X61.831 Y42.338 E20.18159
G1 X62.515 Y43.009 E20.22337
G1 X64.233 Y44.732 E20.32946
G1 X64.704 Y45.22 E20.35903
G1 X65.27 Y45.886 E20.39714
G1 X66.044 Y46.866 E20.45159
G1 X66.96 Y48.059 E20.51717
G1 X69.402 Y51.007 E20.68408
G1 X71.434 Y53.297 E20.81757
G1 X73.302 Y55.274 E20.93616
G1 X75.229 Y57.195 E21.0548
G1 X77.212 Y59.055 E21.17335
G1 X79.249 Y60.857 E21.29193
G1 X79.765 Y61.283 E21.32111
G1 X80.446 Y61.86 E21.36002
G1 X81.084 Y62.387 E21.39611
G1 X81.656 Y62.881 E21.42906
G1 X82.075 Y63.27 E21.45399
G1 X82.451 Y63.661 E21.47764
G1 X82.942 Y64.215 E21.50992
G1 X83.317 Y64.685 E21.53613
G1 X83.835 Y65.41 E21.57499
G1 X84.276 Y66.126 E21.61165
G1 X84.521 Y66.568 E21.63369
G1 X84.818 Y67.174 E21.66311
G1 X85.122 Y67.884 E21.69679
G1 X85.396 Y68.647 E21.73214
G1 X85.566 Y69.202 E21.75744
G1 X85.788 Y70.148 E21.79981
G1 X85.9 Y70.765 E21.82715
G1 X85.977 Y71.419 E21.85587
G1 X86.02 Y71.945 E21.87888
G1 X86.043 Y72.73 E21.91312
G1 X86.031 Y73.376 E21.94129
G1 X85.994 Y73.94 E21.96594
G1 X85.882 Y74.84 E22.00548
G1 X85.796 Y75.334 E22.02734
G1 X85.644 Y75.977 E22.05615
G1 X85.467 Y76.636 E22.08591
G1 X85.3 Y77.148 E22.10939
G1 X84.969 Y77.985 E22.14863
G1 X84.702 Y78.582 E22.17715
G1 X84.438 Y79.09 E22.20211
G1 X83.951 Y79.917 E22.24396
G1 X83.595 Y80.445 E22.27172
G1 X83.136 Y81.05 E22.30483
G1 X82.55 Y81.732 E22.34404
G1 X82.137 Y82.16 E22.36997
G1 X81.704 Y82.573 E22.39606
G1 X80.927 Y83.233 E22.44051
G1 X80.515 Y83.546 E22.46308
G1 X79.978 Y83.91 E22.49136
G1 X79.113 Y84.425 E22.53526
