;FLAVOR:Marlin
;TIME:757
;Filament used: 0.678556m
;Layer height: 0.12
;MINX:7.979
;MINY:15.261
;MINZ:0.3
;MAXX:52.811
;MAXY:82.6
;MAXZ:6.51
;Generated with Cura_SteamEngine 4.7.1
M104 S210
M105
M109 S210
M82 ;absolute extrusion mode
;Sliced at: Tue 30-11-2021 09:45:54
G21 ;metric values
G90 ;absolute positioning
M82 ;set extruder to absolute mode
M107 ;start with the fan off
G1 Z5.0 F1800 ;move Z to 5mm
G28 X0 Y0 F1800 ;move X/Y to min endstops
G28 Z0 ;move Z to min endstop
G92 E0 ;zero the extruded length
G1 F200 E6.0 ;extrude 6.0mm of feed stock to build pressure
G1 Z5.0 F300 ;move the platform down 5mm
G92 E0 ;zero the extruded length again
G1 F1800
;Put printing message on LCD screen
M117 Printing...
G92 E0
G92 E0
G1 F1500 E-5
;LAYER_COUNT:28
;LAYER:0
M107
G0 F1350 X18.62 Y25.742 Z0.3
;TYPE:SKIRT
G1 F1500 E0.72757
G1 F900 X19.135 Y25.398 E0.76155
G1 X19.69 Y25.124 E0.79552
G1 X20.064 Y24.987 E0.81738
G1 X21.383 Y24.563 E0.89341
G1 X21.555 Y24.51 E0.90329
G1 X24.134 Y23.636 E1.05273
G1 X26.628 Y22.71 E1.19873
G1 X29.178 Y21.682 E1.34961
G1 X31.602 Y20.623 E1.49478
G1 X34.622 Y19.191 E1.67821
G1 X40.243 Y16.407 E2.02245
G1 X40.914 Y16.086 E2.06327
G1 X41.61 Y15.793 E2.10471
G1 X42.317 Y15.566 E2.14546
G1 X43.102 Y15.388 E2.18963
G1 X43.747 Y15.299 E2.22537
G1 X44.402 Y15.264 E2.26136
G1 X44.618 Y15.261 E2.27322
G1 X45.405 Y15.316 E2.31651
G1 X45.835 Y15.369 E2.34029
G1 X46.454 Y15.49 E2.3749
G1 X47.119 Y15.68 E2.41286
G1 X47.724 Y15.909 E2.44836
G1 X48.201 Y16.13 E2.47721
G1 X48.451 Y16.254 E2.49252
G1 X49.033 Y16.596 E2.52957
G1 X49.484 Y16.914 E2.55985
G1 X50.005 Y17.34 E2.59679
G1 X50.608 Y17.927 E2.64297
G1 X51.022 Y18.405 E2.67767
G1 X51.446 Y18.997 E2.71764
G1 X51.753 Y19.505 E2.75021
G1 X52.107 Y20.216 E2.7938
G1 X52.302 Y20.687 E2.82177
G1 X52.522 Y21.392 E2.8623
G1 X52.669 Y22.051 E2.89936
G1 X52.781 Y22.875 E2.94499
G1 X52.811 Y23.519 E2.98037
G1 X52.786 Y24.156 E3.01536
G1 X52.708 Y24.802 E3.05107
G1 X52.606 Y25.337 E3.08096
G1 X52.539 Y25.641 E3.09804
G1 X52.4 Y26.126 E3.12573
G1 X52.246 Y26.572 E3.15162
G1 X51.4 Y29.131 E3.29953
G1 X50.629 Y31.703 E3.44689
G1 X49.928 Y34.308 E3.59494
G1 X49.309 Y36.89 E3.74065
G1 X48.747 Y39.57 E3.89092
G1 X48.27 Y42.223 E4.03885
G1 X47.873 Y44.854 E4.18488
G1 X47.541 Y47.573 E4.3352
G1 X47.293 Y50.224 E4.48132
G1 X47.08 Y53.727 E4.67392
G1 X47.046 Y54.521 E4.71753
G1 X46.979 Y55.137 E4.75154
G1 X46.834 Y55.739 E4.78552
G1 X46.613 Y56.318 E4.81953
G1 X46.319 Y56.863 E4.85351
G1 X45.957 Y57.365 E4.88748
G1 X45.464 Y57.893 E4.92712
G1 X45.361 Y57.994 E4.93504
G1 X22.418 Y79.915 E6.67646
G1 X21.959 Y80.34 E6.71079
G1 X21.463 Y80.761 E6.74649
G1 X20.816 Y81.24 E6.79067
G1 X20.34 Y81.529 E6.82123
G1 X19.99 Y81.718 E6.84306
G1 X19.446 Y81.969 E6.87594
G1 X18.675 Y82.243 E6.92084
G1 X17.991 Y82.422 E6.95964
G1 X17.362 Y82.531 E6.99468
G1 X16.761 Y82.591 E7.02782
G1 X16.036 Y82.6 E7.06761
G1 X15.365 Y82.553 E7.10453
G1 X14.841 Y82.479 E7.13357
G1 X14.292 Y82.368 E7.16431
G1 X13.685 Y82.192 E7.19899
G1 X13.346 Y82.074 E7.21869
G1 X12.735 Y81.813 E7.25515
G1 X12.255 Y81.567 E7.28475
G1 X11.821 Y81.315 E7.3123
G1 X11.631 Y81.191 E7.32475
G1 X11.217 Y80.888 E7.3529
G1 X10.8 Y80.539 E7.38274
G1 X10.445 Y80.207 E7.40942
G1 X10.07 Y79.819 E7.43903
G1 X9.568 Y79.206 E7.48251
G1 X9.149 Y78.568 E7.5244
G1 X8.814 Y77.952 E7.56288
G1 X8.552 Y77.361 E7.59836
G1 X8.326 Y76.705 E7.63644
G1 X8.151 Y76.009 E7.67582
G1 X8.044 Y75.371 E7.71132
G1 X7.984 Y74.697 E7.74846
G1 X7.979 Y74.041 E7.78446
G1 X8.032 Y73.377 E7.82102
G1 X8.131 Y72.725 E7.85721
G1 X8.322 Y71.946 E7.90123
G1 X8.494 Y71.432 E7.93097
G1 X8.653 Y71.038 E7.95429
G1 X8.946 Y70.358 E7.99492
G1 X10.01 Y67.786 E8.14767
G1 X10.949 Y65.32 E8.29248
G1 X11.849 Y62.738 E8.44254
G1 X12.667 Y60.163 E8.59082
G1 X13.399 Y57.608 E8.73667
G1 X14.075 Y54.971 E8.88607
G1 X14.657 Y52.402 E9.03063
G1 X15.183 Y49.722 E9.18051
G1 X15.628 Y47.07 E9.32808
G1 X16.003 Y44.36 E9.47822
G1 X16.291 Y41.728 E9.62353
G1 X16.511 Y39.029 E9.77214
G1 X16.651 Y36.363 E9.91865
G1 X16.724 Y32.626 E10.12377
G1 X16.725 Y30.178 E10.25812
G1 X16.735 Y29.487 E10.29604
G1 X16.783 Y28.869 E10.33006
G1 X16.911 Y28.263 E10.36405
G1 X17.116 Y27.679 E10.39802
G1 X17.395 Y27.125 E10.43206
G1 X17.742 Y26.613 E10.466
G1 X18.153 Y26.149 E10.50002
G1 X18.219 Y26.091 E10.50484
G0 F810 X18.62 Y25.742
G0 F1350 X19.005 Y25.955
G1 F900 X19.512 Y25.648 E10.53737
G1 X20.186 Y25.367 E10.57744
G1 X21.454 Y24.959 E10.65054
G1 X21.698 Y24.884 E10.66455
G1 X24.254 Y24.018 E10.81265
G1 X26.78 Y23.08 E10.96053
G1 X29.339 Y22.048 E11.11195
G1 X31.768 Y20.988 E11.25739
G1 X34.736 Y19.58 E11.43768
G1 X40.415 Y16.768 E11.78545
G1 X41.086 Y16.447 E11.82627
G1 X41.757 Y16.165 E11.86621
G1 X42.428 Y15.95 E11.90488
G1 X43.184 Y15.779 E11.94742
G1 X43.775 Y15.698 E11.98015
G1 X44.417 Y15.664 E12.01544
G1 X44.618 Y15.661 E12.02647
G1 X45.365 Y15.714 E12.06757
G1 X45.784 Y15.766 E12.09074
G1 X46.352 Y15.876 E12.12249
G1 X47.003 Y16.063 E12.15966
G1 X47.557 Y16.273 E12.19217
G1 X48.023 Y16.488 E12.22034
G1 X48.273 Y16.612 E12.23565
G1 X48.807 Y16.926 E12.26965
G1 X49.248 Y17.237 E12.29926
G1 X49.745 Y17.644 E12.33452
G1 X50.323 Y18.208 E12.37884
G1 X50.703 Y18.647 E12.4107
G1 X51.117 Y19.225 E12.44972
G1 X51.399 Y19.69 E12.47956
G1 X51.746 Y20.388 E12.52234
G1 X51.971 Y20.95 E12.55556
G1 X52.137 Y21.501 E12.58714
G1 X52.277 Y22.129 E12.62245
G1 X52.383 Y22.92 E12.66625
G1 X52.411 Y23.511 E12.69872
G1 X52.387 Y24.135 E12.73299
G1 X52.315 Y24.727 E12.76572
G1 X52.213 Y25.262 E12.79561
G1 X52.022 Y25.995 E12.83718
G1 X51.868 Y26.441 E12.86307
G1 X51.02 Y29.006 E13.01133
G1 X50.246 Y31.589 E13.15931
G1 X49.536 Y34.225 E13.30913
G1 X48.917 Y36.808 E13.45489
G1 X48.355 Y39.489 E13.60522
G1 X47.881 Y42.124 E13.75215
G1 X47.474 Y44.823 E13.90195
G1 X47.144 Y47.523 E14.05122
G1 X46.895 Y50.19 E14.19822
G1 X46.678 Y53.755 E14.39423
G1 X46.646 Y54.504 E14.43537
G1 X46.581 Y55.094 E14.46794
G1 X46.437 Y55.669 E14.50047
G1 X46.217 Y56.22 E14.53303
G1 X45.925 Y56.736 E14.56557
G1 X45.384 Y57.405 E14.61279
G1 X45.085 Y57.705 E14.63603
G1 X22.146 Y79.622 E16.37714
G1 X21.687 Y80.047 E16.41147
G1 X21.208 Y80.453 E16.44593
G1 X20.602 Y80.902 E16.48732
G1 X20.15 Y81.177 E16.51636
G1 X19.8 Y81.366 E16.53819
G1 X19.301 Y81.596 E16.56834
G1 X18.547 Y81.864 E16.61226
G1 X17.918 Y82.029 E16.64794
G1 X17.297 Y82.136 E16.68252
G1 X16.747 Y82.191 E16.71286
G1 X16.036 Y82.2 E16.75188
G1 X15.421 Y82.157 E16.78571
G1 X14.897 Y82.083 E16.81476
G1 X14.393 Y81.981 E16.84298
G1 X13.817 Y81.814 E16.87589
G1 X13.478 Y81.696 E16.89559
G1 X12.917 Y81.457 E16.92905
G1 X12.437 Y81.211 E16.95865
G1 X11.849 Y80.856 E16.99635
G1 X11.388 Y80.511 E17.02795
G1 X10.732 Y79.929 E17.07607
G1 X10.357 Y79.541 E17.10569
G1 X9.898 Y78.979 E17.14551
G1 X9.487 Y78.353 E17.1866
G1 X9.177 Y77.785 E17.22212
G1 X8.92 Y77.204 E17.25698
G1 X8.713 Y76.603 E17.29186
G1 X8.541 Y75.916 E17.33073
G1 X8.442 Y75.331 E17.36329
G1 X8.382 Y74.667 E17.39988
G1 X8.378 Y74.066 E17.43286
G1 X8.43 Y73.415 E17.4687
G1 X8.525 Y72.794 E17.50318
G1 X8.708 Y72.051 E17.54517
G1 X8.973 Y71.311 E17.58831
G1 X9.02 Y71.196 E17.59513
G1 X9.341 Y70.451 E17.63965
G1 X10.364 Y67.976 E17.78662
G1 X11.34 Y65.415 E17.93702
G1 X12.222 Y62.886 E18.08401
G1 X13.046 Y60.289 E18.23353
G1 X13.794 Y57.679 E18.38254
G1 X14.458 Y55.086 E18.52943
G1 X15.049 Y52.479 E18.67613
G1 X15.583 Y49.759 E18.82825
G1 X16.026 Y47.119 E18.97516
G1 X16.394 Y44.461 E19.12242
G1 X16.689 Y41.764 E19.27131
G1 X16.91 Y39.049 E19.4208
G1 X17.052 Y36.361 E19.56852
G1 X17.124 Y32.634 E19.77309
G1 X17.124 Y30.183 E19.9076
G1 X17.134 Y29.492 E19.94553
G1 X17.183 Y28.901 E19.97807
G1 X17.311 Y28.322 E20.01061
G1 X17.515 Y27.766 E20.04312
G1 X17.792 Y27.241 E20.07569
G1 X18.137 Y26.759 E20.10822
G1 X18.544 Y26.328 E20.14075
G1 X18.592 Y26.289 E20.14415
G0 F810 X19.005 Y25.955
G0 F1350 X18.934 Y26.516
G1 F900 X19.388 Y26.18 E20.17514
G1 X19.886 Y25.911 E20.20621
G1 X20.309 Y25.748 E20.23108
G1 X21.577 Y25.34 E20.30419
G1 X21.829 Y25.262 E20.31866
G1 X24.396 Y24.392 E20.46741
G1 X26.921 Y23.455 E20.61521
G1 X29.47 Y22.427 E20.76605
G1 X31.946 Y21.346 E20.91431
G1 X34.965 Y19.914 E21.09769
G1 X40.588 Y17.129 E21.44205
G1 X41.259 Y16.808 E21.48287
G1 X41.904 Y16.537 E21.52126
G1 X42.54 Y16.334 E21.5579
G1 X43.265 Y16.171 E21.59868
G1 X43.802 Y16.097 E21.62843
G1 X44.432 Y16.064 E21.66305
G1 X44.618 Y16.061 E21.67326
G1 X45.326 Y16.112 E21.71222
G1 X45.734 Y16.162 E21.73477
G1 X46.25 Y16.263 E21.76363
G1 X46.887 Y16.446 E21.8
G1 X47.391 Y16.637 E21.82958
G1 X47.845 Y16.847 E21.85703
G1 X48.095 Y16.971 E21.87235
G1 X48.581 Y17.256 E21.90327
G1 X49.013 Y17.561 E21.93229
G1 X49.485 Y17.948 E21.96578
G1 X50.039 Y18.489 E22.00828
G1 X50.383 Y18.888 E22.03719
G1 X50.789 Y19.454 E22.07542
G1 X51.151 Y20.078 E22.11501
G1 X51.385 Y20.561 E22.14446
G1 X51.594 Y21.084 E22.17537
G1 X51.752 Y21.611 E22.20556
G1 X51.885 Y22.208 E22.23913
G1 X51.986 Y22.966 E22.28109
G1 X52.011 Y23.503 E22.3106
G1 X51.987 Y24.114 E22.34415
G1 X51.922 Y24.652 E22.37389
G1 X51.82 Y25.187 E22.40378
G1 X51.644 Y25.865 E22.44222
G1 X51.49 Y26.311 E22.46812
G1 X50.637 Y28.893 E22.61735
G1 X49.85 Y31.519 E22.76779
G1 X49.155 Y34.099 E22.91443
G1 X48.526 Y36.726 E23.06267
G1 X47.964 Y39.408 E23.21305
G1 X47.48 Y42.099 E23.3631
G1 X47.08 Y44.746 E23.51002
G1 X46.747 Y47.474 E23.66084
G1 X46.496 Y50.16 E23.80889
G1 X46.277 Y53.765 E24.00709
G1 X46.246 Y54.487 E24.04675
G1 X46.182 Y55.049 E24.07779
G1 X46.04 Y55.596 E24.10881
G1 X45.821 Y56.117 E24.13982
G1 X45.532 Y56.603 E24.17085
G1 X45.099 Y57.124 E24.20803
G1 X44.808 Y57.416 E24.23065
G1 X21.875 Y79.328 E25.97134
G1 X21.416 Y79.753 E26.00567
G1 X20.952 Y80.144 E26.03897
G1 X20.387 Y80.565 E26.07763
G1 X19.61 Y81.014 E26.12688
G1 X18.987 Y81.289 E26.16425
G1 X18.419 Y81.485 E26.19723
G1 X17.844 Y81.636 E26.22986
G1 X17.233 Y81.742 E26.26389
G1 X16.732 Y81.791 E26.29151
G1 X16.036 Y81.8 E26.32971
G1 X15.477 Y81.761 E26.36046
G1 X14.953 Y81.687 E26.38951
G1 X14.282 Y81.539 E26.42722
G1 X13.609 Y81.319 E26.46607
G1 X13.1 Y81.101 E26.49646
G1 X12.62 Y80.855 E26.52606
G1 X12.068 Y80.521 E26.56147
G1 X11.641 Y80.202 E26.59072
G1 X11.02 Y79.651 E26.63628
G1 X10.645 Y79.263 E26.66589
G1 X10.227 Y78.753 E26.70208
G1 X9.824 Y78.138 E26.74243
G1 X9.541 Y77.617 E26.77497
G1 X9.288 Y77.047 E26.80919
G1 X9.1 Y76.5 E26.84094
G1 X8.93 Y75.823 E26.87924
G1 X8.84 Y75.291 E26.90885
G1 X8.781 Y74.637 E26.94489
G1 X8.778 Y74.091 E26.97485
G1 X8.828 Y73.452 E27.01003
G1 X8.919 Y72.864 E27.04268
G1 X9.094 Y72.156 E27.08271
G1 X9.344 Y71.459 E27.12334
G1 X9.387 Y71.354 E27.12957
G1 X9.708 Y70.609 E27.17409
G1 X10.742 Y68.11 E27.32251
G1 X11.712 Y65.564 E27.47203
G1 X12.609 Y62.99 E27.62162
G1 X13.427 Y60.415 E27.76989
G1 X14.171 Y57.816 E27.91825
G1 X14.852 Y55.161 E28.06867
G1 X15.442 Y52.557 E28.2152
G1 X15.97 Y49.866 E28.3657
G1 X16.421 Y47.175 E28.51544
G1 X16.794 Y44.488 E28.66431
G1 X17.087 Y41.807 E28.81232
G1 X17.31 Y39.066 E28.96324
G1 X17.451 Y36.391 E29.11024
G1 X17.524 Y32.641 E29.31608
G1 X17.524 Y30.189 E29.45064
G1 X17.534 Y29.498 E29.48857
G1 X17.583 Y28.935 E29.51958
G1 X17.71 Y28.384 E29.55061
G1 X17.913 Y27.857 E29.58161
G1 X18.189 Y27.363 E29.61266
G1 X18.531 Y26.913 E29.64368
G1 X18.555 Y26.889 E29.64554
G0 F810 X18.934 Y26.516
G0 F1350 X19.322 Y26.716
G1 F900 X19.768 Y26.419 E29.67495
G1 X20.431 Y26.129 E29.71466
G1 X21.738 Y25.709 E29.79
G1 X21.95 Y25.643 E29.80219
G1 X24.527 Y24.77 E29.95151
G1 X27.061 Y23.83 E30.09983
G1 X29.643 Y22.788 E30.25263
G1 X32.09 Y21.72 E30.39915
G1 X35.136 Y20.275 E30.58417
G1 X40.76 Y17.489 E30.92861
G1 X41.431 Y17.168 E30.96943
G1 X42.051 Y16.909 E31.0063
G1 X42.652 Y16.718 E31.04091
G1 X43.347 Y16.562 E31.08
G1 X44.06 Y16.48 E31.11939
G1 X44.58 Y16.461 E31.14794
G1 X44.618 Y16.461 E31.15003
G1 X45.286 Y16.51 E31.18679
G1 X46.147 Y16.65 E31.23466
G1 X46.771 Y16.829 E31.27028
G1 X47.566 Y17.156 E31.31746
G1 X47.918 Y17.329 E31.33898
G1 X48.355 Y17.585 E31.36678
G1 X48.777 Y17.884 E31.39516
G1 X49.225 Y18.252 E31.42698
G1 X49.754 Y18.77 E31.46761
G1 X50.166 Y19.264 E31.50291
G1 X50.46 Y19.682 E31.53096
G1 X50.797 Y20.264 E31.56787
G1 X51.024 Y20.734 E31.59651
G1 X51.217 Y21.217 E31.62505
G1 X51.367 Y21.72 E31.65386
G1 X51.493 Y22.287 E31.68573
G1 X51.589 Y23.012 E31.72587
G1 X51.607 Y23.692 E31.7632
G1 X51.529 Y24.577 E31.81196
G1 X51.427 Y25.112 E31.84185
G1 X51.266 Y25.734 E31.87711
G1 X51.112 Y26.18 E31.903
G1 X50.26 Y28.758 E32.052
G1 X49.467 Y31.405 E32.20365
G1 X48.766 Y34.008 E32.35159
G1 X48.134 Y36.644 E32.50035
G1 X47.573 Y39.32 E32.6504
G1 X47.089 Y42.012 E32.8005
G1 X46.676 Y44.744 E32.95214
G1 X46.35 Y47.42 E33.10008
G1 X46.096 Y50.131 E33.24951
G1 X45.881 Y53.676 E33.44441
G1 X45.847 Y54.47 E33.48803
G1 X45.784 Y55.003 E33.51748
G1 X45.643 Y55.52 E33.54689
G1 X45.426 Y56.011 E33.57635
G1 X45.139 Y56.464 E33.60578
G1 X44.609 Y57.051 E33.64918
G1 X44.532 Y57.127 E33.65512
G1 X21.603 Y79.035 E35.39549
G1 X21.144 Y79.46 E35.42982
G1 X20.697 Y79.836 E35.46188
G1 X20.172 Y80.227 E35.4978
G1 X19.42 Y80.662 E35.54548
G1 X18.842 Y80.916 E35.58012
G1 X18.291 Y81.106 E35.61211
G1 X17.77 Y81.243 E35.64167
G1 X17.168 Y81.347 E35.6752
G1 X16.553 Y81.398 E35.70907
G1 X16.036 Y81.4 E35.73744
G1 X15.533 Y81.365 E35.76511
G1 X15.009 Y81.291 E35.79415
G1 X14.384 Y81.152 E35.82929
G1 X13.741 Y80.941 E35.86643
G1 X13.282 Y80.745 E35.89382
G1 X12.802 Y80.499 E35.92342
G1 X12.286 Y80.186 E35.95654
G1 X11.85 Y79.855 E35.98658
G1 X11.307 Y79.373 E36.02643
G1 X10.932 Y78.985 E36.05604
G1 X10.557 Y78.526 E36.08857
G1 X10.161 Y77.923 E36.12816
G1 X9.904 Y77.45 E36.1577
G1 X9.656 Y76.89 E36.19131
G1 X9.486 Y76.398 E36.21988
G1 X9.319 Y75.73 E36.25767
G1 X9.205 Y74.921 E36.3025
G1 X9.177 Y74.115 E36.34676
G1 X9.226 Y73.49 E36.38117
G1 X9.313 Y72.933 E36.4121
G1 X9.48 Y72.261 E36.4501
G1 X9.716 Y71.606 E36.48831
G1 X9.755 Y71.512 E36.4939
G1 X10.058 Y70.809 E36.53591
G1 X11.121 Y68.238 E36.68859
G1 X12.092 Y65.69 E36.83823
G1 X12.981 Y63.138 E36.98653
G1 X13.806 Y60.541 E37.13607
G1 X14.569 Y57.879 E37.28805
G1 X15.234 Y55.285 E37.43501
G1 X15.834 Y52.634 E37.58417
G1 X16.37 Y49.903 E37.73691
G1 X16.813 Y47.259 E37.88403
G1 X17.188 Y44.554 E38.0339
G1 X17.489 Y41.811 E38.18533
G1 X17.707 Y39.119 E38.33355
G1 X17.851 Y36.389 E38.48358
G1 X17.924 Y32.668 E38.68783
G1 X17.924 Y30.195 E38.82354
G1 X17.934 Y29.504 E38.86147
G1 X17.982 Y28.97 E38.89089
G1 X18.109 Y28.449 E38.92032
G1 X18.311 Y27.952 E38.94976
G1 X18.585 Y27.491 E38.97919
G1 X18.925 Y27.076 E39.00864
G1 X18.928 Y27.073 E39.00887
G0 F810 X19.322 Y26.716
G0 F1350 X19.708 Y26.928
G1 F900 X20.144 Y26.674 E39.03656
G1 X20.554 Y26.51 E39.06079
G1 X21.856 Y26.091 E39.13585
G1 X22.059 Y26.028 E39.14752
G1 X24.678 Y25.141 E39.29927
G1 X27.214 Y24.2 E39.44771
G1 X29.774 Y23.167 E39.59921
G1 X32.29 Y22.068 E39.74988
G1 X35.259 Y20.66 E39.93021
G1 X40.933 Y17.85 E40.27769
G1 X41.604 Y17.529 E40.31851
G1 X42.198 Y17.281 E40.35384
G1 X42.764 Y17.102 E40.38642
G1 X43.428 Y16.954 E40.42375
G1 X44.088 Y16.879 E40.4602
G1 X44.618 Y16.861 E40.48931
G1 X45.246 Y16.908 E40.52387
G1 X46.045 Y17.037 E40.56828
G1 X46.655 Y17.212 E40.60311
G1 X47.399 Y17.52 E40.6473
G1 X48.128 Y17.915 E40.6928
G1 X48.542 Y18.208 E40.72064
G1 X48.965 Y18.556 E40.7507
G1 X49.469 Y19.051 E40.78947
G1 X49.847 Y19.505 E40.82189
G1 X50.337 Y20.248 E40.87073
G1 X50.663 Y20.906 E40.91103
G1 X50.901 Y21.542 E40.9483
G1 X51.042 Y22.076 E40.97861
G1 X51.142 Y22.63 E41.0095
G1 X51.211 Y23.487 E41.05669
G1 X51.189 Y24.072 E41.08881
G1 X51.136 Y24.502 E41.11259
G1 X51.034 Y25.037 E41.14248
G1 X50.888 Y25.603 E41.17456
G1 X50.734 Y26.049 E41.20045
G1 X49.869 Y28.665 E41.35166
G1 X49.092 Y31.258 E41.50021
G1 X48.377 Y33.916 E41.65127
G1 X47.743 Y36.562 E41.80059
G1 X47.175 Y39.273 E41.9526
G1 X46.694 Y41.947 E42.1017
G1 X46.282 Y44.673 E42.253
G1 X45.953 Y47.372 E42.40221
G1 X45.698 Y50.101 E42.55263
G1 X45.481 Y53.659 E42.74825
G1 X45.447 Y54.453 E42.79187
G1 X45.386 Y54.955 E42.81962
G1 X45.246 Y55.441 E42.84738
G1 X45.031 Y55.898 E42.87509
G1 X44.747 Y56.317 E42.90287
