;FLAVOR:Marlin
;TIME:296
;Filament used: 0.12058m
;Layer height: 0.12
;MINX:52.6
;MINY:49.8
;MINZ:0.3
;MAXX:67.4
;MAXY:70.2
;MAXZ:2.94
;Generated with Cura_SteamEngine 4.10.0
M104 S210
M105
M109 S210
M82 ;absolute extrusion mode
;Sliced at: Thu 23-09-2021 21:54:30
G21 ;metric values
G90 ;absolute positioning
M82 ;set extruder to absolute mode
M107 ;start with the fan off
G1 Z5.0 F1800 ;move Z to 5mm
G28 X0 Y0 F1800 ;move X/Y to min endstops
G28 Z0 ;move Z to min endstop
G92 E0 ;zero the extruded length
G1 F200 E6.0 ;extrude 6.0mm of feed stock to build pressure
G1 Z5.0 F300 ;move the platform down 5mm
G92 E0 ;zero the extruded length again
G1 F1800
;Put printing message on LCD screen
M117 Printing...
G92 E0
G92 E0
G1 F1500 E-0.6
;LAYER_COUNT:24
;LAYER:0
M106 S102
G0 F1440 X54.291 Y51.888 Z0.3
;TYPE:SKIRT
G1 F1500 E0.75698
G1 F1200 X54.728 Y51.455 E0.78492
G1 X55.338 Y50.969 E0.82034
G1 X55.883 Y50.623 E0.84966
G1 X56.469 Y50.341 E0.8792
G1 X57.152 Y50.091 E0.91224
G1 X57.695 Y49.945 E0.93777
G1 X58.247 Y49.861 E0.96313
G1 X58.92 Y49.808 E0.99379
G1 X59.589 Y49.8 E1.02418
G1 X59.989 Y49.8 E1.04235
G1 X61.398 Y49.829 E1.10636
G1 X62.249 Y49.939 E1.14533
G1 X62.872 Y50.104 E1.1746
G1 X63.748 Y50.433 E1.2171
G1 X64.422 Y50.81 E1.25218
G1 X64.976 Y51.21 E1.28321
G1 X65.457 Y51.631 E1.31225
G1 X65.82 Y52.018 E1.33635
G1 X66.2 Y52.503 E1.36433
G1 X66.649 Y53.222 E1.40283
G1 X66.886 Y53.738 E1.42862
G1 X67.169 Y54.558 E1.46802
G1 X67.281 Y55.07 E1.49182
G1 X67.358 Y55.613 E1.51673
G1 X67.392 Y56.119 E1.53977
G1 X67.4 Y56.777 E1.56965
G1 X67.4 Y62.521 E1.83054
G1 X67.39 Y63.242 E1.86329
G1 X67.348 Y63.725 E1.88531
G1 X67.266 Y64.112 E1.90328
G1 X67.044 Y64.916 E1.94116
G1 X66.712 Y66.058 E1.99518
G1 X66.564 Y66.622 E2.02166
G1 X66.272 Y67.688 E2.07186
G1 X66.096 Y68.179 E2.09555
G1 X65.848 Y68.637 E2.11921
G1 X65.532 Y69.051 E2.14286
G1 X65.156 Y69.413 E2.16657
G1 X64.73 Y69.713 E2.19023
G1 X64.263 Y69.944 E2.21389
G1 X63.766 Y70.101 E2.23757
G1 X63.098 Y70.188 E2.26816
G1 X62.67 Y70.2 E2.28761
G1 X57.657 Y70.2 E2.51529
G1 X56.976 Y70.19 E2.54623
G1 X56.457 Y70.142 E2.5699
G1 X55.951 Y70.016 E2.59358
G1 X55.471 Y69.814 E2.61724
G1 X54.849 Y69.402 E2.65112
G1 X54.825 Y69.382 E2.65254
G1 X54.452 Y69.019 E2.67618
G1 X54.138 Y68.602 E2.69989
G1 X53.892 Y68.143 E2.72354
G1 X53.711 Y67.624 E2.74851
G1 X53.65 Y67.389 E2.75953
G1 X52.9 Y64.674 E2.88746
G1 X52.744 Y64.137 E2.91286
G1 X52.637 Y63.627 E2.93653
G1 X52.601 Y62.966 E2.9666
G1 X52.6 Y56.712 E3.25065
G1 X52.608 Y56.091 E3.27885
G1 X52.659 Y55.418 E3.30951
G1 X52.804 Y54.663 E3.34443
G1 X53.023 Y53.945 E3.37852
G1 X53.357 Y53.215 E3.41498
G1 X53.716 Y52.617 E3.44666
G1 X53.962 Y52.305 E3.46471
G0 F1080 X54.291 Y51.888
G0 F1440 X54.597 Y52.145
G1 F1200 X54.982 Y51.763 E3.48934
G1 X55.564 Y51.3 E3.52312
G1 X56.071 Y50.976 E3.55044
G1 X56.612 Y50.714 E3.57775
G1 X57.265 Y50.475 E3.60933
G1 X57.774 Y50.337 E3.63328
G1 X58.3 Y50.257 E3.65745
G1 X58.925 Y50.208 E3.68592
G1 X59.594 Y50.2 E3.71631
G1 X59.989 Y50.2 E3.73425
G1 X61.39 Y50.229 E3.79789
G1 X62.155 Y50.328 E3.83293
G1 X62.76 Y50.488 E3.86135
G1 X63.567 Y50.79 E3.90049
G1 X64.194 Y51.139 E3.93308
G1 X64.719 Y51.517 E3.96246
G1 X65.174 Y51.913 E3.98986
G1 X65.71 Y52.515 E4.02647
G1 X66.077 Y53.033 E4.0553
G1 X66.401 Y53.624 E4.08591
G1 X66.668 Y54.29 E4.1185
G1 X66.838 Y54.892 E4.14691
G1 X66.934 Y55.438 E4.17209
G1 X66.992 Y56.124 E4.20336
G1 X67 Y56.782 E4.23325
G1 X67 Y62.516 E4.49368
G1 X66.99 Y63.237 E4.52643
G1 X66.88 Y64.005 E4.56167
G1 X66.659 Y64.804 E4.59932
G1 X66.335 Y65.917 E4.65197
G1 X66.178 Y66.517 E4.68014
G1 X65.886 Y67.583 E4.73034
G1 X65.719 Y68.043 E4.75256
G1 X65.479 Y68.469 E4.77477
G1 X65.173 Y68.851 E4.797
G1 X64.809 Y69.178 E4.81923
G1 X64.396 Y69.442 E4.84149
G1 X63.946 Y69.635 E4.86373
G1 X63.471 Y69.752 E4.88595
G1 X62.763 Y69.799 E4.91817
G1 X57.663 Y69.8 E5.14981
G1 X56.982 Y69.79 E5.18074
G1 X56.495 Y69.743 E5.20296
G1 X56.022 Y69.617 E5.2252
G1 X55.575 Y69.416 E5.24746
G1 X55.105 Y69.095 E5.27331
G1 X54.732 Y68.732 E5.29695
G1 X54.443 Y68.336 E5.31921
G1 X54.223 Y67.9 E5.34139
G1 X54.037 Y67.289 E5.3704
G1 X53.285 Y64.568 E5.49862
G1 X53.128 Y64.026 E5.52425
G1 X53.01 Y63.274 E5.55882
G1 X53 Y62.87 E5.57718
G1 X53 Y56.717 E5.85664
G1 X53.008 Y56.096 E5.88484
G1 X53.055 Y55.476 E5.91308
G1 X53.188 Y54.774 E5.94554
G1 X53.397 Y54.086 E5.97819
G1 X53.715 Y53.394 E6.01278
G1 X54.053 Y52.832 E6.04257
G1 X54.267 Y52.562 E6.05822
G0 F1080 X54.597 Y52.145
G0 F1440 X54.903 Y52.403
G1 F1200 X55.598 Y51.774 E6.10079
G1 X56.015 Y51.476 E6.12407
G1 X56.463 Y51.22 E6.14751
G1 X57.181 Y50.925 E6.18276
G1 X57.852 Y50.729 E6.21451
G1 X58.354 Y50.654 E6.23756
G1 X58.93 Y50.608 E6.26381
G1 X59.599 Y50.6 E6.2942
G1 X59.989 Y50.6 E6.31191
G1 X61.381 Y50.629 E6.37515
G1 X62.061 Y50.717 E6.40629
G1 X62.647 Y50.872 E6.43382
G1 X63.387 Y51.147 E6.46968
G1 X63.966 Y51.467 E6.49972
G1 X64.463 Y51.824 E6.52751
G1 X64.89 Y52.195 E6.55321
G1 X65.401 Y52.769 E6.58811
G1 X65.746 Y53.258 E6.61529
G1 X66.042 Y53.801 E6.64338
G1 X66.294 Y54.432 E6.67424
G1 X66.449 Y54.986 E6.70037
G1 X66.539 Y55.5 E6.72407
G1 X66.592 Y56.128 E6.75269
G1 X66.6 Y56.786 E6.78258
G1 X66.6 Y62.51 E7.04256
G1 X66.59 Y63.231 E7.07531
G1 X66.494 Y63.899 E7.10596
G1 X66.275 Y64.693 E7.14337
G1 X65.947 Y65.819 E7.19664
G1 X65.793 Y66.411 E7.22442
G1 X65.501 Y67.477 E7.27462
G1 X65.342 Y67.904 E7.29531
G1 X65.112 Y68.297 E7.316
G1 X64.816 Y68.644 E7.33671
G1 X64.464 Y68.934 E7.35743
G1 X64.068 Y69.158 E7.37809
G1 X63.638 Y69.309 E7.39879
G1 X63.073 Y69.389 E7.42471
G1 X62.67 Y69.4 E7.44302
G1 X57.669 Y69.4 E7.67016
G1 X56.988 Y69.39 E7.70109
G1 X56.535 Y69.343 E7.72177
G1 X56.096 Y69.218 E7.74251
G1 X55.687 Y69.019 E7.76316
G1 X55.338 Y68.767 E7.78272
G1 X55.014 Y68.446 E7.80343
G1 X54.752 Y68.073 E7.82413
G1 X54.485 Y67.423 E7.85605
G1 X54.424 Y67.188 E7.86708
G1 X53.68 Y64.494 E7.99402
G1 X53.512 Y63.915 E8.0214
G1 X53.41 Y63.263 E8.05137
G1 X53.4 Y62.87 E8.06923
G1 X53.4 Y56.723 E8.34841
G1 X53.408 Y56.102 E8.37662
G1 X53.451 Y55.533 E8.40254
G1 X53.572 Y54.885 E8.43248
G1 X53.771 Y54.228 E8.46366
G1 X54.073 Y53.572 E8.49646
G1 X54.391 Y53.047 E8.52434
G1 X54.572 Y52.819 E8.53756
G0 F1080 X54.903 Y52.403
G0 F1440 X55.209 Y52.66
G1 F1200 X55.852 Y52.082 E8.57683
G1 X56.446 Y51.683 E8.60933
G1 X56.898 Y51.461 E8.6322
G1 X57.49 Y51.242 E8.66087
G1 X58.106 Y51.091 E8.68967
G1 X58.773 Y51.016 E8.72016
G1 X58.935 Y51.008 E8.72753
G1 X59.604 Y51 E8.75791
G1 X60.035 Y51 E8.77749
G1 X61.373 Y51.028 E8.83827
G1 X61.967 Y51.105 E8.86548
G1 X62.535 Y51.256 E8.89217
G1 X63.207 Y51.504 E8.92471
G1 X63.738 Y51.796 E8.95223
G1 X64.207 Y52.131 E8.97841
G1 X64.606 Y52.477 E9.00239
G1 X65.091 Y53.022 E9.03553
G1 X65.415 Y53.483 E9.06112
G1 X65.683 Y53.977 E9.08665
G1 X65.92 Y54.575 E9.11586
G1 X66.06 Y55.08 E9.13966
G1 X66.162 Y55.715 E9.16887
G1 X66.192 Y56.133 E9.18791
G1 X66.2 Y56.791 E9.2178
G1 X66.2 Y62.505 E9.47732
G1 X66.19 Y63.226 E9.51007
G1 X66.109 Y63.793 E9.53608
G1 X65.891 Y64.581 E9.57322
G1 X65.566 Y65.696 E9.62597
G1 X65.407 Y66.305 E9.65455
G1 X65.115 Y67.371 E9.70475
G1 X64.966 Y67.763 E9.7238
G1 X64.746 Y68.119 E9.74281
G1 X64.462 Y68.428 E9.76187
G1 X64.125 Y68.677 E9.7809
G1 X63.747 Y68.857 E9.79992
G1 X63.341 Y68.962 E9.81896
G1 X62.738 Y68.999 E9.8464
G1 X57.675 Y69 E10.07636
G1 X56.994 Y68.99 E10.10729
G1 X56.577 Y68.944 E10.12634
G1 X56.177 Y68.82 E10.14537
G1 X55.618 Y68.48 E10.17508
G1 X55.299 Y68.162 E10.19554
G1 X55.066 Y67.814 E10.21456
G1 X54.873 Y67.323 E10.23852
G1 X54.82 Y67.121 E10.24801
G1 X54.056 Y64.355 E10.37834
G1 X53.896 Y63.803 E10.40444
G1 X53.81 Y63.252 E10.42977
G1 X53.8 Y62.87 E10.44713
G1 X53.8 Y56.728 E10.72609
G1 X53.808 Y56.107 E10.7543
G1 X53.847 Y55.59 E10.77785
G1 X53.957 Y54.996 E10.80528
G1 X54.145 Y54.369 E10.83501
G1 X54.431 Y53.75 E10.86598
G1 X54.728 Y53.261 E10.89197
G1 X54.877 Y53.075 E10.90279
G0 F1080 X55.209 Y52.66
G1 F1500 E10.30279
;MESH:Gardinenstop.3mf
G0 F1440 X55.985 Y54.119
G0 X56.975 Y54.953
G0 X60.872 Y64.428
G0 X62 Y64.801
;TYPE:WALL-INNER
G1 F1500 E11.65977
G1 F1200 X62 Y65.8 E11.70515
G1 X58.199 Y65.8 E11.87778
G1 X58 Y65.8 E11.88682
G1 X58 Y65.601 E11.89267
G1 X58.001 Y64.801 E11.929
G1 X59.5 Y64.8 E11.99709
G1 X59.5 Y62.2 E12.11518
G1 X57 Y62.2 E12.22872
G1 X57 Y56.228 E12.49996
G1 X57.039 Y55.829 E12.51817
G1 X57.14 Y55.475 E12.53489
G1 X57.3 Y55.154 E12.55118
G1 X57.525 Y54.855 E12.56818
G1 X57.809 Y54.597 E12.5856
G1 X58.111 Y54.413 E12.60167
G1 X58.148 Y54.399 E12.60346
G1 X58.407 Y54.3 E12.61606
G1 X58.452 Y54.282 E12.61826
G1 X59.019 Y54.205 E12.64425
G1 X59.049 Y54.2 E12.64563
G1 X60.981 Y54.201 E12.73338
G1 X61.454 Y54.257 E12.75501
G1 X61.812 Y54.377 E12.77216
G1 X62.138 Y54.56 E12.78914
G1 X62.38 Y54.764 E12.80351
G1 X62.413 Y54.791 E12.80545
G1 X62.649 Y55.077 E12.82229
G1 X62.832 Y55.407 E12.83943
G1 X62.944 Y55.749 E12.85578
G1 X62.948 Y55.788 E12.85756
G1 X62.996 Y56.196 E12.87622
G1 X63 Y56.222 E12.87741
G1 X63 Y62.2 E13.14892
G1 X60.5 Y62.2 E13.26247
G1 X60.5 Y64.8 E13.38056
G1 X61.468 Y64.801 E13.42452
G0 F1080 X62 Y64.801
G0 F1440 X61.6 Y65.201
G1 F1200 X61.6 Y65.4 E13.43356
G1 X60.1 Y65.4 E13.50169
G1 X59.9 Y65.4 E13.51077
G1 X58.4 Y65.4 E13.5789
G1 X58.401 Y65.201 E13.58794
G1 X59.9 Y65.2 E13.62197
G1 X59.9 Y61.8 E13.7764
G1 X57.4 Y61.8 E13.88994
G1 X57.4 Y56.247 E14.14215
G1 X57.433 Y55.907 E14.15767
G1 X57.516 Y55.617 E14.17137
G1 X57.64 Y55.369 E14.18396
G1 X57.824 Y55.123 E14.19791
G1 X58.048 Y54.92 E14.21164
G1 X58.292 Y54.771 E14.22463
G1 X58.551 Y54.672 E14.23722
G1 X59.074 Y54.6 E14.2612
G1 X60.959 Y54.601 E14.34681
G1 X61.366 Y54.649 E14.36543
G1 X61.646 Y54.743 E14.37884
G1 X61.912 Y54.892 E14.39269
G1 X62.124 Y55.07 E14.40526
G1 X62.318 Y55.305 E14.4191
G1 X62.465 Y55.57 E14.43287
G1 X62.552 Y55.835 E14.44554
G1 X62.6 Y56.244 E14.46424
G1 X62.6 Y61.8 E14.71659
G1 X60.1 Y61.8 E14.83013
G1 X60.1 Y65.2 E14.90754
G1 X61.6 Y65.201 E14.9416
G0 F1440 X60.83 Y64.47
G0 X60.9 Y64.4
G1 F1200 X62.321 Y64.401 E15.00614
G1 X62.4 Y64.443 E15.01021
G1 X62.4 Y66.2 E15.09001
G1 X57.799 Y66.2 E15.29898
G1 X57.6 Y66.2 E15.30802
G1 X57.6 Y66.001 E15.31387
G1 X57.601 Y64.458 E15.38395
G1 X57.636 Y64.401 E15.38698
G1 X59.1 Y64.4 E15.45348
G1 X59.1 Y62.6 E15.53523
G1 X56.6 Y62.6 E15.64878
G1 X56.6 Y56.21 E15.939
G1 X56.644 Y55.756 E15.95972
G1 X56.767 Y55.328 E15.97995
G1 X56.958 Y54.943 E15.99947
G1 X57.229 Y54.584 E16.0199
G1 X57.568 Y54.276 E16.0407
G1 X57.933 Y54.053 E16.06013
G1 X58.351 Y53.892 E16.08047
G1 X59.024 Y53.8 E16.11132
G1 X61.003 Y53.801 E16.20121
G1 X61.542 Y53.865 E16.22586
G1 X61.978 Y54.011 E16.24674
G1 X62.364 Y54.228 E16.26685
G1 X62.7 Y54.51 E16.28678
G1 X62.982 Y54.852 E16.30691
G1 X63.199 Y55.244 E16.32726
G1 X63.336 Y55.663 E16.34728
G1 X63.34 Y55.701 E16.34902
G1 X63.396 Y56.174 E16.37065
G1 X63.4 Y56.2 E16.37184
G1 X63.4 Y62.6 E16.66253
G1 X60.9 Y62.6 E16.77607
G1 X60.9 Y63.868 E16.83366
G0 F1080 X60.9 Y64.4
G0 F1440 X61.3 Y64
;TYPE:WALL-OUTER
G1 F1200 X62.403 Y64.001 E16.88376
G1 X62.687 Y64.122 E16.89778
G1 X62.794 Y64.337 E16.90869
G1 X62.8 Y64.41 E16.91202
G1 X62.8 Y66.6 E17.01148
G1 X57.4 Y66.6 E17.25674
G1 X57.2 Y66.6 E17.26583
G1 X57.2 Y66.4 E17.27171
G1 X57.201 Y64.397 E17.36268
G1 X57.273 Y64.171 E17.37346
G1 X57.453 Y64.03 E17.38384
G1 X57.597 Y64.001 E17.39051
G1 X58.7 Y64 E17.44061
G1 X58.7 Y63 E17.48603
G1 X56.2 Y63 E17.59958
G1 X56.2 Y56.197 E17.90856
G1 X56.25 Y55.678 E17.93224
G1 X56.391 Y55.186 E17.95549
G1 X56.616 Y54.732 E17.9785
G1 X56.933 Y54.312 E18.0024
G1 X57.327 Y53.955 E18.02655
G1 X57.755 Y53.693 E18.04934
G1 X58.241 Y53.506 E18.07299
G1 X58.752 Y53.412 E18.09659
G1 X59.005 Y53.4 E18.10809
G1 X61.025 Y53.401 E18.19984
G1 X61.63 Y53.473 E18.22751
G1 X62.139 Y53.643 E18.25188
G1 X62.595 Y53.9 E18.27566
G1 X62.986 Y54.228 E18.29884
G1 X63.314 Y54.625 E18.32223
G1 X63.568 Y55.086 E18.34613
G1 X63.727 Y55.571 E18.36931
G1 X63.797 Y56.08 E18.39265
G1 X63.8 Y56.2 E18.3981
G1 X63.8 Y63 E18.70695
G1 X61.3 Y63 E18.8205
G1 X61.3 Y63.468 E18.84175
G0 F1080 X61.3 Y64
G0 F1440 X61.5 Y64
G0 X61.499 Y64.44
G0 X61.499 Y64.5
G0 X60.872 Y64.428
G0 X60.872 Y62.572
G0 X62.21 Y61.41
;TYPE:SKIN
G1 F1200 X57.79 Y61.41 E19.0425
G1 X57.79 Y56.264 E19.27623
G1 X57.879 Y55.763 E19.29934
G1 X58.116 Y55.384 E19.31964
G1 X58.462 Y55.124 E19.3393
G1 X58.653 Y55.052 E19.34857
G1 X59.098 Y54.99 E19.36898
G1 X60.931 Y54.991 E19.45223
G1 X61.28 Y55.032 E19.46819
G1 X61.687 Y55.213 E19.48842
G1 X61.993 Y55.523 E19.5082
G1 X62.168 Y55.913 E19.52762
G1 X62.21 Y56.272 E19.54404
G1 X62.21 Y60.878 E19.75324
G0 F1080 X62.21 Y61.41
G0 F1440 X58.44 Y61.269
G1 F1200 X57.929 Y60.758 E19.78606
G0 F1440 X57.929 Y60.192
G1 F1200 X59.006 Y61.269 E19.85524
G0 F1440 X59.572 Y61.269
G1 F1200 X57.929 Y59.626 E19.96077
G0 F1440 X57.929 Y59.061
G1 F1200 X60.138 Y61.269 E20.10262
G0 F1440 X60.703 Y61.269
G1 F1200 X57.929 Y58.494 E20.28084
G0 F1440 X57.929 Y57.929
G1 F1200 X61.269 Y61.269 E20.49537
G0 F1440 X61.835 Y61.269
G1 F1200 X57.929 Y57.363 E20.74626
G0 F1440 X57.929 Y56.797
G1 F1200 X62.069 Y60.937 E21.01218
G0 F1440 X62.069 Y60.372
M104 S200
G1 F1200 X57.935 Y56.238 E21.27771
G0 F1440 X58.036 Y55.773
G1 F1200 X62.069 Y59.806 E21.53676
G0 F1440 X62.069 Y59.24
G1 F1200 X58.271 Y55.442 E21.78071
G0 F1440 X58.611 Y55.217
G1 F1200 X62.069 Y58.675 E22.00283
G0 F1440 X62.069 Y58.109
G1 F1200 X59.092 Y55.132 E22.19405
G0 F1440 X59.656 Y55.13
G1 F1200 X62.069 Y57.543 E22.34904
G0 F1440 X62.069 Y56.977
G1 F1200 X60.222 Y55.13 E22.46767
G0 F1440 X60.787 Y55.13
G1 F1200 X62.069 Y56.412 E22.55002
G0 F1440 X61.914 Y55.692
G1 F1200 X61.511 Y55.288 E22.57594
;MESH:NONMESH
G0 F600 X61.511 Y55.288 Z0.42
G0 F1440 X60.872 Y62.572
G0 X60.872 Y64.428
G0 X62 Y64.801
;TIME_ELAPSED:30.280036
;LAYER:1
M106 S178.5
;TYPE:WALL-INNER
;MESH:Gardinenstop.3mf
G1 F1650 X62 Y65.8 E22.5961
G1 X58.199 Y65.8 E22.67283
G1 X58 Y65.8 E22.67685
G1 X58 Y65.601 E22.67944
G1 X58.001 Y64.8 E22.69561
G1 X59.5 Y64.8 E22.72587
G1 X59.5 Y62.2 E22.77836
G1 X57 Y62.2 E22.82882
G1 X57 Y56.223 E22.94947
G1 X57.038 Y55.827 E22.95751
G1 X57.146 Y55.459 E22.96525
G1 X57.304 Y55.146 E22.97232
G1 X57.536 Y54.843 E22.98003
G1 X57.802 Y54.604 E22.98725
G1 X58.119 Y54.41 E22.99475
G1 X58.458 Y54.28 E23.00208
G1 X59.048 Y54.2 E23.0141
G1 X60.971 Y54.2 E23.05291
G1 X61.374 Y54.24 E23.06109
G1 X61.73 Y54.342 E23.06856
G1 X62.067 Y54.51 E23.07617
G1 X62.545 Y54.936 E23.08909
G1 X62.753 Y55.244 E23.09659
G1 X62.892 Y55.567 E23.10369
G1 X62.98 Y55.949 E23.1116
G1 X63 Y56.228 E23.11725
G1 X63 Y62.2 E23.2378
G1 X60.5 Y62.2 E23.28827
G1 X60.5 Y64.8 E23.34075
G1 X60.668 Y64.801 E23.34414
G0 F1485 X62 Y64.801
G0 F2520 X61.6 Y65.201
G1 F1650 X61.6 Y65.4 E23.34816
G1 X60.1 Y65.4 E23.37844
G1 X59.9 Y65.4 E23.38248
G1 X58.4 Y65.4 E23.41276
G1 X58.401 Y65.2 E23.41679
G1 X59.9 Y65.2 E23.43196
G1 X59.9 Y61.8 E23.50059
G1 X57.4 Y61.8 E23.55105
G1 X57.4 Y56.24 E23.66329
G1 X57.432 Y55.906 E23.67006
G1 X57.521 Y55.604 E23.67642
G1 X57.643 Y55.361 E23.68191
G1 X57.831 Y55.115 E23.68816
G1 X58.043 Y54.926 E23.69389
G1 X58.299 Y54.769 E23.69995
G1 X58.557 Y54.67 E23.70553
G1 X59.073 Y54.6 E23.71604
G1 X60.951 Y54.6 E23.75395
G1 X61.296 Y54.634 E23.76095
G1 X61.587 Y54.718 E23.76706
G1 X61.84 Y54.843 E23.77276
G1 X62.243 Y55.203 E23.78367
G1 X62.401 Y55.437 E23.78937
G1 X62.509 Y55.688 E23.79488
G1 X62.6 Y56.243 E23.80623
G1 X62.6 Y61.8 E23.91841
G1 X60.1 Y61.8 E23.96887
G1 X60.1 Y65.2 E24.00328
G1 X61.6 Y65.201 E24.01842
G0 F2520 X60.83 Y64.47
G0 X60.9 Y64.4
G1 F1650 X62.344 Y64.401 E24.04756
G1 X62.4 Y64.444 E24.04899
G1 X62.4 Y66.2 E24.08444
G1 X57.799 Y66.2 E24.17731
G1 X57.6 Y66.2 E24.18133
G1 X57.6 Y66.001 E24.18393
G1 X57.601 Y64.456 E24.21512
G1 X57.644 Y64.4 E24.21654
G1 X59.1 Y64.4 E24.24593
G1 X59.1 Y62.6 E24.28227
G1 X56.6 Y62.6 E24.33273
G1 X56.6 Y56.205 E24.46182
G1 X56.644 Y55.75 E24.47105
G1 X56.772 Y55.313 E24.48024
G1 X56.964 Y54.931 E24.48887
G1 X57.239 Y54.573 E24.49799
G1 X57.565 Y54.28 E24.50683
G1 X57.939 Y54.051 E24.51569
G1 X58.359 Y53.89 E24.52477
G1 X58.994 Y53.805 E24.5377
G1 X59.024 Y53.8 E24.53831
