;FLAVOR:Marlin
;TIME:430
;Filament used: 0.172464m
;Layer height: 0.24
;MINX:27.76
;MINY:54.194
;MINZ:0.3
;MAXX:38.46
;MAXY:65.806
;MAXZ:12.78
;Generated with Cura_SteamEngine 4.7.1
M104 S210
M105
M109 S210
M82 ;absolute extrusion mode
;Sliced at: Mon 23-08-2021 07:52:13
G21 ;metric values
G90 ;absolute positioning
M82 ;set extruder to absolute mode
M107 ;start with the fan off
G1 Z5.0 F1800 ;move Z to 5mm
G28 X0 Y0 F1800 ;move X/Y to min endstops
G28 Z0 ;move Z to min endstop
G92 E0 ;zero the extruded length
G1 F200 E6.0 ;extrude 6.0mm of feed stock to build pressure
G1 Z5.0 F300 ;move the platform down 5mm
G92 E0 ;zero the extruded length again
G1 F1800
;Put printing message on LCD screen
M117 Printing...
G92 E0
G92 E0
G1 F1500 E-5
;LAYER_COUNT:53
;LAYER:0
M107
G0 F1542.9 X31.957 Y54.488 Z0.3
;TYPE:SKIRT
G1 F1500 E0.72757
G1 F900 X32.338 Y54.314 E0.75055
G1 X32.746 Y54.216 E0.77358
G1 X33.164 Y54.194 E0.79655
G1 X33.581 Y54.234 E0.81954
G1 X33.983 Y54.352 E0.84253
G1 X34.263 Y54.488 E0.85962
G1 X37.306 Y56.242 E1.05237
G1 X37.647 Y56.485 E1.07535
G1 X37.936 Y56.788 E1.09833
G1 X38.171 Y57.152 E1.1221
G1 X38.343 Y57.534 E1.1451
G1 X38.44 Y57.942 E1.16811
G1 X38.46 Y58.241 E1.18456
G1 X38.46 Y61.758 E1.37757
G1 X38.42 Y62.175 E1.40056
G1 X38.302 Y62.577 E1.42355
G1 X38.118 Y62.94 E1.44588
G1 X37.877 Y63.283 E1.46889
G1 X37.575 Y63.574 E1.4919
G1 X37.306 Y63.757 E1.50976
G1 X34.263 Y65.512 E1.70254
G1 X33.882 Y65.686 E1.72552
G1 X33.474 Y65.784 E1.74855
G1 X33.056 Y65.806 E1.77152
G1 X32.639 Y65.766 E1.79451
G1 X32.237 Y65.648 E1.81751
G1 X31.957 Y65.512 E1.83459
G1 X28.914 Y63.758 E2.02734
G1 X28.573 Y63.515 E2.05032
G1 X28.284 Y63.212 E2.0733
G1 X28.049 Y62.848 E2.09708
G1 X27.877 Y62.466 E2.12007
G1 X27.78 Y62.058 E2.14308
G1 X27.76 Y61.759 E2.15953
G1 X27.76 Y58.242 E2.35254
G1 X27.8 Y57.825 E2.37553
G1 X27.918 Y57.423 E2.39852
G1 X28.102 Y57.06 E2.42086
G1 X28.343 Y56.717 E2.44386
G1 X28.645 Y56.426 E2.46688
G1 X28.914 Y56.243 E2.48473
G1 X31.497 Y54.753 E2.64838
G0 F810 X31.957 Y54.488
G0 F1542.9 X32.157 Y54.835
G1 F900 X32.503 Y54.681 E2.66916
G1 X33.056 Y54.594 E2.69988
G1 X33.541 Y54.634 E2.72659
G1 X34.063 Y54.835 E2.75729
G1 X37.106 Y56.589 E2.95004
G1 X37.412 Y56.811 E2.97079
G1 X37.771 Y57.257 E3.00221
G1 X37.976 Y57.697 E3.02885
G1 X38.06 Y58.241 E3.05906
G1 X38.06 Y61.758 E3.25207
G1 X38.02 Y62.135 E3.27287
G1 X37.824 Y62.649 E3.30306
G1 X37.55 Y63.05 E3.32971
G1 X37.106 Y63.41 E3.36108
G1 X34.063 Y65.165 E3.55386
G1 X33.717 Y65.319 E3.57465
G1 X33.164 Y65.406 E3.60537
G1 X32.679 Y65.366 E3.63208
G1 X32.157 Y65.165 E3.66277
G1 X29.114 Y63.411 E3.85553
G1 X28.808 Y63.189 E3.87627
G1 X28.449 Y62.743 E3.90769
G1 X28.244 Y62.303 E3.93433
G1 X28.16 Y61.759 E3.96454
G1 X28.16 Y58.242 E4.15755
G1 X28.2 Y57.865 E4.17836
G1 X28.396 Y57.351 E4.20855
G1 X28.67 Y56.95 E4.2352
G1 X29.114 Y56.59 E4.26657
G1 X31.697 Y55.1 E4.43022
G0 F810 X32.157 Y54.835
G0 F1542.9 X32.357 Y55.181
G1 F900 X32.664 Y55.05 E4.44853
G1 X33.164 Y54.994 E4.47614
G1 X33.496 Y55.034 E4.4945
G1 X33.863 Y55.181 E4.51619
G1 X36.906 Y56.935 E4.70894
G1 X37.174 Y57.135 E4.7273
G1 X37.476 Y57.548 E4.75537
G1 X37.606 Y57.856 E4.77372
G1 X37.66 Y58.241 E4.79506
G1 X37.66 Y61.758 E4.98807
G1 X37.62 Y62.09 E5.00642
G1 X37.423 Y62.544 E5.03358
G1 X37.224 Y62.813 E5.05194
G1 X36.906 Y63.064 E5.07417
G1 X33.863 Y64.819 E5.26695
G1 X33.556 Y64.95 E5.28527
G1 X33.056 Y65.006 E5.31288
G1 X32.724 Y64.966 E5.33124
G1 X32.357 Y64.819 E5.35293
G1 X29.314 Y63.065 E5.54568
G1 X29.046 Y62.865 E5.56404
G1 X28.744 Y62.452 E5.59211
G1 X28.614 Y62.144 E5.61046
G1 X28.56 Y61.759 E5.6318
G1 X28.56 Y58.242 E5.82481
G1 X28.6 Y57.91 E5.84316
G1 X28.797 Y57.456 E5.87032
G1 X28.996 Y57.187 E5.88868
G1 X29.314 Y56.936 E5.91091
G1 X31.897 Y55.446 E6.07456
G0 F810 X32.357 Y55.181
G0 F1542.9 X32.556 Y55.528
G1 F900 X32.818 Y55.423 E6.09005
G1 X33.164 Y55.394 E6.10911
G1 X33.443 Y55.434 E6.12457
G1 X33.663 Y55.528 E6.1377
G1 X36.706 Y57.282 E6.33046
G1 X36.929 Y57.456 E6.34598
G1 X37.129 Y57.746 E6.36531
G1 X37.233 Y58.008 E6.38078
G1 X37.26 Y58.241 E6.39365
G1 X37.26 Y61.758 E6.58666
G1 X37.22 Y62.037 E6.60213
G1 X37.076 Y62.346 E6.62084
G1 X36.903 Y62.569 E6.63633
G1 X36.707 Y62.717 E6.64981
G1 X33.664 Y64.472 E6.84259
G1 X33.402 Y64.577 E6.85808
G1 X33.056 Y64.606 E6.87713
G1 X32.777 Y64.566 E6.8926
G1 X32.557 Y64.472 E6.90573
G1 X29.514 Y62.718 E7.09848
G1 X29.291 Y62.544 E7.11401
G1 X29.091 Y62.254 E7.13334
G1 X28.987 Y61.992 E7.14881
G1 X28.96 Y61.759 E7.16168
G1 X28.96 Y58.242 E7.35469
G1 X29 Y57.963 E7.37016
G1 X29.144 Y57.654 E7.38887
G1 X29.317 Y57.431 E7.40436
G1 X29.513 Y57.283 E7.41784
G1 X32.096 Y55.793 E7.58148
G0 F810 X32.556 Y55.528
G0 F1542.9 X32.756 Y55.874
G1 F900 X33.164 Y55.794 E7.6043
G1 X33.464 Y55.874 E7.62134
G1 X36.507 Y57.628 E7.81409
G1 X36.781 Y57.944 E7.83704
G1 X36.86 Y58.241 E7.85391
G1 X36.86 Y61.758 E8.04692
G1 X36.728 Y62.148 E8.06952
G1 X36.507 Y62.371 E8.08675
G1 X33.464 Y64.126 E8.27953
G1 X33.056 Y64.206 E8.30234
G1 X32.756 Y64.126 E8.31938
G1 X29.713 Y62.372 E8.51214
G1 X29.439 Y62.056 E8.53509
G1 X29.36 Y61.759 E8.55196
G1 X29.36 Y58.242 E8.74497
G1 X29.492 Y57.852 E8.76756
G1 X29.713 Y57.629 E8.78479
G1 X32.296 Y56.139 E8.94844
G0 F810 X32.756 Y55.874
G0 F1542.9 X32.956 Y56.221
G1 F900 X33.164 Y56.194 E8.95995
G1 X33.264 Y56.221 E8.96563
G1 X36.307 Y57.975 E9.15839
G1 X36.434 Y58.142 E9.1699
G1 X36.46 Y58.241 E9.17552
G1 X36.46 Y61.758 E9.36853
G1 X36.381 Y61.95 E9.37992
G1 X36.307 Y62.024 E9.38566
G1 X33.264 Y63.779 E9.57844
G1 X33.056 Y63.806 E9.58996
G1 X32.956 Y63.779 E9.59564
G1 X29.913 Y62.025 E9.78839
G1 X29.786 Y61.858 E9.79991
G1 X29.76 Y61.759 E9.80552
G1 X29.76 Y58.242 E9.99853
G1 X29.839 Y58.05 E10.00993
G1 X29.913 Y57.976 E10.01567
G1 X32.496 Y56.486 E10.17932
G0 F810 X32.956 Y56.221
G1 F1500 E5.17932
;MESH:bitstopfen.3mf
G0 F1542.9 X33.442 Y55.356
G0 X36.678 Y57.222
G0 X36.06 Y58.295
;TYPE:WALL-OUTER
G1 F1500 E10.90688
G1 F900 X36.06 Y61.704 E11.09397
G1 X33.11 Y63.406 E11.28087
G1 X30.16 Y61.705 E11.46775
G1 X30.16 Y58.296 E11.65484
G1 X33.11 Y56.594 E11.84174
G1 X35.6 Y58.03 E11.99949
G0 F810 X36.06 Y58.295
G0 F1542.9 X36.06 Y58.495
G0 X35.597 Y58.535
G0 X35.66 Y58.527
;TYPE:WALL-INNER
G1 F900 X35.66 Y61.473 E12.16116
G1 X33.111 Y62.944 E12.32267
G1 X30.56 Y61.473 E12.48428
G1 X30.56 Y58.527 E12.64595
G1 X33.109 Y57.056 E12.80746
G1 X35.2 Y58.262 E12.93993
G0 F810 X35.66 Y58.527
G0 F1542.9 X35.26 Y58.759
G1 F900 X35.26 Y61.242 E13.07619
G1 X33.112 Y62.482 E13.21231
G1 X30.96 Y61.241 E13.34864
G1 X30.96 Y58.758 E13.4849
G1 X33.108 Y57.518 E13.62102
G1 X34.8 Y58.494 E13.72821
G0 F810 X35.26 Y58.759
G0 F1542.9 X34.87 Y58.984
;TYPE:SKIN
G1 F900 X34.87 Y61.017 E13.83978
G1 X33.112 Y62.031 E13.95116
G1 X31.35 Y61.016 E14.06275
G1 X31.35 Y58.983 E14.17432
G1 X33.108 Y57.969 E14.2857
G1 X34.409 Y58.719 E14.36811
G0 F810 X34.87 Y58.984
G0 F1542.9 X34.73 Y59.62
G1 F900 X33.418 Y58.308 E14.46993
G0 F1542.9 X32.833 Y58.288
M104 S202
G1 F900 X34.73 Y60.186 E14.6172
G0 F1542.9 X34.73 Y60.751
G1 F900 X32.473 Y58.495 E14.79233
G0 F1542.9 X32.115 Y58.702
G1 F900 X34.487 Y61.074 E14.97642
G0 F1542.9 X34.129 Y61.282
G1 F900 X31.756 Y58.909 E15.16059
G0 F1542.9 X31.489 Y59.208
G1 F900 X33.77 Y61.488 E15.33759
G0 F1542.9 X33.41 Y61.695
G1 F900 X31.489 Y59.773 E15.48671
G0 F1542.9 X31.489 Y60.339
G1 F900 X32.891 Y61.741 E15.59553
G1 X32.961 Y61.811
G0 F1542.9 X31.559 Y60.975
G1 F900 X31.489 Y60.905 E15.60096
;MESH:NONMESH
G0 F600 X31.489 Y60.905 Z0.54
G0 F1542.9 X35.26 Y58.759
;TIME_ELAPSED:22.732457
;LAYER:1
M106 S255
;TYPE:WALL-INNER
;MESH:bitstopfen.3mf
G1 F1168.7 X35.26 Y61.242 E15.70997
G1 X33.112 Y62.482 E15.81886
G1 X30.96 Y61.241 E15.92792
G1 X30.96 Y58.758 E16.03694
G1 X33.108 Y57.518 E16.14583
G1 X34.684 Y58.427 E16.2257
G0 F1051.8 X35.26 Y58.759
G0 F2571.4 X35.66 Y58.527
G1 F1168.7 X35.66 Y61.473 E16.35504
G1 X33.111 Y62.944 E16.48425
G1 X30.56 Y61.473 E16.61353
G1 X30.56 Y58.527 E16.74287
G1 X33.109 Y57.056 E16.87208
G1 X35.084 Y58.195 E16.97218
G0 F1051.8 X35.66 Y58.527
G0 F2571.4 X36.06 Y58.295
;TYPE:WALL-OUTER
G1 F735.1 X36.06 Y61.704 E17.12184
G1 X33.11 Y63.406 E17.27137
G1 X30.16 Y61.705 E17.42087
G1 X30.16 Y58.296 E17.57054
G1 X33.11 Y56.594 E17.72006
G1 X35.484 Y57.963 E17.84038
G0 F661.6 X36.06 Y58.295
G0 F2571.4 X36.06 Y58.495
G0 X35.597 Y58.535
G0 X34.87 Y58.984
;TYPE:SKIN
G1 F622 X34.87 Y61.017 E17.92963
G1 X33.112 Y62.031 E18.01873
G1 X31.35 Y61.016 E18.10801
G1 X31.35 Y58.983 E18.19726
G1 X33.108 Y57.969 E18.28636
G1 X34.294 Y58.652 E18.34645
G0 F559.8 X34.87 Y58.984
G0 F2571.4 X34.729 Y60.871
G1 F622 X34.575 Y61.025 E18.35601
G0 F2571.4 X34.729 Y60.305
G1 F622 X33.241 Y61.794 E18.44843
G0 F2571.4 X32.787 Y61.682
G1 F622 X34.729 Y59.739 E18.56904
G0 F2571.4 X34.729 Y59.174
G1 F622 X32.427 Y61.475 E18.71194
G0 F2571.4 X32.068 Y61.269
G1 F622 X34.441 Y58.896 E18.85927
G0 F2571.4 X34.082 Y58.689
G1 F622 X31.71 Y61.062 E19.00658
G0 F2571.4 X31.49 Y60.716
G1 F622 X33.723 Y58.483 E19.14522
G0 F2571.4 X33.364 Y58.276
G1 F622 X31.49 Y60.15 E19.26158
G0 F2571.4 X31.49 Y59.585
G1 F622 X32.724 Y58.35 E19.33823
G1 X32.794 Y58.28
;MESH:NONMESH
G0 F600 X32.794 Y58.28 Z0.78
G0 F2571.4 X35.26 Y58.758
;TIME_ELAPSED:29.896299
;LAYER:2
;TYPE:WALL-INNER
;MESH:bitstopfen.3mf
G1 F1436.9 X35.26 Y61.242 E19.44728
G1 X33.11 Y62.484 E19.55629
G1 X30.96 Y61.242 E19.6653
G1 X30.96 Y58.758 E19.77436
G1 X33.11 Y57.516 E19.88337
G1 X34.684 Y58.426 E19.96319
G0 F1293.2 X35.26 Y58.758
G0 F3600 X35.66 Y58.527
G1 F1436.9 X35.66 Y61.473 E20.09253
G1 X33.31 Y62.829 E20.21165
G1 X33.11 Y62.945 E20.2218
G1 X30.56 Y61.473 E20.35106
G1 X30.56 Y58.527 E20.4804
G1 X32.91 Y57.171 E20.59952
G1 X33.11 Y57.055 E20.60967
G1 X35.084 Y58.195 E20.70975
G0 F1293.2 X35.66 Y58.527
G0 F3600 X36.06 Y58.296
;TYPE:WALL-OUTER
G1 F733.7 X36.06 Y61.704 E20.85937
G1 X33.11 Y63.406 E21.0089
G1 X30.16 Y61.704 E21.15842
G1 X30.16 Y58.296 E21.30805
G1 X33.11 Y56.594 E21.45757
G1 X35.484 Y57.964 E21.57791
G0 F660.4 X36.06 Y58.296
G0 F3600 X36.06 Y58.496
G0 X35.597 Y58.536
G0 X34.87 Y58.983
;TYPE:SKIN
G1 F550.3 X34.87 Y61.017 E21.66721
G1 X33.11 Y62.033 E21.75643
G1 X31.35 Y61.017 E21.84565
G1 X31.35 Y58.983 E21.93495
G1 X33.11 Y57.967 E22.02417
G1 X34.295 Y58.651 E22.08424
G0 F495.3 X34.87 Y58.983
G0 F3600 X34.729 Y59.619
G1 F550.3 X33.413 Y58.303 E22.16595
G0 F3600 X32.833 Y58.288
G1 F550.3 X34.729 Y60.185 E22.2837
G0 F3600 X34.729 Y60.751
G1 F550.3 X32.473 Y58.495 E22.42377
G0 F3600 X32.115 Y58.702
G1 F550.3 X34.487 Y61.074 E22.57105
G0 F3600 X34.129 Y61.282
G1 F550.3 X31.756 Y58.909 E22.71838
G0 F3600 X31.489 Y59.208
G1 F550.3 X33.77 Y61.488 E22.85998
G0 F3600 X33.411 Y61.695
G1 F550.3 X31.489 Y59.773 E22.97931
G0 F3600 X31.489 Y60.339
G1 F550.3 X32.898 Y61.748 E23.06679
G1 X32.968 Y61.818
G0 F3600 X31.562 Y60.978
G1 F550.3 X31.489 Y60.905 E23.07133
;MESH:NONMESH
G0 F600 X31.489 Y60.905 Z1.02
G0 F3600 X35.26 Y58.758
;TIME_ELAPSED:37.184726
;LAYER:3
;TYPE:WALL-INNER
;MESH:bitstopfen.3mf
G1 F1447.1 X35.26 Y61.242 E23.18038
G1 X33.11 Y62.484 E23.28939
G1 X30.96 Y61.242 E23.3984
G1 X30.96 Y58.758 E23.50746
G1 X33.11 Y57.516 E23.61647
G1 X34.684 Y58.426 E23.69629
G0 F1302.4 X35.26 Y58.758
G0 F3600 X35.66 Y58.527
G1 F1447.1 X35.66 Y61.473 E23.82563
G1 X33.31 Y62.829 E23.94475
G1 X33.11 Y62.945 E23.9549
G1 X30.56 Y61.473 E24.08416
G1 X30.56 Y58.527 E24.2135
G1 X32.91 Y57.171 E24.33262
G1 X33.11 Y57.055 E24.34277
G1 X35.084 Y58.195 E24.44285
G0 F1302.4 X35.66 Y58.527
G0 F3600 X36.06 Y58.296
;TYPE:WALL-OUTER
G1 F738.9 X36.06 Y61.704 E24.59247
G1 X33.11 Y63.406 E24.742
G1 X30.16 Y61.704 E24.89152
G1 X30.16 Y58.296 E25.04115
G1 X33.11 Y56.594 E25.19067
G1 X35.484 Y57.964 E25.31101
G0 F665 X36.06 Y58.296
G0 F3600 X36.06 Y58.496
G0 X35.597 Y58.536
G0 X34.87 Y58.983
;TYPE:SKIN
G1 F554.2 X34.87 Y61.017 E25.40031
G1 X33.11 Y62.033 E25.48953
G1 X31.35 Y61.017 E25.57875
G1 X31.35 Y58.983 E25.66805
G1 X33.11 Y57.967 E25.75727
G1 X34.295 Y58.651 E25.81734
G0 F498.8 X34.87 Y58.983
G0 F3600 X34.729 Y60.871
G1 F554.2 X34.575 Y61.025 E25.8269
G0 F3600 X34.729 Y60.305
G1 F554.2 X33.239 Y61.795 E25.91941
G0 F3600 X32.785 Y61.683
G1 F554.2 X34.729 Y59.739 E26.04011
G0 F3600 X34.729 Y59.174
G1 F554.2 X32.426 Y61.477 E26.1831
G0 F3600 X32.067 Y61.27
G1 F554.2 X34.441 Y58.896 E26.3305
G0 F3600 X34.083 Y58.689
G1 F554.2 X31.708 Y61.063 E26.47793
G0 F3600 X31.489 Y60.717
G1 F554.2 X33.724 Y58.482 E26.6167
G0 F3600 X33.365 Y58.275
G1 F554.2 X31.489 Y60.151 E26.73318
G0 F3600 X31.489 Y59.585
G1 F554.2 X32.725 Y58.349 E26.80992
G1 X32.795 Y58.279
;MESH:NONMESH
G0 F600 X32.795 Y58.279 Z1.26
G0 F3600 X31.226 Y58.749
;TIME_ELAPSED:44.397244
;LAYER:4
;TYPE:FILL
;MESH:bitstopfen.3mf
G1 F528.7 X31.626 Y59.083 E26.84424
G1 X32.128 Y59.351 E26.88171
G1 X32.63 Y59.519 E26.91658
G1 X33.132 Y59.598 E26.95004
G1 X33.634 Y59.536 E26.98335
G1 X34.136 Y59.157 E27.02477
G1 X34.585 Y58.512 E27.07653
G0 F3600 X34.497 Y58.663
G0 X34.96 Y60.882
G0 X35.135 Y60.882
G1 F528.7 X34.638 Y60.943 E27.10951
G1 X34.136 Y61.322 E27.15093
G1 X33.642 Y62.033 E27.20794
G0 F3600 X33.555 Y61.881
G0 X34.974 Y58.923
G0 X35.26 Y58.758
;TYPE:WALL-INNER
G1 F709.9 X35.26 Y61.242 E27.317
G1 X33.11 Y62.484 E27.42601
G1 X30.96 Y61.242 E27.53502
G1 X30.96 Y58.758 E27.64408
G1 X33.11 Y57.516 E27.75309
G1 X34.684 Y58.426 E27.83291
G0 F638.9 X35.26 Y58.758
G0 F3600 X35.66 Y58.527
G1 F709.9 X35.66 Y61.473 E27.96225
G1 X33.31 Y62.829 E28.08136
G1 X33.11 Y62.945 E28.09151
G1 X30.56 Y61.473 E28.22078
G1 X30.56 Y58.527 E28.35012
G1 X32.91 Y57.171 E28.46924
G1 X33.11 Y57.055 E28.47939
G1 X35.084 Y58.195 E28.57947
G0 F638.9 X35.66 Y58.527
G0 F3600 X36.06 Y58.296
;TYPE:WALL-OUTER
G1 F362.5 X36.06 Y61.704 E28.72909
G1 X33.11 Y63.406 E28.87862
G1 X30.16 Y61.704 E29.02814
G1 X30.16 Y58.296 E29.17776
G1 X33.11 Y56.594 E29.32729
G1 X35.484 Y57.964 E29.44763
G0 F326.3 X36.06 Y58.296
G0 F3600 X36.06 Y58.496
G0 X35.597 Y58.536
G0 X34.66 Y59.073
;MESH:NONMESH
G0 F600 X34.66 Y59.073 Z1.5
G0 F3600 X31.246 Y58.938
G0 X31.159 Y58.787
;TIME_ELAPSED:51.624934
;LAYER:5
;TYPE:FILL
;MESH:bitstopfen.3mf
G1 F522.5 X31.626 Y59.091 E29.48432
G1 X32.128 Y59.287 E29.51981
G1 X32.63 Y59.382 E29.55346
G1 X33.132 Y59.372 E29.58652
G1 X33.634 Y59.203 E29.62141
G1 X34.136 Y58.785 E29.66443
G1 X34.44 Y58.429 E29.69525
G0 F3600 X34.352 Y58.579
G0 X34.96 Y61.109
G0 X35.135 Y61.109
G1 F522.5 X34.638 Y61.276 E29.72978
G1 X34.136 Y61.694 E29.7728
G1 X34.046 Y61.799 E29.78191
G0 F3600 X33.959 Y61.648
G0 X34.974 Y58.923
G0 X35.26 Y58.758
;TYPE:WALL-INNER
G1 F701.6 X35.26 Y61.242 E29.89097
G1 X33.11 Y62.484 E29.99998
G1 X30.96 Y61.242 E30.10899
G1 X30.96 Y58.758 E30.21804
G1 X33.11 Y57.516 E30.32705
G1 X34.684 Y58.426 E30.40687
G0 F631.5 X35.26 Y58.758
G0 F3600 X35.66 Y58.527
G1 F701.6 X35.66 Y61.473 E30.53621
G1 X33.31 Y62.829 E30.65533
G1 X33.11 Y62.945 E30.66548
G1 X30.56 Y61.473 E30.79475
G1 X30.56 Y58.527 E30.92409
G1 X32.91 Y57.171 E31.0432
G1 X33.11 Y57.055 E31.05336
G1 X35.084 Y58.195 E31.15343
G0 F631.5 X35.66 Y58.527
G0 F3600 X36.06 Y58.296
;TYPE:WALL-OUTER
G1 F358.3 X36.06 Y61.704 E31.30306
G1 X33.11 Y63.406 E31.45258
G1 X30.16 Y61.704 E31.60211
G1 X30.16 Y58.296 E31.75173
G1 X33.11 Y56.594 E31.90125
G1 X35.484 Y57.964 E32.02159
G0 F322.5 X36.06 Y58.296
G0 F3600 X36.06 Y58.496
G0 X35.597 Y58.536
G0 X34.66 Y59.073
;MESH:NONMESH
G0 F600 X34.66 Y59.073 Z1.74
G0 F3600 X31.246 Y58.923
G0 X31.085 Y58.844
;TIME_ELAPSED:58.819549
;LAYER:6
;TYPE:FILL
;MESH:bitstopfen.3mf
G1 F503.3 X31.124 Y58.875 E32.02487
G1 X31.626 Y59.123 E32.06175
G1 X32.128 Y59.25 E32.09585
G1 X32.63 Y59.275 E32.12895
G1 X33.132 Y59.188 E32.1625
G1 X33.634 Y58.944 E32.19926
G1 X34.136 Y58.506 E32.24313
G1 X34.294 Y58.344 E32.25803
G0 F3600 X34.206 Y58.495
G0 X34.974 Y58.923
G0 X35.26 Y58.758
;TYPE:WALL-INNER
G1 F675.9 X35.26 Y61.242 E32.36709
G1 X33.11 Y62.484 E32.4761
G1 X30.96 Y61.242 E32.58511
G1 X30.96 Y58.758 E32.69416
G1 X33.11 Y57.516 E32.80318
G1 X34.684 Y58.426 E32.883
G0 F608.3 X35.26 Y58.758
G0 F3600 X35.66 Y58.527
G1 F675.9 X35.66 Y61.473 E33.01234
G1 X33.31 Y62.829 E33.13145
