;FLAVOR:Marlin
;TIME:1278
;Filament used: 1.34031m
;Layer height: 0.12
;MINX:26.236
;MINY:26.236
;MINZ:0.3
;MAXX:93.746
;MAXY:93.747
;MAXZ:2.55
;Generated with Cura_SteamEngine 4.7.1
M104 S210
M105
M109 S210
M82 ;absolute extrusion mode
;Sliced at: Mon 26-07-2021 11:23:28
G21 ;metric values
G90 ;absolute positioning
M82 ;set extruder to absolute mode
M107 ;start with the fan off
G1 Z5.0 F1800 ;move Z to 5mm
G28 X0 Y0 F1800 ;move X/Y to min endstops
G28 Z0 ;move Z to min endstop
G92 E0 ;zero the extruded length
G1 F200 E6.0 ;extrude 6.0mm of feed stock to build pressure
G1 Z5.0 F300 ;move the platform down 5mm
G92 E0 ;zero the extruded length again
G1 F1800
;Put printing message on LCD screen
M117 Printing...
G92 E0
G92 E0
G1 F1500 E-5
;LAYER_COUNT:13
;LAYER:0
M107
G0 F1080 X30.781 Y47.549 Z0.3
;TYPE:SKIRT
G1 F1500 E0.72757
G1 F900 X47.592 Y30.74 E2.03221
G1 X48.314 Y30.04 E2.08739
G1 X48.852 Y29.561 E2.12692
G1 X49.436 Y29.091 E2.16806
G1 X49.902 Y28.751 E2.19972
G1 X50.379 Y28.433 E2.23118
G1 X50.882 Y28.127 E2.26349
G1 X51.375 Y27.852 E2.29447
G1 X51.884 Y27.598 E2.32569
G1 X52.507 Y27.319 E2.36315
G1 X53.258 Y27.031 E2.40729
G1 X53.965 Y26.802 E2.44808
G1 X54.455 Y26.669 E2.47594
G1 X55.082 Y26.523 E2.51127
G1 X55.581 Y26.431 E2.53912
G1 X56.316 Y26.327 E2.57986
G1 X57.103 Y26.259 E2.62321
G1 X57.808 Y26.236 E2.66192
G1 X57.93 Y26.236 E2.66861
G1 X58.66 Y26.256 E2.70869
G1 X59.415 Y26.318 E2.75026
G1 X60.171 Y26.421 E2.79214
G1 X60.702 Y26.519 E2.82177
G1 X61.336 Y26.663 E2.85745
G1 X61.865 Y26.808 E2.88755
G1 X62.474 Y27.004 E2.92266
G1 X63.235 Y27.292 E2.96731
G1 X63.898 Y27.585 E3.00709
G1 X64.387 Y27.83 E3.03711
G1 X64.978 Y28.156 E3.07415
G1 X65.628 Y28.562 E3.11621
G1 X66.059 Y28.859 E3.14493
G1 X66.565 Y29.24 E3.17969
G1 X66.979 Y29.58 E3.20909
G1 X67.424 Y29.973 E3.24167
G1 X67.515 Y30.059 E3.24855
G1 X68.292 Y30.814 E3.308
G1 X85.952 Y48.475 E4.67865
G1 X86.421 Y48.957 E4.71556
G1 X86.865 Y49.484 E4.75338
G1 X87.078 Y49.772 E4.77303
G1 X87.381 Y50.25 E4.80409
G1 X87.873 Y51.16 E4.86086
G1 X88.13 Y51.652 E4.89133
G1 X89.436 Y54.003 E5.03892
G1 X90.807 Y56.313 E5.18634
G1 X91.777 Y57.846 E5.28589
G1 X92.545 Y59.067 E5.36505
G1 X92.899 Y59.729 E5.40625
G1 X93.238 Y60.544 E5.45469
G1 X93.441 Y61.2 E5.49238
G1 X93.569 Y61.749 E5.52331
G1 X93.667 Y62.353 E5.55689
G1 X93.73 Y62.981 E5.59153
G1 X93.746 Y63.78 E5.63539
G1 X93.707 Y64.441 E5.67173
G1 X93.612 Y65.164 E5.71175
G1 X93.428 Y65.956 E5.75637
G1 X93.253 Y66.504 E5.78794
G1 X93.013 Y67.12 E5.82422
G1 X92.671 Y67.825 E5.86722
G1 X92.327 Y68.412 E5.90456
G1 X91.928 Y69.001 E5.9436
G1 X91.658 Y69.33 E5.96696
G1 X91.241 Y69.802 E6.00152
G1 X90.84 Y70.221 E6.03335
G1 X82.745 Y78.318 E6.66169
G1 X81.398 Y79.627 E6.76477
G1 X79.476 Y81.548 E6.9139
G1 X78.64 Y82.421 E6.98023
G1 X70.364 Y90.697 E7.62254
G1 X69.888 Y91.16 E7.65898
G1 X69.503 Y91.509 E7.6875
G1 X68.873 Y92.012 E7.73174
G1 X68.12 Y92.505 E7.78113
G1 X67.475 Y92.85 E7.82128
G1 X66.77 Y93.158 E7.8635
G1 X66.072 Y93.399 E7.90402
G1 X65.365 Y93.57 E7.94394
G1 X64.761 Y93.668 E7.97752
G1 X64.128 Y93.731 E8.01243
G1 X63.346 Y93.747 E8.05535
G1 X62.667 Y93.706 E8.09269
G1 X61.973 Y93.619 E8.13107
G1 X61.133 Y93.418 E8.17847
G1 X60.612 Y93.251 E8.20849
G1 X60.455 Y93.192 E8.2177
G1 X59.942 Y92.988 E8.248
G1 X59.484 Y92.779 E8.27562
G1 X59.042 Y92.537 E8.30328
G1 X58.899 Y92.45 E8.31246
G1 X57.421 Y91.514 E8.40847
G1 X55.067 Y90.069 E8.56006
G1 X52.711 Y88.712 E8.70927
G1 X51.197 Y87.901 E8.80352
G1 X50.349 Y87.435 E8.85662
G1 X49.881 Y87.141 E8.88695
G1 X49.4 Y86.794 E8.9195
G1 X48.936 Y86.4 E8.95291
G1 X48.449 Y85.927 E8.99017
G1 X30.773 Y68.249 E10.36209
G1 X30.077 Y67.532 E10.41693
G1 X29.592 Y66.994 E10.45668
G1 X29.26 Y66.589 E10.48542
G1 X28.853 Y66.05 E10.52249
G1 X28.56 Y65.624 E10.55086
G1 X28.212 Y65.072 E10.58667
G1 X27.946 Y64.607 E10.61607
G1 X27.644 Y64.019 E10.65235
G1 X27.432 Y63.563 E10.67995
G1 X27.186 Y62.97 E10.71518
G1 X26.999 Y62.458 E10.74509
G1 X26.789 Y61.799 E10.78305
G1 X26.591 Y61.038 E10.8262
G1 X26.455 Y60.365 E10.86388
G1 X26.362 Y59.766 E10.89715
G1 X26.293 Y59.164 E10.9304
G1 X26.253 Y58.584 E10.96231
G1 X26.236 Y57.985 E10.9952
G1 X26.245 Y57.42 E11.02621
G1 X26.282 Y56.781 E11.06133
G1 X26.337 Y56.226 E11.09194
G1 X26.424 Y55.618 E11.12565
G1 X26.52 Y55.1 E11.15456
G1 X26.659 Y54.489 E11.18895
G1 X26.804 Y53.958 E11.21915
G1 X27.008 Y53.324 E11.2557
G1 X27.294 Y52.567 E11.30011
G1 X27.588 Y51.905 E11.33987
G1 X27.835 Y51.41 E11.37023
G1 X28.126 Y50.88 E11.40341
G1 X28.388 Y50.45 E11.43104
G1 X28.811 Y49.815 E11.47291
G1 X29.26 Y49.218 E11.51391
G1 X29.782 Y48.597 E11.55843
G1 X30.126 Y48.221 E11.5864
G1 X30.41 Y47.93 E11.60871
G0 F810 X30.781 Y47.549
G0 F1080 X31.063 Y47.832
G1 F900 X47.87 Y31.027 E12.91304
G1 X48.52 Y30.396 E12.96276
G1 X49.114 Y29.863 E13.00655
G1 X49.681 Y29.407 E13.04648
G1 X50.128 Y29.08 E13.07688
G1 X50.597 Y28.768 E13.10779
G1 X51.081 Y28.474 E13.13887
G1 X51.562 Y28.206 E13.16909
G1 X52.053 Y27.961 E13.1992
G1 X52.665 Y27.686 E13.23602
G1 X53.395 Y27.406 E13.27893
G1 X54.081 Y27.185 E13.31848
G1 X54.878 Y26.978 E13.36367
G1 X55.541 Y26.843 E13.4008
G1 X56.073 Y26.76 E13.43035
G1 X56.687 Y26.691 E13.46426
G1 X57.241 Y26.652 E13.49474
G1 X57.815 Y26.636 E13.52625
G1 X57.924 Y26.636 E13.53223
G1 X58.643 Y26.656 E13.57171
G1 X59.377 Y26.716 E13.61212
G1 X60.11 Y26.817 E13.65273
G1 X60.62 Y26.911 E13.68119
G1 X61.239 Y27.051 E13.71602
G1 X61.749 Y27.191 E13.74504
G1 X62.347 Y27.383 E13.77951
G1 X63.087 Y27.663 E13.82293
G1 X63.73 Y27.949 E13.86155
G1 X64.2 Y28.183 E13.89036
G1 X64.779 Y28.503 E13.92667
G1 X65.412 Y28.898 E13.96762
G1 X66.031 Y29.335 E14.0092
G1 X66.647 Y29.823 E14.05233
G1 X67.04 Y30.164 E14.08088
G1 X67.236 Y30.346 E14.09556
G1 X68.009 Y31.096 E14.15467
G1 X85.665 Y48.754 E15.52504
G1 X86.134 Y49.236 E15.56195
G1 X86.543 Y49.722 E15.59681
G1 X86.756 Y50.01 E15.61647
G1 X87.029 Y50.44 E15.64442
G1 X87.518 Y51.345 E15.70087
G1 X87.759 Y51.808 E15.72952
G1 X89.101 Y54.222 E15.88109
G1 X90.468 Y56.525 E16.02807
G1 X91.438 Y58.059 E16.12767
G1 X92.206 Y59.28 E16.20683
G1 X92.534 Y59.893 E16.24498
G1 X92.866 Y60.691 E16.29242
G1 X93.055 Y61.303 E16.32757
G1 X93.179 Y61.837 E16.35765
G1 X93.271 Y62.407 E16.38934
G1 X93.331 Y63.018 E16.42303
G1 X93.347 Y63.756 E16.46354
G1 X93.308 Y64.417 E16.49988
G1 X93.217 Y65.102 E16.5378
G1 X93.04 Y65.857 E16.58036
G1 X92.874 Y66.375 E16.61021
G1 X92.641 Y66.972 E16.64538
G1 X92.326 Y67.623 E16.68507
G1 X91.982 Y68.21 E16.72241
G1 X91.616 Y68.751 E16.75825
G1 X91.358 Y69.066 E16.7806
G1 X90.948 Y69.53 E16.81458
G1 X90.555 Y69.94 E16.84575
G1 X82.466 Y78.031 E17.47362
G1 X81.119 Y79.34 E17.5767
G1 X79.187 Y81.271 E17.7266
G1 X78.297 Y82.2 E17.79721
G1 X70.085 Y90.411 E18.43451
G1 X69.609 Y90.874 E18.47095
G1 X68.888 Y91.499 E18.52332
G1 X68.452 Y91.817 E18.55293
G1 X67.906 Y92.167 E18.58852
G1 X67.315 Y92.484 E18.62533
G1 X66.61 Y92.792 E18.66755
G1 X65.956 Y93.017 E18.70551
G1 X65.276 Y93.18 E18.74388
G1 X64.707 Y93.272 E18.77551
G1 X64.091 Y93.333 E18.80948
G1 X63.37 Y93.347 E18.84906
G1 X62.691 Y93.306 E18.88639
G1 X62.054 Y93.227 E18.92162
G1 X61.233 Y93.031 E18.96794
G1 X60.744 Y92.873 E18.99614
G1 X60.603 Y92.82 E19.00441
G1 X60.09 Y92.616 E19.0347
G1 X59.419 Y92.292 E19.0756
G1 X59.113 Y92.112 E19.09508
G1 X57.63 Y91.173 E19.19141
G1 X55.255 Y89.714 E19.34437
G1 X52.908 Y88.364 E19.49296
G1 X51.389 Y87.55 E19.58754
G1 X50.541 Y87.084 E19.64064
G1 X50.103 Y86.808 E19.66905
G1 X49.636 Y86.471 E19.70066
G1 X49.215 Y86.113 E19.73099
G1 X48.732 Y85.645 E19.76789
G1 X31.097 Y68.009 E21.1366
G1 X30.297 Y67.183 E21.19971
G1 X29.894 Y66.732 E21.2329
G1 X29.575 Y66.343 E21.26051
G1 X29.176 Y65.814 E21.29687
G1 X28.713 Y65.126 E21.34238
G1 X28.339 Y64.491 E21.38282
G1 X28.002 Y63.841 E21.42301
G1 X27.686 Y63.143 E21.46505
G1 X27.413 Y62.431 E21.5069
G1 X27.172 Y61.682 E21.55008
G1 X26.98 Y60.943 E21.59198
G1 X26.848 Y60.291 E21.62849
G1 X26.758 Y59.716 E21.66043
G1 X26.691 Y59.126 E21.69302
G1 X26.652 Y58.567 E21.72377
G1 X26.636 Y57.979 E21.75605
G1 X26.644 Y57.437 E21.7858
G1 X26.681 Y56.81 E21.82027
G1 X26.734 Y56.277 E21.84966
G1 X26.819 Y55.679 E21.88281
G1 X26.911 Y55.185 E21.91039
G1 X27.048 Y54.583 E21.94427
G1 X27.187 Y54.075 E21.97317
G1 X27.387 Y53.451 E22.00913
G1 X27.666 Y52.715 E22.05233
G1 X27.951 Y52.073 E22.09088
G1 X28.187 Y51.599 E22.11994
G1 X28.474 Y51.078 E22.15258
G1 X28.907 Y50.383 E22.19752
G1 X29.202 Y49.955 E22.22604
G1 X29.576 Y49.463 E22.25996
G1 X30.083 Y48.86 E22.30319
G1 X30.413 Y48.5 E22.33
G1 X30.692 Y48.213 E22.35196
G0 F810 X31.063 Y47.832
G0 F1080 X31.346 Y48.115
G1 F900 X48.149 Y31.314 E23.65598
G1 X48.857 Y30.628 E23.71008
G1 X49.376 Y30.165 E23.74825
G1 X49.926 Y29.723 E23.78697
G1 X50.355 Y29.41 E23.81612
G1 X50.816 Y29.103 E23.84651
G1 X51.28 Y28.821 E23.87631
G1 X51.75 Y28.559 E23.90584
G1 X52.221 Y28.323 E23.93475
G1 X52.824 Y28.054 E23.97099
G1 X53.533 Y27.782 E24.01266
G1 X54.197 Y27.568 E24.05095
G1 X54.973 Y27.366 E24.09495
G1 X55.613 Y27.237 E24.13078
G1 X56.123 Y27.157 E24.15911
G1 X56.726 Y27.089 E24.19241
G1 X57.258 Y27.052 E24.22168
G1 X57.821 Y27.036 E24.25259
G1 X57.918 Y27.036 E24.25791
G1 X58.627 Y27.056 E24.29684
G1 X59.338 Y27.114 E24.33599
G1 X60.05 Y27.212 E24.37543
G1 X60.81 Y27.359 E24.41791
G1 X61.544 Y27.548 E24.45951
G1 X62.22 Y27.762 E24.49842
G1 X62.939 Y28.035 E24.54063
G1 X63.562 Y28.312 E24.57804
G1 X64.012 Y28.536 E24.60563
G1 X64.58 Y28.85 E24.64125
G1 X65.195 Y29.234 E24.68104
G1 X65.795 Y29.658 E24.72136
G1 X66.392 Y30.132 E24.76319
G1 X66.771 Y30.46 E24.7907
G1 X66.958 Y30.633 E24.80468
G1 X67.726 Y31.379 E24.86343
G1 X85.378 Y49.033 E26.2335
G1 X85.847 Y49.515 E26.27041
G1 X86.222 Y49.96 E26.30234
G1 X86.678 Y50.63 E26.34682
G1 X87.163 Y51.53 E26.40293
G1 X87.413 Y52.009 E26.43258
G1 X88.727 Y54.373 E26.58101
G1 X90.151 Y56.773 E26.73416
G1 X91.1 Y58.272 E26.83152
G1 X91.868 Y59.493 E26.91068
G1 X92.169 Y60.057 E26.94577
G1 X92.495 Y60.839 E26.99226
G1 X92.669 Y61.407 E27.02486
G1 X92.789 Y61.926 E27.0541
G1 X92.875 Y62.461 E27.08383
G1 X92.933 Y63.055 E27.11659
G1 X92.947 Y63.732 E27.15375
G1 X92.908 Y64.393 E27.19009
G1 X92.822 Y65.04 E27.22591
G1 X92.653 Y65.757 E27.26633
G1 X92.496 Y66.245 E27.29446
G1 X92.269 Y66.825 E27.32865
G1 X91.981 Y67.421 E27.36497
G1 X91.637 Y68.008 E27.40231
G1 X91.303 Y68.501 E27.43499
G1 X91.058 Y68.801 E27.45625
G1 X90.654 Y69.258 E27.48972
G1 X90.269 Y69.66 E27.52027
G1 X82.187 Y77.744 E28.1476
G1 X80.84 Y79.053 E28.25068
G1 X78.898 Y80.994 E28.40136
G1 X78.014 Y81.917 E28.4715
G1 X69.806 Y90.124 E29.10849
G1 X69.33 Y90.587 E29.14493
G1 X68.632 Y91.191 E29.19559
G1 X68.224 Y91.489 E29.22331
G1 X67.692 Y91.829 E29.25796
G1 X67.155 Y92.117 E29.2914
G1 X66.45 Y92.425 E29.33362
G1 X65.839 Y92.634 E29.36906
G1 X65.188 Y92.79 E29.4058
G1 X64.653 Y92.876 E29.43554
G1 X64.054 Y92.934 E29.46856
G1 X63.394 Y92.948 E29.50479
G1 X62.715 Y92.907 E29.54212
G1 X62.135 Y92.835 E29.5742
G1 X61.334 Y92.644 E29.61939
G1 X60.751 Y92.449 E29.65312
G1 X60.238 Y92.245 E29.68342
G1 X59.618 Y91.946 E29.7212
G1 X59.327 Y91.774 E29.73975
G1 X57.839 Y90.832 E29.8364
G1 X55.458 Y89.37 E29.98973
G1 X53.091 Y88.007 E30.13963
G1 X51.582 Y87.199 E30.23356
G1 X50.734 Y86.733 E30.28667
G1 X50.207 Y86.393 E30.32108
G1 X49.624 Y85.947 E30.36137
G1 X49.493 Y85.826 E30.37115
G1 X49.015 Y85.362 E30.40771
G1 X31.347 Y67.692 E31.77902
G1 X30.651 Y66.975 E31.83386
G1 X30.196 Y66.47 E31.87116
G1 X29.716 Y65.873 E31.9132
G1 X29.282 Y65.266 E31.95415
G1 X28.994 Y64.82 E31.98329
G1 X28.687 Y64.293 E32.01676
G1 X28.36 Y63.662 E32.05576
G1 X28.054 Y62.984 E32.09658
G1 X27.789 Y62.294 E32.13715
G1 X27.554 Y61.565 E32.17918
G1 X27.368 Y60.847 E32.21988
G1 X27.241 Y60.218 E32.2551
G1 X27.155 Y59.666 E32.28576
G1 X27.09 Y59.088 E32.31768
G1 X27.052 Y58.55 E32.34728
G1 X27.036 Y57.974 E32.3789
G1 X27.044 Y57.454 E32.40744
G1 X27.079 Y56.839 E32.44125
G1 X27.13 Y56.327 E32.46948
G1 X27.215 Y55.74 E32.50203
G1 X27.364 Y54.982 E32.54443
G1 X27.542 Y54.286 E32.58385
G1 X27.766 Y53.578 E32.62461
G1 X28.038 Y52.863 E32.66659
G1 X28.313 Y52.242 E32.70386
G1 X28.54 Y51.788 E32.73172
G1 X28.822 Y51.276 E32.76379
G1 X29.243 Y50.6 E32.8075
G1 X29.647 Y50.025 E32.84606
G1 X30.118 Y49.431 E32.88767
G1 X30.632 Y48.851 E32.9302
G1 X30.7 Y48.779 E32.93563
G1 X30.975 Y48.496 E32.95729
G0 F810 X31.346 Y48.115
G1 F1500 E27.95729
;MESH:Top.3mf
G0 F1080 X79.025 Y57.591
G0 X77.02 Y56.195
;TYPE:WALL-INNER
G1 F1500 E33.68485
G1 F900 X76.714 Y56.688 E33.7167
G1 X76.542 Y57.286 E33.75084
G1 X76.487 Y57.505 E33.76324
G1 X76.496 Y58.396 E33.81214
G1 X76.598 Y58.705 E33.82999
G1 X76.75 Y59.198 E33.85831
G1 X77.107 Y59.736 E33.89374
G1 X77.163 Y59.846 E33.90051
G1 X77.306 Y59.989 E33.91161
G1 X77.37 Y60.037 E33.916
G1 X77.5 Y60.144 E33.92524
G1 X77.861 Y60.448 E33.95114
G1 X77.996 Y60.515 E33.95941
G1 X78.222 Y60.612 E33.97291
G1 X78.647 Y60.8 E33.99841
G1 X78.719 Y60.811 E34.00241
G1 X78.745 Y60.82 E34.00392
G1 X78.785 Y60.824 E34.00613
G1 X79.037 Y60.855 E34.02006
G1 X79.527 Y60.917 E34.04717
G1 X80.302 Y60.791 E34.09026
G1 X80.479 Y60.729 E34.10055
G1 X81.147 Y60.408 E34.14122
G1 X81.769 Y59.851 E34.18704
G1 X81.796 Y59.809 E34.18978
G1 X81.818 Y59.787 E34.19149
G1 X81.959 Y59.551 E34.20658
G1 X82.209 Y59.148 E34.2326
G1 X82.274 Y58.956 E34.24373
G1 X82.456 Y58.298 E34.28119
G1 X82.456 Y58.25 E34.28383
G1 X82.461 Y58.23 E34.28496
G1 X82.454 Y57.937 E34.30104
G1 X82.446 Y57.424 E34.3292
G1 X82.34 Y57.091 E34.34838
G1 X82.197 Y56.625 E34.37513
G1 X82.161 Y56.57 E34.37874
G1 X82.151 Y56.544 E34.38027
G1 X82.004 Y56.327 E34.39465
G1 X82.107 Y56.224 E34.40264
G1 X82.098 Y56.217
G1 X81.647 Y55.836 E34.43504
G1 X81.634 Y55.822 E34.43609
G1 X81.488 Y55.704 E34.44639
G1 X81.058 Y55.342 E34.47724
G1 X81.043 Y55.333 E34.4782
G1 X80.705 Y55.19 E34.49834
G1 X80.301 Y55.013 E34.52255
G1 X80.227 Y54.999 E34.52668
G1 X80.188 Y54.986 E34.52894
G1 X80.146 Y54.982 E34.53125
G1 X79.905 Y54.953 E34.54457
G1 X79.415 Y54.891 E34.57168
G1 X78.639 Y55.017 E34.61482
G1 X78.462 Y55.079 E34.62512
G1 X77.802 Y55.397 E34.66532
G1 X77.474 Y55.687 E34.68935
G1 X77.432 Y55.725 E34.69246
G1 X77.247 Y55.816 E34.70377
G1 X77.222 Y55.858 E34.70645
G0 F810 X77.02 Y56.195
G0 F1080 X77.36 Y56.406
G1 F900 X77.083 Y56.852 E34.73527
G1 X76.928 Y57.39 E34.76599
G1 X76.887 Y57.553 E34.77522
G1 X76.894 Y58.308 E34.81665
G1 X76.896 Y58.315 E34.81705
G1 X76.896 Y58.332 E34.81798
G1 X76.98 Y58.587 E34.83272
G1 X77.115 Y59.025 E34.85787
G1 X77.456 Y59.539 E34.89172
G1 X77.491 Y59.608 E34.89597
G1 X77.569 Y59.686 E34.90202
G1 X77.617 Y59.722 E34.90531
G1 X77.758 Y59.838 E34.91533
G1 X78.082 Y60.111 E34.93859
G1 X78.164 Y60.152 E34.94362
G1 X78.384 Y60.246 E34.95675
G1 X78.761 Y60.413 E34.97937
G1 X78.812 Y60.421 E34.98221
G1 X78.833 Y60.428 E34.98342
G1 X79.088 Y60.458 E34.99751
G1 X79.52 Y60.513 E35.02141
G1 X80.203 Y60.402 E35.05939
G1 X80.326 Y60.359 E35.06654
G1 X80.919 Y60.074 E35.10264
G1 X80.933 Y60.061 E35.10369
G1 X80.937 Y60.059 E35.10394
G1 X81.462 Y59.589 E35.14261
G1 X81.484 Y59.555 E35.14483
G1 X81.5 Y59.539 E35.14607
G1 X81.619 Y59.34 E35.1588
G1 X81.845 Y58.976 E35.18231
G1 X81.892 Y58.838 E35.19031
G1 X82.056 Y58.244 E35.22413
G1 X82.056 Y58.202 E35.22643
G1 X82.06 Y58.186 E35.22734
G1 X82.054 Y57.947 E35.24046
G1 X82.047 Y57.489 E35.2656
G1 X81.959 Y57.212 E35.28155
G1 X81.831 Y56.795 E35.30549
G1 X81.826 Y56.786 E35.30605
G1 X81.804 Y56.753 E35.30823
G1 X81.796 Y56.733 E35.30941
G1 X81.667 Y56.543 E35.32201
G1 X81.49 Y56.275 E35.33964
G1 X81.504 Y56.261 E35.34072
G1 X81.516 Y56.249 E35.34166
G1 X81.371 Y56.127 E35.34804
G1 X81.359 Y56.114 E35.34901
G1 X81.236 Y56.014 E35.35644
G1 X80.848 Y55.688 E35.38425
G1 X80.836 Y55.683 E35.38497
G1 X80.828 Y55.676 E35.38555
G1 X80.549 Y55.558 E35.40218
G1 X80.184 Y55.398 E35.42405
G1 X80.128 Y55.388 E35.42717
G1 X80.099 Y55.378 E35.42885
G1 X79.855 Y55.35 E35.44233
G1 X79.422 Y55.295 E35.46628
G1 X78.738 Y55.406 E35.50431
G1 X78.615 Y55.449 E35.51146
G1 X78.026 Y55.733 E35.54735
G1 X77.658 Y56.06 E35.57436
G1 X77.529 Y56.123 E35.58224
