;FLAVOR:Marlin
;TIME:1165
;Filament used: 0.563958m
;Layer height: 0.12
;MINX:48.6
;MINY:46.1
;MINZ:0.24
;MAXX:67.4
;MAXY:89.899
;MAXZ:10.92
;Generated with Cura_SteamEngine 4.6.1
M104 S210
M105
M109 S210
M82 ;absolute extrusion mode
;Sliced at: Sun 07-06-2020 12:32:43
G21 ;metric values
G90 ;absolute positioning
M82 ;set extruder to absolute mode
M107 ;start with the fan off
G1 Z5.0 F1800 ;move Z to 5mm
G28 X0 Y0 F1800 ;move X/Y to min endstops
G28 Z0 ;move Z to min endstop
G92 E0 ;zero the extruded length
G1 F200 E6.0 ;extrude 6.0mm of feed stock to build pressure
G1 Z5.0 F300 ;move the platform down 5mm
G92 E0 ;zero the extruded length again
G1 F1800
;Put printing message on LCD screen
M117 Printing...
G92 E0
G92 E0
G1 F1500 E-3
;LAYER_COUNT:90
;LAYER:0
M106 S102
G0 F1440 X62.235 Y47.319 Z0.24
;TYPE:SKIRT
G1 F1500 E0
G1 F900 X62.865 Y47.406 E0.02773
G1 X63.2 Y47.493 E0.04282
G1 X63.528 Y47.606 E0.05795
G1 X63.879 Y47.763 E0.07471
G1 X64.169 Y47.924 E0.08918
G1 X64.471 Y48.126 E0.10502
G1 X64.736 Y48.337 E0.11979
G1 X65.01 Y48.596 E0.13623
G1 X65.228 Y48.841 E0.15053
G1 X65.581 Y49.339 E0.17714
G1 X65.763 Y49.681 E0.19403
G1 X65.932 Y50.081 E0.21297
G1 X66.062 Y50.503 E0.23222
G1 X66.135 Y50.866 E0.24836
G1 X66.178 Y51.263 E0.26578
G1 X66.192 Y52.089 E0.3018
G1 X66.2 Y83.808 E1.68481
G1 X66.191 Y84.492 E1.71464
G1 X66.166 Y84.885 E1.73181
G1 X66.118 Y85.212 E1.74622
G1 X66.022 Y85.639 E1.7653
G1 X65.895 Y86.029 E1.78318
G1 X65.627 Y86.575 E1.8097
G1 X65.373 Y86.97 E1.83018
G1 X65.092 Y87.322 E1.84982
G1 X64.695 Y87.696 E1.8736
G1 X64.376 Y87.941 E1.89114
G1 X64.02 Y88.164 E1.90945
G1 X63.744 Y88.302 E1.92291
G1 X63.125 Y88.527 E1.95163
G1 X62.73 Y88.615 E1.96927
G1 X62.033 Y88.689 E1.99983
G1 X61.311 Y88.699 E2.03132
G1 X54.312 Y88.696 E2.33649
G1 X53.771 Y88.681 E2.36008
G1 X53.143 Y88.595 E2.38772
G1 X52.8 Y88.507 E2.40316
G1 X52.472 Y88.394 E2.41829
G1 X52.123 Y88.238 E2.43496
G1 X51.827 Y88.074 E2.44971
G1 X51.515 Y87.865 E2.46608
G1 X51.255 Y87.656 E2.48063
G1 X50.989 Y87.403 E2.49664
G1 X50.772 Y87.159 E2.51087
G1 X50.411 Y86.648 E2.53815
G1 X50.231 Y86.307 E2.55497
G1 X50.066 Y85.915 E2.57351
G1 X49.935 Y85.485 E2.59311
G1 X49.862 Y85.112 E2.60968
G1 X49.821 Y84.723 E2.62674
G1 X49.808 Y83.884 E2.66332
G1 X49.8 Y52.151 E4.04695
G1 X49.809 Y51.503 E4.0752
G1 X49.834 Y51.113 E4.09224
G1 X49.884 Y50.778 E4.10701
G1 X49.988 Y50.326 E4.12723
G1 X50.123 Y49.923 E4.14577
G1 X50.373 Y49.425 E4.17006
G1 X50.627 Y49.03 E4.19054
G1 X50.908 Y48.678 E4.21018
G1 X51.31 Y48.299 E4.23427
G1 X51.626 Y48.057 E4.25162
G1 X51.98 Y47.836 E4.26982
G1 X52.256 Y47.698 E4.28327
G1 X52.875 Y47.473 E4.31199
G1 X53.267 Y47.386 E4.3295
G1 X53.939 Y47.313 E4.35897
G1 X54.704 Y47.3 E4.39233
G1 X61.57 Y47.304 E4.6917
G0 F810 X61.688 Y47.304
G0 X62.235 Y47.319
G0 F1440 X62.246 Y46.919
G1 F900 X62.622 Y46.957 E4.70818
G1 X62.934 Y47.012 E4.72199
G1 X63.33 Y47.115 E4.73983
G1 X63.658 Y47.228 E4.75496
G1 X64.073 Y47.413 E4.77477
G1 X64.363 Y47.574 E4.78923
G1 X64.721 Y47.813 E4.808
G1 X64.986 Y48.024 E4.82277
G1 X65.308 Y48.33 E4.84214
G1 X65.526 Y48.575 E4.85644
G1 X65.916 Y49.121 E4.8857
G1 X66.131 Y49.525 E4.90565
G1 X66.3 Y49.925 E4.92458
G1 X66.454 Y50.424 E4.94735
G1 X66.527 Y50.787 E4.9635
G1 X66.578 Y51.256 E4.98407
G1 X66.592 Y52.082 E5.02009
G1 X66.6 Y83.808 E6.40341
G1 X66.591 Y84.498 E6.43349
G1 X66.565 Y84.914 E6.45167
G1 X66.509 Y85.299 E6.46863
G1 X66.413 Y85.726 E6.48771
G1 X66.263 Y86.188 E6.50889
G1 X66.164 Y86.417 E6.51977
G1 X65.964 Y86.791 E6.53826
G1 X65.71 Y87.186 E6.55874
G1 X65.378 Y87.602 E6.58195
G1 X64.939 Y88.013 E6.60817
G1 X64.62 Y88.258 E6.62571
G1 X64.199 Y88.522 E6.64737
G1 X63.923 Y88.66 E6.66083
G1 X63.553 Y88.81 E6.67824
G1 X63.247 Y88.908 E6.69225
G1 X62.78 Y89.011 E6.7131
G1 X62.039 Y89.089 E6.74558
G1 X61.317 Y89.099 E6.77707
G1 X54.312 Y89.096 E7.0825
G1 X53.76 Y89.081 E7.10658
G1 X53.075 Y88.989 E7.13671
G1 X52.67 Y88.885 E7.15495
G1 X52.342 Y88.772 E7.17007
G1 X51.929 Y88.588 E7.18979
G1 X51.633 Y88.424 E7.20454
G1 X51.264 Y88.176 E7.22393
G1 X51.004 Y87.967 E7.23847
G1 X50.69 Y87.669 E7.25735
G1 X50.473 Y87.425 E7.27158
G1 X50.232 Y87.108 E7.28895
G1 X50.075 Y86.865 E7.30156
G1 X49.863 Y86.463 E7.32138
G1 X49.698 Y86.071 E7.33992
G1 X49.542 Y85.561 E7.36317
G1 X49.469 Y85.188 E7.37975
G1 X49.421 Y84.729 E7.39987
G1 X49.408 Y83.89 E7.43646
G1 X49.4 Y52.151 E8.82034
G1 X49.409 Y51.497 E8.84886
G1 X49.435 Y51.084 E8.8669
G1 X49.494 Y50.688 E8.88436
G1 X49.598 Y50.236 E8.90458
G1 X49.758 Y49.76 E8.92648
G1 X50.036 Y49.209 E8.95339
G1 X50.29 Y48.814 E8.97386
G1 X50.623 Y48.398 E8.9971
G1 X51.067 Y47.982 E9.02363
G1 X51.383 Y47.74 E9.04098
G1 X51.801 Y47.478 E9.06249
G1 X52.077 Y47.34 E9.07595
G1 X52.447 Y47.19 E9.09335
G1 X52.753 Y47.092 E9.10736
G1 X53.216 Y46.989 E9.12804
G1 X53.932 Y46.913 E9.15944
G1 X54.697 Y46.9 E9.1928
G1 X61.581 Y46.904 E9.49296
G0 F810 X61.688 Y46.904
G0 X62.246 Y46.919
G0 F1440 X62.258 Y46.519
G1 F900 X62.692 Y46.564 E9.51198
G1 X63.004 Y46.619 E9.52579
G1 X63.46 Y46.737 E9.54633
G1 X63.788 Y46.85 E9.56146
G1 X64.267 Y47.063 E9.58431
G1 X64.557 Y47.224 E9.59878
G1 X64.97 Y47.5 E9.62044
G1 X65.235 Y47.711 E9.63521
G1 X65.607 Y48.064 E9.65757
G1 X65.825 Y48.309 E9.67187
G1 X66.1 Y48.669 E9.69162
G1 X66.252 Y48.903 E9.70378
G1 X66.499 Y49.369 E9.72678
G1 X66.668 Y49.769 E9.74571
G1 X66.846 Y50.346 E9.77204
G1 X66.919 Y50.709 E9.78819
G1 X66.978 Y51.249 E9.81187
G1 X66.992 Y52.075 E9.84789
G1 X67 Y83.808 E11.23152
G1 X66.991 Y84.503 E11.26182
G1 X66.964 Y84.942 E11.281
G1 X66.899 Y85.387 E11.30061
G1 X66.803 Y85.814 E11.31969
G1 X66.63 Y86.346 E11.34408
G1 X66.531 Y86.575 E11.35496
G1 X66.3 Y87.008 E11.37636
G1 X66.046 Y87.403 E11.39684
G1 X65.663 Y87.882 E11.42358
G1 X65.182 Y88.33 E11.45224
G1 X64.863 Y88.575 E11.46977
G1 X64.378 Y88.879 E11.49473
G1 X64.102 Y89.017 E11.50819
G1 X63.675 Y89.191 E11.52829
G1 X63.369 Y89.289 E11.5423
G1 X62.83 Y89.408 E11.56637
G1 X62.045 Y89.489 E11.60078
G1 X61.323 Y89.499 E11.63226
G1 X54.312 Y89.496 E11.93796
G1 X53.748 Y89.481 E11.96256
G1 X53.326 Y89.438 E11.98105
G1 X53.007 Y89.383 E11.99516
G1 X52.54 Y89.263 E12.01619
G1 X52.212 Y89.15 E12.03131
G1 X51.735 Y88.938 E12.05407
G1 X51.439 Y88.774 E12.06883
G1 X51.013 Y88.488 E12.0912
G1 X50.753 Y88.279 E12.10575
G1 X50.391 Y87.935 E12.12752
G1 X50.174 Y87.691 E12.14176
G1 X49.896 Y87.325 E12.1618
G1 X49.739 Y87.082 E12.17441
G1 X49.494 Y86.618 E12.19729
G1 X49.329 Y86.226 E12.21584
G1 X49.15 Y85.638 E12.24263
G1 X49.077 Y85.265 E12.25921
G1 X49.021 Y84.735 E12.28244
G1 X49.008 Y83.896 E12.31903
G1 X49 Y52.151 E13.70318
G1 X49.009 Y51.491 E13.73196
G1 X49.036 Y51.056 E13.75096
G1 X49.104 Y50.598 E13.77115
G1 X49.208 Y50.146 E13.79137
G1 X49.392 Y49.597 E13.81662
G1 X49.7 Y48.992 E13.84622
G1 X49.954 Y48.597 E13.8667
G1 X50.337 Y48.117 E13.89347
G1 X50.824 Y47.664 E13.92247
G1 X51.14 Y47.422 E13.93983
G1 X51.622 Y47.121 E13.9646
G1 X51.898 Y46.983 E13.97806
G1 X52.325 Y46.809 E13.99816
G1 X52.631 Y46.711 E14.01217
G1 X53.165 Y46.592 E14.03603
G1 X53.925 Y46.513 E14.06934
G1 X54.69 Y46.5 E14.1027
G1 X61.593 Y46.504 E14.40369
G0 F810 X61.689 Y46.504
G0 X62.258 Y46.519
G0 F1440 X62.269 Y46.119
G1 F900 X62.761 Y46.17 E14.42525
G1 X63.073 Y46.225 E14.43907
G1 X63.59 Y46.358 E14.46234
G1 X63.918 Y46.471 E14.47747
G1 X64.461 Y46.713 E14.50339
G1 X64.751 Y46.874 E14.51785
G1 X65.219 Y47.187 E14.5424
G1 X65.484 Y47.398 E14.55717
G1 X65.906 Y47.798 E14.58253
G1 X66.124 Y48.043 E14.59682
G1 X66.435 Y48.451 E14.61919
G1 X66.587 Y48.685 E14.63136
G1 X66.868 Y49.214 E14.65748
G1 X67.037 Y49.614 E14.67641
G1 X67.238 Y50.267 E14.7062
G1 X67.311 Y50.63 E14.72235
G1 X67.378 Y51.242 E14.74919
G1 X67.392 Y52.068 E14.78521
G1 X67.4 Y83.808 E16.16914
G1 X67.391 Y84.509 E16.19971
G1 X67.363 Y84.97 E16.21984
G1 X67.289 Y85.475 E16.2421
G1 X67.193 Y85.902 E16.26118
G1 X66.997 Y86.505 E16.28883
G1 X66.898 Y86.734 E16.2997
G1 X66.637 Y87.224 E16.32391
G1 X66.383 Y87.619 E16.34439
G1 X65.948 Y88.163 E16.37476
G1 X65.426 Y88.647 E16.4058
G1 X65.107 Y88.892 E16.42333
G1 X64.557 Y89.237 E16.45164
G1 X64.281 Y89.375 E16.4651
G1 X63.797 Y89.572 E16.48788
G1 X63.491 Y89.67 E16.50189
G1 X62.88 Y89.805 E16.52917
G1 X62.05 Y89.889 E16.56555
G1 X61.328 Y89.899 E16.59703
G1 X54.312 Y89.896 E16.90294
G1 X53.736 Y89.881 E16.92807
G1 X53.258 Y89.833 E16.94901
G1 X52.939 Y89.778 E16.96313
G1 X52.41 Y89.642 E16.98694
G1 X52.082 Y89.529 E17.00207
G1 X51.541 Y89.288 E17.02789
G1 X51.245 Y89.124 E17.04265
G1 X50.763 Y88.8 E17.06797
G1 X50.503 Y88.591 E17.08252
G1 X50.092 Y88.2 E17.10725
G1 X49.875 Y87.956 E17.12149
G1 X49.56 Y87.542 E17.14417
G1 X49.403 Y87.299 E17.15679
G1 X49.125 Y86.773 E17.18273
G1 X48.96 Y86.381 E17.20127
G1 X48.757 Y85.715 E17.23163
G1 X48.684 Y85.342 E17.2482
G1 X48.621 Y84.742 E17.27451
G1 X48.608 Y83.903 E17.31109
G1 X48.6 Y52.151 E18.69554
G1 X48.609 Y51.485 E18.72459
G1 X48.637 Y51.027 E18.74459
G1 X48.715 Y50.509 E18.76743
G1 X48.819 Y50.057 E18.78766
G1 X49.027 Y49.434 E18.81629
G1 X49.363 Y48.776 E18.84851
G1 X49.617 Y48.381 E18.86898
G1 X50.052 Y47.837 E18.89935
G1 X50.581 Y47.347 E18.93079
G1 X50.897 Y47.105 E18.94815
G1 X51.443 Y46.763 E18.97624
G1 X51.719 Y46.625 E18.9897
G1 X52.203 Y46.428 E19.01248
G1 X52.509 Y46.33 E19.02649
G1 X53.115 Y46.195 E19.05356
G1 X53.918 Y46.113 E19.08875
G1 X54.683 Y46.1 E19.12211
G1 X61.604 Y46.104 E19.42388
G0 F810 X61.689 Y46.104
G0 X62.269 Y46.119
G1 F1500 E16.42388
;MESH:PropStop5mm.stl
G0 F1440 X62.138 Y48.842
G0 X62.118 Y50.126
G0 X61.231 Y68.625
G0 X60.79 Y70.942
;TYPE:WALL-INNER
G1 F1500 E19.42388
G1 F900 X61.212 Y70.474 E19.45136
G1 X61.555 Y69.949 E19.4787
G1 X61.812 Y69.376 E19.50609
G1 X61.98 Y68.77 E19.53351
G1 X62.051 Y68.146 E19.56089
G1 X62.024 Y67.518 E19.5883
G1 X61.902 Y66.904 E19.61559
G1 X61.686 Y66.312 E19.64307
G1 X61.382 Y65.765 E19.67035
G1 X60.996 Y65.269 E19.69776
G1 X60.538 Y64.838 E19.72518
G1 X60.016 Y64.484 E19.75268
G1 X59.989 Y64.472 E19.75397
G1 X59.449 Y64.214 E19.78006
G1 X58.848 Y64.037 E19.80738
G1 X58.227 Y63.951 E19.83472
G1 X57.595 Y63.966 E19.86228
G1 X56.978 Y64.078 E19.88962
G1 X56.384 Y64.282 E19.91701
G1 X55.829 Y64.576 E19.94439
G1 X55.329 Y64.951 E19.97164
G1 X54.888 Y65.402 E19.99915
G1 X54.524 Y65.916 E20.02661
G1 X54.243 Y66.476 E20.05393
G1 X54.052 Y67.077 E20.08142
G1 X53.962 Y67.669 E20.10753
G1 X53.947 Y68.035 E20.1235
G1 X53.997 Y68.637 E20.14984
G1 X54.142 Y69.249 E20.17727
G1 X54.382 Y69.828 E20.20459
G1 X54.707 Y70.365 E20.23196
G1 X55.112 Y70.848 E20.25945
G1 X55.59 Y71.259 E20.28693
G1 X56.12 Y71.591 E20.3142
G1 X56.697 Y71.839 E20.34159
G1 X57.306 Y71.994 E20.36899
G1 X57.336 Y71.996 E20.3703
G1 X57.9 Y72.05 E20.395
G1 X57.932 Y72.054 E20.39641
G1 X58.562 Y72.015 E20.42393
G1 X59.172 Y71.881 E20.45116
G1 X59.758 Y71.652 E20.47859
G1 X60.269 Y71.354 E20.50438
G0 F810 X60.3 Y71.336
G0 X60.79 Y70.942
G0 F1440 X60.514 Y70.651
G1 F900 X60.894 Y70.229 E20.52915
G1 X61.203 Y69.756 E20.55378
G1 X61.435 Y69.24 E20.57845
G1 X61.586 Y68.694 E20.60315
G1 X61.65 Y68.132 E20.62781
G1 X61.626 Y67.566 E20.65251
G1 X61.516 Y67.012 E20.67714
G1 X61.321 Y66.479 E20.70189
G1 X61.047 Y65.986 E20.72648
G1 X60.699 Y65.539 E20.75118
G1 X60.287 Y65.151 E20.77585
G1 X59.817 Y64.832 E20.80062
G1 X59.79 Y64.82 E20.80191
G1 X59.306 Y64.589 E20.82529
G1 X58.764 Y64.429 E20.84993
G1 X58.204 Y64.352 E20.87458
G1 X57.636 Y64.365 E20.89935
G1 X57.079 Y64.466 E20.92404
G1 X56.544 Y64.65 E20.9487
G1 X56.044 Y64.915 E20.97338
G1 X55.593 Y65.253 E20.99795
G1 X55.196 Y65.659 E21.02271
G1 X54.868 Y66.122 E21.04745
G1 X54.615 Y66.627 E21.07208
G1 X54.443 Y67.168 E21.09683
G1 X54.361 Y67.707 E21.1206
G1 X54.348 Y68.027 E21.13457
G1 X54.393 Y68.574 E21.1585
G1 X54.524 Y69.125 E21.18319
G1 X54.74 Y69.647 E21.20782
G1 X55.033 Y70.131 E21.23249
G1 X55.398 Y70.566 E21.25725
G1 X55.828 Y70.936 E21.28199
G1 X56.306 Y71.236 E21.30659
G1 X56.826 Y71.459 E21.33126
G1 X57.375 Y71.599 E21.35597
G1 X57.405 Y71.601 E21.35728
G1 X57.907 Y71.649 E21.37927
G1 X57.939 Y71.653 E21.38067
G1 X58.506 Y71.618 E21.40544
G1 X59.056 Y71.497 E21.43
G1 X59.584 Y71.291 E21.45471
G1 X59.988 Y71.055 E21.47511
G0 F810 X60.073 Y71.006
G0 X60.514 Y70.651
G0 F1440 X60.238 Y70.36
G1 F900 X60.576 Y69.984 E21.49715
G1 X60.851 Y69.563 E21.51908
G1 X61.058 Y69.104 E21.54103
G1 X61.192 Y68.618 E21.56301
G1 X61.249 Y68.118 E21.58496
G1 X61.228 Y67.614 E21.60695
G1 X61.13 Y67.12 E21.62891
G1 X60.956 Y66.646 E21.65093
G1 X60.712 Y66.207 E21.67283
G1 X60.402 Y65.809 E21.69482
G1 X60.036 Y65.464 E21.71675
G1 X59.618 Y65.18 E21.73879
G1 X59.163 Y64.964 E21.76075
G1 X58.68 Y64.821 E21.78271
G1 X58.181 Y64.753 E21.80467
G1 X57.676 Y64.764 E21.82669
G1 X57.18 Y64.854 E21.84867
G1 X56.704 Y65.018 E21.87063
G1 X56.259 Y65.254 E21.89259
G1 X55.857 Y65.555 E21.91449
G1 X55.504 Y65.916 E21.9365
G1 X55.212 Y66.328 E21.95852
G1 X54.987 Y66.778 E21.98046
G1 X54.834 Y67.259 E22.00246
G1 X54.76 Y67.745 E22.0239
G1 X54.749 Y68.019 E22.03585
G1 X54.789 Y68.511 E22.05738
G1 X54.906 Y69.001 E22.07934
G1 X55.098 Y69.466 E22.10128
G1 X55.359 Y69.897 E22.12325
G1 X55.684 Y70.284 E22.14528
G1 X56.066 Y70.613 E22.16727
G1 X56.492 Y70.881 E22.18921
G1 X56.955 Y71.079 E22.21117
G1 X57.444 Y71.204 E22.23317
G1 X57.946 Y71.252 E22.25516
G1 X58.45 Y71.221 E22.27718
G1 X58.94 Y71.113 E22.29906
G1 X59.41 Y70.93 E22.32105
G1 X59.706 Y70.757 E22.336
G0 F810 X59.846 Y70.676
G0 X60.238 Y70.36
G0 F1440 X59.962 Y70.069
;TYPE:WALL-OUTER
G1 F900 X60.258 Y69.74 E22.35529
G1 X60.499 Y69.37 E22.37455
G1 X60.681 Y68.968 E22.39379
G1 X60.798 Y68.542 E22.41305
G1 X60.848 Y68.103 E22.43231
G1 X60.83 Y67.661 E22.4516
G1 X60.744 Y67.229 E22.47081
G1 X60.591 Y66.813 E22.49013
G1 X60.377 Y66.428 E22.50934
G1 X60.105 Y66.079 E22.52863
G1 X59.785 Y65.777 E22.54782
G1 X59.419 Y65.528 E22.56712
G1 X59.02 Y65.339 E22.58637
G1 X58.596 Y65.213 E22.60566
G1 X58.158 Y65.154 E22.62493
G1 X57.716 Y65.163 E22.6442
G1 X57.282 Y65.242 E22.66344
G1 X56.864 Y65.386 E22.68271
G1 X56.474 Y65.593 E22.70196
G1 X56.121 Y65.857 E22.72118
G1 X55.812 Y66.173 E22.74045
G1 X55.556 Y66.534 E22.75975
G1 X55.359 Y66.929 E22.779
G1 X55.225 Y67.35 E22.79826
G1 X55.159 Y67.783 E22.81736
G1 X55.15 Y68.011 E22.82731
G1 X55.185 Y68.448 E22.84642
G1 X55.288 Y68.877 E22.86566
G1 X55.456 Y69.285 E22.8849
G1 X55.685 Y69.663 E22.90417
G1 X55.97 Y70.002 E22.92348
G1 X56.305 Y70.291 E22.94277
G1 X56.678 Y70.526 E22.96199
G1 X57.084 Y70.699 E22.98123
G1 X57.513 Y70.809 E23.00055
G1 X57.953 Y70.851 E23.01982
G1 X58.394 Y70.824 E23.03908
G1 X58.824 Y70.729 E23.05828
G1 X59.236 Y70.569 E23.07755
G1 X59.425 Y70.459 E23.08709
G0 F810 X59.618 Y70.346
G0 X59.962 Y70.069
G0 F1440 X60.095 Y69.921
G0 X60.422 Y70.215
G0 X60.466 Y70.255
G0 X61.095 Y69.117
G0 X62.158 Y50.926
;TYPE:WALL-INNER
G1 F900 X62.248 Y50.958 E23.09125
G1 X62.338 Y51.011 E23.09581
G1 X62.431 Y51.089 E23.1011
G1 X62.486 Y51.155 E23.10485
G1 X62.54 Y51.25 E23.10961
G1 X62.574 Y51.341 E23.11385
G1 X62.592 Y51.446 E23.11849
G1 X62.6 Y84.433 E24.55679
G1 X62.585 Y84.61 E24.56454
G1 X62.562 Y84.696 E24.56842
G1 X62.513 Y84.799 E24.57339
G1 X62.452 Y84.886 E24.57802
G1 X62.386 Y84.952 E24.58209
G1 X62.293 Y85.017 E24.58704
G1 X62.202 Y85.059 E24.59141
G1 X62.108 Y85.085 E24.59566
G1 X61.939 Y85.099 E24.60306
G1 X54.344 Y85.1 E24.93422
G1 X53.955 Y85.093 E24.95118
G1 X53.842 Y85.074 E24.95618
G1 X53.752 Y85.042 E24.96034
G1 X53.662 Y84.989 E24.96489
G1 X53.569 Y84.911 E24.97019
G1 X53.514 Y84.845 E24.97393
G1 X53.46 Y84.75 E24.9787
G1 X53.426 Y84.659 E24.98293
G1 X53.408 Y84.554 E24.98758
G1 X53.4 Y51.567 E26.42588
G1 X53.415 Y51.39 E26.43362
G1 X53.438 Y51.304 E26.4375
G1 X53.487 Y51.201 E26.44248
G1 X53.548 Y51.114 E26.44711
G1 X53.614 Y51.048 E26.45118
G1 X53.707 Y50.983 E26.45613
G1 X53.799 Y50.94 E26.46056
G1 X53.891 Y50.915 E26.46471
G1 X54.071 Y50.9 E26.47259
G1 X61.494 Y50.9 E26.79625
G0 F810 X61.656 Y50.9
G0 X62.045 Y50.907
G0 X62.158 Y50.926
G0 F1440 X62.261 Y50.538
G1 F900 X62.419 Y50.595 E26.80357
G1 X62.57 Y50.683 E26.81119
G1 X62.711 Y50.802 E26.81923
G1 X62.735 Y50.831 E26.82088
