;FLAVOR:Marlin
;TIME:10154
;Filament used: 7.35471m
;Layer height: 0.12
;MINX:32.6
;MINY:15.1
;MINZ:0.24
;MAXX:87.4
;MAXY:76.9
;MAXZ:20.47
;Generated with Cura_SteamEngine 4.8.0
M104 S210
M105
M109 S210
M82 ;absolute extrusion mode
;Sliced at: Tue 16-02-2021 22:12:59
G21 ;metric values
G90 ;absolute positioning
M82 ;set extruder to absolute mode
M107 ;start with the fan off
G1 Z5.0 F1800 ;move Z to 5mm
G28 X0 Y0 F1800 ;move X/Y to min endstops
G28 Z0 ;move Z to min endstop
G92 E0 ;zero the extruded length
G1 F200 E6.0 ;extrude 6.0mm of feed stock to build pressure
G1 Z5.0 F300 ;move the platform down 5mm
G92 E0 ;zero the extruded length again
G1 F1800
;Put printing message on LCD screen
M117 Printing...
G92 E0
G92 E0
G1 F1500 E-0.6
;LAYER_COUNT:109
;LAYER:0
M106 S102
G0 F2057.1 X33.654 Y18.722 Z0.24
;TYPE:SKIRT
G1 F1500 E0.73595
G1 F1200 X33.803 Y18.503 E0.74558
G1 X34.257 Y17.892 E0.77324
G1 X34.497 Y17.588 E0.78731
G1 X34.851 Y17.205 E0.80626
G1 X35.05 Y17.034 E0.81579
G1 X35.553 Y16.634 E0.83914
G1 X35.956 Y16.332 E0.85744
G1 X36.629 Y15.942 E0.8857
G1 X37.236 Y15.678 E0.90976
G1 X37.679 Y15.5 E0.9271
G1 X38.176 Y15.344 E0.94603
G1 X38.435 Y15.295 E0.95561
G1 X39.231 Y15.177 E0.98485
G1 X39.909 Y15.111 E1.0096
G1 X40.267 Y15.101 E1.02261
G1 X57.933 Y15.1 E1.66451
G1 X58.358 Y15.106 E1.67995
G1 X61.093 Y15.106 E1.77933
G1 X61.7 Y15.1 E1.80138
G1 X79.342 Y15.1 E2.4424
G1 X80.04 Y15.11 E2.46777
G1 X80.597 Y15.152 E2.48806
G1 X80.873 Y15.186 E2.49817
G1 X81.5 Y15.279 E2.5212
G1 X82.24 Y15.476 E2.54902
G1 X82.975 Y15.765 E2.57772
G1 X83.317 Y15.912 E2.59125
G1 X83.778 Y16.154 E2.61017
G1 X83.997 Y16.303 E2.61979
G1 X84.608 Y16.757 E2.64745
G1 X84.912 Y16.997 E2.66152
G1 X85.295 Y17.351 E2.68047
G1 X85.466 Y17.55 E2.69
G1 X85.866 Y18.053 E2.71336
G1 X86.168 Y18.456 E2.73165
G1 X86.559 Y19.13 E2.75997
G1 X86.861 Y19.828 E2.7876
G1 X87.002 Y20.182 E2.80145
G1 X87.205 Y20.935 E2.82978
G1 X87.323 Y21.73 E2.85899
G1 X87.39 Y22.421 E2.88421
G1 X87.4 Y22.832 E2.89915
G1 X87.4 Y40.843 E3.55358
G1 X87.39 Y41.529 E3.57851
G1 X87.303 Y44.516 E3.68709
G1 X87.303 Y47.224 E3.78548
G1 X87.353 Y49.009 E3.85036
G1 X87.348 Y49.114 E3.85418
G1 X87.399 Y50.767 E3.91427
G1 X87.4 Y68.842 E4.57103
G1 X87.39 Y69.539 E4.59636
G1 X87.348 Y70.096 E4.61665
G1 X87.316 Y70.357 E4.62621
G1 X87.223 Y70.992 E4.64953
G1 X87.025 Y71.739 E4.67761
G1 X86.735 Y72.475 E4.70635
G1 X86.588 Y72.817 E4.71988
G1 X86.346 Y73.278 E4.73879
G1 X86.197 Y73.497 E4.74842
G1 X85.743 Y74.108 E4.77608
G1 X85.503 Y74.412 E4.79015
G1 X85.149 Y74.795 E4.8091
G1 X84.949 Y74.967 E4.81869
G1 X84.365 Y75.429 E4.84574
G1 X84.047 Y75.666 E4.86015
G1 X83.606 Y75.945 E4.87911
G1 X83.371 Y76.058 E4.88859
G1 X82.764 Y76.322 E4.91264
G1 X82.321 Y76.5 E4.92999
G1 X81.824 Y76.656 E4.94891
G1 X81.565 Y76.705 E4.95849
G1 X80.769 Y76.823 E4.98773
G1 X80.091 Y76.889 E5.01248
G1 X79.733 Y76.899 E5.0255
G1 X62.085 Y76.9 E5.66674
G1 X61.668 Y76.894 E5.68189
G1 X59.131 Y76.894 E5.77407
G1 X58.316 Y76.9 E5.80369
G1 X40.658 Y76.9 E6.44529
G1 X39.96 Y76.89 E6.47065
G1 X39.403 Y76.848 E6.49095
G1 X39.127 Y76.814 E6.50105
G1 X38.5 Y76.721 E6.52408
G1 X37.76 Y76.524 E6.55191
G1 X37.025 Y76.235 E6.58061
G1 X36.683 Y76.088 E6.59413
G1 X36.222 Y75.846 E6.61305
G1 X36.003 Y75.697 E6.62267
G1 X35.392 Y75.243 E6.65033
G1 X35.088 Y75.003 E6.66441
G1 X34.705 Y74.649 E6.68336
G1 X34.534 Y74.45 E6.69289
G1 X34.134 Y73.947 E6.71624
G1 X33.832 Y73.544 E6.73454
G1 X33.554 Y73.104 E6.75345
G1 X33.44 Y72.868 E6.76297
G1 X33.177 Y72.262 E6.78698
G1 X33 Y71.821 E6.80424
G1 X32.844 Y71.324 E6.82317
G1 X32.795 Y71.065 E6.83275
G1 X32.677 Y70.269 E6.86199
G1 X32.611 Y69.584 E6.88699
G1 X32.601 Y69.218 E6.90029
G1 X32.6 Y51.157 E7.55654
G1 X32.61 Y50.471 E7.58147
G1 X32.697 Y47.484 E7.69005
G1 X32.697 Y44.776 E7.78844
G1 X32.647 Y42.991 E7.85333
G1 X32.652 Y42.886 E7.85715
G1 X32.601 Y41.233 E7.91724
G1 X32.6 Y23.158 E8.57399
G1 X32.61 Y22.461 E8.59932
G1 X32.652 Y21.904 E8.61962
G1 X32.684 Y21.636 E8.62942
G1 X32.775 Y21.011 E8.65237
G1 X32.89 Y20.503 E8.6713
G1 X32.976 Y20.256 E8.6808
G1 X33.265 Y19.525 E8.70936
G1 X33.355 Y19.316 E8.71763
G0 F1080 X33.412 Y19.183
G0 X33.654 Y18.722
G0 F2057.1 X34.125 Y18.741
G1 F1200 X34.571 Y18.14 E8.74482
G1 X34.811 Y17.836 E8.7589
G1 X35.299 Y17.347 E8.784
G1 X35.802 Y16.947 E8.80735
G1 X36.195 Y16.653 E8.82518
G1 X36.788 Y16.309 E8.85009
G1 X37.479 Y16.01 E8.87745
G1 X37.827 Y15.871 E8.89107
G1 X38.494 Y15.69 E8.91618
G1 X39.173 Y15.588 E8.94113
G1 X39.676 Y15.529 E8.95953
G1 X40.267 Y15.501 E8.98103
G1 X57.927 Y15.5 E9.6227
G1 X58.352 Y15.506 E9.63815
G1 X61.103 Y15.506 E9.7381
G1 X61.703 Y15.5 E9.75991
G1 X79.336 Y15.5 E10.4006
G1 X80.034 Y15.51 E10.42597
G1 X80.559 Y15.55 E10.4451
G1 X80.814 Y15.581 E10.45443
G1 X81.441 Y15.674 E10.47746
G1 X82.095 Y15.848 E10.50205
G1 X82.726 Y16.095 E10.52667
G1 X83.159 Y16.28 E10.54378
G1 X83.759 Y16.625 E10.56893
G1 X84.36 Y17.071 E10.59612
G1 X84.664 Y17.311 E10.6102
G1 X85.153 Y17.799 E10.6353
G1 X85.553 Y18.302 E10.65865
G1 X85.847 Y18.695 E10.67648
G1 X86.192 Y19.289 E10.70144
G1 X86.453 Y19.889 E10.72522
G1 X86.63 Y20.33 E10.74248
G1 X86.81 Y20.994 E10.76748
G1 X86.912 Y21.673 E10.79243
G1 X86.971 Y22.174 E10.81076
G1 X86.999 Y22.746 E10.83157
G1 X87 Y40.837 E11.4889
G1 X86.988 Y41.601 E11.51667
G1 X86.982 Y41.749 E11.52205
G1 X86.903 Y44.505 E11.62223
G1 X86.903 Y47.235 E11.72142
G1 X86.953 Y49.02 E11.78631
G1 X86.948 Y49.121 E11.78998
G1 X86.999 Y50.767 E11.84982
G1 X87 Y68.836 E12.50635
G1 X86.99 Y69.533 E12.53168
G1 X86.95 Y70.058 E12.55081
G1 X86.92 Y70.299 E12.55964
G1 X86.827 Y70.934 E12.58296
G1 X86.652 Y71.593 E12.60773
G1 X86.367 Y72.317 E12.636
G1 X86.22 Y72.659 E12.64953
G1 X85.875 Y73.259 E12.67468
G1 X85.429 Y73.86 E12.70187
G1 X85.189 Y74.164 E12.71594
G1 X84.7 Y74.654 E12.7411
G1 X84.126 Y75.108 E12.76769
G1 X83.808 Y75.345 E12.7821
G1 X83.212 Y75.691 E12.80714
G1 X82.521 Y75.99 E12.8345
G1 X82.173 Y76.129 E12.84811
G1 X81.506 Y76.31 E12.87322
G1 X80.827 Y76.412 E12.89817
G1 X80.324 Y76.471 E12.91657
G1 X79.733 Y76.499 E12.93807
G1 X62.091 Y76.5 E13.5791
G1 X61.674 Y76.494 E13.59425
G1 X59.129 Y76.494 E13.68672
G1 X58.313 Y76.5 E13.71637
G1 X40.664 Y76.5 E14.35765
G1 X39.966 Y76.49 E14.38301
G1 X39.441 Y76.45 E14.40214
G1 X39.186 Y76.419 E14.41148
G1 X38.559 Y76.326 E14.43451
G1 X37.905 Y76.152 E14.4591
G1 X37.274 Y75.905 E14.48372
G1 X36.841 Y75.72 E14.50083
G1 X36.241 Y75.375 E14.52598
G1 X35.64 Y74.929 E14.55317
G1 X35.336 Y74.689 E14.56724
G1 X34.847 Y74.201 E14.59235
G1 X34.447 Y73.698 E14.6157
G1 X34.153 Y73.305 E14.63353
G1 X33.807 Y72.708 E14.6586
G1 X33.51 Y72.021 E14.6858
G1 X33.371 Y71.673 E14.69941
G1 X33.19 Y71.006 E14.72452
G1 X33.088 Y70.327 E14.74947
G1 X33.029 Y69.824 E14.76787
G1 X33.002 Y69.309 E14.78661
G1 X33 Y51.163 E15.44595
G1 X33.012 Y50.399 E15.47371
G1 X33.018 Y50.251 E15.47909
G1 X33.097 Y47.495 E15.57927
G1 X33.097 Y44.765 E15.67847
G1 X33.047 Y42.98 E15.74335
G1 X33.052 Y42.879 E15.74703
G1 X33.001 Y41.233 E15.80686
G1 X33 Y23.164 E16.4634
G1 X33.01 Y22.467 E16.48873
G1 X33.05 Y21.942 E16.50786
G1 X33.08 Y21.694 E16.51694
G1 X33.171 Y21.069 E16.53988
G1 X33.348 Y20.403 E16.56492
G1 X33.597 Y19.77 E16.58964
G1 X33.78 Y19.341 E16.60659
G1 X33.794 Y19.317 E16.6076
G0 F1080 X34.125 Y18.741
G0 F2057.1 X34.446 Y18.979
G1 F1200 X34.885 Y18.388 E16.63435
G1 X35.125 Y18.084 E16.64842
G1 X35.548 Y17.66 E16.67018
G1 X36.117 Y17.209 E16.69656
G1 X36.433 Y16.974 E16.71087
G1 X36.948 Y16.676 E16.73249
G1 X37.628 Y16.381 E16.75942
G1 X37.976 Y16.242 E16.77304
G1 X38.554 Y16.086 E16.79479
G1 X39.322 Y15.972 E16.823
G1 X39.935 Y15.91 E16.84539
G1 X40.267 Y15.901 E16.85746
G1 X57.922 Y15.9 E17.49895
G1 X58.347 Y15.906 E17.5144
G1 X61.113 Y15.906 E17.6149
G1 X61.705 Y15.9 E17.63641
G1 X79.33 Y15.9 E18.27681
G1 X80.028 Y15.91 E18.30218
G1 X80.588 Y15.956 E18.3226
G1 X80.755 Y15.977 E18.32871
G1 X81.382 Y16.07 E18.35174
G1 X81.949 Y16.221 E18.37306
G1 X82.659 Y16.5 E18.40078
G1 X83.001 Y16.647 E18.41431
G1 X83.521 Y16.946 E18.4361
G1 X84.112 Y17.385 E18.46285
G1 X84.416 Y17.625 E18.47692
G1 X84.84 Y18.048 E18.49869
G1 X85.291 Y18.616 E18.52504
G1 X85.527 Y18.933 E18.5394
G1 X85.825 Y19.449 E18.56105
G1 X86.117 Y20.124 E18.58777
G1 X86.258 Y20.478 E18.60162
G1 X86.414 Y21.054 E18.6233
G1 X86.528 Y21.821 E18.65148
G1 X86.59 Y22.444 E18.67422
G1 X86.6 Y22.832 E18.68833
G1 X86.6 Y40.831 E19.34232
G1 X86.588 Y41.584 E19.36969
G1 X86.582 Y41.732 E19.37507
G1 X86.503 Y44.493 E19.47543
G1 X86.503 Y47.246 E19.57546
G1 X86.553 Y49.031 E19.64034
G1 X86.548 Y49.115 E19.6434
G1 X86.598 Y50.684 E19.70044
G1 X86.6 Y68.83 E20.35977
G1 X86.59 Y69.527 E20.3851
G1 X86.543 Y70.094 E20.40578
G1 X86.525 Y70.241 E20.41116
G1 X86.432 Y70.876 E20.43448
G1 X86.28 Y71.447 E20.45594
G1 X86 Y72.159 E20.48374
G1 X85.853 Y72.501 E20.49727
G1 X85.554 Y73.021 E20.51906
G1 X85.115 Y73.612 E20.54581
G1 X84.875 Y73.916 E20.55989
G1 X84.451 Y74.341 E20.5817
G1 X83.887 Y74.788 E20.60785
G1 X83.569 Y75.025 E20.62226
G1 X83.052 Y75.324 E20.64396
G1 X82.372 Y75.619 E20.67089
G1 X82.024 Y75.758 E20.68451
G1 X81.446 Y75.914 E20.70626
G1 X80.678 Y76.028 E20.73447
G1 X80.065 Y76.09 E20.75686
G1 X79.733 Y76.099 E20.76893
G1 X62.097 Y76.1 E21.40973
G1 X61.68 Y76.094 E21.42489
G1 X59.128 Y76.094 E21.51761
G1 X58.31 Y76.1 E21.54734
G1 X40.67 Y76.1 E22.18829
G1 X39.972 Y76.09 E22.21365
G1 X39.412 Y76.044 E22.23407
G1 X39.245 Y76.023 E22.24018
G1 X38.618 Y75.93 E22.26321
G1 X38.051 Y75.779 E22.28453
G1 X37.341 Y75.5 E22.31225
G1 X36.999 Y75.353 E22.32578
G1 X36.479 Y75.054 E22.34757
G1 X35.888 Y74.615 E22.37432
G1 X35.584 Y74.375 E22.3884
G1 X35.16 Y73.952 E22.41016
G1 X34.709 Y73.384 E22.43651
G1 X34.473 Y73.067 E22.45087
G1 X34.174 Y72.549 E22.4726
G1 X33.881 Y71.872 E22.49941
G1 X33.742 Y71.524 E22.51302
G1 X33.586 Y70.946 E22.53477
G1 X33.472 Y70.178 E22.56299
G1 X33.41 Y69.56 E22.58555
G1 X33.401 Y69.218 E22.59798
G1 X33.4 Y51.169 E23.2538
G1 X33.412 Y50.416 E23.28116
G1 X33.418 Y50.268 E23.28654
G1 X33.497 Y47.507 E23.3869
G1 X33.497 Y44.754 E23.48693
G1 X33.447 Y42.969 E23.55182
G1 X33.452 Y42.885 E23.55487
G1 X33.402 Y41.316 E23.61191
G1 X33.4 Y23.17 E24.27125
G1 X33.41 Y22.473 E24.29658
G1 X33.456 Y21.912 E24.31703
G1 X33.476 Y21.751 E24.32292
G1 X33.567 Y21.126 E24.34587
G1 X33.72 Y20.549 E24.36756
G1 X34 Y19.841 E24.39523
G1 X34.121 Y19.559 E24.40638
G0 F1080 X34.147 Y19.499
G0 X34.446 Y18.979
G0 F2057.1 X34.768 Y19.217
G1 F1200 X35.199 Y18.636 E24.43266
G1 X35.439 Y18.332 E24.44673
G1 X35.797 Y17.973 E24.46516
G1 X36.356 Y17.53 E24.49107
G1 X36.672 Y17.295 E24.50538
G1 X37.108 Y17.043 E24.52368
G1 X37.776 Y16.753 E24.55014
G1 X38.124 Y16.614 E24.56376
G1 X38.613 Y16.481 E24.58217
G1 X39.368 Y16.369 E24.6099
G1 X39.948 Y16.31 E24.63108
G1 X40.267 Y16.301 E24.64268
G1 X57.916 Y16.3 E25.28396
G1 X58.341 Y16.306 E25.2994
G1 X61.123 Y16.306 E25.40048
G1 X61.708 Y16.3 E25.42174
G1 X79.325 Y16.3 E26.06186
G1 X80.023 Y16.31 E26.08722
G1 X80.54 Y16.353 E26.10607
G1 X80.697 Y16.373 E26.11182
G1 X81.324 Y16.466 E26.13485
G1 X81.803 Y16.593 E26.15286
G1 X82.434 Y16.84 E26.17748
G1 X82.843 Y17.015 E26.19364
G1 X83.283 Y17.268 E26.21209
G1 X83.864 Y17.699 E26.23837
G1 X84.168 Y17.939 E26.25244
G1 X84.527 Y18.297 E26.27087
G1 X84.97 Y18.855 E26.29675
G1 X85.206 Y19.172 E26.31111
G1 X85.458 Y19.608 E26.32941
G1 X85.746 Y20.272 E26.35571
G1 X85.887 Y20.626 E26.36955
G1 X86.019 Y21.113 E26.38789
G1 X86.131 Y21.867 E26.41559
G1 X86.19 Y22.455 E26.43706
G1 X86.2 Y22.832 E26.45076
G1 X86.2 Y40.825 E27.10454
G1 X86.188 Y41.568 E27.13154
G1 X86.182 Y41.716 E27.13692
G1 X86.103 Y44.482 E27.23746
G1 X86.103 Y47.257 E27.33829
G1 X86.153 Y49.042 E27.40318
G1 X86.148 Y49.12 E27.40602
G1 X86.199 Y50.767 E27.46589
G1 X86.2 Y68.825 E28.12203
G1 X86.19 Y69.522 E28.14735
G1 X86.146 Y70.045 E28.16642
G1 X86.129 Y70.183 E28.17148
G1 X86.036 Y70.818 E28.1948
G1 X85.907 Y71.302 E28.213
G1 X85.632 Y72.001 E28.24029
G1 X85.485 Y72.343 E28.25381
G1 X85.232 Y72.783 E28.27226
G1 X84.801 Y73.364 E28.29854
G1 X84.561 Y73.668 E28.31261
G1 X84.202 Y74.028 E28.33109
G1 X83.648 Y74.467 E28.35677
G1 X83.33 Y74.704 E28.37118
G1 X82.892 Y74.957 E28.38956
G1 X82.224 Y75.247 E28.41602
G1 X81.876 Y75.386 E28.42964
G1 X81.387 Y75.519 E28.44805
G1 X80.632 Y75.631 E28.47578
G1 X80.052 Y75.69 E28.49697
G1 X79.733 Y75.699 E28.50856
G1 X62.102 Y75.7 E29.14918
G1 X61.685 Y75.694 E29.16434
G1 X59.126 Y75.694 E29.25732
G1 X58.307 Y75.7 E29.28708
G1 X40.675 Y75.7 E29.92774
G1 X39.977 Y75.69 E29.9531
G1 X39.46 Y75.647 E29.97195
G1 X39.303 Y75.627 E29.9777
G1 X38.676 Y75.534 E30.00073
G1 X38.197 Y75.407 E30.01874
G1 X37.566 Y75.16 E30.04336
G1 X37.157 Y74.985 E30.05953
G1 X36.717 Y74.732 E30.07797
G1 X36.136 Y74.301 E30.10425
G1 X35.832 Y74.061 E30.11833
G1 X35.473 Y73.703 E30.13675
G1 X35.03 Y73.145 E30.16263
G1 X34.794 Y72.828 E30.17699
G1 X34.541 Y72.39 E30.19537
G1 X34.253 Y71.724 E30.22174
G1 X34.114 Y71.376 E30.23535
G1 X33.981 Y70.887 E30.25377
G1 X33.869 Y70.132 E30.2815
G1 X33.81 Y69.548 E30.30283
G1 X33.801 Y69.218 E30.31482
G1 X33.8 Y51.175 E30.97042
G1 X33.812 Y50.432 E30.99742
G1 X33.818 Y50.284 E31.0028
G1 X33.897 Y47.518 E31.10334
G1 X33.897 Y44.743 E31.20417
G1 X33.847 Y42.958 E31.26906
G1 X33.852 Y42.88 E31.2719
G1 X33.801 Y41.233 E31.33177
G1 X33.8 Y23.175 E31.98791
G1 X33.81 Y22.478 E32.01323
G1 X33.853 Y21.96 E32.03212
G1 X33.872 Y21.809 E32.03765
G1 X33.963 Y21.184 E32.0606
G1 X34.093 Y20.696 E32.07895
G1 X34.368 Y19.999 E32.10617
G1 X34.453 Y19.802 E32.11397
G0 F1080 X34.515 Y19.657
G0 X34.768 Y19.217
G1 F1500 E31.51397
;MESH:BoiteMicroSD_011aCOUV.stl
G0 F2057.1 X36.595 Y19.332
G0 X37.614 Y20.114
G0 X57.591 Y19.5
;TYPE:WALL-INNER
G1 F1500 E32.84992
G1 F1200 X57.591 Y19.699 E32.85715
G1 X57.59 Y44.5 E33.7583
G1 X40.069 Y44.5 E34.39492
G1 X39.225 Y44.389 E34.42585
G1 X38.506 Y44.091 E34.45413
G1 X37.885 Y43.615 E34.48256
G1 X37.409 Y42.994 E34.51099
G1 X37.111 Y42.275 E34.53927
G1 X37 Y41.431 E34.5702
G1 X37 Y22.569 E35.25556
G1 X37.111 Y21.725 E35.28649
G1 X37.409 Y21.006 E35.31477
G1 X37.885 Y20.385 E35.3432
G1 X38.506 Y19.909 E35.37163
G1 X39.225 Y19.611 E35.39991
G1 X40.069 Y19.5 E35.43084
G1 X57.392 Y19.5 E36.06027
G1 X57.591 Y19.5 E36.06495
G0 F2057.1 X57.991 Y19.1
G1 F1200 X57.991 Y19.299 E36.07218
G1 X57.99 Y44.9 E37.00239
G1 X40.04 Y44.9 E37.6546
G1 X39.124 Y44.78 E37.68817
G1 X38.302 Y44.439 E37.72051
G1 X37.6 Y43.9 E37.75267
G1 X37.061 Y43.198 E37.78482
G1 X36.72 Y42.376 E37.81716
G1 X36.6 Y41.46 E37.85073
G1 X36.6 Y22.54 E38.53819
G1 X36.72 Y21.624 E38.57175
G1 X37.061 Y20.802 E38.60409
G1 X37.6 Y20.1 E38.63625
G1 X38.302 Y19.561 E38.6684
G1 X39.124 Y19.22 E38.70074
G1 X40.04 Y19.1 E38.73431
G1 X57.792 Y19.1 E39.37933
G1 X57.991 Y19.1 E39.384
G0 F2057.1 X58.391 Y18.9
;TYPE:WALL-OUTER
G1 F1200 X58.39 Y45.3 E40.34325
G1 X40.011 Y45.3 E41.01105
G1 X39.02 Y45.17 E41.04737
G1 X38.101 Y44.789 E41.08351
G1 X37.315 Y44.185 E41.11953
G1 X36.711 Y43.399 E41.15555
G1 X36.33 Y42.48 E41.1917
G1 X36.2 Y41.489 E41.22801
G1 X36.2 Y22.511 E41.91758
G1 X36.33 Y21.52 E41.9539
G1 X36.711 Y20.601 E41.99004
G1 X37.315 Y19.815 E42.02606
G1 X38.101 Y19.211 E42.06208
G1 X39.02 Y18.83 E42.09823
G1 X40.011 Y18.7 E42.13454
G1 X58.191 Y18.7 E42.79512
G1 X58.391 Y18.7 E42.80238
G1 X58.391 Y18.9 E42.80709
G0 F2057.1 X58.391 Y19.1
G0 X57.951 Y19.14
G0 X57.951 Y19.2
G0 X57.201 Y19.89
;TYPE:SKIN
G1 F1200 X57.2 Y44.11 E43.68712
G1 X40.09 Y44.11 E44.30881
G1 X39.333 Y44.011 E44.33655
G1 X38.703 Y43.749 E44.36135
G1 X38.164 Y43.336 E44.38602
G1 X37.751 Y42.797 E44.41069
G1 X37.489 Y42.167 E44.43548
G1 X37.39 Y41.41 E44.46322
G1 X37.39 Y22.59 E45.14705
G1 X37.489 Y21.833 E45.17479
G1 X37.751 Y21.203 E45.19958
G1 X38.164 Y20.664 E45.22425
G1 X38.703 Y20.251 E45.24892
G1 X39.333 Y19.989 E45.27372
G1 X40.09 Y19.89 E45.30146
G1 X56.536 Y19.89 E45.89902
G0 F1080 X57.201 Y19.89
G0 F2057.1 X57.059 Y20.29
G1 F1200 X56.799 Y20.03 E45.91238
G0 F2057.1 X56.234 Y20.03
G1 F1200 X57.059 Y20.856 E45.9548
G0 F2057.1 X57.059 Y21.421
G1 F1200 X55.668 Y20.03 E46.02628
G0 F2057.1 X55.102 Y20.03
