;FLAVOR:Marlin
;TIME:24897
;Filament used: 43.7654m
;Layer height: 0.12
;MINX:2.128
;MINY:15
;MINZ:0.24
;MAXX:115.763
;MAXY:105
;MAXZ:55.68
;Generated with Cura_SteamEngine 4.7.1
M104 S210
M105
M109 S210
M82 ;absolute extrusion mode
;Sliced at: Fri 04-12-2020 09:52:34
G21 ;metric values
G90 ;absolute positioning
M82 ;set extruder to absolute mode
M107 ;start with the fan off
G1 Z5.0 F1800 ;move Z to 5mm
G28 X0 Y0 F1800 ;move X/Y to min endstops
G28 Z0 ;move Z to min endstop
G92 E0 ;zero the extruded length
G1 F200 E6.0 ;extrude 6.0mm of feed stock to build pressure
G1 Z5.0 F300 ;move the platform down 5mm
G92 E0 ;zero the extruded length again
G1 F1800
;Put printing message on LCD screen
M117 Printing...
G92 E0
G92 E0
G1 F1500 E-5
;LAYER_COUNT:234
;LAYER:0
M107
G0 F900 X5.678 Y15.24 Z0.24
;TYPE:SKIRT
G1 F1500 E0.70678
G1 F900 X6.198 Y15.113 E0.73028
G1 X6.809 Y15.037 E0.75731
G1 X6.809 Y15.034 E0.75744
G1 X8.406 Y15 E0.82757
G1 X56.046 Y15 E2.91913
G1 X57.176 Y15.008 E2.96874
G1 X57.187 Y15.007 E2.96923
G1 X58.169 Y15.014 E3.01234
G1 X59.409 Y15.014 E3.06678
G1 X61.038 Y15.001 E3.1383
G1 X109.761 Y15 E5.27741
G1 X110.294 Y15.004 E5.30081
G1 X110.871 Y15.02 E5.32615
G1 X111.613 Y15.097 E5.3589
G1 X112.146 Y15.224 E5.38296
G1 X112.751 Y15.443 E5.4112
G1 X113.245 Y15.689 E5.43543
G1 X113.703 Y15.989 E5.45947
G1 X114.158 Y16.358 E5.48519
G1 X114.507 Y16.728 E5.50752
G1 X114.866 Y17.193 E5.53331
G1 X115.145 Y17.651 E5.55686
G1 X115.474 Y18.411 E5.59321
G1 X115.666 Y19.177 E5.62788
G1 X115.729 Y19.674 E5.64988
G1 X115.763 Y21.278 E5.72032
G1 X115.763 Y98.941 E9.12998
G1 X115.758 Y99.514 E9.15514
G1 X115.741 Y100.113 E9.18145
G1 X115.668 Y100.835 E9.21331
G1 X115.515 Y101.465 E9.24177
G1 X115.36 Y101.89 E9.26163
G1 X115.078 Y102.474 E9.29011
G1 X114.669 Y103.072 E9.32191
G1 X114.248 Y103.554 E9.35001
G1 X113.746 Y103.983 E9.379
G1 X113.261 Y104.298 E9.40439
G1 X112.704 Y104.577 E9.43174
G1 X112.176 Y104.769 E9.45641
G1 X111.522 Y104.914 E9.48582
G1 X110.858 Y104.976 E9.5151
G1 X110.789 Y104.979 E9.51813
G1 X109.634 Y105 E9.56885
G1 X61.845 Y105 E11.66695
G1 X60.715 Y104.992 E11.71656
G1 X60.704 Y104.993 E11.71704
G1 X59.722 Y104.986 E11.76016
G1 X58.482 Y104.986 E11.8146
G1 X56.853 Y104.999 E11.88612
G1 X8.13 Y105 E14.02522
G1 X7.597 Y104.996 E14.04862
G1 X7.02 Y104.98 E14.07396
G1 X6.264 Y104.9 E14.10734
G1 X5.723 Y104.77 E14.13177
G1 X5.131 Y104.555 E14.15942
G1 X4.675 Y104.326 E14.18182
G1 X4.188 Y104.011 E14.20729
G1 X3.733 Y103.642 E14.23301
G1 X3.358 Y103.237 E14.25724
G1 X2.968 Y102.733 E14.28522
G1 X2.666 Y102.195 E14.3123
G1 X2.545 Y101.927 E14.32521
G1 X2.369 Y101.444 E14.34778
G1 X2.214 Y100.753 E14.37887
G1 X2.151 Y100.065 E14.40921
G1 X2.148 Y99.994 E14.41233
G1 X2.128 Y98.846 E14.46274
G1 X2.128 Y20.967 E17.88189
G1 X2.132 Y20.466 E17.90388
G1 X2.149 Y19.88 E17.92962
G1 X2.223 Y19.165 E17.96118
G1 X2.376 Y18.535 E17.98964
G1 X2.551 Y18.045 E18.01249
G1 X2.787 Y17.566 E18.03593
G1 X3.085 Y17.105 E18.06003
G1 X3.418 Y16.692 E18.08332
G1 X3.889 Y16.225 E18.11244
G1 X4.518 Y15.773 E18.14645
G1 X5.057 Y15.477 E18.17344
G0 F810 X5.06 Y15.476
G0 X5.678 Y15.24
G0 F900 X5.813 Y15.617
G1 X6.587 Y15.455 E18.20816
G1 X6.818 Y15.434 E18.21835
G1 X8.415 Y15.4 E18.28848
G1 X56.043 Y15.4 E20.37951
G1 X57.176 Y15.408 E20.42925
G1 X57.184 Y15.407 E20.4296
G1 X58.166 Y15.414 E20.47272
G1 X59.412 Y15.414 E20.52742
G1 X61.039 Y15.401 E20.59885
G1 X109.759 Y15.4 E22.73783
G1 X110.283 Y15.404 E22.76083
G1 X110.86 Y15.42 E22.78617
G1 X111.561 Y15.493 E22.81712
G1 X112.354 Y15.712 E22.85324
G1 X113.009 Y16.017 E22.88496
G1 X113.466 Y16.311 E22.90881
G1 X113.89 Y16.656 E22.93281
G1 X114.385 Y17.206 E22.9653
G1 X114.524 Y17.401 E22.97581
G1 X114.803 Y17.859 E22.99936
G1 X115.101 Y18.555 E23.0326
G1 X115.273 Y19.254 E23.0642
G1 X115.329 Y19.682 E23.08315
G1 X115.363 Y21.286 E23.15359
G1 X115.363 Y98.938 E26.56277
G1 X115.358 Y99.504 E26.58762
G1 X115.338 Y100.188 E26.61767
G1 X115.272 Y100.784 E26.64399
G1 X115.129 Y101.358 E26.66996
G1 X115 Y101.716 E26.68667
G1 X114.72 Y102.296 E26.71495
G1 X114.351 Y102.83 E26.74344
G1 X113.98 Y103.256 E26.76825
G1 X113.49 Y103.675 E26.79655
G1 X113.06 Y103.953 E26.81903
G1 X112.568 Y104.201 E26.84322
G1 X112.04 Y104.393 E26.86789
G1 X111.454 Y104.52 E26.89421
G1 X110.837 Y104.577 E26.92142
G1 X109.627 Y104.6 E26.97455
G1 X61.848 Y104.6 E29.07221
G1 X60.715 Y104.592 E29.12195
G1 X60.707 Y104.593 E29.12231
G1 X59.725 Y104.586 E29.16542
G1 X58.479 Y104.586 E29.22012
G1 X56.852 Y104.599 E29.29156
G1 X8.132 Y104.6 E31.43053
G1 X7.608 Y104.596 E31.45353
G1 X7.031 Y104.58 E31.47888
G1 X6.315 Y104.504 E31.51049
G1 X5.53 Y104.287 E31.54624
G1 X4.903 Y103.994 E31.57663
G1 X4.425 Y103.689 E31.60152
G1 X4.001 Y103.344 E31.62552
G1 X3.659 Y102.975 E31.64761
G1 X3.311 Y102.527 E31.67252
G1 X3.017 Y102.004 E31.69886
G1 X2.921 Y101.79 E31.70915
G1 X2.745 Y101.307 E31.73172
G1 X2.608 Y100.684 E31.75973
G1 X2.55 Y100.044 E31.78794
G1 X2.528 Y98.839 E31.84085
G1 X2.528 Y20.969 E35.25961
G1 X2.532 Y20.478 E35.28117
G1 X2.549 Y19.892 E35.30691
G1 X2.619 Y19.217 E35.3367
G1 X2.762 Y18.642 E35.36271
G1 X3.012 Y18.006 E35.39272
G1 X3.274 Y17.531 E35.41653
G1 X3.7 Y16.976 E35.44725
G1 X4.166 Y16.514 E35.47606
G1 X4.736 Y16.108 E35.50678
G1 X5.193 Y15.856 E35.52969
G0 F810 X5.207 Y15.848
G0 X5.813 Y15.617
G0 F900 X5.949 Y15.993
G1 X6.651 Y15.85 E35.56115
G1 X6.826 Y15.834 E35.56886
G1 X8.423 Y15.8 E35.63899
G1 X56.04 Y15.8 E37.72954
G1 X57.175 Y15.808 E37.77937
G1 X57.182 Y15.807 E37.77968
G1 X58.164 Y15.814 E37.8228
G1 X59.415 Y15.814 E37.87772
G1 X61.04 Y15.801 E37.94906
G1 X109.756 Y15.8 E40.08786
G1 X110.272 Y15.803 E40.11052
G1 X110.849 Y15.819 E40.13586
G1 X111.51 Y15.89 E40.16504
G1 X112.231 Y16.092 E40.19792
G1 X112.831 Y16.375 E40.22704
G1 X113.27 Y16.665 E40.25014
G1 X113.679 Y17.005 E40.27349
G1 X114.078 Y17.463 E40.30016
G1 X114.183 Y17.609 E40.30806
G1 X114.462 Y18.067 E40.3316
G1 X114.728 Y18.699 E40.36171
G1 X114.881 Y19.331 E40.39025
G1 X114.929 Y19.691 E40.4062
G1 X114.963 Y21.295 E40.47664
G1 X114.963 Y98.935 E43.88529
G1 X114.959 Y99.493 E43.90979
G1 X114.942 Y100.092 E43.9361
G1 X114.875 Y100.732 E43.96435
G1 X114.744 Y101.251 E43.98785
G1 X114.64 Y101.542 E44.00142
G1 X114.382 Y102.077 E44.0275
G1 X114.033 Y102.587 E44.05463
G1 X113.703 Y102.968 E44.07676
G1 X113.234 Y103.368 E44.10382
G1 X112.595 Y103.751 E44.13653
G1 X112.431 Y103.825 E44.14443
G1 X111.903 Y104.017 E44.16909
G1 X111.386 Y104.125 E44.19228
G1 X110.816 Y104.177 E44.21741
G1 X110.775 Y104.179 E44.21921
G1 X109.62 Y104.2 E44.26993
G1 X61.851 Y104.2 E46.36715
G1 X60.716 Y104.192 E46.41698
G1 X60.709 Y104.193 E46.41729
G1 X59.727 Y104.186 E46.46041
G1 X58.476 Y104.186 E46.51533
G1 X56.851 Y104.199 E46.58667
G1 X8.135 Y104.2 E48.72547
G1 X7.619 Y104.197 E48.74813
G1 X7.042 Y104.181 E48.77347
G1 X6.366 Y104.107 E48.80332
G1 X5.653 Y103.906 E48.83585
G1 X5.081 Y103.636 E48.86362
G1 X4.621 Y103.335 E48.88775
G1 X4.212 Y102.995 E48.9111
G1 X3.76 Y102.471 E48.94148
G1 X3.369 Y101.814 E48.97505
G1 X3.297 Y101.653 E48.98279
G1 X3.121 Y101.17 E49.00536
G1 X3.002 Y100.616 E49.03024
G1 X2.95 Y100.023 E49.05637
G1 X2.948 Y99.98 E49.05826
G1 X2.928 Y98.832 E49.10867
G1 X2.928 Y20.972 E52.52699
G1 X2.932 Y20.489 E52.5482
G1 X2.949 Y19.903 E52.57393
G1 X3.016 Y19.268 E52.60197
G1 X3.147 Y18.749 E52.62547
G1 X3.374 Y18.177 E52.65249
G1 X3.6 Y17.762 E52.67323
G1 X3.982 Y17.259 E52.70096
G1 X4.443 Y16.802 E52.72946
G1 X4.955 Y16.443 E52.75692
G1 X5.329 Y16.233 E52.77575
G0 F810 X5.355 Y16.219
G0 X5.949 Y15.993
G0 F900 X6.084 Y16.369
G1 X6.716 Y16.244 E52.80403
G1 X6.835 Y16.234 E52.80927
G1 X8.432 Y16.2 E52.8794
G1 X56.038 Y16.2 E54.96947
G1 X57.173 Y16.208 E55.0193
G1 X57.179 Y16.207 E55.01957
G1 X58.161 Y16.214 E55.06268
G1 X59.418 Y16.214 E55.11787
G1 X61.041 Y16.201 E55.18912
G1 X109.754 Y16.2 E57.32779
G1 X110.261 Y16.203 E57.35005
G1 X110.838 Y16.219 E57.37539
G1 X111.427 Y16.283 E57.4014
G1 X112.108 Y16.473 E57.43244
G1 X112.653 Y16.733 E57.45895
G1 X113.018 Y16.976 E57.4782
G1 X113.415 Y17.308 E57.50093
G1 X113.771 Y17.719 E57.5248
G1 X113.841 Y17.817 E57.53009
G1 X114.12 Y18.275 E57.55363
G1 X114.355 Y18.843 E57.58062
G1 X114.488 Y19.407 E57.60606
G1 X114.529 Y19.699 E57.619
G1 X114.563 Y21.303 E57.68944
G1 X114.563 Y98.932 E61.09762
G1 X114.559 Y99.482 E61.12176
G1 X114.541 Y100.125 E61.15
G1 X114.478 Y100.68 E61.17453
G1 X114.351 Y101.169 E61.19671
G1 X114.28 Y101.368 E61.20598
G1 X114.005 Y101.938 E61.23377
G1 X113.699 Y102.364 E61.2568
G1 X113.426 Y102.679 E61.2751
G1 X112.979 Y103.06 E61.30088
G1 X112.404 Y103.4 E61.33021
G1 X112.294 Y103.449 E61.3355
G1 X111.766 Y103.641 E61.36016
G1 X111.152 Y103.756 E61.38759
G1 X110.768 Y103.779 E61.40448
G1 X109.613 Y103.8 E61.4552
G1 X61.853 Y103.8 E63.55202
G1 X60.718 Y103.792 E63.60185
G1 X60.712 Y103.793 E63.60212
G1 X59.73 Y103.786 E63.64523
G1 X58.473 Y103.786 E63.70042
G1 X56.85 Y103.799 E63.77168
G1 X8.137 Y103.8 E65.91034
G1 X7.63 Y103.797 E65.9326
G1 X7.053 Y103.781 E65.95794
G1 X6.417 Y103.71 E65.98604
G1 X5.777 Y103.526 E66.01528
G1 X5.26 Y103.278 E66.04045
G1 X4.873 Y103.024 E66.06077
G1 X4.482 Y102.699 E66.0831
G1 X4.068 Y102.216 E66.11103
G1 X3.721 Y101.623 E66.14119
G1 X3.672 Y101.516 E66.14636
G1 X3.496 Y101.033 E66.16893
G1 X3.392 Y100.525 E66.19169
G1 X3.349 Y100.001 E66.21477
G1 X3.328 Y98.825 E66.26641
G1 X3.328 Y20.975 E69.68429
G1 X3.331 Y20.501 E69.7051
G1 X3.35 Y19.877 E69.73251
G1 X3.413 Y19.32 E69.75712
G1 X3.541 Y18.829 E69.7794
G1 X3.735 Y18.348 E69.80217
G1 X4.065 Y17.798 E69.83033
G1 X4.265 Y17.543 E69.84456
G1 X4.72 Y17.091 E69.87271
G1 X5.174 Y16.777 E69.89695
G1 X5.465 Y16.612 E69.91163
G0 F810 X5.502 Y16.591
G0 X6.084 Y16.369
G0 F900 X6.22 Y16.746
G1 X6.78 Y16.639 E69.93667
G1 X6.843 Y16.634 E69.93944
G1 X8.44 Y16.6 E70.00957
G1 X56.035 Y16.6 E72.09915
G1 X57.167 Y16.608 E72.14885
G1 X57.176 Y16.607 E72.14925
G1 X58.158 Y16.614 E72.19236
G1 X59.421 Y16.614 E72.24781
G1 X61.043 Y16.601 E72.31903
G1 X109.751 Y16.6 E74.45747
G1 X110.25 Y16.603 E74.47938
G1 X110.827 Y16.619 E74.50472
G1 X111.407 Y16.683 E74.53034
G1 X111.985 Y16.853 E74.55679
G1 X112.475 Y17.092 E74.58073
G1 X113.072 Y17.534 E74.61334
G1 X113.465 Y17.976 E74.63931
G1 X113.5 Y18.025 E74.64195
G1 X113.779 Y18.483 E74.66549
G1 X113.982 Y18.988 E74.68939
G1 X114.096 Y19.484 E74.71173
G1 X114.129 Y19.708 E74.72167
G1 X114.163 Y21.312 E74.79211
G1 X114.163 Y98.929 E78.19976
G1 X114.159 Y99.472 E78.2236
G1 X114.142 Y100.094 E78.25092
G1 X114.082 Y100.629 E78.27455
G1 X113.941 Y101.14 E78.29783
G1 X113.919 Y101.195 E78.30043
G1 X113.634 Y101.783 E78.32911
G1 X113.231 Y102.306 E78.3581
G1 X113.227 Y102.311 E78.35838
G1 X112.723 Y102.753 E78.38781
G1 X112.212 Y103.048 E78.41372
G1 X112.158 Y103.073 E78.41633
G1 X111.63 Y103.265 E78.441
G1 X111.095 Y103.36 E78.46485
G1 X110.76 Y103.379 E78.47958
G1 X109.605 Y103.4 E78.5303
G1 X61.856 Y103.4 E80.62664
G1 X60.724 Y103.392 E80.67634
G1 X60.715 Y103.393 E80.67674
G1 X59.733 Y103.386 E80.71985
G1 X58.47 Y103.386 E80.7753
G1 X56.848 Y103.399 E80.84652
G1 X8.14 Y103.4 E82.98496
G1 X7.641 Y103.397 E83.00687
G1 X7.064 Y103.381 E83.03221
G1 X6.469 Y103.314 E83.0585
G1 X5.9 Y103.145 E83.08456
G1 X5.438 Y102.92 E83.10712
G1 X5.124 Y102.713 E83.12363
G1 X4.746 Y102.396 E83.14529
G1 X4.375 Y101.96 E83.17043
G1 X4.072 Y101.433 E83.19712
G1 X4.048 Y101.379 E83.19971
G1 X3.864 Y100.873 E83.22335
G1 X3.769 Y100.336 E83.24729
G1 X3.748 Y99.966 E83.26356
G1 X3.728 Y98.818 E83.31397
G1 X3.728 Y20.977 E86.73145
G1 X3.731 Y20.512 E86.75187
G1 X3.75 Y19.892 E86.7791
G1 X3.809 Y19.371 E86.80212
G1 X3.971 Y18.793 E86.82847
G1 X4.213 Y18.292 E86.8529
G1 X4.507 Y17.872 E86.87541
G1 X4.547 Y17.826 E86.87809
G1 X4.997 Y17.379 E86.90593
G1 X5.59 Y16.993 E86.937
G1 X5.601 Y16.988 E86.93753
G0 F810 X6.22 Y16.746
G0 F900 X6.352 Y17.112
G1 X6.851 Y17.023 E86.95978
G1 X7.399 Y17 E86.98386
G1 X56.448 Y17 E89.13728
G1 X57.43 Y17.014 E89.1804
G1 X60.215 Y17.014 E89.30267
G1 X60.745 Y17.002 E89.32594
G1 X61.054 Y17 E89.33951
G1 X110.098 Y17 E91.49271
G1 X110.825 Y17.01 E91.52463
G1 X111.37 Y17.072 E91.54871
G1 X111.916 Y17.241 E91.5738
G1 X112.366 Y17.475 E91.59607
G1 X112.839 Y17.848 E91.62252
G1 X113.207 Y18.277 E91.64733
G1 X113.466 Y18.72 E91.66986
G1 X113.651 Y19.224 E91.69343
G1 X113.74 Y19.72 E91.71555
G1 X113.763 Y20.264 E91.73946
G1 X113.763 Y99.309 E95.2098
G1 X113.753 Y100.062 E95.24286
G1 X113.691 Y100.607 E95.26695
G1 X113.549 Y101.087 E95.28892
G1 X113.288 Y101.603 E95.31431
G1 X112.915 Y102.076 E95.34076
G1 X112.47 Y102.455 E95.36642
G1 X111.963 Y102.739 E95.39193
G1 X111.483 Y102.903 E95.4142
G1 X110.982 Y102.982 E95.43647
G1 X110.492 Y103 E95.458
G1 X61.443 Y103 E97.61141
G1 X60.461 Y102.986 E97.65453
G1 X57.676 Y102.986 E97.7768
G1 X57.146 Y102.998 E97.80008
G1 X56.837 Y103 E97.81364
G1 X7.793 Y103 E99.96684
G1 X7.066 Y102.99 E99.99876
G1 X6.516 Y102.927 E100.02306
G1 X5.975 Y102.759 E100.04794
G1 X5.525 Y102.525 E100.0702
G1 X5.052 Y102.152 E100.09665
G1 X4.673 Y101.707 E100.12231
G1 X4.388 Y101.197 E100.14796
G1 X4.225 Y100.72 E100.17009
G1 X4.146 Y100.219 E100.19236
G1 X4.128 Y99.723 E100.21415
G1 X4.128 Y20.665 E103.68506
G1 X4.138 Y19.938 E103.71698
G1 X4.2 Y19.393 E103.74107
G1 X4.342 Y18.913 E103.76304
G1 X4.564 Y18.461 E103.78515
G1 X4.861 Y18.05 E103.80741
G1 X5.282 Y17.647 E103.833
G1 X5.737 Y17.361 E103.8566
G0 F810 X5.803 Y17.319
G0 X6.352 Y17.112
G1 F1500 E98.8566
;MESH:Spannblock.stl
G0 F900 X7.742 Y19.335
G0 X7.742 Y20.614
G0 X56.458 Y99.33
G0 X56.528 Y99.4
;TYPE:WALL-INNER
G1 F1500 E104.56337
G1 F900 X7.728 Y99.4 E106.70586
G1 X7.728 Y20.6 E110.16544
G1 X56.528 Y20.6 E112.30793
G1 X56.528 Y98.735 E115.73832
G0 F810 X56.528 Y99.4
G0 F900 X56.928 Y99.8
;TYPE:WALL-OUTER
G1 X7.328 Y99.8 E117.91593
G1 X7.328 Y20.2 E121.41064
G1 X56.928 Y20.2 E123.58824
G1 X56.928 Y99.135 E127.05376
G0 F810 X56.928 Y99.8
G0 F900 X56.728 Y99.8
G0 X56.488 Y99.36
G0 X56.138 Y99.01
;TYPE:SKIN
G1 X8.118 Y99.01 E129.162
G1 X8.118 Y20.99 E132.58734
G1 X56.138 Y20.99 E134.69558
G1 X56.138 Y98.345 E138.09172
G0 F810 X56.138 Y99.01
G0 F900 X8.359 Y98.869
G1 X8.257 Y98.767 E138.09806
G0 X8.257 Y98.201
G1 X8.925 Y98.869 E138.13953
G0 X9.49 Y98.869
G1 X8.257 Y97.635 E138.21612
G0 X8.257 Y97.07
G1 X10.056 Y98.869 E138.32782
G0 X10.622 Y98.869
G1 X8.257 Y96.504 E138.47466
G0 X8.257 Y95.938
G1 X11.187 Y98.869 E138.65661
G0 X11.753 Y98.869
G1 X8.257 Y95.373 E138.87367
G0 X8.257 Y94.807
G1 X12.319 Y98.869 E139.12587
G0 X12.884 Y98.869
G1 X8.257 Y94.241 E139.41319
G0 X8.257 Y93.676
G1 X13.45 Y98.869 E139.73562
G0 X14.016 Y98.869
G1 X8.257 Y93.11 E140.09319
G0 X8.257 Y92.544
G1 X14.581 Y98.869 E140.48587
G0 X15.147 Y98.869
G1 X8.257 Y91.979 E140.91366
G0 X8.257 Y91.413
G1 X15.713 Y98.869 E141.37659
G0 X16.279 Y98.869
G1 X8.257 Y90.847 E141.87467
G0 X8.257 Y90.281
G1 X16.844 Y98.869 E142.40786
G0 X17.41 Y98.869
G1 X8.257 Y89.716 E142.97615
G0 X8.257 Y89.15
G1 X17.976 Y98.869 E143.57959
G0 X18.541 Y98.869
G1 X8.257 Y88.584 E144.21815
G0 X8.257 Y88.019
G1 X19.107 Y98.869 E144.89181
G0 X19.673 Y98.869
G1 X8.257 Y87.453 E145.60061
G0 X8.257 Y86.887
G1 X20.238 Y98.869 E146.34453
G0 X20.804 Y98.869
G1 X8.257 Y86.322 E147.12356
G0 X8.257 Y85.756
G1 X21.37 Y98.869 E147.93773
G0 X21.935 Y98.869
G1 X8.257 Y85.19 E148.78701
G0 X8.257 Y84.625
G1 X22.501 Y98.869 E149.6714
G0 X23.067 Y98.869
G1 X8.257 Y84.059 E150.59094
G0 X8.257 Y83.493
G1 X23.632 Y98.869 E151.54558
G0 X24.198 Y98.869
G1 X8.257 Y82.928 E152.53534
G0 X8.257 Y82.362
G1 X24.764 Y98.869 E153.56024
G0 X25.329 Y98.869
G1 X8.257 Y81.796 E154.62025
G0 X8.257 Y81.231
G1 X25.895 Y98.869 E155.71537
G0 X26.461 Y98.869
G1 X8.257 Y80.665 E156.84563
G0 X8.257 Y80.099
G1 X27.027 Y98.869 E158.01104
G0 X27.592 Y98.869
G1 X8.257 Y79.533 E159.21156
G0 X8.257 Y78.968
G1 X28.158 Y98.869 E160.44718
G0 X28.724 Y98.869
G1 X8.257 Y78.402 E161.71795
G0 X8.257 Y77.836
G1 X29.289 Y98.869 E163.02384
G0 X29.855 Y98.869
G1 X8.257 Y77.271 E164.36483
G0 X8.257 Y76.705
G1 X30.421 Y98.869 E165.74096
G0 X30.986 Y98.869
G1 X8.257 Y76.139 E167.15221
G0 X8.257 Y75.574
