;FLAVOR:Marlin
;TIME:1367
;Filament used: 1.44226m
;Layer height: 0.24
;MINX:35.465
;MINY:35.465
;MINZ:0.3
;MAXX:84.535
;MAXY:84.535
;MAXZ:21.9
;Generated with Cura_SteamEngine 4.7.1
M104 S210
M105
M109 S210
M82 ;absolute extrusion mode
;Sliced at: Mon 23-08-2021 15:32:41
G21 ;metric values
G90 ;absolute positioning
M82 ;set extruder to absolute mode
M107 ;start with the fan off
G1 Z5.0 F1800 ;move Z to 5mm
G28 X0 Y0 F1800 ;move X/Y to min endstops
G28 Z0 ;move Z to min endstop
G92 E0 ;zero the extruded length
G1 F200 E6.0 ;extrude 6.0mm of feed stock to build pressure
G1 Z5.0 F300 ;move the platform down 5mm
G92 E0 ;zero the extruded length again
G1 F1800
;Put printing message on LCD screen
M117 Printing...
G92 E0
G92 E0
G1 F1500 E-5
;LAYER_COUNT:91
;LAYER:0
M107
G0 F1080 X42.701 Y42.599 Z0.3
;TYPE:SKIRT
G1 F1500 E0.72757
G1 F900 X43.275 Y42.047 E0.77127
G1 X43.394 Y41.936 E0.7802
G1 X43.846 Y41.53 E0.81354
G1 X43.97 Y41.423 E0.82253
G1 X44.496 Y40.982 E0.8602
G1 X44.622 Y40.88 E0.8691
G1 X45.137 Y40.477 E0.90498
G1 X45.276 Y40.372 E0.91454
G1 X45.939 Y39.891 E0.9595
G1 X46.076 Y39.795 E0.96868
G1 X46.508 Y39.504 E0.99726
G1 X46.647 Y39.414 E1.00635
G1 X47.313 Y38.998 E1.04944
G1 X47.459 Y38.911 E1.05877
G1 X48.047 Y38.572 E1.09602
G1 X48.189 Y38.493 E1.10494
G1 X48.764 Y38.187 E1.14068
G1 X48.915 Y38.11 E1.14998
G1 X49.567 Y37.792 E1.18979
G1 X49.718 Y37.721 E1.19895
G1 X50.358 Y37.436 E1.2374
G1 X50.522 Y37.367 E1.24716
G1 X51.147 Y37.116 E1.28412
G1 X51.296 Y37.059 E1.29288
G1 X51.956 Y36.819 E1.33142
G1 X52.12 Y36.762 E1.34095
G1 X52.77 Y36.552 E1.37844
G1 X52.923 Y36.506 E1.3872
G1 X53.596 Y36.313 E1.42563
G1 X53.772 Y36.266 E1.43562
G1 X54.43 Y36.104 E1.47281
G1 X54.566 Y36.073 E1.48047
G1 X55.174 Y35.942 E1.5146
G1 X55.358 Y35.906 E1.52489
G1 X56.17 Y35.764 E1.57013
G1 X56.329 Y35.739 E1.57896
G1 X56.87 Y35.663 E1.60894
G1 X57.043 Y35.642 E1.6185
G1 X57.844 Y35.559 E1.6627
G1 X58.006 Y35.545 E1.67162
G1 X58.624 Y35.502 E1.70562
G1 X58.791 Y35.493 E1.7148
G1 X59.514 Y35.468 E1.7545
G1 X59.687 Y35.465 E1.76399
G1 X60.384 Y35.466 E1.80225
G1 X60.538 Y35.469 E1.8107
G1 X61.193 Y35.491 E1.84666
G1 X61.372 Y35.5 E1.8565
G1 X62.033 Y35.547 E1.89287
G1 X62.195 Y35.561 E1.90179
G1 X62.955 Y35.641 E1.94373
G1 X63.125 Y35.662 E1.95313
G1 X63.705 Y35.744 E1.98528
G1 X63.875 Y35.771 E1.99472
G1 X64.683 Y35.915 E2.03976
G1 X64.835 Y35.945 E2.04827
G1 X65.435 Y36.072 E2.08192
G1 X65.605 Y36.111 E2.09149
G1 X66.245 Y36.271 E2.1277
G1 X66.402 Y36.313 E2.13662
G1 X67.132 Y36.522 E2.17829
G1 X67.3 Y36.574 E2.18794
G1 X67.879 Y36.763 E2.22137
G1 X68.028 Y36.814 E2.23001
G1 X68.766 Y37.082 E2.2731
G1 X68.933 Y37.146 E2.28291
G1 X69.485 Y37.37 E2.3156
G1 X69.635 Y37.434 E2.32455
G1 X70.366 Y37.76 E2.36848
G1 X70.52 Y37.832 E2.37781
G1 X71.031 Y38.082 E2.40903
G1 X71.175 Y38.156 E2.41791
G1 X71.854 Y38.517 E2.46012
G1 X72.004 Y38.6 E2.46952
G1 X72.547 Y38.914 E2.50395
G1 X72.693 Y39.002 E2.5133
G1 X73.376 Y39.43 E2.55754
G1 X73.506 Y39.514 E2.56603
G1 X73.943 Y39.808 E2.59493
G1 X74.087 Y39.909 E2.60459
G1 X74.721 Y40.37 E2.64761
G1 X74.851 Y40.468 E2.65654
G1 X75.343 Y40.852 E2.69079
G1 X75.476 Y40.96 E2.70019
G1 X76.099 Y41.483 E2.74483
G1 X76.232 Y41.598 E2.75448
G1 X76.669 Y41.993 E2.78681
G1 X76.782 Y42.099 E2.79531
G1 X77.233 Y42.534 E2.8297
G1 X77.355 Y42.656 E2.83917
G1 X77.958 Y43.281 E2.88683
G1 X78.075 Y43.407 E2.89627
G1 X78.427 Y43.799 E2.92518
G1 X78.532 Y43.92 E2.93397
G1 X79.06 Y44.549 E2.97904
G1 X79.169 Y44.683 E2.98852
G1 X79.52 Y45.133 E3.01984
G1 X79.618 Y45.264 E3.02882
G1 X80.104 Y45.933 E3.0742
G1 X80.201 Y46.07 E3.08341
G1 X80.491 Y46.5 E3.11187
G1 X80.581 Y46.64 E3.121
G1 X81.001 Y47.312 E3.16449
G1 X81.088 Y47.456 E3.17373
G1 X81.428 Y48.045 E3.21105
G1 X81.509 Y48.192 E3.22026
G1 X81.803 Y48.745 E3.25463
G1 X81.879 Y48.894 E3.26381
G1 X82.218 Y49.589 E3.30625
G1 X82.293 Y49.75 E3.31599
G1 X82.564 Y50.362 E3.35273
G1 X82.626 Y50.509 E3.36148
G1 X82.883 Y51.146 E3.39918
G1 X82.942 Y51.298 E3.40813
G1 X83.175 Y51.937 E3.44545
G1 X83.23 Y52.097 E3.45474
G1 X83.438 Y52.737 E3.49167
G1 X83.488 Y52.901 E3.50108
G1 X83.686 Y53.593 E3.54058
G1 X83.729 Y53.754 E3.54972
G1 X83.896 Y54.425 E3.58767
G1 X83.932 Y54.583 E3.59656
G1 X84.06 Y55.183 E3.63023
G1 X84.094 Y55.357 E3.63996
G1 X84.236 Y56.169 E3.6852
G1 X84.261 Y56.329 E3.69409
G1 X84.338 Y56.878 E3.72451
G1 X84.359 Y57.047 E3.73386
G1 X84.443 Y57.852 E3.77827
G1 X84.458 Y58.02 E3.78753
G1 X84.498 Y58.601 E3.81949
G1 X84.506 Y58.763 E3.82839
G1 X84.532 Y59.505 E3.86914
G1 X84.535 Y59.673 E3.87836
G1 X84.535 Y60.334 E3.91463
G1 X84.532 Y60.502 E3.92385
G1 X84.508 Y61.187 E3.96147
G1 X84.499 Y61.353 E3.97059
G1 X84.449 Y62.07 E4.01004
G1 X84.435 Y62.24 E4.0194
G1 X84.36 Y62.951 E4.05863
G1 X84.339 Y63.117 E4.06782
G1 X84.253 Y63.727 E4.10162
G1 X84.227 Y63.892 E4.11079
G1 X84.097 Y64.628 E4.15181
G1 X84.066 Y64.788 E4.16075
G1 X83.928 Y65.439 E4.19727
G1 X83.889 Y65.606 E4.20668
G1 X83.736 Y66.219 E4.24136
G1 X83.693 Y66.379 E4.25045
G1 X83.477 Y67.133 E4.29349
G1 X83.428 Y67.296 E4.30283
G1 X83.238 Y67.88 E4.33653
G1 X83.184 Y68.036 E4.34559
G1 X82.925 Y68.748 E4.38717
G1 X82.862 Y68.911 E4.39676
G1 X82.624 Y69.498 E4.43152
G1 X82.557 Y69.655 E4.44089
G1 X82.241 Y70.361 E4.48334
G1 X82.178 Y70.497 E4.49157
G1 X81.922 Y71.024 E4.52372
G1 X81.845 Y71.175 E4.53302
G1 X81.509 Y71.809 E4.5724
G1 X81.423 Y71.964 E4.58213
G1 X81.083 Y72.552 E4.6194
G1 X80.996 Y72.697 E4.62868
G1 X80.57 Y73.377 E4.67272
G1 X80.483 Y73.51 E4.68144
G1 X80.184 Y73.954 E4.71082
G1 X80.084 Y74.098 E4.72044
G1 X79.629 Y74.723 E4.76286
G1 X79.533 Y74.85 E4.7716
G1 X79.154 Y75.336 E4.80542
G1 X79.043 Y75.473 E4.8151
G1 X78.521 Y76.094 E4.85962
G1 X78.416 Y76.215 E4.86841
G1 X78.058 Y76.613 E4.89779
G1 X77.941 Y76.738 E4.90719
G1 X77.372 Y77.327 E4.95213
G1 X77.249 Y77.45 E4.96168
G1 X76.768 Y77.913 E4.99832
G1 X76.647 Y78.025 E5.00736
G1 X76.174 Y78.45 E5.04226
G1 X76.052 Y78.557 E5.05117
G1 X75.461 Y79.053 E5.09351
G1 X75.328 Y79.16 E5.10288
G1 X74.868 Y79.519 E5.1349
G1 X74.737 Y79.618 E5.14391
G1 X74.067 Y80.105 E5.18937
G1 X73.927 Y80.203 E5.19874
G1 X73.492 Y80.496 E5.22753
G1 X73.353 Y80.586 E5.23661
G1 X72.687 Y81.002 E5.27971
G1 X72.542 Y81.089 E5.28899
G1 X71.956 Y81.427 E5.32611
G1 X71.813 Y81.506 E5.33508
G1 X71.255 Y81.803 E5.36977
G1 X71.104 Y81.88 E5.37907
G1 X70.411 Y82.218 E5.42139
G1 X70.252 Y82.292 E5.43101
G1 X69.627 Y82.569 E5.46853
G1 X69.473 Y82.634 E5.4777
G1 X68.849 Y82.885 E5.51461
G1 X68.699 Y82.943 E5.52344
G1 X68.045 Y83.181 E5.56163
G1 X67.88 Y83.238 E5.57121
G1 X67.23 Y83.448 E5.6087
G1 X67.077 Y83.494 E5.61747
G1 X66.404 Y83.687 E5.65589
G1 X66.228 Y83.734 E5.66589
G1 X65.57 Y83.896 E5.70307
G1 X65.434 Y83.927 E5.71073
G1 X64.826 Y84.058 E5.74486
G1 X64.642 Y84.094 E5.75515
G1 X63.83 Y84.236 E5.80039
G1 X63.671 Y84.261 E5.80922
G1 X63.13 Y84.337 E5.8392
G1 X62.957 Y84.358 E5.84877
G1 X62.156 Y84.441 E5.89296
G1 X61.994 Y84.455 E5.90188
G1 X61.376 Y84.498 E5.93588
G1 X61.209 Y84.507 E5.94506
G1 X60.486 Y84.532 E5.98476
G1 X60.313 Y84.535 E5.99426
G1 X59.616 Y84.534 E6.03251
G1 X59.462 Y84.531 E6.04096
G1 X58.807 Y84.509 E6.07693
G1 X58.628 Y84.5 E6.08676
G1 X57.967 Y84.453 E6.12313
G1 X57.805 Y84.439 E6.13205
G1 X57.045 Y84.359 E6.17399
G1 X56.875 Y84.338 E6.18339
G1 X56.295 Y84.256 E6.21554
G1 X56.125 Y84.229 E6.22499
G1 X55.317 Y84.085 E6.27003
G1 X55.165 Y84.055 E6.27853
G1 X54.565 Y83.928 E6.31219
G1 X54.395 Y83.889 E6.32176
G1 X53.755 Y83.729 E6.35796
G1 X53.598 Y83.687 E6.36688
G1 X52.868 Y83.478 E6.40855
G1 X52.702 Y83.427 E6.41808
G1 X52.119 Y83.237 E6.45173
G1 X51.969 Y83.185 E6.46045
G1 X51.255 Y82.926 E6.50213
G1 X51.086 Y82.861 E6.51206
G1 X50.5 Y82.623 E6.54677
G1 X50.35 Y82.559 E6.55572
G1 X49.644 Y82.244 E6.59815
G1 X49.495 Y82.175 E6.60716
G1 X48.952 Y81.91 E6.64032
G1 X48.804 Y81.835 E6.64943
G1 X48.185 Y81.506 E6.6879
G1 X48.035 Y81.422 E6.69733
G1 X47.447 Y81.082 E6.73461
G1 X47.303 Y80.996 E6.74381
G1 X46.624 Y80.571 E6.78777
G1 X46.49 Y80.483 E6.79657
G1 X46.046 Y80.184 E6.82595
G1 X45.902 Y80.084 E6.83557
G1 X45.277 Y79.629 E6.87799
G1 X45.151 Y79.534 E6.88665
G1 X44.657 Y79.149 E6.92102
G1 X44.517 Y79.035 E6.93093
G1 X43.904 Y78.519 E6.97491
G1 X43.783 Y78.414 E6.9837
G1 X43.36 Y78.033 E7.01494
G1 X43.244 Y77.925 E7.02364
G1 X42.713 Y77.414 E7.06408
G1 X42.582 Y77.283 E7.07425
G1 X42.071 Y76.752 E7.11469
G1 X41.962 Y76.635 E7.12347
G1 X41.566 Y76.195 E7.15595
G1 X41.455 Y76.067 E7.16525
G1 X40.959 Y75.475 E7.20763
G1 X40.857 Y75.35 E7.21649
G1 X40.476 Y74.863 E7.25042
G1 X40.372 Y74.724 E7.25995
G1 X39.896 Y74.068 E7.30443
G1 X39.798 Y73.928 E7.31381
G1 X39.498 Y73.482 E7.3433
G1 X39.411 Y73.348 E7.35207
G1 X38.999 Y72.689 E7.39472
G1 X38.912 Y72.544 E7.404
G1 X38.572 Y71.955 E7.44133
G1 X38.49 Y71.807 E7.45061
G1 X38.185 Y71.233 E7.48628
G1 X38.11 Y71.085 E7.49539
G1 X37.792 Y70.433 E7.5352
G1 X37.719 Y70.276 E7.5447
G1 X37.435 Y69.636 E7.58313
G1 X37.369 Y69.482 E7.59232
G1 X37.121 Y68.866 E7.62876
G1 X37.064 Y68.717 E7.63752
G1 X36.819 Y68.045 E7.67677
G1 X36.763 Y67.882 E7.68623
G1 X36.558 Y67.25 E7.72269
G1 X36.508 Y67.085 E7.73216
G1 X36.305 Y66.373 E7.77279
G1 X36.263 Y66.218 E7.7816
G1 X36.108 Y65.596 E7.81678
G1 X36.07 Y65.43 E7.82612
G1 X35.939 Y64.812 E7.86079
G1 X35.908 Y64.65 E7.86984
G1 X35.769 Y63.861 E7.91381
G1 X35.742 Y63.691 E7.92326
G1 X35.659 Y63.096 E7.95623
G1 X35.639 Y62.928 E7.96551
G1 X35.559 Y62.156 E8.00811
G1 X35.544 Y61.99 E8.01725
G1 X35.499 Y61.336 E8.05323
G1 X35.491 Y61.175 E8.06207
G1 X35.468 Y60.52 E8.09804
G1 X35.465 Y60.352 E8.10726
G1 X35.465 Y59.666 E8.14491
G1 X35.468 Y59.5 E8.15402
G1 X35.493 Y58.779 E8.19361
G1 X35.502 Y58.613 E8.20274
G1 X35.546 Y57.979 E8.23761
G1 X35.561 Y57.807 E8.24709
G1 X35.643 Y57.03 E8.28997
G1 X35.664 Y56.86 E8.29937
G1 X35.744 Y56.296 E8.33063
G1 X35.77 Y56.132 E8.33974
G1 X35.91 Y55.342 E8.38377
G1 X35.94 Y55.185 E8.39254
G1 X36.072 Y54.562 E8.42749
G1 X36.11 Y54.396 E8.43684
G1 X36.266 Y53.77 E8.47224
G1 X36.31 Y53.607 E8.48151
G1 X36.523 Y52.865 E8.52387
G1 X36.572 Y52.704 E8.53311
G1 X36.762 Y52.12 E8.56681
G1 X36.816 Y51.964 E8.57587
G1 X37.075 Y51.252 E8.61745
G1 X37.138 Y51.089 E8.62704
G1 X37.376 Y50.502 E8.6618
G1 X37.443 Y50.345 E8.67117
G1 X37.759 Y49.639 E8.71362
G1 X37.823 Y49.501 E8.72197
G1 X38.087 Y48.958 E8.7551
G1 X38.166 Y48.804 E8.7646
G1 X38.494 Y48.187 E8.80295
G1 X38.575 Y48.039 E8.81221
G1 X38.925 Y47.433 E8.85061
G1 X39.013 Y47.287 E8.85997
G1 X39.398 Y46.672 E8.89979
G1 X39.486 Y46.538 E8.90858
G1 X39.814 Y46.051 E8.94081
G1 X39.913 Y45.909 E8.95031
G1 X40.387 Y45.257 E8.99454
G1 X40.484 Y45.129 E9.00336
G1 X40.852 Y44.657 E9.0362
G1 X40.965 Y44.517 E9.04608
G1 X41.481 Y43.904 E9.09005
G1 X41.586 Y43.783 E9.09884
G1 X41.967 Y43.36 E9.13008
G1 X42.076 Y43.243 E9.13886
G1 X42.33 Y42.98 E9.15892
G0 F810 X42.57 Y42.73
G0 X42.701 Y42.599
G0 F1080 X42.978 Y42.888
G1 F900 X43.552 Y42.336 E9.20263
G1 X43.662 Y42.234 E9.21086
G1 X44.114 Y41.828 E9.2442
G1 X44.227 Y41.729 E9.25245
G1 X44.753 Y41.288 E9.29012
G1 X44.868 Y41.195 E9.29823
G1 X45.383 Y40.792 E9.33412
G1 X45.511 Y40.696 E9.3429
G1 X46.174 Y40.215 E9.38785
G1 X46.3 Y40.127 E9.39629
G1 X46.732 Y39.836 E9.42487
G1 X46.859 Y39.753 E9.4332
G1 X47.525 Y39.337 E9.47629
G1 X47.658 Y39.257 E9.48481
G1 X48.246 Y38.918 E9.52206
G1 X48.377 Y38.846 E9.53026
G1 X48.952 Y38.54 E9.56601
G1 X49.09 Y38.469 E9.57452
G1 X49.742 Y38.151 E9.61434
G1 X49.881 Y38.087 E9.62273
G1 X50.521 Y37.802 E9.66118
G1 X50.671 Y37.738 E9.67013
G1 X51.296 Y37.487 E9.70709
G1 X51.432 Y37.435 E9.71508
G1 X52.092 Y37.195 E9.75362
G1 X52.243 Y37.143 E9.76239
G1 X52.893 Y36.933 E9.79988
G1 X53.033 Y36.89 E9.80791
G1 X53.706 Y36.697 E9.84634
G1 X53.867 Y36.655 E9.85547
G1 X54.525 Y36.493 E9.89266
G1 X54.65 Y36.464 E9.8997
G1 X55.258 Y36.333 E9.93383
G1 X55.427 Y36.3 E9.94328
G1 X56.239 Y36.158 E9.98852
G1 X56.385 Y36.135 E9.99663
G1 X56.926 Y36.059 E10.02661
G1 X57.084 Y36.039 E10.03535
G1 X57.885 Y35.956 E10.07954
G1 X58.034 Y35.944 E10.08775
G1 X58.652 Y35.901 E10.12174
G1 X58.805 Y35.893 E10.13015
G1 X59.528 Y35.868 E10.16985
G1 X59.686 Y35.865 E10.17853
G1 X60.383 Y35.866 E10.21678
G1 X60.525 Y35.868 E10.22457
G1 X61.18 Y35.89 E10.26054
G1 X61.344 Y35.899 E10.26955
G1 X62.005 Y35.946 E10.30592
G1 X62.154 Y35.959 E10.31413
G1 X62.914 Y36.039 E10.35606
G1 X63.069 Y36.058 E10.36463
G1 X63.649 Y36.14 E10.39678
G1 X63.805 Y36.165 E10.40545
G1 X64.613 Y36.309 E10.45049
G1 X64.752 Y36.336 E10.45826
G1 X65.352 Y36.463 E10.49192
G1 X65.508 Y36.499 E10.50071
G1 X66.148 Y36.659 E10.53691
G1 X66.292 Y36.698 E10.5451
G1 X67.022 Y36.907 E10.58677
G1 X67.176 Y36.954 E10.5956
G1 X67.755 Y37.143 E10.62903
G1 X67.892 Y37.19 E10.63698
G1 X68.63 Y37.458 E10.68007
G1 X68.782 Y37.517 E10.68902
G1 X69.334 Y37.741 E10.72171
G1 X69.472 Y37.799 E10.72992
G1 X70.203 Y38.125 E10.77385
G1 X70.345 Y38.192 E10.78246
G1 X70.856 Y38.442 E10.81368
G1 X70.988 Y38.509 E10.82181
G1 X71.667 Y38.87 E10.86401
G1 X71.804 Y38.946 E10.87261
G1 X72.347 Y39.26 E10.90703
G1 X72.48 Y39.341 E10.91558
G1 X73.163 Y39.769 E10.95981
G1 X73.283 Y39.846 E10.96764
G1 X73.72 Y40.14 E10.99654
G1 X73.852 Y40.232 E11.00537
G1 X74.486 Y40.693 E11.04839
G1 X74.605 Y40.783 E11.05658
G1 X75.097 Y41.167 E11.09083
G1 X75.219 Y41.266 E11.09945
G1 X75.842 Y41.789 E11.14409
G1 X75.963 Y41.895 E11.15292
G1 X76.4 Y42.29 E11.18525
G1 X76.505 Y42.387 E11.19309
G1 X76.956 Y42.822 E11.22748
G1 X77.068 Y42.934 E11.23617
G1 X77.671 Y43.559 E11.28383
G1 X77.778 Y43.674 E11.29245
G1 X78.13 Y44.066 E11.32136
G1 X78.226 Y44.177 E11.32942
G1 X78.754 Y44.806 E11.37449
G1 X78.853 Y44.929 E11.38315
G1 X79.204 Y45.379 E11.41447
G1 X79.295 Y45.499 E11.42274
G1 X79.781 Y46.168 E11.46812
G1 X79.869 Y46.294 E11.47655
G1 X80.159 Y46.724 E11.50501
G1 X80.242 Y46.852 E11.51339
G1 X80.662 Y47.524 E11.55688
G1 X80.742 Y47.656 E11.56535
G1 X81.082 Y48.245 E11.60267
G1 X81.156 Y48.38 E11.61112
G1 X81.45 Y48.933 E11.64549
G1 X81.52 Y49.069 E11.65388
G1 X81.859 Y49.764 E11.69632
G1 X81.927 Y49.911 E11.70521
G1 X82.198 Y50.523 E11.74194
G1 X82.255 Y50.659 E11.75003
G1 X82.512 Y51.296 E11.78773
G1 X82.566 Y51.435 E11.79591
G1 X82.799 Y52.074 E11.83324
G1 X82.85 Y52.221 E11.84178
G1 X83.058 Y52.861 E11.87871
G1 X83.103 Y53.011 E11.8873
G1 X83.301 Y53.703 E11.9268
G1 X83.341 Y53.85 E11.93516
G1 X83.508 Y54.521 E11.97311
G1 X83.541 Y54.666 E11.98127
G1 X83.669 Y55.266 E12.01494
G1 X83.7 Y55.426 E12.02388
G1 X83.842 Y56.238 E12.06912
G1 X83.865 Y56.385 E12.07729
G1 X83.942 Y56.934 E12.10771
G1 X83.961 Y57.088 E12.11623
G1 X84.045 Y57.893 E12.16064
G1 X84.059 Y58.048 E12.16918
G1 X84.099 Y58.629 E12.20114
G1 X84.106 Y58.777 E12.20928
G1 X84.132 Y59.519 E12.25002
G1 X84.135 Y59.673 E12.25847
G1 X84.135 Y60.334 E12.29475
G1 X84.132 Y60.488 E12.3032
G1 X84.108 Y61.173 E12.34082
G1 X84.1 Y61.325 E12.34917
G1 X84.05 Y62.042 E12.38861
G1 X84.037 Y62.198 E12.39721
G1 X83.962 Y62.909 E12.43644
G1 X83.943 Y63.061 E12.44485
G1 X83.857 Y63.671 E12.47866
G1 X83.833 Y63.822 E12.48705
G1 X83.703 Y64.558 E12.52806
G1 X83.674 Y64.705 E12.53629
G1 X83.536 Y65.356 E12.57281
G1 X83.501 Y65.51 E12.58147
G1 X83.348 Y66.123 E12.61615
G1 X83.309 Y66.269 E12.62444
G1 X83.093 Y67.023 E12.66748
G1 X83.047 Y67.172 E12.67604
G1 X82.857 Y67.756 E12.70974
G1 X82.808 Y67.899 E12.71804
G1 X82.549 Y68.611 E12.75962
G1 X82.492 Y68.76 E12.76837
G1 X82.254 Y69.347 E12.80313
G1 X82.192 Y69.492 E12.81179
G1 X81.876 Y70.198 E12.85424
G1 X81.818 Y70.323 E12.8618
G1 X81.562 Y70.85 E12.89395
G1 X81.492 Y70.987 E12.9024
G1 X81.156 Y71.621 E12.94177
G1 X81.077 Y71.764 E12.95074
G1 X80.737 Y72.352 E12.98801
G1 X80.657 Y72.485 E12.99653
G1 X80.231 Y73.165 E13.04057
G1 X80.152 Y73.287 E13.04854
G1 X79.853 Y73.731 E13.07792
G1 X79.76 Y73.863 E13.08678
G1 X79.305 Y74.488 E13.12921
G1 X79.218 Y74.604 E13.13716
G1 X78.839 Y75.09 E13.17099
G1 X78.737 Y75.215 E13.17984
G1 X78.215 Y75.836 E13.22436
G1 X78.118 Y75.948 E13.23249
G1 X77.76 Y76.346 E13.26187
G1 X77.654 Y76.46 E13.27041
G1 X77.085 Y77.049 E13.31536
G1 X76.971 Y77.162 E13.32417
