;FLAVOR:Marlin
;TIME:1140
;Filament used: 1.25141m
;Layer height: 0.12
;MINX:38.722
;MINY:47.962
;MINZ:0.3
;MAXX:69.822
;MAXY:71.934
;MAXZ:14.7
;Generated with Cura_SteamEngine 4.12.1
M104 S210
M105
M109 S210
M82 ;absolute extrusion mode
;Sliced at: Sun 05-12-2021 23:24:23
G21 ;metric values
G90 ;absolute positioning
M82 ;set extruder to absolute mode
M107 ;start with the fan off
G1 Z5.0 F1800 ;move Z to 5mm
G28 X0 Y0 F1800 ;move X/Y to min endstops
G28 Z0 ;move Z to min endstop
G92 E0 ;zero the extruded length
G1 F200 E6.0 ;extrude 6.0mm of feed stock to build pressure
G1 Z5.0 F300 ;move the platform down 5mm
G92 E0 ;zero the extruded length again
G1 F1800
;Put printing message on LCD screen
M117 Printing...
G92 E0
G92 E0
G1 F1500 E-5
;LAYER_COUNT:63
;LAYER:0
M107
G0 F1080 X40.611 Y48.961 Z0.3
;TYPE:SKIRT
G1 F1500 E0.70678
G1 F900 X41.126 Y48.617 E0.74077
G1 X41.681 Y48.342 E0.77476
G1 X42.267 Y48.14 E0.80877
G1 X42.874 Y48.016 E0.84277
G1 X43.396 Y47.973 E0.87152
G1 X43.852 Y47.962 E0.89655
G1 X52.883 Y47.962 E1.39216
G1 X53.866 Y47.977 E1.44612
G1 X56.212 Y48.043 E1.57491
G1 X57.585 Y48.053 E1.65027
G1 X64.384 Y48.053 E2.02339
G1 X65.082 Y48.063 E2.0617
G1 X65.699 Y48.112 E2.09567
G1 X66.305 Y48.24 E2.12966
G1 X66.89 Y48.445 E2.16368
G1 X67.443 Y48.724 E2.19767
G1 X67.956 Y49.071 E2.23166
G1 X68.42 Y49.481 E2.26564
G1 X68.827 Y49.948 E2.29963
G1 X69.17 Y50.463 E2.33359
G1 X69.445 Y51.019 E2.36763
G1 X69.645 Y51.605 E2.40161
G1 X69.769 Y52.212 E2.43561
G1 X69.811 Y52.721 E2.46364
G1 X69.822 Y53.168 E2.48818
G1 X69.821 Y64.189 E3.093
G1 X69.81 Y64.918 E3.13301
G1 X69.761 Y65.536 E3.16704
G1 X69.633 Y66.142 E3.20103
G1 X69.427 Y66.726 E3.23501
G1 X69.149 Y67.279 E3.26898
G1 X68.801 Y67.792 E3.303
G1 X68.39 Y68.255 E3.33697
G1 X67.923 Y68.662 E3.37097
G1 X67.407 Y69.005 E3.40497
G1 X66.852 Y69.279 E3.43894
G1 X66.206 Y69.495 E3.47632
G1 X65.73 Y69.616 E3.50327
G1 X56.717 Y71.682 E4.01073
G1 X56.047 Y71.827 E4.04835
G1 X55.435 Y71.919 E4.08231
G1 X54.891 Y71.934 E4.11218
G1 X54.629 Y71.924 E4.12657
G1 X53.211 Y71.835 E4.20454
G1 X52.557 Y71.748 E4.24075
G1 X52.114 Y71.657 E4.26557
G1 X43.11 Y69.592 E4.77253
G1 X42.396 Y69.418 E4.81286
G1 X41.804 Y69.232 E4.84691
G1 X41.242 Y68.973 E4.88087
G1 X40.718 Y68.643 E4.91486
G1 X40.241 Y68.248 E4.94884
G1 X39.818 Y67.795 E4.98286
G1 X39.458 Y67.292 E5.0168
G1 X39.165 Y66.746 E5.05081
G1 X38.945 Y66.167 E5.0848
G1 X38.801 Y65.564 E5.11882
G1 X38.734 Y64.895 E5.15572
G1 X38.723 Y64.447 E5.18031
G1 X38.722 Y53.396 E5.78678
G1 X38.731 Y52.708 E5.82454
G1 X38.779 Y52.091 E5.85851
G1 X38.907 Y51.485 E5.8925
G1 X39.111 Y50.9 E5.9265
G1 X39.388 Y50.346 E5.96049
G1 X39.735 Y49.833 E5.99448
G1 X40.145 Y49.369 E6.02846
G1 X40.611 Y48.961 E6.06245
G0 F1080 X40.997 Y49.174
G1 F900 X41.504 Y48.866 E6.09501
G1 X42.047 Y48.629 E6.12752
G1 X42.618 Y48.467 E6.16009
G1 X43.408 Y48.373 E6.20375
G1 X43.852 Y48.362 E6.22813
G1 X52.878 Y48.362 E6.72347
G1 X53.854 Y48.377 E6.77703
G1 X56.197 Y48.443 E6.90567
G1 X57.582 Y48.453 E6.98168
G1 X64.378 Y48.453 E7.35464
G1 X65.076 Y48.463 E7.39295
G1 X65.667 Y48.512 E7.42549
G1 X66.246 Y48.639 E7.45802
G1 X66.803 Y48.843 E7.49058
G1 X67.327 Y49.121 E7.52313
G1 X67.809 Y49.466 E7.55566
G1 X68.241 Y49.873 E7.58823
G1 X68.613 Y50.334 E7.62074
G1 X68.921 Y50.841 E7.65329
G1 X69.157 Y51.385 E7.68584
G1 X69.318 Y51.955 E7.71834
G1 X69.411 Y52.733 E7.76134
G1 X69.422 Y53.168 E7.78522
G1 X69.421 Y64.183 E8.38972
G1 X69.41 Y64.912 E8.42973
G1 X69.362 Y65.503 E8.46227
G1 X69.234 Y66.082 E8.49481
G1 X69.029 Y66.639 E8.52738
G1 X68.752 Y67.163 E8.55991
G1 X68.406 Y67.645 E8.59247
G1 X67.999 Y68.076 E8.625
G1 X67.538 Y68.448 E8.65751
G1 X67.03 Y68.755 E8.69009
G1 X66.486 Y68.991 E8.72263
G1 X65.752 Y69.198 E8.76448
G1 X65.641 Y69.226 E8.77077
G1 X56.633 Y71.291 E9.27794
G1 X55.963 Y71.436 E9.31556
G1 X55.376 Y71.523 E9.34813
G1 X54.801 Y71.531 E9.37969
G1 X54.654 Y71.524 E9.38776
G1 X53.236 Y71.435 E9.46573
G1 X52.636 Y71.356 E9.49895
G1 X52.204 Y71.267 E9.52315
G1 X43.204 Y69.203 E10.02989
G1 X42.49 Y69.029 E10.07022
G1 X41.925 Y68.85 E10.10274
G1 X41.389 Y68.597 E10.13527
G1 X40.892 Y68.274 E10.1678
G1 X40.442 Y67.887 E10.20037
G1 X40.049 Y67.443 E10.23291
G1 X39.719 Y66.95 E10.26547
G1 X39.459 Y66.417 E10.29801
G1 X39.272 Y65.855 E10.33052
G1 X39.163 Y65.272 E10.36307
G1 X39.125 Y64.576 E10.40132
G1 X39.123 Y64.447 E10.4084
G1 X39.122 Y53.401 E11.0146
G1 X39.131 Y52.713 E11.05236
G1 X39.179 Y52.122 E11.0849
G1 X39.306 Y51.543 E11.11743
G1 X39.509 Y50.986 E11.14996
G1 X39.786 Y50.462 E11.18249
G1 X40.13 Y49.979 E11.21503
G1 X40.537 Y49.547 E11.2476
G1 X40.997 Y49.174 E11.2801
G0 F1080 X40.927 Y49.735
G1 F900 X41.381 Y49.398 E11.31113
G1 X41.878 Y49.129 E11.34215
G1 X42.408 Y48.932 E11.37318
G1 X42.96 Y48.812 E11.40418
G1 X43.74 Y48.764 E11.44707
G1 X43.852 Y48.762 E11.45321
G1 X52.872 Y48.762 E11.94822
G1 X53.843 Y48.777 E12.00152
G1 X56.183 Y48.843 E12.12999
G1 X57.579 Y48.853 E12.2066
G1 X64.372 Y48.853 E12.57939
G1 X65.07 Y48.863 E12.6177
G1 X65.634 Y48.911 E12.64877
G1 X66.184 Y49.038 E12.67974
G1 X66.712 Y49.242 E12.71081
G1 X67.206 Y49.517 E12.74184
G1 X67.655 Y49.86 E12.77284
G1 X68.052 Y50.262 E12.80385
G1 X68.389 Y50.717 E12.83492
G1 X68.657 Y51.214 E12.86591
G1 X68.853 Y51.744 E12.89692
G1 X68.973 Y52.297 E12.92798
G1 X69.02 Y53.05 E12.96938
G1 X69.022 Y53.168 E12.97586
G1 X69.022 Y64.177 E13.58002
G1 X69.011 Y64.906 E13.62004
G1 X68.962 Y65.47 E13.6511
G1 X68.835 Y66.02 E13.68208
G1 X68.631 Y66.548 E13.71315
G1 X68.355 Y67.041 E13.74415
G1 X68.012 Y67.491 E13.7752
G1 X67.609 Y67.887 E13.80621
G1 X67.155 Y68.223 E13.83721
G1 X66.657 Y68.492 E13.86827
G1 X66.007 Y68.72 E13.90607
G1 X65.551 Y68.836 E13.93189
G1 X56.548 Y70.9 E14.43879
G1 X55.878 Y71.045 E14.47641
G1 X55.318 Y71.126 E14.50746
G1 X54.812 Y71.131 E14.53523
G1 X54.679 Y71.125 E14.54254
G1 X53.261 Y71.036 E14.62051
G1 X52.716 Y70.964 E14.65068
G1 X52.293 Y70.877 E14.67438
G1 X43.299 Y68.814 E15.18078
G1 X42.585 Y68.64 E15.22111
G1 X42.047 Y68.468 E15.25211
G1 X41.538 Y68.221 E15.28316
G1 X41.069 Y67.906 E15.31416
G1 X40.649 Y67.527 E15.34521
G1 X40.287 Y67.093 E15.37622
G1 X39.99 Y66.612 E15.40725
G1 X39.763 Y66.094 E15.43828
G1 X39.612 Y65.549 E15.46932
G1 X39.534 Y64.871 E15.50677
G1 X39.523 Y64.447 E15.53005
G1 X39.522 Y53.407 E16.13592
G1 X39.531 Y52.719 E16.17368
G1 X39.579 Y52.155 E16.20474
G1 X39.705 Y51.604 E16.23576
G1 X39.908 Y51.077 E16.26675
G1 X40.183 Y50.583 E16.29778
G1 X40.525 Y50.132 E16.32884
G1 X40.927 Y49.735 E16.35985
G0 F1080 X41.315 Y49.934
G1 F900 X41.761 Y49.636 E16.38929
G1 X42.246 Y49.408 E16.4187
G1 X42.76 Y49.254 E16.44814
G1 X43.43 Y49.172 E16.48519
G1 X43.852 Y49.162 E16.50835
G1 X52.866 Y49.162 E17.00303
G1 X53.832 Y49.176 E17.05605
G1 X56.216 Y49.243 E17.18694
G1 X57.576 Y49.253 E17.26157
G1 X64.367 Y49.253 E17.63426
G1 X65.065 Y49.263 E17.67257
G1 X65.599 Y49.311 E17.70199
G1 X66.12 Y49.437 E17.73141
G1 X66.617 Y49.64 E17.76087
G1 X67.078 Y49.914 E17.7903
G1 X67.493 Y50.253 E17.81971
G1 X67.853 Y50.651 E17.84916
G1 X68.15 Y51.097 E17.87857
G1 X68.378 Y51.583 E17.90803
G1 X68.53 Y52.097 E17.93744
G1 X68.611 Y52.757 E17.97394
G1 X68.622 Y53.168 E17.9965
G1 X68.622 Y64.171 E18.60033
G1 X68.611 Y64.9 E18.64035
G1 X68.563 Y65.434 E18.66977
G1 X68.436 Y65.956 E18.69925
G1 X68.233 Y66.452 E18.72866
G1 X67.959 Y66.913 E18.75809
G1 X67.619 Y67.328 E18.78754
G1 X67.221 Y67.688 E18.81699
G1 X66.775 Y67.984 E18.84636
G1 X66.289 Y68.212 E18.87583
G1 X65.553 Y68.424 E18.91786
G1 X56.463 Y70.51 E19.42968
G1 X55.793 Y70.655 E19.4673
G1 X55.262 Y70.729 E19.49672
G1 X54.704 Y70.726 E19.52734
G1 X53.286 Y70.637 E19.60532
G1 X52.471 Y70.506 E19.65062
G1 X43.441 Y68.437 E20.15902
G1 X42.68 Y68.252 E20.202
G1 X42.17 Y68.086 E20.23143
G1 X41.69 Y67.847 E20.26086
G1 X41.251 Y67.539 E20.29029
G1 X40.862 Y67.169 E20.31975
G1 X40.533 Y66.746 E20.34916
G1 X40.27 Y66.278 E20.37862
G1 X40.08 Y65.777 E20.40802
G1 X39.967 Y65.252 E20.4375
G1 X39.925 Y64.552 E20.47598
G1 X39.923 Y64.447 E20.48174
G1 X39.922 Y53.412 E21.08734
G1 X39.931 Y52.724 E21.1251
G1 X39.978 Y52.19 E21.15451
G1 X40.104 Y51.668 E21.18398
G1 X40.306 Y51.172 E21.21338
G1 X40.579 Y50.71 E21.24283
G1 X40.918 Y50.295 E21.27223
G1 X41.315 Y49.934 E21.30168
G0 F1080 X41.701 Y50.146
G1 F900 X42.137 Y49.89 E21.32943
G1 X42.608 Y49.707 E21.35716
G1 X43.102 Y49.6 E21.3849
G1 X43.762 Y49.563 E21.42117
G1 X52.86 Y49.562 E21.92047
G1 X53.82 Y49.576 E21.97316
G1 X56.201 Y49.643 E22.10387
G1 X57.574 Y49.653 E22.17923
G1 X64.361 Y49.653 E22.55169
G1 X65.059 Y49.663 E22.59
G1 X65.562 Y49.71 E22.61772
G1 X66.052 Y49.836 E22.64549
G1 X66.516 Y50.038 E22.67326
G1 X66.942 Y50.31 E22.701
G1 X67.32 Y50.645 E22.72872
G1 X67.64 Y51.036 E22.75645
G1 X67.895 Y51.473 E22.78421
G1 X68.078 Y51.944 E22.81194
G1 X68.185 Y52.438 E22.83968
G1 X68.221 Y53.074 E22.87464
G1 X68.222 Y64.165 E23.48331
G1 X68.211 Y64.894 E23.52332
G1 X68.163 Y65.398 E23.5511
G1 X68.037 Y65.887 E23.57882
G1 X67.835 Y66.351 E23.60659
G1 X67.563 Y66.777 E23.63433
G1 X67.227 Y67.155 E23.66208
G1 X66.836 Y67.475 E23.68981
G1 X66.399 Y67.729 E23.71755
G1 X65.808 Y67.945 E23.75208
G1 X65.372 Y68.056 E23.77677
G1 X56.379 Y70.119 E24.28312
G1 X55.709 Y70.264 E24.32074
G1 X55.208 Y70.331 E24.34848
G1 X54.73 Y70.327 E24.37471
G1 X53.312 Y70.238 E24.45268
G1 X52.55 Y70.114 E24.49505
G1 X43.488 Y68.037 E25.00526
G1 X42.774 Y67.863 E25.04559
G1 X42.294 Y67.705 E25.07333
G1 X41.845 Y67.473 E25.10106
G1 X41.438 Y67.173 E25.12881
G1 X41.083 Y66.813 E25.15656
G1 X40.789 Y66.402 E25.18429
G1 X40.564 Y65.949 E25.21205
G1 X40.412 Y65.467 E25.23978
G1 X40.333 Y64.848 E25.27403
G1 X40.323 Y64.447 E25.29604
G1 X40.322 Y53.417 E25.90136
G1 X40.331 Y52.729 E25.93912
G1 X40.378 Y52.226 E25.96684
G1 X40.503 Y51.736 E25.99459
G1 X40.704 Y51.272 E26.02235
G1 X40.975 Y50.845 E26.0501
G1 X41.31 Y50.467 E26.07782
G1 X41.701 Y50.146 E26.10558
G1 F1500 E21.10558
;MESH:Deckel-Aufnahme.3mf(1)
G0 F1080 X44.136 Y52.097
G0 X44.136 Y53.376
G0 X44.625 Y61.484
;TYPE:WALL-INNER
G1 F1500 E26.81236
G1 F900 X44.522 Y62.037 E26.84323
G1 X44.522 Y61.484 E26.84704
G1 X44.522 Y60.945 E26.87662
G1 X44.522 Y53.762 E27.27082
G1 X52.522 Y53.762 E27.70985
G1 X52.522 Y61.696 E28.14526
G1 X46.647 Y60.348 E28.47606
G1 X46.078 Y60.323 E28.50731
G1 X45.463 Y60.523 E28.5428
G1 X44.956 Y60.928 E28.57842
G1 X44.625 Y61.484 E28.60426
G0 F1080 X45.158 Y63.923
G1 F900 X45.698 Y64.218 E28.63803
G1 X45.874 Y64.275 E28.64818
G1 X45.118 Y64.102 E28.66691
G1 X44.522 Y63.965 E28.70048
G1 X44.53 Y63.431 E28.72978
G1 X44.539 Y62.849 E28.76173
G1 X44.75 Y63.434 E28.77227
G1 X45.158 Y63.923 E28.80722
G0 F1080 X45.416 Y63.608
G1 F900 X45.857 Y63.849 E28.8348
G1 X45.989 Y63.892 E28.84242
G1 X52.922 Y65.481 E29.23276
G1 X52.922 Y66.302 E29.27782
G1 X44.122 Y64.284 E29.77329
G1 X44.122 Y53.362 E30.37268
G1 X52.922 Y53.362 E30.85562
G1 X52.922 Y62.198 E31.34053
G1 X46.593 Y60.746 E31.69688
G1 X46.133 Y60.726 E31.72215
G1 X45.656 Y60.881 E31.74968
G1 X45.262 Y61.195 E31.77733
G1 X45.005 Y61.627 E31.80491
G1 X44.921 Y62.08 E31.8302
G1 X44.937 Y62.775 E31.86835
G1 X45.102 Y63.232 E31.89501
G1 X45.416 Y63.608 E31.92189
G0 F1080 X45.674 Y63.293
;TYPE:WALL-OUTER
G1 F900 X46.016 Y63.48 E31.94329
G1 X46.096 Y63.506 E31.9479
G1 X53.322 Y65.162 E32.35474
G1 X53.322 Y66.804 E32.44485
G1 X43.722 Y64.603 E32.98536
G1 X43.722 Y52.962 E33.62421
G1 X53.322 Y52.962 E34.15105
G1 X53.322 Y62.7 E34.68547
G1 X46.539 Y61.144 E35.06738
G1 X46.188 Y61.129 E35.08666
G1 X45.848 Y61.239 E35.10627
G1 X45.568 Y61.462 E35.12592
G1 X45.385 Y61.77 E35.14558
G1 X45.322 Y62.112 E35.16466
G1 X45.335 Y62.701 E35.19699
G1 X45.454 Y63.03 E35.21619
G1 X45.674 Y63.293 E35.23501
G0 F1080 X45.849 Y63.389
G0 X45.609 Y63.826
G0 X45.068 Y63.251
G0 X44.912 Y60.464
;TYPE:SKIN
G1 F900 X44.912 Y54.152 E35.58141
G1 X52.132 Y54.152 E35.97764
G1 X52.132 Y61.207 E36.36481
G1 X46.7 Y59.96 E36.67067
G1 X46.025 Y59.931 E36.70774
G1 X45.275 Y60.174 E36.75101
G1 X44.912 Y60.464 E36.77651
G0 F1080 X45.307 Y60.014
G1 F900 X45.051 Y59.759 E36.79634
G0 F1080 X45.051 Y59.194
G1 F900 X45.734 Y59.876 E36.84931
G0 F1080 X46.222 Y59.798
G1 F900 X45.051 Y58.628 E36.94015
G0 F1080 X45.051 Y58.062
G1 F900 X46.835 Y59.845 E37.07857
G0 F1080 X47.569 Y60.014
G1 F900 X45.051 Y57.496 E37.27399
G0 F1080 X45.051 Y56.931
G1 F900 X48.303 Y60.183 E37.52638
G0 F1080 X49.038 Y60.352
G1 F900 X45.051 Y56.365 E37.83582
G0 F1080 X45.051 Y55.799
G1 F900 X49.772 Y60.52 E38.20222
G0 F1080 X50.506 Y60.688
G1 F900 X45.051 Y55.234 E38.62555
G0 F1080 X45.051 Y54.668
G1 F900 X51.241 Y60.857 E39.10592
G0 F1080 X51.975 Y61.026
G1 F900 X45.24 Y54.291 E39.62863
G0 F1080 X45.806 Y54.291
G1 F900 X51.992 Y60.477 E40.10873
G0 F1080 X51.992 Y59.911
G1 F900 X46.372 Y54.291 E40.54491
G0 F1080 X46.937 Y54.291
G1 F900 X51.992 Y59.346 E40.93723
G0 F1080 X51.992 Y58.78
G1 F900 X47.503 Y54.291 E41.28563
G0 F1080 X48.069 Y54.291
G1 F900 X51.992 Y58.214 E41.59009
G0 F1080 X51.992 Y57.649
G1 F900 X48.634 Y54.291 E41.85071
G0 F1080 X49.2 Y54.291
G1 F900 X51.992 Y57.083 E42.0674
G0 F1080 X51.992 Y56.517
G1 F900 X49.766 Y54.291 E42.24016
G0 F1080 X50.331 Y54.291
G1 F900 X51.992 Y55.951 E42.36904
G0 F1080 X51.992 Y55.386
G1 F900 X50.897 Y54.291 E42.45402
G0 F1080 X51.463 Y54.291
G1 F900 X51.992 Y54.82 E42.49508
G0 F1080 X45.232 Y61.169
G0 X44.882 Y62.077
G0 X44.898 Y62.782
G0 X45.391 Y63.638
G0 X49.606 Y64.879
G0 X49.931 Y65.204
;TYPE:SKIN
G1 F900 X50.298 Y65.289 E42.526
G1 X52.47 Y65.764 E42.70851
G1 X52.654 Y65.664 E42.7257
G0 F1080 X52.767 Y65.777
G0 X49.889 Y65.446
G0 X49.564 Y65.12
G1 F900 X49.197 Y65.036 E42.75551
G1 X46.629 Y64.448 E42.96403
G1 X46.105 Y64.489 E43.00563
G0 F1080 X46.006 Y64.307
G1 F1500 E38.00563
;MESH:Deckel-Aufnahme.3mf
G0 F1080 X52.907 Y65.493
G0 X53.191 Y64.245
G0 X54.171 Y63.767
G0 X54.357 Y62.275
G0 X55.634 Y62.275
G0 X62.465 Y60.414
;TYPE:WALL-INNER
G1 F1500 E43.71241
G1 F900 X61.913 Y60.438 E43.74273
G1 X56.022 Y61.788 E44.07441
G1 X56.022 Y53.853 E44.50987
G1 X64.022 Y53.853 E44.94891
G1 X64.022 Y61.036 E45.3431
G1 X64.022 Y61.572 E45.37252
G1 X64.022 Y62.128 E45.40303
G1 X63.919 Y61.572 E45.40736
G1 X63.587 Y61.018 E45.43319
G1 X63.081 Y60.615 E45.46869
G1 X62.465 Y60.414 E45.50425
G0 F1080 X63.311 Y61.26
G0 X63.813 Y63.492
G1 F900 X64.004 Y62.937 E45.53646
G1 X64.012 Y63.488 E45.54359
G1 X64.022 Y64.056 E45.57477
G1 X63.497 Y64.176 E45.60432
G1 X62.674 Y64.365 E45.65066
G1 X56.022 Y65.892 E46.02521
G1 X62.673 Y64.365 E46.02565
G1 X62.957 Y64.275 E46.03407
G1 X63.446 Y63.955 E46.03954
G1 X63.813 Y63.492 E46.07196
G0 F1080 X63.576 Y61.702
G0 X63.083 Y61.078
G0 X62.423 Y60.718
G0 X62.41 Y60.817
G1 F900 X61.967 Y60.836 E46.09629
G1 X55.622 Y62.29 E46.45353
G1 X55.622 Y53.453 E46.9385
G1 X64.422 Y53.453 E47.42143
G1 X64.422 Y64.375 E48.02082
G1 X55.622 Y66.394 E48.51631
G1 X55.622 Y65.573 E48.56136
G1 X62.567 Y63.979 E48.95241
G1 X62.784 Y63.91 E48.96491
G1 X63.173 Y63.656 E48.9904
G1 X63.457 Y63.297 E49.01552
G1 X63.606 Y62.865 E49.0406
G1 X63.623 Y62.171 E49.0787
G1 X63.539 Y61.716 E49.10409
G1 X63.281 Y61.286 E49.13161
G1 X62.888 Y60.973 E49.15918
G1 X62.41 Y60.817 E49.18678
G0 F1080 X62.355 Y61.22
;TYPE:WALL-OUTER
G1 F900 X62.02 Y61.234 E49.20518
G1 X55.222 Y62.792 E49.58792
G1 X55.222 Y53.053 E50.12239
G1 X64.822 Y53.053 E50.64923
G1 X64.822 Y64.694 E51.28808
G1 X55.222 Y66.896 E51.8286
G1 X55.222 Y65.254 E51.91871
G1 X62.461 Y63.593 E52.32631
G1 X62.611 Y63.545 E52.33495
G1 X62.9 Y63.357 E52.35387
G1 X63.101 Y63.102 E52.37169
G1 X63.208 Y62.793 E52.38963
G1 X63.222 Y62.203 E52.42202
G1 X63.159 Y61.86 E52.44116
G1 X62.975 Y61.554 E52.46076
G1 X62.695 Y61.331 E52.4804
G1 X62.355 Y61.22 E52.50003
G0 F1080 X62.155 Y61.228
G0 X62.134 Y60.728
G0 X61.861 Y60.05
;TYPE:SKIN
G1 F900 X56.412 Y61.299 E52.80682
G1 X56.412 Y54.243 E53.19405
G1 X63.632 Y54.243 E53.59028
G1 X63.632 Y60.556 E53.93673
G1 X63.268 Y60.266 E53.96227
G1 X62.519 Y60.022 E54.0055
G1 X61.861 Y60.05 E54.04164
G0 F1080 X57.047 Y61.007
G1 F900 X56.55 Y60.51 E54.08022
G0 F1080 X56.55 Y59.944
G1 F900 X57.508 Y60.902 E54.15457
G0 F1080 X57.968 Y60.797
