;FLAVOR:Marlin
;TIME:2361
;Filament used: 2.48033m
;Layer height: 0.24
;MINX:35.75
;MINY:40.357
;MINZ:0.3
;MAXX:70.365
;MAXY:75.017
;MAXZ:34.62
;Generated with Cura_SteamEngine 4.9.1
M104 S210
M105
M109 S210
M82 ;absolute extrusion mode
;Sliced at: Sat 05-06-2021 23:15:54
G21 ;metric values
G90 ;absolute positioning
M82 ;set extruder to absolute mode
M107 ;start with the fan off
G1 Z5.0 F1800 ;move Z to 5mm
G28 X0 Y0 F1800 ;move X/Y to min endstops
G28 Z0 ;move Z to min endstop
G92 E0 ;zero the extruded length
G1 F200 E6.0 ;extrude 6.0mm of feed stock to build pressure
G1 Z5.0 F300 ;move the platform down 5mm
G92 E0 ;zero the extruded length again
G1 F1800
;Put printing message on LCD screen
M117 Printing...
G92 E0
G92 E0
G1 F1500 E-0.6
;LAYER_COUNT:145
;LAYER:0
M106 S102
G0 F1440 X36.742 Y41.375 Z0.3
;TYPE:SKIRT
G1 F1500 E0.75698
G1 F1200 X37.136 Y41.034 E0.78328
G1 X37.578 Y40.757 E0.8096
G1 X38.056 Y40.551 E0.83587
G1 X38.561 Y40.42 E0.8622
G1 X39.363 Y40.359 E0.90279
G1 X39.472 Y40.357 E0.90829
G1 X44.395 Y40.357 E1.15673
G1 X45.099 Y40.367 E1.19226
G1 X45.411 Y40.379 E1.20802
G1 X48.288 Y40.459 E1.35326
G1 X48.776 Y40.466 E1.37789
G1 X50.788 Y40.472 E1.47943
G1 X51.341 Y40.468 E1.50733
G1 X54.428 Y40.468 E1.66312
G1 X55.133 Y40.479 E1.6987
G1 X55.652 Y40.527 E1.72501
G1 X56.157 Y40.654 E1.75129
G1 X56.638 Y40.857 E1.77763
G1 X57.081 Y41.13 E1.80389
G1 X57.478 Y41.468 E1.8302
G1 X57.665 Y41.67 E1.8441
G1 X58.198 Y42.293 E1.88547
G1 X60.019 Y44.359 E2.02445
G1 X61.853 Y46.325 E2.16014
G1 X63.793 Y48.289 E2.29945
G1 X65.787 Y50.196 E2.43869
G1 X67.807 Y52.023 E2.57614
G1 X68.342 Y52.481 E2.61168
G1 X69.089 Y53.138 E2.66188
G1 X69.453 Y53.511 E2.68819
G1 X69.756 Y53.936 E2.71453
G1 X69.99 Y54.401 E2.7408
G1 X70.15 Y54.897 E2.7671
G1 X70.242 Y55.586 E2.80218
G1 X70.254 Y56.016 E2.82388
G1 X70.254 Y59.701 E3.00985
G1 X70.25 Y60.973 E3.07404
G1 X70.256 Y61.735 E3.1125
G1 X70.315 Y64.475 E3.2508
G1 X70.323 Y64.655 E3.2599
G1 X70.364 Y66.015 E3.32856
G1 X70.365 Y70.924 E3.57629
G1 X70.356 Y71.651 E3.61299
G1 X70.309 Y72.17 E3.63928
G1 X70.184 Y72.676 E3.66559
G1 X69.983 Y73.157 E3.6919
G1 X69.711 Y73.601 E3.71817
G1 X69.374 Y73.999 E3.74449
G1 X68.981 Y74.341 E3.77078
G1 X68.539 Y74.618 E3.79711
G1 X68.061 Y74.824 E3.82337
G1 X67.556 Y74.956 E3.84971
G1 X67.054 Y75.008 E3.87518
G1 X66.679 Y75.017 E3.89411
G1 X65.909 Y75.017 E3.93297
G1 X65.199 Y75.007 E3.96881
G1 X64.68 Y74.959 E3.99511
G1 X64.174 Y74.833 E4.02142
G1 X63.694 Y74.632 E4.04769
G1 X63.147 Y74.281 E4.08048
G1 X62.53 Y73.796 E4.12009
G1 X61.597 Y73.041 E4.18066
G1 X59.435 Y71.391 E4.31791
G1 X57.223 Y69.8 E4.45541
G1 X54.974 Y68.276 E4.59251
G1 X54.038 Y67.679 E4.64854
G1 X53.243 Y67.153 E4.69665
G1 X52.787 Y66.818 E4.7252
G1 X52.383 Y66.479 E4.75182
G1 X51.961 Y66.069 E4.78151
G1 X51.091 Y65.121 E4.84644
G1 X49.214 Y63.13 E4.98453
G1 X47.284 Y61.198 E5.12234
G1 X45.118 Y59.151 E5.27274
G1 X44.729 Y58.792 E5.29945
G1 X44.218 Y58.255 E5.33686
G1 X43.817 Y57.76 E5.36901
G1 X43.379 Y57.127 E5.40786
G1 X42.323 Y55.484 E5.50642
G1 X40.769 Y53.21 E5.64542
G1 X39.165 Y50.999 E5.78326
G1 X36.914 Y48.104 E5.96833
G1 X36.514 Y47.608 E6.00048
G1 X36.219 Y47.179 E6.02676
G1 X35.993 Y46.709 E6.05308
G1 X35.842 Y46.211 E6.07934
G1 X35.762 Y45.569 E6.11199
G1 X35.751 Y45.121 E6.1346
G1 X35.75 Y44.415 E6.17023
G1 X35.759 Y43.723 E6.20516
G1 X35.806 Y43.204 E6.23145
G1 X35.931 Y42.698 E6.25776
G1 X36.133 Y42.217 E6.28409
G1 X36.4 Y41.782 E6.30984
G0 F1080 X36.405 Y41.773
G0 X36.742 Y41.375
G0 F1440 X37.134 Y41.554
G1 F1200 X37.521 Y41.254 E6.33455
G1 X37.951 Y41.021 E6.35924
G1 X38.414 Y40.861 E6.38396
G1 X39.063 Y40.769 E6.41704
G1 X39.472 Y40.757 E6.43769
G1 X44.39 Y40.757 E6.68587
G1 X45.094 Y40.767 E6.7214
G1 X45.395 Y40.779 E6.73661
G1 X48.271 Y40.859 E6.8818
G1 X48.771 Y40.866 E6.90704
G1 X50.79 Y40.872 E7.00893
G1 X51.344 Y40.868 E7.03688
G1 X54.422 Y40.868 E7.19222
G1 X55.127 Y40.879 E7.2278
G1 X55.614 Y40.927 E7.25249
G1 X56.087 Y41.053 E7.2772
G1 X56.533 Y41.254 E7.30188
G1 X56.941 Y41.526 E7.32663
G1 X57.361 Y41.93 E7.35604
G1 X57.902 Y42.563 E7.39806
G1 X59.709 Y44.613 E7.53597
G1 X61.576 Y46.614 E7.67408
G1 X63.514 Y48.576 E7.81325
G1 X65.507 Y50.483 E7.95245
G1 X67.522 Y52.305 E8.08955
G1 X68.078 Y52.781 E8.12648
G1 X68.825 Y53.438 E8.17669
G1 X69.165 Y53.79 E8.20139
G1 X69.443 Y54.193 E8.22609
G1 X69.652 Y54.636 E8.25081
G1 X69.787 Y55.107 E8.27554
G1 X69.853 Y55.924 E8.3169
G1 X69.854 Y59.699 E8.50741
G1 X69.85 Y60.971 E8.5716
G1 X69.856 Y61.741 E8.61046
G1 X69.914 Y64.45 E8.7472
G1 X69.924 Y64.668 E8.75822
G1 X69.963 Y65.923 E8.82158
G1 X69.965 Y70.919 E9.0737
G1 X69.956 Y71.646 E9.1104
G1 X69.91 Y72.133 E9.13508
G1 X69.785 Y72.607 E9.15982
G1 X69.585 Y73.054 E9.18453
G1 X69.315 Y73.462 E9.20922
G1 X68.983 Y73.821 E9.2339
G1 X68.596 Y74.121 E9.25861
G1 X68.166 Y74.354 E9.28329
G1 X67.703 Y74.515 E9.30803
G1 X67.043 Y74.608 E9.34167
G1 X66.679 Y74.617 E9.36004
G1 X65.915 Y74.617 E9.3986
G1 X65.205 Y74.607 E9.43443
G1 X64.718 Y74.56 E9.45912
G1 X64.244 Y74.434 E9.48387
G1 X63.798 Y74.234 E9.50854
G1 X63.394 Y73.966 E9.53301
G1 X62.782 Y73.485 E9.57229
G1 X61.863 Y72.741 E9.63196
G1 X59.671 Y71.069 E9.77109
G1 X57.435 Y69.461 E9.91007
G1 X55.183 Y67.934 E10.04739
G1 X54.259 Y67.345 E10.10268
G1 X53.464 Y66.819 E10.15079
G1 X53.028 Y66.498 E10.17811
G1 X52.643 Y66.176 E10.20344
G1 X52.256 Y65.798 E10.23074
G1 X51.413 Y64.88 E10.29364
G1 X49.489 Y62.839 E10.43519
G1 X47.576 Y60.924 E10.57179
G1 X45.355 Y58.825 E10.72601
G1 X44.887 Y58.388 E10.75832
G1 X44.513 Y57.986 E10.78603
G1 X44.143 Y57.527 E10.81578
G1 X43.713 Y56.906 E10.8539
G1 X42.646 Y55.247 E10.95344
G1 X41.09 Y52.971 E11.09258
G1 X39.481 Y50.753 E11.23086
G1 X37.226 Y47.853 E11.41625
G1 X36.826 Y47.357 E11.4484
G1 X36.551 Y46.952 E11.47311
G1 X36.345 Y46.508 E11.49781
G1 X36.214 Y46.037 E11.52248
G1 X36.152 Y45.2 E11.56484
G1 X36.15 Y44.42 E11.6042
G1 X36.159 Y43.728 E11.63912
G1 X36.206 Y43.241 E11.66381
G1 X36.33 Y42.767 E11.68854
G1 X36.531 Y42.321 E11.71323
G1 X36.778 Y41.948 E11.7358
G0 F1080 X36.801 Y41.913
G0 X37.134 Y41.554
G0 F1440 X37.196 Y42.063
G1 F1200 X37.523 Y41.746 E11.75879
G1 X37.901 Y41.492 E11.78177
G1 X38.318 Y41.307 E11.80479
G1 X38.76 Y41.198 E11.82777
G1 X39.389 Y41.158 E11.85957
G1 X44.384 Y41.157 E12.11165
G1 X45.161 Y41.169 E12.15086
G1 X45.421 Y41.18 E12.164
G1 X48.253 Y41.259 E12.30697
G1 X48.765 Y41.266 E12.33281
G1 X50.792 Y41.272 E12.4351
G1 X51.347 Y41.268 E12.46311
G1 X54.416 Y41.268 E12.61799
G1 X55.121 Y41.279 E12.65357
G1 X55.574 Y41.326 E12.67656
G1 X56.012 Y41.452 E12.69956
G1 X56.421 Y41.652 E12.72253
G1 X56.789 Y41.92 E12.74551
G1 X57.056 Y42.19 E12.76467
G1 X57.571 Y42.793 E12.80469
G1 X59.417 Y44.887 E12.94556
G1 X61.298 Y46.903 E13.08471
G1 X63.207 Y48.835 E13.22177
G1 X65.246 Y50.786 E13.36419
G1 X67.257 Y52.605 E13.50103
G1 X67.814 Y53.082 E13.53804
G1 X68.561 Y53.739 E13.58824
G1 X68.876 Y54.068 E13.61123
G1 X69.128 Y54.448 E13.63424
G1 X69.31 Y54.866 E13.65725
G1 X69.416 Y55.309 E13.68023
G1 X69.453 Y55.936 E13.71193
G1 X69.454 Y59.698 E13.90178
G1 X69.45 Y60.97 E13.96597
G1 X69.456 Y61.744 E14.00504
G1 X69.515 Y64.492 E14.14375
G1 X69.524 Y64.68 E14.15324
G1 X69.564 Y66.015 E14.22065
G1 X69.565 Y70.914 E14.46788
G1 X69.556 Y71.641 E14.50457
G1 X69.51 Y72.095 E14.5276
G1 X69.386 Y72.533 E14.55057
G1 X69.188 Y72.943 E14.57354
G1 X68.921 Y73.312 E14.59653
G1 X68.593 Y73.629 E14.61955
G1 X68.215 Y73.884 E14.64256
G1 X67.799 Y74.069 E14.66554
G1 X67.357 Y74.178 E14.68851
G1 X66.754 Y74.216 E14.719
G1 X65.92 Y74.217 E14.76109
G1 X65.21 Y74.207 E14.79692
G1 X64.757 Y74.16 E14.81991
G1 X64.319 Y74.036 E14.84288
G1 X63.909 Y73.836 E14.8659
G1 X63.641 Y73.652 E14.88231
G1 X63.033 Y73.174 E14.92134
G1 X62.094 Y72.414 E14.9823
G1 X59.919 Y70.754 E15.12038
G1 X57.67 Y69.138 E15.26013
G1 X55.401 Y67.599 E15.3985
G1 X54.479 Y67.011 E15.45368
G1 X53.684 Y66.485 E15.50179
G1 X53.269 Y66.178 E15.52784
G1 X52.774 Y65.752 E15.5608
G1 X52.55 Y65.528 E15.57678
G1 X51.68 Y64.58 E15.64172
G1 X49.797 Y62.582 E15.78027
G1 X47.851 Y60.634 E15.91922
G1 X45.63 Y58.535 E16.07344
G1 X45.167 Y58.101 E16.10547
G1 X44.809 Y57.716 E16.132
G1 X44.468 Y57.294 E16.15938
G1 X44.046 Y56.685 E16.19677
G1 X42.97 Y55.011 E16.29719
G1 X41.429 Y52.757 E16.43498
G1 X39.822 Y50.542 E16.57309
G1 X37.508 Y47.566 E16.76333
G1 X37.137 Y47.106 E16.79315
G1 X36.883 Y46.728 E16.81613
G1 X36.699 Y46.311 E16.83914
G1 X36.591 Y45.868 E16.86215
G1 X36.552 Y45.189 E16.89647
G1 X36.55 Y44.425 E16.93502
G1 X36.559 Y43.733 E16.96995
G1 X36.605 Y43.28 E16.99293
G1 X36.729 Y42.842 E17.0159
G1 X36.895 Y42.5 E17.03508
G0 F1080 X36.928 Y42.432
G0 X37.196 Y42.063
G0 F1440 X37.589 Y42.226
G1 F1200 X37.91 Y41.956 E17.05625
G1 X38.276 Y41.752 E17.0774
G1 X38.674 Y41.621 E17.09854
G1 X39.402 Y41.558 E17.13542
G1 X44.378 Y41.557 E17.38653
G1 X45.144 Y41.569 E17.4252
G1 X45.397 Y41.58 E17.43798
G1 X48.246 Y41.659 E17.58181
G1 X48.76 Y41.666 E17.60775
G1 X50.792 Y41.672 E17.71029
G1 X51.349 Y41.668 E17.7384
G1 X54.409 Y41.668 E17.89283
G1 X55.114 Y41.679 E17.92841
G1 X55.531 Y41.726 E17.94959
G1 X55.931 Y41.85 E17.97072
G1 X56.3 Y42.048 E17.99185
G1 X56.752 Y42.45 E18.02238
G1 X57.271 Y43.057 E18.06268
G1 X59.1 Y45.132 E18.20227
G1 X61.021 Y47.192 E18.34442
G1 X62.94 Y49.133 E18.48216
G1 X64.947 Y51.054 E18.62236
G1 X67.013 Y52.922 E18.76292
G1 X67.55 Y53.382 E18.79861
G1 X68.297 Y54.039 E18.84881
G1 X68.584 Y54.344 E18.86995
G1 X68.808 Y54.699 E18.89113
G1 X68.96 Y55.089 E18.91225
G1 X69.043 Y55.623 E18.93952
G1 X69.054 Y56.016 E18.95937
G1 X69.054 Y59.697 E19.14513
G1 X69.05 Y60.969 E19.20932
G1 X69.056 Y61.747 E19.24858
G1 X69.115 Y64.488 E19.38694
G1 X69.124 Y64.693 E19.3973
G1 X69.164 Y66.016 E19.46409
G1 X69.165 Y70.909 E19.71102
G1 X69.156 Y71.636 E19.74771
G1 X69.111 Y72.053 E19.76888
G1 X68.988 Y72.453 E19.79
G1 X68.791 Y72.823 E19.81115
G1 X68.527 Y73.149 E19.83232
G1 X68.207 Y73.419 E19.85345
G1 X67.841 Y73.623 E19.87459
G1 X67.443 Y73.754 E19.89574
G1 X66.743 Y73.816 E19.9312
G1 X65.926 Y73.817 E19.97243
G1 X65.216 Y73.807 E20.00827
G1 X64.799 Y73.761 E20.02944
G1 X64.399 Y73.637 E20.05057
G1 X63.888 Y73.337 E20.08048
G1 X63.285 Y72.863 E20.11918
G1 X62.36 Y72.114 E20.17925
G1 X60.125 Y70.409 E20.32111
G1 X57.907 Y68.814 E20.45898
G1 X55.641 Y67.278 E20.59713
G1 X54.7 Y66.678 E20.65345
G1 X53.905 Y66.152 E20.70156
G1 X53.398 Y65.77 E20.73359
G1 X52.922 Y65.337 E20.76606
G1 X52.845 Y65.258 E20.77163
G1 X51.975 Y64.31 E20.83657
G1 X50.071 Y62.29 E20.97665
G1 X48.126 Y60.343 E21.11554
G1 X45.929 Y58.267 E21.26808
G1 X45.446 Y57.815 E21.30146
G1 X45.104 Y57.446 E21.32685
G1 X44.578 Y56.761 E21.37043
G1 X44.361 Y56.436 E21.39015
G1 X43.304 Y54.79 E21.48887
G1 X41.769 Y52.545 E21.62612
G1 X40.123 Y50.277 E21.76754
G1 X37.848 Y47.351 E21.95458
G1 X37.448 Y46.855 E21.98674
G1 X37.218 Y46.505 E22.00787
G1 X37.057 Y46.118 E22.02903
G1 X36.962 Y45.535 E22.05884
G1 X36.951 Y45.119 E22.07984
G1 X36.95 Y44.43 E22.11461
G1 X36.959 Y43.738 E22.14953
G1 X37.005 Y43.322 E22.17065
G1 X37.128 Y42.921 E22.19182
G1 X37.272 Y42.651 E22.20726
G0 F1080 X37.325 Y42.552
G0 X37.589 Y42.226
G0 F1440 X39.45 Y44.057
;TYPE:SUPPORT
G1 F1200 X45.025 Y44.057 E22.62928
G1 X45.613 Y44.168 E22.67458
G1 X49.278 Y44.168 E22.95201
G1 X49.277 Y46.364 E23.11824
G1 X48.72 Y46.48 E23.16131
G1 X48.091 Y46.68 E23.21127
G1 X47.596 Y46.884 E23.2518
G1 X47.081 Y47.156 E23.29589
G1 X46.651 Y46.562 E23.3514
G1 X46.292 Y46.195 E23.39026
G1 X46.127 Y46.056 E23.40659
G1 X45.671 Y45.695 E23.45062
G1 X45.637 Y45.687 E23.45326
G1 X45.174 Y45.248 E23.50156
G1 X42.019 Y45.12 E23.74058
G1 X41.398 Y45.179 E23.7878
G1 X39.451 Y45.179 E23.93519
G1 X39.45 Y44.412 E23.99325
G0 F1080 X39.45 Y44.057
G0 F1440 X43.64 Y44.282
G1 F1200 X43.64 Y44.96 E24.04457
G1 F1500 E23.44457
G0 F1440 X50.425 Y43.215
G0 X55.735 Y43.215
G0 X67.507 Y55.033
G0 X67.507 Y60.343
G0 X64.357 Y61.491
G1 F1500 E24.80155
G1 F1200 X66.554 Y61.49 E24.96786
G1 X66.554 Y65.156 E25.24537
G1 X66.665 Y65.744 E25.29066
G1 X66.665 Y71.318 E25.7126
G1 X65.543 Y71.317 E25.79754
G1 X65.543 Y69.248 E25.95416
G1 X65.733 Y68.662 E26.00079
G1 X65.498 Y66.754 E26.14631
G1 X65.388 Y66.189 E26.18989
G1 X65.243 Y65.829 E26.21926
G1 X64.841 Y64.86 E26.29868
G1 X64.435 Y64.325 E26.34952
G1 X63.856 Y63.88 E26.40479
G1 X63.565 Y63.688 E26.43119
G1 X63.811 Y63.226 E26.47081
G1 X64.092 Y62.539 E26.52699
G1 X64.242 Y62.047 E26.56593
G1 X64.285 Y61.839 E26.58201
G0 F1080 X64.357 Y61.491
G0 F1440 X65.46 Y61.715
G1 F1200 X65.46 Y65.765 E26.88858
G0 F1440 X65.332 Y65.46
G1 F1200 X66.383 Y65.46 E26.96814
G0 F1440 X66.44 Y70.915
G1 F1200 X65.768 Y70.915 E27.01901
G1 F1500 E26.41901
;MESH:7inch_20_CamMuont.stl
G0 F1440 X67.507 Y60.343
G0 X67.507 Y55.033
G0 X55.609 Y54.454
G0 X54.419 Y53.948
G0 X53.894 Y51.903
G0 X52.919 Y49.773
;TYPE:WALL-INNER
G1 F1500 E27.77599
G1 F1200 X52.653 Y49.586 E27.7924
G1 X52.415 Y49.419 E27.80707
G1 X52.33 Y49.381 E27.81177
G1 X52.068 Y49.263 E27.82627
G1 X52.001 Y49.233 E27.82998
G1 X52.077 Y49.241 E27.83021
G1 X52.077 Y48.452 E27.87003
G1 X52.077 Y48.187 E27.8834
G1 X52.077 Y47.58 E27.91403
G1 X52.078 Y44.868 E28.0509
G1 X52.382 Y44.868 E28.06624
G1 X52.382 Y47.58 E28.17068
G1 X52.424 Y48.187 E28.19578
G1 X52.475 Y48.447 E28.20828
G1 X52.55 Y48.823 E28.22763
G1 X52.686 Y49.229 E28.24924
G1 X52.715 Y49.318 E28.25205
G1 X52.756 Y49.438 E28.25461
G1 X52.919 Y49.773 E28.2602
G0 F1440 X50.947 Y49.21
G0 X50.932 Y49.308
G1 F1200 X50.382 Y49.267 E28.28803
G1 X49.833 Y49.308 E28.31582
G1 X49.287 Y49.436 E28.34412
G1 X48.548 Y49.768 E28.385
G1 X48.083 Y50.095 E28.41369
G1 X47.522 Y50.678 E28.45452
G1 X47.213 Y51.154 E28.48316
G1 X46.908 Y51.913 E28.52444
G1 X46.782 Y52.73 E28.56616
G1 X46.845 Y53.553 E28.60781
G1 X47.091 Y54.334 E28.64913
G1 X47.363 Y54.833 E28.67781
G1 X47.879 Y55.458 E28.71871
G1 X48.316 Y55.819 E28.74732
G1 X49.034 Y56.211 E28.7886
G1 X49.833 Y56.429 E28.8304
G1 X50.65 Y56.46 E28.87166
G1 X51.202 Y56.375 E28.89984
G1 X51.735 Y56.207 E28.92805
G1 X52.448 Y55.819 E28.96901
G1 X52.885 Y55.458 E28.99761
G1 X53.406 Y54.827 E29.03891
G1 X53.768 Y54.093 E29.08021
G1 X53.92 Y53.546 E29.10886
G1 X53.982 Y52.73 E29.15016
G1 X53.856 Y51.913 E29.19188
G1 X53.55 Y51.155 E29.23313
G1 X53.242 Y50.679 E29.26174
G1 X52.681 Y50.095 E29.30261
G1 X52.216 Y49.768 E29.3313
G1 X51.477 Y49.436 E29.37218
G1 X51.45 Y49.429 E29.37359
G0 F1080 X50.932 Y49.308
G0 F1440 X50.871 Y49.705
;TYPE:WALL-OUTER
G1 F1200 X50.382 Y49.668 E29.39834
G1 X49.894 Y49.705 E29.42303
G1 X49.416 Y49.817 E29.44781
G1 X48.747 Y50.117 E29.48481
G1 X48.345 Y50.4 E29.50962
G1 X47.837 Y50.928 E29.5466
G1 X47.57 Y51.339 E29.57133
G1 X47.296 Y52.02 E29.60837
G1 X47.184 Y52.745 E29.6454
G1 X47.24 Y53.477 E29.68244
G1 X47.461 Y54.177 E29.71949
G1 X47.696 Y54.608 E29.74426
G1 X48.163 Y55.174 E29.78129
G1 X48.541 Y55.486 E29.80603
G1 X49.185 Y55.837 E29.84304
G1 X49.894 Y56.031 E29.88014
G1 X50.627 Y56.059 E29.91715
G1 X51.111 Y55.984 E29.94187
G1 X51.578 Y55.837 E29.96658
G1 X52.223 Y55.486 E30.00364
G1 X52.601 Y55.174 E30.02837
G1 X53.068 Y54.608 E30.0654
G1 X53.393 Y53.95 E30.10244
G1 X53.524 Y53.477 E30.12721
G1 X53.58 Y52.745 E30.16425
G1 X53.468 Y52.02 E30.20128
G1 X53.193 Y51.34 E30.23829
G1 X52.927 Y50.928 E30.26304
G1 X52.419 Y50.4 E30.30002
G1 X52.017 Y50.117 E30.32483
G1 X51.387 Y49.834 E30.35968
G0 F1080 X51.348 Y49.817
G0 X50.871 Y49.705
G0 F1440 X50.672 Y49.69
G0 X50.706 Y49.251
G0 X50.711 Y49.192
G0 X51.703 Y48.824
G0 X51.677 Y48.573
;TYPE:WALL-INNER
G1 F1200 X51.678 Y44.468 E30.56684
G1 X52.782 Y44.468 E30.62255
G1 X54.482 Y44.468 E30.70834
G1 X54.482 Y44.768 E30.72348
G1 X52.782 Y44.768 E30.78799
G1 X52.782 Y47.566 E30.92919
G1 X52.821 Y48.134 E30.95792
G1 X52.937 Y48.72 E30.98807
G1 X53.127 Y49.286 E31.0182
G1 X53.387 Y49.82 E31.04817
G1 X53.549 Y50.08 E31.06363
G1 X53.867 Y50.527 E31.09131
G1 X54.138 Y50.991 E31.11843
G1 X54.331 Y51.443 E31.14323
G1 X54.473 Y51.926 E31.16864
G1 X54.558 Y52.439 E31.19488
G1 X54.58 Y52.942 E31.22029
G1 X54.539 Y53.464 E31.24672
G1 X54.438 Y53.953 E31.27191
G1 X54.279 Y54.43 E31.29729
