;FLAVOR:Marlin
;TIME:1887
;Filament used: 1.44675m
;Layer height: 0.12
;MINX:40.045
;MINY:40.42
;MINZ:0.3
;MAXX:79.581
;MAXY:79.956
;MAXZ:9.9
;Generated with Cura_SteamEngine 4.7.1
M104 S210
M105
M109 S210
M82 ;absolute extrusion mode
;Sliced at: Mon 06-12-2021 09:18:47
G21 ;metric values
G90 ;absolute positioning
M82 ;set extruder to absolute mode
M107 ;start with the fan off
G1 Z5.0 F1800 ;move Z to 5mm
G28 X0 Y0 F1800 ;move X/Y to min endstops
G28 Z0 ;move Z to min endstop
G92 E0 ;zero the extruded length
G1 F200 E6.0 ;extrude 6.0mm of feed stock to build pressure
G1 Z5.0 F300 ;move the platform down 5mm
G92 E0 ;zero the extruded length again
G1 F1800
;Put printing message on LCD screen
M117 Printing...
G92 E0
G92 E0
G1 F1500 E-5
;LAYER_COUNT:81
;LAYER:0
M107
G0 F1350 X46.944 Y42.228 Z0.3
;TYPE:SKIRT
G1 F1500 E0.72757
G1 F900 X47.411 Y41.775 E0.76327
G1 X47.882 Y41.373 E0.79725
G1 X48.402 Y41.035 E0.83129
G1 X48.96 Y40.767 E0.86526
G1 X49.548 Y40.574 E0.89922
G1 X50.157 Y40.457 E0.93326
G1 X50.775 Y40.42 E0.96723
G1 X51.393 Y40.463 E1.00123
G1 X52 Y40.585 E1.03521
G1 X52.586 Y40.784 E1.06917
G1 X53.142 Y41.057 E1.10316
G1 X53.659 Y41.399 E1.13718
G1 X54.043 Y41.725 E1.16483
G1 X54.385 Y42.05 E1.19072
G1 X77.756 Y65.419 E3.00448
G1 X78.225 Y65.902 E3.04143
G1 X78.627 Y66.373 E3.07541
G1 X78.964 Y66.892 E3.10937
G1 X79.233 Y67.451 E3.14342
G1 X79.427 Y68.039 E3.1774
G1 X79.543 Y68.647 E3.21137
G1 X79.581 Y69.265 E3.24535
G1 X79.539 Y69.883 E3.27934
G1 X79.417 Y70.491 E3.31337
G1 X79.218 Y71.077 E3.34734
G1 X78.945 Y71.633 E3.38133
G1 X78.603 Y72.15 E3.41535
G1 X78.088 Y72.738 E3.45824
G1 X77.97 Y72.86 E3.46756
G1 X72.713 Y78.116 E3.87552
G1 X72.221 Y78.595 E3.9132
G1 X71.751 Y78.998 E3.94718
G1 X71.232 Y79.336 E3.98117
G1 X70.674 Y79.605 E4.01516
G1 X70.086 Y79.8 E4.04916
G1 X69.478 Y79.918 E4.08315
G1 X68.86 Y79.956 E4.11713
G1 X68.242 Y79.914 E4.15112
G1 X67.635 Y79.793 E4.18509
G1 X67.048 Y79.595 E4.21909
G1 X66.491 Y79.323 E4.25311
G1 X65.974 Y78.982 E4.28709
G1 X65.592 Y78.659 E4.31455
G1 X65.258 Y78.343 E4.33978
G1 X41.872 Y54.953 E6.15495
G1 X41.405 Y54.473 E6.1917
G1 X41.002 Y54.002 E6.22572
G1 X40.664 Y53.484 E6.25966
G1 X40.395 Y52.926 E6.29366
G1 X40.2 Y52.338 E6.32765
G1 X40.083 Y51.729 E6.36169
G1 X40.045 Y51.111 E6.39566
G1 X40.087 Y50.493 E6.42966
G1 X40.208 Y49.886 E6.46363
G1 X40.406 Y49.299 E6.49762
G1 X40.678 Y48.743 E6.53159
G1 X41.02 Y48.226 E6.56561
G1 X41.36 Y47.825 E6.59446
G1 X41.685 Y47.485 E6.62027
G1 X46.568 Y42.604 E6.99917
G0 F810 X46.944 Y42.228
G0 F1350 X47.222 Y42.515
G1 F900 X47.689 Y42.062 E7.03488
G1 X48.142 Y41.679 E7.06743
G1 X48.642 Y41.36 E7.09998
G1 X49.18 Y41.111 E7.13251
G1 X49.747 Y40.937 E7.16506
G1 X50.332 Y40.84 E7.1976
G1 X50.925 Y40.823 E7.23016
G1 X51.514 Y40.886 E7.26267
G1 X52.09 Y41.028 E7.29523
G1 X52.641 Y41.246 E7.32775
G1 X53.159 Y41.536 E7.36032
G1 X53.769 Y42.016 E7.40292
G1 X54.102 Y42.333 E7.42815
G1 X77.469 Y65.698 E9.24161
G1 X77.938 Y66.181 E9.27856
G1 X78.321 Y66.633 E9.31107
G1 X78.64 Y67.133 E9.34362
G1 X78.889 Y67.671 E9.37615
G1 X79.064 Y68.238 E9.40872
G1 X79.161 Y68.823 E9.44126
G1 X79.178 Y69.415 E9.47376
G1 X79.115 Y70.005 E9.50633
G1 X78.974 Y70.581 E9.53887
G1 X78.756 Y71.132 E9.57139
G1 X78.466 Y71.65 E9.60397
G1 X78 Y72.246 E9.64549
G1 X77.687 Y72.577 E9.67049
G1 X72.434 Y77.83 E10.07818
G1 X71.942 Y78.309 E10.11586
G1 X71.491 Y78.693 E10.14837
G1 X70.991 Y79.013 E10.18095
G1 X70.453 Y79.262 E10.21348
G1 X69.887 Y79.438 E10.24601
G1 X69.302 Y79.535 E10.27855
G1 X68.709 Y79.553 E10.31111
G1 X68.12 Y79.491 E10.34361
G1 X67.544 Y79.35 E10.37616
G1 X66.992 Y79.134 E10.40869
G1 X66.474 Y78.845 E10.44124
G1 X65.865 Y78.367 E10.48372
G1 X65.541 Y78.06 E10.50822
G1 X42.158 Y54.674 E12.32311
G1 X41.691 Y54.194 E12.35987
G1 X41.307 Y53.742 E12.39241
G1 X40.988 Y53.243 E12.42492
G1 X40.738 Y52.705 E12.45747
G1 X40.563 Y52.139 E12.48999
G1 X40.466 Y51.554 E12.52253
G1 X40.448 Y50.961 E12.55509
G1 X40.51 Y50.371 E12.58764
G1 X40.651 Y49.795 E12.62019
G1 X40.868 Y49.243 E12.65274
G1 X41.157 Y48.726 E12.68524
G1 X41.651 Y48.1 E12.72901
G1 X41.968 Y47.767 E12.75424
G1 X46.846 Y42.891 E13.13274
G0 F810 X47.222 Y42.515
G0 F1350 X47.501 Y42.802
G1 F900 X47.968 Y42.349 E13.16845
G1 X48.401 Y41.985 E13.19949
G1 X48.88 Y41.686 E13.23048
G1 X49.397 Y41.457 E13.26151
G1 X49.941 Y41.303 E13.29254
G1 X50.501 Y41.228 E13.32355
G1 X51.067 Y41.232 E13.35461
G1 X51.626 Y41.316 E13.38563
G1 X52.167 Y41.478 E13.41662
G1 X52.681 Y41.715 E13.44769
G1 X53.156 Y42.022 E13.47872
G1 X53.732 Y42.531 E13.52091
G1 X53.819 Y42.615 E13.52755
G1 X77.182 Y65.976 E15.34069
G1 X77.651 Y66.459 E15.37764
G1 X78.015 Y66.892 E15.40868
G1 X78.314 Y67.371 E15.43967
G1 X78.543 Y67.888 E15.4707
G1 X78.697 Y68.432 E15.50173
G1 X78.773 Y68.992 E15.53274
G1 X78.769 Y69.558 E15.56381
G1 X78.685 Y70.117 E15.59483
G1 X78.523 Y70.659 E15.62587
G1 X78.287 Y71.172 E15.65686
G1 X77.98 Y71.647 E15.6879
G1 X77.502 Y72.193 E15.72772
G1 X77.404 Y72.294 E15.73545
G1 X72.155 Y77.543 E16.14283
G1 X71.663 Y78.022 E16.18051
G1 X71.231 Y78.387 E16.21155
G1 X70.752 Y78.687 E16.24257
G1 X70.236 Y78.917 E16.27357
G1 X69.692 Y79.071 E16.3046
G1 X69.132 Y79.148 E16.33562
G1 X68.567 Y79.144 E16.36662
G1 X68.007 Y79.061 E16.39769
G1 X67.465 Y78.9 E16.42872
G1 X66.952 Y78.664 E16.45971
G1 X66.476 Y78.358 E16.49077
G1 X65.918 Y77.868 E16.53152
G1 X65.823 Y77.777 E16.53874
G1 X42.445 Y54.395 E18.35328
G1 X41.978 Y53.915 E18.39004
G1 X41.613 Y53.483 E18.42107
G1 X41.313 Y53.004 E18.45209
G1 X41.084 Y52.488 E18.48307
G1 X40.929 Y51.944 E18.51411
G1 X40.853 Y51.383 E18.54518
G1 X40.857 Y50.818 E18.57619
G1 X40.94 Y50.259 E18.6072
G1 X41.101 Y49.717 E18.63823
G1 X41.337 Y49.203 E18.66927
G1 X41.643 Y48.728 E18.70028
G1 X42.175 Y48.128 E18.74429
G1 X42.251 Y48.05 E18.75026
G1 X47.125 Y43.178 E19.12846
G0 F810 X47.501 Y42.802
G0 F1350 X47.779 Y43.089
G1 F900 X48.246 Y42.636 E19.16417
G1 X48.658 Y42.292 E19.19362
G1 X49.116 Y42.014 E19.22302
G1 X49.611 Y41.806 E19.25249
G1 X50.131 Y41.674 E19.28193
G1 X50.664 Y41.621 E19.31133
G1 X51.2 Y41.648 E19.34078
G1 X51.726 Y41.754 E19.37023
G1 X52.23 Y41.937 E19.39965
G1 X52.701 Y42.193 E19.42907
G1 X53.22 Y42.598 E19.4652
G1 X53.536 Y42.898 E19.48911
G1 X76.895 Y66.255 E21.30195
G1 X77.364 Y66.738 E21.3389
G1 X77.708 Y67.15 E21.36835
G1 X77.987 Y67.608 E21.39778
G1 X78.194 Y68.102 E21.42718
G1 X78.326 Y68.622 E21.45662
G1 X78.38 Y69.155 E21.48602
G1 X78.353 Y69.691 E21.51547
G1 X78.248 Y70.217 E21.54491
G1 X78.065 Y70.721 E21.57433
G1 X77.809 Y71.192 E21.60375
G1 X77.415 Y71.7 E21.63903
G1 X77.122 Y72.012 E21.66252
G1 X71.911 Y77.223 E22.06695
G1 X71.384 Y77.735 E22.10728
G1 X70.973 Y78.08 E22.13673
G1 X70.516 Y78.359 E22.16611
G1 X70.021 Y78.568 E22.1956
G1 X69.502 Y78.701 E22.225
G1 X68.968 Y78.755 E22.25445
G1 X68.433 Y78.729 E22.28385
G1 X67.907 Y78.624 E22.31329
G1 X67.402 Y78.442 E22.34274
G1 X66.931 Y78.187 E22.37214
G1 X66.412 Y77.783 E22.40823
G1 X66.106 Y77.494 E22.43133
G1 X42.732 Y54.116 E24.24556
G1 X42.265 Y53.636 E24.28232
G1 X41.92 Y53.225 E24.31176
G1 X41.641 Y52.767 E24.3412
G1 X41.433 Y52.273 E24.37061
G1 X41.3 Y51.754 E24.40001
G1 X41.246 Y51.22 E24.42947
G1 X41.272 Y50.684 E24.45892
G1 X41.377 Y50.159 E24.4883
G1 X41.56 Y49.654 E24.51778
G1 X41.815 Y49.182 E24.54722
G1 X42.232 Y48.65 E24.58432
G1 X42.534 Y48.333 E24.60834
G1 X47.403 Y43.465 E24.98619
G0 F810 X47.779 Y43.089
G0 F1350 X48.058 Y43.376
G1 F900 X48.525 Y42.923 E25.0219
G1 X48.915 Y42.601 E25.04965
G1 X49.35 Y42.344 E25.07738
G1 X49.82 Y42.159 E25.1051
G1 X50.314 Y42.05 E25.13286
G1 X50.819 Y42.021 E25.16062
G1 X51.322 Y42.071 E25.18836
G1 X51.811 Y42.2 E25.21612
G1 X52.273 Y42.404 E25.24383
G1 X52.698 Y42.679 E25.27161
G1 X53.184 Y43.114 E25.30741
G1 X53.254 Y43.181 E25.31272
G1 X76.608 Y66.534 E27.12521
G1 X77.077 Y67.017 E27.16216
G1 X77.399 Y67.406 E27.18987
G1 X77.656 Y67.841 E27.2176
G1 X77.842 Y68.312 E27.24539
G1 X77.951 Y68.806 E27.27315
G1 X77.98 Y69.31 E27.30086
G1 X77.93 Y69.813 E27.3286
G1 X77.802 Y70.302 E27.35634
G1 X77.598 Y70.765 E27.3841
G1 X77.323 Y71.189 E27.41184
G1 X76.917 Y71.648 E27.44547
G1 X76.839 Y71.729 E27.45164
G1 X71.597 Y76.97 E27.85844
G1 X71.105 Y77.449 E27.89612
G1 X70.716 Y77.772 E27.92387
G1 X70.281 Y78.029 E27.9516
G1 X69.811 Y78.215 E27.97934
G1 X69.318 Y78.325 E28.00706
G1 X68.813 Y78.355 E28.03482
G1 X68.31 Y78.306 E28.06255
G1 X67.821 Y78.178 E28.09029
G1 X67.358 Y77.975 E28.11804
G1 X66.933 Y77.701 E28.14579
G1 X66.464 Y77.285 E28.18019
G1 X66.389 Y77.212 E28.18594
G1 X43.018 Y53.837 E29.99994
G1 X42.551 Y53.357 E30.03669
G1 X42.229 Y52.968 E30.0644
G1 X41.971 Y52.533 E30.09216
G1 X41.785 Y52.063 E30.1199
G1 X41.676 Y51.57 E30.14761
G1 X41.646 Y51.065 E30.17537
G1 X41.695 Y50.562 E30.2031
G1 X41.823 Y50.073 E30.23084
G1 X42.027 Y49.61 E30.25861
G1 X42.301 Y49.185 E30.28636
G1 X42.756 Y48.678 E30.32375
G1 X42.816 Y48.616 E30.32848
G1 X47.682 Y43.752 E30.70606
G0 F810 X48.058 Y43.376
G1 F1500 E25.70606
;MESH:Deckel-Aufnahme.3mf
G0 F1350 X46.812 Y51.126
;TYPE:WALL-INNER
G1 F1500 E31.43362
G1 F900 X46.952 Y50.986 E31.44449
G1 X50.753 Y47.186 E31.73945
G1 X72.815 Y69.246 E33.45162
G1 X69.013 Y73.049 E33.74674
G1 X68.873 Y73.189 E33.75761
G1 X68.733 Y73.049 E33.76461
G1 X46.952 Y51.266 E35.45513
G1 X46.812 Y51.126 E35.46214
G0 F1350 X46.246 Y51.126
G1 F900 X46.386 Y50.986 E35.473
G1 X50.753 Y46.62 E35.81189
G1 X73.381 Y69.246 E37.56799
G1 X69.013 Y73.615 E37.90704
G1 X68.873 Y73.755 E37.9179
G1 X68.733 Y73.615 E37.92491
G1 X46.386 Y51.266 E39.65936
G1 X46.246 Y51.126 E39.66636
G0 F1350 X45.68 Y51.126
G1 F900 X45.82 Y50.986 E39.67723
G1 X50.753 Y46.054 E40.06004
G1 X73.947 Y69.246 E41.86007
G1 X69.013 Y74.181 E42.24304
G1 X68.873 Y74.321 E42.25391
G1 X68.733 Y74.181 E42.26091
G1 X45.82 Y51.266 E44.03929
G1 X45.68 Y51.126 E44.0463
G0 F1350 X45.255 Y51.267
;TYPE:WALL-OUTER
G1 F900 X45.114 Y51.126 E44.05724
G1 X45.255 Y50.985 E44.06431
G1 X50.753 Y45.488 E44.49097
G1 X74.513 Y69.246 E46.33493
G1 X69.014 Y74.746 E46.76175
G1 X68.873 Y74.887 E46.77269
G1 X68.732 Y74.746 E46.77976
G1 X45.255 Y51.267 E48.60191
G0 F1350 X45.114 Y51.126
G1 F1500 E43.60191
G0 F1350 X47.362 Y51.126
;TYPE:SKIN
G1 F1500 E49.32948
G1 F900 X50.753 Y47.736 E49.59262
G1 X72.265 Y69.246 E51.2621
G1 X68.873 Y72.639 E51.5254
G1 X47.738 Y51.502 E53.16578
G0 F810 X47.362 Y51.126
G1 F1500 E48.16578
G0 F1350 X68.959 Y72.353
G1 F1500 E53.89335
G1 F900 X47.645 Y51.039 E55.54755
G0 F1350 X47.928 Y50.756
G1 F900 X69.242 Y72.071 E57.20179
G0 F1350 X69.525 Y71.788
G1 F900 X48.211 Y50.473 E58.85603
G0 F1350 X48.494 Y50.191
G1 F900 X69.808 Y71.505 E60.51023
G0 F1350 X70.091 Y71.222
G1 F900 X48.776 Y49.908 E62.16446
G0 F1350 X49.059 Y49.625
G1 F900 X70.374 Y70.939 E63.8187
G0 F1350 X70.656 Y70.656
G1 F900 X49.342 Y49.342 E65.4729
G0 F1350 X49.625 Y49.059
G1 F900 X70.939 Y70.374 E67.12714
G0 F1350 X71.222 Y70.091
G1 F900 X49.908 Y48.776 E68.78138
G0 F1350 X50.191 Y48.494
G1 F900 X71.505 Y69.808 E70.43558
G0 F1350 X71.788 Y69.525
M104 S202
G1 F900 X50.473 Y48.211 E72.08982
G1 X50.403 Y48.141
G1 F1500 E67.08982
;MESH:NONMESH
G0 F600 X50.403 Y48.141 Z0.42
G0 F1350 X68.711 Y73.344
;TIME_ELAPSED:93.191547
;LAYER:1
M106 S127.5
;TYPE:WALL-INNER
;MESH:Deckel-Aufnahme.3mf
G1 F1500 E72.81738
G1 F2070 X68.627 Y73.26 E72.81999
G1 X46.793 Y51.425 E73.49783
G1 X46.653 Y51.285 E73.50218
G1 X46.793 Y51.145 E73.50498
G1 X50.772 Y47.167 E73.62849
G1 X72.834 Y69.227 E74.31336
G1 X68.911 Y73.151 E74.43516
G1 X68.827 Y73.235 E74.43777
G1 X68.823 Y73.231 E74.43789
G1 X68.711 Y73.344 E74.43999
G0 F2475 X68.712 Y73.911
G1 F2070 X68.628 Y73.827 E74.44259
G1 X46.227 Y51.425 E75.13803
G1 X46.087 Y51.285 E75.14238
G1 X46.227 Y51.145 E75.14518
G1 X50.772 Y46.601 E75.28626
G1 X73.4 Y69.227 E75.9887
G1 X68.911 Y73.717 E76.12808
G1 X68.827 Y73.801 E76.13069
G1 X68.824 Y73.798 E76.13078
G1 X68.712 Y73.911 E76.13287
G0 F2475 X68.713 Y74.478
G1 F2070 X68.629 Y74.394 E76.13548
G1 X45.661 Y51.425 E76.84852
G1 X45.521 Y51.285 E76.85287
G1 X45.661 Y51.145 E76.85567
G1 X50.772 Y46.035 E77.01432
G1 X73.966 Y69.227 E77.73434
G1 X68.911 Y74.283 E77.89128
G1 X68.827 Y74.367 E77.89389
G1 X68.825 Y74.365 E77.89395
G1 X68.713 Y74.478 E77.89605
G0 F2475 X68.826 Y74.932
;TYPE:WALL-OUTER
G1 F1260 X68.714 Y75.045 E77.89954
G1 X68.63 Y74.96 E77.90216
G1 X68.352 Y74.681 E77.91081
G1 X45.059 Y51.389 E78.63391
G1 X44.956 Y51.286 E78.63711
G1 X45.032 Y51.21 E78.63947
G1 X45.032 Y51.208 E78.63951
G1 X45.135 Y51.105 E78.64271
G1 X50.772 Y45.469 E78.81769
G1 X74.532 Y69.227 E79.55527
G1 X68.911 Y74.849 E79.72979
G1 X68.827 Y74.933 E79.73183
G1 X68.826 Y74.932
G0 F2475 X68.714 Y75.045
G0 X68.686 Y75.016
G0 X68.715 Y74.423
G1 F1500 E74.73183
G0 F2475 X68.709 Y72.792
;TYPE:SKIN
G1 F1500 E80.4594
G1 F1050 X47.203 Y51.285 E81.12705
G1 X50.772 Y47.717 E81.23784
G1 X72.284 Y69.227 E81.90563
G1 X69.65 Y71.861 E81.9874
G0 F945 X68.827 Y72.685
G0 X68.821 Y72.679
G0 X68.709 Y72.792
G0 F2475 X68.485 Y72.37
G1 F1050 X71.857 Y68.998 E82.09208
G0 F2475 X71.574 Y68.715
G1 F1050 X68.202 Y72.087 E82.19677
G0 F2475 X67.919 Y71.804
G1 F1050 X71.291 Y68.432 E82.30145
G0 F2475 X71.009 Y68.149
G1 F1050 X67.636 Y71.521 E82.40614
G0 F2475 X67.354 Y71.238
G1 F1050 X70.726 Y67.866 E82.51083
G0 F2475 X70.443 Y67.583
G1 F1050 X67.071 Y70.956 E82.61552
G0 F2475 X66.788 Y70.673
G1 F1050 X70.16 Y67.301 E82.72021
G0 F2475 X69.877 Y67.018
G1 F1050 X66.505 Y70.39 E82.82489
G0 F2475 X66.222 Y70.107
G1 F1050 X69.594 Y66.735 E82.92957
G0 F2475 X69.312 Y66.452
G1 F1050 X65.939 Y69.824 E83.03427
G0 F2475 X65.656 Y69.541
G1 F1050 X69.029 Y66.169 E83.13896
G0 F2475 X68.746 Y65.886
G1 F1050 X65.374 Y69.258 E83.24364
G0 F2475 X65.091 Y68.976
G1 F1050 X68.463 Y65.603 E83.34834
G0 F2475 X68.18 Y65.321
G1 F1050 X64.808 Y68.693 E83.45302
G0 F2475 X64.525 Y68.41
G1 F1050 X67.897 Y65.038 E83.5577
G0 F2475 X67.614 Y64.755
G1 F1050 X64.242 Y68.127 E83.66239
G0 F2475 X63.959 Y67.844
G1 F1050 X67.332 Y64.472 E83.76708
G0 F2475 X67.049 Y64.189
G1 F1050 X63.677 Y67.561 E83.87177
G0 F2475 X63.394 Y67.279
G1 F1050 X66.766 Y63.906 E83.97646
G0 F2475 X66.483 Y63.624
G1 F1050 X63.111 Y66.996 E84.08114
G0 F2475 X62.828 Y66.713
G1 F1050 X66.2 Y63.341 E84.18583
G0 F2475 X65.917 Y63.058
G1 F1050 X62.545 Y66.43 E84.29051
G0 F2475 X62.262 Y66.147
G1 F1050 X65.635 Y62.775 E84.3952
G0 F2475 X65.352 Y62.492
G1 F1050 X61.98 Y65.864 E84.49989
G0 F2475 X61.697 Y65.582
G1 F1050 X65.069 Y62.209 E84.60458
G0 F2475 X64.786 Y61.926
G1 F1050 X61.414 Y65.299 E84.70928
G0 F2475 X61.131 Y65.016
G1 F1050 X64.503 Y61.644 E84.81396
G0 F2475 X64.22 Y61.361
G1 F1050 X60.848 Y64.733 E84.91864
G0 F2475 X60.565 Y64.45
G1 F1050 X63.938 Y61.078 E85.02334
G0 F2475 X63.655 Y60.795
G1 F1050 X60.282 Y64.167 E85.12804
G0 F2475 X60 Y63.884
G1 F1050 X63.372 Y60.512 E85.23272
G0 F2475 X63.089 Y60.229
G1 F1050 X59.717 Y63.602 E85.33742
G0 F2475 X59.434 Y63.319
G1 F1050 X62.806 Y59.947 E85.4421
G0 F2475 X62.523 Y59.664
G1 F1050 X59.151 Y63.036 E85.54678
G0 F2475 X58.868 Y62.753
G1 F1050 X62.24 Y59.381 E85.65146
G0 F2475 X61.958 Y59.098
G1 F1050 X58.585 Y62.47 E85.75616
G0 F2475 X58.303 Y62.187
G1 F1050 X61.675 Y58.815 E85.86084
G0 F2475 X61.391 Y58.533
G1 F1050 X58.02 Y61.905 E85.96551
G0 F2475 X57.737 Y61.622
G1 F1050 X61.108 Y58.25 E86.07017
G0 F2475 X60.826 Y57.967
G1 F1050 X57.454 Y61.339 E86.17485
G0 F2475 X57.171 Y61.056
G1 F1050 X60.543 Y57.685 E86.27952
G0 F2475 X60.26 Y57.402
G1 F1050 X56.888 Y60.773 E86.38419
G0 F2475 X56.606 Y60.49
G1 F1050 X59.977 Y57.119 E86.48884
G0 F2475 X59.694 Y56.836
G1 F1050 X56.323 Y60.208 E86.5935
G0 F2475 X56.04 Y59.925
G1 F1050 X59.411 Y56.553 E86.69817
G0 F2475 X59.128 Y56.27
G1 F1050 X55.757 Y59.642 E86.80284
G0 F2475 X55.474 Y59.359
G1 F1050 X58.846 Y55.988 E86.9075
G0 F2475 X58.563 Y55.705
G1 F1050 X55.191 Y59.076 E87.01217
G0 F2475 X54.908 Y58.793
G1 F1050 X58.28 Y55.422 E87.11683
G0 F2475 X57.997 Y55.139
G1 F1050 X54.626 Y58.51 E87.22148
G0 F2475 X54.343 Y58.228
G1 F1050 X57.714 Y54.856 E87.32615
G0 F2475 X57.431 Y54.573
G1 F1050 X54.06 Y57.945 E87.43082
G0 F2475 X53.777 Y57.662
