;FLAVOR:Marlin
;TIME:5662
;Filament used: 4.49849m
;Layer height: 0.12
;MINX:25.897
;MINY:25.905
;MINZ:0.3
;MAXX:94.101
;MAXY:94.102
;MAXZ:21.9
;Generated with Cura_SteamEngine 4.6.1
M104 S210
M105
M109 S210
M82 ;absolute extrusion mode
;Sliced at: Thu 14-05-2020 07:29:52
G21 ;metric values
G90 ;absolute positioning
M82 ;set extruder to absolute mode
M107 ;start with the fan off
G1 Z5.0 F1800 ;move Z to 5mm
G28 X0 Y0 F1800 ;move X/Y to min endstops
G28 Z0 ;move Z to min endstop
G92 E0 ;zero the extruded length
G1 F200 E6.0 ;extrude 6.0mm of feed stock to build pressure
G1 Z5.0 F300 ;move the platform down 5mm
G92 E0 ;zero the extruded length again
G1 F1800
;Put printing message on LCD screen
M117 Printing...
G92 E0
G92 E0
G1 F1500 E-5
;LAYER_COUNT:156
;LAYER:0
M107
G0 F900 X82.952 Y51.784 Z0.3
;TYPE:SKIRT
G1 F1500 E0.70678
G1 F900 X83.86 Y52.575 E0.77286
G1 X83.509 Y52.272 E0.79831
G1 X83.018 Y51.842 E0.83413
G0 F810 X82.952 Y51.784
G0 F900 X83.201 Y51.47
G1 X84.286 Y52.415 E0.91309
G1 X85.057 Y53.076 E0.96883
G1 X86.169 Y54.016 E1.04873
G1 X86.968 Y54.681 E1.10578
G1 X88.174 Y55.667 E1.19127
G1 X90.568 Y57.589 E1.35975
G1 X90.99 Y57.985 E1.39151
G1 X91.368 Y58.401 E1.42236
G1 X91.775 Y58.901 E1.45774
G1 X92.105 Y59.366 E1.48903
G1 X92.599 Y60.21 E1.5427
G1 X92.832 Y60.675 E1.57124
G1 X93.053 Y61.201 E1.60256
G1 X93.23 Y61.68 E1.63058
G1 X93.359 Y62.108 E1.65511
G1 X93.526 Y62.864 E1.6976
G1 X93.621 Y63.43 E1.7291
G1 X93.677 Y63.97 E1.75889
G1 X93.701 Y64.611 E1.79409
G1 X93.69 Y65.115 E1.82176
G1 X93.641 Y65.722 E1.85518
G1 X93.576 Y66.221 E1.88279
G1 X93.435 Y66.92 E1.92193
G1 X93.293 Y67.446 E1.95183
G1 X93.111 Y67.98 E1.98279
G1 X92.849 Y68.621 E2.02079
G1 X92.507 Y69.303 E2.06266
G1 X92.139 Y69.915 E2.10185
G1 X91.776 Y70.433 E2.13656
G1 X91.384 Y70.919 E2.17083
G1 X90.92 Y71.421 E2.20835
G1 X90.543 Y71.807 E2.23796
G1 X90.063 Y72.261 E2.27421
G1 X89.578 Y72.67 E2.30903
G1 X88.06 Y73.865 E2.41505
G1 X85.934 Y75.636 E2.56691
G1 X83.859 Y77.469 E2.71885
G1 X81.837 Y79.361 E2.87082
G1 X79.872 Y81.311 E3.02274
G1 X77.965 Y83.318 E3.17467
G1 X76.116 Y85.377 E3.32655
G1 X74.328 Y87.491 E3.47849
G1 X72.899 Y89.293 E3.6047
G1 X72.434 Y89.867 E3.64524
G1 X71.945 Y90.395 E3.68474
G1 X71.246 Y91.091 E3.73887
G1 X70.631 Y91.623 E3.7835
G1 X70.205 Y91.939 E3.81261
G1 X69.614 Y92.327 E3.85141
G1 X69.132 Y92.6 E3.88181
G1 X68.425 Y92.936 E3.92476
G1 X67.91 Y93.138 E3.95512
G1 X67.423 Y93.298 E3.98326
G1 X66.756 Y93.471 E4.02107
G1 X66.123 Y93.592 E4.05644
G1 X65.449 Y93.67 E4.09367
G1 X64.668 Y93.702 E4.13657
G1 X64.093 Y93.686 E4.16814
G1 X63.536 Y93.635 E4.19883
G1 X62.993 Y93.558 E4.22893
G1 X62.414 Y93.435 E4.26142
G1 X61.629 Y93.205 E4.30631
G1 X61.095 Y93.014 E4.33743
G1 X60.541 Y92.768 E4.3707
G1 X60.071 Y92.531 E4.39958
G1 X59.501 Y92.194 E4.43592
G1 X59.042 Y91.878 E4.4665
G1 X58.519 Y91.47 E4.50291
G1 X57.943 Y90.95 E4.54549
G1 X57.667 Y90.661 E4.56742
G1 X57.283 Y90.2 E4.60035
G1 X55.661 Y88.166 E4.74312
G1 X54.708 Y87.001 E4.82572
G1 X53.971 Y86.114 E4.88901
G1 X53.256 Y85.266 E4.94988
G1 X52.36 Y84.222 E5.02538
G1 X51.541 Y83.281 E5.09385
G1 X50.764 Y82.401 E5.15827
G1 X49.942 Y81.488 E5.22569
G1 X49.033 Y80.49 E5.29977
G1 X48.142 Y79.527 E5.37177
G1 X47.641 Y78.994 E5.41192
G1 X46.601 Y77.904 E5.49459
G1 X45.768 Y77.045 E5.56026
G1 X44.739 Y76.001 E5.64071
G1 X44.009 Y75.271 E5.69736
G1 X43.016 Y74.292 E5.77389
G1 X42.287 Y73.584 E5.82966
G1 X41.213 Y72.558 E5.91117
G1 X40.479 Y71.867 E5.96649
G1 X39.352 Y70.823 E6.0508
G1 X38.605 Y70.143 E6.10624
G1 X37.526 Y69.174 E6.18583
G1 X36.741 Y68.48 E6.24333
G1 X35.646 Y67.526 E6.32303
G1 X34.853 Y66.847 E6.38032
G1 X33.728 Y65.898 E6.46109
G1 X32.964 Y65.264 E6.51558
G1 X31.853 Y64.355 E6.59436
G1 X29.436 Y62.414 E6.76448
G1 X28.999 Y62.003 E6.7974
G1 X28.446 Y61.378 E6.8432
G1 X28.078 Y60.898 E6.87639
G1 X27.789 Y60.47 E6.90473
G1 X27.469 Y59.91 E6.94013
G1 X27.203 Y59.401 E6.97165
G1 X26.954 Y58.82 E7.00634
G1 X26.697 Y58.029 E7.05198
G1 X26.559 Y57.534 E7.08018
G1 X26.449 Y57.023 E7.10887
G1 X26.371 Y56.514 E7.13712
G1 X26.31 Y55.842 E7.17416
G1 X26.297 Y55.444 E7.19601
G1 X26.31 Y54.874 E7.2273
G1 X26.352 Y54.324 E7.25757
G1 X26.472 Y53.519 E7.30224
G1 X26.628 Y52.825 E7.34127
G1 X26.779 Y52.328 E7.36978
G1 X26.96 Y51.829 E7.39891
G1 X27.223 Y51.224 E7.43511
G1 X27.544 Y50.604 E7.47343
G1 X27.88 Y50.054 E7.5088
G1 X28.205 Y49.592 E7.5398
G1 X28.531 Y49.182 E7.56854
G1 X28.984 Y48.674 E7.6059
G1 X29.697 Y47.946 E7.66182
G1 X30.299 Y47.344 E7.70854
G1 X30.9 Y46.76 E7.75453
G1 X32.076 Y45.782 E7.83847
G1 X34.283 Y43.93 E7.99658
G1 X36.349 Y42.088 E8.14848
G1 X38.361 Y40.186 E8.30043
G1 X40.316 Y38.226 E8.45235
G1 X42.214 Y36.211 E8.60426
G1 X44.054 Y34.142 E8.75621
G1 X45.755 Y32.114 E8.90147
G1 X46.578 Y31.105 E8.97293
G1 X47.414 Y30.229 E9.03938
G1 X48.052 Y29.591 E9.0889
G1 X48.711 Y28.951 E9.13931
G1 X49.26 Y28.467 E9.17948
G1 X49.791 Y28.059 E9.21623
G1 X50.217 Y27.777 E9.24427
G1 X50.902 Y27.385 E9.28758
G1 X51.442 Y27.122 E9.32054
G1 X52.029 Y26.886 E9.35526
G1 X52.552 Y26.709 E9.38556
G1 X53.221 Y26.538 E9.42346
G1 X53.763 Y26.427 E9.45382
G1 X54.277 Y26.357 E9.48229
G1 X54.873 Y26.314 E9.51508
G1 X55.445 Y26.305 E9.54647
G1 X55.939 Y26.316 E9.57359
G1 X56.618 Y26.385 E9.61105
G1 X57.171 Y26.475 E9.64179
G1 X57.72 Y26.6 E9.67269
G1 X58.489 Y26.837 E9.71686
G1 X59.073 Y27.06 E9.75116
G1 X59.669 Y27.332 E9.78711
G1 X60.209 Y27.628 E9.82091
G1 X60.644 Y27.903 E9.84915
G1 X61.002 Y28.155 E9.87318
G1 X61.5 Y28.545 E9.90789
G1 X62.083 Y29.075 E9.95113
G1 X62.588 Y29.643 E9.99284
G1 X63.575 Y30.883 E10.07982
G1 X64.325 Y31.816 E10.14551
G1 X65.274 Y32.977 E10.2278
G1 X66.635 Y34.609 E10.34442
G1 X67.548 Y35.673 E10.42136
G1 X68.341 Y36.583 E10.48761
G1 X69.106 Y37.452 E10.55114
G1 X70.025 Y38.475 E10.62661
G1 X70.907 Y39.443 E10.69848
G1 X71.674 Y40.275 E10.76058
G1 X72.2 Y40.838 E10.80286
G1 X73.335 Y42.027 E10.89307
G1 X74.261 Y42.982 E10.96607
G1 X75.245 Y43.983 E11.04311
G1 X75.943 Y44.682 E11.09732
G1 X77.073 Y45.794 E11.18432
G1 X77.808 Y46.506 E11.24048
G1 X78.793 Y47.447 E11.31524
G1 X79.527 Y48.138 E11.37056
G1 X80.638 Y49.168 E11.4537
G1 X81.377 Y49.842 E11.50859
G1 X82.436 Y50.793 E11.58671
G1 X82.803 Y51.118 E11.61361
G0 F810 X83.201 Y51.47
G0 F900 X83.465 Y51.169
G1 X84.548 Y52.112 E11.69242
G1 X85.316 Y52.771 E11.74795
G1 X86.426 Y53.709 E11.82771
G1 X87.223 Y54.372 E11.8846
G1 X88.426 Y55.356 E11.96989
G1 X90.82 Y57.278 E12.13837
G1 X91.275 Y57.704 E12.17258
G1 X91.663 Y58.132 E12.20428
G1 X92.098 Y58.665 E12.24204
G1 X92.433 Y59.137 E12.2738
G1 X92.632 Y59.452 E12.29425
G1 X92.948 Y60.014 E12.32963
G1 X93.197 Y60.511 E12.36014
G1 X93.428 Y61.061 E12.39288
G1 X93.61 Y61.555 E12.42177
G1 X93.747 Y62.009 E12.4478
G1 X93.919 Y62.788 E12.49158
G1 X94.018 Y63.38 E12.52452
G1 X94.076 Y63.942 E12.55552
G1 X94.101 Y64.62 E12.59276
G1 X94.09 Y65.131 E12.6208
G1 X94.039 Y65.763 E12.6556
G1 X93.974 Y66.26 E12.68311
G1 X93.878 Y66.775 E12.71186
G1 X93.726 Y67.39 E12.74662
G1 X93.489 Y68.111 E12.78828
G1 X93.212 Y68.79 E12.82852
G1 X92.954 Y69.316 E12.86067
G1 X92.632 Y69.885 E12.89655
G1 X92.288 Y70.405 E12.93077
G1 X91.843 Y70.991 E12.97115
G1 X91.499 Y71.391 E13.0001
G1 X90.963 Y71.949 E13.04256
G1 X90.59 Y72.317 E13.07132
G1 X90.176 Y72.693 E13.10201
G1 X89.015 Y73.624 E13.18368
G1 X88.312 Y74.176 E13.23273
G1 X86.194 Y75.94 E13.384
G1 X84.128 Y77.765 E13.53528
G1 X82.115 Y79.649 E13.68659
G1 X80.158 Y81.591 E13.83789
G1 X78.259 Y83.589 E13.98917
G1 X76.418 Y85.64 E14.14042
G1 X74.637 Y87.745 E14.29174
G1 X73.212 Y89.542 E14.4176
G1 X72.736 Y90.128 E14.45903
G1 X72.234 Y90.672 E14.49966
G1 X71.527 Y91.376 E14.55441
G1 X70.876 Y91.939 E14.60164
G1 X70.433 Y92.268 E14.63193
G1 X70.016 Y92.549 E14.65952
G1 X69.498 Y92.857 E14.6926
G1 X69.029 Y93.1 E14.72158
G1 X68.262 Y93.433 E14.76747
G1 X67.546 Y93.679 E14.80902
G1 X67.054 Y93.812 E14.83699
G1 X66.194 Y93.986 E14.88514
G1 X65.479 Y94.069 E14.92464
G1 X64.977 Y94.097 E14.95224
G1 X64.381 Y94.098 E14.98494
G1 X63.5 Y94.033 E15.03342
G1 X62.927 Y93.952 E15.06518
G1 X62.324 Y93.825 E15.099
G1 X61.506 Y93.586 E15.14577
G1 X60.951 Y93.387 E15.17813
G1 X60.371 Y93.13 E15.21294
G1 X59.884 Y92.885 E15.24286
G1 X59.285 Y92.531 E15.28104
G1 X58.808 Y92.202 E15.31284
G1 X58.404 Y91.895 E15.34069
G1 X57.942 Y91.5 E15.37405
G1 X57.528 Y91.101 E15.4056
G1 X57.06 Y90.561 E15.44482
G1 X55.35 Y88.418 E15.59527
G1 X54.399 Y87.255 E15.67772
G1 X53.664 Y86.371 E15.74081
G1 X52.951 Y85.524 E15.80157
G1 X52.058 Y84.484 E15.8768
G1 X51.24 Y83.545 E15.94514
G1 X50.465 Y82.667 E16.00941
G1 X49.646 Y81.757 E16.0766
G1 X48.738 Y80.761 E16.15056
G1 X47.849 Y79.8 E16.22241
G1 X47.35 Y79.268 E16.26244
G1 X46.313 Y78.182 E16.34484
G1 X45.482 Y77.325 E16.41036
G1 X44.455 Y76.283 E16.49065
G1 X43.727 Y75.555 E16.54715
G1 X42.736 Y74.578 E16.62352
G1 X42.009 Y73.872 E16.67913
G1 X40.938 Y72.848 E16.76045
G1 X40.206 Y72.159 E16.81562
G1 X39.081 Y71.118 E16.89973
G1 X38.337 Y70.44 E16.95497
G1 X37.26 Y69.473 E17.03441
G1 X36.477 Y68.781 E17.09175
G1 X35.384 Y67.829 E17.1713
G1 X34.594 Y67.152 E17.2284
G1 X33.471 Y66.205 E17.30901
G1 X32.71 Y65.573 E17.3633
G1 X31.601 Y64.666 E17.44192
G1 X29.184 Y62.725 E17.61204
G1 X28.866 Y62.439 E17.63552
G1 X28.482 Y62.034 E17.66614
G1 X28.143 Y61.639 E17.69471
G1 X27.755 Y61.134 E17.72966
G1 X27.453 Y60.687 E17.75926
G1 X27.121 Y60.107 E17.79594
G1 X26.842 Y59.574 E17.82896
G1 X26.579 Y58.96 E17.86561
G1 X26.316 Y58.149 E17.9124
G1 X26.17 Y57.627 E17.94215
G1 X26.058 Y57.107 E17.97134
G1 X25.974 Y56.565 E18.00144
G1 X25.91 Y55.857 E18.04045
G1 X25.897 Y55.435 E18.06362
G1 X25.91 Y54.869 E18.09469
G1 X25.955 Y54.276 E18.12733
G1 X26.078 Y53.449 E18.17321
G1 X26.242 Y52.721 E18.21417
G1 X26.389 Y52.235 E18.24203
G1 X26.59 Y51.678 E18.27453
G1 X26.791 Y51.203 E18.30283
G1 X27.034 Y50.702 E18.33339
G1 X27.374 Y50.11 E18.37086
G1 X27.73 Y49.564 E18.40663
G1 X28.128 Y49.046 E18.44248
G1 X28.453 Y48.66 E18.47017
G1 X29.414 Y47.663 E18.54616
G1 X30.02 Y47.057 E18.5932
G1 X30.621 Y46.473 E18.63918
G1 X31.827 Y45.469 E18.7253
G1 X34.021 Y43.628 E18.88248
G1 X36.078 Y41.793 E19.03376
G1 X38.082 Y39.899 E19.18508
G1 X40.029 Y37.948 E19.33634
G1 X41.919 Y35.941 E19.48764
G1 X43.751 Y33.881 E19.63893
G1 X45.447 Y31.859 E19.78376
G1 X46.275 Y30.844 E19.85565
G1 X47.131 Y29.946 E19.92373
G1 X47.773 Y29.304 E19.97356
G1 X48.432 Y28.664 E20.02397
G1 X49.012 Y28.153 E20.06639
G1 X49.552 Y27.738 E20.10377
G1 X50.013 Y27.433 E20.1341
G1 X50.715 Y27.032 E20.17847
G1 X51.283 Y26.755 E20.21315
G1 X51.749 Y26.563 E20.24081
G1 X52.292 Y26.372 E20.2724
G1 X52.855 Y26.211 E20.30453
G1 X53.475 Y26.079 E20.33932
G1 X54.03 Y25.981 E20.37025
G1 X54.695 Y25.918 E20.40691
G1 X55.444 Y25.905 E20.44802
G1 X56.665 Y25.988 E20.51518
G1 X57.178 Y26.069 E20.54368
G1 X57.682 Y26.18 E20.57201
G1 X58.113 Y26.292 E20.59644
G1 X58.611 Y26.456 E20.62522
G1 X59.239 Y26.696 E20.66211
G1 X59.844 Y26.972 E20.69861
G1 X60.418 Y27.287 E20.73454
G1 X60.862 Y27.567 E20.76335
G1 X61.249 Y27.84 E20.78934
G1 X61.747 Y28.23 E20.82405
G1 X62.358 Y28.784 E20.86931
G1 X62.664 Y29.112 E20.89393
G1 X63.008 Y29.527 E20.92351
G1 X63.887 Y30.633 E21.00104
G1 X64.636 Y31.564 E21.06662
G1 X65.583 Y32.723 E21.14875
G1 X66.941 Y34.351 E21.2651
G1 X67.851 Y35.411 E21.34177
G1 X68.642 Y36.32 E21.4079
G1 X69.405 Y37.187 E21.47128
G1 X70.321 Y38.206 E21.54647
G1 X71.202 Y39.173 E21.61826
G1 X71.967 Y40.003 E21.68021
G1 X72.492 Y40.564 E21.72237
G1 X73.623 Y41.75 E21.81231
G1 X74.547 Y42.703 E21.88516
G1 X75.529 Y43.701 E21.962
G1 X76.225 Y44.398 E22.01605
G1 X77.352 Y45.508 E22.10286
G1 X78.085 Y46.218 E22.15887
G1 X79.068 Y47.157 E22.23347
G1 X79.8 Y47.846 E22.28864
G1 X80.909 Y48.874 E22.37162
G1 X81.645 Y49.545 E22.42628
G1 X82.702 Y50.494 E22.50424
G1 X83.067 Y50.817 E22.53099
G0 F810 X83.465 Y51.169
G0 F900 X82.308 Y51.752
G1 X81.375 Y50.923 E22.59948
G1 X80.469 Y50.102 E22.66658
G1 X79.541 Y49.252 E22.73564
G1 X78.628 Y48.399 E22.80421
G1 X77.728 Y47.545 E22.8723
G1 X76.845 Y46.693 E22.93964
G1 X75.937 Y45.805 E23.00934
G1 X74.984 Y44.859 E23.08303
G1 X74.105 Y43.973 E23.15152
G1 X73.234 Y43.082 E23.2199
G1 X72.39 Y42.202 E23.28682
G1 X71.651 Y41.424 E23.3457
G1 X70.668 Y40.369 E23.42484
G1 X69.886 Y39.517 E23.4883
G1 X68.992 Y38.529 E23.56143
G1 X68.166 Y37.599 E23.62969
G1 X67.357 Y36.677 E23.697
G1 X66.528 Y35.717 E23.76661
G1 X65.738 Y34.787 E23.83358
G1 X64.926 Y33.815 E23.90309
G1 X64.147 Y32.87 E23.9703
G1 X63.346 Y31.881 E24.04014
G1 X62.397 Y30.692 E24.12363
G1 X61.839 Y29.982 E24.17318
G1 X61.466 Y29.578 E24.20336
G1 X60.874 Y29.06 E24.24653
G1 X60.294 Y28.625 E24.28632
G1 X59.616 Y28.202 E24.33017
G1 X59.291 Y28.032 E24.3503
G1 X58.635 Y27.735 E24.38982
G1 X57.88 Y27.467 E24.43379
G1 X57.53 Y27.372 E24.45369
G1 X56.823 Y27.221 E24.49336
G1 X56.039 Y27.117 E24.53677
G1 X55.666 Y27.098 E24.55726
G1 X54.953 Y27.1 E24.59639
G1 X54.57 Y27.122 E24.61745
G1 X53.791 Y27.23 E24.66061
G1 X53.104 Y27.379 E24.69918
G1 X52.371 Y27.603 E24.74125
G1 X51.732 Y27.862 E24.77909
G1 X50.799 Y28.351 E24.83689
G1 X50.151 Y28.777 E24.87945
G1 X49.636 Y29.183 E24.91544
G1 X48.937 Y29.838 E24.96801
G1 X47.388 Y31.389 E25.08831
G1 X47.006 Y31.837 E25.12062
G1 X46.687 Y32.371 E25.15476
G1 X46.459 Y32.946 E25.1887
G1 X46.335 Y33.519 E25.22088
G1 X46.307 Y33.72 E25.23201
G1 X46.278 Y34.301 E25.26394
G1 X46.347 Y34.917 E25.29795
G1 X46.515 Y35.514 E25.33199
G1 X46.531 Y35.547 E25.334
G1 X46.177 Y35.968 E25.36419
G1 X44.276 Y38.106 E25.52119
G1 X42.331 Y40.171 E25.67687
G1 X40.318 Y42.188 E25.83326
G1 X38.238 Y44.154 E25.99033
G1 X36.121 Y46.044 E26.14607
G1 X35.544 Y46.528 E26.1874
G1 X34.926 Y46.348 E26.22273
G1 X34.309 Y46.279 E26.2568
G1 X33.721 Y46.307 E26.2891
G1 X32.943 Y46.459 E26.33261
G1 X32.366 Y46.688 E26.36667
G1 X31.834 Y47.008 E26.40075
G1 X31.386 Y47.389 E26.43302
G1 X29.755 Y49.022 E26.55968
G1 X29.303 Y49.501 E26.59582
G1 X29.057 Y49.794 E26.61682
G1 X28.623 Y50.374 E26.65657
G1 X28.198 Y51.056 E26.70067
G1 X28.032 Y51.375 E26.72041
G1 X27.734 Y52.033 E26.76005
G1 X27.466 Y52.788 E26.80402
G1 X27.371 Y53.137 E26.82387
G1 X27.22 Y53.846 E26.86365
G1 X27.117 Y54.626 E26.90683
G1 X27.098 Y55 E26.92738
G1 X27.1 Y55.715 E26.96662
G1 X27.122 Y56.1 E26.98778
G1 X27.23 Y56.875 E27.03072
G1 X27.378 Y57.557 E27.06902
G1 X27.601 Y58.286 E27.11086
G1 X27.858 Y58.927 E27.14876
G1 X28.359 Y59.88 E27.20784
G1 X28.811 Y60.559 E27.25261
G1 X29.515 Y61.396 E27.31263
G1 X29.977 Y61.835 E27.3476
G1 X30.982 Y62.628 E27.41786
G1 X31.959 Y63.408 E27.48647
G1 X33.07 Y64.31 E27.565
G1 X33.885 Y64.985 E27.62308
G1 X34.84 Y65.783 E27.69138
G1 X35.788 Y66.59 E27.7597
G1 X36.732 Y67.406 E27.82818
G1 X37.687 Y68.243 E27.89787
G1 X38.598 Y69.052 E27.96473
G1 X39.528 Y69.895 E28.03362
G1 X40.452 Y70.741 E28.10237
G1 X41.353 Y71.583 E28.17004
G1 X42.253 Y72.437 E28.23813
G1 X43.15 Y73.302 E28.30652
G1 X44.042 Y74.174 E28.37498
G1 X44.995 Y75.12 E28.44867
G1 X45.89 Y76.022 E28.5184
G1 X46.758 Y76.91 E28.58655
G1 X47.61 Y77.798 E28.65409
G1 X48.333 Y78.559 E28.71169
G1 X49.327 Y79.626 E28.79172
G1 X50.085 Y80.451 E28.8532
G1 X51.004 Y81.467 E28.92839
G1 X51.818 Y82.384 E28.99568
G1 X52.658 Y83.341 E29.06556
G1 X53.454 Y84.263 E29.13241
G1 X54.279 Y85.233 E29.20229
G1 X55.062 Y86.169 E29.26926
G1 X55.85 Y87.126 E29.33729
G1 X56.626 Y88.083 E29.40491
G1 X58.169 Y90.031 E29.54129
G1 X58.541 Y90.431 E29.57126
G1 X59.125 Y90.941 E29.61381
G1 X59.707 Y91.376 E29.65369
G1 X60.381 Y91.797 E29.6973
G1 X60.707 Y91.967 E29.71748
G1 X61.365 Y92.265 E29.75712
G1 X62.12 Y92.533 E29.80108
G1 X62.47 Y92.628 E29.82099
G1 X63.177 Y92.779 E29.86066
G1 X63.961 Y92.883 E29.90406
G1 X64.334 Y92.902 E29.92456
G1 X65.047 Y92.9 E29.96369
G1 X65.43 Y92.878 E29.98474
G1 X66.208 Y92.77 E30.02785
G1 X66.901 Y92.62 E30.06676
G1 X67.676 Y92.381 E30.11127
G1 X68.663 Y91.947 E30.17044
G1 X69 Y91.771 E30.1913
G1 X69.659 Y91.353 E30.23413
G1 X70.236 Y90.919 E30.27375
G1 X70.858 Y90.365 E30.31947
G1 X71.655 Y89.55 E30.38202
G1 X71.94 Y89.216 E30.40612
G1 X72.159 Y88.923 E30.42619
G1 X72.412 Y88.532 E30.45175
