;FLAVOR:Marlin
;TIME:652
;Filament used: 0.878388m
;Layer height: 0.12
;MINX:36.2
;MINY:51.053
;MINZ:0.3
;MAXX:69.8
;MAXY:68.934
;MAXZ:9.9
;Generated with Cura_SteamEngine 4.7.1
M104 S210
M105
M109 S210
M82 ;absolute extrusion mode
;Sliced at: Tue 30-11-2021 09:59:24
G21 ;metric values
G90 ;absolute positioning
M82 ;set extruder to absolute mode
M107 ;start with the fan off
G1 Z5.0 F1800 ;move Z to 5mm
G28 X0 Y0 F1800 ;move X/Y to min endstops
G28 Z0 ;move Z to min endstop
G92 E0 ;zero the extruded length
G1 F200 E6.0 ;extrude 6.0mm of feed stock to build pressure
G1 Z5.0 F300 ;move the platform down 5mm
G92 E0 ;zero the extruded length again
G1 F1800
;Put printing message on LCD screen
M117 Printing...
G92 E0
G92 E0
G1 F1500 E-5
;LAYER_COUNT:42
;LAYER:0
M107
G0 F1350 X38.091 Y52.051 Z0.3
;TYPE:SKIRT
G1 F1500 E0.72757
G1 F900 X38.606 Y51.707 E0.76155
G1 X39.161 Y51.432 E0.79555
G1 X39.747 Y51.231 E0.82954
G1 X40.354 Y51.107 E0.86354
G1 X40.874 Y51.064 E0.89218
G1 X41.33 Y51.053 E0.91721
G1 X50.383 Y51.053 E1.41403
G1 X51.597 Y51.07 E1.48066
G1 X54.298 Y51.07 E1.62889
G1 X55.006 Y51.055 E1.66775
G1 X55.277 Y51.053 E1.68263
G1 X64.354 Y51.053 E2.18077
G1 X65.053 Y51.062 E2.21913
G1 X65.67 Y51.11 E2.25309
G1 X66.276 Y51.237 E2.28707
G1 X66.861 Y51.441 E2.32107
G1 X67.415 Y51.719 E2.35509
G1 X67.928 Y52.066 E2.38908
G1 X68.393 Y52.475 E2.42306
G1 X68.8 Y52.942 E2.45706
G1 X69.145 Y53.456 E2.49103
G1 X69.42 Y54.011 E2.52502
G1 X69.621 Y54.597 E2.55902
G1 X69.746 Y55.204 E2.59303
G1 X69.789 Y55.727 E2.62183
G1 X69.8 Y56.183 E2.64686
G1 X69.799 Y61.189 E2.92159
G1 X69.788 Y61.918 E2.9616
G1 X69.739 Y62.536 E2.99562
G1 X69.611 Y63.142 E3.02961
G1 X69.405 Y63.726 E3.0636
G1 X69.127 Y64.279 E3.09756
G1 X68.779 Y64.792 E3.13158
G1 X68.368 Y65.255 E3.16556
G1 X67.901 Y65.662 E3.19956
G1 X67.385 Y66.005 E3.23356
G1 X66.83 Y66.279 E3.26753
G1 X66.201 Y66.491 E3.30395
G1 X65.763 Y66.602 E3.32875
G1 X56.695 Y68.682 E3.83932
G1 X56.025 Y68.827 E3.87694
G1 X55.413 Y68.919 E3.9109
G1 X54.863 Y68.934 E3.9411
G1 X54.571 Y68.923 E3.95713
G1 X52.103 Y68.781 E4.0928
G1 X49.409 Y68.703 E4.24071
G1 X46.712 Y68.701 E4.38871
G1 X44.047 Y68.775 E4.53502
G1 X41.277 Y68.929 E4.68727
G1 X40.658 Y68.923 E4.72125
G1 X40.044 Y68.838 E4.75526
G1 X39.447 Y68.674 E4.78924
G1 X38.876 Y68.435 E4.82321
G1 X38.34 Y68.125 E4.85719
G1 X37.849 Y67.748 E4.89116
G1 X37.41 Y67.311 E4.92516
G1 X37.031 Y66.821 E4.95915
G1 X36.718 Y66.286 E4.99317
G1 X36.477 Y65.715 E5.02718
G1 X36.312 Y65.119 E5.06112
G1 X36.212 Y64.277 E5.10765
G1 X36.2 Y63.796 E5.13406
G1 X36.2 Y62.481 E5.20622
G1 X36.206 Y60.94 E5.29079
G1 X36.2 Y60.171 E5.333
G1 X36.2 Y56.463 E5.53649
G1 X36.209 Y55.797 E5.57304
G1 X36.258 Y55.18 E5.60701
G1 X36.385 Y54.574 E5.64099
G1 X36.59 Y53.989 E5.67501
G1 X36.868 Y53.435 E5.70902
G1 X37.214 Y52.922 E5.74298
G1 X37.625 Y52.458 E5.777
G1 X37.69 Y52.401 E5.78174
G0 F810 X38.091 Y52.051
G0 F1350 X38.477 Y52.264
G1 F900 X38.984 Y51.956 E5.8143
G1 X39.527 Y51.719 E5.84681
G1 X40.098 Y51.557 E5.87939
G1 X40.886 Y51.464 E5.92293
G1 X41.33 Y51.453 E5.9473
G1 X50.378 Y51.453 E6.44385
G1 X51.592 Y51.47 E6.51048
G1 X54.307 Y51.47 E6.65948
G1 X55.009 Y51.455 E6.69801
G1 X55.28 Y51.453 E6.71289
G1 X64.349 Y51.453 E7.21059
G1 X65.048 Y51.462 E7.24895
G1 X65.639 Y51.51 E7.28149
G1 X66.218 Y51.637 E7.31402
G1 X66.775 Y51.84 E7.34655
G1 X67.3 Y52.116 E7.3791
G1 X67.782 Y52.461 E7.41163
G1 X68.214 Y52.867 E7.44417
G1 X68.588 Y53.327 E7.4767
G1 X68.896 Y53.834 E7.50926
G1 X69.133 Y54.378 E7.54182
G1 X69.295 Y54.948 E7.57434
G1 X69.389 Y55.739 E7.61806
G1 X69.4 Y56.183 E7.64243
G1 X69.399 Y61.183 E7.91683
G1 X69.388 Y61.912 E7.95684
G1 X69.34 Y62.503 E7.98938
G1 X69.212 Y63.082 E8.02192
G1 X69.007 Y63.639 E8.0545
G1 X68.73 Y64.163 E8.08702
G1 X68.384 Y64.645 E8.11958
G1 X67.977 Y65.076 E8.15212
G1 X67.516 Y65.448 E8.18463
G1 X67.008 Y65.755 E8.2172
G1 X66.464 Y65.991 E8.24974
G1 X65.801 Y66.182 E8.28761
G1 X65.674 Y66.213 E8.29478
G1 X56.664 Y68.28 E8.80209
G1 X55.941 Y68.436 E8.84268
G1 X55.354 Y68.523 E8.87524
G1 X54.712 Y68.529 E8.91048
G1 X54.594 Y68.524 E8.91696
G1 X52.103 Y68.381 E9.05389
G1 X49.421 Y68.303 E9.20114
G1 X46.701 Y68.301 E9.35041
G1 X44.014 Y68.375 E9.49793
G1 X41.255 Y68.529 E9.64957
G1 X40.662 Y68.522 E9.68212
G1 X40.076 Y68.436 E9.71462
G1 X39.506 Y68.271 E9.74719
G1 X38.964 Y68.031 E9.77972
G1 X38.458 Y67.721 E9.81228
G1 X38 Y67.345 E9.8448
G1 X37.595 Y66.911 E9.87738
G1 X37.253 Y66.427 E9.9099
G1 X36.979 Y65.901 E9.94245
G1 X36.779 Y65.343 E9.97498
G1 X36.655 Y64.763 E10.00753
G1 X36.602 Y63.925 E10.05361
G1 X36.6 Y63.796 E10.06069
G1 X36.6 Y62.483 E10.13275
G1 X36.606 Y60.942 E10.21732
G1 X36.6 Y60.168 E10.2598
G1 X36.6 Y56.469 E10.4628
G1 X36.609 Y55.803 E10.49935
G1 X36.657 Y55.212 E10.53189
G1 X36.784 Y54.632 E10.56447
G1 X36.988 Y54.075 E10.59703
G1 X37.265 Y53.551 E10.62955
G1 X37.609 Y53.069 E10.66205
G1 X38.016 Y52.637 E10.69462
G1 X38.064 Y52.598 E10.69802
G0 F810 X38.477 Y52.264
G0 F1350 X38.406 Y52.825
G1 F900 X38.86 Y52.488 E10.72905
G1 X39.357 Y52.219 E10.76006
G1 X39.887 Y52.022 E10.79109
G1 X40.44 Y51.903 E10.82213
G1 X41.218 Y51.855 E10.86491
G1 X41.33 Y51.853 E10.87106
G1 X50.372 Y51.853 E11.36728
G1 X51.586 Y51.87 E11.43391
G1 X54.316 Y51.87 E11.58373
G1 X55.011 Y51.855 E11.62188
G1 X55.282 Y51.853 E11.63675
G1 X64.343 Y51.853 E12.13401
G1 X65.042 Y51.862 E12.17237
G1 X65.606 Y51.91 E12.20344
G1 X66.157 Y52.036 E12.23446
G1 X66.685 Y52.238 E12.26548
G1 X67.179 Y52.513 E12.29651
G1 X67.629 Y52.855 E12.32753
G1 X68.026 Y53.257 E12.35853
G1 X68.363 Y53.711 E12.38956
G1 X68.633 Y54.208 E12.4206
G1 X68.83 Y54.738 E12.45163
G1 X68.95 Y55.29 E12.48263
G1 X68.998 Y56.071 E12.52557
G1 X69 Y56.183 E12.53172
G1 X69 Y61.177 E12.80579
G1 X68.989 Y61.906 E12.8458
G1 X68.94 Y62.47 E12.87687
G1 X68.813 Y63.02 E12.90785
G1 X68.609 Y63.548 E12.93891
G1 X68.333 Y64.041 E12.96992
G1 X67.99 Y64.491 E13.00097
G1 X67.587 Y64.887 E13.03198
G1 X67.133 Y65.223 E13.06297
G1 X66.635 Y65.492 E13.09403
G1 X65.999 Y65.716 E13.13104
G1 X65.584 Y65.823 E13.15456
G1 X56.526 Y67.9 E13.66456
G1 X55.856 Y68.045 E13.70218
G1 X55.296 Y68.126 E13.73323
G1 X54.724 Y68.129 E13.76462
G1 X54.617 Y68.124 E13.7705
G1 X52.137 Y67.981 E13.90682
G1 X49.433 Y67.903 E14.05528
G1 X46.69 Y67.901 E14.20581
G1 X44.017 Y67.975 E14.35256
G1 X41.233 Y68.13 E14.50558
G1 X40.667 Y68.121 E14.53665
G1 X40.109 Y68.033 E14.56765
G1 X39.569 Y67.867 E14.59865
G1 X39.057 Y67.627 E14.62968
G1 X38.584 Y67.317 E14.66072
G1 X38.16 Y66.943 E14.69175
G1 X37.793 Y66.513 E14.72277
G1 X37.49 Y66.036 E14.75378
G1 X37.257 Y65.521 E14.7848
G1 X37.1 Y64.978 E14.81582
G1 X37.012 Y64.254 E14.85585
G1 X37 Y63.796 E14.88099
G1 X37 Y62.484 E14.95299
G1 X37.006 Y60.943 E15.03756
G1 X37 Y60.165 E15.08026
G1 X37 Y56.474 E15.28282
G1 X37.009 Y55.808 E15.31937
G1 X37.057 Y55.245 E15.35038
G1 X37.183 Y54.694 E15.3814
G1 X37.386 Y54.166 E15.41245
G1 X37.662 Y53.672 E15.4435
G1 X38.004 Y53.222 E15.47452
G1 X38.027 Y53.199 E15.4763
G0 F810 X38.406 Y52.825
G0 F1350 X38.794 Y53.024
G1 F900 X39.24 Y52.726 E15.50574
G1 X39.726 Y52.498 E15.5352
G1 X40.24 Y52.345 E15.56463
G1 X40.908 Y52.263 E15.60157
G1 X41.33 Y52.253 E15.62473
G1 X50.366 Y52.253 E16.12062
G1 X51.58 Y52.27 E16.18725
G1 X54.325 Y52.27 E16.33789
G1 X55.014 Y52.255 E16.37572
G1 X55.285 Y52.253 E16.39059
G1 X64.338 Y52.253 E16.88741
G1 X65.037 Y52.262 E16.92577
G1 X65.572 Y52.309 E16.95525
G1 X66.093 Y52.435 E16.98466
G1 X66.59 Y52.637 E17.0141
G1 X67.051 Y52.91 E17.04351
G1 X67.467 Y53.249 E17.07296
G1 X67.828 Y53.645 E17.10236
G1 X68.126 Y54.091 E17.1318
G1 X68.354 Y54.577 E17.16126
G1 X68.507 Y55.091 E17.19069
G1 X68.59 Y55.761 E17.22774
G1 X68.6 Y56.183 E17.25091
G1 X68.6 Y61.171 E17.52465
G1 X68.589 Y61.9 E17.56466
G1 X68.541 Y62.434 E17.59408
G1 X68.414 Y62.956 E17.62356
G1 X68.211 Y63.452 E17.65298
G1 X67.937 Y63.913 E17.68241
G1 X67.597 Y64.328 E17.71185
G1 X67.199 Y64.688 E17.7413
G1 X66.753 Y64.984 E17.77068
G1 X66.267 Y65.212 E17.80014
G1 X65.599 Y65.407 E17.83833
G1 X65.495 Y65.433 E17.84421
G1 X56.441 Y67.51 E18.35399
G1 X55.771 Y67.655 E18.39161
G1 X55.24 Y67.729 E18.42104
G1 X54.737 Y67.729 E18.44864
G1 X54.64 Y67.725 E18.45397
G1 X52.137 Y67.581 E18.59156
G1 X49.445 Y67.503 E18.73935
G1 X46.715 Y67.501 E18.88917
G1 X43.946 Y67.577 E19.04119
G1 X41.21 Y67.73 E19.19158
G1 X40.674 Y67.72 E19.221
G1 X40.146 Y67.631 E19.25038
G1 X39.636 Y67.463 E19.27985
G1 X39.157 Y67.222 E19.30928
G1 X38.719 Y66.913 E19.33869
G1 X38.332 Y66.542 E19.36811
G1 X38.004 Y66.117 E19.39758
G1 X37.743 Y65.649 E19.42698
G1 X37.555 Y65.147 E19.4564
G1 X37.443 Y64.622 E19.48586
G1 X37.402 Y63.902 E19.52544
G1 X37.4 Y63.796 E19.53126
G1 X37.4 Y62.486 E19.60315
G1 X37.406 Y60.945 E19.68772
G1 X37.4 Y60.162 E19.73069
G1 X37.4 Y56.479 E19.93281
G1 X37.409 Y55.813 E19.96936
G1 X37.456 Y55.279 E19.99878
G1 X37.582 Y54.758 E20.0282
G1 X37.785 Y54.261 E20.05766
G1 X38.058 Y53.8 E20.08706
G1 X38.397 Y53.384 E20.11651
G1 X38.4 Y53.381 E20.11675
G0 F810 X38.794 Y53.024
G0 F1350 X39.18 Y53.236
G1 F900 X39.617 Y52.981 E20.14451
G1 X40.088 Y52.797 E20.17226
G1 X40.582 Y52.691 E20.19999
G1 X41.24 Y52.654 E20.23616
G1 X50.361 Y52.653 E20.73671
G1 X51.575 Y52.67 E20.80334
G1 X54.334 Y52.67 E20.95475
G1 X55.017 Y52.655 E20.99224
G1 X55.288 Y52.653 E21.00712
G1 X64.333 Y52.653 E21.5035
G1 X65.032 Y52.662 E21.54186
G1 X65.536 Y52.709 E21.56964
G1 X66.025 Y52.834 E21.59734
G1 X66.489 Y53.035 E21.62509
G1 X66.916 Y53.306 E21.65285
G1 X67.295 Y53.641 E21.68061
G1 X67.616 Y54.031 E21.70833
G1 X67.871 Y54.468 E21.73609
G1 X68.055 Y54.939 E21.76384
G1 X68.162 Y55.433 E21.79158
G1 X68.199 Y56.093 E21.82786
G1 X68.2 Y61.165 E22.10621
G1 X68.189 Y61.894 E22.14622
G1 X68.141 Y62.398 E22.174
G1 X68.015 Y62.887 E22.20172
G1 X67.813 Y63.351 E22.22949
G1 X67.541 Y63.777 E22.25723
G1 X67.205 Y64.155 E22.28498
G1 X66.814 Y64.475 E22.31271
G1 X66.377 Y64.729 E22.34045
G1 X65.797 Y64.942 E22.37436
G1 X65.406 Y65.043 E22.39652
G1 X56.357 Y67.119 E22.90602
G1 X55.687 Y67.264 E22.94364
G1 X55.186 Y67.331 E22.97138
G1 X54.663 Y67.326 E23.00008
G1 X52.172 Y67.183 E23.13701
G1 X49.421 Y67.103 E23.28805
G1 X46.704 Y67.101 E23.43716
G1 X43.949 Y67.177 E23.58841
G1 X41.188 Y67.331 E23.74016
G1 X40.683 Y67.319 E23.76789
G1 X40.186 Y67.228 E23.79561
G1 X39.709 Y67.06 E23.82337
G1 X39.265 Y66.818 E23.85112
G1 X38.864 Y66.51 E23.87887
G1 X38.517 Y66.142 E23.90662
G1 X38.232 Y65.724 E23.93439
G1 X38.017 Y65.267 E23.96211
G1 X37.876 Y64.782 E23.98982
G1 X37.811 Y64.23 E24.02033
G1 X37.8 Y63.796 E24.04415
G1 X37.8 Y62.488 E24.11593
G1 X37.806 Y60.947 E24.2005
G1 X37.8 Y60.159 E24.24375
G1 X37.8 Y56.485 E24.44538
G1 X37.809 Y55.819 E24.48193
G1 X37.856 Y55.315 E24.50971
G1 X37.981 Y54.826 E24.53741
G1 X38.182 Y54.362 E24.56516
G1 X38.454 Y53.935 E24.59294
G1 X38.772 Y53.577 E24.61922
G0 F810 X38.789 Y53.557
G0 X39.18 Y53.236
G1 F1500 E19.61922
;MESH:Deckel-Aufnahme.3mf(1)
G0 F1350 X49.115 Y57.642
;TYPE:WALL-INNER
G1 F1500 E25.34678
G1 F900 X48.696 Y57.447 E25.37215
G1 X47.89 Y57.436 E25.41638
G1 X46.962 Y57.649 E25.46864
G1 X42.643 Y58.641 E25.71183
G1 X42.4 Y58.696 E25.7255
G1 X42.4 Y58.447 E25.73383
G1 X42.4 Y58.446 E25.73389
G1 X42.4 Y57.253 E25.79936
G1 X46.937 Y57.253 E26.04834
G1 X47.89 Y57.253 E26.08659
G1 X48.696 Y57.253 E26.10748
G1 X49.158 Y57.253 E26.12648
G1 X49.6 Y57.253 E26.15073
G1 X49.6 Y57.621 E26.17093
G1 X49.6 Y57.772 E26.17922
G1 X49.6 Y57.947 E26.18882
G1 X49.394 Y57.772 E26.19538
G1 X49.257 Y57.709 E26.20196
G1 X49.115 Y57.642 E26.21058
G0 F1350 X48.605 Y57.846
G1 F900 X47.933 Y57.837 E26.24746
G1 X42.243 Y59.143 E26.56784
G1 X42 Y59.198 E26.58152
G1 X42 Y58.949 E26.58984
G1 X42 Y58.948 E26.5899
G1 X42 Y56.853 E26.70487
G1 X50 Y56.853 E27.1439
G1 X50 Y58.497 E27.23413
G1 X50 Y58.603 E27.23994
G1 X50 Y58.919 E27.25729
G1 X50 Y59.287 E27.27748
G1 X50 Y59.71 E27.30069
G1 X50 Y60.136 E27.32407
G1 X50 Y60.489 E27.34345
G1 X50 Y60.794 E27.36018
G1 X50 Y61.056 E27.37456
G1 X49.791 Y61.104 E27.38633
G1 X49.52 Y61.166 E27.40159
G1 X49.324 Y61.211 E27.41262
G1 X49.495 Y61.06 E27.41527
G1 X49.706 Y60.809 E27.42568
G1 X49.719 Y60.794
G1 X49.862 Y60.489 E27.43599
G1 X49.972 Y60.136 E27.44073
G1 X49.987 Y59.71 E27.44194
G1 X49.966 Y59.287 E27.4433
G1 X49.843 Y58.919 E27.44903
G1 X49.682 Y58.603 E27.46124
G1 X49.612 Y58.524 E27.46648
G1 X49.464 Y58.357 E27.47872
G1 X49.176 Y58.112 E27.49947
G1 X48.672 Y57.877 E27.52999
G0 F810 X48.605 Y57.846
G0 F1350 X48.514 Y58.245
G1 F900 X47.976 Y58.238 E27.55952
G1 X41.843 Y59.645 E27.90484
G1 X41.6 Y59.7 E27.91851
G1 X41.6 Y59.451 E27.92684
G1 X41.6 Y59.45 E27.92689
G1 X41.6 Y56.453 E28.09136
G1 X50.4 Y56.453 E28.5743
G1 X50.4 Y61.375 E28.84442
G1 X41.843 Y63.339 E29.32623
G1 X41.6 Y63.394 E29.3399
G1 X41.6 Y63.145 E29.34823
G1 X41.6 Y63.144 E29.34829
G1 X41.6 Y62.778 E29.36837
G1 X48.326 Y61.235 E29.74708
G1 X48.711 Y61.116 E29.76919
G1 X48.978 Y60.984 E29.78554
G1 X49.208 Y60.78 E29.80241
G1 X49.379 Y60.577 E29.81698
G1 X49.488 Y60.344 E29.83109
G1 X49.574 Y60.068 E29.84696
G1 X49.587 Y59.713 E29.86645
G1 X49.569 Y59.362 E29.88574
G1 X49.473 Y59.074 E29.9024
G1 X49.349 Y58.83 E29.91742
G1 X49.184 Y58.644 E29.93107
G1 X48.99 Y58.479 E29.94504
G0 F810 X48.958 Y58.452
G0 X48.514 Y58.245
G0 F1350 X48.423 Y58.644
;TYPE:WALL-OUTER
G1 F900 X48.019 Y58.639 E29.96722
G1 X41.444 Y60.146 E30.3374
G1 X41.2 Y60.202 E30.35114
G1 X41.2 Y59.952 E30.3595
G1 X41.2 Y59.951 E30.35955
G1 X41.2 Y56.053 E30.57347
G1 X50.8 Y56.053 E31.10031
G1 X50.8 Y61.694 E31.40989
G1 X41.444 Y63.84 E31.93667
G1 X41.2 Y63.896 E31.95041
G1 X41.2 Y63.646 E31.95876
G1 X41.2 Y63.645 E31.95882
G1 X41.2 Y62.459 E32.0239
G1 X48.222 Y60.849 E32.41927
G1 X48.562 Y60.743 E32.43881
G1 X48.753 Y60.649 E32.45049
G1 X48.921 Y60.5 E32.46282
G1 X49.039 Y60.36 E32.47286
G1 X49.114 Y60.199 E32.48261
G1 X49.176 Y60 E32.49405
G1 X49.187 Y59.716 E32.50965
G1 X49.172 Y59.437 E32.52498
G1 X49.103 Y59.228 E32.53706
G1 X49.016 Y59.057 E32.54759
G1 X48.904 Y58.931 E32.55684
G1 X48.88 Y58.91 E32.55859
G0 F810 X48.74 Y58.792
G0 X48.423 Y58.644
G0 F1350 X48.223 Y58.642
G0 X48.229 Y58.202
G1 F1500 E27.55859
G0 F1350 X45.247 Y57.643
;TYPE:SKIN
G1 F1500 E33.28616
G1 F900 X42.79 Y58.207 E33.4245
G1 X42.79 Y57.643 E33.45545
G1 X45.024 Y57.643 E33.57805
G0 F810 X45.247 Y57.643
G1 F1500 E28.57805
G0 F1350 X43.248 Y57.956
G1 F1500 E34.30562
G1 F900 X43.074 Y57.781 E34.31916
G1 F1500 E29.31916
G0 F1350 X44.121 Y62.506
;TYPE:SKIN
G1 F1500 E35.04673
G1 F900 X43.891 Y62.559 E35.05677
G1 X41.998 Y63.025 E35.13967
G0 F810 X41.848 Y63.061
G1 F1500 E30.13967
G0 F1350 X44.351 Y62.453
G1 F1500 E35.86724
G1 F900 X44.581 Y62.4 E35.87749
G1 X48.715 Y61.443 E36.06179
G1 X48.812 Y61.411 E36.06622
G0 F810 X49.14 Y61.303
G1 F1500 E31.06622
G0 F1350 X49.399 Y57.602
G1 F1500 E36.79379
G1 F900 X49.204 Y57.407 E36.80136
G1 F1500 E31.80136
;MESH:Deckel-Aufnahme.3mf
G0 F1350 X63.115 Y57.642
;TYPE:WALL-INNER
G1 F1500 E37.52892
G1 F900 X62.696 Y57.447 E37.55428
G1 X61.89 Y57.436 E37.59852
G1 X60.962 Y57.649 E37.65077
G1 X56.643 Y58.641 E37.89397
G1 X56.4 Y58.696 E37.90764
G1 X56.4 Y58.447 E37.91597
G1 X56.4 Y58.446 E37.91602
G1 X56.4 Y57.253 E37.98149
G1 X60.937 Y57.253 E38.23048
G1 X61.89 Y57.253 E38.26872
G1 X62.696 Y57.253 E38.28962
G1 X63.158 Y57.253 E38.30861
G1 X63.6 Y57.253 E38.33287
G1 X63.6 Y57.621 E38.35307
G1 X63.6 Y57.772 E38.36135
G1 X63.6 Y57.947 E38.37096
G1 X63.394 Y57.772 E38.37752
G1 X63.257 Y57.709 E38.3841
G1 X63.115 Y57.642 E38.39271
G0 F1350 X62.605 Y57.846
G1 F900 X61.933 Y57.837 E38.4296
G1 X56.243 Y59.143 E38.74998
G1 X56 Y59.198 E38.76365
G1 X56 Y58.949 E38.77198
G1 X56 Y58.948 E38.77203
G1 X56 Y56.853 E38.88701
G1 X64 Y56.853 E39.32604
G1 X64 Y58.497 E39.41626
G1 X64 Y58.603 E39.42208
G1 X64 Y58.919 E39.43942
G1 X64 Y59.287 E39.45962
G1 X64 Y59.71 E39.48283
G1 X64 Y60.136 E39.50621
G1 X64 Y60.489 E39.52558
G1 X64 Y60.794 E39.54232
G1 X64 Y61.056 E39.5567
G1 X63.791 Y61.104 E39.56847
G1 X63.52 Y61.166 E39.58372
G1 X63.324 Y61.211 E39.59476
G1 X63.495 Y61.06 E39.5974
G1 X63.706 Y60.809 E39.60782
G1 X63.719 Y60.794
