;FLAVOR:Marlin
;TIME:6719
;Filament used: 5.45828m
;Layer height: 0.12
;MINX:19.314
;MINY:19.323
;MINZ:0.3
;MAXX:99.627
;MAXY:99.624
;MAXZ:39.64
;Generated with Cura_SteamEngine 4.9.0
M104 S225
M105
M109 S225
M82 ;absolute extrusion mode
;Sliced at: Wed 05-05-2021 20:37:43
G21 ;metric values
G90 ;absolute positioning
M82 ;set extruder to absolute mode
M107 ;start with the fan off
G1 Z5.0 F1800 ;move Z to 5mm
G28 X0 Y0 F1800 ;move X/Y to min endstops
G28 Z0 ;move Z to min endstop
G92 E0 ;zero the extruded length
G1 F200 E6.0 ;extrude 6.0mm of feed stock to build pressure
G1 Z5.0 F300 ;move the platform down 5mm
G92 E0 ;zero the extruded length again
G1 F1800
;Put printing message on LCD screen
M117 Printing...
G92 E0
G92 E0
G1 F1500 E-0.6
;LAYER_COUNT:268
;LAYER:0
M106 S102
G0 F1600 X47.916 Y47.869 Z0.3
;TYPE:SKIRT
G1 F1500 E0.75698
G1 F1200 X48.355 Y47.44 E0.78796
G1 X59.754 Y36.535 E1.58405
G1 X60.279 Y36.049 E1.62016
G1 X60.688 Y35.725 E1.64649
G1 X61.282 Y35.405 E1.68054
G1 X63.656 Y34.417 E1.81031
G1 X66.147 Y33.296 E1.94816
G1 X68.622 Y32.098 E2.08692
G1 X71.031 Y30.848 E2.22388
G1 X73.423 Y29.518 E2.362
G1 X75.779 Y28.121 E2.50023
G1 X78.087 Y26.662 E2.63802
G1 X80.349 Y25.141 E2.77558
G1 X82.584 Y23.544 E2.91421
G1 X84.749 Y21.904 E3.05127
G1 X86.543 Y20.469 E3.16721
G1 X87.018 Y20.081 E3.19816
G1 X87.446 Y19.783 E3.22448
G1 X87.914 Y19.554 E3.25077
G1 X88.412 Y19.399 E3.27709
G1 X88.927 Y19.323 E3.30336
G1 X89.448 Y19.326 E3.32966
G1 X89.963 Y19.408 E3.35597
G1 X90.459 Y19.568 E3.38227
G1 X90.925 Y19.802 E3.40859
G1 X91.504 Y20.243 E3.44532
G1 X91.81 Y20.534 E3.46663
G1 X98.198 Y26.923 E3.92257
G1 X98.666 Y27.405 E3.95647
G1 X99 Y27.805 E3.98277
G1 X99.268 Y28.252 E4.00907
G1 X99.465 Y28.735 E4.0354
G1 X99.585 Y29.242 E4.06169
G1 X99.627 Y29.761 E4.08797
G1 X99.589 Y30.281 E4.11428
G1 X99.472 Y30.789 E4.14059
G1 X99.278 Y31.273 E4.1669
G1 X98.948 Y31.812 E4.19879
G1 X98.27 Y32.715 E4.25578
G1 X97.892 Y33.205 E4.28701
G1 X96.277 Y35.428 E4.42567
G1 X94.732 Y37.687 E4.56379
G1 X93.253 Y39.985 E4.7017
G1 X91.842 Y42.32 E4.83938
G1 X90.494 Y44.699 E4.97737
G1 X89.223 Y47.098 E5.11438
G1 X88.001 Y49.573 E5.25368
G1 X86.874 Y52.029 E5.39004
G1 X85.793 Y54.571 E5.52944
G1 X84.816 Y57.059 E5.66434
G1 X84.343 Y58.314 E5.73202
G1 X84.122 Y58.786 E5.75832
G1 X83.759 Y59.309 E5.79045
G1 X83.292 Y59.843 E5.82625
G1 X80.856 Y62.516 E6.00876
G1 X75.396 Y68.488 E6.41711
G1 X72.497 Y71.652 E6.63367
G1 X72.084 Y72.074 E6.66347
G1 X71.67 Y72.46 E6.69203
G1 X71.086 Y73.017 E6.73276
G1 X64.007 Y79.494 E7.21697
G1 X59.926 Y83.217 E7.49575
G1 X59.377 Y83.703 E7.53275
G1 X58.961 Y84.017 E7.55905
G1 X58.317 Y84.34 E7.59541
G1 X57.277 Y84.73 E7.65146
G1 X54.708 Y85.732 E7.79062
G1 X52.206 Y86.791 E7.92773
G1 X49.684 Y87.945 E8.06769
G1 X47.273 Y89.131 E8.20329
G1 X44.817 Y90.425 E8.34338
G1 X42.465 Y91.753 E8.47969
G1 X40.098 Y93.178 E8.61912
G1 X37.811 Y94.644 E8.75621
G1 X35.568 Y96.173 E8.8932
G1 X33.328 Y97.794 E9.03274
G1 X31.844 Y98.924 E9.12687
G1 X31.407 Y99.208 E9.15317
G1 X30.932 Y99.423 E9.17948
G1 X30.43 Y99.563 E9.20578
G1 X29.913 Y99.624 E9.23205
G1 X29.392 Y99.606 E9.25836
G1 X28.88 Y99.508 E9.28467
G1 X28.389 Y99.333 E9.31097
G1 X27.931 Y99.085 E9.33726
G1 X27.443 Y98.703 E9.36853
G1 X27.132 Y98.408 E9.39016
G1 X20.745 Y92.021 E9.846
G1 X20.277 Y91.54 E9.87986
G1 X19.943 Y91.14 E9.90616
G1 X19.675 Y90.693 E9.93246
G1 X19.478 Y90.211 E9.95874
G1 X19.356 Y89.704 E9.98506
G1 X19.314 Y89.184 E10.01138
G1 X19.352 Y88.665 E10.03765
G1 X19.468 Y88.157 E10.06394
G1 X19.661 Y87.673 E10.09024
G1 X20.053 Y87.052 E10.1273
G1 X20.54 Y86.441 E10.16673
G1 X21.396 Y85.394 E10.23498
G1 X23.074 Y83.217 E10.37369
G1 X24.691 Y80.992 E10.51249
G1 X26.208 Y78.777 E10.64798
G1 X27.713 Y76.439 E10.7883
G1 X29.105 Y74.136 E10.9241
G1 X30.464 Y71.74 E11.06311
G1 X31.741 Y69.329 E11.20079
G1 X32.957 Y66.869 E11.33928
G1 X34.092 Y64.396 E11.47659
G1 X35.157 Y61.894 E11.61382
G1 X35.401 Y61.299 E11.64627
G1 X35.635 Y60.833 E11.67259
G1 X35.985 Y60.354 E11.70253
G1 X36.427 Y59.868 E11.73568
G1 X37.292 Y58.959 E11.799
G1 X47.504 Y48.288 E12.54438
G1 X47.543 Y48.248 E12.5472
G0 F1080 X47.916 Y47.869
G0 F1600 X48.195 Y48.155
G1 F1200 X48.631 Y47.729 E12.57796
G1 X60.026 Y36.828 E13.37378
G1 X60.551 Y36.342 E13.40988
G1 X60.936 Y36.04 E13.43457
G1 X61.436 Y35.774 E13.46315
G1 X63.825 Y34.779 E13.59375
G1 X66.335 Y33.65 E13.73265
G1 X68.773 Y32.471 E13.86931
G1 X71.23 Y31.196 E14.00901
G1 X73.642 Y29.854 E14.1483
G1 X75.966 Y28.476 E14.28465
G1 X78.303 Y26.999 E14.42417
G1 X80.582 Y25.466 E14.56277
G1 X82.812 Y23.873 E14.70108
G1 X84.994 Y22.22 E14.83922
G1 X86.769 Y20.8 E14.95394
G1 X87.271 Y20.39 E14.98664
G1 X87.674 Y20.113 E15.01132
G1 X88.117 Y19.904 E15.03604
G1 X88.588 Y19.771 E15.06074
G1 X89.075 Y19.715 E15.08548
G1 X89.563 Y19.74 E15.11014
G1 X90.042 Y19.844 E15.13487
G1 X90.497 Y20.024 E15.15957
G1 X90.917 Y20.276 E15.18429
G1 X91.467 Y20.758 E15.22119
G1 X97.911 Y27.201 E15.68106
G1 X98.379 Y27.683 E15.71496
G1 X98.691 Y28.061 E15.73969
G1 X98.936 Y28.484 E15.76436
G1 X99.11 Y28.942 E15.78909
G1 X99.206 Y29.422 E15.81379
G1 X99.224 Y29.911 E15.83849
G1 X99.161 Y30.397 E15.86322
G1 X99.021 Y30.866 E15.88792
G1 X98.806 Y31.305 E15.91259
G1 X98.628 Y31.572 E15.92878
G1 X97.954 Y32.471 E15.98548
G1 X97.551 Y32.993 E16.01876
G1 X95.956 Y35.19 E16.15577
G1 X94.398 Y37.466 E16.29496
G1 X92.927 Y39.751 E16.43211
G1 X91.485 Y42.138 E16.57284
G1 X90.143 Y44.508 E16.71029
G1 X88.862 Y46.926 E16.84838
G1 X87.651 Y49.379 E16.98643
G1 X86.501 Y51.884 E17.12553
G1 X85.429 Y54.404 E17.26374
G1 X84.427 Y56.956 E17.40209
G1 X83.968 Y58.173 E17.46773
G1 X83.759 Y58.615 E17.49241
G1 X83.453 Y59.051 E17.51929
G1 X82.994 Y59.576 E17.55448
G1 X80.558 Y62.249 E17.73699
G1 X77.202 Y65.922 E17.98807
G1 X72.209 Y71.374 E18.36115
G1 X71.811 Y71.781 E18.38988
G1 X71.397 Y72.167 E18.41844
G1 X70.816 Y72.721 E18.45896
G1 X63.737 Y79.198 E18.94317
G1 X59.661 Y82.917 E19.22162
G1 X59.112 Y83.403 E19.25862
G1 X58.72 Y83.697 E19.28335
G1 X58.177 Y83.966 E19.31393
G1 X57.111 Y84.366 E19.37139
G1 X54.555 Y85.363 E19.50985
G1 X52.02 Y86.436 E19.64876
G1 X49.52 Y87.58 E19.78751
G1 X47.088 Y88.776 E19.92428
G1 X44.64 Y90.066 E20.06392
G1 X42.241 Y91.42 E20.20294
G1 X39.922 Y92.816 E20.33954
G1 X37.591 Y94.31 E20.47926
G1 X35.331 Y95.851 E20.6173
G1 X33.092 Y97.472 E20.7568
G1 X31.6 Y98.606 E20.85137
G1 X31.189 Y98.872 E20.87608
G1 X30.74 Y99.067 E20.90078
G1 X30.265 Y99.186 E20.92549
G1 X29.777 Y99.227 E20.95021
G1 X29.289 Y99.188 E20.97491
G1 X28.814 Y99.07 E20.99961
G1 X28.365 Y98.876 E21.02429
G1 X27.953 Y98.612 E21.04899
G1 X27.48 Y98.189 E21.08101
G1 X21.032 Y91.742 E21.54116
G1 X20.564 Y91.261 E21.57503
G1 X20.252 Y90.884 E21.59972
G1 X20.006 Y90.46 E21.62446
G1 X19.832 Y90.003 E21.64914
G1 X19.735 Y89.523 E21.67385
G1 X19.717 Y89.034 E21.69855
G1 X19.779 Y88.548 E21.72327
G1 X19.919 Y88.079 E21.74797
G1 X20.133 Y87.639 E21.77266
G1 X20.366 Y87.301 E21.79338
G1 X20.85 Y86.694 E21.83256
G1 X21.707 Y85.646 E21.90088
G1 X23.408 Y83.439 E22.0415
G1 X25.001 Y81.248 E22.1782
G1 X26.558 Y78.974 E22.31728
G1 X28.023 Y76.698 E22.45388
G1 X29.462 Y74.317 E22.59428
G1 X30.823 Y71.918 E22.73347
G1 X32.103 Y69.5 E22.87154
G1 X33.301 Y67.076 E23.00799
G1 X34.465 Y64.54 E23.14881
G1 X35.527 Y62.046 E23.2856
G1 X35.771 Y61.451 E23.31806
G1 X35.993 Y61.015 E23.34275
G1 X36.416 Y60.468 E23.37764
G1 X36.738 Y60.122 E23.4015
G1 X37.581 Y59.236 E23.46321
G1 X47.789 Y48.568 E24.20834
G1 X47.822 Y48.534 E24.21073
G0 F1080 X48.195 Y48.155
G0 F1600 X48.475 Y48.441
G1 F1200 X48.908 Y48.018 E24.24128
G1 X60.298 Y37.122 E25.03674
G1 X60.823 Y36.636 E25.07284
G1 X61.183 Y36.357 E25.09582
G1 X61.59 Y36.144 E25.11901
G1 X63.964 Y35.156 E25.24877
G1 X66.495 Y34.017 E25.38884
G1 X68.953 Y32.828 E25.52663
G1 X71.448 Y31.533 E25.66849
G1 X73.819 Y30.214 E25.80541
G1 X76.178 Y28.816 E25.9438
G1 X78.534 Y27.326 E26.08448
G1 X80.792 Y25.807 E26.22181
G1 X83.064 Y24.185 E26.36269
G1 X85.246 Y22.531 E26.50086
G1 X87.022 Y21.11 E26.61565
G1 X87.524 Y20.7 E26.64836
G1 X87.901 Y20.444 E26.67135
G1 X88.317 Y20.258 E26.69435
G1 X88.759 Y20.147 E26.71735
G1 X89.213 Y20.114 E26.74032
G1 X89.666 Y20.162 E26.76331
G1 X90.104 Y20.288 E26.78631
G1 X90.513 Y20.489 E26.80931
G1 X90.955 Y20.824 E26.8373
G1 X91.192 Y21.048 E26.85375
G1 X97.624 Y27.48 E27.3128
G1 X98.092 Y27.962 E27.3467
G1 X98.38 Y28.315 E27.36969
G1 X98.601 Y28.713 E27.39267
G1 X98.75 Y29.144 E27.41568
G1 X98.821 Y29.594 E27.43867
G1 X98.812 Y30.05 E27.46169
G1 X98.724 Y30.497 E27.48468
G1 X98.559 Y30.922 E27.50768
G1 X98.308 Y31.332 E27.53195
G1 X97.637 Y32.227 E27.5884
G1 X97.243 Y32.737 E27.62092
G1 X95.618 Y34.975 E27.76049
G1 X94.075 Y37.229 E27.89834
G1 X92.566 Y39.575 E28.03911
G1 X91.144 Y41.928 E28.17785
G1 X89.792 Y44.315 E28.31629
G1 X88.507 Y46.741 E28.45484
G1 X87.292 Y49.201 E28.5933
G1 X86.12 Y51.755 E28.73511
G1 X85.059 Y54.25 E28.87193
G1 X84.067 Y56.777 E29.00893
G1 X83.594 Y58.032 E29.07662
G1 X83.397 Y58.443 E29.09962
G1 X82.995 Y58.972 E29.13315
G1 X82.678 Y59.329 E29.15724
G1 X80.262 Y61.979 E29.33821
G1 X76.908 Y65.65 E29.58915
G1 X76.724 Y65.849 E29.60282
G1 X74.807 Y67.947 E29.74624
G1 X74.247 Y68.556 E29.78799
G1 X72.072 Y70.933 E29.95059
G1 X71.638 Y71.39 E29.98239
G1 X71.538 Y71.489 E29.9895
G1 X71.124 Y71.875 E30.01806
G1 X70.546 Y72.426 E30.05836
G1 X63.467 Y78.903 E30.54257
G1 X59.395 Y82.618 E30.82074
G1 X58.846 Y83.104 E30.85774
G1 X58.48 Y83.375 E30.88072
G1 X58.036 Y83.591 E30.90564
G1 X57.002 Y83.979 E30.96138
G1 X54.391 Y84.998 E31.10282
G1 X51.877 Y86.062 E31.24058
G1 X49.356 Y87.215 E31.38048
G1 X46.89 Y88.428 E31.51917
G1 X44.451 Y89.713 E31.65829
G1 X42.071 Y91.056 E31.7962
G1 X39.68 Y92.496 E31.93706
G1 X37.355 Y93.986 E32.07642
G1 X35.116 Y95.512 E32.21316
G1 X32.848 Y97.155 E32.35449
G1 X31.356 Y98.289 E32.44906
G1 X30.972 Y98.534 E32.47205
G1 X30.551 Y98.708 E32.49504
G1 X30.106 Y98.806 E32.51803
G1 X29.651 Y98.824 E32.54101
G1 X29.199 Y98.763 E32.56403
G1 X28.765 Y98.624 E32.58703
G1 X28.362 Y98.411 E32.61003
G1 X27.754 Y97.898 E32.65018
G1 X21.319 Y91.463 E33.10944
G1 X20.851 Y90.982 E33.1433
G1 X20.563 Y90.629 E33.16629
G1 X20.341 Y90.231 E33.18929
G1 X20.192 Y89.8 E33.21231
G1 X20.12 Y89.35 E33.2353
G1 X20.128 Y88.895 E33.25827
G1 X20.216 Y88.448 E33.28126
G1 X20.38 Y88.023 E33.30425
G1 X20.679 Y87.55 E33.33249
G1 X21.16 Y86.947 E33.37142
G1 X22.018 Y85.897 E33.43984
G1 X23.722 Y83.687 E33.58068
G1 X25.338 Y81.464 E33.71937
G1 X26.892 Y79.195 E33.85816
G1 X28.375 Y76.891 E33.99643
G1 X29.794 Y74.542 E34.13493
G1 X31.166 Y72.123 E34.27527
G1 X32.457 Y69.686 E34.41444
G1 X33.673 Y67.226 E34.55293
G1 X34.826 Y64.714 E34.69241
G1 X35.911 Y62.165 E34.83222
G1 X36.141 Y61.603 E34.86286
G1 X36.351 Y61.198 E34.88588
G1 X36.718 Y60.731 E34.91586
G1 X37.027 Y60.398 E34.93878
G1 X37.87 Y59.512 E35.0005
G1 X48.075 Y48.848 E35.74538
G1 X48.102 Y48.82 E35.74734
G0 F1080 X48.475 Y48.441
G0 F1600 X48.755 Y48.727
G1 F1200 X49.184 Y48.307 E35.77764
G1 X60.569 Y37.416 E36.57274
G1 X61.094 Y36.93 E36.60884
G1 X61.428 Y36.675 E36.63005
G1 X61.743 Y36.513 E36.64792
G1 X64.164 Y35.505 E36.78027
G1 X66.655 Y34.384 E36.91812
G1 X69.133 Y33.185 E37.05704
G1 X71.602 Y31.904 E37.19741
G1 X74.038 Y30.549 E37.33808
G1 X76.375 Y29.164 E37.47518
G1 X78.765 Y27.653 E37.61787
G1 X81.026 Y26.132 E37.75539
G1 X83.269 Y24.53 E37.89449
G1 X85.515 Y22.828 E38.0367
G1 X87.275 Y21.42 E38.15045
G1 X87.777 Y21.01 E38.18316
G1 X88.126 Y20.777 E38.20433
G1 X88.512 Y20.614 E38.22548
G1 X88.922 Y20.528 E38.24662
G1 X89.341 Y20.521 E38.26777
G1 X89.754 Y20.593 E38.28892
G1 X90.145 Y20.742 E38.31004
G1 X90.68 Y21.115 E38.34295
G1 X90.962 Y21.382 E38.36255
G1 X97.337 Y27.758 E38.81756
G1 X97.805 Y28.24 E38.85147
G1 X98.067 Y28.568 E38.87265
G1 X98.263 Y28.938 E38.89378
G1 X98.384 Y29.339 E38.91492
G1 X98.427 Y29.756 E38.93607
G1 X98.39 Y30.174 E38.95725
G1 X98.275 Y30.577 E38.9784
G1 X97.987 Y31.092 E39.00818
G1 X97.32 Y31.983 E39.06435
G1 X96.918 Y32.504 E39.09756
G1 X95.297 Y34.736 E39.23677
G1 X93.725 Y37.033 E39.37723
G1 X92.253 Y39.32 E39.51448
G1 X90.79 Y41.741 E39.65724
G1 X89.449 Y44.11 E39.79461
G1 X88.153 Y46.556 E39.93431
G1 X86.91 Y49.073 E40.07597
G1 X85.766 Y51.566 E40.2144
G1 X84.698 Y54.076 E40.35206
G1 X83.682 Y56.664 E40.49236
G1 X83.22 Y57.891 E40.55853
G1 X83.035 Y58.267 E40.57968
G1 X82.69 Y58.714 E40.60817
G1 X82.383 Y59.059 E40.63148
G1 X79.967 Y61.709 E40.81245
G1 X76.614 Y65.379 E41.06331
G1 X76.43 Y65.578 E41.07699
G1 X74.512 Y67.676 E41.22044
G1 X73.952 Y68.285 E41.26219
G1 X71.632 Y70.82 E41.43561
G1 X71.265 Y71.196 E41.46213
G1 X70.871 Y71.564 E41.48933
G1 X70.276 Y72.131 E41.53081
G1 X63.198 Y78.607 E42.01495
G1 X59.13 Y82.318 E42.29284
G1 X58.581 Y82.804 E42.32984
G1 X58.242 Y83.051 E42.351
G1 X57.896 Y83.217 E42.37037
G1 X56.857 Y83.607 E42.42638
G1 X54.222 Y84.635 E42.56911
G1 X51.691 Y85.706 E42.70781
G1 X49.191 Y86.85 E42.84655
G1 X46.72 Y88.065 E42.98551
G1 X44.259 Y89.362 E43.1259
G1 X41.863 Y90.714 E43.26473
G1 X39.464 Y92.159 E43.40607
G1 X37.161 Y93.635 E43.54411
G1 X34.862 Y95.202 E43.68452
G1 X32.641 Y96.81 E43.82289
G1 X31.113 Y97.972 E43.91977
G1 X30.758 Y98.194 E43.9409
G1 X30.367 Y98.345 E43.96205
G1 X29.954 Y98.42 E43.98323
G1 X29.535 Y98.414 E44.00438
G1 X29.125 Y98.329 E44.02551
G1 X28.738 Y98.168 E44.04666
G1 X28.265 Y97.829 E44.07603
G1 X27.98 Y97.56 E44.09581
G1 X21.605 Y91.184 E44.55082
G1 X21.137 Y90.703 E44.58469
G1 X20.875 Y90.376 E44.60583
G1 X20.679 Y90.006 E44.62696
G1 X20.558 Y89.605 E44.6481
G1 X20.514 Y89.188 E44.66926
G1 X20.55 Y88.771 E44.69038
G1 X20.665 Y88.368 E44.71153
G1 X20.992 Y87.799 E44.74465
G1 X21.469 Y87.2 E44.78329
G1 X22.363 Y86.106 E44.85459
G1 X24.028 Y83.946 E44.99222
G1 X25.659 Y81.702 E45.13222
G1 X27.214 Y79.431 E45.27112
G1 X28.72 Y77.093 E45.41146
G1 X30.151 Y74.725 E45.55109
G1 X31.517 Y72.316 E45.69085
G1 X32.812 Y69.871 E45.83047
G1 X34.037 Y67.392 E45.97002
G1 X35.186 Y64.889 E46.10901
G1 X36.279 Y62.322 E46.2498
G1 X36.512 Y61.754 E46.28079
G1 X36.707 Y61.383 E46.30194
G1 X37.071 Y60.937 E46.33099
G1 X37.317 Y60.674 E46.34916
G1 X38.159 Y59.789 E46.41081
G1 X48.361 Y49.128 E47.15547
G1 X48.383 Y49.106 E47.15704
G0 F1080 X48.755 Y48.727
G0 F1600 X60.445 Y55.737
G1 F1200 X60.765 Y55.798 E47.17348
G1 X61.025 Y55.943 E47.18851
G1 X60.508 Y55.759 E47.2162
G0 F1080 X60.445 Y55.737
G0 F1600 X60.906 Y55.418
G1 F1200 X63.62 Y56.933 E47.37306
G1 X64.472 Y57.918 E47.43878
G1 X64.936 Y59.746 E47.53396
G1 X64.479 Y61.94 E47.64705
G1 X64.415 Y61.987 E47.65106
G1 X64.284 Y61.987 E47.65767
G1 X64.167 Y61.902 E47.66497
G1 X64.01 Y61.419 E47.6906
G1 X64.146 Y59.86 E47.76957
G1 X64.148 Y59.37 E47.7943
G1 X64.071 Y58.887 E47.81898
G1 X63.917 Y58.422 E47.8437
G1 X63.689 Y57.989 E47.8684
G1 X63.393 Y57.599 E47.89311
G1 X63.038 Y57.262 E47.91781
G1 X62.633 Y56.987 E47.94252
G1 X62.162 Y56.772 E47.96864
G1 X59.11 Y55.687 E48.13211
G1 X58.637 Y55.562 E48.1568
G1 X58.078 Y55.514 E48.18511
G1 X56.852 Y55.525 E48.24698
G1 X56.742 Y55.445 E48.25385
G1 X56.701 Y55.321 E48.26044
G1 X56.732 Y55.229 E48.26534
G1 X57.27 Y54.908 E48.29695
G1 X58.237 Y54.908 E48.34575
G1 X60.384 Y55.319 E48.45607
G0 F1080 X60.906 Y55.418
G0 F1600 X61.043 Y55.037
G1 F1200 X63.875 Y56.618 E48.61975
G1 X64.838 Y57.731 E48.69402
G1 X65.347 Y59.737 E48.79847
G1 X64.84 Y62.172 E48.92398
G1 X64.548 Y62.387 E48.94228
G1 X64.155 Y62.387 E48.96212
G1 X63.827 Y62.149 E48.98257
G1 X63.604 Y61.463 E49.01897
G1 X63.747 Y59.825 E49.10195
G1 X63.747 Y59.369 E49.12496
G1 X63.667 Y58.921 E49.14792
G1 X63.51 Y58.493 E49.17093
G1 X63.281 Y58.099 E49.19393
G1 X62.986 Y57.752 E49.21691
G1 X62.636 Y57.461 E49.23988
G1 X62.028 Y57.149 E49.27437
G1 X58.976 Y56.064 E49.43783
G1 X58.535 Y55.95 E49.46082
G1 X58.082 Y55.914 E49.48375
G1 X56.725 Y55.926 E49.55224
G1 X56.401 Y55.691 E49.57244
G1 X56.28 Y55.319 E49.59218
G1 X56.401 Y54.96 E49.6113
G1 X57.159 Y54.508 E49.65583
G1 X58.275 Y54.508 E49.71215
G1 X60.521 Y54.938 E49.82756
G0 F1080 X61.043 Y55.037
G0 F1600 X61.181 Y54.656
G1 F1200 X64.133 Y56.304 E49.99817
