;FLAVOR:Marlin
;TIME:4709
;Filament used: 2.19916m
;Layer height: 0.12
;MINX:39.278
;MINY:25.433
;MINZ:0.3
;MAXX:80.849
;MAXY:78.842
;MAXZ:35.58
;Generated with Cura_SteamEngine 4.6.1
M104 S210
M105
M109 S210
M82 ;absolute extrusion mode
;Sliced at: Fri 29-05-2020 12:47:43
G21 ;metric values
G90 ;absolute positioning
M82 ;set extruder to absolute mode
M107 ;start with the fan off
G1 Z5.0 F1800 ;move Z to 5mm
G28 X0 Y0 F1800 ;move X/Y to min endstops
G28 Z0 ;move Z to min endstop
G92 E0 ;zero the extruded length
G1 F200 E6.0 ;extrude 6.0mm of feed stock to build pressure
G1 Z5.0 F300 ;move the platform down 5mm
G92 E0 ;zero the extruded length again
G1 F1800
;Put printing message on LCD screen
M117 Printing...
G92 E0
G92 E0
G1 F1500 E-5
;LAYER_COUNT:271
;LAYER:0
M107
G0 F900 X60.37 Y28.283 Z0.3
;TYPE:SKIRT
G1 F1500 E0.70678
G1 F900 X63.137 Y27.692 E0.86205
G1 X64.53 Y27.363 E0.9406
G1 X66.371 Y26.901 E1.04477
G1 X67.32 Y26.672 E1.09834
G1 X68.063 Y26.513 E1.14004
G1 X68.622 Y26.416 E1.17118
G1 X69.518 Y26.301 E1.22075
G1 X70.483 Y26.235 E1.27384
G1 X71.187 Y26.236 E1.31247
G1 X72.351 Y26.312 E1.37649
G1 X72.871 Y26.381 E1.40527
G1 X73.462 Y26.493 E1.43828
G1 X74.226 Y26.683 E1.48149
G1 X74.795 Y26.865 E1.51427
G1 X75.684 Y27.247 E1.56738
G1 X76.168 Y27.5 E1.59735
G1 X76.745 Y27.853 E1.63447
G1 X77.157 Y28.154 E1.66247
G1 X77.58 Y28.51 E1.69281
G1 X78.015 Y28.928 E1.72592
G1 X78.372 Y29.34 E1.75584
G1 X78.826 Y29.954 E1.79774
G1 X79.189 Y30.582 E1.83755
G1 X79.501 Y31.237 E1.87737
G1 X79.679 Y31.725 E1.90587
G1 X79.819 Y32.22 E1.9341
G1 X79.933 Y32.752 E1.96396
G1 X80.048 Y33.94 E2.02946
G1 X80.024 Y34.608 E2.06615
G1 X79.974 Y35.142 E2.09558
G1 X79.887 Y35.783 E2.13108
G1 X79.373 Y38.967 E2.30808
G1 X79.007 Y41.772 E2.46332
G1 X78.721 Y44.575 E2.61794
G1 X78.516 Y47.373 E2.77191
G1 X78.389 Y50.198 E2.9271
G1 X78.341 Y53.015 E3.08172
G1 X78.374 Y55.82 E3.23566
G1 X78.487 Y58.646 E3.39087
G1 X78.677 Y61.446 E3.54489
G1 X78.948 Y64.246 E3.69927
G1 X79.597 Y69.127 E3.96949
G1 X79.659 Y69.833 E4.00839
G1 X79.669 Y70.127 E4.02453
G1 X79.634 Y70.843 E4.06387
G1 X79.571 Y71.389 E4.09403
G1 X79.415 Y72.149 E4.13661
G1 X79.272 Y72.617 E4.16347
G1 X79.116 Y73.044 E4.18842
G1 X78.755 Y73.803 E4.23454
G1 X78.511 Y74.226 E4.26134
G1 X78.037 Y74.887 E4.30598
G1 X77.633 Y75.348 E4.33962
G1 X77.103 Y75.847 E4.37957
G1 X76.738 Y76.16 E4.40595
G1 X76.157 Y76.562 E4.44473
G1 X75.721 Y76.823 E4.47261
G1 X74.689 Y77.313 E4.53531
G1 X73.93 Y77.578 E4.57943
G1 X73.444 Y77.708 E4.60704
G1 X72.603 Y77.878 E4.65412
G1 X71.89 Y77.981 E4.69366
G1 X71.372 Y78.022 E4.72217
G1 X70.579 Y78.042 E4.76571
G1 X69.904 Y78.033 E4.80275
G1 X69.201 Y77.99 E4.84141
G1 X68.355 Y77.882 E4.88821
G1 X67.853 Y77.797 E4.91615
G1 X67.271 Y77.682 E4.94871
G1 X66.467 Y77.501 E4.99394
G1 X64.916 Y77.109 E5.08173
G1 X62.181 Y76.461 E5.23598
G1 X59.411 Y75.887 E5.39123
G1 X56.648 Y75.396 E5.54523
G1 X53.851 Y74.979 E5.70043
G1 X51.054 Y74.643 E5.85503
G1 X48.633 Y74.417 E5.98847
G1 X48.105 Y74.375 E6.01754
G1 X46.858 Y74.251 E6.08631
G1 X46.151 Y74.141 E6.12557
G1 X45.155 Y73.897 E6.18185
G1 X44.71 Y73.783 E6.20706
G1 X44.11 Y73.595 E6.24157
G1 X43.583 Y73.391 E6.27258
G1 X43.152 Y73.18 E6.29891
G1 X42.603 Y72.849 E6.33409
G1 X42.27 Y72.596 E6.35705
G1 X41.844 Y72.206 E6.38874
G1 X41.509 Y71.835 E6.41617
G1 X41.262 Y71.498 E6.4391
G1 X40.995 Y71.078 E6.46642
G1 X40.767 Y70.624 E6.4943
G1 X40.634 Y70.291 E6.51398
G1 X40.473 Y69.787 E6.54301
G1 X40.385 Y69.38 E6.56586
G1 X40.315 Y68.771 E6.59951
G1 X40.288 Y68.061 E6.6385
G1 X40.282 Y67.222 E6.68454
G1 X40.282 Y61.672 E6.98912
G1 X40.263 Y59.657 E7.09971
G1 X40.179 Y56.789 E7.25717
G1 X40.121 Y55.534 E7.32612
G1 X40.08 Y54.251 E7.39656
G1 X40.078 Y53.659 E7.42905
G1 X40.123 Y52.744 E7.47933
G1 X40.28 Y50.993 E7.57581
G1 X40.501 Y47.799 E7.75151
G1 X40.623 Y44.519 E7.93164
G1 X40.642 Y43.611 E7.98148
G1 X40.664 Y41.519 E8.09629
G1 X40.667 Y36.291 E8.3832
G1 X40.684 Y35.69 E8.4162
G1 X40.718 Y35.23 E8.44151
G1 X40.782 Y34.82 E8.46428
G1 X40.926 Y34.241 E8.49703
G1 X41.179 Y33.588 E8.53546
G1 X41.411 Y33.142 E8.56305
G1 X41.838 Y32.514 E8.60472
G1 X42.273 Y32.027 E8.64056
G1 X42.805 Y31.565 E8.67923
G1 X43.415 Y31.164 E8.71929
G1 X43.699 Y31.014 E8.73691
G1 X44.218 Y30.787 E8.768
G1 X45.057 Y30.509 E8.81651
G1 X45.615 Y30.355 E8.84828
G1 X46.244 Y30.202 E8.8838
G1 X46.82 Y30.089 E8.91601
G1 X47.11 Y30.046 E8.9321
G1 X48.3 Y29.936 E8.99769
G1 X49.079 Y29.87 E9.04059
G1 X51.787 Y29.605 E9.18991
G1 X54.829 Y29.224 E9.35816
G1 X57.606 Y28.793 E9.51239
G1 X59.847 Y28.379 E9.63745
G0 F810 X60.37 Y28.283
G0 F900 X64.441 Y26.972
G1 X65.498 Y26.706 E9.69727
G1 X66.274 Y26.513 E9.74115
G1 X67.226 Y26.283 E9.7949
G1 X67.979 Y26.122 E9.83716
G1 X68.555 Y26.021 E9.86925
G1 X69.471 Y25.903 E9.91993
G1 X70.458 Y25.836 E9.97422
G1 X70.97 Y25.833 E10.00232
G1 X71.578 Y25.853 E10.03571
G1 X72.381 Y25.913 E10.0799
G1 X72.935 Y25.986 E10.11056
G1 X73.536 Y26.1 E10.14414
G1 X74.334 Y26.297 E10.18924
G1 X74.917 Y26.484 E10.22284
G1 X75.846 Y26.882 E10.27831
G1 X76.369 Y27.153 E10.31063
G1 X76.954 Y27.512 E10.3483
G1 X77.397 Y27.835 E10.37839
G1 X77.838 Y28.204 E10.40995
G1 X78.302 Y28.649 E10.44523
G1 X78.68 Y29.084 E10.47685
G1 X78.986 Y29.482 E10.50441
G1 X79.345 Y30.031 E10.5404
G1 X79.585 Y30.481 E10.56839
G1 X79.862 Y31.064 E10.60381
G1 X80.057 Y31.596 E10.63491
G1 X80.2 Y32.094 E10.66334
G1 X80.325 Y32.669 E10.69564
G1 X80.382 Y33.131 E10.72118
G1 X80.446 Y33.907 E10.76391
G1 X80.45 Y34.206 E10.78032
G1 X80.372 Y35.179 E10.83389
G1 X80.282 Y35.842 E10.87061
G1 X79.766 Y39.041 E11.04844
G1 X79.406 Y41.801 E11.20119
G1 X79.119 Y44.615 E11.35642
G1 X78.914 Y47.414 E11.51044
G1 X78.789 Y50.194 E11.66316
G1 X78.741 Y53.022 E11.81838
G1 X78.774 Y55.827 E11.97232
G1 X78.885 Y58.608 E12.12507
G1 X79.075 Y61.407 E12.27903
G1 X79.344 Y64.194 E12.43269
G1 X79.993 Y69.072 E12.70274
G1 X80.058 Y69.806 E12.74318
G1 X80.068 Y70.146 E12.76185
G1 X80.033 Y70.862 E12.80119
G1 X79.969 Y71.436 E12.83289
G1 X79.805 Y72.236 E12.8777
G1 X79.656 Y72.732 E12.90613
G1 X79.483 Y73.203 E12.93366
G1 X79.113 Y73.981 E12.98094
G1 X78.858 Y74.426 E13.00909
G1 X78.565 Y74.855 E13.0376
G1 X78.171 Y75.351 E13.07236
G1 X77.89 Y75.657 E13.09516
G1 X77.376 Y76.139 E13.13383
G1 X76.993 Y76.469 E13.16157
G1 X76.375 Y76.898 E13.20286
G1 X75.93 Y77.164 E13.23131
G1 X74.856 Y77.677 E13.29663
G1 X74.055 Y77.958 E13.34322
G1 X73.544 Y78.096 E13.37226
G1 X72.677 Y78.271 E13.4208
G1 X71.941 Y78.378 E13.46162
G1 X71.403 Y78.421 E13.49124
G1 X70.587 Y78.442 E13.53603
G1 X69.898 Y78.433 E13.57385
G1 X69.172 Y78.389 E13.61377
G1 X68.299 Y78.278 E13.66206
G1 X67.787 Y78.192 E13.69055
G1 X67.194 Y78.075 E13.72372
G1 X66.379 Y77.891 E13.76958
G1 X64.819 Y77.497 E13.85788
G1 X62.093 Y76.851 E14.01162
G1 X59.352 Y76.283 E14.16524
G1 X56.567 Y75.788 E14.32047
G1 X53.8 Y75.375 E14.47401
G1 X51.028 Y75.043 E14.62722
G1 X48.591 Y74.816 E14.76154
G1 X48.072 Y74.773 E14.79012
G1 X46.816 Y74.649 E14.85938
G1 X46.086 Y74.535 E14.89993
G1 X45.568 Y74.422 E14.92902
G1 X45.057 Y74.286 E14.95804
G1 X44.591 Y74.164 E14.98448
G1 X43.991 Y73.976 E15.01899
G1 X43.433 Y73.761 E15.0518
G1 X42.953 Y73.527 E15.08111
G1 X42.385 Y73.184 E15.11752
G1 X42.007 Y72.898 E15.14354
G1 X41.562 Y72.491 E15.17663
G1 X41.221 Y72.115 E15.20449
G1 X40.925 Y71.714 E15.23184
G1 X40.641 Y71.264 E15.26104
G1 X40.402 Y70.789 E15.29022
G1 X40.253 Y70.414 E15.31237
G1 X40.084 Y69.877 E15.34326
G1 X39.989 Y69.437 E15.36797
G1 X39.916 Y68.807 E15.40277
G1 X39.888 Y68.072 E15.44314
G1 X39.882 Y67.225 E15.48962
G1 X39.882 Y61.672 E15.79437
G1 X39.863 Y59.663 E15.90462
G1 X39.779 Y56.8 E16.06181
G1 X39.721 Y55.547 E16.13065
G1 X39.68 Y54.264 E16.20109
G1 X39.678 Y53.661 E16.23419
G1 X39.723 Y52.72 E16.28589
G1 X39.881 Y50.955 E16.38314
G1 X40.103 Y47.76 E16.5589
G1 X40.224 Y44.517 E16.73699
G1 X40.242 Y43.602 E16.78722
G1 X40.264 Y41.515 E16.90176
G1 X40.267 Y36.288 E17.18861
G1 X40.284 Y35.678 E17.2221
G1 X40.322 Y35.173 E17.24989
G1 X40.392 Y34.73 E17.27451
G1 X40.542 Y34.129 E17.3085
G1 X40.81 Y33.433 E17.34943
G1 X41.04 Y32.987 E17.37697
G1 X41.283 Y32.602 E17.40195
G1 X41.585 Y32.191 E17.42994
G1 X41.985 Y31.749 E17.46266
G1 X42.549 Y31.258 E17.5037
G1 X42.905 Y31.008 E17.52757
G1 X43.421 Y30.705 E17.56041
G1 X44.057 Y30.42 E17.59866
G1 X44.537 Y30.25 E17.6266
G1 X45.509 Y29.97 E17.68211
G1 X46.149 Y29.814 E17.71826
G1 X46.748 Y29.695 E17.75178
G1 X47.073 Y29.647 E17.76981
G1 X48.263 Y29.537 E17.83539
G1 X49.04 Y29.472 E17.87818
G1 X51.743 Y29.207 E18.02723
G1 X54.759 Y28.829 E18.19404
G1 X57.551 Y28.396 E18.3491
G1 X60.31 Y27.887 E18.50306
G1 X63.037 Y27.305 E18.65609
G1 X63.924 Y27.094 E18.70613
G0 F810 X64.441 Y26.972
G0 F900 X54.719 Y28.431
G1 X57.481 Y28.002 E18.85952
G1 X60.204 Y27.5 E19.01148
G1 X62.97 Y26.909 E19.1667
G1 X64.349 Y26.583 E19.24446
G1 X66.178 Y26.124 E19.34795
G1 X67.133 Y25.894 E19.40186
G1 X67.896 Y25.731 E19.44467
G1 X68.489 Y25.627 E19.47771
G1 X69.425 Y25.506 E19.52951
G1 X70.433 Y25.436 E19.58496
G1 X70.98 Y25.433 E19.61498
G1 X71.596 Y25.453 E19.6488
G1 X72.412 Y25.514 E19.69371
G1 X72.999 Y25.591 E19.7262
G1 X73.611 Y25.707 E19.76038
G1 X74.1 Y25.817 E19.78789
G1 X74.858 Y26.041 E19.83127
G1 X75.462 Y26.27 E19.86672
G1 X76.013 Y26.518 E19.89988
G1 X76.462 Y26.746 E19.92751
G1 X77.163 Y27.171 E19.9725
G1 X77.638 Y27.515 E20.00469
G1 X78.095 Y27.897 E20.03737
G1 X78.486 Y28.265 E20.06684
G1 X78.842 Y28.653 E20.09574
G1 X79.202 Y29.103 E20.12736
G1 X79.519 Y29.551 E20.15748
G1 X79.894 Y30.204 E20.19881
G1 X80.222 Y30.892 E20.24064
G1 X80.436 Y31.468 E20.27436
G1 X80.584 Y31.984 E20.30382
G1 X80.716 Y32.587 E20.33769
G1 X80.781 Y33.098 E20.36596
G1 X80.845 Y33.874 E20.40869
G1 X80.849 Y34.23 E20.42823
G1 X80.771 Y35.217 E20.48257
G1 X80.678 Y35.901 E20.52045
G1 X80.166 Y39.07 E20.69662
G1 X79.804 Y41.842 E20.85003
G1 X79.52 Y44.622 E21.00339
G1 X79.313 Y47.443 E21.15862
G1 X79.188 Y50.234 E21.31194
G1 X79.141 Y53.028 E21.4653
G1 X79.174 Y55.809 E21.61793
G1 X79.286 Y58.605 E21.77149
G1 X79.475 Y61.393 E21.92485
G1 X79.741 Y64.141 E22.07636
G1 X80.39 Y69.018 E22.34637
G1 X80.457 Y69.78 E22.38834
G1 X80.468 Y70.166 E22.40954
G1 X80.433 Y70.882 E22.44888
G1 X80.366 Y71.482 E22.48201
G1 X80.196 Y72.322 E22.52904
G1 X80.036 Y72.858 E22.55974
G1 X79.857 Y73.347 E22.58832
G1 X79.649 Y73.803 E22.61582
G1 X79.293 Y74.482 E22.6579
G1 X78.965 Y74.982 E22.69071
G1 X78.64 Y75.413 E22.72034
G1 X78.305 Y75.803 E22.74855
G1 X77.65 Y76.43 E22.79831
G1 X77.239 Y76.784 E22.82808
G1 X76.592 Y77.233 E22.8713
G1 X76.129 Y77.511 E22.90094
G1 X75.695 Y77.731 E22.92764
G1 X75.023 Y78.04 E22.96823
G1 X74.536 Y78.221 E22.99674
G1 X73.868 Y78.426 E23.03509
G1 X73.265 Y78.567 E23.06908
G1 X72.751 Y78.664 E23.09778
G1 X71.992 Y78.774 E23.13987
G1 X71.435 Y78.819 E23.17054
G1 X70.594 Y78.842 E23.21671
G1 X69.893 Y78.833 E23.25518
G1 X69.144 Y78.788 E23.29636
G1 X68.243 Y78.674 E23.3462
G1 X67.72 Y78.586 E23.37531
G1 X67.116 Y78.467 E23.40909
G1 X66.291 Y78.282 E23.45549
G1 X64.737 Y77.889 E23.54346
G1 X61.985 Y77.237 E23.69867
G1 X59.254 Y76.671 E23.85173
G1 X56.53 Y76.187 E24.00356
G1 X53.733 Y75.77 E24.15875
G1 X50.991 Y75.441 E24.31031
G1 X48.554 Y75.214 E24.44463
G1 X48.04 Y75.172 E24.47293
G1 X46.775 Y75.046 E24.5427
G1 X46.021 Y74.93 E24.58456
G1 X45.517 Y74.821 E24.61286
G1 X44.471 Y74.546 E24.67222
G1 X43.871 Y74.358 E24.70672
G1 X43.282 Y74.132 E24.74134
G1 X42.813 Y73.905 E24.76994
G1 X42.359 Y73.645 E24.79865
G1 X41.944 Y73.357 E24.82637
G1 X41.554 Y73.034 E24.85416
G1 X41.185 Y72.675 E24.88242
G1 X40.767 Y72.181 E24.91793
G1 X40.338 Y71.538 E24.96035
G1 X40.073 Y71.031 E24.99174
G1 X39.873 Y70.536 E25.02104
G1 X39.694 Y69.968 E25.05373
G1 X39.593 Y69.493 E25.08038
G1 X39.518 Y68.843 E25.11628
G1 X39.488 Y68.082 E25.15808
G1 X39.482 Y67.228 E25.20495
G1 X39.482 Y61.672 E25.50986
G1 X39.463 Y59.669 E25.61978
G1 X39.38 Y56.829 E25.77571
G1 X39.322 Y55.559 E25.84548
G1 X39.281 Y54.276 E25.91592
G1 X39.278 Y53.662 E25.94962
G1 X39.324 Y52.697 E26.00264
G1 X39.483 Y50.919 E26.1006
G1 X39.703 Y47.755 E26.27466
G1 X39.823 Y44.509 E26.45292
G1 X39.842 Y43.594 E26.50315
G1 X39.864 Y41.51 E26.61752
G1 X39.867 Y36.284 E26.90432
G1 X39.884 Y35.667 E26.93819
G1 X39.927 Y35.115 E26.96858
G1 X40.002 Y34.641 E26.99491
G1 X40.122 Y34.142 E27.02308
G1 X40.284 Y33.654 E27.0513
G1 X40.483 Y33.189 E27.07905
G1 X40.736 Y32.713 E27.10864
G1 X41.189 Y32.047 E27.15284
G1 X41.518 Y31.657 E27.18084
G1 X41.907 Y31.274 E27.2108
G1 X42.294 Y30.95 E27.2385
G1 X42.695 Y30.668 E27.2654
G1 X43.231 Y30.353 E27.29952
G1 X43.897 Y30.054 E27.33959
G1 X44.388 Y29.878 E27.36821
G1 X45.403 Y29.584 E27.4262
G1 X46.055 Y29.425 E27.46303
G1 X46.676 Y29.302 E27.49777
G1 X47.037 Y29.249 E27.5178
G1 X48.227 Y29.139 E27.58338
G1 X49.012 Y29.073 E27.62661
G1 X51.698 Y28.81 E27.77473
G1 X54.192 Y28.497 E27.91267
G0 F810 X54.719 Y28.431
G0 F900 X53.523 Y29.817
G1 X56.254 Y29.438 E28.06398
G1 X58.972 Y28.98 E28.21524
G1 X61.676 Y28.444 E28.36652
G1 X64.364 Y27.829 E28.51785
G1 X65.979 Y27.41 E28.60942
G1 X65.98 Y27.414 E28.60964
G1 X66.13 Y27.376 E28.61813
G1 X66.131 Y27.379 E28.61831
G1 X66.467 Y27.29 E28.63738
G1 X67.069 Y27.138 E28.67146
G1 X67.924 Y26.942 E28.7196
G1 X67.949 Y26.937 E28.721
G1 X68.71 Y26.8 E28.76343
G1 X68.838 Y26.78 E28.77054
G1 X69.371 Y26.711 E28.80003
G1 X69.667 Y26.681 E28.81636
G1 X70.124 Y26.646 E28.84151
G1 X70.535 Y26.627 E28.86409
G1 X70.62 Y26.625 E28.86876
G1 X70.728 Y26.625 E28.87469
G1 X70.863 Y26.627 E28.8821
G1 X71.237 Y26.627 E28.90262
G1 X71.98 Y26.671 E28.94347
G1 X72.389 Y26.709 E28.96601
G1 X72.522 Y26.725 E28.97336
G1 X72.813 Y26.768 E28.98951
G1 X73.054 Y26.81 E29.00293
G1 X73.277 Y26.856 E29.01543
G1 X73.646 Y26.931 E29.03609
G1 X73.753 Y26.956 E29.04212
G1 X73.844 Y26.98 E29.04729
G1 X74.321 Y27.121 E29.07458
G1 X74.677 Y27.237 E29.09513
G1 X74.679 Y27.238 E29.09525
G1 X75.6 Y27.637 E29.15034
G1 X75.677 Y27.673 E29.155
G1 X75.684 Y27.676 E29.15542
G1 X76.51 Y28.166 E29.20813
G1 X76.531 Y28.18 E29.20951
G1 X76.672 Y28.276 E29.21887
G1 X76.778 Y28.353 E29.22606
G1 X76.814 Y28.381 E29.22856
G1 X76.965 Y28.497 E29.23901
G1 X77.081 Y28.598 E29.24746
G1 X77.299 Y28.786 E29.26325
G1 X77.486 Y28.955 E29.27709
G1 X77.564 Y29.028 E29.28295
G1 X77.686 Y29.149 E29.29238
G1 X77.764 Y29.231 E29.29859
G1 X77.853 Y29.33 E29.30589
G1 X77.996 Y29.498 E29.318
G1 X78.14 Y29.677 E29.33061
G1 X78.342 Y29.943 E29.34894
G1 X78.455 Y30.1 E29.35956
G1 X78.534 Y30.217 E29.3673
G1 X78.611 Y30.337 E29.37513
G1 X78.671 Y30.438 E29.38157
G1 X78.957 Y30.993 E29.41584
G1 X79.043 Y31.172 E29.42674
G1 X79.07 Y31.226 E29.43005
G1 X79.101 Y31.294 E29.43415
G1 X79.156 Y31.424 E29.4419
G1 X79.209 Y31.56 E29.44991
G1 X79.255 Y31.689 E29.45742
G1 X79.288 Y31.791 E29.46331
G1 X79.38 Y32.099 E29.48095
G1 X79.495 Y32.557 E29.50686
G1 X79.515 Y32.645 E29.51182
G1 X79.547 Y32.81 E29.52104
G1 X79.57 Y32.949 E29.52877
G1 X79.644 Y33.672 E29.56866
G1 X79.654 Y33.831 E29.5774
G1 X79.661 Y33.995 E29.58641
G1 X79.663 Y34.14 E29.59437
G1 X79.662 Y34.2 E29.59766
G1 X79.6 Y34.996 E29.64148
G1 X79.588 Y35.104 E29.64744
G1 X79.58 Y35.181 E29.65169
G1 X79.567 Y35.276 E29.65695
G1 X79.45 Y35.989 E29.6966
G1 X79.2 Y37.346 E29.77233
G1 X78.78 Y40.07 E29.92358
G1 X78.438 Y42.806 E30.0749
G1 X78.177 Y45.55 E30.22617
G1 X77.995 Y48.301 E30.37747
G1 X77.893 Y51.056 E30.52877
G1 X77.871 Y53.812 E30.68002
G1 X77.929 Y56.568 E30.8313
G1 X78.067 Y59.322 E30.98263
G1 X78.285 Y62.07 E31.13391
G1 X78.582 Y64.81 E31.28516
G1 X78.959 Y67.541 E31.43646
G1 X78.988 Y67.714 E31.44608
G1 X79.148 Y68.761 E31.50421
G1 X79.171 Y68.909 E31.51243
G1 X79.182 Y68.982 E31.51648
G1 X79.189 Y69.028 E31.51903
G1 X79.231 Y69.366 E31.53773
G1 X79.232 Y69.379 E31.53844
G1 X79.27 Y69.859 E31.56487
G1 X79.277 Y69.999 E31.57256
G1 X79.28 Y70.153 E31.58101
G1 X79.28 Y70.269 E31.58738
G1 X79.233 Y70.964 E31.62561
G1 X79.22 Y71.098 E31.63299
G1 X79.215 Y71.135 E31.63504
G1 X79.199 Y71.268 E31.64239
G1 X79.181 Y71.389 E31.64911
G1 X79.147 Y71.574 E31.65943
G1 X79.125 Y71.682 E31.66548
