;FLAVOR:Marlin
;TIME:908
;Filament used: 0.165659m
;Layer height: 0.12
;MINX:52.8
;MINY:46.939
;MINZ:0.3
;MAXX:72.173
;MAXY:69.7
;MAXZ:12.06
;Generated with Cura_SteamEngine 4.10.0
M104 S210
M105
M109 S210
M82 ;absolute extrusion mode
;Sliced at: Mon 12-07-2021 21:22:17
G21 ;metric values
G90 ;absolute positioning
M82 ;set extruder to absolute mode
M107 ;start with the fan off
G1 Z5.0 F1800 ;move Z to 5mm
G28 X0 Y0 F1800 ;move X/Y to min endstops
G28 Z0 ;move Z to min endstop
G92 E0 ;zero the extruded length
G1 F200 E6.0 ;extrude 6.0mm of feed stock to build pressure
G1 Z5.0 F300 ;move the platform down 5mm
G92 E0 ;zero the extruded length again
G1 F1800
;Put printing message on LCD screen
M117 Printing...
G92 E0
G92 E0
G1 F1500 E-0.6
;LAYER_COUNT:82
;LAYER:0
M106 S102
G0 F2400 X53.807 Y51.791 Z0.3
;TYPE:SKIRT
G1 F1500 E0.75698
G1 F1200 X54.211 Y51.377 E0.78325
G1 X54.669 Y51.021 E0.8096
G1 X55.171 Y50.733 E0.83589
G1 X55.708 Y50.516 E0.86219
G1 X56.27 Y50.375 E0.88851
G1 X56.891 Y50.311 E0.91686
G1 X57.33 Y50.3 E0.93681
G1 X62.353 Y50.3 E1.16495
G1 X63.051 Y50.31 E1.19665
G1 X63.628 Y50.359 E1.22295
G1 X64.194 Y50.486 E1.2493
G1 X64.736 Y50.69 E1.2756
G1 X65.245 Y50.966 E1.3019
G1 X65.711 Y51.31 E1.32821
G1 X66.126 Y51.715 E1.35454
G1 X66.481 Y52.173 E1.38086
G1 X66.769 Y52.675 E1.40715
G1 X66.986 Y53.212 E1.43345
G1 X67.126 Y53.774 E1.45976
G1 X67.189 Y54.392 E1.48797
G1 X67.2 Y54.83 E1.50787
G1 X67.2 Y64.816 E1.96143
G1 X67.191 Y65.543 E1.99445
G1 X67.144 Y66.12 E2.02074
G1 X67.017 Y66.686 E2.04709
G1 X66.815 Y67.228 E2.07336
G1 X66.539 Y67.738 E2.0997
G1 X66.196 Y68.205 E2.12601
G1 X65.792 Y68.62 E2.15232
G1 X65.335 Y68.976 E2.17863
G1 X64.833 Y69.265 E2.20494
G1 X64.296 Y69.483 E2.23126
G1 X63.735 Y69.625 E2.25754
G1 X63.109 Y69.689 E2.28613
G1 X62.67 Y69.7 E2.30607
G1 X57.653 Y69.7 E2.53394
G1 X56.955 Y69.691 E2.56564
G1 X56.377 Y69.643 E2.59198
G1 X55.812 Y69.517 E2.61828
G1 X55.27 Y69.314 E2.64456
G1 X54.76 Y69.038 E2.6709
G1 X54.293 Y68.695 E2.69722
G1 X53.878 Y68.291 E2.72352
G1 X53.523 Y67.833 E2.74984
G1 X53.234 Y67.331 E2.77615
G1 X53.016 Y66.794 E2.80247
G1 X52.875 Y66.233 E2.82875
G1 X52.811 Y65.604 E2.85746
G1 X52.8 Y65.158 E2.87772
G1 X52.8 Y55.117 E3.33377
G1 X52.809 Y54.452 E3.36398
G1 X52.857 Y53.875 E3.39028
G1 X52.984 Y53.31 E3.41658
G1 X53.187 Y52.767 E3.44291
G1 X53.463 Y52.258 E3.46921
G1 X53.492 Y52.219 E3.47141
G0 F1080 X53.807 Y51.791
G0 F2400 X54.201 Y51.949
G1 F1200 X54.6 Y51.57 E3.49641
G1 X55.051 Y51.252 E3.52147
G1 X55.542 Y51.003 E3.54648
G1 X56.065 Y50.828 E3.57153
G1 X56.607 Y50.73 E3.59654
G1 X57.223 Y50.701 E3.62455
G1 X62.347 Y50.7 E3.85728
G1 X63.045 Y50.71 E3.88898
G1 X63.594 Y50.758 E3.91401
G1 X64.131 Y50.885 E3.93908
G1 X64.643 Y51.088 E3.96409
G1 X65.12 Y51.363 E3.9891
G1 X65.553 Y51.704 E4.01413
G1 X65.932 Y52.104 E4.03916
G1 X66.249 Y52.554 E4.06416
G1 X66.498 Y53.046 E4.0892
G1 X66.673 Y53.569 E4.11425
G1 X66.77 Y54.111 E4.13926
G1 X66.798 Y54.723 E4.16709
G1 X66.8 Y54.83 E4.17195
G1 X66.8 Y64.811 E4.62527
G1 X66.791 Y65.538 E4.65829
G1 X66.744 Y66.087 E4.68332
G1 X66.618 Y66.624 E4.70837
G1 X66.416 Y67.136 E4.73337
G1 X66.142 Y67.614 E4.75839
G1 X65.802 Y68.048 E4.78343
G1 X65.403 Y68.427 E4.80843
G1 X64.953 Y68.745 E4.83346
G1 X64.462 Y68.995 E4.85848
G1 X63.94 Y69.171 E4.8835
G1 X63.397 Y69.269 E4.90856
G1 X62.777 Y69.299 E4.93675
G1 X57.658 Y69.3 E5.16925
G1 X56.96 Y69.291 E5.20096
G1 X56.411 Y69.244 E5.22598
G1 X55.875 Y69.118 E5.25099
G1 X55.362 Y68.916 E5.27603
G1 X54.884 Y68.641 E5.30108
G1 X54.451 Y68.301 E5.32608
G1 X54.071 Y67.901 E5.35114
G1 X53.754 Y67.451 E5.37614
G1 X53.504 Y66.96 E5.40117
G1 X53.329 Y66.438 E5.42617
G1 X53.231 Y65.895 E5.45123
G1 X53.201 Y65.261 E5.48006
G1 X53.2 Y55.123 E5.94052
G1 X53.209 Y54.458 E5.97072
G1 X53.257 Y53.909 E5.99575
G1 X53.383 Y53.372 E6.02081
G1 X53.586 Y52.86 E6.04582
G1 X53.86 Y52.382 E6.07085
G1 X53.872 Y52.367 E6.07172
G0 F1080 X54.201 Y51.949
G0 F2400 X54.256 Y52.513
G1 F1200 X54.594 Y52.116 E6.0954
G1 X54.988 Y51.775 E6.11907
G1 X55.429 Y51.498 E6.14272
G1 X55.908 Y51.292 E6.1664
G1 X56.412 Y51.162 E6.19004
G1 X56.914 Y51.11 E6.21296
G1 X57.33 Y51.1 E6.23186
G1 X62.342 Y51.1 E6.4595
G1 X63.04 Y51.11 E6.49121
G1 X63.559 Y51.158 E6.51488
G1 X64.064 Y51.284 E6.53852
G1 X64.545 Y51.486 E6.56221
G1 X64.989 Y51.759 E6.58589
G1 X65.386 Y52.096 E6.60954
G1 X65.726 Y52.491 E6.63321
G1 X66.003 Y52.933 E6.6569
G1 X66.209 Y53.411 E6.68054
G1 X66.339 Y53.916 E6.70423
G1 X66.39 Y54.414 E6.72696
G1 X66.4 Y54.83 E6.74586
G1 X66.4 Y64.806 E7.19896
G1 X66.391 Y65.533 E7.23198
G1 X66.344 Y66.052 E7.25565
G1 X66.219 Y66.558 E7.27932
G1 X66.018 Y67.039 E7.303
G1 X65.746 Y67.483 E7.32665
G1 X65.409 Y67.881 E7.35034
G1 X65.016 Y68.223 E7.374
G1 X64.574 Y68.5 E7.39769
G1 X64.096 Y68.706 E7.42133
G1 X63.591 Y68.838 E7.44504
G1 X63.086 Y68.89 E7.4681
G1 X62.67 Y68.9 E7.487
G1 X57.663 Y68.9 E7.71441
G1 X56.965 Y68.891 E7.74611
G1 X56.446 Y68.844 E7.76978
G1 X55.94 Y68.719 E7.79345
G1 X55.46 Y68.517 E7.81711
G1 X55.015 Y68.245 E7.8408
G1 X54.618 Y67.908 E7.86445
G1 X54.276 Y67.514 E7.88814
G1 X53.999 Y67.073 E7.9118
G1 X53.793 Y66.594 E7.93548
G1 X53.662 Y66.09 E7.95913
G1 X53.61 Y65.583 E7.98228
G1 X53.6 Y65.158 E8.00159
G1 X53.6 Y55.128 E8.45714
G1 X53.609 Y54.463 E8.48734
G1 X53.656 Y53.944 E8.51101
G1 X53.782 Y53.438 E8.5347
G1 X53.98 Y52.968 E8.55786
G0 F1080 X53.984 Y52.958
G0 X54.256 Y52.513
G0 F2400 X54.652 Y52.653
G1 F1200 X54.985 Y52.295 E8.58007
G1 X55.372 Y51.995 E8.60231
G1 X55.803 Y51.762 E8.62456
G1 X56.265 Y51.603 E8.64675
G1 X56.925 Y51.51 E8.67702
G1 X57.33 Y51.5 E8.69542
G1 X62.336 Y51.5 E8.92279
G1 X63.034 Y51.51 E8.95449
G1 X63.521 Y51.557 E8.97672
G1 X63.994 Y51.683 E8.99895
G1 X64.441 Y51.884 E9.02121
G1 X64.849 Y52.154 E9.04343
G1 X65.207 Y52.488 E9.06567
G1 X65.506 Y52.875 E9.08788
G1 X65.739 Y53.306 E9.11013
G1 X65.898 Y53.769 E9.13237
G1 X65.99 Y54.426 E9.1625
G1 X66 Y54.83 E9.18085
G1 X66 Y64.801 E9.63372
G1 X65.991 Y65.528 E9.66675
G1 X65.945 Y66.015 E9.68896
G1 X65.82 Y66.489 E9.71123
G1 X65.62 Y66.936 E9.73347
G1 X65.35 Y67.344 E9.75569
G1 X65.018 Y67.703 E9.7779
G1 X64.631 Y68.003 E9.80014
G1 X64.201 Y68.236 E9.82235
G1 X63.738 Y68.397 E9.84462
G1 X63.075 Y68.49 E9.87502
G1 X62.67 Y68.5 E9.89342
G1 X57.668 Y68.5 E10.12061
G1 X56.97 Y68.491 E10.15231
G1 X56.483 Y68.445 E10.17453
G1 X56.01 Y68.32 E10.19675
G1 X55.563 Y68.12 E10.21899
G1 X55.155 Y67.849 E10.24124
G1 X54.796 Y67.516 E10.26348
G1 X54.496 Y67.13 E10.28568
G1 X54.263 Y66.699 E10.30794
G1 X54.103 Y66.237 E10.33014
G1 X54.01 Y65.572 E10.36064
G1 X54 Y65.158 E10.37945
G1 X54 Y55.133 E10.83477
G1 X54.009 Y54.468 E10.86498
G1 X54.056 Y53.981 E10.8872
G1 X54.181 Y53.508 E10.90942
G1 X54.364 Y53.1 E10.92973
G0 F1080 X54.381 Y53.061
G0 X54.652 Y52.653
G0 F2400 X55.046 Y52.804
G1 F1200 X55.374 Y52.487 E10.95045
G1 X55.752 Y52.233 E10.97113
G1 X56.169 Y52.048 E10.99185
G1 X56.611 Y51.94 E11.01252
G1 X57.257 Y51.901 E11.04191
G1 X62.33 Y51.9 E11.27232
G1 X63.028 Y51.91 E11.30403
G1 X63.482 Y51.957 E11.32476
G1 X63.92 Y52.082 E11.34544
G1 X64.329 Y52.281 E11.3661
G1 X64.698 Y52.549 E11.38682
G1 X65.014 Y52.877 E11.4075
G1 X65.268 Y53.255 E11.42819
G1 X65.452 Y53.672 E11.44889
G1 X65.561 Y54.114 E11.46956
G1 X65.599 Y54.757 E11.49882
G1 X65.6 Y64.796 E11.95478
G1 X65.591 Y65.523 E11.9878
G1 X65.545 Y65.977 E12.00853
G1 X65.421 Y66.415 E12.0292
G1 X65.223 Y66.825 E12.04988
G1 X64.956 Y67.194 E12.07057
G1 X64.628 Y67.511 E12.09129
G1 X64.25 Y67.766 E12.11199
G1 X63.834 Y67.951 E12.13267
G1 X63.392 Y68.06 E12.15335
G1 X62.743 Y68.099 E12.18288
G1 X57.673 Y68.1 E12.41315
G1 X56.975 Y68.091 E12.44486
G1 X56.522 Y68.045 E12.46554
G1 X56.084 Y67.921 E12.48621
G1 X55.674 Y67.722 E12.50691
G1 X55.305 Y67.455 E12.5276
G1 X54.988 Y67.127 E12.54832
G1 X54.734 Y66.749 E12.569
G1 X54.549 Y66.333 E12.58968
G1 X54.44 Y65.89 E12.6104
G1 X54.401 Y65.228 E12.64052
G1 X54.4 Y55.139 E13.09875
G1 X54.409 Y54.474 E13.12896
G1 X54.455 Y54.021 E13.14964
G1 X54.58 Y53.582 E13.17037
G1 X54.745 Y53.242 E13.18753
G0 F1080 X54.779 Y53.172
G0 X55.046 Y52.804
G0 F2400 X55.44 Y52.967
G1 F1200 X55.761 Y52.698 E13.20655
G1 X56.127 Y52.494 E13.22559
G1 X56.525 Y52.363 E13.24462
G1 X57.268 Y52.301 E13.27848
G1 X62.325 Y52.3 E13.50816
G1 X63.023 Y52.31 E13.53987
G1 X63.439 Y52.356 E13.55888
G1 X63.839 Y52.48 E13.5779
G1 X64.209 Y52.678 E13.59696
G1 X64.534 Y52.942 E13.61598
G1 X64.803 Y53.263 E13.635
G1 X65.007 Y53.629 E13.65403
G1 X65.137 Y54.027 E13.67304
G1 X65.199 Y54.768 E13.70682
G1 X65.2 Y64.791 E14.16205
G1 X65.191 Y65.518 E14.19507
G1 X65.146 Y65.935 E14.21412
G1 X65.023 Y66.335 E14.23313
G1 X64.826 Y66.705 E14.25217
G1 X64.562 Y67.031 E14.27122
G1 X64.242 Y67.301 E14.29024
G1 X63.876 Y67.505 E14.30927
G1 X63.478 Y67.636 E14.3283
G1 X62.732 Y67.699 E14.3623
G1 X57.679 Y67.7 E14.5918
G1 X56.981 Y67.691 E14.62351
G1 X56.564 Y67.646 E14.64256
G1 X56.164 Y67.522 E14.66158
G1 X55.794 Y67.325 E14.68062
G1 X55.468 Y67.061 E14.69967
G1 X55.198 Y66.741 E14.71868
G1 X54.994 Y66.375 E14.73772
G1 X54.863 Y65.977 E14.75675
G1 X54.801 Y65.217 E14.79138
G1 X54.8 Y55.144 E15.24888
G1 X54.809 Y54.479 E15.27909
G1 X54.855 Y54.063 E15.2981
G1 X54.978 Y53.662 E15.31715
G1 X55.123 Y53.392 E15.33107
G0 F1080 X55.176 Y53.293
G0 X55.44 Y52.967
G1 F1500 E14.73107
;MESH:Bohrhilfe.stl
G0 F2400 X57.414 Y54.914
G0 X57.6 Y55.1
;TYPE:WALL-INNER
G1 F1500 E16.08805
G1 F1200 X58.391 Y55.1 E16.12397
G1 X58.889 Y55.1 E16.14659
G1 X59.083 Y55.1 E16.1554
G1 X58.889 Y55.175 E16.15668
G1 X58.486 Y55.467 E16.17054
G1 X58.382 Y55.543 E16.17639
G1 X57.996 Y56.025 E16.20444
G1 X57.976 Y56.049 E16.20586
G1 X57.745 Y56.579 E16.23212
G1 X57.651 Y57.129 E16.25746
G1 X57.689 Y57.689 E16.28295
G1 X57.861 Y58.229 E16.30869
G1 X57.988 Y58.434 E16.31965
G1 X58.168 Y58.726 E16.33523
G1 X58.612 Y59.15 E16.36311
G1 X59.177 Y59.454 E16.39225
G1 X59.747 Y59.588 E16.41885
G1 X60.304 Y59.584 E16.44415
G1 X60.926 Y59.412 E16.47346
G1 X61.461 Y59.096 E16.50168
G1 X61.867 Y58.682 E16.52801
G1 X62.012 Y58.437 E16.54094
G1 X62.152 Y58.201 E16.55341
G1 X62.318 Y57.651 E16.5795
G1 X62.348 Y57.093 E16.60488
G1 X62.242 Y56.534 E16.63072
G1 X62.001 Y56.012 E16.65684
G1 X61.65 Y55.573 E16.68236
G1 X61.51 Y55.468 E16.69031
G1 X61.146 Y55.195 E16.71098
G1 X60.902 Y55.1 E16.72287
G1 X61.146 Y55.1 E16.72401
G1 X61.601 Y55.1 E16.73721
G1 X62.4 Y55.1 E16.7735
G1 X62.4 Y56.012 E16.81492
G1 X62.4 Y56.534 E16.83128
G1 X62.4 Y57.093 E16.83788
G1 X62.4 Y57.651 E16.84214
G1 X62.4 Y58.201 E16.85231
G1 X62.4 Y58.476 E16.86252
G1 X62.4 Y64.9 E17.15429
G1 X57.6 Y64.9 E17.3723
G1 X57.6 Y58.471 E17.6643
G1 X57.6 Y58.229 E17.67347
G1 X57.6 Y57.689 E17.68406
G1 X57.6 Y57.129 E17.68852
G1 X57.6 Y56.579 E17.69459
G1 X57.6 Y56.049 E17.71012
G1 X57.6 Y56.017 E17.71153
G1 X57.6 Y55.1 E17.75318
G0 F2400 X57.848 Y57.659
G0 X58.293 Y58.624
G0 X59.235 Y59.303
G0 X60.846 Y59.33
G0 X60.768 Y59.041
;TYPE:WALL-OUTER
G1 F1200 X61.212 Y58.778 E17.77662
G1 X61.548 Y58.436 E17.7984
G1 X61.783 Y58.039 E17.81935
G1 X61.921 Y57.581 E17.84108
G1 X61.946 Y57.12 E17.86204
G1 X61.858 Y56.657 E17.88345
G1 X61.658 Y56.224 E17.90511
G1 X61.369 Y55.862 E17.92615
G1 X60.95 Y55.548 E17.94993
G1 X60.446 Y55.352 E17.97449
G1 X59.991 Y55.3 E17.99529
G1 X59.508 Y55.364 E18.01742
G1 X59.082 Y55.529 E18.03817
G1 X58.66 Y55.835 E18.06185
G1 X58.321 Y56.258 E18.08647
G1 X58.131 Y56.694 E18.10807
G1 X58.053 Y57.149 E18.12904
G1 X58.085 Y57.614 E18.15021
G1 X58.227 Y58.061 E18.17151
G1 X58.481 Y58.472 E18.19345
G1 X58.849 Y58.823 E18.21655
G1 X59.32 Y59.077 E18.24085
G1 X59.792 Y59.188 E18.26288
G1 X60.248 Y59.184 E18.28359
G1 X60.255 Y59.182 E18.28392
G0 F1080 X60.768 Y59.041
G0 F2400 X60.94 Y58.94
G0 X61.163 Y59.318
G0 X62.53 Y65.03
G0 X62.8 Y65.3
G1 F1200 X57.2 Y65.3 E18.53826
G1 X57.2 Y54.7 E19.0197
G1 X62.8 Y54.7 E19.27405
G1 X62.8 Y64.768 E19.73132
G0 F1080 X62.8 Y65.3
G0 F2400 X62.6 Y65.3
G0 X62.36 Y64.86
G0 X62.01 Y64.51
;TYPE:SKIN
G1 F1200 X57.99 Y64.51 E19.91391
G1 X57.99 Y59.096 E20.1598
G1 X58.38 Y59.468 E20.18428
G1 X59.038 Y59.822 E20.21822
G1 X59.704 Y59.978 E20.24929
G1 X60.358 Y59.974 E20.27899
G1 X61.08 Y59.774 E20.31302
G1 X61.703 Y59.406 E20.34588
G1 X62.01 Y59.094 E20.36576
G1 X62.01 Y63.978 E20.58759
G0 F1080 X62.01 Y64.51
G0 F2400 X58.712 Y64.369
G1 F1200 X58.129 Y63.786 E20.62504
G0 F2400 X58.129 Y63.221
G1 F1200 X59.278 Y64.369 E20.69881
G0 F2400 X59.843 Y64.369
G1 F1200 X58.129 Y62.655 E20.8089
G0 F2400 X58.129 Y62.089
G1 F1200 X60.409 Y64.369 E20.95535
G0 F2400 X60.975 Y64.369
G1 F1200 X58.129 Y61.523 E21.13815
G0 F2400 X58.129 Y60.958
M104 S200
G1 F1200 X61.54 Y64.369 E21.35725
G0 F2400 X61.87 Y64.133
G1 F1200 X58.129 Y60.392 E21.59754
G0 F2400 X58.129 Y59.826
G1 F1200 X61.87 Y63.567 E21.83783
G0 F2400 X61.87 Y63.001
G1 F1200 X58.629 Y59.761 E22.04597
G1 X58.559 Y59.691
G0 F2400 X59.511 Y60.077
G1 F1200 X61.87 Y62.436 E22.1975
G0 F2400 X61.869 Y61.869
G1 F1200 X60.116 Y60.116 E22.31009
G0 F2400 X60.614 Y60.048
G1 F1200 X61.869 Y61.304 E22.39074
G0 F2400 X61.869 Y60.738
G1 F1200 X61.057 Y59.925 E22.44293
G0 F2400 X61.428 Y59.731
G1 F1200 X61.869 Y60.172 E22.47125
G0 F2400 X61.869 Y59.606
G1 F1200 X61.783 Y59.52 E22.47678
G0 F2400 X62.121 Y57.81
G0 X62.241 Y56.019
G1 F1200 X61.96 Y55.738 E22.49482
G0 F2400 X62.259 Y55.471
G1 F1200 X62.028 Y55.24 E22.50966
G0 F2400 X60.48 Y55.123
G0 X59.601 Y55.124
G0 X58.279 Y55.45
G1 F1200 X58.068 Y55.239 E22.52322
G0 F2400 X57.738 Y55.476
G1 F1200 X58.026 Y55.763 E22.54168
G0 F2400 X57.98 Y55.724
;MESH:NONMESH
G0 F600 X57.98 Y55.724 Z0.42
G0 F2400 X57.6 Y55.1
;TIME_ELAPSED:28.345973
;LAYER:1
M106 S178.5
;TYPE:WALL-INNER
;MESH:Bohrhilfe.stl
G1 F1059.1 X58.408 Y55.1 E22.55799
G1 X58.749 Y55.1 E22.56488
G1 X59.09 Y55.1 E22.57176
G1 X58.749 Y55.258 E22.57367
G1 X58.484 Y55.472 E22.57858
G1 X58.318 Y55.606 E22.58289
G1 X57.995 Y56.029 E22.59363
G1 X57.971 Y56.061 E22.59444
G1 X57.744 Y56.58 E22.60587
G1 X57.651 Y57.111 E22.61676
G1 X57.692 Y57.707 E22.62882
G1 X57.864 Y58.239 E22.6401
G1 X57.988 Y58.439 E22.64485
G1 X58.163 Y58.72 E22.65153
G1 X58.562 Y59.112 E22.66283
G1 X59.076 Y59.414 E22.67486
G1 X59.714 Y59.587 E22.6882
G1 X60.327 Y59.579 E22.70058
G1 X60.935 Y59.409 E22.71332
G1 X61.471 Y59.087 E22.72594
G1 X61.915 Y58.616 E22.73901
G1 X62.014 Y58.43 E22.74326
G1 X62.211 Y58.055 E22.75181
G1 X62.339 Y57.505 E22.76321
G1 X62.33 Y56.927 E22.77488
G1 X62.159 Y56.315 E22.78771
G1 X62.013 Y56.072 E22.79343
G1 X61.831 Y55.771 E22.80053
G1 X61.515 Y55.475 E22.80927
G1 X61.358 Y55.329 E22.8136
G1 X60.921 Y55.1 E22.82356
G1 X61.358 Y55.1 E22.82588
G1 X61.573 Y55.1 E22.82936
G1 X62.4 Y55.1 E22.84606
G1 X62.4 Y56.031 E22.86485
G1 X62.4 Y56.315 E22.86949
G1 X62.4 Y56.927 E22.87424
G1 X62.4 Y57.505 E22.87616
G1 X62.4 Y58.055 E22.87959
G1 X62.4 Y58.479 E22.88596
G1 X62.4 Y64.9 E23.01558
G1 X57.6 Y64.9 E23.11247
G1 X57.6 Y58.475 E23.24217
G1 X57.6 Y58.239 E23.24616
G1 X57.6 Y57.707 E23.25087
G1 X57.6 Y57.111 E23.25303
G1 X57.6 Y56.58 E23.25562
G1 X57.6 Y56.061 E23.26229
G1 X57.6 Y56.02 E23.2631
G1 X57.6 Y55.1 E23.28167
G0 F3000 X57.85 Y57.674
G0 X58.291 Y58.621
G0 X59.14 Y59.264
G0 X60.057 Y59.423
G0 X60.928 Y59.295
G0 X60.775 Y59.038
;TYPE:WALL-OUTER
G1 F866.5 X61.218 Y58.772 E23.2921
G1 X61.587 Y58.381 E23.30295
G1 X61.833 Y57.914 E23.3136
G1 X61.938 Y57.462 E23.32297
G1 X61.931 Y56.985 E23.3326
G1 X61.788 Y56.475 E23.34329
G1 X61.517 Y56.025 E23.3539
G1 X61.124 Y55.658 E23.36475
G1 X60.664 Y55.417 E23.37523
G1 X60.215 Y55.312 E23.38454
G1 X59.73 Y55.32 E23.39433
G1 X59.418 Y55.388 E23.40078
G1 X58.962 Y55.6 E23.41093
G1 X58.607 Y55.887 E23.42015
G1 X58.318 Y56.265 E23.42975
G1 X58.13 Y56.696 E23.43924
G1 X58.053 Y57.132 E23.44818
G1 X58.088 Y57.63 E23.45826
G1 X58.23 Y58.069 E23.46757
G1 X58.478 Y58.468 E23.47705
G1 X58.807 Y58.792 E23.48638
G1 X59.232 Y59.042 E23.49633
G1 X59.765 Y59.186 E23.50747
G1 X59.93 Y59.184 E23.5108
G0 F779.9 X60.27 Y59.18
G0 X60.775 Y59.038
G0 F3000 X60.946 Y58.935
G0 X61.172 Y59.313
G0 X62.53 Y65.03
G0 X62.8 Y65.3
G1 F866.5 X57.2 Y65.3 E23.62385
G1 X57.2 Y54.7 E23.83782
G1 X62.8 Y54.7 E23.95086
