;FLAVOR:Marlin
;TIME:10074
;Filament used: 10.4337m
;Layer height: 0.24
;MINX:40.4
;MINY:34.714
;MINZ:0.3
;MAXX:79.6
;MAXY:85.291
;MAXZ:62.22
;Generated with Cura_SteamEngine 4.10.0
M104 S210
M105
M109 S210
M82 ;absolute extrusion mode
;Sliced at: Wed 18-08-2021 21:20:25
G21 ;metric values
G90 ;absolute positioning
M82 ;set extruder to absolute mode
M107 ;start with the fan off
G1 Z5.0 F1800 ;move Z to 5mm
G28 X0 Y0 F1800 ;move X/Y to min endstops
G28 Z0 ;move Z to min endstop
G92 E0 ;zero the extruded length
G1 F200 E6.0 ;extrude 6.0mm of feed stock to build pressure
G1 Z5.0 F300 ;move the platform down 5mm
G92 E0 ;zero the extruded length again
G1 F1800
;Put printing message on LCD screen
M117 Printing...
G92 E0
G92 E0
G1 F1500 E-0.6
;LAYER_COUNT:260
;LAYER:0
M106 S102
G0 F1440 X41.398 Y36.386 Z0.3
;TYPE:SKIRT
G1 F1500 E0.75698
G1 F1200 X41.792 Y36.046 E0.78062
G1 X42.234 Y35.769 E0.80431
G1 X42.759 Y35.543 E0.83027
G1 X43.313 Y35.355 E0.85684
G1 X43.85 Y35.224 E0.88194
G1 X44.228 Y35.164 E0.89933
G1 X46.433 Y34.783 E1.00096
G1 X47.174 Y34.722 E1.03473
G1 X47.687 Y34.714 E1.05803
G1 X48.247 Y34.755 E1.08353
G1 X49.424 Y34.939 E1.13764
G1 X52.173 Y35.331 E1.26376
G1 X54.861 Y35.636 E1.38663
G1 X57.59 Y35.867 E1.51102
G1 X60.336 Y36.023 E1.63594
G1 X64.096 Y36.108 E1.80676
G1 X64.54 Y36.11 E1.82693
G1 X65.274 Y36.124 E1.86027
G1 X65.793 Y36.173 E1.88395
G1 X66.298 Y36.294 E1.90753
G1 X66.791 Y36.466 E1.93125
G1 X67.251 Y36.711 E1.95492
G1 X67.725 Y37.065 E1.98179
G1 X67.913 Y37.225 E1.993
G1 X68.279 Y37.596 E2.01667
G1 X68.672 Y38.171 E2.0483
G1 X68.817 Y38.441 E2.06222
G1 X69.127 Y39.052 E2.09334
G1 X69.191 Y39.159 E2.09901
G1 X70.04 Y40.815 E2.18353
G1 X71.343 Y43.191 E2.3066
G1 X72.734 Y45.563 E2.4315
G1 X74.173 Y47.866 E2.55484
G1 X75.694 Y50.153 E2.67958
G1 X77.264 Y52.378 E2.80326
G1 X78.557 Y54.112 E2.90151
G1 X78.894 Y54.554 E2.92675
G1 X79.177 Y54.991 E2.9504
G1 X79.39 Y55.467 E2.97408
G1 X79.528 Y55.969 E2.99773
G1 X79.589 Y56.529 E3.02331
G1 X79.6 Y57.01 E3.04517
G1 X79.6 Y79.794 E4.07999
G1 X79.591 Y80.513 E4.11265
G1 X79.544 Y81.032 E4.13631
G1 X79.419 Y81.538 E4.15999
G1 X79.218 Y82.018 E4.18362
G1 X78.946 Y82.463 E4.20731
G1 X78.609 Y82.86 E4.23096
G1 X78.215 Y83.202 E4.25466
G1 X77.774 Y83.479 E4.27831
G1 X77.295 Y83.686 E4.30201
G1 X76.791 Y83.817 E4.32566
G1 X76.273 Y83.869 E4.34931
G1 X75.282 Y83.892 E4.39433
G1 X74.763 Y83.892 E4.4179
G1 X70.543 Y83.877 E4.60957
G1 X64.561 Y83.877 E4.88127
G1 X61.771 Y83.916 E5.008
G1 X59.034 Y84.033 E5.13242
G1 X56.327 Y84.225 E5.25568
G1 X53.607 Y84.494 E5.37982
G1 X50.912 Y84.839 E5.50322
G1 X48.939 Y85.141 E5.59388
G1 X48.298 Y85.246 E5.62338
G1 X47.796 Y85.291 E5.64627
G1 X46.941 Y85.28 E5.68511
G1 X46.463 Y85.232 E5.70693
G1 X45.163 Y85.006 E5.76686
G1 X45.036 Y84.992 E5.77266
G1 X44.116 Y84.822 E5.81515
G1 X43.335 Y84.658 E5.8514
G1 X42.632 Y84.412 E5.88523
G1 X42.159 Y84.194 E5.90888
G1 X41.724 Y83.907 E5.93255
G1 X41.338 Y83.556 E5.95625
G1 X41.01 Y83.151 E5.97992
G1 X40.748 Y82.701 E6.00357
G1 X40.558 Y82.215 E6.02727
G1 X40.445 Y81.707 E6.0509
G1 X40.401 Y80.97 E6.08444
G1 X40.4 Y39.406 E7.97222
G1 X40.41 Y38.732 E8.00284
G1 X40.458 Y38.213 E8.02651
G1 X40.584 Y37.707 E8.0502
G1 X40.787 Y37.227 E8.07387
G1 X41.055 Y36.792 E8.09707
G0 F1080 X41.06 Y36.783
G0 X41.398 Y36.386
G0 F1440 X41.789 Y36.565
G1 F1200 X42.176 Y36.266 E8.11928
G1 X42.726 Y35.985 E8.14734
G1 X43.439 Y35.735 E8.18165
G1 X44.291 Y35.559 E8.22117
G1 X46.501 Y35.177 E8.32303
G1 X47.193 Y35.121 E8.35456
G1 X48.185 Y35.15 E8.39964
G1 X49.372 Y35.336 E8.45421
G1 X52.108 Y35.725 E8.57972
G1 X54.851 Y36.037 E8.70511
G1 X57.57 Y36.267 E8.82904
G1 X60.305 Y36.422 E8.95346
G1 X64.086 Y36.508 E9.12524
G1 X64.532 Y36.51 E9.14549
G1 X65.266 Y36.524 E9.17884
G1 X65.977 Y36.623 E9.21144
G1 X66.657 Y36.844 E9.24392
G1 X67.304 Y37.24 E9.27837
G1 X67.651 Y37.527 E9.29882
G1 X67.993 Y37.877 E9.32105
G1 X68.32 Y38.361 E9.34758
G1 X68.46 Y38.622 E9.36103
G1 X68.792 Y39.275 E9.3943
G1 X68.835 Y39.342 E9.39792
G1 X69.683 Y40.996 E9.48234
G1 X70.99 Y43.38 E9.60582
G1 X72.393 Y45.771 E9.73173
G1 X73.844 Y48.094 E9.85613
G1 X75.355 Y50.366 E9.98006
G1 X76.95 Y52.626 E10.1057
G1 X78.239 Y54.354 E10.20361
G1 X78.576 Y54.796 E10.22885
G1 X78.84 Y55.208 E10.25108
G1 X79.033 Y55.658 E10.27332
G1 X79.151 Y56.133 E10.29555
G1 X79.199 Y56.934 E10.33199
G1 X79.2 Y79.789 E11.37004
G1 X79.191 Y80.508 E11.4027
G1 X79.145 Y80.995 E11.42491
G1 X79.02 Y81.468 E11.44714
G1 X78.82 Y81.915 E11.46938
G1 X78.55 Y82.323 E11.4916
G1 X78.217 Y82.682 E11.51384
G1 X77.831 Y82.982 E11.53604
G1 X77.4 Y83.216 E11.55832
G1 X76.938 Y83.376 E11.58052
G1 X76.264 Y83.469 E11.61142
G1 X75.282 Y83.492 E11.65604
G1 X74.764 Y83.492 E11.67957
G1 X70.544 Y83.477 E11.87123
G1 X64.555 Y83.477 E12.14325
G1 X61.749 Y83.517 E12.2707
G1 X59.022 Y83.632 E12.39467
G1 X56.298 Y83.826 E12.51871
G1 X53.584 Y84.095 E12.64258
G1 X50.806 Y84.45 E12.76978
G1 X48.887 Y84.744 E12.85795
G1 X48.233 Y84.851 E12.88805
G1 X47.507 Y84.895 E12.92108
G1 X46.953 Y84.881 E12.94625
G1 X46.531 Y84.838 E12.96552
G1 X45.191 Y84.605 E13.0273
G1 X45.109 Y84.599 E13.03103
G1 X44.141 Y84.42 E13.07574
G1 X43.455 Y84.276 E13.10758
G1 X42.771 Y84.036 E13.1405
G1 X42.327 Y83.83 E13.16273
G1 X41.923 Y83.554 E13.18495
G1 X41.569 Y83.216 E13.20718
G1 X41.274 Y82.825 E13.22943
G1 X41.047 Y82.391 E13.25167
G1 X40.894 Y81.926 E13.27391
G1 X40.811 Y81.308 E13.30223
G1 X40.8 Y80.873 E13.32199
G1 X40.8 Y39.411 E15.20515
G1 X40.81 Y38.737 E15.23576
G1 X40.857 Y38.25 E15.25798
G1 X40.983 Y37.777 E15.28021
G1 X41.184 Y37.331 E15.30243
G1 X41.432 Y36.958 E15.32278
G0 F1080 X41.455 Y36.923
G0 X41.789 Y36.565
G0 F1440 X41.85 Y37.074
G1 F1200 X42.178 Y36.758 E15.34346
G1 X42.556 Y36.504 E15.36415
G1 X43.048 Y36.289 E15.38853
G1 X43.565 Y36.114 E15.41333
G1 X44.353 Y35.954 E15.44985
G1 X46.569 Y35.571 E15.55199
G1 X47.212 Y35.521 E15.58128
G1 X48.124 Y35.545 E15.62271
G1 X49.332 Y35.734 E15.67825
G1 X52.078 Y36.125 E15.80423
G1 X54.773 Y36.431 E15.92742
G1 X57.549 Y36.666 E16.05395
G1 X60.302 Y36.822 E16.17919
G1 X64.076 Y36.908 E16.35064
G1 X64.525 Y36.909 E16.37104
G1 X65.259 Y36.923 E16.40438
G1 X65.875 Y37.01 E16.43263
G1 X66.522 Y37.222 E16.46356
G1 X67.054 Y37.552 E16.49199
G1 X67.388 Y37.829 E16.5117
G1 X67.705 Y38.156 E16.53238
G1 X68.072 Y38.742 E16.56379
G1 X68.409 Y39.403 E16.59749
G1 X68.479 Y39.524 E16.60384
G1 X69.334 Y41.192 E16.68897
G1 X70.646 Y43.583 E16.81284
G1 X72.042 Y45.964 E16.9382
G1 X73.505 Y48.305 E17.06358
G1 X75.04 Y50.613 E17.18947
G1 X76.622 Y52.856 E17.31414
G1 X77.921 Y54.597 E17.4128
G1 X78.258 Y55.039 E17.43804
G1 X78.501 Y55.424 E17.45872
G1 X78.674 Y55.845 E17.47939
G1 X78.789 Y56.549 E17.51179
G1 X78.8 Y57.01 E17.53273
G1 X78.8 Y79.784 E18.5671
G1 X78.791 Y80.503 E18.59976
G1 X78.745 Y80.956 E18.62044
G1 X78.621 Y81.394 E18.64112
G1 X78.422 Y81.804 E18.66181
G1 X78.155 Y82.173 E18.6825
G1 X77.828 Y82.49 E18.70319
G1 X77.45 Y82.745 E18.7239
G1 X77.034 Y82.93 E18.74457
G1 X76.591 Y83.039 E18.76529
G1 X76.254 Y83.069 E18.78066
G1 X75.282 Y83.092 E18.82482
G1 X74.766 Y83.092 E18.84826
G1 X70.546 Y83.077 E19.03993
G1 X64.55 Y83.077 E19.31226
G1 X61.761 Y83.116 E19.43894
G1 X58.978 Y83.235 E19.56546
G1 X56.263 Y83.427 E19.68908
G1 X53.53 Y83.698 E19.81382
G1 X50.774 Y84.051 E19.94001
G1 X48.846 Y84.346 E20.0286
G1 X48.169 Y84.457 E20.05976
G1 X47.502 Y84.495 E20.0901
G1 X46.965 Y84.481 E20.1145
G1 X46.6 Y84.443 E20.13117
G1 X45.359 Y84.227 E20.18838
G1 X45.182 Y84.206 E20.19647
G1 X44.214 Y84.027 E20.24119
G1 X43.575 Y83.895 E20.27082
G1 X42.909 Y83.661 E20.30288
G1 X42.497 Y83.466 E20.32359
G1 X42.126 Y83.203 E20.34424
G1 X41.806 Y82.878 E20.36496
G1 X41.548 Y82.503 E20.38563
G1 X41.359 Y82.088 E20.40634
G1 X41.245 Y81.647 E20.42703
G1 X41.201 Y80.947 E20.45888
G1 X41.2 Y39.417 E22.34513
G1 X41.21 Y38.743 E22.37574
G1 X41.257 Y38.29 E22.39643
G1 X41.382 Y37.852 E22.41711
G1 X41.549 Y37.511 E22.43436
G0 F1080 X41.582 Y37.442
G0 X41.85 Y37.074
G0 F1440 X42.243 Y37.238
G1 F1200 X42.564 Y36.969 E22.45338
G1 X43.015 Y36.731 E22.47654
G1 X43.69 Y36.494 E22.50904
G1 X44.403 Y36.351 E22.54206
G1 X46.637 Y35.965 E22.64503
G1 X47.23 Y35.92 E22.67204
G1 X48.062 Y35.94 E22.70984
G1 X49.271 Y36.129 E22.76542
G1 X52.009 Y36.519 E22.89103
G1 X54.765 Y36.832 E23.01701
G1 X57.529 Y37.067 E23.143
G1 X60.27 Y37.222 E23.26769
G1 X64.066 Y37.308 E23.44015
G1 X64.517 Y37.309 E23.46063
G1 X65.251 Y37.323 E23.49398
G1 X65.772 Y37.396 E23.51787
G1 X66.384 Y37.6 E23.54717
G1 X66.975 Y38.001 E23.57961
G1 X67.415 Y38.434 E23.60765
G1 X67.72 Y38.933 E23.63421
G1 X68.077 Y39.633 E23.6699
G1 X68.123 Y39.707 E23.67385
G1 X68.97 Y41.361 E23.75825
G1 X70.3 Y43.784 E23.88379
G1 X71.701 Y46.173 E24.00958
G1 X73.176 Y48.534 E24.13602
G1 X74.701 Y50.827 E24.26109
G1 X76.29 Y53.078 E24.38624
G1 X77.617 Y54.858 E24.48708
G1 X77.939 Y55.281 E24.51122
G1 X78.161 Y55.637 E24.53028
G1 X78.31 Y56.028 E24.54928
G1 X78.389 Y56.559 E24.57367
G1 X78.4 Y57.01 E24.59416
G1 X78.4 Y79.779 E25.6283
G1 X78.391 Y80.498 E25.66095
G1 X78.346 Y80.914 E25.67996
G1 X78.222 Y81.315 E25.69902
G1 X78.025 Y81.684 E25.71802
G1 X77.762 Y82.01 E25.73705
G1 X77.441 Y82.28 E25.7561
G1 X77.075 Y82.484 E25.77513
G1 X76.677 Y82.616 E25.79417
G1 X76.244 Y82.669 E25.81399
G1 X75.282 Y82.692 E25.85769
G1 X74.767 Y82.692 E25.88108
G1 X70.547 Y82.677 E26.07275
G1 X64.544 Y82.677 E26.3454
G1 X61.738 Y82.717 E26.47286
G1 X58.968 Y82.834 E26.59878
G1 X56.232 Y83.028 E26.72336
G1 X53.472 Y83.302 E26.84933
G1 X50.747 Y83.651 E26.97411
G1 X48.758 Y83.955 E27.06549
G1 X48.104 Y84.062 E27.09559
G1 X47.496 Y84.095 E27.12325
G1 X46.978 Y84.081 E27.14678
G1 X46.669 Y84.049 E27.16089
G1 X45.359 Y83.821 E27.22129
G1 X45.254 Y83.812 E27.22607
G1 X44.315 Y83.639 E27.26944
G1 X43.694 Y83.513 E27.29822
G1 X43.048 Y83.286 E27.32932
G1 X42.67 Y83.104 E27.34837
G1 X42.334 Y82.854 E27.36739
G1 X42.052 Y82.544 E27.38643
G1 X41.833 Y82.187 E27.40545
G1 X41.686 Y81.795 E27.42446
G1 X41.611 Y81.285 E27.44788
G1 X41.6 Y80.873 E27.4666
G1 X41.6 Y39.423 E29.3492
G1 X41.61 Y38.749 E29.37982
G1 X41.656 Y38.333 E29.39883
G1 X41.781 Y37.933 E29.41786
G1 X41.925 Y37.662 E29.4318
G0 F1080 X41.978 Y37.563
G0 X42.243 Y37.238
G0 F1440 X44.1 Y38.986
;TYPE:SUPPORT
G1 F1200 X44.404 Y38.88 E29.45373
G1 X45.008 Y38.909 E29.49493
G1 X45.65 Y38.681 E29.54135
G1 X46.249 Y38.708 E29.5822
G1 X46.337 Y38.677 E29.58855
G1 X46.232 Y38.784 E29.59877
G1 X45.997 Y39.361 E29.64121
G1 X45.853 Y39.827 E29.67444
G1 X45.852 Y80.183 E32.42382
G1 X46.002 Y80.647 E32.45704
G1 X46.23 Y81.213 E32.49861
G1 X46.341 Y81.327 E32.50945
G1 X46.251 Y81.295 E32.51596
G1 X45.652 Y81.322 E32.55681
G1 X45.007 Y81.095 E32.6034
G1 X44.402 Y81.123 E32.64466
G1 X44.1 Y81.017 E32.66646
G1 X44.1 Y39.341 E35.50577
G0 F1080 X44.1 Y38.986
G0 F1440 X44.325 Y43.64
G1 F1200 X45.627 Y43.64 E35.59448
G0 F1440 X45.627 Y49.095
G1 F1200 X44.325 Y49.095 E35.68318
G0 F1440 X44.325 Y54.55
G1 F1200 X45.627 Y54.55 E35.77188
G0 F1440 X45.626 Y60.005
G1 F1200 X44.324 Y60.005 E35.86058
G0 F1440 X44.324 Y65.46
G1 F1200 X45.626 Y65.46 E35.94929
G0 F1440 X45.626 Y70.915
G1 F1200 X44.324 Y70.915 E36.03799
G0 F1440 X44.324 Y76.37
G1 F1200 X45.626 Y76.37 E36.12669
G1 F1500 E35.52669
;MESH:Gopro_dummy.stl
G0 F1440 X48.072 Y76.372
G0 X74.8 Y79.092
;TYPE:WALL-INNER
G1 F1500 E36.88367
G1 F1200 X74.6 Y79.092 E36.89276
G1 X70.647 Y79.077 E37.0723
G1 X53.968 Y79.077 E37.82984
G1 X49.564 Y79.092 E38.02986
G1 X49.052 Y79.09 E38.05312
G1 X49.053 Y40.91 E39.78721
G1 X49.574 Y40.907 E39.81087
G1 X54.005 Y40.923 E40.01212
G1 X59.608 Y40.923 E40.2666
G1 X64.017 Y40.908 E40.46686
G1 X64.041 Y40.908 E40.46795
G1 X64.378 Y40.909 E40.48325
G1 X64.392 Y40.909 E40.48389
G1 X64.392 Y40.933 E40.48498
G1 X64.393 Y41.28 E40.50074
G1 X64.393 Y41.294 E40.50137
G1 X64.377 Y45.825 E40.70717
G1 X64.392 Y50.084 E40.90061
G1 X64.388 Y51.235 E40.95288
G1 X64.43 Y51.981 E40.98682
G1 X64.587 Y52.843 E41.02662
G1 X64.837 Y53.637 E41.06442
G1 X65.18 Y54.396 E41.10225
G1 X65.612 Y55.102 E41.13985
G1 X66.096 Y55.717 E41.17539
G1 X66.684 Y56.303 E41.21309
G1 X67.339 Y56.815 E41.25085
G1 X68.05 Y57.242 E41.28852
G1 X68.072 Y57.251 E41.2896
G1 X68.788 Y57.57 E41.3252
G1 X68.811 Y57.581 E41.32636
G1 X69.603 Y57.823 E41.36398
G1 X70.417 Y57.971 E41.40155
G1 X71.13 Y58.013 E41.43399
G1 X74.601 Y58.012 E41.59164
G1 X74.8 Y58.012 E41.60068
G1 X74.8 Y58.211 E41.60653
G1 X74.8 Y78.892 E42.54583
G1 X74.8 Y79.092 E42.55171
G0 F1440 X75.2 Y79.492
G1 F1200 X75.049 Y79.493 E42.55857
G1 X74.925 Y79.493 E42.5642
G1 X70.646 Y79.477 E42.75855
G1 X53.969 Y79.477 E43.516
G1 X49.564 Y79.492 E43.71607
G1 X48.652 Y79.489 E43.75749
G1 X48.653 Y40.512 E45.52778
G1 X49.573 Y40.507 E45.56957
G1 X54.006 Y40.523 E45.77091
G1 X59.607 Y40.523 E46.0253
G1 X64.042 Y40.508 E46.22673
G1 X64.79 Y40.511 E46.26071
G1 X64.793 Y41.281 E46.29568
G1 X64.777 Y45.825 E46.50206
G1 X64.792 Y50.085 E46.69555
G1 X64.788 Y51.224 E46.74728
G1 X64.828 Y51.934 E46.77958
G1 X64.976 Y52.747 E46.81711
G1 X65.211 Y53.494 E46.85268
G1 X65.534 Y54.208 E46.88827
G1 X65.941 Y54.873 E46.92368
G1 X66.396 Y55.451 E46.95709
G1 X66.949 Y56.003 E46.99258
G1 X66.968 Y56.017 E46.99365
G1 X67.566 Y56.485 E47.02814
G1 X68.235 Y56.887 E47.06359
G1 X68.257 Y56.896 E47.06467
G1 X68.928 Y57.195 E47.09804
G1 X68.951 Y57.206 E47.0992
G1 X69.697 Y57.434 E47.13462
G1 X70.465 Y57.573 E47.17007
G1 X71.142 Y57.613 E47.20088
G1 X75.001 Y57.612 E47.37615
G1 X75.2 Y57.612 E47.38518
G1 X75.2 Y57.811 E47.39103
G1 X75.2 Y79.368 E48.37012
G1 X75.2 Y79.483 E48.37535
G0 F1080 X75.2 Y79.492
G0 F1440 X75.6 Y79.89
G1 F1200 X75.05 Y79.893 E48.40033
G1 X70.645 Y79.877 E48.6004
G1 X53.97 Y79.877 E49.35776
G1 X49.564 Y79.892 E49.55787
G1 X48.454 Y79.888 E49.60829
G1 X48.257 Y79.812 E49.61788
G1 X48.252 Y79.798 E49.61855
G1 X48.253 Y40.2 E51.41705
G1 X48.441 Y40.113 E51.42646
G1 X49.572 Y40.107 E51.47783
G1 X54.007 Y40.123 E51.67926
G1 X59.606 Y40.123 E51.93356
G1 X64.042 Y40.108 E52.13504
G1 X65.136 Y40.112 E52.18473
G1 X65.188 Y40.161 E52.18797
G1 X65.193 Y41.282 E52.23889
G1 X65.177 Y45.825 E52.44522
G1 X65.192 Y50.086 E52.63875
G1 X65.188 Y51.213 E52.68994
G1 X65.226 Y51.887 E52.7206
G1 X65.365 Y52.651 E52.75587
G1 X65.585 Y53.351 E52.7892
G1 X65.888 Y54.02 E52.82256
G1 X66.27 Y54.644 E52.85579
G1 X66.696 Y55.185 E52.88706
G1 X67.214 Y55.703 E52.92033
G1 X67.793 Y56.155 E52.95369
G1 X68.42 Y56.532 E52.98692
G1 X69.091 Y56.831 E53.02029
G1 X69.791 Y57.045 E53.05353
G1 X70.512 Y57.175 E53.08681
G1 X71.154 Y57.213 E53.11602
G1 X75.401 Y57.212 E53.30891
G1 X75.6 Y57.212 E53.31795
G1 X75.6 Y57.411 E53.3238
G1 X75.6 Y79.89 E54.34477
G0 F1440 X76 Y80.288
;TYPE:WALL-OUTER
G1 F1200 X75.051 Y80.293 E54.38787
G1 X70.644 Y80.277 E54.58803
G1 X53.971 Y80.277 E55.3453
G1 X49.564 Y80.292 E55.54546
G1 X48.427 Y80.288 E55.5971
G1 X48.273 Y80.271 E55.60414
G1 X47.936 Y80.096 E55.62139
G1 X47.852 Y79.869 E55.63238
G1 X47.853 Y40.13 E57.43728
G1 X47.936 Y39.904 E57.44821
G1 X48.277 Y39.727 E57.46566
G1 X48.423 Y39.713 E57.47232
G1 X49.571 Y39.707 E57.52446
G1 X54.008 Y39.723 E57.72599
G1 X59.605 Y39.723 E57.9802
G1 X64.042 Y39.708 E58.18172
G1 X65.19 Y39.712 E58.23386
G1 X65.344 Y39.754 E58.24111
G1 X65.55 Y39.948 E58.25396
G1 X65.588 Y40.117 E58.26183
G1 X65.593 Y41.283 E58.31479
G1 X65.577 Y45.825 E58.52108
G1 X65.592 Y50.087 E58.71466
G1 X65.588 Y51.202 E58.7653
G1 X65.624 Y51.84 E58.79433
G1 X65.754 Y52.555 E58.82733
G1 X65.959 Y53.208 E58.85842
G1 X66.242 Y53.832 E58.88954
G1 X66.599 Y54.415 E58.92059
G1 X66.996 Y54.919 E58.94973
G1 X67.48 Y55.403 E58.98081
G1 X68.02 Y55.825 E59.01194
G1 X68.605 Y56.177 E59.04295
G1 X69.231 Y56.456 E59.07408
G1 X69.885 Y56.656 E59.10514
G1 X70.559 Y56.777 E59.13624
G1 X71.166 Y56.813 E59.16386
G1 X75.8 Y56.812 E59.37433
G1 X76 Y56.812 E59.38341
G1 X76 Y57.012 E59.3893
G1 X76 Y80.288 E60.44646
G0 F1440 X75.8 Y80.289
G0 X75.56 Y79.849
G0 X74.41 Y78.7
;TYPE:SKIN
G1 F1200 X70.649 Y78.687 E60.61728
G1 X53.968 Y78.687 E61.37492
G1 X49.442 Y78.702 E61.58048
G1 X49.443 Y41.298 E63.27933
G1 X49.574 Y41.297 E63.28528
G1 X54.003 Y41.313 E63.48644
