;FLAVOR:Marlin
;TIME:706
;Filament used: 0.819509m
;Layer height: 0.12
;MINX:32.704
;MINY:50.704
;MINZ:0.3
;MAXX:69.293
;MAXY:69.298
;MAXZ:7.89
;Generated with Cura_SteamEngine 4.7.1
M104 S210
M105
M109 S210
M82 ;absolute extrusion mode
;Sliced at: Fri 26-11-2021 10:51:04
G21 ;metric values
G90 ;absolute positioning
M82 ;set extruder to absolute mode
M107 ;start with the fan off
G1 Z5.0 F1800 ;move Z to 5mm
G28 X0 Y0 F1800 ;move X/Y to min endstops
G28 Z0 ;move Z to min endstop
G92 E0 ;zero the extruded length
G1 F200 E6.0 ;extrude 6.0mm of feed stock to build pressure
G1 Z5.0 F300 ;move the platform down 5mm
G92 E0 ;zero the extruded length again
G1 F1800
;Put printing message on LCD screen
M117 Printing...
G92 E0
G92 E0
G1 F1500 E-5
;LAYER_COUNT:36
;LAYER:0
M107
G0 F1350 X36.708 Y52.357 Z0.3
;TYPE:SKIRT
G1 F1500 E0.72757
G1 F900 X37.19 Y52.045 E0.75908
G1 X37.694 Y51.76 E0.79085
G1 X38.18 Y51.523 E0.82052
G1 X38.745 Y51.29 E0.85406
G1 X39.271 Y51.112 E0.88454
G1 X39.812 Y50.964 E0.91532
G1 X40.334 Y50.853 E0.94461
G1 X40.928 Y50.765 E0.97756
G1 X41.496 Y50.717 E1.00884
G1 X42.088 Y50.704 E1.04134
G1 X42.648 Y50.726 E1.0721
G1 X42.804 Y50.734 E1.08067
G1 X44.27 Y50.839 E1.16133
G1 X46.965 Y50.995 E1.30947
G1 X49.662 Y51.074 E1.45755
G1 X52.359 Y51.078 E1.60556
G1 X55.024 Y51.005 E1.75186
G1 X57.745 Y50.855 E1.90142
G1 X59.186 Y50.743 E1.98074
G1 X59.495 Y50.717 E1.99775
G1 X60.095 Y50.704 E2.03069
G1 X60.648 Y50.726 E2.06106
G1 X61.218 Y50.783 E2.0925
G1 X61.747 Y50.868 E2.1219
G1 X62.339 Y51.002 E2.15521
G1 X62.894 Y51.165 E2.18696
G1 X63.437 Y51.36 E2.21862
G1 X63.916 Y51.566 E2.24723
G1 X64.447 Y51.835 E2.2799
G1 X64.947 Y52.128 E2.31171
G1 X65.436 Y52.457 E2.34405
G1 X65.853 Y52.776 E2.37286
G1 X66.293 Y53.156 E2.40477
G1 X66.703 Y53.557 E2.43624
G1 X67.105 Y54.003 E2.46919
G1 X67.445 Y54.431 E2.49919
G1 X67.775 Y54.901 E2.53071
G1 X68.055 Y55.356 E2.56003
G1 X68.333 Y55.877 E2.59243
G1 X68.572 Y56.4 E2.62399
G1 X68.787 Y56.962 E2.65701
G1 X68.949 Y57.48 E2.6868
G1 X69.089 Y58.045 E2.71874
G1 X69.19 Y58.594 E2.74938
G1 X69.261 Y59.177 E2.78161
G1 X69.292 Y59.699 E2.8103
G1 X69.293 Y60.379 E2.84762
G1 X69.261 Y60.878 E2.87506
G1 X69.205 Y61.303 E2.89859
G1 X69.096 Y61.921 E2.93303
G1 X68.951 Y62.536 E2.9677
G1 X68.707 Y63.276 E3.01047
G1 X68.47 Y63.847 E3.04439
G1 X68.048 Y64.655 E3.09442
G1 X67.737 Y65.157 E3.12683
G1 X67.4 Y65.636 E3.15897
G1 X66.931 Y66.206 E3.19948
G1 X66.541 Y66.616 E3.23053
G1 X66.085 Y67.037 E3.26459
G1 X65.653 Y67.39 E3.29521
G1 X65.125 Y67.764 E3.33072
G1 X64.616 Y68.077 E3.36351
G1 X64.146 Y68.326 E3.3927
G1 X63.304 Y68.691 E3.44306
G1 X63.235 Y68.719 E3.44715
G1 X62.725 Y68.893 E3.47672
G1 X61.993 Y69.086 E3.51826
G1 X61.418 Y69.194 E3.55037
G1 X60.893 Y69.258 E3.5794
G1 X60.46 Y69.287 E3.60321
G1 X59.956 Y69.298 E3.63088
G1 X59.443 Y69.288 E3.65904
G1 X58.866 Y69.25 E3.69077
G1 X57.575 Y69.142 E3.76187
G1 X54.847 Y68.993 E3.9118
G1 X52.186 Y68.922 E4.05789
G1 X49.488 Y68.928 E4.20595
G1 X46.794 Y69.009 E4.35386
G1 X42.994 Y69.253 E4.56283
G1 X42.487 Y69.286 E4.59072
G1 X41.904 Y69.298 E4.62272
G1 X41.345 Y69.277 E4.65342
G1 X40.804 Y69.222 E4.68326
G1 X40.202 Y69.128 E4.7167
G1 X39.41 Y68.935 E4.76143
G1 X38.864 Y68.759 E4.79291
G1 X38.313 Y68.54 E4.82545
G1 X37.796 Y68.299 E4.85676
G1 X37.21 Y67.974 E4.89353
G1 X36.69 Y67.638 E4.92751
G1 X35.969 Y67.079 E4.97758
G1 X35.471 Y66.627 E5.01448
G1 X34.889 Y65.991 E5.0618
G1 X34.483 Y65.472 E5.09796
G1 X34.17 Y65.014 E5.1284
G1 X33.868 Y64.508 E5.16074
G1 X33.631 Y64.049 E5.18909
G1 X33.392 Y63.507 E5.2216
G1 X33.166 Y62.894 E5.25745
G1 X32.999 Y62.338 E5.28931
G1 X32.886 Y61.85 E5.3168
G1 X32.8 Y61.332 E5.34562
G1 X32.733 Y60.727 E5.37902
G1 X32.704 Y60.136 E5.41149
G1 X32.711 Y59.6 E5.44091
G1 X32.755 Y59.018 E5.47294
G1 X32.83 Y58.465 E5.50357
G1 X32.949 Y57.869 E5.53692
G1 X33.09 Y57.342 E5.56686
G1 X33.273 Y56.794 E5.59857
G1 X33.477 Y56.286 E5.62861
G1 X33.728 Y55.757 E5.66074
G1 X34.006 Y55.253 E5.69233
G1 X34.329 Y54.744 E5.72541
G1 X34.635 Y54.324 E5.75393
G1 X35.001 Y53.881 E5.78547
G1 X35.404 Y53.448 E5.81793
G1 X35.835 Y53.039 E5.85054
G1 X36.277 Y52.67 E5.88214
G0 F810 X36.708 Y52.357
G0 F1350 X36.925 Y52.692
G1 F900 X37.407 Y52.38 E5.91365
G1 X37.869 Y52.119 E5.94277
G1 X38.355 Y51.882 E5.97244
G1 X38.874 Y51.669 E6.00323
G1 X39.4 Y51.491 E6.0337
G1 X39.895 Y51.355 E6.06187
G1 X40.417 Y51.244 E6.09116
G1 X40.961 Y51.164 E6.12134
G1 X41.529 Y51.116 E6.15262
G1 X42.073 Y51.103 E6.18248
G1 X42.633 Y51.125 E6.21324
G1 X42.775 Y51.133 E6.22104
G1 X44.216 Y51.237 E6.30033
G1 X46.966 Y51.395 E6.4515
G1 X49.65 Y51.474 E6.59886
G1 X52.369 Y51.478 E6.74807
G1 X55.057 Y51.405 E6.89564
G1 X57.753 Y51.256 E7.04382
G1 X59.248 Y51.14 E7.12611
G1 X59.529 Y51.116 E7.14159
G1 X60.079 Y51.103 E7.17178
G1 X60.632 Y51.125 E7.20216
G1 X61.155 Y51.178 E7.231
G1 X61.684 Y51.263 E7.26041
G1 X62.226 Y51.385 E7.2909
G1 X62.781 Y51.548 E7.32264
G1 X63.279 Y51.728 E7.3517
G1 X63.758 Y51.934 E7.38032
G1 X64.245 Y52.18 E7.41026
G1 X64.745 Y52.473 E7.44206
G1 X65.193 Y52.774 E7.47168
G1 X65.61 Y53.093 E7.5005
G1 X66.014 Y53.442 E7.52979
G1 X66.424 Y53.843 E7.56127
G1 X66.792 Y54.252 E7.59146
G1 X67.132 Y54.68 E7.62146
G1 X67.434 Y55.111 E7.65034
G1 X67.714 Y55.566 E7.67966
G1 X67.969 Y56.043 E7.70934
G1 X68.208 Y56.566 E7.7409
G1 X68.405 Y57.082 E7.77121
G1 X68.567 Y57.6 E7.801
G1 X68.695 Y58.117 E7.83023
G1 X68.796 Y58.666 E7.86086
G1 X68.861 Y59.201 E7.89044
G1 X68.892 Y59.723 E7.91913
G1 X68.893 Y60.371 E7.9547
G1 X68.811 Y61.233 E8.00221
G1 X68.681 Y61.964 E8.04296
G1 X68.509 Y62.615 E8.07991
G1 X68.329 Y63.144 E8.11058
G1 X68.105 Y63.683 E8.14261
G1 X67.708 Y64.444 E8.18972
G1 X67.397 Y64.946 E8.22212
G1 X67.087 Y65.387 E8.25171
G1 X66.626 Y65.946 E8.29147
G1 X66.26 Y66.332 E8.32066
G1 X65.816 Y66.741 E8.35379
G1 X65.408 Y67.073 E8.38266
G1 X64.897 Y67.435 E8.41703
G1 X64.416 Y67.73 E8.44799
G1 X63.962 Y67.97 E8.47617
G1 X63.152 Y68.321 E8.52462
G1 X62.618 Y68.507 E8.55565
G1 X61.898 Y68.697 E8.59652
G1 X61.356 Y68.799 E8.62678
G1 X60.848 Y68.86 E8.65486
G1 X60.451 Y68.887 E8.6767
G1 X59.947 Y68.898 E8.70437
G1 X59.469 Y68.888 E8.7306
G1 X58.816 Y68.845 E8.76652
G1 X57.562 Y68.74 E8.83558
G1 X54.88 Y68.593 E8.98298
G1 X52.195 Y68.522 E9.13039
G1 X49.475 Y68.528 E9.27966
G1 X46.787 Y68.609 E9.42724
G1 X42.982 Y68.853 E9.63649
G1 X42.479 Y68.886 E9.66415
G1 X41.896 Y68.898 E9.69615
G1 X41.383 Y68.879 E9.72432
G1 X40.855 Y68.825 E9.75345
G1 X40.286 Y68.737 E9.78505
G1 X39.511 Y68.548 E9.82883
G1 X38.999 Y68.382 E9.85836
G1 X38.463 Y68.169 E9.89002
G1 X37.974 Y67.941 E9.91963
G1 X37.407 Y67.627 E9.9552
G1 X36.916 Y67.309 E9.9873
G1 X36.236 Y66.781 E10.03455
G1 X35.75 Y66.341 E10.07052
G1 X35.19 Y65.728 E10.11609
G1 X34.813 Y65.247 E10.14963
G1 X34.5 Y64.789 E10.18007
G1 X34.223 Y64.325 E10.20973
G1 X33.986 Y63.866 E10.23808
G1 X33.768 Y63.369 E10.26786
G1 X33.542 Y62.756 E10.30371
G1 X33.388 Y62.246 E10.33295
G1 X33.26 Y61.687 E10.36442
G1 X33.198 Y61.288 E10.38658
G1 X33.131 Y60.683 E10.41999
G1 X33.104 Y60.142 E10.44971
G1 X33.111 Y59.606 E10.47913
G1 X33.151 Y59.072 E10.50852
G1 X33.226 Y58.519 E10.53915
G1 X33.336 Y57.973 E10.56971
G1 X33.477 Y57.446 E10.59965
G1 X33.644 Y56.943 E10.62874
G1 X33.848 Y56.435 E10.65878
G1 X34.078 Y55.95 E10.68824
G1 X34.356 Y55.446 E10.71982
G1 X34.653 Y54.98 E10.75015
G1 X34.959 Y54.56 E10.77867
G1 X35.294 Y54.153 E10.8076
G1 X35.697 Y53.72 E10.84006
G1 X36.092 Y53.346 E10.86991
G1 X36.497 Y53.007 E10.8989
G0 F810 X36.527 Y52.982
G0 X36.925 Y52.692
G0 F1350 X37.142 Y53.028
G1 F900 X37.624 Y52.716 E10.93041
G1 X38.045 Y52.479 E10.95692
G1 X38.531 Y52.242 E10.98659
G1 X39.002 Y52.048 E11.01455
G1 X39.528 Y51.87 E11.04502
G1 X39.978 Y51.746 E11.07064
G1 X40.5 Y51.635 E11.09993
G1 X40.995 Y51.562 E11.12739
G1 X41.563 Y51.514 E11.15867
G1 X42.057 Y51.503 E11.18578
G1 X42.617 Y51.525 E11.21654
G1 X42.747 Y51.532 E11.22369
G1 X44.222 Y51.638 E11.30484
G1 X46.93 Y51.795 E11.4537
G1 X49.637 Y51.874 E11.60233
G1 X52.345 Y51.878 E11.75094
G1 X55.09 Y51.803 E11.90164
G1 X57.806 Y51.653 E12.05092
G1 X59.279 Y51.539 E12.132
G1 X59.563 Y51.515 E12.14764
G1 X60.063 Y51.503 E12.17508
G1 X60.616 Y51.525 E12.20546
G1 X61.092 Y51.573 E12.23171
G1 X61.621 Y51.658 E12.26112
G1 X62.113 Y51.769 E12.28879
G1 X62.668 Y51.932 E12.32054
G1 X63.121 Y52.095 E12.34696
G1 X63.6 Y52.301 E12.37557
G1 X64.042 Y52.525 E12.40277
G1 X64.542 Y52.818 E12.43457
G1 X64.95 Y53.092 E12.46154
G1 X65.367 Y53.411 E12.49036
G1 X65.734 Y53.728 E12.51697
G1 X66.144 Y54.129 E12.54844
G1 X66.479 Y54.501 E12.57592
G1 X66.819 Y54.929 E12.60591
G1 X67.094 Y55.321 E12.63219
G1 X67.374 Y55.776 E12.66151
G1 X67.605 Y56.209 E12.68844
G1 X67.844 Y56.732 E12.72
G1 X68.024 Y57.201 E12.74757
G1 X68.186 Y57.719 E12.77736
G1 X68.302 Y58.189 E12.80392
G1 X68.403 Y58.738 E12.83456
G1 X68.462 Y59.225 E12.86148
G1 X68.493 Y59.747 E12.89018
G1 X68.493 Y60.363 E12.92398
G1 X68.417 Y61.164 E12.96814
G1 X68.289 Y61.884 E13.00827
G1 X68.127 Y62.499 E13.04317
G1 X67.951 Y63.013 E13.07299
G1 X67.741 Y63.518 E13.103
G1 X67.368 Y64.234 E13.14731
G1 X67.057 Y64.736 E13.17972
G1 X66.594 Y65.364 E13.22253
G1 X66.092 Y65.935 E13.26426
G1 X65.547 Y66.445 E13.30522
G1 X65 Y66.877 E13.34347
G1 X64.382 Y67.288 E13.3842
G1 X63.778 Y67.615 E13.4219
G1 X63.001 Y67.951 E13.46835
G1 X62.51 Y68.122 E13.49689
G1 X61.802 Y68.309 E13.53707
G1 X61.294 Y68.404 E13.56544
G1 X60.442 Y68.487 E13.61241
G1 X59.938 Y68.498 E13.64008
G1 X59.495 Y68.489 E13.6644
G1 X58.849 Y68.446 E13.69993
G1 X57.616 Y68.343 E13.76783
G1 X54.913 Y68.195 E13.91639
G1 X52.17 Y68.122 E14.06698
G1 X49.462 Y68.128 E14.21559
G1 X46.778 Y68.209 E14.36295
G1 X42.925 Y68.456 E14.57484
G1 X42.47 Y68.486 E14.59986
G1 X41.887 Y68.498 E14.63186
G1 X41.037 Y68.444 E14.6786
G1 X40.369 Y68.346 E14.71565
G1 X39.613 Y68.162 E14.75835
G1 X39.133 Y68.006 E14.78605
G1 X38.613 Y67.799 E14.81677
G1 X38.152 Y67.583 E14.84471
G1 X37.605 Y67.279 E14.87905
G1 X37.143 Y66.979 E14.90928
G1 X36.503 Y66.483 E14.95372
G1 X36.03 Y66.054 E14.98876
G1 X35.49 Y65.464 E15.03265
G1 X35.144 Y65.021 E15.0635
G1 X34.831 Y64.563 E15.09395
G1 X34.579 Y64.141 E15.12092
G1 X34.342 Y63.682 E15.14927
G1 X34.143 Y63.231 E15.17632
G1 X33.917 Y62.618 E15.21218
G1 X33.695 Y61.807 E15.25832
G1 X33.595 Y61.244 E15.2897
G1 X33.528 Y60.639 E15.32311
G1 X33.504 Y60.147 E15.35014
G1 X33.511 Y59.611 E15.37956
G1 X33.547 Y59.125 E15.4063
G1 X33.622 Y58.572 E15.43693
G1 X33.722 Y58.076 E15.46469
G1 X33.863 Y57.549 E15.49463
G1 X34.015 Y57.092 E15.52106
G1 X34.219 Y56.584 E15.55111
G1 X34.428 Y56.143 E15.57789
G1 X34.706 Y55.639 E15.60948
G1 X34.976 Y55.216 E15.63702
G1 X35.282 Y54.796 E15.66553
G1 X35.587 Y54.426 E15.69185
G1 X35.99 Y53.993 E15.72431
G1 X36.707 Y53.352 E15.77709
G1 X36.716 Y53.346 E15.77768
G0 F810 X37.142 Y53.028
G0 F1350 X37.36 Y53.364
G1 F900 X37.842 Y53.052 E15.80919
G1 X38.22 Y52.838 E15.83303
G1 X38.706 Y52.601 E15.86271
G1 X39.13 Y52.427 E15.88786
G1 X39.656 Y52.249 E15.91833
G1 X40.061 Y52.138 E15.94138
G1 X40.583 Y52.027 E15.97067
G1 X41.029 Y51.961 E15.99541
G1 X41.597 Y51.913 E16.02669
G1 X42.041 Y51.903 E16.05106
G1 X42.601 Y51.925 E16.08182
G1 X42.718 Y51.931 E16.08825
G1 X44.189 Y52.037 E16.16919
G1 X46.93 Y52.195 E16.31986
G1 X49.626 Y52.274 E16.46788
G1 X52.355 Y52.278 E16.61764
G1 X55.087 Y52.204 E16.76763
G1 X57.86 Y52.05 E16.92004
G1 X59.282 Y51.94 E16.99831
G1 X60.047 Y51.903 E17.04035
G1 X60.6 Y51.925 E17.07072
G1 X61.028 Y51.968 E17.09432
G1 X61.557 Y52.053 E17.12373
G1 X62 Y52.153 E17.14865
G1 X62.555 Y52.316 E17.1804
G1 X62.963 Y52.463 E17.2042
G1 X63.442 Y52.669 E17.23281
G1 X63.84 Y52.87 E17.25728
G1 X64.34 Y53.163 E17.28908
G1 X64.707 Y53.41 E17.31336
G1 X65.124 Y53.729 E17.34217
G1 X65.454 Y54.014 E17.3661
G1 X65.864 Y54.415 E17.39758
G1 X66.166 Y54.75 E17.42233
G1 X66.506 Y55.178 E17.45233
G1 X66.753 Y55.53 E17.47592
G1 X67.033 Y55.985 E17.50524
G1 X67.241 Y56.376 E17.52955
G1 X67.48 Y56.899 E17.56111
G1 X67.642 Y57.32 E17.58586
G1 X67.804 Y57.838 E17.61565
G1 X67.909 Y58.262 E17.63962
G1 X68.01 Y58.811 E17.67025
G1 X68.063 Y59.249 E17.69447
G1 X68.094 Y59.771 E17.72316
G1 X68.093 Y60.354 E17.75516
G1 X68.023 Y61.094 E17.79595
G1 X67.897 Y61.805 E17.83558
G1 X67.744 Y62.384 E17.86844
G1 X67.574 Y62.881 E17.89727
G1 X67.376 Y63.354 E17.92541
G1 X67.028 Y64.023 E17.96679
G1 X66.717 Y64.525 E17.9992
G1 X66.281 Y65.115 E18.03946
G1 X65.81 Y65.651 E18.07862
G1 X65.278 Y66.148 E18.11857
G1 X64.771 Y66.548 E18.15401
G1 X64.182 Y66.942 E18.1929
G1 X63.594 Y67.26 E18.22959
G1 X62.849 Y67.581 E18.27411
G1 X62.073 Y67.829 E18.31882
G1 X61.404 Y67.981 E18.35647
G1 X60.759 Y68.065 E18.39216
G1 X60.434 Y68.087 E18.41004
G1 X59.93 Y68.098 E18.4377
G1 X59.521 Y68.09 E18.46015
G1 X58.882 Y68.048 E18.4953
G1 X57.635 Y67.944 E18.56397
G1 X54.91 Y67.795 E18.71374
G1 X52.181 Y67.722 E18.86356
G1 X49.449 Y67.728 E19.01349
G1 X46.771 Y67.808 E19.16052
G1 X42.918 Y68.056 E19.37241
G1 X42.462 Y68.086 E19.39749
G1 X41.879 Y68.098 E19.42949
G1 X41.076 Y68.045 E19.47365
G1 X40.453 Y67.955 E19.5082
G1 X39.715 Y67.775 E19.54988
G1 X39.131 Y67.577 E19.58373
G1 X38.511 Y67.314 E19.62069
G1 X37.803 Y66.931 E19.66486
G1 X37.37 Y66.65 E19.69319
G1 X36.77 Y66.186 E19.73481
G1 X36.309 Y65.768 E19.76896
G1 X35.791 Y65.2 E19.81115
G1 X35.474 Y64.795 E19.83938
G1 X35.161 Y64.337 E19.86982
G1 X34.934 Y63.958 E19.89407
G1 X34.697 Y63.499 E19.92241
G1 X34.518 Y63.092 E19.94682
G1 X34.292 Y62.479 E19.98267
G1 X34.084 Y61.715 E20.02612
G1 X33.993 Y61.2 E20.05482
G1 X33.926 Y60.595 E20.08823
G1 X33.904 Y60.152 E20.11257
G1 X33.911 Y59.616 E20.14199
G1 X33.944 Y59.179 E20.16604
G1 X34.019 Y58.626 E20.19666
G1 X34.108 Y58.18 E20.22162
G1 X34.249 Y57.653 E20.25156
G1 X34.386 Y57.241 E20.27539
G1 X34.59 Y56.733 E20.30543
G1 X34.779 Y56.336 E20.32956
G1 X35.057 Y55.832 E20.36115
G1 X35.299 Y55.451 E20.38592
G1 X35.605 Y55.031 E20.41444
G1 X35.88 Y54.698 E20.43814
G1 X36.283 Y54.265 E20.4706
G1 X36.935 Y53.684 E20.51853
G0 F810 X36.964 Y53.659
G0 X37.36 Y53.364
G0 F1350 X37.577 Y53.7
G1 F900 X38.059 Y53.388 E20.55004
G1 X38.395 Y53.198 E20.57122
G1 X38.881 Y52.961 E20.60089
G1 X39.258 Y52.806 E20.62326
G1 X39.784 Y52.628 E20.65374
G1 X40.144 Y52.529 E20.67423
G1 X40.666 Y52.418 E20.70352
G1 X41.063 Y52.359 E20.72554
G1 X41.631 Y52.311 E20.75683
G1 X42.026 Y52.302 E20.77851
G1 X42.586 Y52.324 E20.80926
G1 X42.689 Y52.33 E20.81493
G1 X44.136 Y52.434 E20.89454
G1 X46.895 Y52.593 E21.0462
G1 X49.649 Y52.674 E21.19741
G1 X52.365 Y52.678 E21.34646
G1 X55.119 Y52.603 E21.49765
G1 X57.868 Y52.451 E21.64875
G1 X59.324 Y52.338 E21.72889
G1 X60.031 Y52.303 E21.76774
G1 X60.584 Y52.325 E21.79811
G1 X60.965 Y52.363 E21.81912
G1 X61.494 Y52.448 E21.84853
G1 X61.888 Y52.537 E21.87069
G1 X62.443 Y52.7 E21.90244
G1 X62.805 Y52.83 E21.92355
G1 X63.284 Y53.036 E21.95216
G1 X63.638 Y53.215 E21.97393
G1 X64.138 Y53.508 E22.00573
G1 X64.464 Y53.727 E22.02729
G1 X64.881 Y54.046 E22.0561
G1 X65.174 Y54.3 E22.07738
G1 X65.584 Y54.701 E22.10885
G1 X65.853 Y54.999 E22.13089
G1 X66.193 Y55.427 E22.16088
G1 X66.412 Y55.74 E22.18185
G1 X66.692 Y56.195 E22.21117
G1 X66.877 Y56.542 E22.23275
G1 X67.116 Y57.065 E22.2643
G1 X67.26 Y57.44 E22.28635
G1 X67.422 Y57.958 E22.31613
G1 X67.515 Y58.334 E22.33739
G1 X67.616 Y58.883 E22.36802
G1 X67.663 Y59.272 E22.38953
G1 X67.694 Y59.794 E22.41823
G1 X67.693 Y60.346 E22.44852
G1 X67.629 Y61.025 E22.48595
G1 X67.505 Y61.725 E22.52496
G1 X67.361 Y62.268 E22.55579
G1 X67.196 Y62.75 E22.58375
G1 X66.955 Y63.308 E22.61711
G1 X66.688 Y63.812 E22.64841
G1 X66.377 Y64.314 E22.68081
G1 X65.968 Y64.866 E22.71852
G1 X65.529 Y65.367 E22.75507
G1 X65.009 Y65.852 E22.7941
G1 X64.543 Y66.22 E22.82668
G1 X63.983 Y66.595 E22.86367
G1 X63.41 Y66.905 E22.89942
G1 X62.697 Y67.211 E22.942
G1 X61.965 Y67.443 E22.98414
G1 X61.342 Y67.586 E23.01922
G1 X60.714 Y67.668 E23.05398
G1 X60.425 Y67.687 E23.06987
G1 X59.921 Y67.698 E23.09754
G1 X59.548 Y67.691 E23.11801
G1 X58.915 Y67.649 E23.15283
G1 X57.654 Y67.544 E23.22227
G1 X54.943 Y67.395 E23.37127
G1 X52.19 Y67.322 E23.52241
