;FLAVOR:Marlin
;TIME:10207
;Filament used: 6.31066m
;Layer height: 0.24
;MINX:4.362
;MINY:2.855
;MINZ:0.3
;MAXX:115.638
;MAXY:117.15
;MAXZ:9.66
;Generated with Cura_SteamEngine 4.10.0
M104 S210
M105
M109 S210
M82 ;absolute extrusion mode
;Sliced at: Sun 25-07-2021 21:18:16
G21 ;metric values
G90 ;absolute positioning
M82 ;set extruder to absolute mode
M107 ;start with the fan off
G1 Z5.0 F1800 ;move Z to 5mm
G28 X0 Y0 F1800 ;move X/Y to min endstops
G28 Z0 ;move Z to min endstop
G92 E0 ;zero the extruded length
G1 F200 E6.0 ;extrude 6.0mm of feed stock to build pressure
G1 Z5.0 F300 ;move the platform down 5mm
G92 E0 ;zero the extruded length again
G1 F1800
;Put printing message on LCD screen
M117 Printing...
G92 E0
G92 E0
G1 F1500 E-0.6
;LAYER_COUNT:41
;LAYER:0
M106 S102
G0 F1440 X20.522 Y20.902 Z0.3
;TYPE:SKIRT
G1 F1500 E0.75698
G1 F1200 X21.661 Y19.775 E0.82976
G1 X22.871 Y18.645 E0.90495
G1 X23.8 Y17.822 E0.96132
G1 X24.111 Y17.552 E0.98003
G1 X24.924 Y16.867 E1.02831
G1 X25.185 Y16.652 E1.04367
G1 X26.063 Y15.942 E1.09495
G1 X26.335 Y15.726 E1.11073
G1 X27.217 Y15.044 E1.16137
G1 X27.509 Y14.823 E1.178
G1 X28.325 Y14.218 E1.22414
G1 X28.677 Y13.963 E1.24388
G1 X29.386 Y13.455 E1.28349
G1 X29.799 Y13.166 E1.30639
G1 X30.553 Y12.647 E1.34796
G1 X30.856 Y12.442 E1.36458
G1 X31.683 Y11.893 E1.40966
G1 X32.3 Y11.491 E1.44311
G1 X33.38 Y10.81 E1.5011
G1 X33.83 Y10.533 E1.5251
G1 X34.961 Y9.858 E1.58492
G1 X35.338 Y9.64 E1.6047
G1 X36.63 Y8.917 E1.67194
G1 X36.823 Y8.813 E1.6819
G1 X38.357 Y8.014 E1.76046
G1 X39.948 Y7.248 E1.84066
G1 X40.263 Y7.103 E1.85641
G1 X41.325 Y6.632 E1.90917
G1 X42.156 Y6.284 E1.95009
G1 X42.936 Y5.974 E1.98822
G1 X43.782 Y5.656 E2.02926
G1 X44.644 Y5.35 E2.07081
G1 X45.631 Y5.023 E2.11803
G1 X46.52 Y4.748 E2.1603
G1 X47.463 Y4.481 E2.20481
G1 X48.438 Y4.228 E2.25056
G1 X49.314 Y4.02 E2.29146
G1 X50.312 Y3.804 E2.33783
G1 X51.318 Y3.612 E2.38435
G1 X52.256 Y3.452 E2.42757
G1 X53.299 Y3.298 E2.47545
G1 X54.28 Y3.175 E2.52036
G1 X55.276 Y3.071 E2.56584
G1 X56.383 Y2.979 E2.61629
G1 X57.433 Y2.916 E2.66407
G1 X58.376 Y2.878 E2.70693
G1 X59.533 Y2.855 E2.75949
G1 X60.467 Y2.855 E2.80191
G1 X61.699 Y2.88 E2.85788
G1 X62.714 Y2.923 E2.90402
G1 X63.619 Y2.979 E2.9452
G1 X64.799 Y3.078 E2.99899
G1 X65.79 Y3.183 E3.04425
G1 X66.773 Y3.308 E3.08926
G1 X67.817 Y3.464 E3.1372
G1 X68.749 Y3.624 E3.18015
G1 X69.767 Y3.82 E3.22723
G1 X70.754 Y4.034 E3.2731
G1 X71.632 Y4.245 E3.31412
G1 X72.611 Y4.501 E3.36008
G1 X73.559 Y4.772 E3.40486
G1 X74.431 Y5.043 E3.44633
G1 X75.423 Y5.373 E3.49382
G1 X76.282 Y5.679 E3.53523
G1 X77.122 Y5.997 E3.57603
G1 X77.901 Y6.307 E3.61411
G1 X78.744 Y6.662 E3.65565
G1 X79.772 Y7.12 E3.70676
G1 X80.107 Y7.274 E3.72351
G1 X81.643 Y8.014 E3.80095
G1 X83.177 Y8.813 E3.8795
G1 X83.418 Y8.943 E3.89194
G1 X84.704 Y9.664 E3.9589
G1 X85.08 Y9.882 E3.97864
G1 X86.206 Y10.556 E4.03825
G1 X86.655 Y10.831 E4.06216
G1 X87.739 Y11.517 E4.12043
G1 X88.34 Y11.908 E4.15299
G1 X89.165 Y12.456 E4.19797
G1 X89.47 Y12.662 E4.21469
G1 X90.228 Y13.184 E4.25649
G1 X90.638 Y13.473 E4.27928
G1 X91.345 Y13.978 E4.31874
G1 X91.701 Y14.237 E4.33873
G1 X92.513 Y14.84 E4.38467
G1 X92.818 Y15.071 E4.40205
G1 X93.704 Y15.757 E4.45294
G1 X93.954 Y15.956 E4.46745
G1 X94.839 Y16.671 E4.51913
G1 X95.103 Y16.888 E4.53465
G1 X95.921 Y17.58 E4.58331
G1 X96.205 Y17.825 E4.60035
G1 X97.184 Y18.694 E4.6598
G1 X98.266 Y19.702 E4.72697
G1 X98.342 Y19.775 E4.73175
G1 X99.481 Y20.904 E4.80459
G1 X100.611 Y22.099 E4.87929
G1 X100.692 Y22.187 E4.88472
G1 X101.827 Y23.477 E4.96276
G1 X102.74 Y24.581 E5.02783
G1 X103.22 Y25.19 E5.06305
G1 X103.715 Y25.845 E5.10034
G1 X104.249 Y26.579 E5.14157
G1 X104.747 Y27.295 E5.18118
G1 X105.204 Y27.977 E5.21847
G1 X105.719 Y28.782 E5.26187
G1 X106.19 Y29.557 E5.30306
G1 X106.682 Y30.406 E5.34763
G1 X107.199 Y31.347 E5.39639
G1 X107.656 Y32.226 E5.44139
G1 X108.13 Y33.187 E5.49006
G1 X108.577 Y34.147 E5.53815
G1 X108.991 Y35.087 E5.5848
G1 X109.395 Y36.062 E5.63274
G1 X109.778 Y37.032 E5.6801
G1 X110.14 Y38.008 E5.72738
G1 X110.525 Y39.106 E5.78023
G1 X110.847 Y40.085 E5.82704
G1 X111.125 Y40.976 E5.86943
G1 X111.398 Y41.901 E5.91324
G1 X111.689 Y42.945 E5.96246
G1 X111.944 Y43.923 E6.00836
G1 X112.011 Y44.187 E6.02074
G1 X112.203 Y44.976 E6.05762
G1 X112.432 Y45.973 E6.10408
G1 X112.562 Y46.575 E6.13205
G1 X112.707 Y47.267 E6.16416
G1 X112.808 Y47.768 E6.18738
G1 X112.977 Y48.64 E6.22772
G1 X113.04 Y48.984 E6.2436
G1 X113.218 Y49.983 E6.28969
G1 X113.312 Y50.537 E6.31521
G1 X113.404 Y51.1 E6.34112
G1 X113.519 Y51.835 E6.37491
G1 X113.612 Y52.46 E6.40361
G1 X113.684 Y52.965 E6.42678
G1 X113.815 Y53.941 E6.4715
G1 X114.016 Y55.552 E6.54524
G1 X114.125 Y56.494 E6.58831
G1 X114.302 Y58.172 E6.66495
G1 X114.384 Y59.042 E6.70464
G1 X114.531 Y60.727 E6.78146
G1 X114.591 Y61.47 E6.81531
G1 X114.729 Y63.354 E6.90111
G1 X114.755 Y63.739 E6.91864
G1 X114.896 Y65.981 E7.02067
G1 X115.007 Y67.983 E7.11174
G1 X115.078 Y69.349 E7.17386
G1 X115.156 Y70.981 E7.24807
G1 X115.224 Y72.503 E7.31727
G1 X115.338 Y75.432 E7.4504
G1 X115.452 Y78.773 E7.60223
G1 X115.504 Y80.55 E7.68297
G1 X115.547 Y82.309 E7.76289
G1 X115.586 Y84.296 E7.85315
G1 X115.608 Y85.76 E7.91965
G1 X115.626 Y87.458 E7.99678
G1 X115.636 Y89.138 E8.07308
G1 X115.638 Y90.799 E8.14853
G1 X115.633 Y92.444 E8.22324
G1 X115.615 Y94.832 E8.3317
G1 X115.587 Y97.164 E8.43763
G1 X115.554 Y99.437 E8.54087
G1 X115.476 Y104.007 E8.74847
G1 X115.43 Y107.067 E8.88747
G1 X115.412 Y108.731 E8.96305
G1 X115.403 Y110.152 E9.02759
G1 X115.4 Y111.259 E9.07787
G1 X115.4 Y113.061 E9.15971
G1 X115.39 Y113.788 E9.19273
G1 X115.343 Y114.307 E9.2164
G1 X115.217 Y114.813 E9.24009
G1 X115.015 Y115.293 E9.26374
G1 X114.742 Y115.737 E9.28741
G1 X114.405 Y116.134 E9.31106
G1 X114.011 Y116.475 E9.33473
G1 X113.569 Y116.752 E9.35842
G1 X113.09 Y116.958 E9.3821
G1 X112.586 Y117.088 E9.40575
G1 X112.086 Y117.14 E9.42858
G1 X111.67 Y117.15 E9.44748
G1 X8.663 Y117.15 E14.12593
G1 X7.965 Y117.141 E14.15763
G1 X7.446 Y117.094 E14.1813
G1 X6.94 Y116.969 E14.20497
G1 X6.46 Y116.767 E14.22863
G1 X6.015 Y116.495 E14.25232
G1 X5.618 Y116.158 E14.27597
G1 X5.276 Y115.764 E14.29966
G1 X4.999 Y115.323 E14.32332
G1 X4.793 Y114.844 E14.347
G1 X4.662 Y114.34 E14.37065
G1 X4.61 Y113.827 E14.39407
G1 X4.6 Y113.385 E14.41415
G1 X4.599 Y110.606 E14.54037
G1 X4.595 Y109.609 E14.58565
G1 X4.579 Y107.766 E14.66936
G1 X4.567 Y106.796 E14.71342
G1 X4.519 Y103.585 E14.85928
G1 X4.482 Y101.599 E14.94949
G1 X4.411 Y97.023 E15.15736
G1 X4.384 Y94.678 E15.26387
G1 X4.367 Y92.325 E15.37074
G1 X4.362 Y90.785 E15.44069
G1 X4.364 Y89.122 E15.51622
G1 X4.374 Y87.442 E15.59252
G1 X4.392 Y85.742 E15.66974
G1 X4.423 Y83.832 E15.7565
G1 X4.453 Y82.29 E15.82655
G1 X4.497 Y80.532 E15.90642
G1 X4.558 Y78.48 E15.99966
G1 X4.651 Y75.723 E16.12495
G1 X4.71 Y74.168 E16.19563
G1 X4.777 Y72.483 E16.27222
G1 X4.845 Y70.974 E16.34083
G1 X4.923 Y69.331 E16.41553
G1 X5.017 Y67.533 E16.49731
G1 X5.106 Y65.959 E16.56891
G1 X5.246 Y63.718 E16.67089
G1 X5.272 Y63.338 E16.68819
G1 X5.411 Y61.445 E16.7744
G1 X5.471 Y60.706 E16.80808
G1 X5.618 Y59.016 E16.88513
G1 X5.702 Y58.138 E16.92519
G1 X5.879 Y56.459 E17.00187
G1 X5.987 Y55.52 E17.0448
G1 X6.189 Y53.912 E17.1184
G1 X6.32 Y52.937 E17.16308
G1 X6.391 Y52.439 E17.18593
G1 X6.485 Y51.812 E17.21473
G1 X6.6 Y51.073 E17.2487
G1 X6.691 Y50.519 E17.27419
G1 X6.787 Y49.957 E17.30009
G1 X6.964 Y48.957 E17.34621
G1 X7.028 Y48.616 E17.36197
G1 X7.197 Y47.745 E17.40227
G1 X7.299 Y47.236 E17.42585
G1 X7.442 Y46.553 E17.45754
G1 X7.577 Y45.936 E17.48623
G1 X7.808 Y44.929 E17.53315
G1 X7.999 Y44.145 E17.5698
G1 X8.282 Y43.049 E17.62121
G1 X8.617 Y41.848 E17.67784
G1 X8.89 Y40.927 E17.72147
G1 X9.169 Y40.034 E17.76397
G1 X9.496 Y39.045 E17.81128
G1 X9.887 Y37.933 E17.86481
G1 X10.246 Y36.972 E17.91141
G1 X10.628 Y36.004 E17.95867
G1 X11.04 Y35.018 E18.00721
G1 X11.453 Y34.083 E18.05363
G1 X11.901 Y33.123 E18.10175
G1 X12.379 Y32.155 E18.15078
G1 X12.837 Y31.281 E18.1956
G1 X13.358 Y30.337 E18.24457
G1 X13.848 Y29.495 E18.28882
G1 X14.319 Y28.724 E18.32985
G1 X14.796 Y27.977 E18.37011
G1 X15.286 Y27.247 E18.41004
G1 X15.793 Y26.519 E18.45033
G1 X16.322 Y25.795 E18.49106
G1 X16.821 Y25.137 E18.52857
G1 X17.307 Y24.522 E18.56417
G1 X18.106 Y23.556 E18.62111
G1 X18.175 Y23.475 E18.62594
G1 X19.31 Y22.187 E18.70391
G1 X19.387 Y22.103 E18.70909
G1 X20.155 Y21.288 E18.75995
G0 F1080 X20.439 Y20.987
G0 X20.522 Y20.902
G0 F1440 X20.803 Y21.186
G1 F1200 X21.942 Y20.059 E18.83272
G1 X23.143 Y18.938 E18.90734
G1 X24.065 Y18.121 E18.96329
G1 X24.369 Y17.858 E18.98155
G1 X25.179 Y17.175 E19.02967
G1 X25.436 Y16.963 E19.0448
G1 X26.313 Y16.254 E19.09602
G1 X26.579 Y16.042 E19.11147
G1 X27.457 Y15.363 E19.16188
G1 X27.748 Y15.145 E19.1784
G1 X28.56 Y14.542 E19.22434
G1 X28.91 Y14.288 E19.24398
G1 X29.616 Y13.783 E19.2834
G1 X30.026 Y13.495 E19.30616
G1 X30.777 Y12.978 E19.34757
G1 X31.077 Y12.776 E19.364
G1 X31.901 Y12.229 E19.40892
G1 X32.514 Y11.83 E19.44214
G1 X33.589 Y11.151 E19.49989
G1 X34.035 Y10.877 E19.52366
G1 X35.162 Y10.204 E19.58328
G1 X35.534 Y9.989 E19.60279
G1 X36.82 Y9.269 E19.66973
G1 X37.008 Y9.167 E19.67945
G1 X38.445 Y8.417 E19.75307
G1 X40.067 Y7.634 E19.83487
G1 X40.426 Y7.469 E19.85282
G1 X41.48 Y7.001 E19.9052
G1 X42.304 Y6.655 E19.94579
G1 X43.077 Y6.348 E19.98356
G1 X43.916 Y6.032 E20.02428
G1 X44.77 Y5.729 E20.06544
G1 X45.75 Y5.405 E20.11232
G1 X46.629 Y5.133 E20.15411
G1 X47.564 Y4.868 E20.19825
G1 X48.531 Y4.617 E20.24362
G1 X49.399 Y4.41 E20.28415
G1 X50.315 Y4.211 E20.32673
G1 X51.385 Y4.006 E20.37621
G1 X52.315 Y3.848 E20.41905
G1 X53.349 Y3.695 E20.46653
G1 X54.322 Y3.572 E20.51107
G1 X55.309 Y3.469 E20.55614
G1 X56.407 Y3.379 E20.60618
G1 X57.449 Y3.316 E20.65359
G1 X58.384 Y3.278 E20.6961
G1 X59.533 Y3.255 E20.74829
G1 X60.467 Y3.255 E20.79071
G1 X61.682 Y3.28 E20.84591
G1 X62.689 Y3.323 E20.89169
G1 X63.658 Y3.383 E20.93578
G1 X64.692 Y3.469 E20.98291
G1 X65.74 Y3.58 E21.03077
G1 X66.715 Y3.704 E21.07541
G1 X67.75 Y3.858 E21.12294
G1 X68.674 Y4.017 E21.16552
G1 X69.682 Y4.211 E21.21214
G1 X70.661 Y4.423 E21.25764
G1 X71.531 Y4.632 E21.29828
G1 X72.501 Y4.886 E21.34382
G1 X73.441 Y5.154 E21.38822
G1 X74.305 Y5.423 E21.42932
G1 X75.289 Y5.75 E21.47641
G1 X76.14 Y6.053 E21.51744
G1 X76.974 Y6.369 E21.55795
G1 X77.747 Y6.676 E21.59572
G1 X78.581 Y7.027 E21.63682
G1 X79.606 Y7.484 E21.68779
G1 X79.933 Y7.634 E21.70413
G1 X81.555 Y8.417 E21.78594
G1 X83.028 Y9.187 E21.86143
G1 X83.222 Y9.292 E21.87145
G1 X84.503 Y10.01 E21.93814
G1 X84.875 Y10.225 E21.95766
G1 X85.997 Y10.897 E22.01706
G1 X86.441 Y11.17 E22.04073
G1 X87.521 Y11.852 E22.09875
G1 X88.119 Y12.242 E22.13117
G1 X88.942 Y12.788 E22.17603
G1 X89.243 Y12.991 E22.19252
G1 X89.998 Y13.512 E22.23418
G1 X90.405 Y13.798 E22.25677
G1 X91.11 Y14.302 E22.29614
G1 X91.462 Y14.559 E22.31593
G1 X92.272 Y15.159 E22.36171
G1 X92.574 Y15.387 E22.3789
G1 X93.455 Y16.069 E22.4295
G1 X93.703 Y16.267 E22.44392
G1 X94.585 Y16.98 E22.49543
G1 X94.845 Y17.194 E22.51072
G1 X95.66 Y17.882 E22.55916
G1 X95.939 Y18.124 E22.57594
G1 X96.911 Y18.987 E22.63498
G1 X98.06 Y20.059 E22.70635
G1 X99.199 Y21.188 E22.77919
G1 X100.32 Y22.373 E22.85328
G1 X100.391 Y22.451 E22.85807
G1 X101.586 Y23.811 E22.94029
G1 X102.426 Y24.828 E23.0002
G1 X102.901 Y25.431 E23.03507
G1 X103.392 Y26.081 E23.07207
G1 X103.921 Y26.808 E23.1129
G1 X104.414 Y27.518 E23.15216
G1 X104.906 Y28.252 E23.19229
G1 X105.377 Y28.99 E23.23206
G1 X105.844 Y29.758 E23.27288
G1 X106.331 Y30.599 E23.31702
G1 X106.844 Y31.532 E23.36538
G1 X107.297 Y32.403 E23.40997
G1 X107.767 Y33.357 E23.45827
G1 X108.211 Y34.308 E23.50594
G1 X108.621 Y35.241 E23.55223
G1 X109.023 Y36.209 E23.59983
G1 X109.403 Y37.171 E23.64681
G1 X109.763 Y38.14 E23.69376
G1 X110.145 Y39.232 E23.74631
G1 X110.466 Y40.205 E23.79284
G1 X110.742 Y41.09 E23.83495
G1 X111.013 Y42.008 E23.87842
G1 X111.302 Y43.046 E23.92736
G1 X111.556 Y44.022 E23.97316
G1 X111.623 Y44.282 E23.98536
G1 X111.813 Y45.065 E24.02195
G1 X112.041 Y46.058 E24.06823
G1 X112.171 Y46.658 E24.09611
G1 X112.315 Y47.345 E24.12799
G1 X112.415 Y47.844 E24.15111
G1 X112.583 Y48.713 E24.19131
G1 X112.647 Y49.054 E24.20706
G1 X112.824 Y50.05 E24.25301
G1 X112.917 Y50.602 E24.27843
G1 X113.009 Y51.162 E24.30421
G1 X113.123 Y51.894 E24.33786
G1 X113.216 Y52.517 E24.36647
G1 X113.287 Y53.018 E24.38945
G1 X113.418 Y53.991 E24.43404
G1 X113.619 Y55.598 E24.5076
G1 X113.728 Y56.536 E24.55049
G1 X113.904 Y58.21 E24.62694
G1 X113.986 Y59.077 E24.66649
G1 X114.132 Y60.759 E24.74317
G1 X114.192 Y61.5 E24.77694
G1 X114.355 Y63.745 E24.87917
G1 X114.496 Y66.004 E24.98197
G1 X114.608 Y68.004 E25.07295
G1 X114.679 Y69.368 E25.13499
G1 X114.756 Y70.999 E25.20915
G1 X114.825 Y72.519 E25.27825
G1 X114.938 Y75.445 E25.41125
G1 X115.052 Y78.784 E25.56299
G1 X115.104 Y80.56 E25.64369
G1 X115.147 Y82.316 E25.72347
G1 X115.186 Y84.302 E25.81369
G1 X115.208 Y85.764 E25.8801
G1 X115.226 Y87.46 E25.95713
G1 X115.236 Y89.138 E26.03335
G1 X115.238 Y90.798 E26.10874
G1 X115.233 Y92.441 E26.18336
G1 X115.215 Y94.827 E26.29174
G1 X115.187 Y97.158 E26.39762
G1 X115.154 Y99.43 E26.50082
G1 X115.076 Y104 E26.70841
G1 X115.03 Y107.061 E26.84745
G1 X115.012 Y108.727 E26.92313
G1 X115.003 Y110.15 E26.98776
G1 X115 Y111.258 E27.03808
G1 X115 Y113.055 E27.1197
G1 X114.99 Y113.782 E27.15272
G1 X114.943 Y114.27 E27.17499
G1 X114.818 Y114.743 E27.19721
G1 X114.617 Y115.189 E27.21943
G1 X114.347 Y115.597 E27.24165
G1 X114.014 Y115.956 E27.26389
G1 X113.626 Y116.255 E27.28614
G1 X113.196 Y116.488 E27.30835
G1 X112.733 Y116.648 E27.3306
G1 X112.074 Y116.74 E27.36082
G1 X111.67 Y116.75 E27.37918
G1 X8.668 Y116.75 E32.0574
G1 X7.97 Y116.741 E32.08911
G1 X7.483 Y116.695 E32.11132
G1 X7.01 Y116.57 E32.13354
G1 X6.563 Y116.37 E32.15579
G1 X6.155 Y116.099 E32.17803
G1 X5.796 Y115.766 E32.20027
G1 X5.496 Y115.38 E32.22248
G1 X5.263 Y114.949 E32.24473
G1 X5.103 Y114.487 E32.26693
G1 X5.01 Y113.817 E32.29766
G1 X5 Y113.385 E32.31728
G1 X4.999 Y110.606 E32.4435
G1 X4.995 Y109.608 E32.48883
G1 X4.979 Y107.763 E32.57263
G1 X4.967 Y106.791 E32.61678
G1 X4.918 Y103.579 E32.76268
G1 X4.882 Y101.593 E32.8529
G1 X4.811 Y97.019 E33.06067
G1 X4.784 Y94.675 E33.16714
G1 X4.767 Y92.324 E33.27392
G1 X4.762 Y90.785 E33.34382
G1 X4.764 Y89.124 E33.41926
G1 X4.774 Y87.446 E33.49548
G1 X4.792 Y85.749 E33.57256
G1 X4.823 Y83.84 E33.65927
G1 X4.853 Y82.3 E33.72923
G1 X4.896 Y80.544 E33.80901
G1 X4.958 Y78.493 E33.90221
G1 X5.051 Y75.738 E34.02741
G1 X5.109 Y74.184 E34.09804
G1 X5.177 Y72.501 E34.17454
G1 X5.244 Y70.993 E34.2431
G1 X5.322 Y69.352 E34.31771
G1 X5.417 Y67.555 E34.39944
G1 X5.505 Y65.984 E34.47091
G1 X5.645 Y63.745 E34.5728
G1 X5.808 Y61.5 E34.67503
G1 X5.869 Y60.741 E34.70962
G1 X6.016 Y59.054 E34.78653
G1 X6.099 Y58.18 E34.8264
G1 X6.276 Y56.505 E34.9029
G1 X6.384 Y55.57 E34.94565
G1 X6.586 Y53.965 E35.01913
G1 X6.716 Y52.994 E35.06362
G1 X6.787 Y52.498 E35.08638
G1 X6.88 Y51.874 E35.11503
G1 X6.995 Y51.138 E35.14887
G1 X7.085 Y50.586 E35.17427
G1 X7.18 Y50.027 E35.20002
G1 X7.358 Y49.03 E35.24602
G1 X7.421 Y48.692 E35.26164
G1 X7.589 Y47.823 E35.30184
G1 X7.69 Y47.319 E35.32518
G1 X7.833 Y46.638 E35.35679
G1 X7.967 Y46.025 E35.38529
G1 X8.196 Y45.024 E35.43192
G1 X8.387 Y44.245 E35.46835
G1 X8.668 Y43.156 E35.51943
G1 X9 Y41.962 E35.57572
G1 X9.271 Y41.047 E35.61906
G1 X9.549 Y40.16 E35.66128
G1 X9.873 Y39.178 E35.70825
G1 X10.261 Y38.073 E35.76144
G1 X10.618 Y37.119 E35.80771
G1 X10.997 Y36.158 E35.85462
G1 X11.406 Y35.179 E35.90281
G1 X11.816 Y34.252 E35.94885
G1 X12.26 Y33.3 E35.99656
G1 X12.734 Y32.34 E36.04519
G1 X13.187 Y31.474 E36.08958
G1 X13.703 Y30.538 E36.13812
G1 X14.189 Y29.704 E36.18196
G1 X14.656 Y28.939 E36.22267
G1 X15.129 Y28.2 E36.26252
G1 X15.615 Y27.476 E36.30213
G1 X16.117 Y26.755 E36.34203
G1 X16.641 Y26.036 E36.38244
G1 X17.135 Y25.385 E36.41955
G1 X17.615 Y24.777 E36.45474
G1 X18.414 Y23.811 E36.51168
G1 X19.61 Y22.452 E36.5939
G1 X19.678 Y22.377 E36.5985
G1 X20.437 Y21.572 E36.64875
G0 F1080 X20.73 Y21.261
G0 X20.803 Y21.186
G0 F1440 X21.084 Y21.471
