;FLAVOR:Marlin
;TIME:1406
;Filament used: 2.03795m
;Layer height: 0.12
;MINX:36.902
;MINY:37.25
;MINZ:0.3
;MAXX:82.042
;MAXY:83.81
;MAXZ:23.92
;Generated with Cura_SteamEngine 4.7.1
M104 S210
M105
M109 S210
M82 ;absolute extrusion mode
;Sliced at: Mon 29-11-2021 11:35:29
G21 ;metric values
G90 ;absolute positioning
M82 ;set extruder to absolute mode
M107 ;start with the fan off
G1 Z5.0 F1800 ;move Z to 5mm
G28 X0 Y0 F1800 ;move X/Y to min endstops
G28 Z0 ;move Z to min endstop
G92 E0 ;zero the extruded length
G1 F200 E6.0 ;extrude 6.0mm of feed stock to build pressure
G1 Z5.0 F300 ;move the platform down 5mm
G92 E0 ;zero the extruded length again
G1 F1800
;Put printing message on LCD screen
M117 Printing...
G92 E0
G92 E0
G1 F1500 E-5
;LAYER_COUNT:106
;LAYER:0
M107
G0 F1350 X38.782 Y39.074 Z0.3
;TYPE:SKIRT
G1 F1500 E0.72757
G1 F900 X39.264 Y38.606 E0.76443
G1 X39.736 Y38.204 E0.79846
G1 X40.255 Y37.867 E0.83242
G1 X40.813 Y37.598 E0.86641
G1 X41.401 Y37.404 E0.90039
G1 X42.009 Y37.287 E0.93437
G1 X42.628 Y37.25 E0.9684
G1 X43.245 Y37.293 E1.00235
G1 X43.853 Y37.414 E1.03637
G1 X44.439 Y37.613 E1.07033
G1 X44.995 Y37.886 E1.10432
G1 X45.638 Y38.313 E1.14668
G1 X45.756 Y38.398 E1.15466
G1 X50.497 Y41.956 E1.47997
G1 X51.169 Y42.467 E1.5263
G1 X51.873 Y43.016 E1.57529
G1 X52.125 Y43.216 E1.59295
G1 X52.686 Y43.67 E1.63255
G1 X52.994 Y43.924 E1.65446
G1 X53.697 Y44.514 E1.70483
G1 X54.494 Y45.203 E1.76264
G1 X55.368 Y45.986 E1.82704
G1 X55.59 Y46.19 E1.84359
G1 X56.174 Y46.735 E1.88742
G1 X56.421 Y46.97 E1.90613
G1 X56.997 Y47.525 E1.95003
G1 X57.68 Y48.2 E2.00273
G1 X66.54 Y57.061 E2.6904
G1 X67.212 Y57.74 E2.74283
G1 X67.942 Y58.498 E2.80058
G1 X68.818 Y59.438 E2.8711
G1 X69.374 Y60.056 E2.91672
G1 X69.599 Y60.311 E2.93538
G1 X70.05 Y60.829 E2.97307
G1 X70.337 Y61.165 E2.99732
G1 X70.811 Y61.73 E3.0378
G1 X71.593 Y62.693 E3.10587
G1 X71.731 Y62.866 E3.11802
G1 X72.208 Y63.476 E3.16052
G1 X72.728 Y64.154 E3.20741
G1 X80.681 Y74.673 E3.93111
G1 X81.11 Y75.257 E3.97087
G1 X81.444 Y75.779 E4.00488
G1 X81.708 Y76.339 E4.03886
G1 X81.897 Y76.929 E4.07286
G1 X82.009 Y77.538 E4.10684
G1 X82.042 Y78.157 E4.14086
G1 X81.994 Y78.774 E4.17482
G1 X81.868 Y79.381 E4.20884
G1 X81.664 Y79.966 E4.24284
G1 X81.387 Y80.519 E4.27679
G1 X81.041 Y81.033 E4.31079
G1 X80.616 Y81.519 E4.34622
G1 X80.216 Y81.927 E4.37758
G1 X79.673 Y82.454 E4.4191
G1 X79.202 Y82.856 E4.45309
G1 X78.682 Y83.194 E4.48712
G1 X78.124 Y83.462 E4.52109
G1 X77.536 Y83.656 E4.55507
G1 X76.928 Y83.773 E4.58905
G1 X76.309 Y83.81 E4.62308
G1 X75.692 Y83.767 E4.65703
G1 X75.084 Y83.646 E4.69105
G1 X74.498 Y83.447 E4.72501
G1 X74.143 Y83.283 E4.74647
G1 X73.403 Y82.904 E4.7921
G1 X72.237 Y82.285 E4.86454
G1 X69.863 Y81.111 E5.00989
G1 X67.404 Y79.98 E5.15842
G1 X64.933 Y78.926 E5.30585
G1 X62.446 Y77.947 E5.45253
G1 X59.242 Y76.803 E5.63924
G1 X58.271 Y76.475 E5.69548
G1 X57.698 Y76.239 E5.72949
G1 X57.043 Y75.852 E5.77124
G1 X56.108 Y75.192 E5.83405
G1 X55.738 Y74.919 E5.85928
G1 X55.173 Y74.491 E5.89818
G1 X54.569 Y73.947 E5.94279
G1 X53.903 Y73.236 E5.99626
G1 X52.184 Y71.461 E6.13186
G1 X52.128 Y71.395 E6.13661
G1 X51.182 Y70.426 E6.21093
G1 X50.769 Y69.981 E6.24425
G1 X48.906 Y68.019 E6.39273
G1 X47.704 Y66.815 E6.48609
G1 X47.328 Y66.429 E6.51567
G1 X46.53 Y65.597 E6.57893
G1 X45.26 Y64.237 E6.68105
G1 X43.598 Y62.502 E6.8129
G1 X42.958 Y61.85 E6.86304
G1 X42.456 Y61.289 E6.90436
G1 X42.244 Y61.042 E6.92222
G1 X41.798 Y60.508 E6.9604
G1 X41.432 Y60.008 E6.99441
G1 X41.033 Y59.232 E7.04229
G1 X40.921 Y58.937 E7.05961
G1 X40.72 Y58.347 E7.09382
G1 X40.489 Y57.635 E7.13489
G1 X40.281 Y56.961 E7.1736
G1 X40.149 Y56.424 E7.20395
G1 X40.071 Y56.007 E7.22723
G1 X39.533 Y53.367 E7.37509
G1 X38.925 Y50.758 E7.52211
G1 X38.226 Y48.112 E7.6723
G1 X37.499 Y45.63 E7.81423
G1 X37.111 Y44.372 E7.88648
G1 X36.967 Y43.77 E7.92045
G1 X36.902 Y43.154 E7.95444
G1 X36.917 Y42.535 E7.98842
G1 X37.011 Y41.923 E8.0224
G1 X37.184 Y41.328 E8.05641
G1 X37.431 Y40.76 E8.0904
G1 X37.75 Y40.229 E8.12439
G1 X38.163 Y39.712 E8.16071
G1 X38.411 Y39.455 E8.18031
G0 F810 X38.703 Y39.153
G0 X38.782 Y39.074
G0 F1350 X38.988 Y39.433
G1 F900 X39.543 Y38.893 E8.2228
G1 X39.995 Y38.51 E8.25532
G1 X40.495 Y38.191 E8.28787
G1 X41.033 Y37.942 E8.3204
G1 X41.6 Y37.767 E8.35297
G1 X42.185 Y37.67 E8.38551
G1 X42.777 Y37.653 E8.41801
G1 X43.367 Y37.716 E8.45057
G1 X43.943 Y37.857 E8.48312
G1 X44.495 Y38.075 E8.51569
G1 X45.141 Y38.452 E8.55673
G1 X45.515 Y38.718 E8.58192
G1 X50.255 Y42.274 E8.90711
G1 X50.923 Y42.783 E8.9532
G1 X51.624 Y43.329 E9.00196
G1 X51.873 Y43.527 E9.01942
G1 X52.432 Y43.979 E9.05887
G1 X52.737 Y44.231 E9.08059
G1 X53.436 Y44.816 E9.13061
G1 X54.228 Y45.502 E9.18811
G1 X55.097 Y46.281 E9.25216
G1 X55.317 Y46.482 E9.26851
G1 X55.898 Y47.025 E9.31215
G1 X56.144 Y47.259 E9.33079
G1 X56.716 Y47.81 E9.37437
G1 X57.397 Y48.483 E9.42692
G1 X66.256 Y57.343 E10.11451
G1 X66.924 Y58.018 E10.16663
G1 X67.649 Y58.771 E10.22399
G1 X68.521 Y59.706 E10.29416
G1 X69.074 Y60.32 E10.3395
G1 X69.297 Y60.573 E10.35801
G1 X69.746 Y61.089 E10.39555
G1 X70.031 Y61.422 E10.4196
G1 X70.501 Y61.982 E10.45972
G1 X71.281 Y62.942 E10.52761
G1 X71.416 Y63.112 E10.53952
G1 X71.891 Y63.719 E10.58182
G1 X72.409 Y64.395 E10.62856
G1 X80.359 Y74.91 E11.35198
G1 X80.788 Y75.494 E11.39175
G1 X81.106 Y75.995 E11.42431
G1 X81.354 Y76.533 E11.45682
G1 X81.527 Y77.1 E11.48936
G1 X81.623 Y77.686 E11.52194
G1 X81.638 Y78.278 E11.55444
G1 X81.574 Y78.868 E11.58701
G1 X81.432 Y79.443 E11.61952
G1 X81.213 Y79.994 E11.65205
G1 X80.922 Y80.511 E11.68461
G1 X80.466 Y81.093 E11.72519
G1 X80.011 Y81.567 E11.76125
G1 X79.394 Y82.167 E11.80848
G1 X78.942 Y82.551 E11.84103
G1 X78.442 Y82.87 E11.87357
G1 X77.904 Y83.119 E11.90611
G1 X77.337 Y83.293 E11.93866
G1 X76.752 Y83.39 E11.9712
G1 X76.16 Y83.407 E12.0037
G1 X75.57 Y83.344 E12.03626
G1 X74.994 Y83.202 E12.06882
G1 X74.325 Y82.927 E12.10852
G1 X73.649 Y82.581 E12.15019
G1 X72.465 Y81.952 E12.22377
G1 X70.029 Y80.747 E12.37292
G1 X67.549 Y79.607 E12.52271
G1 X65.088 Y78.558 E12.66952
G1 X62.611 Y77.582 E12.81563
G1 X59.325 Y76.409 E13.00711
G1 X58.399 Y76.096 E13.06075
G1 X57.851 Y75.869 E13.0933
G1 X57.274 Y75.525 E13.13017
G1 X56.414 Y74.919 E13.18791
G1 X55.979 Y74.6 E13.21751
G1 X55.414 Y74.172 E13.25641
G1 X54.861 Y73.674 E13.29725
G1 X54.208 Y72.977 E13.34966
G1 X52.471 Y71.183 E13.4867
G1 X52.411 Y71.113 E13.49176
G1 X51.468 Y70.146 E13.56589
G1 X51.084 Y69.732 E13.59688
G1 X49.215 Y67.763 E13.74586
G1 X47.991 Y66.536 E13.84097
G1 X47.617 Y66.152 E13.87039
G1 X46.822 Y65.324 E13.93339
G1 X45.552 Y63.964 E14.0355
G1 X43.843 Y62.18 E14.17108
G1 X43.249 Y61.575 E14.21761
G1 X42.756 Y61.025 E14.25815
G1 X42.551 Y60.786 E14.27543
G1 X42.105 Y60.252 E14.31361
G1 X41.756 Y59.772 E14.34618
G1 X41.403 Y59.082 E14.38871
G1 X41.3 Y58.808 E14.40478
G1 X41.079 Y58.158 E14.44245
G1 X40.872 Y57.517 E14.47942
G1 X40.664 Y56.843 E14.51813
G1 X40.542 Y56.351 E14.54595
G1 X40.459 Y55.905 E14.57084
G1 X39.921 Y53.267 E14.7186
G1 X39.316 Y50.67 E14.86493
G1 X38.62 Y48.037 E15.01439
G1 X37.882 Y45.517 E15.1585
G1 X37.493 Y44.255 E15.23097
G1 X37.357 Y43.677 E15.26356
G1 X37.3 Y43.087 E15.29609
G1 X37.323 Y42.495 E15.3286
G1 X37.425 Y41.911 E15.36113
G1 X37.605 Y41.346 E15.39368
G1 X37.859 Y40.81 E15.42623
G1 X38.182 Y40.313 E15.45876
G1 X38.537 Y39.896 E15.48881
G1 X38.617 Y39.814 E15.4951
G0 F810 X38.988 Y39.433
G0 F1350 X39.34 Y39.648
G1 F900 X39.822 Y39.18 E15.53197
G1 X40.254 Y38.816 E15.56297
G1 X40.733 Y38.516 E15.59399
G1 X41.25 Y38.287 E15.62502
G1 X41.794 Y38.134 E15.65603
G1 X42.355 Y38.058 E15.6871
G1 X42.92 Y38.062 E15.71811
G1 X43.479 Y38.146 E15.74913
G1 X44.021 Y38.308 E15.78017
G1 X44.534 Y38.544 E15.81116
G1 X45.178 Y38.967 E15.85345
G1 X45.275 Y39.038 E15.86004
G1 X50.013 Y42.593 E16.18511
G1 X50.677 Y43.098 E16.2309
G1 X51.375 Y43.643 E16.27949
G1 X51.622 Y43.838 E16.29677
G1 X52.149 Y44.264 E16.33395
G1 X52.48 Y44.537 E16.3575
G1 X53.174 Y45.119 E16.40721
G1 X53.963 Y45.802 E16.46448
G1 X54.123 Y45.943 E16.47618
G1 X54.827 Y46.576 E16.52814
G1 X55.044 Y46.775 E16.54429
G1 X55.623 Y47.315 E16.58774
G1 X55.867 Y47.547 E16.60622
G1 X56.435 Y48.094 E16.6495
G1 X57.115 Y48.766 E16.70196
G1 X65.972 Y57.624 E17.3894
G1 X66.636 Y58.295 E17.44121
G1 X67.357 Y59.044 E17.49826
G1 X68.223 Y59.973 E17.56796
G1 X68.774 Y60.585 E17.61315
G1 X68.996 Y60.836 E17.63154
G1 X69.442 Y61.349 E17.66885
G1 X69.724 Y61.68 E17.69271
G1 X70.19 Y62.235 E17.73248
G1 X70.968 Y63.192 E17.80017
G1 X71.101 Y63.359 E17.81188
G1 X71.573 Y63.963 E17.85395
G1 X72.09 Y64.636 E17.90052
G1 X80.037 Y75.147 E18.62367
G1 X80.466 Y75.731 E18.66344
G1 X80.767 Y76.209 E18.69444
G1 X80.999 Y76.725 E18.72549
G1 X81.155 Y77.268 E18.75649
G1 X81.233 Y77.828 E18.78752
G1 X81.231 Y78.393 E18.81853
G1 X81.15 Y78.953 E18.84958
G1 X80.99 Y79.495 E18.8806
G1 X80.756 Y80.01 E18.91164
G1 X80.452 Y80.486 E18.94263
G1 X80.03 Y80.975 E18.97808
G1 X79.659 Y81.353 E19.00715
G1 X79.116 Y81.88 E19.04867
G1 X78.683 Y82.244 E19.07972
G1 X78.204 Y82.544 E19.11074
G1 X77.687 Y82.773 E19.14177
G1 X77.143 Y82.927 E19.17279
G1 X76.583 Y83.002 E19.2038
G1 X76.017 Y82.998 E19.23486
G1 X75.458 Y82.914 E19.26589
G1 X74.917 Y82.752 E19.29688
G1 X74.508 Y82.571 E19.32142
G1 X73.778 Y82.197 E19.36644
G1 X72.623 Y81.584 E19.4382
G1 X70.194 Y80.382 E19.58693
G1 X67.754 Y79.261 E19.73429
G1 X65.224 Y78.182 E19.88523
G1 X62.727 Y77.199 E20.0325
G1 X59.474 Y76.037 E20.22207
G1 X58.527 Y75.717 E20.27693
G1 X58.006 Y75.499 E20.30792
G1 X57.504 Y75.198 E20.34005
G1 X56.581 Y74.547 E20.40203
G1 X56.221 Y74.281 E20.42659
G1 X55.656 Y73.853 E20.46549
G1 X55.152 Y73.4 E20.50268
G1 X54.465 Y72.667 E20.55782
G1 X52.758 Y70.904 E20.69249
G1 X52.702 Y70.837 E20.69728
G1 X51.755 Y69.867 E20.77168
G1 X51.397 Y69.481 E20.80057
G1 X49.486 Y67.468 E20.95289
G1 X48.277 Y66.256 E21.04684
G1 X47.905 Y65.875 E21.07606
G1 X47.114 Y65.051 E21.13875
G1 X45.844 Y63.691 E21.24086
G1 X44.132 Y61.904 E21.37668
G1 X43.539 Y61.3 E21.42313
G1 X43.057 Y60.761 E21.46281
G1 X42.858 Y60.529 E21.47958
G1 X42.412 Y59.995 E21.51777
G1 X42.081 Y59.537 E21.54878
G1 X41.774 Y58.932 E21.58601
G1 X41.679 Y58.679 E21.60084
G1 X41.46 Y58.034 E21.63822
G1 X41.254 Y57.4 E21.67481
G1 X41.046 Y56.726 E21.71352
G1 X40.86 Y55.869 E21.76164
G1 X40.318 Y53.21 E21.91057
G1 X39.696 Y50.543 E22.06086
G1 X39.008 Y47.938 E22.20872
G1 X38.266 Y45.405 E22.35357
G1 X37.875 Y44.137 E22.42639
G1 X37.747 Y43.586 E22.45744
G1 X37.699 Y43.023 E22.48844
G1 X37.729 Y42.458 E22.51949
G1 X37.84 Y41.904 E22.5505
G1 X38.027 Y41.37 E22.58155
G1 X38.288 Y40.869 E22.61255
G1 X38.752 Y40.253 E22.65488
G1 X38.969 Y40.029 E22.67199
G0 F810 X39.274 Y39.714
G0 X39.34 Y39.648
G0 F1350 X39.618 Y39.935
G1 F900 X40.1 Y39.467 E22.70886
G1 X40.512 Y39.123 E22.73832
G1 X40.97 Y38.844 E22.76775
G1 X41.464 Y38.637 E22.79714
G1 X41.984 Y38.505 E22.82658
G1 X42.518 Y38.451 E22.85604
G1 X43.053 Y38.478 E22.88544
G1 X43.579 Y38.583 E22.91487
G1 X44.083 Y38.766 E22.9443
G1 X44.681 Y39.106 E22.98205
G1 X45.035 Y39.358 E23.0059
G1 X49.771 Y42.911 E23.33082
G1 X50.431 Y43.414 E23.37636
G1 X51.127 Y43.956 E23.42477
G1 X51.37 Y44.149 E23.4418
G1 X51.923 Y44.596 E23.48082
G1 X52.223 Y44.844 E23.50218
G1 X52.912 Y45.422 E23.55154
G1 X53.698 Y46.101 E23.60854
G1 X53.856 Y46.241 E23.62012
G1 X54.557 Y46.871 E23.67185
G1 X54.771 Y47.067 E23.68777
G1 X55.347 Y47.604 E23.73099
G1 X56.154 Y48.379 E23.79239
G1 X56.832 Y49.049 E23.8447
G1 X65.688 Y57.906 E24.53206
G1 X66.348 Y58.573 E24.58356
G1 X67.064 Y59.316 E24.64019
G1 X67.926 Y60.241 E24.70957
G1 X68.474 Y60.85 E24.75453
G1 X68.694 Y61.099 E24.77277
G1 X69.138 Y61.608 E24.80984
G1 X69.418 Y61.937 E24.83355
G1 X69.88 Y62.487 E24.87296
G1 X70.655 Y63.441 E24.94042
G1 X70.786 Y63.605 E24.95194
G1 X71.256 Y64.206 E24.99381
G1 X71.756 Y64.858 E25.0389
G1 X79.714 Y75.384 E25.76307
G1 X80.143 Y75.968 E25.80284
G1 X80.428 Y76.422 E25.83225
G1 X80.641 Y76.914 E25.86168
G1 X80.78 Y77.432 E25.89111
G1 X80.84 Y77.965 E25.92054
G1 X80.819 Y78.501 E25.94998
G1 X80.72 Y79.028 E25.97941
G1 X80.543 Y79.535 E26.00888
G1 X80.293 Y80.009 E26.03829
G1 X79.88 Y80.549 E26.0756
G1 X79.441 Y81.006 E26.11037
G1 X78.837 Y81.593 E26.1566
G1 X78.426 Y81.937 E26.18601
G1 X77.968 Y82.216 E26.21544
G1 X77.473 Y82.424 E26.24491
G1 X76.953 Y82.556 E26.27435
G1 X76.42 Y82.609 E26.30374
G1 X75.884 Y82.582 E26.3332
G1 X75.358 Y82.476 E26.36264
G1 X74.69 Y82.215 E26.402
G1 X73.966 Y81.844 E26.44665
G1 X72.809 Y81.23 E26.51853
G1 X70.374 Y80.025 E26.66763
G1 X67.899 Y78.887 E26.81712
G1 X65.379 Y77.813 E26.96746
G1 X62.865 Y76.823 E27.11573
G1 X59.615 Y75.662 E27.30513
G1 X58.655 Y75.338 E27.36073
G1 X58.161 Y75.129 E27.39017
G1 X57.734 Y74.871 E27.41755
G1 X56.874 Y74.265 E27.47529
G1 X56.462 Y73.963 E27.50332
G1 X55.897 Y73.535 E27.54222
G1 X55.444 Y73.127 E27.57568
G1 X54.742 Y72.378 E27.63201
G1 X53.046 Y70.626 E27.76583
G1 X52.998 Y70.568 E27.76996
G1 X52.041 Y69.588 E27.84513
G1 X51.687 Y69.206 E27.87372
G1 X49.757 Y67.173 E28.02755
G1 X48.563 Y65.977 E28.1203
G1 X48.194 Y65.598 E28.14933
G1 X47.407 Y64.778 E28.2117
G1 X46.168 Y63.451 E28.31133
G1 X44.421 Y61.627 E28.44994
G1 X43.83 Y61.025 E28.49624
G1 X43.357 Y60.497 E28.53514
G1 X43.165 Y60.273 E28.55133
G1 X42.719 Y59.739 E28.58951
G1 X42.407 Y59.303 E28.61894
G1 X42.145 Y58.782 E28.65094
G1 X42.057 Y58.55 E28.66456
G1 X41.84 Y57.911 E28.70159
G1 X41.636 Y57.282 E28.73788
G1 X41.428 Y56.608 E28.77659
G1 X41.246 Y55.759 E28.82424
G1 X40.706 Y53.111 E28.97255
G1 X40.095 Y50.487 E29.12041
G1 X39.383 Y47.793 E29.27333
G1 X38.65 Y45.292 E29.41636
G1 X38.258 Y44.019 E29.48945
G1 X38.138 Y43.496 E29.5189
G1 X38.098 Y42.961 E29.54834
G1 X38.138 Y42.427 E29.57773
G1 X38.256 Y41.904 E29.60716
G1 X38.451 Y41.404 E29.63661
G1 X38.718 Y40.939 E29.66603
G1 X39.047 Y40.524 E29.6951
G1 X39.247 Y40.317 E29.71089
G0 F810 X39.559 Y39.994
G0 X39.618 Y39.935
G0 F1350 X39.897 Y40.222
G1 F900 X40.379 Y39.754 E29.74776
G1 X40.768 Y39.432 E29.77548
G1 X41.204 Y39.175 E29.80325
G1 X41.674 Y38.989 E29.83099
G1 X42.168 Y38.88 E29.85875
G1 X42.672 Y38.851 E29.88646
G1 X43.175 Y38.901 E29.9142
G1 X43.664 Y39.029 E29.94194
G1 X44.127 Y39.233 E29.9697
G1 X44.717 Y39.622 E30.00849
G1 X44.795 Y39.678 E30.01376
G1 X49.529 Y43.229 E30.33852
G1 X50.185 Y43.729 E30.38379
G1 X50.878 Y44.269 E30.432
G1 X51.119 Y44.46 E30.44888
G1 X51.669 Y44.905 E30.4877
G1 X51.967 Y45.151 E30.50891
G1 X52.651 Y45.724 E30.55788
G1 X53.433 Y46.401 E30.61464
G1 X53.589 Y46.539 E30.62607
G1 X54.287 Y47.166 E30.67756
G1 X54.499 Y47.36 E30.69333
G1 X55.071 Y47.894 E30.73628
G1 X55.312 Y48.123 E30.75452
G1 X55.873 Y48.664 E30.79729
G1 X56.549 Y49.331 E30.84941
G1 X65.403 Y58.187 E31.53665
G1 X66.061 Y58.851 E31.58796
G1 X66.772 Y59.589 E31.64419
G1 X67.629 Y60.509 E31.71319
G1 X68.175 Y61.115 E31.75796
G1 X68.393 Y61.362 E31.77604
G1 X68.834 Y61.868 E31.81287
G1 X69.112 Y62.194 E31.83639
G1 X69.57 Y62.739 E31.87545
G1 X70.342 Y63.69 E31.94268
G1 X70.47 Y63.851 E31.95396
G1 X70.938 Y64.45 E31.99568
G1 X71.451 Y65.119 E32.04195
G1 X79.392 Y75.621 E32.7645
G1 X79.821 Y76.205 E32.80427
G1 X80.087 Y76.634 E32.83197
G1 X80.282 Y77.101 E32.85974
G1 X80.402 Y77.592 E32.88748
G1 X80.442 Y78.096 E32.91523
G1 X80.403 Y78.6 E32.94297
G1 X80.284 Y79.092 E32.97075
G1 X80.09 Y79.558 E32.99845
G1 X79.825 Y79.989 E33.02622
G1 X79.444 Y80.43 E33.0582
G1 X79.102 Y80.779 E33.08502
G1 X78.559 Y81.306 E33.12654
G1 X78.169 Y81.629 E33.15433
G1 X77.734 Y81.886 E33.18206
G1 X77.263 Y82.071 E33.20983
G1 X76.77 Y82.18 E33.23754
G1 X76.265 Y82.209 E33.2653
G1 X75.762 Y82.159 E33.29304
G1 X75.273 Y82.03 E33.32079
G1 X74.872 Y81.859 E33.34472
G1 X74.196 Y81.513 E33.38639
G1 X73.009 Y80.882 E33.46017
G1 X70.539 Y79.66 E33.6114
G1 X68.074 Y78.527 E33.76028
G1 X65.504 Y77.431 E33.91361
G1 X63.023 Y76.454 E34.05995
G1 X63.014 Y76.452 E34.06045
G1 X59.769 Y75.293 E34.24955
G1 X58.783 Y74.96 E34.30667
G1 X58.319 Y74.76 E34.33439
G1 X57.965 Y74.544 E34.35715
G1 X57.055 Y73.902 E34.41827
G1 X56.704 Y73.644 E34.44218
G1 X56.139 Y73.216 E34.48108
