;FLAVOR:Marlin
;TIME:3623
;Filament used: 4.21437m
;Layer height: 0.24
;MINX:6.631
;MINY:4.677
;MINZ:0.3
;MAXX:112.98
;MAXY:111.024
;MAXZ:14.7
;Generated with Cura_SteamEngine 4.7.1
M104 S225
M105
M109 S225
M82 ;absolute extrusion mode
;Sliced at: Tue 27-04-2021 14:08:23
G21 ;metric values
G90 ;absolute positioning
M82 ;set extruder to absolute mode
M107 ;start with the fan off
G1 Z5.0 F1800 ;move Z to 5mm
G28 X0 Y0 F1800 ;move X/Y to min endstops
G28 Z0 ;move Z to min endstop
G92 E0 ;zero the extruded length
G1 F200 E6.0 ;extrude 6.0mm of feed stock to build pressure
G1 Z5.0 F300 ;move the platform down 5mm
G92 E0 ;zero the extruded length again
G1 F1800
;Put printing message on LCD screen
M117 Printing...
G92 E0
G92 E0
G1 F1500 E-5
;LAYER_COUNT:62
;LAYER:0
M107
G0 F1200 X11.072 Y16.076 Z0.3
;TYPE:SKIRT
G1 F1500 E0.72757
G1 F900 X20.832 Y6.314 E1.48513
G1 X21.355 Y5.804 E1.52522
G1 X21.787 Y5.439 E1.55625
G1 X22.266 Y5.139 E1.58727
G1 X22.782 Y4.908 E1.6183
G1 X23.326 Y4.753 E1.64934
G1 X23.886 Y4.677 E1.68035
G1 X24.451 Y4.68 E1.71136
G1 X25.011 Y4.762 E1.74242
G1 X25.553 Y4.923 E1.77345
G1 X26.067 Y5.158 E1.80446
G1 X26.542 Y5.464 E1.83547
G1 X27.124 Y5.975 E1.87798
G1 X27.216 Y6.065 E1.88504
G1 X111.385 Y90.234 E8.41748
G1 X111.853 Y90.714 E8.45427
G1 X112.218 Y91.145 E8.48526
G1 X112.519 Y91.624 E8.51631
G1 X112.749 Y92.14 E8.54731
G1 X112.904 Y92.684 E8.57835
G1 X112.98 Y93.244 E8.60937
G1 X112.977 Y93.81 E8.64043
G1 X112.895 Y94.369 E8.67143
G1 X112.734 Y94.911 E8.70246
G1 X112.499 Y95.425 E8.73348
G1 X112.193 Y95.9 E8.76449
G1 X111.65 Y96.514 E8.80947
G1 X111.572 Y96.594 E8.8156
G1 X101.78 Y106.383 E9.57545
G1 X100.853 Y107.278 E9.64617
G1 X100.657 Y107.455 E9.66066
G1 X100.069 Y107.952 E9.70291
G1 X99.851 Y108.124 E9.71815
G1 X99.309 Y108.521 E9.75502
G1 X99.08 Y108.677 E9.77023
G1 X98.497 Y109.045 E9.80806
G1 X98.263 Y109.181 E9.82292
G1 X97.678 Y109.497 E9.85941
G1 X97.426 Y109.622 E9.87484
G1 X96.743 Y109.931 E9.91598
G1 X96.484 Y110.038 E9.93136
G1 X95.885 Y110.26 E9.96642
G1 X95.631 Y110.344 E9.9811
G1 X94.831 Y110.581 E10.02689
G1 X94.29 Y110.714 E10.05746
G1 X93.751 Y110.815 E10.08756
G1 X93.082 Y110.914 E10.12467
G1 X92.817 Y110.944 E10.13931
G1 X92.084 Y111.003 E10.17967
G1 X91.803 Y111.016 E10.1951
G1 X90.996 Y111.024 E10.23939
G1 X90.442 Y111.005 E10.26981
G1 X89.909 Y110.956 E10.29919
G1 X89.231 Y110.868 E10.33671
G1 X88.966 Y110.824 E10.35145
G1 X88.232 Y110.678 E10.39252
G1 X87.96 Y110.614 E10.40786
G1 X87.322 Y110.44 E10.44415
G1 X87.063 Y110.36 E10.45902
G1 X86.426 Y110.139 E10.49603
G1 X86.162 Y110.037 E10.51156
G1 X85.492 Y109.75 E10.55156
G1 X85.25 Y109.637 E10.56622
G1 X84.591 Y109.301 E10.60681
G1 X84.029 Y108.981 E10.6423
G1 X83.632 Y108.724 E10.66826
G1 X83.036 Y108.306 E10.70821
G1 X82.825 Y108.145 E10.72277
G1 X82.167 Y107.615 E10.76914
G1 X81.841 Y107.325 E10.79308
G1 X81.268 Y106.769 E10.8369
G1 X12.033 Y37.548 E16.20975
G1 X11.04 Y36.554 E16.28686
G1 X10.483 Y35.981 E16.33071
G1 X10.044 Y35.49 E16.36686
G1 X9.462 Y34.776 E16.41741
G1 X9.151 Y34.354 E16.44618
G1 X8.917 Y33.999 E16.46951
G1 X8.469 Y33.26 E16.51694
G1 X8.337 Y33.023 E16.53183
G1 X8.046 Y32.46 E16.56661
G1 X7.926 Y32.207 E16.58197
G1 X7.64 Y31.544 E16.6216
G1 X7.536 Y31.278 E16.63727
G1 X7.304 Y30.613 E16.67592
G1 X7.221 Y30.345 E16.69132
G1 X7.039 Y29.676 E16.72937
G1 X6.978 Y29.415 E16.74408
G1 X6.836 Y28.709 E16.7836
G1 X6.789 Y28.426 E16.79934
G1 X6.694 Y27.681 E16.84056
G1 X6.643 Y27.08 E16.87366
G1 X6.631 Y26.601 E16.89996
G1 X6.643 Y25.686 E16.95017
G1 X6.679 Y25.086 E16.98316
G1 X6.73 Y24.642 E17.00769
G1 X6.845 Y23.889 E17.04949
G1 X6.9 Y23.599 E17.06569
G1 X7.061 Y22.897 E17.10521
G1 X7.131 Y22.633 E17.1202
G1 X7.343 Y21.932 E17.16039
G1 X7.432 Y21.671 E17.17553
G1 X7.662 Y21.065 E17.2111
G1 X7.77 Y20.809 E17.22635
G1 X8.145 Y19.996 E17.27548
G1 X8.466 Y19.393 E17.31297
G1 X8.645 Y19.1 E17.33181
G1 X9.076 Y18.428 E17.37563
G1 X9.432 Y17.923 E17.40953
G1 X9.73 Y17.549 E17.43578
G1 X10.331 Y16.851 E17.48633
G1 X10.59 Y16.569 E17.50734
G1 X10.7 Y16.456 E17.51599
G0 F810 X11.072 Y16.076
G0 F1200 X11.355 Y16.359
G1 F900 X21.112 Y6.601 E18.27328
G1 X21.635 Y6.091 E18.31337
G1 X22.045 Y5.746 E18.34278
G1 X22.503 Y5.466 E18.37224
G1 X22.997 Y5.257 E18.40167
G1 X23.516 Y5.124 E18.43108
G1 X24.05 Y5.069 E18.46054
G1 X24.585 Y5.095 E18.48993
G1 X25.111 Y5.199 E18.51936
G1 X25.616 Y5.381 E18.54882
G1 X26.088 Y5.635 E18.57823
G1 X26.61 Y6.042 E18.61456
G1 X26.934 Y6.347 E18.63898
G1 X111.067 Y90.48 E25.16862
G1 X111.567 Y90.993 E25.20793
G1 X111.911 Y91.404 E25.23735
G1 X112.191 Y91.861 E25.26676
G1 X112.4 Y92.355 E25.2962
G1 X112.533 Y92.875 E25.32565
G1 X112.588 Y93.408 E25.35506
G1 X112.562 Y93.944 E25.38451
G1 X112.458 Y94.47 E25.41393
G1 X112.276 Y94.974 E25.44334
G1 X112.021 Y95.446 E25.47278
G1 X111.604 Y95.98 E25.50996
G1 X111.289 Y96.311 E25.53504
G1 X101.502 Y106.095 E26.2945
G1 X100.575 Y106.99 E26.36522
G1 X100.399 Y107.149 E26.37823
G1 X99.811 Y107.646 E26.42048
G1 X99.614 Y107.801 E26.43424
G1 X99.072 Y108.198 E26.47111
G1 X98.867 Y108.338 E26.48473
G1 X98.284 Y108.706 E26.52257
G1 X98.073 Y108.829 E26.53597
G1 X97.488 Y109.145 E26.57246
G1 X97.261 Y109.258 E26.58638
G1 X96.578 Y109.567 E26.62752
G1 X96.345 Y109.663 E26.64135
G1 X95.746 Y109.885 E26.6764
G1 X95.518 Y109.961 E26.68959
G1 X94.718 Y110.198 E26.73538
G1 X94.202 Y110.324 E26.76453
G1 X93.692 Y110.419 E26.793
G1 X93.023 Y110.518 E26.83012
G1 X92.785 Y110.545 E26.84326
G1 X92.052 Y110.604 E26.88362
G1 X91.799 Y110.616 E26.89752
G1 X90.992 Y110.624 E26.94181
G1 X90.463 Y110.605 E26.97086
G1 X89.961 Y110.559 E26.99852
G1 X89.283 Y110.471 E27.03604
G1 X89.044 Y110.432 E27.04933
G1 X88.31 Y110.286 E27.0904
G1 X88.065 Y110.228 E27.10422
G1 X87.427 Y110.054 E27.14051
G1 X87.194 Y109.982 E27.1539
G1 X86.557 Y109.761 E27.1909
G1 X86.319 Y109.669 E27.2049
G1 X85.649 Y109.382 E27.2449
G1 X85.432 Y109.28 E27.25806
G1 X84.773 Y108.944 E27.29865
G1 X84.234 Y108.637 E27.3327
G1 X83.862 Y108.396 E27.35702
G1 X83.266 Y107.978 E27.39697
G1 X83.076 Y107.834 E27.41005
G1 X82.418 Y107.304 E27.45642
G1 X82.12 Y107.038 E27.47834
G1 X81.551 Y106.486 E27.52185
G1 X12.316 Y37.265 E32.8947
G1 X11.327 Y36.275 E32.9715
G1 X10.77 Y35.702 E33.01535
G1 X10.353 Y35.237 E33.04963
G1 X9.839 Y34.608 E33.09421
G1 X9.476 Y34.122 E33.1275
G1 X9.26 Y33.791 E33.14919
G1 X8.812 Y33.052 E33.19661
G1 X8.692 Y32.839 E33.21003
G1 X8.401 Y32.276 E33.24481
G1 X8.293 Y32.049 E33.25861
G1 X8.007 Y31.386 E33.29823
G1 X7.914 Y31.146 E33.31236
G1 X7.682 Y30.481 E33.35101
G1 X7.607 Y30.24 E33.36486
G1 X7.425 Y29.571 E33.40291
G1 X7.37 Y29.336 E33.41615
G1 X7.228 Y28.63 E33.45567
G1 X7.186 Y28.375 E33.46986
G1 X7.091 Y27.63 E33.51107
G1 X7.042 Y27.054 E33.5428
G1 X7.031 Y26.606 E33.56739
G1 X7.043 Y25.691 E33.61761
G1 X7.077 Y25.116 E33.64922
G1 X7.125 Y24.703 E33.67204
G1 X7.24 Y23.95 E33.71384
G1 X7.29 Y23.688 E33.72848
G1 X7.451 Y22.986 E33.768
G1 X7.514 Y22.749 E33.78146
G1 X7.726 Y22.048 E33.82165
G1 X7.806 Y21.813 E33.83528
G1 X8.036 Y21.207 E33.87085
G1 X8.133 Y20.976 E33.8846
G1 X8.508 Y20.163 E33.93373
G1 X8.808 Y19.6 E33.96874
G1 X8.982 Y19.315 E33.98707
G1 X9.413 Y18.643 E34.03088
G1 X9.755 Y18.16 E34.06336
G1 X10.033 Y17.81 E34.08789
G1 X10.634 Y17.112 E34.13844
G1 X10.876 Y16.848 E34.15809
G1 X10.983 Y16.739 E34.16647
G0 F810 X11.355 Y16.359
G0 F1200 X11.638 Y16.641
G1 F900 X21.391 Y6.887 E34.92345
G1 X21.914 Y6.377 E34.96354
G1 X22.303 Y6.054 E34.99129
G1 X22.737 Y5.796 E35.019
G1 X23.207 Y5.609 E35.04676
G1 X23.701 Y5.499 E35.07453
G1 X24.205 Y5.469 E35.10224
G1 X24.709 Y5.517 E35.13002
G1 X25.198 Y5.645 E35.15776
G1 X25.661 Y5.848 E35.18551
G1 X26.086 Y6.122 E35.21326
G1 X26.577 Y6.558 E35.24929
G1 X26.651 Y6.63 E35.25496
G1 X110.784 Y90.763 E41.7846
G1 X111.28 Y91.272 E41.8236
G1 X111.603 Y91.661 E41.85135
G1 X111.861 Y92.096 E41.87911
G1 X112.048 Y92.566 E41.90687
G1 X112.158 Y93.059 E41.93459
G1 X112.188 Y93.564 E41.96235
G1 X112.139 Y94.067 E41.99009
G1 X112.012 Y94.556 E42.01781
G1 X111.809 Y95.019 E42.04556
G1 X111.535 Y95.444 E42.07331
G1 X111.069 Y95.964 E42.11163
G1 X111.007 Y96.028 E42.11652
G1 X101.225 Y105.807 E42.87559
G1 X100.298 Y106.702 E42.94631
G1 X100.141 Y106.844 E42.95792
G1 X99.553 Y107.341 E43.00017
G1 X99.378 Y107.479 E43.01241
G1 X98.836 Y107.876 E43.04928
G1 X98.653 Y108 E43.06141
G1 X98.07 Y108.368 E43.09924
G1 X97.883 Y108.477 E43.11112
G1 X97.298 Y108.793 E43.14761
G1 X97.096 Y108.894 E43.16
G1 X96.413 Y109.203 E43.20114
G1 X96.206 Y109.288 E43.21342
G1 X95.607 Y109.51 E43.24848
G1 X95.404 Y109.577 E43.26021
G1 X94.604 Y109.814 E43.306
G1 X94.113 Y109.934 E43.33374
G1 X93.633 Y110.024 E43.36054
G1 X92.964 Y110.123 E43.39766
G1 X92.753 Y110.147 E43.40931
G1 X92.02 Y110.206 E43.44967
G1 X91.795 Y110.216 E43.46203
G1 X90.988 Y110.224 E43.50632
G1 X90.484 Y110.206 E43.53399
G1 X90.012 Y110.162 E43.56001
G1 X89.334 Y110.074 E43.59753
G1 X89.122 Y110.04 E43.60931
G1 X88.388 Y109.894 E43.65038
G1 X88.17 Y109.842 E43.66268
G1 X87.532 Y109.668 E43.69897
G1 X87.325 Y109.604 E43.71086
G1 X86.688 Y109.383 E43.74787
G1 X86.477 Y109.301 E43.76029
G1 X85.807 Y109.014 E43.80029
G1 X85.613 Y108.924 E43.81203
G1 X84.954 Y108.588 E43.85262
G1 X84.439 Y108.294 E43.88517
G1 X84.092 Y108.069 E43.90786
G1 X83.496 Y107.651 E43.94781
G1 X83.327 Y107.522 E43.95948
G1 X82.669 Y106.992 E44.00585
G1 X82.398 Y106.751 E44.02575
G1 X81.833 Y106.203 E44.06895
G1 X12.598 Y36.982 E49.4418
G1 X11.613 Y35.996 E49.51828
G1 X11.056 Y35.423 E49.56214
G1 X10.663 Y34.984 E49.59447
G1 X10.149 Y34.355 E49.63905
G1 X9.802 Y33.889 E49.67093
G1 X9.602 Y33.584 E49.69095
G1 X9.154 Y32.845 E49.73838
G1 X9.047 Y32.655 E49.75034
G1 X8.756 Y32.092 E49.78512
G1 X8.661 Y31.89 E49.79737
G1 X8.375 Y31.227 E49.837
G1 X8.292 Y31.014 E49.84955
G1 X8.06 Y30.349 E49.8882
G1 X7.993 Y30.135 E49.9005
G1 X7.811 Y29.466 E49.93855
G1 X7.762 Y29.257 E49.95033
G1 X7.62 Y28.551 E49.98985
G1 X7.583 Y28.325 E50.00242
G1 X7.477 Y27.485 E50.04889
G1 X7.435 Y26.876 E50.08239
G1 X7.431 Y26.611 E50.09693
G1 X7.443 Y25.696 E50.14715
G1 X7.476 Y25.147 E50.17733
G1 X7.521 Y24.763 E50.19855
G1 X7.636 Y24.01 E50.24035
G1 X7.68 Y23.778 E50.25331
G1 X7.841 Y23.076 E50.29284
G1 X7.897 Y22.865 E50.30482
G1 X8.109 Y22.164 E50.34501
G1 X8.18 Y21.955 E50.35712
G1 X8.41 Y21.349 E50.39269
G1 X8.496 Y21.144 E50.40489
G1 X8.871 Y20.331 E50.45403
G1 X9.151 Y19.807 E50.48663
G1 X9.318 Y19.531 E50.50434
G1 X9.749 Y18.859 E50.54815
G1 X10.078 Y18.396 E50.57932
G1 X10.336 Y18.071 E50.60209
G1 X10.937 Y17.373 E50.65264
G1 X11.162 Y17.128 E50.6709
G1 X11.266 Y17.022 E50.67905
G0 F810 X11.638 Y16.641
G1 F1500 E45.67905
;MESH:Griffmulde.stl
G0 F1200 X9.812 Y24.049
G0 X9.601 Y25.567
G0 X9.602 Y27.119
G0 X9.819 Y28.644
G0 X10.246 Y30.126
G0 X10.876 Y31.532
G0 X11.696 Y32.842
G0 X12.674 Y34.002
G0 X83.912 Y105.225
G0 X85.113 Y106.169
G0 X86.436 Y106.94
G0 X87.844 Y107.519
G0 X89.319 Y107.899
G0 X90.17 Y107.995
G0 X91.524 Y108.079
G0 X91.542 Y106.039
;TYPE:WALL-INNER
G1 F1500 E51.40661
G1 F900 X90.918 Y106.032 E51.44086
G1 X90.304 Y105.982 E51.47467
G1 X89.685 Y105.89 E51.50901
G1 X89.083 Y105.757 E51.54284
G1 X88.48 Y105.579 E51.57735
G1 X87.891 Y105.361 E51.61181
G1 X87.342 Y105.113 E51.64487
G1 X86.795 Y104.819 E51.67895
G1 X86.255 Y104.478 E51.714
G1 X85.768 Y104.121 E51.74714
G1 X85.287 Y103.716 E51.78165
G1 X15.569 Y34.013 E57.19195
G1 X14.143 Y32.586 E57.30266
G1 X13.703 Y32.097 E57.33876
G1 X13.363 Y31.663 E57.36902
G1 X12.968 Y31.078 E57.40775
G1 X12.682 Y30.583 E57.43913
G1 X12.406 Y30.02 E57.47354
G1 X12.154 Y29.401 E57.51021
G1 X11.968 Y28.833 E57.54301
G1 X11.816 Y28.225 E57.57741
G1 X11.705 Y27.597 E57.61241
G1 X11.636 Y26.965 E57.6473
G1 X11.614 Y26.34 E57.68162
G1 X11.638 Y25.7 E57.71676
G1 X11.704 Y25.069 E57.75158
G1 X11.811 Y24.457 E57.78568
G1 X11.959 Y23.859 E57.81948
G1 X12.152 Y23.269 E57.85355
G1 X12.392 Y22.673 E57.88881
G1 X12.678 Y22.087 E57.9246
G1 X12.977 Y21.571 E57.95733
G1 X13.322 Y21.058 E57.99125
G1 X13.717 Y20.552 E58.02648
G1 X14.138 Y20.081 E58.06115
G1 X24.009 Y10.208 E58.82732
G1 X24.149 Y10.068 E58.83819
G1 X24.289 Y10.208 E58.84519
G1 X107.448 Y93.367 E65.29924
G1 X107.588 Y93.507 E65.31011
G1 X107.448 Y93.647 E65.31711
G1 X97.683 Y103.41 E66.07491
G1 X97.239 Y103.825 E66.10826
G1 X96.734 Y104.234 E66.14392
G1 X96.233 Y104.585 E66.17749
G1 X95.726 Y104.892 E66.21002
G1 X95.155 Y105.186 E66.24527
G1 X94.585 Y105.428 E66.27925
G1 X93.976 Y105.641 E66.31466
G1 X93.366 Y105.807 E66.34935
G1 X92.804 Y105.918 E66.38079
G1 X92.154 Y106.002 E66.41676
G1 X92.046 Y106.009 E66.4227
G0 F810 X91.542 Y106.039
G0 F1200 X91.548 Y106.439
G1 F900 X90.896 Y106.432 E66.45848
G1 X90.257 Y106.38 E66.49366
G1 X89.613 Y106.284 E66.5294
G1 X88.984 Y106.145 E66.56475
G1 X88.359 Y105.961 E66.6005
G1 X87.743 Y105.733 E66.63655
G1 X87.166 Y105.472 E66.6713
G1 X86.587 Y105.161 E66.70737
G1 X86.03 Y104.809 E66.74353
G1 X85.518 Y104.434 E66.77836
G1 X85.016 Y104.011 E66.81439
G1 X15.286 Y34.296 E72.22562
G1 X13.86 Y32.869 E72.33633
G1 X13.406 Y32.365 E72.37355
G1 X13.39 Y32.344 E72.375
G1 X13.031 Y31.888 E72.40685
G1 X12.636 Y31.302 E72.44564
G1 X12.623 Y31.278 E72.44713
G1 X12.328 Y30.769 E72.47942
G1 X12.036 Y30.174 E72.51579
G1 X11.783 Y29.552 E72.55264
G1 X11.583 Y28.941 E72.58793
G1 X11.581 Y28.93 E72.58854
G1 X11.424 Y28.305 E72.6239
G1 X11.308 Y27.651 E72.66036
G1 X11.237 Y26.995 E72.69657
G1 X11.214 Y26.34 E72.73253
G1 X11.238 Y25.672 E72.76922
G1 X11.307 Y25.017 E72.80536
G1 X11.419 Y24.378 E72.84096
G1 X11.575 Y23.749 E72.87653
G1 X11.778 Y23.126 E72.91249
G1 X12.027 Y22.509 E72.949
G1 X12.318 Y21.912 E72.98545
G1 X12.64 Y21.355 E73.02076
G1 X12.996 Y20.826 E73.05575
G1 X13.414 Y20.29 E73.09305
G1 X13.849 Y19.804 E73.12885
G1 X24.009 Y9.642 E73.91745
G1 X24.149 Y9.502 E73.92832
G1 X24.289 Y9.642 E73.93532
G1 X108.014 Y93.367 E80.4333
G1 X108.154 Y93.507 E80.44416
G1 X108.014 Y93.647 E80.45117
G1 X97.966 Y103.693 E81.23093
G1 X97.496 Y104.132 E81.26622
G1 X96.981 Y104.549 E81.30259
G1 X96.452 Y104.92 E81.33805
G1 X95.915 Y105.245 E81.37249
G1 X95.327 Y105.547 E81.40877
G1 X94.726 Y105.803 E81.44462
G1 X94.1 Y106.022 E81.48102
G1 X93.465 Y106.195 E81.51713
G1 X92.857 Y106.315 E81.55114
G1 X92.199 Y106.4 E81.58755
G1 X92.075 Y106.408 E81.59437
G0 F810 X91.566 Y106.437
G0 X91.548 Y106.439
G0 F1200 X91.553 Y106.839
;TYPE:WALL-OUTER
G1 F900 X90.874 Y106.832 E81.63164
G1 X90.21 Y106.778 E81.6682
G1 X89.537 Y106.678 E81.70554
G1 X88.888 Y106.534 E81.74202
G1 X88.238 Y106.343 E81.7792
G1 X87.595 Y106.105 E81.81683
G1 X86.99 Y105.831 E81.85328
G1 X86.379 Y105.503 E81.89133
G1 X85.805 Y105.14 E81.9286
G1 X85.268 Y104.747 E81.96512
G1 X84.745 Y104.306 E82.00267
G1 X15.003 Y34.579 E87.41483
G1 X13.577 Y33.152 E87.52554
G1 X13.109 Y32.633 E87.56389
G1 X12.7 Y32.113 E87.6002
G1 X12.304 Y31.526 E87.63906
G1 X11.974 Y30.955 E87.67525
G1 X11.666 Y30.328 E87.71359
G1 X11.412 Y29.703 E87.75061
G1 X11.199 Y29.053 E87.78815
G1 X11.032 Y28.385 E87.82594
G1 X10.911 Y27.705 E87.86384
G1 X10.838 Y27.024 E87.90143
G1 X10.814 Y26.34 E87.93899
G1 X10.838 Y25.645 E87.97715
G1 X10.91 Y24.964 E88.01473
G1 X11.027 Y24.299 E88.05179
G1 X11.191 Y23.639 E88.08911
G1 X11.403 Y22.988 E88.12668
G1 X11.664 Y22.34 E88.16502
G1 X11.958 Y21.737 E88.20184
G1 X12.303 Y21.14 E88.23968
G1 X12.676 Y20.585 E88.27637
G1 X13.103 Y20.037 E88.3145
G1 X13.56 Y19.527 E88.35208
G1 X24.008 Y9.077 E89.16304
G1 X24.149 Y8.936 E89.17398
G1 X24.29 Y9.077 E89.18105
G1 X108.579 Y93.366 E95.7228
G1 X108.72 Y93.507 E95.73374
G1 X108.579 Y93.648 E95.7408
G1 X98.249 Y103.976 E96.54245
G1 X97.753 Y104.439 E96.57968
G1 X97.228 Y104.864 E96.61675
G1 X96.671 Y105.255 E96.6541
G1 X96.104 Y105.598 E96.69047
G1 X95.5 Y105.908 E96.72773
G1 X94.867 Y106.178 E96.76549
G1 X94.224 Y106.403 E96.80288
G1 X93.564 Y106.583 E96.84042
G1 X92.91 Y106.712 E96.877
G1 X92.244 Y106.798 E96.91386
G1 X92.084 Y106.808 E96.92265
G0 F810 X91.553 Y106.839
G0 F1200 X91.353 Y106.837
G0 X91.358 Y106.397
G0 X91.522 Y105.649
;TYPE:SKIN
G1 F900 X90.925 Y105.642 E96.95542
G1 X90.361 Y105.596 E96.98647
