;FLAVOR:Marlin
;TIME:4100
;Filament used: 5.00059m
;Layer height: 0.24
;MINX:20.001
;MINY:24
;MINZ:0.3
;MAXX:99.999
;MAXY:96
;MAXZ:15.18
;Generated with Cura_SteamEngine 4.7.1
M104 S210
M105
M109 S210
M82 ;absolute extrusion mode
;Sliced at: Tue 25-05-2021 12:59:53
G21 ;metric values
G90 ;absolute positioning
M82 ;set extruder to absolute mode
M107 ;start with the fan off
G1 Z5.0 F1800 ;move Z to 5mm
G28 X0 Y0 F1800 ;move X/Y to min endstops
G28 Z0 ;move Z to min endstop
G92 E0 ;zero the extruded length
G1 F200 E6.0 ;extrude 6.0mm of feed stock to build pressure
G1 Z5.0 F300 ;move the platform down 5mm
G92 E0 ;zero the extruded length again
G1 F1800
;Put printing message on LCD screen
M117 Printing...
G92 E0
G92 E0
G1 F1500 E-5
;LAYER_COUNT:64
;LAYER:0
M107
G0 F1080 X23.3 Y26.598 Z0.3
;TYPE:SKIRT
G1 F1500 E0.72757
G1 F900 X23.442 Y26.476 E0.73784
G1 X23.943 Y26.063 E0.77347
G1 X24.544 Y25.64 E0.8138
G1 X24.707 Y25.538 E0.82436
G1 X25.249 Y25.218 E0.8589
G1 X25.932 Y24.884 E0.90062
G1 X26.104 Y24.811 E0.91088
G1 X26.681 Y24.583 E0.94492
G1 X27.385 Y24.366 E0.98535
G1 X27.557 Y24.323 E0.99508
G1 X28.182 Y24.182 E1.03024
G1 X28.95 Y24.073 E1.07281
G1 X29.123 Y24.058 E1.08234
G1 X29.719 Y24.02 E1.11512
G1 X30.448 Y24.002 E1.15514
G1 X87.177 Y24 E4.26838
G1 X89.398 Y24.001 E4.39027
G1 X90.068 Y24.01 E4.42704
G1 X90.621 Y24.038 E4.45743
G1 X90.745 Y24.048 E4.46425
G1 X91.338 Y24.105 E4.49695
G1 X92.02 Y24.223 E4.53493
G1 X92.192 Y24.263 E4.54462
G1 X92.832 Y24.426 E4.58087
G1 X93.557 Y24.673 E4.6229
G1 X93.726 Y24.741 E4.6329
G1 X94.317 Y24.996 E4.66822
G1 X94.966 Y25.339 E4.70851
G1 X95.104 Y25.423 E4.71737
G1 X95.651 Y25.768 E4.75286
G1 X96.266 Y26.228 E4.79501
G1 X96.409 Y26.348 E4.80525
G1 X96.89 Y26.772 E4.84044
G1 X97.368 Y27.261 E4.87797
G1 X97.5 Y27.413 E4.88902
G1 X97.933 Y27.937 E4.92632
G1 X98.362 Y28.546 E4.9672
G1 X98.462 Y28.707 E4.97761
G1 X98.782 Y29.249 E5.01215
G1 X99.116 Y29.932 E5.05387
G1 X99.187 Y30.1 E5.06388
G1 X99.415 Y30.675 E5.09783
G1 X99.636 Y31.391 E5.13895
G1 X99.677 Y31.557 E5.14833
G1 X99.818 Y32.182 E5.18349
G1 X99.928 Y32.966 E5.22694
G1 X99.943 Y33.14 E5.23653
G1 X99.98 Y33.732 E5.26908
G1 X99.999 Y34.414 E5.30652
G1 X99.999 Y85.368 E8.10284
G1 X99.989 Y86.063 E8.14098
G1 X99.964 Y86.574 E8.16906
G1 X99.952 Y86.743 E8.17836
G1 X99.895 Y87.337 E8.2111
G1 X99.78 Y88.005 E8.2483
G1 X99.725 Y88.24 E8.26155
G1 X99.57 Y88.846 E8.29587
G1 X99.327 Y89.557 E8.33711
G1 X99.258 Y89.728 E8.34723
G1 X99.002 Y90.32 E8.38263
G1 X98.657 Y90.971 E8.42306
G1 X98.576 Y91.106 E8.4317
G1 X98.233 Y91.65 E8.46699
G1 X97.77 Y92.268 E8.50937
G1 X97.649 Y92.412 E8.51969
G1 X97.227 Y92.89 E8.55468
G1 X96.708 Y93.395 E8.59442
G1 X96.558 Y93.524 E8.60528
G1 X96.057 Y93.937 E8.64091
G1 X95.456 Y94.36 E8.68125
G1 X95.293 Y94.462 E8.6918
G1 X94.751 Y94.782 E8.72634
G1 X94.068 Y95.116 E8.76807
G1 X93.9 Y95.187 E8.77807
G1 X93.325 Y95.415 E8.81202
G1 X92.609 Y95.636 E8.85314
G1 X92.443 Y95.677 E8.86253
G1 X91.818 Y95.818 E8.89769
G1 X91.034 Y95.928 E8.94113
G1 X90.863 Y95.943 E8.95056
G1 X90.264 Y95.981 E8.98349
G1 X89.539 Y95.999 E9.02329
G1 X30.706 Y96 E12.252
G1 X29.945 Y95.99 E12.29377
G1 X29.326 Y95.957 E12.32779
G1 X28.683 Y95.898 E12.36322
G1 X27.949 Y95.77 E12.40411
G1 X27.776 Y95.73 E12.41386
G1 X27.163 Y95.573 E12.44858
G1 X26.443 Y95.327 E12.49034
G1 X26.274 Y95.258 E12.50036
G1 X25.681 Y95.002 E12.5358
G1 X25.026 Y94.656 E12.57646
G1 X24.887 Y94.572 E12.58537
G1 X24.347 Y94.231 E12.62042
G1 X23.732 Y93.77 E12.6626
G1 X23.59 Y93.651 E12.67277
G1 X23.11 Y93.228 E12.70788
G1 X22.604 Y92.708 E12.7477
G1 X22.476 Y92.559 E12.75848
G1 X22.063 Y92.058 E12.79411
G1 X21.636 Y91.45 E12.83488
G1 X21.538 Y91.293 E12.84504
G1 X21.218 Y90.751 E12.87958
G1 X20.878 Y90.054 E12.92214
G1 X20.81 Y89.892 E12.93178
G1 X20.584 Y89.322 E12.96543
G1 X20.363 Y88.606 E13.00655
G1 X20.323 Y88.443 E13.01576
G1 X20.182 Y87.818 E13.05093
G1 X20.072 Y87.034 E13.09437
G1 X20.057 Y86.86 E13.10396
G1 X20.019 Y86.254 E13.13728
G1 X20.001 Y85.539 E13.17653
G1 X20.001 Y34.632 E15.97027
G1 X20.011 Y33.926 E16.00902
G1 X20.041 Y33.354 E16.04045
G1 X20.103 Y32.688 E16.07716
G1 X20.231 Y31.948 E16.11837
G1 X20.272 Y31.767 E16.12856
G1 X20.425 Y31.168 E16.16248
G1 X20.672 Y30.445 E16.20441
G1 X20.741 Y30.274 E16.21453
G1 X20.996 Y29.683 E16.24986
G1 X21.343 Y29.029 E16.29049
G1 X21.424 Y28.894 E16.29913
G1 X21.767 Y28.35 E16.33442
G1 X22.23 Y27.732 E16.3768
G1 X22.349 Y27.59 E16.38696
G1 X22.772 Y27.11 E16.42208
G1 X22.918 Y26.968 E16.43325
G0 F810 X23.3 Y26.598
G0 F1080 X23.569 Y26.894
G1 F900 X23.696 Y26.784 E16.44247
G1 X24.197 Y26.371 E16.47811
G1 X24.763 Y25.974 E16.51605
G1 X24.911 Y25.882 E16.52561
G1 X25.453 Y25.562 E16.56015
G1 X26.096 Y25.248 E16.59942
G1 X26.251 Y25.183 E16.60865
G1 X26.828 Y24.955 E16.64269
G1 X27.49 Y24.752 E16.68069
G1 X27.645 Y24.713 E16.68946
G1 X28.27 Y24.572 E16.72463
G1 X28.993 Y24.471 E16.76469
G1 X29.149 Y24.457 E16.77328
G1 X29.745 Y24.419 E16.80606
G1 X30.453 Y24.402 E16.84493
G1 X87.177 Y24.4 E19.95789
G1 X89.392 Y24.401 E20.07945
G1 X90.062 Y24.41 E20.11622
G1 X90.596 Y24.438 E20.14557
G1 X90.706 Y24.447 E20.15163
G1 X91.299 Y24.504 E20.18432
G1 X91.938 Y24.614 E20.2199
G1 X92.094 Y24.65 E20.22869
G1 X92.734 Y24.813 E20.26493
G1 X93.415 Y25.047 E20.30445
G1 X93.567 Y25.109 E20.31346
G1 X94.158 Y25.364 E20.34878
G1 X94.766 Y25.686 E20.38654
G1 X94.89 Y25.761 E20.39449
G1 X95.437 Y26.106 E20.42998
G1 X96.016 Y26.54 E20.4697
G1 X96.145 Y26.648 E20.47893
G1 X96.626 Y27.072 E20.51412
G1 X97.073 Y27.531 E20.54928
G1 X97.192 Y27.668 E20.55924
G1 X97.625 Y28.192 E20.59654
G1 X98.028 Y28.766 E20.63503
G1 X98.118 Y28.911 E20.6444
G1 X98.438 Y29.453 E20.67894
G1 X98.752 Y30.096 E20.71821
G1 X98.816 Y30.247 E20.72721
G1 X99.044 Y30.822 E20.76115
G1 X99.25 Y31.496 E20.79983
G1 X99.287 Y31.645 E20.80826
G1 X99.428 Y32.27 E20.84342
G1 X99.531 Y33.008 E20.88431
G1 X99.544 Y33.165 E20.89296
G1 X99.586 Y33.853 E20.93078
G1 X99.599 Y34.42 E20.96191
G1 X99.599 Y85.362 E23.75757
G1 X99.589 Y86.057 E23.79571
G1 X99.554 Y86.705 E23.83133
G1 X99.497 Y87.299 E23.86407
G1 X99.388 Y87.923 E23.89884
G1 X99.338 Y88.141 E23.91111
G1 X99.183 Y88.747 E23.94544
G1 X98.953 Y89.416 E23.98426
G1 X98.891 Y89.569 E23.99332
G1 X98.635 Y90.161 E24.02872
G1 X98.31 Y90.772 E24.0667
G1 X98.237 Y90.893 E24.07445
G1 X97.894 Y91.437 E24.10975
G1 X97.458 Y92.018 E24.14961
G1 X97.349 Y92.148 E24.15892
G1 X96.927 Y92.626 E24.19391
G1 X96.439 Y93.099 E24.23121
G1 X96.304 Y93.216 E24.24101
G1 X95.803 Y93.629 E24.27665
G1 X95.237 Y94.026 E24.31459
G1 X95.089 Y94.118 E24.32415
G1 X94.547 Y94.438 E24.35869
G1 X93.904 Y94.752 E24.39796
G1 X93.753 Y94.816 E24.40696
G1 X93.178 Y95.044 E24.44091
G1 X92.504 Y95.25 E24.47959
G1 X92.355 Y95.287 E24.48801
G1 X91.73 Y95.428 E24.52317
G1 X90.992 Y95.531 E24.56407
G1 X90.838 Y95.544 E24.57255
G1 X90.239 Y95.582 E24.60549
G1 X89.534 Y95.599 E24.64419
G1 X30.706 Y95.6 E27.87262
G1 X29.951 Y95.59 E27.91406
G1 X29.355 Y95.558 E27.94681
G1 X28.72 Y95.499 E27.98181
G1 X28.031 Y95.379 E28.02019
G1 X27.875 Y95.342 E28.02899
G1 X27.262 Y95.185 E28.06372
G1 X26.585 Y94.953 E28.10299
G1 X26.432 Y94.891 E28.11205
G1 X25.839 Y94.635 E28.1475
G1 X25.226 Y94.309 E28.1856
G1 X25.101 Y94.234 E28.1936
G1 X24.561 Y93.893 E28.22865
G1 X23.982 Y93.458 E28.26839
G1 X23.855 Y93.351 E28.27751
G1 X23.375 Y92.928 E28.31262
G1 X22.9 Y92.438 E28.35007
G1 X22.784 Y92.305 E28.35976
G1 X22.371 Y91.804 E28.39539
G1 X21.97 Y91.231 E28.43377
G1 X21.882 Y91.089 E28.44294
G1 X21.562 Y90.547 E28.47748
G1 X21.243 Y89.89 E28.51756
G1 X21.181 Y89.745 E28.52621
G1 X20.955 Y89.175 E28.55986
G1 X20.75 Y88.502 E28.59847
G1 X20.713 Y88.355 E28.60679
G1 X20.572 Y87.73 E28.64195
G1 X20.469 Y86.992 E28.68285
G1 X20.456 Y86.835 E28.69149
G1 X20.418 Y86.229 E28.72482
G1 X20.401 Y85.534 E28.76297
G1 X20.401 Y34.638 E31.5561
G1 X20.411 Y33.932 E31.59485
G1 X20.44 Y33.381 E31.62513
G1 X20.501 Y32.725 E31.66129
G1 X20.622 Y32.029 E31.70005
G1 X20.66 Y31.866 E31.70924
G1 X20.813 Y31.267 E31.74317
G1 X21.046 Y30.586 E31.78267
G1 X21.109 Y30.433 E31.79175
G1 X21.364 Y29.842 E31.82707
G1 X21.69 Y29.228 E31.86522
G1 X21.763 Y29.107 E31.87298
G1 X22.106 Y28.563 E31.90827
G1 X22.542 Y27.982 E31.94814
G1 X22.649 Y27.855 E31.95725
G1 X23.072 Y27.375 E31.99236
G1 X23.187 Y27.264 E32.00113
G0 F810 X23.569 Y26.894
G0 F1080 X23.837 Y27.191
G1 F900 X23.951 Y27.093 E32.00938
G1 X24.452 Y26.68 E32.04501
G1 X24.983 Y26.308 E32.08059
G1 X25.114 Y26.226 E32.08908
G1 X25.656 Y25.906 E32.12362
G1 X26.26 Y25.613 E32.16046
G1 X26.398 Y25.555 E32.16867
G1 X26.975 Y25.327 E32.20272
G1 X27.595 Y25.138 E32.23829
G1 X27.733 Y25.103 E32.24611
G1 X28.358 Y24.962 E32.28127
G1 X29.036 Y24.868 E32.31883
G1 X29.174 Y24.856 E32.32643
G1 X29.77 Y24.818 E32.35921
G1 X30.458 Y24.802 E32.39697
G1 X87.177 Y24.8 E35.50967
G1 X89.387 Y24.801 E35.63095
G1 X90.057 Y24.81 E35.66772
G1 X90.57 Y24.837 E35.69592
G1 X90.668 Y24.845 E35.70131
G1 X91.261 Y24.902 E35.73401
G1 X91.857 Y25.006 E35.76721
G1 X91.995 Y25.038 E35.77498
G1 X92.635 Y25.201 E35.81123
G1 X93.273 Y25.421 E35.84826
G1 X93.409 Y25.476 E35.85631
G1 X94 Y25.731 E35.89164
G1 X94.566 Y26.033 E35.92684
G1 X94.677 Y26.099 E35.93393
G1 X95.224 Y26.444 E35.96942
G1 X95.765 Y26.852 E36.00661
G1 X95.88 Y26.948 E36.01483
G1 X96.361 Y27.372 E36.05002
G1 X96.778 Y27.801 E36.08285
G1 X96.884 Y27.923 E36.09172
G1 X97.317 Y28.447 E36.12902
G1 X97.693 Y28.985 E36.16505
G1 X97.774 Y29.114 E36.1734
G1 X98.094 Y29.656 E36.20795
G1 X98.387 Y30.26 E36.24479
G1 X98.444 Y30.394 E36.25278
G1 X98.672 Y30.969 E36.28673
G1 X98.864 Y31.6 E36.32292
G1 X98.897 Y31.733 E36.33044
G1 X99.038 Y32.358 E36.3656
G1 X99.133 Y33.05 E36.40394
G1 X99.145 Y33.19 E36.41165
G1 X99.182 Y33.782 E36.4442
G1 X99.199 Y34.425 E36.4795
G1 X99.199 Y85.356 E39.27455
G1 X99.189 Y86.051 E39.3127
G1 X99.155 Y86.667 E39.34655
G1 X99.098 Y87.261 E39.3793
G1 X98.997 Y87.84 E39.41156
G1 X98.95 Y88.042 E39.42294
G1 X98.795 Y88.648 E39.45727
G1 X98.579 Y89.274 E39.49361
G1 X98.524 Y89.41 E39.50166
G1 X98.268 Y90.002 E39.53706
G1 X97.964 Y90.572 E39.57251
G1 X97.899 Y90.68 E39.57943
G1 X97.556 Y91.224 E39.61472
G1 X97.146 Y91.768 E39.6521
G1 X97.049 Y91.883 E39.66036
G1 X96.627 Y92.361 E39.69535
G1 X96.169 Y92.803 E39.73028
G1 X96.049 Y92.907 E39.739
G1 X95.548 Y93.32 E39.77463
G1 X95.017 Y93.692 E39.81021
G1 X94.886 Y93.774 E39.81869
G1 X94.344 Y94.094 E39.85323
G1 X93.74 Y94.387 E39.89007
G1 X93.606 Y94.444 E39.89806
G1 X93.031 Y94.672 E39.93201
G1 X92.4 Y94.864 E39.96821
G1 X92.267 Y94.897 E39.97573
G1 X91.642 Y95.038 E40.01089
G1 X90.95 Y95.133 E40.04922
G1 X90.813 Y95.145 E40.05677
G1 X90.214 Y95.183 E40.08971
G1 X89.53 Y95.199 E40.12725
G1 X30.706 Y95.2 E43.35547
G1 X29.877 Y95.188 E43.40097
G1 X29.313 Y95.153 E43.43198
G1 X28.757 Y95.101 E43.46263
G1 X28.113 Y94.987 E43.49852
G1 X27.974 Y94.955 E43.50635
G1 X27.361 Y94.798 E43.54107
G1 X26.727 Y94.579 E43.57788
G1 X26.591 Y94.524 E43.58593
G1 X25.998 Y94.268 E43.62138
G1 X25.426 Y93.963 E43.65696
G1 X25.314 Y93.896 E43.66412
G1 X24.774 Y93.555 E43.69917
G1 X24.232 Y93.146 E43.73643
G1 X24.119 Y93.051 E43.74453
G1 X23.639 Y92.628 E43.77964
G1 X23.196 Y92.169 E43.81465
G1 X23.093 Y92.05 E43.82329
G1 X22.68 Y91.549 E43.85892
G1 X22.305 Y91.012 E43.89487
G1 X22.226 Y90.886 E43.90303
G1 X21.906 Y90.344 E43.93757
G1 X21.608 Y89.727 E43.97517
G1 X21.553 Y89.597 E43.98292
G1 X21.327 Y89.027 E44.01657
G1 X21.136 Y88.398 E44.05264
G1 X21.103 Y88.267 E44.06006
G1 X20.962 Y87.642 E44.09522
G1 X20.867 Y86.95 E44.13355
G1 X20.855 Y86.81 E44.14126
G1 X20.817 Y86.204 E44.17458
G1 X20.801 Y85.53 E44.21158
G1 X20.801 Y34.644 E47.00417
G1 X20.811 Y33.938 E47.04292
G1 X20.839 Y33.408 E47.07204
G1 X20.899 Y32.763 E47.10759
G1 X21.014 Y32.11 E47.14398
G1 X21.048 Y31.965 E47.15215
G1 X21.201 Y31.366 E47.18608
G1 X21.421 Y30.728 E47.22312
G1 X21.476 Y30.591 E47.23122
G1 X21.731 Y30 E47.26654
G1 X22.036 Y29.428 E47.30212
G1 X22.101 Y29.32 E47.30904
G1 X22.444 Y28.776 E47.34433
G1 X22.854 Y28.232 E47.38171
G1 X22.949 Y28.119 E47.38981
G1 X23.372 Y27.639 E47.42493
G1 X23.454 Y27.56 E47.43117
G0 F810 X23.837 Y27.191
G0 F1080 X92.007 Y35.958
G1 F900 X92.1 Y35.815 E47.44054
G1 X92.157 Y35.83 E47.44377
G1 X92.083 Y36.105 E47.4594
G1 X92.024 Y35.99 E47.46649
G0 F810 X92.007 Y35.958
G0 F1080 X91.761 Y35.598
G1 F900 X91.867 Y35.284 E47.48468
G1 X92.138 Y35.417 E47.50125
G1 X92.611 Y35.488 E47.5275
G1 X92.645 Y35.555 E47.53162
G1 X92.418 Y36.402 E47.57974
G1 X91.887 Y36.968 E47.62233
G1 X91.867 Y36.665 E47.639
G1 X91.766 Y36.346 E47.65736
G1 X91.506 Y35.973 E47.68231
G1 X91.593 Y35.845 E47.69081
G0 F810 X91.761 Y35.598
G0 F1080 X91.34 Y36.395
G1 F900 X91.158 Y36.179 E47.70631
G1 X90.917 Y36.02 E47.72215
G1 X91.272 Y35.628 E47.75118
G1 X91.418 Y35.386 E47.76669
G1 X91.49 Y35.113 E47.78218
G1 X91.483 Y34.831 E47.79766
G1 X91.363 Y34.51 E47.81647
G1 X91.614 Y34.613 E47.83136
G1 X91.767 Y34.629 E47.8398
G1 X91.86 Y34.767 E47.84893
G1 X92.077 Y34.947 E47.8644
G1 X92.336 Y35.06 E47.87991
G1 X92.85 Y35.074 E47.90813
G1 X93.072 Y35.508 E47.93488
G1 X92.778 Y36.605 E47.99721
G1 X91.061 Y38.434 E48.13488
G1 X90.289 Y38.892 E48.18414
G1 X91.091 Y38.037 E48.24848
G1 X91.32 Y37.641 E48.27358
G1 X91.491 Y36.933 E48.31355
G1 X91.486 Y36.901 E48.31533
G0 F810 X91.454 Y36.653
G0 X91.34 Y36.395
G0 F1080 X91.034 Y36.669
G1 F900 X90.907 Y36.492 E48.32729
G1 X90.725 Y36.371 E48.33928
G1 X90.512 Y36.324 E48.35125
G1 X90.296 Y36.357 E48.36324
G1 X90.054 Y36.513 E48.37904
G1 X88.249 Y38.433 E48.52366
G1 X87.681 Y37.542 E48.58165
G1 X87.683 Y36.988 E48.61205
G1 X88.042 Y36.495 E48.64552
G1 X88.136 Y36.298 E48.6575
G1 X88.154 Y36.081 E48.66945
G1 X88.093 Y35.871 E48.68145
G1 X87.96 Y35.698 E48.69343
G1 X87.688 Y35.566 E48.71002
G1 X89.299 Y34.252 E48.82411
G1 X90.76 Y33.611 E48.91167
G1 X91.029 Y33.736 E48.92794
G1 X91.275 Y33.726 E48.94146
G1 X91.297 Y33.853 E48.94853
G1 X91.409 Y34.04 E48.96049
G1 X91.581 Y34.175 E48.97249
G1 X91.789 Y34.24 E48.98445
G1 X92.024 Y34.218 E48.9974
G1 X92.053 Y34.339 E49.00423
G1 X92.176 Y34.519 E49.0162
G1 X92.356 Y34.643 E49.02819
G1 X92.674 Y34.692 E49.04585
G1 X93.079 Y34.643 E49.06824
G1 X93.498 Y35.463 E49.11877
G1 X93.138 Y36.805 E49.19502
G1 X91.313 Y38.749 E49.34136
G1 X90.084 Y39.478 E49.41977
G1 X89.539 Y39.242 E49.45237
G1 X89.445 Y39.207 E49.45787
G1 X90.799 Y37.764 E49.56647
G1 X90.937 Y37.526 E49.58156
G1 X91.039 Y37.189 E49.60089
G0 F810 X91.066 Y37.097
G0 X91.089 Y36.88
G0 X91.034 Y36.669
G0 F1080 X90.679 Y36.857
G1 F900 X90.603 Y36.758 E49.60774
G1 X90.483 Y36.724 E49.61458
G1 X90.345 Y36.787 E49.62291
G1 X88.39 Y38.867 E49.77956
G1 X88.15 Y39.021 E49.79521
G1 X87.28 Y37.657 E49.884
G1 X87.284 Y36.858 E49.92785
G1 X87.719 Y36.26 E49.96843
G1 X87.757 Y36.141 E49.97528
G1 X87.717 Y36.022 E49.98217
G1 X87.615 Y35.951 E49.98899
G1 X87.438 Y35.981 E49.99885
G1 X87.011 Y36.297 E50.028
G1 X87.132 Y35.503 E50.07207
G1 X89.09 Y33.906 E50.21074
G1 X90.934 Y33.098 E50.32122
G1 X90.925 Y33.188 E50.32619
G1 X90.99 Y33.295 E50.33306
G1 X91.15 Y33.341 E50.34219
G1 X91.804 Y33.243 E50.37849
G1 X91.674 Y33.571 E50.39785
G1 X91.667 Y33.695 E50.40466
G1 X91.735 Y33.8 E50.41153
G1 X91.852 Y33.844 E50.41839
G1 X91.971 Y33.81 E50.42518
G1 X92.452 Y33.49 E50.45689
G1 X92.625 Y33.75 E50.47403
G1 X92.447 Y33.97 E50.48956
G1 X92.402 Y34.087 E50.49643
G1 X92.436 Y34.207 E50.50328
G1 X92.534 Y34.284 E50.51012
G1 X92.626 Y34.295 E50.5152
G1 X93.308 Y34.213 E50.5529
G1 X93.924 Y35.419 E50.62722
G1 X93.499 Y37.004 E50.71728
G1 X91.565 Y39.065 E50.87238
G1 X90.113 Y39.926 E50.96502
G1 X89.367 Y39.604 E51.00961
G1 X88.732 Y39.382 E51.04653
G1 X90.508 Y37.49 E51.18894
G1 X90.551 Y37.367 E51.19609
G0 F810 X90.683 Y36.982
G0 X90.679 Y36.857
G0 F1080 X89.86 Y36.171
G1 F900 X89.762 Y36.239 E51.20264
G1 X88.309 Y37.784 E51.31903
G1 X88.081 Y37.426 E51.34232
G1 X88.083 Y37.119 E51.35917
G1 X88.366 Y36.73 E51.38557
G1 X88.498 Y36.481 E51.40104
G1 X88.555 Y36.205 E51.4165
G1 X88.533 Y35.924 E51.43197
G1 X88.433 Y35.66 E51.44746
G1 X88.347 Y35.545 E51.45535
G1 X89.512 Y34.595 E51.53784
