;FLAVOR:Marlin
;TIME:4772
;Filament used: 2.92757m
;Layer height: 0.12
;MINX:25.176
;MINY:49.596
;MINZ:0.24
;MAXX:99.238
;MAXY:72.875
;MAXZ:29.76
;Generated with Cura_SteamEngine 4.7.1
M104 S210
M105
M109 S210
M82 ;absolute extrusion mode
;Sliced at: Mon 18-01-2021 12:57:10
G21 ;metric values
G90 ;absolute positioning
M82 ;set extruder to absolute mode
M107 ;start with the fan off
G1 Z5.0 F1800 ;move Z to 5mm
G28 X0 Y0 F1800 ;move X/Y to min endstops
G28 Z0 ;move Z to min endstop
G92 E0 ;zero the extruded length
G1 F200 E6.0 ;extrude 6.0mm of feed stock to build pressure
G1 Z5.0 F300 ;move the platform down 5mm
G92 E0 ;zero the extruded length again
G1 F1800
;Put printing message on LCD screen
M117 Printing...
G92 E0
G92 E0
G1 F1500 E-5
;LAYER_COUNT:248
;LAYER:0
M107
G0 F900 X29.91 Y50.456 Z0.24
;TYPE:SKIRT
G1 F1500 E0.70678
G1 F900 X29.576 Y50.731 E0.72577
G1 X29.272 Y51.089 E0.74639
G1 X29.002 Y51.573 E0.77072
G1 X28.848 Y52.059 E0.79311
G1 X28.779 Y52.511 E0.81318
G1 X28.565 Y54.27 E0.89098
G1 X28.156 Y57.037 E1.01378
G1 X27.667 Y59.788 E1.13645
G1 X27.406 Y61.15 E1.19733
G1 X27.366 Y61.602 E1.21725
G1 X27.406 Y62.045 E1.23678
G1 X27.529 Y62.498 E1.25739
G1 X27.733 Y62.927 E1.27825
G1 X28.327 Y63.906 E1.32852
G1 X30.359 Y67.419 E1.5067
G1 X30.85 Y68.343 E1.55263
G1 X31.292 Y69.146 E1.59288
G1 X31.491 Y69.445 E1.60865
G1 X31.858 Y69.837 E1.63222
G1 X32.366 Y70.263 E1.66133
G1 X33.005 Y70.741 E1.69636
G1 X33.898 Y71.388 E1.74478
G1 X34.776 Y72.003 E1.79184
G1 X35.254 Y72.228 E1.81503
G1 X35.718 Y72.347 E1.83607
G1 X36.36 Y72.438 E1.86453
G1 X36.908 Y72.463 E1.88862
G1 X37.726 Y72.475 E1.92453
G1 X38.978 Y72.475 E1.9795
G1 X39.935 Y72.459 E2.02152
G1 X40.056 Y72.45 E2.02685
G1 X40.733 Y72.369 E2.05678
G1 X41.225 Y72.23 E2.07923
G1 X42.94 Y71.529 E2.16057
G1 X42.945 Y71.54 E2.1611
G1 X44.047 Y71.081 E2.21351
G1 X46.667 Y70.098 E2.33637
G1 X49.313 Y69.191 E2.45917
G1 X51.984 Y68.36 E2.58198
G1 X54.678 Y67.606 E2.7048
G1 X57.392 Y66.93 E2.8276
G1 X60.124 Y66.333 E2.95037
G1 X62.872 Y65.814 E3.07315
G1 X65.635 Y65.373 E3.19599
G1 X68.408 Y65.013 E3.31876
G1 X71.192 Y64.732 E3.44161
G1 X73.981 Y64.532 E3.56437
G1 X76.776 Y64.411 E3.68719
G1 X79.573 Y64.371 E3.81
G1 X82.367 Y64.411 E3.93268
G1 X83.717 Y64.45 E3.99197
G1 X84.285 Y64.475 E4.01694
G1 X85.851 Y64.507 E4.0857
G1 X88.642 Y64.663 E4.20843
G1 X89.447 Y64.718 E4.24385
G1 X90.016 Y64.7 E4.26885
G1 X92.798 Y64.36 E4.39189
G1 X95.581 Y64.102 E4.5146
G1 X96.457 Y64.034 E4.55318
G1 X96.61 Y64.017 E4.55994
G1 X97.106 Y63.894 E4.58237
G1 X97.527 Y63.702 E4.60269
G1 X97.893 Y63.452 E4.62215
G1 X98.2 Y63.154 E4.64093
G1 X98.465 Y62.789 E4.66073
G1 X98.655 Y62.406 E4.6795
G1 X98.798 Y61.903 E4.70246
G1 X98.838 Y61.455 E4.72221
G1 X98.83 Y60.204 E4.77713
G1 X98.824 Y59.92 E4.7896
G1 X98.831 Y59.088 E4.82613
G1 X98.824 Y58.046 E4.87188
G1 X98.805 Y57.79 E4.88315
G1 X98.683 Y57.258 E4.90711
G1 X98.501 Y56.843 E4.92701
G1 X98.258 Y56.481 E4.94615
G1 X97.961 Y56.166 E4.96516
G1 X97.55 Y55.865 E4.98752
G1 X97.156 Y55.675 E5.00673
G1 X96.705 Y55.538 E5.02742
G1 X95.917 Y55.341 E5.06308
G1 X95.221 Y55.194 E5.09431
G1 X94.276 Y55.084 E5.13608
G1 X92.443 Y54.889 E5.21701
G1 X90.96 Y54.684 E5.28274
G1 X90.193 Y54.589 E5.31667
G1 X90.158 Y54.586 E5.31821
G1 X89.394 Y54.548 E5.3518
G1 X87.922 Y54.513 E5.41644
G1 X85.131 Y54.384 E5.53911
G1 X83.925 Y54.306 E5.59216
G1 X83.797 Y54.296 E5.5978
G1 X83.036 Y54.247 E5.63128
G1 X82.326 Y54.227 E5.66246
G1 X81.656 Y54.216 E5.69188
G1 X77.821 Y54.045 E5.86042
G1 X76.368 Y53.952 E5.92434
G1 X76.01 Y53.934 E5.94008
G1 X75.405 Y53.925 E5.96664
G1 X75.02 Y53.916 E5.98355
G1 X71.146 Y53.746 E6.1538
G1 X70.385 Y53.698 E6.18727
G1 X70.014 Y53.67 E6.20361
G1 X69.508 Y53.639 E6.22586
G1 X68.946 Y53.621 E6.25055
G1 X68.582 Y53.615 E6.26653
G1 X67.883 Y53.599 E6.29723
G1 X64.285 Y53.436 E6.45536
G1 X62.644 Y53.329 E6.52755
G1 X62.021 Y53.311 E6.55492
G1 X61.003 Y53.292 E6.59962
G1 X58.095 Y53.167 E6.72741
G1 X57.083 Y53.094 E6.77195
G1 X55.303 Y52.989 E6.85024
G1 X51.773 Y52.83 E7.00537
G1 X48.865 Y52.657 E7.13327
G1 X46.08 Y52.408 E7.25603
G1 X43.302 Y52.079 E7.37885
G1 X40.535 Y51.67 E7.50165
G1 X37.781 Y51.182 E7.62444
G1 X35.041 Y50.616 E7.74727
G1 X33.377 Y50.221 E7.82236
G1 X32.792 Y50.09 E7.84868
G1 X31.909 Y50.011 E7.8876
G1 X31.305 Y49.997 E7.91413
G1 X30.805 Y50.061 E7.93626
G1 X30.504 Y50.163 E7.95021
G0 F810 X30.306 Y50.229
G0 X29.91 Y50.456
G0 F900 X29.68 Y50.127
G1 X30.144 Y49.862 E7.97367
G1 X30.716 Y49.669 E8.00017
G1 X31.283 Y49.596 E8.02527
G1 X31.918 Y49.611 E8.05316
G1 X32.442 Y49.639 E8.0762
G1 X32.862 Y49.696 E8.0948
G1 X33.469 Y49.832 E8.12211
G1 X35.128 Y50.225 E8.19697
G1 X37.856 Y50.789 E8.31927
G1 X40.599 Y51.275 E8.44157
G1 X43.355 Y51.682 E8.56388
G1 X46.121 Y52.01 E8.68617
G1 X48.895 Y52.258 E8.80844
G1 X51.794 Y52.431 E8.93594
G1 X55.321 Y52.589 E9.09095
G1 X57.112 Y52.695 E9.16971
G1 X58.118 Y52.768 E9.214
G1 X61.015 Y52.892 E9.3413
G1 X62.033 Y52.911 E9.386
G1 X62.656 Y52.929 E9.41337
G1 X64.307 Y53.037 E9.48601
G1 X67.897 Y53.199 E9.64378
G1 X68.59 Y53.215 E9.67421
G1 X68.959 Y53.221 E9.69041
G1 X69.521 Y53.239 E9.7151
G1 X70.044 Y53.271 E9.73811
G1 X70.413 Y53.299 E9.75435
G1 X71.167 Y53.347 E9.78752
G1 X75.033 Y53.516 E9.95742
G1 X75.413 Y53.525 E9.9741
G1 X76.016 Y53.534 E10.00058
G1 X76.394 Y53.553 E10.0172
G1 X77.843 Y53.646 E10.08094
G1 X81.668 Y53.816 E10.24904
G1 X82.337 Y53.827 E10.27841
G1 X83.047 Y53.847 E10.3096
G1 X83.829 Y53.897 E10.344
G1 X83.954 Y53.907 E10.34951
G1 X85.153 Y53.985 E10.40226
G1 X87.936 Y54.113 E10.52457
G1 X89.414 Y54.148 E10.58948
G1 X90.178 Y54.186 E10.62306
G1 X90.242 Y54.192 E10.62588
G1 X91.009 Y54.287 E10.65981
G1 X92.492 Y54.492 E10.72554
G1 X94.318 Y54.686 E10.80616
G1 X95.283 Y54.799 E10.84882
G1 X96.014 Y54.953 E10.88162
G1 X96.816 Y55.154 E10.91791
G1 X97.3 Y55.3 E10.94011
G1 X97.761 Y55.523 E10.96259
G1 X98.226 Y55.864 E10.98791
G1 X98.57 Y56.228 E11.0099
G1 X98.852 Y56.649 E11.03214
G1 X99.065 Y57.132 E11.05532
G1 X99.202 Y57.731 E11.0823
G1 X99.224 Y58.029 E11.09542
G1 X99.231 Y59.091 E11.14204
G1 X99.224 Y59.917 E11.17831
G1 X99.23 Y60.201 E11.19078
G1 X99.238 Y61.468 E11.24641
G1 X99.192 Y61.979 E11.26893
G1 X99.03 Y62.549 E11.29495
G1 X98.807 Y62.999 E11.317
G1 X98.506 Y63.414 E11.3395
G1 X98.145 Y63.764 E11.36158
G1 X97.724 Y64.052 E11.38397
G1 X97.24 Y64.273 E11.40733
G1 X96.682 Y64.411 E11.43257
G1 X96.488 Y64.433 E11.44114
G1 X95.615 Y64.501 E11.47958
G1 X92.841 Y64.758 E11.60189
G1 X90.044 Y65.1 E11.72561
G1 X89.442 Y65.119 E11.75205
G1 X88.617 Y65.062 E11.78836
G1 X85.836 Y64.907 E11.91064
G1 X84.267 Y64.875 E11.97954
G1 X83.702 Y64.85 E12.00437
G1 X82.358 Y64.811 E12.0634
G1 X79.573 Y64.771 E12.18568
G1 X76.787 Y64.811 E12.30801
G1 X74.004 Y64.931 E12.43031
G1 X71.226 Y65.131 E12.55259
G1 X68.454 Y65.41 E12.6749
G1 X65.692 Y65.769 E12.79718
G1 X62.941 Y66.208 E12.91949
G1 X60.204 Y66.725 E13.04178
G1 X57.483 Y67.32 E13.16406
G1 X54.78 Y67.993 E13.28636
G1 X52.097 Y68.744 E13.40868
G1 X49.437 Y69.571 E13.53097
G1 X46.802 Y70.475 E13.65328
G1 X44.194 Y71.453 E13.77556
G1 X42.733 Y72.062 E13.84506
G1 X42.727 Y72.048 E13.84572
G1 X41.351 Y72.61 E13.91098
G1 X40.814 Y72.762 E13.93548
G1 X40.086 Y72.849 E13.96767
G1 X39.955 Y72.859 E13.97344
G1 X38.985 Y72.875 E14.01603
G1 X37.72 Y72.875 E14.07157
G1 X36.89 Y72.863 E14.10801
G1 X36.328 Y72.837 E14.13271
G1 X35.636 Y72.739 E14.1634
G1 X35.123 Y72.608 E14.18664
G1 X34.65 Y72.393 E14.20945
G1 X34.551 Y72.335 E14.21449
G1 X33.668 Y71.716 E14.26183
G1 X32.77 Y71.065 E14.31053
G1 X32.112 Y70.572 E14.34663
G1 X31.582 Y70.128 E14.37698
G1 X31.179 Y69.698 E14.40286
G1 X30.95 Y69.353 E14.42104
G1 X30.5 Y68.536 E14.46199
G1 X30.009 Y67.613 E14.50788
G1 X27.983 Y64.11 E14.68555
G1 X27.38 Y63.116 E14.73659
G1 X27.152 Y62.637 E14.75988
G1 X27.011 Y62.118 E14.78349
G1 X26.965 Y61.603 E14.80619
G1 X27.01 Y61.088 E14.82889
G1 X27.274 Y59.715 E14.89027
G1 X27.761 Y56.973 E15.01254
G1 X28.169 Y54.217 E15.13486
G1 X28.382 Y52.463 E15.21243
G1 X28.458 Y51.966 E15.2345
G1 X28.634 Y51.412 E15.26002
G1 X28.941 Y50.86 E15.28775
G1 X29.187 Y50.57 E15.30445
G0 F810 X29.294 Y50.445
G0 X29.68 Y50.127
G0 F900 X31.996 Y53.475
G1 X32.646 Y53.096 E15.33748
G1 X35.817 Y54.19 E15.48475
G1 X35.863 Y55.431 E15.53927
G1 X35.906 Y55.549 E15.54479
G1 X36.011 Y55.617 E15.55028
G1 X36.187 Y55.581 E15.55817
G1 X36.634 Y55.228 E15.58317
G1 X36.119 Y55.857 E15.61886
G1 X36.074 Y55.974 E15.62437
G1 X36.096 Y56.075 E15.62891
G1 X36.638 Y57.142 E15.68145
G1 X36.002 Y57.74 E15.71978
G1 X35.942 Y57.85 E15.72528
G1 X35.959 Y57.974 E15.73077
G1 X36.046 Y58.063 E15.73624
G1 X36.177 Y58.082 E15.74205
G1 X36.999 Y57.923 E15.7788
G1 X36.649 Y58.594 E15.81203
G1 X36.65 Y58.783 E15.82033
G1 X36.805 Y59.068 E15.83457
G1 X36.55 Y59.027 E15.84591
G1 X36.426 Y59.046 E15.85142
G1 X36.331 Y59.153 E15.8577
G1 X35.546 Y61.22 E15.95477
G1 X33.433 Y62.547 E16.06432
G1 X31.266 Y61.272 E16.1747
G1 X30.97 Y60.092 E16.22811
G1 X31.484 Y58.793 E16.28945
G1 X32.656 Y57.542 E16.36471
G1 X32.709 Y57.384 E16.37202
G1 X32.613 Y56.481 E16.41189
G1 X32.88 Y56.078 E16.43311
G1 X32.913 Y55.957 E16.43862
G1 X32.881 Y55.858 E16.44319
G1 X31.922 Y54.381 E16.5205
G1 X31.942 Y54.137 E16.53125
G0 F810 X31.996 Y53.475
G0 F900 X32.378 Y53.714
G1 X32.688 Y53.534 E16.54699
G1 X35.427 Y54.479 E16.6742
G1 X35.463 Y55.446 E16.71668
G1 X35.511 Y55.659 E16.72627
G1 X35.692 Y55.884 E16.73895
G1 X35.675 Y56.011 E16.74457
G1 X35.739 Y56.256 E16.75569
G1 X36.145 Y57.056 E16.79507
G1 X35.728 Y57.449 E16.82023
G1 X35.599 Y57.625 E16.82981
G1 X35.541 Y57.835 E16.83938
G1 X35.559 Y58.016 E16.84736
G1 X35.436 Y58.088 E16.85362
G1 X35.299 Y58.258 E16.86321
G1 X35.23 Y58.618 E16.8793
G1 X35.278 Y58.831 E16.88888
G1 X35.399 Y59.012 E16.89844
G1 X35.577 Y59.139 E16.90804
G1 X35.788 Y59.194 E16.91762
G1 X35.892 Y59.182 E16.92221
G1 X35.22 Y60.952 E17.00533
G1 X33.426 Y62.078 E17.09832
G1 X31.613 Y61.012 E17.19066
G1 X31.389 Y60.12 E17.23104
G1 X31.828 Y59.01 E17.28344
G1 X32.948 Y57.815 E17.35535
G1 X33.066 Y57.631 E17.36495
G1 X33.107 Y57.341 E17.37781
G1 X33.026 Y56.581 E17.41136
G1 X33.299 Y56.098 E17.43572
G1 X33.307 Y55.88 E17.4453
G1 X33.216 Y55.64 E17.45657
G1 X32.385 Y54.362 E17.52349
G0 F810 X32.332 Y54.279
G0 X32.378 Y53.714
G0 F900 X32.758 Y53.981
G1 X35.038 Y54.768 E17.62939
G1 X35.064 Y55.461 E17.65983
G1 X35.114 Y55.739 E17.67223
G1 X35.285 Y56.041 E17.68747
G1 X35.382 Y56.437 E17.70537
G1 X35.653 Y56.971 E17.73166
G1 X35.278 Y57.378 E17.75596
G1 X35.17 Y57.639 E17.76836
G1 X35.151 Y57.818 E17.77626
G1 X35.015 Y57.959 E17.78486
G1 X34.885 Y58.21 E17.79727
G1 X34.831 Y58.633 E17.816
G1 X34.881 Y58.91 E17.82835
G1 X35.007 Y59.163 E17.84076
G1 X35.198 Y59.37 E17.85313
G1 X35.357 Y59.466 E17.86128
G1 X34.894 Y60.684 E17.91849
G1 X33.419 Y61.61 E17.99495
G1 X31.96 Y60.751 E18.06928
G1 X31.808 Y60.147 E18.09663
G1 X32.172 Y59.23 E18.13994
G1 X33.24 Y58.089 E18.20856
G1 X33.402 Y57.858 E18.22094
G1 X33.493 Y57.59 E18.23337
G1 X33.504 Y57.299 E18.24616
G1 X33.438 Y56.683 E18.27335
G1 X33.668 Y56.265 E18.2943
G1 X33.713 Y55.986 E18.30671
G1 X33.678 Y55.706 E18.3191
G1 X33.552 Y55.422 E18.33274
G1 X32.998 Y54.57 E18.37736
G0 F810 X32.742 Y54.175
G0 X32.758 Y53.981
G0 F900 X33.543 Y54.675
G1 X34.648 Y55.056 E18.42867
G1 X34.716 Y55.806 E18.46173
G1 X34.925 Y56.359 E18.48769
G1 X35.163 Y56.887 E18.51312
G1 X34.965 Y57.123 E18.52664
G1 X34.818 Y57.422 E18.54127
G1 X34.771 Y57.636 E18.55089
G1 X34.542 Y57.988 E18.56932
G1 X34.448 Y58.308 E18.58397
G1 X34.431 Y58.648 E18.59891
G1 X34.483 Y58.978 E18.61358
G1 X34.612 Y59.286 E18.62824
G1 X34.875 Y59.608 E18.64649
G1 X34.568 Y60.417 E18.68448
G1 X33.413 Y61.142 E18.74435
G1 X32.307 Y60.491 E18.8007
G1 X32.228 Y60.174 E18.81504
G1 X32.516 Y59.447 E18.84937
G1 X33.532 Y58.362 E18.91463
G1 X33.729 Y58.093 E18.92927
G1 X33.858 Y57.784 E18.94397
G1 X33.902 Y57.257 E18.96719
G1 X33.852 Y56.784 E18.98807
G1 X34.03 Y56.442 E19.005
G1 X34.105 Y56.117 E19.01964
G1 X34.101 Y55.783 E19.0343
G1 X34.018 Y55.459 E19.04899
G1 X33.902 Y55.234 E19.0601
G0 F810 X33.887 Y55.204
G0 X33.543 Y54.675
G0 F900 X34.484 Y56.277
G1 X34.669 Y56.799 E19.08442
G1 X34.401 Y57.451 E19.11537
G1 X34.297 Y57.614 E19.12385
G1 X34.263 Y56.866 E19.15673
G1 X34.388 Y56.626 E19.16861
G1 X34.44 Y56.439 E19.17713
G0 F810 X34.484 Y56.277
G0 F900 X34.054 Y58.33
G1 X34.031 Y58.663 E19.19178
G1 X34.085 Y59.038 E19.20842
G1 X34.217 Y59.393 E19.22505
G1 X34.412 Y59.7 E19.24101
G1 X34.241 Y60.149 E19.26211
G1 X33.405 Y60.674 E19.30545
G1 X32.655 Y60.232 E19.34367
G1 X32.647 Y60.203 E19.34499
G1 X32.86 Y59.665 E19.37039
G1 X33.79 Y58.672 E19.43012
G0 F810 X33.824 Y58.636
G0 X34.054 Y58.33
G0 F900 X33.755 Y59.295
G1 X33.966 Y59.747 E19.45202
G1 X33.914 Y59.883 E19.45842
G1 X33.4 Y60.206 E19.48507
G1 X33.136 Y60.051 E19.49851
G1 X33.202 Y59.884 E19.50639
G1 X33.652 Y59.405 E19.53525
G0 F810 X33.755 Y59.295
G0 F900 X37.59 Y61.548
G1 X40.208 Y61.548 E19.65019
G1 X42.332 Y63.09 E19.76542
G1 X43.144 Y65.584 E19.88057
G1 X42.332 Y68.078 E19.99572
G1 X40.208 Y69.62 E20.11096
G1 X37.59 Y69.62 E20.2259
G1 X35.466 Y68.078 E20.34113
G1 X34.654 Y65.584 E20.45628
G1 X35.466 Y63.09 E20.57144
G1 X37.052 Y61.938 E20.6575
G0 F810 X37.59 Y61.548
G0 F900 X37.719 Y61.948
G1 X40.079 Y61.948 E20.76111
G1 X41.991 Y63.336 E20.86484
G1 X42.722 Y65.584 E20.96862
G1 X41.991 Y67.832 E21.0724
G1 X40.079 Y69.22 E21.17613
G1 X37.719 Y69.22 E21.27974
G1 X35.807 Y67.832 E21.38347
G1 X35.076 Y65.584 E21.48726
G1 X35.807 Y63.336 E21.59104
G1 X37.181 Y62.338 E21.66559
G0 F810 X37.719 Y61.948
G0 F900 X37.849 Y62.348
G1 X39.949 Y62.348 E21.75779
G1 X41.652 Y63.585 E21.8502
G1 X42.302 Y65.584 E21.94249
G1 X41.652 Y67.583 E22.03477
G1 X39.949 Y68.82 E22.12718
G1 X37.849 Y68.82 E22.21938
G1 X36.146 Y67.583 E22.31179
G1 X35.496 Y65.584 E22.40407
G1 X36.146 Y63.585 E22.49636
G1 X37.311 Y62.738 E22.5596
G0 F810 X37.849 Y62.348
G0 F900 X37.979 Y62.748
G1 X39.819 Y62.748 E22.64038
G1 X41.312 Y63.833 E22.72141
G1 X41.882 Y65.584 E22.80225
G1 X41.312 Y67.335 E22.8831
G1 X39.819 Y68.42 E22.96413
G1 X37.979 Y68.42 E23.04491
G1 X36.486 Y67.335 E23.12594
G1 X35.916 Y65.584 E23.20678
G1 X36.486 Y63.833 E23.28763
G1 X37.441 Y63.139 E23.33946
G0 F810 X37.979 Y62.748
G0 F900 X38.108 Y63.148
G1 X39.69 Y63.148 E23.40891
G1 X40.971 Y64.078 E23.47841
G1 X41.461 Y65.584 E23.54794
G1 X40.971 Y67.09 E23.61747
G1 X39.69 Y68.02 E23.68697
G1 X38.108 Y68.02 E23.75643
G1 X36.827 Y67.09 E23.82593
G1 X36.337 Y65.584 E23.89546
G1 X36.827 Y64.078 E23.96499
G1 X37.57 Y63.538 E24.00531
G0 F810 X38.108 Y63.148
G0 F900 X38.239 Y63.548
G1 X39.559 Y63.548 E24.06326
G1 X40.631 Y64.326 E24.12142
G1 X41.04 Y65.584 E24.17949
G1 X40.631 Y66.842 E24.23757
G1 X39.559 Y67.62 E24.29572
G1 X38.239 Y67.62 E24.35367
G1 X37.167 Y66.842 E24.41183
G1 X36.758 Y65.584 E24.4699
G1 X37.167 Y64.326 E24.52798
G1 X37.701 Y63.938 E24.55696
G0 F810 X38.239 Y63.548
G0 F900 X38.369 Y63.948
G1 X39.429 Y63.948 E24.6035
G1 X40.291 Y64.574 E24.65027
G1 X40.62 Y65.584 E24.6969
G1 X40.291 Y66.594 E24.74354
G1 X39.429 Y67.22 E24.79031
G1 X38.369 Y67.22 E24.83685
G1 X37.507 Y66.594 E24.88362
G1 X37.178 Y65.584 E24.93025
G1 X37.507 Y64.574 E24.97689
G1 X37.831 Y64.338 E24.99449
G0 F810 X38.369 Y63.948
G0 F900 X38.498 Y64.348
G1 X39.3 Y64.348 E25.0297
G1 X39.95 Y64.82 E25.06497
G1 X40.199 Y65.584 E25.10025
G1 X39.95 Y66.348 E25.13552
G1 X39.3 Y66.82 E25.17079
G1 X38.498 Y66.82 E25.206
G1 X37.848 Y66.348 E25.24127
G1 X37.599 Y65.584 E25.27655
G1 X37.848 Y64.82 E25.31183
G1 X38.067 Y64.661 E25.32371
G0 F810 X38.498 Y64.348
G0 F900 X38.628 Y64.748
G1 X39.17 Y64.748 E25.3475
G1 X39.611 Y65.068 E25.37143
G1 X39.779 Y65.584 E25.39525
G1 X39.611 Y66.1 E25.41907
G1 X39.17 Y66.42 E25.443
G1 X38.628 Y66.42 E25.46679
G1 X38.187 Y66.1 E25.49071
G1 X38.019 Y65.584 E25.51454
G1 X38.187 Y65.068 E25.53836
G1 X38.336 Y64.96 E25.54644
G0 F810 X38.628 Y64.748
G0 F900 X38.759 Y65.148
G1 X39.039 Y65.148 E25.55873
G1 X39.271 Y65.316 E25.57131
G1 X39.358 Y65.584 E25.58368
G1 X39.271 Y65.852 E25.59605
G1 X39.039 Y66.02 E25.60863
