;FLAVOR:Marlin
;TIME:2616
;Filament used: 2.04008m
;Layer height: 0.12
;MINX:43.855
;MINY:43.851
;MINZ:0.24
;MAXX:76.15
;MAXY:76.153
;MAXZ:55.44
;Generated with Cura_SteamEngine 4.8.0
M104 S210
M105
M109 S210
M82 ;absolute extrusion mode
;Sliced at: Tue 16-02-2021 22:02:48
G21 ;metric values
G90 ;absolute positioning
M82 ;set extruder to absolute mode
M107 ;start with the fan off
G1 Z5.0 F1800 ;move Z to 5mm
G28 X0 Y0 F1800 ;move X/Y to min endstops
G28 Z0 ;move Z to min endstop
G92 E0 ;zero the extruded length
G1 F200 E6.0 ;extrude 6.0mm of feed stock to build pressure
G1 Z5.0 F300 ;move the platform down 5mm
G92 E0 ;zero the extruded length again
G1 F1800
;Put printing message on LCD screen
M117 Printing...
G92 E0
G92 E0
G1 F1500 E-1
;LAYER_COUNT:232
;LAYER:0
M107
G0 F1125 X48.481 Y48.673 Z0.24
;TYPE:SKIRT
G1 F3600 E0.71493
G1 F1200 X48.881 Y48.28 E0.7353
G1 X49.183 Y48.001 E0.75024
G1 X49.615 Y47.625 E0.77105
G1 X50.03 Y47.287 E0.7905
G1 X50.716 Y46.781 E0.82147
G1 X51.185 Y46.46 E0.84212
G1 X51.737 Y46.114 E0.86579
G1 X52.236 Y45.844 E0.88641
G1 X52.955 Y45.498 E0.9154
G1 X53.139 Y45.414 E0.92275
G1 X54.361 Y44.878 E0.97123
G1 X55.143 Y44.587 E1.00155
G1 X55.631 Y44.44 E1.02007
G1 X56.521 Y44.217 E1.05341
G1 X57.051 Y44.115 E1.07302
G1 X57.549 Y44.04 E1.09132
G1 X58.497 Y43.949 E1.12592
G1 X59.58 Y43.868 E1.16538
G1 X59.77 Y43.86 E1.17229
G1 X60.41 Y43.851 E1.19555
G1 X60.936 Y43.87 E1.21467
G1 X62.102 Y43.977 E1.25722
G1 X62.227 Y43.993 E1.2618
G1 X62.789 Y44.081 E1.28247
G1 X63.659 Y44.259 E1.31473
G1 X64.209 Y44.397 E1.33534
G1 X65.02 Y44.645 E1.36615
G1 X65.825 Y44.93 E1.39718
G1 X66.093 Y45.038 E1.40768
G1 X66.916 Y45.402 E1.44038
G1 X67.686 Y45.787 E1.47166
G1 X67.971 Y45.946 E1.48351
G1 X68.584 Y46.313 E1.50947
G1 X69.089 Y46.636 E1.53126
G1 X69.572 Y46.978 E1.55276
G1 X69.638 Y47.027 E1.55575
G1 X70.089 Y47.378 E1.57651
G1 X70.24 Y47.504 E1.58366
G1 X70.938 Y48.122 E1.61753
G1 X71.421 Y48.61 E1.64248
G1 X71.771 Y48.984 E1.66109
G1 X72.301 Y49.564 E1.68964
G1 X72.708 Y50.029 E1.71209
G1 X72.812 Y50.159 E1.71814
G1 X73.23 Y50.727 E1.74377
G1 X73.393 Y50.965 E1.75425
G1 X73.775 Y51.562 E1.78
G1 X74.136 Y52.178 E1.80594
G1 X74.383 Y52.666 E1.82582
G1 X74.594 Y53.128 E1.84427
G1 X74.944 Y53.951 E1.87677
G1 X74.972 Y54.019 E1.87944
G1 X75.334 Y54.97 E1.91641
G1 X75.558 Y55.654 E1.94256
G1 X75.72 Y56.246 E1.96486
G1 X75.744 Y56.356 E1.96896
G1 X75.942 Y57.382 E2.00692
G1 X76.021 Y57.918 E2.02661
G1 X76.084 Y58.494 E2.04766
G1 X76.092 Y58.593 E2.05127
G1 X76.139 Y59.443 E2.0822
G1 X76.15 Y60.104 E2.10622
G1 X76.141 Y60.625 E2.12516
G1 X76.104 Y61.197 E2.14598
G1 X76.017 Y62.059 E2.17746
G1 X75.892 Y62.891 E2.20803
G1 X75.839 Y63.161 E2.21803
G1 X75.655 Y63.968 E2.24811
G1 X75.436 Y64.764 E2.2781
G1 X75.361 Y64.995 E2.28693
G1 X75.056 Y65.845 E2.31974
G1 X74.852 Y66.353 E2.33963
G1 X74.679 Y66.715 E2.35421
G1 X74.101 Y67.798 E2.39882
G1 X73.938 Y68.091 E2.411
G1 X73.58 Y68.703 E2.43676
G1 X73.526 Y68.791 E2.44051
G1 X73.117 Y69.414 E2.46759
G1 X73.044 Y69.518 E2.47221
G1 X72.665 Y70.02 E2.49506
G1 X72.278 Y70.495 E2.51732
G1 X71.868 Y70.955 E2.53971
G1 X71.486 Y71.338 E2.55937
G1 X70.362 Y72.339 E2.61406
G1 X70.213 Y72.466 E2.62117
G1 X69.535 Y73.011 E2.65278
G1 X69.355 Y73.146 E2.66095
G1 X68.718 Y73.597 E2.68931
G1 X68.284 Y73.868 E2.7079
G1 X67.384 Y74.365 E2.74526
G1 X66.911 Y74.597 E2.7644
G1 X66.257 Y74.889 E2.79043
G1 X65.75 Y75.09 E2.81024
G1 X64.902 Y75.383 E2.84284
G1 X64.117 Y75.616 E2.8726
G1 X63.84 Y75.684 E2.88296
G1 X63.02 Y75.86 E2.91343
G1 X62.518 Y75.951 E2.93197
G1 X62.417 Y75.966 E2.93568
G1 X61.762 Y76.05 E2.95968
G1 X61.05 Y76.113 E2.98565
G1 X60.466 Y76.147 E3.0069
G1 X59.98 Y76.153 E3.02456
G1 X59.147 Y76.126 E3.05485
G1 X58.515 Y76.082 E3.07787
G1 X58.002 Y76.014 E3.09667
G1 X57.364 Y75.901 E3.12021
G1 X56.623 Y75.756 E3.14765
G1 X56.108 Y75.644 E3.1668
G1 X55.364 Y75.457 E3.19467
G1 X55.149 Y75.395 E3.2028
G1 X54.457 Y75.172 E3.22922
G1 X54.022 Y75.008 E3.24611
G1 X53.512 Y74.795 E3.26619
G1 X52.677 Y74.383 E3.30002
G1 X52.453 Y74.259 E3.30933
G1 X51.834 Y73.894 E3.33544
G1 X51.145 Y73.471 E3.36481
G1 X50.508 Y73.05 E3.39256
G1 X50.035 Y72.708 E3.41376
G1 X49.929 Y72.625 E3.41866
G1 X49.451 Y72.225 E3.4413
G1 X48.819 Y71.655 E3.47223
G1 X48.417 Y71.256 E3.49281
G1 X47.944 Y70.751 E3.51795
G1 X47.879 Y70.678 E3.5215
G1 X47.532 Y70.269 E3.54099
G1 X47.145 Y69.776 E3.56376
G1 X46.801 Y69.308 E3.58487
G1 X46.743 Y69.225 E3.58855
G1 X46.356 Y68.634 E3.61421
G1 X45.972 Y67.999 E3.64118
G1 X45.697 Y67.503 E3.66178
G1 X45.385 Y66.867 E3.68752
G1 X45.104 Y66.238 E3.71256
G1 X44.905 Y65.755 E3.73154
G1 X44.733 Y65.281 E3.74986
G1 X44.491 Y64.506 E3.77936
G1 X44.354 Y64.014 E3.79792
G1 X44.18 Y63.221 E3.82741
G1 X44.127 Y62.899 E3.83927
G1 X43.988 Y61.765 E3.88078
G1 X43.933 Y61.236 E3.90011
G1 X43.865 Y60.332 E3.93305
G1 X43.859 Y60.195 E3.93803
G1 X43.855 Y59.383 E3.96754
G1 X43.876 Y58.947 E3.9834
G1 X43.921 Y58.415 E4.0028
G1 X43.974 Y57.999 E4.01803
G1 X44.082 Y57.33 E4.04266
G1 X44.102 Y57.231 E4.04633
G1 X44.283 Y56.426 E4.07631
G1 X44.471 Y55.661 E4.10493
G1 X44.616 Y55.133 E4.12482
G1 X44.852 Y54.391 E4.15312
G1 X45.096 Y53.749 E4.17807
G1 X45.205 Y53.498 E4.18801
G1 X45.519 Y52.825 E4.215
G1 X45.562 Y52.738 E4.21852
G1 X45.869 Y52.157 E4.2424
G1 X46.007 Y51.917 E4.25246
G1 X46.473 Y51.181 E4.28411
G1 X47.022 Y50.386 E4.31922
G1 X47.316 Y49.994 E4.33702
G1 X47.767 Y49.455 E4.36256
G1 X48.03 Y49.162 E4.37686
G0 F1080 X48.279 Y48.884
G0 X48.481 Y48.673
G0 F1125 X48.762 Y48.959
G1 F1200 X49.196 Y48.533 E4.39896
G1 X49.447 Y48.302 E4.41135
G1 X49.868 Y47.934 E4.43167
G1 X50.267 Y47.609 E4.45037
G1 X50.953 Y47.103 E4.48134
G1 X51.45 Y46.764 E4.5032
G1 X51.942 Y46.457 E4.52427
G1 X52.415 Y46.202 E4.5438
G1 X53.124 Y45.86 E4.5724
G1 X53.299 Y45.781 E4.57938
G1 X54.521 Y45.245 E4.62786
G1 X55.276 Y44.964 E4.65713
G1 X55.787 Y44.811 E4.67651
G1 X56.614 Y44.606 E4.70747
G1 X57.114 Y44.51 E4.72597
G1 X57.588 Y44.439 E4.74339
G1 X58.526 Y44.347 E4.77763
G1 X59.598 Y44.268 E4.81669
G1 X59.776 Y44.26 E4.82316
G1 X60.406 Y44.251 E4.84606
G1 X60.899 Y44.269 E4.86398
G1 X62.065 Y44.376 E4.90653
G1 X62.165 Y44.388 E4.91019
G1 X62.715 Y44.474 E4.93041
G1 X63.574 Y44.65 E4.96227
G1 X64.092 Y44.779 E4.98167
G1 X64.892 Y45.024 E5.01207
G1 X65.686 Y45.305 E5.04267
G1 X65.932 Y45.404 E5.05231
G1 X66.743 Y45.763 E5.08454
G1 X67.502 Y46.143 E5.11538
G1 X67.767 Y46.29 E5.12639
G1 X68.368 Y46.65 E5.15184
G1 X68.864 Y46.967 E5.17323
G1 X69.34 Y47.304 E5.19442
G1 X69.804 Y47.663 E5.21574
G1 X69.975 Y47.803 E5.22377
G1 X70.664 Y48.413 E5.25721
G1 X71.13 Y48.885 E5.28131
G1 X71.476 Y49.254 E5.29969
G1 X72 Y49.827 E5.3279
G1 X72.407 Y50.292 E5.35035
G1 X72.49 Y50.396 E5.35519
G1 X72.901 Y50.954 E5.38037
G1 X73.056 Y51.181 E5.39036
G1 X73.432 Y51.768 E5.41569
G1 X73.787 Y52.374 E5.4412
G1 X74.022 Y52.836 E5.46004
G1 X74.256 Y53.353 E5.48066
G1 X74.598 Y54.161 E5.51254
G1 X74.956 Y55.102 E5.54912
G1 X75.177 Y55.775 E5.57486
G1 X75.332 Y56.344 E5.59629
G1 X75.352 Y56.433 E5.5996
G1 X75.548 Y57.447 E5.63713
G1 X75.625 Y57.972 E5.65641
G1 X75.686 Y58.536 E5.67702
G1 X75.736 Y59.389 E5.70807
G1 X75.739 Y59.451 E5.71032
G1 X75.75 Y60.099 E5.73387
G1 X75.742 Y60.6 E5.75208
G1 X75.706 Y61.157 E5.77236
G1 X75.613 Y62.07 E5.8057
G1 X75.498 Y62.826 E5.83349
G1 X75.449 Y63.072 E5.8426
G1 X75.268 Y63.868 E5.87226
G1 X75.052 Y64.652 E5.90181
G1 X74.985 Y64.861 E5.90979
G1 X74.684 Y65.699 E5.94214
G1 X74.484 Y66.197 E5.96164
G1 X74.326 Y66.527 E5.97493
G1 X73.757 Y67.595 E6.0189
G1 X73.593 Y67.889 E6.03113
G1 X73.235 Y68.501 E6.0569
G1 X73.192 Y68.571 E6.05988
G1 X72.783 Y69.194 E6.08696
G1 X72.724 Y69.277 E6.09066
G1 X72.353 Y69.77 E6.11308
G1 X71.972 Y70.237 E6.13498
G1 X71.57 Y70.689 E6.15696
G1 X71.208 Y71.05 E6.17553
G1 X70.103 Y72.035 E6.22932
G1 X69.962 Y72.154 E6.23602
G1 X69.294 Y72.692 E6.26719
G1 X69.123 Y72.82 E6.27495
G1 X68.497 Y73.264 E6.30284
G1 X68.091 Y73.518 E6.32024
G1 X67.203 Y74.008 E6.35709
G1 X66.737 Y74.237 E6.37595
G1 X66.104 Y74.519 E6.40113
G1 X65.619 Y74.712 E6.4201
G1 X64.782 Y75.001 E6.45227
G1 X64.009 Y75.231 E6.48158
G1 X63.756 Y75.293 E6.49104
G1 X62.948 Y75.466 E6.52107
G1 X62.366 Y75.57 E6.54255
G1 X61.786 Y75.645 E6.5638
G1 X61.026 Y75.714 E6.59153
G1 X60.459 Y75.747 E6.61216
G1 X59.992 Y75.753 E6.62913
G1 X59.171 Y75.727 E6.65898
G1 X58.55 Y75.684 E6.6816
G1 X57.807 Y75.577 E6.70887
G1 X57.348 Y75.49 E6.72585
G1 X56.707 Y75.365 E6.74958
G1 X56.206 Y75.256 E6.76821
G1 X55.412 Y75.055 E6.79797
G1 X55.271 Y75.014 E6.8033
G1 X54.589 Y74.794 E6.82934
G1 X54.176 Y74.638 E6.84538
G1 X53.595 Y74.394 E6.86828
G1 X52.859 Y74.027 E6.89816
G1 X52.656 Y73.914 E6.9066
G1 X52.042 Y73.552 E6.9325
G1 X51.356 Y73.131 E6.96175
G1 X50.734 Y72.72 E6.98884
G1 X50.27 Y72.384 E7.00965
G1 X50.185 Y72.318 E7.01356
G1 X49.718 Y71.928 E7.03567
G1 X49.096 Y71.367 E7.0661
G1 X48.703 Y70.975 E7.08627
G1 X48.236 Y70.478 E7.11105
G1 X47.837 Y70.01 E7.1334
G1 X47.46 Y69.53 E7.15558
G1 X47.123 Y69.072 E7.17624
G1 X47.077 Y69.005 E7.17919
G1 X46.729 Y68.476 E7.2022
G1 X46.321 Y67.803 E7.23079
G1 X46.055 Y67.326 E7.25064
G1 X45.75 Y66.704 E7.27581
G1 X45.474 Y66.086 E7.3004
G1 X45.247 Y65.531 E7.32219
G1 X45.089 Y65.083 E7.33945
G1 X44.859 Y64.34 E7.36771
G1 X44.676 Y63.653 E7.39354
G1 X44.573 Y63.142 E7.41248
G1 X44.524 Y62.849 E7.42328
G1 X44.386 Y61.722 E7.46453
G1 X44.332 Y61.206 E7.48338
G1 X44.264 Y60.302 E7.51632
G1 X44.259 Y60.193 E7.52029
G1 X44.255 Y59.393 E7.54936
G1 X44.275 Y58.981 E7.56434
G1 X44.327 Y58.381 E7.58623
G1 X44.368 Y58.063 E7.59788
G1 X44.476 Y57.398 E7.62236
G1 X44.492 Y57.319 E7.62529
G1 X44.672 Y56.521 E7.65501
G1 X44.857 Y55.766 E7.68325
G1 X44.998 Y55.249 E7.70273
G1 X45.231 Y54.517 E7.73064
G1 X45.467 Y53.898 E7.75471
G1 X45.567 Y53.668 E7.76382
G1 X45.881 Y52.995 E7.79081
G1 X45.916 Y52.925 E7.79365
G1 X46.218 Y52.353 E7.81715
G1 X46.345 Y52.131 E7.82644
G1 X46.811 Y51.395 E7.8581
G1 X47.351 Y50.614 E7.8926
G1 X47.624 Y50.25 E7.90913
G1 X48.065 Y49.722 E7.93413
G1 X48.311 Y49.448 E7.94751
G0 F1080 X48.569 Y49.16
G0 X48.762 Y48.959
G0 F1125 X49.042 Y49.244
G1 F1200 X49.468 Y48.827 E7.96917
G1 X49.71 Y48.603 E7.98115
G1 X50.122 Y48.243 E8.00103
G1 X50.505 Y47.931 E8.01898
G1 X51.227 Y47.399 E8.05156
G1 X51.665 Y47.102 E8.07079
G1 X52.147 Y46.801 E8.09144
G1 X52.595 Y46.559 E8.10994
G1 X53.293 Y46.223 E8.13809
G1 X53.46 Y46.147 E8.14475
G1 X54.722 Y45.594 E8.19482
G1 X55.409 Y45.342 E8.22141
G1 X55.891 Y45.198 E8.23969
G1 X56.706 Y44.995 E8.2702
G1 X57.522 Y44.85 E8.30032
G1 X57.627 Y44.837 E8.30416
G1 X58.556 Y44.746 E8.33808
G1 X59.617 Y44.667 E8.37674
G1 X59.783 Y44.66 E8.38277
G1 X60.401 Y44.651 E8.40523
G1 X60.863 Y44.667 E8.42203
G1 X62.029 Y44.774 E8.46457
G1 X62.104 Y44.783 E8.46732
G1 X62.641 Y44.868 E8.48707
G1 X63.489 Y45.041 E8.51852
G1 X63.976 Y45.162 E8.53675
G1 X64.763 Y45.403 E8.56666
G1 X65.547 Y45.68 E8.59687
G1 X65.77 Y45.77 E8.60561
G1 X66.57 Y46.124 E8.63739
G1 X67.318 Y46.498 E8.66778
G1 X67.562 Y46.633 E8.67791
G1 X68.153 Y46.987 E8.70295
G1 X68.639 Y47.298 E8.72391
G1 X69.108 Y47.63 E8.74479
G1 X69.559 Y47.979 E8.76551
G1 X69.71 Y48.103 E8.77261
G1 X70.389 Y48.703 E8.80553
G1 X70.84 Y49.16 E8.82886
G1 X71.181 Y49.525 E8.84701
G1 X71.699 Y50.091 E8.87489
G1 X72.106 Y50.556 E8.89734
G1 X72.169 Y50.634 E8.90099
G1 X72.571 Y51.18 E8.92562
G1 X72.719 Y51.396 E8.93514
G1 X73.088 Y51.973 E8.96002
G1 X73.438 Y52.57 E8.98517
G1 X73.757 Y53.213 E9.01125
G1 X73.899 Y53.535 E9.02404
G1 X74.224 Y54.304 E9.05437
G1 X74.578 Y55.233 E9.09049
G1 X74.795 Y55.895 E9.11581
G1 X74.944 Y56.442 E9.13641
G1 X74.959 Y56.509 E9.1389
G1 X75.153 Y57.512 E9.17602
G1 X75.228 Y58.025 E9.19486
G1 X75.288 Y58.579 E9.2151
G1 X75.293 Y58.639 E9.21729
G1 X75.339 Y59.458 E9.2471
G1 X75.35 Y60.094 E9.27021
G1 X75.312 Y61.071 E9.30574
G1 X75.221 Y61.979 E9.33889
G1 X75.103 Y62.76 E9.36759
G1 X75.059 Y62.984 E9.37589
G1 X74.881 Y63.768 E9.4051
G1 X74.668 Y64.54 E9.4342
G1 X74.608 Y64.726 E9.4413
G1 X74.312 Y65.552 E9.47318
G1 X74.115 Y66.04 E9.4923
G1 X73.973 Y66.339 E9.50433
G1 X73.411 Y67.394 E9.54776
G1 X73.248 Y67.687 E9.55995
G1 X72.89 Y68.299 E9.58571
G1 X72.448 Y68.975 E9.61506
G1 X72.404 Y69.037 E9.61782
G1 X72.04 Y69.52 E9.63979
G1 X71.667 Y69.978 E9.66126
G1 X71.271 Y70.423 E9.6829
G1 X70.896 Y70.795 E9.70209
G1 X69.843 Y71.73 E9.75326
G1 X69.71 Y71.843 E9.7596
G1 X69.053 Y72.372 E9.79025
G1 X68.892 Y72.494 E9.79759
G1 X68.306 Y72.91 E9.8237
G1 X67.897 Y73.168 E9.84127
G1 X67.023 Y73.651 E9.87755
G1 X66.564 Y73.876 E9.89613
G1 X65.951 Y74.15 E9.92053
G1 X65.488 Y74.334 E9.93863
G1 X64.663 Y74.619 E9.97034
G1 X63.901 Y74.845 E9.99922
G1 X63.671 Y74.902 E10.00783
G1 X62.877 Y75.073 E10.03734
G1 X62.375 Y75.164 E10.05588
G1 X61.735 Y75.248 E10.07934
G1 X61.002 Y75.315 E10.10608
G1 X60.452 Y75.347 E10.1261
G1 X60.005 Y75.353 E10.14234
G1 X59.196 Y75.328 E10.17175
G1 X58.585 Y75.285 E10.19401
G1 X57.871 Y75.183 E10.22021
G1 X56.815 Y74.979 E10.25929
G1 X56.303 Y74.868 E10.27833
G1 X55.522 Y74.671 E10.30759
G1 X55.394 Y74.633 E10.31245
G1 X54.722 Y74.417 E10.33809
G1 X54.331 Y74.269 E10.35328
G1 X53.767 Y74.032 E10.37551
G1 X53.041 Y73.67 E10.40499
G1 X52.859 Y73.57 E10.41253
G1 X52.25 Y73.211 E10.43822
G1 X51.566 Y72.791 E10.46739
G1 X50.959 Y72.389 E10.49384
G1 X50.504 Y72.06 E10.51424
G1 X50.441 Y72.011 E10.51714
G1 X49.986 Y71.631 E10.53868
G1 X49.373 Y71.078 E10.56868
G1 X48.988 Y70.695 E10.58841
G1 X48.528 Y70.204 E10.61286
G1 X48.142 Y69.751 E10.63448
G1 X48.111 Y69.714 E10.63624
G1 X47.753 Y69.254 E10.65741
G1 X47.411 Y68.786 E10.67848
G1 X47.063 Y68.257 E10.70148
G1 X46.669 Y67.607 E10.7291
G1 X46.414 Y67.15 E10.74812
G1 X46.115 Y66.54 E10.7728
G1 X45.843 Y65.933 E10.79697
G1 X45.644 Y65.45 E10.81595
G1 X45.471 Y64.965 E10.83466
G1 X45.245 Y64.233 E10.8625
G1 X45.065 Y63.558 E10.88788
G1 X44.965 Y63.064 E10.90619
G1 X44.921 Y62.8 E10.91592
G1 X44.784 Y61.679 E10.95695
G1 X44.73 Y61.176 E10.97533
G1 X44.662 Y60.272 E11.00827
G1 X44.659 Y60.19 E11.01125
G1 X44.654 Y59.404 E11.03981
G1 X44.673 Y59.015 E11.05397
G1 X44.718 Y58.483 E11.07337
G1 X44.763 Y58.127 E11.0864
G1 X44.87 Y57.466 E11.11073
G1 X45.049 Y56.664 E11.14059
G1 X45.243 Y55.871 E11.17025
G1 X45.381 Y55.366 E11.18928
G1 X45.611 Y54.642 E11.21688
G1 X45.839 Y54.046 E11.24006
G1 X45.93 Y53.837 E11.24835
G1 X46.269 Y53.111 E11.27746
G1 X46.566 Y52.549 E11.30056
G1 X46.683 Y52.345 E11.3091
G1 X47.149 Y51.609 E11.34075
G1 X47.704 Y50.808 E11.37616
G1 X47.931 Y50.506 E11.38989
G1 X48.363 Y49.988 E11.4144
G1 X48.591 Y49.733 E11.42683
G0 F1080 X48.859 Y49.435
G0 X49.042 Y49.244
G0 F1125 X49.322 Y49.529
G1 F1200 X49.739 Y49.12 E11.44805
G1 X49.973 Y48.904 E11.45962
G1 X50.376 Y48.552 E11.47906
G1 X50.742 Y48.253 E11.49623
G1 X51.453 Y47.73 E11.52831
G1 X51.881 Y47.439 E11.54711
G1 X52.352 Y47.144 E11.5673
G1 X53.045 Y46.781 E11.59573
G1 X53.611 Y46.518 E11.61841
G1 X54.869 Y45.966 E11.66832
G1 X55.542 Y45.719 E11.69437
G1 X56.29 Y45.505 E11.72264
G1 X56.798 Y45.384 E11.74162
G1 X57.585 Y45.245 E11.77065
G1 X57.665 Y45.235 E11.77358
G1 X58.586 Y45.145 E11.80721
G1 X59.636 Y45.067 E11.84546
G1 X59.789 Y45.06 E11.85103
G1 X60.397 Y45.051 E11.87312
G1 X60.826 Y45.065 E11.88872
G1 X61.992 Y45.172 E11.93126
G1 X62.567 Y45.261 E11.95241
G1 X63.403 Y45.431 E11.9834
G1 X63.859 Y45.545 E12.00048
G1 X64.635 Y45.781 E12.02995
G1 X65.408 Y46.055 E12.05975
G1 X65.609 Y46.136 E12.06763
G1 X66.398 Y46.485 E12.09897
G1 X67.134 Y46.853 E12.12887
G1 X67.357 Y46.977 E12.13814
G1 X67.938 Y47.324 E12.16273
G1 X68.414 Y47.628 E12.18326
G1 X68.902 Y47.975 E12.20501
G1 X69.329 Y48.308 E12.22469
G1 X69.445 Y48.403 E12.23014
G1 X70.114 Y48.994 E12.26257
G1 X70.55 Y49.436 E12.28513
G1 X70.886 Y49.795 E12.303
G1 X71.398 Y50.354 E12.33054
G1 X71.805 Y50.819 E12.35299
G1 X71.847 Y50.871 E12.35542
G1 X72.242 Y51.407 E12.37961
G1 X72.383 Y51.612 E12.38865
G1 X72.745 Y52.179 E12.4131
G1 X73.089 Y52.766 E12.43782
G1 X73.395 Y53.383 E12.46284
G1 X73.531 Y53.691 E12.47508
G1 X73.85 Y54.447 E12.50489
G1 X74.201 Y55.365 E12.5406
G1 X74.414 Y56.016 E12.56549
