;FLAVOR:Marlin
;TIME:515
;Filament used: 0.315385m
;Layer height: 0.24
;MINX:53
;MINY:46.226
;MINZ:0.3
;MAXX:67
;MAXY:72.125
;MAXZ:12.18
;Generated with Cura_SteamEngine 4.7.1
M104 S210
M105
M109 S210
M82 ;absolute extrusion mode
;Sliced at: Tue 13-07-2021 09:13:54
G21 ;metric values
G90 ;absolute positioning
M82 ;set extruder to absolute mode
M107 ;start with the fan off
G1 Z5.0 F1800 ;move Z to 5mm
G28 X0 Y0 F1800 ;move X/Y to min endstops
G28 Z0 ;move Z to min endstop
G92 E0 ;zero the extruded length
G1 F200 E6.0 ;extrude 6.0mm of feed stock to build pressure
G1 Z5.0 F300 ;move the platform down 5mm
G92 E0 ;zero the extruded length again
G1 F1800
;Put printing message on LCD screen
M117 Printing...
G92 E0
G92 E0
G1 F1500 E-5
;LAYER_COUNT:45
;LAYER:0
M107
G0 F1080 X54.004 Y49.244 Z0.3
;TYPE:SKIRT
G1 F1500 E0.72757
G1 F900 X54.406 Y48.847 E0.75857
G1 X54.86 Y48.51 E0.7896
G1 X55.357 Y48.241 E0.82061
G1 X55.887 Y48.044 E0.85164
G1 X56.44 Y47.925 E0.88269
G1 X57.218 Y47.877 E0.92546
G1 X57.33 Y47.875 E0.93161
G1 X62.35 Y47.875 E1.20711
G1 X63.048 Y47.885 E1.24542
G1 X63.612 Y47.933 E1.27648
G1 X64.162 Y48.06 E1.30746
G1 X64.69 Y48.264 E1.33852
G1 X65.184 Y48.539 E1.36955
G1 X65.633 Y48.882 E1.40056
G1 X66.03 Y49.284 E1.43156
G1 X66.367 Y49.739 E1.46264
G1 X66.635 Y50.236 E1.49362
G1 X66.831 Y50.766 E1.52464
G1 X66.951 Y51.319 E1.55569
G1 X66.998 Y52.093 E1.59824
G1 X67 Y52.205 E1.60439
G1 X67 Y67.439 E2.44042
G1 X66.991 Y68.166 E2.48032
G1 X66.944 Y68.729 E2.51133
G1 X66.818 Y69.28 E2.54235
G1 X66.616 Y69.808 E2.57337
G1 X66.341 Y70.302 E2.6044
G1 X65.999 Y70.752 E2.63542
G1 X65.597 Y71.15 E2.66646
G1 X65.144 Y71.487 E2.69745
G1 X64.647 Y71.757 E2.72849
G1 X64.117 Y71.954 E2.75952
G1 X63.565 Y72.075 E2.79053
G1 X62.782 Y72.123 E2.83358
G1 X62.67 Y72.125 E2.83973
G1 X57.655 Y72.125 E3.11495
G1 X56.957 Y72.116 E3.15326
G1 X56.394 Y72.068 E3.18426
G1 X55.843 Y71.942 E3.21528
G1 X55.315 Y71.74 E3.24631
G1 X54.821 Y71.465 E3.27734
G1 X54.371 Y71.123 E3.30835
G1 X53.973 Y70.721 E3.3394
G1 X53.637 Y70.267 E3.3704
G1 X53.367 Y69.77 E3.40144
G1 X53.17 Y69.24 E3.43247
G1 X53.05 Y68.688 E3.46347
G1 X53.001 Y67.891 E3.50729
G1 X53 Y52.495 E4.35221
G1 X53.009 Y51.83 E4.38871
G1 X53.057 Y51.267 E4.41972
G1 X53.183 Y50.716 E4.45073
G1 X53.386 Y50.188 E4.48178
G1 X53.662 Y49.694 E4.51283
G1 X53.682 Y49.667 E4.51468
G0 F810 X54.004 Y49.244
G0 F1080 X54.397 Y49.406
G1 F900 X54.794 Y49.046 E4.54409
G1 X55.241 Y48.748 E4.57357
G1 X55.726 Y48.52 E4.60298
G1 X56.24 Y48.367 E4.63241
G1 X56.908 Y48.285 E4.66935
G1 X57.33 Y48.275 E4.69251
G1 X62.345 Y48.275 E4.96773
G1 X63.043 Y48.285 E5.00604
G1 X63.577 Y48.333 E5.03547
G1 X64.098 Y48.459 E5.06488
G1 X64.595 Y48.662 E5.09434
G1 X65.056 Y48.936 E5.12377
G1 X65.471 Y49.275 E5.15318
G1 X65.831 Y49.673 E5.18263
G1 X66.128 Y50.119 E5.21204
G1 X66.356 Y50.605 E5.2415
G1 X66.508 Y51.119 E5.27092
G1 X66.59 Y51.784 E5.30769
G1 X66.6 Y52.205 E5.3308
G1 X66.6 Y67.434 E6.16655
G1 X66.591 Y68.161 E6.20645
G1 X66.544 Y68.695 E6.23587
G1 X66.419 Y69.216 E6.26528
G1 X66.217 Y69.713 E6.29472
G1 X65.944 Y70.175 E6.32417
G1 X65.606 Y70.591 E6.35358
G1 X65.209 Y70.952 E6.38303
G1 X64.763 Y71.25 E6.41247
G1 X64.278 Y71.478 E6.44188
G1 X63.764 Y71.632 E6.47133
G1 X63.092 Y71.715 E6.50848
G1 X62.67 Y71.725 E6.53165
G1 X57.661 Y71.725 E6.80654
G1 X56.963 Y71.716 E6.84485
G1 X56.428 Y71.669 E6.87432
G1 X55.907 Y71.543 E6.90374
G1 X55.41 Y71.341 E6.93318
G1 X54.949 Y71.068 E6.96258
G1 X54.533 Y70.729 E6.99203
G1 X54.172 Y70.333 E7.02144
G1 X53.874 Y69.887 E7.05088
G1 X53.646 Y69.401 E7.08034
G1 X53.493 Y68.887 E7.10977
G1 X53.41 Y68.213 E7.14704
G1 X53.4 Y67.783 E7.17064
G1 X53.4 Y52.5 E8.00936
G1 X53.409 Y51.835 E8.04586
G1 X53.457 Y51.301 E8.07528
G1 X53.583 Y50.78 E8.1047
G1 X53.785 Y50.283 E8.13414
G1 X54.058 Y49.822 E8.16354
G1 X54.061 Y49.818 E8.16382
G0 F810 X54.397 Y49.406
G0 F1080 X54.454 Y49.957
G1 F900 X54.789 Y49.579 E8.19154
G1 X55.18 Y49.258 E8.2193
G1 X55.617 Y49.003 E8.24707
G1 X56.088 Y48.819 E8.27482
G1 X56.582 Y48.713 E8.30254
G1 X57.24 Y48.676 E8.33871
G1 X62.339 Y48.675 E8.61854
G1 X63.037 Y48.685 E8.65685
G1 X63.54 Y48.732 E8.68457
G1 X64.03 Y48.858 E8.71234
G1 X64.494 Y49.06 E8.74011
G1 X64.92 Y49.332 E8.76785
G1 X65.298 Y49.667 E8.79557
G1 X65.618 Y50.058 E8.8233
G1 X65.873 Y50.495 E8.85106
G1 X66.056 Y50.966 E8.87879
G1 X66.163 Y51.46 E8.90653
G1 X66.199 Y52.115 E8.94253
G1 X66.2 Y67.429 E9.78295
G1 X66.191 Y68.156 E9.82285
G1 X66.145 Y68.659 E9.85057
G1 X66.02 Y69.149 E9.87832
G1 X65.819 Y69.613 E9.90608
G1 X65.548 Y70.04 E9.93383
G1 X65.213 Y70.419 E9.96159
G1 X64.823 Y70.74 E9.98931
G1 X64.387 Y70.996 E10.01706
G1 X63.916 Y71.179 E10.04479
G1 X63.422 Y71.287 E10.07254
G1 X62.76 Y71.324 E10.10892
G1 X57.666 Y71.325 E10.38848
G1 X56.968 Y71.316 E10.42679
G1 X56.464 Y71.269 E10.45457
G1 X55.974 Y71.144 E10.48232
G1 X55.51 Y70.943 E10.51007
G1 X55.084 Y70.672 E10.53778
G1 X54.705 Y70.337 E10.56554
G1 X54.384 Y69.946 E10.5933
G1 X54.129 Y69.51 E10.62102
G1 X53.945 Y69.039 E10.64877
G1 X53.838 Y68.545 E10.67651
G1 X53.801 Y67.869 E10.71366
G1 X53.8 Y52.506 E11.55677
G1 X53.809 Y51.841 E11.59327
G1 X53.856 Y51.337 E11.62105
G1 X53.982 Y50.848 E11.64876
G1 X54.173 Y50.408 E11.67509
G0 F810 X54.183 Y50.384
G0 X54.454 Y49.957
G1 F1500 E6.67509
;MESH:Bohrhilfe.stl
G0 F1080 X55.96 Y52.875
G0 X58 Y52.875
;TYPE:WALL-INNER
G1 F1500 E12.40265
G1 F900 X58.098 Y52.875 E12.40803
G1 X58.061 Y52.922
G1 X58 Y52.999 E12.40969
G1 X58 Y52.875 E12.41129
G0 F1080 X61.864 Y52.875
G1 F900 X62 Y52.875 E12.41875
G1 X62 Y53.001 E12.42567
G1 X61.938 Y52.943
G1 X61.864 Y52.875 E12.42581
G1 F1500 E7.42581
G0 F1080 X60.489 Y54.382
G0 X59.528 Y55.392
G0 X58 Y56.745
G1 F1500 E13.15338
G1 F900 X58.079 Y56.841 E13.1602
G1 X58.167 Y56.93 E13.16707
G1 X58.349 Y57.057 E13.17925
G1 X58.749 Y57.336 E13.20602
G1 X59.414 Y57.566 E13.24463
G1 X59.552 Y57.586 E13.25228
G1 X59.568 Y57.586 E13.25316
G1 X59.721 Y57.596 E13.26158
G1 X60.19 Y57.628 E13.28737
G1 X60.233 Y57.619 E13.28979
G1 X60.243 Y57.619 E13.29033
G1 X60.921 Y57.475 E13.32837
G1 X60.949 Y57.461 E13.33009
G1 X60.965 Y57.457 E13.331
G1 X61.216 Y57.323 E13.34661
G1 X61.569 Y57.14 E13.36843
G1 X61.615 Y57.102 E13.37171
G1 X61.677 Y57.051 E13.37611
G1 X62 Y56.746 E13.40049
G1 X62 Y57.051 E13.40596
G1 X62 Y57.131 E13.40997
G1 X62 Y67.125 E13.95844
G1 X58 Y67.125 E14.17795
G1 X58 Y57.152 E14.72526
G1 X58 Y56.93 E14.73431
G1 X58 Y56.841 E14.73544
G1 X58 Y56.745 E14.73559
G0 F1080 X60.808 Y57.084
G1 F900 X60.82 Y57.081 E14.73627
G1 X61.032 Y56.968 E14.74945
G1 X61.347 Y56.805 E14.76892
G1 X61.412 Y56.751 E14.77355
G1 X61.837 Y56.35 E14.80562
G1 X62.013 Y56.057 E14.82438
G1 X62.162 Y55.809 E14.84025
G1 X62.166 Y55.793 E14.84116
G1 X62.17 Y55.787 E14.84156
G1 X62.326 Y55.217 E14.87399
G1 X62.336 Y55.148 E14.87781
G1 X62.333 Y54.853 E14.894
G1 X62.333 Y54.578 E14.9091
G1 X62.324 Y54.507 E14.91302
G1 X62.158 Y53.935 E14.94571
G1 X62.151 Y53.923 E14.94647
G1 X62.147 Y53.91 E14.94722
G1 X62.012 Y53.693 E14.96124
G1 X61.987 Y53.652 E14.96388
G1 X61.823 Y53.382 E14.98122
G1 X61.375 Y52.967 E15.01473
G1 X61.308 Y52.921 E15.01919
G1 X61.193 Y52.862 E15.02628
G1 X60.802 Y52.662 E15.05038
G1 X60.79 Y52.654 E15.05118
G1 X60.775 Y52.648 E15.05206
G1 X60.726 Y52.641 E15.05478
G1 X60.189 Y52.532 E15.08485
G1 X60.105 Y52.526 E15.08947
G1 X59.815 Y52.549 E15.10544
G1 X59.532 Y52.569 E15.12101
G1 X59.507 Y52.577 E15.12245
G1 X59.481 Y52.58 E15.12388
G1 X59.219 Y52.677 E15.13921
G1 X58.942 Y52.775 E15.15534
G1 X58.879 Y52.807 E15.15922
G1 X58.795 Y52.867 E15.16488
G1 X58.381 Y53.163 E15.19281
G1 X58.225 Y53.36 E15.2066
G1 X57.997 Y53.64 E15.22642
G1 X57.986 Y53.654 E15.2274
G1 X57.98 Y53.667 E15.22818
G1 X57.973 Y53.676 E15.22881
G1 X57.889 Y53.878 E15.24081
G1 X57.729 Y54.247 E15.26289
G1 X57.647 Y54.862 E15.29693
G1 X57.653 Y54.948 E15.30167
G1 X57.729 Y55.481 E15.33121
G1 X57.747 Y55.552 E15.33523
G1 X57.855 Y55.793 E15.34973
G1 X57.977 Y56.072 E15.36644
G1 X57.997 Y56.108 E15.3687
G1 X58.009 Y56.129 E15.37002
G1 X58.375 Y56.572 E15.40156
G1 X58.425 Y56.622 E15.40544
G1 X58.932 Y56.976 E15.43937
G1 X59.509 Y57.176 E15.47289
G1 X59.592 Y57.188 E15.47749
G1 X59.748 Y57.197 E15.48607
G1 X60.162 Y57.225 E15.50884
G1 X60.191 Y57.219 E15.51046
G1 X60.201 Y57.219 E15.51101
G1 X60.29 Y57.2 E15.51601
G0 F810 X60.788 Y57.094
G0 X60.808 Y57.084
G0 F1080 X60.655 Y56.713
;TYPE:WALL-OUTER
G1 F900 X60.667 Y56.707 E15.51674
G1 X60.675 Y56.705 E15.5172
G1 X60.848 Y56.613 E15.52795
G1 X61.126 Y56.469 E15.54513
G1 X61.148 Y56.451 E15.54669
G1 X61.522 Y56.097 E15.57495
G1 X61.791 Y55.65 E15.60358
G1 X61.794 Y55.639 E15.60421
G1 X61.798 Y55.632 E15.60465
G1 X61.934 Y55.136 E15.63287
G1 X61.936 Y55.122 E15.63365
G1 X61.933 Y54.853 E15.64841
G1 X61.933 Y54.605 E15.66202
G1 X61.931 Y54.59 E15.66285
G1 X61.788 Y54.096 E15.69108
G1 X61.782 Y54.086 E15.69172
G1 X61.779 Y54.076 E15.69229
G1 X61.647 Y53.863 E15.70604
G1 X61.51 Y53.638 E15.7205
G1 X61.125 Y53.281 E15.74931
G1 X61.103 Y53.266 E15.75077
G1 X60.65 Y53.034 E15.77871
G1 X60.637 Y53.032 E15.77943
G1 X60.634 Y53.03 E15.77963
G1 X60.135 Y52.929 E15.80757
G1 X60.107 Y52.927 E15.80911
G1 X59.847 Y52.948 E15.82342
G1 X59.606 Y52.965 E15.83668
G1 X59.593 Y52.969 E15.83743
G1 X59.578 Y52.971 E15.83826
G1 X59.353 Y53.054 E15.85142
G1 X59.099 Y53.144 E15.86621
G1 X59.087 Y53.15 E15.86694
G1 X58.918 Y53.272 E15.87838
G1 X58.659 Y53.456 E15.89582
G1 X58.535 Y53.613 E15.9068
G1 X58.331 Y53.863 E15.9245
G1 X58.325 Y53.877 E15.92534
G1 X58.321 Y53.882 E15.92569
G1 X58.256 Y54.038 E15.93497
G1 X58.118 Y54.355 E15.95394
G1 X58.049 Y54.876 E15.98278
G1 X58.051 Y54.907 E15.98449
G1 X58.122 Y55.404 E16.01204
G1 X58.126 Y55.42 E16.01294
G1 X58.222 Y55.633 E16.02576
G1 X58.336 Y55.894 E16.0414
G1 X58.341 Y55.903 E16.04196
G1 X58.671 Y56.303 E16.07042
G1 X58.682 Y56.314 E16.07127
G1 X58.867 Y56.442 E16.08362
G1 X59.116 Y56.616 E16.10029
G1 X59.604 Y56.786 E16.12865
G1 X59.632 Y56.79 E16.1302
G1 X59.774 Y56.798 E16.13801
G1 X60.134 Y56.822 E16.15781
G0 F810 X60.136 Y56.822
G0 X60.151 Y56.819
G0 X60.159 Y56.819
G0 X60.655 Y56.713
G0 F1080 X60.667 Y56.707
G0 X60.675 Y56.705
G0 X60.833 Y56.621
G0 X61.039 Y57.011
G1 F1500 E11.15781
G0 F1080 X60.243 Y55.532
G0 X64.04 Y67.525
G0 X62.4 Y67.525
;TYPE:WALL-INNER
G1 F1500 E16.88537
G1 F900 X57.6 Y67.525 E17.14879
G1 X57.6 Y56.114 E17.77502
G1 X57.6 Y56.072 E17.77686
G1 X57.6 Y55.793 E17.78892
G1 X57.6 Y55.552 E17.79543
G1 X57.6 Y55.481 E17.79609
G1 X57.6 Y54.948 E17.80272
G1 X57.6 Y54.862 E17.80331
G1 X57.6 Y54.247 E17.81071
G1 X57.6 Y53.878 E17.8211
G1 X57.6 Y53.667 E17.83071
G1 X57.6 Y53.654 E17.83088
G1 X57.6 Y53.636 E17.83186
G1 X57.6 Y52.475 E17.89557
G1 X58.775 Y52.475 E17.96005
G1 X58.879 Y52.475 E17.96478
G1 X58.942 Y52.475 E17.96642
G1 X59.219 Y52.475 E17.9759
G1 X59.481 Y52.475 E17.9813
G1 X59.507 Y52.475
G1 X59.532 Y52.475
G1 X59.815 Y52.475 E17.98457
G1 X60.105 Y52.475 E17.98706
G1 X60.189 Y52.475
G1 X60.726 Y52.475 E17.9952
G1 X60.775 Y52.475 E17.99634
G1 X60.79 Y52.475
G1 X60.802 Y52.475
G1 X61.241 Y52.475 E18.01421
G1 X62.4 Y52.475 E18.07782
G1 X62.4 Y53.654 E18.14252
G1 X62.4 Y53.91 E18.15411
G1 X62.4 Y53.923 E18.15456
G1 X62.4 Y53.935 E18.15495
G1 X62.4 Y54.507 E18.16728
G1 X62.4 Y54.578
G1 X62.4 Y54.853 E18.16981
G1 X62.4 Y55.148 E18.17247
G1 X62.4 Y55.217
G1 X62.4 Y55.793 E18.18444
G1 X62.4 Y55.809 E18.18496
G1 X62.4 Y56.099 E18.19779
G1 X62.4 Y67.525 E18.82484
G0 F1080 X62.8 Y67.925
;TYPE:WALL-OUTER
G1 F900 X57.2 Y67.925 E19.13216
G1 X57.2 Y52.075 E20.002
G1 X62.8 Y52.075 E20.30932
G1 X62.8 Y67.393 E21.14996
G0 F810 X62.8 Y67.925
G0 F1080 X62.6 Y67.925
G0 X62.36 Y67.485
G0 X61.61 Y66.735
;TYPE:SKIN
G1 F900 X58.39 Y66.735 E21.32667
G1 X58.39 Y57.561 E21.83014
G1 X58.57 Y57.687 E21.84219
G1 X59.322 Y57.946 E21.88584
G1 X59.512 Y57.974 E21.89638
G1 X60.217 Y58.02 E21.93515
G1 X60.271 Y58.009 E21.93818
G1 X60.284 Y58.009 E21.93889
G1 X61.05 Y57.846 E21.98187
G1 X61.088 Y57.828 E21.98418
G1 X61.108 Y57.822 E21.98532
G1 X61.362 Y57.687 E22.00111
G1 X61.61 Y57.558 E22.01645
G1 X61.61 Y66.203 E22.49088
G0 F810 X61.61 Y66.735
G0 F1080 X58.674 Y66.593
G1 F900 X58.529 Y66.448 E22.50213
G0 F1080 X58.529 Y65.883
G1 F900 X59.239 Y66.593 E22.55724
G0 F1080 X59.805 Y66.593
G1 F900 X58.529 Y65.317 E22.65627
G0 F1080 X58.529 Y64.751
G1 F900 X60.371 Y66.593 E22.79923
G0 F1080 X60.937 Y66.593
G1 F900 X58.529 Y64.186 E22.98608
G0 F1080 X58.529 Y63.62
G1 F900 X61.47 Y66.561 E23.21433
G0 F1080 X61.47 Y65.995
G1 F900 X58.529 Y63.054 E23.44259
G0 F1080 X58.529 Y62.489
G1 F900 X61.47 Y65.43 E23.67084
G0 F1080 X61.47 Y64.864
G1 F900 X58.529 Y61.923 E23.89909
G0 F1080 X58.529 Y61.357
G1 F900 X61.47 Y64.298 E24.12735
G0 F1080 X61.47 Y63.732
G1 F900 X58.529 Y60.792 E24.35556
G0 F1080 X58.529 Y60.226
G1 F900 X61.47 Y63.167 E24.58382
G0 F1080 X61.47 Y62.601
G1 F900 X58.529 Y59.66 E24.81207
G0 F1080 X58.529 Y59.095
G1 F900 X61.47 Y62.035 E25.04028
G0 F1080 X61.47 Y61.47
G1 F900 X58.529 Y58.529 E25.26854
G0 F1080 X58.529 Y57.963
M104 S205
G1 F900 X61.47 Y60.904 E25.49679
G0 F1080 X61.47 Y60.338
G1 F900 X59.175 Y58.044 E25.67487
G0 F1080 X59.831 Y58.134
G1 F900 X61.47 Y59.773 E25.80207
G0 F1080 X61.47 Y59.207
G1 F900 X60.391 Y58.129 E25.88578
G0 F1080 X60.858 Y58.03
G1 F900 X61.47 Y58.641 E25.93324
G0 F1080 X61.47 Y58.076
G1 F900 X61.282 Y57.888 E25.94783
G1 F1500 E20.94783
;MESH:NONMESH
G0 F600 X61.282 Y57.888 Z0.54
G0 F1080 X60.243 Y55.532
G0 X59.517 Y54.367
G0 X58 Y52.875
;TIME_ELAPSED:38.436095
;LAYER:1
M106 S255
;TYPE:WALL-INNER
;MESH:Bohrhilfe.stl
G1 F1500 E26.67539
G1 F2460 X58.084 Y52.875 E26.67908
G1 X58.102 Y52.875 E26.67987
G1 X58.084 Y52.888
G1 X58.059 Y52.92
G1 X58 Y52.996 E26.68132
G1 X58 Y52.888 E26.68218
G1 X58 Y52.875
G0 F2340 X61.863 Y52.875
G1 F2460 X62 Y52.875 E26.68819
G1 X62 Y52.999 E26.69364
G1 X61.939 Y52.944
G1 X61.863 Y52.875 E26.69378
G1 F1500 E21.69378
G0 F2340 X60.498 Y54.39
G0 X59.532 Y55.396
G0 X58 Y56.745
G1 F1500 E27.42135
G1 F2460 X58.112 Y56.879 E27.42902
G1 X58.203 Y56.956 E27.43425
G1 X58.356 Y57.061 E27.4424
G1 X58.747 Y57.332 E27.46328
G1 X58.786 Y57.347 E27.46512
G1 X58.8 Y57.355 E27.46583
G1 X58.841 Y57.368 E27.46771
G1 X59.483 Y57.584 E27.49745
G1 X60.197 Y57.624 E27.52885
G1 X60.231 Y57.618 E27.53037
G1 X60.264 Y57.618 E27.53181
G1 X60.962 Y57.462 E27.56321
G1 X61.582 Y57.13 E27.59409
G1 X61.616 Y57.103 E27.596
G1 X61.677 Y57.055 E27.59941
G1 X62 Y56.744 E27.61909
G1 X62 Y57.055 E27.6236
G1 X62 Y57.133 E27.62673
G1 X62 Y67.125 E28.06542
G1 X58 Y67.125 E28.24103
G1 X58 Y57.142 E28.67932
G1 X58 Y56.956 E28.68532
G1 X58 Y56.879
G1 X58 Y56.745 E28.68573
G0 F2340 X60.196 Y57.218
G1 F2460 X60.219 Y57.218 E28.68674
G1 X60.509 Y57.152 E28.6998
G1 X60.822 Y57.083 E28.71387
G1 X61.362 Y56.794 E28.74076
G1 X61.414 Y56.753 E28.74367
G1 X61.825 Y56.358 E28.76869
G1 X61.871 Y56.297 E28.77205
G1 X62.013 Y56.057 E28.78429
G1 X62.171 Y55.789 E28.79795
G1 X62.333 Y55.186 E28.82536
G1 X62.337 Y55.113 E28.82857
G1 X62.33 Y54.529 E28.85421
G1 X62.151 Y53.921 E28.88204
G1 X62.146 Y53.912 E28.88249
G1 X62.141 Y53.896 E28.88323
G1 X62.012 Y53.69 E28.8939
G1 X61.812 Y53.372 E28.91039
G1 X61.794 Y53.356 E28.91145
G1 X61.786 Y53.344 E28.91208
G1 X61.499 Y53.085 E28.92905
G1 X61.352 Y52.95 E28.93781
G1 X61.344 Y52.945 E28.93823
G1 X61.326 Y52.929 E28.93929
G1 X61.324 Y52.931 E28.93941
G1 X61.309 Y52.919 E28.94025
G1 X61.196 Y52.862 E28.94581
G1 X60.781 Y52.656 E28.96615
G1 X60.715 Y52.636 E28.96918
G1 X60.458 Y52.588 E28.98066
G1 X60.135 Y52.523 E28.99512
G1 X59.49 Y52.576 E29.02354
G1 X58.917 Y52.788 E29.05036
G1 X58.853 Y52.824 E29.05358
G1 X58.791 Y52.869 E29.05695
G1 X58.376 Y53.17 E29.07945
G1 X58.369 Y53.179 E29.07995
G1 X58.36 Y53.185 E29.08043
G1 X58.211 Y53.376 E29.09106
G1 X57.999 Y53.643 E29.10603
G1 X57.961 Y53.701 E29.10908
G1 X57.72 Y54.282 E29.13669
G1 X57.681 Y54.622 E29.15172
G1 X57.649 Y54.871 E29.16274
G1 X57.649 Y54.942 E29.16586
G1 X57.687 Y55.181 E29.17648
G1 X57.735 Y55.513 E29.19121
G1 X57.764 Y55.594 E29.19499
G1 X57.991 Y56.096 E29.21917
G1 X57.998 Y56.108 E29.21978
G1 X58.025 Y56.151 E29.22201
