;FLAVOR:Marlin
;TIME:5234
;Filament used: 3.52546m
;Layer height: 0.12
;MINX:26.178
;MINY:44.96
;MINZ:0.3
;MAXX:92.838
;MAXY:75.04
;MAXZ:23.82
;Generated with Cura_SteamEngine 4.7.1
M104 S225
M105
M109 S225
M82 ;absolute extrusion mode
;Sliced at: Thu 18-03-2021 10:10:34
G21 ;metric values
G90 ;absolute positioning
M82 ;set extruder to absolute mode
M107 ;start with the fan off
G1 Z5.0 F1800 ;move Z to 5mm
G28 X0 Y0 F1800 ;move X/Y to min endstops
G28 Z0 ;move Z to min endstop
G92 E0 ;zero the extruded length
G1 F200 E6.0 ;extrude 6.0mm of feed stock to build pressure
G1 Z5.0 F300 ;move the platform down 5mm
G92 E0 ;zero the extruded length again
G1 F1800
;Put printing message on LCD screen
M117 Printing...
G92 E0
G92 E0
G1 F1500 E-5
;LAYER_COUNT:173
;LAYER:0
M107
G0 F1542.9 X34.801 Y51.05 Z0.3
;TYPE:SUPPORT
G1 F1500 E0.72757
G1 F900 X37.034 Y51.05 E0.91138
G1 X37.034 Y52.45 E1.02663
G1 X34.801 Y52.45 E1.21045
G1 X34.801 Y51.405 E1.29647
G0 F810 X34.801 Y51.05
G1 F1500 E-3.70353
G0 F1542.9 X37.722 Y53.786
G0 X44.929 Y53.789
G0 X46.332 Y53.504
G0 X47.011 Y53.126
G1 F1500 E2.02404
G1 F900 X47.049 Y53.106 E2.02757
G1 X47.146 Y53.039 E2.03728
G1 X47.25 Y52.953 E2.04838
G1 X51.639 Y53.194 E2.41023
G1 X52.209 Y52.487 E2.48498
G1 X50.986 Y48.121 E2.85822
G1 X52.589 Y48.669 E2.99768
G1 X53.991 Y49.124 E3.11901
G1 X54.577 Y49.231 E3.16805
G1 X55.273 Y49.432 E3.22769
G1 X55.706 Y50.566 E3.32761
G1 X56.298 Y51.043 E3.39019
G1 X58.594 Y51.384 E3.58127
G1 X69.55 Y51.384 E4.48316
G1 X70.213 Y51.106 E4.54234
G1 X70.734 Y50.577 E4.60346
G1 X72.313 Y50.577 E4.73344
G1 X72.402 Y50.564 E4.74084
G1 X73.972 Y50.564 E4.87008
G1 X74.971 Y53.417 E5.11892
G1 X77.077 Y54.674 E5.32082
G1 X77.834 Y54.686 E5.38314
G1 X78.56 Y54.285 E5.45141
G1 X81.358 Y54.846 E5.68633
G1 X82.369 Y55.45 E5.78327
G1 X82.408 Y55.483 E5.78748
G1 X81.894 Y55.643 E5.83179
G1 X81.781 Y55.693 E5.84196
G1 X80.961 Y55.497 E5.91137
G1 X80.051 Y56.217 E6.00689
G1 X80.05 Y56.454 E6.0264
G1 X79.882 Y56.528 E6.04151
G1 X79.5 Y57.235 E6.10766
G1 X79.661 Y58.191 E6.18747
G1 X78.914 Y60.041 E6.3517
G1 X79.305 Y61.79 E6.49923
G1 X79.209 Y62.795 E6.58234
G1 X79.633 Y63.475 E6.64831
G1 X80.05 Y63.634 E6.68504
G1 X80.051 Y63.799 E6.69863
G1 X81.008 Y64.518 E6.79716
G1 X81.783 Y64.293 E6.86359
G1 X82.142 Y64.43 E6.89522
G1 X81.265 Y64.903 E6.97725
G1 X81.101 Y64.966 E6.99171
G1 X80.106 Y65.192 E7.0757
G1 X78.039 Y64.498 E7.25519
G1 X75.801 Y64.996 E7.44393
G1 X75.237 Y65.493 E7.50581
G1 X73.973 Y69.021 E7.81431
G1 X74.02 Y69.618 E7.8636
G1 X73.788 Y69.436 E7.88788
G1 X72.514 Y69.436 E7.99275
G1 X71.926 Y69.354 E8.04162
G1 X71.659 Y69.354 E8.0636
G1 X66.378 Y68.616 E8.50255
G1 X59.739 Y68.614 E9.04907
G1 X59.077 Y68.941 E9.10985
G1 X56.456 Y72.392 E9.46657
G1 X55.692 Y70.761 E9.61484
G1 X54.908 Y70.458 E9.68403
G1 X51.691 Y71.795 E9.97081
G1 X51.28 Y71.83 E10.00476
G1 X50.855 Y71.901 E10.04023
G1 X50.87 Y71.791 E10.04937
G1 X50.95 Y71.506 E10.07374
G1 X51.677 Y69.793 E10.22692
G1 X52.227 Y67.931 E10.38675
G1 X51.89 Y67.183 E10.45428
G1 X49.804 Y66.201 E10.64408
G1 X51.684 Y64.082 E10.87727
G1 X51.69 Y57.49 E11.41991
G1 X51.383 Y56.827 E11.48006
G1 X47.281 Y53.355 E11.92245
G0 F810 X47.011 Y53.126
G0 F1542.9 X48.468 Y53.246
G1 F900 X48.468 Y54.064 E11.98979
G0 F1542.9 X50.036 Y55.392
G1 F900 X80.73 Y55.392 E14.51648
G0 F1542.9 X80.78 Y55.355
G1 F900 X80.78 Y54.96 E14.549
G0 F1542.9 X81.495 Y55.392
G1 F900 X81.66 Y55.392 E14.56258
G1 F1500 E9.56258
G0 F1542.9 X79.35 Y57.7
G1 F1500 E15.29014
G1 F900 X51.915 Y57.7 E17.54856
G0 F1542.9 X50.776 Y56.018
G1 F900 X50.776 Y53.373 E17.7663
G0 F1542.9 X52.018 Y53.084
G1 F900 X74.617 Y53.084 E19.62662
G0 F1542.9 X76.164 Y54.393
G1 F900 X76.164 Y64.686 E20.47393
G0 F1542.9 X76.433 Y64.624
G1 F900 X51.503 Y64.624 E22.52613
G0 F1542.9 X50.776 Y65.443
G1 F900 X50.776 Y66.409 E22.60565
G0 F1542.9 X51.883 Y66.932
G1 F900 X74.482 Y66.932 E24.46598
G0 F1542.9 X73.856 Y68.681
G1 F900 X73.856 Y50.915 E25.92845
G0 F1542.9 X71.548 Y50.802
G1 F900 X71.548 Y69.111 E27.43563
G0 F1542.9 X69.24 Y68.788
G1 F900 X69.24 Y51.609 E28.84979
G0 F1542.9 X66.932 Y51.609
G1 F900 X66.932 Y68.465 E30.23735
G0 F1542.9 X64.624 Y68.39
G1 F900 X64.624 Y51.609 E31.61874
G0 F1542.9 X62.316 Y51.609
G1 F900 X62.316 Y68.389 E33.00005
G0 F1542.9 X60.008 Y68.389
G1 F900 X60.008 Y51.609 E34.38136
G0 F1542.9 X57.7 Y51.48
G1 F900 X57.7 Y70.382 E35.93735
G0 F1542.9 X58.565 Y69.24
G1 F900 X52.074 Y69.24 E36.47169
G0 F1542.9 X53.084 Y70.973
G1 F900 X53.084 Y49.067 E38.27496
G0 F1542.9 X51.964 Y50.776
G1 F900 X55.608 Y50.776 E38.57493
G0 F1542.9 X55.392 Y50.374
G1 F900 X55.392 Y70.404 E40.22378
G0 F1542.9 X56.308 Y71.548
G1 F900 X56.813 Y71.548 E40.26535
G0 F1542.9 X51.698 Y71.548
G1 F900 X51.175 Y71.548 E40.3084
G0 F1542.9 X51.91 Y62.316
G1 F900 X79.028 Y62.316 E42.54072
G0 F1542.9 X78.472 Y64.406
G1 F900 X78.472 Y54.59 E43.34877
G0 F1542.9 X78.684 Y60.008
G1 F900 X51.912 Y60.008 E45.55261
G0 F1542.9 X79.122 Y64.624
G1 F900 X80.775 Y64.624 E45.68868
G0 F1542.9 X80.78 Y64.629
G1 F900 X80.78 Y64.809 E45.7035
G0 F1542.9 X37.034 Y67.55
G1 F900 X37.035 Y68.95 E45.81874
G1 X33.554 Y68.95 E46.10529
G1 X33.553 Y67.55 E46.22054
G1 X36.679 Y67.55 E46.47787
G0 F810 X37.034 Y67.55
G1 F1500 E41.47787
G0 F1542.9 X34.62 Y67.775
G1 F1500 E47.20544
G1 F900 X34.62 Y68.725 E47.28364
G1 F1500 E42.28364
;MESH:Canopy_2.stl
G0 F1542.9 X36.995 Y68.496
G0 X39.145 Y68.495
;TYPE:WALL-INNER
G1 F1500 E48.0112
G1 F900 X39.035 Y68.468 E48.01742
G1 X39.034 Y68.25 E48.02938
G1 X39.145 Y68.25 E48.03081
G1 X39.597 Y68.25 E48.05561
G1 X44.839 Y68.251 E48.34329
G1 X45.262 Y68.293 E48.36662
G1 X45.632 Y68.405 E48.38783
G1 X45.988 Y68.596 E48.41
G1 X46.279 Y68.834 E48.43064
G1 X46.534 Y69.146 E48.45275
G1 X46.716 Y69.484 E48.47382
G1 X46.83 Y69.862 E48.49548
G1 X46.873 Y70.298 E48.51953
G1 X46.873 Y72.077 E48.61716
G1 X46.873 Y72.228 E48.62544
G1 X46.873 Y72.285 E48.62857
G1 X46.686 Y72.228 E48.63469
G1 X46.544 Y72.177 E48.64116
G1 X46.035 Y71.992 E48.67089
G1 X45.345 Y71.703 E48.71194
G1 X44.761 Y71.428 E48.74736
G1 X44.155 Y71.116 E48.78477
G1 X43.562 Y70.791 E48.82188
G1 X43.015 Y70.474 E48.85658
G1 X41.917 Y69.823 E48.92663
G1 X41.372 Y69.507 E48.9612
G1 X40.832 Y69.213 E48.99494
G1 X40.286 Y68.941 E49.02842
G1 X39.727 Y68.699 E49.06185
G1 X39.572 Y68.644 E49.07088
G1 X39.145 Y68.495 E49.09097
G0 F1542.9 X39.03 Y68.879
G1 F900 X38.635 Y68.781 E49.11331
G1 X38.634 Y68.049 E49.15348
G1 X38.634 Y67.85 E49.1644
G1 X38.833 Y67.85 E49.17147
G1 X44.858 Y67.851 E49.50211
G1 X45.342 Y67.899 E49.52881
G1 X45.787 Y68.034 E49.55433
G1 X46.207 Y68.259 E49.58047
G1 X46.531 Y68.525 E49.60348
G1 X46.566 Y68.553 E49.60594
G1 X46.866 Y68.92 E49.63195
G1 X47.067 Y69.295 E49.6553
G1 X47.088 Y69.333 E49.65769
G1 X47.224 Y69.782 E49.68343
G1 X47.273 Y70.279 E49.71084
G1 X47.273 Y72.557 E49.83585
G1 X47.273 Y72.558 E49.83591
G1 X47.273 Y72.826 E49.85062
G1 X47.016 Y72.748 E49.85943
G1 X46.569 Y72.611 E49.88509
G1 X45.882 Y72.362 E49.92519
G1 X45.19 Y72.072 E49.96637
G1 X44.578 Y71.784 E50.00348
G1 X43.962 Y71.467 E50.0415
G1 X43.369 Y71.141 E50.07864
G1 X42.811 Y70.818 E50.11402
G1 X41.715 Y70.168 E50.18395
G1 X41.176 Y69.856 E50.21813
G1 X40.647 Y69.568 E50.25119
G1 X40.117 Y69.304 E50.28368
G1 X39.581 Y69.072 E50.31573
G1 X39.532 Y69.055 E50.31858
G0 F810 X39.03 Y68.879
G0 F1542.9 X38.915 Y69.263
;TYPE:WALL-OUTER
G1 F900 X38.392 Y69.133 E50.34815
G1 X38.235 Y69.109 E50.35687
G1 X38.234 Y67.65 E50.43694
G1 X38.234 Y67.45 E50.44792
G1 X38.434 Y67.45 E50.45502
G1 X44.878 Y67.451 E50.80866
G1 X45.421 Y67.505 E50.83861
G1 X45.942 Y67.663 E50.86849
G1 X46.426 Y67.922 E50.89861
G1 X46.852 Y68.271 E50.92884
G1 X47.202 Y68.698 E50.95914
G1 X47.459 Y69.178 E50.98902
G1 X47.618 Y69.702 E51.01907
G1 X47.673 Y70.26 E51.04984
G1 X47.673 Y73.082 E51.20471
G1 X47.673 Y73.083 E51.20476
G1 X47.673 Y73.337 E51.2187
G1 X47.426 Y73.276 E51.22717
G1 X47.161 Y73.21 E51.24215
G1 X46.436 Y72.988 E51.28377
G1 X45.729 Y72.732 E51.32503
G1 X45.035 Y72.441 E51.36633
G1 X44.395 Y72.14 E51.40514
G1 X43.779 Y71.823 E51.44316
G1 X43.176 Y71.491 E51.48094
G1 X42.607 Y71.162 E51.51701
G1 X41.513 Y70.513 E51.58682
G1 X40.98 Y70.205 E51.6206
G1 X40.462 Y69.923 E51.65297
G1 X39.948 Y69.667 E51.68448
G1 X39.435 Y69.445 E51.71516
G1 X39.417 Y69.439 E51.7162
G0 F810 X38.915 Y69.263
G0 F1542.9 X38.721 Y69.215
G0 X38.828 Y68.788
G0 X40.555 Y68.64
;TYPE:SKIN
G1 F900 X44.82 Y68.641 E51.95026
G1 X45.187 Y68.677 E51.97049
G1 X45.478 Y68.766 E51.98719
G1 X45.773 Y68.923 E52.00553
G1 X46.002 Y69.111 E52.02179
G1 X46.21 Y69.365 E52.03981
G1 X46.354 Y69.634 E52.05655
G1 X46.446 Y69.938 E52.07399
G1 X46.483 Y70.316 E52.09483
G1 X46.483 Y71.739 E52.17292
G1 X46.168 Y71.626 E52.19129
G1 X45.511 Y71.35 E52.2304
G1 X44.934 Y71.078 E52.2654
G1 X44.302 Y70.752 E52.30443
G1 X43.753 Y70.452 E52.33876
G1 X43.21 Y70.137 E52.37321
G1 X42.114 Y69.486 E52.44317
G1 X41.563 Y69.167 E52.47811
G1 X41.031 Y68.877 E52.51136
G0 F810 X41.012 Y68.867
G0 X40.555 Y68.64
G0 F1542.9 X41.626 Y68.779
G1 F900 X42.25 Y69.403 E52.55979
G0 F1542.9 X42.192 Y68.779
G1 F900 X43.633 Y70.22 E52.67163
G1 X43.703 Y70.29
G0 F1542.9 X44.858 Y70.88
G1 F900 X42.758 Y68.779 E52.83465
G0 F1542.9 X43.324 Y68.78
G1 F900 X45.908 Y71.364 E53.0352
G0 F1542.9 X46.343 Y71.233
G1 F900 X43.89 Y68.78 E53.22558
G0 F1542.9 X44.455 Y68.78
G1 F900 X46.343 Y70.667 E53.37207
G0 F1542.9 X46.319 Y70.078
G1 F900 X45.044 Y68.802 E53.47106
G1 X44.974 Y68.732
G1 F1500 E48.47106
G0 F1542.9 X44.944 Y66.212
G0 X39.034 Y53.79
G0 X39.034 Y51.535
;TYPE:WALL-INNER
G1 F1500 E54.19863
G1 F900 X39.13 Y51.511 E54.20406
G1 X39.574 Y51.356 E54.22987
G1 X39.712 Y51.307 E54.2379
G1 X40.279 Y51.063 E54.27178
G1 X40.833 Y50.789 E54.3057
G1 X41.385 Y50.485 E54.34028
G1 X41.925 Y50.172 E54.37453
G1 X43.018 Y49.525 E54.44424
G1 X43.566 Y49.209 E54.47895
G1 X44.159 Y48.883 E54.51609
G1 X44.76 Y48.573 E54.5532
G1 X45.378 Y48.283 E54.59066
G1 X46.016 Y48.016 E54.62862
G1 X46.547 Y47.824 E54.65961
G1 X46.693 Y47.771 E54.66813
G1 X46.873 Y47.716 E54.67846
G1 X46.873 Y47.771
G1 X46.873 Y47.927 E54.68511
G1 X46.872 Y49.715 E54.78323
G1 X46.83 Y50.139 E54.80662
G1 X46.716 Y50.516 E54.82823
G1 X46.534 Y50.854 E54.8493
G1 X46.279 Y51.166 E54.87141
G1 X45.988 Y51.404 E54.89204
G1 X45.632 Y51.595 E54.91421
G1 X45.261 Y51.707 E54.93548
G1 X44.825 Y51.75 E54.95952
G1 X39.6 Y51.75 E55.24627
G1 X39.13 Y51.75 E55.26696
G1 X39.034 Y51.75 E55.26995
G1 X39.034 Y51.535 E55.27829
G0 F1542.9 X38.634 Y51.221
G1 F900 X39.016 Y51.127 E55.29988
G1 X39.567 Y50.934 E55.33192
G1 X40.111 Y50.7 E55.36442
G1 X40.648 Y50.434 E55.39731
G1 X41.188 Y50.137 E55.43113
G1 X41.723 Y49.827 E55.46506
G1 X42.814 Y49.181 E55.53465
G1 X43.373 Y48.858 E55.57008
G1 X43.966 Y48.532 E55.60721
G1 X44.577 Y48.217 E55.64494
G1 X45.214 Y47.918 E55.68356
G1 X45.871 Y47.643 E55.72264
G1 X46.56 Y47.394 E55.76285
G1 X46.575 Y47.39 E55.7637
G1 X46.755 Y47.335 E55.77403
G1 X47.015 Y47.254 E55.78897
G1 X47.273 Y47.175 E55.80378
G1 X47.273 Y47.444 E55.8126
G1 X47.273 Y47.445 E55.81266
G1 X47.272 Y49.735 E55.93833
G1 X47.224 Y50.218 E55.96497
G1 X47.088 Y50.667 E55.99072
G1 X46.866 Y51.08 E56.01645
G1 X46.566 Y51.447 E56.04246
G1 X46.532 Y51.474 E56.04484
G1 X46.207 Y51.741 E56.06793
G1 X45.787 Y51.966 E56.09407
G1 X45.341 Y52.101 E56.11965
G1 X44.844 Y52.15 E56.14705
G1 X38.634 Y52.15 E56.48785
G1 X38.634 Y51.753 E56.50964
G0 F810 X38.634 Y51.221
G0 F1542.9 X38.385 Y50.871
;TYPE:WALL-OUTER
G1 F900 X38.399 Y50.866 E56.51046
G1 X38.902 Y50.743 E56.53888
G1 X39.422 Y50.561 E56.56911
G1 X39.943 Y50.337 E56.60023
G1 X40.463 Y50.079 E56.63209
G1 X40.991 Y49.789 E56.66515
G1 X41.521 Y49.482 E56.69876
G1 X42.61 Y48.837 E56.76822
G1 X43.18 Y48.507 E56.80437
G1 X43.773 Y48.181 E56.8415
G1 X44.394 Y47.861 E56.87984
G1 X45.05 Y47.553 E56.91961
G1 X45.726 Y47.27 E56.95983
G1 X46.433 Y47.015 E57.00108
G1 X47.163 Y46.79 E57.043
G1 X47.426 Y46.724 E57.05788
G1 X47.673 Y46.663 E57.07184
G1 X47.673 Y46.917 E57.08029
G1 X47.673 Y46.918 E57.08035
G1 X47.672 Y49.755 E57.23604
G1 X47.618 Y50.298 E57.26599
G1 X47.459 Y50.822 E57.29604
G1 X47.202 Y51.302 E57.32592
G1 X46.852 Y51.729 E57.35622
G1 X46.426 Y52.078 E57.38644
G1 X45.942 Y52.337 E57.41657
G1 X45.421 Y52.495 E57.44644
G1 X44.863 Y52.55 E57.47722
G1 X38.234 Y52.55 E57.84101
G1 X38.234 Y51.273 E57.91109
G0 F810 X38.234 Y50.893
G0 X38.362 Y50.873
G0 X38.385 Y50.871
G0 F1542.9 X38.399 Y50.866
G0 X38.579 Y50.822
G0 X38.682 Y51.25
G0 X40.56 Y51.36
;TYPE:SKIN
G1 F900 X41.014 Y51.134 E57.93892
G1 X41.576 Y50.824 E57.97414
G1 X42.122 Y50.509 E58.00874
G1 X43.213 Y49.863 E58.07832
G1 X43.761 Y49.547 E58.11304
G1 X44.299 Y49.25 E58.14676
G1 X44.933 Y48.923 E58.18591
G1 X45.544 Y48.636 E58.22296
G1 X46.149 Y48.383 E58.25894
G1 X46.483 Y48.262 E58.27844
G1 X46.482 Y49.696 E58.35714
G1 X46.446 Y50.064 E58.37743
G1 X46.354 Y50.366 E58.39475
G1 X46.21 Y50.635 E58.4115
G1 X46.002 Y50.889 E58.42951
G1 X45.773 Y51.077 E58.44577
G1 X45.478 Y51.234 E58.46411
G1 X45.185 Y51.323 E58.48092
G1 X44.807 Y51.36 E58.50176
G1 X41.092 Y51.36 E58.70564
G0 F810 X40.56 Y51.36
G0 F1542.9 X41.441 Y51.058
G1 F900 X41.602 Y51.219 E58.71813
G0 F1542.9 X41.803 Y50.854
G1 F900 X42.168 Y51.219 E58.74646
G0 F1542.9 X42.733 Y51.219
G1 F900 X42.161 Y50.647 E58.79086
G0 F1542.9 X42.517 Y50.437
G1 F900 X43.299 Y51.219 E58.85155
G0 F1542.9 X43.865 Y51.219
G1 F900 X42.872 Y50.226 E58.92862
G0 F1542.9 X43.228 Y50.016
G1 F900 X44.431 Y51.219 E59.02198
G0 F1542.9 X44.979 Y51.201
G1 F900 X43.586 Y49.809 E59.13005
G0 F1542.9 X43.947 Y49.604
G1 F900 X45.437 Y51.094 E59.24569
G0 F1542.9 X45.789 Y50.88
G1 F900 X44.311 Y49.402 E59.3604
G0 F1542.9 X44.683 Y49.208
G1 F900 X46.065 Y50.59 E59.46766
G0 F1542.9 X46.254 Y50.214
G1 F900 X45.058 Y49.018 E59.56048
G0 F1542.9 X45.443 Y48.837
G1 F900 X46.338 Y49.732 E59.62995
G0 F1542.9 X46.342 Y49.17
G1 F900 X45.836 Y48.665 E59.66918
G0 F1542.9 X46.237 Y48.499
G1 F900 X46.343 Y48.605 E59.67741
M104 S216
G1 F1500 E54.67741
G0 F1542.9 X48.913 Y48.605
G0 X80.005 Y57.629
G0 X81.645 Y57.635
;TYPE:WALL-INNER
G1 F1500 E60.40497
G1 F900 X81.645 Y57.491 E60.41287
G1 X81.646 Y57.36 E60.42006
G1 X81.746 Y57.404 E60.42145
G1 X81.775 Y57.417
G1 X81.944 Y57.492 E60.42832
G1 X82.215 Y57.681 E60.44645
G1 X82.343 Y57.77 E60.45501
G1 X82.475 Y57.9 E60.46518
G1 X82.343 Y57.9 E60.46567
G1 X82.063 Y57.9 E60.47527
G1 X81.793 Y57.723 E60.4872
G1 X81.675 Y57.645 E60.49188
G1 X81.645 Y57.635
G0 F1542.9 X81.499 Y58.008
;TYPE:WALL-OUTER
G1 F900 X81.246 Y57.924 E60.50651
G1 X81.245 Y57.66 E60.521
G1 X81.248 Y56.965 E60.55914
G1 X81.248 Y56.86 E60.5649
G1 X81.249 Y56.8 E60.5682
G1 X81.51 Y56.861 E60.57763
G1 X81.606 Y56.903 E60.58254
G1 X82.14 Y57.141 E60.61463
G1 X82.601 Y57.462 E60.64546
G1 X83.006 Y57.862 E60.67669
G1 X83.093 Y57.985 E60.68496
G1 X83.317 Y58.3 E60.70617
G1 X82.931 Y58.3 E60.71795
G1 X82.93 Y58.3 E60.718
G1 X81.944 Y58.3 E60.77211
G1 X81.592 Y58.069 E60.79522
G0 F810 X81.499 Y58.008
G0 F1542.9 X81.309 Y57.945
G0 X81.685 Y57.529
G1 F1500 E55.79522
G0 F1542.9 X80.957 Y59.134
G0 X80.895 Y60.892
G0 X81.647 Y62.355
;TYPE:WALL-INNER
G1 F1500 E61.52278
G1 F900 X81.816 Y62.263 E61.53334
G1 X82.04 Y62.14 E61.54737
G1 X82.091 Y62.1 E61.55092
G1 X82.361 Y62.1 E61.56574
G1 X82.474 Y62.1 E61.57194
G1 X82.361 Y62.213 E61.57475
G1 X82.234 Y62.302 E61.57714
G1 X82.182 Y62.339 E61.5772
G1 X81.949 Y62.504 E61.58768
G1 X81.764 Y62.594 E61.59544
G1 X81.648 Y62.65 E61.60064
G1 X81.648 Y62.506 E61.60336
G1 X81.647 Y62.355 E61.60834
G0 F1542.9 X81.374 Y62.048
;TYPE:WALL-OUTER
G1 F900 X81.82 Y61.804 E61.63624
G1 X81.954 Y61.7 E61.64555
G1 X82.931 Y61.7 E61.69917
G1 X82.932 Y61.7 E61.69922
G1 X83.316 Y61.7 E61.7203
G1 X83.094 Y62.014 E61.73203
G1 X83.019 Y62.121 E61.7392
G1 X82.621 Y62.519 E61.77009
G1 X82.15 Y62.851 E61.80171
G1 X81.714 Y63.063 E61.82832
G1 X81.503 Y63.125 E61.84039
G1 X81.249 Y63.198 E61.85489
G1 X81.249 Y62.934 E61.86359
G1 X81.249 Y62.933 E61.86365
G1 X81.246 Y62.081 E61.9104
G1 X81.305 Y62.066 E61.91374
G0 F810 X81.374 Y62.048
G0 F1542.9 X81.549 Y61.952
G0 X81.76 Y62.339
G1 F1500 E56.91374
;MESH:NONMESH
