;FLAVOR:Marlin
;TIME:4703
;Filament used: 6.38424m
;Layer height: 0.12
;MINX:20.602
;MINY:10.006
;MINZ:0.24
;MAXX:62.896
;MAXY:68.068
;MAXZ:34.96
;Generated with Cura_SteamEngine 4.7.1
M104 S210
M105
M109 S210
M82 ;absolute extrusion mode
;Sliced at: Thu 03-12-2020 08:24:06
G21 ;metric values
G90 ;absolute positioning
M82 ;set extruder to absolute mode
M107 ;start with the fan off
G1 Z5.0 F1800 ;move Z to 5mm
G28 X0 Y0 F1800 ;move X/Y to min endstops
G28 Z0 ;move Z to min endstop
G92 E0 ;zero the extruded length
G1 F200 E6.0 ;extrude 6.0mm of feed stock to build pressure
G1 Z5.0 F300 ;move the platform down 5mm
G92 E0 ;zero the extruded length again
G1 F1800
;Put printing message on LCD screen
M117 Printing...
G92 E0
G92 E0
G1 F1500 E-5
;LAYER_COUNT:153
;LAYER:0
M107
G0 F900 X21.252 Y12.604 Z0.24
;TYPE:SKIRT
G1 F1500 E0.70678
G1 F900 X21.437 Y12.294 E0.72263
G1 X21.777 Y11.827 E0.74799
G1 X22.15 Y11.426 E0.77203
G1 X22.796 Y10.897 E0.80869
G1 X23.287 Y10.606 E0.83375
G1 X23.554 Y10.478 E0.84675
G1 X24.073 Y10.276 E0.8712
G1 X24.846 Y10.092 E0.90608
G1 X25.349 Y10.032 E0.92832
G1 X25.42 Y10.029 E0.93144
G1 X26.737 Y10.007 E0.98927
G1 X56.894 Y10.006 E2.31327
G1 X57.426 Y10.01 E2.33662
G1 X58.003 Y10.026 E2.36197
G1 X58.745 Y10.103 E2.39472
G1 X59.296 Y10.235 E2.41959
G1 X59.868 Y10.443 E2.44631
G1 X60.363 Y10.688 E2.47056
G1 X60.826 Y10.987 E2.49476
G1 X61.29 Y11.364 E2.52101
G1 X61.661 Y11.763 E2.54493
G1 X62.052 Y12.269 E2.573
G1 X62.358 Y12.812 E2.60037
G1 X62.478 Y13.079 E2.61322
G1 X62.654 Y13.562 E2.63579
G1 X62.809 Y14.24 E2.66632
G1 X62.87 Y14.899 E2.69538
G1 X62.873 Y14.973 E2.69863
G1 X62.895 Y16.179 E2.75159
G1 X62.896 Y26.223 E3.19255
G1 X62.894 Y36.829 E3.65819
G1 X62.894 Y52.857 E4.36187
G1 X62.889 Y53.43 E4.38703
G1 X62.872 Y54.029 E4.41334
G1 X62.799 Y54.751 E4.4452
G1 X62.646 Y55.381 E4.47366
G1 X62.491 Y55.806 E4.49352
G1 X62.209 Y56.39 E4.522
G1 X61.8 Y56.988 E4.5538
G1 X61.379 Y57.47 E4.5819
G1 X60.877 Y57.899 E4.61089
G1 X60.392 Y58.214 E4.63628
G1 X59.835 Y58.493 E4.66363
G1 X59.307 Y58.685 E4.6883
G1 X58.653 Y58.83 E4.71771
G1 X57.989 Y58.892 E4.74699
G1 X57.92 Y58.895 E4.75002
G1 X56.765 Y58.916 E4.80074
G1 X26.606 Y58.916 E6.12482
G1 X26.073 Y58.912 E6.14822
G1 X25.496 Y58.896 E6.17356
G1 X24.74 Y58.816 E6.20694
G1 X24.199 Y58.686 E6.23137
G1 X23.607 Y58.471 E6.25902
G1 X23.151 Y58.242 E6.28142
G1 X22.664 Y57.927 E6.30688
G1 X22.209 Y57.558 E6.3326
G1 X21.834 Y57.153 E6.35684
G1 X21.444 Y56.649 E6.38481
G1 X21.142 Y56.111 E6.4119
G1 X21.021 Y55.843 E6.42481
G1 X20.845 Y55.36 E6.44738
G1 X20.69 Y54.669 E6.47847
G1 X20.623 Y53.857 E6.51424
G1 X20.62 Y53.784 E6.51745
G1 X20.604 Y52.769 E6.56202
G1 X20.602 Y16.07 E8.17323
G1 X20.607 Y15.463 E8.19988
G1 X20.625 Y14.938 E8.22294
G1 X20.688 Y14.248 E8.25336
G1 X20.861 Y13.506 E8.28681
G1 X20.971 Y13.206 E8.30084
G0 F810 X21 Y13.128
G0 X21.252 Y12.604
G0 F900 X21.612 Y12.778
G1 X21.761 Y12.529 E8.31358
G1 X22.101 Y12.062 E8.33894
G1 X22.48 Y11.667 E8.36297
G1 X23.004 Y11.239 E8.39268
G1 X23.485 Y10.953 E8.41725
G1 X23.699 Y10.851 E8.42765
G1 X24.218 Y10.649 E8.4521
G1 X24.923 Y10.485 E8.48388
G1 X25.427 Y10.429 E8.50615
G1 X26.737 Y10.407 E8.56367
G1 X56.892 Y10.406 E9.88757
G1 X57.415 Y10.41 E9.91054
G1 X57.992 Y10.426 E9.93588
G1 X58.693 Y10.499 E9.96682
G1 X59.475 Y10.713 E10.00242
G1 X59.691 Y10.801 E10.01266
G1 X60.186 Y11.046 E10.0369
G1 X60.647 Y11.355 E10.06127
G1 X61.093 Y11.729 E10.08682
G1 X61.571 Y12.28 E10.11885
G1 X61.848 Y12.712 E10.14138
G1 X62.102 Y13.216 E10.16616
G1 X62.301 Y13.765 E10.19179
G1 X62.414 Y14.309 E10.21619
G1 X62.471 Y14.922 E10.24322
G1 X62.495 Y16.179 E10.29841
G1 X62.496 Y26.223 E10.73938
G1 X62.494 Y36.829 E11.20502
G1 X62.494 Y52.854 E11.90857
G1 X62.489 Y53.42 E11.93342
G1 X62.469 Y54.104 E11.96346
G1 X62.403 Y54.7 E11.98979
G1 X62.26 Y55.274 E12.01576
G1 X62.131 Y55.632 E12.03247
G1 X61.851 Y56.212 E12.06074
G1 X61.482 Y56.746 E12.08924
G1 X61.111 Y57.172 E12.11404
G1 X60.621 Y57.591 E12.14235
G1 X60.191 Y57.869 E12.16483
G1 X59.699 Y58.117 E12.18902
G1 X59.171 Y58.309 E12.21368
G1 X58.585 Y58.436 E12.24001
G1 X57.968 Y58.493 E12.26721
G1 X56.758 Y58.516 E12.32034
G1 X26.608 Y58.516 E13.64403
G1 X26.084 Y58.512 E13.66704
G1 X25.507 Y58.496 E13.69238
G1 X24.791 Y58.42 E13.72399
G1 X24.006 Y58.203 E13.75975
G1 X23.379 Y57.91 E13.79013
G1 X22.901 Y57.605 E13.81503
G1 X22.477 Y57.26 E13.83902
G1 X22.135 Y56.891 E13.86111
G1 X21.787 Y56.443 E13.88602
G1 X21.493 Y55.92 E13.91236
G1 X21.397 Y55.706 E13.92266
G1 X21.221 Y55.223 E13.94523
G1 X21.084 Y54.6 E13.97323
G1 X21.022 Y53.836 E14.00688
G1 X21.004 Y52.769 E14.05373
G1 X21.002 Y16.073 E15.66481
G1 X21.007 Y15.474 E15.69111
G1 X21.024 Y14.975 E15.71303
G1 X21.087 Y14.285 E15.74345
G1 X21.246 Y13.613 E15.77377
G1 X21.332 Y13.38 E15.78467
G0 F810 X21.36 Y13.302
G0 X21.612 Y12.778
G0 F900 X21.973 Y12.951
G1 X22.084 Y12.765 E15.79418
G1 X22.424 Y12.298 E15.81954
G1 X23.038 Y11.71 E15.85687
G1 X23.486 Y11.413 E15.88047
G1 X23.844 Y11.224 E15.89824
G1 X24.363 Y11.022 E15.92269
G1 X25 Y10.877 E15.95137
G1 X25.433 Y10.829 E15.9705
G1 X26.737 Y10.807 E16.02776
G1 X56.889 Y10.806 E17.35153
G1 X57.404 Y10.809 E17.37414
G1 X57.981 Y10.825 E17.39948
G1 X58.642 Y10.896 E17.42867
G1 X59.351 Y11.094 E17.46099
G1 X59.513 Y11.16 E17.46867
G1 X60.008 Y11.405 E17.49292
G1 X60.395 Y11.665 E17.51339
G1 X60.811 Y12.011 E17.53714
G1 X61.264 Y12.536 E17.56759
G1 X61.654 Y13.193 E17.60113
G1 X61.726 Y13.353 E17.60883
G1 X61.921 Y13.892 E17.634
G1 X62.026 Y14.411 E17.65725
G1 X62.071 Y14.944 E17.68073
G1 X62.073 Y14.988 E17.68266
G1 X62.095 Y16.179 E17.73496
G1 X62.096 Y26.223 E18.17593
G1 X62.094 Y36.829 E18.64157
G1 X62.094 Y52.851 E19.34499
G1 X62.09 Y53.409 E19.36948
G1 X62.073 Y54.008 E19.39579
G1 X62.006 Y54.648 E19.42405
G1 X61.875 Y55.167 E19.44755
G1 X61.771 Y55.458 E19.46111
G1 X61.513 Y55.993 E19.48719
G1 X61.164 Y56.503 E19.51432
G1 X60.834 Y56.884 E19.53645
G1 X60.365 Y57.284 E19.56351
G1 X59.726 Y57.667 E19.59622
G1 X59.562 Y57.741 E19.60412
G1 X59.034 Y57.933 E19.62879
G1 X58.517 Y58.041 E19.65197
G1 X57.947 Y58.093 E19.6771
G1 X57.906 Y58.095 E19.6789
G1 X56.751 Y58.116 E19.72962
G1 X26.611 Y58.116 E21.05287
G1 X26.095 Y58.113 E21.07552
G1 X25.518 Y58.097 E21.10087
G1 X24.842 Y58.023 E21.13072
G1 X24.129 Y57.822 E21.16324
G1 X23.557 Y57.552 E21.19101
G1 X23.097 Y57.251 E21.21515
G1 X22.688 Y56.911 E21.2385
G1 X22.236 Y56.387 E21.26888
G1 X21.845 Y55.73 E21.30245
G1 X21.773 Y55.569 E21.31019
G1 X21.597 Y55.086 E21.33276
G1 X21.478 Y54.532 E21.35764
G1 X21.422 Y53.815 E21.38921
G1 X21.42 Y53.771 E21.39115
G1 X21.404 Y52.769 E21.43514
G1 X21.402 Y16.076 E23.04609
G1 X21.406 Y15.485 E23.07204
G1 X21.422 Y15.011 E23.09286
G1 X21.485 Y14.321 E23.12328
G1 X21.632 Y13.72 E23.15044
G1 X21.693 Y13.554 E23.15821
G0 F810 X21.721 Y13.475
G0 X21.973 Y12.951
G0 F900 X22.333 Y13.124
G1 X22.407 Y13 E23.16455
G1 X22.747 Y12.533 E23.18991
G1 X23.301 Y12.011 E23.22333
G1 X23.882 Y11.647 E23.25343
G1 X23.989 Y11.596 E23.25863
G1 X24.508 Y11.394 E23.28308
G1 X25.077 Y11.27 E23.30865
G1 X25.44 Y11.229 E23.32469
G1 X26.737 Y11.207 E23.38164
G1 X56.887 Y11.206 E24.70532
G1 X57.393 Y11.209 E24.72754
G1 X57.97 Y11.225 E24.75288
G1 X58.559 Y11.289 E24.77889
G1 X59.228 Y11.474 E24.80937
G1 X59.336 Y11.518 E24.81449
G1 X59.831 Y11.763 E24.83874
G1 X60.456 Y12.23 E24.87299
G1 X60.956 Y12.791 E24.90598
G1 X61.302 Y13.383 E24.93609
G1 X61.351 Y13.49 E24.94125
G1 X61.527 Y13.973 E24.96382
G1 X61.63 Y14.468 E24.98602
G1 X61.673 Y14.996 E25.00928
G1 X61.695 Y16.179 E25.06122
G1 X61.696 Y26.223 E25.50219
G1 X61.694 Y36.829 E25.96783
G1 X61.694 Y52.848 E26.67112
G1 X61.69 Y53.398 E26.69526
G1 X61.672 Y54.041 E26.72351
G1 X61.609 Y54.596 E26.74803
G1 X61.482 Y55.085 E26.77021
G1 X61.411 Y55.284 E26.77949
G1 X61.136 Y55.854 E26.80727
G1 X60.83 Y56.28 E26.8303
G1 X60.557 Y56.595 E26.8486
G1 X60.11 Y56.976 E26.87439
G1 X59.535 Y57.316 E26.90371
G1 X59.425 Y57.365 E26.909
G1 X58.897 Y57.557 E26.93367
G1 X58.283 Y57.672 E26.96109
G1 X57.899 Y57.695 E26.97798
G1 X56.744 Y57.716 E27.0287
G1 X26.613 Y57.716 E28.35155
G1 X26.106 Y57.713 E28.37381
G1 X25.529 Y57.697 E28.39915
G1 X24.893 Y57.626 E28.42725
G1 X24.253 Y57.442 E28.45648
G1 X23.736 Y57.194 E28.48166
G1 X23.349 Y56.94 E28.50198
G1 X22.958 Y56.615 E28.5243
G1 X22.544 Y56.132 E28.55223
G1 X22.197 Y55.539 E28.5824
G1 X22.148 Y55.432 E28.58756
G1 X21.972 Y54.949 E28.61013
G1 X21.868 Y54.439 E28.63298
G1 X21.821 Y53.793 E28.66142
G1 X21.804 Y52.769 E28.70638
G1 X21.802 Y16.078 E30.31724
G1 X21.806 Y15.496 E30.3428
G1 X21.82 Y15.047 E30.36252
G1 X21.883 Y14.357 E30.39294
G1 X22.017 Y13.827 E30.41694
G1 X22.053 Y13.727 E30.4216
G0 F810 X22.081 Y13.648
G0 X22.333 Y13.124
G0 F900 X22.694 Y13.298
G1 X22.731 Y13.236 E30.42477
G1 X23.071 Y12.769 E30.45014
G1 X23.562 Y12.314 E30.47952
G1 X24.081 Y11.995 E30.50627
G1 X24.134 Y11.969 E30.50886
G1 X24.653 Y11.767 E30.53331
G1 X25.154 Y11.662 E30.55579
G1 X25.447 Y11.629 E30.56873
G1 X26.737 Y11.607 E30.62537
G1 X56.884 Y11.606 E31.94893
G1 X57.382 Y11.609 E31.97079
G1 X57.959 Y11.625 E31.99614
G1 X58.539 Y11.689 E32.02175
G1 X59.104 Y11.855 E32.04761
G1 X59.158 Y11.877 E32.05017
G1 X59.679 Y12.136 E32.07571
G1 X60.204 Y12.54 E32.1048
G1 X60.648 Y13.047 E32.13438
G1 X60.951 Y13.574 E32.16107
G1 X60.975 Y13.627 E32.16363
G1 X61.154 Y14.121 E32.1867
G1 X61.252 Y14.65 E32.21032
G1 X61.273 Y15.003 E32.22584
G1 X61.295 Y16.179 E32.27748
G1 X61.296 Y26.223 E32.71845
G1 X61.294 Y36.829 E33.18409
G1 X61.294 Y52.845 E33.88724
G1 X61.29 Y53.388 E33.91108
G1 X61.273 Y54.01 E33.9384
G1 X61.213 Y54.545 E33.96204
G1 X61.072 Y55.056 E33.98531
G1 X61.05 Y55.111 E33.98791
G1 X60.765 Y55.699 E34.0166
G1 X60.362 Y56.222 E34.04558
G1 X60.358 Y56.227 E34.04587
G1 X59.854 Y56.669 E34.0753
G1 X59.343 Y56.964 E34.1012
G1 X59.289 Y56.989 E34.10381
G1 X58.761 Y57.181 E34.12848
G1 X58.226 Y57.276 E34.15234
G1 X57.891 Y57.295 E34.16707
G1 X56.736 Y57.316 E34.21778
G1 X26.616 Y57.316 E35.54015
G1 X26.117 Y57.313 E35.56206
G1 X25.54 Y57.297 E35.5874
G1 X24.945 Y57.23 E35.61369
G1 X24.376 Y57.061 E35.63975
G1 X23.914 Y56.836 E35.66231
G1 X23.6 Y56.629 E35.67882
G1 X23.222 Y56.312 E35.70048
G1 X22.851 Y55.876 E35.72562
G1 X22.548 Y55.349 E35.7523
G1 X22.524 Y55.295 E35.7549
G1 X22.34 Y54.789 E35.77854
G1 X22.249 Y54.278 E35.80133
G1 X22.22 Y53.758 E35.82419
G1 X22.204 Y52.769 E35.86762
G1 X22.202 Y16.081 E37.47834
G1 X22.206 Y15.507 E37.50354
G1 X22.219 Y15.084 E37.52212
G1 X22.282 Y14.394 E37.55254
G1 X22.414 Y13.901 E37.57495
G0 F810 X22.419 Y13.879
G0 X22.442 Y13.822
G0 X22.694 Y13.298
G0 F900 X23.076 Y13.405
G1 X23.384 Y13 E37.59729
G1 X23.836 Y12.593 E37.62399
G1 X24.34 Y12.295 E37.6497
G1 X24.816 Y12.121 E37.67195
G1 X25.359 Y12.025 E37.69616
G1 X25.877 Y12.007 E37.71891
G1 X57.23 Y12.006 E39.09542
G1 X57.957 Y12.016 E39.12734
G1 X58.502 Y12.078 E39.15142
G1 X59.044 Y12.245 E39.17632
G1 X59.498 Y12.481 E39.19878
G1 X59.971 Y12.854 E39.22523
G1 X60.35 Y13.299 E39.25089
G1 X60.635 Y13.809 E39.27654
G1 X60.798 Y14.286 E39.29867
G1 X60.877 Y14.782 E39.32072
G1 X60.895 Y15.27 E39.34216
G1 X60.896 Y26.223 E39.82304
G1 X60.894 Y36.829 E40.28868
G1 X60.894 Y53.225 E41.00852
G1 X60.884 Y53.978 E41.04158
G1 X60.822 Y54.523 E41.06566
G1 X60.68 Y55.003 E41.08764
G1 X60.419 Y55.519 E41.11302
G1 X60.046 Y55.992 E41.13947
G1 X59.601 Y56.371 E41.16513
G1 X59.094 Y56.655 E41.19065
G1 X58.614 Y56.819 E41.21291
G1 X58.113 Y56.898 E41.23518
G1 X57.623 Y56.916 E41.25671
G1 X26.269 Y56.916 E42.63326
G1 X25.542 Y56.906 E42.66518
G1 X24.992 Y56.843 E42.68948
G1 X24.451 Y56.675 E42.71435
G1 X24.001 Y56.441 E42.73662
G1 X23.528 Y56.068 E42.76307
G1 X23.149 Y55.623 E42.78873
G1 X22.864 Y55.113 E42.81438
G1 X22.701 Y54.636 E42.83651
G1 X22.622 Y54.135 E42.85878
G1 X22.604 Y53.591 E42.88267
G1 X22.602 Y15.658 E44.54806
G1 X22.612 Y14.949 E44.57919
G1 X22.673 Y14.404 E44.60327
G1 X22.791 Y14.004 E44.62158
G0 F810 X22.814 Y13.924
G0 X23.076 Y13.405
G1 F1500 E39.62158
;MESH:Fimi_mount.stl
G0 F900 X26.029 Y15.621
G0 X27.307 Y15.62
G0 X56.134 Y50.475
G0 X56.204 Y50.545
;TYPE:WALL-INNER
G1 F1500 E45.32835
G1 F900 X27.294 Y50.545 E46.5976
G1 X27.293 Y15.805 E48.1228
G1 X27.293 Y15.606 E48.13154
G1 X27.492 Y15.606 E48.13719
G1 X56.204 Y15.606 E49.39775
G1 X56.204 Y49.88 E50.90249
G0 F810 X56.204 Y50.545
G0 F900 X56.604 Y50.945
;TYPE:WALL-OUTER
G1 X26.894 Y50.945 E52.20686
G1 X26.893 Y15.406 E53.76714
G1 X26.893 Y15.206 E53.77592
G1 X27.093 Y15.206 E53.78161
G1 X56.604 Y15.206 E55.07724
G1 X56.604 Y50.28 E56.61711
G0 F810 X56.604 Y50.945
G0 F900 X56.404 Y50.945
G0 X56.164 Y50.505
G0 X55.814 Y50.155
;TYPE:SKIN
G1 X27.684 Y50.155 E57.85211
G1 X27.683 Y15.996 E59.35181
G1 X55.814 Y15.996 E60.58685
G1 X55.814 Y49.49 E62.05735
G0 F810 X55.814 Y50.155
G0 F900 X27.952 Y50.014
G1 X27.823 Y49.884 E62.06539
G0 X27.823 Y49.319
G1 X28.518 Y50.014 E62.10855
G0 X29.084 Y50.014
G1 X27.823 Y48.753 E62.18684
G0 X27.823 Y48.187
G1 X29.649 Y50.014 E62.30024
G0 X30.215 Y50.014
G1 X27.823 Y47.622 E62.44876
G0 X27.823 Y47.056
G1 X30.781 Y50.014 E62.63242
G0 X31.346 Y50.014
G1 X27.823 Y46.49 E62.85119
G0 X27.823 Y45.925
G1 X31.912 Y50.014 E63.10507
G0 X32.478 Y50.014
G1 X27.823 Y45.359 E63.39409
G0 X27.823 Y44.793
G1 X33.043 Y50.014 E63.71823
G0 X33.609 Y50.014
G1 X27.823 Y44.228 E64.07747
G0 X27.823 Y43.662
G1 X34.175 Y50.014 E64.47186
G0 X34.74 Y50.014
G1 X27.823 Y43.096 E64.90136
G0 X27.823 Y42.531
G1 X35.306 Y50.014 E65.36597
G0 X35.872 Y50.014
G1 X27.823 Y41.965 E65.86572
G0 X27.823 Y41.399
G1 X36.437 Y50.014 E66.40059
G0 X37.003 Y50.014
G1 X27.823 Y40.834 E66.97056
G0 X27.823 Y40.268
G1 X37.569 Y50.014 E67.57568
G0 X38.134 Y50.014
G1 X27.823 Y39.702 E68.21591
G0 X27.823 Y39.136
G1 X38.7 Y50.014 E68.89128
G0 X39.266 Y50.014
G1 X27.822 Y38.57 E69.60182
G0 X27.822 Y38.004
G1 X39.832 Y50.014 E70.34751
G0 X40.397 Y50.014
G1 X27.822 Y37.439 E71.12827
G0 X27.822 Y36.873
G1 X40.963 Y50.014 E71.94418
G0 X41.529 Y50.014
G1 X27.822 Y36.307 E72.79523
G0 X27.822 Y35.742
G1 X42.094 Y50.014 E73.68136
G0 X42.66 Y50.014
G1 X27.822 Y35.176 E74.60263
G0 X27.822 Y34.61
G1 X43.226 Y50.014 E75.55905
G0 X43.791 Y50.014
G1 X27.822 Y34.045 E76.55054
G0 X27.822 Y33.479
G1 X44.357 Y50.014 E77.57718
G0 X44.923 Y50.014
G1 X27.822 Y32.913 E78.63896
G0 X27.822 Y32.348
G1 X45.488 Y50.014 E79.73582
G0 X46.054 Y50.014
G1 X27.822 Y31.782 E80.86782
G0 X27.822 Y31.216
G1 X46.62 Y50.014 E82.03497
G0 X47.185 Y50.014
G1 X27.822 Y30.65 E83.23722
G0 X27.822 Y30.085
G1 X47.751 Y50.014 E84.47459
G0 X48.317 Y50.014
G1 X27.822 Y29.519 E85.7471
G0 X27.822 Y28.953
G1 X48.882 Y50.014 E87.05472
G0 X49.448 Y50.014
G1 X27.822 Y28.388 E88.39745
G0 X27.822 Y27.822
G1 X50.014 Y50.014 E89.77532
G0 X50.58 Y50.014
G1 X27.821 Y27.256 E91.18837
G0 X27.821 Y26.69
G1 X51.145 Y50.014 E92.63653
G0 X51.711 Y50.014
G1 X27.821 Y26.124 E94.11983
G0 X27.821 Y25.559
G1 X52.277 Y50.014 E95.63824
G0 X52.842 Y50.014
G1 X27.821 Y24.993 E97.19176
G0 X27.821 Y24.427
G1 X53.408 Y50.014 E98.78043
G0 X53.974 Y50.014
G1 X27.821 Y23.862 E100.40421
G0 X27.821 Y23.296
G1 X54.539 Y50.014 E102.06309
G0 X55.105 Y50.014
G1 X27.821 Y22.73 E103.75712
G0 X27.821 Y22.164
G1 X55.671 Y50.014 E105.48629
G0 X55.673 Y49.45
G1 X27.821 Y21.599 E107.21556
G0 X27.821 Y21.033
G1 X55.673 Y48.885 E108.94485
G0 X55.673 Y48.319
G1 X27.821 Y20.467 E110.67415
G0 X27.821 Y19.902
G1 X55.673 Y47.753 E112.40342
G0 X55.673 Y47.188
G1 X27.821 Y19.336 E114.13271
G0 X27.821 Y18.77
G1 X55.673 Y46.622 E115.86201
G0 X55.673 Y46.056
G1 X27.821 Y18.205 E117.59127
G0 X27.821 Y17.639
G1 X55.673 Y45.491 E119.32057
G0 X55.673 Y44.925
G1 X27.821 Y17.073 E121.04986
G0 X27.821 Y16.508
G1 X55.673 Y44.359 E122.77913
G0 X55.673 Y43.793
G1 X28.015 Y16.136 E124.49635
G0 X28.581 Y16.136
G1 X55.673 Y43.228 E126.17846
G0 X55.673 Y42.662
G1 X29.146 Y16.136 E127.82545
G0 X29.712 Y16.136
G1 X55.673 Y42.096 E129.43731
G0 X55.673 Y41.531
G1 X30.278 Y16.136 E131.01405
G0 X30.843 Y16.136
G1 X55.673 Y40.965 E132.55569
G0 X55.673 Y40.399
G1 X31.409 Y16.136 E134.06218
G0 X31.975 Y16.136
G1 X55.673 Y39.834 E135.53356
