;FLAVOR:Marlin
;TIME:5952
;Filament used: 4.18842m
;Layer height: 0.12
;MINX:31.944
;MINY:29.867
;MINZ:0.3
;MAXX:83.74
;MAXY:90.137
;MAXZ:23.34
;Generated with Cura_SteamEngine 4.6.1
M104 S210
M105
M109 S210
M82 ;absolute extrusion mode
;Sliced at: Wed 13-05-2020 16:21:10
G21 ;metric values
G90 ;absolute positioning
M82 ;set extruder to absolute mode
M107 ;start with the fan off
G1 Z5.0 F1800 ;move Z to 5mm
G28 X0 Y0 F1800 ;move X/Y to min endstops
G28 Z0 ;move Z to min endstop
G92 E0 ;zero the extruded length
G1 F200 E6.0 ;extrude 6.0mm of feed stock to build pressure
G1 Z5.0 F300 ;move the platform down 5mm
G92 E0 ;zero the extruded length again
G1 F1800
;Put printing message on LCD screen
M117 Printing...
G92 E0
G92 E0
G1 F1500 E-5
;LAYER_COUNT:169
;LAYER:0
M107
G0 F900 X37.607 Y36.568 Z0.3
;TYPE:SKIRT
G1 F1500 E0.70678
G1 F900 X37.311 Y37.542 E0.76264
G1 X37.152 Y38.352 E0.80794
G1 X37.058 Y39.496 E0.87094
G1 X37.073 Y40.139 E0.90623
G1 X37.194 Y41.206 E0.96517
G1 X37.305 Y42.256 E1.02311
G1 X37.017 Y42.86 E1.05983
G1 X36.388 Y43.117 E1.09712
G1 X35.844 Y43.447 E1.13204
G1 X34.801 Y44.208 E1.2029
G1 X34.385 Y44.554 E1.23259
G1 X33.936 Y45.063 E1.26984
G1 X33.574 Y45.643 E1.30736
G1 X33.328 Y46.232 E1.34239
G1 X32.927 Y47.456 E1.41307
G1 X32.84 Y47.803 E1.43271
G1 X32.989 Y47.122 E1.47096
G1 X33.286 Y46.111 E1.52879
G1 X33.466 Y45.586 E1.55925
G1 X33.652 Y45.14 E1.58577
G1 X34.161 Y44.143 E1.6472
G1 X35.383 Y41.652 E1.79947
G1 X36.532 Y39.121 E1.95201
G1 X37.401 Y37.058 E2.07486
G0 F810 X37.607 Y36.568
G0 F900 X38.01 Y36.626
G1 X37.699 Y37.641 E2.13312
G1 X37.548 Y38.409 E2.17607
G1 X37.458 Y39.505 E2.23642
G1 X37.472 Y40.112 E2.26974
G1 X37.591 Y41.164 E2.32784
G1 X37.714 Y42.321 E2.3917
G1 X37.292 Y43.208 E2.4456
G1 X37.142 Y43.241 E2.45403
G1 X36.568 Y43.475 E2.48805
G1 X36.066 Y43.78 E2.52029
G1 X35.047 Y44.523 E2.5895
G1 X34.665 Y44.842 E2.61681
G1 X34.258 Y45.303 E2.65056
G1 X33.93 Y45.827 E2.68448
G1 X33.703 Y46.371 E2.71683
G1 X33.312 Y47.566 E2.78583
G1 X33.19 Y48.058 E2.81365
G1 X33.132 Y48.672 E2.8475
G1 X33.174 Y49.292 E2.8816
G1 X33.312 Y49.864 E2.91389
G1 X33.701 Y51.059 E2.98286
G1 X33.886 Y51.519 E3.01007
G1 X34.198 Y52.048 E3.04377
G1 X34.596 Y52.526 E3.07791
G1 X35.041 Y52.909 E3.11013
G1 X36.062 Y53.652 E3.17943
G1 X36.491 Y53.92 E3.20719
G1 X36.525 Y53.934 E3.2092
G1 X37.164 Y56.638 E3.36168
G1 X37.74 Y59.428 E3.51803
G1 X38.235 Y62.235 E3.67445
G1 X38.642 Y65.015 E3.82864
G1 X38.611 Y66.038 E3.88481
G1 X38.568 Y67.197 E3.94846
G1 X38.504 Y68.602 E4.02564
G1 X38.454 Y69.542 E4.0773
G1 X38.384 Y70.68 E4.13987
G1 X38.305 Y71.835 E4.20341
G1 X38.215 Y72.991 E4.26704
G1 X38.106 Y74.275 E4.33776
G1 X38.011 Y75.297 E4.39408
G1 X37.892 Y76.452 E4.45781
G1 X37.761 Y77.653 E4.52411
G1 X37.63 Y78.75 E4.58474
G1 X37.486 Y79.887 E4.64763
G1 X37.458 Y80.344 E4.67276
G1 X37.48 Y81.122 E4.71547
G1 X37.572 Y81.839 E4.75514
G1 X37.708 Y82.503 E4.79234
G1 X37.908 Y83.207 E4.8325
G1 X38.033 Y83.548 E4.85243
G1 X38.315 Y84.203 E4.89157
G1 X38.513 Y84.595 E4.91567
G1 X38.872 Y85.198 E4.95418
G1 X39.128 Y85.572 E4.97906
G1 X39.552 Y86.11 E5.01665
G1 X40.069 Y86.663 E5.05819
G1 X40.592 Y87.129 E5.09664
G1 X40.899 Y87.362 E5.11779
G1 X41.466 Y87.743 E5.15528
G1 X42.143 Y88.119 E5.19778
G1 X42.734 Y88.38 E5.23323
G1 X43.112 Y88.515 E5.25526
G1 X43.77 Y88.705 E5.29284
G1 X44.161 Y88.795 E5.31486
G1 X44.942 Y88.903 E5.35813
G1 X45.622 Y88.938 E5.3955
G1 X46.43 Y88.907 E5.43987
G1 X46.813 Y88.862 E5.46104
G1 X47.488 Y88.738 E5.4987
G1 X47.88 Y88.644 E5.52082
G1 X48.632 Y88.389 E5.5644
G1 X49.264 Y88.112 E5.60227
G1 X49.734 Y87.864 E5.63143
G1 X50.344 Y87.474 E5.67117
G1 X50.929 Y87.028 E5.71154
G1 X51.432 Y86.564 E5.74909
G1 X51.664 Y86.316 E5.76773
G1 X52.454 Y86.243 E5.81127
G1 X55.294 Y86.066 E5.96743
G1 X58.153 Y85.97 E6.12442
G1 X60.994 Y85.958 E6.28033
G1 X63.852 Y86.028 E6.43722
G1 X66.686 Y86.18 E6.59297
G1 X68.337 Y86.318 E6.68389
G1 X68.719 Y86.705 E6.71374
G1 X69.219 Y87.147 E6.75036
G1 X69.849 Y87.612 E6.79333
G1 X70.417 Y87.951 E6.82963
G1 X70.765 Y88.126 E6.85101
G1 X71.407 Y88.405 E6.88943
G1 X72.157 Y88.653 E6.93278
G1 X72.549 Y88.747 E6.9549
G1 X73.266 Y88.873 E6.99485
G1 X73.776 Y88.923 E7.02297
G1 X74.461 Y88.937 E7.06057
G1 X74.879 Y88.921 E7.08353
G1 X75.641 Y88.826 E7.12567
G1 X76.317 Y88.683 E7.16359
G1 X77.072 Y88.454 E7.20689
G1 X77.443 Y88.305 E7.22883
G1 X78.065 Y88.011 E7.26659
G1 X78.731 Y87.623 E7.30889
G1 X79.283 Y87.226 E7.3462
G1 X79.575 Y86.983 E7.36705
G1 X80.081 Y86.51 E7.40506
G1 X80.432 Y86.13 E7.43345
G1 X80.885 Y85.555 E7.47362
G1 X81.146 Y85.171 E7.4991
G1 X81.518 Y84.539 E7.53935
G1 X81.723 Y84.127 E7.5646
G1 X81.999 Y83.465 E7.60396
G1 X82.147 Y83.031 E7.62913
G1 X82.333 Y82.337 E7.66856
G1 X82.419 Y81.903 E7.69284
G1 X82.508 Y81.223 E7.73047
G1 X82.538 Y80.804 E7.75353
G1 X82.541 Y80.34 E7.77899
G1 X82.513 Y79.885 E7.80401
G1 X82.362 Y78.692 E7.87
G1 X82.238 Y77.653 E7.92743
G1 X82.1 Y76.392 E7.99704
G1 X81.983 Y75.241 E8.06053
G1 X81.888 Y74.226 E8.11648
G1 X81.779 Y72.932 E8.18775
G1 X81.69 Y71.775 E8.25143
G1 X81.611 Y70.618 E8.31507
G1 X81.541 Y69.483 E8.37748
G1 X81.493 Y68.575 E8.42738
G1 X81.428 Y67.136 E8.50643
G1 X81.385 Y65.977 E8.57008
G1 X81.351 Y64.813 E8.63398
G1 X81.325 Y63.672 E8.69662
G1 X81.308 Y62.485 E8.76177
G1 X81.301 Y60.045 E8.89567
G1 X81.312 Y58.805 E8.96373
G1 X81.332 Y57.545 E9.03288
G1 X81.36 Y56.329 E9.09963
G1 X81.397 Y55.089 E9.16771
G1 X81.443 Y53.855 E9.23548
G1 X81.514 Y52.288 E9.32156
G1 X81.565 Y51.319 E9.37482
G1 X81.638 Y50.081 E9.44287
G1 X81.719 Y48.85 E9.51058
G1 X81.812 Y47.605 E9.57909
G1 X81.91 Y46.367 E9.64725
G1 X82.041 Y44.842 E9.73124
G1 X82.136 Y43.832 E9.78692
G1 X82.26 Y42.587 E9.85558
G1 X82.378 Y41.476 E9.91689
G1 X82.529 Y40.108 E9.99242
G1 X82.547 Y39.598 E10.02043
G1 X82.499 Y38.829 E10.06271
G1 X82.403 Y38.131 E10.10138
G1 X82.225 Y37.352 E10.14523
G1 X81.879 Y36.351 E10.20336
G1 X81.549 Y35.641 E10.24632
G1 X81.01 Y34.745 E10.30371
G1 X80.532 Y34.106 E10.3475
G1 X79.82 Y33.345 E10.40469
G1 X79.23 Y32.827 E10.44778
G1 X78.356 Y32.218 E10.50624
G1 X77.684 Y31.842 E10.5485
G1 X76.771 Y31.454 E10.60294
G1 X76.043 Y31.236 E10.64465
G1 X75.408 Y31.12 E10.68007
G1 X74.73 Y31.064 E10.71741
G1 X74.254 Y31.067 E10.74353
G1 X73.678 Y31.112 E10.77524
G1 X73.207 Y31.183 E10.80138
G1 X72.845 Y31.264 E10.82173
G1 X72.393 Y31.398 E10.84761
G1 X71.849 Y31.601 E10.87947
G1 X71.428 Y31.793 E10.90486
G1 X71.12 Y31.958 E10.92404
G1 X70.711 Y32.218 E10.95064
G1 X70.228 Y32.575 E10.9836
G1 X69.86 Y32.888 E11.01011
G1 X69.599 Y33.146 E11.03025
G1 X69.133 Y33.702 E11.07006
G1 X69.067 Y33.71 E11.07371
G1 X69.063 Y33.66 E11.07646
G1 X68.132 Y33.751 E11.1278
G1 X65.296 Y33.946 E11.28381
G1 X64.15 Y33.991 E11.34675
G1 X63.41 Y33.498 E11.39554
G1 X62.847 Y33.254 E11.42922
G1 X62.244 Y33.103 E11.46333
G1 X61.658 Y33.055 E11.4956
G1 X60.238 Y33.055 E11.57353
G1 X59.736 Y33.09 E11.60114
G1 X59.136 Y33.225 E11.63489
G1 X58.56 Y33.456 E11.66895
G1 X58.058 Y33.762 E11.70122
G1 X57.659 Y34.052 E11.72828
G1 X56.749 Y34.035 E11.77823
G1 X53.892 Y33.899 E11.9352
G1 X51.059 Y33.682 E12.09113
G1 X50.846 Y33.659 E12.10289
G1 X50.604 Y33.367 E12.1237
G1 X50.271 Y33.02 E12.15009
G1 X49.829 Y32.621 E12.18277
G1 X49.467 Y32.335 E12.20809
G1 X48.931 Y31.99 E12.24307
G1 X48.613 Y31.815 E12.26299
G1 X48.184 Y31.615 E12.28897
G1 X47.636 Y31.407 E12.32113
G1 X47.176 Y31.269 E12.34749
G1 X46.819 Y31.189 E12.36757
G1 X46.335 Y31.114 E12.39445
G1 X45.716 Y31.067 E12.42851
G1 X45.094 Y31.075 E12.46265
G1 X44.502 Y31.139 E12.49533
G1 X44.068 Y31.212 E12.51948
G1 X43.412 Y31.39 E12.55678
G1 X42.708 Y31.661 E12.59818
G1 X42.076 Y31.969 E12.63677
G1 X41.398 Y32.374 E12.68011
G1 X41.114 Y32.571 E12.69908
G1 X40.547 Y33.015 E12.7386
G1 X39.97 Y33.548 E12.7817
G1 X39.283 Y34.341 E12.83928
G1 X38.829 Y34.985 E12.88253
G1 X38.643 Y35.295 E12.90237
G1 X38.314 Y35.919 E12.94108
G1 X38.22 Y36.137 E12.95411
G0 F810 X38.01 Y36.626
G0 F900 X38.385 Y36.767
G1 X38.087 Y37.74 E13.00995
G1 X37.944 Y38.466 E13.05056
G1 X37.858 Y39.514 E13.10827
G1 X37.871 Y40.085 E13.13961
G1 X38.015 Y41.359 E13.20997
G1 X38.124 Y42.387 E13.2667
G1 X37.914 Y42.848 E13.29451
G1 X37.567 Y43.556 E13.33778
G1 X37.262 Y43.624 E13.35492
G1 X36.748 Y43.833 E13.38538
G1 X36.288 Y44.113 E13.41493
G1 X35.293 Y44.838 E13.48249
G1 X34.945 Y45.129 E13.50739
G1 X34.58 Y45.543 E13.53768
G1 X34.286 Y46.012 E13.56805
G1 X34.078 Y46.51 E13.59767
G1 X33.697 Y47.677 E13.66504
G1 X33.585 Y48.126 E13.69044
G1 X33.533 Y48.677 E13.72081
G1 X33.571 Y49.231 E13.75129
G1 X33.697 Y49.755 E13.78086
G1 X34.077 Y50.922 E13.84822
G1 X34.246 Y51.342 E13.87306
G1 X34.526 Y51.817 E13.90332
G1 X34.882 Y52.244 E13.93383
G1 X35.29 Y52.595 E13.96337
G1 X36.286 Y53.32 E14.03097
G1 X36.677 Y53.565 E14.0563
G1 X36.863 Y53.645 E14.06741
G1 X37.556 Y56.557 E14.23168
G1 X38.134 Y59.359 E14.38869
G1 X38.631 Y62.177 E14.54572
G1 X39.043 Y64.992 E14.70185
G1 X39.011 Y66.053 E14.76011
G1 X38.968 Y67.215 E14.82392
G1 X38.915 Y68.382 E14.88803
G1 X38.853 Y69.566 E14.9531
G1 X38.783 Y70.707 E15.01583
G1 X38.704 Y71.866 E15.07958
G1 X38.614 Y73.025 E15.14338
G1 X38.515 Y74.188 E15.20744
G1 X38.409 Y75.338 E15.27082
G1 X38.29 Y76.496 E15.3347
G1 X38.163 Y77.653 E15.39858
G1 X38.027 Y78.801 E15.46202
G1 X37.884 Y79.924 E15.52415
G1 X37.858 Y80.355 E15.54784
G1 X37.879 Y81.089 E15.58814
G1 X37.966 Y81.768 E15.62571
G1 X38.098 Y82.413 E15.66184
G1 X38.287 Y83.079 E15.69983
G1 X38.678 Y84.034 E15.75646
G1 X38.864 Y84.402 E15.77909
G1 X39.209 Y84.983 E15.81617
G1 X39.45 Y85.335 E15.83959
G1 X39.859 Y85.854 E15.87585
G1 X40.348 Y86.377 E15.91514
G1 X40.843 Y86.817 E15.95149
G1 X41.132 Y87.036 E15.97139
G1 X41.68 Y87.405 E16.00764
G1 X42.32 Y87.76 E16.04781
G1 X42.879 Y88.007 E16.08135
G1 X43.235 Y88.134 E16.10209
G1 X43.87 Y88.318 E16.13837
G1 X44.614 Y88.464 E16.17998
G1 X44.974 Y88.504 E16.19986
G1 X45.631 Y88.538 E16.23596
G1 X46.393 Y88.509 E16.27781
G1 X46.753 Y88.466 E16.29771
G1 X47.405 Y88.347 E16.33408
G1 X48.142 Y88.145 E16.37602
G1 X48.482 Y88.018 E16.39594
G1 X49.09 Y87.752 E16.43236
G1 X49.532 Y87.518 E16.4598
G1 X50.119 Y87.143 E16.49803
G1 X50.671 Y86.722 E16.53613
G1 X51.148 Y86.282 E16.57174
G1 X51.531 Y85.855 E16.60322
G1 X51.71 Y85.833 E16.61312
G1 X51.71 Y85.91 E16.61734
G1 X52.425 Y85.844 E16.65675
G1 X55.281 Y85.666 E16.81379
G1 X58.14 Y85.57 E16.97078
G1 X61.002 Y85.558 E17.12784
G1 X63.862 Y85.628 E17.28484
G1 X66.719 Y85.782 E17.44186
G1 X68.525 Y85.932 E17.54131
G1 X68.991 Y86.412 E17.57803
G1 X69.475 Y86.839 E17.61345
G1 X70.07 Y87.278 E17.65403
G1 X70.607 Y87.599 E17.68836
G1 X70.935 Y87.764 E17.70851
G1 X71.555 Y88.033 E17.7456
G1 X72.261 Y88.267 E17.78642
G1 X72.63 Y88.355 E17.80724
G1 X73.32 Y88.476 E17.84568
G1 X73.8 Y88.523 E17.87215
G1 X74.458 Y88.537 E17.90827
G1 X75.231 Y88.484 E17.95079
G1 X75.569 Y88.432 E17.96956
G1 X76.223 Y88.294 E18.00624
G1 X76.934 Y88.078 E18.04702
G1 X77.283 Y87.938 E18.06765
G1 X77.884 Y87.654 E18.10413
G1 X78.512 Y87.288 E18.14402
G1 X79.035 Y86.912 E18.17937
G1 X79.31 Y86.683 E18.19901
G1 X79.797 Y86.228 E18.23559
G1 X80.127 Y85.87 E18.26231
G1 X80.562 Y85.318 E18.30088
G1 X80.808 Y84.957 E18.32485
G1 X81.166 Y84.348 E18.36362
G1 X81.359 Y83.961 E18.38735
G1 X81.625 Y83.323 E18.42529
G1 X81.764 Y82.915 E18.44894
G1 X81.943 Y82.246 E18.48695
G1 X82.024 Y81.838 E18.50977
G1 X82.11 Y81.183 E18.54603
G1 X82.138 Y80.788 E18.56776
G1 X82.141 Y80.351 E18.59174
G1 X82.115 Y79.922 E18.61533
G1 X81.965 Y78.742 E18.68061
G1 X81.828 Y77.593 E18.74411
G1 X81.702 Y76.436 E18.80798
G1 X81.585 Y75.281 E18.87169
G1 X81.477 Y74.128 E18.93524
G1 X81.38 Y72.966 E18.99924
G1 X81.291 Y71.806 E19.06308
G1 X81.212 Y70.645 E19.12694
G1 X81.142 Y69.508 E19.18946
G1 X81.08 Y68.325 E19.25447
G1 X81.028 Y67.154 E19.3188
G1 X80.985 Y65.992 E19.38261
G1 X80.951 Y64.825 E19.44668
G1 X80.925 Y63.681 E19.50948
G1 X80.908 Y62.491 E19.57479
G1 X80.901 Y60.041 E19.70925
G1 X80.912 Y58.799 E19.77741
G1 X80.932 Y57.536 E19.84673
G1 X80.96 Y56.317 E19.91365
G1 X80.997 Y55.074 E19.98189
G1 X81.043 Y53.837 E20.04983
G1 X81.102 Y52.536 E20.1213
G1 X81.166 Y51.296 E20.18944
G1 X81.239 Y50.055 E20.25766
G1 X81.32 Y48.82 E20.32558
G1 X81.413 Y47.573 E20.39421
G1 X81.511 Y46.333 E20.46247
G1 X81.618 Y45.089 E20.53099
G1 X81.738 Y43.792 E20.60247
G1 X81.862 Y42.545 E20.67125
G1 X81.98 Y41.432 E20.73267
G1 X82.13 Y40.079 E20.80737
G1 X82.147 Y39.599 E20.83373
G1 X82.102 Y38.875 E20.87354
G1 X82.008 Y38.197 E20.91111
G1 X81.84 Y37.46 E20.95259
G1 X81.507 Y36.499 E21.00841
G1 X81.195 Y35.827 E21.04907
G1 X80.676 Y34.966 E21.10424
G1 X80.224 Y34.362 E21.14564
G1 X79.54 Y33.631 E21.20058
G1 X78.981 Y33.141 E21.24137
G1 X78.141 Y32.556 E21.29755
G1 X77.506 Y32.2 E21.3375
G1 X76.634 Y31.83 E21.38948
G1 X75.952 Y31.626 E21.42855
G1 X75.355 Y31.517 E21.46185
G1 X74.719 Y31.464 E21.49688
G1 X73.723 Y31.51 E21.5516
G1 X73.28 Y31.576 E21.57618
G1 X72.946 Y31.651 E21.59496
G1 X72.52 Y31.778 E21.61936
G1 X72.002 Y31.971 E21.64969
G1 X71.322 Y32.304 E21.69125
G1 X70.937 Y32.548 E21.71626
G1 X70.477 Y32.888 E21.74765
G1 X70.131 Y33.183 E21.77261
G1 X69.89 Y33.421 E21.79119
G1 X69.598 Y33.752 E21.81542
G1 X69.348 Y34.078 E21.83796
G1 X68.703 Y34.158 E21.87363
G1 X68.698 Y34.098 E21.87694
G1 X68.165 Y34.15 E21.90633
G1 X65.312 Y34.346 E22.06326
G1 X64.027 Y34.397 E22.13384
G1 X63.614 Y34.096 E22.16189
G1 X63.224 Y33.853 E22.1871
G1 X62.718 Y33.634 E22.21736
G1 X62.179 Y33.499 E22.24786
G1 X61.642 Y33.455 E22.27742
G1 X60.252 Y33.455 E22.35371
G1 X59.794 Y33.487 E22.3789
G1 X59.255 Y33.608 E22.40922
G1 X58.74 Y33.815 E22.43968
G1 X58.28 Y34.095 E22.46923
G1 X57.786 Y34.455 E22.50278
G1 X56.73 Y34.435 E22.56074
G1 X53.873 Y34.299 E22.71771
G1 X51.019 Y34.08 E22.87479
G1 X50.626 Y34.038 E22.89648
G1 X50.306 Y33.634 E22.92477
G1 X49.992 Y33.307 E22.94965
G1 X49.571 Y32.927 E22.98077
G1 X48.99 Y32.495 E23.0205
G1 X48.432 Y32.172 E23.05589
G1 X48.028 Y31.984 E23.08034
G1 X47.507 Y31.786 E23.11093
G1 X47.074 Y31.656 E23.13574
G1 X46.745 Y31.582 E23.15424
G1 X46.289 Y31.512 E23.17956
G1 X45.703 Y31.467 E23.21182
G1 X45.118 Y31.475 E23.24392
G1 X44.557 Y31.535 E23.27489
G1 X43.865 Y31.672 E23.3136
G1 X43.198 Y31.89 E23.35211
G1 X42.873 Y32.026 E23.37144
G1 X42.261 Y32.324 E23.4088
G1 X41.619 Y32.707 E23.44983
G1 X40.802 Y33.324 E23.50601
G1 X40.256 Y33.828 E23.54679
G1 X39.597 Y34.59 E23.60208
G1 X39.167 Y35.199 E23.64299
G1 X38.673 Y36.096 E23.69919
G1 X38.594 Y36.278 E23.71008
G0 F810 X38.385 Y36.767
G0 F900 X38.658 Y37.202
G1 X38.904 Y36.55 E23.74832
G1 X39.341 Y35.687 E23.80141
G1 X39.724 Y35.087 E23.84047
G1 X40.325 Y34.342 E23.893
G1 X40.82 Y33.839 E23.93173
G1 X41.59 Y33.215 E23.98612
G1 X42.159 Y32.839 E24.02355
G1 X43.038 Y32.391 E24.07769
G1 X43.66 Y32.15 E24.1143
G1 X44.228 Y31.996 E24.1466
G1 X44.611 Y31.931 E24.16792
G1 X45.142 Y31.875 E24.19722
G1 X45.69 Y31.867 E24.2273
G1 X46.243 Y31.91 E24.25774
G1 X46.671 Y31.975 E24.28149
G1 X47.378 Y32.165 E24.32167
G1 X47.872 Y32.353 E24.35068
G1 X48.529 Y32.682 E24.391
G1 X48.993 Y32.981 E24.42129
G1 X49.313 Y33.233 E24.44365
G1 X49.713 Y33.594 E24.47322
G1 X50.197 Y34.128 E24.51277
G1 X50.438 Y34.461 E24.53533
G1 X50.729 Y34.928 E24.56552
G1 X50.977 Y35.423 E24.59591
G1 X51.174 Y35.927 E24.6256
G1 X51.299 Y36.325 E24.6485
G1 X51.426 Y36.926 E24.68221
G1 X51.488 Y37.572 E24.71782
G1 X51.5 Y39.292 E24.81222
G1 X51.507 Y39.436 E24.82013
G1 X51.63 Y39.449 E24.82692
G1 X55.79 Y39.449 E25.05522
G1 X55.744 Y38.898 E25.08556
G1 X55.793 Y38.411 E25.11242
G1 X55.891 Y38.022 E25.13444
G1 X56.311 Y36.729 E25.20904
G1 X56.499 Y36.278 E25.23586
G1 X56.759 Y35.863 E25.26273
G1 X57.083 Y35.495 E25.28964
G1 X57.4 Y35.229 E25.31235
G1 X58.502 Y34.428 E25.38712
G1 X58.92 Y34.174 E25.41396
G1 X59.374 Y33.991 E25.44082
G1 X59.852 Y33.884 E25.4677
G1 X60.266 Y33.855 E25.49048
G1 X61.626 Y33.855 E25.56512
G1 X62.114 Y33.895 E25.59199
G1 X62.589 Y34.014 E25.61886
G1 X63.038 Y34.208 E25.6457
G1 X63.39 Y34.428 E25.66848
G1 X64.492 Y35.229 E25.74325
G1 X64.896 Y35.588 E25.77291
G1 X65.391 Y35.628 E25.80016
