;FLAVOR:Marlin
;TIME:10402
;Filament used: 6.4994m
;Layer height: 0.24
;MINX:4.826
;MINY:1.855
;MINZ:0.3
;MAXX:115.174
;MAXY:118.15
;MAXZ:9.66
;Generated with Cura_SteamEngine 4.9.1
M104 S210
M105
M109 S210
M82 ;absolute extrusion mode
;Sliced at: Thu 17-06-2021 23:17:39
G21 ;metric values
G90 ;absolute positioning
M82 ;set extruder to absolute mode
M107 ;start with the fan off
G1 Z5.0 F1800 ;move Z to 5mm
G28 X0 Y0 F1800 ;move X/Y to min endstops
G28 Z0 ;move Z to min endstop
G92 E0 ;zero the extruded length
G1 F200 E6.0 ;extrude 6.0mm of feed stock to build pressure
G1 Z5.0 F300 ;move the platform down 5mm
G92 E0 ;zero the extruded length again
G1 F1800
;Put printing message on LCD screen
M117 Printing...
G92 E0
G92 E0
G1 F1500 E-0.6
;LAYER_COUNT:41
;LAYER:0
M106 S102
G0 F1440 X20.323 Y20.106 Z0.3
;TYPE:SKIRT
G1 F1500 E0.75698
G1 F1200 X21.457 Y18.971 E0.83795
G1 X21.53 Y18.899 E0.84312
G1 X22.608 Y17.885 E0.91781
G1 X22.783 Y17.725 E0.92977
G1 X23.684 Y16.923 E0.99065
G1 X23.903 Y16.734 E1.00525
G1 X24.886 Y15.9 E1.0703
G1 X25.094 Y15.728 E1.08392
G1 X26.006 Y14.989 E1.14316
G1 X26.303 Y14.755 E1.16224
G1 X27.15 Y14.099 E1.21631
G1 X27.486 Y13.845 E1.23756
G1 X28.31 Y13.234 E1.28933
G1 X28.7 Y12.95 E1.31368
G1 X29.424 Y12.434 E1.35854
G1 X29.851 Y12.136 E1.38482
G1 X30.606 Y11.617 E1.43106
G1 X30.979 Y11.365 E1.45377
G1 X31.834 Y10.8 E1.50549
G1 X32.417 Y10.423 E1.54053
G1 X33.501 Y9.739 E1.60521
G1 X33.98 Y9.445 E1.63358
G1 X35.058 Y8.804 E1.69687
G1 X35.461 Y8.57 E1.72039
G1 X36.803 Y7.822 E1.79792
G1 X37.012 Y7.711 E1.80986
G1 X38.45 Y6.965 E1.89162
G1 X38.618 Y6.882 E1.90107
G1 X40.11 Y6.169 E1.98452
G1 X40.386 Y6.043 E1.99983
G1 X41.547 Y5.531 E2.06387
G1 X42.272 Y5.23 E2.10348
G1 X43.109 Y4.9 E2.14889
G1 X43.97 Y4.578 E2.19528
G1 X44.909 Y4.25 E2.24547
G1 X45.764 Y3.971 E2.29086
G1 X46.647 Y3.702 E2.33744
G1 X47.592 Y3.437 E2.38697
G1 X48.54 Y3.194 E2.43636
G1 X49.454 Y2.979 E2.48374
G1 X50.451 Y2.768 E2.53517
G1 X51.399 Y2.59 E2.58385
G1 X52.341 Y2.433 E2.63204
G1 X53.368 Y2.284 E2.68441
G1 X54.345 Y2.164 E2.73409
G1 X55.32 Y2.064 E2.78355
G1 X56.382 Y1.978 E2.83732
G1 X57.429 Y1.916 E2.89025
G1 X58.444 Y1.876 E2.94151
G1 X59.505 Y1.855 E2.99507
G1 X60.495 Y1.855 E3.04503
G1 X61.623 Y1.878 E3.10196
G1 X62.641 Y1.919 E3.15338
G1 X63.689 Y1.983 E3.20636
G1 X64.751 Y2.071 E3.26014
G1 X65.725 Y2.172 E3.30956
G1 X66.707 Y2.294 E3.3595
G1 X67.727 Y2.444 E3.41152
G1 X68.674 Y2.603 E3.45998
G1 X69.622 Y2.784 E3.50869
G1 X70.621 Y2.996 E3.56023
G1 X71.526 Y3.21 E3.60716
G1 X72.485 Y3.458 E3.65715
G1 X73.421 Y3.722 E3.70622
G1 X74.308 Y3.993 E3.75303
G1 X75.153 Y4.272 E3.79794
G1 X76.098 Y4.603 E3.84847
G1 X76.944 Y4.92 E3.89406
G1 X77.789 Y5.254 E3.93991
G1 X78.521 Y5.56 E3.97995
G1 X79.656 Y6.062 E4.04258
G1 X79.944 Y6.195 E4.05859
G1 X81.436 Y6.908 E4.14204
G1 X81.594 Y6.988 E4.15098
G1 X83.032 Y7.734 E4.23273
G1 X83.247 Y7.85 E4.24506
G1 X84.595 Y8.602 E4.32296
G1 X84.97 Y8.82 E4.34485
G1 X86.062 Y9.471 E4.409
G1 X86.534 Y9.761 E4.43696
G1 X87.614 Y10.443 E4.50142
G1 X88.195 Y10.819 E4.53635
G1 X89.051 Y11.385 E4.58813
G1 X89.413 Y11.63 E4.61019
G1 X90.167 Y12.149 E4.65639
G1 X90.605 Y12.454 E4.68332
G1 X91.324 Y12.968 E4.72792
G1 X91.718 Y13.254 E4.75249
G1 X92.542 Y13.867 E4.80432
G1 X92.878 Y14.122 E4.82561
G1 X93.725 Y14.777 E4.87964
G1 X94.027 Y15.016 E4.89908
G1 X94.93 Y15.748 E4.95774
G1 X95.149 Y15.929 E4.97208
G1 X96.121 Y16.754 E5.03642
G1 X96.362 Y16.963 E5.05252
G1 X97.391 Y17.884 E5.12221
G1 X98.469 Y18.897 E5.19686
G1 X98.547 Y18.973 E5.20235
G1 X99.674 Y20.104 E5.28293
G1 X100.689 Y21.184 E5.35772
G1 X100.769 Y21.273 E5.36376
G1 X101.793 Y22.443 E5.44223
G1 X101.87 Y22.534 E5.44824
G1 X102.98 Y23.897 E5.53695
G1 X103.719 Y24.866 E5.59845
G1 X104.137 Y25.441 E5.63433
G1 X104.66 Y26.192 E5.68051
G1 X105.135 Y26.904 E5.7237
G1 X105.592 Y27.619 E5.76653
G1 X106.007 Y28.3 E5.80677
G1 X106.504 Y29.157 E5.85677
G1 X107.007 Y30.067 E5.90924
G1 X107.465 Y30.945 E5.95921
G1 X107.902 Y31.831 E6.00907
G1 X108.324 Y32.736 E6.05946
G1 X108.738 Y33.676 E6.1113
G1 X109.116 Y34.585 E6.16098
G1 X109.494 Y35.54 E6.21281
G1 X109.834 Y36.454 E6.26202
G1 X110.195 Y37.484 E6.3171
G1 X110.525 Y38.483 E6.3702
G1 X110.833 Y39.481 E6.4229
G1 X111.12 Y40.469 E6.47483
G1 X111.374 Y41.395 E6.52328
G1 X111.59 Y42.236 E6.5671
G1 X111.851 Y43.318 E6.62327
G1 X112.059 Y44.248 E6.67136
G1 X112.148 Y44.66 E6.69263
G1 X112.356 Y45.678 E6.74507
G1 X112.43 Y46.056 E6.76451
G1 X112.609 Y47.012 E6.81359
G1 X112.695 Y47.499 E6.83855
G1 X112.827 Y48.275 E6.87827
G1 X112.936 Y48.957 E6.91313
G1 X113.047 Y49.674 E6.94974
G1 X113.138 Y50.303 E6.98181
G1 X113.236 Y51.001 E7.01738
G1 X113.395 Y52.23 E7.07992
G1 X113.515 Y53.236 E7.13105
G1 X113.647 Y54.445 E7.19243
G1 X113.713 Y55.12 E7.22665
G1 X113.885 Y57.002 E7.32202
G1 X113.966 Y57.994 E7.37225
G1 X114.097 Y59.783 E7.46278
G1 X114.142 Y60.449 E7.49646
G1 X114.259 Y62.398 E7.595
G1 X114.346 Y64.028 E7.67737
G1 X114.414 Y65.454 E7.74942
G1 X114.479 Y66.917 E7.82332
G1 X114.546 Y68.523 E7.90444
G1 X114.672 Y71.784 E8.06913
G1 X114.775 Y74.643 E8.2135
G1 X114.936 Y79.283 E8.4478
G1 X114.991 Y80.999 E8.53445
G1 X115.045 Y82.926 E8.63173
G1 X115.081 Y84.364 E8.70432
G1 X115.121 Y86.264 E8.80023
G1 X115.144 Y87.65 E8.87018
G1 X115.159 Y88.897 E8.93312
G1 X115.171 Y90.78 E9.02814
G1 X115.174 Y91.94 E9.08668
G1 X115.167 Y93.873 E9.18423
G1 X115.147 Y96.282 E9.30581
G1 X115.124 Y97.989 E9.39196
G1 X115.09 Y99.937 E9.49028
G1 X114.961 Y106.629 E9.82806
G1 X114.928 Y108.637 E9.92941
G1 X114.909 Y110.251 E10.01086
G1 X114.902 Y111.35 E10.06633
G1 X114.9 Y114.109 E10.20556
G1 X114.89 Y114.79 E10.23993
G1 X114.842 Y115.309 E10.26623
G1 X114.716 Y115.815 E10.29255
G1 X114.514 Y116.295 E10.31883
G1 X114.24 Y116.739 E10.34516
G1 X113.903 Y117.136 E10.37144
G1 X113.508 Y117.476 E10.39774
G1 X113.066 Y117.752 E10.42404
G1 X112.587 Y117.958 E10.45035
G1 X112.083 Y118.088 E10.47662
G1 X111.255 Y118.148 E10.51851
G1 X111.154 Y118.15 E10.52361
G1 X9.163 Y118.15 E15.67062
G1 X8.465 Y118.141 E15.70585
G1 X7.946 Y118.094 E15.73214
G1 X7.44 Y117.969 E15.75845
G1 X6.96 Y117.767 E15.78473
G1 X6.515 Y117.495 E15.81105
G1 X6.118 Y117.158 E15.83733
G1 X5.776 Y116.764 E15.86366
G1 X5.499 Y116.323 E15.88994
G1 X5.293 Y115.844 E15.91625
G1 X5.162 Y115.34 E15.94253
G1 X5.11 Y114.826 E15.9686
G1 X5.1 Y114.383 E15.99097
G1 X5.098 Y111.331 E16.14499
G1 X5.09 Y110.088 E16.20772
G1 X5.084 Y109.501 E16.23734
G1 X5.054 Y107.355 E16.34565
G1 X4.988 Y104.027 E16.51363
G1 X4.988 Y103.901 E16.51999
G1 X4.924 Y100.695 E16.68181
G1 X4.881 Y98.244 E16.80552
G1 X4.853 Y96.258 E16.90576
G1 X4.83 Y93.382 E17.0509
G1 X4.826 Y91.92 E17.12468
G1 X4.829 Y90.768 E17.18282
G1 X4.841 Y88.878 E17.2782
G1 X4.857 Y87.634 E17.34098
G1 X4.889 Y85.78 E17.43456
G1 X4.919 Y84.347 E17.50689
G1 X4.964 Y82.592 E17.59549
G1 X5.01 Y80.988 E17.67647
G1 X5.064 Y79.274 E17.76301
G1 X5.225 Y74.638 E17.9971
G1 X5.333 Y71.628 E18.1491
G1 X5.441 Y68.808 E18.29152
G1 X5.594 Y65.277 E18.46988
G1 X5.655 Y64.007 E18.53404
G1 X5.742 Y62.375 E18.61652
G1 X5.86 Y60.426 E18.71506
G1 X5.904 Y59.76 E18.74874
G1 X6.036 Y57.967 E18.83947
G1 X6.118 Y56.97 E18.88995
G1 X6.289 Y55.096 E18.98492
G1 X6.357 Y54.409 E19.01976
G1 X6.489 Y53.202 E19.08103
G1 X6.609 Y52.196 E19.13216
G1 X6.77 Y50.958 E19.19516
G1 X6.958 Y49.644 E19.26215
G1 X7.067 Y48.933 E19.29845
G1 X7.178 Y48.247 E19.33352
G1 X7.309 Y47.474 E19.37308
G1 X7.397 Y46.98 E19.39841
G1 X7.575 Y46.032 E19.44708
G1 X7.65 Y45.644 E19.46703
G1 X7.859 Y44.629 E19.51932
G1 X7.948 Y44.217 E19.5406
G1 X8.179 Y43.189 E19.59377
G1 X8.421 Y42.191 E19.64559
G1 X8.64 Y41.342 E19.68984
G1 X8.895 Y40.415 E19.73836
G1 X9.183 Y39.426 E19.79034
G1 X9.495 Y38.422 E19.8434
G1 X9.838 Y37.385 E19.89852
G1 X10.188 Y36.393 E19.95161
G1 X10.533 Y35.47 E20.00133
G1 X10.906 Y34.527 E20.05251
G1 X11.291 Y33.607 E20.10284
G1 X11.706 Y32.672 E20.15446
G1 X12.131 Y31.763 E20.2051
G1 X12.572 Y30.874 E20.25518
G1 X13.03 Y30 E20.30498
G1 X13.531 Y29.095 E20.35718
G1 X14.033 Y28.232 E20.40756
G1 X14.409 Y27.618 E20.4439
G1 X14.904 Y26.844 E20.49026
G1 X15.377 Y26.137 E20.53319
G1 X15.9 Y25.389 E20.57925
G1 X16.284 Y24.862 E20.61216
G1 X17.023 Y23.895 E20.67358
G1 X18.127 Y22.536 E20.76194
G1 X18.208 Y22.44 E20.76827
G1 X19.233 Y21.271 E20.84673
G1 X19.309 Y21.187 E20.85245
G1 X19.959 Y20.494 E20.9004
G0 F1080 X20.323 Y20.106
G0 F1440 X20.615 Y20.38
G1 F1200 X21.74 Y19.254 E20.98073
G1 X22.883 Y18.177 E21.05998
G1 X23.05 Y18.024 E21.07141
G1 X23.945 Y17.226 E21.13192
G1 X24.162 Y17.039 E21.14638
G1 X25.14 Y16.208 E21.21114
G1 X25.346 Y16.038 E21.22462
G1 X26.254 Y15.303 E21.28358
G1 X26.548 Y15.071 E21.30248
G1 X27.391 Y14.418 E21.35629
G1 X27.725 Y14.166 E21.3774
G1 X28.545 Y13.557 E21.42895
G1 X28.932 Y13.276 E21.45309
G1 X29.653 Y12.762 E21.49777
G1 X30.077 Y12.466 E21.52387
G1 X30.83 Y11.948 E21.56999
G1 X31.2 Y11.698 E21.59252
G1 X32.051 Y11.136 E21.64399
G1 X32.63 Y10.761 E21.6788
G1 X33.71 Y10.08 E21.74324
G1 X34.185 Y9.789 E21.77135
G1 X35.26 Y9.149 E21.83448
G1 X35.656 Y8.919 E21.85759
G1 X36.992 Y8.175 E21.93477
G1 X37.196 Y8.066 E21.94644
G1 X38.589 Y7.343 E22.02564
G1 X38.79 Y7.243 E22.03697
G1 X40.276 Y6.532 E22.1201
G1 X40.547 Y6.409 E22.13512
G1 X41.7 Y5.9 E22.19873
G1 X42.419 Y5.602 E22.238
G1 X43.249 Y5.275 E22.28302
G1 X44.103 Y4.956 E22.32903
G1 X45.033 Y4.63 E22.37876
G1 X45.881 Y4.353 E22.42378
G1 X46.756 Y4.087 E22.46993
G1 X47.692 Y3.824 E22.519
G1 X48.632 Y3.583 E22.56797
G1 X49.537 Y3.37 E22.61489
G1 X50.525 Y3.161 E22.66585
G1 X51.465 Y2.984 E22.71412
G1 X52.399 Y2.829 E22.7619
G1 X53.417 Y2.681 E22.81382
G1 X54.386 Y2.562 E22.86309
G1 X55.352 Y2.463 E22.91209
G1 X56.406 Y2.377 E22.96546
G1 X57.445 Y2.315 E23.01798
G1 X58.453 Y2.276 E23.06889
G1 X59.505 Y2.255 E23.12199
G1 X60.495 Y2.255 E23.17195
G1 X61.607 Y2.277 E23.22808
G1 X62.617 Y2.318 E23.27909
G1 X63.656 Y2.382 E23.33163
G1 X64.71 Y2.469 E23.385
G1 X65.676 Y2.569 E23.43401
G1 X66.649 Y2.69 E23.48349
G1 X67.661 Y2.838 E23.5351
G1 X68.599 Y2.996 E23.5831
G1 X69.539 Y3.175 E23.63139
G1 X70.529 Y3.385 E23.68247
G1 X71.426 Y3.597 E23.72898
G1 X72.309 Y3.824 E23.77499
G1 X73.304 Y4.105 E23.82717
G1 X74.183 Y4.373 E23.87354
G1 X75.021 Y4.649 E23.91807
G1 X75.958 Y4.978 E23.96818
G1 X76.798 Y5.292 E24.01344
G1 X77.635 Y5.623 E24.05886
G1 X78.36 Y5.926 E24.09852
G1 X79.489 Y6.425 E24.16081
G1 X79.772 Y6.555 E24.17652
G1 X81.209 Y7.242 E24.2569
G1 X81.41 Y7.343 E24.26826
G1 X82.842 Y8.086 E24.34967
G1 X83.052 Y8.199 E24.36171
G1 X84.393 Y8.947 E24.4392
G1 X84.765 Y9.164 E24.46093
G1 X85.853 Y9.812 E24.52484
G1 X86.32 Y10.1 E24.55253
G1 X87.397 Y10.779 E24.61678
G1 X87.974 Y11.152 E24.65145
G1 X88.827 Y11.716 E24.70305
G1 X89.186 Y11.959 E24.72493
G1 X89.939 Y12.477 E24.77106
G1 X90.372 Y12.78 E24.79773
G1 X91.089 Y13.291 E24.84216
G1 X91.479 Y13.575 E24.86651
G1 X92.3 Y14.185 E24.91812
G1 X92.634 Y14.438 E24.93927
G1 X93.476 Y15.09 E24.99301
G1 X93.776 Y15.327 E25.0123
G1 X94.653 Y16.037 E25.06925
G1 X94.891 Y16.234 E25.08484
G1 X95.86 Y17.057 E25.149
G1 X96.096 Y17.262 E25.16477
G1 X97.117 Y18.176 E25.23393
G1 X98.195 Y19.189 E25.30858
G1 X98.264 Y19.256 E25.31343
G1 X99.382 Y20.377 E25.39333
G1 X100.397 Y21.457 E25.46812
G1 X101.492 Y22.706 E25.55195
G1 X101.56 Y22.786 E25.55725
G1 X102.601 Y24.063 E25.64039
G1 X103.441 Y25.163 E25.71024
G1 X103.809 Y25.67 E25.74185
G1 X104.328 Y26.414 E25.78763
G1 X104.798 Y27.119 E25.83039
G1 X105.251 Y27.828 E25.87285
G1 X105.661 Y28.501 E25.91262
G1 X106.154 Y29.35 E25.96217
G1 X106.653 Y30.252 E26.01419
G1 X107.107 Y31.123 E26.06375
G1 X107.539 Y32 E26.11309
G1 X107.958 Y32.898 E26.1631
G1 X108.369 Y33.83 E26.2145
G1 X108.745 Y34.732 E26.26382
G1 X109.119 Y35.68 E26.31525
G1 X109.457 Y36.587 E26.3641
G1 X109.815 Y37.61 E26.41879
G1 X110.143 Y38.602 E26.47152
G1 X110.449 Y39.593 E26.52386
G1 X110.735 Y40.574 E26.57543
G1 X110.986 Y41.495 E26.6236
G1 X111.201 Y42.33 E26.66711
G1 X111.46 Y43.405 E26.72292
G1 X111.668 Y44.332 E26.77086
G1 X111.756 Y44.741 E26.79197
G1 X111.964 Y45.754 E26.84416
G1 X112.037 Y46.13 E26.86349
G1 X112.215 Y47.082 E26.91237
G1 X112.301 Y47.566 E26.93717
G1 X112.432 Y48.339 E26.97674
G1 X112.541 Y49.018 E27.01144
G1 X112.651 Y49.732 E27.0479
G1 X112.742 Y50.359 E27.07987
G1 X112.839 Y51.052 E27.11519
G1 X112.998 Y52.277 E27.17753
G1 X113.117 Y53.28 E27.2285
G1 X113.249 Y54.484 E27.28962
G1 X113.315 Y55.156 E27.3237
G1 X113.486 Y57.034 E27.41886
G1 X113.567 Y58.024 E27.46899
G1 X113.698 Y59.81 E27.55937
G1 X113.743 Y60.473 E27.5929
G1 X113.86 Y62.419 E27.69128
G1 X113.947 Y64.046 E27.77351
G1 X114.014 Y65.472 E27.84555
G1 X114.079 Y66.934 E27.9194
G1 X114.147 Y68.539 E28.00047
G1 X114.272 Y71.799 E28.16511
G1 X114.375 Y74.657 E28.30943
G1 X114.536 Y79.296 E28.54368
G1 X114.591 Y81.011 E28.63028
G1 X114.645 Y82.936 E28.72746
G1 X114.681 Y84.372 E28.79995
G1 X114.721 Y86.271 E28.89581
G1 X114.744 Y87.655 E28.96566
G1 X114.759 Y88.9 E29.02849
G1 X114.771 Y90.781 E29.12342
G1 X114.774 Y91.939 E29.18186
G1 X114.767 Y93.87 E29.27931
G1 X114.747 Y96.277 E29.40078
G1 X114.724 Y97.982 E29.48683
G1 X114.69 Y99.929 E29.58511
G1 X114.561 Y106.622 E29.92293
G1 X114.528 Y108.63 E30.02428
G1 X114.509 Y110.246 E30.10584
G1 X114.502 Y111.348 E30.16145
G1 X114.5 Y114.103 E30.30048
G1 X114.49 Y114.784 E30.33485
G1 X114.443 Y115.271 E30.35955
G1 X114.317 Y115.744 E30.38425
G1 X114.116 Y116.191 E30.40898
G1 X113.845 Y116.598 E30.43366
G1 X113.512 Y116.957 E30.45837
G1 X113.124 Y117.256 E30.48309
G1 X112.693 Y117.488 E30.50779
G1 X112.23 Y117.647 E30.53249
G1 X111.579 Y117.739 E30.56567
G1 X111.154 Y117.75 E30.58713
G1 X9.168 Y117.75 E35.73388
G1 X8.47 Y117.741 E35.76911
G1 X7.983 Y117.695 E35.7938
G1 X7.51 Y117.57 E35.81849
G1 X7.063 Y117.37 E35.8432
G1 X6.655 Y117.099 E35.86792
G1 X6.296 Y116.766 E35.89263
G1 X5.996 Y116.38 E35.9173
G1 X5.763 Y115.949 E35.94202
G1 X5.603 Y115.487 E35.9667
G1 X5.51 Y114.816 E36.00088
G1 X5.5 Y114.383 E36.02274
G1 X5.498 Y111.331 E36.17676
G1 X5.49 Y110.085 E36.23964
G1 X5.484 Y109.497 E36.26932
G1 X5.454 Y107.349 E36.37773
G1 X5.388 Y104.027 E36.54541
G1 X5.388 Y103.901 E36.55177
G1 X5.323 Y100.688 E36.71394
G1 X5.281 Y98.239 E36.83755
G1 X5.253 Y96.255 E36.93768
G1 X5.23 Y93.381 E37.08273
G1 X5.226 Y91.921 E37.15641
G1 X5.229 Y90.771 E37.21444
G1 X5.241 Y88.883 E37.30972
G1 X5.256 Y87.641 E37.3724
G1 X5.289 Y85.788 E37.46593
G1 X5.319 Y84.358 E37.53811
G1 X5.364 Y82.603 E37.62671
G1 X5.41 Y81.001 E37.70759
G1 X5.464 Y79.288 E37.79408
G1 X5.625 Y74.652 E38.02817
G1 X5.733 Y71.644 E38.18007
G1 X5.841 Y68.825 E38.32244
G1 X5.993 Y65.296 E38.5007
G1 X6.054 Y64.028 E38.56476
G1 X6.141 Y62.399 E38.64708
G1 X6.259 Y60.453 E38.74547
G1 X6.303 Y59.79 E38.779
G1 X6.435 Y57.999 E38.86963
G1 X6.516 Y57.006 E38.91991
G1 X6.687 Y55.135 E39.01472
G1 X6.755 Y54.453 E39.04931
G1 X6.886 Y53.249 E39.11043
G1 X7.006 Y52.247 E39.16136
G1 X7.166 Y51.014 E39.2241
G1 X7.353 Y49.705 E39.29083
G1 X7.462 Y48.997 E39.32698
G1 X7.572 Y48.314 E39.3619
G1 X7.703 Y47.544 E39.40131
G1 X7.79 Y47.054 E39.42643
G1 X7.967 Y46.108 E39.475
G1 X8.042 Y45.725 E39.49469
G1 X8.25 Y44.713 E39.54683
G1 X8.338 Y44.305 E39.56789
G1 X8.568 Y43.283 E39.62076
G1 X8.809 Y42.29 E39.67232
G1 X9.025 Y41.448 E39.71619
G1 X9.279 Y40.527 E39.76441
G1 X9.565 Y39.545 E39.81602
G1 X9.875 Y38.547 E39.86876
G1 X10.215 Y37.518 E39.92345
G1 X10.563 Y36.533 E39.97617
G1 X10.905 Y35.617 E40.02551
G1 X11.275 Y34.682 E40.07626
G1 X11.657 Y33.769 E40.1262
G1 X12.068 Y32.841 E40.17742
G1 X12.49 Y31.94 E40.22763
G1 X12.926 Y31.06 E40.27719
G1 X13.38 Y30.194 E40.32654
G1 X13.877 Y29.296 E40.37833
G1 X14.375 Y28.441 E40.42827
G1 X14.78 Y27.781 E40.46734
G1 X15.236 Y27.066 E40.51014
G1 X15.705 Y26.366 E40.55266
G1 X16.223 Y25.624 E40.59833
G1 X16.601 Y25.105 E40.63073
G1 X17.34 Y24.138 E40.69215
G1 X18.437 Y22.788 E40.77994
G1 X18.508 Y22.704 E40.78549
G1 X19.533 Y21.535 E40.86395
G1 X20.252 Y20.768 E40.917
G0 F1080 X20.615 Y20.38
G0 F1440 X20.907 Y20.653
G1 F1200 X22.022 Y19.537 E40.99661
G1 X23.181 Y18.445 E41.07697
G1 X23.316 Y18.322 E41.08619
