;FLAVOR:Marlin
;TIME:1419
;Filament used: 0.757146m
;Layer height: 0.12
;MINX:39.707
;MINY:36.464
;MINZ:0.3
;MAXX:80.285
;MAXY:83.497
;MAXZ:3.54
;Generated with Cura_SteamEngine 4.11.0
M104 S210
M105
M109 S210
M82 ;absolute extrusion mode
;Sliced at: Sat 06-11-2021 20:50:51
G21 ;metric values
G90 ;absolute positioning
M82 ;set extruder to absolute mode
M107 ;start with the fan off
G1 Z5.0 F1800 ;move Z to 5mm
G28 X0 Y0 F1800 ;move X/Y to min endstops
G28 Z0 ;move Z to min endstop
G92 E0 ;zero the extruded length
G1 F200 E6.0 ;extrude 6.0mm of feed stock to build pressure
G1 Z5.0 F300 ;move the platform down 5mm
G92 E0 ;zero the extruded length again
G1 F1800
;Put printing message on LCD screen
M117 Printing...
G92 E0
G92 E0
G1 F1500 E-5
;LAYER_COUNT:29
;LAYER:0
M107
G0 F1080 X50.939 Y42.265 Z0.3
;TYPE:SKIRT
G1 F1500 E0.70678
G1 F900 X51.526 Y41.567 E0.75683
G1 X51.755 Y41.306 E0.77588
G1 X52.146 Y40.869 E0.80806
G1 X52.358 Y40.64 E0.82519
G1 X52.833 Y40.143 E0.86292
G1 X52.964 Y40.011 E0.87312
G1 X53.556 Y39.439 E0.9183
G1 X53.736 Y39.276 E0.93163
G1 X54.257 Y38.824 E0.96948
G1 X54.866 Y38.348 E1.0119
G1 X55.009 Y38.243 E1.02164
G1 X55.489 Y37.905 E1.05385
G1 X56.058 Y37.553 E1.09057
G1 X56.578 Y37.282 E1.12275
G1 X57.281 Y36.983 E1.16468
G1 X57.92 Y36.764 E1.20175
G1 X58.513 Y36.615 E1.2353
G1 X59.189 Y36.507 E1.27287
G1 X59.703 Y36.468 E1.30116
G1 X60.078 Y36.464 E1.32174
G1 X60.813 Y36.506 E1.36214
G1 X61.394 Y36.594 E1.39439
G1 X61.887 Y36.706 E1.42214
G1 X62.63 Y36.948 E1.46502
G1 X63.316 Y37.235 E1.50583
G1 X63.833 Y37.493 E1.53754
G1 X64.296 Y37.764 E1.56698
G1 X64.539 Y37.925 E1.58298
G1 X64.994 Y38.246 E1.61353
G1 X65.496 Y38.624 E1.64802
G1 X65.821 Y38.891 E1.6711
G1 X66.341 Y39.345 E1.70899
G1 X66.524 Y39.515 E1.72269
G1 X67.004 Y39.98 E1.75937
G1 X67.578 Y40.572 E1.80462
G1 X68.205 Y41.26 E1.85571
G1 X68.545 Y41.65 E1.8841
G1 X69.081 Y42.29 E1.92991
G1 X69.844 Y43.238 E1.9967
G1 X70.531 Y44.137 E2.05879
G1 X71.217 Y45.076 E2.12261
G1 X71.993 Y46.185 E2.19689
G1 X72.681 Y47.217 E2.26496
G1 X73.367 Y48.289 E2.3348
G1 X74.074 Y49.448 E2.40931
G1 X74.686 Y50.5 E2.4761
G1 X75.323 Y51.652 E2.54834
G1 X75.98 Y52.919 E2.62667
G1 X76.035 Y53.027 E2.63332
G1 X76.613 Y54.216 E2.70587
G1 X76.672 Y54.343 E2.71355
G1 X77.187 Y55.486 E2.78235
G1 X77.248 Y55.626 E2.79074
G1 X77.746 Y56.832 E2.86234
G1 X77.804 Y56.98 E2.87106
G1 X78.26 Y58.197 E2.94239
G1 X78.319 Y58.364 E2.95211
G1 X78.722 Y59.574 E3.0221
G1 X78.777 Y59.752 E3.03232
G1 X79.203 Y61.218 E3.1161
G1 X79.246 Y61.375 E3.12504
G1 X79.45 Y62.178 E3.1705
G1 X79.535 Y62.553 E3.1916
G1 X79.763 Y63.649 E3.25304
G1 X79.831 Y64.034 E3.2745
G1 X79.974 Y64.921 E3.3238
G1 X80.036 Y65.381 E3.34927
G1 X80.186 Y66.776 E3.42627
G1 X80.231 Y67.337 E3.45716
G1 X80.239 Y67.449 E3.46332
G1 X80.268 Y68.006 E3.49393
G1 X80.283 Y68.572 E3.525
G1 X80.285 Y68.742 E3.53433
G1 X80.272 Y70.013 E3.60409
G1 X80.253 Y70.439 E3.62749
G1 X80.191 Y71.237 E3.67142
G1 X80.141 Y71.692 E3.69654
G1 X80.062 Y72.272 E3.72866
G1 X79.965 Y72.856 E3.76115
G1 X79.815 Y73.611 E3.80339
G1 X79.706 Y74.077 E3.82966
G1 X79.546 Y74.686 E3.86421
G1 X79.374 Y75.271 E3.89767
G1 X79.187 Y75.845 E3.9308
G1 X78.983 Y76.407 E3.96362
G1 X78.761 Y76.971 E3.99688
G1 X78.524 Y77.522 E4.0298
G1 X78.262 Y78.086 E4.06392
G1 X77.993 Y78.621 E4.09679
G1 X77.683 Y79.194 E4.13254
G1 X77.331 Y79.781 E4.1701
G1 X76.994 Y80.283 E4.20328
G1 X76.528 Y80.872 E4.2445
G1 X76.272 Y81.148 E4.26516
G1 X75.857 Y81.546 E4.29672
G1 X75.369 Y81.942 E4.3312
G1 X74.853 Y82.296 E4.36555
G1 X74.455 Y82.531 E4.39091
G1 X74.007 Y82.76 E4.41852
G1 X73.508 Y82.973 E4.4483
G1 X73.001 Y83.151 E4.47779
G1 X72.468 Y83.294 E4.50807
G1 X71.964 Y83.394 E4.53627
G1 X71.387 Y83.467 E4.56819
G1 X70.792 Y83.497 E4.60088
G1 X70.03 Y83.47 E4.64273
G1 X68.734 Y83.356 E4.71412
G1 X68.197 Y83.302 E4.74374
G1 X65.469 Y83.106 E4.89384
G1 X62.809 Y82.99 E5.03996
G1 X60.146 Y82.949 E5.18612
G1 X57.412 Y82.984 E5.33617
G1 X54.716 Y83.095 E5.48425
G1 X52.078 Y83.278 E5.62937
G1 X51.367 Y83.348 E5.66858
G1 X49.965 Y83.47 E5.74581
G1 X49.368 Y83.494 E5.7786
G1 X48.785 Y83.481 E5.8106
G1 X48.065 Y83.398 E5.85038
G1 X47.54 Y83.296 E5.87973
G1 X46.823 Y83.091 E5.92065
G1 X46.251 Y82.874 E5.95422
G1 X45.997 Y82.762 E5.96946
G1 X45.529 Y82.524 E5.99827
G1 X45.077 Y82.253 E6.02719
G1 X44.557 Y81.887 E6.06209
G1 X44.195 Y81.592 E6.08772
G1 X43.813 Y81.237 E6.11634
G1 X43.434 Y80.832 E6.14678
G1 X43.056 Y80.365 E6.17975
G1 X42.712 Y79.852 E6.21365
G1 X42.251 Y79.073 E6.26332
G1 X42.048 Y78.703 E6.28648
G1 X41.762 Y78.137 E6.32129
G1 X41.502 Y77.581 E6.35497
G1 X41.258 Y77.017 E6.38869
G1 X41.033 Y76.45 E6.42217
G1 X40.82 Y75.864 E6.45639
G1 X40.649 Y75.345 E6.48638
G1 X40.451 Y74.678 E6.52456
G1 X40.308 Y74.132 E6.55554
G1 X40.132 Y73.364 E6.59878
G1 X40.047 Y72.927 E6.62321
G1 X39.946 Y72.323 E6.65681
G1 X39.875 Y71.821 E6.68464
G1 X39.858 Y71.683 E6.69227
G1 X39.797 Y71.113 E6.72373
G1 X39.753 Y70.546 E6.75494
G1 X39.72 Y69.839 E6.79378
G1 X39.707 Y69.102 E6.83423
G1 X39.708 Y68.904 E6.8451
G1 X39.728 Y68.132 E6.88748
G1 X39.762 Y67.45 E6.92495
G1 X39.8 Y66.928 E6.95368
G1 X39.814 Y66.774 E6.96216
G1 X39.956 Y65.461 E7.03464
G1 X39.974 Y65.313 E7.04282
G1 X40.087 Y64.516 E7.087
G1 X40.17 Y64.028 E7.11416
G1 X40.349 Y63.086 E7.16678
G1 X40.454 Y62.599 E7.19412
G1 X40.701 Y61.569 E7.25225
G1 X40.759 Y61.35 E7.26469
G1 X41.221 Y59.758 E7.35566
G1 X41.278 Y59.576 E7.36612
G1 X41.691 Y58.339 E7.43769
G1 X41.748 Y58.179 E7.44701
G1 X42.184 Y57.012 E7.51538
G1 X42.243 Y56.862 E7.52423
G1 X42.745 Y55.645 E7.59648
G1 X42.806 Y55.502 E7.60501
G1 X43.338 Y54.322 E7.67604
G1 X43.396 Y54.198 E7.68355
G1 X43.953 Y53.051 E7.75353
G1 X44.622 Y51.759 E7.83338
G1 X44.676 Y51.657 E7.83971
G1 X45.265 Y50.589 E7.90664
G1 X45.369 Y50.405 E7.91824
G1 X46.02 Y49.292 E7.989
G1 X46.746 Y48.109 E8.06518
G1 X47.461 Y46.998 E8.13768
G1 X48.068 Y46.096 E8.19735
G1 X48.782 Y45.076 E8.26568
G1 X49.564 Y44.011 E8.33819
G1 X50.218 Y43.161 E8.39704
G1 X50.939 Y42.265 E8.46016
G0 F1080 X51.245 Y42.523
G1 F900 X51.828 Y41.83 E8.50986
G1 X52.053 Y41.572 E8.52864
G1 X52.44 Y41.14 E8.56047
G1 X52.647 Y40.916 E8.57721
G1 X53.122 Y40.419 E8.61494
G1 X53.242 Y40.298 E8.62429
G1 X53.827 Y39.733 E8.66893
G1 X53.999 Y39.578 E8.68163
G1 X54.513 Y39.131 E8.71902
G1 X55.108 Y38.667 E8.76042
G1 X55.24 Y38.57 E8.76941
G1 X55.72 Y38.232 E8.80163
G1 X56.26 Y37.898 E8.83648
G1 X56.755 Y37.641 E8.86708
G1 X57.431 Y37.354 E8.90739
G1 X58.042 Y37.145 E8.94283
G1 X58.586 Y37.008 E8.97361
G1 X59.228 Y36.906 E9.00929
G1 X59.808 Y36.864 E9.0412
G1 X60.068 Y36.864 E9.05547
G1 X60.763 Y36.903 E9.09367
G1 X61.313 Y36.986 E9.1242
G1 X61.853 Y37.111 E9.15461
G1 X62.496 Y37.325 E9.1918
G1 X63.156 Y37.602 E9.23109
G1 X63.648 Y37.847 E9.26125
G1 X64.086 Y38.104 E9.28912
G1 X64.308 Y38.252 E9.30376
G1 X64.763 Y38.573 E9.33432
G1 X65.253 Y38.942 E9.36798
G1 X65.558 Y39.192 E9.38962
G1 X66.072 Y39.641 E9.42708
G1 X66.246 Y39.802 E9.44009
G1 X66.72 Y40.262 E9.47634
G1 X67.288 Y40.848 E9.52112
G1 X67.907 Y41.527 E9.57155
G1 X68.287 Y41.964 E9.60333
G1 X68.77 Y42.541 E9.64462
G1 X69.46 Y43.397 E9.70496
G1 X70.208 Y44.373 E9.77245
G1 X70.889 Y45.305 E9.83579
G1 X71.603 Y46.323 E9.90403
G1 X72.299 Y47.364 E9.97275
G1 X73.025 Y48.497 E10.0466
G1 X73.728 Y49.65 E10.12071
G1 X74.336 Y50.694 E10.18701
G1 X74.973 Y51.846 E10.25925
G1 X75.625 Y53.103 E10.33696
G1 X75.675 Y53.202 E10.34305
G1 X76.308 Y54.507 E10.42265
G1 X76.823 Y55.65 E10.49145
G1 X76.878 Y55.779 E10.49915
G1 X77.376 Y56.985 E10.57075
G1 X77.429 Y57.12 E10.57871
G1 X77.885 Y58.337 E10.65003
G1 X77.94 Y58.491 E10.65901
G1 X78.343 Y59.701 E10.729
G1 X78.393 Y59.863 E10.7383
G1 X78.819 Y61.329 E10.82208
G1 X78.859 Y61.474 E10.83034
G1 X79.063 Y62.277 E10.8758
G1 X79.144 Y62.635 E10.89595
G1 X79.345 Y63.595 E10.94977
G1 X79.436 Y64.098 E10.97783
G1 X79.593 Y65.08 E11.0324
G1 X79.639 Y65.424 E11.05145
G1 X79.789 Y66.819 E11.12845
G1 X79.832 Y67.367 E11.15861
G1 X79.868 Y68.027 E11.19489
G1 X79.884 Y68.582 E11.22536
G1 X79.885 Y68.738 E11.23392
G1 X79.872 Y70.009 E11.30367
G1 X79.854 Y70.409 E11.32565
G1 X79.793 Y71.196 E11.36897
G1 X79.745 Y71.638 E11.39337
G1 X79.647 Y72.345 E11.43254
G1 X79.572 Y72.779 E11.45671
G1 X79.425 Y73.523 E11.49833
G1 X79.32 Y73.975 E11.52379
G1 X79.16 Y74.584 E11.55835
G1 X78.994 Y75.147 E11.59056
G1 X78.807 Y75.721 E11.62369
G1 X78.611 Y76.261 E11.65522
G1 X78.389 Y76.825 E11.68848
G1 X78.161 Y77.354 E11.72009
G1 X77.899 Y77.918 E11.75422
G1 X77.641 Y78.431 E11.78573
G1 X77.331 Y79.004 E11.82149
G1 X76.999 Y79.558 E11.85693
G1 X76.662 Y80.06 E11.89011
G1 X76.235 Y80.6 E11.92789
G1 X75.979 Y80.876 E11.94855
G1 X75.598 Y81.241 E11.97751
G1 X75.123 Y81.627 E12.0111
G1 X74.639 Y81.959 E12.04331
G1 X73.844 Y82.395 E12.09307
G1 X73.355 Y82.604 E12.12225
G1 X72.741 Y82.809 E12.15778
G1 X71.907 Y82.998 E12.20471
G1 X71.343 Y83.069 E12.2359
G1 X70.788 Y83.097 E12.2664
G1 X70.064 Y83.071 E12.30616
G1 X68.774 Y82.958 E12.37722
G1 X68.23 Y82.903 E12.40723
G1 X65.515 Y82.708 E12.55661
G1 X62.798 Y82.59 E12.70586
G1 X60.147 Y82.548 E12.85136
G1 X57.389 Y82.585 E13.00273
G1 X54.707 Y82.695 E13.15004
G1 X52.044 Y82.88 E13.29654
G1 X51.332 Y82.949 E13.33579
G1 X49.93 Y83.071 E13.41302
G1 X49.368 Y83.094 E13.44389
G1 X48.815 Y83.082 E13.47425
G1 X48.119 Y83.002 E13.5127
G1 X47.429 Y82.855 E13.55141
G1 X46.943 Y82.709 E13.57926
G1 X46.413 Y82.508 E13.61037
G1 X45.729 Y82.178 E13.65205
G1 X45.287 Y81.912 E13.68036
G1 X44.799 Y81.568 E13.71312
G1 X44.1 Y80.959 E13.764
G1 X43.729 Y80.562 E13.79382
G1 X43.382 Y80.133 E13.8241
G1 X43.056 Y79.648 E13.85617
G1 X42.595 Y78.869 E13.90585
G1 X42.405 Y78.522 E13.92756
G1 X42.119 Y77.956 E13.96236
G1 X41.869 Y77.422 E13.99472
G1 X41.571 Y76.729 E14.03612
G1 X41.409 Y76.313 E14.06062
G1 X41.148 Y75.59 E14.1028
G1 X41.033 Y75.231 E14.12349
G1 X40.835 Y74.564 E14.16167
G1 X40.697 Y74.042 E14.1913
G1 X40.551 Y73.411 E14.22685
G1 X40.441 Y72.861 E14.25763
G1 X40.34 Y72.257 E14.29123
G1 X40.256 Y71.64 E14.32541
G1 X40.195 Y71.07 E14.35687
G1 X40.153 Y70.527 E14.38675
G1 X40.12 Y69.82 E14.4256
G1 X40.116 Y69.682 E14.43317
G1 X40.107 Y69.095 E14.46539
G1 X40.107 Y68.914 E14.47532
G1 X40.127 Y68.142 E14.51771
G1 X40.161 Y67.471 E14.55458
G1 X40.199 Y66.958 E14.58281
G1 X40.212 Y66.817 E14.59058
G1 X40.37 Y65.368 E14.67057
G1 X40.463 Y64.702 E14.70747
G1 X40.563 Y64.103 E14.7408
G1 X40.764 Y63.053 E14.79947
G1 X40.843 Y62.692 E14.81975
G1 X41.09 Y61.662 E14.87788
G1 X41.143 Y61.462 E14.88923
G1 X41.605 Y59.87 E14.98021
G1 X41.657 Y59.703 E14.9898
G1 X42.07 Y58.466 E15.06137
G1 X42.122 Y58.319 E15.06993
G1 X42.558 Y57.152 E15.1383
G1 X42.612 Y57.014 E15.14643
G1 X43.114 Y55.797 E15.21868
G1 X43.703 Y54.487 E15.2975
G1 X43.756 Y54.373 E15.3044
G1 X44.313 Y53.226 E15.37438
G1 X44.977 Y51.944 E15.45361
G1 X45.587 Y50.832 E15.52321
G1 X45.715 Y50.607 E15.53742
G1 X46.361 Y49.501 E15.60771
G1 X47.082 Y48.325 E15.68341
G1 X47.793 Y47.221 E15.75548
G1 X48.395 Y46.326 E15.81467
G1 X49.047 Y45.393 E15.87714
G1 X49.881 Y44.254 E15.95461
G1 X50.529 Y43.412 E16.01292
G1 X51.245 Y42.523 E16.07556
G0 F1080 X51.551 Y42.78
G1 F900 X52.13 Y42.093 E16.12487
G1 X52.351 Y41.839 E16.14334
G1 X52.734 Y41.411 E16.17486
G1 X52.936 Y41.192 E16.19121
G1 X53.411 Y40.695 E16.22894
G1 X53.52 Y40.586 E16.2374
G1 X54.098 Y40.027 E16.28153
G1 X54.261 Y39.88 E16.29358
G1 X54.769 Y39.438 E16.33053
G1 X55.35 Y38.985 E16.37096
G1 X55.47 Y38.897 E16.37913
G1 X55.95 Y38.559 E16.41135
G1 X56.462 Y38.243 E16.44436
G1 X56.933 Y37.999 E16.47348
G1 X57.58 Y37.725 E16.51204
G1 X58.165 Y37.526 E16.54595
G1 X58.659 Y37.401 E16.57391
G1 X59.266 Y37.304 E16.60765
G1 X59.821 Y37.264 E16.63818
G1 X60.057 Y37.263 E16.65113
G1 X60.713 Y37.3 E16.68719
G1 X61.232 Y37.378 E16.71599
G1 X61.748 Y37.497 E16.74506
G1 X62.362 Y37.702 E16.78058
G1 X62.996 Y37.968 E16.81831
G1 X63.462 Y38.201 E16.8469
G1 X64.078 Y38.579 E16.88657
G1 X64.533 Y38.9 E16.91713
G1 X65.011 Y39.26 E16.94996
G1 X65.295 Y39.494 E16.97016
G1 X65.803 Y39.937 E17.00715
G1 X65.968 Y40.09 E17.0195
G1 X66.437 Y40.544 E17.05532
G1 X66.999 Y41.125 E17.09968
G1 X67.609 Y41.794 E17.14937
G1 X67.98 Y42.222 E17.18045
G1 X68.458 Y42.792 E17.22128
G1 X69.209 Y43.725 E17.287
G1 X69.885 Y44.609 E17.34808
G1 X70.562 Y45.535 E17.41103
G1 X71.328 Y46.629 E17.48432
G1 X72.008 Y47.649 E17.5516
G1 X72.684 Y48.705 E17.62041
G1 X73.383 Y49.851 E17.69407
G1 X73.941 Y50.808 E17.75487
G1 X74.622 Y52.039 E17.83207
G1 X74.674 Y52.136 E17.83811
G1 X75.315 Y53.377 E17.91477
G1 X75.943 Y54.672 E17.99375
G1 X76.458 Y55.815 E18.06255
G1 X76.508 Y55.931 E18.06948
G1 X77.006 Y57.137 E18.14109
G1 X77.055 Y57.261 E18.1484
G1 X77.511 Y58.478 E18.21973
G1 X77.56 Y58.617 E18.22782
G1 X77.963 Y59.827 E18.29781
G1 X78.009 Y59.975 E18.30631
G1 X78.435 Y61.441 E18.39009
G1 X78.471 Y61.572 E18.39755
G1 X78.675 Y62.375 E18.44302
G1 X78.752 Y62.717 E18.46225
G1 X78.953 Y63.677 E18.51608
G1 X79.041 Y64.161 E18.54308
G1 X79.197 Y65.135 E18.59721
G1 X79.241 Y65.466 E18.61554
G1 X79.403 Y66.987 E18.69948
G1 X79.44 Y67.491 E18.72721
G1 X79.473 Y68.155 E18.7637
G1 X79.485 Y68.734 E18.79548
G1 X79.472 Y70.005 E18.86523
G1 X79.456 Y70.379 E18.88578
G1 X79.406 Y71.04 E18.92216
G1 X79.348 Y71.584 E18.95218
G1 X79.252 Y72.28 E18.99074
G1 X79.18 Y72.702 E19.01423
G1 X79.058 Y73.323 E19.04896
G1 X78.933 Y73.873 E19.07992
G1 X78.773 Y74.482 E19.11447
G1 X78.613 Y75.023 E19.14543
G1 X78.426 Y75.597 E19.17856
G1 X78.239 Y76.114 E19.20873
G1 X78.017 Y76.678 E19.242
G1 X77.799 Y77.185 E19.27228
G1 X77.537 Y77.749 E19.30641
G1 X77.289 Y78.24 E19.3366
G1 X76.979 Y78.813 E19.37235
G1 X76.667 Y79.335 E19.40573
G1 X76.33 Y79.837 E19.43891
G1 X75.942 Y80.328 E19.47325
G1 X75.339 Y80.935 E19.52021
G1 X74.877 Y81.311 E19.5529
G1 X74.425 Y81.621 E19.58298
G1 X73.681 Y82.029 E19.62954
G1 X73.202 Y82.234 E19.65814
G1 X72.63 Y82.425 E19.69123
G1 X71.851 Y82.602 E19.73507
G1 X71.299 Y82.672 E19.76561
G1 X70.785 Y82.697 E19.79385
G1 X70.099 Y82.673 E19.83152
G1 X68.814 Y82.56 E19.90231
G1 X68.263 Y82.505 E19.9327
G1 X65.527 Y82.308 E20.08324
G1 X62.857 Y82.192 E20.2299
G1 X60.113 Y82.149 E20.38051
G1 X57.404 Y82.184 E20.52919
G1 X54.662 Y82.297 E20.6798
G1 X52.013 Y82.481 E20.82552
G1 X51.298 Y82.551 E20.86495
G1 X49.896 Y82.673 E20.94218
G1 X49.368 Y82.694 E20.97118
G1 X48.845 Y82.683 E20.99989
G1 X48.174 Y82.606 E21.03695
G1 X47.528 Y82.467 E21.07322
G1 X46.777 Y82.226 E21.1165
G1 X45.93 Y81.832 E21.16777
G1 X45.497 Y81.572 E21.19548
G1 X45.041 Y81.25 E21.22612
G1 X44.388 Y80.681 E21.27365
G1 X44.023 Y80.292 E21.30293
G1 X43.709 Y79.902 E21.3304
G1 X43.401 Y79.444 E21.36069
G1 X42.885 Y78.571 E21.41635
G1 X42.762 Y78.342 E21.43061
G1 X42.423 Y77.668 E21.47201
G1 X42.236 Y77.263 E21.4965
G1 X41.943 Y76.582 E21.53718
G1 X41.785 Y76.176 E21.56109
G1 X41.572 Y75.59 E21.59531
G1 X41.416 Y75.117 E21.62264
G1 X41.218 Y74.45 E21.66082
G1 X41.087 Y73.952 E21.68908
G1 X40.916 Y73.206 E21.73108
G1 X40.836 Y72.795 E21.75406
G1 X40.735 Y72.191 E21.78767
G1 X40.654 Y71.598 E21.82052
G1 X40.582 Y70.915 E21.85821
G1 X40.552 Y70.509 E21.88055
G1 X40.519 Y69.802 E21.91939
G1 X40.515 Y69.676 E21.92631
G1 X40.506 Y69.089 E21.95853
G1 X40.507 Y68.924 E21.96758
G1 X40.531 Y68.048 E22.01567
G1 X40.566 Y67.398 E22.0514
G1 X40.609 Y66.86 E22.08102
G1 X40.751 Y65.547 E22.15349
G1 X40.766 Y65.424 E22.16029
G1 X40.876 Y64.648 E22.2033
G1 X40.956 Y64.177 E22.22952
G1 X41.155 Y63.138 E22.28758
G1 X41.232 Y62.785 E22.30741
G1 X41.479 Y61.755 E22.36554
G1 X41.527 Y61.573 E22.37586
G1 X41.989 Y59.981 E22.46684
G1 X42.037 Y59.829 E22.47558
G1 X42.45 Y58.592 E22.54715
G1 X42.497 Y58.459 E22.5549
G1 X42.933 Y57.292 E22.62326
G1 X42.982 Y57.167 E22.63063
G1 X43.484 Y55.95 E22.70288
G1 X43.535 Y55.831 E22.70998
G1 X44.067 Y54.651 E22.78102
G1 X44.673 Y53.401 E22.85725
G1 X44.721 Y53.305 E22.86314
G1 X45.377 Y52.043 E22.9412
G1 X45.961 Y50.983 E23.00762
G1 X46.06 Y50.808 E23.01865
G1 X46.702 Y49.71 E23.08845
G1 X47.419 Y48.541 E23.16371
G1 X48.125 Y47.444 E23.2353
G1 X48.723 Y46.555 E23.2941
G1 X49.427 Y45.549 E23.36149
