;FLAVOR:Marlin
;TIME:3072
;Filament used: 1.6398m
;Layer height: 0.12
;MINX:24.315
;MINY:3.027
;MINZ:0.12
;MAXX:100.738
;MAXY:119.503
;MAXZ:1.68
;Generated with Cura_SteamEngine 4.7.1
M104 S210
M105
M109 S210
M82 ;absolute extrusion mode
;Sliced at: Mon 21-06-2021 15:11:35
G21 ;metric values
G90 ;absolute positioning
M82 ;set extruder to absolute mode
M107 ;start with the fan off
G1 Z5.0 F1800 ;move Z to 5mm
G28 X0 Y0 F1800 ;move X/Y to min endstops
G28 Z0 ;move Z to min endstop
G92 E0 ;zero the extruded length
G1 F200 E6.0 ;extrude 6.0mm of feed stock to build pressure
G1 Z5.0 F300 ;move the platform down 5mm
G92 E0 ;zero the extruded length again
G1 F1800
;Put printing message on LCD screen
M117 Printing...
G92 E0
G92 E0
G1 F1500 E-5
;LAYER_COUNT:15
;LAYER:0
M107
G0 F1080 X24.448 Y6.171 Z0.12
;TYPE:SKIRT
G1 F1500 E0.72757
G1 F900 X24.631 Y5.637 E0.73996
G1 X24.895 Y5.123 E0.75264
G1 X25 Y4.95 E0.75708
G1 X25.326 Y4.488 E0.7695
G1 X25.715 Y4.078 E0.7819
G1 X26.157 Y3.726 E0.79431
G1 X26.645 Y3.44 E0.80672
G1 X27.168 Y3.226 E0.81913
G1 X27.716 Y3.087 E0.83154
G1 X28.278 Y3.027 E0.84394
G1 X29.045 Y3.074 E0.86081
G1 X29.266 Y3.109 E0.86573
G1 X29.816 Y3.237 E0.87812
G1 X30.344 Y3.441 E0.89055
G1 X30.915 Y3.77 E0.90501
G1 X31.372 Y4.086 E0.91721
G1 X31.761 Y4.393 E0.92809
G1 X32.238 Y4.819 E0.94213
G1 X32.4 Y4.971 E0.947
G1 X32.988 Y5.558 E0.96524
G1 X33.078 Y5.651 E0.96808
G1 X33.85 Y6.474 E0.99285
G1 X34.215 Y6.877 E1.00479
G1 X35.274 Y8.066 E1.03974
G1 X36.228 Y9.164 E1.07167
G1 X36.298 Y9.238 E1.07391
G1 X36.631 Y9.622 E1.08506
G1 X36.955 Y10.004 E1.09606
G1 X37.84 Y11.041 E1.12599
G1 X37.92 Y11.122 E1.12849
G1 X38.317 Y11.584 E1.14186
G1 X38.409 Y11.708 E1.14525
G1 X38.853 Y12.23 E1.16029
G1 X39.577 Y13.086 E1.1849
G1 X39.609 Y13.117 E1.18588
G1 X39.936 Y13.507 E1.19705
G1 X39.95 Y13.526 E1.19757
G1 X41.137 Y14.933 E1.23798
G1 X41.199 Y15 E1.23998
G1 X42.826 Y16.939 E1.29555
G1 X42.853 Y16.965 E1.29637
G1 X43.178 Y17.353 E1.30748
G1 X43.202 Y17.387 E1.30839
G1 X44.372 Y18.782 E1.34836
G1 X44.444 Y18.859 E1.35067
G1 X44.834 Y19.327 E1.36405
G1 X44.851 Y19.351 E1.36469
G1 X46.029 Y20.759 E1.40499
G1 X46.087 Y20.821 E1.40685
G1 X46.412 Y21.21 E1.41798
G1 X46.435 Y21.242 E1.41885
G1 X47.614 Y22.653 E1.45921
G1 X47.675 Y22.717 E1.46115
G1 X48.064 Y23.185 E1.47451
G1 X48.087 Y23.217 E1.47538
G1 X49.239 Y24.598 E1.51485
G1 X49.315 Y24.679 E1.51729
G1 X49.64 Y25.069 E1.52844
G1 X49.675 Y25.117 E1.52974
G1 X50.829 Y26.503 E1.56933
G1 X50.899 Y26.574 E1.57152
G1 X51.287 Y27.041 E1.58485
G1 X51.326 Y27.095 E1.58631
G1 X52.474 Y28.473 E1.62568
G1 X52.541 Y28.545 E1.62784
G1 X52.864 Y28.934 E1.63894
G1 X52.88 Y28.956 E1.63954
G1 X54.09 Y30.409 E1.68104
G1 X54.111 Y30.43 E1.6817
G1 X54.962 Y31.455 E1.71094
G1 X55.676 Y32.311 E1.73541
G1 X55.737 Y32.377 E1.73738
G1 X56.076 Y32.783 E1.74899
G1 X56.101 Y32.817 E1.74992
G1 X57.268 Y34.22 E1.78998
G1 X57.337 Y34.292 E1.79217
G1 X57.725 Y34.759 E1.8055
G1 X57.762 Y34.811 E1.8069
G1 X58.905 Y36.183 E1.8461
G1 X58.975 Y36.257 E1.84833
G1 X59.299 Y36.646 E1.85945
G1 X59.342 Y36.706 E1.86107
G1 X60.491 Y38.088 E1.90052
G1 X60.553 Y38.155 E1.90252
G1 X61.45 Y39.239 E1.93341
G1 X62.121 Y40.045 E1.95643
G1 X62.513 Y40.505 E1.9697
G1 X62.553 Y40.561 E1.97121
G1 X63.709 Y41.95 E2.01088
G1 X63.772 Y42.018 E2.01291
G1 X64.182 Y42.513 E2.02702
G1 X64.198 Y42.536 E2.02764
G1 X65.351 Y43.923 E2.06723
G1 X65.396 Y43.972 E2.06869
G1 X66.072 Y44.788 E2.09195
G1 X66.946 Y45.838 E2.12194
G1 X66.986 Y45.881 E2.12323
G1 X67.712 Y46.758 E2.14822
G1 X68.561 Y47.778 E2.17735
G1 X68.625 Y47.845 E2.17939
G1 X68.948 Y48.234 E2.19049
G1 X68.979 Y48.277 E2.19165
G1 X70.135 Y49.668 E2.23135
G1 X70.203 Y49.738 E2.2335
G1 X70.591 Y50.206 E2.24684
G1 X70.631 Y50.261 E2.24833
G1 X71.787 Y51.652 E2.28804
G1 X71.839 Y51.708 E2.28971
G1 X72.185 Y52.125 E2.30161
G1 X72.198 Y52.143 E2.3021
G1 X72.676 Y52.721 E2.31856
G1 X73.349 Y53.529 E2.34165
G1 X73.39 Y53.574 E2.34298
G1 X74.983 Y55.49 E2.39768
G1 X75.351 Y55.927 E2.41022
G1 X75.374 Y55.959 E2.41109
G1 X75.882 Y56.573 E2.42858
G1 X76.553 Y57.379 E2.4516
G1 X76.624 Y57.454 E2.45387
G1 X77.018 Y57.929 E2.46742
G1 X77.043 Y57.964 E2.46836
G1 X78.2 Y59.358 E2.50813
G1 X78.529 Y59.742 E2.51923
G1 X78.569 Y59.798 E2.52074
G1 X79.055 Y60.386 E2.53748
G1 X79.77 Y61.244 E2.562
G1 X79.834 Y61.314 E2.56408
G1 X80.227 Y61.786 E2.57757
G1 X80.248 Y61.815 E2.57835
G1 X81.418 Y63.224 E2.61855
G1 X81.482 Y63.291 E2.62059
G1 X81.806 Y63.681 E2.63172
G1 X81.848 Y63.739 E2.63329
G1 X83 Y65.125 E2.67285
G1 X83.053 Y65.183 E2.67458
G1 X83.403 Y65.604 E2.6866
G1 X83.418 Y65.625 E2.68716
G1 X83.967 Y66.289 E2.70608
G1 X84.632 Y67.088 E2.72889
G1 X84.695 Y67.156 E2.73093
G1 X85.018 Y67.545 E2.74203
G1 X85.037 Y67.572 E2.74275
G1 X86.207 Y68.98 E2.78294
G1 X86.272 Y69.048 E2.785
G1 X86.66 Y69.516 E2.79835
G1 X86.693 Y69.561 E2.79957
G1 X87.844 Y70.947 E2.83912
G1 X87.906 Y71.012 E2.8411
G1 X88.229 Y71.4 E2.85218
G1 X88.261 Y71.445 E2.85339
G1 X89.357 Y72.766 E2.89107
G1 X89.49 Y72.912 E2.8954
G1 X89.878 Y73.381 E2.90877
G1 X89.917 Y73.436 E2.91025
G1 X91.093 Y74.852 E2.95065
G1 X91.519 Y75.363 E2.96526
G1 X92.229 Y76.218 E2.98965
G1 X92.716 Y76.821 E3.00667
G1 X93.039 Y77.285 E3.01908
G1 X93.294 Y77.789 E3.03148
G1 X93.54 Y78.506 E3.04812
G1 X93.735 Y79.271 E3.06545
G1 X93.805 Y79.689 E3.07475
G1 X94.305 Y82.397 E3.1352
G1 X94.874 Y85.056 E3.19489
G1 X95.517 Y87.692 E3.25445
G1 X96.24 Y90.328 E3.31445
G1 X97.03 Y92.923 E3.374
G1 X97.903 Y95.52 E3.43414
G1 X98.83 Y98.044 E3.49317
G1 X99.437 Y99.585 E3.52953
G1 X99.885 Y100.694 E3.55578
G1 X100.079 Y101.222 E3.56813
G1 X100.276 Y101.9 E3.58363
G1 X100.351 Y102.211 E3.59065
G1 X100.486 Y102.813 E3.60419
G1 X100.55 Y103.174 E3.61224
G1 X100.678 Y104.161 E3.63409
G1 X100.736 Y104.929 E3.651
G1 X100.738 Y105.932 E3.67301
G1 X100.724 Y106.452 E3.68443
G1 X100.656 Y107.16 E3.70005
G1 X100.601 Y107.547 E3.70863
G1 X100.509 Y108.117 E3.7213
G1 X100.433 Y108.48 E3.72944
G1 X100.19 Y109.421 E3.75078
G1 X100.037 Y109.946 E3.76278
G1 X99.793 Y110.613 E3.77837
G1 X99.662 Y110.925 E3.7858
G1 X99.412 Y111.493 E3.79942
G1 X99.249 Y111.822 E3.80748
G1 X98.788 Y112.653 E3.82834
G1 X98.495 Y113.145 E3.84091
G1 X98.107 Y113.708 E3.85592
G1 X97.889 Y113.994 E3.86382
G1 X97.506 Y114.479 E3.87738
G1 X97.264 Y114.758 E3.88549
G1 X96.611 Y115.444 E3.90628
G1 X96.21 Y115.841 E3.91867
G1 X95.665 Y116.312 E3.93448
G1 X95.382 Y116.534 E3.94238
G1 X94.82 Y116.959 E3.95784
G1 X94.228 Y117.35 E3.97342
G1 X93.891 Y117.552 E3.98204
G1 X93.408 Y117.829 E3.99426
G1 X93.078 Y117.998 E4.0024
G1 X92.186 Y118.405 E4.02393
G1 X91.702 Y118.61 E4.03546
G1 X90.991 Y118.853 E4.05196
G1 X90.645 Y118.954 E4.05987
G1 X90.086 Y119.105 E4.07258
G1 X89.744 Y119.181 E4.08027
G1 X88.789 Y119.351 E4.10157
G1 X88.241 Y119.432 E4.11373
G1 X87.562 Y119.483 E4.12867
G1 X87.177 Y119.496 E4.13713
G1 X86.572 Y119.503 E4.15041
G1 X86.21 Y119.491 E4.15836
G1 X85.237 Y119.414 E4.17979
G1 X84.678 Y119.351 E4.19214
G1 X83.998 Y119.228 E4.20731
G1 X83.583 Y119.134 E4.21665
G1 X83.06 Y119.004 E4.22848
G1 X82.714 Y118.901 E4.2364
G1 X81.809 Y118.587 E4.25743
G1 X81.26 Y118.377 E4.27033
G1 X80.649 Y118.095 E4.2851
G1 X80.331 Y117.931 E4.29296
G1 X79.794 Y117.64 E4.30637
G1 X79.483 Y117.452 E4.31434
G1 X78.654 Y116.9 E4.33621
G1 X78.03 Y116.434 E4.3533
G1 X77.286 Y115.788 E4.37493
G1 X76.882 Y115.416 E4.38699
G1 X76.413 Y114.919 E4.40199
G1 X76.176 Y114.644 E4.40996
G1 X75.03 Y113.265 E4.44932
G1 X73.227 Y111.158 E4.51019
G1 X71.41 Y109.151 E4.56962
G1 X69.522 Y107.182 E4.62951
G1 X67.597 Y105.285 E4.68883
G1 X65.588 Y103.412 E4.74913
G1 X63.569 Y101.635 E4.80817
G1 X61.273 Y99.731 E4.87364
G1 X60.358 Y98.996 E4.89941
G1 X59.863 Y98.534 E4.91427
G1 X59.545 Y98.201 E4.92438
G1 X59.185 Y97.765 E4.93679
G1 X58.89 Y97.283 E4.9492
G1 X58.747 Y96.974 E4.95667
G1 X58.405 Y96.148 E4.9763
G1 X58.015 Y95.165 E4.99951
G1 X57.984 Y95.102 E5.00105
G1 X57.797 Y94.63 E5.0122
G1 X57.77 Y94.545 E5.01415
G1 X57.121 Y92.901 E5.05295
G1 X57.096 Y92.845 E5.0543
G1 X56.858 Y92.244 E5.06849
G1 X56.843 Y92.196 E5.06959
G1 X56.18 Y90.515 E5.10926
G1 X56.156 Y90.463 E5.11052
G1 X55.962 Y89.974 E5.12207
G1 X55.948 Y89.93 E5.12308
G1 X55.344 Y88.396 E5.15927
G1 X55.214 Y88.073 E5.16691
G1 X54.32 Y85.809 E5.22035
G1 X54.295 Y85.753 E5.22169
G1 X54.108 Y85.281 E5.23284
G1 X54.093 Y85.233 E5.23394
G1 X53.413 Y83.51 E5.2746
G1 X53.404 Y83.491 E5.27506
G1 X52.411 Y80.971 E5.33452
G1 X52.246 Y80.555 E5.34435
G1 X51.58 Y78.868 E5.38416
G1 X51.563 Y78.83 E5.38507
G1 X51.332 Y78.249 E5.3988
G1 X51.319 Y78.208 E5.39974
G1 X50.603 Y76.393 E5.44257
G1 X50.41 Y75.904 E5.45411
G1 X49.81 Y74.382 E5.49003
G1 X49.475 Y73.539 E5.50994
G1 X48.796 Y71.817 E5.55057
G1 X48.776 Y71.772 E5.55165
G1 X48.561 Y71.231 E5.56443
G1 X48.545 Y71.18 E5.56561
G1 X47.886 Y69.507 E5.60508
G1 X47.617 Y68.83 E5.62107
G1 X47.19 Y67.744 E5.64669
G1 X46.901 Y67.018 E5.66384
G1 X46.063 Y64.886 E5.71413
G1 X46.007 Y64.764 E5.71707
G1 X45.792 Y64.218 E5.72995
G1 X45.766 Y64.136 E5.73184
G1 X45.272 Y62.88 E5.76147
G1 X45.072 Y62.383 E5.77323
G1 X44.881 Y61.89 E5.78484
G1 X44.37 Y60.593 E5.81544
G1 X44.172 Y60.102 E5.82706
G1 X43.943 Y59.526 E5.84066
G1 X43.923 Y59.465 E5.84207
G1 X43.235 Y57.719 E5.88327
G1 X43.045 Y57.252 E5.89434
G1 X43.02 Y57.173 E5.89616
G1 X42.525 Y55.917 E5.92579
G1 X42.115 Y54.891 E5.95005
G1 X42.098 Y54.839 E5.95125
G1 X41.48 Y53.268 E5.98831
G1 X41.2 Y52.57 E6.00481
G1 X41.187 Y52.529 E6.00576
G1 X40.514 Y50.816 E6.04616
G1 X40.478 Y50.746 E6.04789
G1 X40.255 Y50.182 E6.0612
G1 X40.22 Y50.071 E6.06376
G1 X39.592 Y48.479 E6.10132
G1 X39.539 Y48.368 E6.10402
G1 X39.352 Y47.897 E6.11515
G1 X39.302 Y47.739 E6.11879
G1 X38.66 Y46.11 E6.15722
G1 X38.637 Y46.064 E6.15835
G1 X38.408 Y45.482 E6.17208
G1 X38.394 Y45.439 E6.17307
G1 X37.948 Y44.3 E6.19992
G1 X37.716 Y43.714 E6.21376
G1 X37.514 Y43.209 E6.2257
G1 X37.497 Y43.153 E6.22698
G1 X36.832 Y41.465 E6.26681
G1 X36.798 Y41.398 E6.26846
G1 X36.574 Y40.833 E6.2818
G1 X36.543 Y40.734 E6.28408
G1 X35.891 Y39.075 E6.32321
G1 X35.857 Y39.008 E6.32486
G1 X35.671 Y38.537 E6.33597
G1 X35.635 Y38.421 E6.33864
G1 X34.994 Y36.791 E6.37709
G1 X34.959 Y36.721 E6.37881
G1 X34.735 Y36.156 E6.39215
G1 X34.693 Y36.023 E6.39521
G1 X34.073 Y34.448 E6.43237
G1 X34.021 Y34.333 E6.43514
G1 X33.835 Y33.863 E6.44623
G1 X33.802 Y33.758 E6.44865
G1 X33.15 Y32.097 E6.48782
G1 X33.12 Y32.035 E6.48933
G1 X32.897 Y31.469 E6.50269
G1 X32.869 Y31.38 E6.50473
G1 X32.225 Y29.734 E6.54353
G1 X32.182 Y29.651 E6.54558
G1 X31.996 Y29.179 E6.55672
G1 X31.949 Y29.028 E6.56019
G1 X31.339 Y27.47 E6.59692
G1 X31.287 Y27.355 E6.59969
G1 X31.064 Y26.789 E6.61305
G1 X31.028 Y26.675 E6.61567
G1 X30.402 Y25.068 E6.65353
G1 X30.353 Y24.959 E6.65615
G1 X30.168 Y24.487 E6.66728
G1 X30.131 Y24.37 E6.66997
G1 X29.495 Y22.737 E6.70844
G1 X29.463 Y22.666 E6.71015
G1 X29.241 Y22.102 E6.72346
G1 X29.206 Y21.989 E6.72606
G1 X28.526 Y20.234 E6.76737
G1 X28.272 Y19.569 E6.783
G1 X28.18 Y19.333 E6.78856
G1 X27.724 Y18.145 E6.81649
G1 X27.318 Y17.072 E6.84168
G1 X26.727 Y15.518 E6.87817
G1 X26.538 Y15.017 E6.88993
G1 X26.526 Y14.974 E6.89091
G1 X25.976 Y13.49 E6.92565
G1 X25.631 Y12.527 E6.9481
G1 X25.262 Y11.467 E6.97274
G1 X24.895 Y10.333 E6.99891
G1 X24.696 Y9.651 E7.0145
G1 X24.663 Y9.534 E7.01717
G1 X24.535 Y9.037 E7.02844
G1 X24.422 Y8.521 E7.04003
G1 X24.343 Y7.961 E7.05245
G1 X24.323 Y7.493 E7.06273
G0 F810 X24.315 Y7.291
G0 X24.342 Y6.727
G0 X24.448 Y6.171
G0 F1080 X24.849 Y6.221
G1 F900 X25.033 Y5.717 E7.07451
G1 X25.341 Y5.157 E7.08854
G1 X25.653 Y4.721 E7.10031
G1 X26.026 Y4.335 E7.11209
G1 X26.452 Y4.01 E7.12385
G1 X26.922 Y3.751 E7.13563
G1 X27.425 Y3.565 E7.1474
G1 X27.95 Y3.456 E7.15918
G1 X28.485 Y3.426 E7.17094
G1 X29.203 Y3.504 E7.18679
G1 X29.725 Y3.627 E7.19856
G1 X30.223 Y3.827 E7.21034
G1 X30.687 Y4.099 E7.22215
G1 X31.144 Y4.415 E7.23435
G1 X31.495 Y4.691 E7.24415
G1 X31.972 Y5.117 E7.25819
G1 X32.117 Y5.254 E7.26257
G1 X32.705 Y5.841 E7.28081
G1 X32.786 Y5.925 E7.28337
G1 X33.554 Y6.743 E7.308
G1 X33.916 Y7.143 E7.31984
G1 X34.972 Y8.328 E7.35468
G1 X35.954 Y9.459 E7.38756
G1 X35.996 Y9.5 E7.38885
G1 X36.329 Y9.884 E7.40001
G1 X36.662 Y10.278 E7.41133
G1 X37.565 Y11.335 E7.44185
G1 X37.616 Y11.383 E7.44339
G1 X38.013 Y11.845 E7.45676
G1 X38.101 Y11.964 E7.46001
G1 X38.548 Y12.488 E7.47513
G1 X39.259 Y13.329 E7.4993
G1 X39.303 Y13.374 E7.50068
G1 X39.63 Y13.764 E7.51186
G1 X39.642 Y13.781 E7.51231
G1 X40.856 Y15.219 E7.55363
G1 X40.893 Y15.257 E7.55479
G1 X41.284 Y15.723 E7.56814
G1 X41.297 Y15.741 E7.56863
G1 X42.5 Y17.173 E7.60969
G1 X42.547 Y17.222 E7.61118
G1 X42.872 Y17.61 E7.62229
G1 X42.901 Y17.65 E7.62337
G1 X44.088 Y19.066 E7.66393
G1 X44.137 Y19.115 E7.66545
G1 X44.527 Y19.583 E7.67883
G1 X44.548 Y19.612 E7.67961
G1 X45.742 Y21.04 E7.72047
G1 X45.78 Y21.078 E7.72165
G1 X46.105 Y21.467 E7.73278
G1 X46.127 Y21.498 E7.73361
G1 X47.322 Y22.929 E7.77454
G1 X47.368 Y22.973 E7.77594
G1 X47.757 Y23.441 E7.7893
G1 X47.778 Y23.471 E7.7901
G1 X48.959 Y24.886 E7.83056
G1 X49.008 Y24.935 E7.83208
G1 X49.333 Y25.325 E7.84322
G1 X49.371 Y25.378 E7.84466
G1 X50.451 Y26.674 E7.88169
G1 X50.591 Y26.829 E7.88627
G1 X50.979 Y27.296 E7.8996
G1 X51.015 Y27.347 E7.90097
G1 X52.189 Y28.755 E7.94121
G1 X52.234 Y28.8 E7.94261
G1 X52.557 Y29.189 E7.95371
G1 X52.582 Y29.225 E7.95467
G1 X53.758 Y30.636 E7.99499
G1 X53.804 Y30.685 E7.99647
G1 X54.655 Y31.711 E8.02573
G1 X55.397 Y32.601 E8.05117
G1 X55.43 Y32.634 E8.05219
G1 X55.769 Y33.04 E8.0638
G1 X55.787 Y33.066 E8.0645
G1 X56.983 Y34.502 E8.10552
G1 X57.029 Y34.547 E8.10693
G1 X57.417 Y35.014 E8.12026
G1 X57.451 Y35.062 E8.12155
G1 X58.624 Y36.471 E8.1618
G1 X58.667 Y36.513 E8.16312
G1 X58.991 Y36.902 E8.17423
G1 X59.028 Y36.954 E8.17563
G1 X60.203 Y38.367 E8.21597
G1 X60.246 Y38.41 E8.21731
G1 X60.587 Y38.821 E8.22903
G1 X60.601 Y38.84 E8.22955
G1 X61.142 Y39.494 E8.24818
G1 X61.848 Y40.342 E8.2724
G1 X62.205 Y40.761 E8.28449
G1 X62.243 Y40.815 E8.28593
G1 X63.427 Y42.238 E8.32657
G1 X63.463 Y42.274 E8.32769
G1 X64.312 Y43.3 E8.35692
G1 X65.063 Y44.202 E8.38269
G1 X65.088 Y44.227 E8.38346
G1 X65.765 Y45.044 E8.40675
G1 X66.653 Y46.111 E8.43723
G1 X66.678 Y46.136 E8.438
G1 X67.405 Y47.014 E8.46303
G1 X68.271 Y48.054 E8.49273
G1 X68.318 Y48.1 E8.49418
G1 X68.641 Y48.489 E8.50528
G1 X68.675 Y48.536 E8.50655
G1 X69.769 Y49.853 E8.54413
G1 X69.895 Y49.993 E8.54827
G1 X70.283 Y50.461 E8.56161
G1 X70.319 Y50.512 E8.56298
G1 X71.499 Y51.931 E8.6035
G1 X71.531 Y51.963 E8.60449
G1 X71.877 Y52.38 E8.61639
G1 X71.89 Y52.398 E8.61687
G1 X72.368 Y52.976 E8.63334
G1 X73.057 Y53.803 E8.65697
G1 X73.083 Y53.83 E8.65779
G1 X74.695 Y55.769 E8.71314
G1 X75.044 Y56.183 E8.72503
G1 X75.066 Y56.214 E8.72586
G1 X75.567 Y56.82 E8.74312
G1 X76.272 Y57.667 E8.76731
G1 X76.316 Y57.71 E8.76866
G1 X76.71 Y58.185 E8.78221
G1 X76.728 Y58.21 E8.78289
G1 X77.917 Y59.642 E8.82375
G1 X78.25 Y60.039 E8.83512
G1 X78.757 Y60.652 E8.85258
G1 X79.483 Y61.525 E8.87751
G1 X79.527 Y61.569 E8.87887
G1 X79.92 Y62.041 E8.89236
G1 X79.944 Y62.075 E8.89327
G1 X81.135 Y63.509 E8.93419
G1 X81.174 Y63.547 E8.93538
G1 X81.498 Y63.937 E8.94651
G1 X81.532 Y63.985 E8.94781
G1 X82.716 Y65.41 E8.98848
G1 X82.745 Y65.439 E8.98938
G1 X83.668 Y66.554 E9.02115
G1 X84.345 Y67.368 E9.04439
G1 X84.388 Y67.411 E9.04573
G1 X84.711 Y67.8 E9.05683
G1 X84.734 Y67.832 E9.05769
G1 X85.923 Y69.263 E9.09853
G1 X85.964 Y69.303 E9.09979
G1 X86.352 Y69.771 E9.11313
G1 X86.381 Y69.812 E9.11424
G1 X87.557 Y71.227 E9.15463
G1 X87.599 Y71.268 E9.15591
G1 X87.922 Y71.656 E9.167
G1 X87.959 Y71.707 E9.16838
G1 X89.101 Y73.084 E9.20765
G1 X89.182 Y73.167 E9.2102
G1 X89.57 Y73.636 E9.22356
G1 X89.607 Y73.689 E9.22498
G1 X90.78 Y75.099 E9.26524
G1 X91.182 Y75.582 E9.27903
G1 X91.918 Y76.469 E9.30433
G1 X92.405 Y77.072 E9.32135
G1 X92.71 Y77.513 E9.33312
G1 X93.03 Y78.229 E9.35033
G1 X93.192 Y78.736 E9.36202
G1 X93.341 Y79.337 E9.37561
G1 X93.418 Y79.797 E9.38585
G1 X93.918 Y82.503 E9.44626
G1 X94.488 Y85.164 E9.50599
G1 X95.125 Y87.776 E9.56501
G1 X95.854 Y90.435 E9.62554
