;FLAVOR:Marlin
;TIME:3378
;Filament used: 3.58362m
;Layer height: 0.24
;MINX:20
;MINY:24
;MINZ:0.3
;MAXX:100
;MAXY:96
;MAXZ:10.38
;Generated with Cura_SteamEngine 4.7.1
M104 S210
M105
M109 S210
M82 ;absolute extrusion mode
;Sliced at: Tue 25-05-2021 12:58:44
G21 ;metric values
G90 ;absolute positioning
M82 ;set extruder to absolute mode
M107 ;start with the fan off
G1 Z5.0 F1800 ;move Z to 5mm
G28 X0 Y0 F1800 ;move X/Y to min endstops
G28 Z0 ;move Z to min endstop
G92 E0 ;zero the extruded length
G1 F200 E6.0 ;extrude 6.0mm of feed stock to build pressure
G1 Z5.0 F300 ;move the platform down 5mm
G92 E0 ;zero the extruded length again
G1 F1800
;Put printing message on LCD screen
M117 Printing...
G92 E0
G92 E0
G1 F1500 E-5
;LAYER_COUNT:44
;LAYER:0
M107
G0 F1080 X23.445 Y26.476 Z0.3
;TYPE:SKIRT
G1 F1500 E0.72757
G1 F900 X23.929 Y26.074 E0.76209
G1 X24.48 Y25.682 E0.7992
G1 X24.636 Y25.584 E0.80931
G1 X25.114 Y25.301 E0.8398
G1 X25.75 Y24.975 E0.87902
G1 X26.605 Y24.614 E0.92995
G1 X27.249 Y24.405 E0.96711
G1 X27.619 Y24.31 E0.98807
G1 X28.164 Y24.186 E1.01875
G1 X28.921 Y24.075 E1.06074
G1 X29.085 Y24.061 E1.06977
G1 X29.748 Y24.018 E1.10623
G1 X30.491 Y24 E1.14702
G1 X87.601 Y24 E4.28117
G1 X89.404 Y24.001 E4.38012
G1 X90.076 Y24.01 E4.417
G1 X90.642 Y24.042 E4.44811
G1 X91.309 Y24.109 E4.4849
G1 X91.856 Y24.198 E4.51531
G1 X92.779 Y24.415 E4.56735
G1 X93.325 Y24.587 E4.59876
G1 X93.766 Y24.759 E4.62474
G1 X94.302 Y24.99 E4.65677
G1 X94.893 Y25.298 E4.69334
G1 X95.062 Y25.399 E4.70415
G1 X95.536 Y25.7 E4.73496
G1 X96.072 Y26.084 E4.77115
G1 X96.492 Y26.423 E4.80077
G1 X97.051 Y26.932 E4.84226
G1 X97.51 Y27.43 E4.87943
G1 X97.921 Y27.922 E4.91461
G1 X98.318 Y28.479 E4.95215
G1 X98.416 Y28.637 E4.96235
G1 X98.693 Y29.105 E4.99219
G1 X99.015 Y29.728 E5.03068
G1 X99.383 Y30.598 E5.08252
G1 X99.596 Y31.253 E5.12032
G1 X99.689 Y31.613 E5.14073
G1 X99.816 Y32.171 E5.17213
G1 X99.924 Y32.911 E5.21317
G1 X99.938 Y33.082 E5.22259
G1 X99.988 Y33.861 E5.26543
G1 X100 Y34.442 E5.29732
G1 X99.999 Y85.37 E8.09221
G1 X99.989 Y86.075 E8.1309
G1 X99.958 Y86.651 E8.16256
G1 X99.893 Y87.297 E8.19819
G1 X99.804 Y87.847 E8.22876
G1 X99.587 Y88.775 E8.28107
G1 X99.416 Y89.319 E8.31236
G1 X99.248 Y89.751 E8.3378
G1 X99.01 Y90.303 E8.37079
G1 X98.702 Y90.893 E8.40731
G1 X98.602 Y91.06 E8.41799
G1 X98.309 Y91.522 E8.44802
G1 X97.91 Y92.08 E8.48566
G1 X97.577 Y92.492 E8.51474
G1 X97.068 Y93.051 E8.55623
G1 X96.555 Y93.524 E8.59452
G1 X96.077 Y93.923 E8.62869
G1 X95.521 Y94.318 E8.66612
G1 X95.365 Y94.415 E8.6762
G1 X94.901 Y94.69 E8.7058
G1 X94.256 Y95.022 E8.74561
G1 X93.394 Y95.386 E8.79696
G1 X92.817 Y95.577 E8.83032
G1 X92.381 Y95.69 E8.85503
G1 X91.836 Y95.814 E8.88571
G1 X91.079 Y95.925 E8.9277
G1 X90.915 Y95.939 E8.93673
G1 X90.252 Y95.982 E8.97319
G1 X89.509 Y96 E9.01398
G1 X31.677 Y96 E12.18775
G1 X30.635 Y95.999 E12.24494
G1 X29.899 Y95.988 E12.28533
G1 X29.336 Y95.956 E12.31628
G1 X28.691 Y95.891 E12.35186
G1 X28.144 Y95.802 E12.38227
G1 X27.221 Y95.585 E12.4343
G1 X26.67 Y95.412 E12.466
G1 X26.234 Y95.241 E12.4917
G1 X25.698 Y95.01 E12.52373
G1 X25.107 Y94.702 E12.5603
G1 X24.938 Y94.601 E12.57111
G1 X24.464 Y94.3 E12.60192
G1 X23.92 Y93.91 E12.63866
G1 X23.507 Y93.577 E12.66777
G1 X22.942 Y93.06 E12.7098
G1 X22.485 Y92.565 E12.74677
G1 X22.074 Y92.071 E12.78204
G1 X21.682 Y91.52 E12.81915
G1 X21.584 Y91.363 E12.82931
G1 X21.307 Y90.895 E12.85915
G1 X20.976 Y90.252 E12.89884
G1 X20.772 Y89.792 E12.92646
G1 X20.498 Y89.061 E12.9693
G1 X20.357 Y88.576 E12.99702
G1 X20.31 Y88.384 E13.00786
G1 X20.184 Y87.832 E13.03894
G1 X20.076 Y87.087 E13.08025
G1 X20.061 Y86.915 E13.08972
G1 X20.018 Y86.252 E13.12619
G1 X20 Y85.509 E13.16697
G1 X20.001 Y34.612 E15.96016
G1 X20.011 Y33.921 E15.99809
G1 X20.042 Y33.351 E16.02941
G1 X20.109 Y32.686 E16.06609
G1 X20.197 Y32.145 E16.09617
G1 X20.413 Y31.225 E16.14803
G1 X20.59 Y30.666 E16.18021
G1 X20.76 Y30.231 E16.20584
G1 X20.994 Y29.689 E16.23824
G1 X21.305 Y29.094 E16.27509
G1 X21.398 Y28.94 E16.28496
G1 X21.691 Y28.478 E16.31498
G1 X22.09 Y27.92 E16.35263
G1 X22.423 Y27.509 E16.38166
G1 X22.946 Y26.935 E16.42427
G1 X23.053 Y26.836 E16.43227
G0 F810 X23.445 Y26.476
G0 F1080 X23.764 Y26.73
G1 F900 X24.184 Y26.381 E16.46224
G1 X24.699 Y26.016 E16.49688
G1 X24.84 Y25.928 E16.506
G1 X25.318 Y25.645 E16.53649
G1 X25.924 Y25.335 E16.57384
G1 X26.753 Y24.986 E16.62321
G1 X27.364 Y24.789 E16.65844
G1 X27.707 Y24.7 E16.67789
G1 X28.345 Y24.556 E16.71378
G1 X28.964 Y24.473 E16.74805
G1 X29.111 Y24.461 E16.75615
G1 X29.877 Y24.412 E16.79827
G1 X30.495 Y24.4 E16.83219
G1 X87.601 Y24.4 E19.96613
G1 X89.398 Y24.401 E20.06474
G1 X90.07 Y24.41 E20.10163
G1 X90.605 Y24.44 E20.13103
G1 X91.254 Y24.505 E20.16683
G1 X91.787 Y24.591 E20.19646
G1 X92.68 Y24.802 E20.24681
G1 X93.183 Y24.961 E20.27576
G1 X93.608 Y25.126 E20.30078
G1 X94.144 Y25.357 E20.33281
G1 X94.696 Y25.645 E20.36698
G1 X94.848 Y25.737 E20.37673
G1 X95.322 Y26.038 E20.40755
G1 X95.832 Y26.404 E20.442
G1 X96.227 Y26.723 E20.46986
G1 X96.763 Y27.211 E20.50964
G1 X97.208 Y27.692 E20.5456
G1 X97.614 Y28.178 E20.58035
G1 X97.984 Y28.699 E20.61542
G1 X98.072 Y28.84 E20.62454
G1 X98.349 Y29.308 E20.65439
G1 X98.655 Y29.903 E20.69111
G1 X99.012 Y30.747 E20.7414
G1 X99.212 Y31.367 E20.77715
G1 X99.299 Y31.702 E20.79615
G1 X99.426 Y32.26 E20.82755
G1 X99.526 Y32.955 E20.86609
G1 X99.539 Y33.109 E20.87457
G1 X99.582 Y33.765 E20.91064
G1 X99.6 Y34.447 E20.94809
G1 X99.599 Y85.364 E23.74237
G1 X99.589 Y86.069 E23.78106
G1 X99.559 Y86.613 E23.81096
G1 X99.497 Y87.242 E23.84565
G1 X99.41 Y87.778 E23.87545
G1 X99.2 Y88.675 E23.92601
G1 X99.042 Y89.177 E23.95489
G1 X98.881 Y89.592 E23.97932
G1 X98.643 Y90.144 E24.01231
G1 X98.355 Y90.696 E24.04648
G1 X98.264 Y90.846 E24.0561
G1 X97.971 Y91.308 E24.08613
G1 X97.59 Y91.839 E24.12199
G1 X96.98 Y92.563 E24.17395
G1 X96.591 Y92.955 E24.20426
G1 X96.238 Y93.268 E24.23015
G1 X95.821 Y93.615 E24.25992
G1 X95.301 Y93.984 E24.29491
G1 X95.161 Y94.071 E24.30396
G1 X94.697 Y94.346 E24.33356
G1 X94.082 Y94.662 E24.3715
G1 X93.246 Y95.015 E24.4213
G1 X92.714 Y95.191 E24.45206
G1 X92.293 Y95.3 E24.47592
G1 X91.655 Y95.444 E24.51182
G1 X91.036 Y95.527 E24.54609
G1 X90.889 Y95.539 E24.55418
G1 X90.123 Y95.588 E24.59631
G1 X89.505 Y95.6 E24.63023
G1 X31.677 Y95.6 E27.80378
G1 X30.641 Y95.599 E27.86064
G1 X29.905 Y95.588 E27.90104
G1 X29.373 Y95.558 E27.93028
G1 X28.746 Y95.495 E27.96486
G1 X28.213 Y95.409 E27.99449
G1 X27.32 Y95.198 E28.04485
G1 X26.812 Y95.038 E28.07407
G1 X26.392 Y94.874 E28.09882
G1 X25.856 Y94.643 E28.13085
G1 X25.304 Y94.355 E28.16502
G1 X25.152 Y94.263 E28.17477
G1 X24.678 Y93.962 E28.20558
G1 X24.161 Y93.59 E28.24054
G1 X23.437 Y92.981 E28.29246
G1 X23.038 Y92.584 E28.32335
G1 X22.73 Y92.236 E28.34885
G1 X22.381 Y91.816 E28.37882
G1 X22.016 Y91.301 E28.41346
G1 X21.928 Y91.16 E28.42258
G1 X21.651 Y90.692 E28.45243
G1 X21.336 Y90.078 E28.4903
G1 X20.984 Y89.241 E28.54013
G1 X20.79 Y88.639 E28.57484
G1 X20.7 Y88.295 E28.59435
G1 X20.574 Y87.743 E28.62542
G1 X20.474 Y87.044 E28.66418
G1 X20.461 Y86.889 E28.67271
G1 X20.412 Y86.123 E28.71483
G1 X20.4 Y85.505 E28.74876
G1 X20.401 Y34.618 E31.5414
G1 X20.411 Y33.927 E31.57932
G1 X20.441 Y33.388 E31.60895
G1 X20.505 Y32.742 E31.64457
G1 X20.591 Y32.215 E31.67388
G1 X20.8 Y31.325 E31.72405
G1 X20.964 Y30.808 E31.75381
G1 X21.127 Y30.389 E31.77849
G1 X21.361 Y29.847 E31.81088
G1 X21.652 Y29.292 E31.84528
G1 X21.736 Y29.154 E31.85414
G1 X22.029 Y28.692 E31.88416
G1 X22.41 Y28.161 E31.92003
G1 X23.023 Y27.433 E31.97226
G1 X23.369 Y27.085 E31.99919
G0 F810 X23.417 Y27.037
G0 X23.764 Y26.73
G0 F1080 X24.02 Y27.038
G1 F900 X24.44 Y26.689 E32.02916
G1 X24.919 Y26.35 E32.06136
G1 X25.044 Y26.272 E32.06945
G1 X25.522 Y25.989 E32.09993
G1 X26.098 Y25.695 E32.13542
G1 X26.901 Y25.357 E32.18324
G1 X27.478 Y25.172 E32.21649
G1 X27.796 Y25.09 E32.23451
G1 X28.443 Y24.944 E32.27091
G1 X29.006 Y24.871 E32.30207
G1 X29.137 Y24.86 E32.30928
G1 X29.891 Y24.812 E32.35075
G1 X30.5 Y24.8 E32.38417
G1 X87.601 Y24.8 E35.51783
G1 X89.393 Y24.801 E35.61618
G1 X90.065 Y24.81 E35.65306
G1 X90.567 Y24.838 E35.68065
G1 X91.198 Y24.901 E35.71545
G1 X91.717 Y24.985 E35.7443
G1 X92.58 Y25.189 E35.79297
G1 X93.322 Y25.441 E35.83597
G1 X93.449 Y25.493 E35.84351
G1 X93.985 Y25.724 E35.87554
G1 X94.498 Y25.993 E35.90733
G1 X94.633 Y26.075 E35.91599
G1 X95.107 Y26.376 E35.94681
G1 X95.593 Y26.725 E35.97964
G1 X96.298 Y27.319 E36.03024
G1 X96.668 Y27.687 E36.05887
G1 X96.948 Y28.003 E36.08204
G1 X97.307 Y28.434 E36.11283
G1 X97.649 Y28.918 E36.14535
G1 X97.728 Y29.044 E36.15351
G1 X98.005 Y29.512 E36.18336
G1 X98.296 Y30.078 E36.21828
G1 X98.641 Y30.895 E36.26695
G1 X98.829 Y31.481 E36.30073
G1 X98.909 Y31.791 E36.3183
G1 X99.036 Y32.349 E36.3497
G1 X99.128 Y32.998 E36.38568
G1 X99.14 Y33.135 E36.39322
G1 X99.183 Y33.791 E36.4293
G1 X99.2 Y34.452 E36.46559
G1 X99.199 Y85.358 E39.25927
G1 X99.189 Y86.063 E39.29796
G1 X99.161 Y86.576 E39.32616
G1 X99.1 Y87.187 E39.35986
G1 X99.016 Y87.708 E39.38882
G1 X98.813 Y88.576 E39.43774
G1 X98.568 Y89.298 E39.47958
G1 X98.514 Y89.434 E39.48761
G1 X98.276 Y89.986 E39.5206
G1 X98.007 Y90.498 E39.55234
G1 X97.926 Y90.632 E39.56093
G1 X97.633 Y91.094 E39.59096
G1 X97.27 Y91.599 E39.62509
G1 X96.681 Y92.298 E39.67525
G1 X96.313 Y92.668 E39.70389
G1 X95.982 Y92.961 E39.72815
G1 X95.565 Y93.308 E39.75792
G1 X95.082 Y93.649 E39.79037
G1 X94.958 Y93.727 E39.79841
G1 X94.494 Y94.002 E39.82801
G1 X93.907 Y94.302 E39.86418
G1 X93.099 Y94.643 E39.91231
G1 X92.612 Y94.804 E39.94046
G1 X92.204 Y94.91 E39.9636
G1 X91.557 Y95.056 E40
G1 X90.994 Y95.129 E40.03115
G1 X90.863 Y95.14 E40.03837
G1 X90.109 Y95.188 E40.07983
G1 X89.5 Y95.2 E40.11326
G1 X31.678 Y95.2 E43.28648
G1 X30.647 Y95.199 E43.34306
G1 X29.911 Y95.188 E43.38346
G1 X29.41 Y95.159 E43.411
G1 X28.802 Y95.099 E43.44453
G1 X28.283 Y95.015 E43.47338
G1 X27.42 Y94.811 E43.52205
G1 X26.677 Y94.558 E43.56512
G1 X26.551 Y94.507 E43.57258
G1 X26.015 Y94.276 E43.60461
G1 X25.502 Y94.007 E43.6364
G1 X25.367 Y93.925 E43.64507
G1 X24.893 Y93.624 E43.67588
G1 X24.401 Y93.27 E43.70915
G1 X23.702 Y92.681 E43.75931
G1 X23.326 Y92.306 E43.78845
G1 X23.038 Y91.98 E43.81233
G1 X22.689 Y91.56 E43.84229
G1 X22.35 Y91.081 E43.8745
G1 X22.272 Y90.956 E43.88258
G1 X21.995 Y90.488 E43.91243
G1 X21.696 Y89.904 E43.94844
G1 X21.356 Y89.094 E43.99665
G1 X21.173 Y88.525 E44.02945
G1 X21.09 Y88.206 E44.04754
G1 X20.964 Y87.654 E44.07861
G1 X20.872 Y87.001 E44.1148
G1 X20.86 Y86.863 E44.1224
G1 X20.812 Y86.109 E44.16386
G1 X20.8 Y85.5 E44.19729
G1 X20.801 Y34.624 E46.98933
G1 X20.811 Y33.933 E47.02725
G1 X20.839 Y33.425 E47.05517
G1 X20.901 Y32.798 E47.08975
G1 X20.985 Y32.285 E47.11828
G1 X21.187 Y31.424 E47.16681
G1 X21.441 Y30.679 E47.21001
G1 X21.494 Y30.548 E47.21776
G1 X21.728 Y30.006 E47.25016
G1 X21.999 Y29.491 E47.2821
G1 X22.074 Y29.368 E47.29
G1 X22.367 Y28.906 E47.32003
G1 X22.73 Y28.401 E47.35416
G1 X23.323 Y27.698 E47.40463
G1 X23.625 Y27.394 E47.42815
G0 F810 X23.694 Y27.325
G0 X24.02 Y27.038
G1 F1500 E42.42815
;MESH:oben.stl
G0 F1080 X32 Y44.269
G0 X31.728 Y46
;TYPE:WALL-INNER
G1 F1500 E48.15571
G1 F900 X31.43 Y46.172 E48.1746
G1 X28.4 Y47.922 E48.36662
G1 X28.4 Y52.078 E48.5947
G1 X31.43 Y53.828 E48.78672
G1 X31.728 Y54 E48.80561
G1 X31.43 Y54.172 E48.81631
G1 X28.4 Y55.922 E49.00834
G1 X28.4 Y60.078 E49.23641
G1 X31.43 Y61.828 E49.42844
G1 X31.728 Y62 E49.44732
G1 X31.43 Y62.172 E49.45803
G1 X28.4 Y63.922 E49.65005
G1 X28.4 Y68.078 E49.87813
G1 X31.43 Y69.828 E50.07016
G1 X31.728 Y70 E50.08904
G1 X31.43 Y70.172 E50.09974
G1 X28.4 Y71.922 E50.29177
G1 X28.4 Y76.078 E50.51985
G1 X32 Y78.157 E50.74799
G1 X35.6 Y76.078 E50.97613
G1 X35.6 Y71.922 E51.20421
G1 X32.57 Y70.172 E51.39624
G1 X32.272 Y70 E51.41512
G1 X32.57 Y69.828 E51.42582
G1 X35.6 Y68.078 E51.61785
G1 X35.6 Y63.922 E51.84593
G1 X32.57 Y62.172 E52.03795
G1 X32.272 Y62 E52.05683
G1 X32.57 Y61.828 E52.06754
G1 X35.6 Y60.078 E52.25956
G1 X35.6 Y55.922 E52.48764
G1 X32.57 Y54.172 E52.67967
G1 X32.272 Y54 E52.69855
G1 X32.57 Y53.828 E52.70925
G1 X35.6 Y52.078 E52.90128
G1 X35.6 Y47.922 E53.12936
G1 X32.57 Y46.172 E53.32138
G1 X32.272 Y46 E53.34027
G1 X32.57 Y45.828 E53.35097
G1 X35.6 Y44.078 E53.54299
G1 X35.6 Y39.922 E53.77107
G1 X32 Y37.843 E53.99922
G1 X28.4 Y39.922 E54.22736
G1 X28.4 Y44.078 E54.45544
G1 X31.43 Y45.828 E54.64746
G1 X31.728 Y46 E54.65817
G0 F1080 X32 Y45.695
;TYPE:WALL-OUTER
G1 F900 X35.2 Y43.847 E54.86096
G1 X35.2 Y40.153 E55.06369
G1 X32 Y38.305 E55.26648
G1 X28.8 Y40.153 E55.46927
G1 X28.8 Y43.847 E55.672
G1 X31.54 Y45.429 E55.84563
G0 F810 X32 Y45.695
G0 F1080 X32.173 Y45.595
G0 X32.393 Y45.977
G1 F1500 E50.84563
G0 F1080 X32 Y44.269
G0 X40 Y44.269
G0 X39.728 Y46
;TYPE:WALL-INNER
G1 F1500 E56.5732
G1 F900 X39.43 Y46.172 E56.59208
G1 X36.4 Y47.922 E56.7841
G1 X36.4 Y52.078 E57.01218
G1 X39.43 Y53.828 E57.20421
G1 X39.728 Y54 E57.22309
G1 X39.43 Y54.172 E57.23379
G1 X36.4 Y55.922 E57.42582
G1 X36.4 Y60.078 E57.6539
G1 X39.43 Y61.828 E57.84592
G1 X39.728 Y62 E57.86481
G1 X39.43 Y62.172 E57.87551
G1 X36.4 Y63.922 E58.06753
G1 X36.4 Y68.078 E58.29561
G1 X39.43 Y69.828 E58.48764
G1 X39.728 Y70 E58.50652
G1 X39.43 Y70.172 E58.51722
G1 X36.4 Y71.922 E58.70925
G1 X36.4 Y76.078 E58.93733
G1 X40 Y78.157 E59.16547
G1 X43.6 Y76.078 E59.39362
G1 X43.6 Y71.922 E59.62169
G1 X40.57 Y70.172 E59.81372
G1 X40.272 Y70 E59.8326
G1 X40.57 Y69.828 E59.84331
G1 X43.6 Y68.078 E60.03533
G1 X43.6 Y63.922 E60.26341
G1 X40.57 Y62.172 E60.45543
G1 X40.272 Y62 E60.47432
G1 X40.57 Y61.828 E60.48502
G1 X43.6 Y60.078 E60.67705
G1 X43.6 Y55.922 E60.90512
G1 X40.57 Y54.172 E61.09715
G1 X40.272 Y54 E61.11603
G1 X40.57 Y53.828 E61.12674
G1 X43.6 Y52.078 E61.31876
G1 X43.6 Y47.922 E61.54684
G1 X40.57 Y46.172 E61.73887
G1 X40.272 Y46 E61.75775
G1 X40.57 Y45.828 E61.76845
G1 X43.6 Y44.078 E61.96048
G1 X43.6 Y39.922 E62.18856
G1 X40 Y37.843 E62.4167
G1 X36.4 Y39.922 E62.64484
G1 X36.4 Y44.078 E62.87292
G1 X39.43 Y45.828 E63.06495
G1 X39.728 Y46 E63.07565
G0 F1080 X40 Y45.695
;TYPE:WALL-OUTER
G1 F900 X43.2 Y43.847 E63.27844
G1 X43.2 Y40.153 E63.48117
G1 X40 Y38.305 E63.68396
G1 X36.8 Y40.153 E63.88676
G1 X36.8 Y43.847 E64.08948
G1 X39.54 Y45.429 E64.26311
G0 F810 X40 Y45.695
G0 F1080 X40.173 Y45.595
G0 X40.393 Y45.977
G1 F1500 E59.26311
G0 F1080 X40 Y44.269
G0 X48 Y44.269
G0 X47.728 Y46
;TYPE:WALL-INNER
G1 F1500 E64.99068
G1 F900 X47.43 Y46.172 E65.00956
G1 X44.4 Y47.922 E65.20159
G1 X44.4 Y52.078 E65.42966
G1 X47.43 Y53.828 E65.62169
G1 X47.728 Y54 E65.64057
G1 X47.43 Y54.172 E65.65128
G1 X44.4 Y55.922 E65.8433
G1 X44.4 Y60.078 E66.07138
G1 X47.43 Y61.828 E66.26341
G1 X47.728 Y62 E66.28229
G1 X47.43 Y62.172 E66.29299
G1 X44.4 Y63.922 E66.48502
G1 X44.4 Y68.078 E66.7131
G1 X47.43 Y69.828 E66.90512
G1 X47.728 Y70 E66.924
G1 X47.43 Y70.172 E66.93471
G1 X44.4 Y71.922 E67.12673
G1 X44.4 Y76.078 E67.35481
G1 X48 Y78.157 E67.58295
G1 X51.6 Y76.078 E67.8111
G1 X51.6 Y71.922 E68.03918
G1 X48.57 Y70.172 E68.2312
G1 X48.272 Y70 E68.25008
G1 X48.57 Y69.828 E68.26079
G1 X51.6 Y68.078 E68.45281
G1 X51.6 Y63.922 E68.68089
G1 X48.57 Y62.172 E68.87292
G1 X48.272 Y62 E68.8918
G1 X48.57 Y61.828 E68.9025
G1 X51.6 Y60.078 E69.09453
G1 X51.6 Y55.922 E69.32261
G1 X48.57 Y54.172 E69.51463
G1 X48.272 Y54 E69.53351
G1 X48.57 Y53.828 E69.54422
G1 X51.6 Y52.078 E69.73624
G1 X51.6 Y47.922 E69.96432
G1 X48.57 Y46.172 E70.15635
G1 X48.272 Y46 E70.17523
G1 X48.57 Y45.828 E70.18593
G1 X51.6 Y44.078 E70.37796
G1 X51.6 Y39.922 E70.60604
G1 X48 Y37.843 E70.83418
G1 X44.4 Y39.922 E71.06232
G1 X44.4 Y44.078 E71.2904
G1 X47.43 Y45.828 E71.48243
G1 X47.728 Y46 E71.49313
G0 F1080 X48 Y45.695
;TYPE:WALL-OUTER
G1 F900 X51.2 Y43.847 E71.69593
G1 X51.2 Y40.153 E71.89865
G1 X48 Y38.305 E72.10144
G1 X44.8 Y40.153 E72.30424
G1 X44.8 Y43.847 E72.50696
G1 X47.54 Y45.429 E72.6806
G0 F810 X48 Y45.695
G0 F1080 X48.173 Y45.595
G0 X48.393 Y45.977
G1 F1500 E67.6806
G0 F1080 X48 Y44.269
G0 X56 Y44.269
G0 X55.728 Y46
;TYPE:WALL-INNER
G1 F1500 E73.40816
G1 F900 X55.43 Y46.172 E73.42704
G1 X52.4 Y47.922 E73.61907
