;FLAVOR:Marlin
;TIME:1665
;Filament used: 1.21011m
;Layer height: 0.12
;MINX:33.814
;MINY:45.804
;MINZ:0.3
;MAXX:67.799
;MAXY:73.158
;MAXZ:18.18
;Generated with Cura_SteamEngine 4.7.1
M104 S225
M105
M109 S225
M82 ;absolute extrusion mode
;Sliced at: Wed 10-03-2021 16:17:09
G21 ;metric values
G90 ;absolute positioning
M82 ;set extruder to absolute mode
M107 ;start with the fan off
G1 Z5.0 F1800 ;move Z to 5mm
G28 X0 Y0 F1800 ;move X/Y to min endstops
G28 Z0 ;move Z to min endstop
G92 E0 ;zero the extruded length
G1 F200 E6.0 ;extrude 6.0mm of feed stock to build pressure
G1 Z5.0 F300 ;move the platform down 5mm
G92 E0 ;zero the extruded length again
G1 F1800
;Put printing message on LCD screen
M117 Printing...
G92 E0
G92 E0
G1 F1500 E-5
;LAYER_COUNT:126
;LAYER:0
M107
G0 F1080 X43.113 Y55.074 Z0.3
;TYPE:SKIRT
G1 F1500 E0.72757
G1 F900 X44.197 Y55.789 E0.79883
G1 X44.236 Y55.908 E0.8057
G1 X44.177 Y56.089 E0.81615
G1 X44.022 Y56.202 E0.82668
G1 X43.832 Y56.202 E0.8371
G1 X43.54 Y55.989 E0.85694
G1 X43.177 Y55.211 E0.90405
G0 F810 X43.113 Y55.074
G0 F1080 X42.564 Y54.234
G1 F900 X44.534 Y55.533 E1.03355
G1 X44.656 Y55.908 E1.05519
G1 X44.517 Y56.336 E1.07989
G1 X44.151 Y56.602 E1.10472
G1 X43.703 Y56.602 E1.12931
G1 X43.219 Y56.251 E1.16212
G1 X42.339 Y54.361 E1.27653
G0 F810 X42.307 Y54.293
G0 X42.388 Y54.234
G0 X42.564 Y54.234
G0 F1080 X42.684 Y53.834
G1 F900 X44.871 Y55.276 E1.42029
G1 X45.077 Y55.908 E1.45677
G1 X44.857 Y56.584 E1.49579
G1 X44.281 Y57.002 E1.53484
G1 X43.573 Y57.002 E1.5737
G1 X42.902 Y56.514 E1.61923
G1 X41.871 Y54.303 E1.75311
G1 X41.951 Y54.058 E1.76726
G1 X42.178 Y53.893 E1.78266
G0 F810 X42.259 Y53.834
G0 X42.684 Y53.834
G0 F1080 X42.804 Y53.434
G1 F900 X45.209 Y55.02 E1.94076
G1 X45.498 Y55.908 E1.99201
G1 X45.198 Y56.83 E2.04522
G1 X44.41 Y57.402 E2.09865
G1 X43.444 Y57.402 E2.15167
G1 X42.582 Y56.776 E2.21013
G1 X41.442 Y54.329 E2.35828
G1 X41.61 Y53.811 E2.38816
G1 X42.129 Y53.434 E2.42337
G1 X42.272 Y53.434 E2.43121
G0 F810 X42.804 Y53.434
G0 F1080 X42.924 Y53.034
G1 F900 X45.545 Y54.763 E2.60353
G1 X45.918 Y55.908 E2.66962
G1 X45.537 Y57.078 E2.73714
G1 X44.541 Y57.802 E2.80472
G1 X43.313 Y57.802 E2.87211
G1 X42.262 Y57.038 E2.94342
G1 X41.013 Y54.356 E3.10578
G1 X41.271 Y53.563 E3.15155
G1 X41.999 Y53.034 E3.20093
G1 X42.392 Y53.034 E3.2225
G0 F810 X42.924 Y53.034
G0 F1080 X43.045 Y52.634
G1 F900 X45.882 Y54.505 E3.409
G1 X46.338 Y55.908 E3.48996
G1 X45.877 Y57.326 E3.57179
G1 X44.671 Y58.202 E3.65359
G1 X43.183 Y58.202 E3.73525
G1 X41.944 Y57.302 E3.81929
G1 X40.584 Y54.382 E3.99607
G1 X40.931 Y53.316 E4.05759
G1 X41.87 Y52.634 E4.12128
G1 X42.513 Y52.634 E4.15657
G0 F810 X43.045 Y52.634
G0 F1080 X43.165 Y52.234
G1 F900 X46.22 Y54.249 E4.35741
G1 X46.76 Y55.908 E4.45316
G1 X46.218 Y57.572 E4.5492
G1 X44.8 Y58.602 E4.64538
G1 X43.054 Y58.602 E4.7412
G1 X41.624 Y57.563 E4.8382
G1 X40.154 Y54.407 E5.02927
G1 X40.59 Y53.069 E5.1065
G1 X41.74 Y52.234 E5.18449
G1 X42.633 Y52.234 E5.2335
G0 F810 X43.165 Y52.234
G1 F1500 E0.2335
;MESH:MicroApex_RushCherryMount.STL
G0 F1080 X44.953 Y50.223
G0 X45.539 Y48.269
;TYPE:WALL-INNER
G1 F1500 E5.96106
G1 F900 X45.98 Y48.303 E5.98533
G1 X46.822 Y48.368 E6.03168
G1 X46.976 Y48.38 E6.04016
G1 X47.418 Y48.42 E6.06451
G1 X47.552 Y48.433 E6.0719
G1 X50.51 Y48.662 E6.23472
G1 X51.127 Y48.719 E6.26872
G1 X52.696 Y48.843 E6.3551
G1 X54.025 Y48.954 E6.42829
G1 X54.239 Y48.971 E6.44007
G1 X54.496 Y48.996 E6.45424
G1 X54.381 Y49.111 E6.45526
G1 X54.23 Y49.263 E6.46434
G1 X52.606 Y50.888 E6.59042
G1 X52.595 Y50.899 E6.59128
G1 X52.565 Y50.929 E6.59361
G1 X52.531 Y50.963 E6.59624
G1 X52.464 Y50.83 E6.60055
G1 X52.495 Y50.799 E6.6014
G1 X52.505 Y50.789 E6.60166
G1 X52.369 Y50.673 E6.60762
G1 X52.361 Y50.659 E6.60826
G1 X52.186 Y50.517 E6.62063
G1 X51.816 Y50.201 E6.64733
G1 X51.657 Y50.143 E6.65662
G1 X51.425 Y50.05 E6.67034
G1 X51.202 Y49.984 E6.6831
G1 X51.123 Y49.956 E6.6877
G1 X50.045 Y49.628 E6.74954
G1 X49.129 Y49.353 E6.80202
G1 X48.3 Y49.101 E6.84957
G1 X47.312 Y48.804 E6.90619
G1 X46.887 Y48.677 E6.92783
G1 X46.801 Y48.651 E6.93104
G1 X45.973 Y48.399 E6.95479
G1 X45.539 Y48.269 E6.95817
G1 F1500 E1.95817
G0 F1080 X44.953 Y50.223
G0 X38.223 Y56.967
G0 X36.272 Y57.559
G1 F1500 E7.68574
G1 F900 X36.372 Y57.886 E7.7045
G1 X36.808 Y59.339 E7.78776
G1 X36.822 Y59.385 E7.79039
G1 X37.249 Y60.795 E7.87124
G1 X37.524 Y61.713 E7.92384
G1 X37.774 Y62.539 E7.9712
G1 X37.952 Y63.138 E8.00549
G1 X37.981 Y63.221 E8.01031
G1 X38.018 Y63.344 E8.01736
G1 X38.059 Y63.436 E8.02289
G1 X38.192 Y63.805 E8.04442
G1 X38.256 Y63.883 E8.04995
G1 X38.297 Y63.975 E8.05548
G1 X38.497 Y64.17 E8.07081
G1 X38.663 Y64.368 E8.08499
G1 X38.745 Y64.415 E8.09018
G1 X38.809 Y64.479 E8.09514
G1 X38.949 Y64.542 E8.10357
G1 X38.911 Y64.58
G1 X38.894 Y64.597
G1 X37.26 Y66.233 E8.23046
G1 X37.119 Y66.374 E8.24141
G1 X36.995 Y66.498 E8.25103
G1 X36.966 Y66.223 E8.25796
G1 X36.95 Y66.024 E8.2666
G1 X36.9 Y65.407 E8.30057
G1 X36.839 Y64.697 E8.33968
G1 X36.48 Y60.129 E8.59114
G1 X36.429 Y59.559 E8.62255
G1 X36.417 Y59.405 E8.63103
G1 X36.299 Y57.892 E8.68048
G1 X36.272 Y57.559 E8.68206
G1 F1500 E3.68206
G0 F1080 X38.223 Y56.967
G0 X55.532 Y50.836
G0 X55.044 Y49.013
G1 F1500 E9.40962
G1 F900 X52.637 Y51.422 E9.59651
G1 X53.377 Y54.185 E9.75348
G1 X53.518 Y54.712 E9.78342
G1 X53.606 Y54.735 E9.78841
G1 X56.715 Y55.569 E9.96507
G1 X56.808 Y55.594 E9.97035
G1 X56.874 Y55.528 E9.97547
G1 X59.144 Y53.258 E10.15165
G1 X59.217 Y53.185 E10.15732
G1 X59.193 Y53.093 E10.16253
G1 X58.363 Y49.997 E10.33844
G1 X58.335 Y49.895 E10.34424
G1 X58.23 Y49.867 E10.35021
G1 X55.557 Y49.15 E10.50209
G0 F810 X55.044 Y49.013
G0 F1080 X55.164 Y49.459
;TYPE:WALL-OUTER
G1 F900 X53.083 Y51.541 E10.66363
G1 X53.845 Y54.385 E10.82521
G1 X56.689 Y55.148 E10.98681
G1 X58.771 Y53.066 E11.1484
G1 X58.008 Y50.222 E11.30999
G1 X55.677 Y49.596 E11.44245
G0 F810 X55.164 Y49.459
G0 F1080 X55.023 Y49.6
G0 X54.713 Y49.289
G1 F1500 E6.44245
G0 F1080 X55.532 Y50.836
G0 X40.051 Y62.802
G0 X39.535 Y64.672
;TYPE:WALL-INNER
G1 F1500 E12.17001
G1 F900 X39.472 Y64.655 E12.17359
G1 X39.417 Y64.64 E12.17672
G1 X39.383 Y64.674 E12.17936
G1 X37.069 Y66.99 E12.35903
G1 X37.01 Y67.049 E12.36361
G1 X37.865 Y70.242 E12.54501
G1 X37.891 Y70.339 E12.55052
G1 X37.979 Y70.362 E12.55552
G1 X41.088 Y71.196 E12.73217
G1 X41.181 Y71.221 E12.73745
G1 X41.247 Y71.155 E12.74257
G1 X43.517 Y68.885 E12.91875
G1 X43.59 Y68.812 E12.92442
G1 X43.566 Y68.72 E12.92964
G1 X42.733 Y65.614 E13.10611
G1 X42.708 Y65.522 E13.11135
G1 X42.62 Y65.499 E13.11634
G1 X40.049 Y64.809 E13.26242
G0 F810 X39.535 Y64.672
G0 F1080 X39.537 Y65.086
;TYPE:WALL-OUTER
G1 F900 X37.456 Y67.168 E13.42397
G1 X38.218 Y70.012 E13.58555
G1 X41.062 Y70.775 E13.74715
G1 X43.144 Y68.693 E13.90874
G1 X42.381 Y65.849 E14.07033
G1 X40.05 Y65.223 E14.20279
G0 F810 X39.537 Y65.086
G0 F1080 X39.396 Y65.227
G0 X39.086 Y64.916
G1 F1500 E9.20279
G0 F1080 X40.009 Y62.784
G0 X42.148 Y49.371
G0 X41.836 Y47.57
;TYPE:WALL-INNER
G1 F1500 E14.93035
G1 F900 X42.625 Y47.632 E14.97379
G1 X42.982 Y47.661 E14.99344
G1 X43.56 Y47.709 E15.02527
G1 X43.687 Y47.719 E15.03226
G1 X44.098 Y47.755 E15.0549
G1 X47.007 Y47.982 E15.21503
G1 X47.585 Y48.034 E15.24688
G1 X50.541 Y48.264 E15.4096
G1 X51.161 Y48.32 E15.44376
G1 X52.729 Y48.444 E15.53008
G1 X54.272 Y48.572 E15.61505
G1 X54.628 Y48.607 E15.63468
G1 X54.745 Y48.622 E15.64115
G1 X55.121 Y48.723 E15.66252
G1 X58.307 Y49.577 E15.79862
G1 X58.414 Y49.63 E15.80344
G1 X58.461 Y49.654 E15.80507
G1 X58.494 Y49.672 E15.80607
G1 X58.536 Y49.719 E15.80837
G1 X58.603 Y49.799 E15.81254
G1 X58.654 Y49.918 E15.81793
G1 X59.482 Y53.015 E15.95021
G1 X59.487 Y53.175 E15.957
G1 X59.489 Y53.217 E15.95847
G1 X59.468 Y53.275 E15.96075
G1 X59.432 Y53.374 E15.96497
G1 X59.357 Y53.47 E15.97001
G1 X57.086 Y55.74 E16.10228
G1 X56.952 Y55.823 E16.10896
G1 X56.918 Y55.845 E16.11036
G1 X56.855 Y55.856 E16.11276
G1 X56.749 Y55.875 E16.11712
G1 X56.638 Y55.859 E16.12176
G1 X53.529 Y55.025 E16.25457
G1 X53.392 Y54.953 E16.26115
G1 X53.353 Y54.932 E16.26257
G1 X53.313 Y54.885 E16.2649
G1 X53.263 Y54.825 E16.26813
G1 X53.254 Y54.795 E16.2692
G1 X53.088 Y54.263 E16.29133
G1 X52.347 Y51.501 E16.40913
G1 X52.329 Y51.436 E16.41283
G1 X52.22 Y51.233 E16.42548
G1 X52.077 Y50.953 E16.44273
G1 X52.059 Y50.937 E16.44406
G1 X52.051 Y50.923 E16.44494
G1 X51.915 Y50.813 E16.45454
G1 X51.916 Y50.812 E16.45462
G1 X51.612 Y50.552 E16.47657
G1 X51.515 Y50.517 E16.48223
G1 X51.293 Y50.428 E16.49536
G1 X51.074 Y50.363 E16.50789
G1 X50.998 Y50.336 E16.51232
G1 X49.929 Y50.011 E16.57364
G1 X49.013 Y49.736 E16.62612
G1 X48.184 Y49.484 E16.67367
G1 X46.685 Y49.034 E16.75956
G1 X45.857 Y48.782 E16.80706
G1 X44.358 Y48.332 E16.89295
G1 X43.651 Y48.117 E16.93351
G1 X43.529 Y48.08 E16.94027
G1 X42.912 Y47.895 E16.968
G1 X42.612 Y47.805 E16.97644
G1 X41.836 Y47.57 E16.98669
G1 F1500 E11.98669
G0 F1080 X42.148 Y49.371
G0 X37.368 Y54.151
G0 X35.772 Y53.439
G1 F1500 E17.71426
G1 F900 X35.559 Y53.652 E17.73079
G1 X35.523 Y53.19 E17.74552
G1 X35.519 Y53.141 E17.74822
G1 X35.484 Y52.749 E17.76982
G1 X40.747 Y47.484 E18.17836
G1 X41.224 Y47.522 E18.20462
G1 X41.225 Y47.523 E18.2047
G1 X41.655 Y47.556 E18.22837
G1 X41.35 Y47.861 E18.24129
G1 X35.807 Y53.404 E18.67148
G1 X35.772 Y53.439 E18.67187
G0 F1080 X35.577 Y53.873
G1 F900 X36.109 Y55.634 E18.77282
G1 X36.11 Y55.635 E18.7729
G1 X36.228 Y56.025 E18.79526
G1 X36.503 Y56.943 E18.84785
G1 X36.755 Y57.771 E18.89535
G1 X37.205 Y59.27 E18.98124
G1 X37.632 Y60.68 E19.06209
G1 X37.907 Y61.598 E19.11468
G1 X38.157 Y62.424 E19.16205
G1 X38.333 Y63.015 E19.19589
G1 X38.365 Y63.107 E19.20123
G1 X38.394 Y63.205 E19.20684
G1 X38.429 Y63.283 E19.21153
G1 X38.545 Y63.605 E19.23032
G1 X38.599 Y63.671 E19.235
G1 X38.631 Y63.742 E19.23927
G1 X38.792 Y63.899 E19.25161
G1 X38.923 Y64.056 E19.26283
G1 X38.992 Y64.095 E19.26718
G1 X39.042 Y64.146 E19.2711
G1 X39.267 Y64.248 E19.28466
G1 X39.346 Y64.293 E19.28965
G1 X39.388 Y64.317 E19.2923
G1 X39.462 Y64.339 E19.29654
G1 X39.545 Y64.382 E19.30058
G1 X39.612 Y64.382 E19.30328
G1 X42.697 Y65.209 E19.43506
G1 X42.834 Y65.281 E19.44164
G1 X42.873 Y65.302 E19.44306
G1 X42.913 Y65.349 E19.44536
G1 X42.982 Y65.432 E19.44976
G1 X43.024 Y65.535 E19.45438
G1 X43.855 Y68.642 E19.5871
G1 X43.86 Y68.802 E19.59389
G1 X43.862 Y68.844 E19.59536
G1 X43.841 Y68.902 E19.59764
G1 X43.805 Y69.001 E19.60186
G1 X43.73 Y69.097 E19.6069
G1 X41.459 Y71.367 E19.73917
G1 X41.325 Y71.45 E19.74585
G1 X41.291 Y71.472 E19.74725
G1 X41.228 Y71.483 E19.74965
G1 X41.122 Y71.502 E19.75401
G1 X41.011 Y71.486 E19.75866
G1 X37.902 Y70.652 E19.89146
G1 X37.765 Y70.58 E19.89804
G1 X37.727 Y70.56 E19.89938
G1 X37.686 Y70.51 E19.90184
G1 X37.62 Y70.431 E19.90596
G1 X37.575 Y70.32 E19.91092
G1 X36.719 Y67.128 E20.04751
G1 X36.698 Y67.047 E20.05161
G1 X36.621 Y66.762 E20.06781
G1 X36.568 Y66.265 E20.09524
G1 X36.501 Y65.44 E20.14066
G1 X36.44 Y64.731 E20.17971
G1 X36.081 Y60.162 E20.43123
G1 X36.03 Y59.59 E20.46275
G1 X35.798 Y56.634 E20.62547
G1 X35.751 Y56.101 E20.65483
G1 X35.72 Y55.709 E20.67641
G1 X35.719 Y55.707 E20.67653
G1 X35.577 Y53.873 E20.7273
G0 F1080 X35.973 Y53.803
;TYPE:WALL-OUTER
G1 F900 X36.611 Y55.91 E20.84811
G1 X36.886 Y56.827 E20.90065
G1 X37.138 Y57.656 E20.9482
G1 X37.588 Y59.155 E21.03409
G1 X38.015 Y60.565 E21.11494
G1 X38.29 Y61.482 E21.16748
G1 X38.541 Y62.31 E21.21496
G1 X38.713 Y62.891 E21.24822
G1 X38.742 Y62.972 E21.25294
G1 X38.77 Y63.065 E21.25827
G1 X38.799 Y63.13 E21.26217
G1 X38.898 Y63.405 E21.27821
G1 X38.942 Y63.459 E21.28204
G1 X38.964 Y63.508 E21.28498
G1 X39.083 Y63.623 E21.29407
G1 X39.183 Y63.743 E21.30264
G1 X39.237 Y63.773 E21.30603
G1 X39.276 Y63.813 E21.30909
G1 X39.442 Y63.888 E21.31909
G1 X39.546 Y63.947 E21.32565
G1 X39.613 Y63.967 E21.32949
G1 X39.642 Y63.982 E21.33128
G1 X39.664 Y63.982 E21.33249
G1 X42.843 Y64.834 E21.51311
G1 X43.13 Y64.986 E21.53093
G1 X43.328 Y65.223 E21.54788
G1 X43.403 Y65.407 E21.55878
G1 X44.254 Y68.586 E21.73939
G1 X44.265 Y68.908 E21.75707
G1 X44.159 Y69.198 E21.77401
G1 X44.032 Y69.361 E21.78535
G1 X41.711 Y71.681 E21.96545
G1 X41.436 Y71.853 E21.98325
G1 X41.13 Y71.907 E22.0003
G1 X40.932 Y71.879 E22.01128
G1 X37.756 Y71.027 E22.19174
G1 X37.469 Y70.875 E22.20956
G1 X37.273 Y70.641 E22.22631
G1 X37.195 Y70.447 E22.23778
G1 X36.226 Y66.832 E22.44318
G1 X36.17 Y66.308 E22.4721
G1 X36.102 Y65.473 E22.51807
G1 X36.041 Y64.765 E22.55707
G1 X35.923 Y63.266 E22.63959
G1 X35.919 Y63.2 E22.64322
G1 X35.682 Y60.195 E22.80864
G1 X35.631 Y59.621 E22.84027
G1 X35.399 Y56.667 E23.00288
G1 X35.352 Y56.132 E23.03235
G1 X35.124 Y53.223 E23.19249
G1 X35.069 Y52.598 E23.22692
G1 X40.594 Y47.071 E23.6558
G1 X43.016 Y47.262 E23.78913
G1 X44.13 Y47.356 E23.85048
G1 X47.038 Y47.584 E24.01056
G1 X47.618 Y47.635 E24.04251
G1 X50.572 Y47.866 E24.20512
G1 X51.194 Y47.921 E24.23939
G1 X52.762 Y48.045 E24.32571
G1 X54.305 Y48.173 E24.41068
G1 X54.679 Y48.21 E24.4313
G1 X54.819 Y48.228 E24.43905
G1 X58.448 Y49.201 E24.64524
G1 X58.601 Y49.276 E24.65459
G1 X58.743 Y49.351 E24.6634
G1 X58.833 Y49.451 E24.67078
G1 X58.948 Y49.589 E24.68064
G1 X59.031 Y49.783 E24.69222
G1 X59.881 Y52.959 E24.87265
G1 X59.892 Y53.281 E24.89034
G1 X59.786 Y53.571 E24.90728
G1 X59.659 Y53.734 E24.91862
G1 X57.338 Y56.054 E25.09872
G1 X57.063 Y56.226 E25.11652
G1 X56.757 Y56.28 E25.13357
G1 X56.559 Y56.252 E25.14454
G1 X53.383 Y55.4 E25.325
G1 X53.096 Y55.248 E25.34283
G1 X52.905 Y55.019 E25.35919
G1 X52.706 Y54.382 E25.39581
G1 X51.955 Y51.584 E25.5548
G1 X51.868 Y51.422 E25.56489
G1 X51.757 Y51.205 E25.57827
G1 X51.743 Y51.193 E25.57928
G1 X51.738 Y51.184 E25.57985
G1 X51.655 Y51.116 E25.58573
G1 X51.408 Y50.904 E25.6036
G1 X51.38 Y50.894 E25.60523
G1 X51.161 Y50.806 E25.61818
G1 X50.939 Y50.74 E25.63089
G1 X50.872 Y50.716 E25.6348
G1 X49.813 Y50.394 E25.69554
G1 X48.897 Y50.119 E25.74803
G1 X48.068 Y49.867 E25.79558
G1 X46.569 Y49.417 E25.88147
G1 X45.741 Y49.165 E25.92897
G1 X44.242 Y48.715 E26.01486
G1 X43.413 Y48.463 E26.06241
G1 X42.496 Y48.188 E26.11495
G1 X41.799 Y47.977 E26.15491
G1 X36.349 Y53.427 E26.57789
G0 F810 X35.973 Y53.803
G0 F1080 X36.03 Y53.994
G0 X35.609 Y54.12
G1 F1500 E21.57789
G0 F1080 X37.368 Y54.151
G0 X39.201 Y60.207
G0 X36.952 Y61.165
;TYPE:SKIN
G1 F1500 E27.30546
G1 F900 X37.15 Y61.826 E27.34333
G1 X37.4 Y62.652 E27.39069
G1 X37.581 Y63.258 E27.42539
G1 X37.607 Y63.334 E27.4298
G1 X37.652 Y63.481 E27.43824
G1 X37.697 Y63.581 E27.44426
G1 X37.848 Y63.999 E27.46865
G1 X37.92 Y64.09 E27.47502
G1 X37.972 Y64.202 E27.48179
G1 X38.217 Y64.442 E27.50061
G1 X38.345 Y64.596 E27.5116
G1 X37.309 Y65.634 E27.59209
G1 X37.227 Y64.666 E27.6454
G1 X36.993 Y61.695 E27.80895
G0 F810 X36.952 Y61.165
G0 F1080 X37.258 Y63.28
G1 F900 X37.531 Y63.553 E27.83014
G0 F1080 X37.306 Y63.893
G1 F900 X38.077 Y64.664 E27.88998
G0 F1080 X37.794 Y64.947
G1 F900 X37.354 Y64.507 E27.92413
G0 F1080 X37.405 Y65.124
G1 F900 X37.512 Y65.23 E27.93239
G1 F1500 E22.93239
G0 F1080 X39.329 Y67.047
G0 X48.425 Y51.271
G0 X49.129 Y48.946
G1 F1500 E28.65996
G1 F900 X50.475 Y49.05 E28.73404
G1 X51.094 Y49.107 E28.76816
G1 X52.665 Y49.231 E28.85464
G1 X53.631 Y49.311 E28.90784
G1 X52.596 Y50.348 E28.98824
G1 X52.431 Y50.214 E28.99991
G1 X52.015 Y49.858 E29.02995
G1 X51.791 Y49.777 E29.04303
G1 X51.553 Y49.681 E29.05711
G1 X51.326 Y49.614 E29.0701
G1 X51.245 Y49.585 E29.07482
G1 X50.158 Y49.255 E29.13716
G1 X49.638 Y49.099 E29.16696
G0 F810 X49.129 Y48.946
G0 F1080 X50.935 Y49.238
G1 F900 X51.088 Y49.391 E29.17883
G0 F1080 X51.545 Y49.282
G1 F900 X51.946 Y49.684 E29.20999
G0 F1080 X52.159 Y49.33
G1 F900 X52.786 Y49.958 E29.25869
G0 F1080 X53.069 Y49.674
G1 F900 X52.774 Y49.38 E29.28155
M104 S216
G1 F1500 E24.28155
G0 F1080 X52.862 Y46.81
G0 X55.041 Y47.005
G0 X58.888 Y48.036
G0 X59.544 Y48.379
G0 X60.022 Y48.949
G0 X61.113 Y52.771
G0 X61.129 Y53.511
G0 X60.868 Y54.198
G0 X58.118 Y57.025
G0 X57.484 Y57.413
G0 X56.754 Y57.531
G0 X52.932 Y56.562
G0 X42.148 Y49.371
G0 X41.204 Y47.709
;TYPE:SKIN
G1 F1500 E30.00911
G1 F900 X40.98 Y47.768 E30.02126
G1 X38.702 Y50.016 E30.18908
