;FLAVOR:Marlin
;TIME:4003
;Filament used: 3.77721m
;Layer height: 0.12
;MINX:3.521
;MINY:1.951
;MINZ:0.3
;MAXX:113.928
;MAXY:112.344
;MAXZ:14.58
;Generated with Cura_SteamEngine 4.7.1
M104 S225
M105
M109 S225
M82 ;absolute extrusion mode
;Sliced at: Tue 27-04-2021 10:46:27
G21 ;metric values
G90 ;absolute positioning
M82 ;set extruder to absolute mode
M107 ;start with the fan off
G1 Z5.0 F1800 ;move Z to 5mm
G28 X0 Y0 F1800 ;move X/Y to min endstops
G28 Z0 ;move Z to min endstop
G92 E0 ;zero the extruded length
G1 F200 E6.0 ;extrude 6.0mm of feed stock to build pressure
G1 Z5.0 F300 ;move the platform down 5mm
G92 E0 ;zero the extruded length again
G1 F1800
;Put printing message on LCD screen
M117 Printing...
G92 E0
G92 E0
G1 F1500 E-5
;LAYER_COUNT:67
;LAYER:0
M107
G0 F1200 X7.702 Y76.658 Z0.3
;TYPE:SKIRT
G1 F1500 E0.72757
G1 F900 X77.004 Y7.356 E6.10616
G1 X78.012 Y6.349 E6.18435
G1 X78.617 Y5.762 E6.23061
G1 X79.044 Y5.381 E6.26202
G1 X79.59 Y4.932 E6.30081
G1 X79.802 Y4.77 E6.31546
G1 X80.345 Y4.381 E6.35211
G1 X80.57 Y4.231 E6.36695
G1 X81.152 Y3.871 E6.40451
G1 X81.389 Y3.735 E6.4195
G1 X82.02 Y3.402 E6.45866
G1 X82.254 Y3.288 E6.47294
G1 X82.784 Y3.051 E6.50481
G1 X83.036 Y2.949 E6.51973
G1 X83.732 Y2.693 E6.56042
G1 X83.99 Y2.608 E6.57533
G1 X84.578 Y2.436 E6.60895
G1 X84.834 Y2.37 E6.62346
G1 X85.568 Y2.207 E6.66472
G1 X85.834 Y2.157 E6.67958
G1 X86.472 Y2.06 E6.71499
G1 X87.131 Y1.988 E6.75137
G1 X87.66 Y1.961 E6.78044
G1 X88.313 Y1.951 E6.81628
G1 X88.581 Y1.956 E6.83099
G1 X89.276 Y1.992 E6.86918
G1 X89.532 Y2.014 E6.88329
G1 X90.159 Y2.087 E6.91793
G1 X90.426 Y2.127 E6.93274
G1 X91.094 Y2.251 E6.97003
G1 X91.367 Y2.312 E6.98538
G1 X92.054 Y2.49 E7.02433
G1 X92.309 Y2.565 E7.03891
G1 X92.937 Y2.773 E7.07522
G1 X93.187 Y2.865 E7.08984
G1 X93.789 Y3.11 E7.12551
G1 X94.031 Y3.218 E7.14005
G1 X94.668 Y3.528 E7.17893
G1 X94.909 Y3.656 E7.1939
G1 X95.451 Y3.967 E7.2282
G1 X95.679 Y4.108 E7.24291
G1 X96.258 Y4.494 E7.2811
G1 X96.478 Y4.651 E7.29593
G1 X96.989 Y5.044 E7.33131
G1 X97.192 Y5.212 E7.34577
G1 X97.79 Y5.738 E7.38948
G1 X98.204 Y6.125 E7.42058
G1 X98.29 Y6.208 E7.42714
G1 X101.215 Y9.135 E7.65423
G1 X102.403 Y10.358 E7.7478
G1 X102.986 Y10.974 E7.79434
G1 X104.907 Y12.894 E7.94339
G1 X105.953 Y13.895 E8.02285
G1 X106.53 Y14.442 E8.06648
G1 X109.298 Y17.212 E8.28138
G1 X110.198 Y18.144 E8.35249
G1 X110.38 Y18.346 E8.36741
G1 X110.85 Y18.904 E8.40745
G1 X111.017 Y19.116 E8.42226
G1 X111.424 Y19.671 E8.46003
G1 X111.585 Y19.907 E8.47571
G1 X111.959 Y20.502 E8.51427
G1 X112.086 Y20.72 E8.52812
G1 X112.391 Y21.281 E8.56316
G1 X112.522 Y21.544 E8.57929
G1 X112.835 Y22.236 E8.62097
G1 X112.941 Y22.494 E8.63627
G1 X113.169 Y23.109 E8.67227
G1 X113.257 Y23.375 E8.68765
G1 X113.466 Y24.089 E8.72847
G1 X113.532 Y24.346 E8.74304
G1 X113.667 Y24.954 E8.77721
G1 X113.718 Y25.231 E8.79267
G1 X113.824 Y25.942 E8.83212
G1 X113.856 Y26.219 E8.84742
G1 X113.91 Y26.906 E8.88524
G1 X113.922 Y27.186 E8.90062
G1 X113.928 Y27.903 E8.93997
G1 X113.921 Y28.175 E8.95491
G1 X113.883 Y28.809 E8.98976
G1 X113.857 Y29.082 E9.00481
G1 X113.761 Y29.826 E9.04598
G1 X113.716 Y30.101 E9.06127
G1 X113.589 Y30.734 E9.0967
G1 X113.526 Y31 E9.1117
G1 X113.348 Y31.652 E9.1488
G1 X113.268 Y31.909 E9.16357
G1 X113.041 Y32.564 E9.20161
G1 X112.94 Y32.826 E9.21702
G1 X112.663 Y33.474 E9.25569
G1 X112.545 Y33.726 E9.27097
G1 X112.232 Y34.337 E9.30864
G1 X112.096 Y34.58 E9.32392
G1 X111.729 Y35.188 E9.3629
G1 X111.581 Y35.416 E9.37781
G1 X111.181 Y35.987 E9.41607
G1 X111.013 Y36.208 E9.43131
G1 X110.554 Y36.775 E9.47134
G1 X110.22 Y37.155 E9.49911
G1 X109.75 Y37.639 E9.53613
G1 X40.445 Y106.943 E14.91492
G1 X39.465 Y107.922 E14.99094
G1 X38.834 Y108.535 E15.03922
G1 X38.41 Y108.913 E15.07039
G1 X37.894 Y109.338 E15.10708
G1 X37.678 Y109.504 E15.12203
G1 X37.025 Y109.971 E15.16609
G1 X36.791 Y110.126 E15.18149
G1 X36.33 Y110.409 E15.21117
G1 X36.111 Y110.534 E15.22501
G1 X35.421 Y110.9 E15.26788
G1 X35.178 Y111.018 E15.2827
G1 X34.663 Y111.248 E15.31366
G1 X34.413 Y111.35 E15.32847
G1 X33.717 Y111.606 E15.36917
G1 X33.459 Y111.691 E15.38408
G1 X32.871 Y111.863 E15.4177
G1 X32.613 Y111.929 E15.43231
G1 X31.895 Y112.088 E15.47267
G1 X31.627 Y112.138 E15.48763
G1 X30.991 Y112.234 E15.52293
G1 X30.728 Y112.265 E15.53747
G1 X30.084 Y112.319 E15.57293
G1 X29.813 Y112.332 E15.58782
G1 X29.055 Y112.344 E15.62942
G1 X28.786 Y112.34 E15.64419
G1 X28.243 Y112.312 E15.67403
G1 X27.987 Y112.29 E15.68813
G1 X27.248 Y112.204 E15.72896
G1 X26.981 Y112.164 E15.74377
G1 X26.334 Y112.044 E15.77989
G1 X26.059 Y111.983 E15.79535
G1 X25.438 Y111.822 E15.83055
G1 X25.187 Y111.748 E15.84491
G1 X24.512 Y111.525 E15.88393
G1 X24.256 Y111.431 E15.89889
G1 X23.643 Y111.181 E15.93522
G1 X23.4 Y111.072 E15.94984
G1 X22.775 Y110.767 E15.988
G1 X22.535 Y110.64 E16.00291
G1 X21.994 Y110.329 E16.03715
G1 X21.77 Y110.19 E16.05162
G1 X21.177 Y109.795 E16.09072
G1 X20.957 Y109.637 E16.10559
G1 X20.46 Y109.255 E16.13999
G1 X20.257 Y109.088 E16.15441
G1 X19.686 Y108.586 E16.19614
G1 X19.273 Y108.201 E16.22712
G1 X19.184 Y108.114 E16.23395
G1 X16.235 Y105.165 E16.46283
G1 X15.035 Y103.931 E16.55729
G1 X14.438 Y103.299 E16.605
G1 X12.501 Y101.364 E16.75525
G1 X11.536 Y100.442 E16.8285
G1 X10.968 Y99.905 E16.8714
G1 X8.174 Y97.11 E17.08828
G1 X7.222 Y96.124 E17.1635
G1 X7.038 Y95.92 E17.17857
G1 X6.621 Y95.424 E17.21414
G1 X6.458 Y95.216 E17.22864
G1 X5.998 Y94.589 E17.27131
G1 X5.838 Y94.353 E17.28696
G1 X5.507 Y93.827 E17.32107
G1 X5.372 Y93.596 E17.33575
G1 X5.051 Y93.001 E17.37285
G1 X4.928 Y92.755 E17.38795
G1 X4.614 Y92.063 E17.42965
G1 X4.506 Y91.798 E17.44535
G1 X4.278 Y91.182 E17.4814
G1 X4.19 Y90.917 E17.49673
G1 X3.987 Y90.223 E17.53641
G1 X3.921 Y89.966 E17.55097
G1 X3.778 Y89.321 E17.58723
G1 X3.726 Y89.043 E17.60275
G1 X3.626 Y88.37 E17.64009
G1 X3.596 Y88.1 E17.65499
G1 X3.54 Y87.398 E17.69364
G1 X3.527 Y87.113 E17.7093
G1 X3.521 Y86.396 E17.74865
G1 X3.528 Y86.125 E17.76353
G1 X3.567 Y85.472 E17.79943
G1 X3.593 Y85.199 E17.81448
G1 X3.681 Y84.516 E17.85227
G1 X3.725 Y84.247 E17.86723
G1 X3.862 Y83.558 E17.90578
G1 X3.927 Y83.282 E17.92134
G1 X4.101 Y82.646 E17.95753
G1 X4.18 Y82.391 E17.97218
G1 X4.408 Y81.734 E18.01034
G1 X4.509 Y81.472 E18.02575
G1 X4.79 Y80.815 E18.06497
G1 X4.907 Y80.567 E18.08001
G1 X5.321 Y79.76 E18.12979
G1 X5.643 Y79.217 E18.16443
G1 X5.822 Y78.946 E18.18226
G1 X6.272 Y78.308 E18.2251
G1 X6.43 Y78.1 E18.23944
G1 X6.893 Y77.527 E18.27987
G1 X7.236 Y77.137 E18.30837
G1 X7.331 Y77.039 E18.31586
G0 F810 X7.702 Y76.658
G0 F1200 X8.023 Y76.901
G1 F900 X77.286 Y7.638 E23.69143
G1 X78.29 Y6.636 E23.76927
G1 X78.895 Y6.049 E23.81553
G1 X79.298 Y5.69 E23.84515
G1 X79.844 Y5.241 E23.88395
G1 X80.034 Y5.095 E23.8971
G1 X80.577 Y4.706 E23.93375
G1 X80.78 Y4.571 E23.94713
G1 X81.362 Y4.211 E23.98469
G1 X81.576 Y4.089 E23.99821
G1 X82.207 Y3.756 E24.03736
G1 X82.417 Y3.654 E24.05017
G1 X82.947 Y3.417 E24.08204
G1 X83.174 Y3.324 E24.0955
G1 X83.87 Y3.068 E24.1362
G1 X84.102 Y2.992 E24.14959
G1 X84.69 Y2.82 E24.18321
G1 X84.921 Y2.761 E24.1963
G1 X85.655 Y2.598 E24.23756
G1 X85.894 Y2.553 E24.25091
G1 X86.532 Y2.456 E24.28632
G1 X87.167 Y2.387 E24.32138
G1 X87.666 Y2.361 E24.3488
G1 X88.319 Y2.351 E24.38464
G1 X88.56 Y2.356 E24.39787
G1 X89.255 Y2.392 E24.43606
G1 X89.485 Y2.411 E24.44873
G1 X90.112 Y2.484 E24.48337
G1 X90.353 Y2.52 E24.49674
G1 X91.021 Y2.644 E24.53403
G1 X91.267 Y2.699 E24.54786
G1 X91.954 Y2.877 E24.58681
G1 X92.183 Y2.945 E24.59992
G1 X92.811 Y3.153 E24.63622
G1 X93.036 Y3.236 E24.64938
G1 X93.638 Y3.481 E24.68505
G1 X93.856 Y3.578 E24.69815
G1 X94.493 Y3.888 E24.73702
G1 X94.71 Y4.003 E24.7505
G1 X95.252 Y4.314 E24.78479
G1 X95.457 Y4.441 E24.79803
G1 X96.036 Y4.827 E24.83622
G1 X96.234 Y4.968 E24.84956
G1 X96.745 Y5.361 E24.88493
G1 X96.928 Y5.512 E24.89796
G1 X97.526 Y6.038 E24.94166
G1 X97.93 Y6.416 E24.97202
G1 X98.007 Y6.491 E24.97792
G1 X100.928 Y9.414 E25.2047
G1 X102.113 Y10.633 E25.298
G1 X102.714 Y11.268 E25.34598
G1 X104.63 Y13.183 E25.49465
G1 X105.658 Y14.167 E25.57274
G1 X106.172 Y14.652 E25.61152
G1 X106.247 Y14.725 E25.61727
G1 X109.011 Y17.49 E25.83182
G1 X109.911 Y18.422 E25.90293
G1 X110.074 Y18.604 E25.91633
G1 X110.544 Y19.162 E25.95637
G1 X110.694 Y19.352 E25.96966
G1 X111.101 Y19.907 E26.00743
G1 X111.246 Y20.12 E26.02157
G1 X111.62 Y20.715 E26.06014
G1 X111.735 Y20.911 E26.07261
G1 X112.04 Y21.472 E26.10765
G1 X112.157 Y21.708 E26.12211
G1 X112.47 Y22.4 E26.16379
G1 X112.565 Y22.633 E26.17759
G1 X112.793 Y23.248 E26.21359
G1 X112.873 Y23.488 E26.22747
G1 X113.082 Y24.202 E26.2683
G1 X113.141 Y24.433 E26.28139
G1 X113.276 Y25.041 E26.31556
G1 X113.323 Y25.29 E26.32947
G1 X113.429 Y26.001 E26.36892
G1 X113.457 Y26.25 E26.38267
G1 X113.511 Y26.937 E26.42049
G1 X113.522 Y27.189 E26.43433
G1 X113.528 Y27.906 E26.47368
G1 X113.522 Y28.151 E26.48713
G1 X113.484 Y28.785 E26.52199
G1 X113.46 Y29.031 E26.53555
G1 X113.364 Y29.775 E26.57672
G1 X113.324 Y30.022 E26.59045
G1 X113.197 Y30.655 E26.62588
G1 X113.14 Y30.895 E26.63942
G1 X112.962 Y31.547 E26.67651
G1 X112.891 Y31.778 E26.68977
G1 X112.664 Y32.433 E26.72782
G1 X112.572 Y32.669 E26.74172
G1 X112.295 Y33.317 E26.78039
G1 X112.189 Y33.543 E26.79409
G1 X111.876 Y34.154 E26.83177
G1 X111.754 Y34.373 E26.84553
G1 X111.387 Y34.981 E26.8845
G1 X111.254 Y35.187 E26.89796
G1 X110.854 Y35.758 E26.93622
G1 X110.702 Y35.956 E26.94991
G1 X110.243 Y36.523 E26.98995
G1 X109.933 Y36.876 E27.01573
G1 X109.426 Y37.398 E27.05567
G1 X40.163 Y106.661 E32.43123
G1 X39.186 Y107.635 E32.50694
G1 X38.555 Y108.248 E32.55522
G1 X38.156 Y108.604 E32.58457
G1 X37.64 Y109.029 E32.62125
G1 X37.445 Y109.178 E32.63472
G1 X36.792 Y109.645 E32.67878
G1 X36.581 Y109.785 E32.69268
G1 X36.12 Y110.068 E32.72236
G1 X35.924 Y110.18 E32.73475
G1 X35.234 Y110.546 E32.77761
G1 X35.015 Y110.653 E32.79099
G1 X34.5 Y110.883 E32.82194
G1 X34.275 Y110.975 E32.83528
G1 X33.579 Y111.231 E32.87598
G1 X33.347 Y111.307 E32.88938
G1 X32.759 Y111.479 E32.923
G1 X32.526 Y111.539 E32.9362
G1 X31.808 Y111.698 E32.97656
G1 X31.567 Y111.743 E32.99002
G1 X30.931 Y111.839 E33.02532
G1 X30.695 Y111.866 E33.03835
G1 X30.051 Y111.92 E33.07382
G1 X29.807 Y111.933 E33.08723
G1 X29.049 Y111.945 E33.12883
G1 X28.807 Y111.94 E33.14211
G1 X28.264 Y111.912 E33.17195
G1 X28.033 Y111.893 E33.18467
G1 X27.294 Y111.807 E33.2255
G1 X27.053 Y111.771 E33.23888
G1 X26.406 Y111.651 E33.27499
G1 X26.16 Y111.596 E33.28882
G1 X25.539 Y111.435 E33.32403
G1 X25.313 Y111.368 E33.33696
G1 X24.638 Y111.145 E33.37598
G1 X24.408 Y111.06 E33.38943
G1 X23.795 Y110.81 E33.42576
G1 X23.575 Y110.712 E33.43898
G1 X22.95 Y110.407 E33.47715
G1 X22.735 Y110.293 E33.4905
G1 X22.194 Y109.982 E33.52475
G1 X21.992 Y109.857 E33.53778
G1 X21.399 Y109.462 E33.57689
G1 X21.201 Y109.32 E33.59026
G1 X20.704 Y108.938 E33.62466
G1 X20.521 Y108.788 E33.63764
G1 X19.95 Y108.286 E33.67937
G1 X19.547 Y107.909 E33.70965
G1 X19.466 Y107.832 E33.71579
G1 X16.522 Y104.887 E33.94431
G1 X15.326 Y103.656 E34.0385
G1 X14.729 Y103.024 E34.08621
G1 X12.8 Y101.097 E34.23585
G1 X11.796 Y100.137 E34.31208
G1 X11.169 Y99.543 E34.35948
G1 X8.462 Y96.833 E34.56969
G1 X7.51 Y95.847 E34.64491
G1 X7.344 Y95.663 E34.65851
G1 X6.927 Y95.167 E34.69407
G1 X6.78 Y94.98 E34.70712
G1 X6.32 Y94.353 E34.7498
G1 X6.176 Y94.14 E34.76391
G1 X5.845 Y93.614 E34.79801
G1 X5.724 Y93.406 E34.81122
G1 X5.403 Y92.811 E34.84832
G1 X5.293 Y92.59 E34.86187
G1 X4.979 Y91.898 E34.90357
G1 X4.881 Y91.66 E34.9177
G1 X4.653 Y91.044 E34.95374
G1 X4.574 Y90.805 E34.96756
G1 X4.371 Y90.111 E35.00724
G1 X4.311 Y89.879 E35.02039
G1 X4.168 Y89.234 E35.05665
G1 X4.122 Y88.984 E35.0706
G1 X4.022 Y88.311 E35.10794
G1 X3.994 Y88.068 E35.12136
G1 X3.938 Y87.366 E35.16001
G1 X3.927 Y87.11 E35.17407
G1 X3.921 Y86.393 E35.21342
G1 X3.927 Y86.148 E35.22687
G1 X3.966 Y85.495 E35.26277
G1 X3.99 Y85.25 E35.27628
G1 X4.078 Y84.567 E35.31407
G1 X4.117 Y84.325 E35.32752
G1 X4.254 Y83.636 E35.36608
G1 X4.313 Y83.388 E35.38007
G1 X4.487 Y82.752 E35.41625
G1 X4.558 Y82.522 E35.42946
G1 X4.786 Y81.865 E35.46763
G1 X4.877 Y81.629 E35.48151
G1 X5.158 Y80.972 E35.52072
G1 X5.263 Y80.749 E35.53425
G1 X5.621 Y80.049 E35.5774
G1 X5.899 Y79.562 E35.60817
G1 X6.149 Y79.177 E35.63336
G1 X6.599 Y78.539 E35.67621
G1 X6.741 Y78.351 E35.68914
G1 X7.204 Y77.778 E35.72957
G1 X7.523 Y77.416 E35.75605
G1 X7.653 Y77.283 E35.76625
G0 F810 X8.023 Y76.901
G0 F1200 X8.306 Y77.184
G1 F900 X77.57 Y7.92 E41.1419
G1 X78.569 Y6.923 E41.21935
G1 X79.174 Y6.336 E41.26562
G1 X79.552 Y5.999 E41.29341
G1 X80.098 Y5.55 E41.3322
G1 X80.267 Y5.421 E41.34387
G1 X80.81 Y5.032 E41.38053
G1 X80.991 Y4.912 E41.39244
G1 X81.573 Y4.552 E41.43
G1 X81.762 Y4.443 E41.44197
G1 X82.393 Y4.11 E41.48113
G1 X82.581 Y4.019 E41.49259
G1 X83.111 Y3.782 E41.52445
G1 X83.312 Y3.7 E41.53637
G1 X84.008 Y3.444 E41.57706
G1 X84.215 Y3.376 E41.58902
G1 X84.803 Y3.204 E41.62264
G1 X85.007 Y3.151 E41.63421
G1 X85.741 Y2.988 E41.67547
G1 X85.954 Y2.948 E41.68737
G1 X86.592 Y2.851 E41.72278
G1 X87.203 Y2.785 E41.75651
G1 X87.672 Y2.761 E41.78228
G1 X88.325 Y2.751 E41.81812
G1 X88.54 Y2.755 E41.82992
G1 X89.235 Y2.791 E41.86811
G1 X89.439 Y2.808 E41.87935
G1 X90.066 Y2.881 E41.91399
G1 X90.28 Y2.914 E41.92587
G1 X90.948 Y3.038 E41.96316
G1 X91.167 Y3.086 E41.97546
G1 X91.854 Y3.264 E42.01441
G1 X92.057 Y3.324 E42.02603
G1 X92.685 Y3.532 E42.06233
G1 X92.885 Y3.606 E42.07403
G1 X93.487 Y3.851 E42.1097
G1 X93.681 Y3.938 E42.12137
G1 X94.318 Y4.248 E42.16025
G1 X94.511 Y4.349 E42.1722
G1 X95.053 Y4.66 E42.2065
G1 X95.235 Y4.773 E42.21825
G1 X95.814 Y5.159 E42.25644
G1 X95.99 Y5.285 E42.26832
G1 X96.501 Y5.678 E42.3037
G1 X96.663 Y5.812 E42.31524
G1 X97.261 Y6.338 E42.35894
G1 X97.656 Y6.707 E42.38861
G1 X100.641 Y9.692 E42.62028
G1 X101.822 Y10.908 E42.7133
G1 X102.423 Y11.543 E42.76128
G1 X104.353 Y13.472 E42.91103
G1 X105.383 Y14.458 E42.98928
G1 X105.897 Y14.943 E43.02807
G1 X105.964 Y15.008 E43.03319
G1 X108.723 Y17.768 E43.24736
G1 X109.623 Y18.7 E43.31846
G1 X109.768 Y18.861 E43.33035
G1 X110.238 Y19.419 E43.37039
G1 X110.371 Y19.589 E43.38223
G1 X110.778 Y20.144 E43.42
G1 X110.907 Y20.333 E43.43256
G1 X111.281 Y20.928 E43.47113
G1 X111.383 Y21.103 E43.48225
G1 X111.688 Y21.664 E43.51729
G1 X111.793 Y21.873 E43.53013
G1 X112.106 Y22.565 E43.57181
G1 X112.19 Y22.772 E43.58407
G1 X112.418 Y23.387 E43.62006
G1 X112.489 Y23.6 E43.63238
G1 X112.698 Y24.314 E43.67321
G1 X112.751 Y24.519 E43.68483
G1 X112.886 Y25.127 E43.71901
G1 X112.927 Y25.349 E43.7314
G1 X113.033 Y26.06 E43.77085
G1 X113.058 Y26.281 E43.78306
G1 X113.112 Y26.968 E43.82087
G1 X113.122 Y27.192 E43.83318
G1 X113.128 Y27.909 E43.87253
G1 X113.122 Y28.127 E43.8845
G1 X113.084 Y28.761 E43.91935
G1 X113.064 Y28.98 E43.93142
G1 X112.968 Y29.724 E43.97259
G1 X112.931 Y29.943 E43.98478
G1 X112.804 Y30.576 E44.02021
G1 X112.754 Y30.79 E44.03227
G1 X112.576 Y31.442 E44.06936
G1 X112.513 Y31.647 E44.08113
G1 X112.286 Y32.302 E44.11917
G1 X112.204 Y32.512 E44.13155
G1 X111.927 Y33.16 E44.17022
G1 X111.833 Y33.361 E44.1824
G1 X111.52 Y33.972 E44.22007
G1 X111.412 Y34.167 E44.23231
G1 X111.045 Y34.775 E44.27128
G1 X110.926 Y34.957 E44.28321
G1 X110.526 Y35.528 E44.32147
G1 X110.391 Y35.704 E44.33365
G1 X109.867 Y36.35 E44.37929
G1 X109.646 Y36.597 E44.39748
G1 X109.143 Y37.115 E44.43711
G1 X39.879 Y106.379 E49.81275
G1 X38.908 Y107.348 E49.88804
G1 X38.277 Y107.961 E49.93631
G1 X37.901 Y108.295 E49.96391
G1 X37.385 Y108.72 E50.0006
G1 X37.212 Y108.853 E50.01258
G1 X36.559 Y109.32 E50.05663
G1 X36.372 Y109.444 E50.06895
G1 X35.911 Y109.727 E50.09863
G1 X35.736 Y109.827 E50.10969
G1 X35.046 Y110.193 E50.15256
G1 X34.852 Y110.288 E50.16441
G1 X34.337 Y110.518 E50.19537
G1 X34.137 Y110.599 E50.20721
G1 X33.441 Y110.855 E50.24791
G1 X33.234 Y110.923 E50.25986
G1 X32.646 Y111.095 E50.29348
G1 X32.44 Y111.148 E50.30516
G1 X31.722 Y111.307 E50.34552
G1 X31.508 Y111.347 E50.35746
G1 X30.872 Y111.443 E50.39276
G1 X30.661 Y111.468 E50.40442
G1 X30.017 Y111.522 E50.43989
G1 X29.801 Y111.533 E50.45176
G1 X29.043 Y111.545 E50.49336
