;FLAVOR:Marlin
;TIME:1176
;Filament used: 1.21934m
;Layer height: 0.12
;MINX:36.846
;MINY:27.873
;MINZ:0.3
;MAXX:84.054
;MAXY:72.925
;MAXZ:7.47
;Generated with Cura_SteamEngine 4.7.1
M104 S210
M105
M109 S210
M82 ;absolute extrusion mode
;Sliced at: Fri 03-12-2021 07:25:15
G21 ;metric values
G90 ;absolute positioning
M82 ;set extruder to absolute mode
M107 ;start with the fan off
G1 Z5.0 F1800 ;move Z to 5mm
G28 X0 Y0 F1800 ;move X/Y to min endstops
G28 Z0 ;move Z to min endstop
G92 E0 ;zero the extruded length
G1 F200 E6.0 ;extrude 6.0mm of feed stock to build pressure
G1 Z5.0 F300 ;move the platform down 5mm
G92 E0 ;zero the extruded length again
G1 F1800
;Put printing message on LCD screen
M117 Printing...
G92 E0
G92 E0
G1 F1500 E-5
;LAYER_COUNT:32
;LAYER:0
M107
G0 F1350 X38.282 Y40.747 Z0.3
;TYPE:SKIRT
G1 F1500 E0.72757
G1 F900 X38.75 Y40.341 E0.76157
G1 X39.266 Y39.999 E0.79554
G1 X39.865 Y39.708 E0.83209
G1 X42.502 Y38.647 E0.98808
G1 X44.985 Y37.563 E1.13676
G1 X47.427 Y36.416 E1.28482
G1 X49.809 Y35.211 E1.43132
G1 X52.168 Y33.935 E1.57851
G1 X54.975 Y32.302 E1.75672
G1 X59.609 Y29.501 E2.05388
G1 X60.662 Y28.889 E2.12072
G1 X61.167 Y28.632 E2.15182
G1 X61.907 Y28.335 E2.19558
G1 X62.489 Y28.158 E2.22896
G1 X63.152 Y28.007 E2.26628
G1 X63.866 Y27.907 E2.30584
G1 X64.368 Y27.876 E2.33344
G1 X64.672 Y27.873 E2.35013
G1 X65.36 Y27.904 E2.38792
G1 X66.016 Y27.986 E2.42421
G1 X66.7 Y28.128 E2.46254
G1 X67.328 Y28.315 E2.4985
G1 X67.968 Y28.569 E2.53629
G1 X68.494 Y28.825 E2.56839
G1 X68.692 Y28.928 E2.58064
G1 X69.284 Y29.292 E2.61878
G1 X69.774 Y29.65 E2.65208
G1 X70.17 Y29.976 E2.68023
G1 X70.998 Y30.728 E2.74162
G1 X73.074 Y32.56 E2.89356
G1 X75.137 Y34.279 E3.04093
G1 X77.242 Y35.936 E3.18795
G1 X79.424 Y37.554 E3.33703
G1 X80.526 Y38.331 E3.41102
G1 X80.735 Y38.483 E3.42521
G1 X81.157 Y38.828 E3.45512
G1 X81.766 Y39.406 E3.5012
G1 X82.21 Y39.907 E3.53794
G1 X82.597 Y40.422 E3.57329
G1 X82.968 Y41.02 E3.61191
G1 X83.257 Y41.583 E3.64664
G1 X83.377 Y41.836 E3.66201
G1 X83.61 Y42.425 E3.69677
G1 X83.784 Y42.996 E3.72953
G1 X83.93 Y43.687 E3.76828
G1 X84.012 Y44.306 E3.80255
G1 X84.029 Y44.464 E3.81127
G1 X84.054 Y45.134 E3.84807
G1 X84.035 Y45.714 E3.87991
G1 X83.934 Y46.55 E3.92613
G1 X83.819 Y47.082 E3.956
G1 X83.759 Y47.328 E3.96989
G1 X83.55 Y47.981 E4.00752
G1 X83.281 Y48.635 E4.04633
G1 X83.036 Y49.118 E4.07605
G1 X82.403 Y50.207 E4.14518
G1 X79.633 Y54.79 E4.43906
G1 X78.283 Y57.096 E4.5857
G1 X76.969 Y59.493 E4.73572
G1 X75.763 Y61.85 E4.88101
G1 X74.588 Y64.316 E5.03092
G1 X73.508 Y66.76 E5.17756
G1 X72.764 Y68.609 E5.28694
G1 X72.637 Y68.876 E5.30317
G1 X72.223 Y69.905 E5.36404
G1 X71.955 Y70.463 E5.39801
G1 X71.618 Y70.983 E5.43201
G1 X71.217 Y71.455 E5.466
G1 X70.758 Y71.871 E5.5
G1 X70.25 Y72.224 E5.53395
G1 X69.7 Y72.51 E5.56797
G1 X69.118 Y72.722 E5.60196
G1 X68.513 Y72.857 E5.63598
G1 X67.918 Y72.913 E5.66878
G1 X67.446 Y72.925 E5.69469
G1 X48.415 Y72.925 E6.73909
G1 X47.712 Y72.915 E6.77768
G1 X47.094 Y72.866 E6.8117
G1 X46.488 Y72.738 E6.84569
G1 X45.904 Y72.533 E6.87966
G1 X45.35 Y72.255 E6.91367
G1 X44.889 Y71.951 E6.94398
G1 X42.677 Y70.457 E7.09046
G1 X40.409 Y69.016 E7.23793
G1 X39.137 Y68.233 E7.3199
G1 X38.632 Y67.875 E7.35387
G1 X38.177 Y67.455 E7.38785
G1 X37.78 Y66.979 E7.42187
G1 X37.447 Y66.457 E7.45585
G1 X37.185 Y65.896 E7.48983
G1 X36.997 Y65.306 E7.52381
G1 X36.887 Y64.696 E7.55783
G1 X36.848 Y63.958 E7.59838
G1 X36.846 Y63.824 E7.60574
G1 X36.847 Y44.752 E8.6524
G1 X36.858 Y44.082 E8.68917
G1 X36.908 Y43.465 E8.72314
G1 X37.037 Y42.859 E8.75714
G1 X37.243 Y42.275 E8.79113
G1 X37.523 Y41.722 E8.82514
G1 X37.871 Y41.21 E8.85912
G1 X37.929 Y41.144 E8.86394
G0 F810 X38.282 Y40.747
G0 F1350 X38.673 Y40.927
G1 F900 X39.135 Y40.555 E8.89649
G1 X39.643 Y40.249 E8.92904
G1 X40.014 Y40.079 E8.95143
G1 X42.675 Y39.008 E9.10885
G1 X45.136 Y37.934 E9.25621
G1 X47.599 Y36.777 E9.40555
G1 X50.001 Y35.562 E9.55327
G1 X52.367 Y34.282 E9.7009
G1 X55.159 Y32.658 E9.87816
G1 X59.816 Y29.843 E10.17679
G1 X60.862 Y29.235 E10.24319
G1 X61.334 Y28.996 E10.27222
G1 X62.034 Y28.715 E10.31362
G1 X62.584 Y28.547 E10.34518
G1 X63.237 Y28.398 E10.38194
G1 X63.892 Y28.306 E10.41824
G1 X64.663 Y28.273 E10.46059
G1 X65.319 Y28.302 E10.49662
G1 X65.963 Y28.383 E10.53224
G1 X66.59 Y28.513 E10.56738
G1 X67.208 Y28.696 E10.60276
G1 X67.794 Y28.929 E10.63736
G1 X68.31 Y29.18 E10.66885
G1 X68.508 Y29.283 E10.6811
G1 X69.05 Y29.617 E10.71604
G1 X69.528 Y29.965 E10.74849
G1 X69.901 Y30.272 E10.775
G1 X70.763 Y31.054 E10.83887
G1 X72.799 Y32.851 E10.9879
G1 X74.879 Y34.585 E11.13651
G1 X77.002 Y36.255 E11.28475
G1 X79.214 Y37.896 E11.4359
G1 X80.291 Y38.655 E11.50821
G1 X80.886 Y39.123 E11.54975
G1 X81.486 Y39.692 E11.59513
G1 X81.893 Y40.151 E11.6288
G1 X82.274 Y40.657 E11.66356
G1 X82.613 Y41.205 E11.69892
G1 X82.895 Y41.754 E11.73279
G1 X83.015 Y42.007 E11.74816
G1 X83.229 Y42.547 E11.78004
G1 X83.4 Y43.107 E11.81217
G1 X83.534 Y43.741 E11.84773
G1 X83.615 Y44.348 E11.88134
G1 X83.632 Y44.506 E11.89006
G1 X83.655 Y45.121 E11.92383
G1 X83.636 Y45.701 E11.95568
G1 X83.543 Y46.467 E11.99803
G1 X83.431 Y46.988 E12.02727
G1 X83.371 Y47.234 E12.04117
G1 X83.179 Y47.831 E12.07558
G1 X82.918 Y48.468 E12.11336
G1 X82.69 Y48.917 E12.141
G1 X82.061 Y50 E12.20973
G1 X79.291 Y54.583 E12.50361
G1 X77.93 Y56.908 E12.65146
G1 X76.619 Y59.298 E12.80106
G1 X75.389 Y61.703 E12.9493
G1 X74.239 Y64.118 E13.09609
G1 X73.14 Y66.604 E13.24526
G1 X72.393 Y68.46 E13.35506
G1 X72.273 Y68.709 E13.37023
G1 X71.852 Y69.756 E13.43215
G1 X71.594 Y70.29 E13.4647
G1 X71.267 Y70.784 E13.49721
G1 X70.876 Y71.23 E13.52976
G1 X70.429 Y71.62 E13.56232
G1 X69.934 Y71.946 E13.59485
G1 X69.399 Y72.202 E13.62739
G1 X68.835 Y72.384 E13.65992
G1 X68.251 Y72.489 E13.69248
G1 X67.582 Y72.523 E13.72924
G1 X67.446 Y72.525 E13.73671
G1 X48.42 Y72.525 E14.78084
G1 X47.717 Y72.515 E14.81942
G1 X47.126 Y72.466 E14.85197
G1 X46.547 Y72.339 E14.8845
G1 X45.991 Y72.135 E14.917
G1 X45.253 Y71.717 E14.96355
G1 X45.149 Y71.644 E14.97052
G1 X42.893 Y70.121 E15.1199
G1 X40.611 Y68.67 E15.26831
G1 X40.517 Y68.614 E15.27431
G1 X39.347 Y67.893 E15.34973
G1 X38.864 Y67.548 E15.38231
G1 X38.432 Y67.142 E15.41484
G1 X38.058 Y66.682 E15.44738
G1 X37.75 Y66.175 E15.47993
G1 X37.513 Y65.632 E15.51245
G1 X37.351 Y65.061 E15.54502
G1 X37.257 Y64.27 E15.58873
G1 X37.246 Y63.824 E15.61322
G1 X37.247 Y44.759 E16.65949
G1 X37.258 Y44.089 E16.69626
G1 X37.307 Y43.498 E16.72881
G1 X37.436 Y42.919 E16.76136
G1 X37.641 Y42.363 E16.79388
G1 X37.919 Y41.839 E16.82644
G1 X38.266 Y41.358 E16.85899
G1 X38.308 Y41.314 E16.86232
G0 F810 X38.673 Y40.927
G0 F1350 X38.659 Y41.512
G1 F900 X39.063 Y41.116 E16.89337
G1 X39.518 Y40.781 E16.92438
G1 X40.163 Y40.45 E16.96416
G1 X42.847 Y39.37 E17.12294
G1 X45.288 Y38.305 E17.26909
G1 X47.784 Y37.131 E17.42047
G1 X50.178 Y35.921 E17.56767
G1 X52.567 Y34.629 E17.71673
G1 X55.388 Y32.988 E17.89583
G1 X60.082 Y30.15 E18.19685
G1 X61.063 Y29.58 E18.25912
G1 X61.647 Y29.296 E18.29476
G1 X62.16 Y29.094 E18.32501
G1 X62.679 Y28.935 E18.3548
G1 X63.321 Y28.789 E18.39093
G1 X63.919 Y28.705 E18.42407
G1 X64.654 Y28.673 E18.46445
G1 X65.279 Y28.7 E18.49878
G1 X65.911 Y28.779 E18.53373
G1 X66.481 Y28.897 E18.56568
G1 X67.088 Y29.078 E18.60044
G1 X67.621 Y29.289 E18.6319
G1 X68.125 Y29.534 E18.66265
G1 X68.323 Y29.637 E18.6749
G1 X68.816 Y29.941 E18.70669
G1 X69.282 Y30.281 E18.73834
G1 X69.633 Y30.568 E18.76323
G1 X70.511 Y31.365 E18.8283
G1 X72.542 Y33.157 E18.97694
G1 X74.638 Y34.904 E19.12669
G1 X76.784 Y36.593 E19.27656
G1 X78.94 Y38.192 E19.42387
G1 X80.056 Y38.978 E19.49878
G1 X80.616 Y39.417 E19.53783
G1 X81.206 Y39.977 E19.58247
G1 X81.576 Y40.395 E19.61311
G1 X81.95 Y40.891 E19.6472
G1 X82.258 Y41.39 E19.67938
G1 X82.534 Y41.926 E19.71246
G1 X82.654 Y42.179 E19.72783
G1 X82.848 Y42.67 E19.7568
G1 X83.015 Y43.219 E19.7883
G1 X83.137 Y43.795 E19.82061
G1 X83.217 Y44.391 E19.85361
G1 X83.234 Y44.549 E19.86233
G1 X83.255 Y45.108 E19.89303
G1 X83.236 Y45.688 E19.92488
G1 X83.152 Y46.384 E19.96335
G1 X83.042 Y46.893 E19.99193
G1 X82.982 Y47.139 E20.00582
G1 X82.808 Y47.682 E20.03712
G1 X82.554 Y48.302 E20.07389
G1 X82.344 Y48.717 E20.09941
G1 X81.755 Y49.732 E20.16381
G1 X78.977 Y54.328 E20.45853
G1 X77.568 Y56.735 E20.61159
G1 X76.278 Y59.088 E20.75886
G1 X75.03 Y61.528 E20.90926
G1 X73.869 Y63.963 E21.0573
G1 X72.776 Y66.436 E21.20569
G1 X72.022 Y68.311 E21.31659
G1 X71.903 Y68.555 E21.33149
G1 X71.481 Y69.606 E21.39364
G1 X71.233 Y70.115 E21.42472
G1 X70.917 Y70.583 E21.45571
G1 X70.537 Y71.002 E21.48675
G1 X70.103 Y71.364 E21.51777
G1 X69.621 Y71.66 E21.54881
G1 X69.103 Y71.886 E21.57982
G1 X68.558 Y72.036 E21.61084
G1 X67.893 Y72.113 E21.64758
G1 X67.446 Y72.125 E21.67212
G1 X48.426 Y72.125 E22.71592
G1 X47.723 Y72.115 E22.75451
G1 X47.16 Y72.067 E22.78552
G1 X46.609 Y71.94 E22.81655
G1 X46.081 Y71.736 E22.84761
G1 X45.483 Y71.39 E22.88553
G1 X45.381 Y71.318 E22.89238
G1 X43.11 Y69.785 E23.04275
G1 X40.812 Y68.324 E23.19219
G1 X40.726 Y68.273 E23.19768
G1 X39.556 Y67.552 E23.2731
G1 X39.097 Y67.222 E23.30412
G1 X38.689 Y66.831 E23.33513
G1 X38.341 Y66.386 E23.36614
G1 X38.058 Y65.897 E23.39714
G1 X37.847 Y65.372 E23.42819
G1 X37.713 Y64.823 E23.45921
G1 X37.657 Y64.258 E23.49037
G1 X37.646 Y63.824 E23.51419
G1 X37.647 Y44.765 E24.56013
G1 X37.658 Y44.095 E24.59691
G1 X37.707 Y43.532 E24.62792
G1 X37.835 Y42.982 E24.65891
G1 X38.039 Y42.454 E24.68998
G1 X38.316 Y41.961 E24.72101
G1 X38.337 Y41.934 E24.72289
G0 F810 X38.659 Y41.512
G0 F1350 X39.052 Y41.676
G1 F900 X39.451 Y41.316 E24.75238
G1 X39.898 Y41.02 E24.7818
G1 X40.313 Y40.821 E24.80706
G1 X42.978 Y39.748 E24.96472
G1 X45.468 Y38.662 E25.1138
G1 X47.928 Y37.506 E25.26297
G1 X50.385 Y36.263 E25.41408
G1 X52.768 Y34.975 E25.56274
G1 X55.591 Y33.332 E25.74199
G1 X60.283 Y30.496 E26.04286
G1 X61.264 Y29.926 E26.10513
G1 X61.8 Y29.665 E26.13785
G1 X62.287 Y29.474 E26.16655
G1 X62.774 Y29.324 E26.19452
G1 X63.405 Y29.18 E26.23004
G1 X63.945 Y29.104 E26.25997
G1 X64.645 Y29.073 E26.29842
G1 X65.238 Y29.097 E26.33099
G1 X65.859 Y29.176 E26.36534
G1 X66.372 Y29.282 E26.39409
G1 X66.967 Y29.459 E26.42816
G1 X67.447 Y29.649 E26.45649
G1 X67.94 Y29.889 E26.48658
G1 X68.138 Y29.992 E26.49883
G1 X68.582 Y30.266 E26.52746
G1 X69.036 Y30.596 E26.55826
G1 X69.364 Y30.864 E26.58151
G1 X70.242 Y31.661 E26.64658
G1 X72.287 Y33.466 E26.79627
G1 X74.38 Y35.211 E26.94582
G1 X76.522 Y36.896 E27.09538
G1 X78.712 Y38.52 E27.24501
G1 X79.775 Y39.269 E27.31637
G1 X80.346 Y39.712 E27.35603
G1 X80.926 Y40.263 E27.39994
G1 X81.259 Y40.639 E27.4275
G1 X81.626 Y41.126 E27.46097
G1 X81.903 Y41.575 E27.48992
G1 X82.173 Y42.097 E27.52217
G1 X82.467 Y42.792 E27.56358
G1 X82.631 Y43.33 E27.59445
G1 X82.741 Y43.849 E27.62357
G1 X82.819 Y44.434 E27.65595
G1 X82.836 Y44.592 E27.66467
G1 X82.855 Y45.095 E27.6923
G1 X82.836 Y45.675 E27.72415
G1 X82.76 Y46.301 E27.75875
G1 X82.653 Y46.798 E27.78665
G1 X82.593 Y47.044 E27.80055
G1 X82.436 Y47.533 E27.82873
G1 X82.19 Y48.136 E27.86447
G1 X81.998 Y48.516 E27.88784
G1 X81.376 Y49.586 E27.95576
G1 X78.632 Y54.126 E28.24688
G1 X77.231 Y56.52 E28.39911
G1 X75.907 Y58.933 E28.55016
G1 X74.677 Y61.338 E28.6984
G1 X73.5 Y63.808 E28.84856
G1 X72.408 Y66.278 E28.99676
G1 X71.651 Y68.161 E29.10814
G1 X71.535 Y68.397 E29.12257
G1 X71.109 Y69.457 E29.18527
G1 X70.873 Y69.939 E29.21472
G1 X70.568 Y70.38 E29.24414
G1 X70.2 Y70.77 E29.27357
G1 X69.779 Y71.102 E29.30299
G1 X69.313 Y71.367 E29.33241
G1 X68.812 Y71.56 E29.36188
G1 X68.289 Y71.677 E29.39129
G1 X67.557 Y71.723 E29.43154
G1 X67.446 Y71.725 E29.43763
G1 X48.432 Y71.725 E30.48111
G1 X47.729 Y71.715 E30.51969
G1 X47.195 Y71.667 E30.54911
G1 X46.673 Y71.541 E30.57858
G1 X46.177 Y71.338 E30.608
G1 X45.713 Y71.062 E30.63762
G1 X45.613 Y70.992 E30.64432
G1 X43.34 Y69.457 E30.79484
G1 X41.042 Y67.996 E30.94429
G1 X40.936 Y67.933 E30.95105
G1 X39.766 Y67.212 E31.02647
G1 X39.332 Y66.897 E31.0559
G1 X38.949 Y66.522 E31.08532
G1 X38.626 Y66.093 E31.11479
G1 X38.371 Y65.622 E31.14418
G1 X38.188 Y65.118 E31.17361
G1 X38.083 Y64.592 E31.20305
G1 X38.047 Y63.924 E31.23976
G1 X38.046 Y44.772 E32.2908
G1 X38.057 Y44.102 E32.32758
G1 X38.106 Y43.568 E32.35701
G1 X38.234 Y43.047 E32.38645
G1 X38.437 Y42.551 E32.41586
G1 X38.712 Y42.09 E32.44532
G1 X38.714 Y42.087 E32.44552
G0 F810 X39.052 Y41.676
G0 F1350 X39.444 Y41.849
G1 F900 X39.836 Y41.53 E32.47325
G1 X40.462 Y41.192 E32.5123
G1 X43.151 Y40.11 E32.67136
G1 X45.633 Y39.027 E32.81998
G1 X48.101 Y37.867 E32.96963
G1 X50.562 Y36.622 E33.12099
G1 X52.968 Y35.321 E33.2711
G1 X55.775 Y33.688 E33.44931
G1 X60.484 Y30.842 E33.75127
G1 X61.465 Y30.272 E33.81354
G1 X61.952 Y30.035 E33.84326
G1 X62.62 Y29.784 E33.88242
G1 X63.17 Y29.64 E33.91362
G1 X63.689 Y29.534 E33.94269
G1 X64.303 Y29.481 E33.97651
G1 X64.636 Y29.473 E33.99479
G1 X65.198 Y29.495 E34.02566
G1 X65.806 Y29.573 E34.0593
G1 X66.568 Y29.754 E34.10228
G1 X67.273 Y30.01 E34.14344
G1 X67.756 Y30.244 E34.1729
G1 X68.348 Y30.59 E34.21053
G1 X68.79 Y30.911 E34.24051
G1 X69.095 Y31.161 E34.26215
G1 X69.973 Y31.958 E34.32722
G1 X72.012 Y33.757 E34.47645
G1 X74.123 Y35.517 E34.62728
G1 X76.282 Y37.215 E34.77802
G1 X78.483 Y38.849 E34.92846
G1 X79.585 Y39.625 E35.00242
G1 X80.075 Y40.007 E35.03652
G1 X80.646 Y40.549 E35.07973
G1 X81.139 Y41.138 E35.12188
G1 X81.549 Y41.76 E35.16276
G1 X81.811 Y42.269 E35.19418
G1 X82.087 Y42.914 E35.23268
G1 X82.247 Y43.442 E35.26296
G1 X82.411 Y44.388 E35.31565
G1 X82.455 Y45.082 E35.35381
G1 X82.436 Y45.662 E35.38566
G1 X82.369 Y46.219 E35.41644
G1 X82.205 Y46.949 E35.45751
G1 X81.885 Y47.832 E35.50905
G1 X81.652 Y48.315 E35.53848
G1 X81.034 Y49.379 E35.606
G1 X78.287 Y53.924 E35.89745
G1 X76.877 Y56.332 E36.05059
G1 X75.558 Y58.738 E36.20116
G1 X74.318 Y61.163 E36.35064
G1 X73.145 Y63.624 E36.50025
G1 X72.035 Y66.135 E36.65092
G1 X71.28 Y68.012 E36.76195
G1 X71.169 Y68.236 E36.77566
G1 X70.738 Y69.308 E36.83907
G1 X70.513 Y69.761 E36.86683
G1 X70.22 Y70.173 E36.89457
G1 X69.865 Y70.533 E36.92232
G1 X69.458 Y70.833 E36.95007
G1 X69.009 Y71.065 E36.9778
G1 X68.529 Y71.223 E37.00554
G1 X67.868 Y71.313 E37.04215
G1 X67.446 Y71.325 E37.06532
G1 X48.437 Y71.325 E38.10851
G1 X47.734 Y71.315 E38.1471
G1 X47.231 Y71.268 E38.17482
G1 X46.741 Y71.142 E38.20259
G1 X46.278 Y70.94 E38.23031
G1 X45.808 Y70.641 E38.26088
G1 X43.535 Y69.106 E38.4114
G1 X41.249 Y67.653 E38.56005
G1 X41.146 Y67.592 E38.56662
G1 X39.976 Y66.871 E38.64204
G1 X39.568 Y66.573 E38.66977
G1 X39.212 Y66.214 E38.69752
G1 X38.917 Y65.803 E38.72528
G1 X38.69 Y65.351 E38.75304
G1 X38.538 Y64.87 E38.78072
G1 X38.456 Y64.236 E38.81581
G1 X38.446 Y63.824 E38.83842
G1 X38.446 Y44.778 E39.88365
G1 X38.457 Y44.108 E39.92043
G1 X38.506 Y43.605 E39.94816
G1 X38.633 Y43.116 E39.97589
G1 X38.835 Y42.653 E40.00361
G1 X39.094 Y42.249 E40.02995
G0 F810 X39.108 Y42.227
G0 X39.444 Y41.849
G1 F1500 E35.02995
;MESH:Ruderhorn.3mf(1)
G0 F1350 X43.046 Y45.554
;TYPE:WALL-INNER
G1 F1500 E40.75751
G1 F900 X45.038 Y45.554 E40.86683
G1 X61.971 Y35.316 E41.95275
G1 X62.2 Y35.178 E41.96742
G1 X62.429 Y35.04 E41.9821
G1 X62.288 Y35.322 E41.98728
G1 X62.231 Y35.584 E41.99809
G1 X62.19 Y35.77 E42.00854
G1 X62.147 Y36.234 E42.03412
G1 X62.215 Y36.682 E42.05898
G1 X62.344 Y37.129 E42.08452
G1 X62.59 Y37.557 E42.11161
G1 X62.792 Y37.851 E42.13118
G1 X63.139 Y38.123 E42.15538
G1 X63.51 Y38.408 E42.18105
G1 X63.821 Y38.496 E42.19879
G1 X64.424 Y38.639 E42.2328
G1 X64.484 Y38.654 E42.2362
G1 X64.758 Y38.634 E42.25127
G1 X64.945 Y38.621 E42.26156
G1 X65.336 Y38.549 E42.28338
G1 X65.13 Y38.783 E42.28772
G1 X65.006 Y38.924 E42.29618
G1 X44.016 Y62.754 E44.03893
G1 X43.046 Y62.754 E44.09216
G1 X43.046 Y46.086 E45.00689
G0 F810 X43.046 Y45.554
G1 F1500 E40.00689
G0 F1350 X63.922 Y38.109
G1 F1500 E45.73445
G1 F900 X64.457 Y38.236 E45.76463
G1 X64.517 Y38.251 E45.76802
G1 X64.895 Y38.224 E45.78882
G1 X65.263 Y38.157 E45.80935
G1 X65.282 Y38.153 E45.81041
G1 X65.635 Y37.989 E45.83177
G1 X65.958 Y37.788 E45.85265
G1 X66.229 Y37.512 E45.87388
G1 X66.408 Y37.276 E45.89013
G1 X66.461 Y37.205 E45.895
