;FLAVOR:Marlin
;TIME:5250
;Filament used: 3.52557m
;Layer height: 0.12
;MINX:29.394
;MINY:29.394
;MINZ:0.3
;MAXX:85.139
;MAXY:85.151
;MAXZ:23.82
;Generated with Cura_SteamEngine 4.7.1
M104 S225
M105
M109 S225
M82 ;absolute extrusion mode
;Sliced at: Thu 18-03-2021 10:54:10
G21 ;metric values
G90 ;absolute positioning
M82 ;set extruder to absolute mode
M107 ;start with the fan off
G1 Z5.0 F1800 ;move Z to 5mm
G28 X0 Y0 F1800 ;move X/Y to min endstops
G28 Z0 ;move Z to min endstop
G92 E0 ;zero the extruded length
G1 F200 E6.0 ;extrude 6.0mm of feed stock to build pressure
G1 Z5.0 F300 ;move the platform down 5mm
G92 E0 ;zero the extruded length again
G1 F1800
;Put printing message on LCD screen
M117 Printing...
G92 E0
G92 E0
G1 F1500 E-5
;LAYER_COUNT:173
;LAYER:0
M107
G0 F1542.9 X46.596 Y36.003 Z0.3
;TYPE:SUPPORT
G1 F1500 E0.72757
G1 F900 X47.669 Y34.928 E0.8526
G1 X48.126 Y34.928 E0.89022
G1 X48.314 Y34.742 E0.91199
G1 X49.862 Y36.262 E1.09058
G1 X49.812 Y36.312 E1.0964
G1 X49.817 Y37.158 E1.16604
G1 X50.09 Y37.432 E1.19788
G1 X49.098 Y38.423 E1.31331
G1 X48.824 Y38.149 E1.34521
G1 X47.977 Y38.15 E1.41493
G1 X47.934 Y38.193 E1.41994
G1 X46.397 Y36.656 E1.59887
G1 X46.596 Y36.457 E1.62203
G1 X46.596 Y36.358 E1.63018
G0 F810 X46.596 Y36.003
G0 F1542.9 X46.987 Y36.928
G1 F900 X49.591 Y36.928 E1.84454
G0 F1542.9 X48.468 Y37.925
G1 F900 X48.468 Y35.209 E2.06812
G0 F1542.9 X36.656 Y46.396
G1 F900 X38.19 Y47.93 E2.2467
G1 X38.146 Y47.974 E2.25183
G1 X38.146 Y48.822 E2.32163
G1 X38.423 Y49.099 E2.35388
G1 X38.077 Y49.446 E2.39422
G1 X37.88 Y49.64 E2.41698
G1 X37.431 Y50.09 E2.46931
G1 X37.158 Y49.813 E2.50132
G1 X36.31 Y49.812 E2.57113
G1 X36.264 Y49.858 E2.57648
G1 X34.699 Y48.293 E2.75868
G1 X34.929 Y47.74 E2.80798
G1 X34.929 Y47.67 E2.81374
G1 X36.004 Y46.597 E2.93877
G1 X36.384 Y46.597 E2.97005
G0 F810 X36.455 Y46.597
G0 X36.656 Y46.396
G0 F1542.9 X36.928 Y46.986
G1 F900 X36.928 Y49.587 E3.18416
G0 F1542.9 X37.921 Y48.468
G1 F900 X35.191 Y48.468 E3.40889
G1 F1500 E-1.59111
G0 F1542.9 X39.854 Y48.641
G0 X44.952 Y53.735
G0 X45.807 Y55.049
G0 X45.935 Y55.608
G1 F1500 E4.13646
G1 F900 X48.099 Y55.68 E4.3147
G1 X48.632 Y55.767 E4.35915
G1 X51.945 Y55.893 E4.63207
G1 X52.619 Y55.628 E4.69169
G1 X56.073 Y52.168 E5.09414
G1 X56.343 Y51.5 E5.15345
G1 X56.266 Y46.928 E5.52987
G1 X58.958 Y48.954 E5.80722
G1 X59.809 Y48.777 E5.87877
G1 X62.017 Y44.871 E6.24812
G1 X62.338 Y45.636 E6.31642
G1 X63.129 Y46.975 E6.44444
G1 X64.149 Y49.418 E6.66237
G1 X64.236 Y49.504 E6.67244
G1 X63.128 Y49.807 E6.767
G1 X62.887 Y50.72 E6.84473
G1 X69.851 Y57.674 E7.65487
G1 X70.633 Y57.801 E7.72009
G1 X73.463 Y56.387 E7.98051
G1 X74.688 Y55.972 E8.08698
G1 X74.69 Y55.974 E8.08721
G1 X74.844 Y56.333 E8.11937
G1 X72.759 Y58.853 E8.38861
G1 X72.798 Y59.683 E8.45701
G1 X74.02 Y60.906 E8.59933
G1 X74.875 Y61.556 E8.68774
G1 X76.449 Y63.129 E8.87092
G1 X75.078 Y65.147 E9.07175
G1 X74.989 Y65.888 E9.13319
G1 X76.406 Y69.619 E9.46173
G1 X76.972 Y70.109 E9.52335
G1 X78.122 Y70.368 E9.62039
G1 X78.78 Y71.473 E9.72626
G1 X79.048 Y72.662 E9.82659
G1 X78.438 Y72.343 E9.88326
G1 X78.006 Y71.64 E9.95118
G1 X76.854 Y71.503 E10.04668
G1 X76.847 Y71.51 E10.0475
G1 X76.361 Y71.256 E10.09264
G1 X75.57 Y71.393 E10.15872
G1 X73.512 Y73.626 E10.4087
G1 X72.484 Y75.111 E10.55738
G1 X71.628 Y76.042 E10.66149
G1 X71.539 Y76.819 E10.72587
G1 X71.491 Y76.868 E10.73151
G1 X71.659 Y78.052 E10.82995
G1 X72.489 Y78.508 E10.90791
G1 X72.686 Y78.855 E10.94076
G1 X72.099 Y78.774 E10.98954
G1 X71.504 Y78.73 E11.03865
G1 X70.725 Y78.231 E11.11481
G1 X70.546 Y77.413 E11.18374
G1 X70.087 Y76.836 E11.24443
G1 X67.986 Y75.841 E11.4358
G1 X66.29 Y75.263 E11.58329
G1 X65.571 Y75.321 E11.64267
G1 X63.218 Y76.572 E11.86204
G1 X62.206 Y75.551 E11.98038
G1 X61.855 Y75.079 E12.0288
G1 X61.664 Y74.889 E12.05098
G1 X61.649 Y74.871 E12.05291
G1 X60.822 Y74.046 E12.14907
G1 X60.751 Y72.937 E12.24055
G1 X52.843 Y65.03 E13.16111
G1 X52.055 Y64.668 E13.23249
G1 X50.629 Y63.587 E13.3798
G1 X46.515 Y63.201 E13.71994
G1 X49.327 Y60.059 E14.06705
G1 X49.296 Y59.22 E14.13616
G1 X47.256 Y57.252 E14.3695
G1 X46.788 Y56.907 E14.41736
G1 X46.473 Y56.6 E14.45357
G1 X46.089 Y55.925 E14.51749
G0 F810 X45.964 Y55.705
G0 X45.935 Y55.608
G1 F1500 E9.51749
G0 F1542.9 X48.468 Y55.968
G1 F1500 E15.24506
G1 F900 X48.468 Y58.108 E15.42122
G0 F1542.9 X48.044 Y57.7
G1 F900 X69.559 Y57.7 E17.19231
G0 F1542.9 X69.24 Y57.383
G1 F900 X69.24 Y76.186 E18.74015
G0 F1542.9 X69.192 Y76.164
G1 F900 X71.387 Y76.164 E18.92084
G0 F1542.9 X71.548 Y75.797
G1 F900 X71.548 Y57.595 E20.41921
G0 F1542.9 X71.337 Y57.7
G1 F900 X73.42 Y57.7 E20.59068
G0 F1542.9 X73.856 Y57.175
G1 F900 X73.856 Y56.491 E20.64699
G0 F1542.9 X72.806 Y60.008
G1 F900 X49.549 Y60.008 E22.56148
G0 F1542.9 X48.468 Y61.355
G1 F900 X48.468 Y63.158 E22.7099
G0 F1542.9 X47.609 Y62.316
G1 F900 X75.318 Y62.316 E24.99087
G0 F1542.9 X73.856 Y61.06
G1 F900 X73.856 Y72.921 E25.96725
G0 F1542.9 X73.079 Y73.856
G1 F900 X61.034 Y73.856 E26.95878
G0 F1542.9 X62.316 Y75.321
G1 F900 X62.316 Y46.042 E29.369
G0 F1542.9 X62.387 Y46.16
G1 F900 X61.547 Y46.16 E29.43814
G0 F1542.9 X60.242 Y48.468
G1 F900 X63.509 Y48.468 E29.70708
G0 F1542.9 X62.639 Y50.776
G1 F900 X56.555 Y50.776 E30.20791
G0 F1542.9 X56.516 Y48.468
G1 F900 X57.938 Y48.468 E30.32497
G0 F1542.9 X57.7 Y48.289
G1 F900 X57.7 Y69.568 E32.07663
G0 F1542.9 X57.37 Y69.24
G1 F900 X76.021 Y69.24 E33.61196
G0 F1542.9 X76.164 Y69.617
G1 F900 X76.164 Y71.062 E33.73091
G0 F1542.9 X75.121 Y71.548
G1 F900 X59.678 Y71.548 E35.00216
G0 F1542.9 X60.008 Y71.876
G1 F900 X60.008 Y48.881 E36.89508
G0 F1542.9 X64.624 Y52.773
G1 F900 X64.624 Y75.57 E38.7717
G0 F1542.9 X63.503 Y76.164
G1 F900 X63.13 Y76.164 E38.80241
G0 F1542.9 X66.932 Y75.244
G1 F900 X66.932 Y55.078 E40.46245
G0 F1542.9 X67.248 Y55.392
G1 F900 X53.173 Y55.392 E41.62108
G0 F1542.9 X53.084 Y55.48
G1 F900 X53.084 Y64.952 E42.40081
G0 F1542.9 X52.497 Y64.624
G1 F900 X75.161 Y64.624 E44.26648
G0 F1542.9 X75.145 Y66.932
G1 F900 X55.062 Y66.932 E45.91969
G0 F1542.9 X55.392 Y67.26
G1 F900 X55.392 Y53.168 E47.07973
G0 F1542.9 X55.477 Y53.084
G1 F900 X64.937 Y53.084 E47.85847
G0 F1542.9 X50.776 Y56.074
G1 F900 X50.776 Y63.416 E48.46285
G0 F1542.9 X71.548 Y78.248
G1 F900 X71.548 Y78.49 E48.48277
G0 F1542.9 X71.519 Y78.472
G1 F900 X71.828 Y78.472 E48.50821
G1 F1500 E43.50821
G0 F1542.9 X71.454 Y76.856
G0 X76.841 Y71.466
G0 X78.028 Y71.608
G0 X78.472 Y71.968
G1 F1500 E49.23577
G1 F900 X78.472 Y71.395 E49.28294
G0 F1542.9 X78.564 Y71.548
G1 F900 X78.213 Y71.548 E49.31184
G0 F1542.9 X44.955 Y62.957
G1 F900 X44.573 Y62.867 E49.34414
G1 X43.907 Y62.607 E49.403
G1 X43.558 Y62.414 E49.43583
G1 X43.296 Y62.221 E49.46261
G1 X43.239 Y62.167 E49.46908
G1 X42.95 Y61.85 E49.50439
G1 X43.408 Y61.392 E49.55771
G1 X44.707 Y62.706 E49.70981
G0 F810 X44.955 Y62.957
G1 F1500 E44.70981
;MESH:Canopy_2.stl
G0 F1542.9 X41.106 Y61.869
G0 X40.111 Y60.132
G0 X39.299 Y58.167
G0 X37.454 Y52.236
G0 X39.188 Y51.163
;TYPE:WALL-INNER
G1 F1500 E50.43737
G1 F900 X39.342 Y51.009 E50.44933
G1 X39.419 Y51.086 E50.45063
G1 X39.739 Y51.406 E50.47546
G1 X43.442 Y55.11 E50.76289
G1 X43.719 Y55.447 E50.78683
G1 X43.898 Y55.781 E50.80763
G1 X44.013 Y56.163 E50.82952
G1 X44.051 Y56.551 E50.85092
G1 X44.013 Y56.94 E50.87237
G1 X43.899 Y57.317 E50.89398
G1 X43.717 Y57.655 E50.91505
G1 X43.43 Y58.006 E50.93993
G1 X42.177 Y59.259 E51.03718
G1 X42.075 Y59.361 E51.04509
G1 X42.033 Y59.403 E51.04835
G1 X41.937 Y59.223 E51.05482
G1 X41.876 Y59.092 E51.06109
G1 X41.636 Y58.582 E51.09202
G1 X41.362 Y57.913 E51.1317
G1 X41.138 Y57.291 E51.16798
G1 X40.935 Y56.658 E51.20446
G1 X40.741 Y55.985 E51.2429
G1 X40.583 Y55.389 E51.27674
G1 X40.269 Y54.162 E51.34624
G1 X40.107 Y53.555 E51.38072
G1 X39.936 Y52.966 E51.41438
G1 X39.739 Y52.379 E51.44836
G1 X39.512 Y51.814 E51.48177
G1 X39.441 Y51.667 E51.49073
G1 X39.246 Y51.259 E51.5108
G1 X39.188 Y51.163 E51.51441
G0 F1542.9 X38.683 Y51.102
G1 F900 X39.202 Y50.583 E51.55469
G1 X39.342 Y50.443 E51.56556
G1 X39.482 Y50.583 E51.57256
G1 X43.737 Y54.839 E51.90284
G1 X44.051 Y55.222 E51.93002
G1 X44.07 Y55.258 E51.93225
G1 X44.27 Y55.63 E51.95543
G1 X44.407 Y56.083 E51.9814
G1 X44.453 Y56.551 E52.00721
G1 X44.407 Y57.02 E52.03307
G1 X44.271 Y57.468 E52.05876
G1 X44.049 Y57.881 E52.0845
G1 X43.727 Y58.275 E52.11242
G1 X42.123 Y59.879 E52.23691
G1 X41.933 Y60.069 E52.25165
G1 X41.807 Y59.832 E52.26046
G1 X41.579 Y59.402 E52.28717
G1 X41.269 Y58.741 E52.32724
G1 X40.992 Y58.065 E52.36733
G1 X40.987 Y58.049 E52.36825
G1 X40.762 Y57.427 E52.40455
G1 X40.55 Y56.768 E52.44254
G1 X40.357 Y56.095 E52.48096
G1 X40.195 Y55.488 E52.51544
G1 X39.882 Y54.263 E52.58483
G1 X39.722 Y53.662 E52.61896
G1 X39.554 Y53.086 E52.65189
G1 X39.363 Y52.517 E52.68483
G1 X39.146 Y51.975 E52.71687
G1 X38.948 Y51.563 E52.74195
G0 F810 X38.894 Y51.45
G0 X38.683 Y51.102
G0 F1542.9 X38.266 Y51.182
;TYPE:WALL-OUTER
G1 F900 X38.169 Y51.05 E52.75094
G1 X38.727 Y50.491 E52.79429
G1 X38.921 Y50.299 E52.80927
G1 X39.201 Y50.018 E52.83104
G1 X39.342 Y49.877 E52.84198
G1 X39.483 Y50.018 E52.84905
G1 X44.028 Y54.564 E53.20183
G1 X44.385 Y55 E53.23275
G1 X44.642 Y55.479 E53.26258
G1 X44.801 Y56.003 E53.29263
G1 X44.855 Y56.551 E53.32285
G1 X44.801 Y57.1 E53.35313
G1 X44.642 Y57.623 E53.38313
G1 X44.385 Y58.103 E53.41301
G1 X44.022 Y58.546 E53.44444
G1 X42.035 Y60.533 E53.59865
G1 X41.854 Y60.714 E53.6127
G1 X41.723 Y60.495 E53.62117
G1 X41.583 Y60.262 E53.63609
G1 X41.221 Y59.581 E53.67841
G1 X40.902 Y58.9 E53.71968
G1 X40.622 Y58.217 E53.76019
G1 X40.381 Y57.55 E53.79911
G1 X40.169 Y56.89 E53.83716
G1 X39.979 Y56.229 E53.8749
G1 X39.975 Y56.219 E53.87549
G1 X39.808 Y55.591 E53.91115
G1 X39.495 Y54.364 E53.98065
G1 X39.337 Y53.77 E54.01438
G1 X39.172 Y53.206 E54.04663
G1 X38.987 Y52.655 E54.07852
G1 X38.78 Y52.136 E54.10919
G1 X38.542 Y51.641 E54.13933
G1 X38.54 Y51.639 E54.13949
G0 F810 X38.273 Y51.196
G0 X38.266 Y51.182
G0 F1542.9 X38.169 Y51.05
G0 X38.195 Y51.024
G0 X38.774 Y51.173
G0 X40.144 Y52.362
;TYPE:SKIN
G1 F900 X43.14 Y55.358 E54.37201
G1 X43.397 Y55.671 E54.39423
G1 X43.533 Y55.924 E54.41
G1 X43.629 Y56.243 E54.42828
G1 X43.659 Y56.551 E54.44526
G1 X43.629 Y56.864 E54.46252
G1 X43.537 Y57.167 E54.4799
G1 X43.393 Y57.435 E54.49659
G1 X43.132 Y57.754 E54.51921
G1 X42.142 Y58.744 E54.59605
G1 X41.989 Y58.416 E54.61591
G1 X41.723 Y57.765 E54.6545
G1 X41.505 Y57.159 E54.68985
G1 X41.308 Y56.544 E54.72529
G1 X41.116 Y55.877 E54.76338
G1 X40.973 Y55.339 E54.79393
G1 X40.647 Y54.063 E54.8662
G1 X40.483 Y53.45 E54.90103
G1 X40.313 Y52.867 E54.93435
G0 F810 X40.308 Y52.849
G0 X40.144 Y52.362
G0 F1542.9 X43.172 Y55.617
G1 F900 X40.575 Y53.02 E55.13591
G0 F1542.9 X40.696 Y53.707
G1 F900 X43.516 Y56.526 E55.35473
G0 F1542.9 X43.437 Y57.014
G1 F900 X40.896 Y54.472 E55.55198
G0 F1542.9 X41.087 Y55.229
G1 F900 X43.248 Y57.39 E55.7197
G0 F1542.9 X42.989 Y57.697
G1 F900 X41.297 Y56.005 E55.85102
G1 X41.227 Y55.935
G0 F1542.9 X41.541 Y56.815
G1 F900 X42.707 Y57.98 E55.94147
G0 F1542.9 X42.424 Y58.263
G1 F900 X41.84 Y57.68 E55.98676
G1 X41.77 Y57.61
G1 F1500 E50.98676
G0 F1542.9 X39.396 Y58.468
G0 X36.901 Y51.416
G0 X36.969 Y50.501
G0 X38.829 Y48.641
G0 X49.567 Y40.785
G0 X51.163 Y39.188
;TYPE:WALL-INNER
G1 F1500 E56.71432
G1 F900 X51.245 Y39.238 E56.71959
G1 X51.665 Y39.44 E56.74517
G1 X51.788 Y39.499 E56.75266
G1 X51.801 Y39.506 E56.75347
G1 X51.813 Y39.51 E56.75416
G1 X52.374 Y39.736 E56.78735
G1 X52.961 Y39.933 E56.82133
G1 X53.565 Y40.109 E56.85586
G1 X54.167 Y40.27 E56.89006
G1 X55.4 Y40.586 E56.95991
G1 X56.028 Y40.752 E56.99556
G1 X56.644 Y40.93 E57.03075
G1 X57.299 Y41.14 E57.06849
G1 X57.929 Y41.368 E57.10526
G1 X58.597 Y41.642 E57.14489
G1 X59.093 Y41.875 E57.17496
G1 X59.226 Y41.937 E57.18301
G1 X59.404 Y42.031 E57.19406
G1 X59.362 Y42.073
G1 X59.259 Y42.176 E57.20034
G1 X57.995 Y43.44 E57.29844
G1 X57.662 Y43.713 E57.32208
G1 X57.313 Y43.9 E57.3438
G1 X56.94 Y44.013 E57.36519
G1 X56.551 Y44.051 E57.38664
G1 X56.163 Y44.013 E57.40804
G1 X55.783 Y43.898 E57.42983
G1 X55.449 Y43.718 E57.45065
G1 X55.098 Y43.431 E57.47553
G1 X51.404 Y39.737 E57.76223
G1 X51.075 Y39.408 E57.78274
G1 X51.009 Y39.342 E57.78565
G1 X51.163 Y39.188 E57.79409
G0 F1542.9 X51.101 Y38.684
G1 F900 X51.436 Y38.886 E57.81556
G1 X51.962 Y39.14 E57.84761
G1 X52.512 Y39.36 E57.88012
G1 X53.081 Y39.551 E57.91306
G1 X53.673 Y39.724 E57.94691
G1 X54.268 Y39.883 E57.9807
G1 X55.499 Y40.198 E58.05044
G1 X56.13 Y40.365 E58.08626
G1 X56.766 Y40.549 E58.12259
G1 X57.421 Y40.759 E58.16034
G1 X58.077 Y40.996 E58.19862
G1 X58.757 Y41.275 E58.23896
G1 X59.405 Y41.579 E58.27824
G1 X59.833 Y41.806 E58.30482
G1 X60.07 Y41.932 E58.31956
G1 X59.88 Y42.122 E58.32837
G1 X58.264 Y43.737 E58.45375
G1 X57.884 Y44.048 E58.4807
G1 X57.468 Y44.271 E58.5066
G1 X57.02 Y44.407 E58.5323
G1 X56.551 Y44.453 E58.55816
G1 X56.083 Y44.407 E58.58397
G1 X55.63 Y44.27 E58.60994
G1 X55.225 Y44.052 E58.63518
G1 X54.828 Y43.727 E58.66334
G1 X50.443 Y39.342 E59.00366
G1 X50.725 Y39.06 E59.02555
G0 F810 X51.101 Y38.684
G0 F1542.9 X51.174 Y38.261
;TYPE:WALL-OUTER
G1 F900 X51.627 Y38.534 E59.05457
G1 X52.123 Y38.774 E59.08481
G1 X52.65 Y38.984 E59.11595
G1 X53.201 Y39.169 E59.14784
G1 X53.781 Y39.339 E59.18101
G1 X54.369 Y39.496 E59.21441
G1 X55.598 Y39.81 E59.28402
G1 X56.232 Y39.978 E59.32002
G1 X56.888 Y40.168 E59.3575
G1 X57.543 Y40.378 E59.39525
G1 X58.224 Y40.624 E59.43498
G1 X58.917 Y40.908 E59.47608
G1 X59.584 Y41.221 E59.51652
G1 X60.267 Y41.584 E59.55897
G1 X60.496 Y41.722 E59.57364
G1 X60.715 Y41.853 E59.58764
G1 X60.534 Y42.034 E59.59614
G1 X58.539 Y44.028 E59.75094
G1 X58.103 Y44.385 E59.78186
G1 X57.623 Y44.642 E59.81174
G1 X57.1 Y44.801 E59.84174
G1 X56.551 Y44.855 E59.87201
G1 X56.003 Y44.801 E59.90223
G1 X55.479 Y44.642 E59.93229
G1 X55 Y44.385 E59.96212
G1 X54.557 Y44.022 E59.99355
G1 X49.877 Y39.342 E60.35677
G1 X50.783 Y38.435 E60.42712
G0 F810 X51.049 Y38.169
G0 X51.174 Y38.261
G0 F1542.9 X51.345 Y38.364
G0 X51.117 Y38.741
G0 X52.359 Y40.142
;TYPE:SKIN
G1 F900 X52.844 Y40.305 E60.4552
G1 X53.46 Y40.485 E60.49042
G1 X54.068 Y40.647 E60.52495
G1 X55.375 Y40.983 E60.59901
G1 X55.919 Y41.127 E60.62989
G1 X56.535 Y41.305 E60.66508
G1 X57.166 Y41.507 E60.70144
G1 X57.788 Y41.732 E60.73774
G1 X58.449 Y42.003 E60.77695
G1 X58.744 Y42.141 E60.79482
G1 X57.743 Y43.142 E60.87251
G1 X57.441 Y43.39 E60.89395
G1 X57.166 Y43.538 E60.91109
G1 X56.864 Y43.629 E60.9284
G1 X56.551 Y43.659 E60.94566
G1 X56.24 Y43.629 E60.9628
G1 X55.933 Y43.536 E60.98041
G1 X55.669 Y43.394 E60.99686
G1 X55.35 Y43.133 E61.01948
G1 X52.735 Y40.518 E61.22243
G0 F810 X52.359 Y40.142
G0 F1542.9 X55.607 Y43.162
G1 F900 X53.017 Y40.572 E61.42344
G0 F1542.9 X53.706 Y40.695
G1 F900 X56.526 Y43.515 E61.64231
G0 F1542.9 X57.014 Y43.437
G1 F900 X54.471 Y40.895 E61.83963
G0 F1542.9 X55.234 Y41.092
G1 F900 X57.39 Y43.248 E62.00696
G0 F1542.9 X57.697 Y42.989
G1 F900 X56.006 Y41.298 E62.1382
G1 X55.936 Y41.228
G0 F1542.9 X56.816 Y41.542
G1 F900 X57.98 Y42.707 E62.22858
G0 F1542.9 X58.263 Y42.424
G1 F900 X57.682 Y41.843 E62.27367
G1 X57.612 Y41.773
M104 S216
G1 F1500 E57.27367
G0 F1542.9 X58.672 Y39.468
G0 X60.14 Y40.113
G0 X61.87 Y41.106
G0 X75.822 Y72.473
G0 X76.979 Y73.635
;TYPE:WALL-INNER
G1 F1500 E63.00124
G1 F900 X77.083 Y73.532 E63.00927
G1 X77.175 Y73.441 E63.01637
G1 X77.214 Y73.544 E63.0178
G1 X77.224 Y73.569
G1 X77.289 Y73.739 E63.02446
G1 X77.348 Y74.071 E63.04297
G1 X77.376 Y74.228 E63.05172
G1 X77.377 Y74.408 E63.0616
G1 X77.287 Y74.318 E63.06201
G1 X77.087 Y74.118 E63.07159
G1 X77.02 Y73.796 E63.08369
G1 X76.991 Y73.659 E63.08834
G1 X76.979 Y73.635
G0 F1542.9 X76.61 Y73.792
;TYPE:WALL-OUTER
G1 F900 X76.491 Y73.556 E63.10285
G1 X77.169 Y72.881 E63.15535
G1 X77.246 Y72.805 E63.16129
G1 X77.289 Y72.763 E63.16459
G1 X77.428 Y72.987 E63.17379
G1 X77.467 Y73.088 E63.17884
G1 X77.677 Y73.635 E63.211
G1 X77.776 Y74.191 E63.24199
G1 X77.779 Y74.758 E63.27311
G1 X77.754 Y74.906 E63.28135
G1 X77.69 Y75.287 E63.30255
G1 X77.417 Y75.014 E63.31432
G1 X76.72 Y74.317 E63.36842
G1 X76.618 Y73.83 E63.39572
G0 F810 X76.61 Y73.792
