;FLAVOR:Marlin
;TIME:1117
;Filament used: 0.538147m
;Layer height: 0.12
;MINX:48.6
;MINY:46.1
;MINZ:0.24
;MAXX:67.4
;MAXY:89.899
;MAXZ:10.92
;Generated with Cura_SteamEngine 4.6.1
M104 S210
M105
M109 S210
M82 ;absolute extrusion mode
;Sliced at: Sun 07-06-2020 12:33:06
G21 ;metric values
G90 ;absolute positioning
M82 ;set extruder to absolute mode
M107 ;start with the fan off
G1 Z5.0 F1800 ;move Z to 5mm
G28 X0 Y0 F1800 ;move X/Y to min endstops
G28 Z0 ;move Z to min endstop
G92 E0 ;zero the extruded length
G1 F200 E6.0 ;extrude 6.0mm of feed stock to build pressure
G1 Z5.0 F300 ;move the platform down 5mm
G92 E0 ;zero the extruded length again
G1 F1800
;Put printing message on LCD screen
M117 Printing...
G92 E0
G92 E0
G1 F1500 E-3
;LAYER_COUNT:90
;LAYER:0
M106 S102
G0 F1440 X62.235 Y47.319 Z0.24
;TYPE:SKIRT
G1 F1500 E0
G1 F900 X62.865 Y47.406 E0.02773
G1 X63.2 Y47.493 E0.04282
G1 X63.528 Y47.606 E0.05795
G1 X63.879 Y47.763 E0.07471
G1 X64.169 Y47.924 E0.08918
G1 X64.471 Y48.126 E0.10502
G1 X64.736 Y48.337 E0.11979
G1 X65.01 Y48.596 E0.13623
G1 X65.228 Y48.841 E0.15053
G1 X65.581 Y49.339 E0.17714
G1 X65.763 Y49.681 E0.19403
G1 X65.932 Y50.081 E0.21297
G1 X66.062 Y50.503 E0.23222
G1 X66.135 Y50.866 E0.24836
G1 X66.178 Y51.263 E0.26578
G1 X66.192 Y52.089 E0.3018
G1 X66.2 Y83.808 E1.68481
G1 X66.191 Y84.492 E1.71464
G1 X66.166 Y84.885 E1.73181
G1 X66.118 Y85.212 E1.74622
G1 X66.022 Y85.639 E1.7653
G1 X65.895 Y86.029 E1.78318
G1 X65.627 Y86.575 E1.8097
G1 X65.373 Y86.97 E1.83018
G1 X65.092 Y87.322 E1.84982
G1 X64.695 Y87.696 E1.8736
G1 X64.376 Y87.941 E1.89114
G1 X64.02 Y88.164 E1.90945
G1 X63.744 Y88.302 E1.92291
G1 X63.125 Y88.527 E1.95163
G1 X62.73 Y88.615 E1.96927
G1 X62.033 Y88.689 E1.99983
G1 X61.311 Y88.699 E2.03132
G1 X54.312 Y88.696 E2.33649
G1 X53.771 Y88.681 E2.36008
G1 X53.143 Y88.595 E2.38772
G1 X52.8 Y88.507 E2.40316
G1 X52.472 Y88.394 E2.41829
G1 X52.123 Y88.238 E2.43496
G1 X51.827 Y88.074 E2.44971
G1 X51.515 Y87.865 E2.46608
G1 X51.255 Y87.656 E2.48063
G1 X50.989 Y87.403 E2.49664
G1 X50.772 Y87.159 E2.51087
G1 X50.411 Y86.648 E2.53815
G1 X50.231 Y86.307 E2.55497
G1 X50.066 Y85.915 E2.57351
G1 X49.935 Y85.485 E2.59311
G1 X49.862 Y85.112 E2.60968
G1 X49.821 Y84.723 E2.62674
G1 X49.808 Y83.884 E2.66332
G1 X49.8 Y52.151 E4.04695
G1 X49.809 Y51.503 E4.0752
G1 X49.834 Y51.113 E4.09224
G1 X49.884 Y50.778 E4.10701
G1 X49.988 Y50.326 E4.12723
G1 X50.123 Y49.923 E4.14577
G1 X50.373 Y49.425 E4.17006
G1 X50.627 Y49.03 E4.19054
G1 X50.908 Y48.678 E4.21018
G1 X51.31 Y48.299 E4.23427
G1 X51.626 Y48.057 E4.25162
G1 X51.98 Y47.836 E4.26982
G1 X52.256 Y47.698 E4.28327
G1 X52.875 Y47.473 E4.31199
G1 X53.267 Y47.386 E4.3295
G1 X53.939 Y47.313 E4.35897
G1 X54.704 Y47.3 E4.39233
G1 X61.57 Y47.304 E4.6917
G0 F810 X61.688 Y47.304
G0 X62.235 Y47.319
G0 F1440 X62.246 Y46.919
G1 F900 X62.622 Y46.957 E4.70818
G1 X62.934 Y47.012 E4.72199
G1 X63.33 Y47.115 E4.73983
G1 X63.658 Y47.228 E4.75496
G1 X64.073 Y47.413 E4.77477
G1 X64.363 Y47.574 E4.78923
G1 X64.721 Y47.813 E4.808
G1 X64.986 Y48.024 E4.82277
G1 X65.308 Y48.33 E4.84214
G1 X65.526 Y48.575 E4.85644
G1 X65.916 Y49.121 E4.8857
G1 X66.131 Y49.525 E4.90565
G1 X66.3 Y49.925 E4.92458
G1 X66.454 Y50.424 E4.94735
G1 X66.527 Y50.787 E4.9635
G1 X66.578 Y51.256 E4.98407
G1 X66.592 Y52.082 E5.02009
G1 X66.6 Y83.808 E6.40341
G1 X66.591 Y84.498 E6.43349
G1 X66.565 Y84.914 E6.45167
G1 X66.509 Y85.299 E6.46863
G1 X66.413 Y85.726 E6.48771
G1 X66.263 Y86.188 E6.50889
G1 X66.164 Y86.417 E6.51977
G1 X65.964 Y86.791 E6.53826
G1 X65.71 Y87.186 E6.55874
G1 X65.378 Y87.602 E6.58195
G1 X64.939 Y88.013 E6.60817
G1 X64.62 Y88.258 E6.62571
G1 X64.199 Y88.522 E6.64737
G1 X63.923 Y88.66 E6.66083
G1 X63.553 Y88.81 E6.67824
G1 X63.247 Y88.908 E6.69225
G1 X62.78 Y89.011 E6.7131
G1 X62.039 Y89.089 E6.74558
G1 X61.317 Y89.099 E6.77707
G1 X54.312 Y89.096 E7.0825
G1 X53.76 Y89.081 E7.10658
G1 X53.075 Y88.989 E7.13671
G1 X52.67 Y88.885 E7.15495
G1 X52.342 Y88.772 E7.17007
G1 X51.929 Y88.588 E7.18979
G1 X51.633 Y88.424 E7.20454
G1 X51.264 Y88.176 E7.22393
G1 X51.004 Y87.967 E7.23847
G1 X50.69 Y87.669 E7.25735
G1 X50.473 Y87.425 E7.27158
G1 X50.232 Y87.108 E7.28895
G1 X50.075 Y86.865 E7.30156
G1 X49.863 Y86.463 E7.32138
G1 X49.698 Y86.071 E7.33992
G1 X49.542 Y85.561 E7.36317
G1 X49.469 Y85.188 E7.37975
G1 X49.421 Y84.729 E7.39987
G1 X49.408 Y83.89 E7.43646
G1 X49.4 Y52.151 E8.82034
G1 X49.409 Y51.497 E8.84886
G1 X49.435 Y51.084 E8.8669
G1 X49.494 Y50.688 E8.88436
G1 X49.598 Y50.236 E8.90458
G1 X49.758 Y49.76 E8.92648
G1 X50.036 Y49.209 E8.95339
G1 X50.29 Y48.814 E8.97386
G1 X50.623 Y48.398 E8.9971
G1 X51.067 Y47.982 E9.02363
G1 X51.383 Y47.74 E9.04098
G1 X51.801 Y47.478 E9.06249
G1 X52.077 Y47.34 E9.07595
G1 X52.447 Y47.19 E9.09335
G1 X52.753 Y47.092 E9.10736
G1 X53.216 Y46.989 E9.12804
G1 X53.932 Y46.913 E9.15944
G1 X54.697 Y46.9 E9.1928
G1 X61.581 Y46.904 E9.49296
G0 F810 X61.688 Y46.904
G0 X62.246 Y46.919
G0 F1440 X62.258 Y46.519
G1 F900 X62.692 Y46.564 E9.51198
G1 X63.004 Y46.619 E9.52579
G1 X63.46 Y46.737 E9.54633
G1 X63.788 Y46.85 E9.56146
G1 X64.267 Y47.063 E9.58431
G1 X64.557 Y47.224 E9.59878
G1 X64.97 Y47.5 E9.62044
G1 X65.235 Y47.711 E9.63521
G1 X65.607 Y48.064 E9.65757
G1 X65.825 Y48.309 E9.67187
G1 X66.1 Y48.669 E9.69162
G1 X66.252 Y48.903 E9.70378
G1 X66.499 Y49.369 E9.72678
G1 X66.668 Y49.769 E9.74571
G1 X66.846 Y50.346 E9.77204
G1 X66.919 Y50.709 E9.78819
G1 X66.978 Y51.249 E9.81187
G1 X66.992 Y52.075 E9.84789
G1 X67 Y83.808 E11.23152
G1 X66.991 Y84.503 E11.26182
G1 X66.964 Y84.942 E11.281
G1 X66.899 Y85.387 E11.30061
G1 X66.803 Y85.814 E11.31969
G1 X66.63 Y86.346 E11.34408
G1 X66.531 Y86.575 E11.35496
G1 X66.3 Y87.008 E11.37636
G1 X66.046 Y87.403 E11.39684
G1 X65.663 Y87.882 E11.42358
G1 X65.182 Y88.33 E11.45224
G1 X64.863 Y88.575 E11.46977
G1 X64.378 Y88.879 E11.49473
G1 X64.102 Y89.017 E11.50819
G1 X63.675 Y89.191 E11.52829
G1 X63.369 Y89.289 E11.5423
G1 X62.83 Y89.408 E11.56637
G1 X62.045 Y89.489 E11.60078
G1 X61.323 Y89.499 E11.63226
G1 X54.312 Y89.496 E11.93796
G1 X53.748 Y89.481 E11.96256
G1 X53.326 Y89.438 E11.98105
G1 X53.007 Y89.383 E11.99516
G1 X52.54 Y89.263 E12.01619
G1 X52.212 Y89.15 E12.03131
G1 X51.735 Y88.938 E12.05407
G1 X51.439 Y88.774 E12.06883
G1 X51.013 Y88.488 E12.0912
G1 X50.753 Y88.279 E12.10575
G1 X50.391 Y87.935 E12.12752
G1 X50.174 Y87.691 E12.14176
G1 X49.896 Y87.325 E12.1618
G1 X49.739 Y87.082 E12.17441
G1 X49.494 Y86.618 E12.19729
G1 X49.329 Y86.226 E12.21584
G1 X49.15 Y85.638 E12.24263
G1 X49.077 Y85.265 E12.25921
G1 X49.021 Y84.735 E12.28244
G1 X49.008 Y83.896 E12.31903
G1 X49 Y52.151 E13.70318
G1 X49.009 Y51.491 E13.73196
G1 X49.036 Y51.056 E13.75096
G1 X49.104 Y50.598 E13.77115
G1 X49.208 Y50.146 E13.79137
G1 X49.392 Y49.597 E13.81662
G1 X49.7 Y48.992 E13.84622
G1 X49.954 Y48.597 E13.8667
G1 X50.337 Y48.117 E13.89347
G1 X50.824 Y47.664 E13.92247
G1 X51.14 Y47.422 E13.93983
G1 X51.622 Y47.121 E13.9646
G1 X51.898 Y46.983 E13.97806
G1 X52.325 Y46.809 E13.99816
G1 X52.631 Y46.711 E14.01217
G1 X53.165 Y46.592 E14.03603
G1 X53.925 Y46.513 E14.06934
G1 X54.69 Y46.5 E14.1027
G1 X61.593 Y46.504 E14.40369
G0 F810 X61.689 Y46.504
G0 X62.258 Y46.519
G0 F1440 X62.269 Y46.119
G1 F900 X62.761 Y46.17 E14.42525
G1 X63.073 Y46.225 E14.43907
G1 X63.59 Y46.358 E14.46234
G1 X63.918 Y46.471 E14.47747
G1 X64.461 Y46.713 E14.50339
G1 X64.751 Y46.874 E14.51785
G1 X65.219 Y47.187 E14.5424
G1 X65.484 Y47.398 E14.55717
G1 X65.906 Y47.798 E14.58253
G1 X66.124 Y48.043 E14.59682
G1 X66.435 Y48.451 E14.61919
G1 X66.587 Y48.685 E14.63136
G1 X66.868 Y49.214 E14.65748
G1 X67.037 Y49.614 E14.67641
G1 X67.238 Y50.267 E14.7062
G1 X67.311 Y50.63 E14.72235
G1 X67.378 Y51.242 E14.74919
G1 X67.392 Y52.068 E14.78521
G1 X67.4 Y83.808 E16.16914
G1 X67.391 Y84.509 E16.19971
G1 X67.363 Y84.97 E16.21984
G1 X67.289 Y85.475 E16.2421
G1 X67.193 Y85.902 E16.26118
G1 X66.997 Y86.505 E16.28883
G1 X66.898 Y86.734 E16.2997
G1 X66.637 Y87.224 E16.32391
G1 X66.383 Y87.619 E16.34439
G1 X65.948 Y88.163 E16.37476
G1 X65.426 Y88.647 E16.4058
G1 X65.107 Y88.892 E16.42333
G1 X64.557 Y89.237 E16.45164
G1 X64.281 Y89.375 E16.4651
G1 X63.797 Y89.572 E16.48788
G1 X63.491 Y89.67 E16.50189
G1 X62.88 Y89.805 E16.52917
G1 X62.05 Y89.889 E16.56555
G1 X61.328 Y89.899 E16.59703
G1 X54.312 Y89.896 E16.90294
G1 X53.736 Y89.881 E16.92807
G1 X53.258 Y89.833 E16.94901
G1 X52.939 Y89.778 E16.96313
G1 X52.41 Y89.642 E16.98694
G1 X52.082 Y89.529 E17.00207
G1 X51.541 Y89.288 E17.02789
G1 X51.245 Y89.124 E17.04265
G1 X50.763 Y88.8 E17.06797
G1 X50.503 Y88.591 E17.08252
G1 X50.092 Y88.2 E17.10725
G1 X49.875 Y87.956 E17.12149
G1 X49.56 Y87.542 E17.14417
G1 X49.403 Y87.299 E17.15679
G1 X49.125 Y86.773 E17.18273
G1 X48.96 Y86.381 E17.20127
G1 X48.757 Y85.715 E17.23163
G1 X48.684 Y85.342 E17.2482
G1 X48.621 Y84.742 E17.27451
G1 X48.608 Y83.903 E17.31109
G1 X48.6 Y52.151 E18.69554
G1 X48.609 Y51.485 E18.72459
G1 X48.637 Y51.027 E18.74459
G1 X48.715 Y50.509 E18.76743
G1 X48.819 Y50.057 E18.78766
G1 X49.027 Y49.434 E18.81629
G1 X49.363 Y48.776 E18.84851
G1 X49.617 Y48.381 E18.86898
G1 X50.052 Y47.837 E18.89935
G1 X50.581 Y47.347 E18.93079
G1 X50.897 Y47.105 E18.94815
G1 X51.443 Y46.763 E18.97624
G1 X51.719 Y46.625 E18.9897
G1 X52.203 Y46.428 E19.01248
G1 X52.509 Y46.33 E19.02649
G1 X53.115 Y46.195 E19.05356
G1 X53.918 Y46.113 E19.08875
G1 X54.683 Y46.1 E19.12211
G1 X61.604 Y46.104 E19.42388
G0 F810 X61.689 Y46.104
G0 X62.269 Y46.119
G1 F1500 E16.42388
;MESH:PropStop6mm.stl
G0 F1440 X62.138 Y48.842
G0 X62.118 Y50.126
G0 X61.675 Y65.396
;TYPE:WALL-INNER
G1 F1500 E19.42388
G1 F900 X61.261 Y64.894 E19.45226
G1 X60.782 Y64.459 E19.48047
G1 X60.241 Y64.094 E19.50892
G1 X59.655 Y63.813 E19.53726
G1 X59.038 Y63.619 E19.56546
G1 X58.395 Y63.513 E19.59388
G1 X57.746 Y63.506 E19.62218
G1 X57.101 Y63.587 E19.65052
G1 X56.474 Y63.764 E19.67893
G1 X55.881 Y64.026 E19.70719
G1 X55.333 Y64.373 E19.73547
G1 X54.836 Y64.792 E19.76382
G1 X54.408 Y65.285 E19.79228
G1 X54.056 Y65.83 E19.82057
G1 X53.802 Y66.381 E19.84703
G1 X53.785 Y66.418 E19.8488
G1 X53.599 Y67.043 E19.87724
G1 X53.512 Y67.658 E19.90432
G1 X53.497 Y68.033 E19.92068
G1 X53.544 Y68.658 E19.94801
G1 X53.686 Y69.293 E19.97638
G1 X53.802 Y69.601 E19.99073
G1 X53.916 Y69.901 E20.00472
G1 X54.234 Y70.469 E20.03311
G1 X54.629 Y70.985 E20.06144
G1 X55.092 Y71.439 E20.08972
G1 X55.618 Y71.821 E20.11806
G1 X56.193 Y72.125 E20.14642
G1 X56.807 Y72.343 E20.17483
G1 X57.444 Y72.469 E20.20314
G1 X58.091 Y72.502 E20.23139
G1 X58.737 Y72.444 E20.25967
G1 X59.371 Y72.29 E20.28812
G1 X59.972 Y72.05 E20.31633
G1 X60.537 Y71.722 E20.34482
G1 X61.048 Y71.317 E20.37325
G1 X61.491 Y70.844 E20.4015
G1 X61.864 Y70.313 E20.4298
G1 X62.157 Y69.731 E20.45821
G1 X62.202 Y69.599 E20.46429
G1 X62.364 Y69.116 E20.4865
G1 X62.479 Y68.475 E20.5149
G1 X62.5 Y67.825 E20.54325
G1 X62.427 Y67.181 E20.57151
G1 X62.265 Y66.551 E20.59988
G1 X62.196 Y66.389 E20.60755
G1 X62.016 Y65.966 E20.6276
G0 F810 X62.011 Y65.955
G0 X61.675 Y65.396
G0 F1440 X61.348 Y65.628
G1 F900 X60.971 Y65.171 E20.65343
G1 X60.534 Y64.774 E20.67917
G1 X60.042 Y64.442 E20.70505
G1 X59.508 Y64.186 E20.73087
G1 X58.945 Y64.009 E20.75661
G1 X58.36 Y63.913 E20.78245
G1 X57.769 Y63.906 E20.80822
G1 X57.181 Y63.98 E20.83406
G1 X56.61 Y64.141 E20.85993
G1 X56.07 Y64.38 E20.88568
G1 X55.57 Y64.696 E20.91147
G1 X55.118 Y65.078 E20.93727
G1 X54.728 Y65.526 E20.96317
G1 X54.407 Y66.023 E20.98897
G1 X54.16 Y66.559 E21.0147
G1 X53.991 Y67.128 E21.04058
G1 X53.911 Y67.694 E21.06551
G1 X53.898 Y68.026 E21.07999
G1 X53.941 Y68.599 E21.10505
G1 X54.07 Y69.178 E21.13091
G1 X54.28 Y69.732 E21.15675
G1 X54.569 Y70.249 E21.18257
G1 X54.929 Y70.719 E21.20838
G1 X55.351 Y71.133 E21.23416
G1 X55.83 Y71.481 E21.25998
G1 X56.354 Y71.758 E21.28582
G1 X56.913 Y71.956 E21.31168
G1 X57.493 Y72.071 E21.33746
G1 X58.083 Y72.101 E21.36322
G1 X58.672 Y72.048 E21.389
G1 X59.249 Y71.908 E21.41489
G1 X59.797 Y71.689 E21.44062
G1 X60.311 Y71.391 E21.46653
G1 X60.776 Y71.022 E21.49241
G1 X61.18 Y70.591 E21.51817
G1 X61.52 Y70.107 E21.54396
G1 X61.773 Y69.603 E21.56855
G1 X61.787 Y69.577 E21.56983
G1 X61.975 Y69.016 E21.59563
G1 X62.08 Y68.433 E21.62146
G1 X62.099 Y67.841 E21.64729
G1 X62.033 Y67.254 E21.67304
G1 X61.885 Y66.68 E21.69889
G1 X61.682 Y66.203 E21.72149
G0 F810 X61.654 Y66.137
G0 X61.348 Y65.628
G0 F1440 X61.021 Y65.86
G1 F900 X60.681 Y65.448 E21.74478
G1 X60.286 Y65.089 E21.76806
G1 X59.843 Y64.79 E21.79136
G1 X59.361 Y64.559 E21.81466
G1 X58.852 Y64.399 E21.83793
G1 X58.325 Y64.313 E21.86121
G1 X57.792 Y64.306 E21.88445
G1 X57.261 Y64.373 E21.90779
G1 X56.746 Y64.518 E21.93112
G1 X56.259 Y64.734 E21.95435
G1 X55.807 Y65.019 E21.97764
G1 X55.4 Y65.364 E22.00091
G1 X55.048 Y65.767 E22.02424
G1 X54.758 Y66.216 E22.04754
G1 X54.535 Y66.7 E22.07078
G1 X54.383 Y67.213 E22.09411
G1 X54.31 Y67.73 E22.11688
G1 X54.299 Y68.019 E22.12949
G1 X54.338 Y68.54 E22.15227
G1 X54.454 Y69.063 E22.17562
G1 X54.644 Y69.563 E22.19895
G1 X54.904 Y70.029 E22.22221
G1 X55.229 Y70.453 E22.24551
G1 X55.61 Y70.827 E22.26878
G1 X56.042 Y71.141 E22.29207
G1 X56.515 Y71.391 E22.3154
G1 X57.019 Y71.569 E22.3387
G1 X57.542 Y71.673 E22.36195
G1 X58.075 Y71.7 E22.38522
G1 X58.607 Y71.652 E22.40851
G1 X59.127 Y71.526 E22.43184
G1 X59.622 Y71.328 E22.45509
G1 X60.085 Y71.06 E22.47841
G1 X60.504 Y70.727 E22.50175
G1 X60.869 Y70.338 E22.52501
G1 X61.176 Y69.901 E22.5483
G1 X61.417 Y69.423 E22.57164
G1 X61.586 Y68.917 E22.5949
G1 X61.681 Y68.391 E22.6182
G1 X61.698 Y67.857 E22.6415
G1 X61.639 Y67.327 E22.66475
G1 X61.505 Y66.809 E22.68808
G1 X61.347 Y66.438 E22.70566
G0 F810 X61.297 Y66.319
G0 X61.021 Y65.86
G0 F1440 X60.694 Y66.092
;TYPE:WALL-OUTER
G1 F900 X60.391 Y65.725 E22.72641
G1 X60.038 Y65.404 E22.74722
G1 X59.644 Y65.138 E22.76794
G1 X59.214 Y64.932 E22.78873
G1 X58.76 Y64.789 E22.80949
G1 X58.29 Y64.713 E22.83025
G1 X57.814 Y64.706 E22.851
G1 X57.341 Y64.766 E22.87179
G1 X56.882 Y64.895 E22.89258
G1 X56.448 Y65.088 E22.91329
G1 X56.044 Y65.342 E22.9341
G1 X55.682 Y65.65 E22.95482
G1 X55.368 Y66.009 E22.97562
G1 X55.109 Y66.409 E22.9964
G1 X54.91 Y66.841 E23.01713
G1 X54.775 Y67.298 E23.03791
G1 X54.709 Y67.765 E23.05848
G1 X54.7 Y68.011 E23.06921
G1 X54.735 Y68.482 E23.0898
G1 X54.838 Y68.948 E23.11061
G1 X55.008 Y69.394 E23.13142
G1 X55.239 Y69.809 E23.15213
G1 X55.529 Y70.187 E23.17291
G1 X55.869 Y70.521 E23.19369
G1 X56.254 Y70.801 E23.21444
G1 X56.676 Y71.024 E23.23525
G1 X57.125 Y71.182 E23.25601
G1 X57.591 Y71.275 E23.27673
G1 X58.067 Y71.299 E23.29751
G1 X58.542 Y71.256 E23.3183
G1 X59.005 Y71.144 E23.33907
G1 X59.446 Y70.967 E23.35979
G1 X59.859 Y70.728 E23.3806
G1 X60.232 Y70.432 E23.40136
G1 X60.558 Y70.085 E23.42212
G1 X60.832 Y69.695 E23.4429
G1 X61.047 Y69.269 E23.46371
G1 X61.197 Y68.818 E23.48443
G1 X61.282 Y68.349 E23.50522
G1 X61.297 Y67.873 E23.52598
G1 X61.245 Y67.4 E23.54673
G1 X61.125 Y66.938 E23.56754
G1 X61.013 Y66.674 E23.58004
G0 F810 X60.94 Y66.501
G0 X60.694 Y66.092
G0 F1440 X60.567 Y65.938
G0 X60.907 Y65.659
G0 X60.954 Y65.622
G0 X62.158 Y50.926
;TYPE:WALL-INNER
G1 F900 X62.248 Y50.958 E23.58421
G1 X62.338 Y51.011 E23.58876
G1 X62.431 Y51.089 E23.59406
G1 X62.486 Y51.155 E23.5978
G1 X62.54 Y51.25 E23.60257
G1 X62.574 Y51.341 E23.6068
G1 X62.592 Y51.446 E23.61145
G1 X62.592 Y66.374 E24.26234
G1 X62.592 Y66.55 E24.26934
G1 X62.593 Y67.18 E24.28622
G1 X62.594 Y67.824 E24.29534
G1 X62.595 Y68.474 E24.3029
G1 X62.596 Y69.115 E24.31549
G1 X62.596 Y69.624 E24.3331
G1 X62.6 Y84.433 E24.9788
G1 X62.585 Y84.61 E24.98655
G1 X62.562 Y84.696 E24.99043
G1 X62.513 Y84.799 E24.9954
G1 X62.452 Y84.886 E25.00003
G1 X62.386 Y84.952 E25.0041
G1 X62.293 Y85.017 E25.00905
G1 X62.202 Y85.059 E25.01342
G1 X62.108 Y85.085 E25.01767
G1 X61.939 Y85.099 E25.02507
G1 X54.344 Y85.1 E25.35623
G1 X53.955 Y85.093 E25.37319
G1 X53.842 Y85.074 E25.37819
G1 X53.752 Y85.042 E25.38235
G1 X53.662 Y84.989 E25.3869
G1 X53.569 Y84.911 E25.3922
G1 X53.514 Y84.845 E25.39594
G1 X53.46 Y84.75 E25.40071
G1 X53.426 Y84.659 E25.40494
G1 X53.408 Y84.554 E25.40959
G1 X53.408 Y69.623 E26.06061
G1 X53.408 Y69.293 E26.07286
