;FLAVOR:Marlin
;TIME:4517
;Filament used: 2.9286m
;Layer height: 0.12
;MINX:35.75
;MINY:30.154
;MINZ:0.3
;MAXX:84.25
;MAXY:89.84
;MAXZ:24.72
;Generated with Cura_SteamEngine 4.6.0
M104 S210
M105
M109 S210
M82 ;absolute extrusion mode
;Sliced at: Wed 13-05-2020 10:37:46
G21 ;metric values
G90 ;absolute positioning
M82 ;set extruder to absolute mode
M107 ;start with the fan off
G1 Z5.0 F1800 ;move Z to 5mm
G28 X0 Y0 F1800 ;move X/Y to min endstops
G28 Z0 ;move Z to min endstop
G92 E0 ;zero the extruded length
G1 F200 E6.0 ;extrude 6.0mm of feed stock to build pressure
G1 Z5.0 F300 ;move the platform down 5mm
G92 E0 ;zero the extruded length again
G1 F1800
;Put printing message on LCD screen
M117 Printing...
G92 E0
G92 E0
G1 F1500 E-5
;LAYER_COUNT:187
;LAYER:0
M107
G0 F900 X39.272 Y33.067 Z0.3
;TYPE:SKIRT
G1 F1500 E0.70678
G1 F900 X39.279 Y33.06 E0.70732
G1 X39.31 Y33.031 E0.70965
G1 X39.272 Y33.067 E0.71252
G0 X39 Y32.773
G1 X39.295 Y32.517 E0.73396
G1 X39.695 Y32.214 E0.7615
G1 X40.145 Y31.9 E0.79161
G1 X40.43 Y31.728 E0.80988
G1 X40.935 Y31.461 E0.84123
G1 X41.492 Y31.202 E0.87494
G1 X42.03 Y31.008 E0.90632
G1 X42.527 Y30.856 E0.93485
G1 X43.009 Y30.743 E0.96202
G1 X43.515 Y30.658 E0.99017
G1 X44.135 Y30.584 E1.02444
G1 X44.66 Y30.557 E1.05329
G1 X44.989 Y30.554 E1.07135
G1 X45.624 Y30.563 E1.1062
G1 X46.043 Y30.594 E1.12926
G1 X47.09 Y30.728 E1.18718
G1 X47.931 Y30.847 E1.2338
G1 X50.681 Y31.157 E1.38567
G1 X53.439 Y31.387 E1.53755
G1 X56.204 Y31.538 E1.68952
G1 X58.972 Y31.608 E1.84147
G1 X61.74 Y31.597 E1.99338
G1 X64.507 Y31.507 E2.14531
G1 X67.27 Y31.335 E2.29724
G1 X70.027 Y31.084 E2.44916
G1 X72.773 Y30.754 E2.60095
G1 X73.942 Y30.595 E2.66569
G1 X74.187 Y30.573 E2.67919
G1 X75.014 Y30.558 E2.72458
G1 X75.711 Y30.575 E2.76285
G1 X76.339 Y30.633 E2.79746
G1 X76.985 Y30.74 E2.83339
G1 X77.687 Y30.912 E2.87306
G1 X78.021 Y31.017 E2.89227
G1 X78.699 Y31.291 E2.9324
G1 X79.236 Y31.542 E2.96493
G1 X79.714 Y31.81 E2.99501
G1 X79.935 Y31.95 E3.00936
G1 X80.377 Y32.264 E3.03912
G1 X80.842 Y32.626 E3.07146
G1 X81.314 Y33.068 E3.10694
G1 X81.729 Y33.512 E3.1403
G1 X82.052 Y33.906 E3.16826
G1 X82.482 Y34.516 E3.20921
G1 X82.809 Y35.078 E3.2449
G1 X82.842 Y35.139 E3.2487
G1 X83.09 Y35.646 E3.27968
G1 X83.351 Y36.295 E3.31807
G1 X83.586 Y37.077 E3.36288
G1 X83.694 Y37.59 E3.39165
G1 X83.795 Y38.284 E3.43014
G1 X83.826 Y38.824 E3.45982
G1 X83.85 Y40.064 E3.52788
G1 X83.85 Y80.2 E5.73052
G1 X83.839 Y81.007 E5.77481
G1 X83.804 Y81.617 E5.80834
G1 X83.709 Y82.34 E5.84836
G1 X83.594 Y82.899 E5.87968
G1 X83.454 Y83.393 E5.90785
G1 X83.277 Y83.901 E5.93738
G1 X83.072 Y84.394 E5.96668
G1 X82.784 Y84.976 E6.00231
G1 X82.636 Y85.231 E6.0185
G1 X82.282 Y85.782 E6.05444
G1 X81.973 Y86.193 E6.08266
G1 X81.599 Y86.637 E6.11451
G1 X81.164 Y87.077 E6.14847
G1 X80.634 Y87.542 E6.18716
G1 X80.124 Y87.925 E6.22217
G1 X79.467 Y88.332 E6.26458
G1 X78.947 Y88.603 E6.29676
G1 X78.418 Y88.837 E6.3285
G1 X77.744 Y89.064 E6.36753
G1 X77.258 Y89.198 E6.3952
G1 X76.432 Y89.359 E6.44138
G1 X75.871 Y89.415 E6.47232
G1 X75.344 Y89.44 E6.50128
G1 X74.793 Y89.427 E6.53152
G1 X74.202 Y89.378 E6.56407
G1 X72.764 Y89.183 E6.64371
G1 X70.018 Y88.852 E6.7955
G1 X67.261 Y88.601 E6.94742
G1 X64.498 Y88.43 E7.09935
G1 X61.731 Y88.34 E7.25128
G1 X58.963 Y88.33 E7.40318
G1 X56.195 Y88.399 E7.55514
G1 X53.431 Y88.55 E7.70705
G1 X50.673 Y88.78 E7.85893
G1 X47.923 Y89.09 E8.01081
G1 X47.753 Y89.111 E8.02021
G1 X45.865 Y89.365 E8.12475
G1 X45.306 Y89.417 E8.15556
G1 X44.976 Y89.436 E8.1737
G1 X44.149 Y89.413 E8.2191
G1 X43.592 Y89.357 E8.24983
G1 X43.003 Y89.259 E8.28259
G1 X42.332 Y89.087 E8.32061
G1 X41.759 Y88.903 E8.35364
G1 X41.183 Y88.661 E8.38792
G1 X40.945 Y88.55 E8.40233
G1 X40.233 Y88.15 E8.44715
G1 X39.818 Y87.879 E8.47435
G1 X39.369 Y87.541 E8.5052
G1 X39.119 Y87.335 E8.52297
G1 X38.734 Y86.972 E8.55201
G1 X38.345 Y86.571 E8.58267
G1 X37.951 Y86.093 E8.61667
G1 X37.782 Y85.872 E8.63194
G1 X37.349 Y85.202 E8.67571
G1 X37.063 Y84.674 E8.70867
G1 X36.847 Y84.208 E8.73686
G1 X36.767 Y84.01 E8.74858
G1 X36.6 Y83.537 E8.7761
G1 X36.445 Y83.047 E8.80431
G1 X36.337 Y82.571 E8.83109
G1 X36.288 Y82.289 E8.8468
G1 X36.208 Y81.743 E8.87709
G1 X36.18 Y81.345 E8.89898
G1 X36.15 Y79.858 E8.9806
G1 X36.15 Y39.794 E11.17929
G1 X36.163 Y38.882 E11.22934
G1 X36.204 Y38.291 E11.26185
G1 X36.329 Y37.467 E11.30759
G1 X36.356 Y37.338 E11.31482
G1 X36.6 Y36.444 E11.36568
G1 X36.764 Y35.996 E11.39186
G1 X36.996 Y35.46 E11.42391
G1 X37.228 Y35 E11.45219
G1 X37.597 Y34.4 E11.49084
G1 X38.011 Y33.826 E11.52968
G1 X38.328 Y33.448 E11.55676
G1 X38.57 Y33.191 E11.57613
G1 X38.619 Y33.144 E11.57985
G0 F810 X39 Y32.773
G0 F900 X38.721 Y32.486
G1 X39.05 Y32.2 E11.60378
G1 X39.465 Y31.887 E11.6323
G1 X39.934 Y31.56 E11.66368
G1 X40.243 Y31.374 E11.68347
G1 X40.748 Y31.107 E11.71482
G1 X41.346 Y30.83 E11.75099
G1 X41.836 Y30.65 E11.77964
G1 X42.409 Y30.474 E11.81253
G1 X42.934 Y30.35 E11.84214
G1 X43.459 Y30.262 E11.87135
G1 X43.965 Y30.196 E11.89936
G1 X44.523 Y30.161 E11.93004
G1 X44.991 Y30.154 E11.95573
G1 X45.64 Y30.163 E11.99135
G1 X46.094 Y30.197 E12.01633
G1 X47.141 Y30.331 E12.07426
G1 X47.981 Y30.45 E12.12082
G1 X50.72 Y30.759 E12.27208
G1 X53.467 Y30.988 E12.42336
G1 X56.22 Y31.138 E12.57467
G1 X58.976 Y31.208 E12.72596
G1 X61.733 Y31.197 E12.87727
G1 X64.488 Y31.107 E13.02854
G1 X67.239 Y30.936 E13.1798
G1 X69.985 Y30.686 E13.33112
G1 X72.722 Y30.357 E13.48241
G1 X73.899 Y30.198 E13.54759
G1 X74.167 Y30.173 E13.56236
G1 X75.012 Y30.158 E13.60874
G1 X75.728 Y30.175 E13.64805
G1 X76.396 Y30.237 E13.68486
G1 X77.054 Y30.346 E13.72147
G1 X77.803 Y30.529 E13.76378
G1 X78.158 Y30.641 E13.78421
G1 X78.859 Y30.924 E13.82569
G1 X79.428 Y31.191 E13.86019
G1 X79.922 Y31.468 E13.89127
G1 X80.167 Y31.624 E13.90721
G1 X80.609 Y31.938 E13.93696
G1 X81.111 Y32.331 E13.97195
G1 X81.601 Y32.789 E14.00876
G1 X82.024 Y33.241 E14.04273
G1 X82.366 Y33.658 E14.07233
G1 X82.821 Y34.304 E14.11569
G1 X83.161 Y34.888 E14.15278
G1 X83.194 Y34.949 E14.15658
G1 X83.454 Y35.48 E14.18903
G1 X83.654 Y35.958 E14.21747
G1 X83.859 Y36.561 E14.25242
G1 X84 Y37.085 E14.2822
G1 X84.133 Y37.787 E14.32141
G1 X84.193 Y38.243 E14.34665
G1 X84.226 Y38.816 E14.37815
G1 X84.25 Y40.064 E14.44665
G1 X84.25 Y80.205 E16.64956
G1 X84.239 Y81.024 E16.69451
G1 X84.202 Y81.654 E16.72914
G1 X84.105 Y82.4 E16.77042
G1 X83.981 Y82.998 E16.80394
G1 X83.844 Y83.487 E16.83181
G1 X83.652 Y84.04 E16.86394
G1 X83.434 Y84.565 E16.89513
G1 X83.214 Y85.023 E16.92302
G1 X82.804 Y85.722 E16.96749
G1 X82.476 Y86.195 E16.99908
G1 X82.059 Y86.721 E17.03591
G1 X81.654 Y87.156 E17.06853
G1 X81.258 Y87.535 E17.09861
G1 X80.83 Y87.897 E17.12938
G1 X80.345 Y88.259 E17.16259
G1 X79.671 Y88.676 E17.20608
G1 X79.123 Y88.962 E17.24001
G1 X78.566 Y89.208 E17.27342
G1 X78.112 Y89.371 E17.2999
G1 X77.85 Y89.45 E17.31491
G1 X77.364 Y89.584 E17.34258
G1 X76.938 Y89.679 E17.36653
G1 X76.346 Y89.774 E17.39944
G1 X75.583 Y89.833 E17.44144
G1 X74.771 Y89.827 E17.486
G1 X74.161 Y89.776 E17.51959
G1 X72.713 Y89.58 E17.59978
G1 X69.976 Y89.25 E17.75107
G1 X67.231 Y89 E17.90234
G1 X64.479 Y88.83 E18.05366
G1 X61.724 Y88.74 E18.20493
G1 X58.967 Y88.73 E18.35623
G1 X56.211 Y88.799 E18.50753
G1 X53.459 Y88.949 E18.65878
G1 X50.712 Y89.178 E18.81005
G1 X47.972 Y89.487 E18.96138
G1 X47.353 Y89.571 E18.99566
G1 X47.353 Y89.568 E18.99582
G1 X45.907 Y89.762 E19.07589
G1 X45.34 Y89.816 E19.10715
G1 X44.979 Y89.836 E19.12699
G1 X44.138 Y89.813 E19.17316
G1 X43.54 Y89.754 E19.20614
G1 X42.932 Y89.653 E19.23996
G1 X42.216 Y89.47 E19.28052
G1 X41.611 Y89.274 E19.31542
G1 X41.026 Y89.029 E19.35022
G1 X40.76 Y88.905 E19.36633
G1 X40.037 Y88.499 E19.41184
G1 X39.577 Y88.199 E19.44197
G1 X39.128 Y87.861 E19.47282
G1 X38.857 Y87.637 E19.49211
G1 X38.453 Y87.257 E19.52255
G1 X38.048 Y86.839 E19.55449
G1 X37.641 Y86.346 E19.58957
G1 X37.447 Y86.09 E19.6072
G1 X37.013 Y85.419 E19.65106
G1 X36.706 Y84.854 E19.68635
G1 X36.483 Y84.374 E19.71539
G1 X36.392 Y84.149 E19.72871
G1 X36.219 Y83.66 E19.75718
G1 X36.061 Y83.158 E19.78606
G1 X35.945 Y82.649 E19.81471
G1 X35.894 Y82.358 E19.83092
G1 X35.812 Y81.801 E19.86182
G1 X35.78 Y81.353 E19.88647
G1 X35.75 Y79.858 E19.96853
G1 X35.75 Y39.788 E22.16754
G1 X35.763 Y38.869 E22.21798
G1 X35.807 Y38.243 E22.25242
G1 X35.937 Y37.385 E22.30004
G1 X35.966 Y37.247 E22.30778
G1 X36.214 Y36.339 E22.35943
G1 X36.397 Y35.838 E22.38871
G1 X36.629 Y35.301 E22.42081
G1 X36.877 Y34.808 E22.45109
G1 X37.26 Y34.184 E22.49128
G1 X37.7 Y33.575 E22.53251
G1 X38.029 Y33.182 E22.56063
G1 X38.291 Y32.904 E22.5816
G1 X38.34 Y32.857 E22.58532
G0 F810 X38.721 Y32.486
G0 F900 X38.679 Y33.659
G1 X38.62 Y33.722 E22.59006
G1 X38.627 Y33.714 E22.59064
G1 X38.679 Y33.659 E22.5948
G0 X39.62 Y33.288
G1 X39.156 Y33.731 E22.63
G1 X38.877 Y34.033 E22.65257
G1 X38.547 Y34.432 E22.68098
G1 X38.283 Y34.803 E22.70597
G1 X37.976 Y35.298 E22.73794
G1 X37.776 Y35.67 E22.76112
G1 X37.564 Y36.131 E22.78896
G1 X37.414 Y36.521 E22.81189
G1 X37.263 Y36.999 E22.8394
G1 X37.178 Y37.32 E22.85763
G1 X37.068 Y37.836 E22.88658
G1 X37.002 Y38.297 E22.91214
G1 X36.96 Y38.891 E22.94482
G1 X36.95 Y39.137 E22.95833
G1 X36.95 Y80.87 E25.24861
G1 X36.962 Y81.143 E25.2636
G1 X37.003 Y81.661 E25.29212
G1 X37.048 Y81.999 E25.31083
G1 X37.157 Y82.599 E25.3443
G1 X37.279 Y83.073 E25.37116
G1 X37.542 Y83.803 E25.41374
G1 X37.79 Y84.356 E25.447
G1 X38.027 Y84.795 E25.47438
G1 X38.465 Y85.453 E25.51776
G1 X38.832 Y85.921 E25.5504
G1 X39.157 Y86.28 E25.57697
G1 X39.737 Y86.812 E25.62016
G1 X40.204 Y87.18 E25.65279
G1 X40.612 Y87.456 E25.67983
G1 X41.317 Y87.844 E25.72399
G1 X41.85 Y88.085 E25.75609
G1 X42.32 Y88.259 E25.78359
G1 X43.113 Y88.467 E25.82859
G1 X43.685 Y88.57 E25.86048
G1 X44.153 Y88.622 E25.88632
G1 X44.976 Y88.637 E25.9315
G1 X45.585 Y88.597 E25.96499
G1 X46.058 Y88.535 E25.99117
G1 X46.811 Y88.362 E26.03357
G1 X47.39 Y88.183 E26.06683
G1 X47.856 Y88 E26.0943
G1 X48.56 Y87.645 E26.13757
G1 X49.073 Y87.336 E26.17044
G1 X49.47 Y87.053 E26.1972
G1 X50.078 Y86.533 E26.2411
G1 X50.495 Y86.116 E26.27346
G1 X50.617 Y85.976 E26.28366
G1 X53.244 Y85.756 E26.42833
G1 X53.244 Y85.755 E26.42838
G1 X56.078 Y85.601 E26.58414
G1 X58.937 Y85.53 E26.74109
G1 X61.776 Y85.54 E26.89689
G1 X64.636 Y85.634 E27.05393
G1 X67.48 Y85.809 E27.2103
G1 X69.388 Y85.983 E27.31545
G1 X69.428 Y86.03 E27.31883
G1 X69.789 Y86.412 E27.34768
G1 X70.122 Y86.72 E27.37257
G1 X71.234 Y87.618 E27.45101
G1 X71.28 Y87.558 E27.45516
G1 X71.673 Y87.776 E27.47982
G1 X72.239 Y88.043 E27.51417
G1 X72.668 Y88.211 E27.53945
G1 X73.45 Y88.434 E27.58408
G1 X74.056 Y88.555 E27.61799
G1 X74.5 Y88.612 E27.64256
G1 X75.307 Y88.644 E27.68688
G1 X75.924 Y88.617 E27.72077
G1 X76.386 Y88.565 E27.74629
G1 X77.154 Y88.407 E27.78932
G1 X77.749 Y88.234 E27.82332
G1 X78.195 Y88.072 E27.84936
G1 X78.927 Y87.723 E27.89387
G1 X79.46 Y87.413 E27.9277
G1 X79.839 Y87.154 E27.9529
G1 X80.46 Y86.646 E27.99693
G1 X80.905 Y86.217 E28.03085
G1 X81.211 Y85.878 E28.05591
G1 X81.698 Y85.227 E28.10053
G1 X82.028 Y84.701 E28.13461
G1 X82.239 Y84.309 E28.15904
G1 X82.559 Y83.558 E28.20384
G1 X82.752 Y82.968 E28.2379
G1 X82.863 Y82.541 E28.26212
G1 X82.993 Y81.735 E28.30692
G1 X83.039 Y81.125 E28.34049
G1 X83.05 Y80.866 E28.35472
G1 X83.05 Y39.145 E30.64433
G1 X83.007 Y38.347 E30.68819
G1 X82.883 Y37.576 E30.73105
G1 X82.738 Y36.987 E30.76434
G1 X82.602 Y36.558 E30.78903
G1 X82.305 Y35.842 E30.83157
G1 X82.031 Y35.308 E30.86451
G1 X81.803 Y34.925 E30.88897
G1 X81.34 Y34.289 E30.93214
G1 X80.941 Y33.824 E30.96577
G1 X80.633 Y33.51 E30.98991
G1 X80.024 Y32.991 E31.03382
G1 X79.54 Y32.643 E31.06653
G1 X79.163 Y32.407 E31.09094
G1 X78.469 Y32.054 E31.13367
G1 X77.184 Y31.527 E31.20989
G1 X77.157 Y31.594 E31.21386
G1 X76.708 Y31.494 E31.2391
G1 X76.111 Y31.404 E31.27224
G1 X75.677 Y31.365 E31.29615
G1 X75.132 Y31.353 E31.32607
G1 X75.053 Y31.352 E31.3304
G1 X74.478 Y31.352 E31.36196
G1 X74.111 Y31.371 E31.38212
G1 X73.547 Y31.472 E31.41357
G1 X71.164 Y32.111 E31.54897
G1 X70.643 Y32.277 E31.57897
G1 X70.229 Y32.445 E31.60349
G1 X69.517 Y32.809 E31.64738
G1 X69.193 Y33.007 E31.66822
G1 X68.763 Y33.321 E31.69744
G1 X68.325 Y33.694 E31.72901
G1 X67.934 Y34.086 E31.75939
G1 X67.489 Y34.127 E31.78392
G1 X64.645 Y34.303 E31.94029
G1 X61.786 Y34.397 E32.09728
G1 X58.945 Y34.408 E32.25319
G1 X56.086 Y34.336 E32.41014
G1 X53.252 Y34.182 E32.5659
G1 X53.252 Y34.181 E32.56595
G1 X52.064 Y34.082 E32.63137
G1 X51.612 Y33.627 E32.66657
G1 X51.287 Y33.355 E32.68983
G1 X50.621 Y32.893 E32.73431
G1 X50.17 Y32.635 E32.76283
G1 X49.66 Y32.398 E32.79369
G1 X48.499 Y31.971 E32.86158
G1 X48.482 Y32.015 E32.86416
G1 X46.466 Y31.476 E32.97869
G1 X46.108 Y31.398 E32.9988
G1 X45.534 Y31.352 E33.0304
G1 X44.735 Y31.352 E33.07425
G1 X44.468 Y31.363 E33.08891
G1 X43.94 Y31.404 E33.11797
G1 X43.273 Y31.5 E33.15496
G1 X42.836 Y31.6 E33.17956
G1 X42.226 Y31.783 E33.21451
G1 X41.501 Y32.068 E33.25726
G1 X41.109 Y32.264 E33.28131
G1 X40.57 Y32.58 E33.3156
G1 X40.034 Y32.954 E33.35147
G0 F810 X39.951 Y33.012
G0 X39.62 Y33.288
G0 F900 X39.886 Y33.587
G1 X39.441 Y34.012 E33.38524
G1 X38.864 Y34.676 E33.43351
G1 X38.616 Y35.024 E33.45696
G1 X38.323 Y35.498 E33.48755
G1 X38.134 Y35.849 E33.50942
G1 X37.933 Y36.286 E33.53582
G1 X37.792 Y36.653 E33.5574
G1 X37.567 Y37.413 E33.60089
G1 X37.462 Y37.906 E33.62856
G1 X37.4 Y38.34 E33.65262
G1 X37.359 Y38.913 E33.68414
G1 X37.35 Y39.145 E33.69688
G1 X37.35 Y80.861 E35.98623
G1 X37.361 Y81.119 E36.0004
G1 X37.401 Y81.619 E36.02792
G1 X37.443 Y81.937 E36.04553
G1 X37.548 Y82.513 E36.07766
G1 X37.663 Y82.959 E36.10294
G1 X37.911 Y83.648 E36.14312
G1 X38.149 Y84.179 E36.17506
G1 X38.372 Y84.592 E36.20081
G1 X38.786 Y85.214 E36.24182
G1 X39.138 Y85.663 E36.27313
G1 X39.444 Y86.001 E36.29815
G1 X39.992 Y86.504 E36.33897
G1 X40.44 Y86.857 E36.37027
G1 X40.824 Y87.117 E36.39572
G1 X41.491 Y87.484 E36.4375
G1 X42.002 Y87.715 E36.46828
G1 X42.444 Y87.878 E36.49413
G1 X43.194 Y88.075 E36.53669
G1 X43.743 Y88.174 E36.5673
G1 X44.183 Y88.223 E36.5916
G1 X44.961 Y88.237 E36.6343
G1 X45.546 Y88.199 E36.66647
G1 X45.991 Y88.14 E36.69111
G1 X46.701 Y87.977 E36.73109
G1 X47.258 Y87.805 E36.76308
G1 X47.697 Y87.633 E36.78895
G1 X48.361 Y87.298 E36.82977
G1 X48.853 Y87.001 E36.86131
G1 X49.227 Y86.735 E36.88649
G1 X49.802 Y86.243 E36.92802
G1 X50.202 Y85.843 E36.95907
G1 X50.486 Y85.516 E36.98284
G1 X50.953 Y85.453 E37.0087
G1 X50.953 Y85.546 E37.0138
G1 X53.211 Y85.357 E37.13815
G1 X56.068 Y85.201 E37.29518
G1 X58.928 Y85.13 E37.45218
G1 X61.789 Y85.14 E37.60919
G1 X64.649 Y85.234 E37.76623
G1 X67.505 Y85.41 E37.92326
G1 X69.588 Y85.6 E38.03805
G1 X69.726 Y85.763 E38.04977
G1 X70.07 Y86.127 E38.07726
G1 X70.384 Y86.417 E38.10071
G1 X71.165 Y87.048 E38.15581
G1 X71.181 Y87.027 E38.15726
G1 X71.854 Y87.419 E38.20001
G1 X72.397 Y87.675 E38.23295
G1 X72.801 Y87.833 E38.25676
G1 X73.538 Y88.044 E38.29883
G1 X74.121 Y88.16 E38.33145
G1 X74.539 Y88.214 E38.35458
G1 X75.3 Y88.244 E38.39638
G1 X75.893 Y88.218 E38.42895
G1 X76.328 Y88.169 E38.45297
G1 X77.052 Y88.02 E38.49354
G1 X77.625 Y87.854 E38.52628
G1 X78.045 Y87.701 E38.55081
G1 X78.735 Y87.372 E38.59276
G1 X79.246 Y87.074 E38.62522
G1 X79.603 Y86.831 E38.64892
G1 X80.19 Y86.351 E38.69054
G1 X80.617 Y85.939 E38.7231
G1 X80.905 Y85.62 E38.74668
G1 X81.365 Y85.006 E38.78879
G1 X81.682 Y84.5 E38.82156
G1 X81.88 Y84.131 E38.84454
G1 X82.183 Y83.422 E38.88685
G1 X82.368 Y82.856 E38.91953
G1 X82.472 Y82.454 E38.94232
G1 X82.595 Y81.694 E38.98457
G1 X82.64 Y81.102 E39.01715
G1 X82.65 Y80.858 E39.03055
G1 X82.65 Y39.148 E41.31956
G1 X82.609 Y38.391 E41.36117
G1 X82.492 Y37.661 E41.40174
G1 X82.353 Y37.095 E41.43373
G1 X82.225 Y36.691 E41.45698
G1 X81.944 Y36.015 E41.49716
G1 X81.681 Y35.502 E41.5288
G1 X81.466 Y35.141 E41.55186
G1 X81.03 Y34.542 E41.59251
G1 X80.646 Y34.095 E41.62485
G1 X80.356 Y33.799 E41.6476
G1 X79.782 Y33.31 E41.68898
G1 X79.317 Y32.975 E41.72043
G1 X78.962 Y32.753 E41.74341
G1 X78.307 Y32.42 E41.78373
G1 X77.403 Y32.049 E41.83736
G1 X77.394 Y32.071 E41.83866
G1 X76.637 Y31.888 E41.8814
G1 X76.063 Y31.801 E41.91326
