;FLAVOR:Marlin
;TIME:535
;Filament used: 0.379869m
;Layer height: 0.24
;MINX:47.713
;MINY:57.709
;MINZ:0.24
;MAXX:68.288
;MAXY:78.284
;MAXZ:14.58
;Generated with Cura_SteamEngine 4.7.1
M104 S220
M105
M109 S220
M82 ;absolute extrusion mode
;Sliced at: Tue 23-02-2021 09:10:29
G21 ;metric values
G90 ;absolute positioning
M82 ;set extruder to absolute mode
M107 ;start with the fan off
G1 Z5.0 F1800 ;move Z to 5mm
G28 X0 Y0 F1800 ;move X/Y to min endstops
G28 Z0 ;move Z to min endstop
G92 E0 ;zero the extruded length
G1 F200 E6.0 ;extrude 6.0mm of feed stock to build pressure
G1 Z5.0 F300 ;move the platform down 5mm
G92 E0 ;zero the extruded length again
G1 F1800
;Put printing message on LCD screen
M117 Printing...
G92 E0
G92 E0
G1 F1500 E-5
;LAYER_COUNT:45
;LAYER:0
M107
G0 F1125 X51.489 Y60.033 Z0.24
;TYPE:SKIRT
G1 F1500 E0.72757
G1 F900 X52.124 Y59.554 E0.76249
G1 X52.745 Y59.153 E0.79494
G1 X53.407 Y58.793 E0.82802
G1 X54.119 Y58.471 E0.86233
G1 X54.823 Y58.213 E0.89525
G1 X55.594 Y57.996 E0.93041
G1 X56.296 Y57.853 E0.96187
G1 X57.076 Y57.753 E0.99639
G1 X57.84 Y57.712 E1.02998
G1 X58.097 Y57.709 E1.04127
G1 X58.602 Y57.728 E1.06345
G1 X59.346 Y57.799 E1.09627
G1 X60.13 Y57.933 E1.13119
G1 X60.835 Y58.109 E1.16309
G1 X61.559 Y58.345 E1.19652
G1 X62.282 Y58.643 E1.23085
G1 X62.981 Y58.996 E1.26523
G1 X63.645 Y59.396 E1.29926
G1 X64.236 Y59.814 E1.33105
G1 X64.85 Y60.322 E1.36603
G1 X65.416 Y60.865 E1.40047
G1 X65.907 Y61.416 E1.43287
G1 X66.357 Y61.996 E1.4651
G1 X66.794 Y62.657 E1.49989
G1 X67.174 Y63.341 E1.53424
G1 X67.484 Y64.007 E1.56649
G1 X67.762 Y64.747 E1.6012
G1 X67.969 Y65.45 E1.63337
G1 X68.134 Y66.215 E1.66773
G1 X68.24 Y66.984 E1.70181
G1 X68.288 Y67.774 E1.73656
G1 X68.279 Y68.491 E1.76804
G1 X68.21 Y69.27 E1.80238
G1 X68.087 Y70.026 E1.836
G1 X67.912 Y70.762 E1.86922
G1 X67.675 Y71.503 E1.90337
G1 X67.386 Y72.218 E1.93723
G1 X67.06 Y72.879 E1.96959
G1 X66.651 Y73.571 E2.00488
G1 X66.23 Y74.175 E2.0372
G1 X65.748 Y74.77 E2.07082
G1 X65.205 Y75.347 E2.10561
G1 X64.674 Y75.832 E2.13718
G1 X64.055 Y76.319 E2.17176
G1 X63.409 Y76.754 E2.20595
G1 X62.764 Y77.12 E2.23851
G1 X62.072 Y77.449 E2.27215
G1 X61.379 Y77.719 E2.3048
G1 X60.63 Y77.948 E2.33919
G1 X59.868 Y78.118 E2.37347
G1 X59.098 Y78.23 E2.40763
G1 X58.345 Y78.284 E2.44077
G1 X57.594 Y78.281 E2.47374
G1 X56.795 Y78.218 E2.50893
G1 X56.075 Y78.108 E2.54091
G1 X55.292 Y77.927 E2.57619
G1 X54.594 Y77.71 E2.60828
G1 X53.861 Y77.42 E2.64289
G1 X53.207 Y77.105 E2.67476
G1 X52.542 Y76.721 E2.70847
G1 X51.908 Y76.292 E2.74208
G1 X51.304 Y75.811 E2.77598
G1 X50.716 Y75.267 E2.81115
G1 X50.237 Y74.752 E2.84203
G1 X49.738 Y74.133 E2.87694
G1 X49.307 Y73.504 E2.91041
G1 X48.923 Y72.842 E2.94401
G1 X48.582 Y72.142 E2.9782
G1 X48.306 Y71.446 E3.01107
G1 X48.077 Y70.718 E3.04457
G1 X47.9 Y69.962 E3.07866
G1 X47.783 Y69.212 E3.11199
G1 X47.729 Y68.587 E3.13953
G1 X47.713 Y68.074 E3.16206
G1 X47.735 Y67.292 E3.19641
G1 X47.817 Y66.526 E3.23023
G1 X47.951 Y65.791 E3.26303
G1 X48.147 Y65.035 E3.29732
G1 X48.395 Y64.31 E3.33096
G1 X48.706 Y63.587 E3.36552
G1 X49.044 Y62.935 E3.39776
G1 X49.455 Y62.27 E3.43208
G1 X49.869 Y61.695 E3.46319
G1 X50.388 Y61.078 E3.49858
G1 X50.934 Y60.522 E3.5328
G1 X50.99 Y60.473 E3.53606
G0 F810 X51.489 Y60.033
G0 F1125 X51.747 Y60.339
G1 F900 X52.359 Y59.878 E3.5697
G1 X52.956 Y59.493 E3.60089
G1 X53.592 Y59.147 E3.63268
G1 X54.276 Y58.838 E3.66563
G1 X54.953 Y58.591 E3.69727
G1 X55.695 Y58.383 E3.7311
G1 X56.369 Y58.246 E3.7613
G1 X57.118 Y58.15 E3.79445
G1 X57.854 Y58.111 E3.82681
G1 X58.1 Y58.109 E3.83761
G1 X58.645 Y58.131 E3.86155
G1 X59.299 Y58.197 E3.89041
G1 X60.053 Y58.326 E3.924
G1 X60.73 Y58.495 E3.95463
G1 X61.426 Y58.723 E3.98679
G1 X62.122 Y59.009 E4.01982
G1 X62.793 Y59.349 E4.05285
G1 X63.433 Y59.735 E4.08566
G1 X63.997 Y60.136 E4.11604
G1 X64.588 Y60.624 E4.14969
G1 X65.132 Y61.147 E4.18282
G1 X65.603 Y61.676 E4.21392
G1 X66.036 Y62.234 E4.24493
G1 X66.455 Y62.87 E4.27837
G1 X66.821 Y63.528 E4.31142
G1 X67.117 Y64.167 E4.34234
G1 X67.385 Y64.88 E4.37578
G1 X67.583 Y65.555 E4.40667
G1 X67.742 Y66.291 E4.43972
G1 X67.842 Y67.03 E4.47246
G1 X67.888 Y67.79 E4.50589
G1 X67.879 Y68.478 E4.5361
G1 X67.813 Y69.227 E4.56911
G1 X67.694 Y69.954 E4.60145
G1 X67.525 Y70.66 E4.63332
G1 X67.297 Y71.373 E4.66619
G1 X67.019 Y72.06 E4.69873
G1 X66.705 Y72.695 E4.72983
G1 X66.311 Y73.36 E4.76376
G1 X65.907 Y73.94 E4.7948
G1 X65.443 Y74.512 E4.82713
G1 X64.919 Y75.067 E4.86064
G1 X64.41 Y75.531 E4.89088
G1 X63.815 Y75.999 E4.92412
G1 X63.192 Y76.417 E4.95705
G1 X62.572 Y76.769 E4.98835
G1 X61.908 Y77.084 E5.02062
G1 X61.242 Y77.343 E5.05199
G1 X60.523 Y77.563 E5.085
G1 X59.788 Y77.726 E5.11806
G1 X59.049 Y77.834 E5.15085
G1 X58.324 Y77.885 E5.18276
G1 X57.603 Y77.881 E5.21441
G1 X56.835 Y77.82 E5.24823
G1 X56.143 Y77.714 E5.27897
G1 X55.391 Y77.539 E5.31287
G1 X54.719 Y77.33 E5.34376
G1 X54.016 Y77.051 E5.37697
G1 X53.388 Y76.748 E5.40758
G1 X52.749 Y76.379 E5.43998
G1 X52.14 Y75.966 E5.47228
G1 X51.559 Y75.503 E5.5049
G1 X50.993 Y74.979 E5.53876
G1 X50.535 Y74.486 E5.56831
G1 X50.055 Y73.889 E5.60194
G1 X49.641 Y73.285 E5.63409
G1 X49.273 Y72.648 E5.66639
G1 X48.945 Y71.975 E5.69926
G1 X48.681 Y71.306 E5.73083
G1 X48.461 Y70.606 E5.76305
G1 X48.291 Y69.879 E5.79582
G1 X48.179 Y69.158 E5.82786
G1 X48.128 Y68.563 E5.85408
G1 X48.113 Y68.063 E5.87604
G1 X48.134 Y67.313 E5.90898
G1 X48.213 Y66.577 E5.94148
G1 X48.343 Y65.87 E5.97304
G1 X48.532 Y65.144 E6.00597
G1 X48.771 Y64.446 E6.03836
G1 X49.07 Y63.753 E6.0715
G1 X49.395 Y63.126 E6.10251
G1 X49.791 Y62.486 E6.13555
G1 X50.189 Y61.934 E6.16543
G1 X50.688 Y61.343 E6.19938
G1 X51.213 Y60.808 E6.23229
G1 X51.247 Y60.778 E6.23428
G0 F810 X51.747 Y60.339
G0 F1125 X52.005 Y60.644
G1 F900 X52.594 Y60.201 E6.26664
G1 X53.166 Y59.833 E6.2965
G1 X53.776 Y59.502 E6.32697
G1 X54.433 Y59.206 E6.35861
G1 X55.083 Y58.97 E6.38897
G1 X55.796 Y58.77 E6.42148
G1 X56.442 Y58.639 E6.45042
G1 X57.161 Y58.548 E6.48224
G1 X57.867 Y58.511 E6.51327
G1 X58.102 Y58.509 E6.52359
G1 X58.618 Y58.53 E6.54626
G1 X59.252 Y58.594 E6.57424
G1 X59.977 Y58.719 E6.60654
G1 X60.626 Y58.881 E6.63591
G1 X61.294 Y59.1 E6.66677
G1 X61.961 Y59.376 E6.69846
G1 X62.605 Y59.702 E6.73015
G1 X63.22 Y60.074 E6.76171
G1 X63.759 Y60.457 E6.79074
G1 X64.356 Y60.953 E6.82481
G1 X64.849 Y61.429 E6.8549
G1 X65.3 Y61.937 E6.88473
G1 X65.714 Y62.472 E6.91442
G1 X66.117 Y63.083 E6.94656
G1 X66.468 Y63.716 E6.97834
G1 X66.751 Y64.328 E7.00794
G1 X67.007 Y65.013 E7.04004
G1 X67.197 Y65.661 E7.06969
G1 X67.349 Y66.368 E7.10144
G1 X67.445 Y67.075 E7.13277
G1 X67.488 Y67.807 E7.16496
G1 X67.479 Y68.465 E7.19385
G1 X67.415 Y69.183 E7.2255
G1 X67.3 Y69.882 E7.2566
G1 X67.139 Y70.558 E7.28711
G1 X66.919 Y71.243 E7.31869
G1 X66.652 Y71.902 E7.34991
G1 X66.35 Y72.511 E7.37975
G1 X65.971 Y73.149 E7.41233
G1 X65.583 Y73.706 E7.44214
G1 X65.138 Y74.253 E7.47309
G1 X64.634 Y74.786 E7.5053
G1 X64.147 Y75.23 E7.53423
G1 X63.575 Y75.679 E7.56616
G1 X62.975 Y76.081 E7.59787
G1 X62.381 Y76.418 E7.62785
G1 X61.744 Y76.719 E7.65878
G1 X61.105 Y76.967 E7.68887
G1 X60.416 Y77.177 E7.7205
G1 X59.708 Y77.334 E7.75234
G1 X58.999 Y77.437 E7.78379
G1 X58.303 Y77.485 E7.81442
G1 X57.612 Y77.481 E7.84476
G1 X56.874 Y77.422 E7.87726
G1 X56.21 Y77.32 E7.90676
G1 X55.489 Y77.152 E7.93926
G1 X54.845 Y76.95 E7.96889
G1 X54.17 Y76.682 E8.00078
G1 X53.57 Y76.391 E8.03005
G1 X52.957 Y76.037 E8.06113
G1 X52.371 Y75.64 E8.09221
G1 X51.814 Y75.195 E8.12351
G1 X51.271 Y74.69 E8.15606
G1 X50.834 Y74.22 E8.18424
G1 X50.373 Y73.646 E8.21656
G1 X49.976 Y73.066 E8.24742
G1 X49.622 Y72.454 E8.27846
G1 X49.309 Y71.808 E8.30997
G1 X49.055 Y71.165 E8.34033
G1 X48.844 Y70.494 E8.37121
G1 X48.683 Y69.796 E8.40266
G1 X48.575 Y69.105 E8.43336
G1 X48.528 Y68.539 E8.4583
G1 X48.512 Y67.986 E8.48258
G1 X48.534 Y67.334 E8.51123
G1 X48.61 Y66.628 E8.5424
G1 X48.735 Y65.949 E8.57271
G1 X48.917 Y65.254 E8.60425
G1 X49.148 Y64.582 E8.63545
G1 X49.435 Y63.918 E8.66721
G1 X49.747 Y63.317 E8.69694
G1 X50.128 Y62.702 E8.7287
G1 X50.51 Y62.174 E8.75731
G1 X50.988 Y61.607 E8.78987
G1 X51.492 Y61.095 E8.82141
G1 X51.506 Y61.083 E8.82222
G0 F810 X52.005 Y60.644
G0 F1125 X52.263 Y60.95
G1 F900 X52.828 Y60.525 E8.85326
G1 X53.377 Y60.174 E8.88187
G1 X53.961 Y59.857 E8.91104
G1 X54.591 Y59.574 E8.94137
G1 X55.213 Y59.348 E8.97042
G1 X55.896 Y59.158 E9.00155
G1 X56.515 Y59.033 E9.02927
G1 X57.203 Y58.946 E9.05972
G1 X57.881 Y58.911 E9.08952
G1 X58.104 Y58.909 E9.09931
G1 X58.764 Y58.941 E9.12832
G1 X59.446 Y59.025 E9.15849
G1 X59.944 Y59.12 E9.18075
G1 X60.522 Y59.267 E9.20693
G1 X61.161 Y59.477 E9.23646
G1 X61.801 Y59.742 E9.26688
G1 X62.417 Y60.055 E9.29721
G1 X63.008 Y60.413 E9.32755
G1 X63.52 Y60.778 E9.35515
G1 X64.064 Y61.229 E9.38618
G1 X64.565 Y61.712 E9.41673
G1 X64.996 Y62.197 E9.44522
G1 X65.393 Y62.71 E9.4737
G1 X65.778 Y63.297 E9.50452
G1 X66.115 Y63.904 E9.535
G1 X66.385 Y64.488 E9.56324
G1 X66.63 Y65.146 E9.59407
G1 X66.811 Y65.766 E9.62243
G1 X66.956 Y66.445 E9.65291
G1 X67.048 Y67.121 E9.68286
G1 X67.089 Y67.823 E9.71373
G1 X67.079 Y68.452 E9.74135
G1 X67.017 Y69.139 E9.77164
G1 X66.907 Y69.81 E9.80149
G1 X66.752 Y70.456 E9.83065
G1 X66.54 Y71.114 E9.86101
G1 X66.284 Y71.743 E9.89082
G1 X65.995 Y72.326 E9.91939
G1 X65.632 Y72.939 E9.95067
G1 X65.259 Y73.471 E9.97919
G1 X64.832 Y73.995 E10.00887
G1 X64.348 Y74.506 E10.03977
G1 X63.884 Y74.929 E10.06733
G1 X63.335 Y75.359 E10.09795
G1 X62.759 Y75.745 E10.12839
G1 X62.189 Y76.067 E10.15713
G1 X61.58 Y76.355 E10.18671
G1 X60.969 Y76.591 E10.21547
G1 X60.309 Y76.792 E10.24576
G1 X59.628 Y76.942 E10.27637
G1 X58.95 Y77.04 E10.30645
G1 X58.282 Y77.086 E10.33584
G1 X57.621 Y77.082 E10.36486
G1 X56.914 Y77.024 E10.39601
G1 X56.277 Y76.925 E10.42431
G1 X55.588 Y76.764 E10.45538
G1 X54.97 Y76.571 E10.4838
G1 X54.325 Y76.313 E10.5143
G1 X53.751 Y76.035 E10.5423
G1 X53.164 Y75.695 E10.57208
G1 X52.603 Y75.314 E10.60185
G1 X52.069 Y74.887 E10.63187
G1 X51.548 Y74.402 E10.66312
G1 X51.133 Y73.954 E10.68993
G1 X50.69 Y73.402 E10.72101
G1 X50.31 Y72.847 E10.75054
G1 X49.972 Y72.26 E10.78028
G1 X49.672 Y71.641 E10.81048
G1 X49.43 Y71.025 E10.83953
G1 X49.228 Y70.381 E10.86917
G1 X49.074 Y69.713 E10.89926
G1 X48.972 Y69.051 E10.92867
G1 X48.927 Y68.515 E10.95228
G1 X48.912 Y67.987 E10.97547
G1 X48.933 Y67.355 E11.00324
G1 X49.007 Y66.679 E11.03309
G1 X49.128 Y66.028 E11.06216
G1 X49.301 Y65.364 E11.09229
G1 X49.524 Y64.717 E11.12233
G1 X49.799 Y64.083 E11.15267
G1 X50.098 Y63.507 E11.18117
G1 X50.464 Y62.919 E11.21157
G1 X50.83 Y62.413 E11.23899
G1 X51.288 Y61.871 E11.27015
G1 X51.764 Y61.388 E11.29992
G0 F810 X51.771 Y61.381
G0 X52.263 Y60.95
G0 F1125 X52.521 Y61.256
G1 F900 X53.063 Y60.849 E11.32968
G1 X53.587 Y60.514 E11.35698
G1 X54.146 Y60.212 E11.38487
G1 X54.748 Y59.942 E11.41384
G1 X55.343 Y59.726 E11.44163
G1 X55.997 Y59.545 E11.47142
G1 X56.587 Y59.426 E11.49785
G1 X57.245 Y59.344 E11.52696
G1 X57.894 Y59.311 E11.55549
G1 X58.106 Y59.309 E11.5648
G1 X58.737 Y59.34 E11.59253
G1 X59.39 Y59.421 E11.62142
G1 X60.014 Y59.546 E11.64936
G1 X60.665 Y59.728 E11.67904
G1 X61.265 Y59.946 E11.70707
G1 X61.835 Y60.2 E11.73446
G1 X62.393 Y60.502 E11.76232
G1 X62.827 Y60.773 E11.78478
G1 X63.282 Y61.099 E11.80936
G1 X63.802 Y61.531 E11.83904
G1 X64.282 Y61.994 E11.86832
G1 X64.693 Y62.458 E11.89553
G1 X65.071 Y62.948 E11.9227
G1 X65.44 Y63.51 E11.95222
G1 X65.762 Y64.092 E11.98142
G1 X66.018 Y64.649 E12.00833
G1 X66.253 Y65.279 E12.03785
G1 X66.426 Y65.872 E12.06497
G1 X66.564 Y66.521 E12.0941
G1 X66.65 Y67.167 E12.12272
G1 X66.689 Y67.839 E12.15227
G1 X66.679 Y68.439 E12.17861
G1 X66.62 Y69.096 E12.20758
G1 X66.513 Y69.738 E12.23615
G1 X66.365 Y70.354 E12.26396
G1 X66.162 Y70.984 E12.29302
G1 X65.917 Y71.585 E12.32152
G1 X65.64 Y72.142 E12.34883
G1 X65.292 Y72.728 E12.37875
G1 X64.935 Y73.236 E12.40601
G1 X64.527 Y73.736 E12.43434
G1 X64.063 Y74.226 E12.46397
G1 X63.62 Y74.628 E12.49023
G1 X63.095 Y75.039 E12.51951
G1 X62.542 Y75.409 E12.54872
G1 X61.965 Y75.733 E12.57777
G1 X61.417 Y75.99 E12.60434
G1 X60.832 Y76.216 E12.63188
G1 X60.202 Y76.406 E12.66077
G1 X59.548 Y76.55 E12.69017
G1 X58.9 Y76.643 E12.71891
G1 X58.262 Y76.686 E12.74698
G1 X57.631 Y76.682 E12.77469
G1 X56.954 Y76.626 E12.80451
G1 X56.344 Y76.531 E12.83161
G1 X55.686 Y76.376 E12.86129
G1 X55.095 Y76.191 E12.88848
G1 X54.48 Y75.945 E12.91756
G1 X53.932 Y75.678 E12.94432
G1 X53.371 Y75.353 E12.97279
G1 X52.835 Y74.988 E13.00126
G1 X52.324 Y74.579 E13.03
G1 X51.826 Y74.114 E13.05991
G1 X51.432 Y73.688 E13.08538
G1 X51.007 Y73.159 E13.11518
G1 X50.645 Y72.627 E13.14343
G1 X50.322 Y72.066 E13.17185
G1 X50.036 Y71.474 E13.20071
G1 X49.804 Y70.884 E13.22855
G1 X49.612 Y70.269 E13.25683
G1 X49.465 Y69.63 E13.28562
G1 X49.368 Y68.997 E13.31373
G1 X49.326 Y68.49 E13.33607
G1 X49.312 Y67.989 E13.35807
G1 X49.333 Y67.376 E13.385
G1 X49.404 Y66.729 E13.41358
G1 X49.52 Y66.107 E13.44136
G1 X49.686 Y65.473 E13.47013
G1 X49.9 Y64.853 E13.49893
G1 X50.163 Y64.248 E13.52789
G1 X50.45 Y63.698 E13.55513
G1 X50.801 Y63.135 E13.58425
G1 X51.15 Y62.653 E13.61038
G1 X51.589 Y62.136 E13.64016
G1 X52.022 Y61.696 E13.66726
G0 F810 X52.05 Y61.668
G0 X52.521 Y61.256
G1 F1500 E8.66726
;MESH:DJI_SMA_tool.stl
G0 F1125 X54.981 Y61.818
G0 X58.445 Y61.215
G0 X58.451 Y61.116
;TYPE:WALL-INNER
G1 F1500 E14.39482
G1 F900 X58.958 Y61.167 E14.4172
G1 X59.47 Y61.259 E14.44003
G1 X59.952 Y61.382 E14.46187
G1 X60.452 Y61.551 E14.48505
G1 X60.919 Y61.748 E14.5073
G1 X61.373 Y61.981 E14.5297
G1 X61.818 Y62.253 E14.5526
G1 X62.248 Y62.562 E14.57585
G1 X62.612 Y62.868 E14.59672
G1 X62.997 Y63.241 E14.62026
G1 X63.332 Y63.621 E14.6425
G1 X63.642 Y64.027 E14.66493
G1 X63.923 Y64.46 E14.68759
G1 X64.165 Y64.902 E14.70971
G1 X64.381 Y65.373 E14.73246
G1 X64.562 Y65.864 E14.75544
G1 X64.695 Y66.327 E14.77659
G1 X64.805 Y66.857 E14.80035
G1 X64.871 Y67.367 E14.82293
G1 X64.899 Y67.872 E14.84513
G1 X64.889 Y68.39 E14.86788
G1 X64.843 Y68.883 E14.88962
G1 X64.755 Y69.408 E14.91299
G1 X64.635 Y69.896 E14.93505
G1 X64.479 Y70.376 E14.95721
G1 X64.284 Y70.851 E14.97975
G1 X64.049 Y71.32 E15.00278
G1 X63.793 Y71.749 E15.02472
G1 X63.483 Y72.189 E15.04835
G1 X63.172 Y72.566 E15.0698
G1 X62.802 Y72.955 E15.09337
G1 X62.434 Y73.287 E15.11513
G1 X62.02 Y73.607 E15.13811
G1 X61.601 Y73.885 E15.16018
G1 X61.144 Y74.142 E15.1832
G1 X60.693 Y74.353 E15.20506
G1 X60.212 Y74.536 E15.22766
G1 X59.705 Y74.686 E15.25087
G1 X59.217 Y74.791 E15.27278
G1 X58.709 Y74.863 E15.29531
G1 X58.19 Y74.897 E15.31814
G1 X57.682 Y74.892 E15.34045
G1 X57.168 Y74.848 E15.3631
G1 X56.663 Y74.769 E15.38554
G1 X56.154 Y74.648 E15.40851
G1 X55.683 Y74.499 E15.4302
G1 X55.196 Y74.304 E15.45323
G1 X54.737 Y74.078 E15.47569
G1 X54.288 Y73.815 E15.49853
G1 X53.879 Y73.533 E15.52035
G1 X53.469 Y73.203 E15.54345
G1 X53.095 Y72.852 E15.56597
G1 X52.758 Y72.486 E15.58781
G1 X52.434 Y72.077 E15.61072
G1 X52.147 Y71.651 E15.63327
G1 X51.89 Y71.203 E15.65595
G1 X51.671 Y70.745 E15.67824
G1 X51.482 Y70.261 E15.70105
G1 X51.333 Y69.775 E15.72337
G1 X51.223 Y69.29 E15.7452
G1 X51.142 Y68.754 E15.769
G1 X51.106 Y68.259 E15.79079
G1 X51.102 Y67.976 E15.80321
G1 X51.119 Y67.496 E15.8243
G1 X51.177 Y66.978 E15.84719
G1 X51.274 Y66.461 E15.87028
G1 X51.399 Y65.992 E15.89159
G1 X51.575 Y65.485 E15.91515
G1 X51.773 Y65.029 E15.93698
G1 X52.012 Y64.574 E15.95954
G1 X52.289 Y64.129 E15.98255
G1 X52.584 Y63.725 E16.00452
G1 X52.919 Y63.333 E16.02715
G1 X53.286 Y62.963 E16.05003
G1 X53.678 Y62.622 E16.07285
G1 X54.08 Y62.323 E16.09484
G1 X54.513 Y62.047 E16.11738
G1 X54.973 Y61.801 E16.14029
G1 X55.432 Y61.596 E16.16236
G1 X55.912 Y61.424 E16.18474
G1 X56.425 Y61.284 E16.20809
G1 X56.906 Y61.187 E16.22963
G1 X57.421 Y61.125 E16.2524
G1 X57.786 Y61.108 E16.26845
G0 F810 X57.94 Y61.101
G0 X58.451 Y61.116
G0 F1125 X58.476 Y60.716
;TYPE:WALL-OUTER
G1 F900 X59.014 Y60.771 E16.29219
G1 X59.546 Y60.866 E16.31592
G1 X60.073 Y61.001 E16.3398
G1 X60.596 Y61.177 E16.36403
G1 X61.089 Y61.385 E16.38752
G1 X61.569 Y61.632 E16.41122
G1 X62.042 Y61.92 E16.43553
G1 X62.482 Y62.237 E16.45934
G1 X62.887 Y62.577 E16.48256
