;FLAVOR:Marlin
;TIME:2404
;Filament used: 1.26577m
;Layer height: 0.12
;MINX:41.8
;MINY:36.6
;MINZ:0.3
;MAXX:78.2
;MAXY:71.1
;MAXZ:13.38
;Generated with Cura_SteamEngine 4.10.0
M104 S210
M105
M109 S210
M82 ;absolute extrusion mode
;Sliced at: Mon 05-07-2021 20:37:04
G21 ;metric values
G90 ;absolute positioning
M82 ;set extruder to absolute mode
M107 ;start with the fan off
G1 Z5.0 F1800 ;move Z to 5mm
G28 X0 Y0 F1800 ;move X/Y to min endstops
G28 Z0 ;move Z to min endstop
G92 E0 ;zero the extruded length
G1 F200 E6.0 ;extrude 6.0mm of feed stock to build pressure
G1 Z5.0 F300 ;move the platform down 5mm
G92 E0 ;zero the extruded length again
G1 F1800
;Put printing message on LCD screen
M117 Printing...
G92 E0
G92 E0
G1 F1500 E-0.6
;LAYER_COUNT:111
;LAYER:0
M106 S102
G0 F2400 X43.026 Y38.071 Z0.3
;TYPE:SKIRT
G1 F1500 E0.75698
G1 F1200 X43.433 Y37.659 E0.78328
G1 X43.893 Y37.307 E0.80959
G1 X44.397 Y37.021 E0.83591
G1 X44.935 Y36.807 E0.86221
G1 X45.498 Y36.67 E0.88852
G1 X46.093 Y36.611 E0.91568
G1 X46.53 Y36.6 E0.93554
G1 X56.618 Y36.601 E1.39372
G1 X58.402 Y36.627 E1.47476
G1 X58.652 Y36.635 E1.48612
G1 X62.22 Y36.629 E1.64817
G1 X63.719 Y36.6 E1.71627
G1 X73.152 Y36.6 E2.1447
G1 X73.847 Y36.61 E2.17627
G1 X74.425 Y36.659 E2.20262
G1 X74.99 Y36.786 E2.22892
G1 X75.532 Y36.99 E2.25522
G1 X76.041 Y37.266 E2.28152
G1 X76.507 Y37.61 E2.30783
G1 X76.922 Y38.015 E2.33416
G1 X77.277 Y38.473 E2.36048
G1 X77.565 Y38.975 E2.38677
G1 X77.782 Y39.513 E2.41312
G1 X77.922 Y40.075 E2.43942
G1 X77.986 Y40.897 E2.47687
G1 X77.96 Y42.145 E2.53357
G1 X77.879 Y44.125 E2.62357
G1 X77.844 Y46.858 E2.74771
G1 X77.886 Y49.516 E2.86845
G1 X78.008 Y52.282 E2.9942
G1 X78.13 Y54.09 E3.0765
G1 X78.176 Y54.772 E3.10755
G1 X78.2 Y56.059 E3.16601
G1 X78.199 Y59.97 E3.34364
G1 X78.192 Y60.511 E3.36822
G1 X78.172 Y60.968 E3.38899
G1 X78.104 Y61.543 E3.41529
G1 X77.968 Y62.085 E3.44067
G1 X77.775 Y62.631 E3.46697
G1 X77.532 Y63.108 E3.49129
G1 X77.371 Y63.379 E3.50561
G1 X77.041 Y63.856 E3.53195
G1 X76.697 Y64.236 E3.55523
G1 X76.236 Y64.657 E3.58359
G1 X75.476 Y65.261 E3.62768
G1 X74.564 Y65.966 E3.68003
G1 X72.489 Y67.667 E3.8019
G1 X70.805 Y69.147 E3.90372
G1 X69.747 Y70.064 E3.96731
G1 X69.284 Y70.412 E3.99362
G1 X68.778 Y70.693 E4.01991
G1 X68.237 Y70.902 E4.04625
G1 X67.673 Y71.035 E4.07257
G1 X67.137 Y71.088 E4.09703
G1 X66.489 Y71.1 E4.12647
G1 X53.647 Y71.1 E4.70973
G1 X52.944 Y71.09 E4.74167
G1 X52.367 Y71.041 E4.76797
G1 X51.802 Y70.914 E4.79427
G1 X51.259 Y70.711 E4.8206
G1 X50.75 Y70.434 E4.84692
G1 X50.231 Y70.044 E4.8764
G1 X49.439 Y69.347 E4.92432
G1 X49 Y68.949 E4.95124
G1 X46.943 Y67.19 E5.07416
G1 X44.837 Y65.489 E5.19712
G1 X43.925 Y64.785 E5.24945
G1 X43.71 Y64.612 E5.26198
G1 X43.226 Y64.155 E5.29221
G1 X43.077 Y63.99 E5.30231
G1 X42.719 Y63.534 E5.32864
G1 X42.412 Y63.014 E5.35607
G1 X42.168 Y62.489 E5.38236
G1 X42.002 Y61.975 E5.4069
G1 X41.874 Y61.41 E5.43321
G1 X41.817 Y60.804 E5.46085
G1 X41.807 Y60.562 E5.47185
G1 X41.8 Y59.99 E5.49783
G1 X41.8 Y55.739 E5.69091
G1 X41.811 Y54.961 E5.72625
G1 X41.833 Y54.578 E5.74367
G1 X42.019 Y51.806 E5.86986
G1 X42.123 Y49.111 E5.99235
G1 X42.15 Y46.408 E6.11512
G1 X42.061 Y42.566 E6.28967
G1 X42.023 Y41.685 E6.32972
G1 X42.01 Y40.98 E6.36175
G1 X42.012 Y40.726 E6.37328
G1 X42.063 Y40.149 E6.39959
G1 X42.194 Y39.584 E6.42594
G1 X42.4 Y39.043 E6.45223
G1 X42.679 Y38.536 E6.47851
G1 X42.708 Y38.497 E6.48072
G0 F1080 X43.026 Y38.071
G0 F2400 X43.419 Y38.231
G1 F1200 X43.821 Y37.855 E6.50572
G1 X44.273 Y37.54 E6.53074
G1 X44.766 Y37.294 E6.55577
G1 X45.29 Y37.122 E6.58081
G1 X46.104 Y37.011 E6.61813
G1 X46.53 Y37 E6.63748
G1 X56.612 Y37.001 E7.09539
G1 X58.39 Y37.027 E7.17616
G1 X58.641 Y37.035 E7.18756
G1 X62.229 Y37.029 E7.35053
G1 X63.719 Y37 E7.41821
G1 X73.147 Y37 E7.84642
G1 X73.842 Y37.01 E7.87799
G1 X74.391 Y37.058 E7.90302
G1 X74.927 Y37.185 E7.92804
G1 X75.439 Y37.388 E7.95306
G1 X75.917 Y37.663 E7.9781
G1 X76.349 Y38.004 E8.0031
G1 X76.728 Y38.404 E8.02813
G1 X77.045 Y38.855 E8.05316
G1 X77.294 Y39.346 E8.07817
G1 X77.469 Y39.869 E8.10322
G1 X77.566 Y40.411 E8.12822
G1 X77.586 Y40.888 E8.14991
G1 X77.56 Y42.129 E8.20629
G1 X77.479 Y44.104 E8.29606
G1 X77.445 Y46.824 E8.41961
G1 X77.488 Y49.575 E8.54457
G1 X77.607 Y52.28 E8.66755
G1 X77.731 Y54.121 E8.75136
G1 X77.776 Y54.78 E8.78136
G1 X77.8 Y56.059 E8.83946
G1 X77.799 Y59.965 E9.01686
G1 X77.792 Y60.506 E9.04144
G1 X77.772 Y60.948 E9.06153
G1 X77.705 Y61.495 E9.08656
G1 X77.583 Y61.978 E9.10919
G1 X77.398 Y62.497 E9.13421
G1 X77.027 Y63.175 E9.16932
G1 X76.712 Y63.627 E9.19434
G1 X76.279 Y64.086 E9.223
G1 X75.987 Y64.344 E9.2407
G1 X75.231 Y64.944 E9.28453
G1 X74.332 Y65.639 E9.33614
G1 X72.222 Y67.369 E9.46007
G1 X70.543 Y68.845 E9.56161
G1 X69.485 Y69.762 E9.6252
G1 X69.043 Y70.091 E9.65022
G1 X68.559 Y70.354 E9.67524
G1 X68.042 Y70.543 E9.70024
G1 X67.502 Y70.656 E9.7253
G1 X66.974 Y70.693 E9.74934
G1 X66.484 Y70.7 E9.7716
G1 X53.653 Y70.7 E10.35436
G1 X52.95 Y70.69 E10.3863
G1 X52.401 Y70.642 E10.41133
G1 X51.865 Y70.515 E10.43635
G1 X51.352 Y70.312 E10.4614
G1 X50.875 Y70.038 E10.48639
G1 X50.495 Y69.744 E10.50821
G1 X49.708 Y69.051 E10.55584
G1 X49.283 Y68.665 E10.58191
G1 X47.188 Y66.874 E10.7071
G1 X45.072 Y65.165 E10.83063
G1 X44.176 Y64.474 E10.88203
G1 X43.961 Y64.301 E10.89456
G1 X43.523 Y63.887 E10.92193
G1 X43.374 Y63.722 E10.93203
G1 X43.035 Y63.287 E10.95708
G1 X42.763 Y62.821 E10.98159
G1 X42.451 Y62.08 E11.0181
G1 X42.385 Y61.86 E11.02853
G1 X42.266 Y61.322 E11.05356
G1 X42.216 Y60.776 E11.07846
G1 X42.207 Y60.558 E11.08837
G1 X42.2 Y59.986 E11.11435
G1 X42.2 Y55.744 E11.30702
G1 X42.211 Y54.966 E11.34236
G1 X42.233 Y54.591 E11.35942
G1 X42.419 Y51.812 E11.48592
G1 X42.522 Y49.131 E11.60778
G1 X42.55 Y46.402 E11.73173
G1 X42.463 Y42.63 E11.9031
G1 X42.422 Y41.668 E11.94683
G1 X42.41 Y40.974 E11.97836
G1 X42.412 Y40.734 E11.98926
G1 X42.463 Y40.185 E12.0143
G1 X42.592 Y39.65 E12.0393
G1 X42.798 Y39.138 E12.06436
G1 X43.075 Y38.662 E12.08938
G1 X43.087 Y38.647 E12.09025
G0 F1080 X43.419 Y38.231
G0 F2400 X43.471 Y38.796
G1 F1200 X43.811 Y38.401 E12.11392
G1 X44.207 Y38.063 E12.13757
G1 X44.65 Y37.788 E12.16125
G1 X45.13 Y37.585 E12.18492
G1 X45.635 Y37.458 E12.20857
G1 X46.434 Y37.401 E12.24495
G1 X56.607 Y37.401 E12.707
G1 X58.377 Y37.427 E12.7874
G1 X58.628 Y37.435 E12.7988
G1 X62.238 Y37.429 E12.96276
G1 X63.719 Y37.4 E13.03004
G1 X73.141 Y37.4 E13.45798
G1 X73.836 Y37.41 E13.48955
G1 X74.355 Y37.458 E13.51322
G1 X74.861 Y37.584 E13.5369
G1 X75.341 Y37.786 E13.56056
G1 X75.785 Y38.059 E13.58423
G1 X76.182 Y38.397 E13.60791
G1 X76.523 Y38.791 E13.63158
G1 X76.799 Y39.233 E13.65524
G1 X77.005 Y39.712 E13.67893
G1 X77.135 Y40.216 E13.70257
G1 X77.186 Y40.88 E13.73281
G1 X77.16 Y42.113 E13.78883
G1 X77.08 Y44.083 E13.87838
G1 X77.045 Y46.825 E14.00292
G1 X77.087 Y49.565 E14.12739
G1 X77.209 Y52.324 E14.25282
G1 X77.333 Y54.152 E14.33604
G1 X77.376 Y54.787 E14.36494
G1 X77.4 Y56.059 E14.42273
G1 X77.399 Y59.96 E14.5999
G1 X77.392 Y60.501 E14.62448
G1 X77.373 Y60.929 E14.64394
G1 X77.253 Y61.669 E14.67799
G1 X77.197 Y61.871 E14.68751
G1 X77.02 Y62.361 E14.71117
G1 X76.683 Y62.971 E14.74282
G1 X76.383 Y63.397 E14.76649
G1 X75.999 Y63.8 E14.79177
G1 X75.738 Y64.031 E14.8076
G1 X74.986 Y64.628 E14.85121
G1 X74.075 Y65.332 E14.9035
G1 X71.975 Y67.054 E15.02685
G1 X70.281 Y68.542 E15.12925
G1 X69.223 Y69.459 E15.19284
G1 X68.804 Y69.769 E15.21652
G1 X68.343 Y70.012 E15.24018
G1 X67.85 Y70.181 E15.26385
G1 X67.11 Y70.288 E15.29781
G1 X66.48 Y70.3 E15.32643
G1 X53.659 Y70.3 E15.90875
G1 X52.956 Y70.29 E15.94068
G1 X52.437 Y70.242 E15.96435
G1 X51.931 Y70.116 E15.98804
G1 X51.451 Y69.914 E16.01169
G1 X51.007 Y69.641 E16.03536
G1 X50.759 Y69.443 E16.04978
G1 X49.976 Y68.755 E16.09712
G1 X49.528 Y68.349 E16.12458
G1 X47.437 Y66.56 E16.24956
G1 X45.329 Y64.857 E16.37265
G1 X44.427 Y64.162 E16.42436
G1 X44.212 Y63.989 E16.4369
G1 X43.82 Y63.619 E16.46138
G1 X43.671 Y63.454 E16.47148
G1 X43.352 Y63.041 E16.49518
G1 X43.113 Y62.628 E16.51685
G1 X42.834 Y61.965 E16.54952
G1 X42.768 Y61.745 E16.55995
G1 X42.633 Y61.006 E16.59407
G1 X42.607 Y60.553 E16.61468
G1 X42.6 Y59.981 E16.64066
G1 X42.6 Y55.75 E16.83283
G1 X42.611 Y54.972 E16.86817
G1 X42.635 Y54.585 E16.88578
G1 X42.818 Y51.856 E17.01001
G1 X42.922 Y49.15 E17.133
G1 X42.95 Y46.397 E17.25805
G1 X42.863 Y42.613 E17.42996
G1 X42.819 Y41.563 E17.47769
G1 X42.809 Y40.967 E17.50476
G1 X42.812 Y40.742 E17.51498
G1 X42.862 Y40.223 E17.53866
G1 X42.991 Y39.718 E17.56234
G1 X43.191 Y39.249 E17.58549
G0 F1080 X43.195 Y39.239
G0 X43.471 Y38.796
G0 F2400 X43.865 Y38.939
G1 F1200 X44.201 Y38.582 E17.60776
G1 X44.59 Y38.285 E17.62999
G1 X45.022 Y38.055 E17.65222
G1 X45.486 Y37.898 E17.67447
G1 X46.126 Y37.81 E17.70381
G1 X46.53 Y37.8 E17.72216
G1 X56.601 Y37.801 E18.17957
G1 X58.365 Y37.826 E18.2597
G1 X58.647 Y37.835 E18.27252
G1 X62.246 Y37.829 E18.43598
G1 X63.719 Y37.8 E18.50289
G1 X73.135 Y37.8 E18.93056
G1 X73.83 Y37.81 E18.96213
G1 X74.317 Y37.857 E18.98435
G1 X74.791 Y37.983 E19.00662
G1 X75.237 Y38.184 E19.02884
G1 X75.645 Y38.454 E19.05106
G1 X76.003 Y38.788 E19.0733
G1 X76.302 Y39.175 E19.09551
G1 X76.535 Y39.606 E19.11777
G1 X76.694 Y40.069 E19.14
G1 X76.776 Y40.551 E19.16221
G1 X76.786 Y40.872 E19.17679
G1 X76.761 Y42.096 E19.2324
G1 X76.679 Y44.096 E19.32331
G1 X76.645 Y46.826 E19.44731
G1 X76.688 Y49.588 E19.57278
G1 X76.809 Y52.327 E19.6973
G1 X76.934 Y54.183 E19.78179
G1 X76.976 Y54.795 E19.80965
G1 X77 Y56.059 E19.86707
G1 X76.999 Y59.955 E20.04402
G1 X76.992 Y60.496 E20.06859
G1 X76.973 Y60.909 E20.08737
G1 X76.868 Y61.562 E20.11741
G1 X76.643 Y62.224 E20.14917
G1 X76.339 Y62.766 E20.17739
G1 X75.858 Y63.378 E20.21275
G1 X75.489 Y63.718 E20.23553
G1 X74.742 Y64.312 E20.27888
G1 X73.806 Y65.036 E20.33263
G1 X71.707 Y66.756 E20.45588
G1 X70.019 Y68.24 E20.55796
G1 X68.961 Y69.157 E20.62155
G1 X68.566 Y69.446 E20.64378
G1 X68.129 Y69.668 E20.66604
G1 X67.663 Y69.815 E20.68824
G1 X67.097 Y69.888 E20.71416
G1 X66.475 Y69.9 E20.74241
G1 X53.664 Y69.9 E21.32427
G1 X52.961 Y69.89 E21.35621
G1 X52.474 Y69.843 E21.37843
G1 X52.001 Y69.717 E21.40066
G1 X51.555 Y69.517 E21.42286
G1 X51.023 Y69.143 E21.4524
G1 X50.245 Y68.458 E21.49948
G1 X49.81 Y68.064 E21.52613
G1 X47.702 Y66.261 E21.65212
G1 X45.563 Y64.533 E21.77701
G1 X44.677 Y63.85 E21.82782
G1 X44.116 Y63.351 E21.86192
G1 X43.967 Y63.186 E21.87202
G1 X43.566 Y62.622 E21.90345
G1 X43.463 Y62.435 E21.91315
G1 X43.218 Y61.85 E21.94195
G1 X43.152 Y61.63 E21.95239
G1 X43.032 Y60.978 E21.9825
G1 X43.007 Y60.548 E22.00206
G1 X43 Y59.976 E22.02804
G1 X43 Y55.756 E22.21971
G1 X43.011 Y54.978 E22.25505
G1 X43.216 Y51.899 E22.3952
G1 X43.322 Y49.134 E22.52088
G1 X43.351 Y46.392 E22.64542
G1 X43.261 Y42.538 E22.82051
G1 X43.219 Y41.556 E22.86516
G1 X43.209 Y40.96 E22.89223
G1 X43.261 Y40.263 E22.92397
G1 X43.389 Y39.79 E22.94623
G1 X43.575 Y39.385 E22.96647
G0 F1080 X43.593 Y39.345
G0 X43.865 Y38.939
G0 F2400 X44.259 Y39.091
G1 F1200 X44.589 Y38.777 E22.98716
G1 X44.969 Y38.525 E23.00787
G1 X45.386 Y38.343 E23.02853
G1 X45.83 Y38.237 E23.04927
G1 X46.457 Y38.201 E23.07779
G1 X56.595 Y38.201 E23.53825
G1 X58.352 Y38.226 E23.61806
G1 X58.635 Y38.235 E23.63092
G1 X62.251 Y38.229 E23.79515
G1 X63.668 Y38.201 E23.85952
G1 X73.129 Y38.2 E24.28923
G1 X73.824 Y38.21 E24.3208
G1 X74.278 Y38.257 E24.34153
G1 X74.716 Y38.382 E24.36222
G1 X75.126 Y38.581 E24.38292
G1 X75.494 Y38.849 E24.40359
G1 X75.81 Y39.177 E24.42428
G1 X76.064 Y39.555 E24.44496
G1 X76.248 Y39.972 E24.46566
G1 X76.357 Y40.415 E24.48638
G1 X76.386 Y40.864 E24.50682
G1 X76.361 Y42.08 E24.56206
G1 X76.28 Y44.075 E24.65275
G1 X76.245 Y46.828 E24.77779
G1 X76.288 Y49.612 E24.90425
G1 X76.407 Y52.313 E25.02705
G1 X76.535 Y54.214 E25.11359
G1 X76.577 Y54.802 E25.14036
G1 X76.6 Y56.059 E25.19746
G1 X76.599 Y59.95 E25.37419
G1 X76.592 Y60.491 E25.39876
G1 X76.574 Y60.889 E25.41685
G1 X76.483 Y61.456 E25.44294
G1 X76.267 Y62.084 E25.4731
G1 X75.995 Y62.562 E25.49808
G1 X75.578 Y63.092 E25.52871
G1 X75.24 Y63.405 E25.54963
G1 X74.497 Y63.995 E25.59272
G1 X73.574 Y64.708 E25.6457
G1 X71.442 Y66.456 E25.77091
G1 X69.757 Y67.938 E25.87283
G1 X68.699 Y68.855 E25.93642
G1 X68.33 Y69.122 E25.95711
G1 X67.92 Y69.32 E25.97779
G1 X67.481 Y69.444 E25.99851
G1 X66.934 Y69.494 E26.02346
G1 X66.47 Y69.5 E26.04453
G1 X53.67 Y69.5 E26.62589
G1 X52.967 Y69.49 E26.65783
G1 X52.514 Y69.443 E26.67851
G1 X52.076 Y69.319 E26.69919
G1 X51.666 Y69.119 E26.71991
G1 X51.287 Y68.843 E26.7412
G1 X50.513 Y68.162 E26.78802
G1 X50.056 Y67.748 E26.81603
G1 X47.968 Y65.962 E26.94083
G1 X45.797 Y64.208 E27.06759
G1 X44.928 Y63.539 E27.1174
G1 X44.413 Y63.083 E27.14864
G1 X44.264 Y62.918 E27.15874
G1 X43.917 Y62.429 E27.18597
G1 X43.814 Y62.242 E27.19567
G1 X43.601 Y61.735 E27.22065
G1 X43.535 Y61.515 E27.23108
G1 X43.431 Y60.95 E27.25717
G1 X43.407 Y60.543 E27.27569
G1 X43.4 Y59.971 E27.30167
G1 X43.4 Y55.761 E27.49288
G1 X43.411 Y54.983 E27.52822
G1 X43.432 Y54.65 E27.54338
G1 X43.616 Y51.903 E27.66842
G1 X43.722 Y49.154 E27.79337
G1 X43.751 Y46.383 E27.91923
G1 X43.662 Y42.579 E28.09205
G1 X43.619 Y41.55 E28.13883
G1 X43.609 Y40.954 E28.1659
G1 X43.66 Y40.305 E28.19547
G1 X43.788 Y39.867 E28.2162
G1 X43.955 Y39.527 E28.2334
G0 F1080 X43.989 Y39.458
G0 X44.259 Y39.091
G0 F2400 X44.651 Y39.257
G1 F1200 X44.974 Y38.99 E28.25244
G1 X45.341 Y38.788 E28.27146
G1 X45.74 Y38.66 E28.29049
G1 X46.468 Y38.601 E28.32367
G1 X56.59 Y38.601 E28.7834
G1 X58.339 Y38.626 E28.86284
G1 X58.622 Y38.635 E28.8757
G1 X62.211 Y38.629 E29.03871
G1 X63.675 Y38.6 E29.10522
G1 X73.124 Y38.6 E29.53438
G1 X73.819 Y38.61 E29.56595
G1 X74.235 Y38.656 E29.58496
G1 X74.635 Y38.78 E29.60398
G1 X75.005 Y38.978 E29.62304
G1 X75.33 Y39.242 E29.64205
G1 X75.6 Y39.563 E29.66111
G1 X75.803 Y39.929 E29.68011
G1 X75.933 Y40.328 E29.69917
G1 X75.987 Y40.855 E29.72324
G1 X75.961 Y42.064 E29.77816
G1 X75.88 Y44.054 E29.86862
G1 X75.844 Y46.829 E29.99467
G1 X75.888 Y49.602 E30.12063
G1 X76.01 Y52.372 E30.24656
G1 X76.136 Y54.246 E30.33187
G1 X76.177 Y54.81 E30.35755
G1 X76.2 Y56.059 E30.41429
G1 X76.199 Y59.944 E30.59074
G1 X76.192 Y60.485 E30.61531
G1 X76.097 Y61.349 E30.65479
G1 X76.041 Y61.551 E30.66431
G1 X75.812 Y62.087 E30.69079
G1 X75.651 Y62.358 E30.7051
G1 X75.299 Y62.807 E30.73101
G1 X74.991 Y63.092 E30.75007
G1 X74.252 Y63.679 E30.79294
G1 X73.317 Y64.402 E30.84662
G1 X71.178 Y66.156 E30.97226
G1 X69.495 Y67.635 E31.07402
G1 X68.437 Y68.552 E31.13761
G1 X68.096 Y68.796 E31.15665
G1 X67.714 Y68.969 E31.1757
G1 X67.07 Y69.089 E31.20545
G1 X66.465 Y69.1 E31.23294
G1 X53.676 Y69.1 E31.8138
G1 X52.973 Y69.09 E31.84573
G1 X52.556 Y69.044 E31.86478
G1 X52.156 Y68.92 E31.8838
G1 X51.786 Y68.722 E31.90286
G1 X51.551 Y68.542 E31.91631
G1 X50.782 Y67.865 E31.96284
G1 X50.338 Y67.463 E31.99005
G1 X48.191 Y65.626 E32.11838
G1 X46.089 Y63.928 E32.24111
G1 X45.179 Y63.227 E32.29328
G1 X44.71 Y62.814 E32.32167
G1 X44.561 Y62.649 E32.33176
G1 X44.267 Y62.236 E32.35479
G1 X43.984 Y61.62 E32.38558
G1 X43.83 Y60.922 E32.41804
G1 X43.807 Y60.538 E32.43552
G1 X43.8 Y59.966 E32.4615
G1 X43.8 Y55.767 E32.65221
G1 X43.811 Y54.989 E32.68755
G1 X44.017 Y51.911 E32.82766
G1 X44.122 Y49.173 E32.95211
G1 X44.151 Y46.381 E33.07893
G1 X44.062 Y42.562 E33.25243
G1 X44.019 Y41.543 E33.29875
G1 X44.009 Y40.866 E33.3295
G1 X44.06 Y40.349 E33.3531
G1 X44.186 Y39.95 E33.3721
G1 X44.332 Y39.68 E33.38604
G0 F1080 X44.385 Y39.581
G0 X44.651 Y39.257
G1 F1500 E32.78604
;MESH:Schieber Tr??ger.stl
G0 F2400 X57.579 Y40.19
G0 X61.912 Y41.668
G0 X63.15 Y41.412
G0 X73.107 Y41.463
G0 X73.183 Y41.4
;TYPE:WALL-INNER
G1 F1500 E34.14302
G1 F1200 X73.14 Y41.635 E34.15387
G1 X73.072 Y41.999 E34.17069
G1 X72.893 Y42.406 E34.19089
G1 X72.623 Y42.793 E34.21232
G1 X72.169 Y43.208 E34.24025
G1 X70.996 Y44.03 E34.30531
G1 X70.536 Y44.384 E34.33167
G1 X70.093 Y44.795 E34.35912
G1 X69.684 Y45.253 E34.38701
G1 X69.325 Y45.737 E34.41438
G1 X69.011 Y46.253 E34.44181
G1 X68.746 Y46.794 E34.46917
G1 X68.535 Y47.347 E34.49606
G1 X68.371 Y47.928 E34.52347
G1 X68.261 Y48.521 E34.55087
