;FLAVOR:Marlin
;TIME:2850
;Filament used: 1.53865m
;Layer height: 0.12
;MINX:38.423
;MINY:31.293
;MINZ:0.3
;MAXX:80.01
;MAXY:87.892
;MAXZ:5.34
;Generated with Cura_SteamEngine 4.11.0
M104 S210
M105
M109 S210
M82 ;absolute extrusion mode
;Sliced at: Thu 14-10-2021 20:18:56
G21 ;metric values
G90 ;absolute positioning
M82 ;set extruder to absolute mode
M107 ;start with the fan off
G1 Z5.0 F1800 ;move Z to 5mm
G28 X0 Y0 F1800 ;move X/Y to min endstops
G28 Z0 ;move Z to min endstop
G92 E0 ;zero the extruded length
G1 F200 E6.0 ;extrude 6.0mm of feed stock to build pressure
G1 Z5.0 F300 ;move the platform down 5mm
G92 E0 ;zero the extruded length again
G1 F1800
;Put printing message on LCD screen
M117 Printing...
G92 E0
G92 E0
G1 F1500 E-5
;LAYER_COUNT:44
;LAYER:0
M107
G0 F1080 X43.443 Y36.22 Z0.3
;TYPE:SKIRT
G1 F1500 E0.70678
G1 F900 X43.566 Y36.075 E0.71721
G1 X43.995 Y35.585 E0.75295
G1 X44.1 Y35.469 E0.76154
G1 X44.546 Y34.992 E0.79738
G1 X44.815 Y34.718 E0.81845
G1 X45.279 Y34.308 E0.85243
G1 X45.792 Y33.961 E0.88642
G1 X46.345 Y33.683 E0.92039
G1 X46.93 Y33.478 E0.95441
G1 X47.433 Y33.367 E0.98267
G1 X47.625 Y33.335 E0.99336
G1 X50.368 Y32.836 E1.14636
G1 X52.933 Y32.297 E1.2902
G1 X55.65 Y31.642 E1.44358
G1 X56.256 Y31.488 E1.47789
G1 X57.032 Y31.353 E1.52112
G1 X57.574 Y31.304 E1.55098
G1 X57.971 Y31.293 E1.57278
G1 X60.049 Y31.293 E1.68682
G1 X60.792 Y31.304 E1.7276
G1 X61.342 Y31.343 E1.75786
G1 X62 Y31.448 E1.79442
G1 X62.277 Y31.511 E1.81001
G1 X64.711 Y32.116 E1.94765
G1 X67.352 Y32.694 E2.09602
G1 X69.984 Y33.193 E2.24304
G1 X70.688 Y33.309 E2.28219
G1 X71.097 Y33.386 E2.30503
G1 X71.697 Y33.541 E2.33904
G1 X72.272 Y33.772 E2.37305
G1 X72.812 Y34.074 E2.407
G1 X73.308 Y34.444 E2.44096
G1 X73.893 Y35.005 E2.48544
G1 X74.304 Y35.438 E2.51821
G1 X74.419 Y35.565 E2.52761
G1 X74.88 Y36.092 E2.56603
G1 X74.999 Y36.233 E2.57616
G1 X75.651 Y37.039 E2.63305
G1 X76.076 Y37.609 E2.67207
G1 X76.408 Y38.096 E2.70442
G1 X76.563 Y38.338 E2.72019
G1 X77.149 Y39.319 E2.7829
G1 X77.342 Y39.67 E2.80488
G1 X77.596 Y40.17 E2.83566
G1 X77.86 Y40.734 E2.86983
G1 X78.06 Y41.198 E2.89756
G1 X78.294 Y41.79 E2.9325
G1 X78.344 Y41.925 E2.9404
G1 X78.521 Y42.424 E2.96945
G1 X78.575 Y42.586 E2.97882
G1 X78.743 Y43.119 E3.00949
G1 X78.786 Y43.263 E3.01774
G1 X78.924 Y43.754 E3.04573
G1 X78.961 Y43.894 E3.05368
G1 X79.107 Y44.481 E3.08687
G1 X79.139 Y44.618 E3.09459
G1 X79.265 Y45.196 E3.12706
G1 X79.292 Y45.33 E3.13456
G1 X79.443 Y46.141 E3.17983
G1 X79.559 Y46.872 E3.22045
G1 X79.666 Y47.663 E3.26426
G1 X79.681 Y47.782 E3.27084
G1 X79.772 Y48.625 E3.31737
G1 X79.857 Y49.607 E3.37146
G1 X79.92 Y50.577 E3.42481
G1 X79.965 Y51.542 E3.47782
G1 X79.995 Y52.56 E3.53372
G1 X80.01 Y53.59 E3.59025
G1 X80.005 Y54.279 E3.62806
G1 X79.93 Y55.089 E3.6727
G1 X79.821 Y55.694 E3.70644
G1 X79.506 Y57.32 E3.79733
G1 X79.068 Y59.981 E3.94533
G1 X78.711 Y62.62 E4.09148
G1 X78.419 Y65.344 E4.24182
G1 X78.211 Y67.996 E4.38781
G1 X78.077 Y70.692 E4.53595
G1 X78.015 Y74.132 E4.72476
G1 X78.014 Y82.429 E5.18009
G1 X78.003 Y83.156 E5.22
G1 X77.954 Y83.773 E5.25396
G1 X77.826 Y84.379 E5.28795
G1 X77.62 Y84.963 E5.32194
G1 X77.342 Y85.516 E5.35591
G1 X76.994 Y86.029 E5.38993
G1 X76.583 Y86.492 E5.4239
G1 X76.116 Y86.899 E5.4579
G1 X75.6 Y87.242 E5.4919
G1 X75.045 Y87.516 E5.52587
G1 X74.459 Y87.716 E5.55985
G1 X73.852 Y87.839 E5.59384
G1 X73.339 Y87.881 E5.62209
G1 X72.885 Y87.892 E5.64701
G1 X45.86 Y87.892 E7.13012
G1 X45.162 Y87.883 E7.16843
G1 X44.545 Y87.835 E7.20239
G1 X43.938 Y87.708 E7.23642
G1 X43.354 Y87.504 E7.27037
G1 X42.8 Y87.226 E7.30439
G1 X42.287 Y86.879 E7.33838
G1 X41.822 Y86.47 E7.37236
G1 X41.415 Y86.003 E7.40636
G1 X41.07 Y85.489 E7.44033
G1 X40.795 Y84.934 E7.47432
G1 X40.594 Y84.348 E7.50832
G1 X40.469 Y83.741 E7.54233
G1 X40.426 Y83.213 E7.5714
G1 X40.415 Y82.75 E7.59682
G1 X40.415 Y74.206 E8.06571
G1 X40.376 Y71.441 E8.21746
G1 X40.261 Y68.743 E8.36566
G1 X40.073 Y66.083 E8.51201
G1 X39.804 Y63.37 E8.66162
G1 X39.466 Y60.732 E8.80758
G1 X39.048 Y58.068 E8.95557
G1 X38.759 Y56.511 E9.04247
G1 X38.75 Y56.433 E9.04678
G1 X38.513 Y55.163 E9.11768
G1 X38.432 Y54.331 E9.16356
G1 X38.423 Y53.439 E9.21251
G1 X38.436 Y52.544 E9.26163
G1 X38.471 Y51.41 E9.3239
G1 X38.515 Y50.494 E9.37422
G1 X38.584 Y49.472 E9.43044
G1 X38.664 Y48.57 E9.48013
G1 X38.747 Y47.809 E9.52214
G1 X38.885 Y46.779 E9.57917
G1 X38.984 Y46.161 E9.61352
G1 X39.139 Y45.331 E9.65986
G1 X39.163 Y45.208 E9.66674
G1 X39.296 Y44.59 E9.70143
G1 X39.333 Y44.434 E9.71023
G1 X39.456 Y43.943 E9.73801
G1 X39.491 Y43.811 E9.7455
G1 X39.643 Y43.27 E9.77634
G1 X39.689 Y43.116 E9.78516
G1 X39.881 Y42.511 E9.81999
G1 X40.09 Y41.912 E9.85481
G1 X40.324 Y41.314 E9.89005
G1 X40.65 Y40.558 E9.93523
G1 X40.837 Y40.163 E9.95922
G1 X41.091 Y39.665 E9.98989
G1 X41.343 Y39.202 E10.01882
G1 X41.625 Y38.72 E10.04947
G1 X41.724 Y38.56 E10.0598
G1 X42.039 Y38.071 E10.09172
G1 X42.338 Y37.634 E10.12078
G1 X42.757 Y37.069 E10.15938
G1 X43.443 Y36.22 E10.21928
G0 F1080 X43.755 Y36.472
G1 F900 X43.866 Y36.339 E10.22879
G1 X44.295 Y35.849 E10.26453
G1 X44.392 Y35.742 E10.27245
G1 X44.931 Y35.168 E10.31567
G1 X45.098 Y35 E10.32867
G1 X45.544 Y34.609 E10.36122
G1 X46.038 Y34.281 E10.39376
G1 X46.571 Y34.022 E10.42628
G1 X47.135 Y33.838 E10.45884
G1 X47.763 Y33.717 E10.49393
G1 X50.416 Y33.235 E10.64191
G1 X53.037 Y32.684 E10.78889
G1 X55.706 Y32.04 E10.93957
G1 X56.35 Y31.877 E10.97603
G1 X57.091 Y31.749 E11.0173
G1 X57.819 Y31.696 E11.05735
G1 X57.971 Y31.693 E11.0657
G1 X60.115 Y31.693 E11.18336
G1 X60.786 Y31.703 E11.22019
G1 X61.29 Y31.74 E11.24792
G1 X61.914 Y31.838 E11.28258
G1 X62.181 Y31.899 E11.29761
G1 X64.635 Y32.509 E11.43639
G1 X67.271 Y33.086 E11.58447
G1 X69.924 Y33.588 E11.73265
G1 X70.728 Y33.723 E11.77739
G1 X71.022 Y33.779 E11.79382
G1 X71.596 Y33.929 E11.82637
G1 X72.144 Y34.154 E11.85888
G1 X72.657 Y34.452 E11.89144
G1 X73.3 Y34.98 E11.9371
G1 X73.716 Y35.397 E11.96943
G1 X74.118 Y35.828 E12.00177
G1 X74.579 Y36.355 E12.0402
G1 X74.688 Y36.485 E12.04951
G1 X75.34 Y37.291 E12.1064
G1 X75.746 Y37.835 E12.14365
G1 X76.078 Y38.322 E12.176
G1 X76.219 Y38.544 E12.19043
G1 X76.805 Y39.525 E12.25314
G1 X76.986 Y39.851 E12.2736
G1 X77.24 Y40.351 E12.30438
G1 X77.493 Y40.892 E12.33716
G1 X77.693 Y41.356 E12.36489
G1 X77.921 Y41.935 E12.39904
G1 X77.967 Y42.059 E12.40629
G1 X78.144 Y42.558 E12.43535
G1 X78.193 Y42.706 E12.44391
G1 X78.401 Y43.371 E12.48214
G1 X78.539 Y43.862 E12.51013
G1 X78.573 Y43.991 E12.51746
G1 X78.719 Y44.578 E12.55065
G1 X78.874 Y45.281 E12.59016
G1 X78.899 Y45.404 E12.59705
G1 X79.048 Y46.203 E12.64165
G1 X79.164 Y46.934 E12.68227
G1 X79.27 Y47.717 E12.72563
G1 X79.364 Y48.568 E12.77262
G1 X79.458 Y49.633 E12.83129
G1 X79.52 Y50.596 E12.88425
G1 X79.565 Y51.555 E12.93694
G1 X79.595 Y52.566 E12.99244
G1 X79.61 Y53.587 E13.04848
G1 X79.605 Y54.276 E13.08629
G1 X79.536 Y55.018 E13.12719
G1 X79.429 Y55.618 E13.16064
G1 X79.113 Y57.249 E13.25181
G1 X78.672 Y59.933 E13.40108
G1 X78.311 Y62.595 E13.54851
G1 X78.025 Y65.268 E13.69604
G1 X77.812 Y67.981 E13.84538
G1 X77.676 Y70.696 E13.99457
G1 X77.615 Y74.102 E14.18151
G1 X77.614 Y82.423 E14.63816
G1 X77.603 Y83.15 E14.67807
G1 X77.555 Y83.741 E14.71061
G1 X77.427 Y84.32 E14.74315
G1 X77.222 Y84.876 E14.77567
G1 X76.945 Y85.4 E14.8082
G1 X76.599 Y85.882 E14.84076
G1 X76.192 Y86.313 E14.87329
G1 X75.73 Y86.685 E14.90584
G1 X75.223 Y86.992 E14.93837
G1 X74.679 Y87.228 E14.97091
G1 X74.108 Y87.389 E15.00347
G1 X73.328 Y87.481 E15.04657
G1 X72.885 Y87.492 E15.07089
G1 X45.865 Y87.492 E16.55373
G1 X45.167 Y87.483 E16.59204
G1 X44.576 Y87.435 E16.62458
G1 X43.997 Y87.308 E16.65711
G1 X43.44 Y87.105 E16.68964
G1 X42.915 Y86.829 E16.72219
G1 X42.433 Y86.484 E16.75472
G1 X42.001 Y86.078 E16.78726
G1 X41.627 Y85.617 E16.81983
G1 X41.319 Y85.111 E16.85234
G1 X41.082 Y84.567 E16.88491
G1 X40.92 Y83.997 E16.91743
G1 X40.826 Y83.202 E16.96136
G1 X40.815 Y82.75 E16.98617
G1 X40.815 Y74.2 E17.45539
G1 X40.776 Y71.418 E17.60808
G1 X40.662 Y68.734 E17.75551
G1 X40.472 Y66.052 E17.90306
G1 X40.2 Y63.312 E18.05417
G1 X39.865 Y60.691 E18.19918
G1 X39.437 Y57.97 E18.35034
G1 X39.153 Y56.438 E18.43585
G1 X39.145 Y56.374 E18.43939
G1 X38.906 Y55.089 E18.51112
G1 X38.832 Y54.327 E18.55313
G1 X38.823 Y53.435 E18.60209
G1 X38.836 Y52.556 E18.65033
G1 X38.87 Y51.429 E18.71221
G1 X38.915 Y50.52 E18.76216
G1 X38.983 Y49.506 E18.81793
G1 X39.062 Y48.613 E18.86713
G1 X39.158 Y47.745 E18.91505
G1 X39.28 Y46.842 E18.96506
G1 X39.379 Y46.224 E18.99941
G1 X39.532 Y45.405 E19.04513
G1 X39.554 Y45.292 E19.05145
G1 X39.687 Y44.674 E19.08614
G1 X39.844 Y44.04 E19.12198
G1 X39.876 Y43.919 E19.12885
G1 X40.028 Y43.378 E19.15969
G1 X40.07 Y43.237 E19.16777
G1 X40.262 Y42.632 E19.2026
G1 X40.467 Y42.045 E19.23672
G1 X40.691 Y41.472 E19.27049
G1 X40.962 Y40.841 E19.30817
G1 X41.193 Y40.345 E19.3382
G1 X41.447 Y39.847 E19.36888
G1 X41.693 Y39.395 E19.39712
G1 X41.969 Y38.923 E19.42713
G1 X42.06 Y38.776 E19.43661
G1 X42.375 Y38.287 E19.46854
G1 X42.661 Y37.87 E19.49629
G1 X43.069 Y37.321 E19.53382
G1 X43.755 Y36.472 E19.59373
G0 F1080 X44.066 Y36.723
G1 F900 X44.167 Y36.602 E19.60238
G1 X44.596 Y36.112 E19.63812
G1 X44.684 Y36.015 E19.6453
G1 X45.13 Y35.538 E19.68114
G1 X45.382 Y35.282 E19.70086
G1 X45.808 Y34.91 E19.73189
G1 X46.282 Y34.602 E19.76291
G1 X46.795 Y34.364 E19.79395
G1 X47.564 Y34.156 E19.83767
G1 X47.829 Y34.112 E19.85241
G1 X50.498 Y33.627 E20.00128
G1 X53.108 Y33.078 E20.14765
G1 X55.815 Y32.426 E20.30046
G1 X56.444 Y32.266 E20.33608
G1 X57.15 Y32.145 E20.37539
G1 X57.833 Y32.095 E20.41297
G1 X57.971 Y32.093 E20.42054
G1 X60.109 Y32.093 E20.53787
G1 X60.78 Y32.103 E20.5747
G1 X61.483 Y32.169 E20.61345
G1 X61.981 Y32.263 E20.64126
G1 X62.084 Y32.287 E20.64707
G1 X64.558 Y32.902 E20.78697
G1 X67.176 Y33.475 E20.93405
G1 X69.878 Y33.987 E21.08497
G1 X70.653 Y34.116 E21.12809
G1 X70.947 Y34.172 E21.14451
G1 X71.494 Y34.316 E21.17555
G1 X72.015 Y34.537 E21.20661
G1 X72.499 Y34.828 E21.2376
G1 X73.018 Y35.263 E21.27477
G1 X73.425 Y35.671 E21.30639
G1 X73.817 Y36.091 E21.33792
G1 X74.278 Y36.618 E21.37635
G1 X74.377 Y36.736 E21.3848
G1 X75.029 Y37.542 E21.44169
G1 X75.415 Y38.06 E21.47715
G1 X75.747 Y38.547 E21.50949
G1 X75.876 Y38.749 E21.52264
G1 X76.525 Y39.838 E21.59222
G1 X76.629 Y40.032 E21.6043
G1 X76.883 Y40.532 E21.63507
G1 X77.125 Y41.051 E21.6665
G1 X77.325 Y41.515 E21.69423
G1 X77.548 Y42.08 E21.72756
G1 X77.59 Y42.193 E21.73418
G1 X77.767 Y42.692 E21.76323
G1 X77.812 Y42.827 E21.77104
G1 X77.98 Y43.36 E21.80171
G1 X78.016 Y43.48 E21.80859
G1 X78.154 Y43.971 E21.83658
G1 X78.185 Y44.088 E21.84322
G1 X78.331 Y44.675 E21.87642
G1 X78.483 Y45.366 E21.91525
G1 X78.506 Y45.478 E21.92152
G1 X78.653 Y46.266 E21.96551
G1 X78.769 Y46.997 E22.00613
G1 X78.885 Y47.868 E22.05435
G1 X78.975 Y48.695 E22.1
G1 X79.052 Y49.572 E22.14832
G1 X79.121 Y50.615 E22.20568
G1 X79.165 Y51.567 E22.25798
G1 X79.196 Y52.572 E22.31316
G1 X79.21 Y53.584 E22.36871
G1 X79.205 Y54.273 E22.40652
G1 X79.143 Y54.948 E22.44372
G1 X79.036 Y55.542 E22.47684
G1 X78.718 Y57.181 E22.56847
G1 X78.279 Y59.851 E22.71696
G1 X77.911 Y62.566 E22.86732
G1 X77.626 Y65.231 E23.01441
G1 X77.412 Y67.966 E23.16496
G1 X77.277 Y70.669 E23.31348
G1 X77.215 Y74.102 E23.50192
G1 X77.215 Y82.417 E23.95824
G1 X77.204 Y83.144 E23.99814
G1 X77.155 Y83.707 E24.02915
G1 X77.028 Y84.258 E24.06018
G1 X76.824 Y84.785 E24.0912
G1 X76.548 Y85.278 E24.1222
G1 X76.205 Y85.728 E24.15325
G1 X75.802 Y86.124 E24.18426
G1 X75.347 Y86.46 E24.2153
G1 X74.85 Y86.729 E24.24631
G1 X74.319 Y86.924 E24.27736
G1 X73.767 Y87.043 E24.30835
G1 X72.998 Y87.09 E24.35063
G1 X72.885 Y87.092 E24.35683
G1 X45.87 Y87.092 E25.83939
G1 X45.172 Y87.083 E25.8777
G1 X44.609 Y87.035 E25.90871
G1 X44.058 Y86.909 E25.93973
G1 X43.53 Y86.707 E25.97075
G1 X43.036 Y86.432 E26.00178
G1 X42.586 Y86.09 E26.0328
G1 X42.188 Y85.688 E26.06385
G1 X41.852 Y85.234 E26.09484
G1 X41.582 Y84.737 E26.12588
G1 X41.385 Y84.207 E26.15691
G1 X41.265 Y83.655 E26.18791
G1 X41.216 Y82.858 E26.23173
G1 X41.215 Y74.195 E26.70715
G1 X41.175 Y71.395 E26.86083
G1 X41.062 Y68.725 E27.00749
G1 X40.868 Y65.985 E27.15823
G1 X40.604 Y63.328 E27.30477
G1 X40.252 Y60.576 E27.45703
G1 X39.838 Y57.942 E27.60335
G1 X39.546 Y56.365 E27.69137
G1 X39.538 Y56.292 E27.6954
G1 X39.3 Y55.016 E27.76663
G1 X39.232 Y54.323 E27.80484
G1 X39.223 Y53.329 E27.8594
G1 X39.236 Y52.567 E27.90122
G1 X39.27 Y51.448 E27.96266
G1 X39.314 Y50.547 E28.01216
G1 X39.381 Y49.541 E28.0675
G1 X39.46 Y48.656 E28.11626
G1 X39.554 Y47.798 E28.16362
G1 X39.675 Y46.905 E28.21308
G1 X39.774 Y46.287 E28.24743
G1 X39.925 Y45.479 E28.29254
G1 X40.079 Y44.758 E28.333
G1 X40.109 Y44.628 E28.34032
G1 X40.261 Y44.027 E28.37434
G1 X40.413 Y43.486 E28.40518
G1 X40.451 Y43.358 E28.41251
G1 X40.643 Y42.753 E28.44734
G1 X40.844 Y42.179 E28.48072
G1 X41.059 Y41.63 E28.51307
G1 X41.376 Y40.895 E28.557
G1 X41.55 Y40.527 E28.57934
G1 X41.862 Y39.919 E28.61684
G1 X42.314 Y39.127 E28.66689
G1 X42.396 Y38.993 E28.67551
G1 X42.711 Y38.504 E28.70743
G1 X43.259 Y37.729 E28.75952
G1 X43.38 Y37.572 E28.7704
G1 X44.066 Y36.723 E28.8303
G0 F1080 X44.377 Y36.974
G1 F900 X44.468 Y36.866 E28.83805
G1 X44.976 Y36.288 E28.88028
G1 X45.422 Y35.811 E28.91612
G1 X45.666 Y35.564 E28.93517
G1 X46.071 Y35.213 E28.96459
G1 X46.524 Y34.926 E28.99402
G1 X47.015 Y34.709 E29.02348
G1 X47.629 Y34.551 E29.05827
G1 X47.842 Y34.516 E29.07011
G1 X50.574 Y34.019 E29.22251
G1 X53.219 Y33.463 E29.37083
G1 X55.926 Y32.811 E29.52364
G1 X56.538 Y32.655 E29.5583
G1 X57.209 Y32.54 E29.59566
G1 X57.847 Y32.495 E29.63076
G1 X57.971 Y32.493 E29.63757
G1 X60.103 Y32.493 E29.75457
G1 X60.774 Y32.503 E29.7914
G1 X61.431 Y32.565 E29.82761
G1 X61.988 Y32.675 E29.85877
G1 X64.448 Y33.287 E29.99789
G1 X67.122 Y33.872 E30.14811
G1 X69.784 Y34.376 E30.29679
G1 X70.492 Y34.493 E30.33617
G1 X70.873 Y34.565 E30.35745
G1 X71.39 Y34.704 E30.38683
G1 X71.882 Y34.919 E30.4163
G1 X72.336 Y35.204 E30.44571
G1 X72.736 Y35.547 E30.47463
G1 X73.133 Y35.945 E30.50548
G1 X73.516 Y36.355 E30.53627
G1 X73.977 Y36.882 E30.5747
G1 X74.066 Y36.988 E30.58229
G1 X74.718 Y37.794 E30.63919
G1 X75.085 Y38.285 E30.67283
G1 X75.417 Y38.772 E30.70517
G1 X75.533 Y38.954 E30.71702
G1 X76.119 Y39.935 E30.77973
G1 X76.273 Y40.214 E30.79722
G1 X76.527 Y40.714 E30.82799
G1 X76.758 Y41.209 E30.85797
G1 X76.958 Y41.673 E30.8857
G1 X77.175 Y42.225 E30.91825
G1 X77.213 Y42.327 E30.92422
G1 X77.39 Y42.826 E30.95328
G1 X77.43 Y42.947 E30.96027
G1 X77.631 Y43.588 E30.99714
G1 X77.797 Y44.184 E31.03109
G1 X77.943 Y44.771 E31.06429
G1 X78.092 Y45.451 E31.10249
G1 X78.113 Y45.552 E31.10815
G1 X78.258 Y46.329 E31.15153
G1 X78.386 Y47.145 E31.19686
G1 X78.488 Y47.912 E31.23932
G1 X78.576 Y48.73 E31.28447
G1 X78.659 Y49.686 E31.33714
G1 X78.721 Y50.634 E31.38927
G1 X78.765 Y51.579 E31.44119
G1 X78.796 Y52.578 E31.49604
G1 X78.81 Y53.581 E31.55109
G1 X78.805 Y54.27 E31.5889
G1 X78.749 Y54.878 E31.62241
G1 X78.643 Y55.466 E31.6552
G1 X78.324 Y57.112 E31.74721
G1 X77.882 Y59.799 E31.89665
G1 X77.519 Y62.475 E32.04486
G1 X77.225 Y65.228 E32.1968
G1 X77.014 Y67.913 E32.3446
G1 X76.876 Y70.674 E32.49631
G1 X76.815 Y74.102 E32.68447
G1 X76.815 Y82.41 E33.1404
G1 X76.804 Y83.137 E33.18031
G1 X76.756 Y83.672 E33.20978
G1 X76.629 Y84.193 E33.23921
G1 X76.426 Y84.689 E33.26863
G1 X76.152 Y85.15 E33.29806
G1 X75.812 Y85.565 E33.3275
G1 X75.414 Y85.925 E33.35695
G1 X74.967 Y86.221 E33.38637
G1 X74.482 Y86.449 E33.41578
G1 X73.968 Y86.601 E33.4452
G1 X73.306 Y86.682 E33.4818
G1 X72.885 Y86.692 E33.50491
G1 X45.876 Y86.692 E34.98714
G1 X45.178 Y86.683 E35.02545
G1 X44.643 Y86.636 E35.05493
G1 X44.122 Y86.51 E35.08434
G1 X43.625 Y86.308 E35.11378
G1 X43.164 Y86.035 E35.14319
G1 X42.748 Y85.696 E35.17264
G1 X42.387 Y85.3 E35.20204
G1 X42.089 Y84.854 E35.23148
G1 X41.861 Y84.368 E35.26094
G1 X41.708 Y83.854 E35.29037
G1 X41.625 Y83.18 E35.32764
G1 X41.615 Y82.75 E35.35124
G1 X41.615 Y74.189 E35.82107
G1 X41.576 Y71.408 E35.9737
G1 X41.46 Y68.68 E36.12355
G1 X41.266 Y65.95 E36.27374
G1 X41.001 Y63.274 E36.42132
G1 X40.651 Y60.534 E36.57291
