;FLAVOR:Marlin
;TIME:4703
;Filament used: 2.87652m
;Layer height: 0.12
;MINX:44.826
;MINY:32.027
;MINZ:0.24
;MAXX:80.826
;MAXY:87.327
;MAXZ:11.88
;Generated with Cura_SteamEngine 4.7.1
M104 S210
M105
M109 S210
M82 ;absolute extrusion mode
;Sliced at: Mon 08-02-2021 12:27:40
G21 ;metric values
G90 ;absolute positioning
M82 ;set extruder to absolute mode
M107 ;start with the fan off
G1 Z5.0 F1800 ;move Z to 5mm
G28 X0 Y0 F1800 ;move X/Y to min endstops
G28 Z0 ;move Z to min endstop
G92 E0 ;zero the extruded length
G1 F200 E6.0 ;extrude 6.0mm of feed stock to build pressure
G1 Z5.0 F300 ;move the platform down 5mm
G92 E0 ;zero the extruded length again
G1 F1800
;Put printing message on LCD screen
M117 Printing...
G92 E0
G92 E0
G1 F1500 E-5
;LAYER_COUNT:74
;LAYER:0
M107
G0 F900 X45.808 Y33.739 Z0.24
;TYPE:SKIRT
G1 F1500 E0.70678
G1 F900 X46.176 Y33.332 E0.73087
G1 X46.554 Y32.997 E0.75304
G1 X47.042 Y32.662 E0.77903
G1 X47.522 Y32.413 E0.80277
G1 X47.992 Y32.238 E0.82479
G1 X48.476 Y32.12 E0.84666
G1 X49.083 Y32.046 E0.87351
G1 X49.118 Y32.044 E0.87505
G1 X50.126 Y32.027 E0.91931
G1 X75.661 Y32.027 E2.04038
G1 X76.388 Y32.037 E2.0723
G1 X77.039 Y32.108 E2.10105
G1 X77.55 Y32.207 E2.1239
G1 X78.081 Y32.399 E2.14869
G1 X78.653 Y32.688 E2.17683
G1 X79.085 Y32.988 E2.19992
G1 X79.517 Y33.374 E2.22535
G1 X79.894 Y33.802 E2.2504
G1 X80.201 Y34.264 E2.27475
G1 X80.451 Y34.756 E2.29898
G1 X80.637 Y35.277 E2.32327
G1 X80.712 Y35.567 E2.33642
G1 X80.791 Y36.136 E2.36164
G1 X80.807 Y36.289 E2.36839
G1 X80.826 Y37.373 E2.41599
G1 X80.826 Y81.162 E4.33847
G1 X80.816 Y81.886 E4.37026
G1 X80.777 Y82.406 E4.39316
G1 X80.694 Y82.98 E4.41862
G1 X80.518 Y83.602 E4.447
G1 X80.282 Y84.184 E4.47457
G1 X80.047 Y84.627 E4.49659
G1 X79.74 Y85.085 E4.5208
G1 X79.281 Y85.623 E4.55184
G1 X78.771 Y86.099 E4.58247
G1 X78.657 Y86.191 E4.5889
G1 X78.02 Y86.603 E4.62221
G1 X77.559 Y86.842 E4.64501
G1 X76.933 Y87.076 E4.67435
G1 X76.424 Y87.206 E4.69741
G1 X76.294 Y87.23 E4.70322
G1 X75.685 Y87.298 E4.73012
G1 X75.583 Y87.306 E4.73461
G1 X74.456 Y87.327 E4.7841
G1 X50.991 Y87.327 E5.81429
G1 X50.253 Y87.317 E5.8467
G1 X49.502 Y87.252 E5.87979
G1 X48.889 Y87.125 E5.90727
G1 X48.375 Y86.959 E5.93099
G1 X47.869 Y86.737 E5.95525
G1 X47.383 Y86.462 E5.97976
G1 X46.863 Y86.086 E6.00794
G1 X46.552 Y85.813 E6.0261
G1 X46.177 Y85.413 E6.05018
G1 X45.969 Y85.166 E6.06435
G1 X45.515 Y84.464 E6.10106
G1 X45.286 Y84.01 E6.12338
G1 X45.067 Y83.404 E6.15167
G1 X44.925 Y82.816 E6.17823
G1 X44.846 Y82.183 E6.20624
G1 X44.826 Y80.946 E6.26055
G1 X44.826 Y37.187 E8.18172
G1 X44.837 Y36.444 E8.21434
G1 X44.925 Y35.654 E8.24924
G1 X45.041 Y35.179 E8.27071
G1 X45.229 Y34.698 E8.29338
G1 X45.442 Y34.293 E8.31347
G0 F810 X45.517 Y34.149
G0 X45.808 Y33.739
G0 F900 X54.372 Y67.373
;TYPE:SUPPORT
G1 X54.842 Y67.331 E8.34455
G1 X58.826 Y67.328 E8.60691
G1 X66.826 Y67.328 E9.13375
G1 X69.514 Y67.332 E9.31077
G1 X70.814 Y67.331 E9.39638
G1 X71.014 Y67.339 E9.40956
G1 X71.494 Y67.423 E9.44166
G1 X71.938 Y67.588 E9.47285
G1 X72.349 Y67.837 E9.5045
G1 X72.701 Y68.152 E9.5356
G1 X72.99 Y68.53 E9.56694
G1 X73.206 Y68.959 E9.59857
G1 X73.336 Y69.412 E9.62961
G1 X73.383 Y69.905 E9.66222
G1 X73.383 Y74.04 E9.93453
G1 X73.381 Y74.11 E9.93914
G1 X73.321 Y74.598 E9.97152
G1 X73.174 Y75.052 E10.00295
G1 X72.947 Y75.472 E10.03439
G1 X72.647 Y75.839 E10.0656
G1 X72.288 Y76.144 E10.09663
G1 X72.159 Y76.228 E10.10676
G1 X71.718 Y76.442 E10.13904
G1 X71.279 Y76.563 E10.16903
G1 X70.811 Y76.604 E10.19997
G1 X66.826 Y76.607 E10.4624
G1 X58.826 Y76.607 E10.98924
G1 X56.138 Y76.603 E11.16626
G1 X54.838 Y76.604 E11.25187
G1 X54.637 Y76.596 E11.26512
G1 X54.157 Y76.513 E11.2972
G1 X53.713 Y76.347 E11.32842
G1 X53.302 Y76.098 E11.36006
G1 X52.95 Y75.783 E11.39117
G1 X52.661 Y75.406 E11.42245
G1 X52.445 Y74.976 E11.45414
G1 X52.315 Y74.523 E11.48518
G1 X52.268 Y74.03 E11.51779
G1 X52.27 Y70.029 E11.78128
G1 X52.28 Y69.656 E11.80585
G1 X52.371 Y69.179 E11.83783
G1 X52.542 Y68.74 E11.86886
G1 X52.795 Y68.338 E11.90014
G1 X53.119 Y67.987 E11.9316
G1 X53.503 Y67.703 E11.96305
G1 X53.933 Y67.493 E11.99456
G1 X53.945 Y67.489 E11.9954
G0 F810 X54.372 Y67.373
G0 F900 X54 Y67.711
G1 X54 Y76.214 E12.55536
G0 X55.5 Y76.379
G1 X55.5 Y67.555 E13.13647
G0 X57 Y67.554
G1 X57 Y76.379 E13.71764
G0 X58.5 Y76.381
G1 X58.5 Y67.553 E14.29901
G0 X60 Y67.553
G1 X60 Y76.382 E14.88044
G0 X61.5 Y76.382
G1 X61.5 Y67.553 E15.46188
G0 X63 Y67.553
G1 X63 Y76.382 E16.04331
G0 X64.5 Y76.382
G1 X64.5 Y67.553 E16.62475
G0 X66 Y67.553
G1 X66 Y76.382 E17.20618
G0 X67.5 Y76.382
G1 X67.5 Y67.555 E17.78748
G0 X69 Y67.557
G1 X69 Y76.381 E18.36859
G0 X70.5 Y76.38
G1 X70.5 Y67.556 E18.94969
G0 X72 Y67.889
G1 X72 Y76.055 E19.48746
G0 X72.946 Y75
G1 X52.708 Y75 E20.82024
G0 X52.5 Y74.089
G1 X52.5 Y69.838 E21.10019
G0 X52.494 Y70.5
G1 X73.158 Y70.5 E22.46102
G0 X73.158 Y72
G1 X52.494 Y72 E23.82185
G0 X52.493 Y73.5
G1 X73.158 Y73.5 E25.18274
G0 X72.974 Y69
G1 X52.682 Y69 E26.51907
G1 F1500 E21.51907
;MESH:full-crossfire-adapter_v4.stl
G0 F900 X51.196 Y68.383
G0 X50.645 Y67.674
;TYPE:WALL-INNER
G1 F1500 E27.22585
G1 F900 X50.307 Y68.488 E27.26455
G1 X50.126 Y69.35 E27.30322
G1 X50.106 Y70.232 E27.34195
G1 X50.107 Y70.741 E27.3643
G1 X50.101 Y74.104 E27.51194
G1 X50.161 Y74.837 E27.54423
G1 X50.387 Y75.681 E27.58259
G1 X50.766 Y76.474 E27.62118
G1 X51.287 Y77.185 E27.65988
G1 X51.931 Y77.789 E27.69864
G1 X52.678 Y78.261 E27.73744
G1 X53.496 Y78.584 E27.77605
G1 X54.327 Y78.748 E27.81324
G1 X54.791 Y78.772 E27.83363
G1 X59.016 Y78.766 E28.01913
G1 X66.829 Y78.767 E28.36214
G1 X67.308 Y78.765 E28.38317
G1 X70.886 Y78.772 E28.54026
G1 X71.628 Y78.708 E28.57296
G1 X72.376 Y78.514 E28.60688
G1 X72.952 Y78.269 E28.63436
G1 X73.679 Y77.816 E28.67197
G1 X74.33 Y77.223 E28.71063
G1 X74.859 Y76.518 E28.74933
G1 X75.249 Y75.726 E28.78809
G1 X75.481 Y74.879 E28.82664
G1 X75.55 Y74.111 E28.8605
G1 X75.549 Y69.832 E29.04836
G1 X75.49 Y69.101 E29.08056
G1 X75.264 Y68.255 E29.119
G1 X74.885 Y67.461 E29.15763
G1 X74.364 Y66.75 E29.19633
G1 X73.72 Y66.146 E29.23509
G1 X72.973 Y65.675 E29.27386
G1 X72.156 Y65.351 E29.31245
G1 X71.324 Y65.187 E29.34968
G1 X70.861 Y65.163 E29.37003
G1 X66.636 Y65.169 E29.55552
G1 X58.823 Y65.168 E29.89854
G1 X58.344 Y65.17 E29.91957
G1 X54.766 Y65.163 E30.07666
G1 X54.023 Y65.227 E30.1094
G1 X53.254 Y65.429 E30.14431
G1 X52.46 Y65.792 E30.18264
G1 X51.741 Y66.301 E30.22131
G1 X51.129 Y66.936 E30.26003
G1 X51.009 Y67.118 E30.2696
G0 F810 X50.645 Y67.674
G0 F900 X51 Y67.862
G1 X50.691 Y68.607 E30.30501
G1 X50.525 Y69.396 E30.34041
G1 X50.506 Y70.236 E30.3773
G1 X50.507 Y70.742 E30.39951
G1 X50.501 Y74.088 E30.54641
G1 X50.557 Y74.768 E30.57637
G1 X50.764 Y75.542 E30.61154
G1 X51.111 Y76.268 E30.64687
G1 X51.588 Y76.919 E30.6823
G1 X52.177 Y77.471 E30.71774
G1 X52.86 Y77.903 E30.75323
G1 X53.609 Y78.199 E30.78858
G1 X54.376 Y78.35 E30.8229
G1 X54.801 Y78.372 E30.84159
G1 X59.015 Y78.366 E31.0266
G1 X66.828 Y78.367 E31.36961
G1 X67.307 Y78.365 E31.39064
G1 X70.869 Y78.372 E31.54703
G1 X71.56 Y78.312 E31.57748
G1 X72.247 Y78.134 E31.60864
G1 X72.767 Y77.913 E31.63344
G1 X73.437 Y77.496 E31.66809
G1 X74.033 Y76.953 E31.70349
G1 X74.517 Y76.308 E31.73889
G1 X74.873 Y75.584 E31.77431
G1 X75.086 Y74.808 E31.80964
G1 X75.15 Y74.093 E31.84116
G1 X75.149 Y69.848 E32.02753
G1 X75.094 Y69.169 E32.05744
G1 X74.887 Y68.394 E32.09265
G1 X74.54 Y67.667 E32.12802
G1 X74.063 Y67.016 E32.16345
G1 X73.474 Y66.464 E32.19889
G1 X72.791 Y66.033 E32.23435
G1 X72.043 Y65.736 E32.26968
G1 X71.275 Y65.585 E32.30405
G1 X70.851 Y65.563 E32.32269
G1 X66.637 Y65.569 E32.5077
G1 X58.824 Y65.568 E32.85071
G1 X58.345 Y65.57 E32.87174
G1 X54.783 Y65.563 E33.02813
G1 X54.091 Y65.623 E33.05862
G1 X53.389 Y65.807 E33.09048
G1 X52.661 Y66.14 E33.12563
G1 X52.003 Y66.606 E33.16103
G1 X51.443 Y67.187 E33.19646
G1 X51.365 Y67.306 E33.20271
G0 F810 X51 Y67.862
G0 F900 X51.355 Y68.05
G1 X51.075 Y68.726 E33.23483
G1 X50.924 Y69.442 E33.26696
G1 X50.906 Y70.24 E33.302
G1 X50.907 Y70.743 E33.32408
G1 X50.901 Y74.072 E33.47024
G1 X50.953 Y74.699 E33.49786
G1 X51.141 Y75.403 E33.52985
G1 X51.456 Y76.062 E33.56192
G1 X51.889 Y76.653 E33.59408
G1 X52.423 Y77.153 E33.6262
G1 X53.042 Y77.545 E33.65837
G1 X53.722 Y77.814 E33.69047
G1 X54.425 Y77.952 E33.72193
G1 X54.811 Y77.972 E33.7389
G1 X59.014 Y77.966 E33.92342
G1 X66.827 Y77.967 E34.26644
G1 X67.306 Y77.965 E34.28747
G1 X70.852 Y77.972 E34.44315
G1 X71.492 Y77.916 E34.47136
G1 X72.118 Y77.754 E34.49974
G1 X72.582 Y77.557 E34.52188
G1 X73.195 Y77.176 E34.55356
G1 X73.736 Y76.683 E34.5857
G1 X74.174 Y76.098 E34.61778
G1 X74.497 Y75.441 E34.64992
G1 X74.691 Y74.737 E34.68198
G1 X74.75 Y74.075 E34.71116
G1 X74.749 Y69.864 E34.89604
G1 X74.698 Y69.237 E34.92366
G1 X74.51 Y68.533 E34.95565
G1 X74.195 Y67.873 E34.98776
G1 X73.762 Y67.282 E35.01992
G1 X73.228 Y66.782 E35.05204
G1 X72.609 Y66.391 E35.08418
G1 X71.93 Y66.121 E35.11627
G1 X71.226 Y65.983 E35.14776
G1 X70.841 Y65.963 E35.16469
G1 X66.638 Y65.969 E35.34921
G1 X58.825 Y65.968 E35.69223
G1 X58.346 Y65.97 E35.71326
G1 X54.8 Y65.963 E35.86894
G1 X54.159 Y66.019 E35.89719
G1 X53.524 Y66.185 E35.92601
G1 X52.862 Y66.488 E35.95797
G1 X52.265 Y66.911 E35.99009
G1 X51.757 Y67.438 E36.02223
G1 X51.72 Y67.495 E36.02521
G0 F810 X51.355 Y68.05
G0 F900 X51.71 Y68.238
;TYPE:WALL-OUTER
G1 X51.459 Y68.845 E36.05405
G1 X51.323 Y69.488 E36.0829
G1 X51.306 Y70.244 E36.1161
G1 X51.307 Y70.744 E36.13806
G1 X51.301 Y74.056 E36.28346
G1 X51.349 Y74.63 E36.30875
G1 X51.518 Y75.264 E36.33756
G1 X51.801 Y75.856 E36.36637
G1 X52.19 Y76.386 E36.39523
G1 X52.669 Y76.835 E36.42406
G1 X53.224 Y77.187 E36.45291
G1 X53.835 Y77.429 E36.48176
G1 X54.474 Y77.554 E36.51035
G1 X54.821 Y77.572 E36.5256
G1 X59.013 Y77.566 E36.70965
G1 X66.826 Y77.567 E37.05266
G1 X67.305 Y77.565 E37.07369
G1 X70.835 Y77.572 E37.22867
G1 X71.424 Y77.52 E37.25463
G1 X71.989 Y77.374 E37.28025
G1 X72.397 Y77.201 E37.29971
G1 X72.953 Y76.856 E37.32844
G1 X73.438 Y76.413 E37.35727
G1 X73.831 Y75.888 E37.38607
G1 X74.121 Y75.298 E37.41493
G1 X74.296 Y74.665 E37.44376
G1 X74.35 Y74.057 E37.47056
G1 X74.349 Y69.88 E37.65395
G1 X74.302 Y69.305 E37.67927
G1 X74.133 Y68.672 E37.70804
G1 X73.85 Y68.079 E37.73689
G1 X73.461 Y67.549 E37.76575
G1 X72.982 Y67.1 E37.79457
G1 X72.427 Y66.749 E37.8234
G1 X71.817 Y66.506 E37.85223
G1 X71.177 Y66.381 E37.88086
G1 X70.831 Y66.363 E37.89607
G1 X66.639 Y66.369 E38.08011
G1 X58.826 Y66.368 E38.42313
G1 X58.347 Y66.37 E38.44416
G1 X54.817 Y66.363 E38.59914
G1 X54.227 Y66.415 E38.62514
G1 X53.659 Y66.563 E38.65091
G1 X53.063 Y66.836 E38.6797
G1 X52.527 Y67.216 E38.70854
G1 X52.076 Y67.684 E38.73708
G0 F810 X52.071 Y67.689
G0 X51.71 Y68.238
G0 F900 X51.634 Y68.423
G0 X51.227 Y68.254
G0 X51.173 Y68.231
G0 X50.885 Y69.438
G0 X50.862 Y74.073
G0 X52.111 Y82.749
;TYPE:WALL-INNER
G1 X50.537 Y82.752 E38.80618
G1 X50.172 Y82.732 E38.82223
G1 X49.991 Y82.681 E38.83048
G1 X49.837 Y82.604 E38.83804
G1 X49.699 Y82.497 E38.84571
G1 X49.583 Y82.365 E38.85343
G1 X49.49 Y82.205 E38.86155
G1 X49.44 Y82.06 E38.86828
G1 X49.4 Y81.736 E38.88262
G1 X49.403 Y78.203 E39.03773
G1 X49.403 Y38.339 E40.78789
G1 X49.4 Y36.836 E40.85388
G1 X49.4 Y36.744 E40.85792
G1 X49.408 Y36.608 E40.8639
G1 X49.562 Y36.603 E40.87066
G1 X49.654 Y36.603 E40.8747
G1 X74.526 Y36.604 E41.96667
G1 X75.988 Y36.602 E42.03085
G1 X76.089 Y36.602 E42.03529
G1 X76.246 Y36.613 E42.0422
G1 X76.25 Y36.714 E42.04664
G1 X76.25 Y36.815 E42.05107
G1 X76.248 Y40.151 E42.19753
G1 X76.248 Y80.015 E43.9477
G1 X76.251 Y81.589 E44.0168
G1 X76.221 Y82.019 E44.03572
G1 X76.176 Y82.171 E44.04268
G1 X76.085 Y82.341 E44.05115
G1 X75.983 Y82.468 E44.0583
G1 X75.84 Y82.586 E44.06644
G1 X75.688 Y82.67 E44.07407
G1 X75.532 Y82.72 E44.08126
G1 X75.241 Y82.752 E44.09411
G1 X71.754 Y82.749 E44.2472
G1 X52.776 Y82.749 E45.0804
G0 F810 X52.111 Y82.749
G0 F900 X52.111 Y83.149
G1 X50.533 Y83.152 E45.14968
G1 X50.103 Y83.128 E45.16859
G1 X49.848 Y83.056 E45.18022
G1 X49.623 Y82.944 E45.19126
G1 X49.424 Y82.79 E45.2023
G1 X49.283 Y82.628 E45.21173
G1 X49.257 Y82.599 E45.21344
G1 X49.239 Y82.567 E45.21505
G1 X49.125 Y82.373 E45.22493
G1 X49.063 Y82.19 E45.23342
G1 X49.048 Y82.149 E45.23533
G1 X49 Y81.761 E45.2525
G1 X49.003 Y78.203 E45.4087
G1 X49.003 Y38.339 E47.15887
G1 X49 Y36.735 E47.22929
G1 X49.017 Y36.461 E47.24134
G1 X49.041 Y36.387 E47.24476
G1 X49.079 Y36.328 E47.24784
G1 X49.137 Y36.273 E47.25135
G1 X49.201 Y36.236 E47.25459
G1 X49.285 Y36.212 E47.25843
G1 X49.548 Y36.203 E47.26998
G1 X74.526 Y36.204 E48.3666
G1 X76.101 Y36.202 E48.43575
G1 X76.415 Y36.223 E48.44957
G1 X76.465 Y36.241 E48.4519
G1 X76.531 Y36.285 E48.45538
G1 X76.584 Y36.345 E48.4589
G1 X76.622 Y36.416 E48.46243
G1 X76.643 Y36.504 E48.4664
G1 X76.65 Y36.714 E48.47563
G1 X76.648 Y40.151 E48.62652
G1 X76.648 Y80.015 E50.37669
G1 X76.651 Y81.602 E50.44636
G1 X76.617 Y82.092 E50.46793
G1 X76.546 Y82.328 E50.47875
G1 X76.422 Y82.56 E50.4903
G1 X76.266 Y82.753 E50.50119
G1 X76.07 Y82.916 E50.51238
G1 X75.845 Y83.04 E50.52366
G1 X75.614 Y83.114 E50.53431
G1 X75.265 Y83.152 E50.54973
G1 X71.754 Y83.149 E50.70387
G1 X52.776 Y83.149 E51.53707
G0 F810 X52.111 Y83.149
G0 F900 X52.111 Y83.549
G1 X50.528 Y83.552 E51.60657
G1 X50.034 Y83.524 E51.62829
G1 X49.705 Y83.431 E51.6433
G1 X49.409 Y83.284 E51.65781
G1 X49.147 Y83.081 E51.67236
G1 X48.931 Y82.835 E51.68673
G1 X48.76 Y82.541 E51.70167
G1 X48.656 Y82.24 E51.71565
G1 X48.6 Y81.786 E51.73573
G1 X48.603 Y78.203 E51.89304
G1 X48.603 Y38.339 E53.6432
G1 X48.6 Y36.726 E53.71402
G1 X48.621 Y36.387 E53.72893
G1 X48.675 Y36.218 E53.73672
G1 X48.768 Y36.071 E53.74436
G1 X48.895 Y35.95 E53.75206
G1 X49.047 Y35.864 E53.75972
G1 X49.223 Y35.814 E53.76776
G1 X49.534 Y35.803 E53.78142
G1 X74.526 Y35.804 E54.87865
G1 X76.113 Y35.802 E54.94833
G1 X76.496 Y35.828 E54.96518
G1 X76.649 Y35.883 E54.97232
G1 X76.796 Y35.981 E54.98008
G1 X76.916 Y36.116 E54.98801
G1 X76.999 Y36.273 E54.9958
G1 X77.042 Y36.449 E55.00376
G1 X77.05 Y36.714 E55.0154
G1 X77.048 Y40.151 E55.16629
G1 X77.048 Y80.015 E56.91646
G1 X77.051 Y81.614 E56.98666
G1 X77.013 Y82.166 E57.01095
G1 X76.917 Y82.483 E57.02549
G1 X76.757 Y82.782 E57.04038
G1 X76.554 Y83.033 E57.05455
G1 X76.522 Y83.059 E57.05636
G1 X76.297 Y83.247 E57.06924
G1 X76.002 Y83.41 E57.08403
G1 X75.696 Y83.508 E57.09814
G1 X75.289 Y83.552 E57.11611
G1 X71.754 Y83.549 E57.27131
G1 X52.776 Y83.549 E58.10451
G0 F810 X52.111 Y83.549
G0 F900 X52.111 Y83.949
;TYPE:WALL-OUTER
G1 X50.523 Y83.952 E58.17423
G1 X49.967 Y83.92 E58.19868
G1 X49.561 Y83.806 E58.21719
G1 X49.195 Y83.624 E58.23514
G1 X48.873 Y83.375 E58.25301
G1 X48.603 Y83.068 E58.27096
G1 X48.395 Y82.71 E58.28914
G1 X48.264 Y82.329 E58.30682
G1 X48.2 Y81.811 E58.32974
G1 X48.203 Y78.203 E58.48814
G1 X48.203 Y38.339 E60.23831
G1 X48.2 Y36.727 E60.30908
G1 X48.225 Y36.31 E60.32742
G1 X48.309 Y36.05 E60.33942
G1 X48.455 Y35.817 E60.35149
G1 X48.653 Y35.627 E60.36354
G1 X48.892 Y35.492 E60.37559
G1 X49.163 Y35.416 E60.38794
G1 X49.519 Y35.403 E60.40358
G1 X74.526 Y35.404 E61.50148
G1 X76.125 Y35.402 E61.57168
G1 X76.577 Y35.433 E61.59157
G1 X76.833 Y35.525 E61.60351
G1 X77.059 Y35.676 E61.61544
G1 X77.247 Y35.885 E61.62779
G1 X77.375 Y36.129 E61.63988
G1 X77.441 Y36.398 E61.65204
G1 X77.45 Y36.714 E61.66592
G1 X77.448 Y40.151 E61.81682
G1 X77.448 Y80.015 E63.56698
G1 X77.451 Y81.626 E63.63771
G1 X77.409 Y82.241 E63.66477
G1 X77.289 Y82.634 E63.68281
G1 X77.093 Y83.002 E63.70112
G1 X76.84 Y83.315 E63.71879
G1 X76.522 Y83.58 E63.73696
G1 X76.162 Y83.779 E63.75502
G1 X75.778 Y83.902 E63.77272
G1 X75.313 Y83.952 E63.79326
G1 X71.754 Y83.949 E63.94951
G1 X52.776 Y83.949 E64.78271
G0 F810 X52.111 Y83.949
G0 F900 X51.911 Y83.949
G0 X51.912 Y83.509
G0 X51.913 Y83.449
G0 X52.111 Y82.359
;TYPE:SKIN
G1 X50.559 Y82.362 E64.85085
G1 X50.235 Y82.344 E64.86509
G1 X50.13 Y82.315 E64.86988
G1 X50.048 Y82.274 E64.8739
G1 X49.965 Y82.209 E64.87853
G1 X49.902 Y82.137 E64.88273
G1 X49.846 Y82.041 E64.88761
G1 X49.822 Y81.973 E64.89077
G1 X49.79 Y81.712 E64.90232
G1 X49.793 Y78.203 E65.05638
G1 X49.793 Y74.971 E65.19827
