;FLAVOR:Marlin
;TIME:10430
;Filament used: 6.50641m
;Layer height: 0.24
;MINX:7.2
;MINY:5.212
;MINZ:0.3
;MAXX:112.8
;MAXY:114.312
;MAXZ:9.66
;Generated with Cura_SteamEngine 4.9.1
M104 S210
M105
M109 S210
M82 ;absolute extrusion mode
;Sliced at: Wed 02-06-2021 22:35:01
G21 ;metric values
G90 ;absolute positioning
M82 ;set extruder to absolute mode
M107 ;start with the fan off
G1 Z5.0 F1800 ;move Z to 5mm
G28 X0 Y0 F1800 ;move X/Y to min endstops
G28 Z0 ;move Z to min endstop
G92 E0 ;zero the extruded length
G1 F200 E6.0 ;extrude 6.0mm of feed stock to build pressure
G1 Z5.0 F300 ;move the platform down 5mm
G92 E0 ;zero the extruded length again
G1 F1800
;Put printing message on LCD screen
M117 Printing...
G92 E0
G92 E0
G1 F1500 E-0.6
;LAYER_COUNT:41
;LAYER:0
M106 S102
;MESH:Deckel.stl
G0 F1440 X60.98 Y113.502 Z0.3
;TYPE:WALL-INNER
G1 F1500 E0.75698
G1 F1200 X60 Y113.512 E0.80644
G1 X59.02 Y113.502 E0.8559
G1 X58.026 Y113.474 E0.90608
G1 X57.076 Y113.424 E0.95409
G1 X56.114 Y113.355 E1.00276
G1 X55.176 Y113.267 E1.0503
G1 X54.264 Y113.163 E1.09663
G1 X53.352 Y113.038 E1.14308
G1 X52.446 Y112.894 E1.18938
G1 X51.539 Y112.73 E1.23589
G1 X50.66 Y112.551 E1.28116
G1 X49.81 Y112.359 E1.32514
G1 X48.954 Y112.146 E1.36965
G1 X48.105 Y111.914 E1.41407
G1 X47.246 Y111.66 E1.45927
G1 X46.423 Y111.396 E1.50289
G1 X45.619 Y111.119 E1.54581
G1 X44.816 Y110.825 E1.58896
G1 X44.041 Y110.524 E1.63092
G1 X43.269 Y110.208 E1.67301
G1 X42.522 Y109.887 E1.71404
G1 X40.973 Y109.171 E1.80016
G1 X39.474 Y108.416 E1.88486
G1 X38.008 Y107.618 E1.9691
G1 X36.512 Y106.746 E2.05648
G1 X35.059 Y105.847 E2.14271
G1 X33.577 Y104.876 E2.23212
G1 X32.517 Y104.151 E2.29693
G1 X31.433 Y103.384 E2.36394
G1 X30.376 Y102.608 E2.43012
G1 X29.293 Y101.779 E2.49894
G1 X28.232 Y100.933 E2.56742
G1 X27.19 Y100.063 E2.63593
G1 X26.121 Y99.132 E2.70747
G1 X25.092 Y98.189 E2.7779
G1 X23.978 Y97.108 E2.85624
G1 X22.88 Y95.971 E2.93601
G1 X21.818 Y94.793 E3.01605
G1 X21.304 Y94.192 E3.05596
G1 X20.797 Y93.576 E3.09622
G1 X20.291 Y92.939 E3.13727
G1 X19.802 Y92.299 E3.17792
G1 X19.32 Y91.642 E3.21904
G1 X18.845 Y90.969 E3.26061
G1 X18.383 Y90.284 E3.30231
G1 X17.932 Y89.588 E3.34416
G1 X17.493 Y88.881 E3.38616
G1 X17.073 Y88.169 E3.42787
G1 X16.603 Y87.329 E3.47645
G1 X16.148 Y86.472 E3.52542
G1 X15.712 Y85.604 E3.57443
G1 X15.292 Y84.724 E3.62364
G1 X14.891 Y83.83 E3.67309
G1 X14.506 Y82.925 E3.72272
G1 X14.14 Y82.015 E3.77222
G1 X13.779 Y81.07 E3.82327
G1 X13.444 Y80.141 E3.87311
G1 X13.116 Y79.176 E3.92454
G1 X12.807 Y78.215 E3.97549
G1 X12.514 Y77.244 E4.02667
G1 X12.234 Y76.266 E4.07801
G1 X11.973 Y75.289 E4.12904
G1 X11.724 Y74.292 E4.1809
G1 X11.49 Y73.3 E4.23234
G1 X11.213 Y72.026 E4.29813
G1 X10.957 Y70.753 E4.36366
G1 X10.721 Y69.475 E4.42925
G1 X10.504 Y68.197 E4.49466
G1 X10.305 Y66.914 E4.56018
G1 X10.122 Y65.63 E4.62564
G1 X9.954 Y64.351 E4.69074
G1 X9.803 Y63.071 E4.75578
G1 X9.539 Y60.521 E4.88515
G1 X9.322 Y58.003 E5.0127
G1 X9.144 Y55.522 E5.13822
G1 X9.067 Y54.299 E5.20006
G1 X8.996 Y53.087 E5.26133
G1 X8.906 Y51.373 E5.34795
G1 X8.823 Y49.684 E5.43329
G1 X8.748 Y48.031 E5.51679
G1 X8.681 Y46.406 E5.59887
G1 X8.561 Y43.236 E5.75896
G1 X8.456 Y40.17 E5.91378
G1 X8.394 Y38.254 E6.01052
G1 X8.337 Y36.369 E6.10569
G1 X8.285 Y34.507 E6.19969
G1 X8.236 Y32.592 E6.29636
G1 X8.16 Y29.082 E6.47354
G1 X8.128 Y27.325 E6.56222
G1 X8.101 Y25.586 E6.64999
G1 X8.069 Y23.06 E6.77748
G1 X8.044 Y20.595 E6.90188
G1 X8.026 Y18.201 E7.0227
G1 X8.01 Y14.755 E7.1966
G1 X8.002 Y11.505 E7.36062
G1 X8 Y6.211 E7.62778
G1 X8 Y6.012 E7.63782
G1 X8.199 Y6.012 E7.64432
G1 X111.801 Y6.012 E12.87262
G1 X112 Y6.012 E12.88267
G1 X112 Y6.211 E12.88916
G1 X111.999 Y11.265 E13.14422
G1 X111.989 Y15.136 E13.33957
G1 X111.969 Y18.874 E13.52821
G1 X111.939 Y22.306 E13.70141
G1 X111.903 Y25.258 E13.8504
G1 X111.872 Y27.325 E13.95472
G1 X111.84 Y29.083 E14.04345
G1 X111.762 Y32.676 E14.22482
G1 X111.715 Y34.512 E14.3175
G1 X111.663 Y36.37 E14.41131
G1 X111.606 Y38.257 E14.50658
G1 X111.496 Y41.621 E14.67643
G1 X111.384 Y44.734 E14.83363
G1 X111.319 Y46.407 E14.91812
G1 X111.252 Y48.031 E15.00015
G1 X111.177 Y49.687 E15.08381
G1 X111.096 Y51.374 E15.16904
G1 X111.004 Y53.088 E15.25566
G1 X110.933 Y54.299 E15.31688
G1 X110.857 Y55.521 E15.37867
G1 X110.678 Y58.003 E15.50425
G1 X110.461 Y60.521 E15.63179
G1 X110.197 Y63.071 E15.76116
G1 X110.045 Y64.351 E15.82621
G1 X109.878 Y65.63 E15.89131
G1 X109.695 Y66.914 E15.95676
G1 X109.497 Y68.197 E16.02227
G1 X109.279 Y69.475 E16.0877
G1 X109.043 Y70.753 E16.15328
G1 X108.787 Y72.026 E16.21881
G1 X108.51 Y73.3 E16.28461
G1 X108.276 Y74.292 E16.33604
G1 X108.027 Y75.289 E16.3879
G1 X107.764 Y76.267 E16.43901
G1 X107.486 Y77.244 E16.49027
G1 X107.193 Y78.215 E16.54146
G1 X106.884 Y79.176 E16.5924
G1 X106.556 Y80.141 E16.64383
G1 X106.221 Y81.07 E16.69367
G1 X105.86 Y82.015 E16.74472
G1 X105.495 Y82.925 E16.7942
G1 X105.109 Y83.83 E16.84385
G1 X104.707 Y84.724 E16.89332
G1 X104.288 Y85.604 E16.94251
G1 X103.852 Y86.472 E16.99153
G1 X103.398 Y87.327 E17.04038
G1 X102.923 Y88.176 E17.08948
G1 X102.506 Y88.881 E17.13081
G1 X102.068 Y89.588 E17.17278
G1 X101.613 Y90.29 E17.215
G1 X101.156 Y90.969 E17.2563
G1 X100.676 Y91.648 E17.29827
G1 X100.202 Y92.293 E17.33866
G1 X99.709 Y92.939 E17.37967
G1 X99.203 Y93.576 E17.42073
G1 X98.696 Y94.192 E17.46099
G1 X98.182 Y94.793 E17.5009
G1 X97.12 Y95.971 E17.58094
G1 X96.013 Y97.117 E17.66135
G1 X94.916 Y98.181 E17.73847
G1 X93.878 Y99.133 E17.80955
G1 X92.824 Y100.053 E17.88015
G1 X91.768 Y100.933 E17.94952
G1 X90.701 Y101.784 E18.01839
G1 X89.636 Y102.599 E18.08607
G1 X88.556 Y103.393 E18.15372
G1 X87.488 Y104.148 E18.21972
G1 X86.423 Y104.876 E18.28483
G1 X84.941 Y105.847 E18.37424
G1 X83.488 Y106.746 E18.46046
G1 X81.992 Y107.618 E18.54785
G1 X80.526 Y108.416 E18.63208
G1 X79.027 Y109.171 E18.71678
G1 X77.478 Y109.887 E18.8029
G1 X76.731 Y110.208 E18.84393
G1 X75.959 Y110.524 E18.88603
G1 X75.177 Y110.828 E18.92837
G1 X74.389 Y111.118 E18.97074
G1 X73.577 Y111.396 E19.01406
G1 X72.736 Y111.665 E19.05862
G1 X71.911 Y111.91 E19.10205
G1 X71.046 Y112.146 E19.1473
G1 X70.19 Y112.359 E19.19181
G1 X69.34 Y112.551 E19.23579
G1 X68.461 Y112.73 E19.28106
G1 X67.554 Y112.894 E19.32757
G1 X66.647 Y113.039 E19.37392
G1 X65.736 Y113.163 E19.42032
G1 X64.823 Y113.267 E19.46669
G1 X63.888 Y113.355 E19.51409
G1 X62.926 Y113.423 E19.56276
G1 X61.974 Y113.472 E19.61086
G1 X61.512 Y113.486 E19.63419
G0 F1080 X60.98 Y113.502
G0 F1440 X60.992 Y113.902
G1 F1200 X60 Y113.912 E19.68425
G1 X59.008 Y113.902 E19.73432
G1 X58.014 Y113.873 E19.7845
G1 X57.047 Y113.823 E19.83337
G1 X56.085 Y113.754 E19.88204
G1 X55.139 Y113.665 E19.92999
G1 X54.209 Y113.559 E19.97723
G1 X53.289 Y113.433 E20.02409
G1 X52.375 Y113.288 E20.07079
G1 X51.468 Y113.124 E20.1173
G1 X50.58 Y112.943 E20.16304
G1 X49.712 Y112.747 E20.20795
G1 X48.849 Y112.532 E20.25283
G1 X47.992 Y112.298 E20.29766
G1 X47.133 Y112.044 E20.34287
G1 X46.301 Y111.777 E20.38696
G1 X45.481 Y111.495 E20.43072
G1 X44.678 Y111.201 E20.47388
G1 X43.896 Y110.897 E20.51622
G1 X43.117 Y110.578 E20.5587
G1 X42.354 Y110.25 E20.60061
G1 X40.805 Y109.534 E20.68673
G1 X39.294 Y108.773 E20.77211
G1 X37.807 Y107.964 E20.85753
G1 X36.311 Y107.092 E20.94492
G1 X34.84 Y106.182 E21.03221
G1 X33.358 Y105.211 E21.12162
G1 X32.286 Y104.478 E21.18716
G1 X31.202 Y103.711 E21.25417
G1 X30.133 Y102.926 E21.3211
G1 X29.05 Y102.097 E21.38993
G1 X27.983 Y101.246 E21.45881
G1 X26.927 Y100.365 E21.52821
G1 X25.858 Y99.434 E21.59975
G1 X24.814 Y98.477 E21.67122
G1 X23.699 Y97.395 E21.74963
G1 X22.592 Y96.249 E21.83004
G1 X21.521 Y95.061 E21.91075
G1 X21 Y94.452 E21.9512
G1 X20.488 Y93.83 E21.99186
G1 X19.978 Y93.188 E22.03323
G1 X19.479 Y92.536 E22.07467
G1 X18.997 Y91.879 E22.11579
G1 X18.518 Y91.2 E22.15772
G1 X18.051 Y90.508 E22.19985
G1 X17.596 Y89.806 E22.24207
G1 X17.154 Y89.092 E22.28445
G1 X16.724 Y88.364 E22.32712
G1 X16.254 Y87.524 E22.37569
G1 X15.795 Y86.659 E22.42511
G1 X15.355 Y85.784 E22.47454
G1 X14.931 Y84.896 E22.5242
G1 X14.526 Y83.994 E22.57409
G1 X14.138 Y83.082 E22.62411
G1 X13.766 Y82.158 E22.67438
G1 X13.405 Y81.213 E22.72543
G1 X13.065 Y80.27 E22.77601
G1 X12.737 Y79.305 E22.82745
G1 X12.426 Y78.337 E22.87876
G1 X12.131 Y77.36 E22.93026
G1 X11.85 Y76.376 E22.98191
G1 X11.585 Y75.386 E23.03363
G1 X11.336 Y74.389 E23.08548
G1 X11.101 Y73.392 E23.13718
G1 X10.822 Y72.111 E23.20334
G1 X10.565 Y70.832 E23.26917
G1 X10.328 Y69.548 E23.33507
G1 X10.11 Y68.264 E23.40079
G1 X9.91 Y66.975 E23.46662
G1 X9.726 Y65.687 E23.53228
G1 X9.558 Y64.403 E23.59763
G1 X9.406 Y63.118 E23.66293
G1 X9.141 Y60.562 E23.79261
G1 X8.923 Y58.037 E23.92051
G1 X8.745 Y55.551 E24.04629
G1 X8.668 Y54.324 E24.10833
G1 X8.597 Y53.11 E24.1697
G1 X8.506 Y51.393 E24.25647
G1 X8.423 Y49.704 E24.34181
G1 X8.348 Y48.049 E24.42541
G1 X8.281 Y46.422 E24.50759
G1 X8.161 Y43.251 E24.66773
G1 X8.056 Y40.184 E24.8226
G1 X7.994 Y38.268 E24.91934
G1 X7.937 Y36.381 E25.01461
G1 X7.885 Y34.519 E25.10861
G1 X7.836 Y32.602 E25.20539
G1 X7.76 Y29.091 E25.38261
G1 X7.728 Y27.332 E25.4714
G1 X7.701 Y25.592 E25.55922
G1 X7.669 Y23.065 E25.68675
G1 X7.644 Y20.599 E25.81121
G1 X7.626 Y18.204 E25.93207
G1 X7.61 Y14.757 E26.10603
G1 X7.602 Y11.505 E26.27014
G1 X7.6 Y5.811 E26.55749
G1 X7.6 Y5.612 E26.56754
G1 X7.799 Y5.612 E26.57403
G1 X112.201 Y5.612 E31.84271
G1 X112.4 Y5.612 E31.85275
G1 X112.4 Y5.811 E31.85925
G1 X112.399 Y11.265 E32.13449
G1 X112.389 Y15.138 E32.32994
G1 X112.369 Y18.877 E32.51863
G1 X112.339 Y22.311 E32.69194
G1 X112.303 Y25.264 E32.84097
G1 X112.272 Y27.332 E32.94535
G1 X112.24 Y29.092 E33.03418
G1 X112.162 Y32.686 E33.2156
G1 X112.115 Y34.522 E33.30828
G1 X112.063 Y36.382 E33.40218
G1 X112.006 Y38.269 E33.49745
G1 X111.896 Y41.635 E33.66741
G1 X111.784 Y44.75 E33.82471
G1 X111.719 Y46.423 E33.9092
G1 X111.652 Y48.049 E33.99133
G1 X111.577 Y49.706 E34.07504
G1 X111.495 Y51.393 E34.16027
G1 X111.403 Y53.111 E34.2471
G1 X111.332 Y54.324 E34.30842
G1 X111.256 Y55.55 E34.3704
G1 X111.077 Y58.037 E34.49624
G1 X110.859 Y60.562 E34.62414
G1 X110.594 Y63.118 E34.75382
G1 X110.442 Y64.403 E34.81912
G1 X110.274 Y65.687 E34.88447
G1 X110.09 Y66.975 E34.95013
G1 X109.891 Y68.264 E35.01595
G1 X109.672 Y69.548 E35.08168
G1 X109.435 Y70.832 E35.14757
G1 X109.178 Y72.111 E35.21341
G1 X108.899 Y73.392 E35.27957
G1 X108.664 Y74.389 E35.33126
G1 X108.415 Y75.386 E35.38312
G1 X108.149 Y76.376 E35.43485
G1 X107.869 Y77.36 E35.48648
G1 X107.574 Y78.337 E35.53798
G1 X107.263 Y79.305 E35.58929
G1 X106.935 Y80.27 E35.64073
G1 X106.595 Y81.213 E35.69132
G1 X106.234 Y82.158 E35.74237
G1 X105.863 Y83.082 E35.79262
G1 X105.474 Y83.994 E35.84265
G1 X105.068 Y84.896 E35.89257
G1 X104.645 Y85.784 E35.94221
G1 X104.205 Y86.66 E35.99168
G1 X103.747 Y87.523 E36.04098
G1 X103.271 Y88.372 E36.0901
G1 X102.846 Y89.092 E36.1323
G1 X102.404 Y89.806 E36.17467
G1 X101.949 Y90.508 E36.21689
G1 X101.483 Y91.2 E36.25899
G1 X101.003 Y91.879 E36.30096
G1 X100.52 Y92.536 E36.34211
G1 X100.022 Y93.188 E36.38351
G1 X99.512 Y93.83 E36.42489
G1 X99 Y94.452 E36.46554
G1 X98.479 Y95.061 E36.50599
G1 X97.408 Y96.249 E36.58671
G1 X96.301 Y97.395 E36.66712
G1 X95.186 Y98.476 E36.74549
G1 X94.141 Y99.434 E36.81703
G1 X93.08 Y100.36 E36.8881
G1 X92.017 Y101.246 E36.95794
G1 X90.944 Y102.102 E37.02721
G1 X89.873 Y102.922 E37.09528
G1 X88.792 Y103.715 E37.16293
G1 X87.714 Y104.478 E37.22958
G1 X86.642 Y105.211 E37.29512
G1 X85.16 Y106.182 E37.38453
G1 X83.689 Y107.092 E37.47182
G1 X82.193 Y107.964 E37.55921
G1 X80.706 Y108.773 E37.64464
G1 X79.195 Y109.534 E37.73002
G1 X77.646 Y110.25 E37.81613
G1 X76.883 Y110.578 E37.85805
G1 X76.104 Y110.897 E37.90053
G1 X75.315 Y111.204 E37.94325
G1 X74.527 Y111.493 E37.98561
G1 X73.699 Y111.777 E38.02978
G1 X72.858 Y112.046 E38.07434
G1 X72.016 Y112.296 E38.11867
G1 X71.151 Y112.532 E38.16392
G1 X70.288 Y112.747 E38.2088
G1 X69.42 Y112.943 E38.25371
G1 X68.532 Y113.124 E38.29944
G1 X67.625 Y113.288 E38.34596
G1 X66.71 Y113.434 E38.39272
G1 X65.791 Y113.559 E38.43952
G1 X64.861 Y113.665 E38.48676
G1 X63.916 Y113.754 E38.53466
G1 X62.954 Y113.822 E38.58333
G1 X61.986 Y113.872 E38.63224
G1 X61.524 Y113.886 E38.65557
G0 F1080 X60.992 Y113.902
G0 F1440 X61.004 Y114.302
;TYPE:WALL-OUTER
G1 F1200 X60 Y114.312 E38.70624
G1 X58.996 Y114.302 E38.75691
G1 X58.002 Y114.272 E38.80709
G1 X57.018 Y114.222 E38.85681
G1 X56.056 Y114.153 E38.90549
G1 X55.101 Y114.063 E38.95389
G1 X54.154 Y113.955 E39.00199
G1 X53.227 Y113.828 E39.04921
G1 X52.304 Y113.682 E39.09637
G1 X51.397 Y113.518 E39.14289
G1 X50.5 Y113.335 E39.18909
G1 X49.614 Y113.135 E39.23492
G1 X48.744 Y112.918 E39.28017
G1 X47.879 Y112.682 E39.32542
G1 X47.02 Y112.428 E39.37063
G1 X46.179 Y112.158 E39.4152
G1 X45.343 Y111.871 E39.45981
G1 X44.54 Y111.577 E39.50296
G1 X43.751 Y111.27 E39.54569
G1 X42.965 Y110.948 E39.58855
G1 X42.186 Y110.613 E39.63134
G1 X40.637 Y109.897 E39.71746
G1 X39.114 Y109.13 E39.80352
G1 X37.606 Y108.31 E39.89014
G1 X36.11 Y107.438 E39.97753
G1 X34.621 Y106.517 E40.06588
G1 X33.139 Y105.546 E40.1553
G1 X32.055 Y104.805 E40.22156
G1 X30.971 Y104.038 E40.28857
G1 X29.89 Y103.244 E40.35626
G1 X28.807 Y102.415 E40.42509
G1 X27.734 Y101.559 E40.49436
G1 X26.664 Y100.667 E40.56466
G1 X25.595 Y99.736 E40.6362
G1 X24.544 Y98.771 E40.7082
G1 X23.411 Y97.673 E40.78782
G1 X22.304 Y96.527 E40.86823
G1 X21.224 Y95.329 E40.94963
G1 X20.696 Y94.712 E40.99061
G1 X20.179 Y94.084 E41.03166
G1 X19.665 Y93.437 E41.07336
G1 X19.161 Y92.779 E41.11519
G1 X18.67 Y92.11 E41.15707
G1 X18.191 Y91.431 E41.199
G1 X17.719 Y90.732 E41.24157
G1 X17.26 Y90.023 E41.28419
G1 X16.814 Y89.302 E41.32698
G1 X16.38 Y88.568 E41.37001
G1 X15.905 Y87.719 E41.4191
G1 X15.442 Y86.847 E41.46893
G1 X14.998 Y85.964 E41.5188
G1 X14.57 Y85.068 E41.56891
G1 X14.161 Y84.158 E41.61926
G1 X13.77 Y83.239 E41.66966
G1 X13.392 Y82.301 E41.7207
G1 X13.031 Y81.356 E41.77175
G1 X12.686 Y80.399 E41.82309
G1 X12.358 Y79.434 E41.87452
G1 X12.045 Y78.459 E41.9262
G1 X11.748 Y77.476 E41.97802
G1 X11.466 Y76.486 E42.02997
G1 X11.199 Y75.489 E42.08206
G1 X10.948 Y74.486 E42.13423
G1 X10.71 Y73.477 E42.18655
G1 X10.431 Y72.196 E42.25271
G1 X10.173 Y70.911 E42.31886
G1 X9.935 Y69.621 E42.38505
G1 X9.716 Y68.331 E42.45109
G1 X9.515 Y67.036 E42.51722
G1 X9.33 Y65.744 E42.58309
G1 X9.162 Y64.455 E42.64869
G1 X9.009 Y63.165 E42.71424
G1 X8.743 Y60.603 E42.84423
G1 X8.524 Y58.071 E42.97249
G1 X8.346 Y55.579 E43.09857
G1 X8.269 Y54.349 E43.16076
G1 X8.198 Y53.133 E43.22223
G1 X8.106 Y51.413 E43.30915
G1 X8.023 Y49.724 E43.39449
G1 X7.948 Y48.067 E43.4782
G1 X7.881 Y46.438 E43.56048
G1 X7.761 Y43.266 E43.72067
G1 X7.656 Y40.198 E43.87559
G1 X7.594 Y38.282 E43.97233
G1 X7.537 Y36.393 E44.0677
G1 X7.485 Y34.531 E44.1617
G1 X7.436 Y32.612 E44.25858
G1 X7.36 Y29.1 E44.43585
G1 X7.328 Y27.339 E44.52474
G1 X7.301 Y25.598 E44.61261
G1 X7.269 Y23.07 E44.74019
G1 X7.244 Y20.603 E44.8647
G1 X7.226 Y18.207 E44.98562
G1 X7.21 Y14.759 E45.15962
G1 X7.202 Y11.505 E45.32384
G1 X7.2 Y5.412 E45.63132
G1 X7.2 Y5.212 E45.64142
G1 X7.4 Y5.212 E45.64795
G1 X112.6 Y5.212 E50.9569
G1 X112.8 Y5.212 E50.96699
G1 X112.8 Y5.412 E50.97353
G1 X112.799 Y11.265 E51.2689
G1 X112.789 Y15.14 E51.46446
G1 X112.769 Y18.88 E51.6532
G1 X112.739 Y22.316 E51.8266
G1 X112.703 Y25.27 E51.97569
G1 X112.672 Y27.339 E52.08011
G1 X112.64 Y29.101 E52.16905
G1 X112.562 Y32.696 E52.35051
G1 X112.515 Y34.532 E52.4432
G1 X112.463 Y36.394 E52.5372
G1 X112.406 Y38.281 E52.63247
G1 X112.296 Y41.649 E52.80253
G1 X112.184 Y44.766 E52.95993
G1 X112.119 Y46.439 E53.04443
G1 X112.052 Y48.067 E53.12665
G1 X111.977 Y49.726 E53.21046
G1 X111.894 Y51.413 E53.2957
G1 X111.802 Y53.134 E53.38267
G1 X111.731 Y54.349 E53.44409
G1 X111.655 Y55.579 E53.50628
G1 X111.476 Y58.071 E53.63237
G1 X111.257 Y60.603 E53.76062
G1 X110.991 Y63.165 E53.89061
G1 X110.839 Y64.455 E53.95616
G1 X110.67 Y65.744 E54.02177
G1 X110.485 Y67.036 E54.08763
G1 X110.285 Y68.331 E54.15376
G1 X110.065 Y69.621 E54.2198
G1 X109.827 Y70.911 E54.286
G1 X109.569 Y72.196 E54.35214
G1 X109.289 Y73.477 E54.41831
