;FLAVOR:Marlin
;TIME:6953
;Filament used: 9.8577m
;Layer height: 0.12
;MINX:17.114
;MINY:16.493
;MINZ:0.24
;MAXX:103.501
;MAXY:102.886
;MAXZ:32.94
;Generated with Cura_SteamEngine 4.7.1
M104 S210
M105
M109 S210
M82 ;absolute extrusion mode
;Sliced at: Fri 27-11-2020 08:42:44
G21 ;metric values
G90 ;absolute positioning
M82 ;set extruder to absolute mode
M107 ;start with the fan off
G1 Z5.0 F1800 ;move Z to 5mm
G28 X0 Y0 F1800 ;move X/Y to min endstops
G28 Z0 ;move Z to min endstop
G92 E0 ;zero the extruded length
G1 F200 E6.0 ;extrude 6.0mm of feed stock to build pressure
G1 Z5.0 F300 ;move the platform down 5mm
G92 E0 ;zero the extruded length again
G1 F1800
;Put printing message on LCD screen
M117 Printing...
G92 E0
G92 E0
G1 F1500 E-5
;LAYER_COUNT:145
;LAYER:0
M107
G0 F900 X27.785 Y43.764 Z0.24
;TYPE:SKIRT
G1 F1500 E0.70678
G1 F900 X53.55 Y17.996 E2.30659
G1 X53.822 Y17.729 E2.32332
G1 X54.274 Y17.303 E2.35059
G1 X54.737 Y16.961 E2.37586
G1 X55.348 Y16.653 E2.4059
G1 X56.026 Y16.515 E2.43628
G1 X56.425 Y16.493 E2.45382
G1 X56.963 Y16.575 E2.47772
G1 X57.485 Y16.729 E2.50161
G1 X58.017 Y17.038 E2.52862
G1 X58.545 Y17.473 E2.55866
G1 X58.591 Y17.516 E2.56142
G1 X59.167 Y18.074 E2.59663
G1 X101.915 Y60.822 E5.2508
G1 X102.268 Y61.179 E5.27284
G1 X102.669 Y61.604 E5.29849
G1 X103.089 Y62.173 E5.32954
G1 X103.334 Y62.68 E5.35427
G1 X103.466 Y63.199 E5.37778
G1 X103.501 Y63.766 E5.40272
G1 X103.45 Y64.214 E5.42251
G1 X103.36 Y64.603 E5.44004
G1 X103.085 Y65.182 E5.46818
G1 X102.785 Y65.615 E5.49131
G1 X102.422 Y66.013 E5.51496
G1 X101.839 Y66.612 E5.55166
G1 X75.938 Y92.512 E7.15979
G1 X75.479 Y92.964 E7.18807
G1 X75.031 Y93.388 E7.21515
G1 X74.368 Y93.839 E7.25036
G1 X74.003 Y94.002 E7.26791
G1 X73.4 Y94.136 E7.29503
G1 X73.253 Y94.158 E7.30155
G1 X72.721 Y94.146 E7.32491
G1 X72.296 Y94.074 E7.34384
G1 X71.913 Y93.96 E7.36138
G1 X71.456 Y93.714 E7.38417
G1 X71.041 Y93.424 E7.4064
G1 X70.831 Y93.234 E7.41883
G1 X70.176 Y92.594 E7.45903
G1 X27.581 Y50 E10.10367
G1 X27.079 Y49.493 E10.135
G1 X26.66 Y49.049 E10.1618
G1 X26.231 Y48.453 E10.19404
G1 X26.045 Y48.1 E10.21156
G1 X25.895 Y47.54 E10.23701
G1 X25.829 Y46.961 E10.2626
G1 X25.891 Y46.454 E10.28502
G1 X25.927 Y46.263 E10.29355
G1 X26.113 Y45.729 E10.31838
G1 X26.34 Y45.317 E10.33903
G1 X26.706 Y44.878 E10.36412
G1 X27.072 Y44.492 E10.38748
G1 X27.32 Y44.239 E10.40303
G0 F810 X27.785 Y43.764
G0 F900 X28.068 Y44.047
G1 X53.83 Y18.281 E12.00269
G1 X54.097 Y18.02 E12.01908
G1 X54.549 Y17.594 E12.04635
G1 X55.151 Y17.18 E12.07842
G1 X55.55 Y17.009 E12.09748
G1 X56.087 Y16.91 E12.12146
G1 X56.444 Y16.895 E12.13714
G1 X57.019 Y16.996 E12.16277
G1 X57.527 Y17.203 E12.18686
G1 X58.043 Y17.557 E12.21433
G1 X58.312 Y17.803 E12.23033
G1 X58.888 Y18.361 E12.26554
G1 X101.63 Y61.103 E14.91934
G1 X101.977 Y61.454 E14.94101
G1 X102.378 Y61.879 E14.96666
G1 X102.757 Y62.395 E14.99477
G1 X102.973 Y62.868 E15.0176
G1 X103.076 Y63.287 E15.03654
G1 X103.093 Y63.846 E15.0611
G1 X102.969 Y64.51 E15.09075
G1 X102.73 Y64.998 E15.11461
G1 X102.489 Y65.347 E15.13323
G1 X102.135 Y65.734 E15.15626
G1 X101.556 Y66.329 E15.19271
G1 X75.657 Y92.227 E16.80071
G1 X75.204 Y92.673 E16.82862
G1 X74.758 Y93.096 E16.85561
G1 X74.199 Y93.475 E16.88526
G1 X73.842 Y93.634 E16.90242
G1 X73.328 Y93.743 E16.92549
G1 X72.783 Y93.751 E16.94942
G1 X72.372 Y93.681 E16.96772
G1 X71.863 Y93.489 E16.9916
G1 X71.41 Y93.208 E17.01501
G1 X71.11 Y92.948 E17.03244
G1 X70.459 Y92.311 E17.07242
G1 X27.864 Y49.717 E19.71706
G1 X27.339 Y49.187 E19.74982
G1 X26.951 Y48.775 E19.77466
G1 X26.565 Y48.233 E19.80388
G1 X26.403 Y47.915 E19.81954
G1 X26.277 Y47.408 E19.84248
G1 X26.231 Y46.931 E19.86352
G1 X26.32 Y46.34 E19.88976
G1 X26.58 Y45.695 E19.92029
G1 X26.819 Y45.35 E19.93872
G1 X27.361 Y44.769 E19.9736
G1 X27.603 Y44.522 E19.98878
G0 F810 X28.068 Y44.047
G0 F900 X28.35 Y44.33
G1 X54.111 Y18.566 E21.58834
G1 X54.371 Y18.311 E21.60433
G1 X54.823 Y17.885 E21.6316
G1 X55.355 Y17.525 E21.6598
G1 X55.765 Y17.368 E21.67908
G1 X56.148 Y17.305 E21.69612
G1 X56.555 Y17.312 E21.71399
G1 X56.934 Y17.387 E21.73095
G1 X57.315 Y17.542 E21.74901
G1 X57.774 Y17.852 E21.77333
G1 X58.034 Y18.09 E21.7888
G1 X58.624 Y18.661 E21.82485
G1 X101.341 Y61.378 E24.4771
G1 X101.686 Y61.728 E24.49867
G1 X102.087 Y62.153 E24.52433
G1 X102.425 Y62.618 E24.54956
G1 X102.626 Y63.113 E24.57302
G1 X102.707 Y63.606 E24.59495
G1 X102.657 Y64.111 E24.61723
G1 X102.533 Y64.509 E24.63554
G1 X102.192 Y65.078 E24.66466
G1 X101.848 Y65.456 E24.6871
G1 X101.274 Y66.047 E24.72327
G1 X75.377 Y91.942 E26.33112
G1 X74.93 Y92.383 E26.35869
G1 X74.485 Y92.803 E26.38555
G1 X73.995 Y93.131 E26.41144
G1 X73.487 Y93.307 E26.43504
G1 X73.165 Y93.363 E26.44939
G1 X72.591 Y93.315 E26.47468
G1 X72.066 Y93.144 E26.49892
G1 X71.638 Y92.879 E26.52102
G1 X71.39 Y92.662 E26.53549
G1 X70.741 Y92.029 E26.57529
G1 X28.146 Y49.435 E29.21993
G1 X27.63 Y48.913 E29.25216
G1 X27.242 Y48.501 E29.277
G1 X26.899 Y48.012 E29.30323
G1 X26.727 Y47.602 E29.32275
G1 X26.648 Y47.216 E29.34004
G1 X26.681 Y46.58 E29.368
G1 X26.824 Y46.096 E29.39016
G1 X27.093 Y45.645 E29.41322
G1 X27.432 Y45.273 E29.43531
G1 X27.658 Y45.037 E29.44966
G1 X27.885 Y44.805 E29.46391
G0 F810 X28.35 Y44.33
G0 F900 X28.633 Y44.612
G1 X54.391 Y18.852 E31.06325
G1 X54.645 Y18.602 E31.0789
G1 X55.097 Y18.176 E31.10617
G1 X55.208 Y18.086 E31.11244
G1 X55.727 Y17.791 E31.13865
G1 X56.209 Y17.7 E31.16019
G1 X56.74 Y17.754 E31.18362
G1 X57.102 Y17.881 E31.20046
G1 X57.504 Y18.148 E31.22165
G1 X57.756 Y18.377 E31.2366
G1 X58.332 Y18.935 E31.27181
G1 X101.058 Y61.661 E33.92461
G1 X101.395 Y62.003 E33.94569
G1 X101.796 Y62.428 E33.97135
G1 X102.093 Y62.841 E33.99368
G1 X102.236 Y63.203 E34.01077
G1 X102.304 Y63.67 E34.03149
G1 X102.26 Y64.06 E34.04872
G1 X102.177 Y64.325 E34.06091
G1 X101.896 Y64.809 E34.08548
G1 X101.562 Y65.177 E34.1073
G1 X100.991 Y65.764 E34.14325
G1 X75.096 Y91.658 E35.75101
G1 X74.655 Y92.092 E35.77817
G1 X74.212 Y92.511 E35.80494
G1 X73.791 Y92.787 E35.82705
G1 X73.415 Y92.914 E35.84447
G1 X73.12 Y92.965 E35.85761
G1 X72.523 Y92.896 E35.884
G1 X72.064 Y92.68 E35.90627
G1 X71.669 Y92.375 E35.92818
G1 X71.024 Y91.746 E35.96773
G1 X28.429 Y49.152 E38.61237
G1 X27.934 Y48.651 E38.64329
G1 X27.534 Y48.226 E38.66892
G1 X27.232 Y47.792 E38.69213
G1 X27.069 Y47.289 E38.71534
G1 X27.039 Y46.875 E38.73357
G1 X27.105 Y46.493 E38.75059
G1 X27.336 Y45.985 E38.77509
G1 X27.723 Y45.547 E38.80075
G1 X27.944 Y45.316 E38.81478
G1 X28.168 Y45.087 E38.82885
G0 F810 X28.633 Y44.612
G0 F900 X28.916 Y44.895
G1 X54.672 Y19.137 E40.42807
G1 X54.92 Y18.893 E40.44334
G1 X55.37 Y18.468 E40.47052
G1 X55.854 Y18.171 E40.49545
G1 X56.271 Y18.096 E40.51405
G1 X56.763 Y18.168 E40.53588
G1 X57.235 Y18.444 E40.55988
G1 X57.477 Y18.665 E40.57427
G1 X58.058 Y19.227 E40.60976
G1 X100.777 Y61.946 E43.26213
G1 X101.104 Y62.277 E43.28256
G1 X101.505 Y62.702 E43.30821
G1 X101.809 Y63.165 E43.33253
G1 X101.906 Y63.638 E43.35373
G1 X101.822 Y64.141 E43.37612
G1 X101.6 Y64.54 E43.39616
G1 X101.275 Y64.898 E43.41739
G1 X100.708 Y65.481 E43.4531
G1 X74.815 Y91.373 E45.06073
G1 X74.38 Y91.802 E45.08755
G1 X73.939 Y92.218 E45.11417
G1 X73.574 Y92.45 E45.13316
G1 X73.085 Y92.567 E45.15523
G1 X72.598 Y92.503 E45.1768
G1 X72.13 Y92.248 E45.20019
G1 X71.949 Y92.089 E45.21077
G1 X71.307 Y91.463 E45.25014
G1 X28.712 Y48.869 E47.89478
G1 X28.219 Y48.371 E47.92554
G1 X27.825 Y47.952 E47.9508
G1 X27.566 Y47.571 E47.97102
G1 X27.435 Y47.073 E47.99363
G1 X27.497 Y46.569 E48.01592
G1 X27.712 Y46.152 E48.03652
G1 X28.227 Y45.599 E48.0697
G1 X28.451 Y45.37 E48.08376
G0 F810 X28.916 Y44.895
G0 F900 X28.851 Y45.526
G1 X55.116 Y19.258 E49.71462
G1 X55.645 Y18.744 E49.747
G1 X55.977 Y18.54 E49.76411
G1 X56.338 Y18.479 E49.78018
G1 X56.696 Y18.553 E49.79623
G1 X57.006 Y18.755 E49.81247
G1 X57.241 Y18.976 E49.82664
G1 X100.758 Y62.493 E52.52855
G1 X101.224 Y62.972 E52.55789
G1 X101.437 Y63.281 E52.57437
G1 X101.518 Y63.606 E52.58907
G1 X101.474 Y63.976 E52.60543
G1 X101.296 Y64.307 E52.62193
G1 X100.947 Y64.676 E52.64423
G1 X74.24 Y91.382 E54.30241
G1 X73.673 Y91.933 E54.33712
G1 X73.383 Y92.111 E54.35206
G1 X73.026 Y92.182 E54.36804
G1 X72.665 Y92.118 E54.38413
G1 X72.355 Y91.93 E54.40005
G1 X72.053 Y91.643 E54.41834
G1 X28.995 Y48.586 E57.09173
G1 X28.601 Y48.192 E57.11619
G1 X28.086 Y47.661 E57.14867
G1 X27.887 Y47.347 E57.16499
G1 X27.818 Y46.997 E57.18065
G1 X27.883 Y46.63 E57.19701
G1 X27.996 Y46.419 E57.20752
G1 X28.391 Y46.006 E57.23261
G0 F810 X28.851 Y45.526
G1 F1500 E52.23261
;MESH:Fimi_mount.stl
G0 F900 X31.58 Y44.971
G0 X32.484 Y45.874
G0 X57.169 Y21.266
G0 X57.169 Y21.166
;TYPE:WALL-INNER
G1 F1500 E57.93939
G1 F900 X57.309 Y21.306 E57.94808
G1 X98.693 Y62.69 E60.51756
G1 X98.833 Y62.83 E60.52625
G1 X98.693 Y62.97 E60.53186
G1 X74.127 Y87.535 E62.0571
G1 X32.464 Y45.874 E64.64384
G1 X57.029 Y21.306 E66.16914
G1 X57.169 Y21.166 E66.17475
G0 X57.31 Y20.741
;TYPE:WALL-OUTER
G1 X99.258 Y62.689 E68.77925
G1 X99.399 Y62.83 E68.788
G1 X99.258 Y62.971 E68.79365
G1 X74.127 Y88.101 E70.35398
G1 X31.898 Y45.874 E72.97586
G1 X57.028 Y20.741 E74.53624
G1 X57.169 Y20.6 E74.545
G1 X57.31 Y20.741 E74.55065
G0 X57.451 Y20.882
G0 X57.169 Y21.223
G0 X57.169 Y21.716
;TYPE:SKIN
G1 X98.283 Y62.83 E77.10337
G1 X74.127 Y86.985 E78.60315
G1 X33.014 Y45.874 E81.15575
G1 X56.699 Y22.186 E82.62641
G0 F810 X57.169 Y21.716
G0 F900 X57.076 Y22.004
G1 X97.993 Y62.921 E85.1669
G0 X97.71 Y63.204
G1 X56.794 Y22.287 E87.70735
G0 X56.511 Y22.57
G1 X97.428 Y63.486 E90.24781
G0 X97.145 Y63.769
G1 X56.228 Y22.852 E92.78829
G0 X55.945 Y23.135
G1 X96.862 Y64.052 E95.32878
G0 X96.579 Y64.335
G1 X55.662 Y23.418 E97.86926
G0 X55.379 Y23.701
G1 X96.296 Y64.618 E100.40975
G0 X96.013 Y64.901
G1 X55.097 Y23.984 E102.9502
G0 X54.814 Y24.267
G1 X95.73 Y65.183 E105.49063
G0 X95.448 Y65.466
G1 X54.531 Y24.55 E108.03108
G0 X54.248 Y24.832
G1 X95.165 Y65.749 E110.57157
G0 X94.882 Y66.032
G1 X53.965 Y25.115 E113.11205
G0 X53.682 Y25.398
G1 X94.599 Y66.315 E115.65254
G0 X94.316 Y66.598
G1 X53.399 Y25.681 E118.19302
G0 X53.117 Y25.964
G1 X94.033 Y66.88 E120.73345
G0 X93.751 Y67.163
G1 X52.834 Y26.247 E123.2739
G0 X52.551 Y26.529
G1 X93.468 Y67.446 E125.81439
G0 X93.185 Y67.729
G1 X52.268 Y26.812 E128.35487
G0 X51.985 Y27.095
G1 X92.902 Y68.012 E130.89536
G0 X92.619 Y68.295
G1 X51.702 Y27.378 E133.43584
G0 X51.42 Y27.661
G1 X92.336 Y68.578 E135.9763
G0 X92.053 Y68.86
G1 X51.137 Y27.944 E138.51672
G0 X50.854 Y28.226
G1 X91.771 Y69.143 E141.05721
G0 X91.488 Y69.426
G1 X50.571 Y28.509 E143.59769
G0 X50.288 Y28.792
G1 X91.205 Y69.709 E146.13818
G0 X90.922 Y69.992
G1 X50.005 Y29.075 E148.67866
G0 X49.723 Y29.358
G1 X90.639 Y70.275 E151.21912
G0 X90.356 Y70.557
G1 X49.44 Y29.641 E153.75954
G0 X49.157 Y29.924
G1 X90.074 Y70.84 E156.29999
G0 X89.791 Y71.123
G1 X48.874 Y30.206 E158.84048
G0 X48.591 Y30.489
G1 X89.508 Y71.406 E161.38097
G0 X89.225 Y71.689
G1 X48.308 Y30.772 E163.92145
G0 X48.025 Y31.055
G1 X88.942 Y71.972 E166.46194
G0 X88.659 Y72.254
G1 X47.743 Y31.338 E169.00236
G0 X47.46 Y31.621
G1 X88.377 Y72.537 E171.54281
G0 X88.094 Y72.82
G1 X47.177 Y31.903 E174.0833
G0 X46.894 Y32.186
G1 X87.811 Y73.103 E176.62378
G0 X87.528 Y73.386
G1 X46.611 Y32.469 E179.16427
G0 X46.328 Y32.752
G1 X87.245 Y73.669 E181.70476
G0 X86.962 Y73.952
G1 X46.046 Y33.035 E184.24521
G0 X45.763 Y33.318
G1 X86.679 Y74.234 E186.78563
G0 X86.397 Y74.517
G1 X45.48 Y33.601 E189.32609
G0 X45.197 Y33.883
G1 X86.114 Y74.8 E191.86657
G0 X85.831 Y75.083
G1 X44.915 Y34.167 E194.407
G0 X44.632 Y34.45
G1 X85.548 Y75.366 E196.94742
G0 X85.265 Y75.649
G1 X44.349 Y34.733 E199.48784
G0 X44.066 Y35.015
G1 X84.982 Y75.931 E202.02827
G0 X84.7 Y76.214
G1 X43.784 Y35.298 E204.56869
G0 X43.501 Y35.581
G1 X84.417 Y76.497 E207.10911
G0 X84.134 Y76.78
G1 X43.218 Y35.864 E209.64954
G0 X42.935 Y36.147
G1 X83.851 Y77.063 E212.18996
G0 X83.568 Y77.346
G1 X42.652 Y36.43 E214.73038
G0 X42.369 Y36.712
G1 X83.285 Y77.629 E217.27084
G0 X83.003 Y77.911
G1 X42.086 Y36.995 E219.81129
G0 X41.804 Y37.278
G1 X82.72 Y78.194 E222.35172
G0 X82.437 Y78.477
G1 X41.521 Y37.561 E224.89214
G0 X41.238 Y37.844
G1 X82.154 Y78.76 E227.43256
G0 X81.871 Y79.043
G1 X40.955 Y38.127 E229.97299
G0 X40.672 Y38.41
G1 X81.588 Y79.326 E232.51341
G0 X81.305 Y79.608
G1 X40.389 Y38.692 E235.05383
G0 X40.107 Y38.975
G1 X81.023 Y79.891 E237.59426
G0 X80.74 Y80.174
G1 X39.824 Y39.258 E240.13468
G0 X39.541 Y39.541
G1 X80.457 Y80.457 E242.6751
G0 X80.174 Y80.74
G1 X39.258 Y39.824 E245.21553
G0 X38.975 Y40.107
G1 X79.891 Y81.023 E247.75595
G0 X79.608 Y81.305
G1 X38.692 Y40.389 E250.29637
G0 X38.41 Y40.672
G1 X79.326 Y81.588 E252.8368
G0 X79.043 Y81.871
G1 X38.127 Y40.955 E255.37722
G0 X37.844 Y41.238
G1 X78.76 Y82.154 E257.91764
G0 X78.477 Y82.437
G1 X37.561 Y41.521 E260.45807
G0 X37.278 Y41.804
G1 X78.194 Y82.72 E262.99849
G0 X77.911 Y83.003
G1 X36.995 Y42.086 E265.53895
G0 X36.712 Y42.369
G1 X77.629 Y83.285 E268.0794
G0 X77.346 Y83.568
G1 X36.43 Y42.652 E270.61982
G0 X36.147 Y42.935
G1 X77.063 Y83.851 E273.16025
G0 X76.78 Y84.134
G1 X35.864 Y43.218 E275.70067
G0 X35.581 Y43.501
G1 X76.497 Y84.417 E278.24109
G0 X76.214 Y84.7
G1 X35.298 Y43.784 E280.78152
G0 X35.015 Y44.066
G1 X75.931 Y84.982 E283.32194
G0 X75.649 Y85.265
G1 X34.733 Y44.349 E285.86236
G0 X34.45 Y44.632
G1 X75.366 Y85.548 E288.40279
G0 X75.083 Y85.831
G1 X34.167 Y44.915 E290.94321
G0 X33.884 Y45.198
G1 X74.8 Y86.114 E293.48363
G0 X74.517 Y86.397
G1 X33.601 Y45.481 E296.02406
G0 X33.318 Y45.763
M104 S196
G1 X74.234 Y86.679 E298.56448
G1 X74.304 Y86.749
G1 F1500 E293.56448
;MESH:NONMESH
G0 F600 X74.304 Y86.749 Z0.48
G0 F900 X32.484 Y45.874
G0 X31.58 Y44.971
G0 X28.851 Y45.526
;TIME_ELAPSED:466.308625
;LAYER:1
M106 S85
;TYPE:SKIRT
G1 F1500 E299.27126
G1 F900 X55.116 Y19.258 E300.90211
G1 X55.645 Y18.744 E300.9345
G1 X55.977 Y18.54 E300.9516
G1 X56.338 Y18.479 E300.96768
G1 X56.696 Y18.553 E300.98373
G1 X57.006 Y18.755 E300.99997
G1 X57.241 Y18.976 E301.01413
G1 X100.758 Y62.493 E303.71605
G1 X101.224 Y62.972 E303.74539
G1 X101.437 Y63.281 E303.76187
G1 X101.518 Y63.606 E303.77657
G1 X101.474 Y63.976 E303.79293
G1 X101.296 Y64.307 E303.80943
G1 X100.947 Y64.676 E303.83173
G1 X74.24 Y91.382 E305.4899
G1 X73.673 Y91.933 E305.52461
G1 X73.383 Y92.111 E305.53955
G1 X73.026 Y92.182 E305.55553
G1 X72.665 Y92.118 E305.57163
G1 X72.355 Y91.93 E305.58755
G1 X72.053 Y91.643 E305.60584
G1 X28.995 Y48.586 E308.27922
G1 X28.601 Y48.192 E308.30369
G1 X28.086 Y47.661 E308.33616
G1 X27.887 Y47.347 E308.35249
G1 X27.818 Y46.997 E308.36815
G1 X27.883 Y46.63 E308.38451
G1 X27.996 Y46.419 E308.39502
G1 X28.391 Y46.006 E308.42011
G0 F810 X28.851 Y45.526
G1 F1500 E303.42011
;MESH:Fimi_mount.stl
G0 F3000 X31.438 Y45.026
G0 X32.343 Y45.929
G0 X57.126 Y21.223
G0 X57.126 Y21.123
;TYPE:WALL-INNER
G1 F1500 E309.12689
G1 F2100 X57.266 Y21.263 E309.13558
G1 X98.736 Y62.733 E311.7104
G1 X98.876 Y62.873 E311.71909
G1 X98.736 Y63.013 E311.7247
G1 X74.072 Y87.676 E313.25602
G1 X32.323 Y45.929 E315.8481
G1 X56.986 Y21.263 E317.37949
G1 X57.126 Y21.123 E317.38509
G0 F3000 X57.267 Y20.698
;TYPE:WALL-OUTER
G1 F1500 X99.301 Y62.732 E319.99493
G1 X99.442 Y62.873 E320.00369
G1 X99.301 Y63.014 E320.00934
G1 X74.072 Y88.242 E321.57575
G1 X31.757 Y45.929 E324.20297
G1 X56.985 Y20.698 E325.76944
G1 X57.126 Y20.557 E325.77819
G1 X57.267 Y20.698 E325.78385
G0 F3000 X57.408 Y20.839
G0 X57.126 Y21.18
G0 X57.126 Y21.673
;TYPE:SKIN
G1 F1800 X98.326 Y62.873 E328.3419
G1 X74.072 Y87.126 E329.84777
G1 X32.873 Y45.929 E332.40571
G1 X56.656 Y22.143 E333.88246
G0 F1620 X57.126 Y21.673
G0 F3000 X57.225 Y21.97
G1 F1800 X33.168 Y46.026 E335.37609
G0 F3000 X33.451 Y46.309
G1 F1800 X57.508 Y22.253 E336.86973
G0 F3000 X57.791 Y22.536
G1 F1800 X33.734 Y46.592 E338.36337
G0 F3000 X34.017 Y46.875
G1 F1800 X58.073 Y22.819 E339.85698
G0 F3000 X58.356 Y23.101
G1 F1800 X34.3 Y47.158 E341.35061
G0 F3000 X34.583 Y47.441
G1 F1800 X58.639 Y23.384 E342.84425
G0 F3000 X58.922 Y23.667
G1 F1800 X34.866 Y47.724 E344.33789
G0 F3000 X35.148 Y48.006
G1 F1800 X59.205 Y23.95 E345.83153
G0 F3000 X59.488 Y24.233
