;FLAVOR:Marlin
;TIME:2403
;Filament used: 1.40521m
;Layer height: 0.12
;MINX:42.539
;MINY:26.5
;MINZ:0.3
;MAXX:77.5
;MAXY:93.5
;MAXZ:12.62
;Generated with Cura_SteamEngine 4.6.1
M104 S210
M105
M109 S210
M82 ;absolute extrusion mode
;Sliced at: Tue 26-05-2020 11:27:22
G21 ;metric values
G90 ;absolute positioning
M82 ;set extruder to absolute mode
M107 ;start with the fan off
G1 Z5.0 F1800 ;move Z to 5mm
G28 X0 Y0 F1800 ;move X/Y to min endstops
G28 Z0 ;move Z to min endstop
G92 E0 ;zero the extruded length
G1 F200 E6.0 ;extrude 6.0mm of feed stock to build pressure
G1 Z5.0 F300 ;move the platform down 5mm
G92 E0 ;zero the extruded length again
G1 F1800
;Put printing message on LCD screen
M117 Printing...
G92 E0
G92 E0
G1 F1500 E-5
;LAYER_COUNT:67
;LAYER:0
M107
G0 F900 X76.033 Y55.884 Z0.3
;TYPE:SKIRT
G1 F1500 E0.70678
G1 F900 X75.956 Y58.648 E0.85852
G1 X75.958 Y61.439 E1.01169
G1 X76.037 Y64.113 E1.1585
G1 X75.777 Y63.647 E1.18779
G1 X75.255 Y62.844 E1.24035
G1 X74.783 Y62.257 E1.28168
G1 X74.758 Y61.476 E1.32457
G1 X74.756 Y58.647 E1.47982
G1 X74.782 Y57.744 E1.5294
G1 X75.346 Y57.029 E1.57937
G1 X75.777 Y56.35 E1.62351
G0 F810 X75.84 Y56.251
G0 X76.033 Y55.884
G0 F900 X76.434 Y55.875
G1 X76.356 Y58.653 E1.77602
G1 X76.358 Y61.433 E1.92859
G1 X76.44 Y64.213 E2.08122
G1 X76.599 Y66.913 E2.22965
G1 X76.645 Y67.552 E2.26481
G1 X76.561 Y66.933 E2.29909
G1 X76.438 Y66.331 E2.33281
G1 X76.19 Y65.491 E2.38088
G1 X75.844 Y64.63 E2.4318
G1 X75.669 Y64.271 E2.45372
G1 X75.276 Y63.593 E2.49672
G1 X74.93 Y63.078 E2.53077
G1 X74.387 Y62.412 E2.57793
G1 X74.358 Y61.476 E2.62932
G1 X74.356 Y58.636 E2.78518
G1 X74.386 Y57.592 E2.8425
G1 X74.646 Y57.285 E2.86458
G1 X75.021 Y56.795 E2.89844
G1 X75.492 Y56.053 E2.94667
G1 X75.915 Y55.212 E2.99833
G1 X76.222 Y54.413 E3.04531
G1 X76.476 Y53.508 E3.09689
G1 X76.625 Y52.655 E3.14441
G1 X76.465 Y55.344 E3.29224
G0 F810 X76.434 Y55.875
G0 F900 X76.834 Y55.892
G1 X76.756 Y58.658 E3.4441
G1 X76.758 Y61.427 E3.59606
G1 X76.84 Y64.195 E3.74803
G1 X76.998 Y66.887 E3.89602
G1 X77.071 Y67.89 E3.95121
G1 X77.09 Y68.812 E4.00182
G1 X77.1 Y72.772 E4.21914
G1 X77.1 Y82.858 E4.77265
G1 X77.09 Y83.58 E4.81228
G1 X77.044 Y84.417 E4.85828
G1 X76.952 Y85.11 E4.89665
G1 X76.828 Y85.726 E4.93113
G1 X76.677 Y86.275 E4.96238
G1 X76.458 Y86.915 E4.9995
G1 X76.208 Y87.515 E5.03517
G1 X75.95 Y88.03 E5.06678
G1 X75.657 Y88.537 E5.09892
G1 X75.313 Y89.059 E5.13323
G1 X74.905 Y89.588 E5.16989
G1 X74.597 Y89.948 E5.19589
G1 X74.229 Y90.33 E5.225
G1 X73.887 Y90.652 E5.25078
G1 X73.458 Y91.014 E5.28158
G1 X72.739 Y91.525 E5.32999
G1 X72.114 Y91.903 E5.37008
G1 X71.466 Y92.229 E5.40989
G1 X70.858 Y92.479 E5.44596
G1 X70.078 Y92.738 E5.49107
G1 X69.455 Y92.884 E5.52618
G1 X68.897 Y92.984 E5.55729
G1 X68.236 Y93.061 E5.59381
G1 X67.126 Y93.09 E5.65475
G1 X61.553 Y93.1 E5.96059
G1 X48.189 Y93.1 E6.694
G1 X47.422 Y93.089 E6.7361
G1 X46.941 Y93.051 E6.76257
G1 X46.391 Y92.943 E6.79333
G1 X45.907 Y92.788 E6.82122
G1 X45.445 Y92.581 E6.84901
G1 X44.987 Y92.311 E6.87818
G1 X44.537 Y91.967 E6.90927
G1 X44.188 Y91.63 E6.93589
G1 X43.869 Y91.247 E6.96325
G1 X43.587 Y90.823 E6.99119
G1 X43.352 Y90.366 E7.0194
G1 X43.159 Y89.853 E7.04947
G1 X43.03 Y89.322 E7.07946
G1 X42.964 Y88.796 E7.10856
G1 X42.946 Y88.257 E7.13815
G1 X42.945 Y73.497 E7.94817
G1 X42.939 Y64.122 E8.46266
G1 X42.958 Y62.825 E8.53385
G1 X43.004 Y61.161 E8.6252
G1 X42.971 Y57.101 E8.84802
G1 X42.946 Y56.261 E8.89414
G1 X42.939 Y46.566 E9.42619
G1 X42.946 Y32.168 E10.21634
G1 X42.957 Y31.397 E10.25866
G1 X43.002 Y30.853 E10.28862
G1 X43.102 Y30.352 E10.31665
G1 X43.262 Y29.851 E10.34552
G1 X43.48 Y29.369 E10.37455
G1 X43.754 Y28.914 E10.4037
G1 X44.061 Y28.513 E10.43141
G1 X44.429 Y28.13 E10.46056
G1 X44.82 Y27.807 E10.48839
G1 X45.225 Y27.539 E10.51504
G1 X45.72 Y27.289 E10.54548
G1 X46.187 Y27.116 E10.57281
G1 X46.71 Y26.986 E10.60238
G1 X47.214 Y26.922 E10.63026
G1 X47.821 Y26.9 E10.6636
G1 X66.857 Y26.9 E11.70828
G1 X67.524 Y26.91 E11.74489
G1 X68.648 Y26.997 E11.80676
G1 X69.189 Y27.062 E11.83666
G1 X69.776 Y27.186 E11.86958
G1 X70.288 Y27.327 E11.89873
G1 X70.905 Y27.538 E11.93451
G1 X71.518 Y27.793 E11.97095
G1 X72.028 Y28.049 E12.00227
G1 X72.542 Y28.346 E12.03484
G1 X73.07 Y28.695 E12.06958
G1 X73.567 Y29.078 E12.10401
G1 X73.953 Y29.408 E12.13188
G1 X74.331 Y29.772 E12.16068
G1 X74.652 Y30.113 E12.18638
G1 X75.016 Y30.544 E12.21734
G1 X75.526 Y31.262 E12.26567
G1 X75.9 Y31.88 E12.30532
G1 X76.219 Y32.51 E12.34407
G1 X76.476 Y33.133 E12.38105
G1 X76.738 Y33.922 E12.42668
G1 X76.882 Y34.532 E12.46107
G1 X76.984 Y35.103 E12.49291
G1 X77.061 Y35.757 E12.52905
G1 X77.09 Y36.812 E12.58697
G1 X77.1 Y40.772 E12.80429
G1 X77.1 Y50.858 E13.3578
G1 X77.09 Y51.58 E13.39743
G1 X77.068 Y52.082 E13.425
G1 X76.993 Y53.131 E13.48272
G1 X76.864 Y55.361 E13.6053
G0 F810 X76.834 Y55.892
G0 F900 X77.234 Y55.909
G1 X77.156 Y58.664 E13.75656
G1 X77.158 Y61.421 E13.90786
G1 X77.24 Y64.177 E14.05917
G1 X77.397 Y66.861 E14.20672
G1 X77.471 Y67.873 E14.26241
G1 X77.49 Y68.811 E14.31389
G1 X77.5 Y72.772 E14.53127
G1 X77.5 Y82.863 E15.08506
G1 X77.49 Y83.598 E15.1254
G1 X77.443 Y84.45 E15.17222
G1 X77.346 Y85.176 E15.21242
G1 X77.216 Y85.823 E15.24864
G1 X77.059 Y86.394 E15.28114
G1 X76.837 Y87.044 E15.31883
G1 X76.576 Y87.672 E15.35615
G1 X76.297 Y88.23 E15.39039
G1 X75.997 Y88.748 E15.42324
G1 X75.634 Y89.298 E15.45941
G1 X75.221 Y89.834 E15.49654
G1 X74.893 Y90.216 E15.52417
G1 X74.51 Y90.614 E15.55448
G1 X74.145 Y90.958 E15.58201
G1 X73.716 Y91.32 E15.61281
G1 X72.958 Y91.86 E15.66389
G1 X72.31 Y92.252 E15.70545
G1 X71.635 Y92.592 E15.74693
G1 X71.008 Y92.85 E15.78414
G1 X70.527 Y93.018 E15.8121
G1 X69.89 Y93.199 E15.84844
G1 X69.122 Y93.354 E15.89144
G1 X68.587 Y93.428 E15.92108
G1 X67.999 Y93.476 E15.95345
G1 X67.132 Y93.49 E16.00104
G1 X61.554 Y93.5 E16.30716
G1 X48.183 Y93.5 E17.04095
G1 X47.406 Y93.489 E17.08359
G1 X46.885 Y93.447 E17.11228
G1 X46.297 Y93.332 E17.14516
G1 X45.759 Y93.16 E17.17615
G1 X45.254 Y92.933 E17.20654
G1 X44.768 Y92.646 E17.23751
G1 X44.281 Y92.274 E17.27115
G1 X43.892 Y91.899 E17.3008
G1 X43.549 Y91.487 E17.33022
G1 X43.243 Y91.028 E17.36049
G1 X42.987 Y90.529 E17.39127
G1 X42.778 Y89.975 E17.42377
G1 X42.638 Y89.401 E17.45619
G1 X42.566 Y88.832 E17.48766
G1 X42.546 Y88.257 E17.51924
G1 X42.545 Y73.497 E18.32926
G1 X42.539 Y64.116 E18.84408
G1 X42.558 Y62.814 E18.91554
G1 X42.604 Y61.157 E19.00651
G1 X42.571 Y57.109 E19.22867
G1 X42.546 Y56.261 E19.27523
G1 X42.539 Y46.566 E19.80728
G1 X42.546 Y32.162 E20.59776
G1 X42.557 Y31.381 E20.64062
G1 X42.605 Y30.802 E20.67251
G1 X42.716 Y30.245 E20.70368
G1 X42.891 Y29.701 E20.73504
G1 X43.129 Y29.178 E20.76657
G1 X43.426 Y28.684 E20.79821
G1 X43.76 Y28.249 E20.8283
G1 X44.16 Y27.834 E20.85993
G1 X44.584 Y27.484 E20.89011
G1 X45.031 Y27.189 E20.9195
G1 X45.555 Y26.924 E20.95172
G1 X46.064 Y26.735 E20.98152
G1 X46.642 Y26.592 E21.0142
G1 X47.181 Y26.523 E21.04402
G1 X47.809 Y26.5 E21.07851
G1 X66.863 Y26.5 E22.12417
G1 X67.545 Y26.51 E22.16161
G1 X68.692 Y26.599 E22.22474
G1 X69.254 Y26.667 E22.25581
G1 X69.875 Y26.798 E22.29064
G1 X70.394 Y26.941 E22.32018
G1 X71.046 Y27.164 E22.358
G1 X71.68 Y27.427 E22.39567
G1 X72.23 Y27.703 E22.42944
G1 X72.753 Y28.006 E22.46261
G1 X73.307 Y28.373 E22.49908
G1 X73.823 Y28.77 E22.53481
G1 X74.216 Y29.107 E22.56322
G1 X74.615 Y29.491 E22.59361
G1 X74.958 Y29.855 E22.62106
G1 X75.33 Y30.296 E22.65272
G1 X75.86 Y31.042 E22.70294
G1 X76.252 Y31.69 E22.7445
G1 X76.585 Y32.349 E22.78502
G1 X76.85 Y32.992 E22.82319
G1 X77.018 Y33.473 E22.85115
G1 X77.199 Y34.11 E22.88749
G1 X77.354 Y34.878 E22.93049
G1 X77.428 Y35.413 E22.96013
G1 X77.478 Y36.034 E22.99432
G1 X77.49 Y36.811 E23.03696
G1 X77.5 Y40.772 E23.25434
G1 X77.5 Y50.863 E23.80813
G1 X77.49 Y51.598 E23.84847
G1 X77.468 Y52.1 E23.87604
G1 X77.392 Y53.157 E23.9342
G1 X77.264 Y55.378 E24.05629
G0 F810 X77.234 Y55.909
G0 F900 X75.144 Y55.856
G1 X75.55 Y55.047 E24.10596
G1 X75.843 Y54.285 E24.15077
G1 X76.086 Y53.417 E24.20023
G1 X76.228 Y52.604 E24.24553
G1 X76.295 Y51.707 E24.29489
G1 X76.3 Y40.992 E24.88292
G1 X76.289 Y36.141 E25.14914
G1 X76.267 Y35.758 E25.17019
G1 X76.167 Y35.004 E25.21194
G1 X76.048 Y34.422 E25.24454
G1 X75.812 Y33.622 E25.29031
G1 X75.479 Y32.795 E25.33924
G1 X75.087 Y32.051 E25.38539
G1 X74.605 Y31.312 E25.43381
G1 X74.351 Y30.982 E25.45666
G1 X73.958 Y30.53 E25.48953
G1 X73.3 Y29.889 E25.53994
G1 X72.561 Y29.304 E25.59167
G1 X71.856 Y28.856 E25.63751
G1 X71.049 Y28.453 E25.68701
G1 X70.288 Y28.157 E25.73182
G1 X69.41 Y27.912 E25.78185
G1 X68.88 Y27.816 E25.81141
G1 X67.85 Y27.716 E25.8682
G1 X67.519 Y27.7 E25.88638
G1 X47.152 Y27.719 E27.00411
G1 X46.554 Y27.83 E27.03749
G1 X45.972 Y28.039 E27.07142
G1 X45.43 Y28.341 E27.10547
G1 X44.944 Y28.726 E27.1395
G1 X44.527 Y29.187 E27.17361
G1 X44.192 Y29.709 E27.20765
G1 X43.945 Y30.278 E27.24169
G1 X43.794 Y30.881 E27.27581
G1 X43.746 Y31.467 E27.30808
G1 X43.739 Y46.495 E28.1328
G1 X43.746 Y56.522 E28.68307
G1 X43.765 Y56.896 E28.70363
G1 X43.876 Y57.493 E28.73695
G1 X44.086 Y58.075 E28.77091
G1 X44.386 Y58.617 E28.8049
G1 X44.775 Y59.104 E28.83911
G1 X45.234 Y59.52 E28.8731
G1 X45.756 Y59.855 E28.90714
G1 X45.793 Y59.871 E28.90936
G1 X45.796 Y60.132 E28.92368
G1 X45.422 Y60.339 E28.94714
G1 X44.935 Y60.728 E28.98134
G1 X44.519 Y61.187 E29.01534
G1 X44.184 Y61.709 E29.04938
G1 X43.938 Y62.278 E29.0834
G1 X43.787 Y62.881 E29.11751
G1 X43.739 Y63.467 E29.14978
G1 X43.745 Y73.496 E29.70016
G1 X43.746 Y88.52 E30.52467
G1 X43.765 Y88.896 E30.54533
G1 X43.876 Y89.493 E30.57865
G1 X44.086 Y90.075 E30.61261
G1 X44.386 Y90.617 E30.64661
G1 X44.775 Y91.104 E30.68081
G1 X45.234 Y91.52 E30.71481
G1 X45.756 Y91.855 E30.74885
G1 X46.325 Y92.101 E30.78287
G1 X46.928 Y92.252 E30.81698
G1 X47.514 Y92.3 E30.84925
G1 X61.551 Y92.3 E31.61959
G1 X67.855 Y92.289 E31.96555
G1 X68.24 Y92.267 E31.98671
G1 X68.99 Y92.168 E32.02823
G1 X69.576 Y92.049 E32.06104
G1 X70.378 Y91.812 E32.10694
G1 X71.205 Y91.479 E32.15586
G1 X71.949 Y91.087 E32.20201
G1 X72.688 Y90.605 E32.25043
G1 X73.018 Y90.351 E32.27329
G1 X73.47 Y89.958 E32.30616
G1 X74.111 Y89.3 E32.35657
G1 X74.696 Y88.561 E32.40829
G1 X75.144 Y87.856 E32.45413
G1 X75.55 Y87.047 E32.50381
G1 X75.843 Y86.285 E32.54861
G1 X76.086 Y85.417 E32.59808
G1 X76.228 Y84.604 E32.64337
G1 X76.295 Y83.707 E32.69273
G1 X76.3 Y72.992 E33.28077
G1 X76.289 Y68.141 E33.54699
G1 X76.267 Y67.758 E33.56804
G1 X76.167 Y67.004 E33.60978
G1 X76.048 Y66.422 E33.64238
G1 X75.812 Y65.622 E33.68815
G1 X75.479 Y64.795 E33.73708
G1 X75.087 Y64.051 E33.78323
G1 X74.605 Y63.312 E33.83165
G1 X74.351 Y62.982 E33.8545
G1 X73.991 Y62.566 E33.8847
G1 X73.958 Y61.476 E33.94454
G1 X73.956 Y58.625 E34.101
G1 X73.99 Y57.429 E34.16666
G1 X74.334 Y57.035 E34.19537
G1 X74.696 Y56.561 E34.2281
G1 X74.859 Y56.305 E34.24475
G0 F810 X75.144 Y55.856
G0 F900 X74.796 Y55.658
G1 X75.185 Y54.882 E34.29239
G1 X75.464 Y54.158 E34.33497
G1 X75.696 Y53.326 E34.38237
G1 X75.831 Y52.553 E34.42544
G1 X75.895 Y51.69 E34.47293
G1 X75.9 Y40.992 E35.06003
G1 X75.889 Y36.153 E35.32559
G1 X75.816 Y35.35 E35.36984
G1 X75.658 Y34.513 E35.41658
G1 X75.434 Y33.753 E35.46007
G1 X75.114 Y32.96 E35.50699
G1 X74.742 Y32.253 E35.55084
G1 X74.28 Y31.546 E35.59719
G1 X74.041 Y31.235 E35.61871
G1 X73.663 Y30.8 E35.65034
G1 X73.034 Y30.188 E35.6985
G1 X72.327 Y29.629 E35.74796
G1 X71.658 Y29.204 E35.79146
G1 X70.884 Y28.817 E35.83895
G1 X70.16 Y28.536 E35.88157
G1 X69.324 Y28.303 E35.9292
G1 X68.825 Y28.213 E35.95702
G1 X67.821 Y28.115 E36.01238
G1 X67.509 Y28.1 E36.02953
G1 X47.199 Y28.117 E37.14412
G1 X46.659 Y28.217 E37.17426
G1 X46.138 Y28.404 E37.20464
G1 X45.653 Y28.675 E37.23513
G1 X45.218 Y29.019 E37.26556
G1 X44.846 Y29.431 E37.29603
G1 X44.546 Y29.898 E37.32649
G1 X44.325 Y30.407 E37.35694
G1 X44.19 Y30.946 E37.38743
G1 X44.146 Y31.483 E37.417
G1 X44.139 Y46.495 E38.24085
G1 X44.146 Y56.512 E38.79058
G1 X44.163 Y56.849 E38.80909
G1 X44.263 Y57.388 E38.83918
G1 X44.451 Y57.909 E38.86957
G1 X44.72 Y58.394 E38.90001
G1 X45.067 Y58.829 E38.93055
G1 X45.478 Y59.201 E38.96097
G1 X45.945 Y59.501 E38.99143
G1 X46.191 Y59.608 E39.00615
G1 X46.198 Y60.38 E39.04852
G1 X45.645 Y60.673 E39.08287
G1 X45.21 Y61.02 E39.1134
G1 X44.838 Y61.431 E39.14383
G1 X44.538 Y61.898 E39.17429
G1 X44.318 Y62.407 E39.20472
G1 X44.183 Y62.946 E39.23521
G1 X44.139 Y63.483 E39.26478
G1 X44.145 Y73.496 E39.81429
G1 X44.146 Y88.51 E40.63824
G1 X44.163 Y88.849 E40.65687
G1 X44.263 Y89.388 E40.68696
G1 X44.451 Y89.909 E40.71735
G1 X44.72 Y90.394 E40.74779
G1 X45.067 Y90.829 E40.77833
G1 X45.478 Y91.201 E40.80875
G1 X45.945 Y91.501 E40.83921
G1 X46.454 Y91.721 E40.86964
G1 X46.993 Y91.856 E40.90013
G1 X47.53 Y91.9 E40.9297
G1 X61.551 Y91.9 E41.69917
G1 X67.843 Y91.889 E42.04447
G1 X68.648 Y91.816 E42.08882
G1 X69.485 Y91.659 E42.13556
G1 X70.247 Y91.434 E42.17916
G1 X71.04 Y91.114 E42.22609
G1 X71.747 Y90.742 E42.26993
G1 X72.454 Y90.28 E42.31628
G1 X72.765 Y90.041 E42.33781
G1 X73.2 Y89.663 E42.36944
G1 X73.812 Y89.034 E42.4176
G1 X74.371 Y88.327 E42.46706
G1 X74.796 Y87.658 E42.51056
G1 X75.185 Y86.882 E42.55819
G1 X75.464 Y86.158 E42.60077
G1 X75.696 Y85.326 E42.64818
G1 X75.831 Y84.553 E42.69124
G1 X75.895 Y83.69 E42.73873
G1 X75.9 Y72.992 E43.32583
G1 X75.889 Y68.153 E43.59139
G1 X75.816 Y67.35 E43.63564
G1 X75.658 Y66.513 E43.68238
G1 X75.434 Y65.753 E43.72587
G1 X75.114 Y64.96 E43.77279
G1 X74.742 Y64.253 E43.81664
G1 X74.28 Y63.546 E43.86299
G1 X74.041 Y63.235 E43.88451
G1 X73.663 Y62.8 E43.91614
G1 X73.595 Y62.73 E43.92149
G1 X73.558 Y61.476 E43.99034
G1 X73.556 Y58.614 E44.14741
G1 X73.594 Y57.267 E44.22136
G1 X74.022 Y56.785 E44.25673
G1 X74.371 Y56.327 E44.28833
G1 X74.511 Y56.107 E44.30264
G0 F810 X74.796 Y55.658
G0 F900 X74.578 Y55.218
G1 X74.229 Y55.824 E44.34102
G1 X73.71 Y56.535 E44.38933
G1 X73.154 Y57.152 E44.43491
G1 X72.512 Y57.731 E44.48236
G1 X72.22 Y57.955 E44.50255
G1 X71.758 Y58.266 E44.53312
G1 X71.174 Y58.604 E44.57015
G1 X70.364 Y58.964 E44.61879
G1 X69.71 Y59.186 E44.65669
G1 X68.849 Y59.38 E44.70513
G1 X68.17 Y59.469 E44.74271
G1 X67.831 Y59.489 E44.76135
G1 X61.55 Y59.5 E45.10604
G1 X47.546 Y59.5 E45.87457
G1 X47.058 Y59.46 E45.90144
G1 X46.583 Y59.341 E45.92832
G1 X46.134 Y59.147 E45.95516
G1 X45.722 Y58.882 E45.98204
G1 X45.359 Y58.554 E46.00889
G1 X45.054 Y58.171 E46.03576
G1 X44.816 Y57.743 E46.06264
G1 X44.65 Y57.283 E46.08947
G1 X44.561 Y56.802 E46.11632
G1 X44.546 Y56.502 E46.1328
G1 X44.539 Y46.498 E46.68182
G1 X44.546 Y31.499 E47.50495
G1 X44.586 Y31.011 E47.53182
G1 X44.705 Y30.536 E47.55869
G1 X44.9 Y30.087 E47.58556
G1 X45.165 Y29.675 E47.61244
G1 X45.493 Y29.312 E47.63929
G1 X45.876 Y29.008 E47.66613
G1 X46.304 Y28.769 E47.69303
G1 X46.764 Y28.604 E47.71985
G1 X47.246 Y28.515 E47.74675
G1 X47.546 Y28.5 E47.76323
G1 X67.499 Y28.5 E48.85824
G1 X68.77 Y28.61 E48.92825
G1 X69.238 Y28.694 E48.95434
G1 X69.772 Y28.834 E48.98464
G1 X70.436 Y29.061 E49.02315
G1 X71.218 Y29.422 E49.07042
G1 X71.824 Y29.771 E49.10879
G1 X72.535 Y30.29 E49.1571
G1 X73.152 Y30.846 E49.20268
G1 X73.731 Y31.488 E49.25013
G1 X73.955 Y31.78 E49.27032
G1 X74.266 Y32.242 E49.30089
G1 X74.604 Y32.826 E49.33792
G1 X74.964 Y33.636 E49.38656
G1 X75.186 Y34.29 E49.42446
G1 X75.379 Y35.147 E49.47267
G1 X75.469 Y35.828 E49.51037
G1 X75.489 Y36.165 E49.5289
G1 X75.5 Y40.993 E49.79386
G1 X75.5 Y51.5 E50.37047
G1 X75.463 Y52.226 E50.41037
G1 X75.37 Y52.925 E50.44906
G1 X75.166 Y53.77 E50.49677
G1 X74.94 Y54.432 E50.53516
G1 X74.8 Y54.735 E50.55348
G0 F810 X74.578 Y55.218
G0 F900 X74.218 Y55.044
G1 X73.886 Y55.617 E50.58982
G1 X73.392 Y56.292 E50.63572
G1 X72.862 Y56.879 E50.67913
G1 X72.25 Y57.429 E50.72428
G1 X71.535 Y57.934 E50.77232
G1 X70.979 Y58.254 E50.80753
G1 X70.209 Y58.596 E50.85376
G1 X69.588 Y58.805 E50.88972
G1 X68.769 Y58.988 E50.93578
G1 X68.124 Y59.072 E50.97147
G1 X67.831 Y59.089 E50.98758
G1 X61.55 Y59.1 E51.33228
G1 X47.546 Y59.1 E52.1008
G1 X47.092 Y59.06 E52.12582
G1 X46.652 Y58.942 E52.15082
G1 X46.24 Y58.748 E52.17581
G1 X45.867 Y58.485 E52.20085
G1 X45.546 Y58.162 E52.22585
