;FLAVOR:Marlin
;TIME:9632
;Filament used: 11.304m
;Layer height: 0.12
;MINX:37.6
;MINY:30.904
;MINZ:0.3
;MAXX:82.4
;MAXY:89.1
;MAXZ:62.21
;Generated with Cura_SteamEngine 4.6.1
M104 S210
M105
M109 S210
M82 ;absolute extrusion mode
;Sliced at: Thu 28-05-2020 12:23:18
G21 ;metric values
G90 ;absolute positioning
M82 ;set extruder to absolute mode
M107 ;start with the fan off
G1 Z5.0 F1800 ;move Z to 5mm
G28 X0 Y0 F1800 ;move X/Y to min endstops
G28 Z0 ;move Z to min endstop
G92 E0 ;zero the extruded length
G1 F200 E6.0 ;extrude 6.0mm of feed stock to build pressure
G1 Z5.0 F300 ;move the platform down 5mm
G92 E0 ;zero the extruded length again
G1 F1800
;Put printing message on LCD screen
M117 Printing...
G92 E0
G92 E0
G1 F1500 E-5
;LAYER_COUNT:285
;LAYER:0
M107
G0 F900 X65.678 Y31.73 Z0.3
;TYPE:SKIRT
G1 F1500 E0.70678
G1 F900 X66.448 Y31.805 E0.74923
G1 X67.368 Y32.002 E0.80087
G1 X68.063 Y32.215 E0.84076
G1 X68.482 Y32.38 E0.86547
G1 X69.023 Y32.642 E0.89846
G1 X69.583 Y32.952 E0.93359
G1 X70.017 Y33.242 E0.96223
G1 X70.553 Y33.657 E0.99944
G1 X70.778 Y33.842 E1.01542
G1 X71.195 Y34.241 E1.04709
G1 X71.584 Y34.662 E1.07855
G1 X72.129 Y35.381 E1.12806
G1 X72.304 Y35.639 E1.14517
G1 X72.686 Y36.333 E1.18865
G1 X73.291 Y37.65 E1.26818
G1 X73.754 Y38.626 E1.32747
G1 X74.535 Y40.3 E1.42884
G1 X75.799 Y42.818 E1.58346
G1 X77.134 Y45.299 E1.73808
G1 X78.539 Y47.741 E1.89269
G1 X79.584 Y49.462 E2.00318
G1 X80.096 Y50.264 E2.0554
G1 X80.818 Y51.437 E2.13099
G1 X81.063 Y51.901 E2.15979
G1 X81.331 Y52.583 E2.2
G1 X81.46 Y53.08 E2.22818
G1 X81.553 Y53.636 E2.25912
G1 X81.593 Y54.385 E2.30028
G1 X81.6 Y81.958 E3.81347
G1 X81.589 Y82.766 E3.85781
G1 X81.553 Y83.397 E3.8925
G1 X81.485 Y83.899 E3.9203
G1 X81.355 Y84.441 E3.95089
G1 X81.22 Y84.84 E3.974
G1 X80.991 Y85.349 E4.00463
G1 X80.701 Y85.847 E4.03626
G1 X80.357 Y86.314 E4.06809
G1 X79.887 Y86.82 E4.10599
G1 X79.358 Y87.257 E4.14365
G1 X78.798 Y87.611 E4.18
G1 X78.317 Y87.842 E4.20929
G1 X77.806 Y88.033 E4.23923
G1 X77.126 Y88.199 E4.27764
G1 X76.783 Y88.244 E4.29662
G1 X76.218 Y88.284 E4.32771
G1 X75.216 Y88.3 E4.3827
G1 X49.875 Y88.3 E5.7734
G1 X48.906 Y88.29 E5.82658
G1 X48.115 Y88.273 E5.87
G1 X47.016 Y88.189 E5.93049
G1 X46.547 Y88.115 E5.95654
G1 X45.644 Y87.919 E6.00725
G1 X44.648 Y87.68 E6.06346
G1 X43.414 Y87.372 E6.13326
G1 X42.172 Y87.028 E6.20399
G1 X41.848 Y86.915 E6.22282
G1 X41.387 Y86.711 E6.25049
G1 X40.979 Y86.486 E6.27606
G1 X40.555 Y86.197 E6.30422
G1 X40.069 Y85.779 E6.3394
G1 X39.606 Y85.271 E6.37712
G1 X39.306 Y84.864 E6.40486
G1 X39.044 Y84.421 E6.43311
G1 X38.857 Y84.027 E6.45704
G1 X38.616 Y83.336 E6.4972
G1 X38.521 Y82.936 E6.51977
G1 X38.458 Y82.548 E6.54134
G1 X38.418 Y82.035 E6.56958
G1 X38.402 Y81.367 E6.60625
G1 X38.4 Y38.964 E8.93329
G1 X38.418 Y38.017 E8.98527
G1 X38.445 Y37.569 E9.0099
G1 X38.566 Y36.854 E9.0497
G1 X38.745 Y36.254 E9.08406
G1 X39.04 Y35.592 E9.12383
G1 X39.345 Y35.081 E9.15649
G1 X39.728 Y34.58 E9.1911
G1 X40.132 Y34.159 E9.22312
G1 X40.642 Y33.742 E9.25928
G1 X41.167 Y33.405 E9.29351
G1 X41.63 Y33.176 E9.32186
G1 X42.151 Y32.976 E9.35249
G1 X42.874 Y32.766 E9.3938
G1 X43.407 Y32.63 E9.42399
G1 X45.109 Y32.206 E9.52025
G1 X45.87 Y32.026 E9.56317
G1 X46.867 Y31.836 E9.61886
G1 X47.68 Y31.745 E9.66376
G1 X49.004 Y31.705 E9.73645
G1 X49.55 Y31.7 E9.76642
G1 X64.775 Y31.704 E10.60195
G1 X65.146 Y31.715 E10.62232
G0 F810 X65.678 Y31.73
G0 F900 X64.778 Y31.304
G1 X65.689 Y31.33 E10.67234
G1 X66.493 Y31.408 E10.71667
G1 X67.453 Y31.611 E10.77052
G1 X68.19 Y31.835 E10.81279
G1 X68.657 Y32.02 E10.84036
G1 X69.198 Y32.282 E10.87335
G1 X69.602 Y32.495 E10.89841
G1 X70.215 Y32.892 E10.93849
G1 X70.798 Y33.34 E10.97884
G1 X71.054 Y33.552 E10.99708
G1 X71.47 Y33.95 E11.02868
G1 X71.879 Y34.392 E11.06172
G1 X72.45 Y35.142 E11.11345
G1 X72.651 Y35.44 E11.13318
G1 X73.039 Y36.147 E11.17744
G1 X73.655 Y37.483 E11.25818
G1 X74.115 Y38.454 E11.31714
G1 X74.893 Y40.12 E11.41805
G1 X76.152 Y42.628 E11.57205
G1 X77.492 Y45.119 E11.72728
G1 X78.881 Y47.534 E11.88017
G1 X79.928 Y49.258 E11.99087
G1 X80.432 Y50.048 E12.04229
G1 X81.158 Y51.228 E12.11832
G1 X81.424 Y51.729 E12.14945
G1 X81.706 Y52.443 E12.19158
G1 X81.844 Y52.964 E12.22116
G1 X81.95 Y53.587 E12.25584
G1 X81.992 Y54.368 E12.29877
G1 X82 Y81.96 E13.81299
G1 X81.989 Y82.775 E13.85772
G1 X81.953 Y83.419 E13.89312
G1 X81.881 Y83.954 E13.92275
G1 X81.74 Y84.55 E13.95636
G1 X81.589 Y84.993 E13.98204
G1 X81.351 Y85.524 E14.01398
G1 X81.039 Y86.061 E14.04806
G1 X80.833 Y86.36 E14.06799
G1 X80.347 Y86.925 E14.10888
G1 X79.939 Y87.308 E14.1396
G1 X79.539 Y87.62 E14.16744
G1 X78.999 Y87.958 E14.2024
G1 X78.486 Y88.204 E14.23362
G1 X77.934 Y88.412 E14.26599
G1 X77.675 Y88.489 E14.28082
G1 X77.144 Y88.601 E14.3106
G1 X76.246 Y88.683 E14.36009
G1 X75.222 Y88.7 E14.41629
G1 X49.871 Y88.7 E15.80754
G1 X48.902 Y88.69 E15.86072
G1 X48.107 Y88.673 E15.90436
G1 X46.98 Y88.588 E15.96638
G1 X46.462 Y88.506 E15.99516
G1 X45.559 Y88.31 E16.04587
G1 X44.554 Y88.069 E16.10259
G1 X43.317 Y87.76 E16.17256
G1 X42.062 Y87.412 E16.24403
G1 X41.686 Y87.281 E16.26588
G1 X41.206 Y87.068 E16.2947
G1 X40.758 Y86.819 E16.32283
G1 X40.317 Y86.518 E16.35213
G1 X39.803 Y86.078 E16.38926
G1 X39.302 Y85.531 E16.42997
G1 X38.98 Y85.095 E16.45972
G1 X38.696 Y84.617 E16.49023
G1 X38.482 Y84.168 E16.51753
G1 X38.234 Y83.456 E16.5589
G1 X38.127 Y83.001 E16.58455
G1 X38.06 Y82.579 E16.608
G1 X38.018 Y82.044 E16.63745
G1 X38.002 Y81.376 E16.67412
G1 X38 Y38.961 E19.00183
G1 X38.018 Y38.006 E19.05425
G1 X38.049 Y37.512 E19.08141
G1 X38.174 Y36.774 E19.12249
G1 X38.364 Y36.131 E19.15928
G1 X38.558 Y35.667 E19.18688
G1 X38.827 Y35.153 E19.21872
G1 X39.103 Y34.726 E19.24662
G1 X39.417 Y34.328 E19.27444
G1 X39.851 Y33.874 E19.30891
G1 X40.396 Y33.427 E19.34759
G1 X40.835 Y33.135 E19.37653
G1 X41.308 Y32.884 E19.40591
G1 X41.814 Y32.67 E19.43606
G1 X42.398 Y32.483 E19.46972
G1 X43.309 Y32.243 E19.52142
G1 X45.012 Y31.818 E19.61774
G1 X45.778 Y31.636 E19.66095
G1 X46.796 Y31.443 E19.71781
G1 X47.643 Y31.346 E19.7646
G1 X49.006 Y31.305 E19.83943
G1 X64.246 Y31.304 E20.67579
G0 F810 X64.778 Y31.304
G0 F900 X64.781 Y30.904
G1 X65.701 Y30.931 E20.7263
G1 X66.537 Y31.01 E20.77239
G1 X67.537 Y31.22 E20.82846
G1 X68.003 Y31.351 E20.85503
G1 X68.7 Y31.603 E20.8957
G1 X69.372 Y31.922 E20.93653
G1 X69.812 Y32.154 E20.96382
G1 X70.436 Y32.558 E21.00462
G1 X71.043 Y33.024 E21.04662
G1 X71.329 Y33.262 E21.06703
G1 X71.753 Y33.667 E21.09921
G1 X72.174 Y34.121 E21.13319
G1 X72.77 Y34.902 E21.18711
G1 X72.998 Y35.241 E21.20953
G1 X73.393 Y35.96 E21.25455
G1 X73.615 Y36.416 E21.28238
G1 X74.018 Y37.316 E21.3365
G1 X74.476 Y38.281 E21.39512
G1 X75.264 Y39.969 E21.49735
G1 X76.504 Y42.439 E21.64903
G1 X77.84 Y44.923 E21.80381
G1 X79.223 Y47.326 E21.95597
G1 X80.263 Y49.039 E22.06594
G1 X80.769 Y49.832 E22.11757
G1 X81.499 Y51.018 E22.194
G1 X81.739 Y51.462 E22.2217
G1 X81.908 Y51.843 E22.24457
G1 X82.111 Y52.396 E22.2769
G1 X82.246 Y52.932 E22.30723
G1 X82.347 Y53.537 E22.34089
G1 X82.392 Y54.351 E22.38563
G1 X82.4 Y81.963 E23.90096
G1 X82.389 Y82.785 E23.94607
G1 X82.352 Y83.442 E23.98219
G1 X82.278 Y84.008 E24.01351
G1 X82.165 Y84.516 E24.04207
G1 X81.983 Y85.083 E24.07475
G1 X81.71 Y85.698 E24.11168
G1 X81.484 Y86.106 E24.13727
G1 X81.192 Y86.547 E24.1663
G1 X80.939 Y86.864 E24.18856
G1 X80.597 Y87.242 E24.21653
G1 X80.204 Y87.608 E24.24601
G1 X79.76 Y87.954 E24.2769
G1 X79.199 Y88.304 E24.31318
G1 X78.655 Y88.567 E24.34634
G1 X78.062 Y88.791 E24.38113
G1 X77.76 Y88.88 E24.39841
G1 X77.195 Y88.998 E24.43009
G1 X76.275 Y89.082 E24.48079
G1 X75.228 Y89.1 E24.53825
G1 X49.867 Y89.1 E25.93004
G1 X48.898 Y89.09 E25.98323
G1 X48.098 Y89.073 E26.02714
G1 X47.683 Y89.054 E26.04994
G1 X46.943 Y88.986 E26.09072
G1 X46.443 Y88.909 E26.11848
G1 X45.474 Y88.701 E26.17287
G1 X44.461 Y88.458 E26.23004
G1 X43.22 Y88.148 E26.30024
G1 X41.953 Y87.797 E26.37239
G1 X41.525 Y87.647 E26.39728
G1 X41.026 Y87.425 E26.42725
G1 X40.536 Y87.152 E26.45803
G1 X40.117 Y86.868 E26.48581
G1 X39.537 Y86.377 E26.52752
G1 X39.175 Y85.997 E26.55632
G1 X38.844 Y85.596 E26.58485
G1 X38.584 Y85.219 E26.60999
G1 X38.31 Y84.742 E26.64018
G1 X38.108 Y84.309 E26.6664
G1 X37.853 Y83.577 E26.70894
G1 X37.732 Y83.067 E26.7377
G1 X37.661 Y82.611 E26.76303
G1 X37.618 Y82.054 E26.79369
G1 X37.602 Y81.386 E26.83036
G1 X37.6 Y38.957 E29.15883
G1 X37.618 Y37.995 E29.21163
G1 X37.653 Y37.455 E29.24133
G1 X37.782 Y36.694 E29.28369
G1 X37.984 Y36.009 E29.32288
G1 X38.198 Y35.491 E29.35364
G1 X38.478 Y34.957 E29.38673
G1 X38.772 Y34.502 E29.41646
G1 X39.107 Y34.075 E29.44624
G1 X39.57 Y33.59 E29.48304
G1 X40.149 Y33.112 E29.52424
G1 X40.624 Y32.795 E29.55558
G1 X41.126 Y32.528 E29.58678
G1 X41.664 Y32.299 E29.61887
G1 X42.281 Y32.1 E29.65445
G1 X43.21 Y31.855 E29.70718
G1 X44.915 Y31.43 E29.80361
G1 X45.687 Y31.247 E29.84715
G1 X46.724 Y31.049 E29.90509
G1 X47.606 Y30.948 E29.95381
G1 X48.113 Y30.921 E29.98167
G1 X48.998 Y30.905 E30.03025
G1 X64.249 Y30.904 E30.86721
G0 F810 X64.781 Y30.904
G0 F900 X64.563 Y32.1
G1 X65.439 Y32.112 E30.91529
G1 X65.552 Y32.117 E30.9215
G1 X66.076 Y32.152 E30.95032
G1 X66.161 Y32.16 E30.955
G1 X66.323 Y32.181 E30.96397
G1 X66.418 Y32.196 E30.96925
G1 X66.491 Y32.208 E30.97331
G1 X66.826 Y32.273 E30.99203
G1 X67.181 Y32.357 E31.01205
G1 X67.29 Y32.386 E31.01824
G1 X67.705 Y32.507 E31.04197
G1 X67.771 Y32.528 E31.04577
G1 X68.167 Y32.676 E31.06897
G1 X68.319 Y32.737 E31.07796
G1 X68.499 Y32.814 E31.0887
G1 X68.793 Y32.963 E31.10679
G1 X68.815 Y32.974 E31.10814
G1 X68.912 Y33.021 E31.11405
G1 X69.034 Y33.085 E31.12161
G1 X69.078 Y33.111 E31.12442
G1 X69.177 Y33.167 E31.13066
G1 X69.253 Y33.21 E31.13545
G1 X69.399 Y33.297 E31.14478
G1 X69.636 Y33.448 E31.1602
G1 X69.678 Y33.477 E31.163
G1 X69.859 Y33.608 E31.17526
G1 X69.947 Y33.671 E31.1812
G1 X70.029 Y33.732 E31.18681
G1 X70.039 Y33.739 E31.18748
G1 X70.112 Y33.798 E31.19263
G1 X70.273 Y33.927 E31.20395
G1 X70.346 Y33.985 E31.20907
G1 X70.387 Y34.02 E31.21203
G1 X70.468 Y34.088 E31.21783
G1 X70.502 Y34.116 E31.22025
G1 X70.641 Y34.244 E31.23062
G1 X70.704 Y34.306 E31.23547
G1 X70.833 Y34.432 E31.24537
G1 X70.895 Y34.496 E31.25026
G1 X70.992 Y34.596 E31.2579
G1 X71.117 Y34.732 E31.26804
G1 X71.23 Y34.852 E31.27709
G1 X71.301 Y34.935 E31.28308
G1 X71.397 Y35.05 E31.2913
G1 X71.437 Y35.099 E31.29477
G1 X71.534 Y35.226 E31.30354
G1 X71.562 Y35.262 E31.30605
G1 X71.724 Y35.487 E31.32126
G1 X71.791 Y35.578 E31.32746
G1 X71.813 Y35.609 E31.32955
G1 X71.97 Y35.852 E31.34543
G1 X72.052 Y35.982 E31.35386
G1 X72.085 Y36.037 E31.35738
G1 X72.123 Y36.101 E31.36147
G1 X72.193 Y36.228 E31.36942
G1 X72.224 Y36.289 E31.37318
G1 X72.34 Y36.513 E31.38702
G1 X72.492 Y36.828 E31.40622
G1 X72.7 Y37.288 E31.43392
G1 X72.71 Y37.309 E31.4352
G1 X72.731 Y37.357 E31.43807
G1 X72.777 Y37.459 E31.44421
G1 X72.845 Y37.613 E31.45345
G1 X72.96 Y37.867 E31.46875
G1 X73.12 Y38.236 E31.49083
G1 X73.171 Y38.349 E31.49763
G1 X74.341 Y40.845 E31.64891
G1 X75.583 Y43.306 E31.80019
G1 X76.896 Y45.73 E31.95148
G1 X78.279 Y48.115 E32.10278
G1 X79.731 Y50.458 E32.25405
G1 X79.865 Y50.662 E32.26745
G1 X80.442 Y51.57 E32.32649
G1 X80.517 Y51.696 E32.33454
G1 X80.574 Y51.797 E32.3409
G1 X80.659 Y51.96 E32.35099
G1 X80.715 Y52.074 E32.35796
G1 X80.769 Y52.193 E32.36513
G1 X80.837 Y52.357 E32.37487
G1 X80.871 Y52.443 E32.37995
G1 X80.929 Y52.608 E32.38955
G1 X80.966 Y52.723 E32.39618
G1 X81.009 Y52.868 E32.40448
G1 X81.045 Y53.005 E32.41225
G1 X81.082 Y53.168 E32.42142
G1 X81.106 Y53.284 E32.42793
G1 X81.131 Y53.43 E32.43605
G1 X81.149 Y53.557 E32.44309
G1 X81.168 Y53.723 E32.45226
G1 X81.178 Y53.836 E32.45849
G1 X81.187 Y53.99 E32.46695
G1 X81.199 Y54.425 E32.49084
G1 X81.2 Y54.563 E32.49841
G1 X81.2 Y82.249 E34.0178
G1 X81.189 Y83.034 E34.06088
G1 X81.184 Y83.168 E34.06824
G1 X81.173 Y83.315 E34.07633
G1 X81.155 Y83.494 E34.0862
G1 X81.147 Y83.561 E34.0899
G1 X81.119 Y83.737 E34.09968
G1 X81.09 Y83.894 E34.10845
G1 X81.06 Y84.033 E34.11625
G1 X81.035 Y84.137 E34.12212
G1 X80.998 Y84.273 E34.12986
G1 X80.954 Y84.418 E34.13817
G1 X80.901 Y84.576 E34.14732
G1 X80.86 Y84.687 E34.15381
G1 X80.807 Y84.82 E34.16167
G1 X80.764 Y84.919 E34.16759
G1 X80.677 Y85.105 E34.17886
G1 X80.633 Y85.192 E34.18421
G1 X80.548 Y85.349 E34.19401
G1 X80.482 Y85.464 E34.20129
G1 X80.422 Y85.562 E34.20759
G1 X80.346 Y85.678 E34.2152
G1 X80.253 Y85.811 E34.22411
G1 X80.168 Y85.926 E34.23196
G1 X80.105 Y86.007 E34.23759
G1 X79.974 Y86.165 E34.24885
G1 X79.936 Y86.209 E34.25204
G1 X79.781 Y86.376 E34.26455
G1 X79.717 Y86.441 E34.26955
G1 X79.601 Y86.552 E34.27836
G1 X79.499 Y86.645 E34.28594
G1 X79.415 Y86.717 E34.29201
G1 X79.271 Y86.834 E34.30219
G1 X79.196 Y86.891 E34.30736
G1 X79.05 Y86.996 E34.31723
G1 X78.943 Y87.069 E34.32434
G1 X78.807 Y87.156 E34.3332
G1 X78.73 Y87.202 E34.33812
G1 X78.552 Y87.301 E34.3493
G1 X78.448 Y87.356 E34.35576
G1 X78.317 Y87.42 E34.36376
G1 X78.229 Y87.459 E34.36904
G1 X78.052 Y87.534 E34.37959
G1 X77.932 Y87.58 E34.38664
G1 X77.787 Y87.632 E34.3951
G1 X77.675 Y87.668 E34.40155
G1 X77.515 Y87.714 E34.41069
G1 X77.415 Y87.74 E34.41636
G1 X77.267 Y87.775 E34.4247
G1 X77.101 Y87.808 E34.43399
G1 X76.96 Y87.832 E34.44184
G1 X76.866 Y87.846 E34.44706
G1 X76.699 Y87.865 E34.45628
G1 X76.532 Y87.88 E34.46548
G1 X76.413 Y87.886 E34.47202
G1 X75.957 Y87.9 E34.49706
G1 X49.397 Y87.9 E35.95465
G1 X47.676 Y87.864 E36.04912
G1 X47.667 Y87.864 E36.04961
G1 X47.655 Y87.863 E36.05027
G1 X47.518 Y87.853 E36.05781
G1 X47.198 Y87.817 E36.07548
G1 X47.139 Y87.809 E36.07875
G1 X46.702 Y87.747 E36.10297
G1 X46.575 Y87.725 E36.11005
G1 X46.525 Y87.715 E36.11285
G1 X46.457 Y87.699 E36.11668
G1 X45.569 Y87.49 E36.16674
G1 X45.196 Y87.404 E36.18775
G1 X43.116 Y86.886 E36.30539
G1 X42.684 Y86.77 E36.32993
G1 X42.462 Y86.711 E36.34254
G1 X42.406 Y86.694 E36.34575
G1 X42.289 Y86.66 E36.35244
G1 X42.185 Y86.626 E36.35844
G1 X42.065 Y86.582 E36.36546
G1 X41.924 Y86.527 E36.37376
G1 X41.795 Y86.473 E36.38144
G1 X41.659 Y86.41 E36.38966
G1 X41.522 Y86.343 E36.39803
G1 X41.408 Y86.283 E36.4051
G1 X41.277 Y86.209 E36.41336
G1 X41.171 Y86.145 E36.42015
G1 X41.043 Y86.063 E36.4285
G1 X40.922 Y85.98 E36.43655
G1 X40.797 Y85.889 E36.44503
G1 X40.706 Y85.819 E36.45134
G1 X40.583 Y85.719 E36.46003
G1 X40.505 Y85.652 E36.46568
G1 X40.39 Y85.546 E36.47426
G1 X40.278 Y85.438 E36.4828
G1 X40.185 Y85.343 E36.4901
G1 X40.081 Y85.229 E36.49856
G1 X39.99 Y85.126 E36.50611
G1 X39.881 Y84.994 E36.5155
G1 X39.823 Y84.919 E36.5207
G1 X39.735 Y84.799 E36.52887
G1 X39.652 Y84.678 E36.53692
G1 X39.587 Y84.578 E36.54347
G1 X39.5 Y84.436 E36.55261
G1 X39.43 Y84.313 E36.56037
G1 X39.365 Y84.191 E36.56796
G1 X39.307 Y84.075 E36.57508
G1 X39.238 Y83.925 E36.58414
G1 X39.187 Y83.806 E36.59124
G1 X39.122 Y83.642 E36.60093
G1 X39.086 Y83.541 E36.60681
G1 X39.053 Y83.443 E36.61248
G1 X38.996 Y83.252 E36.62342
G1 X38.963 Y83.131 E36.63031
G1 X38.93 Y82.994 E36.63804
G1 X38.907 Y82.883 E36.64426
G1 X38.873 Y82.697 E36.65464
G1 X38.854 Y82.569 E36.66174
G1 X38.837 Y82.426 E36.66964
G1 X38.823 Y82.282 E36.67758
G1 X38.816 Y82.168 E36.68385
G1 X38.809 Y81.984 E36.69395
G1 X38.8 Y81.238 E36.7349
G1 X38.8 Y38.734 E39.06748
G1 X38.811 Y37.95 E39.11051
G1 X38.816 Y37.829 E39.11716
G1 X38.827 Y37.681 E39.1253
G1 X38.845 Y37.503 E39.13512
G1 X38.855 Y37.423 E39.13955
G1 X38.883 Y37.248 E39.14927
G1 X38.915 Y37.077 E39.15882
G1 X38.944 Y36.946 E39.16618
G1 X38.968 Y36.848 E39.17172
G1 X39.01 Y36.697 E39.18032
G1 X39.049 Y36.569 E39.18767
G1 X39.102 Y36.414 E39.19666
G1 X39.144 Y36.3 E39.20332
G1 X39.197 Y36.167 E39.21118
G1 X39.241 Y36.067 E39.21718
G1 X39.327 Y35.884 E39.22827
G1 X39.375 Y35.79 E39.23406
G1 X39.456 Y35.64 E39.24342
G1 X39.523 Y35.525 E39.25072
G1 X39.578 Y35.435 E39.25651
G1 X39.655 Y35.318 E39.2642
G1 X39.753 Y35.178 E39.27358
G1 X39.841 Y35.059 E39.2817
G1 X39.91 Y34.971 E39.28784
G1 X40.032 Y34.825 E39.29828
G1 X40.085 Y34.765 E39.30267
G1 X40.228 Y34.612 E39.31416
G1 X40.291 Y34.548 E39.31909
G1 X40.406 Y34.438 E39.32783
G1 X40.501 Y34.352 E39.33486
G1 X40.596 Y34.271 E39.34171
