;FLAVOR:Marlin
;TIME:864
;Filament used: 0.514067m
;Layer height: 0.12
;MINX:50.6
;MINY:52.6
;MINZ:0.3
;MAXX:69.4
;MAXY:76.9
;MAXZ:6.9
;Generated with Cura_SteamEngine 4.10.0
M104 S210
M105
M109 S210
M82 ;absolute extrusion mode
;Sliced at: Wed 29-09-2021 20:11:46
G21 ;metric values
G90 ;absolute positioning
M82 ;set extruder to absolute mode
M107 ;start with the fan off
G1 Z5.0 F1800 ;move Z to 5mm
G28 X0 Y0 F1800 ;move X/Y to min endstops
G28 Z0 ;move Z to min endstop
G92 E0 ;zero the extruded length
G1 F200 E6.0 ;extrude 6.0mm of feed stock to build pressure
G1 Z5.0 F300 ;move the platform down 5mm
G92 E0 ;zero the extruded length again
G1 F1800
;Put printing message on LCD screen
M117 Printing...
G92 E0
G92 E0
G1 F1500 E-0.6
;LAYER_COUNT:57
;LAYER:0
M106 S102
G0 F1440 X51.594 Y53.616 Z0.3
;TYPE:SKIRT
G1 F1500 E0.75698
G1 F1200 X51.988 Y53.275 E0.78065
G1 X52.429 Y52.998 E0.8043
G1 X52.908 Y52.792 E0.82798
G1 X53.412 Y52.662 E0.85162
G1 X53.914 Y52.61 E0.87454
G1 X54.33 Y52.6 E0.89344
G1 X65.342 Y52.6 E1.39359
G1 X66.04 Y52.61 E1.4253
G1 X66.559 Y52.658 E1.44897
G1 X67.064 Y52.784 E1.47261
G1 X67.545 Y52.986 E1.49631
G1 X67.989 Y53.259 E1.51998
G1 X68.386 Y53.596 E1.54363
G1 X68.726 Y53.991 E1.5673
G1 X69.003 Y54.433 E1.591
G1 X69.209 Y54.911 E1.61464
G1 X69.339 Y55.416 E1.63832
G1 X69.39 Y55.914 E1.66106
G1 X69.4 Y56.33 E1.67996
G1 X69.4 Y63.74 E2.01651
G1 X69.395 Y65.226 E2.084
G1 X69.4 Y65.899 E2.11457
G1 X69.4 Y72.806 E2.42828
G1 X69.391 Y73.533 E2.4613
G1 X69.344 Y74.052 E2.48497
G1 X69.219 Y74.558 E2.50864
G1 X69.018 Y75.039 E2.53232
G1 X68.746 Y75.483 E2.55597
G1 X68.409 Y75.881 E2.57965
G1 X68.016 Y76.223 E2.60332
G1 X67.574 Y76.5 E2.62701
G1 X67.096 Y76.706 E2.65065
G1 X66.591 Y76.838 E2.67435
G1 X66.086 Y76.89 E2.69741
G1 X65.67 Y76.9 E2.71631
G1 X54.663 Y76.9 E3.21624
G1 X53.965 Y76.891 E3.24794
G1 X53.446 Y76.844 E3.27161
G1 X52.94 Y76.719 E3.29528
G1 X52.46 Y76.517 E3.31894
G1 X52.015 Y76.245 E3.34262
G1 X51.618 Y75.908 E3.36628
G1 X51.276 Y75.514 E3.38997
G1 X50.999 Y75.073 E3.41362
G1 X50.793 Y74.594 E3.43731
G1 X50.662 Y74.09 E3.46096
G1 X50.61 Y73.583 E3.48411
G1 X50.6 Y73.158 E3.50342
G1 X50.6 Y65.76 E3.83942
G1 X50.605 Y64.274 E3.90692
G1 X50.6 Y63.601 E3.93748
G1 X50.6 Y56.628 E4.25419
G1 X50.609 Y55.963 E4.28439
G1 X50.656 Y55.444 E4.30806
G1 X50.782 Y54.938 E4.33175
G1 X50.984 Y54.458 E4.3554
G1 X51.251 Y54.022 E4.37862
G0 F1080 X51.256 Y54.013
G0 X51.594 Y53.616
G0 F1440 X51.985 Y53.795
G1 F1200 X52.372 Y53.495 E4.40086
G1 X52.803 Y53.262 E4.42311
G1 X53.265 Y53.103 E4.44531
G1 X53.925 Y53.01 E4.47558
G1 X54.33 Y53 E4.49398
G1 X65.336 Y53 E4.99386
G1 X66.034 Y53.01 E5.02556
G1 X66.521 Y53.057 E5.04778
G1 X66.994 Y53.183 E5.07002
G1 X67.441 Y53.384 E5.09228
G1 X67.849 Y53.654 E5.1145
G1 X68.207 Y53.988 E5.13674
G1 X68.506 Y54.375 E5.15895
G1 X68.739 Y54.806 E5.1812
G1 X68.898 Y55.269 E5.20343
G1 X68.99 Y55.926 E5.23357
G1 X69 Y56.33 E5.25192
G1 X69 Y63.739 E5.58843
G1 X68.995 Y65.225 E5.65592
G1 X69 Y65.902 E5.68667
G1 X69 Y72.801 E6.00001
G1 X68.991 Y73.528 E6.03304
G1 X68.945 Y74.015 E6.05525
G1 X68.82 Y74.489 E6.07752
G1 X68.62 Y74.936 E6.09976
G1 X68.35 Y75.344 E6.12198
G1 X68.018 Y75.703 E6.14419
G1 X67.631 Y76.003 E6.16643
G1 X67.201 Y76.236 E6.18864
G1 X66.738 Y76.397 E6.21091
G1 X66.075 Y76.49 E6.24131
G1 X65.67 Y76.5 E6.25971
G1 X54.668 Y76.5 E6.75941
G1 X53.97 Y76.491 E6.79112
G1 X53.483 Y76.445 E6.81333
G1 X53.01 Y76.32 E6.83555
G1 X52.563 Y76.12 E6.8578
G1 X52.155 Y75.849 E6.88004
G1 X51.796 Y75.516 E6.90228
G1 X51.496 Y75.13 E6.92449
G1 X51.263 Y74.699 E6.94674
G1 X51.103 Y74.237 E6.96895
G1 X51.01 Y73.572 E6.99944
G1 X51 Y73.158 E7.01825
G1 X51 Y65.761 E7.35421
G1 X51.005 Y64.275 E7.42171
G1 X51 Y63.598 E7.45246
G1 X51 Y56.633 E7.7688
G1 X51.009 Y55.968 E7.799
G1 X51.056 Y55.481 E7.82123
G1 X51.181 Y55.008 E7.84345
G1 X51.381 Y54.561 E7.86569
G1 X51.628 Y54.189 E7.88597
G0 F1080 X51.652 Y54.153
G0 X51.985 Y53.795
G0 F1440 X52.046 Y54.304
G1 F1200 X52.374 Y53.987 E7.90669
G1 X52.752 Y53.733 E7.92737
G1 X53.169 Y53.548 E7.94809
G1 X53.611 Y53.44 E7.96876
G1 X54.257 Y53.401 E7.99815
G1 X65.33 Y53.4 E8.50107
G1 X66.028 Y53.41 E8.53278
G1 X66.482 Y53.457 E8.55351
G1 X66.92 Y53.582 E8.5742
G1 X67.329 Y53.781 E8.59486
G1 X67.698 Y54.049 E8.61557
G1 X68.014 Y54.377 E8.63625
G1 X68.268 Y54.755 E8.65694
G1 X68.452 Y55.172 E8.67764
G1 X68.561 Y55.614 E8.69832
G1 X68.599 Y56.257 E8.72757
G1 X68.6 Y63.738 E9.06735
G1 X68.595 Y65.224 E9.13484
G1 X68.6 Y65.905 E9.16577
G1 X68.6 Y72.796 E9.47875
G1 X68.591 Y73.523 E9.51178
G1 X68.545 Y73.977 E9.5325
G1 X68.421 Y74.415 E9.55318
G1 X68.223 Y74.825 E9.57386
G1 X67.956 Y75.194 E9.59454
G1 X67.628 Y75.511 E9.61526
G1 X67.25 Y75.766 E9.63597
G1 X66.834 Y75.951 E9.65665
G1 X66.392 Y76.06 E9.67733
G1 X65.743 Y76.099 E9.70686
G1 X54.673 Y76.1 E10.20964
G1 X53.975 Y76.091 E10.24135
G1 X53.522 Y76.045 E10.26203
G1 X53.084 Y75.921 E10.2827
G1 X52.674 Y75.722 E10.3034
G1 X52.305 Y75.455 E10.32409
G1 X51.988 Y75.127 E10.34481
G1 X51.734 Y74.749 E10.36549
G1 X51.549 Y74.333 E10.38617
G1 X51.44 Y73.89 E10.40689
G1 X51.401 Y73.228 E10.43701
G1 X51.4 Y65.762 E10.77611
G1 X51.405 Y64.276 E10.8436
G1 X51.4 Y63.595 E10.87453
G1 X51.4 Y56.639 E11.19046
G1 X51.409 Y55.974 E11.22067
G1 X51.455 Y55.521 E11.24135
G1 X51.58 Y55.082 E11.26208
G1 X51.745 Y54.742 E11.27924
G0 F1080 X51.779 Y54.672
G0 X52.046 Y54.304
G0 F1440 X52.44 Y54.467
G1 F1200 X52.761 Y54.198 E11.29827
G1 X53.127 Y53.994 E11.3173
G1 X53.525 Y53.863 E11.33633
G1 X54.268 Y53.801 E11.37019
G1 X65.325 Y53.8 E11.87239
G1 X66.023 Y53.81 E11.90409
G1 X66.439 Y53.856 E11.9231
G1 X66.839 Y53.98 E11.94212
G1 X67.209 Y54.178 E11.96118
G1 X67.534 Y54.442 E11.9802
G1 X67.803 Y54.763 E11.99922
G1 X68.007 Y55.129 E12.01825
G1 X68.137 Y55.527 E12.03727
G1 X68.199 Y56.268 E12.07104
G1 X68.2 Y63.736 E12.41023
G1 X68.195 Y65.222 E12.47772
G1 X68.2 Y65.907 E12.50883
G1 X68.2 Y72.791 E12.8215
G1 X68.191 Y73.518 E12.85452
G1 X68.146 Y73.935 E12.87357
G1 X68.023 Y74.335 E12.89258
G1 X67.826 Y74.705 E12.91161
G1 X67.562 Y75.031 E12.93067
G1 X67.242 Y75.301 E12.94968
G1 X66.876 Y75.505 E12.96871
G1 X66.478 Y75.636 E12.98775
G1 X65.732 Y75.699 E13.02175
G1 X54.679 Y75.7 E13.52376
G1 X53.981 Y75.691 E13.55547
G1 X53.564 Y75.646 E13.57452
G1 X53.164 Y75.522 E13.59354
G1 X52.794 Y75.325 E13.61258
G1 X52.468 Y75.061 E13.63163
G1 X52.198 Y74.741 E13.65064
G1 X51.994 Y74.375 E13.66968
G1 X51.863 Y73.977 E13.68871
G1 X51.801 Y73.217 E13.72334
G1 X51.8 Y65.764 E14.06185
G1 X51.805 Y64.278 E14.12934
G1 X51.8 Y63.593 E14.16045
G1 X51.8 Y56.644 E14.47607
G1 X51.809 Y55.979 E14.50627
G1 X51.855 Y55.563 E14.52528
G1 X51.978 Y55.162 E14.54433
G1 X52.123 Y54.892 E14.55825
G0 F1080 X52.176 Y54.793
G0 X52.44 Y54.467
G1 F1500 E13.95825
;MESH:xxx.3mf
G0 F1440 X53.335 Y56.614
G0 X54.614 Y56.614
G0 X64.6 Y62.6
;TYPE:WALL-INNER
G1 F1500 E15.31523
G1 F1200 X55.4 Y62.6 E15.73308
G1 X55.4 Y57.4 E15.96926
G1 X64.6 Y57.4 E16.38711
G1 X64.6 Y62.068 E16.59913
G0 F1080 X64.6 Y62.6
G0 F1440 X65 Y63
G1 F1200 X55 Y63 E17.05332
G1 X55 Y57 E17.32583
G1 X65 Y57 E17.78002
G1 X65 Y62.468 E18.02837
G0 F1080 X65 Y63
G0 F1440 X65.4 Y63.4
G1 F1200 X54.6 Y63.4 E18.51889
G1 X54.6 Y56.6 E18.82774
G1 X65.4 Y56.6 E19.31826
G1 X65.4 Y62.868 E19.60294
G0 F1080 X65.4 Y63.4
G0 F1440 X65.8 Y63.8
;TYPE:WALL-OUTER
G1 F1200 X54.2 Y63.8 E20.1298
G1 X54.2 Y56.2 E20.47499
G1 X65.8 Y56.2 E21.00184
G1 X65.8 Y63.268 E21.32286
G0 F1080 X65.8 Y63.8
G0 F1440 X65.6 Y63.8
G0 X65.36 Y63.36
G0 X65.3 Y63.36
G0 X64.21 Y62.21
;TYPE:SKIN
G1 F1200 X55.79 Y62.21 E21.70529
G1 X55.79 Y57.79 E21.90604
G1 X64.21 Y57.79 E22.28847
G1 X64.21 Y61.678 E22.46505
G0 F1080 X64.21 Y62.21
G0 F1440 X64.069 Y58.412
G1 F1200 X63.587 Y57.93 E22.49601
G0 F1440 X63.021 Y57.93
G1 F1200 X64.069 Y58.978 E22.56333
G0 F1440 X64.069 Y59.544
G1 F1200 X62.455 Y57.93 E22.667
G0 F1440 X61.89 Y57.93
G1 F1200 X64.069 Y60.109 E22.80696
G0 F1440 X64.069 Y60.675
G1 F1200 X61.324 Y57.93 E22.98328
G0 F1440 X60.758 Y57.93
G1 F1200 X64.069 Y61.241 E23.19595
G0 F1440 X64.069 Y61.806
G1 F1200 X60.193 Y57.93 E23.44491
G0 F1440 X59.627 Y57.93
G1 F1200 X63.766 Y62.069 E23.71077
G0 F1440 X63.2 Y62.069
G1 F1200 X59.061 Y57.93 E23.97662
G0 F1440 X58.496 Y57.93
G1 F1200 X62.634 Y62.069 E24.24245
G0 F1440 X62.069 Y62.069
G1 F1200 X57.93 Y57.93 E24.5083
G0 F1440 X57.364 Y57.93
G1 F1200 X61.503 Y62.069 E24.77416
G0 F1440 X60.937 Y62.069
G1 F1200 X56.799 Y57.93 E25.03998
G0 F1440 X56.233 Y57.93
G1 F1200 X60.372 Y62.069 E25.30584
G0 F1440 X59.806 Y62.069
G1 F1200 X55.93 Y58.192 E25.55483
G0 F1440 X55.93 Y58.758
G1 F1200 X59.24 Y62.069 E25.76747
G0 F1440 X58.675 Y62.069
G1 F1200 X55.93 Y59.324 E25.94379
G0 F1440 X55.93 Y59.889
G1 F1200 X58.109 Y62.069 E26.08378
G0 F1440 X57.543 Y62.069
G1 F1200 X55.93 Y60.455 E26.18742
G0 F1440 X55.93 Y61.021
G1 F1200 X56.977 Y62.069 E26.2547
G0 F1440 X56.412 Y62.069
G1 F1200 X55.93 Y61.586 E26.28569
G1 F1500 E25.68569
;MESH:xxx.3mf(1)
G0 F1440 X64.6 Y63.38
G0 X64.6 Y66.12
G0 X64.6 Y72.1
;TYPE:WALL-INNER
G1 F1500 E27.04267
G1 F1200 X55.4 Y72.1 E27.46052
G1 X55.4 Y66.9 E27.6967
G1 X64.6 Y66.9 E28.11455
G1 X64.6 Y71.568 E28.32657
G0 F1080 X64.6 Y72.1
G0 F1440 X65 Y72.5
G1 F1200 X55 Y72.5 E28.78076
G1 X55 Y66.5 E29.05327
G1 X65 Y66.5 E29.50746
G1 X65 Y71.968 E29.75581
G0 F1080 X65 Y72.5
G0 F1440 X65.4 Y72.9
G1 F1200 X54.6 Y72.9 E30.24633
G1 X54.6 Y66.1 E30.55518
G1 X65.4 Y66.1 E31.0457
G1 X65.4 Y72.368 E31.33039
G0 F1080 X65.4 Y72.9
G0 F1440 X65.8 Y73.3
;TYPE:WALL-OUTER
G1 F1200 X54.2 Y73.3 E31.85724
G1 X54.2 Y65.7 E32.20243
G1 X65.8 Y65.7 E32.72928
G1 X65.8 Y72.768 E33.0503
G0 F1080 X65.8 Y73.3
G0 F1440 X65.6 Y73.3
G0 X65.36 Y72.86
G0 X65.3 Y72.86
G0 X64.21 Y71.71
;TYPE:SKIN
G1 F1200 X55.79 Y71.71 E33.43273
G1 X55.79 Y67.29 E33.63348
G1 X64.21 Y67.29 E34.01591
G1 X64.21 Y71.178 E34.19249
G0 F1080 X64.21 Y71.71
G0 F1440 X64.07 Y68.03
G1 F1200 X63.469 Y67.428 E34.23113
G0 F1440 X62.903 Y67.428
G1 F1200 X64.07 Y68.595 E34.30609
G0 F1440 X64.07 Y69.161
G1 F1200 X62.337 Y67.428 E34.4174
G0 F1440 X61.772 Y67.428
G1 F1200 X64.07 Y69.727 E34.56504
G0 F1440 X64.07 Y70.292
G1 F1200 X61.206 Y67.428 E34.749
G0 F1440 X60.64 Y67.428
G1 F1200 X64.07 Y70.858 E34.96931
G0 F1440 X64.07 Y71.424
G1 F1200 X60.075 Y67.428 E35.22595
G0 F1440 X59.509 Y67.428
G1 F1200 X63.649 Y71.569 E35.49191
G0 F1440 X63.083 Y71.569
G1 F1200 X58.943 Y67.428 E35.75786
G0 F1440 X58.378 Y67.428
G1 F1200 X62.518 Y71.569 E36.02381
G0 F1440 X61.952 Y71.569
G1 F1200 X57.812 Y67.428 E36.28976
G0 F1440 X57.246 Y67.428
M104 S200
G1 F1200 X61.386 Y71.569 E36.55571
G0 F1440 X60.821 Y71.569
G1 F1200 X56.68 Y67.428 E36.8217
G0 F1440 X56.115 Y67.428
G1 F1200 X60.255 Y71.569 E37.08765
G0 F1440 X59.689 Y71.569
G1 F1200 X55.93 Y67.809 E37.32913
G0 F1440 X55.93 Y68.375
G1 F1200 X59.124 Y71.569 E37.53428
G0 F1440 X58.558 Y71.569
G1 F1200 X55.93 Y68.94 E37.70312
G0 F1440 X55.93 Y69.506
G1 F1200 X57.992 Y71.569 E37.8356
G0 F1440 X57.426 Y71.569
G1 F1200 X55.93 Y70.072 E37.93172
G0 F1440 X55.93 Y70.637
G1 F1200 X56.861 Y71.569 E37.99155
G0 F1440 X56.295 Y71.569
G1 F1200 X55.93 Y71.203 E38.01503
G1 F1500 E37.41503
;MESH:NONMESH
G0 F600 X55.93 Y71.203 Z0.42
G0 F1440 X64.6 Y66.12
G0 X64.6 Y63.38
G0 X64.6 Y62.6
;TIME_ELAPSED:48.253067
;LAYER:1
M106 S178.5
;TYPE:WALL-INNER
;MESH:xxx.3mf
G1 F1500 E38.77201
G1 F1650 X55.4 Y62.6 E38.95772
G1 X55.4 Y57.4 E39.06269
G1 X64.6 Y57.4 E39.2484
G1 X64.6 Y61.268 E39.32648
G0 F1485 X64.6 Y62.6
G0 F2520 X65 Y63
G1 F1650 X55 Y63 E39.52834
G1 X55 Y57 E39.64946
G1 X65 Y57 E39.85132
G1 X65 Y61.668 E39.94555
G0 F1485 X65 Y63
G0 F2520 X65.4 Y63.4
G1 F1650 X54.6 Y63.4 E40.16356
G1 X54.6 Y56.6 E40.30082
G1 X65.4 Y56.6 E40.51883
G1 X65.4 Y62.068 E40.62921
G0 F1485 X65.4 Y63.4
G0 F2520 X65.8 Y63.8
;TYPE:WALL-OUTER
G1 F1350 X54.2 Y63.8 E40.86337
G1 X54.2 Y56.2 E41.01679
G1 X65.8 Y56.2 E41.25094
G1 X65.8 Y62.468 E41.37747
G0 F1215 X65.8 Y63.8
G0 F2520 X65.6 Y63.8
G0 X65.36 Y63.36
G0 X65.3 Y63.36
G0 X64.21 Y62.21
;TYPE:SKIN
G1 F1500 X55.79 Y62.21 E41.54744
G1 X55.79 Y57.79 E41.63666
G1 X64.21 Y57.79 E41.80663
G1 X64.21 Y60.933 E41.87007
G0 F1350 X64.21 Y62.21
G0 F2520 X63.512 Y62.069
G1 F1500 X64.069 Y61.512 E41.88597
G0 F2520 X64.069 Y60.946
G1 F1500 X62.946 Y62.069 E41.91803
G0 F2520 X62.38 Y62.069
G1 F1500 X64.069 Y60.381 E41.96623
G0 F2520 X64.069 Y59.815
G1 F1500 X61.815 Y62.069 E42.03058
G0 F2520 X61.249 Y62.069
G1 F1500 X64.069 Y59.249 E42.11108
G0 F2520 X64.069 Y58.684
G1 F1500 X60.683 Y62.069 E42.20773
G0 F2520 X60.118 Y62.069
G1 F1500 X64.069 Y58.118 E42.32052
G0 F2520 X63.692 Y57.929
G1 F1500 X59.552 Y62.069 E42.43871
G0 F2520 X58.986 Y62.069
G1 F1500 X63.126 Y57.929 E42.5569
G0 F2520 X62.561 Y57.929
G1 F1500 X58.421 Y62.069 E42.67508
G0 F2520 X57.855 Y62.069
G1 F1500 X61.995 Y57.929 E42.79327
G0 F2520 X61.429 Y57.929
G1 F1500 X57.289 Y62.069 E42.91146
G0 F2520 X56.724 Y62.069
G1 F1500 X60.864 Y57.929 E43.02964
G0 F2520 X60.298 Y57.929
G1 F1500 X56.158 Y62.069 E43.14783
G0 F2520 X55.93 Y61.732
G1 F1500 X59.732 Y57.929 E43.25638
G0 F2520 X59.167 Y57.929
G1 F1500 X55.93 Y61.166 E43.34879
G0 F2520 X55.93 Y60.601
G1 F1500 X58.601 Y57.929 E43.42505
G0 F2520 X58.035 Y57.929
G1 F1500 X55.93 Y60.035 E43.48516
G0 F2520 X55.93 Y59.469
G1 F1500 X57.47 Y57.929 E43.52912
G0 F2520 X56.904 Y57.929
G1 F1500 X55.93 Y58.904 E43.55694
G0 F2520 X55.93 Y58.338
G1 F1500 X56.338 Y57.929 E43.56861
G1 F1500 E42.96861
;MESH:xxx.3mf(1)
G0 F2520 X64.6 Y63.38
G0 X64.6 Y66.12
G0 X64.6 Y72.1
;TYPE:WALL-INNER
G1 F1500 E44.32558
G1 F1650 X55.4 Y72.1 E44.5113
G1 X55.4 Y66.9 E44.61626
G1 X64.6 Y66.9 E44.80198
G1 X64.6 Y70.768 E44.88006
G0 F1485 X64.6 Y72.1
G0 F2520 X65 Y72.5
G1 F1650 X55 Y72.5 E45.08192
G1 X55 Y66.5 E45.20303
G1 X65 Y66.5 E45.4049
G1 X65 Y71.168 E45.49912
G0 F1485 X65 Y72.5
G0 F2520 X65.4 Y72.9
G1 F1650 X54.6 Y72.9 E45.71714
G1 X54.6 Y66.1 E45.8544
G1 X65.4 Y66.1 E46.07241
G1 X65.4 Y71.568 E46.18279
G0 F1485 X65.4 Y72.9
G0 F2520 X65.8 Y73.3
;TYPE:WALL-OUTER
G1 F1350 X54.2 Y73.3 E46.41695
G1 X54.2 Y65.7 E46.57036
G1 X65.8 Y65.7 E46.80452
G1 X65.8 Y71.968 E46.93105
G0 F1215 X65.8 Y73.3
G0 F2520 X65.6 Y73.3
G0 X65.36 Y72.86
G0 X65.3 Y72.86
G0 X64.21 Y71.71
;TYPE:SKIN
G1 F1500 X55.79 Y71.71 E47.10101
G1 X55.79 Y67.29 E47.19024
G1 X64.21 Y67.29 E47.3602
G1 X64.21 Y70.433 E47.42365
G0 F1350 X64.21 Y71.71
G0 F2520 X63.629 Y71.569
G1 F1500 X64.069 Y71.129 E47.43621
G0 F2520 X64.069 Y70.563
G1 F1500 X63.063 Y71.569 E47.46493
G0 F2520 X62.497 Y71.569
G1 F1500 X64.069 Y69.997 E47.50981
G0 F2520 X64.069 Y69.432
G1 F1500 X61.931 Y71.569 E47.57083
G0 F2520 X61.366 Y71.569
G1 F1500 X64.069 Y68.866 E47.64799
G0 F2520 X64.069 Y68.3
G1 F1500 X60.8 Y71.569 E47.74131
G0 F2520 X60.234 Y71.569
G1 F1500 X64.069 Y67.735 E47.85078
G0 F2520 X63.81 Y67.428
G1 F1500 X59.669 Y71.569 E47.96899
G0 F2520 X59.103 Y71.569
G1 F1500 X63.244 Y67.428 E48.08721
G0 F2520 X62.678 Y67.428
G1 F1500 X58.537 Y71.569 E48.20542
G0 F2520 X57.972 Y71.569
G1 F1500 X62.112 Y67.428 E48.32362
G0 F2520 X61.547 Y67.428
G1 F1500 X57.406 Y71.569 E48.44184
G0 F2520 X56.84 Y71.569
G1 F1500 X60.981 Y67.428 E48.56005
G0 F2520 X60.415 Y67.428
G1 F1500 X56.275 Y71.569 E48.67825
G0 F2520 X55.93 Y71.349
G1 F1500 X59.85 Y67.428 E48.79017
G0 F2520 X59.284 Y67.428
G1 F1500 X55.93 Y70.783 E48.88594
G0 F2520 X55.93 Y70.217
G1 F1500 X58.718 Y67.428 E48.96554
G0 F2520 X58.153 Y67.428
G1 F1500 X55.93 Y69.652 E49.02902
G0 F2520 X55.93 Y69.086
G1 F1500 X57.587 Y67.428 E49.07633
G0 F2520 X57.021 Y67.428
G1 F1500 X55.93 Y68.52 E49.10749
G0 F2520 X55.93 Y67.955
G1 F1500 X56.456 Y67.428 E49.12252
G1 F1500 E48.52252
;MESH:NONMESH
G0 F600 X56.456 Y67.428 Z0.54
G0 F2520 X64.6 Y66.12
G0 X64.6 Y63.38
G0 X64.6 Y62.6
;TIME_ELAPSED:69.555449
;LAYER:2
M106 S255
;TYPE:WALL-INNER
;MESH:xxx.3mf
G1 F1500 E49.8795
G1 F2100 X55.4 Y62.6 E50.06522
G1 X55.4 Y57.4 E50.17018
G1 X64.6 Y57.4 E50.3559
G1 X64.6 Y61.268 E50.43398
G0 F1890 X64.6 Y62.6
G0 F3600 X65 Y63
G1 F2100 X55 Y63 E50.63584
G1 X55 Y57 E50.75695
G1 X65 Y57 E50.95882
G1 X65 Y61.668 E51.05304
G0 F1890 X65 Y63
G0 F3600 X65.4 Y63.4
G1 F2100 X54.6 Y63.4 E51.27105
