;FLAVOR:Marlin
;TIME:1585
;Filament used: 2.34653m
;Layer height: 0.12
;MINX:13.267
;MINY:11.359
;MINZ:0.3
;MAXX:59.827
;MAXY:56.497
;MAXZ:27.83
;Generated with Cura_SteamEngine 4.7.1
M104 S210
M105
M109 S210
M82 ;absolute extrusion mode
;Sliced at: Mon 29-11-2021 13:26:04
G21 ;metric values
G90 ;absolute positioning
M82 ;set extruder to absolute mode
M107 ;start with the fan off
G1 Z5.0 F1800 ;move Z to 5mm
G28 X0 Y0 F1800 ;move X/Y to min endstops
G28 Z0 ;move Z to min endstop
G92 E0 ;zero the extruded length
G1 F200 E6.0 ;extrude 6.0mm of feed stock to build pressure
G1 Z5.0 F300 ;move the platform down 5mm
G92 E0 ;zero the extruded length again
G1 F1800
;Put printing message on LCD screen
M117 Printing...
G92 E0
G92 E0
G1 F1500 E-5
;LAYER_COUNT:121
;LAYER:0
M107
G0 F1350 X33.44 Y26.499 Z0.3
;TYPE:SKIRT
G1 F1500 E0.72757
G1 F900 X33.788 Y26.157 E0.75434
G1 X34.471 Y25.498 E0.80643
G1 X35.299 Y24.725 E0.86859
G1 X36.144 Y23.963 E0.93104
G1 X36.922 Y23.286 E0.98763
G1 X37.094 Y23.139 E1.00005
G1 X37.84 Y22.514 E1.05346
G1 X38.702 Y21.813 E1.11443
G1 X39.513 Y21.175 E1.17106
G1 X40.152 Y20.686 E1.21522
G1 X50.72 Y12.697 E1.94225
G1 X51.262 Y12.299 E1.97916
G1 X51.263 Y12.301 E1.97928
G1 X51.753 Y11.98 E2.01143
G1 X52.311 Y11.711 E2.04542
G1 X52.899 Y11.516 E2.07942
G1 X53.507 Y11.398 E2.11341
G1 X54.125 Y11.359 E2.14739
G1 X54.743 Y11.4 E2.18138
G1 X55.351 Y11.521 E2.2154
G1 X55.938 Y11.718 E2.24938
G1 X56.494 Y11.99 E2.28335
G1 X57.011 Y12.331 E2.31734
G1 X57.397 Y12.657 E2.34507
G1 X57.888 Y13.13 E2.38248
G1 X58.463 Y13.718 E2.42761
G1 X58.866 Y14.189 E2.46163
G1 X59.205 Y14.707 E2.49561
G1 X59.475 Y15.265 E2.52963
G1 X59.67 Y15.852 E2.56357
G1 X59.788 Y16.46 E2.59756
G1 X59.827 Y17.079 E2.6316
G1 X59.786 Y17.697 E2.66559
G1 X59.666 Y18.304 E2.69954
G1 X59.468 Y18.891 E2.73354
G1 X59.249 Y19.353 E2.7616
G1 X59.132 Y19.569 E2.77508
G1 X57.917 Y21.716 E2.91047
G1 X56.646 Y24.118 E3.0596
G1 X55.477 Y26.484 E3.20443
G1 X54.342 Y28.959 E3.35386
G1 X53.295 Y31.424 E3.50083
G1 X51.963 Y34.872 E3.70368
G1 X51.371 Y36.493 E3.79839
G1 X51.021 Y37.415 E3.85251
G1 X50.776 Y38.03 E3.88884
G1 X50.51 Y38.59 E3.92287
G1 X50.175 Y39.11 E3.95681
G1 X49.645 Y39.713 E4.00087
G1 X48.986 Y40.347 E4.05105
G1 X47.301 Y41.909 E4.17715
G1 X45.225 Y43.897 E4.33489
G1 X43.791 Y45.281 E4.44426
G1 X43.139 Y45.896 E4.49345
G1 X41.792 Y47.19 E4.59595
G1 X40.558 Y48.399 E4.69076
G1 X39.575 Y49.369 E4.76655
G1 X39.08 Y49.844 E4.8042
G1 X38.579 Y50.282 E4.84072
G1 X38.48 Y50.363 E4.84774
G1 X37.053 Y51.509 E4.94818
G1 X36.471 Y51.963 E4.98869
G1 X35.959 Y52.311 E5.02266
G1 X35.407 Y52.591 E5.05663
G1 X34.576 Y52.86 E5.10456
G1 X34.355 Y52.906 E5.11695
G1 X33.383 Y53.084 E5.17118
G1 X32.517 Y53.231 E5.21939
G1 X29.89 Y53.753 E5.36637
G1 X27.254 Y54.356 E5.51477
G1 X24.642 Y55.031 E5.66282
G1 X22.058 Y55.777 E5.81042
G1 X20.399 Y56.288 E5.90569
G1 X19.796 Y56.432 E5.93971
G1 X19.18 Y56.497 E5.9737
G1 X18.561 Y56.482 E6.00768
G1 X17.949 Y56.388 E6.04166
G1 X17.354 Y56.216 E6.07565
G1 X16.786 Y55.968 E6.10967
G1 X16.255 Y55.65 E6.14363
G1 X15.519 Y55.042 E6.19603
G1 X15.088 Y54.615 E6.22932
G1 X14.62 Y54.132 E6.26623
G1 X14.218 Y53.66 E6.30025
G1 X13.881 Y53.141 E6.33421
G1 X13.613 Y52.582 E6.36823
G1 X13.42 Y51.994 E6.4022
G1 X13.304 Y51.386 E6.43617
G1 X13.267 Y50.767 E6.4702
G1 X13.31 Y50.15 E6.50414
G1 X13.432 Y49.542 E6.53817
G1 X13.632 Y48.956 E6.57215
G1 X13.905 Y48.4 E6.60614
G1 X14.367 Y47.713 E6.65158
G1 X14.437 Y47.617 E6.6581
G1 X18.122 Y42.703 E6.99518
G1 X18.399 Y42.342 E7.02015
G1 X19.137 Y41.396 E7.08599
G1 X19.776 Y40.605 E7.1418
G1 X19.938 Y40.41 E7.15571
G1 X20.61 Y39.611 E7.21301
G1 X21.366 Y38.741 E7.27626
G1 X22.019 Y38.016 E7.32981
G1 X22.154 Y37.869 E7.34076
G1 X22.817 Y37.158 E7.39411
G1 X23.588 Y36.357 E7.45512
G1 X24.134 Y35.804 E7.49777
G1 X33.064 Y26.875 E8.1908
G0 F810 X33.44 Y26.499
G0 F1350 X33.721 Y26.784
G1 F900 X34.066 Y26.445 E8.21734
G1 X34.745 Y25.79 E8.26912
G1 X35.567 Y25.022 E8.33085
G1 X36.47 Y24.209 E8.39754
G1 X37.183 Y23.589 E8.44939
G1 X37.351 Y23.445 E8.46153
G1 X38.092 Y22.824 E8.51459
G1 X38.895 Y22.171 E8.57139
G1 X39.757 Y21.493 E8.63158
G1 X40.393 Y21.005 E8.67557
G1 X50.957 Y13.019 E9.40233
G1 X51.499 Y12.621 E9.43923
G1 X51.5 Y12.623 E9.43935
G1 X51.972 Y12.316 E9.47025
G1 X52.508 Y12.063 E9.50278
G1 X53.074 Y11.884 E9.53536
G1 X53.658 Y11.783 E9.56789
G1 X54.251 Y11.761 E9.60045
G1 X54.841 Y11.819 E9.63299
G1 X55.418 Y11.956 E9.66553
G1 X55.971 Y12.17 E9.69807
G1 X56.49 Y12.455 E9.73057
G1 X57.124 Y12.949 E9.77468
G1 X57.607 Y13.415 E9.81151
G1 X58.177 Y13.998 E9.85625
G1 X58.561 Y14.449 E9.88876
G1 X58.882 Y14.948 E9.92132
G1 X59.132 Y15.486 E9.95388
G1 X59.308 Y16.052 E9.98641
G1 X59.406 Y16.637 E10.01896
G1 X59.424 Y17.229 E10.05146
G1 X59.363 Y17.819 E10.08401
G1 X59.223 Y18.395 E10.11654
G1 X58.897 Y19.163 E10.16233
G1 X58.783 Y19.372 E10.1754
G1 X57.573 Y21.511 E10.31026
G1 X56.306 Y23.904 E10.45886
G1 X55.106 Y26.334 E10.60759
G1 X53.981 Y28.786 E10.75564
G1 X52.923 Y31.278 E10.90422
G1 X51.602 Y34.696 E11.10532
G1 X51.017 Y36.3 E11.19901
G1 X50.65 Y37.267 E11.25578
G1 X50.405 Y37.882 E11.29211
G1 X50.149 Y38.417 E11.32465
G1 X49.823 Y38.913 E11.35723
G1 X49.368 Y39.425 E11.39482
G1 X48.709 Y40.059 E11.445
G1 X47.035 Y41.611 E11.57028
G1 X44.949 Y43.608 E11.72876
G1 X44.537 Y44.003 E11.76008
G1 X44.472 Y44.068 E11.76513
G1 X43.516 Y44.99 E11.83802
G1 X42.894 Y45.577 E11.88495
G1 X41.515 Y46.902 E11.9899
G1 X40.278 Y48.113 E12.0849
G1 X39.298 Y49.081 E12.1605
G1 X38.803 Y49.556 E12.19815
G1 X38.32 Y49.977 E12.23331
G1 X38.23 Y50.051 E12.2397
G1 X36.807 Y51.193 E12.33984
G1 X36.225 Y51.647 E12.38034
G1 X35.734 Y51.98 E12.4129
G1 X35.203 Y52.243 E12.44542
G1 X34.488 Y52.47 E12.48659
G1 X34.283 Y52.513 E12.49808
G1 X33.316 Y52.69 E12.55203
G1 X32.444 Y52.838 E12.60057
G1 X29.795 Y53.364 E12.74879
G1 X27.17 Y53.964 E12.89656
G1 X24.536 Y54.646 E13.04588
G1 X21.94 Y55.394 E13.19414
G1 X20.281 Y55.906 E13.28942
G1 X19.704 Y56.042 E13.32196
G1 X19.114 Y56.099 E13.35449
G1 X18.521 Y56.077 E13.38705
G1 X17.937 Y55.975 E13.41959
G1 X17.372 Y55.795 E13.45213
G1 X16.836 Y55.541 E13.48468
G1 X16.213 Y55.119 E13.52597
G1 X15.8 Y54.757 E13.55611
G1 X15.375 Y54.337 E13.5889
G1 X14.907 Y53.854 E13.62581
G1 X14.524 Y53.401 E13.65837
G1 X14.205 Y52.901 E13.69092
G1 X13.957 Y52.363 E13.72343
G1 X13.783 Y51.796 E13.75598
G1 X13.687 Y51.211 E13.78851
G1 X13.67 Y50.618 E13.82107
G1 X13.734 Y50.028 E13.85364
G1 X13.876 Y49.453 E13.88614
G1 X14.094 Y48.901 E13.91871
G1 X14.482 Y48.24 E13.96077
G1 X14.757 Y47.857 E13.98665
G1 X18.44 Y42.946 E14.32353
G1 X18.714 Y42.587 E14.34831
G1 X19.399 Y41.708 E14.40947
G1 X20.085 Y40.859 E14.46937
G1 X20.244 Y40.667 E14.48305
G1 X20.912 Y39.873 E14.54
G1 X21.663 Y39.009 E14.60282
G1 X22.314 Y38.287 E14.65617
G1 X22.447 Y38.141 E14.66701
G1 X23.057 Y37.486 E14.71613
G1 X23.873 Y36.637 E14.78075
G1 X24.417 Y36.087 E14.82321
G1 X33.345 Y27.16 E15.51608
G0 F810 X33.721 Y26.784
G0 F1350 X34.001 Y27.069
G1 F900 X34.343 Y26.733 E15.54239
G1 X35.018 Y26.083 E15.59382
G1 X35.835 Y25.319 E15.6552
G1 X36.68 Y24.557 E15.71765
G1 X37.443 Y23.893 E15.77316
G1 X37.608 Y23.752 E15.78507
G1 X38.344 Y23.135 E15.83777
G1 X39.197 Y22.442 E15.89809
G1 X40 Y21.81 E15.95417
G1 X40.635 Y21.324 E15.99805
G1 X51.193 Y13.342 E16.72441
G1 X51.735 Y12.944 E16.76132
G1 X51.736 Y12.945 E16.76139
G1 X52.19 Y12.653 E16.79102
G1 X52.704 Y12.416 E16.82208
G1 X53.245 Y12.255 E16.85306
G1 X53.805 Y12.171 E16.88413
G1 X54.37 Y12.167 E16.91514
G1 X54.93 Y12.243 E16.94615
G1 X55.474 Y12.397 E16.97718
G1 X55.991 Y12.626 E17.00821
G1 X56.47 Y12.926 E17.03923
G1 X57.041 Y13.419 E17.08063
G1 X57.374 Y13.748 E17.10632
G1 X57.89 Y14.277 E17.14687
G1 X58.256 Y14.709 E17.17795
G1 X58.556 Y15.187 E17.20892
G1 X58.786 Y15.704 E17.23997
G1 X58.941 Y16.247 E17.27096
G1 X59.018 Y16.807 E17.30198
G1 X59.016 Y17.373 E17.33304
G1 X58.933 Y17.932 E17.36406
G1 X58.772 Y18.474 E17.39509
G1 X58.546 Y18.973 E17.42515
G1 X58.435 Y19.175 E17.4378
G1 X57.219 Y21.324 E17.57331
G1 X55.951 Y23.719 E17.72203
G1 X54.755 Y26.14 E17.87022
G1 X53.614 Y28.628 E18.02043
G1 X52.551 Y31.131 E18.16967
G1 X51.226 Y34.559 E18.37136
G1 X50.623 Y36.21 E18.46782
G1 X50.278 Y37.119 E18.52117
G1 X50.033 Y37.734 E18.5575
G1 X49.787 Y38.243 E18.58853
G1 X49.472 Y38.713 E18.61958
G1 X49.09 Y39.137 E18.6509
G1 X48.377 Y39.822 E18.70516
G1 X46.737 Y41.342 E18.82787
G1 X44.672 Y43.319 E18.98476
G1 X44.26 Y43.714 E19.01609
G1 X44.194 Y43.78 E19.02121
G1 X43.242 Y44.699 E19.09382
G1 X42.59 Y45.314 E19.14301
G1 X42.589 Y45.313 E19.14309
G1 X41.265 Y46.587 E19.24392
G1 X39.998 Y47.828 E19.34125
G1 X39.022 Y48.792 E19.41654
G1 X38.527 Y49.267 E19.45419
G1 X38.061 Y49.672 E19.48807
G1 X36.561 Y50.878 E19.5937
G1 X35.979 Y51.332 E19.6342
G1 X35.51 Y51.647 E19.66521
G1 X35.001 Y51.893 E19.69623
G1 X34.4 Y52.08 E19.73078
G1 X34.211 Y52.119 E19.74137
G1 X33.249 Y52.296 E19.79505
G1 X32.335 Y52.451 E19.84592
G1 X29.733 Y52.968 E19.99151
G1 X27.086 Y53.573 E20.14052
G1 X24.406 Y54.266 E20.29243
G1 X21.836 Y55.008 E20.43923
G1 X20.163 Y55.523 E20.5353
G1 X19.612 Y55.651 E20.56634
G1 X19.049 Y55.7 E20.59736
G1 X18.485 Y55.67 E20.62835
G1 X17.93 Y55.56 E20.6594
G1 X17.397 Y55.373 E20.6904
G1 X16.895 Y55.112 E20.72145
G1 X16.465 Y54.808 E20.75035
G1 X16.081 Y54.472 E20.77835
G1 X15.662 Y54.058 E20.81068
G1 X15.194 Y53.575 E20.84759
G1 X14.831 Y53.143 E20.87855
G1 X14.532 Y52.663 E20.90959
G1 X14.303 Y52.146 E20.94062
G1 X14.15 Y51.602 E20.97163
G1 X14.075 Y51.041 E21.00269
G1 X14.08 Y50.476 E21.0337
G1 X14.164 Y49.917 E21.06472
G1 X14.326 Y49.375 E21.09577
G1 X14.563 Y48.862 E21.12678
G1 X15.018 Y48.177 E21.17191
G1 X18.757 Y43.189 E21.51402
G1 X19.03 Y42.833 E21.53864
G1 X19.759 Y41.899 E21.60366
G1 X20.394 Y41.113 E21.65911
G1 X20.55 Y40.924 E21.67256
G1 X21.214 Y40.135 E21.72915
G1 X21.96 Y39.277 E21.79155
G1 X22.608 Y38.557 E21.84471
G1 X23.394 Y37.712 E21.90804
G1 X24.158 Y36.918 E21.96851
G1 X24.7 Y36.369 E22.01085
G1 X33.625 Y27.445 E22.70349
G0 F810 X34.001 Y27.069
G0 F1350 X34.282 Y27.354
G1 F900 X34.621 Y27.02 E22.7296
G1 X35.249 Y26.414 E22.7775
G1 X36.103 Y25.617 E22.8416
G1 X36.995 Y24.813 E22.90751
G1 X37.682 Y24.215 E22.95749
G1 X37.865 Y24.058 E22.97072
G1 X38.597 Y23.445 E23.02312
G1 X39.444 Y22.756 E23.08304
G1 X40.243 Y22.128 E23.13881
G1 X40.876 Y21.643 E23.18257
G1 X51.43 Y13.664 E23.90867
G1 X51.972 Y13.266 E23.94557
G1 X51.973 Y13.267 E23.94565
G1 X52.407 Y12.99 E23.9739
G1 X52.897 Y12.771 E24.00336
G1 X53.413 Y12.628 E24.03274
G1 X53.946 Y12.563 E24.06221
G1 X54.482 Y12.578 E24.09163
G1 X55.01 Y12.672 E24.12107
G1 X55.518 Y12.844 E24.1505
G1 X55.995 Y13.089 E24.17993
G1 X56.577 Y13.532 E24.22007
G1 X57.044 Y13.983 E24.2557
G1 X57.604 Y14.556 E24.29967
G1 X57.949 Y14.967 E24.32911
G1 X58.229 Y15.424 E24.35853
G1 X58.438 Y15.918 E24.38796
G1 X58.571 Y16.438 E24.41742
G1 X58.626 Y16.971 E24.44683
G1 X58.6 Y17.507 E24.47628
G1 X58.496 Y18.033 E24.5057
G1 X58.314 Y18.538 E24.53516
G1 X58.087 Y18.978 E24.56233
G1 X56.87 Y21.128 E24.69791
G1 X55.598 Y23.533 E24.84722
G1 X54.377 Y26.003 E24.99843
G1 X53.253 Y28.454 E25.14641
G1 X52.179 Y30.984 E25.29724
G1 X50.838 Y34.455 E25.50145
G1 X50.249 Y36.068 E25.59569
G1 X49.906 Y36.971 E25.6487
G1 X49.661 Y37.586 E25.68503
G1 X49.426 Y38.068 E25.71446
G1 X49.122 Y38.51 E25.7439
G1 X48.813 Y38.848 E25.76903
G1 X48.105 Y39.528 E25.8229
G1 X46.508 Y41.008 E25.94239
G1 X44.396 Y43.03 E26.10285
G1 X44.006 Y43.404 E26.13251
G1 X42.967 Y44.408 E26.2118
G1 X42.315 Y45.023 E26.26099
G1 X40.96 Y46.325 E26.36411
G1 X39.718 Y47.542 E26.45954
G1 X38.745 Y48.504 E26.53463
G1 X38.25 Y48.979 E26.57228
G1 X37.802 Y49.367 E26.60481
G1 X37.729 Y49.428 E26.61003
G1 X36.315 Y50.563 E26.70953
G1 X35.733 Y51.017 E26.75004
G1 X35.287 Y51.314 E26.77945
G1 X34.802 Y51.542 E26.80886
G1 X34.312 Y51.69 E26.83695
G1 X34.138 Y51.726 E26.8467
G1 X33.182 Y51.901 E26.90004
G1 X32.297 Y52.051 E26.9493
G1 X29.638 Y52.579 E27.09807
G1 X26.969 Y53.19 E27.24833
G1 X24.334 Y53.871 E27.39769
G1 X21.686 Y54.635 E27.54894
G1 X20.045 Y55.141 E27.64318
G1 X19.522 Y55.261 E27.67263
G1 X18.987 Y55.301 E27.70207
G1 X18.453 Y55.262 E27.73145
G1 X17.93 Y55.143 E27.76089
G1 X17.43 Y54.948 E27.79034
G1 X16.965 Y54.681 E27.81977
G1 X16.362 Y54.188 E27.86251
G1 X15.95 Y53.78 E27.89433
G1 X15.482 Y53.297 E27.93124
G1 X15.138 Y52.885 E27.9607
G1 X14.86 Y52.427 E27.9901
G1 X14.652 Y51.932 E28.01956
G1 X14.521 Y51.412 E28.04899
G1 X14.468 Y50.879 E28.07839
G1 X14.495 Y50.343 E28.10784
G1 X14.601 Y49.818 E28.13723
G1 X14.785 Y49.313 E28.16673
G1 X15.134 Y48.704 E28.20525
G1 X15.397 Y48.337 E28.23003
G1 X19.075 Y43.432 E28.56648
G1 X19.345 Y43.079 E28.59087
G1 X20.07 Y42.15 E28.65554
G1 X20.703 Y41.368 E28.71075
G1 X20.856 Y41.182 E28.72397
G1 X21.516 Y40.398 E28.78021
G1 X22.258 Y39.544 E28.8423
G1 X22.903 Y38.827 E28.89523
G1 X23.682 Y37.99 E28.95798
G1 X24.443 Y37.199 E29.01821
G1 X24.983 Y36.652 E29.0604
G1 X33.906 Y27.73 E29.75288
G0 F810 X34.282 Y27.354
G0 F1350 X34.562 Y27.639
G1 F900 X34.899 Y27.308 E29.7788
G1 X35.564 Y26.667 E29.82949
G1 X36.371 Y25.914 E29.89006
G1 X37.258 Y25.114 E29.95562
G1 X37.963 Y24.5 E30.00692
G1 X38.122 Y24.364 E30.0184
G1 X38.849 Y23.755 E30.07045
G1 X39.652 Y23.102 E30.12725
G1 X40.486 Y22.445 E30.18552
G1 X41.117 Y21.962 E30.22912
G1 X51.667 Y13.987 E30.95491
G1 X52.209 Y13.589 E30.99181
G1 X52.622 Y13.329 E31.01859
G1 X53.087 Y13.129 E31.04637
G1 X53.577 Y13.005 E31.07411
G1 X54.08 Y12.959 E31.10183
G1 X54.585 Y12.994 E31.12961
G1 X55.077 Y13.107 E31.15731
G1 X55.546 Y13.297 E31.18508
G1 X55.979 Y13.558 E31.21283
G1 X56.494 Y14.003 E31.25018
G1 X56.802 Y14.307 E31.27393
G1 X57.318 Y14.836 E31.31449
G1 X57.641 Y15.224 E31.34219
G1 X57.899 Y15.659 E31.36995
G1 X58.085 Y16.129 E31.39769
G1 X58.196 Y16.622 E31.42542
G1 X58.226 Y17.127 E31.45318
G1 X58.178 Y17.63 E31.48091
G1 X58.05 Y18.119 E31.50865
G1 X57.842 Y18.592 E31.53701
G1 X57.739 Y18.781 E31.54882
G1 X56.511 Y20.95 E31.68561
G1 X55.235 Y23.362 E31.83536
G1 X54.033 Y25.796 E31.98433
G1 X52.872 Y28.326 E32.1371
G1 X51.817 Y30.811 E32.28526
G1 X50.453 Y34.341 E32.49294
G1 X49.875 Y35.926 E32.58553
G1 X49.535 Y36.823 E32.63817
G1 X49.29 Y37.438 E32.6745
G1 X49.066 Y37.892 E32.70228
G1 X48.774 Y38.304 E32.73
G1 X48.536 Y38.56 E32.74918
G1 X47.833 Y39.235 E32.80266
G1 X46.193 Y40.755 E32.92538
G1 X44.119 Y42.741 E33.08296
G1 X43.739 Y43.105 E33.11184
G1 X42.693 Y44.117 E33.19171
G1 X42.041 Y44.732 E33.2409
G1 X40.705 Y46.015 E33.34255
G1 X39.438 Y47.256 E33.43988
G1 X38.468 Y48.215 E33.51474
G1 X37.973 Y48.69 E33.55239
G1 X37.544 Y49.062 E33.58355
G1 X36.105 Y50.219 E33.68488
G1 X35.487 Y50.701 E33.72789
G1 X35.065 Y50.98 E33.75566
G1 X34.605 Y51.188 E33.78336
G1 X34.066 Y51.332 E33.81398
G1 X33.115 Y51.507 E33.86705
G1 X32.223 Y51.658 E33.9167
G1 X29.535 Y52.192 E34.06709
G1 X26.884 Y52.799 E34.21634
G1 X24.237 Y53.483 E34.36638
G1 X21.569 Y54.253 E34.51877
G1 X19.927 Y54.759 E34.61307
G1 X19.434 Y54.869 E34.64079
G1 X18.929 Y54.901 E34.66856
G1 X18.426 Y54.852 E34.69629
G1 X17.937 Y54.725 E34.72402
G1 X17.473 Y54.522 E34.75181
G1 X16.969 Y54.187 E34.78502
G1 X16.288 Y53.554 E34.83605
G1 X15.769 Y53.019 E34.87695
G1 X15.447 Y52.629 E34.90471
G1 X15.19 Y52.193 E34.93248
G1 X15.005 Y51.723 E34.9602
G1 X14.897 Y51.229 E34.98795
G1 X14.868 Y50.724 E35.01571
G1 X14.918 Y50.221 E35.04345
G1 X15.047 Y49.733 E35.07116
G1 X15.252 Y49.27 E35.09894
G1 X15.67 Y48.641 E35.14039
G1 X19.393 Y43.675 E35.481
G1 X19.661 Y43.325 E35.5052
G1 X20.381 Y42.402 E35.56944
G1 X21.011 Y41.622 E35.62446
G1 X21.162 Y41.439 E35.63748
G1 X21.818 Y40.66 E35.69337
G1 X22.555 Y39.812 E35.75503
G1 X23.198 Y39.098 E35.80776
G1 X23.325 Y38.959 E35.81809
G1 X23.935 Y38.304 E35.86721
G1 X24.727 Y37.48 E35.92994
G1 X25.265 Y36.935 E35.97196
G1 X34.186 Y28.015 E36.66429
G0 F810 X34.562 Y27.639
G1 F1500 E31.66429
G0 F1350 X37.392 Y39.834
G1 F1500 E37.39186
G1 F900 X39.132 Y38.132 E37.52543
G1 X41.075 Y36.271 E37.67308
G1 X42.52 Y34.828 E37.78515
G1 X43.693 Y33.887 E37.86768
G1 X43.782 Y33.887 E37.87257
