;FLAVOR:Marlin
;TIME:1208
;Filament used: 1.49002m
;Layer height: 0.24
;MINX:49.053
;MINY:50.2
;MINZ:0.3
;MAXX:70.931
;MAXY:69.8
;MAXZ:33.9
;Generated with Cura_SteamEngine 4.7.1
M104 S210
M105
M109 S210
M82 ;absolute extrusion mode
;Sliced at: Mon 06-12-2021 09:20:20
G21 ;metric values
G90 ;absolute positioning
M82 ;set extruder to absolute mode
M107 ;start with the fan off
G1 Z5.0 F1800 ;move Z to 5mm
G28 X0 Y0 F1800 ;move X/Y to min endstops
G28 Z0 ;move Z to min endstop
G92 E0 ;zero the extruded length
G1 F200 E6.0 ;extrude 6.0mm of feed stock to build pressure
G1 Z5.0 F300 ;move the platform down 5mm
G92 E0 ;zero the extruded length again
G1 F1800
;Put printing message on LCD screen
M117 Printing...
G92 E0
G92 E0
G1 F1500 E-5
;LAYER_COUNT:141
;LAYER:0
M107
G0 F1350 X51.217 Y52.635 Z0.3
;TYPE:SKIRT
G1 F1500 E0.72757
G1 F900 X51.821 Y52.068 E0.77303
G1 X52.326 Y51.674 E0.80818
G1 X52.425 Y51.601 E0.81493
G1 X53.136 Y51.167 E0.86064
G1 X53.706 Y50.886 E0.89552
G1 X53.838 Y50.826 E0.90348
G1 X54.608 Y50.552 E0.94833
G1 X55.074 Y50.43 E0.97477
G1 X55.567 Y50.329 E1.00238
G1 X55.882 Y50.281 E1.01987
G1 X56.507 Y50.227 E1.0543
G1 X57.874 Y50.2 E1.12933
G1 X63.146 Y50.2 E1.41866
G1 X63.921 Y50.212 E1.46119
G1 X64.539 Y50.261 E1.49521
G1 X65.145 Y50.39 E1.52922
G1 X65.729 Y50.596 E1.5632
G1 X66.282 Y50.875 E1.59719
G1 X66.794 Y51.223 E1.63117
G1 X67.257 Y51.634 E1.66514
G1 X67.664 Y52.101 E1.69914
G1 X68.006 Y52.617 E1.73311
G1 X68.28 Y53.173 E1.76713
G1 X68.491 Y53.799 E1.80338
G1 X68.602 Y54.237 E1.82818
G1 X70.673 Y63.263 E2.33639
G1 X70.827 Y63.974 E2.37631
G1 X70.919 Y64.586 E2.41028
G1 X70.931 Y65.206 E2.44431
G1 X70.863 Y65.821 E2.47826
G1 X70.717 Y66.423 E2.51226
G1 X70.494 Y67.001 E2.54626
G1 X70.199 Y67.546 E2.58027
G1 X69.836 Y68.047 E2.61422
G1 X69.412 Y68.498 E2.64819
G1 X68.933 Y68.891 E2.6822
G1 X68.407 Y69.219 E2.71621
G1 X67.844 Y69.476 E2.75018
G1 X67.252 Y69.658 E2.78417
G1 X66.642 Y69.763 E2.81814
G1 X65.96 Y69.797 E2.85561
G1 X65.826 Y69.799 E2.86296
G1 X64.597 Y69.8 E2.93041
G1 X62.706 Y69.793 E3.03419
G1 X61.762 Y69.8 E3.086
G1 X54.498 Y69.8 E3.48464
G1 X53.8 Y69.791 E3.52295
G1 X53.183 Y69.743 E3.55691
G1 X52.576 Y69.616 E3.59094
G1 X51.992 Y69.412 E3.62489
G1 X51.438 Y69.134 E3.65891
G1 X50.925 Y68.787 E3.6929
G1 X50.46 Y68.378 E3.72688
G1 X50.053 Y67.911 E3.76088
G1 X49.708 Y67.397 E3.79485
G1 X49.433 Y66.842 E3.82884
G1 X49.232 Y66.256 E3.86284
G1 X49.107 Y65.649 E3.89685
G1 X49.064 Y65.121 E3.92592
G1 X49.053 Y64.658 E3.95134
G1 X49.053 Y58.624 E4.28248
G1 X49.063 Y57.927 E4.32074
G1 X49.109 Y57.25 E4.35798
G1 X49.156 Y56.851 E4.38002
G1 X49.327 Y56.029 E4.4261
G1 X49.489 Y55.496 E4.45667
G1 X49.544 Y55.329 E4.46632
G1 X49.879 Y54.551 E4.51281
G1 X50.152 Y54.048 E4.54421
G1 X50.225 Y53.921 E4.55225
G1 X50.72 Y53.216 E4.59953
G1 X50.87 Y53.038 E4.6123
G0 F810 X51.062 Y52.811
G0 X51.217 Y52.635
G0 F1350 X51.515 Y52.902
G1 F900 X52.069 Y52.382 E4.654
G1 X52.564 Y51.996 E4.68845
G1 X52.663 Y51.923 E4.6952
G1 X53.314 Y51.525 E4.73707
G1 X53.871 Y51.25 E4.77116
G1 X54.003 Y51.19 E4.77912
G1 X54.71 Y50.939 E4.82029
G1 X55.627 Y50.724 E4.87198
G1 X55.942 Y50.676 E4.88947
G1 X56.515 Y50.627 E4.92103
G1 X57.874 Y50.6 E4.99562
G1 X63.146 Y50.6 E5.28495
G1 X63.915 Y50.612 E5.32716
G1 X64.506 Y50.661 E5.3597
G1 X65.085 Y50.789 E5.39224
G1 X65.641 Y50.994 E5.42476
G1 X66.165 Y51.272 E5.45732
G1 X66.647 Y51.618 E5.48988
G1 X67.078 Y52.025 E5.52241
G1 X67.45 Y52.487 E5.55496
G1 X67.757 Y52.994 E5.58749
G1 X67.992 Y53.538 E5.62001
G1 X68.182 Y54.199 E5.65775
G1 X68.213 Y54.326 E5.66493
G1 X70.271 Y63.295 E6.16993
G1 X70.436 Y64.059 E6.21283
G1 X70.522 Y64.645 E6.24533
G1 X70.529 Y65.238 E6.27787
G1 X70.456 Y65.827 E6.31045
G1 X70.304 Y66.4 E6.34298
G1 X70.077 Y66.947 E6.37548
G1 X69.778 Y67.459 E6.40802
G1 X69.413 Y67.927 E6.44059
G1 X68.988 Y68.341 E6.47315
G1 X68.512 Y68.694 E6.50567
G1 X67.992 Y68.979 E6.53821
G1 X67.439 Y69.193 E6.57076
G1 X66.862 Y69.33 E6.6033
G1 X66.262 Y69.388 E6.63638
G1 X65.826 Y69.399 E6.66032
G1 X64.598 Y69.4 E6.72771
G1 X62.704 Y69.393 E6.83165
G1 X61.759 Y69.4 E6.88351
G1 X54.503 Y69.4 E7.28172
G1 X53.805 Y69.391 E7.32003
G1 X53.214 Y69.343 E7.35257
G1 X52.635 Y69.216 E7.3851
G1 X52.078 Y69.013 E7.41763
G1 X51.553 Y68.737 E7.45018
G1 X51.071 Y68.392 E7.48271
G1 X50.639 Y67.986 E7.51525
G1 X50.265 Y67.525 E7.54782
G1 X49.957 Y67.019 E7.58033
G1 X49.72 Y66.475 E7.6129
G1 X49.558 Y65.905 E7.64542
G1 X49.464 Y65.11 E7.68935
G1 X49.453 Y64.658 E7.71416
G1 X49.453 Y58.63 E8.04498
G1 X49.463 Y57.933 E8.08323
G1 X49.506 Y57.297 E8.11821
G1 X49.553 Y56.898 E8.14026
G1 X49.71 Y56.144 E8.18253
G1 X49.869 Y55.622 E8.21247
G1 X49.924 Y55.455 E8.22212
G1 X50.231 Y54.741 E8.26478
G1 X50.499 Y54.247 E8.29562
G1 X50.572 Y54.12 E8.30366
G1 X51.025 Y53.474 E8.34696
G1 X51.168 Y53.305 E8.35911
G0 F810 X51.367 Y53.069
G0 X51.515 Y52.902
G0 F1350 X51.812 Y53.169
G1 F900 X52.316 Y52.697 E8.397
G1 X52.801 Y52.318 E8.43078
G1 X52.9 Y52.245 E8.43753
G1 X53.492 Y51.883 E8.47561
G1 X54.037 Y51.615 E8.50894
G1 X54.169 Y51.555 E8.5169
G1 X54.811 Y51.326 E8.55431
G1 X55.687 Y51.12 E8.60369
G1 X56.002 Y51.072 E8.62118
G1 X56.523 Y51.027 E8.64988
G1 X57.874 Y51 E8.72403
G1 X63.209 Y51 E9.01681
G1 X63.909 Y51.011 E9.05523
G1 X64.472 Y51.06 E9.08625
G1 X65.023 Y51.188 E9.11729
G1 X65.55 Y51.392 E9.1483
G1 X66.043 Y51.668 E9.17931
G1 X66.492 Y52.012 E9.21035
G1 X66.889 Y52.415 E9.2414
G1 X67.225 Y52.87 E9.27244
G1 X67.493 Y53.367 E9.30343
G1 X67.716 Y54.001 E9.34031
G1 X67.823 Y54.415 E9.36377
G1 X69.891 Y63.432 E9.87147
G1 X70.045 Y64.143 E9.91139
G1 X70.126 Y64.703 E9.94244
G1 X70.126 Y65.268 E9.97345
G1 X70.047 Y65.828 E10.00449
G1 X69.89 Y66.371 E10.03551
G1 X69.658 Y66.886 E10.06651
G1 X69.355 Y67.364 E10.09756
G1 X68.988 Y67.794 E10.12859
G1 X68.565 Y68.168 E10.15958
G1 X68.092 Y68.479 E10.19064
G1 X67.581 Y68.72 E10.22165
G1 X67.041 Y68.886 E10.25265
G1 X66.251 Y68.988 E10.29636
G1 X65.825 Y68.999 E10.31975
G1 X64.599 Y69 E10.38703
G1 X62.702 Y68.993 E10.49114
G1 X61.756 Y69 E10.54306
G1 X54.508 Y69 E10.94082
G1 X53.81 Y68.991 E10.97913
G1 X53.247 Y68.943 E11.01014
G1 X52.696 Y68.817 E11.04116
G1 X52.168 Y68.615 E11.07218
G1 X51.674 Y68.34 E11.10321
G1 X51.224 Y67.998 E11.13423
G1 X50.826 Y67.596 E11.16527
G1 X50.49 Y67.142 E11.19627
G1 X50.22 Y66.645 E11.22731
G1 X50.023 Y66.115 E11.25834
G1 X49.903 Y65.563 E11.28934
G1 X49.854 Y64.766 E11.33316
G1 X49.853 Y58.636 E11.66957
G1 X49.863 Y57.939 E11.70783
G1 X49.903 Y57.344 E11.74055
G1 X49.95 Y56.945 E11.7626
G1 X50.093 Y56.259 E11.80106
G1 X50.249 Y55.747 E11.83043
G1 X50.304 Y55.58 E11.84008
G1 X50.583 Y54.931 E11.87885
G1 X50.846 Y54.447 E11.90908
G1 X50.919 Y54.32 E11.91712
G1 X51.331 Y53.732 E11.95652
G1 X51.466 Y53.573 E11.96797
G0 F810 X51.673 Y53.327
G0 X51.812 Y53.169
G0 F1350 X52.11 Y53.436
G1 F900 X52.564 Y53.011 E12.0021
G1 X53.038 Y52.64 E12.03513
G1 X53.137 Y52.567 E12.04188
G1 X53.67 Y52.241 E12.07617
G1 X54.202 Y51.979 E12.10871
G1 X54.334 Y51.919 E12.11667
G1 X54.912 Y51.713 E12.15034
G1 X55.748 Y51.515 E12.19749
G1 X56.531 Y51.427 E12.24073
G1 X57.874 Y51.4 E12.31445
G1 X63.203 Y51.4 E12.6069
G1 X63.903 Y51.411 E12.64532
G1 X64.437 Y51.46 E12.67475
G1 X64.958 Y51.587 E12.70418
G1 X65.454 Y51.79 E12.73359
G1 X65.915 Y52.065 E12.76305
G1 X66.329 Y52.405 E12.79245
G1 X66.689 Y52.803 E12.8219
G1 X66.986 Y53.249 E12.85131
G1 X67.212 Y53.735 E12.88072
G1 X67.407 Y54.401 E12.91881
G1 X67.433 Y54.505 E12.92469
G1 X69.5 Y63.517 E13.4321
G1 X69.654 Y64.228 E13.47203
G1 X69.729 Y64.759 E13.50146
G1 X69.723 Y65.295 E13.53087
G1 X69.638 Y65.825 E13.56033
G1 X69.475 Y66.336 E13.58977
G1 X69.238 Y66.817 E13.61919
G1 X68.932 Y67.257 E13.64861
G1 X68.564 Y67.648 E13.67807
G1 X68.143 Y67.979 E13.70746
G1 X67.676 Y68.244 E13.73693
G1 X67.176 Y68.437 E13.76634
G1 X66.652 Y68.553 E13.7958
G1 X65.925 Y68.598 E13.83577
G1 X64.601 Y68.6 E13.90843
G1 X62.701 Y68.593 E14.0127
G1 X61.753 Y68.6 E14.06473
G1 X54.514 Y68.6 E14.462
G1 X53.816 Y68.591 E14.50031
G1 X53.281 Y68.544 E14.52978
G1 X52.76 Y68.418 E14.5592
G1 X52.263 Y68.216 E14.58864
G1 X51.802 Y67.943 E14.61804
G1 X51.386 Y67.604 E14.64749
G1 X51.025 Y67.208 E14.6769
G1 X50.727 Y66.762 E14.70634
G1 X50.499 Y66.276 E14.7358
G1 X50.346 Y65.762 E14.76523
G1 X50.263 Y65.088 E14.8025
G1 X50.253 Y64.658 E14.8261
G1 X50.253 Y58.641 E15.15631
G1 X50.263 Y57.944 E15.19456
G1 X50.301 Y57.391 E15.22498
G1 X50.348 Y56.992 E15.24703
G1 X50.476 Y56.375 E15.28161
G1 X50.629 Y55.872 E15.31047
G1 X50.684 Y55.705 E15.32011
G1 X50.935 Y55.121 E15.355
G1 X51.193 Y54.646 E15.38466
G1 X51.266 Y54.519 E15.3927
G1 X51.636 Y53.99 E15.42813
G1 X51.764 Y53.839 E15.43899
G0 F810 X51.978 Y53.585
G0 X52.11 Y53.436
G0 F1350 X52.408 Y53.703
G1 F900 X52.811 Y53.325 E15.46932
G1 X53.276 Y52.961 E15.50172
G1 X53.375 Y52.888 E15.50847
G1 X53.848 Y52.599 E15.53889
G1 X54.368 Y52.343 E15.5707
G1 X54.5 Y52.283 E15.57866
G1 X55.014 Y52.1 E15.6086
G1 X55.808 Y51.911 E15.65339
G1 X56.539 Y51.827 E15.69377
G1 X57.874 Y51.8 E15.76705
G1 X63.196 Y51.8 E16.05912
G1 X63.896 Y51.811 E16.09754
G1 X64.4 Y51.859 E16.12532
G1 X64.889 Y51.986 E16.15305
G1 X65.353 Y52.188 E16.18082
G1 X65.778 Y52.46 E16.20851
G1 X66.156 Y52.796 E16.23627
G1 X66.476 Y53.188 E16.26404
G1 X66.73 Y53.625 E16.29178
G1 X66.942 Y54.203 E16.32556
G1 X67.043 Y54.594 E16.34773
G1 X69.109 Y63.602 E16.85491
G1 X69.263 Y64.313 E16.89484
G1 X69.331 Y64.814 E16.92259
G1 X69.319 Y65.319 E16.95031
G1 X69.227 Y65.816 E16.97805
G1 X69.059 Y66.293 E17.0058
G1 X68.817 Y66.737 E17.03355
G1 X68.509 Y67.137 E17.06125
G1 X68.141 Y67.484 E17.08901
G1 X67.723 Y67.769 E17.11678
G1 X67.265 Y67.984 E17.14454
G1 X66.78 Y68.125 E17.17226
G1 X66.228 Y68.189 E17.20276
G1 X65.825 Y68.199 E17.22488
G1 X64.602 Y68.2 E17.292
G1 X62.699 Y68.193 E17.39643
G1 X61.75 Y68.2 E17.44852
G1 X54.519 Y68.2 E17.84535
G1 X53.821 Y68.191 E17.88366
G1 X53.317 Y68.144 E17.91144
G1 X52.827 Y68.019 E17.93919
G1 X52.363 Y67.818 E17.96694
G1 X51.937 Y67.547 E17.99465
G1 X51.558 Y67.212 E18.02241
G1 X51.237 Y66.821 E18.05017
G1 X50.982 Y66.385 E18.07789
G1 X50.798 Y65.914 E18.10564
G1 X50.691 Y65.42 E18.13338
G1 X50.654 Y64.744 E18.17053
G1 X50.653 Y58.647 E18.50513
G1 X50.663 Y57.95 E18.54338
G1 X50.698 Y57.438 E18.57155
G1 X50.745 Y57.039 E18.5936
G1 X50.859 Y56.49 E18.62437
G1 X51.009 Y55.997 E18.65265
G1 X51.064 Y55.83 E18.6623
G1 X51.287 Y55.311 E18.6933
G1 X51.54 Y54.845 E18.7224
G1 X51.613 Y54.718 E18.73044
G1 X51.942 Y54.248 E18.76192
G1 X52.062 Y54.106 E18.77212
G0 F810 X52.284 Y53.843
G0 X52.408 Y53.703
G1 F1500 E13.77212
;MESH:Deckel-Aufnahme.3mf
G0 F1350 X59.526 Y56.4
;TYPE:WALL-INNER
G1 F1500 E19.49969
G1 F900 X59.458 Y56.497 E19.50619
G1 X59.298 Y56.733 E19.52184
G1 X59.166 Y56.926 E19.53467
G1 X59 Y57.705 E19.57838
G1 X59.047 Y58.203 E19.60583
G1 X60.231 Y63.357 E19.89605
G1 X60.286 Y63.6 E19.90972
G1 X60.037 Y63.6 E19.91805
G1 X60.036 Y63.6 E19.9181
G1 X55.253 Y63.6 E20.18059
G1 X55.253 Y58.067 E20.48424
G1 X55.295 Y57.673 E20.50598
G1 X55.392 Y57.368 E20.52355
G1 X55.552 Y57.083 E20.54148
G1 X55.769 Y56.834 E20.55961
G1 X56.027 Y56.638 E20.57739
G1 X56.315 Y56.501 E20.59489
G1 X56.662 Y56.417 E20.61448
G1 X56.903 Y56.4 E20.62774
G1 X59.173 Y56.4 E20.75232
G1 X59.458 Y56.4 E20.76274
G1 X59.526 Y56.4
G1 F1500 E15.76274
G0 F1350 X63.083 Y56.718
G1 F1500 E21.4903
G1 F900 X62.832 Y56.489 E21.50895
G1 X62.748 Y56.415 E21.51509
G1 X62.706 Y56.377 E21.5182
G1 X62.538 Y56.229 E21.53049
G1 X61.905 Y56.009 E21.56726
G1 X61.122 Y56 E21.56775
G1 X60.521 Y56.117 E21.60135
G1 X60.132 Y56.375 E21.62697
G1 X59.944 Y56.5 E21.63936
G1 X59.787 Y56.724 E21.65437
G1 X59.541 Y57.086 E21.67839
G1 X59.404 Y57.728 E21.71441
G1 X59.443 Y58.139 E21.73707
G1 X60.733 Y63.757 E22.05341
G1 X60.788 Y64 E22.06708
G1 X60.539 Y64 E22.07541
G1 X60.538 Y64 E22.07546
G1 X54.853 Y64 E22.38745
G1 X54.853 Y58.044 E22.71431
G1 X54.901 Y57.593 E22.7392
G1 X55.024 Y57.206 E22.76149
G1 X55.222 Y56.853 E22.7837
G1 X55.496 Y56.539 E22.80657
G1 X55.816 Y56.295 E22.82865
G1 X56.182 Y56.121 E22.85089
G1 X56.599 Y56.02 E22.87444
G1 X56.875 Y56.002 E22.88962
G1 X56.891 Y56 E22.8905
G1 X60.054 Y56 E23.06408
G1 X60.521 Y56 E23.08104
G1 X61.122 Y56 E23.11403
G1 X61.905 Y56 E23.11451
G1 X62.538 Y56 E23.12453
G1 X62.762 Y56 E23.13437
G1 X63.056 Y56 E23.1505
G1 X63.127 Y56.307 E23.1678
G1 X63.151 Y56.416 E23.17202
G1 X63.213 Y56.687 E23.18043
G1 X63.352 Y57.29 E23.21439
G1 X64.892 Y64 E23.59221
G1 X63.351 Y57.291 E23.59263
G1 X63.083 Y56.718 E23.59891
G0 F1350 X62.755 Y56.96
G1 F900 X62.565 Y56.787 E23.61301
G1 X62.332 Y56.581 E23.63008
G1 X61.835 Y56.408 E23.65896
G1 X61.158 Y56.4 E23.69612
G1 X60.676 Y56.494 E23.72307
G1 X60.228 Y56.791 E23.75257
G1 X60.116 Y56.951 E23.76328
G1 X59.916 Y57.246 E23.78284
G1 X59.808 Y57.751 E23.81118
G1 X59.839 Y58.075 E23.82905
G1 X61.235 Y64.157 E24.1715
G1 X61.29 Y64.4 E24.18517
G1 X61.041 Y64.4 E24.1935
G1 X61.04 Y64.4 E24.19356
G1 X54.453 Y64.4 E24.55505
G1 X54.453 Y58.021 E24.90512
G1 X54.507 Y57.513 E24.93316
G1 X54.656 Y57.044 E24.96016
G1 X54.894 Y56.62 E24.98685
G1 X55.218 Y56.248 E25.01392
G1 X55.574 Y55.978 E25.03844
G1 X55.607 Y55.952 E25.04075
G1 X55.644 Y55.935 E25.04298
G1 X56.01 Y55.761 E25.06522
G1 X56.052 Y55.741 E25.06777
G1 X56.535 Y55.623 E25.09506
G1 X56.879 Y55.6 E25.11398
G1 X63.375 Y55.6 E25.47048
G1 X65.339 Y64.157 E25.95229
G1 X65.394 Y64.4 E25.96596
G1 X65.145 Y64.4 E25.97429
G1 X65.144 Y64.4 E25.97434
G1 X64.573 Y64.4 E26.00568
G1 X62.975 Y57.443 E26.39742
G0 F810 X62.971 Y57.422
G0 X62.755 Y56.96
G0 F1350 X62.427 Y57.202
;TYPE:WALL-OUTER
G1 F900 X62.298 Y57.085 E26.40697
G1 X62.126 Y56.933 E26.41957
G1 X61.765 Y56.807 E26.44055
G1 X61.194 Y56.8 E26.47189
G1 X60.831 Y56.871 E26.49219
G1 X60.512 Y57.083 E26.51321
G1 X60.445 Y57.178 E26.51959
G1 X60.291 Y57.406 E26.53469
G1 X60.212 Y57.774 E26.55535
G1 X60.235 Y58.011 E26.56841
G1 X61.736 Y64.556 E26.93692
G1 X61.792 Y64.8 E26.95066
G1 X61.542 Y64.8 E26.95902
G1 X61.541 Y64.8 E26.95907
G1 X54.053 Y64.8 E27.37001
G1 X54.053 Y57.998 E27.7433
G1 X54.113 Y57.433 E27.77448
G1 X54.288 Y56.881 E27.80626
G1 X54.566 Y56.387 E27.83736
G1 X54.943 Y55.954 E27.86887
G1 X55.396 Y55.61 E27.90009
G1 X55.92 Y55.361 E27.93193
G1 X56.471 Y55.227 E27.96305
G1 X56.867 Y55.2 E27.98483
G1 X63.694 Y55.2 E28.35949
G1 X65.84 Y64.556 E28.88627
G1 X65.896 Y64.8 E28.90001
G1 X65.646 Y64.8 E28.90837
G1 X65.645 Y64.8 E28.90842
G1 X64.254 Y64.8 E28.98476
G1 X62.623 Y57.694 E29.38487
G0 F810 X62.591 Y57.553
G0 X62.427 Y57.202
G0 F1350 X62.298 Y57.085
G0 X62.279 Y57.068
G0 X62.571 Y56.739
G1 F1500 E24.38487
G0 F1350 X58.797 Y56.79
;TYPE:SKIN
G1 F1500 E30.11244
G1 F900 X58.606 Y57.682 E30.1625
G1 X58.661 Y58.265 E30.19463
G1 X59.796 Y63.21 E30.47307
G1 X55.643 Y63.21 E30.70098
G1 X55.643 Y58.09 E30.98196
G1 X55.679 Y57.754 E31.00051
G1 X55.753 Y57.521 E31.01392
G1 X55.872 Y57.31 E31.02722
G1 X56.038 Y57.119 E31.04111
G1 X56.227 Y56.975 E31.05415
G1 X56.449 Y56.87 E31.06762
G1 X56.717 Y56.805 E31.08276
G1 X56.93 Y56.79 E31.09448
G1 X58.265 Y56.79 E31.16774
G0 F810 X58.797 Y56.79
G0 F1350 X58.524 Y57.393
G1 F900 X58.061 Y56.929 E31.20371
G0 F1350 X57.495 Y56.929
G1 F900 X58.488 Y57.922 E31.28078
G0 F1350 X58.591 Y58.591
G1 F900 X56.93 Y56.93 E31.40969
G0 F1350 X56.456 Y57.021
G1 F900 X58.76 Y59.326 E31.58855
G0 F1350 X58.928 Y60.06
G1 F900 X56.113 Y57.244 E31.80706
G0 F1350 X55.881 Y57.578
G1 F900 X59.097 Y60.794 E32.05666
G0 F1350 X59.266 Y61.528
G1 F900 X55.787 Y58.05 E32.32663
G0 F1350 X55.782 Y58.611
G1 F900 X59.435 Y62.263 E32.6101
G0 F1350 X59.603 Y62.997
M104 S202
G1 F900 X55.782 Y59.177 E32.90661
G0 F1350 X55.782 Y59.742
G1 F900 X59.109 Y63.068 E33.16478
G0 F1350 X58.543 Y63.068
G1 F900 X55.782 Y60.308 E33.37903
G0 F1350 X55.782 Y60.874
G1 F900 X57.977 Y63.068 E33.54935
G0 F1350 X57.412 Y63.068
G1 F900 X55.782 Y61.439 E33.67581
G0 F1350 X55.782 Y62.005
G1 F900 X56.846 Y63.068 E33.75835
G0 F1350 X56.28 Y63.068
G1 F900 X55.782 Y62.571 E33.79696
G1 F1500 E28.79696
;MESH:NONMESH
G0 F600 X55.782 Y62.571 Z0.54
G0 F1350 X59.522 Y56.4
;TIME_ELAPSED:45.896065
;LAYER:1
M106 S255
