;FLAVOR:Marlin
;TIME:4348
;Filament used: 5.49043m
;Layer height: 0.12
;MINX:14.539
;MINY:11.047
;MINZ:0.3
;MAXX:89.55
;MAXY:97.134
;MAXZ:48
;Generated with Cura_SteamEngine 4.6.1
M104 S210
M105
M109 S210
M82 ;absolute extrusion mode
;Sliced at: Fri 17-07-2020 11:58:03
G21 ;metric values
G90 ;absolute positioning
M82 ;set extruder to absolute mode
M107 ;start with the fan off
G1 Z5.0 F1800 ;move Z to 5mm
G28 X0 Y0 F1800 ;move X/Y to min endstops
G28 Z0 ;move Z to min endstop
G92 E0 ;zero the extruded length
G1 F200 E6.0 ;extrude 6.0mm of feed stock to build pressure
G1 Z5.0 F300 ;move the platform down 5mm
G92 E0 ;zero the extruded length again
G1 F1800
;Put printing message on LCD screen
M117 Printing...
G92 E0
G92 E0
G1 F1500 E-5
;LAYER_COUNT:184
;LAYER:0
M107
G0 F900 X86.09 Y11.904 Z0.3
;TYPE:SKIRT
G1 F1500 E0.70678
G1 F900 X86.58 Y12.03 E0.73454
G1 X87.044 Y12.232 E0.76232
G1 X87.47 Y12.504 E0.79005
G1 X87.848 Y12.839 E0.81777
G1 X88.168 Y13.23 E0.8455
G1 X88.423 Y13.667 E0.87327
G1 X88.606 Y14.138 E0.901
G1 X88.713 Y14.632 E0.92874
G1 X88.749 Y15.287 E0.96474
G1 X88.75 Y39.351 E2.28535
G1 X88.741 Y40.078 E2.32525
G1 X88.695 Y40.581 E2.35297
G1 X88.57 Y41.071 E2.38072
G1 X88.369 Y41.535 E2.40847
G1 X88.098 Y41.962 E2.43623
G1 X87.763 Y42.341 E2.46399
G1 X87.373 Y42.662 E2.49171
G1 X86.937 Y42.918 E2.51945
G1 X86.466 Y43.101 E2.54718
G1 X85.972 Y43.209 E2.57493
G1 X85.31 Y43.246 E2.61132
G1 X72.716 Y43.247 E3.30247
G1 X72.018 Y43.238 E3.34078
G1 X71.514 Y43.191 E3.36856
G1 X71.024 Y43.066 E3.39631
G1 X70.56 Y42.865 E3.42406
G1 X70.134 Y42.594 E3.45177
G1 X69.755 Y42.259 E3.47953
G1 X69.434 Y41.868 E3.50729
G1 X69.179 Y41.432 E3.53501
G1 X68.995 Y40.961 E3.56276
G1 X68.888 Y40.467 E3.5905
G1 X68.851 Y39.791 E3.62765
G1 X68.85 Y15.678 E4.95096
G1 X68.859 Y15.013 E4.98745
G1 X68.906 Y14.509 E5.01523
G1 X69.032 Y14.02 E5.04295
G1 X69.233 Y13.556 E5.0707
G1 X69.504 Y13.129 E5.09845
G1 X69.839 Y12.751 E5.12617
G1 X70.23 Y12.43 E5.15393
G1 X70.667 Y12.175 E5.1817
G1 X71.138 Y11.991 E5.20945
G1 X71.632 Y11.885 E5.23718
G1 X72.29 Y11.848 E5.27334
G1 X84.889 Y11.847 E5.96477
G1 X85.56 Y11.857 E6.0016
G0 F810 X85.587 Y11.857
G0 X86.09 Y11.904
G0 F900 X86.127 Y11.505
G1 X86.648 Y11.631 E6.03101
G1 X87.145 Y11.834 E6.06047
G1 X87.606 Y12.108 E6.08991
G1 X88.021 Y12.447 E6.11931
G1 X88.381 Y12.845 E6.14876
G1 X88.678 Y13.291 E6.17817
G1 X88.906 Y13.777 E6.20763
G1 X89.058 Y14.291 E6.23705
G1 X89.14 Y14.956 E6.27382
G1 X89.15 Y39.356 E7.61287
G1 X89.141 Y40.083 E7.65277
G1 X89.094 Y40.617 E7.68219
G1 X88.969 Y41.138 E7.71159
G1 X88.767 Y41.635 E7.74104
G1 X88.494 Y42.097 E7.77049
G1 X88.156 Y42.513 E7.7999
G1 X87.759 Y42.874 E7.82935
G1 X87.313 Y43.172 E7.85879
G1 X86.828 Y43.4 E7.8882
G1 X86.314 Y43.554 E7.91764
G1 X85.642 Y43.637 E7.9548
G1 X72.711 Y43.647 E8.66445
G1 X72.013 Y43.638 E8.70275
G1 X71.478 Y43.591 E8.73223
G1 X70.957 Y43.465 E8.76164
G1 X70.46 Y43.263 E8.79109
G1 X69.999 Y42.99 E8.82049
G1 X69.583 Y42.651 E8.84994
G1 X69.222 Y42.255 E8.87935
G1 X68.924 Y41.809 E8.90878
G1 X68.696 Y41.323 E8.93824
G1 X68.543 Y40.809 E8.96767
G1 X68.46 Y40.135 E9.00494
G1 X68.45 Y15.672 E10.34745
G1 X68.459 Y15.007 E10.38395
G1 X68.507 Y14.473 E10.41337
G1 X68.633 Y13.952 E10.44279
G1 X68.835 Y13.455 E10.47223
G1 X69.108 Y12.994 E10.50164
G1 X69.447 Y12.578 E10.53109
G1 X69.844 Y12.218 E10.5605
G1 X70.291 Y11.92 E10.58998
G1 X70.776 Y11.692 E10.61939
G1 X71.29 Y11.539 E10.64882
G1 X71.958 Y11.457 E10.68576
G1 X84.895 Y11.447 E11.39573
G1 X85.593 Y11.457 E11.43404
G1 X85.597 Y11.458 E11.43426
G0 F810 X86.127 Y11.505
G0 F900 X86.162 Y11.105
G1 X86.712 Y11.232 E11.46524
G1 X87.24 Y11.436 E11.49631
G1 X87.734 Y11.711 E11.52733
G1 X88.183 Y12.054 E11.55834
G1 X88.58 Y12.456 E11.58935
G1 X88.917 Y12.911 E11.62042
G1 X89.185 Y13.408 E11.65141
G1 X89.381 Y13.938 E11.68242
G1 X89.501 Y14.491 E11.71347
G1 X89.548 Y15.265 E11.75603
G1 X89.55 Y39.361 E13.0784
G1 X89.541 Y40.088 E13.1183
G1 X89.494 Y40.651 E13.1493
G1 X89.368 Y41.202 E13.18032
G1 X89.166 Y41.73 E13.21135
G1 X88.891 Y42.224 E13.24237
G1 X88.549 Y42.674 E13.27339
G1 X88.147 Y43.072 E13.30444
G1 X87.694 Y43.409 E13.33542
G1 X87.197 Y43.679 E13.36646
G1 X86.667 Y43.876 E13.39749
G1 X86.115 Y43.997 E13.42851
G1 X85.332 Y44.045 E13.47156
G1 X72.705 Y44.047 E14.16452
G1 X72.007 Y44.038 E14.20283
G1 X71.444 Y43.99 E14.23383
G1 X70.893 Y43.864 E14.26485
G1 X70.365 Y43.662 E14.29588
G1 X69.871 Y43.387 E14.32691
G1 X69.421 Y43.045 E14.35792
G1 X69.023 Y42.643 E14.38897
G1 X68.687 Y42.189 E14.41997
G1 X68.417 Y41.692 E14.45101
G1 X68.22 Y41.162 E14.48204
G1 X68.1 Y40.61 E14.51304
G1 X68.051 Y39.813 E14.55686
G1 X68.05 Y15.667 E15.88197
G1 X68.059 Y15.002 E15.91847
G1 X68.107 Y14.439 E15.94948
G1 X68.233 Y13.888 E15.9805
G1 X68.436 Y13.36 E16.01154
G1 X68.712 Y12.866 E16.0426
G1 X69.054 Y12.416 E16.07361
G1 X69.456 Y12.019 E16.10462
G1 X69.91 Y11.682 E16.13565
G1 X70.407 Y11.413 E16.16666
G1 X70.937 Y11.216 E16.19769
G1 X71.49 Y11.097 E16.22874
G1 X72.268 Y11.049 E16.27151
G1 X84.9 Y11.047 E16.96475
G1 X85.598 Y11.057 E17.00306
G1 X85.632 Y11.06 E17.00493
G0 F810 X86.162 Y11.105
G1 F1500 E12.00493
;MESH:BackupBat_Wing.stl(2)
G0 F900 X84.936 Y14.382
G0 X84.936 Y15.661
G0 X73.05 Y39.047
;TYPE:WALL-INNER
G1 F1500 E17.71171
G1 F900 X73.05 Y16.047 E18.97393
G1 X84.55 Y16.047 E19.60504
G1 X84.55 Y39.047 E20.86726
G1 X73.582 Y39.047 E21.46918
G0 F810 X73.05 Y39.047
G0 F900 X72.65 Y39.447
G1 X72.65 Y15.647 E22.77531
G1 X84.95 Y15.647 E23.45032
G1 X84.95 Y39.447 E24.75645
G1 X73.182 Y39.447 E25.40226
G0 F810 X72.65 Y39.447
G0 F900 X72.25 Y39.847
;TYPE:WALL-OUTER
G1 X72.25 Y15.247 E26.75229
G1 X85.35 Y15.247 E27.47121
G1 X85.35 Y39.847 E28.82124
G1 X72.782 Y39.847 E29.51096
G0 F810 X72.25 Y39.847
G0 F900 X72.25 Y39.647
G0 X72.69 Y39.407
G0 X72.75 Y39.407
G0 X73.44 Y38.657
;TYPE:SKIN
G1 X73.44 Y16.437 E30.73038
G1 X84.16 Y16.437 E31.31868
G1 X84.16 Y38.657 E32.5381
G1 X73.972 Y38.657 E33.09721
G0 F810 X73.44 Y38.657
G0 F900 X74.094 Y38.456
;TYPE:SKIN
G1 X73.639 Y38.001 E33.13252
G0 X73.639 Y37.435
G1 X74.66 Y38.456 E33.21176
G0 X75.226 Y38.456
G1 X73.639 Y36.869 E33.33493
G0 X73.639 Y36.304
G1 X75.791 Y38.456 E33.50195
G0 X76.357 Y38.456
G1 X73.639 Y35.738 E33.7129
G0 X73.639 Y35.172
G1 X76.923 Y38.456 E33.96777
G0 X77.489 Y38.456
G1 X73.639 Y34.607 E34.26653
G0 X73.639 Y34.041
G1 X78.054 Y38.456 E34.60919
G0 X78.62 Y38.456
G1 X73.639 Y33.475 E34.99577
G0 X73.639 Y32.91
G1 X79.186 Y38.456 E35.42624
G0 X79.751 Y38.456
G1 X73.639 Y32.344 E35.90059
G0 X73.639 Y31.778
G1 X80.317 Y38.456 E36.41888
G0 X80.883 Y38.456
G1 X73.639 Y31.213 E36.98105
G0 X73.639 Y30.647
G1 X81.448 Y38.456 E37.58712
G0 X82.014 Y38.456
G1 X73.639 Y30.081 E38.23711
G0 X73.639 Y29.516
G1 X82.58 Y38.456 E38.93099
G0 X83.145 Y38.456
G1 X73.639 Y28.95 E39.66876
G0 X73.639 Y28.384
G1 X83.711 Y38.456 E40.45046
G0 X83.959 Y38.138
G1 X73.639 Y27.818 E41.2514
G0 X73.639 Y27.253
G1 X83.959 Y37.572 E42.05231
G0 X83.959 Y37.007
G1 X73.639 Y26.687 E42.85325
G0 X73.639 Y26.121
G1 X83.959 Y36.441 E43.6542
G0 X83.959 Y35.875
G1 X73.639 Y25.556 E44.4551
G0 X73.639 Y24.99
G1 X83.959 Y35.31 E45.25605
G0 X83.959 Y34.744
G1 X73.639 Y24.424 E46.05699
G0 X73.639 Y23.859
G1 X83.959 Y34.178 E46.8579
G0 X83.959 Y33.613
G1 X73.639 Y23.293 E47.65885
G0 X73.639 Y22.727
G1 X83.959 Y33.047 E48.45979
G0 X83.959 Y32.481
G1 X73.639 Y22.162 E49.2607
G0 X73.639 Y21.596
G1 X83.959 Y31.915 E50.0616
G0 X83.959 Y31.35
G1 X73.639 Y21.03 E50.86255
G0 X73.639 Y20.465
G1 X83.959 Y30.784 E51.66345
G0 X83.959 Y30.218
G1 X73.639 Y19.899 E52.46436
G0 X73.639 Y19.333
G1 X83.959 Y29.653 E53.2653
G0 X83.959 Y29.087
G1 X73.639 Y18.768 E54.06621
G0 X73.639 Y18.202
G1 X83.959 Y28.521 E54.86712
G0 X83.959 Y27.956
G1 X73.639 Y17.636 E55.66806
G0 X73.639 Y17.07
G1 X83.959 Y27.39 E56.46901
G0 X83.959 Y26.824
G1 X73.771 Y16.636 E57.25971
G0 X74.336 Y16.636
G1 X83.959 Y26.259 E58.00656
G0 X83.959 Y25.693
G1 X74.902 Y16.636 E58.70948
G0 X75.468 Y16.636
G1 X83.959 Y25.127 E59.36847
G0 X83.959 Y24.562
G1 X76.033 Y16.636 E59.98362
G0 X76.599 Y16.636
G1 X83.959 Y23.996 E60.55483
G0 X83.959 Y23.43
G1 X77.165 Y16.636 E61.08212
G0 X77.73 Y16.636
G1 X83.959 Y22.865 E61.56556
G0 X83.959 Y22.299
G1 X78.296 Y16.636 E62.00507
G0 X78.862 Y16.636
G1 X83.959 Y21.733 E62.40066
G0 X83.959 Y21.167
M104 S200
G1 X79.427 Y16.636 E62.75235
G0 X79.993 Y16.636
G1 X83.959 Y20.602 E63.06015
G0 X83.959 Y20.036
G1 X80.559 Y16.636 E63.32403
G0 X81.124 Y16.636
G1 X83.959 Y19.47 E63.54402
G0 X83.959 Y18.905
G1 X81.69 Y16.636 E63.72012
G0 X82.256 Y16.636
G1 X83.959 Y18.339 E63.85229
G0 X83.959 Y17.773
G1 X82.822 Y16.636 E63.94053
G0 X83.387 Y16.636
G1 X83.959 Y17.208 E63.98493
G1 X84.029 Y17.278
;MESH:NONMESH
G0 F600 X84.029 Y17.278 Z0.54
G0 F900 X73.05 Y39.047
;TIME_ELAPSED:89.950988
;LAYER:1
M106 S127.5
;TYPE:WALL-INNER
;MESH:BackupBat_Wing.stl(2)
G1 F2460 X73.05 Y16.047 E64.99471
G1 X84.55 Y16.047 E65.49959
G1 X84.55 Y39.047 E66.50937
G1 X73.715 Y39.047 E66.98507
G0 F2214 X73.05 Y39.047
G0 F1950 X72.65 Y39.447
G1 F2460 X72.65 Y15.647 E68.02997
G1 X84.95 Y15.647 E68.56998
G1 X84.95 Y39.447 E69.61488
G1 X73.315 Y39.447 E70.12569
G0 F2214 X72.65 Y39.447
G0 F1950 X72.25 Y39.847
;TYPE:WALL-OUTER
G1 F1470 X72.25 Y15.247 E71.20572
G1 X85.35 Y15.247 E71.78085
G1 X85.35 Y39.847 E72.86087
G1 X72.915 Y39.847 E73.40681
G0 F1323 X72.25 Y39.847
G0 F1950 X72.25 Y39.647
G0 X72.69 Y39.407
G0 X72.75 Y39.407
G0 X73.44 Y38.657
;TYPE:SKIN
G1 F1200 X73.44 Y16.437 E74.38235
G1 X84.16 Y16.437 E74.85299
G1 X84.16 Y38.657 E75.82852
G1 X74.105 Y38.657 E76.26997
G0 F1080 X73.44 Y38.657
G0 F1950 X83.959 Y38.229
;TYPE:SKIN
G1 F1200 X83.731 Y38.456 E76.2841
G0 F1950 X83.165 Y38.456
G1 F1200 X83.959 Y37.663 E76.33336
G0 F1950 X83.959 Y37.097
G1 F1200 X82.599 Y38.456 E76.41777
G0 F1950 X82.034 Y38.456
G1 F1200 X83.959 Y36.531 E76.53729
G0 F1950 X83.959 Y35.966
G1 F1200 X81.468 Y38.456 E76.69193
G0 F1950 X80.902 Y38.456
G1 F1200 X83.959 Y35.4 E76.8817
G0 F1950 X83.959 Y34.834
G1 F1200 X80.337 Y38.456 E77.10659
G0 F1950 X79.771 Y38.456
G1 F1200 X83.959 Y34.269 E77.36658
G0 F1950 X83.959 Y33.703
G1 F1200 X79.205 Y38.456 E77.66172
G0 F1950 X78.64 Y38.456
G1 F1200 X83.959 Y33.137 E77.99197
G0 F1950 X83.959 Y32.572
G1 F1200 X78.074 Y38.456 E78.35733
G0 F1950 X77.508 Y38.456
G1 F1200 X83.959 Y32.006 E78.75784
G0 F1950 X83.959 Y31.44
G1 F1200 X76.943 Y38.456 E79.19345
G0 F1950 X76.377 Y38.456
G1 F1200 X83.959 Y30.875 E79.66418
G0 F1950 X83.959 Y30.309
G1 F1200 X75.811 Y38.456 E80.17005
G0 F1950 X75.246 Y38.456
G1 F1200 X83.959 Y29.743 E80.71102
G0 F1950 X83.959 Y29.178
G1 F1200 X74.68 Y38.456 E81.28712
G0 F1950 X74.114 Y38.456
G1 F1200 X83.959 Y28.612 E81.89835
G0 F1950 X83.959 Y28.046
G1 F1200 X73.639 Y38.366 E82.5391
G0 F1950 X73.639 Y37.8
G1 F1200 X83.959 Y27.48 E83.17986
G0 F1950 X83.959 Y26.915
G1 F1200 X73.639 Y37.234 E83.82058
G0 F1950 X73.639 Y36.669
G1 F1200 X83.959 Y26.349 E84.46134
G0 F1950 X83.959 Y25.783
G1 F1200 X73.639 Y36.103 E85.1021
G0 F1950 X73.639 Y35.537
G1 F1200 X83.959 Y25.218 E85.74282
G0 F1950 X83.959 Y24.652
G1 F1200 X73.639 Y34.972 E86.38358
G0 F1950 X73.639 Y34.406
G1 F1200 X83.959 Y24.086 E87.02433
G0 F1950 X83.959 Y23.521
G1 F1200 X73.639 Y33.84 E87.66506
G0 F1950 X73.639 Y33.275
G1 F1200 X83.959 Y22.955 E88.30581
G0 F1950 X83.959 Y22.389
G1 F1200 X73.639 Y32.709 E88.94657
G0 F1950 X73.639 Y32.143
G1 F1200 X83.959 Y21.824 E89.5873
G0 F1950 X83.959 Y21.258
G1 F1200 X73.639 Y31.577 E90.22802
G0 F1950 X73.639 Y31.012
G1 F1200 X83.959 Y20.692 E90.86878
G0 F1950 X83.959 Y20.127
G1 F1200 X73.639 Y30.446 E91.5095
G0 F1950 X73.639 Y29.88
G1 F1200 X83.959 Y19.561 E92.15023
G0 F1950 X83.959 Y18.995
G1 F1200 X73.639 Y29.315 E92.79098
G0 F1950 X73.639 Y28.749
G1 F1200 X83.959 Y18.43 E93.43171
G0 F1950 X83.959 Y17.864
G1 F1200 X73.639 Y28.183 E94.07243
G0 F1950 X73.639 Y27.618
G1 F1200 X83.959 Y17.298 E94.71319
G0 F1950 X83.959 Y16.732
G1 F1200 X73.639 Y27.052 E95.35394
G0 F1950 X73.639 Y26.486
G1 F1200 X83.489 Y16.636 E95.96552
G0 F1950 X82.923 Y16.636
G1 F1200 X73.639 Y25.921 E96.54198
G0 F1950 X73.639 Y25.355
G1 F1200 X82.358 Y16.636 E97.08333
G0 F1950 X81.792 Y16.636
G1 F1200 X73.639 Y24.789 E97.58954
G0 F1950 X73.639 Y24.224
G1 F1200 X81.226 Y16.636 E98.06064
G0 F1950 X80.661 Y16.636
G1 F1200 X73.639 Y23.658 E98.49663
G0 F1950 X73.639 Y23.092
G1 F1200 X80.095 Y16.636 E98.89747
G0 F1950 X79.529 Y16.636
G1 F1200 X73.639 Y22.527 E99.26321
G0 F1950 X73.639 Y21.961
G1 F1200 X78.964 Y16.636 E99.59383
G0 F1950 X78.398 Y16.636
G1 F1200 X73.639 Y21.395 E99.88931
G0 F1950 X73.639 Y20.829
G1 F1200 X77.832 Y16.636 E100.14965
G0 F1950 X77.266 Y16.636
G1 F1200 X73.639 Y20.264 E100.37487
G0 F1950 X73.639 Y19.698
G1 F1200 X76.701 Y16.636 E100.56499
G0 F1950 X76.135 Y16.636
G1 F1200 X73.639 Y19.132 E100.71996
G0 F1950 X73.639 Y18.567
G1 F1200 X75.569 Y16.636 E100.83983
G0 F1950 X75.004 Y16.636
G1 F1200 X73.639 Y18.001 E100.92458
G0 F1950 X73.639 Y17.435
G1 F1200 X74.438 Y16.636 E100.97419
G0 F1950 X73.872 Y16.636
G1 F1200 X73.639 Y16.87 E100.98868
;MESH:NONMESH
G0 F600 X73.639 Y16.87 Z0.78
G0 F1950 X73.05 Y39.047
;TIME_ELAPSED:130.321939
;LAYER:2
M106 S255
;TYPE:WALL-INNER
;MESH:BackupBat_Wing.stl(2)
G1 F4020 X73.05 Y16.047 E101.99846
G1 X84.55 Y16.047 E102.50335
G1 X84.55 Y39.047 E103.51313
G1 X73.715 Y39.047 E103.98882
G0 F3618 X73.05 Y39.047
G0 F3000 X72.65 Y39.447
G1 F4020 X72.65 Y15.647 E105.03372
G1 X84.95 Y15.647 E105.57373
G1 X84.95 Y39.447 E106.61863
G1 X73.315 Y39.447 E107.12945
G0 F3618 X72.65 Y39.447
G0 F3000 X72.25 Y39.847
;TYPE:WALL-OUTER
G1 F2040 X72.25 Y15.247 E108.20947
G1 X85.35 Y15.247 E108.78461
G1 X85.35 Y39.847 E109.86463
G1 X72.915 Y39.847 E110.41057
G0 F1836 X72.25 Y39.847
G0 F3000 X72.25 Y39.647
G0 X72.69 Y39.407
G0 X72.75 Y39.407
G0 X73.44 Y38.657
;TYPE:SKIN
G1 F1500 X73.44 Y16.437 E111.3861
G1 X84.16 Y16.437 E111.85675
G1 X84.16 Y38.657 E112.83228
G1 X74.105 Y38.657 E113.27373
G0 F1350 X73.44 Y38.657
G0 F3000 X74.094 Y38.456
;TYPE:SKIN
G1 F1500 X73.639 Y38.001 E113.30198
G0 F3000 X73.639 Y37.435
G1 F1500 X74.66 Y38.456 E113.36537
G0 F3000 X75.226 Y38.456
G1 F1500 X73.639 Y36.869 E113.4639
G0 F3000 X73.639 Y36.304
G1 F1500 X75.791 Y38.456 E113.59752
G0 F3000 X76.357 Y38.456
G1 F1500 X73.639 Y35.738 E113.76628
G0 F3000 X73.639 Y35.172
G1 F1500 X76.923 Y38.456 E113.97018
G0 F3000 X77.489 Y38.456
G1 F1500 X73.639 Y34.607 E114.20919
G0 F3000 X73.639 Y34.041
G1 F1500 X78.054 Y38.456 E114.48331
G0 F3000 X78.62 Y38.456
G1 F1500 X73.639 Y33.475 E114.79257
G0 F3000 X73.639 Y32.91
G1 F1500 X79.186 Y38.456 E115.13695
G0 F3000 X79.751 Y38.456
G1 F1500 X73.639 Y32.344 E115.51643
G0 F3000 X73.639 Y31.778
G1 F1500 X80.317 Y38.456 E115.93106
G0 F3000 X80.883 Y38.456
G1 F1500 X73.639 Y31.213 E116.3808
G0 F3000 X73.639 Y30.647
G1 F1500 X81.448 Y38.456 E116.86565
G0 F3000 X82.014 Y38.456
G1 F1500 X73.639 Y30.081 E117.38565
G0 F3000 X73.639 Y29.516
G1 F1500 X82.58 Y38.456 E117.94075
G0 F3000 X83.145 Y38.456
G1 F1500 X73.639 Y28.95 E118.53097
G0 F3000 X73.639 Y28.384
G1 F1500 X83.711 Y38.456 E119.15633
G0 F3000 X83.959 Y38.138
G1 F1500 X73.639 Y27.818 E119.79708
G0 F3000 X73.639 Y27.253
G1 F1500 X83.959 Y37.572 E120.43781
G0 F3000 X83.959 Y37.007
G1 F1500 X73.639 Y26.687 E121.07856
G0 F3000 X73.639 Y26.121
G1 F1500 X83.959 Y36.441 E121.71932
G0 F3000 X83.959 Y35.875
G1 F1500 X73.639 Y25.556 E122.36004
G0 F3000 X73.639 Y24.99
G1 F1500 X83.959 Y35.31 E123.0008
G0 F3000 X83.959 Y34.744
G1 F1500 X73.639 Y24.424 E123.64156
G0 F3000 X73.639 Y23.859
G1 F1500 X83.959 Y34.178 E124.28228
G0 F3000 X83.959 Y33.613
G1 F1500 X73.639 Y23.293 E124.92304
G0 F3000 X73.639 Y22.727
G1 F1500 X83.959 Y33.047 E125.56379
G0 F3000 X83.959 Y32.481
G1 F1500 X73.639 Y22.162 E126.20452
G0 F3000 X73.639 Y21.596
G1 F1500 X83.959 Y31.915 E126.84524
G0 F3000 X83.959 Y31.35
G1 F1500 X73.639 Y21.03 E127.486
G0 F3000 X73.639 Y20.465
G1 F1500 X83.959 Y30.784 E128.12672
G0 F3000 X83.959 Y30.218
G1 F1500 X73.639 Y19.899 E128.76745
G0 F3000 X73.639 Y19.333
G1 F1500 X83.959 Y29.653 E129.4082
G0 F3000 X83.959 Y29.087
G1 F1500 X73.639 Y18.768 E130.04893
