;FLAVOR:Marlin
;TIME:7175
;Filament used: 5.40529m
;Layer height: 0.12
;MINX:0.528
;MINY:33.5
;MINZ:0.3
;MAXX:119.49
;MAXY:86.5
;MAXZ:11.82
;Generated with Cura_SteamEngine 4.7.1
M104 S210
M105
M109 S210
M82 ;absolute extrusion mode
;Sliced at: Mon 10-05-2021 10:28:08
G21 ;metric values
G90 ;absolute positioning
M82 ;set extruder to absolute mode
M107 ;start with the fan off
G1 Z5.0 F1800 ;move Z to 5mm
G28 X0 Y0 F1800 ;move X/Y to min endstops
G28 Z0 ;move Z to min endstop
G92 E0 ;zero the extruded length
G1 F200 E6.0 ;extrude 6.0mm of feed stock to build pressure
G1 Z5.0 F300 ;move the platform down 5mm
G92 E0 ;zero the extruded length again
G1 F1800
;Put printing message on LCD screen
M117 Printing...
G92 E0
G92 E0
G1 F1500 E-5
;LAYER_COUNT:98
;LAYER:0
M107
G0 F1080 X27.765 Y34.586 Z0.3
;TYPE:SKIRT
G1 F1500 E0.72757
G1 F900 X28.205 Y34.231 E0.75859
G1 X28.69 Y33.941 E0.7896
G1 X29.211 Y33.722 E0.82062
G1 X29.758 Y33.578 E0.85166
G1 X30.437 Y33.51 E0.88911
G1 X31.124 Y33.5 E0.92682
G1 X114.84 Y33.5 E5.52108
G1 X115.538 Y33.51 E5.55939
G1 X116.102 Y33.558 E5.59046
G1 X116.652 Y33.685 E5.62144
G1 X117.18 Y33.889 E5.6525
G1 X117.674 Y34.164 E5.68353
G1 X118.123 Y34.507 E5.71454
G1 X118.52 Y34.909 E5.74554
G1 X118.857 Y35.364 E5.77661
G1 X119.125 Y35.861 E5.8076
G1 X119.321 Y36.391 E5.83861
G1 X119.441 Y36.944 E5.86967
G1 X119.488 Y37.718 E5.91222
G1 X119.49 Y37.83 E5.91837
G1 X119.49 Y81.814 E8.33218
G1 X119.481 Y82.541 E8.37208
G1 X119.434 Y83.104 E8.40308
G1 X119.308 Y83.655 E8.4341
G1 X119.106 Y84.183 E8.46513
G1 X118.831 Y84.677 E8.49615
G1 X118.489 Y85.127 E8.52717
G1 X118.087 Y85.525 E8.55822
G1 X117.634 Y85.862 E8.5892
G1 X117.137 Y86.132 E8.62024
G1 X116.607 Y86.329 E8.65127
G1 X116.055 Y86.45 E8.68229
G1 X115.272 Y86.498 E8.72534
G1 X115.16 Y86.5 E8.73148
G1 X38.558 Y86.5 E12.93534
G1 X37.846 Y86.49 E12.97442
G1 X37.328 Y86.459 E13.0029
G1 X34.542 Y86.3 E13.15604
G1 X31.874 Y86.225 E13.30252
G1 X29.13 Y86.225 E13.4531
G1 X26.45 Y86.301 E13.60024
G1 X23.583 Y86.47 E13.75785
G1 X23.292 Y86.482 E13.77384
G1 X22.212 Y86.5 E13.83311
G1 X5.159 Y86.5 E14.76897
G1 X4.47 Y86.49 E14.80678
G1 X3.907 Y86.441 E14.8378
G1 X3.356 Y86.314 E14.86883
G1 X2.828 Y86.111 E14.89987
G1 X2.335 Y85.835 E14.93088
G1 X1.885 Y85.493 E14.9619
G1 X1.488 Y85.09 E14.99294
G1 X1.152 Y84.635 E15.02398
G1 X0.883 Y84.138 E15.055
G1 X0.687 Y83.608 E15.08601
G1 X0.568 Y83.055 E15.11705
G1 X0.528 Y82.491 E15.14808
G1 X0.568 Y81.927 E15.17911
G1 X0.687 Y81.375 E15.2101
G1 X0.882 Y80.844 E15.24114
G1 X1.036 Y80.539 E15.2599
G1 X1.435 Y79.826 E15.30473
G1 X26.698 Y36.07 E18.07752
G1 X27.058 Y35.465 E18.11616
G1 X27.38 Y35 E18.1472
G1 X27.403 Y34.975 E18.14906
G0 F810 X27.765 Y34.586
G0 F1080 X28.079 Y34.841
G1 F900 X28.502 Y34.512 E18.17847
G1 X28.969 Y34.249 E18.20789
G1 X29.471 Y34.059 E18.23734
G1 X29.995 Y33.945 E18.26677
G1 X30.443 Y33.91 E18.29143
G1 X31.13 Y33.9 E18.32914
G1 X114.835 Y33.9 E22.9228
G1 X115.533 Y33.91 E22.96111
G1 X116.067 Y33.958 E22.99054
G1 X116.588 Y34.084 E23.01995
G1 X117.085 Y34.287 E23.04942
G1 X117.546 Y34.561 E23.07885
G1 X117.961 Y34.9 E23.10825
G1 X118.321 Y35.298 E23.13771
G1 X118.618 Y35.744 E23.16711
G1 X118.846 Y36.23 E23.19657
G1 X118.998 Y36.744 E23.22599
G1 X119.08 Y37.409 E23.26276
G1 X119.09 Y37.83 E23.28587
G1 X119.09 Y81.809 E25.6994
G1 X119.081 Y82.536 E25.7393
G1 X119.034 Y83.07 E25.76872
G1 X118.909 Y83.591 E25.79813
G1 X118.707 Y84.088 E25.82757
G1 X118.434 Y84.55 E25.85702
G1 X118.096 Y84.966 E25.88643
G1 X117.699 Y85.327 E25.91588
G1 X117.253 Y85.625 E25.94532
G1 X116.768 Y85.853 E25.97473
G1 X116.254 Y86.007 E26.00418
G1 X115.582 Y86.09 E26.04133
G1 X115.16 Y86.1 E26.0645
G1 X38.563 Y86.1 E30.26808
G1 X37.851 Y86.09 E30.30716
G1 X37.312 Y86.057 E30.3368
G1 X34.612 Y85.903 E30.48521
G1 X31.849 Y85.825 E30.6369
G1 X29.155 Y85.825 E30.78475
G1 X26.414 Y85.903 E30.93523
G1 X23.606 Y86.069 E31.0896
G1 X23.285 Y86.082 E31.10723
G1 X22.212 Y86.1 E31.16613
G1 X5.165 Y86.1 E32.10165
G1 X4.476 Y86.09 E32.13947
G1 X3.942 Y86.042 E32.16889
G1 X3.42 Y85.915 E32.19838
G1 X2.924 Y85.713 E32.22777
G1 X2.463 Y85.439 E32.2572
G1 X2.048 Y85.099 E32.28664
G1 X1.688 Y84.702 E32.31605
G1 X1.391 Y84.255 E32.3455
G1 X1.163 Y83.77 E32.37491
G1 X1.01 Y83.256 E32.40434
G1 X0.936 Y82.725 E32.43377
G1 X0.941 Y82.188 E32.46324
G1 X1.025 Y81.659 E32.49263
G1 X1.188 Y81.148 E32.52207
G1 X1.385 Y80.734 E32.54723
G1 X1.781 Y80.026 E32.59175
G1 X27.041 Y36.274 E35.36427
G1 X27.401 Y35.669 E35.4029
G1 X27.709 Y35.23 E35.43233
G1 X27.712 Y35.227 E35.43256
G0 F810 X28.079 Y34.841
G0 F1080 X28.39 Y35.099
G1 F900 X28.796 Y34.798 E35.4603
G1 X29.245 Y34.564 E35.48809
G1 X29.724 Y34.404 E35.5158
G1 X30.448 Y34.31 E35.55587
G1 X31.135 Y34.3 E35.59357
G1 X114.829 Y34.3 E40.18663
G1 X115.527 Y34.31 E40.22494
G1 X116.03 Y34.357 E40.25267
G1 X116.52 Y34.483 E40.28043
G1 X116.984 Y34.685 E40.30821
G1 X117.41 Y34.957 E40.33594
G1 X117.788 Y35.292 E40.36366
G1 X118.108 Y35.683 E40.39139
G1 X118.363 Y36.12 E40.41916
G1 X118.546 Y36.591 E40.44689
G1 X118.653 Y37.085 E40.47463
G1 X118.689 Y37.74 E40.51063
G1 X118.69 Y81.804 E42.92883
G1 X118.681 Y82.531 E42.96873
G1 X118.635 Y83.034 E42.99645
G1 X118.51 Y83.524 E43.0242
G1 X118.309 Y83.988 E43.05195
G1 X118.038 Y84.415 E43.0797
G1 X117.703 Y84.794 E43.10746
G1 X117.313 Y85.115 E43.13518
G1 X116.877 Y85.371 E43.16293
G1 X116.406 Y85.554 E43.19066
G1 X115.912 Y85.662 E43.21841
G1 X115.25 Y85.699 E43.2548
G1 X38.569 Y85.7 E47.46299
G1 X37.857 Y85.69 E47.50207
G1 X37.36 Y85.66 E47.52939
G1 X34.611 Y85.503 E47.6805
G1 X31.861 Y85.425 E47.83148
G1 X29.144 Y85.425 E47.98059
G1 X26.378 Y85.503 E48.13244
G1 X23.545 Y85.671 E48.28819
G1 X23.279 Y85.683 E48.3028
G1 X22.266 Y85.7 E48.3584
G1 X5.171 Y85.7 E49.29656
G1 X4.482 Y85.69 E49.33438
G1 X3.978 Y85.642 E49.36216
G1 X3.489 Y85.516 E49.38988
G1 X3.025 Y85.315 E49.41763
G1 X2.599 Y85.043 E49.44536
G1 X2.221 Y84.707 E49.47312
G1 X1.9 Y84.316 E49.50088
G1 X1.645 Y83.88 E49.5286
G1 X1.463 Y83.408 E49.55636
G1 X1.356 Y82.914 E49.5841
G1 X1.329 Y82.409 E49.61186
G1 X1.382 Y81.906 E49.63961
G1 X1.513 Y81.418 E49.66734
G1 X1.734 Y80.929 E49.69679
G1 X2.128 Y80.226 E49.74102
G1 X27.385 Y36.479 E52.51321
G1 X27.745 Y35.874 E52.55185
G1 X28.022 Y35.483 E52.57815
G0 F810 X28.037 Y35.461
G0 X28.39 Y35.099
G1 F1500 E47.57815
G0 F1080 X70.904 Y40.54
G0 X70.904 Y40.3
;TYPE:SUPPORT
G1 F1500 E53.30571
G1 F900 X71.433 Y40.3 E53.34926
G1 X74.831 Y43.7 E53.74496
G1 X75.767 Y43.831 E53.82276
G1 X76.118 Y43.972 E53.8539
G1 X78.17 Y45.113 E54.04717
G1 X78.449 Y45.767 E54.1057
G1 X79.099 Y46.196 E54.16981
G1 X97.72 Y46.196 E55.70267
G1 X103.617 Y40.3 E56.38912
G1 X105.746 Y40.3 E56.56438
G1 X105.723 Y40.462 E56.57785
G1 X105.543 Y41.098 E56.63226
G1 X105.302 Y41.644 E56.68139
G1 X105.115 Y42.318 E56.73897
G1 X103.028 Y41.69 E56.91838
G1 X102.283 Y42.097 E56.98826
G1 X101.724 Y44.058 E57.15612
G1 X101.314 Y44.995 E57.24031
G1 X99.752 Y47.544 E57.48641
G1 X99.154 Y48.903 E57.60863
G1 X99.156 Y70.521 E59.3882
G1 X99.577 Y71.171 E59.45195
G1 X102.819 Y72.625 E59.74444
G1 X104.254 Y77.059 E60.12808
G1 X104.896 Y77.525 E60.19338
G1 X107.009 Y77.525 E60.36732
G1 X107.15 Y77.819 E60.39416
G1 X107.193 Y77.848 E60.39843
G1 X107.085 Y78.116 E60.42222
G1 X106.595 Y78.344 E60.46671
G1 X106.487 Y78.452 E60.47928
G1 X106.475 Y78.456 E60.48032
G1 X106.292 Y78.475 E60.49546
G1 X106.221 Y78.493 E60.50149
G1 X104.111 Y77.586 E60.69055
G1 X103.629 Y77.296 E60.73686
G1 X101.54 Y76.4 E60.92397
G1 X96.89 Y72.595 E61.41858
G1 X96.067 Y72.62 E61.48636
G1 X91.389 Y76.967 E62.01204
G1 X90.147 Y77.829 E62.13649
G1 X89.876 Y77.96 E62.16127
G1 X89.562 Y78.057 E62.18832
G1 X89.189 Y78.224 E62.22196
G1 X88.344 Y78.41 E62.29319
G1 X88.198 Y78.288 E62.30885
G1 X88.1 Y77.669 E62.36044
G1 X88.814 Y77.317 E62.42597
G1 X92.059 Y70.464 E63.05015
G1 X91.946 Y69.693 E63.1143
G1 X78.621 Y55.018 E64.74602
G1 X77.805 Y54.923 E64.81364
G1 X77.163 Y55.362 E64.87767
G1 X74.338 Y55.407 E65.11025
G1 X71.716 Y55.12 E65.32738
G1 X72.03 Y55.007 E65.35485
G1 X75.947 Y50.031 E65.87615
G1 X75.995 Y49.247 E65.94081
G1 X71.435 Y41.727 E66.66477
G1 X71.061 Y40.875 E66.74136
G1 X70.997 Y40.642 E66.76125
G0 F810 X70.904 Y40.3
G1 F1500 E61.76125
G0 F1080 X70.904 Y40.54
G0 X68.073 Y56.434
G1 F1500 E67.48882
G1 F900 X68.526 Y56.271 E67.52845
G1 X68.092 Y56.484 E67.56825
G1 X68.087 Y56.477 E67.56895
G1 X68.085 Y56.471 E67.56947
G0 F810 X68.073 Y56.434
G0 F1080 X73.856 Y55.128
G1 F900 X73.856 Y53.052 E67.74037
G0 F1080 X73.831 Y53.084
G1 F900 X98.93 Y53.084 E69.80649
G0 F1080 X98.93 Y50.776
G1 F900 X75.647 Y50.776 E71.72312
G0 F1080 X76.164 Y50.119
G1 F900 X76.164 Y55.153 E72.13751
G0 F1080 X78.472 Y54.773
G1 F900 X78.472 Y46.052 E72.85541
G0 F1080 X78.638 Y46.16
G1 F900 X74.386 Y46.16 E73.20543
G0 F1080 X73.856 Y45.285
G1 F900 X73.856 Y43.043 E73.38999
G0 F1080 X74.667 Y43.852
G1 F900 X72.987 Y43.852 E73.52829
G0 F1080 X72.36 Y41.544
G1 F900 X71.601 Y41.544 E73.59077
G0 F1080 X71.548 Y41.423
G1 F900 X71.548 Y40.734 E73.64749
G0 F1080 X76.164 Y44.255
G1 F900 X76.164 Y49.092 E74.04566
G0 F1080 X75.786 Y48.468
G1 F900 X99.099 Y48.468 E75.96476
G0 F1080 X99.244 Y48.142
G1 F900 X99.244 Y44.99 E76.22423
G0 F1080 X100.336 Y46.16
G1 F900 X98.073 Y46.16 E76.41052
G0 F1080 X96.936 Y46.421
G1 F900 X96.936 Y72.369 E78.54653
G0 F1080 X98.786 Y73.856
G1 F900 X102.982 Y73.856 E78.89194
G0 F1080 X101.552 Y72.304
G1 F900 X101.552 Y76.119 E79.20598
G0 F1080 X101.606 Y76.164
G1 F900 X103.729 Y76.164 E79.38075
G0 F1080 X103.86 Y76.571
G1 F900 X103.86 Y77.171 E79.43014
G0 F1080 X106.168 Y77.75
G1 F900 X106.168 Y78.225 E79.46924
G0 F1080 X99.244 Y74.23
G1 F900 X99.244 Y71.072 E79.7292
G0 F1080 X99.868 Y71.548
G1 F900 X91.795 Y71.548 E80.39376
G0 F1080 X91.838 Y69.24
G1 F900 X98.931 Y69.24 E80.97765
G0 F1080 X98.931 Y66.932
G1 F900 X89.742 Y66.932 E81.73408
G0 F1080 X90.012 Y67.228
G1 F900 X90.012 Y46.421 E83.44688
G0 F1080 X87.704 Y46.421
G1 F900 X87.704 Y64.686 E84.95044
G0 F1080 X87.647 Y64.624
G1 F900 X98.931 Y64.624 E85.87932
G0 F1080 X98.931 Y62.316
G1 F900 X85.551 Y62.316 E86.98075
G0 F1080 X85.396 Y62.145
G1 F900 X85.396 Y46.421 E88.27513
G0 F1080 X83.088 Y46.421
G1 F900 X83.088 Y59.603 E89.36026
G0 F1080 X83.456 Y60.008
G1 F900 X98.931 Y60.008 E90.63414
G0 F1080 X98.93 Y57.7
G1 F900 X81.36 Y57.7 E92.08048
G0 F1080 X80.78 Y57.061
G1 F900 X80.78 Y46.421 E92.95636
G0 F1080 X79.264 Y55.392
G1 F900 X98.93 Y55.392 E94.57524
G0 F1080 X94.628 Y46.421
G1 F900 X94.628 Y73.65 E96.8167
G0 F1080 X94.406 Y73.856
G1 F900 X90.702 Y73.856 E97.12161
G0 F1080 X90.012 Y75.312
G1 F900 X90.012 Y77.645 E97.31366
G0 F1080 X89.609 Y76.164
G1 F900 X91.922 Y76.164 E97.50406
G0 F1080 X92.32 Y75.795
G1 F900 X92.32 Y46.421 E99.92209
G0 F1080 X100.381 Y43.852
G1 F900 X101.548 Y43.852 E100.01816
G0 F1080 X101.552 Y43.841
G1 F900 X101.552 Y42.682 E100.11357
G0 F1080 X103.324 Y41.544
G1 F900 X105.1 Y41.544 E100.25976
G0 F1080 X103.86 Y41.706
G1 F900 X103.86 Y40.525 E100.35698
G1 F1500 E95.35698
;MESH:Komponente3.stl
G0 F1080 X62.65 Y58.627
G0 X61.272 Y59.512
;TYPE:WALL-INNER
G1 F1500 E101.08455
G1 F900 X61.221 Y59.563 E101.08851
G1 X80.802 Y81.1 E102.68591
G1 X114.09 Y81.1 E104.51273
G1 X114.09 Y38.9 E106.82864
G1 X61.098 Y38.9 E109.7368
G1 X60.899 Y38.9 E109.74772
G1 X60.899 Y39.099 E109.75478
G1 X60.9 Y58.213 E110.80375
G1 X60.992 Y58.88 E110.8407
G1 X61.187 Y59.389 E110.87061
G1 X61.215 Y59.429 E110.87329
G0 F810 X61.272 Y59.512
G0 F1080 X61.774 Y59.576
;TYPE:WALL-OUTER
G1 F900 X80.979 Y80.7 E112.44005
G1 X113.69 Y80.7 E114.2352
G1 X113.69 Y39.3 E116.5072
G1 X61.499 Y39.3 E119.3714
G1 X61.299 Y39.3 E119.38238
G1 X61.299 Y39.5 E119.38948
G1 X61.3 Y58.186 E120.41496
G1 X61.382 Y58.78 E120.44786
G1 X61.543 Y59.2 E120.47255
G1 X61.743 Y59.488 E120.49179
G0 F810 X61.792 Y59.558
G0 X61.774 Y59.576
G0 F1080 X61.908 Y59.723
G0 X61.582 Y60.018
G1 F1500 E115.49179
G0 F1080 X62.82 Y58.884
G0 X33.99 Y80.652
G0 X35.424 Y79.851
;TYPE:WALL-INNER
G1 F1500 E121.21936
G1 F900 X34.89 Y79.033 E121.27297
G1 X34.502 Y78.595 E121.30508
G1 X34.454 Y78.549 E121.30873
G1 X33.74 Y77.938 E121.3603
G1 X33.244 Y77.624 E121.39252
G1 X33.191 Y77.596 E121.39581
G1 X32.327 Y77.208 E121.44778
G1 X31.758 Y77.046 E121.48025
G1 X31.698 Y77.035 E121.4836
G1 X30.767 Y76.906 E121.53518
G1 X30.172 Y76.91 E121.56783
G1 X30.117 Y76.916 E121.57087
G1 X29.184 Y77.053 E121.62262
G1 X28.624 Y77.222 E121.65472
G1 X28.566 Y77.244 E121.65813
G1 X27.706 Y77.639 E121.71006
G1 X27.202 Y77.968 E121.74309
G1 X26.453 Y78.617 E121.79748
G1 X26.07 Y79.063 E121.82974
G1 X26.035 Y79.112 E121.83305
G1 X25.526 Y79.905 E121.88476
G1 X25.322 Y80.348 E121.91153
G1 X25.022 Y80.895 E121.94576
G1 X24.641 Y81.311 E121.97672
G1 X24.165 Y81.633 E122.00826
G1 X23.64 Y81.828 E122.03899
G1 X23.035 Y81.9 E122.07243
G1 X5.893 Y81.9 E123.01317
G1 X5.892 Y81.9 E123.01323
G1 X5.548 Y81.9 E123.0321
G1 X5.72 Y81.602 E123.04282
G1 X30.836 Y38.1 E125.79951
G1 X114.89 Y38.1 E130.41232
G1 X114.89 Y81.9 E132.81603
G1 X37.945 Y81.9 E137.03872
G1 X37.342 Y81.828 E137.07204
G1 X36.815 Y81.632 E137.1029
G1 X36.34 Y81.311 E137.13436
G1 X35.959 Y80.895 E137.16532
G1 X35.662 Y80.354 E137.19919
G1 X35.651 Y80.332 E137.20054
G0 F810 X35.424 Y79.851
G0 F1080 X35.08 Y80.058
;TYPE:WALL-OUTER
G1 F900 X35.071 Y80.046 E137.20136
G1 X35.066 Y80.035 E137.20203
G1 X34.571 Y79.276 E137.25175
G1 X34.213 Y78.872 E137.28138
G1 X34.185 Y78.845 E137.28351
G1 X33.502 Y78.261 E137.33283
G1 X33.042 Y77.97 E137.3627
G1 X33.014 Y77.955 E137.36444
G1 X32.19 Y77.585 E137.41401
G1 X31.666 Y77.436 E137.44391
G1 X31.634 Y77.43 E137.4457
G1 X30.741 Y77.306 E137.49517
G1 X30.195 Y77.31 E137.52514
G1 X30.167 Y77.313 E137.52668
G1 X29.271 Y77.444 E137.57638
G1 X28.752 Y77.601 E137.60614
G1 X28.72 Y77.613 E137.60801
G1 X27.9 Y77.99 E137.65754
G1 X27.443 Y78.288 E137.68748
G1 X26.737 Y78.9 E137.73876
G1 X26.384 Y79.312 E137.76853
G1 X26.365 Y79.338 E137.7703
G1 X25.878 Y80.098 E137.81984
G1 X25.673 Y80.541 E137.84662
G1 X25.351 Y81.127 E137.88332
G1 X24.902 Y81.618 E137.91983
G1 X24.351 Y81.99 E137.95632
G1 X23.735 Y82.219 E137.99238
G1 X23.058 Y82.3 E138.0298
G1 X5.202 Y82.3 E139.00972
G1 X5.2 Y82.3 E139.00983
G1 X4.856 Y82.3 E139.02871
G1 X5.028 Y82.001 E139.03944
G1 X30.605 Y37.7 E141.84675
G1 X115.29 Y37.7 E146.4942
G1 X115.29 Y82.3 E148.94181
G1 X37.923 Y82.3 E153.18765
G1 X37.245 Y82.219 E153.22512
G1 X36.63 Y81.99 E153.26114
G1 X36.079 Y81.618 E153.29762
G1 X35.63 Y81.127 E153.33414
G1 X35.307 Y80.539 E153.37095
G0 F810 X35.08 Y80.058
G0 F1080 X35.071 Y80.046
G0 X35.066 Y80.035
G0 X34.972 Y79.891
G0 X35.341 Y79.651
G0 X35.765 Y79.66
;TYPE:SKIN
G1 F900 X35.2 Y78.795 E153.42765
G1 X34.783 Y78.324 E153.46218
G1 X34.715 Y78.26 E153.4673
G1 X33.972 Y77.624 E153.52098
G1 X33.44 Y77.287 E153.55554
G1 X33.363 Y77.245 E153.56035
G1 X32.461 Y76.841 E153.61459
G1 X31.848 Y76.666 E153.64957
G1 X31.761 Y76.649 E153.65444
G1 X30.792 Y76.516 E153.70812
G1 X30.148 Y76.52 E153.74346
G1 X30.067 Y76.53 E153.74794
G1 X29.098 Y76.671 E153.80168
G1 X28.5 Y76.853 E153.83598
G1 X28.417 Y76.883 E153.84082
G1 X27.517 Y77.296 E153.89517
G1 X26.966 Y77.656 E153.93129
G1 X26.176 Y78.342 E153.98871
G1 X25.762 Y78.822 E154.02349
G1 X25.711 Y78.894 E154.02833
G1 X25.183 Y79.717 E154.082
G1 X24.967 Y80.184 E154.11023
G1 X24.702 Y80.668 E154.14051
G1 X24.386 Y81.013 E154.16619
G1 X23.985 Y81.284 E154.19275
G1 X23.553 Y81.444 E154.21803
G1 X23.004 Y81.51 E154.24838
G1 X6.224 Y81.51 E155.16925
G1 X31.061 Y38.49 E157.89537
G1 X114.5 Y38.49 E162.47444
G1 X114.5 Y81.51 E164.83534
G1 X37.976 Y81.51 E169.03492
G1 X37.429 Y81.444 E169.06516
G1 X36.995 Y81.283 E169.09056
G1 X36.594 Y81.013 E169.11709
G1 X36.279 Y80.668 E169.14273
G1 X36.01 Y80.177 E169.17345
G1 X35.992 Y80.14 E169.17571
G0 F810 X35.765 Y79.66
G1 F1500 E164.17571
G0 F1080 X33.99 Y80.652
G0 X62.65 Y58.627
G0 X60.682 Y59.549
G1 F1500 E169.90328
G1 F900 X80.63 Y81.49 E171.53064
G1 X114.48 Y81.49 E173.3883
G1 X114.48 Y38.51 E175.74701
G1 X60.509 Y38.51 E178.7089
G1 X60.51 Y58.24 E179.79166
G1 X60.612 Y58.978 E179.83255
G1 X60.654 Y59.087 E179.83896
