;FLAVOR:Marlin
;TIME:5316
;Filament used: 2.21646m
;Layer height: 0.12
;MINX:1.347
;MINY:11.443
;MINZ:0.3
;MAXX:117.132
;MAXY:108.327
;MAXZ:0.78
;Generated with Cura_SteamEngine 4.6.1
M104 S200
M105
M109 S200
M82 ;absolute extrusion mode
;Sliced at: Wed 03-06-2020 14:09:34
G21 ;metric values
G90 ;absolute positioning
M82 ;set extruder to absolute mode
M107 ;start with the fan off
G1 Z5.0 F1800 ;move Z to 5mm
G28 X0 Y0 F1800 ;move X/Y to min endstops
G28 Z0 ;move Z to min endstop
G92 E0 ;zero the extruded length
G1 F200 E6.0 ;extrude 6.0mm of feed stock to build pressure
G1 Z5.0 F300 ;move the platform down 5mm
G92 E0 ;zero the extruded length again
G1 F1800
;Put printing message on LCD screen
M117 Printing...
G92 E0
G92 E0
G1 F1500 E-5
;LAYER_COUNT:4
;LAYER:0
M107
;MESH:Dart_XL_Vortex_Generator.stl(5)
G0 F900 X10.27 Y17.197 Z0.3
;TYPE:WALL-INNER
G1 F1500 E0.70678
G1 F900 X10.27 Y13.138 E0.92953
G1 X10.27 Y13.137 E0.92959
G1 X10.27 Y12.92 E0.9415
G1 X10.487 Y12.939 E0.94904
G1 X11.706 Y13.05 E1.01622
G1 X13.807 Y13.216 E1.13188
G1 X15.915 Y13.36 E1.24783
G1 X18.03 Y13.479 E1.36409
G1 X20.152 Y13.575 E1.48066
G1 X22.283 Y13.644 E1.59767
G1 X24.422 Y13.686 E1.71508
G1 X26.57 Y13.699 E1.83296
G1 X28.726 Y13.685 E1.95128
G1 X30.89 Y13.642 E2.07006
G1 X33.062 Y13.572 E2.18932
G1 X35.242 Y13.477 E2.30907
G1 X37.428 Y13.357 E2.42922
G1 X39.62 Y13.214 E2.54977
G1 X41.82 Y13.048 E2.67085
G1 X43.156 Y12.935 E2.74443
G1 X43.372 Y12.917 E2.75633
G1 X43.372 Y13.133 E2.76382
G1 X43.372 Y13.134 E2.76387
G1 X43.372 Y16.723 E2.96083
G1 X30.363 Y24.707 E3.79849
G1 X29.908 Y25.069 E3.8304
G1 X29.502 Y25.359 E3.85778
G1 X29.08 Y25.621 E3.88504
G1 X28.669 Y25.839 E3.91057
G1 X28.246 Y26.02 E3.93582
G1 X27.831 Y26.158 E3.95982
G1 X27.397 Y26.268 E3.98439
G1 X26.971 Y26.345 E4.00815
G1 X14.693 Y26.924 E4.6827
G1 X3.06 Y27.355 E5.32155
G1 X2.702 Y27.201 E5.34294
G1 X2.614 Y27.148 E5.34858
G1 X2.619 Y26.921 E5.36104
G1 X2.646 Y26.717 E5.37233
G1 X9.938 Y17.612 E6.0125
G0 F810 X10.27 Y17.197
G0 F900 X9.87 Y17.057
;TYPE:WALL-OUTER
G1 X9.87 Y12.701 E6.25156
G1 X9.87 Y12.7 E6.25161
G1 X9.87 Y12.483 E6.26352
G1 X10.087 Y12.502 E6.27107
G1 X11.74 Y12.651 E6.36215
G1 X13.836 Y12.817 E6.47754
G1 X15.94 Y12.961 E6.59327
G1 X18.05 Y13.08 E6.70925
G1 X20.167 Y13.175 E6.82555
G1 X22.293 Y13.244 E6.94228
G1 X24.427 Y13.286 E7.05942
G1 X26.57 Y13.299 E7.17703
G1 X28.721 Y13.285 E7.29507
G1 X30.88 Y13.242 E7.41358
G1 X33.047 Y13.172 E7.53257
G1 X35.222 Y13.077 E7.65204
G1 X37.404 Y12.958 E7.77197
G1 X39.592 Y12.815 E7.8923
G1 X41.788 Y12.649 E8.01316
G1 X43.556 Y12.499 E8.11053
G1 X43.772 Y12.481 E8.12243
G1 X43.772 Y12.697 E8.12992
G1 X43.772 Y12.698 E8.12997
G1 X43.772 Y16.947 E8.36316
G1 X30.593 Y25.035 E9.21175
G1 X30.156 Y25.384 E9.24244
G1 X29.724 Y25.692 E9.27156
G1 X29.277 Y25.97 E9.30045
G1 X28.844 Y26.199 E9.32733
G1 X28.393 Y26.392 E9.35425
G1 X27.938 Y26.544 E9.38057
G1 X27.48 Y26.66 E9.4065
G1 X27.015 Y26.744 E9.43243
G1 X14.712 Y27.324 E10.10836
G1 X2.986 Y27.758 E10.75232
G1 X2.516 Y27.556 E10.78039
G1 X2.255 Y27.399 E10.79711
G1 X2.212 Y27.238 E10.80625
G1 X2.219 Y26.895 E10.82508
G1 X2.265 Y26.553 E10.84402
G1 X9.538 Y17.472 E11.48251
G0 F810 X9.87 Y17.057
G0 F900 X9.87 Y16.857
G0 X10.31 Y16.857
G0 X10.66 Y17.334
;TYPE:SKIN
G1 X10.66 Y13.347 E11.70131
G1 X11.673 Y13.438 E11.75713
G1 X13.778 Y13.604 E11.87301
G1 X15.891 Y13.75 E11.98925
G1 X18.01 Y13.869 E12.10572
G1 X20.137 Y13.965 E12.22256
G1 X22.273 Y14.034 E12.33985
G1 X24.417 Y14.076 E12.45753
G1 X26.57 Y14.089 E12.57569
G1 X28.732 Y14.075 E12.69434
G1 X30.9 Y14.032 E12.81334
G1 X33.077 Y13.962 E12.93288
G1 X35.261 Y13.867 E13.05284
G1 X37.451 Y13.747 E13.17321
G1 X39.647 Y13.604 E13.29398
G1 X41.851 Y13.436 E13.41529
G1 X42.982 Y13.34 E13.47758
G1 X42.982 Y16.505 E13.65127
G1 X30.139 Y24.387 E14.47823
G1 X29.665 Y24.763 E14.51144
G1 X29.288 Y25.033 E14.53688
G1 X28.888 Y25.281 E14.56271
G1 X28.502 Y25.486 E14.5867
G1 X28.099 Y25.658 E14.61074
G1 X27.723 Y25.783 E14.63249
G1 X27.319 Y25.886 E14.65537
G1 X26.928 Y25.957 E14.67718
G1 X14.675 Y26.534 E15.35036
G1 X3.134 Y26.961 E15.98415
G1 X3.014 Y26.909 E15.99133
G1 X3.018 Y26.877 E15.9931
G1 X10.328 Y17.749 E16.63487
G0 F810 X10.66 Y17.334
G0 F900 X3.413 Y26.606
G1 X3.609 Y26.802 E16.65009
G0 X3.664 Y26.292
G1 X4.155 Y26.783 E16.68819
G0 X4.7 Y26.762
G1 X3.916 Y25.978 E16.74904
G0 X4.167 Y25.663
G1 X5.246 Y26.742 E16.83278
G0 X5.791 Y26.722
G1 X4.419 Y25.349 E16.9393
G0 X4.671 Y25.035
G1 X6.337 Y26.701 E17.0686
G0 X6.882 Y26.681
G1 X4.922 Y24.721 E17.22072
G0 X5.173 Y24.407
G1 X7.428 Y26.661 E17.39569
G0 X7.973 Y26.64
G1 X5.425 Y24.093 E17.59341
G0 X5.676 Y23.778
G1 X8.518 Y26.62 E17.81398
G0 X9.064 Y26.6
G1 X5.928 Y23.464 E18.05737
G0 X6.18 Y23.15
G1 X9.609 Y26.58 E18.32353
G0 X10.154 Y26.559
G1 X6.431 Y22.836 E18.61248
G0 X6.682 Y22.522
G1 X10.7 Y26.539 E18.92428
G0 X11.245 Y26.519
G1 X6.934 Y22.208 E19.25886
G0 X7.186 Y21.894
G1 X11.791 Y26.499 E19.61626
G0 X12.336 Y26.479
G1 X7.437 Y21.579 E19.99651
G0 X7.689 Y21.265
G1 X12.882 Y26.458 E20.39955
G0 X13.427 Y26.438
G1 X7.94 Y20.951 E20.8254
G0 X8.192 Y20.637
G1 X13.973 Y26.418 E21.27407
G0 X14.518 Y26.397
G1 X8.443 Y20.322 E21.74556
G0 X8.695 Y20.009
G1 X15.059 Y26.373 E22.23947
G0 X15.6 Y26.348
G1 X8.947 Y19.695 E22.75582
G0 X9.198 Y19.38
G1 X16.141 Y26.323 E23.29467
G0 X16.681 Y26.298
G1 X9.449 Y19.066 E23.85595
G0 X9.701 Y18.752
G1 X17.221 Y26.272 E24.43959
G0 X17.761 Y26.247
G1 X9.953 Y18.438 E25.04561
G0 X10.204 Y18.123
G1 X18.302 Y26.221 E25.6741
G0 X18.842 Y26.196
G1 X10.455 Y17.809 E26.32503
G0 X10.707 Y17.495
G1 X19.382 Y26.17 E26.9983
G0 X19.923 Y26.145
G1 X10.799 Y17.022 E27.70639
G0 X10.799 Y16.456
G1 X20.463 Y26.12 E28.45642
G0 X21.003 Y26.095
G1 X10.799 Y15.89 E29.2484
G0 X10.799 Y15.325
G1 X21.544 Y26.069 E30.08229
G0 X22.084 Y26.044
G1 X10.799 Y14.759 E30.95813
G0 X10.799 Y14.193
G1 X22.624 Y26.018 E31.87588
G0 X23.164 Y25.993
G1 X10.799 Y13.628 E32.83554
G0 X11.279 Y13.542
G1 X23.705 Y25.967 E33.79989
G0 X24.245 Y25.942
G1 X11.897 Y13.594 E34.75823
G0 X12.512 Y13.643
G1 X24.786 Y25.917 E35.71083
G0 X25.326 Y25.892
G1 X13.126 Y13.692 E36.65768
G0 X13.741 Y13.741
G1 X25.866 Y25.866 E37.59872
G0 X26.406 Y25.841
G1 X14.349 Y13.783 E38.53451
G0 X14.957 Y13.826
G1 X26.942 Y25.811 E39.46468
G0 X27.413 Y25.716
G1 X15.565 Y13.868 E40.38421
G0 X16.168 Y13.905
G1 X27.854 Y25.591 E41.29117
G0 X28.263 Y25.434
G1 X16.768 Y13.939 E42.18331
G0 X17.367 Y13.973
G1 X28.644 Y25.25 E43.05853
G0 X29.003 Y25.043
G1 X17.967 Y14.007 E43.91504
G0 X18.56 Y14.034
G1 X29.344 Y24.818 E44.752
G0 X29.67 Y24.579
G1 X19.152 Y14.061 E45.56831
G0 X19.745 Y14.088
G1 X29.985 Y24.328 E46.36305
G0 X30.327 Y24.105
G1 X20.334 Y14.112 E47.13861
G0 X20.919 Y14.13
G1 X30.678 Y23.89 E47.89606
G0 X31.029 Y23.675
G1 X21.503 Y14.149 E48.63538
G0 X22.087 Y14.168
G1 X31.379 Y23.46 E49.35654
G0 X31.73 Y23.244
G1 X22.667 Y14.182 E50.05989
G0 X23.244 Y14.193
G1 X32.08 Y23.029 E50.74566
G0 X32.431 Y22.814
G1 X23.821 Y14.205 E51.41385
G0 X24.398 Y14.216
G1 X32.782 Y22.599 E52.0645
G0 X33.132 Y22.384
G1 X24.967 Y14.219 E52.6982
G0 X25.537 Y14.223
G1 X33.482 Y22.169 E53.31485
G0 X33.833 Y21.954
G1 X26.106 Y14.226 E53.91459
G0 X26.674 Y14.229
G1 X34.184 Y21.739 E54.49745
G0 X34.534 Y21.523
G1 X27.235 Y14.224 E55.06393
G0 X27.797 Y14.221
G1 X34.885 Y21.308 E55.614
G0 X35.235 Y21.093
G1 X28.359 Y14.217 E56.14765
G0 X28.919 Y14.211
G1 X35.586 Y20.878 E56.66508
G0 X35.936 Y20.663
G1 X29.474 Y14.2 E57.16665
G0 X30.028 Y14.189
G1 X36.287 Y20.448 E57.65241
G0 X36.638 Y20.233
G1 X30.583 Y14.178 E58.12235
G0 X31.135 Y14.164
G1 X36.988 Y20.018 E58.57664
G0 X37.338 Y19.802
G1 X31.683 Y14.147 E59.01553
G0 X32.231 Y14.129
G1 X37.689 Y19.587 E59.43913
G0 X38.04 Y19.372
G1 X32.779 Y14.111 E59.84744
G0 X33.325 Y14.091
G1 X38.39 Y19.157 E60.24058
G0 X38.741 Y18.942
G1 X33.866 Y14.067 E60.61894
G0 X34.409 Y14.044
G1 X39.091 Y18.727 E60.98235
G0 X39.442 Y18.512
G1 X34.951 Y14.021 E61.3309
G0 X35.491 Y13.995
G1 X39.793 Y18.297 E61.66478
G0 X40.143 Y18.082
G1 X36.027 Y13.966 E61.98423
G0 X36.563 Y13.936
G1 X40.493 Y17.866 E62.28924
G0 X40.844 Y17.651
G1 X37.099 Y13.906 E62.57989
G0 X37.634 Y13.875
G1 X41.195 Y17.436 E62.85626
G0 X41.546 Y17.221
G1 X38.166 Y13.841 E63.11859
G0 X38.697 Y13.806
G1 X41.896 Y17.005 E63.36687
G0 X42.246 Y16.79
G1 X39.228 Y13.772 E63.6011
G0 X39.757 Y13.736
G1 X42.597 Y16.575 E63.82147
G0 X42.841 Y16.254
G1 X40.283 Y13.695 E64.02004
G0 X40.809 Y13.656
G1 X42.841 Y15.688 E64.17775
G0 X42.841 Y15.122
G1 X41.334 Y13.616 E64.29467
G0 X41.86 Y13.575
G1 X42.841 Y14.557 E64.37084
G0 X42.841 Y13.991
G1 X42.381 Y13.531 E64.40654
G1 F1500 E59.40654
;MESH:Dart_XL_Vortex_Generator.stl(6)
G0 F900 X14.693 Y26.905
G0 X14.753 Y28.186
G0 X14.316 Y31.667
G0 X14.215 Y32.946
G0 X10.885 Y36.95
G0 X10.791 Y36.917
;TYPE:WALL-INNER
G1 F1500 E65.11332
G1 F900 X10.791 Y32.858 E65.33608
G1 X10.791 Y32.857 E65.33613
G1 X10.791 Y32.64 E65.34804
G1 X11.008 Y32.659 E65.35559
G1 X12.227 Y32.77 E65.42276
G1 X14.328 Y32.936 E65.53842
G1 X16.436 Y33.08 E65.65438
G1 X18.55 Y33.2 E65.77058
G1 X20.673 Y33.296 E65.88721
G1 X22.804 Y33.365 E66.00421
G1 X24.942 Y33.406 E66.12157
G1 X27.09 Y33.42 E66.23945
G1 X29.246 Y33.405 E66.35777
G1 X31.41 Y33.362 E66.47656
G1 X33.583 Y33.293 E66.59587
G1 X35.762 Y33.198 E66.71556
G1 X37.948 Y33.077 E66.83571
G1 X40.141 Y32.934 E66.95632
G1 X42.34 Y32.768 E67.07734
G1 X43.676 Y32.655 E67.15092
G1 X43.892 Y32.637 E67.16282
G1 X43.892 Y32.853 E67.17031
G1 X43.892 Y32.854 E67.17036
G1 X43.892 Y36.443 E67.36732
G1 X30.883 Y44.427 E68.20498
G1 X30.426 Y44.791 E68.23704
G1 X30.021 Y45.081 E68.26438
G1 X29.6 Y45.343 E68.29159
G1 X29.194 Y45.556 E68.31675
G1 X28.766 Y45.74 E68.34232
G1 X28.355 Y45.877 E68.3661
G1 X27.912 Y45.99 E68.39119
G1 X27.493 Y46.065 E68.41455
G1 X15.213 Y46.645 E69.08921
G1 X3.581 Y47.076 E69.72801
G1 X3.221 Y46.92 E69.74954
G1 X3.135 Y46.869 E69.75503
G1 X3.139 Y46.644 E69.76738
G1 X3.167 Y46.437 E69.77884
G1 X10.459 Y37.332 E70.41901
G0 F810 X10.791 Y36.917
G0 F900 X10.391 Y36.777
;TYPE:WALL-OUTER
G1 X10.391 Y32.421 E70.65806
G1 X10.391 Y32.42 E70.65812
G1 X10.391 Y32.203 E70.67003
G1 X10.608 Y32.222 E70.67758
G1 X12.261 Y32.371 E70.76866
G1 X14.357 Y32.537 E70.88405
G1 X16.461 Y32.681 E70.99978
G1 X18.57 Y32.801 E71.11571
G1 X20.688 Y32.896 E71.23206
G1 X22.814 Y32.965 E71.3488
G1 X24.947 Y33.006 E71.46587
G1 X27.09 Y33.02 E71.58348
G1 X29.241 Y33.005 E71.70153
G1 X31.4 Y32.962 E71.82004
G1 X33.568 Y32.893 E71.93908
G1 X35.742 Y32.798 E72.0585
G1 X37.924 Y32.678 E72.17843
G1 X40.113 Y32.535 E72.29881
G1 X42.308 Y32.369 E72.41962
G1 X44.076 Y32.219 E72.51699
G1 X44.292 Y32.201 E72.52889
G1 X44.292 Y32.417 E72.53638
G1 X44.292 Y32.418 E72.53643
G1 X44.292 Y36.667 E72.76961
G1 X31.113 Y44.755 E73.61821
G1 X30.676 Y45.104 E73.6489
G1 X30.244 Y45.413 E73.67805
G1 X29.798 Y45.691 E73.70689
G1 X29.364 Y45.919 E73.73379
G1 X28.913 Y46.112 E73.76071
G1 X28.458 Y46.264 E73.78704
G1 X27.998 Y46.381 E73.81309
G1 X27.537 Y46.464 E73.8388
G1 X15.232 Y47.045 E74.51484
G1 X3.507 Y47.479 E75.15874
G1 X3.036 Y47.276 E75.18688
G1 X2.776 Y47.119 E75.20355
G1 X2.733 Y46.956 E75.2128
G1 X2.739 Y46.617 E75.23141
G1 X2.786 Y46.273 E75.25046
G1 X10.059 Y37.192 E75.88895
G0 F810 X10.391 Y36.777
G0 F900 X10.391 Y36.577
G0 X10.831 Y36.577
G0 X11.181 Y37.054
;TYPE:SKIN
G1 X11.181 Y33.067 E76.10776
G1 X12.194 Y33.158 E76.16357
G1 X14.299 Y33.324 E76.27945
G1 X16.412 Y33.47 E76.39569
G1 X18.53 Y33.59 E76.51211
G1 X20.658 Y33.686 E76.62901
G1 X22.794 Y33.755 E76.7463
G1 X24.937 Y33.796 E76.86392
G1 X27.09 Y33.81 E76.98208
G1 X29.252 Y33.795 E77.10073
G1 X31.42 Y33.752 E77.21973
G1 X33.598 Y33.683 E77.33932
G1 X35.781 Y33.588 E77.45924
G1 X37.971 Y33.467 E77.5796
G1 X40.168 Y33.324 E77.70043
G1 X42.371 Y33.156 E77.82168
G1 X43.502 Y33.06 E77.88397
G1 X43.502 Y36.225 E78.05766
G1 X30.659 Y44.107 E78.88463
G1 X30.192 Y44.479 E78.91739
G1 X29.806 Y44.756 E78.94347
G1 X29.403 Y45.007 E78.96952
G1 X29.036 Y45.199 E78.99225
G1 X28.619 Y45.378 E79.01716
G1 X28.246 Y45.502 E79.03873
G1 X27.831 Y45.608 E79.06223
G1 X27.451 Y45.677 E79.08343
G1 X15.195 Y46.255 E79.75678
G1 X3.654 Y46.682 E80.39057
G1 X3.534 Y46.631 E80.39773
G1 X3.539 Y46.597 E80.39961
G1 X10.849 Y37.469 E81.04139
G0 F810 X11.181 Y37.054
G0 F900 X3.919 Y46.345
G1 X4.098 Y46.524 E81.05528
G0 X4.17 Y46.031
G1 X4.643 Y46.504 E81.09199
G0 X5.189 Y46.484
G1 X4.422 Y45.717 E81.15152
G0 X4.673 Y45.403
G1 X5.734 Y46.463 E81.23382
G0 X6.28 Y46.444
G1 X4.925 Y45.089 E81.33898
G0 X5.176 Y44.774
G1 X6.825 Y46.423 E81.46696
G0 X7.37 Y46.403
G1 X5.428 Y44.46 E81.61772
G0 X5.68 Y44.146
G1 X7.916 Y46.383 E81.7913
G0 X8.461 Y46.362
G1 X5.931 Y43.832 E81.98766
G0 X6.182 Y43.518
G1 X9.007 Y46.343 E82.20691
G0 X9.553 Y46.322
G1 X6.434 Y43.204 E82.44894
G0 X6.686 Y42.89
G1 X10.098 Y46.302 E82.71375
G0 X10.644 Y46.282
G1 X6.937 Y42.575 E83.00145
G0 X7.189 Y42.261
G1 X11.189 Y46.261 E83.31189
G0 X11.735 Y46.241
G1 X7.44 Y41.947 E83.64519
G0 X7.691 Y41.633
G1 X12.28 Y46.221 E84.00131
G0 X12.825 Y46.2
G1 X7.943 Y41.319 E84.38017
G0 X8.195 Y41.005
G1 X13.371 Y46.181 E84.78188
G0 X13.916 Y46.16
G1 X8.447 Y40.691 E85.20634
G0 X8.698 Y40.376
G1 X14.462 Y46.14 E85.65369
G0 X15.007 Y46.12
G1 X8.949 Y40.062 E86.12385
G0 X9.201 Y39.748
G1 X15.549 Y46.096 E86.61653
G0 X16.089 Y46.07
G1 X9.452 Y39.433 E87.13163
G0 X9.704 Y39.119
G1 X16.629 Y46.045 E87.66913
G0 X17.169 Y46.019
G1 X9.956 Y38.806 E88.22893
G0 X10.207 Y38.492
G1 X17.71 Y45.994 E88.81121
G0 X18.25 Y45.969
G1 X10.458 Y38.177 E89.41596
G0 X10.71 Y37.863
G1 X18.79 Y45.943 E90.04305
G0 X19.33 Y45.918
G1 X10.962 Y37.549 E90.69254
G0 X11.213 Y37.234
G1 X19.871 Y45.892 E91.36449
G0 X20.411 Y45.867
G1 X11.321 Y36.777 E92.06998
G0 X11.321 Y36.211
G1 X20.951 Y45.841 E92.81737
G0 X21.491 Y45.816
G1 X11.321 Y35.645 E93.60671
G0 X11.321 Y35.08
G1 X22.032 Y45.79 E94.43797
G0 X22.572 Y45.765
G1 X11.321 Y34.514 E95.31117
G0 X11.321 Y33.948
G1 X23.112 Y45.739 E96.22628
G0 X23.652 Y45.714
G1 X11.321 Y33.383 E97.1833
G0 X11.762 Y33.258
G1 X24.192 Y45.688 E98.148
G0 X24.733 Y45.663
G1 X12.382 Y33.312 E99.10657
G0 X12.995 Y33.36
G1 X25.273 Y45.638 E100.05948
G0 X25.813 Y45.612
G1 X13.61 Y33.409 E101.00657
G0 X14.224 Y33.457
G1 X26.353 Y45.587 E101.94795
G0 X26.894 Y45.561
G1 X14.832 Y33.5 E102.88405
G0 X15.441 Y33.543
G1 X27.435 Y45.536 E103.81488
G0 X27.907 Y45.443
G1 X16.049 Y33.585 E104.73519
G0 X16.653 Y33.624
G1 X28.348 Y45.319 E105.64285
G0 X28.759 Y45.164
G1 X17.253 Y33.658 E106.53584
G0 X17.853 Y33.692
G1 X29.144 Y44.983 E107.41215
G0 X29.504 Y44.777
G1 X18.452 Y33.726 E108.26986
G0 X19.045 Y33.753
G1 X29.845 Y44.553 E109.10806
G0 X30.172 Y44.314
G1 X19.637 Y33.779 E109.92569
G0 X20.23 Y33.806
G1 X30.486 Y44.063 E110.72171
G0 X30.826 Y43.837
G1 X20.82 Y33.83 E111.49832
G0 X21.404 Y33.849
G1 X31.177 Y43.622 E112.25682
G0 X31.527 Y43.407
G1 X21.989 Y33.869 E112.99707
G0 X22.574 Y33.888
G1 X31.878 Y43.192 E113.71916
G0 X32.228 Y42.976
G1 X23.153 Y33.901 E114.42348
G0 X23.73 Y33.912
G1 X32.579 Y42.761 E115.11026
G0 X32.929 Y42.546
G1 X24.306 Y33.923 E115.7795
G0 X24.883 Y33.934
G1 X33.28 Y42.331 E116.4312
G0 X33.631 Y42.116
G1 X25.453 Y33.939 E117.06586
G0 X26.022 Y33.942
G1 X33.982 Y41.901 E117.68361
G0 X34.332 Y41.686
G1 X26.592 Y33.946 E118.28431
G0 X27.16 Y33.948
G1 X34.682 Y41.471 E118.86814
G0 X35.033 Y41.256
G1 X27.722 Y33.945 E119.43556
G0 X28.284 Y33.941
G1 X35.384 Y41.041 E119.98659
G0 X35.735 Y40.826
G1 X28.846 Y33.937 E120.52126
G0 X29.406 Y33.931
G1 X36.085 Y40.61 E121.03962
G0 X36.435 Y40.395
G1 X29.96 Y33.92 E121.54215
G0 X30.515 Y33.909
G1 X36.786 Y40.18 E122.02885
G0 X37.137 Y39.965
G1 X31.07 Y33.898 E122.49971
G0 X31.622 Y33.885
G1 X37.487 Y39.75 E122.9549
G0 X37.837 Y39.535
G1 X32.17 Y33.867 E123.39476
G0 X32.719 Y33.85
G1 X38.188 Y39.32 E123.81926
G0 X38.539 Y39.105
G1 X33.267 Y33.832 E124.22846
G0 X33.813 Y33.813
G1 X38.89 Y38.89 E124.62249
G0 X39.24 Y38.675
G1 X34.356 Y33.79 E125.00158
G0 X34.898 Y33.767
G1 X39.59 Y38.459 E125.36573
G0 X39.941 Y38.244
G1 X35.44 Y33.743 E125.71506
G0 X35.98 Y33.717
