;FLAVOR:Marlin
;TIME:3259
;Filament used: 4.61757m
;Layer height: 0.24
;MINX:23
;MINY:42.269
;MINZ:0.3
;MAXX:97
;MAXY:77.71
;MAXZ:39.3
;Generated with Cura_SteamEngine 4.7.1
M104 S225
M105
M109 S225
M82 ;absolute extrusion mode
;Sliced at: Thu 06-05-2021 09:11:58
G21 ;metric values
G90 ;absolute positioning
M82 ;set extruder to absolute mode
M107 ;start with the fan off
G1 Z5.0 F1800 ;move Z to 5mm
G28 X0 Y0 F1800 ;move X/Y to min endstops
G28 Z0 ;move Z to min endstop
G92 E0 ;zero the extruded length
G1 F200 E6.0 ;extrude 6.0mm of feed stock to build pressure
G1 Z5.0 F300 ;move the platform down 5mm
G92 E0 ;zero the extruded length again
G1 F1800
;Put printing message on LCD screen
M117 Printing...
G92 E0
G92 E0
G1 F1500 E-5
;LAYER_COUNT:152
;LAYER:0
M107
G0 F1200 X25.567 Y50.526 Z0.3
;TYPE:SKIRT
G1 F1500 E0.72757
G1 F900 X26.852 Y50.029 E0.80318
G1 X29.403 Y49 E0.95413
G1 X31.877 Y47.92 E1.10228
G1 X34.36 Y46.752 E1.25287
G1 X36.738 Y45.55 E1.39909
G1 X39.155 Y44.241 E1.54994
G1 X40.546 Y43.438 E1.63808
G1 X41.048 Y43.157 E1.66966
G1 X41.56 Y42.916 E1.70071
G1 X42.1 Y42.75 E1.73171
G1 X42.768 Y42.654 E1.76875
G1 X43.164 Y42.633 E1.79051
G1 X43.768 Y42.616 E1.82367
G1 X46.45 Y42.56 E1.97089
G1 X47.977 Y42.524 E2.05471
G1 X52.194 Y42.431 E2.2862
G1 X55.404 Y42.362 E2.4624
G1 X56.842 Y42.329 E2.54134
G1 X59.287 Y42.277 E2.67555
G1 X60.302 Y42.269 E2.73125
G1 X60.419 Y42.27 E2.73767
G1 X63.597 Y42.337 E2.91212
G1 X64.367 Y42.356 E2.95439
G1 X68.722 Y42.452 E3.19344
G1 X71.655 Y42.514 E3.35444
G1 X72.923 Y42.544 E3.42405
G1 X76.473 Y42.622 E3.61892
G1 X77.156 Y42.649 E3.65643
G1 X77.718 Y42.711 E3.68746
G1 X78.265 Y42.852 E3.71846
G1 X78.984 Y43.174 E3.76169
G1 X80.026 Y43.77 E3.82757
G1 X80.177 Y43.845 E3.83682
G1 X81.549 Y44.627 E3.92349
G1 X83.949 Y45.903 E4.07266
G1 X86.407 Y47.123 E4.22325
G1 X88.83 Y48.241 E4.36969
G1 X91.349 Y49.319 E4.52006
G1 X94.039 Y50.367 E4.6785
G1 X94.484 Y50.546 E4.70482
G1 X94.992 Y50.793 E4.73582
G1 X95.46 Y51.11 E4.76684
G1 X95.879 Y51.49 E4.79788
G1 X96.241 Y51.925 E4.82894
G1 X96.537 Y52.406 E4.85993
G1 X96.762 Y52.924 E4.89093
G1 X96.913 Y53.469 E4.92196
G1 X96.989 Y54.146 E4.95935
G1 X97 Y54.58 E4.98317
G1 X97 Y63.569 E5.47648
G1 X96.99 Y64.298 E5.51649
G1 X96.942 Y64.861 E5.5475
G1 X96.815 Y65.412 E5.57853
G1 X96.612 Y65.94 E5.60958
G1 X96.337 Y66.433 E5.64056
G1 X95.995 Y66.883 E5.67158
G1 X95.592 Y67.281 E5.70266
G1 X95.138 Y67.617 E5.73366
G1 X94.639 Y67.887 E5.76479
G1 X93.63 Y68.344 E5.82558
G1 X93.012 Y68.614 E5.86259
G1 X90.593 Y69.75 E6.00925
G1 X88.135 Y70.992 E6.16039
G1 X85.758 Y72.279 E6.30873
G1 X83.402 Y73.64 E6.45805
G1 X81.133 Y75.039 E6.60434
G1 X79.561 Y76.07 E6.70751
G1 X79.135 Y76.34 E6.73519
G1 X78.638 Y76.608 E6.76617
G1 X78.107 Y76.803 E6.79722
G1 X77.335 Y76.946 E6.8403
G1 X77.118 Y76.964 E6.85225
G1 X76.554 Y76.998 E6.88326
G1 X76.492 Y76.998 E6.88666
G1 X70.894 Y77.249 E7.19419
G1 X68.192 Y77.366 E7.34261
G1 X67.272 Y77.408 E7.39315
G1 X62.877 Y77.6 E7.63458
G1 X62.215 Y77.63 E7.67094
G1 X60.79 Y77.691 E7.74922
G1 X60.089 Y77.71 E7.7877
G1 X59.866 Y77.709 E7.79994
G1 X59.084 Y77.687 E7.84287
G1 X58.004 Y77.639 E7.9022
G1 X57.239 Y77.607 E7.94422
G1 X55.527 Y77.531 E8.03827
G1 X54.95 Y77.507 E8.06996
G1 X51.953 Y77.373 E8.2346
G1 X51.897 Y77.373 E8.23767
G1 X50.914 Y77.326 E8.29168
G1 X46.775 Y77.145 E8.51904
G1 X43.441 Y76.995 E8.70219
G1 X42.758 Y76.953 E8.73975
G1 X42.198 Y76.879 E8.77074
G1 X41.654 Y76.726 E8.80176
G1 X41.136 Y76.498 E8.83282
G1 X40.847 Y76.329 E8.85119
G1 X40.158 Y75.888 E8.89608
G1 X39.21 Y75.26 E8.95849
G1 X36.903 Y73.824 E9.10762
G1 X34.537 Y72.443 E9.25796
G1 X32.181 Y71.154 E9.40534
G1 X29.78 Y69.93 E9.55324
G1 X27.291 Y68.747 E9.70448
G1 X25.615 Y67.998 E9.80523
G1 X25.421 Y67.914 E9.81683
G1 X24.919 Y67.653 E9.84788
G1 X24.459 Y67.324 E9.87891
G1 X24.05 Y66.934 E9.90993
G1 X23.7 Y66.49 E9.94096
G1 X23.417 Y66.001 E9.97196
G1 X23.205 Y65.476 E10.00303
G1 X23.069 Y64.928 E10.03402
G1 X23.012 Y64.367 E10.06497
G1 X23 Y63.92 E10.08951
G1 X23 Y54.864 E10.58649
G1 X23.01 Y54.197 E10.6231
G1 X23.059 Y53.634 E10.65411
G1 X23.186 Y53.083 E10.68515
G1 X23.39 Y52.556 E10.71616
G1 X23.666 Y52.062 E10.74721
G1 X24.009 Y51.613 E10.77822
G1 X24.411 Y51.216 E10.80923
G1 X24.866 Y50.88 E10.84027
G1 X25.092 Y50.765 E10.85418
G0 F810 X25.567 Y50.526
G0 F1200 X25.711 Y50.899
G1 F900 X26.997 Y50.401 E10.92986
G1 X29.546 Y49.373 E11.0807
G1 X32.058 Y48.277 E11.23111
G1 X34.504 Y47.127 E11.37944
G1 X36.958 Y45.886 E11.53035
G1 X39.339 Y44.597 E11.67894
G1 X40.698 Y43.811 E11.76509
G1 X41.244 Y43.506 E11.79942
G1 X41.73 Y43.279 E11.82885
G1 X42.244 Y43.128 E11.85825
G1 X42.791 Y43.053 E11.88855
G1 X43.175 Y43.032 E11.90966
G1 X43.776 Y43.016 E11.94265
G1 X46.46 Y42.96 E12.08998
G1 X47.986 Y42.924 E12.17375
G1 X52.203 Y42.831 E12.40523
G1 X55.413 Y42.762 E12.58143
G1 X56.85 Y42.729 E12.66032
G1 X59.291 Y42.677 E12.79431
G1 X60.306 Y42.669 E12.85001
G1 X60.41 Y42.67 E12.85572
G1 X63.587 Y42.737 E13.03011
G1 X64.357 Y42.756 E13.07238
G1 X68.713 Y42.852 E13.31149
G1 X71.645 Y42.914 E13.47243
G1 X72.913 Y42.944 E13.54204
G1 X76.457 Y43.022 E13.73658
G1 X77.14 Y43.049 E13.77409
G1 X77.673 Y43.11 E13.80353
G1 X78.191 Y43.249 E13.83297
G1 X78.786 Y43.521 E13.86887
G1 X79.881 Y44.147 E13.93809
G1 X79.979 Y44.192 E13.94401
G1 X81.395 Y44.999 E14.03345
G1 X83.733 Y46.243 E14.17879
G1 X86.227 Y47.48 E14.33157
G1 X88.685 Y48.614 E14.48013
G1 X91.201 Y49.691 E14.63032
G1 X93.889 Y50.738 E14.78863
G1 X94.334 Y50.917 E14.81495
G1 X94.816 Y51.154 E14.84443
G1 X95.256 Y51.459 E14.87381
G1 X95.647 Y51.827 E14.90328
G1 X95.979 Y52.248 E14.9327
G1 X96.244 Y52.714 E14.96212
G1 X96.437 Y53.215 E14.99159
G1 X96.553 Y53.738 E15.02098
G1 X96.599 Y54.48 E15.06178
G1 X96.6 Y63.563 E15.56025
G1 X96.59 Y64.292 E15.60026
G1 X96.542 Y64.827 E15.62974
G1 X96.416 Y65.348 E15.65916
G1 X96.214 Y65.845 E15.6886
G1 X95.94 Y66.306 E15.71803
G1 X95.601 Y66.721 E15.74744
G1 X95.204 Y67.082 E15.77688
G1 X94.758 Y67.379 E15.80629
G1 X94.475 Y67.523 E15.82372
G1 X93.47 Y67.977 E15.88424
G1 X92.861 Y68.243 E15.92071
G1 X90.422 Y69.389 E16.0686
G1 X87.944 Y70.64 E16.22093
G1 X85.574 Y71.923 E16.36883
G1 X83.214 Y73.288 E16.51845
G1 X80.869 Y74.733 E16.66961
G1 X79.347 Y75.732 E16.76953
G1 X78.921 Y76.002 E16.7972
G1 X78.448 Y76.254 E16.82662
G1 X77.943 Y76.434 E16.85604
G1 X77.301 Y76.548 E16.89182
G1 X77.094 Y76.564 E16.90322
G1 X76.53 Y76.598 E16.93422
G1 X76.474 Y76.598 E16.9373
G1 X70.877 Y76.85 E17.24477
G1 X68.162 Y76.967 E17.3939
G1 X67.264 Y77.008 E17.44324
G1 X62.849 Y77.201 E17.68576
G1 X62.198 Y77.231 E17.72152
G1 X60.78 Y77.291 E17.79941
G1 X60.079 Y77.31 E17.8379
G1 X59.878 Y77.31 E17.84893
G1 X59.101 Y77.287 E17.89159
G1 X58.021 Y77.239 E17.95091
G1 X57.257 Y77.207 E17.99288
G1 X55.544 Y77.131 E18.08698
G1 X54.968 Y77.107 E18.11862
G1 X51.978 Y76.973 E18.28287
G1 X51.916 Y76.973 E18.28627
G1 X50.943 Y76.928 E18.33973
G1 X46.793 Y76.745 E18.5677
G1 X43.466 Y76.596 E18.75046
G1 X42.783 Y76.554 E18.78802
G1 X42.252 Y76.482 E18.81743
G1 X41.737 Y76.331 E18.84688
G1 X41.062 Y75.992 E18.88833
G1 X40.379 Y75.554 E18.93286
G1 X39.436 Y74.93 E18.99491
G1 X37.095 Y73.472 E19.14627
G1 X34.767 Y72.113 E19.2942
G1 X32.361 Y70.797 E19.4447
G1 X29.926 Y69.556 E19.59469
G1 X27.503 Y68.404 E19.74192
G1 X25.735 Y67.614 E19.84819
G1 X25.58 Y67.547 E19.85746
G1 X25.105 Y67.297 E19.88692
G1 X24.672 Y66.981 E19.91634
G1 X24.291 Y66.603 E19.94579
G1 X23.971 Y66.173 E19.97521
G1 X23.718 Y65.7 E20.00464
G1 X23.538 Y65.195 E20.03406
G1 X23.435 Y64.668 E20.06353
G1 X23.402 Y64.031 E20.09854
G1 X23.4 Y63.92 E20.10463
G1 X23.4 Y54.87 E20.60129
G1 X23.41 Y54.203 E20.6379
G1 X23.458 Y53.669 E20.66732
G1 X23.585 Y53.148 E20.69675
G1 X23.788 Y52.651 E20.72621
G1 X24.062 Y52.191 E20.7556
G1 X24.402 Y51.776 E20.78504
G1 X24.799 Y51.416 E20.81445
G1 X25.231 Y51.128 E20.84294
G0 F810 X25.246 Y51.119
G0 X25.711 Y50.899
G0 F1200 X25.855 Y51.273
G1 F900 X27.121 Y50.783 E20.91744
G1 X29.707 Y49.74 E21.07047
G1 X32.209 Y48.648 E21.22028
G1 X34.69 Y47.482 E21.37073
G1 X37.135 Y46.245 E21.5211
G1 X39.55 Y44.937 E21.67182
G1 X40.937 Y44.136 E21.75972
G1 X41.439 Y43.855 E21.7913
G1 X41.898 Y43.643 E21.81904
G1 X42.385 Y43.507 E21.84679
G1 X43.088 Y43.436 E21.88557
G1 X43.186 Y43.432 E21.89095
G1 X43.784 Y43.416 E21.92378
G1 X46.469 Y43.36 E22.07116
G1 X47.994 Y43.324 E22.15488
G1 X52.211 Y43.231 E22.38636
G1 X55.422 Y43.162 E22.56262
G1 X56.859 Y43.129 E22.6415
G1 X59.294 Y43.077 E22.77516
G1 X60.309 Y43.069 E22.83086
G1 X63.577 Y43.137 E23.01025
G1 X64.347 Y43.156 E23.05252
G1 X68.704 Y43.252 E23.29168
G1 X71.636 Y43.314 E23.45263
G1 X72.904 Y43.344 E23.52223
G1 X76.441 Y43.421 E23.71639
G1 X77.124 Y43.448 E23.7539
G1 X77.626 Y43.508 E23.78164
G1 X78.113 Y43.646 E23.80942
G1 X78.587 Y43.868 E23.83815
G1 X79.598 Y44.447 E23.90208
G1 X79.781 Y44.54 E23.91335
G1 X81.175 Y45.334 E24.00139
G1 X83.59 Y46.619 E24.15152
G1 X86.031 Y47.831 E24.30108
G1 X88.526 Y48.981 E24.45185
G1 X91.026 Y50.051 E24.60109
G1 X93.74 Y51.109 E24.76095
G1 X94.185 Y51.288 E24.78727
G1 X94.638 Y51.513 E24.81503
G1 X95.049 Y51.807 E24.84276
G1 X95.41 Y52.162 E24.87054
G1 X95.709 Y52.569 E24.89826
G1 X95.941 Y53.018 E24.92599
G1 X96.1 Y53.498 E24.95374
G1 X96.19 Y54.168 E24.99084
G1 X96.2 Y54.58 E25.01346
G1 X96.2 Y63.558 E25.50617
G1 X96.19 Y64.287 E25.54618
G1 X96.143 Y64.79 E25.5739
G1 X96.017 Y65.28 E25.60167
G1 X95.816 Y65.744 E25.62942
G1 X95.545 Y66.17 E25.65713
G1 X95.209 Y66.549 E25.68492
G1 X94.818 Y66.869 E25.71265
G1 X94.31 Y67.158 E25.74472
G1 X93.31 Y67.611 E25.80497
G1 X92.68 Y67.886 E25.8427
G1 X90.236 Y69.035 E25.9909
G1 X87.751 Y70.289 E26.14366
G1 X85.377 Y71.574 E26.2918
G1 X83.01 Y72.943 E26.44186
G1 X80.67 Y74.385 E26.59271
G1 X79.133 Y75.394 E26.69361
G1 X78.707 Y75.664 E26.72129
G1 X78.26 Y75.9 E26.74903
G1 X77.781 Y76.063 E26.77679
G1 X77.267 Y76.149 E26.80539
G1 X77.07 Y76.165 E26.81624
G1 X76.506 Y76.199 E26.84725
G1 X76.457 Y76.199 E26.84994
G1 X70.86 Y76.45 E27.15741
G1 X68.155 Y76.567 E27.30599
G1 X67.237 Y76.609 E27.35642
G1 X62.84 Y76.801 E27.59796
G1 X62.181 Y76.831 E27.63416
G1 X60.769 Y76.891 E27.71172
G1 X60.068 Y76.91 E27.7502
G1 X59.889 Y76.91 E27.76003
G1 X59.117 Y76.887 E27.80241
G1 X58.809 Y76.875 E27.81933
G1 X58.023 Y76.838 E27.86251
G1 X57.274 Y76.808 E27.90365
G1 X55.548 Y76.731 E27.99847
G1 X54.986 Y76.708 E28.02933
G1 X52.001 Y76.574 E28.19331
G1 X51.934 Y76.574 E28.19699
G1 X50.951 Y76.528 E28.251
G1 X46.811 Y76.346 E28.47841
G1 X43.491 Y76.197 E28.6608
G1 X42.808 Y76.155 E28.69835
G1 X42.307 Y76.084 E28.72612
G1 X41.824 Y75.935 E28.75386
G1 X41.278 Y75.656 E28.78751
G1 X40.6 Y75.221 E28.83172
G1 X39.622 Y74.573 E28.8961
G1 X37.344 Y73.155 E29.04336
G1 X34.938 Y71.751 E29.19623
G1 X32.569 Y70.455 E29.34443
G1 X30.1 Y69.196 E29.49652
G1 X27.639 Y68.026 E29.64606
G1 X25.933 Y67.264 E29.7486
G1 X25.739 Y67.18 E29.76021
G1 X25.292 Y66.943 E29.78797
G1 X24.888 Y66.638 E29.81575
G1 X24.537 Y66.274 E29.8435
G1 X24.248 Y65.859 E29.87125
G1 X24.028 Y65.404 E29.89899
G1 X23.882 Y64.92 E29.92673
G1 X23.812 Y64.342 E29.95869
G1 X23.8 Y63.92 E29.98185
G1 X23.8 Y54.876 E30.47818
G1 X23.81 Y54.209 E30.51479
G1 X23.858 Y53.706 E30.54252
G1 X23.984 Y53.216 E30.57029
G1 X24.186 Y52.753 E30.59801
G1 X24.458 Y52.326 E30.62579
G1 X24.794 Y51.949 E30.65351
G1 X25.185 Y51.628 E30.68127
G1 X25.381 Y51.514 E30.69371
G0 F810 X25.622 Y51.374
G0 X25.855 Y51.273
G1 F1500 E25.69371
;MESH:FPV_CAMMount.stl
G0 F1200 X48.928 Y51.178
G0 X46.9 Y49.15
;TYPE:WALL-INNER
G1 F1500 E31.42128
G1 F900 X46.9 Y70.35 E32.58472
G1 X73.1 Y70.35 E34.02255
G1 X73.1 Y49.15 E35.18599
G1 X47.432 Y49.15 E36.59463
G0 F810 X46.9 Y49.15
G0 F1200 X47.3 Y49.55
G1 F900 X47.3 Y69.95 E37.71417
G1 X72.7 Y69.95 E39.1081
G1 X72.7 Y49.55 E40.22764
G1 X47.832 Y49.55 E41.59237
G0 F810 X47.3 Y49.55
G0 F1200 X47.7 Y49.95
;TYPE:WALL-OUTER
G1 F900 X47.7 Y69.55 E42.66801
G1 X72.3 Y69.55 E44.01803
G1 X72.3 Y49.95 E45.09367
G1 X48.232 Y49.95 E46.4145
G0 F810 X47.7 Y49.95
G0 F1200 X47.7 Y50.15
G0 X47.26 Y50.15
G1 F1500 E41.4145
G0 F1200 X48.928 Y51.178
G0 X78.028 Y53.222
G0 X76 Y55.25
;TYPE:WALL-INNER
G1 F1500 E47.14207
G1 F900 X92 Y55.25 E48.02013
G1 X92 Y63.25 E48.45917
G1 X76 Y63.25 E49.33724
G1 X76 Y72.015 E49.81825
G1 X74.205 Y72.094 E49.91686
G1 X70.677 Y72.253 E50.11067
G1 X68.577 Y72.344 E50.22602
G1 X67.783 Y72.38 E50.26964
G1 X67.143 Y72.407 E50.30479
G1 X63.01 Y72.589 E50.53183
G1 X62.734 Y72.6 E50.54699
G1 X62.106 Y72.629 E50.58149
G1 X59.997 Y72.719 E50.69733
G1 X59.039 Y72.68 E50.74995
G1 X58.482 Y72.654 E50.78055
G1 X57.559 Y72.615 E50.83125
G1 X55.729 Y72.534 E50.93178
G1 X55.586 Y72.529 E50.93963
G1 X52.129 Y72.375 E51.12954
G1 X52.054 Y72.373 E51.13365
G1 X51.42 Y72.343 E51.16849
G1 X46.999 Y72.149 E51.41134
G1 X44 Y72.014 E51.57609
G1 X44 Y63.25 E52.05705
G1 X28 Y63.25 E52.93512
G1 X28 Y55.25 E53.37415
G1 X44 Y55.25 E54.25222
G1 X44 Y47.614 E54.67128
G1 X46.798 Y47.553 E54.82487
G1 X48.077 Y47.523 E54.89508
G1 X51.486 Y47.449 E55.0822
G1 X52.303 Y47.43 E55.12705
G1 X55.347 Y47.365 E55.29414
G1 X56.95 Y47.328 E55.38214
G1 X60.002 Y47.262 E55.54967
G1 X63.467 Y47.336 E55.73987
G1 X64.244 Y47.355 E55.78252
G1 X68.515 Y47.449 E56.01697
G1 X71.513 Y47.512 E56.18153
G1 X72.765 Y47.542 E56.25026
G1 X76 Y47.613 E56.42784
G1 X76 Y54.718 E56.81776
G0 F810 X76 Y55.25
G0 F1200 X76.4 Y54.85
G1 F900 X92.4 Y54.85 E57.69582
G1 X92.4 Y63.65 E58.17876
G1 X76.4 Y63.65 E59.05683
G1 X76.4 Y72.398 E59.53691
G1 X74.223 Y72.494 E59.6565
G1 X70.695 Y72.653 E59.85031
G1 X68.595 Y72.744 E59.96566
G1 X67.801 Y72.78 E60.00928
G1 X67.161 Y72.807 E60.04444
G1 X63.028 Y72.989 E60.27147
G1 X62.751 Y73 E60.28669
G1 X62.124 Y73.029 E60.32113
G1 X59.998 Y73.12 E60.43791
G1 X59.02 Y73.08 E60.49163
G1 X58.464 Y73.054 E60.52217
G1 X57.542 Y73.015 E60.57282
G1 X55.714 Y72.934 E60.67324
G1 X55.568 Y72.929 E60.68125
G1 X52.115 Y72.775 E60.87094
G1 X52.035 Y72.773 E60.87533
G1 X51.402 Y72.743 E60.91011
G1 X46.981 Y72.549 E61.15296
G1 X43.6 Y72.397 E61.3387
G1 X43.6 Y63.65 E61.81873
G1 X27.6 Y63.65 E62.69679
G1 X27.6 Y54.85 E63.17973
G1 X43.6 Y54.85 E64.0578
G1 X43.6 Y47.222 E64.47642
G1 X46.789 Y47.153 E64.65147
G1 X48.068 Y47.123 E64.72168
G1 X51.477 Y47.049 E64.90881
G1 X52.294 Y47.03 E64.95365
G1 X55.338 Y46.965 E65.12074
G1 X56.941 Y46.928 E65.20874
G1 X60.002 Y46.862 E65.37676
G1 X63.477 Y46.936 E65.56751
G1 X64.254 Y46.955 E65.61017
G1 X68.524 Y47.049 E65.84456
G1 X71.523 Y47.112 E66.00918
G1 X72.775 Y47.142 E66.0779
G1 X76.4 Y47.222 E66.27689
G1 X76.4 Y54.318 E66.66631
G0 F810 X76.4 Y54.85
G0 F1200 X76.8 Y54.45
;TYPE:WALL-OUTER
G1 F900 X92.8 Y54.45 E67.54438
G1 X92.8 Y64.05 E68.07122
G1 X76.8 Y64.05 E68.94929
G1 X76.8 Y72.779 E69.42833
G1 X76.33 Y72.802 E69.45415
G1 X74.241 Y72.894 E69.56891
G1 X70.713 Y73.053 E69.76272
G1 X68.615 Y73.143 E69.87796
G1 X68.511 Y73.149 E69.88368
G1 X67.895 Y73.175 E69.91751
G1 X67.818 Y73.18 E69.92175
G1 X67.178 Y73.207 E69.9569
G1 X63.045 Y73.389 E70.18394
G1 X62.769 Y73.4 E70.1991
G1 X62.142 Y73.429 E70.23354
G1 X59.999 Y73.521 E70.35126
G1 X59.001 Y73.48 E70.40607
G1 X58.446 Y73.454 E70.43656
G1 X57.525 Y73.415 E70.48715
G1 X55.699 Y73.334 E70.58746
G1 X55.55 Y73.329 E70.59564
G1 X52.101 Y73.175 E70.78511
G1 X52.016 Y73.173 E70.78978
G1 X51.384 Y73.143 E70.8245
G1 X46.963 Y72.949 E71.06735
G1 X43.2 Y72.78 E71.27407
G1 X43.2 Y64.05 E71.75317
G1 X27.2 Y64.05 E72.63123
G1 X27.2 Y54.45 E73.15807
G1 X43.2 Y54.45 E74.03614
G1 X43.2 Y46.832 E74.45421
G1 X43.874 Y46.815 E74.49121
G1 X46.78 Y46.753 E74.65073
G1 X48.059 Y46.723 E74.72094
G1 X51.468 Y46.649 E74.90807
G1 X52.285 Y46.63 E74.95291
G1 X55.329 Y46.565 E75.12
G1 X56.932 Y46.528 E75.208
G1 X60.001 Y46.462 E75.37646
G1 X63.487 Y46.536 E75.56781
G1 X64.264 Y46.555 E75.61047
G1 X68.533 Y46.649 E75.8448
G1 X71.533 Y46.712 E76.00948
G1 X72.785 Y46.742 E76.07821
G1 X76.127 Y46.815 E76.26166
G1 X76.8 Y46.831 E76.2986
G1 X76.8 Y53.918 E76.68753
G0 F810 X76.8 Y54.45
G0 F1200 X77 Y54.45
G0 X77 Y54.89
G0 X75.61 Y55.64
;TYPE:SKIN
G1 F900 X91.61 Y55.64 E77.5656
G1 X91.61 Y62.86 E77.96183
