;FLAVOR:Marlin
;TIME:4713
;Filament used: 3.00258m
;Layer height: 0.12
;MINX:12.789
;MINY:33.5
;MINZ:0.3
;MAXX:107.194
;MAXY:86.5
;MAXZ:12.78
;Generated with Cura_SteamEngine 4.7.1
M104 S210
M105
M109 S210
M82 ;absolute extrusion mode
;Sliced at: Mon 10-05-2021 10:27:32
G21 ;metric values
G90 ;absolute positioning
M82 ;set extruder to absolute mode
M107 ;start with the fan off
G1 Z5.0 F1800 ;move Z to 5mm
G28 X0 Y0 F1800 ;move X/Y to min endstops
G28 Z0 ;move Z to min endstop
G92 E0 ;zero the extruded length
G1 F200 E6.0 ;extrude 6.0mm of feed stock to build pressure
G1 Z5.0 F300 ;move the platform down 5mm
G92 E0 ;zero the extruded length again
G1 F1800
;Put printing message on LCD screen
M117 Printing...
G92 E0
G92 E0
G1 F1500 E-5
;LAYER_COUNT:81
;LAYER:0
M107
G0 F1080 X15.146 Y33.866 Z0.3
;TYPE:SKIRT
G1 F1500 E0.72757
G1 F900 X15.676 Y33.669 E0.7586
G1 X16.229 Y33.55 E0.78964
G1 X17.007 Y33.502 E0.83242
G1 X17.119 Y33.5 E0.83856
G1 X19.139 Y33.5 E0.94942
G1 X19.837 Y33.51 E0.98773
G1 X20.377 Y33.548 E1.01744
G1 X22.73 Y33.815 E1.1474
G1 X25.467 Y34.048 E1.29814
G1 X28.206 Y34.203 E1.4487
G1 X30.877 Y34.279 E1.59534
G1 X33.622 Y34.279 E1.74598
G1 X36.293 Y34.203 E1.89263
G1 X39.036 Y34.048 E2.0434
G1 X41.745 Y33.818 E2.1926
G1 X43.745 Y33.593 E2.30305
G1 X44.374 Y33.531 E2.33774
G1 X44.774 Y33.508 E2.35973
G1 X45.4 Y33.5 E2.39408
G1 X102.562 Y33.5 E5.53109
G1 X103.252 Y33.51 E5.56896
G1 X103.815 Y33.559 E5.59998
G1 X104.366 Y33.686 E5.63101
G1 X104.894 Y33.889 E5.66205
G1 X105.387 Y34.165 E5.69306
G1 X105.837 Y34.507 E5.72408
G1 X106.234 Y34.91 E5.75512
G1 X106.57 Y35.364 E5.78612
G1 X106.839 Y35.862 E5.81718
G1 X107.035 Y36.392 E5.84819
G1 X107.154 Y36.945 E5.87923
G1 X107.194 Y37.509 E5.91026
G1 X107.154 Y38.073 E5.94129
G1 X107.035 Y38.625 E5.97228
G1 X106.84 Y39.156 E6.00333
G1 X106.685 Y39.464 E6.02225
G1 X106.338 Y40.084 E6.06124
G1 X81.047 Y83.891 E8.83722
G1 X80.664 Y84.535 E8.87834
G1 X80.341 Y84.999 E8.90937
G1 X79.957 Y85.413 E8.94036
G1 X79.517 Y85.769 E8.97142
G1 X79.032 Y86.059 E9.00243
G1 X78.511 Y86.278 E9.03344
G1 X77.964 Y86.421 E9.06447
G1 X77.284 Y86.49 E9.10198
G1 X76.597 Y86.5 E9.13969
G1 X17.439 Y86.5 E12.38623
G1 X16.741 Y86.49 E12.42454
G1 X16.177 Y86.442 E12.45561
G1 X15.627 Y86.315 E12.48658
G1 X15.099 Y86.111 E12.51765
G1 X14.605 Y85.836 E12.54868
G1 X14.156 Y85.493 E12.57968
G1 X13.759 Y85.091 E12.61069
G1 X13.422 Y84.636 E12.64176
G1 X13.154 Y84.139 E12.67275
G1 X12.958 Y83.609 E12.70376
G1 X12.838 Y83.056 E12.73482
G1 X12.79 Y82.266 E12.77825
G1 X12.789 Y38.12 E15.20095
G1 X12.798 Y37.455 E15.23745
G1 X12.846 Y36.892 E15.26846
G1 X12.972 Y36.341 E15.29948
G1 X13.175 Y35.813 E15.33052
G1 X13.451 Y35.319 E15.36157
G1 X13.793 Y34.869 E15.39259
G1 X14.195 Y34.472 E15.4236
G1 X14.649 Y34.135 E15.45463
G1 X14.679 Y34.119 E15.45649
G0 F810 X15.146 Y33.866
G0 F1080 X15.515 Y34.145
G1 F900 X16.029 Y33.992 E15.48592
G1 X16.697 Y33.91 E15.52286
G1 X17.119 Y33.9 E15.54602
G1 X19.134 Y33.9 E15.65661
G1 X19.832 Y33.91 E15.69492
G1 X20.34 Y33.947 E15.72287
G1 X20.411 Y33.954 E15.72678
G1 X22.723 Y34.216 E15.85448
G1 X25.444 Y34.448 E16.00434
G1 X28.137 Y34.601 E16.15237
G1 X30.902 Y34.679 E16.30417
G1 X33.597 Y34.679 E16.45207
G1 X36.362 Y34.601 E16.60387
G1 X39.058 Y34.448 E16.75207
G1 X41.787 Y34.217 E16.90237
G1 X43.784 Y33.991 E17.01266
G1 X44.413 Y33.929 E17.04735
G1 X44.779 Y33.908 E17.06747
G1 X45.405 Y33.9 E17.10182
G1 X102.556 Y33.9 E20.23823
G1 X103.246 Y33.91 E20.2761
G1 X103.78 Y33.958 E20.30552
G1 X104.301 Y34.085 E20.33495
G1 X104.798 Y34.287 E20.36439
G1 X105.259 Y34.561 E20.39382
G1 X105.674 Y34.901 E20.42326
G1 X106.034 Y35.298 E20.45268
G1 X106.331 Y35.745 E20.48213
G1 X106.559 Y36.23 E20.51154
G1 X106.712 Y36.744 E20.54097
G1 X106.786 Y37.275 E20.57039
G1 X106.781 Y37.812 E20.59986
G1 X106.697 Y38.341 E20.62926
G1 X106.534 Y38.852 E20.65869
G1 X106.335 Y39.268 E20.684
G1 X105.965 Y39.93 E20.72562
G1 X80.703 Y83.686 E23.49838
G1 X80.32 Y84.33 E23.5395
G1 X80.012 Y84.769 E23.56893
G1 X79.643 Y85.158 E23.59836
G1 X79.22 Y85.487 E23.62777
G1 X78.752 Y85.75 E23.65723
G1 X78.251 Y85.941 E23.68665
G1 X77.727 Y86.055 E23.71608
G1 X77.278 Y86.09 E23.7408
G1 X76.591 Y86.1 E23.7785
G1 X17.444 Y86.1 E27.02444
G1 X16.746 Y86.09 E27.06275
G1 X16.212 Y86.042 E27.09218
G1 X15.691 Y85.916 E27.12159
G1 X15.194 Y85.713 E27.15106
G1 X14.733 Y85.439 E27.18049
G1 X14.318 Y85.1 E27.2099
G1 X13.958 Y84.702 E27.23935
G1 X13.661 Y84.256 E27.26875
G1 X13.433 Y83.77 E27.29821
G1 X13.281 Y83.256 E27.32763
G1 X13.199 Y82.588 E27.36456
G1 X13.189 Y82.158 E27.38817
G1 X13.189 Y38.125 E29.80466
G1 X13.198 Y37.46 E29.84116
G1 X13.246 Y36.926 E29.87059
G1 X13.372 Y36.405 E29.9
G1 X13.574 Y35.908 E29.92944
G1 X13.847 Y35.447 E29.95885
G1 X14.186 Y35.031 E29.9883
G1 X14.583 Y34.671 E30.01771
G1 X15.03 Y34.373 E30.04719
G1 X15.033 Y34.371 E30.04739
G0 F810 X15.515 Y34.145
G0 F1080 X15.406 Y34.628
G1 F900 X15.877 Y34.444 E30.07514
G1 X16.371 Y34.338 E30.10287
G1 X17.029 Y34.301 E30.13903
G1 X19.128 Y34.3 E30.25423
G1 X19.826 Y34.31 E30.29254
G1 X20.366 Y34.351 E30.32226
G1 X22.712 Y34.617 E30.45183
G1 X25.391 Y34.845 E30.59938
G1 X28.138 Y35.001 E30.75038
G1 X30.891 Y35.079 E30.90152
G1 X33.608 Y35.079 E31.05063
G1 X36.361 Y35.001 E31.20177
G1 X39.079 Y34.847 E31.35117
G1 X41.826 Y34.614 E31.50246
G1 X43.823 Y34.389 E31.61275
G1 X44.452 Y34.327 E31.64744
G1 X44.784 Y34.308 E31.66569
G1 X45.41 Y34.3 E31.70005
G1 X102.55 Y34.3 E34.83584
G1 X103.24 Y34.31 E34.87371
G1 X103.744 Y34.358 E34.9015
G1 X104.233 Y34.483 E34.9292
G1 X104.697 Y34.685 E34.95697
G1 X105.123 Y34.957 E34.98471
G1 X105.501 Y35.293 E35.01246
G1 X105.822 Y35.684 E35.04023
G1 X106.077 Y36.12 E35.06794
G1 X106.259 Y36.592 E35.09571
G1 X106.366 Y37.086 E35.12345
G1 X106.393 Y37.591 E35.1512
G1 X106.34 Y38.094 E35.17896
G1 X106.209 Y38.582 E35.20669
G1 X105.986 Y39.073 E35.23628
G1 X105.618 Y39.73 E35.27761
G1 X80.359 Y83.482 E38.0501
G1 X79.976 Y84.126 E38.09122
G1 X79.684 Y84.538 E38.11893
G1 X79.331 Y84.9 E38.14668
G1 X78.925 Y85.202 E38.17445
G1 X78.477 Y85.435 E38.20216
G1 X77.997 Y85.596 E38.22994
G1 X77.273 Y85.69 E38.27001
G1 X76.586 Y85.7 E38.30772
G1 X17.45 Y85.7 E41.55305
G1 X16.752 Y85.69 E41.59136
G1 X16.249 Y85.643 E41.61909
G1 X15.759 Y85.517 E41.64685
G1 X15.295 Y85.315 E41.67462
G1 X14.869 Y85.043 E41.70236
G1 X14.491 Y84.708 E41.73008
G1 X14.171 Y84.317 E41.75781
G1 X13.916 Y83.88 E41.78558
G1 X13.733 Y83.409 E41.81331
G1 X13.626 Y82.915 E41.84105
G1 X13.59 Y82.245 E41.87787
G1 X13.589 Y38.131 E44.29881
G1 X13.598 Y37.466 E44.33531
G1 X13.645 Y36.962 E44.36309
G1 X13.771 Y36.473 E44.3908
G1 X13.972 Y36.009 E44.41855
G1 X14.243 Y35.582 E44.4463
G1 X14.578 Y35.204 E44.47402
G1 X14.949 Y34.9 E44.50035
G0 F810 X14.969 Y34.883
G0 X15.406 Y34.628
G1 F1500 E39.50035
G0 F1080 X20.101 Y36.464
G0 X59.759 Y52.54
G0 X59.531 Y52.644
;TYPE:SUPPORT
G1 F1500 E45.22791
G1 F900 X61.878 Y52.644 E45.42111
G1 X61.784 Y52.312 E45.44952
G1 X66.729 Y52.312 E45.85658
G1 X66.335 Y53.218 E45.93791
G1 X73.207 Y53.218 E46.50361
G1 X73.206 Y52.312 E46.57819
G1 X73.952 Y52.312 E46.6396
G1 X73.954 Y52.75 E46.67565
G1 X73.954 Y69.25 E48.03391
G1 X73.946 Y74.167 E48.43868
G1 X73.944 Y76.7 E48.64719
G1 X59.531 Y76.7 E49.83365
G1 X59.531 Y73.433 E50.10259
G1 X60.097 Y73.433 E50.14918
G1 X60.097 Y69.215 E50.4964
G1 X59.531 Y67.8 E50.62185
G1 X59.531 Y66.585 E50.72187
G1 X62.07 Y66.585 E50.93088
G1 X59.531 Y60.209 E51.49583
G1 X59.531 Y59.901 E51.52118
G1 X62.393 Y59.901 E51.75678
G1 X62.393 Y54.075 E52.23637
G1 X59.531 Y53.651 E52.47454
G1 X59.531 Y52.999 E52.52821
G0 F810 X59.531 Y52.644
G1 F1500 E47.52821
G0 F1080 X59.771 Y52.644
G0 X66.881 Y57.123
G1 F1500 E53.25577
G1 F900 X66.736 Y57.894 E53.32035
G1 X67.648 Y59.964 E53.50656
G1 X68.298 Y60.388 E53.57044
G1 X72.216 Y60.404 E53.89297
G1 X72.88 Y60.132 E53.95204
G1 X73.206 Y59.805 E53.99005
G1 X73.206 Y55.291 E54.36164
G1 X72.773 Y54.642 E54.42586
G1 X70.802 Y53.824 E54.60153
G1 X70.038 Y53.975 E54.66564
G1 X67.132 Y56.873 E55.00348
G0 F810 X66.881 Y57.123
G0 F1080 X66.932 Y56.754
G1 F900 X66.932 Y53.443 E55.27604
G0 F1080 X66.147 Y53.084
G1 F900 X59.756 Y53.084 E55.80214
G0 F1080 X60.008 Y52.869
G1 F900 X60.008 Y53.494 E55.85359
G0 F1080 X62.316 Y53.836
G1 F900 X62.316 Y52.537 E55.96052
G0 F1080 X64.624 Y52.537
G1 F900 X64.624 Y76.475 E57.93107
G0 F1080 X62.316 Y76.475
G1 F900 X62.316 Y66.81 E58.72668
G0 F1080 X62.316 Y66.596
G1 F900 X62.316 Y60.126 E59.25928
G0 F1080 X62.617 Y60.008
G1 F900 X67.422 Y60.008 E59.65482
G0 F1080 X66.932 Y58.898
G1 F900 X66.932 Y76.475 E61.10174
G0 F1080 X69.24 Y76.475
G1 F900 X69.24 Y60.618 E62.40707
G0 F1080 X71.548 Y60.627
G1 F900 X71.548 Y76.475 E63.71166
G0 F1080 X73.719 Y76.164
G1 F900 X59.755 Y76.164 E64.86116
G0 F1080 X60.008 Y76.475
G1 F900 X60.008 Y73.658 E65.09305
G0 F1080 X59.755 Y73.856
G1 F900 X73.721 Y73.856 E66.24272
G0 F1080 X73.725 Y71.548
G1 F900 X60.321 Y71.548 E67.34612
G0 F1080 X60.321 Y69.24
G1 F900 X73.729 Y69.24 E68.44985
G0 F1080 X73.729 Y66.932
G1 F900 X59.755 Y66.932 E69.60017
G0 F1080 X60.008 Y66.81
G1 F900 X60.008 Y68.386 E69.72991
G0 F1080 X61.529 Y64.624
G1 F900 X73.729 Y64.624 E70.7342
G0 F1080 X73.729 Y62.316
G1 F900 X60.611 Y62.316 E71.81405
G0 F1080 X60.008 Y60.799
G1 F900 X60.008 Y60.126 E71.86946
G0 F1080 X62.618 Y57.7
G1 F900 X66.543 Y57.7 E72.19256
G0 F1080 X68.296 Y55.392
G1 F900 X62.618 Y55.392 E72.65996
G0 F1080 X69.24 Y54.453
G1 F900 X69.24 Y53.443 E72.74311
G0 F1080 X71.548 Y53.443
G1 F900 X71.548 Y53.89 E72.7799
G0 F1080 X73.431 Y53.084
G1 F900 X73.729 Y53.084 E72.80443
G0 F1080 X73.729 Y55.392
G1 F900 X73.431 Y55.392 E72.82896
G0 F1080 X73.431 Y57.7
G1 F900 X73.729 Y57.7 E72.85349
G0 F1080 X73.729 Y60.008
G1 F900 X73.321 Y60.008 E72.88708
G1 F1500 E67.88708
;MESH:Komponente2.stl
G0 F1080 X59.759 Y52.54
G0 X58.131 Y50.912
;TYPE:WALL-INNER
G1 F1500 E73.61465
G1 F900 X58.131 Y78.1 E75.1067
G1 X75.687 Y78.1 E76.07016
G1 X75.886 Y78.1 E76.08108
G1 X75.886 Y77.901 E76.08815
G1 X75.875 Y71.243 E76.45354
G1 X75.88 Y69.251 E76.56286
G1 X75.88 Y61 E77.01566
G1 X75.875 Y57.815 E77.19045
G1 X75.874 Y52.451 E77.48483
G1 X75.871 Y51.406 E77.54218
G1 X75.456 Y51.406 E77.56495
G1 X75.455 Y50.912 E77.59206
G1 X58.663 Y50.912 E78.51359
G0 F810 X58.131 Y50.912
G0 F1080 X58.531 Y51.312
;TYPE:WALL-OUTER
G1 F900 X58.531 Y77.7 E79.96175
G1 X75.285 Y77.7 E80.88119
G1 X75.485 Y77.7 E80.89217
G1 X75.485 Y77.5 E80.89927
G1 X75.475 Y71.242 E81.24271
G1 X75.48 Y69.25 E81.35203
G1 X75.48 Y61 E81.80478
G1 X75.475 Y57.815 E81.97957
G1 X75.474 Y52.452 E82.27389
G1 X75.472 Y51.806 E82.30934
G1 X75.057 Y51.806 E82.33212
G1 X75.056 Y51.312 E82.35923
G1 X59.063 Y51.312 E83.23691
G0 F810 X58.531 Y51.312
G0 F1080 X58.531 Y51.512
G0 X58.091 Y51.512
G1 F1500 E78.23691
G0 F1080 X59.759 Y52.54
G0 X40.548 Y42.348
G0 X42.036 Y43.064
;TYPE:WALL-INNER
G1 F1500 E83.96448
G1 F900 X42.301 Y42.303 E84.0087
G1 X42.389 Y41.534 E84.05118
G1 X42.389 Y40.539 E84.10578
G1 X42.453 Y39.964 E84.13753
G1 X42.63 Y39.459 E84.1669
G1 X42.915 Y39.006 E84.19627
G1 X43.292 Y38.629 E84.22553
G1 X43.751 Y38.34 E84.2553
G1 X44.253 Y38.164 E84.28449
G1 X44.828 Y38.1 E84.31624
G1 X101.828 Y38.1 E87.44436
G1 X101.829 Y38.1 E87.44441
G1 X102.173 Y38.1 E87.46329
G1 X102.001 Y38.398 E87.47401
G1 X76.885 Y81.9 E90.23069
G1 X17.389 Y81.9 E93.49579
G1 X17.389 Y38.1 E95.8995
G1 X19.189 Y38.1 E95.99828
G1 X19.189 Y41.533 E96.18668
G1 X19.276 Y42.303 E96.2292
G1 X19.542 Y43.064 E96.27344
G1 X19.971 Y43.746 E96.31766
G1 X20.541 Y44.317 E96.36194
G1 X21.225 Y44.747 E96.40628
G1 X21.986 Y45.013 E96.45052
G1 X22.756 Y45.1 E96.49304
G1 X38.822 Y45.1 E97.37473
G1 X39.591 Y45.013 E97.41721
G1 X40.352 Y44.747 E97.46145
G1 X41.036 Y44.317 E97.50578
G1 X41.606 Y43.747 E97.55002
G1 X41.753 Y43.514 E97.56514
G0 F810 X42.036 Y43.064
G0 F1080 X41.673 Y42.889
;TYPE:WALL-OUTER
G1 F900 X41.909 Y42.213 E97.60444
G1 X41.989 Y41.511 E97.64321
G1 X41.989 Y40.513 E97.69798
G1 X42.06 Y39.877 E97.7331
G1 X42.269 Y39.282 E97.76771
G1 X42.6 Y38.755 E97.80186
G1 X43.041 Y38.314 E97.83609
G1 X43.574 Y37.979 E97.87064
G1 X44.166 Y37.771 E97.90507
G1 X44.802 Y37.7 E97.94019
G1 X102.519 Y37.7 E101.10766
G1 X102.521 Y37.7 E101.10777
G1 X102.865 Y37.7 E101.12664
G1 X102.693 Y37.999 E101.13738
G1 X77.116 Y82.3 E103.94468
G1 X16.989 Y82.3 E107.24441
G1 X16.989 Y37.7 E109.69202
G1 X19.589 Y37.7 E109.83471
G1 X19.589 Y41.511 E110.04385
G1 X19.668 Y42.213 E110.08262
G1 X19.905 Y42.889 E110.12193
G1 X20.286 Y43.495 E110.16121
G1 X20.792 Y44.002 E110.20052
G1 X21.4 Y44.384 E110.23993
G1 X22.076 Y44.621 E110.27924
G1 X22.778 Y44.7 E110.31801
G1 X38.8 Y44.7 E111.19729
G1 X39.501 Y44.621 E111.236
G1 X40.177 Y44.384 E111.27531
G1 X40.785 Y44.002 E111.31472
G1 X41.291 Y43.496 E111.35399
G1 X41.39 Y43.339 E111.36417
G0 F810 X41.673 Y42.889
G0 F1080 X41.738 Y42.701
G0 X42.153 Y42.847
G0 X42.389 Y43.234
;TYPE:SKIN
G1 F900 X42.683 Y42.391 E111.41317
G1 X42.779 Y41.556 E111.4593
G1 X42.779 Y40.564 E111.51374
G1 X42.836 Y40.05 E111.54212
G1 X42.984 Y39.63 E111.56656
G1 X43.225 Y39.246 E111.59144
G1 X43.532 Y38.939 E111.61526
G1 X43.922 Y38.693 E111.64057
G1 X44.339 Y38.547 E111.66481
G1 X44.853 Y38.49 E111.6932
G1 X101.497 Y38.49 E114.80177
G1 X76.66 Y81.51 E117.52789
G1 X17.779 Y81.51 E120.75924
G1 X17.779 Y38.49 E123.12014
G1 X18.799 Y38.49 E123.17612
G1 X18.799 Y41.555 E123.34432
G1 X18.894 Y42.391 E123.3905
G1 X19.189 Y43.234 E123.43951
G1 X19.664 Y43.99 E123.48851
G1 X20.296 Y44.623 E123.5376
G1 X21.055 Y45.1 E123.5868
G1 X21.898 Y45.395 E123.63581
G1 X22.734 Y45.49 E123.68198
G1 X38.844 Y45.49 E124.56609
G1 X39.679 Y45.395 E124.61221
G1 X40.522 Y45.1 E124.66122
G1 X41.281 Y44.624 E124.71039
G1 X41.912 Y43.992 E124.7594
G1 X42.106 Y43.684 E124.77938
G0 F810 X42.389 Y43.234
G1 F1500 E119.77938
G0 F1080 X40.548 Y42.348
G0 X59.759 Y52.54
G0 X57.741 Y50.522
G1 F1500 E125.50694
G1 F900 X57.741 Y78.49 E127.0418
G1 X76.276 Y78.49 E128.05899
G1 X76.265 Y71.243 E128.4567
G1 X76.27 Y69.251 E128.56602
G1 X76.27 Y61 E129.01883
G1 X76.265 Y57.815 E129.19362
G1 X76.264 Y52.451 E129.48799
G1 X76.261 Y51.016 E129.56674
G1 X75.846 Y51.016 E129.58952
G1 X75.845 Y50.522 E129.61663
G1 X58.273 Y50.522 E130.58097
G0 F810 X57.741 Y50.522
G1 F1500 E125.58097
G0 F1080 X59.759 Y52.54
G0 X102.987 Y39.967
G0 X101.108 Y38.883
G1 F1500 E131.30853
G1 F900 X100.855 Y38.629 E131.32821
G0 F1080 X100.289 Y38.629
G1 F900 X100.901 Y39.241 E131.3757
G0 F1080 X100.694 Y39.6
G1 F900 X99.723 Y38.629 E131.45106
G0 F1080 X99.158 Y38.629
G1 F900 X100.487 Y39.959 E131.55425
G0 F1080 X100.28 Y40.317
G1 F900 X98.592 Y38.629 E131.68526
G0 F1080 X98.026 Y38.629
G1 F900 X100.073 Y40.676 E131.84413
G0 F1080 X99.866 Y41.034
G1 F900 X97.461 Y38.629 E132.03078
G0 F1080 X96.895 Y38.629
G1 F900 X99.658 Y41.393 E132.24526
G0 F1080 X99.452 Y41.752
G1 F900 X96.329 Y38.629 E132.48764
G0 F1080 X95.764 Y38.629
G1 F900 X99.245 Y42.111 E132.75784
G0 F1080 X99.038 Y42.469
G1 F900 X95.198 Y38.629 E133.05586
G0 F1080 X94.632 Y38.629
G1 F900 X98.83 Y42.828 E133.38171
G0 F1080 X98.623 Y43.186
G1 F900 X94.067 Y38.629 E133.73535
G0 F1080 X93.501 Y38.629
G1 F900 X98.417 Y43.545 E134.11688
G0 F1080 X98.21 Y43.904
G1 F900 X92.935 Y38.629 E134.52628
G0 F1080 X92.37 Y38.629
G1 F900 X98.002 Y44.262 E134.96343
G0 F1080 X97.795 Y44.621
G1 F900 X91.804 Y38.629 E135.42843
G0 F1080 X91.238 Y38.629
G1 F900 X97.588 Y44.979 E135.92126
G0 F1080 X97.381 Y45.338
G1 F900 X90.673 Y38.629 E136.44191
G0 F1080 X90.107 Y38.629
G1 F900 X97.174 Y45.697 E136.99043
G0 F1080 X96.967 Y46.055
G1 F900 X89.541 Y38.629 E137.56677
G0 F1080 X88.975 Y38.629
G1 F900 X96.76 Y46.414 E138.17097
G0 F1080 X96.553 Y46.772
G1 F900 X88.41 Y38.629 E138.80295
G0 F1080 X87.844 Y38.629
G1 F900 X96.346 Y47.131 E139.4628
G0 F1080 X96.139 Y47.49
G1 F900 X87.278 Y38.629 E140.15051
G0 F1080 X86.713 Y38.629
G1 F900 X95.932 Y47.849 E140.86605
G0 F1080 X95.725 Y48.207
G1 F900 X86.147 Y38.629 E141.60941
G0 F1080 X85.581 Y38.629
G1 F900 X95.518 Y48.566 E142.38063
G0 F1080 X95.31 Y48.924
G1 F900 X85.016 Y38.629 E143.17959
G0 F1080 X84.45 Y38.629
