;FLAVOR:Marlin
;TIME:2044
;Filament used: 3.21667m
;Layer height: 0.24
;MINX:-57.425
;MINY:-91.796
;MINZ:0.3
;MAXX:70.106
;MAXY:90.748
;MAXZ:7
;Generated with Cura_SteamEngine 4.13.1
M140 S50
M105
M190 S50
M104 S210
M105
M109 S210
M82 ;absolute extrusion mode
;FLAVOR:Marlin
M82 ;absolute extrusion mode
G21
G90
M82
M107 T0
G28
G92 E0
G0 E3 F200
G92 E0 ; reset extrusion distance
M106 S255 ; Enable cooling fan full speed
G1 X-98 Y0 Z0.4 F3000 ; move to arc start
G3 X0 Y-98 I98 Z0.4 E40 F400 ; lay arc stripe 90deg
G92 E0 ; reset extrusion distance
G4 P500 ; wait for 0.5 sec
G0 Z10 E-1 ; Lift 15mm and retract 1mm filament
G4 P2000 ; wait for 5 sec
G0 Z15
M107 ; Disable cooling fan
G1 X0 Y-85 Z4 E0 F3000 ; get off the bed
G92 E0
G92 E0
G1 F1500 E-6.5
;LAYER_COUNT:8
;LAYER:0
M107
G0 F3600 X-19.898 Y-37.018 Z0.3
;TYPE:SKIRT
G1 F1500 E0
G1 F2400 X-20.108 Y-36.91 E0.01178
G1 X-21.001 Y-36.496 E0.06089
G1 X-21.209 Y-36.409 E0.07214
G1 X-22.956 Y-35.765 E0.16503
G1 X-24.219 Y-35.326 E0.23174
G1 X-24.903 Y-35.076 E0.26807
G1 X-25.607 Y-34.873 E0.30462
G1 X-26.251 Y-34.77 E0.33716
G1 X-26.757 Y-34.75 E0.36243
G1 X-27.287 Y-34.777 E0.3889
G1 X-27.959 Y-34.889 E0.42289
G1 X-28.41 Y-35.019 E0.44631
G1 X-29.377 Y-35.368 E0.4976
G1 X-31.157 Y-35.993 E0.59172
G1 X-32.078 Y-36.335 E0.64073
G1 X-32.19 Y-36.38 E0.64675
G1 X-32.653 Y-36.575 E0.67182
G1 X-32.759 Y-36.622 E0.6776
G1 X-33.226 Y-36.842 E0.70336
G1 X-33.327 Y-36.892 E0.70898
G1 X-33.993 Y-37.239 E0.74645
G1 X-34.197 Y-37.357 E0.7582
G1 X-34.808 Y-37.744 E0.79429
G1 X-34.91 Y-37.811 E0.80037
G1 X-35.322 Y-38.098 E0.82542
G1 X-35.411 Y-38.163 E0.83092
G1 X-36.018 Y-38.622 E0.86889
G1 X-36.201 Y-38.773 E0.88073
G1 X-36.735 Y-39.253 E0.91655
G1 X-36.819 Y-39.331 E0.92227
G1 X-37.196 Y-39.699 E0.94855
G1 X-37.277 Y-39.782 E0.95434
G1 X-37.857 Y-40.399 E0.99659
G1 X-38.234 Y-40.851 E1.02595
G1 X-38.32 Y-40.962 E1.03296
G1 X-38.764 Y-41.571 E1.07056
G1 X-39.097 Y-42.066 E1.10032
G1 X-39.415 Y-42.583 E1.1306
G1 X-39.474 Y-42.684 E1.13644
G1 X-39.734 Y-43.153 E1.16319
G1 X-39.79 Y-43.26 E1.16922
G1 X-40.119 Y-43.919 E1.20596
G1 X-40.216 Y-44.136 E1.21782
G1 X-40.478 Y-44.795 E1.2532
G1 X-40.517 Y-44.9 E1.25879
G1 X-40.83 Y-45.793 E1.306
G1 X-40.979 Y-46.334 E1.334
G1 X-41.01 Y-46.465 E1.34071
G1 X-41.218 Y-47.432 E1.39006
G1 X-41.258 Y-47.659 E1.40156
G1 X-41.383 Y-48.619 E1.44986
G1 X-41.403 Y-48.85 E1.46143
G1 X-41.437 Y-49.577 E1.49773
G1 X-41.44 Y-49.693 E1.50352
G1 X-41.443 Y-50.27 E1.53231
G1 X-41.426 Y-50.804 E1.55897
G1 X-41.383 Y-51.394 E1.58848
G1 X-41.314 Y-51.988 E1.61831
G1 X-41.183 Y-52.841 E1.66137
G1 X-41.145 Y-53.041 E1.67153
G1 X-40.982 Y-53.817 E1.71108
G1 X-40.897 Y-54.196 E1.73046
G1 X-40.368 Y-56.904 E1.86812
G1 X-39.919 Y-59.6 E2.00448
G1 X-39.546 Y-62.319 E2.1414
G1 X-39.247 Y-65.075 E2.2797
G1 X-39.028 Y-67.802 E2.41619
G1 X-38.953 Y-69.184 E2.48524
G1 X-38.899 Y-69.844 E2.51828
G1 X-38.804 Y-70.377 E2.54529
G1 X-38.577 Y-71.065 E2.58143
G1 X-37.219 Y-73.999 E2.74273
G1 X-36.145 Y-76.508 E2.87889
G1 X-35.123 Y-79.088 E3.01734
G1 X-33.867 Y-82.616 E3.20417
G1 X-33.626 Y-83.333 E3.24191
G1 X-33.414 Y-83.851 E3.26983
G1 X-33.164 Y-84.343 E3.29737
G1 X-32.805 Y-84.915 E3.33106
G1 X-32.462 Y-85.364 E3.35925
G1 X-31.817 Y-86.058 E3.40652
G1 X-31.265 Y-86.537 E3.44298
G1 X-30.808 Y-86.865 E3.47104
G1 X-30.355 Y-87.147 E3.49766
G1 X-29.865 Y-87.406 E3.52532
G1 X-29.2 Y-87.685 E3.56129
G1 X-28.617 Y-87.87 E3.59181
G1 X-28.017 Y-88.014 E3.62259
G1 X-27.239 Y-88.122 E3.66178
G1 X-26.697 Y-88.148 E3.68885
G1 X-26.068 Y-88.133 E3.72024
G1 X-25.343 Y-88.048 E3.75666
G1 X-24.744 Y-87.926 E3.78716
G1 X-23.958 Y-87.68 E3.82825
G1 X-23.388 Y-87.446 E3.85899
G1 X-22.729 Y-87.1 E3.89612
G1 X-22.19 Y-86.749 E3.92821
G1 X-21.738 Y-86.408 E3.95646
G1 X-21.175 Y-85.886 E3.99476
G1 X-20.795 Y-85.473 E4.02276
G1 X-20.266 Y-84.774 E4.0665
G1 X-19.966 Y-84.28 E4.09533
G1 X-19.63 Y-83.535 E4.1361
G1 X-19.561 Y-83.357 E4.14563
G1 X-19.017 Y-81.786 E4.22857
G1 X-18.067 Y-79.163 E4.36775
G1 X-17.064 Y-76.619 E4.50418
G1 X-15.971 Y-74.063 E4.64287
G1 X-14.719 Y-71.356 E4.79167
G1 X-14.467 Y-70.74 E4.82487
G1 X-14.338 Y-70.242 E4.85054
G1 X-14.258 Y-69.74 E4.8759
G1 X-14.237 Y-69.494 E4.88822
G1 X-14.182 Y-68.209 E4.95239
G1 X-14.167 Y-68.097 E4.95802
G1 X-14.11 Y-66.743 E5.02563
G1 X-13.916 Y-64.006 E5.16253
G1 X-13.646 Y-61.28 E5.29919
G1 X-13.299 Y-58.57 E5.4355
G1 X-12.872 Y-55.854 E5.57266
G1 X-12.293 Y-52.779 E5.72877
G1 X-12.274 Y-52.66 E5.73479
G1 X-12.164 Y-51.896 E5.77329
G1 X-12.1 Y-51.299 E5.80325
G1 X-12.06 Y-50.699 E5.83325
G1 X-12.046 Y-50.071 E5.86459
G1 X-12.046 Y-49.958 E5.87023
G1 X-12.061 Y-49.229 E5.9066
G1 X-12.075 Y-48.995 E5.9183
G1 X-12.158 Y-48.204 E5.95798
G1 X-12.172 Y-48.093 E5.96356
G1 X-12.262 Y-47.474 E5.99477
G1 X-12.305 Y-47.245 E6.00639
G1 X-12.501 Y-46.399 E6.04972
G1 X-12.529 Y-46.288 E6.05543
G1 X-12.689 Y-45.707 E6.08549
G1 X-12.778 Y-45.428 E6.1001
G1 X-13.109 Y-44.525 E6.14809
G1 X-13.197 Y-44.313 E6.15954
G1 X-13.497 Y-43.665 E6.19516
G1 X-13.545 Y-43.566 E6.20065
G1 X-13.792 Y-43.083 E6.22772
G1 X-13.851 Y-42.974 E6.2339
G1 X-14.196 Y-42.367 E6.26873
G1 X-14.319 Y-42.171 E6.28028
G1 X-14.849 Y-41.398 E6.32704
G1 X-15.125 Y-41.031 E6.34995
G1 X-15.51 Y-40.555 E6.38049
G1 X-15.585 Y-40.467 E6.38626
G1 X-16.045 Y-39.944 E6.42101
G1 X-16.206 Y-39.775 E6.43265
G1 X-16.885 Y-39.122 E6.47965
G1 X-17.054 Y-38.972 E6.49093
G1 X-17.652 Y-38.483 E6.52946
G1 X-18.12 Y-38.13 E6.55871
G1 X-18.212 Y-38.064 E6.56436
G1 X-18.626 Y-37.78 E6.58941
G1 X-18.725 Y-37.715 E6.59532
G1 X-19.179 Y-37.431 E6.62203
G1 X-19.276 Y-37.373 E6.62767
G1 X-19.898 Y-37.018 E6.6634
G0 F3600 X-20.096 Y-37.366
G1 F2400 X-20.277 Y-37.273 E6.67355
G1 X-21.17 Y-36.859 E6.72266
G1 X-21.348 Y-36.784 E6.7323
G1 X-23.087 Y-36.143 E6.82476
G1 X-24.37 Y-35.697 E6.89253
G1 X-25.04 Y-35.452 E6.92812
G1 X-25.685 Y-35.265 E6.96162
G1 X-26.294 Y-35.168 E6.99239
G1 X-26.99 Y-35.156 E7.02712
G1 X-27.647 Y-35.231 E7.06011
G1 X-28.274 Y-35.395 E7.09244
G1 X-29.245 Y-35.745 E7.14394
G1 X-31.017 Y-36.368 E7.23765
G1 X-31.938 Y-36.71 E7.28666
G1 X-32.035 Y-36.748 E7.29186
G1 X-32.498 Y-36.943 E7.31692
G1 X-32.589 Y-36.984 E7.3219
G1 X-33.056 Y-37.204 E7.34766
G1 X-33.142 Y-37.247 E7.35245
G1 X-33.808 Y-37.594 E7.38992
G1 X-33.983 Y-37.694 E7.39998
G1 X-34.594 Y-38.081 E7.43606
G1 X-34.682 Y-38.14 E7.44135
G1 X-35.094 Y-38.427 E7.4664
G1 X-35.17 Y-38.482 E7.47108
G1 X-35.777 Y-38.941 E7.50904
G1 X-35.933 Y-39.07 E7.51914
G1 X-36.467 Y-39.55 E7.55496
G1 X-36.916 Y-39.986 E7.58619
G1 X-36.986 Y-40.056 E7.59113
G1 X-37.501 Y-40.602 E7.62857
G1 X-37.923 Y-41.103 E7.66125
G1 X-37.996 Y-41.198 E7.66723
G1 X-38.44 Y-41.807 E7.70483
G1 X-38.764 Y-42.289 E7.73381
G1 X-39.073 Y-42.792 E7.76326
G1 X-39.124 Y-42.878 E7.76825
G1 X-39.384 Y-43.347 E7.795
G1 X-39.432 Y-43.439 E7.80018
G1 X-39.761 Y-44.098 E7.83692
G1 X-39.844 Y-44.283 E7.84704
G1 X-40.106 Y-44.942 E7.88242
G1 X-40.14 Y-45.032 E7.88722
G1 X-40.419 Y-45.825 E7.92916
G1 X-40.592 Y-46.437 E7.96089
G1 X-40.619 Y-46.549 E7.96664
G1 X-40.827 Y-47.516 E8.01598
G1 X-40.861 Y-47.711 E8.02586
G1 X-40.986 Y-48.671 E8.07416
G1 X-41.003 Y-48.869 E8.08407
G1 X-41.037 Y-49.596 E8.12038
G1 X-41.04 Y-49.696 E8.12537
G1 X-41.043 Y-50.273 E8.15416
G1 X-41.026 Y-50.79 E8.17997
G1 X-40.985 Y-51.35 E8.20798
G1 X-40.919 Y-51.928 E8.23701
G1 X-40.804 Y-52.686 E8.27526
G1 X-40.754 Y-52.959 E8.2891
G1 X-40.591 Y-53.73 E8.32842
G1 X-40.506 Y-54.11 E8.34784
G1 X-39.975 Y-56.827 E8.48596
G1 X-39.527 Y-59.517 E8.62201
G1 X-39.146 Y-62.292 E8.76176
G1 X-38.848 Y-65.036 E8.89946
G1 X-38.628 Y-67.785 E9.03705
G1 X-38.554 Y-69.156 E9.10555
G1 X-38.503 Y-69.787 E9.13713
G1 X-38.414 Y-70.286 E9.16242
G1 X-38.211 Y-70.905 E9.19492
G1 X-38.033 Y-71.285 E9.21585
G1 X-36.846 Y-73.853 E9.357
G1 X-35.776 Y-76.352 E9.49262
G1 X-34.75 Y-78.94 E9.63151
G1 X-33.495 Y-82.468 E9.81833
G1 X-33.249 Y-83.2 E9.85686
G1 X-33.052 Y-83.682 E9.88283
G1 X-32.813 Y-84.151 E9.9091
G1 X-32.484 Y-84.676 E9.94001
G1 X-32.158 Y-85.104 E9.96685
G1 X-31.532 Y-85.778 E10.01274
G1 X-31.013 Y-86.227 E10.04698
G1 X-30.58 Y-86.537 E10.07355
G1 X-30.148 Y-86.805 E10.09891
G1 X-29.701 Y-87.041 E10.12413
G1 X-29.058 Y-87.311 E10.15892
G1 X-28.5 Y-87.488 E10.18813
G1 X-27.948 Y-87.62 E10.21644
G1 X-27.195 Y-87.724 E10.25437
G1 X-26.703 Y-87.748 E10.27894
G1 X-26.1 Y-87.735 E10.30903
G1 X-25.399 Y-87.652 E10.34425
G1 X-24.849 Y-87.54 E10.37225
G1 X-24.087 Y-87.301 E10.41209
G1 X-23.562 Y-87.086 E10.4404
G1 X-22.926 Y-86.752 E10.47624
G1 X-22.428 Y-86.428 E10.50588
G1 X-21.997 Y-86.103 E10.53281
G1 X-21.453 Y-85.598 E10.56984
G1 X-21.106 Y-85.221 E10.5954
G1 X-20.591 Y-84.542 E10.63792
G1 X-20.314 Y-84.083 E10.66467
G1 X-19.998 Y-83.379 E10.70317
G1 X-19.939 Y-83.227 E10.7113
G1 X-19.393 Y-81.65 E10.79456
G1 X-18.439 Y-79.017 E10.93428
G1 X-17.428 Y-76.451 E11.07187
G1 X-16.344 Y-73.915 E11.20947
G1 X-15.085 Y-71.193 E11.35909
G1 X-14.849 Y-70.622 E11.38992
G1 X-14.686 Y-69.923 E11.42573
G1 X-14.636 Y-69.477 E11.44812
G1 X-14.579 Y-68.151 E11.51433
G1 X-14.567 Y-68.08 E11.51792
G1 X-14.51 Y-66.734 E11.58514
G1 X-14.315 Y-63.975 E11.72313
G1 X-14.047 Y-61.271 E11.85869
G1 X-13.691 Y-58.489 E11.99862
G1 X-13.266 Y-55.784 E12.13523
G1 X-12.686 Y-52.705 E12.29154
G1 X-12.669 Y-52.603 E12.2967
G1 X-12.559 Y-51.839 E12.33521
G1 X-12.498 Y-51.258 E12.36435
G1 X-12.46 Y-50.674 E12.39355
G1 X-12.455 Y-50.573 E12.3986
G1 X-12.445 Y-50.063 E12.42405
G1 X-12.461 Y-49.238 E12.46521
G1 X-12.473 Y-49.037 E12.47526
G1 X-12.556 Y-48.246 E12.51494
G1 X-12.568 Y-48.151 E12.51972
G1 X-12.658 Y-47.532 E12.55092
G1 X-12.695 Y-47.335 E12.56092
G1 X-12.891 Y-46.489 E12.60425
G1 X-12.915 Y-46.394 E12.60914
G1 X-13.097 Y-45.739 E12.64305
G1 X-13.154 Y-45.566 E12.65214
G1 X-13.485 Y-44.663 E12.70012
G1 X-13.56 Y-44.481 E12.70994
G1 X-13.901 Y-43.748 E12.75028
G1 X-14.148 Y-43.265 E12.77734
G1 X-14.198 Y-43.172 E12.78261
G1 X-14.543 Y-42.565 E12.81744
G1 X-14.649 Y-42.396 E12.82739
G1 X-15.116 Y-41.713 E12.86867
G1 X-15.436 Y-41.283 E12.89541
G1 X-15.821 Y-40.807 E12.92596
G1 X-15.885 Y-40.731 E12.93091
G1 X-16.345 Y-40.208 E12.96566
G1 X-16.483 Y-40.063 E12.97565
G1 X-17.162 Y-39.41 E13.02265
G1 X-17.307 Y-39.282 E13.0323
G1 X-17.905 Y-38.793 E13.07084
G1 X-18.359 Y-38.451 E13.0992
G1 X-18.438 Y-38.394 E13.10406
G1 X-18.852 Y-38.11 E13.1291
G1 X-18.937 Y-38.054 E13.13418
G1 X-19.391 Y-37.77 E13.1609
G1 X-20.096 Y-37.366 E13.20144
G0 F3600 X-20.295 Y-37.713
G1 F2400 X-20.445 Y-37.636 E13.20985
G1 X-21.338 Y-37.222 E13.25895
G1 X-21.486 Y-37.16 E13.26696
G1 X-23.218 Y-36.521 E13.35906
G1 X-24.501 Y-36.075 E13.42683
G1 X-25.178 Y-35.828 E13.46278
G1 X-25.764 Y-35.657 E13.49324
G1 X-26.337 Y-35.566 E13.52218
G1 X-26.96 Y-35.555 E13.55327
G1 X-27.581 Y-35.625 E13.58445
G1 X-28.139 Y-35.771 E13.61322
G1 X-29.13 Y-36.129 E13.66579
G1 X-30.878 Y-36.743 E13.75822
G1 X-31.799 Y-37.085 E13.80724
G1 X-32.342 Y-37.312 E13.8366
G1 X-32.885 Y-37.566 E13.86651
G1 X-32.957 Y-37.601 E13.8705
G1 X-33.623 Y-37.948 E13.90797
G1 X-33.769 Y-38.032 E13.91637
G1 X-34.38 Y-38.419 E13.95246
G1 X-34.865 Y-38.755 E13.98189
G1 X-35.535 Y-39.26 E14.02375
G1 X-35.666 Y-39.368 E14.03222
G1 X-36.26 Y-39.904 E14.07214
G1 X-36.637 Y-40.272 E14.09842
G1 X-36.695 Y-40.331 E14.10255
G1 X-37.256 Y-40.927 E14.14338
G1 X-37.612 Y-41.354 E14.17112
G1 X-37.673 Y-41.434 E14.17614
G1 X-38.117 Y-42.043 E14.21374
G1 X-38.431 Y-42.511 E14.24185
G1 X-38.732 Y-43 E14.2705
G1 X-38.774 Y-43.072 E14.27466
G1 X-39.034 Y-43.541 E14.30141
G1 X-39.403 Y-44.277 E14.34249
G1 X-39.473 Y-44.431 E14.35093
G1 X-39.735 Y-45.09 E14.38631
G1 X-40.042 Y-45.958 E14.43224
G1 X-40.206 Y-46.54 E14.46241
G1 X-40.228 Y-46.633 E14.46718
G1 X-40.436 Y-47.6 E14.51653
G1 X-40.464 Y-47.763 E14.52478
G1 X-40.589 Y-48.723 E14.57308
G1 X-40.604 Y-48.888 E14.58134
G1 X-40.638 Y-49.615 E14.61765
G1 X-40.643 Y-50.275 E14.65058
G1 X-40.627 Y-50.776 E14.67559
G1 X-40.588 Y-51.306 E14.7021
G1 X-40.523 Y-51.868 E14.73033
G1 X-40.397 Y-52.694 E14.77201
G1 X-40.362 Y-52.876 E14.78126
G1 X-40.201 Y-53.643 E14.82036
G1 X-40.116 Y-54.025 E14.83988
G1 X-39.582 Y-56.756 E14.97871
G1 X-39.123 Y-59.513 E15.11815
G1 X-38.75 Y-62.227 E15.25483
G1 X-38.454 Y-64.962 E15.39207
G1 X-38.228 Y-67.778 E15.53302
G1 X-38.155 Y-69.127 E15.60042
G1 X-38.107 Y-69.731 E15.63065
G1 X-37.981 Y-70.354 E15.66236
G1 X-37.787 Y-70.872 E15.68995
G1 X-37.657 Y-71.143 E15.70495
G1 X-36.506 Y-73.634 E15.84185
G1 X-35.393 Y-76.233 E15.9829
G1 X-34.375 Y-78.803 E16.12082
G1 X-33.103 Y-82.376 E16.31003
G1 X-32.85 Y-83.128 E16.34962
G1 X-32.632 Y-83.633 E16.37706
G1 X-32.27 Y-84.279 E16.414
G1 X-31.937 Y-84.741 E16.44241
G1 X-31.58 Y-85.157 E16.46976
G1 X-31.142 Y-85.597 E16.50074
G1 X-30.645 Y-86.004 E16.53279
G1 X-29.94 Y-86.463 E16.57476
G1 X-29.227 Y-86.815 E16.61443
G1 X-28.383 Y-87.105 E16.65895
G1 X-27.88 Y-87.226 E16.68476
G1 X-27.15 Y-87.327 E16.72153
G1 X-26.261 Y-87.342 E16.76589
G1 X-25.455 Y-87.255 E16.80633
G1 X-24.954 Y-87.154 E16.83183
G1 X-24.216 Y-86.923 E16.87041
G1 X-23.736 Y-86.726 E16.8963
G1 X-23.123 Y-86.404 E16.93084
G1 X-22.666 Y-86.106 E16.95806
G1 X-22.255 Y-85.797 E16.98371
G1 X-21.73 Y-85.31 E17.01944
G1 X-21.211 Y-84.715 E17.05883
G1 X-20.917 Y-84.309 E17.08384
G1 X-20.56 Y-83.68 E17.11992
G1 X-20.317 Y-83.096 E17.15148
G1 X-19.761 Y-81.488 E17.23636
G1 X-18.826 Y-78.907 E17.37332
G1 X-17.797 Y-76.296 E17.51333
G1 X-16.711 Y-73.756 E17.65115
G1 X-15.45 Y-71.03 E17.801
G1 X-15.231 Y-70.504 E17.82942
G1 X-15.082 Y-69.871 E17.86187
G1 X-15.036 Y-69.46 E17.8825
G1 X-14.982 Y-68.205 E17.94517
G1 X-14.967 Y-68.063 E17.95229
G1 X-14.911 Y-66.722 E18.01926
G1 X-14.713 Y-63.942 E18.1583
G1 X-14.444 Y-61.22 E18.29476
G1 X-14.089 Y-58.442 E18.43449
G1 X-13.656 Y-55.687 E18.57362
G1 X-13.065 Y-52.546 E18.73308
G1 X-12.955 Y-51.782 E18.77158
G1 X-12.896 Y-51.217 E18.79993
G1 X-12.859 Y-50.649 E18.82832
G1 X-12.855 Y-50.565 E18.83252
G1 X-12.845 Y-49.975 E18.86196
G1 X-12.86 Y-49.246 E18.89834
G1 X-12.871 Y-49.078 E18.90674
G1 X-12.954 Y-48.287 E18.94642
G1 X-13.054 Y-47.589 E18.98159
G1 X-13.085 Y-47.426 E18.98987
G1 X-13.301 Y-46.5 E19.03731
G1 X-13.479 Y-45.857 E19.0706
G1 X-13.529 Y-45.704 E19.07863
G1 X-13.86 Y-44.801 E19.12661
G1 X-13.923 Y-44.649 E19.13482
G1 X-14.257 Y-43.93 E19.17437
G1 X-14.504 Y-43.447 E19.20144
G1 X-14.891 Y-42.763 E19.24064
G1 X-14.979 Y-42.622 E19.24894
G1 X-15.491 Y-41.875 E19.29412
G1 X-15.747 Y-41.534 E19.31539
G1 X-16.185 Y-40.995 E19.35004
G1 X-16.645 Y-40.472 E19.38479
G1 X-16.761 Y-40.351 E19.39315
G1 X-17.44 Y-39.698 E19.44015
G1 X-17.56 Y-39.592 E19.44814
G1 X-18.158 Y-39.103 E19.48668
G1 X-18.599 Y-38.771 E19.51422
G1 X-19.079 Y-38.44 E19.54331
G1 X-19.149 Y-38.393 E19.54751
G1 X-19.603 Y-38.109 E19.57423
G1 X-20.295 Y-37.713 E19.61401
G0 F3600 X-20.493 Y-38.06
G1 F2400 X-20.613 Y-37.998 E19.62075
G1 X-21.506 Y-37.584 E19.66985
G1 X-21.625 Y-37.535 E19.67627
G1 X-23.35 Y-36.899 E19.768
G1 X-24.609 Y-36.461 E19.8345
G1 X-25.315 Y-36.203 E19.872
G1 X-25.843 Y-36.049 E19.89944
G1 X-26.381 Y-35.963 E19.92662
G1 X-26.931 Y-35.953 E19.95407
G1 X-27.515 Y-36.02 E19.9834
G1 X-28.003 Y-36.147 E20.00855
G1 X-28.994 Y-36.505 E20.06112
G1 X-30.739 Y-37.118 E20.15339
G1 X-31.724 Y-37.485 E20.20584
G1 X-32.187 Y-37.68 E20.2309
G1 X-32.715 Y-37.928 E20.26
G1 X-33.438 Y-38.303 E20.30064
G1 X-33.555 Y-38.37 E20.30736
G1 X-34.225 Y-38.796 E20.34698
G1 X-34.637 Y-39.083 E20.37203
G1 X-35.294 Y-39.579 E20.4131
G1 X-35.399 Y-39.665 E20.41987
G1 X-35.981 Y-40.19 E20.45897
