;FLAVOR:Marlin
;TIME:3242
;Filament used: 5.01266m
;Layer height: 0.24
;MINX:-83.359
;MINY:-85.848
;MINZ:0.3
;MAXX:87.656
;MAXY:92.064
;MAXZ:7.6
;Generated with Cura_SteamEngine 4.13.1
M140 S50
M105
M190 S50
M104 S210
M105
M109 S210
M82 ;absolute extrusion mode
;FLAVOR:Marlin
M82 ;absolute extrusion mode
G21
G90
M82
M107 T0
G28
G92 E0
G0 E3 F200
G92 E0 ; reset extrusion distance
M106 S255 ; Enable cooling fan full speed
G1 X-98 Y0 Z0.4 F3000 ; move to arc start
G3 X0 Y-98 I98 Z0.4 E40 F400 ; lay arc stripe 90deg
G92 E0 ; reset extrusion distance
G4 P500 ; wait for 0.5 sec
G0 Z10 E-1 ; Lift 15mm and retract 1mm filament
G4 P2000 ; wait for 5 sec
G0 Z15
M107 ; Disable cooling fan
G1 X0 Y-85 Z4 E0 F3000 ; get off the bed
G92 E0
G92 E0
G1 F1500 E-6.5
;LAYER_COUNT:11
;LAYER:0
M107
G0 F3600 X-10.876 Y29.953 Z0.3
;TYPE:SKIRT
G1 F1500 E0
G1 F2400 X-9.759 Y30.345 E0.05906
G1 X-7.114 Y31.232 E0.19824
G1 X-4.522 Y32.022 E0.33343
G1 X-1.867 Y32.747 E0.47074
G1 X0.83 Y33.404 E0.60923
G1 X3.525 Y33.981 E0.74673
G1 X6.209 Y34.474 E0.88287
G1 X8.921 Y34.894 E1.01979
G1 X11.652 Y35.24 E1.15713
G1 X14.41 Y35.509 E1.29538
G1 X17.108 Y35.696 E1.4303
G1 X19.882 Y35.809 E1.56881
G1 X22.635 Y35.844 E1.70617
G1 X23.537 Y35.833 E1.75118
G1 X26.364 Y35.833 E1.89222
G1 X26.897 Y35.841 E1.91881
G1 X27.068 Y35.849 E1.92735
G1 X27.644 Y35.893 E1.95617
G1 X28.212 Y35.996 E1.98497
G1 X28.76 Y36.172 E2.01369
G1 X29.474 Y36.52 E2.05332
G1 X30.052 Y36.927 E2.08858
G1 X30.67 Y37.529 E2.13163
G1 X31.129 Y38.165 E2.17076
G1 X31.469 Y38.859 E2.20931
G1 X31.673 Y39.481 E2.24197
G1 X31.774 Y40.015 E2.26908
G1 X31.818 Y40.553 E2.29601
G1 X31.829 Y40.981 E2.31737
G1 X31.829 Y43.966 E2.4663
G1 X31.819 Y44.663 E2.50107
G1 X31.765 Y45.318 E2.53386
G1 X31.639 Y45.91 E2.56406
G1 X31.391 Y46.604 E2.60083
G1 X31.14 Y47.082 E2.62776
G1 X30.729 Y47.663 E2.66327
G1 X30.124 Y48.281 E2.70642
G1 X29.495 Y48.734 E2.74509
G1 X29.082 Y48.955 E2.76846
G1 X28.605 Y49.15 E2.79417
G1 X27.783 Y49.36 E2.83649
G1 X27.243 Y49.414 E2.86357
G1 X26.682 Y49.433 E2.89157
G1 X21.08 Y49.436 E3.17106
G1 X18.304 Y49.515 E3.30961
G1 X15.606 Y49.669 E3.44443
G1 X12.834 Y49.906 E3.58323
G1 X10.115 Y50.216 E3.71976
G1 X7.392 Y50.605 E3.85699
G1 X4.661 Y51.073 E3.99523
G1 X2 Y51.607 E4.13063
G1 X-.665 Y52.222 E4.26709
G1 X-3.374 Y52.928 E4.40675
G1 X-6.006 Y53.694 E4.54351
G1 X-8.602 Y54.529 E4.67956
G1 X-10.295 Y55.119 E4.76901
G1 X-11.215 Y55.448 E4.81775
G1 X-11.859 Y55.622 E4.85103
G1 X-12.387 Y55.719 E4.87782
G1 X-12.527 Y55.739 E4.88487
G1 X-13.195 Y55.817 E4.91843
G1 X-13.592 Y55.846 E4.93828
G1 X-14.194 Y55.867 E4.96834
G1 X-14.429 Y55.869 E4.98006
G1 X-17.175 Y55.936 E5.1171
G1 X-19.914 Y56.081 E5.25394
G1 X-22.68 Y56.304 E5.39239
G1 X-25.395 Y56.602 E5.52865
G1 X-27.302 Y56.857 E5.62464
G1 X-27.926 Y56.937 E5.65602
G1 X-28.09 Y56.953 E5.66425
G1 X-28.844 Y57.004 E5.70195
G1 X-29.422 Y57.022 E5.7308
G1 X-29.993 Y57.01 E5.75929
G1 X-30.61 Y56.975 E5.79012
G1 X-31.344 Y56.896 E5.82696
G1 X-31.906 Y56.814 E5.85529
G1 X-32.543 Y56.687 E5.8877
G1 X-33.13 Y56.548 E5.91779
G1 X-33.792 Y56.355 E5.95219
G1 X-34.341 Y56.172 E5.98107
G1 X-34.906 Y55.953 E6.0113
G1 X-35.493 Y55.699 E6.04321
G1 X-36.14 Y55.38 E6.0792
G1 X-36.632 Y55.113 E6.10712
G1 X-37.222 Y54.753 E6.1416
G1 X-37.699 Y54.437 E6.17015
G1 X-38.247 Y54.032 E6.20415
G1 X-38.708 Y53.665 E6.23354
G1 X-39.245 Y53.189 E6.26935
G1 X-39.639 Y52.813 E6.29652
G1 X-40.093 Y52.335 E6.32941
G1 X-40.332 Y52.065 E6.3474
G1 X-40.762 Y51.55 E6.38087
G1 X-41.184 Y50.99 E6.41585
G1 X-41.272 Y50.864 E6.42352
G1 X-41.621 Y50.334 E6.45518
G1 X-41.827 Y49.999 E6.4748
G1 X-42.092 Y49.538 E6.50133
G1 X-42.416 Y48.91 E6.53658
G1 X-42.645 Y48.415 E6.56379
G1 X-42.922 Y47.738 E6.60029
G1 X-42.977 Y47.586 E6.60835
G1 X-43.245 Y46.777 E6.65087
G1 X-43.423 Y46.143 E6.68372
G1 X-43.588 Y45.397 E6.72184
G1 X-43.702 Y44.737 E6.75525
G1 X-43.788 Y44.046 E6.79
G1 X-43.802 Y43.886 E6.79801
G1 X-43.849 Y43.055 E6.83953
G1 X-43.858 Y42.498 E6.86733
G1 X-43.835 Y41.842 E6.90007
G1 X-43.792 Y41.249 E6.92974
G1 X-43.708 Y40.565 E6.96412
G1 X-43.617 Y40.008 E6.99227
G1 X-43.463 Y39.291 E7.02886
G1 X-43.318 Y38.721 E7.0582
G1 X-43.135 Y38.129 E7.08912
G1 X-42.977 Y37.677 E7.11301
G1 X-42.679 Y36.938 E7.15276
G1 X-42.43 Y36.383 E7.18311
G1 X-42.165 Y35.865 E7.21214
G1 X-41.921 Y35.422 E7.23737
G1 X-41.844 Y35.291 E7.24495
G1 X-41.514 Y34.765 E7.27593
G1 X-41.151 Y34.23 E7.30818
G1 X-40.775 Y33.735 E7.3392
G1 X-40.364 Y33.232 E7.3716
G1 X-39.959 Y32.787 E7.40162
G1 X-39.609 Y32.424 E7.42678
G1 X-39.495 Y32.313 E7.43472
G1 X-38.975 Y31.834 E7.46999
G1 X-38.563 Y31.483 E7.49699
G1 X-37.985 Y31.037 E7.53342
G1 X-37.521 Y30.708 E7.56179
G1 X-37.036 Y30.397 E7.59054
G1 X-36.473 Y30.064 E7.62317
G1 X-35.916 Y29.773 E7.65452
G1 X-35.438 Y29.542 E7.68101
G1 X-35.301 Y29.48 E7.68851
G1 X-34.785 Y29.265 E7.7164
G1 X-34.17 Y29.034 E7.74918
G1 X-33.569 Y28.844 E7.78062
G1 X-33.077 Y28.705 E7.80613
G1 X-32.932 Y28.669 E7.81358
G1 X-32.247 Y28.518 E7.84858
G1 X-31.683 Y28.417 E7.87717
G1 X-31.028 Y28.332 E7.91012
G1 X-30.435 Y28.277 E7.93983
G1 X-29.743 Y28.25 E7.97438
G1 X-29.156 Y28.248 E8.00367
G1 X-28.502 Y28.28 E8.03633
G1 X-27.926 Y28.329 E8.06517
G1 X-24.772 Y28.75 E8.22392
G1 X-22.033 Y29.045 E8.36136
G1 X-19.298 Y29.262 E8.49824
G1 X-16.564 Y29.401 E8.63482
G1 X-14.037 Y29.461 E8.76092
G1 X-13.658 Y29.469 E8.77984
G1 X-13.087 Y29.505 E8.80838
G1 X-12.727 Y29.543 E8.82644
G1 X-12.153 Y29.626 E8.85538
G1 X-11.419 Y29.785 E8.89285
G1 X-10.876 Y29.953 E8.9212
G0 F3600 X-11.009 Y30.331
G1 F2400 X-9.908 Y30.717 E8.97941
G1 X-7.242 Y31.61 E9.11968
G1 X-4.616 Y32.411 E9.25665
G1 X-1.961 Y33.136 E9.39396
G1 X0.731 Y33.792 E9.53219
G1 X3.467 Y34.377 E9.67178
G1 X6.118 Y34.865 E9.80626
G1 X8.88 Y35.292 E9.94569
G1 X11.595 Y35.636 E10.08223
G1 X14.377 Y35.908 E10.22168
G1 X17.101 Y36.096 E10.35791
G1 X19.861 Y36.208 E10.49572
G1 X22.635 Y36.244 E10.63413
G1 X23.542 Y36.233 E10.67938
G1 X26.358 Y36.233 E10.81987
G1 X26.891 Y36.241 E10.84647
G1 X27.038 Y36.248 E10.85381
G1 X27.614 Y36.292 E10.88263
G1 X28.304 Y36.439 E10.91782
G1 X28.977 Y36.705 E10.95393
G1 X29.636 Y37.106 E10.99241
G1 X30.114 Y37.519 E11.02393
G1 X30.548 Y38.016 E11.05685
G1 X30.893 Y38.565 E11.0892
G1 X31.103 Y39.019 E11.11415
G1 X31.289 Y39.591 E11.14416
G1 X31.389 Y40.17 E11.17348
G1 X31.428 Y40.912 E11.21055
G1 X31.429 Y43.96 E11.36261
G1 X31.419 Y44.657 E11.39739
G1 X31.367 Y45.274 E11.42828
G1 X31.253 Y45.806 E11.45542
G1 X31.03 Y46.431 E11.48853
G1 X30.79 Y46.889 E11.51433
G1 X30.416 Y47.414 E11.54649
G1 X29.874 Y47.968 E11.58515
G1 X29.3 Y48.385 E11.62055
G1 X28.489 Y48.767 E11.66527
G1 X27.731 Y48.964 E11.70435
G1 X27.21 Y49.015 E11.73046
G1 X26.682 Y49.033 E11.75682
G1 X21.068 Y49.036 E12.0369
G1 X18.306 Y49.115 E12.17476
G1 X15.548 Y49.272 E12.31258
G1 X12.826 Y49.505 E12.44888
G1 X10.046 Y49.822 E12.58847
G1 X7.31 Y50.213 E12.72636
G1 X4.615 Y50.675 E12.86277
G1 X1.937 Y51.212 E12.99904
G1 X-.817 Y51.847 E13.14004
G1 X-3.454 Y52.535 E13.276
G1 X-6.092 Y53.303 E13.41308
G1 X-8.742 Y54.155 E13.55195
G1 X-10.427 Y54.742 E13.64097
G1 X-11.35 Y55.072 E13.68988
G1 X-11.955 Y55.234 E13.72112
G1 X-12.454 Y55.325 E13.74643
G1 X-12.574 Y55.342 E13.75247
G1 X-13.138 Y55.409 E13.78081
G1 X-13.606 Y55.446 E13.80423
G1 X-14.197 Y55.467 E13.83374
G1 X-14.438 Y55.469 E13.84576
G1 X-17.173 Y55.536 E13.98225
G1 X-19.968 Y55.683 E14.12189
G1 X-22.685 Y55.903 E14.25788
G1 X-25.447 Y56.206 E14.3965
G1 X-27.353 Y56.461 E14.49244
G1 X-27.977 Y56.541 E14.52383
G1 X-28.117 Y56.554 E14.53084
G1 X-28.859 Y56.604 E14.56795
G1 X-29.414 Y56.622 E14.59565
G1 X-29.974 Y56.61 E14.62359
G1 X-30.568 Y56.578 E14.65327
G1 X-31.29 Y56.5 E14.6895
G1 X-31.829 Y56.421 E14.71668
G1 X-32.454 Y56.297 E14.74847
G1 X-33.019 Y56.164 E14.77743
G1 X-33.593 Y55.998 E14.80724
G1 X-34.071 Y55.843 E14.83231
G1 X-34.196 Y55.799 E14.83892
G1 X-34.761 Y55.58 E14.86915
G1 X-35.317 Y55.34 E14.89936
G1 X-35.952 Y55.026 E14.93471
G1 X-36.424 Y54.772 E14.96145
G1 X-37.004 Y54.417 E14.99537
G1 X-37.462 Y54.115 E15.02274
G1 X-38.001 Y53.717 E15.05617
G1 X-38.443 Y53.366 E15.08433
G1 X-38.972 Y52.897 E15.1196
G1 X-39.35 Y52.537 E15.14564
G1 X-39.743 Y52.124 E15.17409
G1 X-40.026 Y51.808 E15.19525
G1 X-40.396 Y51.367 E15.22397
G1 X-40.863 Y50.751 E15.26254
G1 X-40.939 Y50.643 E15.26912
G1 X-41.281 Y50.124 E15.30013
G1 X-41.48 Y49.8 E15.3191
G1 X-41.777 Y49.281 E15.34894
G1 X-42.058 Y48.731 E15.37975
G1 X-42.277 Y48.257 E15.4058
G1 X-42.55 Y47.59 E15.44176
G1 X-42.597 Y47.46 E15.44865
G1 X-42.889 Y46.574 E15.49519
G1 X-43.036 Y46.042 E15.52273
G1 X-43.196 Y45.316 E15.55982
G1 X-43.212 Y45.232 E15.56409
G1 X-43.317 Y44.609 E15.59561
G1 X-43.39 Y44.001 E15.62616
G1 X-43.402 Y43.864 E15.63302
G1 X-43.449 Y43.033 E15.67454
G1 X-43.459 Y42.511 E15.70059
G1 X-43.436 Y41.867 E15.73274
G1 X-43.395 Y41.297 E15.76125
G1 X-43.312 Y40.626 E15.79498
G1 X-43.226 Y40.092 E15.82197
G1 X-43.074 Y39.387 E15.85795
G1 X-42.935 Y38.839 E15.88615
G1 X-42.756 Y38.257 E15.91653
G1 X-42.606 Y37.826 E15.9393
G1 X-42.313 Y37.099 E15.9784
G1 X-42.074 Y36.565 E16.00759
G1 X-41.809 Y36.047 E16.03662
G1 X-41.505 Y35.504 E16.06767
G1 X-41.134 Y34.915 E16.1024
G1 X-40.832 Y34.472 E16.12914
G1 X-40.412 Y33.921 E16.16371
G1 X-40.068 Y33.502 E16.19076
G1 X-39.613 Y33.004 E16.22441
G1 X-39.224 Y32.606 E16.25218
G1 X-38.713 Y32.136 E16.28681
G1 X-38.318 Y31.799 E16.31272
G1 X-37.814 Y31.409 E16.34451
G1 X-37.306 Y31.045 E16.37569
G1 X-36.754 Y30.692 E16.40838
G1 X-36.287 Y30.419 E16.43537
G1 X-35.659 Y30.092 E16.47069
G1 X-35.147 Y29.85 E16.49894
G1 X-34.565 Y29.608 E16.53039
G1 X-34.049 Y29.416 E16.55786
G1 X-33.371 Y29.202 E16.59333
G1 X-32.845 Y29.059 E16.62052
G1 X-32.173 Y28.911 E16.65485
G1 X-31.631 Y28.813 E16.68233
G1 X-30.988 Y28.73 E16.71468
G1 X-30.419 Y28.677 E16.74319
G1 X-29.738 Y28.65 E16.77719
G1 X-29.175 Y28.648 E16.80528
G1 X-28.532 Y28.679 E16.83739
G1 X-27.98 Y28.725 E16.86503
G1 X-24.828 Y29.147 E17.02369
G1 X-22.072 Y29.443 E17.16197
G1 X-19.349 Y29.66 E17.29826
G1 X-16.558 Y29.801 E17.43768
G1 X-14.041 Y29.861 E17.56329
G1 X-13.683 Y29.868 E17.58115
G1 X-13.112 Y29.904 E17.60969
G1 X-12.785 Y29.939 E17.6261
G1 X-12.211 Y30.022 E17.65504
G1 X-11.517 Y30.173 E17.69047
G1 X-11.009 Y30.331 E17.71701
G0 F3600 X-11.141 Y30.708
G1 F2400 X-10.008 Y31.106 E17.77692
G1 X-7.381 Y31.987 E17.91516
G1 X-4.723 Y32.796 E18.05377
G1 X-2.057 Y33.525 E18.19166
G1 X0.617 Y34.176 E18.32897
G1 X3.384 Y34.768 E18.47014
G1 X6.091 Y35.266 E18.60746
G1 X8.805 Y35.686 E18.74447
G1 X11.542 Y36.033 E18.88211
G1 X14.346 Y36.307 E19.02267
G1 X17.092 Y36.496 E19.15999
G1 X19.839 Y36.608 E19.29716
G1 X22.634 Y36.644 E19.43661
G1 X23.547 Y36.633 E19.48216
G1 X26.352 Y36.633 E19.62211
G1 X26.885 Y36.641 E19.6487
G1 X27.007 Y36.647 E19.65479
G1 X27.583 Y36.691 E19.68362
G1 X28.192 Y36.823 E19.7147
G1 X28.786 Y37.056 E19.74654
G1 X29.386 Y37.418 E19.7815
G1 X29.843 Y37.813 E19.81163
G1 X30.237 Y38.267 E19.84162
G1 X30.543 Y38.759 E19.87053
G1 X30.825 Y39.427 E19.9067
G1 X30.966 Y40 E19.93614
G1 X31.018 Y40.576 E19.965
G1 X31.029 Y40.981 E19.98521
G1 X31.029 Y43.955 E20.13358
G1 X31.019 Y44.652 E20.16836
G1 X30.97 Y45.23 E20.1973
G1 X30.838 Y45.798 E20.22639
G1 X30.624 Y46.354 E20.25612
G1 X30.251 Y46.979 E20.29243
G1 X29.842 Y47.454 E20.3237
G1 X29.378 Y47.853 E20.35423
G1 X28.915 Y48.141 E20.38144
G1 X28.372 Y48.385 E20.41114
G1 X27.679 Y48.567 E20.44688
G1 X27.178 Y48.616 E20.472
G1 X26.682 Y48.633 E20.49676
G1 X21.056 Y48.636 E20.77744
G1 X18.307 Y48.715 E20.91464
G1 X15.524 Y48.873 E21.05371
G1 X12.747 Y49.111 E21.19276
G1 X10.019 Y49.422 E21.32975
G1 X7.252 Y49.817 E21.46919
G1 X4.546 Y50.281 E21.60617
G1 X1.841 Y50.824 E21.74381
G1 X-.913 Y51.459 E21.88481
G1 X-3.562 Y52.149 E22.02138
G1 X-6.222 Y52.924 E22.15961
G1 X-8.857 Y53.772 E22.29771
G1 X-10.558 Y54.364 E22.38756
G1 X-11.484 Y54.695 E22.43663
G1 X-12.05 Y54.845 E22.46584
G1 X-12.621 Y54.945 E22.49476
G1 X-13.185 Y55.012 E22.52309
G1 X-13.621 Y55.047 E22.54492
G1 X-14.2 Y55.067 E22.57382
G1 X-14.441 Y55.069 E22.58584
G1 X-17.203 Y55.136 E22.72368
G1 X-19.985 Y55.283 E22.86267
G1 X-22.725 Y55.504 E22.99981
G1 X-25.504 Y55.809 E23.13929
G1 X-27.404 Y56.064 E23.23493
G1 X-28.028 Y56.144 E23.26632
G1 X-28.145 Y56.155 E23.27218
G1 X-28.875 Y56.205 E23.30869
G1 X-29.407 Y56.222 E23.33524
G1 X-29.954 Y56.211 E23.36254
G1 X-30.525 Y56.18 E23.39107
G1 X-31.235 Y56.103 E23.4267
G1 X-31.751 Y56.029 E23.4527
G1 X-32.365 Y55.907 E23.48393
G1 X-32.908 Y55.779 E23.51177
G1 X-33.544 Y55.594 E23.54481
G1 X-34.052 Y55.426 E23.57151
G1 X-34.617 Y55.207 E23.60174
G1 X-35.14 Y54.981 E23.63016
G1 X-35.765 Y54.673 E23.66492
G1 X-36.216 Y54.43 E23.69048
G1 X-36.786 Y54.082 E23.7238
G1 X-37.225 Y53.793 E23.75002
G1 X-37.755 Y53.402 E23.78288
G1 X-38.178 Y53.066 E23.80983
G1 X-38.698 Y52.605 E23.8445
G1 X-39.06 Y52.262 E23.86938
G1 X-39.496 Y51.802 E23.901
G1 X-39.719 Y51.55 E23.91779
G1 X-40.132 Y51.057 E23.94988
G1 X-40.542 Y50.512 E23.9839
G1 X-40.605 Y50.423 E23.98934
G1 X-40.941 Y49.913 E24.01981
G1 X-41.133 Y49.601 E24.03809
G1 X-41.425 Y49.091 E24.06741
G1 X-41.701 Y48.551 E24.09766
G1 X-42.005 Y47.876 E24.1346
G1 X-42.218 Y47.334 E24.16365
G1 X-42.506 Y46.461 E24.20951
G1 X-42.649 Y45.941 E24.23642
G1 X-42.804 Y45.235 E24.27248
G1 X-42.818 Y45.165 E24.27604
G1 X-42.921 Y44.552 E24.30705
G1 X-42.993 Y43.955 E24.33705
G1 X-43.003 Y43.841 E24.34276
G1 X-43.05 Y43.01 E24.38429
G1 X-43.059 Y42.524 E24.40854
G1 X-43.037 Y41.893 E24.44004
G1 X-42.998 Y41.346 E24.4674
G1 X-42.917 Y40.686 E24.50057
G1 X-42.835 Y40.175 E24.52639
G1 X-42.686 Y39.482 E24.56176
G1 X-42.553 Y38.956 E24.58883
G1 X-42.377 Y38.385 E24.61863
G1 X-42.235 Y37.975 E24.64028
G1 X-41.947 Y37.26 E24.67874
G1 X-41.718 Y36.747 E24.70677
G1 X-41.453 Y36.229 E24.7358
G1 X-41.166 Y35.716 E24.76512
G1 X-40.802 Y35.138 E24.7992
G1 X-40.514 Y34.714 E24.82477
G1 X-40.101 Y34.172 E24.85877
G1 X-39.772 Y33.771 E24.88465
G1 X-39.326 Y33.282 E24.91767
G1 X-38.953 Y32.9 E24.9443
G1 X-38.451 Y32.438 E24.97834
G1 X-38.073 Y32.115 E25.00314
G1 X-37.569 Y31.725 E25.03494
G1 X-37.09 Y31.381 E25.06436
G1 X-36.605 Y31.07 E25.0931
G1 X-36.102 Y30.773 E25.12225
G1 X-35.545 Y30.482 E25.1536
G1 X-35.091 Y30.263 E25.17875
G1 X-34.993 Y30.219 E25.18411
G1 X-34.422 Y29.982 E25.21495
G1 X-33.929 Y29.797 E25.24122
G1 X-33.263 Y29.588 E25.27605
G1 X-32.759 Y29.45 E25.30212
G1 X-32.099 Y29.304 E25.33584
G1 X-31.579 Y29.21 E25.3622
G1 X-30.947 Y29.128 E25.394
G1 X-30.403 Y29.077 E25.42126
G1 X-29.734 Y29.05 E25.45466
G1 X-29.194 Y29.047 E25.4816
G1 X-28.563 Y29.078 E25.51312
G1 X-28.033 Y29.122 E25.53965
G1 X-24.855 Y29.546 E25.69961
G1 X-22.147 Y29.838 E25.83549
G1 X-19.333 Y30.062 E25.97633
G1 X-16.588 Y30.201 E26.11345
G1 X-14.044 Y30.261 E26.24041
G1 X-13.708 Y30.267 E26.25718
G1 X-13.137 Y30.303 E26.28572
G1 X-12.842 Y30.335 E26.30052
G1 X-12.268 Y30.418 E26.32946
G1 X-11.616 Y30.561 E26.36276
G1 X-11.141 Y30.708 E26.38757
G0 F3600 X-11.274 Y31.085
G1 F2400 X-10.141 Y31.483 E26.44748
G1 X-7.509 Y32.365 E26.58597
G1 X-4.817 Y33.185 E26.72636
G1 X-2.177 Y33.907 E26.86291
G1 X0.544 Y34.569 E27.00262
G1 X3.299 Y35.159 E27.14319
G1 X6.023 Y35.66 E27.28137
G1 X8.766 Y36.085 E27.41985
G1 X11.521 Y36.433 E27.55839
G1 X14.284 Y36.703 E27.69689
G1 X17.047 Y36.894 E27.83507
G1 X19.854 Y37.008 E27.97522
G1 X22.633 Y37.044 E28.11388
G1 X23.551 Y37.033 E28.15968
G1 X26.346 Y37.033 E28.29912
G1 X26.879 Y37.041 E28.32572
G1 X26.977 Y37.046 E28.33062
G1 X27.553 Y37.09 E28.35944
