;FLAVOR:Marlin
;TIME:2764
;Filament used: 4.39688m
;Layer height: 0.24
;MINX:-86.472
;MINY:-80.671
;MINZ:0.3
;MAXX:81.559
;MAXY:85.035
;MAXZ:6.895
;Generated with Cura_SteamEngine 4.13.1
M140 S50
M105
M190 S50
M104 S210
M105
M109 S210
M82 ;absolute extrusion mode
;FLAVOR:Marlin
M82 ;absolute extrusion mode
G21
G90
M82
M107 T0
G28
G92 E0
G0 E3 F200
G92 E0 ; reset extrusion distance
M106 S255 ; Enable cooling fan full speed
G1 X-98 Y0 Z0.4 F3000 ; move to arc start
G3 X0 Y-98 I98 Z0.4 E40 F400 ; lay arc stripe 90deg
G92 E0 ; reset extrusion distance
G4 P500 ; wait for 0.5 sec
G0 Z10 E-1 ; Lift 15mm and retract 1mm filament
G4 P2000 ; wait for 5 sec
G0 Z15
M107 ; Disable cooling fan
G1 X0 Y-85 Z4 E0 F3000 ; get off the bed
G92 E0
G92 E0
G1 F1500 E-6.5
;LAYER_COUNT:8
;LAYER:0
M107
G0 F3600 X52.173 Y-2.76 Z0.3
;TYPE:SKIRT
G1 F1500 E0
G1 F2400 X52.155 Y-3.324 E0.02815
G1 X52.169 Y-4.09 E0.06637
G1 X52.23 Y-4.922 E0.10799
G1 X52.249 Y-5.099 E0.11688
G1 X52.362 Y-5.908 E0.15763
G1 X52.461 Y-6.417 E0.1835
G1 X52.652 Y-7.051 E0.21653
G1 X52.762 Y-7.334 E0.23168
G1 X53.721 Y-9.897 E0.36821
G1 X54.615 Y-12.508 E0.5059
G1 X55.437 Y-15.154 E0.64413
G1 X56.176 Y-17.792 E0.78081
G1 X56.836 Y-20.431 E0.91652
G1 X57.444 Y-23.201 E1.05801
G1 X57.946 Y-25.835 E1.19178
G1 X58.38 Y-28.529 E1.32792
G1 X58.746 Y-31.29 E1.46687
G1 X59.029 Y-34.016 E1.6036
G1 X59.234 Y-36.747 E1.74024
G1 X59.364 Y-39.489 E1.87719
G1 X59.416 Y-42.756 E2.0402
G1 X59.415 Y-45.164 E2.16034
G1 X59.424 Y-45.836 E2.19387
G1 X59.474 Y-46.523 E2.22823
G1 X59.587 Y-47.132 E2.25913
G1 X59.752 Y-47.708 E2.28903
G1 X59.989 Y-48.28 E2.31992
G1 X60.265 Y-48.789 E2.3488
G1 X60.567 Y-49.227 E2.37535
G1 X60.941 Y-49.687 E2.40492
G1 X61.34 Y-50.092 E2.43329
G1 X61.934 Y-50.563 E2.47111
G1 X62.432 Y-50.868 E2.50024
G1 X62.884 Y-51.089 E2.52534
G1 X63.553 Y-51.338 E2.56096
G1 X64.144 Y-51.481 E2.59129
G1 X64.698 Y-51.556 E2.61918
G1 X65.301 Y-51.589 E2.64931
G1 X65.694 Y-51.594 E2.66892
G1 X68.169 Y-51.594 E2.7924
G1 X68.875 Y-51.584 E2.82763
G1 X69.558 Y-51.535 E2.86179
G1 X70.156 Y-51.426 E2.89211
G1 X70.757 Y-51.254 E2.9233
G1 X71.319 Y-51.021 E2.95365
G1 X71.812 Y-50.755 E2.9816
G1 X72.337 Y-50.402 E3.01316
G1 X72.789 Y-50.02 E3.04269
G1 X73.211 Y-49.579 E3.07314
G1 X73.603 Y-49.077 E3.10492
G1 X73.909 Y-48.58 E3.13404
G1 X74.172 Y-48.03 E3.16445
G1 X74.382 Y-47.451 E3.19518
G1 X74.52 Y-46.885 E3.22424
G1 X74.598 Y-46.309 E3.25324
G1 X74.629 Y-45.762 E3.28058
G1 X74.636 Y-45.228 E3.30722
G1 X74.636 Y-41.888 E3.47385
G1 X74.676 Y-39.073 E3.61431
G1 X74.791 Y-36.369 E3.74933
G1 X74.987 Y-33.598 E3.88793
G1 X75.257 Y-30.874 E4.02449
G1 X75.604 Y-28.163 E4.16085
G1 X76.032 Y-25.442 E4.29827
G1 X76.539 Y-22.711 E4.43685
G1 X77.1 Y-20.104 E4.56989
G1 X77.769 Y-17.372 E4.71021
G1 X78.504 Y-14.702 E4.84838
G1 X79.301 Y-12.098 E4.98424
G1 X80.179 Y-9.496 E5.12124
G1 X80.725 Y-8.029 E5.19934
G1 X81.102 Y-6.98 E5.25495
G1 X81.249 Y-6.484 E5.28076
G1 X81.372 Y-5.88 E5.31151
G1 X81.49 Y-5.004 E5.35561
G1 X81.539 Y-4.459 E5.38291
G1 X81.558 Y-4.037 E5.40399
G1 X81.559 Y-2.968 E5.45732
G1 X81.536 Y-2.433 E5.48403
G1 X81.498 Y-2.006 E5.50542
G1 X81.426 Y-1.395 E5.53612
G1 X81.342 Y-.884 E5.56195
G1 X81.224 Y-.285 E5.59241
G1 X81.089 Y0.273 E5.62105
G1 X80.929 Y0.84 E5.65044
G1 X80.742 Y1.4 E5.6799
G1 X80.529 Y1.974 E5.71044
G1 X80.296 Y2.523 E5.7402
G1 X79.997 Y3.158 E5.77522
G1 X79.733 Y3.654 E5.80325
G1 X79.478 Y4.1 E5.82888
G1 X79.16 Y4.605 E5.85865
G1 X78.826 Y5.095 E5.88824
G1 X78.463 Y5.576 E5.9183
G1 X78.094 Y6.033 E5.94761
G1 X77.712 Y6.467 E5.97645
G1 X77.292 Y6.907 E6.0068
G1 X76.859 Y7.324 E6.03679
G1 X76.391 Y7.741 E6.06806
G1 X75.935 Y8.111 E6.09736
G1 X75.489 Y8.449 E6.12528
G1 X74.942 Y8.824 E6.15836
G1 X74.487 Y9.114 E6.18528
G1 X73.982 Y9.404 E6.21434
G1 X73.419 Y9.701 E6.24609
G1 X72.941 Y9.928 E6.27249
G1 X72.28 Y10.21 E6.30835
G1 X71.792 Y10.391 E6.33431
G1 X71.121 Y10.614 E6.36959
G1 X70.609 Y10.757 E6.39611
G1 X70.001 Y10.906 E6.42734
G1 X69.495 Y11.005 E6.45307
G1 X69.419 Y11.019 E6.45692
G1 X68.818 Y11.114 E6.48728
G1 X68.252 Y11.176 E6.51568
G1 X67.634 Y11.224 E6.54661
G1 X67.131 Y11.239 E6.57172
G1 X66.509 Y11.239 E6.60275
G1 X65.944 Y11.214 E6.63096
G1 X65.326 Y11.163 E6.6619
G1 X64.749 Y11.09 E6.69092
G1 X64.169 Y10.995 E6.72024
G1 X63.59 Y10.875 E6.74974
G1 X63.5 Y10.854 E6.75435
G1 X62.981 Y10.723 E6.78105
G1 X62.467 Y10.57 E6.80781
G1 X62.382 Y10.543 E6.81226
G1 X61.793 Y10.342 E6.84331
G1 X61.277 Y10.139 E6.87097
G1 X60.748 Y9.912 E6.89969
G1 X60.225 Y9.659 E6.92868
G1 X59.717 Y9.391 E6.95733
G1 X59.19 Y9.083 E6.98778
G1 X58.634 Y8.727 E7.02072
G1 X58.202 Y8.422 E7.04711
G1 X57.683 Y8.027 E7.07964
G1 X57.285 Y7.694 E7.10553
G1 X56.755 Y7.22 E7.14101
G1 X56.393 Y6.863 E7.16637
G1 X55.978 Y6.428 E7.19637
G1 X55.613 Y6.005 E7.22424
G1 X55.204 Y5.499 E7.2567
G1 X54.866 Y5.039 E7.28518
G1 X54.475 Y4.461 E7.32
G1 X54.193 Y3.997 E7.34708
G1 X53.883 Y3.451 E7.37841
G1 X53.635 Y2.961 E7.40581
G1 X53.4 Y2.456 E7.4336
G1 X53.176 Y1.913 E7.4629
G1 X52.959 Y1.327 E7.49408
G1 X52.788 Y0.797 E7.52186
G1 X52.622 Y0.208 E7.55239
G1 X52.489 Y-.363 E7.58164
G1 X52.373 Y-.948 E7.61139
G1 X52.284 Y-1.545 E7.64151
G1 X52.214 Y-2.17 E7.67288
G1 X52.177 Y-2.689 E7.69884
G1 X52.173 Y-2.76 E7.70239
G0 F3600 X52.573 Y-2.772
G1 F2400 X52.554 Y-3.413 E7.73439
G1 X52.569 Y-4.074 E7.76737
G1 X52.629 Y-4.892 E7.80829
G1 X52.645 Y-5.044 E7.81592
G1 X52.758 Y-5.853 E7.85667
G1 X52.9 Y-6.516 E7.8905
G1 X53.124 Y-7.161 E7.92456
G1 X54.102 Y-9.776 E8.06385
G1 X54.999 Y-12.396 E8.20201
G1 X55.818 Y-15.032 E8.33972
G1 X56.563 Y-17.692 E8.47754
G1 X57.228 Y-20.353 E8.61438
G1 X57.824 Y-23.066 E8.75296
G1 X58.346 Y-25.803 E8.89197
G1 X58.778 Y-28.485 E9.0275
G1 X59.143 Y-31.233 E9.1658
G1 X59.428 Y-33.981 E9.30363
G1 X59.635 Y-36.734 E9.44137
G1 X59.763 Y-39.464 E9.57772
G1 X59.816 Y-42.75 E9.74168
G1 X59.815 Y-45.159 E9.86187
G1 X59.824 Y-45.831 E9.89539
G1 X59.872 Y-46.486 E9.92816
G1 X59.974 Y-47.031 E9.95582
G1 X60.127 Y-47.568 E9.98368
G1 X60.356 Y-48.121 E10.01354
G1 X60.602 Y-48.573 E10.03921
G1 X60.878 Y-48.975 E10.06354
G1 X61.252 Y-49.435 E10.09312
G1 X61.609 Y-49.796 E10.11845
G1 X62.153 Y-50.229 E10.15314
G1 X62.637 Y-50.524 E10.18142
G1 X63.129 Y-50.758 E10.2086
G1 X63.659 Y-50.953 E10.23677
G1 X64.23 Y-51.09 E10.26607
G1 X65.077 Y-51.18 E10.30856
G1 X65.699 Y-51.194 E10.3396
G1 X68.163 Y-51.194 E10.46253
G1 X68.869 Y-51.184 E10.49776
G1 X69.522 Y-51.137 E10.53042
G1 X70.056 Y-51.039 E10.55751
G1 X70.615 Y-50.88 E10.5865
G1 X71.16 Y-50.654 E10.61594
G1 X71.871 Y-50.244 E10.65688
G1 X72.314 Y-49.905 E10.68471
G1 X72.713 Y-49.535 E10.71186
G1 X73.114 Y-49.067 E10.74261
G1 X73.565 Y-48.375 E10.78382
G1 X73.8 Y-47.884 E10.81098
G1 X73.996 Y-47.346 E10.83954
G1 X74.129 Y-46.796 E10.86777
G1 X74.199 Y-46.283 E10.8936
G1 X74.229 Y-45.746 E10.92044
G1 X74.236 Y-45.223 E10.94653
G1 X74.236 Y-41.848 E11.11491
G1 X74.276 Y-39.085 E11.25277
G1 X74.393 Y-36.325 E11.39059
G1 X74.588 Y-33.567 E11.52853
G1 X74.856 Y-30.865 E11.664
G1 X75.212 Y-28.083 E11.80392
G1 X75.637 Y-25.378 E11.94053
G1 X76.149 Y-22.625 E12.08024
G1 X76.718 Y-19.982 E12.21512
G1 X77.381 Y-17.276 E12.35411
G1 X78.115 Y-14.607 E12.49221
G1 X78.923 Y-11.968 E12.62991
G1 X79.805 Y-9.354 E12.76754
G1 X80.349 Y-7.894 E12.84527
G1 X80.726 Y-6.845 E12.90089
G1 X80.916 Y-6.153 E12.93669
G1 X81.029 Y-5.481 E12.97068
G1 X81.093 Y-4.956 E12.99707
G1 X81.139 Y-4.437 E13.02307
G1 X81.158 Y-4.036 E13.04309
G1 X81.159 Y-2.967 E13.09643
G1 X81.107 Y-2.116 E13.13896
G1 X81.03 Y-1.45 E13.17241
G1 X80.948 Y-.952 E13.19759
G1 X80.832 Y-.363 E13.22754
G1 X80.701 Y0.174 E13.25512
G1 X80.544 Y0.731 E13.28399
G1 X80.363 Y1.27 E13.31236
G1 X80.154 Y1.834 E13.34236
G1 X79.93 Y2.361 E13.37093
G1 X79.676 Y2.904 E13.40084
G1 X79.416 Y3.4 E13.42878
G1 X79.091 Y3.968 E13.46143
G1 X78.786 Y4.445 E13.48967
G1 X78.496 Y4.869 E13.5153
G1 X78.146 Y5.333 E13.5443
G1 X77.738 Y5.835 E13.57657
G1 X77.369 Y6.248 E13.6042
G1 X76.958 Y6.676 E13.63381
G1 X76.584 Y7.033 E13.6596
G1 X76.125 Y7.442 E13.69027
G1 X75.687 Y7.797 E13.7184
G1 X75.248 Y8.13 E13.74589
G1 X74.72 Y8.491 E13.7778
G1 X74.273 Y8.776 E13.80425
G1 X73.785 Y9.056 E13.83232
G1 X73.233 Y9.347 E13.86345
G1 X72.775 Y9.564 E13.88874
G1 X72.123 Y9.842 E13.9241
G1 X71.587 Y10.039 E13.95259
G1 X70.996 Y10.234 E13.98364
G1 X70.514 Y10.368 E14.0086
G1 X69.906 Y10.517 E14.03983
G1 X69.356 Y10.624 E14.06778
G1 X68.833 Y10.708 E14.09421
G1 X68.284 Y10.771 E14.12178
G1 X67.603 Y10.825 E14.15586
G1 X67.063 Y10.84 E14.18281
G1 X66.444 Y10.838 E14.21369
G1 X65.897 Y10.81 E14.24102
G1 X65.289 Y10.758 E14.27146
G1 X64.732 Y10.683 E14.2995
G1 X64.177 Y10.59 E14.32758
G1 X63.675 Y10.484 E14.35317
G1 X63.079 Y10.335 E14.38382
G1 X62.583 Y10.187 E14.40965
G1 X62.51 Y10.164 E14.41347
G1 X61.932 Y9.967 E14.44393
G1 X61.435 Y9.772 E14.47057
G1 X60.906 Y9.545 E14.49929
G1 X60.402 Y9.3 E14.52724
G1 X59.848 Y9.006 E14.55853
G1 X59.397 Y8.74 E14.58466
G1 X58.858 Y8.396 E14.61656
G1 X58.436 Y8.098 E14.64233
G1 X57.931 Y7.714 E14.67398
G1 X57.545 Y7.391 E14.69909
G1 X57.023 Y6.923 E14.73407
G1 X56.638 Y6.541 E14.76113
G1 X56.268 Y6.152 E14.78791
G1 X55.918 Y5.746 E14.81465
G1 X55.515 Y5.248 E14.84662
G1 X55.197 Y4.815 E14.87342
G1 X54.806 Y4.237 E14.90823
G1 X54.54 Y3.799 E14.9338
G1 X54.236 Y3.264 E14.9645
G1 X53.998 Y2.793 E14.99083
G1 X53.763 Y2.288 E15.01862
G1 X53.546 Y1.762 E15.047
G1 X53.334 Y1.189 E15.07748
G1 X53.17 Y0.679 E15.10421
G1 X53.007 Y0.1 E15.13422
G1 X52.879 Y-.451 E15.16244
G1 X52.752 Y-1.1 E15.19543
G1 X52.68 Y-1.6 E15.22064
G1 X52.611 Y-2.214 E15.25146
G1 X52.573 Y-2.772 E15.27937
G0 F3600 X52.973 Y-2.785
G1 F2400 X52.954 Y-3.413 E15.31071
G1 X52.969 Y-4.058 E15.3429
G1 X53.028 Y-4.862 E15.38312
G1 X53.041 Y-4.989 E15.38949
G1 X53.154 Y-5.798 E15.43024
G1 X53.287 Y-6.414 E15.46168
G1 X53.508 Y-7.045 E15.49504
G1 X54.48 Y-9.643 E15.63343
G1 X55.377 Y-12.264 E15.77163
G1 X56.199 Y-14.91 E15.90987
G1 X56.955 Y-17.609 E16.0497
G1 X57.621 Y-20.275 E16.1868
G1 X58.214 Y-22.975 E16.32471
G1 X58.734 Y-25.701 E16.46317
G1 X59.175 Y-28.44 E16.60157
G1 X59.543 Y-31.213 E16.74113
G1 X59.826 Y-33.942 E16.87801
G1 X60.032 Y-36.685 E17.01525
G1 X60.163 Y-39.471 E17.15439
G1 X60.216 Y-42.743 E17.31766
G1 X60.215 Y-45.154 E17.43794
G1 X60.226 Y-45.898 E17.47506
G1 X60.271 Y-46.448 E17.5026
G1 X60.439 Y-47.23 E17.5425
G1 X60.723 Y-47.961 E17.58163
G1 X61.056 Y-48.541 E17.61499
G1 X61.188 Y-48.723 E17.62621
G1 X61.562 Y-49.183 E17.65579
G1 X61.952 Y-49.564 E17.68299
G1 X62.373 Y-49.894 E17.70967
G1 X62.841 Y-50.18 E17.73704
G1 X63.556 Y-50.497 E17.77606
G1 X64.317 Y-50.7 E17.81535
G1 X65.103 Y-50.781 E17.85477
G1 X65.703 Y-50.794 E17.88471
G1 X68.157 Y-50.794 E18.00715
G1 X68.928 Y-50.782 E18.04562
G1 X69.485 Y-50.739 E18.07349
G1 X70.271 Y-50.57 E18.1136
G1 X71.001 Y-50.287 E18.15266
G1 X71.657 Y-49.906 E18.19051
G1 X72.262 Y-49.419 E18.22925
G1 X72.806 Y-48.813 E18.26988
G1 X73.221 Y-48.171 E18.30802
G1 X73.541 Y-47.448 E18.34747
G1 X73.739 Y-46.708 E18.38568
G1 X73.822 Y-45.91 E18.42571
G1 X73.836 Y-45.219 E18.46019
G1 X73.836 Y-41.848 E18.62837
G1 X73.876 Y-39.063 E18.76733
G1 X73.993 Y-36.313 E18.90465
G1 X74.19 Y-33.535 E19.04359
G1 X74.459 Y-30.814 E19.18001
G1 X74.814 Y-28.041 E19.31948
G1 X75.249 Y-25.273 E19.45927
G1 X75.749 Y-22.58 E19.59592
G1 X76.323 Y-19.914 E19.73198
G1 X77.001 Y-17.147 E19.87411
G1 X77.732 Y-14.489 E20.01164
G1 X78.532 Y-11.875 E20.14802
G1 X79.427 Y-9.224 E20.28762
G1 X79.972 Y-7.758 E20.36565
G1 X80.349 Y-6.709 E20.42126
G1 X80.522 Y-6.081 E20.45376
G1 X80.633 Y-5.422 E20.4871
G1 X80.696 Y-4.908 E20.51293
G1 X80.755 Y-4.145 E20.55111
G1 X80.758 Y-4.036 E20.55655
G1 X80.759 Y-2.967 E20.60989
G1 X80.708 Y-2.152 E20.65063
G1 X80.64 Y-1.552 E20.68075
G1 X80.554 Y-1.02 E20.70764
G1 X80.429 Y-.393 E20.73953
G1 X80.299 Y0.128 E20.76632
G1 X80.136 Y0.697 E20.79585
G1 X79.969 Y1.184 E20.82154
G1 X79.761 Y1.742 E20.85125
G1 X79.546 Y2.239 E20.87827
G1 X79.314 Y2.734 E20.90554
G1 X79.064 Y3.21 E20.93236
G1 X78.783 Y3.703 E20.96067
G1 X78.487 Y4.172 E20.98834
G1 X78.166 Y4.643 E21.01678
G1 X77.828 Y5.09 E21.04474
G1 X77.435 Y5.573 E21.0758
G1 X77.08 Y5.972 E21.10245
G1 X76.676 Y6.392 E21.13152
G1 X76.31 Y6.742 E21.15679
G1 X75.816 Y7.181 E21.18976
G1 X75.4 Y7.513 E21.21631
G1 X74.95 Y7.852 E21.24442
G1 X74.497 Y8.159 E21.27172
G1 X74.058 Y8.439 E21.2977
G1 X73.588 Y8.708 E21.32472
G1 X73.047 Y8.993 E21.35522
G1 X72.562 Y9.221 E21.38196
G1 X71.967 Y9.474 E21.41422
G1 X71.462 Y9.659 E21.44105
G1 X70.871 Y9.854 E21.4721
G1 X70.419 Y9.98 E21.49551
G1 X69.811 Y10.129 E21.52674
G1 X69.292 Y10.229 E21.55311
G1 X68.713 Y10.321 E21.58236
G1 X68.19 Y10.378 E21.6086
G1 X67.572 Y10.426 E21.63953
G1 X67.063 Y10.44 E21.66493
G1 X66.456 Y10.438 E21.69522
G1 X65.93 Y10.411 E21.72149
G1 X65.334 Y10.36 E21.75134
G1 X64.798 Y10.289 E21.77831
G1 X64.252 Y10.197 E21.80594
G1 X63.76 Y10.093 E21.83102
G1 X63.177 Y9.947 E21.86101
G1 X62.639 Y9.785 E21.88904
G1 X62.071 Y9.592 E21.91897
G1 X61.592 Y9.404 E21.94464
G1 X61.063 Y9.177 E21.97336
G1 X60.579 Y8.941 E22.00022
G1 X60.045 Y8.658 E22.03037
G1 X59.604 Y8.398 E22.05592
G1 X59.082 Y8.065 E22.08681
G1 X58.669 Y7.773 E22.11204
G1 X58.18 Y7.401 E22.14269
G1 X57.775 Y7.06 E22.16911
G1 X57.29 Y6.625 E22.20161
G1 X56.928 Y6.265 E22.22708
G1 X56.558 Y5.876 E22.25387
G1 X56.223 Y5.487 E22.27948
G1 X55.826 Y4.997 E22.31094
G1 X55.528 Y4.591 E22.33607
G1 X55.137 Y4.013 E22.37088
G1 X54.888 Y3.601 E22.3949
G1 X54.59 Y3.076 E22.42502
G1 X54.361 Y2.624 E22.4503
G1 X54.126 Y2.119 E22.47808
G1 X53.917 Y1.612 E22.50544
G1 X53.71 Y1.051 E22.53528
G1 X53.552 Y0.561 E22.56096
G1 X53.392 Y-0.008 E22.59045
G1 X53.27 Y-.538 E22.61758
G1 X53.158 Y-1.102 E22.64627
G1 X53.076 Y-1.655 E22.67416
G1 X53.004 Y-2.306 E22.70684
G1 X52.973 Y-2.785 E22.73079
G0 F3600 X53.373 Y-2.798
G1 F2400 X53.354 Y-3.413 E22.76148
G1 X53.368 Y-4.043 E22.79292
G1 X53.426 Y-4.832 E22.83239
G1 X53.437 Y-4.933 E22.83746
G1 X53.55 Y-5.742 E22.87821
G1 X53.674 Y-6.312 E22.90732
G1 X53.874 Y-6.881 E22.93741
G1 X54.864 Y-9.53 E23.07849
G1 X55.758 Y-12.143 E23.21628
G1 X56.58 Y-14.79 E23.35456
G1 X57.34 Y-17.502 E23.49507
G1 X58.006 Y-20.164 E23.63197
G1 X58.61 Y-22.915 E23.77249
G1 X59.127 Y-25.629 E23.91033
G1 X59.574 Y-28.402 E24.05046
G1 X59.94 Y-31.16 E24.18926
G1 X60.225 Y-33.907 E24.32704
G1 X60.433 Y-36.673 E24.46543
G1 X60.563 Y-39.445 E24.60388
G1 X60.616 Y-42.737 E24.76814
G1 X60.615 Y-45.148 E24.88842
G1 X60.626 Y-45.878 E24.92485
G1 X60.669 Y-46.411 E24.95152
G1 X60.826 Y-47.13 E24.98824
G1 X61.09 Y-47.802 E25.02426
G1 X61.393 Y-48.325 E25.05442
G1 X61.499 Y-48.47 E25.06338
G1 X61.873 Y-48.93 E25.09296
G1 X62.455 Y-49.459 E25.13219
G1 X63.045 Y-49.836 E25.16712
G1 X63.703 Y-50.125 E25.20298
G1 X64.403 Y-50.309 E25.23909
G1 X65.129 Y-50.382 E25.27549
G1 X65.708 Y-50.394 E25.30438
G1 X68.152 Y-50.394 E25.42632
G1 X68.909 Y-50.382 E25.46409
G1 X69.449 Y-50.34 E25.49111
G1 X70.171 Y-50.183 E25.52797
G1 X70.842 Y-49.92 E25.56393
G1 X71.442 Y-49.568 E25.59863
G1 X71.998 Y-49.118 E25.63432
G1 X72.497 Y-48.558 E25.67174
G1 X72.877 Y-47.967 E25.70679
G1 X73.169 Y-47.301 E25.74307
G1 X73.349 Y-46.619 E25.77826
G1 X73.423 Y-45.885 E25.81507
G1 X73.436 Y-45.215 E25.8485
G1 X73.436 Y-41.848 E26.01648
G1 X73.475 Y-39.088 E26.15419
G1 X73.595 Y-36.269 E26.29496
G1 X73.791 Y-33.503 E26.4333
G1 X74.064 Y-30.744 E26.57162
G1 X74.415 Y-28.002 E26.70954
G1 X74.853 Y-25.215 E26.85029
G1 X75.359 Y-22.494 E26.98837
G1 X75.938 Y-19.801 E27.12579
