;FLAVOR:Marlin
;TIME:3212
;Filament used: 5.01847m
;Layer height: 0.24
;MINX:-81.594
;MINY:-74.654
;MINZ:0.3
;MAXX:87.401
;MAXY:78.767
;MAXZ:8
;Generated with Cura_SteamEngine 4.13.1
M140 S50
M105
M190 S50
M104 S210
M105
M109 S210
M82 ;absolute extrusion mode
;FLAVOR:Marlin
M82 ;absolute extrusion mode
G21
G90
M82
M107 T0
G28
G92 E0
G0 E3 F200
G92 E0 ; reset extrusion distance
M106 S255 ; Enable cooling fan full speed
G1 X-98 Y0 Z0.4 F3000 ; move to arc start
G3 X0 Y-98 I98 Z0.4 E40 F400 ; lay arc stripe 90deg
G92 E0 ; reset extrusion distance
G4 P500 ; wait for 0.5 sec
G0 Z10 E-1 ; Lift 15mm and retract 1mm filament
G4 P2000 ; wait for 5 sec
G0 Z15
M107 ; Disable cooling fan
G1 X0 Y-85 Z4 E0 F3000 ; get off the bed
G92 E0
G92 E0
G1 F1500 E-6.5
;LAYER_COUNT:12
;LAYER:0
M107
G0 F3600 X58.446 Y-1.306 Z0.3
;TYPE:SKIRT
G1 F1500 E0
G1 F2400 X58.344 Y-4.047 E0.13684
G1 X58.163 Y-6.78 E0.27349
G1 X57.9 Y-9.569 E0.41325
G1 X57.619 Y-11.817 E0.52628
G1 X57.616 Y-11.896 E0.53022
G1 X57.413 Y-13.454 E0.60861
G1 X57.309 Y-14.433 E0.65773
G1 X57.228 Y-15.446 E0.70843
G1 X57.176 Y-16.405 E0.75634
G1 X57.146 Y-17.394 E0.80571
G1 X57.142 Y-18.381 E0.85495
G1 X57.162 Y-19.345 E0.90305
G1 X57.208 Y-20.356 E0.95354
G1 X57.271 Y-21.266 E0.99905
G1 X57.373 Y-22.327 E1.05223
G1 X57.479 Y-23.208 E1.0965
G1 X57.63 Y-24.237 E1.14839
G1 X57.8 Y-25.222 E1.19826
G1 X57.982 Y-26.143 E1.24509
G1 X58.173 Y-27 E1.2889
G1 X58.312 Y-27.552 E1.3173
G1 X58.508 Y-28.117 E1.34713
G1 X58.716 Y-28.542 E1.37074
G1 X59.096 Y-29.067 E1.40307
G1 X59.416 Y-29.416 E1.4267
G1 X59.863 Y-29.764 E1.45496
G1 X60.434 Y-30.084 E1.48761
G1 X60.646 Y-30.172 E1.49907
G1 X61.265 Y-30.349 E1.53119
G1 X61.975 Y-30.422 E1.56679
G1 X65.371 Y-30.277 E1.73638
G1 X68.143 Y-30.238 E1.87469
G1 X71.181 Y-30.285 E2.02627
G1 X72.166 Y-30.315 E2.07543
G1 X72.643 Y-30.311 E2.09923
G1 X74.977 Y-30.244 E2.21572
G1 X77.717 Y-30.244 E2.35242
G1 X80.501 Y-30.322 E2.49137
G1 X82.011 Y-30.398 E2.5668
G1 X82.53 Y-30.416 E2.59271
G1 X82.822 Y-30.406 E2.60729
G1 X83.495 Y-30.3 E2.64128
G1 X83.691 Y-30.244 E2.65145
G1 X84.263 Y-30.01 E2.68228
G1 X84.866 Y-29.635 E2.71771
G1 X85.252 Y-29.286 E2.74367
G1 X85.566 Y-28.932 E2.76728
G1 X85.896 Y-28.401 E2.79847
G1 X86.133 Y-27.873 E2.82734
G1 X86.218 Y-27.591 E2.84204
G1 X86.388 Y-26.911 E2.877
G1 X86.569 Y-26.095 E2.9187
G1 X86.779 Y-25.018 E2.97345
G1 X86.922 Y-24.165 E3.0166
G1 X87.081 Y-23.063 E3.07215
G1 X87.18 Y-22.217 E3.11464
G1 X87.278 Y-21.163 E3.16745
G1 X87.342 Y-20.199 E3.21565
G1 X87.384 Y-19.244 E3.26334
G1 X87.401 Y-18.207 E3.31509
G1 X87.396 Y-17.407 E3.355
G1 X87.359 Y-16.233 E3.4136
G1 X87.312 Y-15.422 E3.45413
G1 X87.217 Y-14.267 E3.51195
G1 X87.128 Y-13.445 E3.5532
G1 X86.911 Y-11.804 E3.63578
G1 X86.582 Y-9.024 E3.77544
G1 X86.339 Y-6.299 E3.91193
G1 X86.169 Y-3.512 E4.05123
G1 X86.081 Y-.822 E4.18551
G1 X86.069 Y1.955 E4.32406
G1 X86.134 Y4.692 E4.46064
G1 X86.277 Y7.431 E4.59748
G1 X86.499 Y10.186 E4.73537
G1 X86.682 Y11.941 E4.82341
G1 X86.75 Y12.546 E4.85378
G1 X86.795 Y13.159 E4.88444
G1 X86.801 Y13.289 E4.89094
G1 X86.813 Y13.825 E4.91768
G1 X86.813 Y13.951 E4.92397
G1 X86.801 Y14.48 E4.95037
G1 X86.796 Y14.604 E4.95656
G1 X86.761 Y15.127 E4.98271
G1 X86.75 Y15.251 E4.98892
G1 X86.692 Y15.77 E5.01498
G1 X86.676 Y15.888 E5.02092
G1 X86.595 Y16.41 E5.04727
G1 X86.573 Y16.534 E5.05355
G1 X86.473 Y17.03 E5.0788
G1 X86.441 Y17.168 E5.08587
G1 X86.3 Y17.722 E5.11439
G1 X86.137 Y18.279 E5.14334
G1 X86.099 Y18.399 E5.14962
G1 X85.916 Y18.927 E5.1775
G1 X85.87 Y19.048 E5.18396
G1 X85.676 Y19.534 E5.21006
G1 X85.628 Y19.649 E5.21628
G1 X85.422 Y20.105 E5.24125
G1 X85.367 Y20.219 E5.24756
G1 X85.125 Y20.696 E5.27425
G1 X85.067 Y20.804 E5.28036
G1 X84.801 Y21.276 E5.30739
G1 X84.742 Y21.376 E5.31318
G1 X84.473 Y21.81 E5.33866
G1 X84.395 Y21.929 E5.34576
G1 X84.098 Y22.358 E5.37179
G1 X84.03 Y22.452 E5.37758
G1 X83.709 Y22.877 E5.40415
G1 X83.631 Y22.976 E5.41044
G1 X83.306 Y23.368 E5.43584
G1 X82.851 Y23.873 E5.46975
G1 X82.413 Y24.319 E5.50094
G1 X82.326 Y24.404 E5.50701
G1 X81.956 Y24.746 E5.53215
G1 X81.856 Y24.834 E5.53879
G1 X81.424 Y25.197 E5.56694
G1 X81.334 Y25.27 E5.57272
G1 X80.931 Y25.581 E5.59812
G1 X80.825 Y25.658 E5.60466
G1 X80.402 Y25.954 E5.63041
G1 X80.299 Y26.023 E5.6366
G1 X79.849 Y26.309 E5.6632
G1 X79.74 Y26.375 E5.66956
G1 X79.285 Y26.636 E5.69573
G1 X79.182 Y26.692 E5.70158
G1 X78.706 Y26.939 E5.72833
G1 X78.13 Y27.207 E5.76003
G1 X78.025 Y27.252 E5.76572
G1 X77.517 Y27.46 E5.79311
G1 X76.938 Y27.671 E5.82386
G1 X76.814 Y27.712 E5.83037
G1 X76.273 Y27.878 E5.8586
G1 X75.679 Y28.035 E5.88926
G1 X75.554 Y28.064 E5.89566
G1 X75.034 Y28.174 E5.92218
G1 X74.913 Y28.197 E5.92832
G1 X74.382 Y28.285 E5.95517
G1 X74.259 Y28.303 E5.96138
G1 X73.745 Y28.365 E5.9872
G1 X73.619 Y28.377 E5.99352
G1 X73.099 Y28.416 E6.01954
G1 X72.978 Y28.423 E6.02558
G1 X72.467 Y28.439 E6.05109
G1 X72.343 Y28.44 E6.05728
G1 X71.806 Y28.433 E6.08407
G1 X71.671 Y28.428 E6.09081
G1 X71.147 Y28.396 E6.117
G1 X71.03 Y28.386 E6.12286
G1 X70.527 Y28.334 E6.14809
G1 X70.399 Y28.318 E6.15452
G1 X69.866 Y28.238 E6.18141
G1 X69.749 Y28.218 E6.18733
G1 X69.233 Y28.118 E6.21356
G1 X69.104 Y28.09 E6.22014
G1 X68.574 Y27.961 E6.24735
G1 X67.986 Y27.794 E6.27785
G1 X67.862 Y27.755 E6.28434
G1 X67.354 Y27.583 E6.31109
G1 X67.234 Y27.539 E6.31747
G1 X66.75 Y27.35 E6.34339
G1 X66.636 Y27.303 E6.34954
G1 X66.152 Y27.089 E6.37595
G1 X66.04 Y27.037 E6.38211
G1 X65.564 Y26.801 E6.40861
G1 X65.455 Y26.744 E6.41475
G1 X65.011 Y26.499 E6.44005
G1 X64.891 Y26.428 E6.44701
G1 X64.448 Y26.154 E6.47299
G1 X64.361 Y26.098 E6.47815
G1 X63.914 Y25.798 E6.50501
G1 X63.803 Y25.719 E6.51181
G1 X63.381 Y25.405 E6.53805
G1 X63.282 Y25.329 E6.54428
G1 X62.87 Y24.993 E6.5708
G1 X62.775 Y24.911 E6.57706
G1 X62.4 Y24.576 E6.60215
G1 X62.304 Y24.487 E6.60868
G1 X61.935 Y24.125 E6.63447
G1 X61.857 Y24.045 E6.64005
G1 X61.47 Y23.634 E6.66821
G1 X61.069 Y23.169 E6.69884
G1 X60.992 Y23.076 E6.70487
G1 X60.653 Y22.643 E6.7323
G1 X60.578 Y22.542 E6.73858
G1 X60.273 Y22.114 E6.7648
G1 X60.203 Y22.011 E6.77101
G1 X59.922 Y21.577 E6.79681
G1 X59.854 Y21.466 E6.8033
G1 X59.599 Y21.029 E6.82854
G1 X59.54 Y20.923 E6.8346
G1 X59.276 Y20.422 E6.86285
G1 X59.222 Y20.314 E6.86887
G1 X59.005 Y19.855 E6.8942
G1 X58.952 Y19.737 E6.90066
G1 X58.747 Y19.246 E6.9272
G1 X58.533 Y18.67 E6.95786
G1 X58.491 Y18.547 E6.96434
G1 X58.327 Y18.026 E6.99159
G1 X58.292 Y17.905 E6.99788
G1 X58.155 Y17.39 E7.02446
G1 X58.128 Y17.278 E7.03021
G1 X58.017 Y16.779 E7.05571
G1 X57.991 Y16.65 E7.06228
G1 X57.903 Y16.143 E7.08795
G1 X57.885 Y16.019 E7.0942
G1 X57.816 Y15.479 E7.12136
G1 X57.803 Y15.359 E7.12739
G1 X57.759 Y14.837 E7.15352
G1 X57.751 Y14.708 E7.15997
G1 X57.732 Y14.206 E7.18503
G1 X57.73 Y14.084 E7.19112
G1 X57.733 Y13.556 E7.21746
G1 X57.736 Y13.433 E7.2236
G1 X57.763 Y12.888 E7.25082
G1 X57.773 Y12.756 E7.25743
G1 X57.908 Y11.368 E7.327
G1 X58.083 Y9.687 E7.41132
G1 X58.291 Y6.946 E7.54846
G1 X58.422 Y4.158 E7.68771
G1 X58.473 Y1.461 E7.82229
G1 X58.446 Y-1.306 E7.96034
G0 F3600 X58.846 Y-1.325
G1 F2400 X58.745 Y-4.036 E8.09569
G1 X58.559 Y-6.857 E8.23673
G1 X58.306 Y-9.535 E8.37093
G1 X58.015 Y-11.867 E8.48818
G1 X58.013 Y-11.943 E8.49197
G1 X57.811 Y-13.497 E8.57015
G1 X57.708 Y-14.465 E8.61872
G1 X57.628 Y-15.468 E8.66892
G1 X57.576 Y-16.418 E8.71639
G1 X57.546 Y-17.396 E8.7652
G1 X57.541 Y-18.373 E8.81395
G1 X57.561 Y-19.328 E8.8616
G1 X57.603 Y-20.272 E8.90874
G1 X57.669 Y-21.228 E8.95655
G1 X57.77 Y-22.279 E9.00923
G1 X57.875 Y-23.15 E9.053
G1 X58.024 Y-24.169 E9.10438
G1 X58.192 Y-25.145 E9.15378
G1 X58.372 Y-26.056 E9.20011
G1 X58.579 Y-26.98 E9.24735
G1 X58.788 Y-27.732 E9.28629
G1 X59.076 Y-28.364 E9.32094
G1 X59.413 Y-28.823 E9.34935
G1 X59.905 Y-29.301 E9.38358
G1 X60.098 Y-29.441 E9.39547
G1 X60.587 Y-29.715 E9.42344
G1 X60.799 Y-29.803 E9.43489
G1 X61.33 Y-29.954 E9.46243
G1 X61.969 Y-30.022 E9.49449
G1 X65.383 Y-29.877 E9.66497
G1 X68.143 Y-29.838 E9.80268
G1 X71.199 Y-29.885 E9.95516
G1 X72.178 Y-29.915 E10.00403
G1 X72.632 Y-29.911 E10.02668
G1 X74.966 Y-29.844 E10.14317
G1 X77.728 Y-29.844 E10.28097
G1 X80.488 Y-29.921 E10.41872
G1 X82.052 Y-30 E10.49685
G1 X82.808 Y-30.007 E10.53456
G1 X83.385 Y-29.916 E10.56371
G1 X83.581 Y-29.86 E10.57388
G1 X84.071 Y-29.659 E10.6003
G1 X84.28 Y-29.545 E10.61218
G1 X84.783 Y-29.179 E10.64321
G1 X85.265 Y-28.666 E10.67833
G1 X85.55 Y-28.201 E10.70554
G1 X85.782 Y-27.663 E10.73477
G1 X85.83 Y-27.494 E10.74353
G1 X85.997 Y-26.823 E10.77803
G1 X86.176 Y-26.018 E10.81917
G1 X86.384 Y-24.951 E10.87341
G1 X86.526 Y-24.108 E10.91606
G1 X86.683 Y-23.016 E10.9711
G1 X86.782 Y-22.18 E11.0131
G1 X86.874 Y-21.197 E11.06236
G1 X86.943 Y-20.181 E11.11316
G1 X86.984 Y-19.237 E11.1603
G1 X87.001 Y-18.209 E11.2116
G1 X86.996 Y-17.419 E11.25101
G1 X86.959 Y-16.255 E11.30911
G1 X86.913 Y-15.455 E11.34909
G1 X86.819 Y-14.31 E11.40641
G1 X86.731 Y-13.497 E11.4472
G1 X86.509 Y-11.818 E11.5317
G1 X86.185 Y-9.074 E11.66955
G1 X85.942 Y-6.36 E11.80549
G1 X85.772 Y-3.564 E11.94524
G1 X85.681 Y-.802 E12.08311
G1 X85.669 Y1.962 E12.22101
G1 X85.733 Y4.674 E12.35635
G1 X85.88 Y7.485 E12.49678
G1 X86.101 Y10.219 E12.63363
G1 X86.282 Y11.962 E12.72106
G1 X86.353 Y12.591 E12.75264
G1 X86.396 Y13.187 E12.78245
G1 X86.401 Y13.298 E12.78799
G1 X86.413 Y13.834 E12.81474
G1 X86.413 Y13.942 E12.82013
G1 X86.397 Y14.577 E12.85182
G1 X86.362 Y15.1 E12.87797
G1 X86.352 Y15.207 E12.88333
G1 X86.294 Y15.726 E12.90938
G1 X86.281 Y15.827 E12.91446
G1 X86.2 Y16.349 E12.94082
G1 X86.181 Y16.455 E12.94619
G1 X86.081 Y16.951 E12.97143
G1 X86.054 Y17.069 E12.97747
G1 X85.888 Y17.715 E13.01075
G1 X85.721 Y18.268 E13.03957
G1 X85.538 Y18.796 E13.06745
G1 X85.499 Y18.9 E13.07299
G1 X85.305 Y19.386 E13.0991
G1 X85.263 Y19.484 E13.10442
G1 X85.057 Y19.94 E13.12938
G1 X85.01 Y20.038 E13.1348
G1 X84.768 Y20.515 E13.16149
G1 X84.719 Y20.607 E13.16669
G1 X84.453 Y21.079 E13.19372
G1 X84.402 Y21.165 E13.19871
G1 X84.133 Y21.599 E13.22418
G1 X84.066 Y21.701 E13.23027
G1 X83.769 Y22.13 E13.2563
G1 X83.711 Y22.21 E13.26123
G1 X83.323 Y22.721 E13.29324
G1 X82.998 Y23.113 E13.31865
G1 X82.929 Y23.192 E13.32388
G1 X82.555 Y23.605 E13.35168
G1 X82.129 Y24.038 E13.38198
G1 X82.054 Y24.11 E13.38717
G1 X81.684 Y24.452 E13.4123
G1 X81.599 Y24.527 E13.41796
G1 X81.167 Y24.89 E13.44611
G1 X81.089 Y24.953 E13.45111
G1 X80.686 Y25.264 E13.47651
G1 X80.596 Y25.33 E13.48208
G1 X80.173 Y25.626 E13.50784
G1 X80.084 Y25.686 E13.51319
G1 X79.634 Y25.972 E13.53979
G1 X79.541 Y26.028 E13.54521
G1 X79.086 Y26.289 E13.57138
G1 X78.521 Y26.584 E13.60318
G1 X77.963 Y26.843 E13.63387
G1 X77.873 Y26.882 E13.63876
G1 X77.365 Y27.09 E13.66615
G1 X76.803 Y27.294 E13.69598
G1 X76.697 Y27.329 E13.70155
G1 X76.056 Y27.524 E13.73497
G1 X75.472 Y27.673 E13.76504
G1 X74.952 Y27.783 E13.79156
G1 X74.847 Y27.803 E13.79689
G1 X74.316 Y27.891 E13.82374
G1 X74.211 Y27.906 E13.82904
G1 X73.697 Y27.968 E13.85486
G1 X73.589 Y27.978 E13.86028
G1 X73.069 Y28.017 E13.88629
G1 X72.965 Y28.023 E13.89149
G1 X72.454 Y28.039 E13.917
G1 X72.348 Y28.04 E13.92228
G1 X71.811 Y28.033 E13.94908
G1 X71.696 Y28.029 E13.95482
G1 X71.172 Y27.997 E13.98101
G1 X70.568 Y27.936 E14.0113
G1 X70.459 Y27.922 E14.01678
G1 X69.926 Y27.842 E14.04367
G1 X69.825 Y27.825 E14.04878
G1 X69.309 Y27.725 E14.075
G1 X69.198 Y27.701 E14.08067
G1 X68.668 Y27.572 E14.10788
G1 X68.096 Y27.409 E14.13755
G1 X67.99 Y27.376 E14.14309
G1 X67.482 Y27.204 E14.16985
G1 X67.379 Y27.167 E14.17531
G1 X66.895 Y26.978 E14.20123
G1 X66.797 Y26.937 E14.20653
G1 X66.313 Y26.723 E14.23293
G1 X66.218 Y26.678 E14.23818
G1 X65.742 Y26.442 E14.26468
G1 X65.648 Y26.393 E14.26997
G1 X65.204 Y26.148 E14.29527
G1 X65.102 Y26.088 E14.30118
G1 X64.584 Y25.766 E14.33161
G1 X64.137 Y25.466 E14.35846
G1 X64.041 Y25.398 E14.36433
G1 X63.619 Y25.084 E14.39058
G1 X63.535 Y25.019 E14.39587
G1 X63.123 Y24.683 E14.4224
G1 X63.041 Y24.613 E14.42778
G1 X62.666 Y24.278 E14.45286
G1 X62.584 Y24.201 E14.45848
G1 X62.215 Y23.839 E14.48427
G1 X61.762 Y23.36 E14.51716
G1 X61.373 Y22.909 E14.54687
G1 X61.307 Y22.829 E14.55204
G1 X60.968 Y22.396 E14.57948
G1 X60.903 Y22.31 E14.58486
G1 X60.598 Y21.882 E14.61108
G1 X60.538 Y21.793 E14.61643
G1 X60.257 Y21.359 E14.64223
G1 X60.199 Y21.265 E14.64774
G1 X59.944 Y20.828 E14.67298
G1 X59.894 Y20.737 E14.67816
G1 X59.63 Y20.236 E14.70641
G1 X59.583 Y20.143 E14.71161
G1 X59.366 Y19.684 E14.73694
G1 X59.321 Y19.583 E14.74246
G1 X59.116 Y19.092 E14.769
G1 X58.909 Y18.532 E14.79879
G1 X58.873 Y18.427 E14.80433
G1 X58.709 Y17.906 E14.83158
G1 X58.679 Y17.802 E14.83698
G1 X58.518 Y17.191 E14.8685
G1 X58.407 Y16.692 E14.89401
G1 X58.385 Y16.581 E14.89965
G1 X58.297 Y16.074 E14.92532
G1 X58.281 Y15.968 E14.93067
G1 X58.212 Y15.428 E14.95783
G1 X58.201 Y15.326 E14.96295
G1 X58.157 Y14.804 E14.98909
G1 X58.151 Y14.693 E14.99463
G1 X58.132 Y14.191 E15.01969
G1 X58.13 Y14.086 E15.02493
G1 X58.133 Y13.558 E15.05128
G1 X58.136 Y13.453 E15.05652
G1 X58.163 Y12.908 E15.08374
G1 X58.171 Y12.795 E15.08939
G1 X58.306 Y11.409 E15.15887
G1 X58.481 Y9.722 E15.24348
G1 X58.691 Y6.959 E15.38173
G1 X58.819 Y4.238 E15.51763
G1 X58.873 Y1.438 E15.65735
G1 X58.846 Y-1.325 E15.7952
G0 F3600 X59.247 Y-1.291
G1 F2400 X59.142 Y-4.092 E15.93504
G1 X58.958 Y-6.883 E16.07459
G1 X58.703 Y-9.584 E16.20994
G1 X58.412 Y-11.916 E16.32719
G1 X58.41 Y-11.987 E16.33073
G1 X58.208 Y-13.539 E16.40881
G1 X58.106 Y-14.497 E16.45688
G1 X58.027 Y-15.49 E16.50657
G1 X57.976 Y-16.431 E16.55359
G1 X57.946 Y-17.398 E16.60186
G1 X57.941 Y-18.365 E16.6501
G1 X57.961 Y-19.31 E16.69726
G1 X58.006 Y-20.301 E16.74675
G1 X58.067 Y-21.19 E16.79121
G1 X58.167 Y-22.232 E16.84343
G1 X58.271 Y-23.093 E16.8867
G1 X58.419 Y-24.102 E16.93758
G1 X58.585 Y-25.067 E16.98643
G1 X58.763 Y-25.969 E17.0323
G1 X58.967 Y-26.882 E17.07897
G1 X59.161 Y-27.588 E17.1155
G1 X59.254 Y-27.828 E17.12834
G1 X59.535 Y-28.326 E17.15687
G1 X59.73 Y-28.579 E17.1728
G1 X60.14 Y-28.977 E17.20131
G1 X60.74 Y-29.345 E17.23643
G1 X61.395 Y-29.56 E17.27082
G1 X61.964 Y-29.622 E17.29938
G1 X65.361 Y-29.477 E17.46901
G1 X68.143 Y-29.437 E17.60782
G1 X71.214 Y-29.485 E17.76105
G1 X72.19 Y-29.515 E17.80976
G1 X72.62 Y-29.511 E17.83122
G1 X74.954 Y-29.444 E17.94771
G1 X77.739 Y-29.444 E18.08665
G1 X80.519 Y-29.522 E18.2254
G1 X82.058 Y-29.6 E18.30228
G1 X82.794 Y-29.607 E18.339
G1 X83.471 Y-29.475 E18.37341
G1 X84.089 Y-29.194 E18.40728
G1 X84.507 Y-28.889 E18.4331
G1 X84.701 Y-28.705 E18.44644
G1 X85.055 Y-28.257 E18.47493
G1 X85.374 Y-27.623 E18.51033
G1 X85.442 Y-27.397 E18.52211
G1 X85.607 Y-26.736 E18.5561
G1 X85.784 Y-25.941 E18.59673
G1 X85.99 Y-24.884 E18.65046
G1 X86.13 Y-24.051 E18.6926
G1 X86.286 Y-22.969 E18.74714
G1 X86.383 Y-22.142 E18.78868
G1 X86.479 Y-21.109 E18.84044
G1 X86.543 Y-20.164 E18.88769
G1 X86.584 Y-19.23 E18.93434
G1 X86.601 Y-18.211 E18.98518
G1 X86.596 Y-17.431 E19.0241
G1 X86.56 Y-16.278 E19.08165
G1 X86.514 Y-15.487 E19.12118
G1 X86.422 Y-14.352 E19.17799
G1 X86.335 Y-13.55 E19.21824
G1 X86.113 Y-11.871 E19.30273
G1 X85.788 Y-9.12 E19.44093
G1 X85.54 Y-6.349 E19.57973
G1 X85.373 Y-3.616 E19.71634
G1 X85.281 Y-.816 E19.8561
G1 X85.269 Y1.981 E19.99565
G1 X85.334 Y4.717 E20.13219
G1 X85.478 Y7.464 E20.26942
G1 X85.705 Y10.282 E20.41047
G1 X85.884 Y12.007 E20.49699
G1 X85.955 Y12.636 E20.52857
G1 X85.997 Y13.214 E20.55748
G1 X86.001 Y13.307 E20.56213
G1 X86.013 Y13.843 E20.58888
G1 X86.013 Y13.933 E20.59337
G1 X85.998 Y14.551 E20.62421
G1 X85.963 Y15.074 E20.65036
