;FLAVOR:Marlin
;TIME:2210
;Filament used: 3.56769m
;Layer height: 0.24
;MINX:-79.266
;MINY:-79.881
;MINZ:0.3
;MAXX:88.538
;MAXY:90.478
;MAXZ:7.4
;Generated with Cura_SteamEngine 4.13.1
M140 S50
M105
M190 S50
M104 S210
M105
M109 S210
M82 ;absolute extrusion mode
;FLAVOR:Marlin
M82 ;absolute extrusion mode
G21
G90
M82
M107 T0
G28
G92 E0
G0 E3 F200
G92 E0 ; reset extrusion distance
M106 S255 ; Enable cooling fan full speed
G1 X-98 Y0 Z0.4 F3000 ; move to arc start
G3 X0 Y-98 I98 Z0.4 E40 F400 ; lay arc stripe 90deg
G92 E0 ; reset extrusion distance
G4 P500 ; wait for 0.5 sec
G0 Z10 E-1 ; Lift 15mm and retract 1mm filament
G4 P2000 ; wait for 5 sec
G0 Z15
M107 ; Disable cooling fan
G1 X0 Y-85 Z4 E0 F3000 ; get off the bed
G92 E0
G92 E0
G1 F1500 E-6.5
;LAYER_COUNT:10
;LAYER:0
M107
G0 F3600 X-24.578 Y38.119 Z0.3
;TYPE:SKIRT
G1 F1500 E0
G1 F2400 X-23.931 Y38.532 E0.03829
G1 X-23.778 Y38.637 E0.04755
G1 X-23.138 Y39.108 E0.0872
G1 X-22.985 Y39.229 E0.09693
G1 X-22.373 Y39.749 E0.13699
G1 X-22.233 Y39.877 E0.14646
G1 X-21.7 Y40.396 E0.18357
G1 X-21.57 Y40.531 E0.19292
G1 X-21.015 Y41.149 E0.23436
G1 X-20.892 Y41.296 E0.24393
G1 X-20.416 Y41.905 E0.28249
G1 X-20.306 Y42.055 E0.29177
G1 X-19.86 Y42.711 E0.33135
G1 X-19.755 Y42.877 E0.34115
G1 X-19.359 Y43.558 E0.38045
G1 X-19.271 Y43.722 E0.38973
G1 X-18.916 Y44.438 E0.4296
G1 X-18.839 Y44.608 E0.43891
G1 X-18.547 Y45.311 E0.47689
G1 X-18.479 Y45.492 E0.48654
G1 X-18.231 Y46.229 E0.52533
G1 X-18.177 Y46.409 E0.53471
G1 X-17.963 Y47.222 E0.57665
G1 X-17.92 Y47.412 E0.58637
G1 X-17.78 Y48.148 E0.62375
G1 X-17.752 Y48.33 E0.63293
G1 X-17.654 Y49.128 E0.67305
G1 X-17.637 Y49.325 E0.68291
G1 X-17.593 Y50.18 E0.72562
G1 X-17.592 Y50.444 E0.73879
G1 X-17.638 Y51.515 E0.79228
G1 X-17.644 Y51.617 E0.79737
G1 X-17.69 Y52.195 E0.8263
G1 X-17.778 Y52.787 E0.85616
G1 X-17.874 Y53.287 E0.88156
G1 X-18.01 Y53.943 E0.91499
G1 X-18.127 Y54.398 E0.93842
G1 X-18.557 Y55.88 E1.01541
G1 X-19.246 Y58.532 E1.15211
G1 X-19.874 Y61.26 E1.29177
G1 X-20.404 Y63.92 E1.42709
G1 X-20.867 Y66.637 E1.56459
G1 X-21.252 Y69.349 E1.70125
G1 X-21.56 Y72.075 E1.83812
G1 X-21.793 Y74.812 E1.97516
G1 X-21.947 Y77.577 E2.11332
G1 X-22.024 Y80.283 E2.24838
G1 X-22.035 Y80.851 E2.27672
G1 X-22.07 Y81.39 E2.30367
G1 X-22.158 Y82.092 E2.33897
G1 X-22.272 Y82.672 E2.36846
G1 X-22.493 Y83.491 E2.41078
G1 X-22.792 Y84.31 E2.45428
G1 X-23.144 Y85.07 E2.49606
G1 X-23.385 Y85.51 E2.52109
G1 X-23.657 Y85.95 E2.5469
G1 X-24.101 Y86.575 E2.58515
G1 X-24.655 Y87.234 E2.6281
G1 X-25.285 Y87.863 E2.67252
G1 X-25.898 Y88.38 E2.71252
G1 X-26.311 Y88.684 E2.73811
G1 X-26.774 Y88.988 E2.76574
G1 X-27.411 Y89.347 E2.80222
G1 X-27.881 Y89.581 E2.82841
G1 X-28.483 Y89.83 E2.86092
G1 X-29.022 Y90.014 E2.88933
G1 X-29.876 Y90.243 E2.93344
G1 X-30.732 Y90.393 E2.9768
G1 X-31.545 Y90.467 E3.01753
G1 X-32.051 Y90.478 E3.04278
G1 X-32.578 Y90.462 E3.06908
G1 X-33.296 Y90.397 E3.10505
G1 X-33.808 Y90.318 E3.1309
G1 X-34.498 Y90.168 E3.16612
G1 X-35.018 Y90.018 E3.19312
G1 X-35.508 Y89.852 E3.21893
G1 X-36.179 Y89.575 E3.25515
G1 X-36.698 Y89.318 E3.28405
G1 X-37.424 Y88.893 E3.32602
G1 X-38.117 Y88.406 E3.36827
G1 X-38.508 Y88.093 E3.39326
G1 X-39.005 Y87.639 E3.42684
G1 X-39.404 Y87.225 E3.45553
G1 X-39.971 Y86.546 E3.49966
G1 X-40.472 Y85.826 E3.54342
G1 X-40.869 Y85.14 E3.58297
G1 X-41.095 Y84.683 E3.6084
G1 X-41.319 Y84.16 E3.63679
G1 X-41.541 Y83.539 E3.66969
G1 X-41.693 Y83.022 E3.69657
G1 X-41.851 Y82.323 E3.73233
G1 X-41.931 Y81.816 E3.75793
G1 X-41.988 Y81.294 E3.78413
G1 X-42.014 Y80.835 E3.80707
G1 X-42.062 Y79.157 E3.89082
G1 X-42.084 Y78.268 E3.93518
G1 X-42.222 Y75.483 E4.0743
G1 X-42.439 Y72.702 E4.21347
G1 X-42.725 Y70.023 E4.34788
G1 X-43.097 Y67.272 E4.48638
G1 X-43.54 Y64.575 E4.62273
G1 X-44.062 Y61.872 E4.76008
G1 X-44.655 Y59.214 E4.89595
G1 X-45.336 Y56.513 E5.03492
G1 X-45.821 Y54.768 E5.12528
G1 X-45.978 Y54.185 E5.1554
G1 X-46.148 Y53.47 E5.19206
G1 X-46.186 Y53.28 E5.20173
G1 X-46.33 Y52.412 E5.24563
G1 X-46.355 Y52.221 E5.25524
G1 X-46.424 Y51.501 E5.29132
G1 X-46.436 Y51.314 E5.30067
G1 X-46.459 Y50.505 E5.34105
G1 X-46.458 Y50.319 E5.35033
G1 X-46.428 Y49.529 E5.38977
G1 X-46.414 Y49.336 E5.39943
G1 X-46.331 Y48.562 E5.43826
G1 X-46.305 Y48.379 E5.44748
G1 X-46.17 Y47.607 E5.48658
G1 X-46.129 Y47.413 E5.49648
G1 X-45.926 Y46.597 E5.53843
G1 X-45.877 Y46.423 E5.54745
G1 X-45.659 Y45.739 E5.58326
G1 X-45.593 Y45.556 E5.59297
G1 X-45.294 Y44.803 E5.63339
G1 X-45.22 Y44.632 E5.64268
G1 X-44.871 Y43.899 E5.68319
G1 X-44.781 Y43.727 E5.69287
G1 X-44.404 Y43.059 E5.73114
G1 X-44.307 Y42.9 E5.74043
G1 X-43.865 Y42.226 E5.78064
G1 X-43.756 Y42.07 E5.79014
G1 X-43.306 Y41.476 E5.82732
G1 X-43.186 Y41.329 E5.83678
G1 X-42.628 Y40.688 E5.87918
G1 X-42.498 Y40.548 E5.88871
G1 X-41.961 Y40.01 E5.92664
G1 X-41.819 Y39.877 E5.93634
G1 X-41.234 Y39.367 E5.97506
G1 X-41.094 Y39.253 E5.98407
G1 X-40.459 Y38.768 E6.02394
G1 X-40.3 Y38.655 E6.03367
G1 X-39.657 Y38.231 E6.07209
G1 X-39.498 Y38.134 E6.08139
G1 X-38.777 Y37.725 E6.12274
G1 X-38.606 Y37.635 E6.13238
G1 X-37.941 Y37.316 E6.16918
G1 X-37.77 Y37.241 E6.17849
G1 X-36.988 Y36.928 E6.22052
G1 X-36.807 Y36.863 E6.23011
G1 X-36.09 Y36.632 E6.26769
G1 X-35.909 Y36.58 E6.27709
G1 X-35.14 Y36.388 E6.31663
G1 X-34.953 Y36.348 E6.32617
G1 X-34.145 Y36.204 E6.36712
G1 X-33.96 Y36.178 E6.37644
G1 X-33.223 Y36.097 E6.41343
G1 X-33.033 Y36.082 E6.42294
G1 X-32.238 Y36.049 E6.46264
G1 X-32.049 Y36.048 E6.47206
G1 X-31.246 Y36.069 E6.51214
G1 X-31.055 Y36.081 E6.52169
G1 X-30.254 Y36.157 E6.56183
G1 X-30.069 Y36.18 E6.57113
G1 X-29.348 Y36.297 E6.60757
G1 X-29.158 Y36.335 E6.61724
G1 X-28.334 Y36.528 E6.65946
G1 X-28.15 Y36.578 E6.66897
G1 X-27.431 Y36.799 E6.7065
G1 X-27.252 Y36.86 E6.71594
G1 X-26.485 Y37.154 E6.75692
G1 X-26.312 Y37.227 E6.76628
G1 X-25.624 Y37.545 E6.8041
G1 X-25.451 Y37.633 E6.81378
G1 X-24.737 Y38.025 E6.85442
G1 X-24.578 Y38.119 E6.86363
G0 F3600 X-24.794 Y38.456
G1 F2400 X-24.147 Y38.869 E6.90193
G1 X-24.015 Y38.959 E6.9099
G1 X-23.375 Y39.43 E6.94954
G1 X-23.244 Y39.534 E6.95789
G1 X-22.632 Y40.054 E6.99795
G1 X-22.512 Y40.164 E7.00608
G1 X-21.979 Y40.683 E7.04319
G1 X-21.867 Y40.798 E7.0512
G1 X-21.312 Y41.416 E7.09264
G1 X-21.207 Y41.542 E7.10082
G1 X-20.731 Y42.151 E7.13939
G1 X-20.637 Y42.28 E7.14735
G1 X-20.191 Y42.936 E7.18692
G1 X-20.101 Y43.079 E7.19535
G1 X-19.705 Y43.76 E7.23466
G1 X-19.63 Y43.9 E7.24258
G1 X-19.275 Y44.616 E7.28245
G1 X-19.209 Y44.761 E7.2904
G1 X-18.917 Y45.464 E7.32838
G1 X-18.858 Y45.62 E7.3367
G1 X-18.61 Y46.357 E7.37549
G1 X-18.564 Y46.511 E7.38351
G1 X-18.35 Y47.324 E7.42545
G1 X-18.313 Y47.487 E7.43379
G1 X-18.173 Y48.223 E7.47117
G1 X-18.149 Y48.378 E7.479
G1 X-18.051 Y49.176 E7.51911
G1 X-18.036 Y49.346 E7.52762
G1 X-17.992 Y50.201 E7.57033
G1 X-17.991 Y50.427 E7.58161
G1 X-18.037 Y51.498 E7.63509
G1 X-18.089 Y52.163 E7.66837
G1 X-18.173 Y52.722 E7.69657
G1 X-18.266 Y53.206 E7.72116
G1 X-18.402 Y53.862 E7.75458
G1 X-18.511 Y54.287 E7.77647
G1 X-18.945 Y55.783 E7.85419
G1 X-19.637 Y58.447 E7.9915
G1 X-20.261 Y61.158 E8.13029
G1 X-20.797 Y63.846 E8.26704
G1 X-21.267 Y66.602 E8.40652
G1 X-21.647 Y69.284 E8.54166
G1 X-21.963 Y72.079 E8.68199
G1 X-22.193 Y74.79 E8.81773
G1 X-22.347 Y77.544 E8.95534
G1 X-22.423 Y80.239 E9.08985
G1 X-22.434 Y80.828 E9.11924
G1 X-22.468 Y81.345 E9.14509
G1 X-22.554 Y82.034 E9.17973
G1 X-22.664 Y82.592 E9.20811
G1 X-22.876 Y83.377 E9.24867
G1 X-23.164 Y84.162 E9.29039
G1 X-23.502 Y84.891 E9.33048
G1 X-23.956 Y85.674 E9.37563
G1 X-24.422 Y86.336 E9.41602
G1 X-24.954 Y86.969 E9.45728
G1 X-25.56 Y87.572 E9.49993
G1 X-26.148 Y88.067 E9.53827
G1 X-26.91 Y88.6 E9.58467
G1 X-27.601 Y88.995 E9.62438
G1 X-28.328 Y89.337 E9.66446
G1 X-29.148 Y89.635 E9.70799
G1 X-29.969 Y89.854 E9.75038
G1 X-30.79 Y89.998 E9.79196
G1 X-31.57 Y90.067 E9.83103
G1 X-32.477 Y90.066 E9.87628
G1 X-33.25 Y90 E9.91499
G1 X-34.114 Y89.847 E9.95876
G1 X-34.904 Y89.634 E9.99958
G1 X-35.704 Y89.344 E10.04204
G1 X-36.433 Y89.005 E10.08215
G1 X-37.215 Y88.552 E10.12723
G1 X-37.878 Y88.085 E10.16769
G1 X-38.493 Y87.569 E10.20775
G1 X-39.114 Y86.95 E10.25149
G1 X-39.657 Y86.298 E10.29382
G1 X-40.138 Y85.606 E10.33587
G1 X-40.516 Y84.95 E10.37364
G1 X-40.916 Y84.089 E10.421
G1 X-41.161 Y83.413 E10.45688
G1 X-41.304 Y82.929 E10.48205
G1 X-41.46 Y82.242 E10.5172
G1 X-41.544 Y81.691 E10.54501
G1 X-41.611 Y80.894 E10.58491
G1 X-41.662 Y79.147 E10.67211
G1 X-41.685 Y78.227 E10.71802
G1 X-41.822 Y75.468 E10.85584
G1 X-42.04 Y72.671 E10.9958
G1 X-42.329 Y69.964 E11.13162
G1 X-42.699 Y67.225 E11.26951
G1 X-43.147 Y64.5 E11.40729
G1 X-43.672 Y61.781 E11.54545
G1 X-44.262 Y59.135 E11.6807
G1 X-44.942 Y56.44 E11.81937
G1 X-45.435 Y54.663 E11.91137
G1 X-45.589 Y54.092 E11.94087
G1 X-45.759 Y53.377 E11.97754
G1 X-45.792 Y53.215 E11.98579
G1 X-45.936 Y52.347 E12.02969
G1 X-45.957 Y52.183 E12.03793
G1 X-46.026 Y51.463 E12.07402
G1 X-46.036 Y51.302 E12.08207
G1 X-46.059 Y50.493 E12.12244
G1 X-46.058 Y50.334 E12.13038
G1 X-46.028 Y49.544 E12.16982
G1 X-46.016 Y49.379 E12.17807
G1 X-45.933 Y48.605 E12.21691
G1 X-45.911 Y48.448 E12.22482
G1 X-45.776 Y47.676 E12.26392
G1 X-45.741 Y47.51 E12.27238
G1 X-45.538 Y46.694 E12.31433
G1 X-45.496 Y46.544 E12.3221
G1 X-45.278 Y45.86 E12.35792
G1 X-45.222 Y45.703 E12.36624
G1 X-44.923 Y44.95 E12.40666
G1 X-44.859 Y44.804 E12.41461
G1 X-44.51 Y44.071 E12.45511
G1 X-44.433 Y43.923 E12.46344
G1 X-44.056 Y43.255 E12.5017
G1 X-43.973 Y43.119 E12.50965
G1 X-43.531 Y42.445 E12.54987
G1 X-43.437 Y42.312 E12.55799
G1 X-42.987 Y41.718 E12.59517
G1 X-42.884 Y41.591 E12.60333
G1 X-42.326 Y40.95 E12.64573
G1 X-42.215 Y40.831 E12.65385
G1 X-41.678 Y40.293 E12.69177
G1 X-41.556 Y40.179 E12.7001
G1 X-40.971 Y39.669 E12.73882
G1 X-40.851 Y39.571 E12.74655
G1 X-40.216 Y39.086 E12.78641
G1 X-40.08 Y38.989 E12.79475
G1 X-39.437 Y38.565 E12.83317
G1 X-39.3 Y38.481 E12.84119
G1 X-38.579 Y38.072 E12.88254
G1 X-38.433 Y37.996 E12.89076
G1 X-37.768 Y37.677 E12.92755
G1 X-37.622 Y37.613 E12.93551
G1 X-36.84 Y37.3 E12.97753
G1 X-36.684 Y37.244 E12.9858
G1 X-35.967 Y37.013 E13.02338
G1 X-35.812 Y36.968 E13.03143
G1 X-35.043 Y36.776 E13.07098
G1 X-34.883 Y36.742 E13.07914
G1 X-34.075 Y36.598 E13.12008
G1 X-33.916 Y36.575 E13.1281
G1 X-33.179 Y36.494 E13.16509
G1 X-33.017 Y36.482 E13.17319
G1 X-32.222 Y36.449 E13.21289
G1 X-32.059 Y36.448 E13.22102
G1 X-31.256 Y36.469 E13.2611
G1 X-31.092 Y36.479 E13.2693
G1 X-30.291 Y36.555 E13.30944
G1 X-30.134 Y36.575 E13.31733
G1 X-29.413 Y36.692 E13.35377
G1 X-29.25 Y36.724 E13.36206
G1 X-28.426 Y36.917 E13.40428
G1 X-28.268 Y36.96 E13.41245
G1 X-27.549 Y37.181 E13.44998
G1 X-27.395 Y37.234 E13.45811
G1 X-26.628 Y37.528 E13.49909
G1 X-26.48 Y37.59 E13.50709
G1 X-25.792 Y37.908 E13.54491
G1 X-25.644 Y37.983 E13.55318
G1 X-24.93 Y38.375 E13.59382
G1 X-24.794 Y38.456 E13.60172
G0 F3600 X-25.009 Y38.793
G1 F2400 X-24.362 Y39.206 E13.64001
G1 X-24.253 Y39.281 E13.64661
G1 X-23.613 Y39.752 E13.68626
G1 X-23.503 Y39.839 E13.69325
G1 X-22.891 Y40.359 E13.73332
G1 X-22.791 Y40.45 E13.74007
G1 X-22.258 Y40.969 E13.77718
G1 X-22.165 Y41.066 E13.78389
G1 X-21.61 Y41.684 E13.82533
G1 X-21.522 Y41.788 E13.83212
G1 X-21.046 Y42.397 E13.87069
G1 X-20.968 Y42.505 E13.87733
G1 X-20.522 Y43.161 E13.91691
G1 X-20.447 Y43.28 E13.92393
G1 X-20.051 Y43.961 E13.96323
G1 X-19.988 Y44.078 E13.96986
G1 X-19.633 Y44.794 E14.00973
G1 X-19.578 Y44.915 E14.01636
G1 X-19.286 Y45.618 E14.05434
G1 X-19.237 Y45.747 E14.06122
G1 X-18.989 Y46.484 E14.10002
G1 X-18.951 Y46.613 E14.10673
G1 X-18.737 Y47.426 E14.14867
G1 X-18.706 Y47.561 E14.15558
G1 X-18.566 Y48.297 E14.19296
G1 X-18.546 Y48.427 E14.19952
G1 X-18.448 Y49.225 E14.23963
G1 X-18.436 Y49.366 E14.24669
G1 X-18.392 Y50.221 E14.2894
G1 X-18.391 Y50.41 E14.29883
G1 X-18.441 Y51.554 E14.35596
G1 X-18.487 Y52.132 E14.38489
G1 X-18.567 Y52.656 E14.41133
G1 X-18.658 Y53.125 E14.43517
G1 X-18.794 Y53.781 E14.46859
G1 X-18.895 Y54.175 E14.48888
G1 X-19.328 Y55.667 E14.56639
G1 X-20.028 Y58.363 E14.70536
G1 X-20.66 Y61.109 E14.84594
G1 X-21.192 Y63.779 E14.98176
G1 X-21.653 Y66.479 E15.11841
G1 X-22.047 Y69.255 E15.2583
G1 X-22.355 Y71.978 E15.39501
G1 X-22.592 Y74.767 E15.53466
G1 X-22.748 Y77.563 E15.67437
G1 X-22.823 Y80.233 E15.80763
G1 X-22.833 Y80.805 E15.83617
G1 X-22.912 Y81.71 E15.88149
G1 X-23.056 Y82.511 E15.9221
G1 X-23.26 Y83.262 E15.96092
G1 X-23.536 Y84.014 E16.00089
G1 X-23.86 Y84.713 E16.03932
G1 X-24.296 Y85.465 E16.08269
G1 X-24.743 Y86.098 E16.12135
G1 X-25.253 Y86.703 E16.16083
G1 X-25.836 Y87.282 E16.20182
G1 X-26.397 Y87.754 E16.2384
G1 X-27.131 Y88.267 E16.28307
G1 X-27.791 Y88.643 E16.32097
G1 X-28.486 Y88.969 E16.35927
G1 X-29.273 Y89.255 E16.40105
G1 X-30.062 Y89.465 E16.44178
G1 X-30.848 Y89.602 E16.48158
G1 X-31.595 Y89.668 E16.519
G1 X-32.466 Y89.666 E16.56245
G1 X-33.205 Y89.602 E16.59946
G1 X-34.034 Y89.455 E16.64146
G1 X-34.789 Y89.251 E16.68048
G1 X-35.556 Y88.972 E16.7212
G1 X-36.255 Y88.647 E16.75966
G1 X-37.005 Y88.211 E16.80294
G1 X-37.64 Y87.764 E16.84168
G1 X-38.227 Y87.271 E16.87993
G1 X-38.824 Y86.674 E16.92205
G1 X-39.343 Y86.05 E16.96254
G1 X-39.804 Y85.386 E17.00287
G1 X-40.164 Y84.761 E17.03885
G1 X-40.549 Y83.93 E17.08454
G1 X-40.782 Y83.287 E17.11866
G1 X-41.009 Y82.441 E17.16236
G1 X-41.139 Y81.7 E17.1999
G1 X-41.212 Y80.871 E17.24142
G1 X-41.262 Y79.137 E17.32796
G1 X-41.285 Y78.228 E17.37333
G1 X-41.425 Y75.402 E17.51449
G1 X-41.638 Y72.674 E17.651
G1 X-41.934 Y69.904 E17.78999
G1 X-42.3 Y67.193 E17.92647
G1 X-42.753 Y64.43 E18.06615
G1 X-43.285 Y61.681 E18.20585
G1 X-43.878 Y59.021 E18.34181
G1 X-44.556 Y56.333 E18.48012
G1 X-45.049 Y54.558 E18.57202
G1 X-45.2 Y54 E18.60086
G1 X-45.37 Y53.285 E18.63753
G1 X-45.397 Y53.149 E18.64445
G1 X-45.541 Y52.281 E18.68834
G1 X-45.559 Y52.145 E18.69519
G1 X-45.628 Y51.425 E18.73127
G1 X-45.636 Y51.291 E18.73797
G1 X-45.659 Y50.482 E18.77835
G1 X-45.659 Y50.349 E18.78498
G1 X-45.629 Y49.559 E18.82443
G1 X-45.619 Y49.422 E18.83128
G1 X-45.536 Y48.648 E18.87011
G1 X-45.517 Y48.516 E18.87677
G1 X-45.382 Y47.744 E18.91587
G1 X-45.353 Y47.606 E18.9229
G1 X-45.15 Y46.79 E18.96485
G1 X-45.115 Y46.666 E18.97128
G1 X-44.897 Y45.982 E19.0071
G1 X-44.85 Y45.851 E19.01404
G1 X-44.551 Y45.098 E19.05446
G1 X-44.498 Y44.976 E19.0611
G1 X-44.149 Y44.243 E19.1016
G1 X-44.085 Y44.12 E19.10852
G1 X-43.708 Y43.452 E19.14679
G1 X-43.638 Y43.338 E19.15346
G1 X-43.196 Y42.664 E19.19367
G1 X-43.118 Y42.553 E19.20044
G1 X-42.668 Y41.959 E19.23762
G1 X-42.583 Y41.854 E19.24436
G1 X-42.025 Y41.213 E19.28676
G1 X-41.932 Y41.113 E19.29357
G1 X-41.395 Y40.575 E19.3315
G1 X-41.293 Y40.48 E19.33845
G1 X-40.708 Y39.97 E19.37717
G1 X-40.608 Y39.889 E19.38359
G1 X-39.973 Y39.404 E19.42345
G1 X-39.86 Y39.323 E19.43039
G1 X-39.217 Y38.899 E19.46882
G1 X-39.103 Y38.829 E19.47549
G1 X-38.382 Y38.42 E19.51685
G1 X-38.26 Y38.357 E19.5237
G1 X-37.595 Y38.038 E19.56049
G1 X-37.473 Y37.984 E19.56715
G1 X-36.691 Y37.671 E19.60917
G1 X-36.561 Y37.624 E19.61607
G1 X-35.844 Y37.393 E19.65365
G1 X-35.715 Y37.357 E19.66033
G1 X-34.946 Y37.165 E19.69988
G1 X-34.813 Y37.136 E19.70667
G1 X-34.005 Y36.992 E19.74761
G1 X-33.872 Y36.973 E19.75432
G1 X-33.135 Y36.892 E19.79131
G1 X-33 Y36.882 E19.79806
G1 X-32.205 Y36.849 E19.83776
G1 X-32.07 Y36.848 E19.84449
G1 X-31.267 Y36.869 E19.88457
G1 X-31.13 Y36.877 E19.89141
G1 X-30.329 Y36.953 E19.93156
G1 X-30.198 Y36.97 E19.93815
G1 X-29.477 Y37.087 E19.97459
G1 X-29.341 Y37.114 E19.98151
G1 X-28.517 Y37.307 E20.02373
G1 X-28.385 Y37.342 E20.03054
