;FLAVOR:Marlin
;TIME:2902
;Filament used: 4.47123m
;Layer height: 0.24
;MINX:-88.65
;MINY:-86.546
;MINZ:0.3
;MAXX:95.819
;MAXY:86.192
;MAXZ:7.6
;Generated with Cura_SteamEngine 4.13.1
M140 S50
M105
M190 S50
M104 S210
M105
M109 S210
M82 ;absolute extrusion mode
;FLAVOR:Marlin
M82 ;absolute extrusion mode
G21
G90
M82
M107 T0
G28
G92 E0
G0 E3 F200
G92 E0 ; reset extrusion distance
M106 S255 ; Enable cooling fan full speed
G1 X-98 Y0 Z0.4 F3000 ; move to arc start
G3 X0 Y-98 I98 Z0.4 E40 F400 ; lay arc stripe 90deg
G92 E0 ; reset extrusion distance
G4 P500 ; wait for 0.5 sec
G0 Z10 E-1 ; Lift 15mm and retract 1mm filament
G4 P2000 ; wait for 5 sec
G0 Z15
M107 ; Disable cooling fan
G1 X0 Y-85 Z4 E0 F3000 ; get off the bed
G92 E0
G92 E0
G1 F1500 E-6.5
;LAYER_COUNT:11
;LAYER:0
M107
G0 F3600 X-13.986 Y59.201 Z0.3
;TYPE:SKIRT
G1 F1500 E0
G1 F2400 X-13.41 Y59.352 E0.02971
G1 X-12.905 Y59.517 E0.05621
G1 X-12.657 Y59.605 E0.06934
G1 X-9.997 Y60.51 E0.20952
G1 X-7.427 Y61.304 E0.34372
G1 X-4.742 Y62.05 E0.48275
G1 X-2.031 Y62.723 E0.6221
G1 X0.584 Y63.291 E0.75561
G1 X3.329 Y63.808 E0.89497
G1 X6.02 Y64.238 E1.03092
G1 X8.752 Y64.594 E1.16838
G1 X11.523 Y64.876 E1.30734
G1 X14.221 Y65.074 E1.4423
G1 X16.958 Y65.197 E1.57899
G1 X19.735 Y65.243 E1.71755
G1 X22.47 Y65.212 E1.85401
G1 X25.365 Y65.094 E1.99856
G1 X26.35 Y65.039 E2.04778
G1 X27.836 Y65.008 E2.12194
G1 X30.19 Y65.008 E2.23938
G1 X30.888 Y65.018 E2.2742
G1 X31.417 Y65.061 E2.30068
G1 X31.659 Y65.092 E2.31285
G1 X32.192 Y65.214 E2.34013
G1 X32.703 Y65.394 E2.36716
G1 X33.183 Y65.626 E2.39376
G1 X33.631 Y65.91 E2.42022
G1 X34.055 Y66.25 E2.44734
G1 X34.432 Y66.629 E2.47401
G1 X34.787 Y67.079 E2.5026
G1 X35.044 Y67.494 E2.52696
G1 X35.277 Y67.977 E2.55371
G1 X35.455 Y68.487 E2.58066
G1 X35.569 Y68.98 E2.60591
G1 X35.633 Y69.528 E2.63343
G1 X35.647 Y69.767 E2.64538
G1 X35.657 Y70.481 E2.681
G1 X35.657 Y73.141 E2.81371
G1 X35.647 Y73.838 E2.84849
G1 X35.605 Y74.365 E2.87486
G1 X35.574 Y74.609 E2.88713
G1 X35.452 Y75.141 E2.91436
G1 X35.277 Y75.639 E2.9407
G1 X35.051 Y76.111 E2.96681
G1 X34.771 Y76.559 E2.99316
G1 X34.445 Y76.974 E3.01949
G1 X34.054 Y77.367 E3.04715
G1 X33.66 Y77.686 E3.07244
G1 X33.189 Y77.985 E3.10027
G1 X32.693 Y78.225 E3.12776
G1 X32.174 Y78.406 E3.15519
G1 X31.601 Y78.533 E3.18447
G1 X30.904 Y78.597 E3.21939
G1 X30.177 Y78.608 E3.25566
G1 X27.483 Y78.608 E3.39007
G1 X26.778 Y78.598 E3.42524
G1 X26.377 Y78.581 E3.44527
G1 X24.174 Y78.455 E3.55535
G1 X21.4 Y78.376 E3.69381
G1 X18.659 Y78.376 E3.83055
G1 X15.918 Y78.453 E3.96736
G1 X13.15 Y78.608 E4.10567
G1 X10.418 Y78.84 E4.24246
G1 X7.692 Y79.15 E4.37934
G1 X4.977 Y79.535 E4.51615
G1 X2.244 Y80.003 E4.65448
G1 X-.424 Y80.538 E4.79024
G1 X-3.081 Y81.147 E4.92623
G1 X-5.778 Y81.849 E5.06527
G1 X-8.417 Y82.616 E5.20238
G1 X-11.044 Y83.459 E5.34002
G1 X-11.565 Y83.645 E5.36762
G1 X-11.625 Y83.661 E5.37072
G1 X-13.134 Y84.178 E5.4503
G1 X-13.717 Y84.35 E5.48063
G1 X-14.268 Y84.468 E5.50874
G1 X-14.763 Y84.543 E5.53372
G1 X-15.162 Y84.579 E5.5537
G1 X-15.98 Y84.611 E5.59454
G1 X-17.659 Y84.657 E5.67834
G1 X-20.427 Y84.81 E5.81665
G1 X-23.159 Y85.038 E5.95342
G1 X-25.852 Y85.341 E6.08862
G1 X-28.633 Y85.733 E6.22874
G1 X-29.693 Y85.909 E6.28235
G1 X-30.841 Y86.078 E6.34024
G1 X-31.455 Y86.144 E6.37105
G1 X-32.281 Y86.186 E6.41231
G1 X-32.771 Y86.192 E6.43676
G1 X-33.637 Y86.157 E6.48
G1 X-34.101 Y86.119 E6.50323
G1 X-34.876 Y86.017 E6.54222
G1 X-35.401 Y85.926 E6.56881
G1 X-36.128 Y85.763 E6.60598
G1 X-36.68 Y85.615 E6.63449
G1 X-37.443 Y85.367 E6.67452
G1 X-37.948 Y85.18 E6.70138
G1 X-38.612 Y84.895 E6.73743
G1 X-39.115 Y84.656 E6.76522
G1 X-39.8 Y84.284 E6.8041
G1 X-40.295 Y83.99 E6.83283
G1 X-40.882 Y83.598 E6.86804
G1 X-41.379 Y83.237 E6.89869
G1 X-41.991 Y82.74 E6.93802
G1 X-42.387 Y82.391 E6.96436
G1 X-42.992 Y81.799 E7.00659
G1 X-43.292 Y81.481 E7.0284
G1 X-43.824 Y80.856 E7.06934
G1 X-44.158 Y80.433 E7.09623
G1 X-44.578 Y79.837 E7.13261
G1 X-44.893 Y79.351 E7.1615
G1 X-45.302 Y78.639 E7.20247
G1 X-45.54 Y78.182 E7.22818
G1 X-45.87 Y77.458 E7.26787
G1 X-46.067 Y76.98 E7.29366
G1 X-46.325 Y76.246 E7.33248
G1 X-46.485 Y75.725 E7.35967
G1 X-46.683 Y74.939 E7.40011
G1 X-46.782 Y74.461 E7.42446
G1 X-46.916 Y73.599 E7.46799
G1 X-46.968 Y73.127 E7.49168
G1 X-47.019 Y72.316 E7.53222
G1 X-47.029 Y71.83 E7.55647
G1 X-47.003 Y70.967 E7.59954
G1 X-46.97 Y70.516 E7.6221
G1 X-46.867 Y69.668 E7.66472
G1 X-46.79 Y69.2 E7.68838
G1 X-46.611 Y68.374 E7.73055
G1 X-46.49 Y67.909 E7.75452
G1 X-46.24 Y67.114 E7.7961
G1 X-46.068 Y66.635 E7.82149
G1 X-45.759 Y65.903 E7.86113
G1 X-45.542 Y65.439 E7.88669
G1 X-45.157 Y64.714 E7.92764
G1 X-44.905 Y64.286 E7.95242
G1 X-44.469 Y63.619 E7.99218
G1 X-44.158 Y63.184 E8.01885
G1 X-43.658 Y62.556 E8.0589
G1 X-43.342 Y62.19 E8.08303
G1 X-42.732 Y61.554 E8.12699
G1 X-42.409 Y61.245 E8.14929
G1 X-41.753 Y60.675 E8.19265
G1 X-41.387 Y60.384 E8.21598
G1 X-40.732 Y59.913 E8.25623
G1 X-40.313 Y59.636 E8.28129
G1 X-39.579 Y59.206 E8.32373
G1 X-39.152 Y58.978 E8.34788
G1 X-38.504 Y58.672 E8.38363
G1 X-37.976 Y58.447 E8.41226
G1 X-37.23 Y58.175 E8.45188
G1 X-36.697 Y58.005 E8.47979
G1 X-35.912 Y57.799 E8.52028
G1 X-35.443 Y57.696 E8.54424
G1 X-34.613 Y57.559 E8.5862
G1 X-34.08 Y57.494 E8.61299
G1 X-33.33 Y57.44 E8.65051
G1 X-32.811 Y57.422 E8.67642
G1 X-31.978 Y57.439 E8.71798
G1 X-31.477 Y57.469 E8.74302
G1 X-30.735 Y57.551 E8.78027
G1 X-30.17 Y57.631 E8.80874
G1 X-27.43 Y58.062 E8.94712
G1 X-24.714 Y58.412 E9.08374
G1 X-21.989 Y58.684 E9.22036
G1 X-19.216 Y58.883 E9.35907
G1 X-16.484 Y59 E9.49549
G1 X-15.65 Y59.018 E9.53711
G1 X-15.047 Y59.044 E9.56722
G1 X-14.509 Y59.108 E9.59425
G1 X-13.986 Y59.201 E9.62075
G0 F3600 X-14.058 Y59.595
G1 F2400 X-13.534 Y59.732 E9.64777
G1 X-13.039 Y59.894 E9.67376
G1 X-12.766 Y59.991 E9.68821
G1 X-10.138 Y60.885 E9.8267
G1 X-7.514 Y61.696 E9.96372
G1 X-4.84 Y62.439 E10.10219
G1 X-2.14 Y63.109 E10.24097
G1 X0.531 Y63.689 E10.37734
G1 X3.234 Y64.199 E10.51457
G1 X5.966 Y64.635 E10.65259
G1 X8.697 Y64.99 E10.78999
G1 X11.455 Y65.271 E10.9283
G1 X14.21 Y65.474 E11.06612
G1 X16.969 Y65.598 E11.20391
G1 X19.733 Y65.644 E11.34182
G1 X22.491 Y65.611 E11.47943
G1 X25.4 Y65.493 E11.62468
G1 X26.456 Y65.435 E11.67744
G1 X27.787 Y65.408 E11.74386
G1 X30.184 Y65.408 E11.86345
G1 X30.882 Y65.418 E11.89827
G1 X31.608 Y65.488 E11.93466
G1 X32.262 Y65.659 E11.96839
G1 X32.976 Y65.968 E12.0072
G1 X33.413 Y66.245 E12.03301
G1 X33.94 Y66.696 E12.06762
G1 X34.388 Y67.206 E12.10149
G1 X34.702 Y67.701 E12.13073
G1 X34.975 Y68.314 E12.16421
G1 X35.173 Y69.035 E12.20151
G1 X35.235 Y69.568 E12.22828
G1 X35.247 Y69.772 E12.23848
G1 X35.257 Y70.486 E12.2741
G1 X35.257 Y73.135 E12.40626
G1 X35.247 Y73.832 E12.44104
G1 X35.177 Y74.558 E12.47743
G1 X35.01 Y75.204 E12.51072
G1 X34.708 Y75.905 E12.5488
G1 X34.434 Y76.342 E12.57453
G1 X34.021 Y76.839 E12.60677
G1 X33.438 Y77.354 E12.64558
G1 X32.981 Y77.644 E12.67258
G1 X32.321 Y77.936 E12.70859
G1 X31.669 Y78.118 E12.74236
G1 X31.101 Y78.185 E12.77089
G1 X30.898 Y78.197 E12.78104
G1 X30.171 Y78.208 E12.81731
G1 X27.489 Y78.208 E12.95112
G1 X26.716 Y78.196 E12.98969
G1 X26.399 Y78.182 E13.00552
G1 X24.172 Y78.055 E13.11681
G1 X21.411 Y77.976 E13.25461
G1 X18.648 Y77.976 E13.39246
G1 X15.885 Y78.053 E13.53036
G1 X13.128 Y78.208 E13.66812
G1 X10.41 Y78.439 E13.80421
G1 X7.627 Y78.755 E13.94395
G1 X4.925 Y79.139 E14.08011
G1 X2.17 Y79.61 E14.21955
G1 X-.521 Y80.15 E14.35648
G1 X-3.174 Y80.758 E14.49227
G1 X-5.875 Y81.461 E14.63151
G1 X-8.546 Y82.237 E14.77028
G1 X-11.146 Y83.072 E14.90652
G1 X-11.699 Y83.269 E14.9358
G1 X-11.77 Y83.287 E14.93946
G1 X-13.264 Y83.799 E15.01825
G1 X-13.828 Y83.966 E15.0476
G1 X-14.327 Y84.073 E15.07306
G1 X-14.822 Y84.148 E15.09803
G1 X-15.178 Y84.179 E15.11586
G1 X-15.991 Y84.211 E15.15645
G1 X-17.692 Y84.257 E15.24135
G1 X-20.415 Y84.408 E15.37741
G1 X-23.202 Y84.641 E15.51694
G1 X-25.951 Y84.95 E15.65495
G1 X-28.643 Y85.33 E15.79059
G1 X-29.751 Y85.513 E15.84661
G1 X-30.979 Y85.693 E15.90853
G1 X-31.476 Y85.745 E15.93346
G1 X-32.216 Y85.784 E15.97043
G1 X-32.756 Y85.792 E15.99738
G1 X-33.609 Y85.758 E16.03997
G1 X-34.049 Y85.723 E16.06199
G1 X-34.812 Y85.622 E16.10039
G1 X-35.313 Y85.536 E16.12575
G1 X-36.04 Y85.373 E16.16292
G1 X-36.557 Y85.234 E16.18963
G1 X-37.308 Y84.99 E16.22902
G1 X-37.791 Y84.812 E16.2547
G1 X-38.526 Y84.495 E16.29464
G1 X-38.924 Y84.304 E16.31666
G1 X-39.679 Y83.893 E16.35955
G1 X-40.073 Y83.657 E16.38246
G1 X-40.66 Y83.265 E16.41768
G1 X-41.127 Y82.926 E16.44647
G1 X-41.671 Y82.486 E16.48137
G1 X-42.108 Y82.105 E16.5103
G1 X-42.705 Y81.521 E16.55196
G1 X-42.988 Y81.222 E16.5725
G1 X-43.52 Y80.597 E16.61345
G1 X-43.831 Y80.202 E16.63853
G1 X-44.295 Y79.542 E16.67878
G1 X-44.546 Y79.151 E16.70196
G1 X-44.949 Y78.45 E16.74231
G1 X-45.176 Y78.016 E16.76674
G1 X-45.502 Y77.302 E16.8059
G1 X-45.689 Y76.847 E16.83044
G1 X-45.972 Y76.039 E16.87315
G1 X-46.098 Y75.627 E16.89465
G1 X-46.274 Y74.932 E16.93042
G1 X-46.387 Y74.399 E16.9576
G1 X-46.519 Y73.551 E17.00042
G1 X-46.569 Y73.102 E17.02296
G1 X-46.619 Y72.303 E17.0629
G1 X-46.629 Y71.841 E17.08595
G1 X-46.607 Y71.071 E17.12438
G1 X-46.573 Y70.563 E17.14978
G1 X-46.472 Y69.729 E17.19169
G1 X-46.399 Y69.284 E17.21419
G1 X-46.223 Y68.471 E17.25569
G1 X-46.109 Y68.029 E17.27847
G1 X-45.863 Y67.246 E17.31941
G1 X-45.699 Y66.79 E17.34359
G1 X-45.395 Y66.069 E17.38263
G1 X-45.188 Y65.626 E17.40702
G1 X-44.81 Y64.913 E17.44728
G1 X-44.57 Y64.504 E17.47094
G1 X-44.141 Y63.848 E17.51005
G1 X-43.845 Y63.433 E17.53548
G1 X-43.353 Y62.814 E17.57493
G1 X-43.053 Y62.466 E17.59785
G1 X-42.507 Y61.895 E17.63726
G1 X-42.146 Y61.546 E17.66232
G1 X-41.501 Y60.986 E17.70493
G1 X-41.153 Y60.708 E17.72715
G1 X-40.508 Y60.244 E17.76679
G1 X-40.111 Y59.981 E17.79055
G1 X-39.453 Y59.594 E17.82864
G1 X-38.981 Y59.34 E17.85538
G1 X-38.262 Y59.002 E17.89501
G1 X-37.839 Y58.823 E17.91793
G1 X-37.016 Y58.524 E17.96161
G1 X-36.595 Y58.391 E17.98364
G1 X-35.822 Y58.188 E18.02351
G1 X-35.378 Y58.091 E18.04619
G1 X-34.56 Y57.956 E18.08755
G1 X-34.051 Y57.892 E18.11314
G1 X-33.312 Y57.839 E18.15011
G1 X-32.818 Y57.822 E18.17477
G1 X-32.069 Y57.836 E18.21214
G1 X-31.521 Y57.867 E18.23953
G1 X-30.701 Y57.959 E18.28069
G1 X-30.233 Y58.026 E18.30428
G1 X-27.477 Y58.46 E18.44347
G1 X-24.768 Y58.809 E18.57974
G1 X-22.022 Y59.083 E18.71742
G1 X-19.263 Y59.28 E18.85542
G1 X-16.467 Y59.4 E18.99504
G1 X-15.668 Y59.417 E19.03491
G1 X-15.065 Y59.443 E19.06502
G1 X-14.567 Y59.503 E19.09005
G1 X-14.058 Y59.595 E19.11585
G0 F3600 X-13.951 Y60.029
G1 F2400 X-13.222 Y60.254 E19.15392
G1 X-12.891 Y60.371 E19.17143
G1 X-10.28 Y61.26 E19.30904
G1 X-7.634 Y62.077 E19.4472
G1 X-4.938 Y62.826 E19.58679
G1 X-2.216 Y63.502 E19.72672
G1 X0.444 Y64.079 E19.86251
G1 X3.168 Y64.593 E20.00081
G1 X5.922 Y65.033 E20.13995
G1 X8.641 Y65.387 E20.27675
G1 X11.42 Y65.67 E20.41611
G1 X14.196 Y65.874 E20.55498
G1 X16.945 Y65.997 E20.69227
G1 X19.731 Y66.044 E20.83128
G1 X22.513 Y66.011 E20.97008
G1 X25.387 Y65.894 E21.11359
G1 X26.464 Y65.835 E21.1674
G1 X27.795 Y65.808 E21.23382
G1 X30.179 Y65.808 E21.35276
G1 X30.877 Y65.818 E21.38758
G1 X31.557 Y65.885 E21.42167
G1 X32.135 Y66.039 E21.45151
G1 X32.769 Y66.31 E21.48591
G1 X33.194 Y66.58 E21.51103
G1 X33.661 Y66.982 E21.54178
G1 X34.059 Y67.433 E21.57179
G1 X34.36 Y67.909 E21.59988
G1 X34.6 Y68.452 E21.6295
G1 X34.777 Y69.09 E21.66253
G1 X34.837 Y69.608 E21.68855
G1 X34.847 Y69.778 E21.69705
G1 X34.857 Y70.492 E21.73267
G1 X34.857 Y73.13 E21.86428
G1 X34.847 Y73.827 E21.89906
G1 X34.78 Y74.508 E21.9332
G1 X34.63 Y75.077 E21.96255
G1 X34.365 Y75.699 E21.99628
G1 X34.098 Y76.126 E22.02141
G1 X33.731 Y76.564 E22.04992
G1 X33.215 Y77.021 E22.08431
G1 X32.772 Y77.303 E22.11051
G1 X32.183 Y77.56 E22.14257
G1 X31.607 Y77.722 E22.17242
G1 X31.061 Y77.787 E22.19985
G1 X30.892 Y77.797 E22.2083
G1 X30.165 Y77.808 E22.24457
G1 X27.495 Y77.808 E22.37778
G1 X26.733 Y77.796 E22.4158
G1 X26.422 Y77.783 E22.43133
G1 X24.171 Y77.655 E22.54381
G1 X21.423 Y77.576 E22.68097
G1 X18.637 Y77.576 E22.81996
G1 X15.886 Y77.653 E22.95726
G1 X13.107 Y77.809 E23.09613
G1 X10.332 Y78.045 E23.23507
G1 X7.593 Y78.356 E23.3726
G1 X4.838 Y78.747 E23.51142
G1 X2.129 Y79.211 E23.64855
G1 X-.618 Y79.761 E23.78831
G1 X-3.259 Y80.367 E23.9235
G1 X-5.983 Y81.076 E24.06393
G1 X-8.665 Y81.855 E24.20326
G1 X-11.286 Y82.697 E24.34061
G1 X-11.834 Y82.892 E24.36963
G1 X-11.893 Y82.907 E24.37266
G1 X-13.394 Y83.421 E24.45182
G1 X-13.94 Y83.582 E24.48022
G1 X-14.387 Y83.677 E24.50302
G1 X-14.882 Y83.752 E24.52799
G1 X-15.194 Y83.779 E24.54362
G1 X-16.002 Y83.811 E24.58396
G1 X-17.689 Y83.857 E24.66816
G1 X-20.469 Y84.011 E24.80706
G1 X-23.247 Y84.243 E24.94614
G1 X-25.981 Y84.55 E25.0834
G1 X-28.712 Y84.936 E25.221
G1 X-29.81 Y85.118 E25.27653
G1 X-30.958 Y85.287 E25.33442
G1 X-31.497 Y85.345 E25.36147
G1 X-32.298 Y85.387 E25.40148
G1 X-32.74 Y85.393 E25.42354
G1 X-33.581 Y85.359 E25.46553
G1 X-33.997 Y85.326 E25.48635
G1 X-34.748 Y85.227 E25.52414
G1 X-35.226 Y85.146 E25.54833
G1 X-35.953 Y84.983 E25.5855
G1 X-36.434 Y84.854 E25.61034
G1 X-37.173 Y84.614 E25.64911
G1 X-37.633 Y84.445 E25.67356
G1 X-38.357 Y84.133 E25.71289
G1 X-38.733 Y83.953 E25.73369
G1 X-39.476 Y83.548 E25.7759
G1 X-39.851 Y83.324 E25.7977
G1 X-40.494 Y82.893 E25.83632
G1 X-40.876 Y82.615 E25.85989
G1 X-41.468 Y82.135 E25.89791
G1 X-41.828 Y81.819 E25.92181
G1 X-42.417 Y81.243 E25.96291
G1 X-42.683 Y80.962 E25.98221
G1 X-43.253 Y80.291 E26.02614
G1 X-43.504 Y79.972 E26.04639
G1 X-43.961 Y79.322 E26.08603
G1 X-44.2 Y78.952 E26.108
G1 X-44.597 Y78.261 E26.14776
G1 X-44.813 Y77.849 E26.17097
G1 X-45.133 Y77.147 E26.20946
G1 X-45.312 Y76.714 E26.23284
G1 X-45.59 Y75.919 E26.27486
G1 X-45.71 Y75.529 E26.29521
G1 X-45.886 Y74.834 E26.33098
G1 X-45.992 Y74.337 E26.35633
G1 X-46.122 Y73.503 E26.39845
G1 X-46.17 Y73.076 E26.41988
G1 X-46.219 Y72.291 E26.45912
G1 X-46.229 Y71.853 E26.48098
G1 X-46.204 Y71.017 E26.52271
G1 X-46.176 Y70.611 E26.54301
G1 X-46.076 Y69.789 E26.58432
G1 X-46.008 Y69.368 E26.6056
G1 X-45.835 Y68.568 E26.64643
G1 X-45.727 Y68.148 E26.66807
G1 X-45.485 Y67.377 E26.70838
G1 X-45.33 Y66.945 E26.73128
G1 X-45.031 Y66.235 E26.76972
G1 X-44.835 Y65.813 E26.79293
G1 X-44.463 Y65.113 E26.83248
G1 X-44.235 Y64.722 E26.85506
G1 X-43.814 Y64.078 E26.89345
G1 X-43.532 Y63.682 E26.9177
G1 X-43.047 Y63.073 E26.95654
G1 X-42.764 Y62.743 E26.97823
G1 X-42.172 Y62.126 E27.02089
G1 X-41.884 Y61.848 E27.04086
G1 X-41.248 Y61.296 E27.08287
G1 X-40.919 Y61.033 E27.10389
G1 X-40.283 Y60.576 E27.14296
G1 X-39.908 Y60.326 E27.16545
G1 X-39.195 Y59.908 E27.20668
G1 X-38.81 Y59.702 E27.22846
G1 X-38.103 Y59.369 E27.26745
G1 X-37.702 Y59.199 E27.28918
G1 X-36.892 Y58.905 E27.33217
G1 X-36.493 Y58.778 E27.35306
G1 X-35.732 Y58.578 E27.39232
G1 X-35.312 Y58.485 E27.41378
G1 X-34.508 Y58.352 E27.45444
G1 X-34.022 Y58.291 E27.47887
G1 X-33.295 Y58.239 E27.51524
G1 X-32.826 Y58.222 E27.53865
G1 X-32.017 Y58.238 E27.57902
G1 X-31.565 Y58.264 E27.60161
G1 X-30.758 Y58.354 E27.64212
G1 X-30.295 Y58.421 E27.66546
G1 X-27.554 Y58.853 E27.8039
G1 X-24.791 Y59.208 E27.94288
G1 X-22.053 Y59.481 E28.08015
G1 X-19.272 Y59.681 E28.21925
G1 X-16.527 Y59.798 E28.35633
G1 X-15.685 Y59.817 E28.39835
G1 X-15.082 Y59.843 E28.42846
G1 X-14.559 Y59.91 E28.45476
G1 X-13.951 Y60.029 E28.48567
G0 F3600 X-14.2 Y60.382
G1 F2400 X-13.346 Y60.635 E28.53011
G1 X-13.044 Y60.741 E28.54608
G1 X-10.39 Y61.644 E28.68594
G1 X-7.745 Y62.461 E28.82405
G1 X-5.037 Y63.214 E28.96428
G1 X-2.34 Y63.883 E29.10291
