;FLAVOR:Marlin
;TIME:2379
;Filament used: 3.79417m
;Layer height: 0.24
;MINX:-90.784
;MINY:-77.725
;MINZ:0.3
;MAXX:87.337
;MAXY:83.092
;MAXZ:7.3
;Generated with Cura_SteamEngine 4.13.1
M140 S50
M105
M190 S50
M104 S210
M105
M109 S210
M82 ;absolute extrusion mode
;FLAVOR:Marlin
M82 ;absolute extrusion mode
G21
G90
M82
M107 T0
G28
G92 E0
G0 E3 F200
G92 E0 ; reset extrusion distance
M106 S255 ; Enable cooling fan full speed
G1 X-98 Y0 Z0.4 F3000 ; move to arc start
G3 X0 Y-98 I98 Z0.4 E40 F400 ; lay arc stripe 90deg
G92 E0 ; reset extrusion distance
G4 P500 ; wait for 0.5 sec
G0 Z10 E-1 ; Lift 15mm and retract 1mm filament
G4 P2000 ; wait for 5 sec
G0 Z15
M107 ; Disable cooling fan
G1 X0 Y-85 Z4 E0 F3000 ; get off the bed
G92 E0
G92 E0
G1 F1500 E-6.5
;LAYER_COUNT:9
;LAYER:0
M107
G0 F3600 X29.572 Y-15.827 Z0.3
;TYPE:SKIRT
G1 F1500 E0
G1 F2400 X29.265 Y-16.533 E0.03841
G1 X29.038 Y-17.099 E0.06883
G1 X28.869 Y-17.722 E0.10104
G1 X28.683 Y-18.961 E0.16354
G1 X28.49 Y-20.193 E0.22576
G1 X22.891 Y-54.537 E1.96181
G1 X22.574 Y-56.373 E2.05476
G1 X22.331 Y-57.703 E2.12221
G1 X22.215 Y-58.4 E2.15747
G1 X22.183 Y-59.037 E2.18929
G1 X22.246 Y-60.034 E2.23913
G1 X22.363 Y-61.465 E2.31076
G1 X22.426 Y-62.12 E2.34359
G1 X22.56 Y-62.747 E2.37557
G1 X22.864 Y-63.649 E2.42306
G1 X23.345 Y-64.992 E2.49423
G1 X23.591 Y-65.653 E2.52942
G1 X23.885 Y-66.228 E2.56164
G1 X24.434 Y-67.052 E2.61104
G1 X25.244 Y-68.224 E2.68211
G1 X25.636 Y-68.774 E2.71581
G1 X26.068 Y-69.252 E2.74795
G1 X26.789 Y-69.886 E2.79585
G1 X27.887 Y-70.818 E2.86771
G1 X28.41 Y-71.251 E2.90158
G1 X28.955 Y-71.604 E2.93398
G1 X29.824 Y-72.033 E2.98233
G1 X31.124 Y-72.649 E3.0541
G1 X31.741 Y-72.93 E3.08792
G1 X32.348 Y-73.127 E3.11976
G1 X33.306 Y-73.319 E3.1685
G1 X34.743 Y-73.582 E3.24139
G1 X35.389 Y-73.69 E3.27406
G1 X36.028 Y-73.722 E3.30598
G1 X37.025 Y-73.659 E3.35582
G1 X38.456 Y-73.542 E3.42745
G1 X39.11 Y-73.479 E3.46023
G1 X39.738 Y-73.345 E3.49227
G1 X40.649 Y-73.036 E3.54026
G1 X42.009 Y-72.551 E3.6123
G1 X42.644 Y-72.314 E3.64611
G1 X43.215 Y-72.023 E3.67809
G1 X44.055 Y-71.464 E3.72843
G1 X45.225 Y-70.654 E3.79942
G1 X45.763 Y-70.271 E3.83237
G1 X46.242 Y-69.838 E3.86458
G1 X46.89 Y-69.101 E3.91354
G1 X47.809 Y-68.018 E3.98441
G1 X48.242 Y-67.495 E4.01828
G1 X48.595 Y-66.95 E4.05068
G1 X49.024 Y-66.081 E4.09903
G1 X49.639 Y-64.782 E4.17073
G1 X49.92 Y-64.166 E4.20451
G1 X50.118 Y-63.557 E4.23646
G1 X50.31 Y-62.599 E4.2852
G1 X50.573 Y-61.161 E4.35813
G1 X50.681 Y-60.514 E4.39086
G1 X50.713 Y-59.876 E4.42273
G1 X50.65 Y-58.88 E4.47252
G1 X50.533 Y-57.446 E4.5443
G1 X50.464 Y-56.737 E4.57984
G1 X50.445 Y-56.583 E4.58758
G1 X50.341 Y-55.911 E4.62151
G1 X44.45 Y-20.442 E6.4153
G1 X44.143 Y-18.474 E6.51467
G1 X44.043 Y-17.79 E6.54916
G1 X43.878 Y-17.171 E6.58112
G1 X43.556 Y-16.355 E6.62489
G1 X43.349 Y-15.874 E6.65101
G1 X43.027 Y-15.315 E6.6832
G1 X42.521 Y-14.633 E6.72556
G1 X42.196 Y-14.22 E6.75178
G1 X41.738 Y-13.76 E6.78417
G1 X41.039 Y-13.206 E6.82867
G1 X40.628 Y-12.9 E6.85423
G1 X40.071 Y-12.578 E6.88633
G1 X39.305 Y-12.246 E6.92798
G1 X38.81 Y-12.048 E6.95458
G1 X38.186 Y-11.879 E6.98683
G1 X37.317 Y-11.75 E7.03066
G1 X36.796 Y-11.689 E7.05683
G1 X36.154 Y-11.688 E7.08886
G1 X35.304 Y-11.786 E7.13155
G1 X34.784 Y-11.861 E7.15776
G1 X34.155 Y-12.028 E7.19023
G1 X33.349 Y-12.348 E7.23349
G1 X32.869 Y-12.554 E7.25955
G1 X32.306 Y-12.878 E7.29196
G1 X31.612 Y-13.393 E7.33507
G1 X31.209 Y-13.71 E7.36065
G1 X30.748 Y-14.169 E7.39311
G1 X30.252 Y-14.793 E7.43288
G1 X29.893 Y-15.274 E7.46282
G1 X29.572 Y-15.827 E7.49472
G0 F3600 X29.939 Y-15.987
G1 F2400 X29.604 Y-16.759 E7.53671
G1 X29.409 Y-17.247 E7.56293
G1 X29.265 Y-17.782 E7.59057
G1 X29.079 Y-19.021 E7.65307
G1 X28.883 Y-20.273 E7.7163
G1 X23.286 Y-54.602 E9.45159
G1 X22.968 Y-56.441 E9.5447
G1 X22.726 Y-57.769 E9.61205
G1 X22.61 Y-58.466 E9.6473
G1 X22.582 Y-59.012 E9.67457
G1 X22.645 Y-60.001 E9.72402
G1 X22.761 Y-61.427 E9.79539
G1 X22.824 Y-62.082 E9.82822
G1 X22.939 Y-62.619 E9.85562
G1 X23.241 Y-63.514 E9.90275
G1 X23.72 Y-64.852 E9.97365
G1 X23.966 Y-65.513 E10.00884
G1 X24.218 Y-66.007 E10.0365
G1 X24.763 Y-66.825 E10.08554
G1 X25.57 Y-67.992 E10.15633
G1 X25.962 Y-68.542 E10.19002
G1 X26.332 Y-68.952 E10.21758
G1 X27.048 Y-69.581 E10.26512
G1 X28.142 Y-70.51 E10.33673
G1 X28.665 Y-70.943 E10.3706
G1 X29.132 Y-71.245 E10.39835
G1 X29.995 Y-71.672 E10.44639
G1 X31.29 Y-72.285 E10.51787
G1 X31.907 Y-72.566 E10.55169
G1 X32.427 Y-72.735 E10.57897
G1 X33.378 Y-72.926 E10.62736
G1 X34.809 Y-73.187 E10.69993
G1 X35.455 Y-73.295 E10.73261
G1 X36.003 Y-73.323 E10.75999
G1 X36.992 Y-73.26 E10.80943
G1 X38.418 Y-73.144 E10.88081
G1 X39.072 Y-73.081 E10.91358
G1 X39.61 Y-72.966 E10.94103
G1 X40.515 Y-72.66 E10.98869
G1 X41.869 Y-72.176 E11.06043
G1 X42.504 Y-71.939 E11.09425
G1 X42.994 Y-71.689 E11.12169
G1 X43.827 Y-71.135 E11.1716
G1 X44.993 Y-70.328 E11.24235
G1 X45.531 Y-69.945 E11.27529
G1 X45.942 Y-69.574 E11.30292
G1 X46.585 Y-68.842 E11.35153
G1 X47.501 Y-67.763 E11.42214
G1 X47.934 Y-67.24 E11.45601
G1 X48.236 Y-66.773 E11.48376
G1 X48.663 Y-65.91 E11.5318
G1 X49.276 Y-64.616 E11.60323
G1 X49.557 Y-64 E11.63701
G1 X49.726 Y-63.478 E11.66438
G1 X49.917 Y-62.527 E11.71278
G1 X50.178 Y-61.095 E11.7854
G1 X50.286 Y-60.448 E11.81812
G1 X50.314 Y-59.901 E11.84545
G1 X50.251 Y-58.913 E11.89484
G1 X50.135 Y-57.485 E11.96632
G1 X50.066 Y-56.776 E12.00186
G1 X50.049 Y-56.644 E12.0085
G1 X49.947 Y-55.977 E12.04216
G1 X44.05 Y-20.481 E13.83734
G1 X43.751 Y-18.559 E13.93438
G1 X43.647 Y-17.848 E13.97023
G1 X43.506 Y-17.317 E13.99764
G1 X43.189 Y-16.513 E14.04075
G1 X42.982 Y-16.032 E14.06688
G1 X42.706 Y-15.553 E14.09446
G1 X42.207 Y-14.881 E14.13622
G1 X41.882 Y-14.468 E14.16244
G1 X41.489 Y-14.073 E14.19024
G1 X40.8 Y-13.527 E14.2341
G1 X40.389 Y-13.221 E14.25966
G1 X39.912 Y-12.945 E14.28715
G1 X39.156 Y-12.618 E14.32825
G1 X38.661 Y-12.42 E14.35485
G1 X38.126 Y-12.275 E14.3825
G1 X37.27 Y-12.147 E14.42568
G1 X36.749 Y-12.086 E14.45185
G1 X36.199 Y-12.085 E14.47929
G1 X35.433 Y-12.172 E14.51775
G1 X34.841 Y-12.257 E14.54759
G1 X34.302 Y-12.4 E14.57541
G1 X33.506 Y-12.716 E14.61814
G1 X33.026 Y-12.922 E14.6442
G1 X32.544 Y-13.199 E14.67193
G1 X31.859 Y-13.708 E14.71451
G1 X31.456 Y-14.025 E14.74009
G1 X31.061 Y-14.418 E14.76789
G1 X30.518 Y-15.103 E14.8115
G1 X30.214 Y-15.512 E14.83692
G1 X29.939 Y-15.987 E14.86431
G0 F3600 X30.306 Y-16.146
G1 F2400 X29.976 Y-16.908 E14.90573
G1 X29.781 Y-17.396 E14.93195
G1 X29.66 Y-17.841 E14.95496
G1 X29.474 Y-19.08 E15.01747
G1 X29.278 Y-20.335 E15.08084
G1 X23.681 Y-54.666 E16.81623
G1 X23.363 Y-56.509 E16.90954
G1 X23.12 Y-57.835 E16.97679
G1 X23.004 Y-58.532 E17.01205
G1 X22.981 Y-58.986 E17.03472
G1 X23.044 Y-59.969 E17.08387
G1 X23.159 Y-61.388 E17.15489
G1 X23.222 Y-62.043 E17.18772
G1 X23.318 Y-62.491 E17.21058
G1 X23.618 Y-63.379 E17.25734
G1 X24.095 Y-64.713 E17.32802
G1 X24.341 Y-65.374 E17.36321
G1 X24.551 Y-65.785 E17.38624
G1 X25.092 Y-66.598 E17.43496
G1 X25.895 Y-67.76 E17.50543
G1 X26.287 Y-68.31 E17.53912
G1 X26.596 Y-68.651 E17.56208
G1 X27.307 Y-69.276 E17.60931
G1 X28.398 Y-70.202 E17.6807
G1 X28.921 Y-70.635 E17.71458
G1 X29.309 Y-70.887 E17.73766
G1 X30.167 Y-71.31 E17.78538
G1 X31.456 Y-71.921 E17.85655
G1 X32.073 Y-72.202 E17.89037
G1 X32.506 Y-72.342 E17.91308
G1 X33.45 Y-72.532 E17.96112
G1 X34.875 Y-72.793 E18.03339
G1 X35.521 Y-72.901 E18.06607
G1 X35.977 Y-72.924 E18.08885
G1 X36.96 Y-72.861 E18.13799
G1 X38.38 Y-72.746 E18.20907
G1 X39.034 Y-72.683 E18.24185
G1 X39.482 Y-72.587 E18.26471
G1 X40.381 Y-72.283 E18.31205
G1 X41.729 Y-71.802 E18.38346
G1 X42.364 Y-71.565 E18.41727
G1 X42.772 Y-71.356 E18.44014
G1 X43.6 Y-70.806 E18.48973
G1 X44.761 Y-70.002 E18.56019
G1 X45.299 Y-69.619 E18.59314
G1 X45.641 Y-69.31 E18.61613
G1 X46.28 Y-68.583 E18.66442
G1 X47.193 Y-67.507 E18.73482
G1 X47.626 Y-66.984 E18.7687
G1 X47.878 Y-66.596 E18.79178
G1 X48.301 Y-65.738 E18.83951
G1 X48.912 Y-64.45 E18.91063
G1 X49.193 Y-63.834 E18.94441
G1 X49.334 Y-63.399 E18.96722
G1 X49.523 Y-62.455 E19.01525
G1 X49.784 Y-61.029 E19.08758
G1 X49.892 Y-60.382 E19.1203
G1 X49.915 Y-59.926 E19.14308
G1 X49.852 Y-58.945 E19.19213
G1 X49.737 Y-57.523 E19.2633
G1 X49.668 Y-56.814 E19.29884
G1 X49.654 Y-56.704 E19.30437
G1 X49.552 Y-56.042 E19.33779
G1 X43.656 Y-20.546 E21.13296
G1 X43.352 Y-18.598 E21.23132
G1 X43.251 Y-17.906 E21.26621
G1 X43.133 Y-17.464 E21.28903
G1 X42.821 Y-16.671 E21.33155
G1 X42.614 Y-16.19 E21.35767
G1 X42.384 Y-15.791 E21.38065
G1 X41.893 Y-15.128 E21.42181
G1 X41.568 Y-14.715 E21.44803
G1 X41.241 Y-14.386 E21.47117
G1 X40.612 Y-13.886 E21.51126
G1 X40.15 Y-13.542 E21.53999
G1 X39.752 Y-13.311 E21.56295
G1 X39.008 Y-12.989 E21.6034
G1 X38.513 Y-12.791 E21.63
G1 X38.067 Y-12.67 E21.65305
G1 X37.288 Y-12.553 E21.69235
G1 X36.703 Y-12.484 E21.72174
G1 X36.244 Y-12.483 E21.74464
G1 X35.418 Y-12.577 E21.78612
G1 X34.898 Y-12.652 E21.81233
G1 X34.449 Y-12.772 E21.83551
G1 X33.664 Y-13.083 E21.87764
G1 X33.184 Y-13.289 E21.9037
G1 X32.782 Y-13.52 E21.92683
G1 X32.106 Y-14.022 E21.96884
G1 X31.703 Y-14.339 E21.99442
G1 X31.374 Y-14.667 E22.0176
G1 X30.839 Y-15.342 E22.06057
G1 X30.535 Y-15.751 E22.08599
G1 X30.306 Y-16.146 E22.10877
G0 F3600 X30.673 Y-16.306
G1 F2400 X30.347 Y-17.056 E22.14957
G1 X30.152 Y-17.544 E22.17579
G1 X30.056 Y-17.9 E22.19418
G1 X29.87 Y-19.139 E22.25669
G1 X29.673 Y-20.397 E22.32022
G1 X24.078 Y-54.715 E24.05495
G1 X23.756 Y-56.577 E24.14923
G1 X23.515 Y-57.9 E24.21632
G1 X23.399 Y-58.597 E24.25157
G1 X23.38 Y-58.961 E24.26976
G1 X23.442 Y-59.937 E24.31855
G1 X23.557 Y-61.35 E24.38927
G1 X23.62 Y-62.005 E24.4221
G1 X23.697 Y-62.363 E24.44037
G1 X23.994 Y-63.245 E24.4868
G1 X24.469 Y-64.573 E24.55717
G1 X24.715 Y-65.234 E24.59235
G1 X24.883 Y-65.563 E24.61078
G1 X25.421 Y-66.37 E24.65917
G1 X26.221 Y-67.528 E24.72939
G1 X26.613 Y-68.078 E24.76309
G1 X26.86 Y-68.351 E24.78146
G1 X27.566 Y-68.971 E24.82833
G1 X28.653 Y-69.893 E24.89944
G1 X29.176 Y-70.326 E24.93332
G1 X29.487 Y-70.528 E24.95182
G1 X30.338 Y-70.949 E24.99919
G1 X31.622 Y-71.557 E25.07006
G1 X32.239 Y-71.838 E25.10389
G1 X32.586 Y-71.95 E25.12208
G1 X33.521 Y-72.139 E25.16967
G1 X34.941 Y-72.398 E25.24168
G1 X35.587 Y-72.506 E25.27436
G1 X35.952 Y-72.525 E25.2926
G1 X36.928 Y-72.463 E25.34139
G1 X38.341 Y-72.348 E25.41211
G1 X38.995 Y-72.285 E25.44489
G1 X39.354 Y-72.208 E25.46321
G1 X40.246 Y-71.906 E25.51019
G1 X41.589 Y-71.427 E25.58133
G1 X42.224 Y-71.19 E25.61515
G1 X42.551 Y-71.023 E25.63346
G1 X43.372 Y-70.477 E25.68266
G1 X44.529 Y-69.676 E25.75286
G1 X45.067 Y-69.293 E25.78581
G1 X45.341 Y-69.046 E25.80421
G1 X45.975 Y-68.324 E25.85215
G1 X46.884 Y-67.252 E25.92227
G1 X47.317 Y-66.729 E25.95615
G1 X47.519 Y-66.418 E25.97465
G1 X47.94 Y-65.567 E26.02202
G1 X48.548 Y-64.284 E26.09285
G1 X48.829 Y-63.668 E26.12663
G1 X48.941 Y-63.32 E26.14487
G1 X49.13 Y-62.384 E26.19251
G1 X49.389 Y-60.963 E26.26457
G1 X49.497 Y-60.316 E26.29729
G1 X49.516 Y-59.952 E26.31548
G1 X49.454 Y-58.977 E26.36422
G1 X49.338 Y-57.562 E26.43505
G1 X49.269 Y-56.853 E26.47059
G1 X49.258 Y-56.765 E26.47501
G1 X49.157 Y-56.108 E26.50818
G1 X43.264 Y-20.627 E28.30258
G1 X42.957 Y-18.659 E28.40195
G1 X42.855 Y-17.963 E28.43705
G1 X42.761 Y-17.61 E28.45527
G1 X42.454 Y-16.83 E28.49709
G1 X42.247 Y-16.349 E28.52322
G1 X42.063 Y-16.029 E28.54163
G1 X41.578 Y-15.376 E28.58221
G1 X41.253 Y-14.963 E28.60843
G1 X40.992 Y-14.7 E28.62692
G1 X40.322 Y-14.169 E28.66957
G1 X39.911 Y-13.863 E28.69513
G1 X39.593 Y-13.678 E28.71349
G1 X38.859 Y-13.36 E28.7534
G1 X38.364 Y-13.162 E28.78
G1 X38.008 Y-13.066 E28.79839
G1 X37.177 Y-12.942 E28.84031
G1 X36.656 Y-12.881 E28.86648
G1 X36.289 Y-12.88 E28.88479
G1 X35.476 Y-12.973 E28.92561
G1 X34.956 Y-13.048 E28.95183
G1 X34.596 Y-13.144 E28.97041
G1 X33.822 Y-13.451 E29.01196
G1 X33.342 Y-13.657 E29.03801
G1 X33.02 Y-13.842 E29.05654
G1 X32.354 Y-14.336 E29.09791
G1 X31.951 Y-14.653 E29.12349
G1 X31.687 Y-14.915 E29.14205
G1 X31.191 Y-15.539 E29.18182
G1 X30.856 Y-15.99 E29.20984
G1 X30.673 Y-16.306 E29.22806
G0 F3600 X31.04 Y-16.465
G1 F2400 X30.719 Y-17.205 E29.26831
G1 X30.524 Y-17.693 E29.29452
G1 X30.451 Y-17.96 E29.30833
G1 X30.265 Y-19.199 E29.37084
G1 X30.069 Y-20.459 E29.43446
G1 X24.471 Y-54.795 E31.17011
G1 X24.151 Y-56.646 E31.26382
G1 X23.909 Y-57.966 E31.33077
G1 X23.793 Y-58.663 E31.36603
G1 X23.779 Y-58.936 E31.37966
G1 X23.841 Y-59.904 E31.42806
G1 X23.956 Y-61.312 E31.49854
G1 X24.019 Y-61.967 E31.53136
G1 X24.076 Y-62.235 E31.54503
G1 X24.371 Y-63.11 E31.5911
G1 X24.844 Y-64.434 E31.66125
G1 X25.09 Y-65.095 E31.69643
G1 X25.216 Y-65.341 E31.71022
G1 X25.751 Y-66.143 E31.75832
G1 X26.547 Y-67.295 E31.82818
G1 X26.939 Y-67.845 E31.86187
G1 X27.124 Y-68.05 E31.87565
G1 X27.824 Y-68.666 E31.92217
G1 X28.908 Y-69.585 E31.99307
G1 X29.431 Y-70.018 E32.02695
G1 X29.664 Y-70.17 E32.04083
G1 X30.509 Y-70.587 E32.08784
G1 X31.788 Y-71.193 E32.15845
G1 X32.405 Y-71.474 E32.19227
G1 X32.665 Y-71.558 E32.2059
G1 X33.593 Y-71.745 E32.25313
G1 X35.007 Y-72.004 E32.32485
G1 X35.653 Y-72.112 E32.35753
G1 X35.927 Y-72.126 E32.37121
G1 X36.895 Y-72.064 E32.41961
G1 X38.303 Y-71.949 E32.49009
G1 X38.957 Y-71.886 E32.52286
G1 X39.226 Y-71.829 E32.53658
G1 X40.112 Y-71.529 E32.58325
G1 X41.45 Y-71.052 E32.65412
G1 X42.085 Y-70.815 E32.68793
G1 X42.329 Y-70.69 E32.70161
G1 X43.145 Y-70.148 E32.75048
G1 X44.297 Y-69.351 E32.82037
G1 X44.835 Y-68.968 E32.85332
G1 X45.04 Y-68.782 E32.86713
G1 X45.67 Y-68.065 E32.91475
G1 X46.576 Y-66.997 E32.98462
G1 X47.009 Y-66.474 E33.01849
G1 X47.161 Y-66.241 E33.03237
G1 X47.578 Y-65.396 E33.07938
G1 X48.184 Y-64.118 E33.14995
G1 X48.465 Y-63.502 E33.18373
G1 X48.549 Y-63.241 E33.19741
G1 X48.736 Y-62.312 E33.24469
G1 X48.995 Y-60.898 E33.3164
G1 X49.103 Y-60.251 E33.34913
G1 X49.117 Y-59.977 E33.36282
G1 X49.055 Y-59.01 E33.41116
G1 X48.94 Y-57.601 E33.48169
G1 X48.871 Y-56.892 E33.51723
G1 X48.863 Y-56.826 E33.52054
G1 X48.763 Y-56.173 E33.5535
G1 X42.867 Y-20.677 E35.34867
G1 X42.561 Y-18.721 E35.44744
G1 X42.459 Y-18.021 E35.48273
G1 X42.389 Y-17.756 E35.49641
G1 X42.086 Y-16.988 E35.5376
G1 X41.879 Y-16.507 E35.56372
G1 X41.741 Y-16.267 E35.57753
G1 X41.264 Y-15.623 E35.61752
G1 X40.939 Y-15.21 E35.64374
G1 X40.743 Y-15.013 E35.6576
G1 X40.084 Y-14.489 E35.69961
G1 X39.673 Y-14.183 E35.72517
G1 X39.434 Y-14.045 E35.73894
G1 X38.711 Y-13.732 E35.77824
G1 X38.216 Y-13.534 E35.80484
G1 X37.948 Y-13.461 E35.8187
G1 X37.131 Y-13.339 E35.85991
G1 X36.61 Y-13.278 E35.88608
G1 X36.335 Y-13.278 E35.8998
G1 X35.533 Y-13.369 E35.94007
G1 X35.013 Y-13.444 E35.96628
G1 X34.743 Y-13.516 E35.98022
G1 X33.98 Y-13.818 E36.02116
G1 X33.5 Y-14.024 E36.04722
G1 X33.258 Y-14.163 E36.06115
G1 X32.601 Y-14.651 E36.10198
G1 X32.198 Y-14.968 E36.12756
G1 X32.001 Y-15.164 E36.14142
G1 X31.481 Y-15.819 E36.18314
G1 X31.177 Y-16.228 E36.20857
G1 X31.04 Y-16.465 E36.22223
G1 F1500 E29.72223
;MESH:V5.stl(7)
G0 F3600 X32.658 Y-17.271
G0 X35.437 Y-15.678
;TYPE:WALL-INNER
G1 F1500 E36.22223
G1 F2400 X36.448 Y-15.546 E36.27309
G1 X37.459 Y-15.678 E36.32396
G1 X38.405 Y-16.069 E36.37503
G1 X39.214 Y-16.691 E36.42594
G1 X39.836 Y-17.5 E36.47685
G1 X40.227 Y-18.446 E36.52792
G1 X40.359 Y-19.457 E36.57879
G1 X40.227 Y-20.468 E36.62965
G1 X39.836 Y-21.414 E36.68072
G1 X39.214 Y-22.223 E36.73163
G1 X38.405 Y-22.845 E36.78255
G1 X37.459 Y-23.236 E36.83362
G1 X36.448 Y-23.368 E36.88448
G1 X35.437 Y-23.236 E36.93535
G1 X34.491 Y-22.845 E36.98642
G1 X33.682 Y-22.223 E37.03733
