;FLAVOR:Marlin
;TIME:6966
;Filament used: 4.51052m
;Layer height: 0.2
;MINX:-49.215
;MINY:-43.813
;MINZ:0.3
;MAXX:46.977
;MAXY:55.544
;MAXZ:9.5
;TARGET_MACHINE.NAME:Unknown
;Generated with Cura_SteamEngine 5.8.1
M140 S50
M105
M190 S50
M104 S228
M105
M109 S228
M82 ;absolute extrusion mode
;FLAVOR:Marlin
M82 ;absolute extrusion mode
G21
G90
M82
M107 T0
G28
G92 E0
G0 E3 F200
G92 E0 ; reset extrusion distance
M106 S255 ; Enable cooling fan full speed
G1 X-98 Y0 Z0.4 F3000 ; move to arc start
G3 X0 Y-98 I98 Z0.4 E40 F400 ; lay arc stripe 90deg
G92 E0 ; reset extrusion distance
G4 P500 ; wait for 0.5 sec
G0 Z10 E-1 ; Lift 15mm and retract 1mm filament
G4 P2000 ; wait for 5 sec
G0 Z15
M107 ; Disable cooling fan
G1 X0 Y-85 Z4 E0 F3000 ; get off the bed
G92 E0
G92 E0
G1 F1500 E-6.5
;LAYER_COUNT:42
;LAYER:0
M106 S51
G1 F600 Z1.3
G0 F4800 X4.408 Y-.885 Z1.3
;TYPE:SKIRT
G1 F600 Z0.3
G1 F1500 E0.54048
G1 F1200 X4.462 Y-1.232 E0.558
G1 X-6.634 Y-1.232 E1.11158
G1 X-6.652 Y11.619 E1.75272
G1 X-6.782 Y12.373 E1.79089
G1 X-7.108 Y12.963 E1.82452
G1 X4.441 Y12.963 E2.4007
G1 X4.396 Y12.732 E2.41244
G1 X4.408 Y-.885 E3.0918
G0 F4800 X4.808 Y-.885
G1 F1200 X4.796 Y12.732 E3.77115
G1 X4.951 Y13.363 E3.80357
G1 X-7.945 Y13.363 E4.44695
G1 X-7.561 Y12.956 E4.47487
G1 X-7.165 Y12.239 E4.51574
G1 X-7.046 Y11.551 E4.55057
G1 X-7.034 Y-1.632 E5.20827
G1 X4.937 Y-1.632 E5.80551
G1 X4.808 Y-.885 E5.84333
G1 F1500 E-0.65667
G1 F600 Z1.3
G0 F4800 X9.475 Y-4.968 Z1.3
G1 F600 Z0.3
G1 F1500 E6.38381
G1 F1200 X10.185 Y-5.334 E6.42366
G1 X10.768 Y-5.732 E6.45887
G1 X11.325 Y-6.085 E6.49177
G1 X11.981 Y-6.56 E6.53218
G1 X12.466 Y-6.928 E6.56255
G1 X15.682 Y-9.451 E6.76648
G1 X17.363 Y-10.742 E6.87223
G1 X18.425 Y-11.194 E6.92981
G1 X19.361 Y-11.44 E6.97809
G1 X20.327 Y-11.527 E7.02648
G1 X21.271 Y-11.48 E7.07364
G1 X22.388 Y-11.2 E7.13109
G1 X23.469 Y-10.614 E7.19243
G1 X24.461 Y-9.882 E7.25394
G1 X25.298 Y-8.788 E7.32266
G1 X26.114 Y-7.386 E7.40359
G1 X26.378 Y-6.903 E7.43106
G1 X26.641 Y-6.609 E7.45074
G1 X26.963 Y-6.447 E7.46872
G1 X27.387 Y-6.352 E7.4904
G1 X27.79 Y-6.429 E7.51087
G1 X28.031 Y-6.525 E7.52381
G1 X28.33 Y-6.767 E7.543
G1 X29.189 Y-7.603 E7.6028
G1 X31.046 Y-9.504 E7.73538
G1 X33.008 Y-11.47 E7.87395
G1 X34.511 Y-12.942 E7.97891
G1 X35.986 Y-13.556 E8.05862
G1 X37.146 Y-13.656 E8.11671
G1 X38.243 Y-13.498 E8.172
G1 X39.471 Y-13.188 E8.23519
G1 X40.245 Y-12.904 E8.27632
G1 X41.31 Y-12.404 E8.33502
G1 X42.285 Y-11.819 E8.39175
G1 X43.399 Y-10.933 E8.46276
G1 X43.874 Y-10.477 E8.49561
G1 X44.986 Y-9.166 E8.58137
G1 X45.679 Y-8.04 E8.64734
G1 X46.201 Y-6.954 E8.70745
G1 X46.808 Y-4.971 E8.81091
G1 X46.977 Y-3.832 E8.86836
G1 X46.825 Y-2.648 E8.92792
G1 X46.435 Y-1.591 E8.98413
G1 X45.816 Y-.719 E9.03748
G1 X45.32 Y-.286 E9.07032
G1 X44.984 Y0.088 E9.09541
G1 X40.721 Y4.343 E9.3959
G1 X40.439 Y4.664 E9.41722
G1 X40.19 Y5.148 E9.44438
G1 X40.079 Y5.694 E9.47217
G1 X40.064 Y6.174 E9.49613
G1 X40.166 Y6.607 E9.51833
G1 X40.459 Y7.199 E9.55128
G1 X41.733 Y8.467 E9.64096
G1 X42.333 Y9.099 E9.68443
G1 X42.673 Y9.42 E9.70776
G1 X43.725 Y10.458 E9.78149
G1 X44.732 Y11.482 E9.85314
G1 X45.188 Y11.966 E9.88632
G1 X45.488 Y12.229 E9.90622
G1 X46.231 Y13.102 E9.96342
G1 X46.62 Y13.803 E10.00341
G1 X46.917 Y14.935 E10.0618
G1 X46.873 Y16.426 E10.13622
G1 X46.457 Y18.025 E10.21865
G1 X45.948 Y19.386 E10.29114
G1 X44.875 Y21.088 E10.39152
G1 X44.522 Y21.474 E10.41762
G1 X43.808 Y22.343 E10.47373
G1 X43.211 Y22.899 E10.51443
G1 X42.304 Y23.59 E10.57132
G1 X41.911 Y23.821 E10.59406
G1 X41.282 Y24.215 E10.63109
G1 X40.105 Y24.76 E10.6958
G1 X39.488 Y24.981 E10.7285
G1 X37.986 Y25.351 E10.80567
G1 X37.035 Y25.476 E10.85353
G1 X35.689 Y25.297 E10.92127
G1 X34.555 Y24.703 E10.98514
G1 X33.747 Y23.985 E11.03906
G1 X33.531 Y23.731 E11.0557
G1 X32.941 Y23.181 E11.09594
G1 X29.346 Y19.628 E11.34811
G1 X28.159 Y18.426 E11.43239
G1 X27.872 Y18.26 E11.44893
G1 X27.525 Y18.165 E11.46688
G1 X27.292 Y18.148 E11.47854
G1 X26.846 Y18.284 E11.5018
G1 X26.578 Y18.478 E11.5183
G1 X26.402 Y18.706 E11.53267
G1 X26.108 Y19.215 E11.562
G1 X25.397 Y20.363 E11.62937
G1 X25.044 Y21.017 E11.66645
G1 X24.031 Y22.083 E11.73981
G1 X22.97 Y22.73 E11.80181
G1 X21.448 Y23.271 E11.8824
G1 X20.193 Y23.331 E11.94508
G1 X19.314 Y23.234 E11.9892
G1 X18.185 Y22.938 E12.04743
G1 X17.196 Y22.434 E12.10281
G1 X14.481 Y20.291 E12.27537
G1 X14.107 Y19.963 E12.30019
G1 X12.605 Y18.758 E12.39626
G1 X12.029 Y18.394 E12.43026
G1 X11.885 Y18.283 E12.43933
G1 X11.263 Y17.882 E12.47625
G1 X10.694 Y17.496 E12.51055
G1 X9.372 Y16.72 E12.58703
G1 X8.625 Y16.332 E12.62902
G1 X8.812 Y16.769 E12.65274
G1 X9.833 Y18.75 E12.76393
G1 X10.232 Y19.338 E12.79938
G1 X10.524 Y19.801 E12.82669
G1 X11.086 Y20.581 E12.87465
G1 X11.404 Y21.003 E12.90101
G1 X13.953 Y24.252 E13.10704
G1 X15.245 Y25.935 E13.21289
G1 X15.676 Y26.938 E13.26736
G1 X15.94 Y27.928 E13.31847
G1 X16.027 Y28.892 E13.36676
G1 X15.98 Y29.837 E13.41397
G1 X15.696 Y30.963 E13.4719
G1 X14.903 Y32.358 E13.55196
G1 X14.37 Y33.037 E13.59502
G1 X13.335 Y33.831 E13.6601
G1 X11.889 Y34.68 E13.74376
G1 X11.39 Y34.957 E13.77223
G1 X11.109 Y35.206 E13.79097
G1 X10.947 Y35.531 E13.80908
G1 X10.851 Y35.954 E13.83072
G1 X10.928 Y36.354 E13.85105
G1 X11.02 Y36.587 E13.86354
G1 X11.307 Y36.938 E13.88616
G1 X12.068 Y37.724 E13.94075
G1 X14.016 Y39.622 E14.07644
G1 X15.97 Y41.575 E14.21426
G1 X17.442 Y43.078 E14.31922
G1 X18.055 Y44.547 E14.39864
G1 X18.156 Y45.718 E14.45727
G1 X17.988 Y46.866 E14.51516
G1 X17.676 Y48.079 E14.57764
G1 X17.42 Y48.777 E14.61474
G1 X16.904 Y49.877 E14.67535
G1 X16.319 Y50.852 E14.73208
G1 X15.433 Y51.966 E14.80309
G1 X14.977 Y52.441 E14.83594
G1 X13.666 Y53.553 E14.92171
G1 X12.503 Y54.266 E14.98977
G1 X11.451 Y54.769 E15.04794
G1 X9.471 Y55.375 E15.15125
G1 X8.333 Y55.544 E15.20865
G1 X7.15 Y55.393 E15.26814
G1 X6.088 Y55.001 E15.32462
G1 X5.219 Y54.384 E15.37779
G1 X4.785 Y53.886 E15.41075
G1 X4.412 Y53.551 E15.43576
G1 X-0.081 Y49.05 E15.75305
G1 X-.649 Y48.757 E15.78494
G1 X-1.194 Y48.646 E15.81268
G1 X-1.671 Y48.631 E15.83649
G1 X-2.099 Y48.734 E15.85846
G1 X-2.71 Y49.036 E15.89246
G1 X-3.967 Y50.3 E15.98139
G1 X-4.599 Y50.9 E16.02487
G1 X-4.92 Y51.24 E16.0482
G1 X-5.958 Y52.292 E16.12193
G1 X-6.983 Y53.3 E16.19365
G1 X-7.464 Y53.753 E16.22662
G1 X-7.724 Y54.052 E16.24639
G1 X-8.571 Y54.782 E16.30217
G1 X-9.308 Y55.188 E16.34415
G1 X-10.442 Y55.484 E16.40262
G1 X-11.925 Y55.44 E16.47664
G1 X-13.525 Y55.024 E16.55912
G1 X-14.886 Y54.515 E16.63161
G1 X-16.588 Y53.442 E16.73199
G1 X-16.974 Y53.089 E16.75809
G1 X-17.843 Y52.375 E16.8142
G1 X-18.399 Y51.778 E16.8549
G1 X-19.12 Y50.828 E16.9144
G1 X-19.352 Y50.429 E16.93743
G1 X-19.764 Y49.755 E16.97684
G1 X-19.959 Y49.314 E17.0009
G1 X-20.21 Y48.795 E17.02966
G1 X-20.479 Y48.061 E17.06866
G1 X-20.851 Y46.553 E17.14615
G1 X-20.976 Y45.609 E17.19366
G1 X-20.798 Y44.252 E17.26194
G1 X-20.209 Y43.125 E17.32538
G1 X-19.482 Y42.31 E17.37987
G1 X-19.223 Y42.09 E17.39682
G1 X-18.714 Y41.542 E17.43413
G1 X-15.128 Y37.914 E17.68863
G1 X-13.928 Y36.727 E17.77284
G1 X-13.758 Y36.439 E17.78953
G1 X-13.665 Y36.095 E17.8073
G1 X-13.648 Y35.861 E17.81901
G1 X-13.785 Y35.414 E17.84233
G1 X-13.98 Y35.144 E17.85895
G1 X-14.209 Y34.967 E17.87339
G1 X-14.715 Y34.675 E17.90254
G1 X-15.898 Y33.942 E17.97197
G1 X-16.52 Y33.608 E18.00719
G1 X-17.583 Y32.598 E18.08034
G1 X-18.23 Y31.537 E18.14234
G1 X-18.771 Y30.015 E18.22293
G1 X-18.831 Y28.761 E18.28556
G1 X-18.734 Y27.881 E18.32973
G1 X-18.438 Y26.752 E18.38796
G1 X-17.934 Y25.763 E18.44334
G1 X-15.792 Y23.049 E18.61584
G1 X-15.463 Y22.674 E18.64072
G1 X-14.257 Y21.17 E18.7369
G1 X-13.92 Y20.634 E18.76849
G1 X-13.801 Y20.477 E18.77832
G1 X-13.382 Y19.828 E18.81686
G1 X-12.972 Y19.226 E18.8532
G1 X-12.221 Y17.943 E18.92737
G1 X-11.963 Y17.444 E18.95539
G1 X-11.334 Y16.068 E19.03087
G1 X-11.027 Y15.28 E19.07306
G1 X-12.423 Y16 E19.15143
G1 X-13.006 Y16.398 E19.18665
G1 X-13.563 Y16.751 E19.21955
G1 X-14.219 Y17.226 E19.25995
G1 X-14.704 Y17.594 E19.29033
G1 X-17.92 Y20.117 E19.49426
G1 X-19.602 Y21.409 E19.60007
G1 X-20.61 Y21.842 E19.6548
G1 X-21.599 Y22.106 E19.70587
G1 X-22.565 Y22.193 E19.75426
G1 X-23.511 Y22.146 E19.80151
G1 X-24.625 Y21.866 E19.85882
G1 X-25.861 Y21.182 E19.9293
G1 X-26.692 Y20.556 E19.9812
G1 X-27.502 Y19.501 E20.04756
G1 X-28.351 Y18.055 E20.13122
G1 X-28.628 Y17.556 E20.15969
G1 X-28.876 Y17.275 E20.17839
G1 X-29.203 Y17.113 E20.1966
G1 X-29.627 Y17.017 E20.21829
G1 X-30.031 Y17.093 E20.2388
G1 X-30.257 Y17.183 E20.25093
G1 X-30.578 Y17.444 E20.27157
G1 X-31.42 Y18.262 E20.33014
G1 X-33.284 Y20.17 E20.46322
G1 X-35.359 Y22.249 E20.60976
G1 X-36.758 Y23.609 E20.7071
G1 X-38.287 Y24.248 E20.78978
G1 X-38.436 Y24.279 E20.79737
G1 X-39.641 Y24.289 E20.85749
G1 X-40.257 Y24.209 E20.88848
G1 X-41.794 Y23.827 E20.96749
G1 X-42.485 Y23.569 E21.00429
G1 X-43.548 Y23.07 E21.06288
G1 X-44.523 Y22.485 E21.1196
G1 X-45.637 Y21.599 E21.19062
G1 X-46.112 Y21.143 E21.22347
G1 X-47.224 Y19.832 E21.30923
G1 X-47.937 Y18.669 E21.37729
G1 X-48.44 Y17.617 E21.43547
G1 X-49.046 Y15.637 E21.53877
G1 X-49.215 Y14.498 E21.59622
G1 X-49.063 Y13.314 E21.65577
G1 X-48.667 Y12.242 E21.71279
G1 X-48.032 Y11.379 E21.76624
G1 X-47.568 Y10.954 E21.79764
G1 X-47.209 Y10.564 E21.82408
G1 X-42.957 Y6.322 E22.12373
G1 X-42.674 Y6 E22.14512
G1 X-42.428 Y5.519 E22.17207
G1 X-42.317 Y4.972 E22.19992
G1 X-42.302 Y4.493 E22.22383
G1 X-42.406 Y4.057 E22.24619
G1 X-42.713 Y3.45 E22.28012
G1 X-43.971 Y2.199 E22.36864
G1 X-44.571 Y1.567 E22.41211
G1 X-44.911 Y1.246 E22.43544
G1 X-45.963 Y0.208 E22.50917
G1 X-46.96 Y-.806 E22.58012
G1 X-47.418 Y-1.292 E22.61344
G1 X-47.714 Y-1.55 E22.63303
G1 X-48.465 Y-2.429 E22.69071
G1 X-48.858 Y-3.137 E22.73111
G1 X-49.155 Y-4.269 E22.78949
G1 X-49.111 Y-5.76 E22.86391
G1 X-48.695 Y-7.359 E22.94634
G1 X-48.187 Y-8.717 E23.01868
G1 X-47.206 Y-10.308 E23.11193
G1 X-46.78 Y-10.784 E23.1438
G1 X-46.046 Y-11.677 E23.20147
G1 X-45.449 Y-12.233 E23.24217
G1 X-44.499 Y-12.954 E23.30167
G1 X-44.14 Y-13.163 E23.32239
G1 X-43.52 Y-13.549 E23.35883
G1 X-42.343 Y-14.094 E23.42354
G1 X-41.726 Y-14.315 E23.45624
G1 X-40.224 Y-14.685 E23.53341
G1 X-39.28 Y-14.81 E23.58092
G1 X-38.182 Y-14.666 E23.63617
G1 X-37.361 Y-14.373 E23.67966
G1 X-36.56 Y-13.838 E23.72772
G1 X-36.016 Y-13.355 E23.76401
G1 X-35.763 Y-13.057 E23.78351
G1 X-35.217 Y-12.55 E23.82069
G1 X-31.587 Y-8.962 E24.07532
G1 X-30.401 Y-7.762 E24.1595
G1 X-30.112 Y-7.592 E24.17623
G1 X-29.768 Y-7.499 E24.194
G1 X-29.53 Y-7.482 E24.20591
G1 X-29.084 Y-7.618 E24.22917
G1 X-28.816 Y-7.813 E24.24571
G1 X-28.637 Y-8.044 E24.26029
G1 X-28.346 Y-8.549 E24.28936
G1 X-27.613 Y-9.732 E24.3588
G1 X-27.279 Y-10.354 E24.39402
G1 X-26.269 Y-11.417 E24.46717
G1 X-25.208 Y-12.064 E24.52917
G1 X-23.686 Y-12.605 E24.60976
G1 X-22.431 Y-12.665 E24.67244
G1 X-21.552 Y-12.568 E24.71656
G1 X-20.423 Y-12.272 E24.77479
G1 X-19.434 Y-11.768 E24.83017
G1 X-16.736 Y-9.639 E25.00164
G1 X-16.371 Y-9.318 E25.02589
G1 X-14.835 Y-8.085 E25.12415
G1 X-14.262 Y-7.723 E25.15797
G1 X-14.141 Y-7.63 E25.16558
G1 X-13.499 Y-7.216 E25.20369
G1 X-12.923 Y-6.825 E25.23842
G1 X-11.429 Y-5.947 E25.32488
G1 X-11.986 Y-7.029 E25.38559
G1 X-12.381 Y-7.604 E25.4204
G1 X-12.73 Y-8.155 E25.45294
G1 X-13.219 Y-8.831 E25.49456
G1 X-13.577 Y-9.302 E25.52408
G1 X-16.102 Y-12.521 E25.72819
G1 X-17.394 Y-14.202 E25.83396
G1 X-17.882 Y-15.372 E25.89721
G1 X-18.067 Y-16.066 E25.93304
G1 X-18.176 Y-17.161 E25.98794
G1 X-18.129 Y-18.107 E26.03519
G1 X-17.845 Y-19.234 E26.09318
G1 X-17.052 Y-20.627 E26.17315
G1 X-16.519 Y-21.306 E26.21621
G1 X-15.484 Y-22.1 E26.28129
G1 X-14.038 Y-22.949 E26.36495
G1 X-13.536 Y-23.228 E26.3936
G1 X-13.259 Y-23.473 E26.41205
G1 X-13.095 Y-23.804 E26.43048
G1 X-13 Y-24.222 E26.45187
G1 X-13.078 Y-24.624 E26.4723
G1 X-13.171 Y-24.855 E26.48472
G1 X-13.445 Y-25.193 E26.50643
G1 X-14.252 Y-26.025 E26.56425
G1 X-16.165 Y-27.891 E26.69758
G1 X-18.158 Y-29.886 E26.83827
G1 X-18.663 Y-30.41 E26.87457
G1 X-18.818 Y-30.556 E26.8852
G1 X-19.591 Y-31.353 E26.94059
G1 X-20.204 Y-32.816 E27.01973
G1 X-20.305 Y-33.988 E27.07841
G1 X-20.137 Y-35.134 E27.1362
G1 X-19.873 Y-36.188 E27.19041
G1 X-19.507 Y-37.186 E27.24344
G1 X-19.053 Y-38.147 E27.29647
G1 X-18.468 Y-39.121 E27.35315
G1 X-17.582 Y-40.235 E27.42416
G1 X-17.126 Y-40.71 E27.45701
G1 X-15.815 Y-41.822 E27.54278
G1 X-14.652 Y-42.535 E27.61084
G1 X-13.6 Y-43.038 E27.66901
G1 X-11.62 Y-43.644 E27.77232
G1 X-10.481 Y-43.813 E27.82977
G1 X-9.295 Y-43.66 E27.88943
G1 X-8.222 Y-43.264 E27.94649
G1 X-7.331 Y-42.606 E28.00175
G1 X-6.932 Y-42.16 E28.0316
G1 X-6.542 Y-41.801 E28.05805
G1 X-2.315 Y-37.566 E28.35657
G1 X-1.983 Y-37.273 E28.37866
G1 X-1.5 Y-37.026 E28.40573
G1 X-.955 Y-36.915 E28.43347
G1 X-.477 Y-36.9 E28.45733
G1 X-0.041 Y-37.003 E28.47968
G1 X0.551 Y-37.296 E28.51264
G1 X1.818 Y-38.569 E28.60224
G1 X2.45 Y-39.169 E28.64572
G1 X2.768 Y-39.506 E28.66884
G1 X3.808 Y-40.561 E28.74275
G1 X4.834 Y-41.57 E28.81454
G1 X5.321 Y-42.027 E28.84786
G1 X5.611 Y-42.356 E28.86974
G1 X6.422 Y-43.051 E28.92302
G1 X7.159 Y-43.457 E28.965
G1 X8.293 Y-43.753 E29.02347
G1 X9.776 Y-43.709 E29.09749
G1 X11.376 Y-43.293 E29.17997
G1 X12.736 Y-42.784 E29.25242
G1 X14.376 Y-41.758 E29.34893
G1 X14.807 Y-41.374 E29.37773
G1 X15.697 Y-40.641 E29.43525
G1 X16.281 Y-40.01 E29.47815
G1 X17.004 Y-39.044 E29.53835
G1 X17.615 Y-38.023 E29.59771
G1 X17.781 Y-37.647 E29.61821
G1 X18.06 Y-37.067 E29.65032
G1 X18.33 Y-36.331 E29.68944
G1 X18.702 Y-34.822 E29.76697
G1 X18.827 Y-33.878 E29.81448
G1 X18.649 Y-32.521 E29.88276
G1 X18.063 Y-31.4 E29.94587
G1 X17.38 Y-30.625 E29.99741
G1 X17.084 Y-30.37 E30.0169
G1 X16.565 Y-29.811 E30.05495
G1 X12.979 Y-26.183 E30.30945
G1 X11.779 Y-24.996 E30.39366
G1 X11.609 Y-24.707 E30.41039
G1 X11.504 Y-24.199 E30.43627
G1 X11.641 Y-23.674 E30.46334
G1 X11.828 Y-23.415 E30.47928
G1 X12.06 Y-23.236 E30.49389
G1 X12.566 Y-22.944 E30.52304
G1 X13.724 Y-22.226 E30.59102
G1 X14.362 Y-21.886 E30.62709
G1 X15.397 Y-20.902 E30.69833
G1 X16.048 Y-19.875 E30.759
G1 X16.622 Y-18.287 E30.84324
G1 X16.682 Y-17.03 E30.90602
G1 X16.585 Y-16.15 E30.95019
G1 X16.286 Y-15.016 E31.0087
G1 X15.789 Y-14.039 E31.06339
G1 X13.643 Y-11.318 E31.23628
G1 X13.314 Y-10.943 E31.26117
G1 X12.108 Y-9.439 E31.35735
G1 X11.771 Y-8.904 E31.38889
G1 X11.657 Y-8.754 E31.39829
G1 X11.233 Y-8.097 E31.4373
G1 X10.829 Y-7.502 E31.47318
G1 X10.074 Y-6.215 E31.54763
G1 X9.837 Y-5.759 E31.57326
G1 X9.475 Y-4.968 E31.61666
G0 F4800 X8.81 Y-4.478
G1 F1200 X8.66 Y-4.098 E31.63705
G1 X10.388 Y-4.988 E31.73402
G1 X10.982 Y-5.394 E31.76991
G1 X11.552 Y-5.755 E31.80358
G1 X12.216 Y-6.236 E31.84448
G1 X12.708 Y-6.609 E31.87528
G1 X15.926 Y-9.134 E32.07935
G1 X17.568 Y-10.395 E32.18264
G1 X18.529 Y-10.808 E32.23483
G1 X19.398 Y-11.042 E32.27973
G1 X20.307 Y-11.127 E32.32527
G1 X21.215 Y-11.082 E32.37063
G1 X22.24 Y-10.825 E32.42335
G1 X23.278 Y-10.262 E32.48226
G1 X24.177 Y-9.595 E32.53811
G1 X24.952 Y-8.587 E32.60155
G1 X25.763 Y-7.194 E32.68196
G1 X26.048 Y-6.673 E32.71159
G1 X26.395 Y-6.284 E32.7376
G1 X26.814 Y-6.074 E32.76098
G1 X27.162 Y-5.969 E32.77911
G1 X27.408 Y-5.948 E32.79143
G1 X27.901 Y-6.043 E32.81648
G1 X28.234 Y-6.175 E32.83435
G1 X28.602 Y-6.474 E32.85801
G1 X29.468 Y-7.316 E32.91827
G1 X31.329 Y-9.221 E33.05113
G1 X33.288 Y-11.184 E33.18949
G1 X34.737 Y-12.603 E33.29067
G1 X36.08 Y-13.162 E33.36325
G1 X37.137 Y-13.253 E33.41618
G1 X38.146 Y-13.11 E33.46702
G1 X39.333 Y-12.812 E33.52808
G1 X40.107 Y-12.528 E33.56921
