;FLAVOR:Marlin
;TIME:3298
;Filament used: 4.74166m
;Layer height: 0.24
;MINX:-37.64
;MINY:-82.955
;MINZ:0.3
;MAXX:17.979
;MAXY:80.279
;MAXZ:10.85
;Generated with Cura_SteamEngine 4.13.1
M140 S50
M105
M190 S50
M104 S205
M105
M109 S205
M82 ;absolute extrusion mode
;FLAVOR:Marlin
M82 ;absolute extrusion mode
G21
G90
M82
M107 T0
G28
G92 E0
G0 E3 F200
G92 E0 ; reset extrusion distance
M106 S255 ; Enable cooling fan full speed
G1 X-98 Y0 Z0.4 F3000 ; move to arc start
G3 X0 Y-98 I98 Z0.4 E40 F400 ; lay arc stripe 90deg
G92 E0 ; reset extrusion distance
G4 P500 ; wait for 0.5 sec
G0 Z10 E-1 ; Lift 15mm and retract 1mm filament
G4 P2000 ; wait for 5 sec
G0 Z15
M107 ; Disable cooling fan
G1 X0 Y-85 Z4 E0 F3000 ; get off the bed
G92 E0
G92 E0
G1 F1500 E-6.5
;LAYER_COUNT:61
;LAYER:0
M107
G1 F600 Z1.3
G0 F3600 X-4.293 Y-79.102 Z1.3
;TYPE:SKIRT
G1 F600 Z0.3
G1 F1500 E0
G1 F2400 X-5.346 Y-79.25 E0.05305
G1 X-8.089 Y-79.717 E0.19187
G1 X-9.616 Y-80.022 E0.26956
G1 X-9.87 Y-80.483 E0.29582
G1 X-8.027 Y-80.114 E0.38959
G1 X-5.262 Y-79.644 E0.52951
G1 X-3.724 Y-79.427 E0.607
G1 X-3.832 Y-79.366 E0.61319
G0 F2160 X-4.276 Y-79.116
G0 X-4.293 Y-79.102
G0 F3600 X-4.051 Y-78.784
G1 F2400 X-4.178 Y-78.682 E0.62132
G1 X-5.402 Y-78.854 E0.68298
G1 X-8.163 Y-79.324 E0.82271
G1 X-9.902 Y-79.672 E0.91119
G1 X-9.946 Y-79.793 E0.91762
G1 X-10.308 Y-80.448 E0.95495
G1 X-10.777 Y-81.039 E0.99259
G1 X-10.831 Y-81.087 E0.9962
G1 X-10.69 Y-81.055 E1.00341
G1 X-7.954 Y-80.507 E1.14262
G1 X-5.201 Y-80.039 E1.28194
G1 X-2.438 Y-79.65 E1.42115
G1 X-1.68 Y-79.566 E1.45919
G1 X-1.732 Y-79.564 E1.46179
G1 X-2.664 Y-79.419 E1.50885
G1 X-3.393 Y-79.155 E1.54753
G1 X-3.588 Y-79.045 E1.5587
G0 F2160 X-4.051 Y-78.784
G0 F3600 X-3.826 Y-78.452
G1 F2400 X-4.062 Y-78.262 E1.57381
G1 X-5.458 Y-78.458 E1.64414
G1 X-8.237 Y-78.931 E1.78478
G1 X-10.201 Y-79.324 E1.88471
G1 X-10.311 Y-79.627 E1.90079
G1 X-10.642 Y-80.225 E1.93489
G1 X-11.069 Y-80.764 E1.9692
G1 X-11.579 Y-81.222 E2.0034
G1 X-12.154 Y-81.596 E2.03762
G1 X-12.784 Y-81.868 E2.07185
G1 X-13.448 Y-82.036 E2.10602
G1 X-14.083 Y-82.088 E2.13781
G1 X-15.165 Y-82.089 E2.19179
G1 X-15.621 Y-82.064 E2.21458
G1 X-16.28 Y-81.934 E2.24809
G1 X-16.923 Y-81.693 E2.28235
G1 X-17.516 Y-81.354 E2.31642
G1 X-18.048 Y-80.919 E2.35071
G1 X-18.504 Y-80.405 E2.38499
G1 X-18.867 Y-79.823 E2.41921
G1 X-19.105 Y-79.252 E2.45007
G1 X-18.885 Y-79.811 E2.48004
G1 X-18.674 Y-80.188 E2.5016
G1 X-18.388 Y-80.588 E2.52613
G1 X-18.085 Y-80.925 E2.54874
G1 X-17.708 Y-81.257 E2.5738
G1 X-17.311 Y-81.533 E2.59792
G1 X-16.906 Y-81.75 E2.62085
G1 X-16.467 Y-81.926 E2.64444
G1 X-16.021 Y-82.049 E2.66752
G1 X-15.553 Y-82.123 E2.69116
G1 X-14.9 Y-82.154 E2.72378
G1 X-14.779 Y-82.155 E2.72982
G1 X-14.024 Y-82.143 E2.76749
G1 X-13.521 Y-82.1 E2.79267
G1 X-13.027 Y-82.003 E2.81779
G1 X-10.606 Y-81.446 E2.94173
G1 X-7.881 Y-80.9 E3.08038
G1 X-5.14 Y-80.434 E3.21909
G1 X-2.388 Y-80.047 E3.35774
G1 X0.376 Y-79.74 E3.49649
G1 X3.146 Y-79.514 E3.63514
G1 X4.757 Y-79.43 E3.71562
G1 X5.577 Y-79.377 E3.75662
G1 X6.025 Y-79.315 E3.77918
G1 X6.492 Y-79.196 E3.80323
G1 X6.971 Y-79.014 E3.82879
G1 X7.363 Y-78.812 E3.85079
G1 X7.758 Y-78.547 E3.87452
G1 X8.113 Y-78.249 E3.89765
G1 X8.425 Y-77.92 E3.92027
G1 X8.715 Y-77.538 E3.9442
G1 X8.975 Y-77.094 E3.96986
G1 X9.154 Y-76.687 E3.99205
G1 X9.313 Y-76.182 E4.01846
G1 X9.448 Y-75.572 E4.04963
G1 X9.838 Y-73.627 E4.1486
G1 X10.397 Y-70.706 E4.29697
G1 X10.623 Y-69.48 E4.35917
G1 X10.813 Y-68.431 E4.41235
G1 X11.112 Y-66.725 E4.49876
G1 X11.522 Y-64.276 E4.62265
G1 X11.626 Y-63.635 E4.65504
G1 X11.95 Y-61.57 E4.75933
G1 X12.327 Y-59.028 E4.88754
G1 X12.623 Y-56.878 E4.99581
G1 X12.916 Y-54.624 E5.10921
G1 X13.001 Y-53.946 E5.1433
G1 X13.182 Y-52.418 E5.22007
G1 X13.291 Y-51.436 E5.26936
G1 X13.487 Y-49.593 E5.36182
G1 X13.554 Y-48.941 E5.39452
G1 X13.706 Y-47.355 E5.47401
G1 X13.752 Y-46.833 E5.50016
G1 X13.914 Y-44.846 E5.59962
G1 X13.976 Y-44.035 E5.6402
G1 X14.086 Y-42.446 E5.71966
G1 X14.142 Y-41.556 E5.76415
G1 X14.219 Y-40.164 E5.8337
G1 X14.266 Y-39.194 E5.88216
G1 X14.328 Y-37.657 E5.9589
G1 X14.363 Y-36.639 E6.00972
G1 X14.406 Y-34.909 E6.09605
G1 X14.421 Y-34.046 E6.13912
G1 X14.436 Y-32.415 E6.22049
G1 X14.436 Y-31.583 E6.262
G1 X14.423 Y-29.98 E6.34198
G1 X14.409 Y-29.12 E6.38489
G1 X14.366 Y-27.474 E6.46703
G1 X14.332 Y-26.513 E6.51501
G1 X14.263 Y-24.943 E6.59341
G1 X14.216 Y-24.079 E6.63658
G1 X14.032 Y-21.194 E6.78081
G1 X14.044 Y-21.194 E6.7814
G1 X13.976 Y-20.054 E6.83838
G1 X13.895 Y-17.274 E6.97713
G1 X13.893 Y-14.493 E7.11588
G1 X13.972 Y-11.716 E7.25448
G1 X14.133 Y-8.94 E7.39321
G1 X14.373 Y-6.171 E7.53187
G1 X14.693 Y-3.409 E7.67059
G1 X15.094 Y-.659 E7.80924
G1 X15.574 Y2.08 E7.94797
G1 X16.133 Y4.803 E8.08666
G1 X16.394 Y5.905 E8.14316
G1 X16.385 Y5.906 E8.14361
G1 X16.933 Y8.181 E8.26035
G1 X17.008 Y8.76 E8.28948
G1 X16.868 Y8.131 E8.32163
G1 X16.614 Y7.497 E8.3557
G1 X16.258 Y6.91 E8.38995
G1 X15.814 Y6.388 E8.42414
G1 X15.29 Y5.947 E8.45831
G1 X14.698 Y5.595 E8.49267
G1 X14.207 Y5.405 E8.51894
G1 X13.96 Y4.381 E8.57149
G1 X14.004 Y4.373 E8.57372
G1 X13.607 Y2.442 E8.67208
G1 X13.117 Y-.353 E8.81365
G1 X12.709 Y-3.162 E8.95526
G1 X12.387 Y-5.923 E9.09394
G1 X12.134 Y-8.853 E9.24066
G1 X12.119 Y-9.119 E9.25395
G1 X12.457 Y-11.009 E9.34974
G1 X12.821 Y-13.293 E9.46513
G1 X13.13 Y-15.526 E9.5776
G1 X13.403 Y-17.818 E9.69275
G1 X13.635 Y-20.172 E9.81076
G1 X13.82 Y-22.477 E9.92613
G1 X13.962 Y-24.77 E10.04075
G1 X14.065 Y-27.075 E10.15586
G1 X14.127 Y-29.373 E10.27055
G1 X14.149 Y-31.663 E10.3848
G1 X14.136 Y-33.956 E10.4992
G1 X14.09 Y-36.234 E10.61288
G1 X14.012 Y-38.507 E10.72634
G1 X13.899 Y-40.805 E10.84113
G1 X13.759 Y-43.073 E10.95449
G1 X13.667 Y-44.293 E11.01553
G1 X13.592 Y-45.33 E11.06741
G1 X13.395 Y-47.6 E11.18108
G1 X13.175 Y-49.86 E11.29437
G1 X12.931 Y-52.101 E11.40683
G1 X12.773 Y-53.42 E11.47311
G1 X12.779 Y-53.42 E11.47341
G1 X12.663 Y-54.352 E11.52026
G1 X12.285 Y-57.295 E11.6683
G1 X12.277 Y-57.295 E11.66869
G1 X12.066 Y-58.833 E11.74614
G1 X11.74 Y-61.057 E11.85829
G1 X11.536 Y-62.371 E11.92463
G1 X11.544 Y-62.371 E11.92503
G1 X11.027 Y-65.518 E12.08414
G1 X10.653 Y-67.683 E12.19375
G1 X10.649 Y-67.721 E12.19565
G1 X10.421 Y-68.977 E12.25934
G1 X10.242 Y-69.974 E12.30988
G1 X9.666 Y-73.01 E12.46404
G1 X9.057 Y-76.06 E12.61921
G1 X8.953 Y-76.467 E12.64017
G1 X8.705 Y-77.089 E12.67358
G1 X8.348 Y-77.675 E12.70781
G1 X7.902 Y-78.194 E12.74195
G1 X7.376 Y-78.635 E12.7762
G1 X6.787 Y-78.986 E12.8104
G1 X6.148 Y-79.236 E12.84464
G1 X5.475 Y-79.376 E12.87893
G1 X4.841 Y-79.404 E12.91059
G1 X-1.694 Y-79.165 E13.23684
G1 X-2.564 Y-79.03 E13.28077
G1 X-3.226 Y-78.79 E13.3159
G1 X-3.363 Y-78.713 E13.32374
G0 F2160 X-3.826 Y-78.452
G0 F3600 X-3.601 Y-78.12
G1 F2400 X-3.946 Y-77.842 E13.34584
G1 X-5.514 Y-78.062 E13.42484
G1 X-8.311 Y-78.538 E13.56639
G1 X-10.501 Y-78.976 E13.67781
G1 X-10.676 Y-79.461 E13.70353
G1 X-10.976 Y-80.002 E13.7344
G1 X-11.362 Y-80.489 E13.7654
G1 X-11.823 Y-80.904 E13.79635
G1 X-12.344 Y-81.242 E13.82733
G1 X-12.913 Y-81.488 E13.85826
G1 X-13.514 Y-81.64 E13.88918
G1 X-14.1 Y-81.688 E13.91852
G1 X-15.154 Y-81.689 E13.9711
G1 X-15.571 Y-81.666 E13.99194
G1 X-16.17 Y-81.548 E14.0224
G1 X-16.752 Y-81.33 E14.0534
G1 X-17.289 Y-81.023 E14.08426
G1 X-17.77 Y-80.63 E14.11525
G1 X-18.182 Y-80.165 E14.14625
G1 X-18.51 Y-79.639 E14.17717
G1 X-18.749 Y-79.068 E14.20805
G1 X-18.895 Y-78.464 E14.23906
G1 X-18.935 Y-77.877 E14.26841
G1 X-18.678 Y-55.842 E15.36782
G1 X-18.908 Y-54.632 E15.42926
G1 X-19.525 Y-51.838 E15.57201
G1 X-20.215 Y-49.086 E15.71356
G1 X-20.99 Y-46.342 E15.85582
G1 X-21.847 Y-43.612 E15.99857
G1 X-22.775 Y-40.931 E16.14011
G1 X-23.784 Y-38.267 E16.28223
G1 X-24.509 Y-36.508 E16.37715
G1 X-24.62 Y-36.384 E16.38545
G1 X-24.946 Y-35.963 E16.41202
G1 X-25.167 Y-35.644 E16.43138
G1 X-25.442 Y-35.189 E16.4579
G1 X-25.636 Y-34.822 E16.47862
G1 X-25.855 Y-34.336 E16.50521
G1 X-26.006 Y-33.939 E16.5264
G1 X-26.161 Y-33.434 E16.55276
G1 X-26.255 Y-33.048 E16.57258
G1 X-26.352 Y-32.526 E16.59906
G1 X-26.376 Y-32.317 E16.60956
G1 X-27.271 Y-30.462 E16.71231
G1 X-28.582 Y-27.933 E16.85443
G1 X-29.967 Y-25.441 E16.99667
G1 X-30.484 Y-24.571 E17.04716
G1 X-30.756 Y-24.463 E17.06176
G1 X-31.244 Y-24.261 E17.08811
G1 X-31.555 Y-24.113 E17.10529
G1 X-32.034 Y-23.856 E17.13241
G1 X-32.325 Y-23.679 E17.14941
G1 X-32.788 Y-23.368 E17.17723
G1 X-33.064 Y-23.161 E17.19444
G1 X-33.491 Y-22.805 E17.22218
G1 X-33.762 Y-22.554 E17.24061
G1 X-34.15 Y-22.153 E17.26845
G1 X-34.37 Y-21.901 E17.28514
G1 X-34.712 Y-21.467 E17.3127
G1 X-34.919 Y-21.175 E17.33056
G1 X-35.218 Y-20.704 E17.35839
G1 X-35.386 Y-20.404 E17.37555
G1 X-35.631 Y-19.911 E17.40301
G1 X-35.772 Y-19.591 E17.42046
G1 X-35.968 Y-19.07 E17.44823
G1 X-36.074 Y-18.736 E17.46571
G1 X-36.214 Y-18.202 E17.49325
G1 X-36.286 Y-17.865 E17.51045
G1 X-36.371 Y-17.319 E17.53802
G1 X-36.407 Y-16.964 E17.55582
G1 X-36.435 Y-16.421 E17.58294
G1 X-36.439 Y-16.25 E17.59148
G1 X-36.44 Y-13.39 E17.73416
G1 X-36.438 Y-12.711 E17.76804
G1 X-36.42 Y-12.365 E17.78532
G1 X-36.314 Y-11.767 E17.81562
G1 X-36.106 Y-11.184 E17.84651
G1 X-35.808 Y-10.639 E17.87749
G1 X-35.422 Y-10.151 E17.90854
G1 X-34.963 Y-9.734 E17.93948
G1 X-34.445 Y-9.396 E17.97033
G1 X-33.877 Y-9.147 E18.00127
G1 X-33.818 Y-9.132 E18.00431
G1 X-33.645 Y-8.236 E18.04984
G1 X-33.185 Y-5.412 E18.19259
G1 X-32.809 Y-2.6 E18.33413
G1 X-32.514 Y0.236 E18.47638
G1 X-32.302 Y3.077 E18.61851
G1 X-32.171 Y5.925 E18.76075
G1 X-32.17 Y5.981 E18.76354
G1 X-32.564 Y7.79 E18.85591
G1 X-33.012 Y10.077 E18.97218
G1 X-33.049 Y10.296 E18.98326
G1 X-33.396 Y12.255 E19.08251
G1 X-33.763 Y14.594 E19.20063
G1 X-34.066 Y16.818 E19.31262
G1 X-34.108 Y17.192 E19.33139
G1 X-34.334 Y19.096 E19.42705
G1 X-34.565 Y21.437 E19.54441
G1 X-34.749 Y23.667 E19.65604
G1 X-34.899 Y26.012 E19.77327
G1 X-35.007 Y28.247 E19.88491
G1 X-35.013 Y28.502 E19.89763
G1 X-35.081 Y30.571 E20.00091
G1 X-35.118 Y32.862 E20.11523
G1 X-35.123 Y35.129 E20.22833
G1 X-35.098 Y37.408 E20.34203
G1 X-35.043 Y39.673 E20.45507
G1 X-34.975 Y41.528 E20.54768
G1 X-34.98 Y41.528 E20.54793
G1 X-34.85 Y44.197 E20.68124
G1 X-34.714 Y46.435 E20.7931
G1 X-34.553 Y48.729 E20.90783
G1 X-34.377 Y50.886 E21.0158
G1 X-34.371 Y50.972 E21.0201
G1 X-34.165 Y53.225 E21.13297
G1 X-33.96 Y55.275 E21.23576
G1 X-33.695 Y57.722 E21.35855
G1 X-33.487 Y59.487 E21.44722
G1 X-33.436 Y59.939 E21.46991
G1 X-33.151 Y62.199 E21.58356
G1 X-32.855 Y64.405 E21.6946
G1 X-32.545 Y66.595 E21.80495
G1 X-32.543 Y66.62 E21.8062
G1 X-32.082 Y69.679 E21.96054
G1 X-31.471 Y73.47 E22.15211
G1 X-31.392 Y73.458 E22.1561
G1 X-31.3 Y73.711 E22.16953
G1 X-31 Y74.253 E22.20044
G1 X-30.611 Y74.74 E22.23153
G1 X-30.152 Y75.156 E22.26244
G1 X-29.63 Y75.491 E22.29338
G1 X-29.061 Y75.737 E22.32431
G1 X-28.458 Y75.888 E22.35532
G1 X-27.872 Y75.936 E22.38466
G1 X-21.384 Y75.936 E22.70835
G1 X-20.57 Y75.842 E22.74923
G1 X-19.969 Y75.645 E22.78078
G1 X-19.418 Y75.363 E22.81166
G1 X-18.919 Y74.993 E22.84265
G1 X-18.487 Y74.545 E22.8737
G1 X-18.405 Y74.426 E22.88091
G1 X-16.854 Y74.583 E22.95869
G1 X-14.017 Y74.953 E23.10142
G1 X-11.216 Y75.401 E23.24294
G1 X-8.415 Y75.933 E23.38518
G1 X-6.885 Y76.27 E23.46334
G1 X-6.864 Y76.354 E23.46766
G1 X-6.638 Y76.92 E23.49807
G1 X-6.316 Y77.453 E23.52914
G1 X-5.911 Y77.922 E23.56005
G1 X-5.439 Y78.321 E23.59089
G1 X-4.904 Y78.639 E23.62194
G1 X-4.326 Y78.863 E23.65286
G1 X-3.719 Y78.993 E23.68383
G1 X-3.132 Y79.019 E23.71315
G1 X-2.079 Y78.981 E23.76572
G1 X-1.663 Y78.944 E23.78655
G1 X-1.068 Y78.804 E23.81705
G1 X-.494 Y78.566 E23.84805
G1 X0.033 Y78.237 E23.87904
G1 X0.499 Y77.827 E23.91001
G1 X0.891 Y77.347 E23.94093
G1 X1.201 Y76.811 E23.97182
G1 X1.42 Y76.229 E24.00284
G1 X1.541 Y75.621 E24.03377
G1 X1.559 Y75.033 E24.06312
G1 X0.489 Y52.986 E25.16435
G1 X0.652 Y51.904 E25.21894
G1 X1.161 Y49.088 E25.3617
G1 X1.746 Y46.312 E25.50324
G1 X2.415 Y43.541 E25.64546
G1 X3.164 Y40.791 E25.78765
G1 X3.995 Y38.054 E25.93036
G1 X4.898 Y35.364 E26.07192
G1 X5.577 Y33.52 E26.16996
G1 X5.7 Y33.371 E26.1796
G1 X6.013 Y32.94 E26.20617
G1 X6.234 Y32.594 E26.22666
G1 X6.492 Y32.131 E26.2531
G1 X6.671 Y31.754 E26.27392
G1 X6.871 Y31.259 E26.30056
G1 X7.001 Y30.878 E26.32064
G1 X7.139 Y30.367 E26.34705
G1 X7.223 Y29.963 E26.36763
G1 X7.301 Y29.432 E26.39441
G1 X7.322 Y29.184 E26.40683
G1 X8.089 Y27.423 E26.50266
G1 X9.298 Y24.855 E26.64426
G1 X10.591 Y22.303 E26.78699
G1 X11.11 Y21.349 E26.84117
G1 X11.886 Y21 E26.88362
G1 X12.199 Y20.837 E26.90123
G1 X12.673 Y20.559 E26.92864
G1 X12.963 Y20.369 E26.94594
G1 X13.412 Y20.04 E26.97371
G1 X13.688 Y19.814 E26.99151
G1 X14.098 Y19.442 E27.01913
G1 X14.34 Y19.199 E27.03624
G1 X14.71 Y18.788 E27.06383
G1 X14.932 Y18.514 E27.08142
G1 X15.259 Y18.065 E27.10913
G1 X15.448 Y17.776 E27.12636
G1 X15.726 Y17.298 E27.15395
G1 X15.886 Y16.986 E27.17144
G1 X16.115 Y16.481 E27.19911
G1 X16.242 Y16.153 E27.21665
G1 X16.417 Y15.63 E27.24417
G1 X16.507 Y15.306 E27.26094
G1 X16.63 Y14.762 E27.28877
G1 X16.689 Y14.406 E27.30677
G1 X16.752 Y13.858 E27.33429
G1 X16.776 Y13.521 E27.35115
G1 X16.784 Y12.977 E27.37829
G1 X16.782 Y12.797 E27.38727
G1 X16.649 Y9.213 E27.5662
G1 X16.617 Y8.844 E27.58468
G1 X16.485 Y8.25 E27.61504
G1 X16.255 Y7.676 E27.64589
G1 X15.933 Y7.145 E27.67687
G1 X15.531 Y6.673 E27.7078
G1 X15.057 Y6.274 E27.73871
G1 X14.522 Y5.956 E27.76976
G1 X13.944 Y5.732 E27.80069
G1 X13.87 Y5.716 E27.80447
G1 X13.472 Y4.067 E27.8891
G1 X13.53 Y4.056 E27.89204
G1 X13.215 Y2.522 E27.97017
G1 X12.723 Y-.284 E28.1123
G1 X12.313 Y-3.104 E28.25447
G1 X11.986 Y-5.923 E28.39605
G1 X11.738 Y-8.774 E28.53883
G1 X11.717 Y-9.147 E28.55747
G1 X12.062 Y-11.073 E28.65508
G1 X12.425 Y-13.352 E28.77022
G1 X12.733 Y-15.575 E28.88218
G1 X13.011 Y-17.926 E29.00029
G1 X13.237 Y-20.207 E29.11465
G1 X13.421 Y-22.502 E29.22951
G1 X13.563 Y-24.792 E29.34398
G1 X13.665 Y-27.087 E29.45859
G1 X13.696 Y-28.271 E29.51768
G1 X13.727 Y-29.378 E29.57293
G1 X13.749 Y-31.662 E29.68689
G1 X13.736 Y-33.948 E29.80094
G1 X13.69 Y-36.223 E29.91446
G1 X13.612 Y-38.493 E30.02778
G1 X13.5 Y-40.781 E30.14206
G1 X13.36 Y-43.045 E30.25523
G1 X13.268 Y-44.263 E30.31617
G1 X13.193 Y-45.299 E30.36799
G1 X12.997 Y-47.558 E30.48112
G1 X12.777 Y-49.817 E30.59435
G1 X12.533 Y-52.058 E30.70682
G1 X12.322 Y-53.82 E30.79535
G1 X12.266 Y-54.302 E30.81956
G1 X11.933 Y-56.895 E30.94999
G1 X11.928 Y-56.895 E30.95024
G1 X11.67 Y-58.778 E31.04506
G1 X11.344 Y-60.999 E31.15705
G1 X11.069 Y-62.771 E31.24652
G1 X10.636 Y-65.428 E31.38082
G1 X10.253 Y-67.661 E31.49385
G1 X10.027 Y-68.906 E31.55698
G1 X9.85 Y-69.894 E31.60706
G1 X9.275 Y-72.925 E31.76097
G1 X8.667 Y-75.971 E31.91594
G1 X8.572 Y-76.343 E31.93509
G1 X8.346 Y-76.909 E31.9655
G1 X8.023 Y-77.439 E31.99646
G1 X7.62 Y-77.909 E32.02735
G1 X7.144 Y-78.308 E32.05834
G1 X6.611 Y-78.625 E32.08928
G1 X6.033 Y-78.851 E32.12024
G1 X5.425 Y-78.978 E32.15123
G1 X4.839 Y-79.004 E32.18049
G1 X-1.656 Y-78.766 E32.50475
G1 X-2.464 Y-78.641 E32.54554
G1 X-3.059 Y-78.425 E32.57712
G1 X-3.137 Y-78.381 E32.58159
G0 F2160 X-3.601 Y-78.12
G0 F3600 X-3.376 Y-77.788
G1 F2400 X-3.808 Y-77.44 E32.60926
G1 X-3.825 Y-77.421 E32.61053
G1 X-5.57 Y-77.666 E32.69845
G1 X-8.391 Y-78.146 E32.84121
G1 X-10.823 Y-78.633 E32.96495
G1 X-10.854 Y-78.778 E32.97235
G1 X-11.041 Y-79.295 E32.99978
G1 X-11.31 Y-79.779 E33.0274
G1 X-11.655 Y-80.214 E33.0551
G1 X-12.067 Y-80.586 E33.08279
G1 X-12.533 Y-80.888 E33.1105
G1 X-13.042 Y-81.108 E33.13816
G1 X-13.58 Y-81.244 E33.16585
