;FLAVOR:Marlin
;TIME:1029
;Filament used: 1.26143m
;Layer height: 0.12
;MINX:-33.301
;MINY:-17.3
;MINZ:0.3
;MAXX:15.3
;MAXY:24.108
;MAXZ:8.11
;Generated with Cura_SteamEngine 4.12.1
M140 S40
M105
M190 S40
M104 S210
M105
M109 S210
M82 ;absolute extrusion mode
;FLAVOR:Marlin
M82 ;absolute extrusion mode
G21
G90
M82
M107 T0
G28
G92 E0
G0 E3 F200
G92 E0 ; reset extrusion distance
M106 S255 ; Enable cooling fan full speed
G1 X-98 Y0 Z0.4 F3000 ; move to arc start
G3 X0 Y-98 I98 Z0.4 E40 F400 ; lay arc stripe 90deg
G92 E0 ; reset extrusion distance
G4 P500 ; wait for 0.5 sec
G0 Z10 E-1 ; Lift 15mm and retract 1mm filament
G4 P2000 ; wait for 5 sec
G0 Z15
M107 ; Disable cooling fan
G1 X0 Y-85 Z4 E0 F3000 ; get off the bed
G92 E0
G92 E0
G1 F1500 E-6.5
;LAYER_COUNT:35
;LAYER:0
M107
G1 F600 Z1.3
G0 F3600 X8.836 Y4.72 Z1.3
;TYPE:SKIRT
G1 F600 Z0.3
G1 F1500 E0
G1 F1800 X7.678 Y7.259 E0.13922
G1 X6.607 Y9.796 E0.27661
G1 X5.61 Y12.353 E0.41353
G1 X4.519 Y15.429 E0.57636
G1 X4.324 Y15.86 E0.59997
G1 X4.059 Y16.251 E0.62353
G1 X3.648 Y16.664 E0.6526
G1 X3.496 Y16.788 E0.66239
G1 X1.563 Y18.305 E0.78498
G1 X-.531 Y20.044 E0.92077
G1 X-3.59 Y22.777 E1.12543
G1 X-4.056 Y23.204 E1.15696
G1 X-4.633 Y23.597 E1.19179
G1 X-5.055 Y23.81 E1.21537
G1 X-5.572 Y23.972 E1.2424
G1 X-6.117 Y24.069 E1.27002
G1 X-6.561 Y24.098 E1.29222
G1 X-7.248 Y24.108 E1.3265
G1 X-7.724 Y24.107 E1.35024
G1 X-9.165 Y24.086 E1.42214
G1 X-10.635 Y24.044 E1.49551
G1 X-13.398 Y24.044 E1.63336
G1 X-15.128 Y24.084 E1.71969
G1 X-15.851 Y24.106 E1.75578
G1 X-16.052 Y24.108 E1.76581
G1 X-19.76 Y24.107 E1.9508
G1 X-21.15 Y24.087 E2.02015
G1 X-22.674 Y24.044 E2.09622
G1 X-25.437 Y24.044 E2.23406
G1 X-27.125 Y24.084 E2.3183
G1 X-27.845 Y24.106 E2.35424
G1 X-28.048 Y24.108 E2.36437
G1 X-28.895 Y24.107 E2.40663
G1 X-29.322 Y24.099 E2.42793
G1 X-29.83 Y24.075 E2.4533
G1 X-30.368 Y23.997 E2.48043
G1 X-30.883 Y23.829 E2.50745
G1 X-31.113 Y23.729 E2.51996
G1 X-31.628 Y23.437 E2.5495
G1 X-31.801 Y23.313 E2.56012
G1 X-32.275 Y22.884 E2.59201
G1 X-32.418 Y22.721 E2.60283
G1 X-32.744 Y22.263 E2.63088
G1 X-32.824 Y22.123 E2.63892
G1 X-33.049 Y21.619 E2.66646
G1 X-33.234 Y20.95 E2.70109
G1 X-33.281 Y20.487 E2.72431
G1 X-33.301 Y19.357 E2.78069
G1 X-33.299 Y16.197 E2.93835
G1 X-33.276 Y15.053 E2.99543
G1 X-33.235 Y14.539 E3.02116
G1 X-33.148 Y14.033 E3.04677
G1 X-32.967 Y13.417 E3.0788
G1 X-32.649 Y12.662 E3.11968
G1 X-32.469 Y12.338 E3.13817
G1 X-32.17 Y11.857 E3.16642
G1 X-30.76 Y9.519 E3.30264
G1 X-29.385 Y7.087 E3.44202
G1 X-28.114 Y4.683 E3.57769
G1 X-26.891 Y2.205 E3.71555
G1 X-25.759 Y-.265 E3.8511
G1 X-24.661 Y-2.853 E3.99136
G1 X-23.678 Y-5.364 E4.12589
G1 X-22.518 Y-8.624 E4.29852
G1 X-22.322 Y-9.054 E4.3221
G1 X-22.057 Y-9.446 E4.34571
G1 X-21.643 Y-9.861 E4.37495
G1 X-21.451 Y-10.016 E4.38726
G1 X-19.53 Y-11.523 E4.50907
G1 X-17.442 Y-13.261 E4.64461
G1 X-15.345 Y-15.11 E4.78409
G1 X-14.247 Y-16.128 E4.85879
G1 X-13.658 Y-16.61 E4.89676
G1 X-13.485 Y-16.723 E4.90707
G1 X-12.944 Y-16.998 E4.93735
G1 X-12.34 Y-17.193 E4.96901
G1 X-11.598 Y-17.282 E5.0063
G1 X-11.415 Y-17.291 E5.01544
G1 X-10.753 Y-17.3 E5.04847
G1 X-10.22 Y-17.299 E5.07506
G1 X-8.806 Y-17.278 E5.14561
G1 X-7.415 Y-17.239 E5.21504
G1 X-4.677 Y-17.239 E5.35164
G1 X-3.928 Y-17.261 E5.38902
G1 X-1.532 Y-17.3 E5.50857
G1 X1.76 Y-17.299 E5.67281
G1 X3.156 Y-17.279 E5.74246
G1 X4.57 Y-17.238 E5.81304
G1 X7.3 Y-17.238 E5.94924
G1 X8.095 Y-17.262 E5.98892
G1 X10.466 Y-17.3 E6.10723
G1 X11.232 Y-17.294 E6.14544
G1 X11.819 Y-17.267 E6.17476
G1 X12.476 Y-17.155 E6.20801
G1 X12.686 Y-17.093 E6.21893
G1 X13.308 Y-16.824 E6.25274
G1 X13.513 Y-16.704 E6.26459
G1 X14.054 Y-16.292 E6.29852
G1 X14.221 Y-16.129 E6.31016
G1 X14.65 Y-15.592 E6.34445
G1 X14.786 Y-15.371 E6.3574
G1 X15.057 Y-14.789 E6.38943
G1 X15.12 Y-14.6 E6.39937
G1 X15.255 Y-13.937 E6.43312
G1 X15.291 Y-13.415 E6.45923
G1 X15.3 Y-12.751 E6.49236
G1 X15.299 Y-9.109 E6.67406
G1 X15.289 Y-8.431 E6.70789
G1 X15.248 Y-7.9 E6.73446
G1 X15.163 Y-7.33 E6.76321
G1 X14.95 Y-6.555 E6.80331
G1 X14.737 Y-6.031 E6.83153
G1 X14.458 Y-5.512 E6.86093
G1 X14.077 Y-4.897 E6.89702
G1 X12.658 Y-2.536 E7.03445
G1 X11.31 Y-.142 E7.17152
G1 X10.029 Y2.292 E7.30874
G1 X9.07 Y4.243 E7.4172
G0 F1620 X8.836 Y4.72
G0 F3600 X8.472 Y4.554
G1 F1800 X7.298 Y7.128 E7.55834
G1 X6.242 Y9.631 E7.69388
G1 X5.236 Y12.211 E7.83203
G1 X4.142 Y15.295 E7.99529
G1 X3.959 Y15.693 E8.01714
G1 X3.706 Y16.05 E8.03897
G1 X3.282 Y16.446 E8.06792
G1 X1.298 Y18.004 E8.19377
G1 X-.77 Y19.722 E8.3279
G1 X-3.901 Y22.519 E8.53736
G1 X-4.311 Y22.896 E8.56515
G1 X-4.842 Y23.256 E8.59715
G1 X-5.446 Y23.521 E8.63006
G1 X-6.148 Y23.67 E8.66586
G1 X-6.567 Y23.698 E8.68681
G1 X-7.247 Y23.708 E8.72074
G1 X-7.718 Y23.707 E8.74424
G1 X-9.119 Y23.687 E8.81415
G1 X-10.624 Y23.644 E8.88926
G1 X-13.407 Y23.644 E9.0281
G1 X-15.141 Y23.684 E9.11464
G1 X-15.856 Y23.706 E9.15033
G1 X-16.052 Y23.708 E9.1601
G1 X-19.755 Y23.707 E9.34485
G1 X-21.139 Y23.687 E9.4139
G1 X-22.663 Y23.644 E9.48997
G1 X-25.446 Y23.644 E9.62881
G1 X-27.137 Y23.684 E9.7132
G1 X-27.85 Y23.706 E9.74879
G1 X-28.048 Y23.708 E9.75867
G1 X-28.889 Y23.707 E9.80062
G1 X-29.303 Y23.699 E9.82128
G1 X-29.811 Y23.675 E9.84665
G1 X-30.341 Y23.591 E9.87343
G1 X-30.954 Y23.362 E9.90607
G1 X-31.395 Y23.112 E9.93136
G1 X-31.568 Y22.988 E9.94198
G1 X-31.974 Y22.62 E9.96932
G1 X-32.397 Y22.065 E10.00414
G1 X-32.67 Y21.493 E10.03576
G1 X-32.839 Y20.886 E10.06719
G1 X-32.881 Y20.48 E10.08756
G1 X-32.901 Y19.357 E10.14359
G1 X-32.9 Y16.205 E10.30085
G1 X-32.877 Y15.061 E10.35793
G1 X-32.799 Y14.322 E10.395
G1 X-32.676 Y13.806 E10.42147
G1 X-32.413 Y13.103 E10.45892
G1 X-32.129 Y12.549 E10.48998
G1 X-31.847 Y12.095 E10.51664
G1 X-30.396 Y9.691 E10.65673
G1 X-29.056 Y7.32 E10.7926
G1 X-27.739 Y4.829 E10.93318
G1 X-26.54 Y2.398 E11.06841
G1 X-25.369 Y-.157 E11.20863
G1 X-24.314 Y-2.643 E11.34337
G1 X-23.298 Y-5.239 E11.48245
G1 X-22.141 Y-8.49 E11.6546
G1 X-21.957 Y-8.887 E11.67643
G1 X-21.705 Y-9.244 E11.69824
G1 X-21.233 Y-9.678 E11.73023
G1 X-19.294 Y-11.2 E11.8532
G1 X-17.167 Y-12.97 E11.99126
G1 X-15.119 Y-14.775 E12.12745
G1 X-13.981 Y-15.829 E12.20484
G1 X-13.439 Y-16.275 E12.23986
G1 X-13.266 Y-16.388 E12.25017
G1 X-12.803 Y-16.624 E12.27609
G1 X-12.256 Y-16.802 E12.30479
G1 X-11.566 Y-16.883 E12.33945
G1 X-11.409 Y-16.891 E12.34729
G1 X-10.754 Y-16.9 E12.37998
G1 X-10.226 Y-16.899 E12.40632
G1 X-8.817 Y-16.878 E12.47662
G1 X-7.426 Y-16.839 E12.54605
G1 X-4.666 Y-16.839 E12.68374
G1 X-3.921 Y-16.861 E12.72093
G1 X-1.532 Y-16.9 E12.84013
G1 X1.755 Y-16.899 E13.00412
G1 X3.145 Y-16.879 E13.07347
G1 X4.559 Y-16.838 E13.14405
G1 X7.312 Y-16.838 E13.2814
G1 X8.102 Y-16.862 E13.32083
G1 X10.465 Y-16.9 E13.43873
G1 X11.226 Y-16.894 E13.4767
G1 X11.8 Y-16.867 E13.50537
G1 X12.363 Y-16.772 E13.53385
G1 X12.573 Y-16.71 E13.54478
G1 X13.105 Y-16.479 E13.57371
G1 X13.31 Y-16.359 E13.58557
G1 X13.774 Y-16.006 E13.61465
G1 X13.941 Y-15.843 E13.62629
G1 X14.309 Y-15.383 E13.65568
G1 X14.445 Y-15.162 E13.66863
G1 X14.678 Y-14.663 E13.69611
G1 X14.741 Y-14.474 E13.70605
G1 X14.856 Y-13.905 E13.73501
G1 X14.891 Y-13.41 E13.75976
G1 X14.9 Y-12.751 E13.79264
G1 X14.899 Y-9.115 E13.97405
G1 X14.889 Y-8.437 E14.00787
G1 X14.85 Y-7.936 E14.03295
G1 X14.768 Y-7.394 E14.06029
G1 X14.569 Y-6.675 E14.09751
G1 X14.372 Y-6.195 E14.1234
G1 X14.118 Y-5.723 E14.15014
G1 X13.737 Y-5.108 E14.18623
G1 X12.309 Y-2.733 E14.32449
G1 X10.976 Y-.364 E14.46011
G1 X9.667 Y2.122 E14.60028
G1 X8.706 Y4.077 E14.70896
G0 F1620 X8.472 Y4.554
G0 F3600 X8.101 Y4.403
G1 F1800 X6.948 Y6.931 E14.84758
G1 X5.858 Y9.514 E14.98745
G1 X4.866 Y12.059 E15.12373
G1 X3.765 Y15.162 E15.28799
G1 X3.594 Y15.523 E15.30792
G1 X3.356 Y15.843 E15.32782
G1 X3.002 Y16.158 E15.35146
G1 X1.094 Y17.655 E15.47245
G1 X-1.052 Y19.438 E15.61165
G1 X-4.136 Y22.192 E15.81793
G1 X-4.566 Y22.588 E15.84709
G1 X-5.051 Y22.915 E15.87627
G1 X-5.555 Y23.136 E15.90373
G1 X-6.179 Y23.271 E15.93558
G1 X-6.574 Y23.298 E15.95533
G1 X-7.247 Y23.308 E15.98891
G1 X-7.713 Y23.307 E16.01216
G1 X-9.142 Y23.286 E16.08346
G1 X-10.612 Y23.244 E16.15683
G1 X-13.416 Y23.244 E16.29672
G1 X-15.153 Y23.284 E16.38341
G1 X-15.861 Y23.306 E16.41874
G1 X-16.052 Y23.308 E16.42827
G1 X-19.749 Y23.307 E16.61272
G1 X-21.127 Y23.287 E16.68147
G1 X-22.651 Y23.244 E16.75754
G1 X-25.455 Y23.244 E16.89743
G1 X-27.15 Y23.284 E16.98202
G1 X-27.855 Y23.306 E17.01721
G1 X-28.047 Y23.308 E17.02679
G1 X-28.883 Y23.307 E17.06849
G1 X-29.284 Y23.3 E17.0885
G1 X-29.792 Y23.276 E17.11388
G1 X-30.245 Y23.203 E17.13677
G1 X-30.794 Y22.995 E17.16606
G1 X-31.335 Y22.663 E17.19772
G1 X-31.816 Y22.193 E17.23128
G1 X-32.129 Y21.726 E17.25932
G1 X-32.367 Y21.135 E17.29111
G1 X-32.481 Y20.472 E17.32467
G1 X-32.501 Y19.357 E17.38031
G1 X-32.5 Y16.213 E17.53716
G1 X-32.477 Y15.069 E17.59425
G1 X-32.407 Y14.403 E17.62766
G1 X-32.291 Y13.912 E17.65283
G1 X-32.041 Y13.25 E17.68813
G1 X-31.79 Y12.76 E17.7156
G1 X-31.49 Y12.279 E17.74388
G1 X-30.064 Y9.915 E17.88162
G1 X-28.697 Y7.497 E18.0202
G1 X-27.405 Y5.054 E18.15807
G1 X-26.16 Y2.53 E18.29848
G1 X-25.018 Y0.037 E18.43529
G1 X-23.932 Y-2.521 E18.57393
G1 X-22.924 Y-5.095 E18.71185
G1 X-21.764 Y-8.355 E18.88448
G1 X-21.593 Y-8.717 E18.90445
G1 X-21.354 Y-9.037 E18.92438
G1 X-20.957 Y-9.386 E18.95075
G1 X-19.037 Y-10.893 E19.07252
G1 X-16.93 Y-12.646 E19.20926
G1 X-14.816 Y-14.51 E19.34988
G1 X-13.715 Y-15.53 E19.42475
G1 X-13.221 Y-15.94 E19.45678
G1 X-12.661 Y-16.25 E19.48872
G1 X-12.172 Y-16.411 E19.5144
G1 X-11.534 Y-16.485 E19.54644
G1 X-11.403 Y-16.491 E19.55299
G1 X-10.755 Y-16.5 E19.58532
G1 X-10.232 Y-16.499 E19.61141
G1 X-8.828 Y-16.478 E19.68146
G1 X-7.437 Y-16.439 E19.75089
G1 X-4.654 Y-16.439 E19.88973
G1 X-3.914 Y-16.461 E19.92667
G1 X-1.532 Y-16.5 E20.04552
G1 X1.749 Y-16.499 E20.20921
G1 X3.133 Y-16.479 E20.27827
G1 X4.547 Y-16.438 E20.34884
G1 X7.324 Y-16.438 E20.48739
G1 X8.108 Y-16.462 E20.52652
G1 X10.464 Y-16.5 E20.64408
G1 X11.221 Y-16.494 E20.68184
G1 X11.78 Y-16.468 E20.70976
G1 X12.459 Y-16.326 E20.74437
G1 X13.108 Y-16.014 E20.7803
G1 X13.662 Y-15.556 E20.81616
G1 X14.104 Y-14.952 E20.8535
G1 X14.361 Y-14.347 E20.88629
G1 X14.485 Y-13.533 E20.92737
G1 X14.491 Y-13.404 E20.93382
G1 X14.5 Y-12.751 E20.9664
G1 X14.499 Y-9.121 E21.1475
G1 X14.489 Y-8.443 E21.18133
G1 X14.434 Y-7.834 E21.21183
G1 X14.308 Y-7.181 E21.24501
G1 X14.103 Y-6.572 E21.27707
G1 X13.832 Y-6.027 E21.30744
G1 X13.778 Y-5.934 E21.3128
G1 X13.397 Y-5.319 E21.3489
G1 X11.983 Y-2.967 E21.48581
G1 X10.614 Y-.534 E21.62509
G1 X9.305 Y1.951 E21.76522
G1 X8.335 Y3.926 E21.87499
G0 F1620 X8.101 Y4.403
G0 F3600 X7.744 Y4.222
G1 F1800 X6.57 Y6.796 E22.01614
G1 X5.506 Y9.317 E22.15265
G1 X4.486 Y11.934 E22.29278
G1 X3.388 Y15.028 E22.45657
G1 X3.232 Y15.349 E22.47438
G1 X2.89 Y15.734 E22.50007
G1 X2.755 Y15.844 E22.50876
G1 X0.804 Y17.375 E22.63249
G1 X-1.307 Y19.129 E22.76941
G1 X-4.434 Y21.922 E22.97859
G1 X-4.821 Y22.28 E23.00489
G1 X-5.261 Y22.574 E23.03129
G1 X-5.898 Y22.817 E23.06531
G1 X-6.482 Y22.893 E23.09469
G1 X-6.58 Y22.898 E23.09958
G1 X-7.246 Y22.908 E23.13282
G1 X-7.707 Y22.907 E23.15581
G1 X-9.131 Y22.886 E23.22687
G1 X-10.601 Y22.844 E23.30023
G1 X-13.382 Y22.844 E23.43898
G1 X-15.18 Y22.884 E23.5287
G1 X-15.866 Y22.906 E23.56295
G1 X-16.051 Y22.908 E23.57218
G1 X-19.744 Y22.907 E23.75642
G1 X-21.116 Y22.887 E23.82488
G1 X-22.64 Y22.844 E23.90094
G1 X-25.422 Y22.844 E24.03974
G1 X-27.176 Y22.884 E24.12727
G1 X-27.86 Y22.906 E24.16141
G1 X-28.047 Y22.908 E24.17074
G1 X-28.877 Y22.907 E24.21215
G1 X-29.266 Y22.9 E24.23156
G1 X-29.774 Y22.876 E24.25693
G1 X-30.15 Y22.815 E24.27593
G1 X-30.635 Y22.628 E24.30187
G1 X-31.102 Y22.337 E24.32932
G1 X-31.516 Y21.929 E24.35832
G1 X-31.782 Y21.528 E24.38233
G1 X-31.988 Y21.009 E24.41018
G1 X-32.081 Y20.465 E24.43772
G1 X-32.101 Y19.357 E24.493
G1 X-32.1 Y16.221 E24.64946
G1 X-32.077 Y15.077 E24.70655
G1 X-32.015 Y14.484 E24.73629
G1 X-31.851 Y13.857 E24.76863
G1 X-31.591 Y13.228 E24.80258
G1 X-31.45 Y12.971 E24.81721
G1 X-31.151 Y12.49 E24.84546
G1 X-29.701 Y10.087 E24.98548
G1 X-28.332 Y7.664 E25.12433
G1 X-27.05 Y5.239 E25.26118
G1 X-25.801 Y2.707 E25.40203
G1 X-24.657 Y0.211 E25.53902
G1 X-23.563 Y-2.367 E25.67873
G1 X-22.541 Y-4.977 E25.81857
G1 X-21.387 Y-8.221 E25.99035
G1 X-21.231 Y-8.542 E26.00816
G1 X-20.887 Y-8.928 E26.03395
G1 X-20.71 Y-9.072 E26.04534
G1 X-18.777 Y-10.589 E26.16793
G1 X-16.655 Y-12.355 E26.30566
G1 X-14.57 Y-14.193 E26.44433
G1 X-13.448 Y-15.232 E26.52062
G1 X-13.002 Y-15.606 E26.54966
G1 X-12.52 Y-15.876 E26.57722
G1 X-12.046 Y-16.028 E26.60206
G1 X-11.502 Y-16.086 E26.62935
G1 X-11.397 Y-16.091 E26.6346
G1 X-10.756 Y-16.1 E26.66658
G1 X-10.238 Y-16.099 E26.69242
G1 X-8.839 Y-16.078 E26.76223
G1 X-7.448 Y-16.039 E26.83165
G1 X-4.642 Y-16.039 E26.97164
G1 X-3.908 Y-16.061 E27.00828
G1 X-1.533 Y-16.1 E27.12678
G1 X1.743 Y-16.099 E27.29022
G1 X3.121 Y-16.079 E27.35898
G1 X4.535 Y-16.038 E27.42955
G1 X7.336 Y-16.038 E27.5693
G1 X8.115 Y-16.062 E27.60818
G1 X10.463 Y-16.1 E27.72534
G1 X11.215 Y-16.094 E27.76286
G1 X11.761 Y-16.068 E27.79013
G1 X12.346 Y-15.943 E27.81997
G1 X12.906 Y-15.669 E27.85107
G1 X13.383 Y-15.27 E27.8821
G1 X13.764 Y-14.743 E27.91454
G1 X13.982 Y-14.221 E27.94277
G1 X14.086 Y-13.502 E27.97901
G1 X14.091 Y-13.398 E27.9842
G1 X14.1 Y-12.752 E28.01644
G1 X14.099 Y-9.126 E28.19734
G1 X14.089 Y-8.448 E28.23117
G1 X14.039 Y-7.898 E28.25872
G1 X13.926 Y-7.301 E28.28903
G1 X13.738 Y-6.736 E28.31874
G1 X13.482 Y-6.219 E28.34752
G1 X13.438 Y-6.144 E28.35186
G1 X13.057 Y-5.529 E28.38796
G1 X11.634 Y-3.163 E28.5257
G1 X10.261 Y-.723 E28.66538
G1 X8.951 Y1.764 E28.80562
G1 X7.978 Y3.745 E28.91573
G0 F1620 X7.744 Y4.222
G0 F3600 X7.38 Y4.056
G1 F1800 X6.22 Y6.599 E29.05518
G1 X5.121 Y9.203 E29.19619
G1 X4.111 Y11.791 E29.33479
G1 X3.011 Y14.894 E29.49904
G1 X2.871 Y15.17 E29.51447
G1 X2.508 Y15.529 E29.53995
G1 X0.57 Y17.05 E29.66285
G1 X-1.574 Y18.83 E29.80188
G1 X-4.682 Y21.607 E30.00982
G1 X-5.076 Y21.971 E30.03658
G1 X-5.47 Y22.234 E30.06021
G1 X-6.006 Y22.432 E30.08872
G1 X-6.513 Y22.494 E30.1142
G1 X-6.586 Y22.498 E30.11785
G1 X-7.245 Y22.508 E30.15073
G1 X-7.701 Y22.507 E30.17348
G1 X-9.119 Y22.487 E30.24423
G1 X-10.624 Y22.444 E30.31935
G1 X-13.391 Y22.444 E30.45739
G1 X-15.189 Y22.484 E30.54712
G1 X-15.871 Y22.506 E30.58116
G1 X-16.051 Y22.508 E30.59014
G1 X-19.738 Y22.507 E30.77409
G1 X-21.105 Y22.488 E30.84229
G1 X-22.664 Y22.444 E30.9201
G1 X-25.431 Y22.444 E31.05815
G1 X-27.185 Y22.484 E31.14568
G1 X-27.865 Y22.506 E31.17962
G1 X-28.046 Y22.508 E31.18865
G1 X-28.871 Y22.507 E31.22981
G1 X-29.247 Y22.501 E31.24857
G1 X-29.755 Y22.477 E31.27395
G1 X-30.245 Y22.361 E31.29907
G1 X-30.696 Y22.136 E31.32421
G1 X-31.072 Y21.828 E31.34846
G1 X-31.355 Y21.469 E31.37127
G1 X-31.531 Y21.113 E31.39108
G1 X-31.666 Y20.627 E31.41625
G1 X-31.681 Y20.457 E31.42476
G1 X-31.701 Y19.358 E31.4796
G1 X-31.7 Y16.229 E31.63571
G1 X-31.677 Y15.085 E31.69279
G1 X-31.623 Y14.564 E31.71892
G1 X-31.479 Y14.004 E31.74777
G1 X-31.239 Y13.417 E31.77941
G1 X-31.11 Y13.182 E31.79278
G1 X-30.811 Y12.701 E31.82104
G1 X-29.374 Y10.321 E31.95974
G1 X-27.994 Y7.879 E32.09968
G1 X-26.678 Y5.39 E32.24015
G1 X-25.453 Y2.907 E32.37828
G1 X-24.289 Y0.368 E32.51763
G1 X-23.188 Y-2.228 E32.65831
G1 X-22.181 Y-4.799 E32.79607
G1 X-21.011 Y-8.087 E32.97018
G1 X-20.87 Y-8.363 E32.98564
G1 X-20.477 Y-8.745 E33.01299
G1 X-18.54 Y-10.266 E33.13586
G1 X-16.402 Y-12.045 E33.27462
G1 X-14.287 Y-13.91 E33.4153
G1 X-13.182 Y-14.933 E33.49043
