;FLAVOR:Marlin
;TIME:1823
;Filament used: 2.35749m
;Layer height: 0.24
;MINX:28.749
;MINY:28.612
;MINZ:0.3
;MAXX:79.8
;MAXY:78.8
;MAXZ:7.26
;Generated with Cura_SteamEngine 4.7.1
M104 S210
M105
M109 S210
M82 ;absolute extrusion mode
;Sliced at: Tue 07-12-2021 10:07:02
G21 ;metric values
G90 ;absolute positioning
M82 ;set extruder to absolute mode
M107 ;start with the fan off
G1 Z5.0 F1800 ;move Z to 5mm
G28 X0 Y0 F1800 ;move X/Y to min endstops
G28 Z0 ;move Z to min endstop
G92 E0 ;zero the extruded length
G1 F200 E6.0 ;extrude 6.0mm of feed stock to build pressure
G1 Z5.0 F300 ;move the platform down 5mm
G92 E0 ;zero the extruded length again
G1 F1800
;Put printing message on LCD screen
M117 Printing...
G92 E0
G92 E0
G1 F1500 E-5
;LAYER_COUNT:30
;LAYER:0
M107
G0 F1350 X30.136 Y30.664 Z0.3
;TYPE:SKIRT
G1 F1500 E0.72757
G1 F900 X30.774 Y30.033 E0.77681
G1 X31.251 Y29.667 E0.80981
G1 X31.772 Y29.332 E0.8438
G1 X32.332 Y29.067 E0.8778
G1 X32.817 Y28.904 E0.90588
G1 X33.46 Y28.748 E0.94219
G1 X34.072 Y28.651 E0.97619
G1 X34.428 Y28.631 E0.99576
G1 X35.498 Y28.612 E1.05449
G1 X36.389 Y28.613 E1.10339
G1 X37.839 Y28.634 E1.18297
G1 X39.182 Y28.672 E1.2567
G1 X41.873 Y28.674 E1.40438
G1 X43.77 Y28.629 E1.50852
G1 X44.506 Y28.612 E1.54892
G1 X52.389 Y28.613 E1.98153
G1 X53.839 Y28.634 E2.06112
G1 X55.182 Y28.672 E2.13485
G1 X57.873 Y28.674 E2.28253
G1 X59.77 Y28.629 E2.38667
G1 X60.496 Y28.612 E2.42652
G1 X61.964 Y28.614 E2.50708
G1 X62.636 Y28.624 E2.54396
G1 X63.254 Y28.673 E2.57799
G1 X63.916 Y28.813 E2.61512
G1 X64.234 Y28.898 E2.63318
G1 X64.819 Y29.101 E2.66717
G1 X65.445 Y29.42 E2.70572
G1 X65.696 Y29.572 E2.72183
G1 X66.204 Y29.927 E2.75584
G1 X66.863 Y30.564 E2.80614
G1 X67.28 Y31.098 E2.84332
G1 X67.617 Y31.617 E2.87728
G1 X67.885 Y32.176 E2.9113
G1 X68.058 Y32.685 E2.9408
G1 X68.22 Y33.356 E2.97869
G1 X68.272 Y33.625 E2.99372
G1 X68.47 Y34.822 E3.0603
G1 X68.538 Y35.278 E3.08561
G1 X69.01 Y37.903 E3.23197
G1 X69.552 Y40.507 E3.37794
G1 X70.196 Y43.202 E3.53001
G1 X70.887 Y45.773 E3.67611
G1 X71.65 Y48.32 E3.82202
G1 X72.508 Y50.92 E3.97228
G1 X73.422 Y53.447 E4.11975
G1 X74.405 Y55.937 E4.26666
G1 X75.463 Y58.413 E4.41443
G1 X76.595 Y60.867 E4.56274
G1 X77.792 Y63.281 E4.71061
G1 X78.222 Y64.083 E4.76055
G1 X78.87 Y65.328 E4.83758
G1 X79.157 Y65.957 E4.87552
G1 X79.322 Y66.37 E4.89993
G1 X79.557 Y67.139 E4.94405
G1 X79.712 Y67.977 E4.99082
G1 X79.777 Y68.677 E5.0294
G1 X79.8 Y69.935 E5.09845
G1 X79.799 Y72.387 E5.23302
G1 X79.789 Y73.083 E5.27122
G1 X79.723 Y73.81 E5.31128
G1 X79.611 Y74.377 E5.343
G1 X79.441 Y74.973 E5.37701
G1 X79.147 Y75.635 E5.41676
G1 X78.782 Y76.244 E5.45572
G1 X78.416 Y76.743 E5.48969
G1 X77.804 Y77.353 E5.53711
G1 X77.286 Y77.752 E5.57299
G1 X76.764 Y78.086 E5.607
G1 X76.204 Y78.349 E5.64095
G1 X75.707 Y78.514 E5.66969
G1 X75.125 Y78.657 E5.70258
G1 X74.514 Y78.758 E5.73657
G1 X74.134 Y78.78 E5.75745
G1 X73.038 Y78.8 E5.81761
G1 X72.16 Y78.8 E5.8658
G1 X70.696 Y78.778 E5.94615
G1 X69.36 Y78.74 E6.0195
G1 X66.669 Y78.738 E6.16718
G1 X64.778 Y78.783 E6.27098
G1 X64.042 Y78.8 E6.31138
G1 X56.16 Y78.8 E6.74394
G1 X54.696 Y78.778 E6.8243
G1 X53.36 Y78.74 E6.89764
G1 X50.669 Y78.738 E7.04532
G1 X48.778 Y78.783 E7.14913
G1 X48.052 Y78.8 E7.18898
G1 X46.59 Y78.799 E7.26922
G1 X45.925 Y78.79 E7.30571
G1 X45.201 Y78.725 E7.34561
G1 X44.623 Y78.61 E7.37795
G1 X44.028 Y78.441 E7.41189
G1 X43.294 Y78.109 E7.4561
G1 X42.747 Y77.775 E7.49128
G1 X42.248 Y77.408 E7.52527
G1 X41.646 Y76.803 E7.57211
G1 X41.245 Y76.283 E7.60815
G1 X40.912 Y75.761 E7.64212
G1 X40.65 Y75.2 E7.6761
G1 X40.48 Y74.684 E7.70592
G1 X40.326 Y74.044 E7.74204
G1 X40.274 Y73.778 E7.75692
G1 X40.099 Y72.73 E7.81523
G1 X39.965 Y71.862 E7.86343
G1 X39.473 Y69.17 E8.01361
G1 X38.923 Y66.583 E8.15876
G1 X38.272 Y63.896 E8.31048
G1 X37.577 Y61.347 E8.45548
G1 X36.79 Y58.746 E8.60461
G1 X35.952 Y56.238 E8.74972
G1 X35.012 Y53.668 E8.8999
G1 X34.031 Y51.205 E9.0454
G1 X32.944 Y48.687 E9.19591
G1 X31.83 Y46.293 E9.34082
G1 X30.605 Y43.845 E9.49104
G1 X30.352 Y43.374 E9.52038
G1 X29.67 Y42.067 E9.60129
G1 X29.39 Y41.455 E9.63822
G1 X29.224 Y41.04 E9.66275
G1 X28.984 Y40.247 E9.70822
G1 X28.84 Y39.453 E9.75251
G1 X28.777 Y38.773 E9.78998
G1 X28.749 Y37.448 E9.86272
G1 X28.749 Y35.073 E9.99305
G1 X28.761 Y34.316 E10.0346
G1 X28.83 Y33.58 E10.07517
G1 X28.94 Y33.026 E10.10617
G1 X29.11 Y32.43 E10.14018
G1 X29.439 Y31.707 E10.18377
G1 X29.77 Y31.163 E10.21872
G1 X29.821 Y31.093 E10.22347
G0 F810 X30.136 Y30.664
G0 F1350 X30.459 Y30.901
G1 F900 X31.027 Y30.343 E10.26717
G1 X31.489 Y29.989 E10.29911
G1 X31.988 Y29.67 E10.33161
G1 X32.526 Y29.421 E10.36415
G1 X33.032 Y29.26 E10.39329
G1 X33.548 Y29.138 E10.42239
G1 X34.134 Y29.047 E10.45493
G1 X34.435 Y29.031 E10.47147
G1 X35.498 Y29.012 E10.52982
G1 X36.384 Y29.012 E10.57844
G1 X37.767 Y29.032 E10.65435
G1 X39.171 Y29.072 E10.73143
G1 X41.883 Y29.074 E10.88026
G1 X43.736 Y29.03 E10.98198
G1 X44.264 Y29.014 E11.01097
G1 X44.509 Y29.012 E11.02442
G1 X52.384 Y29.012 E11.45659
G1 X53.767 Y29.032 E11.5325
G1 X55.171 Y29.072 E11.60958
G1 X57.883 Y29.074 E11.75841
G1 X59.78 Y29.029 E11.86255
G1 X60.539 Y29.012 E11.90421
G1 X61.958 Y29.013 E11.98208
G1 X62.63 Y29.023 E12.01897
G1 X63.221 Y29.072 E12.05151
G1 X63.82 Y29.201 E12.08514
G1 X64.128 Y29.284 E12.10264
G1 X64.687 Y29.48 E12.13515
G1 X65.238 Y29.762 E12.16912
G1 X65.489 Y29.914 E12.18522
G1 X65.975 Y30.255 E12.2178
G1 X66.558 Y30.824 E12.26251
G1 X66.959 Y31.337 E12.29825
G1 X67.281 Y31.835 E12.33079
G1 X67.533 Y32.372 E12.36334
G1 X67.7 Y32.893 E12.39337
G1 X67.83 Y33.444 E12.42444
G1 X67.878 Y33.69 E12.43819
G1 X68.075 Y34.881 E12.50444
G1 X68.143 Y35.336 E12.52969
G1 X68.625 Y38.018 E12.67923
G1 X69.166 Y40.617 E12.82492
G1 X69.798 Y43.26 E12.97406
G1 X70.504 Y45.886 E13.12329
G1 X71.273 Y48.456 E13.27051
G1 X72.124 Y51.034 E13.41949
G1 X73.05 Y53.593 E13.56884
G1 X74.029 Y56.076 E13.71532
G1 X75.102 Y58.584 E13.86502
G1 X76.232 Y61.035 E14.01314
G1 X77.433 Y63.456 E14.16145
G1 X77.867 Y64.268 E14.21198
G1 X78.515 Y65.513 E14.289
G1 X78.786 Y66.106 E14.32478
G1 X78.951 Y66.519 E14.34919
G1 X79.166 Y67.223 E14.38959
G1 X79.318 Y68.043 E14.43535
G1 X79.377 Y68.685 E14.47073
G1 X79.4 Y69.935 E14.53934
G1 X79.399 Y72.381 E14.67358
G1 X79.389 Y73.077 E14.71178
G1 X79.328 Y73.744 E14.74854
G1 X79.22 Y74.292 E14.77919
G1 X79.056 Y74.862 E14.81174
G1 X78.795 Y75.446 E14.84684
G1 X78.444 Y76.028 E14.88414
G1 X78.093 Y76.506 E14.91669
G1 X77.548 Y77.045 E14.95875
G1 X77.05 Y77.43 E14.9933
G1 X76.549 Y77.747 E15.02583
G1 X76.01 Y77.995 E15.05839
G1 X75.466 Y78.165 E15.08967
G1 X75.035 Y78.268 E15.11399
G1 X74.449 Y78.362 E15.14656
G1 X74.126 Y78.38 E15.16432
G1 X73.038 Y78.4 E15.22403
G1 X72.166 Y78.4 E15.27189
G1 X70.77 Y78.38 E15.34851
G1 X69.372 Y78.34 E15.42526
G1 X66.66 Y78.338 E15.57409
G1 X64.812 Y78.382 E15.67554
G1 X64.284 Y78.398 E15.70453
G1 X64.039 Y78.4 E15.71797
G1 X56.166 Y78.4 E16.15004
G1 X54.77 Y78.38 E16.22666
G1 X53.372 Y78.34 E16.30341
G1 X50.66 Y78.338 E16.45224
G1 X48.769 Y78.382 E16.55605
G1 X48.049 Y78.4 E16.59557
G1 X46.595 Y78.399 E16.67537
G1 X45.93 Y78.39 E16.71186
G1 X45.267 Y78.33 E16.7484
G1 X44.708 Y78.219 E16.77967
G1 X44.138 Y78.056 E16.81221
G1 X43.489 Y77.76 E16.85136
G1 X42.963 Y77.438 E16.8852
G1 X42.486 Y77.086 E16.91774
G1 X41.954 Y76.547 E16.9593
G1 X41.568 Y76.047 E16.99396
G1 X41.251 Y75.546 E17.0265
G1 X41.004 Y75.007 E17.05904
G1 X40.831 Y74.446 E17.09125
G1 X40.717 Y73.956 E17.11886
G1 X40.668 Y73.712 E17.13252
G1 X40.494 Y72.669 E17.19055
G1 X40.355 Y71.766 E17.24069
G1 X39.871 Y69.12 E17.38831
G1 X39.308 Y66.47 E17.53699
G1 X38.661 Y63.804 E17.68754
G1 X37.961 Y61.231 E17.83388
G1 X37.175 Y58.638 E17.98257
G1 X36.32 Y56.08 E18.13059
G1 X35.395 Y53.551 E18.27837
G1 X34.381 Y51.005 E18.42877
G1 X33.329 Y48.569 E18.57439
G1 X32.179 Y46.096 E18.72406
G1 X30.964 Y43.668 E18.87306
G1 X30.704 Y43.184 E18.90321
G1 X30.025 Y41.882 E18.98379
G1 X29.762 Y41.306 E19.01854
G1 X29.596 Y40.891 E19.04307
G1 X29.376 Y40.165 E19.0847
G1 X29.235 Y39.388 E19.12804
G1 X29.177 Y38.765 E19.16238
G1 X29.148 Y37.345 E19.24032
G1 X29.15 Y35.004 E19.3688
G1 X29.161 Y34.323 E19.40617
G1 X29.224 Y33.648 E19.44338
G1 X29.331 Y33.111 E19.47343
G1 X29.496 Y32.541 E19.50599
G1 X29.788 Y31.902 E19.54455
G1 X30.107 Y31.378 E19.57822
G1 X30.143 Y31.329 E19.58155
G0 F810 X30.459 Y30.901
G0 F1350 X30.782 Y31.14
G1 F900 X31.281 Y30.652 E19.61986
G1 X31.726 Y30.311 E19.65062
G1 X32.204 Y30.008 E19.68168
G1 X32.719 Y29.776 E19.71268
G1 X33.33 Y29.597 E19.74762
G1 X33.636 Y29.528 E19.76483
G1 X34.443 Y29.431 E19.80944
G1 X35.498 Y29.412 E19.86735
G1 X36.378 Y29.412 E19.91564
G1 X37.761 Y29.432 E19.99155
G1 X39.158 Y29.472 E20.06825
G1 X41.892 Y29.474 E20.21829
G1 X43.754 Y29.43 E20.3205
G1 X44.267 Y29.414 E20.34867
G1 X44.512 Y29.412 E20.36211
G1 X52.378 Y29.412 E20.79379
G1 X53.761 Y29.432 E20.8697
G1 X55.158 Y29.472 E20.94639
G1 X57.892 Y29.474 E21.09643
G1 X59.754 Y29.43 E21.19865
G1 X60.264 Y29.414 E21.22665
G1 X60.539 Y29.412 E21.24174
G1 X61.953 Y29.413 E21.31934
G1 X62.625 Y29.423 E21.35622
G1 X63.188 Y29.472 E21.38724
G1 X63.724 Y29.589 E21.41735
G1 X64.021 Y29.67 E21.43424
G1 X64.555 Y29.858 E21.46531
G1 X65.031 Y30.104 E21.49471
G1 X65.282 Y30.256 E21.51082
G1 X65.744 Y30.583 E21.54188
G1 X66.254 Y31.083 E21.58108
G1 X66.639 Y31.576 E21.6154
G1 X66.944 Y32.052 E21.64643
G1 X67.179 Y32.566 E21.67745
G1 X67.362 Y33.189 E21.71308
G1 X67.483 Y33.756 E21.7449
G1 X67.679 Y34.941 E21.81081
G1 X67.747 Y35.395 E21.83601
G1 X68.226 Y38.064 E21.98482
G1 X68.78 Y40.719 E22.13366
G1 X69.409 Y43.352 E22.28222
G1 X70.113 Y45.973 E22.43116
G1 X70.896 Y48.59 E22.58107
G1 X71.744 Y51.158 E22.72948
G1 X72.673 Y53.727 E22.8794
G1 X73.665 Y56.243 E23.02783
G1 X74.744 Y58.764 E23.17832
G1 X75.867 Y61.201 E23.32557
G1 X77.072 Y63.63 E23.47438
G1 X77.512 Y64.452 E23.52554
G1 X78.16 Y65.697 E23.60257
G1 X78.415 Y66.254 E23.63619
G1 X78.58 Y66.667 E23.66059
G1 X78.775 Y67.308 E23.69736
G1 X78.923 Y68.109 E23.74207
G1 X78.977 Y68.692 E23.7742
G1 X79 Y69.935 E23.84242
G1 X78.999 Y72.375 E23.97633
G1 X78.989 Y73.071 E24.01453
G1 X78.934 Y73.677 E24.04792
G1 X78.829 Y74.208 E24.07763
G1 X78.671 Y74.751 E24.10866
G1 X78.443 Y75.256 E24.13907
G1 X78.107 Y75.813 E24.17477
G1 X77.77 Y76.267 E24.2058
G1 X77.292 Y76.738 E24.24263
G1 X76.813 Y77.107 E24.27581
G1 X76.335 Y77.408 E24.30681
G1 X75.819 Y77.639 E24.33783
G1 X75.213 Y77.816 E24.37248
G1 X74.945 Y77.878 E24.38758
G1 X74.119 Y77.98 E24.43325
G1 X73.038 Y78 E24.49259
G1 X72.172 Y78 E24.54011
G1 X70.776 Y77.98 E24.61673
G1 X69.383 Y77.94 E24.69321
G1 X66.65 Y77.938 E24.84319
G1 X64.794 Y77.982 E24.94508
G1 X64.281 Y77.998 E24.97324
G1 X64.036 Y78 E24.98669
G1 X56.172 Y78 E25.41826
G1 X54.776 Y77.98 E25.49488
G1 X53.383 Y77.94 E25.57136
G1 X50.65 Y77.938 E25.72134
G1 X48.794 Y77.982 E25.82323
G1 X48.284 Y77.998 E25.85123
G1 X48.009 Y78 E25.86632
G1 X46.601 Y77.999 E25.94359
G1 X45.936 Y77.99 E25.98009
G1 X45.332 Y77.936 E26.01337
G1 X44.792 Y77.828 E26.04359
G1 X44.249 Y77.671 E26.07461
G1 X43.684 Y77.41 E26.10877
G1 X43.179 Y77.102 E26.14123
G1 X42.725 Y76.764 E26.17229
G1 X42.261 Y76.291 E26.20865
G1 X41.891 Y75.81 E26.24196
G1 X41.59 Y75.332 E26.27296
G1 X41.359 Y74.816 E26.30398
G1 X41.181 Y74.195 E26.33943
G1 X41.063 Y73.646 E26.37025
G1 X40.89 Y72.609 E26.42795
G1 X40.755 Y71.734 E26.47653
G1 X40.262 Y69.037 E26.627
G1 X39.694 Y66.365 E26.77691
G1 X39.05 Y63.707 E26.927
G1 X38.346 Y61.124 E27.07392
G1 X37.565 Y58.545 E27.2218
G1 X36.699 Y55.952 E27.37183
G1 X35.759 Y53.382 E27.52201
G1 X34.761 Y50.877 E27.66999
G1 X33.688 Y48.391 E27.81859
G1 X32.535 Y45.914 E27.96853
G1 X31.331 Y43.506 E28.11627
G1 X31.056 Y42.995 E28.14812
G1 X30.379 Y41.697 E28.22846
G1 X30.133 Y41.158 E28.26098
G1 X29.967 Y40.743 E28.28551
G1 X29.767 Y40.082 E28.3234
G1 X29.629 Y39.323 E28.36574
G1 X29.577 Y38.757 E28.39693
G1 X29.548 Y37.345 E28.47444
G1 X29.55 Y35.01 E28.60258
G1 X29.561 Y34.329 E28.63996
G1 X29.618 Y33.715 E28.6738
G1 X29.722 Y33.196 E28.70285
G1 X29.881 Y32.653 E28.7339
G1 X30.138 Y32.097 E28.76751
G1 X30.444 Y31.594 E28.79983
G1 X30.465 Y31.566 E28.80175
G0 F810 X30.782 Y31.14
G0 F1350 X31.103 Y31.38
G1 F900 X31.534 Y30.961 E28.83473
G1 X31.964 Y30.633 E28.86441
G1 X32.418 Y30.347 E28.89386
G1 X33.138 Y30.06 E28.9364
G1 X33.724 Y29.918 E28.96949
G1 X34.45 Y29.831 E29.00961
G1 X35.498 Y29.812 E29.06714
G1 X36.372 Y29.812 E29.1151
G1 X37.805 Y29.833 E29.19375
G1 X39.183 Y29.872 E29.26941
G1 X41.902 Y29.874 E29.41862
G1 X43.778 Y29.83 E29.5216
G1 X44.516 Y29.812 E29.56212
G1 X52.372 Y29.812 E29.99325
G1 X53.805 Y29.833 E30.0719
G1 X55.183 Y29.872 E30.14755
G1 X57.902 Y29.874 E30.29677
G1 X59.774 Y29.83 E30.39953
G1 X60.506 Y29.812 E30.43972
G1 X61.947 Y29.813 E30.5188
G1 X62.619 Y29.823 E30.55568
G1 X63.153 Y29.871 E30.5851
G1 X63.719 Y30.001 E30.61697
G1 X63.915 Y30.055 E30.62813
G1 X64.42 Y30.236 E30.65757
G1 X65.075 Y30.599 E30.69867
G1 X65.512 Y30.91 E30.7281
G1 X65.95 Y31.343 E30.7619
G1 X66.318 Y31.815 E30.79475
G1 X66.606 Y32.268 E30.82421
G1 X66.901 Y33.005 E30.86777
G1 X67.049 Y33.619 E30.90243
G1 X67.089 Y33.821 E30.91374
G1 X67.275 Y34.943 E30.97615
G1 X67.352 Y35.459 E31.00478
G1 X67.834 Y38.146 E31.1546
G1 X68.385 Y40.789 E31.30276
G1 X69.019 Y43.443 E31.45251
G1 X69.734 Y46.103 E31.60367
G1 X70.519 Y48.725 E31.75387
G1 X71.371 Y51.304 E31.90293
G1 X72.289 Y53.843 E32.05109
G1 X73.297 Y56.398 E32.20183
G1 X74.377 Y58.923 E32.35254
G1 X75.504 Y61.368 E32.50029
G1 X76.725 Y63.831 E32.65116
G1 X77.157 Y64.637 E32.70134
G1 X77.805 Y65.882 E32.77837
G1 X78.043 Y66.402 E32.80975
G1 X78.208 Y66.815 E32.83416
G1 X78.384 Y67.392 E32.86726
G1 X78.529 Y68.175 E32.91096
G1 X78.577 Y68.7 E32.9399
G1 X78.6 Y69.935 E33.00768
G1 X78.599 Y72.37 E33.14131
G1 X78.589 Y73.066 E33.17951
G1 X78.539 Y73.611 E33.20955
G1 X78.438 Y74.123 E33.23819
G1 X78.286 Y74.638 E33.26766
G1 X78.054 Y75.134 E33.29771
G1 X77.77 Y75.598 E33.32756
G1 X77.449 Y76.028 E33.35701
G1 X77.037 Y76.43 E33.3886
G1 X76.577 Y76.785 E33.42049
G1 X76.122 Y77.069 E33.44992
G1 X75.392 Y77.356 E33.49297
G1 X74.854 Y77.488 E33.52337
G1 X74.111 Y77.58 E33.56446
G1 X73.038 Y77.6 E33.62335
G1 X72.177 Y77.6 E33.6706
G1 X70.731 Y77.579 E33.74997
G1 X69.359 Y77.54 E33.82529
G1 X66.642 Y77.538 E33.9744
G1 X64.768 Y77.583 E34.07727
G1 X64.032 Y77.6 E34.11767
G1 X56.177 Y77.6 E34.54875
G1 X54.731 Y77.579 E34.62811
G1 X53.359 Y77.54 E34.70344
G1 X50.642 Y77.538 E34.85255
G1 X48.772 Y77.582 E34.9552
G1 X48.042 Y77.6 E34.99527
G1 X46.606 Y77.599 E35.07408
G1 X45.941 Y77.59 E35.11058
G1 X45.398 Y77.541 E35.1405
G1 X44.876 Y77.437 E35.16971
G1 X44.362 Y77.286 E35.19911
G1 X43.879 Y77.061 E35.22835
G1 X43.394 Y76.765 E35.25953
G1 X42.966 Y76.443 E35.28892
G1 X42.569 Y76.036 E35.32013
G1 X42.214 Y75.574 E35.3521
G1 X41.93 Y75.119 E35.38154
G1 X41.64 Y74.375 E35.42536
G1 X41.497 Y73.78 E35.45894
G1 X41.457 Y73.58 E35.47014
G1 X41.285 Y72.548 E35.52755
G1 X41.145 Y71.638 E35.57808
G1 X40.654 Y68.953 E35.72787
G1 X40.096 Y66.326 E35.87526
G1 X39.439 Y63.619 E36.02813
G1 X39.437 Y63.604 E36.02896
G1 X38.738 Y61.041 E36.17475
G1 X37.931 Y58.376 E36.32756
G1 X37.082 Y55.836 E36.47454
G1 X36.142 Y53.264 E36.62482
G1 X35.123 Y50.706 E36.77593
G1 X34.046 Y48.213 E36.92496
G1 X32.898 Y45.745 E37.07434
G1 X31.684 Y43.317 E37.22331
G1 X31.409 Y42.806 E37.25516
G1 X30.734 Y41.512 E37.33526
G1 X30.504 Y41.009 E37.36561
G1 X30.338 Y40.594 E37.39014
G1 X30.158 Y40 E37.4242
G1 X30.024 Y39.258 E37.46558
G1 X29.977 Y38.748 E37.49369
G1 X29.948 Y37.345 E37.5707
G1 X29.949 Y35.017 E37.69846
G1 X29.96 Y34.336 E37.73583
G1 X30.012 Y33.783 E37.76632
G1 X30.112 Y33.281 E37.79441
G1 X30.265 Y32.767 E37.82384
G1 X30.487 Y32.292 E37.85261
G1 X30.782 Y31.809 E37.88367
G1 X30.784 Y31.806 E37.88387
G0 F810 X31.103 Y31.38
G0 F1350 X31.424 Y31.621
G1 F900 X31.788 Y31.271 E37.91158
G1 X32.201 Y30.955 E37.94012
G1 X32.63 Y30.687 E37.96788
G1 X33.246 Y30.446 E38.00418
G1 X33.812 Y30.308 E38.03615
G1 X34.457 Y30.231 E38.0718
G1 X35.498 Y30.212 E38.12894
G1 X36.366 Y30.212 E38.17658
