;FLAVOR:Marlin
;TIME:838
;Filament used: 0.660453m
;Layer height: 0.24
;MINX:-17.617
;MINY:-21.736
;MINZ:0.3
;MAXX:27.617
;MAXY:21.774
;MAXZ:13.5
;Generated with Cura_SteamEngine 4.13.1
M140 S50
M105
M190 S50
M104 S210
M105
M109 S210
M82 ;absolute extrusion mode
;FLAVOR:Marlin
M82 ;absolute extrusion mode
G21
G90
M82
M107 T0
G28
G92 E0
G0 E3 F200
G92 E0 ; reset extrusion distance
M106 S255 ; Enable cooling fan full speed
G1 X-98 Y0 Z0.4 F3000 ; move to arc start
G3 X0 Y-98 I98 Z0.4 E40 F400 ; lay arc stripe 90deg
G92 E0 ; reset extrusion distance
G4 P500 ; wait for 0.5 sec
G0 Z10 E-1 ; Lift 15mm and retract 1mm filament
G4 P2000 ; wait for 5 sec
G0 Z15
M107 ; Disable cooling fan
G1 X0 Y-85 Z4 E0 F3000 ; get off the bed
G92 E0
G92 E0
G1 F1500 E-1
;LAYER_COUNT:56
;LAYER:0
M106 S102
G0 F3600 X-2.792 Y8.975 Z0.3
;TYPE:SKIRT
G1 F3600 E0.71493
G1 F1200 X-12.643 Y8.974 E1.21206
G1 X-13.283 Y8.929 E1.24444
G1 X-13.833 Y8.825 E1.27268
G1 X-14.313 Y8.678 E1.29802
G1 X-14.801 Y8.473 E1.32473
G1 X-15.256 Y8.222 E1.35095
G1 X-15.675 Y7.931 E1.3767
G1 X-16.087 Y7.576 E1.40414
G1 X-16.436 Y7.204 E1.42988
G1 X-16.757 Y6.781 E1.45668
G1 X-17.025 Y6.339 E1.48277
G1 X-17.25 Y5.86 E1.50947
G1 X-17.419 Y5.374 E1.53544
G1 X-17.54 Y4.86 E1.56209
G1 X-17.606 Y4.342 E1.58844
G1 X-17.617 Y3.818 E1.61489
G1 X-17.573 Y3.297 E1.64128
G1 X-17.474 Y2.781 E1.66779
G1 X-17.323 Y2.281 E1.69415
G1 X-17.123 Y1.804 E1.72025
G1 X-16.867 Y1.339 E1.74704
G1 X-16.576 Y0.92 E1.77279
G1 X-16.228 Y0.516 E1.79969
G1 X-15.854 Y0.163 E1.82565
G1 X-15.56 Y-0.07 E1.84458
G1 X-7.608 Y-5.847 E2.3406
G1 X-10.652 Y-15.216 E2.83774
G1 X-10.81 Y-15.853 E2.87086
G1 X-10.876 Y-16.372 E2.89726
G1 X-10.887 Y-16.895 E2.92366
G1 X-10.843 Y-17.418 E2.95015
G1 X-10.743 Y-17.938 E2.97687
G1 X-10.595 Y-18.428 E3.0027
G1 X-10.39 Y-18.917 E3.02946
G1 X-10.141 Y-19.369 E3.0555
G1 X-9.846 Y-19.795 E3.08165
G1 X-9.491 Y-20.206 E3.10906
G1 X-9.11 Y-20.562 E3.13537
G1 X-8.543 Y-20.976 E3.1708
G1 X-8.064 Y-21.241 E3.19843
G1 X-7.588 Y-21.441 E3.22448
G1 X-7.085 Y-21.593 E3.251
G1 X-6.569 Y-21.692 E3.27752
G1 X-6.035 Y-21.736 E3.30456
G1 X-5.748 Y-21.736 E3.31904
G1 X-5.212 Y-21.692 E3.34618
G1 X-4.696 Y-21.593 E3.37269
G1 X-4.193 Y-21.441 E3.39921
G1 X-3.711 Y-21.238 E3.42561
G1 X-3.258 Y-20.988 E3.45172
G1 X-2.952 Y-20.784 E3.47028
G1 X5 Y-15.007 E3.9663
G1 X12.952 Y-20.784 E4.46232
G1 X13.53 Y-21.146 E4.49673
G1 X13.996 Y-21.365 E4.52272
G1 X14.491 Y-21.538 E4.54918
G1 X15.005 Y-21.659 E4.57583
G1 X15.538 Y-21.726 E4.60294
G1 X16.242 Y-21.726 E4.63847
G1 X16.775 Y-21.659 E4.66558
G1 X17.289 Y-21.538 E4.69222
G1 X17.78 Y-21.367 E4.71846
G1 X18.254 Y-21.144 E4.7449
G1 X18.706 Y-20.868 E4.77162
G1 X19.357 Y-20.34 E4.81392
G1 X19.713 Y-19.959 E4.84024
G1 X20.024 Y-19.548 E4.86625
G1 X20.293 Y-19.105 E4.8924
G1 X20.517 Y-18.629 E4.91895
G1 X20.685 Y-18.151 E4.94452
G1 X20.811 Y-17.616 E4.97226
G1 X20.875 Y-17.107 E4.99815
G1 X20.886 Y-16.582 E5.02465
G1 X20.844 Y-16.075 E5.05032
G1 X20.742 Y-15.535 E5.07806
G1 X20.645 Y-15.194 E5.09595
G1 X17.608 Y-5.847 E5.59192
G1 X25.577 Y-0.056 E6.08905
G1 X26.087 Y0.375 E6.12275
G1 X26.436 Y0.747 E6.14849
G1 X26.751 Y1.16 E6.1747
G1 X27.027 Y1.615 E6.20156
G1 X27.246 Y2.081 E6.22754
G1 X27.42 Y2.58 E6.25421
G1 X27.539 Y3.084 E6.28034
G1 X27.606 Y3.607 E6.30695
G1 X27.617 Y4.132 E6.33345
G1 X27.573 Y4.651 E6.35974
G1 X27.473 Y5.174 E6.38661
G1 X27.325 Y5.664 E6.41244
G1 X27.12 Y6.153 E6.4392
G1 X26.871 Y6.605 E6.46524
G1 X26.576 Y7.031 E6.49139
G1 X26.221 Y7.442 E6.5188
G1 X25.847 Y7.792 E6.54465
G1 X25.43 Y8.109 E6.57108
G1 X24.981 Y8.381 E6.59758
G1 X24.515 Y8.6 E6.62356
G1 X24.033 Y8.77 E6.64935
G1 X23.492 Y8.897 E6.6774
G1 X22.987 Y8.96 E6.70308
G1 X22.621 Y8.975 E6.72157
G1 X12.791 Y8.975 E7.21764
G1 X9.747 Y18.344 E7.71478
G1 X9.502 Y18.949 E7.74772
G1 X9.246 Y19.414 E7.77451
G1 X8.955 Y19.833 E7.80025
G1 X8.6 Y20.244 E7.82766
G1 X8.228 Y20.593 E7.8534
G1 X7.815 Y20.908 E7.87961
G1 X7.36 Y21.184 E7.90647
G1 X6.894 Y21.403 E7.93245
G1 X6.399 Y21.576 E7.95891
G1 X5.885 Y21.697 E7.98556
G1 X5.366 Y21.763 E8.01196
G1 X4.842 Y21.774 E8.03841
G1 X4.324 Y21.73 E8.06465
G1 X3.801 Y21.63 E8.09152
G1 X3.308 Y21.481 E8.11751
G1 X2.82 Y21.276 E8.14422
G1 X2.368 Y21.027 E8.17026
G1 X1.93 Y20.722 E8.1972
G1 X1.534 Y20.378 E8.22367
G1 X1.185 Y20.006 E8.24941
G1 X0.868 Y19.589 E8.27585
G1 X0.593 Y19.136 E8.30259
G1 X0.375 Y18.672 E8.32846
G1 X0.245 Y18.323 E8.34726
G1 X-2.628 Y9.481 E8.81644
G0 F1080 X-2.792 Y8.975
G0 F3600 X-2.501 Y8.575
G1 F1200 X-12.643 Y8.574 E9.32825
G1 X-13.223 Y8.534 E9.35759
G1 X-13.727 Y8.439 E9.38348
G1 X-14.368 Y8.228 E9.41753
G1 X-15.038 Y7.887 E9.45547
G1 X-15.588 Y7.489 E9.48973
G1 X-16.125 Y6.952 E9.52806
G1 X-16.535 Y6.387 E9.56329
G1 X-16.876 Y5.717 E9.60122
G1 X-17.087 Y5.07 E9.63557
G1 X-17.206 Y4.321 E9.67384
G1 X-17.206 Y3.63 E9.70871
G1 X-17.088 Y2.884 E9.74683
G1 X-16.875 Y2.23 E9.78154
G1 X-16.532 Y1.557 E9.81966
G1 X-16.132 Y1.007 E9.85398
G1 X-15.601 Y0.473 E9.89198
G1 X-15.325 Y0.253 E9.90979
G1 X-7.138 Y-5.694 E10.42045
G1 X-10.272 Y-15.34 E10.93229
G1 X-10.415 Y-15.916 E10.96224
G1 X-10.487 Y-16.6 E10.99695
G1 X-10.448 Y-17.355 E11.0351
G1 X-10.303 Y-18.034 E11.07014
G1 X-10.033 Y-18.735 E11.10805
G1 X-9.691 Y-19.327 E11.14255
G1 X-9.209 Y-19.923 E11.18123
G1 X-8.695 Y-20.382 E11.21601
G1 X-8.07 Y-20.789 E11.25365
G1 X-7.444 Y-21.068 E11.28823
G1 X-6.714 Y-21.264 E11.32638
G1 X-6.016 Y-21.336 E11.36179
G1 X-5.767 Y-21.336 E11.37436
G1 X-5.067 Y-21.264 E11.40987
G1 X-4.337 Y-21.068 E11.44801
G1 X-3.709 Y-20.787 E11.48273
G1 X-3.187 Y-20.46 E11.51382
G1 X5 Y-14.512 E12.02451
G1 X13.187 Y-20.46 E12.53519
G1 X13.711 Y-20.789 E12.56642
G1 X14.337 Y-21.068 E12.601
G1 X15.067 Y-21.264 E12.63915
G1 X15.765 Y-21.336 E12.67456
G1 X16.504 Y-21.297 E12.7119
G1 X17.185 Y-21.152 E12.74704
G1 X17.888 Y-20.881 E12.78506
G1 X18.487 Y-20.534 E12.82
G1 X19.074 Y-20.058 E12.85814
G1 X19.533 Y-19.544 E12.89291
G1 X19.936 Y-18.923 E12.93027
G1 X20.219 Y-18.288 E12.96536
G1 X20.416 Y-17.555 E13.00366
G1 X20.486 Y-16.876 E13.03811
G1 X20.449 Y-16.136 E13.0755
G1 X20.356 Y-15.64 E13.10097
G1 X20.265 Y-15.318 E13.11785
G1 X17.138 Y-5.694 E13.62852
G1 X25.342 Y0.268 E14.14032
G1 X25.804 Y0.657 E14.1708
G1 X26.258 Y1.163 E14.20511
G1 X26.67 Y1.796 E14.24322
G1 X26.949 Y2.422 E14.27781
G1 X27.144 Y3.148 E14.31575
G1 X27.217 Y3.837 E14.35071
G1 X27.178 Y4.589 E14.38871
G1 X27.033 Y5.27 E14.42385
G1 X26.763 Y5.971 E14.46176
G1 X26.421 Y6.563 E14.49626
G1 X25.939 Y7.159 E14.53494
G1 X25.432 Y7.614 E14.56932
G1 X24.8 Y8.024 E14.60734
G1 X24.174 Y8.303 E14.64193
G1 X23.432 Y8.502 E14.68069
G1 X22.758 Y8.571 E14.71489
G1 X22.621 Y8.575 E14.7218
G1 X12.501 Y8.575 E15.23251
G1 X9.367 Y18.22 E15.7443
G1 X9.145 Y18.768 E15.77414
G1 X8.797 Y19.371 E15.80927
G1 X8.318 Y19.961 E15.84762
G1 X7.812 Y20.415 E15.88193
G1 X7.179 Y20.827 E15.92005
G1 X6.553 Y21.106 E15.95463
G1 X5.823 Y21.302 E15.99278
G1 X5.137 Y21.374 E16.02759
G1 X4.386 Y21.335 E16.06554
G1 X3.705 Y21.19 E16.10067
G1 X3.002 Y20.919 E16.1387
G1 X2.41 Y20.577 E16.1732
G1 X1.817 Y20.096 E16.21173
G1 X1.363 Y19.59 E16.24604
G1 X0.95 Y18.955 E16.28427
G1 X0.673 Y18.334 E16.31858
G1 X0.625 Y18.199 E16.32581
G1 X-2.337 Y9.081 E16.80963
G0 F1080 X-2.501 Y8.575
G0 F3600 X-2.21 Y8.175
G1 F1200 X-12.643 Y8.174 E17.33613
G1 X-13.162 Y8.139 E17.36238
G1 X-13.821 Y7.998 E17.39639
G1 X-14.437 Y7.76 E17.42972
G1 X-14.994 Y7.438 E17.46218
G1 X-15.52 Y7.012 E17.49634
G1 X-15.948 Y6.536 E17.52865
G1 X-16.312 Y5.975 E17.5624
G1 X-16.578 Y5.378 E17.59538
G1 X-16.75 Y4.735 E17.62897
G1 X-16.818 Y4.093 E17.66155
G1 X-16.783 Y3.422 E17.69546
G1 X-16.648 Y2.787 E17.72822
G1 X-16.409 Y2.167 E17.76175
G1 X-16.082 Y1.6 E17.79478
G1 X-15.663 Y1.081 E17.82844
G1 X-15.187 Y0.651 E17.86082
G1 X-15.09 Y0.577 E17.86697
G1 X-6.667 Y-5.542 E18.39237
G1 X-9.891 Y-15.463 E18.91881
G1 X-10.02 Y-15.978 E18.9456
G1 X-10.088 Y-16.621 E18.97823
G1 X-10.053 Y-17.293 E19.01219
G1 X-9.917 Y-17.929 E19.04501
G1 X-9.677 Y-18.553 E19.07875
G1 X-9.355 Y-19.11 E19.11122
G1 X-8.927 Y-19.639 E19.14556
G1 X-8.444 Y-20.071 E19.17826
G1 X-7.888 Y-20.432 E19.21171
G1 X-7.3 Y-20.695 E19.24422
G1 X-6.652 Y-20.869 E19.27808
G1 X-5.997 Y-20.936 E19.31131
G1 X-5.786 Y-20.936 E19.32195
G1 X-5.129 Y-20.869 E19.35528
G1 X-4.481 Y-20.695 E19.38914
G1 X-3.891 Y-20.431 E19.42176
G1 X-3.422 Y-20.137 E19.4497
G1 X5 Y-14.018 E19.97505
G1 X13.422 Y-20.137 E20.5004
G1 X13.893 Y-20.432 E20.52845
G1 X14.481 Y-20.695 E20.56096
G1 X15.13 Y-20.869 E20.59486
G1 X15.784 Y-20.936 E20.62804
G1 X16.441 Y-20.902 E20.66124
G1 X17.08 Y-20.766 E20.69421
G1 X17.706 Y-20.525 E20.72806
G1 X18.268 Y-20.199 E20.76085
G1 X18.79 Y-19.776 E20.79476
G1 X19.222 Y-19.293 E20.82746
G1 X19.58 Y-18.741 E20.86066
G1 X19.846 Y-18.144 E20.89364
G1 X20.021 Y-17.494 E20.92761
G1 X20.087 Y-16.855 E20.96003
G1 X20.053 Y-16.196 E20.99333
G1 X19.915 Y-15.543 E21.02702
G1 X19.884 Y-15.441 E21.0324
G1 X16.668 Y-5.541 E21.5577
G1 X25.106 Y0.591 E22.08409
G1 X25.52 Y0.939 E22.11139
G1 X25.948 Y1.415 E22.14369
G1 X26.313 Y1.978 E22.17755
G1 X26.576 Y2.566 E22.21006
G1 X26.749 Y3.211 E22.24376
G1 X26.818 Y3.858 E22.2766
G1 X26.783 Y4.526 E22.31035
G1 X26.647 Y5.165 E22.34332
G1 X26.407 Y5.789 E22.37706
G1 X26.085 Y6.346 E22.40953
G1 X25.657 Y6.875 E22.44387
G1 X25.181 Y7.303 E22.47617
G1 X24.618 Y7.667 E22.51001
G1 X24.03 Y7.93 E22.54251
G1 X23.371 Y8.107 E22.57695
G1 X22.737 Y8.172 E22.60911
G1 X22.621 Y8.175 E22.61497
G1 X12.21 Y8.175 E23.14036
G1 X8.986 Y18.097 E23.66685
G1 X8.788 Y18.586 E23.69347
G1 X8.461 Y19.153 E23.7265
G1 X8.036 Y19.677 E23.76055
G1 X7.56 Y20.105 E23.79286
G1 X6.997 Y20.47 E23.82672
G1 X6.409 Y20.733 E23.85922
G1 X5.76 Y20.907 E23.89313
G1 X5.116 Y20.975 E23.92581
G1 X4.449 Y20.94 E23.95952
G1 X3.81 Y20.804 E23.99249
G1 X3.184 Y20.563 E24.02634
G1 X2.627 Y20.241 E24.05881
G1 X2.101 Y19.814 E24.093
G1 X1.673 Y19.338 E24.1253
G1 X1.307 Y18.773 E24.15928
G1 X1.046 Y18.189 E24.19156
G1 X1.006 Y18.076 E24.19761
G1 X-2.046 Y8.68 E24.69616
G0 F1080 X-2.21 Y8.175
G0 F3600 X-1.92 Y7.775
G1 F1200 X-12.643 Y7.774 E25.2373
G1 X-13.31 Y7.711 E25.27111
G1 X-13.883 Y7.557 E25.30106
G1 X-14.441 Y7.309 E25.33187
G1 X-14.924 Y6.996 E25.36092
G1 X-15.383 Y6.582 E25.39211
G1 X-15.75 Y6.129 E25.42153
G1 X-16.051 Y5.607 E25.45194
G1 X-16.261 Y5.061 E25.48146
G1 X-16.388 Y4.464 E25.51227
G1 X-16.419 Y3.881 E25.54173
G1 X-16.355 Y3.277 E25.57238
G1 X-16.203 Y2.712 E25.60191
G1 X-15.958 Y2.161 E25.63234
G1 X-15.641 Y1.672 E25.66175
G1 X-15.232 Y1.216 E25.69266
G1 X-14.855 Y0.901 E25.71745
G1 X-6.197 Y-5.388 E26.25748
G1 X-9.511 Y-15.587 E26.79867
G1 X-9.658 Y-16.249 E26.83289
G1 X-9.689 Y-16.832 E26.86235
G1 X-9.625 Y-17.438 E26.89311
G1 X-9.474 Y-17.999 E26.92242
G1 X-9.226 Y-18.557 E26.95324
G1 X-8.911 Y-19.043 E26.98247
G1 X-8.497 Y-19.502 E27.01366
G1 X-8.055 Y-19.86 E27.04237
G1 X-7.52 Y-20.171 E27.0736
G1 X-6.975 Y-20.38 E27.10305
G1 X-6.381 Y-20.507 E27.13371
G1 X-5.805 Y-20.537 E27.16281
G1 X-5.192 Y-20.474 E27.19391
G1 X-4.625 Y-20.321 E27.22355
G1 X-4.073 Y-20.075 E27.25405
G1 X-3.657 Y-19.813 E27.27886
G1 X5 Y-13.524 E27.81885
G1 X13.657 Y-19.813 E28.35884
G1 X14.261 Y-20.171 E28.39427
G1 X14.804 Y-20.38 E28.42363
G1 X15.401 Y-20.507 E28.45444
G1 X15.976 Y-20.537 E28.48349
G1 X16.588 Y-20.474 E28.51454
G1 X17.152 Y-20.322 E28.54402
G1 X17.708 Y-20.075 E28.57472
G1 X18.188 Y-19.763 E28.60361
G1 X18.653 Y-19.346 E28.63513
G1 X19.018 Y-18.894 E28.66445
G1 X19.319 Y-18.373 E28.69482
G1 X19.528 Y-17.833 E28.72404
G1 X19.658 Y-17.226 E28.75536
G1 X19.688 Y-16.645 E28.78472
G1 X19.626 Y-16.049 E28.81496
G1 X19.504 Y-15.565 E28.84015
G1 X16.198 Y-5.388 E29.38016
G1 X24.871 Y0.915 E29.92122
G1 X25.383 Y1.369 E29.95575
G1 X25.746 Y1.817 E29.98485
G1 X26.052 Y2.346 E30.01569
G1 X26.261 Y2.891 E30.04515
G1 X26.387 Y3.48 E30.07554
G1 X26.419 Y4.069 E30.10531
G1 X26.355 Y4.673 E30.13596
G1 X26.204 Y5.235 E30.16533
G1 X25.956 Y5.793 E30.19615
G1 X25.641 Y6.279 E30.22537
G1 X25.227 Y6.738 E30.25657
G1 X24.776 Y7.103 E30.28585
G1 X24.25 Y7.406 E30.31648
G1 X23.715 Y7.613 E30.34543
G1 X23.101 Y7.743 E30.3771
G1 X22.621 Y7.775 E30.40138
G1 X11.92 Y7.775 E30.94141
G1 X8.606 Y17.973 E31.48255
G1 X8.337 Y18.592 E31.51661
G1 X8.02 Y19.081 E31.54601
G1 X7.606 Y19.54 E31.57721
G1 X7.158 Y19.903 E31.60631
G1 X6.629 Y20.209 E31.63715
G1 X6.086 Y20.418 E31.66651
G1 X5.489 Y20.545 E31.69731
G1 X4.905 Y20.575 E31.72682
G1 X4.302 Y20.512 E31.75742
G1 X3.738 Y20.36 E31.7869
G1 X3.18 Y20.112 E31.81771
G1 X2.687 Y19.791 E31.8474
G1 X2.238 Y19.384 E31.87798
G1 X1.874 Y18.934 E31.90719
G1 X1.568 Y18.405 E31.93803
G1 X1.386 Y17.952 E31.96267
G1 X-1.756 Y8.28 E32.47588
G0 F1080 X-1.92 Y7.775
G0 F3600 X-1.63 Y7.375
G1 F1200 X-12.643 Y7.374 E33.03165
G1 X-13.25 Y7.316 E33.06243
G1 X-13.74 Y7.184 E33.08804
G1 X-14.259 Y6.953 E33.1167
G1 X-14.836 Y6.553 E33.15213
G1 X-15.193 Y6.196 E33.17761
G1 X-15.528 Y5.735 E33.20637
G1 X-15.756 Y5.288 E33.23169
G1 X-15.929 Y4.757 E33.25988
G1 X-16.008 Y4.257 E33.28542
G1 X-16.008 Y3.693 E33.31389
G1 X-15.929 Y3.196 E33.33928
G1 X-15.755 Y2.66 E33.36772
G1 X-15.526 Y2.212 E33.39311
G1 X-15.198 Y1.759 E33.42134
G1 X-14.843 Y1.404 E33.44667
G1 X-14.62 Y1.224 E33.46113
G1 X-5.727 Y-5.236 E34.01583
G1 X-9.152 Y-15.782 E34.5754
G1 X-9.263 Y-16.312 E34.60273
G1 X-9.278 Y-17.021 E34.63852
G1 X-9.199 Y-17.521 E34.66406
G1 X-9.026 Y-18.052 E34.69225
G1 X-8.798 Y-18.499 E34.71757
G1 X-8.468 Y-18.956 E34.74602
G1 X-8.107 Y-19.316 E34.77175
G1 X-7.662 Y-19.64 E34.79953
G1 X-7.209 Y-19.872 E34.82521
G1 X-6.67 Y-20.048 E34.85382
G1 X-6.166 Y-20.127 E34.87957
G1 X-5.824 Y-20.137 E34.89684
G1 X-5.255 Y-20.079 E34.9257
G1 X-4.769 Y-19.948 E34.9511
G1 X-4.255 Y-19.719 E34.9795
G1 X-3.892 Y-19.49 E35.00116
G1 X5 Y-13.03 E35.55581
G1 X13.892 Y-19.49 E36.11047
G1 X14.442 Y-19.814 E36.14269
G1 X15.108 Y-20.048 E36.17831
G1 X15.615 Y-20.127 E36.2042
G1 X16.165 Y-20.127 E36.23196
G1 X16.672 Y-20.048 E36.25786
G1 X17.207 Y-19.873 E36.28626
G1 X17.655 Y-19.644 E36.31165
G1 X18.103 Y-19.32 E36.33955
G1 X18.467 Y-18.956 E36.36553
G1 X18.795 Y-18.503 E36.39376
G1 X19.023 Y-18.056 E36.41908
G1 X19.197 Y-17.527 E36.44718
G1 X19.277 Y-17.023 E36.47294
G1 X19.277 Y-16.457 E36.5015
G1 X19.198 Y-15.955 E36.52714
G1 X19.123 Y-15.688 E36.54114
G1 X15.728 Y-5.236 E37.09573
G1 X24.636 Y1.238 E37.65146
G1 X25.099 Y1.65 E37.68273
G1 X25.524 Y2.208 E37.71813
G1 X25.753 Y2.657 E37.74357
G1 X25.929 Y3.196 E37.77218
G1 X26.008 Y3.691 E37.79748
G1 X26.008 Y4.257 E37.82604
G1 X25.929 Y4.757 E37.85159
G1 X25.756 Y5.288 E37.87977
G1 X25.528 Y5.735 E37.90509
G1 X25.198 Y6.192 E37.93354
G1 X24.84 Y6.549 E37.95906
G1 X24.385 Y6.88 E37.98745
G1 X23.939 Y7.107 E38.0127
G1 X23.409 Y7.282 E38.04087
G1 X22.903 Y7.362 E38.06672
G1 X22.621 Y7.375 E38.08097
G1 X11.629 Y7.375 E38.63569
G1 X8.2 Y17.923 E39.19541
G1 X7.98 Y18.411 E39.22243
G1 X7.577 Y18.994 E39.25819
G1 X7.22 Y19.35 E39.28364
G1 X6.767 Y19.681 E39.31195
G1 X6.318 Y19.91 E39.33739
G1 X5.782 Y20.086 E39.36586
G1 X5.282 Y20.165 E39.3914
G1 X4.718 Y20.165 E39.41987
G1 X4.218 Y20.086 E39.44541
G1 X3.683 Y19.911 E39.47382
G1 X3.062 Y19.57 E39.50957
G1 X2.669 Y19.251 E39.53511
G1 X2.295 Y18.834 E39.56338
G1 X2.02 Y18.411 E39.58884
G1 X1.792 Y17.901 E39.61704
G1 X1.766 Y17.829 E39.6209
G1 X-1.466 Y7.881 E40.14876
G0 F1080 X-1.63 Y7.375
G0 F3600 X-1.339 Y6.975
G1 F1200 X-12.697 Y6.973 E40.72194
G1 X-13.303 Y6.896 E40.75277
G1 X-13.794 Y6.735 E40.77885
G1 X-14.341 Y6.432 E40.8104
G1 X-14.815 Y6.019 E40.84213
