;FLAVOR:Marlin
;TIME:3405
;Filament used: 1.95578m
;Layer height: 0.1
;MINX:-13.759
;MINY:-65.018
;MINZ:0.24
;MAXX:23.759
;MAXY:-21.01
;MAXZ:19.54
;TARGET_MACHINE.NAME:Unknown
;Generated with Cura_SteamEngine 5.8.1
M140 S60
M105
M190 S60
M104 S235
M105
M109 S235
M82 ;absolute extrusion mode
;FLAVOR:Marlin
M82 ;absolute extrusion mode
G21
G90
M82
M107 T0
G28
G92 E0
G0 E3 F200
G92 E0 ; reset extrusion distance
M106 S255 ; Enable cooling fan full speed
G1 X-98 Y0 Z0.4 F3000 ; move to arc start
G3 X0 Y-98 I98 Z0.4 E40 F400 ; lay arc stripe 90deg
G92 E0 ; reset extrusion distance
G4 P500 ; wait for 0.5 sec
G0 Z10 E-1 ; Lift 15mm and retract 1mm filament
G4 P2000 ; wait for 5 sec
G0 Z15
M107 ; Disable cooling fan
G1 X0 Y-85 Z4 E0 F3000 ; get off the bed
G92 E0
G92 E0
G1 F1500 E-8
;LAYER_COUNT:194
;LAYER:0
M106 S102
G0 F900 X-.297 Y-21.077 Z0.24
;TYPE:SKIRT
G1 F3600 E0.71493
G1 F1200 X-1.123 Y-21.01 E0.74838
G1 X-9.104 Y-22.03 E1.07321
G1 X-10.007 Y-22.363 E1.11207
G1 X-11 Y-23.103 E1.16207
G1 X-11.698 Y-23.772 E1.2011
G1 X-12.357 Y-24.592 E1.24357
G1 X-12.971 Y-25.568 E1.29012
G1 X-13.518 Y-27.028 E1.35307
G1 X-13.727 Y-28.461 E1.41153
G1 X-13.759 Y-29.525 E1.45451
G1 X-13.506 Y-31.062 E1.5174
G1 X-12.943 Y-32.516 E1.58034
G1 X-12.166 Y-33.707 E1.63776
G1 X-11.665 Y-34.301 E1.66913
G1 X-11.5 Y-34.461 E1.67841
G1 X-11.481 Y-60.356 E2.72385
G1 X-11.371 Y-61.189 E2.75777
G1 X-10.921 Y-62.403 E2.81004
G1 X-10.279 Y-63.311 E2.85493
G1 X-9.528 Y-63.987 E2.89573
G1 X-8.755 Y-64.499 E2.93316
G1 X-7.936 Y-64.799 E2.96837
G1 X-6.897 Y-65.018 E3.01124
G1 X-2.395 Y-64.985 E3.193
G1 X-1.885 Y-64.883 E3.214
G1 X-.646 Y-64.46 E3.26686
G1 X0.294 Y-63.797 E3.3133
G1 X0.968 Y-63.083 E3.35294
G1 X1.506 Y-62.208 E3.39441
G1 X1.903 Y-61.075 E3.44287
G1 X1.986 Y-60.32 E3.47354
G1 X1.998 Y-57.018 E3.60685
G1 X8.003 Y-57.018 E3.84928
G1 X8.019 Y-60.356 E3.98405
G1 X8.129 Y-61.189 E4.01797
G1 X8.579 Y-62.403 E4.07024
G1 X9.221 Y-63.311 E4.11514
G1 X9.972 Y-63.987 E4.15593
G1 X10.745 Y-64.499 E4.19336
G1 X11.564 Y-64.799 E4.22858
G1 X12.603 Y-65.018 E4.27144
G1 X17.105 Y-64.985 E4.4532
G1 X17.615 Y-64.883 E4.4742
G1 X18.854 Y-64.46 E4.52706
G1 X19.794 Y-63.797 E4.5735
G1 X20.468 Y-63.083 E4.61314
G1 X21.006 Y-62.208 E4.65461
G1 X21.403 Y-61.075 E4.70308
G1 X21.486 Y-60.32 E4.73374
G1 X21.5 Y-34.451 E5.77813
G1 X21.795 Y-34.16 E5.79486
G1 X22.233 Y-33.617 E5.82302
G1 X22.875 Y-32.583 E5.87216
G1 X23.276 Y-31.67 E5.91242
G1 X23.593 Y-30.546 E5.95957
G1 X23.723 Y-29.629 E5.99696
G1 X23.759 Y-28.513 E6.04204
G1 X23.501 Y-26.963 E6.10548
G1 X23.022 Y-25.749 E6.15817
G1 X22.515 Y-24.826 E6.20068
G1 X21.817 Y-23.857 E6.24889
G1 X20.745 Y-22.896 E6.30702
G1 X19.997 Y-22.36 E6.34417
G1 X19.156 Y-22.04 E6.3805
G1 X12.263 Y-21.021 E6.66181
G1 X11.367 Y-21.094 E6.6981
G1 X10.533 Y-21.411 E6.73412
G1 X9.969 Y-21.844 E6.76283
G1 X9.466 Y-22.434 E6.79413
G1 X9.198 Y-22.914 E6.81632
G1 X9 Y-23.711 E6.84948
G1 X9 Y-34.218 E7.27367
G1 X2 Y-34.218 E7.55628
G1 X2 Y-23.845 E7.97506
G1 X1.794 Y-22.943 E8.01241
G1 X1.641 Y-22.604 E8.02743
G1 X1.178 Y-21.968 E8.05919
G1 X0.493 Y-21.421 E8.09458
G1 X0.312 Y-21.342 E8.10255
G0 F1080 X-.297 Y-21.077
G0 F900 X-.396 Y-21.471
G1 F1200 X-1.114 Y-21.412 E8.13163
G1 X-9.011 Y-22.422 E8.45305
G1 X-9.814 Y-22.718 E8.4876
G1 X-10.724 Y-23.393 E8.53334
G1 X-11.386 Y-24.023 E8.57024
G1 X-12.045 Y-24.843 E8.61271
G1 X-12.61 Y-25.745 E8.65568
G1 X-13.128 Y-27.128 E8.7153
G1 X-13.327 Y-28.473 E8.77019
G1 X-13.358 Y-29.498 E8.81159
G1 X-13.117 Y-30.958 E8.87134
G1 X-12.585 Y-32.333 E8.93086
G1 X-11.86 Y-33.449 E8.98459
G1 X-11.359 Y-34.043 E9.01596
G1 X-11.1 Y-34.29 E9.03041
G1 X-11.084 Y-60.303 E10.08061
G1 X-10.979 Y-61.095 E10.11287
G1 X-10.565 Y-62.213 E10.161
G1 X-9.977 Y-63.045 E10.20213
G1 X-9.307 Y-63.653 E10.23865
G1 X-8.573 Y-64.139 E10.27419
G1 X-7.798 Y-64.423 E10.30752
G1 X-6.855 Y-64.618 E10.34639
G1 X-2.436 Y-64.585 E10.5248
G1 X-2.014 Y-64.504 E10.54215
G1 X-.83 Y-64.1 E10.59266
G1 X0.03 Y-63.493 E10.63516
G1 X0.65 Y-62.837 E10.6716
G1 X1.144 Y-62.033 E10.70969
G1 X1.51 Y-60.99 E10.75432
G1 X1.588 Y-60.277 E10.78328
G1 X1.599 Y-56.618 E10.931
G1 X8.401 Y-56.618 E11.20561
G1 X8.416 Y-60.303 E11.35438
G1 X8.521 Y-61.095 E11.38664
G1 X8.935 Y-62.213 E11.43477
G1 X9.523 Y-63.045 E11.4759
G1 X10.193 Y-63.653 E11.51243
G1 X10.927 Y-64.139 E11.54797
G1 X11.702 Y-64.423 E11.58129
G1 X12.645 Y-64.618 E11.62017
G1 X17.064 Y-64.585 E11.79858
G1 X17.486 Y-64.504 E11.81593
G1 X18.67 Y-64.1 E11.86643
G1 X19.53 Y-63.493 E11.90893
G1 X20.15 Y-62.837 E11.94537
G1 X20.644 Y-62.033 E11.98347
G1 X21.01 Y-60.99 E12.02809
G1 X21.088 Y-60.277 E12.05705
G1 X21.1 Y-34.282 E13.10653
G1 X21.485 Y-33.907 E13.12823
G1 X21.893 Y-33.406 E13.15431
G1 X22.535 Y-32.372 E13.20345
G1 X22.891 Y-31.56 E13.23924
G1 X23.197 Y-30.489 E13.28421
G1 X23.323 Y-29.616 E13.31982
G1 X23.358 Y-28.541 E13.36324
G1 X23.113 Y-27.068 E13.42353
G1 X22.65 Y-25.896 E13.4744
G1 X22.19 Y-25.06 E13.51293
G1 X21.514 Y-24.122 E13.55961
G1 X20.512 Y-23.221 E13.61401
G1 X19.807 Y-22.716 E13.64902
G1 X19.055 Y-22.43 E13.6815
G1 X12.25 Y-21.424 E13.95922
G1 X11.455 Y-21.488 E13.99142
G1 X10.728 Y-21.765 E14.02283
G1 X10.248 Y-22.133 E14.04725
G1 X9.771 Y-22.693 E14.07695
G1 X9.572 Y-23.065 E14.09398
G1 X9.4 Y-23.759 E14.12284
G1 X9.4 Y-34.618 E14.56125
G1 X1.6 Y-34.618 E14.87615
G1 X1.6 Y-23.888 E15.30934
G1 X1.424 Y-23.096 E15.3421
G1 X1.318 Y-22.839 E15.35332
G1 X0.888 Y-22.248 E15.38283
G1 X0.286 Y-21.768 E15.41391
G1 X0.213 Y-21.736 E15.41713
G0 F1080 X-.396 Y-21.471
G0 F900 X-.495 Y-21.865
G1 F1200 X-1.106 Y-21.814 E15.44189
G1 X-8.916 Y-22.813 E15.75976
G1 X-9.622 Y-23.074 E15.79015
G1 X-10.449 Y-23.684 E15.83164
G1 X-11.074 Y-24.274 E15.86634
G1 X-11.733 Y-25.094 E15.90881
G1 X-12.249 Y-25.923 E15.94823
G1 X-12.738 Y-27.228 E16.00449
G1 X-12.927 Y-28.485 E16.05581
G1 X-12.957 Y-29.471 E16.09564
G1 X-12.729 Y-30.853 E16.15219
G1 X-12.226 Y-32.151 E16.20839
G1 X-11.554 Y-33.191 E16.25838
G1 X-11.053 Y-33.785 E16.28975
G1 X-10.7 Y-34.118 E16.30934
G1 X-10.687 Y-60.251 E17.36439
G1 X-10.588 Y-61 E17.39489
G1 X-10.209 Y-62.023 E17.43893
G1 X-9.674 Y-62.78 E17.47636
G1 X-9.086 Y-63.319 E17.50856
G1 X-8.391 Y-63.779 E17.54221
G1 X-7.66 Y-64.047 E17.57364
G1 X-6.816 Y-64.218 E17.60841
G1 X-2.507 Y-64.191 E17.78238
G1 X-2.143 Y-64.125 E17.79731
G1 X-1.014 Y-63.74 E17.84547
G1 X-.234 Y-63.189 E17.88402
G1 X0.33 Y-62.592 E17.91718
G1 X0.782 Y-61.857 E17.95202
G1 X1.117 Y-60.903 E17.99284
G1 X1.19 Y-60.234 E18.02001
G1 X1.2 Y-56.218 E18.18214
G1 X8.8 Y-56.218 E18.48897
G1 X8.813 Y-60.251 E18.65179
G1 X8.912 Y-61 E18.68229
G1 X9.291 Y-62.023 E18.72634
G1 X9.826 Y-62.78 E18.76376
G1 X10.414 Y-63.319 E18.79597
G1 X11.109 Y-63.779 E18.82961
G1 X11.84 Y-64.047 E18.86105
G1 X12.684 Y-64.218 E18.89581
G1 X16.993 Y-64.191 E19.06978
G1 X17.357 Y-64.125 E19.08472
G1 X18.486 Y-63.74 E19.13287
G1 X19.266 Y-63.189 E19.17143
G1 X19.83 Y-62.592 E19.20459
G1 X20.282 Y-61.857 E19.23942
G1 X20.617 Y-60.903 E19.28024
G1 X20.69 Y-60.234 E19.30741
G1 X20.7 Y-34.112 E20.36201
G1 X21.175 Y-33.654 E20.38865
G1 X21.583 Y-33.153 E20.41474
G1 X22.195 Y-32.162 E20.46176
G1 X22.507 Y-31.449 E20.49318
G1 X22.801 Y-30.431 E20.53596
G1 X22.923 Y-29.603 E20.56975
G1 X22.957 Y-28.569 E20.61152
G1 X22.725 Y-27.173 E20.66865
G1 X22.278 Y-26.043 E20.71771
G1 X21.865 Y-25.294 E20.75224
G1 X21.213 Y-24.389 E20.79727
G1 X20.279 Y-23.546 E20.84807
G1 X19.617 Y-23.072 E20.88094
G1 X18.954 Y-22.82 E20.90958
G1 X12.237 Y-21.827 E21.1837
G1 X11.545 Y-21.882 E21.21173
G1 X10.925 Y-22.119 E21.23853
G1 X10.523 Y-22.426 E21.25895
G1 X10.116 Y-22.896 E21.28405
G1 X9.96 Y-23.161 E21.29646
G1 X9.8 Y-23.807 E21.32333
G1 X9.8 Y-35.018 E21.77594
G1 X1.2 Y-35.018 E22.12315
G1 X1.2 Y-23.93 E22.57079
G1 X1.034 Y-23.183 E22.60169
G1 X0.967 Y-23.035 E22.60825
G1 X0.598 Y-22.528 E22.63356
G1 X0.109 Y-22.139 E22.65879
G0 F1080 X0.079 Y-22.115
G0 X-.495 Y-21.865
G0 F900 X-.655 Y-22.232
G1 F1200 X-1.055 Y-22.211 E22.67496
G1 X-8.823 Y-23.205 E22.99113
G1 X-9.43 Y-23.429 E23.01725
G1 X-10.174 Y-23.975 E23.05451
G1 X-10.799 Y-24.565 E23.08921
G1 X-11.393 Y-25.305 E23.12752
G1 X-11.888 Y-26.1 E23.16532
G1 X-12.35 Y-27.332 E23.21845
G1 X-12.527 Y-28.497 E23.26602
G1 X-12.556 Y-29.444 E23.30427
G1 X-12.34 Y-30.749 E23.35767
G1 X-11.869 Y-31.966 E23.41036
G1 X-11.248 Y-32.933 E23.45675
G1 X-10.747 Y-33.527 E23.48813
G1 X-10.3 Y-33.945 E23.51283
G1 X-10.29 Y-60.199 E24.57277
G1 X-10.197 Y-60.905 E24.60151
G1 X-9.853 Y-61.833 E24.64147
G1 X-9.37 Y-62.516 E24.67524
G1 X-8.865 Y-62.985 E24.70307
G1 X-8.209 Y-63.419 E24.73482
G1 X-7.522 Y-63.671 E24.76437
G1 X-6.779 Y-63.818 E24.79494
G1 X-2.573 Y-63.796 E24.96475
G1 X-2.272 Y-63.746 E24.97707
G1 X-1.198 Y-63.38 E25.02288
G1 X-.498 Y-62.885 E25.05749
G1 X0.01 Y-62.347 E25.08737
G1 X0.42 Y-61.681 E25.11894
G1 X0.724 Y-60.816 E25.15596
G1 X0.792 Y-60.191 E25.18134
G1 X0.8 Y-56.044 E25.34876
G1 X0.889 Y-55.882 E25.35622
G1 X1.144 Y-55.818 E25.36684
G1 X8.999 Y-55.818 E25.68396
G1 X9.147 Y-55.913 E25.69106
G1 X9.2 Y-56.044 E25.69677
G1 X9.21 Y-60.199 E25.86451
G1 X9.303 Y-60.905 E25.89326
G1 X9.647 Y-61.833 E25.93322
G1 X10.13 Y-62.516 E25.96699
G1 X10.635 Y-62.985 E25.99482
G1 X11.291 Y-63.419 E26.02657
G1 X11.978 Y-63.671 E26.05611
G1 X12.721 Y-63.818 E26.08669
G1 X16.927 Y-63.796 E26.2565
G1 X17.228 Y-63.746 E26.26882
G1 X18.302 Y-63.38 E26.31463
G1 X19.002 Y-62.885 E26.34924
G1 X19.51 Y-62.347 E26.37911
G1 X19.92 Y-61.681 E26.41069
G1 X20.224 Y-60.816 E26.4477
G1 X20.292 Y-60.191 E26.47309
G1 X20.3 Y-33.941 E27.53286
G1 X20.865 Y-33.401 E27.56441
G1 X21.273 Y-32.9 E27.59049
G1 X21.829 Y-32 E27.6332
G1 X22.123 Y-31.337 E27.66248
G1 X22.405 Y-30.371 E27.70311
G1 X22.523 Y-29.59 E27.735
G1 X22.556 Y-28.597 E27.77511
G1 X22.336 Y-27.277 E27.82914
G1 X21.927 Y-26.235 E27.87433
G1 X21.54 Y-25.528 E27.90687
G1 X20.912 Y-24.656 E27.95026
G1 X20.046 Y-23.871 E27.99744
G1 X19.427 Y-23.428 E28.02817
G1 X18.853 Y-23.21 E28.05296
G1 X12.223 Y-22.23 E28.32354
G1 X11.635 Y-22.276 E28.34735
G1 X11.068 Y-22.493 E28.37186
G1 X10.825 Y-22.688 E28.38444
G1 X10.418 Y-23.158 E28.40954
G1 X10.334 Y-23.314 E28.41669
G1 X10.2 Y-23.855 E28.43919
G1 X10.2 Y-35.105 E28.89338
G1 X10.166 Y-35.291 E28.90102
G1 X10.048 Y-35.389 E28.90721
G1 X9.926 Y-35.418 E28.91227
G1 X1.08 Y-35.418 E29.2694
G1 X0.939 Y-35.384 E29.27526
G1 X0.837 Y-35.293 E29.28078
G1 X0.8 Y-35.098 E29.28879
G1 X0.8 Y-23.972 E29.73797
G1 X0.644 Y-23.27 E29.76701
G1 X0.308 Y-22.808 E29.79007
G1 X-0.058 Y-22.517 E29.80895
G0 F1080 X-.128 Y-22.462
G0 X-.655 Y-22.232
G0 F900 X-.749 Y-22.628
G1 F1200 X-1.004 Y-22.608 E29.81927
G1 X-8.73 Y-23.597 E30.13373
G1 X-9.235 Y-23.783 E30.15546
G1 X-9.937 Y-24.298 E30.19061
G1 X-10.523 Y-24.855 E30.22325
G1 X-11.053 Y-25.516 E30.25746
G1 X-11.526 Y-26.276 E30.2936
G1 X-11.962 Y-27.438 E30.3437
G1 X-12.127 Y-28.509 E30.38745
G1 X-12.155 Y-29.416 E30.42409
G1 X-11.951 Y-30.645 E30.47438
G1 X-11.511 Y-31.784 E30.52368
G1 X-10.942 Y-32.675 E30.56636
G1 X-10.441 Y-33.269 E30.59773
G1 X-9.9 Y-33.77 E30.6275
G1 X-9.893 Y-60.147 E31.6924
G1 X-9.806 Y-60.81 E31.7194
G1 X-9.497 Y-61.643 E31.75526
G1 X-9.065 Y-62.254 E31.78547
G1 X-8.644 Y-62.651 E31.80884
G1 X-8.027 Y-63.059 E31.8387
G1 X-7.384 Y-63.295 E31.86635
G1 X-6.74 Y-63.418 E31.89282
G1 X-2.639 Y-63.401 E32.05839
G1 X-2.338 Y-63.351 E32.07071
G1 X-1.383 Y-63.02 E32.11151
G1 X-.762 Y-62.581 E32.14222
G1 X-.308 Y-62.101 E32.16889
G1 X0.057 Y-61.507 E32.19704
G1 X0.331 Y-60.729 E32.23034
G1 X0.394 Y-60.148 E32.25393
G1 X0.4 Y-55.975 E32.42241
G1 X0.482 Y-55.747 E32.43219
G1 X0.631 Y-55.567 E32.44162
G1 X0.829 Y-55.46 E32.45071
G1 X1.112 Y-55.418 E32.46226
G1 X8.9 Y-55.418 E32.77668
G1 X9.167 Y-55.458 E32.78758
G1 X9.379 Y-55.573 E32.79731
G1 X9.492 Y-55.698 E32.80412
G1 X9.6 Y-55.965 E32.81575
G1 X9.607 Y-60.147 E32.98458
G1 X9.694 Y-60.81 E33.01158
G1 X10.003 Y-61.643 E33.04745
G1 X10.435 Y-62.254 E33.07766
G1 X10.856 Y-62.651 E33.10102
G1 X11.473 Y-63.059 E33.13088
G1 X12.116 Y-63.295 E33.15854
G1 X12.76 Y-63.418 E33.18501
G1 X16.861 Y-63.401 E33.35057
G1 X17.162 Y-63.351 E33.36289
G1 X18.117 Y-63.02 E33.4037
G1 X18.738 Y-62.581 E33.4344
G1 X19.192 Y-62.101 E33.46107
G1 X19.557 Y-61.507 E33.48922
G1 X19.831 Y-60.729 E33.52252
G1 X19.894 Y-60.148 E33.54612
G1 X19.9 Y-33.769 E34.61109
G1 X20.555 Y-33.148 E34.64753
G1 X20.963 Y-32.647 E34.67362
G1 X21.464 Y-31.836 E34.71211
G1 X21.739 Y-31.223 E34.73923
G1 X22.009 Y-30.311 E34.77763
G1 X22.127 Y-29.53 E34.80952
G1 X22.155 Y-28.625 E34.84607
G1 X21.948 Y-27.383 E34.89691
G1 X21.575 Y-26.426 E34.93837
G1 X21.215 Y-25.762 E34.96887
G1 X20.61 Y-24.922 E35.01066
G1 X19.813 Y-24.196 E35.05418
G1 X19.237 Y-23.784 E35.08278
G1 X18.752 Y-23.6 E35.10372
G1 X12.203 Y-22.632 E35.37099
G1 X11.778 Y-22.65 E35.38816
G1 X11.269 Y-22.845 E35.41017
G1 X11.127 Y-22.95 E35.4173
G1 X10.72 Y-23.42 E35.4424
G1 X10.6 Y-23.855 E35.46062
G1 X10.6 Y-35.139 E35.91618
G1 X10.546 Y-35.434 E35.92828
G1 X10.461 Y-35.576 E35.93497
G1 X10.224 Y-35.758 E35.94703
G1 X9.973 Y-35.818 E35.95745
G1 X1.033 Y-35.818 E36.31838
G1 X0.775 Y-35.756 E36.32909
G1 X0.576 Y-35.622 E36.33877
G1 X0.459 Y-35.446 E36.34731
G1 X0.4 Y-35.136 E36.36005
G1 X0.4 Y-24.018 E36.80891
G1 X0.271 Y-23.436 E36.83297
G1 X0.05 Y-23.114 E36.84874
G1 X-.165 Y-22.933 E36.86009
G0 F1080 X-.288 Y-22.829
G0 X-.749 Y-22.628
G0 F900 X-.801 Y-23.025
G1 F1200 X-.953 Y-23.005 E36.86628
G1 X-8.679 Y-23.994 E37.18074
G1 X-8.998 Y-24.106 E37.19439
G1 X-9.7 Y-24.621 E37.22954
G1 X-10.246 Y-25.144 E37.26006
G1 X-10.713 Y-25.727 E37.29022
G1 X-11.165 Y-26.453 E37.32474
G1 X-11.573 Y-27.542 E37.37169
G1 X-11.727 Y-28.521 E37.4117
G1 X-11.754 Y-29.388 E37.44672
G1 X-11.562 Y-30.542 E37.49395
G1 X-11.153 Y-31.602 E37.53982
G1 X-10.636 Y-32.417 E37.57879
G1 X-10.135 Y-33.011 E37.61016
G1 X-9.5 Y-33.595 E37.64499
G1 X-9.496 Y-60.095 E38.71486
G1 X-9.415 Y-60.715 E38.7401
G1 X-9.14 Y-61.456 E38.77201
G1 X-8.764 Y-61.987 E38.79828
G1 X-8.369 Y-62.36 E38.82021
G1 X-7.844 Y-62.7 E38.84546
G1 X-7.309 Y-62.902 E38.86855
G1 X-6.702 Y-63.018 E38.8935
G1 X-2.705 Y-63.006 E39.05487
G1 X-2.404 Y-62.956 E39.06719
G1 X-1.567 Y-62.661 E39.10301
G1 X-1.029 Y-62.28 E39.12963
G1 X-.628 Y-61.856 E39.15319
G1 X-.305 Y-61.331 E39.17808
G1 X-0.062 Y-60.642 E39.20757
G1 X-0.004 Y-60.105 E39.22938
G1 X0.00 Y-55.905 E39.39894
G1 X0.13 Y-55.546 E39.41436
G1 X0.373 Y-55.252 E39.42976
G1 X0.702 Y-55.074 E39.44486
G1 X1.08 Y-55.018 E39.46028
G1 X8.927 Y-55.018 E39.77709
G1 X9.297 Y-55.074 E39.79219
G1 X9.63 Y-55.254 E39.80748
G1 X9.837 Y-55.484 E39.81997
G1 X10 Y-55.885 E39.83744
G1 X10.004 Y-60.095 E40.00741
G1 X10.085 Y-60.715 E40.03265
G1 X10.36 Y-61.456 E40.06456
G1 X10.736 Y-61.987 E40.09083
G1 X11.131 Y-62.36 E40.11277
G1 X11.656 Y-62.7 E40.13802
G1 X12.191 Y-62.902 E40.1611
G1 X12.798 Y-63.018 E40.18605
G1 X16.795 Y-63.006 E40.34742
G1 X17.096 Y-62.956 E40.35974
G1 X17.933 Y-62.661 E40.39557
G1 X18.471 Y-62.28 E40.42219
G1 X18.872 Y-61.856 E40.44575
G1 X19.195 Y-61.331 E40.47063
G1 X19.438 Y-60.642 E40.50013
G1 X19.496 Y-60.105 E40.52193
G1 X19.5 Y-33.571 E41.59317
G1 X19.619 Y-33.485 E41.5991
G1 X20.245 Y-32.895 E41.63383
G1 X20.653 Y-32.394 E41.65991
G1 X21.099 Y-31.672 E41.69417
G1 X21.374 Y-31.059 E41.7213
G1 X21.614 Y-30.25 E41.75537
G1 X21.727 Y-29.518 E41.78527
G1 X21.754 Y-28.654 E41.82017
G1 X21.559 Y-27.487 E41.86794
G1 X21.223 Y-26.617 E41.90559
G1 X20.863 Y-25.953 E41.93608
G1 X20.309 Y-25.188 E41.97421
G1 X19.58 Y-24.521 E42.01411
G1 X19.044 Y-24.138 E42.0407
