;FLAVOR:Marlin
;TIME:2281
;Filament used: 3.05964m
;Layer height: 0.24
;MINX:4.435
;MINY:-77.325
;MINZ:0.24
;MAXX:25.953
;MAXY:-38.825
;MAXZ:37.92
;TARGET_MACHINE.NAME:Unknown
;Generated with Cura_SteamEngine 5.9.0
M140 S60
M105
M190 S60
M104 S230
M105
M109 S230
M82 ;absolute extrusion mode
;FLAVOR:Marlin
M82 ;absolute extrusion mode
G21
G90
M82
M107 T0
G28
G92 E0
G0 E3 F200
G92 E0 ; reset extrusion distance
M106 S255 ; Enable cooling fan full speed
G1 X-98 Y0 Z0.4 F3000 ; move to arc start
G3 X0 Y-98 I98 Z0.4 E40 F400 ; lay arc stripe 90deg
G92 E0 ; reset extrusion distance
G4 P500 ; wait for 0.5 sec
G0 Z10 E-1 ; Lift 15mm and retract 1mm filament
G4 P2000 ; wait for 5 sec
G0 Z15
M107 ; Disable cooling fan
G1 X0 Y-85 Z4 E0 F3000 ; get off the bed
G92 E0
G92 E0
G1 F1500 E-8
;LAYER_COUNT:158
;LAYER:0
M106 S102
G0 F900 X23.79 Y-38.943 Z0.24
;TYPE:SKIRT
G1 F3600 E0.71493
G1 F1200 X23.011 Y-38.829 E0.75307
G1 X8.776 Y-38.825 E1.44271
G1 X7.923 Y-39.012 E1.48501
G1 X7.098 Y-39.454 E1.53036
G1 X6.975 Y-39.557 E1.53813
G1 X6.468 Y-40.188 E1.57734
G1 X6.071 Y-40.988 E1.62061
G1 X5.957 Y-41.767 E1.65875
G1 X5.953 Y-46.448 E1.88553
G1 X6.135 Y-47.338 E1.92954
G1 X6.533 Y-48.093 E1.97089
G1 X6.702 Y-48.313 E1.98433
G1 X7.32 Y-48.811 E2.02278
G1 X8.116 Y-49.207 E2.06585
G1 X8.895 Y-49.321 E2.10399
G1 X9.637 Y-49.325 E2.13994
G1 X8.772 Y-49.837 E2.18864
G1 X6.019 Y-52.589 E2.37722
G1 X5.506 Y-53.457 E2.42607
G1 X4.502 Y-56.9 E2.59982
G1 X4.435 Y-58.015 E2.65394
G1 X5.498 Y-61.659 E2.83783
G1 X5.917 Y-62.434 E2.88052
G1 X8.605 Y-65.271 E3.06985
G1 X9.525 Y-65.827 E3.12193
G1 X13.098 Y-66.825 E3.30166
G1 X8.83 Y-66.825 E3.50843
G1 X7.94 Y-67.007 E3.55244
G1 X7.185 Y-67.405 E3.59379
G1 X6.965 Y-67.574 E3.60723
G1 X6.467 Y-68.192 E3.64568
G1 X6.071 Y-68.988 E3.68875
G1 X5.957 Y-69.767 E3.72689
G1 X5.953 Y-74.448 E3.95367
G1 X6.135 Y-75.338 E3.99768
G1 X6.533 Y-76.093 E4.03903
G1 X6.702 Y-76.313 E4.05247
G1 X7.32 Y-76.811 E4.09092
G1 X8.116 Y-77.207 E4.13399
G1 X8.895 Y-77.321 E4.17214
G1 X23.076 Y-77.325 E4.85916
G1 X23.966 Y-77.143 E4.90317
G1 X24.721 Y-76.745 E4.94452
G1 X24.941 Y-76.576 E4.95796
G1 X25.439 Y-75.958 E4.99641
G1 X25.835 Y-75.162 E5.03948
G1 X25.949 Y-74.383 E5.07762
G1 X25.953 Y-41.702 E6.66091
G1 X25.771 Y-40.812 E6.70492
G1 X25.373 Y-40.057 E6.74627
G1 X25.204 Y-39.837 E6.75971
G1 X24.586 Y-39.339 E6.79816
G1 X23.79 Y-38.943 E6.84123
G1 F1500 E-1.15877
G0 F900 X8.3 Y-41.172
G0 X8.3 Y-46.978
G0 X18.953 Y-49.325
G1 F3600 E7.55615
G1 F1200 X18.03 Y-49.325 E7.60087
G1 X18.953 Y-49.895 E7.65343
G1 X18.953 Y-49.325 E7.68104
G0 F900 X19.353 Y-48.925
G1 F1200 X19.353 Y-50.892 E7.77634
G1 X18.619 Y-50.158 E7.82662
G1 X17.882 Y-49.703 E7.86859
G1 X15.105 Y-48.925 E8.0083
G1 X19.353 Y-48.925 E8.2141
G1 F1500 E0.2141
G0 F900 X18.953 Y-65.222
G1 F3600 E8.92903
G1 F1200 X18.953 Y-66.825 E9.00669
G1 X14.43 Y-66.825 E9.22581
G1 X17.887 Y-65.856 E9.39975
G1 X18.763 Y-65.391 E9.4478
G1 X18.953 Y-65.222 E9.46012
G0 F900 X19.353 Y-64.217
G1 F1200 X19.353 Y-67.225 E9.60584
G1 X8.871 Y-67.225 E10.11366
G1 X8.075 Y-67.388 E10.15303
G1 X7.371 Y-67.759 E10.19158
G1 X7.246 Y-67.862 E10.19942
G1 X6.806 Y-68.408 E10.2334
G1 X6.458 Y-69.108 E10.27127
G1 X6.353 Y-69.825 E10.30638
G1 X6.353 Y-74.407 E10.52836
G1 X6.516 Y-75.203 E10.56772
G1 X6.887 Y-75.907 E10.60628
G1 X6.99 Y-76.032 E10.61412
G1 X7.536 Y-76.472 E10.64809
G1 X8.236 Y-76.82 E10.68597
G1 X8.953 Y-76.925 E10.72107
G1 X23.035 Y-76.925 E11.4033
G1 X23.831 Y-76.762 E11.44266
G1 X24.535 Y-76.391 E11.48122
G1 X24.66 Y-76.288 E11.48906
G1 X25.1 Y-75.742 E11.52303
G1 X25.448 Y-75.042 E11.56091
G1 X25.553 Y-74.325 E11.59601
G1 X25.553 Y-41.743 E13.1745
G1 X25.39 Y-40.947 E13.21387
G1 X25.019 Y-40.243 E13.25242
G1 X24.916 Y-40.118 E13.26027
G1 X24.37 Y-39.678 E13.29424
G1 X23.67 Y-39.33 E13.33211
G1 X22.953 Y-39.225 E13.36722
G1 X8.821 Y-39.225 E14.05187
G1 X8.063 Y-39.391 E14.08946
G1 X7.287 Y-39.807 E14.13212
G1 X6.807 Y-40.405 E14.16927
G1 X6.458 Y-41.108 E14.20729
G1 X6.353 Y-41.825 E14.2424
G1 X6.353 Y-46.407 E14.46438
G1 X6.516 Y-47.203 E14.50374
G1 X6.887 Y-47.907 E14.5423
G1 X6.99 Y-48.032 E14.55014
G1 X7.536 Y-48.472 E14.58411
G1 X8.236 Y-48.82 E14.62199
G1 X8.953 Y-48.925 E14.65709
G1 X12.432 Y-48.925 E14.82564
G1 X9.8 Y-49.693 E14.95847
G1 X9.02 Y-50.155 E15.00239
G1 X6.337 Y-52.837 E15.18618
G1 X5.876 Y-53.617 E15.23007
G1 X4.898 Y-56.97 E15.39928
G1 X4.838 Y-57.969 E15.44777
G1 X5.869 Y-61.504 E15.62616
G1 X6.246 Y-62.2 E15.66451
G1 X8.858 Y-64.957 E15.8485
G1 X9.685 Y-65.456 E15.8953
G1 X13.176 Y-66.435 E16.07095
G1 X14.136 Y-66.492 E16.11754
G1 X17.739 Y-65.482 E16.29882
G1 X18.576 Y-65.038 E16.34472
G1 X19.353 Y-64.217 E16.39949
G0 F900 X19.753 Y-63.213
G1 F1200 X19.753 Y-67.625 E16.61323
G1 X8.912 Y-67.625 E17.13844
G1 X8.21 Y-67.769 E17.17316
G1 X7.557 Y-68.113 E17.20892
G1 X7.145 Y-68.624 E17.24072
G1 X6.844 Y-69.23 E17.2735
G1 X6.753 Y-69.825 E17.30266
G1 X6.753 Y-74.366 E17.52266
G1 X6.897 Y-75.068 E17.55738
G1 X7.241 Y-75.721 E17.59313
G1 X7.752 Y-76.133 E17.62493
G1 X8.358 Y-76.434 E17.65771
G1 X8.953 Y-76.525 E17.68687
G1 X22.994 Y-76.525 E18.36711
G1 X23.696 Y-76.381 E18.40183
G1 X24.349 Y-76.037 E18.43759
G1 X24.761 Y-75.526 E18.46939
G1 X25.062 Y-74.92 E18.50217
G1 X25.153 Y-74.325 E18.53133
G1 X25.153 Y-41.784 E20.10783
G1 X25.009 Y-41.082 E20.14255
G1 X24.665 Y-40.429 E20.17831
G1 X24.154 Y-40.017 E20.21011
G1 X23.548 Y-39.716 E20.24289
G1 X22.953 Y-39.625 E20.27205
G1 X8.866 Y-39.625 E20.95452
G1 X8.2 Y-39.771 E20.98755
G1 X7.55 Y-40.12 E21.02329
G1 X7.145 Y-40.624 E21.05462
G1 X6.844 Y-41.23 E21.0874
G1 X6.753 Y-41.825 E21.11656
G1 X6.753 Y-46.366 E21.33656
G1 X6.897 Y-47.068 E21.37127
G1 X7.241 Y-47.721 E21.40703
G1 X7.752 Y-48.133 E21.43883
G1 X8.358 Y-48.434 E21.47161
G1 X8.953 Y-48.525 E21.50077
G1 X19.753 Y-48.525 E22.024
G1 X19.753 Y-51.858 E22.18547
G1 X18.367 Y-50.472 E22.28043
G1 X17.721 Y-50.073 E22.31722
G1 X14.086 Y-49.055 E22.5001
G1 X13.223 Y-49.111 E22.54199
G1 X9.96 Y-50.063 E22.70666
G1 X9.268 Y-50.473 E22.74563
G1 X6.655 Y-53.085 E22.92463
G1 X6.246 Y-53.777 E22.96357
G1 X5.294 Y-57.04 E23.12824
G1 X5.241 Y-57.923 E23.1711
G1 X6.241 Y-61.351 E23.34409
G1 X6.573 Y-61.964 E23.37787
G1 X9.111 Y-64.643 E23.55665
G1 X9.845 Y-65.086 E23.59819
G1 X13.243 Y-66.039 E23.76916
G1 X14.092 Y-66.089 E23.81036
G1 X17.591 Y-65.108 E23.98641
G1 X18.33 Y-64.716 E24.02694
G1 X19.753 Y-63.213 E24.12721
G0 F900 X20.153 Y-62.21
G1 F1200 X18.084 Y-64.394 E24.27296
G1 X17.443 Y-64.734 E24.30811
G1 X14.048 Y-65.686 E24.47893
G1 X13.31 Y-65.643 E24.51475
G1 X10.005 Y-64.716 E24.68104
G1 X9.364 Y-64.329 E24.71732
G1 X6.9 Y-61.728 E24.89089
G1 X6.613 Y-61.198 E24.92009
G1 X5.644 Y-57.877 E25.08769
G1 X5.69 Y-57.11 E25.12492
G1 X6.616 Y-53.937 E25.28505
G1 X6.973 Y-53.333 E25.31904
G1 X9.516 Y-50.791 E25.49324
G1 X10.12 Y-50.433 E25.52726
G1 X13.294 Y-49.507 E25.68744
G1 X14.044 Y-49.458 E25.72385
G1 X17.56 Y-50.443 E25.90075
G1 X18.115 Y-50.786 E25.93236
G1 X20.026 Y-52.697 E26.06329
G1 X20.153 Y-52.882 E26.07416
G1 X20.153 Y-48.125 E26.30462
G1 X8.953 Y-48.125 E26.84722
G1 X8.479 Y-48.048 E26.87049
G1 X7.93 Y-47.775 E26.90019
G1 X7.558 Y-47.463 E26.92371
G1 X7.277 Y-46.931 E26.95286
G1 X7.153 Y-46.325 E26.98283
G1 X7.153 Y-41.825 E27.20084
G1 X7.23 Y-41.351 E27.2241
G1 X7.503 Y-40.802 E27.25381
G1 X7.812 Y-40.433 E27.27712
G1 X8.337 Y-40.151 E27.30599
G1 X8.911 Y-40.025 E27.33446
G1 X22.953 Y-40.025 E28.01475
G1 X23.427 Y-40.102 E28.03802
G1 X23.976 Y-40.375 E28.06772
G1 X24.348 Y-40.687 E28.09124
G1 X24.629 Y-41.219 E28.12039
G1 X24.753 Y-41.825 E28.15036
G1 X24.753 Y-74.325 E29.72488
G1 X24.676 Y-74.799 E29.74814
G1 X24.403 Y-75.348 E29.77784
G1 X24.091 Y-75.72 E29.80137
G1 X23.559 Y-76.001 E29.83051
G1 X22.953 Y-76.125 E29.86048
G1 X8.953 Y-76.125 E30.53874
G1 X8.479 Y-76.048 E30.562
G1 X7.93 Y-75.775 E30.5917
G1 X7.558 Y-75.463 E30.61523
G1 X7.277 Y-74.931 E30.64437
G1 X7.153 Y-74.325 E30.67434
G1 X7.153 Y-69.825 E30.89235
G1 X7.23 Y-69.351 E30.91562
G1 X7.503 Y-68.802 E30.94532
G1 X7.815 Y-68.43 E30.96884
G1 X8.347 Y-68.149 E30.99799
G1 X8.953 Y-68.025 E31.02796
G1 X20.153 Y-68.025 E31.57056
G1 X20.153 Y-62.21 E31.85228
G0 F900 X20.153 Y-61.072
G1 F1200 X20.153 Y-53.97 E32.19635
G1 X20.019 Y-53.424 E32.22358
G1 X19.743 Y-52.98 E32.24891
G1 X17.865 Y-51.102 E32.37758
G1 X17.397 Y-50.812 E32.40425
G1 X14.002 Y-49.861 E32.57506
G1 X13.365 Y-49.903 E32.60599
G1 X10.278 Y-50.804 E32.76178
G1 X9.765 Y-51.107 E32.79065
G1 X7.29 Y-53.582 E32.96022
G1 X6.987 Y-54.095 E32.98908
G1 X6.086 Y-57.18 E33.14479
G1 X6.047 Y-57.831 E33.17638
G1 X6.985 Y-61.045 E33.33858
G1 X7.227 Y-61.492 E33.36321
G1 X9.617 Y-64.015 E33.53158
G1 X10.165 Y-64.346 E33.56259
G1 X13.377 Y-65.247 E33.72421
G1 X14.004 Y-65.283 E33.75463
G1 X17.293 Y-64.361 E33.92012
G1 X17.839 Y-64.071 E33.95007
G1 X19.768 Y-62.035 E34.08595
G1 X20.06 Y-61.548 E34.11346
G1 X20.153 Y-61.072 E34.13695
G0 F900 X19.753 Y-61.072
G1 F1200 X19.753 Y-53.97 E34.48102
G1 X19.674 Y-53.627 E34.49808
G1 X19.46 Y-53.263 E34.51853
G1 X17.582 Y-51.385 E34.6472
G1 X17.289 Y-51.197 E34.66407
G1 X13.961 Y-50.265 E34.8315
G1 X13.477 Y-50.287 E34.85497
G1 X10.39 Y-51.188 E35.01077
G1 X10.048 Y-51.39 E35.03001
G1 X7.573 Y-53.865 E35.19958
G1 X7.371 Y-54.207 E35.21883
G1 X6.47 Y-57.292 E35.37453
G1 X6.451 Y-57.786 E35.39848
G1 X7.369 Y-60.933 E35.55729
G1 X7.517 Y-61.217 E35.57281
G1 X9.87 Y-63.701 E35.73857
G1 X10.325 Y-63.976 E35.76433
G1 X13.485 Y-64.862 E35.92332
G1 X13.961 Y-64.88 E35.9464
G1 X17.185 Y-63.976 E36.10862
G1 X17.595 Y-63.748 E36.13134
G1 X19.478 Y-61.76 E36.264
G1 X19.68 Y-61.404 E36.28383
G1 X19.753 Y-61.072 E36.3003
G0 F900 X18.953 Y-61.072
G1 F1200 X18.953 Y-53.97 E36.64437
G1 X18.894 Y-53.829 E36.65177
G1 X17.016 Y-51.951 E36.78044
G1 X13.811 Y-51.054 E36.94168
G1 X13.701 Y-51.055 E36.94701
G1 X10.614 Y-51.956 E37.1028
G1 X8.139 Y-54.431 E37.27238
G1 X7.238 Y-57.516 E37.42808
G1 X7.238 Y-57.628 E37.4335
G1 X8.137 Y-60.709 E37.58899
G1 X10.45 Y-63.151 E37.75195
G1 X10.541 Y-63.206 E37.7571
G1 X13.701 Y-64.092 E37.91609
G1 X13.809 Y-64.092 E37.92132
G1 X16.969 Y-63.206 E38.08032
G1 X17.06 Y-63.151 E38.08547
G1 X18.898 Y-61.21 E38.21498
G1 X18.953 Y-61.072 E38.22217
G0 F900 X19.353 Y-61.072
G1 F1200 X19.353 Y-53.97 E38.56624
G1 X19.322 Y-53.816 E38.57385
G1 X19.177 Y-53.546 E38.5887
G1 X17.299 Y-51.668 E38.71737
G1 X17.124 Y-51.566 E38.72718
G1 X13.853 Y-50.65 E38.89175
G1 X13.589 Y-50.671 E38.90458
G1 X10.502 Y-51.572 E39.06037
G1 X10.331 Y-51.673 E39.06999
G1 X7.856 Y-54.148 E39.23957
G1 X7.755 Y-54.319 E39.24919
G1 X6.854 Y-57.404 E39.40489
G1 X6.835 Y-57.674 E39.418
G1 X7.753 Y-60.821 E39.57682
G1 X7.847 Y-60.984 E39.58593
G1 X10.16 Y-63.426 E39.74889
G1 X10.433 Y-63.591 E39.76434
G1 X13.593 Y-64.477 E39.92333
G1 X13.853 Y-64.495 E39.93596
G1 X17.077 Y-63.591 E40.09818
G1 X17.305 Y-63.473 E40.11061
G1 X19.188 Y-61.485 E40.24327
G1 X19.325 Y-61.22 E40.25772
G1 X19.353 Y-61.072 E40.26502
G1 F1500 E32.26502
G0 F900 X20.553 Y-68.425
G1 F3600 E40.97995
G1 F1200 X8.953 Y-68.425 E41.54193
G1 X8.534 Y-68.503 E41.56258
G1 X8.07 Y-68.748 E41.588
G1 X7.861 Y-68.98 E41.60312
G1 X7.615 Y-69.474 E41.62986
G1 X7.553 Y-69.825 E41.64713
G1 X7.553 Y-74.325 E41.86514
G1 X7.631 Y-74.744 E41.88579
G1 X7.876 Y-75.208 E41.91121
G1 X8.108 Y-75.417 E41.92634
G1 X8.602 Y-75.663 E41.95307
G1 X8.953 Y-75.725 E41.97034
G1 X22.953 Y-75.725 E42.64859
G1 X23.372 Y-75.647 E42.66924
G1 X23.836 Y-75.402 E42.69466
G1 X24.045 Y-75.17 E42.70979
G1 X24.291 Y-74.676 E42.73652
G1 X24.353 Y-74.325 E42.75379
G1 X24.353 Y-41.825 E44.32831
G1 X24.275 Y-41.406 E44.34896
G1 X24.03 Y-40.942 E44.37438
G1 X23.798 Y-40.733 E44.38951
G1 X23.304 Y-40.487 E44.41624
G1 X22.953 Y-40.425 E44.43351
G1 X8.911 Y-40.425 E45.1138
G1 X8.43 Y-40.54 E45.13776
G1 X8.07 Y-40.748 E45.1579
G1 X7.861 Y-40.98 E45.17303
G1 X7.615 Y-41.474 E45.19976
G1 X7.553 Y-41.825 E45.21703
G1 X7.553 Y-46.325 E45.43504
G1 X7.631 Y-46.744 E45.45569
G1 X7.876 Y-47.208 E45.48111
G1 X8.108 Y-47.417 E45.49624
G1 X8.602 Y-47.663 E45.52298
G1 X8.953 Y-47.725 E45.54024
G1 X20.553 Y-47.725 E46.10222
G1 X20.553 Y-68.425 E47.10507
G0 F900 X20.953 Y-68.825
G1 F1200 X20.953 Y-47.325 E48.14668
G1 X8.953 Y-47.325 E48.72804
G1 X8.68 Y-47.271 E48.74152
G1 X8.298 Y-47.065 E48.76254
G1 X8.16 Y-46.926 E48.77203
G1 X8.023 Y-46.663 E48.7864
G1 X7.953 Y-46.325 E48.80312
G1 X7.953 Y-41.825 E49.02113
G1 X8.007 Y-41.552 E49.03461
G1 X8.213 Y-41.17 E49.05564
G1 X8.352 Y-41.032 E49.06513
G1 X8.615 Y-40.895 E49.0795
G1 X8.953 Y-40.825 E49.09622
G1 X22.953 Y-40.825 E49.77447
G1 X23.226 Y-40.879 E49.78795
G1 X23.608 Y-41.085 E49.80898
G1 X23.746 Y-41.224 E49.81847
G1 X23.883 Y-41.487 E49.83284
G1 X23.953 Y-41.825 E49.84956
G1 X23.953 Y-74.325 E51.42408
G1 X23.899 Y-74.598 E51.43756
G1 X23.693 Y-74.98 E51.45858
G1 X23.554 Y-75.118 E51.46807
G1 X23.291 Y-75.255 E51.48244
G1 X22.953 Y-75.325 E51.49916
G1 X8.953 Y-75.325 E52.17742
G1 X8.68 Y-75.271 E52.1909
G1 X8.298 Y-75.065 E52.21192
G1 X8.16 Y-74.926 E52.22141
G1 X8.023 Y-74.663 E52.23578
G1 X7.953 Y-74.325 E52.2525
G1 X7.953 Y-69.825 E52.47051
G1 X8.007 Y-69.552 E52.484
G1 X8.213 Y-69.17 E52.50502
G1 X8.352 Y-69.032 E52.51451
G1 X8.615 Y-68.895 E52.52888
G1 X8.953 Y-68.825 E52.5456
G1 X20.953 Y-68.825 E53.12696
G0 F900 X21.753 Y-69.625
G1 F1200 X8.953 Y-69.625 E53.74708
G1 X8.834 Y-69.664 E53.75314
G1 X8.753 Y-69.825 E53.76188
G1 X8.753 Y-74.325 E53.97989
G1 X8.792 Y-74.444 E53.98595
G1 X8.953 Y-74.525 E53.99468
G1 X22.953 Y-74.525 E54.67294
G1 X23.072 Y-74.486 E54.679
G1 X23.153 Y-74.325 E54.68774
G1 X23.153 Y-41.825 E56.26225
G1 X23.114 Y-41.706 E56.26832
G1 X22.953 Y-41.625 E56.27705
G1 X8.953 Y-41.625 E56.95531
G1 X8.834 Y-41.664 E56.96137
G1 X8.753 Y-41.825 E56.9701
G1 X8.753 Y-46.325 E57.18811
G1 X8.792 Y-46.444 E57.19418
G1 X8.953 Y-46.525 E57.20291
G1 X21.753 Y-46.525 E57.82303
G1 X21.753 Y-69.625 E58.94215
G0 F900 X21.353 Y-69.225
G1 F1200 X8.953 Y-69.225 E59.54289
G1 X8.709 Y-69.284 E59.55505
G1 X8.557 Y-69.375 E59.56363
G1 X8.396 Y-69.645 E59.57886
G1 X8.353 Y-69.825 E59.58783
G1 X8.353 Y-74.325 E59.80584
G1 X8.412 Y-74.569 E59.818
G1 X8.503 Y-74.721 E59.82658
G1 X8.773 Y-74.882 E59.84181
G1 X8.953 Y-74.925 E59.85078
G1 X22.953 Y-74.925 E60.52903
G1 X23.197 Y-74.866 E60.54119
G1 X23.349 Y-74.775 E60.54977
G1 X23.51 Y-74.505 E60.565
G1 X23.553 Y-74.325 E60.57397
G1 X23.553 Y-41.825 E62.14849
G1 X23.494 Y-41.581 E62.16065
G1 X23.403 Y-41.429 E62.16923
G1 X23.133 Y-41.268 E62.18446
G1 X22.953 Y-41.225 E62.19343
G1 X8.953 Y-41.225 E62.87168
G1 X8.709 Y-41.284 E62.88384
G1 X8.557 Y-41.375 E62.89243
G1 X8.396 Y-41.645 E62.90766
G1 X8.353 Y-41.825 E62.91662
G1 X8.353 Y-46.325 E63.13463
G1 X8.412 Y-46.569 E63.14679
G1 X8.503 Y-46.721 E63.15538
G1 X8.773 Y-46.882 E63.1706
G1 X8.953 Y-46.925 E63.17957
G1 X21.353 Y-46.925 E63.78031
G1 X21.353 Y-69.225 E64.86067
G1 F1500 E56.86067
G0 F900 X21.3 Y-69.172
G0 X13.756 Y-51.455
G1 F3600 E65.5756
G1 F1200 X10.823 Y-52.312 E65.72363
G1 X8.495 Y-54.64 E65.88313
G1 X7.638 Y-57.572 E66.03112
G1 X8.494 Y-60.504 E66.1791
G1 X10.701 Y-62.834 E66.33458
G1 X13.755 Y-63.69 E66.48824
G1 X16.809 Y-62.834 E66.64189
G1 X18.553 Y-60.993 E66.76475
G1 X18.553 Y-54.052 E67.10102
G1 X16.811 Y-52.31 E67.22037
G1 X13.756 Y-51.455 E67.37406
G0 F900 X13.759 Y-51.871
G1 F1200 X11.034 Y-52.667 E67.5116
G1 X8.85 Y-54.851 E67.66123
G1 X8.055 Y-57.572 E67.79857
G1 X8.851 Y-60.299 E67.93619
G1 X10.916 Y-62.479 E68.08167
G1 X13.755 Y-63.275 E68.22451
G1 X16.594 Y-62.479 E68.36736
