;FLAVOR:Marlin
;TIME:5340
;Filament used: 6.98808m
;Layer height: 0.24
;MINX:-34.499
;MINY:-82.882
;MINZ:0.24
;MAXX:44.5
;MAXY:-12.508
;MAXZ:13.44
;TARGET_MACHINE.NAME:Unknown
;Generated with Cura_SteamEngine 5.9.0
M140 S60
M105
M190 S60
M104 S230
M105
M109 S230
M82 ;absolute extrusion mode
;FLAVOR:Marlin
M82 ;absolute extrusion mode
G21
G90
M82
M107 T0
G28
G92 E0
G0 E3 F200
G92 E0 ; reset extrusion distance
M106 S255 ; Enable cooling fan full speed
G1 X-98 Y0 Z0.4 F3000 ; move to arc start
G3 X0 Y-98 I98 Z0.4 E40 F400 ; lay arc stripe 90deg
G92 E0 ; reset extrusion distance
G4 P500 ; wait for 0.5 sec
G0 Z10 E-1 ; Lift 15mm and retract 1mm filament
G4 P2000 ; wait for 5 sec
G0 Z15
M107 ; Disable cooling fan
G1 X0 Y-85 Z4 E0 F3000 ; get off the bed
G92 E0
G92 E0
G1 F1500 E-8
;LAYER_COUNT:56
;LAYER:0
M106 S102
G0 F900 X11.629 Y-14 Z0.24
;TYPE:SKIRT
G1 F3600 E0.71493
G1 F1200 X9.109 Y-14.324 E0.83802
G1 X6.77 Y-14.604 E0.95214
G1 X4.504 Y-14.856 E1.0626
G1 X1.356 Y-15.176 E1.21589
G1 X-1.466 Y-15.421 E1.35313
G1 X-4.175 Y-15.625 E1.48474
G1 X-6.716 Y-15.792 E1.60811
G1 X-11.678 Y-16.078 E1.8489
G1 X-14.145 Y-16.243 E1.96868
G1 X-15.327 Y-16.346 E2.02617
G1 X-16.519 Y-16.467 E2.08421
G1 X-17.694 Y-16.607 E2.14154
G1 X-19.046 Y-16.796 E2.20767
G1 X-20.045 Y-17.203 E2.25994
G1 X-21.33 Y-18.316 E2.34229
G1 X-22.286 Y-19.199 E2.40534
G1 X-23.203 Y-20.105 E2.46779
G1 X-24.076 Y-21.021 E2.5291
G1 X-24.959 Y-22.019 E2.59366
G1 X-25.793 Y-23.018 E2.6567
G1 X-26.59 Y-24.046 E2.71972
G1 X-27.348 Y-25.095 E2.78242
G1 X-28.073 Y-26.164 E2.845
G1 X-28.765 Y-27.261 E2.90783
G1 X-29.425 Y-28.386 E2.97102
G1 X-30.036 Y-29.517 E3.0333
G1 X-30.617 Y-30.683 E3.09641
G1 X-31.163 Y-31.866 E3.15954
G1 X-31.666 Y-33.063 E3.22244
G1 X-32.126 Y-34.276 E3.28529
G1 X-32.548 Y-35.501 E3.34806
G1 X-32.933 Y-36.744 E3.4111
G1 X-33.272 Y-37.991 E3.47371
G1 X-33.572 Y-39.253 E3.53655
G1 X-33.829 Y-40.524 E3.59937
G1 X-34.046 Y-41.804 E3.66227
G1 X-34.223 Y-43.089 E3.72511
G1 X-34.355 Y-44.381 E3.78803
G1 X-34.446 Y-45.674 E3.85082
G1 X-34.492 Y-46.967 E3.91351
G1 X-34.499 Y-48.225 E3.97445
G1 X-34.457 Y-49.572 E4.03974
G1 X-34.376 Y-50.861 E4.10231
G1 X-34.257 Y-52.146 E4.16483
G1 X-34.089 Y-53.437 E4.22791
G1 X-33.883 Y-54.722 E4.29095
G1 X-33.633 Y-55.992 E4.35366
G1 X-33.341 Y-57.263 E4.41684
G1 X-33.007 Y-58.514 E4.47957
G1 X-32.633 Y-59.753 E4.54227
G1 X-32.221 Y-60.979 E4.60493
G1 X-31.771 Y-62.189 E4.66748
G1 X-31.271 Y-63.401 E4.73099
G1 X-30.737 Y-64.582 E4.79379
G1 X-30.165 Y-65.748 E4.85671
G1 X-29.558 Y-66.894 E4.91953
G1 X-28.931 Y-67.983 E4.98041
G1 X-28.227 Y-69.122 E5.04528
G1 X-27.508 Y-70.198 E5.10798
G1 X-26.753 Y-71.254 E5.17087
G1 X-25.974 Y-72.271 E5.23293
G1 X-25.142 Y-73.286 E5.29651
G1 X-24.293 Y-74.259 E5.35907
G1 X-23.411 Y-75.204 E5.4217
G1 X-22.486 Y-76.128 E5.48504
G1 X-21.568 Y-76.99 E5.54605
G1 X-20.506 Y-77.923 E5.61453
G1 X-19.545 Y-78.451 E5.66765
G1 X-17.774 Y-78.742 E5.7546
G1 X-16.398 Y-78.932 E5.8219
G1 X-15.013 Y-79.091 E5.88944
G1 X-13.62 Y-79.224 E5.95723
G1 X-12.22 Y-79.332 E6.02526
G1 X-10.805 Y-79.425 E6.09396
G1 X-4.249 Y-79.811 E6.41213
G1 X-1.668 Y-79.994 E6.53748
G1 X1.783 Y-80.276 E6.70523
G1 X3.472 Y-80.44 E6.78744
G1 X7.705 Y-80.89 E6.99367
G1 X9.956 Y-81.16 E7.1035
G1 X12.372 Y-81.467 E7.22149
G1 X14.877 Y-81.808 E7.34397
G1 X17.566 Y-82.191 E7.47556
G1 X22.09 Y-82.882 E7.69727
G1 X22.896 Y-82.826 E7.73642
G1 X23.693 Y-82.551 E7.77726
G1 X24.927 Y-81.862 E7.84573
G1 X26.03 Y-81.195 E7.90818
G1 X27.084 Y-80.511 E7.96905
G1 X28.17 Y-79.745 E8.03344
G1 X29.21 Y-78.968 E8.09633
G1 X30.217 Y-78.163 E8.15879
G1 X31.2 Y-77.319 E8.22156
G1 X32.157 Y-76.443 E8.28441
G1 X33.072 Y-75.545 E8.34652
G1 X33.946 Y-74.638 E8.40754
G1 X34.833 Y-73.643 E8.47212
G1 X35.661 Y-72.656 E8.53454
G1 X36.461 Y-71.64 E8.59718
G1 X37.229 Y-70.595 E8.66001
G1 X37.958 Y-69.528 E8.72262
G1 X38.653 Y-68.438 E8.78525
G1 X39.308 Y-67.329 E8.84765
G1 X39.937 Y-66.189 E8.91072
G1 X40.515 Y-65.045 E8.97282
G1 X41.067 Y-63.868 E9.0358
G1 X41.57 Y-62.692 E9.09777
G1 X42.041 Y-61.475 E9.16099
G1 X42.468 Y-60.259 E9.22343
G1 X42.86 Y-59.021 E9.28634
G1 X43.212 Y-57.769 E9.34934
G1 X43.511 Y-56.526 E9.41128
G1 X43.782 Y-55.256 E9.47419
G1 X44.006 Y-53.985 E9.53672
G1 X44.192 Y-52.698 E9.59972
G1 X44.33 Y-51.419 E9.66204
G1 X44.431 Y-50.125 E9.72492
G1 X44.486 Y-48.799 E9.78922
G1 X44.5 Y-47.54 E9.85021
G1 X44.468 Y-46.265 E9.912
G1 X44.402 Y-44.968 E9.97492
G1 X44.29 Y-43.683 E10.03741
G1 X44.131 Y-42.398 E10.10014
G1 X43.936 Y-41.126 E10.16248
G1 X43.705 Y-39.857 E10.22497
G1 X43.433 Y-38.631 E10.28581
G1 X43.098 Y-37.335 E10.35066
G1 X42.739 Y-36.102 E10.41288
G1 X42.335 Y-34.863 E10.47601
G1 X41.891 Y-33.646 E10.53877
G1 X41.409 Y-32.446 E10.60143
G1 X40.892 Y-31.266 E10.66384
G1 X40.332 Y-30.099 E10.72655
G1 X39.747 Y-28.974 E10.78798
G1 X39.099 Y-27.826 E10.85184
G1 X38.433 Y-26.723 E10.91427
G1 X37.747 Y-25.667 E10.97527
G1 X36.983 Y-24.584 E11.03948
G1 X36.206 Y-23.544 E11.10238
G1 X35.397 Y-22.533 E11.16511
G1 X34.554 Y-21.553 E11.22773
G1 X33.679 Y-20.598 E11.29048
G1 X32.778 Y-19.681 E11.35277
G1 X31.843 Y-18.78 E11.41567
G1 X30.882 Y-17.921 E11.47812
G1 X29.887 Y-17.085 E11.54108
G1 X28.874 Y-16.293 E11.60337
G1 X27.829 Y-15.525 E11.6662
G1 X26.762 Y-14.796 E11.72881
G1 X25.671 Y-14.101 E11.79148
G1 X24.562 Y-13.446 E11.85388
G1 X23.372 Y-12.79 E11.91971
G1 X22.55 Y-12.526 E11.96153
G1 X21.801 Y-12.508 E11.99783
G1 X17.074 Y-13.232 E12.22951
G1 X14.252 Y-13.641 E12.36765
G1 X11.629 Y-14 E12.49591
G0 F900 X11.68 Y-14.397
G1 F1200 X9.16 Y-14.721 E12.619
G1 X6.814 Y-15.002 E12.73347
G1 X4.548 Y-15.254 E12.84393
G1 X1.391 Y-15.575 E12.99766
G1 X-1.431 Y-15.82 E13.1349
G1 X-4.145 Y-16.024 E13.26675
G1 X-6.69 Y-16.191 E13.39031
G1 X-11.651 Y-16.477 E13.63106
G1 X-14.11 Y-16.642 E13.75045
G1 X-15.287 Y-16.744 E13.80769
G1 X-16.472 Y-16.864 E13.86539
G1 X-17.639 Y-17.003 E13.92233
G1 X-18.942 Y-17.185 E13.98607
G1 X-19.833 Y-17.548 E14.03268
G1 X-21.059 Y-18.61 E14.11126
G1 X-22.005 Y-19.484 E14.17366
G1 X-22.913 Y-20.381 E14.23549
G1 X-23.786 Y-21.297 E14.29679
G1 X-24.652 Y-22.275 E14.36008
G1 X-25.477 Y-23.263 E14.42244
G1 X-26.266 Y-24.28 E14.4848
G1 X-27.017 Y-25.319 E14.54691
G1 X-27.735 Y-26.378 E14.60889
G1 X-28.42 Y-27.463 E14.67106
G1 X-29.073 Y-28.576 E14.73357
G1 X-29.678 Y-29.695 E14.7952
G1 X-30.254 Y-30.851 E14.85777
G1 X-30.794 Y-32.021 E14.9202
G1 X-31.292 Y-33.205 E14.98243
G1 X-31.748 Y-34.406 E15.04467
G1 X-32.166 Y-35.619 E15.10682
G1 X-32.547 Y-36.849 E15.16921
G1 X-32.883 Y-38.084 E15.23121
G1 X-33.18 Y-39.332 E15.29336
G1 X-33.435 Y-40.591 E15.3556
G1 X-33.65 Y-41.859 E15.4179
G1 X-33.825 Y-43.13 E15.48006
G1 X-33.956 Y-44.409 E15.54235
G1 X-34.046 Y-45.688 E15.60446
G1 X-34.092 Y-46.969 E15.66656
G1 X-34.099 Y-48.213 E15.72683
G1 X-34.058 Y-49.547 E15.79149
G1 X-33.978 Y-50.824 E15.85348
G1 X-33.86 Y-52.095 E15.91532
G1 X-33.694 Y-53.374 E15.9778
G1 X-33.49 Y-54.645 E16.04017
G1 X-33.243 Y-55.903 E16.10228
G1 X-32.955 Y-57.16 E16.16475
G1 X-32.624 Y-58.399 E16.22688
G1 X-32.254 Y-59.626 E16.28897
G1 X-31.846 Y-60.84 E16.35102
G1 X-31.401 Y-62.037 E16.41289
G1 X-30.907 Y-63.236 E16.47571
G1 X-30.378 Y-64.406 E16.53792
G1 X-29.812 Y-65.561 E16.60023
G1 X-29.211 Y-66.694 E16.66236
G1 X-28.584 Y-67.783 E16.72324
G1 X-27.894 Y-68.9 E16.78685
G1 X-27.183 Y-69.965 E16.84889
G1 X-26.435 Y-71.011 E16.91119
G1 X-25.656 Y-72.028 E16.97325
G1 X-24.841 Y-73.023 E17.03556
G1 X-24 Y-73.986 E17.0975
G1 X-23.128 Y-74.921 E17.15944
G1 X-22.212 Y-75.836 E17.22217
G1 X-21.294 Y-76.698 E17.28317
G1 X-20.278 Y-77.591 E17.34871
G1 X-19.412 Y-78.067 E17.39658
G1 X-17.719 Y-78.346 E17.47971
G1 X-16.352 Y-78.535 E17.54656
G1 X-14.975 Y-78.693 E17.61371
G1 X-13.589 Y-78.825 E17.68116
G1 X-12.194 Y-78.933 E17.74895
G1 X-10.782 Y-79.026 E17.8175
G1 X-4.221 Y-79.412 E18.13591
G1 X-1.635 Y-79.595 E18.26151
G1 X1.816 Y-79.878 E18.42926
G1 X3.513 Y-80.042 E18.51186
G1 X5.561 Y-80.254 E18.61161
G1 X7.748 Y-80.493 E18.71819
G1 X10.006 Y-80.763 E18.82836
G1 X12.422 Y-81.07 E18.94635
G1 X14.933 Y-81.412 E19.06912
G1 X17.622 Y-81.795 E19.20071
G1 X22.105 Y-82.48 E19.42042
G1 X22.815 Y-82.431 E19.4549
G1 X23.562 Y-82.173 E19.49318
G1 X24.72 Y-81.52 E19.55759
G1 X25.812 Y-80.859 E19.61943
G1 X26.866 Y-80.175 E19.6803
G1 X27.931 Y-79.425 E19.74341
G1 X28.96 Y-78.656 E19.80564
G1 X29.957 Y-77.859 E19.86748
G1 X30.93 Y-77.024 E19.9296
G1 X31.877 Y-76.157 E19.9918
G1 X32.784 Y-75.267 E20.05336
G1 X33.658 Y-74.36 E20.11439
G1 X34.527 Y-73.386 E20.17762
G1 X35.347 Y-72.409 E20.23942
G1 X36.139 Y-71.403 E20.30145
G1 X36.899 Y-70.369 E20.36362
G1 X37.621 Y-69.313 E20.42559
G1 X38.309 Y-68.235 E20.48755
G1 X38.958 Y-67.136 E20.54938
G1 X39.58 Y-66.009 E20.61174
G1 X40.153 Y-64.875 E20.6733
G1 X40.699 Y-63.711 E20.73559
G1 X41.197 Y-62.547 E20.79692
G1 X41.664 Y-61.342 E20.85953
G1 X42.087 Y-60.138 E20.92136
G1 X42.475 Y-58.913 E20.98361
G1 X42.823 Y-57.675 E21.04591
G1 X43.12 Y-56.443 E21.10731
G1 X43.388 Y-55.187 E21.16952
G1 X43.61 Y-53.928 E21.23146
G1 X43.794 Y-52.655 E21.29377
G1 X43.931 Y-51.388 E21.35551
G1 X44.031 Y-50.108 E21.41771
G1 X44.086 Y-48.794 E21.48143
G1 X44.1 Y-47.55 E21.5417
G1 X44.069 Y-46.285 E21.603
G1 X44.004 Y-45.003 E21.66519
G1 X43.893 Y-43.732 E21.727
G1 X43.736 Y-42.459 E21.78914
G1 X43.543 Y-41.198 E21.85095
G1 X43.314 Y-39.944 E21.9127
G1 X43.042 Y-38.718 E21.97354
G1 X42.714 Y-37.447 E22.03713
G1 X42.359 Y-36.226 E22.09874
G1 X41.959 Y-35 E22.16121
G1 X41.52 Y-33.795 E22.22335
G1 X41.043 Y-32.607 E22.28537
G1 X40.531 Y-31.439 E22.34715
G1 X39.977 Y-30.284 E22.40921
G1 X39.392 Y-29.159 E22.47064
G1 X38.757 Y-28.033 E22.53327
G1 X38.097 Y-26.941 E22.59508
G1 X37.42 Y-25.898 E22.65533
G1 X36.662 Y-24.823 E22.71905
G1 X35.894 Y-23.794 E22.78126
G1 X35.094 Y-22.794 E22.8433
G1 X34.259 Y-21.823 E22.90534
G1 X33.394 Y-20.878 E22.96741
G1 X32.501 Y-19.969 E23.02914
G1 X31.576 Y-19.078 E23.09136
G1 X30.625 Y-18.227 E23.15319
G1 X29.641 Y-17.4 E23.21546
G1 X28.637 Y-16.615 E23.2772
G1 X27.603 Y-15.855 E23.33937
G1 X26.547 Y-15.133 E23.40135
G1 X25.468 Y-14.445 E23.46334
G1 X24.369 Y-13.796 E23.52518
G1 X23.215 Y-13.16 E23.58901
G1 X22.483 Y-12.925 E23.62626
G1 X21.791 Y-12.908 E23.6598
G1 X17.131 Y-13.628 E23.88824
G1 X14.309 Y-14.037 E24.02638
G1 X11.68 Y-14.397 E24.15494
G0 F900 X11.731 Y-14.794
G1 F1200 X9.211 Y-15.118 E24.27803
G1 X6.858 Y-15.4 E24.39284
G1 X4.592 Y-15.652 E24.50329
G1 X1.431 Y-15.973 E24.65722
G1 X-1.401 Y-16.219 E24.79494
G1 X-4.115 Y-16.423 E24.92679
G1 X-6.664 Y-16.59 E25.05055
G1 X-11.624 Y-16.876 E25.29124
G1 X-14.076 Y-17.041 E25.4103
G1 X-15.247 Y-17.142 E25.46725
G1 X-16.425 Y-17.261 E25.52461
G1 X-17.584 Y-17.399 E25.58115
G1 X-18.838 Y-17.574 E25.64249
G1 X-19.621 Y-17.893 E25.68346
G1 X-20.788 Y-18.904 E25.75826
G1 X-21.724 Y-19.769 E25.82
G1 X-22.623 Y-20.657 E25.88122
G1 X-23.496 Y-21.573 E25.94252
G1 X-24.345 Y-22.531 E26.00454
G1 X-25.161 Y-23.508 E26.06621
G1 X-25.942 Y-24.514 E26.12791
G1 X-26.686 Y-25.543 E26.18943
G1 X-27.397 Y-26.592 E26.25082
G1 X-28.075 Y-27.665 E26.31231
G1 X-28.721 Y-28.766 E26.37416
G1 X-29.32 Y-29.873 E26.43513
G1 X-29.891 Y-31.019 E26.49716
G1 X-30.425 Y-32.176 E26.5589
G1 X-30.918 Y-33.347 E26.62045
G1 X-31.37 Y-34.536 E26.68208
G1 X-31.784 Y-35.737 E26.74362
G1 X-32.161 Y-36.954 E26.80535
G1 X-32.494 Y-38.177 E26.86675
G1 X-32.788 Y-39.412 E26.92826
G1 X-33.041 Y-40.658 E26.98985
G1 X-33.254 Y-41.913 E27.05152
G1 X-33.427 Y-43.171 E27.11304
G1 X-33.557 Y-44.437 E27.1747
G1 X-33.646 Y-45.703 E27.23618
G1 X-33.692 Y-46.971 E27.29765
G1 X-33.699 Y-48.201 E27.35725
G1 X-33.659 Y-49.522 E27.42127
G1 X-33.58 Y-50.787 E27.48268
G1 X-33.463 Y-52.044 E27.54384
G1 X-33.299 Y-53.311 E27.60573
G1 X-33.098 Y-54.568 E27.6674
G1 X-32.853 Y-55.814 E27.72892
G1 X-32.568 Y-57.057 E27.79071
G1 X-32.241 Y-58.284 E27.85222
G1 X-31.875 Y-59.499 E27.9137
G1 X-31.471 Y-60.701 E27.97513
G1 X-31.031 Y-61.885 E28.03633
G1 X-30.542 Y-63.071 E28.09848
G1 X-30.019 Y-64.23 E28.16008
G1 X-29.459 Y-65.373 E28.22174
G1 X-28.864 Y-66.494 E28.28323
G1 X-28.237 Y-67.583 E28.34411
G1 X-27.561 Y-68.678 E28.40645
G1 X-26.858 Y-69.732 E28.46783
G1 X-26.117 Y-70.768 E28.52954
G1 X-25.346 Y-71.775 E28.59098
G1 X-24.54 Y-72.76 E28.65264
G1 X-23.708 Y-73.713 E28.71393
G1 X-22.845 Y-74.638 E28.77522
G1 X-21.938 Y-75.544 E28.83732
G1 X-21.03 Y-76.397 E28.89768
G1 X-20.044 Y-77.263 E28.96126
G1 X-19.281 Y-77.683 E29.00345
G1 X-17.664 Y-77.95 E29.08285
G1 X-16.306 Y-78.138 E29.14927
G1 X-14.937 Y-78.295 E29.21603
G1 X-13.558 Y-78.426 E29.28314
G1 X-12.168 Y-78.534 E29.35068
G1 X-10.759 Y-78.627 E29.41909
G1 X-4.193 Y-79.013 E29.73774
G1 X-1.602 Y-79.196 E29.86358
G1 X1.849 Y-79.479 E30.03133
G1 X3.554 Y-79.644 E30.11432
G1 X5.604 Y-79.856 E30.21416
G1 X7.791 Y-80.095 E30.32075
G1 X10.056 Y-80.366 E30.43126
G1 X12.472 Y-80.673 E30.54925
G1 X14.989 Y-81.016 E30.67232
G1 X17.678 Y-81.399 E30.8039
G1 X22.12 Y-82.078 E31.0216
G1 X22.735 Y-82.036 E31.05147
G1 X23.366 Y-81.824 E31.08372
G1 X24.513 Y-81.178 E31.14749
G1 X25.594 Y-80.523 E31.20873
G1 X26.648 Y-79.839 E31.2696
G1 X27.692 Y-79.104 E31.33146
G1 X28.71 Y-78.344 E31.393
G1 X29.697 Y-77.555 E31.45422
G1 X30.66 Y-76.729 E31.51569
G1 X31.597 Y-75.872 E31.5772
G1 X32.496 Y-74.989 E31.63825
G1 X33.37 Y-74.082 E31.69927
G1 X34.221 Y-73.129 E31.76117
G1 X35.033 Y-72.162 E31.82235
G1 X35.817 Y-71.166 E31.88375
G1 X36.569 Y-70.143 E31.94527
G1 X37.284 Y-69.098 E32.00661
G1 X37.965 Y-68.031 E32.06793
G1 X38.608 Y-66.943 E32.12916
G1 X39.223 Y-65.829 E32.19081
G1 X39.791 Y-64.705 E32.25182
G1 X40.331 Y-63.554 E32.31341
G1 X40.824 Y-62.402 E32.37412
G1 X41.287 Y-61.209 E32.43612
G1 X41.706 Y-60.017 E32.49733
G1 X42.09 Y-58.805 E32.55892
G1 X42.434 Y-57.581 E32.62052
G1 X42.729 Y-56.359 E32.68142
G1 X42.994 Y-55.118 E32.7429
G1 X43.214 Y-53.871 E32.80424
G1 X43.396 Y-52.612 E32.86587
G1 X43.532 Y-51.357 E32.92703
G1 X43.631 Y-50.091 E32.98855
G1 X43.686 Y-48.789 E33.05168
G1 X43.7 Y-47.56 E33.11123
G1 X43.67 Y-46.305 E33.17205
G1 X43.605 Y-45.038 E33.23351
G1 X43.496 Y-43.781 E33.29464
G1 X43.341 Y-42.519 E33.35624
G1 X43.15 Y-41.27 E33.41745
G1 X42.923 Y-40.031 E33.47847
G1 X42.651 Y-38.805 E33.53931
G1 X42.33 Y-37.559 E33.60165
G1 X41.979 Y-36.35 E33.66264
G1 X41.583 Y-35.137 E33.72446
G1 X41.149 Y-33.944 E33.78596
G1 X40.677 Y-32.768 E33.84735
G1 X40.17 Y-31.612 E33.9085
G1 X39.622 Y-30.469 E33.96991
G1 X39.037 Y-29.344 E34.03135
G1 X38.415 Y-28.24 E34.09274
G1 X37.761 Y-27.159 E34.15394
G1 X37.084 Y-26.116 E34.21419
G1 X36.341 Y-25.062 E34.27666
G1 X35.581 Y-24.044 E34.33821
G1 X34.791 Y-23.055 E34.39953
G1 X33.964 Y-22.093 E34.46099
G1 X33.109 Y-21.158 E34.52237
G1 X32.224 Y-20.257 E34.58356
G1 X31.309 Y-19.376 E34.64509
G1 X30.368 Y-18.533 E34.7063
G1 X29.395 Y-17.715 E34.76788
G1 X28.4 Y-16.937 E34.82908
G1 X27.377 Y-16.185 E34.89059
G1 X26.332 Y-15.47 E34.95193
G1 X25.264 Y-14.789 E35.01329
G1 X24.176 Y-14.146 E35.07452
G1 X23.058 Y-13.53 E35.13636
G1 X22.416 Y-13.324 E35.16903
G1 X21.814 Y-13.309 E35.1982
G1 X17.188 Y-14.024 E35.42498
G1 X14.366 Y-14.433 E35.56312
G1 X11.731 Y-14.794 E35.69197
G0 F900 X11.782 Y-15.191
G1 F1200 X9.262 Y-15.515 E35.81506
G1 X6.902 Y-15.798 E35.93021
G1 X4.636 Y-16.05 E36.04067
G1 X1.471 Y-16.371 E36.19479
G1 X-1.371 Y-16.618 E36.333
G1 X-4.085 Y-16.822 E36.46485
G1 X-6.638 Y-16.989 E36.5888
G1 X-11.597 Y-17.275 E36.82945
G1 X-14.042 Y-17.44 E36.94817
G1 X-15.207 Y-17.54 E37.00482
G1 X-16.378 Y-17.658 E37.06183
G1 X-17.529 Y-17.795 E37.11799
