;FLAVOR:Marlin
;TIME:884
;Filament used: 0.923847m
;Layer height: 0.24
;MINX:-42.65
;MINY:-59.35
;MINZ:0.24
;MAXX:52.65
;MAXY:16.9
;MAXZ:9
;TARGET_MACHINE.NAME:Unknown
;Generated with Cura_SteamEngine 5.9.0
M140 S60
M105
M190 S60
M104 S230
M105
M109 S230
M82 ;absolute extrusion mode
;FLAVOR:Marlin
M82 ;absolute extrusion mode
G21
G90
M82
M107 T0
G28
G92 E0
G0 E3 F200
G92 E0 ; reset extrusion distance
M106 S255 ; Enable cooling fan full speed
G1 X-98 Y0 Z0.4 F3000 ; move to arc start
G3 X0 Y-98 I98 Z0.4 E40 F400 ; lay arc stripe 90deg
G92 E0 ; reset extrusion distance
G4 P500 ; wait for 0.5 sec
G0 Z10 E-1 ; Lift 15mm and retract 1mm filament
G4 P2000 ; wait for 5 sec
G0 Z15
M107 ; Disable cooling fan
G1 X0 Y-85 Z4 E0 F3000 ; get off the bed
G92 E0
G92 E0
G1 F1500 E-8
;LAYER_COUNT:17
;LAYER:0
M106 S102
G0 F900 X9.737 Y-48.968 Z0.24
;TYPE:SKIRT
G1 F3600 E0.71493
G1 F1200 X8.958 Y-48.854 E0.75307
G1 X-11.023 Y-48.85 E1.72108
G1 X-11.915 Y-49.033 E1.76519
G1 X-12.72 Y-49.457 E1.80927
G1 X-13.266 Y-50.05 E1.84833
G1 X-14.024 Y-50.05 E1.88505
G1 X-14.915 Y-50.233 E1.92911
G1 X-15.672 Y-50.632 E1.97057
G1 X-15.894 Y-50.804 E1.98418
G1 X-16.391 Y-51.423 E2.02264
G1 X-16.793 Y-52.245 E2.06697
G1 X-16.9 Y-53.123 E2.10982
G1 X-16.868 Y-53.93 E2.14894
G1 X-16.737 Y-54.799 E2.19152
G1 X-16.234 Y-56.141 E2.26095
G1 X-15.39 Y-57.36 E2.33278
G1 X-14.289 Y-58.32 E2.40355
G1 X-13.286 Y-58.844 E2.45837
G1 X-12.259 Y-59.21 E2.51119
G1 X-11.057 Y-59.343 E2.56978
G1 X14.023 Y-59.35 E3.78483
G1 X14.913 Y-59.168 E3.82884
G1 X15.668 Y-58.77 E3.87018
G1 X15.888 Y-58.601 E3.88362
G1 X16.386 Y-57.983 E3.92208
G1 X16.782 Y-57.187 E3.96515
G1 X16.896 Y-56.408 E4.00329
G1 X16.9 Y-54.227 E4.10895
G1 X16.718 Y-53.337 E4.15296
G1 X16.32 Y-52.582 E4.19431
G1 X16.151 Y-52.362 E4.20775
G1 X15.533 Y-51.864 E4.2462
G1 X14.737 Y-51.468 E4.28927
G1 X13.958 Y-51.354 E4.32742
G1 X11.819 Y-51.35 E4.43104
G1 X11.691 Y-50.787 E4.45901
G1 X11.32 Y-50.082 E4.49761
G1 X11.151 Y-49.862 E4.51105
G1 X10.533 Y-49.364 E4.5495
G1 X9.737 Y-48.968 E4.59257
G0 F900 X9.617 Y-49.355
G1 F1200 X8.9 Y-49.25 E4.62768
G1 X-10.982 Y-49.25 E5.5909
G1 X-11.778 Y-49.413 E5.63026
G1 X-12.472 Y-49.779 E5.66827
G1 X-12.942 Y-50.283 E5.70166
G1 X-13.048 Y-50.45 E5.71124
G1 X-13.982 Y-50.45 E5.75649
G1 X-14.78 Y-50.614 E5.79596
G1 X-15.486 Y-50.986 E5.83462
G1 X-15.611 Y-51.09 E5.8425
G1 X-16.051 Y-51.639 E5.87658
G1 X-16.404 Y-52.359 E5.91543
G1 X-16.5 Y-53.108 E5.95201
G1 X-16.472 Y-53.871 E5.989
G1 X-16.348 Y-54.697 E6.02947
G1 X-15.876 Y-55.955 E6.09456
G1 X-15.088 Y-57.093 E6.16162
G1 X-14.063 Y-57.987 E6.22752
G1 X-13.152 Y-58.467 E6.2774
G1 X-12.17 Y-58.817 E6.32791
G1 X-11.013 Y-58.945 E6.3843
G1 X13.982 Y-58.95 E7.59523
G1 X14.778 Y-58.787 E7.63459
G1 X15.482 Y-58.416 E7.67314
G1 X15.607 Y-58.313 E7.68099
G1 X16.047 Y-57.767 E7.71496
G1 X16.395 Y-57.067 E7.75284
G1 X16.5 Y-56.35 E7.78794
G1 X16.5 Y-54.268 E7.88881
G1 X16.337 Y-53.472 E7.92817
G1 X15.966 Y-52.768 E7.96673
G1 X15.863 Y-52.643 E7.97457
G1 X15.317 Y-52.203 E8.00854
G1 X14.617 Y-51.855 E8.04642
G1 X13.9 Y-51.75 E8.08152
G1 X11.491 Y-51.75 E8.19823
G1 X11.337 Y-50.973 E8.23661
G1 X10.966 Y-50.268 E8.2752
G1 X10.863 Y-50.143 E8.28305
G1 X10.317 Y-49.703 E8.31702
G1 X9.617 Y-49.355 E8.35489
G0 F900 X9.495 Y-49.741
G1 F1200 X8.9 Y-49.65 E8.38405
G1 X-10.941 Y-49.65 E9.34529
G1 X-11.643 Y-49.794 E9.38
G1 X-12.224 Y-50.1 E9.41182
G1 X-12.649 Y-50.556 E9.44201
G1 X-12.813 Y-50.85 E9.45832
G1 X-13.941 Y-50.85 E9.51297
G1 X-14.643 Y-50.994 E9.54769
G1 X-15.299 Y-51.34 E9.58362
G1 X-15.711 Y-51.855 E9.61557
G1 X-16.016 Y-52.476 E9.64909
G1 X-16.1 Y-53.095 E9.67935
G1 X-16.076 Y-53.812 E9.71411
G1 X-15.958 Y-54.599 E9.75266
G1 X-15.52 Y-55.766 E9.81305
G1 X-14.786 Y-56.826 E9.87551
G1 X-13.836 Y-57.655 E9.9366
G1 X-12.966 Y-58.113 E9.98423
G1 X-12.079 Y-58.425 E10.02978
G1 X-11.013 Y-58.545 E10.08175
G1 X13.941 Y-58.55 E11.29069
G1 X14.643 Y-58.406 E11.32541
G1 X15.296 Y-58.062 E11.36117
G1 X15.708 Y-57.551 E11.39297
G1 X16.009 Y-56.945 E11.42575
G1 X16.1 Y-56.35 E11.45491
G1 X16.1 Y-54.309 E11.55379
G1 X15.956 Y-53.607 E11.58851
G1 X15.612 Y-52.954 E11.62426
G1 X15.101 Y-52.542 E11.65607
G1 X14.495 Y-52.241 E11.68885
G1 X13.9 Y-52.15 E11.71801
G1 X11.1 Y-52.15 E11.85366
G1 X11.092 Y-51.77 E11.87207
G1 X10.956 Y-51.107 E11.90486
G1 X10.612 Y-50.454 E11.94062
G1 X10.101 Y-50.042 E11.97242
G1 X9.495 Y-49.741 E12.0052
G0 F900 X9.374 Y-50.127
G1 F1200 X9.923 Y-50.4 E12.0349
G1 X10.295 Y-50.712 E12.05842
G1 X10.576 Y-51.244 E12.08757
G1 X10.7 Y-51.85 E12.11754
G1 X10.7 Y-52.55 E12.15145
G1 X13.9 Y-52.55 E12.30648
G1 X14.374 Y-52.627 E12.32975
G1 X14.923 Y-52.9 E12.35945
G1 X15.295 Y-53.212 E12.38297
G1 X15.576 Y-53.744 E12.41212
G1 X15.7 Y-54.35 E12.44209
G1 X15.7 Y-56.35 E12.53898
G1 X15.623 Y-56.824 E12.56225
G1 X15.35 Y-57.373 E12.59195
G1 X15.038 Y-57.745 E12.61547
G1 X14.506 Y-58.026 E12.64462
G1 X13.9 Y-58.15 E12.67459
G1 X-10.968 Y-58.147 E13.87936
G1 X-11.992 Y-58.032 E13.92928
G1 X-12.833 Y-57.736 E13.97247
G1 X-13.609 Y-57.322 E14.01508
G1 X-14.484 Y-56.559 E14.07133
G1 X-15.164 Y-55.577 E14.1292
G1 X-15.568 Y-54.501 E14.18488
G1 X-15.68 Y-53.753 E14.22152
G1 X-15.7 Y-53.083 E14.25399
G1 X-15.628 Y-52.593 E14.27799
G1 X-15.352 Y-52.031 E14.30832
G1 X-15.04 Y-51.656 E14.33195
G1 X-14.506 Y-51.374 E14.36121
G1 X-13.9 Y-51.25 E14.39118
G1 X-12.57 Y-51.25 E14.45561
G1 X-12.344 Y-50.815 E14.47936
G1 X-12.037 Y-50.454 E14.50232
G1 X-11.506 Y-50.174 E14.5314
G1 X-10.9 Y-50.05 E14.56137
G1 X8.9 Y-50.05 E15.52061
G1 X9.374 Y-50.127 E15.54388
G0 F900 X9.251 Y-50.512
G1 F1200 X8.9 Y-50.45 E15.56115
G1 X-10.9 Y-50.45 E16.52039
G1 X-11.319 Y-50.528 E16.54104
G1 X-11.783 Y-50.773 E16.56646
G1 X-11.992 Y-51.005 E16.58159
G1 X-12.198 Y-51.387 E16.60261
G1 X-12.256 Y-51.65 E16.61566
G1 X-13.9 Y-51.65 E16.69531
G1 X-14.319 Y-51.728 E16.71595
G1 X-14.784 Y-51.974 E16.74144
G1 X-14.993 Y-52.207 E16.7566
G1 X-15.241 Y-52.712 E16.78386
G1 X-15.3 Y-53.073 E16.80158
G1 X-15.284 Y-53.694 E16.83168
G1 X-15.178 Y-54.403 E16.86641
G1 X-14.808 Y-55.388 E16.91738
G1 X-14.182 Y-56.292 E16.97065
G1 X-13.382 Y-56.99 E17.02209
G1 X-12.7 Y-57.359 E17.05966
G1 X-11.905 Y-57.639 E17.10049
G1 X-10.923 Y-57.749 E17.14836
G1 X13.9 Y-57.75 E18.35096
G1 X14.319 Y-57.672 E18.3716
G1 X14.783 Y-57.427 E18.39702
G1 X14.992 Y-57.195 E18.41215
G1 X15.238 Y-56.701 E18.43889
G1 X15.3 Y-56.35 E18.45616
G1 X15.3 Y-54.35 E18.55305
G1 X15.222 Y-53.931 E18.5737
G1 X14.977 Y-53.467 E18.59912
G1 X14.745 Y-53.258 E18.61425
G1 X14.251 Y-53.012 E18.64098
G1 X13.9 Y-52.95 E18.65825
G1 X10.3 Y-52.95 E18.83266
G1 X10.3 Y-51.85 E18.88595
G1 X10.222 Y-51.431 E18.9066
G1 X9.977 Y-50.967 E18.93202
G1 X9.745 Y-50.758 E18.94714
G1 X9.251 Y-50.512 E18.97388
G0 F900 X9.173 Y-50.904
G1 F1200 X8.9 Y-50.85 E18.98736
G1 X-10.9 Y-50.85 E19.94661
G1 X-11.238 Y-50.92 E19.96333
G1 X-11.501 Y-51.057 E19.9777
G1 X-11.64 Y-51.195 E19.98719
G1 X-11.846 Y-51.577 E20.00821
G1 X-11.9 Y-52.05 E20.03128
G1 X-13.9 Y-52.05 E20.12817
G1 X-14.238 Y-52.12 E20.14489
G1 X-14.501 Y-52.257 E20.15926
G1 X-14.64 Y-52.396 E20.16878
G1 X-14.848 Y-52.785 E20.19015
G1 X-14.9 Y-53.065 E20.20395
G1 X-14.888 Y-53.635 E20.23157
G1 X-14.788 Y-54.305 E20.26439
G1 X-14.452 Y-55.199 E20.31066
G1 X-13.88 Y-56.025 E20.35933
G1 X-13.154 Y-56.659 E20.40603
G1 X-12.51 Y-57.007 E20.44149
G1 X-11.814 Y-57.247 E20.47716
G1 X-10.923 Y-57.349 E20.52061
G1 X13.9 Y-57.35 E21.7232
G1 X14.238 Y-57.28 E21.73992
G1 X14.501 Y-57.143 E21.75429
G1 X14.64 Y-57.005 E21.76378
G1 X14.846 Y-56.623 E21.7848
G1 X14.9 Y-56.35 E21.79829
G1 X14.9 Y-54.35 E21.89518
G1 X14.83 Y-54.012 E21.9119
G1 X14.693 Y-53.749 E21.92627
G1 X14.555 Y-53.61 E21.93576
G1 X14.173 Y-53.404 E21.95678
G1 X13.9 Y-53.35 E21.97027
G1 X9.9 Y-53.35 E22.16405
G1 X9.9 Y-51.85 E22.23672
G1 X9.83 Y-51.512 E22.25345
G1 X9.693 Y-51.249 E22.26781
G1 X9.555 Y-51.11 E22.2773
G1 X9.173 Y-50.904 E22.29833
G0 F900 X9.1 Y-51.85
G1 F1200 X9.061 Y-51.731 E22.30439
G1 X8.9 Y-51.65 E22.31313
G1 X-10.9 Y-51.65 E23.27237
G1 X-11.019 Y-51.689 E23.27844
G1 X-11.1 Y-51.85 E23.28717
G1 X-11.1 Y-52.85 E23.33562
G1 X-13.9 Y-52.85 E23.47127
G1 X-14.019 Y-52.889 E23.47733
G1 X-14.1 Y-53.052 E23.48615
G1 X-14.093 Y-53.566 E23.51106
G1 X-14.01 Y-54.102 E23.53733
G1 X-13.74 Y-54.821 E23.57454
G1 X-13.276 Y-55.491 E23.61402
G1 X-12.698 Y-55.996 E23.65121
G1 X-12.192 Y-56.276 E23.67922
G1 X-11.636 Y-56.463 E23.70764
G1 X-10.923 Y-56.549 E23.74244
G1 X13.9 Y-56.55 E24.94503
G1 X14.019 Y-56.511 E24.9511
G1 X14.1 Y-56.35 E24.95983
G1 X14.1 Y-54.35 E25.05672
G1 X14.061 Y-54.231 E25.06279
G1 X13.9 Y-54.15 E25.07152
G1 X9.1 Y-54.15 E25.30406
G1 X9.1 Y-51.85 E25.41549
G0 F900 X9.08 Y-51.293
G1 F1200 X9.35 Y-51.454 E25.43072
G1 X9.441 Y-51.606 E25.4393
G1 X9.5 Y-51.85 E25.45146
G1 X9.5 Y-53.75 E25.54351
G1 X13.9 Y-53.75 E25.75668
G1 X14.08 Y-53.793 E25.76564
G1 X14.35 Y-53.954 E25.78087
G1 X14.441 Y-54.106 E25.78946
G1 X14.5 Y-54.35 E25.80162
G1 X14.5 Y-56.35 E25.89851
G1 X14.457 Y-56.53 E25.90748
G1 X14.296 Y-56.8 E25.92271
G1 X14.144 Y-56.891 E25.93129
G1 X13.9 Y-56.95 E25.94345
G1 X-10.923 Y-56.949 E27.14604
G1 X-11.725 Y-56.855 E27.18516
G1 X-12.32 Y-56.655 E27.21557
G1 X-12.926 Y-56.328 E27.24893
G1 X-13.578 Y-55.758 E27.29089
G1 X-14.096 Y-55.01 E27.33497
G1 X-14.399 Y-54.204 E27.37669
G1 X-14.488 Y-53.627 E27.40497
G1 X-14.5 Y-53.057 E27.43259
G1 X-14.458 Y-52.874 E27.44169
G1 X-14.296 Y-52.6 E27.45711
G1 X-14.144 Y-52.509 E27.46569
G1 X-13.9 Y-52.45 E27.47785
G1 X-11.5 Y-52.45 E27.59413
G1 X-11.5 Y-51.85 E27.62319
G1 X-11.457 Y-51.67 E27.63216
G1 X-11.296 Y-51.4 E27.64739
G1 X-11.144 Y-51.309 E27.65597
G1 X-10.9 Y-51.25 E27.66813
G1 X8.9 Y-51.25 E28.62738
G1 X9.08 Y-51.293 E28.63634
G1 F1500 E20.63634
;MESH:K??rper1(3)
G0 F900 X8.476 Y-52.274
G0 X8.462 Y-54.788
G0 X8.726 Y-55.341
;TYPE:WALL-INNER
G1 F3600 E29.35127
G1 F882.4 X8.9 Y-55.348 E29.35987
G1 F900 X12.9 Y-55.348 E29.55366
G0 X8.546 Y-55.204
G0 X-10.323 Y-53.96
G0 X-10.323 Y-53.866
G1 X-10.015 Y-53.515 E29.57628
G1 X-9.9 Y-53.048 E29.59958
G1 X-9.9 Y-52.848 E29.60927
G1 X7.9 Y-52.848 E30.47162
G1 X7.9 Y-54.348 E30.54429
G1 X7.976 Y-54.734 E30.56335
G1 X8.301 Y-55.149 E30.58889
G1 F891.1 X8.744 Y-55.349 E30.61267
G1 X-10.833 Y-55.348 E31.5706
G1 F900 X-11.385 Y-55.283 E31.59753
G1 X-11.721 Y-55.167 E31.61475
G1 X-12.012 Y-55.004 E31.63091
G1 X-12.385 Y-54.672 E31.6551
G1 X-12.662 Y-54.273 E31.67863
G1 X-12.748 Y-54.048 E31.6903
G1 X-10.843 Y-54.046 E31.78259
G0 F810 X-10.756 Y-54.046
G0 X-10.323 Y-53.866
G0 F900 X-10.369 Y-53.328
G1 X-10.3 Y-53.048 E31.79656
G1 X-10.3 Y-52.448 E31.82563
G1 X8.3 Y-52.448 E32.72674
G1 X8.3 Y-54.348 E32.81879
G1 X8.346 Y-54.58 E32.83025
G1 X8.54 Y-54.829 E32.84554
G1 X8.814 Y-54.948 E32.86001
G1 X13.3 Y-54.948 E33.07734
G1 X13.3 Y-55.748 E33.1161
G1 X-10.856 Y-55.748 E34.28638
G1 X-11.474 Y-55.675 E34.31653
G1 X-11.885 Y-55.534 E34.33758
G1 X-12.246 Y-55.332 E34.35762
G1 X-12.687 Y-54.939 E34.38624
G1 X-13.018 Y-54.461 E34.4144
G1 X-13.228 Y-53.913 E34.44283
G1 X-13.268 Y-53.648 E34.45582
G1 X-10.813 Y-53.647 E34.57475
G1 X-10.807 Y-53.645 E34.57506
G0 F810 X-10.554 Y-53.539
G0 X-10.369 Y-53.328
G0 F900 X-10.7 Y-53.125
;TYPE:WALL-OUTER
G1 X-10.7 Y-52.048 E34.62724
G1 X8.7 Y-52.048 E35.5671
G1 X8.7 Y-54.407 E35.68139
G1 X8.78 Y-54.509 E35.68767
G1 X8.865 Y-54.546 E35.69216
G1 X13.7 Y-54.548 E35.9264
G1 X13.7 Y-56.148 E36.00392
G1 X-10.88 Y-56.148 E37.19474
G1 X-11.563 Y-56.067 E37.22806
G1 X-12.049 Y-55.9 E37.25295
G1 X-12.479 Y-55.66 E37.27681
G1 X-12.989 Y-55.206 E37.30989
G1 X-13.374 Y-54.649 E37.34269
G1 X-13.617 Y-54.016 E37.37554
G1 X-13.696 Y-53.248 E37.41294
G1 X-11.216 Y-53.246 E37.53309
G0 F810 X-10.865 Y-53.246
G0 X-10.7 Y-53.125
G0 F900 X-10.7 Y-53.025
G0 X-9.99 Y-53.025
G0 X-10.097 Y-54.177
;TYPE:SKIN
G1 F793 X-10.727 Y-54.46 E37.57107
G1 F784.3 X-11.226 Y-54.448 E37.59882
G1 F807.2 X-12.024 Y-54.45 E37.64192
G1 X-11.785 Y-54.666 E37.65933
G1 X-11.284 Y-54.887 E37.68891
G1 F814.5 X-10.539 Y-54.95 E37.72893
G1 F861.2 X-9.988 Y-54.968 E37.75684
G1 F900 X7.684 Y-54.967 E38.61299
G1 X7.611 Y-54.839 E38.62013
G1 X7.523 Y-54.382 E38.64268
G1 X7.52 Y-53.228 E38.69858
G1 X-9.556 Y-53.228 E39.52586
G1 X-9.679 Y-53.69 E39.54902
G1 F861.2 X-10.097 Y-54.177 E39.58151
G0 F900 X-10.602 Y-54.725
G1 X-10.452 Y-54.575 E39.59179
G0 X-10.073 Y-54.762
G1 X-8.738 Y-53.428 E39.68322
G0 X-8.173 Y-53.428
G1 X-9.513 Y-54.768 E39.77503
G0 X-8.947 Y-54.768
G1 X-7.607 Y-53.428 E39.86684
G0 X-7.041 Y-53.428
G1 X-8.381 Y-54.768 E39.95865
G0 X-7.816 Y-54.768
G1 X-6.476 Y-53.428 E40.05046
G0 X-5.91 Y-53.428
G1 X-7.25 Y-54.768 E40.14227
G0 X-6.684 Y-54.768
G1 X-5.344 Y-53.428 E40.23407
G0 X-4.779 Y-53.428
G1 X-6.119 Y-54.768 E40.32588
G0 X-5.553 Y-54.768
G1 X-4.213 Y-53.428 E40.41769
G0 X-3.647 Y-53.428
G1 X-4.987 Y-54.768 E40.5095
G0 X-4.422 Y-54.768
G1 X-3.082 Y-53.428 E40.60131
G0 X-2.516 Y-53.428
G1 X-3.856 Y-54.768 E40.69312
G0 X-3.29 Y-54.768
G1 X-1.95 Y-53.428 E40.78493
G0 X-1.385 Y-53.428
G1 X-2.724 Y-54.768 E40.8767
G0 X-2.159 Y-54.768
G1 X-.819 Y-53.428 E40.96851
G0 X-.253 Y-53.428
G1 X-1.593 Y-54.768 E41.06032
G0 X-1.027 Y-54.768
G1 X0.313 Y-53.428 E41.15213
G0 X0.878 Y-53.428
G1 X-.462 Y-54.768 E41.24394
G0 X0.104 Y-54.768
G1 X1.444 Y-53.428 E41.33574
G0 X2.01 Y-53.428
G1 X0.67 Y-54.768 E41.42755
G0 X1.235 Y-54.768
G1 X2.575 Y-53.428 E41.51936
G0 X3.141 Y-53.428
G1 X1.801 Y-54.768 E41.61117
G0 X2.367 Y-54.768
G1 X3.707 Y-53.428 E41.70298
G0 X4.272 Y-53.428
G1 X2.932 Y-54.768 E41.79479
G0 X3.498 Y-54.768
G1 X4.838 Y-53.428 E41.8866
G0 X5.404 Y-53.428
M104 S220
G1 X4.064 Y-54.768 E41.97841
G0 X4.629 Y-54.768
G1 X5.969 Y-53.428 E42.07021
G0 X6.535 Y-53.428
G1 X5.195 Y-54.768 E42.16202
G0 X5.761 Y-54.768
G1 X7.101 Y-53.428 E42.25383
G0 X7.32 Y-53.774
G1 X6.326 Y-54.768 E42.32193
G0 X6.892 Y-54.768
G1 X7.32 Y-54.34 E42.35126
G0 X-9.304 Y-53.428
G1 X-9.439 Y-53.563 E42.36051
;MESH:NONMESH
G0 F600 X-9.439 Y-53.563 Z0.48
G0 F900 X8.726 Y-55.341
;TIME_ELAPSED:58.138508
;LAYER:1
M106 S255
;TYPE:WALL-INNER
;MESH:K??rper1(3)
G1 F1911.8 X8.9 Y-55.348 E42.36911
G1 F1950 X12.9 Y-55.348 E42.5629
G0 X8.546 Y-55.204
G0 X-10.329 Y-53.96
G0 X-10.329 Y-53.871
G1 X-10.015 Y-53.515 E42.5859
G1 X-9.9 Y-53.048 E42.6092
G1 X-9.9 Y-52.848 E42.61889
G1 X7.9 Y-52.848 E43.48124
G1 X7.9 Y-54.348 E43.55391
G1 X7.976 Y-54.734 E43.57297
G1 X8.301 Y-55.149 E43.5985
G1 F1930.7 X8.744 Y-55.349 E43.62229
G1 X-10.851 Y-55.348 E44.58109
G1 F1950 X-11.245 Y-55.313 E44.60026
G1 X-11.717 Y-55.165 E44.62422
G1 X-12.132 Y-54.915 E44.64769
G1 X-12.529 Y-54.501 E44.67548
G1 X-12.751 Y-54.048 E44.69992
G1 X-10.85 Y-54.047 E44.79202
G0 F1755 X-10.759 Y-54.047
G0 X-10.329 Y-53.871
G0 F1950 X-10.369 Y-53.328
G1 X-10.3 Y-53.048 E44.80599
G1 X-10.3 Y-52.448 E44.83506
G1 X8.3 Y-52.448 E45.73617
G1 X8.3 Y-54.348 E45.82821
G1 X8.346 Y-54.58 E45.83967
G1 X8.54 Y-54.829 E45.85497
G1 X8.814 Y-54.948 E45.86944
G1 X13.3 Y-54.948 E46.08677
G1 X13.3 Y-55.748 E46.12553
G1 X-10.869 Y-55.748 E47.29643
G1 X-11.323 Y-55.708 E47.31851
G1 X-11.883 Y-55.532 E47.34695
G1 X-12.375 Y-55.235 E47.3748
G1 X-12.861 Y-54.726 E47.40889
G1 X-13.077 Y-54.343 E47.43019
G1 X-13.249 Y-53.793 E47.45811
G1 X-13.259 Y-53.648 E47.46515
G1 X-10.816 Y-53.648 E47.58351
G1 X-10.807 Y-53.644 E47.58398
G0 F1755 X-10.557 Y-53.542
G0 X-10.369 Y-53.328
G0 F1950 X-10.7 Y-53.125
;TYPE:WALL-OUTER
G1 F1650 X-10.7 Y-52.048 E47.63616
G1 X8.7 Y-52.048 E48.57603
G1 X8.7 Y-54.407 E48.69031
G1 X8.78 Y-54.509 E48.69659
G1 X8.865 Y-54.546 E48.70108
