;FLAVOR:Marlin
;TIME:2003
;Filament used: 3.50211m
;Layer height: 0.24
;MINX:-33.2
;MINY:-38.249
;MINZ:0.24
;MAXX:43.296
;MAXY:38.25
;MAXZ:23.76
;TARGET_MACHINE.NAME:Unknown
;Generated with Cura_SteamEngine 5.9.0
M140 S60
M105
M190 S60
M104 S230
M105
M109 S230
M82 ;absolute extrusion mode
;FLAVOR:Marlin
M82 ;absolute extrusion mode
G21
G90
M82
M107 T0
G28
G92 E0
G0 E3 F200
G92 E0 ; reset extrusion distance
M106 S255 ; Enable cooling fan full speed
G1 X-98 Y0 Z0.4 F3000 ; move to arc start
G3 X0 Y-98 I98 Z0.4 E40 F400 ; lay arc stripe 90deg
G92 E0 ; reset extrusion distance
G4 P500 ; wait for 0.5 sec
G0 Z10 E-1 ; Lift 15mm and retract 1mm filament
G4 P2000 ; wait for 5 sec
G0 Z15
M107 ; Disable cooling fan
G1 X0 Y-85 Z4 E0 F3000 ; get off the bed
G92 E0
G92 E0
G1 F1500 E-8
;LAYER_COUNT:99
;LAYER:0
M106 S102
G0 F900 X8.564 Y38.088 Z0.24
;TYPE:SKIRT
G1 F3600 E0.71493
G1 F1200 X7.259 Y38.188 E0.77833
G1 X5.983 Y38.236 E0.8402
G1 X4.669 Y38.25 E0.90386
G1 X3.371 Y38.211 E0.96677
G1 X2.075 Y38.132 E1.02967
G1 X0.782 Y38.012 E1.09258
G1 X-.512 Y37.845 E1.15579
G1 X-1.783 Y37.632 E1.21823
G1 X-3.063 Y37.378 E1.28145
G1 X-4.333 Y37.081 E1.34464
G1 X-5.58 Y36.739 E1.40728
G1 X-6.821 Y36.359 E1.47016
G1 X-8.051 Y35.934 E1.5332
G1 X-9.267 Y35.467 E1.59631
G1 X-10.461 Y34.963 E1.6591
G1 X-11.636 Y34.416 E1.72189
G1 X-12.797 Y33.832 E1.78485
G1 X-13.937 Y33.205 E1.84788
G1 X-15.055 Y32.54 E1.9109
G1 X-16.148 Y31.837 E1.97386
G1 X-17.215 Y31.1 E2.03669
G1 X-18.254 Y30.331 E2.09931
G1 X-19.273 Y29.519 E2.16244
G1 X-20.261 Y28.677 E2.22532
G1 X-21.227 Y27.797 E2.28863
G1 X-22.152 Y26.891 E2.35136
G1 X-23.039 Y25.964 E2.41352
G1 X-23.914 Y24.983 E2.4772
G1 X-24.749 Y23.983 E2.54032
G1 X-25.546 Y22.956 E2.6033
G1 X-26.308 Y21.903 E2.66627
G1 X-27.031 Y20.826 E2.72911
G1 X-27.719 Y19.725 E2.79201
G1 X-28.366 Y18.605 E2.85467
G1 X-28.984 Y17.456 E2.91788
G1 X-29.552 Y16.296 E2.98045
G1 X-30.09 Y15.108 E3.04363
G1 X-30.582 Y13.904 E3.10664
G1 X-31.023 Y12.709 E3.16835
G1 X-31.44 Y11.458 E3.23224
G1 X-31.811 Y10.207 E3.29546
G1 X-32.134 Y8.957 E3.358
G1 X-32.42 Y7.679 E3.42145
G1 X-32.656 Y6.41 E3.48398
G1 X-32.853 Y5.127 E3.54687
G1 X-33.009 Y3.835 E3.60992
G1 X-33.116 Y2.578 E3.67103
G1 X-33.18 Y1.241 E3.73588
G1 X-33.2 Y-0.053 E3.79858
G1 X-33.177 Y-1.348 E3.86133
G1 X-33.115 Y-2.593 E3.92172
G1 X-32.995 Y-3.946 E3.98752
G1 X-32.838 Y-5.232 E4.05029
G1 X-32.641 Y-6.518 E4.11332
G1 X-32.396 Y-7.788 E4.17598
G1 X-32.112 Y-9.065 E4.23936
G1 X-31.78 Y-10.316 E4.30206
G1 X-31.409 Y-11.561 E4.365
G1 X-30.999 Y-12.787 E4.42763
G1 X-30.544 Y-14.012 E4.49094
G1 X-30.048 Y-15.21 E4.55375
G1 X-29.536 Y-16.343 E4.61399
G1 X-28.933 Y-17.554 E4.67953
G1 X-28.316 Y-18.703 E4.74271
G1 X-27.662 Y-19.822 E4.8055
G1 X-26.969 Y-20.921 E4.86845
G1 X-26.24 Y-21.996 E4.93137
G1 X-25.475 Y-23.047 E4.99435
G1 X-24.675 Y-24.073 E5.05738
G1 X-23.841 Y-25.067 E5.12024
G1 X-22.971 Y-26.033 E5.18322
G1 X-22.073 Y-26.966 E5.24596
G1 X-21.141 Y-27.876 E5.30907
G1 X-20.181 Y-28.749 E5.37193
G1 X-19.193 Y-29.586 E5.43466
G1 X-18.173 Y-30.397 E5.49779
G1 X-17.127 Y-31.169 E5.56078
G1 X-16.086 Y-31.883 E5.62193
G1 X-14.96 Y-32.597 E5.68653
G1 X-13.842 Y-33.258 E5.74945
G1 X-12.701 Y-33.88 E5.81241
G1 X-11.539 Y-34.465 E5.87543
G1 X-10.358 Y-35.01 E5.93845
G1 X-9.161 Y-35.512 E6.00133
G1 X-7.949 Y-35.971 E6.06412
G1 X-6.714 Y-36.397 E6.12741
G1 X-5.482 Y-36.77 E6.18977
G1 X-4.223 Y-37.112 E6.25298
G1 X-3.01 Y-37.394 E6.31331
G1 X-1.682 Y-37.653 E6.37886
G1 X-.397 Y-37.861 E6.44192
G1 X0.89 Y-38.021 E6.50475
G1 X2.18 Y-38.14 E6.56751
G1 X3.481 Y-38.218 E6.63066
G1 X4.775 Y-38.249 E6.69336
G1 X6.082 Y-38.239 E6.75669
G1 X7.376 Y-38.18 E6.81944
G1 X8.67 Y-38.08 E6.88232
G1 X9.962 Y-37.935 E6.9453
G1 X11.248 Y-37.746 E7.00828
G1 X12.521 Y-37.513 E7.07097
G1 X13.801 Y-37.237 E7.13441
G1 X15.041 Y-36.919 E7.19643
G1 X16.303 Y-36.555 E7.26006
G1 X17.53 Y-36.155 E7.32258
G1 X18.755 Y-35.71 E7.38573
G1 X19.966 Y-35.222 E7.44898
G1 X21.148 Y-34.696 E7.51166
G1 X22.322 Y-34.131 E7.57478
G1 X23.399 Y-33.563 E7.63377
G1 X24.595 Y-32.881 E7.70047
G1 X25.656 Y-32.227 E7.76085
G1 X26.78 Y-31.477 E7.82631
G1 X27.835 Y-30.722 E7.88916
G1 X28.87 Y-29.929 E7.95233
G1 X29.861 Y-29.111 E8.01459
G1 X30.842 Y-28.244 E8.07801
G1 X31.769 Y-27.369 E8.13977
G1 X32.697 Y-26.43 E8.20373
G1 X33.585 Y-25.475 E8.26691
G1 X34.409 Y-24.52 E8.32801
G1 X35.242 Y-23.482 E8.39249
G1 X36.03 Y-22.435 E8.45598
G1 X36.769 Y-21.373 E8.51866
G1 X37.476 Y-20.288 E8.5814
G1 X38.134 Y-19.197 E8.64312
G1 X38.781 Y-18.039 E8.70739
G1 X39.374 Y-16.884 E8.77029
G1 X39.925 Y-15.718 E8.83276
G1 X40.431 Y-14.536 E8.89505
G1 X40.91 Y-13.301 E8.95923
G1 X41.34 Y-12.077 E9.02208
G1 X41.727 Y-10.849 E9.08446
G1 X42.079 Y-9.586 E9.14798
G1 X42.383 Y-8.323 E9.21091
G1 X42.642 Y-7.048 E9.27394
G1 X42.859 Y-5.771 E9.3367
G1 X43.036 Y-4.483 E9.39968
G1 X43.166 Y-3.193 E9.4625
G1 X43.254 Y-1.893 E9.52562
G1 X43.295 Y-.598 E9.58839
G1 X43.296 Y0.702 E9.65137
G1 X43.247 Y2.002 E9.7144
G1 X43.158 Y3.304 E9.77762
G1 X43.021 Y4.588 E9.84018
G1 X42.844 Y5.877 E9.90321
G1 X42.626 Y7.162 E9.96636
G1 X42.363 Y8.419 E10.02857
G1 X42.049 Y9.696 E10.09228
G1 X41.7 Y10.939 E10.15483
G1 X41.308 Y12.185 E10.21811
G1 X40.871 Y13.405 E10.28089
G1 X40.397 Y14.616 E10.3439
G1 X39.881 Y15.805 E10.40669
G1 X39.328 Y16.972 E10.46926
G1 X38.727 Y18.132 E10.53255
G1 X38.094 Y19.262 E10.5953
G1 X37.419 Y20.374 E10.65832
G1 X36.708 Y21.467 E10.72149
G1 X35.963 Y22.529 E10.78434
G1 X35.197 Y23.546 E10.84602
G1 X34.361 Y24.575 E10.91025
G1 X33.531 Y25.535 E10.97173
G1 X32.643 Y26.492 E11.03498
G1 X31.709 Y27.425 E11.09894
G1 X30.762 Y28.315 E11.1619
G1 X29.787 Y29.174 E11.22485
G1 X28.781 Y30 E11.28791
G1 X27.746 Y30.788 E11.35093
G1 X26.691 Y31.536 E11.41359
G1 X25.606 Y32.257 E11.4767
G1 X24.495 Y32.938 E11.53983
G1 X23.372 Y33.574 E11.60235
G1 X22.221 Y34.178 E11.66533
G1 X21.047 Y34.743 E11.72845
G1 X19.861 Y35.264 E11.79121
G1 X18.658 Y35.747 E11.85401
G1 X17.456 Y36.183 E11.91595
G1 X16.199 Y36.586 E11.97991
G1 X14.945 Y36.947 E12.04312
G1 X13.69 Y37.26 E12.10579
G1 X12.412 Y37.536 E12.16913
G1 X11.138 Y37.762 E12.23181
G1 X9.849 Y37.949 E12.29492
G1 X8.564 Y38.088 E12.35753
G0 F900 X8.533 Y37.689
G1 F1200 X7.244 Y37.788 E12.42016
G1 X5.979 Y37.836 E12.48149
G1 X4.681 Y37.85 E12.54438
G1 X3.395 Y37.812 E12.60671
G1 X2.112 Y37.734 E12.66898
G1 X0.833 Y37.615 E12.73121
G1 X-.446 Y37.45 E12.79369
G1 X-1.705 Y37.24 E12.85553
G1 X-2.972 Y36.989 E12.9181
G1 X-4.227 Y36.695 E12.98055
G1 X-5.463 Y36.357 E13.04263
G1 X-6.691 Y35.981 E13.10485
G1 X-7.908 Y35.561 E13.16722
G1 X-9.111 Y35.099 E13.22965
G1 X-10.292 Y34.6 E13.29176
G1 X-11.456 Y34.059 E13.35395
G1 X-12.604 Y33.481 E13.41622
G1 X-13.733 Y32.861 E13.47862
G1 X-14.839 Y32.204 E13.54094
G1 X-15.921 Y31.508 E13.60327
G1 X-16.977 Y30.779 E13.66544
G1 X-18.005 Y30.018 E13.7274
G1 X-19.014 Y29.214 E13.7899
G1 X-19.992 Y28.381 E13.85214
G1 X-20.947 Y27.511 E13.91473
G1 X-21.863 Y26.614 E13.97684
G1 X-22.75 Y25.687 E14.039
G1 X-23.607 Y24.727 E14.10134
G1 X-24.433 Y23.738 E14.16377
G1 X-25.222 Y22.722 E14.22609
G1 X-25.976 Y21.68 E14.2884
G1 X-26.692 Y20.614 E14.35061
G1 X-27.373 Y19.525 E14.41284
G1 X-28.014 Y18.416 E14.47489
G1 X-28.625 Y17.28 E14.53739
G1 X-29.188 Y16.131 E14.59937
G1 X-29.72 Y14.956 E14.66186
G1 X-30.207 Y13.766 E14.72415
G1 X-30.648 Y12.571 E14.78586
G1 X-31.057 Y11.344 E14.84852
G1 X-31.424 Y10.107 E14.91103
G1 X-31.744 Y8.87 E14.97294
G1 X-32.027 Y7.606 E15.03569
G1 X-32.261 Y6.349 E15.09763
G1 X-32.456 Y5.079 E15.15988
G1 X-32.61 Y3.801 E15.22224
G1 X-32.716 Y2.559 E15.28263
G1 X-32.78 Y1.235 E15.34685
G1 X-32.8 Y-0.046 E15.40892
G1 X-32.777 Y-1.328 E15.47104
G1 X-32.715 Y-2.573 E15.53143
G1 X-32.598 Y-3.898 E15.59587
G1 X-32.443 Y-5.171 E15.658
G1 X-32.248 Y-6.442 E15.72029
G1 X-32.006 Y-7.701 E15.78241
G1 X-31.725 Y-8.963 E15.84504
G1 X-31.397 Y-10.202 E15.90714
G1 X-31.03 Y-11.434 E15.96941
G1 X-30.624 Y-12.648 E16.03143
G1 X-30.174 Y-13.859 E16.09402
G1 X-29.683 Y-15.045 E16.15621
G1 X-29.171 Y-16.178 E16.21644
G1 X-28.58 Y-17.365 E16.28068
G1 X-27.971 Y-18.501 E16.34312
G1 X-27.324 Y-19.609 E16.40529
G1 X-26.638 Y-20.697 E16.4676
G1 X-25.917 Y-21.761 E16.52987
G1 X-25.16 Y-22.801 E16.59218
G1 X-24.368 Y-23.816 E16.65456
G1 X-23.544 Y-24.799 E16.7167
G1 X-22.683 Y-25.756 E16.77906
G1 X-21.794 Y-26.68 E16.84118
G1 X-20.872 Y-27.58 E16.9036
G1 X-19.922 Y-28.444 E16.96582
G1 X-18.944 Y-29.273 E17.02793
G1 X-17.935 Y-30.075 E17.09037
G1 X-16.901 Y-30.839 E17.15266
G1 X-15.872 Y-31.545 E17.21311
G1 X-14.756 Y-32.253 E17.27714
G1 X-13.65 Y-32.907 E17.33939
G1 X-12.521 Y-33.523 E17.4017
G1 X-11.371 Y-34.102 E17.46408
G1 X-10.203 Y-34.641 E17.5264
G1 X-9.019 Y-35.138 E17.58861
G1 X-7.819 Y-35.593 E17.65078
G1 X-6.598 Y-36.014 E17.71335
G1 X-5.377 Y-36.384 E17.77516
G1 X-4.132 Y-36.722 E17.83766
G1 X-2.933 Y-37.001 E17.8973
G1 X-1.618 Y-37.258 E17.96221
G1 X-.347 Y-37.464 E18.02459
G1 X0.927 Y-37.623 E18.08679
G1 X2.204 Y-37.741 E18.14892
G1 X3.491 Y-37.818 E18.21138
G1 X4.772 Y-37.849 E18.27346
G1 X6.064 Y-37.839 E18.33606
G1 X7.345 Y-37.781 E18.39818
G1 X8.625 Y-37.683 E18.46037
G1 X9.904 Y-37.539 E18.52273
G1 X11.176 Y-37.352 E18.58502
G1 X12.437 Y-37.122 E18.64711
G1 X13.702 Y-36.85 E18.7098
G1 X14.93 Y-36.535 E18.77122
G1 X16.179 Y-36.175 E18.83419
G1 X17.394 Y-35.779 E18.8961
G1 X18.606 Y-35.339 E18.95857
G1 X19.803 Y-34.857 E19.02109
G1 X20.974 Y-34.336 E19.08318
G1 X22.135 Y-33.777 E19.14561
G1 X23.212 Y-33.209 E19.20459
G1 X24.385 Y-32.54 E19.27001
G1 X25.446 Y-31.886 E19.3304
G1 X26.547 Y-31.152 E19.3945
G1 X27.592 Y-30.405 E19.45674
G1 X28.615 Y-29.621 E19.51918
G1 X29.596 Y-28.811 E19.58081
G1 X30.567 Y-27.953 E19.64359
G1 X31.494 Y-27.078 E19.70534
G1 X32.404 Y-26.158 E19.76803
G1 X33.282 Y-25.214 E19.83049
G1 X34.097 Y-24.27 E19.89091
G1 X34.923 Y-23.241 E19.95484
G1 X35.702 Y-22.207 E20.01756
G1 X36.434 Y-21.155 E20.07965
G1 X37.133 Y-20.081 E20.14173
G1 X37.791 Y-18.99 E20.20345
G1 X38.425 Y-17.856 E20.26639
G1 X39.012 Y-16.713 E20.32864
G1 X39.557 Y-15.56 E20.39043
G1 X40.058 Y-14.391 E20.45204
G1 X40.533 Y-13.169 E20.51556
G1 X40.958 Y-11.957 E20.57778
G1 X41.345 Y-10.729 E20.64016
G1 X41.69 Y-9.492 E20.70238
G1 X41.991 Y-8.243 E20.76462
G1 X42.248 Y-6.981 E20.82701
G1 X42.463 Y-5.717 E20.88913
G1 X42.638 Y-4.443 E20.95143
G1 X42.767 Y-3.166 E21.01361
G1 X42.854 Y-1.88 E21.07606
G1 X42.895 Y-.598 E21.1382
G1 X42.896 Y0.687 E21.20045
G1 X42.848 Y1.975 E21.26289
G1 X42.76 Y3.262 E21.32539
G1 X42.625 Y4.534 E21.38736
G1 X42.45 Y5.81 E21.44976
G1 X42.234 Y7.08 E21.51217
G1 X41.971 Y8.337 E21.57438
G1 X41.664 Y9.588 E21.63679
G1 X41.319 Y10.819 E21.69872
G1 X40.931 Y12.05 E21.76125
G1 X40.499 Y13.259 E21.82345
G1 X40.03 Y14.457 E21.88578
G1 X39.52 Y15.634 E21.94793
G1 X38.973 Y16.788 E22.0098
G1 X38.378 Y17.937 E22.07248
G1 X37.752 Y19.055 E22.13456
G1 X37.084 Y20.156 E22.19695
G1 X36.38 Y21.237 E22.25945
G1 X35.643 Y22.288 E22.32163
G1 X34.877 Y23.305 E22.38332
G1 X34.058 Y24.313 E22.44624
G1 X33.228 Y25.273 E22.50772
G1 X32.36 Y26.209 E22.56956
G1 X31.435 Y27.134 E22.63294
G1 X30.498 Y28.015 E22.69525
G1 X29.533 Y28.865 E22.75755
G1 X28.538 Y29.682 E22.81992
G1 X27.515 Y30.462 E22.88225
G1 X26.47 Y31.203 E22.94431
G1 X25.397 Y31.916 E23.00672
G1 X24.298 Y32.59 E23.06918
G1 X23.186 Y33.22 E23.1311
G1 X22.047 Y33.818 E23.19342
G1 X20.886 Y34.377 E23.25585
G1 X19.712 Y34.893 E23.31798
G1 X18.521 Y35.371 E23.38015
G1 X17.334 Y35.802 E23.44133
G1 X16.088 Y36.202 E23.50473
G1 X14.848 Y36.559 E23.56724
G1 X13.606 Y36.869 E23.62926
G1 X12.342 Y37.142 E23.69191
G1 X11.081 Y37.366 E23.75396
G1 X9.806 Y37.551 E23.81637
G1 X8.533 Y37.689 E23.87841
G0 F900 X8.502 Y37.29
G1 F1200 X7.229 Y37.388 E23.94026
G1 X5.975 Y37.436 E24.00106
G1 X4.693 Y37.45 E24.06317
G1 X3.419 Y37.413 E24.12492
G1 X2.149 Y37.336 E24.18656
G1 X0.884 Y37.218 E24.24811
G1 X-.38 Y37.055 E24.30985
G1 X-1.627 Y36.848 E24.37109
G1 X-2.881 Y36.599 E24.43303
G1 X-4.122 Y36.309 E24.49477
G1 X-5.346 Y35.975 E24.55624
G1 X-6.561 Y35.603 E24.6178
G1 X-7.765 Y35.188 E24.6795
G1 X-8.955 Y34.731 E24.74125
G1 X-10.124 Y34.237 E24.80274
G1 X-11.276 Y33.702 E24.86427
G1 X-12.412 Y33.13 E24.92589
G1 X-13.529 Y32.517 E24.98762
G1 X-14.623 Y31.868 E25.04924
G1 X-15.694 Y31.179 E25.11094
G1 X-16.739 Y30.458 E25.17245
G1 X-17.756 Y29.705 E25.23375
G1 X-18.755 Y28.91 E25.29561
G1 X-19.723 Y28.085 E25.35722
G1 X-20.667 Y27.225 E25.41909
G1 X-21.574 Y26.338 E25.48055
G1 X-22.452 Y25.42 E25.54209
G1 X-23.3 Y24.471 E25.60375
G1 X-24.117 Y23.493 E25.66549
G1 X-24.898 Y22.488 E25.72715
G1 X-25.644 Y21.457 E25.7888
G1 X-26.353 Y20.402 E25.85038
G1 X-27.027 Y19.325 E25.91194
G1 X-27.662 Y18.227 E25.97338
G1 X-28.266 Y17.104 E26.03516
G1 X-28.824 Y15.966 E26.09656
G1 X-29.35 Y14.804 E26.15836
G1 X-29.832 Y13.628 E26.21993
G1 X-30.273 Y12.433 E26.28164
G1 X-30.674 Y11.23 E26.34308
G1 X-31.037 Y10.007 E26.40488
G1 X-31.354 Y8.783 E26.46614
G1 X-31.634 Y7.533 E26.52819
G1 X-31.866 Y6.288 E26.58955
G1 X-32.059 Y5.031 E26.65116
G1 X-32.211 Y3.767 E26.71284
G1 X-32.316 Y2.539 E26.77255
G1 X-32.38 Y1.229 E26.83609
G1 X-32.4 Y-0.039 E26.89753
G1 X-32.377 Y-1.308 E26.95902
G1 X-32.315 Y-2.553 E27.01941
G1 X-32.201 Y-3.85 E27.08248
G1 X-32.048 Y-5.11 E27.14397
G1 X-31.855 Y-6.367 E27.20559
G1 X-31.616 Y-7.614 E27.2671
G1 X-31.338 Y-8.861 E27.32899
G1 X-31.014 Y-10.088 E27.39048
G1 X-30.651 Y-11.307 E27.4521
G1 X-30.249 Y-12.509 E27.5135
G1 X-29.804 Y-13.706 E27.57537
G1 X-29.318 Y-14.88 E27.63692
G1 X-28.806 Y-16.013 E27.69716
G1 X-28.228 Y-17.176 E27.76008
G1 X-27.625 Y-18.3 E27.82187
G1 X-26.986 Y-19.396 E27.88334
G1 X-26.307 Y-20.473 E27.94502
G1 X-25.594 Y-21.526 E28.00663
G1 X-24.845 Y-22.555 E28.06829
G1 X-24.062 Y-23.559 E28.12997
G1 X-23.246 Y-24.532 E28.19149
G1 X-22.395 Y-25.479 E28.25317
G1 X-21.515 Y-26.394 E28.31468
G1 X-20.603 Y-27.284 E28.37641
G1 X-19.663 Y-28.139 E28.43797
G1 X-18.695 Y-28.96 E28.49946
G1 X-17.697 Y-29.753 E28.56122
G1 X-16.674 Y-30.509 E28.62284
G1 X-15.658 Y-31.207 E28.68256
G1 X-14.552 Y-31.909 E28.74603
G1 X-13.458 Y-32.556 E28.8076
G1 X-12.341 Y-33.166 E28.86926
G1 X-11.203 Y-33.739 E28.93099
G1 X-10.048 Y-34.272 E28.99261
G1 X-8.877 Y-34.764 E29.05415
G1 X-7.689 Y-35.215 E29.11571
G1 X-6.482 Y-35.631 E29.17756
G1 X-5.272 Y-35.998 E29.23882
G1 X-4.041 Y-36.332 E29.30061
G1 X-2.856 Y-36.608 E29.35956
G1 X-1.554 Y-36.863 E29.42384
G1 X-.297 Y-37.067 E29.48553
G1 X0.964 Y-37.225 E29.5471
G1 X2.228 Y-37.342 E29.6086
G1 X3.501 Y-37.418 E29.67038
G1 X4.769 Y-37.449 E29.73183
G1 X6.046 Y-37.439 E29.7937
G1 X7.314 Y-37.382 E29.85519
G1 X8.58 Y-37.285 E29.9167
G1 X9.846 Y-37.143 E29.97842
G1 X11.104 Y-36.959 E30.04002
G1 X12.353 Y-36.731 E30.10153
G1 X13.603 Y-36.462 E30.16347
G1 X14.819 Y-36.151 E30.22428
G1 X16.055 Y-35.795 E30.28659
G1 X17.258 Y-35.403 E30.34789
G1 X18.457 Y-34.968 E30.40968
G1 X19.64 Y-34.492 E30.47146
G1 X20.8 Y-33.976 E30.53297
G1 X21.948 Y-33.423 E30.5947
G1 X23.025 Y-32.855 E30.65369
G1 X24.175 Y-32.199 E30.71783
G1 X25.224 Y-31.553 E30.77751
G1 X26.314 Y-30.827 E30.84096
G1 X27.349 Y-30.087 E30.9026
G1 X28.36 Y-29.313 E30.96429
G1 X29.331 Y-28.511 E31.0253
G1 X30.292 Y-27.662 E31.08742
G1 X31.219 Y-26.787 E31.14918
G1 X32.111 Y-25.886 E31.2106
G1 X32.979 Y-24.953 E31.27234
G1 X33.785 Y-24.02 E31.33207
G1 X34.604 Y-23 E31.39545
G1 X35.374 Y-21.979 E31.4574
G1 X36.099 Y-20.937 E31.5189
G1 X36.79 Y-19.874 E31.58032
G1 X37.448 Y-18.783 E31.64205
G1 X38.069 Y-17.673 E31.70367
G1 X38.65 Y-16.542 E31.76527
