;FLAVOR:Marlin
;TIME:3901
;Filament used: 10.768m
;Layer height: 0.3
;MINX:-80.568
;MINY:-80.592
;MINZ:0.4
;MAXX:80.6
;MAXY:80.592
;MAXZ:4.9
;TARGET_MACHINE.NAME:Unknown
;Generated with Cura_SteamEngine 5.10.1
M140 S50
M105
M190 S50
M104 S220
M105
M109 S220
;FLAVOR:Marlin
M82 ;absolute extrusion mode
G21
G90
M82
M107 T0
G28
G92 E0
G0 E3 F200
G92 E0 ; reset extrusion distance
M106 S255 ; Enable cooling fan full speed
G1 X-98 Y0 Z0.4 F3000 ; move to arc start
G3 X0 Y-98 I98 Z0.4 E40 F400 ; lay arc stripe 90deg
G92 E0 ; reset extrusion distance
G4 P500 ; wait for 0.5 sec
G0 Z10 E-1 ; Lift 15mm and retract 1mm filament
G4 P2000 ; wait for 5 sec
G0 Z15
M107 ; Disable cooling fan
G1 X0 Y-85 Z4 E0 F3000 ; get off the bed
M82 ;absolute extrusion mode
G92 E0
G92 E0
G1 F1500 E-6.5
;LAYER_COUNT:16
;LAYER:0
M107
G0 F3600 X-31.907 Y74.01 Z0.4
;TYPE:SKIRT
G1 F1500 E0
G1 F1800 X-36.078 Y72.071 E0.5278
G1 X-40.255 Y69.826 E1.07194
G1 X-44.298 Y67.335 E1.61685
G1 X-48.304 Y64.523 E2.17848
G1 X-51.968 Y61.608 E2.71574
G1 X-55.556 Y58.392 E3.26863
G1 X-59.24 Y54.648 E3.87135
G1 X-62.324 Y51.105 E4.41034
G1 X-65.35 Y47.177 E4.97931
G1 X-67.803 Y43.578 E5.47908
G1 X-70.509 Y39.049 E6.08447
G1 X-72.523 Y35.167 E6.5863
G1 X-74.672 Y30.342 E7.19239
G1 X-76.202 Y26.264 E7.69218
G1 X-77.753 Y21.222 E8.29749
G1 X-78.79 Y16.974 E8.79925
G1 X-79.736 Y11.778 E9.40528
G1 X-80.254 Y7.471 E9.90306
G1 X-80.568 Y2.157 E10.51389
G1 X-80.554 Y-2.663 E11.06698
G1 X-80.254 Y-7.471 E11.61976
G1 X-79.733 Y-11.796 E12.11963
G1 X-78.786 Y-16.991 E12.72556
G1 X-77.753 Y-21.222 E13.22532
G1 X-76.196 Y-26.281 E13.8327
G1 X-74.665 Y-30.359 E14.33253
G1 X-72.515 Y-35.183 E14.93856
G1 X-70.509 Y-39.049 E15.43834
G1 X-67.793 Y-43.593 E16.04579
G1 X-65.297 Y-47.25 E16.55385
G1 X-62.102 Y-51.378 E17.15283
G1 X-59.236 Y-54.659 E17.65272
G1 X-55.514 Y-58.43 E18.26071
G1 X-51.927 Y-61.644 E18.81336
G1 X-48.348 Y-64.491 E19.33813
G1 X-44.313 Y-67.325 E19.90393
G1 X-40.115 Y-69.909 E20.46958
G1 X-36.184 Y-72.021 E20.98163
G1 X-31.451 Y-74.212 E21.5801
G1 X-27.165 Y-75.887 E22.10813
G1 X-22.716 Y-77.334 E22.64497
G1 X-17.69 Y-78.633 E23.24064
G1 X-12.957 Y-79.553 E23.7939
G1 X-8.64 Y-80.137 E24.29378
G1 X-3.374 Y-80.527 E24.89969
G1 X0.981 Y-80.592 E25.39948
G1 X6.25 Y-80.358 E26.00468
G1 X10.6 Y-79.901 E26.50657
G1 X15.75 Y-79.044 E27.10565
G1 X20.451 Y-77.962 E27.65918
G1 X24.939 Y-76.645 E28.19588
G1 X29.673 Y-74.94 E28.77326
G1 X33.662 Y-73.236 E29.271
G1 X38.149 Y-70.999 E29.84631
G1 X42.565 Y-68.447 E30.43156
G1 X46.215 Y-66.038 E30.93339
G1 X50.245 Y-63.02 E31.51112
G1 X54.114 Y-59.737 E32.09337
G1 X57.262 Y-56.726 E32.59323
G1 X60.814 Y-52.899 E33.19236
G1 X63.659 Y-49.438 E33.70646
G1 X66.733 Y-45.202 E34.30703
G1 X69.069 Y-41.546 E34.80487
G1 X71.653 Y-36.907 E35.41419
G1 X73.543 Y-32.982 E35.91407
G1 X75.545 Y-28.094 E36.52018
G1 X76.952 Y-23.972 E37.01996
G1 X78.357 Y-18.875 E37.62665
G1 X79.263 Y-14.615 E38.1264
G1 X80.054 Y-9.385 E38.73336
G1 X80.444 Y-5.047 E39.23314
G1 X80.6 Y0.252 E39.84145
G1 X80.443 Y5.065 E40.39402
G1 X80.052 Y9.403 E40.89382
G1 X79.263 Y14.615 E41.49869
G1 X78.353 Y18.893 E42.00057
G1 X76.947 Y23.989 E42.60717
G1 X75.539 Y28.111 E43.10699
G1 X73.543 Y32.982 E43.71103
G1 X71.645 Y36.923 E44.21296
G1 X69.159 Y41.391 E44.79967
G1 X66.503 Y45.546 E45.36553
G1 X63.901 Y49.13 E45.87374
G1 X60.766 Y52.953 E46.44106
G1 X57.249 Y56.739 E47.03402
G1 X54.101 Y59.749 E47.53379
G1 X50.259 Y63.009 E48.11197
G1 X46.229 Y66.027 E48.6897
G1 X42.534 Y68.466 E49.19773
G1 X38.181 Y70.982 E49.77466
G1 X33.662 Y73.236 E50.35413
G1 X29.673 Y74.94 E50.85187
G1 X24.672 Y76.728 E51.4613
G1 X20.491 Y77.948 E51.96106
G1 X15.328 Y79.125 E52.5687
G1 X10.582 Y79.903 E53.12056
G1 X6.25 Y80.358 E53.62039
G1 X0.964 Y80.592 E54.22753
G1 X-3.392 Y80.526 E54.72743
G1 X-8.671 Y80.135 E55.33484
G1 X-12.988 Y79.55 E55.83474
G1 X-18.171 Y78.525 E56.44099
G1 X-22.387 Y77.429 E56.94084
G1 X-27.076 Y75.914 E57.50628
G1 X-31.907 Y74.01 E58.10213
G0 F3600 X-31.654 Y73.466
G1 F1800 X-35.794 Y71.542 E58.62598
G1 X-39.971 Y69.297 E59.17012
G1 X-43.983 Y66.824 E59.71092
G1 X-47.93 Y64.053 E60.2643
G1 X-51.594 Y61.138 E60.80156
G1 X-55.128 Y57.971 E61.34608
G1 X-58.787 Y54.254 E61.94458
G1 X-61.871 Y50.711 E62.48357
G1 X-64.854 Y46.839 E63.04444
G1 X-67.307 Y43.24 E63.54421
G1 X-69.976 Y38.773 E64.14132
G1 X-71.99 Y34.891 E64.64315
G1 X-74.11 Y30.131 E65.24107
G1 X-75.64 Y26.053 E65.74086
G1 X-77.17 Y21.08 E66.33789
G1 X-78.207 Y16.832 E66.83966
G1 X-79.14 Y11.706 E67.43751
G1 X-79.658 Y7.399 E67.93529
G1 X-79.968 Y2.159 E68.53762
G1 X-79.955 Y-2.626 E69.08669
G1 X-79.658 Y-7.399 E69.63544
G1 X-79.137 Y-11.724 E70.13531
G1 X-78.203 Y-16.849 E70.73308
G1 X-77.17 Y-21.08 E71.23283
G1 X-75.634 Y-26.07 E71.83194
G1 X-74.103 Y-30.148 E72.33177
G1 X-71.982 Y-34.907 E72.92963
G1 X-69.976 Y-38.773 E73.42941
G1 X-67.297 Y-43.255 E74.02858
G1 X-64.801 Y-46.912 E74.53663
G1 X-61.65 Y-50.983 E75.12735
G1 X-58.784 Y-54.264 E75.62725
G1 X-55.114 Y-57.983 E76.22679
G1 X-51.553 Y-61.174 E76.77546
G1 X-47.974 Y-64.021 E77.30023
G1 X-43.968 Y-66.834 E77.86192
G1 X-39.831 Y-69.38 E78.41933
G1 X-35.9 Y-71.492 E78.93138
G1 X-31.232 Y-73.653 E79.52163
G1 X-26.979 Y-75.316 E80.04564
G1 X-22.53 Y-76.763 E80.58247
G1 X-17.575 Y-78.044 E81.16974
G1 X-12.877 Y-78.958 E81.71893
G1 X-8.56 Y-79.542 E82.21881
G1 X-3.365 Y-79.927 E82.81655
G1 X0.99 Y-79.992 E83.31633
G1 X6.187 Y-79.761 E83.91327
G1 X10.537 Y-79.304 E84.41516
G1 X15.615 Y-78.459 E85.00586
G1 X20.316 Y-77.377 E85.5594
G1 X24.77 Y-76.069 E86.09206
G1 X29.437 Y-74.388 E86.66127
G1 X33.426 Y-72.684 E87.15901
G1 X37.881 Y-70.462 E87.73027
G1 X42.234 Y-67.946 E88.3072
G1 X45.884 Y-65.537 E88.80902
G1 X49.885 Y-62.54 E89.38264
G1 X53.699 Y-59.303 E89.95667
G1 X56.847 Y-56.292 E90.45652
G1 X60.35 Y-52.518 E91.04738
G1 X63.195 Y-49.057 E91.56147
G1 X66.227 Y-44.879 E92.15383
G1 X68.563 Y-41.223 E92.65167
G1 X71.112 Y-36.647 E93.25272
G1 X73.002 Y-32.722 E93.7526
G1 X74.977 Y-27.9 E94.35053
G1 X76.384 Y-23.778 E94.85031
G1 X77.77 Y-18.75 E95.44878
G1 X78.676 Y-14.49 E95.94854
G1 X79.456 Y-9.331 E96.54725
G1 X79.846 Y-4.993 E97.04703
G1 X80 Y0.233 E97.64696
G1 X79.845 Y5.011 E98.19551
G1 X79.454 Y9.349 E98.6953
G1 X78.676 Y14.49 E99.29194
G1 X77.766 Y18.768 E99.79381
G1 X76.379 Y23.795 E100.3922
G1 X74.971 Y27.917 E100.89202
G1 X73.002 Y32.722 E101.48788
G1 X71.104 Y36.663 E101.98981
G1 X68.635 Y41.099 E102.57236
G1 X66.017 Y45.193 E103.12998
G1 X63.415 Y48.777 E103.63819
G1 X60.302 Y52.572 E104.20142
G1 X56.834 Y56.305 E104.78609
G1 X53.686 Y59.315 E105.28587
G1 X49.899 Y62.529 E105.85582
G1 X45.898 Y65.526 E106.42945
G1 X42.203 Y67.965 E106.93748
G1 X37.913 Y70.445 E107.50608
G1 X33.426 Y72.684 E108.08149
G1 X29.437 Y74.388 E108.57923
G1 X24.504 Y76.152 E109.18039
G1 X20.323 Y77.372 E109.68015
G1 X15.231 Y78.533 E110.27944
G1 X10.519 Y79.306 E110.82736
G1 X6.187 Y79.761 E111.32718
G1 X0.973 Y79.992 E111.92606
G1 X-3.383 Y79.926 E112.42596
G1 X-8.59 Y79.54 E113.02509
G1 X-12.907 Y78.955 E113.52498
G1 X-18.02 Y77.944 E114.12304
G1 X-22.236 Y76.848 E114.6229
G1 X-26.891 Y75.343 E115.18427
G1 X-31.654 Y73.466 E115.77172
G0 F3600 X-31.401 Y72.922
G1 F1800 X-35.51 Y71.013 E116.29162
G1 X-39.687 Y68.768 E116.83576
G1 X-43.668 Y66.313 E117.37245
G1 X-47.556 Y63.583 E117.91758
G1 X-51.22 Y60.668 E118.45484
G1 X-54.727 Y57.524 E118.9953
G1 X-58.334 Y53.86 E119.58527
G1 X-61.418 Y50.317 E120.12427
G1 X-64.358 Y46.501 E120.67703
G1 X-66.811 Y42.902 E121.17681
G1 X-69.443 Y38.497 E121.76563
G1 X-71.457 Y34.615 E122.26746
G1 X-73.548 Y29.92 E122.85721
G1 X-75.078 Y25.842 E123.357
G1 X-76.587 Y20.938 E123.94576
G1 X-77.624 Y16.69 E124.44752
G1 X-78.544 Y11.634 E125.03721
G1 X-79.062 Y7.327 E125.53499
G1 X-79.368 Y2.161 E126.12881
G1 X-79.356 Y-2.589 E126.67387
G1 X-79.062 Y-7.327 E127.21859
G1 X-78.541 Y-11.652 E127.71846
G1 X-77.62 Y-16.707 E128.30805
G1 X-76.587 Y-20.938 E128.80781
G1 X-75.072 Y-25.859 E129.39864
G1 X-73.541 Y-29.937 E129.89847
G1 X-71.449 Y-34.631 E130.48816
G1 X-69.443 Y-38.497 E130.98794
G1 X-66.801 Y-42.917 E131.57882
G1 X-64.305 Y-46.574 E132.08688
G1 X-61.198 Y-50.588 E132.66934
G1 X-58.332 Y-53.869 E133.16923
G1 X-54.714 Y-57.536 E133.76034
G1 X-51.179 Y-60.704 E134.30503
G1 X-47.6 Y-63.551 E134.8298
G1 X-43.623 Y-66.343 E135.38738
G1 X-39.547 Y-68.851 E135.93654
G1 X-35.616 Y-70.963 E136.44859
G1 X-31.013 Y-73.094 E137.03063
G1 X-26.793 Y-74.745 E137.5506
G1 X-22.344 Y-76.192 E138.08744
G1 X-17.46 Y-77.455 E138.6663
G1 X-12.797 Y-78.363 E139.21142
G1 X-8.48 Y-78.947 E139.71129
G1 X-3.356 Y-79.327 E140.30087
G1 X0.999 Y-79.392 E140.80066
G1 X6.124 Y-79.164 E141.38932
G1 X10.474 Y-78.707 E141.89122
G1 X15.48 Y-77.874 E142.47354
G1 X20.181 Y-76.792 E143.02707
G1 X24.601 Y-75.493 E143.55571
G1 X29.201 Y-73.836 E144.11675
G1 X33.19 Y-72.132 E144.61449
G1 X37.613 Y-69.925 E145.18169
G1 X41.903 Y-67.445 E145.75029
G1 X45.553 Y-65.036 E146.25212
G1 X49.497 Y-62.082 E146.81755
G1 X53.284 Y-58.869 E147.38742
G1 X56.432 Y-55.858 E147.88728
G1 X59.886 Y-52.137 E148.46985
G1 X62.731 Y-48.676 E148.98395
G1 X65.721 Y-44.556 E149.56809
G1 X68.057 Y-40.9 E150.06593
G1 X70.571 Y-36.387 E150.65871
G1 X72.461 Y-32.462 E151.15859
G1 X74.409 Y-27.706 E151.74833
G1 X75.816 Y-23.584 E152.24812
G1 X77.183 Y-18.625 E152.83837
G1 X78.089 Y-14.365 E153.33813
G1 X78.858 Y-9.277 E153.9286
G1 X79.248 Y-4.939 E154.42838
G1 X79.4 Y0.214 E155.01993
G1 X79.247 Y4.957 E155.56446
G1 X78.856 Y9.295 E156.06425
G1 X78.089 Y14.365 E156.65264
G1 X77.179 Y18.643 E157.15451
G1 X75.811 Y23.601 E157.74469
G1 X74.403 Y27.723 E158.24451
G1 X72.461 Y32.462 E158.83219
G1 X70.563 Y36.403 E159.33412
G1 X68.129 Y40.776 E159.9084
G1 X65.531 Y44.84 E160.46188
G1 X62.929 Y48.424 E160.97009
G1 X59.862 Y52.164 E161.5251
G1 X56.419 Y55.871 E162.10563
G1 X53.271 Y58.881 E162.60541
G1 X49.511 Y62.071 E163.17122
G1 X45.567 Y65.025 E163.73665
G1 X41.872 Y67.464 E164.24468
G1 X37.613 Y69.925 E164.80911
G1 X33.19 Y72.132 E165.37631
G1 X29.201 Y73.836 E165.87405
G1 X24.336 Y75.576 E166.46693
G1 X20.155 Y76.796 E166.9667
G1 X15.134 Y77.941 E167.55764
G1 X10.456 Y78.709 E168.10161
G1 X6.124 Y79.164 E168.60143
G1 X0.982 Y79.392 E169.19204
G1 X-3.374 Y79.326 E169.69194
G1 X-8.509 Y78.945 E170.28279
G1 X-12.826 Y78.36 E170.78268
G1 X-17.869 Y77.363 E171.37255
G1 X-22.085 Y76.267 E171.87241
G1 X-26.671 Y74.785 E172.42543
G1 X-31.401 Y72.922 E173.00877
G0 F3600 X-31.148 Y72.378
G1 F1800 X-35.226 Y70.484 E173.52472
G1 X-39.403 Y68.239 E174.06886
G1 X-43.353 Y65.802 E174.60143
G1 X-47.182 Y63.113 E175.13833
G1 X-50.846 Y60.198 E175.67558
G1 X-54.326 Y57.077 E176.21197
G1 X-57.881 Y53.466 E176.79343
G1 X-60.965 Y49.923 E177.33243
G1 X-63.862 Y46.163 E177.87709
G1 X-66.315 Y42.564 E178.37686
G1 X-68.91 Y38.221 E178.9574
G1 X-70.924 Y34.339 E179.45923
G1 X-72.986 Y29.709 E180.04081
G1 X-74.516 Y25.631 E180.5406
G1 X-76.004 Y20.796 E181.12109
G1 X-77.041 Y16.548 E181.62285
G1 X-77.948 Y11.562 E182.20437
G1 X-78.466 Y7.255 E182.70215
G1 X-78.768 Y2.162 E183.28758
G1 X-78.757 Y-2.552 E183.8285
G1 X-78.466 Y-7.255 E184.36919
G1 X-77.945 Y-11.58 E184.86906
G1 X-77.037 Y-16.565 E185.45049
G1 X-76.004 Y-20.796 E185.95025
G1 X-74.51 Y-25.648 E186.5328
G1 X-72.979 Y-29.726 E187.03263
G1 X-70.916 Y-34.355 E187.61416
G1 X-68.91 Y-38.221 E188.11394
G1 X-66.305 Y-42.579 E188.69653
G1 X-63.809 Y-46.236 E189.20459
G1 X-60.746 Y-50.193 E189.77878
G1 X-57.88 Y-53.474 E190.27868
G1 X-54.313 Y-57.089 E190.86143
G1 X-50.805 Y-60.234 E191.40205
G1 X-47.226 Y-63.081 E191.92682
G1 X-43.308 Y-65.832 E192.47615
G1 X-39.263 Y-68.322 E193.0212
G1 X-35.332 Y-70.434 E193.53325
G1 X-30.794 Y-72.535 E194.10708
G1 X-26.607 Y-74.174 E194.62302
G1 X-22.158 Y-75.621 E195.15986
G1 X-17.345 Y-76.866 E195.73032
G1 X-12.717 Y-77.768 E196.27136
G1 X-8.4 Y-78.352 E196.77124
G1 X-3.347 Y-78.727 E197.35265
G1 X1.008 Y-78.792 E197.85243
G1 X6.061 Y-78.567 E198.43282
G1 X10.411 Y-78.11 E198.93472
G1 X15.346 Y-77.289 E199.50878
G1 X20.012 Y-76.216 E200.05817
G1 X24.432 Y-74.917 E200.5868
G1 X28.965 Y-73.284 E201.13968
G1 X32.954 Y-71.58 E201.63742
G1 X37.313 Y-69.405 E202.19641
G1 X41.572 Y-66.944 E202.76084
G1 X45.222 Y-64.535 E203.26267
G1 X49.137 Y-61.602 E203.82399
G1 X52.869 Y-58.435 E204.38564
G1 X56.017 Y-55.424 E204.8855
G1 X59.422 Y-51.756 E205.45979
G1 X62.267 Y-48.295 E205.97388
G1 X65.215 Y-44.233 E206.5498
G1 X67.551 Y-40.577 E207.04764
G1 X70.03 Y-36.127 E207.63216
G1 X71.92 Y-32.202 E208.13204
G1 X73.841 Y-27.512 E208.7136
G1 X75.248 Y-23.39 E209.21338
G1 X76.596 Y-18.5 E209.79543
G1 X77.502 Y-14.24 E210.29518
G1 X78.26 Y-9.223 E210.8774
G1 X78.65 Y-4.885 E211.37719
G1 X78.8 Y0.195 E211.96036
G1 X78.649 Y4.903 E212.50087
G1 X78.258 Y9.241 E213.00066
G1 X77.502 Y14.24 E213.5808
G1 X76.592 Y18.518 E214.08268
G1 X75.243 Y23.407 E214.66464
G1 X73.835 Y27.529 E215.16446
G1 X71.92 Y32.202 E215.74396
G1 X70.022 Y36.143 E216.24589
G1 X67.605 Y40.484 E216.81601
G1 X65.045 Y44.487 E217.36125
G1 X62.443 Y48.071 E217.86945
G1 X59.398 Y51.783 E218.42037
G1 X56.004 Y55.437 E218.99263
G1 X52.856 Y58.447 E219.49241
G1 X49.151 Y61.591 E220.04999
G1 X45.236 Y64.524 E220.61131
G1 X41.541 Y66.963 E221.11934
G1 X37.345 Y69.388 E221.67544
G1 X32.954 Y71.58 E222.23859
G1 X28.965 Y73.284 E222.73633
G1 X24.168 Y75 E223.32094
G1 X19.987 Y76.22 E223.8207
G1 X15.037 Y77.349 E224.40329
G1 X10.393 Y78.112 E224.94332
G1 X6.061 Y78.567 E225.44314
G1 X0.991 Y78.792 E226.02548
G1 X-3.365 Y78.726 E226.52538
G1 X-8.428 Y78.35 E227.10795
G1 X-12.745 Y77.765 E227.60784
G1 X-17.718 Y76.782 E228.18952
G1 X-21.934 Y75.686 E228.68938
G1 X-26.451 Y74.227 E229.23406
G1 X-31.148 Y72.378 E229.81328
G0 F3600 X-30.895 Y71.834
G1 F1800 X-34.942 Y69.955 E230.32528
G1 X-39.119 Y67.71 E230.86942
G1 X-43.038 Y65.291 E231.39788
G1 X-46.808 Y62.643 E231.92653
G1 X-50.472 Y59.728 E232.46379
G1 X-53.925 Y56.63 E232.99611
G1 X-57.428 Y53.072 E233.56905
G1 X-60.512 Y49.529 E234.10804
G1 X-63.366 Y45.825 E234.6446
G1 X-65.819 Y42.226 E235.14438
G1 X-68.377 Y37.945 E235.71663
G1 X-70.391 Y34.063 E236.21846
G1 X-72.424 Y29.498 E236.79188
G1 X-73.954 Y25.42 E237.29167
G1 X-75.421 Y20.654 E237.86387
G1 X-76.458 Y16.406 E238.36563
G1 X-77.352 Y11.49 E238.93898
G1 X-77.87 Y7.183 E239.43676
G1 X-78.168 Y2.163 E240.01381
G1 X-78.158 Y-2.515 E240.5506
G1 X-77.87 Y-7.183 E241.08726
G1 X-77.349 Y-11.508 E241.58713
G1 X-76.454 Y-16.423 E242.16039
G1 X-75.421 Y-20.654 E242.66015
G1 X-73.948 Y-25.437 E243.23442
G1 X-72.417 Y-29.515 E243.73425
G1 X-70.383 Y-34.079 E244.30761
G1 X-68.377 Y-37.945 E244.80739
G1 X-65.809 Y-42.241 E245.3817
G1 X-63.313 Y-45.898 E245.88976
G1 X-60.294 Y-49.798 E246.45569
G1 X-57.428 Y-53.079 E246.95559
G1 X-53.912 Y-56.642 E247.52998
G1 X-50.431 Y-59.764 E248.06653
G1 X-46.852 Y-62.611 E248.5913
G1 X-42.963 Y-65.341 E249.13653
G1 X-38.979 Y-67.793 E249.67333
G1 X-35.048 Y-69.905 E250.18538
G1 X-30.575 Y-71.976 E250.75099
G1 X-26.421 Y-73.603 E251.26291
G1 X-21.972 Y-75.05 E251.79974
G1 X-17.23 Y-76.277 E252.3618
G1 X-12.637 Y-77.173 E252.89876
G1 X-8.32 Y-77.757 E253.39864
G1 X-3.338 Y-78.127 E253.97189
G1 X1.017 Y-78.192 E254.47167
G1 X5.998 Y-77.97 E255.04379
G1 X10.348 Y-77.513 E255.54569
G1 X15.212 Y-76.704 E256.11149
G1 X19.843 Y-75.64 E256.65673
G1 X24.263 Y-74.341 E257.18537
G1 X28.729 Y-72.732 E257.73007
G1 X32.718 Y-71.028 E258.22781
G1 X37.045 Y-68.868 E258.78275
G1 X41.241 Y-66.443 E259.33886
G1 X44.891 Y-64.034 E259.84068
G1 X48.777 Y-61.122 E260.3979
G1 X52.454 Y-58.001 E260.95132
G1 X55.602 Y-54.99 E261.45118
