;FLAVOR:Marlin
;TIME:1962
;Filament used: 2.07034m
;Layer height: 0.12
;MINX:-43.137
;MINY:-75.638
;MINZ:0.18
;MAXX:31.29
;MAXY:-24.241
;MAXZ:17.79
;TARGET_MACHINE.NAME:Unknown
;Generated with Cura_SteamEngine 5.8.1
M140 S50
M105
M190 S50
M104 S230
M105
M109 S230
M82 ;absolute extrusion mode
;FLAVOR:Marlin
M82 ;absolute extrusion mode
G21
G90
M82
M107 T0
G28
G92 E0
G0 E3 F200
G92 E0 ; reset extrusion distance
M106 S255 ; Enable cooling fan full speed
G1 X-98 Y0 Z0.4 F3000 ; move to arc start
G3 X0 Y-98 I98 Z0.4 E40 F400 ; lay arc stripe 90deg
G92 E0 ; reset extrusion distance
G4 P500 ; wait for 0.5 sec
G0 Z10 E-1 ; Lift 15mm and retract 1mm filament
G4 P2000 ; wait for 5 sec
G0 Z15
M107 ; Disable cooling fan
G1 X0 Y-85 Z4 E0 F3000 ; get off the bed
G92 E0
G92 E0
G1 F1500 E-1
;LAYER_COUNT:77
;LAYER:0
M106 S102
G1 F600 Z1.18
G0 F1500 X8.671 Y-24.651 Z1.18
;TYPE:SKIRT
G1 F600 Z0.18
G1 F3600 E0.75698
G1 F1200 X7.339 Y-25.114 E0.80822
G1 X6.368 Y-25.606 E0.84777
G1 X5.247 Y-26.331 E0.89628
G1 X4.332 Y-27.085 E0.93936
G1 X3.692 Y-27.731 E0.9724
G1 X2.873 Y-28.744 E1.01973
G1 X2.389 Y-29.49 E1.05204
G1 X1.795 Y-30.659 E1.09969
G1 X1.379 Y-31.766 E1.14266
G1 X1.151 Y-32.624 E1.17491
G1 X0.948 Y-33.886 E1.22136
G1 X0.905 Y-34.446 E1.24177
G1 X0.893 Y-35.921 E1.29536
G1 X0.846 Y-36.438 E1.31422
G1 X-13.687 Y-36.434 E1.84228
G1 X-13.733 Y-35.921 E1.861
G1 X-13.746 Y-34.422 E1.91546
G1 X-13.811 Y-33.621 E1.94466
G1 X-14.15 Y-32.012 E2.00441
G1 X-14.613 Y-30.68 E2.05565
G1 X-15.104 Y-29.711 E2.09512
G1 X-15.803 Y-28.625 E2.14205
G1 X-16.588 Y-27.669 E2.18699
G1 X-17.295 Y-26.974 E2.22302
G1 X-18.244 Y-26.214 E2.26719
G1 X-18.988 Y-25.731 E2.29942
G1 X-20.118 Y-25.154 E2.34552
G1 X-21.248 Y-24.73 E2.38938
G1 X-22.666 Y-24.378 E2.44246
G1 X-23.829 Y-24.253 E2.48497
G1 X-32.799 Y-24.241 E2.81089
G1 X-34.089 Y-24.364 E2.85798
G1 X-35.721 Y-24.747 E2.91889
G1 X-36.694 Y-25.124 E2.9568
G1 X-37.881 Y-25.731 E3.00524
G1 X-38.608 Y-26.202 E3.03672
G1 X-39.703 Y-27.085 E3.08783
G1 X-40.343 Y-27.731 E3.12087
G1 X-41.162 Y-28.744 E3.1682
G1 X-41.646 Y-29.49 E3.20051
G1 X-42.24 Y-30.659 E3.24816
G1 X-42.656 Y-31.766 E3.29113
G1 X-42.884 Y-32.625 E3.32342
G1 X-43.086 Y-33.899 E3.37029
G1 X-43.137 Y-34.66 E3.398
G1 X-43.125 Y-65.478 E4.51777
G1 X-43.012 Y-66.591 E4.55842
G1 X-42.646 Y-68.165 E4.61714
G1 X-42.185 Y-69.345 E4.66317
G1 X-41.688 Y-70.31 E4.70261
G1 X-41.176 Y-71.107 E4.73703
G1 X-40.287 Y-72.208 E4.78845
G1 X-39.58 Y-72.903 E4.82447
G1 X-38.631 Y-73.663 E4.86865
G1 X-37.887 Y-74.146 E4.90088
G1 X-36.68 Y-74.76 E4.95008
G1 X-35.769 Y-75.105 E4.98548
G1 X-34.626 Y-75.409 E5.02845
G1 X-33.489 Y-75.587 E5.07027
G1 X-32.93 Y-75.631 E5.09064
G1 X-23.972 Y-75.632 E5.41613
G1 X-23.07 Y-75.558 E5.44902
G1 X-21.538 Y-75.236 E5.5059
G1 X-20.612 Y-74.929 E5.54135
G1 X-19.519 Y-74.436 E5.58491
G1 X-18.173 Y-73.62 E5.64211
G1 X-17.168 Y-72.788 E5.68951
G1 X-16.473 Y-72.081 E5.72553
G1 X-15.713 Y-71.132 E5.76971
G1 X-15.23 Y-70.388 E5.80194
G1 X-14.638 Y-69.228 E5.84926
G1 X-14.316 Y-68.4 E5.88154
G1 X-13.943 Y-67.001 E5.93415
G1 X-13.789 Y-65.991 E5.97127
G1 X-13.745 Y-65.43 E5.99172
G1 X-13.733 Y-63.586 E6.05872
G1 X-13.666 Y-63.442 E6.06449
G1 X0.852 Y-63.442 E6.592
G1 X0.893 Y-63.535 E6.5957
G1 X0.906 Y-65.442 E6.66499
G1 X0.956 Y-66.059 E6.68748
G1 X1.13 Y-67.137 E6.72716
G1 X1.484 Y-68.424 E6.77566
G1 X1.979 Y-69.641 E6.8234
G1 X2.681 Y-70.848 E6.87413
G1 X3.622 Y-72.083 E6.93055
G1 X4.424 Y-72.875 E6.9715
G1 X5.372 Y-73.639 E7.01574
G1 X6.312 Y-74.238 E7.05624
G1 X7.67 Y-74.9 E7.11113
G1 X8.864 Y-75.282 E7.15668
G1 X10.082 Y-75.537 E7.2019
G1 X11.321 Y-75.638 E7.24707
G1 X20.117 Y-75.63 E7.56667
G1 X20.97 Y-75.558 E7.59778
G1 X22.497 Y-75.236 E7.65448
G1 X23.384 Y-74.944 E7.68841
G1 X24.602 Y-74.392 E7.737
G1 X25.766 Y-73.69 E7.78639
G1 X26.707 Y-72.933 E7.83027
G1 X27.642 Y-71.987 E7.8786
G1 X28.322 Y-71.132 E7.91829
G1 X28.805 Y-70.388 E7.95052
G1 X29.419 Y-69.181 E7.99973
G1 X29.764 Y-68.27 E8.03512
G1 X30.068 Y-67.127 E8.0781
G1 X30.246 Y-65.998 E8.11963
G1 X30.29 Y-65.442 E8.13989
G1 X30.299 Y-60.728 E8.31118
G1 X30.872 Y-59.649 E8.35557
G1 X31.127 Y-58.841 E8.38635
G1 X31.29 Y-58 E8.41748
G1 X31.267 Y-41.945 E9.00084
G1 X31.106 Y-40.983 E9.03628
G1 X30.798 Y-40.027 E9.07277
G1 X30.297 Y-39.187 E9.10831
G1 X30.289 Y-34.446 E9.28058
G1 X30.222 Y-33.677 E9.30862
G1 X30.03 Y-32.524 E9.35109
G1 X29.39 Y-30.611 E9.42439
G1 X28.806 Y-29.49 E9.47032
G1 X28.322 Y-28.744 E9.50263
G1 X27.451 Y-27.675 E9.55273
G1 X26.733 Y-26.969 E9.58932
G1 X25.925 Y-26.315 E9.62709
G1 X24.822 Y-25.604 E9.67477
G1 X23.953 Y-25.168 E9.7101
G1 X22.787 Y-24.73 E9.75536
G1 X21.369 Y-24.378 E9.80844
G1 X20.206 Y-24.253 E9.85094
G1 X11.109 Y-24.245 E10.18148
G1 X10.28 Y-24.312 E10.2117
G1 X9.539 Y-24.469 E10.23923
G0 F1080 X8.671 Y-24.651
G0 F1500 X8.801 Y-25.029
G1 F1200 X7.52 Y-25.471 E10.28846
G1 X6.549 Y-25.963 E10.32802
G1 X5.501 Y-26.64 E10.37335
G1 X4.616 Y-27.367 E10.41496
G1 X3.976 Y-28.013 E10.448
G1 X3.209 Y-28.962 E10.49234
G1 X2.725 Y-29.708 E10.52465
G1 X2.169 Y-30.8 E10.56918
G1 X1.766 Y-31.869 E10.61069
G1 X1.538 Y-32.727 E10.64294
G1 X1.347 Y-33.917 E10.68674
G1 X1.304 Y-34.477 E10.70714
G1 X1.293 Y-35.936 E10.76016
G1 X1.233 Y-36.597 E10.78427
G1 X1.072 Y-36.77 E10.79286
G1 X0.828 Y-36.838 E10.80207
G1 X-13.685 Y-36.834 E11.3294
G1 X-13.919 Y-36.776 E11.33816
G1 X-14.073 Y-36.599 E11.34668
G1 X-14.133 Y-35.936 E11.37087
G1 X-14.145 Y-34.454 E11.42472
G1 X-14.21 Y-33.653 E11.45392
G1 X-14.528 Y-32.142 E11.51002
G1 X-14.97 Y-30.861 E11.55926
G1 X-15.461 Y-29.892 E11.59873
G1 X-16.113 Y-28.878 E11.64254
G1 X-16.869 Y-27.954 E11.68591
G1 X-17.546 Y-27.286 E11.72047
G1 X-18.462 Y-26.55 E11.76317
G1 X-19.206 Y-26.067 E11.7954
G1 X-20.259 Y-25.528 E11.83838
G1 X-21.345 Y-25.118 E11.88056
G1 X-22.709 Y-24.776 E11.93165
G1 X-23.872 Y-24.651 E11.97415
G1 X-32.799 Y-24.641 E12.29852
G1 X-33.999 Y-24.754 E12.34231
G1 X-35.576 Y-25.12 E12.40114
G1 X-36.549 Y-25.497 E12.43905
G1 X-37.664 Y-26.067 E12.48455
G1 X-38.391 Y-26.538 E12.51603
G1 X-39.419 Y-27.367 E12.56401
G1 X-40.059 Y-28.013 E12.59705
G1 X-40.826 Y-28.962 E12.64139
G1 X-41.31 Y-29.708 E12.6737
G1 X-41.866 Y-30.8 E12.71822
G1 X-42.269 Y-31.869 E12.75973
G1 X-42.497 Y-32.728 E12.79203
G1 X-42.687 Y-33.926 E12.8361
G1 X-42.737 Y-34.66 E12.86283
G1 X-42.727 Y-65.439 E13.98119
G1 X-42.622 Y-66.501 E14.01996
G1 X-42.273 Y-68.019 E14.07656
G1 X-41.812 Y-69.199 E14.12259
G1 X-41.351 Y-70.094 E14.15917
G1 X-40.839 Y-70.891 E14.19359
G1 X-40.006 Y-71.923 E14.24178
G1 X-39.329 Y-72.591 E14.27634
G1 X-38.413 Y-73.327 E14.31903
G1 X-37.669 Y-73.81 E14.35126
G1 X-36.538 Y-74.386 E14.39738
G1 X-35.666 Y-74.718 E14.43128
G1 X-34.523 Y-75.022 E14.47426
G1 X-33.458 Y-75.188 E14.51342
G1 X-32.899 Y-75.232 E14.5338
G1 X-24.005 Y-75.233 E14.85696
G1 X-23.103 Y-75.159 E14.88984
G1 X-21.663 Y-74.856 E14.94331
G1 X-20.776 Y-74.564 E14.97724
G1 X-19.683 Y-74.071 E15.02081
G1 X-18.428 Y-73.312 E15.0741
G1 X-17.453 Y-72.507 E15.12004
G1 X-16.785 Y-71.83 E15.1546
G1 X-16.049 Y-70.914 E15.19729
G1 X-15.566 Y-70.17 E15.22952
G1 X-15.011 Y-69.083 E15.27387
G1 X-14.689 Y-68.255 E15.30615
G1 X-14.338 Y-66.94 E15.3556
G1 X-14.188 Y-65.96 E15.39163
G1 X-14.144 Y-65.399 E15.41207
G1 X-14.133 Y-63.533 E15.47988
G1 X-14.058 Y-63.238 E15.49094
G1 X-13.843 Y-63.075 E15.50074
G1 X-13.663 Y-63.042 E15.50739
G1 X0.812 Y-63.042 E16.03334
G1 X1.077 Y-63.108 E16.04326
G1 X1.181 Y-63.194 E16.04817
G1 X1.292 Y-63.451 E16.05834
G1 X1.305 Y-65.41 E16.12952
G1 X1.355 Y-66.027 E16.15201
G1 X1.516 Y-67.032 E16.18899
G1 X1.855 Y-68.273 E16.23574
G1 X2.35 Y-69.49 E16.28347
G1 X3.026 Y-70.646 E16.33213
G1 X3.903 Y-71.798 E16.38474
G1 X4.705 Y-72.59 E16.42569
G1 X5.588 Y-73.302 E16.46691
G1 X6.487 Y-73.878 E16.5057
G1 X7.845 Y-74.54 E16.5606
G1 X8.946 Y-74.89 E16.60258
G1 X10.164 Y-75.145 E16.64779
G1 X11.321 Y-75.238 E16.68997
G1 X20.083 Y-75.231 E17.00833
G1 X20.936 Y-75.159 E17.03944
G1 X22.372 Y-74.856 E17.09276
G1 X23.259 Y-74.564 E17.12669
G1 X24.395 Y-74.049 E17.17201
G1 X25.559 Y-73.347 E17.2214
G1 X26.455 Y-72.622 E17.26328
G1 X27.329 Y-71.738 E17.30845
G1 X27.986 Y-70.914 E17.34674
G1 X28.469 Y-70.17 E17.37897
G1 X29.045 Y-69.039 E17.42509
G1 X29.377 Y-68.167 E17.459
G1 X29.681 Y-67.024 E17.50197
G1 X29.847 Y-65.966 E17.54088
G1 X29.891 Y-65.41 E17.56115
G1 X29.899 Y-60.628 E17.7349
G1 X30.491 Y-59.527 E17.78032
G1 X30.734 Y-58.765 E17.80938
G1 X30.89 Y-57.96 E17.83918
G1 X30.872 Y-42.011 E18.41869
G1 X30.711 Y-41.049 E18.45413
G1 X30.432 Y-40.196 E18.48674
G1 X29.897 Y-39.298 E18.52472
G1 X29.889 Y-34.447 E18.70098
G1 X29.827 Y-33.743 E18.72666
G1 X29.635 Y-32.59 E18.76913
G1 X29.035 Y-30.795 E18.8379
G1 X28.47 Y-29.708 E18.88241
G1 X27.986 Y-28.962 E18.91472
G1 X27.17 Y-27.96 E18.96167
G1 X26.481 Y-27.28 E18.99685
G1 X25.673 Y-26.626 E19.03462
G1 X24.643 Y-25.962 E19.07915
G1 X23.774 Y-25.526 E19.11447
G1 X22.69 Y-25.118 E19.15656
G1 X21.326 Y-24.776 E19.20765
G1 X20.163 Y-24.651 E19.25015
G1 X11.141 Y-24.644 E19.57797
G1 X10.312 Y-24.711 E19.60819
G1 X9.669 Y-24.847 E19.63207
G0 F1080 X8.801 Y-25.029
G0 F1500 X8.93 Y-25.408
G1 F1200 X7.701 Y-25.828 E19.67926
G1 X6.73 Y-26.32 E19.71881
G1 X5.754 Y-26.95 E19.76102
G1 X4.9 Y-27.649 E19.80112
G1 X4.26 Y-28.295 E19.83416
G1 X3.545 Y-29.18 E19.8755
G1 X3.061 Y-29.926 E19.90781
G1 X2.543 Y-30.942 E19.94925
G1 X2.153 Y-31.972 E19.98927
G1 X1.925 Y-32.83 E20.02152
G1 X1.746 Y-33.948 E20.06266
G1 X1.703 Y-34.508 E20.08307
G1 X1.693 Y-35.951 E20.1355
G1 X1.624 Y-36.71 E20.1632
G1 X1.528 Y-36.9 E20.17093
G1 X1.27 Y-37.13 E20.18349
G1 X0.881 Y-37.238 E20.19816
G1 X-13.732 Y-37.234 E20.72912
G1 X-14.072 Y-37.15 E20.74185
G1 X-14.239 Y-37.052 E20.74888
G1 X-14.361 Y-36.916 E20.75552
G1 X-14.464 Y-36.713 E20.76379
G1 X-14.533 Y-35.951 E20.79159
G1 X-14.544 Y-34.486 E20.84483
G1 X-14.609 Y-33.685 E20.87403
G1 X-14.907 Y-32.271 E20.92653
G1 X-15.327 Y-31.042 E20.97372
G1 X-15.818 Y-30.073 E21.01319
G1 X-16.449 Y-29.095 E21.05548
G1 X-17.15 Y-28.239 E21.09569
G1 X-17.827 Y-27.571 E21.13024
G1 X-18.68 Y-26.886 E21.16999
G1 X-19.424 Y-26.403 E21.20222
G1 X-20.401 Y-25.902 E21.24212
G1 X-21.443 Y-25.506 E21.28262
G1 X-22.752 Y-25.174 E21.33169
G1 X-23.915 Y-25.049 E21.37419
G1 X-32.799 Y-25.041 E21.69699
G1 X-33.91 Y-25.144 E21.73753
G1 X-35.431 Y-25.493 E21.79423
G1 X-36.404 Y-25.87 E21.83215
G1 X-37.447 Y-26.403 E21.87471
G1 X-38.174 Y-26.874 E21.90618
G1 X-39.135 Y-27.649 E21.95104
G1 X-39.775 Y-28.295 E21.98408
G1 X-40.49 Y-29.18 E22.02542
G1 X-40.974 Y-29.926 E22.05773
G1 X-41.492 Y-30.942 E22.09917
G1 X-41.882 Y-31.972 E22.13919
G1 X-42.11 Y-32.831 E22.17148
G1 X-42.288 Y-33.954 E22.2128
G1 X-42.337 Y-34.66 E22.23851
G1 X-42.329 Y-65.401 E23.35548
G1 X-42.232 Y-66.411 E23.39235
G1 X-41.883 Y-67.929 E23.44895
G1 X-41.456 Y-69.016 E23.49138
G1 X-41.014 Y-69.878 E23.52658
G1 X-40.502 Y-70.675 E23.561
G1 X-39.725 Y-71.638 E23.60596
G1 X-39.048 Y-72.306 E23.64052
G1 X-38.195 Y-72.991 E23.68027
G1 X-37.451 Y-73.474 E23.7125
G1 X-36.357 Y-74.029 E23.75707
G1 X-35.563 Y-74.331 E23.78794
G1 X-34.42 Y-74.635 E23.83091
G1 X-33.427 Y-74.789 E23.86742
G1 X-32.868 Y-74.833 E23.8878
G1 X-24.038 Y-74.834 E24.20864
G1 X-23.136 Y-74.76 E24.24152
G1 X-21.787 Y-74.476 E24.29161
G1 X-20.94 Y-74.199 E24.32399
G1 X-19.847 Y-73.706 E24.36756
G1 X-18.682 Y-73.003 E24.417
G1 X-17.738 Y-72.226 E24.46142
G1 X-17.07 Y-71.549 E24.49598
G1 X-16.385 Y-70.696 E24.53573
G1 X-15.902 Y-69.952 E24.56796
G1 X-15.384 Y-68.938 E24.60933
G1 X-15.062 Y-68.11 E24.64161
G1 X-14.733 Y-66.879 E24.68791
G1 X-14.587 Y-65.929 E24.72284
G1 X-14.543 Y-65.368 E24.74328
G1 X-14.533 Y-63.48 E24.81188
G1 X-14.425 Y-63.056 E24.82778
G1 X-14.267 Y-62.86 E24.83693
G1 X-13.985 Y-62.695 E24.8488
G1 X-13.697 Y-62.642 E24.85944
G1 X0.861 Y-62.642 E25.38841
G1 X1.262 Y-62.742 E25.40342
G1 X1.51 Y-62.947 E25.41511
G1 X1.692 Y-63.367 E25.43175
G1 X1.704 Y-65.378 E25.50482
G1 X1.754 Y-65.995 E25.52731
G1 X1.902 Y-66.927 E25.5616
G1 X2.226 Y-68.122 E25.60659
G1 X2.721 Y-69.339 E25.65432
G1 X3.371 Y-70.443 E25.70087
G1 X4.184 Y-71.513 E25.7497
G1 X4.986 Y-72.305 E25.79066
G1 X5.805 Y-72.966 E25.8289
G1 X6.663 Y-73.519 E25.86599
G1 X7.967 Y-74.159 E25.91877
G1 X9.028 Y-74.498 E25.95924
G1 X10.246 Y-74.753 E26.00445
G1 X11.321 Y-74.838 E26.04364
G1 X20.049 Y-74.832 E26.36077
G1 X20.902 Y-74.76 E26.39187
G1 X22.248 Y-74.476 E26.44186
G1 X23.095 Y-74.199 E26.47424
G1 X24.188 Y-73.706 E26.5178
G1 X25.352 Y-73.004 E26.56719
G1 X26.202 Y-72.312 E26.60702
G1 X27.017 Y-71.488 E26.64913
G1 X27.65 Y-70.696 E26.68597
G1 X28.133 Y-69.952 E26.7182
G1 X28.688 Y-68.858 E26.76277
G1 X28.99 Y-68.064 E26.79364
G1 X29.294 Y-66.921 E26.83661
G1 X29.448 Y-65.934 E26.87291
G1 X29.492 Y-65.378 E26.89318
G1 X29.499 Y-60.478 E27.07122
G1 X29.603 Y-60.335 E27.07764
G1 X30.11 Y-59.404 E27.11616
G1 X30.341 Y-58.689 E27.14346
G1 X30.49 Y-57.92 E27.17192
G1 X30.472 Y-42.011 E27.74998
G1 X30.331 Y-41.173 E27.78086
G1 X30.067 Y-40.366 E27.81171
G1 X29.497 Y-39.409 E27.85218
G1 X29.491 Y-34.482 E28.0312
G1 X29.432 Y-33.809 E28.05575
G1 X29.24 Y-32.656 E28.09822
G1 X28.68 Y-30.979 E28.16246
G1 X28.134 Y-29.926 E28.20556
G1 X27.65 Y-29.18 E28.23787
G1 X26.888 Y-28.244 E28.28173
G1 X26.229 Y-27.591 E28.31544
G1 X25.421 Y-26.937 E28.35321
G1 X24.463 Y-26.319 E28.39463
G1 X23.632 Y-25.9 E28.42845
G1 X22.592 Y-25.506 E28.46885
G1 X21.283 Y-25.174 E28.51792
G1 X20.12 Y-25.049 E28.56042
G1 X11.173 Y-25.043 E28.88551
G1 X10.344 Y-25.11 E28.91573
G1 X9.797 Y-25.226 E28.93605
G0 F1080 X8.93 Y-25.408
G0 F1500 X9.058 Y-25.787
G1 F1200 X7.882 Y-26.185 E28.98116
G1 X6.911 Y-26.677 E29.02071
G1 X6.007 Y-27.26 E29.0598
G1 X5.184 Y-27.931 E29.09838
G1 X4.544 Y-28.577 E29.13142
G1 X3.881 Y-29.398 E29.16977
G1 X3.397 Y-30.144 E29.20208
G1 X2.917 Y-31.084 E29.24043
G1 X2.54 Y-32.075 E29.27895
G1 X2.312 Y-32.933 E29.31121
G1 X2.145 Y-33.979 E29.3497
G1 X2.102 Y-34.539 E29.37011
G1 X2.093 Y-35.966 E29.42196
G1 X2.015 Y-36.824 E29.45326
G1 X1.851 Y-37.148 E29.46646
G1 X1.49 Y-37.47 E29.48403
G1 X1.274 Y-37.566 E29.49262
G1 X0.922 Y-37.638 E29.50568
G1 X-13.78 Y-37.634 E30.03987
G1 X-14.224 Y-37.524 E30.05649
G1 X-14.496 Y-37.365 E30.06794
G1 X-14.695 Y-37.143 E30.07877
G1 X-14.855 Y-36.827 E30.09164
G1 X-14.933 Y-35.966 E30.12306
G1 X-14.943 Y-34.518 E30.17567
G1 X-15.008 Y-33.717 E30.20487
G1 X-15.286 Y-32.399 E30.25381
G1 X-15.684 Y-31.223 E30.29892
G1 X-16.175 Y-30.254 E30.3384
G1 X-16.759 Y-29.348 E30.37756
G1 X-17.431 Y-28.524 E30.4162
G1 X-18.108 Y-27.856 E30.45075
G1 X-18.898 Y-27.222 E30.48756
G1 X-19.642 Y-26.739 E30.51979
G1 X-20.544 Y-26.276 E30.55663
G1 X-21.541 Y-25.894 E30.59542
G1 X-22.85 Y-25.562 E30.64449
G1 X-23.956 Y-25.447 E30.68489
G1 X-32.799 Y-25.441 E31.0062
G1 X-33.822 Y-25.534 E31.04353
G1 X-35.286 Y-25.866 E31.09807
G1 X-36.259 Y-26.243 E31.13599
G1 X-37.23 Y-26.739 E31.17561
G1 X-37.957 Y-27.21 E31.20708
G1 X-38.851 Y-27.931 E31.24881
G1 X-39.491 Y-28.577 E31.28185
G1 X-40.154 Y-29.398 E31.3202
G1 X-40.638 Y-30.144 E31.35251
G1 X-41.118 Y-31.084 E31.39086
G1 X-41.495 Y-32.075 E31.42938
G1 X-41.723 Y-32.934 E31.46168
G1 X-41.889 Y-33.982 E31.50023
G1 X-41.937 Y-34.66 E31.52493
G1 X-41.931 Y-65.364 E32.64056
G1 X-41.842 Y-66.323 E32.67555
G1 X-41.511 Y-67.783 E32.72995
G1 X-41.1 Y-68.833 E32.77092
G1 X-40.658 Y-69.695 E32.80612
G1 X-40.166 Y-70.458 E32.8391
G1 X-39.444 Y-71.353 E32.88089
G1 X-38.767 Y-72.021 E32.91544
G1 X-37.977 Y-72.655 E32.95225
G1 X-37.233 Y-73.138 E32.98448
G1 X-36.214 Y-73.655 E33.026
