;FLAVOR:Marlin
;TIME:1734
;Filament used: 0.933191m
;Layer height: 0.12
;MINX:-64.865
;MINY:-35.281
;MINZ:0.24
;MAXX:72.225
;MAXY:-15.087
;MAXZ:7.2
;TARGET_MACHINE.NAME:Unknown
;Generated with Cura_SteamEngine 5.8.1
M140 S50
M105
M190 S50
M104 S220
M105
M109 S220
M82 ;absolute extrusion mode
;FLAVOR:Marlin
M82 ;absolute extrusion mode
G21
G90
M82
M107 T0
G28
G92 E0
G0 E3 F200
G92 E0 ; reset extrusion distance
M106 S255 ; Enable cooling fan full speed
G1 X-98 Y0 Z0.4 F3000 ; move to arc start
G3 X0 Y-98 I98 Z0.4 E40 F400 ; lay arc stripe 90deg
G92 E0 ; reset extrusion distance
G4 P500 ; wait for 0.5 sec
G0 Z10 E-1 ; Lift 15mm and retract 1mm filament
G4 P2000 ; wait for 5 sec
G0 Z15
M107 ; Disable cooling fan
G1 X0 Y-85 Z4 E0 F3000 ; get off the bed
G92 E0
G92 E0
G1 F1500 E-1
;LAYER_COUNT:17
;LAYER:0
M106 S102
G0 F750 X-13.318 Y-16.693 Z0.24
;TYPE:SKIRT
G1 F3600 E0.71493
G1 F1200 X-13.936 Y-16.195 E0.75017
G1 X-14.732 Y-15.799 E0.78965
G1 X-15.511 Y-15.685 E0.82462
G1 X-62.032 Y-15.681 E2.89059
G1 X-62.886 Y-15.867 E2.92941
G1 X-63.634 Y-16.261 E2.96695
G1 X-63.853 Y-16.43 E2.97924
G1 X-64.351 Y-17.048 E3.01448
G1 X-64.747 Y-17.844 E3.05397
G1 X-64.861 Y-18.623 E3.08893
G1 X-64.865 Y-32.404 E3.70094
G1 X-64.683 Y-33.294 E3.74128
G1 X-64.285 Y-34.049 E3.77918
G1 X-64.116 Y-34.269 E3.7915
G1 X-63.498 Y-34.767 E3.82675
G1 X-62.702 Y-35.163 E3.86623
G1 X-61.923 Y-35.277 E3.90119
G1 X-15.446 Y-35.281 E5.96521
G1 X-14.556 Y-35.099 E6.00555
G1 X-13.801 Y-34.701 E6.04346
G1 X-13.581 Y-34.532 E6.05578
G1 X-13.083 Y-33.914 E6.09102
G1 X-12.687 Y-33.118 E6.13051
G1 X-12.573 Y-32.339 E6.16547
G1 X-12.569 Y-18.558 E6.77748
G1 X-12.751 Y-17.668 E6.81782
G1 X-12.968 Y-17.256 E6.8385
G0 F1080 X-13.149 Y-16.913
G0 X-13.318 Y-16.693
G0 F750 X-13.606 Y-16.974
G1 F1200 X-14.152 Y-16.534 E6.86964
G1 X-14.852 Y-16.186 E6.90436
G1 X-15.569 Y-16.081 E6.93654
G1 X-61.988 Y-16.081 E8.99798
G1 X-62.747 Y-16.246 E9.03247
G1 X-63.447 Y-16.615 E9.06762
G1 X-63.572 Y-16.718 E9.07481
G1 X-64.012 Y-17.264 E9.10595
G1 X-64.36 Y-17.964 E9.14067
G1 X-64.465 Y-18.681 E9.17285
G1 X-64.465 Y-32.363 E9.78046
G1 X-64.302 Y-33.159 E9.81654
G1 X-63.931 Y-33.863 E9.85188
G1 X-63.828 Y-33.988 E9.85907
G1 X-63.282 Y-34.428 E9.89021
G1 X-62.582 Y-34.776 E9.92493
G1 X-61.865 Y-34.881 E9.95711
G1 X-15.487 Y-34.881 E12.01673
G1 X-14.691 Y-34.718 E12.05282
G1 X-13.987 Y-34.347 E12.08816
G1 X-13.862 Y-34.244 E12.09535
G1 X-13.422 Y-33.698 E12.12649
G1 X-13.074 Y-32.998 E12.16121
G1 X-12.969 Y-32.281 E12.19339
G1 X-12.969 Y-18.599 E12.801
G1 X-13.132 Y-17.803 E12.83708
G1 X-13.269 Y-17.543 E12.85013
G0 F1080 X-13.503 Y-17.099
G0 X-13.606 Y-16.974
G0 F750 X-13.857 Y-17.285
G1 F1200 X-14.368 Y-16.873 E12.87929
G1 X-14.974 Y-16.572 E12.90933
G1 X-15.569 Y-16.481 E12.93607
G1 X-61.944 Y-16.481 E14.99555
G1 X-62.61 Y-16.626 E15.02582
G1 X-63.261 Y-16.969 E15.0585
G1 X-63.673 Y-17.48 E15.08765
G1 X-63.974 Y-18.086 E15.1177
G1 X-64.065 Y-18.681 E15.14443
G1 X-64.065 Y-32.322 E15.75022
G1 X-63.921 Y-33.024 E15.78205
G1 X-63.577 Y-33.677 E15.81482
G1 X-63.066 Y-34.089 E15.84397
G1 X-62.46 Y-34.39 E15.87402
G1 X-61.865 Y-34.481 E15.90075
G1 X-15.528 Y-34.481 E17.95856
G1 X-14.826 Y-34.337 E17.99038
G1 X-14.173 Y-33.993 E18.02316
G1 X-13.761 Y-33.482 E18.05231
G1 X-13.46 Y-32.876 E18.08236
G1 X-13.369 Y-32.281 E18.10909
G1 X-13.369 Y-18.64 E18.71488
G1 X-13.513 Y-17.938 E18.7467
G1 X-13.548 Y-17.873 E18.74998
G0 F1080 X-13.857 Y-17.285
G0 F750 X-14.174 Y-17.543
G1 F1200 X-14.546 Y-17.231 E18.77154
G1 X-15.095 Y-16.958 E18.79877
G1 X-15.569 Y-16.881 E18.8201
G1 X-61.9 Y-16.881 E20.87763
G1 X-62.471 Y-17.005 E20.90358
G1 X-63.003 Y-17.286 E20.9303
G1 X-63.315 Y-17.658 E20.95186
G1 X-63.588 Y-18.207 E20.97909
G1 X-63.665 Y-18.681 E21.00042
G1 X-63.665 Y-32.281 E21.60438
G1 X-63.541 Y-32.887 E21.63185
G1 X-63.26 Y-33.419 E21.65857
G1 X-62.888 Y-33.731 E21.68013
G1 X-62.339 Y-34.004 E21.70736
G1 X-61.865 Y-34.081 E21.72869
G1 X-15.569 Y-34.081 E23.78467
G1 X-14.963 Y-33.957 E23.81214
G1 X-14.431 Y-33.676 E23.83886
G1 X-14.119 Y-33.304 E23.86042
G1 X-13.846 Y-32.755 E23.88765
G1 X-13.769 Y-32.281 E23.90898
G1 X-13.769 Y-18.681 E24.51294
G1 X-13.881 Y-18.136 E24.53765
G0 F1080 X-13.893 Y-18.075
G0 X-14.174 Y-17.543
G0 F750 X-14.492 Y-17.798
G1 F1200 X-14.247 Y-18.262 E24.56096
G1 X-14.169 Y-18.681 E24.57988
G1 X-14.169 Y-32.281 E25.18385
G1 X-14.231 Y-32.632 E25.19968
G1 X-14.477 Y-33.126 E25.22419
G1 X-14.686 Y-33.358 E25.23806
G1 X-15.15 Y-33.603 E25.26136
G1 X-15.569 Y-33.681 E25.28028
G1 X-61.865 Y-33.681 E27.33627
G1 X-62.216 Y-33.619 E27.35209
G1 X-62.71 Y-33.373 E27.3766
G1 X-62.942 Y-33.164 E27.39047
G1 X-63.187 Y-32.7 E27.41377
G1 X-63.265 Y-32.281 E27.4327
G1 X-63.265 Y-18.681 E28.03667
G1 X-63.203 Y-18.33 E28.0525
G1 X-62.957 Y-17.836 E28.077
G1 X-62.748 Y-17.604 E28.09087
G1 X-62.284 Y-17.359 E28.11417
G1 X-61.865 Y-17.281 E28.1331
G1 X-15.569 Y-17.281 E30.18908
G1 X-15.218 Y-17.343 E30.20491
G1 X-15.039 Y-17.432 E30.21379
G0 F1080 X-14.724 Y-17.589
G0 X-14.492 Y-17.798
G0 F750 X-14.776 Y-18.08
G1 F1200 X-14.914 Y-17.941 E30.22249
G1 X-15.296 Y-17.735 E30.24176
G1 X-15.569 Y-17.681 E30.25412
G1 X-61.865 Y-17.681 E32.3101
G1 X-62.203 Y-17.751 E32.32543
G1 X-62.466 Y-17.888 E32.3386
G1 X-62.605 Y-18.026 E32.3473
G1 X-62.811 Y-18.408 E32.36657
G1 X-62.865 Y-18.681 E32.37893
G1 X-62.865 Y-32.281 E32.9829
G1 X-62.795 Y-32.619 E32.99823
G1 X-62.658 Y-32.882 E33.0114
G1 X-62.52 Y-33.021 E33.02009
G1 X-62.138 Y-33.227 E33.03937
G1 X-61.865 Y-33.281 E33.05173
G1 X-15.569 Y-33.281 E35.10771
G1 X-15.231 Y-33.211 E35.12304
G1 X-14.968 Y-33.074 E35.13621
G1 X-14.829 Y-32.936 E35.1449
G1 X-14.623 Y-32.554 E35.16418
G1 X-14.569 Y-32.281 E35.17654
G1 X-14.569 Y-18.704 E35.77948
G0 F1080 X-14.569 Y-18.681
G0 X-14.639 Y-18.343
G0 X-14.776 Y-18.08
G0 F750 X-15.369 Y-18.681
G1 F1200 X-15.408 Y-18.562 E35.78505
G1 X-15.569 Y-18.481 E35.79305
G1 X-61.865 Y-18.481 E37.84903
G1 X-61.984 Y-18.52 E37.85459
G1 X-62.065 Y-18.681 E37.8626
G1 X-62.065 Y-32.281 E38.46656
G1 X-62.026 Y-32.4 E38.47213
G1 X-61.865 Y-32.481 E38.48013
G1 X-15.569 Y-32.481 E40.53611
G1 X-15.45 Y-32.442 E40.54167
G1 X-15.369 Y-32.281 E40.54967
G1 X-15.369 Y-19.346 E41.12411
G0 F1080 X-15.369 Y-18.681
G0 F750 X-14.969 Y-18.681
G1 F1200 X-14.969 Y-32.281 E41.72808
G1 X-15.012 Y-32.461 E41.7363
G1 X-15.173 Y-32.731 E41.75026
G1 X-15.325 Y-32.822 E41.75813
G1 X-15.569 Y-32.881 E41.76927
G1 X-61.865 Y-32.881 E43.82526
G1 X-62.045 Y-32.838 E43.83347
G1 X-62.315 Y-32.677 E43.84743
G1 X-62.406 Y-32.525 E43.8553
G1 X-62.465 Y-32.281 E43.86645
G1 X-62.465 Y-18.681 E44.47042
G1 X-62.422 Y-18.501 E44.47864
G1 X-62.261 Y-18.231 E44.4926
G1 X-62.109 Y-18.14 E44.50047
G1 X-61.865 Y-18.081 E44.51161
G1 X-15.569 Y-18.081 E46.56759
G1 X-15.389 Y-18.124 E46.57581
G1 X-15.322 Y-18.164 E46.57928
G0 F1080 X-15.119 Y-18.285
G0 X-15.028 Y-18.437
G0 X-14.969 Y-18.681
G1 F1500 E45.57928
G0 F750 X-22.152 Y-25.296
G1 F3600 E47.2942
G1 F1200 X-22.09 Y-25.461 E47.30203
G1 X-22.108 Y-25.587 E47.30768
G1 X-22.173 Y-25.685 E47.31291
G1 X-22.325 Y-25.761 E47.32045
G1 X-22.546 Y-25.695 E47.3307
G1 X-22.633 Y-25.573 E47.33735
G1 X-22.649 Y-25.455 E47.34264
G1 X-22.555 Y-25.27 E47.35185
G1 X-22.458 Y-25.217 E47.35676
G1 X-22.284 Y-25.212 E47.36449
G1 X-22.249 Y-25.235 E47.36635
G0 F1080 X-22.152 Y-25.296
G0 F750 X-21.802 Y-25.089
G1 F1200 X-21.68 Y-25.417 E47.38189
G1 X-21.725 Y-25.734 E47.39611
G1 X-21.88 Y-25.967 E47.40854
G1 X-22.054 Y-26.092 E47.41806
G1 X-22.279 Y-26.167 E47.42859
G1 X-22.578 Y-26.139 E47.44192
G1 X-22.821 Y-25.997 E47.45442
G1 X-23.017 Y-25.724 E47.46935
G1 X-23.056 Y-25.43 E47.48252
G1 X-22.985 Y-25.165 E47.4947
G1 X-22.817 Y-24.958 E47.50654
G1 X-22.588 Y-24.831 E47.51817
G1 X-22.335 Y-24.796 E47.52951
G1 X-22.141 Y-24.831 E47.53827
G1 X-22.02 Y-24.903 E47.54452
G0 F1080 X-21.901 Y-24.974
G0 X-21.802 Y-25.089
G0 F750 X-21.12 Y-24.655
G1 F1200 X-21.372 Y-24.363 E47.56165
G1 X-21.685 Y-24.147 E47.57854
G1 X-21.886 Y-24.063 E47.58821
G1 X-22.314 Y-23.986 E47.60753
G1 X-22.832 Y-24.057 E47.63075
G1 X-23.166 Y-24.212 E47.6471
G1 X-23.36 Y-24.357 E47.65785
G1 X-23.674 Y-24.745 E47.68002
G1 X-23.792 Y-25.013 E47.69302
G1 X-23.865 Y-25.41 E47.71095
G1 X-23.794 Y-25.942 E47.73479
G1 X-23.675 Y-26.214 E47.74797
G1 X-23.36 Y-26.603 E47.7702
G1 X-23.052 Y-26.816 E47.78683
G1 X-22.832 Y-26.907 E47.7974
G1 X-22.435 Y-26.978 E47.81531
G1 X-22.127 Y-26.959 E47.82902
G1 X-21.68 Y-26.81 E47.84994
G1 X-21.327 Y-26.556 E47.86925
G1 X-21.098 Y-26.275 E47.88535
G1 X-20.951 Y-25.969 E47.90043
G1 X-20.872 Y-25.412 E47.92541
G1 X-20.894 Y-25.273 E47.93166
G0 F1080 X-20.92 Y-25.103
G0 X-21.12 Y-24.655
G0 F750 X-21.461 Y-24.872
G1 F1200 X-21.307 Y-25.217 E47.94844
G1 X-21.276 Y-25.414 E47.9573
G1 X-21.338 Y-25.85 E47.97685
G1 X-21.439 Y-26.06 E47.9872
G1 X-21.603 Y-26.261 E47.99872
G1 X-21.867 Y-26.451 E48.01317
G1 X-22.202 Y-26.563 E48.02885
G1 X-22.41 Y-26.576 E48.03811
G1 X-22.718 Y-26.521 E48.052
G1 X-23.085 Y-26.306 E48.07089
G1 X-23.332 Y-26.002 E48.08829
G1 X-23.405 Y-25.834 E48.09642
G1 X-23.461 Y-25.42 E48.11498
G1 X-23.408 Y-25.133 E48.12794
G1 X-23.33 Y-24.957 E48.13649
G1 X-23.078 Y-24.645 E48.1543
G1 X-22.717 Y-24.445 E48.17263
G1 X-22.325 Y-24.391 E48.1902
G1 X-21.998 Y-24.45 E48.20495
G1 X-21.813 Y-24.56 E48.21451
G0 F1080 X-21.642 Y-24.662
G0 X-21.461 Y-24.872
G1 F1500 E47.21451
G0 F750 X-54.8 Y-25.392
G1 F3600 E48.92944
G1 F1200 X-54.812 Y-25.61 E48.93913
G1 X-54.879 Y-25.692 E48.94384
G1 X-55.064 Y-25.757 E48.95254
G1 X-55.199 Y-25.725 E48.95871
G1 X-55.29 Y-25.643 E48.96415
G1 X-55.344 Y-25.5 E48.97093
G1 X-55.326 Y-25.373 E48.97663
G1 X-55.264 Y-25.28 E48.98159
G1 X-55.109 Y-25.201 E48.98932
G1 X-54.89 Y-25.266 E48.99947
G1 X-54.864 Y-25.302 E49.00144
G0 F1080 X-54.8 Y-25.392
G0 F750 X-54.416 Y-25.242
G1 F1200 X-54.378 Y-25.531 E49.01438
G1 X-54.449 Y-25.797 E49.02661
G1 X-54.617 Y-26.004 E49.03845
G1 X-54.846 Y-26.131 E49.05008
G1 X-55.087 Y-26.164 E49.06088
G1 X-55.391 Y-26.09 E49.07477
G1 X-55.631 Y-25.874 E49.08911
G1 X-55.754 Y-25.545 E49.10471
G1 X-55.709 Y-25.228 E49.11893
G1 X-55.555 Y-24.996 E49.1313
G1 X-55.38 Y-24.87 E49.14087
G1 X-55.155 Y-24.795 E49.15141
G1 X-54.856 Y-24.823 E49.16474
G1 X-54.614 Y-24.964 E49.17718
G1 X-54.587 Y-25.002 E49.17925
G0 F1080 X-54.416 Y-25.242
G0 F750 X-53.64 Y-25.021
G1 F1200 X-53.759 Y-24.748 E49.19248
G1 X-54.074 Y-24.359 E49.21471
G1 X-54.382 Y-24.146 E49.23134
G1 X-54.602 Y-24.055 E49.24191
G1 X-54.999 Y-23.984 E49.25982
G1 X-55.307 Y-24.003 E49.27352
G1 X-55.754 Y-24.152 E49.29445
G1 X-56.107 Y-24.406 E49.31376
G1 X-56.336 Y-24.687 E49.32986
G1 X-56.483 Y-24.993 E49.34494
G1 X-56.562 Y-25.551 E49.36996
G1 X-56.514 Y-25.858 E49.38376
G1 X-56.313 Y-26.308 E49.40565
G1 X-56.061 Y-26.6 E49.42278
G1 X-55.749 Y-26.815 E49.43961
G1 X-55.548 Y-26.899 E49.44928
G1 X-55.12 Y-26.976 E49.46859
G1 X-54.602 Y-26.905 E49.49181
G1 X-54.268 Y-26.75 E49.50816
G1 X-54.074 Y-26.605 E49.51892
G1 X-53.76 Y-26.217 E49.54109
G1 X-53.642 Y-25.949 E49.55409
G1 X-53.592 Y-25.678 E49.56633
G0 F1080 X-53.569 Y-25.552
G0 X-53.64 Y-25.021
G0 F750 X-54.028 Y-25.132
G1 F1200 X-53.973 Y-25.542 E49.5847
G1 X-54.026 Y-25.829 E49.59766
G1 X-54.104 Y-26.005 E49.60621
G1 X-54.356 Y-26.317 E49.62402
G1 X-54.717 Y-26.517 E49.64235
G1 X-55.109 Y-26.571 E49.65992
G1 X-55.557 Y-26.462 E49.6804
G1 X-55.791 Y-26.3 E49.69304
G1 X-55.972 Y-26.091 E49.70531
G1 X-56.127 Y-25.744 E49.72219
G1 X-56.158 Y-25.548 E49.731
G1 X-56.096 Y-25.112 E49.75056
G1 X-55.995 Y-24.902 E49.76091
G1 X-55.831 Y-24.701 E49.77243
G1 X-55.567 Y-24.511 E49.78688
G1 X-55.232 Y-24.399 E49.80256
G1 X-55.024 Y-24.386 E49.81182
G1 X-54.716 Y-24.441 E49.82571
G1 X-54.349 Y-24.656 E49.8446
G1 X-54.283 Y-24.737 E49.84924
G0 F1080 X-54.104 Y-24.957
G0 X-54.028 Y-25.132
;MESH:TPU_Nano_Drak_Wings_Joiner.stl(1)
G0 F750 X-54.094 Y-23.617
G0 X-54.984 Y-23.18
;TYPE:WALL-INNER
G1 F900 X-55.533 Y-23.234 E49.87374
G1 X-56.122 Y-23.429 E49.90129
G1 X-56.672 Y-23.839 E49.93176
G1 X-56.97 Y-24.201 E49.95258
G1 X-57.212 Y-24.66 E49.97562
G1 X-57.327 Y-25.08 E49.99496
G1 X-57.36 Y-25.56 E50.01633
G1 X-57.292 Y-26.078 E50.03953
G1 X-57.032 Y-26.658 E50.06776
G1 X-56.629 Y-27.16 E50.09635
G1 X-56.189 Y-27.484 E50.12061
G1 X-55.713 Y-27.683 E50.14352
G1 X-55.124 Y-27.78 E50.17003
G1 X-54.465 Y-27.695 E50.19954
G1 X-53.903 Y-27.459 E50.22661
G1 X-53.517 Y-27.19 E50.24751
G1 X-53.059 Y-26.626 E50.27977
G1 X-52.858 Y-26.116 E50.30412
G1 X-52.764 Y-25.552 E50.32951
G1 X-52.864 Y-24.811 E50.36271
G1 X-53.122 Y-24.257 E50.38985
G1 X-53.524 Y-23.761 E50.41821
G1 X-54.053 Y-23.413 E50.44633
G1 X-54.333 Y-23.307 E50.45962
G0 F810 X-54.436 Y-23.269
G0 X-54.984 Y-23.18
G1 F1500 E49.45962
G0 F750 X-53.993 Y-23.264
G0 X-23.593 Y-23.35
G0 X-22.308 Y-23.18
G1 F3600 E51.17455
G1 F900 X-22.967 Y-23.265 E51.20406
G1 X-23.525 Y-23.495 E51.23086
G1 X-23.912 Y-23.772 E51.25199
G1 X-24.372 Y-24.331 E51.28414
G1 X-24.574 Y-24.844 E51.30863
G1 X-24.668 Y-25.408 E51.33402
G1 X-24.568 Y-26.145 E51.36705
G1 X-24.365 Y-26.635 E51.39061
G1 X-23.902 Y-27.2 E51.42305
G1 X-23.371 Y-27.55 E51.45129
G1 X-22.996 Y-27.687 E51.46902
G1 X-22.448 Y-27.776 E51.49367
G1 X-21.895 Y-27.726 E51.51833
G1 X-21.307 Y-27.531 E51.54584
G1 X-20.759 Y-27.121 E51.57624
G1 X-20.388 Y-26.644 E51.60307
G1 X-20.176 Y-26.178 E51.62581
G1 X-20.097 Y-25.811 E51.64248
G1 X-20.072 Y-25.4 E51.66077
G1 X-20.14 Y-24.882 E51.68397
G1 X-20.4 Y-24.302 E51.7122
G1 X-20.799 Y-23.796 E51.74081
G1 X-21.249 Y-23.472 E51.76544
G1 X-21.657 Y-23.303 E51.78505
G0 F810 X-21.719 Y-23.277
G0 X-22.308 Y-23.18
G1 F1500 E50.78505
G0 F750 X-21.158 Y-23.339
G0 X-21.158 Y-19.46
G0 X-16.168 Y-19.28
G1 F3600 E52.49998
G1 F900 X-16.168 Y-31.68 E53.05065
G1 X-61.264 Y-31.68 E55.05334
G1 X-61.264 Y-19.28 E55.60402
G1 X-16.833 Y-19.28 E57.57718
G0 F810 X-16.168 Y-19.28
G0 F750 X-15.768 Y-18.88
;TYPE:WALL-OUTER
G1 F900 X-15.768 Y-32.08 E58.16338
G1 X-61.664 Y-32.08 E60.2016
G1 X-61.664 Y-18.88 E60.7878
G1 X-16.433 Y-18.88 E62.79649
G0 F810 X-15.768 Y-18.88
G0 F750 X-15.768 Y-19.08
G1 F1500 E61.79649
G0 F750 X-16.039 Y-19.151
G0 X-22.343 Y-19.46
G0 X-22.28 Y-23.008
G0 X-22.303 Y-23.576
G1 F3600 E63.51141
G1 F900 X-22.912 Y-23.661 E63.53872
G1 X-23.357 Y-23.858 E63.56033
G1 X-23.651 Y-24.084 E63.5768
G1 X-24.021 Y-24.534 E63.60267
G1 X-24.181 Y-24.918 E63.62115
G1 X-24.268 Y-25.383 E63.64216
G1 X-24.182 Y-26.041 E63.67163
G1 X-23.999 Y-26.451 E63.69156
G1 X-23.633 Y-26.897 E63.71719
G1 X-23.223 Y-27.178 E63.73926
G1 X-22.924 Y-27.293 E63.75349
G1 X-22.437 Y-27.376 E63.77543
G1 X-22.021 Y-27.346 E63.79395
G1 X-21.494 Y-27.172 E63.8186
G1 X-21.032 Y-26.827 E63.8442
G1 X-20.772 Y-26.507 E63.86251
G1 X-20.565 Y-26.084 E63.88343
G1 X-20.496 Y-25.785 E63.89705
G1 X-20.472 Y-25.4 E63.91418
G1 X-20.526 Y-25.013 E63.93154
G1 X-20.776 Y-24.44 E63.9593
G1 X-21.09 Y-24.07 E63.98085
G1 X-21.475 Y-23.802 E64.00168
G1 X-21.658 Y-23.726 E64.01048
G0 F810 X-21.791 Y-23.671
G0 X-22.303 Y-23.576
G0 F750 X-22.501 Y-23.603
G1 F1500 E63.01048
G0 F750 X-22.541 Y-23.31
G0 X-23.011 Y-23.436
G0 X-24.511 Y-24.247
G0 X-52.925 Y-24.245
G0 X-54.949 Y-23.582
G1 F3600 E64.72541
G1 F900 X-55.358 Y-23.604 E64.7436
G1 X-55.936 Y-23.788 E64.77054
G1 X-56.4 Y-24.133 E64.79621
G1 X-56.66 Y-24.453 E64.81452
G1 X-56.867 Y-24.876 E64.83544
G1 X-56.931 Y-25.136 E64.84733
G1 X-56.96 Y-25.56 E64.8662
G1 X-56.891 Y-25.994 E64.88572
G1 X-56.655 Y-26.521 E64.91136
G1 X-56.338 Y-26.886 E64.93283
G1 X-55.921 Y-27.177 E64.95541
G1 X-55.641 Y-27.289 E64.96881
