;FLAVOR:Marlin
;TIME:15704
;Filament used: 19.3238m
;Layer height: 0.24
;MINX:-24.57
;MINY:-36.206
;MINZ:0.3
;MAXX:33.742
;MAXY:43.68
;MAXZ:63.46
;Generated with Cura_SteamEngine 4.13.1
M140 S50
M105
M190 S50
M104 S220
M105
M109 S220
M82 ;absolute extrusion mode
;FLAVOR:Marlin
M82 ;absolute extrusion mode
G21
G90
M82
M107 T0
G28
G92 E0
G0 E3 F200
G92 E0 ; reset extrusion distance
M106 S255 ; Enable cooling fan full speed
G1 X-98 Y0 Z0.4 F3000 ; move to arc start
G3 X0 Y-98 I98 Z0.4 E40 F400 ; lay arc stripe 90deg
G92 E0 ; reset extrusion distance
G4 P500 ; wait for 0.5 sec
G0 Z10 E-1 ; Lift 15mm and retract 1mm filament
G4 P2000 ; wait for 5 sec
G0 Z15
M107 ; Disable cooling fan
G1 X0 Y-85 Z4 E0 F3000 ; get off the bed
G92 E0
G92 E0
G1 F1500 E-8
;LAYER_COUNT:260
;LAYER:0
M107
G1 F600 Z1.3
G0 F3600 X-9.098 Y-8.415 Z1.3
;TYPE:SKIRT
G1 F600 Z0.3
G1 F1500 E0.24945
G1 X-5.74 Y-27.46 E1.40723
G1 X-5.524 Y-28.276 E1.45776
G1 X-5.275 Y-28.952 E1.50089
G1 X-4.951 Y-29.643 E1.54658
G1 X-4.585 Y-30.275 E1.59031
G1 X-4.154 Y-30.89 E1.63527
G1 X-3.673 Y-31.464 E1.6801
G1 X-3.136 Y-31.999 E1.72548
G1 X-2.585 Y-32.463 E1.76861
G1 X-1.962 Y-32.902 E1.81424
G1 X-1.338 Y-33.267 E1.85752
G1 X-.655 Y-33.59 E1.90275
G1 X0.058 Y-33.853 E1.94825
G1 X0.748 Y-34.044 E1.99111
G1 X1.487 Y-34.181 E2.03611
G1 X1.645 Y-34.204 E2.04566
G1 X17.777 Y-36.179 E3.01867
G1 X18.328 Y-36.206 E3.0517
G1 X18.899 Y-36.149 E3.08605
G1 X30.608 Y-34.085 E3.79786
G1 X31.142 Y-33.951 E3.83082
G1 X31.651 Y-33.74 E3.8638
G1 X32.124 Y-33.458 E3.89677
G1 X32.552 Y-33.11 E3.9298
G1 X32.925 Y-32.705 E3.96276
G1 X33.235 Y-32.249 E3.99577
G1 X33.476 Y-31.754 E4.02873
G1 X33.643 Y-31.229 E4.06172
G1 X33.733 Y-30.685 E4.09473
G1 X33.742 Y-30.134 E4.12772
G1 X33.69 Y-29.683 E4.1549
G1 X23.846 Y26.147 E7.5489
G1 X23.712 Y26.681 E7.58186
G1 X23.501 Y27.19 E7.61485
G1 X23.219 Y27.664 E7.64787
G1 X22.871 Y28.091 E7.68085
G1 X22.466 Y28.464 E7.71381
G1 X22.01 Y28.774 E7.74682
G1 X21.515 Y29.015 E7.77978
G1 X20.99 Y29.182 E7.81276
G1 X20.502 Y29.263 E7.84238
G1 X19.826 Y33.1 E8.07563
G1 X19.692 Y33.634 E8.10859
G1 X19.481 Y34.143 E8.14158
G1 X19.199 Y34.617 E8.1746
G1 X18.851 Y35.044 E8.20758
G1 X18.446 Y35.417 E8.24054
G1 X17.99 Y35.727 E8.27355
G1 X17.495 Y35.968 E8.30651
G1 X16.97 Y36.135 E8.3395
G1 X16.426 Y36.225 E8.37251
G1 X15.875 Y36.234 E8.4055
G1 X15.424 Y36.182 E8.43268
G1 X12.638 Y35.691 E8.60204
G1 X12.651 Y35.822 E8.60992
G1 X12.624 Y36.372 E8.64289
G1 X12.465 Y37.089 E8.68686
G1 X11.667 Y39.541 E8.84123
G1 X11.459 Y40.051 E8.87421
G1 X11.18 Y40.526 E8.90719
G1 X10.834 Y40.955 E8.94018
G1 X10.287 Y41.439 E8.98391
G1 X8.2 Y42.955 E9.13834
G1 X7.732 Y43.246 E9.17133
G1 X7.227 Y43.466 E9.20431
G1 X6.695 Y43.611 E9.23732
G1 X5.883 Y43.68 E9.28611
G1 X2.941 Y43.615 E9.46229
G1 X2.393 Y43.563 E9.49524
G1 X1.857 Y43.432 E9.52828
G1 X1.347 Y43.225 E9.56123
G1 X1.021 Y43.044 E9.58355
G1 X-.935 Y41.83 E9.72138
G1 X-1.58 Y41.892 E9.76017
G1 X-3.976 Y41.892 E9.90361
G1 X-4.526 Y41.852 E9.93663
G1 X-5.064 Y41.733 E9.96962
G1 X-5.579 Y41.537 E10.0026
G1 X-6.209 Y41.167 E10.04635
G1 X-6.825 Y40.72 E10.09191
G1 X-7.024 Y40.739 E10.10388
G1 X-9.432 Y40.739 E10.24804
G1 X-9.982 Y40.699 E10.28106
G1 X-10.52 Y40.58 E10.31404
G1 X-11.035 Y40.384 E10.34703
G1 X-11.665 Y40.014 E10.39077
G1 X-13.616 Y38.597 E10.53513
G1 X-14.037 Y38.241 E10.56814
G1 X-14.239 Y38.036 E10.58537
G1 X-14.79 Y38.024 E10.61837
G1 X-15.333 Y37.932 E10.65134
G1 X-15.857 Y37.763 E10.6843
G1 X-16.352 Y37.52 E10.71731
G1 X-16.664 Y37.316 E10.73963
G1 X-18.615 Y35.899 E10.88399
G1 X-19.036 Y35.543 E10.917
G1 X-19.402 Y35.131 E10.94999
G1 X-19.704 Y34.67 E10.98298
G1 X-19.995 Y34 E11.02672
G1 X-20.741 Y31.708 E11.17102
G1 X-20.874 Y31.173 E11.20402
G1 X-20.927 Y30.625 E11.23699
G1 X-20.91 Y30.281 E11.25761
G1 X-22.699 Y25.287 E11.57519
G1 X-22.847 Y24.756 E11.60819
G1 X-22.917 Y24.209 E11.64121
G1 X-22.906 Y23.682 E11.67277
G1 X-22.951 Y23.545 E11.6814
G1 X-23.083 Y23.01 E11.71439
G1 X-23.137 Y22.462 E11.74736
G1 X-23.11 Y21.911 E11.78038
G1 X-23.073 Y21.741 E11.7908
G1 X-23.884 Y18.095 E12.01441
G1 X-23.965 Y17.549 E12.04746
G1 X-23.954 Y16.865 E12.08841
G1 X-23.908 Y16.43 E12.1146
G1 X-24.391 Y14.274 E12.24688
G1 X-24.472 Y13.729 E12.27986
G1 X-24.466 Y13.088 E12.31824
G1 X-24.353 Y11.88 E12.39088
G1 X-24.532 Y10.625 E12.46677
G1 X-24.57 Y10.076 E12.49972
G1 X-24.528 Y9.526 E12.53274
G1 X-24.384 Y8.914 E12.57038
G1 X-23.515 Y6.242 E12.7386
G1 X-23.307 Y5.731 E12.77163
G1 X-23.027 Y5.257 E12.80459
G1 X-22.682 Y4.827 E12.83759
G1 X-22.418 Y4.593 E12.85871
G1 X-22.146 Y4.089 E12.893
G1 X-21.88 Y3.664 E12.92302
G1 X-21.525 Y3.174 E12.95924
G1 X-20.561 Y-1.291 E13.23271
G1 X-20.521 Y-1.46 E13.24311
G1 X-19.738 Y-4.424 E13.42665
G1 X-19.559 Y-4.945 E13.45963
G1 X-19.307 Y-5.434 E13.49256
G1 X-18.986 Y-5.883 E13.52561
G1 X-18.604 Y-6.28 E13.55859
G1 X-18.297 Y-6.527 E13.58218
G1 X-16.012 Y-8.187 E13.75127
G1 X-15.544 Y-8.478 E13.78426
G1 X-15.039 Y-8.698 E13.81724
G1 X-14.507 Y-8.843 E13.85025
G1 X-13.779 Y-8.913 E13.89403
G1 X-10.958 Y-8.913 E14.06292
G1 X-10.408 Y-8.873 E14.09594
G1 X-9.87 Y-8.754 E14.12892
G1 X-9.577 Y-8.642 E14.1477
G0 F1350 X-9.355 Y-8.558
G0 X-9.098 Y-8.415
G0 F3600 X-9.448 Y-8.159
G1 F1500 X-8.83 Y-7.765 E14.19158
G1 X-8.809 Y-7.748 E14.1932
G1 X-5.346 Y-27.39 E15.38727
G1 X-5.14 Y-28.162 E15.4351
G1 X-4.902 Y-28.808 E15.47632
G1 X-4.593 Y-29.466 E15.51984
G1 X-4.243 Y-30.068 E15.56153
G1 X-3.831 Y-30.655 E15.60446
G1 X-3.371 Y-31.201 E15.64721
G1 X-2.86 Y-31.71 E15.69039
G1 X-2.333 Y-32.153 E15.7316
G1 X-1.738 Y-32.57 E15.7751
G1 X-1.142 Y-32.918 E15.81642
G1 X-.491 Y-33.226 E15.85954
G1 X0.188 Y-33.475 E15.90284
G1 X0.848 Y-33.657 E15.94382
G1 X1.552 Y-33.786 E15.98667
G1 X1.694 Y-33.807 E15.99527
G1 X17.826 Y-35.782 E16.96827
G1 X18.346 Y-35.805 E16.99943
G1 X18.829 Y-35.755 E17.0285
G1 X30.538 Y-33.691 E17.74031
G1 X31.043 Y-33.562 E17.77151
G1 X31.522 Y-33.357 E17.80271
G1 X31.964 Y-33.081 E17.8339
G1 X32.359 Y-32.74 E17.86514
G1 X32.697 Y-32.344 E17.89631
G1 X32.97 Y-31.9 E17.92752
G1 X33.173 Y-31.42 E17.95872
G1 X33.3 Y-30.914 E17.98995
G1 X33.348 Y-30.395 E18.02116
G1 X33.296 Y-29.753 E18.05972
G1 X23.452 Y26.077 E21.45372
G1 X23.323 Y26.582 E21.48492
G1 X23.118 Y27.061 E21.51612
G1 X22.842 Y27.503 E21.54731
G1 X22.501 Y27.898 E21.57856
G1 X22.105 Y28.236 E21.60972
G1 X21.661 Y28.51 E21.64096
G1 X21.181 Y28.712 E21.67214
G1 X20.675 Y28.839 E21.70337
G1 X20.162 Y28.886 E21.73421
G1 X19.432 Y33.03 E21.98613
G1 X19.303 Y33.535 E22.01733
G1 X19.098 Y34.014 E22.04852
G1 X18.822 Y34.456 E22.07972
G1 X18.481 Y34.851 E22.11096
G1 X18.085 Y35.189 E22.14213
G1 X17.641 Y35.462 E22.17333
G1 X17.161 Y35.665 E22.20454
G1 X16.655 Y35.792 E22.23577
G1 X16.136 Y35.84 E22.26697
G1 X15.494 Y35.788 E22.30553
G1 X12.167 Y35.201 E22.50779
G1 X12.208 Y35.368 E22.51809
G1 X12.252 Y35.888 E22.54933
G1 X12.216 Y36.408 E22.58054
G1 X12.085 Y36.965 E22.61479
G1 X11.287 Y39.417 E22.76917
G1 X11.088 Y39.899 E22.80039
G1 X10.818 Y40.345 E22.8316
G1 X10.483 Y40.744 E22.86279
G1 X10.052 Y41.116 E22.89688
G1 X7.965 Y42.632 E23.05131
G1 X7.521 Y42.905 E23.08251
G1 X7.041 Y43.107 E23.11369
G1 X6.535 Y43.233 E23.14491
G1 X5.892 Y43.28 E23.1835
G1 X2.95 Y43.215 E23.35968
G1 X2.431 Y43.164 E23.3909
G1 X1.927 Y43.034 E23.42206
G1 X1.232 Y42.705 E23.4681
G1 X-.86 Y41.407 E23.61549
G1 X-1.014 Y41.445 E23.62499
G1 X-1.58 Y41.492 E23.65899
G1 X-3.976 Y41.492 E23.80243
G1 X-4.496 Y41.452 E23.83366
G1 X-5.003 Y41.333 E23.86483
G1 X-5.486 Y41.138 E23.89602
G1 X-5.974 Y40.843 E23.93016
G1 X-6.704 Y40.312 E23.9842
G1 X-7.024 Y40.339 E24.00343
G1 X-9.432 Y40.339 E24.14759
G1 X-9.952 Y40.299 E24.17881
G1 X-10.459 Y40.18 E24.20999
G1 X-10.942 Y39.985 E24.24117
G1 X-11.43 Y39.69 E24.27531
G1 X-13.381 Y38.273 E24.41967
G1 X-13.778 Y37.935 E24.45089
G1 X-14.045 Y37.626 E24.47534
G1 X-14.259 Y37.637 E24.48817
G1 X-14.78 Y37.623 E24.51937
G1 X-15.293 Y37.53 E24.55058
G1 X-15.785 Y37.36 E24.58175
G1 X-16.429 Y36.992 E24.62615
G1 X-18.38 Y35.575 E24.77051
G1 X-18.777 Y35.237 E24.80173
G1 X-19.118 Y34.843 E24.83292
G1 X-19.394 Y34.401 E24.86412
G1 X-19.615 Y33.876 E24.89822
G1 X-20.361 Y31.584 E25.04252
G1 X-20.484 Y31.078 E25.0737
G1 X-20.528 Y30.559 E25.10488
G1 X-20.505 Y30.227 E25.12481
G1 X-22.323 Y25.152 E25.44754
G1 X-22.46 Y24.649 E25.47875
G1 X-22.52 Y24.131 E25.50997
G1 X-22.5 Y23.638 E25.53951
G1 X-22.571 Y23.421 E25.55318
G1 X-22.694 Y22.915 E25.58436
G1 X-22.738 Y22.396 E25.61554
G1 X-22.702 Y21.876 E25.64675
G1 X-22.667 Y21.725 E25.65603
G1 X-23.494 Y18.008 E25.884
G1 X-23.568 Y17.492 E25.91521
G1 X-23.556 Y16.908 E25.95018
G1 X-23.503 Y16.408 E25.98028
G1 X-24.001 Y14.186 E26.11661
G1 X-24.075 Y13.67 E26.14781
G1 X-24.068 Y13.125 E26.18044
G1 X-23.951 Y11.87 E26.25591
G1 X-24.136 Y10.569 E26.33458
G1 X-24.17 Y10.049 E26.36578
G1 X-24.124 Y9.53 E26.39697
G1 X-24.003 Y9.037 E26.42736
G1 X-23.134 Y6.365 E26.59558
G1 X-22.936 Y5.884 E26.62672
G1 X-22.666 Y5.438 E26.65793
G1 X-22.331 Y5.039 E26.68912
G1 X-22.093 Y4.833 E26.70796
G1 X-21.794 Y4.279 E26.74565
G1 X-21.556 Y3.899 E26.7725
G1 X-21.152 Y3.341 E26.81374
G1 X-20.17 Y-1.207 E27.0923
G1 X-20.134 Y-1.357 E27.10153
G1 X-19.351 Y-4.321 E27.28507
G1 X-19.18 Y-4.814 E27.31631
G1 X-18.935 Y-5.274 E27.34751
G1 X-18.623 Y-5.691 E27.37869
G1 X-18.062 Y-6.204 E27.4242
G1 X-15.777 Y-7.864 E27.59329
G1 X-15.333 Y-8.137 E27.62449
G1 X-14.853 Y-8.339 E27.65567
G1 X-14.347 Y-8.465 E27.68689
G1 X-13.779 Y-8.513 E27.72101
G1 X-10.958 Y-8.513 E27.8899
G1 X-10.438 Y-8.473 E27.92113
G1 X-9.942 Y-8.356 E27.95164
G0 F1350 X-9.931 Y-8.354
G0 X-9.448 Y-8.159
G0 F3600 X-9.546 Y-7.76
G1 F1500 X-9.08 Y-7.453 E27.98504
G1 X-8.533 Y-7.014 E28.02703
G1 X-4.952 Y-27.321 E29.26154
G1 X-4.757 Y-28.048 E29.3066
G1 X-4.529 Y-28.664 E29.34592
G1 X-4.234 Y-29.288 E29.38725
G1 X-3.9 Y-29.862 E29.427
G1 X-3.508 Y-30.419 E29.46778
G1 X-3.07 Y-30.938 E29.50844
G1 X-2.583 Y-31.421 E29.5495
G1 X-2.08 Y-31.843 E29.58881
G1 X-1.515 Y-32.238 E29.63008
G1 X-.946 Y-32.569 E29.66949
G1 X-.327 Y-32.861 E29.71047
G1 X0.319 Y-33.097 E29.75164
G1 X0.948 Y-33.269 E29.79068
G1 X1.617 Y-33.392 E29.83141
G1 X1.742 Y-33.41 E29.83897
G1 X17.874 Y-35.385 E30.81197
G1 X18.364 Y-35.404 E30.84133
G1 X18.76 Y-35.361 E30.86518
G1 X30.469 Y-33.297 E31.57698
G1 X30.942 Y-33.173 E31.60626
G1 X31.389 Y-32.974 E31.63555
G1 X31.798 Y-32.705 E31.66486
G1 X32.157 Y-32.372 E31.69417
G1 X32.458 Y-31.986 E31.72348
G1 X32.692 Y-31.556 E31.75279
G1 X32.853 Y-31.094 E31.78208
G1 X32.936 Y-30.611 E31.81142
G1 X32.94 Y-30.122 E31.84069
G1 X32.902 Y-29.822 E31.8588
G1 X23.058 Y26.008 E35.2528
G1 X22.934 Y26.481 E35.28207
G1 X22.735 Y26.928 E35.31137
G1 X22.466 Y27.337 E35.34067
G1 X22.133 Y27.697 E35.37003
G1 X21.747 Y27.997 E35.3993
G1 X21.317 Y28.231 E35.42861
G1 X20.855 Y28.392 E35.4579
G1 X20.372 Y28.475 E35.48724
G1 X19.829 Y28.472 E35.51975
G1 X19.038 Y32.961 E35.79264
G1 X18.914 Y33.434 E35.82191
G1 X18.715 Y33.881 E35.85121
G1 X18.446 Y34.29 E35.88051
G1 X18.113 Y34.649 E35.90983
G1 X17.727 Y34.95 E35.93913
G1 X17.297 Y35.184 E35.96844
G1 X16.835 Y35.345 E35.99773
G1 X16.352 Y35.428 E36.02707
G1 X15.863 Y35.432 E36.05635
G1 X15.563 Y35.394 E36.07445
G1 X11.611 Y34.697 E36.3147
G1 X11.818 Y35.462 E36.36215
G1 X11.852 Y35.95 E36.39144
G1 X11.806 Y36.437 E36.42072
G1 X11.705 Y36.841 E36.44565
G1 X10.907 Y39.293 E36.60003
G1 X10.718 Y39.745 E36.62936
G1 X10.458 Y40.16 E36.65868
G1 X10.134 Y40.527 E36.68799
G1 X9.817 Y40.792 E36.71272
G1 X7.73 Y42.308 E36.86715
G1 X7.312 Y42.563 E36.89647
G1 X6.858 Y42.746 E36.92577
G1 X6.38 Y42.852 E36.95509
G1 X5.901 Y42.88 E36.98381
G1 X2.959 Y42.815 E37.15999
G1 X2.472 Y42.765 E37.1893
G1 X2 Y42.635 E37.21861
G1 X1.443 Y42.365 E37.25566
G1 X-.789 Y40.979 E37.41296
G1 X-1.169 Y41.064 E37.43627
G1 X-1.58 Y41.092 E37.46093
G1 X-3.976 Y41.092 E37.60438
G1 X-4.464 Y41.052 E37.63369
G1 X-4.939 Y40.933 E37.66301
G1 X-5.388 Y40.739 E37.69229
G1 X-5.739 Y40.519 E37.71709
G1 X-6.585 Y39.905 E37.77967
G1 X-7.024 Y39.939 E37.80603
G1 X-9.432 Y39.939 E37.95019
G1 X-9.92 Y39.899 E37.97951
G1 X-10.395 Y39.78 E38.00882
G1 X-10.844 Y39.586 E38.03811
G1 X-11.195 Y39.366 E38.06291
G1 X-13.146 Y37.949 E38.20727
G1 X-13.517 Y37.63 E38.23656
G1 X-13.855 Y37.216 E38.26856
G1 X-14.769 Y37.222 E38.32328
G1 X-15.249 Y37.127 E38.35257
G1 X-15.707 Y36.956 E38.38184
G1 X-16.194 Y36.668 E38.41571
G1 X-18.145 Y35.251 E38.56007
G1 X-18.516 Y34.932 E38.58936
G1 X-18.831 Y34.557 E38.61868
G1 X-19.08 Y34.136 E38.64797
G1 X-19.235 Y33.752 E38.67276
G1 X-19.981 Y31.46 E38.81706
G1 X-20.094 Y30.984 E38.84635
G1 X-20.128 Y30.496 E38.87564
G1 X-20.098 Y30.176 E38.89488
G1 X-21.946 Y25.017 E39.22296
G1 X-22.073 Y24.544 E39.25228
G1 X-22.122 Y24.057 E39.28158
G1 X-22.092 Y23.598 E39.30912
G1 X-22.304 Y22.821 E39.35734
G1 X-22.338 Y22.333 E39.38662
G1 X-22.259 Y21.713 E39.42404
G1 X-23.103 Y17.921 E39.65662
G1 X-23.17 Y17.436 E39.68593
G1 X-23.158 Y16.95 E39.71503
G1 X-23.097 Y16.383 E39.74918
G1 X-23.61 Y14.098 E39.88938
G1 X-23.678 Y13.614 E39.91864
G1 X-23.67 Y13.162 E39.94571
G1 X-23.548 Y11.859 E40.02406
G1 X-23.74 Y10.513 E40.10545
G1 X-23.769 Y10.024 E40.13478
G1 X-23.719 Y9.537 E40.16409
G1 X-23.623 Y9.161 E40.18732
G1 X-22.754 Y6.489 E40.35554
G1 X-22.565 Y6.038 E40.38481
G1 X-22.305 Y5.623 E40.41413
G1 X-21.981 Y5.256 E40.44344
G1 X-21.772 Y5.08 E40.4598
G1 X-21.442 Y4.469 E40.50137
G1 X-21.232 Y4.133 E40.52509
G1 X-20.779 Y3.507 E40.57135
G1 X-19.779 Y-1.122 E40.85488
G1 X-19.747 Y-1.255 E40.86307
G1 X-18.964 Y-4.219 E41.0466
G1 X-18.801 Y-4.681 E41.07593
G1 X-18.565 Y-5.109 E41.1052
G1 X-18.263 Y-5.494 E41.13449
G1 X-17.827 Y-5.88 E41.16935
G1 X-15.542 Y-7.54 E41.33844
G1 X-15.124 Y-7.795 E41.36775
G1 X-14.67 Y-7.978 E41.39706
G1 X-14.192 Y-8.084 E41.42637
G1 X-13.779 Y-8.113 E41.45116
G1 X-10.958 Y-8.113 E41.62005
G1 X-10.47 Y-8.073 E41.64936
G1 X-10.036 Y-7.964 E41.67615
G0 F1350 X-9.995 Y-7.954
G0 X-9.546 Y-7.76
G0 F3600 X-9.652 Y-7.361
G1 F1500 X-9.331 Y-7.141 E41.69945
G1 X-8.389 Y-6.385 E41.77176
G1 X-8.259 Y-6.261 E41.78251
G1 X-4.558 Y-27.251 E43.05853
G1 X-4.373 Y-27.934 E43.1009
G1 X-4.156 Y-28.52 E43.13831
G1 X-3.875 Y-29.111 E43.17749
G1 X-3.558 Y-29.655 E43.21518
G1 X-3.185 Y-30.183 E43.25388
G1 X-2.769 Y-30.675 E43.29246
G1 X-2.306 Y-31.132 E43.3314
G1 X-1.827 Y-31.533 E43.3688
G1 X-1.291 Y-31.907 E43.40793
G1 X-.75 Y-32.221 E43.44538
G1 X-.163 Y-32.496 E43.48419
G1 X0.45 Y-32.719 E43.52324
G1 X1.047 Y-32.882 E43.56029
G1 X1.683 Y-32.997 E43.59898
G1 X1.791 Y-33.013 E43.60552
G1 X17.923 Y-34.988 E44.57853
G1 X18.378 Y-35.003 E44.60578
G1 X18.69 Y-34.968 E44.62458
G1 X30.399 Y-32.904 E45.33638
G1 X30.839 Y-32.785 E45.36367
G1 X31.252 Y-32.592 E45.39096
G1 X31.625 Y-32.33 E45.41825
G1 X31.946 Y-32.007 E45.44551
G1 X32.206 Y-31.633 E45.47278
G1 X32.396 Y-31.219 E45.50005
G1 X32.511 Y-30.778 E45.52734
G1 X32.548 Y-30.324 E45.55461
G1 X32.509 Y-29.892 E45.58058
G1 X22.665 Y25.938 E48.97458
G1 X22.546 Y26.379 E49.00193
G1 X22.353 Y26.791 E49.02917
G1 X22.091 Y27.164 E49.05645
G1 X21.768 Y27.485 E49.08372
G1 X21.393 Y27.745 E49.11104
G1 X20.98 Y27.935 E49.13825
G1 X20.539 Y28.05 E49.16554
G1 X20.085 Y28.087 E49.19281
G1 X19.504 Y28.021 E49.22782
G1 X18.645 Y32.891 E49.52387
G1 X18.526 Y33.331 E49.55116
G1 X18.333 Y33.744 E49.57845
G1 X18.071 Y34.117 E49.60574
G1 X17.748 Y34.438 E49.63301
G1 X17.374 Y34.698 E49.66028
G1 X16.96 Y34.888 E49.68755
G1 X16.519 Y35.003 E49.71483
G1 X16.065 Y35.04 E49.7421
G1 X15.632 Y35 E49.76814
G1 X11.001 Y34.183 E50.04967
