;FLAVOR:Marlin
;TIME:2416
;Filament used: 2.70924m
;Layer height: 0.24
;MINX:37.557
;MINY:-16.676
;MINZ:0.3
;MAXX:56.655
;MAXY:16.671
;MAXZ:38.02
;Generated with Cura_SteamEngine 4.13.1
M140 S50
M105
M190 S50
M104 S220
M105
M109 S220
M82 ;absolute extrusion mode
;FLAVOR:Marlin
M82 ;absolute extrusion mode
G21
G90
M82
M107 T0
G28
G92 E0
G0 E3 F200
G92 E0 ; reset extrusion distance
M106 S255 ; Enable cooling fan full speed
G1 X-98 Y0 Z0.4 F3000 ; move to arc start
G3 X0 Y-98 I98 Z0.4 E40 F400 ; lay arc stripe 90deg
G92 E0 ; reset extrusion distance
G4 P500 ; wait for 0.5 sec
G0 Z10 E-1 ; Lift 15mm and retract 1mm filament
G4 P2000 ; wait for 5 sec
G0 Z15
M107 ; Disable cooling fan
G1 X0 Y-85 Z4 E0 F3000 ; get off the bed
G92 E0
G92 E0
G1 F1500 E-8
;LAYER_COUNT:154
;LAYER:0
M107
G1 F600 Z1.3
G0 F3600 X37.707 Y-5.279 Z1.3
;TYPE:SKIRT
G1 F600 Z0.3
G1 F1500 E0.24945
G1 X37.605 Y-6.073 E0.29738
G1 X37.564 Y-6.719 E0.33613
G1 X37.557 Y-7.239 E0.36726
G1 X37.579 Y-7.784 E0.39992
G1 X37.63 Y-8.308 E0.43144
G1 X37.711 Y-8.839 E0.4636
G1 X37.825 Y-9.375 E0.4964
G1 X37.963 Y-9.881 E0.5278
G1 X38.138 Y-10.405 E0.56088
G1 X38.323 Y-10.871 E0.59089
G1 X38.553 Y-11.374 E0.62401
G1 X38.811 Y-11.859 E0.65689
G1 X39.081 Y-12.302 E0.68795
G1 X39.381 Y-12.741 E0.71979
G1 X39.723 Y-13.183 E0.75325
G1 X40.066 Y-13.577 E0.78452
G1 X40.435 Y-13.958 E0.81627
G1 X40.826 Y-14.32 E0.84817
G1 X41.244 Y-14.665 E0.88062
G1 X41.675 Y-14.981 E0.91262
G1 X42.131 Y-15.277 E0.94516
G1 X42.57 Y-15.53 E0.9755
G1 X43.084 Y-15.788 E1.00993
G1 X43.559 Y-15.992 E1.04088
G1 X44.068 Y-16.179 E1.07334
G1 X44.568 Y-16.332 E1.10465
G1 X45.095 Y-16.462 E1.13714
G1 X45.632 Y-16.561 E1.16984
G1 X46.152 Y-16.628 E1.20122
G1 X46.685 Y-16.667 E1.23322
G1 X47.22 Y-16.676 E1.26525
G1 X47.763 Y-16.654 E1.29779
G1 X48.287 Y-16.603 E1.32931
G1 X48.818 Y-16.522 E1.36147
G1 X49.354 Y-16.408 E1.39427
G1 X49.86 Y-16.27 E1.42567
G1 X50.384 Y-16.095 E1.45875
G1 X50.85 Y-15.91 E1.48876
G1 X51.367 Y-15.673 E1.52281
G1 X51.826 Y-15.427 E1.55399
G1 X52.289 Y-15.147 E1.58638
G1 X52.72 Y-14.851 E1.61769
G1 X53.155 Y-14.515 E1.65059
G1 X53.556 Y-14.167 E1.68238
G1 X53.943 Y-13.792 E1.71464
G1 X54.294 Y-13.411 E1.74566
G1 X54.644 Y-12.989 E1.77848
G1 X54.96 Y-12.558 E1.81047
G1 X55.256 Y-12.102 E1.84302
G1 X55.509 Y-11.663 E1.87336
G1 X55.767 Y-11.149 E1.90779
G1 X55.97 Y-10.678 E1.93849
G1 X56.158 Y-10.166 E1.97115
G1 X56.312 Y-9.66 E2.00281
G1 X56.44 Y-9.142 E2.03476
G1 X56.54 Y-8.602 E2.06763
G1 X56.606 Y-8.089 E2.0986
G1 X56.646 Y-7.553 E2.13078
G1 X56.655 Y-7.041 E2.16144
G1 X56.62 Y-6.215 E2.21093
G1 X56.553 Y-5.576 E2.2494
G1 X56.417 Y-4.783 E2.29756
G1 X56.276 Y-4.19 E2.33406
G1 X56.054 Y-3.45 E2.38031
G1 X55.86 Y-2.916 E2.41432
G1 X55.584 Y-2.263 E2.45677
G1 X55.25 Y-1.577 E2.50245
G1 X54.916 Y-.961 E2.5444
G1 X54.866 Y-.873 E2.55046
G1 X54.564 Y-.364 E2.58589
G1 X54.043 Y0.489 E2.64573
G1 X54.437 Y1.387 E2.70444
G1 X54.652 Y1.892 E2.7373
G1 X54.865 Y2.424 E2.7716
G1 X55.096 Y3.061 E2.81217
G1 X55.312 Y3.744 E2.85506
G1 X55.513 Y4.506 E2.90224
G1 X55.672 Y5.254 E2.94802
G1 X55.762 Y5.809 E2.98168
G1 X55.844 Y6.516 E3.02429
G1 X55.883 Y7.064 E3.05718
G1 X55.906 Y7.829 E3.103
G1 X55.88 Y8.531 E3.14506
G1 X55.826 Y9.049 E3.17624
G1 X55.736 Y9.589 E3.20901
G1 X55.617 Y10.108 E3.24089
G1 X55.467 Y10.618 E3.27272
G1 X55.279 Y11.135 E3.30565
G1 X54.961 Y11.84 E3.35195
G1 X54.683 Y12.346 E3.38652
G1 X54.406 Y12.785 E3.41759
G1 X54.105 Y13.207 E3.44863
G1 X53.746 Y13.645 E3.48253
G1 X53.404 Y14.017 E3.51278
G1 X53.02 Y14.388 E3.54475
G1 X52.614 Y14.734 E3.57669
G1 X52.18 Y15.061 E3.60922
G1 X51.747 Y15.347 E3.64029
G1 X51.293 Y15.612 E3.67176
G1 X50.805 Y15.856 E3.70442
G1 X50.315 Y16.065 E3.73631
G1 X49.828 Y16.24 E3.76729
G1 X49.302 Y16.393 E3.80009
G1 X48.8 Y16.507 E3.83091
G1 X48.267 Y16.595 E3.86325
G1 X47.74 Y16.649 E3.89497
G1 X47.213 Y16.671 E3.92655
G1 X46.684 Y16.662 E3.95822
G1 X46.145 Y16.62 E3.99059
G1 X45.62 Y16.546 E4.02233
G1 X45.101 Y16.441 E4.05403
G1 X44.586 Y16.304 E4.08593
G1 X44.083 Y16.137 E4.11766
G1 X43.581 Y15.935 E4.15006
G1 X43.112 Y15.713 E4.18112
G1 X42.635 Y15.451 E4.21371
G1 X42.19 Y15.17 E4.24521
G1 X41.771 Y14.871 E4.27603
G1 X41.342 Y14.521 E4.30918
G1 X40.961 Y14.17 E4.34019
G1 X40.585 Y13.78 E4.37262
G1 X40.245 Y13.381 E4.40401
G1 X39.917 Y12.946 E4.43662
G1 X39.63 Y12.511 E4.46783
G1 X39.367 Y12.06 E4.49908
G1 X39.123 Y11.572 E4.53175
G1 X38.914 Y11.082 E4.56364
G1 X38.74 Y10.6 E4.59432
G1 X38.585 Y10.066 E4.62761
G1 X38.472 Y9.567 E4.65824
G1 X38.384 Y9.034 E4.69058
G1 X38.331 Y8.522 E4.72139
G1 X38.308 Y7.98 E4.75387
G1 X38.315 Y7.386 E4.78944
G1 X38.358 Y6.646 E4.83381
G1 X38.413 Y6.12 E4.86548
G1 X38.52 Y5.401 E4.909
G1 X38.677 Y4.625 E4.95639
G1 X38.872 Y3.872 E5.00296
G1 X39.091 Y3.17 E5.04699
G1 X39.326 Y2.511 E5.08887
G1 X39.466 Y2.15 E5.11206
G1 X39.688 Y1.609 E5.14706
G1 X40.173 Y0.486 E5.2203
G1 X40.009 Y0.21 E5.23952
G1 X39.607 Y-.457 E5.28614
G1 X39.293 Y-.997 E5.32354
G1 X39.001 Y-1.537 E5.36029
G1 X38.671 Y-2.206 E5.40495
G1 X38.47 Y-2.667 E5.43506
G1 X38.203 Y-3.357 E5.47936
G1 X38.022 Y-3.918 E5.51465
G1 X37.831 Y-4.648 E5.55982
G1 X37.809 Y-4.757 E5.56648
G0 F1350 X37.707 Y-5.279
G0 F3600 X38.056 Y-5.651
G1 F1500 X37.991 Y-6.255 E5.60285
G1 X37.957 Y-7.062 E5.6512
G1 X37.978 Y-7.75 E5.69241
G1 X38.026 Y-8.252 E5.7226
G1 X38.104 Y-8.761 E5.75343
G1 X38.212 Y-9.274 E5.78482
G1 X38.344 Y-9.759 E5.81491
G1 X38.511 Y-10.26 E5.84653
G1 X38.818 Y-11.003 E5.89466
G1 X39.056 Y-11.477 E5.92641
G1 X39.32 Y-11.931 E5.95785
G1 X39.701 Y-12.501 E5.9989
G1 X40.027 Y-12.923 E6.03082
G1 X40.356 Y-13.302 E6.06087
G1 X40.71 Y-13.668 E6.09135
G1 X41.085 Y-14.014 E6.1219
G1 X41.484 Y-14.345 E6.15294
G1 X41.897 Y-14.648 E6.1836
G1 X42.333 Y-14.932 E6.21476
G1 X43.041 Y-15.324 E6.26321
G1 X43.54 Y-15.552 E6.29605
G1 X44.189 Y-15.798 E6.3376
G1 X44.668 Y-15.945 E6.3676
G1 X45.172 Y-16.069 E6.39867
G1 X45.686 Y-16.165 E6.42998
G1 X46.186 Y-16.229 E6.46016
G1 X46.697 Y-16.267 E6.49083
G1 X47.208 Y-16.276 E6.52143
G1 X47.729 Y-16.255 E6.55265
G1 X48.231 Y-16.207 E6.58284
G1 X48.74 Y-16.129 E6.61367
G1 X49.253 Y-16.021 E6.64505
G1 X49.738 Y-15.889 E6.67514
G1 X50.239 Y-15.722 E6.70676
G1 X50.982 Y-15.415 E6.75489
G1 X51.469 Y-15.168 E6.78758
G1 X52.066 Y-14.814 E6.82913
G1 X52.48 Y-14.531 E6.85916
G1 X52.896 Y-14.21 E6.89062
G1 X53.281 Y-13.877 E6.92109
G1 X53.651 Y-13.518 E6.95195
G1 X54.197 Y-12.907 E7.00101
G1 X54.517 Y-12.492 E7.03239
G1 X54.807 Y-12.066 E7.06324
G1 X55.074 Y-11.622 E7.09426
G1 X55.401 Y-10.988 E7.13696
G1 X55.711 Y-10.234 E7.18577
G1 X55.874 Y-9.738 E7.21703
G1 X56.006 Y-9.246 E7.24752
G1 X56.11 Y-8.748 E7.27798
G1 X56.188 Y-8.229 E7.3094
G1 X56.246 Y-7.542 E7.35068
G1 X56.248 Y-6.716 E7.40013
G1 X56.209 Y-6.098 E7.4372
G1 X56.11 Y-5.319 E7.48421
G1 X55.992 Y-4.707 E7.52153
G1 X55.811 Y-4.008 E7.56476
G1 X55.634 Y-3.46 E7.59923
G1 X55.379 Y-2.792 E7.64204
G1 X55.175 Y-2.33 E7.67228
G1 X54.893 Y-1.757 E7.71051
G1 X54.566 Y-1.155 E7.75152
G1 X54.223 Y-.572 E7.79202
G1 X53.638 Y0.388 E7.85932
G1 X53.597 Y0.46 E7.86428
G1 X53.622 Y0.522 E7.86829
G1 X54.069 Y1.544 E7.93507
G1 X54.282 Y2.043 E7.96755
G1 X54.492 Y2.569 E8.00146
G1 X54.719 Y3.194 E8.04127
G1 X54.93 Y3.86 E8.08309
G1 X55.125 Y4.601 E8.12896
G1 X55.279 Y5.331 E8.17363
G1 X55.365 Y5.861 E8.20578
G1 X55.446 Y6.557 E8.24772
G1 X55.484 Y7.082 E8.27924
G1 X55.506 Y7.835 E8.32434
G1 X55.482 Y8.495 E8.36388
G1 X55.383 Y9.301 E8.41249
G1 X55.281 Y9.801 E8.44304
G1 X55.151 Y10.289 E8.47328
G1 X54.99 Y10.772 E8.50376
G1 X54.793 Y11.256 E8.53504
G1 X54.49 Y11.876 E8.57636
G1 X54.234 Y12.314 E8.60673
G1 X53.782 Y12.97 E8.65442
G1 X53.44 Y13.387 E8.68671
G1 X52.966 Y13.889 E8.72805
G1 X52.59 Y14.234 E8.7586
G1 X52.188 Y14.56 E8.78958
G1 X51.53 Y15.011 E8.83734
G1 X51.096 Y15.263 E8.86739
G1 X50.631 Y15.496 E8.89852
G1 X50.163 Y15.695 E8.92897
G1 X49.484 Y15.928 E8.97195
G1 X48.716 Y16.116 E9.01928
G1 X48.207 Y16.199 E9.05016
G1 X47.704 Y16.25 E9.08043
G1 X47.201 Y16.271 E9.11057
G1 X46.696 Y16.262 E9.14081
G1 X46.182 Y16.221 E9.17168
G1 X45.681 Y16.15 E9.20197
G1 X45.185 Y16.05 E9.23226
G1 X44.694 Y15.919 E9.26268
G1 X44.214 Y15.759 E9.29298
G1 X43.736 Y15.566 E9.32384
G1 X43.095 Y15.252 E9.36657
G1 X42.662 Y14.999 E9.39659
G1 X42.008 Y14.548 E9.44416
G1 X41.599 Y14.215 E9.47573
G1 X41.083 Y13.727 E9.51825
G1 X40.552 Y13.126 E9.56626
G1 X40.24 Y12.71 E9.59739
G1 X39.864 Y12.125 E9.63903
G1 X39.615 Y11.671 E9.67003
G1 X39.399 Y11.21 E9.70051
G1 X39.118 Y10.469 E9.74795
G1 X38.971 Y9.961 E9.77961
G1 X38.825 Y9.273 E9.82172
G1 X38.729 Y8.485 E9.86924
G1 X38.707 Y7.968 E9.90022
G1 X38.714 Y7.404 E9.93399
G1 X38.757 Y6.675 E9.97771
G1 X38.809 Y6.173 E10.00793
G1 X38.914 Y5.467 E10.05066
G1 X39.068 Y4.711 E10.09685
G1 X39.258 Y3.978 E10.14218
G1 X39.471 Y3.294 E10.18507
G1 X39.701 Y2.65 E10.22601
G1 X39.836 Y2.301 E10.24841
G1 X40.055 Y1.768 E10.28291
G1 X40.585 Y0.539 E10.36304
G1 X40.618 Y0.457 E10.36833
G1 X40.354 Y0.006 E10.39962
G1 X39.952 Y-.658 E10.44609
G1 X39.643 Y-1.19 E10.48292
G1 X39.354 Y-1.725 E10.51933
G1 X39.032 Y-2.378 E10.56291
G1 X38.728 Y-3.093 E10.60943
G1 X38.535 Y-3.62 E10.64303
G1 X38.324 Y-4.321 E10.68686
G1 X38.189 Y-4.884 E10.72152
G1 X38.146 Y-5.127 E10.73629
G0 F1350 X38.056 Y-5.651
G0 F3600 X38.451 Y-5.71
G1 F1500 X38.39 Y-6.281 E10.77067
G1 X38.357 Y-7.07 E10.81795
G1 X38.376 Y-7.715 E10.85658
G1 X38.467 Y-8.515 E10.90478
G1 X38.599 Y-9.172 E10.9449
G1 X38.823 Y-9.944 E10.99303
G1 X39.001 Y-10.418 E11.02334
G1 X39.264 Y-11.007 E11.06196
G1 X39.499 Y-11.449 E11.09193
G1 X39.925 Y-12.125 E11.13976
G1 X40.331 Y-12.664 E11.18016
G1 X40.869 Y-13.261 E11.22828
G1 X41.343 Y-13.709 E11.26732
G1 X41.982 Y-14.218 E11.31623
G1 X42.536 Y-14.587 E11.35608
G1 X43.226 Y-14.97 E11.40333
G1 X43.701 Y-15.186 E11.43457
G1 X44.309 Y-15.417 E11.47351
G1 X45.081 Y-15.638 E11.52158
G1 X45.741 Y-15.769 E11.56186
G1 X46.541 Y-15.858 E11.61005
G1 X47.197 Y-15.876 E11.64934
G1 X48.016 Y-15.829 E11.69846
G1 X48.662 Y-15.737 E11.73752
G1 X49.464 Y-15.552 E11.7868
G1 X50.095 Y-15.349 E11.82648
G1 X50.82 Y-15.049 E11.87345
G1 X51.284 Y-14.814 E11.90459
G1 X51.843 Y-14.482 E11.94352
G1 X52.496 Y-14.018 E11.99147
G1 X52.883 Y-13.696 E12.02161
G1 X53.36 Y-13.244 E12.06096
G1 X53.892 Y-12.649 E12.10874
G1 X54.197 Y-12.251 E12.13876
G1 X54.566 Y-11.697 E12.17861
G1 X54.949 Y-11.007 E12.22586
G1 X55.165 Y-10.532 E12.2571
G1 X55.396 Y-9.925 E12.29598
G1 X55.618 Y-9.146 E12.34447
G1 X55.748 Y-8.493 E12.38433
G1 X55.836 Y-7.705 E12.4318
G1 X55.855 Y-7.203 E12.46188
G1 X55.843 Y-6.597 E12.49817
G1 X55.777 Y-5.819 E12.54491
G1 X55.693 Y-5.25 E12.57935
G1 X55.531 Y-4.502 E12.62516
G1 X55.388 Y-3.99 E12.65699
G1 X55.154 Y-3.311 E12.69999
G1 X54.852 Y-2.586 E12.74701
G1 X54.536 Y-1.937 E12.79022
G1 X54.216 Y-1.349 E12.8303
G1 X53.904 Y-.818 E12.86717
G1 X53.391 Y0.023 E12.92615
G1 X53.158 Y0.431 E12.95428
G1 X53.246 Y0.661 E12.96902
G1 X53.701 Y1.701 E13.03698
G1 X53.912 Y2.194 E13.06909
G1 X54.119 Y2.715 E13.10265
G1 X54.341 Y3.326 E13.14157
G1 X54.547 Y3.976 E13.18239
G1 X54.736 Y4.697 E13.22701
G1 X54.887 Y5.408 E13.27053
G1 X54.968 Y5.912 E13.30109
G1 X55.048 Y6.598 E13.34244
G1 X55.084 Y7.099 E13.37251
G1 X55.106 Y7.841 E13.41695
G1 X55.084 Y8.459 E13.45397
G1 X54.987 Y9.241 E13.50115
G1 X54.847 Y9.892 E13.54101
G1 X54.612 Y10.64 E13.58795
G1 X54.365 Y11.233 E13.62641
G1 X53.987 Y11.95 E13.67494
G1 X53.637 Y12.491 E13.71351
G1 X53.331 Y12.897 E13.74395
G1 X52.821 Y13.469 E13.78983
G1 X52.335 Y13.926 E13.82977
G1 X51.708 Y14.415 E13.87737
G1 X51.162 Y14.767 E13.91627
G1 X50.457 Y15.136 E13.9639
G1 X49.852 Y15.385 E14.00307
G1 X49.091 Y15.621 E14.05077
G1 X48.446 Y15.759 E14.09026
G1 X47.668 Y15.852 E14.13717
G1 X47.009 Y15.872 E14.17664
G1 X46.219 Y15.823 E14.22403
G1 X45.566 Y15.723 E14.26358
G1 X44.802 Y15.534 E14.3107
G1 X44.167 Y15.313 E14.35095
G1 X43.462 Y14.994 E14.39728
G1 X42.88 Y14.664 E14.43733
G1 X42.244 Y14.225 E14.4836
G1 X41.857 Y13.908 E14.51355
G1 X41.375 Y13.453 E14.55323
G1 X40.86 Y12.87 E14.5998
G1 X40.465 Y12.331 E14.63981
G1 X40.064 Y11.667 E14.68625
G1 X39.769 Y11.058 E14.72676
G1 X39.496 Y10.337 E14.77291
G1 X39.357 Y9.855 E14.80295
G1 X39.22 Y9.213 E14.84225
G1 X39.128 Y8.448 E14.88838
G1 X39.106 Y7.82 E14.926
G1 X39.128 Y7.105 E14.96882
G1 X39.196 Y6.309 E15.01665
G1 X39.309 Y5.532 E15.06366
G1 X39.459 Y4.797 E15.10857
G1 X39.644 Y4.085 E15.15261
G1 X39.852 Y3.418 E15.19444
G1 X40.076 Y2.789 E15.23441
G1 X40.207 Y2.453 E15.256
G1 X40.423 Y1.926 E15.2901
G1 X40.945 Y0.716 E15.369
G1 X41.046 Y0.406 E15.38851
G1 X40.698 Y-.198 E15.43025
G1 X40.298 Y-.86 E15.47655
G1 X39.993 Y-1.383 E15.5128
G1 X39.707 Y-1.912 E15.5488
G1 X39.393 Y-2.55 E15.59137
G1 X39.098 Y-3.244 E15.63652
G1 X38.916 Y-3.742 E15.66826
G1 X38.709 Y-4.429 E15.71122
G1 X38.581 Y-4.961 E15.74398
G1 X38.542 Y-5.186 E15.75765
G0 F1350 X38.451 Y-5.71
G0 F3600 X38.847 Y-5.77
G1 F1500 X38.79 Y-6.307 E15.78998
G1 X38.757 Y-7.079 E15.83624
G1 X38.775 Y-7.68 E15.87224
G1 X38.863 Y-8.459 E15.91917
G1 X38.986 Y-9.071 E15.95654
G1 X39.204 Y-9.823 E16.00342
G1 X39.42 Y-10.385 E16.03946
G1 X39.767 Y-11.109 E16.08753
G1 X40.079 Y-11.635 E16.12414
G1 X40.534 Y-12.277 E16.17125
G1 X40.937 Y-12.751 E16.2085
G1 X41.495 Y-13.308 E16.2557
G1 X41.965 Y-13.705 E16.29253
G1 X42.611 Y-14.162 E16.33991
G1 X43.126 Y-14.466 E16.37571
G1 X43.863 Y-14.82 E16.42466
G1 X44.43 Y-15.035 E16.46096
G1 X45.182 Y-15.251 E16.5078
G1 X45.796 Y-15.373 E16.54528
G1 X46.575 Y-15.459 E16.5922
G1 X47.186 Y-15.476 E16.6288
G1 X47.981 Y-15.43 E16.67647
G1 X48.583 Y-15.345 E16.71287
G1 X49.363 Y-15.165 E16.76079
G1 X49.95 Y-14.976 E16.79771
G1 X50.658 Y-14.683 E16.84359
G1 X51.216 Y-14.394 E16.88121
G1 X51.888 Y-13.97 E16.92878
G1 X52.378 Y-13.6 E16.96554
G1 X52.964 Y-13.074 E17.01268
G1 X53.379 Y-12.635 E17.04885
G1 X53.877 Y-12.011 E17.09664
G1 X54.221 Y-11.495 E17.13377
G1 X54.594 Y-10.822 E17.17984
G1 X54.849 Y-10.25 E17.21733
G1 X55.111 Y-9.497 E17.26506
G1 X55.263 Y-8.907 E17.30154
G1 X55.396 Y-8.119 E17.34938
G1 X55.446 Y-7.52 E17.38537
G1 X55.448 Y-6.733 E17.43248
G1 X55.414 Y-6.182 E17.46553
G1 X55.319 Y-5.436 E17.51056
G1 X55.214 Y-4.894 E17.54361
G1 X55.04 Y-4.221 E17.58522
G1 X54.882 Y-3.733 E17.61593
G1 X54.637 Y-3.091 E17.65707
G1 X54.329 Y-2.416 E17.70149
G1 X54.013 Y-1.807 E17.74257
G1 X53.832 Y-1.483 E17.76479
G1 X53.54 Y-.989 E17.79914
G1 X53.035 Y-.162 E17.85715
G1 X52.73 Y0.399 E17.89538
G1 X52.898 Y0.864 E17.92498
G1 X53.333 Y1.858 E17.98994
G1 X53.541 Y2.345 E18.02164
G1 X53.747 Y2.86 E18.05485
G1 X53.964 Y3.458 E18.09294
G1 X54.164 Y4.092 E18.13274
G1 X54.348 Y4.792 E18.17607
G1 X54.494 Y5.486 E18.21853
G1 X54.611 Y6.265 E18.26569
G1 X54.68 Y7.047 E18.31269
G1 X54.706 Y7.847 E18.36061
G1 X54.685 Y8.422 E18.39505
G1 X54.592 Y9.18 E18.44077
G1 X54.462 Y9.784 E18.47776
G1 X54.234 Y10.509 E18.52326
G1 X54.004 Y11.06 E18.55901
G1 X53.64 Y11.752 E18.60582
G1 X53.314 Y12.254 E18.64165
G1 X52.829 Y12.871 E18.68864
G1 X52.418 Y13.307 E18.72451
G1 X51.847 Y13.812 E18.77015
G1 X51.35 Y14.175 E18.80699
G1 X50.703 Y14.567 E18.85228
G1 X50.139 Y14.84 E18.88979
G1 X49.435 Y15.106 E18.93485
G1 X48.845 Y15.27 E18.97151
G1 X48.088 Y15.408 E19.01758
G1 X47.478 Y15.463 E19.05425
G1 X46.72 Y15.463 E19.09963
G1 X46.102 Y15.406 E19.13678
G1 X45.353 Y15.268 E19.18238
G1 X44.762 Y15.102 E19.21913
G1 X44.045 Y14.828 E19.26508
G1 X43.491 Y14.557 E19.30201
G1 X42.844 Y14.163 E19.34736
G1 X42.345 Y13.796 E19.38444
G1 X41.783 Y13.296 E19.42948
G1 X41.361 Y12.847 E19.46637
