;FLAVOR:Marlin
;TIME:1240
;Filament used: 1.6131m
;Layer height: 0.24
;MINX:-8
;MINY:-49.228
;MINZ:0.24
;MAXX:18
;MAXY:-23.228
;MAXZ:19.92
;TARGET_MACHINE.NAME:Unknown
;Generated with Cura_SteamEngine 5.8.1
M140 S50
M105
M190 S50
M104 S225
M105
M109 S225
M82 ;absolute extrusion mode
;FLAVOR:Marlin
M82 ;absolute extrusion mode
G21
G90
M82
M107 T0
G28
G92 E0
G0 E3 F200
G92 E0 ; reset extrusion distance
M106 S255 ; Enable cooling fan full speed
G1 X-98 Y0 Z0.4 F3000 ; move to arc start
G3 X0 Y-98 I98 Z0.4 E40 F400 ; lay arc stripe 90deg
G92 E0 ; reset extrusion distance
G4 P500 ; wait for 0.5 sec
G0 Z10 E-1 ; Lift 15mm and retract 1mm filament
G4 P2000 ; wait for 5 sec
G0 Z15
M107 ; Disable cooling fan
G1 X0 Y-85 Z4 E0 F3000 ; get off the bed
G92 E0
G92 E0
G1 F1500 E-1
;LAYER_COUNT:83
;LAYER:0
M106 S102
G0 F750 X-5.177 Y-23.228 Z0.24
;TYPE:SKIRT
G1 F3600 E0.71493
G1 F1200 X-6.03 Y-23.415 E0.75371
G1 X-6.855 Y-23.857 E0.79527
G1 X-6.978 Y-23.96 E0.8024
G1 X-7.485 Y-24.591 E0.83834
G1 X-7.882 Y-25.391 E0.878
G1 X-7.996 Y-26.17 E0.91297
G1 X-8 Y-46.351 E1.8092
G1 X-7.818 Y-47.241 E1.84954
G1 X-7.42 Y-47.996 E1.88744
G1 X-7.251 Y-48.216 E1.89976
G1 X-6.633 Y-48.714 E1.93501
G1 X-5.837 Y-49.11 E1.97449
G1 X-5.058 Y-49.224 E2.00945
G1 X15.123 Y-49.228 E2.90568
G1 X16.013 Y-49.046 E2.94602
G1 X16.768 Y-48.648 E2.98393
G1 X16.988 Y-48.479 E2.99625
G1 X17.486 Y-47.861 E3.03149
G1 X17.882 Y-47.065 E3.07098
G1 X17.996 Y-46.286 E3.10594
G1 X18 Y-26.105 E4.00217
G1 X17.818 Y-25.215 E4.04251
G1 X17.42 Y-24.46 E4.08041
G1 X17.251 Y-24.24 E4.09273
G1 X16.633 Y-23.742 E4.12798
G1 X15.837 Y-23.346 E4.16746
G1 X15.058 Y-23.232 E4.20242
G1 X-4.512 Y-23.228 E5.07152
G0 F1080 X-5.177 Y-23.228
G0 F750 X-5.132 Y-23.628
G1 F1200 X-5.89 Y-23.794 E5.10598
G1 X-6.666 Y-24.21 E5.14508
G1 X-7.146 Y-24.808 E5.17913
G1 X-7.495 Y-25.511 E5.21399
G1 X-7.6 Y-26.228 E5.24617
G1 X-7.6 Y-46.31 E6.138
G1 X-7.437 Y-47.106 E6.17408
G1 X-7.066 Y-47.81 E6.20942
G1 X-6.963 Y-47.935 E6.21662
G1 X-6.417 Y-48.375 E6.24776
G1 X-5.717 Y-48.723 E6.28247
G1 X-5 Y-48.828 E6.31466
G1 X15.082 Y-48.828 E7.20649
G1 X15.878 Y-48.665 E7.24257
G1 X16.582 Y-48.294 E7.27791
G1 X16.707 Y-48.191 E7.2851
G1 X17.147 Y-47.645 E7.31624
G1 X17.495 Y-46.945 E7.35096
G1 X17.6 Y-46.228 E7.38314
G1 X17.6 Y-26.146 E8.27497
G1 X17.437 Y-25.35 E8.31106
G1 X17.066 Y-24.646 E8.3464
G1 X16.963 Y-24.521 E8.35359
G1 X16.417 Y-24.081 E8.38473
G1 X15.717 Y-23.733 E8.41945
G1 X15 Y-23.628 E8.45163
G1 X-4.467 Y-23.628 E9.31615
G0 F1080 X-5.132 Y-23.628
G0 F750 X-5.087 Y-24.028
G1 F1200 X-5.753 Y-24.174 E9.34642
G1 X-6.403 Y-24.523 E9.37919
G1 X-6.808 Y-25.027 E9.4079
G1 X-7.109 Y-25.633 E9.43795
G1 X-7.2 Y-26.228 E9.46468
G1 X-7.2 Y-46.269 E10.35469
G1 X-7.056 Y-46.971 E10.38652
G1 X-6.712 Y-47.624 E10.41929
G1 X-6.201 Y-48.036 E10.44844
G1 X-5.595 Y-48.337 E10.47849
G1 X-5 Y-48.428 E10.50522
G1 X15.041 Y-48.428 E11.39523
G1 X15.743 Y-48.284 E11.42706
G1 X16.396 Y-47.94 E11.45984
G1 X16.808 Y-47.429 E11.48899
G1 X17.109 Y-46.823 E11.51904
G1 X17.2 Y-46.228 E11.54577
G1 X17.2 Y-26.187 E12.43578
G1 X17.056 Y-25.485 E12.4676
G1 X16.712 Y-24.832 E12.50038
G1 X16.201 Y-24.42 E12.52953
G1 X15.595 Y-24.119 E12.55958
G1 X15 Y-24.028 E12.58631
G1 X-4.422 Y-24.028 E13.44883
G0 F1080 X-5.087 Y-24.028
G0 F750 X-5.042 Y-24.428
G1 F1200 X-5.616 Y-24.554 E13.47493
G1 X-6.141 Y-24.836 E13.50139
G1 X-6.45 Y-25.205 E13.52277
G1 X-6.723 Y-25.754 E13.55
G1 X-6.8 Y-26.228 E13.57132
G1 X-6.8 Y-46.228 E14.45951
G1 X-6.676 Y-46.834 E14.48698
G1 X-6.395 Y-47.366 E14.5137
G1 X-6.023 Y-47.678 E14.53526
G1 X-5.474 Y-47.951 E14.56249
G1 X-5 Y-48.028 E14.58382
G1 X15 Y-48.028 E15.47201
G1 X15.606 Y-47.904 E15.49948
G1 X16.138 Y-47.623 E15.52619
G1 X16.45 Y-47.251 E15.54776
G1 X16.723 Y-46.702 E15.57499
G1 X16.8 Y-46.228 E15.59631
G1 X16.8 Y-26.228 E16.4845
G1 X16.676 Y-25.622 E16.51197
G1 X16.395 Y-25.09 E16.53869
G1 X16.023 Y-24.778 E16.56025
G1 X15.474 Y-24.505 E16.58748
G1 X15 Y-24.428 E16.60881
G1 X-4.377 Y-24.428 E17.46933
G0 F1080 X-5.042 Y-24.428
G0 F750 X-5.042 Y-24.828
G1 F1200 X-5.523 Y-24.943 E17.49129
G1 X-5.883 Y-25.151 E17.50975
G1 X-6.092 Y-25.383 E17.52362
G1 X-6.338 Y-25.877 E17.54813
G1 X-6.4 Y-26.228 E17.56396
G1 X-6.4 Y-46.228 E18.45215
G1 X-6.322 Y-46.647 E18.47108
G1 X-6.077 Y-47.111 E18.49438
G1 X-5.845 Y-47.32 E18.50824
G1 X-5.351 Y-47.566 E18.53275
G1 X-5 Y-47.628 E18.54858
G1 X15 Y-47.628 E19.43677
G1 X15.419 Y-47.55 E19.4557
G1 X15.883 Y-47.305 E19.479
G1 X16.092 Y-47.073 E19.49287
G1 X16.338 Y-46.579 E19.51738
G1 X16.4 Y-46.228 E19.5332
G1 X16.4 Y-26.228 E20.42139
G1 X16.322 Y-25.809 E20.44032
G1 X16.077 Y-25.345 E20.46362
G1 X15.845 Y-25.136 E20.47749
G1 X15.351 Y-24.89 E20.502
G1 X15 Y-24.828 E20.51783
G1 X-4.377 Y-24.828 E21.37835
G0 F1080 X-5.042 Y-24.828
G0 F750 X-5.338 Y-25.298
G1 F1200 X-5 Y-25.228 E21.39368
G1 X15 Y-25.228 E22.28187
G1 X15.273 Y-25.282 E22.29423
G1 X15.655 Y-25.488 E22.3135
G1 X15.793 Y-25.627 E22.3222
G1 X15.93 Y-25.89 E22.33537
G1 X16 Y-26.228 E22.3507
G1 X16 Y-46.228 E23.23889
G1 X15.946 Y-46.501 E23.25125
G1 X15.74 Y-46.883 E23.27052
G1 X15.601 Y-47.021 E23.27922
G1 X15.338 Y-47.158 E23.29239
G1 X15 Y-47.228 E23.30772
G1 X-5 Y-47.228 E24.19591
G1 X-5.273 Y-47.174 E24.20826
G1 X-5.655 Y-46.968 E24.22754
G1 X-5.793 Y-46.829 E24.23624
G1 X-5.93 Y-46.566 E24.24941
G1 X-6 Y-46.228 E24.26473
G1 X-6 Y-26.228 E25.15292
G1 X-5.946 Y-25.955 E25.16528
G1 X-5.821 Y-25.724 E25.17695
G0 F1080 X-5.74 Y-25.573
G0 X-5.601 Y-25.435
G0 X-5.338 Y-25.298
G0 F750 X-5.119 Y-26.067
G1 F1200 X-5.2 Y-26.228 E25.18495
G1 X-5.2 Y-46.228 E26.07314
G1 X-5.161 Y-46.347 E26.0787
G1 X-5 Y-46.428 E26.0867
G1 X15 Y-46.428 E26.97489
G1 X15.119 Y-46.389 E26.98046
G1 X15.2 Y-46.228 E26.98846
G1 X15.2 Y-26.228 E27.87665
G1 X15.161 Y-26.109 E27.88221
G1 X15 Y-26.028 E27.89021
G1 X-4.46 Y-26.028 E28.75442
G0 F1080 X-5 Y-26.028
G0 X-5.119 Y-26.067
G0 F750 X-5.244 Y-25.687
G1 F1200 X-5.396 Y-25.778 E28.76229
G1 X-5.557 Y-26.048 E28.77625
G1 X-5.6 Y-26.228 E28.78447
G1 X-5.6 Y-46.228 E29.67266
G1 X-5.541 Y-46.472 E29.68381
G1 X-5.45 Y-46.624 E29.69167
G1 X-5.18 Y-46.785 E29.70563
G1 X-5 Y-46.828 E29.71385
G1 X15 Y-46.828 E30.60204
G1 X15.244 Y-46.769 E30.61319
G1 X15.396 Y-46.678 E30.62106
G1 X15.557 Y-46.408 E30.63502
G1 X15.6 Y-46.228 E30.64324
G1 X15.6 Y-26.228 E31.53143
G1 X15.541 Y-25.984 E31.54257
G1 X15.45 Y-25.832 E31.55044
G1 X15.18 Y-25.671 E31.5644
G1 X15 Y-25.628 E31.57262
G1 X-4.586 Y-25.628 E32.44242
G0 F1080 X-5 Y-25.628
G0 X-5.244 Y-25.687
G1 F1500 E31.44242
;MESH:xyzCalibration_cube.stl
G0 F750 X-4.586 Y-26.642
G0 X14 Y-27.228
;TYPE:WALL-INNER
G1 F3600 E33.15735
G1 F900 X14 Y-45.228 E33.95672
G1 X-4 Y-45.228 E34.75609
G1 X-4 Y-27.228 E35.55546
G1 X13.335 Y-27.228 E36.3253
G0 F810 X14 Y-27.228
G0 F750 X14.4 Y-26.828
G1 F900 X14.4 Y-45.628 E37.1602
G1 X-4.4 Y-45.628 E37.99509
G1 X-4.4 Y-26.828 E38.82999
G1 X13.735 Y-26.828 E39.63536
G0 F810 X14.4 Y-26.828
G0 F750 X14.8 Y-26.428
;TYPE:WALL-OUTER
G1 F900 X14.8 Y-46.028 E40.50578
G1 X-4.8 Y-46.028 E41.37621
G1 X-4.8 Y-26.428 E42.24663
G1 X14.135 Y-26.428 E43.08753
G0 F810 X14.8 Y-26.428
G0 F750 X14.8 Y-26.628
G0 X14.13 Y-27.098
G0 X13.92 Y-27.608
G0 X13.62 Y-27.608
;TYPE:SKIN
G1 F900 X-3.62 Y-27.608 E43.85315
G1 X-3.62 Y-44.848 E44.61877
G1 X13.62 Y-44.848 E45.38439
G1 X13.62 Y-28.273 E46.12047
G0 F810 X13.62 Y-27.608
G0 F750 X13.92 Y-27.608
G0 X13.848 Y-45.076
G0 X13.052 Y-45.148
G0 X13.052 Y-44.648
G1 F900 X13.42 Y-44.28 E46.14358
G0 F750 X13.42 Y-43.714
G1 F900 X12.486 Y-44.648 E46.20224
G0 F750 X11.92 Y-44.648
G1 F900 X13.42 Y-43.148 E46.29645
G0 F750 X13.42 Y-42.583
G1 F900 X11.355 Y-44.648 E46.42614
G0 F750 X10.789 Y-44.648
G1 F900 X13.42 Y-42.017 E46.59138
G0 F750 X13.42 Y-41.451
G1 F900 X10.223 Y-44.648 E46.79217
G0 F750 X9.658 Y-44.648
G1 F900 X13.42 Y-40.886 E47.02844
G0 F750 X13.42 Y-40.32
G1 F900 X9.092 Y-44.648 E47.30025
G0 F750 X8.526 Y-44.648
G1 F900 X13.42 Y-39.754 E47.60762
G0 F750 X13.42 Y-39.189
G1 F900 X7.961 Y-44.648 E47.95047
G0 F750 X7.395 Y-44.648
G1 F900 X13.42 Y-38.623 E48.32887
G0 F750 X13.42 Y-38.057
G1 F900 X6.829 Y-44.648 E48.74281
G0 F750 X6.264 Y-44.648
G1 F900 X13.42 Y-37.492 E49.19224
G0 F750 X13.42 Y-36.926
G1 F900 X5.698 Y-44.648 E49.67721
G0 F750 X5.132 Y-44.648
G1 F900 X13.42 Y-36.36 E50.19774
G0 F750 X13.42 Y-35.794
G1 F900 X4.566 Y-44.648 E50.75381
G0 F750 X4.001 Y-44.648
G1 F900 X13.42 Y-35.229 E51.34536
G0 F750 X13.42 Y-34.663
G1 F900 X3.435 Y-44.648 E51.97247
G0 F750 X2.869 Y-44.648
G1 F900 X13.42 Y-34.097 E52.63512
G0 F750 X13.42 Y-33.532
G1 F900 X2.304 Y-44.648 E53.33325
G0 F750 X1.738 Y-44.648
G1 F900 X13.42 Y-32.966 E54.06693
G0 F750 X13.42 Y-32.4
G1 F900 X1.172 Y-44.648 E54.83616
G0 F750 X0.607 Y-44.648
G1 F900 X13.42 Y-31.835 E55.64088
G0 F750 X13.42 Y-31.269
G1 F900 X0.041 Y-44.648 E56.48114
G0 F750 X-.525 Y-44.648
G1 F900 X13.42 Y-30.703 E57.35695
G0 F750 X13.42 Y-30.138
G1 F900 X-1.09 Y-44.648 E58.26824
G0 F750 X-1.656 Y-44.648
G1 F900 X13.42 Y-29.572 E59.21508
G0 F750 X13.42 Y-29.006
G1 F900 X-2.222 Y-44.648 E60.19747
G0 F750 X-2.787 Y-44.648
G1 F900 X13.42 Y-28.441 E61.21534
G0 F750 X13.42 Y-27.875
G1 F900 X-3.353 Y-44.648 E62.26876
G0 F750 X-3.42 Y-44.15
G1 F900 X12.921 Y-27.808 E63.29508
G0 F750 X12.355 Y-27.808
G1 F900 X-3.42 Y-43.584 E64.28585
G0 F750 X-3.42 Y-43.018
G1 F900 X11.79 Y-27.808 E65.2411
G0 F750 X11.224 Y-27.808
G1 F900 X-3.42 Y-42.453 E66.16084
G0 F750 X-3.42 Y-41.887
G1 F900 X10.658 Y-27.808 E67.04504
G0 F750 X10.093 Y-27.808
G1 F900 X-3.42 Y-41.321 E67.89371
G0 F750 X-3.42 Y-40.756
G1 F900 X9.527 Y-27.808 E68.70687
G0 F750 X8.961 Y-27.808
G1 F900 X-3.42 Y-40.19 E69.48449
G0 F750 X-3.42 Y-39.624
G1 F900 X8.395 Y-27.808 E70.22655
G0 F750 X7.83 Y-27.808
G1 F900 X-3.42 Y-39.058 E70.9331
G0 F750 X-3.42 Y-38.493
G1 F900 X7.264 Y-27.808 E71.60414
G0 F750 X6.698 Y-27.808
G1 F900 X-3.42 Y-37.927 E72.23963
G0 F750 X-3.42 Y-37.361
G1 F900 X6.133 Y-27.808 E72.8396
G0 F750 X5.567 Y-27.808
G1 F900 X-3.42 Y-36.796 E73.40405
G0 F750 X-3.42 Y-36.23
G1 F900 X5.001 Y-27.808 E73.93296
G0 F750 X4.436 Y-27.808
G1 F900 X-3.42 Y-35.664 E74.42635
G0 F750 X-3.42 Y-35.099
G1 F900 X3.87 Y-27.808 E74.88423
G0 F750 X3.304 Y-27.808
G1 F900 X-3.42 Y-34.533 E75.30656
G0 F750 X-3.42 Y-33.967
G1 F900 X2.739 Y-27.808 E75.69337
G0 F750 X2.173 Y-27.808
G1 F900 X-3.42 Y-33.402 E76.04467
G0 F750 X-3.42 Y-32.836
G1 F900 X1.607 Y-27.808 E76.36042
G0 F750 X1.042 Y-27.808
G1 F900 X-3.42 Y-32.27 E76.64065
G0 F750 X-3.42 Y-31.705
G1 F900 X0.476 Y-27.808 E76.88537
G0 F750 X-0.09 Y-27.808
G1 F900 X-3.42 Y-31.139 E77.09454
G0 F750 X-3.42 Y-30.573
M104 S220
G1 F900 X-.655 Y-27.808 E77.26819
G0 F750 X-1.221 Y-27.808
G1 F900 X-3.42 Y-30.007 E77.4063
G0 F750 X-3.42 Y-29.442
G1 F900 X-1.787 Y-27.808 E77.50889
G0 F750 X-2.353 Y-27.808
G1 F900 X-3.42 Y-28.876 E77.57593
G0 F750 X-3.42 Y-28.31
G1 F900 X-2.918 Y-27.808 E77.60746
;MESH:NONMESH
G0 F600 X-2.918 Y-27.808 Z0.48
G0 F750 X-2.918 Y-27.308
G0 X14 Y-27.228
;TIME_ELAPSED:114.437404
;LAYER:1
M106 S255
;TYPE:WALL-INNER
;MESH:xyzCalibration_cube.stl
G1 F1950 X14 Y-45.228 E78.33416
G1 X-4 Y-45.228 E79.06086
G1 X-4 Y-27.228 E79.78756
G1 X13.335 Y-27.228 E80.48741
G0 F1755 X14 Y-27.228
G0 F1875 X14.4 Y-26.828
G1 F1950 X14.4 Y-45.628 E81.24641
G1 X-4.4 Y-45.628 E82.00541
G1 X-4.4 Y-26.828 E82.76441
G1 X13.735 Y-26.828 E83.49656
G0 F1755 X14.4 Y-26.828
G0 F1875 X14.8 Y-26.428
;TYPE:WALL-OUTER
G1 F1650 X14.8 Y-46.028 E84.28786
G1 X-4.8 Y-46.028 E85.07915
G1 X-4.8 Y-26.428 E85.87045
G1 X14.135 Y-26.428 E86.6349
G0 F1485 X14.8 Y-26.428
G0 F1875 X14.8 Y-26.628
G0 X14.13 Y-27.098
G0 X13.62 Y-27.608
;TYPE:SKIN
G1 F1200 X-3.62 Y-27.608 E87.33091
G1 X-3.62 Y-44.848 E88.02693
G1 X13.62 Y-44.848 E88.72295
G1 X13.62 Y-28.273 E89.39212
G0 F1080 X13.62 Y-27.608
G0 F1875 X13.101 Y-27.808
G1 F1200 X13.419 Y-28.127 E89.4103
G0 F1875 X13.419 Y-28.693
G1 F1200 X12.535 Y-27.808 E89.4608
G0 F1875 X11.969 Y-27.808
G1 F1200 X13.419 Y-29.259 E89.54362
G0 F1875 X13.419 Y-29.824
G1 F1200 X11.404 Y-27.808 E89.65869
G0 F1875 X10.838 Y-27.808
G1 F1200 X13.419 Y-30.39 E89.80609
G0 F1875 X13.419 Y-30.956
G1 F1200 X10.272 Y-27.808 E89.98579
G0 F1875 X9.706 Y-27.808
G1 F1200 X13.419 Y-31.521 E90.19779
G0 F1875 X13.419 Y-32.087
G1 F1200 X9.141 Y-27.808 E90.44207
G0 F1875 X8.575 Y-27.808
G1 F1200 X13.419 Y-32.653 E90.71866
G0 F1875 X13.419 Y-33.218
G1 F1200 X8.009 Y-27.808 E91.02755
G0 F1875 X7.444 Y-27.808
G1 F1200 X13.419 Y-33.784 E91.36872
G0 F1875 X13.419 Y-34.35
G1 F1200 X6.878 Y-27.808 E91.7422
G0 F1875 X6.312 Y-27.808
G1 F1200 X13.419 Y-34.916 E92.14801
G0 F1875 X13.419 Y-35.481
G1 F1200 X5.747 Y-27.808 E92.58607
G0 F1875 X5.181 Y-27.808
G1 F1200 X13.419 Y-36.047 E93.05644
G0 F1875 X13.419 Y-36.613
G1 F1200 X4.615 Y-27.808 E93.55914
G0 F1875 X4.05 Y-27.808
G1 F1200 X13.419 Y-37.178 E94.09409
G0 F1875 X13.419 Y-37.744
G1 F1200 X3.484 Y-27.808 E94.66136
G0 F1875 X2.918 Y-27.808
G1 F1200 X13.419 Y-38.31 E95.26094
G0 F1875 X13.419 Y-38.875
G1 F1200 X2.353 Y-27.808 E95.89278
G0 F1875 X1.787 Y-27.808
G1 F1200 X13.419 Y-39.441 E96.55694
G0 F1875 X13.419 Y-40.007
G1 F1200 X1.221 Y-27.808 E97.25341
G0 F1875 X0.655 Y-27.808
G1 F1200 X13.419 Y-40.572 E97.98217
G0 F1875 X13.419 Y-41.138
G1 F1200 X0.09 Y-27.808 E98.74322
G0 F1875 X-.476 Y-27.808
G1 F1200 X13.419 Y-41.704 E99.53658
G0 F1875 X13.419 Y-42.269
G1 F1200 X-1.042 Y-27.808 E100.36223
G0 F1875 X-1.607 Y-27.808
G1 F1200 X13.419 Y-42.835 E101.22017
G0 F1875 X13.419 Y-43.401
G1 F1200 X-2.173 Y-27.808 E102.11042
G0 F1875 X-2.739 Y-27.808
G1 F1200 X13.419 Y-43.966 E103.03296
G0 F1875 X13.419 Y-44.532
G1 F1200 X-3.304 Y-27.808 E103.98779
G0 F1875 X-3.42 Y-28.259
G1 F1200 X12.97 Y-44.648 E104.92355
G0 F1875 X12.404 Y-44.648
G1 F1200 X-3.42 Y-28.825 E105.82699
G0 F1875 X-3.42 Y-29.39
G1 F1200 X11.838 Y-44.648 E106.69815
G0 F1875 X11.273 Y-44.648
G1 F1200 X-3.42 Y-29.956 E107.53701
G0 F1875 X-3.42 Y-30.522
G1 F1200 X10.707 Y-44.648 E108.34357
G0 F1875 X10.141 Y-44.648
G1 F1200 X-3.42 Y-31.087 E109.11783
G0 F1875 X-3.42 Y-31.653
G1 F1200 X9.576 Y-44.648 E109.85981
G0 F1875 X9.01 Y-44.648
G1 F1200 X-3.42 Y-32.219 E110.56947
G0 F1875 X-3.42 Y-32.784
G1 F1200 X8.444 Y-44.648 E111.24685
G0 F1875 X7.879 Y-44.648
G1 F1200 X-3.42 Y-33.35 E111.89193
G0 F1875 X-3.42 Y-33.916
G1 F1200 X7.313 Y-44.648 E112.5047
G0 F1875 X6.747 Y-44.648
G1 F1200 X-3.42 Y-34.481 E113.08519
G0 F1875 X-3.42 Y-35.047
G1 F1200 X6.182 Y-44.648 E113.63339
G0 F1875 X5.616 Y-44.648
G1 F1200 X-3.42 Y-35.613 E114.14927
G0 F1875 X-3.42 Y-36.178
G1 F1200 X5.05 Y-44.648 E114.63286
G0 F1875 X4.484 Y-44.648
G1 F1200 X-3.42 Y-36.744 E115.08414
G0 F1875 X-3.42 Y-37.31
G1 F1200 X3.919 Y-44.648 E115.50313
G0 F1875 X3.353 Y-44.648
G1 F1200 X-3.42 Y-37.875 E115.88984
G0 F1875 X-3.42 Y-38.441
G1 F1200 X2.787 Y-44.648 E116.24423
G0 F1875 X2.222 Y-44.648
G1 F1200 X-3.42 Y-39.007 E116.56633
G0 F1875 X-3.42 Y-39.573
G1 F1200 X1.656 Y-44.648 E116.85611
G0 F1875 X1.09 Y-44.648
G1 F1200 X-3.42 Y-40.138 E117.11361
G0 F1875 X-3.42 Y-40.704
G1 F1200 X0.525 Y-44.648 E117.33882
G0 F1875 X-0.041 Y-44.648
G1 F1200 X-3.42 Y-41.27 E117.53172
G0 F1875 X-3.42 Y-41.835
G1 F1200 X-.607 Y-44.648 E117.69232
G0 F1875 X-1.172 Y-44.648
G1 F1200 X-3.42 Y-42.401 E117.82065
G0 F1875 X-3.42 Y-42.967
G1 F1200 X-1.738 Y-44.648 E117.91665
G0 F1875 X-2.304 Y-44.648
G1 F1200 X-3.42 Y-43.532 E117.98037
G0 F1875 X-3.42 Y-44.098
G1 F1200 X-2.869 Y-44.648 E118.0118
;MESH:NONMESH
G0 F600 X-2.869 Y-44.648 Z0.72
G0 F1875 X14 Y-27.228
;TIME_ELAPSED:162.951353
;LAYER:2
