;FLAVOR:Marlin
;TIME:2971
;Filament used: 5.44519m
;Layer height: 0.24
;MINX:-80.072
;MINY:-74.695
;MINZ:0.3
;MAXX:81.885
;MAXY:69.319
;MAXZ:5.86
;Generated with Cura_SteamEngine 4.13.1
M140 S50
M105
M190 S50
M104 S210
M105
M109 S210
M82 ;absolute extrusion mode
;FLAVOR:Marlin
M82 ;absolute extrusion mode
G21
G90
M82
M107 T0
G28
G92 E0
G0 E3 F200
G92 E0 ; reset extrusion distance
M106 S255 ; Enable cooling fan full speed
G1 X-98 Y0 Z0.4 F3000 ; move to arc start
G3 X0 Y-98 I98 Z0.4 E40 F400 ; lay arc stripe 90deg
G92 E0 ; reset extrusion distance
G4 P500 ; wait for 0.5 sec
G0 Z10 E-1 ; Lift 15mm and retract 1mm filament
G4 P2000 ; wait for 5 sec
G0 Z15
M107 ; Disable cooling fan
G1 X0 Y-85 Z4 E0 F3000 ; get off the bed
G92 E0
G92 E0
G1 F1500 E-6.5
;LAYER_COUNT:21
;LAYER:0
M106 S25.5
G1 F600 Z1.3
G0 F3600 X-17.222 Y-48.01 Z1.3
;TYPE:SKIRT
G1 F600 Z0.3
G1 F1500 E0.3326
G1 F2700 X-17.881 Y-47.798 E0.36714
G1 X-18.297 Y-47.707 E0.38838
G1 X-18.974 Y-47.627 E0.42239
G1 X-19.405 Y-47.619 E0.4439
G1 X-20.089 Y-47.673 E0.47813
G1 X-20.522 Y-47.751 E0.50008
G1 X-21.192 Y-47.943 E0.53485
G1 X-21.62 Y-48.114 E0.55785
G1 X-22.215 Y-48.423 E0.5913
G1 X-22.572 Y-48.654 E0.61251
G1 X-23.113 Y-49.085 E0.64702
G1 X-23.449 Y-49.415 E0.67052
G1 X-23.88 Y-49.934 E0.70417
G1 X-24.134 Y-50.309 E0.72677
G1 X-24.455 Y-50.901 E0.76037
G1 X-24.622 Y-51.298 E0.78185
G1 X-24.827 Y-51.959 E0.81638
G1 X-24.919 Y-52.408 E0.83925
G1 X-24.987 Y-53.085 E0.87319
G1 X-24.998 Y-53.305 E0.88418
G1 X-24.998 Y-60.959 E1.26604
G1 X-24.958 Y-61.376 E1.28694
G1 X-24.84 Y-61.778 E1.30784
G1 X-24.671 Y-62.117 E1.32674
G1 X-24.434 Y-62.463 E1.34767
G1 X-23.945 Y-62.895 E1.38022
G1 X-21.299 Y-64.61 E1.53753
G1 X-21.208 Y-64.666 E1.54286
G1 X-18.495 Y-66.243 E1.69942
G1 X-18.402 Y-66.294 E1.70471
G1 X-15.546 Y-67.775 E1.86522
G1 X-15.451 Y-67.821 E1.87048
G1 X-12.601 Y-69.129 E2.02693
G1 X-12.504 Y-69.171 E2.0322
G1 X-9.549 Y-70.359 E2.1911
G1 X-9.45 Y-70.396 E2.19637
G1 X-6.42 Y-71.448 E2.35639
G1 X-6.319 Y-71.481 E2.36169
G1 X-3.299 Y-72.369 E2.51874
G1 X-3.197 Y-72.396 E2.524
G1 X-.115 Y-73.144 E2.68222
G1 X-0.011 Y-73.166 E2.68753
G1 X3.089 Y-73.762 E2.84502
G1 X3.209 Y-73.783 E2.8511
G1 X6.359 Y-74.233 E3.00985
G1 X6.465 Y-74.245 E3.01517
G1 X9.622 Y-74.541 E3.17336
G1 X9.729 Y-74.549 E3.17872
G1 X12.945 Y-74.693 E3.33932
G1 X13.049 Y-74.695 E3.34451
G1 X16.182 Y-74.687 E3.50082
G1 X16.288 Y-74.684 E3.50611
G1 X19.468 Y-74.522 E3.66497
G1 X19.574 Y-74.514 E3.67027
G1 X22.757 Y-74.197 E3.82986
G1 X22.861 Y-74.184 E3.83509
G1 X25.98 Y-73.722 E3.99239
G1 X26.084 Y-73.704 E3.99766
G1 X29.193 Y-73.09 E4.15576
G1 X29.298 Y-73.067 E4.16112
G1 X32.382 Y-72.3 E4.31967
G1 X32.484 Y-72.272 E4.32495
G1 X35.552 Y-71.351 E4.48476
G1 X35.652 Y-71.318 E4.49001
G1 X38.626 Y-70.267 E4.64738
G1 X38.725 Y-70.23 E4.65265
G1 X41.67 Y-69.027 E4.81137
G1 X41.767 Y-68.984 E4.81666
G1 X44.672 Y-67.63 E4.97656
G1 X44.766 Y-67.584 E4.98178
G1 X47.554 Y-66.119 E5.13891
G1 X47.647 Y-66.067 E5.14422
G1 X50.374 Y-64.462 E5.30209
G1 X50.465 Y-64.405 E5.30745
G1 X53.144 Y-62.646 E5.46734
G1 X53.231 Y-62.587 E5.47258
G1 X55.783 Y-60.732 E5.62998
G1 X55.867 Y-60.667 E5.63528
G1 X58.367 Y-58.658 E5.79529
G1 X58.447 Y-58.59 E5.80053
G1 X60.803 Y-56.504 E5.95752
G1 X60.88 Y-56.433 E5.96275
G1 X63.156 Y-54.215 E6.1213
G1 X63.231 Y-54.138 E6.12666
G1 X65.388 Y-51.821 E6.28459
G1 X65.459 Y-51.741 E6.28993
G1 X67.534 Y-49.283 E6.45041
G1 X67.599 Y-49.202 E6.4556
G1 X69.507 Y-46.712 E6.6121
G1 X69.571 Y-46.625 E6.61749
G1 X71.404 Y-43.974 E6.77828
G1 X71.461 Y-43.886 E6.78351
G1 X73.122 Y-41.219 E6.94027
G1 X73.176 Y-41.128 E6.94555
G1 X74.737 Y-38.331 E7.10535
G1 X74.786 Y-38.238 E7.11059
G1 X76.183 Y-35.425 E7.26729
G1 X76.228 Y-35.329 E7.27258
G1 X77.502 Y-32.423 E7.43088
G1 X77.543 Y-32.324 E7.43623
G1 X78.688 Y-29.32 E7.59661
G1 X78.722 Y-29.222 E7.60179
G1 X79.696 Y-26.252 E7.75773
G1 X79.727 Y-26.15 E7.76305
G1 X80.574 Y-23.076 E7.92212
G1 X80.6 Y-22.973 E7.92742
G1 X81.295 Y-19.872 E8.08597
G1 X81.315 Y-19.768 E8.09125
G1 X81.856 Y-16.656 E8.24884
G1 X81.885 Y-16.135 E8.27487
G1 X81.812 Y-15.665 E8.2986
G1 X78.909 Y-4.835 E8.85799
G1 X78.845 Y-4.635 E8.86847
G1 X78.561 Y-3.875 E8.90894
G1 X78.373 Y-3.492 E8.93023
G1 X77.95 Y-2.805 E8.97048
G1 X77.702 Y-2.475 E8.99107
G1 X77.159 Y-1.88 E9.03126
G1 X76.827 Y-1.58 E9.05359
G1 X76.168 Y-1.093 E9.09447
G1 X75.81 Y-.878 E9.1153
G1 X75.098 Y-.537 E9.15469
G1 X74.701 Y-.392 E9.17577
G1 X73.911 Y-.187 E9.21649
G1 X73.469 Y-.117 E9.23882
G1 X72.656 Y-0.068 E9.27945
G1 X72.238 Y-0.083 E9.30032
G1 X71.452 Y-.186 E9.33987
G1 X71.025 Y-.284 E9.36173
G1 X70.266 Y-.537 E9.40164
G1 X69.86 Y-.718 E9.42382
G1 X69.172 Y-1.107 E9.46325
G1 X68.83 Y-1.346 E9.48407
G1 X68.209 Y-1.874 E9.52473
G1 X67.901 Y-2.192 E9.54682
G1 X67.404 Y-2.814 E9.58654
G1 X67.161 Y-3.188 E9.60879
G1 X66.797 Y-3.887 E9.64811
G1 X66.631 Y-4.297 E9.67018
G1 X66.399 Y-5.082 E9.71102
G1 X66.319 Y-5.493 E9.73191
G1 X66.242 Y-6.283 E9.77151
G1 X66.242 Y-6.726 E9.79361
G1 X66.32 Y-7.536 E9.8342
G1 X66.401 Y-7.951 E9.8553
G1 X66.627 Y-8.713 E9.89495
G1 X66.79 Y-9.119 E9.91678
G1 X67.158 Y-9.828 E9.95663
G1 X67.398 Y-10.198 E9.97864
G1 X67.958 Y-10.902 E10.02352
G1 X68.295 Y-11.308 E10.04984
G1 X68.512 Y-11.666 E10.07072
G1 X68.669 Y-12.044 E10.09115
G1 X68.773 Y-12.453 E10.1122
G1 X68.813 Y-12.858 E10.1325
G1 X68.789 Y-13.328 E10.15598
G1 X68.378 Y-16.055 E10.29357
G1 X67.818 Y-18.809 E10.43378
G1 X67.11 Y-21.554 E10.57521
G1 X66.268 Y-24.238 E10.71555
G1 X65.277 Y-26.912 E10.85782
G1 X64.175 Y-29.47 E10.99678
G1 X62.92 Y-32.011 E11.13817
G1 X61.541 Y-34.478 E11.27917
G1 X60.043 Y-36.862 E11.41964
G1 X58.416 Y-39.176 E11.56077
G1 X56.694 Y-41.376 E11.70015
G1 X54.836 Y-43.514 E11.84147
G1 X52.855 Y-45.567 E11.9838
G1 X50.817 Y-47.474 E12.12305
G1 X48.667 Y-49.289 E12.26342
G1 X46.418 Y-50.994 E12.40422
G1 X44.081 Y-52.586 E12.5453
G1 X41.675 Y-54.049 E12.68578
G1 X39.195 Y-55.388 E12.82639
G1 X36.651 Y-56.596 E12.9669
G1 X34.016 Y-57.686 E13.10916
G1 X31.375 Y-58.618 E13.24889
G1 X28.673 Y-59.422 E13.38953
G1 X25.956 Y-60.083 E13.52904
G1 X23.165 Y-60.607 E13.67071
G1 X20.361 Y-60.987 E13.81188
G1 X17.574 Y-61.219 E13.95141
G1 X14.747 Y-61.309 E14.09252
G1 X11.902 Y-61.253 E14.23448
G1 X9.15 Y-61.056 E14.37213
G1 X6.303 Y-60.706 E14.51524
G1 X3.558 Y-60.222 E14.6543
G1 X0.77 Y-59.584 E14.79699
G1 X-1.93 Y-58.815 E14.93705
G1 X-4.581 Y-57.912 E15.07677
G1 X-7.224 Y-56.855 E15.21879
G1 X-9.778 Y-55.679 E15.35906
G1 X-12.227 Y-54.395 E15.49702
G1 X-12.62 Y-54.135 E15.52053
G1 X-12.931 Y-53.855 E15.54141
G1 X-13.197 Y-53.53 E15.56236
G1 X-13.416 Y-53.165 E15.5836
G1 X-13.565 Y-52.799 E15.60331
G1 X-13.719 Y-52.174 E15.63542
G1 X-13.897 Y-51.51 E15.66972
G1 X-14.059 Y-51.083 E15.69251
G1 X-14.358 Y-50.481 E15.72604
G1 X-14.602 Y-50.092 E15.74895
G1 X-15.017 Y-49.558 E15.78269
G1 X-15.332 Y-49.226 E15.80552
G1 X-15.84 Y-48.788 E15.83899
G1 X-16.21 Y-48.527 E15.86158
G1 X-16.793 Y-48.197 E15.895
G1 X-17.222 Y-48.01 E15.91835
G0 F3600 X-17.345 Y-48.39
G1 F2700 X-18.004 Y-48.178 E15.95288
G1 X-18.344 Y-48.104 E15.97024
G1 X-19.021 Y-48.024 E16.00425
G1 X-19.374 Y-48.018 E16.02187
G1 X-20.058 Y-48.072 E16.0561
G1 X-20.412 Y-48.136 E16.07405
G1 X-21.082 Y-48.328 E16.10882
G1 X-21.436 Y-48.469 E16.12783
G1 X-22.031 Y-48.778 E16.16128
G1 X-22.323 Y-48.967 E16.17863
G1 X-22.864 Y-49.398 E16.21314
G1 X-23.142 Y-49.671 E16.23258
G1 X-23.573 Y-50.19 E16.26624
G1 X-23.782 Y-50.5 E16.28489
G1 X-24.103 Y-51.092 E16.31849
G1 X-24.24 Y-51.417 E16.33608
G1 X-24.445 Y-52.078 E16.37061
G1 X-24.521 Y-52.448 E16.38945
G1 X-24.589 Y-53.125 E16.4234
G1 X-24.598 Y-53.305 E16.43239
G1 X-24.598 Y-60.959 E16.81425
G1 X-24.558 Y-61.336 E16.83317
G1 X-24.371 Y-61.833 E16.85966
G1 X-24.104 Y-62.233 E16.88365
G1 X-23.727 Y-62.559 E16.90852
G1 X-21.081 Y-64.274 E17.06583
G1 X-21.007 Y-64.32 E17.07018
G1 X-18.294 Y-65.897 E17.22673
G1 X-18.218 Y-65.939 E17.23107
G1 X-15.362 Y-67.42 E17.39157
G1 X-15.284 Y-67.458 E17.3959
G1 X-12.434 Y-68.766 E17.55235
G1 X-12.354 Y-68.8 E17.55668
G1 X-9.399 Y-69.988 E17.71558
G1 X-9.318 Y-70.018 E17.71989
G1 X-6.206 Y-71.097 E17.88421
G1 X-3.186 Y-71.985 E18.04126
G1 X-3.103 Y-72.007 E18.04554
G1 X-0.021 Y-72.755 E18.20377
G1 X0.064 Y-72.774 E18.20811
G1 X3.167 Y-73.37 E18.36575
G1 X3.265 Y-73.387 E18.37071
G1 X6.415 Y-73.837 E18.52946
G1 X6.502 Y-73.847 E18.53383
G1 X9.659 Y-74.143 E18.69203
G1 X9.746 Y-74.149 E18.69638
G1 X12.962 Y-74.293 E18.85699
G1 X13.048 Y-74.295 E18.86128
G1 X16.181 Y-74.287 E19.01758
G1 X16.268 Y-74.285 E19.02193
G1 X19.448 Y-74.123 E19.18078
G1 X19.534 Y-74.116 E19.18509
G1 X22.803 Y-73.789 E19.34899
G1 X25.922 Y-73.327 E19.5063
G1 X26.007 Y-73.312 E19.5106
G1 X29.116 Y-72.698 E19.66871
G1 X29.201 Y-72.679 E19.67305
G1 X32.285 Y-71.912 E19.8316
G1 X32.369 Y-71.889 E19.83595
G1 X35.437 Y-70.968 E19.99576
G1 X35.519 Y-70.941 E20.00006
G1 X38.493 Y-69.89 E20.15743
G1 X38.574 Y-69.859 E20.16176
G1 X41.519 Y-68.656 E20.32047
G1 X41.598 Y-68.621 E20.32478
G1 X44.503 Y-67.267 E20.48468
G1 X44.58 Y-67.229 E20.48897
G1 X47.368 Y-65.764 E20.64609
G1 X47.444 Y-65.722 E20.65042
G1 X50.171 Y-64.117 E20.80829
G1 X50.246 Y-64.071 E20.81268
G1 X52.925 Y-62.312 E20.97257
G1 X52.995 Y-62.263 E20.97683
G1 X55.547 Y-60.408 E21.13424
G1 X55.617 Y-60.355 E21.13862
G1 X58.117 Y-58.346 E21.29862
G1 X58.182 Y-58.291 E21.30287
G1 X60.538 Y-56.205 E21.45986
G1 X60.601 Y-56.146 E21.46417
G1 X62.877 Y-53.928 E21.62272
G1 X62.938 Y-53.865 E21.6271
G1 X65.095 Y-51.548 E21.78503
G1 X65.153 Y-51.483 E21.78938
G1 X67.282 Y-48.959 E21.95411
G1 X69.19 Y-46.469 E22.11062
G1 X69.242 Y-46.398 E22.11501
G1 X71.075 Y-43.747 E22.2758
G1 X71.122 Y-43.675 E22.28009
G1 X72.783 Y-41.008 E22.43685
G1 X72.827 Y-40.933 E22.44118
G1 X74.388 Y-38.136 E22.60099
G1 X74.428 Y-38.06 E22.60527
G1 X75.825 Y-35.247 E22.76197
G1 X75.862 Y-35.169 E22.76627
G1 X77.136 Y-32.263 E22.92458
G1 X77.169 Y-32.181 E22.92899
G1 X78.314 Y-29.177 E23.08937
G1 X78.342 Y-29.097 E23.0936
G1 X79.316 Y-26.127 E23.24954
G1 X79.341 Y-26.044 E23.25387
G1 X80.188 Y-22.97 E23.41294
G1 X80.209 Y-22.886 E23.41726
G1 X80.904 Y-19.785 E23.57581
G1 X80.921 Y-19.699 E23.58018
G1 X81.462 Y-16.587 E23.73777
G1 X81.485 Y-16.153 E23.75945
G1 X81.426 Y-15.769 E23.77884
G1 X78.523 Y-4.939 E24.33822
G1 X78.47 Y-4.775 E24.34682
G1 X78.186 Y-4.015 E24.3873
G1 X78.033 Y-3.701 E24.40472
G1 X77.61 Y-3.014 E24.44497
G1 X77.407 Y-2.745 E24.46179
G1 X76.864 Y-2.15 E24.50198
G1 X76.589 Y-1.901 E24.52048
G1 X75.93 Y-1.414 E24.56136
G1 X75.638 Y-1.239 E24.57835
G1 X74.926 Y-.898 E24.61773
G1 X74.6 Y-.779 E24.63505
G1 X73.81 Y-.574 E24.67577
G1 X73.445 Y-.516 E24.6942
G1 X72.632 Y-.467 E24.73484
G1 X72.29 Y-.479 E24.75191
G1 X71.504 Y-.582 E24.79146
G1 X71.152 Y-.663 E24.80948
G1 X70.393 Y-.916 E24.8494
G1 X70.057 Y-1.066 E24.86775
G1 X69.369 Y-1.455 E24.90719
G1 X69.089 Y-1.651 E24.92424
G1 X68.468 Y-2.179 E24.9649
G1 X68.214 Y-2.441 E24.98311
G1 X67.717 Y-3.063 E25.02283
G1 X67.515 Y-3.373 E25.04129
G1 X67.151 Y-4.072 E25.08061
G1 X67.015 Y-4.411 E25.09883
G1 X66.783 Y-5.196 E25.13967
G1 X66.717 Y-5.531 E25.1567
G1 X66.64 Y-6.321 E25.1963
G1 X66.64 Y-6.688 E25.21461
G1 X66.718 Y-7.498 E25.25521
G1 X66.784 Y-7.837 E25.27244
G1 X67.01 Y-8.599 E25.3121
G1 X67.145 Y-8.934 E25.33011
G1 X67.513 Y-9.643 E25.36997
G1 X67.712 Y-9.95 E25.38822
G1 X68.265 Y-10.646 E25.43257
G1 X68.622 Y-11.076 E25.46045
G1 X68.868 Y-11.483 E25.48418
G1 X69.051 Y-11.921 E25.50786
G1 X69.168 Y-12.38 E25.53149
G1 X69.213 Y-12.845 E25.5548
G1 X69.187 Y-13.368 E25.58093
G1 X68.77 Y-16.135 E25.72053
G1 X68.209 Y-18.891 E25.86085
G1 X67.491 Y-21.677 E26.00438
G1 X66.65 Y-24.359 E26.14461
G1 X65.651 Y-27.054 E26.28801
G1 X64.532 Y-29.65 E26.42904
G1 X63.274 Y-32.198 E26.57081
G1 X61.884 Y-34.684 E26.71291
G1 X60.374 Y-37.087 E26.8545
G1 X58.748 Y-39.4 E26.99556
G1 X56.993 Y-41.642 E27.1376
G1 X55.134 Y-43.782 E27.27903
G1 X53.144 Y-45.844 E27.422
G1 X51.086 Y-47.77 E27.56262
G1 X48.903 Y-49.612 E27.70512
G1 X46.655 Y-51.317 E27.84588
G1 X44.311 Y-52.913 E27.98736
G1 X41.864 Y-54.402 E28.13027
G1 X39.378 Y-55.743 E28.27119
G1 X36.804 Y-56.965 E28.41334
G1 X34.154 Y-58.063 E28.55645
G1 X31.502 Y-58.999 E28.69676
G1 X28.78 Y-59.808 E28.83843
G1 X26.05 Y-60.472 E28.9786
G1 X23.233 Y-61.001 E29.1216
G1 X20.409 Y-61.384 E29.26378
G1 X17.582 Y-61.62 E29.40531
G1 X14.752 Y-61.709 E29.54657
G1 X11.884 Y-61.653 E29.68968
G1 X9.112 Y-61.455 E29.82833
G1 X6.241 Y-61.101 E29.97265
G1 X3.481 Y-60.615 E30.11246
G1 X0.668 Y-59.971 E30.25643
G1 X-2.036 Y-59.201 E30.3967
G1 X-4.744 Y-58.278 E30.53944
G1 X-7.361 Y-57.232 E30.68004
G1 X-9.961 Y-56.035 E30.82284
G1 X-12.436 Y-54.737 E30.96227
G1 X-12.864 Y-54.455 E30.98784
G1 X-13.222 Y-54.132 E31.0119
G1 X-13.523 Y-53.764 E31.03562
G1 X-13.777 Y-53.339 E31.06032
G1 X-13.947 Y-52.922 E31.08278
G1 X-14.105 Y-52.278 E31.11587
G1 X-14.283 Y-51.614 E31.15016
G1 X-14.417 Y-51.261 E31.169
G1 X-14.716 Y-50.659 E31.20254
G1 X-14.918 Y-50.337 E31.2215
G1 X-15.333 Y-49.803 E31.25524
G1 X-15.594 Y-49.529 E31.27412
G1 X-16.102 Y-49.091 E31.30758
G1 X-16.407 Y-48.876 E31.3262
G1 X-16.99 Y-48.546 E31.35962
G1 X-17.345 Y-48.39 E31.37897
G0 F3600 X-17.467 Y-48.771
G1 F2700 X-18.126 Y-48.559 E31.41351
G1 X-18.391 Y-48.502 E31.42703
G1 X-19.068 Y-48.422 E31.46104
G1 X-19.342 Y-48.416 E31.47471
G1 X-20.026 Y-48.47 E31.50894
G1 X-20.302 Y-48.52 E31.52294
G1 X-20.972 Y-48.712 E31.55771
G1 X-21.251 Y-48.824 E31.57271
G1 X-21.846 Y-49.133 E31.60616
G1 X-22.073 Y-49.28 E31.61965
G1 X-22.614 Y-49.711 E31.65416
G1 X-22.834 Y-49.927 E31.66954
G1 X-23.265 Y-50.446 E31.7032
G1 X-23.431 Y-50.691 E31.71796
G1 X-23.752 Y-51.283 E31.75156
G1 X-23.858 Y-51.535 E31.7652
G1 X-24.063 Y-52.196 E31.79973
G1 X-24.123 Y-52.488 E31.8146
G1 X-24.191 Y-53.165 E31.84854
G1 X-24.198 Y-53.305 E31.85554
G1 X-24.198 Y-60.959 E32.2374
G1 X-24.158 Y-61.291 E32.25408
G1 X-23.972 Y-61.729 E32.27782
G1 X-23.776 Y-61.999 E32.29447
G1 X-23.509 Y-62.224 E32.31189
G1 X-20.863 Y-63.939 E32.4692
G1 X-20.806 Y-63.974 E32.47254
G1 X-18.093 Y-65.551 E32.62909
G1 X-18.033 Y-65.584 E32.63251
G1 X-15.177 Y-67.065 E32.79301
G1 X-12.267 Y-68.402 E32.95278
G1 X-12.205 Y-68.429 E32.95616
G1 X-9.187 Y-69.641 E33.11841
G1 X-6.157 Y-70.693 E33.27843
G1 X-3.073 Y-71.601 E33.43883
G1 X-3.008 Y-71.619 E33.44219
G1 X0.074 Y-72.367 E33.60042
G1 X3.245 Y-72.978 E33.76153
G1 X3.322 Y-72.991 E33.76542
G1 X6.472 Y-73.441 E33.92417
G1 X6.539 Y-73.449 E33.92754
G1 X9.764 Y-73.75 E34.08913
G1 X12.98 Y-73.894 E34.24974
G1 X16.18 Y-73.887 E34.40939
G1 X19.427 Y-73.723 E34.57159
G1 X19.495 Y-73.718 E34.57499
G1 X22.744 Y-73.393 E34.7379
G1 X25.863 Y-72.931 E34.8952
G1 X29.038 Y-72.305 E35.05665
G1 X29.105 Y-72.291 E35.06007
G1 X32.189 Y-71.524 E35.21861
G1 X32.254 Y-71.506 E35.22198
G1 X35.322 Y-70.585 E35.38179
G1 X38.359 Y-69.513 E35.54247
G1 X38.422 Y-69.489 E35.54583
G1 X41.367 Y-68.286 E35.70455
G1 X41.429 Y-68.259 E35.70792
G1 X44.334 Y-66.905 E35.86782
G1 X47.182 Y-65.41 E36.02829
G1 X47.241 Y-65.378 E36.03164
G1 X49.968 Y-63.773 E36.18951
G1 X52.705 Y-61.977 E36.35283
G1 X52.76 Y-61.939 E36.35617
G1 X55.366 Y-60.043 E36.51695
G1 X57.866 Y-58.034 E36.67696
G1 X57.917 Y-57.991 E36.68028
G1 X60.322 Y-55.86 E36.8406
G1 X62.598 Y-53.642 E36.99915
G1 X62.646 Y-53.593 E37.00257
G1 X64.803 Y-51.276 E37.1605
G1 X64.848 Y-51.225 E37.1639
G1 X66.923 Y-48.767 E37.32438
G1 X66.964 Y-48.716 E37.32764
G1 X68.872 Y-46.226 E37.48415
G1 X68.913 Y-46.17 E37.48761
G1 X70.746 Y-43.519 E37.64841
