;FLAVOR:Marlin
;TIME:1033
;Filament used: 0.466006m
;Layer height: 0.1
;MINX:-81.907
;MINY:-10.79
;MINZ:0.3
;MAXX:-34.331
;MAXY:10.8
;MAXZ:3.9
;Generated with Cura_SteamEngine 4.13.1
M140 S50
M105
M190 S50
M104 S210
M105
M109 S210
M82 ;absolute extrusion mode
;FLAVOR:Marlin
M82 ;absolute extrusion mode
G21
G90
M82
M107 T0
G28
G92 E0
G0 E3 F200
G92 E0 ; reset extrusion distance
M106 S255 ; Enable cooling fan full speed
G1 X-98 Y0 Z0.4 F3000 ; move to arc start
G3 X0 Y-98 I98 Z0.4 E40 F400 ; lay arc stripe 90deg
G92 E0 ; reset extrusion distance
G4 P500 ; wait for 0.5 sec
G0 Z10 E-1 ; Lift 15mm and retract 1mm filament
G4 P2000 ; wait for 5 sec
G0 Z15
M107 ; Disable cooling fan
G1 X0 Y-85 Z4 E0 F3000 ; get off the bed
G92 E0
G92 E0
G1 F1500 E-6.5
;LAYER_COUNT:38
;LAYER:0
M106 S25.5
G1 F600 Z1.3
G0 F3600 X-34.366 Y-2.253 Z1.3
;TYPE:SKIRT
G1 F600 Z0.3
G1 F1500 E0.3326
G1 F1200 X-34.482 Y-1.469 E0.37214
G1 X-34.692 Y-.654 E0.41413
G1 X-34.974 Y0.1 E0.45429
G1 X-35.331 Y0.821 E0.49443
G1 X-35.761 Y1.497 E0.5344
G1 X-36.029 Y1.853 E0.55663
G1 X-36.396 Y2.29 E0.5851
G1 X-36.742 Y2.684 E0.61126
G1 X-42.791 Y9.379 E1.06142
G1 X-43.266 Y9.892 E1.0963
G1 X-43.616 Y10.211 E1.11993
G1 X-44.014 Y10.466 E1.14351
G1 X-44.449 Y10.651 E1.16709
G1 X-44.909 Y10.76 E1.19068
G1 X-45.545 Y10.799 E1.22247
G1 X-70.252 Y10.8 E2.4551
G1 X-70.955 Y10.79 E2.49018
G1 X-71.425 Y10.743 E2.51375
G1 X-71.881 Y10.618 E2.53733
G1 X-72.31 Y10.418 E2.56095
G1 X-72.698 Y10.149 E2.5845
G1 X-73.143 Y9.712 E2.61562
G1 X-73.298 Y9.545 E2.62699
G1 X-79.475 Y2.706 E3.08675
G1 X-80.021 Y2.083 E3.12808
G1 X-80.348 Y1.675 E3.15417
G1 X-80.783 Y1.033 E3.19286
G1 X-81.192 Y0.261 E3.23645
G1 X-81.485 Y-.468 E3.27564
G1 X-81.708 Y-1.245 E3.31597
G1 X-81.851 Y-2.059 E3.35721
G1 X-81.907 Y-2.87 E3.39776
G1 X-81.878 Y-3.678 E3.4381
G1 X-81.763 Y-4.491 E3.47906
G1 X-81.576 Y-5.251 E3.51811
G1 X-81.305 Y-6.008 E3.55823
G1 X-80.948 Y-6.746 E3.59913
G1 X-80.506 Y-7.458 E3.64094
G1 X-80.002 Y-8.102 E3.68174
G1 X-79.428 Y-8.699 E3.72305
G1 X-78.813 Y-9.215 E3.76311
G1 X-78.185 Y-9.643 E3.80102
G1 X-77.419 Y-10.054 E3.84439
G1 X-76.696 Y-10.35 E3.88337
G1 X-75.899 Y-10.583 E3.92479
G1 X-75.114 Y-10.724 E3.96458
G1 X-74.289 Y-10.787 E4.00586
G1 X-74.136 Y-10.79 E4.0135
G1 X-73.496 Y-10.764 E4.04545
G1 X-73.048 Y-10.717 E4.06793
G1 X-72.401 Y-10.628 E4.10051
G1 X-70.974 Y-10.417 E4.17248
G1 X-68.22 Y-10.091 E4.31083
G1 X-65.492 Y-9.845 E4.44749
G1 X-62.717 Y-9.673 E4.5862
G1 X-60.016 Y-9.583 E4.72103
G1 X-57.239 Y-9.568 E4.85957
G1 X-54.499 Y-9.632 E4.99631
G1 X-51.762 Y-9.773 E5.13304
G1 X-49.03 Y-9.991 E5.26977
G1 X-46.276 Y-10.289 E5.40797
G1 X-44.372 Y-10.556 E5.50389
G1 X-42.961 Y-10.743 E5.5749
G1 X-42.14 Y-10.789 E5.61593
G1 X-41.305 Y-10.745 E5.65765
G1 X-40.548 Y-10.63 E5.69585
G1 X-39.736 Y-10.415 E5.73775
G1 X-38.947 Y-10.113 E5.7799
G1 X-38.288 Y-9.781 E5.81671
G1 X-37.544 Y-9.303 E5.86083
G1 X-36.95 Y-8.826 E5.89884
G1 X-36.358 Y-8.24 E5.9404
G1 X-35.852 Y-7.625 E5.98013
G1 X-35.403 Y-6.944 E6.02083
G1 X-35.032 Y-6.233 E6.06084
G1 X-34.73 Y-5.464 E6.10206
G1 X-34.514 Y-4.684 E6.14243
G1 X-34.384 Y-3.91 E6.18159
G1 X-34.331 Y-3.072 E6.22348
G1 X-34.366 Y-2.253 E6.26438
G0 F3600 X-34.765 Y-2.282
G1 F1200 X-34.876 Y-1.537 E6.30196
G1 X-35.076 Y-.765 E6.34174
G1 X-35.345 Y-0.05 E6.37986
G1 X-35.685 Y0.634 E6.41797
G1 X-36.093 Y1.275 E6.45587
G1 X-36.336 Y1.596 E6.47596
G1 X-36.696 Y2.026 E6.50394
G1 X-37.039 Y2.416 E6.52985
G1 X-43.085 Y9.108 E6.97979
G1 X-43.56 Y9.621 E7.01467
G1 X-43.885 Y9.913 E7.03647
G1 X-44.259 Y10.142 E7.05835
G1 X-44.667 Y10.299 E7.08016
G1 X-45.244 Y10.389 E7.1093
G1 X-45.634 Y10.4 E7.12876
G1 X-70.246 Y10.4 E8.35666
G1 X-70.949 Y10.39 E8.39173
G1 X-71.384 Y10.344 E8.41356
G1 X-71.804 Y10.219 E8.43542
G1 X-72.194 Y10.021 E8.45724
G1 X-72.648 Y9.65 E8.48649
G1 X-73.001 Y9.277 E8.51211
G1 X-79.175 Y2.441 E8.97167
G1 X-79.713 Y1.828 E9.01236
G1 X-80.034 Y1.427 E9.03799
G1 X-80.445 Y0.819 E9.0746
G1 X-80.833 Y0.085 E9.11602
G1 X-81.11 Y-.608 E9.15326
G1 X-81.32 Y-1.345 E9.19149
G1 X-81.455 Y-2.118 E9.23064
G1 X-81.507 Y-2.887 E9.26909
G1 X-81.479 Y-3.652 E9.30728
G1 X-81.369 Y-4.424 E9.34619
G1 X-81.19 Y-5.145 E9.38325
G1 X-80.932 Y-5.862 E9.42127
G1 X-80.593 Y-6.562 E9.46007
G1 X-80.173 Y-7.237 E9.49973
G1 X-79.694 Y-7.847 E9.53843
G1 X-79.147 Y-8.414 E9.57773
G1 X-78.564 Y-8.902 E9.61566
G1 X-77.97 Y-9.306 E9.6515
G1 X-77.241 Y-9.696 E9.69275
G1 X-76.555 Y-9.976 E9.72971
G1 X-75.797 Y-10.196 E9.76909
G1 X-75.054 Y-10.329 E9.80675
G1 X-74.27 Y-10.387 E9.84597
G1 X-74.14 Y-10.39 E9.85246
G1 X-73.519 Y-10.364 E9.88347
G1 X-73.103 Y-10.321 E9.90433
G1 X-72.459 Y-10.232 E9.93677
G1 X-71.008 Y-10.018 E10.00994
G1 X-68.27 Y-9.693 E10.1475
G1 X-65.514 Y-9.445 E10.28555
G1 X-62.791 Y-9.276 E10.42166
G1 X-59.995 Y-9.183 E10.56123
G1 X-57.232 Y-9.168 E10.69908
G1 X-54.503 Y-9.232 E10.83527
G1 X-51.71 Y-9.375 E10.9748
G1 X-48.991 Y-9.592 E11.11088
G1 X-46.243 Y-9.89 E11.24878
G1 X-44.319 Y-10.159 E11.3457
G1 X-42.908 Y-10.346 E11.41671
G1 X-42.129 Y-10.389 E11.45564
G1 X-41.336 Y-10.347 E11.49526
G1 X-40.618 Y-10.236 E11.5315
G1 X-39.849 Y-10.032 E11.5712
G1 X-39.102 Y-9.745 E11.61112
G1 X-38.477 Y-9.429 E11.64606
G1 X-37.77 Y-8.973 E11.68803
G1 X-37.209 Y-8.521 E11.72397
G1 X-36.647 Y-7.964 E11.76345
G1 X-36.167 Y-7.379 E11.8012
G1 X-35.743 Y-6.734 E11.83971
G1 X-35.392 Y-6.058 E11.87771
G1 X-35.106 Y-5.328 E11.91683
G1 X-34.903 Y-4.588 E11.95511
G1 X-34.78 Y-3.854 E11.99224
G1 X-34.73 Y-3.058 E12.03203
G1 X-34.765 Y-2.282 E12.07079
G0 F3600 X-35.164 Y-2.311
G1 F1200 X-35.27 Y-1.606 E12.10636
G1 X-35.461 Y-.876 E12.144
G1 X-35.715 Y-.201 E12.17998
G1 X-36.038 Y0.447 E12.2161
G1 X-36.425 Y1.052 E12.25194
G1 X-36.643 Y1.34 E12.26996
G1 X-36.996 Y1.762 E12.2974
G1 X-37.336 Y2.148 E12.32307
G1 X-43.378 Y8.836 E12.77273
G1 X-43.853 Y9.349 E12.80761
G1 X-44.153 Y9.613 E12.82755
G1 X-44.499 Y9.813 E12.84749
G1 X-44.878 Y9.94 E12.86743
G1 X-45.57 Y9.999 E12.90208
G1 X-70.24 Y10 E14.13287
G1 X-70.943 Y9.99 E14.16794
G1 X-71.34 Y9.944 E14.18788
G1 X-71.72 Y9.821 E14.20781
G1 X-72.068 Y9.624 E14.22776
G1 X-72.565 Y9.159 E14.26172
G1 X-72.704 Y9.009 E14.27192
G1 X-78.874 Y2.177 E14.73119
G1 X-79.405 Y1.572 E14.77135
G1 X-79.72 Y1.179 E14.79648
G1 X-80.107 Y0.604 E14.83106
G1 X-80.475 Y-0.092 E14.87034
G1 X-80.735 Y-.748 E14.90554
G1 X-80.933 Y-1.445 E14.94169
G1 X-81.059 Y-2.176 E14.9787
G1 X-81.107 Y-2.903 E15.01505
G1 X-81.08 Y-3.626 E15.05115
G1 X-80.975 Y-4.357 E15.08799
G1 X-80.805 Y-5.038 E15.12301
G1 X-80.559 Y-5.717 E15.15904
G1 X-80.238 Y-6.378 E15.1957
G1 X-79.839 Y-7.016 E15.23324
G1 X-79.385 Y-7.592 E15.26983
G1 X-78.867 Y-8.129 E15.30705
G1 X-78.314 Y-8.59 E15.34297
G1 X-77.754 Y-8.969 E15.37671
G1 X-77.062 Y-9.338 E15.41583
G1 X-76.413 Y-9.602 E15.45079
G1 X-75.695 Y-9.809 E15.48807
G1 X-74.993 Y-9.933 E15.52363
G1 X-74.252 Y-9.988 E15.56071
G1 X-74.143 Y-9.99 E15.56614
G1 X-73.541 Y-9.965 E15.5962
G1 X-73.157 Y-9.924 E15.61547
G1 X-72.518 Y-9.837 E15.64764
G1 X-71.047 Y-9.62 E15.72183
G1 X-68.316 Y-9.296 E15.85903
G1 X-65.541 Y-9.046 E15.99804
G1 X-62.791 Y-8.875 E16.1355
G1 X-60.011 Y-8.783 E16.27427
G1 X-57.225 Y-8.768 E16.41327
G1 X-54.474 Y-8.832 E16.55055
G1 X-51.727 Y-8.973 E16.68778
G1 X-48.917 Y-9.197 E16.82842
G1 X-46.206 Y-9.492 E16.96447
G1 X-44.267 Y-9.763 E17.06215
G1 X-42.856 Y-9.95 E17.13316
G1 X-42.118 Y-9.989 E17.17003
G1 X-41.368 Y-9.948 E17.2075
G1 X-40.688 Y-9.842 E17.24184
G1 X-39.961 Y-9.648 E17.27938
G1 X-39.257 Y-9.376 E17.31703
G1 X-38.667 Y-9.077 E17.35003
G1 X-37.997 Y-8.643 E17.38985
G1 X-37.468 Y-8.216 E17.42377
G1 X-36.937 Y-7.689 E17.4611
G1 X-36.482 Y-7.133 E17.49694
G1 X-36.083 Y-6.524 E17.53326
G1 X-35.751 Y-5.883 E17.56928
G1 X-35.482 Y-5.191 E17.60632
G1 X-35.291 Y-4.493 E17.64242
G1 X-35.176 Y-3.798 E17.67757
G1 X-35.13 Y-3.045 E17.7152
G1 X-35.164 Y-2.311 E17.75186
G0 F3600 X-35.563 Y-2.341
G1 F1200 X-35.664 Y-1.674 E17.78552
G1 X-35.845 Y-.987 E17.82096
G1 X-36.086 Y-.352 E17.85485
G1 X-36.392 Y0.26 E17.88898
G1 X-36.758 Y0.829 E17.92274
G1 X-36.949 Y1.083 E17.93859
G1 X-37.297 Y1.498 E17.96561
G1 X-37.633 Y1.88 E17.99099
G1 X-43.672 Y8.564 E18.44041
G1 X-44.147 Y9.077 E18.47529
G1 X-44.417 Y9.31 E18.49308
G1 X-44.733 Y9.478 E18.51094
G1 X-45.27 Y9.589 E18.53829
G1 X-45.634 Y9.6 E18.55646
G1 X-70.235 Y9.6 E19.78381
G1 X-70.938 Y9.59 E19.81889
G1 X-71.292 Y9.545 E19.83669
G1 X-71.628 Y9.422 E19.85454
G1 X-72.07 Y9.097 E19.88191
G1 X-72.407 Y8.74 E19.90641
G1 X-78.574 Y1.913 E20.3654
G1 X-79.097 Y1.317 E20.40495
G1 X-79.456 Y0.863 E20.43383
G1 X-79.77 Y0.39 E20.46216
G1 X-80.116 Y-.269 E20.49929
G1 X-80.36 Y-.887 E20.53244
G1 X-80.546 Y-1.544 E20.5665
G1 X-80.664 Y-2.235 E20.60148
G1 X-80.708 Y-2.92 E20.63572
G1 X-80.681 Y-3.6 E20.66967
G1 X-80.58 Y-4.29 E20.70446
G1 X-80.419 Y-4.932 E20.73749
G1 X-80.187 Y-5.571 E20.7714
G1 X-79.883 Y-6.194 E20.80599
G1 X-79.506 Y-6.795 E20.84138
G1 X-79.077 Y-7.338 E20.87591
G1 X-78.586 Y-7.844 E20.91108
G1 X-78.065 Y-8.277 E20.94488
G1 X-77.539 Y-8.631 E20.97651
G1 X-76.884 Y-8.98 E21.01354
G1 X-76.272 Y-9.228 E21.04648
G1 X-75.594 Y-9.422 E21.08167
G1 X-74.933 Y-9.538 E21.11515
G1 X-74.233 Y-9.588 E21.15016
G1 X-74.146 Y-9.59 E21.1545
G1 X-73.564 Y-9.565 E21.18356
G1 X-73.211 Y-9.528 E21.20127
G1 X-72.576 Y-9.441 E21.23325
G1 X-71.112 Y-9.225 E21.30708
G1 X-68.367 Y-8.899 E21.44499
G1 X-65.565 Y-8.647 E21.58535
G1 X-62.795 Y-8.475 E21.72381
G1 X-60.026 Y-8.383 E21.86203
G1 X-57.253 Y-8.368 E22.00038
G1 X-54.444 Y-8.434 E22.14056
G1 X-51.675 Y-8.576 E22.27889
G1 X-48.914 Y-8.796 E22.41707
G1 X-46.141 Y-9.097 E22.55623
G1 X-44.214 Y-9.366 E22.6533
G1 X-42.803 Y-9.553 E22.72431
G1 X-42.107 Y-9.589 E22.75908
G1 X-41.4 Y-9.549 E22.79441
G1 X-40.758 Y-9.448 E22.82683
G1 X-40.074 Y-9.264 E22.86217
G1 X-39.412 Y-9.007 E22.8976
G1 X-38.857 Y-8.724 E22.92868
G1 X-38.223 Y-8.313 E22.96637
G1 X-37.727 Y-7.911 E22.99823
G1 X-37.227 Y-7.413 E23.03343
G1 X-36.797 Y-6.886 E23.06737
G1 X-36.424 Y-6.314 E23.10144
G1 X-36.111 Y-5.708 E23.13546
G1 X-35.858 Y-5.055 E23.1704
G1 X-35.679 Y-4.397 E23.20442
G1 X-35.572 Y-3.742 E23.23753
G1 X-35.53 Y-3.031 E23.27307
G1 X-35.563 Y-2.341 E23.30753
G0 F3600 X-35.962 Y-2.37
G1 F1200 X-36.058 Y-1.743 E23.33918
G1 X-36.229 Y-1.098 E23.37247
G1 X-36.456 Y-.502 E23.40429
G1 X-36.745 Y0.072 E23.43635
G1 X-37.09 Y0.607 E23.46811
G1 X-37.256 Y0.827 E23.48186
G1 X-37.597 Y1.234 E23.50835
G1 X-37.93 Y1.611 E23.53344
G1 X-43.965 Y8.292 E23.98261
G1 X-44.44 Y8.805 E24.01749
G1 X-44.678 Y9.003 E24.03294
G1 X-44.958 Y9.134 E24.04836
G1 X-45.596 Y9.199 E24.08036
G1 X-70.229 Y9.2 E25.3093
G1 X-70.932 Y9.19 E25.34438
G1 X-71.238 Y9.146 E25.3598
G1 X-71.523 Y9.025 E25.37525
G1 X-71.987 Y8.605 E25.40647
G1 X-72.111 Y8.472 E25.41554
G1 X-78.273 Y1.649 E25.87422
G1 X-78.789 Y1.061 E25.91325
G1 X-79.13 Y0.633 E25.94055
G1 X-79.432 Y0.175 E25.96792
G1 X-79.757 Y-.446 E26.00289
G1 X-79.985 Y-1.027 E26.03403
G1 X-80.158 Y-1.644 E26.066
G1 X-80.268 Y-2.293 E26.09884
G1 X-80.308 Y-2.936 E26.13098
G1 X-80.281 Y-3.573 E26.16279
G1 X-80.186 Y-4.223 E26.19556
G1 X-80.034 Y-4.825 E26.22654
G1 X-79.814 Y-5.426 E26.25847
G1 X-79.527 Y-6.01 E26.29093
G1 X-79.172 Y-6.575 E26.32422
G1 X-78.769 Y-7.083 E26.35657
G1 X-78.305 Y-7.559 E26.38973
G1 X-77.815 Y-7.965 E26.42148
G1 X-77.324 Y-8.294 E26.45097
G1 X-76.705 Y-8.622 E26.48592
G1 X-76.13 Y-8.853 E26.51683
G1 X-75.492 Y-9.036 E26.54995
G1 X-74.873 Y-9.142 E26.58128
G1 X-74.214 Y-9.189 E26.61424
G1 X-73.586 Y-9.166 E26.64559
G1 X-73.266 Y-9.132 E26.66165
G1 X-72.635 Y-9.045 E26.69342
G1 X-71.186 Y-8.831 E26.7665
G1 X-68.379 Y-8.498 E26.90752
G1 X-65.626 Y-8.25 E27.04543
G1 X-62.804 Y-8.075 E27.18649
G1 X-60.041 Y-7.983 E27.32441
G1 X-57.246 Y-7.968 E27.46386
G1 X-54.424 Y-8.034 E27.60468
G1 X-51.656 Y-8.176 E27.74296
G1 X-48.871 Y-8.398 E27.88235
G1 X-46.076 Y-8.701 E28.02261
G1 X-44.162 Y-8.97 E28.11904
G1 X-42.751 Y-9.157 E28.19005
G1 X-42.096 Y-9.19 E28.22277
G1 X-41.431 Y-9.15 E28.256
G1 X-40.828 Y-9.054 E28.28647
G1 X-40.187 Y-8.88 E28.3196
G1 X-39.567 Y-8.638 E28.35281
G1 X-39.047 Y-8.372 E28.38195
G1 X-38.449 Y-7.984 E28.41751
G1 X-37.985 Y-7.606 E28.44737
G1 X-37.516 Y-7.137 E28.48046
G1 X-37.113 Y-6.64 E28.51238
G1 X-36.764 Y-6.104 E28.54429
G1 X-36.471 Y-5.533 E28.57631
G1 X-36.235 Y-4.919 E28.60913
G1 X-36.068 Y-4.301 E28.64107
G1 X-35.968 Y-3.686 E28.67215
G1 X-35.93 Y-3.018 E28.70553
G1 X-35.962 Y-2.37 E28.7379
G1 F1500 E22.2379
G1 F600 Z1.3
;MESH:FPV_Antenne.3mf
G0 F3600 X-41.489 Y0.09 Z1.3
;TYPE:WALL-INNER
G1 F600 Z0.3
G1 F1500 E29.0705
G1 F1200 X-41 Y-0.052 E29.09591
G1 X-40.542 Y-.27 E29.12121
G1 X-40.124 Y-.558 E29.14654
G1 X-39.76 Y-.909 E29.17177
G1 X-39.454 Y-1.314 E29.19709
G1 X-39.218 Y-1.764 E29.22244
G1 X-39.057 Y-2.245 E29.24775
G1 X-38.976 Y-2.747 E29.27312
G1 X-38.976 Y-3.253 E29.29836
G1 X-39.057 Y-3.755 E29.32373
G1 X-39.218 Y-4.236 E29.34903
G1 X-39.454 Y-4.686 E29.37439
G1 X-39.76 Y-5.091 E29.39971
G1 X-40.124 Y-5.442 E29.42494
G1 X-40.542 Y-5.73 E29.45026
G1 X-41 Y-5.948 E29.47557
G1 X-41.489 Y-6.09 E29.50097
G1 X-41.995 Y-6.15 E29.52639
G1 X-42.498 Y-6.129 E29.55151
G1 X-42.997 Y-6.03 E29.57689
G1 X-43.472 Y-5.847 E29.60229
G1 X-43.909 Y-5.595 E29.62745
G1 X-44.303 Y-5.276 E29.65275
G1 X-44.64 Y-4.895 E29.67812
G1 X-44.913 Y-4.464 E29.70358
G1 X-45.11 Y-3.998 E29.72882
G1 X-45.231 Y-3.507 E29.75405
G1 X-45.272 Y-3 E29.77942
G1 X-45.231 Y-2.493 E29.8048
G1 X-45.11 Y-2.002 E29.83003
G1 X-44.913 Y-1.536 E29.85527
G1 X-44.64 Y-1.105 E29.88072
G1 X-44.303 Y-.724 E29.9061
G1 X-43.909 Y-.405 E29.93139
G1 X-43.472 Y-.153 E29.95656
G1 X-42.997 Y0.03 E29.98195
G1 X-42.498 Y0.129 E30.00733
G1 X-41.995 Y0.15 E30.03245
G1 X-41.489 Y0.09 E30.05787
G0 F3600 X-52.742 Y1
G1 F1200 X-44.761 Y-6.001 E30.58753
G1 X-44.073 Y-6.487 E30.62956
G1 X-43.315 Y-6.814 E30.67074
G1 X-42.49 Y-6.98 E30.71273
G1 X-42.082 Y-6.997 E30.7331
G1 X-41.251 Y-6.902 E30.77483
G1 X-40.468 Y-6.64 E30.81602
G1 X-39.746 Y-6.216 E30.85779
G1 X-39.13 Y-5.653 E30.89943
G1 X-38.645 Y-4.978 E30.9409
G1 X-38.312 Y-4.218 E30.98229
G1 X-38.143 Y-3.406 E31.02367
G1 X-38.147 Y-2.563 E31.06573
G1 X-38.321 Y-1.753 E31.10706
G1 X-38.661 Y-.993 E31.1486
G1 X-39.17 Y-.298 E31.19158
G1 X-45.763 Y7 E31.68225
G1 X-56.962 Y7 E32.24097
G1 X-56.651 Y6.866 E32.25787
G1 X-56.222 Y6.594 E32.28321
G1 X-55.838 Y6.257 E32.3087
G1 X-55.512 Y5.866 E32.3341
G1 X-55.245 Y5.427 E32.35973
G1 X-55.05 Y4.956 E32.38516
G1 X-54.922 Y4.457 E32.41086
G1 X-54.869 Y3.912 E32.43818
G1 X-54.888 Y3.406 E32.46345
G1 X-54.982 Y2.903 E32.48897
G1 X-55.147 Y2.417 E32.51458
G1 X-55.381 Y1.963 E32.54006
G1 X-55.681 Y1.547 E32.56565
G1 X-56.039 Y1.187 E32.59098
G1 X-56.29 Y1 E32.6066
G1 X-52.742 Y1 E32.78361
G0 F3600 X-55.806 Y5.656
G0 X-56.439 Y6.305
G0 X-57.234 Y6.724
G0 X-58.12 Y6.87
G0 X-58.998 Y6.725
G0 X-59.799 Y6.304
G0 X-63.496 Y1
G1 F1200 X-59.948 Y1 E32.96062
G1 X-60.199 Y1.186 E32.9762
G1 X-60.557 Y1.549 E33.00164
G1 X-60.855 Y1.963 E33.02709
G1 X-61.092 Y2.417 E33.05264
G1 X-61.256 Y2.902 E33.07818
G1 X-61.35 Y3.405 E33.10371
G1 X-61.37 Y3.953 E33.13107
G1 X-61.316 Y4.46 E33.15651
G1 X-61.189 Y4.955 E33.182
G1 X-60.991 Y5.428 E33.20758
G1 X-60.723 Y5.869 E33.23333
G1 X-60.4 Y6.256 E33.25848
G1 X-60.016 Y6.593 E33.28397
G1 X-59.587 Y6.865 E33.30931
G1 X-59.274 Y7 E33.32632
G1 X-59.73 Y7 E33.34749
G1 X-70.475 Y7 E33.88356
G1 X-77.068 Y-.298 E34.37423
G1 X-77.577 Y-.993 E34.41721
G1 X-77.916 Y-1.752 E34.45868
G1 X-78.092 Y-2.564 E34.50013
G1 X-78.095 Y-3.406 E34.54214
G1 X-77.926 Y-4.218 E34.58352
