;FLAVOR:Marlin
;TIME:5673
;Filament used: 8.63352m
;Layer height: 0.24
;MINX:-41.584
;MINY:-31.464
;MINZ:0.3
;MAXX:36.993
;MAXY:39.252
;MAXZ:56.46
;Generated with Cura_SteamEngine 4.13.1
M140 S50
M105
M190 S50
M104 S210
M105
M109 S210
M82 ;absolute extrusion mode
;FLAVOR:Marlin
M82 ;absolute extrusion mode
G21
G90
M82
M107 T0
G28
G92 E0
G0 E3 F200
G92 E0 ; reset extrusion distance
M106 S255 ; Enable cooling fan full speed
G1 X-98 Y0 Z0.4 F3000 ; move to arc start
G3 X0 Y-98 I98 Z0.4 E40 F400 ; lay arc stripe 90deg
G92 E0 ; reset extrusion distance
G4 P500 ; wait for 0.5 sec
G0 Z10 E-1 ; Lift 15mm and retract 1mm filament
G4 P2000 ; wait for 5 sec
G0 Z15
M107 ; Disable cooling fan
G1 X0 Y-85 Z4 E0 F3000 ; get off the bed
G92 E0
G92 E0
G1 F1500 E-6.5
;LAYER_COUNT:236
;LAYER:0
M106 S25.5
G1 F600 Z1.3
G0 F3600 X6.263 Y15.393 Z1.3
;TYPE:SKIRT
G1 F600 Z0.3
G1 F1500 E0.3326
G1 F2700 X0.796 Y23.2 E0.8081
G1 X0.69 Y23.339 E0.81682
G1 X0.196 Y23.937 E0.85552
G1 X-0.043 Y24.184 E0.87266
G1 X-.621 Y24.695 E0.91115
G1 X-.894 Y24.901 E0.92822
G1 X-1.558 Y25.325 E0.96752
G1 X-1.86 Y25.487 E0.98462
G1 X-2.578 Y25.801 E1.02372
G1 X-2.908 Y25.915 E1.04113
G1 X-3.664 Y26.111 E1.0801
G1 X-4.007 Y26.171 E1.09747
G1 X-4.803 Y26.247 E1.13736
G1 X-5.149 Y26.253 E1.15463
G1 X-5.936 Y26.204 E1.19397
G1 X-6.278 Y26.155 E1.2112
G1 X-7.04 Y25.985 E1.25016
G1 X-7.593 Y25.796 E1.27931
G1 X-7.477 Y26.341 E1.30711
G1 X-7.418 Y26.58 E1.31939
G1 X-7.224 Y27.315 E1.35732
G1 X-7.163 Y27.528 E1.36837
G1 X-6.944 Y28.238 E1.40544
G1 X-6.768 Y28.898 E1.43952
G1 X-6.761 Y29.117 E1.45045
G1 X-6.646 Y29.26 E1.45961
G1 X-6.372 Y29.832 E1.49125
G1 X-6.132 Y30.413 E1.52261
G1 X-5.967 Y30.793 E1.54328
G1 X-5.637 Y31.48 E1.5813
G1 X-5.367 Y31.991 E1.61014
G1 X-4.935 Y32.692 E1.65122
G1 X-4.479 Y33.287 E1.68862
G1 X-4.085 Y33.772 E1.71979
G1 X-3.899 Y34.147 E1.74067
G1 X-3.787 Y34.551 E1.76159
G1 X-3.759 Y35.148 E1.79141
G1 X-3.809 Y35.564 E1.81231
G1 X-3.937 Y35.963 E1.83322
G1 X-4.139 Y36.33 E1.85412
G1 X-4.402 Y36.649 E1.87474
G1 X-6.361 Y38.608 E2.01296
G1 X-6.685 Y38.874 E2.03388
G1 X-7.052 Y39.075 E2.05475
G1 X-7.452 Y39.202 E2.07569
G1 X-8.083 Y39.252 E2.10727
G1 X-8.5 Y39.212 E2.12817
G1 X-8.902 Y39.094 E2.14907
G1 X-9.274 Y38.901 E2.16998
G1 X-9.639 Y38.608 E2.19333
G1 X-40.94 Y7.307 E4.40178
G1 X-41.206 Y6.983 E4.4227
G1 X-41.407 Y6.616 E4.44357
G1 X-41.534 Y6.216 E4.46451
G1 X-41.584 Y5.585 E4.49609
G1 X-41.544 Y5.168 E4.51699
G1 X-41.426 Y4.766 E4.53789
G1 X-41.233 Y4.394 E4.5588
G1 X-40.939 Y4.029 E4.58218
G1 X-38.979 Y2.071 E4.7204
G1 X-38.656 Y1.804 E4.74131
G1 X-38.288 Y1.604 E4.76221
G1 X-37.888 Y1.477 E4.78314
G1 X-37.291 Y1.425 E4.81304
G1 X-36.874 Y1.46 E4.83392
G1 X-36.47 Y1.573 E4.85485
G1 X-36.096 Y1.761 E4.87573
G1 X-35.765 Y2.014 E4.89652
G1 X-35.278 Y2.467 E4.9297
G1 X-34.655 Y2.983 E4.97006
G1 X-34.009 Y3.466 E5.0103
G1 X-33.28 Y3.966 E5.0544
G1 X-32.419 Y4.51 E5.10521
G1 X-31.624 Y4.975 E5.15116
G1 X-30.787 Y5.434 E5.19879
G1 X-29.943 Y5.86 E5.24595
G1 X-29.171 Y6.221 E5.28847
G1 X-28.382 Y6.553 E5.33118
G1 X-27.736 Y6.786 E5.36544
G1 X-27.24 Y6.929 E5.39119
G1 X-1.036 Y-30.494 E7.67043
G1 X-.764 Y-30.813 E7.69135
G1 X-.437 Y-31.074 E7.71222
G1 X0.124 Y-31.336 E7.74311
G1 X0.665 Y-31.46 E7.7708
G1 X1.084 Y-31.464 E7.79171
G1 X1.684 Y-31.326 E7.82242
G1 X6.577 Y-29.451 E8.08384
G1 X7.074 Y-29.188 E8.1119
G1 X25.578 Y-16.232 E9.23886
G1 X25.897 Y-15.96 E9.25977
G1 X26.158 Y-15.633 E9.28065
G1 X26.375 Y-15.186 E9.30544
G1 X26.928 Y-15.123 E9.33321
G1 X27.321 Y-14.978 E9.3541
G1 X28.013 Y-14.53 E9.39523
G1 X31.638 Y-14.658 E9.5762
G1 X32.307 Y-14.578 E9.60981
G1 X32.759 Y-14.411 E9.63385
G1 X33.04 Y-14.244 E9.65016
G1 X36.029 Y-12.149 E9.83226
G1 X36.347 Y-11.876 E9.85317
G1 X36.609 Y-11.549 E9.87408
G1 X36.803 Y-11.178 E9.89496
G1 X36.963 Y-10.55 E9.9273
G1 X36.993 Y-10.132 E9.9482
G1 X36.944 Y-9.716 E9.9691
G1 X36.817 Y-9.317 E9.98999
G1 X36.596 Y-8.92 E10.01266
G1 X28.079 Y3.234 E10.75309
G1 X28.161 Y3.817 E10.78246
G1 X28.161 Y7.326 E10.95752
G1 X28.121 Y7.743 E10.97842
G1 X28.003 Y8.145 E10.99933
G1 X27.81 Y8.517 E11.02023
G1 X27.551 Y8.846 E11.04112
G1 X27.234 Y9.12 E11.06203
G1 X26.871 Y9.329 E11.08293
G1 X26.474 Y9.465 E11.10386
G1 X25.961 Y9.526 E11.12964
G1 X24.937 Y9.526 E11.18072
G1 X22.958 Y10.562 E11.29217
G1 X15.231 Y21.603 E11.9645
G1 X14.96 Y21.922 E11.98538
G1 X14.632 Y22.184 E12.00633
G1 X14.261 Y22.379 E12.02724
G1 X13.778 Y22.514 E12.05226
G1 X13.192 Y22.568 E12.08162
G1 X12.776 Y22.515 E12.10254
G1 X12.378 Y22.384 E12.12344
G1 X11.998 Y22.17 E12.1452
G1 X9.005 Y20.072 E12.32755
G1 X8.687 Y19.8 E12.34843
G1 X8.46 Y19.527 E12.36615
G1 X8.244 Y19.168 E12.38705
G1 X8.117 Y18.835 E12.40483
G1 X7.336 Y16.167 E12.54352
G1 X6.417 Y15.524 E12.59948
G1 X6.263 Y15.393 E12.60957
G0 F3600 X6.647 Y15.196
G1 F2700 X6.361 Y14.948 E12.62845
G1 X6.218 Y14.758 E12.64032
G1 X0.468 Y22.97 E13.14046
G1 X0.382 Y23.084 E13.14759
G1 X-.112 Y23.682 E13.18628
G1 X-.308 Y23.885 E13.20036
G1 X-.886 Y24.396 E13.23885
G1 X-1.109 Y24.564 E13.25278
G1 X-1.773 Y24.988 E13.29209
G1 X-2.021 Y25.12 E13.3061
G1 X-2.739 Y25.434 E13.3452
G1 X-3.008 Y25.527 E13.3594
G1 X-3.764 Y25.723 E13.39836
G1 X-4.045 Y25.773 E13.4126
G1 X-4.841 Y25.849 E13.4525
G1 X-5.124 Y25.854 E13.46662
G1 X-5.911 Y25.805 E13.50596
G1 X-6.191 Y25.765 E13.52007
G1 X-6.953 Y25.595 E13.55902
G1 X-7.224 Y25.511 E13.57317
G1 X-7.958 Y25.22 E13.61257
G1 X-8.122 Y25.14 E13.62167
G1 X-8.067 Y25.481 E13.6389
G1 X-7.865 Y26.437 E13.68765
G1 X-7.798 Y26.708 E13.70158
G1 X-7.609 Y27.424 E13.73852
G1 X-7.553 Y27.621 E13.74874
G1 X-7.313 Y28.397 E13.78926
G1 X-7.161 Y28.985 E13.81956
G1 X-7.16 Y29.258 E13.83318
G1 X-6.906 Y29.604 E13.8546
G1 X-6.742 Y29.984 E13.87525
G1 X-6.501 Y30.567 E13.90672
G1 X-6.337 Y30.947 E13.92737
G1 X-5.988 Y31.672 E13.96751
G1 X-5.721 Y32.177 E13.99601
G1 X-5.26 Y32.927 E14.03993
G1 X-4.786 Y33.543 E14.07871
G1 X-4.406 Y34.014 E14.1089
G1 X-4.248 Y34.358 E14.12779
G1 X-4.166 Y34.728 E14.14669
G1 X-4.159 Y35.138 E14.16715
G1 X-4.208 Y35.513 E14.18602
G1 X-4.335 Y35.871 E14.20497
G1 X-4.685 Y36.366 E14.23522
G1 X-6.644 Y38.325 E14.37343
G1 X-6.939 Y38.563 E14.39234
G1 X-7.277 Y38.734 E14.41124
G1 X-7.643 Y38.831 E14.43013
G1 X-8.083 Y38.852 E14.45211
G1 X-8.46 Y38.812 E14.47102
G1 X-8.82 Y38.694 E14.48992
G1 X-9.147 Y38.504 E14.50879
G1 X-9.356 Y38.325 E14.52252
G1 X-40.657 Y7.024 E16.73098
G1 X-40.895 Y6.729 E16.74989
G1 X-41.066 Y6.391 E16.76878
G1 X-41.163 Y6.025 E16.78767
G1 X-41.184 Y5.585 E16.80965
G1 X-41.144 Y5.208 E16.82857
G1 X-41.026 Y4.848 E16.84747
G1 X-40.836 Y4.521 E16.86633
G1 X-40.656 Y4.312 E16.8801
G1 X-38.696 Y2.354 E17.01831
G1 X-38.401 Y2.115 E17.03725
G1 X-38.063 Y1.944 E17.05615
G1 X-37.697 Y1.848 E17.07503
G1 X-37.286 Y1.825 E17.09557
G1 X-36.909 Y1.86 E17.11446
G1 X-36.548 Y1.974 E17.13334
G1 X-36.038 Y2.307 E17.16373
G1 X-35.55 Y2.761 E17.19698
G1 X-34.9 Y3.299 E17.23908
G1 X-34.243 Y3.791 E17.28003
G1 X-33.479 Y4.314 E17.32622
G1 X-32.655 Y4.835 E17.37486
G1 X-31.839 Y5.313 E17.42204
G1 X-30.957 Y5.796 E17.47221
G1 X-30.1 Y6.229 E17.52011
G1 X-29.338 Y6.586 E17.56209
G1 X-28.535 Y6.923 E17.60554
G1 X-27.852 Y7.17 E17.64178
G1 X-27.304 Y7.327 E17.67022
G1 X-27.06 Y7.371 E17.68259
G1 X-.708 Y-30.264 E19.97472
G1 X-.46 Y-30.55 E19.99361
G1 X-.157 Y-30.778 E20.01253
G1 X0.371 Y-30.994 E20.04099
G1 X0.743 Y-31.065 E20.05988
G1 X1.122 Y-31.058 E20.0788
G1 X1.541 Y-30.953 E20.10035
G1 X6.434 Y-29.078 E20.36177
G1 X6.844 Y-28.86 E20.38494
G1 X25.348 Y-15.904 E21.5119
G1 X25.634 Y-15.656 E21.53078
G1 X25.862 Y-15.353 E21.5497
G1 X26.02 Y-15.009 E21.56859
G1 X26.083 Y-14.763 E21.58126
G1 X26.326 Y-14.795 E21.59348
G1 X26.704 Y-14.763 E21.61241
G1 X27.066 Y-14.654 E21.63127
G1 X27.399 Y-14.471 E21.65023
G1 X27.894 Y-14.125 E21.68036
G1 X31.652 Y-14.258 E21.86796
G1 X32.199 Y-14.193 E21.89545
G1 X32.613 Y-14.036 E21.91754
G1 X32.81 Y-13.916 E21.92904
G1 X35.799 Y-11.821 E22.11115
G1 X36.085 Y-11.572 E22.13007
G1 X36.312 Y-11.269 E22.14895
G1 X36.471 Y-10.925 E22.16786
G1 X36.569 Y-10.483 E22.19045
G1 X36.592 Y-10.105 E22.20934
G1 X36.536 Y-9.73 E22.22826
G1 X36.403 Y-9.375 E22.24717
G1 X36.268 Y-9.149 E22.2603
G1 X27.632 Y3.175 E23.01108
G1 X27.697 Y3.341 E23.01998
G1 X27.761 Y3.817 E23.04394
G1 X27.761 Y7.326 E23.219
G1 X27.721 Y7.703 E23.23792
G1 X27.603 Y8.063 E23.25682
G1 X27.413 Y8.39 E23.27569
G1 X27.158 Y8.671 E23.29462
G1 X26.849 Y8.891 E23.31354
G1 X26.502 Y9.043 E23.33244
G1 X25.961 Y9.126 E23.35975
G1 X24.839 Y9.126 E23.41573
G1 X22.687 Y10.253 E23.53692
G1 X14.904 Y21.374 E24.21413
G1 X14.655 Y21.66 E24.23305
G1 X14.352 Y21.887 E24.25193
G1 X14.008 Y22.046 E24.27084
G1 X13.547 Y22.146 E24.29438
G1 X13.168 Y22.167 E24.31331
G1 X12.794 Y22.107 E24.33221
G1 X12.44 Y21.971 E24.35113
G1 X12.228 Y21.843 E24.36349
G1 X9.235 Y19.745 E24.54584
G1 X8.822 Y19.342 E24.57463
G1 X8.589 Y18.962 E24.59687
G1 X8.5 Y18.722 E24.60964
G1 X7.68 Y15.918 E24.75539
G1 X6.647 Y15.196 E24.81826
G0 F3600 X6.876 Y14.868
G1 F2700 X6.627 Y14.646 E24.83491
G1 X6.438 Y14.37 E24.8516
G1 X6.304 Y13.939 E24.87411
G1 X0.141 Y22.741 E25.41019
G1 X0.073 Y22.83 E25.41578
G1 X-.421 Y23.428 E25.45448
G1 X-.573 Y23.585 E25.46538
G1 X-1.151 Y24.096 E25.50387
G1 X-1.325 Y24.227 E25.51473
G1 X-1.989 Y24.651 E25.55404
G1 X-2.181 Y24.754 E25.56491
G1 X-2.899 Y25.068 E25.60401
G1 X-3.109 Y25.14 E25.61508
G1 X-3.865 Y25.336 E25.65405
G1 X-4.083 Y25.375 E25.66509
G1 X-4.879 Y25.451 E25.70499
G1 X-5.099 Y25.454 E25.71596
G1 X-5.886 Y25.405 E25.7553
G1 X-6.104 Y25.374 E25.76629
G1 X-6.866 Y25.204 E25.80524
G1 X-7.077 Y25.139 E25.81626
G1 X-7.811 Y24.848 E25.85565
G1 X-8.007 Y24.752 E25.86654
G1 X-8.598 Y24.403 E25.90078
G1 X-8.54 Y25.06 E25.93368
G1 X-8.462 Y25.546 E25.95824
G1 X-8.248 Y26.56 E26.00994
G1 X-8.192 Y26.785 E26.02151
G1 X-7.994 Y27.534 E26.06016
G1 X-7.936 Y27.739 E26.07079
G1 X-7.704 Y28.489 E26.10996
G1 X-7.554 Y29.068 E26.1398
G1 X-7.578 Y29.402 E26.15651
G1 X-7.351 Y29.647 E26.17317
G1 X-7.112 Y30.137 E26.20037
G1 X-6.871 Y30.721 E26.23189
G1 X-6.697 Y31.122 E26.2537
G1 X-6.35 Y31.843 E26.29362
G1 X-6.066 Y32.381 E26.32397
G1 X-5.59 Y33.153 E26.36921
G1 X-5.094 Y33.8 E26.40989
G1 X-4.73 Y34.252 E26.43884
G1 X-4.604 Y34.561 E26.45549
G1 X-4.558 Y35.128 E26.48387
G1 X-4.607 Y35.458 E26.50051
G1 X-4.732 Y35.768 E26.51719
G1 X-4.968 Y36.083 E26.53683
G1 X-6.927 Y38.042 E26.67505
G1 X-7.19 Y38.248 E26.69171
G1 X-7.494 Y38.387 E26.70839
G1 X-8.083 Y38.452 E26.73795
G1 X-8.415 Y38.412 E26.75464
G1 X-8.727 Y38.295 E26.77126
G1 X-9.073 Y38.042 E26.79264
G1 X-40.374 Y6.741 E29.0011
G1 X-40.58 Y6.478 E29.01777
G1 X-40.719 Y6.174 E29.03444
G1 X-40.784 Y5.585 E29.06401
G1 X-40.744 Y5.253 E29.08069
G1 X-40.627 Y4.941 E29.09731
G1 X-40.373 Y4.595 E29.11873
G1 X-38.413 Y2.637 E29.25695
G1 X-38.151 Y2.43 E29.27361
G1 X-37.846 Y2.292 E29.29031
G1 X-37.281 Y2.225 E29.31869
G1 X-36.949 Y2.261 E29.33535
G1 X-36.635 Y2.374 E29.352
G1 X-36.31 Y2.6 E29.37175
G1 X-35.803 Y3.071 E29.40628
G1 X-35.158 Y3.605 E29.44805
G1 X-34.477 Y4.116 E29.49053
G1 X-33.698 Y4.649 E29.53762
G1 X-32.857 Y5.181 E29.58727
G1 X-32.04 Y5.659 E29.63449
G1 X-31.138 Y6.153 E29.6858
G1 X-30.285 Y6.584 E29.73348
G1 X-29.493 Y6.955 E29.77711
G1 X-28.688 Y7.293 E29.82067
G1 X-27.976 Y7.55 E29.85844
G1 X-27.39 Y7.718 E29.88885
G1 X-26.872 Y7.798 E29.915
G1 X-.381 Y-30.035 E32.21921
G1 X-.158 Y-30.284 E32.23588
G1 X0.118 Y-30.473 E32.25257
G1 X0.488 Y-30.611 E32.27227
G1 X0.817 Y-30.67 E32.28895
G1 X1.15 Y-30.649 E32.3056
G1 X1.398 Y-30.579 E32.31845
G1 X6.291 Y-28.704 E32.57987
G1 X6.615 Y-28.533 E32.59815
G1 X25.119 Y-15.577 E33.72511
G1 X25.368 Y-15.354 E33.74179
G1 X25.557 Y-15.078 E33.75848
G1 X25.724 Y-14.507 E33.78816
G1 X25.739 Y-14.235 E33.80175
G1 X26.199 Y-14.385 E33.82589
G1 X26.533 Y-14.385 E33.84255
G1 X26.857 Y-14.307 E33.85918
G1 X27.17 Y-14.143 E33.87681
G1 X27.775 Y-13.721 E33.91361
G1 X31.667 Y-13.858 E34.1079
G1 X32.153 Y-13.791 E34.13238
G1 X32.581 Y-13.588 E34.15601
G1 X35.57 Y-11.493 E34.33812
G1 X35.818 Y-11.27 E34.35475
G1 X36.007 Y-10.995 E34.3714
G1 X36.174 Y-10.416 E34.40147
G1 X36.19 Y-10.083 E34.4181
G1 X36.127 Y-9.755 E34.43476
G1 X35.941 Y-9.379 E34.45569
G1 X27.179 Y3.125 E35.21743
G1 X27.321 Y3.485 E35.23674
G1 X27.361 Y3.817 E35.25342
G1 X27.361 Y7.326 E35.42849
G1 X27.321 Y7.658 E35.44517
G1 X27.204 Y7.97 E35.46179
G1 X27.016 Y8.247 E35.4785
G1 X26.768 Y8.47 E35.49514
G1 X26.474 Y8.629 E35.51181
G1 X25.961 Y8.726 E35.53786
G1 X24.739 Y8.726 E35.59882
G1 X22.416 Y9.942 E35.72964
G1 X14.576 Y21.145 E36.41183
G1 X14.353 Y21.394 E36.4285
G1 X14.078 Y21.583 E36.44515
G1 X13.483 Y21.751 E36.47599
G1 X13.149 Y21.765 E36.49267
G1 X12.822 Y21.698 E36.50933
G1 X12.457 Y21.515 E36.5297
G1 X9.464 Y19.417 E36.71205
G1 X9.103 Y19.05 E36.73773
G1 X8.884 Y18.61 E36.76225
G1 X8.024 Y15.671 E36.91503
G1 X6.876 Y14.868 E36.98492
G0 F3600 X7.105 Y14.541
G1 F2700 X6.899 Y14.348 E36.99901
G1 X6.755 Y14.105 E37.0131
G1 X6.684 Y13.832 E37.02717
G1 X6.693 Y13.55 E37.04125
G1 X6.859 Y13.147 E37.06299
G1 X11.875 Y5.983 E37.49931
G1 X12.068 Y5.777 E37.51339
G1 X12.31 Y5.634 E37.52741
G1 X12.448 Y5.595 E37.53457
G1 X16.076 Y0.418 E37.84996
G1 X17.041 Y-.963 E37.93401
G1 X21.065 Y-6.685 E38.28301
G1 X21.061 Y-6.932 E38.29533
G1 X21.135 Y-7.205 E38.30944
G1 X21.234 Y-7.383 E38.3196
G1 X25.458 Y-13.414 E38.68695
G1 X25.654 Y-13.695 E38.70404
G1 X25.878 Y-13.867 E38.71813
G1 X26.141 Y-13.969 E38.7322
G1 X26.422 Y-13.994 E38.74628
G1 X26.699 Y-13.939 E38.76037
G1 X26.941 Y-13.815 E38.77393
G1 X27.656 Y-13.316 E38.81743
G1 X31.681 Y-13.458 E39.01837
G1 X32.045 Y-13.405 E39.03672
G1 X32.351 Y-13.261 E39.05359
G1 X35.34 Y-11.166 E39.2357
G1 X35.546 Y-10.973 E39.24978
G1 X35.69 Y-10.73 E39.26387
G1 X35.78 Y-10.349 E39.2834
G1 X35.787 Y-10.067 E39.29748
G1 X35.716 Y-9.794 E39.31155
G1 X35.613 Y-9.608 E39.32216
G1 X26.713 Y3.094 E40.09594
G1 X26.942 Y3.623 E40.1247
G1 X26.961 Y3.817 E40.13442
G1 X26.961 Y7.326 E40.30949
G1 X26.921 Y7.605 E40.32355
G1 X26.805 Y7.862 E40.33762
G1 X26.622 Y8.077 E40.3517
G1 X26.386 Y8.231 E40.36576
G1 X25.961 Y8.326 E40.38749
G1 X24.642 Y8.326 E40.45329
G1 X22.143 Y9.635 E40.59404
G1 X14.248 Y20.915 E41.28095
G1 X14.056 Y21.121 E41.29499
G1 X13.813 Y21.265 E41.30909
G1 X13.42 Y21.356 E41.32921
G1 X13.138 Y21.361 E41.34328
G1 X12.865 Y21.287 E41.3574
G1 X12.687 Y21.188 E41.36756
G1 X9.694 Y19.09 E41.54991
G1 X9.424 Y18.812 E41.56924
G1 X9.268 Y18.498 E41.58674
G1 X8.369 Y15.424 E41.74652
G1 X7.105 Y14.541 E41.82345
G0 F3600 X7.334 Y14.213
G1 F2700 X7.181 Y14.057 E41.83435
G1 X7.094 Y13.857 E41.84523
G1 X7.084 Y13.639 E41.85612
G1 X7.186 Y13.377 E41.87014
G1 X12.202 Y6.213 E42.30646
G1 X12.358 Y6.06 E42.31736
G1 X12.725 Y5.898 E42.33737
G1 X16.404 Y0.648 E42.65721
G1 X17.368 Y-.733 E42.74123
G1 X21.482 Y-6.582 E43.09799
G1 X21.466 Y-6.932 E43.11547
G1 X21.562 Y-7.153 E43.12749
G1 X25.794 Y-13.196 E43.49556
G1 X25.976 Y-13.449 E43.51111
G1 X26.164 Y-13.559 E43.52197
G1 X26.379 Y-13.595 E43.53285
G1 X26.712 Y-13.487 E43.55031
G1 X27.535 Y-12.912 E43.6004
G1 X31.695 Y-13.059 E43.80808
G1 X31.938 Y-13.02 E43.82035
G1 X32.121 Y-12.933 E43.83046
G1 X35.11 Y-10.838 E44.01257
G1 X35.263 Y-10.683 E44.02343
G1 X35.386 Y-10.282 E44.04436
G1 X35.382 Y-10.064 E44.05524
G1 X35.285 Y-9.838 E44.06751
G1 X26.267 Y3.031 E44.85149
G1 X26.263 Y3.095 E44.85469
G1 X26.494 Y3.541 E44.87975
G1 X26.561 Y3.817 E44.89392
G1 X26.561 Y7.326 E45.06898
G1 X26.521 Y7.541 E45.07989
G1 X26.408 Y7.727 E45.09075
G1 X26.235 Y7.86 E45.10164
