;FLAVOR:Marlin
;TIME:1450
;Filament used: 0.597656m
;Layer height: 0.1
;MINX:-13.539
;MINY:-60.289
;MINZ:0.3
;MAXX:13.538
;MAXY:67.642
;MAXZ:13
;Generated with Cura_SteamEngine 4.13.1
M140 S50
M105
M190 S50
M104 S210
M105
M109 S210
M82 ;absolute extrusion mode
;FLAVOR:Marlin
M82 ;absolute extrusion mode
G21
G90
M82
M107 T0
G28
G92 E0
G0 E3 F200
G92 E0 ; reset extrusion distance
M106 S255 ; Enable cooling fan full speed
G1 X-98 Y0 Z0.4 F3000 ; move to arc start
G3 X0 Y-98 I98 Z0.4 E40 F400 ; lay arc stripe 90deg
G92 E0 ; reset extrusion distance
G4 P500 ; wait for 0.5 sec
G0 Z10 E-1 ; Lift 15mm and retract 1mm filament
G4 P2000 ; wait for 5 sec
G0 Z15
M107 ; Disable cooling fan
G1 X0 Y-85 Z4 E0 F3000 ; get off the bed
G92 E0
G92 E0
G1 F1500 E-6.5
;LAYER_COUNT:78
;LAYER:0
M106 S25.5
G1 F600 Z1.3
G0 F3600 X1.202 Y-36.257 Z1.3
;TYPE:SKIRT
G1 F600 Z0.3
G1 F1500 E0.3326
G1 F1200 X-2.156 Y-36.248 E0.50013
G1 X-2.871 Y-36.3 E0.5359
G1 X-3.327 Y-36.426 E0.5595
G1 X-3.755 Y-36.627 E0.58309
G1 X-4.143 Y-36.897 E0.60667
G1 X-4.48 Y-37.229 E0.63028
G1 X-4.718 Y-37.55 E0.65021
G1 X-5.406 Y-38.632 E0.71418
G1 X-5.545 Y-38.858 E0.72742
G1 X-7.062 Y-41.172 E0.86546
G1 X-8.623 Y-43.41 E1.00159
G1 X-10.249 Y-45.604 E1.13784
G1 X-11.141 Y-46.735 E1.2097
G1 X-11.894 Y-47.709 E1.27112
G1 X-12.216 Y-48.157 E1.29865
G1 X-12.533 Y-48.666 E1.32856
G1 X-12.777 Y-49.137 E1.35503
G1 X-13.006 Y-49.666 E1.38378
G1 X-13.217 Y-50.281 E1.41622
G1 X-13.368 Y-50.877 E1.4469
G1 X-13.477 Y-51.524 E1.47963
G1 X-13.526 Y-52.051 E1.50604
G1 X-13.539 Y-52.62 E1.53443
G1 X-13.509 Y-53.185 E1.56266
G1 X-13.431 Y-53.792 E1.59319
G1 X-13.304 Y-54.398 E1.62408
G1 X-13.102 Y-55.074 E1.65928
G1 X-12.913 Y-55.559 E1.68525
G1 X-12.645 Y-56.112 E1.71591
G1 X-12.358 Y-56.615 E1.7448
G1 X-12.023 Y-57.117 E1.77491
G1 X-11.614 Y-57.627 E1.80753
G1 X-11.205 Y-58.06 E1.83724
G1 X-10.671 Y-58.539 E1.87303
G1 X-10.165 Y-58.919 E1.9046
G1 X-9.742 Y-59.188 E1.92961
G1 X-9.231 Y-59.468 E1.95868
G1 X-8.666 Y-59.723 E1.98961
G1 X-8.122 Y-59.919 E2.01845
G1 X-7.464 Y-60.098 E2.05248
G1 X-6.935 Y-60.198 E2.07933
G1 X-6.308 Y-60.269 E2.11082
G1 X-5.675 Y-60.289 E2.14241
G1 X-5.604 Y-60.289 E2.14595
G1 X-5.026 Y-60.256 E2.17484
G1 X-4.481 Y-60.185 E2.20226
G1 X-3.86 Y-60.056 E2.2339
G1 X-3.281 Y-59.887 E2.26399
G1 X-2.74 Y-59.684 E2.29282
G1 X-2.054 Y-59.357 E2.33073
G1 X-1.565 Y-59.07 E2.35902
G1 X-1.146 Y-58.782 E2.38439
G1 X-.629 Y-58.369 E2.4174
G1 X-.216 Y-57.982 E2.44564
G1 X-0.05 Y-57.806 E2.45771
G1 X0.736 Y-56.893 E2.51781
G1 X1.273 Y-56.226 E2.56053
G1 X1.584 Y-55.808 E2.58653
G1 X1.949 Y-55.246 E2.61996
G1 X2.279 Y-54.673 E2.65295
G1 X2.54 Y-54.144 E2.68238
G1 X2.783 Y-53.575 E2.71325
G1 X3.005 Y-52.961 E2.74582
G1 X3.213 Y-52.242 E2.78316
G1 X3.242 Y-52.121 E2.78937
G1 X3.585 Y-50.554 E2.8694
G1 X4.131 Y-48.187 E2.99059
G1 X4.815 Y-45.549 E3.12655
G1 X4.985 Y-44.946 E3.15781
G1 X5.058 Y-44.668 E3.17215
G1 X5.149 Y-44.042 E3.20371
G1 X5.16 Y-43.628 E3.22437
G1 X5.16 Y-39.743 E3.41819
G1 X5.151 Y-39.016 E3.45447
G1 X5.105 Y-38.546 E3.47803
G1 X4.981 Y-38.089 E3.50165
G1 X4.781 Y-37.661 E3.52522
G1 X4.513 Y-37.271 E3.54883
G1 X4.183 Y-36.933 E3.57239
G1 X3.8 Y-36.655 E3.59601
G1 X3.376 Y-36.445 E3.61961
G1 X2.923 Y-36.31 E3.64319
G1 X2.194 Y-36.245 E3.67971
G1 X2.07 Y-36.244 E3.68589
G1 X1.202 Y-36.257 E3.7292
G0 F3600 X1.206 Y-36.657
G1 F1200 X-2.149 Y-36.648 E3.89659
G1 X-2.829 Y-36.699 E3.93061
G1 X-3.249 Y-36.825 E3.95248
G1 X-3.638 Y-37.024 E3.97428
G1 X-3.985 Y-37.291 E3.99613
G1 X-4.38 Y-37.764 E4.02687
G1 X-5.065 Y-38.842 E4.09059
G1 X-5.203 Y-39.065 E4.10368
G1 X-6.727 Y-41.391 E4.24241
G1 X-8.29 Y-43.631 E4.37868
G1 X-9.941 Y-45.861 E4.51711
G1 X-10.825 Y-46.979 E4.58822
G1 X-11.572 Y-47.947 E4.64922
G1 X-11.885 Y-48.381 E4.67591
G1 X-12.189 Y-48.871 E4.70468
G1 X-12.464 Y-49.413 E4.735
G1 X-12.669 Y-49.904 E4.76155
G1 X-12.837 Y-50.405 E4.78791
G1 X-12.975 Y-50.951 E4.81601
G1 X-13.082 Y-51.584 E4.84804
G1 X-13.134 Y-52.204 E4.87908
G1 X-13.136 Y-52.763 E4.90697
G1 X-13.091 Y-53.347 E4.93619
G1 X-13.014 Y-53.862 E4.96217
G1 X-12.901 Y-54.361 E4.98769
G1 X-12.721 Y-54.953 E5.01856
G1 X-12.494 Y-55.519 E5.04899
G1 X-12.161 Y-56.15 E5.08458
G1 X-11.834 Y-56.695 E5.11629
G1 X-11.492 Y-57.151 E5.14473
G1 X-11.123 Y-57.574 E5.17273
G1 X-10.715 Y-57.974 E5.20124
G1 X-10.276 Y-58.343 E5.22985
G1 X-9.851 Y-58.648 E5.25595
G1 X-9.403 Y-58.924 E5.2822
G1 X-8.913 Y-59.179 E5.30976
G1 X-8.45 Y-59.379 E5.33492
G1 X-7.938 Y-59.558 E5.36198
G1 X-7.368 Y-59.71 E5.39141
G1 X-6.87 Y-59.803 E5.41669
G1 X-6.272 Y-59.871 E5.44671
G1 X-5.672 Y-59.889 E5.47666
G1 X-5.612 Y-59.889 E5.47966
G1 X-5.066 Y-59.858 E5.50694
G1 X-4.541 Y-59.789 E5.53336
G1 X-3.953 Y-59.666 E5.56333
G1 X-3.402 Y-59.506 E5.59195
G1 X-2.889 Y-59.313 E5.6193
G1 X-2.234 Y-59 E5.65551
G1 X-1.783 Y-58.735 E5.68161
G1 X-1.333 Y-58.423 E5.70893
G1 X-.886 Y-58.062 E5.7376
G1 X-.495 Y-57.696 E5.76432
G1 X-.353 Y-57.545 E5.77466
G1 X0.372 Y-56.705 E5.83002
G1 X0.961 Y-55.975 E5.87681
G1 X1.408 Y-55.353 E5.91503
G1 X1.746 Y-54.805 E5.94715
G1 X2.018 Y-54.307 E5.97546
G1 X2.291 Y-53.72 E6.00776
G1 X2.499 Y-53.199 E6.03574
G1 X2.718 Y-52.539 E6.07044
G1 X2.851 Y-52.035 E6.09644
G1 X3.196 Y-50.464 E6.17669
G1 X3.749 Y-48.067 E6.29941
G1 X4.436 Y-45.418 E6.43595
G1 X4.598 Y-44.845 E6.46565
G1 X4.671 Y-44.567 E6.47999
G1 X4.749 Y-44.03 E6.50707
G1 X4.76 Y-43.628 E6.52713
G1 X4.76 Y-39.748 E6.7207
G1 X4.751 Y-39.021 E6.75698
G1 X4.706 Y-38.586 E6.77879
G1 X4.582 Y-38.166 E6.80064
G1 X4.384 Y-37.776 E6.82246
G1 X4.119 Y-37.428 E6.84429
G1 X3.794 Y-37.133 E6.86618
G1 X3.422 Y-36.903 E6.888
G1 X3.014 Y-36.744 E6.90985
G1 X2.421 Y-36.652 E6.93979
G1 X2.076 Y-36.644 E6.95701
G1 X1.206 Y-36.657 E7.00041
G0 F3600 X1.211 Y-37.057
G1 F1200 X-2.143 Y-37.048 E7.16775
G1 X-2.784 Y-37.099 E7.19983
G1 X-3.164 Y-37.223 E7.21977
G1 X-3.511 Y-37.42 E7.23968
G1 X-3.813 Y-37.683 E7.25966
G1 X-4.043 Y-37.979 E7.27836
G1 X-4.725 Y-39.052 E7.34179
G1 X-4.871 Y-39.289 E7.35568
G1 X-6.405 Y-41.629 E7.49527
G1 X-7.973 Y-43.875 E7.63193
G1 X-9.618 Y-46.097 E7.76986
G1 X-10.508 Y-47.224 E7.8415
G1 X-11.25 Y-48.184 E7.90203
G1 X-11.553 Y-48.605 E7.92791
G1 X-11.845 Y-49.075 E7.95552
G1 X-12.102 Y-49.582 E7.98388
G1 X-12.296 Y-50.048 E8.00906
G1 X-12.456 Y-50.53 E8.0344
G1 X-12.582 Y-51.026 E8.05993
G1 X-12.686 Y-51.644 E8.09119
G1 X-12.734 Y-52.225 E8.12028
G1 X-12.736 Y-52.742 E8.14607
G1 X-12.693 Y-53.305 E8.17424
G1 X-12.593 Y-53.93 E8.20582
G1 X-12.46 Y-54.455 E8.23284
G1 X-12.285 Y-54.982 E8.26054
G1 X-12.034 Y-55.556 E8.2918
G1 X-11.661 Y-56.223 E8.32992
G1 X-11.373 Y-56.65 E8.35562
G1 X-11.002 Y-57.111 E8.38514
G1 X-10.636 Y-57.499 E8.41175
G1 X-10.149 Y-57.932 E8.44426
G1 X-9.72 Y-58.254 E8.47103
G1 X-9.276 Y-58.535 E8.49724
G1 X-8.81 Y-58.785 E8.52362
G1 X-8.303 Y-59.007 E8.55124
G1 X-7.822 Y-59.175 E8.57666
G1 X-7.271 Y-59.322 E8.60511
G1 X-6.742 Y-59.418 E8.63193
G1 X-6.237 Y-59.472 E8.65727
G1 X-5.669 Y-59.489 E8.68562
G1 X-5.619 Y-59.489 E8.68811
G1 X-5.106 Y-59.46 E8.71375
G1 X-4.6 Y-59.394 E8.73921
G1 X-4.046 Y-59.277 E8.76745
G1 X-3.522 Y-59.125 E8.79467
G1 X-3.038 Y-58.942 E8.82049
G1 X-2.415 Y-58.643 E8.85497
G1 X-1.867 Y-58.311 E8.88693
G1 X-1.383 Y-57.956 E8.91688
G1 X-.971 Y-57.601 E8.94401
G1 X-.656 Y-57.284 E8.96631
G1 X0.113 Y-56.391 E9.0251
G1 X0.692 Y-55.67 E9.07123
G1 X1.076 Y-55.13 E9.10429
G1 X1.401 Y-54.602 E9.13522
G1 X1.661 Y-54.127 E9.16224
G1 X1.924 Y-53.56 E9.19342
G1 X2.124 Y-53.059 E9.22034
G1 X2.336 Y-52.421 E9.25388
G1 X2.461 Y-51.95 E9.27819
G1 X2.806 Y-50.374 E9.35868
G1 X3.356 Y-47.991 E9.48069
G1 X4.055 Y-45.295 E9.61964
G1 X4.211 Y-44.743 E9.64826
G1 X4.349 Y-44.018 E9.68508
G1 X4.36 Y-43.628 E9.70454
G1 X4.36 Y-39.753 E9.89787
G1 X4.351 Y-39.026 E9.93414
G1 X4.306 Y-38.629 E9.95408
G1 X4.183 Y-38.249 E9.974
G1 X3.987 Y-37.901 E9.99393
G1 X3.726 Y-37.599 E10.01384
G1 X3.41 Y-37.354 E10.03379
G1 X3.052 Y-37.178 E10.05369
G1 X2.665 Y-37.076 E10.07366
G1 X2.082 Y-37.044 E10.10279
G1 X1.211 Y-37.057 E10.14625
G0 F3600 X1.216 Y-37.457
G1 F1200 X-2.136 Y-37.448 E10.31348
G1 X-2.735 Y-37.498 E10.34347
G1 X-3.071 Y-37.621 E10.36132
G1 X-3.37 Y-37.815 E10.3791
G1 X-3.705 Y-38.193 E10.4043
G1 X-4.384 Y-39.262 E10.46748
G1 X-4.529 Y-39.497 E10.48126
G1 X-6.044 Y-41.809 E10.61916
G1 X-7.651 Y-44.113 E10.75931
G1 X-9.31 Y-46.353 E10.89838
G1 X-10.192 Y-47.468 E10.9693
G1 X-10.928 Y-48.422 E11.02942
G1 X-11.222 Y-48.829 E11.05446
G1 X-11.501 Y-49.28 E11.08092
G1 X-11.74 Y-49.752 E11.10732
G1 X-11.952 Y-50.274 E11.13543
G1 X-12.108 Y-50.763 E11.16103
G1 X-12.234 Y-51.338 E11.1904
G1 X-12.325 Y-52.067 E11.22705
G1 X-12.339 Y-52.628 E11.25505
G1 X-12.307 Y-53.149 E11.28109
G1 X-12.225 Y-53.731 E11.31042
G1 X-12.103 Y-54.251 E11.33706
G1 X-11.915 Y-54.83 E11.36743
G1 X-11.672 Y-55.386 E11.39771
G1 X-11.312 Y-56.027 E11.43438
G1 X-11.024 Y-56.45 E11.45991
G1 X-10.697 Y-56.853 E11.48581
G1 X-10.351 Y-57.218 E11.5109
G1 X-9.889 Y-57.629 E11.54175
G1 X-9.406 Y-57.983 E11.57162
G1 X-8.929 Y-58.273 E11.59947
G1 X-8.196 Y-58.618 E11.63989
G1 X-7.707 Y-58.792 E11.66579
G1 X-7.175 Y-58.934 E11.69326
G1 X-6.532 Y-59.043 E11.7258
G1 X-5.964 Y-59.087 E11.75422
G1 X-5.626 Y-59.089 E11.77108
G1 X-4.989 Y-59.046 E11.80293
G1 X-4.403 Y-58.951 E11.83255
G1 X-3.902 Y-58.825 E11.85832
G1 X-3.417 Y-58.663 E11.88383
G1 X-2.95 Y-58.465 E11.90914
G1 X-2.49 Y-58.228 E11.93496
G1 X-2.028 Y-57.937 E11.9622
G1 X-1.4 Y-57.449 E12.00188
G1 X-.959 Y-57.022 E12.0325
G1 X-.199 Y-56.14 E12.09059
G1 X0.372 Y-55.43 E12.13604
G1 X0.744 Y-54.907 E12.16806
G1 X1.056 Y-54.399 E12.19781
G1 X1.304 Y-53.946 E12.22357
G1 X1.558 Y-53.399 E12.25366
G1 X1.75 Y-52.918 E12.2795
G1 X1.954 Y-52.302 E12.31187
G1 X2.07 Y-51.864 E12.33448
G1 X2.416 Y-50.284 E12.41517
G1 X2.96 Y-47.926 E12.5359
G1 X3.67 Y-45.188 E12.67702
G1 X3.825 Y-44.641 E12.70538
G1 X3.949 Y-44.006 E12.73766
G1 X3.96 Y-43.628 E12.75653
G1 X3.96 Y-39.758 E12.9496
G1 X3.951 Y-39.031 E12.98588
G1 X3.907 Y-38.677 E13.00367
G1 X3.785 Y-38.341 E13.02151
G1 X3.592 Y-38.041 E13.03931
G1 X3.336 Y-37.79 E13.05719
G1 X3.032 Y-37.603 E13.075
G1 X2.694 Y-37.488 E13.09281
G1 X2.159 Y-37.445 E13.11959
G1 X2.088 Y-37.444 E13.12313
G1 X1.216 Y-37.457 E13.16664
G0 F3600 X1.221 Y-37.857
G1 F1200 X-2.13 Y-37.848 E13.33382
G1 X-2.681 Y-37.897 E13.36142
G1 X-2.965 Y-38.019 E13.37684
G1 X-3.209 Y-38.209 E13.39227
G1 X-3.368 Y-38.408 E13.40498
G1 X-4.044 Y-39.471 E13.46783
G1 X-4.203 Y-39.729 E13.48295
G1 X-5.736 Y-42.067 E13.62243
G1 X-7.334 Y-44.357 E13.76174
G1 X-8.986 Y-46.589 E13.90028
G1 X-9.875 Y-47.713 E13.97178
G1 X-10.606 Y-48.659 E14.03142
G1 X-10.913 Y-49.088 E14.05774
G1 X-11.196 Y-49.555 E14.08498
G1 X-11.5 Y-50.209 E14.12096
G1 X-11.696 Y-50.778 E14.15099
G1 X-11.841 Y-51.412 E14.18344
G1 X-11.926 Y-52.1 E14.21802
G1 X-11.939 Y-52.63 E14.24447
G1 X-11.897 Y-53.222 E14.27408
G1 X-11.814 Y-53.747 E14.3006
G1 X-11.578 Y-54.588 E14.34418
G1 X-11.311 Y-55.215 E14.37818
G1 X-10.931 Y-55.886 E14.41665
G1 X-10.613 Y-56.329 E14.44385
G1 X-10.269 Y-56.731 E14.47025
G1 X-9.628 Y-57.325 E14.51385
G1 X-9.183 Y-57.651 E14.54137
G1 X-8.744 Y-57.918 E14.56701
G1 X-8.04 Y-58.25 E14.60584
G1 X-7.442 Y-58.454 E14.63736
G1 X-6.912 Y-58.579 E14.66453
G1 X-6.166 Y-58.675 E14.70205
G1 X-5.664 Y-58.689 E14.72711
G1 X-5.634 Y-58.689 E14.7286
G1 X-5.029 Y-58.648 E14.75886
G1 X-4.495 Y-58.562 E14.78584
G1 X-3.764 Y-58.362 E14.82365
G1 X-3.188 Y-58.135 E14.85454
G1 X-2.696 Y-57.885 E14.88207
G1 X-2.261 Y-57.612 E14.90769
G1 X-1.657 Y-57.142 E14.94588
G1 X-1.262 Y-56.761 E14.97326
G1 X-.51 Y-55.89 E15.03067
G1 X0.052 Y-55.19 E15.07545
G1 X0.412 Y-54.684 E15.10643
G1 X0.712 Y-54.196 E15.13501
G1 X0.958 Y-53.743 E15.16073
G1 X1.191 Y-53.239 E15.18843
G1 X1.387 Y-52.746 E15.2149
G1 X1.571 Y-52.184 E15.2444
G1 X1.679 Y-51.779 E15.26531
G1 X2.026 Y-50.194 E15.34626
G1 X2.573 Y-47.825 E15.46756
G1 X3.276 Y-45.113 E15.60734
G1 X3.438 Y-44.54 E15.63704
G1 X3.549 Y-43.993 E15.66489
G1 X3.56 Y-43.628 E15.68311
G1 X3.56 Y-39.763 E15.87593
G1 X3.551 Y-39.036 E15.91221
G1 X3.507 Y-38.73 E15.92763
G1 X3.387 Y-38.445 E15.94306
G1 X3.198 Y-38.201 E15.95846
G1 X2.952 Y-38.013 E15.9739
G1 X2.667 Y-37.893 E15.98933
G1 X2.147 Y-37.845 E16.01538
G1 X2.094 Y-37.844 E16.01803
G1 X1.221 Y-37.857 E16.06159
G1 F1500 E9.56159
G1 F600 Z1.3
G0 F3600 X2.016 Y-39.242 Z1.3
;TYPE:SUPPORT
G1 F600 Z0.3
G1 F1500 E16.39419
G1 F1200 X2.16 Y-39.385 E16.40431
G1 X2.16 Y-39.242 E16.41145
G1 X2.016 Y-39.242 E16.41863
G1 F1500 E9.91863
G1 F600 Z1.3
G0 F3600 X-2.016 Y-39.242 Z1.3
G1 F600 Z0.3
G1 F1500 E16.75123
G1 F1200 X-2.16 Y-39.242 E16.75842
G1 X-2.16 Y-39.385 E16.76555
G1 X-2.016 Y-39.242 E16.77568
G1 F1500 E10.27568
G1 F600 Z1.3
;MESH:CAM_Mount.3mf(1)
G0 F3600 X-.557 Y-46.402 Z1.3
;TYPE:WALL-INNER
G1 F600 Z0.3
G1 F1500 E17.10828
G1 F1200 X-1.033 Y-46.655 E17.13517
G1 X-6.091 Y-48.388 E17.40192
G1 X-6.62 Y-48.569 E17.42981
G1 X-7.026 Y-48.708 E17.45122
G1 X-7.635 Y-48.975 E17.4844
G1 X-8.156 Y-49.308 E17.51524
G1 X-8.63 Y-49.728 E17.54684
G1 X-9.027 Y-50.21 E17.57799
G1 X-9.326 Y-50.717 E17.60736
G1 X-9.574 Y-51.34 E17.64081
G1 X-9.71 Y-51.961 E17.67253
G1 X-9.747 Y-52.563 E17.70262
G1 X-9.685 Y-53.207 E17.7349
G1 X-9.533 Y-53.793 E17.7651
G1 X-9.281 Y-54.373 E17.79665
G1 X-8.944 Y-54.903 E17.82798
G1 X-8.521 Y-55.381 E17.85983
G1 X-8.048 Y-55.77 E17.89038
G1 X-7.503 Y-56.091 E17.92194
G1 X-6.925 Y-56.319 E17.95294
G1 X-6.297 Y-56.458 E17.98503
G1 X-5.686 Y-56.497 E18.01557
G1 X-5.057 Y-56.436 E18.0471
G1 X-4.151 Y-56.164 E18.09429
G1 X-3.602 Y-55.871 E18.12534
G1 X-3.114 Y-55.503 E18.15583
G1 X-2.658 Y-55.035 E18.18843
G1 X-2.271 Y-54.569 E18.21865
G1 X-1.863 Y-54.079 E18.25046
G1 X-1.38 Y-53.42 E18.29123
G1 X-.98 Y-52.718 E18.33154
G1 X-.665 Y-51.978 E18.37166
G1 X-.511 Y-51.491 E18.39714
G1 X-.352 Y-50.793 E18.43286
G1 X-.292 Y-50.356 E18.45486
G1 X-.258 Y-49.849 E18.48022
G1 X-.25 Y-49.611 E18.4921
G1 X-.25 Y-46.092 E18.66766
G1 X-.557 Y-46.402 E18.68943
G0 F3600 X-6.532 Y-48.828
G1 F1200 X-5.75 Y-48.746 E18.72336
G1 X-4.969 Y-48.828 E18.76254
G1 X-4.224 Y-49.071 E18.80163
G1 X-3.542 Y-49.463 E18.84088
G1 X-2.961 Y-49.988 E18.87994
G1 X-2.5 Y-50.623 E18.91909
G1 X-2.181 Y-51.338 E18.95815
G1 X-2.016 Y-52.108 E18.99744
G1 X-2.016 Y-52.893 E19.03661
G1 X-2.181 Y-53.661 E19.0758
G1 X-2.5 Y-54.378 E19.11495
G1 X-2.962 Y-55.014 E19.14354
G1 X-3.558 Y-55.547 E19.17561
G1 X-4.225 Y-55.931 E19.20337
G1 X-4.971 Y-56.172 E19.22618
G1 X-5.75 Y-56.254 E19.2521
G1 X-6.534 Y-56.172 E19.28179
G1 X-7.278 Y-55.929 E19.31252
G1 X-7.957 Y-55.537 E19.33848
G1 X-8.541 Y-55.012 E19.36812
G1 X-9.001 Y-54.377 E19.39895
G1 X-9.321 Y-53.662 E19.42479
G1 X-9.484 Y-52.895 E19.45794
G1 X-9.482 Y-52.09 E19.48983
G1 X-9.32 Y-51.338 E19.51573
G1 X-9.001 Y-50.622 E19.54743
G1 X-8.541 Y-49.988 E19.57873
G1 X-7.956 Y-49.463 E19.60569
G1 X-7.278 Y-49.071 E19.63877
G1 X-6.532 Y-48.828 E19.66803
G0 F3600 X-6.448 Y-49.221
G1 F1200 X-5.75 Y-49.148 E19.70305
G1 X-5.053 Y-49.221 E19.73801
G1 X-4.387 Y-49.438 E19.77296
G1 X-3.779 Y-49.788 E19.80796
G1 X-3.26 Y-50.257 E19.84286
G1 X-2.848 Y-50.824 E19.87782
G1 X-2.563 Y-51.463 E19.91273
G1 X-2.416 Y-52.15 E19.94778
G1 X-2.416 Y-52.851 E19.98275
G1 X-2.563 Y-53.536 E20.01771
G1 X-2.848 Y-54.177 E20.0527
G1 X-3.26 Y-54.744 E20.08767
G1 X-3.794 Y-55.221 E20.12339
G1 X-4.388 Y-55.563 E20.15759
G1 X-5.054 Y-55.779 E20.19252
G1 X-5.75 Y-55.852 E20.22743
G1 X-6.45 Y-55.779 E20.26255
G1 X-7.114 Y-55.562 E20.2974
G1 X-7.721 Y-55.212 E20.33235
G1 X-8.242 Y-54.743 E20.36733
