;FLAVOR:Marlin
;TIME:1135
;Filament used: 1.90627m
;Layer height: 0.24
;MINX:-17.2
;MINY:-19.2
;MINZ:0.3
;MAXX:27.2
;MAXY:19.2
;MAXZ:9.9
;Generated with Cura_SteamEngine 4.13.1
M140 S50
M105
M190 S50
M104 S210
M105
M109 S210
M82 ;absolute extrusion mode
;FLAVOR:Marlin
M82 ;absolute extrusion mode
G21
G90
M82
M107 T0
G28
G92 E0
G0 E3 F200
G92 E0 ; reset extrusion distance
M106 S255 ; Enable cooling fan full speed
G1 X-98 Y0 Z0.4 F3000 ; move to arc start
G3 X0 Y-98 I98 Z0.4 E40 F400 ; lay arc stripe 90deg
G92 E0 ; reset extrusion distance
G4 P500 ; wait for 0.5 sec
G0 Z10 E-1 ; Lift 15mm and retract 1mm filament
G4 P2000 ; wait for 5 sec
G0 Z15
M107 ; Disable cooling fan
G1 X0 Y-85 Z4 E0 F3000 ; get off the bed
G92 E0
G92 E0
G1 F1500 E-6.5
;LAYER_COUNT:42
;LAYER:0
M106 S25.5
G1 F600 Z1.3
G0 F3600 X-9.699 Y-2.824 Z1.3
;TYPE:SKIRT
G1 F600 Z0.3
G1 F1500 E0.3326
G1 F2700 X-9.9 Y-2.8 E0.3427
G1 X-11.051 Y-2.8 E0.40012
G1 X-11.61 Y-2.83 E0.42805
G1 X-11.886 Y-2.864 E0.44193
G1 X-12.382 Y-2.958 E0.46711
G1 X-13.075 Y-3.155 E0.50306
G1 X-13.758 Y-3.443 E0.54004
G1 X-14.42 Y-3.829 E0.57827
G1 X-14.636 Y-3.979 E0.59139
G1 X-15.035 Y-4.295 E0.61678
G1 X-15.543 Y-4.789 E0.65213
G1 X-15.703 Y-4.971 E0.66422
G1 X-16.035 Y-5.394 E0.69105
G1 X-16.425 Y-6.008 E0.72734
G1 X-16.744 Y-6.679 E0.76441
G1 X-16.838 Y-6.928 E0.77769
G1 X-16.988 Y-7.413 E0.80301
G1 X-17.132 Y-8.104 E0.83823
G1 X-17.167 Y-8.387 E0.85245
G1 X-17.197 Y-8.922 E0.87919
G1 X-17.2 Y-9.046 E0.88538
G1 X-17.199 Y-13.067 E1.08598
G1 X-17.162 Y-13.681 E1.11667
G1 X-17.04 Y-14.381 E1.15212
G1 X-16.981 Y-14.616 E1.16421
G1 X-16.833 Y-15.095 E1.18922
G1 X-16.548 Y-15.763 E1.22546
G1 X-16.192 Y-16.382 E1.26108
G1 X-16.047 Y-16.594 E1.27389
G1 X-15.715 Y-17.023 E1.30096
G1 X-15.2 Y-17.559 E1.33804
G1 X-14.598 Y-18.042 E1.37655
G1 X-14.416 Y-18.168 E1.38759
G1 X-13.99 Y-18.431 E1.41257
G1 X-13.368 Y-18.731 E1.44702
G1 X-13.116 Y-18.827 E1.46047
G1 X-12.596 Y-18.988 E1.48763
G1 X-11.906 Y-19.13 E1.52278
G1 X-11.655 Y-19.161 E1.5354
G1 X-11.143 Y-19.195 E1.561
G1 X-10.997 Y-19.2 E1.56828
G1 X-8.487 Y-19.2 E1.69351
G1 X-8.07 Y-19.16 E1.71441
G1 X-7.668 Y-19.042 E1.73531
G1 X-7.296 Y-18.849 E1.75622
G1 X-6.967 Y-18.59 E1.77711
G1 X-6.711 Y-18.294 E1.79663
G1 X-6.247 Y-18.556 E1.82322
G1 X-5.572 Y-18.841 E1.85977
G1 X-4.839 Y-19.051 E1.89781
G1 X-4.104 Y-19.167 E1.93494
G1 X-3.491 Y-19.2 E1.96556
G1 X13.519 Y-19.199 E2.8142
G1 X14.111 Y-19.167 E2.84377
G1 X14.844 Y-19.05 E2.88081
G1 X15.106 Y-18.985 E2.89427
G1 X15.584 Y-18.836 E2.91925
G1 X16.263 Y-18.548 E2.95605
G1 X16.717 Y-18.291 E2.98208
G1 X17.063 Y-18.675 E3.00786
G1 X17.407 Y-18.915 E3.02879
G1 X17.79 Y-19.085 E3.0497
G1 X18.198 Y-19.18 E3.0706
G1 X18.488 Y-19.199 E3.0851
G1 X21.033 Y-19.199 E3.21207
G1 X21.615 Y-19.167 E3.24115
G1 X22.355 Y-19.049 E3.27853
G1 X23.066 Y-18.844 E3.31545
G1 X23.322 Y-18.746 E3.32912
G1 X23.784 Y-18.535 E3.35446
G1 X24.377 Y-18.197 E3.38852
G1 X24.92 Y-17.801 E3.42205
G1 X25.567 Y-17.188 E3.46651
G1 X26.035 Y-16.61 E3.50362
G1 X26.406 Y-16.028 E3.53805
G1 X26.721 Y-15.388 E3.57364
G1 X26.821 Y-15.129 E3.58749
G1 X26.978 Y-14.627 E3.61373
G1 X27.13 Y-13.897 E3.65093
G1 X27.164 Y-13.622 E3.66475
G1 X27.196 Y-13.084 E3.69164
G1 X27.2 Y-12.952 E3.69823
G1 X27.199 Y-8.959 E3.89744
G1 X27.161 Y-8.324 E3.92918
G1 X27.055 Y-7.661 E3.96268
G1 X26.84 Y-6.921 E4.00112
G1 X26.553 Y-6.248 E4.03762
G1 X26.421 Y-5.997 E4.05177
G1 X26.155 Y-5.564 E4.07713
G1 X25.734 Y-4.998 E4.11232
G1 X25.22 Y-4.457 E4.14955
G1 X24.639 Y-3.983 E4.18696
G1 X24.435 Y-3.842 E4.19933
G1 X24.001 Y-3.577 E4.2247
G1 X23.314 Y-3.252 E4.26262
G1 X23.077 Y-3.163 E4.27525
G1 X22.596 Y-3.013 E4.30038
G1 X21.914 Y-2.872 E4.33513
G1 X21.133 Y-2.804 E4.37424
G1 X20.998 Y-2.8 E4.38098
G1 X19.9 Y-2.8 E4.43576
G1 X19.7 Y-2.819 E4.44578
G1 X19.7 Y16.883 E5.42872
G1 X19.66 Y17.3 E5.44962
G1 X19.542 Y17.702 E5.47052
G1 X19.349 Y18.074 E5.49143
G1 X18.939 Y18.556 E5.523
G1 X18.615 Y18.822 E5.54391
G1 X18.248 Y19.023 E5.56479
G1 X17.848 Y19.15 E5.58572
G1 X17.383 Y19.2 E5.60906
G1 X14.617 Y19.2 E5.74705
G1 X14.2 Y19.16 E5.76795
G1 X13.798 Y19.042 E5.78886
G1 X13.365 Y18.8 E5.8136
G1 X12.88 Y19.062 E5.8411
G1 X12.475 Y19.17 E5.86202
G1 X12.114 Y19.2 E5.88009
G1 X-2.111 Y19.2 E6.58978
G1 X-2.528 Y19.16 E6.61068
G1 X-2.93 Y19.042 E6.63158
G1 X-3.385 Y18.822 E6.65679
G1 X-3.752 Y19.023 E6.67767
G1 X-4.152 Y19.15 E6.69861
G1 X-4.617 Y19.2 E6.72194
G1 X-7.383 Y19.2 E6.85994
G1 X-7.8 Y19.16 E6.88084
G1 X-8.202 Y19.042 E6.90174
G1 X-8.574 Y18.849 E6.92265
G1 X-9.056 Y18.439 E6.95422
G1 X-9.322 Y18.115 E6.97513
G1 X-9.523 Y17.748 E6.99601
G1 X-9.65 Y17.348 E7.01694
G1 X-9.7 Y16.883 E7.04028
G1 X-9.699 Y-2.824 E8.02346
G0 F3600 X-9.9 Y-3.2
G1 F2700 X-11.051 Y-3.2 E8.08089
G1 X-11.586 Y-3.229 E8.10762
G1 X-11.811 Y-3.257 E8.11893
G1 X-12.307 Y-3.351 E8.14411
G1 X-12.959 Y-3.538 E8.17795
G1 X-13.593 Y-3.807 E8.21231
G1 X-14.211 Y-4.17 E8.24807
G1 X-14.388 Y-4.293 E8.25882
G1 X-14.787 Y-4.609 E8.28422
G1 X-15.257 Y-5.069 E8.31703
G1 X-15.388 Y-5.218 E8.32693
G1 X-15.72 Y-5.641 E8.35375
G1 X-16.083 Y-6.215 E8.38764
G1 X-16.379 Y-6.842 E8.42223
G1 X-16.456 Y-7.046 E8.43311
G1 X-16.606 Y-7.531 E8.45843
G1 X-16.739 Y-8.178 E8.49139
G1 X-16.767 Y-8.409 E8.503
G1 X-16.797 Y-8.944 E8.52973
G1 X-16.8 Y-9.045 E8.53477
G1 X-16.799 Y-13.066 E8.73538
G1 X-16.763 Y-13.647 E8.76442
G1 X-16.647 Y-14.306 E8.7978
G1 X-16.599 Y-14.498 E8.80768
G1 X-16.451 Y-14.977 E8.83269
G1 X-16.184 Y-15.597 E8.86637
G1 X-15.849 Y-16.176 E8.89974
G1 X-15.731 Y-16.35 E8.91023
G1 X-15.399 Y-16.779 E8.93729
G1 X-14.919 Y-17.275 E8.97173
G1 X-14.355 Y-17.725 E9.00773
G1 X-14.206 Y-17.828 E9.01676
G1 X-13.78 Y-18.091 E9.04174
G1 X-13.203 Y-18.367 E9.07365
G1 X-12.997 Y-18.444 E9.08462
G1 X-12.477 Y-18.605 E9.11178
G1 X-11.834 Y-18.736 E9.14452
G1 X-11.628 Y-18.762 E9.15488
G1 X-11.116 Y-18.796 E9.18048
G1 X-10.997 Y-18.8 E9.18642
G1 X-8.487 Y-18.8 E9.31164
G1 X-8.11 Y-18.76 E9.33056
G1 X-7.75 Y-18.642 E9.34946
G1 X-7.423 Y-18.452 E9.36833
G1 X-7.142 Y-18.197 E9.38726
G1 X-6.852 Y-17.729 E9.41473
G1 X-6.287 Y-18.085 E9.44804
G1 X-5.651 Y-18.384 E9.4831
G1 X-4.987 Y-18.604 E9.518
G1 X-4.288 Y-18.743 E9.55356
G1 X-3.6 Y-18.797 E9.58799
G1 X-3.491 Y-18.8 E9.59343
G1 X13.519 Y-18.799 E10.44206
G1 X14.087 Y-18.768 E10.47044
G1 X14.772 Y-18.656 E10.50507
G1 X14.987 Y-18.603 E10.51612
G1 X15.465 Y-18.454 E10.5411
G1 X16.099 Y-18.183 E10.57549
G1 X16.718 Y-17.822 E10.61124
G1 X16.848 Y-17.732 E10.61913
G1 X17.008 Y-18.024 E10.63574
G1 X17.255 Y-18.311 E10.65464
G1 X17.557 Y-18.54 E10.67354
G1 X17.9 Y-18.7 E10.69243
G1 X18.488 Y-18.799 E10.72217
G1 X21.033 Y-18.799 E10.84915
G1 X21.59 Y-18.767 E10.87698
G1 X22.285 Y-18.655 E10.9121
G1 X22.947 Y-18.463 E10.94649
G1 X23.156 Y-18.382 E10.95767
G1 X23.618 Y-18.171 E10.98301
G1 X24.172 Y-17.853 E11.01488
G1 X24.677 Y-17.483 E11.04611
G1 X25.282 Y-16.907 E11.08779
G1 X25.719 Y-16.365 E11.12252
G1 X26.064 Y-15.82 E11.1547
G1 X26.358 Y-15.221 E11.18799
G1 X26.439 Y-15.009 E11.19932
G1 X26.596 Y-14.507 E11.22556
G1 X26.737 Y-13.823 E11.2604
G1 X26.765 Y-13.598 E11.27171
G1 X26.797 Y-13.06 E11.2986
G1 X26.8 Y-12.953 E11.30394
G1 X26.799 Y-8.96 E11.50315
G1 X26.762 Y-8.354 E11.53344
G1 X26.661 Y-7.73 E11.56498
G1 X26.459 Y-7.043 E11.6007
G1 X26.188 Y-6.412 E11.63497
G1 X26.08 Y-6.207 E11.64653
G1 X25.814 Y-5.774 E11.67188
G1 X25.417 Y-5.242 E11.705
G1 X24.937 Y-4.739 E11.73968
G1 X24.394 Y-4.299 E11.77455
G1 X24.227 Y-4.184 E11.78467
G1 X23.793 Y-3.919 E11.81004
G1 X23.152 Y-3.618 E11.84537
G1 X22.958 Y-3.545 E11.85571
G1 X22.477 Y-3.395 E11.88084
G1 X21.842 Y-3.265 E11.91318
G1 X21.108 Y-3.203 E11.94993
G1 X20.998 Y-3.2 E11.95542
G1 X19.9 Y-3.2 E12.0102
G1 X19.523 Y-3.24 E12.02912
G1 X19.3 Y-3.313 E12.04082
G1 X19.3 Y16.883 E13.0484
G1 X19.26 Y17.26 E13.06732
G1 X19.142 Y17.62 E13.08622
G1 X18.952 Y17.947 E13.10509
G1 X18.656 Y18.273 E13.12706
G1 X18.361 Y18.511 E13.14597
G1 X18.023 Y18.682 E13.16486
G1 X17.657 Y18.779 E13.18375
G1 X17.383 Y18.8 E13.19746
G1 X14.617 Y18.8 E13.33546
G1 X14.24 Y18.76 E13.35437
G1 X13.88 Y18.642 E13.37328
G1 X13.553 Y18.452 E13.39214
G1 X13.36 Y18.287 E13.40481
G1 X13.184 Y18.448 E13.41671
G1 X12.857 Y18.64 E13.43563
G1 X12.497 Y18.759 E13.45455
G1 X12.114 Y18.8 E13.47376
G1 X-2.111 Y18.8 E14.18345
G1 X-2.488 Y18.76 E14.20237
G1 X-2.848 Y18.642 E14.22127
G1 X-3.175 Y18.452 E14.24013
G1 X-3.359 Y18.285 E14.25253
G1 X-3.639 Y18.511 E14.27048
G1 X-3.977 Y18.682 E14.28938
G1 X-4.343 Y18.779 E14.30827
G1 X-4.617 Y18.8 E14.32198
G1 X-7.383 Y18.8 E14.45998
G1 X-7.76 Y18.76 E14.47889
G1 X-8.12 Y18.642 E14.49779
G1 X-8.447 Y18.452 E14.51666
G1 X-8.773 Y18.156 E14.53863
G1 X-9.011 Y17.861 E14.55754
G1 X-9.182 Y17.523 E14.57644
G1 X-9.279 Y17.157 E14.59533
G1 X-9.3 Y16.883 E14.60904
G1 X-9.299 Y-3.309 E15.61642
G1 X-9.359 Y-3.283 E15.61968
G1 X-9.9 Y-3.2 E15.64699
G0 F3600 X-9.9 Y-3.6
G1 F2700 X-11.051 Y-3.6 E15.70441
G1 X-11.561 Y-3.629 E15.7299
G1 X-11.737 Y-3.65 E15.73874
G1 X-12.233 Y-3.744 E15.76393
G1 X-12.844 Y-3.921 E15.79566
G1 X-13.428 Y-4.172 E15.82738
G1 X-14.002 Y-4.511 E15.86063
G1 X-14.139 Y-4.607 E15.86898
G1 X-14.538 Y-4.923 E15.89437
G1 X-14.972 Y-5.349 E15.92471
G1 X-15.073 Y-5.465 E15.93239
G1 X-15.405 Y-5.888 E15.95921
G1 X-15.741 Y-6.422 E15.99069
G1 X-16.014 Y-7.006 E16.02285
G1 X-16.073 Y-7.164 E16.03127
G1 X-16.223 Y-7.649 E16.0566
G1 X-16.346 Y-8.251 E16.08725
G1 X-16.368 Y-8.432 E16.09635
G1 X-16.398 Y-8.967 E16.12308
G1 X-16.4 Y-9.045 E16.12697
G1 X-16.399 Y-13.066 E16.32758
G1 X-16.365 Y-13.612 E16.35487
G1 X-16.254 Y-14.23 E16.3862
G1 X-16.217 Y-14.38 E16.39391
G1 X-16.069 Y-14.859 E16.41892
G1 X-15.821 Y-15.43 E16.44998
G1 X-15.507 Y-15.97 E16.48114
G1 X-15.414 Y-16.105 E16.48932
G1 X-15.082 Y-16.534 E16.51638
G1 X-14.638 Y-16.99 E16.54814
G1 X-14.112 Y-17.407 E16.58162
G1 X-13.995 Y-17.487 E16.5887
G1 X-13.569 Y-17.75 E16.61367
G1 X-13.039 Y-18.002 E16.64295
G1 X-12.879 Y-18.062 E16.65148
G1 X-12.359 Y-18.223 E16.67863
G1 X-11.762 Y-18.343 E16.70902
G1 X-11.602 Y-18.363 E16.71706
G1 X-11.09 Y-18.397 E16.74266
G1 X-10.997 Y-18.4 E16.7473
G1 X-8.487 Y-18.4 E16.87253
G1 X-8.155 Y-18.36 E16.88921
G1 X-7.843 Y-18.243 E16.90583
G1 X-7.566 Y-18.055 E16.92254
G1 X-7.343 Y-17.807 E16.93917
G1 X-7.184 Y-17.513 E16.95585
G1 X-7.1 Y-17.189 E16.97255
G1 X-7.097 Y-17.025 E16.98073
G1 X-6.624 Y-17.401 E17.01088
G1 X-6.079 Y-17.743 E17.04298
G1 X-5.488 Y-18.019 E17.07552
G1 X-4.868 Y-18.222 E17.10807
G1 X-4.217 Y-18.349 E17.14116
G1 X-3.575 Y-18.397 E17.17328
G1 X-3.491 Y-18.4 E17.17747
G1 X13.519 Y-18.399 E18.0261
G1 X14.062 Y-18.368 E18.05324
G1 X14.701 Y-18.263 E18.08555
G1 X14.868 Y-18.222 E18.09412
G1 X15.346 Y-18.073 E18.1191
G1 X15.935 Y-17.819 E18.1511
G1 X16.51 Y-17.481 E18.18438
G1 X17.018 Y-17.094 E18.21624
G1 X17.093 Y-17.028 E18.22123
G1 X17.149 Y-17.408 E18.24039
G1 X17.284 Y-17.714 E18.25708
G1 X17.488 Y-17.979 E18.27376
G1 X17.749 Y-18.188 E18.29044
G1 X18.051 Y-18.329 E18.30707
G1 X18.488 Y-18.399 E18.32915
G1 X21.033 Y-18.399 E18.45612
G1 X21.564 Y-18.368 E18.48266
G1 X22.214 Y-18.261 E18.51552
G1 X22.827 Y-18.081 E18.5474
G1 X22.99 Y-18.018 E18.55611
G1 X23.452 Y-17.807 E18.58145
G1 X23.968 Y-17.51 E18.61116
G1 X24.435 Y-17.165 E18.64012
G1 X24.997 Y-16.626 E18.67897
G1 X25.403 Y-16.12 E18.71134
G1 X25.723 Y-15.612 E18.74129
G1 X25.994 Y-15.055 E18.7722
G1 X26.057 Y-14.89 E18.78101
G1 X26.214 Y-14.388 E18.80725
G1 X26.344 Y-13.75 E18.83973
G1 X26.366 Y-13.574 E18.84858
G1 X26.398 Y-13.036 E18.87547
G1 X26.4 Y-12.953 E18.87961
G1 X26.399 Y-8.96 E19.07882
G1 X26.363 Y-8.385 E19.10757
G1 X26.267 Y-7.799 E19.13719
G1 X26.078 Y-7.164 E19.17025
G1 X25.823 Y-6.576 E19.20222
G1 X25.739 Y-6.416 E19.21124
G1 X25.473 Y-5.983 E19.23659
G1 X25.1 Y-5.485 E19.26763
G1 X24.653 Y-5.022 E19.29974
G1 X24.148 Y-4.615 E19.3321
G1 X24.019 Y-4.525 E19.33994
G1 X23.585 Y-4.26 E19.36531
G1 X22.989 Y-3.983 E19.3981
G1 X22.839 Y-3.926 E19.40611
G1 X22.358 Y-3.776 E19.43125
G1 X21.77 Y-3.659 E19.46116
G1 X21.084 Y-3.603 E19.4955
G1 X20.998 Y-3.6 E19.49979
G1 X19.9 Y-3.6 E19.55457
G1 X19.568 Y-3.64 E19.57125
G1 X19.256 Y-3.757 E19.58788
G1 X18.9 Y-4.033 E19.61035
G1 X18.9 Y16.883 E20.65385
G1 X18.86 Y17.215 E20.67054
G1 X18.743 Y17.527 E20.68716
G1 X18.373 Y17.99 E20.71673
G1 X18.11 Y18.196 E20.7334
G1 X17.806 Y18.335 E20.75007
G1 X17.383 Y18.4 E20.77142
G1 X14.617 Y18.4 E20.90942
G1 X14.285 Y18.36 E20.9261
G1 X13.973 Y18.243 E20.94273
G1 X13.51 Y17.873 E20.9723
G1 X13.34 Y17.656 E20.98605
G1 X13.052 Y18.039 E21.00996
G1 X12.779 Y18.232 E21.02664
G1 X12.468 Y18.354 E21.0433
G1 X12.114 Y18.4 E21.06111
G1 X-2.111 Y18.4 E21.7708
G1 X-2.443 Y18.36 E21.78748
G1 X-2.755 Y18.243 E21.80411
G1 X-3.032 Y18.055 E21.82081
G1 X-3.255 Y17.807 E21.83745
G1 X-3.343 Y17.644 E21.84669
G1 X-3.627 Y17.99 E21.86902
G1 X-3.89 Y18.196 E21.88569
G1 X-4.194 Y18.335 E21.90237
G1 X-4.617 Y18.4 E21.92372
G1 X-7.383 Y18.4 E22.06172
G1 X-7.715 Y18.36 E22.0784
G1 X-8.027 Y18.243 E22.09502
G1 X-8.49 Y17.873 E22.12459
G1 X-8.696 Y17.61 E22.14126
G1 X-8.835 Y17.306 E22.15794
G1 X-8.9 Y16.883 E22.17929
G1 X-8.899 Y-4.03 E23.22264
G1 X-9.093 Y-3.856 E23.23564
G1 X-9.388 Y-3.697 E23.25236
G1 X-9.9 Y-3.6 E23.27836
G0 F3600 X-9.9 Y-4
G1 F2700 X-11.051 Y-4 E23.33578
G1 X-11.662 Y-4.043 E23.36634
G1 X-12.158 Y-4.137 E23.39153
G1 X-12.728 Y-4.304 E23.42116
G1 X-13.263 Y-4.536 E23.45025
G1 X-13.793 Y-4.852 E23.48104
G1 X-13.891 Y-4.92 E23.48699
G1 X-14.29 Y-5.236 E23.51238
G1 X-14.686 Y-5.629 E23.54022
G1 X-14.759 Y-5.712 E23.54573
G1 X-15.091 Y-6.135 E23.57256
G1 X-15.399 Y-6.629 E23.6016
G1 X-15.649 Y-7.169 E23.63129
G1 X-15.691 Y-7.283 E23.63735
G1 X-15.841 Y-7.768 E23.66268
G1 X-15.953 Y-8.325 E23.69102
G1 X-15.968 Y-8.454 E23.6975
G1 X-16 Y-9.045 E23.72703
G1 X-15.999 Y-13.066 E23.92764
G1 X-15.966 Y-13.578 E23.95324
G1 X-15.861 Y-14.155 E23.9825
G1 X-15.834 Y-14.262 E23.988
G1 X-15.686 Y-14.741 E24.01301
G1 X-15.457 Y-15.264 E24.0415
G1 X-15.164 Y-15.763 E24.07037
G1 X-15.098 Y-15.86 E24.07622
G1 X-14.766 Y-16.289 E24.10328
G1 X-14.357 Y-16.706 E24.13242
G1 X-13.868 Y-17.09 E24.16344
G1 X-13.785 Y-17.147 E24.16847
G1 X-13.359 Y-17.41 E24.19344
G1 X-12.875 Y-17.637 E24.22012
G1 X-12.761 Y-17.68 E24.22619
G1 X-12.241 Y-17.841 E24.25335
G1 X-11.689 Y-17.95 E24.28142
G1 X-11.575 Y-17.964 E24.28715
G1 X-11.063 Y-17.998 E24.31275
G1 X-10.997 Y-18 E24.31605
G1 X-8.487 Y-18 E24.44127
G1 X-8.208 Y-17.96 E24.45533
G1 X-7.951 Y-17.844 E24.4694
G1 X-7.736 Y-17.661 E24.48349
G1 X-7.582 Y-17.425 E24.49755
G1 X-7.499 Y-17.155 E24.51164
G1 X-7.495 Y-16.873 E24.52571
G1 X-7.57 Y-16.601 E24.53979
G1 X-7.883 Y-16.146 E24.56734
G1 X-8.009 Y-15.965 E24.57834
G1 X-8.272 Y-15.528 E24.60379
G1 X-8.491 Y-15.05 E24.63002
G1 X-8.71 Y-14.41 E24.66377
G1 X-8.842 Y-13.761 E24.69681
G1 X-8.896 Y-13.114 E24.7292
G1 X-8.899 Y-13.026 E24.73359
G1 X-8.9 Y-5 E25.13401
G1 X-8.94 Y-4.721 E25.14807
G1 X-9.056 Y-4.464 E25.16214
G1 X-9.24 Y-4.249 E25.17626
G1 X-9.476 Y-4.095 E25.19032
G1 X-9.9 Y-4 E25.21199
G0 F3600 X-9.9 Y-4.4
G1 F2700 X-11.088 Y-4.401 E25.27126
G1 X-11.588 Y-4.436 E25.29627
G1 X-12.084 Y-4.53 E25.32146
G1 X-12.613 Y-4.687 E25.34899
G1 X-13.098 Y-4.9 E25.37541
G1 X-13.584 Y-5.193 E25.40373
G1 X-13.643 Y-5.234 E25.40731
G1 X-14.042 Y-5.55 E25.4327
G1 X-14.4 Y-5.909 E25.458
G1 X-14.444 Y-5.959 E25.46132
G1 X-14.776 Y-6.382 E25.48815
G1 X-15.056 Y-6.836 E25.51476
G1 X-15.284 Y-7.333 E25.54204
G1 X-15.309 Y-7.401 E25.54565
G1 X-15.459 Y-7.886 E25.57098
G1 X-15.56 Y-8.399 E25.59707
G1 X-15.569 Y-8.476 E25.60093
