;FLAVOR:Marlin
;TIME:11221
;Filament used: 11.994m
;Layer height: 0.24
;MINX:24.457
;MINY:1.472
;MINZ:0.3
;MAXX:100.457
;MAXY:117.472
;MAXZ:11.82
;Generated with Cura_SteamEngine 4.6.1
M104 S210
M105
M109 S210
M82 ;absolute extrusion mode
;Sliced at: Fri 07-08-2020 08:13:15
G21 ;metric values
G90 ;absolute positioning
M82 ;set extruder to absolute mode
M107 ;start with the fan off
G1 Z5.0 F1800 ;move Z to 5mm
G28 X0 Y0 F1800 ;move X/Y to min endstops
G28 Z0 ;move Z to min endstop
G92 E0 ;zero the extruded length
G1 F200 E6.0 ;extrude 6.0mm of feed stock to build pressure
G1 Z5.0 F300 ;move the platform down 5mm
G92 E0 ;zero the extruded length again
G1 F1800
;Put printing message on LCD screen
M117 Printing...
G92 E0
G92 E0
G1 F1500 E-5
;LAYER_COUNT:49
;LAYER:0
M107
G0 F900 X24.567 Y5.448 Z0.3
;TYPE:SKIRT
G1 F1500 E0.70678
G1 F900 X24.642 Y5.139 E0.72423
G1 X24.793 Y4.68 E0.75075
G1 X24.915 Y4.391 E0.76796
G1 X25.12 Y3.992 E0.79258
G1 X25.284 Y3.724 E0.80982
G1 X25.573 Y3.328 E0.83673
G1 X25.777 Y3.092 E0.85385
G1 X26.103 Y2.769 E0.87903
G1 X26.344 Y2.564 E0.89639
G1 X26.735 Y2.282 E0.92285
G1 X27.001 Y2.121 E0.93991
G1 X27.414 Y1.913 E0.96529
G1 X27.706 Y1.793 E0.98262
G1 X28.156 Y1.648 E1.00856
G1 X28.465 Y1.575 E1.02599
G1 X28.935 Y1.503 E1.05208
G1 X29.441 Y1.474 E1.0799
G1 X78.189 Y1.472 E3.75515
G1 X95.464 Y1.472 E4.70319
G1 X96.571 Y1.614 E4.76444
G1 X97.254 Y1.811 E4.80345
G1 X97.538 Y1.931 E4.82037
G1 X97.948 Y2.143 E4.8457
G1 X98.218 Y2.31 E4.86312
G1 X98.596 Y2.586 E4.8888
G1 X98.831 Y2.788 E4.90581
G1 X99.161 Y3.12 E4.9315
G1 X99.365 Y3.36 E4.94879
G1 X99.638 Y3.737 E4.97433
G1 X99.802 Y4.005 E4.99157
G1 X100.024 Y4.445 E5.01862
G1 X100.141 Y4.734 E5.03573
G1 X100.279 Y5.166 E5.06062
G1 X100.353 Y5.477 E5.07816
G1 X100.424 Y5.932 E5.10343
G1 X100.457 Y6.459 E5.13241
G1 X100.457 Y112.483 E10.95093
G1 X100.42 Y113.043 E10.98173
G1 X100.347 Y113.491 E11.00664
G1 X100.272 Y113.802 E11.02419
G1 X100.124 Y114.255 E11.05035
G1 X100.005 Y114.54 E11.0673
G1 X99.785 Y114.967 E11.09366
G1 X99.616 Y115.239 E11.11123
G1 X99.339 Y115.616 E11.1369
G1 X99.137 Y115.85 E11.15387
G1 X98.809 Y116.176 E11.17925
G1 X98.569 Y116.38 E11.19653
G1 X98.182 Y116.659 E11.22272
G1 X97.915 Y116.821 E11.23986
G1 X97.499 Y117.031 E11.26543
G1 X97.207 Y117.151 E11.28275
G1 X96.755 Y117.296 E11.3088
G1 X96.445 Y117.369 E11.32628
G1 X95.992 Y117.44 E11.35145
G1 X95.464 Y117.472 E11.38048
G1 X29.449 Y117.472 E15.00333
G1 X28.888 Y117.435 E15.03418
G1 X28.435 Y117.362 E15.05936
G1 X28.125 Y117.287 E15.07687
G1 X27.665 Y117.135 E15.10345
G1 X27.378 Y117.014 E15.12055
G1 X26.965 Y116.801 E15.14605
G1 X26.695 Y116.634 E15.16347
G1 X26.316 Y116.357 E15.18923
G1 X26.079 Y116.153 E15.20639
G1 X25.753 Y115.826 E15.23173
G1 X25.55 Y115.588 E15.2489
G1 X25.261 Y115.186 E15.27607
G1 X25.1 Y114.918 E15.29323
G1 X24.899 Y114.517 E15.31785
G1 X24.779 Y114.226 E15.33512
G1 X24.632 Y113.77 E15.36141
G1 X24.559 Y113.46 E15.37889
G1 X24.488 Y113.001 E15.40438
G1 X24.457 Y112.484 E15.4328
G1 X24.457 Y6.462 E21.25121
G1 X24.489 Y5.973 E21.2781
G0 F810 X24.492 Y5.912
G0 X24.567 Y5.448
G0 F900 X24.955 Y5.543
G1 X25.03 Y5.234 E21.29555
G1 X25.162 Y4.836 E21.31856
G1 X25.284 Y4.547 E21.33578
G1 X25.461 Y4.201 E21.35711
G1 X25.625 Y3.933 E21.37435
G1 X25.876 Y3.59 E21.39768
G1 X26.08 Y3.354 E21.4148
G1 X26.362 Y3.074 E21.4366
G1 X26.603 Y2.869 E21.45397
G1 X26.942 Y2.625 E21.47689
G1 X27.208 Y2.464 E21.49395
G1 X27.566 Y2.283 E21.51597
G1 X27.858 Y2.163 E21.53329
G1 X28.248 Y2.038 E21.55577
G1 X28.557 Y1.965 E21.57319
G1 X28.965 Y1.902 E21.59585
G1 X29.441 Y1.874 E21.62202
G1 X78.189 Y1.872 E24.29727
G1 X95.464 Y1.872 E25.24531
G1 X96.507 Y2.008 E25.30303
G1 X97.098 Y2.179 E25.3368
G1 X97.382 Y2.299 E25.35372
G1 X97.738 Y2.483 E25.37571
G1 X98.008 Y2.65 E25.39313
G1 X98.335 Y2.889 E25.41536
G1 X98.57 Y3.091 E25.43236
G1 X98.856 Y3.379 E25.45464
G1 X99.06 Y3.619 E25.47193
G1 X99.297 Y3.946 E25.49409
G1 X99.461 Y4.214 E25.51133
G1 X99.653 Y4.595 E25.53475
G1 X99.77 Y4.884 E25.55186
G1 X99.889 Y5.258 E25.57339
G1 X99.963 Y5.569 E25.59094
G1 X100.026 Y5.964 E25.61289
G1 X100.057 Y6.459 E25.64011
G1 X100.057 Y112.483 E31.45862
G1 X100.022 Y113.009 E31.48755
G1 X99.959 Y113.398 E31.50918
G1 X99.884 Y113.709 E31.52674
G1 X99.755 Y114.101 E31.54938
G1 X99.636 Y114.386 E31.56633
G1 X99.445 Y114.756 E31.58918
G1 X99.276 Y115.028 E31.60676
G1 X99.036 Y115.355 E31.62902
G1 X98.834 Y115.589 E31.64598
G1 X98.55 Y115.871 E31.66795
G1 X98.31 Y116.075 E31.68523
G1 X97.975 Y116.317 E31.70791
G1 X97.708 Y116.479 E31.72505
G1 X97.347 Y116.661 E31.74724
G1 X97.055 Y116.781 E31.76456
G1 X96.663 Y116.907 E31.78716
G1 X96.353 Y116.98 E31.80464
G1 X95.96 Y117.041 E31.82646
G1 X95.464 Y117.072 E31.85374
G1 X29.449 Y117.072 E35.47659
G1 X28.922 Y117.037 E35.50557
G1 X28.529 Y116.973 E35.52743
G1 X28.219 Y116.898 E35.54493
G1 X27.82 Y116.767 E35.56798
G1 X27.533 Y116.646 E35.58507
G1 X27.175 Y116.461 E35.60718
G1 X26.905 Y116.294 E35.62461
G1 X26.577 Y116.054 E35.64691
G1 X26.34 Y115.85 E35.66407
G1 X26.058 Y115.566 E35.68604
G1 X25.855 Y115.328 E35.7032
G1 X25.604 Y114.98 E35.72675
G1 X25.443 Y114.712 E35.74391
G1 X25.268 Y114.364 E35.76528
G1 X25.148 Y114.073 E35.78256
G1 X25.021 Y113.678 E35.80533
G1 X24.948 Y113.368 E35.82281
G1 X24.887 Y112.97 E35.8449
G1 X24.857 Y112.484 E35.87163
G1 X24.857 Y6.462 E41.69003
G1 X24.883 Y6.069 E41.71165
G0 F810 X24.891 Y5.944
G0 X24.955 Y5.543
G0 F900 X25.344 Y5.637
G1 X25.419 Y5.328 E41.7291
G1 X25.53 Y4.991 E41.74857
G1 X25.802 Y4.41 E41.78377
G1 X25.966 Y4.142 E41.80102
G1 X26.179 Y3.851 E41.82081
G1 X26.622 Y3.378 E41.85637
G1 X26.863 Y3.173 E41.87374
G1 X27.149 Y2.967 E41.89308
G1 X27.718 Y2.653 E41.92874
G1 X28.01 Y2.533 E41.94607
G1 X28.34 Y2.427 E41.96509
G1 X28.649 Y2.354 E41.98252
G1 X29.28 Y2.28 E42.01738
G1 X78.189 Y2.272 E44.70147
G1 X95.464 Y2.272 E45.64951
G1 X96.442 Y2.403 E45.70366
G1 X96.942 Y2.547 E45.73221
G1 X97.226 Y2.667 E45.74913
G1 X97.797 Y2.99 E45.78514
G1 X98.074 Y3.193 E45.80398
G1 X98.309 Y3.395 E45.82099
G1 X98.551 Y3.638 E45.83981
G1 X98.755 Y3.878 E45.8571
G1 X98.956 Y4.155 E45.87588
G1 X99.12 Y4.423 E45.89312
G1 X99.282 Y4.745 E45.9129
G1 X99.5 Y5.351 E45.94825
G1 X99.574 Y5.662 E45.96579
G1 X99.65 Y6.284 E46.00018
G1 X99.657 Y112.483 E51.8283
G1 X99.623 Y112.975 E51.85536
G1 X99.57 Y113.304 E51.87365
G1 X99.495 Y113.615 E51.89121
G1 X99.386 Y113.947 E51.91038
G1 X99.267 Y114.232 E51.92733
G1 X99.106 Y114.545 E51.94665
G1 X98.937 Y114.817 E51.96422
G1 X98.733 Y115.094 E51.9831
G1 X98.291 Y115.566 E52.01859
G1 X98.051 Y115.77 E52.03588
G1 X97.767 Y115.975 E52.0551
G1 X97.5 Y116.137 E52.07224
G1 X97.195 Y116.291 E52.09099
G1 X96.903 Y116.411 E52.10831
G1 X96.571 Y116.517 E52.12744
G1 X95.929 Y116.642 E52.16333
G1 X95.464 Y116.672 E52.1889
G1 X29.449 Y116.672 E55.81176
G1 X28.956 Y116.638 E55.83888
G1 X28.623 Y116.584 E55.85739
G1 X28.313 Y116.509 E55.87489
G1 X27.975 Y116.398 E55.89442
G1 X27.688 Y116.277 E55.91151
G1 X27.386 Y116.121 E55.93016
G1 X27.116 Y115.954 E55.94759
G1 X26.838 Y115.75 E55.96651
G1 X26.362 Y115.307 E56.00219
G1 X26.159 Y115.069 E56.01936
G1 X25.947 Y114.774 E56.0393
G1 X25.638 Y114.212 E56.07449
G1 X25.518 Y113.921 E56.09177
G1 X25.411 Y113.586 E56.11107
G1 X25.285 Y112.94 E56.14719
G1 X25.257 Y112.484 E56.17226
G1 X25.257 Y6.462 E61.99067
G1 X25.277 Y6.164 E62.00706
G0 F810 X25.289 Y5.977
G0 X25.344 Y5.637
G0 F900 X25.808 Y5.422
G1 X26.021 Y4.858 E62.04014
G1 X26.308 Y4.35 E62.07216
G1 X26.685 Y3.877 E62.10536
G1 X27.122 Y3.478 E62.13783
G1 X27.622 Y3.148 E62.17071
G1 X28.162 Y2.903 E62.20325
G1 X28.741 Y2.743 E62.23622
G1 X29.309 Y2.679 E62.26759
G1 X78.189 Y2.672 E64.95008
G1 X95.464 Y2.672 E65.89812
G1 X96.377 Y2.798 E65.9487
G1 X96.787 Y2.916 E65.97211
G1 X97.317 Y3.163 E66.0042
G1 X97.813 Y3.496 E66.03699
G1 X98.246 Y3.897 E66.06938
G1 X98.614 Y4.363 E66.10196
G1 X98.778 Y4.631 E66.11921
G1 X99.028 Y5.185 E66.15256
G1 X99.185 Y5.754 E66.18495
G1 X99.251 Y6.316 E66.21601
G1 X99.257 Y112.483 E72.04237
G1 X99.224 Y112.941 E72.06757
G1 X99.106 Y113.521 E72.10005
G1 X98.898 Y114.078 E72.13268
G1 X98.597 Y114.606 E72.16604
G1 X98.229 Y115.066 E72.19837
G1 X97.792 Y115.465 E72.23084
G1 X97.293 Y115.795 E72.26367
G1 X96.751 Y116.041 E72.29634
G1 X96.17 Y116.201 E72.32941
G1 X95.605 Y116.266 E72.36062
G1 X29.449 Y116.272 E75.99121
G1 X28.989 Y116.24 E76.01651
G1 X28.407 Y116.121 E76.04912
G1 X27.844 Y115.909 E76.08213
G1 X27.326 Y115.614 E76.11484
G1 X26.862 Y115.243 E76.14745
G1 X26.463 Y114.809 E76.1798
G1 X26.129 Y114.3 E76.21321
G1 X25.888 Y113.768 E76.24526
G1 X25.727 Y113.185 E76.27845
G1 X25.662 Y112.621 E76.30961
G1 X25.657 Y6.462 E82.13554
G1 X25.688 Y6.009 E82.16045
G1 X25.702 Y5.943 E82.16416
G0 F810 X25.808 Y5.422
G0 F900 X26.197 Y5.517
G1 X26.389 Y5.014 E82.1937
G1 X26.649 Y4.559 E82.22246
G1 X26.988 Y4.138 E82.25213
G1 X27.381 Y3.783 E82.28119
G1 X27.829 Y3.49 E82.31057
G1 X28.314 Y3.273 E82.33973
G1 X28.833 Y3.133 E82.36923
G1 X29.338 Y3.078 E82.3971
G1 X78.189 Y3.072 E85.07801
G1 X95.464 Y3.072 E86.02605
G1 X96.313 Y3.192 E86.0731
G1 X96.631 Y3.284 E86.09127
G1 X97.106 Y3.503 E86.11998
G1 X97.553 Y3.799 E86.1494
G1 X97.942 Y4.156 E86.17837
G1 X98.273 Y4.572 E86.20755
G1 X98.541 Y5.046 E86.23743
G1 X98.722 Y5.536 E86.2661
G1 X98.83 Y6.06 E86.29546
G1 X98.857 Y6.459 E86.3174
G1 X98.857 Y112.483 E92.13592
G1 X98.826 Y112.907 E92.15925
G1 X98.717 Y113.427 E92.18841
G1 X98.529 Y113.923 E92.21752
G1 X98.257 Y114.395 E92.24741
G1 X97.926 Y114.805 E92.27633
G1 X97.533 Y115.161 E92.30543
G1 X97.085 Y115.453 E92.33478
G1 X96.599 Y115.671 E92.36401
G1 X96.078 Y115.812 E92.39363
G1 X95.574 Y115.868 E92.42146
G1 X29.449 Y115.872 E96.05035
G1 X29.023 Y115.841 E96.07379
G1 X28.501 Y115.732 E96.10306
G1 X27.999 Y115.54 E96.13255
G1 X27.537 Y115.274 E96.16181
G1 X27.123 Y114.94 E96.191
G1 X26.768 Y114.55 E96.21994
G1 X26.472 Y114.094 E96.24978
G1 X26.258 Y113.616 E96.27852
G1 X26.116 Y113.093 E96.30826
G1 X26.061 Y112.591 E96.33597
G1 X26.057 Y6.462 E102.16025
G1 X26.087 Y6.042 E102.18336
G1 X26.088 Y6.038 E102.18358
G0 F810 X26.197 Y5.517
G0 F900 X26.51 Y5.92
G1 X26.636 Y5.458 E102.20986
G1 X26.826 Y5.036 E102.23526
G1 X27.086 Y4.636 E102.26144
G1 X27.399 Y4.292 E102.28697
G1 X27.77 Y3.993 E102.31312
G1 X28.174 Y3.763 E102.33863
G1 X28.616 Y3.595 E102.36458
G1 X29.082 Y3.498 E102.3907
G1 X29.441 Y3.474 E102.41045
G1 X78.189 Y3.472 E105.0857
G1 X95.464 Y3.472 E106.03374
G1 X96.248 Y3.587 E106.07722
G1 X96.475 Y3.653 E106.0902
G1 X96.896 Y3.844 E106.11557
G1 X97.292 Y4.103 E106.14153
G1 X97.637 Y4.415 E106.16706
G1 X97.932 Y4.781 E106.19286
G1 X98.17 Y5.196 E106.21911
G1 X98.333 Y5.629 E106.2445
G1 X98.431 Y6.091 E106.27042
G1 X98.457 Y6.459 E106.29067
G1 X98.457 Y112.483 E112.10918
G1 X98.403 Y113.022 E112.13891
G1 X98.279 Y113.484 E112.16516
G1 X98.086 Y113.912 E112.19093
G1 X97.825 Y114.309 E112.217
G1 X97.514 Y114.652 E112.24241
G1 X97.145 Y114.949 E112.26841
G1 X96.739 Y115.181 E112.29407
G1 X96.296 Y115.349 E112.32007
G1 X95.835 Y115.446 E112.34592
G1 X95.464 Y115.472 E112.36633
G1 X29.449 Y115.472 E115.98919
G1 X28.905 Y115.418 E116.01919
G1 X28.442 Y115.292 E116.04552
G1 X28.017 Y115.1 E116.07111
G1 X27.621 Y114.841 E116.09708
G1 X27.275 Y114.528 E116.12269
G1 X26.976 Y114.156 E116.14888
G1 X26.748 Y113.754 E116.17424
G1 X26.579 Y113.311 E116.20026
G1 X26.482 Y112.848 E116.22622
G1 X26.457 Y112.484 E116.24624
G1 X26.457 Y6.462 E122.06465
G1 X26.459 Y6.45 E122.06532
G0 F810 X26.51 Y5.92
G0 F900 X26.899 Y6.014
G1 X27.004 Y5.614 E122.08801
G1 X27.167 Y5.245 E122.11015
G1 X27.389 Y4.898 E122.13276
G1 X27.658 Y4.597 E122.15491
G1 X27.977 Y4.336 E122.17753
G1 X28.326 Y4.133 E122.19969
G1 X28.708 Y3.984 E122.22219
G1 X29.111 Y3.897 E122.24482
G1 X29.441 Y3.874 E122.26297
G1 X78.189 Y3.872 E124.93822
G1 X95.464 Y3.872 E125.88626
G1 X96.183 Y3.982 E125.92618
G1 X96.604 Y4.141 E125.95088
G1 X97.031 Y4.406 E125.97845
G1 X97.332 Y4.674 E126.00057
G1 X97.591 Y4.99 E126.02299
G1 X97.799 Y5.346 E126.04562
G1 X97.944 Y5.721 E126.06769
G1 X98.032 Y6.123 E126.09027
G1 X98.057 Y6.459 E126.10876
G1 X98.057 Y112.483 E131.92728
G1 X98.014 Y112.929 E131.95187
G1 X97.91 Y113.33 E131.9746
G1 X97.747 Y113.701 E131.99684
G1 X97.522 Y114.048 E132.01953
G1 X97.255 Y114.347 E132.04153
G1 X96.937 Y114.607 E132.06408
G1 X96.587 Y114.811 E132.08631
G1 X96.205 Y114.96 E132.10881
G1 X95.804 Y115.047 E132.13133
G1 X95.464 Y115.072 E132.15004
G1 X29.449 Y115.072 E135.77289
G1 X28.999 Y115.029 E135.7977
G1 X28.597 Y114.924 E135.8205
G1 X28.227 Y114.76 E135.84271
G1 X27.882 Y114.538 E135.86522
G1 X27.579 Y114.268 E135.8875
G1 X27.319 Y113.95 E135.91004
G1 X27.117 Y113.602 E135.93212
G1 X26.968 Y113.22 E135.95462
G1 X26.881 Y112.818 E135.9772
G1 X26.857 Y112.484 E135.99557
G1 X26.857 Y6.545 E141.80942
G0 F810 X26.857 Y6.462
G0 X26.899 Y6.014
G0 F900 X27.288 Y6.109
G1 X27.373 Y5.769 E141.82866
G1 X27.508 Y5.454 E141.84746
G1 X27.692 Y5.159 E141.86654
G1 X27.917 Y4.902 E141.88529
G1 X28.184 Y4.678 E141.90442
G1 X28.478 Y4.503 E141.92319
G1 X28.8 Y4.373 E141.94225
G1 X29.14 Y4.296 E141.96138
G1 X29.441 Y4.274 E141.97794
G1 X78.189 Y4.272 E144.6532
G1 X95.464 Y4.272 E145.60123
G1 X96.118 Y4.377 E145.63758
G1 X96.475 Y4.524 E145.65877
G1 X96.77 Y4.709 E145.67788
G1 X97.027 Y4.933 E145.69659
G1 X97.25 Y5.199 E145.71564
G1 X97.428 Y5.496 E145.73464
G1 X97.555 Y5.814 E145.75343
G1 X97.633 Y6.155 E145.77263
G1 X97.657 Y6.459 E145.78937
G1 X97.657 Y112.483 E151.60788
G1 X97.625 Y112.835 E151.62728
G1 X97.541 Y113.176 E151.64655
G1 X97.407 Y113.49 E151.66529
G1 X97.219 Y113.787 E151.68458
G1 X96.996 Y114.042 E151.70317
G1 X96.73 Y114.265 E151.72222
G1 X96.435 Y114.441 E151.74107
G1 X96.113 Y114.571 E151.76013
G1 X95.773 Y114.648 E151.77926
G1 X95.464 Y114.672 E151.79627
G1 X29.449 Y114.672 E155.41912
G1 X29.093 Y114.64 E155.43873
G1 X28.752 Y114.555 E155.45802
G1 X28.438 Y114.42 E155.47678
G1 X28.143 Y114.235 E155.49589
G1 X27.884 Y114.009 E155.51475
G1 X27.662 Y113.744 E155.53372
G1 X27.487 Y113.449 E155.55255
G1 X27.357 Y113.128 E155.57155
G1 X27.28 Y112.787 E155.59074
G1 X27.257 Y112.484 E155.60741
G1 X27.257 Y6.64 E161.41605
G0 F810 X27.257 Y6.462
G0 X27.288 Y6.109
G1 F1500 E156.41605
G0 F900 X26.793 Y6.434
G0 X36.695 Y23.329
;TYPE:SUPPORT
G1 F1500 E162.12283
G1 F900 X36.713 Y23.322 E162.12442
G1 X88.217 Y23.327 E166.36417
G1 X88.399 Y23.919 E166.41515
G1 X88.488 Y24.326 E166.44945
G1 X88.623 Y24.863 E166.49503
G1 X88.798 Y25.841 E166.57681
G1 X88.946 Y26.891 E166.6641
G1 X89.038 Y27.72 E166.73276
G1 X89.08 Y28.28 E166.77899
G1 X89.121 Y28.949 E166.83417
G1 X89.145 Y29.48 E166.87792
G1 X89.157 Y30.257 E166.94189
G1 X89.157 Y36.156 E167.42749
G1 X89.128 Y36.221 E167.43335
G1 X89.157 Y36.311 E167.44113
G1 X89.157 Y37.613 E167.54831
G1 X89.098 Y37.747 E167.56037
G1 X89.157 Y37.919 E167.57533
G1 X89.157 Y91.784 E172.00944
G1 X89.139 Y91.868 E172.01651
G1 X89.157 Y91.904 E172.01982
G1 X89.157 Y96.03 E172.35947
G1 X89.121 Y96.132 E172.36838
G1 X89.157 Y96.221 E172.37628
G1 X89.157 Y97.495 E172.48115
G1 X89.132 Y97.558 E172.48673
G1 X89.157 Y97.627 E172.49277
G1 X89.157 Y103.923 E173.01105
G1 X88.383 Y104.447 E173.088
G1 X88.188 Y105.255 E173.15642
G1 X88.609 Y106.018 E173.22815
G1 X88.573 Y106.074 E173.23363
G1 X88.436 Y106.225 E173.25042
G1 X88.325 Y106.31 E173.26193
G1 X88.258 Y106.34 E173.26797
G1 X88.167 Y106.358 E173.27561
G1 X36.738 Y106.359 E177.50918
G1 X36.688 Y106.35 E177.51336
G1 X36.583 Y106.305 E177.52277
G1 X36.483 Y106.228 E177.53316
G1 X36.39 Y106.123 E177.5447
G1 X36.299 Y106.001 E177.55723
G1 X36.744 Y105.294 E177.626
G1 X36.569 Y104.471 E177.69526
G1 X35.757 Y103.923 E177.7759
G1 X35.757 Y96.262 E178.40655
G1 X35.787 Y96.189 E178.41305
G1 X35.757 Y96.104 E178.42047
G1 X35.757 Y48.305 E182.35522
G1 X35.792 Y48.155 E182.3679
G1 X35.757 Y48.087 E182.3742
G1 X35.758 Y38.733 E183.14421
G1 X35.796 Y38.625 E183.15363
G1 X35.758 Y38.542 E183.16115
G1 X35.759 Y37.105 E183.27944
G1 X35.786 Y37.023 E183.28655
G1 X35.759 Y36.958 E183.29234
G1 X35.759 Y35.491 E183.4131
G1 X35.78 Y35.427 E183.41865
