;FLAVOR:Marlin
;TIME:6753
;Filament used: 7.41164m
;Layer height: 0.24
;MINX:4.806
;MINY:2.248
;MINZ:0.3
;MAXX:115.738
;MAXY:113.656
;MAXZ:19.98
;Generated with Cura_SteamEngine 4.6.1
M104 S210
M105
M109 S210
M82 ;absolute extrusion mode
;Sliced at: Thu 06-08-2020 07:29:09
G21 ;metric values
G90 ;absolute positioning
M82 ;set extruder to absolute mode
M107 ;start with the fan off
G1 Z5.0 F1800 ;move Z to 5mm
G28 X0 Y0 F1800 ;move X/Y to min endstops
G28 Z0 ;move Z to min endstop
G92 E0 ;zero the extruded length
G1 F200 E6.0 ;extrude 6.0mm of feed stock to build pressure
G1 Z5.0 F300 ;move the platform down 5mm
G92 E0 ;zero the extruded length again
G1 F1800
;Put printing message on LCD screen
M117 Printing...
G92 E0
G92 E0
G1 F1500 E-5
;LAYER_COUNT:83
;LAYER:0
M107
G0 F900 X48.324 Y41.492 Z0.3
;TYPE:SKIRT
G1 F1500 E0.70678
G1 F900 X50.909 Y38.673 E0.91668
G1 X53.524 Y35.848 E1.12794
G1 X56.153 Y33.034 E1.33928
G1 X58.787 Y30.235 E1.55021
G1 X61.447 Y27.437 E1.76207
G1 X64.112 Y24.655 E1.9735
G1 X66.782 Y21.895 E2.18424
G1 X69.467 Y19.143 E2.39524
G1 X72.148 Y16.419 E2.60499
G1 X74.845 Y13.704 E2.81501
G1 X77.542 Y11.012 E3.02413
G1 X80.23 Y8.354 E3.23159
G1 X82.953 Y5.685 E3.44084
G1 X85.631 Y3.085 E3.64567
G1 X86.009 Y2.774 E3.67254
G1 X86.432 Y2.528 E3.69939
G1 X86.89 Y2.354 E3.72628
G1 X87.37 Y2.258 E3.75314
G1 X88.033 Y2.248 E3.78953
G1 X88.518 Y2.31 E3.81636
G1 X88.987 Y2.451 E3.84324
G1 X89.427 Y2.666 E3.87012
G1 X89.826 Y2.949 E3.89696
G1 X90.184 Y3.306 E3.92471
G1 X90.825 Y4.063 E3.97914
G1 X91.11 Y4.461 E4.00601
G1 X91.327 Y4.901 E4.03293
G1 X91.468 Y5.369 E4.05976
G1 X91.532 Y5.854 E4.0866
G1 X91.524 Y6.312 E4.11174
G1 X91.459 Y6.797 E4.1386
G1 X91.317 Y7.265 E4.16544
G1 X91.1 Y7.704 E4.19231
G1 X90.814 Y8.101 E4.21916
G1 X90.62 Y8.309 E4.23477
G1 X87.59 Y11.257 E4.46677
G1 X84.585 Y14.214 E4.69814
G1 X81.506 Y17.273 E4.93633
G1 X78.543 Y20.252 E5.16691
G1 X75.572 Y23.272 E5.3994
G1 X72.491 Y26.428 E5.64145
G1 X69.546 Y29.48 E5.8742
G1 X66.617 Y32.545 E6.10686
G1 X63.725 Y35.603 E6.33784
G1 X60.828 Y38.693 E6.57029
G1 X57.988 Y41.758 E6.79961
G1 X55.163 Y44.832 E7.02872
G1 X52.369 Y47.9 E7.25645
G1 X49.523 Y51.057 E7.48971
G1 X48.174 Y52.563 E7.60067
G1 X45.535 Y55.533 E7.81871
G1 X42.971 Y58.448 E8.03176
G1 X40.413 Y61.382 E8.24538
G1 X37.999 Y64.177 E8.44805
G1 X35.638 Y66.937 E8.64738
G1 X32.201 Y71.003 E8.93956
G1 X30.031 Y73.6 E9.12528
G1 X27.953 Y76.116 E9.30436
G1 X25.883 Y78.641 E9.48355
G1 X23.963 Y81.011 E9.65094
G1 X21.242 Y84.414 E9.89005
G1 X20.305 Y85.595 E9.97278
G1 X17.831 Y88.758 E10.19316
G1 X15.491 Y91.801 E10.40382
G1 X14.1 Y93.641 E10.53041
G1 X12.831 Y95.341 E10.64683
G1 X12.507 Y95.708 E10.67369
G1 X12.082 Y96.044 E10.70343
G1 X14.129 Y96.908 E10.82536
G1 X14.193 Y96.886 E10.82908
G1 X15.112 Y95.551 E10.91802
G1 X15.422 Y95.172 E10.94489
G1 X15.789 Y94.848 E10.97176
G1 X16.546 Y94.378 E11.02066
G1 X16.994 Y93.732 E11.0638
G1 X17.305 Y93.354 E11.09066
G1 X17.673 Y93.032 E11.1175
G1 X18.089 Y92.774 E11.14436
G1 X18.508 Y92.597 E11.16932
G1 X18.996 Y92.434 E11.19756
G1 X19.479 Y91.761 E11.24302
G1 X19.796 Y91.388 E11.26988
G1 X20.169 Y91.071 E11.29675
G1 X20.589 Y90.82 E11.3236
G1 X20.834 Y90.723 E11.33806
G1 X21.903 Y89.252 E11.43785
G1 X22.222 Y88.881 E11.46471
G1 X22.597 Y88.566 E11.49158
G1 X23.033 Y88.311 E11.5193
G1 X24.465 Y86.365 E11.65189
G1 X24.787 Y85.996 E11.67877
G1 X25.164 Y85.684 E11.70563
G1 X25.623 Y85.424 E11.73458
G1 X26.781 Y83.849 E11.84186
G1 X27.102 Y83.479 E11.86874
G1 X27.479 Y83.167 E11.8956
G1 X27.967 Y82.897 E11.9262
G1 X29.481 Y80.887 E12.0643
G1 X29.806 Y80.521 E12.09116
G1 X30.187 Y80.213 E12.11805
G1 X30.656 Y79.956 E12.1474
G1 X32.1 Y78.093 E12.27676
G1 X32.43 Y77.732 E12.3036
G1 X32.815 Y77.429 E12.33048
G1 X33.29 Y77.178 E12.35997
G1 X34.894 Y75.099 E12.50407
G1 X35.224 Y74.737 E12.53095
G1 X35.608 Y74.434 E12.5578
G1 X36.062 Y74.189 E12.58611
G1 X37.944 Y71.813 E12.75245
G1 X38.278 Y71.455 E12.77932
G1 X38.666 Y71.157 E12.80617
G1 X39.128 Y70.915 E12.83479
G1 X40.763 Y68.869 E12.97852
G1 X41.098 Y68.513 E13.00535
G1 X41.488 Y68.216 E13.03225
G1 X41.958 Y67.974 E13.06126
G1 X44.008 Y65.428 E13.24065
G1 X44.345 Y65.073 E13.26751
G1 X44.736 Y64.777 E13.29442
G1 X45.235 Y64.528 E13.32503
G1 X47.701 Y61.522 E13.5384
G1 X48.042 Y61.17 E13.5653
G1 X48.435 Y60.878 E13.59217
G1 X48.66 Y60.758 E13.60616
G1 X47.56 Y56.856 E13.82865
G1 X47.466 Y56.376 E13.85549
G1 X47.451 Y55.886 E13.88239
G1 X47.516 Y55.401 E13.90925
G1 X47.659 Y54.933 E13.9361
G1 X47.877 Y54.495 E13.96295
G1 X48.163 Y54.097 E13.98985
G1 X48.509 Y53.752 E14.01667
G1 X48.908 Y53.467 E14.04357
G1 X49.347 Y53.251 E14.07042
G1 X49.815 Y53.109 E14.09726
G1 X50.301 Y53.046 E14.12416
G1 X50.79 Y53.062 E14.15101
G1 X51.27 Y53.157 E14.17786
G1 X51.707 Y53.316 E14.20338
G1 X52.143 Y53.538 E14.23023
G1 X53.996 Y54.89 E14.35611
G1 X54.219 Y54.986 E14.36944
G1 X54.382 Y54.794 E14.38326
G1 X54.728 Y54.448 E14.41011
G1 X55.126 Y54.163 E14.43698
G1 X55.493 Y53.982 E14.45944
G1 X56.649 Y52.661 E14.55577
G1 X57.05 Y51.907 E14.60264
G1 X57.314 Y51.495 E14.62949
G1 X57.548 Y51.221 E14.64926
G1 X57.905 Y50.885 E14.67617
G1 X58.311 Y50.613 E14.70299
G1 X58.757 Y50.41 E14.72988
G1 X59.25 Y50.279 E14.75787
G1 X62.264 Y46.809 E15.01011
G1 X62.558 Y46.272 E15.04371
G1 X62.827 Y45.863 E15.07057
G1 X63.159 Y45.504 E15.09741
G1 X63.545 Y45.203 E15.12427
G1 X63.983 Y44.966 E15.1516
G1 X64.72 Y44.643 E15.19576
G1 X66.38 Y42.786 E15.33245
G1 X66.727 Y42.17 E15.37125
G1 X67.001 Y41.765 E15.39809
G1 X67.338 Y41.41 E15.42495
G1 X67.728 Y41.114 E15.45182
G1 X68.14 Y40.894 E15.47745
G1 X68.862 Y40.579 E15.52068
G1 X71.064 Y38.168 E15.69988
G1 X71.422 Y37.835 E15.72671
G1 X71.83 Y37.564 E15.75359
G1 X72.148 Y37.416 E15.77284
G1 X72.783 Y36.697 E15.82548
G1 X73.317 Y36.222 E15.8647
G1 X73.497 Y36.097 E15.87673
G1 X76.078 Y33.331 E16.08435
G1 X76.44 Y33.002 E16.11119
G1 X76.851 Y32.736 E16.13806
G1 X77.023 Y32.655 E16.14849
G1 X77.854 Y31.788 E16.2144
G1 X78.376 Y31.355 E16.25162
G1 X78.581 Y31.221 E16.26506
G1 X81.238 Y28.396 E16.47789
G1 X81.601 Y28.068 E16.50474
G1 X82.013 Y27.803 E16.53162
G1 X82.276 Y27.682 E16.54751
G1 X83.536 Y26.387 E16.64667
G1 X84.068 Y25.953 E16.68435
G1 X84.277 Y25.819 E16.69797
G1 X87.174 Y22.837 E16.92613
G1 X87.54 Y22.509 E16.9531
G1 X86.581 Y20.341 E17.0832
G1 X86.42 Y19.879 E17.11005
G1 X86.336 Y19.397 E17.1369
G1 X86.332 Y18.907 E17.16379
G1 X86.408 Y18.424 E17.19063
G1 X86.561 Y17.959 E17.21749
G1 X86.778 Y17.54 E17.24339
G1 X88.795 Y14.304 E17.45265
G1 X89.228 Y13.761 E17.49076
G1 X89.742 Y13.251 E17.5305
G1 X90.116 Y12.936 E17.55733
G1 X90.537 Y12.686 E17.5842
G1 X90.993 Y12.508 E17.61107
G1 X91.472 Y12.406 E17.63794
G1 X91.961 Y12.383 E17.66481
G1 X92.447 Y12.44 E17.69166
G1 X92.917 Y12.575 E17.7185
G1 X93.359 Y12.785 E17.74536
G1 X93.761 Y13.065 E17.77224
G1 X94.139 Y13.435 E17.80127
G1 X95.589 Y15.137 E17.92397
G1 X95.875 Y15.535 E17.95087
G1 X96.092 Y15.973 E17.9777
G1 X96.215 Y16.353 E17.99962
G1 X97.991 Y23.43 E18.40004
G1 X98.377 Y23.568 E18.42254
G1 X98.805 Y23.806 E18.44941
G1 X99.189 Y24.11 E18.47629
G1 X99.432 Y24.365 E18.49562
G1 X100.468 Y25.591 E18.58371
G1 X100.907 Y25.664 E18.60813
G1 X101.37 Y25.823 E18.635
G1 X101.801 Y26.054 E18.66183
G1 X102.189 Y26.353 E18.68871
G1 X102.462 Y26.635 E18.71025
G1 X103.463 Y27.818 E18.7953
G1 X103.884 Y27.895 E18.81879
G1 X104.345 Y28.059 E18.84564
G1 X104.773 Y28.296 E18.87249
G1 X105.157 Y28.6 E18.89936
G1 X105.392 Y28.845 E18.918
G1 X105.831 Y29.36 E18.95513
G1 X108.342 Y29.596 E19.09354
G1 X108.824 Y29.682 E19.12041
G1 X109.286 Y29.844 E19.14728
G1 X109.715 Y30.08 E19.17415
G1 X110.1 Y30.382 E19.201
G1 X110.43 Y30.743 E19.22784
G1 X110.571 Y30.958 E19.24195
G1 X110.791 Y30.857 E19.25524
G1 X111.264 Y30.728 E19.28215
G1 X111.75 Y30.678 E19.30896
G1 X112.274 Y30.708 E19.33776
G1 X112.755 Y30.796 E19.3646
G1 X113.216 Y30.961 E19.39147
G1 X113.644 Y31.199 E19.41834
G1 X114.027 Y31.503 E19.44518
G1 X114.264 Y31.751 E19.464
G1 X115.029 Y32.652 E19.52887
G1 X115.314 Y33.05 E19.55573
G1 X115.531 Y33.489 E19.58261
G1 X115.674 Y33.957 E19.60946
G1 X115.738 Y34.442 E19.63631
G1 X115.713 Y35.045 E19.66943
G1 X115.627 Y35.527 E19.6963
G1 X115.465 Y35.989 E19.72317
G1 X115.229 Y36.418 E19.75004
G1 X114.927 Y36.803 E19.77689
G1 X114.593 Y37.112 E19.80186
G1 X114.168 Y37.45 E19.83166
G1 X110.539 Y40.359 E20.08691
G1 X106.762 Y43.367 E20.35189
G1 X102.988 Y46.357 E20.61613
G1 X98.562 Y49.843 E20.92531
G1 X94.827 Y52.768 E21.18566
G1 X91.109 Y55.665 E21.44433
G1 X87.414 Y58.528 E21.70086
G1 X82.211 Y62.533 E22.06119
G1 X75.008 Y68.026 E22.55831
G1 X71.463 Y70.704 E22.80213
G1 X66.253 Y74.609 E23.15945
G1 X60.953 Y78.54 E23.52158
G1 X54.449 Y83.309 E23.96419
G1 X50.795 Y85.952 E24.21167
G1 X47.943 Y87.996 E24.40423
G1 X44.192 Y90.656 E24.65659
G1 X37.801 Y95.107 E25.084
G1 X34.089 Y97.631 E25.33035
G1 X31.713 Y99.214 E25.48703
G1 X30.553 Y99.979 E25.56329
G1 X29.35 Y100.763 E25.64209
G1 X28.121 Y101.557 E25.72239
G1 X25.318 Y103.324 E25.90423
G1 X23.594 Y104.375 E26.01503
G1 X22.547 Y105.002 E26.08201
G1 X21.285 Y105.736 E26.16213
G1 X20.555 Y106.15 E26.20818
G1 X19.849 Y106.542 E26.2525
G1 X19.167 Y106.914 E26.29513
G1 X18.493 Y107.268 E26.33691
G1 X17.847 Y107.598 E26.37672
G1 X17.23 Y107.904 E26.41452
G1 X16.607 Y108.195 E26.45225
G1 X16.021 Y108.458 E26.4875
G1 X15.436 Y108.705 E26.52235
G1 X14.793 Y108.951 E26.56013
G1 X14.161 Y109.165 E26.59675
G1 X13.683 Y109.301 E26.62403
G1 X13.701 Y109.492 E26.63455
G1 X13.666 Y109.98 E26.6614
G1 X13.552 Y110.456 E26.68827
G1 X13.362 Y110.907 E26.71512
G1 X13.197 Y111.169 E26.73211
G1 X12.994 Y111.696 E26.76311
G1 X12.781 Y112.137 E26.78998
G1 X12.5 Y112.537 E26.81681
G1 X12.157 Y112.887 E26.84371
G1 X11.762 Y113.176 E26.87056
G1 X11.325 Y113.397 E26.89744
G1 X10.634 Y113.585 E26.93674
G1 X10.378 Y113.623 E26.95094
G1 X9.89 Y113.656 E26.97778
G1 X9.403 Y113.608 E27.00464
G1 X8.93 Y113.482 E27.0315
G1 X8.484 Y113.28 E27.05837
G1 X8.077 Y113.009 E27.08521
G1 X7.719 Y112.675 E27.11208
G1 X7.42 Y112.287 E27.13896
G1 X7.188 Y111.856 E27.16582
G1 X7.03 Y111.393 E27.19267
G1 X6.949 Y110.871 E27.22166
G1 X6.802 Y110.213 E27.25866
G1 X6.798 Y110.091 E27.26536
G1 X6.671 Y109.503 E27.29837
G1 X6.668 Y108.92 E27.33037
G1 X6.663 Y108.774 E27.33838
G1 X6.726 Y108.288 E27.36528
G1 X6.866 Y107.819 E27.39214
G1 X7.081 Y107.379 E27.41901
G1 X7.365 Y106.98 E27.44589
G1 X7.709 Y106.633 E27.47271
G1 X8.106 Y106.346 E27.49959
G1 X8.385 Y106.206 E27.51672
G1 X8.353 Y105.95 E27.53088
G1 X8.372 Y105.461 E27.55774
G1 X8.481 Y104.954 E27.58619
G1 X8.503 Y104.846 E27.59224
G1 X8.609 Y104.593 E27.6073
G1 X8.374 Y104.381 E27.62467
G1 X7.753 Y103.676 E27.67623
G1 X6.584 Y102.817 E27.75584
G1 X6.082 Y102.351 E27.79343
G1 X5.644 Y101.84 E27.83036
G1 X5.251 Y101.253 E27.86913
G1 X5.135 Y101.026 E27.88312
G1 X4.948 Y100.574 E27.90996
G1 X4.838 Y100.097 E27.93683
G1 X4.806 Y99.608 E27.96372
G1 X4.864 Y99.073 E27.99325
G1 X5.011 Y98.542 E28.02349
G1 X5.221 Y98.1 E28.05035
G1 X5.499 Y97.697 E28.07721
G1 X5.84 Y97.346 E28.10407
G1 X6.233 Y97.054 E28.13094
G1 X6.668 Y96.83 E28.15779
G1 X7.134 Y96.68 E28.18466
G1 X7.475 Y96.629 E28.20358
G1 X7.901 Y96.473 E28.22848
G1 X8.298 Y96.1 E28.25837
G1 X8.487 Y95.977 E28.27075
G1 X8.269 Y95.821 E28.28546
G1 X7.923 Y95.474 E28.31235
G1 X7.626 Y95.056 E28.34049
G1 X7.213 Y94.354 E28.38519
G1 X7 Y93.913 E28.41206
G1 X6.862 Y93.444 E28.43889
G1 X6.802 Y92.958 E28.46577
G1 X6.842 Y92.328 E28.50041
G1 X6.885 Y92.076 E28.51444
G1 X7.006 Y91.602 E28.54129
G1 X7.203 Y91.154 E28.56815
G1 X7.761 Y90.303 E28.62399
G1 X9 Y88.553 E28.74166
G1 X10.237 Y86.854 E28.857
G1 X11.223 Y85.522 E28.94795
G1 X11.778 Y84.782 E28.99871
G1 X12.899 Y83.304 E29.10051
G1 X14.044 Y81.812 E29.20372
G1 X16.361 Y78.84 E29.41053
G1 X18.676 Y75.927 E29.61473
G1 X21.035 Y73.005 E29.82083
G1 X23.433 Y70.079 E30.02844
G1 X25.86 Y67.153 E30.23707
G1 X28.309 Y64.238 E30.446
G1 X30.772 Y61.341 E30.65468
G1 X33.23 Y58.481 E30.86164
G1 X35.683 Y55.654 E31.06704
G1 X38.164 Y52.821 E31.27371
G1 X40.67 Y49.988 E31.48128
G1 X43.194 Y47.16 E31.6893
G1 X45.748 Y44.326 E31.89867
G1 X47.967 Y41.885 E32.0797
G0 F810 X48.324 Y41.492
G0 F900 X48.62 Y41.761
G1 X51.203 Y38.943 E32.28949
G1 X53.817 Y36.12 E32.50063
G1 X56.445 Y33.307 E32.71189
G1 X59.079 Y30.509 E32.92278
G1 X61.736 Y27.713 E33.13446
G1 X64.401 Y24.932 E33.34584
G1 X67.069 Y22.173 E33.55647
G1 X69.753 Y19.422 E33.76739
G1 X72.433 Y16.699 E33.97706
G1 X75.128 Y13.986 E34.18692
G1 X77.824 Y11.295 E34.39597
G1 X80.511 Y8.639 E34.60331
G1 X83.233 Y5.971 E34.81248
G1 X85.91 Y3.372 E35.01724
G1 X86.263 Y3.084 E35.04224
G1 X86.661 Y2.863 E35.06723
G1 X87.092 Y2.714 E35.09225
G1 X87.542 Y2.643 E35.11725
G1 X88.014 Y2.648 E35.14316
G1 X88.466 Y2.708 E35.16818
G1 X88.9 Y2.847 E35.19319
G1 X89.303 Y3.059 E35.21818
G1 X89.663 Y3.339 E35.24321
G1 X89.879 Y3.565 E35.26037
G1 X90.52 Y4.322 E35.3148
G1 X90.783 Y4.694 E35.3398
G1 X90.977 Y5.106 E35.3648
G1 X91.096 Y5.546 E35.38981
G1 X91.133 Y6.134 E35.42214
G1 X91.062 Y6.743 E35.45579
G1 X90.921 Y7.176 E35.48078
G1 X90.707 Y7.578 E35.50577
G1 X90.341 Y8.023 E35.53739
G1 X87.311 Y10.971 E35.7694
G1 X84.305 Y13.929 E36.00084
G1 X81.236 Y16.978 E36.23825
G1 X78.25 Y19.981 E36.47066
G1 X75.287 Y22.991 E36.70245
G1 X72.204 Y26.148 E36.94461
G1 X69.258 Y29.202 E37.17748
G1 X66.328 Y32.268 E37.41022
G1 X63.425 Y35.338 E37.6421
G1 X60.536 Y38.419 E37.87389
G1 X57.694 Y41.486 E38.10335
G1 X54.876 Y44.553 E38.33193
G1 X52.073 Y47.631 E38.56039
G1 X49.225 Y50.79 E38.79381
G1 X47.876 Y52.296 E38.90477
G1 X45.236 Y55.267 E39.12288
G1 X42.677 Y58.176 E39.33551
G1 X40.112 Y61.119 E39.54975
G1 X37.687 Y63.926 E39.75332
G1 X35.334 Y66.677 E39.95198
G1 X31.895 Y70.747 E40.2444
G1 X29.724 Y73.344 E40.43016
G1 X27.65 Y75.854 E40.60885
G1 X25.574 Y78.388 E40.78862
G1 X23.663 Y80.746 E40.95519
G1 X20.923 Y84.173 E41.19598
G1 X19.992 Y85.346 E41.27817
G1 X17.516 Y88.511 E41.4987
G1 X15.174 Y91.557 E41.70956
G1 X13.77 Y93.414 E41.83732
G1 X12.511 Y95.101 E41.95284
G1 X12.207 Y95.441 E41.97787
G1 X11.849 Y95.723 E42.00288
G1 X11.447 Y95.938 E42.0279
G1 X11.075 Y96.059 E42.04936
G1 X14.115 Y97.337 E42.23034
G1 X14.45 Y97.219 E42.24983
G1 X15.442 Y95.778 E42.34584
G1 X15.732 Y95.426 E42.37087
G1 X16.25 Y95.02 E42.40699
G1 X16.824 Y94.677 E42.44368
G1 X17.322 Y93.96 E42.49159
G1 X17.614 Y93.61 E42.51661
G1 X17.962 Y93.317 E42.54157
G1 X18.356 Y93.088 E42.56658
G1 X19.245 Y92.774 E42.61832
G1 X19.804 Y91.994 E42.67099
G1 X20.101 Y91.649 E42.69597
G1 X20.454 Y91.36 E42.72101
G1 X20.851 Y91.138 E42.74597
G1 X21.091 Y91.049 E42.76002
G1 X22.226 Y89.487 E42.86598
G1 X22.526 Y89.143 E42.89103
G1 X22.88 Y88.857 E42.916
G1 X23.295 Y88.631 E42.94194
G1 X24.788 Y86.602 E43.08018
G1 X25.089 Y86.26 E43.10518
G1 X25.445 Y85.976 E43.13018
G1 X25.882 Y85.746 E43.15728
G1 X27.103 Y84.086 E43.27037
G1 X27.405 Y83.744 E43.29541
G1 X27.761 Y83.459 E43.32043
G1 X28.223 Y83.221 E43.34895
G1 X29.8 Y81.128 E43.49277
G1 X30.105 Y80.789 E43.5178
G1 X30.465 Y80.509 E43.54282
G1 X30.91 Y80.282 E43.57024
G1 X32.416 Y78.338 E43.70519
G1 X32.726 Y78.004 E43.7302
G1 X33.089 Y77.729 E43.75519
G1 X33.541 Y77.506 E43.78285
G1 X35.211 Y75.343 E43.93282
G1 X35.52 Y75.009 E43.95779
G1 X35.882 Y74.733 E43.98277
G1 X36.311 Y74.517 E44.00913
G1 X38.257 Y72.061 E44.1811
G1 X38.57 Y71.73 E44.2061
G1 X38.936 Y71.459 E44.23109
G1 X39.374 Y71.247 E44.25779
G1 X41.075 Y69.119 E44.4073
G1 X41.39 Y68.789 E44.43234
G1 X41.757 Y68.519 E44.45734
G1 X42.203 Y68.307 E44.48444
G1 X44.32 Y65.678 E44.66968
G1 X44.636 Y65.35 E44.69468
G1 X45.004 Y65.082 E44.71966
G1 X45.478 Y64.863 E44.74831
G1 X48.011 Y61.775 E44.9675
G1 X48.329 Y61.45 E44.99245
G1 X48.7 Y61.185 E45.01747
G1 X48.957 Y61.052 E45.03336
G1 X49.107 Y60.87 E45.0463
G1 X47.945 Y56.748 E45.28133
G1 X47.86 Y56.3 E45.30635
G1 X47.855 Y55.844 E45.33138
G1 X47.929 Y55.395 E45.35635
G1 X48.08 Y54.965 E45.38136
G1 X48.305 Y54.569 E45.40636
G1 X48.595 Y54.217 E45.43139
G1 X48.942 Y53.922 E45.45638
G1 X49.335 Y53.692 E45.48137
G1 X49.762 Y53.534 E45.50636
