;FLAVOR:Marlin
;TIME:7387
;Filament used: 8.26439m
;Layer height: 0.24
;MINX:4.417
;MINY:5.81
;MINZ:0.3
;MAXX:113.847
;MAXY:118.655
;MAXZ:19.98
;Generated with Cura_SteamEngine 4.6.1
M104 S210
M105
M109 S210
M82 ;absolute extrusion mode
;Sliced at: Thu 06-08-2020 07:30:22
G21 ;metric values
G90 ;absolute positioning
M82 ;set extruder to absolute mode
M107 ;start with the fan off
G1 Z5.0 F1800 ;move Z to 5mm
G28 X0 Y0 F1800 ;move X/Y to min endstops
G28 Z0 ;move Z to min endstop
G92 E0 ;zero the extruded length
G1 F200 E6.0 ;extrude 6.0mm of feed stock to build pressure
G1 Z5.0 F300 ;move the platform down 5mm
G92 E0 ;zero the extruded length again
G1 F1800
;Put printing message on LCD screen
M117 Printing...
G92 E0
G92 E0
G1 F1500 E-5
;LAYER_COUNT:83
;LAYER:0
M107
G0 F900 X6.88 Y7.291 Z0.3
;TYPE:SKIRT
G1 F1500 E0.70678
G1 F900 X7.353 Y6.876 E0.74131
G1 X7.842 Y6.548 E0.77362
G1 X8.345 Y6.297 E0.80447
G1 X8.757 Y6.138 E0.82871
G1 X9.363 Y5.975 E0.86315
G1 X9.919 Y5.886 E0.89405
G1 X10.967 Y5.811 E0.95171
G1 X11.56 Y5.81 E0.98425
G1 X12.338 Y5.856 E1.02702
G1 X13.474 Y5.995 E1.08983
G1 X14.379 Y6.157 E1.14029
G1 X15.234 Y6.351 E1.1884
G1 X16.04 Y6.566 E1.23418
G1 X16.796 Y6.798 E1.27758
G1 X17.584 Y7.062 E1.32319
G1 X18.383 Y7.355 E1.36989
G1 X19.165 Y7.659 E1.41594
G1 X19.981 Y8.002 E1.46451
G1 X20.775 Y8.351 E1.51211
G1 X21.579 Y8.724 E1.56075
G1 X23.085 Y9.463 E1.65281
G1 X24.685 Y10.307 E1.75209
G1 X26.176 Y11.134 E1.84566
G1 X27.74 Y12.046 E1.94501
G1 X29.219 Y12.94 E2.03986
G1 X30.716 Y13.877 E2.13678
G1 X32.341 Y14.928 E2.24298
G1 X33.877 Y15.949 E2.3442
G1 X35.546 Y17.083 E2.45493
G1 X37.109 Y18.174 E2.55954
G1 X38.674 Y19.288 E2.66496
G1 X40.4 Y20.54 E2.78198
G1 X41.978 Y21.7 E2.88946
G1 X43.563 Y22.888 E2.99817
G1 X45.145 Y24.09 E3.1072
G1 X48.687 Y26.838 E3.35322
G1 X51.836 Y29.337 E3.57384
G1 X53.169 Y30.409 E3.66772
G1 X54.704 Y31.658 E3.77632
G1 X56.747 Y33.333 E3.92131
G1 X59.591 Y35.692 E4.12409
G1 X61.167 Y37.014 E4.23698
G1 X62.742 Y38.347 E4.35021
G1 X64.324 Y39.693 E4.4642
G1 X67.834 Y42.713 E4.71832
G1 X71.058 Y45.516 E4.95277
G1 X74.689 Y48.716 E5.21837
G1 X77.96 Y51.629 E5.45875
G1 X81.235 Y54.572 E5.70038
G1 X84.514 Y57.543 E5.94321
G1 X87.786 Y60.533 E6.18646
G1 X90.936 Y63.436 E6.42154
G1 X94.063 Y66.337 E6.65563
G1 X97.17 Y69.238 E6.88891
G1 X100.246 Y72.13 E7.12061
G1 X104.339 Y76.001 E7.42978
G1 X109.271 Y80.71 E7.804
G1 X112.923 Y84.22 E8.08198
G1 X113.247 Y84.587 E8.10885
G1 X113.507 Y85.001 E8.13567
G1 X113.696 Y85.453 E8.16256
G1 X113.809 Y85.929 E8.18941
G1 X113.847 Y86.474 E8.21939
G1 X113.819 Y86.963 E8.24627
G1 X113.712 Y87.44 E8.2731
G1 X113.529 Y87.894 E8.29996
G1 X113.274 Y88.312 E8.32683
G1 X113.034 Y88.601 E8.34745
G1 X112.223 Y89.464 E8.41244
G1 X111.86 Y89.793 E8.43933
G1 X111.448 Y90.057 E8.46618
G1 X110.999 Y90.252 E8.49304
G1 X110.524 Y90.37 E8.5199
G1 X109.942 Y90.413 E8.55193
G1 X109.453 Y90.385 E8.57881
G1 X108.976 Y90.278 E8.60564
G1 X108.522 Y90.094 E8.63252
G1 X108.104 Y89.839 E8.65939
G1 X107.788 Y89.574 E8.68203
G1 X107.421 Y89.22 E8.71001
G1 X107.164 Y89.498 E8.73079
G1 X106.778 Y89.799 E8.75765
G1 X106.372 Y90.023 E8.7831
G1 X105.453 Y90.44 E8.83848
G1 X104.838 Y90.642 E8.874
G1 X104.77 Y90.656 E8.87781
G1 X104.278 Y90.969 E8.90982
G1 X103.682 Y91.483 E8.95301
G1 X102.043 Y92.561 E9.06067
G1 X101.553 Y93.025 E9.0977
G1 X101.142 Y93.291 E9.12457
G1 X100.774 Y93.457 E9.14672
G1 X100.04 Y93.731 E9.18972
G1 X99.448 Y94.359 E9.23708
G1 X98.93 Y94.797 E9.27431
G1 X97.087 Y96.027 E9.39591
G1 X96.745 Y96.313 E9.42037
G1 X94.969 Y97.485 E9.53715
G1 X94.815 Y97.634 E9.54891
G1 X94.567 Y97.817 E9.56582
G1 X93.032 Y98.83 E9.66675
G1 X92.569 Y99.303 E9.70308
G1 X92.364 Y99.475 E9.71776
G1 X93.685 Y102.64 E9.90598
G1 X93.836 Y103.105 E9.93281
G1 X93.909 Y103.589 E9.95967
G1 X93.903 Y104.079 E9.98656
G1 X93.817 Y104.561 E10.01343
G1 X93.654 Y105.022 E10.04027
G1 X93.516 Y105.292 E10.05691
G1 X92.679 Y106.745 E10.14893
G1 X91.291 Y109.105 E10.29919
G1 X91.214 Y109.358 E10.3137
G1 X91.035 Y109.813 E10.34053
G1 X90.791 Y110.222 E10.36667
G1 X90.631 Y110.448 E10.38186
G1 X90.317 Y110.824 E10.40875
G1 X89.946 Y111.143 E10.4356
G1 X89.527 Y111.397 E10.46249
G1 X89.073 Y111.58 E10.48935
G1 X88.596 Y111.686 E10.51617
G1 X88.107 Y111.714 E10.54305
G1 X87.62 Y111.662 E10.56993
G1 X87.149 Y111.531 E10.59676
G1 X86.704 Y111.325 E10.62367
G1 X86.202 Y110.968 E10.65747
G1 X85.878 Y110.683 E10.68115
G1 X85.441 Y110.206 E10.71666
G1 X85.007 Y109.615 E10.75689
G1 X84.677 Y109.043 E10.79314
G1 X83.818 Y107.082 E10.91063
G1 X83.646 Y106.567 E10.94042
G1 X83.579 Y106.283 E10.95644
G1 X83.506 Y105.799 E10.9833
G1 X83.513 Y105.309 E11.01019
G1 X83.599 Y104.828 E11.03701
G1 X83.648 Y104.689 E11.0451
G1 X83.456 Y104.244 E11.07169
G1 X83.3 Y103.78 E11.09856
G1 X83.221 Y103.297 E11.12542
G1 X83.221 Y102.808 E11.15225
G1 X83.363 Y102.114 E11.19113
G1 X84.495 Y98.69 E11.38904
G1 X83.795 Y98.059 E11.44076
G1 X81.177 Y95.658 E11.6357
G1 X78.185 Y92.861 E11.86048
G1 X75.582 Y90.36 E12.05858
G1 X72.579 Y87.434 E12.28868
G1 X69.67 Y84.541 E12.51383
G1 X65.205 Y79.972 E12.86442
G1 X64.908 Y79.825 E12.8826
G1 X64.511 Y79.539 E12.90946
G1 X64.277 Y79.319 E12.92708
G1 X63.639 Y78.647 E12.97793
G1 X61.199 Y76.056 E13.17325
G1 X59.385 Y74.078 E13.32054
G1 X59.21 Y73.956 E13.33225
G1 X58.693 Y73.499 E13.37012
G1 X57.961 Y72.686 E13.43015
G1 X55.902 Y70.362 E13.60055
G1 X55.623 Y70.218 E13.61778
G1 X55.231 Y69.926 E13.6446
G1 X54.937 Y69.628 E13.66758
G1 X53.006 Y67.379 E13.83025
G1 X51.702 Y65.829 E13.94141
G1 X51.59 Y65.743 E13.94916
G1 X51.097 Y65.263 E13.98692
G1 X50.084 Y64.021 E14.07488
G1 X49.742 Y63.829 E14.0964
G1 X49.36 Y63.523 E14.12326
G1 X49.074 Y63.211 E14.14649
G1 X48.729 Y62.778 E14.17688
G1 X46.662 Y60.131 E14.36118
G1 X46.436 Y59.947 E14.37718
G1 X45.989 Y59.489 E14.4123
G1 X45.613 Y59.285 E14.43577
G1 X45.204 Y59.017 E14.46261
G1 X44.843 Y58.686 E14.48949
G1 X44.541 Y58.3 E14.51638
G1 X44.347 Y57.959 E14.53792
G1 X44.067 Y57.382 E14.57311
G1 X42.605 Y55.372 E14.70951
G1 X42.265 Y54.927 E14.74025
G1 X42.067 Y54.66 E14.75849
G1 X41.84 Y54.543 E14.7725
G1 X41.447 Y54.251 E14.79937
G1 X41.107 Y53.899 E14.82623
G1 X39.008 Y50.872 E15.02838
G1 X38.93 Y50.775 E15.03521
G1 X38.79 Y50.706 E15.04378
G1 X38.392 Y50.421 E15.07064
G1 X38.046 Y50.075 E15.09749
G1 X37.83 Y49.787 E15.11725
G1 X37.039 Y48.588 E15.19608
G1 X36.713 Y48.439 E15.21575
G1 X36.307 Y48.166 E15.2426
G1 X35.95 Y47.83 E15.2695
G1 X35.653 Y47.441 E15.29636
G1 X35.34 Y46.791 E15.33596
G1 X35.142 Y46.211 E15.36959
G1 X34.117 Y44.57 E15.47577
G1 X33.84 Y44.378 E15.49427
G1 X33.488 Y44.038 E15.52112
G1 X33.153 Y43.572 E15.55262
G1 X32.463 Y42.388 E15.62783
G1 X32.15 Y42.15 E15.6494
G1 X31.815 Y41.794 E15.67623
G1 X31.523 Y41.355 E15.70517
G1 X30.712 Y39.865 E15.79826
G1 X30.383 Y39.597 E15.82155
G1 X30.059 Y39.231 E15.84838
G1 X29.779 Y38.779 E15.87756
G1 X29.277 Y37.781 E15.93886
G1 X29.032 Y37.573 E15.9565
G1 X28.715 Y37.2 E15.98337
G1 X28.434 Y36.72 E16.01389
G1 X28.007 Y35.805 E16.0693
G1 X27.677 Y35.509 E16.09363
G1 X27.37 Y35.127 E16.12053
G1 X27.108 Y34.653 E16.15025
G1 X26.929 Y34.247 E16.1746
G1 X26.604 Y33.917 E16.20002
G1 X26.322 Y33.517 E16.22687
G1 X26.132 Y33.135 E16.25029
G1 X25.835 Y32.413 E16.29313
G1 X25.613 Y32.169 E16.31124
G1 X25.347 Y31.758 E16.3381
G1 X25.156 Y31.323 E16.36418
G1 X25.003 Y30.884 E16.38969
G1 X24.732 Y30.596 E16.41139
G1 X24.459 Y30.19 E16.43824
G1 X24.223 Y29.652 E16.47048
G1 X24.152 Y29.444 E16.48254
G1 X23.844 Y29.064 E16.50939
G1 X23.603 Y28.638 E16.53625
G1 X23.359 Y27.941 E16.57677
G1 X23.077 Y27.547 E16.60336
G1 X22.862 Y27.108 E16.63019
G1 X22.737 Y26.716 E16.65277
G1 X22.488 Y26.331 E16.67793
G1 X22.292 Y25.883 E16.70477
G1 X22.158 Y25.417 E16.73138
G1 X21.291 Y24.517 E16.79996
G1 X20.948 Y24.09 E16.83002
G1 X18.531 Y20.434 E17.07054
G1 X18.29 Y19.987 E17.09841
G1 X17.844 Y19.761 E17.12585
G1 X17.45 Y19.47 E17.15273
G1 X17.109 Y19.119 E17.17958
G1 X16.83 Y18.717 E17.20644
G1 X16.619 Y18.275 E17.23332
G1 X16.497 Y17.87 E17.25653
G1 X16.217 Y16.627 E17.32645
G1 X16.149 Y16.143 E17.35328
G1 X16.161 Y15.653 E17.38017
G1 X16.251 Y15.172 E17.40703
G1 X16.406 Y14.748 E17.4318
G1 X15.929 Y14.621 E17.45889
G1 X15.338 Y14.493 E17.49208
G1 X14.674 Y14.41 E17.5288
G1 X14.213 Y14.407 E17.5541
G1 X13.946 Y15.172 E17.59857
G1 X13.736 Y15.936 E17.64205
G1 X13.631 Y16.394 E17.66784
G1 X13.511 Y17.072 E17.70562
G1 X13.402 Y17.926 E17.75287
G1 X13.338 Y18.791 E17.80047
G1 X13.318 Y19.628 E17.84642
G1 X13.336 Y20.501 E17.89434
G1 X13.392 Y21.405 E17.94404
G1 X13.483 Y22.292 E17.99298
G1 X13.606 Y23.18 E18.04218
G1 X13.762 Y24.076 E18.09209
G1 X13.953 Y25.003 E18.14403
G1 X14.171 Y25.929 E18.19624
G1 X14.429 Y26.897 E18.25121
G1 X14.702 Y27.828 E18.30446
G1 X14.983 Y28.708 E18.35515
G1 X15.302 Y29.635 E18.40895
G1 X15.653 Y30.596 E18.4651
G1 X16.006 Y31.501 E18.51841
G1 X16.386 Y32.429 E18.57344
G1 X16.772 Y33.33 E18.62724
G1 X17.154 Y34.179 E18.67833
G1 X17.594 Y35.128 E18.73573
G1 X18.014 Y35.995 E18.7886
G1 X18.841 Y37.625 E18.88891
G1 X19.843 Y39.496 E19.00539
G1 X20.8 Y41.186 E19.11197
G1 X21.865 Y42.981 E19.22651
G1 X22.926 Y44.697 E19.33723
G1 X24.05 Y46.447 E19.45137
G1 X25.238 Y48.233 E19.56909
G1 X26.404 Y49.935 E19.68231
G1 X27.627 Y51.666 E19.79863
G1 X28.864 Y53.367 E19.91405
G1 X30.117 Y55.053 E20.02933
G1 X31.389 Y56.722 E20.14449
G1 X32.666 Y58.363 E20.25861
G1 X33.965 Y59.996 E20.37312
G1 X35.231 Y61.562 E20.48363
G1 X36.519 Y63.128 E20.59491
G1 X37.784 Y64.639 E20.70305
G1 X39.079 Y66.164 E20.81285
G1 X40.408 Y67.703 E20.92444
G1 X43.007 Y70.651 E21.14012
G1 X45.734 Y73.666 E21.36322
G1 X48.469 Y76.619 E21.58411
G1 X51.25 Y79.553 E21.80596
G1 X54.095 Y82.497 E22.03064
G1 X56.852 Y85.289 E22.24597
G1 X59.704 Y88.128 E22.46682
G1 X62.541 Y90.901 E22.68453
G1 X65.457 Y93.708 E22.90665
G1 X68.349 Y96.447 E23.12525
G1 X71.328 Y99.228 E23.3489
G1 X74.331 Y101.991 E23.57284
G1 X77.234 Y104.622 E23.78785
G1 X80.256 Y107.326 E24.0104
G1 X83.303 Y110.019 E24.23356
G1 X86.164 Y112.517 E24.442
G1 X86.505 Y112.868 E24.46885
G1 X86.785 Y113.27 E24.49574
G1 X86.996 Y113.712 E24.52262
G1 X87.131 Y114.182 E24.54945
G1 X87.196 Y114.806 E24.58388
G1 X87.179 Y115.295 E24.61074
G1 X87.082 Y115.775 E24.63761
G1 X86.909 Y116.233 E24.66448
G1 X86.664 Y116.657 E24.69135
G1 X86.386 Y117 E24.71558
G1 X85.725 Y117.704 E24.76858
G1 X85.362 Y118.033 E24.79546
G1 X84.95 Y118.298 E24.82235
G1 X84.501 Y118.492 E24.84919
G1 X84.026 Y118.611 E24.87606
G1 X83.528 Y118.655 E24.9035
G1 X83.039 Y118.64 E24.93035
G1 X82.558 Y118.545 E24.95725
G1 X82.1 Y118.373 E24.9841
G1 X81.676 Y118.129 E25.01095
G1 X81.41 Y117.924 E25.02938
G1 X78.58 Y115.465 E25.23513
G1 X75.672 Y112.895 E25.44811
G1 X72.758 Y110.29 E25.66261
G1 X69.894 Y107.695 E25.87471
G1 X67.038 Y105.076 E26.08736
G1 X64.207 Y102.445 E26.29946
G1 X61.395 Y99.795 E26.51151
G1 X58.582 Y97.107 E26.72504
G1 X56.271 Y94.868 E26.90162
G1 X53.974 Y92.612 E27.07831
G1 X51.691 Y90.342 E27.25499
G1 X49.423 Y88.054 E27.43179
G1 X47.168 Y85.742 E27.60903
G1 X44.944 Y83.429 E27.78512
G1 X42.744 Y81.105 E27.96075
G1 X40.573 Y78.772 E28.13564
G1 X38.396 Y76.386 E28.31289
G1 X36.235 Y73.974 E28.49062
G1 X34.081 Y71.523 E28.66969
G1 X31.939 Y69.023 E28.85036
G1 X29.832 Y66.511 E29.03029
G1 X27.755 Y63.967 E29.21052
G1 X25.712 Y61.395 E29.39078
G1 X23.721 Y58.812 E29.56976
G1 X22.735 Y57.5 E29.65983
G1 X21.773 Y56.196 E29.74876
G1 X19.9 Y53.591 E29.92483
G1 X18.951 Y52.231 E30.01584
G1 X18.011 Y50.854 E30.10734
G1 X17.075 Y49.448 E30.20004
G1 X16.145 Y48.017 E30.2937
G1 X15.231 Y46.571 E30.38757
G1 X14.327 Y45.098 E30.48242
G1 X13.439 Y43.604 E30.5778
G1 X12.571 Y42.093 E30.67343
G1 X11.727 Y40.563 E30.76932
G1 X10.912 Y39.025 E30.86485
G1 X10.128 Y37.472 E30.96032
G1 X9.379 Y35.915 E31.05514
G1 X8.667 Y34.341 E31.14994
G1 X7.997 Y32.77 E31.24367
G1 X7.372 Y31.191 E31.33687
G1 X6.796 Y29.604 E31.42952
G1 X6.27 Y28.009 E31.52169
G1 X5.791 Y26.384 E31.61466
G1 X5.563 Y25.525 E31.66344
G1 X5.358 Y24.683 E31.71099
G1 X5.17 Y23.839 E31.75845
G1 X5 Y22.984 E31.80629
G1 X4.848 Y22.124 E31.85422
G1 X4.717 Y21.257 E31.90234
G1 X4.607 Y20.39 E31.9503
G1 X4.522 Y19.508 E31.99893
G1 X4.46 Y18.625 E32.0475
G1 X4.425 Y17.74 E32.09611
G1 X4.417 Y16.867 E32.14402
G1 X4.438 Y15.973 E32.1931
G1 X4.489 Y15.079 E32.24224
G1 X4.573 Y14.193 E32.29108
G1 X4.692 Y13.298 E32.34063
G1 X4.849 Y12.399 E32.39071
G1 X5.039 Y11.523 E32.4399
G1 X5.271 Y10.635 E32.49027
G1 X5.54 Y9.765 E32.54025
G1 X5.864 Y8.871 E32.59243
G1 X6.075 Y8.401 E32.62071
G1 X6.44 Y7.807 E32.65897
G1 X6.535 Y7.695 E32.66703
G0 F810 X6.88 Y7.291
G0 F900 X7.17 Y7.566
G1 X7.603 Y7.189 E32.69853
G1 X8.053 Y6.887 E32.72827
G1 X8.489 Y6.67 E32.755
G1 X8.901 Y6.511 E32.77924
G1 X9.426 Y6.37 E32.80907
G1 X9.982 Y6.281 E32.83997
G1 X10.989 Y6.21 E32.89537
G1 X11.556 Y6.21 E32.92649
G1 X12.312 Y6.256 E32.96805
G1 X13.424 Y6.392 E33.02953
G1 X14.307 Y6.55 E33.07876
G1 X15.144 Y6.741 E33.12588
G1 X15.936 Y6.952 E33.17086
G1 X16.678 Y7.18 E33.21346
G1 X17.456 Y7.441 E33.25849
G1 X18.245 Y7.73 E33.3046
G1 X19.02 Y8.032 E33.35025
G1 X19.825 Y8.371 E33.39819
G1 X20.613 Y8.717 E33.44542
G1 X21.411 Y9.087 E33.49369
G1 X22.909 Y9.822 E33.58526
G1 X24.498 Y10.661 E33.68387
G1 X25.982 Y11.484 E33.777
G1 X27.538 Y12.391 E33.87584
G1 X29.012 Y13.282 E33.97036
G1 X30.504 Y14.216 E34.06696
G1 X32.124 Y15.264 E34.17285
G1 X33.656 Y16.282 E34.27379
G1 X35.321 Y17.414 E34.38428
G1 X36.88 Y18.502 E34.48861
G1 X38.442 Y19.614 E34.59384
G1 X40.165 Y20.864 E34.71066
G1 X41.741 Y22.023 E34.81802
G1 X43.324 Y23.208 E34.92654
G1 X44.903 Y24.408 E35.03538
G1 X48.442 Y27.154 E35.2812
G1 X51.587 Y29.651 E35.50158
G1 X52.918 Y30.721 E35.5953
G1 X54.451 Y31.969 E35.70379
G1 X56.493 Y33.642 E35.84866
G1 X59.336 Y36 E36.05136
G1 X60.909 Y37.32 E36.16405
G1 X62.483 Y38.652 E36.27721
G1 X64.065 Y39.998 E36.3912
G1 X67.574 Y43.016 E36.6452
G1 X70.795 Y45.818 E36.87949
G1 X74.425 Y49.016 E37.14499
G1 X77.694 Y51.927 E37.38521
G1 X80.968 Y54.869 E37.62676
G1 X84.245 Y57.84 E37.86951
G1 X87.516 Y60.829 E38.11268
G1 X90.665 Y63.73 E38.34765
G1 X93.79 Y66.63 E38.58162
G1 X96.897 Y69.531 E38.8149
G1 X99.973 Y72.421 E39.04652
G1 X104.064 Y76.291 E39.35557
G1 X108.995 Y81 E39.72976
G1 X112.646 Y84.508 E40.00762
G1 X112.945 Y84.852 E40.03263
G1 X113.18 Y85.242 E40.05762
G1 X113.344 Y85.667 E40.08262
G1 X113.443 Y86.32 E40.11887
G1 X113.418 Y86.938 E40.15281
G1 X113.311 Y87.381 E40.17782
G1 X113.127 Y87.798 E40.20283
G1 X112.743 Y88.328 E40.23875
G1 X111.932 Y89.191 E40.30374
G1 X111.592 Y89.494 E40.32874
G1 X111.204 Y89.733 E40.35374
G1 X110.781 Y89.901 E40.37872
G1 X110.334 Y89.993 E40.40377
G1 X109.932 Y90.013 E40.42586
G1 X109.478 Y89.984 E40.45082
G1 X109.035 Y89.876 E40.47585
G1 X108.618 Y89.693 E40.50084
G1 X108.239 Y89.439 E40.52587
G1 X107.363 Y88.608 E40.59214
G1 X107.282 Y88.752 E40.60121
G1 X106.994 Y89.105 E40.62621
G1 X106.649 Y89.403 E40.65123
G1 X106.206 Y89.659 E40.67931
G1 X105.287 Y90.076 E40.73469
G1 X104.755 Y90.251 E40.76542
G1 X104.617 Y90.28 E40.77316
G1 X104.022 Y90.658 E40.81185
G1 X103.921 Y90.765 E40.81992
G1 X103.462 Y91.149 E40.85276
G1 X101.782 Y92.254 E40.96312
G1 X101.624 Y92.423 E40.97581
G1 X101.284 Y92.727 E41.00084
G1 X100.897 Y92.967 E41.02583
G1 X99.814 Y93.388 E41.0896
G1 X99.157 Y94.085 E41.14217
G1 X98.707 Y94.465 E41.17449
G1 X96.864 Y95.695 E41.29609
G1 X96.525 Y95.979 E41.32036
G1 X94.719 Y97.171 E41.43911
G1 X94.537 Y97.344 E41.45289
G1 X92.779 Y98.517 E41.56887
G1 X92.283 Y99.024 E41.6078
G1 X91.89 Y99.353 E41.63593
G1 X93.315 Y102.794 E41.84032
G1 X93.453 Y103.228 E41.86531
G1 X93.513 Y103.68 E41.89033
G1 X93.494 Y104.135 E41.91532
G1 X93.395 Y104.58 E41.94034
G1 X93.169 Y105.093 E41.97111
G1 X92.332 Y106.546 E42.06313
G1 X90.924 Y108.94 E42.21555
G1 X90.832 Y109.242 E42.23288
G1 X90.662 Y109.665 E42.25789
G1 X90.305 Y110.217 E42.29397
G1 X90.01 Y110.565 E42.31901
G1 X89.659 Y110.855 E42.34399
G1 X89.263 Y111.08 E42.36899
G1 X88.833 Y111.232 E42.39402
G1 X88.384 Y111.307 E42.419
G1 X87.928 Y111.303 E42.44403
G1 X87.481 Y111.218 E42.469
