;FLAVOR:Marlin
;TIME:5590
;Filament used: 5.98215m
;Layer height: 0.12
;MINX:9.411
;MINY:10.657
;MINZ:0.24
;MAXX:111.633
;MAXY:112.498
;MAXZ:7.89
;Generated with Cura_SteamEngine 4.7.1
M104 S210
M105
M109 S210
M82 ;absolute extrusion mode
;Sliced at: Wed 14-10-2020 14:48:50
G21 ;metric values
G90 ;absolute positioning
M82 ;set extruder to absolute mode
M107 ;start with the fan off
G1 Z5.0 F1800 ;move Z to 5mm
G28 X0 Y0 F1800 ;move X/Y to min endstops
G28 Z0 ;move Z to min endstop
G92 E0 ;zero the extruded length
G1 F200 E6.0 ;extrude 6.0mm of feed stock to build pressure
G1 Z5.0 F300 ;move the platform down 5mm
G92 E0 ;zero the extruded length again
G1 F1800
;Put printing message on LCD screen
M117 Printing...
G92 E0
G92 E0
G1 F1500 E-5
;LAYER_COUNT:34
;LAYER:0
M107
G0 F900 X41.32 Y40.632 Z0.24
;TYPE:SKIRT
G1 F1500 E0.70678
G1 F900 X43.29 Y38.604 E0.83091
G1 X45.157 Y36.567 E0.95222
G1 X45.239 Y36.475 E0.95763
G1 X47.009 Y34.434 E1.07624
G1 X47.461 Y33.896 E1.10709
G1 X47.984 Y33.286 E1.14236
G1 X48.154 Y33.102 E1.15336
G1 X48.873 Y32.382 E1.19804
G1 X49.276 Y32.014 E1.222
G1 X50.052 Y31.392 E1.26566
G1 X50.532 Y31.017 E1.2924
G1 X52.724 Y29.255 E1.41587
G1 X54.813 Y27.478 E1.53628
G1 X56.885 Y25.611 E1.65873
G1 X58.887 Y23.702 E1.78018
G1 X60.851 Y21.721 E1.90265
G1 X62.725 Y19.72 E2.02301
G1 X64.593 Y17.609 E2.14677
G1 X66.336 Y15.523 E2.26611
G1 X67.569 Y13.943 E2.3541
G1 X67.701 Y13.803 E2.36255
G1 X68.114 Y13.274 E2.39202
G1 X68.521 Y12.775 E2.42029
G1 X68.97 Y12.283 E2.44953
G1 X69.553 Y11.699 E2.48576
G1 X69.939 Y11.364 E2.5082
G1 X70.638 Y10.926 E2.54441
G1 X71.182 Y10.758 E2.56941
G1 X71.671 Y10.68 E2.59115
G1 X72.135 Y10.664 E2.61153
G1 X72.861 Y10.657 E2.64341
G1 X86.052 Y10.657 E3.22254
G1 X86.473 Y10.661 E3.24102
G1 X87.09 Y10.678 E3.26812
G1 X87.822 Y10.797 E3.30068
G1 X88.393 Y11.019 E3.32758
G1 X88.832 Y11.299 E3.35044
G1 X89.35 Y11.755 E3.38073
G1 X89.959 Y12.374 E3.41886
G1 X90.041 Y12.467 E3.4243
G1 X90.718 Y13.276 E3.47062
G1 X91.565 Y14.35 E3.53067
G1 X93.331 Y16.527 E3.65374
G1 X95.135 Y18.627 E3.77528
G1 X96.994 Y20.67 E3.89655
G1 X98.93 Y22.682 E4.01914
G1 X100.88 Y24.596 E4.1391
G1 X102.95 Y26.515 E4.26302
G1 X105.014 Y28.324 E4.38352
G1 X107.041 Y30.004 E4.4991
G1 X107.217 Y30.146 E4.50903
G1 X108.774 Y31.376 E4.59615
G1 X108.979 Y31.534 E4.60751
G1 X109.481 Y31.941 E4.63588
G1 X110.003 Y32.415 E4.66684
G1 X110.58 Y32.991 E4.70263
G1 X110.946 Y33.408 E4.72699
G1 X111.195 Y33.769 E4.74625
G1 X111.453 Y34.326 E4.7732
G1 X111.607 Y35.065 E4.80634
G1 X111.625 Y35.523 E4.82646
G1 X111.633 Y36.286 E4.85996
G1 X111.633 Y49.356 E5.43378
G1 X111.628 Y49.987 E5.46148
G1 X111.609 Y50.618 E5.4892
G1 X111.526 Y51.127 E5.51184
G1 X111.324 Y51.738 E5.54009
G1 X111.04 Y52.207 E5.56416
G1 X110.687 Y52.639 E5.58866
G1 X110.084 Y53.246 E5.62622
G1 X109.408 Y53.851 E5.66605
G1 X108.755 Y54.376 E5.70283
G1 X108.168 Y54.835 E5.73555
G1 X106.01 Y56.576 E5.85728
G1 X103.878 Y58.398 E5.98041
G1 X101.829 Y60.251 E6.1017
G1 X99.812 Y62.182 E6.22429
G1 X97.896 Y64.123 E6.34403
G1 X95.985 Y66.172 E6.46704
G1 X94.135 Y68.271 E6.58988
G1 X92.273 Y70.512 E6.71779
G1 X92.055 Y70.783 E6.73306
G1 X91.096 Y71.993 E6.80085
G1 X90.831 Y72.332 E6.81974
G1 X90.425 Y72.836 E6.84815
G1 X89.941 Y73.389 E6.88042
G1 X89.871 Y73.462 E6.88486
G1 X89.32 Y74.01 E6.91898
G1 X88.898 Y74.401 E6.94423
G1 X88.836 Y74.453 E6.94779
G1 X88.3 Y74.89 E6.97815
G1 X88.019 Y75.114 E6.99392
G1 X85.879 Y76.868 E7.1154
G1 X83.77 Y78.697 E7.23797
G1 X81.734 Y80.567 E7.35933
G1 X79.751 Y82.495 E7.48076
G1 X77.821 Y84.48 E7.60231
G1 X76.007 Y86.452 E7.71995
G1 X74.314 Y88.393 E7.83303
G1 X74.085 Y88.663 E7.84857
G1 X73.631 Y89.204 E7.87958
G1 X73.054 Y89.877 E7.9185
G1 X72.891 Y90.053 E7.92903
G1 X72.275 Y90.673 E7.9674
G1 X71.632 Y91.249 E8.0053
G1 X70.941 Y91.804 E8.04421
G1 X70.439 Y92.197 E8.0722
G1 X68.268 Y93.945 E8.19457
G1 X66.128 Y95.77 E8.31805
G1 X64.112 Y97.59 E8.43729
G1 X62.068 Y99.544 E8.56144
G1 X60.132 Y101.502 E8.68233
G1 X58.265 Y103.5 E8.80238
G1 X56.422 Y105.587 E8.92462
G1 X54.489 Y107.912 E9.05737
G1 X54.283 Y108.168 E9.07179
G1 X53.29 Y109.419 E9.14191
G1 X53.021 Y109.762 E9.16105
G1 X52.544 Y110.356 E9.1945
G1 X52.096 Y110.849 E9.22374
G1 X51.469 Y111.477 E9.26271
G1 X51.077 Y111.826 E9.28575
G1 X50.596 Y112.142 E9.31102
G1 X49.994 Y112.367 E9.33923
G1 X49.484 Y112.463 E9.36201
G1 X49.159 Y112.481 E9.3763
G1 X47.982 Y112.498 E9.42798
G1 X34.992 Y112.498 E9.99829
G1 X34.571 Y112.494 E10.01677
G1 X33.955 Y112.477 E10.04383
G1 X33.222 Y112.358 E10.07643
G1 X32.689 Y112.158 E10.10142
G1 X32.253 Y111.884 E10.12403
G1 X31.791 Y111.488 E10.15075
G1 X31.75 Y111.449 E10.15323
G1 X31.211 Y110.911 E10.18667
G1 X30.91 Y110.588 E10.20605
G1 X30.479 Y110.074 E10.2355
G1 X30.253 Y109.791 E10.2514
G1 X29.651 Y109.022 E10.29428
G1 X27.921 Y106.875 E10.41533
G1 X26.093 Y104.735 E10.53889
G1 X24.272 Y102.721 E10.6581
G1 X22.326 Y100.687 E10.78169
G1 X20.375 Y98.76 E10.90208
G1 X18.336 Y96.858 E11.0245
G1 X16.257 Y95.024 E11.14621
G1 X13.786 Y92.977 E11.28709
G1 X13.655 Y92.872 E11.29446
G1 X12.677 Y92.1 E11.34916
G1 X12.669 Y92.092 E11.34966
G1 X12.15 Y91.685 E11.37862
G1 X11.551 Y91.202 E11.4124
G1 X11.012 Y90.709 E11.44447
G1 X10.42 Y90.117 E11.48122
G1 X9.998 Y89.618 E11.50992
G1 X9.707 Y89.115 E11.53543
G1 X9.529 Y88.621 E11.55848
G1 X9.441 Y88.026 E11.58489
G1 X9.417 Y87.48 E11.60888
G1 X9.411 Y86.844 E11.63681
G1 X9.411 Y73.568 E12.21967
G1 X9.415 Y73.214 E12.23521
G1 X9.432 Y72.602 E12.26209
G1 X9.554 Y71.871 E12.29463
G1 X9.774 Y71.31 E12.32108
G1 X10.053 Y70.873 E12.34385
G1 X10.397 Y70.475 E12.36694
G1 X11.03 Y69.839 E12.40634
G1 X11.376 Y69.521 E12.42697
G1 X12.43 Y68.668 E12.4865
G1 X12.676 Y68.476 E12.5002
G1 X14.863 Y66.723 E12.62325
G1 X16.96 Y64.941 E12.74407
G1 X19.017 Y63.091 E12.86553
G1 X21.019 Y61.185 E12.98689
G1 X22.967 Y59.223 E13.10827
G1 X24.86 Y57.205 E13.22975
G1 X26.728 Y55.098 E13.35337
G1 X28.828 Y52.575 E13.49749
G1 X28.978 Y52.388 E13.50802
G1 X29.842 Y51.299 E13.56905
G1 X30.209 Y50.829 E13.59523
G1 X30.707 Y50.21 E13.63011
G1 X31.195 Y49.676 E13.66187
G1 X31.231 Y49.638 E13.66416
G1 X31.691 Y49.177 E13.69276
G1 X32.112 Y48.783 E13.71807
G1 X32.257 Y48.66 E13.72642
G1 X32.675 Y48.32 E13.75008
G1 X33.078 Y47.999 E13.7727
G1 X35.199 Y46.259 E13.89314
G1 X37.322 Y44.415 E14.0166
G1 X39.357 Y42.544 E14.13796
G1 X40.844 Y41.096 E14.22909
G0 F810 X41.32 Y40.632
G0 F900 X41.606 Y40.912
G1 X43.577 Y38.883 E14.35328
G1 X45.456 Y36.833 E14.47537
G1 X45.538 Y36.741 E14.48078
G1 X47.297 Y34.712 E14.59867
G1 X47.765 Y34.156 E14.63058
G1 X48.282 Y33.554 E14.66542
G1 X48.437 Y33.384 E14.67552
G1 X49.147 Y32.673 E14.71963
G1 X49.526 Y32.326 E14.74219
G1 X50.298 Y31.707 E14.78563
G1 X50.8 Y31.315 E14.8136
G1 X52.953 Y29.585 E14.93486
G1 X55.094 Y27.763 E15.05828
G1 X57.174 Y25.889 E15.1812
G1 X59.188 Y23.969 E15.30336
G1 X61.127 Y22.012 E15.42431
G1 X63.018 Y19.992 E15.54579
G1 X64.88 Y17.889 E15.66911
G1 X66.661 Y15.757 E15.79107
G1 X67.885 Y14.189 E15.87841
G1 X68.002 Y14.067 E15.88583
G1 X68.424 Y13.527 E15.91592
G1 X68.831 Y13.028 E15.94419
G1 X69.261 Y12.558 E15.97215
G1 X69.827 Y11.99 E16.00736
G1 X70.168 Y11.692 E16.02724
G1 X70.832 Y11.278 E16.06159
G1 X71.33 Y11.134 E16.08435
G1 X71.756 Y11.076 E16.10323
G1 X72.139 Y11.064 E16.12005
G1 X72.865 Y11.057 E16.15193
G1 X86.049 Y11.057 E16.73075
G1 X86.462 Y11.061 E16.74888
G1 X87.079 Y11.078 E16.77598
G1 X87.736 Y11.188 E16.80523
G1 X88.241 Y11.393 E16.82916
G1 X88.694 Y11.697 E16.85311
G1 X89.077 Y12.047 E16.87589
G1 X89.668 Y12.649 E16.91292
G1 X89.734 Y12.723 E16.91728
G1 X90.405 Y13.526 E16.96322
G1 X90.609 Y13.782 E16.97759
G1 X91.255 Y14.602 E17.02342
G1 X93.009 Y16.765 E17.14568
G1 X94.835 Y18.891 E17.26872
G1 X96.711 Y20.952 E17.39108
G1 X98.645 Y22.961 E17.51351
G1 X100.634 Y24.914 E17.63589
G1 X102.661 Y26.793 E17.75724
G1 X104.759 Y28.632 E17.87972
G1 X106.79 Y30.315 E17.99553
G1 X106.969 Y30.459 E18.00561
G1 X108.513 Y31.679 E18.09201
G1 X108.727 Y31.845 E18.1039
G1 X109.229 Y32.252 E18.13227
G1 X109.728 Y32.706 E18.16189
G1 X110.29 Y33.266 E18.19672
G1 X110.742 Y33.811 E18.22781
G1 X111.069 Y34.437 E18.25882
G1 X111.208 Y35.092 E18.28821
G1 X111.225 Y35.527 E18.30733
G1 X111.233 Y36.29 E18.34083
G1 X111.233 Y49.353 E18.91434
G1 X111.228 Y49.975 E18.94164
G1 X111.21 Y50.597 E18.96896
G1 X111.086 Y51.236 E18.99754
G1 X110.887 Y51.7 E19.01971
G1 X110.578 Y52.163 E19.04414
G1 X110.403 Y52.357 E19.05562
G1 X109.764 Y52.999 E19.09538
G1 X109.15 Y53.546 E19.13149
G1 X108.49 Y54.076 E19.16865
G1 X107.899 Y54.539 E19.20161
G1 X105.716 Y56.3 E19.32475
G1 X103.634 Y58.079 E19.44498
G1 X101.547 Y59.967 E19.56853
G1 X99.559 Y61.87 E19.68936
G1 X97.572 Y63.883 E19.81354
G1 X95.691 Y65.9 E19.93462
G1 X93.865 Y67.972 E20.05587
G1 X91.966 Y70.257 E20.18631
G1 X91.744 Y70.532 E20.20183
G1 X90.783 Y71.744 E20.26974
G1 X90.519 Y72.081 E20.28853
G1 X90.12 Y72.576 E20.31645
G1 X89.645 Y73.12 E20.34815
G1 X89.589 Y73.179 E20.35173
G1 X89.046 Y73.719 E20.38535
G1 X88.633 Y74.101 E20.41005
G1 X88.05 Y74.577 E20.44309
G1 X87.786 Y74.788 E20.45793
G1 X85.608 Y76.573 E20.58156
G1 X83.496 Y78.405 E20.70431
G1 X81.467 Y80.268 E20.82524
G1 X79.468 Y82.212 E20.94766
G1 X77.542 Y84.193 E21.06896
G1 X75.709 Y86.186 E21.18784
G1 X74.013 Y88.13 E21.30111
G1 X73.771 Y88.414 E21.31749
G1 X73.327 Y88.944 E21.34784
G1 X72.759 Y89.607 E21.38617
G1 X72.607 Y89.771 E21.39599
G1 X71.959 Y90.422 E21.43632
G1 X71.374 Y90.944 E21.47074
G1 X70.695 Y91.489 E21.50896
G1 X70.189 Y91.885 E21.53717
G1 X67.986 Y93.659 E21.66135
G1 X65.902 Y95.436 E21.78159
G1 X63.836 Y97.301 E21.90379
G1 X61.792 Y99.255 E22.02793
G1 X59.835 Y101.234 E22.15013
G1 X57.951 Y103.251 E22.2713
G1 X56.111 Y105.334 E22.39332
G1 X54.181 Y107.656 E22.52588
G1 X53.979 Y107.907 E22.54003
G1 X52.976 Y109.171 E22.61087
G1 X52.71 Y109.512 E22.62986
G1 X52.233 Y110.106 E22.6633
G1 X51.805 Y110.575 E22.69118
G1 X51.194 Y111.186 E22.72912
G1 X50.758 Y111.565 E22.75448
G1 X50.41 Y111.788 E22.77262
G1 X49.871 Y111.987 E22.79785
G1 X49.46 Y112.064 E22.81621
G1 X49.153 Y112.081 E22.82971
G1 X47.976 Y112.098 E22.88139
G1 X34.995 Y112.098 E23.4513
G1 X34.582 Y112.094 E23.46943
G1 X33.966 Y112.077 E23.49648
G1 X33.308 Y111.968 E23.52577
G1 X32.79 Y111.754 E23.55037
G1 X32.258 Y111.379 E23.57895
G1 X32.033 Y111.165 E23.59258
G1 X31.46 Y110.593 E23.62813
G1 X31.217 Y110.331 E23.64382
G1 X30.76 Y109.786 E23.67504
G1 X30.568 Y109.544 E23.6886
G1 X29.98 Y108.793 E23.73048
G1 X28.22 Y106.61 E23.85359
G1 X26.41 Y104.49 E23.97597
G1 X24.54 Y102.422 E24.09838
G1 X22.606 Y100.401 E24.22119
G1 X20.657 Y98.477 E24.34143
G1 X18.59 Y96.548 E24.46555
G1 X16.527 Y94.729 E24.58631
G1 X14.016 Y92.648 E24.72949
G1 X13.905 Y92.559 E24.73573
G1 X12.921 Y91.782 E24.79078
G1 X12.401 Y91.374 E24.8198
G1 X11.802 Y90.891 E24.85358
G1 X11.286 Y90.418 E24.88431
G1 X10.712 Y89.843 E24.91998
G1 X10.334 Y89.401 E24.94551
G1 X10.065 Y88.937 E24.96906
G1 X9.907 Y88.476 E24.99046
G1 X9.835 Y88.013 E25.01103
G1 X9.817 Y87.476 E25.03462
G1 X9.811 Y86.84 E25.06254
G1 X9.811 Y73.572 E25.64505
G1 X9.815 Y73.226 E25.66024
G1 X9.832 Y72.614 E25.68712
G1 X9.944 Y71.96 E25.71625
G1 X10.135 Y71.483 E25.73881
G1 X10.453 Y71.008 E25.76391
G1 X10.681 Y70.757 E25.7788
G1 X11.348 Y70.088 E25.82027
G1 X11.628 Y69.832 E25.83693
G1 X12.677 Y68.984 E25.89615
G1 X12.906 Y68.805 E25.90891
G1 X15.098 Y67.048 E26.03224
G1 X17.202 Y65.26 E26.15347
G1 X19.303 Y63.371 E26.27751
G1 X21.318 Y61.452 E26.39967
G1 X23.247 Y59.509 E26.51988
G1 X25.182 Y57.446 E26.64406
G1 X26.995 Y55.401 E26.76404
G1 X29.155 Y52.806 E26.91227
G1 X29.291 Y52.639 E26.92173
G1 X30.148 Y51.557 E26.98233
G1 X30.537 Y51.059 E27.01007
G1 X31.018 Y50.46 E27.0438
G1 X31.485 Y49.951 E27.07413
G1 X32.006 Y49.429 E27.10651
G1 X32.378 Y49.081 E27.12887
G1 X32.51 Y48.97 E27.13644
G1 X32.924 Y48.632 E27.15991
G1 X33.327 Y48.311 E27.18253
G1 X35.485 Y46.541 E27.30506
G1 X37.572 Y44.728 E27.42643
G1 X39.645 Y42.822 E27.55007
G1 X41.13 Y41.376 E27.64107
G0 F810 X41.606 Y40.912
G0 F900 X41.904 Y41.179
G1 X43.845 Y39.182 E27.76333
G1 X45.765 Y37.087 E27.88809
G1 X45.825 Y37.02 E27.89204
G1 X47.613 Y34.958 E28.01187
G1 X48.069 Y34.416 E28.04296
G1 X48.579 Y33.821 E28.07737
G1 X48.72 Y33.667 E28.08654
G1 X49.421 Y32.964 E28.13012
G1 X49.777 Y32.638 E28.15132
G1 X50.544 Y32.022 E28.1945
G1 X51.046 Y31.63 E28.22247
G1 X53.214 Y29.888 E28.34457
G1 X55.356 Y28.066 E28.46803
G1 X57.426 Y26.2 E28.59038
G1 X59.464 Y24.258 E28.71398
G1 X61.42 Y22.284 E28.83598
G1 X63.324 Y20.25 E28.9583
G1 X65.192 Y18.14 E29.08202
G1 X66.971 Y16.011 E29.20383
G1 X68.229 Y14.4 E29.29357
G1 X68.307 Y14.328 E29.29823
G1 X68.734 Y13.78 E29.32873
G1 X69.141 Y13.281 E29.357
G1 X69.551 Y12.833 E29.38366
G1 X70.102 Y12.281 E29.41791
G1 X70.397 Y12.021 E29.43517
G1 X70.747 Y11.777 E29.4539
G1 X71.124 Y11.601 E29.47217
G1 X71.672 Y11.481 E29.4968
G1 X72.142 Y11.464 E29.51744
G1 X72.868 Y11.457 E29.54932
G1 X86.045 Y11.457 E30.12783
G1 X86.451 Y11.46 E30.14566
G1 X87.068 Y11.477 E30.17276
G1 X87.28 Y11.501 E30.18213
G1 X87.928 Y11.677 E30.21161
G1 X88.372 Y11.954 E30.23458
G1 X88.804 Y12.339 E30.25999
G1 X89.378 Y12.924 E30.29597
G1 X89.427 Y12.98 E30.29924
G1 X90.092 Y13.775 E30.34474
G1 X90.295 Y14.03 E30.35905
G1 X90.944 Y14.854 E30.4051
G1 X92.72 Y17.044 E30.52889
G1 X94.534 Y19.155 E30.65109
G1 X96.427 Y21.236 E30.7746
G1 X98.343 Y23.226 E30.89588
G1 X100.346 Y25.192 E31.0191
G1 X102.408 Y27.104 E31.14256
G1 X104.487 Y28.926 E31.26392
G1 X106.552 Y30.637 E31.38166
G1 X106.721 Y30.773 E31.39118
G1 X108.278 Y32.003 E31.4783
G1 X108.475 Y32.156 E31.48925
G1 X108.977 Y32.563 E31.51762
G1 X109.453 Y32.996 E31.54587
G1 X110 Y33.541 E31.57977
G1 X110.416 Y34.043 E31.6084
G1 X110.684 Y34.547 E31.63346
G1 X110.808 Y35.118 E31.65911
G1 X110.825 Y35.531 E31.67726
G1 X110.833 Y36.294 E31.71076
G1 X110.833 Y49.35 E32.28396
G1 X110.829 Y49.964 E32.31092
G1 X110.813 Y50.528 E32.33569
G1 X110.699 Y51.138 E32.36293
G1 X110.549 Y51.487 E32.37961
G1 X110.271 Y51.907 E32.40173
G1 X110.119 Y52.075 E32.41167
G1 X109.489 Y52.708 E32.45088
G1 X108.891 Y53.24 E32.48602
G1 X108.243 Y53.761 E32.52253
G1 X107.652 Y54.224 E32.55549
G1 X105.465 Y55.989 E32.67887
G1 X103.353 Y57.794 E32.80085
G1 X101.293 Y59.657 E32.92279
G1 X99.25 Y61.613 E33.04696
G1 X97.311 Y63.578 E33.16816
G1 X95.381 Y65.646 E33.29235
G1 X93.557 Y67.716 E33.41348
G1 X91.658 Y70.001 E33.54392
G1 X91.432 Y70.281 E33.55972
G1 X90.475 Y71.489 E33.62738
G1 X90.207 Y71.831 E33.64645
G1 X89.816 Y72.317 E33.67384
G1 X89.349 Y72.851 E33.70498
G1 X89.307 Y72.895 E33.70766
G1 X88.771 Y73.428 E33.74084
G1 X88.367 Y73.802 E33.76501
G1 X87.801 Y74.264 E33.79709
G1 X87.533 Y74.478 E33.81215
G1 X85.345 Y76.271 E33.93634
G1 X83.26 Y78.08 E34.05753
G1 X81.177 Y79.993 E34.1817
G1 X79.186 Y81.93 E34.30365
G1 X77.248 Y83.922 E34.42567
G1 X75.411 Y85.919 E34.54479
G1 X73.711 Y87.867 E34.6583
G1 X73.472 Y88.149 E34.67453
G1 X73.023 Y88.684 E34.7052
G1 X72.463 Y89.337 E34.74297
G1 X72.323 Y89.489 E34.75204
G1 X71.683 Y90.133 E34.7919
G1 X71.116 Y90.638 E34.82523
G1 X70.448 Y91.174 E34.86284
G1 X69.938 Y91.574 E34.89129
G1 X67.735 Y93.348 E35.01547
G1 X65.62 Y95.151 E35.13749
G1 X63.534 Y97.035 E35.26089
G1 X61.539 Y98.942 E35.38206
G1 X59.562 Y100.941 E35.50549
G1 X57.666 Y102.97 E35.62741
G1 X55.803 Y105.079 E35.75096
G1 X53.874 Y107.4 E35.88346
G1 X53.66 Y107.665 E35.89841
G1 X52.669 Y108.915 E35.96844
G1 X52.398 Y109.261 E35.98774
G1 X51.921 Y109.855 E36.02119
G1 X51.514 Y110.301 E36.04769
G1 X50.919 Y110.896 E36.08464
G1 X50.519 Y111.244 E36.10791
G1 X50.125 Y111.476 E36.12799
G1 X49.615 Y111.641 E36.15152
G1 X49.147 Y111.681 E36.17214
G1 X47.97 Y111.698 E36.22382
G1 X34.999 Y111.698 E36.79329
G1 X34.593 Y111.695 E36.81112
G1 X33.977 Y111.678 E36.83817
G1 X33.394 Y111.577 E36.86415
G1 X33.002 Y111.415 E36.88277
G1 X32.533 Y111.088 E36.90787
G1 X32.315 Y110.882 E36.92104
G1 X31.751 Y110.318 E36.95606
G1 X31.523 Y110.074 E36.97072
G1 X31.073 Y109.537 E37.00148
G1 X30.883 Y109.298 E37.01489
G1 X30.281 Y108.529 E37.05776
G1 X28.538 Y106.366 E37.17972
