(1001)
G90 G94
G17
G21
(When using Fusion 360 for Personal Use, the feedrate of )
(rapid moves is reduced to match the feedrate of cutting )
(moves, which can increase machining time. Unrestricted )
(rapid moves are available with a Fusion 360 Subscription. )

(Parallel2)
T14
S8000 M3
G54
G0 X-58.433 Y-136.605
Z15
G1 Z-9.772 F2540
Z-14.126 F1016
G18 G3 X-58.633 Z-14.321 I-0.195 K0
G1 X-59.03 Z-14.312 F2540
X-59.367 Z-14.318
G3 X-59.566 Z-14.123 I-0.003 K0.195 F1016
G1 Z5 F2540
X-69.608 Y-135.63
Z-9.856
Z-14.146 F1016
G2 X-69.325 Z-14.32 I0.195 K0
G1 X-69.134 Z-14.223 F2540
X-68.188 Z-13.782
X-67.885 Z-13.654
X-67.226 Z-13.404
X-66.688 Z-13.222
X-66.289 Z-13.094
X-65.375 Z-12.843
X-65.101 Z-12.776
X-64.5 Z-12.64
X-63.574 Z-12.464
X-62.662 Z-12.323
X-61.795 Z-12.222
X-60.852 Z-12.144
X-59.965 Z-12.1
X-59.123 Z-12.087
X-58.2 Z-12.096
X-57.321 Z-12.136
X-56.468 Z-12.2
X-55.512 Z-12.301
X-54.581 Z-12.437
X-53.63 Z-12.615
X-52.745 Z-12.813
X-52.472 Z-12.882
X-51.789 Z-13.074
X-50.973 Z-13.336
X-50.707 Z-13.425
X-49.914 Z-13.739
X-49.351 Z-13.984
X-48.97 Z-14.169
X-48.675 Z-14.324
X-48.644 Z-14.334 F1016
X-48.61 Z-14.333
X-48.579 Z-14.321
X-48.554 Z-14.299
X-48.538 Z-14.27
X-48.532 Z-14.237
X-48.525 Y-135.628 Z-14.2
X-48.505 Y-135.624 Z-14.169
X-48.474 Y-135.616 Z-14.147
X-48.437 Y-135.608 Z-14.14
X-44.402 Y-134.677 F2540
X-44.366 Y-134.669 Z-14.147 F1016
X-44.335 Y-134.661 Z-14.169
X-44.314 Y-134.657 Z-14.2
X-44.307 Y-134.655 Z-14.237
Z-14.249
X-44.314 Z-14.284
X-44.332 Z-14.315
X-44.36 Z-14.336
X-44.394 Z-14.346
X-44.43 Z-14.344
X-44.462 Z-14.328
X-44.921 Z-13.996 F2540
X-45.28 Z-13.764
X-45.809 Z-13.441
X-46.268 Z-13.19
X-46.861 Z-12.885
X-47.245 Z-12.707
X-48.076 Z-12.347
X-49.143 Z-11.953
X-49.546 Z-11.82
X-50.092 Z-11.652
X-51.005 Z-11.396
X-51.515 Z-11.273
X-51.975 Z-11.168
X-52.871 Z-10.986
X-53.817 Z-10.822
X-54.713 Z-10.699
X-55.686 Z-10.593
X-56.534 Z-10.521
X-57.42 Z-10.469
X-58.355 Z-10.438
X-59.238 Z-10.433
X-60.007 Z-10.448
X-60.971 Z-10.489
X-61.764 Z-10.541
X-62.657 Z-10.624
X-63.538 Z-10.731
X-64.431 Z-10.863
X-65.295 Z-11.014
X-66.177 Z-11.2
X-67.1 Z-11.422
X-68.053 Z-11.694
X-68.685 Z-11.894
X-69.036 Z-12.016
X-69.836 Z-12.311
X-70.85 Z-12.745
X-71.765 Z-13.202
X-72.542 Z-13.65
X-72.854 Z-13.853
X-73.538 Z-14.324
X-73.57 Z-14.338 F1016
X-73.605 Z-14.341
X-73.639 Z-14.33
X-73.666 Z-14.308
X-73.685 Z-14.278
X-73.691 Z-14.244
Z-14.242
X-73.698 Y-134.653 Z-14.204
X-73.718 Y-134.647 Z-14.173
X-73.749 Y-134.637 Z-14.152
X-73.784 Y-134.626 Z-14.144
X-76.78 Y-133.709 F2540
X-76.816 Y-133.698 Z-14.152 F1016
X-76.846 Y-133.688 Z-14.173
X-76.867 Y-133.682 Z-14.204
X-76.874 Y-133.68 Z-14.242
X-76.867 Z-14.278
X-76.847 Z-14.309
X-76.817 Z-14.33
X-76.781 Z-14.339
X-76.744 Z-14.334
X-76.712 Z-14.315
X-76.575 Z-14.196 F2540
X-75.921 Z-13.657
X-75.652 Z-13.456
X-75.311 Z-13.213
X-74.572 Z-12.733
X-73.862 Z-12.329
X-73.572 Z-12.173
X-73.022 Z-11.898
X-72.596 Z-11.697
X-72.076 Z-11.469
X-71.641 Z-11.288
X-71.071 Z-11.07
X-70.673 Z-10.923
X-69.733 Z-10.61
X-69.01 Z-10.399
X-68.56 Z-10.274
X-67.877 Z-10.1
X-66.908 Z-9.88
X-66.153 Z-9.732
X-65.258 Z-9.578
X-64.338 Z-9.441
X-63.553 Z-9.345
X-62.661 Z-9.255
X-61.729 Z-9.182
X-60.944 Z-9.137
X-60.022 Z-9.104
X-59.415 Z-9.095
X-58.412 Z-9.097
X-57.447 Z-9.122
X-56.638 Z-9.161
X-55.807 Z-9.217
X-54.953 Z-9.293
X-53.986 Z-9.399
X-53.147 Z-9.516
X-52.091 Z-9.689
X-51.166 Z-9.864
X-50.28 Z-10.064
X-49.268 Z-10.318
X-48.359 Z-10.585
X-47.462 Z-10.875
X-46.792 Z-11.123
X-46.307 Z-11.308
X-45.567 Z-11.625
X-45.134 Z-11.823
X-44.579 Z-12.097
X-44.078 Z-12.361
X-43.583 Z-12.646
X-43.179 Z-12.89
X-42.744 Z-13.181
X-42.394 Z-13.419
X-41.679 Z-13.974
X-41.571 Z-14.065
X-41.288 Z-14.319
X-41.257 Z-14.338
X-41.223 Z-14.344
X-38.568
X-38.535 Y-133.678
X-38.503 Y-133.673
X-38.472 Y-133.664
X-38.441 Y-133.651
X-38.412 Y-133.635
X-38.386 Y-133.616
X-38.361 Y-133.594
X-38.339 Y-133.57
X-38.32 Y-133.543 Z-14.345
X-38.305 Y-133.515
X-38.292 Y-133.484
X-38.283 Y-133.453
X-38.277 Y-133.42
X-38.276 Y-133.388
Y-132.998 Z-14.347
X-38.277 Y-132.965
X-38.283 Y-132.933
X-38.292 Y-132.901
X-38.305 Y-132.871
X-38.32 Y-132.842
X-38.339 Y-132.815
X-38.361 Y-132.791 Z-14.348
X-38.386 Y-132.769
X-38.412 Y-132.75
X-38.441 Y-132.734
X-38.472 Y-132.722
X-38.503 Y-132.713
X-38.535 Y-132.707
X-38.568 Y-132.705
X-38.606 Z-14.34
X-38.637 Z-14.319
X-38.644 Z-14.313
X-38.978 Z-13.977
X-39.574 Z-13.437
X-39.871 Z-13.198
X-40.28 Z-12.879
X-40.857 Z-12.467
X-41.055 Z-12.335
X-41.817 Z-11.856
X-42.775 Z-11.328
X-43.804 Z-10.829
X-44.852 Z-10.384
X-45.784 Z-10.034
X-46.369 Z-9.832
X-46.818 Z-9.688
X-47.684 Z-9.425
X-48.6 Z-9.182
X-49.544 Z-8.953
X-50.457 Z-8.763
X-51.36 Z-8.594
X-52.342 Z-8.436
X-53.35 Z-8.3
X-54.249 Z-8.198
X-55.13 Z-8.114
X-55.86 Z-8.059
X-56.661 Z-8.013
X-57.485 Z-7.979
X-58.53 Z-7.957
X-59.694 Z-7.958
X-60.844 Z-7.99
X-61.702 Z-8.032
X-62.61 Z-8.094
X-63.559 Z-8.178
X-64.475 Z-8.277
X-65.146 Z-8.362
X-66.023 Z-8.492
X-66.937 Z-8.646
X-67.731 Z-8.8
X-68.658 Z-9
X-69.569 Z-9.224
X-70.413 Z-9.452
X-71.418 Z-9.76
X-72.355 Z-10.083
X-72.841 Z-10.266
X-73.364 Z-10.473
X-73.798 Z-10.657
X-74.316 Z-10.887
X-74.657 Z-11.048
X-75.288 Z-11.362
X-75.577 Z-11.519
X-76.22 Z-11.878
X-76.916 Z-12.316
X-77.307 Z-12.58
X-77.575 Z-12.771
X-78.145 Z-13.205
X-78.643 Z-13.627
X-79.356 Z-14.31
X-79.387 Z-14.33
X-79.424 Z-14.337
X-81.731
X-81.763 Y-132.703
X-81.796 Y-132.698
X-81.827 Y-132.689
X-81.858 Y-132.676
X-81.886 Y-132.66
X-81.913 Y-132.641 Z-14.338
X-81.937 Y-132.62
X-81.959 Y-132.595
X-81.978 Y-132.568 Z-14.339
X-81.994 Y-132.54
X-82.007 Y-132.509
X-82.016 Y-132.478 Z-14.34
X-82.021 Y-132.445
X-82.023 Y-132.413 Z-14.341
Y-132.023 Z-14.346
X-82.021 Y-131.99
X-82.016 Y-131.958 Z-14.347
X-82.007 Y-131.926
X-81.994 Y-131.896
X-81.978 Y-131.867 Z-14.348
X-81.959 Y-131.84
X-81.937 Y-131.816
X-81.913 Y-131.794 Z-14.349
X-81.886 Y-131.775
X-81.858 Y-131.759
X-81.827 Y-131.747
X-81.796 Y-131.738
X-81.763 Y-131.732 Z-14.35
X-81.731 Y-131.73
X-81.704 Z-14.346
X-81.68 Z-14.335
X-81.659 Z-14.318
X-81.046 Z-13.652
X-80.562 Z-13.197
X-80.025 Z-12.731
X-79.505 Z-12.327
X-78.895 Z-11.885
X-78.259 Z-11.473
X-77.979 Z-11.3
X-77.531 Z-11.038
X-76.79 Z-10.634
X-75.905 Z-10.197
X-75.003 Z-9.799
X-74.033 Z-9.413
X-73.01 Z-9.048
X-72.002 Z-8.728
X-71.204 Z-8.5
X-70.292 Z-8.261
X-69.284 Z-8.026
X-68.582 Z-7.88
X-67.632 Z-7.701
X-66.786 Z-7.559
X-65.936 Z-7.435
X-64.995 Z-7.313
X-63.765 Z-7.186
X-62.75 Z-7.104
X-61.918 Z-7.05
X-61.004 Z-7.007
X-60.167 Z-6.982
X-59.482 Z-6.972
X-58.519
X-57.679 Z-6.987
X-56.762 Z-7.018
X-55.79 Z-7.068
X-54.588 Z-7.155
X-53.554 Z-7.253
X-52.685 Z-7.354
X-51.632 Z-7.497
X-50.595 Z-7.66
X-49.733 Z-7.819
X-48.654 Z-8.04
X-47.915 Z-8.212
X-46.893 Z-8.472
X-45.989 Z-8.733
X-45.13 Z-9.003
X-44.051 Z-9.381
X-43.347 Z-9.659
X-42.906 Z-9.839
X-42.257 Z-10.127
X-41.826 Z-10.328
X-41.272 Z-10.606
X-40.892 Z-10.804
X-40.477 Z-11.037
X-39.982 Z-11.322
X-39.145 Z-11.858
X-38.45 Z-12.36
X-38.15 Z-12.595
X-37.785 Z-12.892
X-37.218 Z-13.4
X-37.05 Z-13.561
X-36.651 Z-13.97
X-36.341 Z-14.322
X-36.32 Z-14.34
X-36.295 Z-14.351
X-36.268 Z-14.355
X-34.214
X-34.181 Y-131.728
X-34.149 Y-131.723
X-34.117 Y-131.714
X-34.087 Y-131.701
X-34.058 Y-131.685
X-34.031 Y-131.666
X-34.007 Y-131.645
X-33.985 Y-131.62 Z-14.356
X-33.966 Y-131.593
X-33.95 Y-131.565
X-33.938 Y-131.534
X-33.929 Y-131.503
X-33.923 Y-131.471
X-33.921 Y-131.438
Y-131.048 Z-14.358
X-33.923 Y-131.015
X-33.929 Y-130.983
X-33.938 Y-130.951 Z-14.359
X-33.95 Y-130.921
X-33.966 Y-130.892
X-33.985 Y-130.865
X-34.007 Y-130.841
X-34.031 Y-130.819
X-34.058 Y-130.8
X-34.087 Y-130.784
X-34.117 Y-130.772
X-34.149 Y-130.763
X-34.181 Y-130.757
X-34.214 Y-130.755
X-34.242 Z-14.355
X-34.268 Z-14.343
X-34.29 Z-14.323
X-34.559 Z-13.991
X-35.065 Z-13.429
X-35.437 Z-13.06
X-35.643 Z-12.863
X-36.209 Z-12.361
X-36.618 Z-12.034
X-36.876 Z-11.832
X-37.493 Z-11.384
X-37.926 Z-11.099
X-38.362 Z-10.817
X-39.184 Z-10.337
X-39.646 Z-10.09
X-40.154 Z-9.829
X-40.626 Z-9.601
X-41.141 Z-9.364
X-41.618 Z-9.159
X-42.235 Z-8.905
X-42.764 Z-8.703
X-43.385 Z-8.475
X-44.466 Z-8.117
X-45.421 Z-7.835
X-46.193 Z-7.623
X-47.257 Z-7.363
X-47.952 Z-7.208
X-49.064 Z-6.986
X-50.025 Z-6.816
X-51.094 Z-6.653
X-52.234 Z-6.5
X-53.56 Z-6.36
X-54.641 Z-6.267
X-55.845 Z-6.188
X-56.831 Z-6.143
X-57.792 Z-6.116
X-58.675 Z-6.105
X-59.919 Z-6.11
X-60.978 Z-6.137
X-61.966 Z-6.179
X-62.81 Z-6.228
X-64.026 Z-6.319
X-65.175 Z-6.434
X-65.827 Z-6.509
X-66.664 Z-6.616
X-67.555 Z-6.749
X-68.471 Z-6.901
X-69.228 Z-7.041
X-70.12 Z-7.223
X-70.944 Z-7.41
X-71.819 Z-7.626
X-72.82 Z-7.902
X-73.718 Z-8.176
X-74.302 Z-8.369
X-74.792 Z-8.54
X-75.324 Z-8.735
X-75.893 Z-8.956
X-76.373 Z-9.154
X-76.937 Z-9.399
X-77.619 Z-9.717
X-77.956 Z-9.885
X-78.588 Z-10.211
X-79.321 Z-10.627
X-79.724 Z-10.873
X-80.002 Z-11.049
X-80.615 Z-11.458
X-81.2 Z-11.89
X-81.72 Z-12.3
X-82.247 Z-12.762
X-82.729 Z-13.217
X-83.15 Z-13.662
X-83.71 Z-14.319
X-83.732 Z-14.338
X-83.757 Z-14.35
X-83.785 Z-14.354
X-85.643
X-85.676 Y-130.754
X-85.708 Y-130.748
X-85.74 Y-130.739
X-85.77 Y-130.726
X-85.799 Y-130.711
X-85.826 Y-130.692
X-85.85 Y-130.67
X-85.872 Y-130.645
X-85.891 Y-130.618
X-85.907 Y-130.59
X-85.919 Y-130.559
X-85.928 Y-130.528
X-85.934 Y-130.496
X-85.936 Y-130.463
Y-130.073 Z-14.355
X-85.934 Y-130.04 Z-14.356
X-85.928 Y-130.008
X-85.919 Y-129.976
X-85.907 Y-129.946
X-85.891 Y-129.917
X-85.872 Y-129.891
X-85.85 Y-129.866
X-85.826 Y-129.844
X-85.799 Y-129.825
X-85.77 Y-129.809
X-85.74 Y-129.797
X-85.708 Y-129.788
X-85.676 Y-129.782
X-85.643 Y-129.78
X-85.615 Z-14.352
X-85.588 Z-14.339
X-85.567 Z-14.319
X-85.563 Z-14.314
X-85.026 Z-13.64
X-84.585 Z-13.145
X-84.195 Z-12.746
X-83.743 Z-12.321
X-83.252 Z-11.891
X-82.7 Z-11.452
X-82.168 Z-11.056
X-81.624 Z-10.685
X-81.354 Z-10.507
X-80.917 Z-10.235
X-80.189 Z-9.808
X-79.642 Z-9.517
X-79.227 Z-9.303
X-78.596 Z-8.998
X-77.954 Z-8.707
X-77.083 Z-8.342
X-76.157 Z-7.989
X-75.203 Z-7.658
X-74.194 Z-7.341
X-73.466 Z-7.132
X-72.6 Z-6.902
X-71.59 Z-6.658
X-70.808 Z-6.489
X-69.972 Z-6.32
X-69.144 Z-6.171
X-68.275 Z-6.026
X-67.447 Z-5.908
X-66.586 Z-5.796
X-65.806 Z-5.706
X-64.458 Z-5.571
X-63.303 Z-5.48
X-62.496 Z-5.43
X-61.703 Z-5.393
X-60.417 Z-5.353
X-59.133 Z-5.336
X-58.01 Z-5.344
X-56.898 Z-5.37
X-56.124 Z-5.4
X-55.327 Z-5.44
X-54.369 Z-5.502
X-53.035 Z-5.616
X-51.766 Z-5.748
X-50.618 Z-5.897
X-49.369 Z-6.084
X-48.423 Z-6.248
X-47.357 Z-6.453
X-46.613 Z-6.614
X-45.592 Z-6.853
X-44.68 Z-7.093
X-43.864 Z-7.324
X-42.818 Z-7.651
X-41.699 Z-8.042
X-41.081 Z-8.28
X-40.594 Z-8.475
X-40.069 Z-8.699
X-39.59 Z-8.912
X-39.117 Z-9.137
X-38.603 Z-9.388
X-37.726 Z-9.857
X-36.874 Z-10.361
X-36.196 Z-10.805
X-35.923 Z-10.995
X-35.463 Z-11.326
X-34.758 Z-11.883
X-34.22 Z-12.354
X-33.637 Z-12.912
X-33.151 Z-13.435
X-32.696 Z-13.978
X-32.437 Z-14.318
X-32.416 Z-14.339
X-32.389 Z-14.352
X-32.36 Z-14.356
X-30.654
X-30.621 Y-129.779
X-30.589 Y-129.773
X-30.557 Y-129.764 Z-14.357
X-30.527 Y-129.751
X-30.498 Y-129.736
X-30.472 Y-129.717
X-30.447 Y-129.695
X-30.425 Y-129.67
X-30.406 Y-129.644 Z-14.358
X-30.39 Y-129.615
X-30.378 Y-129.585
X-30.369 Y-129.553 Z-14.359
X-30.363 Y-129.521
X-30.361 Y-129.488
Y-129.098 Z-14.363
X-30.363 Y-129.065
X-30.369 Y-129.033 Z-14.364
X-30.378 Y-129.001
X-30.39 Y-128.971
X-30.406 Y-128.942
X-30.425 Y-128.916 Z-14.365
X-30.447 Y-128.891
X-30.472 Y-128.869
X-30.498 Y-128.85
X-30.527 Y-128.834
X-30.557 Y-128.822 Z-14.366
X-30.589 Y-128.813
X-30.621 Y-128.807
X-30.654 Y-128.805
X-30.684 Z-14.361
X-30.712 Z-14.347
X-30.733 Z-14.325
X-30.981 Z-13.977
X-31.422 Z-13.418
X-31.856 Z-12.918
X-32.421 Z-12.341
X-32.977 Z-11.819
X-33.559 Z-11.328
X-34.16 Z-10.859
X-34.898 Z-10.337
X-35.377 Z-10.025
X-35.699 Z-9.822
X-36.354 Z-9.433
X-37.271 Z-8.936
X-38.212 Z-8.475
X-39.165 Z-8.052
X-40.177 Z-7.644
X-41.251 Z-7.252
X-42.333 Z-6.898
X-43.247 Z-6.628
X-43.931 Z-6.439
X-45.081 Z-6.149
X-46.013 Z-5.94
X-46.807 Z-5.773
X-47.807 Z-5.588
X-48.807 Z-5.418
X-49.905 Z-5.256
X-50.968 Z-5.116
X-52.368 Z-4.966
X-53.808 Z-4.841
X-54.758 Z-4.777
X-55.919 Z-4.716
X-57.324 Z-4.669
X-58.532 Z-4.651
X-59.455 Z-4.653
X-60.818 Z-4.676
X-61.693 Z-4.704
X-62.911 Z-4.76
X-64.164 Z-4.841
X-65.43 Z-4.946
X-66.769 Z-5.09
X-67.843 Z-5.224
X-68.968 Z-5.385
X-69.623 Z-5.488
X-70.652 Z-5.675
X-71.492 Z-5.839
X-72.379 Z-6.024
X-73.24 Z-6.227
X-73.985 Z-6.416
X-74.925 Z-6.675
X-75.874 Z-6.962
X-76.855 Z-7.289
X-77.79 Z-7.63
X-78.71 Z-7.999
X-79.527 Z-8.356
X-80.161 Z-8.654
X-80.872 Z-9.011
X-81.695 Z-9.462
X-82.334 Z-9.842
X-82.894 Z-10.196
X-83.514 Z-10.624
X-84.044 Z-11.013
X-84.595 Z-11.455
X-85.079 Z-11.868
X-85.573 Z-12.335
X-86.002 Z-12.768
X-86.381 Z-13.185
X-86.771 Z-13.656
X-87.266 Z-14.32
X-87.288 Z-14.341
X-87.315 Z-14.355
X-87.345 Z-14.36
X-88.915
X-88.948 Y-128.804
X-88.981 Y-128.798
X-89.012 Y-128.789
X-89.042 Y-128.777
X-89.071 Y-128.761
X-89.098 Y-128.742
X-89.122 Y-128.72
X-89.144 Y-128.695
X-89.163 Y-128.669
X-89.179 Y-128.64
X-89.192 Y-128.61
X-89.201 Y-128.578
X-89.206 Y-128.546
X-89.208 Y-128.513
Y-128.123 Z-14.361
X-89.206 Y-128.09
X-89.201 Y-128.058
X-89.192 Y-128.026
X-89.179 Y-127.996
X-89.163 Y-127.967 Z-14.362
X-89.144 Y-127.941
X-89.122 Y-127.916
X-89.098 Y-127.894
X-89.071 Y-127.875
X-89.042 Y-127.86
X-89.012 Y-127.847
X-88.981 Y-127.838
X-88.948 Y-127.832
X-88.915 Y-127.831
X-88.885 Z-14.357
X-88.857 Z-14.343
X-88.836 Z-14.32
X-88.834 Z-14.318
X-88.356 Z-13.638
X-88.006 Z-13.191
X-87.639 Z-12.765
X-87.223 Z-12.318
X-86.762 Z-11.856
X-86.31 Z-11.446
X-85.769 Z-10.985
X-85.324 Z-10.634
X-84.682 Z-10.161
X-84.214 Z-9.841
X-83.562 Z-9.422
X-82.978 Z-9.076
X-82.325 Z-8.71
X-81.486 Z-8.278
X-80.767 Z-7.937
X-80.123 Z-7.65
X-79.3 Z-7.309
X-78.414 Z-6.971
X-77.478 Z-6.644
X-76.539 Z-6.344
X-75.51 Z-6.043
X-74.731 Z-5.84
X-73.635 Z-5.569
X-72.987 Z-5.422
X-72.142 Z-5.25
X-71.338 Z-5.095
X-70.433 Z-4.932
X-69.758 Z-4.825
X-68.81 Z-4.688
X-67.852 Z-4.561
X-66.675 Z-4.423
X-65.281 Z-4.293
X-63.926 Z-4.193
X-62.616 Z-4.119
X-61.298 Z-4.066
X-60.054 Z-4.039
X-58.971 Z-4.03
X-57.687 Z-4.042
X-56.308 Z-4.078
X-55.178 Z-4.124
X-53.913 Z-4.202
X-52.461 Z-4.316
X-51.042 Z-4.454
X-49.96 Z-4.582
X-48.5 Z-4.783
X-47.568 Z-4.933
X-46.318 Z-5.155
X-45.26 Z-5.368
X-44.541 Z-5.527
X-43.451 Z-5.787
X-42.329 Z-6.09
X-41.602 Z-6.302
X-40.784 Z-6.558
X-39.839 Z-6.88
X-38.815 Z-7.263
X-37.807 Z-7.679
X-36.854 Z-8.114
X-36.175 Z-8.45
X-35.841 Z-8.624
X-35.297 Z-8.919
X-34.516 Z-9.375
X-33.958 Z-9.731
X-33.64 Z-9.94
X-33.098 Z-10.32
X-32.413 Z-10.836
X-31.832 Z-11.321
X-31.275 Z-11.822
X-30.732 Z-12.365
X-30.221 Z-12.922
X-29.798 Z-13.437
X-29.401 Z-13.972
X-29.166 Z-14.322
X-29.145 Z-14.345
X-29.117 Z-14.36
X-29.085 Z-14.365
X-27.623
X-27.59 Y-127.829
X-27.558 Y-127.823
X-27.526 Y-127.814
X-27.496 Y-127.802
X-27.467 Y-127.786
X-27.44 Y-127.767
X-27.416 Y-127.745
X-27.394 Y-127.72
X-27.375 Y-127.694
X-27.359 Y-127.665
X-27.347 Y-127.635
X-27.338 Y-127.603
X-27.332 Y-127.571
X-27.33 Y-127.538 Z-14.366
Y-127.148
X-27.332 Y-127.115 Z-14.367
X-27.338 Y-127.083
X-27.347 Y-127.052
X-27.359 Y-127.021
X-27.375 Y-126.993
X-27.394 Y-126.966
X-27.416 Y-126.941
X-27.44 Y-126.919
X-27.467 Y-126.9
X-27.496 Y-126.885
X-27.526 Y-126.872
X-27.558 Y-126.863
X-27.59 Y-126.857
X-27.623 Y-126.856
X-27.655 Z-14.362
X-27.683 Z-14.346
X-27.705 Z-14.322
X-27.709 Z-14.316
X-27.913 Z-13.994
X-28.32 Z-13.416
X-28.73 Z-12.897
X-29.195 Z-12.362
X-29.683 Z-11.847
X-30.234 Z-11.322
X-30.769 Z-10.848
X-31.436 Z-10.312
X-32.005 Z-9.888
X-32.747 Z-9.38
X-33.347 Z-9.001
X-34.127 Z-8.541
X-35.05 Z-8.046
X-35.906 Z-7.628
X-36.639 Z-7.296
X-37.293 Z-7.02
X-37.779 Z-6.824
X-38.442 Z-6.572
X-39.065 Z-6.349
X-39.787 Z-6.105
X-40.469 Z-5.891
X-41.033 Z-5.721
X-42.026 Z-5.445
X-43.089 Z-5.178
X-43.874 Z-4.996
X-44.764 Z-4.804
X-45.762 Z-4.611
X-46.704 Z-4.445
X-48.218 Z-4.208
X-49.06 Z-4.092
X-50.595 Z-3.91
X-52.136 Z-3.758
X-53.626 Z-3.647
X-54.888 Z-3.573
X-55.843 Z-3.53
X-57.292 Z-3.487
X-58.721 Z-3.468
X-60.085 Z-3.476
X-61.401 Z-3.503
X-62.59 Z-3.548
X-63.842 Z-3.614
X-65.188 Z-3.707
X-66.684 Z-3.836
X-67.936 Z-3.968
X-68.886 Z-4.087
X-70.146 Z-4.264
X-71.145 Z-4.417
X-72.126 Z-4.594
X-72.979 Z-4.757
X-73.767 Z-4.917
X-74.503 Z-5.085
X-75.369 Z-5.294
X-76.099 Z-5.479
X-77.143 Z-5.778
X-78.002 Z-6.035
X-78.942 Z-6.349
X-79.876 Z-6.689
X-80.653 Z-6.996
X-81.307 Z-7.272
X-82.033 Z-7.598
X-82.835 Z-7.987
X-83.497 Z-8.335
X-84.076 Z-8.656
X-84.764 Z-9.068
X-85.278 Z-9.396
X-85.935 Z-9.846
X-86.393 Z-10.181
X-86.982 Z-10.644
X-87.431 Z-11.021
X-87.936 Z-11.48
X-88.374 Z-11.906
X-88.762 Z-12.315
X-89.162 Z-12.769
X-89.522 Z-13.209
X-89.856 Z-13.659
X-90.291 Z-14.312
X-90.312 Z-14.335
X-90.341 Z-14.35
X-90.372 Z-14.356
X-91.746
X-91.779 Y-126.854
X-91.811 Y-126.848
X-91.843 Y-126.839
X-91.873 Y-126.827
X-91.902 Y-126.811
X-91.928 Y-126.792
X-91.953 Y-126.77
X-91.975 Y-126.746
X-91.994 Y-126.719 Z-14.357
X-92.009 Y-126.69
X-92.022 Y-126.66
X-92.031 Y-126.628
X-92.037 Y-126.596 Z-14.358
X-92.038 Y-126.563
Y-126.173 Z-14.361
X-92.037 Y-126.14
X-92.031 Y-126.108
X-92.022 Y-126.077 Z-14.362
X-92.009 Y-126.046
X-91.994 Y-126.018
X-91.975 Y-125.991
X-91.953 Y-125.966 Z-14.363
X-91.928 Y-125.945
X-91.902 Y-125.926
X-91.873 Y-125.91
X-91.843 Y-125.897
X-91.811 Y-125.888
X-91.779 Y-125.883
X-91.746 Y-125.881
X-91.714 Z-14.358
X-91.685 Z-14.342
X-91.664 Z-14.318
X-91.247 Z-13.665
X-90.918 Z-13.206
X-90.569 Z-12.757
X-90.205 Z-12.321
X-89.825 Z-11.905
X-89.395 Z-11.465
X-88.955 Z-11.042
X-88.497 Z-10.639
X-87.955 Z-10.187
X-87.509 Z-9.844
X-86.939 Z-9.428
X-86.434 Z-9.085
X-85.759 Z-8.654
X-85.235 Z-8.343
X-84.574 Z-7.971
X-83.949 Z-7.645
X-83.321 Z-7.335
X-82.508 Z-6.96
X-81.727 Z-6.628
X-81.071 Z-6.368
X-80.236 Z-6.057
X-79.614 Z-5.845
X-78.491 Z-5.479
X-77.717 Z-5.255
X-76.608 Z-4.949
X-75.943 Z-4.786
X-75.065 Z-4.582
X-74.286 Z-4.409
X-73.446 Z-4.244
X-72.494 Z-4.067
X-71.653 Z-3.922
X-70.311 Z-3.721
X-69.266 Z-3.58
X-68.535 Z-3.489
X-66.898 Z-3.321
X-65.317 Z-3.187
X-63.852 Z-3.089
X-62.682 Z-3.031
X-61.528 Z-2.991
X-60.09 Z-2.961
X-58.726 Z-2.955
X-57.362 Z-2.97
X-55.966 Z-3.007
X-54.768 Z-3.057
X-53.487 Z-3.13
X-51.996 Z-3.24
X-50.44 Z-3.383
X-49.148 Z-3.527
X-47.613 Z-3.728
X-46.446 Z-3.907
X-45.184 Z-4.121
X-44.357 Z-4.281
X-43.277 Z-4.501
X-42.351 Z-4.713
X-41.657 Z-4.883
X-40.689 Z-5.137
X-39.641 Z-5.438
X-38.6 Z-5.768
X-37.637 Z-6.102
X-36.635 Z-6.481
X-35.683 Z-6.876
X-34.718 Z-7.316
X-33.954 Z-7.694
X-33.29 Z-8.047
X-32.504 Z-8.495
X-31.737 Z-8.973
X-31.147 Z-9.368
X-30.419 Z-9.897
X-29.862 Z-10.336
X-29.25 Z-10.858
X-28.765 Z-11.308
X-28.265 Z-11.811
X-27.785 Z-12.333
X-27.333 Z-12.88
X-26.932 Z-13.41
X-26.559 Z-13.956
X-26.336 Z-14.322
X-25.851 Y-125.52 Z-14.321
X-25.69 Y-125.399
X-25.052 Y-124.906 Z-14.32
X-25.268 Z-13.955
X-25.603 Z-13.441
X-26.021 Z-12.862
X-26.433 Z-12.347
X-26.904 Z-11.809
X-27.358 Z-11.329
X-27.908 Z-10.801
X-28.436 Z-10.329
X-29.021 Z-9.849
X-29.621 Z-9.389
X-30.28 Z-8.926
X-30.912 Z-8.509
X-31.682 Z-8.043
X-32.341 Z-7.671
X-33.1 Z-7.272
X-33.996 Z-6.839
X-34.823 Z-6.472
X-35.567 Z-6.164
X-36.322 Z-5.872
X-36.815 Z-5.693
X-37.485 Z-5.459
X-38.341 Z-5.182
X-39.071 Z-4.961
X-39.8 Z-4.755
X-40.855 Z-4.477
X-42.01 Z-4.204
X-42.664 Z-4.059
X-43.796 Z-3.83
X-44.464 Z-3.704
X-46.174 Z-3.415
X-47.797 Z-3.186
X-49.098 Z-3.025
X-50.272 Z-2.903
X-67.727
X-68.927 Z-3.028
X-69.698 Z-3.121
X-70.777 Z-3.266
X-72.055 Z-3.453
X-72.85 Z-3.584
X-73.927 Z-3.779
X-74.77 Z-3.94
X-75.646 Z-4.13
X-76.568 Z-4.339
X-77.028 Z-4.448
X-78.253 Z-4.772
X-78.891 Z-4.95
X-80.096 Z-5.324
X-80.59 Z-5.485
X-81.303 Z-5.74
X-82.1 Z-6.032
X-82.926 Z-6.364
X-83.661 Z-6.684
X-84.258 Z-6.959
X-85.001 Z-7.323
X-85.638 Z-7.661
X-86.176 Z-7.959
X-86.819 Z-8.343
X-87.335 Z-8.668
X-87.954 Z-9.087
X-88.446 Z-9.439
X-88.968 Z-9.84
X-89.464 Z-10.243
X-89.901 Z-10.626
X-90.347 Z-11.041
X-90.748 Z-11.437
X-91.168 Z-11.888
X-91.538 Z-12.312
X-91.91 Z-12.77
X-92.233 Z-13.206
X-92.55 Z-13.671
X-92.948 Z-14.316
X-92.97 Z-14.341
X-92.998 Z-14.357
X-93.031 Z-14.362
X-94.241
X-94.274 Y-124.904
X-94.306 Y-124.898
X-94.338 Y-124.889
X-94.368 Y-124.877
X-94.397 Y-124.861
X-94.424 Y-124.842
X-94.448 Y-124.82
X-94.47 Y-124.796
X-94.489 Y-124.769
X-94.505 Y-124.74
X-94.517 Y-124.71
X-94.527 Y-124.678 Z-14.363
X-94.532 Y-124.646
X-94.534 Y-124.613
Y-124.223
X-94.532 Y-124.191
X-94.527 Y-124.158
X-94.517 Y-124.127
X-94.505 Y-124.096 Z-14.364
X-94.489 Y-124.068
X-94.47 Y-124.041
X-94.448 Y-124.017
X-94.424 Y-123.995
X-94.397 Y-123.976
X-94.368 Y-123.96
X-94.338 Y-123.947
X-94.306 Y-123.938
X-94.274 Y-123.933
X-94.241 Y-123.931
X-94.208 Z-14.358
X-94.179 Z-14.341
X-94.157 Z-14.316
X-94.155 Z-14.312
X-93.762 Z-13.645
X-93.479 Z-13.22
X-93.15 Z-12.763
X-92.808 Z-12.323
X-92.444 Z-11.886
X-92.066 Z-11.468
X-91.675 Z-11.063
X-91.205 Z-10.603
X-90.818 Z-10.255
X-90.318 Z-9.828
X-89.847 Z-9.449
X-89.359 Z-9.083
X-88.827 Z-8.703
X-88.315 Z-8.363
X-87.714 Z-7.984
X-87.184 Z-7.672
X-86.555 Z-7.319
X-85.91 Z-6.983
X-85.325 Z-6.694
X-84.555 Z-6.337
X-83.947 Z-6.075
X-83.598 Z-5.933
X-82.408 Z-5.469
X-81.697 Z-5.222
X-80.889 Z-4.949
X-80.53 Z-4.837
X-79.228 Z-4.452
X-78.772 Z-4.329
X-77.637 Z-4.039
X-77.085 Z-3.907
X-76.16 Z-3.704
X-75.229 Z-3.508
X-74.287 Z-3.332
X-72.944 Z-3.099
X-71.982 Z-2.953
X-70.304 Z-2.72
X-70.053 Z-2.704
X-69.812 Z-2.716
X-69.596 Z-2.755
X-69.418 Z-2.817
X-69.276 Z-2.898
X-48.726 Z-2.9
X-48.597 Z-2.824
X-48.415 Z-2.758
X-48.193 Z-2.717
X-47.964 Z-2.704
X-47.711 Z-2.719
X-46.322 Z-2.907
X-44.855 Z-3.132
X-43.313 Z-3.404
X-42.518 Z-3.561
X-41.531 Z-3.767
X-40.369 Z-4.037
X-39.773 Z-4.186
X-38.622 Z-4.493
X-37.616 Z-4.789
X-36.664 Z-5.094
X-35.674 Z-5.438
X-34.766 Z-5.783
X-33.868 Z-6.153
X-33.132 Z-6.48
X-32.366 Z-6.844
X-31.565 Z-7.254
X-30.82 Z-7.668
X-30.17 Z-8.056
X-29.458 Z-8.511
X-28.865 Z-8.921
X-28.217 Z-9.399
X-27.664 Z-9.843
X-27.054 Z-10.367
X-26.57 Z-10.819
X-26.068 Z-11.326
X-25.625 Z-11.807
X-25.162 Z-12.36
X-24.76 Z-12.885
X-24.38 Z-13.426
X-24.03 Z-13.986
X-23.844 Z-14.317
X-23.411 Y-123.57 Z-14.316
X-23.375 Y-123.54
X-23.339 Y-123.509
X-22.699 Y-122.956 Z-14.314
X-22.88 Z-13.986
X-23.224 Z-13.423
X-23.592 Z-12.875
X-23.956 Z-12.38
X-24.402 Z-11.832
X-24.872 Z-11.301
X-25.299 Z-10.852
X-25.843 Z-10.328
X-26.369 Z-9.853
X-26.957 Z-9.369
X-27.517 Z-8.934
X-28.132 Z-8.493
X-28.78 Z-8.058
X-29.447 Z-7.643
X-30.105 Z-7.259
X-30.859 Z-6.851
X-31.621 Z-6.469
X-32.306 Z-6.146
X-33.179 Z-5.764
X-34.063 Z-5.408
X-34.906 Z-5.094
X-35.711 Z-4.813
X-36.573 Z-4.535
X-37.394 Z-4.29
X-38.104 Z-4.086
X-39.321 Z-3.769
X-40.296 Z-3.539
X-40.948 Z-3.392
X-42.078 Z-3.159
X-42.672 Z-3.043
X-44.34 Z-2.75
X-45.96 Z-2.504
X-47.548 Z-2.296
X-47.962 Z-2.251
X-48.226 Z-2.25
X-48.455 Z-2.277
X-48.663 Z-2.331
X-48.821 Z-2.403
X-48.926 Z-2.482
X-48.997 Z-2.57
X-49.034 Z-2.661
X-49.044 Z-2.742
Z-2.9
X-68.956
X-68.961 Z-2.684
X-68.991 Z-2.593
X-69.051 Z-2.505
X-69.131 Z-2.434
X-69.253 Z-2.365
X-69.431 Z-2.302
X-69.646 Z-2.261
X-69.88 Z-2.247
X-70.134 Z-2.259
X-71.551 Z-2.44
X-72.819 Z-2.618
X-74.174 Z-2.841
X-75.53 Z-3.081
X-76.62 Z-3.303
X-77.543 Z-3.5
X-78.503 Z-3.73
X-79.377 Z-3.947
X-80.286 Z-4.2
X-81.056 Z-4.42
X-82.131 Z-4.765
X-82.669 Z-4.943
X-83.988 Z-5.428
X-85.037 Z-5.86
X-85.514 Z-6.066
X-86.112 Z-6.34
X-86.827 Z-6.69
X-87.405 Z-6.992
X-88.023 Z-7.332
X-88.585 Z-7.663
X-89.144 Z-8.01
X-89.654 Z-8.347
X-90.197 Z-8.726
X-90.649 Z-9.06
X-91.169 Z-9.47
X-91.63 Z-9.853
X-92.057 Z-10.236
X-92.501 Z-10.655
X-92.873 Z-11.026
X-93.286 Z-11.475
X-93.658 Z-11.905
X-94.016 Z-12.346
X-94.325 Z-12.759
X-94.642 Z-13.218
X-94.926 Z-13.662
X-95.301 Z-14.311
X-95.323 Z-14.337
X-95.352 Z-14.354
X-95.385 Z-14.36
X-96.471
X-96.504 Y-122.954
X-96.536 Y-122.949
X-96.568 Y-122.94
X-96.598 Y-122.927
X-96.627 Y-122.911
X-96.654 Y-122.892
X-96.678 Y-122.87
X-96.7 Y-122.846
X-96.719 Y-122.819
X-96.735 Y-122.79 Z-14.361
X-96.747 Y-122.76
X-96.756 Y-122.729
X-96.762 Y-122.696
X-96.764 Y-122.663
Y-122.273 Z-14.364
X-96.762 Y-122.241
X-96.756 Y-122.208
X-96.747 Y-122.177 Z-14.365
X-96.735 Y-122.147
X-96.719 Y-122.118
X-96.7 Y-122.091
X-96.678 Y-122.067
X-96.654 Y-122.045 Z-14.366
X-96.627 Y-122.026
X-96.598 Y-122.01
X-96.568 Y-121.997
X-96.536 Y-121.988
X-96.504 Y-121.983
X-96.471 Y-121.981
X-96.437 Z-14.36
X-96.408 Z-14.342
X-96.386 Z-14.316
X-96.014 Z-13.646
X-95.754 Z-13.228
X-95.439 Z-12.762
X-95.129 Z-12.336
X-94.783 Z-11.892
X-94.425 Z-11.465
X-94.045 Z-11.044
X-93.656 Z-10.638
X-93.255 Z-10.243
X-92.836 Z-9.86
X-92.372 Z-9.457
X-91.903 Z-9.073
X-91.453 Z-8.728
X-90.919 Z-8.337
X-90.415 Z-7.993
X-89.863 Z-7.635
X-89.346 Z-7.32
X-88.736 Z-6.967
X-88.241 Z-6.698
X-87.568 Z-6.35
X-87.024 Z-6.087
X-86.682 Z-5.929
X-85.862 Z-5.568
X-85.516 Z-5.42
X-84.283 Z-4.936
X-83.883 Z-4.795
X-82.897 Z-4.454
X-82.539 Z-4.339
X-81.322 Z-3.968
X-80.683 Z-3.792
X-79.634 Z-3.513
X-78.943 Z-3.347
X-77.883 Z-3.102
X-77.196 Z-2.958
X-76.169 Z-2.754
X-75.323 Z-2.595
X-73.881 Z-2.354
X-72.631 Z-2.162
X-71.343 Z-1.991
X-70.041 Z-1.834
X-69.763 Z-1.818
X-69.514 Z-1.832
X-69.297 Z-1.87
X-69.118 Z-1.929
X-68.994 Z-1.996
X-68.907 Z-2.072
X-68.846 Z-2.162
X-68.821 Z-2.25
X-68.819 Z-2.9
X-49.184
X-49.181 Z-2.289
X-49.17 Z-2.208
X-49.133 Z-2.123
X-49.059 Z-2.038
X-48.951 Z-1.963
X-48.792 Z-1.896
X-48.581 Z-1.845
X-48.33 Z-1.82
X-48.054 Z-1.825
X-46.939 Z-1.953
X-45.387 Z-2.159
X-43.903 Z-2.386
X-42.523 Z-2.623
X-41.643 Z-2.787
X-40.516 Z-3.016
X-39.908 Z-3.149
X-38.797 Z-3.406
X-37.601 Z-3.712
X-36.959 Z-3.89
X-36.048 Z-4.155
X-34.963 Z-4.499
X-34.063 Z-4.81
X-33.304 Z-5.093
X-32.511 Z-5.408
X-31.679 Z-5.763
X-30.861 Z-6.14
X-30.226 Z-6.455
X-29.492 Z-6.841
X-28.809 Z-7.229
X-28.161 Z-7.62
X-27.462 Z-8.075
X-26.9 Z-8.467
X-26.255 Z-8.949
X-25.739 Z-9.363
X-25.202 Z-9.826
X-24.677 Z-10.309
X-24.172 Z-10.814
X-23.69 Z-11.334
X-23.264 Z-11.833
X-22.857 Z-12.354
X-22.468 Z-12.894
X-22.129 Z-13.411
X-21.791 Z-13.984
X-21.614 Z-14.319
X-21.192 Y-121.589
X-21.16 Y-121.559
X-21.127 Y-121.529
X-20.585 Y-121.006 Z-14.318
X-20.76 Z-13.982
X-21.09 Z-13.409
X-21.418 Z-12.891
X-21.793 Z-12.353
X-22.197 Z-11.825
X-22.622 Z-11.313
X-23.062 Z-10.82
X-23.558 Z-10.312
X-24.038 Z-9.851
X-24.55 Z-9.395
X-25.114 Z-8.926
X-25.674 Z-8.491
X-26.288 Z-8.049
X-26.859 Z-7.66
X-27.523 Z-7.241
X-28.129 Z-6.88
X-28.875 Z-6.468
X-29.591 Z-6.1
X-30.272 Z-5.77
X-31.054 Z-5.418
X-31.841 Z-5.088
X-32.545 Z-4.81
X-33.44 Z-4.482
X-34.518 Z-4.118
X-35.652 Z-3.769
X-36.661 Z-3.485
X-37.271 Z-3.323
X-38.323 Z-3.061
X-39.529 Z-2.786
X-40.464 Z-2.591
X-41.216 Z-2.442
X-42.339 Z-2.236
X-43.975 Z-1.966
X-45.027 Z-1.81
X-46.606 Z-1.6
X-48.066 Z-1.429
X-48.351 Z-1.412
X-48.625 Z-1.425
X-48.85 Z-1.464
X-49.034 Z-1.524
X-49.167 Z-1.598
X-49.248 Z-1.674
X-49.297 Z-1.755
X-49.317 Z-1.842
X-49.319 Z-2.9
X-68.682
X-68.685 Z-1.821
X-68.71 Z-1.74
X-68.766 Z-1.658
X-68.842 Z-1.592
X-68.965 Z-1.525
X-69.145 Z-1.465
X-69.361 Z-1.426
X-69.616 Z-1.411
X-69.946 Z-1.43
X-71.181 Z-1.574
X-72.523 Z-1.746
X-73.652 Z-1.91
X-75.117 Z-2.142
X-75.925 Z-2.285
X-77.187 Z-2.521
X-77.881 Z-2.661
X-79.217 Z-2.956
X-79.863 Z-3.105
X-81.096 Z-3.421
X-81.597 Z-3.556
X-82.905 Z-3.937
X-83.934 Z-4.271
X-84.471 Z-4.452
X-85.75 Z-4.924
X-86.973 Z-5.43
X-88.004 Z-5.904
X-88.343 Z-6.067
X-88.953 Z-6.377
X-89.55 Z-6.701
X-90.098 Z-7.013
X-90.598 Z-7.316
X-91.153 Z-7.669
X-91.654 Z-8.008
X-92.15 Z-8.362
X-92.6 Z-8.7
X-93.08 Z-9.085
X-93.546 Z-9.478
X-93.93 Z-9.822
X-94.372 Z-10.243
X-94.772 Z-10.647
X-95.124 Z-11.023
X-95.52 Z-11.481
X-95.85 Z-11.884
X-96.191 Z-12.332
X-96.49 Z-12.753
X-96.796 Z-13.224
X-97.065 Z-13.671
X-97.415 Z-14.315
X-97.57 Y-120.856
X-97.601 Y-120.826 Z-14.314
X-98.272 Y-120.155 Z-14.313
X-98.302 Y-120.124
X-98.392 Y-120.031
X-98.054 Z-13.672
X-97.788 Z-13.221
X-97.511 Z-12.787
X-97.193 Z-12.323
X-96.859 Z-11.869
X-96.537 Z-11.467
X-96.201 Z-11.071
X-95.824 Z-10.652
X-95.439 Z-10.248
X-95.036 Z-9.855
X-94.619 Z-9.469
X-94.16 Z-9.066
X-93.721 Z-8.707
X-93.273 Z-8.358
X-92.787 Z-7.998
X-92.286 Z-7.65
X-91.741 Z-7.289
X-91.3 Z-7.015
X-90.693 Z-6.655
X-90.202 Z-6.381
X-89.542 Z-6.03
X-88.374 Z-5.462
X-87.139 Z-4.925
X-85.869 Z-4.431
X-84.889 Z-4.087
X-84.351 Z-3.907
X-83.127 Z-3.527
X-82.774 Z-3.426
X-81.631 Z-3.111
X-80.905 Z-2.928
X-79.71 Z-2.641
X-78.933 Z-2.471
X-77.72 Z-2.219
X-76.804 Z-2.045
X-75.344 Z-1.788
X-74.175 Z-1.603
X-72.723 Z-1.392
X-71.561 Z-1.242
X-70.269 Z-1.09
X-69.607 Z-1.024
X-69.343 Z-1.026
X-69.102 Z-1.053
X-68.895 Z-1.105
X-68.744 Z-1.171
X-68.651 Z-1.238
X-68.583 Z-1.321
X-68.549 Z-1.414
X-68.545 Z-2.9
X-49.455
Z-1.445
X-49.438 Z-1.365
X-49.391 Z-1.282
X-49.31 Z-1.206
X-49.196 Z-1.141
X-49.034 Z-1.084
X-48.816 Z-1.041
X-48.568 Z-1.022
X-48.292 Z-1.031
X-46.889 Z-1.187
X-45.305 Z-1.389
X-43.899 Z-1.592
X-42.003 Z-1.898
X-40.76 Z-2.126
X-40.191 Z-2.237
X-39.065 Z-2.468
X-37.9 Z-2.731
X-37.256 Z-2.887
X-36.378 Z-3.108
X-35.275 Z-3.41
X-34.139 Z-3.749
X-33.057 Z-4.103
X-31.984 Z-4.485
X-31.185 Z-4.795
X-30.485 Z-5.084
X-29.748 Z-5.407
X-28.972 Z-5.773
X-28.335 Z-6.095
X-27.625 Z-6.475
X-27.006 Z-6.832
X-26.362 Z-7.224
X-25.723 Z-7.644
X-25.141 Z-8.05
X-24.573 Z-8.476
X-23.978 Z-8.951
X-23.473 Z-9.386
X-22.986 Z-9.834
X-22.48 Z-10.33
X-22.028 Z-10.813
X-21.59 Z-11.314
X-21.171 Z-11.831
X-20.807 Z-12.324
X-20.431 Z-12.874
X-20.08 Z-13.439
X-19.777 Z-13.978
X-19.608 Z-14.316
X-19.169 Y-119.577 Z-14.317
X-19.052 Y-119.456 Z-14.318
X-19.022 Y-119.426
X-18.994 Y-119.395
X-18.678 Y-119.056
X-18.843 Z-13.982
X-19.163 Z-13.398
X-19.479 Z-12.874
X-19.847 Z-12.325
X-20.21 Z-11.825
X-20.618 Z-11.305
X-21.015 Z-10.836
X-21.5 Z-10.311
X-21.964 Z-9.839
X-22.448 Z-9.382
X-22.981 Z-8.914
X-23.512 Z-8.474
X-24.056 Z-8.056
X-24.635 Z-7.637
X-25.223 Z-7.24
X-25.861 Z-6.834
X-26.471 Z-6.472
X-27.155 Z-6.09
X-27.803 Z-5.752
X-28.439 Z-5.438
X-29.219 Z-5.081
X-29.919 Z-4.78
X-30.625 Z-4.493
X-31.65 Z-4.107
X-32.686 Z-3.75
X-33.771 Z-3.406
X-34.911 Z-3.075
X-36.068 Z-2.766
X-37.301 Z-2.464
X-38.603 Z-2.173
X-39.781 Z-1.931
X-40.519 Z-1.791
X-42.294 Z-1.474
X-43.751 Z-1.245
X-45.113 Z-1.048
X-47.092 Z-0.801
X-48.476 Z-0.65
X-48.775 Z-0.647
X-49.021 Z-0.673
X-49.232 Z-0.723
X-49.392 Z-0.789
X-49.482 Z-0.851
X-49.544 Z-0.919
X-49.58 Z-0.991
X-49.592 Z-1.069
Z-2.9
X-68.408
X-68.41 Z-1.034
X-68.433 Z-0.959
X-68.473 Z-0.897
X-68.559 Z-0.819
X-68.692 Z-0.75
X-68.873 Z-0.694
X-69.12 Z-0.655
X-69.41 Z-0.645
X-69.686 Z-0.665
X-71.577 Z-0.879
X-72.661 Z-1.018
X-74.043 Z-1.214
X-75.201 Z-1.392
X-76.744 Z-1.655
X-77.598 Z-1.812
X-78.961 Z-2.083
X-79.661 Z-2.231
X-80.996 Z-2.537
X-81.502 Z-2.659
X-82.866 Z-3.016
X-83.321 Z-3.141
X-84.536 Z-3.5
X-85.704 Z-3.883
X-86.19 Z-4.053
X-87.214 Z-4.431
X-88.441 Z-4.931
X-89.642 Z-5.478
X-90.781 Z-6.055
X-91.352 Z-6.371
X-91.921 Z-6.702
X-92.399 Z-6.997
X-92.915 Z-7.331
X-93.346 Z-7.622
X-93.878 Z-8.008
X-94.327 Z-8.348
X-94.761 Z-8.697
X-95.229 Z-9.095
X-95.649 Z-9.471
X-96.023 Z-9.826
X-96.451 Z-10.26
X-96.803 Z-10.635
X-97.179 Z-11.061
X-97.507 Z-11.46
X-97.85 Z-11.906
X-98.176 Z-12.358
X-98.467 Z-12.791
X-98.736 Z-13.224
X-98.991 Z-13.672
X-99.322 Z-14.315
X-99.631 Y-118.725 Z-14.314
X-99.659 Y-118.694
X-99.687 Y-118.664
X-100.21 Y-118.081 Z-14.313
X-99.884 Z-13.672
X-99.631 Z-13.221
X-99.362 Z-12.776
X-99.078 Z-12.341
X-98.784 Z-11.923
X-98.445 Z-11.474
X-98.122 Z-11.073
X-97.753 Z-10.641
X-97.409 Z-10.264
X-97.018 Z-9.86
X-96.616 Z-9.466
X-96.214 Z-9.094
X-95.781 Z-8.717
X-95.344 Z-8.356
X-94.906 Z-8.011
X-94.454 Z-7.676
X-93.955 Z-7.324
X-93.488 Z-7.011
X-92.968 Z-6.683
X-92.442 Z-6.365
X-91.832 Z-6.019
X-90.79 Z-5.474
X-90.359 Z-5.268
X-89.591 Z-4.908
X-88.499 Z-4.444
X-88.059 Z-4.272
X-87.133 Z-3.921
X-85.926 Z-3.504
X-84.712 Z-3.125
X-84.217 Z-2.982
X-82.982 Z-2.64
X-82.396 Z-2.49
X-81.197 Z-2.197
X-80.367 Z-2.01
X-79.121 Z-1.743
X-77.752 Z-1.477
X-76.738 Z-1.293
X-75.243 Z-1.043
X-74.14 Z-0.873
X-72.679 Z-0.667
X-71.561 Z-0.525
X-69.779 Z-0.321
X-69.32 Z-0.28
X-69.024 Z-0.285
X-68.767 Z-0.319
X-68.573 Z-0.373
X-68.437 Z-0.439
X-68.351 Z-0.508
X-68.301 Z-0.576
X-68.274 Z-0.657
X-68.271 Z-2.9
X-49.729
X-49.727 Z-0.66
X-49.696 Z-0.569
X-49.639 Z-0.497
X-49.531 Z-0.421
X-49.393 Z-0.361
X-49.182 Z-0.31
X-48.931 Z-0.282
X-48.642 Z-0.281
X-47.371 Z-0.415
X-45.821 Z-0.604
X-43.926 Z-0.866
X-42.331 Z-1.111
X-40.542 Z-1.421
X-39.519 Z-1.617
X-38.202 Z-1.884
X-36.895 Z-2.174
X-35.69 Z-2.466
X-34.589 Z-2.754
X-33.498 Z-3.063
X-32.409 Z-3.396
X-31.374 Z-3.741
X-30.344 Z-4.113
X-29.369 Z-4.497
X-28.759 Z-4.755
X-28.019 Z-5.084
X-27.336 Z-5.411
X-26.661 Z-5.754
X-25.991 Z-6.117
X-25.381 Z-6.47
X-24.773 Z-6.844
X-24.183 Z-7.23
X-23.597 Z-7.639
X-23.028 Z-8.062
X-22.511 Z-8.474
X-21.969 Z-8.932
X-21.479 Z-9.376
X-21.004 Z-9.837
X-20.508 Z-10.351
X-20.096 Z-10.814
X-19.702 Z-11.289
X-19.298 Z-11.812
X-18.914 Z-12.352
X-18.582 Z-12.867
X-18.245 Z-13.436
X-17.955 Z-13.976
X-17.79 Z-14.317
X-17.769 Z-14.346
X-17.738 Z-14.366
X-17.703 Z-14.372
X-16.853
X-16.821 Y-118.079
X-16.788 Y-118.074
X-16.757 Y-118.065
X-16.726 Y-118.052 Z-14.373
X-16.698 Y-118.036
X-16.671 Y-118.017
X-16.647 Y-117.996
X-16.625 Y-117.971
X-16.606 Y-117.944
X-16.59 Y-117.916 Z-14.374
X-16.577 Y-117.885
X-16.568 Y-117.854
X-16.563 Y-117.822
X-16.561 Y-117.789 Z-14.375
Y-117.399 Z-14.378
X-16.563 Y-117.366
X-16.568 Y-117.334
X-16.577 Y-117.302 Z-14.379
X-16.59 Y-117.272
X-16.606 Y-117.243
X-16.625 Y-117.216
X-16.647 Y-117.192 Z-14.38
X-16.671 Y-117.17
X-16.698 Y-117.151
X-16.726 Y-117.135
X-16.757 Y-117.123
X-16.788 Y-117.114
X-16.821 Y-117.108
X-16.853 Y-117.106
X-16.889 Z-14.373
X-16.92 Z-14.354
X-16.942 Z-14.324
X-17.103 Z-13.981
X-17.39 Z-13.434
X-17.726 Z-12.858
X-18.055 Z-12.342
X-18.431 Z-11.798
X-18.803 Z-11.304
X-19.225 Z-10.788
X-19.628 Z-10.327
X-20.096 Z-9.827
X-20.554 Z-9.375
X-21.039 Z-8.925
X-21.541 Z-8.487
X-22.096 Z-8.038
X-22.625 Z-7.632
X-23.158 Z-7.25
X-23.751 Z-6.85
X-24.309 Z-6.495
X-24.964 Z-6.105
X-25.541 Z-5.781
X-26.258 Z-5.404
X-26.889 Z-5.092
X-27.576 Z-4.772
X-28.27 Z-4.47
X-29.103 Z-4.128
X-30.083 Z-3.757
X-31.113 Z-3.397
X-32.152 Z-3.063
X-33.197 Z-2.751
X-34.294 Z-2.448
X-35.397 Z-2.165
X-36.552 Z-1.889
X-37.996 Z-1.573
X-38.702 Z-1.426
X-40.071 Z-1.162
X-41.372 Z-0.929
X-43.409 Z-0.599
X-44.901 Z-0.382
X-46.744 Z-0.147
X-48.533 Z0.055
X-48.828 Z0.08
X-49.135 Z0.073
X-49.377 Z0.039
X-49.563 Z-0.013
X-49.7 Z-0.078
X-49.787 Z-0.146
X-49.842 Z-0.222
X-49.865 Z-0.308
X-49.866 Z-2.9
X-68.134
X-68.135 Z-0.305
X-68.155 Z-0.229
X-68.197 Z-0.163
X-68.278 Z-0.092
X-68.398 Z-0.028
X-68.578 Z0.029
X-68.824 Z0.069
X-69.098 Z0.081
X-69.379 Z0.065
X-71.232 Z-0.142
X-72.41 Z-0.288
X-73.879 Z-0.492
X-75.034 Z-0.666
X-76.604 Z-0.924
X-77.517 Z-1.086
X-78.906 Z-1.348
X-79.98 Z-1.568
X-81.043 Z-1.798
X-82.51 Z-2.143
X-83.332 Z-2.353
X-84.341 Z-2.62
X-85.607 Z-2.992
X-86.013 Z-3.114
X-87.222 Z-3.511
X-88.418 Z-3.943
X-89.6 Z-4.414
X-90.721 Z-4.908
X-91.741 Z-5.404
X-91.991 Z-5.534
X-92.904 Z-6.028
X-93.508 Z-6.384
X-93.986 Z-6.679
X-94.5 Z-7.017
X-94.968 Z-7.338
X-95.381 Z-7.637
X-95.866 Z-8.007
X-96.308 Z-8.362
X-96.698 Z-8.691
X-97.151 Z-9.099
X-97.559 Z-9.485
X-97.936 Z-9.86
X-98.307 Z-10.256
X-98.649 Z-10.641
X-98.988 Z-11.043
X-99.344 Z-11.494
X-99.639 Z-11.896
X-99.935 Z-12.325
X-100.216 Z-12.764
X-100.481 Z-13.207
X-100.734 Z-13.664
X-101.058 Z-14.32
X-101.08 Z-14.349
X-101.11 Z-14.368
X-101.146 Z-14.375
X-101.953
X-101.986 Y-117.105
X-102.019 Y-117.099
X-102.05 Y-117.09
X-102.08 Y-117.077
X-102.109 Y-117.062
X-102.136 Y-117.043
X-102.16 Y-117.021
X-102.182 Y-116.996
X-102.201 Y-116.969
X-102.217 Y-116.941 Z-14.376
X-102.23 Y-116.91
X-102.239 Y-116.879
X-102.244 Y-116.847
X-102.246 Y-116.814
Y-116.424 Z-14.378
X-102.244 Y-116.391 Z-14.379
X-102.239 Y-116.359
X-102.23 Y-116.327
X-102.217 Y-116.297
X-102.201 Y-116.268
X-102.182 Y-116.242 Z-14.38
X-102.16 Y-116.217
X-102.136 Y-116.195
X-102.109 Y-116.176
X-102.08 Y-116.16
X-102.05 Y-116.148
X-102.019 Y-116.139
X-101.986 Y-116.133
X-101.953 Y-116.131
X-101.918 Z-14.373
X-101.887 Z-14.354
X-101.866 Z-14.325
X-101.537 Z-13.646
X-101.31 Z-13.225
X-101.053 Z-12.785
X-100.775 Z-12.345
X-100.487 Z-11.917
X-100.16 Z-11.464
X-99.839 Z-11.047
X-99.515 Z-10.653
X-99.176 Z-10.265
X-98.795 Z-9.852
X-98.399 Z-9.445
X-98.032 Z-9.091
X-97.616 Z-8.711
X-97.224 Z-8.37
X-96.794 Z-8.015
X-96.347 Z-7.666
X-95.892 Z-7.328
X-95.437 Z-7.005
X-94.966 Z-6.69
X-94.452 Z-6.362
X-93.934 Z-6.049
X-92.907 Z-5.474
X-91.847 Z-4.939
X-90.734 Z-4.429
X-89.603 Z-3.96
X-88.417 Z-3.513
X-87.308 Z-3.133
X-86.859 Z-2.99
X-85.638 Z-2.615
X-84.321 Z-2.248
X-83.736 Z-2.095
X-82.358 Z-1.752
X-80.876 Z-1.417
X-80.187 Z-1.27
X-78.794 Z-0.988
X-77.44 Z-0.737
X-76.223 Z-0.525
X-74.665 Z-0.274
X-73.29 Z-0.074
X-72.024 Z0.096
X-68.08 Z0.098
X-68.031 Z0.076
X-68.001 Z0.03
X-67.997 Z-2.9
X-50.003
X-50.001 Z0.02
X-49.974 Z0.071
X-49.922 Z0.098
X-46.035 Z0.1
X-45.754 Z0.067
X-44.093 Z-0.163
X-42.094 Z-0.471
X-40.261 Z-0.793
X-38.814 Z-1.065
X-37.413 Z-1.355
X-36.542 Z-1.546
X-35.079 Z-1.888
X-34.026 Z-2.155
X-32.978 Z-2.439
X-31.935 Z-2.742
X-30.894 Z-3.067
X-29.905 Z-3.4
X-28.92 Z-3.758
X-28.038 Z-4.105
X-27.165 Z-4.474
X-26.47 Z-4.788
X-25.874 Z-5.076
X-25.195 Z-5.421
X-24.613 Z-5.737
X-23.952 Z-6.116
X-23.388 Z-6.463
X-22.793 Z-6.849
X-22.249 Z-7.226
X-21.712 Z-7.621
X-21.171 Z-8.042
X-20.645 Z-8.482
X-20.147 Z-8.925
X-19.667 Z-9.38
X-19.234 Z-9.821
X-18.786 Z-10.307
X-18.354 Z-10.809
X-17.97 Z-11.292
X-17.578 Z-11.825
X-17.23 Z-12.336
X-16.877 Z-12.9
X-16.596 Z-13.397
X-16.315 Z-13.942
X-16.134 Z-14.329
X-15.793 Y-115.708 Z-14.33
X-15.769 Y-115.678
X-15.745 Y-115.647
X-15.364 Y-115.156
X-15.541 Z-13.946
X-15.82 Z-13.395
X-16.12 Z-12.859
X-16.446 Z-12.325
X-16.78 Z-11.826
X-17.171 Z-11.287
X-17.549 Z-10.803
X-17.958 Z-10.314
X-18.39 Z-9.838
X-18.85 Z-9.362
X-19.292 Z-8.931
X-19.778 Z-8.489
X-20.286 Z-8.057
X-20.834 Z-7.616
X-21.369 Z-7.216
X-21.908 Z-6.834
X-22.419 Z-6.492
X-23.06 Z-6.09
X-23.592 Z-5.773
X-24.254 Z-5.406
X-24.844 Z-5.095
X-25.528 Z-4.758
X-26.127 Z-4.478
X-26.996 Z-4.099
X-27.919 Z-3.726
X-28.806 Z-3.392
X-29.7 Z-3.078
X-30.692 Z-2.754
X-31.736 Z-2.437
X-32.74 Z-2.151
X-33.794 Z-1.871
X-35.265 Z-1.507
X-36.382 Z-1.252
X-37.358 Z-1.038
X-38.822 Z-0.741
X-40.192 Z-0.478
X-42.108 Z-0.147
X-43.64 Z0.097
X-50.067 Z0.096
X-50.108 Z0.073
X-50.138 Z0.022
X-50.14 Z-2.9
X-67.86
X-67.863 Z0.025
X-67.886 Z0.068
X-67.936 Z0.097
X-74.361
X-75.631 Z-0.102
X-76.986 Z-0.331
X-78.537 Z-0.614
X-80.012 Z-0.906
X-81.052 Z-1.127
X-82.209 Z-1.384
X-83.766 Z-1.758
X-85.181 Z-2.13
X-85.63 Z-2.256
X-86.897 Z-2.626
X-88.244 Z-3.06
X-88.95 Z-3.307
X-89.573 Z-3.531
X-90.713 Z-3.978
X-91.799 Z-4.445
X-92.825 Z-4.929
X-93.831 Z-5.451
X-94.812 Z-6.012
X-95.408 Z-6.381
X-95.844 Z-6.664
X-96.35 Z-7.014
X-96.771 Z-7.318
X-97.22 Z-7.658
X-97.662 Z-8.013
X-98.059 Z-8.348
X-98.481 Z-8.721
X-98.853 Z-9.07
X-99.257 Z-9.469
X-99.613 Z-9.841
X-99.992 Z-10.257
X-100.322 Z-10.646
X-100.648 Z-11.051
X-100.984 Z-11.496
X-101.285 Z-11.921
X-101.562 Z-12.337
X-101.84 Z-12.791
X-102.096 Z-13.24
X-102.317 Z-13.659
X-102.636 Z-14.326
X-102.658 Z-14.355
X-102.688 Z-14.375
X-102.724 Z-14.382
X-103.461
G17 G2 X-103.753 Y-114.864 I0 J0.293
G1 Y-114.474
G2 X-103.461 Y-114.182 I0.293 J0
G1 X-103.425 Z-14.375
X-103.394 Z-14.356
X-103.373 Z-14.326
X-103.369 Z-14.318
X-103.069 Z-13.682
X-102.832 Z-13.225
X-102.577 Z-12.772
X-102.31 Z-12.332
X-102.03 Z-11.9
X-101.741 Z-11.485
X-101.43 Z-11.068
X-101.11 Z-10.663
X-100.78 Z-10.268
X-100.405 Z-9.842
X-100.052 Z-9.468
X-99.685 Z-9.099
X-99.279 Z-8.71
X-98.862 Z-8.332
X-98.499 Z-8.021
X-98.064 Z-7.665
X-97.621 Z-7.32
X-97.21 Z-7.016
X-96.746 Z-6.69
X-96.279 Z-6.377
X-95.769 Z-6.052
X-94.792 Z-5.476
X-93.754 Z-4.921
X-92.737 Z-4.429
X-91.744 Z-3.99
X-91.396 Z-3.846
X-90.48 Z-3.48
X-89.375 Z-3.075
X-88.033 Z-2.626
X-86.592 Z-2.188
X-85.178 Z-1.796
X-84.408 Z-1.597
X-83.359 Z-1.335
X-81.844 Z-0.982
X-80.266 Z-0.643
X-78.913 Z-0.372
X-77.83 Z-0.167
X-76.331 Z0.098
X-67.853 Z0.1
X-67.787 Z0.093
X-67.745 Z0.063
X-67.725 Z0.021
X-67.723 Z-2.9
X-50.277
Z-0.386
X-50.272 Z0.031
X-50.242 Z0.076
X-50.198 Z0.098
X-41.678 Z0.099
X-40.327 Z-0.139
X-38.753 Z-0.437
X-37.622 Z-0.669
X-36.123 Z-0.991
X-35.336 Z-1.171
X-34.002 Z-1.492
X-32.531 Z-1.874
X-31.567 Z-2.143
X-30.567 Z-2.439
X-29.572 Z-2.754
X-28.674 Z-3.058
X-27.783 Z-3.381
X-26.899 Z-3.723
X-25.98 Z-4.107
X-25.16 Z-4.478
X-24.569 Z-4.76
X-23.926 Z-5.088
X-23.297 Z-5.425
X-22.723 Z-5.755
X-22.116 Z-6.123
X-21.601 Z-6.456
X-21.054 Z-6.829
X-20.514 Z-7.218
X-19.986 Z-7.625
X-19.474 Z-8.044
X-18.975 Z-8.478
X-18.49 Z-8.929
X-18.054 Z-9.36
X-17.595 Z-9.842
X-17.186 Z-10.306
X-16.762 Z-10.821
X-16.389 Z-11.307
X-16.034 Z-11.806
X-15.698 Z-12.32
X-15.354 Z-12.89
X-15.06 Z-13.428
X-14.787 Z-13.977
X-14.631 Z-14.322
X-14.61 Z-14.352
X-14.579 Z-14.373
X-14.542 Z-14.38
X-13.84
G3 X-13.548 Y-113.889 I0 J0.293
G1 Y-113.499
G3 X-13.84 Y-113.207 I-0.293 J0
G1 X-13.877 Z-14.373
X-13.908 Z-14.353
X-13.93 Z-14.322
X-13.932 Z-14.317
X-14.084 Z-13.971
X-14.356 Z-13.418
X-14.65 Z-12.875
X-14.962 Z-12.348
X-15.296 Z-11.828
X-15.674 Z-11.286
X-16.044 Z-10.796
X-16.43 Z-10.321
X-16.865 Z-9.822
X-17.285 Z-9.368
X-17.717 Z-8.933
X-18.199 Z-8.478
X-18.693 Z-8.039
X-19.16 Z-7.648
X-19.685 Z-7.236
X-20.216 Z-6.842
X-20.759 Z-6.464
X-21.312 Z-6.1
X-21.833 Z-5.775
X-22.45 Z-5.415
X-23.071 Z-5.071
X-23.658 Z-4.767
X-24.251 Z-4.474
X-25.069 Z-4.097
X-25.895 Z-3.74
X-26.779 Z-3.385
X-27.717 Z-3.036
X-28.612 Z-2.725
X-29.518 Z-2.429
X-30.424 Z-2.149
X-31.38 Z-1.871
X-32.851 Z-1.472
X-34.46 Z-1.069
X-35.896 Z-0.737
X-37.152 Z-0.46
X-38.519 Z-0.179
X-39.799 Z0.072
X-39.964 Z0.099
X-50.339 Z0.097
X-50.391 Z0.064
X-50.413 Z0.016
X-50.414 Z-2.9
X-67.586
X-67.589 Z0.024
X-67.615 Z0.071
X-67.663 Z0.097
X-78.061
X-78.831 Z-0.05
X-79.995 Z-0.281
X-81.52 Z-0.605
X-83.043 Z-0.95
X-84.418 Z-1.286
X-85.055 Z-1.448
X-86.279 Z-1.776
X-87.689 Z-2.183
X-89.115 Z-2.633
X-90.416 Z-3.084
X-91.521 Z-3.503
X-92.613 Z-3.956
X-93.685 Z-4.443
X-94.661 Z-4.93
X-95.652 Z-5.473
X-96.579 Z-6.03
X-97.126 Z-6.387
X-97.556 Z-6.68
X-98.012 Z-7.008
X-98.427 Z-7.322
X-98.871 Z-7.674
X-99.263 Z-8.001
X-99.685 Z-8.373
X-100.063 Z-8.722
X-100.436 Z-9.084
X-100.792 Z-9.449
X-101.173 Z-9.864
X-101.515 Z-10.257
X-101.846 Z-10.658
X-102.17 Z-11.074
X-102.463 Z-11.478
X-102.754 Z-11.903
X-103.034 Z-12.342
X-103.298 Z-12.784
X-103.548 Z-13.235
X-103.768 Z-13.661
X-104.068 Z-14.313
X-104.384 Y-112.751
X-104.531 Y-112.539 Z-14.312
X-104.552 Y-112.508
X-104.593 Y-112.447
X-104.736 Y-112.232
X-104.441 Z-13.659
X-104.225 Z-13.231
X-103.981 Z-12.783
X-103.719 Z-12.339
X-103.444 Z-11.903
X-103.153 Z-11.472
X-102.853 Z-11.054
X-102.538 Z-10.64
X-102.216 Z-10.244
X-101.877 Z-9.85
X-101.531 Z-9.469
X-101.172 Z-9.092
X-100.81 Z-8.732
X-100.399 Z-8.348
X-100.011 Z-8.002
X-99.619 Z-7.668
X-99.224 Z-7.346
X-98.777 Z-7.004
X-98.359 Z-6.696
X-97.898 Z-6.373
X-97.43 Z-6.063
X-96.487 Z-5.48
X-95.501 Z-4.928
X-94.518 Z-4.427
X-93.534 Z-3.968
X-92.495 Z-3.524
X-91.44 Z-3.11
X-90.108 Z-2.632
X-88.722 Z-2.18
X-87.362 Z-1.772
X-85.998 Z-1.393
X-84.536 Z-1.016
X-83.217 Z-0.695
X-81.928 Z-0.399
X-80.919 Z-0.178
X-79.588 Z0.098
X-68.272 Z0.1
X-67.519 Z0.095
X-67.478 Z0.071
X-67.451 Z0.022
X-67.449 Z-2.9
X-50.551
X-50.547 Z0.028
X-50.514 Z0.077
X-50.468 Z0.099
X-38.419
X-37.478 Z-0.095
X-35.888 Z-0.44
X-34.912 Z-0.667
X-33.295 Z-1.057
X-31.737 Z-1.465
X-30.32 Z-1.865
X-29.458 Z-2.125
X-28.555 Z-2.412
X-27.656 Z-2.714
X-26.724 Z-3.049
X-25.835 Z-3.391
X-25.007 Z-3.733
X-24.19 Z-4.093
X-23.409 Z-4.464
X-22.813 Z-4.763
X-22.234 Z-5.072
X-21.611 Z-5.423
X-21.08 Z-5.741
X-20.521 Z-6.095
X-19.971 Z-6.463
X-19.467 Z-6.823
X-18.9 Z-7.249
X-18.425 Z-7.631
X-17.954 Z-8.032
X-17.459 Z-8.478
X-17.016 Z-8.903
X-16.555 Z-9.377
X-16.141 Z-9.83
X-15.707 Z-10.336
X-15.322 Z-10.82
X-14.958 Z-11.314
X-14.609 Z-11.823
X-14.278 Z-12.344
X-13.966 Z-12.877
X-13.679 Z-13.417
X-13.414 Z-13.969
X-13.264 Z-14.315
X-13.242 Z-14.346
X-13.211 Z-14.367
X-13.174 Z-14.374
X-12.529
X-12.496 Y-112.23
X-12.464 Y-112.224
X-12.432 Y-112.215
X-12.402 Y-112.203
X-12.373 Y-112.187
X-12.346 Y-112.168 Z-14.375
X-12.322 Y-112.146
X-12.3 Y-112.122
X-12.281 Y-112.095 Z-14.376
X-12.265 Y-112.066
X-12.253 Y-112.036
X-12.244 Y-112.004 Z-14.377
X-12.238 Y-111.972
X-12.236 Y-111.939 Z-14.378
Y-111.549 Z-14.383
X-12.238 Y-111.517
X-12.244 Y-111.484
X-12.253 Y-111.453 Z-14.384
X-12.265 Y-111.422
X-12.281 Y-111.394 Z-14.385
X-12.3 Y-111.367
X-12.322 Y-111.342
X-12.346 Y-111.321 Z-14.386
X-12.373 Y-111.302
X-12.402 Y-111.286
X-12.432 Y-111.273
X-12.464 Y-111.264
X-12.496 Y-111.259
X-12.529 Y-111.257
X-12.566 Z-14.379
X-12.597 Z-14.358
X-12.618 Z-14.327
X-12.767 Z-13.979
X-13.032 Z-13.421
X-13.316 Z-12.879
X-13.622 Z-12.343
X-13.95 Z-11.821
X-14.297 Z-11.31
X-14.658 Z-10.814
X-15.039 Z-10.327
X-15.429 Z-9.861
X-15.876 Z-9.366
X-16.302 Z-8.922
X-16.774 Z-8.46
X-17.226 Z-8.045
X-17.728 Z-7.613
X-18.207 Z-7.222
X-18.698 Z-6.844
X-19.234 Z-6.457
X-19.78 Z-6.083
X-20.296 Z-5.75
X-20.861 Z-5.406
X-21.397 Z-5.095
X-22.025 Z-4.755
X-22.57 Z-4.473
X-23.337 Z-4.101
X-24.113 Z-3.748
X-24.987 Z-3.38
X-25.829 Z-3.047
X-26.673 Z-2.734
X-27.613 Z-2.407
X-28.519 Z-2.111
X-29.379 Z-1.845
X-30.792 Z-1.432
X-32.203 Z-1.049
X-33.862 Z-0.631
X-34.788 Z-0.406
X-36.604 Z0.007
X-37.025 Z0.098
X-50.607
X-50.657 Z0.073
X-50.686 Z0.02
X-50.689 Z-2.9
X-67.312
X-67.314 Z0.023
X-67.344 Z0.074
X-67.399 Z0.099
X-80.976 Z0.098
X-81.973 Z-0.121
X-82.982 Z-0.353
X-84.303 Z-0.669
X-85.633 Z-1.007
X-87.092 Z-1.4
X-88.396 Z-1.776
X-89.707 Z-2.183
X-91.003 Z-2.619
X-92.286 Z-3.091
X-93.334 Z-3.512
X-94.364 Z-3.962
X-95.341 Z-4.427
X-96.304 Z-4.93
X-97.243 Z-5.467
X-98.16 Z-6.042
X-98.664 Z-6.385
X-99.118 Z-6.709
X-99.539 Z-7.023
X-99.931 Z-7.332
X-100.329 Z-7.66
X-100.722 Z-7.999
X-101.108 Z-8.348
X-101.513 Z-8.738
X-101.879 Z-9.107
X-102.231 Z-9.482
X-102.577 Z-9.869
X-102.88 Z-10.227
X-103.227 Z-10.664
X-103.536 Z-11.077
X-103.833 Z-11.498
X-104.095 Z-11.89
X-104.37 Z-12.331
X-104.626 Z-12.773
X-104.869 Z-13.227
X-105.08 Z-13.65
X-105.382 Z-14.323
X-105.403 Z-14.353
X-105.434 Z-14.374
X-105.471 Z-14.381
X-106.083
G2 X-106.375 Y-110.964 I0 J0.292
G1 Y-110.574
G2 X-106.083 Y-110.282 I0.292 J0
G1 X-106.046 Z-14.374
X-106.015 Z-14.354
X-105.993 Z-14.323
X-105.987 Z-14.31
X-105.695 Z-13.651
X-105.486 Z-13.226
X-105.245 Z-12.771
X-104.99 Z-12.324
X-104.74 Z-11.916
X-104.463 Z-11.492
X-104.167 Z-11.069
X-103.857 Z-10.651
X-103.539 Z-10.246
X-103.207 Z-9.846
X-102.87 Z-9.462
X-102.516 Z-9.082
X-102.152 Z-8.711
X-101.782 Z-8.352
X-101.401 Z-7.998
X-101.053 Z-7.693
X-100.622 Z-7.332
X-100.216 Z-7.008
X-99.803 Z-6.693
X-99.386 Z-6.391
X-98.888 Z-6.048
X-97.977 Z-5.464
X-97.061 Z-4.93
X-96.125 Z-4.432
X-95.191 Z-3.976
X-94.2 Z-3.531
X-93.161 Z-3.102
X-91.926 Z-2.635
X-90.68 Z-2.202
X-89.423 Z-1.799
X-88.067 Z-1.394
X-86.7 Z-1.011
X-85.27 Z-0.634
X-83.695 Z-0.243
X-82.243 Z0.098
X-67.305 Z0.1
X-67.238 Z0.093
X-67.2 Z0.066
X-67.177 Z0.023
X-67.175 Z-2.9
X-50.826
X-50.824 Z0.016
X-50.8 Z0.066
X-50.749 Z0.097
X-35.792 Z0.1
X-35.696 Z0.085
X-33.748 Z-0.379
X-32.87 Z-0.6
X-31.169 Z-1.047
X-29.798 Z-1.432
X-28.434 Z-1.844
X-27.572 Z-2.119
X-26.629 Z-2.438
X-25.827 Z-2.726
X-24.985 Z-3.045
X-24.106 Z-3.401
X-23.363 Z-3.723
X-22.57 Z-4.089
X-21.783 Z-4.48
X-21.256 Z-4.756
X-20.698 Z-5.067
X-20.123 Z-5.404
X-19.56 Z-5.753
X-19.048 Z-6.091
X-18.5 Z-6.471
X-18.006 Z-6.836
X-17.523 Z-7.215
X-17.013 Z-7.636
X-16.552 Z-8.041
X-16.104 Z-8.461
X-15.634 Z-8.927
X-15.209 Z-9.375
X-14.802 Z-9.835
X-14.408 Z-10.312
X-14.032 Z-10.798
X-13.669 Z-11.3
X-13.337 Z-11.794
X-13.003 Z-12.336
X-12.701 Z-12.869
X-12.418 Z-13.417
X-12.158 Z-13.97
X-12.012 Z-14.314
X-11.882 Y-110.07
X-11.863 Y-110.04
X-11.428 Y-109.307
X-11.574 Z-13.966
X-11.832 Z-13.412
X-12.111 Z-12.867
X-12.414 Z-12.327
X-12.736 Z-11.799
X-13.073 Z-11.286
X-13.432 Z-10.783
X-13.806 Z-10.297
X-14.195 Z-9.822
X-14.602 Z-9.356
X-14.987 Z-8.941
X-15.457 Z-8.469
X-15.906 Z-8.043
X-16.364 Z-7.633
X-16.834 Z-7.238
X-17.356 Z-6.824
X-17.847 Z-6.456
X-18.348 Z-6.1
X-18.903 Z-5.731
X-19.422 Z-5.402
X-19.949 Z-5.087
X-20.525 Z-4.761
X-21.066 Z-4.47
X-21.828 Z-4.086
X-22.56 Z-3.739
X-23.384 Z-3.376
X-24.171 Z-3.05
X-25.015 Z-2.721
X-25.86 Z-2.412
X-26.671 Z-2.131
X-27.521 Z-1.851
X-28.836 Z-1.442
X-30.199 Z-1.046
X-31.987 Z-0.559
X-32.817 Z-0.344
X-34.586 Z0.095
X-35.475 Z0.1
X-50.88 Z0.098
X-50.924 Z0.079
X-50.958 Z0.029
X-50.963 Z-2.9
X-67.038
X-67.04 Z0.023
X-67.063 Z0.066
X-67.106 Z0.095
X-67.223 Z0.1
X-83.395 Z0.098
X-84.866 Z-0.262
X-86.415 Z-0.665
X-87.683 Z-1.012
X-88.996 Z-1.392
X-90.303 Z-1.795
X-91.556 Z-2.208
X-92.754 Z-2.635
X-93.985 Z-3.113
X-94.981 Z-3.534
X-95.921 Z-3.964
X-96.856 Z-4.428
X-97.806 Z-4.946
X-98.681 Z-5.465
X-99.57 Z-6.044
X-100.023 Z-6.361
X-100.475 Z-6.695
X-100.886 Z-7.013
X-101.29 Z-7.34
X-101.678 Z-7.67
X-102.065 Z-8.017
X-102.44 Z-8.369
X-102.81 Z-8.734
X-103.138 Z-9.073
X-103.517 Z-9.489
X-103.853 Z-9.879
X-104.149 Z-10.24
X-104.469 Z-10.651
X-104.774 Z-11.067
X-105.063 Z-11.488
X-105.342 Z-11.922
X-105.586 Z-12.326
X-105.839 Z-12.774
X-106.078 Z-13.231
X-106.288 Z-13.662
X-106.572 Z-14.311
X-106.594 Z-14.342
X-106.625 Z-14.362
X-106.662 Z-14.369
X-107.221
X-107.254 Y-109.305
X-107.286 Y-109.3
X-107.317 Y-109.291
X-107.348 Y-109.278
X-107.376 Y-109.262
X-107.403 Y-109.243 Z-14.37
X-107.428 Y-109.221
X-107.449 Y-109.197
X-107.468 Y-109.17
X-107.484 Y-109.141
X-107.497 Y-109.111
X-107.506 Y-109.08
X-107.511 Y-109.047 Z-14.371
X-107.513 Y-109.014
Y-108.624 Z-14.373
X-107.511 Y-108.592
X-107.506 Y-108.559
X-107.497 Y-108.528
X-107.484 Y-108.498
X-107.468 Y-108.469 Z-14.374
X-107.449 Y-108.442
X-107.428 Y-108.418
X-107.403 Y-108.396
X-107.376 Y-108.377
X-107.348 Y-108.361
X-107.317 Y-108.348
X-107.286 Y-108.339
X-107.254 Y-108.334
X-107.221 Y-108.332
X-107.184 Z-14.367
X-107.153 Z-14.347
X-107.131 Z-14.316
X-106.853 Z-13.672
X-106.647 Z-13.243
X-106.41 Z-12.785
X-106.159 Z-12.334
X-105.895 Z-11.892
X-105.641 Z-11.495
X-105.352 Z-11.067
X-105.068 Z-10.672
X-104.739 Z-10.244
X-104.442 Z-9.877
X-104.104 Z-9.482
X-103.757 Z-9.096
X-103.403 Z-8.722
X-103.076 Z-8.395
X-102.672 Z-8.01
X-102.29 Z-7.664
X-101.896 Z-7.324
X-101.549 Z-7.037
X-101.097 Z-6.683
X-100.68 Z-6.372
X-100.226 Z-6.048
X-99.363 Z-5.477
X-98.47 Z-4.935
X-97.56 Z-4.433
X-96.633 Z-3.963
X-95.688 Z-3.522
X-94.694 Z-3.094
X-93.511 Z-2.626
X-92.316 Z-2.191
X-91.106 Z-1.783
X-89.893 Z-1.399
X-88.628 Z-1.022
X-87.322 Z-0.652
X-85.781 Z-0.238
X-84.457 Z0.099
X-67.463 Z0.1
X-66.973 Z0.096
X-66.923 Z0.062
X-66.903 Z0.02
X-66.901 Z-2.9
X-51.1
X-51.099 Z0.001
X-51.086 Z0.05
X-51.049 Z0.087
X-50.999 Z0.1
X-33.528 Z0.097
X-32.535 Z-0.157
X-31.2 Z-0.51
X-29.323 Z-1.036
X-27.959 Z-1.445
X-26.693 Z-1.849
X-25.93 Z-2.106
X-25.081 Z-2.406
X-24.234 Z-2.724
X-23.441 Z-3.039
X-22.612 Z-3.389
X-21.878 Z-3.721
X-21.088 Z-4.1
X-20.39 Z-4.46
X-19.809 Z-4.777
X-19.273 Z-5.087
X-18.749 Z-5.406
X-18.192 Z-5.764
X-17.724 Z-6.083
X-17.186 Z-6.47
X-16.693 Z-6.845
X-16.215 Z-7.23
X-15.745 Z-7.633
X-15.287 Z-8.049
X-14.84 Z-8.477
X-14.407 Z-8.92
X-13.992 Z-9.373
X-13.591 Z-9.838
X-13.201 Z-10.319
X-12.829 Z-10.812
X-12.478 Z-11.315
X-12.168 Z-11.793
X-11.851 Z-12.318
X-11.551 Z-12.858
X-11.27 Z-13.41
X-11.027 Z-13.937
X-10.869 Z-14.319
X-10.618 Y-107.876 Z-14.321
X-10.451 Y-107.572 Z-14.322
X-10.435 Y-107.541
X-10.337 Y-107.357 Z-14.323
X-10.48 Z-13.973
X-10.732 Z-13.415
X-11.009 Z-12.862
X-11.305 Z-12.324
X-11.622 Z-11.794
X-11.928 Z-11.318
X-12.276 Z-10.814
X-12.644 Z-10.318
X-13.031 Z-9.834
X-13.433 Z-9.364
X-13.846 Z-8.909
X-14.272 Z-8.468
X-14.68 Z-8.068
X-15.172 Z-7.619
X-15.636 Z-7.217
X-16.115 Z-6.826
X-16.562 Z-6.479
X-17.097 Z-6.09
X-17.607 Z-5.738
X-18.08 Z-5.427
X-18.648 Z-5.077
X-19.178 Z-4.766
X-19.677 Z-4.488
X-20.437 Z-4.091
X-21.164 Z-3.734
X-21.943 Z-3.376
X-22.687 Z-3.055
X-23.521 Z-2.717
X-24.277 Z-2.427
X-25.123 Z-2.119
X-25.929 Z-1.842
X-27.193 Z-1.429
X-28.554 Z-1.011
X-30.422 Z-0.472
X-32.032 Z-0.037
X-32.539 Z0.096
X-46.38 Z0.1
X-51.153 Z0.099
X-51.204 Z0.074
X-51.233 Z0.025
X-51.237 Z-2.9
X-66.763
X-66.766 Z0.022
X-66.788 Z0.066
X-66.836 Z0.096
X-69.553 Z0.1
X-85.458 Z0.097
X-86.814 Z-0.262
X-88.351 Z-0.691
X-89.526 Z-1.034
X-90.742 Z-1.408
X-91.906 Z-1.786
X-93.109 Z-2.202
X-94.265 Z-2.633
X-95.449 Z-3.112
X-96.395 Z-3.529
X-97.295 Z-3.956
X-98.223 Z-4.434
X-99.125 Z-4.942
X-100.006 Z-5.483
X-100.867 Z-6.064
X-101.323 Z-6.394
X-101.699 Z-6.679
X-102.102 Z-7
X-102.53 Z-7.358
X-102.885 Z-7.669
X-103.264 Z-8.016
X-103.631 Z-8.371
X-103.995 Z-8.741
X-104.318 Z-9.086
X-104.661 Z-9.471
X-104.994 Z-9.864
X-105.312 Z-10.262
X-105.624 Z-10.677
X-105.895 Z-11.058
X-106.185 Z-11.491
X-106.461 Z-11.928
X-106.698 Z-12.33
X-106.95 Z-12.785
X-107.188 Z-13.249
X-107.386 Z-13.671
X-107.663 Z-14.319
X-107.902 Y-106.901
X-107.998 Y-106.719
X-108.013 Y-106.689
X-108.168 Y-106.382
X-107.895 Z-13.674
X-107.698 Z-13.251
X-107.464 Z-12.785
X-107.219 Z-12.336
X-106.958 Z-11.892
X-106.708 Z-11.492
X-106.423 Z-11.062
X-106.15 Z-10.676
X-105.843 Z-10.263
X-105.521 Z-9.854
X-105.193 Z-9.462
X-104.881 Z-9.108
X-104.531 Z-8.731
X-104.172 Z-8.362
X-103.804 Z-8.002
X-103.466 Z-7.686
X-103.076 Z-7.342
X-102.679 Z-7.007
X-102.275 Z-6.681
X-101.863 Z-6.363
X-101.452 Z-6.062
X-100.593 Z-5.476
X-99.716 Z-4.929
X-98.854 Z-4.438
X-97.943 Z-3.96
X-97.042 Z-3.524
X-96.098 Z-3.102
X-94.961 Z-2.634
X-93.852 Z-2.212
X-92.693 Z-1.801
X-91.577 Z-1.429
X-90.405 Z-1.059
X-89.045 Z-0.65
X-87.593 Z-0.235
X-86.371 Z0.098
X-66.716 Z0.099
X-66.665 Z0.079
X-66.631 Z0.029
X-66.626 Z-2.9
X-51.374
X-51.373 Z0.002
X-51.366 Z0.038
X-51.334 Z0.08
X-51.285 Z0.099
X-31.626 Z0.097
X-31.235 Z-0.008
X-29.583 Z-0.468
X-27.715 Z-1.022
X-26.397 Z-1.437
X-25.182 Z-1.844
X-24.418 Z-2.114
X-23.618 Z-2.409
X-22.78 Z-2.737
X-22.036 Z-3.045
X-21.251 Z-3.39
X-20.522 Z-3.731
X-19.759 Z-4.111
X-19.091 Z-4.468
X-18.552 Z-4.772
X-18.02 Z-5.088
X-17.536 Z-5.393
X-17.02 Z-5.734
X-16.477 Z-6.113
X-16.022 Z-6.451
X-15.539 Z-6.829
X-15.062 Z-7.223
X-14.596 Z-7.63
X-14.147 Z-8.049
X-13.707 Z-8.484
X-13.283 Z-8.928
X-12.902 Z-9.353
X-12.506 Z-9.821
X-12.126 Z-10.303
X-11.759 Z-10.801
X-11.409 Z-11.312
X-11.103 Z-11.793
X-10.79 Z-12.32
X-10.498 Z-12.859
X-10.226 Z-13.41
X-9.974 Z-13.972
X-9.832 Z-14.323
X-9.619 Y-105.957 Z-14.321
X-9.573 Y-105.866
X-9.559 Y-105.836
X-9.353 Y-105.407 Z-14.319
X-9.493 Z-13.969
X-9.745 Z-13.403
X-10.017 Z-12.848
X-10.283 Z-12.349
X-10.59 Z-11.82
X-10.919 Z-11.301
X-11.264 Z-10.794
X-11.629 Z-10.294
X-11.979 Z-9.844
X-12.372 Z-9.372
X-12.78 Z-8.913
X-13.202 Z-8.467
X-13.636 Z-8.034
X-14.087 Z-7.61
X-14.514 Z-7.23
X-14.985 Z-6.837
X-15.47 Z-6.453
X-15.966 Z-6.081
X-16.432 Z-5.751
X-16.942 Z-5.409
X-17.464 Z-5.076
X-17.99 Z-4.759
X-18.482 Z-4.478
X-19.19 Z-4.095
X-19.908 Z-3.731
X-20.635 Z-3.386
X-21.37 Z-3.057
X-22.155 Z-2.727
X-22.943 Z-2.413
X-23.741 Z-2.112
X-24.499 Z-1.84
X-25.666 Z-1.441
X-26.931 Z-1.032
X-28.841 Z-0.452
X-30.536 Z0.032
X-30.783 Z0.099
X-51.433 Z0.097
X-51.485 Z0.067
X-51.508 Z0.021
X-51.511 Z-2.9
X-66.489
X-66.491 Z0.018
X-66.511 Z0.062
X-66.556 Z0.094
X-66.695 Z0.1
X-87.231 Z0.097
X-88.534 Z-0.27
X-89.896 Z-0.672
X-91.116 Z-1.047
X-92.236 Z-1.408
X-93.395 Z-1.803
X-94.502 Z-2.202
X-95.644 Z-2.645
X-96.738 Z-3.104
X-97.683 Z-3.535
X-98.569 Z-3.969
X-99.448 Z-4.439
X-100.302 Z-4.932
X-101.144 Z-5.465
X-101.991 Z-6.049
X-102.442 Z-6.385
X-102.852 Z-6.705
X-103.25 Z-7.031
X-103.606 Z-7.334
X-103.988 Z-7.679
X-104.328 Z-7.999
X-104.698 Z-8.365
X-105.059 Z-8.739
X-105.375 Z-9.083
X-105.707 Z-9.465
X-106.035 Z-9.863
X-106.351 Z-10.269
X-106.632 Z-10.648
X-106.928 Z-11.071
X-107.211 Z-11.503
X-107.46 Z-11.904
X-107.713 Z-12.343
X-107.959 Z-12.802
X-108.169 Z-13.22
X-108.37 Z-13.654
X-108.647 Z-14.316
X-108.669 Z-14.347
X-108.7 Z-14.368
X-108.737 Z-14.375
X-109.197
X-109.23 Y-105.405
X-109.262 Y-105.4
X-109.294 Y-105.391 Z-14.376
X-109.324 Y-105.378
X-109.353 Y-105.362
X-109.379 Y-105.343
X-109.404 Y-105.322
X-109.426 Y-105.297
X-109.445 Y-105.27
X-109.461 Y-105.242 Z-14.377
X-109.473 Y-105.211
X-109.482 Y-105.18
X-109.488 Y-105.147
X-109.49 Y-105.115
Y-104.725 Z-14.38
X-109.488 Y-104.692
X-109.482 Y-104.66 Z-14.381
X-109.473 Y-104.628
X-109.461 Y-104.598
X-109.445 Y-104.569
X-109.426 Y-104.542 Z-14.382
X-109.404 Y-104.518
X-109.379 Y-104.496
X-109.353 Y-104.477
X-109.324 Y-104.461
X-109.294 Y-104.449
X-109.262 Y-104.44
X-109.23 Y-104.434
X-109.197 Y-104.432
X-109.16 Z-14.375
X-109.128 Z-14.354
X-109.107 Z-14.322
X-108.835 Z-13.666
X-108.637 Z-13.235
X-108.406 Z-12.768
X-108.183 Z-12.352
X-107.928 Z-11.904
X-107.674 Z-11.486
X-107.404 Z-11.073
X-107.108 Z-10.645
X-106.828 Z-10.264
X-106.512 Z-9.856
X-106.217 Z-9.494
X-105.882 Z-9.103
X-105.554 Z-8.74
X-105.213 Z-8.383
X-104.846 Z-8.016
X-104.473 Z-7.661
X-104.123 Z-7.343
X-103.767 Z-7.034
X-103.341 Z-6.682
X-102.97 Z-6.39
X-102.521 Z-6.051
X-101.713 Z-5.485
X-100.874 Z-4.948
X-100.025 Z-4.447
X-99.153 Z-3.976
X-98.27 Z-3.535
X-97.332 Z-3.101
X-96.244 Z-2.638
X-95.15 Z-2.206
X-94.041 Z-1.797
X-92.929 Z-1.413
X-91.766 Z-1.03
X-90.593 Z-0.661
X-89.152 Z-0.227
X-88.021 Z0.098
X-66.435
X-66.386 Z0.075
X-66.356 Z0.026
X-66.352 Z-2.9
X-51.648
X-51.644 Z0.026
X-51.615 Z0.073
X-51.57 Z0.097
X-40.234 Z0.1
X-29.966 Z0.096
X-29.76 Z0.037
X-28.114 Z-0.446
X-26.304 Z-1.008
X-25.041 Z-1.423
X-23.83 Z-1.844
X-23.07 Z-2.123
X-22.319 Z-2.412
X-21.524 Z-2.734
X-20.784 Z-3.05
X-20.051 Z-3.383
X-19.326 Z-3.732
X-18.606 Z-4.103
X-17.937 Z-4.469
X-17.444 Z-4.756
X-16.915 Z-5.078
X-16.399 Z-5.41
X-15.93 Z-5.729
X-15.427 Z-6.09
X-14.938 Z-6.461
X-14.458 Z-6.844
X-14.023 Z-7.215
X-13.563 Z-7.628
X-13.118 Z-8.051
X-12.682 Z-8.49
X-12.296 Z-8.904
X-11.891 Z-9.365
X-11.501 Z-9.839
X-11.152 Z-10.291
X-10.792 Z-10.787
X-10.446 Z-11.3
X-10.118 Z-11.825
X-9.837 Z-12.315
X-9.547 Z-12.861
X-9.277 Z-13.418
X-9.05 Z-13.935
X-8.893 Z-14.326
X-8.89 Z-14.334
X-8.869 Z-14.366
X-8.837 Z-14.388
X-8.799 Z-14.396
X-8.364
G3 X-8.072 Y-104.14 I0 J0.293
G1 Y-103.75
G3 X-8.364 Y-103.457 I-0.292 J0
G1 X-8.402 Z-14.388
X-8.434 Z-14.367
X-8.455 Z-14.334
X-8.611 Z-13.942
X-8.838 Z-13.42
X-9.103 Z-12.869
X-9.39 Z-12.321
X-9.67 Z-11.83
X-9.991 Z-11.309
X-10.333 Z-10.798
X-10.694 Z-10.296
X-11.037 Z-9.847
X-11.426 Z-9.371
X-11.828 Z-8.907
X-12.214 Z-8.487
X-12.644 Z-8.049
X-13.091 Z-7.621
X-13.546 Z-7.209
X-13.98 Z-6.837
X-14.46 Z-6.447
X-14.914 Z-6.1
X-15.411 Z-5.74
X-15.917 Z-5.392
X-16.395 Z-5.079
X-16.922 Z-4.755
X-17.411 Z-4.468
X-18.092 Z-4.089
X-18.791 Z-3.726
X-19.518 Z-3.371
X-20.206 Z-3.054
X-20.988 Z-2.715
X-21.689 Z-2.427
X-22.487 Z-2.115
X-23.197 Z-1.85
X-24.36 Z-1.437
X-25.62 Z-1.015
X-27.386 Z-0.454
X-29.121 Z0.066
X-29.235 Z0.098
X-36.707 Z0.099
X-36.801 Z0.076
X-36.86 Z0.036
X-36.873 Z0.001
Z-3.4
X-41.833
X-41.837 Z0.02
X-41.867 Z0.057
X-41.939 Z0.09
X-42.024 Z0.1
X-51.698 Z0.099
X-51.751 Z0.075
X-51.78 Z0.03
X-51.785 Z-2.9
X-66.215
X-66.218 Z0.022
X-66.241 Z0.067
X-66.295 Z0.098
X-76.005
X-76.108 Z0.071
X-76.155 Z0.034
X-76.168 Z0
Z-3.4
X-81.128
X-81.132 Z0.02
X-81.162 Z0.057
X-81.234 Z0.09
X-81.319 Z0.1
X-88.778 Z0.096
X-90.118 Z-0.302
X-91.379 Z-0.693
X-92.528 Z-1.063
X-93.623 Z-1.432
X-94.688 Z-1.809
X-95.746 Z-2.204
X-96.838 Z-2.642
X-97.922 Z-3.112
X-98.815 Z-3.531
X-99.666 Z-3.961
X-100.532 Z-4.435
X-101.384 Z-4.941
X-102.212 Z-5.479
X-103.018 Z-6.049
X-103.465 Z-6.389
X-103.827 Z-6.677
X-104.225 Z-7.011
X-104.616 Z-7.354
X-104.96 Z-7.669
X-105.335 Z-8.029
X-105.661 Z-8.358
X-106.017 Z-8.736
X-106.329 Z-9.084
X-106.663 Z-9.477
X-106.99 Z-9.881
X-107.277 Z-10.257
X-107.579 Z-10.673
X-107.844 Z-11.058
X-108.127 Z-11.496
X-108.388 Z-11.93
X-108.621 Z-12.342
X-108.864 Z-12.803
X-109.072 Z-13.227
X-109.271 Z-13.664
X-109.545 Z-14.33
X-109.566 Z-14.362
X-109.598 Z-14.383
X-109.635 Z-14.39
X-110.048
G2 X-110.34 Y-103.165 I0 J0.293
G1 Y-102.775
G2 X-110.048 Y-102.482 I0.292 J0
G1 X-110.01 Z-14.383
X-109.979 Z-14.362
X-109.957 Z-14.33
X-109.956 Z-14.325
X-109.691 Z-13.676
X-109.496 Z-13.242
X-109.268 Z-12.774
X-109.051 Z-12.36
X-108.796 Z-11.905
X-108.561 Z-11.512
X-108.281 Z-11.074
X-107.988 Z-10.644
X-107.715 Z-10.265
X-107.403 Z-9.854
X-107.107 Z-9.485
X-106.775 Z-9.092
X-106.465 Z-8.742
X-106.111 Z-8.361
X-105.787 Z-8.031
X-105.413 Z-7.669
X-105.067 Z-7.349
X-104.681 Z-7.008
X-104.325 Z-6.707
X-103.921 Z-6.38
X-103.5 Z-6.055
X-102.672 Z-5.463
X-101.879 Z-4.944
X-101.038 Z-4.437
X-100.171 Z-3.957
X-99.331 Z-3.527
X-98.435 Z-3.102
X-97.397 Z-2.647
X-96.307 Z-2.202
X-95.242 Z-1.798
X-94.179 Z-1.417
X-93.151 Z-1.065
X-92.124 Z-0.727
X-90.816 Z-0.313
X-89.474 Z0.096
X-82.515 Z0.1
X-82.407 Z0.094
X-82.351 Z0.063
X-82.325 Z0.019
X-82.322 Z-3.4
X-74.976
Z0
X-74.963 Z0.043
X-74.924 Z0.079
X-74.869 Z0.098
X-66.21 Z0.1
X-66.142 Z0.093
X-66.1 Z0.061
X-66.08 Z0.015
X-66.078 Z-2.9
X-51.922
X-51.919 Z0.021
X-51.892 Z0.071
X-51.839 Z0.098
X-43.221 Z0.1
X-43.112 Z0.094
X-43.057 Z0.064
X-43.03 Z0.02
X-43.028 Z-3.4
X-35.681
Z0
X-35.676 Z0.028
X-35.639 Z0.073
X-35.569 Z0.099
X-29.003 Z0.1
X-28.524 Z0.095
X-26.816 Z-0.428
X-25.007 Z-1.012
X-23.789 Z-1.428
X-22.629 Z-1.846
X-21.92 Z-2.114
X-21.172 Z-2.411
X-20.429 Z-2.721
X-19.692 Z-3.045
X-19.001 Z-3.367
X-18.279 Z-3.723
X-17.563 Z-4.1
X-16.903 Z-4.472
X-16.432 Z-4.751
X-15.896 Z-5.087
X-15.419 Z-5.402
X-14.95 Z-5.728
X-14.463 Z-6.083
X-14.003 Z-6.44
X-13.524 Z-6.833
X-13.06 Z-7.234
X-12.638 Z-7.62
X-12.197 Z-8.047
X-11.799 Z-8.457
X-11.385 Z-8.909
X-10.981 Z-9.378
X-10.623 Z-9.822
X-10.248 Z-10.314
X-9.918 Z-10.78
X-9.578 Z-11.291
X-9.254 Z-11.818
X-8.974 Z-12.313
X-8.691 Z-12.857
X-8.424 Z-13.415
X-8.182 Z-13.977
X-8.044 Z-14.33
X-8.023 Z-14.362
X-7.991 Z-14.384
X-7.953 Z-14.392
X-7.563
G3 X-7.27 Y-102.19 I0 J0.293
G1 Y-101.8
G3 X-7.563 Y-101.507 I-0.293 J0
G1 X-7.601 Z-14.384
X-7.633 Z-14.362
X-7.654 Z-14.33
X-7.657 Z-14.32
X-7.794 Z-13.968
X-8.038 Z-13.399
X-8.301 Z-12.845
X-8.562 Z-12.34
X-8.868 Z-11.794
X-9.182 Z-11.281
X-9.495 Z-10.805
X-9.849 Z-10.303
X-10.191 Z-9.847
X-10.579 Z-9.364
X-10.98 Z-8.895
X-11.364 Z-8.471
X-11.755 Z-8.063
X-12.198 Z-7.63
X-12.649 Z-7.215
X-13.08 Z-6.839
X-13.552 Z-6.448
X-14.002 Z-6.095
X-14.457 Z-5.757
X-14.959 Z-5.405
X-15.471 Z-5.065
X-15.954 Z-4.759
X-16.439 Z-4.467
X-17.102 Z-4.091
X-17.77 Z-3.734
X-18.451 Z-3.392
X-19.184 Z-3.046
X-19.919 Z-2.718
X-20.616 Z-2.424
X-21.407 Z-2.106
X-22.074 Z-1.849
X-23.251 Z-1.419
X-24.444 Z-1.006
X-26.2 Z-0.428
X-27.882 Z0.097
X-34.904 Z0.099
X-34.96 Z0.079
X-34.993 Z0.042
X-35.004 Z0
Z-3.4
X-43.706
X-43.71 Z0.027
X-43.734 Z0.067
X-43.785 Z0.096
X-51.541 Z0.1
X-51.981 Z0.097
X-52.032 Z0.068
X-52.057 Z0.018
X-52.059 Z-2.9
X-65.941
X-65.945 Z0.025
X-65.975 Z0.074
X-66.025 Z0.098
X-74.208
X-74.251 Z0.081
X-74.287 Z0.044
X-74.298 Z0.002
X-74.302 Z-3.4
X-83
X-83.003 Z0.023
X-83.026 Z0.064
X-83.079 Z0.096
X-89.652 Z0.1
X-90.112 Z0.098
X-91.327 Z-0.277
X-92.629 Z-0.697
X-93.655 Z-1.039
X-94.791 Z-1.434
X-95.831 Z-1.814
X-96.845 Z-2.205
X-97.927 Z-2.652
X-98.973 Z-3.119
X-99.819 Z-3.525
X-100.665 Z-3.964
X-101.526 Z-4.446
X-102.34 Z-4.943
X-103.131 Z-5.466
X-103.932 Z-6.044
X-104.375 Z-6.389
X-104.738 Z-6.685
X-105.133 Z-7.022
X-105.485 Z-7.336
X-105.861 Z-7.688
X-106.199 Z-8.017
X-106.518 Z-8.345
X-106.871 Z-8.727
X-107.211 Z-9.114
X-107.514 Z-9.477
X-107.834 Z-9.881
X-108.119 Z-10.258
X-108.42 Z-10.682
X-108.684 Z-11.074
X-108.938 Z-11.472
X-109.218 Z-11.944
X-109.448 Z-12.358
X-109.665 Z-12.777
X-109.892 Z-13.246
X-110.084 Z-13.677
X-110.343 Z-14.316
X-110.52 Y-101.052 Z-14.317
X-110.567 Y-100.93
X-110.578 Y-100.9
X-110.679 Y-100.624 Z-14.318
X-110.713 Y-100.533
X-110.453 Z-13.671
X-110.258 Z-13.232
X-110.037 Z-12.771
X-109.818 Z-12.346
X-109.583 Z-11.921
X-109.332 Z-11.496
X-109.054 Z-11.056
X-108.794 Z-10.667
X-108.496 Z-10.246
X-108.213 Z-9.868
X-107.893 Z-9.463
X-107.595 Z-9.103
X-107.285 Z-8.748
X-106.934 Z-8.364
X-106.587 Z-8.003
X-106.25 Z-7.672
X-105.907 Z-7.349
X-105.524 Z-7.004
X-105.169 Z-6.7
X-104.805 Z-6.4
X-104.363 Z-6.052
X-103.569 Z-5.473
X-102.78 Z-4.945
X-101.937 Z-4.425
X-101.124 Z-3.966
X-100.279 Z-3.524
X-99.431 Z-3.111
X-98.392 Z-2.643
X-97.35 Z-2.207
X-96.289 Z-1.793
X-95.275 Z-1.418
X-94.3 Z-1.074
X-93.222 Z-0.707
X-91.972 Z-0.297
X-90.713 Z0.099
X-83.475
X-83.419 Z0.074
X-83.389 Z0.025
X-83.386 Z-3.4
X-73.907
X-73.905 Z0.02
X-73.876 Z0.072
X-73.829 Z0.097
X-71.563 Z0.1
X-65.875 Z0.095
X-65.832 Z0.068
X-65.808 Z0.027
X-65.804 Z-2.9
X-52.196
X-52.193 Z0.022
X-52.166 Z0.071
X-52.119 Z0.097
X-44.18 Z0.099
X-44.125 Z0.074
X-44.095 Z0.026
X-44.091 Z-3.4
X-34.613
Z0
X-34.599 Z0.049
X-34.566 Z0.084
X-34.51 Z0.1
X-27.274 Z0.096
X-25.594 Z-0.438
X-23.837 Z-1.026
X-22.722 Z-1.419
X-21.566 Z-1.848
X-20.855 Z-2.125
X-20.154 Z-2.411
X-19.453 Z-2.711
X-18.715 Z-3.043
X-18.031 Z-3.37
X-17.313 Z-3.733
X-16.642 Z-4.095
X-15.986 Z-4.472
X-15.502 Z-4.767
X-15.025 Z-5.072
X-14.55 Z-5.39
X-14.045 Z-5.747
X-13.592 Z-6.087
X-13.11 Z-6.468
X-12.676 Z-6.831
X-12.215 Z-7.237
X-11.797 Z-7.627
X-11.376 Z-8.041
X-10.969 Z-8.468
X-10.556 Z-8.928
X-10.191 Z-9.36
X-9.808 Z-9.84
X-9.467 Z-10.297
X-9.116 Z-10.8
X-8.78 Z-11.314
X-8.485 Z-11.802
X-8.186 Z-12.338
X-7.927 Z-12.845
X-7.664 Z-13.404
X-7.423 Z-13.969
X-7.287 Z-14.322
X-7.121 Y-100.077 Z-14.321
X-7.054 Y-99.894
X-7.043 Y-99.864
X-6.939 Y-99.558
X-7.073 Z-13.968
X-7.315 Z-13.399
X-7.555 Z-12.882
X-7.832 Z-12.337
X-8.132 Z-11.796
X-8.449 Z-11.272
X-8.757 Z-10.796
X-9.11 Z-10.289
X-9.447 Z-9.834
X-9.831 Z-9.349
X-10.195 Z-8.915
X-10.604 Z-8.458
X-11.013 Z-8.026
X-11.437 Z-7.607
X-11.85 Z-7.22
X-12.277 Z-6.84
X-12.751 Z-6.442
X-13.197 Z-6.086
X-13.653 Z-5.741
X-14.117 Z-5.409
X-14.626 Z-5.065
X-15.107 Z-4.755
X-15.59 Z-4.459
X-16.203 Z-4.102
X-16.911 Z-3.718
X-17.585 Z-3.374
X-18.271 Z-3.042
X-18.96 Z-2.727
X-19.7 Z-2.408
X-20.444 Z-2.101
X-21.104 Z-1.841
X-22.214 Z-1.423
X-23.376 Z-1.009
X-25.131 Z-0.414
X-26.718 Z0.098
X-34.362 Z0.099
X-34.414 Z0.073
X-34.441 Z0.026
X-34.445 Z-3.4
X-44.262
X-44.266 Z0.026
X-44.296 Z0.075
X-44.351 Z0.099
X-52.256 Z0.097
X-52.308 Z0.066
X-52.33 Z0.021
X-52.333 Z-2.9
X-65.667
X-65.67 Z0.024
X-65.698 Z0.072
X-65.753 Z0.099
X-73.663 Z0.097
X-73.714 Z0.067
X-73.738 Z0.017
X-73.74 Z-3.4
X-83.557
X-83.561 Z0.026
X-83.591 Z0.075
X-83.646 Z0.099
X-91.291 Z0.096
X-92.682 Z-0.352
X-93.847 Z-0.742
X-94.779 Z-1.064
X-95.753 Z-1.411
X-96.814 Z-1.81
X-97.82 Z-2.208
X-98.83 Z-2.635
X-99.854 Z-3.101
X-100.705 Z-3.519
X-101.54 Z-3.959
X-102.391 Z-4.448
X-103.196 Z-4.949
X-103.983 Z-5.479
X-104.769 Z-6.059
X-105.206 Z-6.406
X-105.569 Z-6.708
X-105.925 Z-7.017
X-106.275 Z-7.334
X-106.648 Z-7.689
X-106.998 Z-8.037
X-107.328 Z-8.384
X-107.645 Z-8.733
X-107.951 Z-9.087
X-108.282 Z-9.488
X-108.573 Z-9.86
X-108.882 Z-10.278
X-109.154 Z-10.665
X-109.438 Z-11.094
X-109.687 Z-11.491
X-109.95 Z-11.94
X-110.168 Z-12.337
X-110.405 Z-12.801
X-110.608 Z-13.227
X-110.8 Z-13.661
X-111.061 Z-14.317
X-111.218 Y-99.101 Z-14.318
X-111.302 Y-98.858 Z-14.319
X-111.312 Y-98.828
X-111.39 Y-98.583
X-111.138 Z-13.682
X-110.951 Z-13.253
X-110.728 Z-12.781
X-110.518 Z-12.368
X-110.272 Z-11.917
X-110.036 Z-11.512
X-109.764 Z-11.075
X-109.504 Z-10.68
X-109.207 Z-10.253
X-108.929 Z-9.877
X-108.611 Z-9.466
X-108.312 Z-9.101
X-108.003 Z-8.742
X-107.655 Z-8.356
X-107.334 Z-8.017
X-107.004 Z-7.686
X-106.666 Z-7.363
X-106.287 Z-7.015
X-105.931 Z-6.705
X-105.536 Z-6.374
X-105.134 Z-6.053
X-104.368 Z-5.483
X-103.57 Z-4.94
X-102.765 Z-4.436
X-101.948 Z-3.963
X-101.119 Z-3.522
X-100.274 Z-3.102
X-99.291 Z-2.65
X-98.248 Z-2.204
X-97.265 Z-1.809
X-96.273 Z-1.434
X-95.277 Z-1.071
X-94.231 Z-0.706
X-93.157 Z-0.342
X-91.814 Z0.097
X-83.61 Z0.098
X-83.564 Z0.077
X-83.531 Z0.027
X-83.528 Z-3.4
X-73.764
Z0.002
X-73.757 Z0.035
X-73.724 Z0.079
X-73.675 Z0.099
X-65.606 Z0.097
X-65.556 Z0.066
X-65.534 Z0.026
X-65.53 Z-2.9
X-52.47
X-52.467 Z0.022
X-52.44 Z0.071
X-52.39 Z0.098
X-44.316
X-44.263 Z0.071
X-44.235 Z0.022
X-44.233 Z-3.4
X-34.469
X-34.466 Z0.024
X-34.438 Z0.073
X-34.383 Z0.099
X-26.189 Z0.098
X-24.57 Z-0.433
X-22.863 Z-1.021
X-21.748 Z-1.425
X-20.635 Z-1.849
X-19.971 Z-2.114
X-19.268 Z-2.407
X-18.575 Z-2.709
X-17.838 Z-3.049
X-17.154 Z-3.383
X-16.476 Z-3.733
X-15.809 Z-4.1
X-15.197 Z-4.46
X-14.711 Z-4.76
X-14.235 Z-5.069
X-13.724 Z-5.418
X-13.261 Z-5.753
X-12.807 Z-6.1
X-12.366 Z-6.455
X-11.93 Z-6.824
X-11.469 Z-7.236
X-11.057 Z-7.626
X-10.653 Z-8.03
X-10.233 Z-8.477
X-9.854 Z-8.905
X-9.458 Z-9.38
X-9.109 Z-9.825
X-8.742 Z-10.323
X-8.422 Z-10.789
X-8.088 Z-11.309
X-7.798 Z-11.795
X-7.51 Z-12.314
X-7.242 Z-12.843
X-6.982 Z-13.404
X-6.744 Z-13.97
X-6.61 Z-14.323
X-6.454 Y-98.096 Z-14.322
X-6.376 Y-97.852
X-6.366 Y-97.822 Z-14.321
X-6.357 Y-97.791
X-6.302 Y-97.608
X-6.435 Z-13.967
X-6.674 Z-13.397
X-6.912 Z-12.879
X-7.191 Z-12.327
X-7.464 Z-11.827
X-7.78 Z-11.295
X-8.111 Z-10.778
X-8.434 Z-10.307
X-8.796 Z-9.812
X-9.147 Z-9.362
X-9.508 Z-8.926
X-9.917 Z-8.462
X-10.306 Z-8.044
X-10.708 Z-7.638
X-11.157 Z-7.212
X-11.577 Z-6.833
X-12.008 Z-6.465
X-12.49 Z-6.076
X-12.939 Z-5.731
X-13.398 Z-5.397
X-13.864 Z-5.076
X-14.342 Z-4.763
X-14.824 Z-4.463
X-15.439 Z-4.099
X-16.1 Z-3.731
X-16.768 Z-3.384
X-17.447 Z-3.049
X-18.138 Z-2.727
X-18.83 Z-2.42
X-19.577 Z-2.107
X-20.235 Z-1.842
X-21.302 Z-1.43
X-22.465 Z-1.005
X-24.171 Z-0.411
X-25.696 Z0.098
X-34.612 Z0.099
X-34.669 Z0.071
X-34.697 Z0.023
X-34.7 Z-3.4
X-44.009
X-44.013 Z0.026
X-44.036 Z0.066
X-44.089 Z0.097
X-52.524 Z0.098
X-52.575 Z0.073
X-52.604 Z0.021
X-52.607 Z-2.9
X-65.393
X-65.397 Z0.026
X-65.42 Z0.068
X-65.472 Z0.098
X-73.905 Z0.099
X-73.961 Z0.073
X-73.991 Z0.025
X-73.994 Z-3.4
X-83.304
X-83.307 Z0.026
X-83.331 Z0.066
X-83.384 Z0.097
X-92.299 Z0.098
X-93.602 Z-0.334
X-94.814 Z-0.75
X-95.698 Z-1.064
X-96.678 Z-1.423
X-97.639 Z-1.791
X-98.69 Z-2.217
X-99.683 Z-2.646
X-100.672 Z-3.107
X-101.516 Z-3.529
X-102.342 Z-3.975
X-103.125 Z-4.431
X-103.923 Z-4.934
X-104.694 Z-5.461
X-105.483 Z-6.053
X-105.888 Z-6.379
X-106.282 Z-6.711
X-106.636 Z-7.023
X-106.98 Z-7.339
X-107.321 Z-7.667
X-107.679 Z-8.029
X-108.002 Z-8.373
X-108.315 Z-8.721
X-108.649 Z-9.113
X-108.947 Z-9.48
X-109.233 Z-9.85
X-109.539 Z-10.269
X-109.806 Z-10.654
X-110.09 Z-11.088
X-110.339 Z-11.491
X-110.597 Z-11.936
X-110.823 Z-12.352
X-111.047 Z-12.795
X-111.265 Z-13.262
X-111.438 Z-13.657
X-111.698 Z-14.317
X-111.719 Z-14.35
X-111.751 Z-14.371
X-111.788 Z-14.379
X-112.077
G2 X-112.37 Y-97.315 I0 J0.293
G1 Y-96.925
G2 X-112.077 Y-96.633 I0.292 J0
G1 X-112.039 Z-14.371
X-112.007 Z-14.35
X-111.986 Z-14.317
X-111.984 Z-14.311
X-111.741 Z-13.691
X-111.537 Z-13.217
X-111.344 Z-12.805
X-111.109 Z-12.34
X-110.886 Z-11.928
X-110.629 Z-11.482
X-110.384 Z-11.083
X-110.103 Z-10.65
X-109.834 Z-10.261
X-109.556 Z-9.879
X-109.243 Z-9.47
X-108.949 Z-9.106
X-108.616 Z-8.714
X-108.302 Z-8.362
X-107.979 Z-8.016
X-107.658 Z-7.69
X-107.285 Z-7.328
X-106.942 Z-7.011
X-106.592 Z-6.701
X-106.232 Z-6.396
X-105.795 Z-6.042
X-105.038 Z-5.471
X-104.269 Z-4.939
X-103.472 Z-4.433
X-102.695 Z-3.977
X-101.862 Z-3.523
X-101.029 Z-3.103
X-100.04 Z-2.64
X-99.049 Z-2.207
X-98.039 Z-1.795
X-97.066 Z-1.417
X-96.136 Z-1.073
X-95.199 Z-0.737
X-94.187 Z-0.385
X-92.762 Z0.097
X-82.938 Z0.099
X-82.88 Z0.074
X-82.846 Z0.028
X-82.841 Z-3.4
X-74.458
X-74.453 Z0.003
X-74.446 Z0.034
X-74.407 Z0.079
X-74.346 Z0.1
X-65.338 Z0.098
X-65.285 Z0.07
X-65.259 Z0.022
X-65.256 Z-2.9
X-52.744
X-52.742 Z0.018
X-52.717 Z0.068
X-52.665 Z0.097
X-43.804 Z0.1
X-43.624 Z0.094
X-43.575 Z0.066
X-43.549 Z0.02
X-43.547 Z-3.4
X-35.158
Z0.003
X-35.152 Z0.033
X-35.115 Z0.078
X-35.055 Z0.099
X-25.237 Z0.097
X-23.657 Z-0.438
X-22.049 Z-1.006
X-20.936 Z-1.416
X-19.831 Z-1.847
X-19.169 Z-2.116
X-18.472 Z-2.412
X-17.781 Z-2.721
X-17.095 Z-3.043
X-16.412 Z-3.381
X-15.742 Z-3.734
X-15.082 Z-4.104
X-14.472 Z-4.468
X-13.988 Z-4.771
X-13.511 Z-5.086
X-13.047 Z-5.41
X-12.586 Z-5.748
X-12.135 Z-6.098
X-11.696 Z-6.456
X-11.262 Z-6.828
X-10.843 Z-7.208
X-10.4 Z-7.632
X-9.999 Z-8.04
X-9.611 Z-8.458
X-9.206 Z-8.92
X-8.846 Z-9.358
X-8.467 Z-9.847
X-8.135 Z-10.304
X-7.814 Z-10.776
X-7.482 Z-11.298
X-7.192 Z-11.79
X-6.897 Z-12.328
X-6.643 Z-12.834
X-6.387 Z-13.39
X-6.149 Z-13.96
X-6.016 Z-14.314
X-5.889 Y-96.176 Z-14.315
X-5.778 Y-95.78 Z-14.316
X-5.77 Y-95.75
X-5.746 Y-95.658
X-5.878 Z-13.963
X-6.115 Z-13.392
X-6.349 Z-12.878
X-6.624 Z-12.329
X-6.895 Z-11.828
X-7.206 Z-11.298
X-7.534 Z-10.779
X-7.854 Z-10.306
X-8.187 Z-9.844
X-8.562 Z-9.358
X-8.924 Z-8.916
X-9.298 Z-8.485
X-9.714 Z-8.034
X-10.114 Z-7.626
X-10.521 Z-7.232
X-10.943 Z-6.846
X-11.408 Z-6.445
X-11.846 Z-6.087
X-12.296 Z-5.736
X-12.757 Z-5.397
X-13.217 Z-5.074
X-13.693 Z-4.758
X-14.172 Z-4.456
X-14.781 Z-4.091
X-15.445 Z-3.718
X-16.11 Z-3.365
X-16.744 Z-3.048
X-17.429 Z-2.724
X-18.124 Z-2.412
X-18.82 Z-2.113
X-19.481 Z-1.841
X-20.541 Z-1.425
X-21.652 Z-1.01
X-23.312 Z-0.418
X-24.823 Z0.098
X-35.821 Z0.099
X-35.892 Z0.077
X-35.934 Z0.037
X-35.945 Z0
Z-3.4
X-42.763
X-42.766 Z0.019
X-42.798 Z0.066
X-42.862 Z0.096
X-43.365 Z0.1
X-52.804 Z0.097
X-52.855 Z0.066
X-52.879 Z0.021
X-52.881 Z-2.9
X-65.119
X-65.121 Z0.02
X-65.141 Z0.062
X-65.191 Z0.096
X-71.52 Z0.1
X-75.136 Z0.096
X-75.196 Z0.071
X-75.233 Z0.028
X-75.239 Z0
Z-3.4
X-82.058
X-82.061 Z0.019
X-82.093 Z0.066
X-82.157 Z0.096
X-82.66 Z0.1
X-93.183 Z0.097
X-94.555 Z-0.372
X-95.628 Z-0.75
X-96.52 Z-1.073
X-97.439 Z-1.418
X-98.406 Z-1.796
X-99.406 Z-2.208
X-100.405 Z-2.648
X-101.387 Z-3.112
X-102.186 Z-3.519
X-103.009 Z-3.97
X-103.789 Z-4.431
X-104.588 Z-4.942
X-105.355 Z-5.477
X-106.107 Z-6.048
X-106.539 Z-6.4
X-106.898 Z-6.707
X-107.25 Z-7.021
X-107.592 Z-7.339
X-107.927 Z-7.666
X-108.276 Z-8.024
X-108.597 Z-8.369
X-108.911 Z-8.723
X-109.216 Z-9.084
X-109.541 Z-9.489
X-109.828 Z-9.865
X-110.102 Z-10.243
X-110.393 Z-10.668
X-110.647 Z-11.06
X-110.916 Z-11.501
X-111.148 Z-11.906
X-111.395 Z-12.366
X-111.605 Z-12.784
X-111.826 Z-13.257
X-112.004 Z-13.671
X-112.254 Z-14.313
X-112.275 Z-14.345
X-112.307 Z-14.367
X-112.345 Z-14.375
X-112.596
X-112.629 Y-95.656
X-112.662 Y-95.651
X-112.693 Y-95.642
X-112.723 Y-95.629
X-112.752 Y-95.613
X-112.779 Y-95.594
X-112.803 Y-95.572
X-112.825 Y-95.548
X-112.844 Y-95.521
X-112.86 Y-95.492
X-112.873 Y-95.462 Z-14.376
X-112.882 Y-95.431
X-112.887 Y-95.398
X-112.889 Y-95.365
Y-94.975 Z-14.377
X-112.887 Y-94.943 Z-14.378
X-112.882 Y-94.91
X-112.873 Y-94.879
X-112.86 Y-94.849
X-112.844 Y-94.82
X-112.825 Y-94.793
X-112.803 Y-94.769
X-112.779 Y-94.747
X-112.752 Y-94.728
X-112.723 Y-94.712
X-112.693 Y-94.699 Z-14.379
X-112.662 Y-94.69
X-112.629 Y-94.685
X-112.596 Y-94.683
X-112.558 Z-14.371
X-112.526 Z-14.349
X-112.506 Z-14.316
X-112.254 Z-13.669
X-112.064 Z-13.228
X-111.865 Z-12.8
X-111.635 Z-12.338
X-111.411 Z-11.921
X-111.177 Z-11.51
X-110.91 Z-11.07
X-110.654 Z-10.672
X-110.365 Z-10.247
X-110.091 Z-9.868
X-109.806 Z-9.491
X-109.485 Z-9.088
X-109.184 Z-8.731
X-108.874 Z-8.379
X-108.554 Z-8.033
X-108.218 Z-7.685
X-107.865 Z-7.339
X-107.521 Z-7.016
X-107.169 Z-6.701
X-106.815 Z-6.397
X-106.413 Z-6.068
X-105.629 Z-5.468
X-104.888 Z-4.948
X-104.103 Z-4.442
X-103.292 Z-3.959
X-102.503 Z-3.525
X-101.706 Z-3.115
X-100.734 Z-2.652
X-99.741 Z-2.211
X-98.778 Z-1.81
X-97.816 Z-1.43
X-96.844 Z-1.062
X-95.963 Z-0.74
X-94.715 Z-0.297
X-93.562 Z0.098
X-80.792 Z0.099
X-80.664 Z0.072
X-80.604 Z0.039
X-80.584 Z0.006
X-80.583 Z-3.4
X-76.71
X-76.706 Z0.017
X-76.665 Z0.058
X-76.601 Z0.084
X-76.502 Z0.099
X-65.058 Z0.097
X-65.008 Z0.066
X-64.985 Z0.023
X-64.982 Z-2.9
X-53.018
X-53.016 Z0.017
X-52.992 Z0.067
X-52.941 Z0.097
X-41.497 Z0.099
X-41.371 Z0.072
X-41.31 Z0.04
X-41.29 Z0.012
X-41.289 Z-3.4
X-37.415
Z0
X-37.396 Z0.039
X-37.335 Z0.075
X-37.242 Z0.096
X-26.385 Z0.1
X-24.43 Z0.096
X-22.955 Z-0.413
X-21.301 Z-1.008
X-20.191 Z-1.427
X-19.128 Z-1.848
X-18.512 Z-2.104
X-17.812 Z-2.406
X-17.122 Z-2.718
X-16.456 Z-3.035
X-15.801 Z-3.365
X-15.133 Z-3.722
X-14.474 Z-4.095
X-13.862 Z-4.464
X-13.38 Z-4.77
X-12.945 Z-5.062
X-12.478 Z-5.391
X-12.019 Z-5.731
X-11.572 Z-6.08
X-11.131 Z-6.443
X-10.667 Z-6.846
X-10.249 Z-7.23
X-9.843 Z-7.624
X-9.448 Z-8.03
X-9.03 Z-8.486
X-8.66 Z-8.914
X-8.302 Z-9.353
X-7.926 Z-9.844
X-7.596 Z-10.303
X-7.254 Z-10.812
X-6.953 Z-11.291
X-6.641 Z-11.825
X-6.373 Z-12.323
X-6.098 Z-12.877
X-5.862 Z-13.395
X-5.635 Z-13.944
X-5.494 Z-14.32
X-5.387 Y-94.226 Z-14.319
X-5.264 Y-93.708 Z-14.318
X-5.396 Z-13.965
X-5.63 Z-13.397
X-5.864 Z-12.878
X-6.139 Z-12.324
X-6.406 Z-11.826
X-6.716 Z-11.291
X-7.016 Z-10.811
X-7.36 Z-10.298
X-7.692 Z-9.833
X-8.065 Z-9.346
X-8.425 Z-8.902
X-8.798 Z-8.47
X-9.179 Z-8.051
X-9.61 Z-7.606
X-10.019 Z-7.208
X-10.439 Z-6.822
X-10.865 Z-6.449
X-11.305 Z-6.085
X-11.75 Z-5.736
X-12.204 Z-5.397
X-12.671 Z-5.067
X-13.141 Z-4.75
X-13.577 Z-4.47
X-14.184 Z-4.102
X-14.842 Z-3.727
X-15.513 Z-3.367
X-16.151 Z-3.043
X-16.833 Z-2.715
X-17.527 Z-2.4
X-18.226 Z-2.096
X-18.837 Z-1.841
X-19.855 Z-1.434
X-20.963 Z-1.013
X-22.575 Z-0.426
X-24.082 Z0.098
X-53.076
X-53.128 Z0.068
X-53.153 Z0.02
X-53.155 Z-2.9
X-64.845
X-64.848 Z0.024
X-64.871 Z0.067
X-64.922 Z0.097
X-93.908 Z0.099
X-94.417 Z-0.073
X-95.662 Z-0.511
X-96.808 Z-0.928
X-98.087 Z-1.411
X-99.087 Z-1.81
X-100.045 Z-2.212
X-100.998 Z-2.637
X-101.974 Z-3.105
X-102.812 Z-3.539
X-103.599 Z-3.976
X-104.373 Z-4.439
X-105.152 Z-4.945
X-105.888 Z-5.464
X-106.67 Z-6.065
X-107.071 Z-6.396
X-107.429 Z-6.704
X-107.776 Z-7.017
X-108.119 Z-7.34
X-108.479 Z-7.696
X-108.806 Z-8.036
X-109.126 Z-8.384
X-109.437 Z-8.739
X-109.74 Z-9.102
X-110.031 Z-9.468
X-110.341 Z-9.879
X-110.616 Z-10.263
X-110.882 Z-10.654
X-111.159 Z-11.088
X-111.404 Z-11.493
X-111.637 Z-11.903
X-111.88 Z-12.359
X-112.088 Z-12.778
X-112.307 Z-13.252
X-112.49 Z-13.682
X-112.736 Z-14.315
X-112.75 Y-93.647
X-112.947 Y-92.733 Z-14.314
X-112.705 Z-13.687
X-112.522 Z-13.256
X-112.309 Z-12.792
X-112.099 Z-12.368
X-111.855 Z-11.906
X-111.625 Z-11.5
X-111.359 Z-11.057
X-111.104 Z-10.659
X-110.843 Z-10.271
X-110.544 Z-9.852
X-110.263 Z-9.479
X-109.969 Z-9.108
X-109.671 Z-8.749
X-109.329 Z-8.357
X-109.01 Z-8.009
X-108.749 Z-7.736
X-108.358 Z-7.346
X-108.019 Z-7.025
X-107.669 Z-6.708
X-107.316 Z-6.402
X-106.886 Z-6.046
X-106.135 Z-5.467
X-105.399 Z-4.946
X-104.614 Z-4.432
X-103.85 Z-3.973
X-103.063 Z-3.534
X-102.269 Z-3.12
X-101.286 Z-2.645
X-100.304 Z-2.203
X-99.342 Z-1.798
X-98.378 Z-1.411
X-97.502 Z-1.075
X-96.613 Z-0.745
X-95.457 Z-0.326
X-94.241 Z0.098
X-64.789
X-64.738 Z0.071
X-64.711 Z0.022
X-64.708 Z-2.9
X-53.292
X-53.288 Z0.028
X-53.265 Z0.068
X-53.212 Z0.098
X-23.755
X-22.328 Z-0.403
X-20.672 Z-1.009
X-19.609 Z-1.417
X-18.552 Z-1.842
X-17.937 Z-2.1
X-17.243 Z-2.403
X-16.555 Z-2.719
X-15.869 Z-3.051
X-15.237 Z-3.374
X-14.571 Z-3.734
X-13.951 Z-4.089
X-13.346 Z-4.458
X-12.869 Z-4.765
X-12.397 Z-5.086
X-11.974 Z-5.387
X-11.521 Z-5.727
X-11.072 Z-6.081
X-10.632 Z-6.446
X-10.203 Z-6.822
X-9.788 Z-7.207
X-9.372 Z-7.613
X-8.953 Z-8.048
X-8.569 Z-8.471
X-8.2 Z-8.901
X-7.841 Z-9.345
X-7.47 Z-9.833
X-7.141 Z-10.295
X-6.801 Z-10.805
X-6.5 Z-11.289
X-6.193 Z-11.82
X-5.924 Z-12.322
X-5.651 Z-12.877
X-5.419 Z-13.391
X-5.184 Z-13.963
X-5.053 Z-14.317
X-5.051 Z-14.323
X-5.03 Z-14.357
X-4.998 Z-14.379
X-4.959 Z-14.387
X-4.766
G3 X-4.474 Y-92.441 I0 J0.293
G1 Y-92.051
G3 X-4.766 Y-91.758 I-0.293 J0
G1 X-4.795 Z-14.383
X-4.822 Z-14.37
X-4.843 Z-14.349
X-4.858 Z-14.323
X-4.987 Z-13.973
X-5.22 Z-13.4
X-5.472 Z-12.841
X-5.721 Z-12.334
X-6.012 Z-11.789
X-6.297 Z-11.294
X-6.595 Z-10.813
X-6.937 Z-10.298
X-7.268 Z-9.832
X-7.608 Z-9.381
X-7.993 Z-8.903
X-8.361 Z-8.472
X-8.744 Z-8.048
X-9.153 Z-7.622
X-9.543 Z-7.237
X-9.961 Z-6.847
X-10.422 Z-6.441
X-10.861 Z-6.075
X-11.305 Z-5.723
X-11.723 Z-5.408
X-12.188 Z-5.076
X-12.656 Z-4.757
X-13.096 Z-4.472
X-13.721 Z-4.088
X-14.36 Z-3.72
X-14.988 Z-3.379
X-15.662 Z-3.034
X-16.305 Z-2.722
X-16.992 Z-2.404
X-17.646 Z-2.115
X-18.304 Z-1.837
X-19.32 Z-1.426
X-20.427 Z-0.999
X-21.982 Z-0.426
X-23.464 Z0.099
X-53.349 Z0.098
X-53.401 Z0.069
X-53.427 Z0.019
X-53.429 Z-2.9
X-64.571
X-64.574 Z0.022
X-64.596 Z0.066
X-64.647 Z0.097
X-86.943 Z0.1
X-94.542 Z0.098
X-95.849 Z-0.365
X-96.919 Z-0.755
X-97.744 Z-1.064
X-98.673 Z-1.424
X-99.636 Z-1.813
X-100.588 Z-2.217
X-101.538 Z-2.648
X-102.482 Z-3.106
X-103.281 Z-3.523
X-104.063 Z-3.96
X-104.857 Z-4.442
X-105.615 Z-4.939
X-106.379 Z-5.484
X-107.124 Z-6.062
X-107.524 Z-6.395
X-107.876 Z-6.701
X-108.225 Z-7.019
X-108.567 Z-7.344
X-108.958 Z-7.736
X-109.219 Z-8.008
X-109.537 Z-8.357
X-109.875 Z-8.746
X-110.176 Z-9.109
X-110.466 Z-9.477
X-110.746 Z-9.851
X-111.047 Z-10.275
X-111.308 Z-10.663
X-111.561 Z-11.062
X-111.828 Z-11.508
X-112.06 Z-11.92
X-112.3 Z-12.376
X-112.507 Z-12.796
X-112.704 Z-13.226
X-112.892 Z-13.667
X-113.142 Z-14.32
X-113.163 Z-14.352
X-113.195 Z-14.374
X-113.233 Z-14.382
X-113.413
X-113.446 Y-91.756
X-113.478 Y-91.751
X-113.51 Y-91.742
X-113.54 Y-91.729
X-113.569 Y-91.713 Z-14.383
X-113.595 Y-91.694
X-113.62 Y-91.673
X-113.642 Y-91.648
X-113.661 Y-91.621 Z-14.384
X-113.676 Y-91.593
X-113.689 Y-91.562
X-113.698 Y-91.531 Z-14.385
X-113.704 Y-91.498
X-113.705 Y-91.466 Z-14.386
Y-91.076 Z-14.39
X-113.704 Y-91.043 Z-14.391
X-113.698 Y-91.011
X-113.689 Y-90.979 Z-14.392
X-113.676 Y-90.949
X-113.661 Y-90.92
X-113.642 Y-90.893 Z-14.393
X-113.62 Y-90.869
X-113.595 Y-90.847
X-113.569 Y-90.828
X-113.54 Y-90.812 Z-14.394
X-113.51 Y-90.8
X-113.478 Y-90.791
X-113.446 Y-90.785
X-113.413 Y-90.783
X-113.375 Z-14.386
X-113.343 Z-14.364
X-113.322 Z-14.331
X-113.07 Z-13.674
X-112.885 Z-13.237
X-112.691 Z-12.811
X-112.461 Z-12.342
X-112.243 Z-11.928
X-111.991 Z-11.478
X-111.749 Z-11.072
X-111.498 Z-10.677
X-111.209 Z-10.245
X-110.939 Z-9.864
X-110.656 Z-9.484
X-110.365 Z-9.113
X-110.037 Z-8.716
X-109.728 Z-8.359
X-109.41 Z-8.01
X-109.112 Z-7.698
X-108.76 Z-7.345
X-108.419 Z-7.019
X-108.07 Z-6.701
X-107.715 Z-6.39
X-107.316 Z-6.057
X-106.575 Z-5.481
X-105.803 Z-4.928
X-105.055 Z-4.436
X-104.285 Z-3.967
X-103.513 Z-3.532
X-102.715 Z-3.113
X-101.739 Z-2.637
X-100.789 Z-2.205
X-99.843 Z-1.801
X-98.92 Z-1.427
X-97.996 Z-1.067
X-97.109 Z-0.732
X-96.143 Z-0.378
X-94.808 Z0.098
X-64.598 Z0.1
X-64.497 Z0.093
X-64.46 Z0.067
X-64.437 Z0.023
X-64.434 Z-2.9
X-53.566
X-53.563 Z0.021
X-53.535 Z0.072
X-53.479 Z0.099
X-23.191 Z0.098
X-21.721 Z-0.427
X-20.168 Z-1.004
X-19.102 Z-1.418
X-18.069 Z-1.838
X-17.434 Z-2.108
X-16.737 Z-2.417
X-16.093 Z-2.716
X-15.413 Z-3.049
X-14.782 Z-3.374
X-14.118 Z-3.736
X-13.504 Z-4.092
X-12.896 Z-4.467
X-12.462 Z-4.75
X-11.994 Z-5.07
X-11.529 Z-5.403
X-11.078 Z-5.745
X-10.631 Z-6.101
X-10.198 Z-6.465
X-9.77 Z-6.845
X-9.353 Z-7.235
X-8.963 Z-7.62
X-8.552 Z-8.051
X-8.173 Z-8.472
X-7.803 Z-8.908
X-7.448 Z-9.349
X-7.076 Z-9.843
X-6.75 Z-10.304
X-6.435 Z-10.781
X-6.109 Z-11.307
X-5.829 Z-11.796
X-5.541 Z-12.338
X-5.293 Z-12.845
X-5.04 Z-13.409
X-4.826 Z-13.936
X-4.678 Z-14.336
X-4.657 Z-14.369
X-4.625 Z-14.392
X-4.587 Z-14.4
X-4.429
G3 X-4.137 Y-90.491 I0 J0.292
G1 Y-90.101
G3 X-4.429 Y-89.808 I-0.293 J0
G1 X-4.459 Z-14.395
X-4.485 Z-14.382
X-4.506 Z-14.362
X-4.521 Z-14.336
X-4.524 Z-14.326
X-4.67 Z-13.931
X-4.885 Z-13.401
X-5.135 Z-12.842
X-5.386 Z-12.328
X-5.652 Z-11.825
X-5.957 Z-11.292
X-6.252 Z-10.81
X-6.593 Z-10.294
X-6.919 Z-9.831
X-7.262 Z-9.375
X-7.645 Z-8.896
X-8.014 Z-8.461
X-8.396 Z-8.036
X-8.79 Z-7.623
X-9.192 Z-7.224
X-9.605 Z-6.837
X-10.032 Z-6.457
X-10.465 Z-6.092
X-10.911 Z-5.736
X-11.366 Z-5.391
X-11.826 Z-5.06
X-12.258 Z-4.763
X-12.696 Z-4.477
X-13.299 Z-4.102
X-13.957 Z-3.719
X-14.584 Z-3.376
X-15.214 Z-3.05
X-15.894 Z-2.717
X-16.541 Z-2.414
X-17.233 Z-2.106
X-17.841 Z-1.846
X-18.855 Z-1.43
X-19.961 Z-1
X-21.523 Z-0.416
X-22.946 Z0.097
X-35.372 Z0.1
X-53.617 Z0.099
X-53.67 Z0.073
X-53.7 Z0.025
X-53.703 Z-2.9
X-64.297
X-64.299 Z0.019
X-64.324 Z0.068
X-64.373 Z0.097
X-95.027 Z0.1
X-95.155 Z0.061
X-96.415 Z-0.393
X-97.438 Z-0.772
X-98.276 Z-1.09
X-99.159 Z-1.436
X-100.062 Z-1.805
X-101.021 Z-2.218
X-101.966 Z-2.65
X-102.903 Z-3.109
X-103.7 Z-3.529
X-104.471 Z-3.966
X-105.236 Z-4.433
X-105.988 Z-4.929
X-106.755 Z-5.481
X-107.498 Z-6.062
X-107.893 Z-6.392
X-108.248 Z-6.704
X-108.592 Z-7.019
X-108.933 Z-7.346
X-109.266 Z-7.68
X-109.575 Z-8.005
X-109.892 Z-8.354
X-110.232 Z-8.748
X-110.531 Z-9.113
X-110.82 Z-9.482
X-111.099 Z-9.857
X-111.398 Z-10.282
X-111.658 Z-10.672
X-111.911 Z-11.072
X-112.153 Z-11.478
X-112.404 Z-11.929
X-112.624 Z-12.348
X-112.848 Z-12.807
X-113.044 Z-13.237
X-113.229 Z-13.676
X-113.476 Z-14.322
X-113.497 Z-14.355
X-113.529 Z-14.377
X-113.567 Z-14.385
X-113.706
G2 X-113.999 Y-89.516 I0 J0.292
G1 Y-89.126
G2 X-113.706 Y-88.833 I0.293 J0
G1 X-113.668 Z-14.377
X-113.636 Z-14.355
X-113.615 Z-14.322
X-113.613 Z-14.315
X-113.365 Z-13.666
X-113.179 Z-13.224
X-112.984 Z-12.794
X-112.776 Z-12.368
X-112.535 Z-11.906
X-112.305 Z-11.493
X-112.066 Z-11.09
X-111.792 Z-10.655
X-111.53 Z-10.261
X-111.258 Z-9.874
X-110.98 Z-9.499
X-110.661 Z-9.089
X-110.361 Z-8.724
X-110.083 Z-8.402
X-109.752 Z-8.033
X-109.43 Z-7.694
X-109.098 Z-7.359
X-108.758 Z-7.031
X-108.414 Z-6.714
X-108.059 Z-6.402
X-107.633 Z-6.043
X-106.919 Z-5.484
X-106.154 Z-4.932
X-105.403 Z-4.435
X-104.639 Z-3.966
X-103.86 Z-3.523
X-103.076 Z-3.108
X-102.144 Z-2.65
X-101.195 Z-2.215
X-100.242 Z-1.803
X-99.32 Z-1.425
X-98.412 Z-1.067
X-97.57 Z-0.747
X-96.462 Z-0.336
X-95.256 Z0.098
X-64.462 Z0.1
X-64.228 Z0.095
X-64.186 Z0.066
X-64.163 Z0.023
X-64.16 Z-2.9
X-53.84
X-53.838 Z0.021
X-53.809 Z0.072
X-53.756 Z0.098
X-22.749 Z0.099
X-21.36 Z-0.401
X-19.714 Z-1.019
X-18.698 Z-1.417
X-17.689 Z-1.832
X-17.037 Z-2.112
X-16.385 Z-2.404
X-15.699 Z-2.725
X-15.058 Z-3.041
X-14.424 Z-3.37
X-13.797 Z-3.715
X-13.143 Z-4.096
X-12.537 Z-4.474
X-12.103 Z-4.758
X-11.632 Z-5.082
X-11.212 Z-5.387
X-10.761 Z-5.729
X-10.319 Z-6.084
X-9.882 Z-6.452
X-9.456 Z-6.832
X-9.044 Z-7.22
X-8.642 Z-7.619
X-8.265 Z-8.015
X-7.867 Z-8.458
X-7.471 Z-8.926
X-7.116 Z-9.372
X-6.777 Z-9.826
X-6.448 Z-10.293
X-6.111 Z-10.805
X-5.816 Z-11.287
X-5.509 Z-11.824
X-5.244 Z-12.328
X-4.975 Z-12.881
X-4.744 Z-13.401
X-4.514 Z-13.971
X-4.386 Z-14.321
X-4.312 Y-88.286 Z-14.323
X-4.305 Y-88.225
X-4.263 Y-87.858 Z-14.324
X-4.392 Z-13.969
X-4.624 Z-13.395
X-4.854 Z-12.875
X-5.122 Z-12.323
X-5.385 Z-11.823
X-5.689 Z-11.289
X-5.983 Z-10.807
X-6.32 Z-10.294
X-6.648 Z-9.827
X-6.99 Z-9.369
X-7.341 Z-8.926
X-7.74 Z-8.454
X-8.118 Z-8.032
X-8.508 Z-7.622
X-8.912 Z-7.219
X-9.324 Z-6.83
X-9.75 Z-6.45
X-10.182 Z-6.084
X-10.627 Z-5.726
X-11.043 Z-5.408
X-11.506 Z-5.072
X-11.972 Z-4.751
X-12.41 Z-4.463
X-13.016 Z-4.086
X-13.628 Z-3.727
X-14.253 Z-3.381
X-14.925 Z-3.031
X-15.561 Z-2.717
X-16.208 Z-2.413
X-16.898 Z-2.103
X-17.511 Z-1.84
X-18.519 Z-1.423
X-19.583 Z-1.004
X-21.139 Z-0.417
X-22.561 Z0.098
X-31.182 Z0.097
X-31.308 Z0.073
X-31.37 Z0.043
X-31.394 Z0.02
X-31.399 Z0
Z-3.4
X-34.611
X-34.613 Z0.009
X-34.632 Z0.035
X-34.732 Z0.08
X-34.848 Z0.099
X-53.894 Z0.098
X-53.944 Z0.074
X-53.974 Z0.023
X-53.977 Z-2.9
X-64.023
X-64.027 Z0.028
X-64.051 Z0.069
X-64.091 Z0.095
X-64.325 Z0.1
X-83.165 Z0.097
X-83.28 Z0.079
X-83.363 Z0.043
X-83.387 Z0.02
X-83.393 Z0
Z-3.4
X-86.604
X-86.606 Z0.009
X-86.626 Z0.035
X-86.725 Z0.08
X-86.841 Z0.099
X-95.443 Z0.097
X-96.735 Z-0.371
X-97.735 Z-0.743
X-98.62 Z-1.083
X-99.502 Z-1.432
X-100.418 Z-1.81
X-101.332 Z-2.205
X-102.276 Z-2.639
X-103.233 Z-3.111
X-104.024 Z-3.532
X-104.806 Z-3.979
X-105.537 Z-4.428
X-106.318 Z-4.949
X-107.053 Z-5.48
X-107.791 Z-6.06
X-108.188 Z-6.395
X-108.538 Z-6.705
X-108.885 Z-7.025
X-109.221 Z-7.349
X-109.553 Z-7.685
X-109.877 Z-8.028
X-110.209 Z-8.396
X-110.51 Z-8.747
X-110.806 Z-9.108
X-111.096 Z-9.482
X-111.377 Z-9.862
X-111.646 Z-10.244
X-111.928 Z-10.669
X-112.179 Z-11.069
X-112.42 Z-11.475
X-112.671 Z-11.927
X-112.887 Z-12.342
X-113.115 Z-12.811
X-113.31 Z-13.242
X-113.491 Z-13.674
X-113.737 Z-14.32
X-113.813 Y-87.189 Z-14.321
X-113.819 Y-87.128
X-113.842 Y-86.884
X-113.603 Z-13.689
X-113.42 Z-13.252
X-113.208 Z-12.781
X-113.001 Z-12.356
X-112.785 Z-11.94
X-112.534 Z-11.486
X-112.293 Z-11.079
X-112.042 Z-10.677
X-111.758 Z-10.248
X-111.487 Z-9.861
X-111.234 Z-9.519
X-110.926 Z-9.121
X-110.615 Z-8.739
X-110.307 Z-8.381
X-109.995 Z-8.034
X-109.671 Z-7.69
X-109.343 Z-7.357
X-109.004 Z-7.029
X-108.661 Z-6.711
X-108.311 Z-6.401
X-107.918 Z-6.069
X-107.177 Z-5.484
X-106.413 Z-4.93
X-105.667 Z-4.433
X-104.904 Z-3.963
X-104.159 Z-3.537
X-103.364 Z-3.113
X-102.423 Z-2.646
X-101.5 Z-2.22
X-100.547 Z-1.805
X-99.627 Z-1.425
X-98.75 Z-1.078
X-97.909 Z-0.754
X-96.848 Z-0.356
X-95.602 Z0.097
X-88.484 Z0.1
X-88.362 Z0.093
X-88.296 Z0.059
X-88.269 Z0.018
X-88.266 Z-3.4
X-81.727
X-81.725 Z0.002
X-81.715 Z0.035
X-81.671 Z0.077
X-81.613 Z0.097
X-64.168 Z0.1
X-63.957 Z0.095
X-63.908 Z0.062
X-63.888 Z0.016
X-63.886 Z-2.9
X-54.114
X-54.112 Z0.021
X-54.082 Z0.073
X-54.034 Z0.098
X-36.491 Z0.1
X-36.369 Z0.093
X-36.302 Z0.059
X-36.276 Z0.018
X-36.273 Z-3.4
X-29.734
X-29.731 Z0.002
X-29.721 Z0.037
X-29.675 Z0.079
X-29.617 Z0.098
X-22.407 Z0.099
X-21.025 Z-0.404
X-19.426 Z-1.009
X-18.367 Z-1.427
X-17.355 Z-1.847
X-16.748 Z-2.11
X-16.096 Z-2.403
X-15.406 Z-2.728
X-14.775 Z-3.041
X-14.142 Z-3.373
X-13.521 Z-3.716
X-12.864 Z-4.102
X-12.299 Z-4.456
X-11.825 Z-4.768
X-11.399 Z-5.063
X-10.937 Z-5.399
X-10.487 Z-5.743
X-10.046 Z-6.099
X-9.647 Z-6.438
X-9.225 Z-6.816
X-8.809 Z-7.208
X-8.375 Z-7.641
X-7.984 Z-8.056
X-7.636 Z-8.446
X-7.236 Z-8.919
X-6.896 Z-9.348
X-6.543 Z-9.821
X-6.191 Z-10.323
X-5.881 Z-10.797
X-5.584 Z-11.284
X-5.278 Z-11.822
X-5.016 Z-12.322
X-4.746 Z-12.879
X-4.516 Z-13.4
X-4.287 Z-13.969
X-4.158 Z-14.325
X-4.144 Z-14.351
X-4.122 Z-14.371
X-4.096 Z-14.384
X-4.066 Z-14.389
X-3.979
G3 X-3.686 Y-86.591 I0 J0.293
G1 Y-86.201
G3 X-3.979 Y-85.909 I-0.293 J0
G1 X-4.008 Z-14.384
X-4.035 Z-14.371
X-4.056 Z-14.351
X-4.07 Z-14.325
X-4.073 Z-14.318
X-4.201 Z-13.963
X-4.43 Z-13.394
X-4.658 Z-12.877
X-4.927 Z-12.32
X-5.189 Z-11.82
X-5.494 Z-11.283
X-5.805 Z-10.775
X-6.101 Z-10.322
X-6.456 Z-9.815
X-6.794 Z-9.361
X-7.146 Z-8.917
X-7.514 Z-8.479
X-7.894 Z-8.052
X-8.316 Z-7.607
X-8.686 Z-7.236
X-9.097 Z-6.845
X-9.518 Z-6.466
X-9.949 Z-6.099
X-10.389 Z-5.743
X-10.843 Z-5.395
X-11.301 Z-5.061
X-11.731 Z-4.763
X-12.164 Z-4.477
X-12.769 Z-4.097
X-13.385 Z-3.734
X-14.047 Z-3.367
X-14.68 Z-3.035
X-15.315 Z-2.719
X-15.956 Z-2.416
X-16.651 Z-2.102
X-17.259 Z-1.839
X-18.266 Z-1.421
X-19.329 Z-1
X-20.884 Z-0.41
X-22.27 Z0.098
X-28.79 Z0.099
X-28.847 Z0.078
X-28.881 Z0.04
X-28.891 Z0.002
Z-3.4
X-37.118
X-37.12 Z0.02
X-37.148 Z0.065
X-37.207 Z0.096
X-47.19 Z0.1
X-54.172 Z0.097
X-54.224 Z0.068
X-54.249 Z0.02
X-54.251 Z-2.9
X-63.749
X-63.75 Z0.016
X-63.771 Z0.062
X-63.815 Z0.094
X-63.909 Z0.1
X-80.783 Z0.099
X-80.841 Z0.078
X-80.875 Z0.04
X-80.885 Z0.002
Z-3.4
X-89.111
X-89.114 Z0.02
X-89.141 Z0.065
X-89.2 Z0.096
X-95.71 Z0.1
X-95.77 Z0.085
X-97.154 Z-0.424
X-98.13 Z-0.792
X-98.881 Z-1.082
X-99.758 Z-1.431
X-100.673 Z-1.81
X-101.602 Z-2.214
X-102.55 Z-2.655
X-103.485 Z-3.12
X-104.242 Z-3.524
X-105.015 Z-3.967
X-105.781 Z-4.441
X-106.531 Z-4.943
X-107.256 Z-5.469
X-107.997 Z-6.053
X-108.393 Z-6.389
X-108.746 Z-6.702
X-109.089 Z-7.019
X-109.428 Z-7.348
X-109.759 Z-7.684
X-110.079 Z-8.024
X-110.395 Z-8.375
X-110.702 Z-8.733
X-110.998 Z-9.096
X-111.288 Z-9.469
X-111.569 Z-9.848
X-111.866 Z-10.274
X-112.22 Z-10.815
X-112.399 Z-11.105
X-112.638 Z-11.512
X-112.868 Z-11.926
X-113.086 Z-12.346
X-113.312 Z-12.813
X-113.506 Z-13.245
X-113.686 Z-13.676
X-113.927 Z-14.314
X-113.948 Z-14.347
X-113.98 Z-14.369
X-114.018 Z-14.377
X-114.089
G2 X-114.382 Y-85.616 I0 J0.292
G1 Y-85.226
G2 X-114.089 Y-84.934 I0.293 J0
G1 X-114.051 Z-14.369
X-114.019 Z-14.347
X-113.998 Z-14.314
X-113.996 Z-14.308
X-113.759 Z-13.681
X-113.577 Z-13.245
X-113.382 Z-12.813
X-113.156 Z-12.346
X-112.938 Z-11.926
X-112.709 Z-11.512
X-112.446 Z-11.064
X-112.198 Z-10.667
X-111.939 Z-10.277
X-111.669 Z-9.889
X-111.39 Z-9.509
X-111.075 Z-9.101
X-110.776 Z-8.734
X-110.472 Z-8.379
X-110.157 Z-8.028
X-109.834 Z-7.684
X-109.506 Z-7.351
X-109.168 Z-7.022
X-108.822 Z-6.701
X-108.472 Z-6.391
X-108.08 Z-6.058
X-107.34 Z-5.472
X-106.611 Z-4.943
X-105.862 Z-4.441
X-105.101 Z-3.969
X-104.324 Z-3.523
X-103.571 Z-3.121
X-102.637 Z-2.655
X-101.695 Z-2.217
X-100.739 Z-1.799
X-99.855 Z-1.432
X-98.979 Z-1.083
X-98.184 Z-0.775
X-97.212 Z-0.408
X-95.84 Z0.096
X-90.012 Z0.1
X-89.679 Z0.095
X-89.639 Z0.074
X-89.608 Z0.026
X-89.604 Z-3.4
X-80.387
X-80.383 Z0.027
X-80.359 Z0.068
X-80.305 Z0.097
X-63.695 Z0.098
X-63.647 Z0.075
X-63.617 Z0.03
X-63.612 Z-2.9
X-54.388
X-54.384 Z0.026
X-54.355 Z0.073
X-54.31 Z0.097
X-37.825 Z0.1
X-37.683 Z0.095
X-37.643 Z0.072
X-37.614 Z0.024
X-37.611 Z-3.4
X-28.394
X-28.392 Z0.018
X-28.367 Z0.067
X-28.313 Z0.097
X-22.166 Z0.098
X-20.791 Z-0.407
X-19.233 Z-1
X-18.17 Z-1.421
X-17.158 Z-1.843
X-16.551 Z-2.107
X-15.9 Z-2.401
X-15.216 Z-2.725
X-14.576 Z-3.044
X-13.948 Z-3.375
X-13.324 Z-3.722
X-12.672 Z-4.106
X-12.112 Z-4.458
X-11.675 Z-4.747
X-11.209 Z-5.069
X-10.748 Z-5.407
X-10.336 Z-5.723
X-9.892 Z-6.082
X-9.461 Z-6.449
X-9.036 Z-6.831
X-8.622 Z-7.224
X-8.223 Z-7.625
X-7.831 Z-8.041
X-7.454 Z-8.464
X-7.09 Z-8.897
X-6.709 Z-9.378
X-6.369 Z-9.836
X-6.044 Z-10.3
X-5.732 Z-10.778
X-5.412 Z-11.301
X-5.131 Z-11.798
X-4.843 Z-12.346
X-4.596 Z-12.859
X-4.365 Z-13.381
X-4.187 Z-13.821
X-4.004 Z-14.311
X-4.001 Z-14.321
X-3.98 Z-14.354
X-3.948 Z-14.377
X-3.909 Z-14.384
X-3.858 Z-14.385
G3 X-3.566 Y-84.641 I0 J0.292
G1 Y-84.251
G3 X-3.858 Y-83.959 I-0.293 J0
G1 X-3.888 Z-14.381
X-3.914 Z-14.367
X-3.936 Z-14.347
X-3.95 Z-14.321
X-4.094 Z-13.926
X-4.307 Z-13.396
X-4.555 Z-12.836
X-4.802 Z-12.326
X-5.065 Z-11.821
X-5.368 Z-11.287
X-5.665 Z-10.799
X-6.001 Z-10.286
X-6.328 Z-9.818
X-6.666 Z-9.364
X-7.02 Z-8.915
X-7.415 Z-8.446
X-7.795 Z-8.02
X-8.183 Z-7.608
X-8.553 Z-7.237
X-8.966 Z-6.842
X-9.387 Z-6.463
X-9.817 Z-6.095
X-10.257 Z-5.738
X-10.71 Z-5.39
X-11.129 Z-5.084
X-11.598 Z-4.757
X-12.031 Z-4.471
X-12.631 Z-4.093
X-13.246 Z-3.73
X-13.87 Z-3.382
X-14.502 Z-3.049
X-15.18 Z-2.711
X-15.826 Z-2.405
X-16.477 Z-2.11
X-17.083 Z-1.846
X-18.095 Z-1.424
X-19.152 Z-1.003
X-20.666 Z-0.425
X-22.097 Z0.099
X-28.064 Z0.097
X-28.115 Z0.067
X-28.139 Z0.02
X-28.141 Z-3.4
X-37.868
X-37.871 Z0.026
X-37.895 Z0.068
X-37.935 Z0.094
X-38.028 Z0.1
X-54.449 Z0.097
X-54.501 Z0.064
X-54.524 Z0.016
X-54.525 Z-2.9
X-63.475
X-63.478 Z0.023
X-63.505 Z0.071
X-63.546 Z0.095
X-63.737 Z0.1
X-80.057 Z0.097
X-80.109 Z0.066
X-80.133 Z0.014
X-80.134 Z-3.4
X-89.861
X-89.864 Z0.023
X-89.887 Z0.067
X-89.927 Z0.094
X-89.992 Z0.1
X-95.912 Z0.097
X-97.167 Z-0.363
X-98.208 Z-0.756
X-99.027 Z-1.073
X-99.903 Z-1.423
X-100.823 Z-1.805
X-101.731 Z-2.202
X-102.673 Z-2.64
X-103.607 Z-3.105
X-104.397 Z-3.529
X-105.173 Z-3.976
X-105.934 Z-4.448
X-106.682 Z-4.95
X-107.41 Z-5.481
X-108.146 Z-6.064
X-108.542 Z-6.401
X-108.891 Z-6.712
X-109.233 Z-7.03
X-109.571 Z-7.36
X-109.869 Z-7.662
X-110.19 Z-8.003
X-110.533 Z-8.386
X-110.837 Z-8.741
X-111.134 Z-9.107
X-111.424 Z-9.482
X-111.701 Z-9.858
X-111.996 Z-10.281
X-112.254 Z-10.672
X-112.504 Z-11.073
X-112.744 Z-11.48
X-112.994 Z-11.933
X-113.212 Z-12.353
X-113.436 Z-12.816
X-113.628 Z-13.244
X-113.809 Z-13.68
X-114.05 Z-14.317
X-114.071 Z-14.35
X-114.103 Z-14.372
X-114.141 Z-14.38
X-114.177
X-114.21 Y-83.957
X-114.242 Y-83.951
X-114.274 Y-83.942
X-114.304 Y-83.93
X-114.333 Y-83.914
X-114.36 Y-83.895 Z-14.381
X-114.384 Y-83.873
X-114.406 Y-83.849
X-114.425 Y-83.822
X-114.441 Y-83.793
X-114.453 Y-83.763
X-114.462 Y-83.731
X-114.468 Y-83.699 Z-14.382
X-114.47 Y-83.666
Y-83.276 Z-14.384
X-114.468 Y-83.244
X-114.462 Y-83.211
X-114.453 Y-83.18
X-114.441 Y-83.149 Z-14.385
X-114.425 Y-83.121
X-114.406 Y-83.094
X-114.384 Y-83.07
X-114.36 Y-83.048
X-114.333 Y-83.029
X-114.304 Y-83.013
X-114.274 Y-83
X-114.242 Y-82.991
X-114.21 Y-82.986
X-114.177 Y-82.984
X-114.139 Z-14.378
X-114.107 Z-14.355
X-114.086 Z-14.322
X-113.838 Z-13.665
X-113.653 Z-13.223
X-113.461 Z-12.797
X-113.255 Z-12.37
X-113.019 Z-11.913
X-112.79 Z-11.5
X-112.553 Z-11.095
X-112.28 Z-10.658
X-112.02 Z-10.264
X-111.749 Z-9.875
X-111.47 Z-9.495
X-111.155 Z-9.088
X-110.86 Z-8.725
X-110.584 Z-8.402
X-110.241 Z-8.018
X-109.918 Z-7.674
X-109.591 Z-7.341
X-109.256 Z-7.015
X-108.91 Z-6.694
X-108.558 Z-6.381
X-108.165 Z-6.047
X-107.455 Z-5.485
X-106.696 Z-4.932
X-105.952 Z-4.433
X-105.222 Z-3.98
X-104.442 Z-3.53
X-103.652 Z-3.107
X-102.719 Z-2.641
X-101.777 Z-2.203
X-100.864 Z-1.804
X-99.95 Z-1.423
X-99.074 Z-1.073
X-98.234 Z-0.747
X-97.213 Z-0.361
X-95.963 Z0.097
X-89.996 Z0.099
X-89.95 Z0.079
X-89.916 Z0.03
X-89.912 Z-3.4
X-80.078
X-80.077 Z0.018
X-80.052 Z0.068
X-80.001 Z0.097
X-63.426 Z0.099
X-63.372 Z0.075
X-63.342 Z0.028
X-63.338 Z-2.9
X-54.662
X-54.66 Z0.02
X-54.631 Z0.072
X-54.583 Z0.098
X-38.003 Z0.099
X-37.957 Z0.079
X-37.923 Z0.03
X-37.918 Z-3.4
X-28.085
Z0.003
X-28.079 Z0.036
X-28.048 Z0.078
X-27.999 Z0.099
X-22.04 Z0.098
X-20.665 Z-0.407
X-19.112 Z-1
X-18.054 Z-1.421
X-17.043 Z-1.844
X-16.432 Z-2.11
X-15.785 Z-2.403
X-15.144 Z-2.708
X-14.462 Z-3.048
X-13.835 Z-3.379
X-13.211 Z-3.726
X-12.596 Z-4.09
X-11.991 Z-4.47
X-11.559 Z-4.757
X-11.094 Z-5.08
X-10.675 Z-5.387
X-10.226 Z-5.732
X-9.782 Z-6.092
X-9.352 Z-6.46
X-8.928 Z-6.843
X-8.517 Z-7.234
X-8.118 Z-7.636
X-7.759 Z-8.018
X-7.351 Z-8.477
X-6.984 Z-8.915
X-6.632 Z-9.36
X-6.292 Z-9.818
X-5.941 Z-10.321
X-5.63 Z-10.799
X-5.333 Z-11.287
X-5.031 Z-11.821
X-4.769 Z-12.322
X-4.5 Z-12.879
X-4.271 Z-13.4
X-4.058 Z-13.931
X-3.914 Z-14.326
X-3.9 Z-14.352
X-3.878 Z-14.373
X-3.852 Z-14.386
X-3.822 Z-14.39
X-3.805 Z-14.391
G3 X-3.513 Y-82.691 I0 J0.293
G1 Y-82.301
G3 X-3.805 Y-82.009 I-0.293 J0
G1 X-3.835 Z-14.386
X-3.861 Z-14.373
X-3.883 Z-14.352
X-3.897 Z-14.326
X-3.899 Z-14.321
X-4.025 Z-13.97
X-4.254 Z-13.4
X-4.483 Z-12.879
X-4.752 Z-12.322
X-5.015 Z-11.817
X-5.318 Z-11.283
X-5.612 Z-10.799
X-5.947 Z-10.286
X-6.274 Z-9.818
X-6.612 Z-9.363
X-6.963 Z-8.918
X-7.329 Z-8.48
X-7.709 Z-8.052
X-8.13 Z-7.605
X-8.499 Z-7.233
X-8.909 Z-6.842
X-9.333 Z-6.459
X-9.763 Z-6.091
X-10.203 Z-5.735
X-10.656 Z-5.386
X-11.078 Z-5.077
X-11.547 Z-4.751
X-11.984 Z-4.461
X-12.585 Z-4.084
X-13.195 Z-3.723
X-13.815 Z-3.378
X-14.447 Z-3.045
X-15.082 Z-2.727
X-15.77 Z-2.4
X-16.416 Z-2.107
X-17.028 Z-1.84
X-18.034 Z-1.42
X-19.052 Z-1.014
X-20.65 Z-0.404
X-22.013 Z0.098
X-28.145 Z0.099
X-28.198 Z0.074
X-28.226 Z0.033
X-28.231 Z0.001
Z-3.4
X-37.779
X-37.782 Z0.022
X-37.812 Z0.073
X-37.862 Z0.098
X-54.718
X-54.769 Z0.071
X-54.797 Z0.019
X-54.799 Z-2.9
X-63.201
X-63.204 Z0.025
X-63.227 Z0.067
X-63.265 Z0.093
X-63.366 Z0.1
X-80.139 Z0.099
X-80.184 Z0.079
X-80.219 Z0.033
X-80.225 Z0.002
Z-3.4
X-89.773
X-89.775 Z0.022
X-89.805 Z0.073
X-89.855 Z0.098
X-95.989
X-97.246 Z-0.364
X-98.262 Z-0.749
X-99.097 Z-1.073
X-99.973 Z-1.423
X-100.892 Z-1.806
X-101.804 Z-2.205
X-102.75 Z-2.646
X-103.68 Z-3.11
X-104.473 Z-3.536
X-105.213 Z-3.962
X-105.979 Z-4.437
X-106.727 Z-4.939
X-107.452 Z-5.467
X-108.188 Z-6.05
X-108.577 Z-6.381
X-108.93 Z-6.694
X-109.272 Z-7.012
X-109.606 Z-7.338
X-109.937 Z-7.674
X-110.26 Z-8.018
X-110.572 Z-8.366
X-110.876 Z-8.722
X-111.174 Z-9.088
X-111.492 Z-9.5
X-111.768 Z-9.876
X-112.036 Z-10.261
X-112.294 Z-10.651
X-112.568 Z-11.092
X-112.805 Z-11.496
X-113.034 Z-11.909
X-113.273 Z-12.371
X-113.476 Z-12.792
X-113.67 Z-13.223
X-113.853 Z-13.66
X-114.101 Z-14.317
X-114.106 Y-81.582 Z-14.318
Y-81.521
X-114.102 Y-81.034
X-113.855 Z-13.664
X-113.672 Z-13.226
X-113.478 Z-12.796
X-113.272 Z-12.369
X-113.036 Z-11.912
X-112.807 Z-11.499
X-112.568 Z-11.09
X-112.296 Z-10.653
X-112.038 Z-10.263
X-111.767 Z-9.875
X-111.488 Z-9.494
X-111.174 Z-9.087
X-110.878 Z-8.724
X-110.571 Z-8.365
X-110.256 Z-8.013
X-109.936 Z-7.672
X-109.608 Z-7.339
X-109.27 Z-7.01
X-108.925 Z-6.689
X-108.611 Z-6.41
X-108.186 Z-6.048
X-107.446 Z-5.462
X-106.718 Z-4.932
X-105.969 Z-4.43
X-105.244 Z-3.981
X-104.468 Z-3.533
X-103.679 Z-3.109
X-102.745 Z-2.643
X-101.799 Z-2.203
X-100.886 Z-1.803
X-99.972 Z-1.422
X-99.135 Z-1.088
X-98.345 Z-0.781
X-97.369 Z-0.411
X-95.994 Z0.097
X-89.505 Z0.099
X-89.448 Z0.074
X-89.415 Z0.027
X-89.411 Z-3.4
X-80.579
Z0
X-80.574 Z0.03
X-80.541 Z0.075
X-80.492 Z0.097
X-63.145 Z0.098
X-63.095 Z0.072
X-63.067 Z0.024
X-63.064 Z-2.9
X-54.936
X-54.933 Z0.025
X-54.904 Z0.073
X-54.85 Z0.099
X-37.513
X-37.456 Z0.076
X-37.422 Z0.029
X-37.418 Z-3.4
X-28.586
Z0
X-28.57 Z0.052
X-28.529 Z0.087
X-28.474 Z0.1
X-22.001 Z0.096
X-20.615 Z-0.416
X-19.058 Z-1.012
X-18.044 Z-1.416
X-17.033 Z-1.838
X-16.426 Z-2.102
X-15.732 Z-2.417
X-15.087 Z-2.724
X-14.448 Z-3.044
X-13.82 Z-3.375
X-13.197 Z-3.722
X-12.582 Z-4.086
X-11.977 Z-4.466
X-11.545 Z-4.752
X-11.076 Z-5.078
X-10.654 Z-5.388
X-10.204 Z-5.733
X-9.761 Z-6.093
X-9.327 Z-6.464
X-8.942 Z-6.812
X-8.527 Z-7.206
X-8.128 Z-7.607
X-7.74 Z-8.018
X-7.331 Z-8.477
X-6.967 Z-8.912
X-6.613 Z-9.36
X-6.273 Z-9.819
X-5.922 Z-10.322
X-5.611 Z-10.8
X-5.317 Z-11.284
X-5.012 Z-11.822
X-4.751 Z-12.323
X-4.482 Z-12.88
X-4.255 Z-13.397
X-4.026 Z-13.967
X-3.898 Z-14.322
X-3.896 Z-14.328
X-3.882 Z-14.354
X-3.861 Z-14.374
X-3.834 Z-14.387
X-3.805 Z-14.392
G3 X-3.512 Y-80.742 I0 J0.292
G1 Y-80.352
G3 X-3.805 Y-80.059 I-0.293 J0
G1 X-3.821
X-3.85 Z-14.387
X-3.877 Z-14.374
X-3.898 Z-14.354
X-3.913 Z-14.328
X-4.041 Z-13.972
X-4.271 Z-13.398
X-4.499 Z-12.881
X-4.765 Z-12.327
X-5.029 Z-11.822
X-5.331 Z-11.288
X-5.628 Z-10.8
