(1001)
G90 G94
G17
G21
(When using Fusion 360 for Personal Use, the feedrate of )
(rapid moves is reduced to match the feedrate of cutting )
(moves, which can increase machining time. Unrestricted )
(rapid moves are available with a Fusion 360 Subscription. )

(2D-Kontur3)
T5
S8000 M3
G54
G0 X-58.424 Y-22.524
Z15
G1 Z5 F1000
Z2 F333.3
Z-0.683
X-58.425 Y-22.532 Z-0.753 F1000
X-58.428 Y-22.555 Z-0.82
X-58.432 Y-22.593 Z-0.88
X-58.439 Y-22.643 Z-0.931
X-58.447 Y-22.702 Z-0.969
X-58.455 Y-22.769 Z-0.992
X-58.465 Y-22.839 Z-1
X-58.506 Y-23.154
G3 X-58.232 Y-23.51 I0.315 J-0.041
G2 X-52.326 Y-26.085 I-1.497 J-11.49
X-8.579 Y-125.992 I-77.674 J-93.543
G1 X-13.141 Y-213.042
Y-225
G2 X-14.729 Y-226.587 I-1.587 J0
G1 X-44.729
G2 X-46.316 Y-225 I0 J1.587
G1 Y-213.042
X-52.697 Y-91.283
G3 X-69.341 Y-41.472 I-98.278 J-5.15
G2 X-58.232 Y-23.51 I9.612 J6.472
G3 X-57.876 Y-23.236 I0.041 J0.315
G1 X-57.835 Y-22.921
X-57.826 Y-22.851 Z-0.992
X-57.817 Y-22.784 Z-0.969
X-57.809 Y-22.725 Z-0.931
X-57.803 Y-22.675 Z-0.88
X-57.798 Y-22.637 Z-0.82
X-57.795 Y-22.614 Z-0.753
X-57.794 Y-22.606 Z-0.683
Z5
X-58.424 Y-22.524
Z1 F333.3
Z-1.683
X-58.425 Y-22.532 Z-1.753 F1000
X-58.428 Y-22.555 Z-1.82
X-58.432 Y-22.593 Z-1.88
X-58.439 Y-22.643 Z-1.931
X-58.447 Y-22.702 Z-1.969
X-58.455 Y-22.769 Z-1.992
X-58.465 Y-22.839 Z-2
X-58.506 Y-23.154
G3 X-58.232 Y-23.51 I0.315 J-0.041
G2 X-52.326 Y-26.085 I-1.497 J-11.49
X-8.579 Y-125.992 I-77.674 J-93.543
G1 X-13.141 Y-213.042
Y-225
G2 X-14.729 Y-226.587 I-1.587 J0
G1 X-44.729
G2 X-46.316 Y-225 I0 J1.587
G1 Y-213.042
X-52.697 Y-91.283
G3 X-69.341 Y-41.472 I-98.278 J-5.15
G2 X-58.232 Y-23.51 I9.612 J6.472
G3 X-57.876 Y-23.236 I0.041 J0.315
G1 X-57.835 Y-22.921
X-57.826 Y-22.851 Z-1.992
X-57.817 Y-22.784 Z-1.969
X-57.809 Y-22.725 Z-1.931
X-57.803 Y-22.675 Z-1.88
X-57.798 Y-22.637 Z-1.82
X-57.795 Y-22.614 Z-1.753
X-57.794 Y-22.606 Z-1.683
Z5
X-58.424 Y-22.524
Z0 F333.3
Z-2.283
X-58.425 Y-22.532 Z-2.353 F1000
X-58.428 Y-22.555 Z-2.42
X-58.432 Y-22.593 Z-2.48
X-58.439 Y-22.643 Z-2.531
X-58.447 Y-22.702 Z-2.569
X-58.455 Y-22.769 Z-2.592
X-58.465 Y-22.839 Z-2.6
X-58.506 Y-23.154
G3 X-58.232 Y-23.51 I0.315 J-0.041
G2 X-52.326 Y-26.085 I-1.497 J-11.49
X-20.542 Y-66.691 I-77.674 J-93.543
G1 Z-2.2
G2 X-16.861 Y-75.095 I-109.458 J-52.938
G1 Z-2.6 F333.3
G2 X-8.579 Y-125.992 I-113.138 J-44.533 F1000
G1 X-10.621 Y-164.956
Z-2.2
X-11.101 Y-174.118
Z-2.6 F333.3
X-13.141 Y-213.042 F1000
Y-225
G2 X-14.729 Y-226.587 I-1.587 J0
G1 X-44.729
G2 X-46.316 Y-225 I0 J1.587
G1 Y-213.042
X-49.266 Y-156.764
Z-2.2
X-49.746 Y-147.602
Z-2.6 F333.3
X-52.697 Y-91.283 F1000
G3 X-69.341 Y-41.472 I-98.278 J-5.15
G2 X-58.232 Y-23.51 I9.612 J6.472
G3 X-57.876 Y-23.236 I0.041 J0.315
G1 X-57.835 Y-22.921
X-57.826 Y-22.851 Z-2.592
X-57.817 Y-22.784 Z-2.569
X-57.809 Y-22.725 Z-2.531
X-57.803 Y-22.675 Z-2.48
X-57.798 Y-22.637 Z-2.42
X-57.795 Y-22.614 Z-2.353
X-57.794 Y-22.606 Z-2.283
Z5
X-58.424 Y-22.524
Z-0.6 F333.3
Z-2.883
X-58.425 Y-22.532 Z-2.953 F1000
X-58.428 Y-22.555 Z-3.02
X-58.432 Y-22.593 Z-3.08
X-58.439 Y-22.643 Z-3.131
X-58.447 Y-22.702 Z-3.169
X-58.455 Y-22.769 Z-3.192
X-58.465 Y-22.839 Z-3.2
X-58.506 Y-23.154
G3 X-58.232 Y-23.51 I0.315 J-0.041
G2 X-52.326 Y-26.085 I-1.497 J-11.49
X-20.542 Y-66.691 I-77.674 J-93.543
G1 Z-2.2
G2 X-16.861 Y-75.095 I-109.458 J-52.938
G1 Z-3.2 F333.3
G2 X-8.579 Y-125.992 I-113.138 J-44.533 F1000
G1 X-10.621 Y-164.956
Z-2.2
X-11.101 Y-174.118
Z-3.2 F333.3
X-13.141 Y-213.042 F1000
Y-225
G2 X-14.729 Y-226.587 I-1.587 J0
G1 X-44.729
G2 X-46.316 Y-225 I0 J1.587
G1 Y-213.042
X-49.266 Y-156.764
Z-2.2
X-49.746 Y-147.602
Z-3.2 F333.3
X-52.697 Y-91.283 F1000
G3 X-69.341 Y-41.472 I-98.278 J-5.15
G2 X-58.232 Y-23.51 I9.612 J6.472
G3 X-57.876 Y-23.236 I0.041 J0.315
G1 X-57.835 Y-22.921
X-57.826 Y-22.851 Z-3.192
X-57.817 Y-22.784 Z-3.169
X-57.809 Y-22.725 Z-3.131
X-57.803 Y-22.675 Z-3.08
X-57.798 Y-22.637 Z-3.02
X-57.795 Y-22.614 Z-2.953
X-57.794 Y-22.606 Z-2.883
Z15
(When using Fusion 360 for Personal Use, the feedrate of )
(rapid moves is reduced to match the feedrate of cutting )
(moves, which can increase machining time. Unrestricted )
(rapid moves are available with a Fusion 360 Subscription. )

(2D-Kontur3)
G0 Z15
X-108.424 Y-22.524
G1 Z5 F1000
Z2 F333.3
Z-0.682
X-108.425 Y-22.532 Z-0.753 F1000
X-108.428 Y-22.555 Z-0.82
X-108.432 Y-22.593 Z-0.88
X-108.439 Y-22.643 Z-0.931
X-108.447 Y-22.702 Z-0.969
X-108.455 Y-22.769 Z-0.992
X-108.465 Y-22.839 Z-1
X-108.506 Y-23.154
G3 X-108.232 Y-23.51 I0.315 J-0.041
G2 X-102.326 Y-26.085 I-1.497 J-11.49
X-58.579 Y-125.992 I-77.674 J-93.543
G1 X-63.141 Y-213.042
Y-225
G2 X-64.729 Y-226.587 I-1.587 J0
G1 X-94.729
G2 X-96.316 Y-225 I0 J1.587
G1 Y-213.042
X-102.697 Y-91.283
G3 X-119.341 Y-41.472 I-98.278 J-5.15
G2 X-108.232 Y-23.51 I9.612 J6.472
G3 X-107.876 Y-23.236 I0.041 J0.315
G1 X-107.835 Y-22.921
X-107.826 Y-22.851 Z-0.992
X-107.817 Y-22.784 Z-0.969
X-107.809 Y-22.725 Z-0.931
X-107.803 Y-22.675 Z-0.88
X-107.798 Y-22.637 Z-0.82
X-107.795 Y-22.614 Z-0.753
X-107.794 Y-22.606 Z-0.682
Z5
X-108.424 Y-22.524
Z1 F333.3
Z-1.682
X-108.425 Y-22.532 Z-1.753 F1000
X-108.428 Y-22.555 Z-1.82
X-108.432 Y-22.593 Z-1.88
X-108.439 Y-22.643 Z-1.931
X-108.447 Y-22.702 Z-1.969
X-108.455 Y-22.769 Z-1.992
X-108.465 Y-22.839 Z-2
X-108.506 Y-23.154
G3 X-108.232 Y-23.51 I0.315 J-0.041
G2 X-102.326 Y-26.085 I-1.497 J-11.49
X-58.579 Y-125.992 I-77.674 J-93.543
G1 X-63.141 Y-213.042
Y-225
G2 X-64.729 Y-226.587 I-1.587 J0
G1 X-94.729
G2 X-96.316 Y-225 I0 J1.587
G1 Y-213.042
X-102.697 Y-91.283
G3 X-119.341 Y-41.472 I-98.278 J-5.15
G2 X-108.232 Y-23.51 I9.612 J6.472
G3 X-107.876 Y-23.236 I0.041 J0.315
G1 X-107.835 Y-22.921
X-107.826 Y-22.851 Z-1.992
X-107.817 Y-22.784 Z-1.969
X-107.809 Y-22.725 Z-1.931
X-107.803 Y-22.675 Z-1.88
X-107.798 Y-22.637 Z-1.82
X-107.795 Y-22.614 Z-1.753
X-107.794 Y-22.606 Z-1.682
Z5
X-108.424 Y-22.524
Z0 F333.3
Z-2.282
X-108.425 Y-22.532 Z-2.353 F1000
X-108.428 Y-22.555 Z-2.42
X-108.432 Y-22.593 Z-2.48
X-108.439 Y-22.643 Z-2.531
X-108.447 Y-22.702 Z-2.569
X-108.455 Y-22.769 Z-2.592
X-108.465 Y-22.839 Z-2.6
X-108.506 Y-23.154
G3 X-108.232 Y-23.51 I0.315 J-0.041
G2 X-102.326 Y-26.085 I-1.497 J-11.49
X-70.542 Y-66.691 I-77.674 J-93.543
G1 Z-2.2
G2 X-66.861 Y-75.095 I-109.458 J-52.938
G1 Z-2.6 F333.3
G2 X-58.579 Y-125.992 I-113.138 J-44.533 F1000
G1 X-60.621 Y-164.956
Z-2.2
X-61.101 Y-174.118
Z-2.6 F333.3
X-63.141 Y-213.042 F1000
Y-225
G2 X-64.729 Y-226.587 I-1.587 J0
G1 X-94.729
G2 X-96.316 Y-225 I0 J1.587
G1 Y-213.042
X-99.266 Y-156.764
Z-2.2
X-99.746 Y-147.602
Z-2.6 F333.3
X-102.697 Y-91.283 F1000
G3 X-119.341 Y-41.472 I-98.278 J-5.15
G2 X-108.232 Y-23.51 I9.612 J6.472
G3 X-107.876 Y-23.236 I0.041 J0.315
G1 X-107.835 Y-22.921
X-107.826 Y-22.851 Z-2.592
X-107.817 Y-22.784 Z-2.569
X-107.809 Y-22.725 Z-2.531
X-107.803 Y-22.675 Z-2.48
X-107.798 Y-22.637 Z-2.42
X-107.795 Y-22.614 Z-2.353
X-107.794 Y-22.606 Z-2.282
Z5
X-108.424 Y-22.524
Z-0.6 F333.3
Z-2.882
X-108.425 Y-22.532 Z-2.953 F1000
X-108.428 Y-22.555 Z-3.02
X-108.432 Y-22.593 Z-3.08
X-108.439 Y-22.643 Z-3.131
X-108.447 Y-22.702 Z-3.169
X-108.455 Y-22.769 Z-3.192
X-108.465 Y-22.839 Z-3.2
X-108.506 Y-23.154
G3 X-108.232 Y-23.51 I0.315 J-0.041
G2 X-102.326 Y-26.085 I-1.497 J-11.49
X-70.542 Y-66.691 I-77.674 J-93.543
G1 Z-2.2
G2 X-66.861 Y-75.095 I-109.458 J-52.938
G1 Z-3.2 F333.3
G2 X-58.579 Y-125.992 I-113.138 J-44.533 F1000
G1 X-60.621 Y-164.956
Z-2.2
X-61.101 Y-174.118
Z-3.2 F333.3
X-63.141 Y-213.042 F1000
Y-225
G2 X-64.729 Y-226.587 I-1.587 J0
G1 X-94.729
G2 X-96.316 Y-225 I0 J1.587
G1 Y-213.042
X-99.266 Y-156.764
Z-2.2
X-99.746 Y-147.602
Z-3.2 F333.3
X-102.697 Y-91.283 F1000
G3 X-119.341 Y-41.472 I-98.278 J-5.15
G2 X-108.232 Y-23.51 I9.612 J6.472
G3 X-107.876 Y-23.236 I0.041 J0.315
G1 X-107.835 Y-22.921
X-107.826 Y-22.851 Z-3.192
X-107.817 Y-22.784 Z-3.169
X-107.809 Y-22.725 Z-3.131
X-107.803 Y-22.675 Z-3.08
X-107.798 Y-22.637 Z-3.02
X-107.795 Y-22.614 Z-2.953
X-107.794 Y-22.606 Z-2.882
Z15
(When using Fusion 360 for Personal Use, the feedrate of )
(rapid moves is reduced to match the feedrate of cutting )
(moves, which can increase machining time. Unrestricted )
(rapid moves are available with a Fusion 360 Subscription. )

(2D-Kontur3)
G0 Z15
X-158.424 Y-22.524
G1 Z5 F1000
Z2 F333.3
Z-0.682
X-158.425 Y-22.532 Z-0.753 F1000
X-158.428 Y-22.555 Z-0.82
X-158.432 Y-22.593 Z-0.88
X-158.439 Y-22.643 Z-0.931
X-158.447 Y-22.702 Z-0.969
X-158.455 Y-22.769 Z-0.992
X-158.465 Y-22.839 Z-1
X-158.506 Y-23.154
G3 X-158.232 Y-23.51 I0.315 J-0.041
G2 X-152.326 Y-26.085 I-1.497 J-11.49
X-108.579 Y-125.992 I-77.674 J-93.543
G1 X-113.141 Y-213.042
Y-225
G2 X-114.729 Y-226.587 I-1.587 J0
G1 X-144.729
G2 X-146.316 Y-225 I0 J1.587
G1 Y-213.042
X-152.697 Y-91.283
G3 X-169.341 Y-41.472 I-98.278 J-5.15
G2 X-158.232 Y-23.51 I9.612 J6.472
G3 X-157.876 Y-23.236 I0.041 J0.315
G1 X-157.835 Y-22.921
X-157.826 Y-22.851 Z-0.992
X-157.817 Y-22.784 Z-0.969
X-157.809 Y-22.725 Z-0.931
X-157.803 Y-22.675 Z-0.88
X-157.798 Y-22.637 Z-0.82
X-157.795 Y-22.614 Z-0.753
X-157.794 Y-22.606 Z-0.682
Z5
X-158.424 Y-22.524
Z1 F333.3
Z-1.682
X-158.425 Y-22.532 Z-1.753 F1000
X-158.428 Y-22.555 Z-1.82
X-158.432 Y-22.593 Z-1.88
X-158.439 Y-22.643 Z-1.931
X-158.447 Y-22.702 Z-1.969
X-158.455 Y-22.769 Z-1.992
X-158.465 Y-22.839 Z-2
X-158.506 Y-23.154
G3 X-158.232 Y-23.51 I0.315 J-0.041
G2 X-152.326 Y-26.085 I-1.497 J-11.49
X-108.579 Y-125.992 I-77.674 J-93.543
G1 X-113.141 Y-213.042
Y-225
G2 X-114.729 Y-226.587 I-1.587 J0
G1 X-144.729
G2 X-146.316 Y-225 I0 J1.587
G1 Y-213.042
X-152.697 Y-91.283
G3 X-169.341 Y-41.472 I-98.278 J-5.15
G2 X-158.232 Y-23.51 I9.612 J6.472
G3 X-157.876 Y-23.236 I0.041 J0.315
G1 X-157.835 Y-22.921
X-157.826 Y-22.851 Z-1.992
X-157.817 Y-22.784 Z-1.969
X-157.809 Y-22.725 Z-1.931
X-157.803 Y-22.675 Z-1.88
X-157.798 Y-22.637 Z-1.82
X-157.795 Y-22.614 Z-1.753
X-157.794 Y-22.606 Z-1.682
Z5
X-158.424 Y-22.524
Z0 F333.3
Z-2.282
X-158.425 Y-22.532 Z-2.353 F1000
X-158.428 Y-22.555 Z-2.42
X-158.432 Y-22.593 Z-2.48
X-158.439 Y-22.643 Z-2.531
X-158.447 Y-22.702 Z-2.569
X-158.455 Y-22.769 Z-2.592
X-158.465 Y-22.839 Z-2.6
X-158.506 Y-23.154
G3 X-158.232 Y-23.51 I0.315 J-0.041
G2 X-152.326 Y-26.085 I-1.497 J-11.49
X-120.542 Y-66.691 I-77.674 J-93.543
G1 Z-2.2
G2 X-116.861 Y-75.095 I-109.458 J-52.938
G1 Z-2.6 F333.3
G2 X-108.579 Y-125.992 I-113.138 J-44.533 F1000
G1 X-110.621 Y-164.956
Z-2.2
X-111.101 Y-174.118
Z-2.6 F333.3
X-113.141 Y-213.042 F1000
Y-225
G2 X-114.729 Y-226.587 I-1.587 J0
G1 X-144.729
G2 X-146.316 Y-225 I0 J1.587
G1 Y-213.042
X-149.266 Y-156.764
Z-2.2
X-149.746 Y-147.602
Z-2.6 F333.3
X-152.697 Y-91.283 F1000
G3 X-169.341 Y-41.472 I-98.278 J-5.15
G2 X-158.232 Y-23.51 I9.612 J6.472
G3 X-157.876 Y-23.236 I0.041 J0.315
G1 X-157.835 Y-22.921
X-157.826 Y-22.851 Z-2.592
X-157.817 Y-22.784 Z-2.569
X-157.809 Y-22.725 Z-2.531
X-157.803 Y-22.675 Z-2.48
X-157.798 Y-22.637 Z-2.42
X-157.795 Y-22.614 Z-2.353
X-157.794 Y-22.606 Z-2.282
Z5
X-158.424 Y-22.524
Z-0.6 F333.3
Z-2.882
X-158.425 Y-22.532 Z-2.953 F1000
X-158.428 Y-22.555 Z-3.02
X-158.432 Y-22.593 Z-3.08
X-158.439 Y-22.643 Z-3.131
X-158.447 Y-22.702 Z-3.169
X-158.455 Y-22.769 Z-3.192
X-158.465 Y-22.839 Z-3.2
X-158.506 Y-23.154
G3 X-158.232 Y-23.51 I0.315 J-0.041
G2 X-152.326 Y-26.085 I-1.497 J-11.49
X-120.542 Y-66.691 I-77.674 J-93.543
G1 Z-2.2
G2 X-116.861 Y-75.095 I-109.458 J-52.938
G1 Z-3.2 F333.3
G2 X-108.579 Y-125.992 I-113.138 J-44.533 F1000
G1 X-110.621 Y-164.956
Z-2.2
X-111.101 Y-174.118
Z-3.2 F333.3
X-113.141 Y-213.042 F1000
Y-225
G2 X-114.729 Y-226.587 I-1.587 J0
G1 X-144.729
G2 X-146.316 Y-225 I0 J1.587
G1 Y-213.042
X-149.266 Y-156.764
Z-2.2
X-149.746 Y-147.602
Z-3.2 F333.3
X-152.697 Y-91.283 F1000
G3 X-169.341 Y-41.472 I-98.278 J-5.15
G2 X-158.232 Y-23.51 I9.612 J6.472
G3 X-157.876 Y-23.236 I0.041 J0.315
G1 X-157.835 Y-22.921
X-157.826 Y-22.851 Z-3.192
X-157.817 Y-22.784 Z-3.169
X-157.809 Y-22.725 Z-3.131
X-157.803 Y-22.675 Z-3.08
X-157.798 Y-22.637 Z-3.02
X-157.795 Y-22.614 Z-2.953
X-157.794 Y-22.606 Z-2.882
Z15
(When using Fusion 360 for Personal Use, the feedrate of )
(rapid moves is reduced to match the feedrate of cutting )
(moves, which can increase machining time. Unrestricted )
(rapid moves are available with a Fusion 360 Subscription. )

(2D-Kontur3)
G0 Z15
X-208.424 Y-22.524
G1 Z5 F1000
Z2 F333.3
Z-0.682
X-208.425 Y-22.532 Z-0.753 F1000
X-208.428 Y-22.555 Z-0.82
X-208.432 Y-22.593 Z-0.88
X-208.439 Y-22.643 Z-0.931
X-208.447 Y-22.702 Z-0.969
X-208.455 Y-22.769 Z-0.992
X-208.465 Y-22.839 Z-1
X-208.506 Y-23.154
G3 X-208.232 Y-23.51 I0.315 J-0.041
G2 X-202.326 Y-26.085 I-1.497 J-11.49
X-158.579 Y-125.992 I-77.674 J-93.543
G1 X-163.141 Y-213.042
Y-225
G2 X-164.729 Y-226.587 I-1.587 J0
G1 X-194.729
G2 X-196.316 Y-225 I0 J1.587
G1 Y-213.042
X-202.697 Y-91.283
G3 X-219.341 Y-41.472 I-98.278 J-5.15
G2 X-208.232 Y-23.51 I9.612 J6.472
G3 X-207.876 Y-23.236 I0.041 J0.315
G1 X-207.835 Y-22.921
X-207.826 Y-22.851 Z-0.992
X-207.817 Y-22.784 Z-0.969
X-207.809 Y-22.725 Z-0.931
X-207.803 Y-22.675 Z-0.88
X-207.798 Y-22.637 Z-0.82
X-207.795 Y-22.614 Z-0.753
X-207.794 Y-22.606 Z-0.682
Z5
X-208.424 Y-22.524
Z1 F333.3
Z-1.682
X-208.425 Y-22.532 Z-1.753 F1000
X-208.428 Y-22.555 Z-1.82
X-208.432 Y-22.593 Z-1.88
X-208.439 Y-22.643 Z-1.931
X-208.447 Y-22.702 Z-1.969
X-208.455 Y-22.769 Z-1.992
X-208.465 Y-22.839 Z-2
X-208.506 Y-23.154
G3 X-208.232 Y-23.51 I0.315 J-0.041
G2 X-202.326 Y-26.085 I-1.497 J-11.49
X-158.579 Y-125.992 I-77.674 J-93.543
G1 X-163.141 Y-213.042
Y-225
G2 X-164.729 Y-226.587 I-1.587 J0
G1 X-194.729
G2 X-196.316 Y-225 I0 J1.587
G1 Y-213.042
X-202.697 Y-91.283
G3 X-219.341 Y-41.472 I-98.278 J-5.15
G2 X-208.232 Y-23.51 I9.612 J6.472
G3 X-207.876 Y-23.236 I0.041 J0.315
G1 X-207.835 Y-22.921
X-207.826 Y-22.851 Z-1.992
X-207.817 Y-22.784 Z-1.969
X-207.809 Y-22.725 Z-1.931
X-207.803 Y-22.675 Z-1.88
X-207.798 Y-22.637 Z-1.82
X-207.795 Y-22.614 Z-1.753
X-207.794 Y-22.606 Z-1.682
Z5
X-208.424 Y-22.524
Z0 F333.3
Z-2.282
X-208.425 Y-22.532 Z-2.353 F1000
X-208.428 Y-22.555 Z-2.42
X-208.432 Y-22.593 Z-2.48
X-208.439 Y-22.643 Z-2.531
X-208.447 Y-22.702 Z-2.569
X-208.455 Y-22.769 Z-2.592
X-208.465 Y-22.839 Z-2.6
X-208.506 Y-23.154
G3 X-208.232 Y-23.51 I0.315 J-0.041
G2 X-202.326 Y-26.085 I-1.497 J-11.49
X-170.542 Y-66.691 I-77.674 J-93.543
G1 Z-2.2
G2 X-166.861 Y-75.095 I-109.458 J-52.938
G1 Z-2.6 F333.3
G2 X-158.579 Y-125.992 I-113.138 J-44.533 F1000
G1 X-160.621 Y-164.956
Z-2.2
X-161.101 Y-174.118
Z-2.6 F333.3
X-163.141 Y-213.042 F1000
Y-225
G2 X-164.729 Y-226.587 I-1.587 J0
G1 X-194.729
G2 X-196.316 Y-225 I0 J1.587
G1 Y-213.042
X-199.266 Y-156.764
Z-2.2
X-199.746 Y-147.602
Z-2.6 F333.3
X-202.697 Y-91.283 F1000
G3 X-219.341 Y-41.472 I-98.278 J-5.15
G2 X-208.232 Y-23.51 I9.612 J6.472
G3 X-207.876 Y-23.236 I0.041 J0.315
G1 X-207.835 Y-22.921
X-207.826 Y-22.851 Z-2.592
X-207.817 Y-22.784 Z-2.569
X-207.809 Y-22.725 Z-2.531
X-207.803 Y-22.675 Z-2.48
X-207.798 Y-22.637 Z-2.42
X-207.795 Y-22.614 Z-2.353
X-207.794 Y-22.606 Z-2.282
Z5
X-208.424 Y-22.524
Z-0.6 F333.3
Z-2.882
X-208.425 Y-22.532 Z-2.953 F1000
X-208.428 Y-22.555 Z-3.02
X-208.432 Y-22.593 Z-3.08
X-208.439 Y-22.643 Z-3.131
X-208.447 Y-22.702 Z-3.169
X-208.455 Y-22.769 Z-3.192
X-208.465 Y-22.839 Z-3.2
X-208.506 Y-23.154
G3 X-208.232 Y-23.51 I0.315 J-0.041
G2 X-202.326 Y-26.085 I-1.497 J-11.49
X-170.542 Y-66.691 I-77.674 J-93.543
G1 Z-2.2
G2 X-166.861 Y-75.095 I-109.458 J-52.938
G1 Z-3.2 F333.3
G2 X-158.579 Y-125.992 I-113.138 J-44.533 F1000
G1 X-160.621 Y-164.956
Z-2.2
X-161.101 Y-174.118
Z-3.2 F333.3
X-163.141 Y-213.042 F1000
Y-225
G2 X-164.729 Y-226.587 I-1.587 J0
G1 X-194.729
G2 X-196.316 Y-225 I0 J1.587
G1 Y-213.042
X-199.266 Y-156.764
Z-2.2
X-199.746 Y-147.602
Z-3.2 F333.3
X-202.697 Y-91.283 F1000
G3 X-219.341 Y-41.472 I-98.278 J-5.15
G2 X-208.232 Y-23.51 I9.612 J6.472
G3 X-207.876 Y-23.236 I0.041 J0.315
G1 X-207.835 Y-22.921
X-207.826 Y-22.851 Z-3.192
X-207.817 Y-22.784 Z-3.169
X-207.809 Y-22.725 Z-3.131
X-207.803 Y-22.675 Z-3.08
X-207.798 Y-22.637 Z-3.02
X-207.795 Y-22.614 Z-2.953
X-207.794 Y-22.606 Z-2.882
Z15
(When using Fusion 360 for Personal Use, the feedrate of )
(rapid moves is reduced to match the feedrate of cutting )
(moves, which can increase machining time. Unrestricted )
(rapid moves are available with a Fusion 360 Subscription. )

(2D-Kontur3)
G0 Z15
X-258.424 Y-22.524
G1 Z5 F1000
Z2 F333.3
Z-0.682
X-258.425 Y-22.532 Z-0.753 F1000
X-258.428 Y-22.555 Z-0.82
X-258.432 Y-22.593 Z-0.88
X-258.439 Y-22.643 Z-0.931
X-258.447 Y-22.702 Z-0.969
X-258.455 Y-22.769 Z-0.992
X-258.465 Y-22.839 Z-1
X-258.506 Y-23.154
G3 X-258.232 Y-23.51 I0.315 J-0.041
G2 X-252.326 Y-26.085 I-1.497 J-11.49
X-208.579 Y-125.992 I-77.674 J-93.543
G1 X-213.141 Y-213.042
Y-225
G2 X-214.729 Y-226.587 I-1.587 J0
G1 X-244.729
G2 X-246.316 Y-225 I0 J1.587
G1 Y-213.042
X-252.697 Y-91.283
G3 X-269.341 Y-41.472 I-98.278 J-5.15
G2 X-258.232 Y-23.51 I9.612 J6.472
G3 X-257.876 Y-23.236 I0.041 J0.315
G1 X-257.835 Y-22.921
X-257.826 Y-22.851 Z-0.992
X-257.817 Y-22.784 Z-0.969
X-257.809 Y-22.725 Z-0.931
X-257.803 Y-22.675 Z-0.88
X-257.798 Y-22.637 Z-0.82
X-257.795 Y-22.614 Z-0.753
X-257.794 Y-22.606 Z-0.682
Z5
X-258.424 Y-22.524
Z1 F333.3
Z-1.682
X-258.425 Y-22.532 Z-1.753 F1000
X-258.428 Y-22.555 Z-1.82
X-258.432 Y-22.593 Z-1.88
X-258.439 Y-22.643 Z-1.931
X-258.447 Y-22.702 Z-1.969
X-258.455 Y-22.769 Z-1.992
X-258.465 Y-22.839 Z-2
X-258.506 Y-23.154
G3 X-258.232 Y-23.51 I0.315 J-0.041
G2 X-252.326 Y-26.085 I-1.497 J-11.49
X-208.579 Y-125.992 I-77.674 J-93.543
G1 X-213.141 Y-213.042
Y-225
G2 X-214.729 Y-226.587 I-1.587 J0
G1 X-244.729
G2 X-246.316 Y-225 I0 J1.587
G1 Y-213.042
X-252.697 Y-91.283
G3 X-269.341 Y-41.472 I-98.278 J-5.15
G2 X-258.232 Y-23.51 I9.612 J6.472
G3 X-257.876 Y-23.236 I0.041 J0.315
G1 X-257.835 Y-22.921
X-257.826 Y-22.851 Z-1.992
X-257.817 Y-22.784 Z-1.969
X-257.809 Y-22.725 Z-1.931
X-257.803 Y-22.675 Z-1.88
X-257.798 Y-22.637 Z-1.82
X-257.795 Y-22.614 Z-1.753
X-257.794 Y-22.606 Z-1.682
Z5
X-258.424 Y-22.524
Z0 F333.3
Z-2.282
X-258.425 Y-22.532 Z-2.353 F1000
X-258.428 Y-22.555 Z-2.42
X-258.432 Y-22.593 Z-2.48
X-258.439 Y-22.643 Z-2.531
X-258.447 Y-22.702 Z-2.569
X-258.455 Y-22.769 Z-2.592
X-258.465 Y-22.839 Z-2.6
X-258.506 Y-23.154
G3 X-258.232 Y-23.51 I0.315 J-0.041
G2 X-252.326 Y-26.085 I-1.497 J-11.49
X-220.542 Y-66.691 I-77.674 J-93.543
G1 Z-2.2
G2 X-216.861 Y-75.095 I-109.458 J-52.938
G1 Z-2.6 F333.3
G2 X-208.579 Y-125.992 I-113.138 J-44.533 F1000
G1 X-210.621 Y-164.956
Z-2.2
X-211.101 Y-174.118
Z-2.6 F333.3
X-213.141 Y-213.042 F1000
Y-225
G2 X-214.729 Y-226.587 I-1.587 J0
G1 X-244.729
G2 X-246.316 Y-225 I0 J1.587
G1 Y-213.042
X-249.266 Y-156.764
Z-2.2
X-249.746 Y-147.602
Z-2.6 F333.3
X-252.697 Y-91.283 F1000
G3 X-269.341 Y-41.472 I-98.278 J-5.15
G2 X-258.232 Y-23.51 I9.612 J6.472
G3 X-257.876 Y-23.236 I0.041 J0.315
G1 X-257.835 Y-22.921
X-257.826 Y-22.851 Z-2.592
X-257.817 Y-22.784 Z-2.569
X-257.809 Y-22.725 Z-2.531
X-257.803 Y-22.675 Z-2.48
X-257.798 Y-22.637 Z-2.42
X-257.795 Y-22.614 Z-2.353
X-257.794 Y-22.606 Z-2.282
Z5
X-258.424 Y-22.524
Z-0.6 F333.3
Z-2.882
X-258.425 Y-22.532 Z-2.953 F1000
X-258.428 Y-22.555 Z-3.02
X-258.432 Y-22.593 Z-3.08
X-258.439 Y-22.643 Z-3.131
X-258.447 Y-22.702 Z-3.169
X-258.455 Y-22.769 Z-3.192
X-258.465 Y-22.839 Z-3.2
X-258.506 Y-23.154
G3 X-258.232 Y-23.51 I0.315 J-0.041
G2 X-252.326 Y-26.085 I-1.497 J-11.49
X-220.542 Y-66.691 I-77.674 J-93.543
G1 Z-2.2
G2 X-216.861 Y-75.095 I-109.458 J-52.938
G1 Z-3.2 F333.3
G2 X-208.579 Y-125.992 I-113.138 J-44.533 F1000
G1 X-210.621 Y-164.956
Z-2.2
X-211.101 Y-174.118
Z-3.2 F333.3
X-213.141 Y-213.042 F1000
Y-225
G2 X-214.729 Y-226.587 I-1.587 J0
G1 X-244.729
G2 X-246.316 Y-225 I0 J1.587
G1 Y-213.042
X-249.266 Y-156.764
Z-2.2
X-249.746 Y-147.602
Z-3.2 F333.3
X-252.697 Y-91.283 F1000
G3 X-269.341 Y-41.472 I-98.278 J-5.15
G2 X-258.232 Y-23.51 I9.612 J6.472
G3 X-257.876 Y-23.236 I0.041 J0.315
G1 X-257.835 Y-22.921
X-257.826 Y-22.851 Z-3.192
X-257.817 Y-22.784 Z-3.169
X-257.809 Y-22.725 Z-3.131
X-257.803 Y-22.675 Z-3.08
X-257.798 Y-22.637 Z-3.02
X-257.795 Y-22.614 Z-2.953
X-257.794 Y-22.606 Z-2.882
Z15
(When using Fusion 360 for Personal Use, the feedrate of )
(rapid moves is reduced to match the feedrate of cutting )
(moves, which can increase machining time. Unrestricted )
(rapid moves are available with a Fusion 360 Subscription. )

(2D-Kontur3)
G0 X-308.424 Y-22.524
G1 Z15 F1000
Z5
Z2 F333.3
Z-0.682
X-308.425 Y-22.532 Z-0.753 F1000
X-308.428 Y-22.555 Z-0.82
X-308.432 Y-22.593 Z-0.88
X-308.439 Y-22.643 Z-0.931
X-308.447 Y-22.702 Z-0.969
X-308.455 Y-22.769 Z-0.992
X-308.465 Y-22.839 Z-1
X-308.506 Y-23.154
G3 X-308.232 Y-23.51 I0.315 J-0.041
G2 X-302.326 Y-26.085 I-1.497 J-11.49
X-258.579 Y-125.992 I-77.674 J-93.543
G1 X-263.141 Y-213.042
Y-225
G2 X-264.729 Y-226.587 I-1.587 J0
G1 X-294.729
G2 X-296.316 Y-225 I0 J1.587
G1 Y-213.042
X-302.697 Y-91.283
G3 X-319.341 Y-41.472 I-98.278 J-5.15
G2 X-308.232 Y-23.51 I9.612 J6.472
G3 X-307.876 Y-23.236 I0.041 J0.315
G1 X-307.835 Y-22.921
X-307.826 Y-22.851 Z-0.992
X-307.817 Y-22.784 Z-0.969
X-307.809 Y-22.725 Z-0.931
X-307.803 Y-22.675 Z-0.88
X-307.798 Y-22.637 Z-0.82
X-307.795 Y-22.614 Z-0.753
X-307.794 Y-22.606 Z-0.682
Z5
X-308.424 Y-22.524
Z1 F333.3
Z-1.682
X-308.425 Y-22.532 Z-1.753 F1000
X-308.428 Y-22.555 Z-1.82
X-308.432 Y-22.593 Z-1.88
X-308.439 Y-22.643 Z-1.931
X-308.447 Y-22.702 Z-1.969
X-308.455 Y-22.769 Z-1.992
X-308.465 Y-22.839 Z-2
X-308.506 Y-23.154
G3 X-308.232 Y-23.51 I0.315 J-0.041
G2 X-302.326 Y-26.085 I-1.497 J-11.49
X-258.579 Y-125.992 I-77.674 J-93.543
G1 X-263.141 Y-213.042
Y-225
G2 X-264.729 Y-226.587 I-1.587 J0
G1 X-294.729
G2 X-296.316 Y-225 I0 J1.587
G1 Y-213.042
X-302.697 Y-91.283
G3 X-319.341 Y-41.472 I-98.278 J-5.15
G2 X-308.232 Y-23.51 I9.612 J6.472
G3 X-307.876 Y-23.236 I0.041 J0.315
G1 X-307.835 Y-22.921
X-307.826 Y-22.851 Z-1.992
X-307.817 Y-22.784 Z-1.969
X-307.809 Y-22.725 Z-1.931
X-307.803 Y-22.675 Z-1.88
X-307.798 Y-22.637 Z-1.82
X-307.795 Y-22.614 Z-1.753
X-307.794 Y-22.606 Z-1.682
Z5
X-308.424 Y-22.524
Z0 F333.3
Z-2.282
X-308.425 Y-22.532 Z-2.353 F1000
X-308.428 Y-22.555 Z-2.42
X-308.432 Y-22.593 Z-2.48
X-308.439 Y-22.643 Z-2.531
X-308.447 Y-22.702 Z-2.569
X-308.455 Y-22.769 Z-2.592
X-308.465 Y-22.839 Z-2.6
X-308.506 Y-23.154
G3 X-308.232 Y-23.51 I0.315 J-0.041
G2 X-302.326 Y-26.085 I-1.497 J-11.49
X-270.542 Y-66.691 I-77.674 J-93.543
G1 Z-2.2
G2 X-266.861 Y-75.095 I-109.458 J-52.938
G1 Z-2.6 F333.3
G2 X-258.579 Y-125.992 I-113.138 J-44.533 F1000
G1 X-260.621 Y-164.956
Z-2.2
X-261.101 Y-174.118
Z-2.6 F333.3
X-263.141 Y-213.042 F1000
Y-225
G2 X-264.729 Y-226.587 I-1.587 J0
G1 X-294.729
G2 X-296.316 Y-225 I0 J1.587
G1 Y-213.042
X-299.266 Y-156.764
Z-2.2
X-299.746 Y-147.602
Z-2.6 F333.3
X-302.697 Y-91.283 F1000
G3 X-319.341 Y-41.472 I-98.278 J-5.15
G2 X-308.232 Y-23.51 I9.612 J6.472
G3 X-307.876 Y-23.236 I0.041 J0.315
G1 X-307.835 Y-22.921
X-307.826 Y-22.851 Z-2.592
X-307.817 Y-22.784 Z-2.569
X-307.809 Y-22.725 Z-2.531
X-307.803 Y-22.675 Z-2.48
X-307.798 Y-22.637 Z-2.42
X-307.795 Y-22.614 Z-2.353
X-307.794 Y-22.606 Z-2.282
Z5
X-308.424 Y-22.524
Z-0.6 F333.3
Z-2.882
X-308.425 Y-22.532 Z-2.953 F1000
X-308.428 Y-22.555 Z-3.02
X-308.432 Y-22.593 Z-3.08
X-308.439 Y-22.643 Z-3.131
X-308.447 Y-22.702 Z-3.169
X-308.455 Y-22.769 Z-3.192
X-308.465 Y-22.839 Z-3.2
X-308.506 Y-23.154
G3 X-308.232 Y-23.51 I0.315 J-0.041
G2 X-302.326 Y-26.085 I-1.497 J-11.49
X-270.542 Y-66.691 I-77.674 J-93.543
G1 Z-2.2
G2 X-266.861 Y-75.095 I-109.458 J-52.938
G1 Z-3.2 F333.3
G2 X-258.579 Y-125.992 I-113.138 J-44.533 F1000
G1 X-260.621 Y-164.956
Z-2.2
X-261.101 Y-174.118
Z-3.2 F333.3
X-263.141 Y-213.042 F1000
Y-225
G2 X-264.729 Y-226.587 I-1.587 J0
G1 X-294.729
G2 X-296.316 Y-225 I0 J1.587
G1 Y-213.042
X-299.266 Y-156.764
Z-2.2
X-299.746 Y-147.602
Z-3.2 F333.3
X-302.697 Y-91.283 F1000
G3 X-319.341 Y-41.472 I-98.278 J-5.15
G2 X-308.232 Y-23.51 I9.612 J6.472
G3 X-307.876 Y-23.236 I0.041 J0.315
G1 X-307.835 Y-22.921
X-307.826 Y-22.851 Z-3.192
X-307.817 Y-22.784 Z-3.169
X-307.809 Y-22.725 Z-3.131
X-307.803 Y-22.675 Z-3.08
X-307.798 Y-22.637 Z-3.02
X-307.795 Y-22.614 Z-2.953
X-307.794 Y-22.606 Z-2.882
Z15
(When using Fusion 360 for Personal Use, the feedrate of )
(rapid moves is reduced to match the feedrate of cutting )
(moves, which can increase machining time. Unrestricted )
(rapid moves are available with a Fusion 360 Subscription. )

(2D-Kontur3)
G0 Z15
X-358.424 Y-22.524
G1 Z5 F1000
Z2 F333.3
Z-0.682
X-358.425 Y-22.532 Z-0.753 F1000
X-358.428 Y-22.555 Z-0.82
X-358.432 Y-22.593 Z-0.88
X-358.439 Y-22.643 Z-0.931
X-358.447 Y-22.702 Z-0.969
X-358.455 Y-22.769 Z-0.992
X-358.465 Y-22.839 Z-1
X-358.506 Y-23.154
G3 X-358.232 Y-23.51 I0.315 J-0.041
G2 X-352.326 Y-26.085 I-1.497 J-11.49
X-308.579 Y-125.992 I-77.674 J-93.543
G1 X-313.141 Y-213.042
Y-225
G2 X-314.729 Y-226.587 I-1.587 J0
G1 X-344.729
G2 X-346.316 Y-225 I0 J1.587
G1 Y-213.042
X-352.697 Y-91.283
G3 X-369.341 Y-41.472 I-98.278 J-5.15
G2 X-358.232 Y-23.51 I9.612 J6.472
G3 X-357.876 Y-23.236 I0.041 J0.315
G1 X-357.835 Y-22.921
X-357.826 Y-22.851 Z-0.992
X-357.817 Y-22.784 Z-0.969
X-357.809 Y-22.725 Z-0.931
X-357.803 Y-22.675 Z-0.88
X-357.798 Y-22.637 Z-0.82
X-357.795 Y-22.614 Z-0.753
X-357.794 Y-22.606 Z-0.682
Z5
X-358.424 Y-22.524
Z1 F333.3
Z-1.682
X-358.425 Y-22.532 Z-1.753 F1000
X-358.428 Y-22.555 Z-1.82
X-358.432 Y-22.593 Z-1.88
X-358.439 Y-22.643 Z-1.931
X-358.447 Y-22.702 Z-1.969
X-358.455 Y-22.769 Z-1.992
X-358.465 Y-22.839 Z-2
X-358.506 Y-23.154
G3 X-358.232 Y-23.51 I0.315 J-0.041
G2 X-352.326 Y-26.085 I-1.497 J-11.49
X-308.579 Y-125.992 I-77.674 J-93.543
G1 X-313.141 Y-213.042
Y-225
G2 X-314.729 Y-226.587 I-1.587 J0
G1 X-344.729
G2 X-346.316 Y-225 I0 J1.587
G1 Y-213.042
X-352.697 Y-91.283
G3 X-369.341 Y-41.472 I-98.278 J-5.15
G2 X-358.232 Y-23.51 I9.612 J6.472
G3 X-357.876 Y-23.236 I0.041 J0.315
G1 X-357.835 Y-22.921
X-357.826 Y-22.851 Z-1.992
X-357.817 Y-22.784 Z-1.969
X-357.809 Y-22.725 Z-1.931
X-357.803 Y-22.675 Z-1.88
X-357.798 Y-22.637 Z-1.82
X-357.795 Y-22.614 Z-1.753
X-357.794 Y-22.606 Z-1.682
Z5
X-358.424 Y-22.524
Z0 F333.3
Z-2.282
X-358.425 Y-22.532 Z-2.353 F1000
X-358.428 Y-22.555 Z-2.42
X-358.432 Y-22.593 Z-2.48
X-358.439 Y-22.643 Z-2.531
X-358.447 Y-22.702 Z-2.569
X-358.455 Y-22.769 Z-2.592
X-358.465 Y-22.839 Z-2.6
X-358.506 Y-23.154
G3 X-358.232 Y-23.51 I0.315 J-0.041
G2 X-352.326 Y-26.085 I-1.497 J-11.49
X-320.542 Y-66.691 I-77.674 J-93.543
G1 Z-2.2
G2 X-316.861 Y-75.095 I-109.458 J-52.938
G1 Z-2.6 F333.3
G2 X-308.579 Y-125.992 I-113.138 J-44.533 F1000
G1 X-310.621 Y-164.956
Z-2.2
X-311.101 Y-174.118
Z-2.6 F333.3
X-313.141 Y-213.042 F1000
Y-225
G2 X-314.729 Y-226.587 I-1.587 J0
G1 X-344.729
G2 X-346.316 Y-225 I0 J1.587
G1 Y-213.042
X-349.266 Y-156.764
Z-2.2
X-349.746 Y-147.602
Z-2.6 F333.3
X-352.697 Y-91.283 F1000
G3 X-369.341 Y-41.472 I-98.278 J-5.15
G2 X-358.232 Y-23.51 I9.612 J6.472
G3 X-357.876 Y-23.236 I0.041 J0.315
G1 X-357.835 Y-22.921
X-357.826 Y-22.851 Z-2.592
X-357.817 Y-22.784 Z-2.569
X-357.809 Y-22.725 Z-2.531
X-357.803 Y-22.675 Z-2.48
X-357.798 Y-22.637 Z-2.42
X-357.795 Y-22.614 Z-2.353
X-357.794 Y-22.606 Z-2.282
Z5
X-358.424 Y-22.524
Z-0.6 F333.3
Z-2.882
X-358.425 Y-22.532 Z-2.953 F1000
X-358.428 Y-22.555 Z-3.02
X-358.432 Y-22.593 Z-3.08
X-358.439 Y-22.643 Z-3.131
X-358.447 Y-22.702 Z-3.169
X-358.455 Y-22.769 Z-3.192
X-358.465 Y-22.839 Z-3.2
X-358.506 Y-23.154
G3 X-358.232 Y-23.51 I0.315 J-0.041
G2 X-352.326 Y-26.085 I-1.497 J-11.49
X-320.542 Y-66.691 I-77.674 J-93.543
G1 Z-2.2
G2 X-316.861 Y-75.095 I-109.458 J-52.938
G1 Z-3.2 F333.3
G2 X-308.579 Y-125.992 I-113.138 J-44.533 F1000
G1 X-310.621 Y-164.956
Z-2.2
X-311.101 Y-174.118
Z-3.2 F333.3
X-313.141 Y-213.042 F1000
Y-225
G2 X-314.729 Y-226.587 I-1.587 J0
G1 X-344.729
G2 X-346.316 Y-225 I0 J1.587
G1 Y-213.042
X-349.266 Y-156.764
Z-2.2
X-349.746 Y-147.602
Z-3.2 F333.3
X-352.697 Y-91.283 F1000
G3 X-369.341 Y-41.472 I-98.278 J-5.15
G2 X-358.232 Y-23.51 I9.612 J6.472
G3 X-357.876 Y-23.236 I0.041 J0.315
G1 X-357.835 Y-22.921
X-357.826 Y-22.851 Z-3.192
X-357.817 Y-22.784 Z-3.169
X-357.809 Y-22.725 Z-3.131
X-357.803 Y-22.675 Z-3.08
X-357.798 Y-22.637 Z-3.02
X-357.795 Y-22.614 Z-2.953
X-357.794 Y-22.606 Z-2.882
Z15
M5
M30
