(Flugel)
(Maschine)
(  Hersteller: ChinaCnc)
(  Modell: 3040T)
(  Beschreibung: Generic 3-axis)
(T14  D=3.175 CR=0 - ZMIN=-4.2 - Schaftfraser)
G90 G94
G17
G21
G28 G91 Z0
G90

(2D-Kontur1)
T14
S8000 M3
G54
G0 X-26.264 Y-216.518
Z15
Z5
G1 Z2.5 F508
G2 X-32.402 Y-213.914 Z2.264 I1.265 J11.518 F1016
X-76.312 Y-119.321 Z-1.5 I77.673 J93.543
X-76.15 Y-114.008 I121.583 J-1.05 F2540
G1 X-71.588 Y-26.958
Y-15
G2 X-70 Y-13.413 I1.588 J0
G1 X-40
G2 X-38.412 Y-15 I0 J-1.587
G1 Y-26.958
X-32.031 Y-148.717
G3 X-15.388 Y-198.528 I98.278 J5.151
G2 X-32.402 Y-213.914 I-9.612 J-6.471
X-76.312 Y-119.321 I77.673 J93.543
X-76.15 Y-114.008 Z-1.636 I121.583 J-1.05 F1016
G1 X-73.37 Y-60.977 Z-3
X-71.588 Y-26.958 F2540
Y-15
G2 X-70 Y-13.413 I1.588 J0
G1 X-40
G2 X-38.412 Y-15 I0 J-1.587
G1 Y-26.958
X-32.031 Y-148.717
G3 X-15.388 Y-198.528 I98.278 J5.151
G2 X-32.402 Y-213.914 I-9.612 J-6.471
X-76.15 Y-114.008 I77.673 J93.543
G1 X-73.37 Y-60.977
X-71.588 Y-26.958 Z-3.875 F1016
Y-15 Z-4.182
G2 X-71.431 Y-14.312 Z-4.2 I1.588 J0
X-70 Y-13.413 I1.431 J-0.688 F2540
G1 X-40
G2 X-38.412 Y-15 I0 J-1.587
G1 Y-26.958
X-35.516 Y-82.237
Z-3.2
X-34.931 Y-93.397
Z-4.2 F508
X-32.031 Y-148.717 F2540
G3 X-15.388 Y-198.528 I98.278 J5.151
G2 X-32.402 Y-213.914 I-9.612 J-6.471
X-63.747 Y-174.209 I77.673 J93.543
G1 Z-3.2
G2 X-68.23 Y-163.972 I109.018 J53.837
G1 Z-4.2 F508
G2 X-76.15 Y-114.008 I113.501 J43.601 F2540
G1 X-71.588 Y-26.958
Y-15
G2 X-71.431 Y-14.312 I1.588 J0
G0 Z15

(2D-Kontur1)
X-76.264 Y-216.518
Z15
Z5
G1 Z2.5 F508
G2 X-82.402 Y-213.914 Z2.264 I1.265 J11.518 F1016
X-126.312 Y-119.321 Z-1.5 I77.673 J93.543
X-126.15 Y-114.008 I121.583 J-1.05 F2540
G1 X-121.587 Y-26.958
Y-15
G2 X-120 Y-13.413 I1.588 J0
G1 X-90
G2 X-88.412 Y-15 I0 J-1.587
G1 Y-26.958
X-82.031 Y-148.717
G3 X-65.388 Y-198.528 I98.278 J5.151
G2 X-82.402 Y-213.914 I-9.612 J-6.471
X-126.312 Y-119.321 I77.673 J93.543
X-126.15 Y-114.008 Z-1.637 I121.583 J-1.05 F1016
G1 X-123.37 Y-60.977 Z-3
X-121.587 Y-26.958 F2540
Y-15
G2 X-120 Y-13.413 I1.588 J0
G1 X-90
G2 X-88.412 Y-15 I0 J-1.587
G1 Y-26.958
X-82.031 Y-148.717
G3 X-65.388 Y-198.528 I98.278 J5.151
G2 X-82.402 Y-213.914 I-9.612 J-6.471
X-126.15 Y-114.008 I77.673 J93.543
G1 X-123.37 Y-60.977
X-121.587 Y-26.958 Z-3.875 F1016
Y-15 Z-4.182
G2 X-121.431 Y-14.312 Z-4.2 I1.588 J0
X-120 Y-13.413 I1.431 J-0.688 F2540
G1 X-90
G2 X-88.412 Y-15 I0 J-1.587
G1 Y-26.958
X-85.516 Y-82.237
Z-3.2
X-84.931 Y-93.397
Z-4.2 F508
X-82.031 Y-148.717 F2540
G3 X-65.388 Y-198.528 I98.278 J5.151
G2 X-82.402 Y-213.914 I-9.612 J-6.471
X-113.747 Y-174.209 I77.673 J93.543
G1 Z-3.2
G2 X-118.23 Y-163.972 I109.018 J53.837
G1 Z-4.2 F508
G2 X-126.15 Y-114.008 I113.501 J43.601 F2540
G1 X-121.587 Y-26.958
Y-15
G2 X-121.431 Y-14.312 I1.588 J0
G0 Z15

(2D-Kontur1)
X-126.264 Y-216.518
Z15
Z5
G1 Z2.5 F508
G2 X-132.402 Y-213.914 Z2.264 I1.265 J11.518 F1016
X-176.312 Y-119.321 Z-1.5 I77.673 J93.543
X-176.15 Y-114.008 I121.583 J-1.05 F2540
G1 X-171.587 Y-26.958
Y-15
G2 X-170 Y-13.413 I1.588 J0
G1 X-140
G2 X-138.412 Y-15 I0 J-1.587
G1 Y-26.958
X-132.031 Y-148.717
G3 X-115.388 Y-198.528 I98.278 J5.151
G2 X-132.402 Y-213.914 I-9.612 J-6.471
X-176.312 Y-119.321 I77.673 J93.543
X-176.15 Y-114.008 Z-1.637 I121.583 J-1.05 F1016
G1 X-173.37 Y-60.977 Z-3
X-171.587 Y-26.958 F2540
Y-15
G2 X-170 Y-13.413 I1.588 J0
G1 X-140
G2 X-138.412 Y-15 I0 J-1.587
G1 Y-26.958
X-132.031 Y-148.717
G3 X-115.388 Y-198.528 I98.278 J5.151
G2 X-132.402 Y-213.914 I-9.612 J-6.471
X-176.15 Y-114.008 I77.673 J93.543
G1 X-173.37 Y-60.977
X-171.587 Y-26.958 Z-3.875 F1016
Y-15 Z-4.182
G2 X-171.431 Y-14.312 Z-4.2 I1.588 J0
X-170 Y-13.413 I1.431 J-0.688 F2540
G1 X-140
G2 X-138.412 Y-15 I0 J-1.587
G1 Y-26.958
X-135.516 Y-82.237
Z-3.2
X-134.931 Y-93.397
Z-4.2 F508
X-132.031 Y-148.717 F2540
G3 X-115.388 Y-198.528 I98.278 J5.151
G2 X-132.402 Y-213.914 I-9.612 J-6.471
X-163.747 Y-174.209 I77.673 J93.543
G1 Z-3.2
G2 X-168.23 Y-163.972 I109.018 J53.837
G1 Z-4.2 F508
G2 X-176.15 Y-114.008 I113.501 J43.601 F2540
G1 X-171.587 Y-26.958
Y-15
G2 X-171.431 Y-14.312 I1.588 J0
G0 Z15

(2D-Kontur1)
X-176.264 Y-216.518
Z15
Z5
G1 Z2.5 F508
G2 X-182.402 Y-213.914 Z2.264 I1.265 J11.518 F1016
X-226.312 Y-119.321 Z-1.5 I77.673 J93.543
X-226.15 Y-114.008 I121.583 J-1.05 F2540
G1 X-221.588 Y-26.958
Y-15
G2 X-220 Y-13.413 I1.588 J0
G1 X-190
G2 X-188.412 Y-15 I0 J-1.587
G1 Y-26.958
X-182.031 Y-148.717
G3 X-165.388 Y-198.528 I98.278 J5.151
G2 X-182.402 Y-213.914 I-9.612 J-6.471
X-226.312 Y-119.321 I77.673 J93.543
X-226.15 Y-114.008 Z-1.637 I121.583 J-1.05 F1016
G1 X-223.37 Y-60.977 Z-3
X-221.588 Y-26.958 F2540
Y-15
G2 X-220 Y-13.413 I1.588 J0
G1 X-190
G2 X-188.412 Y-15 I0 J-1.587
G1 Y-26.958
X-182.031 Y-148.717
G3 X-165.388 Y-198.528 I98.278 J5.151
G2 X-182.402 Y-213.914 I-9.612 J-6.471
X-226.15 Y-114.008 I77.673 J93.543
G1 X-223.37 Y-60.977
X-221.588 Y-26.958 Z-3.875 F1016
Y-15 Z-4.182
G2 X-221.431 Y-14.312 Z-4.2 I1.588 J0
X-220 Y-13.413 I1.431 J-0.688 F2540
G1 X-190
G2 X-188.412 Y-15 I0 J-1.587
G1 Y-26.958
X-185.516 Y-82.237
Z-3.2
X-184.931 Y-93.397
Z-4.2 F508
X-182.031 Y-148.717 F2540
G3 X-165.388 Y-198.528 I98.278 J5.151
G2 X-182.402 Y-213.914 I-9.612 J-6.471
X-213.747 Y-174.209 I77.673 J93.543
G1 Z-3.2
G2 X-218.23 Y-163.972 I109.018 J53.837
G1 Z-4.2 F508
G2 X-226.15 Y-114.008 I113.501 J43.601 F2540
G1 X-221.588 Y-26.958
Y-15
G2 X-221.431 Y-14.312 I1.588 J0
G0 Z15

(2D-Kontur1)
X-226.264 Y-216.518
Z15
Z5
G1 Z2.5 F508
G2 X-232.402 Y-213.914 Z2.264 I1.265 J11.518 F1016
X-276.312 Y-119.321 Z-1.5 I77.673 J93.543
X-276.15 Y-114.008 I121.583 J-1.05 F2540
G1 X-271.587 Y-26.958
Y-15
G2 X-270 Y-13.413 I1.588 J0
G1 X-240
G2 X-238.412 Y-15 I0 J-1.587
G1 Y-26.958
X-232.031 Y-148.717
G3 X-215.388 Y-198.528 I98.278 J5.151
G2 X-232.402 Y-213.914 I-9.612 J-6.471
X-276.312 Y-119.321 I77.673 J93.543
X-276.15 Y-114.008 Z-1.637 I121.583 J-1.05 F1016
G1 X-273.37 Y-60.977 Z-3
X-271.587 Y-26.958 F2540
Y-15
G2 X-270 Y-13.413 I1.588 J0
G1 X-240
G2 X-238.412 Y-15 I0 J-1.587
G1 Y-26.958
X-232.031 Y-148.717
G3 X-215.388 Y-198.528 I98.278 J5.151
G2 X-232.402 Y-213.914 I-9.612 J-6.471
X-276.15 Y-114.008 I77.673 J93.543
G1 X-273.37 Y-60.977
X-271.587 Y-26.958 Z-3.875 F1016
Y-15 Z-4.182
G2 X-271.431 Y-14.312 Z-4.2 I1.588 J0
X-270 Y-13.413 I1.431 J-0.688 F2540
G1 X-240
G2 X-238.412 Y-15 I0 J-1.587
G1 Y-26.958
X-235.516 Y-82.237
Z-3.2
X-234.931 Y-93.397
Z-4.2 F508
X-232.031 Y-148.717 F2540
G3 X-215.388 Y-198.528 I98.278 J5.151
G2 X-232.402 Y-213.914 I-9.612 J-6.471
X-263.747 Y-174.209 I77.673 J93.543
G1 Z-3.2
G2 X-268.23 Y-163.972 I109.018 J53.837
G1 Z-4.2 F508
G2 X-276.15 Y-114.008 I113.501 J43.601 F2540
G1 X-271.587 Y-26.958
Y-15
G2 X-271.431 Y-14.312 I1.588 J0
G0 Z15

(2D-Kontur1)
X-276.264 Y-216.518
Z15
Z5
G1 Z2.5 F508
G2 X-282.402 Y-213.914 Z2.264 I1.265 J11.518 F1016
X-326.312 Y-119.321 Z-1.5 I77.673 J93.543
X-326.15 Y-114.008 I121.583 J-1.05 F2540
G1 X-321.588 Y-26.958
Y-15
G2 X-320 Y-13.413 I1.588 J0
G1 X-290
G2 X-288.412 Y-15 I0 J-1.587
G1 Y-26.958
X-282.031 Y-148.717
G3 X-265.388 Y-198.528 I98.278 J5.151
G2 X-282.402 Y-213.914 I-9.612 J-6.471
X-326.312 Y-119.321 I77.673 J93.543
X-326.15 Y-114.008 Z-1.637 I121.583 J-1.05 F1016
G1 X-323.37 Y-60.977 Z-3
X-321.588 Y-26.958 F2540
Y-15
G2 X-320 Y-13.413 I1.588 J0
G1 X-290
G2 X-288.412 Y-15 I0 J-1.587
G1 Y-26.958
X-282.031 Y-148.717
G3 X-265.388 Y-198.528 I98.278 J5.151
G2 X-282.402 Y-213.914 I-9.612 J-6.471
X-326.15 Y-114.008 I77.673 J93.543
G1 X-323.37 Y-60.977
X-321.588 Y-26.958 Z-3.875 F1016
Y-15 Z-4.182
G2 X-321.431 Y-14.312 Z-4.2 I1.588 J0
X-320 Y-13.413 I1.431 J-0.688 F2540
G1 X-290
G2 X-288.412 Y-15 I0 J-1.587
G1 Y-26.958
X-285.516 Y-82.237
Z-3.2
X-284.931 Y-93.397
Z-4.2 F508
X-282.031 Y-148.717 F2540
G3 X-265.388 Y-198.528 I98.278 J5.151
G2 X-282.402 Y-213.914 I-9.612 J-6.471
X-313.747 Y-174.209 I77.673 J93.543
G1 Z-3.2
G2 X-318.23 Y-163.972 I109.018 J53.837
G1 Z-4.2 F508
G2 X-326.15 Y-114.008 I113.501 J43.601 F2540
G1 X-321.588 Y-26.958
Y-15
G2 X-321.431 Y-14.312 I1.588 J0
G0 Z15
G28 G91 Z0
G90
G28 G91 X0 Y0
G90
M5
M30
