(1001)
G90 G94
G17
G21
(When using Fusion 360 for Personal Use, the feedrate of )
(rapid moves is reduced to match the feedrate of cutting )
(moves, which can increase machining time. Unrestricted )
(rapid moves are available with a Fusion 360 Subscription. )

(2D-Kontur3)
T5
S8000 M3
G54
G0 X-58.424 Y-22.524
Z15
G1 Z5 F1000
Z2 F333.3
Z-0.683
X-58.425 Y-22.532 Z-0.753 F1000
X-58.428 Y-22.555 Z-0.82
X-58.432 Y-22.593 Z-0.88
X-58.439 Y-22.643 Z-0.931
X-58.447 Y-22.702 Z-0.969
X-58.455 Y-22.769 Z-0.992
X-58.465 Y-22.839 Z-1
X-58.506 Y-23.154
G3 X-58.232 Y-23.51 I0.315 J-0.041
G2 X-52.326 Y-26.085 I-1.497 J-11.49
X-8.579 Y-125.992 I-77.674 J-93.543
G1 X-13.141 Y-213.042
Y-225
G2 X-14.729 Y-226.587 I-1.587 J0
G1 X-44.729
G2 X-46.316 Y-225 I0 J1.587
G1 Y-213.042
X-52.697 Y-91.283
G3 X-69.341 Y-41.472 I-98.278 J-5.15
G2 X-58.232 Y-23.51 I9.612 J6.472
G3 X-57.876 Y-23.236 I0.041 J0.315
G1 X-57.835 Y-22.921
X-57.826 Y-22.851 Z-0.992
X-57.817 Y-22.784 Z-0.969
X-57.809 Y-22.725 Z-0.931
X-57.803 Y-22.675 Z-0.88
X-57.798 Y-22.637 Z-0.82
X-57.795 Y-22.614 Z-0.753
X-57.794 Y-22.606 Z-0.683
Z5
X-58.424 Y-22.524
Z1 F333.3
Z-1.683
X-58.425 Y-22.532 Z-1.753 F1000
X-58.428 Y-22.555 Z-1.82
X-58.432 Y-22.593 Z-1.88
X-58.439 Y-22.643 Z-1.931
X-58.447 Y-22.702 Z-1.969
X-58.455 Y-22.769 Z-1.992
X-58.465 Y-22.839 Z-2
X-58.506 Y-23.154
G3 X-58.232 Y-23.51 I0.315 J-0.041
G2 X-52.326 Y-26.085 I-1.497 J-11.49
X-8.579 Y-125.992 I-77.674 J-93.543
G1 X-13.141 Y-213.042
Y-225
G2 X-14.729 Y-226.587 I-1.587 J0
G1 X-44.729
G2 X-46.316 Y-225 I0 J1.587
G1 Y-213.042
X-52.697 Y-91.283
G3 X-69.341 Y-41.472 I-98.278 J-5.15
G2 X-58.232 Y-23.51 I9.612 J6.472
G3 X-57.876 Y-23.236 I0.041 J0.315
G1 X-57.835 Y-22.921
X-57.826 Y-22.851 Z-1.992
X-57.817 Y-22.784 Z-1.969
X-57.809 Y-22.725 Z-1.931
X-57.803 Y-22.675 Z-1.88
X-57.798 Y-22.637 Z-1.82
X-57.795 Y-22.614 Z-1.753
X-57.794 Y-22.606 Z-1.683
Z5
X-58.424 Y-22.524
Z0 F333.3
Z-2.283
X-58.425 Y-22.532 Z-2.353 F1000
X-58.428 Y-22.555 Z-2.42
X-58.432 Y-22.593 Z-2.48
X-58.439 Y-22.643 Z-2.531
X-58.447 Y-22.702 Z-2.569
X-58.455 Y-22.769 Z-2.592
X-58.465 Y-22.839 Z-2.6
X-58.506 Y-23.154
G3 X-58.232 Y-23.51 I0.315 J-0.041
G2 X-52.326 Y-26.085 I-1.497 J-11.49
X-20.542 Y-66.691 I-77.674 J-93.543
G1 Z-2.2
G2 X-16.861 Y-75.095 I-109.458 J-52.938
G1 Z-2.6 F333.3
G2 X-8.579 Y-125.992 I-113.138 J-44.533 F1000
G1 X-10.621 Y-164.956
Z-2.2
X-11.101 Y-174.118
Z-2.6 F333.3
X-13.141 Y-213.042 F1000
Y-225
G2 X-14.729 Y-226.587 I-1.587 J0
G1 X-44.729
G2 X-46.316 Y-225 I0 J1.587
G1 Y-213.042
X-49.266 Y-156.764
Z-2.2
X-49.746 Y-147.602
Z-2.6 F333.3
X-52.697 Y-91.283 F1000
G3 X-69.341 Y-41.472 I-98.278 J-5.15
G2 X-58.232 Y-23.51 I9.612 J6.472
G3 X-57.876 Y-23.236 I0.041 J0.315
G1 X-57.835 Y-22.921
X-57.826 Y-22.851 Z-2.592
X-57.817 Y-22.784 Z-2.569
X-57.809 Y-22.725 Z-2.531
X-57.803 Y-22.675 Z-2.48
X-57.798 Y-22.637 Z-2.42
X-57.795 Y-22.614 Z-2.353
X-57.794 Y-22.606 Z-2.283
Z5
X-58.424 Y-22.524
Z-0.6 F333.3
Z-2.883
X-58.425 Y-22.532 Z-2.953 F1000
X-58.428 Y-22.555 Z-3.02
X-58.432 Y-22.593 Z-3.08
X-58.439 Y-22.643 Z-3.131
X-58.447 Y-22.702 Z-3.169
X-58.455 Y-22.769 Z-3.192
X-58.465 Y-22.839 Z-3.2
X-58.506 Y-23.154
G3 X-58.232 Y-23.51 I0.315 J-0.041
G2 X-52.326 Y-26.085 I-1.497 J-11.49
X-20.542 Y-66.691 I-77.674 J-93.543
G1 Z-2.2
G2 X-16.861 Y-75.095 I-109.458 J-52.938
G1 Z-3.2 F333.3
G2 X-8.579 Y-125.992 I-113.138 J-44.533 F1000
G1 X-10.621 Y-164.956
Z-2.2
X-11.101 Y-174.118
Z-3.2 F333.3
X-13.141 Y-213.042 F1000
Y-225
G2 X-14.729 Y-226.587 I-1.587 J0
G1 X-44.729
G2 X-46.316 Y-225 I0 J1.587
G1 Y-213.042
X-49.266 Y-156.764
Z-2.2
X-49.746 Y-147.602
Z-3.2 F333.3
X-52.697 Y-91.283 F1000
G3 X-69.341 Y-41.472 I-98.278 J-5.15
G2 X-58.232 Y-23.51 I9.612 J6.472
G3 X-57.876 Y-23.236 I0.041 J0.315
G1 X-57.835 Y-22.921
X-57.826 Y-22.851 Z-3.192
X-57.817 Y-22.784 Z-3.169
X-57.809 Y-22.725 Z-3.131
X-57.803 Y-22.675 Z-3.08
X-57.798 Y-22.637 Z-3.02
X-57.795 Y-22.614 Z-2.953
X-57.794 Y-22.606 Z-2.883
Z15
M5
M30
