(Flugel)
(Maschine)
(  Hersteller: ChinaCnc)
(  Modell: 3040T)
(  Beschreibung: Generic 3-axis)
(T14  D=3.175 CR=0 - ZMIN=-4.2 - Schaftfraser)
G90 G94
G17
G21

(2D-Kontur1)
T14
S7000 M3
G0 Z15
G0 X-23.154 Y-229.349
Z15
Z5
G1 Z2.8 F508
Z2.5
G2 X-37.402 Y-228.914 Z1.964 I-6.846 J9.349 F1016
X-81.312 Y-134.321 Z-1.8 I77.673 J93.543
X-81.15 Y-129.008 I121.583 J-1.05 F2540
G1 X-76.588 Y-41.958
Y-30
G2 X-75 Y-28.413 I1.588 J0
G1 X-45
G2 X-43.412 Y-30 I0 J-1.587
G1 Y-41.958
X-37.031 Y-163.717
G3 X-20.388 Y-213.528 I98.278 J5.151
G2 X-37.402 Y-228.914 I-9.612 J-6.471
X-81.312 Y-134.321 I77.673 J93.543
X-81.15 Y-129.008 Z-1.936 I121.583 J-1.05 F1016
G1 X-77.759 Y-64.309 Z-3.6
X-76.588 Y-41.958 F2540
Y-30
G2 X-75 Y-28.413 I1.588 J0
G1 X-45
G2 X-43.412 Y-30 I0 J-1.587
G1 Y-41.958
X-40.463 Y-98.236
Z-3
X-39.983 Y-107.398
Z-3.6 F508
X-37.031 Y-163.717 F2540
G3 X-20.388 Y-213.528 I98.278 J5.151
G2 X-37.402 Y-228.914 I-9.612 J-6.471
X-69.187 Y-188.309 I77.673 J93.543
G1 Z-3
G2 X-72.867 Y-179.905 I109.458 J52.938
G1 Z-3.6 F508
G2 X-81.15 Y-129.008 I113.138 J44.533 F2540
G1 X-77.759 Y-64.309
X-76.588 Y-41.958 Z-4.175 F1016
Y-40.972 Z-4.2
Y-30 F2540
G2 X-75 Y-28.413 I1.588 J0
G1 X-45
G2 X-43.412 Y-30 I0 J-1.587
G1 Y-41.958
X-40.463 Y-98.236
Z-3
X-39.983 Y-107.398
Z-4.2 F508
X-37.031 Y-163.717 F2540
G3 X-20.388 Y-213.528 I98.278 J5.151
G2 X-37.402 Y-228.914 I-9.612 J-6.471
X-69.187 Y-188.309 I77.673 J93.543
G1 Z-3
G2 X-72.867 Y-179.905 I109.458 J52.938
G1 Z-4.2 F508
G2 X-81.15 Y-129.008 I113.138 J44.533 F2540
G1 X-76.588 Y-41.958
Y-40.972
G3 X-76.905 Y-40.655 I-0.317 J0 F1016
G1 X-77.223
G18 G3 X-77.54 Z-3.883 I0 K0.317
G0 Z15
G17

(2D-Kontur1)
G0 X-73.154 Y-229.349
Z15
Z5
G1 Z2.8 F508
Z2.5
G2 X-87.402 Y-228.914 Z1.964 I-6.846 J9.349 F1016
X-131.312 Y-134.321 Z-1.8 I77.673 J93.543
X-131.15 Y-129.008 I121.583 J-1.05 F2540
G1 X-126.588 Y-41.958
Y-30
G2 X-125 Y-28.413 I1.588 J0
G1 X-95
G2 X-93.412 Y-30 I0 J-1.587
G1 Y-41.958
X-87.031 Y-163.717
G3 X-70.388 Y-213.528 I98.278 J5.151
G2 X-87.402 Y-228.914 I-9.612 J-6.471
X-131.312 Y-134.321 I77.673 J93.543
X-131.15 Y-129.008 Z-1.937 I121.583 J-1.05 F1016
G1 X-127.759 Y-64.309 Z-3.6
X-126.588 Y-41.958 F2540
Y-30
G2 X-125 Y-28.413 I1.588 J0
G1 X-95
G2 X-93.412 Y-30 I0 J-1.587
G1 Y-41.958
X-90.463 Y-98.236
Z-3
X-89.983 Y-107.398
Z-3.6 F508
X-87.031 Y-163.717 F2540
G3 X-70.388 Y-213.528 I98.278 J5.151
G2 X-87.402 Y-228.914 I-9.612 J-6.471
X-119.187 Y-188.309 I77.673 J93.543
G1 Z-3
G2 X-122.867 Y-179.905 I109.458 J52.938
G1 Z-3.6 F508
G2 X-131.15 Y-129.008 I113.138 J44.533 F2540
G1 X-127.759 Y-64.309
X-126.588 Y-41.958 Z-4.175 F1016
Y-40.972 Z-4.2
Y-30 F2540
G2 X-125 Y-28.413 I1.588 J0
G1 X-95
G2 X-93.412 Y-30 I0 J-1.587
G1 Y-41.958
X-90.463 Y-98.236
Z-3
X-89.983 Y-107.398
Z-4.2 F508
X-87.031 Y-163.717 F2540
G3 X-70.388 Y-213.528 I98.278 J5.151
G2 X-87.402 Y-228.914 I-9.612 J-6.471
X-119.187 Y-188.309 I77.673 J93.543
G1 Z-3
G2 X-122.867 Y-179.905 I109.458 J52.938
G1 Z-4.2 F508
G2 X-131.15 Y-129.008 I113.138 J44.533 F2540
G1 X-126.588 Y-41.958
Y-40.972
G3 X-126.905 Y-40.655 I-0.317 J0 F1016
G1 X-127.223
G18 G3 X-127.54 Z-3.883 I0 K0.317
G0 Z15
G17

(2D-Kontur1)
G0 X-123.154 Y-229.349
Z15
Z5
G1 Z2.8 F508
Z2.5
G2 X-137.402 Y-228.914 Z1.964 I-6.846 J9.349 F1016
X-181.312 Y-134.321 Z-1.8 I77.673 J93.543
X-181.15 Y-129.008 I121.583 J-1.05 F2540
G1 X-176.588 Y-41.958
Y-30
G2 X-175 Y-28.413 I1.588 J0
G1 X-145
G2 X-143.412 Y-30 I0 J-1.587
G1 Y-41.958
X-137.031 Y-163.717
G3 X-120.388 Y-213.528 I98.278 J5.151
G2 X-137.402 Y-228.914 I-9.612 J-6.471
X-181.312 Y-134.321 I77.673 J93.543
X-181.15 Y-129.008 Z-1.937 I121.583 J-1.05 F1016
G1 X-177.759 Y-64.309 Z-3.6
X-176.588 Y-41.958 F2540
Y-30
G2 X-175 Y-28.413 I1.588 J0
G1 X-145
G2 X-143.412 Y-30 I0 J-1.587
G1 Y-41.958
X-140.463 Y-98.236
Z-3
X-139.983 Y-107.398
Z-3.6 F508
X-137.031 Y-163.717 F2540
G3 X-120.388 Y-213.528 I98.278 J5.151
G2 X-137.402 Y-228.914 I-9.612 J-6.471
X-169.187 Y-188.309 I77.673 J93.543
G1 Z-3
G2 X-172.867 Y-179.905 I109.458 J52.938
G1 Z-3.6 F508
G2 X-181.15 Y-129.008 I113.138 J44.533 F2540
G1 X-177.759 Y-64.309
X-176.588 Y-41.958 Z-4.175 F1016
Y-40.972 Z-4.2
Y-30 F2540
G2 X-175 Y-28.413 I1.588 J0
G1 X-145
G2 X-143.412 Y-30 I0 J-1.587
G1 Y-41.958
X-140.463 Y-98.236
Z-3
X-139.983 Y-107.398
Z-4.2 F508
X-137.031 Y-163.717 F2540
G3 X-120.388 Y-213.528 I98.278 J5.151
G2 X-137.402 Y-228.914 I-9.612 J-6.471
X-169.187 Y-188.309 I77.673 J93.543
G1 Z-3
G2 X-172.867 Y-179.905 I109.458 J52.938
G1 Z-4.2 F508
G2 X-181.15 Y-129.008 I113.138 J44.533 F2540
G1 X-176.588 Y-41.958
Y-40.972
G3 X-176.905 Y-40.655 I-0.317 J0 F1016
G1 X-177.223
G18 G3 X-177.54 Z-3.883 I0 K0.317
G0 Z15
G17

(2D-Kontur1)
G0 X-173.154 Y-229.349
Z15
Z5
G1 Z2.8 F508
Z2.5
G2 X-187.402 Y-228.914 Z1.964 I-6.846 J9.349 F1016
X-231.312 Y-134.321 Z-1.8 I77.673 J93.543
X-231.15 Y-129.008 I121.583 J-1.05 F2540
G1 X-226.588 Y-41.958
Y-30
G2 X-225 Y-28.413 I1.588 J0
G1 X-195
G2 X-193.412 Y-30 I0 J-1.587
G1 Y-41.958
X-187.031 Y-163.717
G3 X-170.388 Y-213.528 I98.278 J5.151
G2 X-187.402 Y-228.914 I-9.612 J-6.471
X-231.312 Y-134.321 I77.673 J93.543
X-231.15 Y-129.008 Z-1.937 I121.583 J-1.05 F1016
G1 X-227.759 Y-64.309 Z-3.6
X-226.588 Y-41.958 F2540
Y-30
G2 X-225 Y-28.413 I1.588 J0
G1 X-195
G2 X-193.412 Y-30 I0 J-1.587
G1 Y-41.958
X-190.463 Y-98.236
Z-3
X-189.983 Y-107.398
Z-3.6 F508
X-187.031 Y-163.717 F2540
G3 X-170.388 Y-213.528 I98.278 J5.151
G2 X-187.402 Y-228.914 I-9.612 J-6.471
X-219.187 Y-188.309 I77.673 J93.543
G1 Z-3
G2 X-222.867 Y-179.905 I109.458 J52.938
G1 Z-3.6 F508
G2 X-231.15 Y-129.008 I113.138 J44.533 F2540
G1 X-227.759 Y-64.309
X-226.588 Y-41.958 Z-4.175 F1016
Y-40.972 Z-4.2
Y-30 F2540
G2 X-225 Y-28.413 I1.588 J0
G1 X-195
G2 X-193.412 Y-30 I0 J-1.587
G1 Y-41.958
X-190.463 Y-98.236
Z-3
X-189.983 Y-107.398
Z-4.2 F508
X-187.031 Y-163.717 F2540
G3 X-170.388 Y-213.528 I98.278 J5.151
G2 X-187.402 Y-228.914 I-9.612 J-6.471
X-219.187 Y-188.309 I77.673 J93.543
G1 Z-3
G2 X-222.867 Y-179.905 I109.458 J52.938
G1 Z-4.2 F508
G2 X-231.15 Y-129.008 I113.138 J44.533 F2540
G1 X-226.588 Y-41.958
Y-40.972
G3 X-226.905 Y-40.655 I-0.317 J0 F1016
G1 X-227.223
G18 G3 X-227.54 Z-3.883 I0 K0.317
G0 Z15
G17

(2D-Kontur1)
G0 X-223.154 Y-229.349
Z15
Z5
G1 Z2.8 F508
Z2.5
G2 X-237.402 Y-228.914 Z1.964 I-6.846 J9.349 F1016
X-281.312 Y-134.321 Z-1.8 I77.673 J93.543
X-281.15 Y-129.008 I121.583 J-1.05 F2540
G1 X-276.588 Y-41.958
Y-30
G2 X-275 Y-28.413 I1.588 J0
G1 X-245
G2 X-243.412 Y-30 I0 J-1.587
G1 Y-41.958
X-237.031 Y-163.717
G3 X-220.388 Y-213.528 I98.278 J5.151
G2 X-237.402 Y-228.914 I-9.612 J-6.471
X-281.312 Y-134.321 I77.673 J93.543
X-281.15 Y-129.008 Z-1.937 I121.583 J-1.05 F1016
G1 X-277.759 Y-64.309 Z-3.6
X-276.588 Y-41.958 F2540
Y-30
G2 X-275 Y-28.413 I1.588 J0
G1 X-245
G2 X-243.412 Y-30 I0 J-1.587
G1 Y-41.958
X-240.463 Y-98.236
Z-3
X-239.983 Y-107.398
Z-3.6 F508
X-237.031 Y-163.717 F2540
G3 X-220.388 Y-213.528 I98.278 J5.151
G2 X-237.402 Y-228.914 I-9.612 J-6.471
X-269.187 Y-188.309 I77.673 J93.543
G1 Z-3
G2 X-272.867 Y-179.905 I109.458 J52.938
G1 Z-3.6 F508
G2 X-281.15 Y-129.008 I113.138 J44.533 F2540
G1 X-277.759 Y-64.309
X-276.588 Y-41.958 Z-4.175 F1016
Y-40.972 Z-4.2
Y-30 F2540
G2 X-275 Y-28.413 I1.588 J0
G1 X-245
G2 X-243.412 Y-30 I0 J-1.587
G1 Y-41.958
X-240.463 Y-98.236
Z-3
X-239.983 Y-107.398
Z-4.2 F508
X-237.031 Y-163.717 F2540
G3 X-220.388 Y-213.528 I98.278 J5.151
G2 X-237.402 Y-228.914 I-9.612 J-6.471
X-269.187 Y-188.309 I77.673 J93.543
G1 Z-3
G2 X-272.867 Y-179.905 I109.458 J52.938
G1 Z-4.2 F508
G2 X-281.15 Y-129.008 I113.138 J44.533 F2540
G1 X-276.588 Y-41.958
Y-40.972
G3 X-276.905 Y-40.655 I-0.317 J0 F1016
G1 X-277.223
G18 G3 X-277.54 Z-3.883 I0 K0.317
G0 Z15
G17

(2D-Kontur1)
G0 Z15
X-273.154 Y-229.349
Z5
G1 Z2.8 F508
Z2.5
G2 X-287.402 Y-228.914 Z1.964 I-6.846 J9.349 F1016
X-331.312 Y-134.321 Z-1.8 I77.673 J93.543
X-331.15 Y-129.008 I121.583 J-1.05 F2540
G1 X-326.587 Y-41.958
Y-30
G2 X-325 Y-28.413 I1.588 J0
G1 X-295
G2 X-293.412 Y-30 I0 J-1.587
G1 Y-41.958
X-287.031 Y-163.717
G3 X-270.388 Y-213.528 I98.278 J5.151
G2 X-287.402 Y-228.914 I-9.612 J-6.471
X-331.312 Y-134.321 I77.673 J93.543
X-331.15 Y-129.008 Z-1.937 I121.583 J-1.05 F1016
G1 X-327.759 Y-64.309 Z-3.6
X-326.587 Y-41.958 F2540
Y-30
G2 X-325 Y-28.413 I1.588 J0
G1 X-295
G2 X-293.412 Y-30 I0 J-1.587
G1 Y-41.958
X-290.463 Y-98.236
Z-3
X-289.983 Y-107.398
Z-3.6 F508
X-287.031 Y-163.717 F2540
G3 X-270.388 Y-213.528 I98.278 J5.151
G2 X-287.402 Y-228.914 I-9.612 J-6.471
X-319.187 Y-188.309 I77.673 J93.543
G1 Z-3
G2 X-322.867 Y-179.905 I109.458 J52.938
G1 Z-3.6 F508
G2 X-331.15 Y-129.008 I113.138 J44.533 F2540
G1 X-327.759 Y-64.309
X-326.587 Y-41.958 Z-4.175 F1016
Y-40.972 Z-4.2
Y-30 F2540
G2 X-325 Y-28.413 I1.588 J0
G1 X-295
G2 X-293.412 Y-30 I0 J-1.587
G1 Y-41.958
X-290.463 Y-98.236
Z-3
X-289.983 Y-107.398
Z-4.2 F508
X-287.031 Y-163.717 F2540
G3 X-270.388 Y-213.528 I98.278 J5.151
G2 X-287.402 Y-228.914 I-9.612 J-6.471
X-319.187 Y-188.309 I77.673 J93.543
G1 Z-3
G2 X-322.867 Y-179.905 I109.458 J52.938
G1 Z-4.2 F508
G2 X-331.15 Y-129.008 I113.138 J44.533 F2540
G1 X-326.587 Y-41.958
Y-40.972
G3 X-326.905 Y-40.655 I-0.317 J0 F1016
G1 X-327.222
G18 G3 X-327.54 Z-3.883 I0 K0.317
G0 Z15
G17
M5
M30
