(Glas)
(Maschine)
(  Hersteller: ChinaCnc)
(  Modell: 3040T)
(  Beschreibung: Generic 3-axis)
(T6  D=3.1 CR=0 - ZMIN=-3.2 - Reibahle)
G90 G94
G17
G21
G28 G91 Z0
G90

(2D-Kontur3)
T6
S8000 M3
G54
G0 X-105.31 Y0.48
Z15
Z5
G1 Z1 F1000
Z-2.89
G19 G2 Y0.17 Z-3.2 J-0.31 K0 F0
G1 Y-0.14
G17 G3 X-105 Y-0.45 I0.31 J0
G2 X-33.625 Y-28.604 I0 J-104.55 F1
G1 Z-2.6
G2 X-28.604 Y-33.625 I-71.375 J-76.396
G1 Z-3.2 F1000
G2 X-28.604 Y-176.375 I-76.396 J-71.375 F1
G1 Z-2.6
G2 X-33.625 Y-181.396 I-76.396 J71.375
G1 Z-3.2 F1000
G2 X-176.375 Y-181.396 I-71.375 J76.396 F1
G1 Z-2.6
G2 X-181.396 Y-176.375 I71.375 J76.396
G1 Z-3.2 F1000
G2 X-181.396 Y-33.625 I76.396 J71.375 F1
G1 Z-2.6
G2 X-176.375 Y-28.604 I76.396 J-71.375
G1 Z-3.2 F1000
G2 X-105 Y-0.45 I71.375 J-76.396 F1
G3 X-104.69 Y-0.14 I0 J0.31 F0
G1 Y0.17
G19 G3 Y0.48 Z-2.89 J0 K0.31
G0 Z15
G17
G28 G91 Z0
G90
G28 G91 X0 Y0
G90
M5
M30
