(Kafer)
(Maschine)
(  Hersteller: ChinaCnc)
(  Modell: 3040T)
(  Beschreibung: Generic 3-axis)
(T14  D=3.175 CR=0 - ZMIN=-15 - Schaftfraser)
G90 G94
G17
G21
G28 G91 Z0
G90

(Adaptiv2)
T14
S8000 M3
G54
G0 X-120.311 Y-146.163
Z15
Z5
Z-4.365
G1 Z-4.682 F1016
X-120.309 Y-146.156 Z-4.753
X-120.304 Y-146.133 Z-4.82
X-120.294 Y-146.096 Z-4.88
X-120.282 Y-146.047 Z-4.931
X-120.267 Y-145.989 Z-4.969
X-120.25 Y-145.924 Z-4.992
X-120.233 Y-145.856 Z-5
G3 X-119.984 Y-144.127 I-7.852 J2.011
G1 Y-143.977 F2540
X-120.132 Y-143.254
X-120.211 Y-142.521
X-120.254 Y-141.784
X-120.276 Y-141.047
X-120.288 Y-140.309
X-120.294 Y-139.571
X-120.297 Y-138.833
X-120.299 Y-137.358
X-120.298 Y-131.455
X-120.287 Y-93.827
X-120.272 Y-43.655
X-120.259 Y-1.415
X-120.214 Y-1.237
X-120.044 Y-0.909
X-119.789 Y-0.642
X-119.187 Y-0.216
X-118.49 Y0.027
X-117.765 Y0.161
X-117.03 Y0.233
X-116.293 Y0.271
X-115.556 Y0.292
X-114.818 Y0.302
X-114.08 Y0.308
X-113.343 Y0.311
X-112.605 Y0.312
X-109.653 Y0.313
X-62.433 Y0.307
X-12.262 Y0.3
X-1.564 Y0.298
X-1.379 Y0.294
X-1.202 Y0.244
X-0.882 Y0.06
X-0.623 Y-0.202
X-0.21 Y-0.814
X0.025 Y-1.513
X0.154 Y-2.24
X0.223 Y-2.974
X0.26 Y-3.711
X0.28 Y-4.449
X0.29 Y-5.187
X0.295 Y-5.924
X0.298 Y-6.662
X0.301 Y-8.138
Y-15.516
Y-38.388
X0.3 Y-88.56
X0.299 Y-138.731
Y-140.945
X0.291 Y-141.129
X0.238 Y-141.305
X0.05 Y-141.623
X-0.213 Y-141.881
X-0.826 Y-142.292
X-1.526 Y-142.526
X-2.252 Y-142.655
X-2.987 Y-142.724
X-3.724 Y-142.761
X-4.461 Y-142.78
X-5.199 Y-142.79
X-5.937 Y-142.796
X-6.675 Y-142.799
X-8.15 Y-142.801
X-15.528
X-47.255 Y-142.8
X-97.426 Y-142.799
X-117.163 Y-142.798
X-117.344 Y-142.766
X-117.685 Y-142.624
X-117.968 Y-142.388
X-118.428 Y-141.811
X-118.698 Y-141.125
X-118.849 Y-140.403
X-118.932 Y-139.669
X-118.978 Y-138.933
X-119.002 Y-138.196
X-119.015 Y-137.458
X-119.022 Y-136.72
X-119.025 Y-135.982
X-119.028 Y-134.507
Y-130.08
X-119.023 Y-113.11
X-119.008 Y-62.939
X-118.993 Y-12.767
X-118.99 Y-3.176
X-118.946 Y-2.809
X-118.801 Y-2.47
X-118.578 Y-2.177
X-118.027 Y-1.686
X-117.356 Y-1.379
X-116.641 Y-1.197
X-115.91 Y-1.091
X-115.175 Y-1.032
X-114.438 Y-0.998
X-113.7 Y-0.979
X-112.963 Y-0.969
X-112.225 Y-0.963
X-111.487 Y-0.96
X-110.011 Y-0.958
X-104.847 Y-0.957
X-79.023 Y-0.961
X-28.852 Y-0.968
X-3.028 Y-0.971
X-2.671 Y-1.063
X-2.351 Y-1.247
X-1.805 Y-1.743
X-1.457 Y-2.394
X-1.248 Y-3.101
X-1.126 Y-3.829
X-1.057 Y-4.563
X-1.018 Y-5.3
X-0.996 Y-6.038
X-0.984 Y-6.775
X-0.977 Y-7.513
X-0.973 Y-8.251
X-0.97 Y-9.727
X-0.969 Y-13.416
Y-24.483
X-0.97 Y-74.654
X-0.971 Y-124.826
Y-139.582
X-1.094 Y-139.93
X-1.302 Y-140.235
X-1.829 Y-140.751
X-2.491 Y-141.077
X-3.202 Y-141.272
X-3.931 Y-141.385
X-4.666 Y-141.45
X-5.403 Y-141.486
X-6.141 Y-141.506
X-6.879 Y-141.518
X-7.616 Y-141.524
X-8.354 Y-141.527
X-9.83 Y-141.53
X-14.257 Y-141.531
X-35.653
X-85.825 Y-141.529
X-115.337 Y-141.528
X-115.706 Y-141.525
X-116.062 Y-141.426
X-116.379 Y-141.237
X-116.92 Y-140.735
X-117.266 Y-140.084
X-117.476 Y-139.377
X-117.598 Y-138.649
X-117.669 Y-137.915
X-117.709 Y-137.178
X-117.731 Y-136.44
X-117.744 Y-135.703
X-117.751 Y-134.965
X-117.754 Y-134.227
X-117.757 Y-132.751
Y-129.062
X-117.755 Y-121.684
X-117.74 Y-71.513
X-117.725 Y-21.341
X-117.72 Y-4.372
X-117.621 Y-4.016
X-117.439 Y-3.695
X-116.953 Y-3.14
X-116.312 Y-2.775
X-115.61 Y-2.549
X-114.884 Y-2.413
X-114.151 Y-2.334
X-113.414 Y-2.288
X-112.677 Y-2.261
X-111.939 Y-2.246
X-111.202 Y-2.238
X-110.464 Y-2.233
X-109.726 Y-2.23
X-108.25 Y-2.228
X-103.086
X-85.378 Y-2.23
X-35.207 Y-2.237
X-4.587 Y-2.241
X-4.221 Y-2.283
X-3.878 Y-2.418
X-3.574 Y-2.628
X-3.058 Y-3.155
X-2.726 Y-3.814
X-2.523 Y-4.523
X-2.402 Y-5.251
X-2.332 Y-5.986
X-2.292 Y-6.722
X-2.269 Y-7.46
X-2.256 Y-8.197
X-2.248 Y-8.935
X-2.244 Y-9.673
X-2.242 Y-10.411
X-2.239 Y-12.624
Y-20.74
X-2.24 Y-70.912
X-2.241 Y-121.083
Y-138.053
X-2.321 Y-138.413
X-2.488 Y-138.742
X-2.955 Y-139.313
X-3.588 Y-139.691
X-4.288 Y-139.926
X-5.012 Y-140.067
X-5.745 Y-140.149
X-6.482 Y-140.198
X-7.219 Y-140.225
X-7.957 Y-140.241
X-8.694 Y-140.25
X-9.432 Y-140.255
X-10.17 Y-140.258
X-11.646 Y-140.26
X-16.81 Y-140.261
X-34.518
X-84.689 Y-140.259
X-114.202 Y-140.258
X-114.565 Y-140.196
X-114.902 Y-140.044
X-115.196 Y-139.823
X-115.697 Y-139.281
X-116.019 Y-138.617
X-116.214 Y-137.905
X-116.33 Y-137.177
X-116.398 Y-136.442
X-116.437 Y-135.705
X-116.46 Y-134.968
X-116.472 Y-134.23
X-116.479 Y-133.492
X-116.483 Y-132.754
X-116.485 Y-132.017
X-116.487 Y-129.803
X-116.485 Y-120.212
X-116.47 Y-70.04
X-116.455 Y-19.869
X-116.451 Y-5.85
X-116.393 Y-5.486
X-116.248 Y-5.146
X-116.034 Y-4.846
X-115.503 Y-4.333
X-114.845 Y-4
X-114.137 Y-3.794
X-113.409 Y-3.67
X-112.675 Y-3.597
X-111.939 Y-3.555
X-111.201 Y-3.53
X-110.464 Y-3.516
X-109.726 Y-3.508
X-108.988 Y-3.503
X-108.25 Y-3.5
X-106.775 Y-3.498
X-101.61
X-80.951 Y-3.501
X-30.78 Y-3.508
X-5.694 Y-3.511
X-5.339 Y-3.613
X-5.017 Y-3.793
X-4.458 Y-4.274
X-4.086 Y-4.911
X-3.852 Y-5.611
X-3.711 Y-6.335
X-3.626 Y-7.068
X-3.577 Y-7.804
X-3.548 Y-8.541
X-3.531 Y-9.279
X-3.522 Y-10.017
X-3.516 Y-10.755
X-3.513 Y-11.492
X-3.51 Y-12.968
X-3.509 Y-17.395
Y-27.724
X-3.51 Y-77.896
X-3.511 Y-128.067
Y-136.552
X-3.549 Y-136.919
X-3.672 Y-137.267
X-3.871 Y-137.577
X-4.382 Y-138.11
X-5.031 Y-138.46
X-5.736 Y-138.677
X-6.462 Y-138.807
X-7.196 Y-138.885
X-7.933 Y-138.93
X-8.67 Y-138.956
X-9.408 Y-138.971
X-10.145 Y-138.98
X-10.883 Y-138.985
X-11.621 Y-138.988
X-13.097 Y-138.99
X-18.261 Y-138.991
X-44.085
X-94.256 Y-138.989
X-112.702 Y-138.988
X-113.069 Y-138.956
X-113.421 Y-138.847
X-113.739 Y-138.66
X-114.29 Y-138.169
X-114.655 Y-137.528
X-114.883 Y-136.826
X-115.022 Y-136.101
X-115.104 Y-135.368
X-115.152 Y-134.632
X-115.18 Y-133.895
X-115.196 Y-133.157
X-115.206 Y-132.419
X-115.211 Y-131.681
X-115.214 Y-130.944
X-115.216 Y-129.468
Y-125.041
X-115.211 Y-108.071
X-115.196 Y-57.9
X-115.181 Y-7.728
Y-6.991
X-115.081 Y-6.636
X-114.903 Y-6.312
X-114.43 Y-5.746
X-113.797 Y-5.367
X-113.099 Y-5.127
X-112.376 Y-4.98
X-111.644 Y-4.892
X-110.908 Y-4.84
X-110.17 Y-4.81
X-109.433 Y-4.792
X-108.695 Y-4.781
X-107.957 Y-4.775
X-107.22 Y-4.772
X-105.744 Y-4.769
X-102.055 Y-4.768
X-66.64 Y-4.773
X-16.468 Y-4.78
X-7.246 Y-4.781
X-6.879 Y-4.822
X-6.531 Y-4.944
X-6.219 Y-5.141
X-5.683 Y-5.648
X-5.328 Y-6.295
X-5.106 Y-6.999
X-4.972 Y-7.724
X-4.892 Y-8.458
X-4.844 Y-9.194
X-4.817 Y-9.931
X-4.801 Y-10.669
X-4.791 Y-11.407
X-4.786 Y-12.144
X-4.783 Y-12.882
X-4.78 Y-14.358
X-4.779 Y-18.785
Y-44.608
X-4.78 Y-94.78
X-4.781 Y-135.36
X-4.845 Y-135.723
X-4.992 Y-136.061
X-5.207 Y-136.361
X-5.739 Y-136.872
X-6.396 Y-137.207
X-7.104 Y-137.416
X-7.831 Y-137.542
X-8.565 Y-137.616
X-9.302 Y-137.66
X-10.039 Y-137.686
X-10.777 Y-137.701
X-11.514 Y-137.71
X-12.252 Y-137.715
X-12.99 Y-137.718
X-13.728 Y-137.719
X-15.941 Y-137.721
X-63.899 Y-137.72
X-111.119 Y-137.718
X-111.488
X-111.854 Y-137.67
X-112.201 Y-137.544
X-112.512 Y-137.346
X-113.045 Y-136.836
X-113.399 Y-136.188
X-113.62 Y-135.485
X-113.755 Y-134.759
X-113.835 Y-134.026
X-113.882 Y-133.289
X-113.91 Y-132.552
X-113.926 Y-131.814
X-113.935 Y-131.077
X-113.94 Y-130.339
X-113.943 Y-129.601
X-113.946 Y-128.125
Y-124.436
X-113.935 Y-86.07
X-113.92 Y-35.898
X-113.911 Y-8.599
X-113.882 Y-8.232
X-113.779 Y-7.877
X-113.597 Y-7.556
X-113.113 Y-7
X-112.476 Y-6.627
X-111.777 Y-6.391
X-111.053 Y-6.247
X-110.321 Y-6.161
X-109.585 Y-6.11
X-108.847 Y-6.08
X-108.11 Y-6.062
X-107.372 Y-6.051
X-106.634 Y-6.046
X-105.896 Y-6.042
X-104.421 Y-6.039
X-100.732 Y-6.038
X-91.878 Y-6.039
X-41.707 Y-6.046
X-8.505 Y-6.051
X-8.14 Y-6.102
X-7.793 Y-6.229
X-7.484 Y-6.43
X-6.953 Y-6.942
X-6.6 Y-7.59
X-6.379 Y-8.294
X-6.244 Y-9.019
X-6.164 Y-9.753
X-6.116 Y-10.489
X-6.088 Y-11.226
X-6.072 Y-11.964
X-6.062 Y-12.702
X-6.056 Y-13.44
X-6.053 Y-14.177
X-6.05 Y-15.653
X-6.049 Y-19.342
Y-22.293
X-6.05 Y-72.465
X-6.051 Y-122.636
Y-133.703
X-6.052 Y-134.072
X-6.12 Y-134.435
X-6.265 Y-134.774
X-6.48 Y-135.074
X-7.01 Y-135.588
X-7.666 Y-135.926
X-8.372 Y-136.137
X-9.099 Y-136.265
X-9.833 Y-136.342
X-10.569 Y-136.387
X-11.307 Y-136.414
X-12.044 Y-136.43
X-12.782 Y-136.439
X-13.52 Y-136.444
X-14.258 Y-136.447
X-15.733 Y-136.45
X-20.16 Y-136.451
X-43.77
X-93.942 Y-136.449
X-110.174
X-110.54 Y-136.404
X-110.889 Y-136.285
X-111.203 Y-136.091
X-111.746 Y-135.592
X-112.108 Y-134.949
X-112.335 Y-134.247
X-112.475 Y-133.522
X-112.558 Y-132.789
X-112.608 Y-132.053
X-112.637 Y-131.316
X-112.654 Y-130.578
X-112.664 Y-129.84
X-112.669 Y-129.103
X-112.673 Y-128.365
X-112.675 Y-126.889
X-112.676 Y-123.2
X-112.67 Y-103.279
X-112.666 Y-90.931
X-112.667 Y-90.889
X-112.671 Y-90.848
X-112.677 Y-90.806
X-112.882 Y-89.599
X-112.954 Y-89.097
X-112.971 Y-88.929
X-113.281 Y-85.243
X-113.294 Y-85.075
X-113.317 Y-84.74
X-113.325 Y-84.572
X-113.322 Y-80.718
X-113.319 Y-80.215
X-113.308 Y-80.048
X-113.252 Y-79.377
X-112.949 Y-75.858
X-112.93 Y-75.691
X-112.877 Y-75.356
X-112.797 Y-74.622
X-112.732 Y-73.887
X-112.698 Y-73.15
X-112.68 Y-72.413
X-112.671 Y-71.675
X-112.665 Y-70.937
X-112.663 Y-70.199
X-112.66 Y-68.724
X-112.656 Y-58.394
X-112.646 Y-25.192
X-112.642 Y-9.698
X-112.577 Y-9.335
X-112.432 Y-8.996
X-112.219 Y-8.695
X-111.692 Y-8.178
X-111.038 Y-7.838
X-110.331 Y-7.625
X-109.605 Y-7.496
X-108.871 Y-7.418
X-108.135 Y-7.372
X-107.397 Y-7.345
X-106.66 Y-7.33
X-105.922 Y-7.32
X-105.184 Y-7.315
X-104.446 Y-7.312
X-102.971 Y-7.309
X-99.282 Y-7.308
X-78.623 Y-7.311
X-65.816 Y-7.313
X-65.757 Y-7.31
X-65.698 Y-7.303
X-65.64 Y-7.291
X-64.774 Y-7.081
X-64.607 Y-7.049
X-64.104 Y-6.981
X-61.927 Y-6.719
X-61.424 Y-6.676
X-61.256 Y-6.673
X-58.744
X-58.576 Y-6.676
X-58.073 Y-6.719
X-55.863 Y-6.985
X-55.393 Y-7.049
X-55.226 Y-7.081
X-54.864 Y-7.149
X-54.131 Y-7.229
X-53.394 Y-7.27
X-52.657 Y-7.291
X-51.919 Y-7.302
X-51.181 Y-7.308
X-50.443 Y-7.311
X-48.968 Y-7.314
X-42.327 Y-7.316
X-9.864 Y-7.32
X-9.497 Y-7.359
X-9.145 Y-7.471
X-8.828 Y-7.659
X-8.276 Y-8.149
X-7.906 Y-8.788
X-7.673 Y-9.487
X-7.53 Y-10.211
X-7.443 Y-10.944
X-7.392 Y-11.68
X-7.362 Y-12.417
X-7.344 Y-13.155
X-7.333 Y-13.892
X-7.327 Y-14.63
X-7.324 Y-15.368
X-7.32 Y-16.844
X-7.319 Y-20.533
X-7.32 Y-61.113
Y-74.142
X-7.319 Y-74.185
X-7.315 Y-74.227
X-7.309 Y-74.269
X-7.146 Y-75.212
X-7.07 Y-75.691
X-7.051 Y-75.858
X-6.719 Y-79.713
X-6.692 Y-80.048
X-6.681 Y-80.215
X-6.678 Y-80.886
X-6.675 Y-84.572
X-6.683 Y-84.74
X-6.706 Y-85.075
X-6.719 Y-85.243
X-7.029 Y-88.929
X-7.046 Y-89.097
X-7.118 Y-89.599
X-7.205 Y-90.332
X-7.26 Y-91.068
X-7.289 Y-91.805
X-7.304 Y-92.543
X-7.311 Y-93.281
X-7.316 Y-94.018
X-7.318 Y-94.756
X-7.32 Y-96.97
X-7.321 Y-132.385
X-7.322 Y-132.754
X-7.383 Y-133.117
X-7.52 Y-133.46
X-7.728 Y-133.765
X-8.248 Y-134.288
X-8.899 Y-134.635
X-9.604 Y-134.853
X-10.33 Y-134.986
X-11.063 Y-135.066
X-11.8 Y-135.114
X-12.537 Y-135.142
X-13.275 Y-135.158
X-14.012 Y-135.168
X-14.75 Y-135.173
X-15.488 Y-135.177
X-16.964 Y-135.18
X-20.653 Y-135.181
X-51.533 Y-135.18
X-51.564 Y-135.181
X-51.596 Y-135.183
X-51.627 Y-135.186
X-55.226 Y-135.647
X-55.393 Y-135.662
X-55.728 Y-135.687
X-55.896 Y-135.698
X-59.581 Y-135.854
X-59.749 Y-135.86
X-60.251
X-60.586 Y-135.847
X-64.104 Y-135.698
X-64.272 Y-135.687
X-64.607 Y-135.662
X-64.774 Y-135.647
X-66.952 Y-135.368
X-67.688 Y-135.311
X-68.423 Y-135.248
X-69.16 Y-135.216
X-69.898 Y-135.199
X-70.635 Y-135.19
X-71.373 Y-135.185
X-72.111 Y-135.182
X-73.587 Y-135.18
X-84.654 Y-135.179
X-109.002
X-109.365 Y-135.115
X-109.705 Y-134.972
X-110.008 Y-134.761
X-110.527 Y-134.237
X-110.87 Y-133.583
X-111.085 Y-132.878
X-111.216 Y-132.152
X-111.295 Y-131.418
X-111.341 Y-130.682
X-111.369 Y-129.944
X-111.385 Y-129.207
X-111.394 Y-128.469
X-111.399 Y-127.731
X-111.402 Y-126.993
X-111.405 Y-125.518
Y-121.829
X-111.398 Y-96.821
X-111.401 Y-96.758
X-111.408 Y-96.696
X-111.422 Y-96.635
X-112.073 Y-94.124
X-112.114 Y-93.956
X-112.189 Y-93.621
X-112.225 Y-93.454
X-112.677 Y-90.806
X-112.809 Y-90.032 F1016
X-112.882 Y-89.599 F2540
X-112.954 Y-89.097
X-112.971 Y-88.929
X-113.281 Y-85.243
X-113.294 Y-85.075
X-113.317 Y-84.74
X-113.325 Y-84.572
X-113.322 Y-80.718
X-113.319 Y-80.215
X-113.308 Y-80.048
X-113.281 Y-79.713
X-113.266 Y-79.545
X-112.972 Y-76.135
X-112.949 Y-75.858 F1016
X-112.93 Y-75.691
X-112.877 Y-75.356
X-112.85 Y-75.188 F2540
X-112.184 Y-71.329
X-112.145 Y-71.166
X-112.064 Y-70.831
X-112.016 Y-70.644
X-111.758 Y-69.658
X-111.607 Y-68.936
X-111.502 Y-68.205
X-111.448 Y-67.47
X-111.42 Y-66.732
X-111.405 Y-65.995
X-111.397 Y-65.257
X-111.393 Y-64.519
X-111.39 Y-63.781
X-111.388 Y-61.568
X-111.375 Y-19.512
X-111.372 Y-11.028
X-111.314 Y-10.663
X-111.182 Y-10.319
X-110.977 Y-10.012
X-110.463 Y-9.483
X-109.814 Y-9.132
X-109.11 Y-8.911
X-108.384 Y-8.776
X-107.651 Y-8.695
X-106.915 Y-8.647
X-106.178 Y-8.618
X-105.44 Y-8.601
X-104.702 Y-8.591
X-103.964 Y-8.586
X-103.227 Y-8.582
X-101.751 Y-8.579
X-98.062 Y-8.578
X-70.763 Y-8.582
X-69.907
X-69.818 Y-8.577
X-69.731 Y-8.561
X-69.646 Y-8.535
X-68.125 Y-7.963
X-67.957 Y-7.902
X-67.455 Y-7.735
X-65.64 Y-7.291
X-65.109 Y-7.162 F1016
X-64.877 Y-7.106
X-64.774 Y-7.081 F2540
X-64.607 Y-7.049
X-64.137 Y-6.985
X-61.927 Y-6.719
X-61.424 Y-6.676
X-61.256 Y-6.673
X-58.744
X-58.576 Y-6.676
X-58.073 Y-6.719
X-56.003 Y-6.968
X-55.863 Y-6.985 F1016
X-55.393 Y-7.049
X-55.226 Y-7.081
X-54.22 Y-7.326 F2540
X-52.545 Y-7.735
X-52.043 Y-7.902
X-51.802 Y-7.99
X-51.54 Y-8.089
X-51.074 Y-8.238
X-50.565 Y-8.357
X-49.836 Y-8.466
X-49.1 Y-8.523
X-48.363 Y-8.552
X-47.625 Y-8.568
X-46.887 Y-8.576
X-46.15 Y-8.581
X-45.412 Y-8.583
X-43.198 Y-8.585
X-11.472 Y-8.59
X-10.734 Y-8.592
X-10.387 Y-8.716
X-10.075 Y-8.912
X-9.533 Y-9.414
X-9.17 Y-10.056
X-8.94 Y-10.757
X-8.799 Y-11.481
X-8.713 Y-12.214
X-8.662 Y-12.95
X-8.632 Y-13.687
X-8.614 Y-14.425
X-8.604 Y-15.163
X-8.598 Y-15.9
X-8.594 Y-16.638
X-8.592 Y-17.376
X-8.589 Y-19.589
Y-52.791
X-8.59 Y-67.547
Y-68.285
X-8.588 Y-68.314
X-8.585 Y-68.342
X-8.579 Y-68.37
X-7.979 Y-70.663
X-7.936 Y-70.831
X-7.855 Y-71.166
X-7.816 Y-71.334
X-7.309 Y-74.269
X-7.175 Y-75.042 F1016
X-7.15 Y-75.188 F2540
X-7.146 Y-75.212
X-7.07 Y-75.691
X-7.051 Y-75.858
X-6.734 Y-79.545
X-6.719 Y-79.713
X-6.692 Y-80.048
X-6.681 Y-80.215
X-6.678 Y-80.718
X-6.675 Y-84.572
X-6.683 Y-84.74
X-6.706 Y-85.075
X-6.719 Y-85.243
X-7.02 Y-88.82
X-7.029 Y-88.929 F1016
X-7.046 Y-89.097
X-7.118 Y-89.599
X-7.775 Y-93.454 F2540
X-7.816 Y-93.645
X-7.886 Y-93.956
X-7.927 Y-94.124
X-8.231 Y-95.297
X-8.381 Y-96.02
X-8.481 Y-96.75
X-8.533 Y-97.486
X-8.56 Y-98.224
X-8.575 Y-98.961
X-8.582 Y-99.699
X-8.586 Y-100.437
X-8.589 Y-101.913
X-8.59 Y-106.34
X-8.591 Y-131.425
X-8.643 Y-131.79
X-8.77 Y-132.137
X-8.969 Y-132.448
X-9.475 Y-132.984
X-10.12 Y-133.342
X-10.823 Y-133.568
X-11.547 Y-133.707
X-12.281 Y-133.79
X-13.017 Y-133.84
X-13.754 Y-133.869
X-14.492 Y-133.887
X-15.229 Y-133.897
X-15.967 Y-133.903
X-16.705 Y-133.906
X-18.18 Y-133.91
X-21.87 Y-133.911
X-45.66
X-45.733 Y-133.914
X-45.806 Y-133.925
X-45.877 Y-133.943
X-46.347 Y-134.087
X-46.514 Y-134.131
X-46.849 Y-134.211
X-47.017 Y-134.249
X-50.702 Y-135.044
X-50.87 Y-135.078
X-51.373 Y-135.154
X-51.627 Y-135.186
X-52.406 Y-135.286 F1016
X-55.226 Y-135.647 F2540
X-55.393 Y-135.662
X-55.728 Y-135.687
X-55.896 Y-135.698
X-59.581 Y-135.854
X-59.749 Y-135.86
X-60.251
X-60.419 Y-135.854
X-64.104 Y-135.698
X-64.272 Y-135.687
X-64.607 Y-135.662
X-64.774 Y-135.647
X-66.173 Y-135.468
X-66.952 Y-135.368 F1016
X-68.627 Y-135.154 F2540
X-69.13 Y-135.078
X-69.298 Y-135.044
X-72.983 Y-134.249
X-73.151 Y-134.211
X-73.876 Y-134.075
X-74.609 Y-133.996
X-75.346 Y-133.955
X-76.084 Y-133.933
X-76.821 Y-133.922
X-77.559 Y-133.916
X-78.297 Y-133.913
X-79.772 Y-133.91
X-86.413 Y-133.909
X-107.809
X-108.169 Y-133.825
X-108.501 Y-133.664
X-109.088 Y-133.217
X-109.488 Y-132.597
X-109.743 Y-131.905
X-109.901 Y-131.184
X-109.997 Y-130.453
X-110.054 Y-129.717
X-110.088 Y-128.98
X-110.108 Y-128.243
X-110.12 Y-127.505
X-110.127 Y-126.767
X-110.131 Y-126.029
X-110.133 Y-125.292
X-110.135 Y-123.816
Y-119.389
X-110.129 Y-100.812
X-110.134 Y-100.728
X-110.148 Y-100.646
X-110.171 Y-100.566
X-110.906 Y-98.481
X-111.069 Y-97.978
X-111.116 Y-97.811
X-111.422 Y-96.635
G3 X-112.021 Y-96.607 I-0.304 J-0.09 F1016
G1 X-112.047 Y-96.673 Z-4.992
X-112.072 Y-96.735 Z-4.969
X-112.094 Y-96.791 Z-4.931
X-112.113 Y-96.838 Z-4.88
X-112.127 Y-96.873 Z-4.82
X-112.135 Y-96.895 Z-4.753
X-112.138 Y-96.902 Z-4.682
G0 Z5
X-112.389 Y-70.554
Z-4.365
G1 Z-4.682 F1016
X-112.384 Y-70.548 Z-4.753
X-112.367 Y-70.532 Z-4.82
X-112.34 Y-70.505 Z-4.88
X-112.304 Y-70.47 Z-4.931
X-112.261 Y-70.428 Z-4.969
X-112.213 Y-70.381 Z-4.992
X-112.163 Y-70.331 Z-5
G3 X-111.758 Y-69.658 I-1.111 J1.127
G1 X-111.057 Y-66.977 F2540
X-111.011 Y-66.821
X-110.835 Y-66.307
X-110.597 Y-65.636
X-110.438 Y-65.106
X-110.318 Y-64.545
X-110.222 Y-63.813
X-110.173 Y-63.077
X-110.146 Y-62.34
X-110.133 Y-61.602
X-110.125 Y-60.864
X-110.121 Y-60.126
X-110.118 Y-58.651
X-110.115 Y-54.224
X-110.103 Y-15.12
X-110.102 Y-12.168
X-110.016 Y-11.81
X-109.853 Y-11.479
X-109.403 Y-10.894
X-108.782 Y-10.496
X-108.089 Y-10.241
X-107.369 Y-10.084
X-106.637 Y-9.988
X-105.901 Y-9.931
X-105.164 Y-9.897
X-104.427 Y-9.877
X-103.689 Y-9.865
X-102.951 Y-9.858
X-102.214 Y-9.854
X-101.476 Y-9.851
X-100 Y-9.849
X-94.835
X-72.607 Y-9.852
X-72.49 Y-9.842
X-72.375 Y-9.814
X-72.266 Y-9.768
X-70.78 Y-8.996
X-70.638 Y-8.932
X-70.303 Y-8.787
X-70.135 Y-8.719
X-69.646 Y-8.535
G3 X-69.682 Y-7.936 I-0.122 J0.293 F1016
G1 X-69.75 Y-7.917 Z-4.992
X-69.815 Y-7.899 Z-4.969
X-69.873 Y-7.882 Z-4.931
X-69.921 Y-7.869 Z-4.88
X-69.958 Y-7.859 Z-4.82
X-69.98 Y-7.852 Z-4.753
X-69.988 Y-7.85 Z-4.682
G0 Z5
X-52.366 Y-7.369
Z-4.365
G1 Z-4.682 F1016
X-52.361 Y-7.375 Z-4.753
X-52.346 Y-7.393 Z-4.82
X-52.323 Y-7.423 Z-4.88
X-52.291 Y-7.462 Z-4.931
X-52.254 Y-7.509 Z-4.969
X-52.212 Y-7.561 Z-4.992
X-52.168 Y-7.616 Z-5
G3 X-51.54 Y-8.089 I1.236 J0.989
G1 X-49.865 Y-8.719 F2540
X-49.697 Y-8.787
X-49.362 Y-8.932
X-49.22 Y-8.996
X-48.897 Y-9.163
X-48.534 Y-9.33
X-48.218 Y-9.445
X-47.786 Y-9.564
X-47.145 Y-9.686
X-46.411 Y-9.766
X-45.674 Y-9.808
X-44.937 Y-9.83
X-44.199 Y-9.842
X-43.461 Y-9.849
X-42.724 Y-9.852
X-41.248 Y-9.855
X-36.083 Y-9.857
X-12.473 Y-9.86
X-12.105 Y-9.883
X-11.749 Y-9.98
X-11.425 Y-10.155
X-10.858 Y-10.628
X-10.475 Y-11.259
X-10.232 Y-11.955
X-10.082 Y-12.678
X-9.991 Y-13.41
X-9.937 Y-14.146
X-9.905 Y-14.883
X-9.886 Y-15.62
X-9.875 Y-16.358
X-9.868 Y-17.096
X-9.864 Y-17.834
X-9.861 Y-19.309
X-9.859 Y-22.261
X-9.86 Y-64.222
X-9.855 Y-64.306
X-9.841 Y-64.389
X-9.817 Y-64.47
X-9.156 Y-66.332
X-8.989 Y-66.821
X-8.943 Y-66.977
X-8.579 Y-68.37
G3 X-7.979 Y-68.396 I0.304 J0.091 F1016
G1 X-7.953 Y-68.33 Z-4.992
X-7.929 Y-68.267 Z-4.969
X-7.907 Y-68.212 Z-4.931
X-7.888 Y-68.165 Z-4.88
X-7.874 Y-68.13 Z-4.82
X-7.865 Y-68.108 Z-4.753
X-7.862 Y-68.1 Z-4.682
G0 Z5
X-7.602 Y-94.4
Z-4.365
G1 Z-4.682 F1016
X-7.608 Y-94.405 Z-4.753
X-7.625 Y-94.422 Z-4.82
X-7.651 Y-94.449 Z-4.88
X-7.687 Y-94.484 Z-4.931
X-7.73 Y-94.526 Z-4.969
X-7.778 Y-94.573 Z-4.992
X-7.828 Y-94.623 Z-5
G3 X-8.231 Y-95.297 I1.114 J-1.125
G1 X-8.884 Y-97.811 F2540
X-8.931 Y-97.978
X-9.094 Y-98.481
X-9.389 Y-99.319
X-9.543 Y-99.836
X-9.663 Y-100.402
X-9.757 Y-101.134
X-9.806 Y-101.87
X-9.832 Y-102.607
X-9.845 Y-103.345
X-9.852 Y-104.083
X-9.856 Y-104.821
X-9.859 Y-106.296
X-9.86 Y-110.723
X-9.861 Y-129.906
X-9.87 Y-130.275
X-9.944 Y-130.637
X-10.098 Y-130.972
X-10.316 Y-131.269
X-10.851 Y-131.778
X-11.508 Y-132.114
X-12.215 Y-132.325
X-12.941 Y-132.453
X-13.675 Y-132.53
X-14.411 Y-132.576
X-15.149 Y-132.603
X-15.886 Y-132.619
X-16.624 Y-132.628
X-17.362 Y-132.634
X-18.1 Y-132.637
X-19.575 Y-132.64
X-23.264 Y-132.641
X-28.429
X-41.622
X-41.716 Y-132.647
X-41.809 Y-132.664
X-41.898 Y-132.694
X-42.159 Y-132.798
X-42.265 Y-132.834
X-42.494 Y-132.906
X-45.877 Y-133.943
G3 X-45.878 Y-134.543 I0.104 J-0.3 F1016
G1 X-45.811 Y-134.566 Z-4.992
X-45.748 Y-134.588 Z-4.969
X-45.691 Y-134.608 Z-4.931
X-45.644 Y-134.625 Z-4.88
X-45.608 Y-134.637 Z-4.82
X-45.586 Y-134.645 Z-4.753
X-45.578 Y-134.648 Z-4.682
G0 Z5
X-72.242 Y-134.823
Z-4.365
G1 Z-4.682 F1016
X-72.248 Y-134.818 Z-4.753
X-72.265 Y-134.801 Z-4.82
X-72.292 Y-134.775 Z-4.88
X-72.328 Y-134.74 Z-4.931
X-72.371 Y-134.698 Z-4.969
X-72.419 Y-134.651 Z-4.992
X-72.469 Y-134.602 Z-5
G3 X-73.151 Y-134.211 I-1.104 J-1.134
G1 X-73.486 Y-134.131 F2540
X-73.653 Y-134.087
X-77.004 Y-133.06
X-77.657 Y-132.895
X-78.378 Y-132.774
X-79.113 Y-132.71
X-79.85 Y-132.677
X-80.588 Y-132.659
X-81.325 Y-132.65
X-82.063 Y-132.645
X-82.801 Y-132.642
X-84.277 Y-132.64
X-93.13 Y-132.639
X-106.411
X-106.777 Y-132.589
X-107.121 Y-132.457
X-107.429 Y-132.253
X-107.96 Y-131.741
X-108.312 Y-131.093
X-108.533 Y-130.389
X-108.668 Y-129.663
X-108.749 Y-128.93
X-108.797 Y-128.194
X-108.826 Y-127.457
X-108.842 Y-126.719
X-108.852 Y-125.981
X-108.858 Y-125.243
X-108.861 Y-124.506
X-108.864 Y-123.03
X-108.865 Y-119.341
X-108.863 Y-112.7
X-108.86 Y-104.025
X-108.867 Y-103.92
X-108.889 Y-103.818
X-108.926 Y-103.72
X-109.336 Y-102.809
X-109.546 Y-102.335
X-109.843 Y-101.497
X-110.171 Y-100.566
G0 Z5
X-111.301 Y-66.475
Z-4.365
G1 Z-4.682 F1016
X-111.295 Y-66.47 Z-4.753
X-111.277 Y-66.455 Z-4.82
X-111.248 Y-66.431 Z-4.88
X-111.21 Y-66.399 Z-4.931
X-111.163 Y-66.361 Z-4.969
X-111.112 Y-66.318 Z-4.992
X-111.057 Y-66.272 Z-5
G3 X-110.597 Y-65.636 I-1.012 J1.217
G1 X-109.671 Y-63.026 F2540
X-109.459 Y-62.452
X-109.383 Y-62.285
X-109.293 Y-62.057
X-109.176 Y-61.673
X-109.056 Y-61.121
X-108.957 Y-60.39
X-108.905 Y-59.654
X-108.877 Y-58.917
X-108.863 Y-58.179
X-108.855 Y-57.441
X-108.85 Y-56.703
X-108.848 Y-55.966
X-108.845 Y-53.752
X-108.833 Y-13.541
X-108.774 Y-13.177
X-108.634 Y-12.836
X-108.425 Y-12.532
X-107.905 Y-12.008
X-107.253 Y-11.663
X-106.548 Y-11.446
X-105.822 Y-11.314
X-105.089 Y-11.234
X-104.352 Y-11.186
X-103.615 Y-11.158
X-102.878 Y-11.142
X-102.14 Y-11.132
X-101.402 Y-11.126
X-100.664 Y-11.123
X-99.189 Y-11.12
X-95.499 Y-11.119
X-74.72 Y-11.121
X-74.573 Y-11.107
X-74.432 Y-11.063
X-74.302 Y-10.992
X-73.587 Y-10.504
X-73.486 Y-10.436
X-73.151 Y-10.229
X-72.983 Y-10.141
X-72.266 Y-9.768
G3 X-72.373 Y-9.178 I-0.156 J0.276 F1016
G1 X-72.443 Y-9.167 Z-4.992
X-72.509 Y-9.157 Z-4.969
X-72.569 Y-9.148 Z-4.931
X-72.619 Y-9.14 Z-4.88
X-72.656 Y-9.134 Z-4.82
X-72.679 Y-9.131 Z-4.753
X-72.687 Y-9.129 Z-4.682
G0 Z5
X-49.631 Y-8.35
Z-4.365
G1 Z-4.682 F1016
X-49.627 Y-8.356 Z-4.753
X-49.615 Y-8.376 Z-4.82
X-49.595 Y-8.408 Z-4.88
X-49.568 Y-8.451 Z-4.931
X-49.537 Y-8.502 Z-4.969
X-49.501 Y-8.559 Z-4.992
X-49.464 Y-8.619 Z-5
G3 X-48.897 Y-9.163 I1.345 J0.834
G1 X-46.964 Y-10.169 F2540
X-46.849 Y-10.229
X-46.682 Y-10.333
X-46.406 Y-10.485
X-46.154 Y-10.598
X-45.823 Y-10.716
X-45.369 Y-10.838
X-44.689 Y-10.964
X-43.955 Y-11.039
X-43.218 Y-11.079
X-42.481 Y-11.1
X-41.743 Y-11.112
X-41.005 Y-11.119
X-40.268 Y-11.122
X-38.792 Y-11.125
X-34.365 Y-11.127
X-13.706 Y-11.13
X-13.339 Y-11.163
X-12.985 Y-11.268
X-12.664 Y-11.45
X-12.107 Y-11.933
X-11.731 Y-12.568
X-11.493 Y-13.267
X-11.346 Y-13.99
X-11.258 Y-14.722
X-11.205 Y-15.458
X-11.174 Y-16.195
X-11.155 Y-16.933
X-11.144 Y-17.671
X-11.138 Y-18.408
X-11.134 Y-19.146
X-11.131 Y-20.622
X-11.129 Y-23.573
Y-27.262
X-11.13 Y-60.995
X-11.122 Y-61.1
X-11.1 Y-61.202
X-11.063 Y-61.301
X-10.541 Y-62.452
X-10.329 Y-63.026
X-9.817 Y-64.47
G3 X-9.218 Y-64.445 I0.295 J0.117 F1016
G1 X-9.197 Y-64.377 Z-4.992
X-9.178 Y-64.313 Z-4.969
X-9.161 Y-64.255 Z-4.931
X-9.146 Y-64.207 Z-4.88
X-9.135 Y-64.171 Z-4.82
X-9.128 Y-64.148 Z-4.753
X-9.126 Y-64.141 Z-4.682
G0 Z5
X-8.686 Y-98.478
Z-4.365
G1 Z-4.682 F1016
X-8.693 Y-98.483 Z-4.753
X-8.711 Y-98.498 Z-4.82
X-8.74 Y-98.523 Z-4.88
X-8.778 Y-98.555 Z-4.931
X-8.824 Y-98.593 Z-4.969
X-8.876 Y-98.636 Z-4.992
X-8.93 Y-98.682 Z-5
G3 X-9.389 Y-99.319 I1.014 J-1.215
G1 X-10.335 Y-102 F2540
X-10.454 Y-102.335
X-10.528 Y-102.503
X-10.694 Y-102.934
X-10.812 Y-103.329
X-10.932 Y-103.901
X-11.026 Y-104.633
X-11.075 Y-105.369
X-11.101 Y-106.106
X-11.115 Y-106.844
X-11.122 Y-107.582
X-11.126 Y-108.319
X-11.129 Y-109.795
X-11.13 Y-114.222
X-11.131 Y-128.978
X-11.203 Y-129.34
X-11.351 Y-129.678
X-11.566 Y-129.978
X-12.095 Y-130.492
X-12.749 Y-130.832
X-13.456 Y-131.047
X-14.182 Y-131.178
X-14.915 Y-131.256
X-15.652 Y-131.303
X-16.389 Y-131.331
X-17.126 Y-131.348
X-17.864 Y-131.357
X-18.602 Y-131.363
X-19.34 Y-131.367
X-20.815 Y-131.37
X-24.505 Y-131.371
X-34.096
X-38.464
X-38.558 Y-131.377
X-38.651 Y-131.395
X-38.74 Y-131.424
X-41.898 Y-132.694
G3 X-41.849 Y-133.292 I0.128 J-0.29 F1016
G1 X-41.78 Y-133.309 Z-4.992
X-41.715 Y-133.326 Z-4.969
X-41.657 Y-133.341 Z-4.931
X-41.608 Y-133.354 Z-4.88
X-41.572 Y-133.363 Z-4.82
X-41.549 Y-133.369 Z-4.753
X-41.541 Y-133.371 Z-4.682
G0 Z5
X-76.135 Y-133.728
Z-4.365
G1 Z-4.682 F1016
X-76.14 Y-133.722 Z-4.753
X-76.156 Y-133.704 Z-4.82
X-76.181 Y-133.676 Z-4.88
X-76.215 Y-133.639 Z-4.931
X-76.255 Y-133.595 Z-4.969
X-76.301 Y-133.545 Z-4.992
X-76.348 Y-133.493 Z-5
G3 X-77.004 Y-133.06 I-1.172 J-1.064
G1 X-77.506 Y-132.906 F2540
X-77.735 Y-132.834
X-77.841 Y-132.798
X-78.176 Y-132.664
X-80.019 Y-131.923
X-80.511 Y-131.753
X-80.973 Y-131.634
X-81.679 Y-131.512
X-82.414 Y-131.445
X-83.151 Y-131.409
X-83.889 Y-131.391
X-84.626 Y-131.381
X-85.364 Y-131.375
X-86.102 Y-131.372
X-87.578 Y-131.37
X-94.956 Y-131.369
X-105.285
X-105.644 Y-131.282
X-105.974 Y-131.118
X-106.556 Y-130.664
X-106.952 Y-130.042
X-107.206 Y-129.349
X-107.362 Y-128.628
X-107.457 Y-127.896
X-107.514 Y-127.161
X-107.547 Y-126.424
X-107.567 Y-125.686
X-107.579 Y-124.948
X-107.586 Y-124.211
X-107.59 Y-123.473
X-107.592 Y-122.735
X-107.594 Y-121.259
Y-116.095
X-107.591 Y-107.241
Y-106.806
X-107.6 Y-106.691
X-107.627 Y-106.579
X-107.67 Y-106.472
X-107.729 Y-106.357
X-107.811 Y-106.189
X-108.926 Y-103.72
G3 X-109.521 Y-103.794 I-0.285 J-0.141 F1016
G1 X-109.535 Y-103.863 Z-4.992
X-109.549 Y-103.929 Z-4.969
X-109.562 Y-103.988 Z-4.931
X-109.572 Y-104.037 Z-4.88
X-109.58 Y-104.074 Z-4.82
X-109.585 Y-104.097 Z-4.753
X-109.587 Y-104.105 Z-4.682
G0 Z5
X-79.21 Y-132.662
Z-4.365
G1 Z-4.682 F1016
X-79.215 Y-132.656 Z-4.753
X-79.229 Y-132.637 Z-4.82
X-79.252 Y-132.607 Z-4.88
X-79.282 Y-132.567 Z-4.931
X-79.319 Y-132.519 Z-4.969
X-79.36 Y-132.466 Z-4.992
X-79.403 Y-132.41 Z-5
G3 X-80.019 Y-131.923 I-1.258 J-0.96
G1 X-81.921 Y-131.158 F2540
X-82.029 Y-131.107
X-82.532 Y-130.858
X-82.699 Y-130.773
X-83.069 Y-130.609
X-83.4 Y-130.493
X-83.858 Y-130.373
X-84.55 Y-130.25
X-85.284 Y-130.179
X-86.021 Y-130.142
X-86.759 Y-130.122
X-87.497 Y-130.111
X-88.234 Y-130.106
X-88.972 Y-130.103
X-90.448 Y-130.1
X-96.35 Y-130.099
X-103.728
X-104.096 Y-130.071
X-104.452 Y-129.973
X-104.775 Y-129.795
X-105.338 Y-129.318
X-105.717 Y-128.685
X-105.958 Y-127.988
X-106.106 Y-127.265
X-106.196 Y-126.532
X-106.249 Y-125.797
X-106.28 Y-125.059
X-106.299 Y-124.322
X-106.31 Y-123.584
X-106.316 Y-122.846
X-106.32 Y-122.108
X-106.323 Y-120.633
X-106.324 Y-117.682
X-106.322 Y-109.112
X-106.332 Y-108.987
X-106.364 Y-108.865
X-106.415 Y-108.751
X-107.493 Y-106.818
X-107.559 Y-106.692
X-107.67 Y-106.472
G3 X-108.262 Y-106.573 I-0.278 J-0.153 F1016
G1 X-108.273 Y-106.643 Z-4.992
X-108.284 Y-106.709 Z-4.969
X-108.294 Y-106.768 Z-4.931
X-108.303 Y-106.818 Z-4.88
X-108.309 Y-106.855 Z-4.82
X-108.313 Y-106.878 Z-4.753
X-108.314 Y-106.886 Z-4.682
G0 Z5
X-81.956 Y-131.578
Z-4.365
G1 Z-4.682 F1016
X-81.96 Y-131.571 Z-4.753
X-81.973 Y-131.552 Z-4.82
X-81.993 Y-131.52 Z-4.88
X-82.02 Y-131.477 Z-4.931
X-82.052 Y-131.426 Z-4.969
X-82.088 Y-131.37 Z-4.992
X-82.126 Y-131.31 Z-5
G3 X-82.699 Y-130.773 I-1.335 J-0.85
G1 X-85.212 Y-129.505 F2540
X-85.572 Y-129.346
X-85.908 Y-129.228
X-86.372 Y-129.106
X-87.072 Y-128.982
X-87.806 Y-128.911
X-88.543 Y-128.873
X-89.281 Y-128.853
X-90.019 Y-128.842
X-90.756 Y-128.836
X-91.494 Y-128.833
X-92.97 Y-128.83
X-98.135 Y-128.829
X-102.561
X-102.927 Y-128.782
X-103.275 Y-128.659
X-103.588 Y-128.463
X-104.126 Y-127.958
X-104.486 Y-127.314
X-104.712 Y-126.612
X-104.851 Y-125.887
X-104.935 Y-125.154
X-104.984 Y-124.418
X-105.013 Y-123.681
X-105.031 Y-122.943
X-105.041 Y-122.206
X-105.047 Y-121.468
X-105.05 Y-120.73
X-105.053 Y-119.254
Y-115.565
X-105.052 Y-111.293
X-105.067 Y-111.147
X-105.109 Y-111.007
X-105.179 Y-110.878
X-105.315 Y-110.676
X-105.395 Y-110.546
X-105.65 Y-110.121
X-105.788 Y-109.876
X-106.415 Y-108.751
G3 X-107.002 Y-108.875 I-0.272 J-0.164 F1016
G1 X-107.011 Y-108.946 Z-4.992
X-107.019 Y-109.012 Z-4.969
X-107.027 Y-109.072 Z-4.931
X-107.033 Y-109.122 Z-4.88
X-107.038 Y-109.159 Z-4.82
X-107.041 Y-109.183 Z-4.753
Y-109.191 Z-4.682
G0 Z5
X-84.469 Y-130.31
Z-4.365
G1 Z-4.682 F1016
X-84.473 Y-130.303 Z-4.753
X-84.486 Y-130.284 Z-4.82
X-84.506 Y-130.252 Z-4.88
X-84.533 Y-130.209 Z-4.931
X-84.565 Y-130.159 Z-4.969
X-84.601 Y-130.102 Z-4.992
X-84.639 Y-130.042 Z-5
G3 X-85.212 Y-129.505 I-1.335 J-0.85
G1 X-85.715 Y-129.252 F2540
X-85.882 Y-129.164
X-86.217 Y-128.975
X-86.385 Y-128.876
X-87.223 Y-128.359
X-87.504 Y-128.205
X-87.761 Y-128.089
X-88.097 Y-127.97
X-88.56 Y-127.846
X-89.248 Y-127.721
X-89.982 Y-127.646
X-90.719 Y-127.607
X-91.457 Y-127.585
X-92.194 Y-127.573
X-92.932 Y-127.567
X-93.67 Y-127.563
X-95.146 Y-127.56
X-99.572 Y-127.559
X-101.048
X-101.417 Y-127.551
X-101.779 Y-127.479
X-102.115 Y-127.327
X-102.413 Y-127.109
X-102.923 Y-126.576
X-103.259 Y-125.919
X-103.469 Y-125.212
X-103.598 Y-124.486
X-103.674 Y-123.752
X-103.72 Y-123.015
X-103.747 Y-122.278
X-103.762 Y-121.54
X-103.772 Y-120.803
X-103.777 Y-120.065
X-103.78 Y-119.327
X-103.783 Y-117.851
Y-114.162
Y-113.174
X-103.797 Y-113.028
X-103.84 Y-112.888
X-103.91 Y-112.759
X-105.179 Y-110.878
G3 X-105.753 Y-111.052 I-0.257 J-0.187 F1016
G1 X-105.756 Y-111.123 Z-4.992
X-105.758 Y-111.19 Z-4.969
X-105.761 Y-111.25 Z-4.931
X-105.763 Y-111.3 Z-4.88
X-105.764 Y-111.338 Z-4.82
X-105.765 Y-111.362 Z-4.753
X-105.766 Y-111.37 Z-4.682
G0 Z5
X-86.55 Y-129.224
Z-4.365
G1 Z-4.682 F1016
X-86.554 Y-129.217 Z-4.753
X-86.565 Y-129.197 Z-4.82
X-86.582 Y-129.163 Z-4.88
X-86.605 Y-129.119 Z-4.931
X-86.633 Y-129.065 Z-4.969
X-86.664 Y-129.006 Z-4.992
X-86.697 Y-128.943 Z-5
G3 X-87.223 Y-128.359 I-1.402 J-0.734
G1 X-89.233 Y-127.121 F2540
X-89.56 Y-126.941
X-89.818 Y-126.825
X-90.16 Y-126.704
X-90.626 Y-126.579
X-91.321 Y-126.452
X-92.055 Y-126.378
X-92.792 Y-126.338
X-93.529 Y-126.316
X-94.267 Y-126.304
X-95.005 Y-126.297
X-95.743 Y-126.293
X-97.218 Y-126.29
X-100.17 Y-126.289
X-100.53 Y-126.209
X-100.863 Y-126.051
X-101.453 Y-125.608
X-101.857 Y-124.99
X-102.115 Y-124.299
X-102.275 Y-123.579
X-102.372 Y-122.848
X-102.43 Y-122.112
X-102.465 Y-121.375
X-102.485 Y-120.638
X-102.497 Y-119.9
X-102.504 Y-119.162
X-102.508 Y-118.424
X-102.511 Y-117.686
X-102.512 Y-116.211
X-102.513 Y-114.987
X-102.531 Y-114.826
X-102.583 Y-114.672
X-102.668 Y-114.534
X-102.802 Y-114.36
X-103.027 Y-114.065
X-103.254 Y-113.73
X-103.91 Y-112.759
G3 X-104.484 Y-112.933 I-0.257 J-0.187 F1016
G1 X-104.486 Y-113.004 Z-4.992
X-104.489 Y-113.071 Z-4.969
X-104.491 Y-113.131 Z-4.931
X-104.493 Y-113.181 Z-4.88
X-104.495 Y-113.219 Z-4.82
X-104.496 Y-113.242 Z-4.753
Y-113.25 Z-4.682
G0 Z5
X-88.56 Y-127.986
Z-4.365
G1 Z-4.682 F1016
X-88.564 Y-127.979 Z-4.753
X-88.575 Y-127.958 Z-4.82
X-88.592 Y-127.924 Z-4.88
X-88.616 Y-127.88 Z-4.931
X-88.644 Y-127.826 Z-4.969
X-88.675 Y-127.767 Z-4.992
X-88.707 Y-127.704 Z-5
G3 X-89.233 Y-127.121 I-1.402 J-0.734
G1 X-89.751 Y-126.801 F2540
X-89.903 Y-126.704
X-90.238 Y-126.46
X-90.908 Y-125.964
X-91.148 Y-125.804
X-91.356 Y-125.689
X-91.616 Y-125.571
X-91.958 Y-125.447
X-92.421 Y-125.321
X-93.109 Y-125.192
X-93.843 Y-125.114
X-94.58 Y-125.072
X-95.317 Y-125.048
X-96.055 Y-125.035
X-96.793 Y-125.028
X-97.531 Y-125.024
X-99.006 Y-125.02
X-99.361 Y-124.92
X-99.685 Y-124.743
X-100.248 Y-124.266
X-100.63 Y-123.635
X-100.873 Y-122.938
X-101.022 Y-122.216
X-101.112 Y-121.483
X-101.166 Y-120.748
X-101.198 Y-120.01
X-101.217 Y-119.273
X-101.228 Y-118.535
X-101.235 Y-117.797
X-101.238 Y-117.06
X-101.24 Y-116.565
X-101.259 Y-116.4
X-101.315 Y-116.243
X-101.404 Y-116.102
X-102.641 Y-114.568
X-102.668 Y-114.534
G3 X-103.229 Y-114.745 I-0.244 J-0.203 F1016
G1 X-103.228 Y-114.816 Z-4.992
X-103.226 Y-114.883 Z-4.969
X-103.224 Y-114.943 Z-4.931
X-103.223 Y-114.993 Z-4.88
X-103.222 Y-115.031 Z-4.82
X-103.221 Y-115.055 Z-4.753
Y-115.062 Z-4.682
G0 Y-115.063 Z5
X-90.311 Y-126.883
Z-4.365
G1 Z-4.682 F1016
X-90.314 Y-126.875 Z-4.753
X-90.324 Y-126.854 Z-4.82
X-90.338 Y-126.819 Z-4.88
X-90.358 Y-126.773 Z-4.931
X-90.381 Y-126.717 Z-4.969
X-90.407 Y-126.655 Z-4.992
X-90.434 Y-126.59 Z-5
G3 X-90.908 Y-125.964 I-1.459 J-0.612
G1 X-92.72 Y-124.623 F2540
X-92.845 Y-124.54
X-93.058 Y-124.422
X-93.329 Y-124.301
X-93.679 Y-124.176
X-94.158 Y-124.048
X-94.871 Y-123.917
X-95.605 Y-123.843
X-96.342 Y-123.801
X-97.08 Y-123.778
X-97.817 Y-123.765
X-98.166 Y-123.645
X-98.48 Y-123.451
X-99.024 Y-122.953
X-99.389 Y-122.311
X-99.62 Y-121.611
X-99.763 Y-120.887
X-99.848 Y-120.154
X-99.9 Y-119.418
X-99.93 Y-118.681
X-99.943 Y-118.147
X-99.966 Y-117.98
X-100.027 Y-117.822
X-100.121 Y-117.683
X-100.206 Y-117.585
X-100.29 Y-117.484
X-101.404 Y-116.102
G0 Z5
X-92.123 Y-125.542
Z-4.365
G1 Z-4.682 F1016
X-92.126 Y-125.534 Z-4.753
X-92.135 Y-125.513 Z-4.82
X-92.15 Y-125.478 Z-4.88
X-92.169 Y-125.431 Z-4.931
X-92.193 Y-125.376 Z-4.969
X-92.219 Y-125.314 Z-4.992
X-92.246 Y-125.249 Z-5
G3 X-92.72 Y-124.623 I-1.459 J-0.612
G1 X-93.086 Y-124.351 F2540
X-93.589 Y-123.973
X-93.613 Y-123.952
X-94.091 Y-123.531
X-94.253 Y-123.402
X-94.42 Y-123.29
X-94.626 Y-123.174
X-94.898 Y-123.049
X-95.238 Y-122.925
X-95.708 Y-122.795
X-96.433 Y-122.655
X-96.783 Y-122.541
X-97.105 Y-122.36
X-97.673 Y-121.889
X-98.061 Y-121.261
X-98.311 Y-120.567
X-98.467 Y-119.846
X-98.498 Y-119.604
X-98.535 Y-119.452
X-98.602 Y-119.311
X-98.698 Y-119.187
G3 X-99.234 Y-119.456 I-0.222 J-0.227 F1016
G1 X-99.225 Y-119.526 Z-4.992
X-99.216 Y-119.592 Z-4.969
X-99.208 Y-119.652 Z-4.931
X-99.202 Y-119.702 Z-4.88
X-99.197 Y-119.739 Z-4.82
X-99.194 Y-119.763 Z-4.753
X-99.193 Y-119.771 Z-4.682
G0 Z5
X-93.574 Y-124.497
Z-4.365
G1 Z-4.682 F1016
X-93.577 Y-124.49 Z-4.753
X-93.584 Y-124.468 Z-4.82
X-93.596 Y-124.432 Z-4.88
X-93.611 Y-124.384 Z-4.931
X-93.63 Y-124.326 Z-4.969
X-93.65 Y-124.263 Z-4.992
X-93.672 Y-124.195 Z-5
G3 X-94.091 Y-123.531 I-1.506 J-0.486
G1 X-96.846 Y-121.104 F2540
X-96.939 Y-121.019
X-97.344 Y-120.601
X-99.954 Y-117.874
X-100.095 Y-117.714
X-100.121 Y-117.683
G3 X-100.672 Y-117.922 I-0.234 J-0.215 F1016
G1 X-100.666 Y-117.992 Z-4.992
X-100.661 Y-118.059 Z-4.969
X-100.657 Y-118.119 Z-4.931
X-100.653 Y-118.169 Z-4.88
X-100.65 Y-118.207 Z-4.82
X-100.648 Y-118.23 Z-4.753
X-100.647 Y-118.238 Z-4.682
G0 Z5
X-110.156 Y-63.061
Z-4.365
G1 Z-4.682 F1016
X-110.15 Y-63.057 Z-4.753
X-110.131 Y-63.043 Z-4.82
X-110.099 Y-63.021 Z-4.88
X-110.058 Y-62.993 Z-4.931
X-110.009 Y-62.958 Z-4.969
X-109.954 Y-62.92 Z-4.992
X-109.896 Y-62.88 Z-5
G3 X-109.383 Y-62.285 I-0.905 J1.298
G1 X-108.167 Y-59.604 F2540
X-108.028 Y-59.252
X-107.909 Y-58.861
X-107.787 Y-58.302
X-107.688 Y-57.571
X-107.636 Y-56.835
X-107.608 Y-56.098
X-107.593 Y-55.36
X-107.584 Y-54.623
X-107.58 Y-53.885
X-107.577 Y-53.147
X-107.574 Y-50.934
X-107.563 Y-14.781
X-107.495 Y-14.418
X-107.348 Y-14.08
X-107.134 Y-13.779
X-106.605 Y-13.265
X-105.95 Y-12.925
X-105.244 Y-12.711
X-104.518 Y-12.581
X-103.784 Y-12.502
X-103.048 Y-12.455
X-102.31 Y-12.428
X-101.573 Y-12.411
X-100.835 Y-12.402
X-100.097 Y-12.396
X-99.359 Y-12.393
X-97.884 Y-12.39
X-94.195 Y-12.389
X-76.506 Y-12.391
X-76.336 Y-12.371
X-76.175 Y-12.313
X-76.032 Y-12.22
X-75.783 Y-12.012
X-75.663 Y-11.922
X-74.302 Y-10.992
G3 X-74.48 Y-10.419 I-0.188 J0.256 F1016
G1 X-74.55 Y-10.417 Z-4.992
X-74.617 Y-10.415 Z-4.969
X-74.677 Y-10.413 Z-4.931
X-74.728 Y-10.411 Z-4.88
X-74.765 Y-10.41 Z-4.82
X-74.789 Y-10.409 Z-4.753
X-74.797 Z-4.682
G0 Z5
X-47.353 Y-9.467
Z-4.365
G1 Z-4.682 F1016
X-47.35 Y-9.474 Z-4.753
X-47.339 Y-9.495 Z-4.82
X-47.321 Y-9.528 Z-4.88
X-47.298 Y-9.573 Z-4.931
X-47.27 Y-9.626 Z-4.969
X-47.239 Y-9.686 Z-4.992
X-47.207 Y-9.748 Z-5
G3 X-46.682 Y-10.333 I1.403 J0.732
G1 X-46.514 Y-10.436 F2540
X-46.413 Y-10.504
X-44.941 Y-11.509
X-44.678 Y-11.671
X-44.45 Y-11.786
X-44.158 Y-11.905
X-43.768 Y-12.03
X-43.22 Y-12.157
X-42.49 Y-12.266
X-41.754 Y-12.325
X-41.017 Y-12.357
X-40.28 Y-12.375
X-39.542 Y-12.384
X-38.804 Y-12.39
X-38.066 Y-12.393
X-36.591 Y-12.396
X-31.426 Y-12.397
X-15.194 Y-12.4
X-14.825 Y-12.403
X-14.461 Y-12.462
X-14.12 Y-12.602
X-13.815 Y-12.81
X-13.293 Y-13.331
X-12.946 Y-13.982
X-12.728 Y-14.687
X-12.595 Y-15.413
X-12.515 Y-16.146
X-12.467 Y-16.883
X-12.439 Y-17.62
X-12.423 Y-18.357
X-12.413 Y-19.095
X-12.407 Y-19.833
X-12.404 Y-20.571
X-12.4 Y-22.046
X-12.399 Y-25.736
Y-31.638
Y-58.203
X-12.391 Y-58.317
X-12.364 Y-58.429
X-12.321 Y-58.535
X-12.289 Y-58.598
X-11.063 Y-61.301
G3 X-10.468 Y-61.225 I0.284 J0.141 F1016
G1 X-10.454 Y-61.156 Z-4.992
X-10.44 Y-61.09 Z-4.969
X-10.428 Y-61.031 Z-4.931
X-10.417 Y-60.982 Z-4.88
X-10.409 Y-60.945 Z-4.82
X-10.405 Y-60.922 Z-4.753
X-10.403 Y-60.914 Z-4.682
G0 Z5
X-9.76 Y-101.721
Z-4.365
G1 Z-4.682 F1016
X-9.767 Y-101.726 Z-4.753
X-9.786 Y-101.739 Z-4.82
X-9.817 Y-101.761 Z-4.88
X-9.858 Y-101.79 Z-4.931
X-9.907 Y-101.825 Z-4.969
X-9.962 Y-101.863 Z-4.992
X-10.019 Y-101.904 Z-5
G3 X-10.528 Y-102.503 I0.914 J-1.292
G1 X-10.752 Y-103.005 F2540
X-11.811 Y-105.352
X-11.951 Y-105.71
X-12.07 Y-106.104
X-12.192 Y-106.667
X-12.29 Y-107.398
X-12.341 Y-108.134
X-12.369 Y-108.872
X-12.383 Y-109.609
X-12.391 Y-110.347
X-12.396 Y-111.085
X-12.398 Y-111.823
X-12.4 Y-114.036
X-12.401 Y-127.317
X-12.404 Y-127.686
X-12.471 Y-128.049
X-12.613 Y-128.389
X-12.825 Y-128.691
X-13.349 Y-129.21
X-14.002 Y-129.554
X-14.707 Y-129.771
X-15.433 Y-129.904
X-16.166 Y-129.984
X-16.903 Y-130.032
X-17.64 Y-130.06
X-18.377 Y-130.077
X-19.115 Y-130.087
X-19.853 Y-130.093
X-20.591 Y-130.096
X-22.066 Y-130.1
X-25.755 Y-130.101
X-35.792
X-35.906 Y-130.11
X-36.019 Y-130.136
X-36.125 Y-130.18
X-37.468 Y-130.858
X-37.971 Y-131.107
X-38.079 Y-131.158
X-38.74 Y-131.424
G3 X-38.691 Y-132.022 I0.129 J-0.29 F1016
G1 X-38.622 Y-132.04 Z-4.992
X-38.557 Y-132.056 Z-4.969
X-38.499 Y-132.071 Z-4.931
X-38.45 Y-132.084 Z-4.88
X-38.413 Y-132.093 Z-4.82
X-38.391 Y-132.099 Z-4.753
X-38.383 Y-132.101 Z-4.682
G0 Z5
X-11.039 Y-104.574
Z-4.365
G1 Z-4.682 F1016
X-11.045 Y-104.578 Z-4.753
X-11.065 Y-104.592 Z-4.82
X-11.096 Y-104.613 Z-4.88
X-11.137 Y-104.642 Z-4.931
X-11.186 Y-104.677 Z-4.969
X-11.241 Y-104.715 Z-4.992
X-11.299 Y-104.756 Z-5
G3 X-11.811 Y-105.352 I0.907 J-1.297
G1 X-12.189 Y-106.189 F2540
X-12.271 Y-106.357
X-12.441 Y-106.692
X-12.507 Y-106.818
X-12.997 Y-107.698
X-13.094 Y-107.893
X-13.21 Y-108.186
X-13.329 Y-108.574
X-13.453 Y-109.132
X-13.554 Y-109.863
X-13.608 Y-110.599
X-13.637 Y-111.336
X-13.652 Y-112.073
X-13.661 Y-112.811
X-13.665 Y-113.549
X-13.668 Y-114.287
X-13.67 Y-115.762
X-13.671 Y-124.616
Y-126.092
X-13.68 Y-126.461
X-13.754 Y-126.822
X-13.908 Y-127.158
X-14.125 Y-127.455
X-14.66 Y-127.964
X-15.317 Y-128.3
X-16.024 Y-128.511
X-16.75 Y-128.64
X-17.484 Y-128.718
X-18.22 Y-128.764
X-18.958 Y-128.792
X-19.695 Y-128.808
X-20.433 Y-128.818
X-21.171 Y-128.823
X-21.909 Y-128.826
X-23.384 Y-128.83
X-27.073 Y-128.831
X-33.336
X-33.468 Y-128.843
X-33.595 Y-128.878
X-33.715 Y-128.935
X-33.791 Y-128.98
X-34.118 Y-129.164
X-34.285 Y-129.252
X-36.125 Y-130.18
G3 X-36.025 Y-130.772 I0.153 J-0.278 F1016
G1 X-35.955 Y-130.783 Z-4.992
X-35.889 Y-130.794 Z-4.969
X-35.83 Y-130.804 Z-4.931
X-35.78 Y-130.813 Z-4.88
X-35.743 Y-130.819 Z-4.82
X-35.72 Y-130.823 Z-4.753
X-35.712 Y-130.824 Z-4.682
G0 Z5
X-12.162 Y-106.988
Z-4.365
G1 Z-4.682 F1016
X-12.169 Y-106.992 Z-4.753
X-12.19 Y-107.004 Z-4.82
X-12.222 Y-107.023 Z-4.88
X-12.266 Y-107.048 Z-4.931
X-12.318 Y-107.078 Z-4.969
X-12.376 Y-107.112 Z-4.992
X-12.437 Y-107.147 Z-5
G3 X-12.997 Y-107.698 I0.794 J-1.369
G1 X-14.182 Y-109.822 F2540
X-14.358 Y-110.179
X-14.475 Y-110.473
X-14.597 Y-110.867
X-14.721 Y-111.431
X-14.822 Y-112.162
X-14.876 Y-112.898
X-14.906 Y-113.635
X-14.922 Y-114.373
X-14.93 Y-115.111
X-14.935 Y-115.848
X-14.937 Y-116.586
X-14.94 Y-118.062
X-14.941 Y-124.702
X-14.942 Y-125.071
X-14.997 Y-125.436
X-15.126 Y-125.782
X-15.325 Y-126.092
X-15.832 Y-126.628
X-16.477 Y-126.987
X-17.179 Y-127.214
X-17.903 Y-127.353
X-18.636 Y-127.437
X-19.372 Y-127.488
X-20.109 Y-127.518
X-20.847 Y-127.536
X-21.585 Y-127.546
X-22.323 Y-127.552
X-23.06 Y-127.556
X-24.536 Y-127.559
X-27.487 Y-127.561
X-31.272
X-31.407 Y-127.573
X-31.538 Y-127.611
X-31.66 Y-127.671
X-33.615 Y-128.876
X-33.715 Y-128.935
G3 X-33.574 Y-129.518 I0.172 J-0.267 F1016
G1 X-33.503 Y-129.525 Z-4.992
X-33.437 Y-129.531 Z-4.969
X-33.377 Y-129.537 Z-4.931
X-33.327 Y-129.542 Z-4.88
X-33.289 Y-129.546 Z-4.82
X-33.266 Y-129.548 Z-4.753
X-33.258 Y-129.549 Z-4.682
G0 Z5
X-13.347 Y-109.112
Z-4.365
G1 Z-4.682 F1016
X-13.354 Y-109.116 Z-4.753
X-13.374 Y-109.128 Z-4.82
X-13.407 Y-109.147 Z-4.88
X-13.451 Y-109.172 Z-4.931
X-13.503 Y-109.203 Z-4.969
X-13.561 Y-109.236 Z-4.992
X-13.622 Y-109.272 Z-5
G3 X-14.182 Y-109.822 I0.794 J-1.369
G1 X-14.306 Y-110.044 F2540
X-14.35 Y-110.121
X-14.605 Y-110.546
X-14.685 Y-110.676
X-15.355 Y-111.669
X-15.496 Y-111.903
X-15.612 Y-112.134
X-15.731 Y-112.43
X-15.855 Y-112.826
X-15.981 Y-113.384
X-16.085 Y-114.114
X-16.142 Y-114.85
X-16.173 Y-115.587
X-16.19 Y-116.324
X-16.199 Y-117.062
X-16.204 Y-117.8
X-16.207 Y-118.538
X-16.21 Y-120.013
X-16.211 Y-123.703
X-16.248 Y-124.07
X-16.355 Y-124.422
X-16.538 Y-124.743
X-17.019 Y-125.302
X-17.653 Y-125.68
X-18.35 Y-125.921
X-19.073 Y-126.069
X-19.805 Y-126.159
X-20.541 Y-126.212
X-21.278 Y-126.245
X-22.016 Y-126.264
X-22.754 Y-126.275
X-23.491 Y-126.282
X-24.229 Y-126.285
X-25.705 Y-126.289
X-28.656 Y-126.291
X-29.29
X-29.446 Y-126.307
X-29.595 Y-126.357
X-29.73 Y-126.436
X-30.097 Y-126.704
X-30.264 Y-126.811
X-31.66 Y-127.671
G3 X-31.51 Y-128.252 I0.176 J-0.264 F1016
G1 X-31.44 Y-128.258 Z-4.992
X-31.373 Y-128.263 Z-4.969
X-31.313 Y-128.268 Z-4.931
X-31.263 Y-128.272 Z-4.88
X-31.225 Y-128.275 Z-4.82
X-31.201 Y-128.277 Z-4.753
X-31.194 Z-4.682
G0 Z5
X-14.463 Y-111.033
Z-4.365
G1 Z-4.682 F1016
X-14.47 Y-111.036 Z-4.753
X-14.491 Y-111.046 Z-4.82
X-14.525 Y-111.062 Z-4.88
X-14.571 Y-111.084 Z-4.931
X-14.625 Y-111.109 Z-4.969
X-14.686 Y-111.138 Z-4.992
X-14.75 Y-111.168 Z-5
G3 X-15.355 Y-111.669 I0.675 J-1.431
G1 X-16.633 Y-113.563 F2540
X-16.759 Y-113.77
X-16.875 Y-114.003
X-16.996 Y-114.305
X-17.121 Y-114.704
X-17.248 Y-115.268
X-17.353 Y-115.998
X-17.41 Y-116.734
X-17.441 Y-117.471
X-17.459 Y-118.208
X-17.469 Y-118.946
X-17.474 Y-119.684
X-17.477 Y-120.422
X-17.479 Y-121.897
X-17.48 Y-122.635
X-17.553 Y-122.997
X-17.704 Y-123.333
X-17.92 Y-123.632
X-18.45 Y-124.146
X-19.105 Y-124.485
X-19.812 Y-124.698
X-20.538 Y-124.828
X-21.272 Y-124.906
X-22.008 Y-124.953
X-22.745 Y-124.981
X-23.483 Y-124.997
X-24.221 Y-125.007
X-24.958 Y-125.013
X-25.696 Y-125.016
X-27.172 Y-125.019
X-27.573 Y-125.02
X-27.729 Y-125.036
X-27.878 Y-125.086
X-28.013 Y-125.165
X-29.73 Y-126.436
G3 X-29.531 Y-127.002 I0.198 J-0.249 F1016
G1 X-29.461 Z-4.992
X-29.393 Z-4.969
X-29.333 Y-127.001 Z-4.931
X-29.283 Z-4.88
X-29.245 Z-4.82
X-29.222 Z-4.753
X-29.214 Z-4.682
G0 Z5
X-15.741 Y-112.927
Z-4.365
G1 Z-4.682 F1016
X-15.748 Y-112.93 Z-4.753
X-15.769 Y-112.94 Z-4.82
X-15.804 Y-112.956 Z-4.88
X-15.849 Y-112.978 Z-4.931
X-15.903 Y-113.003 Z-4.969
X-15.964 Y-113.032 Z-4.992
X-16.028 Y-113.062 Z-5
G3 X-16.633 Y-113.563 I0.675 J-1.431
G1 X-16.863 Y-113.903 F2540
X-16.973 Y-114.065
X-17.229 Y-114.401
X-17.365 Y-114.576
X-17.764 Y-115.071
X-17.896 Y-115.252
X-18.012 Y-115.442
X-18.128 Y-115.672
X-18.253 Y-115.977
X-18.378 Y-116.373
X-18.508 Y-116.935
X-18.616 Y-117.665
X-18.675 Y-118.4
X-18.709 Y-119.137
X-18.727 Y-119.875
X-18.737 Y-120.613
X-18.743 Y-121.35
X-18.815 Y-121.712
X-18.962 Y-122.051
X-19.176 Y-122.351
X-19.704 Y-122.867
X-20.358 Y-123.208
X-21.063 Y-123.423
X-21.789 Y-123.555
X-22.523 Y-123.635
X-23.259 Y-123.682
X-23.996 Y-123.71
X-24.734 Y-123.727
X-25.472 Y-123.737
X-25.872 Y-123.74
X-26.047 Y-123.762
X-26.211 Y-123.825
X-26.356 Y-123.925
X-26.387 Y-123.952
X-26.411 Y-123.973
X-26.914 Y-124.351
X-28.013 Y-125.165
G3 X-27.814 Y-125.731 I0.198 J-0.248 F1016
G1 X-27.743 Z-4.992
X-27.676 Y-125.73 Z-4.969
X-27.616 Z-4.931
X-27.566 Z-4.88
X-27.528 Z-4.82
X-27.504 Z-4.753
X-27.496 Z-4.682
G0 Z5
X-16.821 Y-114.513
Z-4.365
G1 Z-4.682 F1016
X-16.829 Y-114.515 Z-4.753
X-16.851 Y-114.524 Z-4.82
X-16.886 Y-114.537 Z-4.88
X-16.933 Y-114.554 Z-4.931
X-16.99 Y-114.575 Z-4.969
X-17.053 Y-114.599 Z-4.992
X-17.119 Y-114.623 Z-5
G3 X-17.764 Y-115.071 I0.551 J-1.484
G1 X-18.981 Y-116.579 F2540
X-19.152 Y-116.815
X-19.271 Y-117.01
X-19.39 Y-117.245
X-19.516 Y-117.553
X-19.644 Y-117.957
X-19.775 Y-118.527
X-19.883 Y-119.256
X-19.943 Y-119.992
X-20.01 Y-120.355
X-20.145 Y-120.698
X-20.347 Y-121.006
X-20.855 Y-121.542
X-21.5 Y-121.901
X-22.202 Y-122.129
X-22.926 Y-122.269
X-23.659 Y-122.355
X-24.395 Y-122.406
X-24.556 Y-122.434
X-24.706 Y-122.496
X-24.84 Y-122.59
G3 X-24.594 Y-123.137 I0.218 J-0.231 F1016
G1 X-24.523 Y-123.13 Z-4.992
X-24.457 Y-123.124 Z-4.969
X-24.397 Y-123.119 Z-4.931
X-24.347 Y-123.114 Z-4.88
X-24.309 Y-123.111 Z-4.82
X-24.285 Y-123.109 Z-4.753
X-24.278 Y-123.108 Z-4.682
G0 Z5
X-18.038 Y-116.021
Z-4.365
G1 Z-4.682 F1016
X-18.045 Y-116.024 Z-4.753
X-18.067 Y-116.032 Z-4.82
X-18.102 Y-116.045 Z-4.88
X-18.15 Y-116.063 Z-4.931
X-18.206 Y-116.083 Z-4.969
X-18.269 Y-116.107 Z-4.992
X-18.335 Y-116.131 Z-5
G3 X-18.981 Y-116.579 I0.551 J-1.484
G1 X-19.71 Y-117.484 F2540
X-19.794 Y-117.585
X-19.938 Y-117.752
X-20.046 Y-117.874
X-20.213 Y-118.049
X-20.311 Y-118.163
X-20.422 Y-118.317
X-20.542 Y-118.517
X-20.87 Y-119.178
X-21.256 Y-119.807
X-21.81 Y-120.294
X-22.467 Y-120.63
X-22.598 Y-120.671
X-22.711 Y-120.717
X-22.816 Y-120.781
X-22.909 Y-120.862
G3 X-22.673 Y-121.393 I0.236 J-0.213 F1016
G1 X-22.62 Y-121.388
X-22.555 Y-121.37 F2540
X-22.496 Y-121.338
X-22.444 Y-121.295
X-19.762 Y-118.496
X-19.721 Y-118.444
X-19.692 Y-118.383
X-19.677 Y-118.318
G3 X-20.213 Y-118.049 I-0.315 J0.041 F1016
G1 X-22.726 Y-120.673 F2540
X-23.061 Y-121.019
X-23.228 Y-121.17
X-26.356 Y-123.925
G3 X-26.11 Y-124.472 I0.218 J-0.231 F1016
G1 X-26.039 Y-124.466 Z-4.992
X-25.972 Y-124.46 Z-4.969
X-25.912 Y-124.454 Z-4.931
X-25.862 Y-124.45 Z-4.88
X-25.825 Y-124.446 Z-4.82
X-25.801 Y-124.444 Z-4.753
X-25.793 Z-4.682
G0 Z5
X-108.94 Y-60.38
Z-4.365
G1 Z-4.682 F1016
X-108.934 Y-60.375 Z-4.753
X-108.914 Y-60.362 Z-4.82
X-108.883 Y-60.34 Z-4.88
X-108.842 Y-60.312 Z-4.931
X-108.793 Y-60.277 Z-4.969
X-108.738 Y-60.239 Z-4.992
X-108.68 Y-60.198 Z-5
G3 X-108.167 Y-59.604 I-0.905 J1.298
G1 X-107.711 Y-58.598 F2540
X-107.661 Y-58.498
X-107.493 Y-58.175
X-107.355 Y-57.928
X-106.99 Y-57.277
X-106.885 Y-57.064
X-106.768 Y-56.772
X-106.649 Y-56.388
X-106.526 Y-55.835
X-106.423 Y-55.104
X-106.368 Y-54.368
X-106.339 Y-53.631
X-106.323 Y-52.893
X-106.314 Y-52.155
X-106.31 Y-51.418
X-106.307 Y-50.68
X-106.304 Y-49.204
X-106.301 Y-41.088
X-106.294 Y-16.003
X-106.213 Y-15.643
X-106.054 Y-15.309
X-105.833 Y-15.014
X-105.293 Y-14.511
X-104.634 Y-14.18
X-103.926 Y-13.972
X-103.199 Y-13.845
X-102.465 Y-13.769
X-101.729 Y-13.724
X-100.992 Y-13.697
X-100.254 Y-13.681
X-99.516 Y-13.672
X-98.778 Y-13.666
X-98.041 Y-13.663
X-96.565 Y-13.66
X-92.876 Y-13.659
X-77.968 Y-13.661
X-77.792 Y-13.64
X-77.626 Y-13.577
X-77.48 Y-13.477
X-76.334 Y-12.474
X-76.166 Y-12.331
X-76.032 Y-12.22
G3 X-76.263 Y-11.666 I-0.212 J0.237 F1016
G1 X-76.334 Y-11.67 Z-4.992
X-76.401 Y-11.674 Z-4.969
X-76.461 Y-11.678 Z-4.931
X-76.511 Y-11.681 Z-4.88
X-76.549 Y-11.684 Z-4.82
X-76.572 Y-11.685 Z-4.753
X-76.58 Y-11.686 Z-4.682
G0 Z5
X-45.572 Y-10.614
Z-4.365
G1 Z-4.682 F1016
X-45.569 Y-10.621 Z-4.753
X-45.559 Y-10.642 Z-4.82
X-45.543 Y-10.676 Z-4.88
X-45.522 Y-10.722 Z-4.931
X-45.496 Y-10.777 Z-4.969
X-45.468 Y-10.838 Z-4.992
X-45.438 Y-10.902 Z-5
G3 X-44.941 Y-11.509 I1.435 J0.667
G1 X-44.337 Y-11.922 F2540
X-44.217 Y-12.012
X-43.815 Y-12.347
X-43.666 Y-12.474
X-43.499 Y-12.62
X-43.332 Y-12.752
X-43.161 Y-12.866
X-42.953 Y-12.983
X-42.688 Y-13.103
X-42.34 Y-13.23
X-41.871 Y-13.358
X-41.181 Y-13.489
X-40.447 Y-13.568
X-39.711 Y-13.611
X-38.974 Y-13.636
X-38.236 Y-13.649
X-37.498 Y-13.657
X-36.76 Y-13.661
X-36.022 Y-13.664
X-33.809 Y-13.667
X-16.101 Y-13.67
X-15.738 Y-13.732
X-15.396 Y-13.87
X-15.091 Y-14.078
X-14.568 Y-14.598
X-14.22 Y-15.249
X-14.001 Y-15.953
X-13.867 Y-16.679
X-13.786 Y-17.412
X-13.738 Y-18.149
X-13.71 Y-18.886
X-13.693 Y-19.624
X-13.683 Y-20.361
X-13.677 Y-21.099
X-13.674 Y-21.837
X-13.671 Y-23.312
X-13.669 Y-27.002
Y-35.118
Y-55.906
X-13.659 Y-56.031
X-13.627 Y-56.153
X-13.575 Y-56.268
X-12.551 Y-58.095
X-12.507 Y-58.175
X-12.339 Y-58.498
X-12.321 Y-58.535
G0 Z5
X-44.018 Y-11.655
Z-4.365
G1 Z-4.682 F1016
X-44.016 Y-11.663 Z-4.753
X-44.009 Y-11.685 Z-4.82
X-43.997 Y-11.721 Z-4.88
X-43.981 Y-11.769 Z-4.931
X-43.963 Y-11.826 Z-4.969
X-43.942 Y-11.89 Z-4.992
X-43.92 Y-11.957 Z-5
G3 X-43.499 Y-12.62 I1.505 J0.49
G1 X-42.088 Y-13.856 F2540
X-41.919 Y-13.991
X-41.742 Y-14.111
X-41.536 Y-14.227
X-41.264 Y-14.353
X-40.917 Y-14.481
X-40.443 Y-14.614
X-39.762 Y-14.747
X-39.029 Y-14.83
X-38.292 Y-14.876
X-37.555 Y-14.902
X-36.817 Y-14.917
X-36.08 Y-14.926
X-35.342 Y-14.931
X-34.604 Y-14.934
X-33.128 Y-14.936
X-27.226 Y-14.938
X-17.634 Y-14.939
X-17.266 Y-14.954
X-16.906 Y-15.038
X-16.575 Y-15.2
X-15.989 Y-15.649
X-15.59 Y-16.269
X-15.335 Y-16.961
X-15.177 Y-17.682
X-15.081 Y-18.414
X-15.023 Y-19.149
X-14.989 Y-19.886
X-14.968 Y-20.624
X-14.956 Y-21.361
X-14.949 Y-22.099
X-14.945 Y-22.837
X-14.942 Y-23.575
X-14.94 Y-25.051
X-14.939 Y-30.215
Y-39.069
Y-53.713
X-14.925 Y-53.859
X-14.882 Y-54
X-14.812 Y-54.129
X-14.736 Y-54.241
X-14.517 Y-54.596
X-14.429 Y-54.744
X-13.575 Y-56.268
G3 X-12.988 Y-56.142 I0.271 J0.165 F1016
G1 X-12.98 Y-56.072 Z-4.992
X-12.972 Y-56.005 Z-4.969
X-12.964 Y-55.945 Z-4.931
X-12.958 Y-55.895 Z-4.88
X-12.953 Y-55.858 Z-4.82
X-12.951 Y-55.835 Z-4.753
X-12.95 Y-55.827 Z-4.682
G0 Z5
X-42.603 Y-12.888
Z-4.365
G1 Z-4.682 F1016
X-42.6 Y-12.895 Z-4.753
X-42.593 Y-12.918 Z-4.82
X-42.581 Y-12.954 Z-4.88
X-42.566 Y-13.002 Z-4.931
X-42.548 Y-13.059 Z-4.969
X-42.527 Y-13.123 Z-4.992
X-42.506 Y-13.19 Z-5
G3 X-42.088 Y-13.856 I1.507 J0.482
G1 X-41.9 Y-14.023 F2540
X-41.824 Y-14.094
X-41.489 Y-14.459
X-41.05 Y-14.948
X-40.93 Y-15.069
X-40.804 Y-15.176
X-40.641 Y-15.295
X-40.429 Y-15.425
X-40.182 Y-15.549
X-39.855 Y-15.683
X-39.433 Y-15.816
X-38.839 Y-15.954
X-38.109 Y-16.061
X-37.374 Y-16.123
X-36.637 Y-16.158
X-35.9 Y-16.179
X-35.162 Y-16.191
X-34.424 Y-16.198
X-33.686 Y-16.202
X-32.211 Y-16.206
X-29.259 Y-16.208
X-18.93 Y-16.209
X-18.561 Y-16.221
X-18.2 Y-16.297
X-17.866 Y-16.452
X-17.275 Y-16.895
X-16.871 Y-17.512
X-16.611 Y-18.202
X-16.45 Y-18.923
X-16.353 Y-19.654
X-16.294 Y-20.389
X-16.26 Y-21.126
X-16.239 Y-21.864
X-16.227 Y-22.602
X-16.219 Y-23.339
X-16.215 Y-24.077
X-16.213 Y-24.815
X-16.21 Y-26.291
X-16.209 Y-31.455
Y-42.523
Y-51.84
X-16.195 Y-51.986
X-16.152 Y-52.127
X-16.082 Y-52.256
X-14.812 Y-54.129
G3 X-14.238 Y-53.954 I0.257 J0.187 F1016
G1 X-14.236 Y-53.883 Z-4.992
X-14.233 Y-53.816 Z-4.969
X-14.231 Y-53.756 Z-4.931
X-14.229 Y-53.706 Z-4.88
X-14.227 Y-53.668 Z-4.82
X-14.226 Y-53.644 Z-4.753
Y-53.636 Z-4.682
G0 Z5
X-41.45 Y-13.928
Z-4.365
G1 Z-4.682 F1016
X-41.449 Y-13.936 Z-4.753
X-41.444 Y-13.959 Z-4.82
X-41.437 Y-13.996 Z-4.88
X-41.427 Y-14.045 Z-4.931
X-41.415 Y-14.104 Z-4.969
X-41.402 Y-14.17 Z-4.992
X-41.389 Y-14.239 Z-5
G3 X-41.05 Y-14.948 I1.553 J0.307
G1 X-39.981 Y-16.138 F2540
X-39.816 Y-16.304
X-39.68 Y-16.421
X-39.502 Y-16.55
X-39.299 Y-16.674
X-39.04 Y-16.805
X-38.704 Y-16.942
X-38.271 Y-17.08
X-37.669 Y-17.218
X-36.939 Y-17.326
X-36.204 Y-17.389
X-35.467 Y-17.425
X-34.73 Y-17.447
X-33.992 Y-17.46
X-33.254 Y-17.467
X-32.516 Y-17.471
X-31.778 Y-17.474
X-30.303 Y-17.476
X-25.138 Y-17.478
X-19.973 Y-17.479
X-19.607 Y-17.524
X-19.26 Y-17.649
X-18.949 Y-17.846
X-18.409 Y-18.35
X-18.05 Y-18.994
X-17.824 Y-19.697
X-17.685 Y-20.421
X-17.601 Y-21.154
X-17.551 Y-21.891
X-17.522 Y-22.628
X-17.504 Y-23.365
X-17.494 Y-24.103
X-17.488 Y-24.841
X-17.484 Y-25.579
X-17.481 Y-27.054
X-17.479 Y-30.006
Y-46.238
Y-50.022
X-17.461 Y-50.184
X-17.408 Y-50.339
X-17.322 Y-50.478
X-17.131 Y-50.722
X-17.03 Y-50.857
X-16.082 Y-52.256
G3 X-15.508 Y-52.08 I0.256 J0.187 F1016
G1 X-15.505 Y-52.01 Z-4.992
X-15.503 Y-51.943 Z-4.969
X-15.501 Y-51.882 Z-4.931
X-15.499 Y-51.832 Z-4.88
X-15.497 Y-51.794 Z-4.82
X-15.496 Y-51.771 Z-4.753
Y-51.763 Z-4.682
G0 Z5
X-40.381 Y-15.118
Z-4.365
G1 Z-4.682 F1016
X-40.38 Y-15.126 Z-4.753
X-40.375 Y-15.149 Z-4.82
X-40.368 Y-15.186 Z-4.88
X-40.358 Y-15.236 Z-4.931
X-40.346 Y-15.295 Z-4.969
X-40.333 Y-15.361 Z-4.992
X-40.32 Y-15.43 Z-5
G3 X-39.981 Y-16.138 I1.553 J0.307
G1 X-39.924 Y-16.202 F2540
X-39.813 Y-16.334
X-39.478 Y-16.784
X-39.415 Y-16.872
X-39.18 Y-17.207
X-39.067 Y-17.353
X-38.957 Y-17.473
X-38.83 Y-17.59
X-38.674 Y-17.713
X-38.469 Y-17.85
X-38.224 Y-17.986
X-37.92 Y-18.124
X-37.524 Y-18.267
X-36.992 Y-18.412
X-36.267 Y-18.549
X-35.534 Y-18.629
X-34.798 Y-18.677
X-34.06 Y-18.706
X-33.323 Y-18.723
X-32.585 Y-18.733
X-31.847 Y-18.739
X-31.109 Y-18.742
X-29.634 Y-18.746
X-25.945 Y-18.748
X-21.518 Y-18.749
X-21.149 Y-18.753
X-20.786 Y-18.818
X-20.447 Y-18.964
X-20.145 Y-19.177
X-19.629 Y-19.704
X-19.288 Y-20.358
X-19.073 Y-21.064
X-18.942 Y-21.79
X-18.864 Y-22.523
X-18.817 Y-23.26
X-18.789 Y-23.997
X-18.772 Y-24.735
X-18.763 Y-25.472
X-18.757 Y-26.21
X-18.754 Y-26.948
X-18.751 Y-28.424
X-18.749 Y-32.113
Y-48.446
X-18.73 Y-48.613
X-18.674 Y-48.771
X-18.584 Y-48.913
X-17.526 Y-50.219
X-17.322 Y-50.478
G3 X-16.762 Y-50.264 I0.243 J0.204 F1016
G1 X-16.764 Y-50.194 Z-4.992
X-16.766 Y-50.127 Z-4.969
X-16.768 Y-50.066 Z-4.931
X-16.769 Y-50.016 Z-4.88
X-16.77 Y-49.978 Z-4.82
X-16.771 Y-49.955 Z-4.753
Y-49.947 Z-4.682
G0 Z5
X-39.456 Y-16.146
Z-4.365
G1 Z-4.682 F1016
X-39.455 Y-16.154 Z-4.753
X-39.453 Y-16.178 Z-4.82
X-39.45 Y-16.215 Z-4.88
X-39.447 Y-16.266 Z-4.931
X-39.442 Y-16.326 Z-4.969
X-39.437 Y-16.393 Z-4.992
X-39.432 Y-16.463 Z-5
G3 X-39.18 Y-17.207 I1.578 J0.119
G1 X-38.306 Y-18.454 F2540
X-38.199 Y-18.59
X-38.096 Y-18.703
X-37.965 Y-18.825
X-37.792 Y-18.961
X-37.582 Y-19.101
X-37.339 Y-19.236
X-37.011 Y-19.385
X-36.621 Y-19.526
X-36.08 Y-19.674
X-35.355 Y-19.81
X-34.622 Y-19.892
X-33.886 Y-19.942
X-33.148 Y-19.972
X-32.411 Y-19.99
X-31.673 Y-20.001
X-30.935 Y-20.008
X-30.197 Y-20.012
X-28.722 Y-20.016
X-25.771 Y-20.018
X-22.819 Y-20.019
X-22.45 Y-20.021
X-22.087 Y-20.084
X-21.745 Y-20.222
X-21.441 Y-20.431
X-20.918 Y-20.951
X-20.57 Y-21.602
X-20.352 Y-22.307
X-20.218 Y-23.032
X-20.137 Y-23.766
X-20.089 Y-24.502
X-20.06 Y-25.239
X-20.043 Y-25.977
X-20.033 Y-26.715
X-20.027 Y-27.452
X-20.024 Y-28.19
X-20.021 Y-29.666
X-20.019 Y-33.355
Y-46.879
X-20 Y-47.046
X-19.944 Y-47.204
X-19.853 Y-47.346
X-18.584 Y-48.913
G0 Z5
X-38.581 Y-17.393
Z-4.365
G1 Z-4.682 F1016
Y-17.401 Z-4.753
X-38.579 Y-17.424 Z-4.82
X-38.576 Y-17.462 Z-4.88
X-38.572 Y-17.512 Z-4.931
X-38.568 Y-17.572 Z-4.969
X-38.563 Y-17.639 Z-4.992
X-38.557 Y-17.71 Z-5
G3 X-38.306 Y-18.454 I1.578 J0.119
G1 X-38.24 Y-18.548 F2540
X-38.126 Y-18.715
X-37.971 Y-18.949
X-37.906 Y-19.05
X-37.637 Y-19.553
X-37.559 Y-19.682
X-37.467 Y-19.8
X-37.349 Y-19.93
X-37.217 Y-20.053
X-37.046 Y-20.188
X-36.819 Y-20.34
X-36.57 Y-20.479
X-36.24 Y-20.63
X-35.831 Y-20.779
X-35.276 Y-20.931
X-34.551 Y-21.069
X-33.818 Y-21.153
X-33.082 Y-21.205
X-32.345 Y-21.237
X-31.607 Y-21.257
X-30.87 Y-21.269
X-30.132 Y-21.276
X-29.394 Y-21.281
X-28.656 Y-21.284
X-27.181 Y-21.287
X-23.492 Y-21.289
X-23.141 Y-21.405
X-22.824 Y-21.592
X-22.269 Y-22.079
X-21.895 Y-22.715
X-21.657 Y-23.413
X-21.51 Y-24.136
X-21.421 Y-24.869
X-21.367 Y-25.605
X-21.335 Y-26.342
X-21.316 Y-27.079
X-21.305 Y-27.817
X-21.299 Y-28.555
X-21.295 Y-29.293
X-21.291 Y-30.768
X-21.289 Y-33.72
Y-45.534
X-21.264 Y-45.718
X-21.194 Y-45.891
X-21.082 Y-46.041
X-20.213 Y-46.945
X-19.971 Y-47.203
X-19.853 Y-47.346
G0 Z5
X-37.783 Y-18.467
Z-4.365
G1 Z-4.682 F1016
X-37.784 Y-18.475 Z-4.753
X-37.785 Y-18.499 Z-4.82
X-37.786 Y-18.536 Z-4.88
X-37.789 Y-18.587 Z-4.931
X-37.791 Y-18.647 Z-4.969
X-37.794 Y-18.714 Z-4.992
X-37.797 Y-18.784 Z-5
G3 X-37.637 Y-19.553 I1.581 J-0.07
G1 X-37.008 Y-20.726 F2540
X-36.931 Y-20.855
X-36.843 Y-20.976
X-36.733 Y-21.103
X-36.592 Y-21.243
X-36.434 Y-21.375
X-36.226 Y-21.522
X-35.962 Y-21.679
X-35.663 Y-21.826
X-35.26 Y-21.985
X-34.754 Y-22.139
X-34.046 Y-22.294
X-33.315 Y-22.393
X-32.58 Y-22.455
X-31.843 Y-22.494
X-31.105 Y-22.518
X-30.368 Y-22.533
X-29.63 Y-22.543
X-28.892 Y-22.549
X-28.154 Y-22.552
X-26.679 Y-22.556
X-25.203 Y-22.558
X-24.835 Y-22.579
X-24.478 Y-22.671
X-24.151 Y-22.841
X-23.578 Y-23.307
X-23.19 Y-23.934
X-22.942 Y-24.629
X-22.789 Y-25.351
X-22.696 Y-26.083
X-22.64 Y-26.818
X-22.607 Y-27.555
X-22.587 Y-28.293
X-22.576 Y-29.031
X-22.569 Y-29.768
X-22.565 Y-30.506
X-22.561 Y-31.982
X-22.559 Y-34.933
Y-44.206
X-22.535 Y-44.393
X-22.465 Y-44.568
X-22.352 Y-44.72
X-21.082 Y-46.041
G3 X-20.547 Y-45.771 I0.221 J0.228 F1016
G1 X-20.556 Y-45.701 Z-4.992
X-20.565 Y-45.634 Z-4.969
X-20.573 Y-45.575 Z-4.931
X-20.579 Y-45.525 Z-4.88
X-20.584 Y-45.487 Z-4.82
X-20.588 Y-45.464 Z-4.753
X-20.589 Y-45.456 Z-4.682
G0 Z5
X-37.155 Y-19.64
Z-4.365
G1 Z-4.682 F1016
Y-19.648 Z-4.753
X-37.156 Y-19.672 Z-4.82
X-37.158 Y-19.709 Z-4.88
X-37.16 Y-19.76 Z-4.931
X-37.163 Y-19.82 Z-4.969
X-37.166 Y-19.887 Z-4.992
X-37.169 Y-19.957 Z-5
G3 X-37.008 Y-20.726 I1.581 J-0.07
G1 X-36.56 Y-21.564 F2540
X-36.463 Y-21.772
X-36.436 Y-21.842
X-36.374 Y-21.979
X-36.295 Y-22.106
X-36.203 Y-22.228
X-36.079 Y-22.366
X-35.942 Y-22.498
X-35.763 Y-22.642
X-35.527 Y-22.805
X-35.272 Y-22.951
X-34.93 Y-23.113
X-34.516 Y-23.268
X-33.956 Y-23.429
X-33.233 Y-23.576
X-32.501 Y-23.668
X-31.766 Y-23.727
X-31.029 Y-23.764
X-30.291 Y-23.788
X-29.554 Y-23.803
X-28.816 Y-23.812
X-28.078 Y-23.818
X-27.34 Y-23.822
X-26.603 Y-23.824
X-26.234 Y-23.829
X-25.871 Y-23.894
X-25.532 Y-24.04
X-25.23 Y-24.252
X-24.712 Y-24.777
X-24.369 Y-25.431
X-24.155 Y-26.137
X-24.024 Y-26.863
X-23.945 Y-27.596
X-23.897 Y-28.333
X-23.869 Y-29.07
X-23.853 Y-29.808
X-23.843 Y-30.545
X-23.837 Y-31.283
X-23.834 Y-32.021
X-23.831 Y-33.497
X-23.829 Y-37.186
Y-42.962
X-23.8 Y-43.169
X-23.713 Y-43.36
X-23.577 Y-43.519
X-23.391 Y-43.684
X-23.205 Y-43.851
X-23.061 Y-43.983
X-22.352 Y-44.72
G3 X-21.817 Y-44.45 I0.221 J0.228 F1016
G1 X-21.826 Y-44.38 Z-4.992
X-21.835 Y-44.313 Z-4.969
X-21.843 Y-44.254 Z-4.931
X-21.85 Y-44.204 Z-4.88
X-21.855 Y-44.166 Z-4.82
X-21.858 Y-44.143 Z-4.753
X-21.859 Y-44.135 Z-4.682
G0 Z5
X-36.452 Y-20.746
Z-4.365
G1 Z-4.682 F1016
X-36.454 Y-20.754 Z-4.753
X-36.457 Y-20.777 Z-4.82
X-36.463 Y-20.815 Z-4.88
X-36.472 Y-20.864 Z-4.931
X-36.481 Y-20.924 Z-4.969
X-36.492 Y-20.99 Z-4.992
X-36.504 Y-21.059 Z-5
G3 X-36.436 Y-21.842 I1.561 J-0.258
G1 X-35.988 Y-22.99 F2540
X-35.926 Y-23.127
X-35.85 Y-23.256
X-35.755 Y-23.389
X-35.646 Y-23.518
X-35.502 Y-23.663
X-35.321 Y-23.818
X-35.115 Y-23.968
X-34.837 Y-24.138
X-34.52 Y-24.298
X-34.104 Y-24.468
X-33.595 Y-24.629
X-32.882 Y-24.794
X-32.152 Y-24.902
X-31.417 Y-24.972
X-30.681 Y-25.017
X-29.944 Y-25.046
X-29.206 Y-25.065
X-28.468 Y-25.077
X-27.731 Y-25.085
X-27.363 Y-25.114
X-27.007 Y-25.213
X-26.682 Y-25.387
X-26.112 Y-25.855
X-25.726 Y-26.483
X-25.479 Y-27.179
X-25.327 Y-27.901
X-25.235 Y-28.633
X-25.18 Y-29.369
X-25.147 Y-30.106
X-25.127 Y-30.843
X-25.116 Y-31.581
X-25.109 Y-32.319
X-25.105 Y-33.057
X-25.101 Y-34.532
X-25.099 Y-37.484
Y-41.848
X-25.07 Y-42.055
X-24.983 Y-42.246
X-24.847 Y-42.405
X-23.577 Y-43.519
G3 X-23.066 Y-43.204 I0.201 J0.246 F1016
G1 X-23.081 Y-43.135 Z-4.992
X-23.096 Y-43.07 Z-4.969
X-23.109 Y-43.011 Z-4.931
X-23.12 Y-42.962 Z-4.88
X-23.128 Y-42.925 Z-4.82
X-23.133 Y-42.902 Z-4.753
X-23.135 Y-42.894 Z-4.682
G0 Z5
X-36.003 Y-21.894
Z-4.365
G1 Z-4.682 F1016
X-36.005 Y-21.902 Z-4.753
X-36.008 Y-21.925 Z-4.82
X-36.015 Y-21.962 Z-4.88
X-36.023 Y-22.012 Z-4.931
X-36.033 Y-22.071 Z-4.969
X-36.044 Y-22.138 Z-4.992
X-36.055 Y-22.207 Z-5
G3 X-35.988 Y-22.99 I1.561 J-0.259
G1 X-35.527 Y-24.17 F2540
X-35.466 Y-24.307
X-35.393 Y-24.438
X-35.304 Y-24.569
X-35.2 Y-24.7
X-35.059 Y-24.85
X-34.893 Y-24.999
X-34.691 Y-25.155
X-34.418 Y-25.332
X-34.125 Y-25.49
X-33.724 Y-25.666
X-33.252 Y-25.83
X-32.597 Y-26
X-31.871 Y-26.127
X-31.138 Y-26.21
X-30.402 Y-26.265
X-29.665 Y-26.301
X-28.927 Y-26.325
X-28.561 Y-26.37
X-28.21 Y-26.484
X-27.893 Y-26.672
X-27.341 Y-27.162
X-26.969 Y-27.799
X-26.733 Y-28.498
X-26.587 Y-29.221
X-26.499 Y-29.954
X-26.446 Y-30.69
X-26.415 Y-31.427
X-26.396 Y-32.164
X-26.385 Y-32.902
X-26.378 Y-33.64
X-26.375 Y-34.378
X-26.371 Y-35.853
X-26.369 Y-38.804
Y-40.733
X-26.34 Y-40.941
X-26.253 Y-41.131
X-26.117 Y-41.29
X-24.847 Y-42.405
G3 X-24.336 Y-42.09 I0.201 J0.246 F1016
G1 X-24.351 Y-42.021 Z-4.992
X-24.366 Y-41.956 Z-4.969
X-24.379 Y-41.897 Z-4.931
X-24.39 Y-41.848 Z-4.88
X-24.398 Y-41.811 Z-4.82
X-24.403 Y-41.788 Z-4.753
X-24.405 Y-41.78 Z-4.682
G0 Z5
X-35.543 Y-23.074
Z-4.365
G1 Z-4.682 F1016
X-35.544 Y-23.082 Z-4.753
X-35.548 Y-23.105 Z-4.82
X-35.554 Y-23.142 Z-4.88
X-35.562 Y-23.192 Z-4.931
X-35.572 Y-23.251 Z-4.969
X-35.583 Y-23.318 Z-4.992
X-35.595 Y-23.387 Z-5
G3 X-35.527 Y-24.17 I1.561 J-0.259
G1 X-35.433 Y-24.413 F2540
X-35.375 Y-24.58
X-35.241 Y-25.083
X-35.198 Y-25.251
X-35.153 Y-25.394
X-35.089 Y-25.53
X-35.01 Y-25.663
X-34.914 Y-25.798
X-34.793 Y-25.943
X-34.635 Y-26.104
X-34.458 Y-26.257
X-34.221 Y-26.431
X-33.945 Y-26.602
X-33.6 Y-26.778
X-33.175 Y-26.954
X-32.62 Y-27.133
X-31.902 Y-27.302
X-31.173 Y-27.415
X-30.439 Y-27.491
X-29.703 Y-27.547
X-29.367 Y-27.699
X-28.766 Y-28.128
X-28.346 Y-28.734
X-28.073 Y-29.42
X-27.902 Y-30.138
X-27.797 Y-30.868
X-27.734 Y-31.603
X-27.695 Y-32.34
X-27.673 Y-33.077
X-27.659 Y-33.815
X-27.651 Y-34.553
X-27.646 Y-35.291
X-27.643 Y-36.028
X-27.641 Y-37.504
X-27.639 Y-39.717
X-27.637 Y-39.768
X-27.595 Y-39.984
X-27.492 Y-40.177
X-27.337 Y-40.332
X-26.655 Y-40.835
X-26.579 Y-40.895
X-26.411 Y-41.032
X-26.117 Y-41.29
G3 X-25.606 Y-40.976 I0.201 J0.246 F1016
G1 X-25.621 Y-40.907 Z-4.992
X-25.636 Y-40.841 Z-4.969
X-25.649 Y-40.783 Z-4.931
X-25.66 Y-40.734 Z-4.88
X-25.668 Y-40.697 Z-4.82
X-25.673 Y-40.674 Z-4.753
X-25.675 Y-40.666 Z-4.682
G0 Z5
X-35.082 Y-24.161
Z-4.365
G1 Z-4.682 F1016
X-35.084 Y-24.169 Z-4.753
X-35.091 Y-24.191 Z-4.82
X-35.102 Y-24.227 Z-4.88
X-35.116 Y-24.276 Z-4.931
X-35.133 Y-24.333 Z-4.969
X-35.151 Y-24.398 Z-4.992
X-35.171 Y-24.466 Z-5
G3 X-35.198 Y-25.251 I1.519 J-0.444
G1 X-34.895 Y-26.424 F2540
X-34.851 Y-26.567
X-34.787 Y-26.703
X-34.712 Y-26.833
X-34.614 Y-26.976
X-34.488 Y-27.13
X-34.34 Y-27.284
X-34.141 Y-27.46
X-33.921 Y-27.626
X-33.631 Y-27.81
X-33.282 Y-27.993
X-32.849 Y-28.179
X-32.317 Y-28.357
X-31.601 Y-28.535
X-30.873 Y-28.66
X-30.552 Y-28.84
X-29.981 Y-29.308
X-29.584 Y-29.93
X-29.326 Y-30.621
X-29.163 Y-31.341
X-29.062 Y-32.072
X-29.001 Y-32.807
X-28.964 Y-33.544
X-28.942 Y-34.281
X-28.929 Y-35.019
X-28.921 Y-35.757
X-28.916 Y-36.495
X-28.913 Y-37.232
X-28.911 Y-38.708
X-28.905 Y-38.836
X-28.862 Y-39.051
X-28.759 Y-39.244
X-28.604 Y-39.398
X-27.337 Y-40.332
G0 Z5
X-34.78 Y-25.334
Z-4.365
G1 Z-4.682 F1016
X-34.782 Y-25.342 Z-4.753
X-34.789 Y-25.364 Z-4.82
X-34.799 Y-25.4 Z-4.88
X-34.813 Y-25.449 Z-4.931
X-34.83 Y-25.506 Z-4.969
X-34.849 Y-25.571 Z-4.992
X-34.869 Y-25.639 Z-5
G3 X-34.895 Y-26.424 I1.519 J-0.444
G1 X-34.679 Y-27.262 F2540
X-34.645 Y-27.429
X-34.631 Y-27.499
X-34.595 Y-27.645
X-34.545 Y-27.786
X-34.48 Y-27.921
X-34.403 Y-28.052
X-34.299 Y-28.201
X-34.169 Y-28.359
X-34.014 Y-28.519
X-33.807 Y-28.701
X-33.581 Y-28.869
X-33.273 Y-29.063
X-32.918 Y-29.247
X-32.238 Y-29.534
X-31.599 Y-29.903
X-31.109 Y-30.455
X-30.77 Y-31.11
X-30.548 Y-31.814
X-30.406 Y-32.538
X-30.318 Y-33.27
X-30.263 Y-34.006
X-30.23 Y-34.743
X-30.21 Y-35.481
X-30.198 Y-36.218
X-30.19 Y-36.956
X-30.186 Y-37.694
X-30.177 Y-37.895
X-30.135 Y-38.112
X-30.031 Y-38.307
X-29.874 Y-38.463
X-29.259 Y-38.915
X-28.604 Y-39.398
G0 Z5
X-34.45 Y-26.418
Z-4.365
G1 Z-4.682 F1016
X-34.453 Y-26.426 Z-4.753
X-34.461 Y-26.448 Z-4.82
X-34.474 Y-26.484 Z-4.88
X-34.491 Y-26.531 Z-4.931
X-34.511 Y-26.588 Z-4.969
X-34.534 Y-26.651 Z-4.992
X-34.558 Y-26.717 Z-5
G3 X-34.631 Y-27.499 I1.49 J-0.535
G1 X-34.58 Y-27.764 F2540
X-34.553 Y-27.932
X-34.464 Y-28.602
X-34.437 Y-28.75
X-34.39 Y-28.892
X-34.329 Y-29.029
X-34.249 Y-29.176
X-34.151 Y-29.325
X-34.025 Y-29.487
X-33.849 Y-29.679
X-33.308 Y-30.181
X-32.764 Y-30.679
X-32.333 Y-31.278
X-32.024 Y-31.948
X-31.816 Y-32.656
X-31.68 Y-33.381
X-31.593 Y-34.114
X-31.538 Y-34.85
X-31.504 Y-35.587
X-31.483 Y-36.324
X-31.469 Y-36.951
X-31.429 Y-37.178
X-31.321 Y-37.38
X-31.156 Y-37.54
G3 X-30.681 Y-37.174 I0.174 J0.265 F1016
G1 X-30.703 Y-37.107 Z-4.992
X-30.725 Y-37.044 Z-4.969
X-30.744 Y-36.987 Z-4.931
X-30.76 Y-36.939 Z-4.88
X-30.772 Y-36.903 Z-4.82
X-30.779 Y-36.881 Z-4.753
X-30.782 Y-36.873 Z-4.682
G0 Z5
X-34.219 Y-27.534
Z-4.365
G1 Z-4.682 F1016
X-34.222 Y-27.541 Z-4.753
X-34.232 Y-27.563 Z-4.82
X-34.247 Y-27.598 Z-4.88
X-34.266 Y-27.644 Z-4.931
X-34.29 Y-27.699 Z-4.969
X-34.316 Y-27.761 Z-4.992
X-34.344 Y-27.826 Z-5
G3 X-34.464 Y-28.602 I1.455 J-0.622
G1 X-34.308 Y-29.775 F2540
X-34.275 Y-29.952
X-34.23 Y-30.123
X-34.106 Y-30.469
X-33.803 Y-31.142
X-33.503 Y-31.816
X-33.262 Y-32.513
X-33.083 Y-33.229
X-32.958 Y-33.956
X-32.874 Y-34.689
X-32.818 Y-35.425
X-32.79 Y-35.971
X-32.758 Y-36.153
X-32.682 Y-36.321
X-32.566 Y-36.466
G3 X-32.036 Y-36.23 I0.213 J0.236 F1016
G1 X-32.04 Y-36.177
X-32.045 Y-36.152 F2540
X-33.684 Y-29.666
X-33.702 Y-29.615
X-33.729 Y-29.567
X-33.763 Y-29.524
G3 X-34.308 Y-29.775 I-0.229 J-0.22 F1016
G1 X-34.242 Y-30.278 F2540
X-34.2 Y-30.613
X-34.081 Y-32.289
X-34.049 Y-32.791
X-34.014 Y-33.294
X-33.996 Y-33.462
X-33.923 Y-33.965
X-33.876 Y-34.132
X-33.777 Y-34.467
X-33.721 Y-34.635
X-33.518 Y-35.138
X-33.447 Y-35.268
X-33.229 Y-35.64
X-33.119 Y-35.808
X-32.714 Y-36.311
X-32.61 Y-36.423
X-32.553 Y-36.478
X-32.107 Y-36.858
X-31.955 Y-36.981
X-31.437 Y-37.344
X-31.237 Y-37.484
X-30.935 Y-37.698
X-30.264 Y-38.178
X-29.874 Y-38.463
G3 X-29.393 Y-38.104 I0.178 J0.263 F1016
G1 X-29.415 Y-38.037 Z-4.992
X-29.435 Y-37.973 Z-4.969
X-29.453 Y-37.915 Z-4.931
X-29.468 Y-37.868 Z-4.88
X-29.48 Y-37.831 Z-4.82
X-29.487 Y-37.809 Z-4.753
X-29.489 Y-37.801 Z-4.682
G0 Z5
X-107.827 Y-57.985
Z-4.365
G1 Z-4.682 F1016
X-107.82 Y-57.981 Z-4.753
X-107.8 Y-57.969 Z-4.82
X-107.767 Y-57.95 Z-4.88
X-107.723 Y-57.925 Z-4.931
X-107.671 Y-57.895 Z-4.969
X-107.613 Y-57.861 Z-4.992
X-107.552 Y-57.826 Z-5
G3 X-106.99 Y-57.277 I-0.791 J1.371
G1 X-105.759 Y-55.079 F2540
X-105.62 Y-54.8
X-105.503 Y-54.507
X-105.382 Y-54.115
X-105.257 Y-53.555
X-105.154 Y-52.825
X-105.099 Y-52.089
X-105.069 Y-51.352
X-105.053 Y-50.614
X-105.044 Y-49.876
X-105.039 Y-49.138
X-105.036 Y-48.401
X-105.034 Y-46.925
X-105.031 Y-39.547
X-105.024 Y-17.412
X-104.969 Y-17.048
X-104.84 Y-16.702
X-104.639 Y-16.392
X-104.132 Y-15.857
X-103.487 Y-15.499
X-102.784 Y-15.273
X-102.06 Y-15.135
X-101.326 Y-15.051
X-100.59 Y-15.001
X-99.853 Y-14.971
X-99.116 Y-14.954
X-98.378 Y-14.943
X-97.64 Y-14.937
X-96.902 Y-14.934
X-95.427 Y-14.93
X-93.213 Y-14.929
X-79.265 Y-14.931
X-79.061 Y-14.902
X-78.872 Y-14.818
X-78.714 Y-14.685
X-78.511 Y-14.459
X-78.176 Y-14.094
X-78.1 Y-14.023
X-77.841 Y-13.794
X-77.48 Y-13.477
G3 X-77.725 Y-12.93 I-0.217 J0.231 F1016
G1 X-77.795 Y-12.936 Z-4.992
X-77.862 Y-12.942 Z-4.969
X-77.922 Y-12.947 Z-4.931
X-77.972 Y-12.951 Z-4.88
X-78.01 Y-12.954 Z-4.82
X-78.033 Y-12.956 Z-4.753
X-78.041 Y-12.957 Z-4.682
G0 Z5
X-106.595 Y-55.787
Z-4.365
G1 Z-4.682 F1016
X-106.588 Y-55.783 Z-4.753
X-106.568 Y-55.771 Z-4.82
X-106.535 Y-55.752 Z-4.88
X-106.492 Y-55.727 Z-4.931
X-106.44 Y-55.697 Z-4.969
X-106.382 Y-55.664 Z-4.992
X-106.32 Y-55.628 Z-5
G3 X-105.759 Y-55.079 I-0.791 J1.371
G1 X-105.571 Y-54.744 F2540
X-105.471 Y-54.576
X-105.264 Y-54.241
X-104.645 Y-53.328
X-104.481 Y-53.058
X-104.365 Y-52.827
X-104.247 Y-52.534
X-104.123 Y-52.14
X-103.997 Y-51.588
X-103.891 Y-50.858
X-103.833 Y-50.122
X-103.802 Y-49.385
X-103.784 Y-48.648
X-103.775 Y-47.91
X-103.769 Y-47.172
X-103.766 Y-46.434
X-103.763 Y-44.959
X-103.761 Y-39.056
X-103.754 Y-18.397
X-103.638 Y-18.047
X-103.449 Y-17.73
X-102.961 Y-17.177
X-102.325 Y-16.804
X-101.626 Y-16.566
X-100.903 Y-16.419
X-100.171 Y-16.33
X-99.435 Y-16.276
X-98.698 Y-16.245
X-97.96 Y-16.226
X-97.222 Y-16.215
X-96.485 Y-16.208
X-95.747 Y-16.204
X-94.271 Y-16.201
X-91.32 Y-16.199
X-89.106 Y-16.2
X-80.406 Y-16.201
X-80.201 Y-16.172
X-80.012 Y-16.088
X-79.854 Y-15.955
X-78.714 Y-14.685
G3 X-79.023 Y-14.17 I-0.243 J0.204 F1016
G1 X-79.092 Y-14.185 Z-4.992
X-79.157 Y-14.199 Z-4.969
X-79.216 Y-14.211 Z-4.931
X-79.265 Y-14.221 Z-4.88
X-79.303 Y-14.229 Z-4.82
X-79.325 Y-14.234 Z-4.753
X-79.333 Y-14.235 Z-4.682
G0 Z5
X-105.539 Y-53.962
Z-4.365
G1 Z-4.682 F1016
X-105.531 Y-53.959 Z-4.753
X-105.51 Y-53.949 Z-4.82
X-105.476 Y-53.933 Z-4.88
X-105.43 Y-53.912 Z-4.931
X-105.376 Y-53.886 Z-4.969
X-105.315 Y-53.857 Z-4.992
X-105.251 Y-53.827 Z-5
G3 X-104.645 Y-53.328 I-0.672 J1.433
G1 X-103.333 Y-51.392 F2540
X-103.219 Y-51.205
X-103.103 Y-50.973
X-102.981 Y-50.673
X-102.856 Y-50.276
X-102.729 Y-49.717
X-102.623 Y-48.987
X-102.565 Y-48.251
X-102.533 Y-47.514
X-102.515 Y-46.776
X-102.505 Y-46.039
X-102.499 Y-45.301
X-102.496 Y-44.563
X-102.493 Y-43.087
X-102.49 Y-37.923
X-102.485 Y-20.215
X-102.482 Y-19.846
X-102.411 Y-19.484
X-102.26 Y-19.147
X-102.043 Y-18.849
X-101.512 Y-18.337
X-100.856 Y-18
X-100.149 Y-17.788
X-99.423 Y-17.659
X-98.689 Y-17.582
X-97.953 Y-17.536
X-97.215 Y-17.508
X-96.478 Y-17.492
X-95.74 Y-17.482
X-95.002 Y-17.477
X-94.264 Y-17.474
X-92.789 Y-17.471
X-89.1 Y-17.47
X-84.673
X-81.721
X-81.378 Y-17.466
X-81.149 Y-17.427
X-80.943 Y-17.318
X-80.781 Y-17.151
X-80.585 Y-16.872
X-80.522 Y-16.784
X-80.187 Y-16.334
X-80.076 Y-16.202
X-79.854 Y-15.955
G3 X-80.163 Y-15.44 I-0.244 J0.204 F1016
G1 X-80.232 Y-15.455 Z-4.992
X-80.298 Y-15.468 Z-4.969
X-80.356 Y-15.481 Z-4.931
X-80.406 Y-15.491 Z-4.88
X-80.443 Y-15.499 Z-4.82
X-80.466 Y-15.504 Z-4.753
X-80.473 Y-15.505 Z-4.682
G0 Z5
X-104.226 Y-52.027
Z-4.365
G1 Z-4.682 F1016
X-104.219 Y-52.023 Z-4.753
X-104.198 Y-52.013 Z-4.82
X-104.164 Y-51.997 Z-4.88
X-104.118 Y-51.976 Z-4.931
X-104.064 Y-51.95 Z-4.969
X-104.003 Y-51.922 Z-4.992
X-103.939 Y-51.892 Z-5
G3 X-103.333 Y-51.392 I-0.672 J1.433
G1 X-102.97 Y-50.857 F2540
X-102.869 Y-50.722
X-102.607 Y-50.387
X-102.467 Y-50.211
X-102.203 Y-49.884
X-102.08 Y-49.717
X-101.965 Y-49.528
X-101.849 Y-49.299
X-101.724 Y-48.996
X-101.598 Y-48.603
X-101.468 Y-48.046
X-101.359 Y-47.316
X-101.299 Y-46.581
X-101.265 Y-45.844
X-101.246 Y-45.106
X-101.235 Y-44.369
X-101.229 Y-43.631
X-101.226 Y-42.893
X-101.223 Y-41.417
X-101.22 Y-36.99
X-101.215 Y-21.496
X-101.21 Y-21.127
X-101.139 Y-20.765
X-100.992 Y-20.428
X-100.776 Y-20.128
X-100.246 Y-19.615
X-99.591 Y-19.275
X-98.885 Y-19.062
X-98.158 Y-18.932
X-97.425 Y-18.853
X-96.689 Y-18.807
X-95.951 Y-18.779
X-95.214 Y-18.762
X-94.476 Y-18.753
X-93.738 Y-18.747
X-93 Y-18.744
X-91.525 Y-18.741
X-87.836 Y-18.74
X-82.671
X-82.263 Y-18.733
X-82.035 Y-18.693
X-81.831 Y-18.585
X-81.669 Y-18.418
X-80.781 Y-17.151
G3 X-81.148 Y-16.677 I-0.266 J0.173 F1016
G1 X-81.215 Y-16.7 Z-4.992
X-81.279 Y-16.721 Z-4.969
X-81.336 Y-16.741 Z-4.931
X-81.384 Y-16.757 Z-4.88
X-81.419 Y-16.769 Z-4.82
X-81.442 Y-16.776 Z-4.753
X-81.449 Y-16.779 Z-4.682
G0 Z5
X-103.147 Y-50.44
Z-4.365
G1 Z-4.682 F1016
X-103.139 Y-50.438 Z-4.753
X-103.117 Y-50.43 Z-4.82
X-103.082 Y-50.416 Z-4.88
X-103.035 Y-50.399 Z-4.931
X-102.978 Y-50.378 Z-4.969
X-102.915 Y-50.355 Z-4.992
X-102.849 Y-50.33 Z-5
G3 X-102.203 Y-49.884 I-0.548 J1.485
G1 X-100.981 Y-48.376 F2540
X-100.825 Y-48.161
X-100.705 Y-47.967
X-100.587 Y-47.733
X-100.461 Y-47.427
X-100.333 Y-47.026
X-100.201 Y-46.46
X-100.092 Y-45.731
X-100.031 Y-44.995
X-99.996 Y-44.258
X-99.977 Y-43.521
X-99.966 Y-42.783
X-99.959 Y-42.045
X-99.956 Y-41.307
X-99.952 Y-39.832
X-99.95 Y-36.143
X-99.946 Y-22.862
X-99.945 Y-22.493
X-99.89 Y-22.128
X-99.761 Y-21.783
X-99.56 Y-21.473
X-99.053 Y-20.938
X-98.407 Y-20.58
X-97.705 Y-20.354
X-96.98 Y-20.216
X-96.247 Y-20.132
X-95.511 Y-20.082
X-94.774 Y-20.052
X-94.036 Y-20.034
X-93.298 Y-20.024
X-92.561 Y-20.018
X-91.823 Y-20.014
X-90.347 Y-20.011
X-87.396 Y-20.01
X-83.707
X-83.073 Y-20.006
X-82.982 Y-19.998
X-82.803 Y-19.959
X-82.639 Y-19.878
X-82.5 Y-19.759
X-82.394 Y-19.61
X-82.094 Y-19.05
X-82.029 Y-18.949
X-81.862 Y-18.697
X-81.76 Y-18.548
X-81.669 Y-18.418
G3 X-82.037 Y-17.944 I-0.266 J0.173 F1016
G1 X-82.104 Y-17.967 Z-4.992
X-82.168 Y-17.988 Z-4.969
X-82.225 Y-18.008 Z-4.931
X-82.272 Y-18.024 Z-4.88
X-82.308 Y-18.036 Z-4.82
X-82.331 Y-18.043 Z-4.753
X-82.338 Y-18.046 Z-4.682
G0 Z5
X-101.925 Y-48.932
Z-4.365
G1 Z-4.682 F1016
X-101.918 Y-48.93 Z-4.753
X-101.896 Y-48.921 Z-4.82
X-101.86 Y-48.908 Z-4.88
X-101.813 Y-48.891 Z-4.931
X-101.757 Y-48.87 Z-4.969
X-101.694 Y-48.847 Z-4.992
X-101.627 Y-48.822 Z-5
G3 X-100.981 Y-48.376 I-0.548 J1.485
G1 X-100.122 Y-47.316 F2540
X-100.029 Y-47.203
X-99.787 Y-46.945
X-99.679 Y-46.821
X-99.57 Y-46.674
X-99.451 Y-46.482
X-99.329 Y-46.243
X-99.203 Y-45.941
X-99.073 Y-45.54
X-98.94 Y-44.981
X-98.827 Y-44.251
X-98.764 Y-43.516
X-98.728 Y-42.779
X-98.708 Y-42.042
X-98.696 Y-41.304
X-98.69 Y-40.566
X-98.686 Y-39.829
X-98.682 Y-38.353
X-98.679 Y-34.664
X-98.676 Y-23.597
X-98.586 Y-23.239
X-98.421 Y-22.909
X-97.968 Y-22.327
X-97.346 Y-21.93
X-96.654 Y-21.675
X-95.933 Y-21.517
X-95.201 Y-21.421
X-94.466 Y-21.364
X-93.729 Y-21.329
X-92.991 Y-21.309
X-92.253 Y-21.297
X-91.516 Y-21.29
X-90.778 Y-21.285
X-90.04 Y-21.283
X-88.564 Y-21.281
X-84.875 Y-21.28
X-84.138 Y-21.279
X-83.694 Y-21.261
X-83.632 Y-21.253
X-83.46 Y-21.211
X-83.303 Y-21.129
X-83.17 Y-21.013
X-83.068 Y-20.868
X-82.394 Y-19.61
G3 X-82.816 Y-19.183 I-0.285 J0.14 F1016
G1 X-82.879 Y-19.214 Z-4.992
X-82.94 Y-19.243 Z-4.969
X-82.994 Y-19.269 Z-4.931
X-83.04 Y-19.29 Z-4.88
X-83.074 Y-19.307 Z-4.82
X-83.095 Y-19.317 Z-4.753
X-83.102 Y-19.32 Z-4.682
G0 Z5
X-100.775 Y-47.419
Z-4.365
G1 Z-4.682 F1016
X-100.767 Y-47.417 Z-4.753
X-100.745 Y-47.411 Z-4.82
X-100.708 Y-47.401 Z-4.88
X-100.66 Y-47.388 Z-4.931
X-100.602 Y-47.372 Z-4.969
X-100.537 Y-47.354 Z-4.992
X-100.469 Y-47.335 Z-5
G3 X-99.787 Y-46.945 I-0.42 J1.526
G1 X-98.614 Y-45.725 F2540
X-98.431 Y-45.514
X-98.32 Y-45.363
X-98.2 Y-45.17
X-98.07 Y-44.917
X-97.943 Y-44.613
X-97.809 Y-44.198
X-97.674 Y-43.632
X-97.561 Y-42.903
X-97.497 Y-42.168
X-97.46 Y-41.431
X-97.439 Y-40.694
X-97.427 Y-39.956
X-97.42 Y-39.218
X-97.416 Y-38.48
X-97.412 Y-37.005
X-97.409 Y-34.053
X-97.406 Y-25.2
X-97.385 Y-24.831
X-97.295 Y-24.473
X-97.126 Y-24.146
X-96.662 Y-23.572
X-96.036 Y-23.182
X-95.341 Y-22.933
X-94.62 Y-22.779
X-93.888 Y-22.686
X-93.152 Y-22.631
X-92.415 Y-22.597
X-91.677 Y-22.578
X-90.94 Y-22.566
X-90.202 Y-22.559
X-89.464 Y-22.555
X-87.989 Y-22.552
X-85.037 Y-22.55
X-84.475 Y-22.538
X-84.26 Y-22.515
X-84.063 Y-22.468
X-83.886 Y-22.368
X-83.744 Y-22.225
X-83.645 Y-22.048
X-83.537 Y-21.772
X-83.44 Y-21.564
X-83.068 Y-20.868
G3 X-83.49 Y-20.441 I-0.285 J0.14 F1016
G1 X-83.553 Y-20.472 Z-4.992
X-83.614 Y-20.501 Z-4.969
X-83.668 Y-20.527 Z-4.931
X-83.714 Y-20.548 Z-4.88
X-83.748 Y-20.565 Z-4.82
X-83.769 Y-20.575 Z-4.753
X-83.776 Y-20.578 Z-4.682
G0 Z5
X-99.602 Y-46.199
Z-4.365
G1 Z-4.682 F1016
X-99.594 Y-46.197 Z-4.753
X-99.572 Y-46.191 Z-4.82
X-99.535 Y-46.181 Z-4.88
X-99.487 Y-46.168 Z-4.931
X-99.429 Y-46.152 Z-4.969
X-99.364 Y-46.134 Z-4.992
X-99.296 Y-46.115 Z-5
G3 X-98.614 Y-45.725 I-0.42 J1.526
G1 X-97.296 Y-44.354 F2540
X-97.171 Y-44.21
X-97.057 Y-44.055
X-96.936 Y-43.861
X-96.805 Y-43.605
X-96.677 Y-43.299
X-96.541 Y-42.88
X-96.406 Y-42.31
X-96.293 Y-41.581
X-96.229 Y-40.846
X-96.192 Y-40.109
X-96.17 Y-39.372
X-96.157 Y-38.634
X-96.15 Y-37.896
X-96.146 Y-37.159
X-96.143 Y-36.421
X-96.14 Y-34.945
X-96.138 Y-29.043
X-96.137 Y-26.091
X-96.041 Y-25.735
X-95.868 Y-25.409
X-95.401 Y-24.838
X-94.774 Y-24.45
X-94.079 Y-24.202
X-93.357 Y-24.049
X-92.625 Y-23.956
X-91.889 Y-23.901
X-91.152 Y-23.867
X-90.415 Y-23.848
X-89.677 Y-23.836
X-88.939 Y-23.829
X-88.201 Y-23.825
X-86.726 Y-23.822
X-85.988 Y-23.821
X-85.25 Y-23.814
X-84.867 Y-23.784
X-84.704 Y-23.757
X-84.52 Y-23.702
X-84.356 Y-23.602
X-84.224 Y-23.463
X-84.132 Y-23.295
X-83.645 Y-22.048
G3 X-84.115 Y-21.675 I-0.3 J0.105 F1016
G1 X-84.174 Y-21.713 Z-4.992
X-84.231 Y-21.749 Z-4.969
X-84.282 Y-21.781 Z-4.931
X-84.324 Y-21.808 Z-4.88
X-84.356 Y-21.828 Z-4.82
X-84.376 Y-21.841 Z-4.753
X-84.383 Y-21.845 Z-4.682
G0 Z5
X-98.284 Y-44.828
Z-4.365
G1 Z-4.682 F1016
X-98.276 Y-44.826 Z-4.753
X-98.254 Y-44.82 Z-4.82
X-98.217 Y-44.81 Z-4.88
X-98.169 Y-44.797 Z-4.931
X-98.111 Y-44.781 Z-4.969
X-98.046 Y-44.763 Z-4.992
X-97.978 Y-44.744 Z-5
G3 X-97.296 Y-44.354 I-0.42 J1.526
G1 X-96.939 Y-43.983 F2540
X-96.772 Y-43.83
X-96.604 Y-43.679
X-96.42 Y-43.516
X-96.159 Y-43.287
X-96.051 Y-43.182
X-95.934 Y-43.049
X-95.808 Y-42.879
X-95.687 Y-42.688
X-95.556 Y-42.435
X-95.423 Y-42.118
X-95.285 Y-41.702
X-95.148 Y-41.136
X-95.032 Y-40.407
X-94.965 Y-39.673
X-94.925 Y-38.936
X-94.902 Y-38.198
X-94.889 Y-37.461
X-94.881 Y-36.723
X-94.876 Y-35.985
X-94.873 Y-35.247
X-94.87 Y-33.772
X-94.867 Y-28.607
Y-27.5
X-94.805 Y-27.137
X-94.662 Y-26.797
X-94.451 Y-26.494
X-93.928 Y-25.974
X-93.274 Y-25.631
X-92.569 Y-25.416
X-91.843 Y-25.284
X-91.109 Y-25.205
X-90.373 Y-25.158
X-89.636 Y-25.13
X-88.898 Y-25.113
X-88.16 Y-25.104
X-87.422 Y-25.098
X-86.685 Y-25.094
X-85.947 Y-25.087
X-85.462 Y-25.058
X-85.16 Y-25.015
X-85.146 Y-25.012
X-84.968 Y-24.948
X-84.813 Y-24.84
X-84.69 Y-24.698
X-84.607 Y-24.529
X-84.567 Y-24.413
X-84.132 Y-23.295
G3 X-84.601 Y-22.922 I-0.3 J0.105 F1016
G1 X-84.661 Y-22.96 Z-4.992
X-84.718 Y-22.996 Z-4.969
X-84.769 Y-23.028 Z-4.931
X-84.811 Y-23.055 Z-4.88
X-84.843 Y-23.075 Z-4.82
X-84.863 Y-23.088 Z-4.753
X-84.869 Y-23.092 Z-4.682
G0 Z5
X-97.183 Y-43.676
Z-4.365
G1 Z-4.682 F1016
X-97.176 Y-43.674 Z-4.753
X-97.153 Y-43.67 Z-4.82
X-97.115 Y-43.663 Z-4.88
X-97.066 Y-43.654 Z-4.931
X-97.007 Y-43.643 Z-4.969
X-96.941 Y-43.631 Z-4.992
X-96.871 Y-43.618 Z-5
G3 X-96.159 Y-43.287 I-0.289 J1.556
G1 X-94.929 Y-42.208 F2540
X-94.804 Y-42.086
X-94.685 Y-41.952
X-94.554 Y-41.776
X-94.431 Y-41.579
X-94.298 Y-41.324
X-94.161 Y-40.997
X-94.022 Y-40.576
X-93.882 Y-40
X-93.766 Y-39.271
X-93.698 Y-38.536
X-93.658 Y-37.8
X-93.634 Y-37.062
X-93.62 Y-36.324
X-93.611 Y-35.587
X-93.606 Y-34.849
X-93.603 Y-34.111
X-93.6 Y-32.635
X-93.598 Y-28.946
X-93.563 Y-28.579
X-93.457 Y-28.226
X-93.276 Y-27.905
X-92.796 Y-27.344
X-92.161 Y-26.967
X-91.464 Y-26.728
X-90.741 Y-26.58
X-90.008 Y-26.491
X-89.272 Y-26.438
X-88.535 Y-26.406
X-87.798 Y-26.387
X-87.06 Y-26.374
X-86.322 Y-26.355
X-85.885 Y-26.32
X-85.593 Y-26.273
X-85.461 Y-26.241
X-85.276 Y-26.168
X-85.117 Y-26.048
X-84.995 Y-25.891
X-84.92 Y-25.706
X-84.759 Y-25.083
X-84.625 Y-24.58
X-84.607 Y-24.529
G3 X-85.092 Y-24.176 I-0.304 J0.092 F1016
G1 X-85.15 Y-24.216 Z-4.992
X-85.205 Y-24.255 Z-4.969
X-85.255 Y-24.289 Z-4.931
X-85.296 Y-24.318 Z-4.88
X-85.327 Y-24.34 Z-4.82
X-85.346 Y-24.353 Z-4.753
X-85.353 Y-24.358 Z-4.682
G0 Z5
X-95.953 Y-42.596
Z-4.365
G1 Z-4.682 F1016
X-95.945 Y-42.595 Z-4.753
X-95.922 Y-42.591 Z-4.82
X-95.885 Y-42.584 Z-4.88
X-95.836 Y-42.575 Z-4.931
X-95.777 Y-42.564 Z-4.969
X-95.711 Y-42.551 Z-4.992
X-95.641 Y-42.538 Z-5
G3 X-94.929 Y-42.208 I-0.289 J1.556
G1 X-93.659 Y-41.094 F2540
X-93.543 Y-40.982
X-93.425 Y-40.848
X-93.294 Y-40.671
X-93.168 Y-40.471
X-93.036 Y-40.216
X-92.896 Y-39.886
X-92.757 Y-39.464
X-92.616 Y-38.884
X-92.499 Y-38.155
X-92.43 Y-37.421
X-92.389 Y-36.684
X-92.365 Y-35.947
X-92.35 Y-35.209
X-92.342 Y-34.471
X-92.336 Y-33.734
X-92.333 Y-32.996
X-92.33 Y-31.52
X-92.328 Y-30.045
X-92.265 Y-29.681
X-92.121 Y-29.341
X-91.91 Y-29.039
X-91.386 Y-28.519
X-90.734 Y-28.174
X-90.029 Y-27.958
X-89.303 Y-27.825
X-88.569 Y-27.746
X-87.833 Y-27.697
X-87.096 Y-27.663
X-86.403 Y-27.614
X-86.008 Y-27.554
X-85.735 Y-27.489
X-85.567 Y-27.41
X-85.423 Y-27.292
X-85.314 Y-27.142
X-85.245 Y-26.969
X-84.92 Y-25.706
G3 X-85.431 Y-25.392 I-0.31 J0.068 F1016
G1 X-85.486 Y-25.437 Z-4.992
X-85.538 Y-25.479 Z-4.969
X-85.584 Y-25.517 Z-4.931
X-85.623 Y-25.549 Z-4.88
X-85.652 Y-25.573 Z-4.82
X-85.671 Y-25.588 Z-4.753
X-85.677 Y-25.593 Z-4.682
G0 Z5
X-94.684 Y-41.482
Z-4.365
G1 Z-4.682 F1016
X-94.676 Y-41.481 Z-4.753
X-94.653 Y-41.476 Z-4.82
X-94.616 Y-41.47 Z-4.88
X-94.567 Y-41.46 Z-4.931
X-94.508 Y-41.45 Z-4.969
X-94.442 Y-41.437 Z-4.992
X-94.372 Y-41.424 Z-5
G3 X-93.659 Y-41.094 I-0.288 J1.556
G1 X-93.589 Y-41.032 F2540
X-93.421 Y-40.895
X-93.345 Y-40.835
X-92.583 Y-40.273
X-92.423 Y-40.142
X-92.308 Y-40.032
X-92.19 Y-39.899
X-92.059 Y-39.725
X-91.921 Y-39.506
X-91.788 Y-39.253
X-91.642 Y-38.912
X-91.503 Y-38.495
X-91.357 Y-37.909
X-91.238 Y-37.181
X-91.167 Y-36.447
X-91.124 Y-35.71
X-91.098 Y-34.973
X-91.082 Y-34.235
X-91.073 Y-33.497
X-91.067 Y-32.76
X-91.063 Y-32.022
X-91.061 Y-31.284
X-90.989 Y-30.922
X-90.839 Y-30.585
X-90.623 Y-30.286
X-90.092 Y-29.774
X-89.436 Y-29.435
X-88.73 Y-29.222
X-88.004 Y-29.089
X-87.272 Y-28.995
X-86.57 Y-28.903
X-86.199 Y-28.824
X-85.998 Y-28.764
X-85.806 Y-28.675
X-85.647 Y-28.535
X-85.534 Y-28.356
X-85.476 Y-28.152
X-85.447 Y-27.932
X-85.42 Y-27.764
X-85.355 Y-27.429
X-85.321 Y-27.262
X-85.245 Y-26.969
G3 X-85.756 Y-26.655 I-0.31 J0.068 F1016
G1 X-85.811 Y-26.699 Z-4.992
X-85.863 Y-26.742 Z-4.969
X-85.909 Y-26.78 Z-4.931
X-85.948 Y-26.812 Z-4.88
X-85.978 Y-26.836 Z-4.82
X-85.996 Y-26.851 Z-4.753
X-86.002 Y-26.856 Z-4.682
G0 Z5
X-93.637 Y-40.574
Z-4.365
G1 Z-4.682 F1016
X-93.629 Y-40.573 Z-4.753
X-93.606 Y-40.571 Z-4.82
X-93.568 Y-40.567 Z-4.88
X-93.518 Y-40.562 Z-4.931
X-93.458 Y-40.556 Z-4.969
X-93.392 Y-40.549 Z-4.992
X-93.321 Y-40.542 Z-5
G3 X-92.583 Y-40.273 I-0.156 J1.575
G1 X-91.299 Y-39.327 F2540
X-91.18 Y-39.23
X-91.059 Y-39.113
X-90.94 Y-38.979
X-90.808 Y-38.803
X-90.664 Y-38.576
X-90.53 Y-38.32
X-90.382 Y-37.973
X-90.239 Y-37.549
X-90.092 Y-36.953
X-89.972 Y-36.225
X-89.9 Y-35.491
X-89.857 Y-34.754
X-89.83 Y-34.017
X-89.814 Y-33.279
X-89.804 Y-32.541
X-89.726 Y-32.181
X-89.573 Y-31.845
X-89.136 Y-31.251
X-88.524 Y-30.839
X-87.839 Y-30.565
X-87.127 Y-30.37
X-86.494 Y-30.205
X-86.187 Y-30.098
X-86.087 Y-30.054
X-85.925 Y-29.956
X-85.794 Y-29.821
X-85.7 Y-29.656
X-85.652 Y-29.474
X-85.476 Y-28.152
G0 Z5
X-92.353 Y-39.627
Z-4.365
G1 Z-4.682 F1016
X-92.345 Y-39.626 Z-4.753
X-92.322 Y-39.624 Z-4.82
X-92.284 Y-39.62 Z-4.88
X-92.234 Y-39.615 Z-4.931
X-92.174 Y-39.609 Z-4.969
X-92.107 Y-39.603 Z-4.992
X-92.037 Y-39.596 Z-5
G3 X-91.299 Y-39.327 I-0.156 J1.575
G1 X-90.162 Y-38.489 F2540
X-90.071 Y-38.423
X-89.928 Y-38.307
X-89.804 Y-38.189
X-89.685 Y-38.056
X-89.554 Y-37.883
X-89.408 Y-37.655
X-89.274 Y-37.401
X-89.126 Y-37.06
X-88.982 Y-36.635
X-88.833 Y-36.045
X-88.71 Y-35.318
X-88.636 Y-34.584
X-88.59 Y-33.847
X-88.518 Y-33.485
X-88.372 Y-33.147
X-87.954 Y-32.538
X-87.366 Y-32.093
X-86.711 Y-31.753
X-86.224 Y-31.515
X-86.183 Y-31.491
X-86.042 Y-31.383
X-85.93 Y-31.243
X-85.855 Y-31.081
X-85.821 Y-30.906
G0 Z5
X-91.126 Y-38.718
Z-4.365
G1 Z-4.682 F1016
X-91.118 Y-38.717 Z-4.753
X-91.094 Y-38.715 Z-4.82
X-91.057 Y-38.712 Z-4.88
X-91.007 Y-38.707 Z-4.931
X-90.947 Y-38.701 Z-4.969
X-90.88 Y-38.695 Z-4.992
X-90.81 Y-38.688 Z-5
G3 X-90.071 Y-38.423 I-0.149 J1.576
G1 X-89.703 Y-38.154 F2540
X-88.824 Y-37.526
X-88.694 Y-37.424
X-88.568 Y-37.308
X-88.449 Y-37.179
X-88.319 Y-37.012
X-88.173 Y-36.792
X-88.036 Y-36.543
X-87.89 Y-36.218
X-87.743 Y-35.807
X-87.552 Y-35.094
X-87.348 Y-34.385
X-86.932 Y-33.776
X-86.387 Y-33.279
X-86.216 Y-33.143
X-86.075 Y-32.994
X-85.981 Y-32.812
X-85.939 Y-32.611
G3 X-86.5 Y-32.398 I-0.317 J0.009 F1016
G1 X-86.53 Y-32.441 F2540
X-89.272 Y-37.1
X-89.299 Y-37.16
G3 X-88.824 Y-37.526 I0.301 J-0.101 F1016
G1 X-88.73 Y-37.461 F2540
X-88.522 Y-37.316
X-88.045 Y-36.981
X-87.893 Y-36.856
X-87.464 Y-36.478
X-87.39 Y-36.409
X-87.298 Y-36.311
X-86.888 Y-35.805
X-86.777 Y-35.64
X-86.553 Y-35.261
X-86.485 Y-35.138
X-86.277 Y-34.635
X-86.217 Y-34.457
X-86.122 Y-34.132
X-86.075 Y-33.965
X-86.003 Y-33.462
X-85.986 Y-33.294
X-85.951 Y-32.791
X-85.919 Y-32.289
X-85.8 Y-30.613
X-85.758 Y-30.278
X-85.652 Y-29.474
X-85.65 Y-29.444 F1016
Y-29.443
G3 X-85.906 Y-29.131 I-0.317 J0
G1 X-85.968 Y-29.125 Z-4.994
X-86.023 Y-29.139 Z-4.977
X-86.074 Y-29.152 Z-4.949
X-86.119 Y-29.164 Z-4.912
X-86.152 Y-29.189 Z-4.863
X-86.177 Y-29.207 Z-4.807
X-86.192 Y-29.219 Z-4.746
X-86.197 Y-29.223 Z-4.683
G0 Z5
X-98.969 Y-121.891
Z-3.86
G1 Z-4.177 F1016
X-98.962 Y-121.887 Z-4.248
X-98.941 Y-121.876 Z-4.315
X-98.908 Y-121.857 Z-4.375
X-98.865 Y-121.832 Z-4.426
X-98.812 Y-121.803 Z-4.464
X-98.754 Y-121.77 Z-4.487
X-98.692 Y-121.735 Z-4.495
G3 X-97.272 Y-120.719 I-3.977 J7.063
G1 X-97.163 Y-120.616 F2540
X-97.152 Y-120.387
X-97.214 Y-120.167
X-97.343 Y-119.979
X-99.635 Y-117.585
X-99.787 Y-117.415
X-99.925 Y-117.249
X-102.493 Y-114.065
X-102.618 Y-113.898
X-102.97 Y-113.381
X-104.813 Y-110.651
X-105.148 Y-110.133
X-105.201 Y-110.044
X-106.99 Y-106.835
X-107.069 Y-106.692
X-107.326 Y-106.218
X-109.077 Y-102.335
X-109.148 Y-102.168
X-109.386 Y-101.497
X-110.449 Y-98.481
X-110.622 Y-97.978
X-110.671 Y-97.811
X-111.628 Y-94.124
X-111.681 Y-93.909
X-111.75 Y-93.621
X-111.788 Y-93.454
X-112.474 Y-89.432
X-112.522 Y-89.097
X-112.538 Y-88.929
X-112.854 Y-85.181
X-112.886 Y-84.74
X-112.895 Y-84.572
X-112.891 Y-80.718
X-112.888 Y-80.215
X-112.876 Y-80.048
X-112.805 Y-79.21
X-112.53 Y-76.026
X-112.515 Y-75.858
X-112.497 Y-75.691
X-112.47 Y-75.523
X-111.805 Y-71.669
X-111.746 Y-71.334
X-111.681 Y-71.073
X-111.576 Y-70.663
X-110.743 Y-67.48
X-110.607 Y-66.977
X-110.555 Y-66.809
X-109.168 Y-62.898
X-109.127 Y-62.787
X-108.986 Y-62.452
X-107.466 Y-59.101
X-107.234 Y-58.598
X-107.142 Y-58.431
X-105.828 Y-56.084
X-105.17 Y-54.911
X-105.076 Y-54.744
X-104.968 Y-54.576
X-104.63 Y-54.074
X-102.802 Y-51.378
X-102.581 Y-51.057
X-102.467 Y-50.896
X-99.883 Y-47.706
X-99.747 Y-47.538
X-99.619 Y-47.396
X-99.437 Y-47.203
X-96.939 Y-44.604
X-96.529 Y-44.187
X-96.436 Y-44.104
X-93.421 Y-41.458
X-93.278 Y-41.338
X-93.071 Y-41.17
X-92.918 Y-41.056
X-89.664 Y-38.657
X-89.4 Y-38.468
X-89.196 Y-38.321
X-89.065 Y-38.233
X-88.898 Y-38.124
X-88.683 Y-37.986
X-88.06 Y-37.59
X-87.893 Y-37.467
X-87.39 Y-37.086
X-87.223 Y-36.958
X-87.072 Y-36.813
X-86.888 Y-36.627
X-86.72 Y-36.448
X-86.599 Y-36.311
X-86.357 Y-35.975
X-86.239 Y-35.808
X-86.217 Y-35.777
X-86.143 Y-35.64
X-85.973 Y-35.305
X-85.89 Y-35.138
X-85.715 Y-34.582
X-85.68 Y-34.467
X-85.638 Y-34.3
X-85.557 Y-33.965
X-85.541 Y-33.797
X-85.497 Y-33.294
X-85.465 Y-32.959
X-85.451 Y-32.791
X-85.441 Y-32.289
X-85.434 Y-31.786
X-85.429 Y-31.618
X-85.404 Y-31.116
X-85.367 Y-30.613
X-85.324 Y-30.278
X-85.012 Y-27.932
X-84.984 Y-27.764
X-84.913 Y-27.429
X-84.876 Y-27.262
X-84.315 Y-25.083
X-84.167 Y-24.58
X-84.106 Y-24.413
X-83.321 Y-22.402
X-83.254 Y-22.234
X-83.117 Y-21.899
X-83.041 Y-21.732
X-82.414 Y-20.559
X-81.785 Y-19.385
X-81.586 Y-19.05
X-81.527 Y-18.964
X-80.059 Y-16.872
X-80.019 Y-16.817
X-79.644 Y-16.369
X-79.497 Y-16.202
X-77.992 Y-14.526
X-77.841 Y-14.377
X-77.506 Y-14.073
X-75.727 Y-12.515
X-75.663 Y-12.46
X-75.496 Y-12.336
X-75.161 Y-12.101
X-73.315 Y-10.839
X-73.151 Y-10.731
X-72.983 Y-10.628
X-72.747 Y-10.504
X-70.805 Y-9.494
X-70.638 Y-9.412
X-70.303 Y-9.251
X-70.135 Y-9.179
X-67.957 Y-8.36
X-67.455 Y-8.18
X-66.952 Y-8.056
X-64.774 Y-7.523
X-64.607 Y-7.484
X-64.439 Y-7.458
X-64.104 Y-7.415
X-61.926 Y-7.152
X-61.424 Y-7.107
X-61.256 Y-7.103
X-58.744
X-58.576 Y-7.107
X-58.073 Y-7.153
X-55.896 Y-7.415
X-55.561 Y-7.458
X-55.393 Y-7.484
X-55.226 Y-7.523
X-52.88 Y-8.097
X-52.545 Y-8.18
X-52.043 Y-8.36
X-49.865 Y-9.179
X-49.697 Y-9.251
X-49.362 Y-9.412
X-49.186 Y-9.499
X-47.184 Y-10.54
X-47.017 Y-10.628
X-46.849 Y-10.731
X-46.682 Y-10.842
X-44.839 Y-12.101
X-44.488 Y-12.347
X-44.337 Y-12.46
X-44.169 Y-12.606
X-42.494 Y-14.073
X-42.159 Y-14.377
X-42.008 Y-14.526
X-40.483 Y-16.223
X-40.356 Y-16.369
X-39.981 Y-16.817
X-39.941 Y-16.872
X-38.473 Y-18.964
X-38.414 Y-19.05
X-38.215 Y-19.385
X-37.048 Y-21.564
X-36.959 Y-21.732
X-36.883 Y-21.899
X-36.746 Y-22.234
X-36.679 Y-22.402
X-35.894 Y-24.413
X-35.833 Y-24.58
X-35.685 Y-25.083
X-35.123 Y-27.267
X-35.087 Y-27.429
X-35.016 Y-27.764
X-34.988 Y-27.932
X-34.676 Y-30.278
X-34.633 Y-30.613
X-34.596 Y-31.116
X-34.571 Y-31.618
X-34.566 Y-31.786
X-34.559 Y-32.289
X-34.549 Y-32.791
X-34.535 Y-32.959
X-34.488 Y-33.462
X-34.453 Y-33.868
X-34.443 Y-33.965
X-34.362 Y-34.3
X-34.319 Y-34.467
X-34.268 Y-34.635
X-34.118 Y-35.117
X-34.111 Y-35.138
X-34.028 Y-35.305
X-33.858 Y-35.64
X-33.783 Y-35.778
X-33.762 Y-35.808
X-33.615 Y-36.016
X-33.403 Y-36.311
X-33.28 Y-36.451
X-33.112 Y-36.633
X-32.935 Y-36.813
X-32.777 Y-36.964
X-32.528 Y-37.148
X-32.085 Y-37.484
X-31.94 Y-37.59
X-31.317 Y-37.986
X-31.102 Y-38.124
X-30.935 Y-38.233
X-30.804 Y-38.321
X-30.432 Y-38.588
X-30.264 Y-38.71
X-27.082 Y-41.056
X-26.929 Y-41.17
X-26.722 Y-41.338
X-26.579 Y-41.458
X-23.564 Y-44.104
X-23.471 Y-44.187
X-23.061 Y-44.604
X-20.548 Y-47.218
X-20.381 Y-47.396
X-20.253 Y-47.538
X-18.488 Y-49.717
X-17.533 Y-50.896
X-17.365 Y-51.135
X-17.188 Y-51.392
X-15.257 Y-54.241
X-15.02 Y-54.594
X-14.924 Y-54.744
X-14.641 Y-55.247
X-12.951 Y-58.263
X-12.842 Y-58.459
X-12.766 Y-58.598
X-12.507 Y-59.161
X-11.014 Y-62.452
X-10.873 Y-62.787
X-10.832 Y-62.898
X-9.445 Y-66.809
X-9.393 Y-66.977
X-9.257 Y-67.48
X-8.381 Y-70.831
X-8.295 Y-71.166
X-8.254 Y-71.334
X-8.05 Y-72.507
X-7.53 Y-75.523
X-7.503 Y-75.691
X-7.485 Y-75.858
X-7.354 Y-77.366
X-7.146 Y-79.781
X-7.124 Y-80.048
X-7.112 Y-80.215
X-7.109 Y-80.718
X-7.105 Y-84.572
X-7.114 Y-84.74
X-7.146 Y-85.181
X-7.462 Y-88.929
X-7.478 Y-89.097
X-7.526 Y-89.432
X-8.212 Y-93.454
X-8.25 Y-93.621
X-8.33 Y-93.956
X-8.372 Y-94.124
X-9.329 Y-97.811
X-9.378 Y-97.978
X-9.551 Y-98.481
X-10.732 Y-101.832
X-10.852 Y-102.168
X-10.923 Y-102.335
X-12.674 Y-106.218
X-12.931 Y-106.692
X-13.023 Y-106.86
X-14.799 Y-110.044
X-14.852 Y-110.133
X-15.187 Y-110.651
X-17.04 Y-113.395
X-17.382 Y-113.898
X-17.507 Y-114.065
X-20.075 Y-117.249
X-20.215 Y-117.417
X-20.365 Y-117.585
X-23.253 Y-120.601
X-23.432 Y-120.768
X-23.615 Y-120.936
X-26.411 Y-123.399
X-26.914 Y-123.812
X-27.099 Y-123.952
X-30.269 Y-126.298
X-30.432 Y-126.404
X-30.799 Y-126.634
X-33.615 Y-128.369
X-34.118 Y-128.676
X-34.285 Y-128.768
X-34.788 Y-129.023
X-38.024 Y-130.655
X-38.138 Y-130.707
X-38.641 Y-130.92
X-41.824 Y-132.2
X-41.991 Y-132.266
X-42.494 Y-132.455
X-42.829 Y-132.558
X-46.347 Y-133.636
X-46.474 Y-133.672
X-46.849 Y-133.768
X-47.017 Y-133.809
X-50.702 Y-134.603
X-50.87 Y-134.638
X-51.373 Y-134.719
X-55.226 Y-135.212
X-55.393 Y-135.229
X-55.728 Y-135.255
X-55.896 Y-135.266
X-59.581 Y-135.422
X-59.749 Y-135.429
X-60.251
X-60.586 Y-135.415
X-64.104 Y-135.266
X-64.272 Y-135.255
X-64.607 Y-135.229
X-64.774 Y-135.212
X-68.627 Y-134.719
X-69.13 Y-134.638
X-69.298 Y-134.603
X-72.983 Y-133.809
X-73.151 Y-133.768
X-73.526 Y-133.672
X-73.653 Y-133.636
X-77.365 Y-132.499
X-77.506 Y-132.455
X-78.009 Y-132.266
X-78.683 Y-131.996
X-81.359 Y-130.92
X-81.862 Y-130.707
X-81.976 Y-130.655
X-85.547 Y-128.853
X-85.715 Y-128.768
X-85.882 Y-128.676
X-86.482 Y-128.309
X-89.201 Y-126.634
X-89.568 Y-126.404
X-89.736 Y-126.295
X-92.918 Y-123.94
X-93.086 Y-123.812
X-93.589 Y-123.399
X-96.385 Y-120.936
X-96.604 Y-120.735
X-96.747 Y-120.601
X-97.343 Y-119.979
G3 X-97.769 Y-119.964 I-0.222 J-0.227 F1016
G1 X-97.801 Y-120.008 Z-4.49
X-97.832 Y-120.051 Z-4.476
X-97.86 Y-120.091 Z-4.453
X-97.869 Y-120.136 Z-4.421
X-97.876 Y-120.175 Z-4.381
X-97.882 Y-120.206 Z-4.334
X-97.88 Y-120.229 Z-4.285
Y-120.243 Z-4.232
X-97.879 Y-120.248 Z-4.178
G0 Z5
X-98.653 Y-121.593
Z-3.365
G1 Z-3.682 F1016
X-98.647 Y-121.589 Z-3.753
X-98.626 Y-121.577 Z-3.82
X-98.593 Y-121.559 Z-3.88
X-98.549 Y-121.534 Z-3.931
X-98.497 Y-121.504 Z-3.969
X-98.439 Y-121.471 Z-3.992
X-98.377 Y-121.436 Z-4
G3 X-96.959 Y-120.417 I-3.993 J7.054
G1 X-96.851 Y-120.314 F2540
X-96.84 Y-120.084
X-96.903 Y-119.863
X-97.033 Y-119.674
X-99.284 Y-117.323
X-99.35 Y-117.249
X-99.634 Y-116.914
X-99.787 Y-116.728
X-101.965 Y-114.028
X-102.065 Y-113.898
X-102.313 Y-113.563
X-102.436 Y-113.395
X-104.697 Y-110.044
X-104.983 Y-109.541
X-106.823 Y-106.243
X-106.852 Y-106.189
X-106.937 Y-106.022
X-108.601 Y-102.335
X-108.805 Y-101.832
X-108.833 Y-101.758
X-110.173 Y-97.955
X-110.219 Y-97.811
X-110.266 Y-97.643
X-111.222 Y-93.956
X-111.306 Y-93.621
X-111.347 Y-93.454
X-112.004 Y-89.599
X-112.084 Y-89.097
X-112.102 Y-88.929
X-112.412 Y-85.243
X-112.438 Y-84.907
X-112.45 Y-84.74
X-112.46 Y-84.572
X-112.456 Y-80.718
X-112.452 Y-80.215
X-112.44 Y-80.048
X-112.123 Y-76.361
X-112.077 Y-75.858
X-112.057 Y-75.691
X-111.885 Y-74.685
X-111.364 Y-71.669
X-111.301 Y-71.334
X-111.214 Y-70.999
X-110.25 Y-67.312
X-110.149 Y-66.977
X-110.094 Y-66.809
X-108.787 Y-63.123
X-108.724 Y-62.955
X-108.584 Y-62.62
X-106.988 Y-59.101
X-106.911 Y-58.933
X-106.738 Y-58.598
X-106.081 Y-57.425
X-104.766 Y-55.079
X-104.668 Y-54.911
X-104.558 Y-54.744
X-104.31 Y-54.376
X-102.287 Y-51.392
X-102.132 Y-51.188
X-101.965 Y-50.969
X-101.903 Y-50.89
X-99.595 Y-48.041
X-99.156 Y-47.538
X-96.418 Y-44.689
X-96.269 Y-44.548
X-95.871 Y-44.187
X-93.086 Y-41.743
X-93.003 Y-41.673
X-92.751 Y-41.476
X-92.568 Y-41.338
X-89.736 Y-39.25
X-89.611 Y-39.159
X-89.233 Y-38.892
X-89.135 Y-38.824
X-88.874 Y-38.657
X-87.893 Y-38.039
X-87.547 Y-37.819
X-87.39 Y-37.709
X-87.223 Y-37.582
X-87.091 Y-37.484
X-86.888 Y-37.339
X-86.451 Y-36.981
X-86.385 Y-36.925
X-86.274 Y-36.813
X-85.882 Y-36.363
X-85.841 Y-36.311
X-85.715 Y-36.142
X-85.62 Y-35.975
X-85.527 Y-35.808
X-85.447 Y-35.64
X-85.251 Y-35.138
X-85.205 Y-34.97
X-85.094 Y-34.551
X-85.086 Y-34.509
X-85.071 Y-34.3
X-85.036 Y-33.797
X-85.011 Y-33.462
X-85 Y-33.294
X-84.974 Y-32.791
X-84.955 Y-31.283
X-84.952 Y-31.116
X-84.929 Y-30.613
X-84.908 Y-30.445
X-84.574 Y-27.932
X-84.55 Y-27.764
X-84.542 Y-27.728
X-84.427 Y-27.262
X-83.866 Y-25.083
X-83.702 Y-24.58
X-83.639 Y-24.413
X-82.855 Y-22.402
X-82.783 Y-22.234
X-82.631 Y-21.899
X-82.549 Y-21.732
X-81.472 Y-19.721
X-81.381 Y-19.553
X-81.283 Y-19.385
X-81.192 Y-19.243
X-79.852 Y-17.333
X-79.643 Y-17.039
X-79.514 Y-16.872
X-79.349 Y-16.687
X-78.009 Y-15.194
X-77.841 Y-15.011
X-77.506 Y-14.654
X-77.339 Y-14.503
X-75.642 Y-13.018
X-75.496 Y-12.896
X-75.232 Y-12.682
X-75.161 Y-12.627
X-72.983 Y-11.139
X-72.816 Y-11.043
X-72.448 Y-10.839
X-72.313 Y-10.768
X-70.638 Y-9.897
X-70.303 Y-9.724
X-70.183 Y-9.666
X-69.633 Y-9.454
X-67.622 Y-8.699
X-67.455 Y-8.636
X-67.287 Y-8.585
X-65.445 Y-8.134
X-64.774 Y-7.97
X-64.607 Y-7.935
X-64.272 Y-7.878
X-64.104 Y-7.852
X-61.927 Y-7.59
X-61.424 Y-7.542
X-61.256 Y-7.538
X-58.744
X-58.576 Y-7.542
X-58.073 Y-7.59
X-55.896 Y-7.852
X-55.728 Y-7.878
X-55.393 Y-7.935
X-55.226 Y-7.97
X-52.88 Y-8.544
X-52.713 Y-8.585
X-52.545 Y-8.636
X-51.373 Y-9.076
X-50.367 Y-9.454
X-49.817 Y-9.666
X-49.697 Y-9.724
X-49.027 Y-10.071
X-47.687 Y-10.768
X-47.552 Y-10.839
X-47.184 Y-11.043
X-47.017 Y-11.139
X-44.839 Y-12.627
X-44.768 Y-12.682
X-44.504 Y-12.896
X-44.358 Y-13.018
X-42.636 Y-14.526
X-42.494 Y-14.654
X-42.143 Y-15.029
X-41.989 Y-15.196
X-40.635 Y-16.704
X-40.483 Y-16.875
X-40.357 Y-17.039
X-40.119 Y-17.375
X-38.808 Y-19.243
X-38.717 Y-19.385
X-38.619 Y-19.553
X-38.473 Y-19.823
X-37.451 Y-21.732
X-37.369 Y-21.899
X-37.217 Y-22.234
X-37.145 Y-22.402
X-36.361 Y-24.413
X-36.295 Y-24.587
X-36.134 Y-25.083
X-35.573 Y-27.262
X-35.458 Y-27.728
X-35.45 Y-27.764
X-35.426 Y-27.932
X-35.092 Y-30.445
X-35.071 Y-30.613
X-35.048 Y-31.116
X-35.039 Y-31.786
X-35.026 Y-32.791
X-35 Y-33.294
X-34.989 Y-33.462
X-34.912 Y-34.509
X-34.904 Y-34.551
X-34.788 Y-34.988
X-34.746 Y-35.138
X-34.556 Y-35.64
X-34.476 Y-35.808
X-34.291 Y-36.143
X-34.285 Y-36.152
X-34.168 Y-36.311
X-34.118 Y-36.372
X-33.735 Y-36.813
X-33.615 Y-36.935
X-33.112 Y-37.339
X-32.909 Y-37.484
X-32.777 Y-37.582
X-32.61 Y-37.709
X-32.453 Y-37.819
X-31.925 Y-38.154
X-31.102 Y-38.672
X-30.865 Y-38.824
X-30.626 Y-38.992
X-30.389 Y-39.159
X-30.16 Y-39.327
X-27.417 Y-41.349
X-27.249 Y-41.476
X-26.997 Y-41.673
X-26.914 Y-41.743
X-24.129 Y-44.187
X-23.731 Y-44.548
X-23.582 Y-44.689
X-20.844 Y-47.538
X-20.405 Y-48.041
X-18.097 Y-50.89
X-18.035 Y-50.969
X-17.839 Y-51.225
X-17.713 Y-51.392
X-15.522 Y-54.623
X-15.442 Y-54.744
X-15.332 Y-54.911
X-15.234 Y-55.079
X-13.345 Y-58.45
X-13.262 Y-58.598
X-13.089 Y-58.933
X-12.86 Y-59.436
X-11.416 Y-62.62
X-11.276 Y-62.955
X-11.213 Y-63.123
X-9.906 Y-66.809
X-9.851 Y-66.977
X-9.75 Y-67.312
X-8.742 Y-71.166
X-8.699 Y-71.334
X-8.636 Y-71.669
X-7.984 Y-75.45
X-7.943 Y-75.691
X-7.923 Y-75.858
X-7.877 Y-76.361
X-7.56 Y-80.048
X-7.548 Y-80.215
X-7.544 Y-80.718
X-7.54 Y-84.572
X-7.55 Y-84.74
X-7.574 Y-85.075
X-7.602 Y-85.41
X-7.898 Y-88.929
X-7.916 Y-89.097
X-7.996 Y-89.599
X-8.654 Y-93.457
X-8.694 Y-93.621
X-8.778 Y-93.956
X-9.734 Y-97.643
X-9.781 Y-97.811
X-9.827 Y-97.955
X-11.167 Y-101.758
X-11.195 Y-101.832
X-11.399 Y-102.335
X-13.063 Y-106.022
X-13.148 Y-106.189
X-13.345 Y-106.543
X-15.02 Y-109.547
X-15.303 Y-110.044
X-17.564 Y-113.395
X-17.7 Y-113.581
X-17.935 Y-113.898
X-18.035 Y-114.028
X-20.228 Y-116.747
X-20.381 Y-116.931
X-20.65 Y-117.249
X-20.716 Y-117.323
X-23.396 Y-120.122
X-23.564 Y-120.296
X-23.706 Y-120.433
X-23.899 Y-120.606
X-26.936 Y-123.282
X-27.082 Y-123.399
X-30.264 Y-125.755
X-30.322 Y-125.796
X-30.814 Y-126.131
X-30.935 Y-126.207
X-34.118 Y-128.169
X-34.285 Y-128.268
X-34.453 Y-128.366
X-34.788 Y-128.536
X-37.992 Y-130.153
X-38.138 Y-130.223
X-38.473 Y-130.376
X-38.641 Y-130.451
X-42.067 Y-131.828
X-42.494 Y-131.998
X-42.661 Y-132.051
X-43.331 Y-132.258
X-46.347 Y-133.182
X-46.514 Y-133.23
X-46.903 Y-133.337
X-47.017 Y-133.364
X-50.776 Y-134.174
X-50.87 Y-134.194
X-51.373 Y-134.28
X-51.875 Y-134.345
X-55.226 Y-134.774
X-55.393 Y-134.791
X-55.728 Y-134.82
X-55.896 Y-134.831
X-59.581 Y-134.987
X-59.749 Y-134.994
X-60.251
X-60.586 Y-134.98
X-64.104 Y-134.831
X-64.272 Y-134.82
X-64.607 Y-134.791
X-64.774 Y-134.774
X-68.46 Y-134.303
X-68.627 Y-134.28
X-69.13 Y-134.194
X-69.298 Y-134.159
X-72.983 Y-133.364
X-73.097 Y-133.337
X-73.486 Y-133.23
X-73.653 Y-133.182
X-77.004 Y-132.155
X-77.339 Y-132.051
X-77.511 Y-131.996
X-78.176 Y-131.731
X-81.359 Y-130.451
X-81.649 Y-130.32
X-81.862 Y-130.223
X-82.029 Y-130.142
X-85.38 Y-128.451
X-85.547 Y-128.366
X-85.715 Y-128.268
X-85.882 Y-128.169
X-89.065 Y-126.207
X-89.186 Y-126.131
X-89.678 Y-125.796
X-89.736 Y-125.755
X-92.918 Y-123.399
X-93.064 Y-123.282
X-96.108 Y-120.601
X-96.294 Y-120.433
X-96.436 Y-120.296
X-97.033 Y-119.674
G3 X-97.46 Y-119.659 I-0.222 J-0.227 F1016
G1 X-97.491 Y-119.703 Z-3.995
X-97.522 Y-119.746 Z-3.981
X-97.551 Y-119.786 Z-3.958
X-97.559 Y-119.831 Z-3.926
X-97.566 Y-119.87 Z-3.886
X-97.572 Y-119.901 Z-3.839
X-97.571 Y-119.924 Z-3.79
X-97.57 Y-119.938 Z-3.737
Y-119.942 Z-3.683
G0 Z5
X-98.296 Y-121.386
Z-2.865
G1 Z-3.182 F1016
X-98.289 Y-121.382 Z-3.253
X-98.269 Y-121.371 Z-3.32
X-98.236 Y-121.352 Z-3.38
X-98.192 Y-121.327 Z-3.431
X-98.14 Y-121.298 Z-3.469
X-98.081 Y-121.265 Z-3.492
X-98.02 Y-121.23 Z-3.5
G3 X-96.602 Y-120.21 I-3.997 J7.052
G1 X-96.494 Y-120.106 F2540
X-96.455 Y-119.961
X-96.444 Y-119.812
X-96.451 Y-119.662
X-96.456 Y-119.628
X-96.494 Y-119.481
X-96.561 Y-119.344
X-96.654 Y-119.224
X-98.614 Y-117.176
X-99.019 Y-116.747
X-99.156 Y-116.579
X-101.63 Y-113.512
X-101.722 Y-113.395
X-101.84 Y-113.228
X-101.965 Y-113.047
X-104.143 Y-109.821
X-104.314 Y-109.541
X-106.276 Y-106.022
X-106.368 Y-105.854
X-106.447 Y-105.687
X-108.034 Y-102.168
X-108.182 Y-101.832
X-108.245 Y-101.665
X-109.545 Y-97.978
X-109.601 Y-97.811
X-109.671 Y-97.592
X-109.705 Y-97.476
X-110.705 Y-93.621
X-110.747 Y-93.454
X-110.78 Y-93.286
X-110.811 Y-93.119
X-111.411 Y-89.599
X-111.495 Y-89.097
X-111.514 Y-88.929
X-111.572 Y-88.259
X-111.825 Y-85.243
X-111.865 Y-84.74
X-111.874 Y-84.572
X-111.872 Y-81.556
X-111.871 Y-80.718
X-111.865 Y-80.215
X-111.854 Y-80.048
X-111.536 Y-76.361
X-111.514 Y-76.13
X-111.486 Y-75.858
X-111.465 Y-75.691
X-110.799 Y-71.837
X-110.697 Y-71.334
X-110.654 Y-71.166
X-109.689 Y-67.48
X-109.671 Y-67.415
X-109.503 Y-66.892
X-108.331 Y-63.586
X-108.161 Y-63.123
X-108.094 Y-62.955
X-106.422 Y-59.268
X-106.343 Y-59.101
X-106.068 Y-58.598
X-104.283 Y-55.414
X-104.189 Y-55.247
X-104.143 Y-55.172
X-101.921 Y-51.895
X-101.556 Y-51.392
X-101.286 Y-51.057
X-99.25 Y-48.544
X-99.114 Y-48.376
X-98.949 Y-48.182
X-98.828 Y-48.041
X-96.251 Y-45.36
X-96.088 Y-45.192
X-95.923 Y-45.024
X-95.766 Y-44.872
X-92.751 Y-42.227
X-92.491 Y-42.008
X-92.248 Y-41.828
X-89.233 Y-39.606
X-89.065 Y-39.487
X-88.581 Y-39.159
X-87.558 Y-38.483
X-87.308 Y-38.321
X-87.046 Y-38.154
X-86.888 Y-38.05
X-86.385 Y-37.693
X-86.324 Y-37.651
X-86.217 Y-37.58
X-86.083 Y-37.484
X-85.882 Y-37.305
X-85.712 Y-37.148
X-85.541 Y-36.981
X-85.397 Y-36.813
X-85.152 Y-36.478
X-85.034 Y-36.311
X-84.951 Y-36.143
