(1001)
G90 G94
G17
G21
(When using Fusion 360 for Personal Use, the feedrate of )
(rapid moves is reduced to match the feedrate of cutting )
(moves, which can increase machining time. Unrestricted )
(rapid moves are available with a Fusion 360 Subscription. )

(Adaptiv2)
T5
S8000 M3
G54
G0 X-118.317 Y-144.17
Z15
G1 Z5 F1000
Z-2.362
Z-2.68
X-118.315 Y-144.162 Z-2.751
X-118.309 Y-144.139 Z-2.818
X-118.299 Y-144.103 Z-2.878
X-118.287 Y-144.054 Z-2.928
X-118.272 Y-143.996 Z-2.966
X-118.255 Y-143.931 Z-2.99
X-118.238 Y-143.862 Z-2.997
G3 X-117.989 Y-142.134 I-7.852 J2.011
G1 Y-141.984
X-118.137 Y-141.261
X-118.216 Y-140.527
X-118.259 Y-139.791
X-118.281 Y-139.053
X-118.293 Y-138.316
X-118.3 Y-137.578
X-118.303 Y-136.84
X-118.305 Y-135.364
X-118.306 Y-129.462
X-118.304 Y-91.833
X-118.301 Y-41.662
X-118.298 Y-1.451
X-118.254 Y-1.272
X-118.092 Y-0.941
X-117.841 Y-0.67
X-117.243 Y-0.238
X-116.548 Y0.009
X-115.822 Y0.145
X-115.088 Y0.218
X-114.351 Y0.258
X-113.614 Y0.278
X-112.876 Y0.289
X-112.138 Y0.295
X-111.401 Y0.298
X-109.925 Y0.3
X-108.449 Y0.301
X-58.278 Y0.3
X-8.107 Y0.299
X-1.466
X-1.286 Y0.259
X-0.953 Y0.102
X-0.68 Y-0.147
X-0.243 Y-0.742
X0.007 Y-1.436
X0.144 Y-2.161
X0.218 Y-2.895
X0.258 Y-3.632
X0.279 Y-4.369
X0.29 Y-5.107
X0.295 Y-5.845
X0.299 Y-6.582
X0.301 Y-8.058
X0.302 Y-14.698
X0.301 Y-42.735
X0.3 Y-92.907
X0.298 Y-139.02
X0.262 Y-139.201
X0.109 Y-139.537
X-0.137 Y-139.812
X-0.729 Y-140.251
X-1.423 Y-140.503
X-2.147 Y-140.642
X-2.881 Y-140.717
X-3.618 Y-140.757
X-4.356 Y-140.778
X-5.093 Y-140.789
X-5.831 Y-140.795
X-6.569 Y-140.798
X-8.045 Y-140.8
X-14.685 Y-140.801
X-53.789 Y-140.8
X-103.961 Y-140.799
X-115.212
X-115.392 Y-140.756
X-115.726 Y-140.6
X-116.003 Y-140.356
X-116.451 Y-139.77
X-116.713 Y-139.08
X-116.86 Y-138.357
X-116.941 Y-137.624
X-116.985 Y-136.888
X-117.009 Y-136.15
X-117.022 Y-135.412
X-117.029 Y-134.675
X-117.032 Y-133.937
X-117.035 Y-132.461
X-117.036 Y-128.034
X-117.034 Y-102.211
X-117.031 Y-52.039
X-117.029 Y-3.344
X-117.022 Y-2.975
X-116.916 Y-2.621
X-116.721 Y-2.309
X-116.209 Y-1.777
X-115.552 Y-1.44
X-114.843 Y-1.238
X-114.114 Y-1.121
X-113.379 Y-1.054
X-112.643 Y-1.016
X-111.905 Y-0.995
X-111.167 Y-0.983
X-110.429 Y-0.977
X-109.692 Y-0.973
X-108.216 Y-0.97
X-103.789 Y-0.969
X-66.161 Y-0.97
X-15.989 Y-0.971
X-3.077
X-2.716 Y-1.047
X-2.391 Y-1.22
X-2.111 Y-1.461
X-1.647 Y-2.035
X-1.36 Y-2.714
X-1.19 Y-3.432
X-1.093 Y-4.164
X-1.038 Y-4.899
X-1.007 Y-5.637
X-0.989 Y-6.374
X-0.98 Y-7.112
X-0.975 Y-7.85
X-0.972 Y-8.587
X-0.969 Y-10.063
X-0.968 Y-15.966
X-0.969 Y-37.362
X-0.97 Y-87.534
X-0.972 Y-137.336
X-1.019 Y-137.702
X-1.172 Y-138.038
X-1.398 Y-138.329
X-1.955 Y-138.813
X-2.628 Y-139.116
X-3.344 Y-139.295
X-4.074 Y-139.398
X-4.81 Y-139.457
X-5.547 Y-139.49
X-6.284 Y-139.509
X-7.022 Y-139.519
X-7.76 Y-139.524
X-8.498 Y-139.527
X-9.973 Y-139.53
X-15.138 Y-139.531
X-50.553 Y-139.53
X-100.725 Y-139.529
X-113.636
X-113.997 Y-139.45
X-114.323 Y-139.278
X-114.603 Y-139.038
X-115.071 Y-138.467
X-115.362 Y-137.79
X-115.536 Y-137.072
X-115.636 Y-136.341
X-115.693 Y-135.606
X-115.726 Y-134.869
X-115.744 Y-134.131
X-115.754 Y-133.393
X-115.759 Y-132.656
X-115.762 Y-131.918
X-115.765 Y-130.442
X-115.766 Y-125.277
X-115.764 Y-103.143
X-115.761 Y-52.972
X-115.759 Y-4.276
X-115.635 Y-3.928
X-115.434 Y-3.619
X-114.918 Y-3.092
X-114.265 Y-2.749
X-113.558 Y-2.537
X-112.831 Y-2.412
X-112.097 Y-2.338
X-111.36 Y-2.295
X-110.623 Y-2.271
X-109.885 Y-2.257
X-109.147 Y-2.249
X-108.409 Y-2.245
X-107.671 Y-2.242
X-106.196 Y-2.24
X-100.293 Y-2.239
X-64.878 Y-2.24
X-14.707 Y-2.241
X-4.377
X-4.023 Y-2.344
X-3.703 Y-2.527
X-3.149 Y-3.014
X-2.785 Y-3.656
X-2.56 Y-4.358
X-2.425 Y-5.084
X-2.345 Y-5.817
X-2.299 Y-6.554
X-2.273 Y-7.291
X-2.258 Y-8.029
X-2.249 Y-8.767
X-2.244 Y-9.504
X-2.242 Y-10.242
X-2.239 Y-11.718
X-2.238 Y-16.882
X-2.239 Y-41.23
X-2.24 Y-91.402
X-2.242 Y-136.04
X-2.321 Y-136.4
X-2.486 Y-136.73
X-2.717 Y-137.017
X-3.274 Y-137.501
X-3.944 Y-137.811
X-4.657 Y-137.999
X-5.387 Y-138.11
X-6.122 Y-138.175
X-6.858 Y-138.212
X-7.596 Y-138.233
X-8.334 Y-138.245
X-9.071 Y-138.252
X-9.809 Y-138.256
X-11.285 Y-138.26
X-14.974 Y-138.261
X-57.029 Y-138.26
X-107.201 Y-138.259
X-112.365
X-112.718 Y-138.151
X-113.036 Y-137.964
X-113.587 Y-137.473
X-113.949 Y-136.83
X-114.173 Y-136.127
X-114.308 Y-135.401
X-114.388 Y-134.668
X-114.434 Y-133.932
X-114.461 Y-133.194
X-114.476 Y-132.457
X-114.485 Y-131.719
X-114.49 Y-130.981
X-114.492 Y-130.243
X-114.495 Y-128.768
X-114.496 Y-123.603
X-114.494 Y-94.09
X-114.491 Y-43.919
X-114.489 Y-5.921
X-114.445 Y-5.555
X-114.317 Y-5.209
X-114.113 Y-4.901
X-113.595 Y-4.376
X-112.943 Y-4.032
X-112.237 Y-3.818
X-111.51 Y-3.69
X-110.776 Y-3.614
X-110.04 Y-3.57
X-109.302 Y-3.544
X-108.565 Y-3.529
X-107.827 Y-3.52
X-107.089 Y-3.515
X-106.351 Y-3.513
X-104.876 Y-3.51
X-103.4 Y-3.509
X-53.229 Y-3.51
X-6.008 Y-3.511
X-5.641 Y-3.541
X-5.288 Y-3.649
X-4.971 Y-3.837
X-4.425 Y-4.333
X-4.063 Y-4.976
X-3.838 Y-5.679
X-3.701 Y-6.404
X-3.621 Y-7.137
X-3.573 Y-7.874
X-3.546 Y-8.611
X-3.53 Y-9.349
X-3.521 Y-10.086
X-3.515 Y-10.824
X-3.512 Y-11.562
X-3.51 Y-13.038
X-3.508 Y-17.464
X-3.509 Y-55.831
X-3.511 Y-106.002
X-3.512 Y-134.777
X-3.609 Y-135.133
X-3.784 Y-135.457
X-4.257 Y-136.024
X-4.89 Y-136.402
X-5.589 Y-136.64
X-6.312 Y-136.784
X-7.045 Y-136.87
X-7.781 Y-136.921
X-8.518 Y-136.951
X-9.256 Y-136.968
X-9.994 Y-136.978
X-10.732 Y-136.984
X-11.469 Y-136.987
X-12.945 Y-136.99
X-16.634 Y-136.991
X-24.012
X-74.184 Y-136.99
X-111.074 Y-136.989
X-111.427 Y-136.88
X-111.745 Y-136.693
X-112.294 Y-136.2
X-112.659 Y-135.559
X-112.888 Y-134.858
X-113.027 Y-134.133
X-113.11 Y-133.4
X-113.159 Y-132.664
X-113.187 Y-131.926
X-113.204 Y-131.189
X-113.213 Y-130.451
X-113.219 Y-129.713
X-113.222 Y-128.975
X-113.225 Y-127.5
X-113.226 Y-124.549
X-113.223 Y-74.377
X-113.22 Y-24.206
X-113.219 Y-7.236
X-113.172 Y-6.87
X-113.047 Y-6.523
X-112.848 Y-6.213
X-112.338 Y-5.679
X-111.69 Y-5.326
X-110.986 Y-5.106
X-110.26 Y-4.972
X-109.527 Y-4.892
X-108.79 Y-4.845
X-108.053 Y-4.817
X-107.315 Y-4.801
X-106.578 Y-4.792
X-105.84 Y-4.786
X-105.102 Y-4.783
X-103.626 Y-4.78
X-99.199 Y-4.779
X-80.754
X-30.583 Y-4.781
X-6.973
X-6.619 Y-4.887
X-6.298 Y-5.069
X-5.741 Y-5.552
X-5.367 Y-6.188
X-5.131 Y-6.887
X-4.987 Y-7.611
X-4.901 Y-8.344
X-4.85 Y-9.08
X-4.82 Y-9.817
X-4.803 Y-10.555
X-4.792 Y-11.292
X-4.786 Y-12.03
X-4.783 Y-12.768
X-4.78 Y-14.244
X-4.778 Y-17.933
X-4.779 Y-30.476
X-4.78 Y-80.647
X-4.781 Y-130.818
Y-133.032
X-4.787 Y-133.401
X-4.86 Y-133.762
X-5.016 Y-134.096
X-5.239 Y-134.391
X-5.779 Y-134.894
X-6.44 Y-135.22
X-7.15 Y-135.423
X-7.877 Y-135.545
X-8.612 Y-135.618
X-9.348 Y-135.661
X-10.086 Y-135.686
X-10.823 Y-135.701
X-11.561 Y-135.709
X-12.299 Y-135.714
X-13.037 Y-135.717
X-14.512 Y-135.72
X-18.939 Y-135.721
X-51.403 Y-135.72
X-101.574 Y-135.719
X-109.69
X-110.049 Y-135.632
X-110.377 Y-135.464
X-110.952 Y-135.001
X-111.34 Y-134.374
X-111.586 Y-133.678
X-111.736 Y-132.956
X-111.827 Y-132.223
X-111.88 Y-131.487
X-111.912 Y-130.75
X-111.93 Y-130.013
X-111.941 Y-129.275
X-111.947 Y-128.537
X-111.951 Y-127.799
X-111.954 Y-126.324
X-111.956 Y-122.635
X-111.954 Y-94.598
X-111.951 Y-44.426
X-111.949 Y-8.273
X-111.845 Y-7.919
X-111.665 Y-7.597
X-111.189 Y-7.034
X-110.556 Y-6.655
X-109.858 Y-6.414
X-109.135 Y-6.267
X-108.403 Y-6.178
X-107.667 Y-6.125
X-106.93 Y-6.093
X-106.192 Y-6.075
X-105.455 Y-6.064
X-104.717 Y-6.058
X-103.979 Y-6.054
X-102.503 Y-6.051
X-99.552 Y-6.049
X-98.814
X-48.643 Y-6.05
X-8.432 Y-6.051
X-8.068 Y-6.113
X-7.729 Y-6.258
X-7.428 Y-6.472
X-6.912 Y-6.999
X-6.573 Y-7.654
X-6.362 Y-8.361
X-6.234 Y-9.088
X-6.158 Y-9.822
X-6.112 Y-10.558
X-6.086 Y-11.296
X-6.07 Y-12.033
X-6.061 Y-12.771
X-6.056 Y-13.509
X-6.053 Y-14.247
X-6.051 Y-14.984
X-6.049 Y-17.198
X-6.05 Y-65.156
X-6.051 Y-115.327
Y-131.559
X-6.052 Y-132.297
X-6.174 Y-132.645
X-6.367 Y-132.959
X-6.864 Y-133.505
X-7.505 Y-133.87
X-8.205 Y-134.101
X-8.93 Y-134.243
X-9.662 Y-134.328
X-10.399 Y-134.379
X-11.136 Y-134.409
X-11.873 Y-134.426
X-12.611 Y-134.437
X-13.349 Y-134.443
X-14.087 Y-134.446
X-15.562 Y-134.449
X-19.251 Y-134.451
X-38.435
X-88.606 Y-134.449
X-108.527
X-108.878 Y-134.334
X-109.194 Y-134.145
X-109.741 Y-133.649
X-110.107 Y-133.009
X-110.338 Y-132.308
X-110.479 Y-131.584
X-110.564 Y-130.851
X-110.614 Y-130.115
X-110.644 Y-129.378
X-110.661 Y-128.64
X-110.672 Y-127.902
X-110.678 Y-127.165
X-110.681 Y-126.427
X-110.684 Y-124.951
X-110.685 Y-121.262
Y-105.03
X-110.682 Y-54.859
X-110.679 Y-9.852
X-110.643 Y-9.485
X-110.531 Y-9.133
X-110.343 Y-8.816
X-109.849 Y-8.268
X-109.209 Y-7.901
X-108.509 Y-7.669
X-107.785 Y-7.527
X-107.052 Y-7.442
X-106.316 Y-7.391
X-105.578 Y-7.361
X-104.841 Y-7.344
X-104.103 Y-7.334
X-103.365 Y-7.327
X-102.628 Y-7.324
X-101.152 Y-7.321
X-97.463 Y-7.319
X-56.145 Y-7.32
X-9.663 Y-7.321
X-9.302 Y-7.397
X-8.967 Y-7.553
X-8.671 Y-7.773
X-8.167 Y-8.311
X-7.835 Y-8.97
X-7.628 Y-9.678
X-7.502 Y-10.405
X-7.427 Y-11.139
X-7.382 Y-11.876
X-7.356 Y-12.613
X-7.34 Y-13.351
X-7.331 Y-14.089
X-7.326 Y-14.826
X-7.323 Y-15.564
X-7.32 Y-17.04
X-7.319 Y-20.729
X-7.32 Y-60.571
X-7.321 Y-110.742
Y-130.663
X-7.36 Y-131.03
X-7.475 Y-131.381
X-7.667 Y-131.696
X-8.165 Y-132.24
X-8.807 Y-132.604
X-9.508 Y-132.834
X-10.232 Y-132.974
X-10.965 Y-133.059
X-11.701 Y-133.109
X-12.439 Y-133.139
X-13.176 Y-133.156
X-13.914 Y-133.167
X-14.652 Y-133.173
X-15.389 Y-133.176
X-16.865 Y-133.179
X-20.554 Y-133.181
X-36.786
X-86.958 Y-133.179
X-106.879
X-107.246 Y-133.146
X-107.598 Y-133.036
X-107.916 Y-132.849
X-108.466 Y-132.357
X-108.834 Y-131.718
X-109.066 Y-131.017
X-109.207 Y-130.293
X-109.293 Y-129.56
X-109.343 Y-128.824
X-109.373 Y-128.087
X-109.391 Y-127.349
X-109.401 Y-126.612
X-109.407 Y-125.874
X-109.411 Y-125.136
X-109.414 Y-123.66
X-109.415 Y-119.971
Y-103.739
X-109.412 Y-53.568
X-109.409 Y-10.775
X-109.294 Y-10.424
X-109.106 Y-10.107
X-108.616 Y-9.555
X-107.978 Y-9.184
X-107.279 Y-8.949
X-106.556 Y-8.804
X-105.823 Y-8.717
X-105.087 Y-8.664
X-104.35 Y-8.633
X-103.612 Y-8.615
X-102.875 Y-8.604
X-102.137 Y-8.598
X-101.399 Y-8.594
X-99.923 Y-8.591
X-96.972 Y-8.589
X-52.703 Y-8.59
X-11.017 Y-8.591
X-10.653 Y-8.654
X-10.311 Y-8.792
X-10.007 Y-9.001
X-9.484 Y-9.521
X-9.137 Y-10.172
X-8.918 Y-10.877
X-8.785 Y-11.603
X-8.705 Y-12.336
X-8.657 Y-13.072
X-8.629 Y-13.81
X-8.612 Y-14.547
X-8.602 Y-15.285
X-8.596 Y-16.023
X-8.593 Y-16.761
X-8.59 Y-18.236
X-8.589 Y-21.925
X-8.59 Y-66.194
X-8.591 Y-116.366
Y-129.646
X-8.689 Y-130.002
X-8.862 Y-130.328
X-9.329 Y-130.899
X-9.958 Y-131.286
X-10.653 Y-131.532
X-11.375 Y-131.684
X-12.107 Y-131.776
X-12.843 Y-131.831
X-13.58 Y-131.864
X-14.317 Y-131.883
X-15.055 Y-131.895
X-15.793 Y-131.901
X-16.531 Y-131.905
X-18.006 Y-131.909
X-20.958 Y-131.911
X-44.568 Y-131.91
X-94.739 Y-131.909
X-105.806
X-106.167 Y-131.831
X-106.501 Y-131.674
X-107.09 Y-131.23
X-107.492 Y-130.612
X-107.75 Y-129.92
X-107.909 Y-129.2
X-108.005 Y-128.468
X-108.062 Y-127.733
X-108.097 Y-126.996
X-108.117 Y-126.258
X-108.129 Y-125.52
X-108.136 Y-124.782
X-108.14 Y-124.045
X-108.142 Y-123.307
X-108.144 Y-121.831
X-108.145 Y-116.667
X-108.144 Y-93.794
X-108.141 Y-43.623
X-108.139 Y-12.266
X-108.079 Y-11.902
X-107.935 Y-11.562
X-107.724 Y-11.259
X-107.2 Y-10.74
X-106.547 Y-10.397
X-105.841 Y-10.182
X-105.115 Y-10.052
X-104.381 Y-9.973
X-103.645 Y-9.926
X-102.907 Y-9.899
X-102.17 Y-9.882
X-101.432 Y-9.873
X-100.694 Y-9.867
X-99.956 Y-9.864
X-98.481 Y-9.861
X-94.792 Y-9.859
X-90.365
X-40.193 Y-9.86
X-12.156 Y-9.861
X-11.799 Y-9.953
X-11.471 Y-10.121
X-10.892 Y-10.579
X-10.499 Y-11.203
X-10.247 Y-11.897
X-10.092 Y-12.618
X-9.997 Y-13.35
X-9.941 Y-14.086
X-9.907 Y-14.823
X-9.887 Y-15.56
X-9.875 Y-16.298
X-9.868 Y-17.036
X-9.864 Y-17.774
X-9.86 Y-19.249
X-9.859 Y-22.2
Y-31.054
X-9.86 Y-81.226
X-9.861 Y-128.446
X-9.972 Y-128.798
X-10.158 Y-129.116
X-10.646 Y-129.67
X-11.283 Y-130.042
X-11.982 Y-130.279
X-12.705 Y-130.424
X-13.437 Y-130.512
X-14.173 Y-130.565
X-14.91 Y-130.596
X-15.648 Y-130.615
X-16.386 Y-130.625
X-17.124 Y-130.632
X-17.861 Y-130.636
X-19.337 Y-130.639
X-22.288 Y-130.641
X-62.13 Y-130.64
X-104.186 Y-130.639
X-104.554 Y-130.626
X-104.915 Y-130.548
X-105.247 Y-130.388
X-105.832 Y-129.938
X-106.23 Y-129.317
X-106.485 Y-128.624
X-106.642 Y-127.903
X-106.737 Y-127.171
X-106.793 Y-126.436
X-106.827 Y-125.699
X-106.847 Y-124.961
X-106.859 Y-124.224
X-106.866 Y-123.486
X-106.87 Y-122.748
X-106.874 Y-121.272
X-106.875 Y-118.321
X-106.873 Y-73.314
X-106.87 Y-23.143
X-106.869 Y-13.551
X-106.806 Y-13.188
X-106.667 Y-12.846
X-106.458 Y-12.542
X-105.936 Y-12.021
X-105.284 Y-11.675
X-104.579 Y-11.458
X-103.853 Y-11.325
X-103.119 Y-11.245
X-102.383 Y-11.198
X-101.646 Y-11.169
X-100.908 Y-11.153
X-100.17 Y-11.143
X-99.433 Y-11.137
X-98.695 Y-11.134
X-97.219 Y-11.131
X-93.53 Y-11.129
X-66.969 Y-11.13
X-64.779
X-64.706 Y-11.126
X-64.634 Y-11.115
X-64.563 Y-11.098
X-64.445 Y-11.062
X-63.942 Y-10.92
X-61.764 Y-10.521
X-61.597 Y-10.502
X-61.262 Y-10.467
X-61.094 Y-10.454
X-59.586 Y-10.363
X-59.084 Y-10.336
X-58.916
X-58.414 Y-10.363
X-56.906 Y-10.454
X-56.738 Y-10.467
X-56.365 Y-10.506
X-56.236 Y-10.521
X-54.393 Y-10.858
X-53.661 Y-10.955
X-52.928 Y-11.039
X-52.192 Y-11.082
X-51.454 Y-11.105
X-50.717 Y-11.117
X-49.979 Y-11.123
X-49.241 Y-11.126
X-47.765 Y-11.129
X-41.863 Y-11.13
X-13.826 Y-11.131
X-13.457 Y-11.144
X-13.097 Y-11.223
X-12.764 Y-11.383
X-12.179 Y-11.832
X-11.779 Y-12.452
X-11.524 Y-13.144
X-11.365 Y-13.865
X-11.27 Y-14.597
X-11.212 Y-15.332
X-11.178 Y-16.069
X-11.158 Y-16.807
X-11.146 Y-17.545
X-11.139 Y-18.282
X-11.134 Y-19.02
X-11.132 Y-19.758
X-11.13 Y-21.234
X-11.129 Y-26.398
X-11.13 Y-69.929
X-11.131 Y-120.101
Y-126.741
X-11.152 Y-127.11
X-11.244 Y-127.467
X-11.417 Y-127.793
X-11.885 Y-128.363
X-12.513 Y-128.749
X-13.209 Y-128.995
X-13.931 Y-129.146
X-14.664 Y-129.237
X-15.399 Y-129.292
X-16.136 Y-129.324
X-16.874 Y-129.343
X-17.612 Y-129.355
X-18.35 Y-129.361
X-19.087 Y-129.365
X-20.563 Y-129.369
X-23.514 Y-129.371
X-53.765 Y-129.37
X-103.198 Y-129.369
X-103.562 Y-129.307
X-103.902 Y-129.164
X-104.204 Y-128.952
X-104.725 Y-128.43
X-105.067 Y-127.776
X-105.281 Y-127.07
X-105.412 Y-126.344
X-105.491 Y-125.61
X-105.538 Y-124.874
X-105.566 Y-124.137
X-105.582 Y-123.399
X-105.592 Y-122.661
X-105.597 Y-121.924
X-105.601 Y-121.186
X-105.604 Y-119.71
X-105.605 Y-116.021
X-105.603 Y-79.13
X-105.6 Y-28.959
X-105.599 Y-14.94
X-105.556 Y-14.574
X-105.44 Y-14.224
X-105.25 Y-13.908
X-104.758 Y-13.358
X-104.118 Y-12.99
X-103.419 Y-12.756
X-102.695 Y-12.613
X-101.962 Y-12.526
X-101.226 Y-12.474
X-100.489 Y-12.443
X-99.751 Y-12.425
X-99.014 Y-12.414
X-98.276 Y-12.408
X-97.538 Y-12.404
X-96.062 Y-12.401
X-93.111 Y-12.399
X-70.239 Y-12.4
X-68.214
X-68.11 Y-12.392
X-68.008 Y-12.37
X-67.91 Y-12.334
X-66.79 Y-11.831
X-66.623 Y-11.761
X-66.288 Y-11.641
X-66.12 Y-11.583
X-64.563 Y-11.098
X-64.445 Y-11.062
X-63.942 Y-10.92
X-63.805 Y-10.895
X-61.764 Y-10.521
X-61.635 Y-10.506
X-61.262 Y-10.467
X-61.094 Y-10.454
X-59.586 Y-10.363
X-59.419 Y-10.354
X-59.084 Y-10.336
X-58.916
X-58.581 Y-10.354
X-58.414 Y-10.363
X-56.906 Y-10.454
X-56.738 Y-10.467
X-56.365 Y-10.506
X-56.236 Y-10.521
X-55.165 Y-10.717
X-54.393 Y-10.858
X-54.058 Y-10.92
X-53.555 Y-11.062
X-53.388 Y-11.113
X-51.88 Y-11.583
X-51.607 Y-11.679
X-51.377 Y-11.761
X-51.21 Y-11.831
X-50.878 Y-11.96
X-50.492 Y-12.077
X-49.935 Y-12.197
X-49.203 Y-12.294
X-48.467 Y-12.344
X-47.73 Y-12.371
X-46.992 Y-12.384
X-46.254 Y-12.392
X-45.517 Y-12.396
X-44.041 Y-12.399
X-39.614 Y-12.4
X-15.266 Y-12.401
X-14.897 Y-12.402
X-14.531 Y-12.446
X-14.183 Y-12.569
X-13.871 Y-12.766
X-13.331 Y-13.268
X-12.97 Y-13.912
X-12.743 Y-14.614
X-12.604 Y-15.339
X-12.521 Y-16.072
X-12.471 Y-16.808
X-12.441 Y-17.545
X-12.424 Y-18.283
X-12.413 Y-19.02
X-12.407 Y-19.758
X-12.404 Y-20.496
X-12.4 Y-21.972
X-12.399 Y-24.923
X-12.4 Y-75.094
X-12.401 Y-125.266
X-12.403 Y-125.635
X-12.453 Y-126
X-12.583 Y-126.345
X-12.785 Y-126.654
X-13.295 Y-127.187
X-13.942 Y-127.541
X-14.646 Y-127.764
X-15.371 Y-127.9
X-16.104 Y-127.982
X-16.84 Y-128.03
X-17.578 Y-128.059
X-18.315 Y-128.076
X-19.053 Y-128.087
X-19.791 Y-128.092
X-20.529 Y-128.096
X-22.004 Y-128.099
X-25.693 Y-128.101
X-61.108 Y-128.1
X-101.688 Y-128.099
X-102.057 Y-128.077
X-102.414 Y-127.985
X-102.741 Y-127.815
X-103.316 Y-127.352
X-103.706 Y-126.726
X-103.954 Y-126.031
X-104.107 Y-125.309
X-104.199 Y-124.577
X-104.255 Y-123.841
X-104.288 Y-123.104
X-104.307 Y-122.367
X-104.319 Y-121.629
X-104.326 Y-120.891
X-104.33 Y-120.153
X-104.332 Y-119.415
X-104.335 Y-117.202
X-104.334 Y-100.232
Y-88.655
X-104.335 Y-88.615
X-104.338 Y-88.575
X-104.343 Y-88.535
X-104.498 Y-87.595
X-104.524 Y-87.428
X-104.569 Y-87.092
X-104.59 Y-86.925
X-104.854 Y-83.741
X-104.865 Y-83.573
X-104.88 Y-83.07
X-104.882 Y-79.886
X-104.88 Y-79.719
X-104.848 Y-79.216
X-104.569 Y-75.864
X-104.523 Y-75.529
X-104.459 Y-74.794
X-104.399 Y-74.059
X-104.367 Y-73.321
X-104.351 Y-72.584
X-104.342 Y-71.846
X-104.338 Y-71.108
X-104.335 Y-70.37
X-104.333 Y-68.157
X-104.33 Y-25.364
X-104.329 Y-16.51
X-104.327 Y-16.141
X-104.273 Y-15.776
X-104.143 Y-15.431
X-103.941 Y-15.122
X-103.431 Y-14.589
X-102.784 Y-14.234
X-102.081 Y-14.01
X-101.356 Y-13.873
X-100.623 Y-13.79
X-99.887 Y-13.741
X-99.149 Y-13.711
X-98.412 Y-13.694
X-97.674 Y-13.684
X-96.936 Y-13.678
X-96.198 Y-13.674
X-94.723 Y-13.671
X-91.034 Y-13.669
X-70.679 Y-13.67
X-70.526 Y-13.654
X-70.379 Y-13.606
X-70.246 Y-13.53
X-70.001 Y-13.355
X-69.974 Y-13.336
X-69.471 Y-13.071
X-69.136 Y-12.904
X-68.968 Y-12.82
X-68.801 Y-12.74
X-68.298 Y-12.509
X-67.91 Y-12.334
G3 X-67.984 Y-11.739 I-0.14 J0.285
G1 X-68.053 Y-11.724 Z-2.99
X-68.119 Y-11.71 Z-2.966
X-68.178 Y-11.698 Z-2.928
X-68.227 Y-11.687 Z-2.878
X-68.264 Y-11.679 Z-2.818
X-68.287 Y-11.675 Z-2.751
X-68.295 Y-11.673 Z-2.68
Z5
X-51.988 Y-11.059
Z-2.362
Z-2.68
X-51.984 Y-11.066 Z-2.751
X-51.97 Y-11.085 Z-2.818
X-51.948 Y-11.116 Z-2.878
X-51.92 Y-11.157 Z-2.928
X-51.885 Y-11.207 Z-2.966
X-51.846 Y-11.262 Z-2.99
X-51.806 Y-11.319 Z-2.997
G3 X-51.21 Y-11.831 I1.296 J0.909
G1 X-49.685 Y-12.517
X-49.199 Y-12.74
X-49.032 Y-12.82
X-48.697 Y-12.987
X-48.286 Y-13.166
X-47.948 Y-13.283
X-47.477 Y-13.404
X-46.758 Y-13.527
X-46.024 Y-13.594
X-45.287 Y-13.629
X-44.549 Y-13.648
X-43.811 Y-13.659
X-43.073 Y-13.664
X-42.336 Y-13.667
X-40.86 Y-13.669
X-34.22 Y-13.67
X-16.512 Y-13.671
X-16.143 Y-13.672
X-15.778 Y-13.725
X-15.432 Y-13.853
X-15.122 Y-14.053
X-14.589 Y-14.563
X-14.233 Y-15.209
X-14.009 Y-15.912
X-13.872 Y-16.637
X-13.789 Y-17.371
X-13.74 Y-18.107
X-13.711 Y-18.844
X-13.693 Y-19.582
X-13.683 Y-20.319
X-13.677 Y-21.057
X-13.674 Y-21.795
X-13.67 Y-23.27
X-13.669 Y-26.96
Y-30.649
X-13.67 Y-74.107
X-13.669 Y-74.144
X-13.666 Y-74.18
X-13.662 Y-74.216
X-13.493 Y-75.361
X-13.424 Y-75.864
X-13.145 Y-79.216
X-13.113 Y-79.719
X-13.111 Y-79.886
X-13.113 Y-83.07
X-13.128 Y-83.573
X-13.139 Y-83.741
X-13.403 Y-86.925
X-13.424 Y-87.092
X-13.469 Y-87.428
X-13.543 Y-88.162
X-13.604 Y-88.897
X-13.636 Y-89.634
X-13.652 Y-90.372
X-13.661 Y-91.11
X-13.665 Y-91.847
X-13.668 Y-92.585
X-13.67 Y-94.799
X-13.671 Y-124.311
X-13.717 Y-124.677
X-13.836 Y-125.026
X-14.029 Y-125.341
X-14.527 Y-125.885
X-15.169 Y-126.249
X-15.87 Y-126.48
X-16.594 Y-126.621
X-17.327 Y-126.706
X-18.063 Y-126.757
X-18.8 Y-126.787
X-19.538 Y-126.805
X-20.275 Y-126.816
X-21.013 Y-126.822
X-21.751 Y-126.826
X-23.227 Y-126.829
X-26.178 Y-126.831
X-51.715 Y-126.83
X-51.756 Y-126.831
X-51.797 Y-126.835
X-51.838 Y-126.841
X-52.55 Y-126.96
X-52.885 Y-127.016
X-53.052 Y-127.035
X-55.23 Y-127.253
X-55.566 Y-127.286
X-55.733 Y-127.301
X-56.236 Y-127.334
X-57.408 Y-127.363
X-58.581 Y-127.384
X-58.916 Y-127.389
X-59.084
X-61.764 Y-127.327
X-62.267 Y-127.294
X-62.434 Y-127.279
X-64.78 Y-127.045
X-64.948 Y-127.028
X-65.115 Y-127.009
X-65.283 Y-126.981
X-66.016 Y-126.897
X-66.753 Y-126.865
X-67.49 Y-126.848
X-68.228 Y-126.84
X-68.966 Y-126.835
X-69.704 Y-126.833
X-71.179 Y-126.831
X-82.984 Y-126.83
X-100.692 Y-126.829
X-101.054 Y-126.757
X-101.39 Y-126.605
X-101.688 Y-126.387
X-102.2 Y-125.856
X-102.536 Y-125.2
X-102.747 Y-124.492
X-102.875 Y-123.766
X-102.953 Y-123.032
X-102.999 Y-122.296
X-103.026 Y-121.558
X-103.042 Y-120.821
X-103.052 Y-120.083
X-103.057 Y-119.345
X-103.061 Y-118.607
X-103.064 Y-117.132
X-103.065 Y-113.443
Y-112.705
X-103.064 Y-94.505
X-103.068 Y-94.432
X-103.079 Y-94.359
X-103.097 Y-94.288
X-103.146 Y-94.127
X-103.931 Y-90.947
X-103.969 Y-90.779
X-104.057 Y-90.277
X-104.343 Y-88.535
X-104.471 Y-87.76
X-104.498 Y-87.595
X-104.524 Y-87.428
X-104.569 Y-87.092
X-104.59 Y-86.925
X-104.854 Y-83.741
X-104.865 Y-83.573
X-104.876 Y-83.238
X-104.88 Y-83.07
X-104.882 Y-79.886
X-104.88 Y-79.719
X-104.848 Y-79.216
X-104.835 Y-79.048
X-104.606 Y-76.31
X-104.569 Y-75.864
X-104.523 Y-75.529
X-104.486 Y-75.264
X-104.327 Y-74.188
X-104.246 Y-73.686
X-104.182 Y-73.35
X-103.926 Y-72.01
X-103.851 Y-71.674
X-103.535 Y-70.334
X-103.407 Y-69.831
X-103.27 Y-69.207
X-103.17 Y-68.476
X-103.119 Y-67.74
X-103.092 Y-67.003
X-103.078 Y-66.265
X-103.07 Y-65.528
X-103.066 Y-64.79
X-103.063 Y-63.314
X-103.062 Y-58.887
X-103.06 Y-19.783
X-103.059 Y-17.57
X-103.031 Y-17.202
X-102.934 Y-16.846
X-102.759 Y-16.521
X-102.291 Y-15.951
X-101.662 Y-15.565
X-100.967 Y-15.319
X-100.245 Y-15.167
X-99.513 Y-15.075
X-98.777 Y-15.02
X-98.04 Y-14.987
X-97.302 Y-14.967
X-96.564 Y-14.956
X-95.827 Y-14.949
X-95.089 Y-14.945
X-93.613 Y-14.941
X-90.662 Y-14.939
X-71.73 Y-14.94
X-71.525 Y-14.911
X-71.336 Y-14.826
X-71.178 Y-14.692
X-71.063 Y-14.52
X-70.986 Y-14.36
X-70.811 Y-14.094
X-70.75 Y-14.025
X-70.476 Y-13.733
X-70.309 Y-13.575
X-70.246 Y-13.53
G3 X-70.438 Y-12.961 I-0.195 J0.251
G1 X-70.508 Z-2.99
X-70.575 Y-12.96 Z-2.966
X-70.636 Z-2.928
X-70.686 Y-12.959 Z-2.878
X-70.724 Z-2.818
X-70.747 Z-2.751
X-70.755 Z-2.68
Z5
X-49.445 Y-12.186
Z-2.362
Z-2.68
X-49.44 Y-12.193 Z-2.751
X-49.428 Y-12.213 Z-2.818
X-49.407 Y-12.244 Z-2.878
X-49.38 Y-12.287 Z-2.928
X-49.347 Y-12.337 Z-2.966
X-49.311 Y-12.394 Z-2.99
X-49.273 Y-12.453 Z-2.997
G3 X-48.697 Y-12.987 I1.33 J0.857
G1 X-48.529 Y-13.071
X-48.026 Y-13.336
X-47.999 Y-13.355
X-47.691 Y-13.575
X-47.524 Y-13.733
X-47.407 Y-13.857
X-47.299 Y-13.962
X-47.166 Y-14.065
X-47.004 Y-14.171
X-46.794 Y-14.285
X-46.528 Y-14.404
X-46.18 Y-14.527
X-45.704 Y-14.652
X-44.991 Y-14.781
X-44.257 Y-14.853
X-43.52 Y-14.892
X-42.783 Y-14.914
X-42.045 Y-14.926
X-41.307 Y-14.932
X-40.569 Y-14.936
X-39.094 Y-14.939
X-34.667 Y-14.94
X-17.697 Y-14.941
X-17.328 Y-14.946
X-16.966 Y-15.015
X-16.628 Y-15.163
X-16.328 Y-15.378
X-15.814 Y-15.907
X-15.474 Y-16.562
X-15.261 Y-17.268
X-15.131 Y-17.995
X-15.052 Y-18.728
X-15.006 Y-19.465
X-14.978 Y-20.202
X-14.962 Y-20.94
X-14.952 Y-21.677
X-14.947 Y-22.415
X-14.943 Y-23.153
X-14.94 Y-24.629
X-14.939 Y-28.318
Y-34.22
X-14.94 Y-68.467
X-14.937 Y-68.535
X-14.927 Y-68.602
X-14.912 Y-68.668
X-14.631 Y-69.663
X-14.586 Y-69.831
X-14.458 Y-70.334
X-14.181 Y-71.507
X-14.104 Y-71.842
X-14.067 Y-72.01
X-13.778 Y-73.518
X-13.747 Y-73.686
X-13.662 Y-74.216
X-13.547 Y-74.993
X-13.514 Y-75.216
X-13.493 Y-75.361
X-13.424 Y-75.864
X-13.158 Y-79.048
X-13.145 Y-79.216
X-13.113 Y-79.719
X-13.111 Y-79.886
X-13.113 Y-83.07
X-13.118 Y-83.238
X-13.128 Y-83.573
X-13.139 Y-83.741
X-13.38 Y-86.648
X-13.403 Y-86.925
X-13.424 Y-87.092
X-13.469 Y-87.428
X-13.495 Y-87.595
X-13.936 Y-90.277
X-14.024 Y-90.779
X-14.062 Y-90.947
X-14.6 Y-93.126
X-14.741 Y-93.85
X-14.837 Y-94.581
X-14.886 Y-95.317
X-14.912 Y-96.055
X-14.926 Y-96.793
X-14.933 Y-97.53
X-14.936 Y-98.268
X-14.939 Y-99.744
X-14.941 Y-104.171
Y-123.354
X-15.054 Y-123.705
X-15.24 Y-124.024
X-15.726 Y-124.579
X-16.361 Y-124.954
X-17.059 Y-125.193
X-17.782 Y-125.34
X-18.515 Y-125.429
X-19.251 Y-125.483
X-19.988 Y-125.515
X-20.725 Y-125.534
X-21.463 Y-125.545
X-22.201 Y-125.551
X-22.939 Y-125.555
X-24.414 Y-125.559
X-27.365 Y-125.561
X-34.006
X-45.989 Y-125.56
X-46.064 Y-125.564
X-46.138 Y-125.576
X-46.211 Y-125.595
X-46.686 Y-125.743
X-46.854 Y-125.786
X-49.534 Y-126.432
X-49.74 Y-126.475
X-50.037 Y-126.533
X-50.204 Y-126.564
X-51.838 Y-126.841
X-52.382 Y-126.933
X-52.613 Y-126.971
X-52.885 Y-127.016
X-53.052 Y-127.035
X-55.566 Y-127.286
X-55.733 Y-127.301
X-56.068 Y-127.323
X-56.236 Y-127.334
X-57.241 Y-127.359
X-57.408 Y-127.363
X-57.911 Y-127.372
X-58.916 Y-127.389
X-59.084
X-61.764 Y-127.327
X-61.932 Y-127.316
X-62.267 Y-127.294
X-62.434 Y-127.279
X-64.503 Y-127.073
X-64.612 Y-127.062
X-64.948 Y-127.028
X-65.115 Y-127.009
X-65.283 Y-126.981
X-65.953 Y-126.869
X-67.796 Y-126.557
X-67.963 Y-126.526
X-68.298 Y-126.461
X-68.466 Y-126.425
X-70.644 Y-125.9
X-71.369 Y-125.764
X-72.1 Y-125.666
X-72.836 Y-125.615
X-73.573 Y-125.589
X-74.311 Y-125.575
X-75.049 Y-125.568
X-75.787 Y-125.564
X-77.262 Y-125.561
X-81.689 Y-125.56
X-99.397 Y-125.559
X-99.759 Y-125.49
X-100.098 Y-125.344
X-100.399 Y-125.13
X-100.914 Y-124.602
X-101.255 Y-123.948
X-101.47 Y-123.242
X-101.601 Y-122.516
X-101.68 Y-121.783
X-101.727 Y-121.046
X-101.755 Y-120.309
X-101.772 Y-119.571
X-101.781 Y-118.834
X-101.787 Y-118.096
X-101.79 Y-117.358
X-101.794 Y-115.882
X-101.795 Y-112.193
Y-104.815
X-101.794 Y-98.254
X-101.8 Y-98.162
X-101.817 Y-98.071
X-101.845 Y-97.983
X-102.041 Y-97.483
X-102.931 Y-94.801
X-102.986 Y-94.634
X-103.097 Y-94.288
G3 X-103.697 Y-94.287 I-0.3 J-0.104
G1 X-103.72 Y-94.354 Z-2.99
X-103.742 Y-94.417 Z-2.966
X-103.762 Y-94.474 Z-2.928
X-103.778 Y-94.521 Z-2.878
X-103.791 Y-94.557 Z-2.818
X-103.798 Y-94.579 Z-2.751
X-103.801 Y-94.587 Z-2.68
Z5
X-104.047 Y-70.721
Z-2.362
Z-2.68
X-104.041 Y-70.715 Z-2.751
X-104.024 Y-70.699 Z-2.818
X-103.997 Y-70.672 Z-2.878
X-103.961 Y-70.637 Z-2.928
X-103.918 Y-70.596 Z-2.966
X-103.87 Y-70.549 Z-2.99
X-103.819 Y-70.5 Z-2.997
G3 X-103.407 Y-69.831 I-1.1 J1.138
G1 X-103.361 Y-69.663
X-102.936 Y-68.155
X-102.883 Y-67.988
X-102.388 Y-66.479
X-102.269 Y-66.144
X-102.116 Y-65.637
X-101.996 Y-65.082
X-101.899 Y-64.35
X-101.848 Y-63.614
X-101.822 Y-62.877
X-101.808 Y-62.139
X-101.8 Y-61.401
X-101.796 Y-60.664
X-101.793 Y-59.188
X-101.792 Y-54.761
X-101.789 Y-18.608
X-101.721 Y-18.246
X-101.574 Y-17.907
X-101.36 Y-17.607
X-100.834 Y-17.09
X-100.18 Y-16.748
X-99.474 Y-16.534
X-98.747 Y-16.403
X-98.014 Y-16.325
X-97.277 Y-16.277
X-96.54 Y-16.25
X-95.803 Y-16.233
X-95.065 Y-16.223
X-94.327 Y-16.217
X-93.589 Y-16.214
X-92.114 Y-16.211
X-88.425 Y-16.209
X-72.93 Y-16.21
X-72.445 Y-16.199
X-72.117 Y-16.165
X-71.875 Y-16.12
X-71.865 Y-16.117
X-71.668 Y-16.032
X-71.504 Y-15.894
X-71.386 Y-15.714
X-71.325 Y-15.509
X-71.263 Y-15.083
X-71.26 Y-15.072
X-71.13 Y-14.695
X-71.067 Y-14.528
X-71.063 Y-14.52
Z5
X-47.829 Y-12.846
Z-2.362
Z-2.68
X-47.827 Y-12.854 Z-2.751
X-47.822 Y-12.876 Z-2.818
X-47.814 Y-12.913 Z-2.878
X-47.803 Y-12.963 Z-2.928
X-47.79 Y-13.021 Z-2.966
X-47.776 Y-13.087 Z-2.99
X-47.761 Y-13.156 Z-2.997
G3 X-47.407 Y-13.857 I1.546 J0.339
G1 X-47.25 Y-14.025
X-47.189 Y-14.094
X-47.014 Y-14.36
X-46.933 Y-14.528
X-46.923 Y-14.556
X-46.863 Y-14.693
X-46.778 Y-14.816
X-46.681 Y-14.931
X-46.564 Y-15.046
X-46.411 Y-15.174
X-46.233 Y-15.301
X-46.021 Y-15.427
X-45.738 Y-15.566
X-45.403 Y-15.698
X-44.945 Y-15.838
X-44.314 Y-15.976
X-43.583 Y-16.076
X-42.847 Y-16.133
X-42.11 Y-16.166
X-41.372 Y-16.185
X-40.635 Y-16.196
X-39.897 Y-16.202
X-39.159 Y-16.206
X-37.683 Y-16.209
X-33.994 Y-16.21
X-18.5 Y-16.211
X-18.144 Y-16.306
X-17.816 Y-16.475
X-17.239 Y-16.935
X-16.847 Y-17.56
X-16.597 Y-18.254
X-16.442 Y-18.976
X-16.348 Y-19.708
X-16.291 Y-20.443
X-16.257 Y-21.18
X-16.237 Y-21.918
X-16.226 Y-22.655
X-16.219 Y-23.393
X-16.214 Y-24.131
X-16.212 Y-24.869
X-16.21 Y-26.344
X-16.209 Y-31.509
Y-36.674
X-16.21 Y-64.708
X-16.204 Y-64.797
X-16.188 Y-64.884
X-16.162 Y-64.969
X-15.845 Y-65.809
X-15.783 Y-65.977
X-15.664 Y-66.312
X-15.605 Y-66.479
X-15.164 Y-67.82
X-15.11 Y-67.988
X-15.057 Y-68.155
X-14.912 Y-68.668
Z5
X-13.981 Y-92.221
Z-2.362
Z-2.68
X-13.987 Y-92.227 Z-2.751
X-14.003 Y-92.243 Z-2.818
X-14.03 Y-92.27 Z-2.878
X-14.065 Y-92.306 Z-2.928
X-14.108 Y-92.349 Z-2.966
X-14.155 Y-92.397 Z-2.99
X-14.204 Y-92.447 Z-2.997
G3 X-14.6 Y-93.126 I1.127 J-1.111
G1 X-14.854 Y-94.156
X-15.022 Y-94.681
X-15.785 Y-96.98
X-15.92 Y-97.468
X-16.041 Y-98.096
X-16.122 Y-98.829
X-16.164 Y-99.566
X-16.186 Y-100.303
X-16.198 Y-101.041
X-16.204 Y-101.779
X-16.207 Y-102.517
X-16.21 Y-103.992
X-16.211 Y-109.895
Y-121.7
X-16.24 Y-122.068
X-16.343 Y-122.422
X-16.523 Y-122.744
X-17.003 Y-123.304
X-17.636 Y-123.682
X-18.334 Y-123.922
X-19.057 Y-124.07
X-19.789 Y-124.16
X-20.525 Y-124.213
X-21.262 Y-124.245
X-22 Y-124.264
X-22.738 Y-124.275
X-23.475 Y-124.281
X-24.213 Y-124.285
X-25.689 Y-124.289
X-28.64 Y-124.291
X-40.445
X-42.254 Y-124.29
X-42.347 Y-124.296
X-42.439 Y-124.314
X-42.527 Y-124.343
X-43.503 Y-124.73
X-44.006 Y-124.896
X-44.843 Y-125.162
X-46.211 Y-125.595
Z5
X-69.736 Y-126.514
Z-2.362
Z-2.68
X-69.741 Y-126.508 Z-2.751
X-69.758 Y-126.492 Z-2.818
X-69.785 Y-126.465 Z-2.878
X-69.821 Y-126.43 Z-2.928
X-69.864 Y-126.388 Z-2.966
X-69.912 Y-126.341 Z-2.99
X-69.963 Y-126.292 Z-2.997
G3 X-70.644 Y-125.9 I-1.105 J-1.133
G1 X-71.146 Y-125.779
X-71.314 Y-125.735
X-71.816 Y-125.579
X-73.827 Y-124.942
X-73.994 Y-124.889
X-74.497 Y-124.722
X-74.704 Y-124.653
X-75.189 Y-124.535
X-75.918 Y-124.418
X-76.653 Y-124.357
X-77.39 Y-124.325
X-78.128 Y-124.308
X-78.866 Y-124.3
X-79.603 Y-124.295
X-80.341 Y-124.292
X-81.817 Y-124.29
X-92.146 Y-124.289
X-98.049
X-98.413 Y-124.233
X-98.759 Y-124.103
X-99.068 Y-123.902
X-99.601 Y-123.392
X-99.957 Y-122.746
X-100.182 Y-122.043
X-100.32 Y-121.318
X-100.403 Y-120.585
X-100.453 Y-119.849
X-100.483 Y-119.112
X-100.5 Y-118.374
X-100.51 Y-117.636
X-100.516 Y-116.898
X-100.52 Y-116.161
X-100.523 Y-114.685
X-100.525 Y-111.734
X-100.524 Y-101.255
X-100.531 Y-101.154
X-100.552 Y-101.054
X-100.586 Y-100.959
X-100.64 Y-100.834
X-101.805 Y-98.081
X-101.845 Y-97.983
G3 X-102.444 Y-98.028 I-0.291 J-0.126
G1 X-102.462 Y-98.096 Z-2.99
X-102.479 Y-98.161 Z-2.966
X-102.494 Y-98.219 Z-2.928
X-102.507 Y-98.268 Z-2.878
X-102.517 Y-98.305 Z-2.818
X-102.523 Y-98.327 Z-2.751
X-102.525 Y-98.335 Z-2.68
Z5
X-102.975 Y-66.982
Z-2.362
Z-2.68
X-102.969 Y-66.977 Z-2.751
X-102.951 Y-66.962 Z-2.818
X-102.922 Y-66.938 Z-2.878
X-102.883 Y-66.906 Z-2.928
X-102.837 Y-66.867 Z-2.966
X-102.785 Y-66.824 Z-2.99
X-102.731 Y-66.779 Z-2.997
G3 X-102.269 Y-66.144 I-1.009 J1.219
G1 X-102.209 Y-65.977
X-102.14 Y-65.79
X-101.638 Y-64.458
X-101.574 Y-64.301
X-101.432 Y-63.966
X-101.074 Y-63.128
X-100.939 Y-62.762
X-100.82 Y-62.342
X-100.699 Y-61.719
X-100.615 Y-60.986
X-100.571 Y-60.249
X-100.548 Y-59.512
X-100.536 Y-58.774
X-100.529 Y-58.036
X-100.526 Y-57.298
X-100.523 Y-55.823
X-100.521 Y-50.658
X-100.52 Y-19.67
X-100.401 Y-19.321
X-100.211 Y-19.004
X-99.722 Y-18.452
X-99.084 Y-18.081
X-98.385 Y-17.844
X-97.662 Y-17.698
X-96.93 Y-17.61
X-96.194 Y-17.557
X-95.457 Y-17.525
X-94.719 Y-17.506
X-93.981 Y-17.495
X-93.244 Y-17.489
X-92.506 Y-17.485
X-91.03 Y-17.481
X-88.079 Y-17.479
X-74.06 Y-17.48
X-73.323 Y-17.475
X-72.778 Y-17.447
X-72.42 Y-17.399
X-72.173 Y-17.346
X-71.931 Y-17.273
X-71.739 Y-17.198
X-71.644 Y-17.152
X-71.483 Y-17.045
X-71.355 Y-16.901
X-71.269 Y-16.728
X-71.23 Y-16.539
X-71.241 Y-16.346
X-71.269 Y-16.203
X-71.299 Y-16.036
X-71.322 Y-15.868
X-71.332 Y-15.701
X-71.329 Y-15.533
X-71.325 Y-15.509
G3 X-71.867 Y-15.251 I-0.316 J0.035
G1 X-71.916 Y-15.301 Z-2.99
X-71.963 Y-15.349 Z-2.966
X-72.006 Y-15.392 Z-2.928
X-72.041 Y-15.428 Z-2.878
X-72.067 Y-15.455 Z-2.818
X-72.084 Y-15.472 Z-2.751
X-72.09 Y-15.477 Z-2.68
Z5
X-46.925 Y-13.46
Z-2.362
Z-2.68
X-46.926 Y-13.468 Z-2.751
X-46.931 Y-13.491 Z-2.818
X-46.937 Y-13.528 Z-2.878
X-46.946 Y-13.577 Z-2.928
X-46.957 Y-13.637 Z-2.966
X-46.968 Y-13.703 Z-2.99
X-46.981 Y-13.772 Z-2.997
G3 X-46.923 Y-14.556 I1.558 J-0.278
G1 X-46.87 Y-14.695
X-46.74 Y-15.072
X-46.737 Y-15.083
X-46.707 Y-15.29
X-46.677 Y-15.437
X-46.623 Y-15.577
X-46.553 Y-15.71
X-46.471 Y-15.835
X-46.37 Y-15.962
X-46.241 Y-16.101
X-46.095 Y-16.234
X-45.902 Y-16.384
X-45.668 Y-16.536
X-45.395 Y-16.685
X-45.034 Y-16.846
X-44.608 Y-16.996
X-44.029 Y-17.148
X-43.303 Y-17.279
X-42.569 Y-17.358
X-41.833 Y-17.407
X-41.096 Y-17.436
X-40.358 Y-17.454
X-39.621 Y-17.465
X-38.883 Y-17.471
X-38.145 Y-17.475
X-36.67 Y-17.479
X-33.718 Y-17.48
X-19.7 Y-17.481
X-19.346 Y-17.587
X-19.025 Y-17.768
X-18.467 Y-18.25
X-18.089 Y-18.884
X-17.848 Y-19.581
X-17.7 Y-20.304
X-17.611 Y-21.037
X-17.557 Y-21.772
X-17.525 Y-22.51
X-17.506 Y-23.247
X-17.495 Y-23.985
X-17.488 Y-24.723
X-17.484 Y-25.46
X-17.481 Y-26.936
X-17.479 Y-29.887
Y-39.479
X-17.48 Y-61.726
X-17.471 Y-61.836
X-17.447 Y-61.943
X-17.407 Y-62.046
X-17.2 Y-62.481
X-17.134 Y-62.625
X-16.489 Y-64.133
X-16.418 Y-64.301
X-16.362 Y-64.439
X-16.162 Y-64.969
G3 X-15.563 Y-64.932 I0.293 J0.122
G1 X-15.544 Y-64.864 Z-2.99
X-15.526 Y-64.8 Z-2.966
X-15.51 Y-64.742 Z-2.928
X-15.496 Y-64.693 Z-2.878
X-15.486 Y-64.657 Z-2.818
X-15.48 Y-64.634 Z-2.751
X-15.478 Y-64.626 Z-2.68
Z5
X-15.097 Y-96.127
Z-2.362
Z-2.68
X-15.103 Y-96.132 Z-2.751
X-15.121 Y-96.147 Z-2.818
X-15.149 Y-96.172 Z-2.878
X-15.187 Y-96.205 Z-2.928
X-15.233 Y-96.244 Z-2.966
X-15.284 Y-96.288 Z-2.99
X-15.337 Y-96.335 Z-2.997
G3 X-15.785 Y-96.98 I1.036 J-1.196
G1 X-15.951 Y-97.483
X-16.148 Y-97.985
X-16.217 Y-98.153
X-16.926 Y-99.829
X-17.069 Y-100.22
X-17.188 Y-100.649
X-17.31 Y-101.286
X-17.39 Y-102.019
X-17.433 Y-102.756
X-17.455 Y-103.493
X-17.467 Y-104.231
X-17.473 Y-104.969
X-17.477 Y-105.707
X-17.48 Y-107.182
X-17.481 Y-112.347
Y-120.463
X-17.519 Y-120.83
X-17.629 Y-121.182
X-17.815 Y-121.501
X-18.304 Y-122.053
X-18.941 Y-122.425
X-19.64 Y-122.66
X-20.364 Y-122.805
X-21.096 Y-122.893
X-21.832 Y-122.945
X-22.569 Y-122.976
X-23.307 Y-122.994
X-24.045 Y-123.005
X-24.782 Y-123.012
X-25.52 Y-123.015
X-26.996 Y-123.019
X-29.947 Y-123.021
X-39.266
X-39.377 Y-123.029
X-39.485 Y-123.054
X-39.588 Y-123.094
X-40.487 Y-123.528
X-40.721 Y-123.626
X-42.527 Y-124.343
G3 X-42.48 Y-124.941 I0.127 J-0.291
G1 X-42.412 Y-124.959 Z-2.99
X-42.347 Y-124.976 Z-2.966
X-42.289 Y-124.991 Z-2.928
X-42.24 Y-125.003 Z-2.878
X-42.203 Y-125.013 Z-2.818
X-42.181 Y-125.019 Z-2.751
X-42.173 Y-125.021 Z-2.68
Z5
X-73.684 Y-125.457
Z-2.362
Z-2.68
X-73.689 Y-125.45 Z-2.751
X-73.703 Y-125.432 Z-2.818
X-73.726 Y-125.402 Z-2.878
X-73.757 Y-125.362 Z-2.928
X-73.794 Y-125.314 Z-2.966
X-73.835 Y-125.261 Z-2.99
X-73.878 Y-125.205 Z-2.997
G3 X-74.497 Y-124.722 I-1.253 J-0.967
G1 X-77.261 Y-123.626
X-77.345 Y-123.591
X-77.768 Y-123.435
X-78.191 Y-123.317
X-78.815 Y-123.195
X-79.548 Y-123.112
X-80.285 Y-123.069
X-81.022 Y-123.046
X-81.76 Y-123.033
X-82.498 Y-123.027
X-83.236 Y-123.024
X-84.711 Y-123.021
X-89.876 Y-123.019
X-96.516
X-96.885 Y-123.01
X-97.246 Y-122.935
X-97.582 Y-122.782
X-97.88 Y-122.563
X-98.389 Y-122.029
X-98.725 Y-121.373
X-98.936 Y-120.666
X-99.065 Y-119.939
X-99.142 Y-119.206
X-99.188 Y-118.469
X-99.216 Y-117.732
X-99.232 Y-116.994
X-99.242 Y-116.256
X-99.247 Y-115.519
X-99.25 Y-114.781
X-99.253 Y-113.305
X-99.255 Y-109.616
Y-103.751
X-99.264 Y-103.634
X-99.291 Y-103.52
X-99.337 Y-103.412
X-100.49 Y-101.17
X-100.567 Y-101.002
X-100.586 Y-100.959
G3 X-101.182 Y-101.026 I-0.286 J-0.137
G1 X-101.198 Y-101.095 Z-2.99
X-101.213 Y-101.16 Z-2.966
X-101.226 Y-101.219 Z-2.928
X-101.237 Y-101.268 Z-2.878
X-101.245 Y-101.305 Z-2.818
X-101.25 Y-101.328 Z-2.751
X-101.252 Y-101.336 Z-2.68
Z5
X-76.552 Y-124.347
Z-2.362
Z-2.68
X-76.556 Y-124.341 Z-2.751
X-76.57 Y-124.322 Z-2.818
X-76.593 Y-124.291 Z-2.878
X-76.622 Y-124.251 Z-2.928
X-76.658 Y-124.202 Z-2.966
X-76.697 Y-124.148 Z-2.99
X-76.739 Y-124.091 Z-2.997
G3 X-77.345 Y-123.591 I-1.278 J-0.933
G1 X-77.513 Y-123.52
X-79.858 Y-122.389
X-80.218 Y-122.238
X-80.575 Y-122.12
X-81.077 Y-121.998
X-81.806 Y-121.881
X-82.541 Y-121.82
X-83.278 Y-121.787
X-84.016 Y-121.77
X-84.753 Y-121.76
X-85.491 Y-121.755
X-86.229 Y-121.753
X-87.705 Y-121.75
X-95.083 Y-121.749
X-95.821 Y-121.748
X-96.167 Y-121.622
X-96.48 Y-121.427
X-97.026 Y-120.93
X-97.392 Y-120.289
X-97.625 Y-119.589
X-97.769 Y-118.866
X-97.856 Y-118.133
X-97.909 Y-117.397
X-97.94 Y-116.66
X-97.958 Y-115.922
X-97.969 Y-115.185
X-97.976 Y-114.447
X-97.98 Y-113.709
X-97.983 Y-112.233
X-97.985 Y-109.282
Y-105.925
X-97.997 Y-105.791
X-98.033 Y-105.662
X-98.092 Y-105.541
X-98.913 Y-104.186
X-98.957 Y-104.111
X-99.193 Y-103.683
X-99.292 Y-103.498
X-99.337 Y-103.412
G3 X-99.927 Y-103.517 I-0.277 J-0.155
G1 X-99.938 Y-103.587 Z-2.99
X-99.949 Y-103.653 Z-2.966
X-99.958 Y-103.713 Z-2.928
X-99.966 Y-103.763 Z-2.878
X-99.972 Y-103.8 Z-2.818
X-99.976 Y-103.823 Z-2.751
X-99.977 Y-103.831 Z-2.68
Z5
X-79.1 Y-123.181
Z-2.362
Z-2.68
X-79.105 Y-123.174 Z-2.751
X-79.118 Y-123.154 Z-2.818
X-79.138 Y-123.123 Z-2.878
X-79.166 Y-123.081 Z-2.928
X-79.199 Y-123.031 Z-2.966
X-79.236 Y-122.975 Z-2.99
X-79.276 Y-122.916 Z-2.997
G3 X-79.858 Y-122.389 I-1.319 J-0.874
G1 X-80.026 Y-122.309
X-80.528 Y-122.052
X-80.712 Y-121.95
X-82.036 Y-121.19
X-82.254 Y-121.079
X-82.537 Y-120.962
X-82.91 Y-120.842
X-83.44 Y-120.718
X-84.169 Y-120.608
X-84.905 Y-120.549
X-85.642 Y-120.517
X-86.379 Y-120.5
X-87.117 Y-120.491
X-87.855 Y-120.486
X-88.593 Y-120.483
X-90.068 Y-120.48
X-94.495 Y-120.479
X-94.848 Y-120.371
X-95.168 Y-120.188
X-95.727 Y-119.706
X-96.104 Y-119.072
X-96.344 Y-118.374
X-96.492 Y-117.651
X-96.582 Y-116.919
X-96.636 Y-116.183
X-96.668 Y-115.446
X-96.687 Y-114.708
X-96.699 Y-113.971
X-96.705 Y-113.233
X-96.709 Y-112.495
X-96.713 Y-111.019
X-96.715 Y-107.885
X-96.73 Y-107.734
X-96.776 Y-107.589
X-96.851 Y-107.457
X-97.149 Y-107.035
X-97.265 Y-106.868
X-97.592 Y-106.365
X-98.092 Y-105.541
G3 X-98.674 Y-105.687 I-0.266 J-0.174
G1 X-98.68 Y-105.757 Z-2.99
X-98.686 Y-105.824 Z-2.966
X-98.691 Y-105.884 Z-2.928
X-98.696 Y-105.934 Z-2.878
X-98.699 Y-105.972 Z-2.818
X-98.701 Y-105.995 Z-2.751
X-98.702 Y-106.003 Z-2.68
Z5
X-81.337 Y-122.034
Z-2.362
Z-2.68
X-81.341 Y-122.027 Z-2.751
X-81.353 Y-122.006 Z-2.818
X-81.371 Y-121.973 Z-2.878
X-81.396 Y-121.93 Z-2.928
X-81.425 Y-121.877 Z-2.966
X-81.458 Y-121.819 Z-2.99
X-81.493 Y-121.757 Z-2.997
G3 X-82.036 Y-121.19 I-1.379 J-0.777
G1 X-82.754 Y-120.777
X-83.328 Y-120.442
X-83.376 Y-120.412
X-83.879 Y-120.073
X-84.133 Y-119.919
X-84.363 Y-119.804
X-84.654 Y-119.687
X-85.048 Y-119.564
X-85.604 Y-119.438
X-86.334 Y-119.333
X-87.07 Y-119.277
X-87.807 Y-119.246
X-88.545 Y-119.23
X-89.283 Y-119.22
X-90.02 Y-119.215
X-90.758 Y-119.213
X-92.234 Y-119.21
X-92.972
X-93.337 Y-119.162
X-93.683 Y-119.033
X-93.993 Y-118.832
X-94.526 Y-118.322
X-94.881 Y-117.676
X-95.105 Y-116.973
X-95.242 Y-116.248
X-95.325 Y-115.514
X-95.374 Y-114.778
X-95.403 Y-114.041
X-95.42 Y-113.303
X-95.43 Y-112.566
X-95.436 Y-111.828
X-95.44 Y-111.09
X-95.443 Y-109.679
X-95.46 Y-109.522
X-95.51 Y-109.372
X-95.592 Y-109.235
X-95.608 Y-109.214
X-96.851 Y-107.457
G3 X-97.421 Y-107.644 I-0.253 J-0.192
G1 X-97.422 Y-107.715 Z-2.99
X-97.423 Y-107.782 Z-2.966
X-97.424 Y-107.842 Z-2.928
X-97.425 Y-107.892 Z-2.878
X-97.426 Y-107.93 Z-2.818
Y-107.953 Z-2.751
Y-107.961 Z-2.68
Z5
X-83.243 Y-120.965
Z-2.362
Z-2.68
X-83.246 Y-120.958 Z-2.751
X-83.256 Y-120.937 Z-2.818
X-83.273 Y-120.902 Z-2.878
X-83.294 Y-120.857 Z-2.928
X-83.32 Y-120.802 Z-2.966
X-83.348 Y-120.742 Z-2.99
X-83.378 Y-120.678 Z-2.997
G3 X-83.879 Y-120.073 I-1.432 J-0.675
G1 X-85.566 Y-118.934
X-85.722 Y-118.826
X-85.973 Y-118.672
X-86.198 Y-118.557
X-86.492 Y-118.435
X-86.876 Y-118.312
X-87.417 Y-118.185
X-88.147 Y-118.074
X-88.882 Y-118.014
X-89.619 Y-117.98
X-90.357 Y-117.962
X-91.094 Y-117.952
X-91.832 Y-117.946
X-92.192 Y-117.865
X-92.525 Y-117.706
X-93.114 Y-117.262
X-93.517 Y-116.644
X-93.775 Y-115.952
X-93.934 Y-115.232
X-94.031 Y-114.501
X-94.09 Y-113.765
X-94.124 Y-113.028
X-94.145 Y-112.291
X-94.157 Y-111.553
X-94.16 Y-111.253
X-94.181 Y-111.087
X-94.238 Y-110.93
X-94.328 Y-110.79
X-95.272 Y-109.64
X-95.482 Y-109.381
X-95.592 Y-109.235
G3 X-96.156 Y-109.438 I-0.247 J-0.199
G1 X-96.155 Y-109.509 Z-2.99
X-96.154 Y-109.576 Z-2.966
Y-109.636 Z-2.928
X-96.153 Y-109.687 Z-2.878
Y-109.725 Z-2.818
Y-109.748 Z-2.751
X-96.152 Y-109.756 Z-2.68
Z5
X-85.093 Y-119.724
Z-2.362
Z-2.68
X-85.097 Y-119.717 Z-2.751
X-85.107 Y-119.696 Z-2.818
X-85.122 Y-119.661 Z-2.878
X-85.143 Y-119.616 Z-2.928
X-85.169 Y-119.561 Z-2.966
X-85.197 Y-119.5 Z-2.99
X-85.226 Y-119.436 Z-2.997
G3 X-85.722 Y-118.826 I-1.437 J-0.663
G1 X-86.057 Y-118.596
X-86.225 Y-118.471
X-87.23 Y-117.68
X-87.473 Y-117.508
X-87.666 Y-117.393
X-87.907 Y-117.274
X-88.226 Y-117.149
X-88.641 Y-117.023
X-89.237 Y-116.893
X-89.968 Y-116.794
X-90.704 Y-116.739
X-91.054 Y-116.622
X-91.371 Y-116.433
X-91.923 Y-115.943
X-92.297 Y-115.308
X-92.536 Y-114.609
X-92.683 Y-113.886
X-92.773 Y-113.154
X-92.799 Y-112.793
X-92.83 Y-112.627
X-92.899 Y-112.473
X-93 Y-112.337
G3 X-93.538 Y-112.604 I-0.223 J-0.226
G1 X-93.529 Y-112.674 Z-2.99
X-93.52 Y-112.741 Z-2.966
X-93.513 Y-112.8 Z-2.928
X-93.507 Y-112.85 Z-2.878
X-93.502 Y-112.888 Z-2.818
X-93.499 Y-112.911 Z-2.751
X-93.498 Y-112.919 Z-2.68
Z5
X-86.66 Y-118.616
Z-2.362
Z-2.68
X-86.663 Y-118.609 Z-2.751
X-86.672 Y-118.587 Z-2.818
X-86.685 Y-118.552 Z-2.878
X-86.703 Y-118.505 Z-2.928
X-86.725 Y-118.448 Z-2.966
X-86.749 Y-118.386 Z-2.99
X-86.774 Y-118.32 Z-2.997
G3 X-87.23 Y-117.68 I-1.477 J-0.569
G1 X-88.235 Y-116.889
X-88.403 Y-116.754
X-88.804 Y-116.42
X-88.962 Y-116.3
X-89.14 Y-116.185
X-89.791 Y-115.838
X-90.38 Y-115.394
X-90.818 Y-114.801
X-90.918 Y-114.578
X-90.962 Y-114.494
X-91.018 Y-114.417
X-91.083 Y-114.349
G3 X-91.533 Y-114.366 I-0.216 J-0.232
X-91.513 Y-114.816 I0.234 J-0.215
G1 X-89.231 Y-116.89
G3 X-88.782 Y-116.869 I0.214 J0.235
X-88.804 Y-116.42 I-0.235 J0.213
G1 X-88.905 Y-116.335
X-91.083 Y-114.349
X-91.191 Y-114.241
X-91.353 Y-114.074
X-93.261 Y-112.063
X-93.419 Y-111.895
X-93.972 Y-111.225
X-94.328 Y-110.79
G3 X-94.884 Y-111.017 I-0.238 J-0.21
G1 X-94.88 Y-111.088 Z-2.99
X-94.876 Y-111.155 Z-2.966
X-94.873 Y-111.215 Z-2.928
X-94.87 Y-111.265 Z-2.878
X-94.868 Y-111.303 Z-2.818
X-94.867 Y-111.326 Z-2.751
X-94.866 Y-111.334 Z-2.68
Z5
X-101.83 Y-63.921
Z-2.362
Z-2.68
X-101.824 Y-63.916 Z-2.751
X-101.805 Y-63.902 Z-2.818
X-101.774 Y-63.88 Z-2.878
X-101.733 Y-63.85 Z-2.928
X-101.685 Y-63.815 Z-2.966
X-101.631 Y-63.775 Z-2.99
X-101.573 Y-63.733 Z-2.997
G3 X-101.074 Y-63.128 I-0.933 J1.279
G1 X-100.859 Y-62.625
X-100.8 Y-62.496
X-100.381 Y-61.619
X-99.978 Y-60.781
X-99.963 Y-60.749
X-99.891 Y-60.614
X-99.797 Y-60.415
X-99.681 Y-60.106
X-99.561 Y-59.688
X-99.438 Y-59.075
X-99.351 Y-58.342
X-99.305 Y-57.606
X-99.28 Y-56.869
X-99.267 Y-56.131
X-99.26 Y-55.393
X-99.256 Y-54.655
X-99.253 Y-53.18
X-99.251 Y-48.753
X-99.25 Y-21.454
X-99.24 Y-21.085
X-99.161 Y-20.725
X-99.001 Y-20.392
X-98.554 Y-19.805
X-97.935 Y-19.404
X-97.243 Y-19.148
X-96.523 Y-18.989
X-95.791 Y-18.892
X-95.056 Y-18.834
X-94.319 Y-18.8
X-93.581 Y-18.779
X-92.843 Y-18.767
X-92.105 Y-18.76
X-91.368 Y-18.755
X-90.63 Y-18.753
X-89.154 Y-18.751
X-83.99 Y-18.749
X-75.136 Y-18.75
X-74.398 Y-18.748
X-73.66 Y-18.736
X-73.027 Y-18.695
X-72.551 Y-18.625
X-72.2 Y-18.544
X-71.916 Y-18.454
X-71.694 Y-18.364
X-71.492 Y-18.262
X-71.329 Y-18.163
X-71.262 Y-18.115
X-71.1 Y-17.953
X-70.995 Y-17.75
X-70.956 Y-17.525
X-70.988 Y-17.299
X-71.016 Y-17.209
X-71.065 Y-17.041
X-71.162 Y-16.706
X-71.204 Y-16.539
X-71.241 Y-16.346
G3 X-71.838 Y-16.281 I-0.31 J-0.071
G1 X-71.868 Y-16.344 Z-2.99
X-71.897 Y-16.405 Z-2.966
X-71.923 Y-16.459 Z-2.928
X-71.944 Y-16.505 Z-2.878
X-71.96 Y-16.539 Z-2.818
X-71.97 Y-16.56 Z-2.751
X-71.974 Y-16.567 Z-2.68
Z5
X-46.476 Y-14.219
Z-2.362
Z-2.68
X-46.479 Y-14.226 Z-2.751
X-46.488 Y-14.248 Z-2.818
X-46.502 Y-14.283 Z-2.878
X-46.521 Y-14.329 Z-2.928
X-46.544 Y-14.385 Z-2.966
X-46.57 Y-14.447 Z-2.99
X-46.597 Y-14.512 Z-2.997
G3 X-46.707 Y-15.29 I1.463 J-0.603
G1 X-46.671 Y-15.533
X-46.667 Y-15.701
X-46.677 Y-15.868
X-46.686 Y-15.931
X-46.699 Y-16.081
X-46.683 Y-16.23
X-46.646 Y-16.375
X-46.594 Y-16.516
X-46.529 Y-16.651
X-46.448 Y-16.786
X-46.341 Y-16.937
X-46.218 Y-17.085
X-46.053 Y-17.252
X-45.872 Y-17.409
X-45.63 Y-17.586
X-45.356 Y-17.755
X-45.005 Y-17.934
X-44.588 Y-18.107
X-44.047 Y-18.281
X-43.343 Y-18.447
X-42.613 Y-18.558
X-41.879 Y-18.629
X-41.142 Y-18.675
X-40.405 Y-18.704
X-39.667 Y-18.722
X-38.93 Y-18.733
X-38.192 Y-18.74
X-37.454 Y-18.744
X-36.716 Y-18.747
X-35.241 Y-18.749
X-30.814 Y-18.75
X-21.222 Y-18.751
X-20.856 Y-18.798
X-20.51 Y-18.926
X-20.2 Y-19.126
X-19.667 Y-19.636
X-19.311 Y-20.283
X-19.088 Y-20.986
X-18.951 Y-21.711
X-18.869 Y-22.444
X-18.82 Y-23.18
X-18.79 Y-23.917
X-18.773 Y-24.655
X-18.763 Y-25.393
X-18.757 Y-26.13
X-18.754 Y-26.868
X-18.75 Y-28.344
X-18.749 Y-32.033
Y-41.624
Y-59.214
X-18.74 Y-59.334
X-18.71 Y-59.452
X-18.662 Y-59.563
X-18.037 Y-60.734
X-17.87 Y-61.08
X-17.407 Y-62.046
G3 X-16.814 Y-61.958 I0.282 J0.147
G1 X-16.801 Y-61.889 Z-2.99
X-16.788 Y-61.823 Z-2.966
X-16.777 Y-61.764 Z-2.928
X-16.767 Y-61.714 Z-2.878
X-16.76 Y-61.677 Z-2.818
X-16.756 Y-61.654 Z-2.751
X-16.755 Y-61.646 Z-2.68
Z5
X-16.173 Y-99.033
Z-2.362
Z-2.68
X-16.18 Y-99.038 Z-2.751
X-16.199 Y-99.052 Z-2.818
X-16.229 Y-99.074 Z-2.878
X-16.269 Y-99.104 Z-2.928
X-16.318 Y-99.14 Z-2.966
X-16.372 Y-99.179 Z-2.99
X-16.429 Y-99.221 Z-2.997
G3 X-16.926 Y-99.829 I0.938 J-1.275
G1 X-17.352 Y-100.834
X-17.426 Y-101.002
X-17.502 Y-101.17
X-18.105 Y-102.343
X-18.226 Y-102.609
X-18.343 Y-102.934
X-18.463 Y-103.379
X-18.587 Y-104.043
X-18.663 Y-104.777
X-18.704 Y-105.513
X-18.726 Y-106.251
X-18.737 Y-106.989
X-18.744 Y-107.727
X-18.747 Y-108.464
X-18.75 Y-109.94
X-18.751 Y-115.105
Y-119.532
X-18.861 Y-119.884
X-19.044 Y-120.204
X-19.526 Y-120.762
X-20.16 Y-121.14
X-20.858 Y-121.38
X-21.58 Y-121.529
X-22.313 Y-121.618
X-23.049 Y-121.672
X-23.786 Y-121.704
X-24.523 Y-121.723
X-25.261 Y-121.735
X-25.999 Y-121.741
X-26.737 Y-121.745
X-28.212 Y-121.749
X-31.163 Y-121.75
X-36.729 Y-121.751
X-36.857 Y-121.762
X-36.981 Y-121.795
X-37.098 Y-121.849
X-37.304 Y-121.968
X-37.472 Y-122.06
X-37.974 Y-122.316
X-39.588 Y-123.094
G3 X-39.498 Y-123.687 I0.148 J-0.281
G1 X-39.429 Y-123.7 Z-2.99
X-39.363 Y-123.712 Z-2.966
X-39.303 Y-123.723 Z-2.928
X-39.254 Y-123.733 Z-2.878
X-39.217 Y-123.739 Z-2.818
X-39.194 Y-123.744 Z-2.751
X-39.186 Y-123.745 Z-2.68
Z5
X-17.295 Y-101.605
Z-2.362
Z-2.68
X-17.301 Y-101.61 Z-2.751
X-17.321 Y-101.622 Z-2.818
X-17.353 Y-101.642 Z-2.878
X-17.396 Y-101.669 Z-2.928
X-17.447 Y-101.701 Z-2.966
X-17.504 Y-101.736 Z-2.99
X-17.564 Y-101.774 Z-2.997
G3 X-18.105 Y-102.343 I0.84 J-1.342
G1 X-18.709 Y-103.516
X-18.799 Y-103.683
X-19.043 Y-104.126
X-19.282 Y-104.521
X-19.39 Y-104.721
X-19.505 Y-104.982
X-19.623 Y-105.323
X-19.746 Y-105.797
X-19.872 Y-106.513
X-19.94 Y-107.248
X-19.977 Y-107.985
X-19.997 Y-108.722
X-20.008 Y-109.46
X-20.014 Y-110.198
X-20.017 Y-110.936
X-20.02 Y-112.411
X-20.021 Y-117.576
Y-118.314
X-20.139 Y-118.663
X-20.331 Y-118.978
X-20.828 Y-119.524
X-21.468 Y-119.891
X-22.168 Y-120.123
X-22.892 Y-120.267
X-23.625 Y-120.353
X-24.361 Y-120.405
X-25.098 Y-120.436
X-25.836 Y-120.454
X-26.573 Y-120.465
X-27.311 Y-120.472
X-28.049 Y-120.475
X-29.525 Y-120.479
X-32.476 Y-120.48
X-34.523 Y-120.481
X-34.653 Y-120.492
X-34.779 Y-120.526
X-34.897 Y-120.582
X-35.232 Y-120.777
X-37.098 Y-121.849
G3 X-36.965 Y-122.434 I0.168 J-0.27
G1 X-36.895 Y-122.442 Z-2.99
X-36.828 Y-122.45 Z-2.966
X-36.769 Y-122.456 Z-2.928
X-36.719 Y-122.462 Z-2.878
X-36.681 Y-122.466 Z-2.818
X-36.658 Y-122.469 Z-2.751
X-36.65 Y-122.47 Z-2.68
Z5
X-18.422 Y-103.842
Z-2.362
Z-2.68
X-18.429 Y-103.846 Z-2.751
X-18.45 Y-103.857 Z-2.818
X-18.483 Y-103.875 Z-2.878
X-18.527 Y-103.899 Z-2.928
X-18.581 Y-103.927 Z-2.966
X-18.64 Y-103.958 Z-2.99
X-18.702 Y-103.992 Z-2.997
G3 X-19.282 Y-104.521 I0.744 J-1.397
G1 X-20.4 Y-106.365
X-20.509 Y-106.532
X-20.608 Y-106.704
X-20.722 Y-106.942
X-20.842 Y-107.257
X-20.964 Y-107.675
X-21.091 Y-108.285
X-21.182 Y-109.017
X-21.231 Y-109.754
X-21.258 Y-110.491
X-21.273 Y-111.229
X-21.281 Y-111.966
X-21.286 Y-112.704
X-21.288 Y-113.442
X-21.29 Y-114.918
X-21.291 Y-116.762
X-21.342 Y-117.127
X-21.476 Y-117.471
X-21.68 Y-117.778
X-22.196 Y-118.306
X-22.845 Y-118.656
X-23.549 Y-118.877
X-24.275 Y-119.012
X-25.008 Y-119.093
X-25.744 Y-119.141
X-26.482 Y-119.17
X-27.219 Y-119.186
X-27.957 Y-119.196
X-28.695 Y-119.202
X-29.433 Y-119.206
X-30.908 Y-119.209
X-32.605 Y-119.21
X-32.75 Y-119.225
X-32.89 Y-119.267
X-33.019 Y-119.337
X-34.624 Y-120.42
X-34.657 Y-120.442
X-34.897 Y-120.582
G3 X-34.76 Y-121.166 I0.17 J-0.268
G1 X-34.69 Y-121.173 Z-2.99
X-34.623 Y-121.18 Z-2.966
X-34.563 Y-121.187 Z-2.928
X-34.513 Y-121.192 Z-2.878
X-34.475 Y-121.196 Z-2.818
X-34.452 Y-121.198 Z-2.751
X-34.444 Y-121.199 Z-2.68
Z5
X-19.628 Y-105.88
Z-2.362
Z-2.68
X-19.635 Y-105.884 Z-2.751
X-19.656 Y-105.894 Z-2.818
X-19.69 Y-105.911 Z-2.878
X-19.735 Y-105.933 Z-2.928
X-19.789 Y-105.96 Z-2.966
X-19.849 Y-105.989 Z-2.99
X-19.913 Y-106.021 Z-2.997
G3 X-20.509 Y-106.532 I0.701 J-1.419
G1 X-20.726 Y-106.868
X-20.886 Y-107.096
X-21.672 Y-108.208
X-21.809 Y-108.424
X-21.922 Y-108.639
X-22.043 Y-108.919
X-22.167 Y-109.288
X-22.294 Y-109.8
X-22.415 Y-110.528
X-22.48 Y-111.263
X-22.516 Y-112
X-22.536 Y-112.737
X-22.547 Y-113.475
X-22.553 Y-114.213
X-22.557 Y-114.951
X-22.559 Y-115.688
X-22.661 Y-116.043
X-22.838 Y-116.367
X-23.309 Y-116.934
X-23.939 Y-117.318
X-24.635 Y-117.563
X-25.357 Y-117.714
X-26.09 Y-117.806
X-26.825 Y-117.861
X-27.562 Y-117.893
X-28.3 Y-117.913
X-29.038 Y-117.924
X-29.775 Y-117.931
X-30.83 Y-117.936
X-30.993 Y-117.955
X-31.147 Y-118.008
X-31.286 Y-118.095
X-31.775 Y-118.48
X-31.943 Y-118.605
X-32.446 Y-118.95
X-33.019 Y-119.337
G3 X-32.845 Y-119.911 I0.187 J-0.257
G1 X-32.774 Y-119.914 Z-2.99
X-32.707 Y-119.916 Z-2.966
X-32.647 Y-119.919 Z-2.928
X-32.597 Y-119.921 Z-2.878
X-32.559 Y-119.922 Z-2.818
X-32.535 Y-119.923 Z-2.751
X-32.528 Z-2.68
Z5
X-20.766 Y-107.592
Z-2.362
Z-2.68
X-20.774 Y-107.595 Z-2.751
X-20.795 Y-107.604 Z-2.818
X-20.83 Y-107.62 Z-2.878
X-20.876 Y-107.64 Z-2.928
X-20.931 Y-107.665 Z-2.966
X-20.992 Y-107.692 Z-2.99
X-21.056 Y-107.721 Z-2.997
G3 X-21.672 Y-108.208 I0.644 J-1.446
G1 X-22.393 Y-109.227
X-22.509 Y-109.381
X-22.782 Y-109.717
X-22.896 Y-109.856
X-22.985 Y-109.976
X-23.096 Y-110.159
X-23.214 Y-110.395
X-23.338 Y-110.702
X-23.465 Y-111.105
X-23.594 Y-111.673
X-23.699 Y-112.403
X-23.758 Y-113.139
X-23.79 Y-113.876
X-23.799 Y-114.245
X-23.861 Y-114.608
X-24.003 Y-114.949
X-24.213 Y-115.252
X-24.734 Y-115.775
X-25.385 Y-116.122
X-26.09 Y-116.34
X-26.816 Y-116.473
X-27.549 Y-116.553
X-28.285 Y-116.601
X-29.022 Y-116.63
X-29.192 Y-116.633
X-29.351 Y-116.655
X-29.503 Y-116.71
X-29.639 Y-116.796
X-29.797 Y-116.923
X-31.286 Y-118.095
G3 X-31.07 Y-118.654 I0.205 J-0.243
G1 X-31 Y-118.652 Z-2.99
X-30.933 Y-118.65 Z-2.966
X-30.873 Y-118.648 Z-2.928
X-30.822 Y-118.646 Z-2.878
X-30.784 Y-118.645 Z-2.818
X-30.761 Y-118.644 Z-2.751
X-30.753 Z-2.68
Z5
X-21.948 Y-109.305
Z-2.362
Z-2.68
X-21.956 Y-109.308 Z-2.751
X-21.978 Y-109.316 Z-2.818
X-22.014 Y-109.329 Z-2.878
X-22.061 Y-109.346 Z-2.928
X-22.117 Y-109.366 Z-2.966
X-22.181 Y-109.389 Z-2.99
X-22.247 Y-109.413 Z-2.997
G3 X-22.896 Y-109.856 I0.539 J-1.488
G1 X-24.069 Y-111.285
X-24.218 Y-111.487
X-24.336 Y-111.675
X-24.456 Y-111.908
X-24.58 Y-112.205
X-24.709 Y-112.598
X-24.882 Y-113.316
X-25.044 Y-113.647
X-25.479 Y-114.243
X-26.082 Y-114.669
X-26.764 Y-114.949
X-27.48 Y-115.126
X-27.591 Y-115.143
X-27.732 Y-115.179
X-27.864 Y-115.241
X-27.981 Y-115.328
G3 X-27.725 Y-115.871 I0.222 J-0.227
G1 X-27.655 Y-115.863 Z-2.99
X-27.588 Y-115.856 Z-2.966
X-27.528 Y-115.85 Z-2.928
X-27.478 Y-115.845 Z-2.878
X-27.441 Y-115.84 Z-2.818
X-27.417 Y-115.838 Z-2.751
X-27.409 Y-115.837 Z-2.68
Z5
X-23.121 Y-110.736
Z-2.362
Z-2.68
X-23.128 Y-110.738 Z-2.751
X-23.15 Y-110.746 Z-2.818
X-23.186 Y-110.759 Z-2.878
X-23.233 Y-110.776 Z-2.928
X-23.29 Y-110.797 Z-2.966
X-23.353 Y-110.819 Z-2.99
X-23.419 Y-110.843 Z-2.997
G3 X-24.069 Y-111.285 I0.537 J-1.489
G1 X-24.572 Y-111.895
X-24.906 Y-112.249
X-26.637 Y-114.074
X-26.8 Y-114.241
X-26.917 Y-114.358
X-29.095 Y-116.344
X-29.262 Y-116.485
X-29.62 Y-116.782
X-29.639 Y-116.796
G3 X-29.418 Y-117.354 I0.207 J-0.24
G1 X-29.347 Y-117.351 Z-2.99
X-29.28 Y-117.348 Z-2.966
X-29.22 Y-117.345 Z-2.928
X-29.17 Y-117.343 Z-2.878
X-29.132 Y-117.342 Z-2.818
X-29.108 Y-117.341 Z-2.751
X-29.1 Y-117.34 Z-2.68
Z5
X-100.712 Y-61.339
Z-2.362
Z-2.68
X-100.705 Y-61.335 Z-2.751
X-100.685 Y-61.323 Z-2.818
X-100.653 Y-61.303 Z-2.878
X-100.61 Y-61.277 Z-2.928
X-100.558 Y-61.246 Z-2.966
X-100.501 Y-61.211 Z-2.99
X-100.44 Y-61.175 Z-2.997
G3 X-99.891 Y-60.614 I-0.82 J1.353
G1 X-99.175 Y-59.273
X-99.082 Y-59.106
X-98.892 Y-58.77
X-98.79 Y-58.595
X-98.696 Y-58.435
X-98.596 Y-58.246
X-98.482 Y-57.978
X-98.361 Y-57.617
X-98.239 Y-57.12
X-98.12 Y-56.391
X-98.056 Y-55.656
X-98.022 Y-54.919
X-98.004 Y-54.182
X-97.993 Y-53.444
X-97.988 Y-52.706
X-97.985 Y-51.968
X-97.982 Y-50.493
X-97.981 Y-44.59
X-97.98 Y-22.456
X-97.923 Y-22.091
X-97.785 Y-21.749
X-97.578 Y-21.444
X-97.061 Y-20.918
X-96.41 Y-20.57
X-95.705 Y-20.352
X-94.98 Y-20.218
X-94.246 Y-20.137
X-93.51 Y-20.089
X-92.773 Y-20.061
X-92.035 Y-20.044
X-91.297 Y-20.034
X-90.56 Y-20.028
X-89.822 Y-20.024
X-88.346 Y-20.021
X-84.657 Y-20.019
X-77.067 Y-20.02
X-76.886 Y-19.997
X-76.716 Y-19.931
X-76.568 Y-19.826
X-76.507 Y-19.771
X-76.452 Y-19.723
X-76.131 Y-19.509
X-75.67 Y-19.322
X-75.502 Y-19.265
X-75.355 Y-19.22
X-75.335 Y-19.216
X-75.167 Y-19.186
X-75 Y-19.179
X-74.665 Y-19.176
X-74.497 Y-19.197
X-74.33 Y-19.225
X-74.162 Y-19.257
X-73.994 Y-19.296
X-73.62 Y-19.388
X-73.492 Y-19.424
X-73.203 Y-19.495
X-72.977 Y-19.531
X-72.734 Y-19.551
X-72.478
X-72.213 Y-19.53
X-71.95 Y-19.487
X-71.719 Y-19.43
X-71.5 Y-19.357
X-71.305 Y-19.275
X-71.149 Y-19.193
X-70.987 Y-19.091
X-70.847 Y-18.986
X-70.822 Y-18.964
X-70.696 Y-18.82
X-70.611 Y-18.649
X-70.573 Y-18.462
X-70.584 Y-18.271
X-70.644 Y-18.089
G3 X-71.033 Y-17.937 I-0.282 J-0.147
G1 X-71.343 Y-18.049
X-73.497 Y-18.824
X-73.498
G3 X-73.492 Y-19.424 I0.107 J-0.299
G1 X-73.324 Y-19.474
X-73.077 Y-19.555
X-72.989 Y-19.589
X-72.822 Y-19.66
X-72.654 Y-19.74
X-72.487 Y-19.827
X-72.319 Y-19.917
X-72.183 Y-19.98
X-72.042 Y-20.03
X-71.896 Y-20.064
X-71.747 Y-20.085
X-71.597 Y-20.092
X-71.439 Y-20.087
X-71.283 Y-20.069
X-71.136 Y-20.041
X-70.981 Y-19.997
X-70.84 Y-19.945
X-70.705 Y-19.881
X-70.575 Y-19.806
X-70.541 Y-19.783
X-70.4 Y-19.655
X-70.297 Y-19.497
X-70.236 Y-19.317
X-70.224 Y-19.127
X-70.26 Y-18.941
G3 X-70.668 Y-18.753 I-0.298 J-0.11
G1 X-70.937 Y-18.853
X-72.206 Y-19.321
X-72.269 Y-19.344
G3 X-72.319 Y-19.917 I0.11 J-0.298
G1 X-72.152 Y-20.005
X-71.984 Y-20.072
X-71.649 Y-20.198
X-71.481 Y-20.261
X-71.314 Y-20.323
X-71.23 Y-20.35
X-71.146 Y-20.361
X-70.979 Y-20.375
X-70.895 Y-20.38
X-70.853 Y-20.376
X-70.811 Y-20.366
X-70.644 Y-20.316
X-70.607 Y-20.3
X-70.57 Y-20.278
X-70.394 Y-20.153
X-70.369 Y-20.129
X-70.348 Y-20.105
X-70.309 Y-20.052
X-70.199 Y-19.89
X-70.18 Y-19.848
X-70.144 Y-19.723
X-70.123 Y-19.634
X-70.12 Y-19.595
X-70.123 Y-19.555
X-70.141 Y-19.337
X-70.149 Y-19.279
X-70.165 Y-19.22
X-70.223 Y-19.052
X-70.279 Y-18.885
X-70.309 Y-18.81
X-70.356 Y-18.717
X-70.436 Y-18.55
X-70.584 Y-18.215
X-70.824 Y-17.712
X-70.896 Y-17.544
X-70.965 Y-17.377
X-70.988 Y-17.299
G3 X-71.588 Y-17.297 I-0.3 J-0.103
G1 X-71.612 Y-17.364 Z-2.99
X-71.634 Y-17.427 Z-2.966
X-71.654 Y-17.484 Z-2.928
X-71.67 Y-17.531 Z-2.878
X-71.683 Y-17.567 Z-2.818
X-71.691 Y-17.589 Z-2.751
X-71.693 Y-17.597 Z-2.68
Z5
X-46.165 Y-14.967
Z-2.362
Z-2.68
X-46.17 Y-14.974 Z-2.751
X-46.185 Y-14.992 Z-2.818
X-46.208 Y-15.022 Z-2.878
X-46.24 Y-15.061 Z-2.928
X-46.277 Y-15.108 Z-2.966
X-46.319 Y-15.16 Z-2.99
X-46.363 Y-15.215 Z-2.997
G3 X-46.686 Y-15.931 I1.236 J-0.988
G1 X-46.701 Y-16.036
X-46.731 Y-16.203
X-46.795 Y-16.539
X-46.819 Y-16.631
X-46.849 Y-16.778
X-46.855 Y-16.928
X-46.841 Y-17.077
X-46.812 Y-17.224
X-46.767 Y-17.367
X-46.711 Y-17.507
X-46.631 Y-17.665
X-46.536 Y-17.822
X-46.408 Y-18
X-46.261 Y-18.172
X-46.068 Y-18.364
X-45.852 Y-18.548
X-45.568 Y-18.753
X-45.252 Y-18.944
X-44.836 Y-19.152
X-44.518 Y-19.279
X-44.369 Y-19.322
X-44.214 Y-19.332
X-44.06 Y-19.31
G3 X-43.928 Y-18.777 I-0.089 J0.305
G1 X-44.015 Y-18.692
X-46.198 Y-16.584
X-46.294 Y-16.492
G3 X-46.819 Y-16.631 I-0.221 J-0.228
G1 X-46.838 Y-16.706
X-46.986 Y-17.209
X-47.037 Y-17.377
X-47.048 Y-17.404
X-47.097 Y-17.546
X-47.115 Y-17.695
X-47.114 Y-17.845
X-47.097 Y-17.994
X-47.066 Y-18.141
X-47.02 Y-18.293
X-46.957 Y-18.455
X-46.871 Y-18.631
X-46.763 Y-18.815
X-46.628 Y-19.007
X-46.458 Y-19.211
X-46.255 Y-19.419
X-46.015 Y-19.628
X-45.844 Y-19.722
X-45.654 Y-19.768
X-45.458 Y-19.763
X-45.271 Y-19.707
G3 X-45.152 Y-19.238 I-0.14 J0.285
G1 X-45.289 Y-19.046
X-46.431 Y-17.444
X-46.499 Y-17.349
G3 X-47.048 Y-17.404 I-0.259 J-0.184
G1 X-47.104 Y-17.544
X-47.177 Y-17.712
X-47.347 Y-18.047
X-47.408 Y-18.184
X-47.45 Y-18.328
X-47.473 Y-18.476
X-47.479 Y-18.626
X-47.47 Y-18.776
X-47.447 Y-18.928
X-47.41 Y-19.089
X-47.353 Y-19.267
X-47.281 Y-19.441
X-47.205 Y-19.591
X-47.11 Y-19.746
X-47.018 Y-19.872
X-46.988 Y-19.907
X-46.843 Y-20.036
X-46.669 Y-20.123
X-46.479 Y-20.162
X-46.285 Y-20.15
X-46.1 Y-20.088
G3 X-45.967 Y-19.664 I-0.15 J0.28
G1 X-46.1 Y-19.403
X-46.742 Y-18.143
X-46.786 Y-18.056
G3 X-47.347 Y-18.047 I-0.283 J-0.144
G1 X-47.519 Y-18.382
X-47.585 Y-18.55
X-47.653 Y-18.717
X-47.691 Y-18.815
X-47.776 Y-19.052
X-47.786 Y-19.08
X-47.801 Y-19.123
X-47.844 Y-19.266
X-47.86 Y-19.416
X-47.858 Y-19.566
X-47.84 Y-19.714
X-47.829 Y-19.759
X-47.803 Y-19.848
X-47.766 Y-19.932
X-47.719 Y-20.012
G3 X-47.147 Y-19.8 I0.256 J0.188
G1 X-47.189 Y-19.216
G3 X-47.801 Y-19.123 I-0.317 J-0.023
G1 X-47.836 Y-19.22
X-47.851 Y-19.277
X-47.859 Y-19.333
X-47.878 Y-19.555
X-47.88 Y-19.595
X-47.878 Y-19.635
X-47.857 Y-19.723
X-47.82 Y-19.848
X-47.802 Y-19.89
X-47.687 Y-20.058
X-47.652 Y-20.105
X-47.631 Y-20.129
X-47.606 Y-20.153
X-47.43 Y-20.278
X-47.393 Y-20.3
X-47.356 Y-20.317
X-47.189 Y-20.366
X-47.147 Y-20.375
X-47.105 Y-20.379
X-47.021 Y-20.375
X-46.854 Y-20.36
X-46.77 Y-20.35
X-46.686 Y-20.323
X-46.519 Y-20.266
X-46.351 Y-20.21
X-46.184 Y-20.129
X-46.038 Y-20.058
X-45.513 Y-19.825
X-45.346 Y-19.741
X-45.011 Y-19.59
X-44.927 Y-19.555
X-44.676 Y-19.472
X-44.508 Y-19.426
X-44.341 Y-19.382
X-44.006 Y-19.297
X-43.838 Y-19.257
X-43.644 Y-19.22
X-43.503 Y-19.197
X-43.335 Y-19.176
X-43 Y-19.18
X-42.833 Y-19.187
X-42.665 Y-19.216
X-42.646 Y-19.22
X-42.498 Y-19.265
X-42.33 Y-19.322
X-41.995 Y-19.459
X-41.602 Y-19.596
X-41.109 Y-19.725
X-40.382 Y-19.854
X-39.648 Y-19.926
X-38.911 Y-19.966
X-38.174 Y-19.989
X-37.436 Y-20.002
X-36.698 Y-20.01
X-35.96 Y-20.014
X-35.223 Y-20.017
X-33.747 Y-20.019
X-28.582 Y-20.021
X-22.68
X-22.311 Y-20.04
X-21.953 Y-20.13
X-21.625 Y-20.297
X-21.047 Y-20.756
X-20.654 Y-21.381
X-20.404 Y-22.075
X-20.25 Y-22.796
X-20.156 Y-23.528
X-20.1 Y-24.264
X-20.067 Y-25.001
X-20.047 Y-25.739
X-20.035 Y-26.476
X-20.029 Y-27.214
X-20.025 Y-27.952
X-20.021 Y-29.427
X-20.019 Y-32.379
Y-50.086
Y-57.017
X-20.007 Y-57.154
X-19.969 Y-57.285
X-19.908 Y-57.408
X-19.791 Y-57.597
X-19.198 Y-58.603
X-19.1 Y-58.77
X-18.875 Y-59.168
X-18.817 Y-59.273
X-18.662 Y-59.563
G3 X-18.073 Y-59.449 I0.275 J0.159
G1 X-18.063 Y-59.379 Z-2.99
X-18.054 Y-59.312 Z-2.966
X-18.045 Y-59.253 Z-2.928
X-18.038 Y-59.203 Z-2.878
X-18.033 Y-59.165 Z-2.818
X-18.029 Y-59.142 Z-2.751
X-18.028 Y-59.134 Z-2.68
Z5
X-42.801 Y-18.717
Z-2.362
Z-2.68
X-42.797 Y-18.723 Z-2.751
X-42.782 Y-18.742 Z-2.818
X-42.76 Y-18.772 Z-2.878
X-42.729 Y-18.812 Z-2.928
X-42.693 Y-18.86 Z-2.966
X-42.652 Y-18.913 Z-2.99
X-42.61 Y-18.97 Z-2.997
G3 X-41.995 Y-19.459 I1.262 J0.955
G1 X-41.869 Y-19.51
X-41.548 Y-19.723
X-41.493 Y-19.771
X-41.362 Y-19.89
X-41.157 Y-20.107
X-41 Y-20.258
X-40.869 Y-20.364
X-40.716 Y-20.47
X-40.518 Y-20.584
X-40.262 Y-20.706
X-39.939 Y-20.828
X-39.496 Y-20.956
X-38.858 Y-21.087
X-38.125 Y-21.176
X-37.389 Y-21.226
X-36.652 Y-21.254
X-35.914 Y-21.27
X-35.177 Y-21.279
X-34.439 Y-21.284
X-33.701 Y-21.287
X-32.225 Y-21.289
X-27.061 Y-21.291
X-24.109
X-23.74 Y-21.293
X-23.375 Y-21.346
X-23.032 Y-21.48
X-22.725 Y-21.685
X-22.196 Y-22.199
X-21.844 Y-22.848
X-21.624 Y-23.552
X-21.489 Y-24.277
X-21.407 Y-25.011
X-21.359 Y-25.747
X-21.33 Y-26.484
X-21.313 Y-27.222
X-21.303 Y-27.959
X-21.297 Y-28.697
X-21.294 Y-29.435
X-21.29 Y-30.911
X-21.289 Y-34.6
Y-53.045
Y-55.068
X-21.275 Y-55.215
X-21.231 Y-55.356
X-21.16 Y-55.486
X-20.863 Y-55.921
X-20.21 Y-56.927
X-20.103 Y-57.094
X-19.908 Y-57.408
G3 X-19.328 Y-57.256 I0.264 J0.177
G1 X-19.322 Y-57.185 Z-2.99
X-19.317 Y-57.118 Z-2.966
X-19.312 Y-57.058 Z-2.928
X-19.309 Y-57.008 Z-2.878
X-19.306 Y-56.97 Z-2.818
X-19.304 Y-56.947 Z-2.751
X-19.303 Y-56.939 Z-2.68
Z5
X-41.583 Y-19.097
Z-2.362
Z-2.68
X-41.581 Y-19.105 Z-2.751
X-41.576 Y-19.128 Z-2.818
X-41.568 Y-19.165 Z-2.878
X-41.557 Y-19.214 Z-2.928
X-41.544 Y-19.273 Z-2.966
X-41.529 Y-19.338 Z-2.99
X-41.514 Y-19.407 Z-2.997
G3 X-41.157 Y-20.107 I1.544 J0.346
G1 X-41.046 Y-20.226
X-40.924 Y-20.393
X-40.817 Y-20.561
X-40.721 Y-20.728
X-40.655 Y-20.861
X-40.573 Y-21.006
X-40.489 Y-21.131
X-40.393 Y-21.246
X-40.273 Y-21.366
X-40.124 Y-21.493
X-39.956 Y-21.615
X-39.736 Y-21.749
X-39.461 Y-21.887
X-39.126 Y-22.023
X-38.679 Y-22.164
X-38.063 Y-22.305
X-37.333 Y-22.411
X-36.598 Y-22.473
X-35.861 Y-22.51
X-35.123 Y-22.531
X-34.386 Y-22.543
X-33.648 Y-22.55
X-32.91 Y-22.555
X-32.172 Y-22.557
X-30.697 Y-22.559
X-24.794 Y-22.561
X-24.441 Y-22.668
X-24.119 Y-22.848
X-23.556 Y-23.325
X-23.175 Y-23.957
X-22.933 Y-24.654
X-22.783 Y-25.376
X-22.693 Y-26.108
X-22.638 Y-26.844
X-22.606 Y-27.581
X-22.587 Y-28.319
X-22.575 Y-29.056
X-22.568 Y-29.794
X-22.564 Y-30.532
X-22.561 Y-32.008
X-22.559 Y-34.959
Y-53.323
X-22.541 Y-53.485
X-22.489 Y-53.639
X-22.404 Y-53.778
X-22.04 Y-54.246
X-21.324 Y-55.251
X-21.206 Y-55.419
X-21.16 Y-55.486
G3 X-20.587 Y-55.308 I0.256 J0.188
G1 X-20.585 Y-55.238 Z-2.99
X-20.583 Y-55.171 Z-2.966
X-20.581 Y-55.111 Z-2.928
X-20.579 Y-55.06 Z-2.878
X-20.578 Y-55.022 Z-2.818
X-20.577 Y-54.999 Z-2.751
Y-54.991 Z-2.68
Z5
X-40.77 Y-19.771
Z-2.362
Z-2.68
X-40.771 Y-19.779 Z-2.751
X-40.773 Y-19.803 Z-2.818
X-40.775 Y-19.84 Z-2.878
X-40.779 Y-19.891 Z-2.928
X-40.784 Y-19.951 Z-2.966
X-40.788 Y-20.017 Z-2.99
X-40.794 Y-20.088 Z-2.997
G3 X-40.655 Y-20.861 I1.578 J-0.116
G1 X-40.32 Y-21.534
X-40.223 Y-21.734
X-40.144 Y-21.901
X-40.103 Y-21.994
X-40.035 Y-22.127
X-39.95 Y-22.251
X-39.852 Y-22.373
X-39.734 Y-22.496
X-39.579 Y-22.635
X-39.389 Y-22.778
X-39.17 Y-22.918
X-38.876 Y-23.074
X-38.539 Y-23.219
X-38.084 Y-23.373
X-37.492 Y-23.522
X-36.764 Y-23.644
X-36.03 Y-23.718
X-35.294 Y-23.762
X-34.557 Y-23.79
X-33.819 Y-23.806
X-33.081 Y-23.816
X-32.343 Y-23.822
X-31.606 Y-23.825
X-30.13 Y-23.829
X-27.179 Y-23.83
X-26.441
X-26.073 Y-23.857
X-25.717 Y-23.954
X-25.393 Y-24.13
X-24.828 Y-24.604
X-24.445 Y-25.235
X-24.202 Y-25.932
X-24.053 Y-26.655
X-23.962 Y-27.387
X-23.908 Y-28.123
X-23.875 Y-28.86
X-23.856 Y-29.597
X-23.845 Y-30.335
X-23.838 Y-31.073
X-23.834 Y-31.811
X-23.831 Y-33.286
X-23.829 Y-36.237
Y-51.756
X-23.81 Y-51.923
X-23.754 Y-52.082
X-23.663 Y-52.224
X-22.561 Y-53.581
X-22.431 Y-53.743
X-22.404 Y-53.778
G3 X-21.842 Y-53.566 I0.244 J0.203
G1 X-21.844 Y-53.495 Z-2.99
X-21.846 Y-53.428 Z-2.966
X-21.848 Y-53.368 Z-2.928
X-21.849 Y-53.318 Z-2.878
X-21.85 Y-53.28 Z-2.818
X-21.851 Y-53.256 Z-2.751
Y-53.248 Z-2.68
Z5
X-40.174 Y-20.9
Z-2.362
Z-2.68
X-40.175 Y-20.908 Z-2.751
X-40.178 Y-20.931 Z-2.818
X-40.182 Y-20.969 Z-2.878
X-40.188 Y-21.019 Z-2.928
X-40.195 Y-21.079 Z-2.966
X-40.202 Y-21.145 Z-2.99
X-40.21 Y-21.216 Z-2.997
G3 X-40.103 Y-21.994 I1.572 J-0.179
G1 X-39.575 Y-23.167
X-39.507 Y-23.3
X-39.423 Y-23.425
X-39.319 Y-23.556
X-39.199 Y-23.684
X-39.04 Y-23.829
X-38.844 Y-23.98
X-38.619 Y-24.126
X-38.315 Y-24.291
X-37.973 Y-24.442
X-37.509 Y-24.604
X-36.911 Y-24.761
X-36.184 Y-24.889
X-35.451 Y-24.969
X-34.715 Y-25.019
X-33.978 Y-25.051
X-33.24 Y-25.07
X-32.502 Y-25.082
X-31.765 Y-25.089
X-31.027 Y-25.094
X-30.289 Y-25.096
X-28.813 Y-25.099
X-27.338 Y-25.1
X-26.984 Y-25.204
X-26.661 Y-25.383
X-26.098 Y-25.859
X-25.716 Y-26.491
X-25.473 Y-27.187
X-25.324 Y-27.91
X-25.233 Y-28.642
X-25.178 Y-29.378
X-25.146 Y-30.115
X-25.127 Y-30.852
X-25.115 Y-31.59
X-25.108 Y-32.328
X-25.105 Y-33.066
X-25.101 Y-34.541
X-25.099 Y-37.493
Y-50.252
X-25.075 Y-50.439
X-25.005 Y-50.614
X-24.892 Y-50.766
X-24.739 Y-50.925
X-24.617 Y-51.061
X-24.337 Y-51.397
X-24.199 Y-51.564
X-23.663 Y-52.224
G3 X-23.107 Y-51.999 I0.239 J0.209
G1 X-23.111 Y-51.929 Z-2.99
X-23.114 Y-51.862 Z-2.966
X-23.117 Y-51.802 Z-2.928
X-23.119 Y-51.751 Z-2.878
X-23.121 Y-51.714 Z-2.818
X-23.122 Y-51.69 Z-2.751
X-23.123 Y-51.682 Z-2.68
Z5
X-39.646 Y-22.073
Z-2.362
Z-2.68
X-39.647 Y-22.081 Z-2.751
X-39.65 Y-22.104 Z-2.818
X-39.654 Y-22.142 Z-2.878
X-39.66 Y-22.192 Z-2.928
X-39.667 Y-22.252 Z-2.966
X-39.674 Y-22.318 Z-2.99
X-39.682 Y-22.389 Z-2.997
G3 X-39.575 Y-23.167 I1.572 J-0.179
G1 X-39.24 Y-23.912
X-39.177 Y-24.08
X-39.147 Y-24.177
X-39.095 Y-24.317
X-39.03 Y-24.452
X-38.951 Y-24.58
X-38.852 Y-24.713
X-38.734 Y-24.848
X-38.589 Y-24.989
X-38.396 Y-25.148
X-38.182 Y-25.298
X-37.905 Y-25.459
X-37.561 Y-25.625
X-37.138 Y-25.788
X-36.593 Y-25.95
X-35.871 Y-26.102
X-35.14 Y-26.2
X-34.405 Y-26.262
X-33.668 Y-26.302
X-32.931 Y-26.328
X-32.193 Y-26.344
X-31.455 Y-26.354
X-30.717 Y-26.36
X-29.98 Y-26.364
X-28.504 Y-26.368
X-28.157 Y-26.494
X-27.846 Y-26.692
X-27.308 Y-27.197
X-26.947 Y-27.84
X-26.718 Y-28.542
X-26.578 Y-29.266
X-26.493 Y-29.999
X-26.443 Y-30.735
X-26.412 Y-31.472
X-26.395 Y-32.21
X-26.384 Y-32.948
X-26.378 Y-33.685
X-26.374 Y-34.423
X-26.371 Y-35.899
X-26.369 Y-38.85
Y-48.932
X-26.345 Y-49.119
X-26.275 Y-49.294
X-26.162 Y-49.446
X-24.892 Y-50.766
G3 X-24.357 Y-50.496 I0.221 J0.228
G1 X-24.366 Y-50.426 Z-2.99
X-24.375 Y-50.359 Z-2.966
X-24.383 Y-50.299 Z-2.928
X-24.39 Y-50.25 Z-2.878
X-24.395 Y-50.212 Z-2.818
X-24.398 Y-50.189 Z-2.751
X-24.399 Y-50.181 Z-2.68
Z5
X-39.089 Y-23.082
Z-2.362
Z-2.68
X-39.091 Y-23.09 Z-2.751
X-39.096 Y-23.113 Z-2.818
X-39.105 Y-23.15 Z-2.878
X-39.116 Y-23.199 Z-2.928
X-39.13 Y-23.257 Z-2.966
X-39.146 Y-23.323 Z-2.99
X-39.162 Y-23.391 Z-2.997
G3 X-39.147 Y-24.177 I1.54 J-0.364
G1 X-38.915 Y-24.918
X-38.782 Y-25.345
X-38.73 Y-25.486
X-38.663 Y-25.62
X-38.585 Y-25.748
X-38.48 Y-25.891
X-38.359 Y-26.03
X-38.203 Y-26.182
X-38.005 Y-26.348
X-37.783 Y-26.504
X-37.481 Y-26.683
X-37.142 Y-26.849
X-36.688 Y-27.027
X-36.139 Y-27.193
X-35.417 Y-27.349
X-34.687 Y-27.451
X-33.952 Y-27.518
X-33.215 Y-27.561
X-32.478 Y-27.59
X-31.741 Y-27.608
X-31.003 Y-27.62
X-30.265 Y-27.628
X-29.897 Y-27.65
X-29.54 Y-27.745
X-29.215 Y-27.919
X-28.646 Y-28.388
X-28.261 Y-29.018
X-28.016 Y-29.714
X-27.865 Y-30.436
X-27.773 Y-31.168
X-27.719 Y-31.904
X-27.686 Y-32.641
X-27.667 Y-33.378
X-27.655 Y-34.116
X-27.649 Y-34.854
X-27.645 Y-35.592
X-27.641 Y-37.067
X-27.639 Y-40.018
Y-47.625
X-27.614 Y-47.818
X-27.539 Y-47.998
X-27.419 Y-48.152
X-27.189 Y-48.38
X-27.026 Y-48.548
X-26.162 Y-49.446
G3 X-25.627 Y-49.176 I0.221 J0.228
G1 X-25.636 Y-49.106 Z-2.99
X-25.645 Y-49.039 Z-2.966
X-25.653 Y-48.979 Z-2.928
X-25.66 Y-48.93 Z-2.878
X-25.665 Y-48.892 Z-2.818
X-25.668 Y-48.869 Z-2.751
X-25.669 Y-48.861 Z-2.68
Z5
X-38.721 Y-24.251
Z-2.362
Z-2.68
X-38.723 Y-24.259 Z-2.751
X-38.728 Y-24.282 Z-2.818
X-38.737 Y-24.319 Z-2.878
X-38.749 Y-24.367 Z-2.928
X-38.763 Y-24.426 Z-2.966
X-38.778 Y-24.491 Z-2.99
X-38.795 Y-24.56 Z-2.997
G3 X-38.782 Y-25.345 I1.539 J-0.367
G1 X-38.549 Y-26.091
X-38.498 Y-26.259
X-38.46 Y-26.426
X-38.419 Y-26.571
X-38.363 Y-26.71
X-38.294 Y-26.843
X-38.212 Y-26.971
X-38.1 Y-27.119
X-37.967 Y-27.268
X-37.802 Y-27.426
X-37.588 Y-27.599
X-37.352 Y-27.762
X-37.027 Y-27.948
X-36.666 Y-28.119
X-36.183 Y-28.301
X-35.572 Y-28.477
X-34.849 Y-28.624
X-34.118 Y-28.721
X-33.383 Y-28.786
X-32.646 Y-28.829
X-31.909 Y-28.857
X-31.171 Y-28.876
X-30.817 Y-28.977
X-30.492 Y-29.152
X-29.924 Y-29.623
X-29.537 Y-30.251
X-29.291 Y-30.947
X-29.138 Y-31.669
X-29.046 Y-32.401
X-28.99 Y-33.136
X-28.957 Y-33.873
X-28.937 Y-34.611
X-28.926 Y-35.349
X-28.919 Y-36.086
X-28.915 Y-36.824
X-28.911 Y-38.3
X-28.909 Y-41.251
Y-46.416
X-28.904 Y-46.683
X-28.873 Y-46.879
X-28.791 Y-47.06
X-28.665 Y-47.213
X-28.502 Y-47.326
X-28.425 Y-47.366
X-28.09 Y-47.578
X-27.922 Y-47.698
X-27.755 Y-47.836
X-27.707 Y-47.877
X-27.419 Y-48.152
Z5
X-38.314 Y-25.34
Z-2.362
Z-2.68
X-38.316 Y-25.348 Z-2.751
X-38.324 Y-25.37 Z-2.818
X-38.335 Y-25.406 Z-2.878
X-38.351 Y-25.454 Z-2.928
X-38.369 Y-25.511 Z-2.966
X-38.39 Y-25.575 Z-2.99
X-38.412 Y-25.642 Z-2.997
G3 X-38.46 Y-26.426 I1.506 J-0.486
G1 X-38.384 Y-26.761
X-38.352 Y-26.929
X-38.243 Y-27.524
X-38.208 Y-27.67
X-38.156 Y-27.811
X-38.092 Y-27.946
X-38.007 Y-28.088
X-37.904 Y-28.234
X-37.775 Y-28.389
X-37.606 Y-28.562
X-37.416 Y-28.726
X-37.159 Y-28.916
X-36.876 Y-29.091
X-36.496 Y-29.286
X-36.063 Y-29.466
X-35.486 Y-29.653
X-34.768 Y-29.823
X-34.039 Y-29.94
X-33.306 Y-30.019
X-32.57 Y-30.072
X-32.209 Y-30.151
X-31.874 Y-30.304
X-31.575 Y-30.521
X-31.062 Y-31.05
X-30.721 Y-31.705
X-30.506 Y-32.411
X-30.375 Y-33.137
X-30.296 Y-33.87
X-30.248 Y-34.606
X-30.22 Y-35.344
X-30.203 Y-36.081
X-30.193 Y-36.819
X-30.187 Y-37.557
X-30.184 Y-38.295
X-30.181 Y-39.77
X-30.179 Y-43.459
Y-45.673
X-30.16 Y-46.053
X-30.119 Y-46.365
X-30.109 Y-46.411
X-30.032 Y-46.616
X-29.899 Y-46.79
X-29.721 Y-46.917
X-29.513 Y-46.986
X-29.43 Y-47.001
X-29.095 Y-47.084
X-28.927 Y-47.135
X-28.592 Y-47.28
X-28.502 Y-47.326
G3 X-28.082 Y-46.897 I0.135 J0.287
G1 X-28.114 Y-46.834 Z-2.99
X-28.144 Y-46.774 Z-2.966
X-28.171 Y-46.72 Z-2.928
X-28.193 Y-46.675 Z-2.878
X-28.21 Y-46.641 Z-2.818
X-28.22 Y-46.62 Z-2.751
X-28.224 Y-46.613 Z-2.68
Z5
X-38.051 Y-26.445
Z-2.362
Z-2.68
X-38.053 Y-26.453 Z-2.751
X-38.061 Y-26.475 Z-2.818
X-38.075 Y-26.51 Z-2.878
X-38.092 Y-26.557 Z-2.928
X-38.113 Y-26.614 Z-2.966
X-38.136 Y-26.677 Z-2.99
X-38.161 Y-26.743 Z-2.997
G3 X-38.243 Y-27.524 I1.484 J-0.55
G1 X-38.075 Y-28.437
X-38.031 Y-28.697
X-37.998 Y-28.843
X-37.947 Y-28.984
X-37.882 Y-29.119
X-37.793 Y-29.27
X-37.691 Y-29.417
X-37.552 Y-29.585
X-37.39 Y-29.752
X-37.185 Y-29.931
X-36.931 Y-30.121
X-36.632 Y-30.307
X-36.244 Y-30.509
X-35.789 Y-30.7
X-35.212 Y-30.89
X-34.494 Y-31.064
X-33.767 Y-31.185
X-33.416 Y-31.298
X-33.091 Y-31.473
X-32.516 Y-31.936
X-32.117 Y-32.556
X-31.859 Y-33.247
X-31.697 Y-33.967
X-31.598 Y-34.699
X-31.538 Y-35.434
X-31.502 Y-36.171
X-31.481 Y-36.908
X-31.468 Y-37.646
X-31.46 Y-38.384
X-31.456 Y-39.122
X-31.453 Y-39.859
X-31.45 Y-41.335
X-31.449 Y-44.286
X-31.446 Y-45.024
X-31.422 Y-45.535
X-31.377 Y-45.889
X-31.324 Y-46.138
X-31.253 Y-46.378
X-31.214 Y-46.478
X-31.123 Y-46.646
X-30.993 Y-46.784
X-30.831 Y-46.885
X-30.649 Y-46.941
X-30.459 Y-46.949
X-30.435 Y-46.947
X-30.1 Y-46.93
X-29.933 Y-46.936
X-29.597 Y-46.971
X-29.513 Y-46.986
G3 X-29.239 Y-46.452 I0.044 J0.314
G1 X-29.288 Y-46.401 Z-2.99
X-29.335 Y-46.353 Z-2.966
X-29.376 Y-46.309 Z-2.928
X-29.411 Y-46.273 Z-2.878
X-29.437 Y-46.246 Z-2.818
X-29.453 Y-46.229 Z-2.751
X-29.459 Y-46.223 Z-2.68
Z5
X-37.825 Y-27.621
Z-2.362
Z-2.68
X-37.828 Y-27.628 Z-2.751
X-37.837 Y-27.65 Z-2.818
X-37.85 Y-27.685 Z-2.878
X-37.868 Y-27.732 Z-2.928
X-37.89 Y-27.788 Z-2.966
X-37.914 Y-27.851 Z-2.99
X-37.939 Y-27.917 Z-2.997
G3 X-38.031 Y-28.697 I1.477 J-0.569
G1 X-37.99 Y-28.94
X-37.974 Y-29.108
X-37.939 Y-29.661
X-37.922 Y-29.81
X-37.888 Y-29.956
X-37.838 Y-30.098
X-37.776 Y-30.234
X-37.694 Y-30.382
X-37.585 Y-30.547
X-37.457 Y-30.71
X-37.284 Y-30.897
X-37.092 Y-31.074
X-36.833 Y-31.276
X-36.545 Y-31.466
X-36.157 Y-31.679
X-35.725 Y-31.874
X-35.03 Y-32.121
X-34.348 Y-32.403
X-33.796 Y-32.893
X-33.406 Y-33.519
X-33.148 Y-34.21
X-32.983 Y-34.929
X-32.88 Y-35.66
X-32.817 Y-36.395
X-32.778 Y-37.132
X-32.754 Y-37.869
X-32.74 Y-38.607
X-32.732 Y-39.345
X-32.727 Y-40.082
X-32.724 Y-40.82
X-32.721 Y-42.296
X-32.719 Y-43.771
X-32.711 Y-44.509
X-32.678 Y-45.185
X-32.617 Y-45.658
X-32.544 Y-46.003
X-32.47 Y-46.249
X-32.38 Y-46.482
X-32.292 Y-46.663
X-32.218 Y-46.789
X-32.096 Y-46.945
X-31.937 Y-47.063
X-31.752 Y-47.135
X-31.555 Y-47.155
X-31.36 Y-47.122
X-31.09 Y-47.039
X-30.938 Y-47.012
X-30.603 Y-46.962
X-30.459 Y-46.949
G3 X-30.332 Y-46.363 I-0.039 J0.315
G1 X-30.393 Y-46.326 Z-2.99
X-30.45 Y-46.291 Z-2.966
X-30.502 Y-46.26 Z-2.928
X-30.545 Y-46.234 Z-2.878
X-30.577 Y-46.214 Z-2.818
X-30.597 Y-46.202 Z-2.751
X-30.604 Y-46.198 Z-2.68
Z5
X-37.618 Y-28.613
Z-2.362
Z-2.68
X-37.621 Y-28.62 Z-2.751
X-37.632 Y-28.641 Z-2.818
X-37.65 Y-28.675 Z-2.878
X-37.673 Y-28.72 Z-2.928
X-37.7 Y-28.773 Z-2.966
X-37.731 Y-28.833 Z-2.99
X-37.763 Y-28.896 Z-2.997
G3 X-37.939 Y-29.661 I1.407 J-0.725
G1 X-37.871 Y-30.783
X-37.854 Y-30.933
X-37.821 Y-31.079
X-37.773 Y-31.221
X-37.712 Y-31.363
X-37.63 Y-31.515
X-37.52 Y-31.687
X-37.392 Y-31.856
X-37.219 Y-32.049
X-37.026 Y-32.232
X-36.762 Y-32.444
X-36.153 Y-32.86
X-35.528 Y-33.252
X-35.023 Y-33.791
X-34.66 Y-34.433
X-34.415 Y-35.129
X-34.256 Y-35.849
X-34.154 Y-36.58
X-34.091 Y-37.315
X-34.051 Y-38.052
X-34.027 Y-38.789
X-34.012 Y-39.527
X-34.003 Y-40.265
X-33.997 Y-41.003
X-33.994 Y-41.74
X-33.989 Y-43.216
X-33.98 Y-43.954
X-33.951 Y-44.691
X-33.887 Y-45.317
X-33.797 Y-45.811
X-33.695 Y-46.191
X-33.585 Y-46.501
X-33.483 Y-46.727
X-33.367 Y-46.938
X-33.255 Y-47.108
X-33.137 Y-47.259
X-33.114 Y-47.283
X-32.969 Y-47.405
X-32.797 Y-47.486
X-32.611 Y-47.521
X-32.421 Y-47.508
X-32.242 Y-47.446
X-32.11 Y-47.382
X-31.608 Y-47.2
X-31.36 Y-47.122
G3 X-31.361 Y-46.522 I-0.104 J0.3
G1 X-31.428 Y-46.499 Z-2.99
X-31.491 Y-46.477 Z-2.966
X-31.548 Y-46.457 Z-2.928
X-31.596 Y-46.441 Z-2.878
X-31.631 Y-46.429 Z-2.818
X-31.654 Y-46.421 Z-2.751
X-31.661 Y-46.418 Z-2.68
Z5
X-37.55 Y-29.736
Z-2.362
Z-2.68
X-37.554 Y-29.743 Z-2.751
X-37.564 Y-29.764 Z-2.818
X-37.582 Y-29.797 Z-2.878
X-37.605 Y-29.842 Z-2.928
X-37.632 Y-29.895 Z-2.966
X-37.663 Y-29.955 Z-2.99
X-37.695 Y-30.018 Z-2.997
G3 X-37.871 Y-30.783 I1.407 J-0.725
G1 X-37.851 Y-31.119
X-37.845 Y-31.286
X-37.843 Y-31.621
X-37.845 Y-31.789
X-37.847 Y-31.939
X-37.827 Y-32.088
X-37.791 Y-32.233
X-37.742 Y-32.375
X-37.669 Y-32.541
X-37.565 Y-32.734
X-37.429 Y-32.944
X-36.979 Y-33.529
X-36.5 Y-34.09
X-36.108 Y-34.715
X-35.823 Y-35.395
X-35.626 Y-36.106
X-35.494 Y-36.832
X-35.408 Y-37.565
X-35.353 Y-38.301
X-35.317 Y-39.038
X-35.295 Y-39.775
X-35.281 Y-40.513
X-35.273 Y-41.251
X-35.262 Y-42.726
X-35.251 Y-43.464
X-35.224 Y-44.201
X-35.166 Y-44.937
X-35.07 Y-45.579
X-34.953 Y-46.08
X-34.817 Y-46.507
X-34.671 Y-46.861
X-34.538 Y-47.124
X-34.4 Y-47.35
X-34.271 Y-47.525
X-34.13 Y-47.689
X-34.024 Y-47.795
X-33.867 Y-47.913
X-33.685 Y-47.987
X-33.49 Y-48.01
X-33.296 Y-47.981
X-33.116 Y-47.903
X-32.948 Y-47.801
X-32.769 Y-47.71
X-32.242 Y-47.446
G3 X-32.337 Y-46.854 I-0.15 J0.28
G1 X-32.406 Y-46.842 Z-2.99
X-32.472 Y-46.83 Z-2.966
X-32.531 Y-46.819 Z-2.928
X-32.581 Y-46.811 Z-2.878
X-32.618 Y-46.804 Z-2.818
X-32.641 Y-46.8 Z-2.751
X-32.649 Y-46.798 Z-2.68
Z5
X-37.4 Y-30.788
Z-2.362
Z-2.68
X-37.405 Y-30.794 Z-2.751
X-37.418 Y-30.814 Z-2.818
X-37.439 Y-30.845 Z-2.878
X-37.467 Y-30.886 Z-2.928
X-37.501 Y-30.936 Z-2.966
X-37.539 Y-30.992 Z-2.99
X-37.579 Y-31.05 Z-2.997
G3 X-37.845 Y-31.789 I1.309 J-0.889
G1 X-37.916 Y-32.962
X-37.917 Y-33.112
X-37.901 Y-33.273
X-37.863 Y-33.477
X-37.761 Y-33.855
X-37.512 Y-34.55
X-37.256 Y-35.242
X-37.042 Y-35.948
X-36.88 Y-36.668
X-36.763 Y-37.396
X-36.683 Y-38.13
X-36.629 Y-38.865
X-36.593 Y-39.602
X-36.57 Y-40.34
X-36.555 Y-41.077
X-36.534 Y-42.553
X-36.517 Y-43.291
X-36.484 Y-44.028
X-36.423 Y-44.763
X-36.32 Y-45.494
X-36.187 Y-46.098
X-36.126 Y-46.297
X-36.057 Y-46.456
X-35.953 Y-46.593
X-35.82 Y-46.703
X-34.959 Y-47.261
X-33.756 Y-48.045
X-33.687 Y-48.086
X-33.653 Y-48.1
X-33.618 Y-48.109
X-33.576 Y-48.115
X-33.535 Y-48.117
X-33.493 Y-48.114
X-33.451 Y-48.106
X-33.421 Y-48.096
X-33.391 Y-48.083
X-33.331 Y-48.045
X-33.283 Y-48.012
X-33.116 Y-47.903
G3 X-33.281 Y-47.326 I-0.183 J0.26
G1 X-33.352 Y-47.322 Z-2.99
X-33.419 Y-47.318 Z-2.966
X-33.479 Y-47.315 Z-2.928
X-33.529 Y-47.312 Z-2.878
X-33.567 Y-47.31 Z-2.818
X-33.59 Y-47.309 Z-2.751
X-33.598 Z-2.68
Z5
X-37.471 Y-31.961
Z-2.362
Z-2.68
X-37.476 Y-31.967 Z-2.751
X-37.489 Y-31.987 Z-2.818
X-37.51 Y-32.018 Z-2.878
X-37.538 Y-32.06 Z-2.928
X-37.572 Y-32.109 Z-2.966
X-37.61 Y-32.165 Z-2.99
X-37.649 Y-32.223 Z-2.997
G3 X-37.916 Y-32.962 I1.309 J-0.889
G1 X-37.974 Y-33.926
X-37.979 Y-33.968
X-38.059 Y-34.47
X-38.089 Y-34.638
X-38.138 Y-35.011
X-38.161 Y-35.452
X-38.139 Y-36.189
X-38.075 Y-36.924
X-38.007 Y-37.659
X-37.948 Y-38.394
X-37.903 Y-39.131
X-37.87 Y-39.868
X-37.846 Y-40.605
X-37.829 Y-41.343
X-37.813 Y-42.081
X-37.794 Y-42.818
X-37.764 Y-43.555
X-37.713 Y-44.291
X-37.634 Y-45.025
X-37.593 Y-45.27
X-37.532 Y-45.465
X-37.419 Y-45.636
X-37.265 Y-45.77
X-35.82 Y-46.703
G3 X-35.36 Y-46.318 I0.163 J0.273
G1 X-35.386 Y-46.252 Z-2.99
X-35.409 Y-46.189 Z-2.966
X-35.431 Y-46.133 Z-2.928
X-35.449 Y-46.086 Z-2.878
X-35.462 Y-46.05 Z-2.818
X-35.471 Y-46.029 Z-2.751
X-35.473 Y-46.021 Z-2.68
Z5
X-37.527 Y-33.697
Z-2.362
Z-2.68
X-37.532 Y-33.703 Z-2.751
X-37.548 Y-33.721 Z-2.818
X-37.573 Y-33.75 Z-2.878
X-37.606 Y-33.787 Z-2.928
X-37.645 Y-33.833 Z-2.966
X-37.689 Y-33.883 Z-2.99
X-37.736 Y-33.937 Z-2.997
G3 X-38.089 Y-34.638 I1.192 J-1.04
G1 X-38.365 Y-36.146
X-38.477 Y-36.67
X-38.521 Y-36.817
X-38.782 Y-37.655
X-38.894 Y-38.091
X-38.991 Y-38.649
X-39.058 Y-39.383
X-39.082 Y-40.121
X-39.087 Y-40.859
X-39.081 Y-41.596
X-39.067 Y-42.334
X-39.042 Y-43.071
X-39.001 Y-43.808
X-38.942 Y-44.488
X-38.941 Y-44.494
X-38.871 Y-44.707
X-38.741 Y-44.889
X-38.562 Y-45.024
G3 X-38.104 Y-44.736 I0.141 J0.285
G1 X-38.105 Y-44.598
X-38.165 Y-37.757
G3 X-38.782 Y-37.655 I-0.317 J-0.003
G1 X-39.147 Y-38.828
X-39.205 Y-38.995
X-39.274 Y-39.163
X-39.726 Y-40.168
X-39.801 Y-40.336
X-39.909 Y-40.611
X-40.015 Y-40.963
X-40.116 Y-41.432
X-40.203 Y-42.093
X-40.241 Y-42.83
X-40.235 Y-43.527
X-40.214 Y-43.755
X-40.176 Y-43.933
X-40.095 Y-44.096
X-39.977 Y-44.235
X-39.828 Y-44.341
G3 X-39.37 Y-44.071 I0.141 J0.285
G1 X-39.363 Y-43.916
X-39.199 Y-40.491
G3 X-39.801 Y-40.336 I-0.317 J0.015
G1 X-40.152 Y-41.115
X-40.32 Y-41.461
X-40.345 Y-41.509
X-40.437 Y-41.677
X-40.725 Y-42.179
X-40.822 Y-42.345
X-40.9 Y-42.492
X-40.978 Y-42.674
X-41.039 Y-42.855
X-41.084 Y-43.037
X-41.093 Y-43.09
X-41.095 Y-43.319
X-41.027 Y-43.538
X-40.896 Y-43.725
X-40.713 Y-43.863
G3 X-40.255 Y-43.584 I0.141 J0.285
G1 X-40.253 Y-43.438
X-40.238 Y-42.521
G3 X-40.822 Y-42.345 I-0.317 J0.005
G1 X-41.025 Y-42.682
X-41.228 Y-43.017
X-41.328 Y-43.185
X-41.344 Y-43.227
X-41.355 Y-43.269
X-41.359 Y-43.311
X-41.358 Y-43.352
X-41.354 Y-43.381
X-41.347 Y-43.41
X-41.338 Y-43.439
X-41.325 Y-43.468
X-41.31 Y-43.494
X-41.291 Y-43.52
X-41.258 Y-43.556
X-41.224 Y-43.583
X-41.157 Y-43.625
X-39.482 Y-44.527
X-37.932 Y-45.363
X-37.807 Y-45.434
X-37.472 Y-45.637
X-37.374 Y-45.699
X-37.265 Y-45.77
G3 X-36.805 Y-45.384 I0.163 J0.272
G1 X-36.83 Y-45.318 Z-2.99
X-36.854 Y-45.255 Z-2.966
X-36.875 Y-45.199 Z-2.928
X-36.893 Y-45.152 Z-2.878
X-36.907 Y-45.117 Z-2.818
X-36.915 Y-45.095 Z-2.751
X-36.918 Y-45.087 Z-2.68
Z5
X-99.548 Y-59.124
Z-2.362
Z-2.68
X-99.541 Y-59.12 Z-2.751
X-99.52 Y-59.109 Z-2.818
X-99.487 Y-59.091 Z-2.878
X-99.443 Y-59.067 Z-2.928
X-99.39 Y-59.038 Z-2.966
X-99.331 Y-59.006 Z-2.99
X-99.269 Y-58.972 Z-2.997
G3 X-98.696 Y-58.435 I-0.76 J1.388
G1 X-98.201 Y-57.597
X-97.889 Y-57.094
X-97.782 Y-56.927
X-97.564 Y-56.592
X-97.395 Y-56.3
X-97.281 Y-56.062
X-97.162 Y-55.749
X-97.039 Y-55.329
X-96.912 Y-54.719
X-96.821 Y-53.987
X-96.771 Y-53.251
X-96.744 Y-52.514
X-96.729 Y-51.776
X-96.721 Y-51.038
X-96.717 Y-50.3
X-96.714 Y-49.562
X-96.712 Y-48.087
X-96.711 Y-39.971
X-96.71 Y-23.739
X-96.651 Y-23.375
X-96.517 Y-23.031
X-96.312 Y-22.724
X-95.796 Y-22.197
X-95.146 Y-21.847
X-94.442 Y-21.626
X-93.717 Y-21.49
X-92.984 Y-21.409
X-92.248 Y-21.36
X-91.51 Y-21.331
X-90.773 Y-21.314
X-90.035 Y-21.304
X-89.297 Y-21.298
X-88.559 Y-21.294
X-87.084 Y-21.291
X-83.395 Y-21.289
X-80.443
X-78.23
X-77.997 Y-21.284
X-77.799 Y-21.252
X-77.617 Y-21.169
X-77.465 Y-21.04
X-77.352 Y-20.874
X-77.279 Y-20.728
X-77.178 Y-20.552
X-77.076 Y-20.393
X-76.954 Y-20.226
X-76.638 Y-19.89
X-76.568 Y-19.826
G3 X-76.823 Y-19.283 I-0.222 J0.227
G1 X-76.893 Y-19.291 Z-2.99
X-76.96 Y-19.298 Z-2.966
X-77.02 Y-19.304 Z-2.928
X-77.07 Y-19.31 Z-2.878
X-77.108 Y-19.314 Z-2.818
X-77.131 Y-19.316 Z-2.751
X-77.139 Y-19.317 Z-2.68
Z5
X-98.445 Y-57.244
Z-2.362
Z-2.68
X-98.438 Y-57.24 Z-2.751
X-98.417 Y-57.23 Z-2.818
X-98.383 Y-57.213 Z-2.878
X-98.338 Y-57.191 Z-2.928
X-98.284 Y-57.164 Z-2.966
X-98.224 Y-57.134 Z-2.99
X-98.161 Y-57.103 Z-2.997
G3 X-97.564 Y-56.592 I-0.7 J1.419
G1 X-97.114 Y-55.9
X-96.779 Y-55.41
X-96.612 Y-55.173
X-96.31 Y-54.748
X-96.197 Y-54.571
X-96.084 Y-54.36
X-95.964 Y-54.082
X-95.84 Y-53.718
X-95.713 Y-53.213
X-95.59 Y-52.485
X-95.523 Y-51.75
X-95.487 Y-51.014
X-95.466 Y-50.276
X-95.455 Y-49.538
X-95.449 Y-48.8
X-95.445 Y-48.063
X-95.442 Y-46.587
X-95.441 Y-42.16
X-95.44 Y-25.19
X-95.413 Y-24.823
X-95.315 Y-24.467
X-95.141 Y-24.142
X-94.673 Y-23.571
X-94.044 Y-23.185
X-93.348 Y-22.939
X-92.626 Y-22.787
X-91.894 Y-22.695
X-91.158 Y-22.64
X-90.421 Y-22.607
X-89.684 Y-22.588
X-88.946 Y-22.576
X-88.208 Y-22.569
X-87.47 Y-22.565
X-85.995 Y-22.561
X-83.044 Y-22.56
X-79.355 Y-22.559
X-78.787 Y-22.553
X-78.551 Y-22.531
X-78.361 Y-22.488
X-78.189 Y-22.396
X-78.047 Y-22.263
X-77.944 Y-22.097
X-77.848 Y-21.884
X-77.777 Y-21.734
X-77.68 Y-21.534
X-77.352 Y-20.874
G3 X-77.786 Y-20.46 I-0.289 J0.132
G1 X-77.849 Y-20.492 Z-2.99
X-77.908 Y-20.523 Z-2.966
X-77.962 Y-20.55 Z-2.928
X-78.007 Y-20.573 Z-2.878
X-78.04 Y-20.591 Z-2.818
X-78.061 Y-20.601 Z-2.751
X-78.068 Y-20.605 Z-2.68
Z5
X-97.217 Y-55.362
Z-2.362
Z-2.68
X-97.21 Y-55.359 Z-2.751
X-97.189 Y-55.349 Z-2.818
X-97.154 Y-55.334 Z-2.878
X-97.108 Y-55.314 Z-2.928
X-97.053 Y-55.289 Z-2.966
X-96.992 Y-55.262 Z-2.99
X-96.927 Y-55.234 Z-2.997
G3 X-96.31 Y-54.748 I-0.639 J1.448
G1 X-95.951 Y-54.246
X-95.561 Y-53.743
X-95.272 Y-53.386
X-95.153 Y-53.24
X-95.03 Y-53.072
X-94.918 Y-52.89
X-94.8 Y-52.658
X-94.675 Y-52.356
X-94.549 Y-51.964
X-94.42 Y-51.412
X-94.31 Y-50.682
X-94.248 Y-49.947
X-94.214 Y-49.21
X-94.195 Y-48.472
X-94.185 Y-47.735
X-94.179 Y-46.997
X-94.175 Y-46.259
X-94.172 Y-44.783
X-94.171 Y-40.356
X-94.17 Y-26.338
X-94.123 Y-25.972
X-94.001 Y-25.624
X-93.806 Y-25.31
X-93.304 Y-24.77
X-92.662 Y-24.407
X-91.96 Y-24.178
X-91.236 Y-24.038
X-90.503 Y-23.953
X-89.767 Y-23.903
X-89.03 Y-23.873
X-88.292 Y-23.855
X-87.554 Y-23.844
X-86.817 Y-23.838
X-86.079 Y-23.835
X-84.603 Y-23.831
X-81.652 Y-23.83
X-80.176
X-79.45 Y-23.822
X-79.11 Y-23.791
X-79.06 Y-23.783
X-78.888 Y-23.731
X-78.732 Y-23.638
X-78.604 Y-23.511
X-78.511 Y-23.357
X-77.944 Y-22.097
G3 X-78.394 Y-21.701 I-0.294 J0.12
G1 X-78.456 Y-21.736 Z-2.99
X-78.514 Y-21.769 Z-2.966
X-78.566 Y-21.798 Z-2.928
X-78.61 Y-21.823 Z-2.878
X-78.643 Y-21.842 Z-2.818
X-78.664 Y-21.853 Z-2.751
X-78.67 Y-21.857 Z-2.68
Z5
X-96.098 Y-53.795
Z-2.362
Z-2.68
X-96.091 Y-53.792 Z-2.751
X-96.069 Y-53.784 Z-2.818
X-96.033 Y-53.771 Z-2.878
X-95.986 Y-53.754 Z-2.928
X-95.929 Y-53.733 Z-2.966
X-95.866 Y-53.71 Z-2.99
X-95.8 Y-53.685 Z-2.997
G3 X-95.153 Y-53.24 I-0.546 J1.485
G1 X-93.931 Y-51.736
X-93.776 Y-51.524
X-93.657 Y-51.33
X-93.538 Y-51.097
X-93.412 Y-50.792
X-93.284 Y-50.393
X-93.152 Y-49.832
X-93.042 Y-49.102
X-92.98 Y-48.367
X-92.946 Y-47.63
X-92.926 Y-46.892
X-92.915 Y-46.155
X-92.909 Y-45.417
X-92.906 Y-44.679
X-92.902 Y-43.203
X-92.901 Y-39.514
X-92.9 Y-27.709
X-92.869 Y-27.342
X-92.768 Y-26.987
X-92.59 Y-26.664
X-92.116 Y-26.099
X-91.484 Y-25.717
X-90.788 Y-25.473
X-90.065 Y-25.324
X-89.333 Y-25.233
X-88.597 Y-25.179
X-87.86 Y-25.146
X-87.123 Y-25.127
X-86.385 Y-25.116
X-85.647 Y-25.109
X-84.909 Y-25.105
X-83.434 Y-25.101
X-81.22 Y-25.1
X-80.482 Y-25.097
X-79.93 Y-25.08
X-79.605 Y-25.044
X-79.528 Y-25.029
X-79.34 Y-24.966
X-79.176 Y-24.855
X-79.047 Y-24.704
X-78.962 Y-24.524
X-78.823 Y-24.08
X-78.76 Y-23.912
X-78.511 Y-23.357
G3 X-78.961 Y-22.96 I-0.294 J0.12
G1 X-79.022 Y-22.995 Z-2.99
X-79.081 Y-23.028 Z-2.966
X-79.133 Y-23.058 Z-2.928
X-79.177 Y-23.083 Z-2.878
X-79.21 Y-23.101 Z-2.818
X-79.23 Y-23.113 Z-2.751
X-79.237 Y-23.117 Z-2.68
Z5
X-94.876 Y-52.29
Z-2.362
Z-2.68
X-94.869 Y-52.288 Z-2.751
X-94.847 Y-52.28 Z-2.818
X-94.811 Y-52.267 Z-2.878
X-94.764 Y-52.249 Z-2.928
X-94.707 Y-52.228 Z-2.966
X-94.644 Y-52.205 Z-2.99
X-94.578 Y-52.181 Z-2.997
G3 X-93.931 Y-51.736 I-0.546 J1.485
G1 X-93.764 Y-51.529
X-93.514 Y-51.229
X-93.374 Y-51.061
X-93.261 Y-50.935
X-92.758 Y-50.413
X-92.637 Y-50.273
X-92.528 Y-50.125
X-92.409 Y-49.933
X-92.283 Y-49.688
X-92.157 Y-49.387
X-92.025 Y-48.98
X-91.891 Y-48.419
X-91.778 Y-47.69
X-91.715 Y-46.955
X-91.679 Y-46.218
X-91.658 Y-45.48
X-91.646 Y-44.742
X-91.64 Y-44.005
X-91.636 Y-43.267
X-91.632 Y-41.791
X-91.631 Y-38.102
X-91.63 Y-29.248
X-91.627 Y-28.51
X-91.5 Y-28.164
X-91.303 Y-27.852
X-90.799 Y-27.313
X-90.156 Y-26.951
X-89.455 Y-26.722
X-88.731 Y-26.58
X-87.998 Y-26.495
X-87.262 Y-26.444
X-86.525 Y-26.413
X-85.787 Y-26.395
X-85.049 Y-26.385
X-84.312 Y-26.378
X-83.574 Y-26.375
X-81.36 Y-26.369
X-80.623 Y-26.358
X-80.203 Y-26.322
X-79.924 Y-26.275
X-79.876 Y-26.263
X-79.7 Y-26.194
X-79.548 Y-26.083
X-79.428 Y-25.937
X-79.349 Y-25.765
X-78.962 Y-24.524
G3 X-79.456 Y-24.184 I-0.306 J0.085
G1 X-79.513 Y-24.226 Z-2.99
X-79.567 Y-24.265 Z-2.966
X-79.616 Y-24.301 Z-2.928
X-79.656 Y-24.331 Z-2.878
X-79.687 Y-24.353 Z-2.818
X-79.706 Y-24.367 Z-2.751
X-79.712 Y-24.372 Z-2.68
Z5
X-93.747 Y-50.887
Z-2.362
Z-2.68
X-93.739 Y-50.884 Z-2.751
X-93.716 Y-50.878 Z-2.818
X-93.68 Y-50.868 Z-2.878
X-93.631 Y-50.855 Z-2.928
X-93.573 Y-50.839 Z-2.966
X-93.509 Y-50.821 Z-2.99
X-93.44 Y-50.802 Z-2.997
G3 X-92.758 Y-50.413 I-0.42 J1.526
G1 X-91.51 Y-49.115
X-91.385 Y-48.971
X-91.273 Y-48.819
X-91.152 Y-48.625
X-91.022 Y-48.371
X-90.895 Y-48.067
X-90.76 Y-47.651
X-90.625 Y-47.086
X-90.512 Y-46.357
X-90.448 Y-45.622
X-90.411 Y-44.885
X-90.39 Y-44.147
X-90.377 Y-43.41
X-90.37 Y-42.672
X-90.366 Y-41.934
X-90.363 Y-40.459
X-90.361 Y-37.507
X-90.36 Y-30.129
X-90.314 Y-29.763
X-90.19 Y-29.416
X-89.993 Y-29.104
X-89.486 Y-28.568
X-88.841 Y-28.209
X-88.139 Y-27.984
X-87.414 Y-27.845
X-86.681 Y-27.762
X-85.945 Y-27.712
X-85.208 Y-27.682
X-84.47 Y-27.665
X-83.732 Y-27.654
X-82.995 Y-27.648
X-82.257 Y-27.644
X-81.519 Y-27.637
X-80.865 Y-27.61
X-80.48 Y-27.563
X-80.212 Y-27.508
X-80.168 Y-27.495
X-79.982 Y-27.412
X-79.826 Y-27.282
X-79.712 Y-27.114
X-79.647 Y-26.921
X-79.616 Y-26.761
X-79.502 Y-26.259
X-79.451 Y-26.091
X-79.349 Y-25.765
G3 X-79.844 Y-25.426 I-0.306 J0.084
G1 X-79.901 Y-25.468 Z-2.99
X-79.955 Y-25.508 Z-2.966
X-80.003 Y-25.544 Z-2.928
X-80.044 Y-25.573 Z-2.878
X-80.074 Y-25.596 Z-2.818
X-80.093 Y-25.61 Z-2.751
X-80.099 Y-25.615 Z-2.68
Z5
X-92.498 Y-49.589
Z-2.362
Z-2.68
X-92.49 Y-49.587 Z-2.751
X-92.468 Y-49.58 Z-2.818
X-92.431 Y-49.57 Z-2.878
X-92.383 Y-49.557 Z-2.928
X-92.325 Y-49.541 Z-2.966
X-92.26 Y-49.523 Z-2.99
X-92.192 Y-49.505 Z-2.997
G3 X-91.51 Y-49.115 I-0.42 J1.526
G1 X-90.916 Y-48.497
X-90.801 Y-48.38
X-90.581 Y-48.159
X-90.291 Y-47.877
X-90.183 Y-47.773
X-90.062 Y-47.62
X-89.946 Y-47.448
X-89.82 Y-47.222
X-89.688 Y-46.935
X-89.556 Y-46.573
X-89.42 Y-46.081
X-89.282 Y-45.364
X-89.202 Y-44.63
X-89.155 Y-43.894
X-89.128 Y-43.157
X-89.113 Y-42.419
X-89.103 Y-41.681
X-89.098 Y-40.943
X-89.095 Y-40.206
X-89.092 Y-38.73
X-89.09 Y-34.303
Y-31.352
X-89.032 Y-30.988
X-88.896 Y-30.645
X-88.69 Y-30.339
X-88.172 Y-29.813
X-87.522 Y-29.463
X-86.818 Y-29.243
X-86.093 Y-29.109
X-85.359 Y-29.028
X-84.623 Y-28.979
X-83.886 Y-28.951
X-83.148 Y-28.934
X-82.41 Y-28.921
X-81.673 Y-28.902
X-81.085 Y-28.859
X-80.715 Y-28.802
X-80.461 Y-28.741
X-80.37 Y-28.712
X-80.191 Y-28.626
X-80.041 Y-28.495
X-79.932 Y-28.329
X-79.87 Y-28.141
X-79.647 Y-26.921
G3 X-80.177 Y-26.641 I-0.314 J0.048
G1 X-80.229 Y-26.689 Z-2.99
X-80.278 Y-26.735 Z-2.966
X-80.322 Y-26.776 Z-2.928
X-80.359 Y-26.81 Z-2.878
X-80.386 Y-26.836 Z-2.818
X-80.403 Y-26.852 Z-2.751
X-80.409 Y-26.858 Z-2.68
Z5
X-91.317 Y-48.261
Z-2.362
Z-2.68
X-91.31 Y-48.26 Z-2.751
X-91.286 Y-48.255 Z-2.818
X-91.249 Y-48.249 Z-2.878
X-91.2 Y-48.24 Z-2.928
X-91.14 Y-48.229 Z-2.966
X-91.074 Y-48.217 Z-2.99
X-91.005 Y-48.204 Z-2.997
G3 X-90.291 Y-47.877 I-0.282 J1.557
G1 X-90.245 Y-47.838
X-90.078 Y-47.698
X-89.91 Y-47.578
X-89.575 Y-47.365
X-89.483 Y-47.318
X-89.353 Y-47.243
X-89.232 Y-47.154
X-89.12 Y-47.055
X-88.999 Y-46.928
X-88.864 Y-46.762
X-88.737 Y-46.577
X-88.604 Y-46.345
X-88.461 Y-46.042
X-88.323 Y-45.676
X-88.18 Y-45.178
X-88.037 Y-44.47
X-87.949 Y-43.738
X-87.897 Y-43.002
X-87.866 Y-42.265
X-87.847 Y-41.527
X-87.836 Y-40.789
X-87.83 Y-40.052
X-87.826 Y-39.314
X-87.822 Y-37.838
X-87.821 Y-34.887
X-87.82 Y-32.673
X-87.769 Y-32.308
X-87.643 Y-31.961
X-87.445 Y-31.65
X-86.94 Y-31.112
X-86.295 Y-30.753
X-85.593 Y-30.526
X-84.869 Y-30.387
X-84.136 Y-30.303
X-83.4 Y-30.252
X-82.663 Y-30.216
X-81.926 Y-30.177
X-81.307 Y-30.118
X-80.924 Y-30.051
X-80.66 Y-29.982
X-80.533 Y-29.937
X-80.341 Y-29.837
X-80.187 Y-29.686
X-80.083 Y-29.496
X-80.038 Y-29.285
X-80.026 Y-29.097
X-80.01 Y-28.94
X-79.925 Y-28.437
X-79.87 Y-28.141
G3 X-80.402 Y-27.863 I-0.314 J0.046
G1 X-80.454 Y-27.912 Z-2.99
X-80.502 Y-27.958 Z-2.966
X-80.546 Y-27.999 Z-2.928
X-80.583 Y-28.034 Z-2.878
X-80.61 Y-28.06 Z-2.818
X-80.627 Y-28.076 Z-2.751
X-80.633 Y-28.081 Z-2.68
Z5
X-90.571 Y-47.446
Z-2.362
Z-2.68
X-90.563 Y-47.447 Z-2.751
X-90.54 Y-47.448 Z-2.818
X-90.502 Y-47.45 Z-2.878
X-90.452 Y-47.454 Z-2.928
X-90.392 Y-47.457 Z-2.966
X-90.325 Y-47.461 Z-2.99
X-90.255 Y-47.466 Z-2.997
G3 X-89.483 Y-47.318 I0.097 J1.58
G1 X-89.408 Y-47.279
X-89.02 Y-47.112
X-88.738 Y-47.047
X-88.593 Y-47.006
X-88.454 Y-46.951
X-88.322 Y-46.88
X-88.197 Y-46.796
X-88.074 Y-46.697
X-87.934 Y-46.566
X-87.798 Y-46.415
X-87.654 Y-46.227
X-87.491 Y-45.975
X-87.345 Y-45.704
X-87.187 Y-45.341
X-87.035 Y-44.902
X-86.879 Y-44.3
X-86.753 Y-43.573
X-86.675 Y-42.839
X-86.627 Y-42.103
X-86.597 Y-41.366
X-86.579 Y-40.628
X-86.568 Y-39.89
X-86.561 Y-39.152
X-86.557 Y-38.415
X-86.553 Y-36.939
X-86.551 Y-33.988
X-86.506 Y-33.622
X-86.39 Y-33.272
X-86.199 Y-32.956
X-85.705 Y-32.408
X-85.065 Y-32.04
X-84.365 Y-31.807
X-83.642 Y-31.661
X-82.91 Y-31.565
X-82.177 Y-31.487
X-81.469 Y-31.396
X-81.064 Y-31.31
X-80.788 Y-31.228
X-80.543 Y-31.134
X-80.53 Y-31.127
X-80.366 Y-31.02
X-80.237 Y-30.873
X-80.15 Y-30.697
X-80.112 Y-30.505
X-80.042 Y-29.356
X-80.038 Y-29.285
G3 X-80.599 Y-29.072 I-0.317 J0.009
G1 X-80.644 Y-29.126 Z-2.99
X-80.687 Y-29.178 Z-2.966
X-80.726 Y-29.224 Z-2.928
X-80.758 Y-29.263 Z-2.878
X-80.782 Y-29.292 Z-2.818
X-80.797 Y-29.31 Z-2.751
X-80.802 Y-29.316 Z-2.68
Z5
X-89.824 Y-46.904
Z-2.362
Z-2.68
X-89.816 Y-46.907 Z-2.751
X-89.794 Y-46.914 Z-2.818
X-89.758 Y-46.925 Z-2.878
X-89.71 Y-46.941 Z-2.928
X-89.653 Y-46.959 Z-2.966
X-89.589 Y-46.979 Z-2.99
X-89.522 Y-47.001 Z-2.997
G3 X-88.738 Y-47.047 I0.482 J1.507
G1 X-88.57 Y-47.008
X-88.403 Y-46.98
X-88.067 Y-46.944
X-87.9 Y-46.939
X-87.75 Y-46.935
X-87.605 Y-46.897
X-87.465 Y-46.842
X-87.331 Y-46.775
X-87.193 Y-46.69
X-87.05 Y-46.584
X-86.901 Y-46.455
X-86.738 Y-46.288
X-86.581 Y-46.1
X-86.401 Y-45.847
X-86.238 Y-45.571
X-86.057 Y-45.199
X-85.89 Y-44.774
X-85.718 Y-44.205
X-85.562 Y-43.484
X-85.46 Y-42.753
X-85.395 Y-42.019
X-85.353 Y-41.282
X-85.326 Y-40.545
X-85.309 Y-39.807
X-85.298 Y-39.069
X-85.291 Y-38.331
X-85.287 Y-37.594
X-85.283 Y-36.118
X-85.282 Y-35.38
X-85.258 Y-35.012
X-85.167 Y-34.655
X-84.998 Y-34.327
X-84.538 Y-33.75
X-83.915 Y-33.355
X-83.225 Y-33.094
X-82.51 Y-32.912
X-81.788 Y-32.76
X-81.208 Y-32.62
X-80.856 Y-32.504
X-80.614 Y-32.403
X-80.556 Y-32.373
X-80.389 Y-32.255
X-80.261 Y-32.096
X-80.182 Y-31.907
X-80.156 Y-31.705
X-80.157 Y-31.621
X-80.155 Y-31.286
X-80.149 Y-31.119
X-80.112 Y-30.505
G3 X-80.674 Y-30.294 I-0.317 J0.008
G1 X-80.719 Y-30.348 Z-2.99
X-80.762 Y-30.4 Z-2.966
X-80.8 Y-30.446 Z-2.928
X-80.833 Y-30.485 Z-2.878
X-80.857 Y-30.514 Z-2.818
X-80.872 Y-30.532 Z-2.751
X-80.877 Y-30.538 Z-2.68
Z5
X-88.9 Y-46.492
Z-2.362
Z-2.68
X-88.894 Y-46.496 Z-2.751
X-88.874 Y-46.51 Z-2.818
X-88.843 Y-46.531 Z-2.878
X-88.802 Y-46.559 Z-2.928
X-88.752 Y-46.593 Z-2.966
X-88.696 Y-46.631 Z-2.99
X-88.638 Y-46.671 Z-2.997
G3 X-87.9 Y-46.939 I0.893 J1.307
G1 X-87.565 Y-46.96
X-87.397 Y-46.975
X-87.179 Y-47.006
X-87.03 Y-47.019
X-86.88 Y-47.009
X-86.733 Y-46.98
X-86.589 Y-46.937
X-86.45 Y-46.88
X-86.301 Y-46.805
X-86.15 Y-46.712
X-85.979 Y-46.587
X-85.813 Y-46.445
X-85.626 Y-46.255
X-85.45 Y-46.046
X-85.249 Y-45.764
X-85.067 Y-45.46
X-84.86 Y-45.041
X-84.678 Y-44.583
X-84.492 Y-43.977
X-84.333 Y-43.256
X-84.224 Y-42.526
X-84.151 Y-41.792
X-84.102 Y-41.056
X-84.07 Y-40.319
X-84.049 Y-39.582
X-84.035 Y-38.844
X-84.026 Y-38.106
X-84.02 Y-37.368
X-84.017 Y-36.63
X-83.99 Y-36.263
X-83.897 Y-35.906
X-83.727 Y-35.578
X-83.271 Y-34.998
X-82.661 Y-34.583
X-81.989 Y-34.279
X-81.298 Y-34.021
X-80.854 Y-33.841
X-80.585 Y-33.707
X-80.441 Y-33.62
X-80.285 Y-33.493
X-80.169 Y-33.33
X-80.1 Y-33.141
X-80.085 Y-32.941
X-80.155 Y-31.789
X-80.156 Y-31.705
G3 X-80.732 Y-31.536 I-0.317 J-0.016
G1 X-80.773 Y-31.594 Z-2.99
X-80.812 Y-31.648 Z-2.966
X-80.847 Y-31.697 Z-2.928
X-80.876 Y-31.738 Z-2.878
X-80.898 Y-31.769 Z-2.818
X-80.912 Y-31.788 Z-2.751
X-80.916 Y-31.795 Z-2.68
Z5
X-88.143 Y-46.485
Z-2.362
Z-2.68
X-88.137 Y-46.49 Z-2.751
X-88.119 Y-46.505 Z-2.818
X-88.089 Y-46.528 Z-2.878
X-88.05 Y-46.56 Z-2.928
X-88.003 Y-46.597 Z-2.966
X-87.95 Y-46.639 Z-2.99
X-87.895 Y-46.683 Z-2.997
G3 X-87.179 Y-47.006 I0.987 J1.237
G1 X-86.935 Y-47.039
X-86.56 Y-47.149
X-86.467 Y-47.177
X-86.322 Y-47.213
X-86.173 Y-47.227
X-86.023 Y-47.22
X-85.874 Y-47.199
X-85.729 Y-47.162
X-85.583 Y-47.113
X-85.417 Y-47.041
X-85.251 Y-46.953
X-85.068 Y-46.836
X-84.884 Y-46.696
X-84.68 Y-46.514
X-84.478 Y-46.302
X-84.268 Y-46.042
X-84.051 Y-45.727
X-83.84 Y-45.357
X-83.614 Y-44.877
X-83.414 Y-44.346
X-83.213 Y-43.644
X-83.067 Y-42.92
X-82.964 Y-42.19
X-82.892 Y-41.455
X-82.842 Y-40.719
X-82.808 Y-39.982
X-82.785 Y-39.245
X-82.77 Y-38.507
X-82.76 Y-37.769
X-82.713 Y-37.403
X-82.602 Y-37.052
X-82.25 Y-36.403
X-81.713 Y-35.897
X-81.098 Y-35.491
X-80.501 Y-35.135
X-80.277 Y-34.975
X-80.128 Y-34.834
X-80.024 Y-34.658
X-79.971 Y-34.461
X-79.975 Y-34.256
X-80.021 Y-33.968
X-80.026 Y-33.925
X-80.085 Y-32.941
G3 X-80.668 Y-32.799 I-0.316 J-0.03
G1 X-80.707 Y-32.859 Z-2.99
X-80.743 Y-32.915 Z-2.966
X-80.776 Y-32.966 Z-2.928
X-80.803 Y-33.008 Z-2.878
X-80.823 Y-33.04 Z-2.818
X-80.836 Y-33.06 Z-2.751
X-80.84 Y-33.066 Z-2.68
Z5
X-87.338 Y-46.511
Z-2.362
Z-2.68
X-87.333 Y-46.517 Z-2.751
X-87.317 Y-46.535 Z-2.818
X-87.291 Y-46.563 Z-2.878
X-87.258 Y-46.6 Z-2.928
X-87.217 Y-46.644 Z-2.966
X-87.172 Y-46.694 Z-2.99
X-87.124 Y-46.746 Z-2.997
G3 X-86.467 Y-47.177 I1.169 J1.066
G1 X-86.392 Y-47.2
X-85.89 Y-47.38
X-85.797 Y-47.425
X-85.659 Y-47.483
X-85.514 Y-47.522
X-85.365 Y-47.54
X-85.215 Y-47.541
X-85.066 Y-47.527
X-84.915 Y-47.499
X-84.758 Y-47.456
X-84.582 Y-47.393
X-84.403 Y-47.312
X-84.202 Y-47.201
X-84.003 Y-47.069
X-83.78 Y-46.894
X-83.565 Y-46.696
X-83.325 Y-46.435
X-83.091 Y-46.136
X-82.855 Y-45.779
X-82.601 Y-45.317
X-82.38 Y-44.826
X-82.153 Y-44.19
X-81.962 Y-43.477
X-81.82 Y-42.753
X-81.717 Y-42.022
X-81.642 Y-41.288
X-81.589 Y-40.552
X-81.551 Y-39.816
X-81.525 Y-39.078
X-81.459 Y-38.343
X-81.17 Y-37.664
X-80.707 Y-37.09
X-80.167 Y-36.588
X-79.933 Y-36.364
X-79.818 Y-36.222
X-79.741 Y-36.057
X-79.706 Y-35.878
X-79.717 Y-35.696
X-79.941 Y-34.47
X-79.975 Y-34.256
G3 X-80.569 Y-34.171 I-0.312 J-0.06
G1 X-80.601 Y-34.234 Z-2.99
X-80.632 Y-34.293 Z-2.966
X-80.66 Y-34.347 Z-2.928
X-80.683 Y-34.391 Z-2.878
X-80.7 Y-34.425 Z-2.818
X-80.711 Y-34.446 Z-2.751
X-80.715 Y-34.453 Z-2.68
Z5
X-86.554 Y-46.632
Z-2.362
Z-2.68
X-86.55 Y-46.639 Z-2.751
X-86.537 Y-46.658 Z-2.818
X-86.516 Y-46.69 Z-2.878
X-86.488 Y-46.732 Z-2.928
X-86.455 Y-46.782 Z-2.966
X-86.418 Y-46.838 Z-2.99
X-86.379 Y-46.897 Z-2.997
G3 X-85.797 Y-47.425 I1.321 J0.872
G1 X-85.387 Y-47.626
X-85.219 Y-47.711
X-85.052 Y-47.798
X-84.919 Y-47.868
X-84.776 Y-47.914
X-84.629 Y-47.941
X-84.479 Y-47.953
X-84.329 Y-47.949
X-84.174 Y-47.932
X-84.08 Y-47.908
X-83.99 Y-47.872
X-83.905 Y-47.824
G3 X-84.075 Y-47.248 I-0.183 J0.26
G1 X-84.864 Y-47.216
G3 X-85.052 Y-47.798 I-0.013 J-0.317
G1 X-84.884 Y-47.901
X-84.717 Y-48.013
X-84.671 Y-48.045
X-84.61 Y-48.084
X-84.58 Y-48.098
X-84.549 Y-48.108
X-84.507 Y-48.116
X-84.465 Y-48.119
X-84.424 Y-48.116
X-84.382 Y-48.11
X-84.347 Y-48.101
X-84.312 Y-48.087
X-84.243 Y-48.045
X-83.209 Y-47.37
X-82.958 Y-47.207
X-82.687 Y-47.011
X-82.465 Y-46.821
X-82.244 Y-46.599
X-82.009 Y-46.322
X-81.766 Y-45.984
X-81.526 Y-45.586
X-81.272 Y-45.076
X-81.034 Y-44.484
X-80.815 Y-43.779
X-80.65 Y-43.06
X-80.526 Y-42.333
X-80.434 Y-41.601
X-80.366 Y-40.866
X-80.317 Y-40.13
X-80.245 Y-39.396
X-79.988 Y-38.704
X-79.593 Y-38.081
X-79.453 Y-37.884
X-79.351 Y-37.682
X-79.316 Y-37.458
X-79.349 Y-37.234
X-79.479 Y-36.817
X-79.523 Y-36.672
X-79.634 Y-36.146
X-79.717 Y-35.696
Z5
X-84.028 Y-47.445
Z-2.362
Z-2.68
X-84.02 Z-2.751
X-83.996 Y-47.444 Z-2.818
X-83.958 Y-47.442 Z-2.878
X-83.908 Y-47.44 Z-2.928
X-83.848 Y-47.438 Z-2.966
X-83.781 Y-47.435 Z-2.99
X-83.71 Y-47.432 Z-2.997
G3 X-82.958 Y-47.207 I-0.063 J1.581
G1 X-81.199 Y-46.069
X-80.98 Y-45.912
X-80.829 Y-45.783
X-80.674 Y-45.629
X-80.497 Y-45.42
X-80.316 Y-45.17
X-80.129 Y-44.863
X-79.932 Y-44.469
X-79.725 Y-43.957
X-79.522 Y-43.311
X-79.358 Y-42.592
X-79.239 Y-41.863
X-79.153 Y-41.131
X-79.058 Y-40.399
X-78.842 Y-39.693
X-78.795 Y-39.585
X-78.742 Y-39.396
X-78.74 Y-39.198
X-78.79 Y-39.008
G3 X-79.38 Y-39.036 I-0.289 J-0.132
G1 X-79.389 Y-39.063
X-81.658 Y-45.683
X-81.662 Y-45.693
G3 X-81.199 Y-46.069 I0.3 J-0.103
G1 X-80.626 Y-45.699
X-80.528 Y-45.637
X-80.193 Y-45.434
X-80.067 Y-45.363
X-79.858 Y-45.251
X-79.675 Y-45.14
X-79.554 Y-45.052
X-79.417 Y-44.935
X-79.261 Y-44.779
X-79.109 Y-44.6
X-78.947 Y-44.376
X-78.768 Y-44.079
X-78.596 Y-43.736
X-78.41 Y-43.273
X-78.213 Y-42.643
X-78.05 Y-41.923
X-77.92 Y-41.304
X-77.904 Y-41.149
X-77.92 Y-40.995
X-77.969 Y-40.847
G3 X-78.545 Y-40.86 I-0.285 J-0.14
G1 X-78.57 Y-40.919
X-80.286 Y-44.83
X-80.29 Y-44.839
G3 X-79.858 Y-45.251 I0.291 J-0.128
G1 X-78.518 Y-44.527
X-78.35 Y-44.426
X-78.228 Y-44.338
X-78.092 Y-44.221
X-77.937 Y-44.065
X-77.79 Y-43.892
X-77.628 Y-43.668
X-77.447 Y-43.366
X-77.24 Y-42.952
X-77.206 Y-42.866
X-77.154 Y-42.647
X-77.172 Y-42.422
X-77.255 Y-42.213
G3 X-77.794 Y-42.219 I-0.267 J-0.171
G1 X-77.868 Y-42.34
X-78.93 Y-44.077
G3 X-78.518 Y-44.527 I0.271 J-0.166
G1 X-77.178 Y-43.805
X-77.049 Y-43.727
X-76.911 Y-43.587
X-76.819 Y-43.412
X-76.782 Y-43.219
X-76.803 Y-43.023
X-76.879 Y-42.841
G3 X-77.445 Y-42.911 I-0.266 J-0.174
G1 X-77.47 Y-42.984
X-77.607 Y-43.383
X-77.618 Y-43.417
G3 X-77.178 Y-43.805 I0.3 J-0.103
G1 X-76.843 Y-43.625
X-76.776 Y-43.583
X-76.742 Y-43.556
X-76.709 Y-43.52
X-76.69 Y-43.494
X-76.675 Y-43.468
X-76.662 Y-43.439
X-76.652 Y-43.41
X-76.646 Y-43.381
X-76.642 Y-43.352
X-76.641 Y-43.311
X-76.645 Y-43.269
X-76.656 Y-43.227
X-76.675 Y-43.179
X-76.873 Y-42.85
X-77.076 Y-42.515
X-77.275 Y-42.179
X-77.563 Y-41.677
X-77.655 Y-41.509
X-77.68 Y-41.461
X-77.848 Y-41.115
X-78.199 Y-40.336
X-78.685 Y-39.254
X-78.726 Y-39.163
X-78.795 Y-38.995
X-78.853 Y-38.827
X-79.349 Y-37.234
G3 X-79.724 Y-37.031 I-0.3 J-0.105
G1 X-79.772 Y-37.056 Z-2.993
X-79.819 Y-37.081 Z-2.978
X-79.863 Y-37.104 Z-2.955
X-79.89 Y-37.145 Z-2.92
X-79.913 Y-37.18 Z-2.876
X-79.931 Y-37.207 Z-2.824
X-79.943 Y-37.226 Z-2.768
X-79.949 Y-37.235 Z-2.708
Y-37.236 Z-2.68
Z5
X-86.118 Y-82.198
Z2.501
S5000
G3 X-83.876 Y-84.216 Z2.336 I1.121 J-1.009 F333.3
X-86.118 Y-82.198 Z2.17 I-1.121 J1.009
X-83.876 Y-84.216 Z2.005 I1.121 J-1.009
X-86.118 Y-82.198 Z1.839 I-1.121 J1.009
X-83.876 Y-84.216 Z1.674 I1.121 J-1.009
X-86.118 Y-82.198 Z1.508 I-1.121 J1.009
X-83.876 Y-84.216 Z1.343 I1.121 J-1.009
X-86.118 Y-82.198 Z1.177 I-1.121 J1.009
X-83.876 Y-84.216 Z1.012 I1.121 J-1.009
X-86.118 Y-82.198 Z0.846 I-1.121 J1.009
X-83.876 Y-84.216 Z0.681 I1.121 J-1.009
X-86.118 Y-82.198 Z0.516 I-1.121 J1.009
X-83.876 Y-84.216 Z0.35 I1.121 J-1.009
X-86.118 Y-82.198 Z0.185 I-1.121 J1.009
X-83.876 Y-84.216 Z0.019 I1.121 J-1.009
X-86.118 Y-82.198 Z-0.146 I-1.121 J1.009
X-83.876 Y-84.216 Z-0.312 I1.121 J-1.009
X-86.118 Y-82.198 Z-0.477 I-1.121 J1.009
X-83.876 Y-84.216 Z-0.643 I1.121 J-1.009
X-86.118 Y-82.198 Z-0.808 I-1.121 J1.009
X-83.876 Y-84.216 Z-0.973 I1.121 J-1.009
X-86.118 Y-82.198 Z-1.139 I-1.121 J1.009
X-83.876 Y-84.216 Z-1.304 I1.121 J-1.009
X-86.118 Y-82.198 Z-1.47 I-1.121 J1.009
X-83.876 Y-84.216 Z-1.635 I1.121 J-1.009
X-86.118 Y-82.198 Z-1.801 I-1.121 J1.009
X-83.876 Y-84.216 Z-1.966 I1.121 J-1.009
X-86.118 Y-82.198 Z-2.132 I-1.121 J1.009
X-83.876 Y-84.216 Z-2.297 I1.121 J-1.009
X-86.118 Y-82.198 Z-2.463 I-1.121 J1.009
X-83.876 Y-84.216 Z-2.628 I1.121 J-1.009
X-86.118 Y-82.198 Z-2.793 I-1.121 J1.009
X-83.876 Y-84.216 Z-2.959 I1.121 J-1.009
