(1001)
G90 G94
G17
G21
(When using Fusion 360 for Personal Use, the feedrate of )
(rapid moves is reduced to match the feedrate of cutting )
(moves, which can increase machining time. Unrestricted )
(rapid moves are available with a Fusion 360 Subscription. )

(2D-Kontur2)
T5
S8000 M3
G54
G0 X-35.649 Y-4.412
Z15
G1 Z5 F1000
Z2.5 F333.3
S5000
X-6 Z1.465
G2 X-4.412 Y-6 Z1.378 I0 J-1.588
G1 Y-38 Z0.26
G2 X-6 Y-39.588 Z0.173 I-1.588 J0
G1 X-31 Z-0.7
S8000
X-56 F1000
G2 X-57.588 Y-38 I0 J1.588
G1 Y-6
G2 X-56 Y-4.412 I1.588 J0
G1 X-6
G2 X-4.412 Y-6 I0 J-1.588
G1 Y-38
G2 X-6 Y-39.588 I-1.588 J0
G1 X-31
S5000
X-39.591 Z-1 F333.3
S8000
X-56 F1000
G2 X-57.588 Y-38 I0 J1.588
G1 Y-6
G2 X-56 Y-4.412 I1.588 J0
G1 X-6
G2 X-4.412 Y-6 I0 J-1.588
G1 Y-38
G2 X-6 Y-39.588 I-1.588 J0
G1 X-31
X-39.591
Z15
(When using Fusion 360 for Personal Use, the feedrate of )
(rapid moves is reduced to match the feedrate of cutting )
(moves, which can increase machining time. Unrestricted )
(rapid moves are available with a Fusion 360 Subscription. )

(2D Adaptive1)
G0 X-56.327 Y-41.704
G1 Z15 F1000
Z5
Z-0.065
Z-0.382
X-56.325 Y-41.696 Z-0.453
X-56.32 Y-41.674 Z-0.52
X-56.31 Y-41.637 Z-0.58
X-56.298 Y-41.588 Z-0.631
X-56.283 Y-41.53 Z-0.669
X-56.266 Y-41.465 Z-0.692
X-56.249 Y-41.396 Z-0.7
G3 X-56 Y-39.668 I-7.852 J2.011
G1 Y-39.518
X-56.128 Y-38.889
X-56.206 Y-38.251
X-56.251 Y-37.611
X-56.279 Y-36.969
X-56.295 Y-36.327
X-56.304 Y-35.685
X-56.31 Y-35.043
X-56.313 Y-34.401
X-56.316 Y-33.116
X-56.317 Y-29.905
X-56.318 Y-7.429
X-56.238 Y-7.118
X-56.06 Y-6.851
X-55.598 Y-6.405
X-55.022 Y-6.12
X-54.404 Y-5.945
X-53.771 Y-5.838
X-53.132 Y-5.775
X-52.491 Y-5.737
X-51.849 Y-5.714
X-51.207 Y-5.701
X-50.565 Y-5.694
X-49.923 Y-5.689
X-49.281 Y-5.686
X-47.996 Y-5.684
X-46.085 Y-5.683
X-45.966 Y-5.673
X-45.85 Y-5.645
X-45.741 Y-5.598
X-45.653 Y-5.552
X-45.507 Y-5.496
X-45.361 Y-5.457
X-45.288 Y-5.439
X-45.252 Y-5.436
X-44.924 Y-5.418
X-44.778 Y-5.413
X-44.34 Y-5.414
X-44.195 Y-5.418
X-44.049 Y-5.435
X-43.903 Y-5.463
X-43.623 Y-5.516
X-42.985 Y-5.586
X-42.344 Y-5.626
X-41.702 Y-5.649
X-41.06 Y-5.663
X-40.418 Y-5.671
X-39.776 Y-5.676
X-39.134 Y-5.679
X-37.849 Y-5.681
X-33.996 Y-5.682
X-18.792
X-18.678 Y-5.674
X-18.566 Y-5.647
X-18.459 Y-5.603
X-18.388 Y-5.568
X-18.328 Y-5.541
X-18.243 Y-5.505
X-18.097 Y-5.463
X-17.951 Y-5.435
X-17.805 Y-5.418
X-17.66 Y-5.414
X-17.222 Y-5.413
X-17.076 Y-5.418
X-16.73 Y-5.437
X-16.712 Y-5.439
X-16.672 Y-5.449
X-16.271 Y-5.523
X-15.633 Y-5.59
X-14.992 Y-5.628
X-14.35 Y-5.651
X-13.708 Y-5.664
X-13.066 Y-5.672
X-12.423 Y-5.676
X-11.781 Y-5.679
X-10.497 Y-5.681
X-7.446 Y-5.682
X-7.29 Y-5.717
X-6.997 Y-5.848
X-6.749 Y-6.053
X-6.339 Y-6.547
X-6.079 Y-7.134
X-5.92 Y-7.756
X-5.823 Y-8.391
X-5.766 Y-9.031
X-5.731 Y-9.672
X-5.711 Y-10.314
X-5.699 Y-10.956
X-5.692 Y-11.598
X-5.688 Y-12.24
X-5.685 Y-13.525
X-5.683 Y-16.093
X-5.682 Y-36.643
X-5.791 Y-36.946
X-5.984 Y-37.203
X-6.463 Y-37.63
X-7.045 Y-37.901
X-7.665 Y-38.069
X-8.299 Y-38.17
X-8.939 Y-38.23
X-9.58 Y-38.266
X-10.222 Y-38.287
X-10.864 Y-38.3
X-11.506 Y-38.307
X-12.148 Y-38.311
X-12.79 Y-38.314
X-14.074 Y-38.316
X-14.717 Y-38.317
X-15.915
X-16.034 Y-38.327
X-16.15 Y-38.355
X-16.259 Y-38.402
X-16.347 Y-38.448
X-16.493 Y-38.504
X-16.639 Y-38.543
X-16.712 Y-38.561
X-16.748 Y-38.564
X-17.076 Y-38.582
X-17.222 Y-38.587
X-17.66 Y-38.586
X-17.805 Y-38.582
X-17.951 Y-38.565
X-18.097 Y-38.538
X-18.377 Y-38.484
X-19.015 Y-38.414
X-19.656 Y-38.374
X-20.298 Y-38.351
X-20.94 Y-38.337
X-21.582 Y-38.329
X-22.224 Y-38.324
X-22.867 Y-38.321
X-24.151 Y-38.319
X-28.004 Y-38.318
X-43.208
X-43.322 Y-38.326
X-43.434 Y-38.353
X-43.541 Y-38.397
X-43.611 Y-38.432
X-43.672 Y-38.459
X-43.757 Y-38.495
X-43.903 Y-38.538
X-44.049 Y-38.565
X-44.195 Y-38.582
X-44.34 Y-38.586
X-44.778 Y-38.587
X-44.924 Y-38.582
X-45.27 Y-38.563
X-45.288 Y-38.561
X-45.328 Y-38.551
X-45.729 Y-38.477
X-46.368 Y-38.41
X-47.009 Y-38.372
X-47.65 Y-38.349
X-48.293 Y-38.336
X-48.935 Y-38.328
X-49.577 Y-38.324
X-50.219 Y-38.321
X-51.503 Y-38.319
X-53.109 Y-38.318
X-53.269 Y-38.307
X-53.577 Y-38.217
X-53.843 Y-38.036
X-54.29 Y-37.575
X-54.581 Y-37.003
X-54.763 Y-36.387
X-54.876 Y-35.755
X-54.944 Y-35.116
X-54.986 Y-34.475
X-55.011 Y-33.834
X-55.025 Y-33.192
X-55.034 Y-32.55
X-55.04 Y-31.907
X-55.043 Y-31.265
X-55.046 Y-29.981
X-55.047 Y-26.77
X-55.048 Y-9.11
X-54.996 Y-8.793
X-54.865 Y-8.5
X-54.485 Y-7.982
X-53.957 Y-7.617
X-53.362 Y-7.374
X-52.74 Y-7.217
X-52.105 Y-7.117
X-51.466 Y-7.054
X-50.825 Y-7.015
X-50.184 Y-6.991
X-49.542 Y-6.976
X-48.9 Y-6.967
X-48.257 Y-6.961
X-47.726 Y-6.958
X-47.52 Y-6.928
X-47.33 Y-6.842
X-47.173 Y-6.706
X-47.045 Y-6.56
X-46.78 Y-6.269
X-46.673 Y-6.164
X-46.625 Y-6.123
X-46.527 Y-6.057
X-46.159 Y-5.832
X-46.09 Y-5.791
X-45.798 Y-5.628
X-45.741 Y-5.598
G3 X-45.582 Y-5.399 I-0.147 J0.281
G2 X-45.411 Y-5.195 I0.307 J-0.083
G1 X-45.186 Y-5.088
X-44.933 Y-4.968
G2 X-44.564 Y-5.038 I0.136 J-0.287
G3 X-43.903 Y-5.463 I1.159 J1.078
G1 X-43.757 Y-5.505
X-43.672 Y-5.541
X-43.611 Y-5.568
X-43.466 Y-5.641
X-43.028 Y-5.893
X-42.883 Y-5.978
X-42.737 Y-6.077
X-42.673 Y-6.123
X-42.55 Y-6.21
X-42.361 Y-6.315
X-42.121 Y-6.425
X-41.802 Y-6.541
X-41.366 Y-6.66
X-40.735 Y-6.78
X-40.097 Y-6.85
X-39.456 Y-6.892
X-38.815 Y-6.916
X-38.173 Y-6.931
X-37.53 Y-6.94
X-36.888 Y-6.945
X-36.246 Y-6.948
X-34.962 Y-6.951
X-31.751 Y-6.952
X-20.363
X-20.175 Y-6.928
X-20 Y-6.857
X-19.848 Y-6.744
X-19.73 Y-6.596
X-19.701 Y-6.549
X-19.615 Y-6.415
X-19.485 Y-6.269
X-19.409 Y-6.187
X-19.327 Y-6.123
X-19.263 Y-6.077
X-19.117 Y-5.978
X-18.68 Y-5.725
X-18.534 Y-5.641
X-18.459 Y-5.603
G3 X-18.297 Y-5.407 I-0.143 J0.284
G2 X-18.133 Y-5.211 I0.305 J-0.088
G1 X-17.9 Y-5.094
X-17.717 Y-5.003
G2 X-17.353 Y-5.059 I0.142 J-0.284
G3 X-16.672 Y-5.449 I1.102 J1.136
G1 X-16.639 Y-5.457
X-16.493 Y-5.496
X-16.347 Y-5.552
X-16.202 Y-5.628
X-15.91 Y-5.791
X-15.841 Y-5.832
X-15.473 Y-6.057
X-15.375 Y-6.123
X-15.25 Y-6.207
X-15.063 Y-6.312
X-14.823 Y-6.422
X-14.507 Y-6.538
X-14.076 Y-6.657
X-13.445 Y-6.778
X-12.807 Y-6.849
X-12.166 Y-6.891
X-11.524 Y-6.916
X-10.882 Y-6.931
X-10.24 Y-6.94
X-9.598 Y-6.945
X-8.956 Y-6.948
X-8.65 Y-7.045
X-8.373 Y-7.208
X-7.891 Y-7.632
X-7.556 Y-8.18
X-7.335 Y-8.783
X-7.192 Y-9.409
X-7.101 Y-10.045
X-7.044 Y-10.685
X-7.009 Y-11.326
X-6.987 Y-11.968
X-6.974 Y-12.61
X-6.965 Y-13.252
X-6.96 Y-13.894
X-6.957 Y-14.536
X-6.954 Y-15.821
X-6.953 Y-19.031
X-6.952 Y-35.086
X-7.058 Y-35.389
X-7.228 Y-35.661
X-7.662 Y-36.135
X-8.215 Y-36.462
X-8.82 Y-36.677
X-9.447 Y-36.816
X-10.083 Y-36.904
X-10.723 Y-36.959
X-11.364 Y-36.993
X-12.006 Y-37.014
X-12.648 Y-37.027
X-13.29 Y-37.035
X-13.932 Y-37.04
X-14.274 Y-37.041
X-14.48 Y-37.072
X-14.669 Y-37.158
X-14.827 Y-37.294
X-14.955 Y-37.44
X-15.22 Y-37.731
X-15.327 Y-37.836
X-15.375 Y-37.877
X-15.473 Y-37.943
X-15.841 Y-38.168
X-15.91 Y-38.209
X-16.202 Y-38.372
X-16.259 Y-38.402
G3 X-16.418 Y-38.601 I0.147 J-0.281
G2 X-16.589 Y-38.805 I-0.307 J0.083
G1 X-16.814 Y-38.912
X-17.067 Y-39.032
G2 X-17.436 Y-38.962 I-0.136 J0.287
G3 X-18.097 Y-38.538 I-1.159 J-1.078
G1 X-18.243 Y-38.495
X-18.328 Y-38.459
X-18.388 Y-38.432
X-18.534 Y-38.359
X-18.972 Y-38.107
X-19.117 Y-38.022
X-19.263 Y-37.923
X-19.327 Y-37.877
X-19.45 Y-37.79
X-19.639 Y-37.685
X-19.879 Y-37.575
X-20.198 Y-37.459
X-20.634 Y-37.34
X-21.265 Y-37.22
X-21.903 Y-37.15
X-22.544 Y-37.108
X-23.185 Y-37.084
X-23.827 Y-37.069
X-24.47 Y-37.06
X-25.112 Y-37.055
X-25.754 Y-37.052
X-27.038 Y-37.049
X-30.249 Y-37.048
X-41.637
X-41.825 Y-37.072
X-42 Y-37.143
X-42.152 Y-37.256
X-42.27 Y-37.404
X-42.299 Y-37.451
X-42.385 Y-37.585
X-42.515 Y-37.731
X-42.591 Y-37.813
X-42.673 Y-37.877
X-42.737 Y-37.923
X-42.883 Y-38.022
X-43.32 Y-38.275
X-43.466 Y-38.359
X-43.541 Y-38.397
G3 X-43.703 Y-38.593 I0.143 J-0.284
G2 X-43.866 Y-38.789 I-0.305 J0.088
G1 X-44.1 Y-38.906
X-44.283 Y-38.997
G2 X-44.647 Y-38.941 I-0.142 J0.284
G3 X-45.328 Y-38.551 I-1.102 J-1.136
G1 X-45.361 Y-38.543
X-45.507 Y-38.504
X-45.653 Y-38.448
X-45.798 Y-38.372
X-46.09 Y-38.209
X-46.159 Y-38.168
X-46.527 Y-37.943
X-46.625 Y-37.877
X-46.75 Y-37.793
X-46.937 Y-37.688
X-47.177 Y-37.578
X-47.493 Y-37.462
X-47.924 Y-37.343
X-48.555 Y-37.222
X-49.193 Y-37.151
X-49.834 Y-37.109
X-50.476 Y-37.084
X-51.118 Y-37.069
X-51.76 Y-37.06
X-52.065 Y-36.961
X-52.341 Y-36.797
X-52.824 Y-36.374
X-53.161 Y-35.827
X-53.385 Y-35.225
X-53.53 Y-34.599
X-53.623 Y-33.964
X-53.681 Y-33.324
X-53.718 Y-32.683
X-53.741 Y-32.041
X-53.755 Y-31.399
X-53.764 Y-30.757
X-53.769 Y-30.115
X-53.772 Y-29.473
X-53.776 Y-28.189
X-53.777 Y-25.62
X-53.778 Y-10.528
X-53.728 Y-10.211
X-53.609 Y-9.913
X-53.255 Y-9.377
X-52.745 Y-8.987
X-52.161 Y-8.72
X-51.544 Y-8.542
X-50.912 Y-8.426
X-50.275 Y-8.351
X-49.634 Y-8.304
X-48.843 Y-8.267
X-48.648 Y-8.231
X-48.47 Y-8.145
X-48.32 Y-8.015
X-47.173 Y-6.706
G3 X-47.487 Y-6.195 I-0.246 J0.201
G1 X-47.556 Y-6.21 Z-0.692
X-47.622 Y-6.225 Z-0.669
X-47.68 Y-6.238 Z-0.631
X-47.729 Y-6.249 Z-0.58
X-47.766 Y-6.257 Z-0.52
X-47.789 Y-6.262 Z-0.453
X-47.797 Y-6.264 Z-0.382
Z5
X-43.246 Y-5.189
Z-0.065
Z-0.382
X-43.243 Y-5.196 Z-0.453
X-43.234 Y-5.218 Z-0.52
X-43.221 Y-5.254 Z-0.58
X-43.202 Y-5.3 Z-0.631
X-43.181 Y-5.356 Z-0.669
X-43.156 Y-5.419 Z-0.692
X-43.131 Y-5.485 Z-0.7
G3 X-42.673 Y-6.123 I1.475 J0.574
G1 X-42.591 Y-6.187
X-42.515 Y-6.269
X-42.385 Y-6.415
X-42.292 Y-6.56
X-42.203 Y-6.706
X-42.176 Y-6.753
X-42.095 Y-6.879
X-41.999 Y-6.995
X-41.889 Y-7.105
X-41.765 Y-7.212
X-41.602 Y-7.33
X-41.398 Y-7.454
X-41.152 Y-7.578
X-40.828 Y-7.71
X-40.411 Y-7.842
X-39.827 Y-7.976
X-39.191 Y-8.069
X-38.552 Y-8.127
X-37.911 Y-8.163
X-37.269 Y-8.185
X-36.627 Y-8.2
X-35.985 Y-8.208
X-35.342 Y-8.214
X-34.7 Y-8.217
X-33.416 Y-8.22
X-30.847 Y-8.222
X-21.214
X-20.856 Y-8.195
X-20.643 Y-8.128
X-20.46 Y-8
X-20.323 Y-7.824
X-20.245 Y-7.615
X-20.238 Y-7.58
X-20.187 Y-7.434
X-20.138 Y-7.311
X-20.047 Y-7.143
X-19.965 Y-6.997
X-19.797 Y-6.706
X-19.73 Y-6.596
Z5
X-42.357 Y-5.673
Z-0.065
Z-0.382
Y-5.681 Z-0.453
Y-5.704 Z-0.52
X-42.358 Y-5.742 Z-0.58
X-42.359 Y-5.792 Z-0.631
Y-5.852 Z-0.669
X-42.36 Y-5.92 Z-0.692
X-42.361 Y-5.99 Z-0.7
G3 X-42.176 Y-6.753 I1.582 J-0.02
G1 X-42.008 Y-7.045
X-41.953 Y-7.143
X-41.862 Y-7.311
X-41.813 Y-7.434
X-41.762 Y-7.58
X-41.713 Y-7.722
X-41.642 Y-7.853
X-41.557 Y-7.977
X-41.461 Y-8.093
X-41.338 Y-8.218
X-41.179 Y-8.357
X-41.004 Y-8.486
X-40.775 Y-8.628
X-40.496 Y-8.772
X-40.146 Y-8.918
X-39.7 Y-9.063
X-39.085 Y-9.21
X-38.45 Y-9.309
X-37.811 Y-9.373
X-37.171 Y-9.415
X-36.529 Y-9.443
X-35.887 Y-9.46
X-35.245 Y-9.472
X-34.603 Y-9.479
X-33.961 Y-9.484
X-33.318 Y-9.487
X-32.034 Y-9.49
X-29.465 Y-9.492
X-22.401
X-21.771 Y-9.483
X-21.413 Y-9.448
X-21.156 Y-9.403
X-20.912 Y-9.339
X-20.786 Y-9.294
X-20.582 Y-9.185
X-20.423 Y-9.019
X-20.322 Y-8.811
X-20.29 Y-8.583
X-20.292 Y-8.454
Y-8.162
Y-8.017
X-20.286 Y-7.871
X-20.284 Y-7.848
X-20.268 Y-7.725
X-20.245 Y-7.615
G3 X-20.77 Y-7.324 I-0.313 J0.054
G1 X-20.823 Y-7.371 Z-0.692
X-20.872 Y-7.416 Z-0.669
X-20.917 Y-7.456 Z-0.631
X-20.955 Y-7.49 Z-0.58
X-20.983 Y-7.515 Z-0.52
X-21 Y-7.531 Z-0.453
X-21.006 Y-7.536 Z-0.382
Z5
X-41.597 Y-6.497
Z-0.065
Z-0.382
X-41.599 Y-6.504 Z-0.453
X-41.607 Y-6.526 Z-0.52
X-41.619 Y-6.562 Z-0.58
X-41.636 Y-6.61 Z-0.631
X-41.655 Y-6.667 Z-0.669
X-41.677 Y-6.73 Z-0.692
X-41.7 Y-6.797 Z-0.7
G3 X-41.762 Y-7.58 I1.497 J-0.513
G1 X-41.732 Y-7.725
X-41.716 Y-7.848
X-41.714 Y-7.871
X-41.708 Y-8.017
Y-8.162
X-41.7 Y-8.312
X-41.674 Y-8.46
X-41.628 Y-8.603
X-41.567 Y-8.74
X-41.493 Y-8.87
X-41.398 Y-9.009
X-41.289 Y-9.144
X-41.142 Y-9.298
X-40.975 Y-9.447
X-40.764 Y-9.608
X-40.5 Y-9.776
X-40.199 Y-9.937
X-39.814 Y-10.103
X-39.325 Y-10.269
X-38.703 Y-10.427
X-38.07 Y-10.535
X-37.432 Y-10.609
X-36.792 Y-10.66
X-36.15 Y-10.694
X-35.508 Y-10.717
X-34.866 Y-10.732
X-34.224 Y-10.743
X-33.582 Y-10.749
X-32.94 Y-10.754
X-32.298 Y-10.757
X-31.014 Y-10.76
X-28.445 Y-10.762
X-23.307
X-22.665 Y-10.758
X-22.024 Y-10.729
X-21.586 Y-10.675
X-21.239 Y-10.604
X-20.998 Y-10.534
X-20.772 Y-10.448
X-20.577 Y-10.356
X-20.422 Y-10.266
X-20.408 Y-10.256
X-20.252 Y-10.112
X-20.144 Y-9.929
X-20.092 Y-9.722
X-20.101 Y-9.51
X-20.17 Y-9.309
G3 X-20.76 Y-9.413 I-0.277 J-0.155
G1 X-20.772 Y-9.483 Z-0.692
X-20.782 Y-9.549 Z-0.669
X-20.792 Y-9.608 Z-0.631
X-20.8 Y-9.658 Z-0.58
X-20.806 Y-9.695 Z-0.52
X-20.809 Y-9.719 Z-0.453
X-20.811 Y-9.726 Z-0.382
Z5
X-41.327 Y-7.135
Z-0.065
Z-0.382
X-41.331 Y-7.142 Z-0.453
X-41.343 Y-7.162 Z-0.52
X-41.362 Y-7.195 Z-0.58
X-41.388 Y-7.238 Z-0.631
X-41.419 Y-7.29 Z-0.669
X-41.453 Y-7.347 Z-0.692
X-41.489 Y-7.408 Z-0.7
G3 X-41.708 Y-8.162 I1.362 J-0.805
G1 Y-8.454
X-41.713 Y-8.745
X-41.716 Y-8.868
X-41.733 Y-8.971
X-41.75 Y-9.12
X-41.74 Y-9.27
X-41.71 Y-9.417
X-41.665 Y-9.559
X-41.606 Y-9.698
X-41.53 Y-9.843
X-41.435 Y-9.993
X-41.314 Y-10.153
X-41.165 Y-10.321
X-40.986 Y-10.493
X-40.761 Y-10.677
X-40.5 Y-10.857
X-40.316 Y-10.964
X-40.146 Y-11.035
X-39.965 Y-11.063
X-39.782 Y-11.045
X-39.675 Y-11.021
X-39.529 Y-11.006
X-39.383 Y-11
X-39.092 Y-10.999
X-38.946 Y-11
X-38.654 Y-11.005
X-38.509 Y-11.014
X-38.363 Y-11.036
X-38.217 Y-11.078
X-38.144 Y-11.1
X-38.071 Y-11.131
X-37.78 Y-11.287
X-37.53 Y-11.41
X-37.221 Y-11.533
X-36.802 Y-11.662
X-36.204 Y-11.795
X-35.568 Y-11.883
X-34.928 Y-11.938
X-34.287 Y-11.972
X-33.645 Y-11.994
X-33.003 Y-12.008
X-32.361 Y-12.017
X-31.719 Y-12.022
X-31.077 Y-12.026
X-29.792 Y-12.03
X-27.224 Y-12.032
X-25.561
X-25.369 Y-12.007
X-25.19 Y-11.933
X-25.036 Y-11.815
X-25.025 Y-11.804
X-24.949 Y-11.736
X-24.804 Y-11.629
X-24.658 Y-11.537
X-24.364 Y-11.367
X-24.22 Y-11.287
X-23.929 Y-11.131
X-23.856 Y-11.1
X-23.775 Y-11.076
X-23.637 Y-11.036
X-23.491 Y-11.014
X-23.346 Y-11.005
X-23.054 Y-11
X-22.908 Y-10.999
X-22.617 Y-11
X-22.471 Y-11.006
X-22.325 Y-11.021
X-22.179 Y-11.054
X-22.094 Y-11.076
X-22.033 Y-11.098
X-21.888 Y-11.163
X-21.751 Y-11.224
X-21.607 Y-11.268
X-21.461 Y-11.3
X-21.302 Y-11.322
X-21.131 Y-11.33
X-20.969 Y-11.326
X-20.818 Y-11.309
X-20.653 Y-11.278
X-20.508 Y-11.238
X-20.367 Y-11.187
X-20.227 Y-11.121
X-20.096 Y-11.047
X-19.973 Y-10.961
X-19.957 Y-10.948
X-19.818 Y-10.794
X-19.728 Y-10.609
X-19.692 Y-10.405
X-19.714 Y-10.2
X-19.791 Y-10.008
X-19.932 Y-9.765
X-19.992 Y-9.655
X-20.17 Y-9.309
G3 X-20.683 Y-9.251 I-0.277 J-0.155
G1 X-20.805 Y-9.386
X-21.821 Y-10.512
X-21.966 Y-10.674
G3 X-21.888 Y-11.163 I0.236 J-0.213
G1 X-21.742 Y-11.239
X-21.596 Y-11.32
X-21.159 Y-11.572
X-21.089 Y-11.62
X-20.96 Y-11.697
X-20.823 Y-11.757
X-20.678 Y-11.798
X-20.53 Y-11.821
X-20.38 Y-11.828
X-20.231 Y-11.818
X-20.083 Y-11.792
X-19.939 Y-11.751
X-19.8 Y-11.695
X-19.667 Y-11.625
X-19.542 Y-11.542
X-19.532 Y-11.534
X-19.382 Y-11.362
X-19.291 Y-11.152
X-19.269 Y-10.925
X-19.317 Y-10.702
X-19.43 Y-10.504
X-19.701 Y-10.164
X-19.791 Y-10.008
G3 X-20.319 Y-9.993 I-0.269 J-0.169
G1 X-20.413 Y-10.125
X-20.993 Y-10.942
X-21.161 Y-11.179
G3 X-21.089 Y-11.62 I0.259 J-0.184
G1 X-21.013 Y-11.671
X-20.867 Y-11.794
X-20.857 Y-11.804
X-20.717 Y-11.95
X-20.679 Y-11.994
X-20.577 Y-12.103
X-20.456 Y-12.192
X-20.321 Y-12.258
X-20.178 Y-12.304
X-20.031 Y-12.331
X-19.881 Y-12.339
X-19.731 Y-12.328
X-19.584 Y-12.301
X-19.441 Y-12.257
X-19.304 Y-12.196
X-19.174 Y-12.121
X-19.125 Y-12.085
X-18.98 Y-11.943
X-18.878 Y-11.767
X-18.828 Y-11.571
X-18.834 Y-11.367
X-18.894 Y-11.174
X-19.005 Y-11.003
X-19.32 Y-10.639
X-19.43 Y-10.504
G3 X-19.931 Y-10.529 I-0.241 J-0.207
G1 X-20.05 Y-10.698
X-20.473 Y-11.304
X-20.69 Y-11.615
G3 X-20.679 Y-11.994 I0.26 J-0.182
G1 X-20.43 Y-12.29
X-20.226 Y-12.532
X-20.124 Y-12.642
X-20.001 Y-12.728
X-19.866 Y-12.792
X-19.722 Y-12.835
X-19.574 Y-12.86
X-19.424 Y-12.866
X-19.275 Y-12.854
X-19.128 Y-12.825
X-18.985 Y-12.778
X-18.848 Y-12.717
X-18.719 Y-12.64
X-18.666 Y-12.6
X-18.523 Y-12.457
X-18.424 Y-12.282
X-18.376 Y-12.086
X-18.383 Y-11.885
X-18.443 Y-11.693
X-18.553 Y-11.524
X-19.005 Y-11.003
G3 X-19.502 Y-11.044 I-0.233 J-0.216
G1 X-19.618 Y-11.22
X-20.026 Y-11.837
X-20.241 Y-12.162
G3 X-20.226 Y-12.532 I0.265 J-0.175
G1 X-19.787 Y-13.056
X-19.685 Y-13.166
X-19.562 Y-13.253
X-19.426 Y-13.317
X-19.283 Y-13.361
X-19.135 Y-13.387
X-18.985 Y-13.393
X-18.836 Y-13.382
X-18.688 Y-13.354
X-18.546 Y-13.308
X-18.408 Y-13.247
X-18.279 Y-13.172
X-18.156 Y-13.08
X-18.015 Y-12.903
X-17.934 Y-12.692
X-17.92 Y-12.466
X-17.975 Y-12.247
X-18.094 Y-12.054
X-18.553 Y-11.524
G3 X-19.05 Y-11.563 I-0.233 J-0.216
G1 X-19.168 Y-11.74
X-19.585 Y-12.362
X-19.8 Y-12.684
G3 X-19.787 Y-13.056 I0.264 J-0.177
G1 X-19.371 Y-13.552
X-19.353 Y-13.576
X-19.259 Y-13.693
X-19.137 Y-13.78
X-19.003 Y-13.846
X-18.86 Y-13.892
X-18.712 Y-13.919
X-18.562 Y-13.928
X-18.413 Y-13.92
X-18.265 Y-13.894
X-18.121 Y-13.852
X-17.983 Y-13.794
X-17.852 Y-13.721
X-17.836 Y-13.71
X-17.673 Y-13.553
X-17.565 Y-13.355
X-17.521 Y-13.134
X-17.547 Y-12.909
X-17.638 Y-12.703
X-17.842 Y-12.387
X-17.951 Y-12.237
X-18.059 Y-12.095
X-18.094 Y-12.054
G3 X-18.591 Y-12.091 I-0.234 J-0.214
G1 X-18.71 Y-12.266
X-19.125 Y-12.882
X-19.353 Y-13.221
G3 X-19.353 Y-13.576 I0.263 J-0.178
G1 X-19.263 Y-13.7
X-19.117 Y-13.906
X-19.043 Y-14.033
X-18.961 Y-14.159
X-18.854 Y-14.263
X-18.729 Y-14.347
X-18.594 Y-14.411
X-18.45 Y-14.455
X-18.303 Y-14.482
X-18.153 Y-14.49
X-18.003 Y-14.48
X-17.856 Y-14.454
X-17.712 Y-14.411
X-17.574 Y-14.352
X-17.529 Y-14.326
X-17.368 Y-14.205
X-17.247 Y-14.045
X-17.172 Y-13.859
X-17.151 Y-13.659
X-17.183 Y-13.461
X-17.268 Y-13.279
X-17.638 Y-12.703
G3 X-18.14 Y-12.676 I-0.261 J-0.181
G1 X-18.275 Y-12.833
X-18.739 Y-13.37
X-19.003 Y-13.676
G3 X-19.043 Y-14.033 I0.24 J-0.207
G1 X-18.732 Y-14.571
X-18.651 Y-14.697
X-18.549 Y-14.808
X-18.43 Y-14.899
X-18.298 Y-14.97
X-18.157 Y-15.023
X-18.011 Y-15.057
X-17.862 Y-15.073
X-17.712 Y-15.072
X-17.563 Y-15.054
X-17.418 Y-15.019
X-17.276 Y-14.968
X-17.142 Y-14.902
X-17.12 Y-14.888
X-16.946 Y-14.734
X-16.828 Y-14.533
X-16.777 Y-14.306
X-16.8 Y-14.075
X-16.894 Y-13.862
X-17.268 Y-13.279
G3 X-17.758 Y-13.24 I-0.261 J-0.181
G1 X-17.912 Y-13.402
X-18.412 Y-13.923
X-18.681 Y-14.203
G3 X-18.732 Y-14.571 I0.229 J-0.22
G1 X-18.388 Y-15.166
X-18.307 Y-15.292
X-18.204 Y-15.401
X-18.084 Y-15.491
X-17.952 Y-15.562
X-17.812 Y-15.615
X-17.666 Y-15.651
X-17.517 Y-15.669
X-17.367 Y-15.668
X-17.218 Y-15.652
X-17.071 Y-15.62
X-16.93 Y-15.57
X-16.874 Y-15.544
X-16.679 Y-15.412
X-16.536 Y-15.225
X-16.458 Y-15.003
X-16.454 Y-14.768
X-16.524 Y-14.543
X-16.727 Y-14.134
X-16.785 Y-14.031
X-16.894 Y-13.862
G3 X-17.382 Y-13.82 I-0.261 J-0.181
G1 X-17.54 Y-13.982
X-18.066 Y-14.52
X-18.335 Y-14.795
G3 X-18.388 Y-15.166 I0.227 J-0.222
G1 X-18.06 Y-15.737
X-18.036 Y-15.781
X-17.958 Y-15.909
X-17.852 Y-16.015
X-17.73 Y-16.102
X-17.597 Y-16.171
X-17.456 Y-16.223
X-17.31 Y-16.256
X-17.16 Y-16.271
X-17.01 Y-16.27
X-16.861 Y-16.251
X-16.716 Y-16.215
X-16.571 Y-16.163
X-16.385 Y-16.032
X-16.248 Y-15.851
X-16.172 Y-15.637
X-16.165 Y-15.41
X-16.226 Y-15.192
X-16.51 Y-14.571
X-16.524 Y-14.543
G3 X-17.027 Y-14.469 I-0.279 J-0.151
G1 X-17.166 Y-14.607
X-17.701 Y-15.14
X-17.976 Y-15.414
G3 X-18.036 Y-15.781 I0.224 J-0.225
G1 X-17.981 Y-15.882
X-17.951 Y-15.944
X-17.917 Y-16.028
X-17.833 Y-16.254
X-17.774 Y-16.392
X-17.69 Y-16.516
X-17.585 Y-16.623
X-17.464 Y-16.712
X-17.332 Y-16.783
X-17.192 Y-16.838
X-17.047 Y-16.875
X-16.898 Y-16.893
X-16.748 Y-16.895
X-16.599 Y-16.88
X-16.452 Y-16.847
X-16.31 Y-16.799
X-16.3 Y-16.794
X-16.109 Y-16.665
X-15.968 Y-16.483
X-15.888 Y-16.267
X-15.879 Y-16.038
X-15.941 Y-15.816
X-16.226 Y-15.192
G3 X-16.709 Y-15.086 I-0.284 J-0.142
G1 X-16.88 Y-15.223
X-17.418 Y-15.656
X-17.73 Y-15.907
G3 X-17.833 Y-16.254 I0.199 J-0.247
G1 X-17.597 Y-16.902
X-17.538 Y-17.04
X-17.449 Y-17.161
X-17.342 Y-17.265
X-17.22 Y-17.353
X-17.088 Y-17.424
X-16.948 Y-17.479
X-16.803 Y-17.516
X-16.654 Y-17.536
X-16.504 Y-17.54
X-16.355 Y-17.528
X-16.208 Y-17.497
X-16.065 Y-17.453
X-16.059 Y-17.45
X-15.873 Y-17.333
X-15.73 Y-17.166
X-15.642 Y-16.965
X-15.616 Y-16.746
X-15.657 Y-16.53
X-15.679 Y-16.465
X-15.788 Y-16.174
X-15.844 Y-16.028
X-15.941 Y-15.816
G3 X-16.422 Y-15.709 I-0.284 J-0.142
G1 X-16.596 Y-15.846
X-17.178 Y-16.307
X-17.492 Y-16.555
G3 X-17.597 Y-16.902 I0.197 J-0.249
G1 X-17.368 Y-17.53
X-17.31 Y-17.668
X-17.223 Y-17.791
X-17.118 Y-17.898
X-16.998 Y-17.988
X-16.868 Y-18.062
X-16.73 Y-18.12
X-16.586 Y-18.162
X-16.437 Y-18.186
X-16.288 Y-18.194
X-16.138 Y-18.185
X-15.99 Y-18.159
X-15.958 Y-18.15
X-15.746 Y-18.052
X-15.575 Y-17.894
X-15.462 Y-17.689
X-15.418 Y-17.46
X-15.447 Y-17.228
X-15.629 Y-16.611
X-15.657 Y-16.53
G3 X-16.136 Y-16.385 I-0.296 J-0.114
G1 X-16.306 Y-16.505
X-16.937 Y-16.952
X-17.249 Y-17.173
G3 X-17.368 Y-17.53 I0.183 J-0.259
G1 X-17.174 Y-18.067
X-17.146 Y-18.147
X-17.089 Y-18.286
X-17.009 Y-18.413
X-16.908 Y-18.524
X-16.792 Y-18.619
X-16.665 Y-18.698
X-16.528 Y-18.76
X-16.385 Y-18.804
X-16.237 Y-18.832
X-16.088 Y-18.842
X-15.938 Y-18.834
X-15.79 Y-18.811
X-15.767 Y-18.804
X-15.555 Y-18.707
X-15.383 Y-18.548
X-15.27 Y-18.344
X-15.226 Y-18.114
X-15.255 Y-17.882
X-15.447 Y-17.228
G3 X-15.924 Y-17.064 I-0.301 J-0.1
G1 X-16.093 Y-17.176
X-16.704 Y-17.58
X-17.018 Y-17.788
G3 X-17.146 Y-18.147 I0.175 J-0.265
G1 X-17.123 Y-18.213
X-17.031 Y-18.65
X-17.023 Y-18.694
X-16.989 Y-18.84
X-16.924 Y-18.975
X-16.836 Y-19.097
X-16.731 Y-19.203
X-16.612 Y-19.295
X-16.482 Y-19.371
X-16.345 Y-19.43
X-16.201 Y-19.472
X-16.053 Y-19.499
X-15.903 Y-19.508
X-15.754 Y-19.5
X-15.606 Y-19.476
X-15.582 Y-19.47
X-15.387 Y-19.384
X-15.225 Y-19.246
X-15.109 Y-19.068
X-15.048 Y-18.864
X-15.047 Y-18.651
X-15.073 Y-18.504
X-15.255 Y-17.882
G3 X-15.716 Y-17.707 I-0.301 J-0.1
G1 X-15.908 Y-17.819
X-16.515 Y-18.17
X-16.868 Y-18.374
G3 X-17.023 Y-18.694 I0.159 J-0.275
G1 X-16.914 Y-19.313
X-16.88 Y-19.459
X-16.822 Y-19.597
X-16.741 Y-19.723
X-16.641 Y-19.835
X-16.527 Y-19.932
X-16.401 Y-20.015
X-16.267 Y-20.082
X-16.126 Y-20.133
X-15.981 Y-20.169
X-15.832 Y-20.188
X-15.682 Y-20.19
X-15.617 Y-20.185
X-15.422 Y-20.14
X-15.245 Y-20.045
X-15.101 Y-19.907
X-14.999 Y-19.735
X-14.947 Y-19.541
X-14.948 Y-19.341
X-15.047 Y-18.651
G3 X-15.491 Y-18.418 I-0.312 J-0.056
G1 X-15.68 Y-18.503
X-16.387 Y-18.823
X-16.73 Y-18.979
G3 X-16.914 Y-19.313 I0.131 J-0.289
G1 X-16.791 Y-20.007
X-16.758 Y-20.153
X-16.696 Y-20.29
X-16.612 Y-20.414
X-16.51 Y-20.525
X-16.396 Y-20.621
X-16.27 Y-20.703
X-16.135 Y-20.769
X-15.994 Y-20.82
X-15.848 Y-20.853
X-15.699 Y-20.87
X-15.549
X-15.504 Y-20.865
X-15.275 Y-20.803
X-15.078 Y-20.671
X-14.933 Y-20.484
X-14.854 Y-20.26
X-14.85 Y-20.023
X-14.948 Y-19.341
G3 X-15.395 Y-19.109 I-0.312 J-0.056
G1 X-15.58 Y-19.196
X-16.266 Y-19.515
X-16.611 Y-19.675
G3 X-16.791 Y-20.007 I0.134 J-0.288
G1 X-16.697 Y-20.543
X-16.689 Y-20.624
X-16.668 Y-20.772
X-16.617 Y-20.913
X-16.542 Y-21.043
X-16.448 Y-21.16
X-16.339 Y-21.263
X-16.218 Y-21.351
X-16.086 Y-21.423
X-15.947 Y-21.48
X-15.803 Y-21.52
X-15.654 Y-21.543
X-15.505 Y-21.55
X-15.45 Y-21.547
X-15.22 Y-21.494
X-15.017 Y-21.372
X-14.864 Y-21.193
X-14.775 Y-20.974
X-14.759 Y-20.738
X-14.777 Y-20.543
X-14.796 Y-20.398
X-14.85 Y-20.023
G3 X-15.289 Y-19.788 I-0.312 J-0.056
G1 X-15.484 Y-19.873
X-16.133 Y-20.155
X-16.499 Y-20.314
G3 X-16.689 Y-20.624 I0.127 J-0.291
G1 X-16.683 Y-20.689
X-16.665 Y-20.98
X-16.661 Y-21.126
Y-21.206
X-16.654 Y-21.356
X-16.616 Y-21.501
X-16.552 Y-21.637
X-16.469 Y-21.761
X-16.368 Y-21.873
X-16.255 Y-21.972
X-16.131 Y-22.055
X-15.997 Y-22.124
X-15.858 Y-22.178
X-15.712 Y-22.215
X-15.564 Y-22.236
X-15.5 Y-22.238
X-15.265 Y-22.208
X-15.051 Y-22.106
X-14.881 Y-21.941
X-14.771 Y-21.731
X-14.733 Y-21.497
Y-21.126
X-14.736 Y-20.98
X-14.759 Y-20.738
G3 X-15.177 Y-20.479 I-0.315 J-0.041
G1 X-15.387 Y-20.551
X-16.066 Y-20.786
X-16.447 Y-20.917
G3 X-16.661 Y-21.206 I0.104 J-0.3
G1 Y-21.854
X-16.654 Y-22.004
X-16.619 Y-22.15
X-16.56 Y-22.288
X-16.48 Y-22.415
X-16.384 Y-22.53
X-16.275 Y-22.633
X-16.153 Y-22.721
X-16.023 Y-22.795
X-15.885 Y-22.854
X-15.741 Y-22.896
X-15.593 Y-22.922
X-15.444 Y-22.933
X-15.439
X-15.219 Y-22.888
X-15.022 Y-22.78
X-14.866 Y-22.617
X-14.767 Y-22.415
X-14.733 Y-22.193
Y-21.497
G3 X-15.135 Y-21.203 I-0.317 J-0.011
G1 X-15.339 Y-21.259
X-16.059 Y-21.457
X-16.428 Y-21.559
G3 X-16.661 Y-21.854 I0.084 J-0.306
G1 Y-22.553
X-16.654 Y-22.703
X-16.616 Y-22.848
X-16.554 Y-22.985
X-16.473 Y-23.111
X-16.377 Y-23.226
X-16.267 Y-23.328
X-16.146 Y-23.417
X-16.015 Y-23.49
X-15.877 Y-23.549
X-15.733 Y-23.591
X-15.585 Y-23.616
X-15.525 Y-23.621
X-15.326 Y-23.607
X-15.138 Y-23.542
X-14.974 Y-23.428
X-14.847 Y-23.275
X-14.765 Y-23.094
X-14.734 Y-22.897
X-14.733 Y-22.193
G3 X-15.136 Y-21.898 I-0.317 J-0.011
G1 X-15.339 Y-21.955
X-16.059 Y-22.155
X-16.429 Y-22.258
G3 X-16.661 Y-22.553 I0.085 J-0.306
G1 Y-22.874
X-16.665 Y-23.02
X-16.674 Y-23.165
X-16.676 Y-23.315
X-16.652 Y-23.463
X-16.602 Y-23.605
X-16.531 Y-23.737
X-16.442 Y-23.858
X-16.339 Y-23.967
X-16.223 Y-24.062
X-16.098 Y-24.144
X-15.963 Y-24.211
X-15.822 Y-24.262
X-15.677 Y-24.297
X-15.631 Y-24.303
X-15.402 Y-24.296
X-15.186 Y-24.219
X-15.004 Y-24.08
X-14.874 Y-23.892
X-14.806 Y-23.673
X-14.796 Y-23.602
X-14.777 Y-23.457
X-14.736 Y-23.02
X-14.734 Y-22.897
G3 X-15.121 Y-22.592 I-0.317 J-0.004
G1 X-15.336 Y-22.64
X-16.049 Y-22.801
X-16.428 Y-22.887
G3 X-16.674 Y-23.165 I0.07 J-0.31
G1 X-16.683 Y-23.311
X-16.697 Y-23.457
X-16.748 Y-23.748
X-16.767 Y-23.897
X-16.756 Y-24.046
X-16.718 Y-24.191
X-16.658 Y-24.329
X-16.58 Y-24.457
X-16.487 Y-24.575
X-16.38 Y-24.68
X-16.261 Y-24.772
X-16.133 Y-24.85
X-15.997 Y-24.912
X-15.854 Y-24.959
X-15.794 Y-24.972
X-15.593 Y-24.988
X-15.395 Y-24.948
X-15.215 Y-24.856
X-15.066 Y-24.72
X-14.96 Y-24.548
X-14.904 Y-24.354
X-14.806 Y-23.673
G3 X-15.164 Y-23.324 I-0.316 J0.034
G1 X-15.373 Y-23.352
X-16.088 Y-23.447
X-16.479 Y-23.499
G3 X-16.748 Y-23.748 I0.042 J-0.315
G1 X-16.865 Y-24.411
X-16.884 Y-24.559
X-16.871 Y-24.709
X-16.834 Y-24.854
X-16.776 Y-24.992
X-16.7 Y-25.122
X-16.608 Y-25.24
X-16.502 Y-25.347
X-16.386 Y-25.441
X-16.258 Y-25.521
X-16.123 Y-25.586
X-15.982 Y-25.636
X-15.836 Y-25.67
X-15.827 Y-25.671
X-15.598 Y-25.663
X-15.383 Y-25.586
X-15.201 Y-25.448
X-15.07 Y-25.26
X-15.003 Y-25.041
X-14.904 Y-24.354
G3 X-15.257 Y-24.004 I-0.316 J0.034
G1 X-15.471 Y-24.029
X-16.204 Y-24.116
X-16.592 Y-24.161
G3 X-16.865 Y-24.411 I0.037 J-0.315
G1 X-16.979 Y-25.059
X-16.998 Y-25.208
X-16.991 Y-25.358
X-16.958 Y-25.504
X-16.904 Y-25.644
X-16.832 Y-25.775
X-16.743 Y-25.896
X-16.642 Y-26.007
X-16.527 Y-26.104
X-16.403 Y-26.188
X-16.271 Y-26.258
X-16.13 Y-26.312
X-16.073 Y-26.327
X-15.846 Y-26.352
X-15.622 Y-26.307
X-15.422 Y-26.195
X-15.266 Y-26.028
X-15.168 Y-25.821
X-15.073 Y-25.496
X-15.048 Y-25.35
X-15.003 Y-25.041
G3 X-15.346 Y-24.69 I-0.316 J0.034
G1 X-15.57 Y-24.71
X-16.317 Y-24.775
X-16.696 Y-24.809
G3 X-16.979 Y-25.059 I0.028 J-0.316
G1 X-17.031 Y-25.35
X-17.109 Y-25.722
X-17.133 Y-25.87
X-17.127 Y-26.02
X-17.096 Y-26.166
X-17.044 Y-26.307
X-16.973 Y-26.439
X-16.887 Y-26.562
X-16.785 Y-26.673
X-16.673 Y-26.772
X-16.549 Y-26.857
X-16.417 Y-26.927
X-16.278 Y-26.983
X-16.268 Y-26.986
X-16.041 Y-27.012
X-15.816 Y-26.966
X-15.616 Y-26.855
X-15.46 Y-26.687
X-15.362 Y-26.48
X-15.168 Y-25.821
G3 X-15.489 Y-25.425 I-0.308 J0.079
G1 X-15.683 Y-25.433
X-16.438 Y-25.465
X-16.814 Y-25.48
G3 X-17.109 Y-25.722 I0.013 J-0.317
G1 X-17.123 Y-25.787
X-17.174 Y-25.933
X-17.295 Y-26.268
X-17.339 Y-26.412
X-17.347 Y-26.561
X-17.329 Y-26.71
X-17.29 Y-26.855
X-17.232 Y-26.993
X-17.158 Y-27.124
X-17.068 Y-27.244
X-16.964 Y-27.352
X-16.85 Y-27.449
X-16.724 Y-27.531
X-16.59 Y-27.599
X-16.448 Y-27.653
X-16.223 Y-27.674
X-16.002 Y-27.626
X-15.806 Y-27.514
X-15.653 Y-27.348
X-15.557 Y-27.143
X-15.362 Y-26.48
G3 X-15.666 Y-26.084 I-0.308 J0.079
G1 X-15.877 Y-26.082
X-16.592 Y-26.074
X-16.997 Y-26.069
G3 X-17.295 Y-26.268 I-0.003 J-0.317
G1 X-17.514 Y-26.871
X-17.558 Y-27.014
X-17.573 Y-27.163
X-17.562 Y-27.313
X-17.529 Y-27.459
X-17.477 Y-27.6
X-17.407 Y-27.733
X-17.324 Y-27.857
X-17.225 Y-27.97
X-17.115 Y-28.072
X-16.994 Y-28.161
X-16.864 Y-28.236
X-16.727 Y-28.296
X-16.716 Y-28.299
X-16.496 Y-28.334
X-16.276 Y-28.302
X-16.075 Y-28.206
X-15.912 Y-28.054
X-15.801 Y-27.861
X-15.679 Y-27.535
X-15.629 Y-27.389
X-15.557 Y-27.143
G3 X-15.847 Y-26.748 I-0.308 J0.079
G1 X-16.071 Y-26.735
X-16.811 Y-26.694
X-17.202 Y-26.673
G3 X-17.514 Y-26.871 I-0.018 J-0.317
G1 X-17.756 Y-27.535
X-17.8 Y-27.678
X-17.81 Y-27.828
X-17.796 Y-27.977
X-17.761 Y-28.123
X-17.707 Y-28.263
X-17.638 Y-28.396
X-17.553 Y-28.52
X-17.454 Y-28.633
X-17.344 Y-28.734
X-17.223 Y-28.823
X-17.092 Y-28.897
X-17.074 Y-28.905
X-16.852 Y-28.964
X-16.623 Y-28.952
X-16.408 Y-28.87
X-16.228 Y-28.727
X-16.101 Y-28.535
X-15.844 Y-27.972
X-15.801 Y-27.861
G3 X-16.077 Y-27.44 I-0.3 J0.104
G1 X-16.281 Y-27.425
X-17.054 Y-27.366
X-17.437 Y-27.337
G3 X-17.756 Y-27.535 I-0.024 J-0.317
G1 X-17.862 Y-27.826
X-17.917 Y-27.972
X-17.951 Y-28.056
X-17.981 Y-28.118
X-18.045 Y-28.253
X-18.067 Y-28.401
X-18.064 Y-28.551
X-18.038 Y-28.699
X-17.993 Y-28.842
X-17.931 Y-28.979
X-17.852 Y-29.106
X-17.759 Y-29.224
X-17.653 Y-29.33
X-17.535 Y-29.423
X-17.408 Y-29.503
X-17.382 Y-29.516
X-17.157 Y-29.584
X-16.922 Y-29.577
X-16.701 Y-29.497
X-16.516 Y-29.353
X-16.385 Y-29.157
X-16.101 Y-28.535
G3 X-16.362 Y-28.097 I-0.293 J0.122
G1 X-16.555 Y-28.078
X-17.254 Y-28.006
X-17.675 Y-27.963
G3 X-17.981 Y-28.118 I-0.032 J-0.316
G1 X-18.06 Y-28.263
X-18.263 Y-28.617
X-18.332 Y-28.751
X-18.369 Y-28.896
X-18.381 Y-29.045
X-18.37 Y-29.195
X-18.339 Y-29.342
X-18.29 Y-29.484
X-18.224 Y-29.618
X-18.142 Y-29.744
X-18.047 Y-29.86
X-17.94 Y-29.965
X-17.821 Y-30.056
X-17.693 Y-30.135
X-17.674 Y-30.144
X-17.455 Y-30.208
X-17.226 Y-30.202
X-17.011 Y-30.127
X-16.828 Y-29.99
X-16.696 Y-29.803
X-16.51 Y-29.429
X-16.385 Y-29.157
G3 X-16.619 Y-28.723 I-0.293 J0.122
G1 X-16.837 Y-28.682
X-17.538 Y-28.549
X-17.935 Y-28.473
G3 X-18.263 Y-28.617 I-0.059 J-0.312
G1 X-18.589 Y-29.181
X-18.658 Y-29.315
X-18.699 Y-29.459
X-18.715 Y-29.608
X-18.709 Y-29.758
X-18.682 Y-29.906
X-18.638 Y-30.049
X-18.578 Y-30.186
X-18.501 Y-30.315
X-18.412 Y-30.436
X-18.309 Y-30.545
X-18.195 Y-30.642
X-18.146 Y-30.676
X-17.933 Y-30.777
X-17.698 Y-30.805
X-17.467 Y-30.758
X-17.262 Y-30.641
X-17.104 Y-30.465
X-16.785 Y-29.969
X-16.727 Y-29.866
X-16.696 Y-29.803
G3 X-16.911 Y-29.363 I-0.289 J0.131
G1 X-17.131 Y-29.31
X-17.867 Y-29.132
X-18.245 Y-29.041
G3 X-18.589 Y-29.181 I-0.074 J-0.309
G1 X-18.939 Y-29.788
X-19.008 Y-29.922
X-19.047 Y-30.067
X-19.061 Y-30.216
X-19.054 Y-30.366
X-19.027 Y-30.513
X-18.982 Y-30.656
X-18.92 Y-30.793
X-18.844 Y-30.922
X-18.752 Y-31.041
X-18.648 Y-31.149
X-18.533 Y-31.245
X-18.507 Y-31.263
X-18.294 Y-31.359
X-18.062 Y-31.384
X-17.834 Y-31.336
X-17.632 Y-31.219
X-17.476 Y-31.045
X-17.104 Y-30.465
G3 X-17.295 Y-29.996 I-0.273 J0.162
G1 X-17.487 Y-29.945
X-18.22 Y-29.748
X-18.588 Y-29.65
G3 X-18.939 Y-29.788 I-0.082 J-0.307
G1 X-19.068 Y-30.011
X-19.117 Y-30.094
X-19.263 Y-30.3
X-19.344 Y-30.427
X-19.396 Y-30.567
X-19.422 Y-30.715
X-19.426 Y-30.865
X-19.41 Y-31.014
X-19.375 Y-31.16
X-19.322 Y-31.3
X-19.254 Y-31.434
X-19.171 Y-31.559
X-19.073 Y-31.672
X-18.963 Y-31.775
X-18.916 Y-31.81
X-18.709 Y-31.92
X-18.479 Y-31.959
X-18.247 Y-31.925
X-18.038 Y-31.82
X-17.872 Y-31.655
X-17.842 Y-31.613
X-17.476 Y-31.045
G3 X-17.655 Y-30.579 I-0.273 J0.162
G1 X-17.857 Y-30.516
X-18.537 Y-30.307
X-18.917 Y-30.189
G3 X-19.263 Y-30.3 I-0.094 J-0.303
G1 X-19.371 Y-30.448
X-19.615 Y-30.74
X-19.706 Y-30.859
X-19.774 Y-30.993
X-19.817 Y-31.136
X-19.837 Y-31.285
X-19.836 Y-31.435
X-19.817 Y-31.584
X-19.779 Y-31.729
X-19.725 Y-31.869
X-19.656 Y-32.002
X-19.572 Y-32.127
X-19.475 Y-32.241
X-19.366 Y-32.344
X-19.361 Y-32.348
X-19.166 Y-32.455
X-18.947 Y-32.499
X-18.726 Y-32.476
X-18.521 Y-32.388
X-18.352 Y-32.244
X-18.059 Y-31.905
X-17.948 Y-31.759
X-17.872 Y-31.655
G3 X-18.011 Y-31.185 I-0.263 J0.178
G1 X-18.218 Y-31.097
X-18.894 Y-30.812
X-19.256 Y-30.659
G3 X-19.615 Y-30.74 I-0.123 J-0.293
G1 X-20.054 Y-31.262
X-20.144 Y-31.382
X-20.21 Y-31.516
X-20.252 Y-31.66
X-20.273 Y-31.809
X-20.274 Y-31.959
X-20.256 Y-32.108
X-20.221 Y-32.254
X-20.169 Y-32.394
X-20.102 Y-32.529
X-20.019 Y-32.654
X-19.924 Y-32.769
X-19.882 Y-32.81
X-19.721 Y-32.93
X-19.533 Y-33.002
X-19.333 Y-33.021
X-19.136 Y-32.985
X-18.955 Y-32.898
X-18.804 Y-32.765
X-18.352 Y-32.244
G3 X-18.465 Y-31.757 I-0.247 J0.199
G1 X-18.655 Y-31.668
X-19.339 Y-31.348
X-19.683 Y-31.187
G3 X-20.054 Y-31.262 I-0.134 J-0.288
G1 X-20.503 Y-31.797
X-20.593 Y-31.916
X-20.658 Y-32.052
X-20.699 Y-32.196
X-20.718 Y-32.345
X-20.719 Y-32.495
X-20.7 Y-32.644
X-20.663 Y-32.789
X-20.611 Y-32.93
X-20.542 Y-33.063
X-20.459 Y-33.188
X-20.362 Y-33.302
X-20.325 Y-33.337
X-20.163 Y-33.454
X-19.977 Y-33.523
X-19.779 Y-33.54
X-19.583 Y-33.504
X-19.404 Y-33.417
X-19.255 Y-33.285
X-18.804 Y-32.765
G3 X-18.919 Y-32.277 I-0.247 J0.199
G1 X-19.108 Y-32.191
X-19.786 Y-31.88
X-20.134 Y-31.721
G3 X-20.503 Y-31.797 I-0.132 J-0.289
G1 X-20.721 Y-32.056
X-20.857 Y-32.196
X-20.891 Y-32.226
X-21.001 Y-32.329
X-21.081 Y-32.455
X-21.138 Y-32.594
X-21.172 Y-32.74
X-21.186 Y-32.89
X-21.181 Y-33.04
X-21.158 Y-33.188
X-21.118 Y-33.332
X-21.062 Y-33.471
X-20.989 Y-33.603
X-20.904 Y-33.726
X-20.805 Y-33.839
X-20.752 Y-33.888
X-20.586 Y-34.003
X-20.394 Y-34.068
X-20.192 Y-34.079
X-19.995 Y-34.035
X-19.817 Y-33.939
X-19.671 Y-33.798
X-19.409 Y-33.47
X-19.32 Y-33.361
X-19.255 Y-33.285
G3 X-19.357 Y-32.803 I-0.247 J0.199
G1 X-19.554 Y-32.703
X-20.173 Y-32.386
X-20.551 Y-32.193
G3 X-20.891 Y-32.226 I-0.144 J-0.283
G1 X-21.013 Y-32.329
X-21.159 Y-32.428
X-21.304 Y-32.512
X-21.43 Y-32.593
X-21.539 Y-32.697
X-21.625 Y-32.82
X-21.691 Y-32.955
X-21.737 Y-33.097
X-21.764 Y-33.245
X-21.774 Y-33.395
X-21.768 Y-33.544
X-21.746 Y-33.693
X-21.709 Y-33.838
X-21.657 Y-33.979
X-21.592 Y-34.114
X-21.513 Y-34.242
X-21.423 Y-34.361
X-21.321 Y-34.471
X-21.208 Y-34.57
X-21.087 Y-34.659
X-21.042 Y-34.685
X-20.857 Y-34.761
X-20.659 Y-34.785
X-20.461 Y-34.755
X-20.279 Y-34.673
X-20.125 Y-34.546
X-20.011 Y-34.382
X-19.992 Y-34.345
X-19.932 Y-34.235
X-19.701 Y-33.836
X-19.671 Y-33.798
G3 X-19.752 Y-33.348 I-0.257 J0.187
G1 X-19.98 Y-33.195
X-20.61 Y-32.774
X-20.979 Y-32.528
G3 X-21.304 Y-32.512 I-0.176 J-0.264
G1 X-21.596 Y-32.68
X-21.742 Y-32.761
X-21.837 Y-32.811
X-21.966 Y-32.887
X-22.08 Y-32.985
X-22.174 Y-33.102
X-22.25 Y-33.231
X-22.307 Y-33.37
X-22.348 Y-33.514
X-22.372 Y-33.662
X-22.381 Y-33.812
X-22.375 Y-33.973
X-22.383 Y-34.133
X-22.425 Y-34.288
X-22.574 Y-34.572
X-23.016 Y-35.038
X-23.586 Y-35.333
X-24.202 Y-35.515
X-24.835 Y-35.623
X-25.474 Y-35.687
X-26.115 Y-35.725
X-26.757 Y-35.747
X-27.399 Y-35.76
X-28.041 Y-35.767
X-28.684 Y-35.772
X-29.326 Y-35.774
X-30.61 Y-35.776
X-35.105 Y-35.777
X-40.243 Y-35.778
X-40.837 Y-35.781
X-41.094 Y-35.803
X-41.323 Y-35.86
X-41.522 Y-35.987
X-41.671 Y-36.169
X-41.756 Y-36.389
X-41.762 Y-36.42
X-41.813 Y-36.566
X-41.862 Y-36.689
X-41.953 Y-36.857
X-42.035 Y-37.003
X-42.203 Y-37.294
X-42.27 Y-37.404
Z5
X-18.754 Y-38.811
Z-0.065
Z-0.382
X-18.757 Y-38.804 Z-0.453
X-18.766 Y-38.782 Z-0.52
X-18.779 Y-38.746 Z-0.58
X-18.798 Y-38.7 Z-0.631
X-18.819 Y-38.644 Z-0.669
X-18.844 Y-38.581 Z-0.692
X-18.869 Y-38.515 Z-0.7
G3 X-19.327 Y-37.877 I-1.475 J-0.574
G1 X-19.409 Y-37.813
X-19.485 Y-37.731
X-19.615 Y-37.585
X-19.708 Y-37.44
X-19.797 Y-37.294
X-19.992 Y-36.955
X-20.047 Y-36.857
X-20.138 Y-36.689
X-20.187 Y-36.566
X-20.238 Y-36.42
X-20.268 Y-36.275
X-20.284 Y-36.152
X-20.286 Y-36.129
X-20.292 Y-35.983
Y-35.692
Y-35.546
X-20.289 Y-35.401
X-20.298 Y-35.334
X-20.32 Y-35.271
X-20.598 Y-34.682
X-21.291 Y-33.219
X-21.413 Y-32.961
G3 X-21.837 Y-32.811 I-0.287 J-0.136
G1 X-21.888 Y-32.837
X-22.033 Y-32.902
X-22.094 Y-32.924
X-22.179 Y-32.946
X-22.296 Y-32.973
X-22.44 Y-33.013
X-22.571 Y-33.086
X-23.085 Y-33.471
X-23.642 Y-33.791
X-24.239 Y-34.026
X-24.86 Y-34.19
X-25.493 Y-34.302
X-26.131 Y-34.376
X-26.771 Y-34.424
X-27.412 Y-34.455
X-28.054 Y-34.475
X-28.696 Y-34.487
X-29.339 Y-34.495
X-29.981 Y-34.5
X-30.623 Y-34.503
X-31.907 Y-34.506
X-35.118 Y-34.507
X-38.971
X-39.613 Y-34.508
X-40.242 Y-34.518
X-40.575 Y-34.551
X-40.853 Y-34.601
X-41.086 Y-34.662
X-41.215 Y-34.707
X-41.418 Y-34.817
X-41.578 Y-34.983
X-41.678 Y-35.19
X-41.71 Y-35.419
X-41.708 Y-35.546
Y-35.838
Y-35.983
X-41.714 Y-36.129
X-41.716 Y-36.152
X-41.732 Y-36.275
X-41.756 Y-36.389
G3 X-41.231 Y-36.68 I0.313 J-0.054
G1 X-41.178 Y-36.632 Z-0.692
X-41.128 Y-36.588 Z-0.669
X-41.084 Y-36.547 Z-0.631
X-41.046 Y-36.514 Z-0.58
X-41.018 Y-36.489 Z-0.52
X-41.001 Y-36.473 Z-0.453
X-40.995 Y-36.468 Z-0.382
Z5
X-46.089 Y-38.832
Z-0.065
Z-0.382
X-46.092 Y-38.825 Z-0.453
X-46.099 Y-38.803 Z-0.52
X-46.112 Y-38.767 Z-0.58
X-46.128 Y-38.719 Z-0.631
X-46.148 Y-38.663 Z-0.669
X-46.17 Y-38.599 Z-0.692
X-46.193 Y-38.532 Z-0.7
G3 X-46.625 Y-37.877 I-1.496 J-0.516
G1 X-46.673 Y-37.836
X-46.78 Y-37.731
X-47.045 Y-37.44
X-47.402 Y-37.032
X-47.534 Y-36.896
X-47.654 Y-36.791
X-47.81 Y-36.674
X-47.998 Y-36.557
X-48.234 Y-36.434
X-48.537 Y-36.306
X-48.934 Y-36.175
X-49.477 Y-36.043
X-50.111 Y-35.942
X-50.427 Y-35.884
X-50.726 Y-35.769
X-51.272 Y-35.431
X-51.678 Y-34.933
X-51.962 Y-34.357
X-52.153 Y-33.744
X-52.28 Y-33.114
X-52.362 Y-32.478
X-52.415 Y-31.838
X-52.449 Y-31.196
X-52.47 Y-30.554
X-52.484 Y-29.912
X-52.493 Y-29.27
X-52.498 Y-28.628
X-52.502 Y-27.942
X-52.505 Y-27.877
X-52.514 Y-27.813
X-52.528 Y-27.75
X-52.547 Y-27.681
X-52.651 Y-27.168
X-53.013 Y-25.35
X-53.093 Y-24.913
X-53.108 Y-24.768
X-53.148 Y-24.185
X-53.271 Y-22.291
X-53.287 Y-22
X-53.271 Y-21.709
X-53.128 Y-19.524
X-53.108 Y-19.232
X-53.093 Y-19.087
X-53.013 Y-18.65
X-52.797 Y-17.565
X-52.703 Y-16.929
X-52.621 Y-16.293
X-52.574 Y-15.652
X-52.546 Y-15.011
X-52.53 Y-14.369
X-52.521 Y-13.726
X-52.515 Y-13.084
X-52.512 Y-12.442
X-52.51 Y-11.8
X-52.446 Y-11.485
X-52.316 Y-11.191
X-51.953 Y-10.662
X-51.441 Y-10.275
X-50.857 Y-10.007
X-50.24 Y-9.827
X-49.829 Y-9.747
X-49.644 Y-9.686
X-49.482 Y-9.578
X-49.354 Y-9.432
G3 X-49.732 Y-8.966 I-0.27 J0.167
G1 X-49.799 Y-8.99 Z-0.692
X-49.862 Y-9.013 Z-0.669
X-49.918 Y-9.034 Z-0.631
X-49.966 Y-9.051 Z-0.58
X-50.001 Y-9.064 Z-0.52
X-50.023 Y-9.072 Z-0.453
X-50.031 Y-9.075 Z-0.382
Z5
X-53.373 Y-18.497
Z-0.065
Z-0.382
X-53.368 Y-18.491 Z-0.453
X-53.352 Y-18.473 Z-0.52
X-53.327 Y-18.445 Z-0.58
X-53.293 Y-18.408 Z-0.631
X-53.253 Y-18.363 Z-0.669
X-53.208 Y-18.313 Z-0.692
X-53.161 Y-18.261 Z-0.7
G3 X-52.797 Y-17.565 I-1.176 J1.059
G1 X-52.636 Y-16.756
X-52.547 Y-16.319
X-52.505 Y-16.168
X-52.364 Y-15.737
X-51.721 Y-13.843
X-51.529 Y-13.23
X-51.362 Y-12.61
X-51.01 Y-12.073
X-50.953 Y-12.025
X-50.879 Y-11.954
X-50.815 Y-11.873
X-50.763 Y-11.783
G3 X-51.34 Y-11.519 I-0.289 J0.13
G1 X-52.303 Y-13.589
G3 X-52.142 Y-14.014 I0.288 J-0.134
X-51.721 Y-13.843 I0.127 J0.291
G1 X-51.56 Y-13.406
X-51.485 Y-13.248
X-50.413 Y-11.076
X-50.335 Y-10.93
X-50.154 Y-10.639
X-50.063 Y-10.493
X-48.798 Y-8.599
X-48.568 Y-8.308
X-48.45 Y-8.162
X-48.32 Y-8.015
G3 X-48.635 Y-7.504 I-0.246 J0.201
G1 X-48.704 Y-7.519 Z-0.692
X-48.769 Y-7.534 Z-0.669
X-48.828 Y-7.547 Z-0.631
X-48.877 Y-7.558 Z-0.58
X-48.914 Y-7.566 Z-0.52
X-48.937 Y-7.571 Z-0.453
X-48.945 Y-7.573 Z-0.382
Z5
X-41.187 Y-8.021
Z-0.065
Z-0.382
X-41.192 Y-8.027 Z-0.453
X-41.207 Y-8.045 Z-0.52
X-41.231 Y-8.074 Z-0.58
X-41.264 Y-8.112 Z-0.631
X-41.303 Y-8.158 Z-0.669
X-41.346 Y-8.21 Z-0.692
X-41.391 Y-8.264 Z-0.7
G3 X-41.733 Y-8.971 I1.209 J-1.021
G1 X-41.744 Y-9.036
X-41.781 Y-9.182
X-41.803 Y-9.255
X-41.915 Y-9.473
X-41.977 Y-9.61
X-42.008 Y-9.757
X-42.018 Y-9.906
X-42.011 Y-10.056
X-41.987 Y-10.204
X-41.95 Y-10.35
X-41.899 Y-10.497
X-41.826 Y-10.664
X-41.738 Y-10.829
X-41.63 Y-10.996
X-41.51 Y-11.153
X-41.434 Y-11.237
X-41.281 Y-11.367
X-41.098 Y-11.451
X-40.899 Y-11.482
X-40.699 Y-11.459
X-40.513 Y-11.383
X-40.404 Y-11.32
X-40.258 Y-11.239
X-40.112 Y-11.163
X-39.967 Y-11.098
X-39.906 Y-11.076
X-39.821 Y-11.054
X-39.782 Y-11.045
G3 X-39.694 Y-10.469 I-0.081 J0.307
G1 X-39.734 Y-10.444
X-41.24 Y-9.502
X-41.469 Y-9.359
G3 X-41.915 Y-9.473 I-0.168 J-0.269
G1 X-42.008 Y-9.655
X-42.068 Y-9.765
X-42.271 Y-10.116
X-42.34 Y-10.249
X-42.384 Y-10.392
X-42.409 Y-10.54
X-42.416 Y-10.69
X-42.408 Y-10.84
X-42.385 Y-10.988
X-42.348 Y-11.133
X-42.299 Y-11.275
X-42.235 Y-11.411
X-42.159 Y-11.54
X-42.123 Y-11.589
X-41.983 Y-11.735
X-41.809 Y-11.838
X-41.613 Y-11.89
X-41.411 Y-11.887
X-41.217 Y-11.829
X-41.046 Y-11.721
X-40.987 Y-11.671
X-40.841 Y-11.572
X-40.513 Y-11.383
G3 X-40.513 Y-10.845 I-0.168 J0.269
G1 X-40.634 Y-10.769
X-41.59 Y-10.169
X-41.834 Y-10.016
G3 X-42.271 Y-10.116 I-0.169 J-0.269
G1 X-42.299 Y-10.164
X-42.591 Y-10.53
X-42.64 Y-10.59
X-42.728 Y-10.711
X-42.799 Y-10.843
X-42.848 Y-10.984
X-42.877 Y-11.132
X-42.887 Y-11.281
X-42.878 Y-11.431
X-42.851 Y-11.579
X-42.807 Y-11.722
X-42.748 Y-11.86
X-42.672 Y-11.99
X-42.583 Y-12.11
X-42.545 Y-12.151
X-42.384 Y-12.284
X-42.191 Y-12.366
X-41.983 Y-12.39
X-41.777 Y-12.356
X-41.588 Y-12.266
X-41.433 Y-12.126
X-41.279 Y-11.944
X-41.143 Y-11.804
X-41.133 Y-11.794
X-41.046 Y-11.721
G3 X-41.095 Y-11.213 I-0.213 J0.236
G1 X-41.261 Y-11.114
X-41.943 Y-10.703
X-42.237 Y-10.527
G3 X-42.64 Y-10.59 I-0.164 J-0.272
G1 X-42.68 Y-10.639
X-43.122 Y-11.149
X-43.214 Y-11.267
X-43.281 Y-11.402
X-43.325 Y-11.545
X-43.348 Y-11.693
X-43.351 Y-11.843
X-43.335 Y-11.992
X-43.302 Y-12.139
X-43.251 Y-12.28
X-43.184 Y-12.414
X-43.104 Y-12.541
X-43.008 Y-12.657
X-42.96 Y-12.704
X-42.797 Y-12.825
X-42.607 Y-12.897
X-42.405 Y-12.915
X-42.206 Y-12.878
X-42.024 Y-12.787
X-41.874 Y-12.651
X-41.433 Y-12.126
G3 X-41.548 Y-11.643 I-0.25 J0.195
G1 X-41.743 Y-11.552
X-42.406 Y-11.241
X-42.755 Y-11.078
G3 X-43.122 Y-11.149 I-0.135 J-0.288
G1 X-43.563 Y-11.658
X-43.655 Y-11.776
X-43.726 Y-11.909
X-43.772 Y-12.052
X-43.797 Y-12.199
X-43.802 Y-12.349
X-43.788 Y-12.499
X-43.755 Y-12.645
X-43.707 Y-12.787
X-43.642 Y-12.922
X-43.562 Y-13.049
X-43.469 Y-13.167
X-43.363 Y-13.273
X-43.355 Y-13.28
X-43.156 Y-13.396
X-42.932 Y-13.446
X-42.703 Y-13.424
X-42.492 Y-13.333
X-42.319 Y-13.182
X-41.874 Y-12.651
G3 X-41.986 Y-12.17 I-0.25 J0.195
G1 X-42.183 Y-12.075
X-42.849 Y-11.754
X-43.193 Y-11.588
G3 X-43.563 Y-11.658 I-0.138 J-0.286
G1 X-43.941 Y-12.095
X-44.049 Y-12.237
X-44.134 Y-12.36
X-44.194 Y-12.498
X-44.231 Y-12.643
X-44.247 Y-12.792
X-44.243 Y-12.942
X-44.222 Y-13.091
X-44.182 Y-13.235
X-44.127 Y-13.375
X-44.056 Y-13.507
X-43.97 Y-13.63
X-43.872 Y-13.743
X-43.76 Y-13.846
X-43.553 Y-13.952
X-43.325 Y-13.988
X-43.096 Y-13.952
X-42.889 Y-13.847
X-42.725 Y-13.683
X-42.629 Y-13.552
X-42.319 Y-13.182
G3 X-42.44 Y-12.697 I-0.25 J0.195
G1 X-42.631 Y-12.612
X-43.335 Y-12.299
X-43.674 Y-12.148
G3 X-44.049 Y-12.237 I-0.129 J-0.29
G1 X-44.158 Y-12.387
X-44.486 Y-12.897
X-44.561 Y-13.027
X-44.611 Y-13.168
X-44.636 Y-13.316
X-44.641 Y-13.466
X-44.625 Y-13.615
X-44.592 Y-13.762
X-44.539 Y-13.902
X-44.472 Y-14.036
X-44.389 Y-14.161
X-44.291 Y-14.275
X-44.182 Y-14.378
X-44.133 Y-14.414
X-43.951 Y-14.514
X-43.748 Y-14.559
X-43.541 Y-14.546
X-43.345 Y-14.476
X-43.177 Y-14.355
X-43.049 Y-14.191
X-42.917 Y-13.964
X-42.883 Y-13.906
X-42.725 Y-13.683
G3 X-42.884 Y-13.205 I-0.263 J0.178
G1 X-43.077 Y-13.139
X-43.769 Y-12.9
X-44.122 Y-12.778
G3 X-44.486 Y-12.897 I-0.104 J-0.3
G1 X-44.865 Y-13.486
X-44.94 Y-13.616
X-44.989 Y-13.758
X-45.013 Y-13.906
X-45.015 Y-14.056
X-44.997 Y-14.205
X-44.961 Y-14.351
X-44.907 Y-14.49
X-44.837 Y-14.623
X-44.752 Y-14.747
X-44.653 Y-14.86
X-44.543 Y-14.962
X-44.422 Y-15.05
X-44.406 Y-15.059
X-44.19 Y-15.142
X-43.958 Y-15.154
X-43.734 Y-15.095
X-43.539 Y-14.968
X-43.393 Y-14.788
X-43.049 Y-14.191
G3 X-43.239 Y-13.737 I-0.28 J0.149
G1 X-43.453 Y-13.675
X-44.142 Y-13.472
X-44.515 Y-13.363
G3 X-44.865 Y-13.486 I-0.09 J-0.305
G1 X-45.215 Y-14.031
X-45.273 Y-14.134
X-45.333 Y-14.272
X-45.369 Y-14.417
X-45.382 Y-14.567
X-45.373 Y-14.717
X-45.345 Y-14.864
X-45.3 Y-15.007
X-45.238 Y-15.144
X-45.161 Y-15.272
X-45.07 Y-15.392
X-44.966 Y-15.5
X-44.851 Y-15.596
X-44.726 Y-15.68
X-44.722 Y-15.682
X-44.509 Y-15.753
X-44.284 Y-15.757
X-44.069 Y-15.693
X-43.882 Y-15.568
X-43.742 Y-15.393
X-43.393 Y-14.788
G3 X-43.595 Y-14.331 I-0.28 J0.149
G1 X-43.799 Y-14.279
X-44.555 Y-14.085
X-44.922 Y-13.991
G3 X-45.273 Y-14.134 I-0.079 J-0.308
G1 X-45.49 Y-14.571
X-45.594 Y-14.797
X-45.649 Y-14.937
X-45.683 Y-15.083
X-45.692 Y-15.232
X-45.68 Y-15.382
X-45.647 Y-15.528
X-45.598 Y-15.67
X-45.53 Y-15.804
X-45.448 Y-15.929
X-45.352 Y-16.045
X-45.243 Y-16.148
X-45.124 Y-16.238
X-45.095 Y-16.256
X-44.906 Y-16.335
X-44.703 Y-16.36
X-44.501 Y-16.329
X-44.315 Y-16.243
X-44.159 Y-16.11
X-44.046 Y-15.939
X-44.019 Y-15.882
X-43.94 Y-15.737
X-43.742 Y-15.393
G3 X-43.949 Y-14.935 I-0.28 J0.149
G1 X-44.149 Y-14.887
X-44.886 Y-14.713
X-45.236 Y-14.63
G3 X-45.594 Y-14.797 I-0.073 J-0.309
G1 X-45.89 Y-15.445
X-45.945 Y-15.585
X-45.978 Y-15.731
X-45.985 Y-15.881
X-45.969 Y-16.03
X-45.934 Y-16.176
X-45.879 Y-16.316
X-45.808 Y-16.448
X-45.721 Y-16.57
X-45.62 Y-16.681
X-45.508 Y-16.78
X-45.384 Y-16.865
X-45.252 Y-16.936
X-45.232 Y-16.944
X-45.001 Y-16.996
X-44.766 Y-16.972
X-44.55 Y-16.875
X-44.376 Y-16.716
X-44.261 Y-16.509
X-44.138 Y-16.174
X-44.083 Y-16.028
X-44.046 Y-15.939
G3 X-44.282 Y-15.499 I-0.291 J0.127
G1 X-44.491 Y-15.462
X-45.178 Y-15.341
X-45.55 Y-15.275
G3 X-45.89 Y-15.445 I-0.055 J-0.313
G1 X-46.156 Y-16.028
X-46.201 Y-16.144
X-46.248 Y-16.287
X-46.266 Y-16.435
X-46.26 Y-16.585
X-46.233 Y-16.733
X-46.186 Y-16.875
X-46.123 Y-17.011
X-46.043 Y-17.138
X-45.949 Y-17.255
X-45.843 Y-17.362
X-45.725 Y-17.454
X-45.598 Y-17.534
X-45.463 Y-17.6
X-45.439 Y-17.608
X-45.213 Y-17.649
X-44.985 Y-17.619
X-44.777 Y-17.521
X-44.609 Y-17.363
X-44.498 Y-17.162
X-44.261 Y-16.509
G3 X-44.529 Y-16.096 I-0.302 J0.098
G1 X-44.748 Y-16.072
X-45.496 Y-15.993
X-45.875 Y-15.953
G3 X-46.201 Y-16.144 I-0.033 J-0.316
G1 X-46.321 Y-16.465
X-46.371 Y-16.611
X-46.457 Y-16.902
X-46.492 Y-17.048
X-46.495 Y-17.198
X-46.474 Y-17.346
X-46.433 Y-17.491
X-46.374 Y-17.629
X-46.3 Y-17.759
X-46.209 Y-17.878
X-46.106 Y-17.987
X-45.992 Y-18.084
X-45.866 Y-18.167
X-45.733 Y-18.236
X-45.698 Y-18.25
X-45.468 Y-18.299
X-45.234 Y-18.273
X-45.02 Y-18.176
X-44.847 Y-18.016
X-44.734 Y-17.81
X-44.498 Y-17.162
G3 X-44.786 Y-16.747 I-0.302 J0.098
G1 X-44.987 Y-16.738
X-45.767 Y-16.702
X-46.141 Y-16.685
G3 X-46.457 Y-16.902 I-0.015 J-0.317
G1 X-46.651 Y-17.565
X-46.686 Y-17.711
X-46.693 Y-17.86
X-46.674 Y-18.009
X-46.634 Y-18.154
X-46.576 Y-18.292
X-46.5 Y-18.421
X-46.409 Y-18.541
X-46.305 Y-18.649
X-46.189 Y-18.744
X-46.062 Y-18.825
X-45.928 Y-18.892
X-45.884 Y-18.908
X-45.678 Y-18.95
X-45.468 Y-18.932
X-45.272 Y-18.857
X-45.105 Y-18.729
X-44.981 Y-18.56
X-44.909 Y-18.362
X-44.877 Y-18.213
X-44.826 Y-18.067
X-44.734 Y-17.81
G3 X-45.024 Y-17.395 I-0.302 J0.097
G1 X-45.224 Y-17.388
X-45.962 Y-17.361
X-46.338 Y-17.347
G3 X-46.651 Y-17.565 I-0.012 J-0.317
G1 X-46.842 Y-18.213
X-46.877 Y-18.359
X-46.886 Y-18.508
X-46.87 Y-18.658
X-46.831 Y-18.802
X-46.774 Y-18.941
X-46.699 Y-19.071
X-46.608 Y-19.19
X-46.505 Y-19.299
X-46.388 Y-19.394
X-46.263 Y-19.475
X-46.128 Y-19.542
X-45.987 Y-19.593
X-45.94 Y-19.604
X-45.739 Y-19.625
X-45.541 Y-19.591
X-45.358 Y-19.505
X-45.206 Y-19.373
X-45.095 Y-19.205
X-45.033 Y-19.013
X-44.969 Y-18.65
X-44.909 Y-18.362
G3 X-45.223 Y-17.991 I-0.313 J0.054
G1 X-45.453
X-46.152 Y-17.994
X-46.541 Y-17.995
G3 X-46.842 Y-18.213 I0.001 J-0.317
G1 X-46.927 Y-18.504
X-46.952 Y-18.65
X-47.006 Y-19.021
X-47.02 Y-19.171
X-47.009 Y-19.32
X-46.973 Y-19.466
X-46.917 Y-19.605
X-46.844 Y-19.736
X-46.755 Y-19.856
X-46.651 Y-19.965
X-46.537 Y-20.062
X-46.411 Y-20.144
X-46.278 Y-20.212
X-46.137 Y-20.265
X-45.99 Y-20.302
X-45.763 Y-20.3
X-45.547 Y-20.229
X-45.363 Y-20.096
X-45.227 Y-19.913
X-45.154 Y-19.698
X-45.033 Y-19.013
G3 X-45.373 Y-18.653 I-0.314 J0.044
G1 X-45.589 Y-18.67
X-46.351 Y-18.731
X-46.719 Y-18.761
G3 X-47.006 Y-19.021 I0.025 J-0.316
G1 X-47.111 Y-19.75
X-47.125 Y-19.899
X-47.108 Y-20.048
X-47.067 Y-20.193
X-47.006 Y-20.33
X-46.927 Y-20.457
X-46.834 Y-20.575
X-46.727 Y-20.68
X-46.609 Y-20.772
X-46.481 Y-20.85
X-46.344 Y-20.913
X-46.202 Y-20.96
X-46.161 Y-20.969
X-45.923 Y-20.982
X-45.694 Y-20.919
X-45.497 Y-20.787
X-45.352 Y-20.599
X-45.273 Y-20.374
X-45.154 Y-19.698
G3 X-45.505 Y-19.338 I-0.314 J0.044
G1 X-45.709 Y-19.362
X-46.457 Y-19.447
X-46.834 Y-19.491
G3 X-47.111 Y-19.75 I0.036 J-0.315
G1 X-47.204 Y-20.398
X-47.21 Y-20.442
X-47.222 Y-20.591
X-47.205 Y-20.74
X-47.163 Y-20.884
X-47.101 Y-21.021
X-47.022 Y-21.148
X-46.927 Y-21.264
X-46.818 Y-21.368
X-46.699 Y-21.459
X-46.569 Y-21.534
X-46.432 Y-21.594
X-46.289 Y-21.64
X-46.141 Y-21.668
X-46.133 Y-21.669
X-45.899 Y-21.65
X-45.683 Y-21.56
X-45.507 Y-21.406
X-45.386 Y-21.205
X-45.335 Y-20.977
X-45.317 Y-20.689
X-45.303 Y-20.543
X-45.273 Y-20.374
G3 X-45.627 Y-20.015 I-0.314 J0.044
G1 X-45.828 Y-20.04
X-46.56 Y-20.132
X-46.936 Y-20.179
G3 X-47.21 Y-20.442 I0.039 J-0.315
G1 X-47.223 Y-20.543
X-47.264 Y-20.98
X-47.267 Y-21.126
Y-21.272
X-47.259 Y-21.422
X-47.221 Y-21.566
X-47.16 Y-21.704
X-47.081 Y-21.831
X-46.987 Y-21.948
X-46.879 Y-22.052
X-46.759 Y-22.142
X-46.63 Y-22.218
X-46.492 Y-22.278
X-46.349 Y-22.322
X-46.201 Y-22.35
X-46.136 Y-22.355
X-45.934 Y-22.343
X-45.742 Y-22.276
X-45.576 Y-22.16
X-45.448 Y-22.003
X-45.367 Y-21.818
X-45.339 Y-21.617
Y-21.126
X-45.335 Y-20.977
G3 X-45.727 Y-20.659 I-0.317 J0.009
G1 X-45.924 Y-20.707
X-46.662 Y-20.886
X-47.024 Y-20.974
G3 X-47.267 Y-21.272 I0.075 J-0.309
G1 Y-21.971
X-47.259 Y-22.12
X-47.223 Y-22.266
X-47.162 Y-22.403
X-47.083 Y-22.53
X-46.987 Y-22.646
X-46.878 Y-22.748
X-46.757 Y-22.837
X-46.627 Y-22.912
X-46.489 Y-22.97
X-46.345 Y-23.014
X-46.198 Y-23.041
X-46.129 Y-23.045
X-45.928 Y-23.031
X-45.738 Y-22.963
X-45.574 Y-22.847
X-45.446 Y-22.691
X-45.366 Y-22.506
X-45.339 Y-22.306
Y-21.617
G3 X-45.74 Y-21.322 I-0.317 J-0.011
G1 X-45.945 Y-21.378
X-46.664 Y-21.574
X-47.033 Y-21.675
G3 X-47.267 Y-21.971 I0.084 J-0.306
G1 Y-22.663
X-47.259 Y-22.813
X-47.223 Y-22.958
X-47.162 Y-23.095
X-47.082 Y-23.222
X-46.987 Y-23.338
X-46.877 Y-23.44
X-46.756 Y-23.529
X-46.626 Y-23.603
X-46.487 Y-23.661
X-46.344 Y-23.704
X-46.196 Y-23.731
X-46.125 Y-23.735
X-45.921 Y-23.72
X-45.729 Y-23.65
X-45.563 Y-23.53
X-45.437 Y-23.369
X-45.359 Y-23.18
X-45.336 Y-22.977
X-45.339 Y-22.874
Y-22.306
G3 X-45.741 Y-22.011 I-0.317 J-0.011
G1 X-45.945 Y-22.067
X-46.665 Y-22.266
X-47.034 Y-22.368
G3 X-47.267 Y-22.663 I0.084 J-0.306
G1 Y-22.874
X-47.264 Y-23.02
X-47.223 Y-23.457
X-47.196 Y-23.604
X-47.145 Y-23.745
X-47.072 Y-23.876
X-46.981 Y-23.996
X-46.875 Y-24.102
X-46.757 Y-24.194
X-46.629 Y-24.272
X-46.492 Y-24.333
X-46.349 Y-24.379
X-46.202 Y-24.409
X-46.052 Y-24.42
X-45.998 Y-24.419
X-45.789 Y-24.384
X-45.599 Y-24.291
X-45.443 Y-24.148
X-45.334 Y-23.966
X-45.28 Y-23.761
X-45.287 Y-23.55
X-45.303 Y-23.457
X-45.317 Y-23.311
X-45.335 Y-23.02
X-45.336 Y-22.977
G3 X-45.759 Y-22.697 I-0.317 J-0.019
G1 X-45.946 Y-22.763
X-46.657 Y-23.014
X-47.012 Y-23.139
G3 X-47.223 Y-23.457 I0.106 J-0.299
G1 X-47.204 Y-23.602
X-47.12 Y-24.185
X-47.091 Y-24.332
X-47.036 Y-24.472
X-46.959 Y-24.6
X-46.863 Y-24.716
X-46.753 Y-24.817
X-46.63 Y-24.904
X-46.499 Y-24.976
X-46.359 Y-25.031
X-46.214 Y-25.069
X-46.066 Y-25.092
X-45.916 Y-25.096
X-45.766 Y-25.084
X-45.76 Y-25.083
X-45.543 Y-25.006
X-45.361 Y-24.866
X-45.23 Y-24.677
X-45.163 Y-24.456
X-45.167 Y-24.226
X-45.287 Y-23.55
G3 X-45.726 Y-23.326 I-0.311 J-0.066
G1 X-45.928 Y-23.415
X-46.581 Y-23.704
X-46.933 Y-23.86
G3 X-47.12 Y-24.185 I0.129 J-0.29
G1 X-47.02 Y-24.884
X-46.991 Y-25.031
X-46.933 Y-25.169
X-46.852 Y-25.296
X-46.754 Y-25.409
X-46.642 Y-25.509
X-46.519 Y-25.594
X-46.386 Y-25.664
X-46.246 Y-25.717
X-46.101 Y-25.755
X-45.952 Y-25.776
X-45.802 Y-25.78
X-45.652 Y-25.769
X-45.635 Y-25.765
X-45.42 Y-25.687
X-45.238 Y-25.547
X-45.108 Y-25.358
X-45.043 Y-25.139
X-45.047 Y-24.909
X-45.167 Y-24.226
G3 X-45.609 Y-24.003 I-0.311 J-0.066
G1 X-45.808 Y-24.093
X-46.482 Y-24.4
X-46.835 Y-24.56
G3 X-47.02 Y-24.884 I0.131 J-0.289
G1 X-46.952 Y-25.35
X-46.927 Y-25.496
X-46.884 Y-25.641
X-46.835 Y-25.783
X-46.767 Y-25.917
X-46.678 Y-26.037
X-46.572 Y-26.144
X-46.454 Y-26.237
X-46.326 Y-26.314
X-46.189 Y-26.375
X-46.046 Y-26.421
X-45.899 Y-26.45
X-45.749 Y-26.461
X-45.599 Y-26.457
X-45.548 Y-26.45
X-45.353 Y-26.395
X-45.181 Y-26.29
X-45.043 Y-26.143
X-44.951 Y-25.963
X-44.91 Y-25.765
X-44.924 Y-25.564
X-44.969 Y-25.35
X-45.047 Y-24.909
G3 X-45.495 Y-24.689 I-0.311 J-0.066
G1 X-45.685 Y-24.781
X-46.4 Y-25.125
X-46.715 Y-25.277
G3 X-46.884 Y-25.641 I0.138 J-0.286
G1 X-46.673 Y-26.361
X-46.624 Y-26.502
X-46.551 Y-26.633
X-46.458 Y-26.751
X-46.348 Y-26.853
X-46.226 Y-26.94
X-46.093 Y-27.009
X-45.953 Y-27.064
X-45.807 Y-27.1
X-45.659 Y-27.119
X-45.509 Y-27.121
X-45.359 Y-27.106
X-45.303 Y-27.094
X-45.106 Y-27.021
X-44.937 Y-26.897
X-44.809 Y-26.729
X-44.734 Y-26.533
X-44.717 Y-26.324
X-44.76 Y-26.118
X-44.826 Y-25.933
X-44.877 Y-25.787
X-44.924 Y-25.564
G3 X-45.389 Y-25.364 I-0.308 J-0.076
G1 X-45.563 Y-25.462
X-46.2 Y-25.823
X-46.522 Y-26.005
G3 X-46.673 Y-26.361 I0.156 J-0.276
G1 X-46.476 Y-27.032
X-46.427 Y-27.174
X-46.353 Y-27.305
X-46.257 Y-27.42
X-46.146 Y-27.521
X-46.022 Y-27.606
X-45.888 Y-27.673
X-45.747 Y-27.725
X-45.601 Y-27.759
X-45.452 Y-27.776
X-45.302
X-45.153 Y-27.759
X-45.007 Y-27.725
X-44.981 Y-27.716
X-44.774 Y-27.606
X-44.612 Y-27.437
X-44.511 Y-27.225
X-44.481 Y-26.993
X-44.526 Y-26.762
X-44.76 Y-26.118
G3 X-45.226 Y-25.969 I-0.295 J-0.118
G1 X-45.416 Y-26.091
X-46.013 Y-26.476
X-46.34 Y-26.687
G3 X-46.476 Y-27.032 I0.172 J-0.267
G1 X-46.371 Y-27.389
X-46.321 Y-27.535
X-46.236 Y-27.763
X-46.176 Y-27.9
X-46.091 Y-28.024
X-45.987 Y-28.131
X-45.868 Y-28.223
X-45.738 Y-28.299
X-45.601 Y-28.358
X-45.457 Y-28.4
X-45.309 Y-28.426
X-45.159 Y-28.435
X-45.009 Y-28.427
X-44.861 Y-28.402
X-44.717 Y-28.363
X-44.705 Y-28.358
X-44.51 Y-28.241
X-44.36 Y-28.072
X-44.268 Y-27.865
X-44.243 Y-27.64
X-44.287 Y-27.418
X-44.526 Y-26.762
G3 X-45.002 Y-26.621 I-0.294 J-0.119
G1 X-45.178 Y-26.744
X-45.807 Y-27.185
X-46.117 Y-27.402
G3 X-46.236 Y-27.763 I0.182 J-0.26
G1 X-46.212 Y-27.826
X-46.156 Y-27.972
X-45.928 Y-28.471
X-45.859 Y-28.604
X-45.766 Y-28.722
X-45.655 Y-28.823
X-45.531 Y-28.907
X-45.397 Y-28.975
X-45.256 Y-29.025
X-45.109 Y-29.058
X-44.96 Y-29.074
X-44.81 Y-29.072
X-44.661 Y-29.053
X-44.515 Y-29.018
X-44.493 Y-29.01
X-44.316 Y-28.918
X-44.171 Y-28.783
X-44.067 Y-28.613
X-44.011 Y-28.422
X-44.009 Y-28.223
X-44.059 Y-28.03
X-44.083 Y-27.972
X-44.195 Y-27.672
X-44.287 Y-27.418
G3 X-44.775 Y-27.285 I-0.294 J-0.119
G1 X-44.934 Y-27.408
X-45.535 Y-27.872
X-45.828 Y-28.098
G3 X-45.952 Y-28.349 I0.194 J-0.251
G1 X-45.946 Y-28.411
X-45.928 Y-28.471
X-45.624 Y-29.137
X-45.554 Y-29.27
X-45.457 Y-29.385
X-45.342 Y-29.481
X-45.215 Y-29.56
X-45.079 Y-29.623
X-44.935 Y-29.666
X-44.787 Y-29.693
X-44.638 Y-29.701
X-44.488 Y-29.692
X-44.34 Y-29.666
X-44.197 Y-29.623
X-44.058 Y-29.564
X-44.054 Y-29.562
X-43.872 Y-29.417
X-43.744 Y-29.222
X-43.682 Y-28.998
X-43.694 Y-28.765
X-43.777 Y-28.547
X-43.94 Y-28.263
X-44.019 Y-28.118
X-44.049 Y-28.056
X-44.059 Y-28.03
G3 X-44.557 Y-27.922 I-0.289 J-0.131
G1 X-44.704 Y-28.05
X-45.245 Y-28.521
X-45.539 Y-28.776
G3 X-45.624 Y-29.137 I0.208 J-0.24
G1 X-45.49 Y-29.429
X-45.323 Y-29.764
X-45.25 Y-29.895
X-45.152 Y-30.009
X-45.037 Y-30.104
X-44.909 Y-30.182
X-44.771 Y-30.243
X-44.628 Y-30.286
X-44.48 Y-30.312
X-44.33 Y-30.319
X-44.18 Y-30.311
X-44.033 Y-30.285
X-43.889 Y-30.242
X-43.75 Y-30.185
X-43.715 Y-30.166
X-43.53 Y-30.022
X-43.399 Y-29.827
X-43.336 Y-29.601
X-43.347 Y-29.366
X-43.431 Y-29.147
X-43.777 Y-28.547
G3 X-44.262 Y-28.483 I-0.27 J-0.168
G1 X-44.428 Y-28.636
X-44.965 Y-29.135
X-45.25 Y-29.4
G3 X-45.323 Y-29.764 I0.216 J-0.233
G1 X-45.273 Y-29.866
X-45.215 Y-29.969
X-44.907 Y-30.448
X-44.82 Y-30.57
X-44.712 Y-30.674
X-44.588 Y-30.759
X-44.453 Y-30.825
X-44.311 Y-30.873
X-44.164 Y-30.903
X-44.015 Y-30.915
X-43.865 Y-30.91
X-43.716 Y-30.889
X-43.572 Y-30.849
X-43.432 Y-30.796
X-43.387 Y-30.772
X-43.224 Y-30.658
X-43.097 Y-30.504
X-43.016 Y-30.322
X-42.987 Y-30.126
X-43.011 Y-29.928
X-43.086 Y-29.744
X-43.431 Y-29.147
G3 X-43.929 Y-29.095 I-0.269 J-0.168
G1 X-44.073 Y-29.245
X-44.605 Y-29.798
X-44.863 Y-30.066
G3 X-44.907 Y-30.448 I0.229 J-0.22
G1 X-44.533 Y-31.031
X-44.445 Y-31.153
X-44.339 Y-31.258
X-44.215 Y-31.343
X-44.081 Y-31.41
X-43.939 Y-31.458
X-43.791 Y-31.487
X-43.642 Y-31.498
X-43.492 Y-31.492
X-43.344 Y-31.468
X-43.199 Y-31.428
X-43.061 Y-31.371
X-43.013 Y-31.345
X-42.846 Y-31.222
X-42.719 Y-31.056
X-42.644 Y-30.863
X-42.626 Y-30.656
X-42.666 Y-30.451
X-42.761 Y-30.266
X-42.883 Y-30.094
X-42.932 Y-30.011
X-43.086 Y-29.744
G3 X-43.586 Y-29.694 I-0.269 J-0.168
G1 X-43.727 Y-29.844
X-44.233 Y-30.378
X-44.491 Y-30.65
G3 X-44.533 Y-31.031 I0.231 J-0.218
G1 X-44.158 Y-31.613
X-44.064 Y-31.73
X-43.957 Y-31.836
X-43.834 Y-31.921
X-43.699 Y-31.987
X-43.557 Y-32.034
X-43.409 Y-32.062
X-43.26 Y-32.072
X-43.11 Y-32.064
X-42.962 Y-32.038
X-42.818 Y-31.996
X-42.68 Y-31.938
X-42.549 Y-31.864
X-42.509 Y-31.836
X-42.361 Y-31.696
X-42.257 Y-31.522
X-42.204 Y-31.326
X-42.206 Y-31.123
X-42.263 Y-30.928
X-42.371 Y-30.756
X-42.629 Y-30.448
X-42.761 Y-30.266
G3 X-43.252 Y-30.249 I-0.253 J-0.192
G1 X-43.399 Y-30.417
X-43.869 Y-30.952
X-44.124 Y-31.242
G3 X-44.158 Y-31.613 I0.239 J-0.21
G1 X-44.049 Y-31.763
X-43.941 Y-31.905
X-43.611 Y-32.286
X-42.68 Y-33.361
X-42.561 Y-33.507
X-42.299 Y-33.836
X-42.068 Y-34.235
X-42.008 Y-34.345
X-41.99 Y-34.381
X-41.963 Y-34.401 Z-0.695
X-41.938 Y-34.421 Z-0.683
X-41.917 Y-34.437 Z-0.663
X-41.9 Y-34.44 Z-0.645
X-41.887 Y-34.441 Z-0.623
X-41.876 Z-0.593
X-41.872 Y-34.44 Z-0.56
Z5
X-47.014 Y-38.057
Z-0.065
Z-0.382
X-47.015 Y-38.049 Z-0.453
X-47.02 Y-38.026 Z-0.52
X-47.026 Y-37.989 Z-0.58
X-47.036 Y-37.939 Z-0.631
X-47.047 Y-37.88 Z-0.669
X-47.059 Y-37.814 Z-0.692
X-47.072 Y-37.745 Z-0.7
G3 X-47.402 Y-37.032 I-1.556 J-0.289
G1 X-48.45 Y-35.838
X-48.55 Y-35.726
X-48.673 Y-35.612
X-48.839 Y-35.482
X-49.374 Y-35.126
X-49.881 Y-34.732
X-50.287 Y-34.235
X-50.586 Y-33.666
X-50.798 Y-33.06
X-50.945 Y-32.435
X-51.044 Y-31.801
X-51.051 Y-31.735
X-51.065 Y-31.649
X-51.09 Y-31.565
X-51.124 Y-31.484
G3 X-51.716 Y-31.579 I-0.28 J-0.15
G1 X-51.728 Y-31.649 Z-0.692
X-51.74 Y-31.715 Z-0.669
X-51.75 Y-31.774 Z-0.631
X-51.759 Y-31.824 Z-0.58
X-51.766 Y-31.861 Z-0.52
X-51.77 Y-31.884 Z-0.453
X-51.771 Y-31.892 Z-0.382
Z5
X-48.099 Y-36.876
Z-0.065
Z-0.382
X-48.1 Y-36.868 Z-0.453
X-48.104 Y-36.845 Z-0.52
X-48.109 Y-36.807 Z-0.58
X-48.117 Y-36.758 Z-0.631
X-48.126 Y-36.698 Z-0.669
X-48.135 Y-36.632 Z-0.692
X-48.146 Y-36.562 Z-0.7
G3 X-48.45 Y-35.838 I-1.566 J-0.231
G1 X-48.569 Y-35.692
X-48.798 Y-35.401
X-50.063 Y-33.507
X-50.172 Y-33.332
X-50.335 Y-33.07
X-50.413 Y-32.924
X-51.491 Y-30.74
X-51.56 Y-30.594
X-51.721 Y-30.157
X-52.364 Y-28.263
X-52.507 Y-27.826
X-52.528 Y-27.75
G3 X-53.128 Y-27.73 I-0.303 J-0.094
G1 X-53.153 Y-27.796 Z-0.692
X-53.177 Y-27.859 Z-0.669
X-53.199 Y-27.915 Z-0.631
X-53.217 Y-27.962 Z-0.58
X-53.23 Y-27.997 Z-0.52
X-53.239 Y-28.019 Z-0.453
X-53.241 Y-28.027 Z-0.382
Z5
X-38.489 Y-10.452
Z-0.065
Z-0.382
X-38.485 Y-10.459 Z-0.453
X-38.473 Y-10.479 Z-0.52
X-38.454 Y-10.512 Z-0.58
X-38.429 Y-10.555 Z-0.631
X-38.399 Y-10.607 Z-0.669
X-38.365 Y-10.665 Z-0.692
X-38.33 Y-10.727 Z-0.7
G3 X-37.78 Y-11.287 I1.369 J0.794
G1 X-37.634 Y-11.368
X-37.342 Y-11.537
X-37.196 Y-11.629
X-37.051 Y-11.736
X-36.975 Y-11.804
X-36.905 Y-11.874
X-36.838 Y-11.95
X-36.814 Y-11.986
X-36.725 Y-12.106
X-36.621 Y-12.214
X-36.504 Y-12.314
X-36.353 Y-12.425
X-36.163 Y-12.541
X-35.927 Y-12.66
X-35.619 Y-12.787
X-35.214 Y-12.916
X-34.646 Y-13.049
X-34.01 Y-13.143
X-33.371 Y-13.203
X-32.73 Y-13.239
X-32.088 Y-13.263
X-31.446 Y-13.277
X-30.804 Y-13.286
X-30.162 Y-13.292
X-29.52 Y-13.296
X-28.235 Y-13.3
X-26.951 Y-13.301
X-26.359 Y-13.298
X-26.315 Y-13.295
X-26.127 Y-13.253
X-25.955 Y-13.165
X-25.813 Y-13.035
X-25.708 Y-12.873
X-25.685 Y-12.824
X-25.605 Y-12.678
X-25.521 Y-12.532
X-25.435 Y-12.387
X-25.241 Y-12.069
X-25.162 Y-11.95
X-25.095 Y-11.874
X-25.036 Y-11.815
G3 X-25.501 Y-11.382 I-0.233 J0.216
X-25.036 Y-11.815 I0.233 J-0.216
X-25.258 Y-11.281 I-0.233 J0.216
G1 X-36.721 Y-10.902
G3 X-37.049 Y-11.236 I-0.01 J-0.317
X-36.814 Y-11.986 I1.58 J0.082
G1 X-36.759 Y-12.069
X-36.565 Y-12.387
X-36.467 Y-12.552
X-36.395 Y-12.678
X-36.315 Y-12.824
X-36.294 Y-12.868
X-36.223 Y-13
X-36.138 Y-13.123
X-36.039 Y-13.237
X-35.912 Y-13.364
X-35.771 Y-13.483
X-35.588 Y-13.615
X-35.357 Y-13.753
X-35.083 Y-13.889
X-34.726 Y-14.032
X-34.259 Y-14.176
X-33.633 Y-14.316
X-32.997 Y-14.406
X-32.357 Y-14.465
X-31.716 Y-14.503
X-31.074 Y-14.528
X-30.432 Y-14.543
X-29.79 Y-14.554
X-29.148 Y-14.56
X-28.506 Y-14.565
X-27.864 Y-14.568
X-27.222
X-26.888 Y-14.542
X-26.598 Y-14.497
X-26.444 Y-14.46
X-26.263 Y-14.39
X-26.106 Y-14.276
X-25.985 Y-14.124
X-25.906 Y-13.947
X-25.877 Y-13.755
X-25.876 Y-13.697
G3 X-26.445 Y-13.509 I-0.317 J-0.004
G1 X-26.488 Y-13.565 Z-0.692
X-26.529 Y-13.618 Z-0.669
X-26.566 Y-13.666 Z-0.631
X-26.596 Y-13.705 Z-0.58
X-26.619 Y-13.736 Z-0.52
X-26.633 Y-13.754 Z-0.453
X-26.638 Y-13.76 Z-0.382
Z5
X-36.386 Y-11.776
Z-0.065
Z-0.382
X-36.387 Y-11.784 Z-0.453
X-36.389 Y-11.807 Z-0.52
X-36.392 Y-11.845 Z-0.58
X-36.397 Y-11.895 Z-0.631
X-36.403 Y-11.955 Z-0.669
X-36.409 Y-12.021 Z-0.692
X-36.416 Y-12.092 Z-0.7
G3 X-36.294 Y-12.868 I1.575 J-0.15
G1 X-36.246 Y-12.969
X-36.191 Y-13.115
X-36.148 Y-13.297
X-36.145 Y-13.315
X-36.136 Y-13.486
X-36.12 Y-13.635
X-36.077 Y-13.779
X-36.017 Y-13.917
X-35.943 Y-14.047
X-35.857 Y-14.17
X-35.749 Y-14.302
X-35.607 Y-14.448
X-35.449 Y-14.587
X-35.241 Y-14.743
X-34.991 Y-14.9
X-34.694 Y-15.055
X-34.319 Y-15.214
X-33.836 Y-15.374
X-33.213 Y-15.527
X-32.579 Y-15.631
X-32.413 Y-15.649
X-32.321 Y-15.653
X-32.229 Y-15.646
X-32.139 Y-15.628
X-32.093 Y-15.615
X-31.948 Y-15.584
X-31.802 Y-15.57
X-31.656 Y-15.563
X-30.344
X-30.198 Y-15.57
X-30.052 Y-15.584
X-30.021 Y-15.591
X-29.387 Y-15.693
X-28.747 Y-15.753
X-28.106 Y-15.788
X-27.521 Y-15.785
X-27.13 Y-15.751
X-26.857 Y-15.705
X-26.602 Y-15.64
X-26.404 Y-15.573
X-26.206 Y-15.487
X-26.05 Y-15.376
X-25.928 Y-15.229
X-25.847 Y-15.056
X-25.814 Y-14.868
X-25.829 Y-14.678
X-25.852 Y-14.571
X-25.872 Y-14.426
X-25.877 Y-14.28
X-25.879 Y-14.134
Y-13.843
X-25.877 Y-13.755
G3 X-26.314 Y-13.465 I-0.317 J-0.004
G1 X-26.47 Y-13.529
X-30.063 Y-14.989
G3 X-30.021 Y-15.591 I0.12 J-0.294
G1 X-29.907 Y-15.615
X-29.761 Y-15.655
X-28.594 Y-15.997
X-28.449 Y-16.042
X-28.303 Y-16.104
X-28.168 Y-16.174
X-28.011 Y-16.268
X-27.881 Y-16.343
X-27.744 Y-16.405
X-27.587 Y-16.46
X-27.42 Y-16.504
X-27.237 Y-16.538
X-27.038 Y-16.557
X-26.859 Y-16.561
X-26.678 Y-16.549
X-26.507 Y-16.525
X-26.358 Y-16.491
X-26.199 Y-16.441
X-26.059 Y-16.385
X-25.925 Y-16.318
X-25.793 Y-16.237
X-25.778 Y-16.226
X-25.624 Y-16.075
X-25.52 Y-15.886
X-25.475 Y-15.674
X-25.493 Y-15.458
X-25.572 Y-15.257
X-25.678 Y-15.072
X-25.709 Y-15.008
X-25.774 Y-14.863
X-25.824 Y-14.701
X-25.829 Y-14.678
G3 X-26.326 Y-14.5 I-0.308 J-0.077
G1 X-26.456 Y-14.596
X-27.872 Y-15.644
X-28.019 Y-15.752
G3 X-28.011 Y-16.268 I0.189 J-0.255
G1 X-27.025 Y-16.902
X-26.895 Y-16.977
X-26.759 Y-17.04
X-26.616 Y-17.086
X-26.469 Y-17.116
X-26.32 Y-17.13
X-26.17
X-26.021 Y-17.115
X-25.874 Y-17.086
X-25.73 Y-17.043
X-25.592 Y-16.984
X-25.46 Y-16.914
X-25.412 Y-16.882
X-25.244 Y-16.727
X-25.131 Y-16.528
X-25.084 Y-16.305
X-25.108 Y-16.078
X-25.199 Y-15.868
X-25.387 Y-15.574
X-25.464 Y-15.445
X-25.572 Y-15.257
G3 X-26.087 Y-15.224 I-0.269 J-0.168
G1 X-26.204 Y-15.366
X-26.923 Y-16.238
X-27.089 Y-16.44
G3 X-27.025 Y-16.902 I0.245 J-0.202
G1 X-26.991 Y-16.924
X-26.814 Y-17.048
X-26.699 Y-17.153
X-26.655 Y-17.193
X-26.553 Y-17.302
X-26.521 Y-17.339
X-26.417 Y-17.447
X-26.292 Y-17.53
X-26.155 Y-17.592
X-26.011 Y-17.634
X-25.863 Y-17.658
X-25.713 Y-17.664
X-25.564 Y-17.653
X-25.416 Y-17.626
X-25.273 Y-17.581
X-25.135 Y-17.522
X-25.005 Y-17.448
X-24.956 Y-17.412
X-24.812 Y-17.273
X-24.71 Y-17.1
X-24.659 Y-16.907
X-24.661 Y-16.707
X-24.716 Y-16.515
X-24.821 Y-16.344
X-25.095 Y-16.01
X-25.19 Y-15.882
X-25.199 Y-15.868
G3 X-25.715 Y-15.858 I-0.262 J-0.18
G1 X-25.824 Y-16.005
X-26.309 Y-16.656
X-26.528 Y-16.95
G3 X-26.521 Y-17.339 I0.255 J-0.19
G1 X-26.061 Y-17.87
X-25.957 Y-17.978
X-25.833 Y-18.062
X-25.696 Y-18.124
X-25.552 Y-18.167
X-25.404 Y-18.191
X-25.254 Y-18.196
X-25.105 Y-18.184
X-24.958 Y-18.154
X-24.815 Y-18.108
X-24.678 Y-18.046
X-24.55 Y-17.969
X-24.51 Y-17.939
X-24.345 Y-17.767
X-24.244 Y-17.552
X-24.216 Y-17.316
X-24.264 Y-17.083
X-24.383 Y-16.878
X-24.821 Y-16.344
G3 X-25.322 Y-16.376 I-0.238 J-0.21
G1 X-25.438 Y-16.547
X-25.863 Y-17.177
X-26.077 Y-17.492
G3 X-26.061 Y-17.87 I0.263 J-0.178
G1 X-25.678 Y-18.311
X-25.642 Y-18.359
X-25.549 Y-18.476
X-25.431 Y-18.568
X-25.298 Y-18.637
X-25.156 Y-18.687
X-25.009 Y-18.716
X-24.859 Y-18.728
X-24.71 Y-18.719
X-24.562 Y-18.695
X-24.417 Y-18.654
X-24.279 Y-18.596
X-24.148 Y-18.523
X-24.122 Y-18.505
X-23.966 Y-18.358
X-23.859 Y-18.173
X-23.81 Y-17.965
X-23.822 Y-17.751
X-23.894 Y-17.55
X-24.008 Y-17.339
X-24.075 Y-17.254
X-24.383 Y-16.878
G3 X-24.883 Y-16.907 I-0.238 J-0.21
G1 X-25.001 Y-17.079
X-25.407 Y-17.667
X-25.639 Y-18.003
G3 X-25.642 Y-18.359 I0.261 J-0.18
G1 X-25.533 Y-18.513
X-25.458 Y-18.65
X-25.387 Y-18.794
X-25.318 Y-18.928
X-25.217 Y-19.039
X-25.098 Y-19.13
X-24.966 Y-19.201
X-24.825 Y-19.253
X-24.679 Y-19.287
X-24.53 Y-19.304
X-24.38 Y-19.302
X-24.231 Y-19.284
X-24.085 Y-19.25
X-23.944 Y-19.198
X-23.9 Y-19.177
X-23.705 Y-19.041
X-23.563 Y-18.85
X-23.489 Y-18.624
X-23.491 Y-18.386
X-23.568 Y-18.161
X-23.894 Y-17.55
G3 X-24.398 Y-17.489 I-0.275 J-0.159
G1 X-24.535 Y-17.632
X-25.033 Y-18.152
X-25.323 Y-18.453
G3 X-25.387 Y-18.794 I0.229 J-0.22
G1 X-25.134 Y-19.349
X-25.065 Y-19.482
X-24.97 Y-19.598
X-24.856 Y-19.696
X-24.729 Y-19.776
X-24.593 Y-19.837
X-24.449 Y-19.882
X-24.302 Y-19.908
X-24.152 Y-19.918
X-24.002 Y-19.911
X-23.854 Y-19.886
X-23.71 Y-19.846
X-23.57 Y-19.79
X-23.553 Y-19.781
X-23.389 Y-19.661
X-23.264 Y-19.502
X-23.187 Y-19.315
X-23.164 Y-19.114
X-23.195 Y-18.914
X-23.232 Y-18.796
X-23.306 Y-18.65
X-23.568 Y-18.161
G3 X-24.056 Y-18.085 I-0.275 J-0.159
G1 X-24.219 Y-18.233
X-24.761 Y-18.726
X-25.054 Y-18.992
G3 X-25.134 Y-19.349 I0.214 J-0.235
G1 X-24.987 Y-19.669
X-24.925 Y-19.815
X-24.863 Y-19.961
X-24.798 Y-20.096
X-24.704 Y-20.212
X-24.591 Y-20.311
X-24.465 Y-20.393
X-24.33 Y-20.457
X-24.188 Y-20.505
X-24.041 Y-20.537
X-23.892 Y-20.55
X-23.742 Y-20.548
X-23.593 Y-20.529
X-23.528 Y-20.513
X-23.342 Y-20.44
X-23.182 Y-20.319
X-23.06 Y-20.161
X-22.985 Y-19.975
X-22.962 Y-19.776
X-22.994 Y-19.578
X-23.195 Y-18.914
G3 X-23.691 Y-18.766 I-0.3 J-0.103
G1 X-23.834 Y-18.877
X-24.461 Y-19.364
X-24.761 Y-19.597
G3 X-24.863 Y-19.961 I0.195 J-0.251
G1 X-24.802 Y-20.106
X-24.755 Y-20.252
X-24.73 Y-20.398
X-24.699 Y-20.544
X-24.637 Y-20.681
X-24.551 Y-20.804
X-24.445 Y-20.91
X-24.326 Y-21.001
X-24.196 Y-21.076
X-24.057 Y-21.133
X-23.913 Y-21.175
X-23.765 Y-21.199
X-23.615 Y-21.206
X-23.466 Y-21.196
X-23.318 Y-21.169
X-23.295 Y-21.163
X-23.084 Y-21.063
X-22.915 Y-20.902
X-22.804 Y-20.697
X-22.762 Y-20.468
X-22.794 Y-20.237
X-22.994 Y-19.578
G3 X-23.458 Y-19.409 I-0.3 J-0.103
G1 X-23.646 Y-19.522
X-24.221 Y-19.869
X-24.58 Y-20.086
G3 X-24.73 Y-20.398 I0.164 J-0.272
G1 X-24.707 Y-20.543
X-24.664 Y-20.835
X-24.636 Y-21.024
X-24.608 Y-21.172
X-24.547 Y-21.309
X-24.463 Y-21.433
X-24.362 Y-21.544
X-24.246 Y-21.639
X-24.12 Y-21.72
X-23.985 Y-21.786
X-23.844 Y-21.836
X-23.697 Y-21.87
X-23.549 Y-21.888
X-23.399 Y-21.889
X-23.35 Y-21.885
X-23.126 Y-21.826
X-22.931 Y-21.701
X-22.784 Y-21.522
X-22.7 Y-21.306
X-22.686 Y-21.075
X-22.753 Y-20.398
X-22.762 Y-20.342
X-22.794 Y-20.237
G3 X-23.243 Y-20.059 I-0.3 J-0.103
G1 X-23.452 Y-20.17
X-24.11 Y-20.519
X-24.47 Y-20.71
G3 X-24.636 Y-21.024 I0.149 J-0.28
G1 X-24.559 Y-21.563
X-24.551 Y-21.643
X-24.528 Y-21.791
X-24.476 Y-21.932
X-24.4 Y-22.061
X-24.306 Y-22.178
X-24.197 Y-22.281
X-24.076 Y-22.37
X-23.945 Y-22.442
X-23.806 Y-22.5
X-23.662 Y-22.542
X-23.514 Y-22.566
X-23.364 Y-22.574
X-23.317 Y-22.572
X-23.121 Y-22.535
X-22.943 Y-22.447
X-22.794 Y-22.315
X-22.686 Y-22.148
X-22.626 Y-21.958
X-22.619 Y-21.759
X-22.686 Y-21.075
G3 X-23.121 Y-20.823 I-0.315 J-0.042
G1 X-23.312 Y-20.901
X-23.995 Y-21.181
X-24.355 Y-21.328
G3 X-24.551 Y-21.643 I0.12 J-0.294
G1 X-24.514 Y-22
X-24.529 Y-22.146
X-24.537 Y-22.295
X-24.515 Y-22.444
X-24.463 Y-22.585
X-24.39 Y-22.716
X-24.299 Y-22.835
X-24.193 Y-22.941
X-24.075 Y-23.034
X-23.947 Y-23.111
X-23.811 Y-23.175
X-23.668 Y-23.222
X-23.522 Y-23.253
X-23.467 Y-23.259
X-23.235 Y-23.246
X-23.018 Y-23.162
X-22.838 Y-23.015
X-22.713 Y-22.82
X-22.654 Y-22.595
X-22.61 Y-22.146
X-22.597 Y-22
X-22.61 Y-21.854
X-22.619 Y-21.759
G3 X-23.026 Y-21.498 I-0.315 J-0.042
G1 X-23.251 Y-21.566
X-23.901 Y-21.763
X-24.307 Y-21.885
G3 X-24.529 Y-22.146 I0.092 J-0.304
G1 X-24.559 Y-22.437
X-24.601 Y-22.728
X-24.615 Y-22.878
X-24.601 Y-23.027
X-24.561 Y-23.172
X-24.498 Y-23.308
X-24.418 Y-23.434
X-24.322 Y-23.55
X-24.213 Y-23.652
X-24.092 Y-23.741
X-23.962 Y-23.817
X-23.825 Y-23.877
X-23.681 Y-23.921
X-23.534 Y-23.95
X-23.516 Y-23.951
X-23.288 Y-23.933
X-23.076 Y-23.847
X-22.901 Y-23.7
X-22.779 Y-23.506
X-22.722 Y-23.285
X-22.654 Y-22.595
G3 X-23.021 Y-22.261 I-0.317 J0.02
G1 X-23.234 Y-22.295
X-23.95 Y-22.409
X-24.338 Y-22.471
G3 X-24.601 Y-22.728 I0.05 J-0.314
G1 X-24.697 Y-23.391
X-24.712 Y-23.54
X-24.697 Y-23.69
X-24.658 Y-23.834
X-24.597 Y-23.971
X-24.519 Y-24.099
X-24.425 Y-24.217
X-24.319 Y-24.323
X-24.2 Y-24.414
X-24.073 Y-24.493
X-23.937 Y-24.557
X-23.795 Y-24.605
X-23.769 Y-24.611
X-23.549 Y-24.627
X-23.333 Y-24.577
X-23.142 Y-24.465
X-22.992 Y-24.303
X-22.897 Y-24.103
X-22.762 Y-23.658
X-22.753 Y-23.602
X-22.722 Y-23.285
G3 X-23.082 Y-22.95 I-0.317 J0.02
G1 X-23.303 Y-22.981
X-24.043 Y-23.082
X-24.428 Y-23.135
G3 X-24.697 Y-23.391 I0.043 J-0.315
G1 X-24.707 Y-23.457
X-24.755 Y-23.748
X-24.804 Y-23.897
X-24.855 Y-24.038
X-24.869 Y-24.187
X-24.854 Y-24.336
X-24.816 Y-24.482
X-24.758 Y-24.62
X-24.683 Y-24.75
X-24.592 Y-24.869
X-24.488 Y-24.977
X-24.372 Y-25.072
X-24.246 Y-25.154
X-24.112 Y-25.22
X-24.062 Y-25.238
X-23.867 Y-25.282
X-23.666 Y-25.271
X-23.476 Y-25.207
X-23.31 Y-25.094
X-23.18 Y-24.941
X-23.096 Y-24.759
X-22.897 Y-24.103
G3 X-23.206 Y-23.704 I-0.307 J0.082
G1 X-23.408 Y-23.705
X-24.091 Y-23.71
X-24.518 Y-23.713
G3 X-24.804 Y-23.897 I0.002 J-0.317
G1 X-24.949 Y-24.243
X-24.987 Y-24.331
X-25.04 Y-24.447
X-25.096 Y-24.586
X-25.117 Y-24.735
X-25.111 Y-24.885
X-25.083 Y-25.032
X-25.035 Y-25.174
X-24.97 Y-25.309
X-24.889 Y-25.436
X-24.795 Y-25.552
X-24.688 Y-25.657
X-24.569 Y-25.749
X-24.442 Y-25.828
X-24.305 Y-25.893
X-24.1 Y-25.933
X-23.892 Y-25.914
X-23.698 Y-25.838
X-23.532 Y-25.71
X-23.409 Y-25.542
X-23.306 Y-25.35
X-23.232 Y-25.204
X-23.143 Y-24.913
X-23.096 Y-24.759
G3 X-23.382 Y-24.36 I-0.307 J0.082
G1 X-23.607 Y-24.346
X-24.323 Y-24.299
X-24.735 Y-24.272
G3 X-25.04 Y-24.447 I-0.021 J-0.317
G1 X-25.306 Y-25.029
X-25.362 Y-25.169
X-25.388 Y-25.316
X-25.389 Y-25.466
X-25.367 Y-25.615
X-25.326 Y-25.759
X-25.267 Y-25.897
X-25.193 Y-26.028
X-25.104 Y-26.148
X-25.003 Y-26.259
X-24.889 Y-26.357
X-24.766 Y-26.442
X-24.743 Y-26.454
X-24.523 Y-26.532
X-24.291 Y-26.538
X-24.068 Y-26.471
X-23.876 Y-26.338
X-23.736 Y-26.153
X-23.409 Y-25.542
G3 X-23.64 Y-25.089 I-0.285 J0.14
G1 X-23.833 Y-25.056
X-24.594 Y-24.923
X-24.968 Y-24.858
G3 X-25.306 Y-25.029 I-0.054 J-0.313
G1 X-25.387 Y-25.206
X-25.458 Y-25.35
X-25.533 Y-25.487
X-25.556 Y-25.52
X-25.637 Y-25.646
X-25.685 Y-25.789
X-25.706 Y-25.937
X-25.703 Y-26.087
X-25.68 Y-26.235
X-25.639 Y-26.379
X-25.58 Y-26.517
X-25.504 Y-26.647
X-25.416 Y-26.768
X-25.313 Y-26.877
X-25.198 Y-26.974
X-25.158 Y-27.002
X-24.961 Y-27.097
X-24.745 Y-27.131
X-24.528 Y-27.099
X-24.33 Y-27.006
X-24.168 Y-26.86
X-24.075 Y-26.746
X-24.008 Y-26.661
X-23.851 Y-26.37
X-23.736 Y-26.153
G3 X-23.948 Y-25.704 I-0.285 J0.14
G1 X-24.157 Y-25.655
X-24.821 Y-25.5
X-25.232 Y-25.404
G3 X-25.556 Y-25.52 I-0.072 J-0.309
G1 X-25.642 Y-25.641
X-25.678 Y-25.689
X-25.89 Y-25.933
X-25.982 Y-26.051
X-26.049 Y-26.185
X-26.09 Y-26.33
X-26.108 Y-26.478
X-26.105 Y-26.628
X-26.083 Y-26.777
X-26.043 Y-26.921
X-25.986 Y-27.06
X-25.915 Y-27.192
X-25.829 Y-27.315
X-25.73 Y-27.428
X-25.684 Y-27.47
X-25.519 Y-27.585
X-25.33 Y-27.652
X-25.13 Y-27.666
X-24.934 Y-27.625
X-24.755 Y-27.533
X-24.608 Y-27.396
X-24.168 Y-26.86
G3 X-24.297 Y-26.374 I-0.252 J0.193
G1 X-24.487 Y-26.295
X-25.167 Y-26.01
X-25.534 Y-25.856
G3 X-25.89 Y-25.933 I-0.123 J-0.293
G1 X-26.338 Y-26.45
X-26.43 Y-26.568
X-26.492 Y-26.705
X-26.531 Y-26.85
X-26.548 Y-26.999
X-26.546 Y-27.149
X-26.525 Y-27.297
X-26.487 Y-27.442
X-26.433 Y-27.582
X-26.363 Y-27.715
X-26.279 Y-27.839
X-26.182 Y-27.953
X-26.072 Y-28.056
X-25.873 Y-28.164
X-25.651 Y-28.206
X-25.426 Y-28.18
X-25.22 Y-28.087
X-25.051 Y-27.936
X-24.608 Y-27.396
G3 X-24.735 Y-26.912 I-0.252 J0.193
G1 X-24.926 Y-26.829
X-25.617 Y-26.531
X-25.979 Y-26.375
G3 X-26.338 Y-26.45 I-0.126 J-0.291
G1 X-26.553 Y-26.698
X-26.655 Y-26.807
X-26.734 Y-26.879
X-26.84 Y-26.986
X-26.917 Y-27.114
X-26.97 Y-27.254
X-27.002 Y-27.401
X-27.013 Y-27.55
X-27.006 Y-27.7
X-26.983 Y-27.848
X-26.942 Y-27.993
X-26.885 Y-28.131
X-26.814 Y-28.263
X-26.728 Y-28.386
X-26.629 Y-28.499
X-26.519 Y-28.602
X-26.464 Y-28.643
X-26.284 Y-28.741
X-26.083 Y-28.786
X-25.879 Y-28.774
X-25.685 Y-28.706
X-25.517 Y-28.588
X-25.388 Y-28.429
X-25.19 Y-28.118
X-25.095 Y-27.99
X-25.051 Y-27.936
G3 X-25.16 Y-27.46 I-0.252 J0.193
G1 X-25.364 Y-27.357
X-26.017 Y-27.025
X-26.385 Y-26.838
G3 X-26.734 Y-26.879 I-0.144 J-0.283
G1 X-26.814 Y-26.952
X-26.991 Y-27.076
X-27.136 Y-27.169
X-27.258 Y-27.257
X-27.358 Y-27.369
X-27.435 Y-27.497
X-27.492 Y-27.636
X-27.529 Y-27.782
X-27.548 Y-27.93
X-27.549 Y-28.08
X-27.534 Y-28.23
X-27.505 Y-28.377
X-27.461 Y-28.52
X-27.403 Y-28.658
X-27.332 Y-28.791
X-27.249 Y-28.916
X-27.154 Y-29.032
X-27.048 Y-29.138
X-26.933 Y-29.234
X-26.808 Y-29.317
X-26.674 Y-29.389
X-26.453 Y-29.442
X-26.227 Y-29.426
X-26.016 Y-29.342
X-25.84 Y-29.198
X-25.716 Y-29.008
X-25.678 Y-28.928
X-25.464 Y-28.555
X-25.388 Y-28.429
G3 X-25.495 Y-28.007 I-0.278 J0.154
G1 X-25.754 Y-27.843
X-26.437 Y-27.408
X-26.804 Y-27.174
G3 X-27.136 Y-27.169 I-0.17 J-0.268
G1 X-27.679 Y-27.518
X-27.801 Y-27.605
X-27.903 Y-27.715
X-27.985 Y-27.84
X-28.049 Y-27.976
X-28.095 Y-28.119
X-28.124 Y-28.266
X-28.137 Y-28.415
X-28.135 Y-28.565
X-28.119 Y-28.715
X-28.09 Y-28.862
X-28.048 Y-29.006
X-27.994 Y-29.148
X-27.927 Y-29.286
X-27.849 Y-29.42
X-27.764 Y-29.543
X-27.668 Y-29.658
X-27.563 Y-29.765
X-27.449 Y-29.863
X-27.327 Y-29.951
X-27.198 Y-30.027
X-27.063 Y-30.092
X-26.922 Y-30.144
X-26.777 Y-30.182
X-26.73 Y-30.19
X-26.494 Y-30.192
X-26.269 Y-30.12
X-26.078 Y-29.981
X-25.941 Y-29.788
X-25.871 Y-29.563
X-25.87 Y-29.503
X-25.881 Y-29.444
X-25.902 Y-29.388
X-25.934 Y-29.337
X-26.265 Y-28.904
X-27.068 Y-27.855
X-27.264 Y-27.598
G3 X-27.679 Y-27.518 I-0.252 J-0.193
G1 X-28.011 Y-27.732
X-28.168 Y-27.826
X-28.209 Y-27.847
X-28.339 Y-27.922
X-28.451 Y-28.022
X-28.545 Y-28.138
X-28.622 Y-28.267
X-28.682 Y-28.405
X-28.726 Y-28.548
X-28.755 Y-28.696
X-28.77 Y-28.845
X-28.771 Y-28.995
X-28.76 Y-29.146
X-28.737 Y-29.3
X-28.699 Y-29.457
X-28.647 Y-29.617
X-28.581 Y-29.778
X-28.5 Y-29.935
X-28.406 Y-30.087
X-28.298 Y-30.233
X-28.176 Y-30.373
X-28.042 Y-30.506
X-27.906 Y-30.618
X-27.772 Y-30.713
X-27.615 Y-30.806
X-27.471 Y-30.876
X-27.332 Y-30.931
X-27.177 Y-30.977
X-27.028 Y-31.009
X-26.879 Y-31.028
X-26.729 Y-31.034
X-26.579 Y-31.026
X-26.522 Y-31.019
X-26.314 Y-30.961
X-26.132 Y-30.844
X-25.991 Y-30.681
X-25.903 Y-30.483
X-25.876 Y-30.269
X-25.879 Y-30.157
Y-29.866
X-25.877 Y-29.72
X-25.872 Y-29.574
X-25.871 Y-29.563
G3 X-25.998 Y-29.274 I-0.316 J0.033
G1 X-26.364 Y-29.003
X-27.528 Y-28.143
X-27.885 Y-27.879
G3 X-28.209 Y-27.847 I-0.189 J-0.255
G1 X-28.303 Y-27.896
X-28.449 Y-27.958
X-28.594 Y-28.003
X-28.711 Y-28.037
X-28.852 Y-28.087
X-28.985 Y-28.156
X-29.104 Y-28.247
X-29.209 Y-28.355
X-29.298 Y-28.475
X-29.374 Y-28.605
X-29.435 Y-28.742
X-29.484 Y-28.883
X-29.52 Y-29.029
X-29.543 Y-29.177
X-29.555 Y-29.327
X-29.556 Y-29.477
X-29.547 Y-29.626
X-29.528 Y-29.775
X-29.499 Y-29.922
X-29.461 Y-30.068
X-29.414 Y-30.21
X-29.359 Y-30.35
X-29.297 Y-30.486
X-29.227 Y-30.619
X-29.15 Y-30.747
X-29.066 Y-30.872
X-28.975 Y-30.991
X-28.878 Y-31.106
X-28.776 Y-31.215
X-28.668 Y-31.319
X-28.554 Y-31.418
X-28.436 Y-31.51
X-28.313 Y-31.596
X-28.186 Y-31.675
X-28.055 Y-31.748
X-27.92 Y-31.814
X-27.782 Y-31.872
X-27.641 Y-31.923
X-27.497 Y-31.966
X-27.351 Y-32.001
X-27.203 Y-32.027
X-27.054 Y-32.044
X-26.904 Y-32.051
X-26.755 Y-32.047
X-26.605 Y-32.033
X-26.457 Y-32.008
X-26.312 Y-31.972
X-26.234 Y-31.947
X-26.055 Y-31.86
X-25.906 Y-31.728
X-25.797 Y-31.562
X-25.736 Y-31.372
X-25.728 Y-31.174
X-25.773 Y-30.98
X-25.799 Y-30.931
X-25.833 Y-30.887
X-26.292 Y-30.393
X-28.096 Y-28.454
X-28.399 Y-28.128
G3 X-28.711 Y-28.037 I-0.232 J-0.216
G1 X-29.44 Y-28.251
X-29.581 Y-28.301
X-29.712 Y-28.375
X-29.829 Y-28.468
X-29.934 Y-28.575
X-30.026 Y-28.694
X-30.106 Y-28.821
X-30.173 Y-28.955
X-30.229 Y-29.095
X-30.276 Y-29.248
X-30.314 Y-29.416
X-30.339 Y-29.597
X-30.351 Y-29.79
X-30.346 Y-29.996
X-30.324 Y-30.21
X-30.283 Y-30.432
X-30.222 Y-30.661
X-30.139 Y-30.894
X-30.033 Y-31.13
X-29.969 Y-31.245
X-29.928 Y-31.314
X-29.842 Y-31.45
X-29.787 Y-31.601
X-29.766 Y-31.76
X-29.78 Y-31.92
X-29.828 Y-32.073
X-29.908 Y-32.212
X-30.124 Y-32.45
X-30.688 Y-32.758
X-31.301 Y-32.949
X-31.932 Y-33.066
X-32.571 Y-33.136
X-33.211 Y-33.177
X-33.853 Y-33.202
X-34.495 Y-33.217
X-35.137 Y-33.225
X-35.779 Y-33.23
X-36.422 Y-33.233
X-37.706 Y-33.236
X-38.348 Y-33.237
X-38.99 Y-33.239
X-39.311 Y-33.246
X-39.472 Y-33.252
X-39.552 Y-33.25
X-39.712 Y-33.239
X-39.866 Y-33.192
X-40.006 Y-33.114
X-40.126 Y-33.008
X-40.242 Y-32.848
X-40.309 Y-32.768
X-40.386 Y-32.699
X-40.472 Y-32.641
X-40.841 Y-32.428
X-40.987 Y-32.329
X-41.133 Y-32.206
X-41.143 Y-32.196
X-41.283 Y-32.05
X-41.425 Y-31.884
X-42.371 Y-30.756
G3 X-42.924 Y-30.989 I-0.236 J-0.212
G1 X-42.919 Y-31.059 Z-0.692
X-42.915 Y-31.126 Z-0.669
X-42.911 Y-31.186 Z-0.631
X-42.908 Y-31.236 Z-0.58
X-42.905 Y-31.274 Z-0.52
X-42.904 Y-31.298 Z-0.453
X-42.903 Y-31.306 Z-0.382
Z5
X-28.347 Y-28.33
Z-0.065
Z-0.382
X-28.354 Y-28.328 Z-0.453
X-28.377 Y-28.322 Z-0.52
X-28.414 Y-28.313 Z-0.58
X-28.462 Y-28.301 Z-0.631
X-28.521 Y-28.286 Z-0.669
X-28.586 Y-28.269 Z-0.692
X-28.654 Y-28.251 Z-0.7
G3 X-29.44 Y-28.251 I-0.393 J-1.533
G1 X-29.761 Y-28.345
X-29.907 Y-28.385
X-30.052 Y-28.416
X-30.096 Y-28.42
X-30.245 Y-28.443
X-30.382 Y-28.504
X-30.508 Y-28.584
X-30.623 Y-28.68
X-30.727 Y-28.789
X-30.82 Y-28.907
X-30.902 Y-29.032
X-30.977 Y-29.174
X-31.044 Y-29.326
X-31.102 Y-29.496
X-31.151 Y-29.687
X-31.205 Y-30.003
X-31.28 Y-30.315
X-31.438 Y-30.595
X-31.862 Y-31.077
X-32.415 Y-31.403
X-33.022 Y-31.615
X-33.65 Y-31.75
X-34.286 Y-31.834
X-34.926 Y-31.886
X-35.568 Y-31.918
X-36.21 Y-31.937
X-36.427 Y-31.941
X-36.614 Y-31.969
X-36.788 Y-32.043
X-36.938 Y-32.159
X-36.975 Y-32.196
X-37.051 Y-32.264
X-37.196 Y-32.371
X-37.342 Y-32.463
X-37.636 Y-32.633
X-37.78 Y-32.713
X-38.071 Y-32.869
X-38.144 Y-32.9
X-38.225 Y-32.924
X-38.363 Y-32.964
X-38.509 Y-32.986
X-38.654 Y-32.995
X-38.946 Y-33
X-39.092 Y-33.001
X-39.383 Y-33
X-39.529 Y-32.994
X-39.675 Y-32.979
X-39.821 Y-32.946
X-39.906 Y-32.924
X-39.967 Y-32.902
X-40.112 Y-32.837
X-40.258 Y-32.761
X-40.404 Y-32.68
X-40.472 Y-32.641
G3 X-40.911 Y-33.049 I-0.149 J-0.28
G1 X-40.883 Y-33.114 Z-0.692
X-40.856 Y-33.175 Z-0.669
X-40.832 Y-33.231 Z-0.631
X-40.811 Y-33.277 Z-0.58
X-40.796 Y-33.311 Z-0.52
X-40.787 Y-33.333 Z-0.453
X-40.783 Y-33.34 Z-0.382
Z5
X-29.037 Y-28.699
Z-0.065
Z-0.382
X-29.044 Y-28.696 Z-0.453
X-29.065 Y-28.686 Z-0.52
X-29.099 Y-28.67 Z-0.58
X-29.145 Y-28.648 Z-0.631
X-29.2 Y-28.623 Z-0.669
X-29.26 Y-28.595 Z-0.692
X-29.324 Y-28.565 Z-0.7
G3 X-30.096 Y-28.42 I-0.668 J-1.435
G1 X-30.198 Y-28.43
X-30.344 Y-28.437
X-30.68 Y-28.438
X-30.829 Y-28.445
X-30.975 Y-28.48
X-31.114 Y-28.538
X-31.244 Y-28.612
X-31.365 Y-28.701
X-31.514 Y-28.837
X-31.954 Y-29.304
X-32.449 Y-29.713
X-33.011 Y-30.025
X-33.614 Y-30.247
X-34.237 Y-30.4
X-34.871 Y-30.504
X-35.51 Y-30.572
X-35.638 Y-30.589
X-35.827 Y-30.638
X-35.999 Y-30.732
X-36.141 Y-30.866
X-36.246 Y-31.031
X-36.315 Y-31.176
X-36.395 Y-31.322
X-36.479 Y-31.468
X-36.565 Y-31.613
X-36.759 Y-31.931
X-36.838 Y-32.05
X-36.905 Y-32.126
X-36.938 Y-32.159
G3 X-36.541 Y-32.647 I0.233 J-0.216
G1 X-30.527 Y-29.027
G3 X-30.68 Y-28.438 I-0.164 J0.272
G1 X-31.51 Y-28.437
X-31.687 Y-28.446
X-31.934 Y-28.478
X-32.562 Y-28.612
X-33.178 Y-28.792
X-33.8 Y-28.954
X-34.428 Y-29.086
X-35.06 Y-29.199
X-35.419 Y-29.29
X-35.676 Y-29.379
X-35.858 Y-29.492
X-36 Y-29.652
X-36.09 Y-29.846
X-36.121 Y-30.058
Y-30.157
X-36.124 Y-30.303
G3 X-35.699 Y-30.597 I0.317 J0.004
G1 X-35.529 Y-30.536
X-31.414 Y-29.053
G3 X-31.51 Y-28.437 I-0.108 J0.299
G1 X-31.656
X-31.802 Y-28.43
X-31.948 Y-28.416
X-32.093 Y-28.385
X-32.239 Y-28.345
X-32.968 Y-28.131
X-33.208 Y-28.074
X-33.545 Y-28.021
X-33.973 Y-27.989
X-34.415 Y-27.992
X-34.823 Y-28.027
X-35.117 Y-28.076
X-35.375 Y-28.141
X-35.576 Y-28.209
X-35.78 Y-28.297
X-35.844 Y-28.331
X-36.01 Y-28.451
X-36.136 Y-28.611
X-36.214 Y-28.8
X-36.238 Y-29.003
X-36.205 Y-29.204
X-36.176 Y-29.299
X-36.148 Y-29.429
X-36.128 Y-29.574
X-36.123 Y-29.72
X-36.121 Y-29.866
Y-30.058
G3 X-35.643 Y-30.32 I0.317 J0.011
G1 X-35.532 Y-30.255
X-32.958 Y-28.736
X-32.907 Y-28.706
G3 X-32.968 Y-28.131 I-0.161 J0.273
G1 X-33.406 Y-28.003
X-33.551 Y-27.958
X-33.697 Y-27.896
X-33.832 Y-27.826
X-33.989 Y-27.732
X-34.215 Y-27.586
X-34.345 Y-27.512
X-34.481 Y-27.448
X-34.622 Y-27.397
X-34.77 Y-27.358
X-34.935 Y-27.328
X-35.104 Y-27.311
X-35.262 Y-27.308
X-35.434 Y-27.319
X-35.59 Y-27.341
X-35.736 Y-27.374
X-35.888 Y-27.422
X-36.026 Y-27.479
X-36.16 Y-27.547
X-36.287 Y-27.627
X-36.308 Y-27.643
X-36.46 Y-27.795
X-36.561 Y-27.984
X-36.604 Y-28.194
X-36.585 Y-28.407
X-36.506 Y-28.607
X-36.322 Y-28.928
X-36.291 Y-28.992
X-36.226 Y-29.137
X-36.205 Y-29.204
G3 X-35.702 Y-29.344 I0.3 J0.104
G1 X-35.569 Y-29.234
X-34.347 Y-28.22
X-34.193 Y-28.092
G3 X-34.215 Y-27.586 I-0.203 J0.244
G1 X-35.009 Y-27.076
X-35.155 Y-26.974
X-35.282 Y-26.894
X-35.42 Y-26.835
X-35.565 Y-26.795
X-35.713 Y-26.77
X-35.863 Y-26.762
X-36.012 Y-26.769
X-36.161 Y-26.792
X-36.306 Y-26.828
X-36.447 Y-26.881
X-36.581 Y-26.947
X-36.709 Y-27.026
X-36.716 Y-27.031
X-36.872 Y-27.198
X-36.97 Y-27.404
X-37.001 Y-27.63
X-36.961 Y-27.855
X-36.855 Y-28.057
X-36.81 Y-28.118
X-36.613 Y-28.426
X-36.52 Y-28.583
X-36.506 Y-28.607
G3 X-35.981 Y-28.626 I0.269 J0.168
G1 X-35.882 Y-28.492
X-35.262 Y-27.649
X-35.09 Y-27.415
G3 X-35.155 Y-26.974 I-0.256 J0.188
G1 X-35.186 Y-26.952
X-35.301 Y-26.847
X-35.345 Y-26.807
X-35.447 Y-26.698
X-35.542 Y-26.589
X-35.645 Y-26.481
X-35.765 Y-26.39
X-35.898 Y-26.321
X-36.04 Y-26.272
X-36.187 Y-26.242
X-36.336 Y-26.229
X-36.486 Y-26.236
X-36.634 Y-26.258
X-36.779 Y-26.297
X-36.918 Y-26.354
X-37.051 Y-26.424
X-37.175 Y-26.509
X-37.183 Y-26.516
X-37.33 Y-26.69
X-37.417 Y-26.9
X-37.436 Y-27.127
X-37.385 Y-27.349
X-37.27 Y-27.545
X-36.905 Y-27.99
X-36.855 Y-28.057
G3 X-36.355 Y-28.052 I0.248 J0.198
G1 X-36.227 Y-27.885
X-35.756 Y-27.269
X-35.536 Y-26.982
G3 X-35.542 Y-26.589 I-0.252 J0.193
G1 X-36.03 Y-26.026
X-36.134 Y-25.917
X-36.258 Y-25.833
X-36.394 Y-25.77
X-36.538 Y-25.727
X-36.686 Y-25.703
X-36.836 Y-25.697
X-36.985 Y-25.709
X-37.132 Y-25.738
X-37.275 Y-25.784
X-37.411 Y-25.846
X-37.541 Y-25.923
X-37.577 Y-25.95
X-37.719 Y-26.09
X-37.819 Y-26.262
X-37.869 Y-26.454
X-37.866 Y-26.653
X-37.811 Y-26.844
X-37.706 Y-27.013
X-37.27 Y-27.545
G3 X-36.769 Y-27.514 I0.238 J0.21
G1 X-36.653 Y-27.343
X-36.228 Y-26.718
X-36.014 Y-26.403
G3 X-36.03 Y-26.026 I-0.263 J0.178
G1 X-36.322 Y-25.689
X-36.358 Y-25.641
X-36.415 Y-25.561
X-36.508 Y-25.444
X-36.622 Y-25.346
X-36.751 Y-25.27
X-36.891 Y-25.216
X-37.037 Y-25.181
X-37.186 Y-25.164
X-37.336 Y-25.167
X-37.484 Y-25.186
X-37.63 Y-25.222
X-37.77 Y-25.275
X-37.904 Y-25.343
X-37.929 Y-25.36
X-38.09 Y-25.505
X-38.203 Y-25.692
X-38.256 Y-25.903
X-38.245 Y-26.121
X-38.172 Y-26.326
X-37.992 Y-26.661
X-37.925 Y-26.746
X-37.706 Y-27.013
G3 X-37.213 Y-26.992 I0.238 J0.21
G1 X-37.082 Y-26.816
X-36.661 Y-26.245
X-36.424 Y-25.925
G3 X-36.415 Y-25.561 I-0.255 J0.189
G1 X-36.467 Y-25.487
X-36.542 Y-25.35
X-36.614 Y-25.204
X-36.65 Y-25.124
X-36.719 Y-24.991
X-36.814 Y-24.875
X-36.929 Y-24.778
X-37.057 Y-24.701
X-37.195 Y-24.643
X-37.34 Y-24.603
X-37.488 Y-24.58
X-37.638 Y-24.576
X-37.788 Y-24.588
X-37.935 Y-24.616
X-38.078 Y-24.662
X-38.217 Y-24.723
X-38.393 Y-24.866
X-38.519 Y-25.055
X-38.581 Y-25.273
X-38.574 Y-25.5
X-38.499 Y-25.714
X-38.172 Y-26.326
G3 X-37.677 Y-26.395 I0.275 J0.159
G1 X-37.526 Y-26.249
X-37.015 Y-25.756
X-36.723 Y-25.475
G3 X-36.65 Y-25.124 I-0.22 J0.229
G1 X-36.928 Y-24.517
X-36.997 Y-24.384
X-37.094 Y-24.27
X-37.209 Y-24.173
X-37.337 Y-24.095
X-37.474 Y-24.034
X-37.617 Y-23.99
X-37.765 Y-23.963
X-37.915 Y-23.955
X-38.064 Y-23.962
X-38.212 Y-23.986
X-38.357 Y-24.027
X-38.411 Y-24.048
X-38.6 Y-24.159
X-38.749 Y-24.32
X-38.844 Y-24.518
X-38.877 Y-24.734
X-38.845 Y-24.952
X-38.768 Y-25.204
X-38.694 Y-25.35
X-38.499 Y-25.714
G3 X-38.011 Y-25.789 I0.275 J0.159
G1 X-37.849 Y-25.642
X-37.3 Y-25.141
X-37.007 Y-24.873
G3 X-36.928 Y-24.517 I-0.214 J0.235
G1 X-37.013 Y-24.331
X-37.075 Y-24.185
X-37.184 Y-23.926
X-37.249 Y-23.791
X-37.341 Y-23.672
X-37.452 Y-23.571
X-37.576 Y-23.487
X-37.711 Y-23.42
X-37.852 Y-23.371
X-37.999 Y-23.339
X-38.148 Y-23.323
X-38.298 Y-23.325
X-38.447 Y-23.344
X-38.504 Y-23.357
X-38.692 Y-23.429
X-38.854 Y-23.549
X-38.978 Y-23.708
X-39.054 Y-23.894
X-39.077 Y-24.095
X-39.045 Y-24.293
X-38.845 Y-24.952
G3 X-38.353 Y-25.101 I0.3 J0.103
G1 X-38.206 Y-24.99
X-37.589 Y-24.52
X-37.289 Y-24.291
G3 X-37.184 Y-23.926 I-0.192 J0.253
G1 X-37.198 Y-23.894
X-37.245 Y-23.748
X-37.293 Y-23.457
X-37.323 Y-23.31
X-37.39 Y-23.175
X-37.479 Y-23.055
X-37.586 Y-22.95
X-37.707 Y-22.86
X-37.838 Y-22.787
X-37.977 Y-22.731
X-38.121 Y-22.69
X-38.269 Y-22.666
X-38.419 Y-22.659
X-38.569 Y-22.669
X-38.716 Y-22.696
X-38.729 Y-22.7
X-38.916 Y-22.784
X-39.072 Y-22.915
X-39.187 Y-23.085
X-39.251 Y-23.279
X-39.259 Y-23.484
X-39.247 Y-23.602
X-39.238 Y-23.658
X-39.045 Y-24.293
G3 X-38.578 Y-24.461 I0.3 J0.103
G1 X-38.394 Y-24.348
X-37.805 Y-23.986
X-37.443 Y-23.763
G3 X-37.293 Y-23.457 I-0.166 J0.271
G1 X-37.336 Y-23.165
X-37.378 Y-22.874
X-37.407 Y-22.727
X-37.462 Y-22.587
X-37.541 Y-22.46
X-37.639 Y-22.346
X-37.752 Y-22.247
X-37.876 Y-22.163
X-38.008 Y-22.093
X-38.148 Y-22.039
X-38.294 Y-22.001
X-38.442 Y-21.978
X-38.592 Y-21.973
X-38.641 Y-21.977
X-38.871 Y-22.031
X-39.072 Y-22.154
X-39.225 Y-22.334
X-39.313 Y-22.553
X-39.327 Y-22.789
X-39.259 Y-23.484
G3 X-38.819 Y-23.734 I0.315 J0.042
G1 X-38.635 Y-23.655
X-37.919 Y-23.349
X-37.569 Y-23.2
G3 X-37.378 Y-22.874 I-0.125 J0.292
G1 X-37.441 Y-22.437
X-37.464 Y-22.211
X-37.487 Y-22.063
X-37.542 Y-21.923
X-37.619 Y-21.795
X-37.715 Y-21.679
X-37.825 Y-21.577
X-37.946 Y-21.489
X-38.078 Y-21.418
X-38.217 Y-21.361
X-38.361 Y-21.32
X-38.51 Y-21.297
X-38.659 Y-21.29
X-38.708 Y-21.293
X-38.914 Y-21.335
X-39.099 Y-21.434
X-39.249 Y-21.58
X-39.353 Y-21.763
X-39.4 Y-21.967
X-39.403 Y-22
X-39.39 Y-22.146
X-39.327 Y-22.789
G3 X-38.89 Y-23.039 I0.315 J0.042
G1 X-38.702 Y-22.961
X-38.019 Y-22.676
X-37.659 Y-22.526
G3 X-37.464 Y-22.211 I-0.122 J0.293
G1 X-37.486 Y-22
X-37.456 Y-21.709
X-37.448 Y-21.559
X-37.475 Y-21.411
X-37.53 Y-21.272
X-37.605 Y-21.142
X-37.697 Y-21.024
X-37.804 Y-20.918
X-37.922 Y-20.826
X-38.051 Y-20.748
X-38.187 Y-20.685
X-38.329 Y-20.637
X-38.475 Y-20.605
X-38.513 Y-20.601
X-38.746 Y-20.612
X-38.965 Y-20.695
X-39.146 Y-20.842
X-39.273 Y-21.038
X-39.332 Y-21.265
X-39.39 Y-21.854
X-39.4 Y-21.967
G3 X-39.008 Y-22.292 I0.317 J-0.017
G1 X-38.82 Y-22.247
X-38.09 Y-22.069
X-37.695 Y-21.974
G3 X-37.456 Y-21.709 I-0.075 J0.309
G1 X-37.441 Y-21.563
X-37.378 Y-21.126
X-37.364 Y-20.977
X-37.381 Y-20.828
X-37.423 Y-20.684
X-37.487 Y-20.548
X-37.568 Y-20.422
X-37.665 Y-20.307
X-37.774 Y-20.205
X-37.895 Y-20.116
X-38.025 Y-20.04
X-38.163 Y-19.981
X-38.306 Y-19.937
X-38.453 Y-19.909
X-38.471 Y-19.907
X-38.699 Y-19.925
X-38.91 Y-20.012
X-39.085 Y-20.159
X-39.207 Y-20.352
X-39.264 Y-20.573
X-39.332 Y-21.265
G3 X-38.965 Y-21.598 I0.317 J-0.02
G1 X-38.752 Y-21.564
X-38.029 Y-21.446
X-37.64 Y-21.383
G3 X-37.378 Y-21.126 I-0.051 J0.313
G1 X-37.315 Y-20.689
X-37.293 Y-20.543
X-37.28 Y-20.463
X-37.264 Y-20.314
X-37.28 Y-20.165
X-37.32 Y-20.021
X-37.382 Y-19.884
X-37.461 Y-19.757
X-37.555 Y-19.639
X-37.662 Y-19.534
X-37.78 Y-19.442
X-37.908 Y-19.364
X-38.044 Y-19.3
X-38.188 Y-19.251
X-38.409 Y-19.235
X-38.624 Y-19.285
X-38.816 Y-19.396
X-38.966 Y-19.559
X-39.061 Y-19.759
X-39.238 Y-20.342
X-39.247 Y-20.398
X-39.264 Y-20.573
G3 X-38.903 Y-20.908 I0.317 J-0.02
G1 X-38.683 Y-20.877
X-37.937 Y-20.771
X-37.547 Y-20.716
G3 X-37.28 Y-20.463 I-0.045 J0.314
G1 X-37.245 Y-20.252
X-37.196 Y-20.103
X-37.149 Y-19.99
X-37.097 Y-19.849
X-37.082 Y-19.699
X-37.095 Y-19.55
X-37.131 Y-19.404
X-37.187 Y-19.265
X-37.26 Y-19.134
X-37.347 Y-19.013
X-37.45 Y-18.903
X-37.564 Y-18.805
X-37.688 Y-18.721
X-37.821 Y-18.652
X-37.882 Y-18.628
X-38.08 Y-18.581
X-38.283 Y-18.588
X-38.476 Y-18.651
X-38.645 Y-18.764
X-38.777 Y-18.918
X-38.862 Y-19.103
X-39.061 Y-19.759
G3 X-38.758 Y-20.158 I0.307 J-0.082
G1 X-38.55 Y-20.16
X-37.861 Y-20.169
X-37.441 Y-20.174
G3 X-37.149 Y-19.99 I0.004 J0.317
G1 X-37.051 Y-19.757
X-37.013 Y-19.669
X-36.905 Y-19.433
X-36.849 Y-19.294
X-36.827 Y-19.145
X-36.831 Y-18.995
X-36.858 Y-18.848
X-36.905 Y-18.705
X-36.968 Y-18.569
X-37.047 Y-18.442
X-37.141 Y-18.324
X-37.246 Y-18.218
X-37.363 Y-18.124
X-37.489 Y-18.043
X-37.542 Y-18.017
X-37.759 Y-17.949
X-37.986
X-38.202 Y-18.019
X-38.387 Y-18.15
X-38.524 Y-18.332
X-38.694 Y-18.65
X-38.768 Y-18.796
X-38.862 Y-19.103
G3 X-38.58 Y-19.501 I0.307 J-0.082
G1 X-38.351 Y-19.519
X-37.621 Y-19.576
X-37.214 Y-19.608
G3 X-36.905 Y-19.433 I0.025 J0.317
G1 X-36.644 Y-18.861
X-36.588 Y-18.722
X-36.557 Y-18.575
X-36.553 Y-18.425
X-36.571 Y-18.276
X-36.609 Y-18.131
X-36.665 Y-17.992
X-36.738 Y-17.861
X-36.824 Y-17.738
X-36.924 Y-17.626
X-37.037 Y-17.527
X-37.159 Y-17.44
X-37.186 Y-17.426
X-37.406 Y-17.346
X-37.64 Y-17.339
X-37.864 Y-17.405
X-38.057 Y-17.538
X-38.199 Y-17.724
X-38.524 Y-18.332
G3 X-38.297 Y-18.784 I0.285 J-0.14
G1 X-38.1 Y-18.821
X-37.355 Y-18.962
X-36.987 Y-19.031
G3 X-36.644 Y-18.861 I0.059 J0.312
G1 X-36.613 Y-18.794
X-36.542 Y-18.65
X-36.467 Y-18.513
X-36.379 Y-18.388
X-36.298 Y-18.262
X-36.236 Y-18.125
X-36.202 Y-17.979
X-36.191 Y-17.829
X-36.202 Y-17.68
X-36.232 Y-17.533
X-36.28 Y-17.39
X-36.345 Y-17.255
X-36.424 Y-17.128
X-36.517 Y-17.01
X-36.623 Y-16.904
X-36.66 Y-16.875
X-36.86 Y-16.758
X-37.086 Y-16.71
X-37.316 Y-16.733
X-37.527 Y-16.826
X-37.7 Y-16.979
X-37.925 Y-17.254
X-37.992 Y-17.339
X-38.176 Y-17.682
X-38.199 Y-17.724
G3 X-37.993 Y-18.171 I0.285 J-0.14
G1 X-37.778 Y-18.227
X-37.111 Y-18.399
X-36.71 Y-18.502
G3 X-36.379 Y-18.388 I0.079 J0.307
G1 X-36.358 Y-18.359
X-36.322 Y-18.311
X-35.447 Y-17.302
X-35.345 Y-17.193
X-35.301 Y-17.153
X-35.186 Y-17.048
X-35.009 Y-16.924
X-33.989 Y-16.268
X-33.832 Y-16.174
X-33.697 Y-16.104
X-33.551 Y-16.042
X-33.406 Y-15.997
X-32.239 Y-15.655
X-32.139 Y-15.628
G3 X-32.087 Y-15.042 I-0.093 J0.303
G1 X-32.117 Y-15.027
X-35.558 Y-13.257
X-35.673 Y-13.198
G3 X-36.136 Y-13.486 I-0.145 J-0.282
G1 X-36.124 Y-13.697
X-36.121 Y-13.843
Y-14.134
X-36.123 Y-14.28
X-36.128 Y-14.426
X-36.148 Y-14.571
X-36.176 Y-14.701
X-36.226 Y-14.863
X-36.291 Y-15.008
X-36.322 Y-15.072
X-36.536 Y-15.445
X-36.624 Y-15.591
X-36.81 Y-15.882
X-36.905 Y-16.01
X-37.7 Y-16.979
G3 X-37.369 Y-17.48 I0.252 J-0.193
G1 X-37.301 Y-17.462 Z-0.692
X-37.236 Y-17.445 Z-0.669
X-37.177 Y-17.43 Z-0.631
X-37.129 Y-17.418 Z-0.58
X-37.092 Y-17.409 Z-0.52
X-37.069 Y-17.403 Z-0.453
X-37.061 Y-17.401 Z-0.382
Z5
X-21.21 Y-33.121
Z-0.065
Z-0.382
X-21.217 Y-33.119 Z-0.453
X-21.24 Y-33.111 Z-0.52
X-21.276 Y-33.1 Z-0.58
X-21.323 Y-33.084 Z-0.631
X-21.381 Y-33.065 Z-0.669
X-21.445 Y-33.045 Z-0.692
X-21.512 Y-33.023 Z-0.7
G3 X-22.296 Y-32.973 I-0.49 J-1.505
G1 X-22.325 Y-32.979
X-22.471 Y-32.994
X-22.617 Y-33
X-22.908 Y-33.001
X-23.054 Y-33
X-23.346 Y-32.995
X-23.491 Y-32.986
X-23.637 Y-32.964
X-23.783 Y-32.922
X-23.856 Y-32.9
X-23.929 Y-32.869
X-24.22 Y-32.713
X-24.366 Y-32.632
X-24.658 Y-32.463
X-24.804 Y-32.371
X-24.949 Y-32.264
X-25.025 Y-32.196
X-25.095 Y-32.126
X-25.162 Y-32.05
X-25.241 Y-31.931
X-25.435 Y-31.613
X-25.533 Y-31.448
X-25.605 Y-31.322
X-25.685 Y-31.176
X-25.754 Y-31.031
X-25.773 Y-30.98
G3 X-26.372 Y-31.018 I-0.293 J-0.123
G1 X-26.391 Y-31.086 Z-0.692
X-26.409 Y-31.151 Z-0.669
X-26.425 Y-31.209 Z-0.631
X-26.438 Y-31.257 Z-0.58
X-26.448 Y-31.294 Z-0.52
X-26.454 Y-31.317 Z-0.453
X-26.457 Y-31.324 Z-0.382
Z5
X-15.911 Y-5.168
Z-0.065
Z-0.382
X-15.908 Y-5.175 Z-0.453
X-15.901 Y-5.197 Z-0.52
X-15.888 Y-5.233 Z-0.58
X-15.872 Y-5.281 Z-0.631
X-15.852 Y-5.337 Z-0.669
X-15.83 Y-5.401 Z-0.692
X-15.807 Y-5.468 Z-0.7
G3 X-15.375 Y-6.123 I1.496 J0.516
G1 X-15.327 Y-6.164
X-15.22 Y-6.269
X-14.955 Y-6.56
X-14.598 Y-6.968
X-14.466 Y-7.104
X-14.346 Y-7.209
X-14.19 Y-7.326
X-14.002 Y-7.443
X-13.766 Y-7.566
X-13.463 Y-7.694
X-13.067 Y-7.825
X-12.523 Y-7.957
X-11.889 Y-8.058
X-11.25 Y-8.12
X-10.609 Y-8.159
X-10.291 Y-8.202
X-9.989 Y-8.311
X-9.44 Y-8.645
X-9.034 Y-9.142
X-8.753 Y-9.72
X-8.565 Y-10.334
X-8.441 Y-10.964
X-8.361 Y-11.601
X-8.31 Y-12.241
X-8.278 Y-12.883
X-8.257 Y-13.524
X-8.244 Y-14.167
X-8.236 Y-14.809
X-8.231 Y-15.451
X-8.228 Y-16.093
X-8.225 Y-17.377
X-8.223 Y-19.946
X-8.222 Y-33.432
X-8.265 Y-33.75
X-8.378 Y-34.051
X-8.721 Y-34.594
X-9.225 Y-34.992
X-9.806 Y-35.266
X-10.421 Y-35.449
X-11.052 Y-35.568
X-11.69 Y-35.645
X-12.33 Y-35.694
X-12.972 Y-35.725
X-13.155 Y-35.733
X-13.35 Y-35.768
X-13.529 Y-35.854
X-13.679 Y-35.985
X-14.827 Y-37.294
G3 X-14.513 Y-37.805 I0.246 J-0.201
G1 X-14.444 Y-37.789 Z-0.692
X-14.378 Y-37.775 Z-0.669
X-14.32 Y-37.762 Z-0.631
X-14.27 Y-37.751 Z-0.58
X-14.234 Y-37.743 Z-0.52
X-14.211 Y-37.738 Z-0.453
X-14.203 Y-37.736 Z-0.382
Z5
X-14.986 Y-5.943
Z-0.065
Z-0.382
X-14.985 Y-5.951 Z-0.453
X-14.98 Y-5.974 Z-0.52
X-14.974 Y-6.011 Z-0.58
X-14.964 Y-6.061 Z-0.631
X-14.953 Y-6.12 Z-0.669
X-14.941 Y-6.186 Z-0.692
X-14.928 Y-6.255 Z-0.7
G3 X-14.598 Y-6.968 I1.556 J0.289
G1 X-13.55 Y-8.162
X-13.45 Y-8.274
X-13.327 Y-8.388
X-13.17 Y-8.512
X-12.99 Y-8.631
X-12.753 Y-8.762
X-12.464 Y-8.894
X-11.86 Y-9.111
X-11.248 Y-9.307
X-10.73 Y-9.686
X-10.337 Y-10.194
X-10.057 Y-10.772
X-9.865 Y-11.385
X-9.736 Y-12.014
X-9.65 Y-12.651
X-9.594 Y-13.29
X-9.558 Y-13.931
X-9.534 Y-14.573
X-9.519 Y-15.215
X-9.51 Y-15.857
X-9.508 Y-16.026
X-9.505 Y-16.089
X-9.496 Y-16.152
X-9.482 Y-16.214
X-9.453 Y-16.319
X-9.349 Y-16.832
X-8.987 Y-18.65
X-8.907 Y-19.087
X-8.892 Y-19.232
X-8.852 Y-19.815
X-8.729 Y-21.709
X-8.713 Y-22
X-8.729 Y-22.291
X-8.872 Y-24.476
X-8.892 Y-24.768
X-8.907 Y-24.913
X-8.987 Y-25.35
X-9.203 Y-26.435
X-9.297 Y-27.071
X-9.379 Y-27.707
X-9.426 Y-28.348
X-9.454 Y-28.989
X-9.47 Y-29.631
X-9.479 Y-30.274
X-9.485 Y-30.916
X-9.488 Y-31.558
X-9.49 Y-32.2
X-9.555 Y-32.514
X-9.685 Y-32.808
X-10.049 Y-33.337
X-10.561 Y-33.724
X-11.145 Y-33.992
X-11.761 Y-34.172
X-12.171 Y-34.252
X-12.356 Y-34.314
X-12.517 Y-34.422
X-12.646 Y-34.568
G3 X-12.267 Y-35.033 I0.27 J-0.167
G1 X-12.201 Y-35.009 Z-0.692
X-12.138 Y-34.986 Z-0.669
X-12.081 Y-34.965 Z-0.631
X-12.034 Y-34.948 Z-0.58
X-11.998 Y-34.935 Z-0.52
X-11.976 Y-34.927 Z-0.453
X-11.969 Y-34.925 Z-0.382
Z5
X-8.627 Y-25.503
Z-0.065
Z-0.382
X-8.632 Y-25.509 Z-0.453
X-8.648 Y-25.527 Z-0.52
X-8.673 Y-25.555 Z-0.58
X-8.707 Y-25.592 Z-0.631
X-8.747 Y-25.637 Z-0.669
X-8.792 Y-25.687 Z-0.692
X-8.839 Y-25.739 Z-0.7
G3 X-9.203 Y-26.435 I1.176 J-1.059
G1 X-9.364 Y-27.244
X-9.453 Y-27.681
X-9.495 Y-27.832
X-9.636 Y-28.263
X-10.279 Y-30.157
X-10.471 Y-30.77
X-10.639 Y-31.39
X-10.991 Y-31.927
X-11.046 Y-31.973
X-11.12 Y-32.044
X-11.184 Y-32.125
X-11.236 Y-32.215
G3 X-10.659 Y-32.479 I0.289 J-0.13
G1 X-9.697 Y-30.411
G3 X-9.858 Y-29.986 I-0.288 J0.134
X-10.279 Y-30.157 I-0.127 J-0.291
G1 X-10.44 Y-30.594
X-10.515 Y-30.752
X-11.587 Y-32.924
X-11.665 Y-33.07
X-11.846 Y-33.361
X-11.937 Y-33.507
X-13.202 Y-35.401
X-13.432 Y-35.692
X-13.55 Y-35.838
X-13.679 Y-35.985
G3 X-13.365 Y-36.496 I0.246 J-0.201
G1 X-13.296 Y-36.48 Z-0.692
X-13.23 Y-36.466 Z-0.669
X-13.171 Y-36.453 Z-0.631
X-13.122 Y-36.442 Z-0.58
X-13.085 Y-36.434 Z-0.52
X-13.063 Y-36.429 Z-0.453
X-13.055 Y-36.427 Z-0.382
Z5
X-13.901 Y-7.124
Z-0.065
Z-0.382
X-13.9 Y-7.132 Z-0.453
X-13.896 Y-7.155 Z-0.52
X-13.891 Y-7.193 Z-0.58
X-13.883 Y-7.242 Z-0.631
X-13.874 Y-7.302 Z-0.669
X-13.865 Y-7.368 Z-0.692
X-13.854 Y-7.438 Z-0.7
G3 X-13.55 Y-8.162 I1.566 J0.231
G1 X-13.431 Y-8.308
X-13.202 Y-8.599
X-12.76 Y-9.262
X-12.376 Y-9.778
X-11.966 Y-10.271
X-11.626 Y-10.816
X-11.367 Y-11.404
X-11.29 Y-11.656
X-11.277 Y-11.693
X-11.263 Y-11.73
X-11.246 Y-11.766
G3 X-10.809 Y-11.892 I0.28 J0.15
X-10.695 Y-11.452 I-0.157 J0.276
G1 X-12.218 Y-8.931
G3 X-12.655 Y-8.824 I-0.272 J-0.164
X-12.76 Y-9.262 I0.166 J-0.271
G1 X-11.937 Y-10.493
X-11.828 Y-10.668
X-11.665 Y-10.93
X-11.587 Y-11.076
X-10.509 Y-13.26
X-10.44 Y-13.406
X-10.279 Y-13.843
X-9.636 Y-15.737
X-9.493 Y-16.174
X-9.482 Y-16.214
G3 X-9.114 Y-16.431 I0.303 J0.094
G1 X-9.065 Y-16.407 Z-0.695
X-9.018 Y-16.384 Z-0.681
X-8.974 Y-16.362 Z-0.658
X-8.945 Y-16.322 Z-0.622
X-8.921 Y-16.288 Z-0.578
X-8.902 Y-16.262 Z-0.527
X-8.889 Y-16.244 Z-0.471
X-8.883 Y-16.235 Z-0.411
X-8.882 Y-16.234 Z-0.383
Z5
X-56.327 Y-41.704
Z-0.365
Z-0.683
X-56.325 Y-41.696 Z-0.753
X-56.32 Y-41.674 Z-0.82
X-56.31 Y-41.637 Z-0.88
X-56.298 Y-41.588 Z-0.931
X-56.283 Y-41.53 Z-0.969
X-56.266 Y-41.465 Z-0.992
X-56.249 Y-41.396 Z-1
G3 X-56 Y-39.668 I-7.852 J2.011
G1 Y-39.518
X-56.128 Y-38.889
X-56.206 Y-38.251
X-56.251 Y-37.611
X-56.279 Y-36.969
X-56.295 Y-36.327
X-56.304 Y-35.685
X-56.31 Y-35.043
X-56.313 Y-34.401
X-56.316 Y-33.116
X-56.317 Y-29.905
X-56.318 Y-7.429
X-56.238 Y-7.118
X-56.06 Y-6.851
X-55.598 Y-6.405
X-55.022 Y-6.12
X-54.404 Y-5.945
X-53.771 Y-5.838
X-53.132 Y-5.775
X-52.491 Y-5.737
X-51.849 Y-5.714
X-51.207 Y-5.701
X-50.565 Y-5.694
X-49.923 Y-5.689
X-49.281 Y-5.686
X-47.996 Y-5.684
X-46.085 Y-5.683
X-45.966 Y-5.673
X-45.85 Y-5.645
X-45.741 Y-5.598
X-45.653 Y-5.552
X-45.507 Y-5.496
X-45.361 Y-5.457
X-45.288 Y-5.439
X-45.252 Y-5.436
X-44.924 Y-5.418
X-44.778 Y-5.413
X-44.34 Y-5.414
X-44.195 Y-5.418
X-44.049 Y-5.435
X-43.903 Y-5.463
X-43.623 Y-5.516
X-42.985 Y-5.586
X-42.344 Y-5.626
X-41.702 Y-5.649
X-41.06 Y-5.663
X-40.418 Y-5.671
X-39.776 Y-5.676
X-39.134 Y-5.679
X-37.849 Y-5.681
X-33.996 Y-5.682
X-18.792
X-18.678 Y-5.674
X-18.566 Y-5.647
X-18.459 Y-5.603
X-18.388 Y-5.568
X-18.328 Y-5.541
X-18.243 Y-5.505
X-18.097 Y-5.463
X-17.951 Y-5.435
X-17.805 Y-5.418
X-17.66 Y-5.414
X-17.222 Y-5.413
X-17.076 Y-5.418
X-16.73 Y-5.437
X-16.712 Y-5.439
X-16.672 Y-5.449
X-16.271 Y-5.523
X-15.633 Y-5.59
X-14.992 Y-5.628
X-14.35 Y-5.651
X-13.708 Y-5.664
X-13.066 Y-5.672
X-12.423 Y-5.676
X-11.781 Y-5.679
X-10.497 Y-5.681
X-7.446 Y-5.682
X-7.29 Y-5.717
X-6.997 Y-5.848
X-6.749 Y-6.053
X-6.339 Y-6.547
X-6.079 Y-7.134
X-5.92 Y-7.756
X-5.823 Y-8.391
X-5.766 Y-9.031
X-5.731 Y-9.672
X-5.711 Y-10.314
X-5.699 Y-10.956
X-5.692 Y-11.598
X-5.688 Y-12.24
X-5.685 Y-13.525
X-5.683 Y-16.093
X-5.682 Y-36.643
X-5.791 Y-36.946
X-5.984 Y-37.203
X-6.463 Y-37.63
X-7.045 Y-37.901
X-7.665 Y-38.069
X-8.299 Y-38.17
X-8.939 Y-38.23
X-9.58 Y-38.266
X-10.222 Y-38.287
X-10.864 Y-38.3
X-11.506 Y-38.307
X-12.148 Y-38.311
X-12.79 Y-38.314
X-14.074 Y-38.316
X-14.717 Y-38.317
X-15.915
X-16.034 Y-38.327
X-16.15 Y-38.355
X-16.259 Y-38.402
X-16.347 Y-38.448
X-16.493 Y-38.504
X-16.639 Y-38.543
X-16.712 Y-38.561
X-16.748 Y-38.564
X-17.076 Y-38.582
X-17.222 Y-38.587
X-17.66 Y-38.586
X-17.805 Y-38.582
X-17.951 Y-38.565
X-18.097 Y-38.538
X-18.377 Y-38.484
X-19.015 Y-38.414
X-19.656 Y-38.374
X-20.298 Y-38.351
X-20.94 Y-38.337
X-21.582 Y-38.329
X-22.224 Y-38.324
X-22.867 Y-38.321
X-24.151 Y-38.319
X-28.004 Y-38.318
X-43.208
X-43.322 Y-38.326
X-43.434 Y-38.353
X-43.541 Y-38.397
X-43.611 Y-38.432
X-43.672 Y-38.459
X-43.757 Y-38.495
X-43.903 Y-38.538
X-44.049 Y-38.565
X-44.195 Y-38.582
X-44.34 Y-38.586
X-44.778 Y-38.587
X-44.924 Y-38.582
X-45.27 Y-38.563
X-45.288 Y-38.561
X-45.328 Y-38.551
X-45.729 Y-38.477
X-46.368 Y-38.41
X-47.009 Y-38.372
X-47.65 Y-38.349
X-48.293 Y-38.336
X-48.935 Y-38.328
X-49.577 Y-38.324
X-50.219 Y-38.321
X-51.503 Y-38.319
X-53.109 Y-38.318
X-53.269 Y-38.307
X-53.577 Y-38.217
X-53.843 Y-38.036
X-54.29 Y-37.575
X-54.581 Y-37.003
X-54.763 Y-36.387
X-54.876 Y-35.755
X-54.944 Y-35.116
X-54.986 Y-34.475
X-55.011 Y-33.834
X-55.025 Y-33.192
X-55.034 Y-32.55
X-55.04 Y-31.907
X-55.043 Y-31.265
X-55.046 Y-29.981
X-55.047 Y-26.77
X-55.048 Y-9.11
X-54.996 Y-8.793
X-54.865 Y-8.5
X-54.485 Y-7.982
X-53.957 Y-7.617
X-53.362 Y-7.374
X-52.74 Y-7.217
X-52.105 Y-7.117
X-51.466 Y-7.054
