(1001)
G90 G94
G17
G21
(When using Fusion 360 for Personal Use, the feedrate of )
(rapid moves is reduced to match the feedrate of cutting )
(moves, which can increase machining time. Unrestricted )
(rapid moves are available with a Fusion 360 Subscription. )

(2D-Kontur1)
T14
S8000 M3
G54
G0 X-35.31 Y-33.195
Z40
G1 Z1.7 F2540
Z-0.505 F508
G18 G2 X-35.115 Z-0.7 I0.195 K0 F1016
G1 X-34.92
G17 G3 X-34.725 Y-33 I0 J0.195
X-39.275 Y-33 I-2.275 J0 F2540
X-34.725 Y-33 I2.275 J0
X-34.92 Y-32.805 I-0.195 J0 F1016
G1 X-35.115
G18 G3 X-35.31 Z-0.505 I0 K0.195
G1 Z30 F2540
Y-33.195
Z1
Z-1.205 F508
G2 X-35.115 Z-1.4 I0.195 K0 F1016
G1 X-34.92
G17 G3 X-34.725 Y-33 I0 J0.195
X-39.275 Y-33 I-2.275 J0 F2540
X-34.725 Y-33 I2.275 J0
X-34.92 Y-32.805 I-0.195 J0 F1016
G1 X-35.115
G18 G3 X-35.31 Z-1.205 I0 K0.195
G1 Z30 F2540
Y-33.195
Z1
Z0.3 F508
Z-1.905
G2 X-35.115 Z-2.1 I0.195 K0 F1016
G1 X-34.92
G17 G3 X-34.725 Y-33 I0 J0.195
X-39.275 Y-33 I-2.275 J0 F2540
X-34.725 Y-33 I2.275 J0
X-34.92 Y-32.805 I-0.195 J0 F1016
G1 X-35.115
G18 G3 X-35.31 Z-1.905 I0 K0.195
G1 Z30 F2540
Y-33.195
Z1
Z-0.4 F508
Z-2.605
G2 X-35.115 Z-2.8 I0.195 K0 F1016
G1 X-34.92
G17 G3 X-34.725 Y-33 I0 J0.195
X-39.275 Y-33 I-2.275 J0 F2540
X-34.725 Y-33 I2.275 J0
X-34.92 Y-32.805 I-0.195 J0 F1016
G1 X-35.115
G18 G3 X-35.31 Z-2.605 I0 K0.195
G1 Z30 F2540
Y-33.195
Z1
Z-1.1 F508
Z-3.305
G2 X-35.115 Z-3.5 I0.195 K0 F1016
G1 X-34.92
G17 G3 X-34.725 Y-33 I0 J0.195
X-39.275 Y-33 I-2.275 J0 F2540
X-34.725 Y-33 I2.275 J0
X-34.92 Y-32.805 I-0.195 J0 F1016
G1 X-35.115
G18 G3 X-35.31 Z-3.305 I0 K0.195
G1 Z30 F2540
Y-33.195
Z1
Z-1.8 F508
Z-4.005
G2 X-35.115 Z-4.2 I0.195 K0 F1016
G1 X-34.92
G17 G3 X-34.725 Y-33 I0 J0.195
X-39.275 Y-33 I-2.275 J0 F2540
X-34.725 Y-33 I2.275 J0
X-34.92 Y-32.805 I-0.195 J0 F1016
G1 X-35.115
G18 G3 X-35.31 Z-4.005 I0 K0.195
G1 Z40 F2540
G17
(When using Fusion 360 for Personal Use, the feedrate of )
(rapid moves is reduced to match the feedrate of cutting )
(moves, which can increase machining time. Unrestricted )
(rapid moves are available with a Fusion 360 Subscription. )

(2D-Kontur2)
G0 X-26.56 Y-112.195
G1 Z40 F2540
Z1.7
Z-0.505 F508
G18 G2 X-26.365 Z-0.7 I0.195 K0 F1016
G1 X-26.17
G17 G3 X-25.975 Y-112 I0 J0.195
G1 Y-53.975 F2540
X-48.025
Y-123.025
X-25.975
Y-112
G3 X-26.17 Y-111.805 I-0.195 J0 F1016
G1 X-26.365
G18 G3 X-26.56 Z-0.505 I0 K0.195
G1 Z30 F2540
Y-112.195
Z1
Z-1.205 F508
G2 X-26.365 Z-1.4 I0.195 K0 F1016
G1 X-26.17
G17 G3 X-25.975 Y-112 I0 J0.195
G1 Y-53.975 F2540
X-48.025
Y-123.025
X-25.975
Y-112
G3 X-26.17 Y-111.805 I-0.195 J0 F1016
G1 X-26.365
G18 G3 X-26.56 Z-1.205 I0 K0.195
G1 Z30 F2540
Y-112.195
Z1
Z0.3 F508
Z-1.905
G2 X-26.365 Z-2.1 I0.195 K0 F1016
G1 X-26.17
G17 G3 X-25.975 Y-112 I0 J0.195
G1 Y-53.975 F2540
X-48.025
Y-123.025
X-25.975
Y-112
G3 X-26.17 Y-111.805 I-0.195 J0 F1016
G1 X-26.365
G18 G3 X-26.56 Z-1.905 I0 K0.195
G1 Z30 F2540
Y-112.195
Z1
Z-0.4 F508
Z-2.605
G2 X-26.365 Z-2.8 I0.195 K0 F1016
G1 X-26.17
G17 G3 X-25.975 Y-112 I0 J0.195
G1 Y-53.975 F2540
X-48.025
Y-123.025
X-25.975
Y-112
G3 X-26.17 Y-111.805 I-0.195 J0 F1016
G1 X-26.365
G18 G3 X-26.56 Z-2.605 I0 K0.195
G1 Z30 F2540
Y-112.195
Z1
Z-1.1 F508
Z-3.305
G2 X-26.365 Z-3.5 I0.195 K0 F1016
G1 X-26.17
G17 G3 X-25.975 Y-112 I0 J0.195
G1 Y-53.975 F2540
X-48.025
Y-123.025
X-25.975
Y-112
G3 X-26.17 Y-111.805 I-0.195 J0 F1016
G1 X-26.365
G18 G3 X-26.56 Z-3.305 I0 K0.195
G1 Z30 F2540
Y-112.195
Z1
Z-1.8 F508
Z-4.005
G2 X-26.365 Z-4.2 I0.195 K0 F1016
G1 X-26.17
G17 G3 X-25.975 Y-112 I0 J0.195
G1 Y-53.975 F2540
X-48.025
Y-123.025
X-25.975
Y-112
G3 X-26.17 Y-111.805 I-0.195 J0 F1016
G1 X-26.365
G18 G3 X-26.56 Z-4.005 I0 K0.195
G1 Z40 F2540
G17
(When using Fusion 360 for Personal Use, the feedrate of )
(rapid moves is reduced to match the feedrate of cutting )
(moves, which can increase machining time. Unrestricted )
(rapid moves are available with a Fusion 360 Subscription. )

(2D-Kontur4)
G0 X-70.56 Y-84.195
G1 Z15 F2540
Z5
Z1.6 F508
Z-0.405
G18 G2 X-70.365 Z-0.6 I0.195 K0 F1016
G1 X-70.17
G17 G3 X-69.975 Y-84 I0 J0.195
X-78.025 Y-84 I-4.025 J0 F2540
X-69.975 Y-84 I4.025 J0
X-70.17 Y-83.805 I-0.195 J0 F1016
G1 X-70.365
G18 G3 X-70.56 Z-0.405 I0 K0.195
G1 Z5 F2540
Y-84.195
Z1 F508
Z-1.005
G2 X-70.365 Z-1.2 I0.195 K0 F1016
G1 X-70.17
G17 G3 X-69.975 Y-84 I0 J0.195
X-78.025 Y-84 I-4.025 J0 F2540
X-69.975 Y-84 I4.025 J0
X-70.17 Y-83.805 I-0.195 J0 F1016
G1 X-70.365
G18 G3 X-70.56 Z-1.005 I0 K0.195
G1 Z5 F2540
Y-84.195
Z0.4 F508
Z-1.605
G2 X-70.365 Z-1.8 I0.195 K0 F1016
G1 X-70.17
G17 G3 X-69.975 Y-84 I0 J0.195
X-78.025 Y-84 I-4.025 J0 F2540
X-69.975 Y-84 I4.025 J0
X-70.17 Y-83.805 I-0.195 J0 F1016
G1 X-70.365
G18 G3 X-70.56 Z-1.605 I0 K0.195
G1 Z5 F2540
Y-84.195
Z-0.2 F508
Z-2.205
G2 X-70.365 Z-2.4 I0.195 K0 F1016
G1 X-70.17
G17 G3 X-69.975 Y-84 I0 J0.195
X-78.025 Y-84 I-4.025 J0 F2540
X-69.975 Y-84 I4.025 J0
X-70.17 Y-83.805 I-0.195 J0 F1016
G1 X-70.365
G18 G3 X-70.56 Z-2.205 I0 K0.195
G1 Z5 F2540
Y-84.195
Z-0.8 F508
Z-2.805
G2 X-70.365 Z-3 I0.195 K0 F1016
G1 X-70.17
G17 G3 X-69.975 Y-84 I0 J0.195
X-78.025 Y-84 I-4.025 J0 F2540
X-69.975 Y-84 I4.025 J0
X-70.17 Y-83.805 I-0.195 J0 F1016
G1 X-70.365
G18 G3 X-70.56 Z-2.805 I0 K0.195
G1 Z5 F2540
Y-84.195
Z-1.4 F508
Z-3.405
G2 X-70.365 Z-3.6 I0.195 K0 F1016
G1 X-70.17
G17 G3 X-69.975 Y-84 I0 J0.195
X-78.025 Y-84 I-4.025 J0 F2540
X-69.975 Y-84 I4.025 J0
X-70.17 Y-83.805 I-0.195 J0 F1016
G1 X-70.365
G18 G3 X-70.56 Z-3.405 I0 K0.195
G1 Z5 F2540
Y-84.195
Z-2 F508
Z-4.005
G2 X-70.365 Z-4.2 I0.195 K0 F1016
G1 X-70.17
G17 G3 X-69.975 Y-84 I0 J0.195
X-78.025 Y-84 I-4.025 J0 F2540
X-69.975 Y-84 I4.025 J0
X-70.17 Y-83.805 I-0.195 J0 F1016
G1 X-70.365
G18 G3 X-70.56 Z-4.005 I0 K0.195
G1 Z5 F2540
X-65.892 Y-75.927
Z1.6 F508
Z-0.405
X-65.888 Y-75.922 Z-0.455 F1016
X-65.874 Y-75.908 Z-0.503
X-65.852 Y-75.886 Z-0.543
X-65.824 Y-75.857 Z-0.574
X-65.792 Y-75.823 Z-0.593
X-65.756 Y-75.787 Z-0.6
X-65.621 Y-75.647
G17 G3 X-65.625 Y-75.371 I-0.14 J0.136
X-82.503 Y-75.497 I-8.375 J-8.629 F2540
X-81.761 Y-76.239 I0.371 J-0.371
G2 X-66.239 Y-76.239 I7.761 J-7.761
G3 X-65.497 Y-75.497 I0.371 J0.371
G1 X-65.515 Y-75.479
X-65.625 Y-75.371
G3 X-65.9 Y-75.375 I-0.136 J-0.14 F1016
G1 X-66.036 Y-75.515
X-66.071 Y-75.551 Z-0.593
X-66.104 Y-75.585 Z-0.574
X-66.132 Y-75.614 Z-0.543
X-66.154 Y-75.636 Z-0.503
X-66.167 Y-75.65 Z-0.455
X-66.172 Y-75.655 Z-0.405
Z5 F2540
X-66.042 Y-75.779
Z1 F508
Z-1.005
X-66.037 Y-75.774 Z-1.055 F1016
X-66.024 Y-75.76 Z-1.103
X-66.003 Y-75.738 Z-1.143
X-65.975 Y-75.708 Z-1.174
X-65.943 Y-75.674 Z-1.193
X-65.909 Y-75.637 Z-1.2
X-65.775 Y-75.494
G3 X-65.785 Y-75.219 I-0.142 J0.133
X-82.503 Y-75.497 I-8.215 J-8.781 F2540
X-81.761 Y-76.239 I0.371 J-0.371
G2 X-66.239 Y-76.239 I7.761 J-7.761
G3 X-65.497 Y-75.497 I0.371 J0.371
G1 X-65.515 Y-75.479
G3 X-65.785 Y-75.219 I-8.485 J-8.521
X-66.06 Y-75.228 I-0.133 J-0.142 F1016
G1 X-66.193 Y-75.37
X-66.228 Y-75.407 Z-1.193
X-66.26 Y-75.442 Z-1.174
X-66.288 Y-75.471 Z-1.143
X-66.309 Y-75.494 Z-1.103
X-66.322 Y-75.508 Z-1.055
X-66.327 Y-75.513 Z-1.005
Z5 F2540
X-66.189 Y-75.639
Z0.4 F508
Z-1.605
X-66.185 Y-75.634 Z-1.655 F1016
X-66.172 Y-75.62 Z-1.702
X-66.151 Y-75.597 Z-1.743
X-66.124 Y-75.567 Z-1.774
X-66.092 Y-75.532 Z-1.793
X-66.058 Y-75.495 Z-1.8
X-65.928 Y-75.35
G3 X-65.942 Y-75.074 I-0.145 J0.131
X-82.503 Y-75.497 I-8.058 J-8.926 F2540
X-81.761 Y-76.239 I0.371 J-0.371
G2 X-66.239 Y-76.239 I7.761 J-7.761
G3 X-65.497 Y-75.497 I0.371 J0.371
G1 X-65.515 Y-75.479
G3 X-65.942 Y-75.074 I-8.485 J-8.521
X-66.217 Y-75.088 I-0.131 J-0.145 F1016
G1 X-66.348 Y-75.233
X-66.382 Y-75.271 Z-1.793
X-66.413 Y-75.306 Z-1.774
X-66.44 Y-75.336 Z-1.743
X-66.461 Y-75.359 Z-1.703
X-66.474 Y-75.373 Z-1.655
X-66.479 Y-75.378 Z-1.605
Z5 F2540
X-66.339 Y-75.502
Z-0.2 F508
Z-2.205
X-66.334 Y-75.497 Z-2.255 F1016
X-66.322 Y-75.482 Z-2.303
X-66.301 Y-75.459 Z-2.343
X-66.275 Y-75.428 Z-2.374
X-66.244 Y-75.393 Z-2.393
X-66.211 Y-75.355 Z-2.4
X-66.083 Y-75.208
G3 X-66.101 Y-74.933 I-0.147 J0.128
X-82.503 Y-75.497 I-7.899 J-9.067 F2540
X-81.761 Y-76.239 I0.371 J-0.371
G2 X-66.239 Y-76.239 I7.761 J-7.761
G3 X-65.497 Y-75.497 I0.371 J0.371
G1 X-65.515 Y-75.479
G3 X-66.101 Y-74.933 I-8.485 J-8.521
X-66.377 Y-74.952 I-0.128 J-0.147 F1016
G1 X-66.505 Y-75.099
X-66.538 Y-75.137 Z-2.393
X-66.569 Y-75.172 Z-2.374
X-66.595 Y-75.203 Z-2.343
X-66.616 Y-75.226 Z-2.302
X-66.628 Y-75.241 Z-2.255
X-66.633 Y-75.246 Z-2.205
Z5 F2540
X-66.491 Y-75.367
Z-0.8 F508
Z-2.805
X-66.486 Y-75.362 Z-2.855 F1016
X-66.474 Y-75.347 Z-2.903
X-66.454 Y-75.324 Z-2.943
X-66.428 Y-75.293 Z-2.974
X-66.398 Y-75.257 Z-2.993
X-66.365 Y-75.218 Z-3
X-66.24 Y-75.069
G3 X-66.264 Y-74.794 I-0.149 J0.125
X-82.503 Y-75.497 I-7.736 J-9.206 F2540
X-81.761 Y-76.239 I0.371 J-0.371
G2 X-66.239 Y-76.239 I7.761 J-7.761
G3 X-65.497 Y-75.497 I0.371 J0.371
G1 X-65.515 Y-75.479
G3 X-66.264 Y-74.794 I-8.485 J-8.521
X-66.538 Y-74.818 I-0.125 J-0.149 F1016
G1 X-66.664 Y-74.967
X-66.696 Y-75.006 Z-2.993
X-66.727 Y-75.042 Z-2.974
X-66.753 Y-75.073 Z-2.943
X-66.772 Y-75.096 Z-2.903
X-66.785 Y-75.111 Z-2.855
X-66.789 Y-75.116 Z-2.805
Z5 F2540
X-66.645 Y-75.235
Z-1.4 F508
Z-3.405
X-66.641 Y-75.23 Z-3.455 F1016
X-66.629 Y-75.215 Z-3.502
X-66.609 Y-75.191 Z-3.543
X-66.584 Y-75.16 Z-3.574
X-66.554 Y-75.123 Z-3.593
X-66.522 Y-75.084 Z-3.6
X-66.4 Y-74.932
G3 X-66.428 Y-74.658 I-0.151 J0.123
X-82.503 Y-75.497 I-7.572 J-9.342 F2540
X-81.761 Y-76.239 I0.371 J-0.371
G2 X-66.239 Y-76.239 I7.761 J-7.761
G3 X-65.497 Y-75.497 I0.371 J0.371
G1 X-65.515 Y-75.479
G3 X-66.428 Y-74.658 I-8.485 J-8.521
X-66.703 Y-74.687 I-0.123 J-0.151 F1016
G1 X-66.825 Y-74.838
X-66.857 Y-74.878 Z-3.593
X-66.887 Y-74.914 Z-3.574
X-66.912 Y-74.945 Z-3.543
X-66.932 Y-74.97 Z-3.502
X-66.944 Y-74.985 Z-3.455
X-66.948 Y-74.99 Z-3.405
Z5 F2540
X-66.802 Y-75.106
Z-2 F508
Z-4.005
X-66.798 Y-75.101 Z-4.055 F1016
X-66.786 Y-75.086 Z-4.102
X-66.767 Y-75.061 Z-4.143
X-66.742 Y-75.029 Z-4.174
X-66.713 Y-74.992 Z-4.193
X-66.682 Y-74.953 Z-4.2
X-66.562 Y-74.799
G3 X-66.595 Y-74.525 I-0.154 J0.12
X-82.503 Y-75.497 I-7.405 J-9.475 F2540
X-81.761 Y-76.239 I0.371 J-0.371
G2 X-66.239 Y-76.239 I7.761 J-7.761
G3 X-65.497 Y-75.497 I0.371 J0.371
G1 X-65.515 Y-75.479
G3 X-66.595 Y-74.525 I-8.485 J-8.521
X-66.869 Y-74.559 I-0.12 J-0.154 F1016
G1 X-66.989 Y-74.712
X-67.02 Y-74.752 Z-4.193
X-67.049 Y-74.789 Z-4.174
X-67.074 Y-74.821 Z-4.143
X-67.093 Y-74.846 Z-4.102
X-67.105 Y-74.861 Z-4.055
X-67.109 Y-74.866 Z-4.005
Z5 F2540
X-62.118 Y-68.613
Z1.6 F508
Z-0.405
X-62.114 Y-68.607 Z-0.455 F1016
X-62.102 Y-68.592 Z-0.502
X-62.084 Y-68.567 Z-0.543
X-62.059 Y-68.535 Z-0.574
X-62.031 Y-68.497 Z-0.593
X-62.001 Y-68.457 Z-0.6
X-61.883 Y-68.302
G3 X-61.921 Y-68.028 I-0.156 J0.118
X-88.16 Y-69.84 I-12.079 J-15.972 F2540
X-87.417 Y-70.583 I0.371 J-0.371
G2 X-60.583 Y-70.583 I13.417 J-13.417
G3 X-59.84 Y-69.84 I0.371 J0.371
X-61.921 Y-68.028 I-14.16 J-14.16
X-62.194 Y-68.066 I-0.118 J-0.156 F1016
G1 X-62.312 Y-68.222
X-62.342 Y-68.262 Z-0.593
X-62.37 Y-68.3 Z-0.574
X-62.395 Y-68.332 Z-0.543
X-62.413 Y-68.357 Z-0.502
X-62.425 Y-68.372 Z-0.455
X-62.429 Y-68.377 Z-0.405
Z5 F2540
X-62.28 Y-68.489
Z1 F508
Z-1.005
X-62.276 Y-68.484 Z-1.055 F1016
X-62.264 Y-68.468 Z-1.103
X-62.246 Y-68.443 Z-1.143
X-62.222 Y-68.411 Z-1.174
X-62.194 Y-68.373 Z-1.193
X-62.164 Y-68.332 Z-1.2
X-62.048 Y-68.176
G3 X-62.089 Y-67.903 I-0.157 J0.116
X-88.16 Y-69.84 I-11.911 J-16.097 F2540
X-87.417 Y-70.583 I0.371 J-0.371
G2 X-60.583 Y-70.583 I13.417 J-13.417
G3 X-59.84 Y-69.84 I0.371 J0.371
X-62.089 Y-67.903 I-14.16 J-14.16
X-62.361 Y-67.944 I-0.116 J-0.157 F1016
G1 X-62.477 Y-68.1
X-62.507 Y-68.141 Z-1.193
X-62.535 Y-68.179 Z-1.174
X-62.559 Y-68.211 Z-1.143
X-62.578 Y-68.236 Z-1.103
X-62.589 Y-68.252 Z-1.055
X-62.593 Y-68.257 Z-1.005
Z5 F2540
X-62.443 Y-68.367
Z0.4 F508
Z-1.605
X-62.439 Y-68.362 Z-1.655 F1016
X-62.428 Y-68.346 Z-1.703
X-62.41 Y-68.321 Z-1.743
X-62.386 Y-68.288 Z-1.774
X-62.358 Y-68.25 Z-1.793
X-62.329 Y-68.209 Z-1.8
X-62.214 Y-68.051
G3 X-62.258 Y-67.779 I-0.158 J0.114
X-88.16 Y-69.84 I-11.742 J-16.221 F2540
X-87.417 Y-70.583 I0.371 J-0.371
G2 X-60.583 Y-70.583 I13.417 J-13.417
G3 X-59.84 Y-69.84 I0.371 J0.371
X-62.258 Y-67.779 I-14.16 J-14.16
X-62.53 Y-67.823 I-0.114 J-0.158 F1016
G1 X-62.645 Y-67.981
X-62.674 Y-68.021 Z-1.793
X-62.702 Y-68.06 Z-1.774
X-62.725 Y-68.092 Z-1.743
X-62.744 Y-68.117 Z-1.703
X-62.755 Y-68.133 Z-1.655
X-62.759 Y-68.138 Z-1.605
Z5 F2540
X-62.607 Y-68.247
Z-0.2 F508
Z-2.205
X-62.603 Y-68.242 Z-2.255 F1016
X-62.592 Y-68.226 Z-2.303
X-62.574 Y-68.2 Z-2.343
X-62.551 Y-68.167 Z-2.374
X-62.524 Y-68.129 Z-2.393
X-62.495 Y-68.088 Z-2.4
X-62.382 Y-67.929
G3 X-62.428 Y-67.657 I-0.159 J0.113
X-88.16 Y-69.84 I-11.572 J-16.343 F2540
X-87.417 Y-70.583 I0.371 J-0.371
G2 X-60.583 Y-70.583 I13.417 J-13.417
G3 X-59.84 Y-69.84 I0.371 J0.371
X-62.428 Y-67.657 I-14.16 J-14.16
X-62.7 Y-67.703 I-0.113 J-0.159 F1016
G1 X-62.813 Y-67.863
X-62.842 Y-67.904 Z-2.393
X-62.869 Y-67.942 Z-2.374
X-62.893 Y-67.975 Z-2.343
X-62.911 Y-68 Z-2.303
X-62.922 Y-68.016 Z-2.255
X-62.926 Y-68.022 Z-2.205
Z5 F2540
X-62.773 Y-68.129
Z-0.8 F508
Z-2.805
X-62.769 Y-68.123 Z-2.855 F1016
X-62.758 Y-68.107 Z-2.903
X-62.74 Y-68.082 Z-2.943
X-62.717 Y-68.048 Z-2.974
X-62.691 Y-68.01 Z-2.993
X-62.662 Y-67.968 Z-3
X-62.551 Y-67.808
G3 X-62.6 Y-67.537 I-0.16 J0.111
X-88.16 Y-69.84 I-11.4 J-16.463 F2540
X-87.417 Y-70.583 I0.371 J-0.371
G2 X-60.583 Y-70.583 I13.417 J-13.417
G3 X-59.84 Y-69.84 I0.371 J0.371
X-62.6 Y-67.537 I-14.16 J-14.16
X-62.872 Y-67.586 I-0.111 J-0.16 F1016
G1 X-62.983 Y-67.746
X-63.011 Y-67.788 Z-2.993
X-63.038 Y-67.826 Z-2.974
X-63.061 Y-67.86 Z-2.943
X-63.079 Y-67.885 Z-2.903
X-63.09 Y-67.901 Z-2.855
X-63.094 Y-67.907 Z-2.805
Z5 F2540
X-62.884 Y-68.051
Z-1.4 F508
Z-3.405
X-62.88 Y-68.045 Z-3.455 F1016
X-62.869 Y-68.029 Z-3.503
X-62.852 Y-68.003 Z-3.543
X-62.829 Y-67.97 Z-3.574
X-62.803 Y-67.931 Z-3.593
X-62.774 Y-67.889 Z-3.6
X-62.664 Y-67.728
G3 X-62.715 Y-67.457 I-0.161 J0.11
X-88.16 Y-69.84 I-11.285 J-16.543 F2540
X-87.417 Y-70.583 I0.371 J-0.371
G2 X-60.583 Y-70.583 I13.417 J-13.417
G3 X-59.84 Y-69.84 I0.371 J0.371
X-62.715 Y-67.457 I-14.16 J-14.16
X-62.986 Y-67.509 I-0.11 J-0.161 F1016
G1 X-63.096 Y-67.67
X-63.125 Y-67.711 Z-3.593
X-63.151 Y-67.75 Z-3.574
X-63.174 Y-67.784 Z-3.543
X-63.191 Y-67.809 Z-3.503
X-63.202 Y-67.825 Z-3.455
X-63.206 Y-67.831 Z-3.405
Z5 F2540
X-63.052 Y-67.935
Z-2 F508
Z-4.005
X-63.048 Y-67.93 Z-4.055 F1016
X-63.037 Y-67.913 Z-4.103
X-63.02 Y-67.888 Z-4.143
X-62.998 Y-67.854 Z-4.174
X-62.971 Y-67.815 Z-4.193
X-62.943 Y-67.773 Z-4.2
X-62.835 Y-67.611
G3 X-62.889 Y-67.34 I-0.162 J0.108
X-88.16 Y-69.84 I-11.111 J-16.66 F2540
X-87.417 Y-70.583 I0.371 J-0.371
G2 X-60.583 Y-70.583 I13.417 J-13.417
G3 X-59.84 Y-69.84 I0.371 J0.371
X-62.889 Y-67.34 I-14.16 J-14.16
X-63.16 Y-67.394 I-0.108 J-0.162 F1016
G1 X-63.268 Y-67.556
X-63.296 Y-67.598 Z-4.193
X-63.322 Y-67.638 Z-4.174
X-63.344 Y-67.671 Z-4.143
X-63.362 Y-67.697 Z-4.103
X-63.372 Y-67.713 Z-4.055
X-63.376 Y-67.719 Z-4.005
Z5 F2540
X-66.013 Y-92.275
Z1.6 F508
Z-0.405
X-66.007 Y-92.278 Z-0.455 F1016
X-65.99 Y-92.288 Z-0.502
X-65.963 Y-92.302 Z-0.543
X-65.927 Y-92.321 Z-0.574
X-65.886 Y-92.344 Z-0.593
X-65.841 Y-92.367 Z-0.6
X-65.67 Y-92.46
G3 X-65.406 Y-92.38 I0.092 J0.172
X-66.239 Y-91.761 I-0.463 J0.248 F2540
G2 X-81.761 Y-91.761 I-7.761 J7.761
G3 X-82.503 Y-92.503 I-0.371 J-0.371
X-65.497 Y-92.503 I8.503 J8.503
G1 X-65.447 Y-92.445
X-65.406 Y-92.38
G3 X-65.485 Y-92.116 I-0.172 J0.092 F1016
G1 X-65.657 Y-92.024
X-65.702 Y-92 Z-0.593
X-65.743 Y-91.978 Z-0.574
X-65.779 Y-91.959 Z-0.543
X-65.806 Y-91.944 Z-0.503
X-65.823 Y-91.935 Z-0.455
X-65.829 Y-91.932 Z-0.405
Z5 F2540
X-66.013 Y-92.275
Z1 F508
Z-1.005
X-66.007 Y-92.278 Z-1.055 F1016
X-65.99 Y-92.288 Z-1.102
X-65.963 Y-92.302 Z-1.143
X-65.927 Y-92.321 Z-1.174
X-65.886 Y-92.344 Z-1.193
X-65.841 Y-92.367 Z-1.2
X-65.67 Y-92.46
G3 X-65.406 Y-92.38 I0.092 J0.172
X-66.239 Y-91.761 I-0.463 J0.248 F2540
G2 X-81.761 Y-91.761 I-7.761 J7.761
G3 X-82.503 Y-92.503 I-0.371 J-0.371
X-65.497 Y-92.503 I8.503 J8.503
G1 X-65.447 Y-92.445
X-65.406 Y-92.38
G3 X-65.485 Y-92.116 I-0.172 J0.092 F1016
G1 X-65.657 Y-92.024
X-65.702 Y-92 Z-1.193
X-65.743 Y-91.978 Z-1.174
X-65.779 Y-91.959 Z-1.143
X-65.806 Y-91.944 Z-1.103
X-65.823 Y-91.935 Z-1.055
X-65.829 Y-91.932 Z-1.005
Z5 F2540
X-66.013 Y-92.275
Z0.4 F508
Z-1.605
X-66.007 Y-92.278 Z-1.655 F1016
X-65.99 Y-92.288 Z-1.702
X-65.963 Y-92.302 Z-1.743
X-65.927 Y-92.321 Z-1.774
X-65.886 Y-92.344 Z-1.793
X-65.841 Y-92.367 Z-1.8
X-65.67 Y-92.46
G3 X-65.406 Y-92.38 I0.092 J0.172
X-66.239 Y-91.761 I-0.463 J0.248 F2540
G2 X-81.761 Y-91.761 I-7.761 J7.761
G3 X-82.503 Y-92.503 I-0.371 J-0.371
X-65.497 Y-92.503 I8.503 J8.503
G1 X-65.447 Y-92.445
X-65.406 Y-92.38
G3 X-65.485 Y-92.116 I-0.172 J0.092 F1016
G1 X-65.657 Y-92.024
X-65.702 Y-92 Z-1.793
X-65.743 Y-91.978 Z-1.774
X-65.779 Y-91.959 Z-1.743
X-65.806 Y-91.944 Z-1.703
X-65.823 Y-91.935 Z-1.655
X-65.829 Y-91.932 Z-1.605
Z5 F2540
X-66.013 Y-92.275
Z-0.2 F508
Z-2.205
X-66.007 Y-92.278 Z-2.255 F1016
X-65.99 Y-92.288 Z-2.302
X-65.963 Y-92.302 Z-2.343
X-65.927 Y-92.321 Z-2.374
X-65.886 Y-92.344 Z-2.393
X-65.841 Y-92.367 Z-2.4
X-65.67 Y-92.46
G3 X-65.406 Y-92.38 I0.092 J0.172
X-66.239 Y-91.761 I-0.463 J0.248 F2540
G2 X-81.761 Y-91.761 I-7.761 J7.761
G3 X-82.503 Y-92.503 I-0.371 J-0.371
X-65.497 Y-92.503 I8.503 J8.503
G1 X-65.447 Y-92.445
X-65.406 Y-92.38
G3 X-65.485 Y-92.116 I-0.172 J0.092 F1016
G1 X-65.657 Y-92.024
X-65.702 Y-92 Z-2.393
X-65.743 Y-91.978 Z-2.374
X-65.779 Y-91.959 Z-2.343
X-65.806 Y-91.944 Z-2.303
X-65.823 Y-91.935 Z-2.255
X-65.829 Y-91.932 Z-2.205
Z5 F2540
X-66.013 Y-92.275
Z-0.8 F508
Z-2.805
X-66.007 Y-92.278 Z-2.855 F1016
X-65.99 Y-92.288 Z-2.902
X-65.963 Y-92.302 Z-2.943
X-65.927 Y-92.321 Z-2.974
X-65.886 Y-92.344 Z-2.993
X-65.841 Y-92.367 Z-3
X-65.67 Y-92.46
G3 X-65.406 Y-92.38 I0.092 J0.172
X-66.239 Y-91.761 I-0.463 J0.248 F2540
G2 X-81.761 Y-91.761 I-7.761 J7.761
G3 X-82.503 Y-92.503 I-0.371 J-0.371
X-65.497 Y-92.503 I8.503 J8.503
G1 X-65.447 Y-92.445
X-65.406 Y-92.38
G3 X-65.485 Y-92.116 I-0.172 J0.092 F1016
G1 X-65.657 Y-92.024
X-65.702 Y-92 Z-2.993
X-65.743 Y-91.978 Z-2.974
X-65.779 Y-91.959 Z-2.943
X-65.806 Y-91.944 Z-2.903
X-65.823 Y-91.935 Z-2.855
X-65.829 Y-91.932 Z-2.805
Z5 F2540
X-66.013 Y-92.275
Z-1.4 F508
Z-3.405
X-66.007 Y-92.278 Z-3.455 F1016
X-65.99 Y-92.288 Z-3.502
X-65.963 Y-92.302 Z-3.543
X-65.927 Y-92.321 Z-3.574
X-65.886 Y-92.344 Z-3.593
X-65.841 Y-92.367 Z-3.6
X-65.67 Y-92.46
G3 X-65.406 Y-92.38 I0.092 J0.172
X-66.239 Y-91.761 I-0.463 J0.248 F2540
G2 X-81.761 Y-91.761 I-7.761 J7.761
G3 X-82.503 Y-92.503 I-0.371 J-0.371
X-65.497 Y-92.503 I8.503 J8.503
G1 X-65.447 Y-92.445
X-65.406 Y-92.38
G3 X-65.485 Y-92.116 I-0.172 J0.092 F1016
G1 X-65.657 Y-92.024
X-65.702 Y-92 Z-3.593
X-65.743 Y-91.978 Z-3.574
X-65.779 Y-91.959 Z-3.543
X-65.806 Y-91.944 Z-3.503
X-65.823 Y-91.935 Z-3.455
X-65.829 Y-91.932 Z-3.405
Z5 F2540
X-66.013 Y-92.275
Z-2 F508
Z-4.005
X-66.007 Y-92.278 Z-4.055 F1016
X-65.99 Y-92.288 Z-4.102
X-65.963 Y-92.302 Z-4.143
X-65.927 Y-92.321 Z-4.174
X-65.886 Y-92.344 Z-4.193
X-65.841 Y-92.367 Z-4.2
X-65.67 Y-92.46
G3 X-65.406 Y-92.38 I0.092 J0.172
X-66.239 Y-91.761 I-0.463 J0.248 F2540
G2 X-81.761 Y-91.761 I-7.761 J7.761
G3 X-82.503 Y-92.503 I-0.371 J-0.371
X-65.497 Y-92.503 I8.503 J8.503
G1 X-65.447 Y-92.445
X-65.406 Y-92.38
G3 X-65.485 Y-92.116 I-0.172 J0.092 F1016
G1 X-65.657 Y-92.024
X-65.702 Y-92 Z-4.193
X-65.743 Y-91.978 Z-4.174
X-65.779 Y-91.959 Z-4.143
X-65.806 Y-91.944 Z-4.103
X-65.823 Y-91.935 Z-4.055
X-65.829 Y-91.932 Z-4.005
Z5 F2540
X-60.056 Y-97.718
Z1.6 F508
Z-0.405
X-60.06 Y-97.713 Z-0.455 F1016
X-60.074 Y-97.7 Z-0.502
X-60.096 Y-97.678 Z-0.543
X-60.124 Y-97.649 Z-0.574
X-60.158 Y-97.616 Z-0.593
X-60.193 Y-97.58 Z-0.6
X-60.331 Y-97.442
G3 X-60.607 Y-97.441 I-0.138 J-0.138
G2 X-87.417 Y-97.417 I-13.393 J13.441 F2540
G3 X-88.16 Y-98.16 I-0.371 J-0.371
X-59.84 Y-98.16 I14.16 J14.16
X-60.583 Y-97.417 I-0.371 J0.371
G1 X-60.607 Y-97.441
G3 X-60.607 Y-97.717 I0.138 J-0.138 F1016
G1 X-60.469 Y-97.855
X-60.433 Y-97.891 Z-0.593
X-60.4 Y-97.924 Z-0.574
X-60.372 Y-97.953 Z-0.543
X-60.35 Y-97.975 Z-0.503
X-60.336 Y-97.988 Z-0.455
X-60.331 Y-97.993 Z-0.405
Z5 F2540
X-60.562 Y-98.049
Z1 F508
Z-1.005
X-60.558 Y-98.054 Z-1.055 F1016
X-60.544 Y-98.068 Z-1.103
X-60.523 Y-98.09 Z-1.143
X-60.494 Y-98.119 Z-1.174
X-60.461 Y-98.153 Z-1.193
X-60.426 Y-98.189 Z-1.2
X-60.29 Y-98.328
G3 X-60.014 Y-98.332 I0.14 J0.136
G1 X-59.84 Y-98.16 F2540
G3 X-60.583 Y-97.417 I-0.371 J0.371
G1 X-60.607 Y-97.441
G2 X-87.417 Y-97.417 I-13.393 J13.441
G3 X-88.16 Y-98.16 I-0.371 J-0.371
X-60.014 Y-98.332 I14.16 J14.16
X-60.011 Y-98.056 I-0.136 J0.14 F1016
G1 X-60.147 Y-97.916
X-60.182 Y-97.88 Z-1.193
X-60.215 Y-97.847 Z-1.174
X-60.243 Y-97.818 Z-1.143
X-60.265 Y-97.796 Z-1.102
X-60.279 Y-97.782 Z-1.055
X-60.283 Y-97.777 Z-1.005
Z5 F2540
X-60.056 Y-97.718
Z0.4 F508
Z-1.605
X-60.06 Y-97.713 Z-1.655 F1016
X-60.074 Y-97.7 Z-1.702
X-60.096 Y-97.678 Z-1.743
X-60.124 Y-97.649 Z-1.774
X-60.158 Y-97.616 Z-1.793
X-60.193 Y-97.58 Z-1.8
X-60.331 Y-97.442
G3 X-60.607 Y-97.441 I-0.138 J-0.138
G2 X-87.417 Y-97.417 I-13.393 J13.441 F2540
G3 X-88.16 Y-98.16 I-0.371 J-0.371
X-59.84 Y-98.16 I14.16 J14.16
X-60.583 Y-97.417 I-0.371 J0.371
G1 X-60.607 Y-97.441
G3 X-60.607 Y-97.717 I0.138 J-0.138 F1016
G1 X-60.469 Y-97.855
X-60.433 Y-97.891 Z-1.793
X-60.4 Y-97.924 Z-1.774
X-60.372 Y-97.953 Z-1.743
X-60.35 Y-97.975 Z-1.703
X-60.336 Y-97.988 Z-1.655
X-60.331 Y-97.993 Z-1.605
Z5 F2540
X-60.562 Y-98.049
Z-0.2 F508
Z-2.205
X-60.558 Y-98.054 Z-2.255 F1016
X-60.544 Y-98.068 Z-2.303
X-60.523 Y-98.09 Z-2.343
X-60.494 Y-98.119 Z-2.374
X-60.461 Y-98.153 Z-2.393
X-60.426 Y-98.189 Z-2.4
X-60.29 Y-98.328
G3 X-60.014 Y-98.332 I0.14 J0.136
G1 X-59.84 Y-98.16 F2540
G3 X-60.583 Y-97.417 I-0.371 J0.371
G1 X-60.607 Y-97.441
G2 X-87.417 Y-97.417 I-13.393 J13.441
G3 X-88.16 Y-98.16 I-0.371 J-0.371
X-60.014 Y-98.332 I14.16 J14.16
X-60.011 Y-98.056 I-0.136 J0.14 F1016
G1 X-60.147 Y-97.916
X-60.182 Y-97.88 Z-2.393
X-60.215 Y-97.847 Z-2.374
X-60.243 Y-97.818 Z-2.343
X-60.265 Y-97.796 Z-2.302
X-60.279 Y-97.782 Z-2.255
X-60.283 Y-97.777 Z-2.205
Z5 F2540
X-60.056 Y-97.718
Z-0.8 F508
Z-2.805
X-60.06 Y-97.713 Z-2.855 F1016
X-60.074 Y-97.7 Z-2.902
X-60.096 Y-97.678 Z-2.943
X-60.124 Y-97.649 Z-2.974
X-60.158 Y-97.616 Z-2.993
X-60.193 Y-97.58 Z-3
X-60.331 Y-97.442
G3 X-60.607 Y-97.441 I-0.138 J-0.138
G2 X-87.417 Y-97.417 I-13.393 J13.441 F2540
G3 X-88.16 Y-98.16 I-0.371 J-0.371
X-59.84 Y-98.16 I14.16 J14.16
X-60.583 Y-97.417 I-0.371 J0.371
G1 X-60.607 Y-97.441
G3 X-60.607 Y-97.717 I0.138 J-0.138 F1016
G1 X-60.469 Y-97.855
X-60.433 Y-97.891 Z-2.993
X-60.4 Y-97.924 Z-2.974
X-60.372 Y-97.953 Z-2.943
X-60.35 Y-97.975 Z-2.903
X-60.336 Y-97.988 Z-2.855
X-60.331 Y-97.993 Z-2.805
Z5 F2540
X-60.562 Y-98.049
Z-1.4 F508
Z-3.405
X-60.558 Y-98.054 Z-3.455 F1016
X-60.544 Y-98.068 Z-3.503
X-60.523 Y-98.09 Z-3.543
X-60.494 Y-98.119 Z-3.574
X-60.461 Y-98.153 Z-3.593
X-60.426 Y-98.189 Z-3.6
X-60.29 Y-98.328
G3 X-60.014 Y-98.332 I0.14 J0.136
G1 X-59.84 Y-98.16 F2540
G3 X-60.583 Y-97.417 I-0.371 J0.371
G1 X-60.607 Y-97.441
G2 X-87.417 Y-97.417 I-13.393 J13.441
G3 X-88.16 Y-98.16 I-0.371 J-0.371
X-60.014 Y-98.332 I14.16 J14.16
X-60.011 Y-98.056 I-0.136 J0.14 F1016
G1 X-60.147 Y-97.916
X-60.182 Y-97.88 Z-3.593
X-60.215 Y-97.847 Z-3.574
X-60.243 Y-97.818 Z-3.543
X-60.265 Y-97.796 Z-3.502
X-60.279 Y-97.782 Z-3.455
X-60.283 Y-97.777 Z-3.405
Z5 F2540
X-60.056 Y-97.718
Z-2 F508
Z-4.005
X-60.06 Y-97.713 Z-4.055 F1016
X-60.074 Y-97.7 Z-4.102
X-60.096 Y-97.678 Z-4.143
X-60.124 Y-97.649 Z-4.174
X-60.158 Y-97.616 Z-4.193
X-60.193 Y-97.58 Z-4.2
X-60.331 Y-97.442
G3 X-60.607 Y-97.441 I-0.138 J-0.138
G2 X-87.417 Y-97.417 I-13.393 J13.441 F2540
G3 X-88.16 Y-98.16 I-0.371 J-0.371
X-59.84 Y-98.16 I14.16 J14.16
X-60.583 Y-97.417 I-0.371 J0.371
G1 X-60.607 Y-97.441
G3 X-60.607 Y-97.717 I0.138 J-0.138 F1016
G1 X-60.469 Y-97.855
X-60.433 Y-97.891 Z-4.193
X-60.4 Y-97.924 Z-4.174
X-60.372 Y-97.953 Z-4.143
X-60.35 Y-97.975 Z-4.103
X-60.336 Y-97.988 Z-4.055
X-60.331 Y-97.993 Z-4.005
Z15 F2540
(When using Fusion 360 for Personal Use, the feedrate of )
(rapid moves is reduced to match the feedrate of cutting )
(moves, which can increase machining time. Unrestricted )
(rapid moves are available with a Fusion 360 Subscription. )

(2D Adaptive3)
G0 X-81.493 Y-74.838
G1 Z15 F2540
Z5
Z1.695
Z1.5 F1016
Z-0.5
G3 X-80.327 Y-75.006 I1.357 J5.297
G1 X-79.882 F2540
X-79.773 Y-75.027
X-79.623 Y-75.039
X-79.473 Y-75.035
X-79.293 Y-75.015
X-79.059 Y-74.969
X-78.63 Y-74.85
X-78.211 Y-74.7
X-77.789 Y-74.56
X-77.365 Y-74.425
X-76.94 Y-74.292
X-76.515 Y-74.162
X-76.08 Y-74.068
X-75.641 Y-73.997
X-75.2 Y-73.939
X-74.758 Y-73.888
X-74.314 Y-73.859
X-73.869 Y-73.863
X-73.425 Y-73.886
X-72.981 Y-73.918
X-72.538 Y-73.956
X-72.1 Y-74.035
X-71.667 Y-74.138
X-71.237 Y-74.253
X-70.809 Y-74.374
X-70.388 Y-74.519
X-69.979 Y-74.694
X-69.578 Y-74.886
X-69.18 Y-75.085
X-68.786 Y-75.292
X-68.413 Y-75.534
X-68.052 Y-75.795
X-67.699 Y-76.066
X-67.351 Y-76.342
X-66.995 Y-76.609
X-66.901 Y-76.669
X-66.752 Y-76.753
X-66.551 Y-76.845
X-66.41 Y-76.897
X-66.264 Y-76.93
X-66.115 Y-76.947
X-65.965 Y-76.951
X-65.815 Y-76.939
X-65.669 Y-76.904
X-65.528 Y-76.854
X-65.392 Y-76.79
X-65.27 Y-76.702
X-65.16 Y-76.601
X-65.06 Y-76.489
X-64.984 Y-76.359
X-64.926 Y-76.221
X-64.881 Y-76.078
X-64.867 Y-75.929
X-64.872 Y-75.779
X-64.893 Y-75.63
X-64.936 Y-75.487
X-64.996 Y-75.349
X-65.081 Y-75.19
X-65.21 Y-74.99
X-65.412 Y-74.725
X-65.71 Y-74.395
X-66.029 Y-74.085
X-66.196 Y-73.938
X-66.544 Y-73.661
X-66.911 Y-73.409
X-67.287 Y-73.171
X-67.668 Y-72.94
X-68.05 Y-72.713
X-68.447 Y-72.511
X-68.854 Y-72.333
X-69.267 Y-72.167
X-69.682 Y-72.007
X-70.099 Y-71.851
X-70.525 Y-71.721
X-70.957 Y-71.617
X-71.392 Y-71.525
X-71.829 Y-71.44
X-72.266 Y-71.358
X-72.708 Y-71.305
X-73.152 Y-71.276
X-73.597 Y-71.262
X-74.042 Y-71.254
X-74.487 Y-71.249
X-74.931 Y-71.273
X-75.373 Y-71.322
X-75.814 Y-71.385
X-76.253 Y-71.454
X-76.692 Y-71.527
X-77.125 Y-71.628
X-77.552 Y-71.753
X-77.975 Y-71.891
X-78.396 Y-72.036
X-78.816 Y-72.184
X-79.225 Y-72.358
X-79.624 Y-72.555
X-80.016 Y-72.765
X-80.406 Y-72.98
X-80.793 Y-73.199
X-81.166 Y-73.441
X-81.525 Y-73.705
X-81.875 Y-73.979
X-82.221 Y-74.259
X-82.393 Y-74.4
X-82.578 Y-74.562
X-82.791 Y-74.782
X-82.887 Y-74.897
X-82.969 Y-75.023
X-83.054 Y-75.182
X-83.114 Y-75.319
X-83.157 Y-75.463
X-83.181 Y-75.611
X-83.191 Y-75.761
X-83.185 Y-75.911
X-83.155 Y-76.057
X-83.108 Y-76.2
X-83.046 Y-76.337
X-82.961 Y-76.46
X-82.86 Y-76.571
X-82.749 Y-76.672
X-82.62 Y-76.749
X-82.482 Y-76.808
X-82.339 Y-76.853
X-82.19 Y-76.867
X-82.04 Y-76.862
X-81.891 Y-76.842
X-81.746 Y-76.806
X-81.566 Y-76.746
X-81.334 Y-76.647
X-81.015 Y-76.48
X-80.639 Y-76.242
X-80.236 Y-76.053
X-79.806 Y-75.937
X-79.372 Y-75.839
X-78.941 Y-75.732
X-78.514 Y-75.606
X-78.089 Y-75.473
X-77.241 Y-75.205
X-76.816 Y-75.072
X-76.386 Y-74.959
X-75.951 Y-74.866
X-75.512 Y-74.79
X-75.072 Y-74.728
X-74.629 Y-74.688
X-74.184 Y-74.673
X-73.739 Y-74.677
X-73.295 Y-74.696
X-72.852 Y-74.737
X-72.412 Y-74.805
X-71.976 Y-74.894
X-71.544 Y-74.998
X-71.117 Y-75.124
X-70.698 Y-75.274
X-70.287 Y-75.444
X-69.882 Y-75.629
X-69.486 Y-75.832
X-69.103 Y-76.058
X-68.732 Y-76.303
X-68.37 Y-76.562
X-68.012 Y-76.826
X-67.649 Y-77.084
X-67.365 Y-77.254
X-67.137 Y-77.368
X-66.921 Y-77.454
X-66.713 Y-77.519
X-66.517 Y-77.563
X-66.337 Y-77.588
X-66.162 Y-77.599
X-65.991 Y-77.595
X-65.821 Y-77.578
X-65.671 Y-77.55
X-65.526 Y-77.512
X-65.379 Y-77.459
X-65.236 Y-77.395
X-65.104 Y-77.322
X-64.98 Y-77.239
X-64.863 Y-77.145
X-64.754 Y-77.041
X-64.655 Y-76.929
X-64.565 Y-76.808
X-64.488 Y-76.68
X-64.422 Y-76.546
X-64.368 Y-76.405
X-64.327 Y-76.261
X-64.299 Y-76.114
X-64.284 Y-75.964
X-64.283 Y-75.814
X-64.294 Y-75.657
X-64.319 Y-75.497
X-64.362 Y-75.319
X-64.426 Y-75.122
X-64.513 Y-74.913
X-64.641 Y-74.664
X-64.804 Y-74.401
X-65.038 Y-74.085
X-65.318 Y-73.763
X-65.636 Y-73.452
X-65.976 Y-73.165
X-66.332 Y-72.898
X-66.7 Y-72.647
X-67.074 Y-72.407
X-67.456 Y-72.179
X-67.847 Y-71.967
X-68.248 Y-71.773
X-68.655 Y-71.593
X-69.066 Y-71.423
X-69.481 Y-71.263
X-69.902 Y-71.118
X-70.328 Y-70.992
X-70.76 Y-70.883
X-71.194 Y-70.784
X-71.629 Y-70.694
X-72.068 Y-70.62
X-72.509 Y-70.566
X-72.953 Y-70.528
X-73.397 Y-70.504
X-73.842 Y-70.488
X-74.287 Y-70.487
X-74.731 Y-70.503
X-75.175 Y-70.538
X-75.617 Y-70.587
X-76.058 Y-70.647
X-76.497 Y-70.717
X-76.934 Y-70.804
X-77.366 Y-70.911
X-77.793 Y-71.032
X-78.218 Y-71.165
X-78.64 Y-71.306
X-79.057 Y-71.462
X-79.466 Y-71.637
X-79.868 Y-71.828
X-80.264 Y-72.03
X-80.657 Y-72.24
X-81.042 Y-72.462
X-81.418 Y-72.701
X-81.783 Y-72.954
X-82.141 Y-73.219
X-82.492 Y-73.491
X-82.833 Y-73.778
X-83.059 Y-73.995
X-83.244 Y-74.204
X-83.392 Y-74.401
X-83.508 Y-74.584
X-83.601 Y-74.762
X-83.678 Y-74.943
X-83.737 Y-75.119
X-83.776 Y-75.278
X-83.803 Y-75.442
X-83.817 Y-75.607
Y-75.768
X-83.805 Y-75.92
X-83.781 Y-76.069
X-83.745 Y-76.214
X-83.697 Y-76.356
X-83.636 Y-76.497
X-83.566 Y-76.629
X-83.484 Y-76.755
X-83.391 Y-76.873
X-83.288 Y-76.982
X-83.175 Y-77.081
X-83.055 Y-77.171
X-82.927 Y-77.249
X-82.792 Y-77.314
X-82.652 Y-77.367
X-82.507 Y-77.407
X-82.36 Y-77.435
X-82.203 Y-77.451
X-82.039 Y-77.455
X-81.848 Y-77.444
X-81.648 Y-77.417
X-81.413 Y-77.365
X-81.153 Y-77.285
X-80.74 Y-77.121
X-80.328 Y-76.953
X-79.906 Y-76.812
X-79.478 Y-76.689
X-79.05 Y-76.569
X-78.623 Y-76.446
X-78.197 Y-76.317
X-77.771 Y-76.186
X-77.347 Y-76.054
X-76.921 Y-75.925
X-76.491 Y-75.808
X-76.058 Y-75.707
X-75.622 Y-75.621
X-75.182 Y-75.554
X-74.739 Y-75.508
X-74.295 Y-75.484
X-73.85 Y-75.48
X-73.406 Y-75.499
X-72.963 Y-75.543
X-72.523 Y-75.61
X-72.087 Y-75.698
X-71.656 Y-75.809
X-71.232 Y-75.944
X-70.815 Y-76.1
X-70.407 Y-76.276
X-70.008 Y-76.473
X-69.621 Y-76.693
X-69.245 Y-76.931
X-68.877 Y-77.181
X-68.511 Y-77.435
X-68.138 Y-77.677
X-67.775 Y-77.88
X-67.466 Y-78.021
X-67.18 Y-78.125
X-66.906 Y-78.2
X-66.643 Y-78.25
X-66.393 Y-78.277
X-66.157 Y-78.284
X-65.929 Y-78.272
X-65.706 Y-78.242
X-65.492 Y-78.195
X-65.288 Y-78.134
X-65.094 Y-78.057
X-64.911 Y-77.968
X-64.737 Y-77.865
X-64.573 Y-77.749
X-64.422 Y-77.623
X-64.284 Y-77.487
X-64.158 Y-77.342
X-64.045 Y-77.188
X-63.945 Y-77.026
X-63.859 Y-76.859
X-63.787 Y-76.685
X-63.729 Y-76.505
X-63.685 Y-76.317
X-63.655 Y-76.122
X-63.64 Y-75.917
X-63.642 Y-75.699
X-63.662 Y-75.472
X-63.702 Y-75.241
X-63.765 Y-74.991
X-63.858 Y-74.721
X-63.987 Y-74.424
X-64.144 Y-74.131
X-64.352 Y-73.806
X-64.614 Y-73.463
X-64.912 Y-73.132
X-65.232 Y-72.824
X-65.572 Y-72.536
X-65.925 Y-72.266
X-66.289 Y-72.01
X-66.662 Y-71.767
X-67.044 Y-71.539
X-67.435 Y-71.327
X-67.833 Y-71.129
X-68.238 Y-70.943
X-68.647 Y-70.768
X-69.061 Y-70.605
X-69.48 Y-70.457
X-69.905 Y-70.324
X-70.334 Y-70.205
X-70.765 Y-70.097
X-71.2 Y-70.001
X-71.637 Y-69.919
X-72.077 Y-69.853
X-72.519 Y-69.801
X-72.962 Y-69.764
X-73.406 Y-69.738
X-73.851 Y-69.724
X-74.296 Y-69.725
X-74.741 Y-69.742
X-75.184 Y-69.774
X-75.627 Y-69.819
X-76.068 Y-69.875
X-76.508 Y-69.945
X-76.945 Y-70.03
X-77.378 Y-70.13
X-77.808 Y-70.243
X-78.235 Y-70.368
X-78.659 Y-70.505
X-79.077 Y-70.655
X-79.491 Y-70.821
X-79.898 Y-71
X-80.299 Y-71.191
X-80.696 Y-71.393
X-81.087 Y-71.606
X-81.47 Y-71.832
X-81.845 Y-72.072
X-82.211 Y-72.324
X-82.571 Y-72.585
X-82.922 Y-72.859
X-83.26 Y-73.148
X-83.545 Y-73.433
X-83.772 Y-73.699
X-83.95 Y-73.947
X-84.1 Y-74.193
X-84.22 Y-74.433
X-84.316 Y-74.671
X-84.39 Y-74.905
X-84.442 Y-75.134
X-84.474 Y-75.357
X-84.488 Y-75.576
X-84.484 Y-75.79
X-84.463 Y-76.001
X-84.426 Y-76.207
X-84.374 Y-76.404
X-84.307 Y-76.593
X-84.227 Y-76.774
X-84.133 Y-76.945
X-84.026 Y-77.109
X-83.909 Y-77.259
X-83.783 Y-77.398
X-83.646 Y-77.525
X-83.5 Y-77.641
X-83.344 Y-77.745
X-83.178 Y-77.838
X-83.002 Y-77.918
X-82.816 Y-77.986
X-82.616 Y-78.041
X-82.405 Y-78.081
X-82.187 Y-78.104
X-81.951 Y-78.11
X-81.693 Y-78.097
X-81.398 Y-78.057
X-80.977 Y-77.965
X-80.552 Y-77.836
X-80.127 Y-77.702
X-79.702 Y-77.573
X-78.847 Y-77.323
X-78.421 Y-77.197
X-77.995 Y-77.068
X-77.57 Y-76.938
X-77.144 Y-76.809
X-76.716 Y-76.687
X-76.285 Y-76.577
X-75.851 Y-76.48
X-75.413 Y-76.401
X-74.972 Y-76.342
X-74.528 Y-76.305
X-74.084 Y-76.29
X-73.639 Y-76.3
X-73.195 Y-76.335
X-72.754 Y-76.395
X-72.318 Y-76.48
X-71.887 Y-76.591
X-71.463 Y-76.726
X-71.047 Y-76.884
X-70.641 Y-77.067
X-70.247 Y-77.272
X-69.863 Y-77.497
X-69.486 Y-77.734
X-69.113 Y-77.976
X-68.735 Y-78.21
X-68.347 Y-78.429
X-67.947 Y-78.623
X-67.588 Y-78.762
X-67.244 Y-78.864
X-66.913 Y-78.935
X-66.594 Y-78.976
X-66.285 Y-78.992
X-65.986 Y-78.982
X-65.698 Y-78.95
X-65.423 Y-78.897
X-65.16 Y-78.823
X-64.908 Y-78.73
X-64.669 Y-78.62
X-64.442 Y-78.492
X-64.229 Y-78.348
X-64.031 Y-78.19
X-63.847 Y-78.017
X-63.679 Y-77.832
X-63.528 Y-77.635
X-63.394 Y-77.428
X-63.277 Y-77.211
X-63.176 Y-76.983
X-63.094 Y-76.746
X-63.03 Y-76.498
X-62.984 Y-76.24
X-62.959 Y-75.973
X-62.956 Y-75.698
X-62.975 Y-75.417
X-63.019 Y-75.121
X-63.092 Y-74.805
X-63.197 Y-74.477
X-63.339 Y-74.13
X-63.522 Y-73.769
X-63.738 Y-73.415
X-64 Y-73.056
X-64.289 Y-72.717
X-64.6 Y-72.399
X-64.929 Y-72.1
X-65.273 Y-71.817
X-65.629 Y-71.55
X-65.994 Y-71.297
X-66.37 Y-71.058
X-66.754 Y-70.833
X-67.145 Y-70.622
X-67.543 Y-70.423
X-67.947 Y-70.237
X-68.356 Y-70.062
X-68.77 Y-69.899
X-69.19 Y-69.75
X-69.614 Y-69.615
X-70.041 Y-69.492
X-70.472 Y-69.381
X-70.906 Y-69.282
X-71.343 Y-69.197
X-71.782 Y-69.125
X-72.223 Y-69.067
X-72.665 Y-69.022
X-73.109 Y-68.989
X-73.553 Y-68.968
X-73.998 Y-68.961
X-74.443 Y-68.967
X-74.888 Y-68.988
X-75.331 Y-69.021
X-75.774 Y-69.067
X-76.215 Y-69.125
X-76.654 Y-69.196
X-77.091 Y-69.281
X-77.525 Y-69.38
X-77.956 Y-69.491
X-78.383 Y-69.614
X-78.807 Y-69.749
X-79.227 Y-69.897
X-79.641 Y-70.059
X-80.051 Y-70.233
X-80.455 Y-70.418
X-80.854 Y-70.615
X-81.247 Y-70.823
X-81.634 Y-71.043
X-82.014 Y-71.275
X-82.386 Y-71.518
X-82.752 Y-71.772
X-83.109 Y-72.037
X-83.455 Y-72.316
X-83.786 Y-72.614
X-84.09 Y-72.929
X-84.346 Y-73.242
X-84.561 Y-73.551
X-84.738 Y-73.856
X-84.88 Y-74.152
X-84.992 Y-74.444
X-85.077 Y-74.734
X-85.136 Y-75.021
X-85.172 Y-75.305
X-85.184 Y-75.585
X-85.174 Y-75.86
X-85.143 Y-76.128
X-85.091 Y-76.388
X-85.02 Y-76.639
X-84.929 Y-76.882
X-84.821 Y-77.112
X-84.697 Y-77.331
X-84.557 Y-77.537
X-84.402 Y-77.729
X-84.233 Y-77.907
X-84.05 Y-78.07
X-83.855 Y-78.219
X-83.647 Y-78.353
X-83.425 Y-78.471
X-83.19 Y-78.573
X-82.943 Y-78.658
X-82.682 Y-78.724
X-82.405 Y-78.772
X-82.106 Y-78.798
X-81.776 Y-78.801
X-81.419 Y-78.775
X-80.98 Y-78.708
X-80.546 Y-78.609
X-80.116 Y-78.495
X-79.687 Y-78.375
X-79.259 Y-78.253
X-78.832 Y-78.129
X-78.405 Y-78.003
X-77.553 Y-77.747
X-77.126 Y-77.621
X-76.698 Y-77.5
X-76.267 Y-77.389
X-75.833 Y-77.292
X-75.396 Y-77.212
X-74.955 Y-77.152
X-74.511 Y-77.115
X-74.066 Y-77.104
X-73.622 Y-77.118
X-73.179 Y-77.159
X-72.739 Y-77.228
X-72.305 Y-77.325
X-71.878 Y-77.449
X-71.459 Y-77.599
X-71.051 Y-77.777
X-70.654 Y-77.978
X-70.266 Y-78.196
X-69.885 Y-78.425
X-69.504 Y-78.655
X-69.119 Y-78.879
X-68.727 Y-79.089
X-68.324 Y-79.277
X-67.909 Y-79.438
X-67.504 Y-79.56
X-67.109 Y-79.645
X-66.723 Y-79.696
X-66.349 Y-79.716
X-65.986 Y-79.705
X-65.636 Y-79.667
X-65.299 Y-79.602
X-64.975 Y-79.513
X-64.666 Y-79.4
X-64.371 Y-79.264
X-64.092 Y-79.108
X-63.829 Y-78.932
X-63.584 Y-78.737
X-63.358 Y-78.525
X-63.15 Y-78.298
X-62.963 Y-78.055
X-62.796 Y-77.799
X-62.649 Y-77.529
X-62.524 Y-77.247
X-62.421 Y-76.952
X-62.341 Y-76.647
X-62.284 Y-76.33
X-62.253 Y-76.005
X-62.248 Y-75.668
X-62.271 Y-75.317
X-62.324 Y-74.953
X-62.411 Y-74.573
X-62.536 Y-74.178
X-62.699 Y-73.776
X-62.899 Y-73.379
X-63.13 Y-72.998
X-63.389 Y-72.637
X-63.672 Y-72.293
X-63.975 Y-71.968
X-64.296 Y-71.66
X-64.632 Y-71.368
X-64.98 Y-71.091
X-65.339 Y-70.828
X-65.708 Y-70.579
X-66.085 Y-70.343
X-66.471 Y-70.121
X-66.863 Y-69.911
X-67.261 Y-69.713
X-67.665 Y-69.527
X-68.075 Y-69.352
X-68.489 Y-69.189
X-68.908 Y-69.04
X-69.331 Y-68.903
X-69.758 Y-68.777
X-70.188 Y-68.664
X-70.621 Y-68.562
X-71.057 Y-68.473
X-71.496 Y-68.397
X-71.936 Y-68.334
X-72.378 Y-68.282
X-72.821 Y-68.243
X-73.265 Y-68.215
X-73.71 Y-68.201
X-74.155 Y-68.199
X-74.599 Y-68.21
X-75.044 Y-68.233
X-75.487 Y-68.268
X-75.93 Y-68.316
X-76.371 Y-68.376
X-76.809 Y-68.448
X-77.246 Y-68.534
X-77.68 Y-68.631
X-78.111 Y-68.741
X-78.539 Y-68.862
X-78.964 Y-68.996
X-79.384 Y-69.142
X-79.8 Y-69.3
X-80.211 Y-69.47
X-80.618 Y-69.651
X-81.019 Y-69.843
X-81.415 Y-70.046
X-81.805 Y-70.26
X-82.188 Y-70.485
X-82.565 Y-70.722
X-82.936 Y-70.969
X-83.298 Y-71.227
X-83.651 Y-71.497
X-83.993 Y-71.782
X-84.319 Y-72.085
X-84.625 Y-72.408
X-84.907 Y-72.752
X-85.151 Y-73.103
X-85.356 Y-73.455
X-85.526 Y-73.808
X-85.662 Y-74.162
X-85.766 Y-74.514
X-85.839 Y-74.864
X-85.883 Y-75.21
X-85.899 Y-75.551
X-85.887 Y-75.886
X-85.849 Y-76.214
X-85.786 Y-76.533
X-85.699 Y-76.841
X-85.589 Y-77.138
X-85.457 Y-77.421
X-85.304 Y-77.69
X-85.132 Y-77.944
X-84.94 Y-78.182
X-84.731 Y-78.403
X-84.505 Y-78.607
X-84.262 Y-78.793
X-84.003 Y-78.959
X-83.729 Y-79.106
X-83.439 Y-79.233
X-83.134 Y-79.338
X-82.809 Y-79.421
X-82.463 Y-79.48
X-82.091 Y-79.514
X-81.673 Y-79.518
X-81.229 Y-79.487
X-80.789 Y-79.422
X-80.353 Y-79.333
X-79.92 Y-79.23
X-79.489 Y-79.118
X-79.06 Y-79
X-78.632 Y-78.878
X-78.205 Y-78.754
X-77.352 Y-78.502
X-76.924 Y-78.379
X-76.495 Y-78.263
X-76.063 Y-78.157
X-75.627 Y-78.067
X-75.188 Y-77.995
X-74.746 Y-77.946
X-74.301 Y-77.921
X-73.856 Y-77.924
X-73.413 Y-77.956
X-72.972 Y-78.02
X-72.537 Y-78.114
X-72.11 Y-78.238
X-71.693 Y-78.393
X-71.286 Y-78.573
X-70.89 Y-78.774
X-70.5 Y-78.989
X-70.113 Y-79.209
X-69.725 Y-79.427
X-69.333 Y-79.637
X-68.933 Y-79.832
X-68.524 Y-80.008
X-68.106 Y-80.159
X-67.678 Y-80.282
X-67.243 Y-80.374
X-66.804 Y-80.431
X-66.373 Y-80.452
X-65.951 Y-80.438
X-65.541 Y-80.392
X-65.145 Y-80.315
X-64.762 Y-80.208
X-64.396 Y-80.073
X-64.046 Y-79.912
X-63.715 Y-79.725
X-63.403 Y-79.514
X-63.112 Y-79.282
X-62.843 Y-79.028
X-62.596 Y-78.756
X-62.373 Y-78.465
X-62.173 Y-78.158
X-61.999 Y-77.834
X-61.85 Y-77.496
X-61.727 Y-77.143
X-61.633 Y-76.778
X-61.567 Y-76.401
X-61.53 Y-76.011
X-61.525 Y-75.607
X-61.553 Y-75.189
X-61.618 Y-74.757
X-61.719 Y-74.323
X-61.853 Y-73.899
X-62.019 Y-73.486
X-62.215 Y-73.087
X-62.439 Y-72.703
X-62.689 Y-72.334
X-62.96 Y-71.982
X-63.252 Y-71.646
X-63.56 Y-71.325
X-63.884 Y-71.02
X-64.221 Y-70.73
X-64.57 Y-70.453
X-64.929 Y-70.19
X-65.297 Y-69.94
X-65.673 Y-69.703
X-66.057 Y-69.479
X-66.448 Y-69.267
X-66.845 Y-69.066
X-67.248 Y-68.876
X-67.656 Y-68.699
X-68.069 Y-68.533
X-68.486 Y-68.378
X-68.907 Y-68.236
X-69.333 Y-68.104
X-69.761 Y-67.985
X-70.193 Y-67.877
X-70.627 Y-67.78
X-71.064 Y-67.696
X-71.503 Y-67.623
X-71.944 Y-67.562
X-72.386 Y-67.513
X-72.829 Y-67.475
X-73.273 Y-67.45
X-73.718 Y-67.436
X-74.163 Y-67.434
X-74.608 Y-67.444
X-75.052 Y-67.466
X-75.496 Y-67.5
X-75.938 Y-67.546
X-76.379 Y-67.604
X-76.819 Y-67.674
X-77.256 Y-67.755
X-77.691 Y-67.849
X-78.124 Y-67.954
X-78.553 Y-68.07
X-78.979 Y-68.198
X-79.401 Y-68.338
X-79.82 Y-68.489
X-80.234 Y-68.651
X-80.644 Y-68.824
X-81.049 Y-69.008
X-81.449 Y-69.203
X-81.844 Y-69.408
X-82.233 Y-69.624
X-82.616 Y-69.851
X-82.993 Y-70.087
X-83.363 Y-70.335
X-83.725 Y-70.593
X-83.818 Y-70.654
X-83.942 Y-70.739
X-84.063 Y-70.826
X-84.184 Y-70.916
X-84.302 Y-71.008
X-84.418 Y-71.103
X-84.532 Y-71.2
X-84.645 Y-71.299
X-84.755 Y-71.401
X-84.863 Y-71.505
X-84.969 Y-71.612
X-85.072 Y-71.72
X-85.173 Y-71.831
X-85.272 Y-71.944
X-85.368 Y-72.059
X-85.462 Y-72.176
X-85.552 Y-72.296
X-85.64 Y-72.417
X-85.725 Y-72.541
X-85.807 Y-72.667
X-85.886 Y-72.795
X-85.961 Y-72.924
X-86.033 Y-73.056
X-86.102 Y-73.189
X-86.167 Y-73.324
X-86.228 Y-73.461
X-86.286 Y-73.6
X-86.34 Y-73.74
X-86.39 Y-73.881
X-86.437 Y-74.024
X-86.479 Y-74.167
X-86.518 Y-74.312
X-86.552 Y-74.458
X-86.582 Y-74.605
X-86.608 Y-74.753
X-86.629 Y-74.902
X-86.646 Y-75.051
X-86.659 Y-75.2
X-86.668 Y-75.35
X-86.672 Y-75.5
X-86.671 Y-75.65
X-86.666 Y-75.8
X-86.657 Y-75.949
X-86.643 Y-76.099
X-86.624 Y-76.248
X-86.601 Y-76.396
X-86.573 Y-76.543
X-86.541 Y-76.69
X-86.504 Y-76.835
X-86.462 Y-76.979
X-86.416 Y-77.122
X-86.366 Y-77.263
X-86.311 Y-77.403
X-86.251 Y-77.54
X-86.188 Y-77.676
X-86.119 Y-77.81
X-86.047 Y-77.941
X-85.971 Y-78.07
X-85.89 Y-78.197
X-85.805 Y-78.32
X-85.716 Y-78.441
X-85.623 Y-78.559
X-85.527 Y-78.674
X-85.427 Y-78.786
X-85.323 Y-78.894
X-85.216 Y-78.999
X-85.105 Y-79.1
X-84.991 Y-79.198
X-84.874 Y-79.291
X-84.754 Y-79.381
X-84.631 Y-79.467
X-84.505 Y-79.549
X-84.377 Y-79.627
X-84.247 Y-79.701
X-84.114 Y-79.77
X-83.979 Y-79.836
X-83.841 Y-79.896
X-83.703 Y-79.953
X-83.562 Y-80.005
X-83.42 Y-80.053
X-83.276 Y-80.096
X-83.131 Y-80.135
X-82.985 Y-80.17
X-82.839 Y-80.201
X-82.691 Y-80.227
X-82.542 Y-80.249
X-82.394 Y-80.267
X-82.244 Y-80.281
X-82.094 Y-80.29
X-81.945 Y-80.297
X-81.795 Y-80.299
X-81.645 Y-80.297
X-81.495 Y-80.293
X-81.345 Y-80.284
X-81.195 Y-80.272
X-81.046 Y-80.258
X-80.897 Y-80.24
X-80.749 Y-80.22
X-80.6 Y-80.197
X-80.452 Y-80.172
X-80.305 Y-80.146
X-80.157 Y-80.117
X-80.011 Y-80.087
X-79.864 Y-80.055
X-79.718 Y-80.022
X-79.572 Y-79.988
X-79.401 Y-79.947
X-79.217 Y-79.901
X-79.004 Y-79.847
X-78.753 Y-79.781
X-78.437 Y-79.694
X-78.009 Y-79.574
X-77.474 Y-79.421
X-77.047 Y-79.299
X-76.617 Y-79.182
X-76.186 Y-79.074
X-75.751 Y-78.978
X-75.313 Y-78.899
X-74.872 Y-78.843
X-74.428 Y-78.811
X-73.983
X-73.54 Y-78.843
X-73.1 Y-78.909
X-72.666 Y-79.01
X-72.242 Y-79.144
X-71.828 Y-79.307
X-71.424 Y-79.493
X-71.027 Y-79.695
X-70.243 Y-80.114
X-69.847 Y-80.318
X-69.647 Y-80.415
X-69.511 Y-80.479
X-69.374 Y-80.54
X-69.237 Y-80.6
X-69.098 Y-80.658
X-68.959 Y-80.714
X-68.819 Y-80.767
X-68.678 Y-80.819
X-68.536 Y-80.868
X-68.394 Y-80.914
X-68.25 Y-80.958
X-68.106 Y-80.999
X-67.961 Y-81.036
X-67.815 Y-81.071
X-67.668 Y-81.104
X-67.521 Y-81.132
X-67.373 Y-81.157
X-67.225 Y-81.18
X-67.076 Y-81.198
X-66.927 Y-81.213
X-66.777 Y-81.225
X-66.628 Y-81.234
X-66.478 Y-81.238
X-66.328 Y-81.239
X-66.178 Y-81.237
X-66.028 Y-81.231
X-65.878 Y-81.221
X-65.729 Y-81.208
X-65.58 Y-81.19
X-65.431 Y-81.169
X-65.283 Y-81.144
X-65.136 Y-81.115
X-64.99 Y-81.083
X-64.844 Y-81.047
X-64.699 Y-81.007
X-64.556 Y-80.963
X-64.414 Y-80.916
X-64.273 Y-80.865
X-64.133 Y-80.809
X-63.995 Y-80.751
X-63.859 Y-80.689
X-63.724 Y-80.623
X-63.591 Y-80.553
X-63.46 Y-80.48
X-63.331 Y-80.403
X-63.204 Y-80.323
X-63.08 Y-80.24
X-62.958 Y-80.153
X-62.838 Y-80.062
X-62.721 Y-79.969
X-62.606 Y-79.872
X-62.494 Y-79.772
X-62.385 Y-79.669
X-62.279 Y-79.563
X-62.176 Y-79.454
X-62.076 Y-79.342
X-61.978 Y-79.228
X-61.885 Y-79.111
X-61.795 Y-78.991
X-61.707 Y-78.869
X-61.624 Y-78.744
X-61.544 Y-78.617
X-61.467 Y-78.489
X-61.395 Y-78.357
X-61.326 Y-78.224
X-61.26 Y-78.089
X-61.198 Y-77.953
X-61.141 Y-77.814
X-61.086 Y-77.674
X-61.037 Y-77.533
X-60.99 Y-77.39
X-60.948 Y-77.246
X-60.91 Y-77.101
X-60.876 Y-76.955
X-60.845 Y-76.808
X-60.819 Y-76.66
X-60.797 Y-76.512
X-60.778 Y-76.363
X-60.763 Y-76.214
X-60.753 Y-76.064
X-60.746 Y-75.915
X-60.743 Y-75.765
X-60.744 Y-75.615
X-60.749 Y-75.465
X-60.757 Y-75.315
X-60.77 Y-75.165
X-60.786 Y-75.016
X-60.805 Y-74.868
X-60.828 Y-74.719
X-60.855 Y-74.572
X-60.885 Y-74.425
X-60.919 Y-74.279
X-60.956 Y-74.133
X-60.996 Y-73.989
X-61.04 Y-73.845
X-61.087 Y-73.703
X-61.137 Y-73.562
X-61.191 Y-73.421
X-61.247 Y-73.283
X-61.307 Y-73.145
X-61.37 Y-73.009
X-61.435 Y-72.874
X-61.504 Y-72.74
X-61.575 Y-72.608
X-61.649 Y-72.478
X-61.726 Y-72.349
X-61.805 Y-72.221
X-61.886 Y-72.096
X-61.97 Y-71.971
X-62.057 Y-71.849
X-62.145 Y-71.728
X-62.236 Y-71.608
X-62.329 Y-71.491
X-62.424 Y-71.375
X-62.521 Y-71.26
X-62.62 Y-71.147
X-62.721 Y-71.036
X-62.823 Y-70.927
X-62.928 Y-70.819
X-63.034 Y-70.713
X-63.141 Y-70.608
X-63.25 Y-70.505
X-63.36 Y-70.403
X-63.472 Y-70.303
X-63.585 Y-70.205
X-63.699 Y-70.108
X-63.815 Y-70.012
X-63.932 Y-69.918
X-64.05 Y-69.825
X-64.169 Y-69.734
X-64.289 Y-69.645
X-64.411 Y-69.557
X-64.533 Y-69.47
X-64.657 Y-69.384
X-64.781 Y-69.301
X-64.906 Y-69.218
X-65.032 Y-69.137
X-65.159 Y-69.057
X-65.287 Y-68.979
X-65.416 Y-68.902
X-65.545 Y-68.826
X-65.676 Y-68.751
X-65.806 Y-68.678
X-65.938 Y-68.606
X-66.071 Y-68.536
X-66.204 Y-68.466
X-66.337 Y-68.398
X-66.472 Y-68.332
X-66.606 Y-68.266
X-66.742 Y-68.202
X-66.878 Y-68.139
X-67.015 Y-68.077
X-67.152 Y-68.017
X-67.29 Y-67.958
X-67.428 Y-67.9
X-67.567 Y-67.843
X-67.707 Y-67.788
X-67.847 Y-67.734
X-67.987 Y-67.681
X-68.128 Y-67.63
X-68.269 Y-67.579
X-68.411 Y-67.53
X-68.553 Y-67.483
X-68.696 Y-67.436
X-68.839 Y-67.391
X-68.982 Y-67.347
X-69.126 Y-67.304
X-69.27 Y-67.262
X-69.415 Y-67.222
X-69.56 Y-67.183
X-69.705 Y-67.145
X-69.85 Y-67.109
X-69.996 Y-67.074
X-70.142 Y-67.04
X-70.289 Y-67.007
X-70.436 Y-66.976
X-70.583 Y-66.946
X-70.73 Y-66.917
X-70.878 Y-66.889
X-71.026 Y-66.863
X-71.174 Y-66.838
X-71.322 Y-66.815
X-71.47 Y-66.792
X-71.619 Y-66.771
X-71.767 Y-66.751
X-71.916 Y-66.733
X-72.065 Y-66.715
X-72.214 Y-66.699
X-72.364 Y-66.684
X-72.513 Y-66.671
X-72.663 Y-66.659
X-72.812 Y-66.648
X-72.962 Y-66.638
X-73.112 Y-66.63
X-73.262 Y-66.623
X-73.411 Y-66.617
X-73.561 Y-66.612
X-73.711 Y-66.609
X-73.861 Y-66.607
X-74.011
X-74.161
X-74.311 Y-66.609
X-74.461 Y-66.613
X-74.613 Y-66.617
X-74.763 Y-66.623
X-74.913 Y-66.63
X-75.065 Y-66.639
X-75.215 Y-66.648
X-75.364 Y-66.66
X-75.514 Y-66.672
X-75.663 Y-66.685
X-75.813 Y-66.7
X-75.962 Y-66.717
X-76.111 Y-66.734
X-76.259 Y-66.753
X-76.408 Y-66.773
X-76.557 Y-66.794
X-76.705 Y-66.817
X-76.853 Y-66.841
X-77.001 Y-66.866
X-77.148 Y-66.893
X-77.296 Y-66.921
X-77.443 Y-66.95
X-77.59 Y-66.98
X-77.737 Y-67.012
X-77.883 Y-67.044
X-78.029 Y-67.078
X-78.175 Y-67.114
X-78.32 Y-67.151
X-78.465 Y-67.188
X-78.61 Y-67.228
X-78.755 Y-67.268
X-78.9 Y-67.31
X-79.043 Y-67.353
X-79.187 Y-67.397
X-79.33 Y-67.442
X-79.472 Y-67.489
X-79.614 Y-67.537
X-79.756 Y-67.586
X-79.897 Y-67.636
X-80.038 Y-67.688
X-80.178 Y-67.741
X-80.318 Y-67.795
X-80.458 Y-67.85
X-80.597 Y-67.906
X-80.735 Y-67.964
X-80.873 Y-68.023
X-81.011 Y-68.083
X-81.148 Y-68.144
X-81.284 Y-68.206
X-81.42 Y-68.269
X-81.556 Y-68.334
X-81.691 Y-68.4
X-81.825 Y-68.467
X-81.958 Y-68.535
X-82.092 Y-68.604
X-82.224 Y-68.674
X-82.356 Y-68.746
X-82.487 Y-68.818
X-82.619 Y-68.893
X-82.749 Y-68.968
X-82.878 Y-69.044
X-83.007 Y-69.121
X-83.135 Y-69.199
X-83.262 Y-69.279
X-83.388 Y-69.36
X-83.664 Y-69.539
X-83.799 Y-69.628
X-83.923 Y-69.711
X-84.047 Y-69.796
X-84.17 Y-69.882
X-84.292 Y-69.969
X-84.413 Y-70.058
X-84.532 Y-70.148
X-84.651 Y-70.241
X-84.768 Y-70.334
X-84.883 Y-70.43
X-84.997 Y-70.528
X-85.11 Y-70.627
X-85.22 Y-70.729
X-85.329 Y-70.832
X-85.436 Y-70.937
X-85.541 Y-71.044
X-85.644 Y-71.153
X-85.745 Y-71.264
X-85.843 Y-71.377
X-85.94 Y-71.492
X-86.034 Y-71.609
X-86.126 Y-71.728
X-86.215 Y-71.848
X-86.302 Y-71.971
X-86.386 Y-72.095
X-86.467 Y-72.221
X-86.546 Y-72.348
X-86.621 Y-72.478
X-86.694 Y-72.609
X-86.764 Y-72.742
X-86.831 Y-72.876
X-86.895 Y-73.012
X-86.956 Y-73.149
X-87.013 Y-73.287
X-87.068 Y-73.427
X-87.119 Y-73.568
X-87.166 Y-73.711
X-87.21 Y-73.854
X-87.251 Y-73.998
X-87.288 Y-74.144
X-87.322 Y-74.29
X-87.352 Y-74.437
X-87.378 Y-74.584
X-87.4 Y-74.733
X-87.419 Y-74.882
X-87.434 Y-75.031
X-87.446 Y-75.18
X-87.453 Y-75.33
X-87.457 Y-75.48
X-87.456 Y-75.63
X-87.452 Y-75.78
X-87.444 Y-75.93
X-87.432 Y-76.079
X-87.416 Y-76.229
X-87.397 Y-76.377
X-87.373 Y-76.525
X-87.345 Y-76.673
X-87.314 Y-76.819
X-87.278 Y-76.965
X-87.239 Y-77.11
X-87.195 Y-77.254
X-87.148 Y-77.396
X-87.097 Y-77.537
X-87.042 Y-77.677
X-86.984 Y-77.815
X-86.921 Y-77.951
X-86.855 Y-78.086
X-86.785 Y-78.218
X-86.712 Y-78.349
X-86.635 Y-78.478
X-86.554 Y-78.604
X-86.47 Y-78.729
X-86.383 Y-78.851
X-86.292 Y-78.97
X-86.198 Y-79.087
X-86.101 Y-79.201
X-86 Y-79.312
X-85.897 Y-79.421
X-85.79 Y-79.527
X-85.681 Y-79.629
X-85.569 Y-79.729
X-85.454 Y-79.825
X-85.336 Y-79.918
X-85.216 Y-80.008
X-85.093 Y-80.095
X-84.969 Y-80.178
X-84.841 Y-80.257
X-84.712 Y-80.333
X-84.581 Y-80.406
X-84.448 Y-80.475
X-84.313 Y-80.54
X-84.176 Y-80.602
X-84.037 Y-80.659
X-83.898 Y-80.714
X-83.756 Y-80.764
X-83.614 Y-80.811
X-83.47 Y-80.854
X-83.325 Y-80.893
X-83.18 Y-80.929
X-83.033 Y-80.961
X-82.886 Y-80.989
X-82.738 Y-81.014
X-82.589 Y-81.035
X-82.44 Y-81.053
X-82.291 Y-81.067
X-82.141 Y-81.077
X-81.992 Y-81.085
X-81.842 Y-81.089
X-81.692 Y-81.09
X-81.542 Y-81.087
X-81.392 Y-81.082
X-81.242 Y-81.074
X-81.092 Y-81.064
X-80.943 Y-81.05
X-80.794 Y-81.035
X-80.645 Y-81.017
X-80.496 Y-80.997
X-80.348 Y-80.975
X-80.2 Y-80.951
X-80.052 Y-80.925
X-79.904 Y-80.898
X-79.757 Y-80.869
X-79.61 Y-80.839
X-79.464 Y-80.807
X-79.317 Y-80.775
X-79.146 Y-80.736
X-78.871 Y-80.67
X-78.65 Y-80.615
X-78.434 Y-80.559
X-78.387 Y-80.537 F1016
X-78.347 Y-80.504
X-78.317 Y-80.461
X-78.299 Y-80.412
X-78.295 Y-80.36
G2 X-78.115 Y-80.154 I0.195 J0.012
G1 X-77.896 Y-80.138
X-69.246 Y-79.503 F2540
G2 X-69.081 Y-79.821 I0.014 J-0.194
G3 X-69.511 Y-80.479 I2.819 J-2.311 F1016
G1 X-69.558 Y-80.579 F2540
X-69.528 Y-80.726
X-69.464 Y-80.862
X-69.38 Y-80.986
X-69.281 Y-81.099
X-69.172 Y-81.202
X-69.054 Y-81.295
X-68.931 Y-81.38
X-68.803 Y-81.458
X-68.671 Y-81.529
X-68.536 Y-81.594
X-68.398 Y-81.654
X-68.258 Y-81.708
X-68.116 Y-81.757
X-67.973 Y-81.801
X-67.828 Y-81.841
X-67.682 Y-81.877
X-67.536 Y-81.908
X-67.388 Y-81.936
X-67.24 Y-81.96
X-67.092 Y-81.98
X-66.943 Y-81.997
X-66.793 Y-82.01
X-66.643 Y-82.019
X-66.494 Y-82.025
X-66.344 Y-82.028
X-66.194 Y-82.027
X-66.044 Y-82.022
X-65.894 Y-82.014
X-65.744 Y-82.003
X-65.595 Y-81.988
X-65.446 Y-81.97
X-65.298 Y-81.949
X-65.15 Y-81.924
X-65.002 Y-81.896
X-64.856 Y-81.864
X-64.71 Y-81.829
X-64.565 Y-81.791
X-64.421 Y-81.749
X-64.278 Y-81.705
X-64.136 Y-81.656
X-63.995 Y-81.605
X-63.855 Y-81.55
X-63.717 Y-81.492
X-63.58 Y-81.43
X-63.444 Y-81.366
X-63.311 Y-81.298
X-63.178 Y-81.228
X-63.048 Y-81.154
X-62.919 Y-81.077
X-62.792 Y-80.997
X-62.667 Y-80.913
X-62.545 Y-80.827
X-62.424 Y-80.738
X-62.305 Y-80.647
X-62.189 Y-80.552
X-62.075 Y-80.455
X-61.963 Y-80.354
X-61.854 Y-80.252
X-61.747 Y-80.146
X-61.643 Y-80.038
X-61.542 Y-79.928
X-61.443 Y-79.815
X-61.347 Y-79.7
X-61.254 Y-79.582
X-61.163 Y-79.462
X-61.076 Y-79.34
X-60.992 Y-79.216
X-60.91 Y-79.09
X-60.832 Y-78.962
X-60.757 Y-78.832
X-60.685 Y-78.701
X-60.616 Y-78.567
X-60.551 Y-78.432
X-60.489 Y-78.296
X-60.43 Y-78.158
X-60.375 Y-78.018
X-60.322 Y-77.878
X-60.274 Y-77.736
X-60.228 Y-77.593
X-60.187 Y-77.449
X-60.148 Y-77.304
X-60.113 Y-77.158
X-60.081 Y-77.011
X-60.053 Y-76.864
X-60.029 Y-76.716
X-60.007 Y-76.568
X-59.99 Y-76.419
X-59.975 Y-76.269
X-59.964 Y-76.12
X-59.957 Y-75.97
X-59.953 Y-75.82
X-59.952 Y-75.67
X-59.955 Y-75.52
X-59.961 Y-75.37
X-59.97 Y-75.22
X-59.982 Y-75.071
X-59.998 Y-74.922
X-60.017 Y-74.773
X-60.039 Y-74.625
X-60.065 Y-74.477
X-60.093 Y-74.33
X-60.125 Y-74.183
X-60.16 Y-74.037
X-60.197 Y-73.892
X-60.238 Y-73.747
X-60.282 Y-73.604
X-60.328 Y-73.461
X-60.378 Y-73.32
X-60.43 Y-73.179
X-60.485 Y-73.04
X-60.543 Y-72.901
X-60.603 Y-72.764
X-60.667 Y-72.628
X-60.732 Y-72.493
X-60.801 Y-72.36
X-60.871 Y-72.227
X-60.926 Y-72.13
G3 X-61.259 Y-72.333 I-0.167 J-0.101 F1016
X-61.12 Y-72.425 I0.167 J0.101
G1 X-61.07 Y-72.432 Z-0.493
X-61.023 Y-72.438 Z-0.474
X-60.983 Y-72.444 Z-0.443
X-60.952 Y-72.448 Z-0.402
X-60.933 Y-72.451 Z-0.355
X-60.927 Y-72.452 Z-0.305
Z5 F2540
X-85.534 Y-72.552
Z-0.11
Z-0.305 F1016
X-85.538 Y-72.547 Z-0.355
X-85.55 Y-72.532 Z-0.402
X-85.57 Y-72.508 Z-0.443
X-85.595 Y-72.476 Z-0.474
X-85.625 Y-72.44 Z-0.493
X-85.657 Y-72.401 Z-0.5
G3 X-86.215 Y-71.848 I-2.829 J-2.3
G1 X-86.304 Y-71.782 F2540
X-86.454 Y-71.784
X-86.599 Y-71.823
X-86.736 Y-71.885
X-86.864 Y-71.963
X-86.983 Y-72.054
X-87.094 Y-72.155
X-87.198 Y-72.263
X-87.295 Y-72.378
X-87.385 Y-72.497
X-87.469 Y-72.621
X-87.548 Y-72.749
X-87.622 Y-72.88
X-87.69 Y-73.013
X-87.754 Y-73.149
X-87.814 Y-73.287
X-87.869 Y-73.426
X-87.92 Y-73.567
X-87.967 Y-73.709
X-88.011 Y-73.853
X-88.05 Y-73.998
X-88.086 Y-74.143
X-88.118 Y-74.29
X-88.146 Y-74.437
X-88.171 Y-74.585
X-88.192 Y-74.734
X-88.21 Y-74.883
X-88.224 Y-75.032
X-88.235 Y-75.182
X-88.242 Y-75.331
X-88.246 Y-75.481
Y-75.631
X-88.242 Y-75.781
X-88.235 Y-75.931
X-88.225 Y-76.081
X-88.211 Y-76.23
X-88.194 Y-76.379
X-88.173 Y-76.528
X-88.148 Y-76.676
X-88.121 Y-76.823
X-88.089 Y-76.97
X-88.054 Y-77.116
X-88.016 Y-77.261
X-87.975 Y-77.405
X-87.93 Y-77.548
X-87.881 Y-77.69
X-87.83 Y-77.831
X-87.775 Y-77.97
X-87.716 Y-78.108
X-87.654 Y-78.245
X-87.59 Y-78.38
X-87.521 Y-78.514
X-87.45 Y-78.646
X-87.376 Y-78.776
X-87.298 Y-78.905
X-87.217 Y-79.031
X-87.133 Y-79.155
X-87.047 Y-79.278
X-86.957 Y-79.398
X-86.865 Y-79.516
X-86.769 Y-79.632
X-86.671 Y-79.745
X-86.57 Y-79.856
X-86.467 Y-79.965
X-86.36 Y-80.071
X-86.252 Y-80.174
X-86.141 Y-80.275
X-86.027 Y-80.373
X-85.911 Y-80.468
X-85.793 Y-80.561
X-85.673 Y-80.65
X-85.55 Y-80.737
X-85.426 Y-80.82
X-85.299 Y-80.901
X-85.171 Y-80.978
X-85.041 Y-81.053
X-84.909 Y-81.124
X-84.775 Y-81.193
X-84.64 Y-81.258
X-84.503 Y-81.319
X-84.365 Y-81.378
X-84.226 Y-81.433
X-84.085 Y-81.486
X-83.943 Y-81.535
X-83.8 Y-81.58
X-83.657 Y-81.623
X-83.512 Y-81.662
X-83.366 Y-81.698
X-83.22 Y-81.731
X-83.073 Y-81.76
X-82.925 Y-81.787
X-82.777 Y-81.81
X-82.628 Y-81.83
X-82.479 Y-81.847
X-82.33 Y-81.861
X-82.18 Y-81.873
X-82.031 Y-81.881
X-81.881 Y-81.886
X-81.731 Y-81.888
X-81.581
X-81.431 Y-81.885
X-81.281 Y-81.88
X-81.131 Y-81.872
X-80.981 Y-81.862
X-80.832 Y-81.85
X-80.683 Y-81.835
X-80.533 Y-81.819
X-80.385 Y-81.8
X-80.236 Y-81.78
X-80.088 Y-81.758
X-79.939 Y-81.734
X-79.792 Y-81.709
X-79.644 Y-81.682
X-79.497 Y-81.654
X-79.241 Y-81.602
X-79.129 Y-81.607
X-79.023 Y-81.638
X-78.927 Y-81.695
X-78.847 Y-81.773
X-78.789 Y-81.868
X-78.723 Y-82.08
X-78.735 Y-82.524
X-78.768 Y-82.968
X-78.783 Y-83.117
X-78.796 Y-83.267
X-78.804 Y-83.417
X-78.807 Y-83.567
Y-83.717
X-78.803 Y-83.867
X-78.797 Y-84.016
X-78.789 Y-84.166
X-78.779 Y-84.316
X-78.768 Y-84.465
X-78.749 Y-84.614
X-78.723 Y-84.762
X-78.693 Y-84.909
X-78.658 Y-85.055
X-78.619 Y-85.2
X-78.577 Y-85.344
X-78.533 Y-85.487
X-78.487 Y-85.63
X-78.435 Y-85.77
X-78.376 Y-85.908
X-78.311 Y-86.044
X-78.242 Y-86.177
X-78.17 Y-86.308
X-78.094 Y-86.438
X-78.015 Y-86.566
X-77.935 Y-86.692
X-77.851 Y-86.817
X-77.761 Y-86.936
X-77.665 Y-87.052
X-77.566 Y-87.164
X-77.463 Y-87.273
X-77.357 Y-87.379
X-77.249 Y-87.484
X-77.139 Y-87.586
X-77.028 Y-87.686
X-76.911 Y-87.78
X-76.79 Y-87.869
X-76.666 Y-87.953
X-76.539 Y-88.033
X-76.409 Y-88.109
X-76.279 Y-88.183
X-76.147 Y-88.254
X-76.013 Y-88.322
X-75.877 Y-88.386
X-75.738 Y-88.442
X-75.597 Y-88.493
X-75.454 Y-88.538
X-75.31 Y-88.58
X-75.165 Y-88.618
X-75.019 Y-88.653
X-74.873 Y-88.686
X-74.726 Y-88.715
X-74.577 Y-88.735
X-74.428 Y-88.75
X-74.278 Y-88.758
X-74.128 Y-88.762
X-73.978 Y-88.763
X-73.828 Y-88.76
X-73.678 Y-88.754
X-73.528 Y-88.747
X-73.379 Y-88.731
X-73.231 Y-88.707
X-73.084 Y-88.679
X-72.938 Y-88.645
X-72.792 Y-88.608
X-72.648 Y-88.567
X-72.504 Y-88.524
X-72.361 Y-88.478
X-72.221 Y-88.426
X-72.083 Y-88.368
X-71.947 Y-88.303
X-71.814 Y-88.234
X-71.683 Y-88.162
X-71.553 Y-88.086
X-71.425 Y-88.008
X-71.299 Y-87.927
X-71.174 Y-87.843
X-71.055 Y-87.753
X-70.939 Y-87.657
X-70.827 Y-87.557
X-70.719 Y-87.454
X-70.612 Y-87.348
X-70.508 Y-87.24
X-70.406 Y-87.13
X-70.306 Y-87.018
X-70.212 Y-86.901
X-70.124 Y-86.78
X-70.041 Y-86.655
X-69.961 Y-86.528
X-69.885 Y-86.399
X-69.812 Y-86.268
X-69.741 Y-86.136
X-69.672 Y-86.002
X-69.609 Y-85.866
X-69.554 Y-85.727
X-69.503 Y-85.585
X-69.458 Y-85.442
X-69.417 Y-85.298
X-69.379 Y-85.153
X-69.344 Y-85.007
X-69.311 Y-84.861
X-69.283 Y-84.714
X-69.263 Y-84.565
X-69.25 Y-84.415
X-69.241 Y-84.266
X-69.238 Y-84.116
X-69.237 Y-83.966
X-69.24 Y-83.816
X-69.246 Y-83.666
X-69.254 Y-83.516
X-69.271 Y-83.367
X-69.295 Y-83.219
X-69.276 Y-83.109
X-69.231 Y-83.008
X-69.162 Y-82.92
X-69.074 Y-82.852
X-68.973 Y-82.807
X-68.534 Y-82.73
X-68.09 Y-82.748
X-67.49 Y-82.8
X-67.341 Y-82.811
X-67.191 Y-82.822
X-67.041 Y-82.83
X-66.891 Y-82.837
X-66.741 Y-82.842
X-66.591 Y-82.844
X-66.441 Y-82.845
X-66.291 Y-82.843
X-66.142 Y-82.838
X-65.992 Y-82.831
X-65.842 Y-82.821
X-65.693 Y-82.808
X-65.543 Y-82.792
X-65.395 Y-82.774
X-65.246 Y-82.753
X-65.098 Y-82.729
X-64.95 Y-82.702
X-64.803 Y-82.672
X-64.657 Y-82.639
X-64.511 Y-82.604
X-64.366 Y-82.565
X-64.222 Y-82.524
X-64.079 Y-82.479
X-63.937 Y-82.432
X-63.795 Y-82.382
X-63.655 Y-82.328
X-63.516 Y-82.272
X-63.378 Y-82.214
X-63.241 Y-82.152
X-63.106 Y-82.087
X-62.972 Y-82.02
X-62.839 Y-81.95
X-62.708 Y-81.877
X-62.579 Y-81.801
X-62.451 Y-81.723
X-62.325 Y-81.642
X-62.2 Y-81.558
X-62.077 Y-81.472
X-61.957 Y-81.383
X-61.838 Y-81.291
X-61.721 Y-81.197
X-61.606 Y-81.101
X-61.493 Y-81.002
X-61.383 Y-80.901
X-61.274 Y-80.797
X-61.168 Y-80.691
X-61.064 Y-80.583
X-60.962 Y-80.472
X-60.863 Y-80.36
X-60.767 Y-80.245
X-60.672 Y-80.129
X-60.581 Y-80.01
X-60.491 Y-79.889
X-60.405 Y-79.767
X-60.321 Y-79.642
X-60.24 Y-79.516
X-60.161 Y-79.388
X-60.086 Y-79.259
X-60.013 Y-79.128
X-59.943 Y-78.995
X-59.875 Y-78.861
X-59.811 Y-78.726
X-59.75 Y-78.589
X-59.691 Y-78.451
X-59.636 Y-78.311
X-59.583 Y-78.171
X-59.534 Y-78.029
X-59.487 Y-77.887
X-59.444 Y-77.743
X-59.403 Y-77.599
X-59.366 Y-77.453
X-59.331 Y-77.307
X-59.3 Y-77.161
X-59.272 Y-77.013
X-59.246 Y-76.865
X-59.224 Y-76.717
X-59.205 Y-76.568
X-59.189 Y-76.419
X-59.176 Y-76.27
X-59.166 Y-76.12
X-59.159 Y-75.97
X-59.155 Y-75.82
Y-75.67
X-59.193 Y-75.227
X-59.247 Y-74.785
X-59.32 Y-74.346
X-59.415 Y-73.912
X-59.532 Y-73.483
X-59.672 Y-73.06
X-59.835 Y-72.646
X-59.874 Y-72.542
X-59.887 Y-72.432
X-59.859 Y-72.211
X-59.695 Y-71.797
X-59.459 Y-71.42
X-59.297 Y-71.128
X-59.235 Y-70.992
X-59.187 Y-70.846
X-59.14 Y-70.656
X-59.115 Y-70.508
X-59.111 Y-70.358
X-59.124 Y-70.209
X-59.15 Y-70.061
X-59.191 Y-69.917
X-59.248 Y-69.778
X-59.33 Y-69.616
X-59.454 Y-69.414
X-59.652 Y-69.144
X-59.943 Y-68.807
X-60.255 Y-68.49
X-60.578 Y-68.184
X-60.907 Y-67.884
X-61.253 Y-67.604
X-61.61 Y-67.34
X-61.974 Y-67.083
X-62.34 Y-66.831
X-62.709 Y-66.581
X-63.078 Y-66.333
X-63.458 Y-66.101
X-63.847 Y-65.886
X-64.241 Y-65.679
X-64.638 Y-65.477
X-65.035 Y-65.278
X-65.433 Y-65.08
X-65.839 Y-64.897
X-66.253 Y-64.733
X-66.67 Y-64.579
X-67.089 Y-64.43
X-67.51 Y-64.284
X-67.93 Y-64.139
X-68.356 Y-64.008
X-68.787 Y-63.898
X-69.22 Y-63.799
X-69.655 Y-63.705
X-70.091 Y-63.615
X-70.527 Y-63.526
X-70.965 Y-63.449
X-71.407 Y-63.394
X-71.85 Y-63.352
X-72.293 Y-63.316
X-72.737 Y-63.283
X-73.181 Y-63.251
X-73.625 Y-63.229
X-74.07 Y-63.231
X-74.515 Y-63.246
X-74.959 Y-63.267
X-75.403 Y-63.292
X-75.847 Y-63.319
X-76.291 Y-63.351
X-76.732 Y-63.41
X-77.171 Y-63.482
X-77.609 Y-63.561
X-78.046 Y-63.643
X-78.483 Y-63.728
X-78.919 Y-63.815
X-79.349 Y-63.929
X-79.776 Y-64.056
X-80.2 Y-64.191
X-80.622 Y-64.33
X-81.044 Y-64.471
X-81.466 Y-64.612
X-81.879 Y-64.779
X-82.285 Y-64.96
X-82.688 Y-65.149
X-83.089 Y-65.341
X-83.489 Y-65.536
X-83.889 Y-65.731
X-84.278 Y-65.948
X-84.658 Y-66.179
X-85.033 Y-66.418
X-85.406 Y-66.661
X-85.777 Y-66.906
X-86.148 Y-67.151
X-86.507 Y-67.414
X-86.855 Y-67.692
X-87.196 Y-67.977
X-87.535 Y-68.266
X-88.039 Y-68.703
X-88.232 Y-68.878
X-88.457 Y-69.116
X-88.551 Y-69.233
X-88.631 Y-69.359
X-88.718 Y-69.523
X-88.777 Y-69.661
X-88.818 Y-69.805
X-88.842 Y-69.953
X-88.852 Y-70.103
X-88.845 Y-70.253
X-88.814 Y-70.399
X-88.767 Y-70.542
X-88.706 Y-70.679
X-88.62 Y-70.802
X-88.471 Y-70.967
X-88.356 Y-71.158
X-88.248 Y-71.589
X-88.291 Y-72.032
X-88.4 Y-72.464
X-88.53 Y-72.889
X-88.658 Y-73.315
X-88.772 Y-73.745
X-88.865 Y-74.18
X-88.934 Y-74.62
X-88.977 Y-75.063
X-88.994 Y-75.507
X-88.983 Y-75.952
X-88.944 Y-76.395
X-88.879 Y-76.835
X-88.785 Y-77.27
X-88.665 Y-77.699
X-88.519 Y-78.119
X-88.346 Y-78.529
X-88.147 Y-78.927
X-87.923 Y-79.311
X-87.676 Y-79.681
X-87.405 Y-80.034
X-87.112 Y-80.369
X-86.798 Y-80.684
X-86.465 Y-80.979
X-86.113 Y-81.252
X-85.745 Y-81.502
X-85.362 Y-81.728
X-84.965 Y-81.929
X-84.557 Y-82.106
X-84.138 Y-82.257
X-83.712 Y-82.383
X-83.278 Y-82.483
X-82.84 Y-82.558
X-82.398 Y-82.609
X-81.953 Y-82.635
X-81.509 Y-82.64
X-81.064 Y-82.624
X-80.842 Y-82.607
X-80.621 Y-82.585
X-80.511 Y-82.601
X-80.408 Y-82.643
X-80.228 Y-82.775
X-79.95 Y-83.121
X-79.782 Y-83.534
X-79.675 Y-83.966
X-79.589 Y-84.402
X-79.496 Y-84.837
X-79.388 Y-85.269
X-79.258 Y-85.694
X-79.096 Y-86.109
X-78.904 Y-86.51
X-78.694 Y-86.882
X-78.454 Y-87.236
X-78.176 Y-87.584
X-77.884 Y-87.9
X-77.582 Y-88.179
X-77.232 Y-88.453
X-76.862 Y-88.7
X-76.505 Y-88.9
X-76.111 Y-89.082
X-75.693 Y-89.235
X-75.295 Y-89.349
X-74.882 Y-89.431
X-74.44 Y-89.484
X-74.005 Y-89.503
X-73.599 Y-89.489
X-73.157 Y-89.437
X-72.721 Y-89.352
X-72.324 Y-89.242
X-71.921 Y-89.095
X-71.516 Y-88.909
X-71.154 Y-88.71
X-70.804 Y-88.48
X-70.454 Y-88.206
X-70.124 Y-87.907
X-69.847 Y-87.611
X-69.57 Y-87.263
X-69.321 Y-86.895
X-69.117 Y-86.538
X-68.935 Y-86.149
X-68.779 Y-85.733
X-68.661 Y-85.335
X-68.576 Y-84.928
X-68.548 Y-84.708
X-68.538 Y-84.597
X-68.509 Y-84.49
X-68.402 Y-84.294
X-68.242 Y-84.14
X-67.867 Y-83.9
X-67.441 Y-83.772
X-67.001 Y-83.705
X-66.558 Y-83.663
X-66.115 Y-83.626
X-65.672 Y-83.581
X-65.232 Y-83.521
X-64.794 Y-83.443
X-64.36 Y-83.343
X-63.932 Y-83.222
X-63.511 Y-83.078
X-63.099 Y-82.911
X-62.696 Y-82.721
X-62.305 Y-82.51
X-61.926 Y-82.277
X-61.561 Y-82.022
X-61.211 Y-81.748
X-60.877 Y-81.454
X-60.56 Y-81.141
X-60.263 Y-80.81
X-59.984 Y-80.463
X-59.726 Y-80.101
X-59.489 Y-79.724
X-59.275 Y-79.334
X-59.083 Y-78.933
X-58.914 Y-78.521
X-58.769 Y-78.101
X-58.738 Y-77.994
X-58.709 Y-77.886
X-58.598 Y-77.455
X-58.533 Y-77.124
X-58.529 Y-77.095
X-58.526 Y-77.066
X-58.525 Y-77.037
Y-74.399
X-58.533 Y-74.249
X-58.642 Y-73.818
X-58.764 Y-73.39
X-58.902 Y-72.967
X-58.891 Y-72.523
X-58.782 Y-72.091
X-58.711 Y-71.88
X-58.573 Y-71.458
X-58.54 Y-71.331
X-58.532 Y-71.293
X-58.527 Y-71.254
X-58.525 Y-71.216
G3 X-58.915 Y-71.223 I-0.195 J-0.007 F1016
G1 Y-71.402
Y-74.213 F2540
Y-74.392 F1016
G3 X-58.525 Y-74.399 I0.195 J0
G1 Y-72.651 F2540
X-58.532 Y-72.599 F1016
X-58.552 Y-72.551
X-58.585 Y-72.51
X-58.627 Y-72.479
X-58.676 Y-72.461
G2 X-58.819 Y-72.216 I0.044 J0.19
G1 X-58.766 Y-72.034
X-58.76 Y-72.018
X-58.746 Y-71.989 F2540
X-58.742 Y-71.982
G3 X-58.525 Y-71.236 I-1.365 J0.802 F1016
G1 Y-69.953 F2540
X-58.533 Y-69.803
X-58.615 Y-69.571
X-58.727 Y-69.321
X-58.889 Y-69.025
X-59.096 Y-68.711
X-59.369 Y-68.36
X-59.667 Y-68.029
X-59.979 Y-67.712
X-60.306 Y-67.41
X-60.646 Y-67.123
X-60.996 Y-66.849
X-61.354 Y-66.584
X-61.716 Y-66.326
X-62.082 Y-66.072
X-62.452 Y-65.825
X-62.829 Y-65.589
X-63.213 Y-65.364
X-63.602 Y-65.149
X-63.995 Y-64.94
X-64.39 Y-64.736
X-64.788 Y-64.537
X-65.191 Y-64.348
X-65.6 Y-64.172
X-66.013 Y-64.006
X-66.429 Y-63.849
X-66.847 Y-63.696
X-67.266 Y-63.549
X-67.689 Y-63.409
X-68.116 Y-63.283
X-68.546 Y-63.17
X-68.978 Y-63.066
X-69.412 Y-62.968
X-69.847 Y-62.874
X-70.284 Y-62.788
X-70.723 Y-62.715
X-71.163 Y-62.655
X-71.606 Y-62.605
X-72.049 Y-62.562
X-72.492 Y-62.525
X-72.936 Y-62.493
X-73.38 Y-62.473
X-73.825 Y-62.467
X-74.27 Y-62.472
X-74.715 Y-62.485
X-75.159 Y-62.505
X-75.603 Y-62.529
X-76.047 Y-62.562
X-76.489 Y-62.609
X-76.93 Y-62.668
X-77.37 Y-62.737
X-77.808 Y-62.813
X-78.246 Y-62.893
X-78.683 Y-62.979
X-79.116 Y-63.079
X-79.546 Y-63.192
X-79.974 Y-63.315
X-80.399 Y-63.446
X-80.823 Y-63.581
X-81.246 Y-63.72
X-81.664 Y-63.871
X-82.077 Y-64.036
X-82.486 Y-64.212
X-82.892 Y-64.395
X-83.295 Y-64.583
X-83.697 Y-64.774
X-84.093 Y-64.975
X-84.484 Y-65.189
X-84.869 Y-65.412
X-85.248 Y-65.644
X-85.624 Y-65.882
X-85.998 Y-66.123
X-86.368 Y-66.371
X-86.73 Y-66.629
X-87.084 Y-66.898
X-87.432 Y-67.176
X-87.776 Y-67.459
X-88.115 Y-67.746
X-88.45 Y-68.04
X-88.713 Y-68.298
X-88.904 Y-68.518
X-89.058 Y-68.726
X-89.176 Y-68.916
X-89.269 Y-69.099
X-89.308 Y-69.192
X-89.374 Y-69.37
X-89.424 Y-69.546
X-89.456 Y-69.711
X-89.474 Y-69.863
X-89.475 Y-69.898
Y-70.357
X-89.467 Y-70.507
X-89.317 Y-70.926
X-89.204 Y-71.356
X-89.192 Y-71.801
X-89.245 Y-72.242
X-89.289 Y-72.46
X-89.381 Y-72.896
X-89.464 Y-73.271
X-89.47 Y-73.304
X-89.474 Y-73.337
X-89.475 Y-73.37
G3 X-89.085 Y-73.363 I0.195 J0.007 F1016
G1 Y-73.183
Y-70.543 F2540
Y-70.364 F1016
G3 X-89.475 Y-70.357 I-0.195 J0
G1 Y-71.701 F2540
X-89.468 Y-71.753 F1016
X-89.448 Y-71.801
X-89.415 Y-71.842
X-89.373 Y-71.873
X-89.324 Y-71.891
G2 X-89.175 Y-72.106 I-0.044 J-0.19
G1 X-89.205 Y-72.341
X-89.228 Y-72.515 F2540
X-89.237 Y-72.554
X-89.254 Y-72.59
X-89.258 Y-72.597
G3 X-89.475 Y-73.343 I1.365 J-0.802 F1016
G1 Y-77.431 F2540
X-89.467 Y-77.581
X-89.346 Y-78.009
X-89.198 Y-78.429
X-89.026 Y-78.839
X-88.829 Y-79.238
X-88.609 Y-79.624
X-88.366 Y-79.997
X-88.103 Y-80.356
X-87.819 Y-80.699
X-87.516 Y-81.025
X-87.195 Y-81.333
X-86.857 Y-81.622
X-86.503 Y-81.892
X-86.135 Y-82.141
X-85.752 Y-82.368
X-85.357 Y-82.572
X-84.951 Y-82.753
X-84.535 Y-82.912
X-84.111 Y-83.048
X-83.681 Y-83.161
X-83.245 Y-83.251
X-82.806 Y-83.319
X-82.363 Y-83.365
X-81.919 Y-83.39
X-81.696 Y-83.392
X-81.475 Y-83.417
X-81.271 Y-83.506
X-80.913 Y-83.769
X-80.66 Y-84.135
X-80.475 Y-84.54
X-80.324 Y-84.959
X-80.183 Y-85.381
X-80.035 Y-85.8
X-79.871 Y-86.214
X-79.687 Y-86.619
X-79.48 Y-87.013
X-79.248 Y-87.392
X-78.991 Y-87.756
X-78.711 Y-88.101
X-78.407 Y-88.426
X-78.08 Y-88.728
X-77.733 Y-89.006
X-77.366 Y-89.258
X-76.983 Y-89.484
X-76.584 Y-89.681
X-76.173 Y-89.851
X-75.75 Y-89.991
X-75.319 Y-90.1
X-74.881 Y-90.179
X-74.439 Y-90.227
X-73.994 Y-90.244
X-73.55 Y-90.228
X-73.108 Y-90.179
X-72.67 Y-90.1
X-72.239 Y-89.989
X-71.817 Y-89.847
X-71.406 Y-89.676
X-71.008 Y-89.477
X-70.626 Y-89.25
X-70.26 Y-88.996
X-69.913 Y-88.719
X-69.586 Y-88.416
X-69.283 Y-88.091
X-69.004 Y-87.744
X-68.75 Y-87.379
X-68.523 Y-86.996
X-68.325 Y-86.598
X-68.155 Y-86.187
X-68.014 Y-85.765
X-67.958 Y-85.549
X-67.863 Y-85.348
X-67.728 Y-85.172
X-67.398 Y-84.873
X-66.998 Y-84.679
X-66.571 Y-84.554
X-66.135 Y-84.464
X-65.258 Y-84.314
X-64.821 Y-84.231
X-64.387 Y-84.133
X-63.957 Y-84.018
X-63.533 Y-83.885
X-63.115 Y-83.732
X-62.705 Y-83.558
X-62.304 Y-83.365
X-61.914 Y-83.152
X-61.535 Y-82.919
X-61.168 Y-82.667
X-60.816 Y-82.395
X-60.478 Y-82.106
X-60.156 Y-81.799
X-59.85 Y-81.476
X-59.561 Y-81.138
X-59.29 Y-80.785
X-59.038 Y-80.418
X-58.805 Y-80.039
X-58.752 Y-79.941
X-58.7 Y-79.843
X-58.575 Y-79.6
X-58.548 Y-79.534
X-58.531 Y-79.464
X-58.525 Y-79.393
Y-78.644
G3 X-58.915 Y-78.657 I-0.195 J-0.007 F1016
X-58.838 Y-78.806 I0.195 J0.007
G1 X-58.798 Y-78.836 Z-0.493
X-58.76 Y-78.865 Z-0.474
X-58.728 Y-78.889 Z-0.443
X-58.703 Y-78.908 Z-0.402
X-58.688 Y-78.92 Z-0.355
X-58.683 Y-78.924 Z-0.305
Z5 F2540
X-89.154 Y-76.51
Z-0.11
Z-0.305 F1016
X-89.157 Y-76.516 Z-0.355
X-89.167 Y-76.532 Z-0.402
X-89.183 Y-76.559 Z-0.443
X-89.204 Y-76.594 Z-0.474
X-89.228 Y-76.634 Z-0.493
X-89.254 Y-76.678 Z-0.5
G3 X-89.475 Y-77.431 I1.36 J-0.809
G1 Y-79.149 F2540
X-89.467 Y-79.299
X-89.38 Y-79.566
X-89.256 Y-79.86
X-89.071 Y-80.215
X-88.835 Y-80.592
X-88.571 Y-80.951
X-88.286 Y-81.292
X-87.981 Y-81.616
X-87.659 Y-81.923
X-87.321 Y-82.212
X-86.968 Y-82.483
X-86.6 Y-82.734
X-86.22 Y-82.965
X-85.828 Y-83.175
X-85.426 Y-83.366
X-85.015 Y-83.535
X-84.595 Y-83.684
X-84.169 Y-83.812
X-83.737 Y-83.919
X-83.301 Y-84.005
X-82.861 Y-84.071
X-82.418 Y-84.118
X-82.204 Y-84.177
X-81.806 Y-84.377
X-81.494 Y-84.694
X-81.252 Y-85.067
X-81.051 Y-85.464
X-80.87 Y-85.87
X-80.692 Y-86.278
X-80.506 Y-86.682
X-80.305 Y-87.079
X-80.087 Y-87.467
X-79.85 Y-87.843
X-79.591 Y-88.205
X-79.311 Y-88.551
X-79.009 Y-88.878
X-78.687 Y-89.185
X-78.347 Y-89.471
X-77.989 Y-89.736
X-77.615 Y-89.978
X-77.227 Y-90.195
X-76.826 Y-90.388
X-76.414 Y-90.556
X-75.992 Y-90.696
X-75.562 Y-90.809
X-75.125 Y-90.894
X-74.684 Y-90.952
X-74.24 Y-90.982
X-73.795 Y-90.983
X-73.351 Y-90.956
X-72.91 Y-90.901
X-72.472 Y-90.819
X-72.042 Y-90.707
X-71.619 Y-90.568
X-71.206 Y-90.402
X-70.805 Y-90.211
X-70.416 Y-89.994
X-70.042 Y-89.754
X-69.683 Y-89.491
X-69.341 Y-89.206
X-69.018 Y-88.9
X-68.716 Y-88.573
X-68.435 Y-88.228
X-68.178 Y-87.865
X-67.945 Y-87.486
X-67.737 Y-87.093
X-67.553 Y-86.687
X-67.394 Y-86.272
X-67.135 Y-85.91
X-66.782 Y-85.64
X-66.381 Y-85.447
X-65.959 Y-85.306
X-65.528 Y-85.194
X-64.661 Y-84.995
X-64.229 Y-84.888
X-63.8 Y-84.769
X-63.376 Y-84.634
X-62.958 Y-84.483
X-62.546 Y-84.314
X-62.142 Y-84.127
X-61.747 Y-83.923
X-61.362 Y-83.7
X-60.988 Y-83.459
X-60.626 Y-83.201
X-60.276 Y-82.926
X-59.94 Y-82.634
X-59.618 Y-82.327
X-59.311 Y-82.005
X-59.021 Y-81.668
X-58.747 Y-81.317
X-58.607 Y-81.118
X-58.562 Y-81.037
X-58.534 Y-80.949
X-58.525 Y-80.857
Y-80.697
G3 X-58.915 Y-80.71 I-0.195 J-0.007 F1016
X-58.838 Y-80.859 I0.195 J0.007
G1 X-58.798 Y-80.889 Z-0.493
X-58.76 Y-80.918 Z-0.474
X-58.728 Y-80.942 Z-0.443
X-58.703 Y-80.961 Z-0.402
X-58.688 Y-80.973 Z-0.355
X-58.683 Y-80.977 Z-0.305
Z5 F2540
X-89.154 Y-78.228
Z-0.11
Z-0.305 F1016
X-89.157 Y-78.234 Z-0.355
X-89.167 Y-78.25 Z-0.402
X-89.183 Y-78.277 Z-0.443
X-89.204 Y-78.312 Z-0.474
X-89.228 Y-78.352 Z-0.493
X-89.254 Y-78.396 Z-0.5
G3 X-89.475 Y-79.149 I1.36 J-0.809
G1 Y-80.463 F2540
X-89.467 Y-80.613
X-89.397 Y-80.804
X-89.285 Y-81.044
X-89.136 Y-81.308
X-88.926 Y-81.619
X-88.648 Y-81.967
X-88.343 Y-82.291
X-88.019 Y-82.596
X-87.679 Y-82.882
X-87.323 Y-83.15
X-86.954 Y-83.399
X-86.574 Y-83.629
X-86.182 Y-83.841
X-85.781 Y-84.033
X-85.371 Y-84.205
X-84.953 Y-84.359
X-84.529 Y-84.493
X-84.099 Y-84.608
X-83.665 Y-84.704
X-83.227 Y-84.782
X-82.796 Y-84.894
X-82.42 Y-85.131
X-82.112 Y-85.452
X-81.857 Y-85.817
X-81.636 Y-86.203
X-81.43 Y-86.597
X-81.227 Y-86.993
X-81.016 Y-87.385
X-80.794 Y-87.771
X-80.556 Y-88.147
X-80.301 Y-88.511
X-80.028 Y-88.862
X-79.736 Y-89.198
X-79.426 Y-89.517
X-79.099 Y-89.819
X-78.755 Y-90.101
X-78.396 Y-90.364
X-78.023 Y-90.606
X-77.636 Y-90.826
X-77.237 Y-91.024
X-76.828 Y-91.198
X-76.409 Y-91.348
X-75.982 Y-91.474
X-75.549 Y-91.575
X-75.111 Y-91.652
X-74.669 Y-91.704
X-74.225 Y-91.731
X-73.78 Y-91.732
X-73.336 Y-91.706
X-72.894 Y-91.655
X-72.456 Y-91.579
X-72.022 Y-91.477
X-71.596 Y-91.35
X-71.178 Y-91.198
X-70.768 Y-91.024
X-70.37 Y-90.826
X-69.983 Y-90.606
X-69.609 Y-90.365
X-69.25 Y-90.103
X-68.906 Y-89.82
X-68.58 Y-89.518
X-68.271 Y-89.197
X-67.982 Y-88.859
X-67.713 Y-88.504
X-67.465 Y-88.135
X-67.239 Y-87.752
X-67.034 Y-87.357
X-66.832 Y-86.961
X-66.538 Y-86.627
X-66.175 Y-86.369
X-65.775 Y-86.174
X-65.357 Y-86.022
X-64.931 Y-85.893
X-64.074 Y-85.654
X-63.647 Y-85.528
X-63.224 Y-85.391
X-62.806 Y-85.24
X-62.393 Y-85.074
X-61.987 Y-84.893
X-61.588 Y-84.695
X-61.198 Y-84.48
X-60.818 Y-84.25
X-60.448 Y-84.003
X-60.089 Y-83.74
X-59.741 Y-83.462
X-59.406 Y-83.169
X-59.085 Y-82.862
X-58.777 Y-82.54
X-58.635 Y-82.376
X-58.575 Y-82.287
X-58.538 Y-82.186
X-58.525 Y-82.079
G3 X-58.915 Y-82.093 I-0.195 J-0.007 F1016
X-58.838 Y-82.241 I0.195 J0.007
G1 X-58.798 Y-82.272 Z-0.493
X-58.76 Y-82.3 Z-0.474
X-58.728 Y-82.325 Z-0.443
X-58.703 Y-82.343 Z-0.402
X-58.688 Y-82.355 Z-0.355
X-58.683 Y-82.359 Z-0.305
Z5 F2540
X-89.154 Y-79.542
Z-0.11
Z-0.305 F1016
X-89.157 Y-79.547 Z-0.355
X-89.167 Y-79.564 Z-0.402
X-89.183 Y-79.591 Z-0.443
X-89.204 Y-79.626 Z-0.474
X-89.228 Y-79.666 Z-0.493
X-89.254 Y-79.709 Z-0.5
G3 X-89.475 Y-80.463 I1.36 J-0.809
G1 Y-81.575 F2540
X-89.467 Y-81.724
X-89.405 Y-81.889
X-89.31 Y-82.089
X-89.186 Y-82.301
X-89.01 Y-82.556
X-88.768 Y-82.852
X-88.459 Y-83.172
X-88.127 Y-83.468
X-87.777 Y-83.742
X-87.411 Y-83.996
X-87.034 Y-84.232
X-86.645 Y-84.449
X-86.247 Y-84.647
X-85.841 Y-84.828
X-85.427 Y-84.991
X-85.006 Y-85.136
X-84.58 Y-85.263
X-84.149 Y-85.373
X-83.715 Y-85.474
X-83.306 Y-85.648
X-82.95 Y-85.915
X-82.65 Y-86.244
X-82.39 Y-86.605
X-82.155 Y-86.983
X-81.707 Y-87.751
X-81.477 Y-88.132
X-81.235 Y-88.506
X-80.979 Y-88.87
X-80.708 Y-89.222
X-80.421 Y-89.562
X-80.118 Y-89.888
X-79.799 Y-90.198
X-79.465 Y-90.492
X-79.117 Y-90.769
X-78.755 Y-91.028
X-78.38 Y-91.268
X-77.993 Y-91.487
X-77.595 Y-91.686
X-77.187 Y-91.863
X-76.77 Y-92.018
X-76.345 Y-92.151
X-75.915 Y-92.263
X-75.479 Y-92.352
X-75.039 Y-92.418
X-74.596 Y-92.462
X-74.151 Y-92.482
X-73.707 Y-92.48
X-73.262 Y-92.454
X-72.82 Y-92.403
X-72.382 Y-92.329
X-71.947 Y-92.232
X-71.519 Y-92.112
X-71.097 Y-91.97
X-70.684 Y-91.806
X-70.279 Y-91.621
X-69.884 Y-91.416
X-69.501 Y-91.19
X-69.129 Y-90.945
X-68.771 Y-90.682
X-68.427 Y-90.399
X-68.1 Y-90.098
X-67.788 Y-89.78
X-67.495 Y-89.446
X-67.219 Y-89.097
X-66.962 Y-88.734
X-66.723 Y-88.358
X-66.501 Y-87.973
X-66.249 Y-87.606
X-65.927 Y-87.299
X-65.555 Y-87.055
X-65.154 Y-86.862
X-64.739 Y-86.701
X-64.317 Y-86.56
X-63.893 Y-86.425
X-63.47 Y-86.289
X-63.048 Y-86.146
X-62.631 Y-85.993
X-62.217 Y-85.828
X-61.81 Y-85.649
X-61.409 Y-85.456
X-61.016 Y-85.248
X-60.631 Y-85.025
X-60.255 Y-84.787
X-59.889 Y-84.534
X-59.533 Y-84.267
X-59.188 Y-83.986
X-58.855 Y-83.691
X-58.775 Y-83.614
X-58.659 Y-83.498
X-58.586 Y-83.404
X-58.541 Y-83.294
X-58.525 Y-83.176
G3 X-58.915 Y-83.19 I-0.195 J-0.007 F1016
X-58.838 Y-83.338 I0.195 J0.007
G1 X-58.798 Y-83.369 Z-0.493
X-58.76 Y-83.397 Z-0.474
X-58.728 Y-83.422 Z-0.443
X-58.703 Y-83.44 Z-0.402
X-58.688 Y-83.452 Z-0.355
X-58.683 Y-83.456 Z-0.305
Z5 F2540
X-89.154 Y-80.653
Z-0.11
Z-0.305 F1016
X-89.157 Y-80.659 Z-0.355
X-89.167 Y-80.676 Z-0.402
X-89.183 Y-80.702 Z-0.443
X-89.204 Y-80.737 Z-0.474
X-89.228 Y-80.778 Z-0.493
X-89.254 Y-80.821 Z-0.5
G3 X-89.475 Y-81.575 I1.36 J-0.809
G1 Y-82.585 F2540
X-89.467 Y-82.735
X-89.424 Y-82.879
X-89.369 Y-83.018
X-89.304 Y-83.153
X-89.23 Y-83.284
X-89.148 Y-83.41
X-89.061 Y-83.532
X-88.968 Y-83.649
X-88.871 Y-83.763
X-88.769 Y-83.874
X-88.664 Y-83.981
X-88.555 Y-84.084
X-88.444 Y-84.185
X-88.33 Y-84.283
X-88.214 Y-84.377
X-88.096 Y-84.47
X-87.976 Y-84.559
X-87.853 Y-84.646
X-87.73 Y-84.731
X-87.604 Y-84.813
X-87.477 Y-84.893
X-87.349 Y-84.971
X-87.22 Y-85.047
X-87.089 Y-85.121
X-86.957 Y-85.192
X-86.824 Y-85.262
X-86.69 Y-85.329
X-86.555 Y-85.394
X-86.419 Y-85.458
X-86.282 Y-85.519
X-86.145 Y-85.579
X-86.006 Y-85.636
X-85.867 Y-85.692
X-85.727 Y-85.745
X-85.586 Y-85.797
X-85.444 Y-85.847
X-85.302 Y-85.894
X-85.159 Y-85.94
X-85.016 Y-85.985
X-84.59 Y-86.112
X-84.171 Y-86.262
X-83.789 Y-86.49
X-83.457 Y-86.786
X-83.168 Y-87.124
X-82.907 Y-87.485
X-82.662 Y-87.856
X-82.362 Y-88.324
X-82.247 Y-88.499
X-82.161 Y-88.63
X-82.077 Y-88.754
X-81.992 Y-88.878
X-81.906 Y-89
X-81.818 Y-89.123
X-81.73 Y-89.244
X-81.64 Y-89.364
X-81.549 Y-89.483
X-81.456 Y-89.601
X-81.361 Y-89.717
X-81.266 Y-89.833
X-81.168 Y-89.947
X-81.069 Y-90.06
X-80.969 Y-90.171
X-80.867 Y-90.281
X-80.763 Y-90.389
X-80.658 Y-90.496
X-80.552 Y-90.602
X-80.443 Y-90.706
X-80.334 Y-90.808
X-80.222 Y-90.909
X-80.109 Y-91.007
X-79.995 Y-91.104
X-79.879 Y-91.2
X-79.762 Y-91.293
X-79.643 Y-91.385
X-79.523 Y-91.475
X-79.402 Y-91.563
X-79.279 Y-91.649
X-79.154 Y-91.733
X-79.029 Y-91.815
X-78.902 Y-91.895
X-78.774 Y-91.973
X-78.645 Y-92.049
X-78.514 Y-92.122
X-78.382 Y-92.194
X-78.249 Y-92.263
X-78.115 Y-92.331
X-77.98 Y-92.396
X-77.844 Y-92.459
X-77.707 Y-92.52
X-77.568 Y-92.578
X-77.429 Y-92.634
X-77.289 Y-92.688
X-77.149 Y-92.74
X-77.007 Y-92.789
X-76.865 Y-92.837
X-76.722 Y-92.882
X-76.578 Y-92.924
X-76.433 Y-92.965
X-76.288 Y-93.003
X-76.142 Y-93.038
X-75.996 Y-93.072
X-75.849 Y-93.103
X-75.702 Y-93.131
X-75.555 Y-93.158
X-75.407 Y-93.182
X-75.258 Y-93.203
X-75.109 Y-93.222
X-74.96 Y-93.24
X-74.811 Y-93.254
X-74.661 Y-93.266
X-74.512 Y-93.276
X-74.362 Y-93.283
X-74.212 Y-93.288
X-74.062 Y-93.291
X-73.912
X-73.762 Y-93.288
X-73.612 Y-93.283
X-73.462 Y-93.276
X-73.313 Y-93.266
X-73.163 Y-93.254
X-73.014 Y-93.239
X-72.865 Y-93.222
X-72.716 Y-93.202
X-72.568 Y-93.18
X-72.42 Y-93.156
X-72.272 Y-93.129
X-72.125 Y-93.1
X-71.979 Y-93.068
X-71.832 Y-93.034
X-71.687 Y-92.997
X-71.542 Y-92.959
X-71.398 Y-92.917
X-71.254 Y-92.874
X-71.111 Y-92.828
X-70.969 Y-92.78
X-70.828 Y-92.73
X-70.687 Y-92.678
X-70.548 Y-92.623
X-70.409 Y-92.566
X-70.271 Y-92.507
X-70.134 Y-92.445
X-69.998 Y-92.382
X-69.864 Y-92.316
X-69.73 Y-92.248
X-69.597 Y-92.178
X-69.466 Y-92.106
X-69.335 Y-92.032
X-69.206 Y-91.956
X-69.078 Y-91.878
X-68.951 Y-91.798
X-68.826 Y-91.715
X-68.702 Y-91.631
X-68.579 Y-91.545
X-68.458 Y-91.456
X-68.338 Y-91.366
X-68.22 Y-91.274
X-68.103 Y-91.18
X-67.988 Y-91.084
X-67.874 Y-90.986
X-67.762 Y-90.886
X-67.652 Y-90.784
X-67.543 Y-90.681
X-67.436 Y-90.576
X-67.331 Y-90.469
X-67.227 Y-90.36
X-67.126 Y-90.25
X-67.026 Y-90.138
X-66.928 Y-90.024
X-66.832 Y-89.909
X-66.737 Y-89.793
X-66.645 Y-89.675
X-66.554 Y-89.555
X-66.466 Y-89.434
X-66.379 Y-89.312
X-66.294 Y-89.188
X-66.045 Y-88.819
X-65.781 Y-88.461
X-65.464 Y-88.149
X-65.1 Y-87.893
X-64.708 Y-87.682
X-64.301 Y-87.504
X-63.885 Y-87.345
X-63.057 Y-87.049
X-62.831 Y-86.966
X-62.686 Y-86.912
X-62.546 Y-86.858
X-62.384 Y-86.795
X-62.244 Y-86.739
X-62.106 Y-86.682
X-61.968 Y-86.624
X-61.83 Y-86.564
X-61.693 Y-86.504
X-61.556 Y-86.441
X-61.42 Y-86.378
X-61.285 Y-86.313
X-61.151 Y-86.246
X-61.017 Y-86.179
X-60.884 Y-86.109
X-60.752 Y-86.038
X-60.62 Y-85.966
X-60.49 Y-85.892
X-60.36 Y-85.817
X-60.231 Y-85.74
X-60.103 Y-85.661
X-59.977 Y-85.581
X-59.851 Y-85.499
X-59.726 Y-85.416
X-59.602 Y-85.332
X-59.479 Y-85.245
X-59.358 Y-85.158
X-59.237 Y-85.069
X-59.118 Y-84.978
X-58.999 Y-84.886
X-58.882 Y-84.792
X-58.766 Y-84.697
X-58.686 Y-84.628
X-58.599 Y-84.53
X-58.544 Y-84.411
X-58.525 Y-84.281
G3 X-58.915 Y-84.295 I-0.195 J-0.007 F1016
X-58.838 Y-84.443 I0.195 J0.007
G1 X-58.798 Y-84.474 Z-0.493
X-58.76 Y-84.502 Z-0.474
X-58.728 Y-84.527 Z-0.443
X-58.703 Y-84.546 Z-0.402
X-58.688 Y-84.557 Z-0.355
X-58.683 Y-84.561 Z-0.305
Z5 F2540
X-89.154 Y-81.664
Z-0.11
Z-0.305 F1016
X-89.157 Y-81.67 Z-0.355
X-89.167 Y-81.686 Z-0.402
X-89.183 Y-81.713 Z-0.443
X-89.204 Y-81.748 Z-0.474
X-89.228 Y-81.788 Z-0.493
X-89.254 Y-81.832 Z-0.5
G3 X-89.475 Y-82.585 I1.36 J-0.809
G1 Y-83.596 F2540
X-89.467 Y-83.746
X-89.415 Y-83.886
X-89.342 Y-84.039
X-89.243 Y-84.21
X-89.11 Y-84.403
X-88.934 Y-84.62
X-88.7 Y-84.864
X-88.39 Y-85.139
X-88.034 Y-85.407
X-87.662 Y-85.65
X-87.276 Y-85.872
X-86.88 Y-86.075
X-86.475 Y-86.26
X-86.063 Y-86.428
X-85.645 Y-86.58
X-85.224 Y-86.723
X-84.81 Y-86.886
X-84.429 Y-87.115
X-84.088 Y-87.402
X-83.785 Y-87.728
X-83.509 Y-88.076
X-83.248 Y-88.437
X-82.739 Y-89.167
X-82.479 Y-89.527
X-82.344 Y-89.704
X-82.207 Y-89.879
X-82.161 Y-89.981
X-82.141 Y-90.09
X-82.149 Y-90.201
X-82.183 Y-90.307
X-82.418 Y-90.685
X-82.656 Y-90.903
X-82.768 Y-91.023
X-82.899 Y-91.189
X-82.983 Y-91.314
X-83.055 Y-91.446
X-83.11 Y-91.585
X-83.156 Y-91.74
X-83.187 Y-91.886
X-83.192 Y-92.036
X-83.18 Y-92.186
X-83.155 Y-92.334
X-83.111 Y-92.477
X-83.051 Y-92.614
X-82.964 Y-92.775
X-82.834 Y-92.976
X-82.628 Y-93.244
X-82.329 Y-93.574
X-82.01 Y-93.883
X-81.844 Y-94.032
X-81.498 Y-94.311
X-81.132 Y-94.564
X-80.756 Y-94.803
X-80.376 Y-95.034
X-79.994 Y-95.261
X-79.599 Y-95.467
X-79.193 Y-95.647
X-78.78 Y-95.815
X-78.365 Y-95.975
X-77.949 Y-96.131
X-77.524 Y-96.265
X-77.092 Y-96.372
X-76.657 Y-96.465
X-76.221 Y-96.551
X-75.783 Y-96.632
X-75.342 Y-96.691
X-74.898 Y-96.721
X-74.454 Y-96.737
X-74.009 Y-96.746
X-73.564 Y-96.75
X-73.12 Y-96.731
X-72.677 Y-96.684
X-72.236 Y-96.623
X-71.797 Y-96.554
X-71.358 Y-96.481
X-70.924 Y-96.385
X-70.496 Y-96.262
X-70.073 Y-96.125
X-69.652 Y-95.981
X-69.232 Y-95.833
X-68.821 Y-95.663
X-68.421 Y-95.468
X-68.028 Y-95.26
X-67.638 Y-95.045
X-67.251 Y-94.826
X-66.875 Y-94.587
X-66.516 Y-94.326
X-66.165 Y-94.052
X-65.818 Y-93.773
X-65.646 Y-93.632
X-65.471 Y-93.484
X-65.244 Y-93.259
X-65.147 Y-93.145
X-65.06 Y-93.023
X-64.977 Y-92.88
X-64.913 Y-92.744
X-64.86 Y-92.604
X-64.828 Y-92.457
X-64.812 Y-92.308
X-64.808 Y-92.158
X-64.828 Y-92.009
X-64.868 Y-91.865
X-64.922 Y-91.725
X-64.998 Y-91.596
X-65.092 Y-91.479
X-65.199 Y-91.373
X-65.321 Y-91.286
X-65.42 Y-91.236
X-65.507 Y-91.167
X-65.575 Y-91.078
X-65.663 Y-90.874
X-65.724 Y-90.434
X-65.64 Y-89.997
X-65.474 Y-89.584
X-65.238 Y-89.206
X-64.933 Y-88.883
X-64.579 Y-88.614
X-64.194 Y-88.39
X-63.793 Y-88.197
X-63.383 Y-88.025
X-62.969 Y-87.861
X-62.555 Y-87.699
X-62.142 Y-87.534
X-61.732 Y-87.362
X-61.325 Y-87.18
X-60.924 Y-86.989
X-60.528 Y-86.786
X-60.138 Y-86.571
X-59.756 Y-86.343
X-59.382 Y-86.103
X-59.015 Y-85.85
X-58.837 Y-85.717
X-58.776 Y-85.67
X-58.689 Y-85.6
X-58.601 Y-85.501
X-58.544 Y-85.381
X-58.525 Y-85.25
G3 X-58.915 Y-85.263 I-0.195 J-0.007 F1016
X-58.838 Y-85.412 I0.195 J0.007
G1 X-58.798 Y-85.442 Z-0.493
X-58.76 Y-85.471 Z-0.474
X-58.728 Y-85.495 Z-0.443
X-58.703 Y-85.514 Z-0.402
X-58.688 Y-85.526 Z-0.355
X-58.683 Y-85.53 Z-0.305
Z5 F2540
X-89.154 Y-82.675
Z-0.11
Z-0.305 F1016
X-89.157 Y-82.68 Z-0.355
X-89.167 Y-82.697 Z-0.402
X-89.183 Y-82.724 Z-0.443
X-89.204 Y-82.758 Z-0.474
X-89.228 Y-82.799 Z-0.493
X-89.254 Y-82.842 Z-0.5
G3 X-89.475 Y-83.596 I1.36 J-0.809
G1 Y-84.505 F2540
X-89.467 Y-84.655
X-89.415 Y-84.796
X-89.342 Y-84.95
X-89.253 Y-85.103
X-89.126 Y-85.285
X-88.966 Y-85.481
X-88.744 Y-85.711
X-88.47 Y-85.953
X-88.114 Y-86.22
X-87.739 Y-86.459
X-87.35 Y-86.675
X-86.95 Y-86.871
X-86.543 Y-87.049
X-86.129 Y-87.213
X-85.714 Y-87.373
X-85.313 Y-87.565
X-84.942 Y-87.812
X-84.607 Y-88.103
X-84.301 Y-88.427
X-84.018 Y-88.77
X-83.748 Y-89.124
X-83.615 Y-89.302
X-83.519 Y-89.503
X-83.457 Y-89.944
X-83.544 Y-90.38
X-83.679 Y-90.804
X-83.78 Y-91.148
X-83.832 Y-91.396
X-83.862 Y-91.627
X-83.871 Y-91.831
X-83.865 Y-92.023
X-83.843 Y-92.214
X-83.804 Y-92.411
X-83.744 Y-92.624
X-83.661 Y-92.846
X-83.55 Y-93.085
X-83.389 Y-93.368
X-83.187 Y-93.666
X-82.908 Y-94.013
X-82.603 Y-94.336
X-82.276 Y-94.638
X-81.929 Y-94.916
X-81.568 Y-95.176
X-81.198 Y-95.423
X-80.821 Y-95.661
X-80.437 Y-95.884
X-80.042 Y-96.089
X-79.639 Y-96.279
X-79.231 Y-96.455
X-78.819 Y-96.623
X-78.402 Y-96.779
X-77.979 Y-96.917
X-77.551 Y-97.038
X-77.119 Y-97.145
X-76.685 Y-97.241
X-76.248 Y-97.326
X-75.809 Y-97.396
X-75.366 Y-97.446
X-74.923 Y-97.48
X-74.478 Y-97.501
X-74.034 Y-97.515
X-73.589 Y-97.512
X-73.144 Y-97.49
X-72.701 Y-97.45
X-72.26 Y-97.397
X-71.819 Y-97.335
X-71.38 Y-97.26
X-70.945 Y-97.167
X-70.515 Y-97.056
X-70.088 Y-96.931
X-69.664 Y-96.796
X-69.243 Y-96.65
X-68.829 Y-96.489
X-68.421 Y-96.309
X-68.021 Y-96.116
X-67.626 Y-95.911
X-67.235 Y-95.699
X-66.851 Y-95.474
X-66.478 Y-95.231
X-66.115 Y-94.974
X-65.76 Y-94.706
X-65.41 Y-94.431
X-65.091 Y-94.155
X-64.875 Y-93.936
X-64.705 Y-93.732
X-64.564 Y-93.534
X-64.458 Y-93.355
X-64.371 Y-93.178
X-64.298 Y-92.993
X-64.248 Y-92.831
X-64.212 Y-92.665
X-64.19 Y-92.502
X-64.181 Y-92.339
X-64.185 Y-92.184
X-64.201 Y-92.03
X-64.229 Y-91.883
X-64.269 Y-91.738
X-64.322 Y-91.596
X-64.385 Y-91.46
X-64.608 Y-91.075
X-64.657 Y-90.858
X-64.67 Y-90.636
X-64.621 Y-90.193
X-64.426 Y-89.794
X-64.131 Y-89.461
X-63.779 Y-89.188
X-63.397 Y-88.96
X-62.999 Y-88.761
X-62.593 Y-88.578
X-61.776 Y-88.227
X-61.369 Y-88.048
X-60.964 Y-87.862
X-60.564 Y-87.667
X-60.169 Y-87.462
X-59.78 Y-87.247
X-59.398 Y-87.019
X-59.023 Y-86.78
X-58.86 Y-86.668
X-58.744 Y-86.583
X-58.7 Y-86.548
X-58.606 Y-86.449
X-58.546 Y-86.326
X-58.525 Y-86.19
G3 X-58.915 Y-86.204 I-0.195 J-0.007 F1016
X-58.838 Y-86.352 I0.195 J0.007
G1 X-58.798 Y-86.383 Z-0.493
X-58.76 Y-86.411 Z-0.474
X-58.728 Y-86.436 Z-0.443
X-58.703 Y-86.454 Z-0.402
X-58.688 Y-86.466 Z-0.355
X-58.683 Y-86.47 Z-0.305
Z5 F2540
X-89.154 Y-83.584
Z-0.11
Z-0.305 F1016
X-89.157 Y-83.59 Z-0.355
X-89.167 Y-83.607 Z-0.402
X-89.183 Y-83.633 Z-0.443
X-89.204 Y-83.668 Z-0.474
X-89.228 Y-83.708 Z-0.493
X-89.254 Y-83.752 Z-0.5
G3 X-89.475 Y-84.505 I1.36 J-0.809
G1 Y-85.415 F2540
X-89.467 Y-85.565
X-89.412 Y-85.704
X-89.341 Y-85.847
X-89.248 Y-86
X-89.115 Y-86.184
X-88.961 Y-86.365
X-88.745 Y-86.581
X-88.463 Y-86.821
X-88.102 Y-87.081
X-87.722 Y-87.312
X-87.328 Y-87.518
X-86.924 Y-87.706
X-86.515 Y-87.88
X-86.111 Y-88.067
X-85.727 Y-88.292
X-85.372 Y-88.559
X-85.045 Y-88.862
X-84.743 Y-89.188
X-84.543 Y-89.586
X-84.49 Y-90.027
X-84.515 Y-90.472
X-84.565 Y-90.914
X-84.605 Y-91.357
X-84.61 Y-91.715
X-84.589 Y-92.034
X-84.543 Y-92.343
X-84.472 Y-92.649
X-84.371 Y-92.967
X-84.237 Y-93.293
X-84.074 Y-93.615
X-83.858 Y-93.968
X-83.596 Y-94.328
X-83.307 Y-94.666
X-82.996 Y-94.984
X-82.665 Y-95.281
X-82.318 Y-95.56
X-81.959 Y-95.823
X-81.591 Y-96.074
X-81.215 Y-96.311
X-80.83 Y-96.534
X-80.436 Y-96.741
X-80.035 Y-96.934
X-79.629 Y-97.116
X-79.219 Y-97.287
X-78.802 Y-97.444
X-78.381 Y-97.587
X-77.955 Y-97.716
X-77.525 Y-97.831
X-77.093 Y-97.934
X-76.657 Y-98.026
X-76.219 Y-98.103
X-75.778 Y-98.165
X-75.336 Y-98.212
X-74.892 Y-98.246
X-74.448 Y-98.268
X-74.003 Y-98.278
X-73.558 Y-98.272
X-73.114 Y-98.25
X-72.671 Y-98.213
X-72.228 Y-98.165
X-71.788 Y-98.104
X-71.349 Y-98.029
X-70.913 Y-97.939
X-70.481 Y-97.834
X-70.052 Y-97.716
X-69.626 Y-97.587
X-69.204 Y-97.446
X-68.787 Y-97.291
X-68.376 Y-97.121
X-67.971 Y-96.938
X-67.57 Y-96.743
X-67.176 Y-96.538
X-66.787 Y-96.322
X-66.406 Y-96.091
X-66.034 Y-95.848
X-65.67 Y-95.592
X-65.312 Y-95.327
X-64.964 Y-95.05
X-64.638 Y-94.757
X-64.371 Y-94.475
X-64.163 Y-94.218
X-63.995 Y-93.97
X-63.856 Y-93.727
X-63.744 Y-93.486
X-63.655 Y-93.249
X-63.59 Y-93.018
X-63.545 Y-92.791
X-63.519 Y-92.569
X-63.511 Y-92.353
X-63.52 Y-92.139
X-63.547 Y-91.93
X-63.592 Y-91.713
X-63.717 Y-91.286
X-63.733 Y-91.064
X-63.704 Y-90.843
X-63.568 Y-90.42
X-63.302 Y-90.064
X-62.966 Y-89.772
X-62.594 Y-89.527
X-62.204 Y-89.314
X-61.805 Y-89.117
X-61 Y-88.738
X-60.599 Y-88.546
X-60.201 Y-88.347
X-59.807 Y-88.14
X-59.418 Y-87.923
X-59.036 Y-87.695
X-58.73 Y-87.497
X-58.703 Y-87.476
X-58.607 Y-87.376
X-58.546 Y-87.252
X-58.525 Y-87.115
G3 X-58.915 Y-87.129 I-0.195 J-0.007 F1016
X-58.838 Y-87.277 I0.195 J0.007
G1 X-58.798 Y-87.308 Z-0.493
X-58.76 Y-87.336 Z-0.474
X-58.728 Y-87.361 Z-0.443
X-58.703 Y-87.379 Z-0.402
X-58.688 Y-87.391 Z-0.355
X-58.683 Y-87.395 Z-0.305
Z5 F2540
X-89.154 Y-84.494
Z-0.11
Z-0.305 F1016
X-89.157 Y-84.499 Z-0.355
X-89.167 Y-84.516 Z-0.403
X-89.183 Y-84.543 Z-0.443
X-89.204 Y-84.577 Z-0.474
X-89.228 Y-84.618 Z-0.493
X-89.254 Y-84.661 Z-0.5
G3 X-89.475 Y-85.415 I1.36 J-0.809
G1 Y-86.324 F2540
X-89.467 Y-86.474
X-89.406 Y-86.611
X-89.329 Y-86.754
X-89.225 Y-86.912
X-89.083 Y-87.095
X-88.913 Y-87.28
X-88.686 Y-87.491
X-88.387 Y-87.728
X-88.017 Y-87.975
X-87.629 Y-88.193
X-86.832 Y-88.59
X-86.446 Y-88.81
X-86.081 Y-89.065
X-85.915 Y-89.213
X-85.637 Y-89.56
X-85.489 Y-89.98
X-85.426 Y-90.42
X-85.407 Y-90.865
X-85.397 Y-91.31
X-85.372 Y-91.754
X-85.321 Y-92.196
X-85.238 Y-92.621
X-85.123 Y-93.03
X-84.977 Y-93.426
X-84.791 Y-93.828
X-84.572 Y-94.215
X-84.325 Y-94.585
X-84.053 Y-94.937
X-83.758 Y-95.271
X-83.444 Y-95.586
X-83.113 Y-95.883
X-82.768 Y-96.164
X-82.412 Y-96.431
X-82.046 Y-96.684
X-81.671 Y-96.923
X-81.287 Y-97.148
X-80.895 Y-97.36
X-80.497 Y-97.559
X-80.094 Y-97.746
X-79.685 Y-97.921
X-79.271 Y-98.084
X-78.852 Y-98.233
X-78.428 Y-98.37
X-78.001 Y-98.494
X-77.571 Y-98.606
X-77.137 Y-98.706
X-76.701 Y-98.794
X-76.262 Y-98.867
X-75.821 Y-98.927
X-75.379 Y-98.974
X-74.935 Y-99.009
X-74.491 Y-99.032
X-74.046 Y-99.041
X-73.601 Y-99.036
X-73.157 Y-99.016
X-72.713 Y-98.984
X-72.27 Y-98.939
X-71.829 Y-98.882
X-71.39 Y-98.811
X-70.953 Y-98.727
X-70.519 Y-98.629
X-70.088 Y-98.519
X-69.66 Y-98.397
X-69.236 Y-98.263
X-68.816 Y-98.116
X-68.4 Y-97.956
X-67.99 Y-97.784
X-67.585 Y-97.6
X-67.185 Y-97.405
X-66.791 Y-97.199
X-66.403 Y-96.981
X-66.022 Y-96.751
X-65.649 Y-96.508
X-65.283 Y-96.255
X-64.925 Y-95.991
X-64.578 Y-95.713
X-64.246 Y-95.417
X-63.935 Y-95.099
X-63.68 Y-94.796
X-63.467 Y-94.495
X-63.287 Y-94.193
X-63.14 Y-93.893
X-63.022 Y-93.595
X-62.932 Y-93.301
X-62.869 Y-93.011
X-62.83 Y-92.727
X-62.815 Y-92.446
X-62.822 Y-92.163
X-62.869 Y-91.721
X-62.856 Y-91.499
X-62.754 Y-91.066
X-62.518 Y-90.688
X-62.203 Y-90.375
X-61.845 Y-90.111
X-61.464 Y-89.88
X-61.073 Y-89.667
X-60.678 Y-89.464
X-60.281 Y-89.262
X-59.886 Y-89.058
X-59.494 Y-88.848
X-59.106 Y-88.63
X-58.785 Y-88.438
X-58.716 Y-88.388
X-58.613 Y-88.287
X-58.548 Y-88.16
X-58.525 Y-88.018
G3 X-58.915 Y-88.031 I-0.195 J-0.007 F1016
X-58.838 Y-88.18 I0.195 J0.007
G1 X-58.798 Y-88.21 Z-0.493
X-58.76 Y-88.239 Z-0.474
X-58.728 Y-88.263 Z-0.443
X-58.703 Y-88.282 Z-0.402
X-58.688 Y-88.294 Z-0.355
X-58.683 Y-88.298 Z-0.305
Z5 F2540
X-89.154 Y-85.403
Z-0.11
Z-0.305 F1016
X-89.157 Y-85.409 Z-0.355
X-89.167 Y-85.426 Z-0.402
X-89.183 Y-85.452 Z-0.443
X-89.204 Y-85.487 Z-0.474
X-89.228 Y-85.527 Z-0.493
X-89.254 Y-85.571 Z-0.5
G3 X-89.475 Y-86.324 I1.36 J-0.809
G1 Y-87.133 F2540
X-89.467 Y-87.283
X-89.413 Y-87.423
X-89.344 Y-87.561
X-89.256 Y-87.703
X-89.14 Y-87.863
X-88.985 Y-88.043
X-88.793 Y-88.233
X-88.539 Y-88.447
X-88.177 Y-88.705
X-87.796 Y-88.936
X-87.41 Y-89.157
X-87.031 Y-89.39
X-86.701 Y-89.689
X-86.479 Y-90.074
X-86.346 Y-90.499
X-86.265 Y-90.936
X-86.208 Y-91.377
X-86.153 Y-91.819
X-86.084 Y-92.259
X-85.993 Y-92.694
X-85.875 Y-93.123
X-85.728 Y-93.543
X-85.553 Y-93.952
X-85.351 Y-94.348
X-85.123 Y-94.731
X-84.871 Y-95.097
X-84.597 Y-95.448
X-84.304 Y-95.782
X-83.992 Y-96.1
X-83.664 Y-96.401
X-83.324 Y-96.687
X-82.972 Y-96.959
X-82.61 Y-97.218
X-82.239 Y-97.463
X-81.859 Y-97.695
X-81.472 Y-97.914
X-81.078 Y-98.121
X-80.678 Y-98.317
X-80.273 Y-98.5
X-79.863 Y-98.672
X-79.447 Y-98.832
X-79.028 Y-98.979
X-78.604 Y-99.115
X-78.176 Y-99.238
X-77.746 Y-99.351
X-77.312 Y-99.451
X-76.876 Y-99.538
X-76.438 Y-99.613
X-75.997 Y-99.675
X-75.555 Y-99.725
X-75.112 Y-99.764
X-74.667 Y-99.79
X-74.223 Y-99.803
X-73.778 Y-99.802
X-73.333 Y-99.789
X-72.889 Y-99.764
X-72.446 Y-99.726
X-72.003 Y-99.676
X-71.563 Y-99.614
X-71.124 Y-99.538
X-70.688 Y-99.451
X-70.255 Y-99.351
X-69.824 Y-99.239
X-69.397 Y-99.116
X-68.973 Y-98.98
X-68.553 Y-98.833
X-68.137 Y-98.674
X-67.727 Y-98.503
X-67.321 Y-98.321
X-66.92 Y-98.128
X-66.525 Y-97.923
X-66.135 Y-97.708
X-65.753 Y-97.481
X-65.377 Y-97.243
X-65.008 Y-96.995
X-64.647 Y-96.735
X-64.296 Y-96.461
X-63.957 Y-96.172
X-63.634 Y-95.866
X-63.332 Y-95.54
X-63.054 Y-95.193
X-62.814 Y-94.839
X-62.613 Y-94.483
X-62.447 Y-94.126
X-62.316 Y-93.77
X-62.217 Y-93.417
X-62.148 Y-93.067
X-62.109 Y-92.719
X-62.094 Y-92.275
X-62.039 Y-91.833
X-61.855 Y-91.428
X-61.578 Y-91.08
X-61.245 Y-90.785
X-60.882 Y-90.528
X-60.502 Y-90.296
X-60.115 Y-90.077
X-59.335 Y-89.648
X-58.948 Y-89.429
X-58.829 Y-89.355
X-58.735 Y-89.291
X-58.713 Y-89.276
X-58.612 Y-89.175
X-58.547 Y-89.048
X-58.525 Y-88.907
G3 X-58.915 Y-88.921 I-0.195 J-0.007 F1016
X-58.838 Y-89.069 I0.195 J0.007
G1 X-58.798 Y-89.1 Z-0.493
X-58.76 Y-89.128 Z-0.474
X-58.728 Y-89.152 Z-0.443
X-58.703 Y-89.171 Z-0.402
X-58.688 Y-89.183 Z-0.355
X-58.683 Y-89.187 Z-0.305
Z5 F2540
X-89.154 Y-86.212
Z-0.11
Z-0.305 F1016
X-89.157 Y-86.217 Z-0.355
X-89.167 Y-86.234 Z-0.402
X-89.183 Y-86.261 Z-0.443
X-89.204 Y-86.295 Z-0.474
X-89.228 Y-86.336 Z-0.493
X-89.254 Y-86.379 Z-0.5
G3 X-89.475 Y-87.133 I1.36 J-0.809
G1 Y-87.997 F2540
X-89.467 Y-88.147
X-89.409 Y-88.285
X-89.339 Y-88.417
X-89.24 Y-88.57
X-89.113 Y-88.737
X-88.95 Y-88.917
X-88.719 Y-89.137
X-88.372 Y-89.415
X-88.007 Y-89.67
X-87.666 Y-89.955
X-87.409 Y-90.318
X-87.23 Y-90.726
X-87.106 Y-91.153
X-87.011 Y-91.588
X-86.924 Y-92.024
X-86.833 Y-92.46
X-86.729 Y-92.892
X-86.604 Y-93.319
X-86.457 Y-93.739
X-86.285 Y-94.15
X-86.09 Y-94.55
X-85.872 Y-94.938
X-85.633 Y-95.312
X-85.373 Y-95.674
X-85.094 Y-96.02
X-84.798 Y-96.352
X-84.485 Y-96.669
X-84.159 Y-96.971
X-83.82 Y-97.259
X-83.47 Y-97.534
X-83.11 Y-97.796
X-82.741 Y-98.044
X-82.364 Y-98.28
X-81.979 Y-98.504
X-81.588 Y-98.716
X-81.191 Y-98.917
X-80.789 Y-99.106
X-80.381 Y-99.284
X-79.968 Y-99.451
X-79.551 Y-99.606
X-79.13 Y-99.75
X-78.705 Y-99.882
X-78.277 Y-100.003
X-77.846 Y-100.113
X-77.412 Y-100.211
X-76.976 Y-100.297
X-76.537 Y-100.371
X-76.096 Y-100.434
X-75.654 Y-100.485
X-75.211 Y-100.524
X-74.767 Y-100.551
X-74.322 Y-100.566
X-73.878 Y-100.568
X-73.433 Y-100.558
X-72.988 Y-100.537
X-72.545 Y-100.503
X-72.102 Y-100.458
X-71.661 Y-100.401
X-71.221 Y-100.332
X-70.784 Y-100.25
X-70.349 Y-100.158
X-69.916 Y-100.054
X-69.486 Y-99.938
X-69.06 Y-99.812
X-68.637 Y-99.674
X-68.218 Y-99.524
X-67.803 Y-99.363
X-67.393 Y-99.192
X-66.987 Y-99.009
X-66.586 Y-98.816
X-66.19 Y-98.612
X-65.801 Y-98.398
X-65.417 Y-98.172
X-65.04 Y-97.936
X-64.67 Y-97.69
X-64.307 Y-97.431
X-63.954 Y-97.161
X-63.612 Y-96.876
X-63.284 Y-96.576
X-62.972 Y-96.258
X-62.68 Y-95.923
X-62.41 Y-95.569
X-62.165 Y-95.198
X-61.949 Y-94.809
X-61.764 Y-94.406
X-61.616 Y-93.998
X-61.503 Y-93.588
X-61.42 Y-93.151
X-61.364 Y-92.71
X-61.251 Y-92.279
X-61.036 Y-91.89
X-60.745 Y-91.553
X-60.41 Y-91.261
X-60.048 Y-91.002
X-59.673 Y-90.762
X-59.291 Y-90.534
X-58.908 Y-90.308
X-58.792 Y-90.232
X-58.718 Y-90.179
X-58.614 Y-90.078
X-58.548 Y-89.95
X-58.525 Y-89.807
G3 X-58.915 Y-89.821 I-0.195 J-0.007 F1016
X-58.838 Y-89.97 I0.195 J0.007
G1 X-58.798 Y-90 Z-0.493
X-58.76 Y-90.029 Z-0.474
X-58.728 Y-90.053 Z-0.443
X-58.703 Y-90.072 Z-0.402
X-58.688 Y-90.083 Z-0.355
X-58.683 Y-90.088 Z-0.305
Z5 F2540
X-89.154 Y-87.076
Z-0.11
Z-0.305 F1016
X-89.157 Y-87.081 Z-0.355
X-89.167 Y-87.098 Z-0.402
X-89.183 Y-87.125 Z-0.443
X-89.204 Y-87.16 Z-0.474
X-89.228 Y-87.2 Z-0.493
X-89.254 Y-87.243 Z-0.5
G3 X-89.475 Y-87.997 I1.36 J-0.809
G1 Y-88.851 F2540
X-89.467 Y-89.001
X-89.417 Y-89.142
X-89.353 Y-89.277
X-89.278 Y-89.408
X-89.194 Y-89.532
X-89.102 Y-89.651
X-89.005 Y-89.765
X-88.905 Y-89.877
X-88.607 Y-90.207
X-88.348 Y-90.569
X-88.151 Y-90.967
X-87.999 Y-91.386
X-87.876 Y-91.813
X-87.685 Y-92.565
X-87.646 Y-92.71
X-87.607 Y-92.855
X-87.566 Y-92.999
X-87.523 Y-93.143
X-87.48 Y-93.286
X-87.434 Y-93.429
X-87.386 Y-93.571
X-87.336 Y-93.713
X-87.285 Y-93.854
X-87.231 Y-93.994
X-87.175 Y-94.133
X-87.116 Y-94.271
X-87.056 Y-94.408
X-86.993 Y-94.545
X-86.928 Y-94.68
X-86.861 Y-94.814
X-86.792 Y-94.947
X-86.72 Y-95.079
X-86.646 Y-95.209
X-86.57 Y-95.339
X-86.492 Y-95.467
X-86.412 Y-95.593
X-86.329 Y-95.719
X-86.245 Y-95.843
X-86.159 Y-95.965
X-86.07 Y-96.086
X-85.979 Y-96.206
X-85.887 Y-96.324
X-85.793 Y-96.441
X-85.697 Y-96.556
X-85.599 Y-96.67
X-85.499 Y-96.782
X-85.398 Y-96.892
X-85.295 Y-97.002
X-85.19 Y-97.109
X-85.084 Y-97.215
X-84.977 Y-97.32
X-84.868 Y-97.423
X-84.757 Y-97.524
X-84.646 Y-97.624
X-84.533 Y-97.723
X-84.418 Y-97.82
X-84.303 Y-97.916
X-84.186 Y-98.01
X-84.068 Y-98.103
X-83.949 Y-98.194
X-83.829 Y-98.284
X-83.708 Y-98.373
X-83.586 Y-98.46
X-83.463 Y-98.546
X-83.339 Y-98.63
X-83.214 Y-98.713
X-83.089 Y-98.795
X-82.962 Y-98.875
X-82.834 Y-98.954
X-82.706 Y-99.032
X-82.577 Y-99.109
X-82.447 Y-99.184
X-82.317 Y-99.258
X-82.185 Y-99.33
X-82.053 Y-99.401
X-81.921 Y-99.471
X-81.787 Y-99.54
X-81.653 Y-99.608
X-81.519 Y-99.674
X-81.384 Y-99.739
X-81.248 Y-99.803
X-81.112 Y-99.865
X-80.975 Y-99.927
X-80.837 Y-99.987
X-80.699 Y-100.046
X-80.561 Y-100.103
X-80.422 Y-100.159
X-80.282 Y-100.214
X-80.142 Y-100.268
X-80.002 Y-100.321
X-79.861 Y-100.372
X-79.72 Y-100.423
X-79.578 Y-100.471
X-79.435 Y-100.519
X-79.293 Y-100.566
X-79.15 Y-100.611
X-79.006 Y-100.655
X-78.863 Y-100.697
X-78.718 Y-100.739
X-78.574 Y-100.779
X-78.429 Y-100.818
X-78.284 Y-100.856
X-78.138 Y-100.892
X-77.993 Y-100.928
X-77.847 Y-100.962
X-77.7 Y-100.994
X-77.554 Y-101.026
X-77.407 Y-101.056
X-77.259 Y-101.085
X-77.112 Y-101.112
X-76.964 Y-101.139
X-76.816 Y-101.164
X-76.668 Y-101.187
X-76.52 Y-101.21
X-76.371 Y-101.231
X-76.221 Y-101.251
X-76.072 Y-101.27
X-75.923 Y-101.288
X-75.772 Y-101.304
X-75.623 Y-101.319
X-75.473 Y-101.332
X-75.324 Y-101.344
X-75.174 Y-101.355
X-75.025 Y-101.365
X-74.875 Y-101.373
X-74.725 Y-101.38
X-74.575 Y-101.386
X-74.425 Y-101.39
X-74.275 Y-101.393
X-74.125 Y-101.395
X-73.975
X-73.825 Y-101.394
X-73.675 Y-101.392
X-73.525 Y-101.388
X-73.375 Y-101.383
X-73.226 Y-101.377
X-73.076 Y-101.37
X-72.926 Y-101.361
X-72.776 Y-101.351
X-72.627 Y-101.34
X-72.477 Y-101.327
X-72.328 Y-101.313
X-72.179 Y-101.298
X-72.029 Y-101.282
X-71.88 Y-101.264
X-71.731 Y-101.245
X-71.581 Y-101.224
X-71.433 Y-101.203
X-71.285 Y-101.18
X-71.137 Y-101.156
X-70.989 Y-101.13
X-70.841 Y-101.103
X-70.694 Y-101.075
X-70.547 Y-101.046
X-70.4 Y-101.016
X-70.253 Y-100.984
X-70.107 Y-100.951
X-69.961 Y-100.917
X-69.815 Y-100.881
X-69.67 Y-100.844
X-69.525 Y-100.806
X-69.38 Y-100.767
X-69.235 Y-100.727
X-69.091 Y-100.685
X-68.948 Y-100.642
X-68.804 Y-100.598
X-68.661 Y-100.553
X-68.519 Y-100.506
X-68.377 Y-100.458
X-68.235 Y-100.409
X-68.093 Y-100.359
X-67.951 Y-100.307
X-67.81 Y-100.254
X-67.67 Y-100.2
X-67.527 Y-100.144
X-67.388 Y-100.087
X-67.25 Y-100.03
X-67.11 Y-99.97
X-66.972 Y-99.911
X-66.835 Y-99.849
X-66.699 Y-99.787
X-66.563 Y-99.724
X-66.427 Y-99.659
X-66.293 Y-99.593
X-66.158 Y-99.527
X-66.025 Y-99.459
X-65.892 Y-99.389
X-65.759 Y-99.319
X-65.627 Y-99.247
X-65.496 Y-99.174
X-65.366 Y-99.101
X-65.236 Y-99.026
X-65.107 Y-98.949
X-64.978 Y-98.872
X-64.85 Y-98.793
X-64.723 Y-98.714
X-64.597 Y-98.633
X-64.471 Y-98.551
X-64.347 Y-98.467
X-64.223 Y-98.383
X-64.1 Y-98.297
X-63.978 Y-98.21
X-63.857 Y-98.121
X-63.737 Y-98.031
X-63.618 Y-97.939
X-63.5 Y-97.846
X-63.384 Y-97.752
X-63.268 Y-97.656
X-63.154 Y-97.558
X-63.042 Y-97.459
X-62.931 Y-97.359
X-62.821 Y-97.256
X-62.714 Y-97.152
X-62.607 Y-97.046
X-62.503 Y-96.938
X-62.401 Y-96.828
X-62.3 Y-96.717
X-62.202 Y-96.604
X-62.106 Y-96.488
X-62.012 Y-96.372
X-61.92 Y-96.253
X-61.831 Y-96.132
X-61.744 Y-96.01
X-61.66 Y-95.886
X-61.578 Y-95.76
X-61.499 Y-95.632
X-61.423 Y-95.503
X-61.35 Y-95.372
X-61.28 Y-95.24
X-61.213 Y-95.105
X-61.148 Y-94.97
X-61.088 Y-94.833
X-61.03 Y-94.694
X-60.975 Y-94.555
X-60.924 Y-94.414
X-60.877 Y-94.271
X-60.833 Y-94.128
X-60.791 Y-93.984
X-60.754 Y-93.839
X-60.651 Y-93.406
X-60.528 Y-92.978
X-60.325 Y-92.582
X-60.049 Y-92.233
X-59.727 Y-91.926
X-59.377 Y-91.652
X-59.01 Y-91.399
X-58.886 Y-91.316
X-58.763 Y-91.23
X-58.709 Y-91.19
X-58.61 Y-91.089
X-58.547 Y-90.963
X-58.525 Y-90.824
G3 X-58.915 Y-90.838 I-0.195 J-0.007 F1016
X-58.838 Y-90.986 I0.195 J0.007
G1 X-58.798 Y-91.017 Z-0.493
X-58.76 Y-91.045 Z-0.474
X-58.728 Y-91.07 Z-0.443
X-58.703 Y-91.088 Z-0.402
X-58.688 Y-91.1 Z-0.355
X-58.683 Y-91.104 Z-0.305
Z5 F2540
X-89.154 Y-87.93
Z-0.11
Z-0.305 F1016
X-89.157 Y-87.935 Z-0.355
X-89.167 Y-87.952 Z-0.402
X-89.183 Y-87.979 Z-0.443
X-89.204 Y-88.014 Z-0.474
X-89.228 Y-88.054 Z-0.493
X-89.254 Y-88.097 Z-0.5
G3 X-89.475 Y-88.851 I1.36 J-0.809
G1 Y-89.76 F2540
X-89.467 Y-89.91
X-89.427 Y-90.055
X-89.378 Y-90.197
X-89.325 Y-90.337
X-89.16 Y-90.75
X-88.998 Y-91.164
X-88.855 Y-91.586
X-88.727 Y-92.012
X-88.53 Y-92.709
X-88.477 Y-92.891
X-88.43 Y-93.047
X-88.386 Y-93.191
X-88.341 Y-93.334
X-88.295 Y-93.476
X-88.247 Y-93.619
X-88.198 Y-93.76
X-88.147 Y-93.901
X-88.094 Y-94.042
X-88.04 Y-94.182
X-87.984 Y-94.321
X-87.927 Y-94.459
X-87.867 Y-94.597
X-87.806 Y-94.734
X-87.742 Y-94.87
X-87.677 Y-95.005
X-87.61 Y-95.139
X-87.54 Y-95.272
X-87.469 Y-95.404
X-87.396 Y-95.535
X-87.321 Y-95.665
X-87.244 Y-95.794
X-87.221 Y-95.903
X-87.225 Y-96.014
X-87.256 Y-96.121
X-87.312 Y-96.217
X-87.39 Y-96.296
X-87.769 Y-96.53
X-87.913 Y-96.57
X-88.054 Y-96.623
X-88.19 Y-96.686
X-88.319 Y-96.762
X-88.437 Y-96.855
X-88.544 Y-96.96
X-88.643 Y-97.073
X-88.721 Y-97.2
X-88.783 Y-97.337
X-88.831 Y-97.479
X-88.858 Y-97.627
X-88.863 Y-97.777
X-88.851 Y-97.926
X-88.823 Y-98.074
X-88.776 Y-98.216
X-88.716 Y-98.354
X-88.646 Y-98.486
X-88.568 Y-98.614
X-88.483 Y-98.738
X-88.394 Y-98.858
X-88.3 Y-98.976
X-88.203 Y-99.09
X-88.104 Y-99.202
X-88.002 Y-99.313
X-87.898 Y-99.421
X-87.793 Y-99.528
X-87.687 Y-99.634
X-87.58 Y-99.739
X-87.466 Y-99.847
X-87.357 Y-99.95
X-87.247 Y-100.052
X-87.134 Y-100.151
X-87.019 Y-100.247
X-86.903 Y-100.341
X-86.785 Y-100.434
X-86.666 Y-100.525
X-86.546 Y-100.616
X-86.423 Y-100.706
X-86.276 Y-100.812
X-86.095 Y-100.943
X-85.856 Y-101.11
X-85.513 Y-101.349
X-85.209 Y-101.556
X-85.084 Y-101.64
X-84.958 Y-101.721
X-84.83 Y-101.8
X-84.701 Y-101.876
X-84.572 Y-101.952
X-84.441 Y-102.025
X-84.31 Y-102.098
X-84.157 Y-102.181
X-83.968 Y-102.282
X-83.725 Y-102.41
X-83.384 Y-102.586
X-82.987 Y-102.787
X-82.807 Y-102.877
X-82.672 Y-102.943
X-82.536 Y-103.007
X-82.399 Y-103.068
X-82.261 Y-103.127
X-82.122 Y-103.184
X-81.983 Y-103.24
X-81.842 Y-103.296
X-81.673 Y-103.36
X-81.464 Y-103.439
X-81.191 Y-103.539
X-80.799 Y-103.679
X-80.237 Y-103.875
X-80.095 Y-103.923
X-79.952 Y-103.967
X-79.808 Y-104.01
X-79.663 Y-104.05
X-79.518 Y-104.088
X-79.373 Y-104.125
X-79.22 Y-104.163
X-79.036 Y-104.207
X-78.807 Y-104.259
X-78.504 Y-104.327
X-78.069 Y-104.42
X-77.639 Y-104.51
X-77.491 Y-104.539
X-77.344 Y-104.565
X-77.196 Y-104.589
X-77.047 Y-104.611
X-76.899 Y-104.631
X-76.75 Y-104.649
X-76.601 Y-104.666
X-76.425 Y-104.684
X-76.208 Y-104.706
X-75.929 Y-104.731
X-75.534 Y-104.764
X-75.09 Y-104.798
X-74.911 Y-104.811
X-74.761 Y-104.82
X-74.611 Y-104.827
X-74.461 Y-104.831
X-74.311 Y-104.832
X-74.161
X-74.011 Y-104.831
X-73.859 Y-104.828
X-73.679 Y-104.823
X-73.457 Y-104.816
X-73.167 Y-104.804
X-72.753 Y-104.784
X-72.309 Y-104.759
X-72.159 Y-104.75
X-72.01 Y-104.739
X-71.86 Y-104.725
X-71.711 Y-104.709
X-71.562 Y-104.691
X-71.414 Y-104.671
X-71.265 Y-104.65
X-71.11 Y-104.626
X-70.924 Y-104.596
X-70.694 Y-104.558
X-70.389 Y-104.504
X-69.952 Y-104.424
X-69.515 Y-104.341
X-69.406 Y-104.32
X-69.259 Y-104.288
X-69.113 Y-104.254
X-68.967 Y-104.218
X-68.822 Y-104.18
X-68.678 Y-104.14
X-68.533 Y-104.099
X-68.372 Y-104.051
X-68.176 Y-103.992
X-67.928 Y-103.916
