(1001)
G90 G94
G17
G21
(When using Fusion 360 for Personal Use, the feedrate of )
(rapid moves is reduced to match the feedrate of cutting )
(moves, which can increase machining time. Unrestricted )
(rapid moves are available with a Fusion 360 Subscription. )

(2D Adaptive1)
T5
S8000 M3
G54
G0 X-33.245 Y2.64
Z15
G1 Z5 F1000
Z0.135
Z-0.183
X-33.247 Y2.633 Z-0.253
X-33.253 Y2.61 Z-0.32
X-33.263 Y2.573 Z-0.38
X-33.275 Y2.524 Z-0.431
X-33.29 Y2.466 Z-0.469
X-33.307 Y2.401 Z-0.492
X-33.324 Y2.333 Z-0.5
G3 X-33.573 Y0.604 I7.852 J-2.011
G1 Y0.454
X-33.44 Y0.332
X-33.269 Y0.274
X-33.089 Y0.291
X-32.932 Y0.381
X-32.825 Y0.526
X-32.787 Y0.703
G3 X-33.138 Y1.008 I-0.317 J-0.011
G1 X-33.401 Y0.98
X-33.599 Y0.959
X-33.929 Y0.924
G3 X-34.213 Y0.619 I0.034 J-0.316
G1 Y0.283
X-34.209 Y0.209
X-34.128 Y0.082
X-34.031 Y-0.032
X-34.02 Y-0.041
X-33.843 Y-0.158
X-33.641 Y-0.22
X-33.429 Y-0.222
X-33.225 Y-0.163
X-33.046 Y-0.05
X-32.906 Y0.11
X-32.818 Y0.303
X-32.787 Y0.512
G3 X-33.193 Y0.806 I-0.317 J-0.011
G1 X-33.393 Y0.748
X-33.612 Y0.685
X-33.984 Y0.577
G3 X-34.213 Y0.283 I0.088 J-0.305
G1 Y-0.11
X-34.205 Y-0.259
X-34.14 Y-0.394
X-34.046 Y-0.512
X-33.933 Y-0.61
X-33.909 Y-0.624
X-33.703 Y-0.709
X-33.482 Y-0.728
X-33.264 Y-0.681
X-33.07 Y-0.571
X-32.918 Y-0.409
X-32.821 Y-0.209
X-32.787 Y0.011
G3 X-33.153 Y0.314 I-0.317 J-0.011
G1 X-33.4 Y0.276
X-33.601 Y0.245
X-33.943 Y0.193
G3 X-34.213 Y-0.11 I0.048 J-0.314
G1 Y-0.547
X-34.205 Y-0.697
X-34.156 Y-0.838
X-34.073 Y-0.964
X-33.968 Y-1.07
X-33.952 Y-1.081
X-33.745 Y-1.182
X-33.518 Y-1.214
X-33.291 Y-1.175
X-33.088 Y-1.069
X-32.926 Y-0.905
X-32.823 Y-0.7
X-32.787 Y-0.473
G3 X-33.134 Y-0.168 I-0.317 J-0.011
G1 X-33.401 Y-0.193
X-33.599 Y-0.211
X-33.925 Y-0.242
G3 X-34.213 Y-0.547 I0.029 J-0.316
G1 Y-1.028
X-34.205 Y-1.178
X-34.155 Y-1.319
X-34.074 Y-1.445
X-33.968 Y-1.552
X-33.956 Y-1.56
X-33.749 Y-1.662
X-33.521 Y-1.696
X-33.294 Y-1.658
X-33.09 Y-1.552
X-32.927 Y-1.388
X-32.823 Y-1.183
X-32.787 Y-0.955
G3 X-33.134 Y-0.65 I-0.317 J-0.011
G1 X-33.401 Y-0.675
X-33.599 Y-0.693
X-33.924 Y-0.723
G3 X-34.213 Y-1.028 I0.029 J-0.316
G1 Y-1.501
X-34.205 Y-1.651
X-34.158 Y-1.793
X-34.078 Y-1.921
X-33.974 Y-2.028
X-33.962 Y-2.036
X-33.755 Y-2.141
X-33.527 Y-2.176
X-33.298 Y-2.14
X-33.092 Y-2.034
X-32.929 Y-1.87
X-32.824 Y-1.664
X-32.787 Y-1.436
Y-0.955
G3 X-33.285 Y-0.705 I-0.317 J-0.011
G1 X-33.372 Y-0.765
X-33.673 Y-0.973
X-34.076 Y-1.251
G3 X-34.213 Y-1.501 I0.18 J-0.261
G1 Y-2.004
X-34.205 Y-2.154
X-34.151 Y-2.293
X-34.068 Y-2.418
X-33.96 Y-2.522
X-33.836 Y-2.608
X-33.633 Y-2.667
X-33.423
X-33.22 Y-2.607
X-33.043 Y-2.493
X-32.905 Y-2.334
X-32.817 Y-2.142
X-32.787 Y-1.933
Y-1.436
G3 X-33.29 Y-1.189 I-0.317 J-0.011
G1 X-33.371 Y-1.247
X-33.678 Y-1.468
X-34.081 Y-1.757
G3 X-34.213 Y-2.004 I0.185 J-0.258
G1 Y-2.485
X-34.205 Y-2.635
X-34.157 Y-2.777
X-34.075 Y-2.903
X-33.971 Y-3.01
X-33.952 Y-3.023
X-33.746 Y-3.124
X-33.518 Y-3.157
X-33.292 Y-3.118
X-33.088 Y-3.012
X-32.927 Y-2.848
X-32.823 Y-2.643
X-32.787 Y-2.416
Y-1.933
G3 X-33.286 Y-1.684 I-0.317 J-0.011
G1 X-33.372 Y-1.744
X-33.674 Y-1.955
X-34.077 Y-2.236
G3 X-34.213 Y-2.485 I0.182 J-0.26
G1 Y-2.958
X-34.205 Y-3.108
X-34.159 Y-3.251
X-34.08 Y-3.378
X-33.976 Y-3.486
X-33.964 Y-3.495
X-33.757 Y-3.6
X-33.528 Y-3.637
X-33.299 Y-3.6
X-33.093 Y-3.495
X-32.929 Y-3.331
X-32.824 Y-3.125
X-32.787 Y-2.896
Y-2.416
G3 X-33.284 Y-2.165 I-0.317 J-0.011
G1 X-33.373 Y-2.226
X-33.672 Y-2.431
X-34.075 Y-2.707
G3 X-34.213 Y-2.958 I0.18 J-0.262
G1 Y-3.461
X-34.205 Y-3.611
X-34.152 Y-3.751
X-34.069 Y-3.876
X-33.962 Y-3.981
X-33.838 Y-4.066
X-33.635 Y-4.126
X-33.424 Y-4.127
X-33.222 Y-4.067
X-33.044 Y-3.953
X-32.905 Y-3.794
X-32.818 Y-3.602
X-32.787 Y-3.393
Y-2.896
G3 X-33.289 Y-2.649 I-0.317 J-0.011
G1 X-33.371 Y-2.707
X-33.677 Y-2.926
X-34.08 Y-3.214
G3 X-34.213 Y-3.461 I0.185 J-0.258
G1 Y-3.942
X-34.205 Y-4.092
X-34.158 Y-4.234
X-34.076 Y-4.36
X-33.972 Y-4.468
X-33.954 Y-4.481
X-33.747 Y-4.583
X-33.52 Y-4.616
X-33.293 Y-4.577
X-33.089 Y-4.471
X-32.927 Y-4.308
X-32.823 Y-4.102
X-32.787 Y-3.875
Y-3.393
G3 X-33.286 Y-3.143 I-0.317 J-0.011
G1 X-33.372 Y-3.203
X-33.673 Y-3.413
X-34.076 Y-3.692
G3 X-34.213 Y-3.942 I0.181 J-0.261
G1 Y-4.415
X-34.205 Y-4.565
X-34.16 Y-4.708
X-34.081 Y-4.836
X-33.977 Y-4.944
X-33.965 Y-4.953
X-33.759 Y-5.059
X-33.53 Y-5.095
X-33.3 Y-5.059
X-33.093 Y-4.954
X-32.929 Y-4.79
X-32.824 Y-4.584
X-32.787 Y-4.355
Y-3.875
G3 X-33.284 Y-3.624 I-0.317 J-0.011
G1 X-33.373 Y-3.685
X-33.671 Y-3.889
X-34.074 Y-4.164
G3 X-34.213 Y-4.415 I0.179 J-0.262
G1 Y-4.918
X-34.205 Y-5.068
X-34.152 Y-5.208
X-34.07 Y-5.333
X-33.962 Y-5.438
X-33.839 Y-5.524
X-33.636 Y-5.584
X-33.425 Y-5.585
X-33.222 Y-5.526
X-33.044 Y-5.412
X-32.906 Y-5.253
X-32.818 Y-5.06
X-32.787 Y-4.851
Y-4.355
G3 X-33.289 Y-4.107 I-0.317 J-0.011
G1 X-33.371 Y-4.166
X-33.677 Y-4.383
X-34.079 Y-4.67
G3 X-34.213 Y-4.918 I0.184 J-0.259
G1 Y-5.399
X-34.205 Y-5.549
X-34.158 Y-5.691
X-34.077 Y-5.818
X-33.973 Y-5.926
X-33.955 Y-5.939
X-33.748 Y-6.04
X-33.52 Y-6.074
X-33.293 Y-6.036
X-33.089 Y-5.93
X-32.927 Y-5.766
X-32.823 Y-5.56
X-32.787 Y-5.333
Y-4.851
G3 X-33.286 Y-4.601 I-0.317 J-0.011
G1 X-33.372 Y-4.661
X-33.673 Y-4.87
X-34.076 Y-5.149
G3 X-34.213 Y-5.399 I0.181 J-0.261
G1 Y-5.872
X-34.205 Y-6.022
X-34.16 Y-6.165
X-34.082 Y-6.293
X-33.978 Y-6.401
X-33.966 Y-6.41
X-33.759 Y-6.516
X-33.53 Y-6.553
X-33.301 Y-6.517
X-33.094 Y-6.412
X-32.929 Y-6.248
X-32.824 Y-6.042
X-32.787 Y-5.812
Y-5.333
G3 X-33.284 Y-5.082 I-0.317 J-0.011
G1 X-33.373 Y-5.142
X-33.671 Y-5.346
X-34.074 Y-5.621
G3 X-34.213 Y-5.872 I0.179 J-0.262
G1 Y-6.375
X-34.205 Y-6.525
X-34.152 Y-6.665
X-34.07 Y-6.791
X-33.963 Y-6.896
X-33.839 Y-6.981
X-33.637 Y-7.042
X-33.425 Y-7.043
X-33.222 Y-6.984
X-33.044 Y-6.87
X-32.906 Y-6.71
X-32.818 Y-6.518
X-32.787 Y-6.309
Y-5.812
G3 X-33.289 Y-5.565 I-0.317 J-0.011
G1 X-33.371 Y-5.624
X-33.677 Y-5.841
X-34.079 Y-6.127
G3 X-34.213 Y-6.375 I0.184 J-0.259
G1 Y-6.856
X-34.205 Y-7.006
X-34.158 Y-7.148
X-34.077 Y-7.275
X-33.973 Y-7.383
X-33.955 Y-7.396
X-33.749 Y-7.498
X-33.521 Y-7.531
X-33.294 Y-7.493
X-33.089 Y-7.387
X-32.927 Y-7.224
X-32.823 Y-7.018
X-32.787 Y-6.791
Y-6.309
G3 X-33.286 Y-6.059 I-0.317 J-0.011
G1 X-33.372 Y-6.119
X-33.673 Y-6.327
X-34.076 Y-6.606
G3 X-34.213 Y-6.856 I0.181 J-0.261
G1 Y-7.329
X-34.205 Y-7.479
X-34.16 Y-7.622
X-34.082 Y-7.75
X-33.978 Y-7.859
X-33.966 Y-7.867
X-33.76 Y-7.974
X-33.53 Y-8.011
X-33.301 Y-7.975
X-33.094 Y-7.87
X-32.929 Y-7.706
X-32.824 Y-7.499
X-32.787 Y-7.27
Y-6.791
G3 X-33.284 Y-6.539 I-0.317 J-0.011
G1 X-33.373 Y-6.6
X-33.671 Y-6.803
X-34.074 Y-7.078
G3 X-34.213 Y-7.329 I0.179 J-0.262
G1 Y-7.832
X-34.205 Y-7.982
X-34.152 Y-8.122
X-34.07 Y-8.248
X-33.963 Y-8.353
X-33.84 Y-8.439
X-33.637 Y-8.499
X-33.426 Y-8.5
X-33.223 Y-8.441
X-33.044 Y-8.327
X-32.906 Y-8.168
X-32.818 Y-7.976
X-32.787 Y-7.766
Y-7.27
G3 X-33.289 Y-7.022 I-0.317 J-0.011
G1 X-33.372 Y-7.081
X-33.677 Y-7.298
X-34.079 Y-7.584
G3 X-34.213 Y-7.832 I0.184 J-0.259
G1 Y-8.313
X-34.205 Y-8.463
X-34.158 Y-8.605
X-34.077 Y-8.732
X-33.974 Y-8.84
X-33.955 Y-8.853
X-33.749 Y-8.955
X-33.521 Y-8.989
X-33.294 Y-8.951
X-33.089 Y-8.845
X-32.927 Y-8.681
X-32.823 Y-8.475
X-32.787 Y-8.248
Y-7.766
G3 X-33.285 Y-7.516 I-0.317 J-0.011
G1 X-33.372 Y-7.576
X-33.673 Y-7.784
X-34.076 Y-8.063
G3 X-34.213 Y-8.313 I0.181 J-0.261
G1 Y-8.786
X-34.205 Y-8.936
X-34.16 Y-9.079
X-34.082 Y-9.207
X-33.978 Y-9.316
X-33.966 Y-9.325
X-33.76 Y-9.431
X-33.531 Y-9.468
X-33.301 Y-9.432
X-33.094 Y-9.327
X-32.93 Y-9.163
X-32.824 Y-8.956
X-32.787 Y-8.727
Y-8.248
G3 X-33.284 Y-7.997 I-0.317 J-0.011
G1 X-33.373 Y-8.057
X-33.671 Y-8.26
X-34.074 Y-8.535
G3 X-34.213 Y-8.786 I0.179 J-0.262
G1 Y-9.289
X-34.205 Y-9.439
X-34.152 Y-9.579
X-34.07 Y-9.705
X-33.963 Y-9.81
X-33.84 Y-9.896
X-33.637 Y-9.956
X-33.426 Y-9.957
X-33.223 Y-9.898
X-33.044 Y-9.785
X-32.906 Y-9.625
X-32.818 Y-9.433
X-32.787 Y-9.224
Y-8.727
G3 X-33.289 Y-8.479 I-0.317 J-0.011
G1 X-33.372 Y-8.538
X-33.677 Y-8.755
X-34.079 Y-9.041
G3 X-34.213 Y-9.289 I0.184 J-0.259
G1 Y-9.77
X-34.205 Y-9.92
X-34.158 Y-10.063
X-34.077 Y-10.189
X-33.974 Y-10.297
X-33.956 Y-10.31
X-33.749 Y-10.412
X-33.521 Y-10.446
X-33.294 Y-10.408
X-33.089 Y-10.302
X-32.927 Y-10.138
X-32.823 Y-9.933
X-32.787 Y-9.705
Y-9.224
G3 X-33.285 Y-8.974 I-0.317 J-0.011
G1 X-33.372 Y-9.034
X-33.673 Y-9.242
X-34.076 Y-9.52
G3 X-34.213 Y-9.77 I0.181 J-0.261
G1 Y-10.243
X-34.205 Y-10.393
X-34.16 Y-10.536
X-34.082 Y-10.665
X-33.978 Y-10.773
X-33.966 Y-10.782
X-33.76 Y-10.888
X-33.531 Y-10.925
X-33.301 Y-10.889
X-33.094 Y-10.784
X-32.93 Y-10.62
X-32.824 Y-10.414
X-32.787 Y-10.184
Y-9.705
G3 X-33.284 Y-9.454 I-0.317 J-0.011
G1 X-33.373 Y-9.514
X-33.671 Y-9.718
X-34.074 Y-9.992
G3 X-34.213 Y-10.243 I0.179 J-0.262
G1 Y-10.746
X-34.205 Y-10.896
X-34.152 Y-11.036
X-34.07 Y-11.162
X-33.963 Y-11.267
X-33.84 Y-11.353
X-33.637 Y-11.414
X-33.426
X-33.223 Y-11.356
X-33.044 Y-11.242
X-32.906 Y-11.082
X-32.818 Y-10.89
X-32.787 Y-10.681
Y-10.184
G3 X-33.289 Y-9.937 I-0.317 J-0.011
G1 X-33.372 Y-9.995
X-33.677 Y-10.212
X-34.079 Y-10.498
G3 X-34.213 Y-10.746 I0.184 J-0.259
G1 Y-11.227
X-34.205 Y-11.377
X-34.158 Y-11.52
X-34.077 Y-11.646
X-33.974 Y-11.755
X-33.956 Y-11.767
X-33.749 Y-11.869
X-33.521 Y-11.903
X-33.294 Y-11.865
X-33.089 Y-11.759
X-32.927 Y-11.595
X-32.823 Y-11.39
X-32.787 Y-11.162
Y-10.681
G3 X-33.285 Y-10.431 I-0.317 J-0.011
G1 X-33.372 Y-10.491
X-33.673 Y-10.699
X-34.076 Y-10.977
G3 X-34.213 Y-11.227 I0.181 J-0.261
G1 Y-11.701
X-34.205 Y-11.85
X-34.16 Y-11.993
X-34.082 Y-12.122
X-33.978 Y-12.23
X-33.966 Y-12.239
X-33.76 Y-12.345
X-33.531 Y-12.382
X-33.301 Y-12.346
X-33.094 Y-12.241
X-32.93 Y-12.078
X-32.824 Y-11.871
X-32.787 Y-11.641
Y-11.162
G3 X-33.284 Y-10.911 I-0.317 J-0.011
G1 X-33.373 Y-10.972
X-33.671 Y-11.175
X-34.074 Y-11.449
G3 X-34.213 Y-11.701 I0.179 J-0.262
G1 Y-12.203
X-34.205 Y-12.353
X-34.152 Y-12.494
X-34.07 Y-12.619
X-33.963 Y-12.724
X-33.84 Y-12.81
X-33.637 Y-12.871
X-33.426 Y-12.872
X-33.223 Y-12.813
X-33.045 Y-12.699
X-32.906 Y-12.539
X-32.818 Y-12.347
X-32.787 Y-12.138
Y-11.641
G3 X-33.289 Y-11.394 I-0.317 J-0.011
G1 X-33.372 Y-11.452
X-33.677 Y-11.669
X-34.079 Y-11.955
G3 X-34.213 Y-12.203 I0.184 J-0.259
G1 Y-12.684
X-34.205 Y-12.834
X-34.158 Y-12.977
X-34.077 Y-13.103
X-33.974 Y-13.212
X-33.956 Y-13.224
X-33.749 Y-13.326
X-33.521 Y-13.36
X-33.294 Y-13.322
X-33.089 Y-13.216
X-32.927 Y-13.052
X-32.823 Y-12.847
X-32.787 Y-12.619
Y-12.138
G3 X-33.285 Y-11.888 I-0.317 J-0.011
G1 X-33.372 Y-11.948
X-33.673 Y-12.156
X-34.076 Y-12.434
G3 X-34.213 Y-12.684 I0.181 J-0.261
G1 Y-13.158
X-34.205 Y-13.307
X-34.16 Y-13.451
X-34.082 Y-13.579
X-33.978 Y-13.687
X-33.966 Y-13.696
X-33.76 Y-13.802
X-33.531 Y-13.839
X-33.301 Y-13.804
X-33.094 Y-13.699
X-32.93 Y-13.535
X-32.824 Y-13.328
X-32.787 Y-13.098
Y-12.619
G3 X-33.284 Y-12.368 I-0.317 J-0.011
G1 X-33.373 Y-12.429
X-33.671 Y-12.632
X-34.074 Y-12.906
G3 X-34.213 Y-13.158 I0.179 J-0.262
G1 Y-13.66
X-34.205 Y-13.81
X-34.152 Y-13.951
X-34.07 Y-14.076
X-33.963 Y-14.181
X-33.84 Y-14.267
X-33.637 Y-14.328
X-33.426 Y-14.329
X-33.223 Y-14.27
X-33.045 Y-14.156
X-32.906 Y-13.996
X-32.818 Y-13.804
X-32.787 Y-13.595
Y-13.098
G3 X-33.289 Y-12.851 I-0.317 J-0.011
G1 X-33.372 Y-12.91
X-33.677 Y-13.126
X-34.079 Y-13.413
G3 X-34.213 Y-13.66 I0.184 J-0.259
G1 Y-14.141
X-34.205 Y-14.291
X-34.158 Y-14.434
X-34.077 Y-14.56
X-33.974 Y-14.669
X-33.956 Y-14.682
X-33.749 Y-14.784
X-33.521 Y-14.817
X-33.294 Y-14.779
X-33.089 Y-14.673
X-32.927 Y-14.509
X-32.823 Y-14.304
X-32.787 Y-14.076
Y-13.595
G3 X-33.285 Y-13.345 I-0.317 J-0.011
G1 X-33.372 Y-13.405
X-33.673 Y-13.613
X-34.076 Y-13.891
G3 X-34.213 Y-14.141 I0.181 J-0.261
G1 Y-14.615
X-34.205 Y-14.764
X-34.16 Y-14.908
X-34.082 Y-15.036
X-33.978 Y-15.144
X-33.966 Y-15.153
X-33.76 Y-15.259
X-33.531 Y-15.296
X-33.301 Y-15.261
X-33.094 Y-15.156
X-32.93 Y-14.992
X-32.824 Y-14.785
X-32.787 Y-14.555
Y-14.076
G3 X-33.284 Y-13.825 I-0.317 J-0.011
G1 X-33.373 Y-13.886
X-33.671 Y-14.089
X-34.074 Y-14.363
G3 X-34.213 Y-14.615 I0.179 J-0.262
G1 Y-15.117
X-34.205 Y-15.267
X-34.152 Y-15.408
X-34.07 Y-15.533
X-33.963 Y-15.638
X-33.84 Y-15.724
X-33.637 Y-15.785
X-33.426 Y-15.786
X-33.223 Y-15.727
X-33.045 Y-15.613
X-32.906 Y-15.454
X-32.818 Y-15.261
X-32.787 Y-15.052
Y-14.555
G3 X-33.289 Y-14.308 I-0.317 J-0.011
G1 X-33.372 Y-14.367
X-33.677 Y-14.583
X-34.079 Y-14.87
G3 X-34.213 Y-15.117 I0.184 J-0.259
G1 Y-15.599
X-34.205 Y-15.748
X-34.158 Y-15.891
X-34.077 Y-16.017
X-33.974 Y-16.126
X-33.956 Y-16.139
X-33.749 Y-16.241
X-33.521 Y-16.274
X-33.294 Y-16.236
X-33.089 Y-16.13
X-32.927 Y-15.967
X-32.823 Y-15.761
X-32.787 Y-15.533
Y-15.052
G3 X-33.285 Y-14.802 I-0.317 J-0.011
G1 X-33.372 Y-14.862
X-33.673 Y-15.07
X-34.076 Y-15.348
G3 X-34.213 Y-15.599 I0.181 J-0.261
G1 Y-16.072
X-34.205 Y-16.222
X-34.16 Y-16.365
X-34.082 Y-16.493
X-33.978 Y-16.601
X-33.966 Y-16.61
X-33.76 Y-16.716
X-33.531 Y-16.753
X-33.301 Y-16.718
X-33.094 Y-16.613
X-32.93 Y-16.449
X-32.824 Y-16.242
X-32.787 Y-16.013
Y-15.533
G3 X-33.284 Y-15.282 I-0.317 J-0.011
G1 X-33.373 Y-15.343
X-33.671 Y-15.546
X-34.074 Y-15.82
G3 X-34.213 Y-16.072 I0.179 J-0.262
G1 Y-16.574
X-34.205 Y-16.724
X-34.152 Y-16.865
X-34.07 Y-16.99
X-33.963 Y-17.095
X-33.84 Y-17.181
X-33.637 Y-17.242
X-33.426 Y-17.243
X-33.223 Y-17.184
X-33.045 Y-17.07
X-32.906 Y-16.911
X-32.818 Y-16.718
X-32.787 Y-16.509
Y-16.013
G3 X-33.289 Y-15.765 I-0.317 J-0.011
G1 X-33.372 Y-15.824
X-33.677 Y-16.04
X-34.079 Y-16.327
G3 X-34.213 Y-16.574 I0.184 J-0.259
G1 Y-17.056
X-34.205 Y-17.205
X-34.158 Y-17.348
X-34.077 Y-17.474
X-33.974 Y-17.583
X-33.956 Y-17.596
X-33.749 Y-17.698
X-33.521 Y-17.731
X-33.294 Y-17.693
X-33.089 Y-17.587
X-32.927 Y-17.424
X-32.823 Y-17.218
X-32.787 Y-16.99
Y-16.509
G3 X-33.285 Y-16.259 I-0.317 J-0.011
G1 X-33.372 Y-16.319
X-33.673 Y-16.527
X-34.076 Y-16.806
G3 X-34.213 Y-17.056 I0.181 J-0.261
G1 Y-17.529
X-34.205 Y-17.679
X-34.16 Y-17.822
X-34.082 Y-17.95
X-33.978 Y-18.058
X-33.966 Y-18.067
X-33.76 Y-18.173
X-33.531 Y-18.21
X-33.301 Y-18.175
X-33.094 Y-18.07
X-32.93 Y-17.906
X-32.824 Y-17.699
X-32.787 Y-17.47
Y-16.99
G3 X-33.284 Y-16.739 I-0.317 J-0.011
G1 X-33.373 Y-16.8
X-33.671 Y-17.003
X-34.074 Y-17.277
G3 X-34.213 Y-17.529 I0.179 J-0.262
G1 Y-18.031
X-34.205 Y-18.181
X-34.152 Y-18.322
X-34.07 Y-18.447
X-33.963 Y-18.552
X-33.84 Y-18.638
X-33.637 Y-18.699
X-33.426 Y-18.7
X-33.223 Y-18.641
X-33.045 Y-18.527
X-32.906 Y-18.368
X-32.818 Y-18.175
X-32.787 Y-17.966
Y-17.47
G3 X-33.289 Y-17.222 I-0.317 J-0.011
G1 X-33.372 Y-17.281
X-33.677 Y-17.498
X-34.079 Y-17.784
G3 X-34.213 Y-18.031 I0.184 J-0.259
G1 Y-18.513
X-34.205 Y-18.662
X-34.158 Y-18.805
X-34.077 Y-18.931
X-33.974 Y-19.04
X-33.956 Y-19.053
X-33.749 Y-19.155
X-33.521 Y-19.188
X-33.294 Y-19.15
X-33.089 Y-19.044
X-32.927 Y-18.881
X-32.823 Y-18.675
X-32.787 Y-18.448
Y-17.966
G3 X-33.285 Y-17.716 I-0.317 J-0.011
G1 X-33.372 Y-17.776
X-33.673 Y-17.984
X-34.076 Y-18.263
G3 X-34.213 Y-18.513 I0.181 J-0.261
G1 Y-18.986
X-34.205 Y-19.136
X-34.16 Y-19.279
X-34.082 Y-19.407
X-33.978 Y-19.515
X-33.966 Y-19.524
X-33.76 Y-19.63
X-33.531 Y-19.668
X-33.301 Y-19.632
X-33.094 Y-19.527
X-32.93 Y-19.363
X-32.824 Y-19.156
X-32.787 Y-18.927
Y-18.448
G3 X-33.284 Y-18.196 I-0.317 J-0.011
G1 X-33.373 Y-18.257
X-33.671 Y-18.46
X-34.074 Y-18.734
G3 X-34.213 Y-18.986 I0.179 J-0.262
G1 Y-19.489
X-34.205 Y-19.638
X-34.152 Y-19.779
X-34.07 Y-19.904
X-33.963 Y-20.009
X-33.84 Y-20.095
X-33.637 Y-20.156
X-33.426 Y-20.157
X-33.223 Y-20.098
X-33.045 Y-19.984
X-32.906 Y-19.825
X-32.818 Y-19.632
X-32.787 Y-19.423
Y-18.927
G3 X-33.289 Y-18.679 I-0.317 J-0.011
G1 X-33.372 Y-18.738
X-33.677 Y-18.955
X-34.079 Y-19.241
G3 X-34.213 Y-19.489 I0.184 J-0.259
G1 Y-19.97
X-34.205 Y-20.12
X-34.158 Y-20.262
X-34.077 Y-20.388
X-33.974 Y-20.497
X-33.956 Y-20.51
X-33.749 Y-20.612
X-33.521 Y-20.645
X-33.294 Y-20.607
X-33.089 Y-20.501
X-32.927 Y-20.338
X-32.823 Y-20.132
X-32.787 Y-19.905
Y-19.423
G3 X-33.285 Y-19.173 I-0.317 J-0.011
G1 X-33.372 Y-19.233
X-33.673 Y-19.441
X-34.076 Y-19.72
G3 X-34.213 Y-19.97 I0.181 J-0.261
G1 Y-20.443
X-34.205 Y-20.593
X-34.16 Y-20.736
X-34.082 Y-20.864
X-33.978 Y-20.972
X-33.966 Y-20.981
X-33.76 Y-21.087
X-33.531 Y-21.125
X-33.301 Y-21.089
X-33.094 Y-20.984
X-32.93 Y-20.82
X-32.824 Y-20.613
X-32.787 Y-20.384
Y-19.905
G3 X-33.284 Y-19.653 I-0.317 J-0.011
G1 X-33.373 Y-19.714
X-33.671 Y-19.917
X-34.074 Y-20.192
G3 X-34.213 Y-20.443 I0.179 J-0.262
G1 Y-20.946
X-34.205 Y-21.095
X-34.152 Y-21.236
X-34.07 Y-21.361
X-33.963 Y-21.466
X-33.84 Y-21.552
X-33.637 Y-21.613
X-33.426 Y-21.614
X-33.223 Y-21.555
X-33.045 Y-21.441
X-32.906 Y-21.282
X-32.818 Y-21.09
X-32.787 Y-20.88
Y-20.384
G3 X-33.289 Y-20.136 I-0.317 J-0.011
G1 X-33.372 Y-20.195
X-33.677 Y-20.412
X-34.079 Y-20.698
G3 X-34.213 Y-20.946 I0.184 J-0.259
G1 Y-21.427
X-34.205 Y-21.577
X-34.158 Y-21.719
X-34.077 Y-21.845
X-33.974 Y-21.954
X-33.956 Y-21.967
X-33.749 Y-22.069
X-33.521 Y-22.102
X-33.294 Y-22.064
X-33.089 Y-21.958
X-32.927 Y-21.795
X-32.823 Y-21.589
X-32.787 Y-21.362
Y-20.88
G3 X-33.285 Y-20.63 I-0.317 J-0.011
G1 X-33.372 Y-20.69
X-33.673 Y-20.898
X-34.076 Y-21.177
G3 X-34.213 Y-21.427 I0.181 J-0.261
G1 Y-21.9
X-34.205 Y-22.05
X-34.16 Y-22.193
X-34.082 Y-22.321
X-33.978 Y-22.429
X-33.966 Y-22.438
X-33.76 Y-22.544
X-33.531 Y-22.582
X-33.301 Y-22.546
X-33.094 Y-22.441
X-32.93 Y-22.277
X-32.824 Y-22.07
X-32.787 Y-21.841
Y-21.362
G3 X-33.284 Y-21.11 I-0.317 J-0.011
G1 X-33.373 Y-21.171
X-33.671 Y-21.374
X-34.074 Y-21.649
G3 X-34.213 Y-21.9 I0.179 J-0.262
G1 Y-22.403
X-34.205 Y-22.552
X-34.152 Y-22.693
X-34.07 Y-22.819
X-33.963 Y-22.924
X-33.84 Y-23.01
X-33.637 Y-23.07
X-33.426 Y-23.071
X-33.223 Y-23.012
X-33.045 Y-22.898
X-32.906 Y-22.739
X-32.818 Y-22.547
X-32.787 Y-22.337
Y-21.841
G3 X-33.289 Y-21.593 I-0.317 J-0.011
G1 X-33.372 Y-21.652
X-33.677 Y-21.869
X-34.079 Y-22.155
G3 X-34.213 Y-22.403 I0.184 J-0.259
G1 Y-22.884
X-34.205 Y-23.034
X-34.158 Y-23.176
X-34.077 Y-23.303
X-33.974 Y-23.411
X-33.956 Y-23.424
X-33.749 Y-23.526
X-33.521 Y-23.56
X-33.294 Y-23.521
X-33.089 Y-23.416
X-32.927 Y-23.252
X-32.823 Y-23.046
X-32.787 Y-22.819
Y-22.337
G3 X-33.285 Y-22.087 I-0.317 J-0.011
G1 X-33.372 Y-22.147
X-33.673 Y-22.355
X-34.076 Y-22.634
G3 X-34.213 Y-22.884 I0.181 J-0.261
G1 Y-23.357
X-34.205 Y-23.507
X-34.16 Y-23.65
X-34.082 Y-23.778
X-33.978 Y-23.886
X-33.966 Y-23.895
X-33.76 Y-24.002
X-33.531 Y-24.039
X-33.301 Y-24.003
X-33.094 Y-23.898
X-32.93 Y-23.734
X-32.824 Y-23.527
X-32.787 Y-23.298
Y-22.819
G3 X-33.284 Y-22.567 I-0.317 J-0.011
G1 X-33.373 Y-22.628
X-33.671 Y-22.831
X-34.074 Y-23.106
G3 X-34.213 Y-23.357 I0.179 J-0.262
G1 Y-23.86
X-34.205 Y-24.01
X-34.152 Y-24.15
X-34.07 Y-24.276
X-33.963 Y-24.381
X-33.84 Y-24.467
X-33.637 Y-24.527
X-33.426 Y-24.528
X-33.223 Y-24.469
X-33.045 Y-24.355
X-32.906 Y-24.196
X-32.818 Y-24.004
X-32.787 Y-23.794
Y-23.298
G3 X-33.289 Y-23.05 I-0.317 J-0.011
G1 X-33.372 Y-23.109
X-33.677 Y-23.326
X-34.079 Y-23.612
G3 X-34.213 Y-23.86 I0.184 J-0.259
G1 Y-24.341
X-34.205 Y-24.491
X-34.158 Y-24.633
X-34.077 Y-24.76
X-33.974 Y-24.868
X-33.956 Y-24.881
X-33.749 Y-24.983
X-33.521 Y-25.017
X-33.294 Y-24.979
X-33.089 Y-24.873
X-32.927 Y-24.709
X-32.823 Y-24.503
X-32.787 Y-24.276
Y-23.794
G3 X-33.285 Y-23.544 I-0.317 J-0.011
G1 X-33.372 Y-23.604
X-33.673 Y-23.812
X-34.076 Y-24.091
G3 X-34.213 Y-24.341 I0.181 J-0.261
G1 Y-24.814
X-34.205 Y-24.964
X-34.16 Y-25.107
X-34.082 Y-25.235
X-33.978 Y-25.344
X-33.966 Y-25.352
X-33.76 Y-25.459
X-33.531 Y-25.496
X-33.301 Y-25.46
X-33.094 Y-25.355
X-32.93 Y-25.191
X-32.824 Y-24.984
X-32.787 Y-24.755
Y-24.276
G3 X-33.284 Y-24.024 I-0.317 J-0.011
G1 X-33.373 Y-24.085
X-33.671 Y-24.288
X-34.074 Y-24.563
G3 X-34.213 Y-24.814 I0.179 J-0.262
G1 Y-25.317
X-34.205 Y-25.467
X-34.152 Y-25.607
X-34.07 Y-25.733
X-33.963 Y-25.838
X-33.84 Y-25.924
X-33.637 Y-25.984
X-33.426 Y-25.985
X-33.223 Y-25.926
X-33.045 Y-25.812
X-32.906 Y-25.653
X-32.818 Y-25.461
X-32.787 Y-25.251
Y-24.755
G3 X-33.289 Y-24.507 I-0.317 J-0.011
G1 X-33.372 Y-24.566
X-33.677 Y-24.783
X-34.079 Y-25.069
G3 X-34.213 Y-25.317 I0.184 J-0.259
G1 Y-25.798
X-34.205 Y-25.948
X-34.158 Y-26.09
X-34.077 Y-26.217
X-33.974 Y-26.325
X-33.956 Y-26.338
X-33.749 Y-26.44
X-33.521 Y-26.474
X-33.294 Y-26.436
X-33.089 Y-26.33
X-32.927 Y-26.166
X-32.823 Y-25.96
X-32.787 Y-25.733
Y-25.251
G3 X-33.285 Y-25.001 I-0.317 J-0.011
G1 X-33.372 Y-25.061
X-33.673 Y-25.269
X-34.076 Y-25.548
G3 X-34.213 Y-25.798 I0.181 J-0.261
G1 Y-26.271
X-34.205 Y-26.421
X-34.16 Y-26.564
X-34.082 Y-26.692
X-33.978 Y-26.801
X-33.966 Y-26.809
X-33.76 Y-26.916
X-33.531 Y-26.953
X-33.301 Y-26.917
X-33.094 Y-26.812
X-32.93 Y-26.648
X-32.824 Y-26.441
X-32.787 Y-26.212
Y-25.733
G3 X-33.284 Y-25.481 I-0.317 J-0.011
G1 X-33.373 Y-25.542
X-33.671 Y-25.745
X-34.074 Y-26.02
G3 X-34.213 Y-26.271 I0.179 J-0.262
G1 Y-26.774
X-34.205 Y-26.924
X-34.152 Y-27.064
X-34.07 Y-27.19
X-33.963 Y-27.295
X-33.84 Y-27.381
X-33.637 Y-27.441
X-33.426 Y-27.442
X-33.223 Y-27.383
X-33.045 Y-27.27
X-32.906 Y-27.11
X-32.818 Y-26.918
X-32.787 Y-26.709
Y-26.212
G3 X-33.289 Y-25.964 I-0.317 J-0.011
G1 X-33.372 Y-26.023
X-33.677 Y-26.24
X-34.079 Y-26.526
G3 X-34.213 Y-26.774 I0.184 J-0.259
G1 Y-27.255
X-34.205 Y-27.405
X-34.158 Y-27.547
X-34.077 Y-27.674
X-33.974 Y-27.782
X-33.956 Y-27.795
X-33.749 Y-27.897
X-33.521 Y-27.931
X-33.294 Y-27.893
X-33.089 Y-27.787
X-32.927 Y-27.623
X-32.823 Y-27.417
X-32.787 Y-27.19
Y-26.709
G3 X-33.285 Y-26.458 I-0.317 J-0.011
G1 X-33.372 Y-26.519
X-33.673 Y-26.726
X-34.076 Y-27.005
G3 X-34.213 Y-27.255 I0.181 J-0.261
G1 Y-27.728
X-34.205 Y-27.878
X-34.16 Y-28.021
X-34.082 Y-28.149
X-33.978 Y-28.258
X-33.966 Y-28.266
X-33.76 Y-28.373
X-33.531 Y-28.41
X-33.301 Y-28.374
X-33.094 Y-28.269
X-32.93 Y-28.105
X-32.824 Y-27.898
X-32.787 Y-27.669
Y-27.19
G3 X-33.284 Y-26.939 I-0.317 J-0.011
G1 X-33.373 Y-26.999
X-33.671 Y-27.202
X-34.074 Y-27.477
G3 X-34.213 Y-27.728 I0.179 J-0.262
G1 Y-28.231
X-34.205 Y-28.381
X-34.152 Y-28.521
X-34.07 Y-28.647
X-33.963 Y-28.752
X-33.84 Y-28.838
X-33.637 Y-28.898
X-33.426 Y-28.899
X-33.223 Y-28.84
X-33.045 Y-28.727
X-32.906 Y-28.567
X-32.818 Y-28.375
X-32.787 Y-28.166
Y-27.669
G3 X-33.289 Y-27.421 I-0.317 J-0.011
G1 X-33.372 Y-27.48
X-33.677 Y-27.697
X-34.079 Y-27.983
G3 X-34.213 Y-28.231 I0.184 J-0.259
G1 Y-28.712
X-34.205 Y-28.862
X-34.158 Y-29.004
X-34.077 Y-29.131
X-33.974 Y-29.239
X-33.956 Y-29.252
X-33.749 Y-29.354
X-33.521 Y-29.388
X-33.294 Y-29.35
X-33.089 Y-29.244
X-32.927 Y-29.08
X-32.823 Y-28.875
X-32.787 Y-28.647
Y-28.166
G3 X-33.285 Y-27.916 I-0.317 J-0.011
G1 X-33.372 Y-27.976
X-33.673 Y-28.183
X-34.076 Y-28.462
G3 X-34.213 Y-28.712 I0.181 J-0.261
G1 Y-29.185
X-34.205 Y-29.335
X-34.16 Y-29.478
X-34.082 Y-29.606
X-33.978 Y-29.715
X-33.966 Y-29.724
X-33.76 Y-29.83
X-33.531 Y-29.867
X-33.301 Y-29.831
X-33.094 Y-29.726
X-32.93 Y-29.562
X-32.824 Y-29.355
X-32.787 Y-29.126
Y-28.647
G3 X-33.284 Y-28.396 I-0.317 J-0.011
G1 X-33.373 Y-28.456
X-33.671 Y-28.659
X-34.074 Y-28.934
G3 X-34.213 Y-29.185 I0.179 J-0.262
G1 Y-29.688
X-34.205 Y-29.838
X-34.152 Y-29.978
X-34.07 Y-30.104
X-33.963 Y-30.209
X-33.84 Y-30.295
X-33.637 Y-30.355
X-33.426 Y-30.356
X-33.223 Y-30.297
X-33.045 Y-30.184
X-32.906 Y-30.024
X-32.818 Y-29.832
X-32.787 Y-29.623
Y-29.126
G3 X-33.289 Y-28.878 I-0.317 J-0.011
G1 X-33.372 Y-28.937
X-33.677 Y-29.154
X-34.079 Y-29.44
G3 X-34.213 Y-29.688 I0.184 J-0.259
G1 Y-30.169
X-34.205 Y-30.319
X-34.158 Y-30.461
X-34.077 Y-30.588
X-33.974 Y-30.696
X-33.956 Y-30.709
X-33.749 Y-30.811
X-33.521 Y-30.845
X-33.294 Y-30.807
X-33.089 Y-30.701
X-32.927 Y-30.537
X-32.823 Y-30.332
X-32.787 Y-30.104
Y-29.623
G3 X-33.285 Y-29.373 I-0.317 J-0.011
G1 X-33.372 Y-29.433
X-33.673 Y-29.64
X-34.076 Y-29.919
G3 X-34.213 Y-30.169 I0.181 J-0.261
G1 Y-30.642
X-34.205 Y-30.792
X-34.16 Y-30.935
X-34.082 Y-31.063
X-33.978 Y-31.172
X-33.966 Y-31.181
X-33.76 Y-31.287
X-33.531 Y-31.324
X-33.301 Y-31.288
X-33.094 Y-31.183
X-32.93 Y-31.019
X-32.824 Y-30.813
X-32.787 Y-30.583
Y-30.104
G3 X-33.284 Y-29.853 I-0.317 J-0.011
G1 X-33.373 Y-29.913
X-33.671 Y-30.117
X-34.074 Y-30.391
G3 X-34.213 Y-30.642 I0.179 J-0.262
G1 Y-31.145
X-34.205 Y-31.295
X-34.152 Y-31.435
X-34.07 Y-31.561
X-33.963 Y-31.666
X-33.84 Y-31.752
X-33.637 Y-31.812
X-33.426 Y-31.813
X-33.223 Y-31.755
X-33.045 Y-31.641
X-32.906 Y-31.481
X-32.818 Y-31.289
X-32.787 Y-31.08
Y-30.583
G3 X-33.289 Y-30.335 I-0.317 J-0.011
G1 X-33.372 Y-30.394
X-33.677 Y-30.611
X-34.079 Y-30.897
G3 X-34.213 Y-31.145 I0.184 J-0.259
G1 Y-31.626
X-34.205 Y-31.776
X-34.158 Y-31.919
X-34.077 Y-32.045
X-33.974 Y-32.153
X-33.956 Y-32.166
X-33.749 Y-32.268
X-33.521 Y-32.302
X-33.294 Y-32.264
X-33.089 Y-32.158
X-32.927 Y-31.994
X-32.823 Y-31.789
X-32.787 Y-31.561
Y-31.08
G3 X-33.285 Y-30.83 I-0.317 J-0.011
G1 X-33.372 Y-30.89
X-33.673 Y-31.098
X-34.076 Y-31.376
G3 X-34.213 Y-31.626 I0.181 J-0.261
G1 Y-32.099
X-34.205 Y-32.249
X-34.16 Y-32.392
X-34.082 Y-32.52
X-33.978 Y-32.629
X-33.966 Y-32.638
X-33.76 Y-32.744
X-33.531 Y-32.781
X-33.301 Y-32.745
X-33.094 Y-32.64
X-32.93 Y-32.476
X-32.824 Y-32.27
X-32.787 Y-32.04
Y-31.561
G3 X-33.284 Y-31.31 I-0.317 J-0.011
G1 X-33.373 Y-31.37
X-33.671 Y-31.574
X-34.074 Y-31.848
G3 X-34.213 Y-32.099 I0.179 J-0.262
G1 Y-32.602
X-34.205 Y-32.752
X-34.152 Y-32.892
X-34.07 Y-33.018
X-33.963 Y-33.123
X-33.84 Y-33.209
X-33.637 Y-33.27
X-33.426
X-33.223 Y-33.212
X-33.045 Y-33.098
X-32.906 Y-32.938
X-32.818 Y-32.746
X-32.787 Y-32.537
Y-32.04
G3 X-33.289 Y-31.793 I-0.317 J-0.011
G1 X-33.372 Y-31.851
X-33.677 Y-32.068
X-34.079 Y-32.354
G3 X-34.213 Y-32.602 I0.184 J-0.259
G1 Y-33.083
X-34.205 Y-33.233
X-34.158 Y-33.376
X-34.077 Y-33.502
X-33.974 Y-33.61
X-33.956 Y-33.623
X-33.749 Y-33.725
X-33.521 Y-33.759
X-33.294 Y-33.721
X-33.089 Y-33.615
X-32.927 Y-33.451
X-32.823 Y-33.246
X-32.787 Y-33.018
Y-32.537
G3 X-33.285 Y-32.287 I-0.317 J-0.011
G1 X-33.372 Y-32.347
X-33.673 Y-32.555
X-34.076 Y-32.833
G3 X-34.213 Y-33.083 I0.181 J-0.261
G1 Y-33.556
X-34.205 Y-33.706
X-34.171 Y-33.852
X-34.102 Y-33.985
X-34.003 Y-34.102
X-33.798 Y-34.224
X-33.564 Y-34.273
X-33.327 Y-34.246
X-33.11 Y-34.145
X-32.937 Y-33.98
X-32.826 Y-33.769
X-32.787 Y-33.533
Y-33.018
G3 X-33.284 Y-32.767 I-0.317 J-0.011
G1 X-33.373 Y-32.828
X-33.671 Y-33.031
X-34.074 Y-33.305
G3 X-34.213 Y-33.556 I0.179 J-0.262
G1 Y-35.451
X-34.203 Y-35.518
X-34.179 Y-35.581
X-33.89 Y-36.163
X-33.389 Y-37.169
G3 X-32.787 Y-37.039 I0.284 J0.141
G1 Y-33.533
G3 X-33.085 Y-33.228 I-0.317 J-0.011
G1 X-33.105 Y-33.227 Z-0.499
X-33.158 Y-33.24 Z-0.491
X-33.209 Y-33.253 Z-0.473
X-33.256 Y-33.265 Z-0.446
X-33.292 Y-33.297 Z-0.406
X-33.321 Y-33.322 Z-0.358
X-33.343 Y-33.341 Z-0.303
X-33.356 Y-33.353 Z-0.244
X-33.361 Y-33.357 Z-0.183
Z5
X-33.245 Y2.64
Z-0.365
Z-0.683
X-33.247 Y2.633 Z-0.753
X-33.253 Y2.61 Z-0.82
X-33.263 Y2.573 Z-0.88
X-33.275 Y2.524 Z-0.931
X-33.29 Y2.466 Z-0.969
X-33.307 Y2.401 Z-0.992
X-33.324 Y2.333 Z-1
G3 X-33.573 Y0.604 I7.852 J-2.011
G1 Y0.454
X-33.44 Y0.332
X-33.269 Y0.274
X-33.089 Y0.291
X-32.932 Y0.381
X-32.825 Y0.526
X-32.787 Y0.703
G3 X-33.138 Y1.008 I-0.317 J-0.011
G1 X-33.401 Y0.98
X-33.599 Y0.959
X-33.929 Y0.924
G3 X-34.213 Y0.619 I0.034 J-0.316
G1 Y0.283
X-34.209 Y0.209
X-34.128 Y0.082
X-34.031 Y-0.032
X-34.02 Y-0.041
X-33.843 Y-0.158
X-33.641 Y-0.22
X-33.429 Y-0.222
X-33.225 Y-0.163
X-33.046 Y-0.05
X-32.906 Y0.11
X-32.818 Y0.303
X-32.787 Y0.512
G3 X-33.193 Y0.806 I-0.317 J-0.011
G1 X-33.393 Y0.748
X-33.612 Y0.685
X-33.984 Y0.577
G3 X-34.213 Y0.283 I0.088 J-0.305
G1 Y-0.11
X-34.205 Y-0.259
X-34.14 Y-0.394
X-34.046 Y-0.512
X-33.933 Y-0.61
X-33.909 Y-0.624
X-33.703 Y-0.709
X-33.482 Y-0.728
X-33.264 Y-0.681
X-33.07 Y-0.571
X-32.918 Y-0.409
X-32.821 Y-0.209
X-32.787 Y0.011
G3 X-33.153 Y0.314 I-0.317 J-0.011
G1 X-33.4 Y0.276
X-33.601 Y0.245
X-33.943 Y0.193
G3 X-34.213 Y-0.11 I0.048 J-0.314
G1 Y-0.547
X-34.205 Y-0.697
X-34.156 Y-0.838
X-34.073 Y-0.964
X-33.968 Y-1.07
X-33.952 Y-1.081
X-33.745 Y-1.182
X-33.518 Y-1.214
X-33.291 Y-1.175
X-33.088 Y-1.069
X-32.926 Y-0.905
X-32.823 Y-0.7
X-32.787 Y-0.473
G3 X-33.134 Y-0.168 I-0.317 J-0.011
G1 X-33.401 Y-0.193
X-33.599 Y-0.211
X-33.925 Y-0.242
G3 X-34.213 Y-0.547 I0.029 J-0.316
G1 Y-1.028
X-34.205 Y-1.178
X-34.155 Y-1.319
X-34.074 Y-1.445
X-33.968 Y-1.552
X-33.956 Y-1.56
X-33.749 Y-1.662
X-33.521 Y-1.696
X-33.294 Y-1.658
X-33.09 Y-1.552
X-32.927 Y-1.388
X-32.823 Y-1.183
X-32.787 Y-0.955
G3 X-33.134 Y-0.65 I-0.317 J-0.011
G1 X-33.401 Y-0.675
X-33.599 Y-0.693
X-33.924 Y-0.723
G3 X-34.213 Y-1.028 I0.029 J-0.316
G1 Y-1.501
X-34.205 Y-1.651
X-34.158 Y-1.793
X-34.078 Y-1.921
X-33.974 Y-2.028
X-33.962 Y-2.036
X-33.755 Y-2.141
X-33.527 Y-2.176
X-33.298 Y-2.14
X-33.092 Y-2.034
X-32.929 Y-1.87
X-32.824 Y-1.664
X-32.787 Y-1.436
Y-0.955
G3 X-33.285 Y-0.705 I-0.317 J-0.011
G1 X-33.372 Y-0.765
X-33.673 Y-0.973
X-34.076 Y-1.251
G3 X-34.213 Y-1.501 I0.18 J-0.261
G1 Y-2.004
X-34.205 Y-2.154
X-34.151 Y-2.293
X-34.068 Y-2.418
X-33.96 Y-2.522
X-33.836 Y-2.608
X-33.633 Y-2.667
X-33.423
X-33.22 Y-2.607
X-33.043 Y-2.493
X-32.905 Y-2.334
X-32.817 Y-2.142
X-32.787 Y-1.933
Y-1.436
G3 X-33.29 Y-1.189 I-0.317 J-0.011
G1 X-33.371 Y-1.247
X-33.678 Y-1.468
X-34.081 Y-1.757
G3 X-34.213 Y-2.004 I0.185 J-0.258
G1 Y-2.485
X-34.205 Y-2.635
X-34.157 Y-2.777
X-34.075 Y-2.903
X-33.971 Y-3.01
X-33.952 Y-3.023
X-33.746 Y-3.124
X-33.518 Y-3.157
X-33.292 Y-3.118
X-33.088 Y-3.012
X-32.927 Y-2.848
X-32.823 Y-2.643
X-32.787 Y-2.416
Y-1.933
G3 X-33.286 Y-1.684 I-0.317 J-0.011
G1 X-33.372 Y-1.744
X-33.674 Y-1.955
X-34.077 Y-2.236
G3 X-34.213 Y-2.485 I0.182 J-0.26
G1 Y-2.958
X-34.205 Y-3.108
X-34.159 Y-3.251
X-34.08 Y-3.378
X-33.976 Y-3.486
X-33.964 Y-3.495
X-33.757 Y-3.6
X-33.528 Y-3.637
X-33.299 Y-3.6
X-33.093 Y-3.495
X-32.929 Y-3.331
X-32.824 Y-3.125
X-32.787 Y-2.896
Y-2.416
G3 X-33.284 Y-2.165 I-0.317 J-0.011
G1 X-33.373 Y-2.226
X-33.672 Y-2.431
X-34.075 Y-2.707
G3 X-34.213 Y-2.958 I0.18 J-0.262
G1 Y-3.461
X-34.205 Y-3.611
X-34.152 Y-3.751
X-34.069 Y-3.876
X-33.962 Y-3.981
X-33.838 Y-4.066
X-33.635 Y-4.126
X-33.424 Y-4.127
X-33.222 Y-4.067
X-33.044 Y-3.953
X-32.905 Y-3.794
X-32.818 Y-3.602
X-32.787 Y-3.393
Y-2.896
G3 X-33.289 Y-2.649 I-0.317 J-0.011
G1 X-33.371 Y-2.707
X-33.677 Y-2.926
X-34.08 Y-3.214
G3 X-34.213 Y-3.461 I0.185 J-0.258
G1 Y-3.942
X-34.205 Y-4.092
X-34.158 Y-4.234
X-34.076 Y-4.36
X-33.972 Y-4.468
X-33.954 Y-4.481
X-33.747 Y-4.583
X-33.52 Y-4.616
X-33.293 Y-4.577
X-33.089 Y-4.471
X-32.927 Y-4.308
X-32.823 Y-4.102
X-32.787 Y-3.875
Y-3.393
G3 X-33.286 Y-3.143 I-0.317 J-0.011
G1 X-33.372 Y-3.203
X-33.673 Y-3.413
X-34.076 Y-3.692
G3 X-34.213 Y-3.942 I0.181 J-0.261
G1 Y-4.415
X-34.205 Y-4.565
X-34.16 Y-4.708
X-34.081 Y-4.836
X-33.977 Y-4.944
X-33.965 Y-4.953
X-33.759 Y-5.059
X-33.53 Y-5.095
X-33.3 Y-5.059
X-33.093 Y-4.954
X-32.929 Y-4.79
X-32.824 Y-4.584
X-32.787 Y-4.355
Y-3.875
G3 X-33.284 Y-3.624 I-0.317 J-0.011
G1 X-33.373 Y-3.685
X-33.671 Y-3.889
X-34.074 Y-4.164
G3 X-34.213 Y-4.415 I0.179 J-0.262
G1 Y-4.918
X-34.205 Y-5.068
X-34.152 Y-5.208
X-34.07 Y-5.333
X-33.962 Y-5.438
X-33.839 Y-5.524
X-33.636 Y-5.584
X-33.425 Y-5.585
X-33.222 Y-5.526
X-33.044 Y-5.412
X-32.906 Y-5.253
X-32.818 Y-5.06
X-32.787 Y-4.851
Y-4.355
G3 X-33.289 Y-4.107 I-0.317 J-0.011
G1 X-33.371 Y-4.166
X-33.677 Y-4.383
X-34.079 Y-4.67
G3 X-34.213 Y-4.918 I0.184 J-0.259
G1 Y-5.399
X-34.205 Y-5.549
X-34.158 Y-5.691
X-34.077 Y-5.818
X-33.973 Y-5.926
X-33.955 Y-5.939
X-33.748 Y-6.04
X-33.52 Y-6.074
X-33.293 Y-6.036
X-33.089 Y-5.93
X-32.927 Y-5.766
X-32.823 Y-5.56
X-32.787 Y-5.333
Y-4.851
G3 X-33.286 Y-4.601 I-0.317 J-0.011
G1 X-33.372 Y-4.661
X-33.673 Y-4.87
X-34.076 Y-5.149
G3 X-34.213 Y-5.399 I0.181 J-0.261
G1 Y-5.872
X-34.205 Y-6.022
X-34.16 Y-6.165
X-34.082 Y-6.293
X-33.978 Y-6.401
X-33.966 Y-6.41
X-33.759 Y-6.516
X-33.53 Y-6.553
X-33.301 Y-6.517
X-33.094 Y-6.412
X-32.929 Y-6.248
X-32.824 Y-6.042
X-32.787 Y-5.812
Y-5.333
G3 X-33.284 Y-5.082 I-0.317 J-0.011
G1 X-33.373 Y-5.142
X-33.671 Y-5.346
X-34.074 Y-5.621
G3 X-34.213 Y-5.872 I0.179 J-0.262
G1 Y-6.375
X-34.205 Y-6.525
X-34.152 Y-6.665
X-34.07 Y-6.791
X-33.963 Y-6.896
X-33.839 Y-6.981
X-33.637 Y-7.042
X-33.425 Y-7.043
X-33.222 Y-6.984
X-33.044 Y-6.87
X-32.906 Y-6.71
X-32.818 Y-6.518
X-32.787 Y-6.309
Y-5.812
G3 X-33.289 Y-5.565 I-0.317 J-0.011
G1 X-33.371 Y-5.624
X-33.677 Y-5.841
X-34.079 Y-6.127
G3 X-34.213 Y-6.375 I0.184 J-0.259
G1 Y-6.856
X-34.205 Y-7.006
X-34.158 Y-7.148
X-34.077 Y-7.275
X-33.973 Y-7.383
X-33.955 Y-7.396
X-33.749 Y-7.498
X-33.521 Y-7.531
X-33.294 Y-7.493
X-33.089 Y-7.387
X-32.927 Y-7.224
X-32.823 Y-7.018
X-32.787 Y-6.791
Y-6.309
G3 X-33.286 Y-6.059 I-0.317 J-0.011
G1 X-33.372 Y-6.119
X-33.673 Y-6.327
X-34.076 Y-6.606
G3 X-34.213 Y-6.856 I0.181 J-0.261
G1 Y-7.329
X-34.205 Y-7.479
X-34.16 Y-7.622
X-34.082 Y-7.75
X-33.978 Y-7.859
X-33.966 Y-7.867
X-33.76 Y-7.974
X-33.53 Y-8.011
X-33.301 Y-7.975
X-33.094 Y-7.87
X-32.929 Y-7.706
X-32.824 Y-7.499
X-32.787 Y-7.27
Y-6.791
G3 X-33.284 Y-6.539 I-0.317 J-0.011
G1 X-33.373 Y-6.6
X-33.671 Y-6.803
X-34.074 Y-7.078
G3 X-34.213 Y-7.329 I0.179 J-0.262
G1 Y-7.832
X-34.205 Y-7.982
X-34.152 Y-8.122
X-34.07 Y-8.248
X-33.963 Y-8.353
X-33.84 Y-8.439
X-33.637 Y-8.499
X-33.426 Y-8.5
X-33.223 Y-8.441
X-33.044 Y-8.327
X-32.906 Y-8.168
X-32.818 Y-7.976
X-32.787 Y-7.766
Y-7.27
G3 X-33.289 Y-7.022 I-0.317 J-0.011
G1 X-33.372 Y-7.081
X-33.677 Y-7.298
X-34.079 Y-7.584
G3 X-34.213 Y-7.832 I0.184 J-0.259
G1 Y-8.313
X-34.205 Y-8.463
X-34.158 Y-8.605
X-34.077 Y-8.732
X-33.974 Y-8.84
X-33.955 Y-8.853
X-33.749 Y-8.955
X-33.521 Y-8.989
X-33.294 Y-8.951
X-33.089 Y-8.845
X-32.927 Y-8.681
X-32.823 Y-8.475
X-32.787 Y-8.248
Y-7.766
G3 X-33.285 Y-7.516 I-0.317 J-0.011
G1 X-33.372 Y-7.576
X-33.673 Y-7.784
X-34.076 Y-8.063
G3 X-34.213 Y-8.313 I0.181 J-0.261
G1 Y-8.786
X-34.205 Y-8.936
X-34.16 Y-9.079
X-34.082 Y-9.207
X-33.978 Y-9.316
X-33.966 Y-9.325
X-33.76 Y-9.431
X-33.531 Y-9.468
X-33.301 Y-9.432
X-33.094 Y-9.327
X-32.93 Y-9.163
X-32.824 Y-8.956
X-32.787 Y-8.727
Y-8.248
G3 X-33.284 Y-7.997 I-0.317 J-0.011
G1 X-33.373 Y-8.057
X-33.671 Y-8.26
X-34.074 Y-8.535
G3 X-34.213 Y-8.786 I0.179 J-0.262
G1 Y-9.289
X-34.205 Y-9.439
X-34.152 Y-9.579
X-34.07 Y-9.705
X-33.963 Y-9.81
X-33.84 Y-9.896
X-33.637 Y-9.956
X-33.426 Y-9.957
X-33.223 Y-9.898
X-33.044 Y-9.785
X-32.906 Y-9.625
X-32.818 Y-9.433
X-32.787 Y-9.224
Y-8.727
G3 X-33.289 Y-8.479 I-0.317 J-0.011
G1 X-33.372 Y-8.538
X-33.677 Y-8.755
X-34.079 Y-9.041
G3 X-34.213 Y-9.289 I0.184 J-0.259
G1 Y-9.77
X-34.205 Y-9.92
X-34.158 Y-10.063
X-34.077 Y-10.189
X-33.974 Y-10.297
X-33.956 Y-10.31
X-33.749 Y-10.412
X-33.521 Y-10.446
X-33.294 Y-10.408
X-33.089 Y-10.302
X-32.927 Y-10.138
X-32.823 Y-9.933
X-32.787 Y-9.705
Y-9.224
G3 X-33.285 Y-8.974 I-0.317 J-0.011
G1 X-33.372 Y-9.034
X-33.673 Y-9.242
X-34.076 Y-9.52
G3 X-34.213 Y-9.77 I0.181 J-0.261
G1 Y-10.243
X-34.205 Y-10.393
X-34.16 Y-10.536
X-34.082 Y-10.665
X-33.978 Y-10.773
X-33.966 Y-10.782
X-33.76 Y-10.888
X-33.531 Y-10.925
X-33.301 Y-10.889
X-33.094 Y-10.784
X-32.93 Y-10.62
X-32.824 Y-10.414
X-32.787 Y-10.184
Y-9.705
G3 X-33.284 Y-9.454 I-0.317 J-0.011
G1 X-33.373 Y-9.514
X-33.671 Y-9.718
X-34.074 Y-9.992
G3 X-34.213 Y-10.243 I0.179 J-0.262
G1 Y-10.746
X-34.205 Y-10.896
X-34.152 Y-11.036
X-34.07 Y-11.162
X-33.963 Y-11.267
X-33.84 Y-11.353
X-33.637 Y-11.414
X-33.426
X-33.223 Y-11.356
X-33.044 Y-11.242
X-32.906 Y-11.082
X-32.818 Y-10.89
X-32.787 Y-10.681
Y-10.184
G3 X-33.289 Y-9.937 I-0.317 J-0.011
G1 X-33.372 Y-9.995
X-33.677 Y-10.212
X-34.079 Y-10.498
G3 X-34.213 Y-10.746 I0.184 J-0.259
G1 Y-11.227
X-34.205 Y-11.377
X-34.158 Y-11.52
X-34.077 Y-11.646
X-33.974 Y-11.755
X-33.956 Y-11.767
X-33.749 Y-11.869
X-33.521 Y-11.903
X-33.294 Y-11.865
X-33.089 Y-11.759
X-32.927 Y-11.595
X-32.823 Y-11.39
X-32.787 Y-11.162
Y-10.681
G3 X-33.285 Y-10.431 I-0.317 J-0.011
G1 X-33.372 Y-10.491
X-33.673 Y-10.699
X-34.076 Y-10.977
G3 X-34.213 Y-11.227 I0.181 J-0.261
G1 Y-11.701
X-34.205 Y-11.85
X-34.16 Y-11.993
X-34.082 Y-12.122
X-33.978 Y-12.23
X-33.966 Y-12.239
X-33.76 Y-12.345
X-33.531 Y-12.382
X-33.301 Y-12.346
X-33.094 Y-12.241
X-32.93 Y-12.078
X-32.824 Y-11.871
X-32.787 Y-11.641
Y-11.162
G3 X-33.284 Y-10.911 I-0.317 J-0.011
G1 X-33.373 Y-10.972
X-33.671 Y-11.175
X-34.074 Y-11.449
G3 X-34.213 Y-11.701 I0.179 J-0.262
G1 Y-12.203
X-34.205 Y-12.353
X-34.152 Y-12.494
X-34.07 Y-12.619
X-33.963 Y-12.724
X-33.84 Y-12.81
X-33.637 Y-12.871
X-33.426 Y-12.872
X-33.223 Y-12.813
X-33.045 Y-12.699
X-32.906 Y-12.539
X-32.818 Y-12.347
X-32.787 Y-12.138
Y-11.641
G3 X-33.289 Y-11.394 I-0.317 J-0.011
G1 X-33.372 Y-11.452
X-33.677 Y-11.669
X-34.079 Y-11.955
G3 X-34.213 Y-12.203 I0.184 J-0.259
G1 Y-12.684
X-34.205 Y-12.834
X-34.158 Y-12.977
X-34.077 Y-13.103
X-33.974 Y-13.212
X-33.956 Y-13.224
X-33.749 Y-13.326
X-33.521 Y-13.36
X-33.294 Y-13.322
X-33.089 Y-13.216
X-32.927 Y-13.052
X-32.823 Y-12.847
X-32.787 Y-12.619
Y-12.138
G3 X-33.285 Y-11.888 I-0.317 J-0.011
G1 X-33.372 Y-11.948
X-33.673 Y-12.156
X-34.076 Y-12.434
G3 X-34.213 Y-12.684 I0.181 J-0.261
G1 Y-13.158
X-34.205 Y-13.307
X-34.16 Y-13.451
X-34.082 Y-13.579
X-33.978 Y-13.687
X-33.966 Y-13.696
X-33.76 Y-13.802
X-33.531 Y-13.839
X-33.301 Y-13.804
X-33.094 Y-13.699
X-32.93 Y-13.535
X-32.824 Y-13.328
X-32.787 Y-13.098
Y-12.619
G3 X-33.284 Y-12.368 I-0.317 J-0.011
G1 X-33.373 Y-12.429
X-33.671 Y-12.632
X-34.074 Y-12.906
G3 X-34.213 Y-13.158 I0.179 J-0.262
G1 Y-13.66
X-34.205 Y-13.81
X-34.152 Y-13.951
X-34.07 Y-14.076
X-33.963 Y-14.181
X-33.84 Y-14.267
X-33.637 Y-14.328
X-33.426 Y-14.329
X-33.223 Y-14.27
X-33.045 Y-14.156
X-32.906 Y-13.996
X-32.818 Y-13.804
X-32.787 Y-13.595
Y-13.098
G3 X-33.289 Y-12.851 I-0.317 J-0.011
G1 X-33.372 Y-12.91
X-33.677 Y-13.126
X-34.079 Y-13.413
G3 X-34.213 Y-13.66 I0.184 J-0.259
G1 Y-14.141
X-34.205 Y-14.291
X-34.158 Y-14.434
X-34.077 Y-14.56
X-33.974 Y-14.669
X-33.956 Y-14.682
X-33.749 Y-14.784
X-33.521 Y-14.817
X-33.294 Y-14.779
X-33.089 Y-14.673
X-32.927 Y-14.509
X-32.823 Y-14.304
X-32.787 Y-14.076
Y-13.595
G3 X-33.285 Y-13.345 I-0.317 J-0.011
G1 X-33.372 Y-13.405
X-33.673 Y-13.613
X-34.076 Y-13.891
G3 X-34.213 Y-14.141 I0.181 J-0.261
G1 Y-14.615
X-34.205 Y-14.764
X-34.16 Y-14.908
X-34.082 Y-15.036
X-33.978 Y-15.144
X-33.966 Y-15.153
X-33.76 Y-15.259
X-33.531 Y-15.296
X-33.301 Y-15.261
X-33.094 Y-15.156
X-32.93 Y-14.992
X-32.824 Y-14.785
X-32.787 Y-14.555
Y-14.076
G3 X-33.284 Y-13.825 I-0.317 J-0.011
G1 X-33.373 Y-13.886
X-33.671 Y-14.089
X-34.074 Y-14.363
G3 X-34.213 Y-14.615 I0.179 J-0.262
G1 Y-15.117
X-34.205 Y-15.267
X-34.152 Y-15.408
X-34.07 Y-15.533
X-33.963 Y-15.638
X-33.84 Y-15.724
X-33.637 Y-15.785
X-33.426 Y-15.786
X-33.223 Y-15.727
X-33.045 Y-15.613
X-32.906 Y-15.454
X-32.818 Y-15.261
X-32.787 Y-15.052
Y-14.555
G3 X-33.289 Y-14.308 I-0.317 J-0.011
G1 X-33.372 Y-14.367
X-33.677 Y-14.583
X-34.079 Y-14.87
G3 X-34.213 Y-15.117 I0.184 J-0.259
G1 Y-15.599
X-34.205 Y-15.748
X-34.158 Y-15.891
X-34.077 Y-16.017
X-33.974 Y-16.126
X-33.956 Y-16.139
X-33.749 Y-16.241
X-33.521 Y-16.274
X-33.294 Y-16.236
X-33.089 Y-16.13
X-32.927 Y-15.967
X-32.823 Y-15.761
X-32.787 Y-15.533
Y-15.052
G3 X-33.285 Y-14.802 I-0.317 J-0.011
G1 X-33.372 Y-14.862
X-33.673 Y-15.07
X-34.076 Y-15.348
G3 X-34.213 Y-15.599 I0.181 J-0.261
G1 Y-16.072
X-34.205 Y-16.222
X-34.16 Y-16.365
X-34.082 Y-16.493
X-33.978 Y-16.601
X-33.966 Y-16.61
X-33.76 Y-16.716
X-33.531 Y-16.753
X-33.301 Y-16.718
X-33.094 Y-16.613
X-32.93 Y-16.449
X-32.824 Y-16.242
X-32.787 Y-16.013
Y-15.533
G3 X-33.284 Y-15.282 I-0.317 J-0.011
G1 X-33.373 Y-15.343
X-33.671 Y-15.546
X-34.074 Y-15.82
G3 X-34.213 Y-16.072 I0.179 J-0.262
G1 Y-16.574
X-34.205 Y-16.724
X-34.152 Y-16.865
X-34.07 Y-16.99
X-33.963 Y-17.095
X-33.84 Y-17.181
X-33.637 Y-17.242
X-33.426 Y-17.243
X-33.223 Y-17.184
X-33.045 Y-17.07
X-32.906 Y-16.911
X-32.818 Y-16.718
X-32.787 Y-16.509
Y-16.013
G3 X-33.289 Y-15.765 I-0.317 J-0.011
G1 X-33.372 Y-15.824
X-33.677 Y-16.04
X-34.079 Y-16.327
G3 X-34.213 Y-16.574 I0.184 J-0.259
G1 Y-17.056
X-34.205 Y-17.205
X-34.158 Y-17.348
X-34.077 Y-17.474
X-33.974 Y-17.583
X-33.956 Y-17.596
X-33.749 Y-17.698
X-33.521 Y-17.731
X-33.294 Y-17.693
X-33.089 Y-17.587
X-32.927 Y-17.424
X-32.823 Y-17.218
X-32.787 Y-16.99
Y-16.509
G3 X-33.285 Y-16.259 I-0.317 J-0.011
G1 X-33.372 Y-16.319
X-33.673 Y-16.527
X-34.076 Y-16.806
G3 X-34.213 Y-17.056 I0.181 J-0.261
G1 Y-17.529
X-34.205 Y-17.679
X-34.16 Y-17.822
X-34.082 Y-17.95
X-33.978 Y-18.058
X-33.966 Y-18.067
X-33.76 Y-18.173
X-33.531 Y-18.21
X-33.301 Y-18.175
X-33.094 Y-18.07
X-32.93 Y-17.906
X-32.824 Y-17.699
X-32.787 Y-17.47
Y-16.99
G3 X-33.284 Y-16.739 I-0.317 J-0.011
G1 X-33.373 Y-16.8
X-33.671 Y-17.003
X-34.074 Y-17.277
G3 X-34.213 Y-17.529 I0.179 J-0.262
G1 Y-18.031
X-34.205 Y-18.181
X-34.152 Y-18.322
X-34.07 Y-18.447
X-33.963 Y-18.552
X-33.84 Y-18.638
X-33.637 Y-18.699
X-33.426 Y-18.7
X-33.223 Y-18.641
X-33.045 Y-18.527
X-32.906 Y-18.368
X-32.818 Y-18.175
X-32.787 Y-17.966
Y-17.47
G3 X-33.289 Y-17.222 I-0.317 J-0.011
G1 X-33.372 Y-17.281
X-33.677 Y-17.498
X-34.079 Y-17.784
G3 X-34.213 Y-18.031 I0.184 J-0.259
G1 Y-18.513
X-34.205 Y-18.662
X-34.158 Y-18.805
X-34.077 Y-18.931
X-33.974 Y-19.04
X-33.956 Y-19.053
X-33.749 Y-19.155
X-33.521 Y-19.188
X-33.294 Y-19.15
X-33.089 Y-19.044
X-32.927 Y-18.881
X-32.823 Y-18.675
X-32.787 Y-18.448
Y-17.966
G3 X-33.285 Y-17.716 I-0.317 J-0.011
G1 X-33.372 Y-17.776
X-33.673 Y-17.984
X-34.076 Y-18.263
G3 X-34.213 Y-18.513 I0.181 J-0.261
G1 Y-18.986
X-34.205 Y-19.136
X-34.16 Y-19.279
X-34.082 Y-19.407
X-33.978 Y-19.515
X-33.966 Y-19.524
X-33.76 Y-19.63
X-33.531 Y-19.668
X-33.301 Y-19.632
X-33.094 Y-19.527
X-32.93 Y-19.363
X-32.824 Y-19.156
X-32.787 Y-18.927
Y-18.448
G3 X-33.284 Y-18.196 I-0.317 J-0.011
G1 X-33.373 Y-18.257
X-33.671 Y-18.46
X-34.074 Y-18.734
G3 X-34.213 Y-18.986 I0.179 J-0.262
G1 Y-19.489
X-34.205 Y-19.638
X-34.152 Y-19.779
X-34.07 Y-19.904
X-33.963 Y-20.009
X-33.84 Y-20.095
X-33.637 Y-20.156
X-33.426 Y-20.157
X-33.223 Y-20.098
X-33.045 Y-19.984
X-32.906 Y-19.825
X-32.818 Y-19.632
X-32.787 Y-19.423
Y-18.927
G3 X-33.289 Y-18.679 I-0.317 J-0.011
G1 X-33.372 Y-18.738
X-33.677 Y-18.955
X-34.079 Y-19.241
G3 X-34.213 Y-19.489 I0.184 J-0.259
G1 Y-19.97
X-34.205 Y-20.12
X-34.158 Y-20.262
X-34.077 Y-20.388
X-33.974 Y-20.497
X-33.956 Y-20.51
X-33.749 Y-20.612
X-33.521 Y-20.645
X-33.294 Y-20.607
X-33.089 Y-20.501
X-32.927 Y-20.338
X-32.823 Y-20.132
X-32.787 Y-19.905
Y-19.423
G3 X-33.285 Y-19.173 I-0.317 J-0.011
G1 X-33.372 Y-19.233
X-33.673 Y-19.441
X-34.076 Y-19.72
G3 X-34.213 Y-19.97 I0.181 J-0.261
G1 Y-20.443
X-34.205 Y-20.593
X-34.16 Y-20.736
X-34.082 Y-20.864
X-33.978 Y-20.972
X-33.966 Y-20.981
X-33.76 Y-21.087
X-33.531 Y-21.125
X-33.301 Y-21.089
X-33.094 Y-20.984
X-32.93 Y-20.82
X-32.824 Y-20.613
X-32.787 Y-20.384
Y-19.905
G3 X-33.284 Y-19.653 I-0.317 J-0.011
G1 X-33.373 Y-19.714
X-33.671 Y-19.917
X-34.074 Y-20.192
G3 X-34.213 Y-20.443 I0.179 J-0.262
G1 Y-20.946
X-34.205 Y-21.095
X-34.152 Y-21.236
X-34.07 Y-21.361
X-33.963 Y-21.466
X-33.84 Y-21.552
X-33.637 Y-21.613
X-33.426 Y-21.614
X-33.223 Y-21.555
X-33.045 Y-21.441
X-32.906 Y-21.282
X-32.818 Y-21.09
X-32.787 Y-20.88
Y-20.384
G3 X-33.289 Y-20.136 I-0.317 J-0.011
G1 X-33.372 Y-20.195
X-33.677 Y-20.412
X-34.079 Y-20.698
G3 X-34.213 Y-20.946 I0.184 J-0.259
G1 Y-21.427
X-34.205 Y-21.577
X-34.158 Y-21.719
X-34.077 Y-21.845
X-33.974 Y-21.954
X-33.956 Y-21.967
X-33.749 Y-22.069
X-33.521 Y-22.102
X-33.294 Y-22.064
X-33.089 Y-21.958
X-32.927 Y-21.795
X-32.823 Y-21.589
X-32.787 Y-21.362
Y-20.88
G3 X-33.285 Y-20.63 I-0.317 J-0.011
G1 X-33.372 Y-20.69
X-33.673 Y-20.898
X-34.076 Y-21.177
G3 X-34.213 Y-21.427 I0.181 J-0.261
G1 Y-21.9
X-34.205 Y-22.05
X-34.16 Y-22.193
X-34.082 Y-22.321
X-33.978 Y-22.429
X-33.966 Y-22.438
X-33.76 Y-22.544
X-33.531 Y-22.582
X-33.301 Y-22.546
X-33.094 Y-22.441
X-32.93 Y-22.277
X-32.824 Y-22.07
X-32.787 Y-21.841
Y-21.362
G3 X-33.284 Y-21.11 I-0.317 J-0.011
G1 X-33.373 Y-21.171
X-33.671 Y-21.374
X-34.074 Y-21.649
G3 X-34.213 Y-21.9 I0.179 J-0.262
G1 Y-22.403
X-34.205 Y-22.552
X-34.152 Y-22.693
X-34.07 Y-22.819
X-33.963 Y-22.924
X-33.84 Y-23.01
X-33.637 Y-23.07
X-33.426 Y-23.071
X-33.223 Y-23.012
X-33.045 Y-22.898
X-32.906 Y-22.739
X-32.818 Y-22.547
X-32.787 Y-22.337
Y-21.841
G3 X-33.289 Y-21.593 I-0.317 J-0.011
G1 X-33.372 Y-21.652
X-33.677 Y-21.869
X-34.079 Y-22.155
G3 X-34.213 Y-22.403 I0.184 J-0.259
G1 Y-22.884
X-34.205 Y-23.034
X-34.158 Y-23.176
X-34.077 Y-23.303
X-33.974 Y-23.411
X-33.956 Y-23.424
X-33.749 Y-23.526
X-33.521 Y-23.56
X-33.294 Y-23.521
X-33.089 Y-23.416
X-32.927 Y-23.252
X-32.823 Y-23.046
X-32.787 Y-22.819
Y-22.337
G3 X-33.285 Y-22.087 I-0.317 J-0.011
G1 X-33.372 Y-22.147
X-33.673 Y-22.355
X-34.076 Y-22.634
G3 X-34.213 Y-22.884 I0.181 J-0.261
G1 Y-23.357
X-34.205 Y-23.507
X-34.16 Y-23.65
X-34.082 Y-23.778
X-33.978 Y-23.886
X-33.966 Y-23.895
X-33.76 Y-24.002
X-33.531 Y-24.039
X-33.301 Y-24.003
X-33.094 Y-23.898
X-32.93 Y-23.734
X-32.824 Y-23.527
X-32.787 Y-23.298
Y-22.819
G3 X-33.284 Y-22.567 I-0.317 J-0.011
G1 X-33.373 Y-22.628
X-33.671 Y-22.831
X-34.074 Y-23.106
G3 X-34.213 Y-23.357 I0.179 J-0.262
G1 Y-23.86
X-34.205 Y-24.01
X-34.152 Y-24.15
X-34.07 Y-24.276
X-33.963 Y-24.381
X-33.84 Y-24.467
X-33.637 Y-24.527
X-33.426 Y-24.528
X-33.223 Y-24.469
X-33.045 Y-24.355
X-32.906 Y-24.196
X-32.818 Y-24.004
X-32.787 Y-23.794
Y-23.298
G3 X-33.289 Y-23.05 I-0.317 J-0.011
G1 X-33.372 Y-23.109
X-33.677 Y-23.326
X-34.079 Y-23.612
G3 X-34.213 Y-23.86 I0.184 J-0.259
G1 Y-24.341
X-34.205 Y-24.491
X-34.158 Y-24.633
X-34.077 Y-24.76
X-33.974 Y-24.868
X-33.956 Y-24.881
X-33.749 Y-24.983
X-33.521 Y-25.017
X-33.294 Y-24.979
X-33.089 Y-24.873
X-32.927 Y-24.709
X-32.823 Y-24.503
X-32.787 Y-24.276
Y-23.794
G3 X-33.285 Y-23.544 I-0.317 J-0.011
G1 X-33.372 Y-23.604
X-33.673 Y-23.812
X-34.076 Y-24.091
G3 X-34.213 Y-24.341 I0.181 J-0.261
G1 Y-24.814
X-34.205 Y-24.964
X-34.16 Y-25.107
X-34.082 Y-25.235
X-33.978 Y-25.344
X-33.966 Y-25.352
X-33.76 Y-25.459
X-33.531 Y-25.496
X-33.301 Y-25.46
X-33.094 Y-25.355
X-32.93 Y-25.191
X-32.824 Y-24.984
X-32.787 Y-24.755
Y-24.276
G3 X-33.284 Y-24.024 I-0.317 J-0.011
G1 X-33.373 Y-24.085
X-33.671 Y-24.288
X-34.074 Y-24.563
G3 X-34.213 Y-24.814 I0.179 J-0.262
G1 Y-25.317
X-34.205 Y-25.467
X-34.152 Y-25.607
X-34.07 Y-25.733
X-33.963 Y-25.838
X-33.84 Y-25.924
X-33.637 Y-25.984
X-33.426 Y-25.985
X-33.223 Y-25.926
X-33.045 Y-25.812
X-32.906 Y-25.653
X-32.818 Y-25.461
X-32.787 Y-25.251
Y-24.755
G3 X-33.289 Y-24.507 I-0.317 J-0.011
G1 X-33.372 Y-24.566
X-33.677 Y-24.783
X-34.079 Y-25.069
G3 X-34.213 Y-25.317 I0.184 J-0.259
G1 Y-25.798
X-34.205 Y-25.948
X-34.158 Y-26.09
X-34.077 Y-26.217
X-33.974 Y-26.325
X-33.956 Y-26.338
X-33.749 Y-26.44
X-33.521 Y-26.474
X-33.294 Y-26.436
X-33.089 Y-26.33
X-32.927 Y-26.166
X-32.823 Y-25.96
X-32.787 Y-25.733
Y-25.251
G3 X-33.285 Y-25.001 I-0.317 J-0.011
G1 X-33.372 Y-25.061
X-33.673 Y-25.269
X-34.076 Y-25.548
G3 X-34.213 Y-25.798 I0.181 J-0.261
G1 Y-26.271
X-34.205 Y-26.421
X-34.16 Y-26.564
X-34.082 Y-26.692
X-33.978 Y-26.801
X-33.966 Y-26.809
X-33.76 Y-26.916
X-33.531 Y-26.953
X-33.301 Y-26.917
X-33.094 Y-26.812
X-32.93 Y-26.648
X-32.824 Y-26.441
X-32.787 Y-26.212
Y-25.733
G3 X-33.284 Y-25.481 I-0.317 J-0.011
G1 X-33.373 Y-25.542
X-33.671 Y-25.745
X-34.074 Y-26.02
G3 X-34.213 Y-26.271 I0.179 J-0.262
G1 Y-26.774
X-34.205 Y-26.924
X-34.152 Y-27.064
X-34.07 Y-27.19
X-33.963 Y-27.295
X-33.84 Y-27.381
X-33.637 Y-27.441
X-33.426 Y-27.442
X-33.223 Y-27.383
X-33.045 Y-27.27
X-32.906 Y-27.11
X-32.818 Y-26.918
X-32.787 Y-26.709
Y-26.212
G3 X-33.289 Y-25.964 I-0.317 J-0.011
G1 X-33.372 Y-26.023
X-33.677 Y-26.24
X-34.079 Y-26.526
G3 X-34.213 Y-26.774 I0.184 J-0.259
G1 Y-27.255
X-34.205 Y-27.405
X-34.158 Y-27.547
X-34.077 Y-27.674
X-33.974 Y-27.782
X-33.956 Y-27.795
X-33.749 Y-27.897
X-33.521 Y-27.931
X-33.294 Y-27.893
X-33.089 Y-27.787
X-32.927 Y-27.623
X-32.823 Y-27.417
X-32.787 Y-27.19
Y-26.709
G3 X-33.285 Y-26.458 I-0.317 J-0.011
G1 X-33.372 Y-26.519
X-33.673 Y-26.726
X-34.076 Y-27.005
G3 X-34.213 Y-27.255 I0.181 J-0.261
G1 Y-27.728
X-34.205 Y-27.878
X-34.16 Y-28.021
X-34.082 Y-28.149
X-33.978 Y-28.258
X-33.966 Y-28.266
X-33.76 Y-28.373
X-33.531 Y-28.41
X-33.301 Y-28.374
X-33.094 Y-28.269
X-32.93 Y-28.105
X-32.824 Y-27.898
X-32.787 Y-27.669
Y-27.19
G3 X-33.284 Y-26.939 I-0.317 J-0.011
G1 X-33.373 Y-26.999
X-33.671 Y-27.202
X-34.074 Y-27.477
G3 X-34.213 Y-27.728 I0.179 J-0.262
G1 Y-28.231
X-34.205 Y-28.381
X-34.152 Y-28.521
X-34.07 Y-28.647
X-33.963 Y-28.752
X-33.84 Y-28.838
X-33.637 Y-28.898
X-33.426 Y-28.899
X-33.223 Y-28.84
X-33.045 Y-28.727
X-32.906 Y-28.567
X-32.818 Y-28.375
X-32.787 Y-28.166
Y-27.669
G3 X-33.289 Y-27.421 I-0.317 J-0.011
G1 X-33.372 Y-27.48
X-33.677 Y-27.697
X-34.079 Y-27.983
G3 X-34.213 Y-28.231 I0.184 J-0.259
G1 Y-28.712
X-34.205 Y-28.862
X-34.158 Y-29.004
X-34.077 Y-29.131
X-33.974 Y-29.239
X-33.956 Y-29.252
X-33.749 Y-29.354
X-33.521 Y-29.388
X-33.294 Y-29.35
X-33.089 Y-29.244
X-32.927 Y-29.08
X-32.823 Y-28.875
X-32.787 Y-28.647
Y-28.166
G3 X-33.285 Y-27.916 I-0.317 J-0.011
G1 X-33.372 Y-27.976
X-33.673 Y-28.183
X-34.076 Y-28.462
G3 X-34.213 Y-28.712 I0.181 J-0.261
G1 Y-29.185
X-34.205 Y-29.335
X-34.16 Y-29.478
X-34.082 Y-29.606
X-33.978 Y-29.715
X-33.966 Y-29.724
X-33.76 Y-29.83
X-33.531 Y-29.867
X-33.301 Y-29.831
X-33.094 Y-29.726
X-32.93 Y-29.562
X-32.824 Y-29.355
X-32.787 Y-29.126
Y-28.647
G3 X-33.284 Y-28.396 I-0.317 J-0.011
G1 X-33.373 Y-28.456
X-33.671 Y-28.659
X-34.074 Y-28.934
G3 X-34.213 Y-29.185 I0.179 J-0.262
G1 Y-29.688
X-34.205 Y-29.838
X-34.152 Y-29.978
X-34.07 Y-30.104
X-33.963 Y-30.209
X-33.84 Y-30.295
X-33.637 Y-30.355
X-33.426 Y-30.356
X-33.223 Y-30.297
X-33.045 Y-30.184
X-32.906 Y-30.024
X-32.818 Y-29.832
X-32.787 Y-29.623
Y-29.126
G3 X-33.289 Y-28.878 I-0.317 J-0.011
G1 X-33.372 Y-28.937
X-33.677 Y-29.154
X-34.079 Y-29.44
G3 X-34.213 Y-29.688 I0.184 J-0.259
G1 Y-30.169
X-34.205 Y-30.319
X-34.158 Y-30.461
X-34.077 Y-30.588
X-33.974 Y-30.696
X-33.956 Y-30.709
X-33.749 Y-30.811
X-33.521 Y-30.845
X-33.294 Y-30.807
X-33.089 Y-30.701
X-32.927 Y-30.537
X-32.823 Y-30.332
X-32.787 Y-30.104
Y-29.623
G3 X-33.285 Y-29.373 I-0.317 J-0.011
G1 X-33.372 Y-29.433
X-33.673 Y-29.64
X-34.076 Y-29.919
G3 X-34.213 Y-30.169 I0.181 J-0.261
G1 Y-30.642
X-34.205 Y-30.792
X-34.16 Y-30.935
X-34.082 Y-31.063
X-33.978 Y-31.172
X-33.966 Y-31.181
X-33.76 Y-31.287
X-33.531 Y-31.324
X-33.301 Y-31.288
X-33.094 Y-31.183
X-32.93 Y-31.019
X-32.824 Y-30.813
X-32.787 Y-30.583
Y-30.104
G3 X-33.284 Y-29.853 I-0.317 J-0.011
G1 X-33.373 Y-29.913
X-33.671 Y-30.117
X-34.074 Y-30.391
G3 X-34.213 Y-30.642 I0.179 J-0.262
G1 Y-31.145
X-34.205 Y-31.295
X-34.152 Y-31.435
X-34.07 Y-31.561
X-33.963 Y-31.666
X-33.84 Y-31.752
X-33.637 Y-31.812
X-33.426 Y-31.813
X-33.223 Y-31.755
X-33.045 Y-31.641
X-32.906 Y-31.481
X-32.818 Y-31.289
X-32.787 Y-31.08
Y-30.583
G3 X-33.289 Y-30.335 I-0.317 J-0.011
G1 X-33.372 Y-30.394
X-33.677 Y-30.611
X-34.079 Y-30.897
G3 X-34.213 Y-31.145 I0.184 J-0.259
G1 Y-31.626
X-34.205 Y-31.776
X-34.158 Y-31.919
X-34.077 Y-32.045
X-33.974 Y-32.153
X-33.956 Y-32.166
X-33.749 Y-32.268
X-33.521 Y-32.302
X-33.294 Y-32.264
X-33.089 Y-32.158
X-32.927 Y-31.994
X-32.823 Y-31.789
X-32.787 Y-31.561
Y-31.08
G3 X-33.285 Y-30.83 I-0.317 J-0.011
G1 X-33.372 Y-30.89
X-33.673 Y-31.098
X-34.076 Y-31.376
G3 X-34.213 Y-31.626 I0.181 J-0.261
G1 Y-32.099
X-34.205 Y-32.249
X-34.16 Y-32.392
X-34.082 Y-32.52
X-33.978 Y-32.629
X-33.966 Y-32.638
X-33.76 Y-32.744
X-33.531 Y-32.781
X-33.301 Y-32.745
X-33.094 Y-32.64
X-32.93 Y-32.476
X-32.824 Y-32.27
X-32.787 Y-32.04
Y-31.561
G3 X-33.284 Y-31.31 I-0.317 J-0.011
G1 X-33.373 Y-31.37
X-33.671 Y-31.574
X-34.074 Y-31.848
G3 X-34.213 Y-32.099 I0.179 J-0.262
G1 Y-32.602
X-34.205 Y-32.752
X-34.152 Y-32.892
X-34.07 Y-33.018
X-33.963 Y-33.123
X-33.84 Y-33.209
X-33.637 Y-33.27
X-33.426
X-33.223 Y-33.212
X-33.045 Y-33.098
X-32.906 Y-32.938
X-32.818 Y-32.746
X-32.787 Y-32.537
Y-32.04
G3 X-33.289 Y-31.793 I-0.317 J-0.011
G1 X-33.372 Y-31.851
X-33.677 Y-32.068
X-34.079 Y-32.354
G3 X-34.213 Y-32.602 I0.184 J-0.259
G1 Y-33.083
X-34.205 Y-33.233
X-34.158 Y-33.376
X-34.077 Y-33.502
X-33.974 Y-33.61
X-33.956 Y-33.623
X-33.749 Y-33.725
X-33.521 Y-33.759
X-33.294 Y-33.721
X-33.089 Y-33.615
X-32.927 Y-33.451
X-32.823 Y-33.246
X-32.787 Y-33.018
Y-32.537
G3 X-33.285 Y-32.287 I-0.317 J-0.011
G1 X-33.372 Y-32.347
X-33.673 Y-32.555
X-34.076 Y-32.833
G3 X-34.213 Y-33.083 I0.181 J-0.261
G1 Y-33.556
X-34.205 Y-33.706
X-34.171 Y-33.852
X-34.102 Y-33.985
X-34.003 Y-34.102
X-33.798 Y-34.224
X-33.564 Y-34.273
X-33.327 Y-34.246
X-33.11 Y-34.145
X-32.937 Y-33.98
X-32.826 Y-33.769
X-32.787 Y-33.533
Y-33.018
G3 X-33.284 Y-32.767 I-0.317 J-0.011
G1 X-33.373 Y-32.828
X-33.671 Y-33.031
X-34.074 Y-33.305
G3 X-34.213 Y-33.556 I0.179 J-0.262
G1 Y-35.451
X-34.203 Y-35.518
X-34.179 Y-35.581
X-33.89 Y-36.163
X-33.389 Y-37.169
G3 X-32.787 Y-37.039 I0.284 J0.141
G1 Y-33.533
G3 X-33.085 Y-33.228 I-0.317 J-0.011
G1 X-33.105 Y-33.227 Z-0.999
X-33.158 Y-33.24 Z-0.991
X-33.209 Y-33.253 Z-0.973
X-33.256 Y-33.265 Z-0.946
X-33.292 Y-33.297 Z-0.906
X-33.321 Y-33.322 Z-0.858
X-33.343 Y-33.341 Z-0.803
X-33.356 Y-33.353 Z-0.744
X-33.361 Y-33.357 Z-0.683
Z5
X-33.245 Y2.64
Z-0.765
Z-1.082
X-33.247 Y2.633 Z-1.153
X-33.253 Y2.61 Z-1.22
X-33.263 Y2.573 Z-1.28
X-33.275 Y2.524 Z-1.331
X-33.29 Y2.466 Z-1.369
X-33.307 Y2.401 Z-1.392
X-33.324 Y2.333 Z-1.4
G3 X-33.573 Y0.604 I7.852 J-2.011
G1 Y0.454
X-33.44 Y0.332
X-33.269 Y0.274
X-33.089 Y0.291
X-32.932 Y0.381
X-32.825 Y0.526
X-32.787 Y0.703
G3 X-33.138 Y1.008 I-0.317 J-0.011
G1 X-33.401 Y0.98
X-33.599 Y0.959
X-33.929 Y0.924
G3 X-34.213 Y0.619 I0.034 J-0.316
G1 Y0.283
X-34.209 Y0.209
X-34.128 Y0.082
X-34.031 Y-0.032
X-34.02 Y-0.041
X-33.843 Y-0.158
X-33.641 Y-0.22
X-33.429 Y-0.222
X-33.225 Y-0.163
X-33.046 Y-0.05
X-32.906 Y0.11
X-32.818 Y0.303
X-32.787 Y0.512
G3 X-33.193 Y0.806 I-0.317 J-0.011
G1 X-33.393 Y0.748
X-33.612 Y0.685
X-33.984 Y0.577
G3 X-34.213 Y0.283 I0.088 J-0.305
G1 Y-0.11
X-34.205 Y-0.259
X-34.14 Y-0.394
X-34.046 Y-0.512
X-33.933 Y-0.61
X-33.909 Y-0.624
X-33.703 Y-0.709
X-33.482 Y-0.728
X-33.264 Y-0.681
X-33.07 Y-0.571
X-32.918 Y-0.409
X-32.821 Y-0.209
X-32.787 Y0.011
G3 X-33.153 Y0.314 I-0.317 J-0.011
G1 X-33.4 Y0.276
X-33.601 Y0.245
X-33.943 Y0.193
G3 X-34.213 Y-0.11 I0.048 J-0.314
G1 Y-0.547
X-34.205 Y-0.697
X-34.156 Y-0.838
X-34.073 Y-0.964
X-33.968 Y-1.07
X-33.952 Y-1.081
X-33.745 Y-1.182
X-33.518 Y-1.214
X-33.291 Y-1.175
X-33.088 Y-1.069
X-32.926 Y-0.905
X-32.823 Y-0.7
X-32.787 Y-0.473
G3 X-33.134 Y-0.168 I-0.317 J-0.011
G1 X-33.401 Y-0.193
X-33.599 Y-0.211
X-33.925 Y-0.242
G3 X-34.213 Y-0.547 I0.029 J-0.316
G1 Y-1.028
X-34.205 Y-1.178
X-34.155 Y-1.319
X-34.074 Y-1.445
X-33.968 Y-1.552
X-33.956 Y-1.56
X-33.749 Y-1.662
X-33.521 Y-1.696
X-33.294 Y-1.658
X-33.09 Y-1.552
X-32.927 Y-1.388
X-32.823 Y-1.183
X-32.787 Y-0.955
G3 X-33.134 Y-0.65 I-0.317 J-0.011
G1 X-33.401 Y-0.675
X-33.599 Y-0.693
X-33.924 Y-0.723
G3 X-34.213 Y-1.028 I0.029 J-0.316
G1 Y-1.501
X-34.205 Y-1.651
X-34.158 Y-1.793
X-34.078 Y-1.921
X-33.974 Y-2.028
X-33.962 Y-2.036
X-33.755 Y-2.141
X-33.527 Y-2.176
X-33.298 Y-2.14
X-33.092 Y-2.034
X-32.929 Y-1.87
X-32.824 Y-1.664
X-32.787 Y-1.436
Y-0.955
G3 X-33.285 Y-0.705 I-0.317 J-0.011
G1 X-33.372 Y-0.765
X-33.673 Y-0.973
X-34.076 Y-1.251
G3 X-34.213 Y-1.501 I0.18 J-0.261
G1 Y-2.004
X-34.205 Y-2.154
X-34.151 Y-2.293
X-34.068 Y-2.418
X-33.96 Y-2.522
X-33.836 Y-2.608
X-33.633 Y-2.667
X-33.423
X-33.22 Y-2.607
X-33.043 Y-2.493
X-32.905 Y-2.334
X-32.817 Y-2.142
X-32.787 Y-1.933
Y-1.436
G3 X-33.29 Y-1.189 I-0.317 J-0.011
G1 X-33.371 Y-1.247
X-33.678 Y-1.468
X-34.081 Y-1.757
G3 X-34.213 Y-2.004 I0.185 J-0.258
G1 Y-2.485
X-34.205 Y-2.635
X-34.157 Y-2.777
X-34.075 Y-2.903
X-33.971 Y-3.01
X-33.952 Y-3.023
X-33.746 Y-3.124
X-33.518 Y-3.157
X-33.292 Y-3.118
X-33.088 Y-3.012
X-32.927 Y-2.848
X-32.823 Y-2.643
X-32.787 Y-2.416
Y-1.933
G3 X-33.286 Y-1.684 I-0.317 J-0.011
G1 X-33.372 Y-1.744
X-33.674 Y-1.955
X-34.077 Y-2.236
G3 X-34.213 Y-2.485 I0.182 J-0.26
G1 Y-2.958
X-34.205 Y-3.108
X-34.159 Y-3.251
X-34.08 Y-3.378
X-33.976 Y-3.486
X-33.964 Y-3.495
X-33.757 Y-3.6
X-33.528 Y-3.637
X-33.299 Y-3.6
X-33.093 Y-3.495
X-32.929 Y-3.331
X-32.824 Y-3.125
X-32.787 Y-2.896
Y-2.416
G3 X-33.284 Y-2.165 I-0.317 J-0.011
G1 X-33.373 Y-2.226
X-33.672 Y-2.431
X-34.075 Y-2.707
G3 X-34.213 Y-2.958 I0.18 J-0.262
G1 Y-3.461
X-34.205 Y-3.611
X-34.152 Y-3.751
X-34.069 Y-3.876
X-33.962 Y-3.981
X-33.838 Y-4.066
X-33.635 Y-4.126
X-33.424 Y-4.127
X-33.222 Y-4.067
X-33.044 Y-3.953
X-32.905 Y-3.794
X-32.818 Y-3.602
X-32.787 Y-3.393
Y-2.896
G3 X-33.289 Y-2.649 I-0.317 J-0.011
G1 X-33.371 Y-2.707
X-33.677 Y-2.926
X-34.08 Y-3.214
G3 X-34.213 Y-3.461 I0.185 J-0.258
G1 Y-3.942
X-34.205 Y-4.092
X-34.158 Y-4.234
X-34.076 Y-4.36
X-33.972 Y-4.468
X-33.954 Y-4.481
X-33.747 Y-4.583
X-33.52 Y-4.616
X-33.293 Y-4.577
X-33.089 Y-4.471
X-32.927 Y-4.308
X-32.823 Y-4.102
X-32.787 Y-3.875
Y-3.393
G3 X-33.286 Y-3.143 I-0.317 J-0.011
G1 X-33.372 Y-3.203
X-33.673 Y-3.413
X-34.076 Y-3.692
G3 X-34.213 Y-3.942 I0.181 J-0.261
G1 Y-4.415
X-34.205 Y-4.565
X-34.16 Y-4.708
X-34.081 Y-4.836
X-33.977 Y-4.944
X-33.965 Y-4.953
X-33.759 Y-5.059
X-33.53 Y-5.095
X-33.3 Y-5.059
X-33.093 Y-4.954
X-32.929 Y-4.79
X-32.824 Y-4.584
X-32.787 Y-4.355
Y-3.875
G3 X-33.284 Y-3.624 I-0.317 J-0.011
G1 X-33.373 Y-3.685
X-33.671 Y-3.889
X-34.074 Y-4.164
G3 X-34.213 Y-4.415 I0.179 J-0.262
G1 Y-4.918
X-34.205 Y-5.068
X-34.152 Y-5.208
X-34.07 Y-5.333
X-33.962 Y-5.438
X-33.839 Y-5.524
X-33.636 Y-5.584
X-33.425 Y-5.585
X-33.222 Y-5.526
X-33.044 Y-5.412
X-32.906 Y-5.253
X-32.818 Y-5.06
X-32.787 Y-4.851
Y-4.355
G3 X-33.289 Y-4.107 I-0.317 J-0.011
G1 X-33.371 Y-4.166
X-33.677 Y-4.383
X-34.079 Y-4.67
G3 X-34.213 Y-4.918 I0.184 J-0.259
G1 Y-5.399
X-34.205 Y-5.549
X-34.158 Y-5.691
X-34.077 Y-5.818
X-33.973 Y-5.926
X-33.955 Y-5.939
X-33.748 Y-6.04
X-33.52 Y-6.074
X-33.293 Y-6.036
X-33.089 Y-5.93
X-32.927 Y-5.766
X-32.823 Y-5.56
X-32.787 Y-5.333
Y-4.851
G3 X-33.286 Y-4.601 I-0.317 J-0.011
G1 X-33.372 Y-4.661
X-33.673 Y-4.87
X-34.076 Y-5.149
G3 X-34.213 Y-5.399 I0.181 J-0.261
G1 Y-5.872
X-34.205 Y-6.022
X-34.16 Y-6.165
X-34.082 Y-6.293
X-33.978 Y-6.401
X-33.966 Y-6.41
X-33.759 Y-6.516
X-33.53 Y-6.553
X-33.301 Y-6.517
X-33.094 Y-6.412
X-32.929 Y-6.248
X-32.824 Y-6.042
X-32.787 Y-5.812
Y-5.333
G3 X-33.284 Y-5.082 I-0.317 J-0.011
G1 X-33.373 Y-5.142
X-33.671 Y-5.346
X-34.074 Y-5.621
G3 X-34.213 Y-5.872 I0.179 J-0.262
G1 Y-6.375
X-34.205 Y-6.525
X-34.152 Y-6.665
X-34.07 Y-6.791
X-33.963 Y-6.896
X-33.839 Y-6.981
X-33.637 Y-7.042
X-33.425 Y-7.043
X-33.222 Y-6.984
X-33.044 Y-6.87
X-32.906 Y-6.71
X-32.818 Y-6.518
X-32.787 Y-6.309
Y-5.812
G3 X-33.289 Y-5.565 I-0.317 J-0.011
G1 X-33.371 Y-5.624
X-33.677 Y-5.841
X-34.079 Y-6.127
G3 X-34.213 Y-6.375 I0.184 J-0.259
G1 Y-6.856
X-34.205 Y-7.006
X-34.158 Y-7.148
X-34.077 Y-7.275
X-33.973 Y-7.383
X-33.955 Y-7.396
X-33.749 Y-7.498
X-33.521 Y-7.531
X-33.294 Y-7.493
X-33.089 Y-7.387
X-32.927 Y-7.224
X-32.823 Y-7.018
X-32.787 Y-6.791
Y-6.309
G3 X-33.286 Y-6.059 I-0.317 J-0.011
G1 X-33.372 Y-6.119
X-33.673 Y-6.327
X-34.076 Y-6.606
G3 X-34.213 Y-6.856 I0.181 J-0.261
G1 Y-7.329
X-34.205 Y-7.479
X-34.16 Y-7.622
X-34.082 Y-7.75
X-33.978 Y-7.859
X-33.966 Y-7.867
X-33.76 Y-7.974
X-33.53 Y-8.011
X-33.301 Y-7.975
X-33.094 Y-7.87
X-32.929 Y-7.706
X-32.824 Y-7.499
X-32.787 Y-7.27
Y-6.791
G3 X-33.284 Y-6.539 I-0.317 J-0.011
G1 X-33.373 Y-6.6
X-33.671 Y-6.803
X-34.074 Y-7.078
G3 X-34.213 Y-7.329 I0.179 J-0.262
G1 Y-7.832
X-34.205 Y-7.982
X-34.152 Y-8.122
X-34.07 Y-8.248
X-33.963 Y-8.353
X-33.84 Y-8.439
X-33.637 Y-8.499
X-33.426 Y-8.5
X-33.223 Y-8.441
X-33.044 Y-8.327
X-32.906 Y-8.168
X-32.818 Y-7.976
X-32.787 Y-7.766
Y-7.27
G3 X-33.289 Y-7.022 I-0.317 J-0.011
G1 X-33.372 Y-7.081
X-33.677 Y-7.298
X-34.079 Y-7.584
G3 X-34.213 Y-7.832 I0.184 J-0.259
G1 Y-8.313
X-34.205 Y-8.463
X-34.158 Y-8.605
X-34.077 Y-8.732
X-33.974 Y-8.84
X-33.955 Y-8.853
X-33.749 Y-8.955
X-33.521 Y-8.989
X-33.294 Y-8.951
X-33.089 Y-8.845
X-32.927 Y-8.681
X-32.823 Y-8.475
X-32.787 Y-8.248
Y-7.766
G3 X-33.285 Y-7.516 I-0.317 J-0.011
G1 X-33.372 Y-7.576
X-33.673 Y-7.784
X-34.076 Y-8.063
G3 X-34.213 Y-8.313 I0.181 J-0.261
G1 Y-8.786
X-34.205 Y-8.936
X-34.16 Y-9.079
X-34.082 Y-9.207
X-33.978 Y-9.316
X-33.966 Y-9.325
X-33.76 Y-9.431
X-33.531 Y-9.468
X-33.301 Y-9.432
X-33.094 Y-9.327
X-32.93 Y-9.163
X-32.824 Y-8.956
X-32.787 Y-8.727
Y-8.248
G3 X-33.284 Y-7.997 I-0.317 J-0.011
G1 X-33.373 Y-8.057
X-33.671 Y-8.26
X-34.074 Y-8.535
G3 X-34.213 Y-8.786 I0.179 J-0.262
G1 Y-9.289
X-34.205 Y-9.439
X-34.152 Y-9.579
X-34.07 Y-9.705
X-33.963 Y-9.81
X-33.84 Y-9.896
X-33.637 Y-9.956
X-33.426 Y-9.957
X-33.223 Y-9.898
X-33.044 Y-9.785
X-32.906 Y-9.625
X-32.818 Y-9.433
X-32.787 Y-9.224
Y-8.727
G3 X-33.289 Y-8.479 I-0.317 J-0.011
G1 X-33.372 Y-8.538
X-33.677 Y-8.755
X-34.079 Y-9.041
G3 X-34.213 Y-9.289 I0.184 J-0.259
G1 Y-9.77
X-34.205 Y-9.92
X-34.158 Y-10.063
X-34.077 Y-10.189
X-33.974 Y-10.297
X-33.956 Y-10.31
X-33.749 Y-10.412
X-33.521 Y-10.446
X-33.294 Y-10.408
X-33.089 Y-10.302
X-32.927 Y-10.138
X-32.823 Y-9.933
X-32.787 Y-9.705
Y-9.224
G3 X-33.285 Y-8.974 I-0.317 J-0.011
G1 X-33.372 Y-9.034
X-33.673 Y-9.242
X-34.076 Y-9.52
G3 X-34.213 Y-9.77 I0.181 J-0.261
G1 Y-10.243
X-34.205 Y-10.393
X-34.16 Y-10.536
X-34.082 Y-10.665
X-33.978 Y-10.773
X-33.966 Y-10.782
X-33.76 Y-10.888
X-33.531 Y-10.925
X-33.301 Y-10.889
X-33.094 Y-10.784
X-32.93 Y-10.62
X-32.824 Y-10.414
X-32.787 Y-10.184
Y-9.705
G3 X-33.284 Y-9.454 I-0.317 J-0.011
G1 X-33.373 Y-9.514
X-33.671 Y-9.718
X-34.074 Y-9.992
G3 X-34.213 Y-10.243 I0.179 J-0.262
G1 Y-10.746
X-34.205 Y-10.896
X-34.152 Y-11.036
X-34.07 Y-11.162
X-33.963 Y-11.267
X-33.84 Y-11.353
X-33.637 Y-11.414
X-33.426
X-33.223 Y-11.356
X-33.044 Y-11.242
X-32.906 Y-11.082
X-32.818 Y-10.89
X-32.787 Y-10.681
Y-10.184
G3 X-33.289 Y-9.937 I-0.317 J-0.011
G1 X-33.372 Y-9.995
X-33.677 Y-10.212
X-34.079 Y-10.498
G3 X-34.213 Y-10.746 I0.184 J-0.259
G1 Y-11.227
X-34.205 Y-11.377
X-34.158 Y-11.52
X-34.077 Y-11.646
X-33.974 Y-11.755
X-33.956 Y-11.767
X-33.749 Y-11.869
X-33.521 Y-11.903
X-33.294 Y-11.865
X-33.089 Y-11.759
X-32.927 Y-11.595
X-32.823 Y-11.39
X-32.787 Y-11.162
Y-10.681
G3 X-33.285 Y-10.431 I-0.317 J-0.011
G1 X-33.372 Y-10.491
X-33.673 Y-10.699
X-34.076 Y-10.977
G3 X-34.213 Y-11.227 I0.181 J-0.261
G1 Y-11.701
X-34.205 Y-11.85
X-34.16 Y-11.993
X-34.082 Y-12.122
X-33.978 Y-12.23
X-33.966 Y-12.239
X-33.76 Y-12.345
X-33.531 Y-12.382
X-33.301 Y-12.346
X-33.094 Y-12.241
X-32.93 Y-12.078
X-32.824 Y-11.871
X-32.787 Y-11.641
Y-11.162
G3 X-33.284 Y-10.911 I-0.317 J-0.011
G1 X-33.373 Y-10.972
X-33.671 Y-11.175
X-34.074 Y-11.449
G3 X-34.213 Y-11.701 I0.179 J-0.262
G1 Y-12.203
X-34.205 Y-12.353
X-34.152 Y-12.494
X-34.07 Y-12.619
X-33.963 Y-12.724
X-33.84 Y-12.81
X-33.637 Y-12.871
X-33.426 Y-12.872
X-33.223 Y-12.813
X-33.045 Y-12.699
X-32.906 Y-12.539
X-32.818 Y-12.347
X-32.787 Y-12.138
Y-11.641
G3 X-33.289 Y-11.394 I-0.317 J-0.011
G1 X-33.372 Y-11.452
X-33.677 Y-11.669
X-34.079 Y-11.955
G3 X-34.213 Y-12.203 I0.184 J-0.259
G1 Y-12.684
X-34.205 Y-12.834
X-34.158 Y-12.977
X-34.077 Y-13.103
X-33.974 Y-13.212
X-33.956 Y-13.224
X-33.749 Y-13.326
X-33.521 Y-13.36
X-33.294 Y-13.322
X-33.089 Y-13.216
X-32.927 Y-13.052
X-32.823 Y-12.847
X-32.787 Y-12.619
Y-12.138
G3 X-33.285 Y-11.888 I-0.317 J-0.011
G1 X-33.372 Y-11.948
X-33.673 Y-12.156
X-34.076 Y-12.434
G3 X-34.213 Y-12.684 I0.181 J-0.261
G1 Y-13.158
X-34.205 Y-13.307
X-34.16 Y-13.451
X-34.082 Y-13.579
X-33.978 Y-13.687
X-33.966 Y-13.696
X-33.76 Y-13.802
X-33.531 Y-13.839
X-33.301 Y-13.804
X-33.094 Y-13.699
X-32.93 Y-13.535
X-32.824 Y-13.328
X-32.787 Y-13.098
Y-12.619
G3 X-33.284 Y-12.368 I-0.317 J-0.011
G1 X-33.373 Y-12.429
X-33.671 Y-12.632
X-34.074 Y-12.906
G3 X-34.213 Y-13.158 I0.179 J-0.262
G1 Y-13.66
X-34.205 Y-13.81
X-34.152 Y-13.951
X-34.07 Y-14.076
X-33.963 Y-14.181
X-33.84 Y-14.267
X-33.637 Y-14.328
X-33.426 Y-14.329
X-33.223 Y-14.27
X-33.045 Y-14.156
X-32.906 Y-13.996
X-32.818 Y-13.804
X-32.787 Y-13.595
Y-13.098
G3 X-33.289 Y-12.851 I-0.317 J-0.011
G1 X-33.372 Y-12.91
X-33.677 Y-13.126
X-34.079 Y-13.413
G3 X-34.213 Y-13.66 I0.184 J-0.259
G1 Y-14.141
X-34.205 Y-14.291
X-34.158 Y-14.434
X-34.077 Y-14.56
X-33.974 Y-14.669
X-33.956 Y-14.682
X-33.749 Y-14.784
X-33.521 Y-14.817
X-33.294 Y-14.779
X-33.089 Y-14.673
X-32.927 Y-14.509
X-32.823 Y-14.304
X-32.787 Y-14.076
Y-13.595
G3 X-33.285 Y-13.345 I-0.317 J-0.011
G1 X-33.372 Y-13.405
X-33.673 Y-13.613
X-34.076 Y-13.891
G3 X-34.213 Y-14.141 I0.181 J-0.261
G1 Y-14.615
X-34.205 Y-14.764
X-34.16 Y-14.908
X-34.082 Y-15.036
X-33.978 Y-15.144
X-33.966 Y-15.153
X-33.76 Y-15.259
X-33.531 Y-15.296
X-33.301 Y-15.261
X-33.094 Y-15.156
X-32.93 Y-14.992
X-32.824 Y-14.785
X-32.787 Y-14.555
Y-14.076
G3 X-33.284 Y-13.825 I-0.317 J-0.011
G1 X-33.373 Y-13.886
X-33.671 Y-14.089
X-34.074 Y-14.363
G3 X-34.213 Y-14.615 I0.179 J-0.262
G1 Y-15.117
X-34.205 Y-15.267
X-34.152 Y-15.408
X-34.07 Y-15.533
X-33.963 Y-15.638
X-33.84 Y-15.724
X-33.637 Y-15.785
X-33.426 Y-15.786
X-33.223 Y-15.727
X-33.045 Y-15.613
X-32.906 Y-15.454
X-32.818 Y-15.261
X-32.787 Y-15.052
Y-14.555
G3 X-33.289 Y-14.308 I-0.317 J-0.011
G1 X-33.372 Y-14.367
X-33.677 Y-14.583
X-34.079 Y-14.87
G3 X-34.213 Y-15.117 I0.184 J-0.259
G1 Y-15.599
X-34.205 Y-15.748
X-34.158 Y-15.891
X-34.077 Y-16.017
X-33.974 Y-16.126
X-33.956 Y-16.139
X-33.749 Y-16.241
X-33.521 Y-16.274
X-33.294 Y-16.236
X-33.089 Y-16.13
X-32.927 Y-15.967
X-32.823 Y-15.761
X-32.787 Y-15.533
Y-15.052
G3 X-33.285 Y-14.802 I-0.317 J-0.011
G1 X-33.372 Y-14.862
X-33.673 Y-15.07
X-34.076 Y-15.348
G3 X-34.213 Y-15.599 I0.181 J-0.261
G1 Y-16.072
X-34.205 Y-16.222
X-34.16 Y-16.365
X-34.082 Y-16.493
X-33.978 Y-16.601
X-33.966 Y-16.61
X-33.76 Y-16.716
X-33.531 Y-16.753
X-33.301 Y-16.718
X-33.094 Y-16.613
X-32.93 Y-16.449
X-32.824 Y-16.242
X-32.787 Y-16.013
Y-15.533
G3 X-33.284 Y-15.282 I-0.317 J-0.011
G1 X-33.373 Y-15.343
X-33.671 Y-15.546
X-34.074 Y-15.82
G3 X-34.213 Y-16.072 I0.179 J-0.262
G1 Y-16.574
X-34.205 Y-16.724
X-34.152 Y-16.865
X-34.07 Y-16.99
X-33.963 Y-17.095
X-33.84 Y-17.181
X-33.637 Y-17.242
X-33.426 Y-17.243
X-33.223 Y-17.184
X-33.045 Y-17.07
X-32.906 Y-16.911
X-32.818 Y-16.718
X-32.787 Y-16.509
Y-16.013
G3 X-33.289 Y-15.765 I-0.317 J-0.011
G1 X-33.372 Y-15.824
X-33.677 Y-16.04
X-34.079 Y-16.327
G3 X-34.213 Y-16.574 I0.184 J-0.259
G1 Y-17.056
X-34.205 Y-17.205
X-34.158 Y-17.348
X-34.077 Y-17.474
X-33.974 Y-17.583
X-33.956 Y-17.596
X-33.749 Y-17.698
X-33.521 Y-17.731
X-33.294 Y-17.693
X-33.089 Y-17.587
X-32.927 Y-17.424
X-32.823 Y-17.218
X-32.787 Y-16.99
Y-16.509
G3 X-33.285 Y-16.259 I-0.317 J-0.011
G1 X-33.372 Y-16.319
X-33.673 Y-16.527
X-34.076 Y-16.806
G3 X-34.213 Y-17.056 I0.181 J-0.261
G1 Y-17.529
X-34.205 Y-17.679
X-34.16 Y-17.822
X-34.082 Y-17.95
X-33.978 Y-18.058
X-33.966 Y-18.067
X-33.76 Y-18.173
X-33.531 Y-18.21
X-33.301 Y-18.175
X-33.094 Y-18.07
X-32.93 Y-17.906
X-32.824 Y-17.699
X-32.787 Y-17.47
Y-16.99
G3 X-33.284 Y-16.739 I-0.317 J-0.011
G1 X-33.373 Y-16.8
X-33.671 Y-17.003
X-34.074 Y-17.277
G3 X-34.213 Y-17.529 I0.179 J-0.262
G1 Y-18.031
X-34.205 Y-18.181
X-34.152 Y-18.322
X-34.07 Y-18.447
X-33.963 Y-18.552
X-33.84 Y-18.638
X-33.637 Y-18.699
X-33.426 Y-18.7
X-33.223 Y-18.641
X-33.045 Y-18.527
X-32.906 Y-18.368
X-32.818 Y-18.175
X-32.787 Y-17.966
Y-17.47
G3 X-33.289 Y-17.222 I-0.317 J-0.011
G1 X-33.372 Y-17.281
X-33.677 Y-17.498
X-34.079 Y-17.784
G3 X-34.213 Y-18.031 I0.184 J-0.259
G1 Y-18.513
X-34.205 Y-18.662
X-34.158 Y-18.805
X-34.077 Y-18.931
X-33.974 Y-19.04
X-33.956 Y-19.053
X-33.749 Y-19.155
X-33.521 Y-19.188
X-33.294 Y-19.15
X-33.089 Y-19.044
X-32.927 Y-18.881
X-32.823 Y-18.675
X-32.787 Y-18.448
Y-17.966
G3 X-33.285 Y-17.716 I-0.317 J-0.011
G1 X-33.372 Y-17.776
X-33.673 Y-17.984
X-34.076 Y-18.263
G3 X-34.213 Y-18.513 I0.181 J-0.261
G1 Y-18.986
X-34.205 Y-19.136
X-34.16 Y-19.279
X-34.082 Y-19.407
X-33.978 Y-19.515
X-33.966 Y-19.524
X-33.76 Y-19.63
X-33.531 Y-19.668
X-33.301 Y-19.632
X-33.094 Y-19.527
X-32.93 Y-19.363
X-32.824 Y-19.156
X-32.787 Y-18.927
Y-18.448
G3 X-33.284 Y-18.196 I-0.317 J-0.011
G1 X-33.373 Y-18.257
X-33.671 Y-18.46
X-34.074 Y-18.734
G3 X-34.213 Y-18.986 I0.179 J-0.262
G1 Y-19.489
X-34.205 Y-19.638
X-34.152 Y-19.779
X-34.07 Y-19.904
X-33.963 Y-20.009
X-33.84 Y-20.095
X-33.637 Y-20.156
X-33.426 Y-20.157
X-33.223 Y-20.098
X-33.045 Y-19.984
X-32.906 Y-19.825
X-32.818 Y-19.632
X-32.787 Y-19.423
Y-18.927
G3 X-33.289 Y-18.679 I-0.317 J-0.011
G1 X-33.372 Y-18.738
X-33.677 Y-18.955
X-34.079 Y-19.241
G3 X-34.213 Y-19.489 I0.184 J-0.259
G1 Y-19.97
X-34.205 Y-20.12
X-34.158 Y-20.262
X-34.077 Y-20.388
X-33.974 Y-20.497
X-33.956 Y-20.51
X-33.749 Y-20.612
X-33.521 Y-20.645
X-33.294 Y-20.607
X-33.089 Y-20.501
X-32.927 Y-20.338
X-32.823 Y-20.132
X-32.787 Y-19.905
Y-19.423
G3 X-33.285 Y-19.173 I-0.317 J-0.011
G1 X-33.372 Y-19.233
X-33.673 Y-19.441
X-34.076 Y-19.72
G3 X-34.213 Y-19.97 I0.181 J-0.261
G1 Y-20.443
X-34.205 Y-20.593
X-34.16 Y-20.736
X-34.082 Y-20.864
X-33.978 Y-20.972
X-33.966 Y-20.981
X-33.76 Y-21.087
X-33.531 Y-21.125
X-33.301 Y-21.089
X-33.094 Y-20.984
X-32.93 Y-20.82
X-32.824 Y-20.613
X-32.787 Y-20.384
Y-19.905
G3 X-33.284 Y-19.653 I-0.317 J-0.011
G1 X-33.373 Y-19.714
X-33.671 Y-19.917
X-34.074 Y-20.192
G3 X-34.213 Y-20.443 I0.179 J-0.262
G1 Y-20.946
X-34.205 Y-21.095
X-34.152 Y-21.236
X-34.07 Y-21.361
X-33.963 Y-21.466
X-33.84 Y-21.552
X-33.637 Y-21.613
X-33.426 Y-21.614
X-33.223 Y-21.555
X-33.045 Y-21.441
X-32.906 Y-21.282
X-32.818 Y-21.09
X-32.787 Y-20.88
Y-20.384
G3 X-33.289 Y-20.136 I-0.317 J-0.011
G1 X-33.372 Y-20.195
X-33.677 Y-20.412
X-34.079 Y-20.698
G3 X-34.213 Y-20.946 I0.184 J-0.259
G1 Y-21.427
X-34.205 Y-21.577
X-34.158 Y-21.719
X-34.077 Y-21.845
X-33.974 Y-21.954
X-33.956 Y-21.967
X-33.749 Y-22.069
X-33.521 Y-22.102
X-33.294 Y-22.064
X-33.089 Y-21.958
X-32.927 Y-21.795
X-32.823 Y-21.589
X-32.787 Y-21.362
Y-20.88
G3 X-33.285 Y-20.63 I-0.317 J-0.011
G1 X-33.372 Y-20.69
X-33.673 Y-20.898
X-34.076 Y-21.177
G3 X-34.213 Y-21.427 I0.181 J-0.261
G1 Y-21.9
X-34.205 Y-22.05
X-34.16 Y-22.193
X-34.082 Y-22.321
X-33.978 Y-22.429
X-33.966 Y-22.438
X-33.76 Y-22.544
X-33.531 Y-22.582
X-33.301 Y-22.546
X-33.094 Y-22.441
X-32.93 Y-22.277
X-32.824 Y-22.07
X-32.787 Y-21.841
Y-21.362
G3 X-33.284 Y-21.11 I-0.317 J-0.011
G1 X-33.373 Y-21.171
X-33.671 Y-21.374
X-34.074 Y-21.649
G3 X-34.213 Y-21.9 I0.179 J-0.262
G1 Y-22.403
X-34.205 Y-22.552
X-34.152 Y-22.693
X-34.07 Y-22.819
X-33.963 Y-22.924
X-33.84 Y-23.01
X-33.637 Y-23.07
X-33.426 Y-23.071
X-33.223 Y-23.012
X-33.045 Y-22.898
X-32.906 Y-22.739
X-32.818 Y-22.547
X-32.787 Y-22.337
Y-21.841
G3 X-33.289 Y-21.593 I-0.317 J-0.011
G1 X-33.372 Y-21.652
X-33.677 Y-21.869
X-34.079 Y-22.155
G3 X-34.213 Y-22.403 I0.184 J-0.259
G1 Y-22.884
X-34.205 Y-23.034
X-34.158 Y-23.176
X-34.077 Y-23.303
X-33.974 Y-23.411
X-33.956 Y-23.424
X-33.749 Y-23.526
X-33.521 Y-23.56
X-33.294 Y-23.521
X-33.089 Y-23.416
X-32.927 Y-23.252
X-32.823 Y-23.046
X-32.787 Y-22.819
Y-22.337
G3 X-33.285 Y-22.087 I-0.317 J-0.011
G1 X-33.372 Y-22.147
X-33.673 Y-22.355
X-34.076 Y-22.634
G3 X-34.213 Y-22.884 I0.181 J-0.261
G1 Y-23.357
X-34.205 Y-23.507
X-34.16 Y-23.65
X-34.082 Y-23.778
X-33.978 Y-23.886
X-33.966 Y-23.895
X-33.76 Y-24.002
X-33.531 Y-24.039
X-33.301 Y-24.003
X-33.094 Y-23.898
X-32.93 Y-23.734
X-32.824 Y-23.527
X-32.787 Y-23.298
Y-22.819
G3 X-33.284 Y-22.567 I-0.317 J-0.011
G1 X-33.373 Y-22.628
X-33.671 Y-22.831
X-34.074 Y-23.106
G3 X-34.213 Y-23.357 I0.179 J-0.262
G1 Y-23.86
X-34.205 Y-24.01
X-34.152 Y-24.15
X-34.07 Y-24.276
X-33.963 Y-24.381
X-33.84 Y-24.467
X-33.637 Y-24.527
X-33.426 Y-24.528
X-33.223 Y-24.469
X-33.045 Y-24.355
X-32.906 Y-24.196
X-32.818 Y-24.004
X-32.787 Y-23.794
Y-23.298
G3 X-33.289 Y-23.05 I-0.317 J-0.011
G1 X-33.372 Y-23.109
X-33.677 Y-23.326
X-34.079 Y-23.612
G3 X-34.213 Y-23.86 I0.184 J-0.259
G1 Y-24.341
X-34.205 Y-24.491
X-34.158 Y-24.633
X-34.077 Y-24.76
X-33.974 Y-24.868
X-33.956 Y-24.881
X-33.749 Y-24.983
X-33.521 Y-25.017
X-33.294 Y-24.979
X-33.089 Y-24.873
X-32.927 Y-24.709
X-32.823 Y-24.503
X-32.787 Y-24.276
Y-23.794
G3 X-33.285 Y-23.544 I-0.317 J-0.011
G1 X-33.372 Y-23.604
X-33.673 Y-23.812
X-34.076 Y-24.091
G3 X-34.213 Y-24.341 I0.181 J-0.261
G1 Y-24.814
X-34.205 Y-24.964
X-34.16 Y-25.107
X-34.082 Y-25.235
X-33.978 Y-25.344
X-33.966 Y-25.352
X-33.76 Y-25.459
X-33.531 Y-25.496
X-33.301 Y-25.46
X-33.094 Y-25.355
X-32.93 Y-25.191
X-32.824 Y-24.984
X-32.787 Y-24.755
Y-24.276
G3 X-33.284 Y-24.024 I-0.317 J-0.011
G1 X-33.373 Y-24.085
X-33.671 Y-24.288
X-34.074 Y-24.563
G3 X-34.213 Y-24.814 I0.179 J-0.262
G1 Y-25.317
X-34.205 Y-25.467
X-34.152 Y-25.607
X-34.07 Y-25.733
X-33.963 Y-25.838
X-33.84 Y-25.924
X-33.637 Y-25.984
X-33.426 Y-25.985
X-33.223 Y-25.926
X-33.045 Y-25.812
X-32.906 Y-25.653
X-32.818 Y-25.461
X-32.787 Y-25.251
Y-24.755
G3 X-33.289 Y-24.507 I-0.317 J-0.011
G1 X-33.372 Y-24.566
X-33.677 Y-24.783
X-34.079 Y-25.069
G3 X-34.213 Y-25.317 I0.184 J-0.259
G1 Y-25.798
X-34.205 Y-25.948
X-34.158 Y-26.09
X-34.077 Y-26.217
X-33.974 Y-26.325
X-33.956 Y-26.338
X-33.749 Y-26.44
X-33.521 Y-26.474
X-33.294 Y-26.436
X-33.089 Y-26.33
X-32.927 Y-26.166
X-32.823 Y-25.96
X-32.787 Y-25.733
Y-25.251
G3 X-33.285 Y-25.001 I-0.317 J-0.011
G1 X-33.372 Y-25.061
X-33.673 Y-25.269
X-34.076 Y-25.548
G3 X-34.213 Y-25.798 I0.181 J-0.261
G1 Y-26.271
X-34.205 Y-26.421
X-34.16 Y-26.564
X-34.082 Y-26.692
X-33.978 Y-26.801
X-33.966 Y-26.809
X-33.76 Y-26.916
X-33.531 Y-26.953
X-33.301 Y-26.917
X-33.094 Y-26.812
X-32.93 Y-26.648
X-32.824 Y-26.441
X-32.787 Y-26.212
Y-25.733
G3 X-33.284 Y-25.481 I-0.317 J-0.011
G1 X-33.373 Y-25.542
X-33.671 Y-25.745
X-34.074 Y-26.02
G3 X-34.213 Y-26.271 I0.179 J-0.262
G1 Y-26.774
X-34.205 Y-26.924
X-34.152 Y-27.064
X-34.07 Y-27.19
X-33.963 Y-27.295
X-33.84 Y-27.381
X-33.637 Y-27.441
X-33.426 Y-27.442
X-33.223 Y-27.383
X-33.045 Y-27.27
X-32.906 Y-27.11
X-32.818 Y-26.918
X-32.787 Y-26.709
Y-26.212
G3 X-33.289 Y-25.964 I-0.317 J-0.011
G1 X-33.372 Y-26.023
X-33.677 Y-26.24
X-34.079 Y-26.526
G3 X-34.213 Y-26.774 I0.184 J-0.259
G1 Y-27.255
X-34.205 Y-27.405
X-34.158 Y-27.547
X-34.077 Y-27.674
X-33.974 Y-27.782
X-33.956 Y-27.795
X-33.749 Y-27.897
X-33.521 Y-27.931
X-33.294 Y-27.893
X-33.089 Y-27.787
X-32.927 Y-27.623
X-32.823 Y-27.417
X-32.787 Y-27.19
Y-26.709
G3 X-33.285 Y-26.458 I-0.317 J-0.011
G1 X-33.372 Y-26.519
X-33.673 Y-26.726
X-34.076 Y-27.005
G3 X-34.213 Y-27.255 I0.181 J-0.261
G1 Y-27.728
X-34.205 Y-27.878
X-34.16 Y-28.021
X-34.082 Y-28.149
X-33.978 Y-28.258
X-33.966 Y-28.266
X-33.76 Y-28.373
X-33.531 Y-28.41
X-33.301 Y-28.374
X-33.094 Y-28.269
X-32.93 Y-28.105
X-32.824 Y-27.898
X-32.787 Y-27.669
Y-27.19
G3 X-33.284 Y-26.939 I-0.317 J-0.011
G1 X-33.373 Y-26.999
X-33.671 Y-27.202
X-34.074 Y-27.477
G3 X-34.213 Y-27.728 I0.179 J-0.262
G1 Y-28.231
X-34.205 Y-28.381
X-34.152 Y-28.521
X-34.07 Y-28.647
X-33.963 Y-28.752
X-33.84 Y-28.838
X-33.637 Y-28.898
X-33.426 Y-28.899
X-33.223 Y-28.84
X-33.045 Y-28.727
X-32.906 Y-28.567
X-32.818 Y-28.375
X-32.787 Y-28.166
Y-27.669
G3 X-33.289 Y-27.421 I-0.317 J-0.011
G1 X-33.372 Y-27.48
X-33.677 Y-27.697
X-34.079 Y-27.983
G3 X-34.213 Y-28.231 I0.184 J-0.259
G1 Y-28.712
X-34.205 Y-28.862
X-34.158 Y-29.004
X-34.077 Y-29.131
X-33.974 Y-29.239
X-33.956 Y-29.252
X-33.749 Y-29.354
X-33.521 Y-29.388
X-33.294 Y-29.35
X-33.089 Y-29.244
X-32.927 Y-29.08
X-32.823 Y-28.875
X-32.787 Y-28.647
Y-28.166
G3 X-33.285 Y-27.916 I-0.317 J-0.011
G1 X-33.372 Y-27.976
X-33.673 Y-28.183
X-34.076 Y-28.462
G3 X-34.213 Y-28.712 I0.181 J-0.261
G1 Y-29.185
X-34.205 Y-29.335
X-34.16 Y-29.478
X-34.082 Y-29.606
X-33.978 Y-29.715
X-33.966 Y-29.724
X-33.76 Y-29.83
X-33.531 Y-29.867
X-33.301 Y-29.831
X-33.094 Y-29.726
X-32.93 Y-29.562
X-32.824 Y-29.355
X-32.787 Y-29.126
Y-28.647
G3 X-33.284 Y-28.396 I-0.317 J-0.011
G1 X-33.373 Y-28.456
X-33.671 Y-28.659
X-34.074 Y-28.934
G3 X-34.213 Y-29.185 I0.179 J-0.262
G1 Y-29.688
X-34.205 Y-29.838
X-34.152 Y-29.978
X-34.07 Y-30.104
X-33.963 Y-30.209
X-33.84 Y-30.295
X-33.637 Y-30.355
X-33.426 Y-30.356
X-33.223 Y-30.297
X-33.045 Y-30.184
X-32.906 Y-30.024
X-32.818 Y-29.832
X-32.787 Y-29.623
Y-29.126
G3 X-33.289 Y-28.878 I-0.317 J-0.011
G1 X-33.372 Y-28.937
X-33.677 Y-29.154
X-34.079 Y-29.44
G3 X-34.213 Y-29.688 I0.184 J-0.259
G1 Y-30.169
X-34.205 Y-30.319
X-34.158 Y-30.461
X-34.077 Y-30.588
X-33.974 Y-30.696
X-33.956 Y-30.709
X-33.749 Y-30.811
X-33.521 Y-30.845
X-33.294 Y-30.807
X-33.089 Y-30.701
X-32.927 Y-30.537
X-32.823 Y-30.332
X-32.787 Y-30.104
Y-29.623
G3 X-33.285 Y-29.373 I-0.317 J-0.011
G1 X-33.372 Y-29.433
X-33.673 Y-29.64
X-34.076 Y-29.919
G3 X-34.213 Y-30.169 I0.181 J-0.261
G1 Y-30.642
X-34.205 Y-30.792
X-34.16 Y-30.935
X-34.082 Y-31.063
X-33.978 Y-31.172
X-33.966 Y-31.181
X-33.76 Y-31.287
X-33.531 Y-31.324
X-33.301 Y-31.288
X-33.094 Y-31.183
X-32.93 Y-31.019
X-32.824 Y-30.813
X-32.787 Y-30.583
Y-30.104
G3 X-33.284 Y-29.853 I-0.317 J-0.011
G1 X-33.373 Y-29.913
X-33.671 Y-30.117
X-34.074 Y-30.391
G3 X-34.213 Y-30.642 I0.179 J-0.262
G1 Y-31.145
X-34.205 Y-31.295
X-34.152 Y-31.435
X-34.07 Y-31.561
X-33.963 Y-31.666
X-33.84 Y-31.752
X-33.637 Y-31.812
X-33.426 Y-31.813
X-33.223 Y-31.755
X-33.045 Y-31.641
X-32.906 Y-31.481
X-32.818 Y-31.289
X-32.787 Y-31.08
Y-30.583
G3 X-33.289 Y-30.335 I-0.317 J-0.011
G1 X-33.372 Y-30.394
X-33.677 Y-30.611
X-34.079 Y-30.897
G3 X-34.213 Y-31.145 I0.184 J-0.259
G1 Y-31.626
X-34.205 Y-31.776
X-34.158 Y-31.919
X-34.077 Y-32.045
X-33.974 Y-32.153
X-33.956 Y-32.166
X-33.749 Y-32.268
X-33.521 Y-32.302
X-33.294 Y-32.264
X-33.089 Y-32.158
X-32.927 Y-31.994
X-32.823 Y-31.789
X-32.787 Y-31.561
Y-31.08
G3 X-33.285 Y-30.83 I-0.317 J-0.011
G1 X-33.372 Y-30.89
X-33.673 Y-31.098
X-34.076 Y-31.376
G3 X-34.213 Y-31.626 I0.181 J-0.261
G1 Y-32.099
X-34.205 Y-32.249
X-34.16 Y-32.392
X-34.082 Y-32.52
X-33.978 Y-32.629
X-33.966 Y-32.638
X-33.76 Y-32.744
X-33.531 Y-32.781
X-33.301 Y-32.745
X-33.094 Y-32.64
X-32.93 Y-32.476
X-32.824 Y-32.27
X-32.787 Y-32.04
Y-31.561
G3 X-33.284 Y-31.31 I-0.317 J-0.011
G1 X-33.373 Y-31.37
X-33.671 Y-31.574
X-34.074 Y-31.848
G3 X-34.213 Y-32.099 I0.179 J-0.262
G1 Y-32.602
X-34.205 Y-32.752
X-34.152 Y-32.892
X-34.07 Y-33.018
X-33.963 Y-33.123
X-33.84 Y-33.209
X-33.637 Y-33.27
X-33.426
X-33.223 Y-33.212
X-33.045 Y-33.098
X-32.906 Y-32.938
X-32.818 Y-32.746
X-32.787 Y-32.537
Y-32.04
G3 X-33.289 Y-31.793 I-0.317 J-0.011
G1 X-33.372 Y-31.851
X-33.677 Y-32.068
X-34.079 Y-32.354
G3 X-34.213 Y-32.602 I0.184 J-0.259
G1 Y-33.083
X-34.205 Y-33.233
X-34.158 Y-33.376
X-34.077 Y-33.502
X-33.974 Y-33.61
X-33.956 Y-33.623
X-33.749 Y-33.725
X-33.521 Y-33.759
X-33.294 Y-33.721
X-33.089 Y-33.615
X-32.927 Y-33.451
X-32.823 Y-33.246
X-32.787 Y-33.018
Y-32.537
G3 X-33.285 Y-32.287 I-0.317 J-0.011
G1 X-33.372 Y-32.347
X-33.673 Y-32.555
X-34.076 Y-32.833
G3 X-34.213 Y-33.083 I0.181 J-0.261
G1 Y-33.556
X-34.205 Y-33.706
X-34.171 Y-33.852
X-34.102 Y-33.985
X-34.003 Y-34.102
X-33.798 Y-34.224
X-33.564 Y-34.273
X-33.327 Y-34.246
X-33.11 Y-34.145
X-32.937 Y-33.98
X-32.826 Y-33.769
X-32.787 Y-33.533
Y-33.018
G3 X-33.284 Y-32.767 I-0.317 J-0.011
G1 X-33.373 Y-32.828
X-33.671 Y-33.031
X-34.074 Y-33.305
G3 X-34.213 Y-33.556 I0.179 J-0.262
G1 Y-35.451
X-34.203 Y-35.518
X-34.179 Y-35.581
X-33.89 Y-36.163
X-33.389 Y-37.169
G3 X-32.787 Y-37.039 I0.284 J0.141
G1 Y-33.533
G3 X-33.361 Y-33.357 I-0.317 J-0.011
G1 X-33.403 Y-33.414 Z-1.392
X-33.442 Y-33.468 Z-1.369
X-33.478 Y-33.516 Z-1.331
X-33.508 Y-33.557 Z-1.28
X-33.53 Y-33.587 Z-1.22
X-33.544 Y-33.606 Z-1.153
X-33.549 Y-33.613 Z-1.082
Z15
(When using Fusion 360 for Personal Use, the feedrate of )
(rapid moves is reduced to match the feedrate of cutting )
(moves, which can increase machining time. Unrestricted )
(rapid moves are available with a Fusion 360 Subscription. )

(2D-Kontur1)
G0 X-56.72 Y-42.588
G1 Z15 F1000
Z5
Z2.5 F333.3
S5000
X-66 Z2.176
G2 X-67.588 Y-41 Z2.089 I0 J1.588
G1 Y-3 Z0.762
G2 X-64 Y0.587 Z0.565 I3.588 J0
G1 X-33.5 Z-0.5
S8000
X-3 F1000
G2 X0.587 Y-3 I0 J-3.587
G1 Y-41
G2 X-1 Y-42.588 I-1.587 J0
G1 X-31.2
G2 X-32.787 Y-41 I0 J1.588
G1 Y-37.088
X-34.213
Y-41
G2 X-35.8 Y-42.588 I-1.587 J0
G1 X-66
G2 X-67.588 Y-41 I0 J1.588
G1 Y-3
G2 X-64 Y0.587 I3.588 J0
G1 X-33.5
S5000
X-19.182 Z-1 F333.3
S8000
X-3 F1000
G2 X0.587 Y-3 I0 J-3.587
G1 Y-41
G2 X-1 Y-42.588 I-1.587 J0
G1 X-31.2
G2 X-32.787 Y-41 I0 J1.588
G1 Y-37.088
X-34.213
Y-41
G2 X-35.8 Y-42.588 I-1.587 J0
G1 X-66
G2 X-67.588 Y-41 I0 J1.588
G1 Y-3
G2 X-64 Y0.587 I3.588 J0
G1 X-33.5
X-19.182
S5000
X-4.864 Z-1.5 F333.3
S8000
X-3 F1000
G2 X0.587 Y-3 I0 J-3.587
G1 Y-41
G2 X-1 Y-42.588 I-1.587 J0
G1 X-31.2
G2 X-32.787 Y-41 I0 J1.588
G1 Y-37.088
X-34.213
Y-41
G2 X-35.8 Y-42.588 I-1.587 J0
G1 X-66
G2 X-67.588 Y-41 I0 J1.588
G1 Y-3
G2 X-64 Y0.587 I3.588 J0
G1 X-19.182
X-4.864
S5000
X-3 Z-1.565 F333.3
G2 X0.587 Y-3 Z-1.762 I0 J-3.587
G1 Y-9.819 Z-2
S8000
Y-41 F1000
G2 X-1 Y-42.588 I-1.587 J0
G1 X-31.2
G2 X-32.787 Y-41 I0 J1.588
G1 Y-37.088
X-34.213
Y-41
G2 X-35.8 Y-42.588 I-1.587 J0
G1 X-66
G2 X-67.588 Y-41 I0 J1.588
G1 Y-3
G2 X-64 Y0.587 I3.588 J0
G1 X-4.864
X-3
G2 X0.587 Y-3 I0 J-3.587
G1 Y-9.819
S5000
Y-24.137 Z-2.5 F333.3
S8000
Y-41 F1000
G2 X-1 Y-42.588 I-1.587 J0
G1 X-31.2
G2 X-32.787 Y-41 I0 J1.588
G1 Y-37.088
X-34.213
Y-41
G2 X-35.8 Y-42.588 I-1.587 J0
G1 X-66
G2 X-67.588 Y-41 I0 J1.588
G1 Y-3
G2 X-64 Y0.587 I3.588 J0
G1 X-3
G2 X0.587 Y-3 I0 J-3.587
G1 Y-24.137
S5000
Y-38.455 Z-3 F333.3
S8000
Y-41 F1000
G2 X-1 Y-42.588 I-1.587 J0
G1 X-31.2
G2 X-32.787 Y-41 I0 J1.588
G1 Y-37.088
X-34.213
Y-41
G2 X-35.8 Y-42.588 I-1.587 J0
G1 X-66
G2 X-67.588 Y-41 I0 J1.588
G1 Y-3
G2 X-64 Y0.587 I3.588 J0
G1 X-3
G2 X0.587 Y-3 I0 J-3.587
G1 Y-24.137
Y-38.455
S5000
Y-41 Z-3.089 F333.3
G2 X-1 Y-42.588 Z-3.176 I-1.587 J0
G1 X-10.28 Z-3.5
S8000
X-31.2 F1000
G2 X-32.787 Y-41 I0 J1.588
G1 Y-37.088
X-34.213
Y-41
G2 X-35.8 Y-42.588 I-1.587 J0
G1 X-66
G2 X-67.588 Y-41 I0 J1.588
G1 Y-3
G2 X-64 Y0.587 I3.588 J0
G1 X-3
G2 X0.587 Y-3 I0 J-3.587
G1 Y-38.455
Y-41
G2 X-1 Y-42.588 I-1.587 J0
G1 X-10.28
S5000
X-24.598 Z-4 F333.3
S8000
X-31.2 F1000
G2 X-32.787 Y-41 I0 J1.588
G1 Y-37.088
X-34.213
Y-41
G2 X-35.8 Y-42.588 I-1.587 J0
G1 X-66
G2 X-67.588 Y-41 I0 J1.588
G1 Y-3
G2 X-64 Y0.587 I3.588 J0
G1 X-3
G2 X0.587 Y-3 I0 J-3.587
G1 Y-41
G2 X-1 Y-42.588 I-1.587 J0
G1 X-24.598
S5000
X-31.2 Z-4.231 F333.3
G2 X-32.787 Y-41 Z-4.318 I0 J1.588
G1 Y-37.088 Z-4.454
X-34.098 Z-4.5
S8000
X-34.213 F1000
Y-41
G2 X-35.8 Y-42.588 I-1.587 J0
G1 X-66
G2 X-67.588 Y-41 I0 J1.588
G1 Y-3
G2 X-64 Y0.587 I3.588 J0
G1 X-36.675
Z-4.206
X-30.325
Z-4.5 F333.3
X-3 F1000
G2 X0.587 Y-3 I0 J-3.587
G1 Y-41
G2 X-1 Y-42.588 I-1.587 J0
G1 X-31.2
G2 X-32.787 Y-41 I0 J1.588
G1 Y-37.088
X-34.098
S5000
X-34.213 Z-4.504 F333.3
Y-41 Z-4.641
G2 X-35.8 Y-42.588 Z-4.728 I-1.587 J0
G1 X-43.597 Z-5
S8000
X-66 F1000
G2 X-67.588 Y-41 I0 J1.588
G1 Y-3
G2 X-64 Y0.587 I3.588 J0
G1 X-36.675
Z-4.206
X-30.325
Z-5 F333.3
X-3 F1000
G2 X0.587 Y-3 I0 J-3.587
G1 Y-41
G2 X-1 Y-42.588 I-1.587 J0
G1 X-31.2
G2 X-32.787 Y-41 I0 J1.588
G1 Y-37.088
X-34.213
Y-41
G2 X-35.8 Y-42.588 I-1.587 J0
G1 X-43.597
G3 X-43.914 Y-42.905 I0 J-0.317
G1 Y-43.222
G19 G2 Y-43.54 Z-4.683 J0 K0.318
G1 Z15
G17
M5
M30
