(1001)
G90 G94
G17
G21
(When using Fusion 360 for Personal Use, the feedrate of )
(rapid moves is reduced to match the feedrate of cutting )
(moves, which can increase machining time. Unrestricted )
(rapid moves are available with a Fusion 360 Subscription. )

(2D-Kontur1)
T5
S8000 M3
G54
G0 X-2.412 Y-6.119
Z15
G1 Z5 F1000
Z2.5
S5000
Y-44 Z1.177 F333.3
G2 X-4 Y-45.588 Z1.09 I-1.588 J0
G1 X-34.2 Z0.035
G2 X-35.787 Y-44 Z-0.052 I0 J1.588
G1 Y-24 Z-0.75
S8000
Y-4 F1000
G2 X-34.2 Y-2.412 I1.587 J0
G1 X-6
G2 X-2.412 Y-6 I0 J-3.588
G1 Y-44
G2 X-4 Y-45.588 I-1.588 J0
G1 X-34.2
G2 X-35.787 Y-44 I0 J1.588
G1 Y-24
S5000
Y-5.386 Z-1.4 F333.3
S8000
Y-4 F1000
G2 X-34.2 Y-2.412 I1.587 J0
G1 X-6
G2 X-2.412 Y-6 I0 J-3.588
G1 Y-44
G2 X-4 Y-45.588 I-1.588 J0
G1 X-34.2
G2 X-35.787 Y-44 I0 J1.588
G1 Y-24
Y-5.386
G3 X-36.105 Y-5.069 I-0.318 J0
G1 X-36.423
G18 G3 X-36.74 Z-1.083 I0 K0.317
G1 Z15
G17
(When using Fusion 360 for Personal Use, the feedrate of )
(rapid moves is reduced to match the feedrate of cutting )
(moves, which can increase machining time. Unrestricted )
(rapid moves are available with a Fusion 360 Subscription. )

(2D-Kontur2)
G0 X-37.213 Y-6.119
G1 Z15 F1000
Z5
Z2.5 F333.3
S5000
Y-44 Z1.177
G2 X-38.8 Y-45.588 Z1.09 I-1.587 J0
G1 X-69 Z0.035
G2 X-70.588 Y-44 Z-0.052 I0 J1.588
G1 Y-24 Z-0.75
S8000
Y-6 F1000
G2 X-67 Y-2.412 I3.588 J0
G1 X-38.8
G2 X-37.213 Y-4 I0 J-1.588
G1 Y-44
G2 X-38.8 Y-45.588 I-1.587 J0
G1 X-69
G2 X-70.588 Y-44 I0 J1.588
G1 Y-24
S5000
Y-6 Z-1.379 F333.3
G2 X-70.535 Y-5.389 Z-1.4 I3.588 J0
S8000
X-67 Y-2.412 I3.535 J-0.611 F1000
G1 X-38.8
G2 X-37.213 Y-4 I0 J-1.588
G1 Y-44
G2 X-38.8 Y-45.588 I-1.587 J0
G1 X-69
G2 X-70.588 Y-44 I0 J1.588
G1 Y-24
Y-6
G2 X-70.535 Y-5.389 I3.588 J0
G3 X-70.794 Y-5.023 I-0.313 J0.054
G1 X-71.107 Y-4.968
X-71.176 Y-4.956 Z-1.392
X-71.243 Y-4.945 Z-1.369
X-71.302 Y-4.935 Z-1.331
X-71.351 Y-4.926 Z-1.28
X-71.389 Y-4.92 Z-1.22
X-71.412 Y-4.916 Z-1.153
X-71.42 Y-4.914 Z-1.083
Z15
(When using Fusion 360 for Personal Use, the feedrate of )
(rapid moves is reduced to match the feedrate of cutting )
(moves, which can increase machining time. Unrestricted )
(rapid moves are available with a Fusion 360 Subscription. )

(2D-Kontur3)
G0 X-52.561 Y-45.588
G1 Z15 F1000
Z5
Z2.5 F333.3
S5000
X-69 Z1.926
G2 X-70.588 Y-44 Z1.839 I0 J1.588
G1 Y-6 Z0.512
G2 X-67 Y-2.412 Z0.315 I3.588 J0
G1 X-36.5 Z-0.75
S8000
X-6 F1000
G2 X-2.412 Y-6 I0 J-3.588
G1 Y-44
G2 X-4 Y-45.588 I-1.588 J0
G1 X-34.2
G2 X-35.787 Y-44 I0 J1.588
G1 Y-40.088
X-37.213
Y-44
G2 X-38.8 Y-45.588 I-1.587 J0
G1 X-69
G2 X-70.588 Y-44 I0 J1.588
G1 Y-6
G2 X-67 Y-2.412 I3.588 J0
G1 X-36.5
S5000
X-15.023 Z-1.5 F333.3
S8000
X-6 F1000
G2 X-2.412 Y-6 I0 J-3.588
G1 Y-44
G2 X-4 Y-45.588 I-1.588 J0
G1 X-34.2
G2 X-35.787 Y-44 I0 J1.588
G1 Y-40.088
X-37.213
Y-44
G2 X-38.8 Y-45.588 I-1.587 J0
G1 X-69
G2 X-70.588 Y-44 I0 J1.588
G1 Y-6
G2 X-67 Y-2.412 I3.588 J0
G1 X-36.5
X-15.023
S5000
X-6 Z-1.815 F333.3
G2 X-2.412 Y-6 Z-2.012 I0 J-3.588
G1 Y-12.819 Z-2.25
S8000
Y-44 F1000
G2 X-4 Y-45.588 I-1.588 J0
G1 X-34.2
G2 X-35.787 Y-44 I0 J1.588
G1 Y-40.088
X-37.213
Y-44
G2 X-38.8 Y-45.588 I-1.587 J0
G1 X-69
G2 X-70.588 Y-44 I0 J1.588
G1 Y-6
G2 X-67 Y-2.412 I3.588 J0
G1 X-15.023
X-6
G2 X-2.412 Y-6 I0 J-3.588
G1 Y-12.819
S5000
Y-34.296 Z-3 F333.3
S8000
Y-44 F1000
G2 X-4 Y-45.588 I-1.588 J0
G1 X-34.2
G2 X-35.787 Y-44 I0 J1.588
G1 Y-40.088
X-37.213
Y-44
G2 X-38.8 Y-45.588 I-1.587 J0
G1 X-69
G2 X-70.588 Y-44 I0 J1.588
G1 Y-6
G2 X-67 Y-2.412 I3.588 J0
G1 X-39.675
Z-2.45
X-33.325
Z-3 F333.3
X-6 F1000
G2 X-2.412 Y-6 I0 J-3.588
G1 Y-34.296
S5000
Y-40.024 Z-3.2 F333.3
S8000
Y-44 F1000
G2 X-4 Y-45.588 I-1.588 J0
G1 X-34.2
G2 X-35.787 Y-44 I0 J1.588
G1 Y-40.088
X-37.213
Y-44
G2 X-38.8 Y-45.588 I-1.587 J0
G1 X-69
G2 X-70.588 Y-44 I0 J1.588
G1 Y-6
G2 X-67 Y-2.412 I3.588 J0
G1 X-39.675
Z-2.45
X-33.325
Z-3.2 F333.3
X-6 F1000
G2 X-2.412 Y-6 I0 J-3.588
G1 Y-40.024
G3 X-2.095 Y-40.341 I0.317 J0
G1 X-1.778
G18 G2 X-1.46 Z-2.883 I0 K0.318
G1 Z15
G17
M5
M30
