;FLAVOR:Marlin
;TIME:4071
;Filament used: 2.53064m
;Layer height: 0.12
;MINX:12.5
;MINY:26.5
;MINZ:0.3
;MAXX:77.5
;MAXY:93.5
;MAXZ:9.62
;Generated with Cura_SteamEngine 4.6.1
M104 S210
M105
M109 S210
M82 ;absolute extrusion mode
;Sliced at: Wed 27-05-2020 12:18:58
G21 ;metric values
G90 ;absolute positioning
M82 ;set extruder to absolute mode
M107 ;start with the fan off
G1 Z5.0 F1800 ;move Z to 5mm
G28 X0 Y0 F1800 ;move X/Y to min endstops
G28 Z0 ;move Z to min endstop
G92 E0 ;zero the extruded length
G1 F200 E6.0 ;extrude 6.0mm of feed stock to build pressure
G1 Z5.0 F300 ;move the platform down 5mm
G92 E0 ;zero the extruded length again
G1 F1800
;Put printing message on LCD screen
M117 Printing...
G92 E0
G92 E0
G1 F1500 E-5
;LAYER_COUNT:67
;LAYER:0
M107
G0 F900 X14.409 Y57.371 Z0.3
;TYPE:SKIRT
G1 F1500 E0.70678
G1 F900 X14.819 Y57.894 E0.74325
G1 X14.852 Y59.318 E0.82142
G1 X14.833 Y62.09 E0.97355
G1 X14.416 Y62.625 E1.01077
G1 X14.452 Y59.345 E1.19079
G1 X14.42 Y57.903 E1.26994
G0 F810 X14.409 Y57.371
G0 F900 X14.754 Y57.167
G1 X15.216 Y57.74 E1.31034
G1 X15.252 Y59.321 E1.39712
G1 X15.233 Y62.147 E1.55221
G1 X15.229 Y62.241 E1.55738
G1 X14.646 Y62.984 E1.60921
G1 X14.235 Y63.617 E1.65063
G1 X13.962 Y64.129 E1.68247
G1 X14.033 Y62.14 E1.79169
G1 X14.052 Y59.348 E1.94492
G1 X13.991 Y56.556 E2.09818
G1 X13.954 Y55.866 E2.1361
G1 X14.23 Y56.364 E2.16735
G1 X14.464 Y56.722 E2.19082
G0 F810 X14.754 Y57.167
G0 F900 X15.079 Y56.933
G1 X15.613 Y57.587 E2.23715
G1 X15.652 Y59.324 E2.3325
G1 X15.633 Y62.162 E2.48825
G1 X15.624 Y62.398 E2.50121
G1 X15.341 Y62.731 E2.5252
G1 X14.971 Y63.218 E2.55876
G1 X14.58 Y63.82 E2.59816
G1 X14.098 Y64.762 E2.65623
G1 X13.782 Y65.573 E2.70399
G1 X13.577 Y66.3 E2.74545
G1 X13.416 Y67.064 E2.78829
G1 X13.37 Y67.42 E2.80799
G1 X13.534 Y64.909 E2.94609
G1 X13.633 Y62.132 E3.09858
G1 X13.652 Y59.351 E3.25121
G1 X13.591 Y56.571 E3.40381
G1 X13.418 Y53.352 E3.58072
G1 X13.353 Y52.432 E3.63133
G1 X13.524 Y53.486 E3.68993
G1 X13.72 Y54.234 E3.73237
G1 X13.867 Y54.671 E3.75767
G1 X14.142 Y55.333 E3.79701
G1 X14.328 Y55.721 E3.82062
G1 X14.575 Y56.161 E3.84832
G1 X14.788 Y56.488 E3.86973
G0 F810 X15.079 Y56.933
G0 F900 X15.404 Y56.699
G1 X15.657 Y57.028 E3.89251
G1 X16.01 Y57.434 E3.92203
G1 X16.052 Y59.327 E4.02595
G1 X16.033 Y62.177 E4.18236
G1 X16.019 Y62.56 E4.20339
G1 X15.654 Y62.98 E4.23393
G1 X15.296 Y63.452 E4.26644
G1 X14.925 Y64.023 E4.30381
G1 X14.462 Y64.928 E4.35959
G1 X14.161 Y65.701 E4.40512
G1 X13.965 Y66.396 E4.44475
G1 X13.811 Y67.129 E4.48585
G1 X13.753 Y67.571 E4.51032
G1 X13.706 Y68.267 E4.5486
G1 X13.7 Y79.008 E5.13806
G1 X13.711 Y83.849 E5.40373
G1 X13.732 Y84.227 E5.4245
G1 X13.832 Y84.99 E5.46674
G1 X13.964 Y85.603 E5.50115
G1 X14.103 Y86.118 E5.53042
G1 X14.242 Y86.53 E5.55428
G1 X14.507 Y87.17 E5.5923
G1 X14.683 Y87.536 E5.61459
G1 X15.07 Y88.202 E5.65686
G1 X15.404 Y88.699 E5.68972
G1 X15.657 Y89.028 E5.7125
G1 X16.049 Y89.477 E5.74521
G1 X16.699 Y90.11 E5.795
G1 X17.294 Y90.585 E5.83678
G1 X17.926 Y91.012 E5.87864
G1 X18.304 Y91.231 E5.90261
G1 X18.92 Y91.535 E5.94031
G1 X19.7 Y91.839 E5.98625
G1 X20.396 Y92.035 E6.02593
G1 X21.129 Y92.189 E6.06704
G1 X21.571 Y92.247 E6.0915
G1 X22.267 Y92.294 E6.12979
G1 X42.363 Y92.3 E7.23264
G1 X42.844 Y92.268 E7.2591
G1 X43.444 Y92.138 E7.29279
G1 X44.021 Y91.91 E7.32683
G1 X44.553 Y91.59 E7.36091
G1 X45 Y91.21 E7.3931
G1 X45.355 Y91.522 E7.41904
G1 X45.873 Y91.855 E7.45283
G1 X46.442 Y92.101 E7.48685
G1 X47.045 Y92.252 E7.52097
G1 X47.631 Y92.3 E7.55323
G1 X61.551 Y92.3 E8.31715
G1 X67.845 Y92.289 E8.66256
G1 X68.223 Y92.268 E8.68334
G1 X68.983 Y92.169 E8.7254
G1 X69.602 Y92.037 E8.76013
G1 X70.127 Y91.895 E8.78998
G1 X70.531 Y91.758 E8.81339
G1 X71.171 Y91.493 E8.85141
G1 X71.539 Y91.316 E8.87382
G1 X72.203 Y90.93 E8.91597
G1 X72.699 Y90.596 E8.94878
G1 X73.028 Y90.343 E8.97156
G1 X73.477 Y89.951 E9.00427
G1 X74.121 Y89.289 E9.05496
G1 X74.704 Y88.548 E9.1067
G1 X75.075 Y87.977 E9.14407
G1 X75.538 Y87.072 E9.19986
G1 X75.839 Y86.299 E9.24538
G1 X76.035 Y85.604 E9.28501
G1 X76.189 Y84.871 E9.32611
G1 X76.247 Y84.429 E9.35058
G1 X76.294 Y83.733 E9.38886
G1 X76.3 Y72.992 E9.97832
G1 X76.289 Y68.151 E10.24399
G1 X76.268 Y67.772 E10.26482
G1 X76.166 Y66.998 E10.30766
G1 X76.036 Y66.397 E10.34141
G1 X75.896 Y65.877 E10.37096
G1 X75.756 Y65.464 E10.3949
G1 X75.491 Y64.825 E10.43286
G1 X75.318 Y64.467 E10.45468
G1 X74.925 Y63.787 E10.49778
G1 X74.591 Y63.294 E10.53046
G1 X74.341 Y62.971 E10.55288
G1 X73.988 Y62.564 E10.58244
G1 X73.946 Y60.629 E10.68866
G1 X73.967 Y57.781 E10.84496
G1 X73.98 Y57.44 E10.86369
G1 X74.346 Y57.02 E10.89426
G1 X74.704 Y56.548 E10.92677
G1 X75.075 Y55.977 E10.96414
G1 X75.538 Y55.072 E11.01993
G1 X75.839 Y54.299 E11.06545
G1 X76.035 Y53.604 E11.10508
G1 X76.189 Y52.871 E11.14619
G1 X76.247 Y52.429 E11.17065
G1 X76.294 Y51.733 E11.20893
G1 X76.3 Y40.992 E11.79839
G1 X76.289 Y36.151 E12.06406
G1 X76.268 Y35.772 E12.08489
G1 X76.166 Y34.998 E12.12774
G1 X76.036 Y34.397 E12.16148
G1 X75.896 Y33.877 E12.19104
G1 X75.756 Y33.464 E12.21497
G1 X75.491 Y32.825 E12.25293
G1 X75.318 Y32.467 E12.27475
G1 X74.925 Y31.787 E12.31785
G1 X74.591 Y31.294 E12.35053
G1 X74.341 Y30.971 E12.37295
G1 X73.951 Y30.523 E12.40555
G1 X73.301 Y29.89 E12.45534
G1 X72.707 Y29.417 E12.49701
G1 X72.071 Y28.986 E12.53917
G1 X71.694 Y28.768 E12.56307
G1 X71.079 Y28.465 E12.6007
G1 X70.283 Y28.157 E12.64754
G1 X69.427 Y27.916 E12.69634
G1 X68.592 Y27.772 E12.74284
G1 X67.711 Y27.705 E12.79133
G1 X47.637 Y27.7 E13.89297
G1 X47.156 Y27.732 E13.91943
G1 X46.556 Y27.862 E13.95312
G1 X45.979 Y28.09 E13.98717
G1 X45.447 Y28.41 E14.02124
G1 X45 Y28.79 E14.05344
G1 X44.645 Y28.478 E14.07937
G1 X44.127 Y28.145 E14.11317
G1 X43.558 Y27.899 E14.14719
G1 X42.955 Y27.748 E14.1813
G1 X42.369 Y27.7 E14.21357
G1 X28.449 Y27.7 E14.97749
G1 X22.155 Y27.711 E15.3229
G1 X21.777 Y27.732 E15.34367
G1 X21.017 Y27.831 E15.38573
G1 X20.398 Y27.963 E15.42047
G1 X19.873 Y28.105 E15.45031
G1 X19.469 Y28.242 E15.47373
G1 X18.829 Y28.507 E15.51174
G1 X18.461 Y28.684 E15.53415
G1 X17.797 Y29.07 E15.5763
G1 X17.301 Y29.404 E15.60912
G1 X16.972 Y29.657 E15.63189
G1 X16.523 Y30.049 E15.6646
G1 X15.879 Y30.711 E15.71529
G1 X15.296 Y31.452 E15.76703
G1 X14.925 Y32.023 E15.8044
G1 X14.462 Y32.928 E15.86019
G1 X14.161 Y33.701 E15.90571
G1 X13.965 Y34.396 E15.94534
G1 X13.811 Y35.129 E15.98645
G1 X13.753 Y35.571 E16.01091
G1 X13.706 Y36.267 E16.04919
G1 X13.7 Y47.008 E16.63865
G1 X13.711 Y51.849 E16.90432
G1 X13.732 Y52.227 E16.9251
G1 X13.832 Y52.99 E16.96733
G1 X13.964 Y53.603 E17.00174
G1 X14.103 Y54.118 E17.03102
G1 X14.242 Y54.53 E17.05488
G1 X14.507 Y55.17 E17.09289
G1 X14.683 Y55.536 E17.11518
G1 X15.07 Y56.202 E17.15745
G1 X15.107 Y56.257 E17.16109
G0 F810 X15.404 Y56.699
G0 F900 X15.729 Y56.465
G1 X15.967 Y56.774 E17.1825
G1 X16.344 Y57.207 E17.214
G1 X16.407 Y57.272 E17.21897
G1 X16.452 Y59.33 E17.33194
G1 X16.433 Y62.191 E17.48895
G1 X16.414 Y62.724 E17.51822
G1 X15.967 Y63.229 E17.55523
G1 X15.621 Y63.686 E17.58669
G1 X15.27 Y64.226 E17.62203
G1 X14.826 Y65.094 E17.67554
G1 X14.54 Y65.829 E17.71882
G1 X14.353 Y66.492 E17.75663
G1 X14.206 Y67.195 E17.79604
G1 X14.151 Y67.611 E17.81907
G1 X14.106 Y68.286 E17.8562
G1 X14.1 Y79.008 E18.44461
G1 X14.111 Y83.838 E18.70968
G1 X14.183 Y84.643 E18.75403
G1 X14.306 Y85.312 E18.79136
G1 X14.486 Y86.002 E18.8305
G1 X14.617 Y86.389 E18.85292
G1 X14.872 Y87.007 E18.88961
G1 X15.038 Y87.351 E18.91057
G1 X15.406 Y87.986 E18.95085
G1 X15.729 Y88.465 E18.98255
G1 X15.967 Y88.774 E19.00396
G1 X16.344 Y89.207 E19.03546
G1 X16.965 Y89.811 E19.083
G1 X17.53 Y90.262 E19.12268
G1 X18.137 Y90.672 E19.16288
G1 X18.493 Y90.878 E19.18545
G1 X19.087 Y91.171 E19.2218
G1 X19.828 Y91.46 E19.26545
G1 X20.492 Y91.647 E19.3033
G1 X21.195 Y91.794 E19.34272
G1 X21.611 Y91.849 E19.36575
G1 X22.286 Y91.894 E19.40287
G1 X42.35 Y91.9 E20.50397
G1 X42.788 Y91.871 E20.52806
G1 X43.327 Y91.754 E20.55833
G1 X43.843 Y91.55 E20.58878
G1 X44.319 Y91.264 E20.61925
G1 X44.729 Y90.915 E20.6488
G1 X45.002 Y90.624 E20.6707
G1 X45.268 Y90.913 E20.69225
G1 X45.597 Y91.202 E20.71629
G1 X46.062 Y91.501 E20.74662
G1 X46.571 Y91.721 E20.77706
G1 X47.11 Y91.856 E20.80755
G1 X47.647 Y91.9 E20.83712
G1 X61.551 Y91.9 E21.60016
G1 X67.834 Y91.889 E21.94497
G1 X68.641 Y91.817 E21.98943
G1 X69.299 Y91.697 E22.02614
G1 X70.01 Y91.512 E22.06645
G1 X70.39 Y91.383 E22.08848
G1 X71.008 Y91.128 E22.12517
G1 X71.354 Y90.961 E22.14625
G1 X71.986 Y90.594 E22.18636
G1 X72.465 Y90.271 E22.21806
G1 X72.774 Y90.033 E22.23947
G1 X73.207 Y89.656 E22.27097
G1 X73.821 Y89.024 E22.31933
G1 X74.379 Y88.314 E22.36889
G1 X74.73 Y87.774 E22.40423
G1 X75.174 Y86.906 E22.45774
G1 X75.46 Y86.171 E22.50102
G1 X75.647 Y85.508 E22.53883
G1 X75.794 Y84.805 E22.57824
G1 X75.849 Y84.389 E22.60127
G1 X75.894 Y83.714 E22.63839
G1 X75.9 Y72.992 E23.22681
G1 X75.889 Y68.162 E23.49188
G1 X75.816 Y67.348 E23.53673
G1 X75.693 Y66.685 E23.57373
G1 X75.513 Y65.993 E23.61297
G1 X75.381 Y65.605 E23.63547
G1 X75.126 Y64.989 E23.67205
G1 X74.735 Y64.242 E23.71832
G1 X74.267 Y63.529 E23.76513
G1 X74.032 Y63.225 E23.78622
G1 X73.656 Y62.793 E23.81765
G1 X73.591 Y62.726 E23.82277
G1 X73.546 Y60.626 E23.93804
G1 X73.567 Y57.766 E24.095
G1 X73.585 Y57.277 E24.12186
G1 X74.033 Y56.771 E24.15894
G1 X74.379 Y56.314 E24.1904
G1 X74.73 Y55.774 E24.22575
G1 X75.174 Y54.906 E24.27925
G1 X75.46 Y54.171 E24.32253
G1 X75.647 Y53.508 E24.36034
G1 X75.794 Y52.805 E24.39975
G1 X75.849 Y52.389 E24.42278
G1 X75.894 Y51.714 E24.45991
G1 X75.9 Y40.992 E25.04832
G1 X75.889 Y36.162 E25.31339
G1 X75.816 Y35.348 E25.35824
G1 X75.693 Y34.685 E25.39525
G1 X75.513 Y33.993 E25.43449
G1 X75.381 Y33.605 E25.45698
G1 X75.126 Y32.989 E25.49357
G1 X74.735 Y32.242 E25.53984
G1 X74.267 Y31.529 E25.58664
G1 X74.032 Y31.225 E25.60773
G1 X73.656 Y30.793 E25.63916
G1 X73.035 Y30.189 E25.6867
G1 X72.47 Y29.739 E25.72634
G1 X71.86 Y29.326 E25.76677
G1 X71.505 Y29.121 E25.78926
G1 X70.912 Y28.829 E25.82554
G1 X70.156 Y28.536 E25.87003
G1 X69.336 Y28.306 E25.91677
G1 X68.541 Y28.169 E25.96104
G1 X67.694 Y28.105 E26.00766
G1 X47.65 Y28.1 E27.10766
G1 X47.212 Y28.129 E27.13175
G1 X46.673 Y28.246 E27.16202
G1 X46.157 Y28.45 E27.19247
G1 X45.681 Y28.736 E27.22294
G1 X45.271 Y29.085 E27.25249
G1 X44.998 Y29.376 E27.27439
G1 X44.732 Y29.087 E27.29594
G1 X44.403 Y28.798 E27.31998
G1 X43.938 Y28.499 E27.35031
G1 X43.429 Y28.279 E27.38075
G1 X42.89 Y28.144 E27.41124
G1 X42.353 Y28.1 E27.44081
G1 X28.449 Y28.1 E28.20385
G1 X22.166 Y28.111 E28.54866
G1 X21.359 Y28.183 E28.59312
G1 X20.701 Y28.303 E28.62983
G1 X19.99 Y28.488 E28.67014
G1 X19.61 Y28.617 E28.69217
G1 X18.992 Y28.872 E28.72886
G1 X18.646 Y29.039 E28.74994
G1 X18.014 Y29.406 E28.79005
G1 X17.535 Y29.729 E28.82175
G1 X17.226 Y29.967 E28.84316
G1 X16.793 Y30.344 E28.87466
G1 X16.179 Y30.976 E28.92302
G1 X15.621 Y31.686 E28.97258
G1 X15.27 Y32.226 E29.00792
G1 X14.826 Y33.094 E29.06143
G1 X14.54 Y33.829 E29.10471
G1 X14.353 Y34.492 E29.14252
G1 X14.206 Y35.195 E29.18193
G1 X14.151 Y35.611 E29.20496
G1 X14.106 Y36.286 E29.24208
G1 X14.1 Y47.008 E29.8305
G1 X14.111 Y51.838 E30.09557
G1 X14.183 Y52.643 E30.13992
G1 X14.306 Y53.312 E30.17725
G1 X14.486 Y54.002 E30.21638
G1 X14.617 Y54.389 E30.23881
G1 X14.872 Y55.007 E30.2755
G1 X15.038 Y55.351 E30.29646
G1 X15.406 Y55.986 E30.33674
G1 X15.432 Y56.024 E30.33926
G0 F810 X15.729 Y56.465
G0 F900 X16.054 Y56.231
G1 X15.742 Y55.769 E30.36986
G1 X15.393 Y55.166 E30.40809
G1 X15.237 Y54.844 E30.42773
G1 X14.992 Y54.249 E30.46304
G1 X14.869 Y53.886 E30.48407
G1 X14.697 Y53.226 E30.5215
G1 X14.579 Y52.589 E30.55706
G1 X14.511 Y51.826 E30.5991
G1 X14.5 Y47.007 E30.86356
G1 X14.5 Y36.502 E31.44007
G1 X14.549 Y35.651 E31.48684
G1 X14.601 Y35.261 E31.50844
G1 X14.701 Y34.76 E31.53647
G1 X14.837 Y34.221 E31.56698
G1 X15.063 Y33.56 E31.60532
G1 X15.471 Y32.688 E31.65815
G1 X15.79 Y32.147 E31.69262
G1 X16.28 Y31.478 E31.73813
G1 X16.838 Y30.856 E31.78398
G1 X17.479 Y30.277 E31.83139
G1 X17.769 Y30.054 E31.85146
G1 X18.231 Y29.742 E31.88206
G1 X18.831 Y29.394 E31.92012
G1 X19.155 Y29.237 E31.93988
G1 X19.751 Y28.992 E31.97525
G1 X20.107 Y28.871 E31.99588
G1 X20.594 Y28.739 E32.02357
G1 X21.158 Y28.619 E32.05522
G1 X21.845 Y28.53 E32.09323
G1 X22.178 Y28.511 E32.11154
G1 X28.45 Y28.5 E32.45574
G1 X42.337 Y28.5 E33.21785
G1 X42.825 Y28.54 E33.24472
G1 X43.3 Y28.659 E33.27159
G1 X43.749 Y28.853 E33.29844
G1 X44.161 Y29.118 E33.32532
G1 X44.575 Y29.496 E33.35608
G1 X44.892 Y29.869 E33.38295
G1 X45 Y30.049 E33.39447
G1 X45.165 Y29.792 E33.41123
G1 X45.542 Y29.379 E33.44192
G1 X45.915 Y29.062 E33.46878
G1 X46.335 Y28.81 E33.49566
G1 X46.79 Y28.63 E33.52251
G1 X47.268 Y28.526 E33.54936
G1 X47.663 Y28.5 E33.57108
G1 X67.497 Y28.5 E34.65956
G1 X68.228 Y28.538 E34.69973
G1 X68.921 Y28.63 E34.73809
G1 X69.776 Y28.836 E34.78636
G1 X70.436 Y29.062 E34.82464
G1 X70.746 Y29.193 E34.84311
G1 X71.316 Y29.474 E34.87799
G1 X71.649 Y29.666 E34.89908
G1 X72.078 Y29.951 E34.92735
G1 X72.537 Y30.292 E34.95873
G1 X73.145 Y30.839 E35.00361
G1 X73.723 Y31.479 E35.05094
G1 X73.943 Y31.764 E35.0707
G1 X74.253 Y32.221 E35.101
G1 X74.608 Y32.835 E35.13992
G1 X74.761 Y33.152 E35.15924
G1 X75.006 Y33.746 E35.1945
G1 X75.13 Y34.11 E35.21561
G1 X75.26 Y34.593 E35.24306
G1 X75.378 Y35.142 E35.27387
G1 X75.47 Y35.84 E35.31251
G1 X75.489 Y36.174 E35.33087
G1 X75.5 Y40.993 E35.59533
G1 X75.5 Y51.498 E36.17184
G1 X75.451 Y52.349 E36.21862
G1 X75.399 Y52.739 E36.24021
G1 X75.299 Y53.24 E36.26825
G1 X75.163 Y53.779 E36.29876
G1 X74.937 Y54.44 E36.33709
G1 X74.529 Y55.312 E36.38993
G1 X74.21 Y55.853 E36.42439
G1 X73.72 Y56.522 E36.4699
G1 X73.162 Y57.144 E36.51576
G1 X72.521 Y57.723 E36.56316
G1 X72.231 Y57.946 E36.58324
G1 X71.769 Y58.258 E36.61383
G1 X71.169 Y58.606 E36.6519
G1 X70.845 Y58.763 E36.67166
G1 X70.249 Y59.008 E36.70702
G1 X69.893 Y59.129 E36.72766
G1 X69.406 Y59.261 E36.75535
G1 X68.842 Y59.381 E36.78699
G1 X68.155 Y59.47 E36.82501
G1 X67.822 Y59.489 E36.84331
G1 X61.55 Y59.5 E37.18752
G1 X47.663 Y59.5 E37.94962
G1 X47.175 Y59.46 E37.97649
G1 X46.7 Y59.341 E38.00337
G1 X46.251 Y59.147 E38.03021
G1 X45.839 Y58.882 E38.05709
G1 X45.425 Y58.504 E38.08786
G1 X45.108 Y58.131 E38.11472
G1 X45.004 Y57.957 E38.12585
G1 X44.844 Y58.206 E38.14209
G1 X44.465 Y58.622 E38.17297
G1 X44.092 Y58.939 E38.19984
G1 X43.672 Y59.191 E38.22672
G1 X43.217 Y59.371 E38.25357
G1 X42.739 Y59.475 E38.28042
G1 X42.344 Y59.501 E38.30214
G1 X22.509 Y59.5 E39.39067
G1 X21.653 Y59.451 E39.43772
G1 X21.261 Y59.399 E39.45942
G1 X20.76 Y59.299 E39.48746
G1 X20.221 Y59.163 E39.51797
G1 X19.556 Y58.936 E39.55653
G1 X18.682 Y58.525 E39.60953
G1 X18.348 Y58.332 E39.6307
G1 X17.921 Y58.048 E39.65885
G1 X17.463 Y57.708 E39.69015
G1 X16.855 Y57.161 E39.73503
G1 X16.388 Y56.644 E39.77327
G0 F810 X16.277 Y56.521
G0 X16.054 Y56.231
G0 F900 X16.385 Y56.007
G1 X16.073 Y55.545 E39.80386
G1 X15.742 Y54.971 E39.84022
G1 X15.607 Y54.692 E39.85723
G1 X15.362 Y54.097 E39.89255
G1 X15.255 Y53.782 E39.9108
G1 X15.089 Y53.146 E39.94688
G1 X14.977 Y52.543 E39.98053
G1 X14.911 Y51.825 E40.0201
G1 X14.9 Y47.006 E40.28457
G1 X14.9 Y36.502 E40.86102
G1 X14.949 Y35.677 E40.90637
G1 X14.993 Y35.339 E40.92508
G1 X15.093 Y34.838 E40.95312
G1 X15.224 Y34.322 E40.98233
G1 X15.439 Y33.696 E41.01866
G1 X15.83 Y32.865 E41.06906
G1 X16.13 Y32.358 E41.10139
G1 X16.599 Y31.72 E41.14484
G1 X17.13 Y31.129 E41.18844
G1 X17.741 Y30.579 E41.23356
G1 X17.993 Y30.385 E41.25101
G1 X18.455 Y30.073 E41.28161
G1 X19.026 Y29.743 E41.3178
G1 X19.307 Y29.607 E41.33493
G1 X19.903 Y29.362 E41.3703
G1 X20.699 Y29.126 E41.41586
G1 X21.237 Y29.011 E41.44605
G1 X21.89 Y28.928 E41.48218
G1 X22.178 Y28.911 E41.49801
G1 X28.45 Y28.9 E41.84221
G1 X42.337 Y28.9 E42.60432
G1 X42.791 Y28.94 E42.62933
G1 X43.231 Y29.058 E42.65433
G1 X43.643 Y29.252 E42.67932
G1 X44.175 Y29.662 E42.71618
G1 X44.585 Y30.128 E42.75025
G1 X44.812 Y30.523 E42.77525
G1 X44.967 Y30.951 E42.80023
G1 X44.992 Y31.141 E42.81075
G1 X45.105 Y30.722 E42.83456
G1 X45.299 Y30.31 E42.85955
G1 X45.708 Y29.779 E42.89634
