;FLAVOR:Marlin
;TIME:1254
;Filament used: 0.749349m
;Layer height: 0.24
;MINX:39.5
;MINY:51
;MINZ:0.24
;MAXX:80.5
;MAXY:89
;MAXZ:4.8
;Generated with Cura_SteamEngine 4.6.1
M104 S210
M105
M109 S210
M82 ;absolute extrusion mode
;Sliced at: Wed 12-08-2020 20:12:14
G21 ;metric values
G90 ;absolute positioning
M82 ;set extruder to absolute mode
M107 ;start with the fan off
G1 Z5.0 F1800 ;move Z to 5mm
G28 X0 Y0 F1800 ;move X/Y to min endstops
G28 Z0 ;move Z to min endstop
G92 E0 ;zero the extruded length
G1 F200 E6.0 ;extrude 6.0mm of feed stock to build pressure
G1 Z5.0 F300 ;move the platform down 5mm
G92 E0 ;zero the extruded length again
G1 F1800
;Put printing message on LCD screen
M117 Printing...
G92 E0
G92 E0
G1 F1500 E-1
;LAYER_COUNT:20
;LAYER:0
M106 S102
G0 F900 X40.829 Y51.508 Z0.24
;TYPE:SKIRT
G1 F3600 E0.71493
G1 F1200 X41.257 Y51.27 E0.73272
G1 X41.717 Y51.104 E0.75049
G1 X42.198 Y51.015 E0.76826
G1 X42.5 Y51 E0.77925
G1 X77.5 Y51 E2.05097
G1 X77.988 Y51.04 E2.06877
G1 X78.463 Y51.159 E2.08656
G1 X78.912 Y51.353 E2.10433
G1 X79.324 Y51.618 E2.12213
G1 X79.687 Y51.946 E2.13991
G1 X79.992 Y52.329 E2.1577
G1 X80.23 Y52.757 E2.17549
G1 X80.396 Y53.217 E2.19326
G1 X80.485 Y53.698 E2.21103
G1 X80.5 Y54 E2.22202
G1 X80.5 Y66 E2.65804
G1 X80.46 Y66.488 E2.67583
G1 X80.341 Y66.963 E2.69362
G1 X80.147 Y67.412 E2.7114
G1 X79.882 Y67.824 E2.72919
G1 X79.554 Y68.187 E2.74697
G1 X79.171 Y68.492 E2.76476
G1 X78.743 Y68.73 E2.78255
G1 X78.283 Y68.896 E2.80032
G1 X77.802 Y68.985 E2.8181
G1 X77.5 Y69 E2.82908
G1 X42.5 Y69 E4.10081
G1 X42.012 Y68.96 E4.1186
G1 X41.537 Y68.841 E4.13639
G1 X41.088 Y68.647 E4.15417
G1 X40.676 Y68.382 E4.17196
G1 X40.313 Y68.054 E4.18974
G1 X40.008 Y67.671 E4.20753
G1 X39.77 Y67.243 E4.22533
G1 X39.604 Y66.783 E4.24309
G1 X39.515 Y66.302 E4.26087
G1 X39.5 Y66 E4.27185
G1 X39.5 Y54 E4.70788
G1 X39.54 Y53.512 E4.72567
G1 X39.659 Y53.037 E4.74346
G1 X39.853 Y52.588 E4.76123
G1 X40.118 Y52.176 E4.77903
G1 X40.328 Y51.943 E4.79043
G0 F1080 X40.446 Y51.813
G0 X40.829 Y51.508
G0 F900 X41.213 Y51.741
G1 F1200 X41.627 Y51.551 E4.80698
G1 X42.068 Y51.436 E4.82354
G1 X42.5 Y51.4 E4.83929
G1 X77.5 Y51.4 E6.11101
G1 X77.954 Y51.44 E6.12757
G1 X78.394 Y51.558 E6.14413
G1 X78.806 Y51.752 E6.16067
G1 X79.179 Y52.015 E6.17726
G1 X79.5 Y52.338 E6.1938
G1 X79.759 Y52.713 E6.21036
G1 X79.949 Y53.127 E6.22691
G1 X80.064 Y53.568 E6.24347
G1 X80.1 Y54 E6.25922
G1 X80.1 Y66 E6.69524
G1 X80.06 Y66.454 E6.7118
G1 X79.942 Y66.894 E6.72836
G1 X79.748 Y67.306 E6.7449
G1 X79.485 Y67.679 E6.76149
G1 X79.162 Y68 E6.77803
G1 X78.787 Y68.259 E6.79459
G1 X78.373 Y68.449 E6.81114
G1 X77.932 Y68.564 E6.8277
G1 X77.5 Y68.6 E6.84345
G1 X42.5 Y68.6 E8.11518
G1 X42.046 Y68.56 E8.13174
G1 X41.606 Y68.442 E8.14829
G1 X41.194 Y68.248 E8.16484
G1 X40.821 Y67.985 E8.18142
G1 X40.5 Y67.662 E8.19797
G1 X40.241 Y67.287 E8.21453
G1 X40.051 Y66.873 E8.23108
G1 X39.936 Y66.432 E8.24764
G1 X39.9 Y66 E8.26339
G1 X39.9 Y54 E8.69941
G1 X39.94 Y53.546 E8.71597
G1 X40.058 Y53.106 E8.73252
G1 X40.252 Y52.694 E8.74907
G1 X40.515 Y52.321 E8.76565
G1 X40.689 Y52.148 E8.77457
G0 F1080 X40.838 Y52
G0 X41.213 Y51.741
G0 F900 X41.227 Y52.206
G1 F1200 X41.59 Y51.997 E8.78979
G1 X41.987 Y51.861 E8.80504
G1 X42.5 Y51.8 E8.82381
G1 X77.5 Y51.8 E10.09553
G1 X77.917 Y51.84 E10.11075
G1 X78.319 Y51.958 E10.12598
G1 X78.691 Y52.151 E10.1412
G1 X79.02 Y52.41 E10.15642
G1 X79.294 Y52.727 E10.17164
G1 X79.503 Y53.09 E10.18686
G1 X79.639 Y53.487 E10.20211
G1 X79.7 Y54 E10.22088
G1 X79.7 Y66 E10.6569
G1 X79.66 Y66.417 E10.67212
G1 X79.542 Y66.819 E10.68735
G1 X79.349 Y67.191 E10.70257
G1 X79.09 Y67.52 E10.71779
G1 X78.773 Y67.794 E10.73301
G1 X78.41 Y68.003 E10.74823
G1 X78.013 Y68.139 E10.76348
G1 X77.5 Y68.2 E10.78225
G1 X42.5 Y68.2 E12.05398
G1 X42.083 Y68.16 E12.0692
G1 X41.681 Y68.042 E12.08442
G1 X41.309 Y67.849 E12.09965
G1 X40.98 Y67.59 E12.11486
G1 X40.706 Y67.273 E12.13009
G1 X40.497 Y66.91 E12.14531
G1 X40.361 Y66.513 E12.16055
G1 X40.3 Y66 E12.17932
G1 X40.3 Y54 E12.61534
G1 X40.34 Y53.583 E12.63057
G1 X40.458 Y53.181 E12.64579
G1 X40.651 Y52.809 E12.66102
G1 X40.758 Y52.673 E12.6673
G0 F1080 X40.91 Y52.48
G0 X41.227 Y52.206
G0 F900 X41.612 Y52.435
G1 F1200 X41.959 Y52.283 E12.68107
G1 X42.5 Y52.2 E12.70096
G1 X77.5 Y52.2 E13.97268
G1 X77.877 Y52.24 E13.98646
G1 X78.237 Y52.358 E14.00022
G1 X78.564 Y52.548 E14.01396
G1 X78.845 Y52.803 E14.02775
G1 X79.065 Y53.112 E14.04153
G1 X79.217 Y53.459 E14.0553
G1 X79.3 Y54 E14.07519
G1 X79.3 Y66 E14.51121
G1 X79.26 Y66.377 E14.52498
G1 X79.142 Y66.737 E14.53875
G1 X78.952 Y67.064 E14.55249
G1 X78.697 Y67.345 E14.56628
G1 X78.388 Y67.565 E14.58006
G1 X78.041 Y67.717 E14.59382
G1 X77.5 Y67.8 E14.61371
G1 X42.5 Y67.8 E15.88544
G1 X42.123 Y67.76 E15.89921
G1 X41.763 Y67.642 E15.91298
G1 X41.436 Y67.452 E15.92672
G1 X41.155 Y67.197 E15.94051
G1 X40.935 Y66.888 E15.95429
G1 X40.783 Y66.541 E15.96805
G1 X40.7 Y66 E15.98794
G1 X40.7 Y54 E16.42396
G1 X40.74 Y53.623 E16.43774
G1 X40.858 Y53.263 E16.4515
G1 X41.048 Y52.936 E16.46524
G1 X41.111 Y52.867 E16.46864
G0 F1080 X41.303 Y52.655
G0 X41.612 Y52.435
G0 F900 X41.693 Y52.856
G1 F1200 X41.987 Y52.697 E16.48078
G1 X42.311 Y52.613 E16.49294
G1 X42.5 Y52.6 E16.49983
G1 X77.5 Y52.6 E17.77155
G1 X77.832 Y52.64 E17.7837
G1 X78.144 Y52.757 E17.79581
G1 X78.421 Y52.945 E17.80797
G1 X78.644 Y53.193 E17.82009
G1 X78.803 Y53.487 E17.83224
G1 X78.887 Y53.811 E17.8444
G1 X78.9 Y54 E17.85128
G1 X78.9 Y66 E18.2873
G1 X78.86 Y66.332 E18.29945
G1 X78.743 Y66.644 E18.31156
G1 X78.555 Y66.921 E18.32373
G1 X78.307 Y67.144 E18.33584
G1 X78.013 Y67.303 E18.34799
G1 X77.689 Y67.387 E18.36015
G1 X77.5 Y67.4 E18.36703
G1 X42.5 Y67.4 E19.63876
G1 X42.168 Y67.36 E19.65091
G1 X41.856 Y67.243 E19.66302
G1 X41.579 Y67.055 E19.67518
G1 X41.356 Y66.807 E19.6873
G1 X41.197 Y66.513 E19.69944
G1 X41.113 Y66.189 E19.71161
G1 X41.1 Y66 E19.71849
G1 X41.1 Y54 E20.15451
G1 X41.14 Y53.668 E20.16666
G1 X41.257 Y53.356 E20.17877
G1 X41.259 Y53.354 E20.17887
G0 F1080 X41.445 Y53.079
G0 X41.693 Y52.856
G0 F900 X41.839 Y53.249
G1 F1200 X42.075 Y53.095 E20.18911
G1 X42.345 Y53.012 E20.19937
G1 X77.5 Y53 E21.47673
G1 X77.779 Y53.04 E21.48697
G1 X78.036 Y53.156 E21.49722
G1 X78.251 Y53.339 E21.50748
G1 X78.405 Y53.575 E21.51771
G1 X78.488 Y53.845 E21.52798
G1 X78.5 Y66 E21.96963
G1 X78.46 Y66.279 E21.97987
G1 X78.344 Y66.536 E21.99012
G1 X78.161 Y66.751 E22.00038
G1 X77.925 Y66.905 E22.01062
G1 X77.655 Y66.988 E22.02088
G1 X42.5 Y67 E23.29824
G1 X42.221 Y66.96 E23.30848
G1 X41.964 Y66.844 E23.31872
G1 X41.749 Y66.661 E23.32898
G1 X41.595 Y66.425 E23.33922
G1 X41.512 Y66.155 E23.34948
G1 X41.5 Y54 E23.79114
G1 X41.526 Y53.822 E23.79767
G0 F1080 X41.54 Y53.721
G0 X41.656 Y53.464
G0 X41.839 Y53.249
G0 F900 X42.226 Y53.466
G1 F1200 X42.5 Y53.4 E23.80791
G1 X77.5 Y53.4 E25.07964
G1 X77.715 Y53.44 E25.08758
G1 X77.901 Y53.553 E25.09549
G1 X78.034 Y53.726 E25.10342
G1 X78.1 Y54 E25.11366
G1 X78.1 Y66 E25.54968
G1 X78.06 Y66.215 E25.55763
G1 X77.947 Y66.401 E25.56554
G1 X77.774 Y66.534 E25.57346
G1 X77.5 Y66.6 E25.58371
G1 X42.5 Y66.6 E26.85543
G1 X42.285 Y66.56 E26.86338
G1 X42.099 Y66.447 E26.87128
G1 X41.966 Y66.274 E26.87921
G1 X41.9 Y66 E26.88945
G1 X41.9 Y54.012 E27.32504
G0 F1080 X41.9 Y54
G0 X41.94 Y53.785
G0 X42.053 Y53.599
G0 X42.226 Y53.466
G0 F900 X42.339 Y53.881
G1 F1200 X42.5 Y53.8 E27.33159
G1 X77.5 Y53.8 E28.60331
G1 X77.619 Y53.839 E28.60786
G1 X77.7 Y54 E28.61441
G1 X77.7 Y66 E29.05043
G1 X77.661 Y66.119 E29.05498
G1 X77.5 Y66.2 E29.06153
G1 X42.5 Y66.2 E30.33326
G1 X42.381 Y66.161 E30.33781
G1 X42.3 Y66 E30.34435
G1 X42.3 Y54.54 E30.76075
G0 F1080 X42.3 Y54
G0 X42.339 Y53.881
G1 F1500 E29.76075
G0 F900 X41.835 Y53.881
G0 X41.847 Y66.653
G0 X42.198 Y71.015
G1 F3600 E31.47568
G1 F1200 X42.5 Y71 E31.48667
G1 X77.5 Y71 E32.75839
G1 X77.988 Y71.04 E32.77618
G1 X78.463 Y71.159 E32.79397
G1 X78.912 Y71.353 E32.81175
G1 X79.324 Y71.618 E32.82955
G1 X79.687 Y71.946 E32.84732
G1 X79.992 Y72.329 E32.86511
G1 X80.23 Y72.757 E32.88291
G1 X80.396 Y73.217 E32.90068
G1 X80.485 Y73.698 E32.91845
G1 X80.5 Y74 E32.92944
G1 X80.5 Y86 E33.36546
G1 X80.46 Y86.488 E33.38325
G1 X80.341 Y86.963 E33.40104
G1 X80.147 Y87.412 E33.41881
G1 X79.882 Y87.824 E33.43661
G1 X79.554 Y88.187 E33.45439
G1 X79.171 Y88.492 E33.47218
G1 X78.743 Y88.73 E33.48997
G1 X78.283 Y88.896 E33.50774
G1 X77.802 Y88.985 E33.52551
G1 X77.5 Y89 E33.5365
G1 X42.5 Y89 E34.80823
G1 X42.012 Y88.96 E34.82602
G1 X41.537 Y88.841 E34.84381
G1 X41.088 Y88.647 E34.86158
G1 X40.676 Y88.382 E34.87938
G1 X40.313 Y88.054 E34.89716
G1 X40.008 Y87.671 E34.91495
G1 X39.77 Y87.243 E34.93274
G1 X39.604 Y86.783 E34.95051
G1 X39.515 Y86.302 E34.96829
G1 X39.5 Y86 E34.97927
G1 X39.5 Y74 E35.41529
G1 X39.54 Y73.512 E35.43308
G1 X39.659 Y73.037 E35.45088
G1 X39.853 Y72.588 E35.46865
G1 X40.118 Y72.176 E35.48645
G1 X40.446 Y71.813 E35.50422
G1 X40.829 Y71.508 E35.52201
G1 X41.257 Y71.27 E35.53981
G1 X41.552 Y71.163 E35.55121
G0 F1080 X41.717 Y71.104
G0 X42.198 Y71.015
G0 F900 X42.5 Y71.4
G1 F1200 X77.5 Y71.4 E36.82293
G1 X77.954 Y71.44 E36.83949
G1 X78.394 Y71.558 E36.85605
G1 X78.806 Y71.752 E36.87259
G1 X79.179 Y72.015 E36.88918
G1 X79.5 Y72.338 E36.90572
G1 X79.759 Y72.713 E36.92228
G1 X79.949 Y73.127 E36.93883
G1 X80.064 Y73.568 E36.95539
G1 X80.1 Y74 E36.97114
G1 X80.1 Y86 E37.40717
G1 X80.06 Y86.454 E37.42373
G1 X79.942 Y86.894 E37.44028
G1 X79.748 Y87.306 E37.45682
G1 X79.485 Y87.679 E37.47341
G1 X79.162 Y88 E37.48995
G1 X78.787 Y88.259 E37.50651
G1 X78.373 Y88.449 E37.52306
G1 X77.932 Y88.564 E37.53962
G1 X77.5 Y88.6 E37.55537
G1 X42.5 Y88.6 E38.8271
G1 X42.046 Y88.56 E38.84366
G1 X41.606 Y88.442 E38.86021
G1 X41.194 Y88.248 E38.87676
G1 X40.821 Y87.985 E38.89334
G1 X40.5 Y87.662 E38.90989
G1 X40.241 Y87.287 E38.92645
G1 X40.051 Y86.873 E38.943
G1 X39.936 Y86.432 E38.95956
G1 X39.9 Y86 E38.97531
G1 X39.9 Y74 E39.41133
G1 X39.94 Y73.546 E39.42789
G1 X40.058 Y73.106 E39.44444
G1 X40.252 Y72.694 E39.46099
G1 X40.515 Y72.321 E39.47757
G1 X40.838 Y72 E39.49412
G1 X41.213 Y71.741 E39.51068
G1 X41.627 Y71.551 E39.52723
G1 X41.844 Y71.494 E39.53538
G0 F1080 X42.068 Y71.436
G0 X42.5 Y71.4
G0 F900 X42.5 Y71.8
G1 F1200 X77.5 Y71.8 E40.80711
G1 X77.917 Y71.84 E40.82233
G1 X78.319 Y71.958 E40.83755
G1 X78.691 Y72.151 E40.85278
G1 X79.02 Y72.41 E40.86799
G1 X79.294 Y72.727 E40.88322
G1 X79.503 Y73.09 E40.89844
G1 X79.639 Y73.487 E40.91369
G1 X79.7 Y74 E40.93246
G1 X79.7 Y86 E41.36848
G1 X79.66 Y86.417 E41.3837
G1 X79.542 Y86.819 E41.39892
G1 X79.349 Y87.191 E41.41415
G1 X79.09 Y87.52 E41.42936
G1 X78.773 Y87.794 E41.44459
G1 X78.41 Y88.003 E41.45981
G1 X78.013 Y88.139 E41.47505
G1 X77.5 Y88.2 E41.49383
G1 X42.5 Y88.2 E42.76555
G1 X42.083 Y88.16 E42.78077
G1 X41.681 Y88.042 E42.796
G1 X41.309 Y87.849 E42.81122
G1 X40.98 Y87.59 E42.82644
G1 X40.706 Y87.273 E42.84166
G1 X40.497 Y86.91 E42.85688
G1 X40.361 Y86.513 E42.87213
G1 X40.3 Y86 E42.8909
G1 X40.3 Y74 E43.32692
G1 X40.34 Y73.583 E43.34214
G1 X40.458 Y73.181 E43.35736
G1 X40.651 Y72.809 E43.37259
G1 X40.91 Y72.48 E43.38781
G1 X41.227 Y72.206 E43.40303
G1 X41.59 Y71.997 E43.41825
G1 X41.846 Y71.909 E43.42809
G0 F1080 X41.987 Y71.861
G0 X42.5 Y71.8
G0 F900 X42.5 Y72.2
G1 F1200 X77.5 Y72.2 E44.69981
G1 X77.877 Y72.24 E44.71359
G1 X78.237 Y72.358 E44.72735
G1 X78.564 Y72.548 E44.74109
G1 X78.845 Y72.803 E44.75488
G1 X79.065 Y73.112 E44.76866
G1 X79.217 Y73.459 E44.78243
G1 X79.3 Y74 E44.80232
G1 X79.3 Y86 E45.23834
G1 X79.26 Y86.377 E45.25211
G1 X79.142 Y86.737 E45.26588
G1 X78.952 Y87.064 E45.27962
G1 X78.697 Y87.345 E45.29341
G1 X78.388 Y87.565 E45.30719
G1 X78.041 Y87.717 E45.32095
G1 X77.5 Y87.8 E45.34084
G1 X42.5 Y87.8 E46.61257
G1 X42.123 Y87.76 E46.62634
G1 X41.763 Y87.642 E46.64011
G1 X41.436 Y87.452 E46.65385
G1 X41.155 Y87.197 E46.66764
G1 X40.935 Y86.888 E46.68142
G1 X40.783 Y86.541 E46.69518
G1 X40.7 Y86 E46.71507
G1 X40.7 Y74 E47.15109
G1 X40.74 Y73.623 E47.16487
G1 X40.858 Y73.263 E47.17863
G1 X41.048 Y72.936 E47.19237
G1 X41.303 Y72.655 E47.20616
G1 X41.612 Y72.435 E47.21994
G1 X41.851 Y72.33 E47.22943
G0 F1080 X41.959 Y72.283
G0 X42.5 Y72.2
G0 F900 X42.311 Y72.613
G1 F1200 X42.5 Y72.6 E47.23631
G1 X77.5 Y72.6 E48.50804
G1 X77.832 Y72.64 E48.52019
G1 X78.144 Y72.757 E48.53229
G1 X78.421 Y72.945 E48.54446
G1 X78.644 Y73.193 E48.55658
G1 X78.803 Y73.487 E48.56872
G1 X78.887 Y73.811 E48.58088
G1 X78.9 Y74 E48.58777
G1 X78.9 Y86 E49.02379
G1 X78.86 Y86.332 E49.03594
G1 X78.743 Y86.644 E49.04804
G1 X78.555 Y86.921 E49.06021
G1 X78.307 Y87.144 E49.07233
G1 X78.013 Y87.303 E49.08447
G1 X77.689 Y87.387 E49.09663
G1 X77.5 Y87.4 E49.10352
G1 X42.5 Y87.4 E50.37524
G1 X42.168 Y87.36 E50.38739
G1 X41.856 Y87.243 E50.3995
G1 X41.579 Y87.055 E50.41166
G1 X41.356 Y86.807 E50.42378
G1 X41.197 Y86.513 E50.43593
G1 X41.113 Y86.189 E50.44809
G1 X41.1 Y86 E50.45497
G1 X41.1 Y74 E50.89099
G1 X41.14 Y73.668 E50.90314
G1 X41.257 Y73.356 E50.91525
G1 X41.445 Y73.079 E50.92741
G1 X41.693 Y72.856 E50.93953
G1 X41.696 Y72.854 E50.93966
G0 F1080 X41.987 Y72.697
G0 X42.311 Y72.613
G0 F900 X42.345 Y73.012
G1 F1200 X77.5 Y73 E52.21702
G1 X77.779 Y73.04 E52.22726
G1 X78.036 Y73.156 E52.23751
G1 X78.251 Y73.339 E52.24777
G1 X78.405 Y73.575 E52.25801
G1 X78.488 Y73.845 E52.26827
G1 X78.5 Y86 E52.70992
G1 X78.46 Y86.279 E52.72016
G1 X78.344 Y86.536 E52.73041
G1 X78.161 Y86.751 E52.74067
G1 X77.925 Y86.905 E52.75091
G1 X77.655 Y86.988 E52.76117
G1 X42.5 Y87 E54.03853
G1 X42.221 Y86.96 E54.04877
G1 X41.964 Y86.844 E54.05901
G1 X41.749 Y86.661 E54.06927
G1 X41.595 Y86.425 E54.07951
G1 X41.512 Y86.155 E54.08978
G1 X41.5 Y74 E54.53143
G1 X41.54 Y73.721 E54.54167
G1 X41.656 Y73.464 E54.55191
G1 X41.773 Y73.326 E54.55849
G0 F1080 X41.839 Y73.249
G0 X42.075 Y73.095
G0 X42.345 Y73.012
G0 F900 X42.5 Y73.4
G1 F1200 X77.5 Y73.4 E55.83021
G1 X77.715 Y73.44 E55.83816
G1 X77.901 Y73.553 E55.84607
G1 X78.034 Y73.726 E55.854
G1 X78.1 Y74 E55.86424
G1 X78.1 Y86 E56.30026
G1 X78.06 Y86.215 E56.3082
G1 X77.947 Y86.401 E56.31611
G1 X77.774 Y86.534 E56.32404
G1 X77.5 Y86.6 E56.33428
G1 X42.5 Y86.6 E57.60601
G1 X42.285 Y86.56 E57.61395
G1 X42.099 Y86.447 E57.62186
G1 X41.966 Y86.274 E57.62979
G1 X41.9 Y86 E57.64003
G1 X41.9 Y74 E58.07605
G1 X41.94 Y73.785 E58.084
G1 X41.967 Y73.741 E58.08587
G0 F1080 X42.053 Y73.599
G0 X42.226 Y73.466
G0 X42.5 Y73.4
G0 F900 X42.5 Y73.8
G1 F1200 X77.5 Y73.8 E59.3576
G1 X77.619 Y73.839 E59.36215
G1 X77.7 Y74 E59.3687
G1 X77.7 Y86 E59.80472
G1 X77.661 Y86.119 E59.80927
G1 X77.5 Y86.2 E59.81581
G1 X42.5 Y86.2 E61.08754
G1 X42.381 Y86.161 E61.09209
G1 X42.3 Y86 E61.09864
G1 X42.3 Y74.36 E61.52158
G0 F1080 X42.3 Y74
G0 X42.339 Y73.881
G0 X42.5 Y73.8
G1 F1500 E60.52158
;MESH:propstop.stl
G0 F900 X42.5 Y73.335
G0 X43.114 Y66.665
G0 X43.114 Y65.386
G0 X42.7 Y65.8
;TYPE:WALL-OUTER
G1 F3600 E62.2365
G1 F900 X42.7 Y54.2 E62.65799
G1 X77.3 Y54.2 E63.91518
G1 X77.3 Y65.8 E64.33667
G1 X43.365 Y65.8 E65.5697
G0 F810 X42.7 Y65.8
G0 F900 X42.7 Y65.6
G0 X43.14 Y65.36
G0 X43.2 Y65.36
G0 X57.859 Y57.426
G0 X58.202 Y57.788
G1 X57.893 Y58.082 E65.58519
G1 X57.63 Y58.416 E65.60064
G1 X57.42 Y58.788 E65.61616
G1 X57.27 Y59.186 E65.63162
G1 X57.178 Y59.602 E65.6471
G1 X57.15 Y60.027 E65.66257
G1 X57.186 Y60.451 E65.67803
G1 X57.285 Y60.865 E65.6935
G1 X57.444 Y61.261 E65.70901
G1 X57.66 Y61.628 E65.72448
G1 X57.929 Y61.958 E65.73995
G1 X58.244 Y62.245 E65.75543
G1 X58.598 Y62.482 E65.77091
G1 X58.984 Y62.662 E65.78639
G1 X59.391 Y62.784 E65.80183
G1 X59.814 Y62.844 E65.81735
G1 X60.24 Y62.84 E65.83283
G1 X60.66 Y62.773 E65.84828
G1 X61.066 Y62.643 E65.86377
G1 X61.448 Y62.455 E65.87924
G1 X61.798 Y62.212 E65.89472
G1 X62.107 Y61.918 E65.91022
G1 X62.37 Y61.584 E65.92567
G1 X62.58 Y61.212 E65.94119
G1 X62.73 Y60.814 E65.95664
G1 X62.822 Y60.398 E65.97212
G1 X62.85 Y59.973 E65.9876
G1 X62.814 Y59.549 E66.00306
G1 X62.715 Y59.135 E66.01853
G1 X62.556 Y58.739 E66.03403
G1 X62.34 Y58.372 E66.04951
G1 X62.071 Y58.042 E66.06498
G1 X61.756 Y57.755 E66.08046
G1 X61.402 Y57.518 E66.09594
G1 X61.016 Y57.338 E66.11141
G1 X60.609 Y57.216 E66.12685
G1 X60.186 Y57.156 E66.14238
