;FLAVOR:Marlin
;TIME:6087
;Filament used: 5.42757m
;Layer height: 0.24
;MINX:12.253
;MINY:38.274
;MINZ:0.24
;MAXX:107.747
;MAXY:81.408
;MAXZ:23.04
;Generated with Cura_SteamEngine 4.6.1
M104 S210
M105
M109 S210
M82 ;absolute extrusion mode
;Sliced at: Wed 12-08-2020 20:10:30
G21 ;metric values
G90 ;absolute positioning
M82 ;set extruder to absolute mode
M107 ;start with the fan off
G1 Z5.0 F1800 ;move Z to 5mm
G28 X0 Y0 F1800 ;move X/Y to min endstops
G28 Z0 ;move Z to min endstop
G92 E0 ;zero the extruded length
G1 F200 E6.0 ;extrude 6.0mm of feed stock to build pressure
G1 Z5.0 F300 ;move the platform down 5mm
G92 E0 ;zero the extruded length again
G1 F1800
;Put printing message on LCD screen
M117 Printing...
G92 E0
G92 E0
G1 F1500 E-1
;LAYER_COUNT:96
;LAYER:0
M106 S102
G0 F900 X15.999 Y41.64 Z0.24
;TYPE:SKIRT
G1 F3600 E0.71493
G1 F1200 X16.629 Y41.404 E0.73937
G1 X17.256 Y41.242 E0.7629
G1 X17.921 Y41.143 E0.78733
G1 X59.795 Y38.274 E2.31239
G1 X60.206 Y38.274 E2.32732
G1 X102.28 Y41.174 E3.85971
G1 X102.76 Y41.247 E3.87735
G1 X103.389 Y41.41 E3.90096
G1 X104.021 Y41.649 E3.92551
G1 X104.606 Y41.946 E3.94935
G1 X105.165 Y42.308 E3.97355
G1 X105.664 Y42.712 E3.99688
G1 X106.142 Y43.188 E4.02139
G1 X106.551 Y43.695 E4.04506
G1 X106.913 Y44.253 E4.06922
G1 X107.21 Y44.84 E4.09313
G1 X107.444 Y45.454 E4.117
G1 X107.612 Y46.087 E4.1408
G1 X107.714 Y46.737 E4.1647
G1 X107.747 Y47.423 E4.18966
G1 X107.722 Y47.961 E4.20923
G1 X107.581 Y49.522 E4.26618
G1 X107.397 Y51.191 E4.32719
G1 X107.178 Y52.856 E4.38821
G1 X106.927 Y54.516 E4.44921
G1 X106.641 Y56.173 E4.51031
G1 X106.324 Y57.819 E4.57121
G1 X105.972 Y59.461 E4.63223
G1 X105.832 Y60.06 E4.65458
G1 X105.664 Y60.697 E4.67852
G1 X105.482 Y61.32 E4.7021
G1 X105.288 Y61.929 E4.72533
G1 X105.069 Y62.553 E4.74935
G1 X104.844 Y63.149 E4.7725
G1 X104.595 Y63.754 E4.79627
G1 X104.329 Y64.353 E4.82009
G1 X104.054 Y64.933 E4.84341
G1 X103.756 Y65.519 E4.8673
G1 X103.45 Y66.085 E4.89068
G1 X103.117 Y66.66 E4.91482
G1 X102.782 Y67.207 E4.93813
G1 X102.431 Y67.748 E4.96156
G1 X102.057 Y68.291 E4.98552
G1 X101.678 Y68.812 E5.00893
G1 X101.293 Y69.316 E5.03197
G1 X100.878 Y69.828 E5.05592
G1 X100.463 Y70.316 E5.07919
G1 X100.033 Y70.798 E5.10266
G1 X99.592 Y71.268 E5.12608
G1 X99.14 Y71.726 E5.14946
G1 X98.676 Y72.175 E5.17292
G1 X98.21 Y72.607 E5.19601
G1 X97.726 Y73.033 E5.21944
G1 X97.229 Y73.452 E5.24306
G1 X96.732 Y73.852 E5.26624
G1 X96.23 Y74.24 E5.28929
G1 X95.71 Y74.621 E5.31272
G1 X95.189 Y74.986 E5.33583
G1 X94.667 Y75.337 E5.35869
G1 X94.14 Y75.678 E5.38149
G1 X93.598 Y76.012 E5.40463
G1 X93.056 Y76.332 E5.4275
G1 X92.505 Y76.642 E5.45047
G1 X91.953 Y76.94 E5.47326
G1 X91.392 Y77.229 E5.49619
G1 X90.825 Y77.508 E5.51915
G1 X90.259 Y77.773 E5.54186
G1 X89.686 Y78.029 E5.56466
G1 X89.114 Y78.274 E5.58727
G1 X88.543 Y78.509 E5.60971
G1 X87.38 Y78.947 E5.65486
G1 X86.191 Y79.35 E5.70048
G1 X84.991 Y79.715 E5.74605
G1 X83.776 Y80.04 E5.79175
G1 X82.558 Y80.326 E5.83721
G1 X81.324 Y80.574 E5.88295
G1 X80.088 Y80.783 E5.9285
G1 X78.851 Y80.953 E5.97386
G1 X77.61 Y81.085 E6.01921
G1 X76.37 Y81.178 E6.06439
G1 X75.128 Y81.232 E6.10956
G1 X72.074 Y81.308 E6.22056
G1 X69.058 Y81.366 E6.33017
G1 X66.041 Y81.408 E6.4398
G1 X65.553 Y81.374 E6.45758
G1 X65.076 Y81.262 E6.47538
G1 X64.624 Y81.074 E6.49317
G1 X64.209 Y80.815 E6.51094
G1 X63.842 Y80.492 E6.52871
G1 X63.531 Y80.113 E6.54652
G1 X63.287 Y79.689 E6.5643
G1 X63.115 Y79.23 E6.58211
G1 X63.02 Y78.75 E6.59989
G1 X63 Y78.408 E6.61233
G1 X63 Y70.367 E6.9045
G1 X57 Y70.367 E7.12251
G1 X57 Y78.408 E7.41468
G1 X56.96 Y78.896 E7.43247
G1 X56.841 Y79.371 E7.45027
G1 X56.647 Y79.82 E7.46804
G1 X56.382 Y80.232 E7.48584
G1 X56.054 Y80.595 E7.50362
G1 X55.671 Y80.9 E7.52141
G1 X55.243 Y81.138 E7.5392
G1 X54.783 Y81.304 E7.55697
G1 X54.302 Y81.393 E7.57474
G1 X53.959 Y81.408 E7.58722
G1 X51.032 Y81.368 E7.69358
G1 X48.015 Y81.309 E7.80322
G1 X45 Y81.236 E7.91281
G1 X43.753 Y81.184 E7.95815
G1 X42.51 Y81.095 E8.00343
G1 X41.269 Y80.967 E8.04877
G1 X40.032 Y80.801 E8.09411
G1 X38.798 Y80.596 E8.13957
G1 X37.571 Y80.352 E8.18502
G1 X36.354 Y80.07 E8.23041
G1 X35.154 Y79.755 E8.27549
G1 X33.955 Y79.396 E8.32097
G1 X32.771 Y79 E8.36633
G1 X31.594 Y78.56 E8.41199
G1 X30.982 Y78.315 E8.43594
G1 X30.393 Y78.065 E8.45919
G1 X29.818 Y77.808 E8.48208
G1 X29.253 Y77.545 E8.50472
G1 X28.681 Y77.265 E8.52786
G1 X28.125 Y76.981 E8.55055
G1 X27.567 Y76.682 E8.57355
G1 X27.014 Y76.372 E8.59658
G1 X26.466 Y76.051 E8.61966
G1 X25.927 Y75.72 E8.64264
G1 X25.392 Y75.377 E8.66573
G1 X24.866 Y75.024 E8.68875
G1 X24.342 Y74.656 E8.71202
G1 X23.832 Y74.283 E8.73497
G1 X23.328 Y73.897 E8.75804
G1 X22.827 Y73.496 E8.78136
G1 X22.328 Y73.078 E8.80501
G1 X21.845 Y72.653 E8.82839
G1 X21.378 Y72.224 E8.85143
G1 X20.917 Y71.781 E8.87466
G1 X20.461 Y71.32 E8.89822
G1 X20.023 Y70.856 E8.9214
G1 X19.592 Y70.377 E8.94482
G1 X19.175 Y69.889 E8.96814
G1 X18.765 Y69.386 E8.99172
G1 X18.367 Y68.868 E9.01545
G1 X17.989 Y68.352 E9.0387
G1 X17.614 Y67.81 E9.06264
G1 X17.26 Y67.27 E9.0861
G1 X16.918 Y66.716 E9.10976
G1 X16.592 Y66.155 E9.13334
G1 X16.285 Y65.597 E9.15648
G1 X15.984 Y65.006 E9.18058
G1 X15.709 Y64.432 E9.2037
G1 X15.445 Y63.841 E9.22722
G1 X15.198 Y63.249 E9.25053
G1 X14.964 Y62.637 E9.27434
G1 X14.749 Y62.033 E9.29763
G1 X14.548 Y61.414 E9.32128
G1 X14.364 Y60.792 E9.34485
G1 X14.196 Y60.163 E9.3685
G1 X14.044 Y59.532 E9.39209
G1 X13.699 Y57.926 E9.45177
G1 X13.38 Y56.281 E9.51266
G1 X13.092 Y54.628 E9.57362
G1 X12.838 Y52.969 E9.63461
G1 X12.619 Y51.305 E9.69559
G1 X12.432 Y49.636 E9.75661
G1 X12.279 Y47.964 E9.81762
G1 X12.253 Y47.42 E9.83741
G1 X12.287 Y46.719 E9.86291
G1 X12.391 Y46.067 E9.8869
G1 X12.558 Y45.443 E9.91037
G1 X12.794 Y44.825 E9.9344
G1 X13.108 Y44.217 E9.95927
G1 X13.452 Y43.689 E9.98217
G1 X13.881 Y43.163 E10.00683
G1 X14.344 Y42.704 E10.03052
G1 X14.853 Y42.294 E10.05427
G1 X15.405 Y41.94 E10.07809
G0 F1080 X15.419 Y41.931
G0 X15.999 Y41.64
G0 F900 X16.17 Y42.001
G1 F1200 X16.759 Y41.782 E10.10093
G1 X17.347 Y41.631 E10.12298
G1 X17.969 Y41.541 E10.14582
G1 X59.822 Y38.673 E11.67011
G1 X60.179 Y38.673 E11.68309
G1 X102.253 Y41.573 E13.21547
G1 X102.669 Y41.636 E13.23076
G1 X103.258 Y41.788 E13.25286
G1 X103.849 Y42.01 E13.2758
G1 X104.398 Y42.287 E13.29815
G1 X104.921 Y42.625 E13.32077
G1 X105.389 Y43.003 E13.34263
G1 X105.837 Y43.447 E13.36555
G1 X106.221 Y43.921 E13.38771
G1 X106.561 Y44.442 E13.41032
G1 X106.84 Y44.992 E13.43273
G1 X107.06 Y45.567 E13.4551
G1 X107.219 Y46.159 E13.47737
G1 X107.315 Y46.767 E13.49974
G1 X107.347 Y47.407 E13.52302
G1 X107.323 Y47.925 E13.54186
G1 X107.182 Y49.486 E13.59881
G1 X106.999 Y51.147 E13.65953
G1 X106.782 Y52.804 E13.72025
G1 X106.532 Y54.456 E13.78096
G1 X106.247 Y56.104 E13.84173
G1 X105.931 Y57.743 E13.90238
G1 X105.581 Y59.377 E13.9631
G1 X105.443 Y59.968 E13.98515
G1 X105.278 Y60.594 E14.00867
G1 X105.099 Y61.207 E14.03187
G1 X104.907 Y61.807 E14.05476
G1 X104.692 Y62.419 E14.07833
G1 X104.47 Y63.007 E14.10117
G1 X104.226 Y63.602 E14.12454
G1 X103.964 Y64.19 E14.14793
G1 X103.693 Y64.761 E14.17089
G1 X103.399 Y65.337 E14.19439
G1 X103.098 Y65.894 E14.21739
G1 X102.771 Y66.459 E14.24111
G1 X102.441 Y66.997 E14.26405
G1 X102.096 Y67.53 E14.28712
G1 X101.728 Y68.063 E14.31065
G1 X101.355 Y68.576 E14.3337
G1 X100.975 Y69.073 E14.35643
G1 X100.568 Y69.576 E14.37994
G1 X100.159 Y70.057 E14.40288
G1 X99.735 Y70.531 E14.42599
G1 X99.3 Y70.994 E14.44907
G1 X98.856 Y71.445 E14.47207
G1 X98.398 Y71.887 E14.49519
G1 X97.938 Y72.313 E14.51797
G1 X97.462 Y72.732 E14.54102
G1 X96.971 Y73.146 E14.56435
G1 X96.482 Y73.541 E14.58719
G1 X95.986 Y73.923 E14.60994
G1 X95.474 Y74.298 E14.633
G1 X94.96 Y74.659 E14.65582
G1 X94.445 Y75.005 E14.67836
G1 X93.923 Y75.341 E14.70092
G1 X93.389 Y75.671 E14.72373
G1 X92.853 Y75.987 E14.74634
G1 X92.309 Y76.293 E14.76902
G1 X91.764 Y76.588 E14.79153
G1 X91.209 Y76.874 E14.81422
G1 X90.649 Y77.148 E14.83687
G1 X90.089 Y77.411 E14.85935
G1 X89.523 Y77.664 E14.88188
G1 X88.957 Y77.906 E14.90425
G1 X88.391 Y78.139 E14.92649
G1 X87.239 Y78.572 E14.9712
G1 X86.063 Y78.971 E15.01633
G1 X84.875 Y79.332 E15.06144
G1 X83.673 Y79.653 E15.10665
G1 X82.467 Y79.937 E15.15166
G1 X81.246 Y80.182 E15.19691
G1 X80.022 Y80.388 E15.24201
G1 X78.797 Y80.556 E15.28694
G1 X77.568 Y80.687 E15.33185
G1 X76.34 Y80.779 E15.37659
G1 X75.111 Y80.833 E15.42129
G1 X72.064 Y80.908 E15.53204
G1 X69.05 Y80.967 E15.64157
G1 X66.036 Y81.008 E15.7511
G1 X65.581 Y80.974 E15.76768
G1 X65.14 Y80.862 E15.78421
G1 X64.725 Y80.674 E15.80076
G1 X64.349 Y80.416 E15.81733
G1 X64.023 Y80.097 E15.8339
G1 X63.759 Y79.726 E15.85045
G1 X63.563 Y79.315 E15.86699
G1 X63.442 Y78.875 E15.88357
G1 X63.4 Y78.408 E15.90061
G1 X63.4 Y69.967 E16.20732
G1 X56.6 Y69.967 E16.45439
G1 X56.6 Y78.408 E16.7611
G1 X56.56 Y78.862 E16.77766
G1 X56.442 Y79.302 E16.79421
G1 X56.248 Y79.714 E16.81076
G1 X55.985 Y80.087 E16.82734
G1 X55.662 Y80.408 E16.84389
G1 X55.287 Y80.667 E16.86045
G1 X54.873 Y80.857 E16.877
G1 X54.432 Y80.972 E16.89356
G1 X53.964 Y81.008 E16.91061
G1 X51.037 Y80.968 E17.01697
G1 X48.023 Y80.91 E17.12651
G1 X45.01 Y80.836 E17.23602
G1 X43.77 Y80.785 E17.28111
G1 X42.54 Y80.696 E17.32592
G1 X41.311 Y80.569 E17.37081
G1 X40.086 Y80.405 E17.41572
G1 X38.864 Y80.201 E17.46074
G1 X37.649 Y79.96 E17.50574
G1 X36.444 Y79.68 E17.55069
G1 X35.257 Y79.368 E17.59529
G1 X34.07 Y79.013 E17.64031
G1 X32.899 Y78.621 E17.68518
G1 X31.734 Y78.185 E17.73037
G1 X31.131 Y77.944 E17.75397
G1 X30.55 Y77.697 E17.77691
G1 X29.981 Y77.443 E17.79955
G1 X29.422 Y77.182 E17.82196
G1 X28.858 Y76.906 E17.84478
G1 X28.308 Y76.625 E17.86722
G1 X27.756 Y76.329 E17.88998
G1 X27.21 Y76.023 E17.91272
G1 X26.669 Y75.706 E17.93551
G1 X26.136 Y75.379 E17.95823
G1 X25.608 Y75.04 E17.98103
G1 X25.089 Y74.692 E18.00373
G1 X24.572 Y74.329 E18.02668
G1 X24.069 Y73.96 E18.04935
G1 X23.571 Y73.58 E18.07211
G1 X23.078 Y73.184 E18.09509
G1 X22.585 Y72.771 E18.11846
G1 X22.109 Y72.353 E18.14147
G1 X21.649 Y71.929 E18.1642
G1 X21.195 Y71.493 E18.18708
G1 X20.746 Y71.039 E18.21028
G1 X20.315 Y70.582 E18.2331
G1 X19.89 Y70.11 E18.25618
G1 X19.479 Y69.629 E18.27917
G1 X19.076 Y69.134 E18.30236
G1 X18.684 Y68.625 E18.3257
G1 X18.312 Y68.116 E18.34861
G1 X17.943 Y67.583 E18.37217
G1 X17.595 Y67.051 E18.39526
G1 X17.259 Y66.506 E18.41853
G1 X16.938 Y65.955 E18.4417
G1 X16.636 Y65.405 E18.4645
G1 X16.341 Y64.826 E18.48811
G1 X16.07 Y64.259 E18.51094
G1 X15.81 Y63.679 E18.53404
G1 X15.568 Y63.095 E18.55701
G1 X15.337 Y62.495 E18.58037
G1 X15.126 Y61.9 E18.60331
G1 X14.929 Y61.291 E18.62656
G1 X14.748 Y60.679 E18.64975
G1 X14.582 Y60.06 E18.67304
G1 X14.433 Y59.439 E18.69624
G1 X14.09 Y57.843 E18.75556
G1 X13.773 Y56.205 E18.81618
G1 X13.486 Y54.56 E18.87685
G1 X13.234 Y52.908 E18.93757
G1 X13.015 Y51.252 E18.99827
G1 X12.83 Y49.591 E19.05899
G1 X12.678 Y47.928 E19.11967
G1 X12.653 Y47.403 E19.13877
G1 X12.686 Y46.751 E19.16249
G1 X12.785 Y46.14 E19.18498
G1 X12.942 Y45.556 E19.20695
G1 X13.164 Y44.978 E19.22945
G1 X13.458 Y44.41 E19.25269
G1 X13.782 Y43.915 E19.27418
G1 X14.184 Y43.424 E19.29724
G1 X14.619 Y42.995 E19.31944
G1 X15.097 Y42.612 E19.3417
G1 X15.578 Y42.304 E19.36245
G0 F1080 X15.626 Y42.274
G0 X16.17 Y42.001
G0 F900 X16.341 Y42.363
G1 F1200 X16.889 Y42.16 E19.38368
G1 X17.438 Y42.021 E19.40426
G1 X18.016 Y41.938 E19.42548
G1 X59.85 Y39.072 E20.94908
G1 X60.151 Y39.072 E20.96002
G1 X102.225 Y41.972 E22.4924
G1 X102.577 Y42.025 E22.50534
G1 X103.127 Y42.166 E22.52597
G1 X103.677 Y42.371 E22.5473
G1 X104.189 Y42.628 E22.56811
G1 X104.676 Y42.942 E22.58917
G1 X105.115 Y43.294 E22.60961
G1 X105.532 Y43.706 E22.63091
G1 X105.892 Y44.147 E22.6516
G1 X106.208 Y44.632 E22.67263
G1 X106.47 Y45.144 E22.69353
G1 X106.676 Y45.679 E22.71436
G1 X106.825 Y46.23 E22.7351
G1 X106.917 Y46.798 E22.756
G1 X106.947 Y47.392 E22.77761
G1 X106.925 Y47.889 E22.79569
G1 X106.784 Y49.45 E22.85264
G1 X106.602 Y51.103 E22.91306
G1 X106.385 Y52.752 E22.9735
G1 X106.136 Y54.396 E23.03391
G1 X105.853 Y56.036 E23.09438
G1 X105.538 Y57.667 E23.15474
G1 X105.19 Y59.294 E23.2152
G1 X105.054 Y59.877 E23.23695
G1 X104.891 Y60.491 E23.26003
G1 X104.715 Y61.094 E23.28285
G1 X104.526 Y61.685 E23.3054
G1 X104.315 Y62.286 E23.32854
G1 X104.096 Y62.865 E23.35104
G1 X103.856 Y63.449 E23.37398
G1 X103.598 Y64.027 E23.39698
G1 X103.332 Y64.589 E23.41957
G1 X103.043 Y65.154 E23.44263
G1 X102.746 Y65.704 E23.46534
G1 X102.426 Y66.257 E23.48855
G1 X102.1 Y66.788 E23.51119
G1 X101.761 Y67.312 E23.53387
G1 X101.399 Y67.835 E23.55698
G1 X101.032 Y68.34 E23.57967
G1 X100.657 Y68.83 E23.60209
G1 X100.257 Y69.323 E23.62515
G1 X99.854 Y69.797 E23.64776
G1 X99.437 Y70.264 E23.67051
G1 X99.009 Y70.72 E23.69323
G1 X98.571 Y71.164 E23.71589
G1 X98.121 Y71.599 E23.73863
G1 X97.667 Y72.019 E23.76111
G1 X97.198 Y72.432 E23.78381
G1 X96.714 Y72.84 E23.80681
G1 X96.231 Y73.229 E23.82935
G1 X95.743 Y73.606 E23.85175
G1 X95.238 Y73.976 E23.8745
G1 X94.731 Y74.331 E23.89699
G1 X94.222 Y74.673 E23.91927
G1 X93.707 Y75.005 E23.94154
G1 X93.179 Y75.33 E23.96406
G1 X92.65 Y75.643 E23.9864
G1 X92.113 Y75.945 E24.00878
G1 X91.574 Y76.236 E24.03104
G1 X91.026 Y76.518 E24.05343
G1 X90.473 Y76.789 E24.07581
G1 X89.92 Y77.048 E24.098
G1 X89.36 Y77.299 E24.1203
G1 X88.8 Y77.538 E24.14242
G1 X88.239 Y77.769 E24.16446
G1 X87.099 Y78.198 E24.20872
G1 X85.935 Y78.592 E24.25337
G1 X84.76 Y78.949 E24.29799
G1 X83.57 Y79.267 E24.34275
G1 X82.376 Y79.547 E24.38731
G1 X81.167 Y79.789 E24.43211
G1 X79.956 Y79.994 E24.47674
G1 X78.743 Y80.16 E24.52122
G1 X77.526 Y80.289 E24.56569
G1 X76.31 Y80.38 E24.61
G1 X75.094 Y80.433 E24.65422
G1 X72.054 Y80.508 E24.76472
G1 X69.043 Y80.567 E24.87414
G1 X66.03 Y80.608 E24.98363
G1 X65.612 Y80.574 E24.99887
G1 X65.209 Y80.461 E25.01407
G1 X64.834 Y80.274 E25.0293
G1 X64.501 Y80.019 E25.04454
G1 X64.223 Y79.705 E25.05978
G1 X64.009 Y79.345 E25.075
G1 X63.868 Y78.95 E25.09023
G1 X63.8 Y78.408 E25.11008
G1 X63.8 Y69.567 E25.43132
G1 X56.2 Y69.567 E25.70747
G1 X56.2 Y78.408 E26.0287
G1 X56.16 Y78.825 E26.04393
G1 X56.042 Y79.227 E26.05915
G1 X55.849 Y79.599 E26.07438
G1 X55.59 Y79.928 E26.08959
G1 X55.273 Y80.202 E26.10481
G1 X54.91 Y80.411 E26.12003
G1 X54.513 Y80.547 E26.13528
G1 X53.97 Y80.608 E26.15514
G1 X51.043 Y80.568 E26.2615
G1 X48.03 Y80.51 E26.371
G1 X45.019 Y80.436 E26.48043
G1 X43.787 Y80.385 E26.52524
G1 X42.569 Y80.297 E26.56961
G1 X41.352 Y80.171 E26.61406
G1 X40.139 Y80.008 E26.65854
G1 X38.93 Y79.807 E26.70307
G1 X37.728 Y79.567 E26.7476
G1 X36.535 Y79.291 E26.7921
G1 X35.359 Y78.981 E26.83629
G1 X34.186 Y78.63 E26.88077
G1 X33.026 Y78.241 E26.92523
G1 X31.875 Y77.811 E26.96987
G1 X31.28 Y77.573 E26.99316
G1 X30.707 Y77.329 E27.01579
G1 X30.144 Y77.077 E27.0382
G1 X29.591 Y76.82 E27.06036
G1 X29.034 Y76.547 E27.0829
G1 X28.49 Y76.268 E27.10511
G1 X27.945 Y75.977 E27.12756
G1 X27.406 Y75.674 E27.15003
G1 X26.872 Y75.361 E27.17252
G1 X26.346 Y75.038 E27.19494
G1 X25.825 Y74.704 E27.21743
G1 X25.312 Y74.36 E27.23987
G1 X24.802 Y74.002 E27.26251
G1 X24.306 Y73.638 E27.28487
G1 X23.815 Y73.262 E27.30734
G1 X23.328 Y72.872 E27.33001
G1 X22.842 Y72.465 E27.35304
G1 X22.374 Y72.053 E27.3757
G1 X21.92 Y71.635 E27.39812
G1 X21.473 Y71.205 E27.42066
G1 X21.031 Y70.758 E27.4435
G1 X20.606 Y70.308 E27.46599
G1 X20.188 Y69.843 E27.48871
G1 X19.783 Y69.37 E27.51133
G1 X19.387 Y68.882 E27.53417
G1 X19.002 Y68.381 E27.55713
G1 X18.634 Y67.88 E27.57971
G1 X18.273 Y67.356 E27.60284
G1 X17.93 Y66.832 E27.62559
G1 X17.599 Y66.297 E27.64845
G1 X17.285 Y65.755 E27.67121
G1 X16.987 Y65.213 E27.69368
G1 X16.698 Y64.645 E27.71684
G1 X16.431 Y64.087 E27.73932
G1 X16.176 Y63.516 E27.76204
G1 X15.937 Y62.942 E27.78463
G1 X15.711 Y62.353 E27.80755
G1 X15.504 Y61.767 E27.83013
G1 X15.309 Y61.168 E27.85302
G1 X15.132 Y60.566 E27.87582
G1 X14.969 Y59.957 E27.89873
G1 X14.822 Y59.346 E27.92156
G1 X14.482 Y57.759 E27.98054
G1 X14.165 Y56.129 E28.04087
G1 X13.88 Y54.491 E28.10128
G1 X13.629 Y52.848 E28.16167
G1 X13.412 Y51.2 E28.22207
G1 X13.227 Y49.547 E28.28251
G1 X13.076 Y47.892 E28.34289
G1 X13.053 Y47.387 E28.36126
