;FLAVOR:Marlin
;TIME:5236
;Filament used: 4.48941m
;Layer height: 0.24
;MINX:5.426
;MINY:7.693
;MINZ:0.24
;MAXX:109.427
;MAXY:113.387
;MAXZ:14.88
;Generated with Cura_SteamEngine 4.6.1
M104 S210
M105
M109 S210
M82 ;absolute extrusion mode
;Sliced at: Wed 19-08-2020 16:27:46
G21 ;metric values
G90 ;absolute positioning
M82 ;set extruder to absolute mode
M107 ;start with the fan off
G1 Z5.0 F1800 ;move Z to 5mm
G28 X0 Y0 F1800 ;move X/Y to min endstops
G28 Z0 ;move Z to min endstop
G92 E0 ;zero the extruded length
G1 F200 E6.0 ;extrude 6.0mm of feed stock to build pressure
G1 Z5.0 F300 ;move the platform down 5mm
G92 E0 ;zero the extruded length again
G1 F1800
;Put printing message on LCD screen
M117 Printing...
G92 E0
G92 E0
G1 F1500 E-1
;LAYER_COUNT:62
;LAYER:0
M106 S102
G0 F900 X7.718 Y8.571 Z0.24
;TYPE:SKIRT
G1 F3600 E0.71493
G1 F1200 X8.091 Y8.254 E0.73271
G1 X8.511 Y8.002 E0.75051
G1 X8.966 Y7.822 E0.76829
G1 X9.444 Y7.718 E0.78606
G1 X9.933 Y7.693 E0.80385
G1 X10.419 Y7.749 E0.82163
G1 X10.89 Y7.882 E0.83941
G1 X11.333 Y8.091 E0.85721
G1 X11.736 Y8.368 E0.87498
G1 X11.96 Y8.571 E0.88596
G1 X24.656 Y21.267 E1.53835
G1 X87.134 Y26.732 E3.81716
G1 X90.203 Y27.001 E3.9291
G1 X90.686 Y27.084 E3.94691
G1 X91.149 Y27.243 E3.96469
G1 X91.579 Y27.476 E3.98246
G1 X92.063 Y27.869 E4.00512
G1 X108.564 Y44.37 E4.85303
G1 X108.881 Y44.743 E4.87082
G1 X109.133 Y45.163 E4.88861
G1 X109.313 Y45.618 E4.90639
G1 X109.417 Y46.096 E4.92417
G1 X109.427 Y46.796 E4.9496
G1 X109.22 Y48.822 E5.0236
G1 X108.944 Y50.928 E5.10078
G1 X108.628 Y52.901 E5.17338
G1 X108.235 Y54.983 E5.25036
G1 X107.779 Y57.059 E5.32759
G1 X107.264 Y59.119 E5.40475
G1 X106.689 Y61.162 E5.48186
G1 X106.058 Y63.185 E5.55886
G1 X105.364 Y65.196 E5.63616
G1 X104.612 Y67.184 E5.71339
G1 X103.806 Y69.144 E5.79039
G1 X102.941 Y71.084 E5.86757
G1 X102.019 Y72.999 E5.9448
G1 X101.045 Y74.882 E6.02183
G1 X100.014 Y76.739 E6.09901
G1 X98.929 Y78.566 E6.17621
G1 X97.793 Y80.359 E6.25334
G1 X96.607 Y82.117 E6.33039
G1 X95.366 Y83.844 E6.40766
G1 X94.075 Y85.532 E6.48488
G1 X92.74 Y87.18 E6.56194
G1 X91.354 Y88.791 E6.63916
G1 X89.925 Y90.359 E6.71624
G1 X88.449 Y91.885 E6.79338
G1 X86.93 Y93.369 E6.87054
G1 X85.368 Y94.807 E6.94769
G1 X83.76 Y96.2 E7.02499
G1 X82.123 Y97.542 E7.1019
G1 X80.439 Y98.841 E7.17918
G1 X78.719 Y100.087 E7.25635
G1 X76.968 Y101.283 E7.3334
G1 X75.177 Y102.43 E7.41068
G1 X73.357 Y103.522 E7.48779
G1 X71.506 Y104.56 E7.5649
G1 X69.626 Y105.545 E7.64202
G1 X67.714 Y106.476 E7.71929
G1 X65.78 Y107.35 E7.79641
G1 X63.822 Y108.166 E7.87348
G1 X61.838 Y108.927 E7.95069
G1 X59.831 Y109.629 E8.02795
G1 X57.811 Y110.271 E8.10496
G1 X55.767 Y110.856 E8.18221
G1 X53.711 Y111.38 E8.25931
G1 X51.64 Y111.845 E8.33643
G1 X49.554 Y112.249 E8.41363
G1 X47.458 Y112.592 E8.4908
G1 X45.355 Y112.874 E8.5679
G1 X43.243 Y113.095 E8.64506
G1 X41.125 Y113.254 E8.72223
G1 X39.005 Y113.352 E8.79935
G1 X36.879 Y113.387 E8.8766
G1 X34.763 Y113.364 E8.95349
G1 X32.635 Y113.275 E9.03088
G1 X30.52 Y113.126 E9.10792
G1 X28.405 Y112.915 E9.18515
G1 X26.3 Y112.643 E9.26227
G1 X24.203 Y112.309 E9.33943
G1 X23.594 Y112.169 E9.36213
G1 X23.144 Y111.975 E9.37994
G1 X22.732 Y111.711 E9.39772
G1 X22.369 Y111.383 E9.41549
G1 X22.064 Y111 E9.43328
G1 X21.825 Y110.573 E9.45106
G1 X21.659 Y110.112 E9.46887
G1 X21.569 Y109.631 E9.48665
G1 X21.56 Y109.142 E9.50442
G1 X21.6 Y108.806 E9.51671
G1 X24.205 Y94.034 E10.06174
G1 X24.329 Y93.56 E10.07954
G1 X24.528 Y93.113 E10.09732
G1 X24.797 Y92.705 E10.11507
G1 X25.13 Y92.345 E10.13289
G1 X25.516 Y92.045 E10.15066
G1 X25.946 Y91.811 E10.16844
G1 X26.409 Y91.65 E10.18626
G1 X26.891 Y91.567 E10.20403
G1 X27.38 Y91.563 E10.22179
G1 X29.242 Y91.849 E10.29024
G1 X30.923 Y92.065 E10.35183
G1 X32.624 Y92.226 E10.41391
G1 X34.28 Y92.33 E10.4742
G1 X35.998 Y92.382 E10.53665
G1 X37.681 Y92.38 E10.5978
G1 X39.361 Y92.322 E10.65888
G1 X41.047 Y92.207 E10.72028
G1 X42.723 Y92.04 E10.78148
G1 X44.428 Y91.813 E10.84398
G1 X46.059 Y91.542 E10.90406
G1 X47.73 Y91.208 E10.96597
G1 X49.37 Y90.825 E11.02716
G1 X51.021 Y90.381 E11.08929
G1 X52.612 Y89.897 E11.14971
G1 X54.237 Y89.346 E11.21206
G1 X55.822 Y88.749 E11.2736
G1 X57.345 Y88.118 E11.3335
G1 X58.927 Y87.403 E11.39658
G1 X60.428 Y86.664 E11.45737
G1 X61.928 Y85.864 E11.51914
G1 X63.387 Y85.023 E11.58033
G1 X64.817 Y84.137 E11.64145
G1 X66.248 Y83.185 E11.7039
G1 X67.579 Y82.234 E11.76334
G1 X68.967 Y81.173 E11.82682
G1 X70.254 Y80.122 E11.88719
G1 X71.528 Y79.008 E11.94869
G1 X72.78 Y77.843 E12.01083
G1 X73.971 Y76.658 E12.07187
G1 X75.106 Y75.454 E12.13199
G1 X76.251 Y74.156 E12.19488
G1 X77.332 Y72.85 E12.25648
G1 X78.343 Y71.542 E12.31655
G1 X79.352 Y70.144 E12.3792
G1 X80.293 Y68.749 E12.44034
G1 X81.195 Y67.312 E12.50198
G1 X82.036 Y65.869 E12.56267
G1 X82.849 Y64.367 E12.62473
G1 X83.599 Y62.864 E12.68576
G1 X84.298 Y61.343 E12.74658
G1 X84.983 Y59.718 E12.81066
G1 X85.561 Y58.2 E12.86968
G1 X86.114 Y56.603 E12.93109
G1 X86.623 Y54.963 E12.99348
G1 X87.069 Y53.338 E13.05471
G1 X87.459 Y51.713 E13.11543
G1 X87.811 Y50.011 E13.17858
G1 X88.086 Y48.398 E13.23803
G1 X88.155 Y47.903 E13.25619
G1 X36.448 Y43.379 E15.14215
G1 X35.965 Y43.296 E15.15995
G1 X35.503 Y43.137 E15.17771
G1 X35.072 Y42.904 E15.19551
G1 X34.588 Y42.511 E15.21816
G1 X6.304 Y14.227 E16.67155
G1 X5.987 Y13.854 E16.68934
G1 X5.735 Y13.434 E16.70713
G1 X5.555 Y12.979 E16.72491
G1 X5.451 Y12.501 E16.74269
G1 X5.426 Y12.012 E16.76048
G1 X5.482 Y11.526 E16.77825
G1 X5.615 Y11.055 E16.79604
G1 X5.824 Y10.612 E16.81383
G1 X6.101 Y10.209 E16.8316
G1 X6.304 Y9.985 E16.84259
G1 X7.248 Y9.041 E16.89109
G0 F1080 X7.718 Y8.571
G0 F900 X8.001 Y8.854
G1 F1200 X8.35 Y8.561 E16.90765
G1 X8.745 Y8.334 E16.9242
G1 X9.173 Y8.179 E16.94074
G1 X9.622 Y8.101 E16.9573
G1 X10.078 Y8.103 E16.97387
G1 X10.526 Y8.184 E16.99041
G1 X10.953 Y8.343 E17.00697
G1 X11.346 Y8.573 E17.02352
G1 X11.677 Y8.854 E17.03929
G1 X24.476 Y21.653 E17.69697
G1 X87.1 Y27.131 E19.98111
G1 X90.169 Y27.4 E20.09305
G1 X90.617 Y27.479 E20.10958
G1 X91.045 Y27.636 E20.12614
G1 X91.439 Y27.864 E20.14268
G1 X91.78 Y28.152 E20.1589
G1 X108.281 Y44.653 E21.00681
G1 X108.574 Y45.002 E21.02337
G1 X108.801 Y45.397 E21.03992
G1 X108.956 Y45.825 E21.05646
G1 X109.034 Y46.274 E21.07302
G1 X109.03 Y46.755 E21.0905
G1 X108.823 Y48.781 E21.1645
G1 X108.548 Y50.876 E21.24127
G1 X108.233 Y52.837 E21.31344
G1 X107.842 Y54.909 E21.39005
G1 X107.388 Y56.973 E21.46684
G1 X106.876 Y59.022 E21.54358
G1 X106.304 Y61.053 E21.62025
G1 X105.677 Y63.066 E21.69686
G1 X104.986 Y65.066 E21.77374
G1 X104.238 Y67.042 E21.85051
G1 X103.436 Y68.992 E21.92712
G1 X102.576 Y70.921 E22.00386
G1 X101.659 Y72.825 E22.08065
G1 X100.69 Y74.698 E22.15727
G1 X99.665 Y76.545 E22.23403
G1 X98.586 Y78.361 E22.31078
G1 X97.456 Y80.145 E22.38751
G1 X96.275 Y81.893 E22.46416
G1 X95.041 Y83.61 E22.54099
G1 X93.757 Y85.289 E22.61779
G1 X92.429 Y86.928 E22.69444
G1 X91.051 Y88.53 E22.77122
G1 X89.629 Y90.089 E22.84789
G1 X88.161 Y91.607 E22.92462
G1 X86.65 Y93.082 E23.00134
G1 X85.097 Y94.513 E23.07807
G1 X83.499 Y95.898 E23.15491
G1 X81.87 Y97.232 E23.23141
G1 X80.195 Y98.524 E23.30828
G1 X78.485 Y99.763 E23.38501
G1 X76.742 Y100.953 E23.46169
G1 X74.961 Y102.093 E23.53852
G1 X73.151 Y103.178 E23.6152
G1 X71.31 Y104.211 E23.69191
G1 X69.44 Y105.191 E23.76862
G1 X67.54 Y106.116 E23.8454
G1 X65.616 Y106.985 E23.92211
G1 X63.668 Y107.797 E23.99879
G1 X61.695 Y108.553 E24.07556
G1 X59.7 Y109.251 E24.15236
G1 X57.69 Y109.89 E24.229
G1 X55.657 Y110.471 E24.30582
G1 X53.612 Y110.993 E24.38251
G1 X51.552 Y111.455 E24.45922
G1 X49.478 Y111.856 E24.53597
G1 X47.394 Y112.197 E24.6127
G1 X45.302 Y112.477 E24.68939
G1 X43.201 Y112.697 E24.76615
G1 X41.095 Y112.855 E24.84289
G1 X38.987 Y112.952 E24.91956
G1 X36.873 Y112.987 E24.99639
G1 X34.768 Y112.964 E25.07288
G1 X32.652 Y112.876 E25.14983
G1 X30.548 Y112.727 E25.22647
G1 X28.445 Y112.517 E25.30326
G1 X26.351 Y112.246 E25.37998
G1 X24.266 Y111.914 E25.45669
G1 X23.692 Y111.78 E25.47811
G1 X23.277 Y111.592 E25.49466
G1 X22.901 Y111.334 E25.51123
G1 X22.576 Y111.015 E25.52778
G1 X22.312 Y110.644 E25.54433
G1 X22.117 Y110.232 E25.56089
G1 X21.996 Y109.793 E25.57743
G1 X21.954 Y109.339 E25.594
G1 X21.994 Y108.875 E25.61092
G1 X24.599 Y94.103 E26.15594
G1 X24.717 Y93.663 E26.1725
G1 X24.91 Y93.251 E26.18903
G1 X25.172 Y92.878 E26.20559
G1 X25.495 Y92.557 E26.22214
G1 X25.87 Y92.297 E26.23872
G1 X26.284 Y92.107 E26.25527
G1 X26.724 Y91.992 E26.27179
G1 X27.178 Y91.955 E26.28834
G1 X27.568 Y91.987 E26.30256
G1 X29.194 Y92.246 E26.36239
G1 X30.894 Y92.464 E26.42466
G1 X32.56 Y92.623 E26.48547
G1 X34.274 Y92.73 E26.54787
G1 X35.986 Y92.782 E26.61011
G1 X37.696 Y92.78 E26.67224
G1 X39.372 Y92.722 E26.73317
G1 X41.084 Y92.606 E26.79552
G1 X42.785 Y92.436 E26.85763
G1 X44.456 Y92.213 E26.91889
G1 X46.137 Y91.934 E26.9808
G1 X47.809 Y91.599 E27.04276
G1 X49.475 Y91.21 E27.10492
G1 X51.115 Y90.769 E27.16663
G1 X52.768 Y90.267 E27.2294
G1 X54.354 Y89.729 E27.29025
G1 X55.962 Y89.123 E27.35269
G1 X57.536 Y88.471 E27.4146
G1 X59.077 Y87.774 E27.47605
G1 X60.627 Y87.012 E27.53881
G1 X62.101 Y86.226 E27.5995
G1 X63.606 Y85.358 E27.66263
G1 X65.035 Y84.473 E27.7237
G1 X66.452 Y83.53 E27.78555
G1 X67.839 Y82.539 E27.84749
G1 X69.213 Y81.488 E27.91034
G1 X70.502 Y80.436 E27.9708
G1 X71.814 Y79.289 E28.03412
G1 X73.037 Y78.151 E28.09482
G1 X74.261 Y76.933 E28.15756
G1 X75.414 Y75.711 E28.21861
G1 X76.563 Y74.408 E28.28173
G1 X77.618 Y73.133 E28.34186
G1 X78.686 Y71.751 E28.40532
G1 X79.681 Y70.373 E28.46708
G1 X80.617 Y68.985 E28.52791
G1 X81.529 Y67.533 E28.59021
G1 X82.395 Y66.045 E28.65277
G1 X83.207 Y64.545 E28.71474
G1 X83.95 Y63.056 E28.77521
G1 X84.678 Y61.475 E28.83845
G1 X85.338 Y59.907 E28.90026
G1 X85.947 Y58.308 E28.96244
G1 X86.501 Y56.707 E29.02399
G1 X87.001 Y55.097 E29.08525
G1 X87.456 Y53.44 E29.14768
G1 X87.852 Y51.791 E29.2093
G1 X88.201 Y50.103 E29.27193
G1 X88.488 Y48.423 E29.33386
G1 X88.609 Y47.541 E29.36621
G1 X36.483 Y42.98 E31.26744
G1 X36.034 Y42.901 E31.28401
G1 X35.606 Y42.744 E31.30057
G1 X35.212 Y42.516 E31.31711
G1 X34.871 Y42.228 E31.33333
G1 X6.587 Y13.944 E32.78672
G1 X6.294 Y13.595 E32.80328
G1 X6.067 Y13.2 E32.81983
G1 X5.912 Y12.772 E32.83637
G1 X5.834 Y12.323 E32.85293
G1 X5.836 Y11.867 E32.8695
G1 X5.917 Y11.419 E32.88604
G1 X6.076 Y10.992 E32.9026
G1 X6.306 Y10.599 E32.91914
G1 X6.587 Y10.268 E32.93492
G1 X7.531 Y9.324 E32.98342
G0 F1080 X8.001 Y8.854
G0 F900 X8.283 Y9.136
G1 F1200 X8.607 Y8.87 E32.99866
G1 X8.974 Y8.669 E33.01386
G1 X9.374 Y8.542 E33.02911
G1 X9.79 Y8.493 E33.04433
G1 X10.208 Y8.523 E33.05956
G1 X10.612 Y8.632 E33.07476
G1 X10.989 Y8.816 E33.09
G1 X11.395 Y9.136 E33.10879
G1 X24.298 Y22.039 E33.77181
G1 X87.065 Y27.529 E36.06116
G1 X90.134 Y27.798 E36.1731
G1 X90.546 Y27.874 E36.18832
G1 X90.936 Y28.027 E36.20355
G1 X91.29 Y28.251 E36.21877
G1 X91.498 Y28.434 E36.22883
G1 X107.999 Y44.935 E37.07674
G1 X108.265 Y45.259 E37.09198
G1 X108.466 Y45.626 E37.10718
G1 X108.593 Y46.026 E37.12243
G1 X108.642 Y46.442 E37.13765
G1 X108.632 Y46.715 E37.14758
G1 X108.425 Y48.741 E37.22157
G1 X108.151 Y50.823 E37.29788
G1 X107.838 Y52.774 E37.36967
G1 X107.449 Y54.834 E37.44584
G1 X106.998 Y56.887 E37.52222
G1 X106.488 Y58.925 E37.59855
G1 X105.919 Y60.945 E37.67481
G1 X105.295 Y62.946 E37.75097
G1 X104.608 Y64.935 E37.82743
G1 X103.864 Y66.9 E37.90377
G1 X103.066 Y68.84 E37.97999
G1 X102.211 Y70.758 E38.05629
G1 X101.298 Y72.651 E38.13266
G1 X100.334 Y74.514 E38.20887
G1 X99.315 Y76.351 E38.2852
G1 X98.242 Y78.157 E38.36153
G1 X97.118 Y79.93 E38.43781
G1 X95.944 Y81.67 E38.51408
G1 X94.716 Y83.376 E38.59045
G1 X93.44 Y85.045 E38.66679
G1 X92.119 Y86.676 E38.74305
G1 X90.748 Y88.269 E38.81942
G1 X89.334 Y89.819 E38.89565
G1 X87.874 Y91.329 E38.97197
G1 X86.371 Y92.796 E39.04828
G1 X84.826 Y94.218 E39.12458
G1 X83.237 Y95.595 E39.20098
G1 X81.616 Y96.923 E39.27712
G1 X79.951 Y98.207 E39.35352
G1 X78.25 Y99.439 E39.42983
G1 X76.517 Y100.622 E39.50607
G1 X74.746 Y101.756 E39.58248
G1 X72.946 Y102.835 E39.65873
G1 X71.115 Y103.862 E39.73501
G1 X69.255 Y104.837 E39.81132
G1 X67.365 Y105.757 E39.8877
G1 X65.451 Y106.62 E39.96398
G1 X63.515 Y107.428 E40.04021
G1 X61.552 Y108.18 E40.11659
G1 X59.568 Y108.873 E40.19295
G1 X57.569 Y109.509 E40.26917
G1 X55.548 Y110.087 E40.34555
G1 X53.513 Y110.605 E40.42185
G1 X51.465 Y111.065 E40.49812
G1 X49.402 Y111.463 E40.57446
G1 X47.329 Y111.802 E40.65078
G1 X45.249 Y112.081 E40.72703
G1 X43.16 Y112.299 E40.80335
G1 X41.065 Y112.456 E40.87969
G1 X38.968 Y112.553 E40.95596
G1 X36.867 Y112.587 E41.03231
G1 X34.772 Y112.564 E41.10844
G1 X32.669 Y112.476 E41.18492
G1 X30.576 Y112.328 E41.26116
G1 X28.485 Y112.119 E41.33751
G1 X26.403 Y111.85 E41.41379
G1 X24.329 Y111.519 E41.4901
G1 X23.793 Y111.391 E41.51013
G1 X23.415 Y111.209 E41.52537
G1 X23.079 Y110.959 E41.54059
G1 X22.796 Y110.65 E41.55581
G1 X22.577 Y110.293 E41.57103
G1 X22.43 Y109.9 E41.58628
G1 X22.36 Y109.487 E41.6015
G1 X22.387 Y108.945 E41.62121
G1 X24.992 Y94.173 E42.16624
G1 X25.104 Y93.769 E42.18147
G1 X25.29 Y93.394 E42.19668
G1 X25.545 Y93.06 E42.21195
G1 X25.857 Y92.781 E42.22716
G1 X26.217 Y92.567 E42.24237
G1 X26.611 Y92.424 E42.2576
G1 X27.025 Y92.359 E42.27283
G1 X27.505 Y92.382 E42.29029
G1 X29.146 Y92.643 E42.35067
G1 X30.836 Y92.861 E42.41258
G1 X32.528 Y93.021 E42.47433
G1 X34.269 Y93.13 E42.53772
G1 X35.974 Y93.182 E42.5997
G1 X37.68 Y93.18 E42.66168
G1 X39.412 Y93.12 E42.72465
G1 X41.12 Y93.004 E42.78686
G1 X42.817 Y92.834 E42.84883
G1 X44.539 Y92.605 E42.91195
G1 X46.225 Y92.325 E42.97405
G1 X47.882 Y91.994 E43.03544
G1 X49.58 Y91.597 E43.0988
G1 X51.209 Y91.159 E43.1601
G1 X52.886 Y90.649 E43.22379
G1 X54.479 Y90.109 E43.2849
G1 X56.129 Y89.488 E43.34896
G1 X57.674 Y88.847 E43.40974
G1 X59.265 Y88.128 E43.47318
G1 X60.801 Y87.372 E43.53538
G1 X62.297 Y86.574 E43.59699
G1 X63.801 Y85.708 E43.66005
G1 X65.266 Y84.8 E43.72267
G1 X66.691 Y83.851 E43.78488
G1 X68.065 Y82.87 E43.84622
G1 X69.441 Y81.818 E43.90916
G1 X70.783 Y80.721 E43.97214
G1 X72.051 Y79.614 E44.0333
G1 X73.339 Y78.415 E44.09724
G1 X74.551 Y77.209 E44.15936
G1 X75.707 Y75.983 E44.22059
G1 X76.858 Y74.678 E44.28382
G1 X77.945 Y73.364 E44.34578
G1 X79 Y72.001 E44.40841
G1 X79.998 Y70.617 E44.4704
G1 X80.964 Y69.185 E44.53317
G1 X81.876 Y67.733 E44.59547
G1 X82.734 Y66.259 E44.65744
G1 X83.566 Y64.722 E44.72094
G1 X84.302 Y63.247 E44.78084
G1 X85.054 Y61.613 E44.8462
G1 X85.712 Y60.051 E44.90778
G1 X86.316 Y58.465 E44.96945
G1 X86.885 Y56.821 E45.03266
G1 X87.386 Y55.204 E45.09417
G1 X87.841 Y53.55 E45.1565
G1 X88.244 Y51.868 E45.21934
G1 X88.591 Y50.19 E45.2816
G1 X88.885 Y48.471 E45.34497
G1 X89.063 Y47.18 E45.39232
G1 X36.518 Y42.582 E47.30884
G1 X36.105 Y42.506 E47.3241
G1 X35.715 Y42.353 E47.33932
G1 X35.361 Y42.129 E47.35454
G1 X35.153 Y41.946 E47.36461
G1 X6.869 Y13.662 E48.818
G1 X6.603 Y13.338 E48.83323
G1 X6.402 Y12.971 E48.84843
G1 X6.275 Y12.571 E48.86368
G1 X6.226 Y12.155 E48.8789
G1 X6.256 Y11.737 E48.89413
G1 X6.365 Y11.333 E48.90933
G1 X6.549 Y10.956 E48.92458
G1 X6.869 Y10.55 E48.94336
G1 X7.813 Y9.606 E48.99187
G0 F1080 X8.283 Y9.136
G0 F900 X8.566 Y9.419
G1 F1200 X8.861 Y9.181 E49.00564
G1 X9.199 Y9.01 E49.0194
G1 X9.565 Y8.913 E49.03316
G1 X9.944 Y8.895 E49.04695
G1 X10.318 Y8.957 E49.06072
G1 X10.67 Y9.095 E49.07446
G1 X11.112 Y9.419 E49.09437
G1 X24.118 Y22.425 E49.76269
G1 X87.03 Y27.928 E52.05733
G1 X90.099 Y28.197 E52.16927
G1 X90.471 Y28.269 E52.18304
G1 X90.819 Y28.418 E52.19679
G1 X91.215 Y28.717 E52.21482
G1 X107.716 Y45.218 E53.06273
G1 X107.954 Y45.513 E53.0765
G1 X108.125 Y45.851 E53.09027
G1 X108.222 Y46.217 E53.10403
G1 X108.234 Y46.674 E53.12064
G1 X108.027 Y48.7 E53.19463
G1 X107.755 Y50.771 E53.27053
G1 X107.443 Y52.71 E53.34189
G1 X107.056 Y54.76 E53.41769
G1 X106.607 Y56.801 E53.49363
G1 X106.1 Y58.827 E53.56951
G1 X105.534 Y60.836 E53.64535
G1 X104.913 Y62.827 E53.72113
G1 X104.23 Y64.804 E53.79713
G1 X103.49 Y66.758 E53.87305
G1 X102.696 Y68.687 E53.94885
G1 X101.846 Y70.595 E54.02474
G1 X100.938 Y72.477 E54.10067
G1 X99.979 Y74.33 E54.17648
